( Made using CamBam - http://www.cambam.co.uk )
( Elipse-Einsatz 1/11/2018 5:49:09 PM )
( T2 : 2.0 )
( T6 : 6.0 )
G21 G90 G64 G40
G0 Z3.0
( T6 : 6.0 )
T6 M6
( Rand-Vertiefung )
G17
M3 S1000
G0 X185.57676 Y5.8
G0 Z1.0
G1 F300.0 Z-2.0
G1 F800.0 X183.59798
G1 X183.55916 Y6.85916
G3 X183.47472 Y8.01072 I-15.78939 J-0.57884
G1 X182.78464 Y14.27383
G3 X182.61795 Y15.40733 I-15.70496 J-1.73041
G1 X181.46992 Y21.63605
G3 X181.22519 Y22.74042 I-15.53828 J-2.86391
G1 X179.62235 Y28.91769
G3 X179.30547 Y29.98322 I-15.29355 J-3.96829
G1 X177.25221 Y36.0921
G3 X176.87033 Y37.11073 I-14.97667 J-5.03381
G1 X174.37229 Y43.13448
G3 X173.93334 Y44.10002 I-14.59479 J-6.05244
G1 X171.78748 Y48.42839
G1 X174.28303 Y44.12498
G1 X177.34146 Y37.95586
G1 X179.92737 Y31.72024
G1 X182.04069 Y25.43266
G1 X183.68228 Y19.10608
G1 X184.85344 Y12.75191
G1 X185.55549 Y6.38021
G1 X185.57676 Y5.8
G1 F300.0 Y4.6
G1 F800.0 X182.44117
G1 X182.35996 Y6.8152
G3 X182.28194 Y7.8793 I-14.5902 J-0.53488
G1 X181.59185 Y14.1424
G3 X181.43783 Y15.18982 I-14.51218 J-1.59899
G1 X180.28979 Y21.41854
G3 X180.06366 Y22.43904 I-14.35815 J-2.6464
G1 X178.46081 Y28.6163
G3 X178.168 Y29.6009 I-14.13201 J-3.6669
G1 X176.11474 Y35.70978
G3 X175.76186 Y36.65105 I-13.8392 J-4.6515
G1 X173.26382 Y42.6748
G3 X172.85821 Y43.56701 I-13.48633 J-5.59276
G1 X169.92223 Y49.48913
G3 X169.47152 Y50.32828 I-13.08072 J-6.48497
G1 X166.10565 Y56.13253
G3 X165.61741 Y56.91626 I-12.63001 J-7.32413
G1 X161.83087 Y62.58672
G3 X161.31229 Y63.31409 I-12.14177 J-8.10786
G1 X157.11546 Y68.83523
G3 X156.57315 Y69.50652 I-11.6232 J-8.83523
G1 X151.97754 Y74.86321
G3 X151.41738 Y75.47965 I-11.08088 J-9.50652
G1 X150.60747 Y76.32138
G1 X152.85581 Y74.22846
G1 X158.26639 Y68.60528
G1 X163.22876 Y62.8211
G1 X167.7333 Y56.89515
G1 X171.77248 Y50.84636
G1 X175.34076 Y44.69308
G1 X178.43449 Y38.45277
G1 X181.05167 Y32.14173
G1 X183.19162 Y25.77493
G1 X184.85461 Y19.36586
G1 X186.04145 Y12.92661
G1 X186.75307 Y6.46802
G1 X186.82155 Y4.6
G1 X185.57676
G1 F300.0 Y2.2
G1 F800.0 X180.12754
G1 X179.96157 Y6.72727
G3 X179.89637 Y7.61645 I-12.19181 J-0.44696
G1 X179.20629 Y13.87955
G3 X179.07759 Y14.75479 I-12.12661 J-1.33614
G1 X177.92955 Y20.98351
G3 X177.74059 Y21.83626 I-11.99791 J-2.21138
G1 X176.13774 Y28.01352
G3 X175.89306 Y28.83627 I-11.80894 J-3.06412
G1 X173.83981 Y34.94515
G3 X173.54493 Y35.73169 I-11.56427 J-3.88687
G1 X171.04689 Y41.75545
G3 X170.70796 Y42.50099 I-11.2694 J-4.67341
G1 X167.77197 Y48.4231
G3 X167.39535 Y49.12432 I-10.93046 J-5.41895
G1 X164.02948 Y54.92856
G3 X163.6215 Y55.58346 I-10.55384 J-6.12016
G1 X159.83496 Y61.25392
G3 X159.40163 Y61.86173 I-10.14586 J-6.77506
G1 X155.2048 Y67.38287
G3 X154.75164 Y67.94381 I-9.71253 J-7.38287
G1 X150.15602 Y73.30049
G3 X149.68794 Y73.8156 I-9.25937 J-7.94381
G1 X144.70614 Y78.99315
G3 X144.2274 Y79.46405 I-8.79129 J-8.45892
G1 X138.87307 Y84.44826
G3 X138.38726 Y84.87698 I-8.31254 J-8.92982
G1 X132.67507 Y89.65421
G3 X132.18516 Y90.04303 I-7.82674 J-9.35853
G1 X126.13077 Y94.60017
G3 X125.63914 Y94.95149 I-7.33683 J-9.74735
G1 X119.25914 Y99.27605
G3 X118.76764 Y99.5923 I-6.8452 J-10.09867
G1 X112.07953 Y103.67243
G3 X111.58955 Y103.95596 I-6.3537 J-10.41492
G1 X104.61164 Y107.78049
G3 X104.12419 Y108.03356 I-5.86372 J-10.69845
G1 X96.87562 Y111.59199
G3 X96.39136 Y111.81671 I-5.37626 J-10.95152
G1 X88.89201 Y115.09929
G3 X88.41134 Y115.29759 I-4.89201 J-11.17624
G1 X80.68174 Y118.29532
G3 X80.20483 Y118.46896 I-4.41134 J-11.37454
G1 X72.26618 Y121.17363
G3 X71.79301 Y121.32416 I-3.93443 J-11.54817
G1 X63.66707 Y123.72836
G3 X63.19749 Y123.85716 I-3.46126 J-11.6987
G1 X54.90653 Y125.95429
G3 X54.44024 Y126.06255 I-2.99167 J-11.82751
G1 X47.83769 Y127.45952
G1 X49.88336 Y127.10872
G1 X59.53824 Y125.06593
G1 X69.01923 Y122.66779
G1 X78.29873 Y119.92229
G1 X87.3498 Y116.83862
G1 X96.14622 Y113.42715
G1 X104.66264 Y109.69938
G1 X112.87467 Y105.66798
G1 X120.75899 Y101.34665
G1 X128.29349 Y96.75017
G1 X135.45736 Y91.89427
G1 X142.23123 Y86.79558
G1 X148.59729 Y81.47151
G1 X154.53943 Y75.94012
G1 X160.04331 Y70.21998
G1 X165.09648 Y64.32996
G1 X169.68842 Y58.28904
G1 X173.81055 Y52.11601
G1 X177.45622 Y45.82928
G1 X180.62055 Y39.44658
G1 X183.30027 Y32.98473
G1 X185.49347 Y26.45948
G1 X187.19927 Y19.88543
G1 X188.41748 Y13.27601
G1 X189.14825 Y6.64364
G1 X189.31115 Y2.2
G1 X185.57676
G0 Z3.0
G0 X-171.78748 Y48.42839
G0 Z1.0
G1 F300.0 Z-2.0
G1 F800.0 X-173.93334 Y44.10002
G3 X-174.37229 Y43.13448 I14.15584 J-7.01799
G1 X-176.87033 Y37.11073
G3 X-177.25221 Y36.0921 I14.59479 J-6.05244
G1 X-179.30547 Y29.98322
G3 X-179.62235 Y28.91769 I14.97667 J-5.03381
G1 X-181.22519 Y22.74042
G3 X-181.46992 Y21.63605 I15.29355 J-3.96829
G1 X-182.61795 Y15.40733
G3 X-182.78464 Y14.27383 I15.53828 J-2.86391
G1 X-183.47472 Y8.01072
G3 X-183.55916 Y6.85916 I15.70496 J-1.73041
G1 X-183.59798 Y5.8
G1 X-185.57676
G1 X-185.55549 Y6.38021
G1 X-184.85344 Y12.75191
G1 X-183.68228 Y19.10608
G1 X-182.04069 Y25.43266
G1 X-179.92737 Y31.72024
G1 X-177.34146 Y37.95586
G1 X-174.28303 Y44.12498
G1 X-171.78748 Y48.42839
G1 F300.0 X-172.82556 Y49.03038
G1 F800.0 X-171.77248 Y50.84636
G1 X-167.7333 Y56.89515
G1 X-163.22876 Y62.8211
G1 X-158.26639 Y68.60528
G1 X-152.85581 Y74.22846
G1 X-150.60747 Y76.32138
G1 X-151.41738 Y75.47965
G3 X-151.97754 Y74.86321 I10.52072 J-10.12297
G1 X-156.57315 Y69.50652
G3 X-157.11546 Y68.83523 I11.08088 J-9.50652
G1 X-161.31229 Y63.31409
G3 X-161.83087 Y62.58672 I11.6232 J-8.83523
G1 X-165.61741 Y56.91626
G3 X-166.10565 Y56.13253 I12.14177 J-8.10786
G1 X-169.47152 Y50.32828
G3 X-169.92223 Y49.48913 I12.63001 J-7.32413
G1 X-172.85821 Y43.56701
G3 X-173.26382 Y42.6748 I13.08072 J-6.48497
G1 X-175.76186 Y36.65105
G3 X-176.11474 Y35.70978 I13.48633 J-5.59276
G1 X-178.168 Y29.6009
G3 X-178.46081 Y28.6163 I13.8392 J-4.6515
G1 X-180.06366 Y22.43904
G3 X-180.28979 Y21.41854 I14.13201 J-3.6669
G1 X-181.43783 Y15.18982
G3 X-181.59185 Y14.1424 I14.35815 J-2.6464
G1 X-182.28194 Y7.8793
G3 X-182.35996 Y6.8152 I14.51218 J-1.59899
G1 X-182.44117 Y4.6
G1 X-186.82155
G1 X-186.75307 Y6.46802
G1 X-186.04145 Y12.92661
G1 X-184.85461 Y19.36586
G1 X-183.19162 Y25.77493
G1 X-181.05167 Y32.14173
G1 X-178.43449 Y38.45277
G1 X-175.34076 Y44.69308
G1 X-172.82556 Y49.03038
G1 F300.0 X-174.90173 Y50.23434
G1 F800.0 X-173.81055 Y52.11601
G1 X-169.68842 Y58.28904
G1 X-165.09648 Y64.32996
G1 X-160.04331 Y70.21998
G1 X-154.53943 Y75.94012
G1 X-148.59729 Y81.47151
G1 X-142.23123 Y86.79558
G1 X-135.45736 Y91.89427
G1 X-128.29349 Y96.75017
G1 X-120.75899 Y101.34665
G1 X-112.87467 Y105.66798
G1 X-104.66264 Y109.69938
G1 X-96.14622 Y113.42715
G1 X-87.3498 Y116.83862
G1 X-78.29873 Y119.92229
G1 X-69.01923 Y122.66779
G1 X-59.53824 Y125.06593
G1 X-49.88336 Y127.10872
G1 X-47.83769 Y127.45952
G1 X-54.44024 Y126.06255
G3 X-54.90653 Y125.95429 I2.52538 J-11.93576
G1 X-63.19749 Y123.85716
G3 X-63.66707 Y123.72836 I2.99167 J-11.82751
G1 X-71.79301 Y121.32416
G3 X-72.26618 Y121.17363 I3.46126 J-11.6987
G1 X-80.20483 Y118.46896
G3 X-80.68174 Y118.29532 I3.93443 J-11.54817
G1 X-88.41134 Y115.29759
G3 X-88.89201 Y115.09929 I4.41134 J-11.37454
G1 X-96.39136 Y111.81671
G3 X-96.87562 Y111.59199 I4.89201 J-11.17624
G1 X-104.12419 Y108.03356
G3 X-104.61164 Y107.78049 I5.37626 J-10.95152
G1 X-111.58955 Y103.95596
G3 X-112.07953 Y103.67243 I5.86372 J-10.69845
G1 X-118.76764 Y99.5923
G3 X-119.25914 Y99.27605 I6.3537 J-10.41492
G1 X-125.63914 Y94.95149
G3 X-126.13077 Y94.60017 I6.8452 J-10.09867
G1 X-132.18516 Y90.04303
G3 X-132.67507 Y89.65421 I7.33683 J-9.74735
G1 X-138.38726 Y84.87698
G3 X-138.87307 Y84.44826 I7.82674 J-9.35853
G1 X-144.2274 Y79.46405
G3 X-144.70614 Y78.99315 I8.31254 J-8.92982
G1 X-149.68794 Y73.8156
G3 X-150.15602 Y73.30049 I8.79129 J-8.45892
G1 X-154.75164 Y67.94381
G3 X-155.2048 Y67.38287 I9.25937 J-7.94381
G1 X-159.40163 Y61.86173
G3 X-159.83496 Y61.25392 I9.71253 J-7.38287
G1 X-163.6215 Y55.58346
G3 X-164.02948 Y54.92856 I10.14586 J-6.77506
G1 X-167.39535 Y49.12432
G3 X-167.77197 Y48.4231 I10.55384 J-6.12016
G1 X-170.70796 Y42.50099
G3 X-171.04689 Y41.75545 I10.93046 J-5.41895
G1 X-173.54493 Y35.73169
G3 X-173.83981 Y34.94515 I11.2694 J-4.67341
G1 X-175.89306 Y28.83627
G3 X-176.13774 Y28.01352 I11.56427 J-3.88687
G1 X-177.74059 Y21.83626
G3 X-177.92955 Y20.98351 I11.80894 J-3.06412
G1 X-179.07759 Y14.75479
G3 X-179.20629 Y13.87955 I11.99791 J-2.21138
G1 X-179.89637 Y7.61645
G3 X-179.96157 Y6.72727 I12.12661 J-1.33614
G1 X-180.12754 Y2.2
G1 X-189.31115
G1 X-189.14825 Y6.64364
G1 X-188.41748 Y13.27601
G1 X-187.19927 Y19.88543
G1 X-185.49347 Y26.45948
G1 X-183.30027 Y32.98473
G1 X-180.62055 Y39.44658
G1 X-177.45622 Y45.82928
G1 X-174.90173 Y50.23434
G1 F300.0 X-176.97789 Y51.43831
G1 F800.0 X-175.84863 Y53.38566
G1 X-171.64353 Y59.68293
G1 X-166.9642 Y65.83882
G1 X-161.82023 Y71.83468
G1 X-156.22305 Y77.65178
G1 X-150.18588 Y83.27163
G1 X-143.72371 Y88.67609
G1 X-136.85317 Y93.84754
G1 X-129.59249 Y98.76906
G1 X-121.96135 Y103.42449
G1 X-113.9808 Y107.79856
G1 X-105.67311 Y111.87693
G1 X-97.06171 Y115.64626
G1 X-88.17105 Y119.09429
G1 X-79.02648 Y122.20982
G1 X-69.6542 Y124.98276
G1 X-60.08111 Y127.4042
G1 X-50.33475 Y129.46634
G1 X-40.4432 Y131.1626
G1 X-30.43496 Y132.48754
G1 X-20.3389 Y133.43694
G1 X-10.18414 Y134.0078
G1 X0.0 Y134.19829
G1 X10.18414 Y134.0078
G1 X20.3389 Y133.43694
G1 X30.43496 Y132.48754
G1 X40.4432 Y131.1626
G1 X50.33475 Y129.46634
G1 X60.08111 Y127.4042
G1 X69.6542 Y124.98276
G1 X79.02648 Y122.20982
G1 X88.17105 Y119.09429
G1 X97.06171 Y115.64626
G1 X105.67311 Y111.87693
G1 X113.9808 Y107.79856
G1 X121.96135 Y103.42449
G1 X129.59249 Y98.76906
G1 X136.85317 Y93.84754
G1 X143.72371 Y88.67609
G1 X150.18588 Y83.27163
G1 X156.22305 Y77.65178
G1 X161.82023 Y71.83468
G1 X166.9642 Y65.83882
G1 X171.64353 Y59.68293
G1 X175.84863 Y53.38566
G1 X179.57168 Y46.96549
G1 X182.8066 Y40.44039
G1 X185.54887 Y33.82772
G1 X187.79532 Y27.14403
G1 X189.54393 Y20.405
G1 X190.7935 Y13.6254
G1 X191.54342 Y6.81926
G1 X191.79342 Y0.0
G1 X191.78608 Y-0.2
G1 X177.79796
G3 X177.79342 Y0.35903 I-9.79796 J0.2
G1 X177.56318 Y6.63934
G3 X177.51081 Y7.35361 I-9.79342 J-0.35903
G1 X176.82073 Y13.61671
G3 X176.71734 Y14.31977 I-9.74105 J-1.07329
G1 X175.56931 Y20.54849
G3 X175.41751 Y21.23348 I-9.63766 J-1.77635
G1 X173.81467 Y27.41075
G3 X173.61813 Y28.07164 I-9.48587 J-2.46134
G1 X171.56487 Y34.18052
G3 X171.328 Y34.81233 I-9.28933 J-3.12224
G1 X168.82996 Y40.83609
G3 X168.5577 Y41.43497 I-9.05247 J-3.75405
G1 X165.62172 Y47.35708
G3 X165.31919 Y47.92035 I-8.78021 J-4.35293
G1 X161.95331 Y53.72459
G3 X161.62559 Y54.25066 I-8.47768 J-4.9162
G1 X157.83905 Y59.92112
G3 X157.49097 Y60.40936 I-8.14996 J-5.44226
G1 X153.29414 Y65.9305
G3 X152.93012 Y66.38109 I-7.80187 J-5.9305
G1 X148.33451 Y71.73778
G3 X147.95851 Y72.15155 I-7.43785 J-6.38109
G1 X142.97671 Y77.3291
G3 X142.59214 Y77.70736 I-7.06185 J-6.79487
G1 X137.23781 Y82.69158
G3 X136.84757 Y83.03596 I-6.67729 J-7.17313
G1 X131.13538 Y87.81318
G3 X130.74185 Y88.12551 I-6.28705 J-7.51751
G1 X124.68746 Y92.68265
G3 X124.29254 Y92.96486 I-5.89352 J-7.82984
G1 X117.91255 Y97.28943
G3 X117.51773 Y97.54346 I-5.49861 J-8.11205
G1 X110.82962 Y101.6236
G3 X110.43603 Y101.85135 I-5.10379 J-8.36608
G1 X103.45812 Y105.67587
G3 X103.06656 Y105.87916 I-4.7102 J-8.59384
G1 X95.818 Y109.43759
G3 X95.429 Y109.6181 I-4.31864 J-8.79712
G1 X87.92964 Y112.90068
G3 X87.54353 Y113.05997 I-3.92964 J-8.97763
G1 X79.81394 Y116.05771
G3 X79.43084 Y116.19718 I-3.54353 J-9.13692
G1 X71.4922 Y118.90186
G3 X71.11211 Y119.02277 I-3.16044 J-9.2764
G1 X62.98617 Y121.42697
G3 X62.60896 Y121.53043 I-2.78036 J-9.39732
G1 X54.318 Y123.62757
G3 X53.94344 Y123.71453 I-2.40315 J-9.50078
G1 X45.51018 Y125.49884
G3 X45.13797 Y125.57011 I-2.02859 J-9.58774
G1 X36.58554 Y127.03672
G3 X36.21532 Y127.09295 I-1.65637 J-9.65901
G1 X27.56714 Y128.23784
G3 X27.19851 Y128.27956 I-1.28615 J-9.71524
G1 X18.4783 Y129.09958
G3 X18.11083 Y129.12718 I-0.91752 J-9.75695
G1 X9.34248 Y129.6201
G3 X8.97571 Y129.63383 I-0.55004 J-9.78455
G1 X0.18327 Y129.79829
G3 X-0.18327 I-0.18327 J-9.79829
G1 X-8.97571 Y129.63383
G3 X-9.34248 Y129.6201 I0.18327 J-9.79829
G1 X-18.11083 Y129.12718
G3 X-18.4783 Y129.09958 I0.55004 J-9.78455
G1 X-27.19851 Y128.27956
G3 X-27.56714 Y128.23784 I0.91752 J-9.75695
G1 X-36.21532 Y127.09295
G3 X-36.58554 Y127.03672 I1.28615 J-9.71524
G1 X-45.13797 Y125.57011
G3 X-45.51018 Y125.49884 I1.65637 J-9.65901
G1 X-53.94344 Y123.71453
G3 X-54.318 Y123.62757 I2.02859 J-9.58774
G1 X-62.60896 Y121.53043
G3 X-62.98617 Y121.42697 I2.40315 J-9.50078
G1 X-71.11211 Y119.02277
G3 X-71.4922 Y118.90186 I2.78036 J-9.39732
G1 X-79.43084 Y116.19718
G3 X-79.81394 Y116.05771 I3.16044 J-9.2764
G1 X-87.54353 Y113.05997
G3 X-87.92964 Y112.90068 I3.54353 J-9.13692
G1 X-95.429 Y109.6181
G3 X-95.818 Y109.43759 I3.92964 J-8.97763
G1 X-103.06656 Y105.87916
G3 X-103.45812 Y105.67587 I4.31864 J-8.79712
G1 X-110.43603 Y101.85135
G3 X-110.82962 Y101.6236 I4.7102 J-8.59384
G1 X-117.51773 Y97.54346
G3 X-117.91255 Y97.28943 I5.10379 J-8.36608
G1 X-124.29254 Y92.96486
G3 X-124.68746 Y92.68265 I5.49861 J-8.11205
G1 X-130.74185 Y88.12551
G3 X-131.13538 Y87.81318 I5.89352 J-7.82984
G1 X-136.84757 Y83.03596
G3 X-137.23781 Y82.69158 I6.28705 J-7.51751
G1 X-142.59214 Y77.70736
G3 X-142.97671 Y77.3291 I6.67729 J-7.17313
G1 X-147.95851 Y72.15155
G3 X-148.33451 Y71.73778 I7.06185 J-6.79487
G1 X-152.93012 Y66.38109
G3 X-153.29414 Y65.9305 I7.43785 J-6.38109
G1 X-157.49097 Y60.40936
G3 X-157.83905 Y59.92112 I7.80187 J-5.9305
G1 X-161.62559 Y54.25066
G3 X-161.95331 Y53.72459 I8.14996 J-5.44226
G1 X-165.31919 Y47.92035
G3 X-165.62172 Y47.35708 I8.47768 J-4.9162
G1 X-168.5577 Y41.43497
G3 X-168.82996 Y40.83609 I8.78021 J-4.35293
G1 X-171.328 Y34.81233
G3 X-171.56487 Y34.18052 I9.05247 J-3.75405
G1 X-173.61813 Y28.07164
G3 X-173.81467 Y27.41075 I9.28933 J-3.12224
G1 X-175.41751 Y21.23348
G3 X-175.56931 Y20.54849 I9.48587 J-2.46134
G1 X-176.71734 Y14.31977
G3 X-176.82073 Y13.61671 I9.63766 J-1.77635
G1 X-177.51081 Y7.35361
G3 X-177.56318 Y6.63934 I9.74105 J-1.07329
G1 X-177.79342 Y0.35903
G3 X-177.79796 Y-0.2 I9.79342 J-0.35903
G1 X-191.78608
G1 X-191.79342 Y0.0
G1 X-191.54342 Y6.81926
G1 X-190.7935 Y13.6254
G1 X-189.54393 Y20.405
G1 X-187.79532 Y27.14403
G1 X-185.54887 Y33.82772
G1 X-182.8066 Y40.44039
G1 X-179.57168 Y46.96549
G1 X-176.97789 Y51.43831
G1 F300.0 X-179.05406 Y52.64228
G1 F800.0 X-177.8867 Y54.65532
G1 X-173.59864 Y61.07681
G1 X-168.83192 Y67.34768
G1 X-163.59715 Y73.44937
G1 X-157.90667 Y79.36345
G1 X-151.77447 Y85.07176
G1 X-145.21618 Y90.55659
G1 X-138.24898 Y95.80081
G1 X-130.89149 Y100.78795
G1 X-123.16371 Y105.50234
G1 X-115.08693 Y109.92914
G1 X-106.68359 Y114.05447
G1 X-97.97721 Y117.86538
G1 X-88.9923 Y121.34996
G1 X-79.75422 Y124.49734
G1 X-70.28916 Y127.29774
G1 X-60.62398 Y129.74247
G1 X-50.78614 Y131.82397
G1 X-40.80364 Y133.53582
G1 X-30.70489 Y134.87274
G1 X-20.51866 Y135.83063
G1 X-10.27397 Y136.40654
G1 X0.0 Y136.59871
G1 X10.27397 Y136.40654
G1 X20.51866 Y135.83063
G1 X30.70489 Y134.87274
G1 X40.80364 Y133.53582
G1 X50.78614 Y131.82397
G1 X60.62398 Y129.74247
G1 X70.28916 Y127.29774
G1 X79.75422 Y124.49734
G1 X88.9923 Y121.34996
G1 X97.97721 Y117.86538
G1 X106.68359 Y114.05447
G1 X115.08693 Y109.92914
G1 X123.16371 Y105.50234
G1 X130.89149 Y100.78795
G1 X138.24898 Y95.80081
G1 X145.21618 Y90.55659
G1 X151.77447 Y85.07176
G1 X157.90667 Y79.36345
G1 X163.59715 Y73.44937
G1 X168.83192 Y67.34768
G1 X173.59864 Y61.07681
G1 X177.8867 Y54.65532
G1 X181.68714 Y48.10169
G1 X184.99266 Y41.4342
G1 X187.79747 Y34.67071
G1 X190.09718 Y27.82858
G1 X191.88859 Y20.92456
G1 X193.16953 Y13.9748
G1 X193.93859 Y6.99488
G1 X194.19503 Y0.0
G1 X194.09971 Y-2.6
G1 X175.30965
G1 X175.39503 Y-0.2711
G3 Y0.2711 I-7.39503 J0.2711
G1 X175.16479 Y6.55142
G3 X175.12525 Y7.09076 I-7.39503 J-0.2711
G1 X174.43516 Y13.35386
G3 X174.3571 Y13.88474 I-7.35549 J-0.81045
G1 X173.20906 Y20.11346
G3 X173.09444 Y20.6307 I-7.27742 J-1.34133
G1 X171.4916 Y26.80797
G3 X171.34319 Y27.30701 I-7.1628 J-1.85857
G1 X169.28993 Y33.41589
G3 X169.11107 Y33.89297 I-7.01439 J-2.35761
G1 X166.61303 Y39.91673
G3 X166.40745 Y40.36894 I-6.83554 J-2.83469
G1 X163.47146 Y46.29106
G3 X163.24302 Y46.71638 I-6.62995 J-3.2869
G1 X159.87715 Y52.52063
G3 X159.62969 Y52.91786 I-6.40151 J-3.71223
G1 X155.84314 Y58.58832
G3 X155.5803 Y58.95699 I-6.15405 J-4.10946
G1 X151.38348 Y64.47813
G3 X151.10861 Y64.81838 I-5.89121 J-4.47813
G1 X146.51299 Y70.17506
G3 X146.22908 Y70.4875 I-5.61634 J-4.81838
G1 X141.24727 Y75.66505
G3 X140.95689 Y75.95068 I-5.33242 J-5.13082
G1 X135.60256 Y80.93489
G3 X135.30789 Y81.19493 I-5.04204 J-5.41645
G1 X129.5957 Y85.97216
G3 X129.29854 Y86.208 I-4.74737 J-5.67649
G1 X123.24415 Y90.76514
G3 X122.94595 Y90.97824 I-4.45021 J-5.91233
G1 X116.56595 Y95.3028
G3 X116.26783 Y95.49462 I-4.15201 J-6.12542
G1 X109.57971 Y99.57476
G3 X109.28251 Y99.74674 I-3.85388 J-6.31724
G1 X102.3046 Y103.57126
G3 X102.00894 Y103.72476 I-3.55668 J-6.48922
G1 X94.76037 Y107.28319
G3 X94.46664 Y107.4195 I-3.26101 J-6.64272
G1 X86.96728 Y110.70208
G3 X86.67573 Y110.82236 I-2.96728 J-6.77903
G1 X78.94613 Y113.82009
G3 X78.65686 Y113.92541 I-2.67573 J-6.89931
G1 X70.71821 Y116.63008
G3 X70.43121 Y116.72139 I-2.38645 J-7.00463
G1 X62.30527 Y119.12559
G3 X62.02044 Y119.20371 I-2.09945 J-7.09594
G1 X53.72948 Y121.30084
G3 X53.44664 Y121.36651 I-1.81462 J-7.17406
G1 X45.01339 Y123.15082
G3 X44.73233 Y123.20464 I-1.53179 J-7.23973
G1 X36.17989 Y124.67125
G3 X35.90034 Y124.71371 I-1.25073 J-7.29354
G1 X27.25217 Y125.8586
G3 X26.97381 Y125.8901 I-0.97118 J-7.33599
G1 X18.2536 Y126.71012
G3 X17.97612 Y126.73096 I-0.69282 J-7.3675
G1 X9.20778 Y127.22388
G3 X8.93083 Y127.23425 I-0.41534 J-7.38833
G1 X0.13839 Y127.39871
G3 X-0.13839 I-0.13839 J-7.39871
G1 X-8.93083 Y127.23425
G3 X-9.20778 Y127.22388 I0.13839 J-7.39871
G1 X-17.97612 Y126.73096
G3 X-18.2536 Y126.71012 I0.41534 J-7.38833
G1 X-26.97381 Y125.8901
G3 X-27.25217 Y125.8586 I0.69282 J-7.3675
G1 X-35.90034 Y124.71371
G3 X-36.17989 Y124.67125 I0.97118 J-7.33599
G1 X-44.73233 Y123.20464
G3 X-45.01339 Y123.15082 I1.25073 J-7.29354
G1 X-53.44664 Y121.36651
G3 X-53.72948 Y121.30084 I1.53179 J-7.23973
G1 X-62.02044 Y119.20371
G3 X-62.30527 Y119.12559 I1.81462 J-7.17406
G1 X-70.43121 Y116.72139
G3 X-70.71821 Y116.63008 I2.09945 J-7.09594
G1 X-78.65686 Y113.92541
G3 X-78.94613 Y113.82009 I2.38645 J-7.00463
G1 X-86.67573 Y110.82236
G3 X-86.96728 Y110.70208 I2.67573 J-6.89931
G1 X-94.46664 Y107.4195
G3 X-94.76037 Y107.28319 I2.96728 J-6.77903
G1 X-102.00894 Y103.72476
G3 X-102.3046 Y103.57126 I3.26101 J-6.64272
G1 X-109.28251 Y99.74674
G3 X-109.57971 Y99.57476 I3.55668 J-6.48922
G1 X-116.26783 Y95.49462
G3 X-116.56595 Y95.3028 I3.85388 J-6.31724
G1 X-122.94595 Y90.97824
G3 X-123.24415 Y90.76514 I4.15201 J-6.12542
G1 X-129.29854 Y86.208
G3 X-129.5957 Y85.97216 I4.45021 J-5.91233
G1 X-135.30789 Y81.19493
G3 X-135.60256 Y80.93489 I4.74737 J-5.67649
G1 X-140.95689 Y75.95068
G3 X-141.24727 Y75.66505 I5.04204 J-5.41645
G1 X-146.22908 Y70.4875
G3 X-146.51299 Y70.17506 I5.33242 J-5.13082
G1 X-151.10861 Y64.81838
G3 X-151.38348 Y64.47813 I5.61634 J-4.81838
G1 X-155.5803 Y58.95699
G3 X-155.84314 Y58.58832 I5.89121 J-4.47813
G1 X-159.62969 Y52.91786
G3 X-159.87715 Y52.52063 I6.15405 J-4.10946
G1 X-163.24302 Y46.71638
G3 X-163.47146 Y46.29106 I6.40151 J-3.71223
G1 X-166.40745 Y40.36894
G3 X-166.61303 Y39.91673 I6.62995 J-3.2869
G1 X-169.11107 Y33.89297
G3 X-169.28993 Y33.41589 I6.83554 J-2.83469
G1 X-171.34319 Y27.30701
G3 X-171.4916 Y26.80797 I7.01439 J-2.35761
G1 X-173.09444 Y20.6307
G3 X-173.20906 Y20.11346 I7.1628 J-1.85857
G1 X-174.3571 Y13.88474
G3 X-174.43516 Y13.35386 I7.27742 J-1.34133
G1 X-175.12525 Y7.09076
G3 X-175.16479 Y6.55142 I7.35549 J-0.81045
G1 X-175.39503 Y0.2711
G3 Y-0.2711 I7.39503 J-0.2711
G1 X-175.30965 Y-2.6
G1 X-194.09971
G1 X-194.19503 Y0.0
G1 X-193.93859 Y6.99488
G1 X-193.16953 Y13.9748
G1 X-191.88859 Y20.92456
G1 X-190.09718 Y27.82858
G1 X-187.79747 Y34.67071
G1 X-184.99266 Y41.4342
G1 X-181.68714 Y48.10169
G1 X-179.05406 Y52.64228
G1 F300.0 X-181.13023 Y53.84624
G1 F800.0 X-179.92478 Y55.92497
G1 X-175.55376 Y62.4707
G1 X-170.69964 Y68.85654
G1 X-165.37407 Y75.06407
G1 X-159.59029 Y81.07511
G1 X-153.36306 Y86.87188
G1 X-146.70866 Y92.43709
G1 X-139.64479 Y97.75407
G1 X-132.19048 Y102.80684
G1 X-124.36607 Y107.58018
G1 X-116.19306 Y112.05973
G1 X-107.69407 Y116.23201
G1 X-98.89271 Y120.0845
G1 X-89.81355 Y123.60563
G1 X-80.48197 Y126.78487
G1 X-70.92413 Y129.61272
G1 X-61.16685 Y132.08074
G1 X-51.23753 Y134.1816
G1 X-41.16408 Y135.90904
G1 X-30.97483 Y137.25795
G1 X-20.69843 Y138.22431
G1 X-10.36379 Y138.80528
G1 X0.0 Y138.99913
G1 X10.36379 Y138.80528
G1 X20.69843 Y138.22431
G1 X30.97483 Y137.25795
G1 X41.16408 Y135.90904
G1 X51.23753 Y134.1816
G1 X61.16685 Y132.08074
G1 X70.92413 Y129.61272
G1 X80.48197 Y126.78487
G1 X89.81355 Y123.60563
G1 X98.89271 Y120.0845
G1 X107.69407 Y116.23201
G1 X116.19306 Y112.05973
G1 X124.36607 Y107.58018
G1 X132.19048 Y102.80684
G1 X139.64479 Y97.75407
G1 X146.70866 Y92.43709
G1 X153.36306 Y86.87188
G1 X159.59029 Y81.07511
G1 X165.37407 Y75.06407
G1 X170.69964 Y68.85654
G1 X175.55376 Y62.4707
G1 X179.92478 Y55.92497
G1 X183.8026 Y49.23789
G1 X187.17871 Y42.42801
G1 X190.04607 Y35.51371
G1 X192.39903 Y28.51314
G1 X194.23326 Y21.44413
G1 X195.54556 Y14.32419
G1 X196.33377 Y7.1705
G1 X196.59664 Y0.0
G1 X196.41334 Y-5.0
G1 X172.82006
G1 X172.99664 Y-0.18318
G3 Y0.18318 I-4.99664 J0.18318
G1 X172.76641 Y6.46349
G3 X172.73969 Y6.82791 I-4.99664 J-0.18318
G1 X172.0496 Y13.09101
G3 X171.99685 Y13.44972 I-4.96992 J-0.5476
G1 X170.84882 Y19.67844
G3 X170.77137 Y20.02792 I-4.91718 J-0.9063
G1 X169.16853 Y26.20519
G3 X169.06825 Y26.54238 I-4.83973 J-1.25579
G1 X167.01499 Y32.65126
G3 X166.89414 Y32.97362 I-4.73945 J-1.59298
G1 X164.3961 Y38.99737
G3 X164.25719 Y39.30292 I-4.6186 J-1.91533
G1 X161.32121 Y45.22504
G3 X161.16686 Y45.51242 I-4.4797 J-2.22088
G1 X157.80098 Y51.31666
G3 X157.63378 Y51.58506 I-4.32535 J-2.50826
G1 X153.84724 Y57.25552
G3 X153.66964 Y57.50462 I-4.15814 J-2.77666
G1 X149.47281 Y63.02576
G3 X149.28709 Y63.25566 I-3.98055 J-3.02576
G1 X144.69148 Y68.61234
G3 X144.49964 Y68.82345 I-3.79482 J-3.25566
G1 X139.51784 Y74.001
G3 X139.32164 Y74.19399 I-3.60299 J-3.46677
G1 X133.9673 Y79.17821
G3 X133.7682 Y79.35391 I-3.40678 J-3.65976
G1 X128.05601 Y84.13114
G3 X127.85523 Y84.29049 I-3.20768 J-3.83546
G1 X121.80084 Y88.84763
G3 X121.59935 Y88.99161 I-3.0069 J-3.99482
G1 X115.21935 Y93.31618
G3 X115.01792 Y93.44579 I-2.80541 J-4.1388
G1 X108.3298 Y97.52592
G3 X108.12899 Y97.64213 I-2.60398 J-4.26841
G1 X101.15109 Y101.46665
G3 X100.95131 Y101.57037 I-2.40316 J-4.38461
G1 X93.70275 Y105.1288
G3 X93.50428 Y105.22089 I-2.20339 J-4.48833
G1 X86.00492 Y108.50347
G3 X85.80792 Y108.58474 I-2.00492 J-4.58043
G1 X78.07833 Y111.58248
G3 X77.88287 Y111.65364 I-1.80792 J-4.6617
G1 X69.94423 Y114.35831
G3 X69.7503 Y114.42001 I-1.61247 J-4.73286
G1 X61.62436 Y116.8242
G3 X61.43191 Y116.87699 I-1.41855 J-4.79455
G1 X53.14095 Y118.97412
G3 X52.94985 Y119.01849 I-1.22609 J-4.84734
G1 X44.51659 Y120.80281
G3 X44.32669 Y120.83916 I-1.03499 J-4.89171
G1 X35.77425 Y122.30578
G3 X35.58536 Y122.33447 I-0.84509 J-4.92807
G1 X26.93719 Y123.47935
G3 X26.74911 Y123.50064 I-0.6562 J-4.95675
G1 X18.0289 Y124.32067
G3 X17.84142 Y124.33475 I-0.46812 J-4.97804
G1 X9.07308 Y124.82766
G3 X8.88595 Y124.83467 I-0.28063 J-4.99212
G1 X0.0935 Y124.99913
G3 X-0.0935 I-0.0935 J-4.99913
G1 X-8.88595 Y124.83467
G3 X-9.07308 Y124.82766 I0.0935 J-4.99913
G1 X-17.84142 Y124.33475
G3 X-18.0289 Y124.32067 I0.28063 J-4.99212
G1 X-26.74911 Y123.50064
G3 X-26.93719 Y123.47935 I0.46812 J-4.97804
G1 X-35.58536 Y122.33447
G3 X-35.77425 Y122.30578 I0.6562 J-4.95675
G1 X-44.32669 Y120.83916
G3 X-44.51659 Y120.80281 I0.84509 J-4.92807
G1 X-52.94985 Y119.01849
G3 X-53.14095 Y118.97412 I1.03499 J-4.89171
G1 X-61.43191 Y116.87699
G3 X-61.62436 Y116.8242 I1.22609 J-4.84734
G1 X-69.7503 Y114.42001
G3 X-69.94423 Y114.35831 I1.41855 J-4.79455
G1 X-77.88287 Y111.65364
G3 X-78.07833 Y111.58248 I1.61247 J-4.73286
G1 X-85.80792 Y108.58474
G3 X-86.00492 Y108.50347 I1.80792 J-4.6617
G1 X-93.50428 Y105.22089
G3 X-93.70275 Y105.1288 I2.00492 J-4.58043
G1 X-100.95131 Y101.57037
G3 X-101.15109 Y101.46665 I2.20339 J-4.48833
G1 X-108.12899 Y97.64213
G3 X-108.3298 Y97.52592 I2.40316 J-4.38461
G1 X-115.01792 Y93.44579
G3 X-115.21935 Y93.31618 I2.60398 J-4.26841
G1 X-121.59935 Y88.99161
G3 X-121.80084 Y88.84763 I2.80541 J-4.1388
G1 X-127.85523 Y84.29049
G3 X-128.05601 Y84.13114 I3.0069 J-3.99482
G1 X-133.7682 Y79.35391
G3 X-133.9673 Y79.17821 I3.20768 J-3.83546
G1 X-139.32164 Y74.19399
G3 X-139.51784 Y74.001 I3.40678 J-3.65976
G1 X-144.49964 Y68.82345
G3 X-144.69148 Y68.61234 I3.60299 J-3.46677
G1 X-149.28709 Y63.25566
G3 X-149.47281 Y63.02576 I3.79482 J-3.25566
G1 X-153.66964 Y57.50462
G3 X-153.84724 Y57.25552 I3.98055 J-3.02576
G1 X-157.63378 Y51.58506
G3 X-157.80098 Y51.31666 I4.15814 J-2.77666
G1 X-161.16686 Y45.51242
G3 X-161.32121 Y45.22504 I4.32535 J-2.50826
G1 X-164.25719 Y39.30292
G3 X-164.3961 Y38.99737 I4.4797 J-2.22088
G1 X-166.89414 Y32.97362
G3 X-167.01499 Y32.65126 I4.6186 J-1.91533
G1 X-169.06825 Y26.54238
G3 X-169.16853 Y26.20519 I4.73945 J-1.59298
G1 X-170.77137 Y20.02792
G3 X-170.84882 Y19.67844 I4.83973 J-1.25579
G1 X-171.99685 Y13.44972
G3 X-172.0496 Y13.09101 I4.91718 J-0.9063
G1 X-172.73969 Y6.82791
G3 X-172.76641 Y6.46349 I4.96992 J-0.5476
G1 X-172.99664 Y0.18318
G3 Y-0.18318 I4.99664 J-0.18318
G1 X-172.82006 Y-5.0
G1 X-196.41334
G1 X-196.59664 Y0.0
G1 X-196.33377 Y7.1705
G1 X-195.54556 Y14.32419
G1 X-194.23326 Y21.44413
G1 X-192.39903 Y28.51314
G1 X-190.04607 Y35.51371
G1 X-187.17871 Y42.42801
G1 X-183.8026 Y49.23789
G1 X-181.13023 Y53.84624
G1 F300.0 X-183.20639 Y55.05021
G1 F800.0 X-181.96285 Y57.19462
G1 X-177.50887 Y63.86459
G1 X-172.56736 Y70.3654
G1 X-167.15099 Y76.67877
G1 X-161.27391 Y82.78677
G1 X-154.95165 Y88.672
G1 X-148.20114 Y94.3176
G1 X-141.0406 Y99.70734
G1 X-133.48948 Y104.82573
G1 X-125.56843 Y109.65802
G1 X-117.2992 Y114.19031
G1 X-108.70455 Y118.40956
G1 X-99.80821 Y122.30361
G1 X-90.6348 Y125.8613
G1 X-81.20972 Y129.07239
G1 X-71.5591 Y131.92769
G1 X-61.70972 Y134.41901
G1 X-51.68892 Y136.53922
G1 X-41.52452 Y138.28226
G1 X-31.24476 Y139.64315
G1 X-20.87819 Y140.618
G1 X-10.45362 Y141.20402
G1 X0.0 Y141.39955
G1 X10.45362 Y141.20402
G1 X20.87819 Y140.618
G1 X31.24476 Y139.64315
G1 X41.52452 Y138.28226
G1 X51.68892 Y136.53922
G1 X61.70972 Y134.41901
G1 X71.5591 Y131.92769
G1 X81.20972 Y129.07239
G1 X90.6348 Y125.8613
G1 X99.80821 Y122.30361
G1 X108.70455 Y118.40956
G1 X117.2992 Y114.19031
G1 X125.56843 Y109.65802
G1 X133.48948 Y104.82573
G1 X141.0406 Y99.70734
G1 X148.20114 Y94.3176
G1 X154.95165 Y88.672
G1 X161.27391 Y82.78677
G1 X167.15099 Y76.67877
G1 X172.56736 Y70.3654
G1 X177.50887 Y63.86459
G1 X181.96285 Y57.19462
G1 X185.91806 Y50.3741
G1 X189.36477 Y43.42182
G1 X192.29466 Y36.3567
G1 X194.70088 Y29.19769
G1 X196.57792 Y21.9637
G1 X197.92158 Y14.67359
G1 X198.72894 Y7.34612
G1 X198.99825 Y0.0
G1 X198.72994 Y-7.31891
G1 X198.71929 Y-7.4
G1 X170.27527
G1 X170.35816 Y-6.5257
G3 X170.36802 Y-6.37557 I-2.58839 J0.24539
G1 X170.59825 Y-0.09525
G3 Y0.09525 I-2.59825 J0.09525
G1 X170.36802 Y6.37557
G3 X170.35412 Y6.56507 I-2.59825 J-0.09525
G1 X169.66404 Y12.82817
G3 X169.63661 Y13.01469 I-2.58436 J-0.28475
G1 X168.48857 Y19.24341
G3 X168.4483 Y19.42515 I-2.55693 J-0.47128
G1 X166.84546 Y25.60241
G3 X166.79331 Y25.77775 I-2.51666 J-0.65301
G1 X164.74005 Y31.88663
G3 X164.67721 Y32.05426 I-2.46452 J-0.82835
G1 X162.17917 Y38.07801
G3 X162.10694 Y38.2369 I-2.40167 J-0.99597
G1 X159.17095 Y44.15901
G3 X159.09069 Y44.30845 I-2.32944 J-1.15486
G1 X155.72482 Y50.11269
G3 X155.63787 Y50.25226 I-2.24918 J-1.3043
G1 X151.85133 Y55.92273
G3 X151.75898 Y56.05226 I-2.16223 J-1.44387
G1 X147.56215 Y61.5734
G3 X147.46558 Y61.69294 I-2.06988 J-1.5734
G1 X142.86996 Y67.04963
G3 X142.77021 Y67.1594 I-1.97331 J-1.69294
G1 X137.78841 Y72.33695
G3 X137.68638 Y72.43731 I-1.87355 J-1.80272
G1 X132.33205 Y77.42152
G3 X132.22852 Y77.51289 I-1.77153 J-1.90308
G1 X126.51632 Y82.29011
G3 X126.41192 Y82.37298 I-1.66799 J-1.99444
G1 X120.35753 Y86.93012
G3 X120.25275 Y87.00499 I-1.56359 J-2.0773
G1 X113.87276 Y91.32956
G3 X113.76801 Y91.39695 I-1.45881 J-2.15218
G1 X107.07989 Y95.47709
G3 X106.97547 Y95.53751 I-1.35407 J-2.21957
G1 X99.99757 Y99.36204
G3 X99.89368 Y99.41597 I-1.24965 J-2.28
G1 X92.64512 Y102.9744
G3 X92.54192 Y103.02229 I-1.14576 J-2.33393
G1 X85.04256 Y106.30487
G3 X84.94012 Y106.34713 I-1.04256 J-2.38182
G1 X77.21052 Y109.34486
G3 X77.10889 Y109.38187 I-0.94012 J-2.42408
G1 X69.17024 Y112.08654
G3 X69.0694 Y112.11862 I-0.83848 J-2.46109
G1 X60.94346 Y114.52282
G3 X60.84338 Y114.55027 I-0.73765 J-2.49317
G1 X52.55242 Y116.6474
G3 X52.45305 Y116.67047 I-0.63757 J-2.52062
G1 X44.0198 Y118.45479
G3 X43.92105 Y118.47369 I-0.5382 J-2.54369
G1 X35.36861 Y119.94031
G3 X35.27039 Y119.95522 I-0.43945 J-2.56259
G1 X26.62221 Y121.10011
G3 X26.52441 Y121.11118 I-0.34122 J-2.57751
G1 X17.80421 Y121.93121
G3 X17.70671 Y121.93853 I-0.24342 J-2.58858
G1 X8.93837 Y122.43145
G3 X8.84106 Y122.43509 I-0.14593 J-2.5959
G1 X0.04862 Y122.59955
G3 X-0.04862 I-0.04862 J-2.59955
G1 X-8.84106 Y122.43509
G3 X-8.93837 Y122.43145 I0.04862 J-2.59955
G1 X-17.70671 Y121.93853
G3 X-17.80421 Y121.93121 I0.14593 J-2.5959
G1 X-26.52441 Y121.11118
G3 X-26.62221 Y121.10011 I0.24342 J-2.58858
G1 X-35.27039 Y119.95522
G3 X-35.36861 Y119.94031 I0.34122 J-2.57751
G1 X-43.92105 Y118.47369
G3 X-44.0198 Y118.45479 I0.43945 J-2.56259
G1 X-52.45305 Y116.67047
G3 X-52.55242 Y116.6474 I0.5382 J-2.54369
G1 X-60.84338 Y114.55027
G3 X-60.94346 Y114.52282 I0.63757 J-2.52062
G1 X-69.0694 Y112.11862
G3 X-69.17024 Y112.08654 I0.73765 J-2.49317
G1 X-77.10889 Y109.38187
G3 X-77.21052 Y109.34486 I0.83848 J-2.46109
G1 X-84.94012 Y106.34713
G3 X-85.04256 Y106.30487 I0.94012 J-2.42408
G1 X-92.54192 Y103.02229
G3 X-92.64512 Y102.9744 I1.04256 J-2.38182
G1 X-99.89368 Y99.41597
G3 X-99.99757 Y99.36204 I1.14576 J-2.33393
G1 X-106.97547 Y95.53751
G3 X-107.07989 Y95.47709 I1.24965 J-2.28
G1 X-113.76801 Y91.39695
G3 X-113.87276 Y91.32956 I1.35407 J-2.21957
G1 X-120.25275 Y87.00499
G3 X-120.35753 Y86.93012 I1.45881 J-2.15218
G1 X-126.41192 Y82.37298
G3 X-126.51632 Y82.29011 I1.56359 J-2.0773
G1 X-132.22852 Y77.51289
G3 X-132.33205 Y77.42152 I1.66799 J-1.99444
G1 X-137.68638 Y72.43731
G3 X-137.78841 Y72.33695 I1.77153 J-1.90308
G1 X-142.77021 Y67.1594
G3 X-142.86996 Y67.04963 I1.87355 J-1.80272
G1 X-147.46558 Y61.69294
G3 X-147.56215 Y61.5734 I1.97331 J-1.69294
G1 X-151.75898 Y56.05226
G3 X-151.85133 Y55.92273 I2.06988 J-1.5734
G1 X-155.63787 Y50.25226
G3 X-155.72482 Y50.11269 I2.16223 J-1.44387
G1 X-159.09069 Y44.30845
G3 X-159.17095 Y44.15901 I2.24918 J-1.3043
G1 X-162.10694 Y38.2369
G3 X-162.17917 Y38.07801 I2.32944 J-1.15486
G1 X-164.67721 Y32.05426
G3 X-164.74005 Y31.88663 I2.40167 J-0.99597
G1 X-166.79331 Y25.77775
G3 X-166.84546 Y25.60241 I2.46452 J-0.82835
G1 X-168.4483 Y19.42515
G3 X-168.48857 Y19.24341 I2.51666 J-0.65301
G1 X-169.63661 Y13.01469
G3 X-169.66404 Y12.82817 I2.55693 J-0.47128
G1 X-170.35412 Y6.56507
G3 X-170.36802 Y6.37557 I2.58436 J-0.28475
G1 X-170.59825 Y0.09525
G3 Y-0.09525 I2.59825 J-0.09525
G1 X-170.36802 Y-6.37557
G3 X-170.34863 Y-6.61114 I2.59825 J0.09525
G1 X-170.24743 Y-7.4
G1 X-198.71051
G1 X-198.7316 Y-7.27363
G1 X-198.99825 Y0.0
G1 X-198.72894 Y7.34612
G1 X-197.92158 Y14.67359
G1 X-196.57792 Y21.9637
G1 X-194.70088 Y29.19769
G1 X-192.29466 Y36.3567
G1 X-189.36477 Y43.42182
G1 X-185.91806 Y50.3741
G1 X-183.20639 Y55.05021
G0 Z3.0
G0 X-171.78748 Y48.42839
G0 Z-1.0
G1 F300.0 Z-4.0
G1 F800.0 X-173.93334 Y44.10002
G3 X-174.37229 Y43.13448 I14.15584 J-7.01799
G1 X-176.87033 Y37.11073
G3 X-177.25221 Y36.0921 I14.59479 J-6.05244
G1 X-179.30547 Y29.98322
G3 X-179.62235 Y28.91769 I14.97667 J-5.03381
G1 X-181.22519 Y22.74042
G3 X-181.46992 Y21.63605 I15.29355 J-3.96829
G1 X-182.61795 Y15.40733
G3 X-182.78464 Y14.27383 I15.53828 J-2.86391
G1 X-183.47472 Y8.01072
G3 X-183.55916 Y6.85916 I15.70496 J-1.73041
G1 X-183.59798 Y5.8
G1 X-185.57676
G1 X-185.55549 Y6.38021
G1 X-184.85344 Y12.75191
G1 X-183.68228 Y19.10608
G1 X-182.04069 Y25.43266
G1 X-179.92737 Y31.72024
G1 X-177.34146 Y37.95586
G1 X-174.28303 Y44.12498
G1 X-171.78748 Y48.42839
G1 F300.0 X-172.82556 Y49.03038
G1 F800.0 X-171.77248 Y50.84636
G1 X-167.7333 Y56.89515
G1 X-163.22876 Y62.8211
G1 X-158.26639 Y68.60528
G1 X-152.85581 Y74.22846
G1 X-150.60747 Y76.32138
G1 X-151.41738 Y75.47965
G3 X-151.97754 Y74.86321 I10.52072 J-10.12297
G1 X-156.57315 Y69.50652
G3 X-157.11546 Y68.83523 I11.08088 J-9.50652
G1 X-161.31229 Y63.31409
G3 X-161.83087 Y62.58672 I11.6232 J-8.83523
G1 X-165.61741 Y56.91626
G3 X-166.10565 Y56.13253 I12.14177 J-8.10786
G1 X-169.47152 Y50.32828
G3 X-169.92223 Y49.48913 I12.63001 J-7.32413
G1 X-172.85821 Y43.56701
G3 X-173.26382 Y42.6748 I13.08072 J-6.48497
G1 X-175.76186 Y36.65105
G3 X-176.11474 Y35.70978 I13.48633 J-5.59276
G1 X-178.168 Y29.6009
G3 X-178.46081 Y28.6163 I13.8392 J-4.6515
G1 X-180.06366 Y22.43904
G3 X-180.28979 Y21.41854 I14.13201 J-3.6669
G1 X-181.43783 Y15.18982
G3 X-181.59185 Y14.1424 I14.35815 J-2.6464
G1 X-182.28194 Y7.8793
G3 X-182.35996 Y6.8152 I14.51218 J-1.59899
G1 X-182.44117 Y4.6
G1 X-186.82155
G1 X-186.75307 Y6.46802
G1 X-186.04145 Y12.92661
G1 X-184.85461 Y19.36586
G1 X-183.19162 Y25.77493
G1 X-181.05167 Y32.14173
G1 X-178.43449 Y38.45277
G1 X-175.34076 Y44.69308
G1 X-172.82556 Y49.03038
G1 F300.0 X-174.90173 Y50.23434
G1 F800.0 X-173.81055 Y52.11601
G1 X-169.68842 Y58.28904
G1 X-165.09648 Y64.32996
G1 X-160.04331 Y70.21998
G1 X-154.53943 Y75.94012
G1 X-148.59729 Y81.47151
G1 X-142.23123 Y86.79558
G1 X-135.45736 Y91.89427
G1 X-128.29349 Y96.75017
G1 X-120.75899 Y101.34665
G1 X-112.87467 Y105.66798
G1 X-104.66264 Y109.69938
G1 X-96.14622 Y113.42715
G1 X-87.3498 Y116.83862
G1 X-78.29873 Y119.92229
G1 X-69.01923 Y122.66779
G1 X-59.53824 Y125.06593
G1 X-49.88336 Y127.10872
G1 X-47.83769 Y127.45952
G1 X-54.44024 Y126.06255
G3 X-54.90653 Y125.95429 I2.52538 J-11.93576
G1 X-63.19749 Y123.85716
G3 X-63.66707 Y123.72836 I2.99167 J-11.82751
G1 X-71.79301 Y121.32416
G3 X-72.26618 Y121.17363 I3.46126 J-11.6987
G1 X-80.20483 Y118.46896
G3 X-80.68174 Y118.29532 I3.93443 J-11.54817
G1 X-88.41134 Y115.29759
G3 X-88.89201 Y115.09929 I4.41134 J-11.37454
G1 X-96.39136 Y111.81671
G3 X-96.87562 Y111.59199 I4.89201 J-11.17624
G1 X-104.12419 Y108.03356
G3 X-104.61164 Y107.78049 I5.37626 J-10.95152
G1 X-111.58955 Y103.95596
G3 X-112.07953 Y103.67243 I5.86372 J-10.69845
G1 X-118.76764 Y99.5923
G3 X-119.25914 Y99.27605 I6.3537 J-10.41492
G1 X-125.63914 Y94.95149
G3 X-126.13077 Y94.60017 I6.8452 J-10.09867
G1 X-132.18516 Y90.04303
G3 X-132.67507 Y89.65421 I7.33683 J-9.74735
G1 X-138.38726 Y84.87698
G3 X-138.87307 Y84.44826 I7.82674 J-9.35853
G1 X-144.2274 Y79.46405
G3 X-144.70614 Y78.99315 I8.31254 J-8.92982
G1 X-149.68794 Y73.8156
G3 X-150.15602 Y73.30049 I8.79129 J-8.45892
G1 X-154.75164 Y67.94381
G3 X-155.2048 Y67.38287 I9.25937 J-7.94381
G1 X-159.40163 Y61.86173
G3 X-159.83496 Y61.25392 I9.71253 J-7.38287
G1 X-163.6215 Y55.58346
G3 X-164.02948 Y54.92856 I10.14586 J-6.77506
G1 X-167.39535 Y49.12432
G3 X-167.77197 Y48.4231 I10.55384 J-6.12016
G1 X-170.70796 Y42.50099
G3 X-171.04689 Y41.75545 I10.93046 J-5.41895
G1 X-173.54493 Y35.73169
G3 X-173.83981 Y34.94515 I11.2694 J-4.67341
G1 X-175.89306 Y28.83627
G3 X-176.13774 Y28.01352 I11.56427 J-3.88687
G1 X-177.74059 Y21.83626
G3 X-177.92955 Y20.98351 I11.80894 J-3.06412
G1 X-179.07759 Y14.75479
G3 X-179.20629 Y13.87955 I11.99791 J-2.21138
G1 X-179.89637 Y7.61645
G3 X-179.96157 Y6.72727 I12.12661 J-1.33614
G1 X-180.12754 Y2.2
G1 X-189.31115
G1 X-189.14825 Y6.64364
G1 X-188.41748 Y13.27601
G1 X-187.19927 Y19.88543
G1 X-185.49347 Y26.45948
G1 X-183.30027 Y32.98473
G1 X-180.62055 Y39.44658
G1 X-177.45622 Y45.82928
G1 X-174.90173 Y50.23434
G0 Z3.0
G0 X171.78748 Y48.42839
G0 Z-1.0
G1 F300.0 Z-4.0
G1 F800.0 X174.28303 Y44.12498
G1 X177.34146 Y37.95586
G1 X179.92737 Y31.72024
G1 X182.04069 Y25.43266
G1 X183.68228 Y19.10608
G1 X184.85344 Y12.75191
G1 X185.55549 Y6.38021
G1 X185.57676 Y5.8
G1 X183.59798
G1 X183.55916 Y6.85916
G3 X183.47472 Y8.01072 I-15.78939 J-0.57884
G1 X182.78464 Y14.27383
G3 X182.61795 Y15.40733 I-15.70496 J-1.73041
G1 X181.46992 Y21.63605
G3 X181.22519 Y22.74042 I-15.53828 J-2.86391
G1 X179.62235 Y28.91769
G3 X179.30547 Y29.98322 I-15.29355 J-3.96829
G1 X177.25221 Y36.0921
G3 X176.87033 Y37.11073 I-14.97667 J-5.03381
G1 X174.37229 Y43.13448
G3 X173.93334 Y44.10002 I-14.59479 J-6.05244
G1 X171.78748 Y48.42839
G1 F300.0 X172.82556 Y49.03038
G1 F800.0 X175.34076 Y44.69308
G1 X178.43449 Y38.45277
G1 X181.05167 Y32.14173
G1 X183.19162 Y25.77493
G1 X184.85461 Y19.36586
G1 X186.04145 Y12.92661
G1 X186.75307 Y6.46802
G1 X186.82155 Y4.6
G1 X182.44117
G1 X182.35996 Y6.8152
G3 X182.28194 Y7.8793 I-14.5902 J-0.53488
G1 X181.59185 Y14.1424
G3 X181.43783 Y15.18982 I-14.51218 J-1.59899
G1 X180.28979 Y21.41854
G3 X180.06366 Y22.43904 I-14.35815 J-2.6464
G1 X178.46081 Y28.6163
G3 X178.168 Y29.6009 I-14.13201 J-3.6669
G1 X176.11474 Y35.70978
G3 X175.76186 Y36.65105 I-13.8392 J-4.6515
G1 X173.26382 Y42.6748
G3 X172.85821 Y43.56701 I-13.48633 J-5.59276
G1 X169.92223 Y49.48913
G3 X169.47152 Y50.32828 I-13.08072 J-6.48497
G1 X166.10565 Y56.13253
G3 X165.61741 Y56.91626 I-12.63001 J-7.32413
G1 X161.83087 Y62.58672
G3 X161.31229 Y63.31409 I-12.14177 J-8.10786
G1 X157.11546 Y68.83523
G3 X156.57315 Y69.50652 I-11.6232 J-8.83523
G1 X151.97754 Y74.86321
G3 X151.41738 Y75.47965 I-11.08088 J-9.50652
G1 X150.60747 Y76.32138
G1 X152.85581 Y74.22846
G1 X158.26639 Y68.60528
G1 X163.22876 Y62.8211
G1 X167.7333 Y56.89515
G1 X171.77248 Y50.84636
G1 X172.82556 Y49.03038
G1 F300.0 X174.90173 Y50.23434
G1 F800.0 X177.45622 Y45.82928
G1 X180.62055 Y39.44658
G1 X183.30027 Y32.98473
G1 X185.49347 Y26.45948
G1 X187.19927 Y19.88543
G1 X188.41748 Y13.27601
G1 X189.14825 Y6.64364
G1 X189.31115 Y2.2
G1 X180.12754
G1 X179.96157 Y6.72727
G3 X179.89637 Y7.61645 I-12.19181 J-0.44696
G1 X179.20629 Y13.87955
G3 X179.07759 Y14.75479 I-12.12661 J-1.33614
G1 X177.92955 Y20.98351
G3 X177.74059 Y21.83626 I-11.99791 J-2.21138
G1 X176.13774 Y28.01352
G3 X175.89306 Y28.83627 I-11.80894 J-3.06412
G1 X173.83981 Y34.94515
G3 X173.54493 Y35.73169 I-11.56427 J-3.88687
G1 X171.04689 Y41.75545
G3 X170.70796 Y42.50099 I-11.2694 J-4.67341
G1 X167.77197 Y48.4231
G3 X167.39535 Y49.12432 I-10.93046 J-5.41895
G1 X164.02948 Y54.92856
G3 X163.6215 Y55.58346 I-10.55384 J-6.12016
G1 X159.83496 Y61.25392
G3 X159.40163 Y61.86173 I-10.14586 J-6.77506
G1 X155.2048 Y67.38287
G3 X154.75164 Y67.94381 I-9.71253 J-7.38287
G1 X150.15602 Y73.30049
G3 X149.68794 Y73.8156 I-9.25937 J-7.94381
G1 X144.70614 Y78.99315
G3 X144.2274 Y79.46405 I-8.79129 J-8.45892
G1 X138.87307 Y84.44826
G3 X138.38726 Y84.87698 I-8.31254 J-8.92982
G1 X132.67507 Y89.65421
G3 X132.18516 Y90.04303 I-7.82674 J-9.35853
G1 X126.13077 Y94.60017
G3 X125.63914 Y94.95149 I-7.33683 J-9.74735
G1 X119.25914 Y99.27605
G3 X118.76764 Y99.5923 I-6.8452 J-10.09867
G1 X112.07953 Y103.67243
G3 X111.58955 Y103.95596 I-6.3537 J-10.41492
G1 X104.61164 Y107.78049
G3 X104.12419 Y108.03356 I-5.86372 J-10.69845
G1 X96.87562 Y111.59199
G3 X96.39136 Y111.81671 I-5.37626 J-10.95152
G1 X88.89201 Y115.09929
G3 X88.41134 Y115.29759 I-4.89201 J-11.17624
G1 X80.68174 Y118.29532
G3 X80.20483 Y118.46896 I-4.41134 J-11.37454
G1 X72.26618 Y121.17363
G3 X71.79301 Y121.32416 I-3.93443 J-11.54817
G1 X63.66707 Y123.72836
G3 X63.19749 Y123.85716 I-3.46126 J-11.6987
G1 X54.90653 Y125.95429
G3 X54.44024 Y126.06255 I-2.99167 J-11.82751
G1 X47.83769 Y127.45952
G1 X49.88336 Y127.10872
G1 X59.53824 Y125.06593
G1 X69.01923 Y122.66779
G1 X78.29873 Y119.92229
G1 X87.3498 Y116.83862
G1 X96.14622 Y113.42715
G1 X104.66264 Y109.69938
G1 X112.87467 Y105.66798
G1 X120.75899 Y101.34665
G1 X128.29349 Y96.75017
G1 X135.45736 Y91.89427
G1 X142.23123 Y86.79558
G1 X148.59729 Y81.47151
G1 X154.53943 Y75.94012
G1 X160.04331 Y70.21998
G1 X165.09648 Y64.32996
G1 X169.68842 Y58.28904
G1 X173.81055 Y52.11601
G1 X174.90173 Y50.23434
G1 F300.0 X176.97789 Y51.43831
G1 F800.0 X179.57168 Y46.96549
G1 X182.8066 Y40.44039
G1 X185.54887 Y33.82772
G1 X187.79532 Y27.14403
G1 X189.54393 Y20.405
G1 X190.7935 Y13.6254
G1 X191.54342 Y6.81926
G1 X191.79342 Y0.0
G1 X191.78608 Y-0.2
G1 X177.79796
G3 X177.79342 Y0.35903 I-9.79796 J0.2
G1 X177.56318 Y6.63934
G3 X177.51081 Y7.35361 I-9.79342 J-0.35903
G1 X176.82073 Y13.61671
G3 X176.71734 Y14.31977 I-9.74105 J-1.07329
G1 X175.56931 Y20.54849
G3 X175.41751 Y21.23348 I-9.63766 J-1.77635
G1 X173.81467 Y27.41075
G3 X173.61813 Y28.07164 I-9.48587 J-2.46134
G1 X171.56487 Y34.18052
G3 X171.328 Y34.81233 I-9.28933 J-3.12224
G1 X168.82996 Y40.83609
G3 X168.5577 Y41.43497 I-9.05247 J-3.75405
G1 X165.62172 Y47.35708
G3 X165.31919 Y47.92035 I-8.78021 J-4.35293
G1 X161.95331 Y53.72459
G3 X161.62559 Y54.25066 I-8.47768 J-4.9162
G1 X157.83905 Y59.92112
G3 X157.49097 Y60.40936 I-8.14996 J-5.44226
G1 X153.29414 Y65.9305
G3 X152.93012 Y66.38109 I-7.80187 J-5.9305
G1 X148.33451 Y71.73778
G3 X147.95851 Y72.15155 I-7.43785 J-6.38109
G1 X142.97671 Y77.3291
G3 X142.59214 Y77.70736 I-7.06185 J-6.79487
G1 X137.23781 Y82.69158
G3 X136.84757 Y83.03596 I-6.67729 J-7.17313
G1 X131.13538 Y87.81318
G3 X130.74185 Y88.12551 I-6.28705 J-7.51751
G1 X124.68746 Y92.68265
G3 X124.29254 Y92.96486 I-5.89352 J-7.82984
G1 X117.91255 Y97.28943
G3 X117.51773 Y97.54346 I-5.49861 J-8.11205
G1 X110.82962 Y101.6236
G3 X110.43603 Y101.85135 I-5.10379 J-8.36608
G1 X103.45812 Y105.67587
G3 X103.06656 Y105.87916 I-4.7102 J-8.59384
G1 X95.818 Y109.43759
G3 X95.429 Y109.6181 I-4.31864 J-8.79712
G1 X87.92964 Y112.90068
G3 X87.54353 Y113.05997 I-3.92964 J-8.97763
G1 X79.81394 Y116.05771
G3 X79.43084 Y116.19718 I-3.54353 J-9.13692
G1 X71.4922 Y118.90186
G3 X71.11211 Y119.02277 I-3.16044 J-9.2764
G1 X62.98617 Y121.42697
G3 X62.60896 Y121.53043 I-2.78036 J-9.39732
G1 X54.318 Y123.62757
G3 X53.94344 Y123.71453 I-2.40315 J-9.50078
G1 X45.51018 Y125.49884
G3 X45.13797 Y125.57011 I-2.02859 J-9.58774
G1 X36.58554 Y127.03672
G3 X36.21532 Y127.09295 I-1.65637 J-9.65901
G1 X27.56714 Y128.23784
G3 X27.19851 Y128.27956 I-1.28615 J-9.71524
G1 X18.4783 Y129.09958
G3 X18.11083 Y129.12718 I-0.91752 J-9.75695
G1 X9.34248 Y129.6201
G3 X8.97571 Y129.63383 I-0.55004 J-9.78455
G1 X0.18327 Y129.79829
G3 X-0.18327 I-0.18327 J-9.79829
G1 X-8.97571 Y129.63383
G3 X-9.34248 Y129.6201 I0.18327 J-9.79829
G1 X-18.11083 Y129.12718
G3 X-18.4783 Y129.09958 I0.55004 J-9.78455
G1 X-27.19851 Y128.27956
G3 X-27.56714 Y128.23784 I0.91752 J-9.75695
G1 X-36.21532 Y127.09295
G3 X-36.58554 Y127.03672 I1.28615 J-9.71524
G1 X-45.13797 Y125.57011
G3 X-45.51018 Y125.49884 I1.65637 J-9.65901
G1 X-53.94344 Y123.71453
G3 X-54.318 Y123.62757 I2.02859 J-9.58774
G1 X-62.60896 Y121.53043
G3 X-62.98617 Y121.42697 I2.40315 J-9.50078
G1 X-71.11211 Y119.02277
G3 X-71.4922 Y118.90186 I2.78036 J-9.39732
G1 X-79.43084 Y116.19718
G3 X-79.81394 Y116.05771 I3.16044 J-9.2764
G1 X-87.54353 Y113.05997
G3 X-87.92964 Y112.90068 I3.54353 J-9.13692
G1 X-95.429 Y109.6181
G3 X-95.818 Y109.43759 I3.92964 J-8.97763
G1 X-103.06656 Y105.87916
G3 X-103.45812 Y105.67587 I4.31864 J-8.79712
G1 X-110.43603 Y101.85135
G3 X-110.82962 Y101.6236 I4.7102 J-8.59384
G1 X-117.51773 Y97.54346
G3 X-117.91255 Y97.28943 I5.10379 J-8.36608
G1 X-124.29254 Y92.96486
G3 X-124.68746 Y92.68265 I5.49861 J-8.11205
G1 X-130.74185 Y88.12551
G3 X-131.13538 Y87.81318 I5.89352 J-7.82984
G1 X-136.84757 Y83.03596
G3 X-137.23781 Y82.69158 I6.28705 J-7.51751
G1 X-142.59214 Y77.70736
G3 X-142.97671 Y77.3291 I6.67729 J-7.17313
G1 X-147.95851 Y72.15155
G3 X-148.33451 Y71.73778 I7.06185 J-6.79487
G1 X-152.93012 Y66.38109
G3 X-153.29414 Y65.9305 I7.43785 J-6.38109
G1 X-157.49097 Y60.40936
G3 X-157.83905 Y59.92112 I7.80187 J-5.9305
G1 X-161.62559 Y54.25066
G3 X-161.95331 Y53.72459 I8.14996 J-5.44226
G1 X-165.31919 Y47.92035
G3 X-165.62172 Y47.35708 I8.47768 J-4.9162
G1 X-168.5577 Y41.43497
G3 X-168.82996 Y40.83609 I8.78021 J-4.35293
G1 X-171.328 Y34.81233
G3 X-171.56487 Y34.18052 I9.05247 J-3.75405
G1 X-173.61813 Y28.07164
G3 X-173.81467 Y27.41075 I9.28933 J-3.12224
G1 X-175.41751 Y21.23348
G3 X-175.56931 Y20.54849 I9.48587 J-2.46134
G1 X-176.71734 Y14.31977
G3 X-176.82073 Y13.61671 I9.63766 J-1.77635
G1 X-177.51081 Y7.35361
G3 X-177.56318 Y6.63934 I9.74105 J-1.07329
G1 X-177.79342 Y0.35903
G3 X-177.79796 Y-0.2 I9.79342 J-0.35903
G1 X-191.78608
G1 X-191.79342 Y0.0
G1 X-191.54342 Y6.81926
G1 X-190.7935 Y13.6254
G1 X-189.54393 Y20.405
G1 X-187.79532 Y27.14403
G1 X-185.54887 Y33.82772
G1 X-182.8066 Y40.44039
G1 X-179.57168 Y46.96549
G1 X-175.84863 Y53.38566
G1 X-171.64353 Y59.68293
G1 X-166.9642 Y65.83882
G1 X-161.82023 Y71.83468
G1 X-156.22305 Y77.65178
G1 X-150.18588 Y83.27163
G1 X-143.72371 Y88.67609
G1 X-136.85317 Y93.84754
G1 X-129.59249 Y98.76906
G1 X-121.96135 Y103.42449
G1 X-113.9808 Y107.79856
G1 X-105.67311 Y111.87693
G1 X-97.06171 Y115.64626
G1 X-88.17105 Y119.09429
G1 X-79.02648 Y122.20982
G1 X-69.6542 Y124.98276
G1 X-60.08111 Y127.4042
G1 X-50.33475 Y129.46634
G1 X-40.4432 Y131.1626
G1 X-30.43496 Y132.48754
G1 X-20.3389 Y133.43694
G1 X-10.18414 Y134.0078
G1 X0.0 Y134.19829
G1 X10.18414 Y134.0078
G1 X20.3389 Y133.43694
G1 X30.43496 Y132.48754
G1 X40.4432 Y131.1626
G1 X50.33475 Y129.46634
G1 X60.08111 Y127.4042
G1 X69.6542 Y124.98276
G1 X79.02648 Y122.20982
G1 X88.17105 Y119.09429
G1 X97.06171 Y115.64626
G1 X105.67311 Y111.87693
G1 X113.9808 Y107.79856
G1 X121.96135 Y103.42449
G1 X129.59249 Y98.76906
G1 X136.85317 Y93.84754
G1 X143.72371 Y88.67609
G1 X150.18588 Y83.27163
G1 X156.22305 Y77.65178
G1 X161.82023 Y71.83468
G1 X166.9642 Y65.83882
G1 X171.64353 Y59.68293
G1 X175.84863 Y53.38566
G1 X176.97789 Y51.43831
G1 F300.0 X179.05406 Y52.64228
G1 F800.0 X181.68714 Y48.10169
G1 X184.99266 Y41.4342
G1 X187.79747 Y34.67071
G1 X190.09718 Y27.82858
G1 X191.88859 Y20.92456
G1 X193.16953 Y13.9748
G1 X193.93859 Y6.99488
G1 X194.19503 Y0.0
G1 X194.09971 Y-2.6
G1 X175.30965
G1 X175.39503 Y-0.2711
G3 Y0.2711 I-7.39503 J0.2711
G1 X175.16479 Y6.55142
G3 X175.12525 Y7.09076 I-7.39503 J-0.2711
G1 X174.43516 Y13.35386
G3 X174.3571 Y13.88474 I-7.35549 J-0.81045
G1 X173.20906 Y20.11346
G3 X173.09444 Y20.6307 I-7.27742 J-1.34133
G1 X171.4916 Y26.80797
G3 X171.34319 Y27.30701 I-7.1628 J-1.85857
G1 X169.28993 Y33.41589
G3 X169.11107 Y33.89297 I-7.01439 J-2.35761
G1 X166.61303 Y39.91673
G3 X166.40745 Y40.36894 I-6.83554 J-2.83469
G1 X163.47146 Y46.29106
G3 X163.24302 Y46.71638 I-6.62995 J-3.2869
G1 X159.87715 Y52.52063
G3 X159.62969 Y52.91786 I-6.40151 J-3.71223
G1 X155.84314 Y58.58832
G3 X155.5803 Y58.95699 I-6.15405 J-4.10946
G1 X151.38348 Y64.47813
G3 X151.10861 Y64.81838 I-5.89121 J-4.47813
G1 X146.51299 Y70.17506
G3 X146.22908 Y70.4875 I-5.61634 J-4.81838
G1 X141.24727 Y75.66505
G3 X140.95689 Y75.95068 I-5.33242 J-5.13082
G1 X135.60256 Y80.93489
G3 X135.30789 Y81.19493 I-5.04204 J-5.41645
G1 X129.5957 Y85.97216
G3 X129.29854 Y86.208 I-4.74737 J-5.67649
G1 X123.24415 Y90.76514
G3 X122.94595 Y90.97824 I-4.45021 J-5.91233
G1 X116.56595 Y95.3028
G3 X116.26783 Y95.49462 I-4.15201 J-6.12542
G1 X109.57971 Y99.57476
G3 X109.28251 Y99.74674 I-3.85388 J-6.31724
G1 X102.3046 Y103.57126
G3 X102.00894 Y103.72476 I-3.55668 J-6.48922
G1 X94.76037 Y107.28319
G3 X94.46664 Y107.4195 I-3.26101 J-6.64272
G1 X86.96728 Y110.70208
G3 X86.67573 Y110.82236 I-2.96728 J-6.77903
G1 X78.94613 Y113.82009
G3 X78.65686 Y113.92541 I-2.67573 J-6.89931
G1 X70.71821 Y116.63008
G3 X70.43121 Y116.72139 I-2.38645 J-7.00463
G1 X62.30527 Y119.12559
G3 X62.02044 Y119.20371 I-2.09945 J-7.09594
G1 X53.72948 Y121.30084
G3 X53.44664 Y121.36651 I-1.81462 J-7.17406
G1 X45.01339 Y123.15082
G3 X44.73233 Y123.20464 I-1.53179 J-7.23973
G1 X36.17989 Y124.67125
G3 X35.90034 Y124.71371 I-1.25073 J-7.29354
G1 X27.25217 Y125.8586
G3 X26.97381 Y125.8901 I-0.97118 J-7.33599
G1 X18.2536 Y126.71012
G3 X17.97612 Y126.73096 I-0.69282 J-7.3675
G1 X9.20778 Y127.22388
G3 X8.93083 Y127.23425 I-0.41534 J-7.38833
G1 X0.13839 Y127.39871
G3 X-0.13839 I-0.13839 J-7.39871
G1 X-8.93083 Y127.23425
G3 X-9.20778 Y127.22388 I0.13839 J-7.39871
G1 X-17.97612 Y126.73096
G3 X-18.2536 Y126.71012 I0.41534 J-7.38833
G1 X-26.97381 Y125.8901
G3 X-27.25217 Y125.8586 I0.69282 J-7.3675
G1 X-35.90034 Y124.71371
G3 X-36.17989 Y124.67125 I0.97118 J-7.33599
G1 X-44.73233 Y123.20464
G3 X-45.01339 Y123.15082 I1.25073 J-7.29354
G1 X-53.44664 Y121.36651
G3 X-53.72948 Y121.30084 I1.53179 J-7.23973
G1 X-62.02044 Y119.20371
G3 X-62.30527 Y119.12559 I1.81462 J-7.17406
G1 X-70.43121 Y116.72139
G3 X-70.71821 Y116.63008 I2.09945 J-7.09594
G1 X-78.65686 Y113.92541
G3 X-78.94613 Y113.82009 I2.38645 J-7.00463
G1 X-86.67573 Y110.82236
G3 X-86.96728 Y110.70208 I2.67573 J-6.89931
G1 X-94.46664 Y107.4195
G3 X-94.76037 Y107.28319 I2.96728 J-6.77903
G1 X-102.00894 Y103.72476
G3 X-102.3046 Y103.57126 I3.26101 J-6.64272
G1 X-109.28251 Y99.74674
G3 X-109.57971 Y99.57476 I3.55668 J-6.48922
G1 X-116.26783 Y95.49462
G3 X-116.56595 Y95.3028 I3.85388 J-6.31724
G1 X-122.94595 Y90.97824
G3 X-123.24415 Y90.76514 I4.15201 J-6.12542
G1 X-129.29854 Y86.208
G3 X-129.5957 Y85.97216 I4.45021 J-5.91233
G1 X-135.30789 Y81.19493
G3 X-135.60256 Y80.93489 I4.74737 J-5.67649
G1 X-140.95689 Y75.95068
G3 X-141.24727 Y75.66505 I5.04204 J-5.41645
G1 X-146.22908 Y70.4875
G3 X-146.51299 Y70.17506 I5.33242 J-5.13082
G1 X-151.10861 Y64.81838
G3 X-151.38348 Y64.47813 I5.61634 J-4.81838
G1 X-155.5803 Y58.95699
G3 X-155.84314 Y58.58832 I5.89121 J-4.47813
G1 X-159.62969 Y52.91786
G3 X-159.87715 Y52.52063 I6.15405 J-4.10946
G1 X-163.24302 Y46.71638
G3 X-163.47146 Y46.29106 I6.40151 J-3.71223
G1 X-166.40745 Y40.36894
G3 X-166.61303 Y39.91673 I6.62995 J-3.2869
G1 X-169.11107 Y33.89297
G3 X-169.28993 Y33.41589 I6.83554 J-2.83469
G1 X-171.34319 Y27.30701
G3 X-171.4916 Y26.80797 I7.01439 J-2.35761
G1 X-173.09444 Y20.6307
G3 X-173.20906 Y20.11346 I7.1628 J-1.85857
G1 X-174.3571 Y13.88474
G3 X-174.43516 Y13.35386 I7.27742 J-1.34133
G1 X-175.12525 Y7.09076
G3 X-175.16479 Y6.55142 I7.35549 J-0.81045
G1 X-175.39503 Y0.2711
G3 Y-0.2711 I7.39503 J-0.2711
G1 X-175.30965 Y-2.6
G1 X-194.09971
G1 X-194.19503 Y0.0
G1 X-193.93859 Y6.99488
G1 X-193.16953 Y13.9748
G1 X-191.88859 Y20.92456
G1 X-190.09718 Y27.82858
G1 X-187.79747 Y34.67071
G1 X-184.99266 Y41.4342
G1 X-181.68714 Y48.10169
G1 X-177.8867 Y54.65532
G1 X-173.59864 Y61.07681
G1 X-168.83192 Y67.34768
G1 X-163.59715 Y73.44937
G1 X-157.90667 Y79.36345
G1 X-151.77447 Y85.07176
G1 X-145.21618 Y90.55659
G1 X-138.24898 Y95.80081
G1 X-130.89149 Y100.78795
G1 X-123.16371 Y105.50234
G1 X-115.08693 Y109.92914
G1 X-106.68359 Y114.05447
G1 X-97.97721 Y117.86538
G1 X-88.9923 Y121.34996
G1 X-79.75422 Y124.49734
G1 X-70.28916 Y127.29774
G1 X-60.62398 Y129.74247
G1 X-50.78614 Y131.82397
G1 X-40.80364 Y133.53582
G1 X-30.70489 Y134.87274
G1 X-20.51866 Y135.83063
G1 X-10.27397 Y136.40654
G1 X0.0 Y136.59871
G1 X10.27397 Y136.40654
G1 X20.51866 Y135.83063
G1 X30.70489 Y134.87274
G1 X40.80364 Y133.53582
G1 X50.78614 Y131.82397
G1 X60.62398 Y129.74247
G1 X70.28916 Y127.29774
G1 X79.75422 Y124.49734
G1 X88.9923 Y121.34996
G1 X97.97721 Y117.86538
G1 X106.68359 Y114.05447
G1 X115.08693 Y109.92914
G1 X123.16371 Y105.50234
G1 X130.89149 Y100.78795
G1 X138.24898 Y95.80081
G1 X145.21618 Y90.55659
G1 X151.77447 Y85.07176
G1 X157.90667 Y79.36345
G1 X163.59715 Y73.44937
G1 X168.83192 Y67.34768
G1 X173.59864 Y61.07681
G1 X177.8867 Y54.65532
G1 X179.05406 Y52.64228
G1 F300.0 X181.13023 Y53.84624
G1 F800.0 X183.8026 Y49.23789
G1 X187.17871 Y42.42801
G1 X190.04607 Y35.51371
G1 X192.39903 Y28.51314
G1 X194.23326 Y21.44413
G1 X195.54556 Y14.32419
G1 X196.33377 Y7.1705
G1 X196.59664 Y0.0
G1 X196.41334 Y-5.0
G1 X172.82006
G1 X172.99664 Y-0.18318
G3 Y0.18318 I-4.99664 J0.18318
G1 X172.76641 Y6.46349
G3 X172.73969 Y6.82791 I-4.99664 J-0.18318
G1 X172.0496 Y13.09101
G3 X171.99685 Y13.44972 I-4.96992 J-0.5476
G1 X170.84882 Y19.67844
G3 X170.77137 Y20.02792 I-4.91718 J-0.9063
G1 X169.16853 Y26.20519
G3 X169.06825 Y26.54238 I-4.83973 J-1.25579
G1 X167.01499 Y32.65126
G3 X166.89414 Y32.97362 I-4.73945 J-1.59298
G1 X164.3961 Y38.99737
G3 X164.25719 Y39.30292 I-4.6186 J-1.91533
G1 X161.32121 Y45.22504
G3 X161.16686 Y45.51242 I-4.4797 J-2.22088
G1 X157.80098 Y51.31666
G3 X157.63378 Y51.58506 I-4.32535 J-2.50826
G1 X153.84724 Y57.25552
G3 X153.66964 Y57.50462 I-4.15814 J-2.77666
G1 X149.47281 Y63.02576
G3 X149.28709 Y63.25566 I-3.98055 J-3.02576
G1 X144.69148 Y68.61234
G3 X144.49964 Y68.82345 I-3.79482 J-3.25566
G1 X139.51784 Y74.001
G3 X139.32164 Y74.19399 I-3.60299 J-3.46677
G1 X133.9673 Y79.17821
G3 X133.7682 Y79.35391 I-3.40678 J-3.65976
G1 X128.05601 Y84.13114
G3 X127.85523 Y84.29049 I-3.20768 J-3.83546
G1 X121.80084 Y88.84763
G3 X121.59935 Y88.99161 I-3.0069 J-3.99482
G1 X115.21935 Y93.31618
G3 X115.01792 Y93.44579 I-2.80541 J-4.1388
G1 X108.3298 Y97.52592
G3 X108.12899 Y97.64213 I-2.60398 J-4.26841
G1 X101.15109 Y101.46665
G3 X100.95131 Y101.57037 I-2.40316 J-4.38461
G1 X93.70275 Y105.1288
G3 X93.50428 Y105.22089 I-2.20339 J-4.48833
G1 X86.00492 Y108.50347
G3 X85.80792 Y108.58474 I-2.00492 J-4.58043
G1 X78.07833 Y111.58248
G3 X77.88287 Y111.65364 I-1.80792 J-4.6617
G1 X69.94423 Y114.35831
G3 X69.7503 Y114.42001 I-1.61247 J-4.73286
G1 X61.62436 Y116.8242
G3 X61.43191 Y116.87699 I-1.41855 J-4.79455
G1 X53.14095 Y118.97412
G3 X52.94985 Y119.01849 I-1.22609 J-4.84734
G1 X44.51659 Y120.80281
G3 X44.32669 Y120.83916 I-1.03499 J-4.89171
G1 X35.77425 Y122.30578
G3 X35.58536 Y122.33447 I-0.84509 J-4.92807
G1 X26.93719 Y123.47935
G3 X26.74911 Y123.50064 I-0.6562 J-4.95675
G1 X18.0289 Y124.32067
G3 X17.84142 Y124.33475 I-0.46812 J-4.97804
G1 X9.07308 Y124.82766
G3 X8.88595 Y124.83467 I-0.28063 J-4.99212
G1 X0.0935 Y124.99913
G3 X-0.0935 I-0.0935 J-4.99913
G1 X-8.88595 Y124.83467
G3 X-9.07308 Y124.82766 I0.0935 J-4.99913
G1 X-17.84142 Y124.33475
G3 X-18.0289 Y124.32067 I0.28063 J-4.99212
G1 X-26.74911 Y123.50064
G3 X-26.93719 Y123.47935 I0.46812 J-4.97804
G1 X-35.58536 Y122.33447
G3 X-35.77425 Y122.30578 I0.6562 J-4.95675
G1 X-44.32669 Y120.83916
G3 X-44.51659 Y120.80281 I0.84509 J-4.92807
G1 X-52.94985 Y119.01849
G3 X-53.14095 Y118.97412 I1.03499 J-4.89171
G1 X-61.43191 Y116.87699
G3 X-61.62436 Y116.8242 I1.22609 J-4.84734
G1 X-69.7503 Y114.42001
G3 X-69.94423 Y114.35831 I1.41855 J-4.79455
G1 X-77.88287 Y111.65364
G3 X-78.07833 Y111.58248 I1.61247 J-4.73286
G1 X-85.80792 Y108.58474
G3 X-86.00492 Y108.50347 I1.80792 J-4.6617
G1 X-93.50428 Y105.22089
G3 X-93.70275 Y105.1288 I2.00492 J-4.58043
G1 X-100.95131 Y101.57037
G3 X-101.15109 Y101.46665 I2.20339 J-4.48833
G1 X-108.12899 Y97.64213
G3 X-108.3298 Y97.52592 I2.40316 J-4.38461
G1 X-115.01792 Y93.44579
G3 X-115.21935 Y93.31618 I2.60398 J-4.26841
G1 X-121.59935 Y88.99161
G3 X-121.80084 Y88.84763 I2.80541 J-4.1388
G1 X-127.85523 Y84.29049
G3 X-128.05601 Y84.13114 I3.0069 J-3.99482
G1 X-133.7682 Y79.35391
G3 X-133.9673 Y79.17821 I3.20768 J-3.83546
G1 X-139.32164 Y74.19399
G3 X-139.51784 Y74.001 I3.40678 J-3.65976
G1 X-144.49964 Y68.82345
G3 X-144.69148 Y68.61234 I3.60299 J-3.46677
G1 X-149.28709 Y63.25566
G3 X-149.47281 Y63.02576 I3.79482 J-3.25566
G1 X-153.66964 Y57.50462
G3 X-153.84724 Y57.25552 I3.98055 J-3.02576
G1 X-157.63378 Y51.58506
G3 X-157.80098 Y51.31666 I4.15814 J-2.77666
G1 X-161.16686 Y45.51242
G3 X-161.32121 Y45.22504 I4.32535 J-2.50826
G1 X-164.25719 Y39.30292
G3 X-164.3961 Y38.99737 I4.4797 J-2.22088
G1 X-166.89414 Y32.97362
G3 X-167.01499 Y32.65126 I4.6186 J-1.91533
G1 X-169.06825 Y26.54238
G3 X-169.16853 Y26.20519 I4.73945 J-1.59298
G1 X-170.77137 Y20.02792
G3 X-170.84882 Y19.67844 I4.83973 J-1.25579
G1 X-171.99685 Y13.44972
G3 X-172.0496 Y13.09101 I4.91718 J-0.9063
G1 X-172.73969 Y6.82791
G3 X-172.76641 Y6.46349 I4.96992 J-0.5476
G1 X-172.99664 Y0.18318
G3 Y-0.18318 I4.99664 J-0.18318
G1 X-172.82006 Y-5.0
G1 X-196.41334
G1 X-196.59664 Y0.0
G1 X-196.33377 Y7.1705
G1 X-195.54556 Y14.32419
G1 X-194.23326 Y21.44413
G1 X-192.39903 Y28.51314
G1 X-190.04607 Y35.51371
G1 X-187.17871 Y42.42801
G1 X-183.8026 Y49.23789
G1 X-179.92478 Y55.92497
G1 X-175.55376 Y62.4707
G1 X-170.69964 Y68.85654
G1 X-165.37407 Y75.06407
G1 X-159.59029 Y81.07511
G1 X-153.36306 Y86.87188
G1 X-146.70866 Y92.43709
G1 X-139.64479 Y97.75407
G1 X-132.19048 Y102.80684
G1 X-124.36607 Y107.58018
G1 X-116.19306 Y112.05973
G1 X-107.69407 Y116.23201
G1 X-98.89271 Y120.0845
G1 X-89.81355 Y123.60563
G1 X-80.48197 Y126.78487
G1 X-70.92413 Y129.61272
G1 X-61.16685 Y132.08074
G1 X-51.23753 Y134.1816
G1 X-41.16408 Y135.90904
G1 X-30.97483 Y137.25795
G1 X-20.69843 Y138.22431
G1 X-10.36379 Y138.80528
G1 X0.0 Y138.99913
G1 X10.36379 Y138.80528
G1 X20.69843 Y138.22431
G1 X30.97483 Y137.25795
G1 X41.16408 Y135.90904
G1 X51.23753 Y134.1816
G1 X61.16685 Y132.08074
G1 X70.92413 Y129.61272
G1 X80.48197 Y126.78487
G1 X89.81355 Y123.60563
G1 X98.89271 Y120.0845
G1 X107.69407 Y116.23201
G1 X116.19306 Y112.05973
G1 X124.36607 Y107.58018
G1 X132.19048 Y102.80684
G1 X139.64479 Y97.75407
G1 X146.70866 Y92.43709
G1 X153.36306 Y86.87188
G1 X159.59029 Y81.07511
G1 X165.37407 Y75.06407
G1 X170.69964 Y68.85654
G1 X175.55376 Y62.4707
G1 X179.92478 Y55.92497
G1 X181.13023 Y53.84624
G1 F300.0 X183.20639 Y55.05021
G1 F800.0 X185.91806 Y50.3741
G1 X189.36477 Y43.42182
G1 X192.29466 Y36.3567
G1 X194.70088 Y29.19769
G1 X196.57792 Y21.9637
G1 X197.92158 Y14.67359
G1 X198.72894 Y7.34612
G1 X198.99825 Y0.0
G1 X198.72994 Y-7.31891
G1 X198.71929 Y-7.4
G1 X170.27527
G1 X170.35816 Y-6.5257
G3 X170.36802 Y-6.37557 I-2.58839 J0.24539
G1 X170.59825 Y-0.09525
G3 Y0.09525 I-2.59825 J0.09525
G1 X170.36802 Y6.37557
G3 X170.35412 Y6.56507 I-2.59825 J-0.09525
G1 X169.66404 Y12.82817
G3 X169.63661 Y13.01469 I-2.58436 J-0.28475
G1 X168.48857 Y19.24341
G3 X168.4483 Y19.42515 I-2.55693 J-0.47128
G1 X166.84546 Y25.60241
G3 X166.79331 Y25.77775 I-2.51666 J-0.65301
G1 X164.74005 Y31.88663
G3 X164.67721 Y32.05426 I-2.46452 J-0.82835
G1 X162.17917 Y38.07801
G3 X162.10694 Y38.2369 I-2.40167 J-0.99597
G1 X159.17095 Y44.15901
G3 X159.09069 Y44.30845 I-2.32944 J-1.15486
G1 X155.72482 Y50.11269
G3 X155.63787 Y50.25226 I-2.24918 J-1.3043
G1 X151.85133 Y55.92273
G3 X151.75898 Y56.05226 I-2.16223 J-1.44387
G1 X147.56215 Y61.5734
G3 X147.46558 Y61.69294 I-2.06988 J-1.5734
G1 X142.86996 Y67.04963
G3 X142.77021 Y67.1594 I-1.97331 J-1.69294
G1 X137.78841 Y72.33695
G3 X137.68638 Y72.43731 I-1.87355 J-1.80272
G1 X132.33205 Y77.42152
G3 X132.22852 Y77.51289 I-1.77153 J-1.90308
G1 X126.51632 Y82.29011
G3 X126.41192 Y82.37298 I-1.66799 J-1.99444
G1 X120.35753 Y86.93012
G3 X120.25275 Y87.00499 I-1.56359 J-2.0773
G1 X113.87276 Y91.32956
G3 X113.76801 Y91.39695 I-1.45881 J-2.15218
G1 X107.07989 Y95.47709
G3 X106.97547 Y95.53751 I-1.35407 J-2.21957
G1 X99.99757 Y99.36204
G3 X99.89368 Y99.41597 I-1.24965 J-2.28
G1 X92.64512 Y102.9744
G3 X92.54192 Y103.02229 I-1.14576 J-2.33393
G1 X85.04256 Y106.30487
G3 X84.94012 Y106.34713 I-1.04256 J-2.38182
G1 X77.21052 Y109.34486
G3 X77.10889 Y109.38187 I-0.94012 J-2.42408
G1 X69.17024 Y112.08654
G3 X69.0694 Y112.11862 I-0.83848 J-2.46109
G1 X60.94346 Y114.52282
G3 X60.84338 Y114.55027 I-0.73765 J-2.49317
G1 X52.55242 Y116.6474
G3 X52.45305 Y116.67047 I-0.63757 J-2.52062
G1 X44.0198 Y118.45479
G3 X43.92105 Y118.47369 I-0.5382 J-2.54369
G1 X35.36861 Y119.94031
G3 X35.27039 Y119.95522 I-0.43945 J-2.56259
G1 X26.62221 Y121.10011
G3 X26.52441 Y121.11118 I-0.34122 J-2.57751
G1 X17.80421 Y121.93121
G3 X17.70671 Y121.93853 I-0.24342 J-2.58858
G1 X8.93837 Y122.43145
G3 X8.84106 Y122.43509 I-0.14593 J-2.5959
G1 X0.04862 Y122.59955
G3 X-0.04862 I-0.04862 J-2.59955
G1 X-8.84106 Y122.43509
G3 X-8.93837 Y122.43145 I0.04862 J-2.59955
G1 X-17.70671 Y121.93853
G3 X-17.80421 Y121.93121 I0.14593 J-2.5959
G1 X-26.52441 Y121.11118
G3 X-26.62221 Y121.10011 I0.24342 J-2.58858
G1 X-35.27039 Y119.95522
G3 X-35.36861 Y119.94031 I0.34122 J-2.57751
G1 X-43.92105 Y118.47369
G3 X-44.0198 Y118.45479 I0.43945 J-2.56259
G1 X-52.45305 Y116.67047
G3 X-52.55242 Y116.6474 I0.5382 J-2.54369
G1 X-60.84338 Y114.55027
G3 X-60.94346 Y114.52282 I0.63757 J-2.52062
G1 X-69.0694 Y112.11862
G3 X-69.17024 Y112.08654 I0.73765 J-2.49317
G1 X-77.10889 Y109.38187
G3 X-77.21052 Y109.34486 I0.83848 J-2.46109
G1 X-84.94012 Y106.34713
G3 X-85.04256 Y106.30487 I0.94012 J-2.42408
G1 X-92.54192 Y103.02229
G3 X-92.64512 Y102.9744 I1.04256 J-2.38182
G1 X-99.89368 Y99.41597
G3 X-99.99757 Y99.36204 I1.14576 J-2.33393
G1 X-106.97547 Y95.53751
G3 X-107.07989 Y95.47709 I1.24965 J-2.28
G1 X-113.76801 Y91.39695
G3 X-113.87276 Y91.32956 I1.35407 J-2.21957
G1 X-120.25275 Y87.00499
G3 X-120.35753 Y86.93012 I1.45881 J-2.15218
G1 X-126.41192 Y82.37298
G3 X-126.51632 Y82.29011 I1.56359 J-2.0773
G1 X-132.22852 Y77.51289
G3 X-132.33205 Y77.42152 I1.66799 J-1.99444
G1 X-137.68638 Y72.43731
G3 X-137.78841 Y72.33695 I1.77153 J-1.90308
G1 X-142.77021 Y67.1594
G3 X-142.86996 Y67.04963 I1.87355 J-1.80272
G1 X-147.46558 Y61.69294
G3 X-147.56215 Y61.5734 I1.97331 J-1.69294
G1 X-151.75898 Y56.05226
G3 X-151.85133 Y55.92273 I2.06988 J-1.5734
G1 X-155.63787 Y50.25226
G3 X-155.72482 Y50.11269 I2.16223 J-1.44387
G1 X-159.09069 Y44.30845
G3 X-159.17095 Y44.15901 I2.24918 J-1.3043
G1 X-162.10694 Y38.2369
G3 X-162.17917 Y38.07801 I2.32944 J-1.15486
G1 X-164.67721 Y32.05426
G3 X-164.74005 Y31.88663 I2.40167 J-0.99597
G1 X-166.79331 Y25.77775
G3 X-166.84546 Y25.60241 I2.46452 J-0.82835
G1 X-168.4483 Y19.42515
G3 X-168.48857 Y19.24341 I2.51666 J-0.65301
G1 X-169.63661 Y13.01469
G3 X-169.66404 Y12.82817 I2.55693 J-0.47128
G1 X-170.35412 Y6.56507
G3 X-170.36802 Y6.37557 I2.58436 J-0.28475
G1 X-170.59825 Y0.09525
G3 Y-0.09525 I2.59825 J-0.09525
G1 X-170.36802 Y-6.37557
G3 X-170.34863 Y-6.61114 I2.59825 J0.09525
G1 X-170.24743 Y-7.4
G1 X-198.71051
G1 X-198.7316 Y-7.27363
G1 X-198.99825 Y0.0
G1 X-198.72894 Y7.34612
G1 X-197.92158 Y14.67359
G1 X-196.57792 Y21.9637
G1 X-194.70088 Y29.19769
G1 X-192.29466 Y36.3567
G1 X-189.36477 Y43.42182
G1 X-185.91806 Y50.3741
G1 X-181.96285 Y57.19462
G1 X-177.50887 Y63.86459
G1 X-172.56736 Y70.3654
G1 X-167.15099 Y76.67877
G1 X-161.27391 Y82.78677
G1 X-154.95165 Y88.672
G1 X-148.20114 Y94.3176
G1 X-141.0406 Y99.70734
G1 X-133.48948 Y104.82573
G1 X-125.56843 Y109.65802
G1 X-117.2992 Y114.19031
G1 X-108.70455 Y118.40956
G1 X-99.80821 Y122.30361
G1 X-90.6348 Y125.8613
G1 X-81.20972 Y129.07239
G1 X-71.5591 Y131.92769
G1 X-61.70972 Y134.41901
G1 X-51.68892 Y136.53922
G1 X-41.52452 Y138.28226
G1 X-31.24476 Y139.64315
G1 X-20.87819 Y140.618
G1 X-10.45362 Y141.20402
G1 X0.0 Y141.39955
G1 X10.45362 Y141.20402
G1 X20.87819 Y140.618
G1 X31.24476 Y139.64315
G1 X41.52452 Y138.28226
G1 X51.68892 Y136.53922
G1 X61.70972 Y134.41901
G1 X71.5591 Y131.92769
G1 X81.20972 Y129.07239
G1 X90.6348 Y125.8613
G1 X99.80821 Y122.30361
G1 X108.70455 Y118.40956
G1 X117.2992 Y114.19031
G1 X125.56843 Y109.65802
G1 X133.48948 Y104.82573
G1 X141.0406 Y99.70734
G1 X148.20114 Y94.3176
G1 X154.95165 Y88.672
G1 X161.27391 Y82.78677
G1 X167.15099 Y76.67877
G1 X172.56736 Y70.3654
G1 X177.50887 Y63.86459
G1 X181.96285 Y57.19462
G1 X183.20639 Y55.05021
G0 Z3.0
G0 X171.78748 Y48.42839
G0 Z-3.0
G1 F300.0 Z-6.0
G1 F800.0 X174.28303 Y44.12498
G1 X177.34146 Y37.95586
G1 X179.92737 Y31.72024
G1 X182.04069 Y25.43266
G1 X183.68228 Y19.10608
G1 X184.85344 Y12.75191
G1 X185.55549 Y6.38021
G1 X185.57676 Y5.8
G1 X183.59798
G1 X183.55916 Y6.85916
G3 X183.47472 Y8.01072 I-15.78939 J-0.57884
G1 X182.78464 Y14.27383
G3 X182.61795 Y15.40733 I-15.70496 J-1.73041
G1 X181.46992 Y21.63605
G3 X181.22519 Y22.74042 I-15.53828 J-2.86391
G1 X179.62235 Y28.91769
G3 X179.30547 Y29.98322 I-15.29355 J-3.96829
G1 X177.25221 Y36.0921
G3 X176.87033 Y37.11073 I-14.97667 J-5.03381
G1 X174.37229 Y43.13448
G3 X173.93334 Y44.10002 I-14.59479 J-6.05244
G1 X171.78748 Y48.42839
G1 F300.0 X172.82556 Y49.03038
G1 F800.0 X175.34076 Y44.69308
G1 X178.43449 Y38.45277
G1 X181.05167 Y32.14173
G1 X183.19162 Y25.77493
G1 X184.85461 Y19.36586
G1 X186.04145 Y12.92661
G1 X186.75307 Y6.46802
G1 X186.82155 Y4.6
G1 X182.44117
G1 X182.35996 Y6.8152
G3 X182.28194 Y7.8793 I-14.5902 J-0.53488
G1 X181.59185 Y14.1424
G3 X181.43783 Y15.18982 I-14.51218 J-1.59899
G1 X180.28979 Y21.41854
G3 X180.06366 Y22.43904 I-14.35815 J-2.6464
G1 X178.46081 Y28.6163
G3 X178.168 Y29.6009 I-14.13201 J-3.6669
G1 X176.11474 Y35.70978
G3 X175.76186 Y36.65105 I-13.8392 J-4.6515
G1 X173.26382 Y42.6748
G3 X172.85821 Y43.56701 I-13.48633 J-5.59276
G1 X169.92223 Y49.48913
G3 X169.47152 Y50.32828 I-13.08072 J-6.48497
G1 X166.10565 Y56.13253
G3 X165.61741 Y56.91626 I-12.63001 J-7.32413
G1 X161.83087 Y62.58672
G3 X161.31229 Y63.31409 I-12.14177 J-8.10786
G1 X157.11546 Y68.83523
G3 X156.57315 Y69.50652 I-11.6232 J-8.83523
G1 X151.97754 Y74.86321
G3 X151.41738 Y75.47965 I-11.08088 J-9.50652
G1 X150.60747 Y76.32138
G1 X152.85581 Y74.22846
G1 X158.26639 Y68.60528
G1 X163.22876 Y62.8211
G1 X167.7333 Y56.89515
G1 X171.77248 Y50.84636
G1 X172.82556 Y49.03038
G1 F300.0 X174.90173 Y50.23434
G1 F800.0 X177.45622 Y45.82928
G1 X180.62055 Y39.44658
G1 X183.30027 Y32.98473
G1 X185.49347 Y26.45948
G1 X187.19927 Y19.88543
G1 X188.41748 Y13.27601
G1 X189.14825 Y6.64364
G1 X189.31115 Y2.2
G1 X180.12754
G1 X179.96157 Y6.72727
G3 X179.89637 Y7.61645 I-12.19181 J-0.44696
G1 X179.20629 Y13.87955
G3 X179.07759 Y14.75479 I-12.12661 J-1.33614
G1 X177.92955 Y20.98351
G3 X177.74059 Y21.83626 I-11.99791 J-2.21138
G1 X176.13774 Y28.01352
G3 X175.89306 Y28.83627 I-11.80894 J-3.06412
G1 X173.83981 Y34.94515
G3 X173.54493 Y35.73169 I-11.56427 J-3.88687
G1 X171.04689 Y41.75545
G3 X170.70796 Y42.50099 I-11.2694 J-4.67341
G1 X167.77197 Y48.4231
G3 X167.39535 Y49.12432 I-10.93046 J-5.41895
G1 X164.02948 Y54.92856
G3 X163.6215 Y55.58346 I-10.55384 J-6.12016
G1 X159.83496 Y61.25392
G3 X159.40163 Y61.86173 I-10.14586 J-6.77506
G1 X155.2048 Y67.38287
G3 X154.75164 Y67.94381 I-9.71253 J-7.38287
G1 X150.15602 Y73.30049
G3 X149.68794 Y73.8156 I-9.25937 J-7.94381
G1 X144.70614 Y78.99315
G3 X144.2274 Y79.46405 I-8.79129 J-8.45892
G1 X138.87307 Y84.44826
G3 X138.38726 Y84.87698 I-8.31254 J-8.92982
G1 X132.67507 Y89.65421
G3 X132.18516 Y90.04303 I-7.82674 J-9.35853
G1 X126.13077 Y94.60017
G3 X125.63914 Y94.95149 I-7.33683 J-9.74735
G1 X119.25914 Y99.27605
G3 X118.76764 Y99.5923 I-6.8452 J-10.09867
G1 X112.07953 Y103.67243
G3 X111.58955 Y103.95596 I-6.3537 J-10.41492
G1 X104.61164 Y107.78049
G3 X104.12419 Y108.03356 I-5.86372 J-10.69845
G1 X96.87562 Y111.59199
G3 X96.39136 Y111.81671 I-5.37626 J-10.95152
G1 X88.89201 Y115.09929
G3 X88.41134 Y115.29759 I-4.89201 J-11.17624
G1 X80.68174 Y118.29532
G3 X80.20483 Y118.46896 I-4.41134 J-11.37454
G1 X72.26618 Y121.17363
G3 X71.79301 Y121.32416 I-3.93443 J-11.54817
G1 X63.66707 Y123.72836
G3 X63.19749 Y123.85716 I-3.46126 J-11.6987
G1 X54.90653 Y125.95429
G3 X54.44024 Y126.06255 I-2.99167 J-11.82751
G1 X47.83769 Y127.45952
G1 X49.88336 Y127.10872
G1 X59.53824 Y125.06593
G1 X69.01923 Y122.66779
G1 X78.29873 Y119.92229
G1 X87.3498 Y116.83862
G1 X96.14622 Y113.42715
G1 X104.66264 Y109.69938
G1 X112.87467 Y105.66798
G1 X120.75899 Y101.34665
G1 X128.29349 Y96.75017
G1 X135.45736 Y91.89427
G1 X142.23123 Y86.79558
G1 X148.59729 Y81.47151
G1 X154.53943 Y75.94012
G1 X160.04331 Y70.21998
G1 X165.09648 Y64.32996
G1 X169.68842 Y58.28904
G1 X173.81055 Y52.11601
G1 X174.90173 Y50.23434
G0 Z3.0
G0 X-171.78748 Y48.42839
G0 Z-3.0
G1 F300.0 Z-6.0
G1 F800.0 X-173.93334 Y44.10002
G3 X-174.37229 Y43.13448 I14.15584 J-7.01799
G1 X-176.87033 Y37.11073
G3 X-177.25221 Y36.0921 I14.59479 J-6.05244
G1 X-179.30547 Y29.98322
G3 X-179.62235 Y28.91769 I14.97667 J-5.03381
G1 X-181.22519 Y22.74042
G3 X-181.46992 Y21.63605 I15.29355 J-3.96829
G1 X-182.61795 Y15.40733
G3 X-182.78464 Y14.27383 I15.53828 J-2.86391
G1 X-183.47472 Y8.01072
G3 X-183.55916 Y6.85916 I15.70496 J-1.73041
G1 X-183.59798 Y5.8
G1 X-185.57676
G1 X-185.55549 Y6.38021
G1 X-184.85344 Y12.75191
G1 X-183.68228 Y19.10608
G1 X-182.04069 Y25.43266
G1 X-179.92737 Y31.72024
G1 X-177.34146 Y37.95586
G1 X-174.28303 Y44.12498
G1 X-171.78748 Y48.42839
G1 F300.0 X-172.82556 Y49.03038
G1 F800.0 X-171.77248 Y50.84636
G1 X-167.7333 Y56.89515
G1 X-163.22876 Y62.8211
G1 X-158.26639 Y68.60528
G1 X-152.85581 Y74.22846
G1 X-150.60747 Y76.32138
G1 X-151.41738 Y75.47965
G3 X-151.97754 Y74.86321 I10.52072 J-10.12297
G1 X-156.57315 Y69.50652
G3 X-157.11546 Y68.83523 I11.08088 J-9.50652
G1 X-161.31229 Y63.31409
G3 X-161.83087 Y62.58672 I11.6232 J-8.83523
G1 X-165.61741 Y56.91626
G3 X-166.10565 Y56.13253 I12.14177 J-8.10786
G1 X-169.47152 Y50.32828
G3 X-169.92223 Y49.48913 I12.63001 J-7.32413
G1 X-172.85821 Y43.56701
G3 X-173.26382 Y42.6748 I13.08072 J-6.48497
G1 X-175.76186 Y36.65105
G3 X-176.11474 Y35.70978 I13.48633 J-5.59276
G1 X-178.168 Y29.6009
G3 X-178.46081 Y28.6163 I13.8392 J-4.6515
G1 X-180.06366 Y22.43904
G3 X-180.28979 Y21.41854 I14.13201 J-3.6669
G1 X-181.43783 Y15.18982
G3 X-181.59185 Y14.1424 I14.35815 J-2.6464
G1 X-182.28194 Y7.8793
G3 X-182.35996 Y6.8152 I14.51218 J-1.59899
G1 X-182.44117 Y4.6
G1 X-186.82155
G1 X-186.75307 Y6.46802
G1 X-186.04145 Y12.92661
G1 X-184.85461 Y19.36586
G1 X-183.19162 Y25.77493
G1 X-181.05167 Y32.14173
G1 X-178.43449 Y38.45277
G1 X-175.34076 Y44.69308
G1 X-172.82556 Y49.03038
G1 F300.0 X-174.90173 Y50.23434
G1 F800.0 X-173.81055 Y52.11601
G1 X-169.68842 Y58.28904
G1 X-165.09648 Y64.32996
G1 X-160.04331 Y70.21998
G1 X-154.53943 Y75.94012
G1 X-148.59729 Y81.47151
G1 X-142.23123 Y86.79558
G1 X-135.45736 Y91.89427
G1 X-128.29349 Y96.75017
G1 X-120.75899 Y101.34665
G1 X-112.87467 Y105.66798
G1 X-104.66264 Y109.69938
G1 X-96.14622 Y113.42715
G1 X-87.3498 Y116.83862
G1 X-78.29873 Y119.92229
G1 X-69.01923 Y122.66779
G1 X-59.53824 Y125.06593
G1 X-49.88336 Y127.10872
G1 X-47.83769 Y127.45952
G1 X-54.44024 Y126.06255
G3 X-54.90653 Y125.95429 I2.52538 J-11.93576
G1 X-63.19749 Y123.85716
G3 X-63.66707 Y123.72836 I2.99167 J-11.82751
G1 X-71.79301 Y121.32416
G3 X-72.26618 Y121.17363 I3.46126 J-11.6987
G1 X-80.20483 Y118.46896
G3 X-80.68174 Y118.29532 I3.93443 J-11.54817
G1 X-88.41134 Y115.29759
G3 X-88.89201 Y115.09929 I4.41134 J-11.37454
G1 X-96.39136 Y111.81671
G3 X-96.87562 Y111.59199 I4.89201 J-11.17624
G1 X-104.12419 Y108.03356
G3 X-104.61164 Y107.78049 I5.37626 J-10.95152
G1 X-111.58955 Y103.95596
G3 X-112.07953 Y103.67243 I5.86372 J-10.69845
G1 X-118.76764 Y99.5923
G3 X-119.25914 Y99.27605 I6.3537 J-10.41492
G1 X-125.63914 Y94.95149
G3 X-126.13077 Y94.60017 I6.8452 J-10.09867
G1 X-132.18516 Y90.04303
G3 X-132.67507 Y89.65421 I7.33683 J-9.74735
G1 X-138.38726 Y84.87698
G3 X-138.87307 Y84.44826 I7.82674 J-9.35853
G1 X-144.2274 Y79.46405
G3 X-144.70614 Y78.99315 I8.31254 J-8.92982
G1 X-149.68794 Y73.8156
G3 X-150.15602 Y73.30049 I8.79129 J-8.45892
G1 X-154.75164 Y67.94381
G3 X-155.2048 Y67.38287 I9.25937 J-7.94381
G1 X-159.40163 Y61.86173
G3 X-159.83496 Y61.25392 I9.71253 J-7.38287
G1 X-163.6215 Y55.58346
G3 X-164.02948 Y54.92856 I10.14586 J-6.77506
G1 X-167.39535 Y49.12432
G3 X-167.77197 Y48.4231 I10.55384 J-6.12016
G1 X-170.70796 Y42.50099
G3 X-171.04689 Y41.75545 I10.93046 J-5.41895
G1 X-173.54493 Y35.73169
G3 X-173.83981 Y34.94515 I11.2694 J-4.67341
G1 X-175.89306 Y28.83627
G3 X-176.13774 Y28.01352 I11.56427 J-3.88687
G1 X-177.74059 Y21.83626
G3 X-177.92955 Y20.98351 I11.80894 J-3.06412
G1 X-179.07759 Y14.75479
G3 X-179.20629 Y13.87955 I11.99791 J-2.21138
G1 X-179.89637 Y7.61645
G3 X-179.96157 Y6.72727 I12.12661 J-1.33614
G1 X-180.12754 Y2.2
G1 X-189.31115
G1 X-189.14825 Y6.64364
G1 X-188.41748 Y13.27601
G1 X-187.19927 Y19.88543
G1 X-185.49347 Y26.45948
G1 X-183.30027 Y32.98473
G1 X-180.62055 Y39.44658
G1 X-177.45622 Y45.82928
G1 X-174.90173 Y50.23434
G1 F300.0 X-176.97789 Y51.43831
G1 F800.0 X-175.84863 Y53.38566
G1 X-171.64353 Y59.68293
G1 X-166.9642 Y65.83882
G1 X-161.82023 Y71.83468
G1 X-156.22305 Y77.65178
G1 X-150.18588 Y83.27163
G1 X-143.72371 Y88.67609
G1 X-136.85317 Y93.84754
G1 X-129.59249 Y98.76906
G1 X-121.96135 Y103.42449
G1 X-113.9808 Y107.79856
G1 X-105.67311 Y111.87693
G1 X-97.06171 Y115.64626
G1 X-88.17105 Y119.09429
G1 X-79.02648 Y122.20982
G1 X-69.6542 Y124.98276
G1 X-60.08111 Y127.4042
G1 X-50.33475 Y129.46634
G1 X-40.4432 Y131.1626
G1 X-30.43496 Y132.48754
G1 X-20.3389 Y133.43694
G1 X-10.18414 Y134.0078
G1 X0.0 Y134.19829
G1 X10.18414 Y134.0078
G1 X20.3389 Y133.43694
G1 X30.43496 Y132.48754
G1 X40.4432 Y131.1626
G1 X50.33475 Y129.46634
G1 X60.08111 Y127.4042
G1 X69.6542 Y124.98276
G1 X79.02648 Y122.20982
G1 X88.17105 Y119.09429
G1 X97.06171 Y115.64626
G1 X105.67311 Y111.87693
G1 X113.9808 Y107.79856
G1 X121.96135 Y103.42449
G1 X129.59249 Y98.76906
G1 X136.85317 Y93.84754
G1 X143.72371 Y88.67609
G1 X150.18588 Y83.27163
G1 X156.22305 Y77.65178
G1 X161.82023 Y71.83468
G1 X166.9642 Y65.83882
G1 X171.64353 Y59.68293
G1 X175.84863 Y53.38566
G1 X179.57168 Y46.96549
G1 X182.8066 Y40.44039
G1 X185.54887 Y33.82772
G1 X187.79532 Y27.14403
G1 X189.54393 Y20.405
G1 X190.7935 Y13.6254
G1 X191.54342 Y6.81926
G1 X191.79342 Y0.0
G1 X191.78608 Y-0.2
G1 X177.79796
G3 X177.79342 Y0.35903 I-9.79796 J0.2
G1 X177.56318 Y6.63934
G3 X177.51081 Y7.35361 I-9.79342 J-0.35903
G1 X176.82073 Y13.61671
G3 X176.71734 Y14.31977 I-9.74105 J-1.07329
G1 X175.56931 Y20.54849
G3 X175.41751 Y21.23348 I-9.63766 J-1.77635
G1 X173.81467 Y27.41075
G3 X173.61813 Y28.07164 I-9.48587 J-2.46134
G1 X171.56487 Y34.18052
G3 X171.328 Y34.81233 I-9.28933 J-3.12224
G1 X168.82996 Y40.83609
G3 X168.5577 Y41.43497 I-9.05247 J-3.75405
G1 X165.62172 Y47.35708
G3 X165.31919 Y47.92035 I-8.78021 J-4.35293
G1 X161.95331 Y53.72459
G3 X161.62559 Y54.25066 I-8.47768 J-4.9162
G1 X157.83905 Y59.92112
G3 X157.49097 Y60.40936 I-8.14996 J-5.44226
G1 X153.29414 Y65.9305
G3 X152.93012 Y66.38109 I-7.80187 J-5.9305
G1 X148.33451 Y71.73778
G3 X147.95851 Y72.15155 I-7.43785 J-6.38109
G1 X142.97671 Y77.3291
G3 X142.59214 Y77.70736 I-7.06185 J-6.79487
G1 X137.23781 Y82.69158
G3 X136.84757 Y83.03596 I-6.67729 J-7.17313
G1 X131.13538 Y87.81318
G3 X130.74185 Y88.12551 I-6.28705 J-7.51751
G1 X124.68746 Y92.68265
G3 X124.29254 Y92.96486 I-5.89352 J-7.82984
G1 X117.91255 Y97.28943
G3 X117.51773 Y97.54346 I-5.49861 J-8.11205
G1 X110.82962 Y101.6236
G3 X110.43603 Y101.85135 I-5.10379 J-8.36608
G1 X103.45812 Y105.67587
G3 X103.06656 Y105.87916 I-4.7102 J-8.59384
G1 X95.818 Y109.43759
G3 X95.429 Y109.6181 I-4.31864 J-8.79712
G1 X87.92964 Y112.90068
G3 X87.54353 Y113.05997 I-3.92964 J-8.97763
G1 X79.81394 Y116.05771
G3 X79.43084 Y116.19718 I-3.54353 J-9.13692
G1 X71.4922 Y118.90186
G3 X71.11211 Y119.02277 I-3.16044 J-9.2764
G1 X62.98617 Y121.42697
G3 X62.60896 Y121.53043 I-2.78036 J-9.39732
G1 X54.318 Y123.62757
G3 X53.94344 Y123.71453 I-2.40315 J-9.50078
G1 X45.51018 Y125.49884
G3 X45.13797 Y125.57011 I-2.02859 J-9.58774
G1 X36.58554 Y127.03672
G3 X36.21532 Y127.09295 I-1.65637 J-9.65901
G1 X27.56714 Y128.23784
G3 X27.19851 Y128.27956 I-1.28615 J-9.71524
G1 X18.4783 Y129.09958
G3 X18.11083 Y129.12718 I-0.91752 J-9.75695
G1 X9.34248 Y129.6201
G3 X8.97571 Y129.63383 I-0.55004 J-9.78455
G1 X0.18327 Y129.79829
G3 X-0.18327 I-0.18327 J-9.79829
G1 X-8.97571 Y129.63383
G3 X-9.34248 Y129.6201 I0.18327 J-9.79829
G1 X-18.11083 Y129.12718
G3 X-18.4783 Y129.09958 I0.55004 J-9.78455
G1 X-27.19851 Y128.27956
G3 X-27.56714 Y128.23784 I0.91752 J-9.75695
G1 X-36.21532 Y127.09295
G3 X-36.58554 Y127.03672 I1.28615 J-9.71524
G1 X-45.13797 Y125.57011
G3 X-45.51018 Y125.49884 I1.65637 J-9.65901
G1 X-53.94344 Y123.71453
G3 X-54.318 Y123.62757 I2.02859 J-9.58774
G1 X-62.60896 Y121.53043
G3 X-62.98617 Y121.42697 I2.40315 J-9.50078
G1 X-71.11211 Y119.02277
G3 X-71.4922 Y118.90186 I2.78036 J-9.39732
G1 X-79.43084 Y116.19718
G3 X-79.81394 Y116.05771 I3.16044 J-9.2764
G1 X-87.54353 Y113.05997
G3 X-87.92964 Y112.90068 I3.54353 J-9.13692
G1 X-95.429 Y109.6181
G3 X-95.818 Y109.43759 I3.92964 J-8.97763
G1 X-103.06656 Y105.87916
G3 X-103.45812 Y105.67587 I4.31864 J-8.79712
G1 X-110.43603 Y101.85135
G3 X-110.82962 Y101.6236 I4.7102 J-8.59384
G1 X-117.51773 Y97.54346
G3 X-117.91255 Y97.28943 I5.10379 J-8.36608
G1 X-124.29254 Y92.96486
G3 X-124.68746 Y92.68265 I5.49861 J-8.11205
G1 X-130.74185 Y88.12551
G3 X-131.13538 Y87.81318 I5.89352 J-7.82984
G1 X-136.84757 Y83.03596
G3 X-137.23781 Y82.69158 I6.28705 J-7.51751
G1 X-142.59214 Y77.70736
G3 X-142.97671 Y77.3291 I6.67729 J-7.17313
G1 X-147.95851 Y72.15155
G3 X-148.33451 Y71.73778 I7.06185 J-6.79487
G1 X-152.93012 Y66.38109
G3 X-153.29414 Y65.9305 I7.43785 J-6.38109
G1 X-157.49097 Y60.40936
G3 X-157.83905 Y59.92112 I7.80187 J-5.9305
G1 X-161.62559 Y54.25066
G3 X-161.95331 Y53.72459 I8.14996 J-5.44226
G1 X-165.31919 Y47.92035
G3 X-165.62172 Y47.35708 I8.47768 J-4.9162
G1 X-168.5577 Y41.43497
G3 X-168.82996 Y40.83609 I8.78021 J-4.35293
G1 X-171.328 Y34.81233
G3 X-171.56487 Y34.18052 I9.05247 J-3.75405
G1 X-173.61813 Y28.07164
G3 X-173.81467 Y27.41075 I9.28933 J-3.12224
G1 X-175.41751 Y21.23348
G3 X-175.56931 Y20.54849 I9.48587 J-2.46134
G1 X-176.71734 Y14.31977
G3 X-176.82073 Y13.61671 I9.63766 J-1.77635
G1 X-177.51081 Y7.35361
G3 X-177.56318 Y6.63934 I9.74105 J-1.07329
G1 X-177.79342 Y0.35903
G3 X-177.79796 Y-0.2 I9.79342 J-0.35903
G1 X-191.78608
G1 X-191.79342 Y0.0
G1 X-191.54342 Y6.81926
G1 X-190.7935 Y13.6254
G1 X-189.54393 Y20.405
G1 X-187.79532 Y27.14403
G1 X-185.54887 Y33.82772
G1 X-182.8066 Y40.44039
G1 X-179.57168 Y46.96549
G1 X-176.97789 Y51.43831
G1 F300.0 X-179.05406 Y52.64228
G1 F800.0 X-177.8867 Y54.65532
G1 X-173.59864 Y61.07681
G1 X-168.83192 Y67.34768
G1 X-163.59715 Y73.44937
G1 X-157.90667 Y79.36345
G1 X-151.77447 Y85.07176
G1 X-145.21618 Y90.55659
G1 X-138.24898 Y95.80081
G1 X-130.89149 Y100.78795
G1 X-123.16371 Y105.50234
G1 X-115.08693 Y109.92914
G1 X-106.68359 Y114.05447
G1 X-97.97721 Y117.86538
G1 X-88.9923 Y121.34996
G1 X-79.75422 Y124.49734
G1 X-70.28916 Y127.29774
G1 X-60.62398 Y129.74247
G1 X-50.78614 Y131.82397
G1 X-40.80364 Y133.53582
G1 X-30.70489 Y134.87274
G1 X-20.51866 Y135.83063
G1 X-10.27397 Y136.40654
G1 X0.0 Y136.59871
G1 X10.27397 Y136.40654
G1 X20.51866 Y135.83063
G1 X30.70489 Y134.87274
G1 X40.80364 Y133.53582
G1 X50.78614 Y131.82397
G1 X60.62398 Y129.74247
G1 X70.28916 Y127.29774
G1 X79.75422 Y124.49734
G1 X88.9923 Y121.34996
G1 X97.97721 Y117.86538
G1 X106.68359 Y114.05447
G1 X115.08693 Y109.92914
G1 X123.16371 Y105.50234
G1 X130.89149 Y100.78795
G1 X138.24898 Y95.80081
G1 X145.21618 Y90.55659
G1 X151.77447 Y85.07176
G1 X157.90667 Y79.36345
G1 X163.59715 Y73.44937
G1 X168.83192 Y67.34768
G1 X173.59864 Y61.07681
G1 X177.8867 Y54.65532
G1 X181.68714 Y48.10169
G1 X184.99266 Y41.4342
G1 X187.79747 Y34.67071
G1 X190.09718 Y27.82858
G1 X191.88859 Y20.92456
G1 X193.16953 Y13.9748
G1 X193.93859 Y6.99488
G1 X194.19503 Y0.0
G1 X194.09971 Y-2.6
G1 X175.30965
G1 X175.39503 Y-0.2711
G3 Y0.2711 I-7.39503 J0.2711
G1 X175.16479 Y6.55142
G3 X175.12525 Y7.09076 I-7.39503 J-0.2711
G1 X174.43516 Y13.35386
G3 X174.3571 Y13.88474 I-7.35549 J-0.81045
G1 X173.20906 Y20.11346
G3 X173.09444 Y20.6307 I-7.27742 J-1.34133
G1 X171.4916 Y26.80797
G3 X171.34319 Y27.30701 I-7.1628 J-1.85857
G1 X169.28993 Y33.41589
G3 X169.11107 Y33.89297 I-7.01439 J-2.35761
G1 X166.61303 Y39.91673
G3 X166.40745 Y40.36894 I-6.83554 J-2.83469
G1 X163.47146 Y46.29106
G3 X163.24302 Y46.71638 I-6.62995 J-3.2869
G1 X159.87715 Y52.52063
G3 X159.62969 Y52.91786 I-6.40151 J-3.71223
G1 X155.84314 Y58.58832
G3 X155.5803 Y58.95699 I-6.15405 J-4.10946
G1 X151.38348 Y64.47813
G3 X151.10861 Y64.81838 I-5.89121 J-4.47813
G1 X146.51299 Y70.17506
G3 X146.22908 Y70.4875 I-5.61634 J-4.81838
G1 X141.24727 Y75.66505
G3 X140.95689 Y75.95068 I-5.33242 J-5.13082
G1 X135.60256 Y80.93489
G3 X135.30789 Y81.19493 I-5.04204 J-5.41645
G1 X129.5957 Y85.97216
G3 X129.29854 Y86.208 I-4.74737 J-5.67649
G1 X123.24415 Y90.76514
G3 X122.94595 Y90.97824 I-4.45021 J-5.91233
G1 X116.56595 Y95.3028
G3 X116.26783 Y95.49462 I-4.15201 J-6.12542
G1 X109.57971 Y99.57476
G3 X109.28251 Y99.74674 I-3.85388 J-6.31724
G1 X102.3046 Y103.57126
G3 X102.00894 Y103.72476 I-3.55668 J-6.48922
G1 X94.76037 Y107.28319
G3 X94.46664 Y107.4195 I-3.26101 J-6.64272
G1 X86.96728 Y110.70208
G3 X86.67573 Y110.82236 I-2.96728 J-6.77903
G1 X78.94613 Y113.82009
G3 X78.65686 Y113.92541 I-2.67573 J-6.89931
G1 X70.71821 Y116.63008
G3 X70.43121 Y116.72139 I-2.38645 J-7.00463
G1 X62.30527 Y119.12559
G3 X62.02044 Y119.20371 I-2.09945 J-7.09594
G1 X53.72948 Y121.30084
G3 X53.44664 Y121.36651 I-1.81462 J-7.17406
G1 X45.01339 Y123.15082
G3 X44.73233 Y123.20464 I-1.53179 J-7.23973
G1 X36.17989 Y124.67125
G3 X35.90034 Y124.71371 I-1.25073 J-7.29354
G1 X27.25217 Y125.8586
G3 X26.97381 Y125.8901 I-0.97118 J-7.33599
G1 X18.2536 Y126.71012
G3 X17.97612 Y126.73096 I-0.69282 J-7.3675
G1 X9.20778 Y127.22388
G3 X8.93083 Y127.23425 I-0.41534 J-7.38833
G1 X0.13839 Y127.39871
G3 X-0.13839 I-0.13839 J-7.39871
G1 X-8.93083 Y127.23425
G3 X-9.20778 Y127.22388 I0.13839 J-7.39871
G1 X-17.97612 Y126.73096
G3 X-18.2536 Y126.71012 I0.41534 J-7.38833
G1 X-26.97381 Y125.8901
G3 X-27.25217 Y125.8586 I0.69282 J-7.3675
G1 X-35.90034 Y124.71371
G3 X-36.17989 Y124.67125 I0.97118 J-7.33599
G1 X-44.73233 Y123.20464
G3 X-45.01339 Y123.15082 I1.25073 J-7.29354
G1 X-53.44664 Y121.36651
G3 X-53.72948 Y121.30084 I1.53179 J-7.23973
G1 X-62.02044 Y119.20371
G3 X-62.30527 Y119.12559 I1.81462 J-7.17406
G1 X-70.43121 Y116.72139
G3 X-70.71821 Y116.63008 I2.09945 J-7.09594
G1 X-78.65686 Y113.92541
G3 X-78.94613 Y113.82009 I2.38645 J-7.00463
G1 X-86.67573 Y110.82236
G3 X-86.96728 Y110.70208 I2.67573 J-6.89931
G1 X-94.46664 Y107.4195
G3 X-94.76037 Y107.28319 I2.96728 J-6.77903
G1 X-102.00894 Y103.72476
G3 X-102.3046 Y103.57126 I3.26101 J-6.64272
G1 X-109.28251 Y99.74674
G3 X-109.57971 Y99.57476 I3.55668 J-6.48922
G1 X-116.26783 Y95.49462
G3 X-116.56595 Y95.3028 I3.85388 J-6.31724
G1 X-122.94595 Y90.97824
G3 X-123.24415 Y90.76514 I4.15201 J-6.12542
G1 X-129.29854 Y86.208
G3 X-129.5957 Y85.97216 I4.45021 J-5.91233
G1 X-135.30789 Y81.19493
G3 X-135.60256 Y80.93489 I4.74737 J-5.67649
G1 X-140.95689 Y75.95068
G3 X-141.24727 Y75.66505 I5.04204 J-5.41645
G1 X-146.22908 Y70.4875
G3 X-146.51299 Y70.17506 I5.33242 J-5.13082
G1 X-151.10861 Y64.81838
G3 X-151.38348 Y64.47813 I5.61634 J-4.81838
G1 X-155.5803 Y58.95699
G3 X-155.84314 Y58.58832 I5.89121 J-4.47813
G1 X-159.62969 Y52.91786
G3 X-159.87715 Y52.52063 I6.15405 J-4.10946
G1 X-163.24302 Y46.71638
G3 X-163.47146 Y46.29106 I6.40151 J-3.71223
G1 X-166.40745 Y40.36894
G3 X-166.61303 Y39.91673 I6.62995 J-3.2869
G1 X-169.11107 Y33.89297
G3 X-169.28993 Y33.41589 I6.83554 J-2.83469
G1 X-171.34319 Y27.30701
G3 X-171.4916 Y26.80797 I7.01439 J-2.35761
G1 X-173.09444 Y20.6307
G3 X-173.20906 Y20.11346 I7.1628 J-1.85857
G1 X-174.3571 Y13.88474
G3 X-174.43516 Y13.35386 I7.27742 J-1.34133
G1 X-175.12525 Y7.09076
G3 X-175.16479 Y6.55142 I7.35549 J-0.81045
G1 X-175.39503 Y0.2711
G3 Y-0.2711 I7.39503 J-0.2711
G1 X-175.30965 Y-2.6
G1 X-194.09971
G1 X-194.19503 Y0.0
G1 X-193.93859 Y6.99488
G1 X-193.16953 Y13.9748
G1 X-191.88859 Y20.92456
G1 X-190.09718 Y27.82858
G1 X-187.79747 Y34.67071
G1 X-184.99266 Y41.4342
G1 X-181.68714 Y48.10169
G1 X-179.05406 Y52.64228
G1 F300.0 X-181.13023 Y53.84624
G1 F800.0 X-179.92478 Y55.92497
G1 X-175.55376 Y62.4707
G1 X-170.69964 Y68.85654
G1 X-165.37407 Y75.06407
G1 X-159.59029 Y81.07511
G1 X-153.36306 Y86.87188
G1 X-146.70866 Y92.43709
G1 X-139.64479 Y97.75407
G1 X-132.19048 Y102.80684
G1 X-124.36607 Y107.58018
G1 X-116.19306 Y112.05973
G1 X-107.69407 Y116.23201
G1 X-98.89271 Y120.0845
G1 X-89.81355 Y123.60563
G1 X-80.48197 Y126.78487
G1 X-70.92413 Y129.61272
G1 X-61.16685 Y132.08074
G1 X-51.23753 Y134.1816
G1 X-41.16408 Y135.90904
G1 X-30.97483 Y137.25795
G1 X-20.69843 Y138.22431
G1 X-10.36379 Y138.80528
G1 X0.0 Y138.99913
G1 X10.36379 Y138.80528
G1 X20.69843 Y138.22431
G1 X30.97483 Y137.25795
G1 X41.16408 Y135.90904
G1 X51.23753 Y134.1816
G1 X61.16685 Y132.08074
G1 X70.92413 Y129.61272
G1 X80.48197 Y126.78487
G1 X89.81355 Y123.60563
G1 X98.89271 Y120.0845
G1 X107.69407 Y116.23201
G1 X116.19306 Y112.05973
G1 X124.36607 Y107.58018
G1 X132.19048 Y102.80684
G1 X139.64479 Y97.75407
G1 X146.70866 Y92.43709
G1 X153.36306 Y86.87188
G1 X159.59029 Y81.07511
G1 X165.37407 Y75.06407
G1 X170.69964 Y68.85654
G1 X175.55376 Y62.4707
G1 X179.92478 Y55.92497
G1 X183.8026 Y49.23789
G1 X187.17871 Y42.42801
G1 X190.04607 Y35.51371
G1 X192.39903 Y28.51314
G1 X194.23326 Y21.44413
G1 X195.54556 Y14.32419
G1 X196.33377 Y7.1705
G1 X196.59664 Y0.0
G1 X196.41334 Y-5.0
G1 X172.82006
G1 X172.99664 Y-0.18318
G3 Y0.18318 I-4.99664 J0.18318
G1 X172.76641 Y6.46349
G3 X172.73969 Y6.82791 I-4.99664 J-0.18318
G1 X172.0496 Y13.09101
G3 X171.99685 Y13.44972 I-4.96992 J-0.5476
G1 X170.84882 Y19.67844
G3 X170.77137 Y20.02792 I-4.91718 J-0.9063
G1 X169.16853 Y26.20519
G3 X169.06825 Y26.54238 I-4.83973 J-1.25579
G1 X167.01499 Y32.65126
G3 X166.89414 Y32.97362 I-4.73945 J-1.59298
G1 X164.3961 Y38.99737
G3 X164.25719 Y39.30292 I-4.6186 J-1.91533
G1 X161.32121 Y45.22504
G3 X161.16686 Y45.51242 I-4.4797 J-2.22088
G1 X157.80098 Y51.31666
G3 X157.63378 Y51.58506 I-4.32535 J-2.50826
G1 X153.84724 Y57.25552
G3 X153.66964 Y57.50462 I-4.15814 J-2.77666
G1 X149.47281 Y63.02576
G3 X149.28709 Y63.25566 I-3.98055 J-3.02576
G1 X144.69148 Y68.61234
G3 X144.49964 Y68.82345 I-3.79482 J-3.25566
G1 X139.51784 Y74.001
G3 X139.32164 Y74.19399 I-3.60299 J-3.46677
G1 X133.9673 Y79.17821
G3 X133.7682 Y79.35391 I-3.40678 J-3.65976
G1 X128.05601 Y84.13114
G3 X127.85523 Y84.29049 I-3.20768 J-3.83546
G1 X121.80084 Y88.84763
G3 X121.59935 Y88.99161 I-3.0069 J-3.99482
G1 X115.21935 Y93.31618
G3 X115.01792 Y93.44579 I-2.80541 J-4.1388
G1 X108.3298 Y97.52592
G3 X108.12899 Y97.64213 I-2.60398 J-4.26841
G1 X101.15109 Y101.46665
G3 X100.95131 Y101.57037 I-2.40316 J-4.38461
G1 X93.70275 Y105.1288
G3 X93.50428 Y105.22089 I-2.20339 J-4.48833
G1 X86.00492 Y108.50347
G3 X85.80792 Y108.58474 I-2.00492 J-4.58043
G1 X78.07833 Y111.58248
G3 X77.88287 Y111.65364 I-1.80792 J-4.6617
G1 X69.94423 Y114.35831
G3 X69.7503 Y114.42001 I-1.61247 J-4.73286
G1 X61.62436 Y116.8242
G3 X61.43191 Y116.87699 I-1.41855 J-4.79455
G1 X53.14095 Y118.97412
G3 X52.94985 Y119.01849 I-1.22609 J-4.84734
G1 X44.51659 Y120.80281
G3 X44.32669 Y120.83916 I-1.03499 J-4.89171
G1 X35.77425 Y122.30578
G3 X35.58536 Y122.33447 I-0.84509 J-4.92807
G1 X26.93719 Y123.47935
G3 X26.74911 Y123.50064 I-0.6562 J-4.95675
G1 X18.0289 Y124.32067
G3 X17.84142 Y124.33475 I-0.46812 J-4.97804
G1 X9.07308 Y124.82766
G3 X8.88595 Y124.83467 I-0.28063 J-4.99212
G1 X0.0935 Y124.99913
G3 X-0.0935 I-0.0935 J-4.99913
G1 X-8.88595 Y124.83467
G3 X-9.07308 Y124.82766 I0.0935 J-4.99913
G1 X-17.84142 Y124.33475
G3 X-18.0289 Y124.32067 I0.28063 J-4.99212
G1 X-26.74911 Y123.50064
G3 X-26.93719 Y123.47935 I0.46812 J-4.97804
G1 X-35.58536 Y122.33447
G3 X-35.77425 Y122.30578 I0.6562 J-4.95675
G1 X-44.32669 Y120.83916
G3 X-44.51659 Y120.80281 I0.84509 J-4.92807
G1 X-52.94985 Y119.01849
G3 X-53.14095 Y118.97412 I1.03499 J-4.89171
G1 X-61.43191 Y116.87699
G3 X-61.62436 Y116.8242 I1.22609 J-4.84734
G1 X-69.7503 Y114.42001
G3 X-69.94423 Y114.35831 I1.41855 J-4.79455
G1 X-77.88287 Y111.65364
G3 X-78.07833 Y111.58248 I1.61247 J-4.73286
G1 X-85.80792 Y108.58474
G3 X-86.00492 Y108.50347 I1.80792 J-4.6617
G1 X-93.50428 Y105.22089
G3 X-93.70275 Y105.1288 I2.00492 J-4.58043
G1 X-100.95131 Y101.57037
G3 X-101.15109 Y101.46665 I2.20339 J-4.48833
G1 X-108.12899 Y97.64213
G3 X-108.3298 Y97.52592 I2.40316 J-4.38461
G1 X-115.01792 Y93.44579
G3 X-115.21935 Y93.31618 I2.60398 J-4.26841
G1 X-121.59935 Y88.99161
G3 X-121.80084 Y88.84763 I2.80541 J-4.1388
G1 X-127.85523 Y84.29049
G3 X-128.05601 Y84.13114 I3.0069 J-3.99482
G1 X-133.7682 Y79.35391
G3 X-133.9673 Y79.17821 I3.20768 J-3.83546
G1 X-139.32164 Y74.19399
G3 X-139.51784 Y74.001 I3.40678 J-3.65976
G1 X-144.49964 Y68.82345
G3 X-144.69148 Y68.61234 I3.60299 J-3.46677
G1 X-149.28709 Y63.25566
G3 X-149.47281 Y63.02576 I3.79482 J-3.25566
G1 X-153.66964 Y57.50462
G3 X-153.84724 Y57.25552 I3.98055 J-3.02576
G1 X-157.63378 Y51.58506
G3 X-157.80098 Y51.31666 I4.15814 J-2.77666
G1 X-161.16686 Y45.51242
G3 X-161.32121 Y45.22504 I4.32535 J-2.50826
G1 X-164.25719 Y39.30292
G3 X-164.3961 Y38.99737 I4.4797 J-2.22088
G1 X-166.89414 Y32.97362
G3 X-167.01499 Y32.65126 I4.6186 J-1.91533
G1 X-169.06825 Y26.54238
G3 X-169.16853 Y26.20519 I4.73945 J-1.59298
G1 X-170.77137 Y20.02792
G3 X-170.84882 Y19.67844 I4.83973 J-1.25579
G1 X-171.99685 Y13.44972
G3 X-172.0496 Y13.09101 I4.91718 J-0.9063
G1 X-172.73969 Y6.82791
G3 X-172.76641 Y6.46349 I4.96992 J-0.5476
G1 X-172.99664 Y0.18318
G3 Y-0.18318 I4.99664 J-0.18318
G1 X-172.82006 Y-5.0
G1 X-196.41334
G1 X-196.59664 Y0.0
G1 X-196.33377 Y7.1705
G1 X-195.54556 Y14.32419
G1 X-194.23326 Y21.44413
G1 X-192.39903 Y28.51314
G1 X-190.04607 Y35.51371
G1 X-187.17871 Y42.42801
G1 X-183.8026 Y49.23789
G1 X-181.13023 Y53.84624
G1 F300.0 X-183.20639 Y55.05021
G1 F800.0 X-181.96285 Y57.19462
G1 X-177.50887 Y63.86459
G1 X-172.56736 Y70.3654
G1 X-167.15099 Y76.67877
G1 X-161.27391 Y82.78677
G1 X-154.95165 Y88.672
G1 X-148.20114 Y94.3176
G1 X-141.0406 Y99.70734
G1 X-133.48948 Y104.82573
G1 X-125.56843 Y109.65802
G1 X-117.2992 Y114.19031
G1 X-108.70455 Y118.40956
G1 X-99.80821 Y122.30361
G1 X-90.6348 Y125.8613
G1 X-81.20972 Y129.07239
G1 X-71.5591 Y131.92769
G1 X-61.70972 Y134.41901
G1 X-51.68892 Y136.53922
G1 X-41.52452 Y138.28226
G1 X-31.24476 Y139.64315
G1 X-20.87819 Y140.618
G1 X-10.45362 Y141.20402
G1 X0.0 Y141.39955
G1 X10.45362 Y141.20402
G1 X20.87819 Y140.618
G1 X31.24476 Y139.64315
G1 X41.52452 Y138.28226
G1 X51.68892 Y136.53922
G1 X61.70972 Y134.41901
G1 X71.5591 Y131.92769
G1 X81.20972 Y129.07239
G1 X90.6348 Y125.8613
G1 X99.80821 Y122.30361
G1 X108.70455 Y118.40956
G1 X117.2992 Y114.19031
G1 X125.56843 Y109.65802
G1 X133.48948 Y104.82573
G1 X141.0406 Y99.70734
G1 X148.20114 Y94.3176
G1 X154.95165 Y88.672
G1 X161.27391 Y82.78677
G1 X167.15099 Y76.67877
G1 X172.56736 Y70.3654
G1 X177.50887 Y63.86459
G1 X181.96285 Y57.19462
G1 X185.91806 Y50.3741
G1 X189.36477 Y43.42182
G1 X192.29466 Y36.3567
G1 X194.70088 Y29.19769
G1 X196.57792 Y21.9637
G1 X197.92158 Y14.67359
G1 X198.72894 Y7.34612
G1 X198.99825 Y0.0
G1 X198.72994 Y-7.31891
G1 X198.71929 Y-7.4
G1 X170.27527
G1 X170.35816 Y-6.5257
G3 X170.36802 Y-6.37557 I-2.58839 J0.24539
G1 X170.59825 Y-0.09525
G3 Y0.09525 I-2.59825 J0.09525
G1 X170.36802 Y6.37557
G3 X170.35412 Y6.56507 I-2.59825 J-0.09525
G1 X169.66404 Y12.82817
G3 X169.63661 Y13.01469 I-2.58436 J-0.28475
G1 X168.48857 Y19.24341
G3 X168.4483 Y19.42515 I-2.55693 J-0.47128
G1 X166.84546 Y25.60241
G3 X166.79331 Y25.77775 I-2.51666 J-0.65301
G1 X164.74005 Y31.88663
G3 X164.67721 Y32.05426 I-2.46452 J-0.82835
G1 X162.17917 Y38.07801
G3 X162.10694 Y38.2369 I-2.40167 J-0.99597
G1 X159.17095 Y44.15901
G3 X159.09069 Y44.30845 I-2.32944 J-1.15486
G1 X155.72482 Y50.11269
G3 X155.63787 Y50.25226 I-2.24918 J-1.3043
G1 X151.85133 Y55.92273
G3 X151.75898 Y56.05226 I-2.16223 J-1.44387
G1 X147.56215 Y61.5734
G3 X147.46558 Y61.69294 I-2.06988 J-1.5734
G1 X142.86996 Y67.04963
G3 X142.77021 Y67.1594 I-1.97331 J-1.69294
G1 X137.78841 Y72.33695
G3 X137.68638 Y72.43731 I-1.87355 J-1.80272
G1 X132.33205 Y77.42152
G3 X132.22852 Y77.51289 I-1.77153 J-1.90308
G1 X126.51632 Y82.29011
G3 X126.41192 Y82.37298 I-1.66799 J-1.99444
G1 X120.35753 Y86.93012
G3 X120.25275 Y87.00499 I-1.56359 J-2.0773
G1 X113.87276 Y91.32956
G3 X113.76801 Y91.39695 I-1.45881 J-2.15218
G1 X107.07989 Y95.47709
G3 X106.97547 Y95.53751 I-1.35407 J-2.21957
G1 X99.99757 Y99.36204
G3 X99.89368 Y99.41597 I-1.24965 J-2.28
G1 X92.64512 Y102.9744
G3 X92.54192 Y103.02229 I-1.14576 J-2.33393
G1 X85.04256 Y106.30487
G3 X84.94012 Y106.34713 I-1.04256 J-2.38182
G1 X77.21052 Y109.34486
G3 X77.10889 Y109.38187 I-0.94012 J-2.42408
G1 X69.17024 Y112.08654
G3 X69.0694 Y112.11862 I-0.83848 J-2.46109
G1 X60.94346 Y114.52282
G3 X60.84338 Y114.55027 I-0.73765 J-2.49317
G1 X52.55242 Y116.6474
G3 X52.45305 Y116.67047 I-0.63757 J-2.52062
G1 X44.0198 Y118.45479
G3 X43.92105 Y118.47369 I-0.5382 J-2.54369
G1 X35.36861 Y119.94031
G3 X35.27039 Y119.95522 I-0.43945 J-2.56259
G1 X26.62221 Y121.10011
G3 X26.52441 Y121.11118 I-0.34122 J-2.57751
G1 X17.80421 Y121.93121
G3 X17.70671 Y121.93853 I-0.24342 J-2.58858
G1 X8.93837 Y122.43145
G3 X8.84106 Y122.43509 I-0.14593 J-2.5959
G1 X0.04862 Y122.59955
G3 X-0.04862 I-0.04862 J-2.59955
G1 X-8.84106 Y122.43509
G3 X-8.93837 Y122.43145 I0.04862 J-2.59955
G1 X-17.70671 Y121.93853
G3 X-17.80421 Y121.93121 I0.14593 J-2.5959
G1 X-26.52441 Y121.11118
G3 X-26.62221 Y121.10011 I0.24342 J-2.58858
G1 X-35.27039 Y119.95522
G3 X-35.36861 Y119.94031 I0.34122 J-2.57751
G1 X-43.92105 Y118.47369
G3 X-44.0198 Y118.45479 I0.43945 J-2.56259
G1 X-52.45305 Y116.67047
G3 X-52.55242 Y116.6474 I0.5382 J-2.54369
G1 X-60.84338 Y114.55027
G3 X-60.94346 Y114.52282 I0.63757 J-2.52062
G1 X-69.0694 Y112.11862
G3 X-69.17024 Y112.08654 I0.73765 J-2.49317
G1 X-77.10889 Y109.38187
G3 X-77.21052 Y109.34486 I0.83848 J-2.46109
G1 X-84.94012 Y106.34713
G3 X-85.04256 Y106.30487 I0.94012 J-2.42408
G1 X-92.54192 Y103.02229
G3 X-92.64512 Y102.9744 I1.04256 J-2.38182
G1 X-99.89368 Y99.41597
G3 X-99.99757 Y99.36204 I1.14576 J-2.33393
G1 X-106.97547 Y95.53751
G3 X-107.07989 Y95.47709 I1.24965 J-2.28
G1 X-113.76801 Y91.39695
G3 X-113.87276 Y91.32956 I1.35407 J-2.21957
G1 X-120.25275 Y87.00499
G3 X-120.35753 Y86.93012 I1.45881 J-2.15218
G1 X-126.41192 Y82.37298
G3 X-126.51632 Y82.29011 I1.56359 J-2.0773
G1 X-132.22852 Y77.51289
G3 X-132.33205 Y77.42152 I1.66799 J-1.99444
G1 X-137.68638 Y72.43731
G3 X-137.78841 Y72.33695 I1.77153 J-1.90308
G1 X-142.77021 Y67.1594
G3 X-142.86996 Y67.04963 I1.87355 J-1.80272
G1 X-147.46558 Y61.69294
G3 X-147.56215 Y61.5734 I1.97331 J-1.69294
G1 X-151.75898 Y56.05226
G3 X-151.85133 Y55.92273 I2.06988 J-1.5734
G1 X-155.63787 Y50.25226
G3 X-155.72482 Y50.11269 I2.16223 J-1.44387
G1 X-159.09069 Y44.30845
G3 X-159.17095 Y44.15901 I2.24918 J-1.3043
G1 X-162.10694 Y38.2369
G3 X-162.17917 Y38.07801 I2.32944 J-1.15486
G1 X-164.67721 Y32.05426
G3 X-164.74005 Y31.88663 I2.40167 J-0.99597
G1 X-166.79331 Y25.77775
G3 X-166.84546 Y25.60241 I2.46452 J-0.82835
G1 X-168.4483 Y19.42515
G3 X-168.48857 Y19.24341 I2.51666 J-0.65301
G1 X-169.63661 Y13.01469
G3 X-169.66404 Y12.82817 I2.55693 J-0.47128
G1 X-170.35412 Y6.56507
G3 X-170.36802 Y6.37557 I2.58436 J-0.28475
G1 X-170.59825 Y0.09525
G3 Y-0.09525 I2.59825 J-0.09525
G1 X-170.36802 Y-6.37557
G3 X-170.34863 Y-6.61114 I2.59825 J0.09525
G1 X-170.24743 Y-7.4
G1 X-198.71051
G1 X-198.7316 Y-7.27363
G1 X-198.99825 Y0.0
G1 X-198.72894 Y7.34612
G1 X-197.92158 Y14.67359
G1 X-196.57792 Y21.9637
G1 X-194.70088 Y29.19769
G1 X-192.29466 Y36.3567
G1 X-189.36477 Y43.42182
G1 X-185.91806 Y50.3741
G1 X-183.20639 Y55.05021
G0 Z3.0
G0 X-171.78748 Y48.42839
G0 Z-5.0
G1 F300.0 Z-8.0
G1 F800.0 X-173.93334 Y44.10002
G3 X-174.37229 Y43.13448 I14.15584 J-7.01799
G1 X-176.87033 Y37.11073
G3 X-177.25221 Y36.0921 I14.59479 J-6.05244
G1 X-179.30547 Y29.98322
G3 X-179.62235 Y28.91769 I14.97667 J-5.03381
G1 X-181.22519 Y22.74042
G3 X-181.46992 Y21.63605 I15.29355 J-3.96829
G1 X-182.61795 Y15.40733
G3 X-182.78464 Y14.27383 I15.53828 J-2.86391
G1 X-183.47472 Y8.01072
G3 X-183.55916 Y6.85916 I15.70496 J-1.73041
G1 X-183.59798 Y5.8
G1 X-185.57676
G1 X-185.55549 Y6.38021
G1 X-184.85344 Y12.75191
G1 X-183.68228 Y19.10608
G1 X-182.04069 Y25.43266
G1 X-179.92737 Y31.72024
G1 X-177.34146 Y37.95586
G1 X-174.28303 Y44.12498
G1 X-171.78748 Y48.42839
G1 F300.0 X-172.82556 Y49.03038
G1 F800.0 X-171.77248 Y50.84636
G1 X-167.7333 Y56.89515
G1 X-163.22876 Y62.8211
G1 X-158.26639 Y68.60528
G1 X-152.85581 Y74.22846
G1 X-150.60747 Y76.32138
G1 X-151.41738 Y75.47965
G3 X-151.97754 Y74.86321 I10.52072 J-10.12297
G1 X-156.57315 Y69.50652
G3 X-157.11546 Y68.83523 I11.08088 J-9.50652
G1 X-161.31229 Y63.31409
G3 X-161.83087 Y62.58672 I11.6232 J-8.83523
G1 X-165.61741 Y56.91626
G3 X-166.10565 Y56.13253 I12.14177 J-8.10786
G1 X-169.47152 Y50.32828
G3 X-169.92223 Y49.48913 I12.63001 J-7.32413
G1 X-172.85821 Y43.56701
G3 X-173.26382 Y42.6748 I13.08072 J-6.48497
G1 X-175.76186 Y36.65105
G3 X-176.11474 Y35.70978 I13.48633 J-5.59276
G1 X-178.168 Y29.6009
G3 X-178.46081 Y28.6163 I13.8392 J-4.6515
G1 X-180.06366 Y22.43904
G3 X-180.28979 Y21.41854 I14.13201 J-3.6669
G1 X-181.43783 Y15.18982
G3 X-181.59185 Y14.1424 I14.35815 J-2.6464
G1 X-182.28194 Y7.8793
G3 X-182.35996 Y6.8152 I14.51218 J-1.59899
G1 X-182.44117 Y4.6
G1 X-186.82155
G1 X-186.75307 Y6.46802
G1 X-186.04145 Y12.92661
G1 X-184.85461 Y19.36586
G1 X-183.19162 Y25.77493
G1 X-181.05167 Y32.14173
G1 X-178.43449 Y38.45277
G1 X-175.34076 Y44.69308
G1 X-172.82556 Y49.03038
G1 F300.0 X-174.90173 Y50.23434
G1 F800.0 X-173.81055 Y52.11601
G1 X-169.68842 Y58.28904
G1 X-165.09648 Y64.32996
G1 X-160.04331 Y70.21998
G1 X-154.53943 Y75.94012
G1 X-148.59729 Y81.47151
G1 X-142.23123 Y86.79558
G1 X-135.45736 Y91.89427
G1 X-128.29349 Y96.75017
G1 X-120.75899 Y101.34665
G1 X-112.87467 Y105.66798
G1 X-104.66264 Y109.69938
G1 X-96.14622 Y113.42715
G1 X-87.3498 Y116.83862
