( Made using CamBam - http://www.cambam.co.uk )
( Elipse-Tafel 1/5/2018 4:56:13 PM )
( T6 : 6.0 )
G21 G90 G64 G40
G0 Z3.0
( T6 : 6.0 )
T6 M6
( Tafel-Elipse-6mm )
G17
M3 S1000
G0 X22.97598 Y54.2
G0 Z1.0
G1 F300.0 Z-3.0
G1 F800.0 X-22.97598
G1 X-19.06025 Y54.71838
G1 X-12.75206 Y55.31159
G1 X-6.38962 Y55.66926
G1 X0.0 Y55.78877
G1 X6.38962 Y55.66926
G1 X12.75206 Y55.31159
G1 X19.06025 Y54.71838
G1 X22.97598 Y54.2
G1 F300.0 X23.13347 Y55.38962
G1 F800.0 X25.46759 Y55.08062
G1 X31.63266 Y54.0234
G1 X36.46959 Y53.0
G1 X-36.46959
G1 X-31.63266 Y54.0234
G1 X-25.46759 Y55.08062
G1 X-19.19522 Y55.91099
G1 X-12.84195 Y56.50843
G1 X-6.43454 Y56.86863
G1 X0.0 Y56.98898
G1 X6.43454 Y56.86863
G1 X12.84195 Y56.50843
G1 X19.19522 Y55.91099
G1 X23.13347 Y55.38962
G1 F300.0 X23.44845 Y57.76886
G1 F800.0 X25.82803 Y57.45384
G1 X32.08405 Y56.38103
G1 X38.20739 Y55.08545
G1 X44.17289 Y53.57652
G1 X49.95618 Y51.86544
G1 X53.67044 Y50.6
G1 X-53.67044
G1 X-49.95618 Y51.86544
G1 X-44.17289 Y53.57652
G1 X-38.20739 Y55.08545
G1 X-32.08405 Y56.38103
G1 X-25.82803 Y57.45384
G1 X-19.46516 Y58.29619
G1 X-13.02171 Y58.90212
G1 X-6.52436 Y59.26737
G1 X0.0 Y59.3894
G1 X6.52436 Y59.26737
G1 X13.02171 Y58.90212
G1 X19.46516 Y58.29619
G1 X23.44845 Y57.76886
G1 F300.0 X23.76342 Y60.1481
G1 F800.0 X26.18848 Y59.82706
G1 X32.53544 Y58.73866
G1 X38.75026 Y57.42372
G1 X44.80786 Y55.8915
G1 X50.68392 Y54.15296
G1 X56.35509 Y52.22081
G1 X61.79916 Y50.10947
G1 X66.16151 Y48.2
G1 X-66.16151
G1 X-61.79916 Y50.10947
G1 X-56.35509 Y52.22081
G1 X-50.68392 Y54.15296
G1 X-44.80786 Y55.8915
G1 X-38.75026 Y57.42372
G1 X-32.53544 Y58.73866
G1 X-26.18848 Y59.82706
G1 X-19.73509 Y60.68139
G1 X-13.20148 Y61.2958
G1 X-6.61419 Y61.66611
G1 X0.0 Y61.78982
G1 X6.61419 Y61.66611
G1 X13.20148 Y61.2958
G1 X19.73509 Y60.68139
G1 X23.76342 Y60.1481
G1 F300.0 X24.0784 Y62.52735
G1 F800.0 X26.54892 Y62.20029
G1 X32.98682 Y61.09628
G1 X39.29313 Y59.76199
G1 X45.44283 Y58.20647
G1 X51.41167 Y56.44049
G1 X57.17634 Y54.47648
G1 X62.71466 Y52.32858
G1 X68.00576 Y50.01259
G1 X73.03034 Y47.54595
G1 X76.21585 Y45.8
G1 X-76.21585
G1 X-73.03034 Y47.54595
G1 X-68.00576 Y50.01259
G1 X-62.71466 Y52.32858
G1 X-57.17634 Y54.47648
G1 X-51.41167 Y56.44049
G1 X-45.44283 Y58.20647
G1 X-39.29313 Y59.76199
G1 X-32.98682 Y61.09628
G1 X-26.54892 Y62.20029
G1 X-20.00502 Y63.0666
G1 X-13.38124 Y63.68948
G1 X-6.70401 Y64.06485
G1 X0.0 Y64.19024
G1 X6.70401 Y64.06485
G1 X13.38124 Y63.68948
G1 X20.00502 Y63.0666
G1 X24.0784 Y62.52735
G1 F300.0 X24.39337 Y64.90659
G1 F800.0 X26.90936 Y64.57351
G1 X33.43821 Y63.45391
G1 X39.836 Y62.10026
G1 X46.07779 Y60.52145
G1 X52.13941 Y58.72801
G1 X57.99759 Y56.73215
G1 X63.63016 Y54.5477
G1 X69.01623 Y52.19013
G1 X74.13647 Y49.67653
G1 X78.9733 Y47.02551
G1 X83.51124 Y44.25711
G1 X84.77572 Y43.4
G1 X-84.77572
G1 X-83.51124 Y44.25711
G1 X-78.9733 Y47.02551
G1 X-74.13647 Y49.67653
G1 X-69.01623 Y52.19013
G1 X-63.63016 Y54.5477
G1 X-57.99759 Y56.73215
G1 X-52.13941 Y58.72801
G1 X-46.07779 Y60.52145
G1 X-39.836 Y62.10026
G1 X-33.43821 Y63.45391
G1 X-26.90936 Y64.57351
G1 X-20.27496 Y65.4518
G1 X-13.56101 Y66.08317
G1 X-6.79384 Y66.46359
G1 X0.0 Y66.59066
G1 X6.79384 Y66.46359
G1 X13.56101 Y66.08317
G1 X20.27496 Y65.4518
G1 X24.39337 Y64.90659
G1 F300.0 X24.70835 Y67.28583
G1 F800.0 X27.2698 Y66.94673
G1 X33.8896 Y65.81153
G1 X40.37887 Y64.43853
G1 X46.71276 Y62.83642
G1 X52.86716 Y61.01554
G1 X58.81884 Y58.98782
G1 X64.54566 Y56.76682
G1 X70.02671 Y54.36768
G1 X75.2426 Y51.80712
G1 X80.17566 Y49.10335
G1 X84.81024 Y46.276
G1 X89.13297 Y43.34591
G1 X92.24963 Y41.0
G1 X-92.24963
G1 X-89.13297 Y43.34591
G1 X-84.81024 Y46.276
G1 X-80.17566 Y49.10335
G1 X-75.2426 Y51.80712
G1 X-70.02671 Y54.36768
G1 X-64.54566 Y56.76682
G1 X-58.81884 Y58.98782
G1 X-52.86716 Y61.01554
G1 X-46.71276 Y62.83642
G1 X-40.37887 Y64.43853
G1 X-33.8896 Y65.81153
G1 X-27.2698 Y66.94673
G1 X-20.54489 Y67.83701
G1 X-13.74077 Y68.47685
G1 X-6.88366 Y68.86233
G1 X0.0 Y68.99108
G1 X6.88366 Y68.86233
G1 X13.74077 Y68.47685
G1 X20.54489 Y67.83701
G1 X24.70835 Y67.28583
G1 F300.0 X25.02333 Y69.66507
G1 F800.0 X27.63024 Y69.31995
G1 X34.34099 Y68.16916
G1 X40.92174 Y66.7768
G1 X47.34773 Y65.1514
G1 X53.59491 Y63.30307
G1 X59.64009 Y61.24349
G1 X65.46116 Y58.98593
G1 X71.03719 Y56.54522
G1 X76.34873 Y53.9377
G1 X81.37802 Y51.1812
G1 X86.10923 Y48.29489
G1 X90.52878 Y45.29918
G1 X94.62562 Y42.21549
G1 X98.39156 Y39.06595
G1 X98.89211 Y38.6
G1 X-98.89211
G1 X-98.39156 Y39.06595
G1 X-94.62562 Y42.21549
G1 X-90.52878 Y45.29918
G1 X-86.10923 Y48.29489
G1 X-81.37802 Y51.1812
G1 X-76.34873 Y53.9377
G1 X-71.03719 Y56.54522
G1 X-65.46116 Y58.98593
G1 X-59.64009 Y61.24349
G1 X-53.59491 Y63.30307
G1 X-47.34773 Y65.1514
G1 X-40.92174 Y66.7768
G1 X-34.34099 Y68.16916
G1 X-27.63024 Y69.31995
G1 X-20.81483 Y70.22221
G1 X-13.92054 Y70.87053
G1 X-6.97349 Y71.26107
G1 X0.0 Y71.3915
G1 X6.97349 Y71.26107
G1 X13.92054 Y70.87053
G1 X20.81483 Y70.22221
G1 X25.02333 Y69.66507
G1 F300.0 X25.3383 Y72.04431
G1 F800.0 X27.99068 Y71.69318
G1 X34.79238 Y70.52679
G1 X41.46461 Y69.11507
G1 X47.9827 Y67.46637
G1 X54.32265 Y65.59059
G1 X60.46134 Y63.49916
G1 X66.37665 Y61.20505
G1 X72.04767 Y58.72276
G1 X77.45487 Y56.06829
G1 X82.58038 Y53.25904
G1 X87.40823 Y50.31377
G1 X91.92459 Y47.25244
G1 X96.1181 Y44.09599
G1 X99.98015 Y40.86607
G1 X103.50518 Y37.58471
G1 X104.83754 Y36.2
G1 X-104.83754
G1 X-103.50518 Y37.58471
G1 X-99.98015 Y40.86607
G1 X-96.1181 Y44.09599
G1 X-91.92459 Y47.25244
G1 X-87.40823 Y50.31377
G1 X-82.58038 Y53.25904
G1 X-77.45487 Y56.06829
G1 X-72.04767 Y58.72276
G1 X-66.37665 Y61.20505
G1 X-60.46134 Y63.49916
G1 X-54.32265 Y65.59059
G1 X-47.9827 Y67.46637
G1 X-41.46461 Y69.11507
G1 X-34.79238 Y70.52679
G1 X-27.99068 Y71.69318
G1 X-21.08476 Y72.60742
G1 X-14.1003 Y73.26422
G1 X-7.06331 Y73.65981
G1 X0.0 Y73.79192
G1 X7.06331 Y73.65981
G1 X14.1003 Y73.26422
G1 X21.08476 Y72.60742
G1 X25.3383 Y72.04431
G1 F300.0 X25.65328 Y74.42355
G1 F800.0 X28.35112 Y74.0664
G1 X35.24377 Y72.88441
G1 X42.00748 Y71.45334
G1 X48.61766 Y69.78135
G1 X55.0504 Y67.87812
G1 X61.28259 Y65.75483
G1 X67.29215 Y63.42417
G1 X73.05814 Y60.90031
G1 X78.561 Y58.19887
G1 X83.78274 Y55.33688
G1 X88.70723 Y52.33266
G1 X93.3204 Y49.20571
G1 X97.61058 Y45.97649
G1 X101.56874 Y42.6662
G1 X105.1888 Y39.29637
G1 X108.46786 Y35.88847
G1 X110.2596 Y33.8
G1 X-110.2596
G1 X-108.46786 Y35.88847
G1 X-105.1888 Y39.29637
G1 X-101.56874 Y42.6662
G1 X-97.61058 Y45.97649
G1 X-93.3204 Y49.20571
G1 X-88.70723 Y52.33266
G1 X-83.78274 Y55.33688
G1 X-78.561 Y58.19887
G1 X-73.05814 Y60.90031
G1 X-67.29215 Y63.42417
G1 X-61.28259 Y65.75483
G1 X-55.0504 Y67.87812
G1 X-48.61766 Y69.78135
G1 X-42.00748 Y71.45334
G1 X-35.24377 Y72.88441
G1 X-28.35112 Y74.0664
G1 X-21.35469 Y74.99262
G1 X-14.28007 Y75.6579
G1 X-7.15314 Y76.05855
G1 X0.0 Y76.19234
G1 X7.15314 Y76.05855
G1 X14.28007 Y75.6579
G1 X21.35469 Y74.99262
G1 X25.65328 Y74.42355
G1 F300.0 X25.96825 Y76.80279
G1 F800.0 X28.71156 Y76.43962
G1 X35.69515 Y75.24204
G1 X42.55035 Y73.79161
G1 X49.25263 Y72.09632
G1 X55.77814 Y70.16564
G1 X62.10384 Y68.0105
G1 X68.20765 Y65.64328
G1 X74.06862 Y63.07785
G1 X79.66713 Y60.32946
G1 X84.98511 Y57.41473
G1 X90.00623 Y54.35155
G1 X94.71621 Y51.15897
G1 X99.10306 Y47.85699
G1 X103.15733 Y44.46632
G1 X106.87242 Y41.00803
G1 X110.24478 Y37.50317
G1 X113.2741 Y33.97217
G1 X115.2293 Y31.4
G1 X-115.2293
G1 X-113.2741 Y33.97217
G1 X-110.24478 Y37.50317
G1 X-106.87242 Y41.00803
G1 X-103.15733 Y44.46632
G1 X-99.10306 Y47.85699
G1 X-94.71621 Y51.15897
G1 X-90.00623 Y54.35155
G1 X-84.98511 Y57.41473
G1 X-79.66713 Y60.32946
G1 X-74.06862 Y63.07785
G1 X-68.20765 Y65.64328
G1 X-62.10384 Y68.0105
G1 X-55.77814 Y70.16564
G1 X-49.25263 Y72.09632
G1 X-42.55035 Y73.79161
G1 X-35.69515 Y75.24204
G1 X-28.71156 Y76.43962
G1 X-21.62463 Y77.37783
G1 X-14.45983 Y78.05158
G1 X-7.24296 Y78.45728
G1 X0.0 Y78.59276
G1 X7.24296 Y78.45728
G1 X14.45983 Y78.05158
G1 X21.62463 Y77.37783
G1 X25.96825 Y76.80279
G1 F300.0 X26.28323 Y79.18204
G1 F800.0 X29.072 Y78.81284
G1 X36.14654 Y77.59967
G1 X43.09322 Y76.12988
G1 X49.8876 Y74.4113
G1 X56.50589 Y72.45317
G1 X62.92509 Y70.26616
G1 X69.12315 Y67.8624
G1 X75.0791 Y65.25539
G1 X80.77327 Y62.46004
G1 X86.18747 Y59.49257
G1 X91.30523 Y56.37044
G1 X96.11202 Y53.11224
G1 X100.59554 Y49.7375
G1 X104.74592 Y46.26644
G1 X108.55604 Y42.7197
G1 X112.0217 Y39.11786
G1 X115.14182 Y35.48103
G1 X117.91848 Y31.82819
G1 X119.80705 Y29.0
G1 X-119.80705
G1 X-117.91848 Y31.82819
G1 X-115.14182 Y35.48103
G1 X-112.0217 Y39.11786
G1 X-108.55604 Y42.7197
G1 X-104.74592 Y46.26644
G1 X-100.59554 Y49.7375
G1 X-96.11202 Y53.11224
G1 X-91.30523 Y56.37044
G1 X-86.18747 Y59.49257
G1 X-80.77327 Y62.46004
G1 X-75.0791 Y65.25539
G1 X-69.12315 Y67.8624
G1 X-62.92509 Y70.26616
G1 X-56.50589 Y72.45317
G1 X-49.8876 Y74.4113
G1 X-43.09322 Y76.12988
G1 X-36.14654 Y77.59967
G1 X-29.072 Y78.81284
G1 X-21.89456 Y79.76303
G1 X-14.6396 Y80.44527
G1 X-7.33279 Y80.85602
G1 X0.0 Y80.99318
G1 X7.33279 Y80.85602
G1 X14.6396 Y80.44527
G1 X21.89456 Y79.76303
G1 X26.28323 Y79.18204
G1 F300.0 X26.59821 Y81.56128
G1 F800.0 X29.43244 Y81.18607
G1 X36.59793 Y79.95729
G1 X43.63609 Y78.46815
G1 X50.52256 Y76.72628
G1 X57.23363 Y74.74069
G1 X63.74634 Y72.52183
G1 X70.03865 Y70.08152
G1 X76.08958 Y67.43294
G1 X81.8794 Y64.59063
G1 X87.38983 Y61.57041
G1 X92.60422 Y58.38933
G1 X97.50783 Y55.06551
G1 X102.08802 Y51.618
G1 X106.33451 Y48.06657
G1 X110.23966 Y44.43136
G1 X113.79862 Y40.73256
G1 X117.00954 Y36.98989
G1 X119.8736 Y33.22208
G1 X122.395 Y29.4462
G1 X124.04551 Y26.6
G1 X-124.04551
G1 X-122.395 Y29.4462
G1 X-119.8736 Y33.22208
G1 X-117.00954 Y36.98989
G1 X-113.79862 Y40.73256
G1 X-110.23966 Y44.43136
G1 X-106.33451 Y48.06657
G1 X-102.08802 Y51.618
G1 X-97.50783 Y55.06551
G1 X-92.60422 Y58.38933
G1 X-87.38983 Y61.57041
G1 X-81.8794 Y64.59063
G1 X-76.08958 Y67.43294
G1 X-70.03865 Y70.08152
G1 X-63.74634 Y72.52183
G1 X-57.23363 Y74.74069
G1 X-50.52256 Y76.72628
G1 X-43.63609 Y78.46815
G1 X-36.59793 Y79.95729
G1 X-29.43244 Y81.18607
G1 X-22.1645 Y82.14823
G1 X-14.81936 Y82.83895
G1 X-7.42261 Y83.25476
G1 X0.0 Y83.3936
G1 X7.42261 Y83.25476
G1 X14.81936 Y82.83895
G1 X22.1645 Y82.14823
G1 X26.59821 Y81.56128
G1 F300.0 X26.91318 Y83.94052
G1 F800.0 X29.79288 Y83.55929
G1 X37.04932 Y82.31492
G1 X44.17896 Y80.80642
G1 X51.15753 Y79.04125
G1 X57.96138 Y77.02822
G1 X64.56759 Y74.7775
G1 X70.95415 Y72.30063
G1 X77.10005 Y69.61048
G1 X82.98553 Y66.72121
G1 X88.59219 Y63.64825
G1 X93.90322 Y60.40822
G1 X98.90364 Y57.01877
G1 X103.5805 Y53.4985
G1 X107.9231 Y49.86669
G1 X111.92328 Y46.14302
G1 X115.57554 Y42.34726
G1 X118.87726 Y38.49875
G1 X121.82871 Y34.61596
G1 X124.43307 Y30.71585
G1 X126.69619 Y26.81325
G1 X127.99175 Y24.2
G1 X-127.99175
G1 X-126.69619 Y26.81325
G1 X-124.43307 Y30.71585
G1 X-121.82871 Y34.61596
G1 X-118.87726 Y38.49875
G1 X-115.57554 Y42.34726
G1 X-111.92328 Y46.14302
G1 X-107.9231 Y49.86669
G1 X-103.5805 Y53.4985
G1 X-98.90364 Y57.01877
G1 X-93.90322 Y60.40822
G1 X-88.59219 Y63.64825
G1 X-82.98553 Y66.72121
G1 X-77.10005 Y69.61048
G1 X-70.95415 Y72.30063
G1 X-64.56759 Y74.7775
G1 X-57.96138 Y77.02822
G1 X-51.15753 Y79.04125
G1 X-44.17896 Y80.80642
G1 X-37.04932 Y82.31492
G1 X-29.79288 Y83.55929
G1 X-22.43443 Y84.53344
G1 X-14.99913 Y85.23264
G1 X-7.51244 Y85.6535
G1 X0.0 Y85.79402
G1 X7.51244 Y85.6535
G1 X14.99913 Y85.23264
G1 X22.43443 Y84.53344
G1 X26.91318 Y83.94052
G1 F300.0 X27.22816 Y86.31976
G1 F800.0 X30.15332 Y85.93251
G1 X37.50071 Y84.67255
G1 X44.72183 Y83.14469
G1 X51.7925 Y81.35623
G1 X58.68913 Y79.31574
G1 X65.38884 Y77.03317
G1 X71.86965 Y74.51975
G1 X78.11053 Y71.78802
G1 X84.09166 Y68.85179
G1 X89.79455 Y65.7261
G1 X95.20222 Y62.42711
G1 X100.29945 Y58.97204
G1 X105.07298 Y55.37901
G1 X109.51169 Y51.66681
G1 X113.6069 Y47.85469
G1 X117.35246 Y43.96195
G1 X120.74498 Y40.00761
G1 X123.78383 Y36.00985
G1 X126.47115 Y31.98551
G1 X128.81165 Y27.94945
G1 X130.81226 Y23.91405
G1 X131.68896 Y21.8
G1 X-131.68896
G1 X-130.81226 Y23.91405
G1 X-128.81165 Y27.94945
G1 X-126.47115 Y31.98551
G1 X-123.78383 Y36.00985
G1 X-120.74498 Y40.00761
G1 X-117.35246 Y43.96195
G1 X-113.6069 Y47.85469
G1 X-109.51169 Y51.66681
G1 X-105.07298 Y55.37901
G1 X-100.29945 Y58.97204
G1 X-95.20222 Y62.42711
G1 X-89.79455 Y65.7261
G1 X-84.09166 Y68.85179
G1 X-78.11053 Y71.78802
G1 X-71.86965 Y74.51975
G1 X-65.38884 Y77.03317
G1 X-58.68913 Y79.31574
G1 X-51.7925 Y81.35623
G1 X-44.72183 Y83.14469
G1 X-37.50071 Y84.67255
G1 X-30.15332 Y85.93251
G1 X-22.70436 Y86.91864
G1 X-15.17889 Y87.62632
G1 X-7.60226 Y88.05224
G1 X0.0 Y88.19444
G1 X7.60226 Y88.05224
G1 X15.17889 Y87.62632
G1 X22.70436 Y86.91864
G1 X27.22816 Y86.31976
G1 F300.0 X27.54313 Y88.699
G1 F800.0 X30.51376 Y88.30573
G1 X37.95209 Y87.03017
G1 X45.2647 Y85.48297
G1 X52.42747 Y83.6712
G1 X59.41687 Y81.60327
G1 X66.21009 Y79.28884
G1 X72.78514 Y76.73887
G1 X79.12101 Y73.96557
G1 X85.1978 Y70.98238
G1 X90.99691 Y67.80394
G1 X96.50122 Y64.44599
G1 X101.69526 Y60.9253
G1 X106.56546 Y57.25951
G1 X111.10029 Y53.46694
G1 X115.29052 Y49.56635
G1 X119.12938 Y45.57665
G1 X122.6127 Y41.51647
G1 X125.73894 Y37.40374
G1 X128.50922 Y33.25516
G1 X130.92711 Y29.08566
G1 X132.99832 Y24.90786
G1 X134.7302 Y20.73162
G1 X135.17777 Y19.4
G1 X-135.17777
G1 X-134.7302 Y20.73162
G1 X-132.99832 Y24.90786
G1 X-130.92711 Y29.08566
G1 X-128.50922 Y33.25516
G1 X-125.73894 Y37.40374
G1 X-122.6127 Y41.51647
G1 X-119.12938 Y45.57665
G1 X-115.29052 Y49.56635
G1 X-111.10029 Y53.46694
G1 X-106.56546 Y57.25951
G1 X-101.69526 Y60.9253
G1 X-96.50122 Y64.44599
G1 X-90.99691 Y67.80394
G1 X-85.1978 Y70.98238
G1 X-79.12101 Y73.96557
G1 X-72.78514 Y76.73887
G1 X-66.21009 Y79.28884
G1 X-59.41687 Y81.60327
G1 X-52.42747 Y83.6712
G1 X-45.2647 Y85.48297
G1 X-37.95209 Y87.03017
G1 X-30.51376 Y88.30573
G1 X-22.9743 Y89.30385
G1 X-15.35866 Y90.02
G1 X-7.69209 Y90.45098
G1 X0.0 Y90.59486
G1 X7.69209 Y90.45098
G1 X15.35866 Y90.02
G1 X22.9743 Y89.30385
G1 X27.54313 Y88.699
G1 F300.0 X27.85811 Y91.07824
G1 F800.0 X30.87421 Y90.67896
G1 X38.40348 Y89.3878
G1 X45.80757 Y87.82124
G1 X53.06243 Y85.98618
G1 X60.14462 Y83.89079
G1 X67.03134 Y81.54451
G1 X73.70064 Y78.95798
G1 X80.13149 Y76.14311
G1 X86.30393 Y73.11296
G1 X92.19927 Y69.88178
G1 X97.80021 Y66.46488
G1 X103.09107 Y62.87857
G1 X108.05794 Y59.14001
G1 X112.68888 Y55.26706
G1 X116.97414 Y51.27801
G1 X120.9063 Y47.19135
G1 X124.48042 Y43.02533
G1 X127.69405 Y38.79763
G1 X130.5473 Y34.52481
G1 X133.04257 Y30.22186
G1 X135.18437 Y25.90167
G1 X136.9788 Y21.57461
G1 X138.43295 Y17.2482
G1 X138.49735 Y17.0
G1 X-138.49735
G1 X-138.43295 Y17.2482
G1 X-136.9788 Y21.57461
G1 X-135.18437 Y25.90167
G1 X-133.04257 Y30.22186
G1 X-130.5473 Y34.52481
G1 X-127.69405 Y38.79763
G1 X-124.48042 Y43.02533
G1 X-120.9063 Y47.19135
G1 X-116.97414 Y51.27801
G1 X-112.68888 Y55.26706
G1 X-108.05794 Y59.14001
G1 X-103.09107 Y62.87857
G1 X-97.80021 Y66.46488
G1 X-92.19927 Y69.88178
G1 X-86.30393 Y73.11296
G1 X-80.13149 Y76.14311
G1 X-73.70064 Y78.95798
G1 X-67.03134 Y81.54451
G1 X-60.14462 Y83.89079
G1 X-53.06243 Y85.98618
G1 X-45.80757 Y87.82124
G1 X-38.40348 Y89.3878
G1 X-30.87421 Y90.67896
G1 X-23.24423 Y91.68905
G1 X-15.53842 Y92.41369
G1 X-7.78191 Y92.84972
G1 X0.0 Y92.99528
G1 X7.78191 Y92.84972
G1 X15.53842 Y92.41369
G1 X23.24423 Y91.68905
G1 X27.85811 Y91.07824
G1 F300.0 X28.17308 Y93.45748
G1 F800.0 X31.23465 Y93.05218
G1 X38.85487 Y91.74543
G1 X46.35044 Y90.15951
G1 X53.6974 Y88.30115
G1 X60.87236 Y86.17832
G1 X67.85259 Y83.80018
G1 X74.61614 Y81.1771
G1 X81.14196 Y78.32065
G1 X87.41006 Y75.24355
G1 X93.40163 Y71.95963
G1 X99.09921 Y68.48377
G1 X104.48688 Y64.83184
G1 X109.55042 Y61.02052
G1 X114.27747 Y57.06718
G1 X118.65776 Y52.98968
G1 X122.68322 Y48.80604
G1 X126.34814 Y44.53419
G1 X129.64917 Y40.19151
G1 X132.58537 Y35.79446
G1 X135.15803 Y31.35806
G1 X137.37043 Y26.89548
G1 X139.2274 Y22.4176
G1 X140.7348 Y17.93275
G1 X141.59957 Y14.6
G1 X-141.59957
G1 X-140.7348 Y17.93275
G1 X-139.2274 Y22.4176
G1 X-137.37043 Y26.89548
G1 X-135.15803 Y31.35806
G1 X-132.58537 Y35.79446
G1 X-129.64917 Y40.19151
G1 X-126.34814 Y44.53419
G1 X-122.68322 Y48.80604
G1 X-118.65776 Y52.98968
G1 X-114.27747 Y57.06718
G1 X-109.55042 Y61.02052
G1 X-104.48688 Y64.83184
G1 X-99.09921 Y68.48377
G1 X-93.40163 Y71.95963
G1 X-87.41006 Y75.24355
G1 X-81.14196 Y78.32065
G1 X-74.61614 Y81.1771
G1 X-67.85259 Y83.80018
G1 X-60.87236 Y86.17832
G1 X-53.6974 Y88.30115
G1 X-46.35044 Y90.15951
G1 X-38.85487 Y91.74543
G1 X-31.23465 Y93.05218
G1 X-23.51417 Y94.07426
G1 X-15.71819 Y94.80737
G1 X-7.87174 Y95.24846
G1 X0.0 Y95.3957
G1 X7.87174 Y95.24846
G1 X15.71819 Y94.80737
G1 X23.51417 Y94.07426
G1 X28.17308 Y93.45748
G1 F300.0 X28.48806 Y95.83673
G1 F800.0 X31.59509 Y95.4254
G1 X39.30626 Y94.10305
G1 X46.89331 Y92.49778
G1 X54.33237 Y90.61613
G1 X61.60011 Y88.46584
G1 X68.67384 Y86.05585
G1 X75.53164 Y83.39622
G1 X82.15244 Y80.49819
G1 X88.51619 Y77.37413
G1 X94.60399 Y74.03747
G1 X100.39821 Y70.50266
G1 X105.88269 Y66.7851
G1 X111.04289 Y62.90102
G1 X115.86606 Y58.86731
G1 X120.34138 Y54.70134
G1 X124.46014 Y50.42074
G1 X128.21586 Y46.04305
G1 X131.60428 Y41.5854
G1 X134.62345 Y37.06411
G1 X137.27349 Y32.49427
G1 X139.55648 Y27.88929
G1 X141.476 Y23.2606
G1 X143.03666 Y18.61731
G1 X144.24352 Y13.96614
G1 X144.56904 Y12.2
G1 X-144.56904
G1 X-144.24352 Y13.96614
G1 X-143.03666 Y18.61731
G1 X-141.476 Y23.2606
G1 X-139.55648 Y27.88929
G1 X-137.27349 Y32.49427
G1 X-134.62345 Y37.06411
G1 X-131.60428 Y41.5854
G1 X-128.21586 Y46.04305
G1 X-124.46014 Y50.42074
G1 X-120.34138 Y54.70134
G1 X-115.86606 Y58.86731
G1 X-111.04289 Y62.90102
G1 X-105.88269 Y66.7851
G1 X-100.39821 Y70.50266
G1 X-94.60399 Y74.03747
G1 X-88.51619 Y77.37413
G1 X-82.15244 Y80.49819
G1 X-75.53164 Y83.39622
G1 X-68.67384 Y86.05585
G1 X-61.60011 Y88.46584
G1 X-54.33237 Y90.61613
G1 X-46.89331 Y92.49778
G1 X-39.30626 Y94.10305
G1 X-31.59509 Y95.4254
G1 X-23.7841 Y96.45946
G1 X-15.89795 Y97.20105
G1 X-7.96156 Y97.6472
G1 X0.0 Y97.79612
G1 X7.96156 Y97.6472
G1 X15.89795 Y97.20105
G1 X23.7841 Y96.45946
G1 X28.48806 Y95.83673
G1 F300.0 X28.80304 Y98.21597
G1 F800.0 X31.95553 Y97.79863
G1 X39.75765 Y96.46068
G1 X47.43618 Y94.83605
G1 X54.96734 Y92.9311
G1 X62.32785 Y90.75337
G1 X69.49509 Y88.31152
G1 X76.44714 Y85.61533
G1 X83.16292 Y82.67574
G1 X89.62233 Y79.50472
G1 X95.80635 Y76.11531
G1 X101.69721 Y72.52155
G1 X107.2785 Y68.73837
G1 X112.53537 Y64.78152
G1 X117.45465 Y60.66743
G1 X122.025 Y56.41301
G1 X126.23706 Y52.03544
G1 X130.08358 Y47.55191
G1 X133.5594 Y42.97929
G1 X136.66152 Y38.33377
G1 X139.38896 Y33.63047
G1 X141.74254 Y28.8831
G1 X143.7246 Y24.10359
G1 X145.33851 Y19.30186
G1 X146.58818 Y14.48571
G1 X147.45182 Y9.8
G1 X-147.45182
G1 X-146.58818 Y14.48571
G1 X-145.33851 Y19.30186
G1 X-143.7246 Y24.10359
G1 X-141.74254 Y28.8831
G1 X-139.38896 Y33.63047
G1 X-136.66152 Y38.33377
G1 X-133.5594 Y42.97929
G1 X-130.08358 Y47.55191
G1 X-126.23706 Y52.03544
G1 X-122.025 Y56.41301
G1 X-117.45465 Y60.66743
G1 X-112.53537 Y64.78152
G1 X-107.2785 Y68.73837
G1 X-101.69721 Y72.52155
G1 X-95.80635 Y76.11531
G1 X-89.62233 Y79.50472
G1 X-83.16292 Y82.67574
G1 X-76.44714 Y85.61533
G1 X-69.49509 Y88.31152
G1 X-62.32785 Y90.75337
G1 X-54.96734 Y92.9311
G1 X-47.43618 Y94.83605
G1 X-39.75765 Y96.46068
G1 X-31.95553 Y97.79863
G1 X-24.05403 Y98.84466
G1 X-16.07772 Y99.59474
G1 X-8.05139 Y100.04594
G1 X0.0 Y100.19654
G1 X8.05139 Y100.04594
G1 X16.07772 Y99.59474
G1 X24.05403 Y98.84466
G1 X28.80304 Y98.21597
G1 F300.0 X29.11801 Y100.59521
G1 F800.0 X32.31597 Y100.17185
G1 X40.20904 Y98.81831
G1 X47.97905 Y97.17432
G1 X55.6023 Y95.24608
G1 X63.0556 Y93.0409
G1 X70.31634 Y90.56718
G1 X77.36264 Y87.83445
G1 X84.1734 Y84.85328
G1 X90.72846 Y81.6353
G1 X97.00871 Y78.19315
G1 X102.99621 Y74.54044
G1 X108.67431 Y70.69163
G1 X114.02785 Y66.66203
G1 X119.04324 Y62.46755
G1 X123.70862 Y58.12467
G1 X128.01398 Y53.65013
G1 X131.9513 Y49.06077
G1 X135.51451 Y44.37318
G1 X138.69959 Y39.60342
G1 X141.50442 Y34.76668
G1 X143.92859 Y29.87691
G1 X145.9732 Y24.94658
G1 X147.64036 Y19.98641
G1 X148.93284 Y15.00527
G1 X149.85348 Y10.0103
G1 X150.14109 Y7.4
G1 X-150.14109
G1 X-149.85348 Y10.0103
G1 X-148.93284 Y15.00527
G1 X-147.64036 Y19.98641
G1 X-145.9732 Y24.94658
G1 X-143.92859 Y29.87691
G1 X-141.50442 Y34.76668
G1 X-138.69959 Y39.60342
G1 X-135.51451 Y44.37318
G1 X-131.9513 Y49.06077
G1 X-128.01398 Y53.65013
G1 X-123.70862 Y58.12467
G1 X-119.04324 Y62.46755
G1 X-114.02785 Y66.66203
G1 X-108.67431 Y70.69163
G1 X-102.99621 Y74.54044
G1 X-97.00871 Y78.19315
G1 X-90.72846 Y81.6353
G1 X-84.1734 Y84.85328
G1 X-77.36264 Y87.83445
G1 X-70.31634 Y90.56718
G1 X-63.0556 Y93.0409
G1 X-55.6023 Y95.24608
G1 X-47.97905 Y97.17432
G1 X-40.20904 Y98.81831
G1 X-32.31597 Y100.17185
G1 X-24.32397 Y101.22987
G1 X-16.25748 Y101.98842
G1 X-8.14121 Y102.44468
G1 X0.0 Y102.59696
G1 X8.14121 Y102.44468
G1 X16.25748 Y101.98842
G1 X24.32397 Y101.22987
G1 X29.11801 Y100.59521
G1 F300.0 X29.43299 Y102.97445
G1 F800.0 X32.67641 Y102.54507
G1 X40.66042 Y101.17593
G1 X48.52192 Y99.51259
G1 X56.23727 Y97.56105
G1 X63.78335 Y95.32842
G1 X71.13759 Y92.82285
G1 X78.27813 Y90.05357
G1 X85.18387 Y87.03082
G1 X91.83459 Y83.76589
G1 X98.21107 Y80.271
G1 X104.2952 Y76.55933
G1 X110.07012 Y72.6449
G1 X115.52033 Y68.54253
G1 X120.63183 Y64.26768
G1 X125.39223 Y59.83633
G1 X129.7909 Y55.26483
G1 X133.81902 Y50.56963
G1 X137.46963 Y45.76706
G1 X140.73767 Y40.87307
G1 X143.61988 Y35.90288
G1 X146.11465 Y30.87072
G1 X148.2218 Y25.78958
G1 X149.94222 Y20.67096
G1 X151.2775 Y15.52484
G1 X152.22951 Y10.3597
G1 X152.79992 Y5.18268
G1 X152.80662 Y5.0
G1 X-152.80662
G1 X-152.79992 Y5.18268
G1 X-152.22951 Y10.3597
G1 X-151.2775 Y15.52484
G1 X-149.94222 Y20.67096
G1 X-148.2218 Y25.78958
G1 X-146.11465 Y30.87072
G1 X-143.61988 Y35.90288
G1 X-140.73767 Y40.87307
G1 X-137.46963 Y45.76706
G1 X-133.81902 Y50.56963
G1 X-129.7909 Y55.26483
G1 X-125.39223 Y59.83633
G1 X-120.63183 Y64.26768
G1 X-115.52033 Y68.54253
G1 X-110.07012 Y72.6449
G1 X-104.2952 Y76.55933
G1 X-98.21107 Y80.271
G1 X-91.83459 Y83.76589
G1 X-85.18387 Y87.03082
G1 X-78.27813 Y90.05357
G1 X-71.13759 Y92.82285
G1 X-63.78335 Y95.32842
G1 X-56.23727 Y97.56105
G1 X-48.52192 Y99.51259
G1 X-40.66042 Y101.17593
G1 X-32.67641 Y102.54507
G1 X-24.5939 Y103.61507
G1 X-16.43725 Y104.3821
G1 X-8.23103 Y104.84342
G1 X0.0 Y104.99738
G1 X8.23103 Y104.84342
G1 X16.43725 Y104.3821
G1 X24.5939 Y103.61507
G1 X29.43299 Y102.97445
G1 F300.0 X29.74796 Y105.35369
G1 F800.0 X33.03685 Y104.91829
G1 X41.11181 Y103.53356
G1 X49.06479 Y101.85086
G1 X56.87224 Y99.87603
G1 X64.51109 Y97.61595
G1 X71.95884 Y95.07852
G1 X79.19363 Y92.27269
G1 X86.19435 Y89.20837
G1 X92.94073 Y85.89647
G1 X99.41343 Y82.34884
G1 X105.5942 Y78.57821
G1 X111.46593 Y74.59817
G1 X117.01281 Y70.42303
G1 X122.22042 Y66.0678
G1 X127.07585 Y61.548
G1 X131.56782 Y56.87953
G1 X135.68674 Y52.07849
G1 X139.42474 Y47.16095
G1 X142.77574 Y42.14272
G1 X145.73534 Y37.03908
G1 X148.30071 Y31.86453
G1 X150.47039 Y26.63257
G1 X152.24407 Y21.35551
G1 X153.62217 Y16.04441
G1 X154.60554 Y10.70909
G1 X155.1951 Y5.35831
G1 X155.29622 Y2.6
G1 X-155.29622
G1 X-155.1951 Y5.35831
G1 X-154.60554 Y10.70909
G1 X-153.62217 Y16.04441
G1 X-152.24407 Y21.35551
G1 X-150.47039 Y26.63257
G1 X-148.30071 Y31.86453
G1 X-145.73534 Y37.03908
G1 X-142.77574 Y42.14272
G1 X-139.42474 Y47.16095
G1 X-135.68674 Y52.07849
G1 X-131.56782 Y56.87953
G1 X-127.07585 Y61.548
G1 X-122.22042 Y66.0678
G1 X-117.01281 Y70.42303
G1 X-111.46593 Y74.59817
G1 X-105.5942 Y78.57821
G1 X-99.41343 Y82.34884
G1 X-92.94073 Y85.89647
G1 X-86.19435 Y89.20837
G1 X-79.19363 Y92.27269
G1 X-71.95884 Y95.07852
G1 X-64.51109 Y97.61595
G1 X-56.87224 Y99.87603
G1 X-49.06479 Y101.85086
G1 X-41.11181 Y103.53356
G1 X-33.03685 Y104.91829
G1 X-24.86384 Y106.00028
G1 X-16.61701 Y106.77579
G1 X-8.32086 Y107.24216
G1 X0.0 Y107.3978
G1 X8.32086 Y107.24216
G1 X16.61701 Y106.77579
G1 X24.86384 Y106.00028
G1 X29.74796 Y105.35369
G1 F300.0 X30.06294 Y107.73293
G1 F800.0 X33.39729 Y107.29152
G1 X41.5632 Y105.89119
G1 X49.60766 Y104.18913
G1 X57.5072 Y102.19101
G1 X65.23884 Y99.90347
G1 X72.78009 Y97.33419
G1 X80.10913 Y94.4918
G1 X87.20483 Y91.38591
G1 X94.04686 Y88.02706
G1 X100.61579 Y84.42668
G1 X106.8932 Y80.5971
G1 X112.86175 Y76.55143
G1 X118.50529 Y72.30353
G1 X123.80901 Y67.86792
G1 X128.75947 Y63.25966
G1 X133.34474 Y58.49422
G1 X137.55446 Y53.58735
G1 X141.37986 Y48.55484
G1 X144.81382 Y43.41238
G1 X147.8508 Y38.17529
G1 X150.48676 Y32.85835
G1 X152.71899 Y27.47556
G1 X154.54592 Y22.04006
G1 X155.96683 Y16.56398
G1 X156.98156 Y11.05849
G1 X157.59027 Y5.53393
G1 X157.78582 Y0.2
G1 X-157.78582
G1 X-157.59027 Y5.53393
G1 X-156.98156 Y11.05849
G1 X-155.96683 Y16.56398
G1 X-154.54592 Y22.04006
G1 X-152.71899 Y27.47556
G1 X-150.48676 Y32.85835
G1 X-147.8508 Y38.17529
G1 X-144.81382 Y43.41238
G1 X-141.37986 Y48.55484
G1 X-137.55446 Y53.58735
G1 X-133.34474 Y58.49422
G1 X-128.75947 Y63.25966
G1 X-123.80901 Y67.86792
G1 X-118.50529 Y72.30353
G1 X-112.86175 Y76.55143
G1 X-106.8932 Y80.5971
G1 X-100.61579 Y84.42668
G1 X-94.04686 Y88.02706
G1 X-87.20483 Y91.38591
G1 X-80.10913 Y94.4918
G1 X-72.78009 Y97.33419
G1 X-65.23884 Y99.90347
G1 X-57.5072 Y102.19101
G1 X-49.60766 Y104.18913
G1 X-41.5632 Y105.89119
G1 X-33.39729 Y107.29152
G1 X-25.13377 Y108.38548
G1 X-16.79678 Y109.16947
G1 X-8.41068 Y109.6409
G1 X0.0 Y109.79822
G1 X8.41068 Y109.6409
G1 X16.79678 Y109.16947
G1 X25.13377 Y108.38548
G1 X30.06294 Y107.73293
G1 F300.0 X30.37792 Y110.11218
G1 F800.0 X33.75773 Y109.66474
G1 X42.01459 Y108.24881
G1 X50.15053 Y106.5274
G1 X58.14217 Y104.50598
G1 X65.96658 Y102.191
G1 X73.60134 Y99.58986
G1 X81.02463 Y96.71092
G1 X88.21531 Y93.56345
G1 X95.15299 Y90.15764
G1 X101.81815 Y86.50453
G1 X108.1922 Y82.61599
G1 X114.25756 Y78.5047
G1 X119.99777 Y74.18404
G1 X125.3976 Y69.66805
G1 X130.44309 Y64.97132
G1 X135.12166 Y60.10892
G1 X139.42218 Y55.09621
G1 X143.33497 Y49.94873
G1 X146.85189 Y44.68203
G1 X149.96626 Y39.31149
G1 X152.67282 Y33.85216
G1 X154.96759 Y28.31856
G1 X156.84777 Y22.72461
G1 X158.31149 Y17.08354
G1 X159.35759 Y11.40788
G1 X159.98545 Y5.70955
G1 X160.19476 Y0.0
G1 X160.11411 Y-2.2
G1 X-160.11411
G1 X-160.19476 Y0.0
G1 X-159.98545 Y5.70955
G1 X-159.35759 Y11.40788
G1 X-158.31149 Y17.08354
G1 X-156.84777 Y22.72461
G1 X-154.96759 Y28.31856
G1 X-152.67282 Y33.85216
G1 X-149.96626 Y39.31149
G1 X-146.85189 Y44.68203
G1 X-143.33497 Y49.94873
G1 X-139.42218 Y55.09621
G1 X-135.12166 Y60.10892
G1 X-130.44309 Y64.97132
G1 X-125.3976 Y69.66805
G1 X-119.99777 Y74.18404
G1 X-114.25756 Y78.5047
G1 X-108.1922 Y82.61599
G1 X-101.81815 Y86.50453
G1 X-95.15299 Y90.15764
G1 X-88.21531 Y93.56345
G1 X-81.02463 Y96.71092
G1 X-73.60134 Y99.58986
G1 X-65.96658 Y102.191
G1 X-58.14217 Y104.50598
G1 X-50.15053 Y106.5274
G1 X-42.01459 Y108.24881
G1 X-33.75773 Y109.66474
G1 X-25.4037 Y110.77069
G1 X-16.97655 Y111.56316
G1 X-8.50051 Y112.03964
G1 X0.0 Y112.19864
G1 X8.50051 Y112.03964
G1 X16.97655 Y111.56316
G1 X25.4037 Y110.77069
G1 X30.37792 Y110.11218
G1 F300.0 X30.69289 Y112.49142
G1 F800.0 X34.11817 Y112.03796
G1 X42.46598 Y110.60644
G1 X50.6934 Y108.86567
G1 X58.77714 Y106.82096
G1 X66.69433 Y104.47852
G1 X74.42259 Y101.84553
G1 X81.94013 Y98.93004
G1 X89.22578 Y95.741
G1 X96.25912 Y92.28822
G1 X103.02051 Y88.58237
G1 X109.4912 Y84.63488
G1 X115.65337 Y80.45797
G1 X121.49025 Y76.06454
G1 X126.98619 Y71.46817
G1 X132.12671 Y66.68299
G1 X136.89859 Y61.72362
G1 X141.2899 Y56.60507
G1 X145.29009 Y51.34261
G1 X148.88997 Y45.95168
G1 X152.08172 Y40.4477
G1 X154.85887 Y34.84597
G1 X157.21619 Y29.16155
G1 X159.14963 Y23.40916
G1 X160.65615 Y17.60311
G1 X161.73362 Y11.75728
G1 X162.38062 Y5.88517
G1 X162.59637 Y0.0
G1 X162.42774 Y-4.6
G1 X-162.42774
G1 X-162.59637 Y0.0
G1 X-162.38062 Y5.88517
G1 X-161.73362 Y11.75728
G1 X-160.65615 Y17.60311
G1 X-159.14963 Y23.40916
G1 X-157.21619 Y29.16155
G1 X-154.85887 Y34.84597
G1 X-152.08172 Y40.4477
G1 X-148.88997 Y45.95168
G1 X-145.29009 Y51.34261
G1 X-141.2899 Y56.60507
G1 X-136.89859 Y61.72362
G1 X-132.12671 Y66.68299
G1 X-126.98619 Y71.46817
G1 X-121.49025 Y76.06454
G1 X-115.65337 Y80.45797
G1 X-109.4912 Y84.63488
G1 X-103.02051 Y88.58237
G1 X-96.25912 Y92.28822
G1 X-89.22578 Y95.741
G1 X-81.94013 Y98.93004
G1 X-74.42259 Y101.84553
G1 X-66.69433 Y104.47852
G1 X-58.77714 Y106.82096
G1 X-50.6934 Y108.86567
G1 X-42.46598 Y110.60644
G1 X-34.11817 Y112.03796
G1 X-25.67364 Y113.15589
G1 X-17.15631 Y113.95684
G1 X-8.59033 Y114.43838
G1 X0.0 Y114.59906
G1 X8.59033 Y114.43838
G1 X17.15631 Y113.95684
G1 X25.67364 Y113.15589
G1 X30.69289 Y112.49142
G1 F300.0 X31.00787 Y114.87066
G1 F800.0 X34.47861 Y114.41118
G1 X42.91736 Y112.96407
G1 X51.23627 Y111.20394
G1 X59.41211 Y109.13593
G1 X67.42207 Y106.76605
G1 X75.24384 Y104.1012
G1 X82.85563 Y101.14915
G1 X90.23626 Y97.91854
G1 X97.36526 Y94.41881
G1 X104.22287 Y90.66021
G1 X110.79019 Y86.65377
G1 X117.04918 Y82.41123
G1 X122.98273 Y77.94504
G1 X128.57478 Y73.26829
G1 X133.81033 Y68.39465
G1 X138.67551 Y63.33831
G1 X143.15762 Y58.11393
G1 X147.2452 Y52.7365
G1 X150.92804 Y47.22133
G1 X154.19718 Y41.5839
G1 X157.04493 Y35.83978
G1 X159.46479 Y30.00454
G1 X161.45148 Y24.09371
G1 X163.00081 Y18.12268
G1 X164.10964 Y12.10667
G1 X164.77579 Y6.06079
G1 X164.99798 Y0.0
G1 X164.77496 Y-6.08363
G1 X164.68808 Y-7.0
G1 X-164.65285
G1 X-164.77678 Y-6.03399
G1 X-164.99798 Y0.0
G1 X-164.77579 Y6.06079
G1 X-164.10964 Y12.10667
G1 X-163.00081 Y18.12268
G1 X-161.45148 Y24.09371
G1 X-159.46479 Y30.00454
G1 X-157.04493 Y35.83978
G1 X-154.19718 Y41.5839
G1 X-150.92804 Y47.22133
G1 X-147.2452 Y52.7365
G1 X-143.15762 Y58.11393
G1 X-138.67551 Y63.33831
G1 X-133.81033 Y68.39465
G1 X-128.57478 Y73.26829
G1 X-122.98273 Y77.94504
G1 X-117.04918 Y82.41123
G1 X-110.79019 Y86.65377
G1 X-104.22287 Y90.66021
G1 X-97.36526 Y94.41881
G1 X-90.23626 Y97.91854
G1 X-82.85563 Y101.14915
G1 X-75.24384 Y104.1012
G1 X-67.42207 Y106.76605
G1 X-59.41211 Y109.13593
G1 X-51.23627 Y111.20394
G1 X-42.91736 Y112.96407
G1 X-34.47861 Y114.41118
G1 X-25.94357 Y115.5411
G1 X-17.33608 Y116.35052
G1 X-8.68016 Y116.83712
G1 X0.0 Y116.99948
G1 X8.68016 Y116.83712
G1 X17.33608 Y116.35052
G1 X25.94357 Y115.5411
G1 X31.00787 Y114.87066
G0 Z3.0
G0 X22.97598 Y54.2
G0 Z-2.0
G1 F300.0 Z-6.0
G1 F800.0 X-22.97598
G1 X-19.06025 Y54.71838
G1 X-12.75206 Y55.31159
G1 X-6.38962 Y55.66926
G1 X0.0 Y55.78877
G1 X6.38962 Y55.66926
G1 X12.75206 Y55.31159
G1 X19.06025 Y54.71838
G1 X22.97598 Y54.2
G1 F300.0 X23.13347 Y55.38962
G1 F800.0 X25.46759 Y55.08062
G1 X31.63266 Y54.0234
G1 X36.46959 Y53.0
G1 X-36.46959
G1 X-31.63266 Y54.0234
G1 X-25.46759 Y55.08062
G1 X-19.19522 Y55.91099
G1 X-12.84195 Y56.50843
G1 X-6.43454 Y56.86863
G1 X0.0 Y56.98898
G1 X6.43454 Y56.86863
G1 X12.84195 Y56.50843
G1 X19.19522 Y55.91099
G1 X23.13347 Y55.38962
G1 F300.0 X23.44845 Y57.76886
G1 F800.0 X25.82803 Y57.45384
G1 X32.08405 Y56.38103
G1 X38.20739 Y55.08545
G1 X44.17289 Y53.57652
G1 X49.95618 Y51.86544
G1 X53.67044 Y50.6
G1 X-53.67044
G1 X-49.95618 Y51.86544
G1 X-44.17289 Y53.57652
G1 X-38.20739 Y55.08545
G1 X-32.08405 Y56.38103
G1 X-25.82803 Y57.45384
G1 X-19.46516 Y58.29619
G1 X-13.02171 Y58.90212
G1 X-6.52436 Y59.26737
G1 X0.0 Y59.3894
G1 X6.52436 Y59.26737
G1 X13.02171 Y58.90212
G1 X19.46516 Y58.29619
G1 X23.44845 Y57.76886
G1 F300.0 X23.76342 Y60.1481
G1 F800.0 X26.18848 Y59.82706
G1 X32.53544 Y58.73866
G1 X38.75026 Y57.42372
G1 X44.80786 Y55.8915
G1 X50.68392 Y54.15296
G1 X56.35509 Y52.22081
G1 X61.79916 Y50.10947
G1 X66.16151 Y48.2
G1 X-66.16151
G1 X-61.79916 Y50.10947
G1 X-56.35509 Y52.22081
G1 X-50.68392 Y54.15296
G1 X-44.80786 Y55.8915
G1 X-38.75026 Y57.42372
G1 X-32.53544 Y58.73866
G1 X-26.18848 Y59.82706
G1 X-19.73509 Y60.68139
G1 X-13.20148 Y61.2958
G1 X-6.61419 Y61.66611
G1 X0.0 Y61.78982
G1 X6.61419 Y61.66611
G1 X13.20148 Y61.2958
G1 X19.73509 Y60.68139
G1 X23.76342 Y60.1481
G1 F300.0 X24.0784 Y62.52735
G1 F800.0 X26.54892 Y62.20029
G1 X32.98682 Y61.09628
G1 X39.29313 Y59.76199
G1 X45.44283 Y58.20647
G1 X51.41167 Y56.44049
G1 X57.17634 Y54.47648
G1 X62.71466 Y52.32858
G1 X68.00576 Y50.01259
G1 X73.03034 Y47.54595
G1 X76.21585 Y45.8
G1 X-76.21585
G1 X-73.03034 Y47.54595
G1 X-68.00576 Y50.01259
G1 X-62.71466 Y52.32858
G1 X-57.17634 Y54.47648
G1 X-51.41167 Y56.44049
G1 X-45.44283 Y58.20647
G1 X-39.29313 Y59.76199
G1 X-32.98682 Y61.09628
G1 X-26.54892 Y62.20029
G1 X-20.00502 Y63.0666
G1 X-13.38124 Y63.68948
G1 X-6.70401 Y64.06485
G1 X0.0 Y64.19024
G1 X6.70401 Y64.06485
G1 X13.38124 Y63.68948
G1 X20.00502 Y63.0666
G1 X24.0784 Y62.52735
G1 F300.0 X24.39337 Y64.90659
G1 F800.0 X26.90936 Y64.57351
G1 X33.43821 Y63.45391
G1 X39.836 Y62.10026
G1 X46.07779 Y60.52145
G1 X52.13941 Y58.72801
G1 X57.99759 Y56.73215
G1 X63.63016 Y54.5477
G1 X69.01623 Y52.19013
G1 X74.13647 Y49.67653
G1 X78.9733 Y47.02551
G1 X83.51124 Y44.25711
G1 X84.77572 Y43.4
G1 X-84.77572
G1 X-83.51124 Y44.25711
G1 X-78.9733 Y47.02551
G1 X-74.13647 Y49.67653
G1 X-69.01623 Y52.19013
G1 X-63.63016 Y54.5477
G1 X-57.99759 Y56.73215
G1 X-52.13941 Y58.72801
G1 X-46.07779 Y60.52145
G1 X-39.836 Y62.10026
G1 X-33.43821 Y63.45391
G1 X-26.90936 Y64.57351
G1 X-20.27496 Y65.4518
G1 X-13.56101 Y66.08317
G1 X-6.79384 Y66.46359
G1 X0.0 Y66.59066
G1 X6.79384 Y66.46359
G1 X13.56101 Y66.08317
G1 X20.27496 Y65.4518
G1 X24.39337 Y64.90659
G1 F300.0 X24.70835 Y67.28583
G1 F800.0 X27.2698 Y66.94673
G1 X33.8896 Y65.81153
G1 X40.37887 Y64.43853
G1 X46.71276 Y62.83642
G1 X52.86716 Y61.01554
G1 X58.81884 Y58.98782
G1 X64.54566 Y56.76682
G1 X70.02671 Y54.36768
G1 X75.2426 Y51.80712
G1 X80.17566 Y49.10335
G1 X84.81024 Y46.276
G1 X89.13297 Y43.34591
G1 X92.24963 Y41.0
G1 X-92.24963
G1 X-89.13297 Y43.34591
G1 X-84.81024 Y46.276
G1 X-80.17566 Y49.10335
G1 X-75.2426 Y51.80712
G1 X-70.02671 Y54.36768
G1 X-64.54566 Y56.76682
G1 X-58.81884 Y58.98782
G1 X-52.86716 Y61.01554
G1 X-46.71276 Y62.83642
G1 X-40.37887 Y64.43853
G1 X-33.8896 Y65.81153
G1 X-27.2698 Y66.94673
G1 X-20.54489 Y67.83701
G1 X-13.74077 Y68.47685
G1 X-6.88366 Y68.86233
G1 X0.0 Y68.99108
G1 X6.88366 Y68.86233
G1 X13.74077 Y68.47685
G1 X20.54489 Y67.83701
G1 X24.70835 Y67.28583
G1 F300.0 X25.02333 Y69.66507
G1 F800.0 X27.63024 Y69.31995
G1 X34.34099 Y68.16916
G1 X40.92174 Y66.7768
G1 X47.34773 Y65.1514
G1 X53.59491 Y63.30307
G1 X59.64009 Y61.24349
G1 X65.46116 Y58.98593
G1 X71.03719 Y56.54522
G1 X76.34873 Y53.9377
G1 X81.37802 Y51.1812
G1 X86.10923 Y48.29489
G1 X90.52878 Y45.29918
G1 X94.62562 Y42.21549
G1 X98.39156 Y39.06595
G1 X98.89211 Y38.6
G1 X-98.89211
G1 X-98.39156 Y39.06595
G1 X-94.62562 Y42.21549
G1 X-90.52878 Y45.29918
G1 X-86.10923 Y48.29489
G1 X-81.37802 Y51.1812
G1 X-76.34873 Y53.9377
G1 X-71.03719 Y56.54522
G1 X-65.46116 Y58.98593
G1 X-59.64009 Y61.24349
G1 X-53.59491 Y63.30307
G1 X-47.34773 Y65.1514
G1 X-40.92174 Y66.7768
G1 X-34.34099 Y68.16916
G1 X-27.63024 Y69.31995
G1 X-20.81483 Y70.22221
G1 X-13.92054 Y70.87053
G1 X-6.97349 Y71.26107
G1 X0.0 Y71.3915
G1 X6.97349 Y71.26107
G1 X13.92054 Y70.87053
G1 X20.81483 Y70.22221
G1 X25.02333 Y69.66507
G1 F300.0 X25.3383 Y72.04431
G1 F800.0 X27.99068 Y71.69318
G1 X34.79238 Y70.52679
G1 X41.46461 Y69.11507
G1 X47.9827 Y67.46637
G1 X54.32265 Y65.59059
G1 X60.46134 Y63.49916
G1 X66.37665 Y61.20505
G1 X72.04767 Y58.72276
G1 X77.45487 Y56.06829
G1 X82.58038 Y53.25904
G1 X87.40823 Y50.31377
G1 X91.92459 Y47.25244
G1 X96.1181 Y44.09599
G1 X99.98015 Y40.86607
G1 X103.50518 Y37.58471
G1 X104.83754 Y36.2
G1 X-104.83754
G1 X-103.50518 Y37.58471
G1 X-99.98015 Y40.86607
G1 X-96.1181 Y44.09599
G1 X-91.92459 Y47.25244
G1 X-87.40823 Y50.31377
G1 X-82.58038 Y53.25904
G1 X-77.45487 Y56.06829
G1 X-72.04767 Y58.72276
G1 X-66.37665 Y61.20505
G1 X-60.46134 Y63.49916
G1 X-54.32265 Y65.59059
G1 X-47.9827 Y67.46637
G1 X-41.46461 Y69.11507
G1 X-34.79238 Y70.52679
G1 X-27.99068 Y71.69318
G1 X-21.08476 Y72.60742
G1 X-14.1003 Y73.26422
G1 X-7.06331 Y73.65981
G1 X0.0 Y73.79192
G1 X7.06331 Y73.65981
G1 X14.1003 Y73.26422
G1 X21.08476 Y72.60742
G1 X25.3383 Y72.04431
G1 F300.0 X25.65328 Y74.42355
G1 F800.0 X28.35112 Y74.0664
G1 X35.24377 Y72.88441
G1 X42.00748 Y71.45334
G1 X48.61766 Y69.78135
G1 X55.0504 Y67.87812
G1 X61.28259 Y65.75483
G1 X67.29215 Y63.42417
G1 X73.05814 Y60.90031
G1 X78.561 Y58.19887
G1 X83.78274 Y55.33688
G1 X88.70723 Y52.33266
G1 X93.3204 Y49.20571
G1 X97.61058 Y45.97649
G1 X101.56874 Y42.6662
G1 X105.1888 Y39.29637
G1 X108.46786 Y35.88847
G1 X110.2596 Y33.8
G1 X-110.2596
G1 X-108.46786 Y35.88847
G1 X-105.1888 Y39.29637
G1 X-101.56874 Y42.6662
G1 X-97.61058 Y45.97649
G1 X-93.3204 Y49.20571
G1 X-88.70723 Y52.33266
G1 X-83.78274 Y55.33688
G1 X-78.561 Y58.19887
G1 X-73.05814 Y60.90031
G1 X-67.29215 Y63.42417
G1 X-61.28259 Y65.75483
G1 X-55.0504 Y67.87812
G1 X-48.61766 Y69.78135
G1 X-42.00748 Y71.45334
G1 X-35.24377 Y72.88441
G1 X-28.35112 Y74.0664
G1 X-21.35469 Y74.99262
G1 X-14.28007 Y75.6579
G1 X-7.15314 Y76.05855
G1 X0.0 Y76.19234
G1 X7.15314 Y76.05855
G1 X14.28007 Y75.6579
G1 X21.35469 Y74.99262
G1 X25.65328 Y74.42355
G1 F300.0 X25.96825 Y76.80279
G1 F800.0 X28.71156 Y76.43962
G1 X35.69515 Y75.24204
G1 X42.55035 Y73.79161
G1 X49.25263 Y72.09632
G1 X55.77814 Y70.16564
G1 X62.10384 Y68.0105
G1 X68.20765 Y65.64328
G1 X74.06862 Y63.07785
G1 X79.66713 Y60.32946
G1 X84.98511 Y57.41473
G1 X90.00623 Y54.35155
G1 X94.71621 Y51.15897
G1 X99.10306 Y47.85699
G1 X103.15733 Y44.46632
G1 X106.87242 Y41.00803
G1 X110.24478 Y37.50317
G1 X113.2741 Y33.97217
G1 X115.2293 Y31.4
G1 X-115.2293
G1 X-113.2741 Y33.97217
G1 X-110.24478 Y37.50317
G1 X-106.87242 Y41.00803
G1 X-103.15733 Y44.46632
G1 X-99.10306 Y47.85699
G1 X-94.71621 Y51.15897
G1 X-90.00623 Y54.35155
G1 X-84.98511 Y57.41473
G1 X-79.66713 Y60.32946
G1 X-74.06862 Y63.07785
G1 X-68.20765 Y65.64328
G1 X-62.10384 Y68.0105
G1 X-55.77814 Y70.16564
G1 X-49.25263 Y72.09632
G1 X-42.55035 Y73.79161
G1 X-35.69515 Y75.24204
G1 X-28.71156 Y76.43962
G1 X-21.62463 Y77.37783
G1 X-14.45983 Y78.05158
G1 X-7.24296 Y78.45728
G1 X0.0 Y78.59276
G1 X7.24296 Y78.45728
G1 X14.45983 Y78.05158
G1 X21.62463 Y77.37783
G1 X25.96825 Y76.80279
G1 F300.0 X26.28323 Y79.18204
G1 F800.0 X29.072 Y78.81284
G1 X36.14654 Y77.59967
G1 X43.09322 Y76.12988
G1 X49.8876 Y74.4113
G1 X56.50589 Y72.45317
G1 X62.92509 Y70.26616
G1 X69.12315 Y67.8624
G1 X75.0791 Y65.25539
G1 X80.77327 Y62.46004
G1 X86.18747 Y59.49257
G1 X91.30523 Y56.37044
G1 X96.11202 Y53.11224
G1 X100.59554 Y49.7375
G1 X104.74592 Y46.26644
G1 X108.55604 Y42.7197
G1 X112.0217 Y39.11786
G1 X115.14182 Y35.48103
G1 X117.91848 Y31.82819
G1 X119.80705 Y29.0
G1 X-119.80705
G1 X-117.91848 Y31.82819
G1 X-115.14182 Y35.48103
G1 X-112.0217 Y39.11786
G1 X-108.55604 Y42.7197
G1 X-104.74592 Y46.26644
G1 X-100.59554 Y49.7375
G1 X-96.11202 Y53.11224
G1 X-91.30523 Y56.37044
G1 X-86.18747 Y59.49257
G1 X-80.77327 Y62.46004
G1 X-75.0791 Y65.25539
G1 X-69.12315 Y67.8624
G1 X-62.92509 Y70.26616
G1 X-56.50589 Y72.45317
G1 X-49.8876 Y74.4113
G1 X-43.09322 Y76.12988
G1 X-36.14654 Y77.59967
G1 X-29.072 Y78.81284
G1 X-21.89456 Y79.76303
G1 X-14.6396 Y80.44527
G1 X-7.33279 Y80.85602
G1 X0.0 Y80.99318
G1 X7.33279 Y80.85602
G1 X14.6396 Y80.44527
G1 X21.89456 Y79.76303
G1 X26.28323 Y79.18204
G1 F300.0 X26.59821 Y81.56128
G1 F800.0 X29.43244 Y81.18607
G1 X36.59793 Y79.95729
G1 X43.63609 Y78.46815
G1 X50.52256 Y76.72628
G1 X57.23363 Y74.74069
G1 X63.74634 Y72.52183
G1 X70.03865 Y70.08152
G1 X76.08958 Y67.43294
G1 X81.8794 Y64.59063
G1 X87.38983 Y61.57041
G1 X92.60422 Y58.38933
G1 X97.50783 Y55.06551
G1 X102.08802 Y51.618
G1 X106.33451 Y48.06657
G1 X110.23966 Y44.43136
G1 X113.79862 Y40.73256
G1 X117.00954 Y36.98989
G1 X119.8736 Y33.22208
G1 X122.395 Y29.4462
G1 X124.04551 Y26.6
G1 X-124.04551
G1 X-122.395 Y29.4462
G1 X-119.8736 Y33.22208
G1 X-117.00954 Y36.98989
G1 X-113.79862 Y40.73256
G1 X-110.23966 Y44.43136
G1 X-106.33451 Y48.06657
G1 X-102.08802 Y51.618
G1 X-97.50783 Y55.06551
G1 X-92.60422 Y58.38933
G1 X-87.38983 Y61.57041
G1 X-81.8794 Y64.59063
G1 X-76.08958 Y67.43294
G1 X-70.03865 Y70.08152
G1 X-63.74634 Y72.52183
G1 X-57.23363 Y74.74069
G1 X-50.52256 Y76.72628
G1 X-43.63609 Y78.46815
G1 X-36.59793 Y79.95729
G1 X-29.43244 Y81.18607
G1 X-22.1645 Y82.14823
G1 X-14.81936 Y82.83895
G1 X-7.42261 Y83.25476
G1 X0.0 Y83.3936
G1 X7.42261 Y83.25476
G1 X14.81936 Y82.83895
G1 X22.1645 Y82.14823
G1 X26.59821 Y81.56128
G1 F300.0 X26.91318 Y83.94052
G1 F800.0 X29.79288 Y83.55929
G1 X37.04932 Y82.31492
G1 X44.17896 Y80.80642
G1 X51.15753 Y79.04125
G1 X57.96138 Y77.02822
G1 X64.56759 Y74.7775
G1 X70.95415 Y72.30063
G1 X77.10005 Y69.61048
G1 X82.98553 Y66.72121
G1 X88.59219 Y63.64825
G1 X93.90322 Y60.40822
G1 X98.90364 Y57.01877
G1 X103.5805 Y53.4985
G1 X107.9231 Y49.86669
G1 X111.92328 Y46.14302
G1 X115.57554 Y42.34726
G1 X118.87726 Y38.49875
G1 X121.82871 Y34.61596
G1 X124.43307 Y30.71585
G1 X126.69619 Y26.81325
G1 X127.99175 Y24.2
G1 X-127.99175
G1 X-126.69619 Y26.81325
G1 X-124.43307 Y30.71585
G1 X-121.82871 Y34.61596
G1 X-118.87726 Y38.49875
G1 X-115.57554 Y42.34726
G1 X-111.92328 Y46.14302
G1 X-107.9231 Y49.86669
G1 X-103.5805 Y53.4985
G1 X-98.90364 Y57.01877
G1 X-93.90322 Y60.40822
G1 X-88.59219 Y63.64825
G1 X-82.98553 Y66.72121
G1 X-77.10005 Y69.61048
G1 X-70.95415 Y72.30063
G1 X-64.56759 Y74.7775
G1 X-57.96138 Y77.02822
G1 X-51.15753 Y79.04125
G1 X-44.17896 Y80.80642
G1 X-37.04932 Y82.31492
G1 X-29.79288 Y83.55929
G1 X-22.43443 Y84.53344
G1 X-14.99913 Y85.23264
G1 X-7.51244 Y85.6535
G1 X0.0 Y85.79402
G1 X7.51244 Y85.6535
G1 X14.99913 Y85.23264
G1 X22.43443 Y84.53344
G1 X26.91318 Y83.94052
G1 F300.0 X27.22816 Y86.31976
G1 F800.0 X30.15332 Y85.93251
G1 X37.50071 Y84.67255
G1 X44.72183 Y83.14469
G1 X51.7925 Y81.35623
G1 X58.68913 Y79.31574
G1 X65.38884 Y77.03317
G1 X71.86965 Y74.51975
G1 X78.11053 Y71.78802
G1 X84.09166 Y68.85179
G1 X89.79455 Y65.7261
G1 X95.20222 Y62.42711
G1 X100.29945 Y58.97204
G1 X105.07298 Y55.37901
G1 X109.51169 Y51.66681
G1 X113.6069 Y47.85469
G1 X117.35246 Y43.96195
G1 X120.74498 Y40.00761
G1 X123.78383 Y36.00985
G1 X126.47115 Y31.98551
G1 X128.81165 Y27.94945
G1 X130.81226 Y23.91405
G1 X131.68896 Y21.8
G1 X-131.68896
G1 X-130.81226 Y23.91405
G1 X-128.81165 Y27.94945
G1 X-126.47115 Y31.98551
G1 X-123.78383 Y36.00985
G1 X-120.74498 Y40.00761
G1 X-117.35246 Y43.96195
G1 X-113.6069 Y47.85469
G1 X-109.51169 Y51.66681
G1 X-105.07298 Y55.37901
G1 X-100.29945 Y58.97204
G1 X-95.20222 Y62.42711
G1 X-89.79455 Y65.7261
G1 X-84.09166 Y68.85179
G1 X-78.11053 Y71.78802
G1 X-71.86965 Y74.51975
G1 X-65.38884 Y77.03317
G1 X-58.68913 Y79.31574
G1 X-51.7925 Y81.35623
G1 X-44.72183 Y83.14469
G1 X-37.50071 Y84.67255
G1 X-30.15332 Y85.93251
G1 X-22.70436 Y86.91864
G1 X-15.17889 Y87.62632
G1 X-7.60226 Y88.05224
G1 X0.0 Y88.19444
G1 X7.60226 Y88.05224
G1 X15.17889 Y87.62632
G1 X22.70436 Y86.91864
G1 X27.22816 Y86.31976
G1 F300.0 X27.54313 Y88.699
G1 F800.0 X30.51376 Y88.30573
G1 X37.95209 Y87.03017
G1 X45.2647 Y85.48297
G1 X52.42747 Y83.6712
G1 X59.41687 Y81.60327
G1 X66.21009 Y79.28884
G1 X72.78514 Y76.73887
G1 X79.12101 Y73.96557
G1 X85.1978 Y70.98238
G1 X90.99691 Y67.80394
G1 X96.50122 Y64.44599
G1 X101.69526 Y60.9253
G1 X106.56546 Y57.25951
G1 X111.10029 Y53.46694
G1 X115.29052 Y49.56635
G1 X119.12938 Y45.57665
G1 X122.6127 Y41.51647
G1 X125.73894 Y37.40374
G1 X128.50922 Y33.25516
G1 X130.92711 Y29.08566
G1 X132.99832 Y24.90786
G1 X134.7302 Y20.73162
G1 X135.17777 Y19.4
G1 X-135.17777
G1 X-134.7302 Y20.73162
G1 X-132.99832 Y24.90786
G1 X-130.92711 Y29.08566
G1 X-128.50922 Y33.25516
G1 X-125.73894 Y37.40374
G1 X-122.6127 Y41.51647
G1 X-119.12938 Y45.57665
G1 X-115.29052 Y49.56635
G1 X-111.10029 Y53.46694
G1 X-106.56546 Y57.25951
G1 X-101.69526 Y60.9253
G1 X-96.50122 Y64.44599
G1 X-90.99691 Y67.80394
G1 X-85.1978 Y70.98238
G1 X-79.12101 Y73.96557
G1 X-72.78514 Y76.73887
G1 X-66.21009 Y79.28884
G1 X-59.41687 Y81.60327
G1 X-52.42747 Y83.6712
G1 X-45.2647 Y85.48297
G1 X-37.95209 Y87.03017
G1 X-30.51376 Y88.30573
G1 X-22.9743 Y89.30385
G1 X-15.35866 Y90.02
G1 X-7.69209 Y90.45098
G1 X0.0 Y90.59486
G1 X7.69209 Y90.45098
G1 X15.35866 Y90.02
G1 X22.9743 Y89.30385
G1 X27.54313 Y88.699
G1 F300.0 X27.85811 Y91.07824
G1 F800.0 X30.87421 Y90.67896
G1 X38.40348 Y89.3878
G1 X45.80757 Y87.82124
G1 X53.06243 Y85.98618
G1 X60.14462 Y83.89079
G1 X67.03134 Y81.54451
G1 X73.70064 Y78.95798
G1 X80.13149 Y76.14311
G1 X86.30393 Y73.11296
G1 X92.19927 Y69.88178
G1 X97.80021 Y66.46488
G1 X103.09107 Y62.87857
G1 X108.05794 Y59.14001
G1 X112.68888 Y55.26706
G1 X116.97414 Y51.27801
G1 X120.9063 Y47.19135
G1 X124.48042 Y43.02533
G1 X127.69405 Y38.79763
G1 X130.5473 Y34.52481
G1 X133.04257 Y30.22186
G1 X135.18437 Y25.90167
G1 X136.9788 Y21.57461
G1 X138.43295 Y17.2482
G1 X138.49735 Y17.0
G1 X-138.49735
G1 X-138.43295 Y17.2482
G1 X-136.9788 Y21.57461
G1 X-135.18437 Y25.90167
G1 X-133.04257 Y30.22186
G1 X-130.5473 Y34.52481
G1 X-127.69405 Y38.79763
G1 X-124.48042 Y43.02533
G1 X-120.9063 Y47.19135
G1 X-116.97414 Y51.27801
G1 X-112.68888 Y55.26706
G1 X-108.05794 Y59.14001
G1 X-103.09107 Y62.87857
G1 X-97.80021 Y66.46488
G1 X-92.19927 Y69.88178
G1 X-86.30393 Y73.11296
G1 X-80.13149 Y76.14311
G1 X-73.70064 Y78.95798
G1 X-67.03134 Y81.54451
G1 X-60.14462 Y83.89079
G1 X-53.06243 Y85.98618
G1 X-45.80757 Y87.82124
G1 X-38.40348 Y89.3878
G1 X-30.87421 Y90.67896
G1 X-23.24423 Y91.68905
G1 X-15.53842 Y92.41369
G1 X-7.78191 Y92.84972
G1 X0.0 Y92.99528
G1 X7.78191 Y92.84972
G1 X15.53842 Y92.41369
G1 X23.24423 Y91.68905
G1 X27.85811 Y91.07824
G1 F300.0 X28.17308 Y93.45748
G1 F800.0 X31.23465 Y93.05218
G1 X38.85487 Y91.74543
G1 X46.35044 Y90.15951
G1 X53.6974 Y88.30115
G1 X60.87236 Y86.17832
G1 X67.85259 Y83.80018
G1 X74.61614 Y81.1771
G1 X81.14196 Y78.32065
G1 X87.41006 Y75.24355
G1 X93.40163 Y71.95963
G1 X99.09921 Y68.48377
G1 X104.48688 Y64.83184
G1 X109.55042 Y61.02052
G1 X114.27747 Y57.06718
G1 X118.65776 Y52.98968
G1 X122.68322 Y48.80604
G1 X126.34814 Y44.53419
G1 X129.64917 Y40.19151
G1 X132.58537 Y35.79446
G1 X135.15803 Y31.35806
G1 X137.37043 Y26.89548
G1 X139.2274 Y22.4176
G1 X140.7348 Y17.93275
G1 X141.59957 Y14.6
G1 X-141.59957
G1 X-140.7348 Y17.93275
G1 X-139.2274 Y22.4176
G1 X-137.37043 Y26.89548
G1 X-135.15803 Y31.35806
G1 X-132.58537 Y35.79446
G1 X-129.64917 Y40.19151
G1 X-126.34814 Y44.53419
G1 X-122.68322 Y48.80604
G1 X-118.65776 Y52.98968
G1 X-114.27747 Y57.06718
G1 X-109.55042 Y61.02052
G1 X-104.48688 Y64.83184
G1 X-99.09921 Y68.48377
G1 X-93.40163 Y71.95963
G1 X-87.41006 Y75.24355
G1 X-81.14196 Y78.32065
G1 X-74.61614 Y81.1771
G1 X-67.85259 Y83.80018
G1 X-60.87236 Y86.17832
G1 X-53.6974 Y88.30115
G1 X-46.35044 Y90.15951
G1 X-38.85487 Y91.74543
G1 X-31.23465 Y93.05218
G1 X-23.51417 Y94.07426
G1 X-15.71819 Y94.80737
G1 X-7.87174 Y95.24846
G1 X0.0 Y95.3957
G1 X7.87174 Y95.24846
G1 X15.71819 Y94.80737
G1 X23.51417 Y94.07426
G1 X28.17308 Y93.45748
G1 F300.0 X28.48806 Y95.83673
G1 F800.0 X31.59509 Y95.4254
G1 X39.30626 Y94.10305
G1 X46.89331 Y92.49778
G1 X54.33237 Y90.61613
G1 X61.60011 Y88.46584
G1 X68.67384 Y86.05585
G1 X75.53164 Y83.39622
G1 X82.15244 Y80.49819
G1 X88.51619 Y77.37413
G1 X94.60399 Y74.03747
G1 X100.39821 Y70.50266
G1 X105.88269 Y66.7851
G1 X111.04289 Y62.90102
G1 X115.86606 Y58.86731
G1 X120.34138 Y54.70134
G1 X124.46014 Y50.42074
G1 X128.21586 Y46.04305
G1 X131.60428 Y41.5854
G1 X134.62345 Y37.06411
G1 X137.27349 Y32.49427
G1 X139.55648 Y27.88929
G1 X141.476 Y23.2606
G1 X143.03666 Y18.61731
G1 X144.24352 Y13.96614
G1 X144.56904 Y12.2
G1 X-144.56904
G1 X-144.24352 Y13.96614
G1 X-143.03666 Y18.61731
G1 X-141.476 Y23.2606
G1 X-139.55648 Y27.88929
G1 X-137.27349 Y32.49427
G1 X-134.62345 Y37.06411
G1 X-131.60428 Y41.5854
G1 X-128.21586 Y46.04305
G1 X-124.46014 Y50.42074
G1 X-120.34138 Y54.70134
G1 X-115.86606 Y58.86731
G1 X-111.04289 Y62.90102
G1 X-105.88269 Y66.7851
G1 X-100.39821 Y70.50266
G1 X-94.60399 Y74.03747
G1 X-88.51619 Y77.37413
G1 X-82.15244 Y80.49819
G1 X-75.53164 Y83.39622
G1 X-68.67384 Y86.05585
G1 X-61.60011 Y88.46584
G1 X-54.33237 Y90.61613
G1 X-46.89331 Y92.49778
G1 X-39.30626 Y94.10305
G1 X-31.59509 Y95.4254
G1 X-23.7841 Y96.45946
G1 X-15.89795 Y97.20105
G1 X-7.96156 Y97.6472
G1 X0.0 Y97.79612
G1 X7.96156 Y97.6472
G1 X15.89795 Y97.20105
G1 X23.7841 Y96.45946
G1 X28.48806 Y95.83673
G1 F300.0 X28.80304 Y98.21597
G1 F800.0 X31.95553 Y97.79863
G1 X39.75765 Y96.46068
G1 X47.43618 Y94.83605
G1 X54.96734 Y92.9311
G1 X62.32785 Y90.75337
G1 X69.49509 Y88.31152
G1 X76.44714 Y85.61533
G1 X83.16292 Y82.67574
G1 X89.62233 Y79.50472
G1 X95.80635 Y76.11531
G1 X101.69721 Y72.52155
G1 X107.2785 Y68.73837
G1 X112.53537 Y64.78152
G1 X117.45465 Y60.66743
G1 X122.025 Y56.41301
G1 X126.23706 Y52.03544
G1 X130.08358 Y47.55191
G1 X133.5594 Y42.97929
G1 X136.66152 Y38.33377
G1 X139.38896 Y33.63047
G1 X141.74254 Y28.8831
G1 X143.7246 Y24.10359
G1 X145.33851 Y19.30186
G1 X146.58818 Y14.48571
G1 X147.45182 Y9.8
G1 X-147.45182
G1 X-146.58818 Y14.48571
G1 X-145.33851 Y19.30186
G1 X-143.7246 Y24.10359
G1 X-141.74254 Y28.8831
G1 X-139.38896 Y33.63047
G1 X-136.66152 Y38.33377
G1 X-133.5594 Y42.97929
G1 X-130.08358 Y47.55191
G1 X-126.23706 Y52.03544
G1 X-122.025 Y56.41301
G1 X-117.45465 Y60.66743
G1 X-112.53537 Y64.78152
G1 X-107.2785 Y68.73837
G1 X-101.69721 Y72.52155
G1 X-95.80635 Y76.11531
G1 X-89.62233 Y79.50472
G1 X-83.16292 Y82.67574
G1 X-76.44714 Y85.61533
G1 X-69.49509 Y88.31152
G1 X-62.32785 Y90.75337
G1 X-54.96734 Y92.9311
G1 X-47.43618 Y94.83605
G1 X-39.75765 Y96.46068
G1 X-31.95553 Y97.79863
G1 X-24.05403 Y98.84466
G1 X-16.07772 Y99.59474
G1 X-8.05139 Y100.04594
G1 X0.0 Y100.19654
G1 X8.05139 Y100.04594
G1 X16.07772 Y99.59474
G1 X24.05403 Y98.84466
G1 X28.80304 Y98.21597
G1 F300.0 X29.11801 Y100.59521
G1 F800.0 X32.31597 Y100.17185
G1 X40.20904 Y98.81831
G1 X47.97905 Y97.17432
G1 X55.6023 Y95.24608
G1 X63.0556 Y93.0409
G1 X70.31634 Y90.56718
G1 X77.36264 Y87.83445
G1 X84.1734 Y84.85328
G1 X90.72846 Y81.6353
G1 X97.00871 Y78.19315
G1 X102.99621 Y74.54044
G1 X108.67431 Y70.69163
G1 X114.02785 Y66.66203
G1 X119.04324 Y62.46755
G1 X123.70862 Y58.12467
G1 X128.01398 Y53.65013
G1 X131.9513 Y49.06077
G1 X135.51451 Y44.37318
G1 X138.69959 Y39.60342
G1 X141.50442 Y34.76668
G1 X143.92859 Y29.87691
G1 X145.9732 Y24.94658
G1 X147.64036 Y19.98641
G1 X148.93284 Y15.00527
G1 X149.85348 Y10.0103
G1 X150.14109 Y7.4
G1 X-150.14109
G1 X-149.85348 Y10.0103
G1 X-148.93284 Y15.00527
G1 X-147.64036 Y19.98641
G1 X-145.9732 Y24.94658
G1 X-143.92859 Y29.87691
G1 X-141.50442 Y34.76668
G1 X-138.69959 Y39.60342
G1 X-135.51451 Y44.37318
G1 X-131.9513 Y49.06077
G1 X-128.01398 Y53.65013
G1 X-123.70862 Y58.12467
G1 X-119.04324 Y62.46755
G1 X-114.02785 Y66.66203
G1 X-108.67431 Y70.69163
G1 X-102.99621 Y74.54044
G1 X-97.00871 Y78.19315
G1 X-90.72846 Y81.6353
G1 X-84.1734 Y84.85328
G1 X-77.36264 Y87.83445
G1 X-70.31634 Y90.56718
G1 X-63.0556 Y93.0409
G1 X-55.6023 Y95.24608
G1 X-47.97905 Y97.17432
G1 X-40.20904 Y98.81831
G1 X-32.31597 Y100.17185
G1 X-24.32397 Y101.22987
G1 X-16.25748 Y101.98842
G1 X-8.14121 Y102.44468
G1 X0.0 Y102.59696
G1 X8.14121 Y102.44468
G1 X16.25748 Y101.98842
G1 X24.32397 Y101.22987
G1 X29.11801 Y100.59521
G1 F300.0 X29.43299 Y102.97445
G1 F800.0 X32.67641 Y102.54507
G1 X40.66042 Y101.17593
G1 X48.52192 Y99.51259
G1 X56.23727 Y97.56105
G1 X63.78335 Y95.32842
G1 X71.13759 Y92.82285
G1 X78.27813 Y90.05357
G1 X85.18387 Y87.03082
G1 X91.83459 Y83.76589
G1 X98.21107 Y80.271
G1 X104.2952 Y76.55933
G1 X110.07012 Y72.6449
G1 X115.52033 Y68.54253
G1 X120.63183 Y64.26768
G1 X125.39223 Y59.83633
G1 X129.7909 Y55.26483
G1 X133.81902 Y50.56963
G1 X137.46963 Y45.76706
G1 X140.73767 Y40.87307
G1 X143.61988 Y35.90288
G1 X146.11465 Y30.87072
G1 X148.2218 Y25.78958
G1 X149.94222 Y20.67096
G1 X151.2775 Y15.52484
G1 X152.22951 Y10.3597
G1 X152.79992 Y5.18268
G1 X152.80662 Y5.0
G1 X-152.80662
G1 X-152.79992 Y5.18268
G1 X-152.22951 Y10.3597
G1 X-151.2775 Y15.52484
G1 X-149.94222 Y20.67096
G1 X-148.2218 Y25.78958
G1 X-146.11465 Y30.87072
G1 X-143.61988 Y35.90288
G1 X-140.73767 Y40.87307
G1 X-137.46963 Y45.76706
G1 X-133.81902 Y50.56963
G1 X-129.7909 Y55.26483
G1 X-125.39223 Y59.83633
G1 X-120.63183 Y64.26768
G1 X-115.52033 Y68.54253
G1 X-110.07012 Y72.6449
G1 X-104.2952 Y76.55933
G1 X-98.21107 Y80.271
G1 X-91.83459 Y83.76589
G1 X-85.18387 Y87.03082
G1 X-78.27813 Y90.05357
G1 X-71.13759 Y92.82285
G1 X-63.78335 Y95.32842
G1 X-56.23727 Y97.56105
G1 X-48.52192 Y99.51259
G1 X-40.66042 Y101.17593
G1 X-32.67641 Y102.54507
G1 X-24.5939 Y103.61507
G1 X-16.43725 Y104.3821
G1 X-8.23103 Y104.84342
G1 X0.0 Y104.99738
G1 X8.23103 Y104.84342
G1 X16.43725 Y104.3821
G1 X24.5939 Y103.61507
G1 X29.43299 Y102.97445
G1 F300.0 X29.74796 Y105.35369
G1 F800.0 X33.03685 Y104.91829
G1 X41.11181 Y103.53356
G1 X49.06479 Y101.85086
G1 X56.87224 Y99.87603
G1 X64.51109 Y97.61595
G1 X71.95884 Y95.07852
G1 X79.19363 Y92.27269
G1 X86.19435 Y89.20837
G1 X92.94073 Y85.89647
G1 X99.41343 Y82.34884
G1 X105.5942 Y78.57821
G1 X111.46593 Y74.59817
G1 X117.01281 Y70.42303
G1 X122.22042 Y66.0678
G1 X127.07585 Y61.548
G1 X131.56782 Y56.87953
G1 X135.68674 Y52.07849
G1 X139.42474 Y47.16095
G1 X142.77574 Y42.14272
G1 X145.73534 Y37.03908
G1 X148.30071 Y31.86453
G1 X150.47039 Y26.63257
G1 X152.24407 Y21.35551
G1 X153.62217 Y16.04441
G1 X154.60554 Y10.70909
G1 X155.1951 Y5.35831
G1 X155.29622 Y2.6
G1 X-155.29622
G1 X-155.1951 Y5.35831
G1 X-154.60554 Y10.70909
G1 X-153.62217 Y16.04441
G1 X-152.24407 Y21.35551
G1 X-150.47039 Y26.63257
G1 X-148.30071 Y31.86453
G1 X-145.73534 Y37.03908
G1 X-142.77574 Y42.14272
G1 X-139.42474 Y47.16095
G1 X-135.68674 Y52.07849
G1 X-131.56782 Y56.87953
G1 X-127.07585 Y61.548
G1 X-122.22042 Y66.0678
G1 X-117.01281 Y70.42303
G1 X-111.46593 Y74.59817
G1 X-105.5942 Y78.57821
G1 X-99.41343 Y82.34884
G1 X-92.94073 Y85.89647
G1 X-86.19435 Y89.20837
G1 X-79.19363 Y92.27269
G1 X-71.95884 Y95.07852
G1 X-64.51109 Y97.61595
G1 X-56.87224 Y99.87603
G1 X-49.06479 Y101.85086
G1 X-41.11181 Y103.53356
G1 X-33.03685 Y104.91829
G1 X-24.86384 Y106.00028
G1 X-16.61701 Y106.77579
G1 X-8.32086 Y107.24216
G1 X0.0 Y107.3978
G1 X8.32086 Y107.24216
G1 X16.61701 Y106.77579
G1 X24.86384 Y106.00028
G1 X29.74796 Y105.35369
G1 F300.0 X30.06294 Y107.73293
G1 F800.0 X33.39729 Y107.29152
G1 X41.5632 Y105.89119
G1 X49.60766 Y104.18913
G1 X57.5072 Y102.19101
G1 X65.23884 Y99.90347
G1 X72.78009 Y97.33419
G1 X80.10913 Y94.4918
G1 X87.20483 Y91.38591
G1 X94.04686 Y88.02706
G1 X100.61579 Y84.42668
G1 X106.8932 Y80.5971
G1 X112.86175 Y76.55143
G1 X118.50529 Y72.30353
G1 X123.80901 Y67.86792
G1 X128.75947 Y63.25966
G1 X133.34474 Y58.49422
G1 X137.55446 Y53.58735
G1 X141.37986 Y48.55484
G1 X144.81382 Y43.41238
G1 X147.8508 Y38.17529
G1 X150.48676 Y32.85835
G1 X152.71899 Y27.47556
G1 X154.54592 Y22.04006
G1 X155.96683 Y16.56398
G1 X156.98156 Y11.05849
G1 X157.59027 Y5.53393
G1 X157.78582 Y0.2
G1 X-157.78582
G1 X-157.59027 Y5.53393
G1 X-156.98156 Y11.05849
G1 X-155.96683 Y16.56398
G1 X-154.54592 Y22.04006
G1 X-152.71899 Y27.47556
G1 X-150.48676 Y32.85835
G1 X-147.8508 Y38.17529
G1 X-144.81382 Y43.41238
G1 X-141.37986 Y48.55484
G1 X-137.55446 Y53.58735
G1 X-133.34474 Y58.49422
G1 X-128.75947 Y63.25966
G1 X-123.80901 Y67.86792
G1 X-118.50529 Y72.30353
G1 X-112.86175 Y76.55143
G1 X-106.8932 Y80.5971
G1 X-100.61579 Y84.42668
G1 X-94.04686 Y88.02706
G1 X-87.20483 Y91.38591
G1 X-80.10913 Y94.4918
G1 X-72.78009 Y97.33419
G1 X-65.23884 Y99.90347
G1 X-57.5072 Y102.19101
G1 X-49.60766 Y104.18913
G1 X-41.5632 Y105.89119
G1 X-33.39729 Y107.29152
G1 X-25.13377 Y108.38548
G1 X-16.79678 Y109.16947
G1 X-8.41068 Y109.6409
G1 X0.0 Y109.79822
G1 X8.41068 Y109.6409
G1 X16.79678 Y109.16947
G1 X25.13377 Y108.38548
G1 X30.06294 Y107.73293
G1 F300.0 X30.37792 Y110.11218
G1 F800.0 X33.75773 Y109.66474
G1 X42.01459 Y108.24881
G1 X50.15053 Y106.5274
G1 X58.14217 Y104.50598
G1 X65.96658 Y102.191
G1 X73.60134 Y99.58986
G1 X81.02463 Y96.71092
G1 X88.21531 Y93.56345
G1 X95.15299 Y90.15764
G1 X101.81815 Y86.50453
G1 X108.1922 Y82.61599
G1 X114.25756 Y78.5047
G1 X119.99777 Y74.18404
G1 X125.3976 Y69.66805
G1 X130.44309 Y64.97132
G1 X135.12166 Y60.10892
G1 X139.42218 Y55.09621
G1 X143.33497 Y49.94873
G1 X146.85189 Y44.68203
G1 X149.96626 Y39.31149
G1 X152.67282 Y33.85216
G1 X154.96759 Y28.31856
G1 X156.84777 Y22.72461
G1 X158.31149 Y17.08354
G1 X159.35759 Y11.40788
G1 X159.98545 Y5.70955
G1 X160.19476 Y0.0
G1 X160.11411 Y-2.2
G1 X-160.11411
G1 X-160.19476 Y0.0
G1 X-159.98545 Y5.70955
G1 X-159.35759 Y11.40788
G1 X-158.31149 Y17.08354
G1 X-156.84777 Y22.72461
G1 X-154.96759 Y28.31856
G1 X-152.67282 Y33.85216
G1 X-149.96626 Y39.31149
G1 X-146.85189 Y44.68203
G1 X-143.33497 Y49.94873
G1 X-139.42218 Y55.09621
G1 X-135.12166 Y60.10892
G1 X-130.44309 Y64.97132
G1 X-125.3976 Y69.66805
G1 X-119.99777 Y74.18404
G1 X-114.25756 Y78.5047
G1 X-108.1922 Y82.61599
G1 X-101.81815 Y86.50453
G1 X-95.15299 Y90.15764
G1 X-88.21531 Y93.56345
G1 X-81.02463 Y96.71092
G1 X-73.60134 Y99.58986
G1 X-65.96658 Y102.191
G1 X-58.14217 Y104.50598
G1 X-50.15053 Y106.5274
G1 X-42.01459 Y108.24881
G1 X-33.75773 Y109.66474
G1 X-25.4037 Y110.77069
G1 X-16.97655 Y111.56316
G1 X-8.50051 Y112.03964
G1 X0.0 Y112.19864
G1 X8.50051 Y112.03964
G1 X16.97655 Y111.56316
G1 X25.4037 Y110.77069
G1 X30.37792 Y110.11218
G1 F300.0 X30.69289 Y112.49142
G1 F800.0 X34.11817 Y112.03796
G1 X42.46598 Y110.60644
G1 X50.6934 Y108.86567
G1 X58.77714 Y106.82096
G1 X66.69433 Y104.47852
G1 X74.42259 Y101.84553
G1 X81.94013 Y98.93004
G1 X89.22578 Y95.741
G1 X96.25912 Y92.28822
G1 X103.02051 Y88.58237
G1 X109.4912 Y84.63488
G1 X115.65337 Y80.45797
G1 X121.49025 Y76.06454
G1 X126.98619 Y71.46817
G1 X132.12671 Y66.68299
G1 X136.89859 Y61.72362
G1 X141.2899 Y56.60507
G1 X145.29009 Y51.34261
G1 X148.88997 Y45.95168
G1 X152.08172 Y40.4477
G1 X154.85887 Y34.84597
G1 X157.21619 Y29.16155
G1 X159.14963 Y23.40916
G1 X160.65615 Y17.60311
G1 X161.73362 Y11.75728
G1 X162.38062 Y5.88517
G1 X162.59637 Y0.0
G1 X162.42774 Y-4.6
G1 X-162.42774
G1 X-162.59637 Y0.0
G1 X-162.38062 Y5.88517
G1 X-161.73362 Y11.75728
G1 X-160.65615 Y17.60311
G1 X-159.14963 Y23.40916
G1 X-157.21619 Y29.16155
G1 X-154.85887 Y34.84597
G1 X-152.08172 Y40.4477
G1 X-148.88997 Y45.95168
G1 X-145.29009 Y51.34261
G1 X-141.2899 Y56.60507
G1 X-136.89859 Y61.72362
G1 X-132.12671 Y66.68299
G1 X-126.98619 Y71.46817
G1 X-121.49025 Y76.06454
G1 X-115.65337 Y80.45797
G1 X-109.4912 Y84.63488
G1 X-103.02051 Y88.58237
G1 X-96.25912 Y92.28822
G1 X-89.22578 Y95.741
G1 X-81.94013 Y98.93004
G1 X-74.42259 Y101.84553
G1 X-66.69433 Y104.47852
G1 X-58.77714 Y106.82096
G1 X-50.6934 Y108.86567
G1 X-42.46598 Y110.60644
G1 X-34.11817 Y112.03796
G1 X-25.67364 Y113.15589
G1 X-17.15631 Y113.95684
G1 X-8.59033 Y114.43838
G1 X0.0 Y114.59906
G1 X8.59033 Y114.43838
G1 X17.15631 Y113.95684
G1 X25.67364 Y113.15589
G1 X30.69289 Y112.49142
G1 F300.0 X31.00787 Y114.87066
G1 F800.0 X34.47861 Y114.41118
G1 X42.91736 Y112.96407
G1 X51.23627 Y111.20394
G1 X59.41211 Y109.13593
G1 X67.42207 Y106.76605
G1 X75.24384 Y104.1012
G1 X82.85563 Y101.14915
G1 X90.23626 Y97.91854
G1 X97.36526 Y94.41881
G1 X104.22287 Y90.66021
G1 X110.79019 Y86.65377
G1 X117.04918 Y82.41123
G1 X122.98273 Y77.94504
G1 X128.57478 Y73.26829
G1 X133.81033 Y68.39465
G1 X138.67551 Y63.33831
G1 X143.15762 Y58.11393
G1 X147.2452 Y52.7365
G1 X150.92804 Y47.22133
G1 X154.19718 Y41.5839
G1 X157.04493 Y35.83978
G1 X159.46479 Y30.00454
G1 X161.45148 Y24.09371
G1 X163.00081 Y18.12268
G1 X164.10964 Y12.10667
G1 X164.77579 Y6.06079
G1 X164.99798 Y0.0
G1 X164.77496 Y-6.08363
G1 X164.68808 Y-7.0
G1 X-164.65285
G1 X-164.77678 Y-6.03399
G1 X-164.99798 Y0.0
G1 X-164.77579 Y6.06079
G1 X-164.10964 Y12.10667
G1 X-163.00081 Y18.12268
G1 X-161.45148 Y24.09371
G1 X-159.46479 Y30.00454
G1 X-157.04493 Y35.83978
G1 X-154.19718 Y41.5839
G1 X-150.92804 Y47.22133
G1 X-147.2452 Y52.7365
G1 X-143.15762 Y58.11393
G1 X-138.67551 Y63.33831
G1 X-133.81033 Y68.39465
G1 X-128.57478 Y73.26829
G1 X-122.98273 Y77.94504
G1 X-117.04918 Y82.41123
G1 X-110.79019 Y86.65377
G1 X-104.22287 Y90.66021
G1 X-97.36526 Y94.41881
G1 X-90.23626 Y97.91854
G1 X-82.85563 Y101.14915
G1 X-75.24384 Y104.1012
G1 X-67.42207 Y106.76605
G1 X-59.41211 Y109.13593
G1 X-51.23627 Y111.20394
G1 X-42.91736 Y112.96407
G1 X-34.47861 Y114.41118
G1 X-25.94357 Y115.5411
G1 X-17.33608 Y116.35052
G1 X-8.68016 Y116.83712
G1 X0.0 Y116.99948
G1 X8.68016 Y116.83712
G1 X17.33608 Y116.35052
G1 X25.94357 Y115.5411
G1 X31.00787 Y114.87066
G0 Z3.0
G0 X22.97598 Y54.2
G0 Z-5.0
G1 F300.0 Z-9.0
G1 F800.0 X-22.97598
G1 X-19.06025 Y54.71838
G1 X-12.75206 Y55.31159
G1 X-6.38962 Y55.66926
G1 X0.0 Y55.78877
G1 X6.38962 Y55.66926
G1 X12.75206 Y55.31159
G1 X19.06025 Y54.71838
G1 X22.97598 Y54.2
G1 F300.0 X23.13347 Y55.38962
G1 F800.0 X25.46759 Y55.08062
G1 X31.63266 Y54.0234
G1 X36.46959 Y53.0
G1 X-36.46959
G1 X-31.63266 Y54.0234
G1 X-25.46759 Y55.08062
G1 X-19.19522 Y55.91099
G1 X-12.84195 Y56.50843
G1 X-6.43454 Y56.86863
G1 X0.0 Y56.98898
G1 X6.43454 Y56.86863
G1 X12.84195 Y56.50843
G1 X19.19522 Y55.91099
G1 X23.13347 Y55.38962
G1 F300.0 X23.44845 Y57.76886
G1 F800.0 X25.82803 Y57.45384
G1 X32.08405 Y56.38103
G1 X38.20739 Y55.08545
G1 X44.17289 Y53.57652
G1 X49.95618 Y51.86544
G1 X53.67044 Y50.6
G1 X-53.67044
G1 X-49.95618 Y51.86544
G1 X-44.17289 Y53.57652
G1 X-38.20739 Y55.08545
G1 X-32.08405 Y56.38103
G1 X-25.82803 Y57.45384
G1 X-19.46516 Y58.29619
G1 X-13.02171 Y58.90212
G1 X-6.52436 Y59.26737
G1 X0.0 Y59.3894
G1 X6.52436 Y59.26737
G1 X13.02171 Y58.90212
G1 X19.46516 Y58.29619
G1 X23.44845 Y57.76886
G1 F300.0 X23.76342 Y60.1481
G1 F800.0 X26.18848 Y59.82706
G1 X32.53544 Y58.73866
G1 X38.75026 Y57.42372
G1 X44.80786 Y55.8915
G1 X50.68392 Y54.15296
G1 X56.35509 Y52.22081
G1 X61.79916 Y50.10947
G1 X66.16151 Y48.2
G1 X-66.16151
G1 X-61.79916 Y50.10947
G1 X-56.35509 Y52.22081
G1 X-50.68392 Y54.15296
G1 X-44.80786 Y55.8915
G1 X-38.75026 Y57.42372
G1 X-32.53544 Y58.73866
G1 X-26.18848 Y59.82706
G1 X-19.73509 Y60.68139
G1 X-13.20148 Y61.2958
G1 X-6.61419 Y61.66611
G1 X0.0 Y61.78982
G1 X6.61419 Y61.66611
G1 X13.20148 Y61.2958
G1 X19.73509 Y60.68139
G1 X23.76342 Y60.1481
G1 F300.0 X24.0784 Y62.52735
G1 F800.0 X26.54892 Y62.20029
G1 X32.98682 Y61.09628
G1 X39.29313 Y59.76199
G1 X45.44283 Y58.20647
G1 X51.41167 Y56.44049
G1 X57.17634 Y54.47648
G1 X62.71466 Y52.32858
G1 X68.00576 Y50.01259
G1 X73.03034 Y47.54595
G1 X76.21585 Y45.8
G1 X-76.21585
G1 X-73.03034 Y47.54595
G1 X-68.00576 Y50.01259
G1 X-62.71466 Y52.32858
G1 X-57.17634 Y54.47648
G1 X-51.41167 Y56.44049
G1 X-45.44283 Y58.20647
G1 X-39.29313 Y59.76199
G1 X-32.98682 Y61.09628
G1 X-26.54892 Y62.20029
G1 X-20.00502 Y63.0666
G1 X-13.38124 Y63.68948
G1 X-6.70401 Y64.06485
G1 X0.0 Y64.19024
G1 X6.70401 Y64.06485
G1 X13.38124 Y63.68948
G1 X20.00502 Y63.0666
G1 X24.0784 Y62.52735
G1 F300.0 X24.39337 Y64.90659
G1 F800.0 X26.90936 Y64.57351
G1 X33.43821 Y63.45391
G1 X39.836 Y62.10026
G1 X46.07779 Y60.52145
G1 X52.13941 Y58.72801
G1 X57.99759 Y56.73215
G1 X63.63016 Y54.5477
G1 X69.01623 Y52.19013
G1 X74.13647 Y49.67653
G1 X78.9733 Y47.02551
G1 X83.51124 Y44.25711
G1 X84.77572 Y43.4
G1 X-84.77572
G1 X-83.51124 Y44.25711
G1 X-78.9733 Y47.02551
G1 X-74.13647 Y49.67653
G1 X-69.01623 Y52.19013
G1 X-63.63016 Y54.5477
G1 X-57.99759 Y56.73215
G1 X-52.13941 Y58.72801
G1 X-46.07779 Y60.52145
G1 X-39.836 Y62.10026
G1 X-33.43821 Y63.45391
G1 X-26.90936 Y64.57351
G1 X-20.27496 Y65.4518
G1 X-13.56101 Y66.08317
G1 X-6.79384 Y66.46359
G1 X0.0 Y66.59066
G1 X6.79384 Y66.46359
G1 X13.56101 Y66.08317
G1 X20.27496 Y65.4518
G1 X24.39337 Y64.90659
G1 F300.0 X24.70835 Y67.28583
G1 F800.0 X27.2698 Y66.94673
G1 X33.8896 Y65.81153
G1 X40.37887 Y64.43853
G1 X46.71276 Y62.83642
G1 X52.86716 Y61.01554
G1 X58.81884 Y58.98782
G1 X64.54566 Y56.76682
G1 X70.02671 Y54.36768
G1 X75.2426 Y51.80712
G1 X80.17566 Y49.10335
G1 X84.81024 Y46.276
G1 X89.13297 Y43.34591
G1 X92.24963 Y41.0
G1 X-92.24963
G1 X-89.13297 Y43.34591
G1 X-84.81024 Y46.276
G1 X-80.17566 Y49.10335
G1 X-75.2426 Y51.80712
G1 X-70.02671 Y54.36768
G1 X-64.54566 Y56.76682
G1 X-58.81884 Y58.98782
G1 X-52.86716 Y61.01554
G1 X-46.71276 Y62.83642
G1 X-40.37887 Y64.43853
G1 X-33.8896 Y65.81153
G1 X-27.2698 Y66.94673
G1 X-20.54489 Y67.83701
G1 X-13.74077 Y68.47685
G1 X-6.88366 Y68.86233
G1 X0.0 Y68.99108
G1 X6.88366 Y68.86233
G1 X13.74077 Y68.47685
G1 X20.54489 Y67.83701
G1 X24.70835 Y67.28583
G1 F300.0 X25.02333 Y69.66507
G1 F800.0 X27.63024 Y69.31995
G1 X34.34099 Y68.16916
G1 X40.92174 Y66.7768
G1 X47.34773 Y65.1514
G1 X53.59491 Y63.30307
G1 X59.64009 Y61.24349
G1 X65.46116 Y58.98593
G1 X71.03719 Y56.54522
G1 X76.34873 Y53.9377
G1 X81.37802 Y51.1812
G1 X86.10923 Y48.29489
G1 X90.52878 Y45.29918
G1 X94.62562 Y42.21549
G1 X98.39156 Y39.06595
G1 X98.89211 Y38.6
G1 X-98.89211
G1 X-98.39156 Y39.06595
G1 X-94.62562 Y42.21549
G1 X-90.52878 Y45.29918
G1 X-86.10923 Y48.29489
G1 X-81.37802 Y51.1812
G1 X-76.34873 Y53.9377
G1 X-71.03719 Y56.54522
G1 X-65.46116 Y58.98593
G1 X-59.64009 Y61.24349
G1 X-53.59491 Y63.30307
G1 X-47.34773 Y65.1514
G1 X-40.92174 Y66.7768
G1 X-34.34099 Y68.16916
G1 X-27.63024 Y69.31995
G1 X-20.81483 Y70.22221
G1 X-13.92054 Y70.87053
G1 X-6.97349 Y71.26107
G1 X0.0 Y71.3915
G1 X6.97349 Y71.26107
G1 X13.92054 Y70.87053
G1 X20.81483 Y70.22221
G1 X25.02333 Y69.66507
G1 F300.0 X25.3383 Y72.04431
G1 F800.0 X27.99068 Y71.69318
G1 X34.79238 Y70.52679
G1 X41.46461 Y69.11507
G1 X47.9827 Y67.46637
G1 X54.32265 Y65.59059
G1 X60.46134 Y63.49916
G1 X66.37665 Y61.20505
G1 X72.04767 Y58.72276
G1 X77.45487 Y56.06829
G1 X82.58038 Y53.25904
G1 X87.40823 Y50.31377
G1 X91.92459 Y47.25244
G1 X96.1181 Y44.09599
G1 X99.98015 Y40.86607
G1 X103.50518 Y37.58471
G1 X104.83754 Y36.2
G1 X-104.83754
G1 X-103.50518 Y37.58471
G1 X-99.98015 Y40.86607
G1 X-96.1181 Y44.09599
G1 X-91.92459 Y47.25244
G1 X-87.40823 Y50.31377
G1 X-82.58038 Y53.25904
G1 X-77.45487 Y56.06829
G1 X-72.04767 Y58.72276
G1 X-66.37665 Y61.20505
G1 X-60.46134 Y63.49916
G1 X-54.32265 Y65.59059
G1 X-47.9827 Y67.46637
G1 X-41.46461 Y69.11507
G1 X-34.79238 Y70.52679
G1 X-27.99068 Y71.69318
G1 X-21.08476 Y72.60742
G1 X-14.1003 Y73.26422
G1 X-7.06331 Y73.65981
G1 X0.0 Y73.79192
G1 X7.06331 Y73.65981
G1 X14.1003 Y73.26422
G1 X21.08476 Y72.60742
G1 X25.3383 Y72.04431
G1 F300.0 X25.65328 Y74.42355
G1 F800.0 X28.35112 Y74.0664
G1 X35.24377 Y72.88441
G1 X42.00748 Y71.45334
G1 X48.61766 Y69.78135
G1 X55.0504 Y67.87812
G1 X61.28259 Y65.75483
G1 X67.29215 Y63.42417
G1 X73.05814 Y60.90031
G1 X78.561 Y58.19887
G1 X83.78274 Y55.33688
G1 X88.70723 Y52.33266
G1 X93.3204 Y49.20571
G1 X97.61058 Y45.97649
G1 X101.56874 Y42.6662
G1 X105.1888 Y39.29637
G1 X108.46786 Y35.88847
G1 X110.2596 Y33.8
G1 X-110.2596
G1 X-108.46786 Y35.88847
G1 X-105.1888 Y39.29637
G1 X-101.56874 Y42.6662
G1 X-97.61058 Y45.97649
G1 X-93.3204 Y49.20571
G1 X-88.70723 Y52.33266
G1 X-83.78274 Y55.33688
G1 X-78.561 Y58.19887
G1 X-73.05814 Y60.90031
G1 X-67.29215 Y63.42417
G1 X-61.28259 Y65.75483
G1 X-55.0504 Y67.87812
G1 X-48.61766 Y69.78135
G1 X-42.00748 Y71.45334
G1 X-35.24377 Y72.88441
G1 X-28.35112 Y74.0664
G1 X-21.35469 Y74.99262
G1 X-14.28007 Y75.6579
G1 X-7.15314 Y76.05855
G1 X0.0 Y76.19234
G1 X7.15314 Y76.05855
G1 X14.28007 Y75.6579
G1 X21.35469 Y74.99262
G1 X25.65328 Y74.42355
G1 F300.0 X25.96825 Y76.80279
G1 F800.0 X28.71156 Y76.43962
G1 X35.69515 Y75.24204
G1 X42.55035 Y73.79161
G1 X49.25263 Y72.09632
G1 X55.77814 Y70.16564
G1 X62.10384 Y68.0105
G1 X68.20765 Y65.64328
G1 X74.06862 Y63.07785
G1 X79.66713 Y60.32946
G1 X84.98511 Y57.41473
G1 X90.00623 Y54.35155
G1 X94.71621 Y51.15897
G1 X99.10306 Y47.85699
G1 X103.15733 Y44.46632
G1 X106.87242 Y41.00803
G1 X110.24478 Y37.50317
G1 X113.2741 Y33.97217
G1 X115.2293 Y31.4
G1 X-115.2293
G1 X-113.2741 Y33.97217
G1 X-110.24478 Y37.50317
G1 X-106.87242 Y41.00803
G1 X-103.15733 Y44.46632
G1 X-99.10306 Y47.85699
G1 X-94.71621 Y51.15897
G1 X-90.00623 Y54.35155
G1 X-84.98511 Y57.41473
G1 X-79.66713 Y60.32946
G1 X-74.06862 Y63.07785
G1 X-68.20765 Y65.64328
G1 X-62.10384 Y68.0105
G1 X-55.77814 Y70.16564
G1 X-49.25263 Y72.09632
G1 X-42.55035 Y73.79161
G1 X-35.69515 Y75.24204
G1 X-28.71156 Y76.43962
G1 X-21.62463 Y77.37783
G1 X-14.45983 Y78.05158
G1 X-7.24296 Y78.45728
G1 X0.0 Y78.59276
G1 X7.24296 Y78.45728
G1 X14.45983 Y78.05158
G1 X21.62463 Y77.37783
G1 X25.96825 Y76.80279
G1 F300.0 X26.28323 Y79.18204
G1 F800.0 X29.072 Y78.81284
G1 X36.14654 Y77.59967
G1 X43.09322 Y76.12988
G1 X49.8876 Y74.4113
G1 X56.50589 Y72.45317
G1 X62.92509 Y70.26616
G1 X69.12315 Y67.8624
G1 X75.0791 Y65.25539
G1 X80.77327 Y62.46004
G1 X86.18747 Y59.49257
G1 X91.30523 Y56.37044
G1 X96.11202 Y53.11224
G1 X100.59554 Y49.7375
G1 X104.74592 Y46.26644
G1 X108.55604 Y42.7197
G1 X112.0217 Y39.11786
G1 X115.14182 Y35.48103
G1 X117.91848 Y31.82819
G1 X119.80705 Y29.0
G1 X-119.80705
G1 X-117.91848 Y31.82819
G1 X-115.14182 Y35.48103
G1 X-112.0217 Y39.11786
G1 X-108.55604 Y42.7197
G1 X-104.74592 Y46.26644
G1 X-100.59554 Y49.7375
G1 X-96.11202 Y53.11224
G1 X-91.30523 Y56.37044
G1 X-86.18747 Y59.49257
G1 X-80.77327 Y62.46004
G1 X-75.0791 Y65.25539
G1 X-69.12315 Y67.8624
G1 X-62.92509 Y70.26616
G1 X-56.50589 Y72.45317
G1 X-49.8876 Y74.4113
G1 X-43.09322 Y76.12988
G1 X-36.14654 Y77.59967
G1 X-29.072 Y78.81284
G1 X-21.89456 Y79.76303
G1 X-14.6396 Y80.44527
G1 X-7.33279 Y80.85602
G1 X0.0 Y80.99318
G1 X7.33279 Y80.85602
G1 X14.6396 Y80.44527
G1 X21.89456 Y79.76303
G1 X26.28323 Y79.18204
G1 F300.0 X26.59821 Y81.56128
G1 F800.0 X29.43244 Y81.18607
G1 X36.59793 Y79.95729
G1 X43.63609 Y78.46815
G1 X50.52256 Y76.72628
G1 X57.23363 Y74.74069
G1 X63.74634 Y72.52183
G1 X70.03865 Y70.08152
G1 X76.08958 Y67.43294
G1 X81.8794 Y64.59063
G1 X87.38983 Y61.57041
G1 X92.60422 Y58.38933
G1 X97.50783 Y55.06551
G1 X102.08802 Y51.618
G1 X106.33451 Y48.06657
G1 X110.23966 Y44.43136
G1 X113.79862 Y40.73256
G1 X117.00954 Y36.98989
G1 X119.8736 Y33.22208
G1 X122.395 Y29.4462
G1 X124.04551 Y26.6
G1 X-124.04551
G1 X-122.395 Y29.4462
G1 X-119.8736 Y33.22208
G1 X-117.00954 Y36.98989
G1 X-113.79862 Y40.73256
G1 X-110.23966 Y44.43136
G1 X-106.33451 Y48.06657
G1 X-102.08802 Y51.618
G1 X-97.50783 Y55.06551
G1 X-92.60422 Y58.38933
G1 X-87.38983 Y61.57041
G1 X-81.8794 Y64.59063
G1 X-76.08958 Y67.43294
G1 X-70.03865 Y70.08152
G1 X-63.74634 Y72.52183
G1 X-57.23363 Y74.74069
G1 X-50.52256 Y76.72628
G1 X-43.63609 Y78.46815
G1 X-36.59793 Y79.95729
G1 X-29.43244 Y81.18607
G1 X-22.1645 Y82.14823
G1 X-14.81936 Y82.83895
G1 X-7.42261 Y83.25476
G1 X0.0 Y83.3936
G1 X7.42261 Y83.25476
G1 X14.81936 Y82.83895
G1 X22.1645 Y82.14823
G1 X26.59821 Y81.56128
G1 F300.0 X26.91318 Y83.94052
G1 F800.0 X29.79288 Y83.55929
G1 X37.04932 Y82.31492
G1 X44.17896 Y80.80642
G1 X51.15753 Y79.04125
G1 X57.96138 Y77.02822
G1 X64.56759 Y74.7775
G1 X70.95415 Y72.30063
G1 X77.10005 Y69.61048
G1 X82.98553 Y66.72121
G1 X88.59219 Y63.64825
G1 X93.90322 Y60.40822
G1 X98.90364 Y57.01877
G1 X103.5805 Y53.4985
G1 X107.9231 Y49.86669
G1 X111.92328 Y46.14302
G1 X115.57554 Y42.34726
G1 X118.87726 Y38.49875
G1 X121.82871 Y34.61596
G1 X124.43307 Y30.71585
G1 X126.69619 Y26.81325
G1 X127.99175 Y24.2
G1 X-127.99175
G1 X-126.69619 Y26.81325
G1 X-124.43307 Y30.71585
G1 X-121.82871 Y34.61596
G1 X-118.87726 Y38.49875
G1 X-115.57554 Y42.34726
G1 X-111.92328 Y46.14302
G1 X-107.9231 Y49.86669
G1 X-103.5805 Y53.4985
G1 X-98.90364 Y57.01877
G1 X-93.90322 Y60.40822
G1 X-88.59219 Y63.64825
G1 X-82.98553 Y66.72121
G1 X-77.10005 Y69.61048
G1 X-70.95415 Y72.30063
G1 X-64.56759 Y74.7775
G1 X-57.96138 Y77.02822
G1 X-51.15753 Y79.04125
G1 X-44.17896 Y80.80642
G1 X-37.04932 Y82.31492
G1 X-29.79288 Y83.55929
G1 X-22.43443 Y84.53344
G1 X-14.99913 Y85.23264
G1 X-7.51244 Y85.6535
G1 X0.0 Y85.79402
G1 X7.51244 Y85.6535
G1 X14.99913 Y85.23264
G1 X22.43443 Y84.53344
G1 X26.91318 Y83.94052
G1 F300.0 X27.22816 Y86.31976
G1 F800.0 X30.15332 Y85.93251
G1 X37.50071 Y84.67255
G1 X44.72183 Y83.14469
G1 X51.7925 Y81.35623
G1 X58.68913 Y79.31574
G1 X65.38884 Y77.03317
G1 X71.86965 Y74.51975
G1 X78.11053 Y71.78802
G1 X84.09166 Y68.85179
G1 X89.79455 Y65.7261
G1 X95.20222 Y62.42711
G1 X100.29945 Y58.97204
G1 X105.07298 Y55.37901
G1 X109.51169 Y51.66681
G1 X113.6069 Y47.85469
G1 X117.35246 Y43.96195
G1 X120.74498 Y40.00761
G1 X123.78383 Y36.00985
G1 X126.47115 Y31.98551
G1 X128.81165 Y27.94945
G1 X130.81226 Y23.91405
G1 X131.68896 Y21.8
G1 X-131.68896
G1 X-130.81226 Y23.91405
G1 X-128.81165 Y27.94945
G1 X-126.47115 Y31.98551
G1 X-123.78383 Y36.00985
G1 X-120.74498 Y40.00761
G1 X-117.35246 Y43.96195
G1 X-113.6069 Y47.85469
G1 X-109.51169 Y51.66681
G1 X-105.07298 Y55.37901
G1 X-100.29945 Y58.97204
G1 X-95.20222 Y62.42711
G1 X-89.79455 Y65.7261
G1 X-84.09166 Y68.85179
G1 X-78.11053 Y71.78802
G1 X-71.86965 Y74.51975
G1 X-65.38884 Y77.03317
G1 X-58.68913 Y79.31574
G1 X-51.7925 Y81.35623
G1 X-44.72183 Y83.14469
G1 X-37.50071 Y84.67255
G1 X-30.15332 Y85.93251
G1 X-22.70436 Y86.91864
G1 X-15.17889 Y87.62632
G1 X-7.60226 Y88.05224
G1 X0.0 Y88.19444
G1 X7.60226 Y88.05224
G1 X15.17889 Y87.62632
G1 X22.70436 Y86.91864
G1 X27.22816 Y86.31976
G1 F300.0 X27.54313 Y88.699
G1 F800.0 X30.51376 Y88.30573
G1 X37.95209 Y87.03017
G1 X45.2647 Y85.48297
G1 X52.42747 Y83.6712
G1 X59.41687 Y81.60327
G1 X66.21009 Y79.28884
G1 X72.78514 Y76.73887
G1 X79.12101 Y73.96557
G1 X85.1978 Y70.98238
G1 X90.99691 Y67.80394
G1 X96.50122 Y64.44599
G1 X101.69526 Y60.9253
G1 X106.56546 Y57.25951
G1 X111.10029 Y53.46694
G1 X115.29052 Y49.56635
G1 X119.12938 Y45.57665
G1 X122.6127 Y41.51647
G1 X125.73894 Y37.40374
G1 X128.50922 Y33.25516
G1 X130.92711 Y29.08566
G1 X132.99832 Y24.90786
G1 X134.7302 Y20.73162
G1 X135.17777 Y19.4
G1 X-135.17777
G1 X-134.7302 Y20.73162
G1 X-132.99832 Y24.90786
G1 X-130.92711 Y29.08566
G1 X-128.50922 Y33.25516
G1 X-125.73894 Y37.40374
G1 X-122.6127 Y41.51647
G1 X-119.12938 Y45.57665
G1 X-115.29052 Y49.56635
G1 X-111.10029 Y53.46694
G1 X-106.56546 Y57.25951
G1 X-101.69526 Y60.9253
G1 X-96.50122 Y64.44599
G1 X-90.99691 Y67.80394
G1 X-85.1978 Y70.98238
G1 X-79.12101 Y73.96557
G1 X-72.78514 Y76.73887
G1 X-66.21009 Y79.28884
G1 X-59.41687 Y81.60327
G1 X-52.42747 Y83.6712
G1 X-45.2647 Y85.48297
G1 X-37.95209 Y87.03017
G1 X-30.51376 Y88.30573
G1 X-22.9743 Y89.30385
G1 X-15.35866 Y90.02
G1 X-7.69209 Y90.45098
G1 X0.0 Y90.59486
G1 X7.69209 Y90.45098
G1 X15.35866 Y90.02
G1 X22.9743 Y89.30385
G1 X27.54313 Y88.699
G1 F300.0 X27.85811 Y91.07824
G1 F800.0 X30.87421 Y90.67896
G1 X38.40348 Y89.3878
G1 X45.80757 Y87.82124
G1 X53.06243 Y85.98618
G1 X60.14462 Y83.89079
G1 X67.03134 Y81.54451
G1 X73.70064 Y78.95798
G1 X80.13149 Y76.14311
G1 X86.30393 Y73.11296
G1 X92.19927 Y69.88178
G1 X97.80021 Y66.46488
G1 X103.09107 Y62.87857
G1 X108.05794 Y59.14001
G1 X112.68888 Y55.26706
G1 X116.97414 Y51.27801
G1 X120.9063 Y47.19135
G1 X124.48042 Y43.02533
G1 X127.69405 Y38.79763
G1 X130.5473 Y34.52481
G1 X133.04257 Y30.22186
G1 X135.18437 Y25.90167
G1 X136.9788 Y21.57461
G1 X138.43295 Y17.2482
G1 X138.49735 Y17.0
G1 X-138.49735
G1 X-138.43295 Y17.2482
G1 X-136.9788 Y21.57461
G1 X-135.18437 Y25.90167
G1 X-133.04257 Y30.22186
G1 X-130.5473 Y34.52481
G1 X-127.69405 Y38.79763
G1 X-124.48042 Y43.02533
G1 X-120.9063 Y47.19135
G1 X-116.97414 Y51.27801
G1 X-112.68888 Y55.26706
G1 X-108.05794 Y59.14001
G1 X-103.09107 Y62.87857
G1 X-97.80021 Y66.46488
G1 X-92.19927 Y69.88178
G1 X-86.30393 Y73.11296
G1 X-80.13149 Y76.14311
G1 X-73.70064 Y78.95798
G1 X-67.03134 Y81.54451
G1 X-60.14462 Y83.89079
G1 X-53.06243 Y85.98618
G1 X-45.80757 Y87.82124
G1 X-38.40348 Y89.3878
G1 X-30.87421 Y90.67896
G1 X-23.24423 Y91.68905
G1 X-15.53842 Y92.41369
G1 X-7.78191 Y92.84972
G1 X0.0 Y92.99528
G1 X7.78191 Y92.84972
G1 X15.53842 Y92.41369
G1 X23.24423 Y91.68905
G1 X27.85811 Y91.07824
G1 F300.0 X28.17308 Y93.45748
G1 F800.0 X31.23465 Y93.05218
G1 X38.85487 Y91.74543
G1 X46.35044 Y90.15951
G1 X53.6974 Y88.30115
G1 X60.87236 Y86.17832
G1 X67.85259 Y83.80018
G1 X74.61614 Y81.1771
G1 X81.14196 Y78.32065
G1 X87.41006 Y75.24355
G1 X93.40163 Y71.95963
G1 X99.09921 Y68.48377
G1 X104.48688 Y64.83184
G1 X109.55042 Y61.02052
G1 X114.27747 Y57.06718
G1 X118.65776 Y52.98968
G1 X122.68322 Y48.80604
G1 X126.34814 Y44.53419
G1 X129.64917 Y40.19151
G1 X132.58537 Y35.79446
G1 X135.15803 Y31.35806
G1 X137.37043 Y26.89548
G1 X139.2274 Y22.4176
G1 X140.7348 Y17.93275
G1 X141.59957 Y14.6
G1 X-141.59957
G1 X-140.7348 Y17.93275
G1 X-139.2274 Y22.4176
G1 X-137.37043 Y26.89548
G1 X-135.15803 Y31.35806
G1 X-132.58537 Y35.79446
G1 X-129.64917 Y40.19151
G1 X-126.34814 Y44.53419
G1 X-122.68322 Y48.80604
G1 X-118.65776 Y52.98968
G1 X-114.27747 Y57.06718
G1 X-109.55042 Y61.02052
G1 X-104.48688 Y64.83184
G1 X-99.09921 Y68.48377
G1 X-93.40163 Y71.95963
G1 X-87.41006 Y75.24355
G1 X-81.14196 Y78.32065
G1 X-74.61614 Y81.1771
G1 X-67.85259 Y83.80018
G1 X-60.87236 Y86.17832
G1 X-53.6974 Y88.30115
G1 X-46.35044 Y90.15951
G1 X-38.85487 Y91.74543
G1 X-31.23465 Y93.05218
G1 X-23.51417 Y94.07426
G1 X-15.71819 Y94.80737
G1 X-7.87174 Y95.24846
G1 X0.0 Y95.3957
G1 X7.87174 Y95.24846
G1 X15.71819 Y94.80737
G1 X23.51417 Y94.07426
G1 X28.17308 Y93.45748
G1 F300.0 X28.48806 Y95.83673
G1 F800.0 X31.59509 Y95.4254
G1 X39.30626 Y94.10305
G1 X46.89331 Y92.49778
G1 X54.33237 Y90.61613
G1 X61.60011 Y88.46584
G1 X68.67384 Y86.05585
G1 X75.53164 Y83.39622
G1 X82.15244 Y80.49819
G1 X88.51619 Y77.37413
G1 X94.60399 Y74.03747
G1 X100.39821 Y70.50266
G1 X105.88269 Y66.7851
G1 X111.04289 Y62.90102
G1 X115.86606 Y58.86731
G1 X120.34138 Y54.70134
G1 X124.46014 Y50.42074
G1 X128.21586 Y46.04305
G1 X131.60428 Y41.5854
G1 X134.62345 Y37.06411
G1 X137.27349 Y32.49427
G1 X139.55648 Y27.88929
G1 X141.476 Y23.2606
G1 X143.03666 Y18.61731
G1 X144.24352 Y13.96614
G1 X144.56904 Y12.2
G1 X-144.56904
G1 X-144.24352 Y13.96614
G1 X-143.03666 Y18.61731
G1 X-141.476 Y23.2606
G1 X-139.55648 Y27.88929
G1 X-137.27349 Y32.49427
G1 X-134.62345 Y37.06411
G1 X-131.60428 Y41.5854
G1 X-128.21586 Y46.04305
G1 X-124.46014 Y50.42074
G1 X-120.34138 Y54.70134
G1 X-115.86606 Y58.86731
G1 X-111.04289 Y62.90102
G1 X-105.88269 Y66.7851
G1 X-100.39821 Y70.50266
G1 X-94.60399 Y74.03747
G1 X-88.51619 Y77.37413
G1 X-82.15244 Y80.49819
G1 X-75.53164 Y83.39622
G1 X-68.67384 Y86.05585
G1 X-61.60011 Y88.46584
G1 X-54.33237 Y90.61613
G1 X-46.89331 Y92.49778
G1 X-39.30626 Y94.10305
G1 X-31.59509 Y95.4254
G1 X-23.7841 Y96.45946
G1 X-15.89795 Y97.20105
G1 X-7.96156 Y97.6472
G1 X0.0 Y97.79612
G1 X7.96156 Y97.6472
G1 X15.89795 Y97.20105
G1 X23.7841 Y96.45946
G1 X28.48806 Y95.83673
G1 F300.0 X28.80304 Y98.21597
G1 F800.0 X31.95553 Y97.79863
G1 X39.75765 Y96.46068
G1 X47.43618 Y94.83605
G1 X54.96734 Y92.9311
G1 X62.32785 Y90.75337
G1 X69.49509 Y88.31152
G1 X76.44714 Y85.61533
G1 X83.16292 Y82.67574
G1 X89.62233 Y79.50472
G1 X95.80635 Y76.11531
G1 X101.69721 Y72.52155
G1 X107.2785 Y68.73837
G1 X112.53537 Y64.78152
G1 X117.45465 Y60.66743
G1 X122.025 Y56.41301
G1 X126.23706 Y52.03544
G1 X130.08358 Y47.55191
G1 X133.5594 Y42.97929
G1 X136.66152 Y38.33377
G1 X139.38896 Y33.63047
G1 X141.74254 Y28.8831
G1 X143.7246 Y24.10359
G1 X145.33851 Y19.30186
G1 X146.58818 Y14.48571
G1 X147.45182 Y9.8
G1 X-147.45182
G1 X-146.58818 Y14.48571
G1 X-145.33851 Y19.30186
G1 X-143.7246 Y24.10359
G1 X-141.74254 Y28.8831
G1 X-139.38896 Y33.63047
G1 X-136.66152 Y38.33377
G1 X-133.5594 Y42.97929
G1 X-130.08358 Y47.55191
G1 X-126.23706 Y52.03544
G1 X-122.025 Y56.41301
G1 X-117.45465 Y60.66743
G1 X-112.53537 Y64.78152
G1 X-107.2785 Y68.73837
G1 X-101.69721 Y72.52155
G1 X-95.80635 Y76.11531
G1 X-89.62233 Y79.50472
G1 X-83.16292 Y82.67574
G1 X-76.44714 Y85.61533
G1 X-69.49509 Y88.31152
G1 X-62.32785 Y90.75337
G1 X-54.96734 Y92.9311
G1 X-47.43618 Y94.83605
G1 X-39.75765 Y96.46068
G1 X-31.95553 Y97.79863
G1 X-24.05403 Y98.84466
G1 X-16.07772 Y99.59474
G1 X-8.05139 Y100.04594
G1 X0.0 Y100.19654
G1 X8.05139 Y100.04594
G1 X16.07772 Y99.59474
G1 X24.05403 Y98.84466
G1 X28.80304 Y98.21597
G1 F300.0 X29.11801 Y100.59521
G1 F800.0 X32.31597 Y100.17185
G1 X40.20904 Y98.81831
G1 X47.97905 Y97.17432
G1 X55.6023 Y95.24608
G1 X63.0556 Y93.0409
G1 X70.31634 Y90.56718
G1 X77.36264 Y87.83445
G1 X84.1734 Y84.85328
G1 X90.72846 Y81.6353
G1 X97.00871 Y78.19315
G1 X102.99621 Y74.54044
G1 X108.67431 Y70.69163
G1 X114.02785 Y66.66203
G1 X119.04324 Y62.46755
G1 X123.70862 Y58.12467
G1 X128.01398 Y53.65013
G1 X131.9513 Y49.06077
G1 X135.51451 Y44.37318
G1 X138.69959 Y39.60342
G1 X141.50442 Y34.76668
G1 X143.92859 Y29.87691
G1 X145.9732 Y24.94658
G1 X147.64036 Y19.98641
G1 X148.93284 Y15.00527
G1 X149.85348 Y10.0103
G1 X150.14109 Y7.4
G1 X-150.14109
G1 X-149.85348 Y10.0103
G1 X-148.93284 Y15.00527
G1 X-147.64036 Y19.98641
G1 X-145.9732 Y24.94658
G1 X-143.92859 Y29.87691
G1 X-141.50442 Y34.76668
G1 X-138.69959 Y39.60342
G1 X-135.51451 Y44.37318
G1 X-131.9513 Y49.06077
G1 X-128.01398 Y53.65013
G1 X-123.70862 Y58.12467
G1 X-119.04324 Y62.46755
G1 X-114.02785 Y66.66203
G1 X-108.67431 Y70.69163
G1 X-102.99621 Y74.54044
G1 X-97.00871 Y78.19315
G1 X-90.72846 Y81.6353
G1 X-84.1734 Y84.85328
G1 X-77.36264 Y87.83445
G1 X-70.31634 Y90.56718
G1 X-63.0556 Y93.0409
G1 X-55.6023 Y95.24608
G1 X-47.97905 Y97.17432
G1 X-40.20904 Y98.81831
G1 X-32.31597 Y100.17185
G1 X-24.32397 Y101.22987
G1 X-16.25748 Y101.98842
G1 X-8.14121 Y102.44468
G1 X0.0 Y102.59696
G1 X8.14121 Y102.44468
G1 X16.25748 Y101.98842
G1 X24.32397 Y101.22987
G1 X29.11801 Y100.59521
G1 F300.0 X29.43299 Y102.97445
G1 F800.0 X32.67641 Y102.54507
G1 X40.66042 Y101.17593
G1 X48.52192 Y99.51259
G1 X56.23727 Y97.56105
G1 X63.78335 Y95.32842
G1 X71.13759 Y92.82285
G1 X78.27813 Y90.05357
G1 X85.18387 Y87.03082
G1 X91.83459 Y83.76589
G1 X98.21107 Y80.271
G1 X104.2952 Y76.55933
G1 X110.07012 Y72.6449
G1 X115.52033 Y68.54253
G1 X120.63183 Y64.26768
G1 X125.39223 Y59.83633
G1 X129.7909 Y55.26483
G1 X133.81902 Y50.56963
G1 X137.46963 Y45.76706
G1 X140.73767 Y40.87307
G1 X143.61988 Y35.90288
G1 X146.11465 Y30.87072
G1 X148.2218 Y25.78958
G1 X149.94222 Y20.67096
G1 X151.2775 Y15.52484
G1 X152.22951 Y10.3597
G1 X152.79992 Y5.18268
G1 X152.80662 Y5.0
G1 X-152.80662
G1 X-152.79992 Y5.18268
G1 X-152.22951 Y10.3597
G1 X-151.2775 Y15.52484
G1 X-149.94222 Y20.67096
G1 X-148.2218 Y25.78958
G1 X-146.11465 Y30.87072
G1 X-143.61988 Y35.90288
G1 X-140.73767 Y40.87307
G1 X-137.46963 Y45.76706
G1 X-133.81902 Y50.56963
G1 X-129.7909 Y55.26483
G1 X-125.39223 Y59.83633
G1 X-120.63183 Y64.26768
G1 X-115.52033 Y68.54253
G1 X-110.07012 Y72.6449
G1 X-104.2952 Y76.55933
G1 X-98.21107 Y80.271
G1 X-91.83459 Y83.76589
G1 X-85.18387 Y87.03082
G1 X-78.27813 Y90.05357
G1 X-71.13759 Y92.82285
G1 X-63.78335 Y95.32842
G1 X-56.23727 Y97.56105
G1 X-48.52192 Y99.51259
G1 X-40.66042 Y101.17593
G1 X-32.67641 Y102.54507
G1 X-24.5939 Y103.61507
G1 X-16.43725 Y104.3821
G1 X-8.23103 Y104.84342
G1 X0.0 Y104.99738
G1 X8.23103 Y104.84342
G1 X16.43725 Y104.3821
G1 X24.5939 Y103.61507
G1 X29.43299 Y102.97445
G1 F300.0 X29.74796 Y105.35369
G1 F800.0 X33.03685 Y104.91829
G1 X41.11181 Y103.53356
G1 X49.06479 Y101.85086
G1 X56.87224 Y99.87603
G1 X64.51109 Y97.61595
G1 X71.95884 Y95.07852
G1 X79.19363 Y92.27269
G1 X86.19435 Y89.20837
G1 X92.94073 Y85.89647
G1 X99.41343 Y82.34884
G1 X105.5942 Y78.57821
G1 X111.46593 Y74.59817
G1 X117.01281 Y70.42303
G1 X122.22042 Y66.0678
G1 X127.07585 Y61.548
G1 X131.56782 Y56.87953
G1 X135.68674 Y52.07849
G1 X139.42474 Y47.16095
G1 X142.77574 Y42.14272
G1 X145.73534 Y37.03908
G1 X148.30071 Y31.86453
G1 X150.47039 Y26.63257
G1 X152.24407 Y21.35551
G1 X153.62217 Y16.04441
G1 X154.60554 Y10.70909
G1 X155.1951 Y5.35831
G1 X155.29622 Y2.6
G1 X-155.29622
G1 X-155.1951 Y5.35831
G1 X-154.60554 Y10.70909
G1 X-153.62217 Y16.04441
G1 X-152.24407 Y21.35551
G1 X-150.47039 Y26.63257
G1 X-148.30071 Y31.86453
G1 X-145.73534 Y37.03908
G1 X-142.77574 Y42.14272
G1 X-139.42474 Y47.16095
G1 X-135.68674 Y52.07849
G1 X-131.56782 Y56.87953
G1 X-127.07585 Y61.548
G1 X-122.22042 Y66.0678
G1 X-117.01281 Y70.42303
G1 X-111.46593 Y74.59817
G1 X-105.5942 Y78.57821
G1 X-99.41343 Y82.34884
G1 X-92.94073 Y85.89647
G1 X-86.19435 Y89.20837
G1 X-79.19363 Y92.27269
G1 X-71.95884 Y95.07852
G1 X-64.51109 Y97.61595
G1 X-56.87224 Y99.87603
G1 X-49.06479 Y101.85086
G1 X-41.11181 Y103.53356
G1 X-33.03685 Y104.91829
G1 X-24.86384 Y106.00028
G1 X-16.61701 Y106.77579
G1 X-8.32086 Y107.24216
G1 X0.0 Y107.3978
G1 X8.32086 Y107.24216
G1 X16.61701 Y106.77579
G1 X24.86384 Y106.00028
G1 X29.74796 Y105.35369
G1 F300.0 X30.06294 Y107.73293
G1 F800.0 X33.39729 Y107.29152
G1 X41.5632 Y105.89119
G1 X49.60766 Y104.18913
G1 X57.5072 Y102.19101
G1 X65.23884 Y99.90347
G1 X72.78009 Y97.33419
G1 X80.10913 Y94.4918
G1 X87.20483 Y91.38591
G1 X94.04686 Y88.02706
G1 X100.61579 Y84.42668
G1 X106.8932 Y80.5971
G1 X112.86175 Y76.55143
G1 X118.50529 Y72.30353
G1 X123.80901 Y67.86792
G1 X128.75947 Y63.25966
G1 X133.34474 Y58.49422
G1 X137.55446 Y53.58735
G1 X141.37986 Y48.55484
G1 X144.81382 Y43.41238
G1 X147.8508 Y38.17529
G1 X150.48676 Y32.85835
G1 X152.71899 Y27.47556
G1 X154.54592 Y22.04006
G1 X155.96683 Y16.56398
G1 X156.98156 Y11.05849
G1 X157.59027 Y5.53393
G1 X157.78582 Y0.2
G1 X-157.78582
G1 X-157.59027 Y5.53393
G1 X-156.98156 Y11.05849
G1 X-155.96683 Y16.56398
G1 X-154.54592 Y22.04006
G1 X-152.71899 Y27.47556
G1 X-150.48676 Y32.85835
G1 X-147.8508 Y38.17529
G1 X-144.81382 Y43.41238
G1 X-141.37986 Y48.55484
G1 X-137.55446 Y53.58735
G1 X-133.34474 Y58.49422
G1 X-128.75947 Y63.25966
G1 X-123.80901 Y67.86792
G1 X-118.50529 Y72.30353
G1 X-112.86175 Y76.55143
G1 X-106.8932 Y80.5971
G1 X-100.61579 Y84.42668
G1 X-94.04686 Y88.02706
G1 X-87.20483 Y91.38591
G1 X-80.10913 Y94.4918
G1 X-72.78009 Y97.33419
G1 X-65.23884 Y99.90347
G1 X-57.5072 Y102.19101
G1 X-49.60766 Y104.18913
G1 X-41.5632 Y105.89119
G1 X-33.39729 Y107.29152
G1 X-25.13377 Y108.38548
G1 X-16.79678 Y109.16947
G1 X-8.41068 Y109.6409
G1 X0.0 Y109.79822
G1 X8.41068 Y109.6409
G1 X16.79678 Y109.16947
G1 X25.13377 Y108.38548
G1 X30.06294 Y107.73293
G1 F300.0 X30.37792 Y110.11218
G1 F800.0 X33.75773 Y109.66474
G1 X42.01459 Y108.24881
G1 X50.15053 Y106.5274
G1 X58.14217 Y104.50598
G1 X65.96658 Y102.191
G1 X73.60134 Y99.58986
G1 X81.02463 Y96.71092
G1 X88.21531 Y93.56345
G1 X95.15299 Y90.15764
G1 X101.81815 Y86.50453
G1 X108.1922 Y82.61599
G1 X114.25756 Y78.5047
G1 X119.99777 Y74.18404
G1 X125.3976 Y69.66805
G1 X130.44309 Y64.97132
G1 X135.12166 Y60.10892
G1 X139.42218 Y55.09621
G1 X143.33497 Y49.94873
G1 X146.85189 Y44.68203
G1 X149.96626 Y39.31149
G1 X152.67282 Y33.85216
G1 X154.96759 Y28.31856
G1 X156.84777 Y22.72461
G1 X158.31149 Y17.08354
G1 X159.35759 Y11.40788
G1 X159.98545 Y5.70955
G1 X160.19476 Y0.0
G1 X160.11411 Y-2.2
G1 X-160.11411
G1 X-160.19476 Y0.0
G1 X-159.98545 Y5.70955
G1 X-159.35759 Y11.40788
G1 X-158.31149 Y17.08354
G1 X-156.84777 Y22.72461
G1 X-154.96759 Y28.31856
G1 X-152.67282 Y33.85216
G1 X-149.96626 Y39.31149
G1 X-146.85189 Y44.68203
G1 X-143.33497 Y49.94873
G1 X-139.42218 Y55.09621
G1 X-135.12166 Y60.10892
G1 X-130.44309 Y64.97132
G1 X-125.3976 Y69.66805
G1 X-119.99777 Y74.18404
G1 X-114.25756 Y78.5047
G1 X-108.1922 Y82.61599
G1 X-101.81815 Y86.50453
G1 X-95.15299 Y90.15764
G1 X-88.21531 Y93.56345
G1 X-81.02463 Y96.71092
G1 X-73.60134 Y99.58986
G1 X-65.96658 Y102.191
G1 X-58.14217 Y104.50598
G1 X-50.15053 Y106.5274
G1 X-42.01459 Y108.24881
G1 X-33.75773 Y109.66474
G1 X-25.4037 Y110.77069
G1 X-16.97655 Y111.56316
G1 X-8.50051 Y112.03964
G1 X0.0 Y112.19864
G1 X8.50051 Y112.03964
G1 X16.97655 Y111.56316
G1 X25.4037 Y110.77069
G1 X30.37792 Y110.11218
G1 F300.0 X30.69289 Y112.49142
G1 F800.0 X34.11817 Y112.03796
G1 X42.46598 Y110.60644
G1 X50.6934 Y108.86567
G1 X58.77714 Y106.82096
G1 X66.69433 Y104.47852
G1 X74.42259 Y101.84553
G1 X81.94013 Y98.93004
G1 X89.22578 Y95.741
G1 X96.25912 Y92.28822
G1 X103.02051 Y88.58237
G1 X109.4912 Y84.63488
G1 X115.65337 Y80.45797
G1 X121.49025 Y76.06454
G1 X126.98619 Y71.46817
G1 X132.12671 Y66.68299
G1 X136.89859 Y61.72362
G1 X141.2899 Y56.60507
G1 X145.29009 Y51.34261
G1 X148.88997 Y45.95168
G1 X152.08172 Y40.4477
G1 X154.85887 Y34.84597
G1 X157.21619 Y29.16155
G1 X159.14963 Y23.40916
G1 X160.65615 Y17.60311
G1 X161.73362 Y11.75728
G1 X162.38062 Y5.88517
G1 X162.59637 Y0.0
G1 X162.42774 Y-4.6
G1 X-162.42774
G1 X-162.59637 Y0.0
G1 X-162.38062 Y5.88517
G1 X-161.73362 Y11.75728
G1 X-160.65615 Y17.60311
G1 X-159.14963 Y23.40916
G1 X-157.21619 Y29.16155
G1 X-154.85887 Y34.84597
G1 X-152.08172 Y40.4477
G1 X-148.88997 Y45.95168
G1 X-145.29009 Y51.34261
G1 X-141.2899 Y56.60507
G1 X-136.89859 Y61.72362
G1 X-132.12671 Y66.68299
G1 X-126.98619 Y71.46817
G1 X-121.49025 Y76.06454
G1 X-115.65337 Y80.45797
G1 X-109.4912 Y84.63488
G1 X-103.02051 Y88.58237
G1 X-96.25912 Y92.28822
G1 X-89.22578 Y95.741
G1 X-81.94013 Y98.93004
G1 X-74.42259 Y101.84553
G1 X-66.69433 Y104.47852
G1 X-58.77714 Y106.82096
G1 X-50.6934 Y108.86567
G1 X-42.46598 Y110.60644
G1 X-34.11817 Y112.03796
G1 X-25.67364 Y113.15589
G1 X-17.15631 Y113.95684
G1 X-8.59033 Y114.43838
G1 X0.0 Y114.59906
G1 X8.59033 Y114.43838
G1 X17.15631 Y113.95684
G1 X25.67364 Y113.15589
G1 X30.69289 Y112.49142
G1 F300.0 X31.00787 Y114.87066
G1 F800.0 X34.47861 Y114.41118
G1 X42.91736 Y112.96407
G1 X51.23627 Y111.20394
G1 X59.41211 Y109.13593
G1 X67.42207 Y106.76605
G1 X75.24384 Y104.1012
G1 X82.85563 Y101.14915
G1 X90.23626 Y97.91854
G1 X97.36526 Y94.41881
G1 X104.22287 Y90.66021
G1 X110.79019 Y86.65377
G1 X117.04918 Y82.41123
G1 X122.98273 Y77.94504
G1 X128.57478 Y73.26829
G1 X133.81033 Y68.39465
G1 X138.67551 Y63.33831
G1 X143.15762 Y58.11393
G1 X147.2452 Y52.7365
G1 X150.92804 Y47.22133
G1 X154.19718 Y41.5839
G1 X157.04493 Y35.83978
G1 X159.46479 Y30.00454
G1 X161.45148 Y24.09371
G1 X163.00081 Y18.12268
G1 X164.10964 Y12.10667
G1 X164.77579 Y6.06079
G1 X164.99798 Y0.0
G1 X164.77496 Y-6.08363
G1 X164.68808 Y-7.0
G1 X-164.65285
G1 X-164.77678 Y-6.03399
G1 X-164.99798 Y0.0
G1 X-164.77579 Y6.06079
G1 X-164.10964 Y12.10667
G1 X-163.00081 Y18.12268
G1 X-161.45148 Y24.09371
G1 X-159.46479 Y30.00454
G1 X-157.04493 Y35.83978
G1 X-154.19718 Y41.5839
G1 X-150.92804 Y47.22133
G1 X-147.2452 Y52.7365
G1 X-143.15762 Y58.11393
G1 X-138.67551 Y63.33831
G1 X-133.81033 Y68.39465
G1 X-128.57478 Y73.26829
G1 X-122.98273 Y77.94504
G1 X-117.04918 Y82.41123
G1 X-110.79019 Y86.65377
G1 X-104.22287 Y90.66021
G1 X-97.36526 Y94.41881
G1 X-90.23626 Y97.91854
G1 X-82.85563 Y101.14915
G1 X-75.24384 Y104.1012
G1 X-67.42207 Y106.76605
G1 X-59.41211 Y109.13593
G1 X-51.23627 Y111.20394
G1 X-42.91736 Y112.96407
G1 X-34.47861 Y114.41118
G1 X-25.94357 Y115.5411
G1 X-17.33608 Y116.35052
G1 X-8.68016 Y116.83712
G1 X0.0 Y116.99948
G1 X8.68016 Y116.83712
G1 X17.33608 Y116.35052
G1 X25.94357 Y115.5411
G1 X31.00787 Y114.87066
G0 Z3.0
G0 X22.97598 Y54.2
G0 Z-8.0
G1 F300.0 Z-12.0
G1 F800.0 X-22.97598
G1 X-19.06025 Y54.71838
G1 X-12.75206 Y55.31159
G1 X-6.38962 Y55.66926
G1 X0.0 Y55.78877
G1 X6.38962 Y55.66926
G1 X12.75206 Y55.31159
G1 X19.06025 Y54.71838
G1 X22.97598 Y54.2
G1 F300.0 X23.13347 Y55.38962
G1 F800.0 X25.46759 Y55.08062
G1 X31.63266 Y54.0234
G1 X36.46959 Y53.0
G1 X-36.46959
G1 X-31.63266 Y54.0234
G1 X-25.46759 Y55.08062
G1 X-19.19522 Y55.91099
G1 X-12.84195 Y56.50843
G1 X-6.43454 Y56.86863
G1 X0.0 Y56.98898
G1 X6.43454 Y56.86863
G1 X12.84195 Y56.50843
G1 X19.19522 Y55.91099
G1 X23.13347 Y55.38962
G1 F300.0 X23.44845 Y57.76886
G1 F800.0 X25.82803 Y57.45384
G1 X32.08405 Y56.38103
G1 X38.20739 Y55.08545
G1 X44.17289 Y53.57652
G1 X49.95618 Y51.86544
G1 X53.67044 Y50.6
G1 X-53.67044
G1 X-49.95618 Y51.86544
G1 X-44.17289 Y53.57652
G1 X-38.20739 Y55.08545
G1 X-32.08405 Y56.38103
G1 X-25.82803 Y57.45384
G1 X-19.46516 Y58.29619
G1 X-13.02171 Y58.90212
G1 X-6.52436 Y59.26737
G1 X0.0 Y59.3894
G1 X6.52436 Y59.26737
G1 X13.02171 Y58.90212
G1 X19.46516 Y58.29619
G1 X23.44845 Y57.76886
G1 F300.0 X23.76342 Y60.1481
G1 F800.0 X26.18848 Y59.82706
G1 X32.53544 Y58.73866
G1 X38.75026 Y57.42372
G1 X44.80786 Y55.8915
G1 X50.68392 Y54.15296
G1 X56.35509 Y52.22081
G1 X61.79916 Y50.10947
G1 X66.16151 Y48.2
G1 X-66.16151
G1 X-61.79916 Y50.10947
G1 X-56.35509 Y52.22081
G1 X-50.68392 Y54.15296
G1 X-44.80786 Y55.8915
G1 X-38.75026 Y57.42372
G1 X-32.53544 Y58.73866
G1 X-26.18848 Y59.82706
G1 X-19.73509 Y60.68139
G1 X-13.20148 Y61.2958
G1 X-6.61419 Y61.66611
G1 X0.0 Y61.78982
G1 X6.61419 Y61.66611
G1 X13.20148 Y61.2958
G1 X19.73509 Y60.68139
G1 X23.76342 Y60.1481
G1 F300.0 X24.0784 Y62.52735
G1 F800.0 X26.54892 Y62.20029
G1 X32.98682 Y61.09628
G1 X39.29313 Y59.76199
G1 X45.44283 Y58.20647
G1 X51.41167 Y56.44049
G1 X57.17634 Y54.47648
G1 X62.71466 Y52.32858
G1 X68.00576 Y50.01259
G1 X73.03034 Y47.54595
G1 X76.21585 Y45.8
G1 X-76.21585
G1 X-73.03034 Y47.54595
G1 X-68.00576 Y50.01259
G1 X-62.71466 Y52.32858
G1 X-57.17634 Y54.47648
G1 X-51.41167 Y56.44049
G1 X-45.44283 Y58.20647
G1 X-39.29313 Y59.76199
G1 X-32.98682 Y61.09628
G1 X-26.54892 Y62.20029
G1 X-20.00502 Y63.0666
G1 X-13.38124 Y63.68948
G1 X-6.70401 Y64.06485
G1 X0.0 Y64.19024
G1 X6.70401 Y64.06485
G1 X13.38124 Y63.68948
G1 X20.00502 Y63.0666
G1 X24.0784 Y62.52735
G1 F300.0 X24.39337 Y64.90659
G1 F800.0 X26.90936 Y64.57351
G1 X33.43821 Y63.45391
G1 X39.836 Y62.10026
G1 X46.07779 Y60.52145
G1 X52.13941 Y58.72801
G1 X57.99759 Y56.73215
G1 X63.63016 Y54.5477
G1 X69.01623 Y52.19013
G1 X74.13647 Y49.67653
G1 X78.9733 Y47.02551
G1 X83.51124 Y44.25711
G1 X84.77572 Y43.4
G1 X-84.77572
G1 X-83.51124 Y44.25711
G1 X-78.9733 Y47.02551
G1 X-74.13647 Y49.67653
G1 X-69.01623 Y52.19013
G1 X-63.63016 Y54.5477
G1 X-57.99759 Y56.73215
G1 X-52.13941 Y58.72801
G1 X-46.07779 Y60.52145
G1 X-39.836 Y62.10026
G1 X-33.43821 Y63.45391
G1 X-26.90936 Y64.57351
G1 X-20.27496 Y65.4518
G1 X-13.56101 Y66.08317
G1 X-6.79384 Y66.46359
G1 X0.0 Y66.59066
G1 X6.79384 Y66.46359
G1 X13.56101 Y66.08317
G1 X20.27496 Y65.4518
G1 X24.39337 Y64.90659
G1 F300.0 X24.70835 Y67.28583
G1 F800.0 X27.2698 Y66.94673
G1 X33.8896 Y65.81153
G1 X40.37887 Y64.43853
G1 X46.71276 Y62.83642
G1 X52.86716 Y61.01554
G1 X58.81884 Y58.98782
G1 X64.54566 Y56.76682
G1 X70.02671 Y54.36768
G1 X75.2426 Y51.80712
G1 X80.17566 Y49.10335
G1 X84.81024 Y46.276
G1 X89.13297 Y43.34591
G1 X92.24963 Y41.0
G1 X-92.24963
G1 X-89.13297 Y43.34591
G1 X-84.81024 Y46.276
G1 X-80.17566 Y49.10335
G1 X-75.2426 Y51.80712
G1 X-70.02671 Y54.36768
G1 X-64.54566 Y56.76682
G1 X-58.81884 Y58.98782
G1 X-52.86716 Y61.01554
G1 X-46.71276 Y62.83642
G1 X-40.37887 Y64.43853
G1 X-33.8896 Y65.81153
G1 X-27.2698 Y66.94673
G1 X-20.54489 Y67.83701
G1 X-13.74077 Y68.47685
G1 X-6.88366 Y68.86233
G1 X0.0 Y68.99108
G1 X6.88366 Y68.86233
G1 X13.74077 Y68.47685
G1 X20.54489 Y67.83701
G1 X24.70835 Y67.28583
G1 F300.0 X25.02333 Y69.66507
G1 F800.0 X27.63024 Y69.31995
G1 X34.34099 Y68.16916
G1 X40.92174 Y66.7768
G1 X47.34773 Y65.1514
G1 X53.59491 Y63.30307
G1 X59.64009 Y61.24349
G1 X65.46116 Y58.98593
G1 X71.03719 Y56.54522
G1 X76.34873 Y53.9377
G1 X81.37802 Y51.1812
G1 X86.10923 Y48.29489
G1 X90.52878 Y45.29918
G1 X94.62562 Y42.21549
G1 X98.39156 Y39.06595
G1 X98.89211 Y38.6
G1 X-98.89211
G1 X-98.39156 Y39.06595
G1 X-94.62562 Y42.21549
G1 X-90.52878 Y45.29918
G1 X-86.10923 Y48.29489
G1 X-81.37802 Y51.1812
G1 X-76.34873 Y53.9377
G1 X-71.03719 Y56.54522
G1 X-65.46116 Y58.98593
G1 X-59.64009 Y61.24349
G1 X-53.59491 Y63.30307
G1 X-47.34773 Y65.1514
G1 X-40.92174 Y66.7768
G1 X-34.34099 Y68.16916
G1 X-27.63024 Y69.31995
G1 X-20.81483 Y70.22221
G1 X-13.92054 Y70.87053
G1 X-6.97349 Y71.26107
G1 X0.0 Y71.3915
G1 X6.97349 Y71.26107
G1 X13.92054 Y70.87053
G1 X20.81483 Y70.22221
G1 X25.02333 Y69.66507
G1 F300.0 X25.3383 Y72.04431
G1 F800.0 X27.99068 Y71.69318
G1 X34.79238 Y70.52679
G1 X41.46461 Y69.11507
G1 X47.9827 Y67.46637
G1 X54.32265 Y65.59059
G1 X60.46134 Y63.49916
G1 X66.37665 Y61.20505
G1 X72.04767 Y58.72276
G1 X77.45487 Y56.06829
G1 X82.58038 Y53.25904
G1 X87.40823 Y50.31377
G1 X91.92459 Y47.25244
G1 X96.1181 Y44.09599
G1 X99.98015 Y40.86607
G1 X103.50518 Y37.58471
G1 X104.83754 Y36.2
G1 X-104.83754
G1 X-103.50518 Y37.58471
G1 X-99.98015 Y40.86607
G1 X-96.1181 Y44.09599
G1 X-91.92459 Y47.25244
G1 X-87.40823 Y50.31377
G1 X-82.58038 Y53.25904
G1 X-77.45487 Y56.06829
G1 X-72.04767 Y58.72276
G1 X-66.37665 Y61.20505
G1 X-60.46134 Y63.49916
G1 X-54.32265 Y65.59059
G1 X-47.9827 Y67.46637
G1 X-41.46461 Y69.11507
G1 X-34.79238 Y70.52679
G1 X-27.99068 Y71.69318
G1 X-21.08476 Y72.60742
G1 X-14.1003 Y73.26422
G1 X-7.06331 Y73.65981
G1 X0.0 Y73.79192
G1 X7.06331 Y73.65981
G1 X14.1003 Y73.26422
G1 X21.08476 Y72.60742
G1 X25.3383 Y72.04431
G1 F300.0 X25.65328 Y74.42355
G1 F800.0 X28.35112 Y74.0664
G1 X35.24377 Y72.88441
G1 X42.00748 Y71.45334
G1 X48.61766 Y69.78135
G1 X55.0504 Y67.87812
G1 X61.28259 Y65.75483
G1 X67.29215 Y63.42417
G1 X73.05814 Y60.90031
G1 X78.561 Y58.19887
G1 X83.78274 Y55.33688
G1 X88.70723 Y52.33266
G1 X93.3204 Y49.20571
