( Made using CamBam - http://www.cambam.co.uk )
( Elipse-Tafel 1/5/2018 6:44:32 PM )
( T3 : 3.0 )
G21 G90 G64 G40
G0 Z3.0
( T3 : 3.0 )
T3 M6
( Profil-Elipse-3mm )
G17
M3 S1000
G0 X166.96228 Y-9.5
G0 Z1.0
G1 F300.0 Z-2.0
G1 F800.0 X-166.85263
G1 X-167.27093 Y-6.23926
G1 X-167.49966 Y0.0
G1 X-167.27077 Y6.24373
G1 X-166.58467 Y12.47062
G1 X-165.44317 Y18.66389
G1 X-163.84924 Y24.80679
G1 X-161.80708 Y30.88266
G1 X-159.32207 Y36.875
G1 X-156.40079 Y42.76744
G1 X-153.05104 Y48.54389
G1 X-149.28178 Y54.18847
G1 X-145.10316 Y59.68565
G1 X-140.52646 Y65.02029
G1 X-135.5641 Y70.17763
G1 X-130.22957 Y75.14342
G1 X-124.5374 Y79.9039
G1 X-118.50315 Y84.44588
G1 X-112.14332 Y88.75678
G1 X-105.47533 Y92.82463
G1 X-98.51748 Y96.63817
G1 X-91.28884 Y100.18681
G1 X-83.80927 Y103.46073
G1 X-76.09931 Y106.45085
G1 X-68.18014 Y109.14889
G1 X-60.07353 Y111.54736
G1 X-51.80176 Y113.63964
G1 X-43.38756 Y115.41993
G1 X-34.85407 Y116.88329
G1 X-26.22475 Y118.02568
G1 X-17.52333 Y118.84394
G1 X-8.77373 Y119.33581
G1 X0.0 Y119.49991
G1 X8.77373 Y119.33581
G1 X17.52333 Y118.84394
G1 X26.22475 Y118.02568
G1 X34.85407 Y116.88329
G1 X43.38756 Y115.41993
G1 X51.80176 Y113.63964
G1 X60.07353 Y111.54736
G1 X68.18014 Y109.14889
G1 X76.09931 Y106.45085
G1 X83.80927 Y103.46073
G1 X91.28884 Y100.18681
G1 X98.51748 Y96.63817
G1 X105.47533 Y92.82463
G1 X112.14332 Y88.75678
G1 X118.50315 Y84.44588
G1 X124.5374 Y79.9039
G1 X130.22957 Y75.14342
G1 X135.5641 Y70.17763
G1 X140.52646 Y65.02029
G1 X145.10316 Y59.68565
G1 X149.28178 Y54.18847
G1 X153.05104 Y48.54389
G1 X156.40079 Y42.76744
G1 X159.32207 Y36.875
G1 X161.80708 Y30.88266
G1 X163.84924 Y24.80679
G1 X165.44317 Y18.66389
G1 X166.58467 Y12.47062
G1 X167.27077 Y6.24373
G1 X167.49966 Y0.0
G1 X167.27063 Y-6.24753
G1 X166.96228 Y-9.5
G1 F300.0 Z-4.0
G1 F800.0 X-166.85263
G1 X-167.27093 Y-6.23926
G1 X-167.49966 Y0.0
G1 X-167.27077 Y6.24373
G1 X-166.58467 Y12.47062
G1 X-165.44317 Y18.66389
G1 X-163.84924 Y24.80679
G1 X-161.80708 Y30.88266
G1 X-159.32207 Y36.875
G1 X-156.40079 Y42.76744
G1 X-153.05104 Y48.54389
G1 X-149.28178 Y54.18847
G1 X-145.10316 Y59.68565
G1 X-140.52646 Y65.02029
G1 X-135.5641 Y70.17763
G1 X-130.22957 Y75.14342
G1 X-124.5374 Y79.9039
G1 X-118.50315 Y84.44588
G1 X-112.14332 Y88.75678
G1 X-105.47533 Y92.82463
G1 X-98.51748 Y96.63817
G1 X-91.28884 Y100.18681
G1 X-83.80927 Y103.46073
G1 X-76.09931 Y106.45085
G1 X-68.18014 Y109.14889
G1 X-60.07353 Y111.54736
G1 X-51.80176 Y113.63964
G1 X-43.38756 Y115.41993
G1 X-34.85407 Y116.88329
G1 X-26.22475 Y118.02568
G1 X-17.52333 Y118.84394
G1 X-8.77373 Y119.33581
G1 X0.0 Y119.49991
G1 X8.77373 Y119.33581
G1 X17.52333 Y118.84394
G1 X26.22475 Y118.02568
G1 X34.85407 Y116.88329
G1 X43.38756 Y115.41993
G1 X51.80176 Y113.63964
G1 X60.07353 Y111.54736
G1 X68.18014 Y109.14889
G1 X76.09931 Y106.45085
G1 X83.80927 Y103.46073
G1 X91.28884 Y100.18681
G1 X98.51748 Y96.63817
G1 X105.47533 Y92.82463
G1 X112.14332 Y88.75678
G1 X118.50315 Y84.44588
G1 X124.5374 Y79.9039
G1 X130.22957 Y75.14342
G1 X135.5641 Y70.17763
G1 X140.52646 Y65.02029
G1 X145.10316 Y59.68565
G1 X149.28178 Y54.18847
G1 X153.05104 Y48.54389
G1 X156.40079 Y42.76744
G1 X159.32207 Y36.875
G1 X161.80708 Y30.88266
G1 X163.84924 Y24.80679
G1 X165.44317 Y18.66389
G1 X166.58467 Y12.47062
G1 X167.27077 Y6.24373
G1 X167.49966 Y0.0
G1 X167.27063 Y-6.24753
G1 X166.96228 Y-9.5
G1 F300.0 Z-6.0
G1 F800.0 X-166.85263
G1 X-167.27093 Y-6.23926
G1 X-167.49966 Y0.0
G1 X-167.27077 Y6.24373
G1 X-166.58467 Y12.47062
G1 X-165.44317 Y18.66389
G1 X-163.84924 Y24.80679
G1 X-161.80708 Y30.88266
G1 X-159.32207 Y36.875
G1 X-156.40079 Y42.76744
G1 X-153.05104 Y48.54389
G1 X-149.28178 Y54.18847
G1 X-145.10316 Y59.68565
G1 X-140.52646 Y65.02029
G1 X-135.5641 Y70.17763
G1 X-130.22957 Y75.14342
G1 X-124.5374 Y79.9039
G1 X-118.50315 Y84.44588
G1 X-112.14332 Y88.75678
G1 X-105.47533 Y92.82463
G1 X-98.51748 Y96.63817
G1 X-91.28884 Y100.18681
G1 X-83.80927 Y103.46073
G1 X-76.09931 Y106.45085
G1 X-68.18014 Y109.14889
G1 X-60.07353 Y111.54736
G1 X-51.80176 Y113.63964
G1 X-43.38756 Y115.41993
G1 X-34.85407 Y116.88329
G1 X-26.22475 Y118.02568
G1 X-17.52333 Y118.84394
G1 X-8.77373 Y119.33581
G1 X0.0 Y119.49991
G1 X8.77373 Y119.33581
G1 X17.52333 Y118.84394
G1 X26.22475 Y118.02568
G1 X34.85407 Y116.88329
G1 X43.38756 Y115.41993
G1 X51.80176 Y113.63964
G1 X60.07353 Y111.54736
G1 X68.18014 Y109.14889
G1 X76.09931 Y106.45085
G1 X83.80927 Y103.46073
G1 X91.28884 Y100.18681
G1 X98.51748 Y96.63817
G1 X105.47533 Y92.82463
G1 X112.14332 Y88.75678
G1 X118.50315 Y84.44588
G1 X124.5374 Y79.9039
G1 X130.22957 Y75.14342
G1 X135.5641 Y70.17763
G1 X140.52646 Y65.02029
G1 X145.10316 Y59.68565
G1 X149.28178 Y54.18847
G1 X153.05104 Y48.54389
G1 X156.40079 Y42.76744
G1 X159.32207 Y36.875
G1 X161.80708 Y30.88266
G1 X163.84924 Y24.80679
G1 X165.44317 Y18.66389
G1 X166.58467 Y12.47062
G1 X167.27077 Y6.24373
G1 X167.49966 Y0.0
G1 X167.27063 Y-6.24753
G1 X166.96228 Y-9.5
G1 F300.0 Z-8.0
G1 F800.0 X-166.85263
G1 X-167.27093 Y-6.23926
G1 X-167.49966 Y0.0
G1 X-167.27077 Y6.24373
G1 X-166.58467 Y12.47062
G1 X-165.44317 Y18.66389
G1 X-163.84924 Y24.80679
G1 X-161.80708 Y30.88266
G1 X-159.32207 Y36.875
G1 X-156.40079 Y42.76744
G1 X-153.05104 Y48.54389
G1 X-149.28178 Y54.18847
G1 X-145.10316 Y59.68565
G1 X-140.52646 Y65.02029
G1 X-135.5641 Y70.17763
G1 X-130.22957 Y75.14342
G1 X-124.5374 Y79.9039
G1 X-118.50315 Y84.44588
G1 X-112.14332 Y88.75678
G1 X-105.47533 Y92.82463
G1 X-98.51748 Y96.63817
G1 X-91.28884 Y100.18681
G1 X-83.80927 Y103.46073
G1 X-76.09931 Y106.45085
G1 X-68.18014 Y109.14889
G1 X-60.07353 Y111.54736
G1 X-51.80176 Y113.63964
G1 X-43.38756 Y115.41993
G1 X-34.85407 Y116.88329
G1 X-26.22475 Y118.02568
G1 X-17.52333 Y118.84394
G1 X-8.77373 Y119.33581
G1 X0.0 Y119.49991
G1 X8.77373 Y119.33581
G1 X17.52333 Y118.84394
G1 X26.22475 Y118.02568
G1 X34.85407 Y116.88329
G1 X43.38756 Y115.41993
G1 X51.80176 Y113.63964
G1 X60.07353 Y111.54736
G1 X68.18014 Y109.14889
G1 X76.09931 Y106.45085
G1 X83.80927 Y103.46073
G1 X91.28884 Y100.18681
G1 X98.51748 Y96.63817
G1 X105.47533 Y92.82463
G1 X112.14332 Y88.75678
G1 X118.50315 Y84.44588
G1 X124.5374 Y79.9039
G1 X130.22957 Y75.14342
G1 X135.5641 Y70.17763
G1 X140.52646 Y65.02029
G1 X145.10316 Y59.68565
G1 X149.28178 Y54.18847
G1 X153.05104 Y48.54389
G1 X156.40079 Y42.76744
G1 X159.32207 Y36.875
G1 X161.80708 Y30.88266
G1 X163.84924 Y24.80679
G1 X165.44317 Y18.66389
G1 X166.58467 Y12.47062
G1 X167.27077 Y6.24373
G1 X167.49966 Y0.0
G1 X167.27063 Y-6.24753
G1 X166.96228 Y-9.5
G1 F300.0 Z-10.0
G1 F800.0 X-166.85263
G1 X-167.27093 Y-6.23926
G1 X-167.49966 Y0.0
G1 X-167.27077 Y6.24373
G1 X-166.58467 Y12.47062
G1 X-165.44317 Y18.66389
G1 X-163.84924 Y24.80679
G1 X-161.80708 Y30.88266
G1 X-159.32207 Y36.875
G1 X-156.40079 Y42.76744
G1 X-153.05104 Y48.54389
G1 X-149.28178 Y54.18847
G1 X-145.10316 Y59.68565
G1 X-140.52646 Y65.02029
G1 X-135.5641 Y70.17763
G1 X-130.22957 Y75.14342
G1 X-124.5374 Y79.9039
G1 X-118.50315 Y84.44588
G1 X-112.14332 Y88.75678
G1 X-105.47533 Y92.82463
G1 X-98.51748 Y96.63817
G1 X-91.28884 Y100.18681
G1 X-83.80927 Y103.46073
G1 X-76.09931 Y106.45085
G1 X-68.18014 Y109.14889
G1 X-60.07353 Y111.54736
G1 X-51.80176 Y113.63964
G1 X-43.38756 Y115.41993
G1 X-34.85407 Y116.88329
G1 X-26.22475 Y118.02568
G1 X-17.52333 Y118.84394
G1 X-8.77373 Y119.33581
G1 X0.0 Y119.49991
G1 X8.77373 Y119.33581
G1 X17.52333 Y118.84394
G1 X26.22475 Y118.02568
G1 X34.85407 Y116.88329
G1 X43.38756 Y115.41993
G1 X51.80176 Y113.63964
G1 X60.07353 Y111.54736
G1 X68.18014 Y109.14889
G1 X76.09931 Y106.45085
G1 X83.80927 Y103.46073
G1 X91.28884 Y100.18681
G1 X98.51748 Y96.63817
G1 X105.47533 Y92.82463
G1 X112.14332 Y88.75678
G1 X118.50315 Y84.44588
G1 X124.5374 Y79.9039
G1 X130.22957 Y75.14342
G1 X135.5641 Y70.17763
G1 X140.52646 Y65.02029
G1 X145.10316 Y59.68565
G1 X149.28178 Y54.18847
G1 X153.05104 Y48.54389
G1 X156.40079 Y42.76744
G1 X159.32207 Y36.875
G1 X161.80708 Y30.88266
G1 X163.84924 Y24.80679
G1 X165.44317 Y18.66389
G1 X166.58467 Y12.47062
G1 X167.27077 Y6.24373
G1 X167.49966 Y0.0
G1 X167.27063 Y-6.24753
G1 X166.96228 Y-9.5
G1 F300.0 Z-12.0
G1 F800.0 X-166.85263
G1 X-167.27093 Y-6.23926
G1 X-167.49966 Y0.0
G1 X-167.27077 Y6.24373
G1 X-166.58467 Y12.47062
G1 X-165.44317 Y18.66389
G1 X-163.84924 Y24.80679
G1 X-161.80708 Y30.88266
G1 X-159.32207 Y36.875
G1 X-156.40079 Y42.76744
G1 X-153.05104 Y48.54389
G1 X-149.28178 Y54.18847
G1 X-145.10316 Y59.68565
G1 X-140.52646 Y65.02029
G1 X-135.5641 Y70.17763
G1 X-130.22957 Y75.14342
G1 X-124.5374 Y79.9039
G1 X-118.50315 Y84.44588
G1 X-112.14332 Y88.75678
G1 X-105.47533 Y92.82463
G1 X-98.51748 Y96.63817
G1 X-91.28884 Y100.18681
G1 X-83.80927 Y103.46073
G1 X-76.09931 Y106.45085
G1 X-68.18014 Y109.14889
G1 X-60.07353 Y111.54736
G1 X-51.80176 Y113.63964
G1 X-43.38756 Y115.41993
G1 X-34.85407 Y116.88329
G1 X-26.22475 Y118.02568
G1 X-17.52333 Y118.84394
G1 X-8.77373 Y119.33581
G1 X0.0 Y119.49991
G1 X8.77373 Y119.33581
G1 X17.52333 Y118.84394
G1 X26.22475 Y118.02568
G1 X34.85407 Y116.88329
G1 X43.38756 Y115.41993
G1 X51.80176 Y113.63964
G1 X60.07353 Y111.54736
G1 X68.18014 Y109.14889
G1 X76.09931 Y106.45085
G1 X83.80927 Y103.46073
G1 X91.28884 Y100.18681
G1 X98.51748 Y96.63817
G1 X105.47533 Y92.82463
G1 X112.14332 Y88.75678
G1 X118.50315 Y84.44588
G1 X124.5374 Y79.9039
G1 X130.22957 Y75.14342
G1 X135.5641 Y70.17763
G1 X140.52646 Y65.02029
G1 X145.10316 Y59.68565
G1 X149.28178 Y54.18847
G1 X153.05104 Y48.54389
G1 X156.40079 Y42.76744
G1 X159.32207 Y36.875
G1 X161.80708 Y30.88266
G1 X163.84924 Y24.80679
G1 X165.44317 Y18.66389
G1 X166.58467 Y12.47062
G1 X167.27077 Y6.24373
G1 X167.49966 Y0.0
G1 X167.27063 Y-6.24753
G1 X166.96228 Y-9.5
G1 F300.0 Z-14.0
G1 F800.0 X-166.85263
G1 X-167.27093 Y-6.23926
G1 X-167.49966 Y0.0
G1 X-167.27077 Y6.24373
G1 X-166.58467 Y12.47062
G1 X-165.44317 Y18.66389
G1 X-163.84924 Y24.80679
G1 X-161.80708 Y30.88266
G1 X-159.32207 Y36.875
G1 X-156.40079 Y42.76744
G1 X-153.05104 Y48.54389
G1 X-149.28178 Y54.18847
G1 X-145.10316 Y59.68565
G1 X-140.52646 Y65.02029
G1 X-135.5641 Y70.17763
G1 X-130.22957 Y75.14342
G1 X-124.5374 Y79.9039
G1 X-118.50315 Y84.44588
G1 X-112.14332 Y88.75678
G1 X-105.47533 Y92.82463
G1 X-98.51748 Y96.63817
G1 X-91.28884 Y100.18681
G1 X-83.80927 Y103.46073
G1 X-76.09931 Y106.45085
G1 X-68.18014 Y109.14889
G1 X-60.07353 Y111.54736
G1 X-51.80176 Y113.63964
G1 X-43.38756 Y115.41993
G1 X-34.85407 Y116.88329
G1 X-26.22475 Y118.02568
G1 X-17.52333 Y118.84394
G1 X-8.77373 Y119.33581
G1 X0.0 Y119.49991
G1 X8.77373 Y119.33581
G1 X17.52333 Y118.84394
G1 X26.22475 Y118.02568
G1 X34.85407 Y116.88329
G1 X43.38756 Y115.41993
G1 X51.80176 Y113.63964
G1 X60.07353 Y111.54736
G1 X68.18014 Y109.14889
G1 X76.09931 Y106.45085
G1 X83.80927 Y103.46073
G1 X91.28884 Y100.18681
G1 X98.51748 Y96.63817
G1 X105.47533 Y92.82463
G1 X112.14332 Y88.75678
G1 X118.50315 Y84.44588
G1 X124.5374 Y79.9039
G1 X130.22957 Y75.14342
G1 X135.5641 Y70.17763
G1 X140.52646 Y65.02029
G1 X145.10316 Y59.68565
G1 X149.28178 Y54.18847
G1 X153.05104 Y48.54389
G1 X156.40079 Y42.76744
G1 X159.32207 Y36.875
G1 X161.80708 Y30.88266
G1 X163.84924 Y24.80679
G1 X165.44317 Y18.66389
G1 X166.58467 Y12.47062
G1 X167.27077 Y6.24373
G1 X167.49966 Y0.0
G1 X167.27063 Y-6.24753
G1 X166.96228 Y-9.5
G1 F300.0 Z-16.0
G1 F800.0 X-166.85263
G1 X-167.27093 Y-6.23926
G1 X-167.49966 Y0.0
G1 X-167.27077 Y6.24373
G1 X-166.58467 Y12.47062
G1 X-165.44317 Y18.66389
G1 X-163.84924 Y24.80679
G1 X-161.80708 Y30.88266
G1 X-159.32207 Y36.875
G1 X-156.40079 Y42.76744
G1 X-153.05104 Y48.54389
G1 X-149.28178 Y54.18847
G1 X-145.10316 Y59.68565
G1 X-140.52646 Y65.02029
G1 X-135.5641 Y70.17763
G1 X-130.22957 Y75.14342
G1 X-124.5374 Y79.9039
G1 X-118.50315 Y84.44588
G1 X-112.14332 Y88.75678
G1 X-105.47533 Y92.82463
G1 X-98.51748 Y96.63817
G1 X-91.28884 Y100.18681
G1 X-83.80927 Y103.46073
G1 X-76.09931 Y106.45085
G1 X-68.18014 Y109.14889
G1 X-60.07353 Y111.54736
G1 X-51.80176 Y113.63964
G1 X-43.38756 Y115.41993
G1 X-34.85407 Y116.88329
G1 X-26.22475 Y118.02568
G1 X-17.52333 Y118.84394
G1 X-8.77373 Y119.33581
G1 X0.0 Y119.49991
G1 X8.77373 Y119.33581
G1 X17.52333 Y118.84394
G1 X26.22475 Y118.02568
G1 X34.85407 Y116.88329
G1 X43.38756 Y115.41993
G1 X51.80176 Y113.63964
G1 X60.07353 Y111.54736
G1 X68.18014 Y109.14889
G1 X76.09931 Y106.45085
G1 X83.80927 Y103.46073
G1 X91.28884 Y100.18681
G1 X98.51748 Y96.63817
G1 X105.47533 Y92.82463
G1 X112.14332 Y88.75678
G1 X118.50315 Y84.44588
G1 X124.5374 Y79.9039
G1 X130.22957 Y75.14342
G1 X135.5641 Y70.17763
G1 X140.52646 Y65.02029
G1 X145.10316 Y59.68565
G1 X149.28178 Y54.18847
G1 X153.05104 Y48.54389
G1 X156.40079 Y42.76744
G1 X159.32207 Y36.875
G1 X161.80708 Y30.88266
G1 X163.84924 Y24.80679
G1 X165.44317 Y18.66389
G1 X166.58467 Y12.47062
G1 X167.27077 Y6.24373
G1 X167.49966 Y0.0
G1 X167.27063 Y-6.24753
G1 X166.96228 Y-9.5
G1 F300.0 Z-18.0
G1 F800.0 X-166.85263
G1 X-167.27093 Y-6.23926
G1 X-167.49966 Y0.0
G1 X-167.27077 Y6.24373
G1 X-166.58467 Y12.47062
G1 X-165.44317 Y18.66389
G1 X-163.84924 Y24.80679
G1 X-161.80708 Y30.88266
G1 X-159.32207 Y36.875
G1 X-156.40079 Y42.76744
G1 X-153.05104 Y48.54389
G1 X-149.28178 Y54.18847
G1 X-145.10316 Y59.68565
G1 X-140.52646 Y65.02029
G1 X-135.5641 Y70.17763
G1 X-130.22957 Y75.14342
G1 X-124.5374 Y79.9039
G1 X-118.50315 Y84.44588
G1 X-112.14332 Y88.75678
G1 X-105.47533 Y92.82463
G1 X-98.51748 Y96.63817
G1 X-91.28884 Y100.18681
G1 X-83.80927 Y103.46073
G1 X-76.09931 Y106.45085
G1 X-68.18014 Y109.14889
G1 X-60.07353 Y111.54736
G1 X-51.80176 Y113.63964
G1 X-43.38756 Y115.41993
G1 X-34.85407 Y116.88329
G1 X-26.22475 Y118.02568
G1 X-17.52333 Y118.84394
G1 X-8.77373 Y119.33581
G1 X0.0 Y119.49991
G1 X8.77373 Y119.33581
G1 X17.52333 Y118.84394
G1 X26.22475 Y118.02568
G1 X34.85407 Y116.88329
G1 X43.38756 Y115.41993
G1 X51.80176 Y113.63964
G1 X60.07353 Y111.54736
G1 X68.18014 Y109.14889
G1 X76.09931 Y106.45085
G1 X83.80927 Y103.46073
G1 X91.28884 Y100.18681
G1 X98.51748 Y96.63817
G1 X105.47533 Y92.82463
G1 X112.14332 Y88.75678
G1 X118.50315 Y84.44588
G1 X124.5374 Y79.9039
G1 X130.22957 Y75.14342
G1 X135.5641 Y70.17763
G1 X140.52646 Y65.02029
G1 X145.10316 Y59.68565
G1 X149.28178 Y54.18847
G1 X153.05104 Y48.54389
G1 X156.40079 Y42.76744
G1 X159.32207 Y36.875
G1 X161.80708 Y30.88266
G1 X163.84924 Y24.80679
G1 X165.44317 Y18.66389
G1 X166.58467 Y12.47062
G1 X167.27077 Y6.24373
G1 X167.49966 Y0.0
G1 X167.27063 Y-6.24753
G1 X166.96228 Y-9.5
G0 Z3.0
M5
M30
