( Made using CamBam - http://www.cambam.co.uk )
( Elipse-Einsatz 1/11/2018 5:49:28 PM )
( T6 : 6.0 )
G21 G90 G64 G40
G0 Z3.0
( T6 : 6.0 )
T6 M6
( Bohrung )
G17
M3 S1000
G0 X-99.7 Y80.0
G0 Z1.0
G1 F300.0 Z-2.0
G2 F800.0 X-100.15 Y79.74019 I-0.3 J0.0
G2 Y80.25981 I0.15 J0.25981
G2 X-99.7 Y80.0 I0.15 J-0.25981
G1 F300.0 X-98.5
G2 F800.0 X-100.75 Y78.70096 I-1.5 J0.0
G2 Y81.29904 I0.75 J1.29904
G2 X-98.5 Y80.0 I0.75 J-1.29904
G1 F300.0 X-99.7
G1 Z-4.0
G2 F800.0 X-100.15 Y79.74019 I-0.3 J0.0
G2 Y80.25981 I0.15 J0.25981
G2 X-99.7 Y80.0 I0.15 J-0.25981
G1 F300.0 X-98.5
G2 F800.0 X-100.75 Y78.70096 I-1.5 J0.0
G2 Y81.29904 I0.75 J1.29904
G2 X-98.5 Y80.0 I0.75 J-1.29904
G1 F300.0 X-99.7
G1 Z-6.0
G2 F800.0 X-100.15 Y79.74019 I-0.3 J0.0
G2 Y80.25981 I0.15 J0.25981
G2 X-99.7 Y80.0 I0.15 J-0.25981
G1 F300.0 X-98.5
G2 F800.0 X-100.75 Y78.70096 I-1.5 J0.0
G2 Y81.29904 I0.75 J1.29904
G2 X-98.5 Y80.0 I0.75 J-1.29904
G1 F300.0 X-99.7
G1 Z-8.0
G2 F800.0 X-100.15 Y79.74019 I-0.3 J0.0
G2 Y80.25981 I0.15 J0.25981
G2 X-99.7 Y80.0 I0.15 J-0.25981
G1 F300.0 X-98.5
G2 F800.0 X-100.75 Y78.70096 I-1.5 J0.0
G2 Y81.29904 I0.75 J1.29904
G2 X-98.5 Y80.0 I0.75 J-1.29904
G1 F300.0 X-99.7
G1 Z-10.0
G2 F800.0 X-100.15 Y79.74019 I-0.3 J0.0
G2 Y80.25981 I0.15 J0.25981
G2 X-99.7 Y80.0 I0.15 J-0.25981
G1 F300.0 X-98.5
G2 F800.0 X-100.75 Y78.70096 I-1.5 J0.0
G2 Y81.29904 I0.75 J1.29904
G2 X-98.5 Y80.0 I0.75 J-1.29904
G1 F300.0 X-99.7
G1 Z-12.0
G2 F800.0 X-100.15 Y79.74019 I-0.3 J0.0
G2 Y80.25981 I0.15 J0.25981
G2 X-99.7 Y80.0 I0.15 J-0.25981
G1 F300.0 X-98.5
G2 F800.0 X-100.75 Y78.70096 I-1.5 J0.0
G2 Y81.29904 I0.75 J1.29904
G2 X-98.5 Y80.0 I0.75 J-1.29904
G1 F300.0 X-99.7
G1 Z-14.0
G2 F800.0 X-100.15 Y79.74019 I-0.3 J0.0
G2 Y80.25981 I0.15 J0.25981
G2 X-99.7 Y80.0 I0.15 J-0.25981
G1 F300.0 X-98.5
G2 F800.0 X-100.75 Y78.70096 I-1.5 J0.0
G2 Y81.29904 I0.75 J1.29904
G2 X-98.5 Y80.0 I0.75 J-1.29904
G1 F300.0 X-99.7
G1 Z-16.0
G2 F800.0 X-100.15 Y79.74019 I-0.3 J0.0
G2 Y80.25981 I0.15 J0.25981
G2 X-99.7 Y80.0 I0.15 J-0.25981
G1 F300.0 X-98.5
G2 F800.0 X-100.75 Y78.70096 I-1.5 J0.0
G2 Y81.29904 I0.75 J1.29904
G2 X-98.5 Y80.0 I0.75 J-1.29904
G1 F300.0 X-99.7
G1 Z-18.0
G2 F800.0 X-100.15 Y79.74019 I-0.3 J0.0
G2 Y80.25981 I0.15 J0.25981
G2 X-99.7 Y80.0 I0.15 J-0.25981
G1 F300.0 X-98.5
G2 F800.0 X-100.75 Y78.70096 I-1.5 J0.0
G2 Y81.29904 I0.75 J1.29904
G2 X-98.5 Y80.0 I0.75 J-1.29904
G0 Z3.0
G0 X99.7
G0 Z1.0
G1 F300.0 Z-2.0
G2 F800.0 X99.85 Y80.25981 I0.3 J0.0
G2 X100.3 Y80.0 I0.15 J-0.25981
G2 X99.85 Y79.74019 I-0.3 J0.0
G2 X99.7 Y80.0 I0.15 J0.25981
G1 F300.0 X98.5
G2 F800.0 X99.25 Y81.29904 I1.5 J0.0
G2 X101.5 Y80.0 I0.75 J-1.29904
G2 X99.25 Y78.70096 I-1.5 J0.0
G2 X98.5 Y80.0 I0.75 J1.29904
G1 F300.0 X99.7
G1 Z-4.0
G2 F800.0 X99.85 Y80.25981 I0.3 J0.0
G2 X100.3 Y80.0 I0.15 J-0.25981
G2 X99.85 Y79.74019 I-0.3 J0.0
G2 X99.7 Y80.0 I0.15 J0.25981
G1 F300.0 X98.5
G2 F800.0 X99.25 Y81.29904 I1.5 J0.0
G2 X101.5 Y80.0 I0.75 J-1.29904
G2 X99.25 Y78.70096 I-1.5 J0.0
G2 X98.5 Y80.0 I0.75 J1.29904
G1 F300.0 X99.7
G1 Z-6.0
G2 F800.0 X99.85 Y80.25981 I0.3 J0.0
G2 X100.3 Y80.0 I0.15 J-0.25981
G2 X99.85 Y79.74019 I-0.3 J0.0
G2 X99.7 Y80.0 I0.15 J0.25981
G1 F300.0 X98.5
G2 F800.0 X99.25 Y81.29904 I1.5 J0.0
G2 X101.5 Y80.0 I0.75 J-1.29904
G2 X99.25 Y78.70096 I-1.5 J0.0
G2 X98.5 Y80.0 I0.75 J1.29904
G1 F300.0 X99.7
G1 Z-8.0
G2 F800.0 X99.85 Y80.25981 I0.3 J0.0
G2 X100.3 Y80.0 I0.15 J-0.25981
G2 X99.85 Y79.74019 I-0.3 J0.0
G2 X99.7 Y80.0 I0.15 J0.25981
G1 F300.0 X98.5
G2 F800.0 X99.25 Y81.29904 I1.5 J0.0
G2 X101.5 Y80.0 I0.75 J-1.29904
G2 X99.25 Y78.70096 I-1.5 J0.0
G2 X98.5 Y80.0 I0.75 J1.29904
G1 F300.0 X99.7
G1 Z-10.0
G2 F800.0 X99.85 Y80.25981 I0.3 J0.0
G2 X100.3 Y80.0 I0.15 J-0.25981
G2 X99.85 Y79.74019 I-0.3 J0.0
G2 X99.7 Y80.0 I0.15 J0.25981
G1 F300.0 X98.5
G2 F800.0 X99.25 Y81.29904 I1.5 J0.0
G2 X101.5 Y80.0 I0.75 J-1.29904
G2 X99.25 Y78.70096 I-1.5 J0.0
G2 X98.5 Y80.0 I0.75 J1.29904
G1 F300.0 X99.7
G1 Z-12.0
G2 F800.0 X99.85 Y80.25981 I0.3 J0.0
G2 X100.3 Y80.0 I0.15 J-0.25981
G2 X99.85 Y79.74019 I-0.3 J0.0
G2 X99.7 Y80.0 I0.15 J0.25981
G1 F300.0 X98.5
G2 F800.0 X99.25 Y81.29904 I1.5 J0.0
G2 X101.5 Y80.0 I0.75 J-1.29904
G2 X99.25 Y78.70096 I-1.5 J0.0
G2 X98.5 Y80.0 I0.75 J1.29904
G1 F300.0 X99.7
G1 Z-14.0
G2 F800.0 X99.85 Y80.25981 I0.3 J0.0
G2 X100.3 Y80.0 I0.15 J-0.25981
G2 X99.85 Y79.74019 I-0.3 J0.0
G2 X99.7 Y80.0 I0.15 J0.25981
G1 F300.0 X98.5
G2 F800.0 X99.25 Y81.29904 I1.5 J0.0
G2 X101.5 Y80.0 I0.75 J-1.29904
G2 X99.25 Y78.70096 I-1.5 J0.0
G2 X98.5 Y80.0 I0.75 J1.29904
G1 F300.0 X99.7
G1 Z-16.0
G2 F800.0 X99.85 Y80.25981 I0.3 J0.0
G2 X100.3 Y80.0 I0.15 J-0.25981
G2 X99.85 Y79.74019 I-0.3 J0.0
G2 X99.7 Y80.0 I0.15 J0.25981
G1 F300.0 X98.5
G2 F800.0 X99.25 Y81.29904 I1.5 J0.0
G2 X101.5 Y80.0 I0.75 J-1.29904
G2 X99.25 Y78.70096 I-1.5 J0.0
G2 X98.5 Y80.0 I0.75 J1.29904
G1 F300.0 X99.7
G1 Z-18.0
G2 F800.0 X99.85 Y80.25981 I0.3 J0.0
G2 X100.3 Y80.0 I0.15 J-0.25981
G2 X99.85 Y79.74019 I-0.3 J0.0
G2 X99.7 Y80.0 I0.15 J0.25981
G1 F300.0 X98.5
G2 F800.0 X99.25 Y81.29904 I1.5 J0.0
G2 X101.5 Y80.0 I0.75 J-1.29904
G2 X99.25 Y78.70096 I-1.5 J0.0
G2 X98.5 Y80.0 I0.75 J1.29904
G0 Z3.0
M5
M30
