( Made using CamBam - http://www.cambam.co.uk )
( Tafel-Hof-rechts-oben 1/2/2018 3:36:58 PM )
( T1 : 1.0 )
( T2 : 2.0 )
( T3 : 3.0 )
( T6 : 6.0 )
( T21 : 4.0 )
G21 G90 G64 G40
G0 Z3.0
( T6 : 6.0 )
T6 M6
( Tasche-Wappen-Vertiefung )
G17
M3 S1000
G0 X329.62639 Y56.36864
G0 Z1.0
G1 F300.0 Z-1.0
G3 F800.0 X327.72773 Y53.57811 I1.10134 J-2.79053
G1 Y47.73358
G3 X330.72773 Y44.73358 I3.0 J0.0
G1 X339.36747
G3 X342.36747 Y47.73358 I0.0 J3.0
G1 Y53.57811
G3 X339.36747 Y56.57811 I-3.0 J0.0
G1 X330.72773
G3 X329.62639 Y56.36864 I0.0 J-3.0
G0 Z3.0
G0 X349.18055 Y61.47384
G0 Z1.0
G1 F300.0 Z-1.0
G1 F800.0 X353.35841 Y61.47963
G3 X351.31136 Y57.57595 I9.95894 J-7.71094
G3 X349.18055 Y61.47384 I-11.94388 J-3.99784
G0 Z3.0
G0 X351.30608 Y40.82147
G0 Z1.0
G1 F300.0 Z-1.0
G3 F800.0 X351.81339 Y39.99294 I12.01127 J6.78505
G1 X350.78632
G3 X351.30608 Y40.82147 I-11.41885 J7.74063
G1 F300.0 X352.3509 Y41.41168
G3 F800.0 X354.31957 Y38.79294 I10.96645 J6.19484
G1 X348.23901
G3 X351.3217 Y43.76679 I-8.87154 J8.94063
G3 X352.3509 Y41.41168 I11.99565 J3.83973
G0 Z3.0
G0 X365.51768 Y35.01132
G0 Z1.0
G1 F300.0 Z-1.0
G1 F800.0 X367.92335
G1 X367.06707 Y33.08224
G3 X365.51768 Y35.01132 I-10.54717 J-6.88449
G0 Z3.0
G0 X357.27089 Y14.37526
G0 Z1.0
G1 F300.0 Z-1.0
G1 F800.0 X353.63701 Y12.46869
G1 X350.82358 Y12.6502
G1 X346.56752 Y14.45461
G3 X347.75311 Y14.32274 I1.18558 J5.26332
G1 X356.5199
G3 X357.27089 Y14.37526 I0.0 J5.3952
G0 Z3.0
G0 X336.41149 Y31.67558
G0 Z1.0
G1 F300.0 Z-1.0
G1 F800.0 X334.48591 Y35.13838
G1 X338.88157
G3 X336.41149 Y31.67558 I8.87154 J-8.94063
G1 F300.0 X338.57262 Y30.63179
G3 F800.0 X337.55791 Y26.19774 I9.18049 J-4.43404
G1 Y24.67558
G1 X331.32799 Y35.87895
G1 X331.31425 Y37.53838
G1 X339.36747
G3 X349.56267 Y47.73358 I0.0 J10.1952
G1 Y53.57811
G3 X339.36747 Y63.77331 I-10.1952 J0.0
G1 X331.09698
G1 X331.09636 Y63.84876
G1 X362.10682 Y63.89177
G3 X353.12215 Y53.76869 I1.21053 J-10.12308
G1 Y47.60652
G3 X363.31735 Y37.41132 I10.1952 J0.0
G1 X371.4056
G1 X371.23431 Y36.55487
G1 X366.71364 Y26.37038
G3 X356.5199 Y36.39294 I-10.19374 J-0.17264
G1 X347.75311
G3 X338.57262 Y30.63179 I0.0 J-10.1952
G1 F300.0 X340.73375 Y29.58799
G3 F800.0 X339.95791 Y26.19774 I7.01936 J-3.39025
G1 Y19.86363
G1 X336.72556 Y21.23403
G1 X328.93314 Y35.24728
G1 X328.89248 Y40.1575
G3 X330.72773 Y39.93838 I1.83525 J7.57608
G1 X339.36747
G3 X347.16267 Y47.73358 I0.0 J7.7952
G1 Y53.57811
G3 X339.36747 Y61.37331 I-7.7952 J0.0
G1 X330.72773
G3 X328.71896 Y61.11004 I0.0 J-7.7952
G1 X328.67643 Y66.2454
G1 X374.05068 Y66.30834
G1 X374.09884 Y61.29904
G3 X372.08415 Y61.56389 I-2.0147 J-7.53035
G1 X363.31735
G3 X355.52215 Y53.76869 I0.0 J-7.7952
G1 Y47.60652
G3 X363.31735 Y39.81132 I7.7952 J0.0
G1 X372.08415
G3 X374.30236 Y40.13359 I0.0 J7.7952
G1 X374.30673 Y39.67931
G1 X373.53563 Y35.82385
G1 X367.6308 Y22.52099
G1 X364.3151 Y20.78137
G1 Y26.19774
G3 X356.5199 Y33.99294 I-7.7952 J0.0
G1 X347.75311
G3 X340.73375 Y29.58799 I0.0 J-7.7952
G1 F300.0 X342.89488 Y28.5442
G3 F800.0 X342.35791 Y26.19774 I4.85822 J-2.34645
G1 Y19.71794
G3 X344.79447 Y15.20632 I5.3952 J0.0
G1 X335.02906 Y19.3465
G1 X326.53829 Y34.61561
G1 X326.45695 Y44.43681
G3 X330.72773 Y42.33838 I4.27077 J3.29677
G1 X339.36747
G3 X344.76267 Y47.73358 I0.0 J5.3952
G1 Y53.57811
G3 X339.36747 Y58.97331 I-5.3952 J0.0
G1 X330.72773
G3 X326.35508 Y56.73851 I0.0 J-5.3952
G1 X326.2565 Y68.64205
G1 X376.42768 Y68.71164
G1 X376.54214 Y56.80752
G3 X372.08415 Y59.16389 I-4.458 J-3.03883
G1 X363.31735
G3 X357.92215 Y53.76869 I0.0 J-5.3952
G1 Y47.60652
G3 X363.31735 Y42.21132 I5.3952 J0.0
G1 X372.08415
G3 X376.65813 Y44.74524 I0.0 J5.3952
G1 X376.70901 Y39.45309
G1 X375.83696 Y35.09283
G1 X369.48552 Y20.78383
G1 X360.48922 Y16.0638
G3 X361.9151 Y19.71794 I-3.96931 J3.65414
G1 Y26.19774
G3 X356.5199 Y31.59294 I-5.3952 J0.0
G1 X347.75311
G3 X342.89488 Y28.5442 I0.0 J-5.3952
G0 Z3.0
G0 X330.88273 Y21.86454
G0 Z1.0
G1 F300.0 Z-1.0
G1 F800.0 X324.14344 Y33.98394
G1 X323.83657 Y71.0387
G1 X378.80468 Y71.11494
G1 X379.1113 Y39.22688
G1 X378.13828 Y34.3618
G1 X371.34024 Y19.04666
G1 X354.15515 Y10.03027
G1 X350.26217 Y10.28143
G1 X333.33256 Y17.45896
G1 X330.88273 Y21.86454
G0 Z3.0
G0 X344.75311
G0 Z1.0
G1 F300.0 Z-1.0
G1 F800.0 Y19.71794
G3 X347.75311 Y16.71794 I3.0 J0.0
G1 X356.5199
G3 X359.5199 Y19.71794 I0.0 J3.0
G1 Y26.19774
G3 X356.5199 Y29.19774 I-3.0 J0.0
G1 X347.75311
G3 X344.75311 Y26.19774 I0.0 J-3.0
G1 Y21.86454
G0 Z3.0
G0 X361.56257 Y45.17326
G0 Z1.0
G1 F300.0 Z-1.0
G3 F800.0 X363.31735 Y44.60652 I1.75478 J2.43326
G1 X372.08415
G3 X375.08415 Y47.60652 I0.0 J3.0
G1 Y53.76869
G3 X372.08415 Y56.76869 I-3.0 J0.0
G1 X363.31735
G3 X360.31735 Y53.76869 I0.0 J-3.0
G1 Y47.60652
G3 X361.56257 Y45.17326 I3.0 J0.0
( Tasche-Wappen-Endtiefe )
G0 Z3.0
( T3 : 3.0 )
T3 M6
M3 S1000
G0 X344.75466 Y19.07707
G0 Z1.0
G1 F300.0 Z-1.0
G3 F800.0 X347.01744 Y20.40413 I-2.32114 J6.55048
G3 X347.28961 Y20.70813 I-1.12132 J1.27775
G3 X347.4209 Y20.90436 I-4.78127 J3.34111
G2 X345.97551 Y18.70844 I-4.69137 J1.5143
G2 X345.12382 Y18.86993 I-0.24739 J1.02197
G3 X345.07083 Y18.90567 I-0.97702 J-1.3912
G3 X344.75466 Y19.07707 I-1.25625 J-1.93997
G1 F300.0 Z-2.0
G3 F800.0 X347.01744 Y20.40413 I-2.32114 J6.55048
G3 X347.28961 Y20.70813 I-1.12132 J1.27775
G3 X347.4209 Y20.90436 I-4.78127 J3.34111
G2 X345.97551 Y18.70844 I-4.69137 J1.5143
G2 X345.12382 Y18.86993 I-0.24739 J1.02197
G3 X345.07083 Y18.90567 I-0.97702 J-1.3912
G3 X344.75466 Y19.07707 I-1.25625 J-1.93997
G1 F300.0 Z-3.0
G3 F800.0 X347.01744 Y20.40413 I-2.32114 J6.55048
G3 X347.28961 Y20.70813 I-1.12132 J1.27775
G3 X347.4209 Y20.90436 I-4.78127 J3.34111
G2 X345.97551 Y18.70844 I-4.69137 J1.5143
G2 X345.12382 Y18.86993 I-0.24739 J1.02197
G3 X345.07083 Y18.90567 I-0.97702 J-1.3912
G3 X344.75466 Y19.07707 I-1.25625 J-1.93997
G0 Z3.0
G0 X356.51618 Y21.22595
G0 Z1.0
G1 F300.0 Z-1.0
G2 F800.0 X356.46395 Y21.52738 I16.4628 J3.00781
G3 X359.10369 Y19.26719 I4.60636 J2.7083
G3 X358.06645 Y18.57388 I0.91531 J-2.4919
G2 X356.8815 Y19.59362 I-0.02349 J1.17105
G3 X356.83561 Y19.82215 I-1.68576 J-0.21961
G2 X356.51618 Y21.22595 I16.14337 J4.41161
G1 F300.0 Z-2.0
G2 F800.0 X356.46395 Y21.52738 I16.4628 J3.00781
G3 X359.10369 Y19.26719 I4.60636 J2.7083
G3 X358.06645 Y18.57388 I0.91531 J-2.4919
G2 X356.8815 Y19.59362 I-0.02349 J1.17105
G3 X356.83561 Y19.82215 I-1.68576 J-0.21961
G2 X356.51618 Y21.22595 I16.14337 J4.41161
G1 F300.0 Z-3.0
G2 F800.0 X356.46395 Y21.52738 I16.4628 J3.00781
G3 X359.10369 Y19.26719 I4.60636 J2.7083
G3 X358.06645 Y18.57388 I0.91531 J-2.4919
G2 X356.8815 Y19.59362 I-0.02349 J1.17105
G3 X356.83561 Y19.82215 I-1.68576 J-0.21961
G2 X356.51618 Y21.22595 I16.14337 J4.41161
G0 Z3.0
G0 X371.43765 Y26.92584
G0 Z1.0
G1 F300.0 Z-1.0
G3 F800.0 X371.526 Y27.39427 I-26.6131 J5.26156
G3 X371.73421 Y27.49307 I-4.17453 J9.06594
G2 X371.43765 Y26.92584 I-20.52875 J10.37162
G1 F300.0 X370.26044 Y27.15858
G3 F800.0 X370.45126 Y28.24467 I-25.43589 J5.02882
G3 X374.52492 Y31.39609 I-3.0998 J8.21554
G2 X371.1974 Y24.22789 I-23.31946 J6.46861
G3 X370.06251 Y26.24442 I-7.19943 J-2.72421
G3 X370.26044 Y27.15858 I-25.23796 J5.94298
G1 F300.0 X369.08323 Y27.39133
G3 F800.0 X369.36576 Y29.15183 I-24.25868 J4.79608
G3 X374.4241 Y33.73118 I-2.0143 J7.30837
G3 X374.65066 Y34.11479 I-11.60323 J7.11175
G3 X376.38461 Y34.52245 I-1.36872 J9.71324
G2 X370.49346 Y21.33796 I-25.17915 J3.34225
G3 X368.74946 Y25.93564 I-6.49549 J0.16573
G3 X369.08323 Y27.39133 I-23.92491 J6.25176
G1 F300.0 X367.90601 Y27.62407
G3 F800.0 X368.26397 Y30.14491 I-23.08146 J4.56333
G3 X373.34228 Y34.26345 I-0.91251 J6.3153
G3 X373.89351 Y35.24058 I-10.52141 J6.57948
G3 X377.76944 Y36.48087 I-0.61156 J8.58746
G2 X366.18199 Y15.88144 I-26.56398 J1.38382
G3 X366.19541 Y16.55113 I-8.59425 J0.50716
G3 X367.94187 Y17.96671 I-3.55187 J6.16726
G3 X367.67626 Y25.31614 I-3.9439 J3.53698
G3 X367.40277 Y25.5691 I-6.14102 J-6.36502
G3 X367.90601 Y27.62407 I-22.57822 J6.6183
G1 F300.0 X366.7288 Y27.85681
G3 F800.0 X367.11671 Y30.91855 I-21.90425 J4.33059
G3 X367.13205 Y31.28397 I-8.24191 J0.52921
G3 X372.25617 Y34.79128 I0.21941 J5.17623
G3 X373.12224 Y36.42375 I-9.43531 J6.05165
G3 X373.12774 Y36.42349 I0.37737 J7.96686
G3 X373.36438 Y36.41929 I0.19105 J4.09314
G3 X379.00546 Y39.12297 I-0.08243 J7.40875
G1 Y37.86469
G2 X364.35461 Y13.37102 I-27.8 J0.0
G3 X364.94466 Y17.26724 I-6.76687 J3.01757
G3 X367.04851 Y18.76789 I-2.30113 J5.45115
G3 X366.84307 Y24.45255 I-3.05053 J2.73579
G3 X366.01361 Y25.14652 I-5.30783 J-5.50143
G3 X366.7288 Y27.85681 I-21.18906 J7.04088
G1 F300.0 X365.55159 Y28.08955
G3 F800.0 X365.9189 Y30.9912 I-20.72704 J4.09785
G3 X365.78078 Y32.90897 I-7.0441 J0.45655
G3 X367.15083 Y32.48438 I1.51608 J2.46933
G3 X371.16315 Y35.31196 I0.20063 J3.97582
G3 X372.32936 Y37.71664 I-8.34228 J5.53097
G3 X373.18369 Y37.62218 I1.17025 J6.67397
G3 X373.35103 Y37.61921 I0.1351 J2.89445
G3 X379.25318 Y45.53057 I-0.06908 J6.20882
G3 X380.20546 Y45.82641 I-0.91544 J4.62726
G1 Y37.86469
G2 X356.25994 Y9.30857 I-29.0 J0.0
G3 X356.63516 Y10.2772 I-9.13328 J4.09492
G3 X357.48948 Y10.18274 I1.17025 J6.67397
G3 X357.65682 Y10.17977 I0.1351 J2.89445
G3 X363.55897 Y18.09113 I-0.06908 J6.20882
G3 X366.15515 Y19.56908 I-0.91544 J4.62726
G3 X366.00987 Y23.58896 I-2.15717 J1.9346
G3 X364.64369 Y24.59642 I-4.47463 J-4.63785
G2 X364.69885 Y25.03272 I0.79746 J0.12081
G3 X364.76712 Y25.20913 I-2.66672 J1.13343
G3 X365.55159 Y28.08955 I-19.94257 J6.97827
G0 Z3.0
G0 X362.85976 Y37.27423
G0 Z1.0
G1 F300.0 Z-1.0
G3 F800.0 X362.81376 Y37.30543 I-3.98496 J-5.82648
G3 X362.84737 Y37.31037 I-0.87677 J6.07959
G3 X362.85976 Y37.27423 I10.37589 J3.53781
G0 Z3.0
G0 X358.24195 Y38.47821
G0 Z1.0
G1 F300.0 Z-1.0
G3 F800.0 X357.85892 Y38.43315 I0.63285 J-7.03045
G3 X357.82485 Y38.66835 I-14.03169 J-1.91206
G3 X357.79026 Y38.85348 I-2.8641 J-0.43936
G3 X358.24195 Y38.47821 I4.14673 J4.53154
G0 Z3.0
G0 X355.87028 Y42.42311
G0 Z1.0
G1 F300.0 Z-1.0
G2 F800.0 X354.9416 Y44.78599 I16.48793 J7.84422
G3 X354.73745 Y45.65873 I-3.15758 J-0.27835
G3 X356.06429 Y45.18546 I3.39027 J7.40827
G3 X355.87028 Y42.42311 I5.8727 J-1.80044
G0 Z3.0
G0 X351.47762 Y65.90782
G0 Z1.0
G1 F300.0 Z-1.0
G3 F800.0 X349.73311 Y67.80861 I-9.55739 J-7.02063
G1 X353.29193
G3 X351.47762 Y65.90782 I7.48921 J-8.96474
G1 F300.0 X350.51051 Y65.1974
G3 F800.0 X345.26216 Y69.00861 I-8.59028 J-6.31021
G1 X358.22427
G3 X351.46112 Y63.63936 I2.55687 J-10.16474
G3 X350.51051 Y65.1974 I-9.54089 J-4.75217
G1 F300.0 X349.54339 Y64.48699
G3 F800.0 X342.59114 Y68.32225 I-7.62317 J-5.59979
G3 X342.36253 Y68.68286 I-4.58496 J-2.65381
G2 X341.42941 Y70.20861 I13.04111 J9.02392
G1 X361.04655
G2 X359.79933 Y68.07319 I-130.85564 J74.99598
G3 X351.79308 Y61.15883 I0.98181 J-9.22931
G3 X351.73189 Y60.89311 I5.13017 J-1.32132
G3 X352.14342 Y52.85211 I15.83799 J-3.22045
G3 X351.33221 Y52.0529 I3.35849 J-4.22026
G3 X350.72168 Y52.75558 I-4.28881 J-3.10977
G3 X350.4482 Y53.00854 I-6.14102 J-6.36502
G3 X351.35995 Y58.28554 I-22.57822 J6.6183
G3 X349.54339 Y64.48699 I-9.43972 J0.60166
G1 F300.0 X348.57628 Y63.77657
G3 F800.0 X341.82828 Y67.14556 I-6.65606 J-4.88938
G3 X341.37574 Y68.00004 I-3.8221 J-1.47712
G2 X339.55007 Y71.40861 I14.0279 J9.70674
G1 X362.7567
G3 X362.56879 Y70.45763 I10.32629 J-2.53454
G2 X360.76998 Y67.35784 I-132.37788 J74.74696
G3 X360.54427 Y66.92179 I3.5196 J-2.09827
G3 X352.95516 Y60.85953 I0.23686 J-8.07791
G3 X352.90783 Y60.654 I3.9681 J-1.02202
G3 X353.58261 Y52.36037 I14.66205 J-2.98134
G3 X351.31414 Y48.85135 I1.91931 J-3.72852
G3 X351.13938 Y48.82777 I0.46045 J-4.07165
G3 X349.88849 Y51.89199 I-4.09598 J0.11536
G3 X349.05903 Y52.58596 I-5.30783 J-5.50143
G3 X350.16213 Y58.35799 I-21.18906 J7.04088
G3 X348.57628 Y63.77657 I-8.24191 J0.52921
G0 Z3.0
G0 X328.39777 Y70.20861
G0 Z1.0
G1 F300.0 Z-1.0
G2 F800.0 X327.15054 Y68.07319 I-130.85564 J74.99598
G3 X324.60546 Y67.42905 I0.98181 J-9.22931
G1 Y70.20861
G1 X328.39777
G1 F300.0 Y71.40861
G1 F800.0 X330.10792
G3 X329.92 Y70.45763 I10.32629 J-2.53454
G2 X328.1212 Y67.35784 I-132.37788 J74.74696
G3 X327.89549 Y66.92179 I3.5196 J-2.09827
G3 X323.40546 Y65.39867 I0.23686 J-8.07791
G1 Y71.40861
G1 X328.39777
G1 F300.0 Y72.60861
G1 F800.0 X331.77218
G3 X331.07711 Y70.06663 I8.66203 J-3.73454
G2 X329.15193 Y66.74335 I-133.53499 J75.13796
G3 X328.77611 Y65.69508 I2.48887 J-1.48378
G3 X322.20546 Y62.34037 I-0.64376 J-6.85121
G1 Y72.60861
G1 X328.39777
G0 Z3.0
G0 X322.20546 Y52.43262
G0 Z1.0
G1 F300.0 Z-1.0
G3 F800.0 X322.21062 Y52.42231 I2.59478 J1.28966
G2 X322.44904 Y51.59797 I-2.09927 J-1.05382
G3 X322.20546 Y51.55446 I0.40409 J-2.96612
G1 Y52.43262
G0 Z3.0
G0 X330.72895 Y27.39033
G0 Z1.0
G1 F300.0 Z-1.0
G3 F800.0 X332.42046 Y26.76407 I3.91913 J7.98797
G3 X332.48595 Y26.41498 I19.45521 J3.46915
G3 X331.86672 Y25.41427 I7.32176 J-5.22258
G2 X330.72895 Y27.39033 I19.33874 J12.45042
G1 F300.0 X329.66061 Y26.84384
G2 F800.0 X327.84224 Y31.55598 I21.54486 J11.02085
G3 X328.99156 Y30.1575 I12.73223 J9.2922
G3 X333.47772 Y27.77019 I5.65652 J5.2208
G3 X333.77388 Y26.12514 I18.39795 J2.46302
G3 X332.19992 Y22.88373 I6.03383 J-4.93274
G2 X329.66061 Y26.84384 I19.00554 J14.98097
G1 F300.0 X328.59227 Y26.29735
G2 F800.0 X326.07292 Y34.18839 I22.6132 J11.56734
G3 X327.86037 Y33.74773 I3.21529 J9.19663
G3 X329.87337 Y30.97138 I12.7141 J7.10045
G3 X334.32061 Y28.88896 I4.77471 J4.40692
G3 X334.56635 Y28.88055 I0.38206 J7.57125
G3 X335.08957 Y25.79824 I17.30932 J1.35267
G3 X333.36648 Y19.78347 I4.71814 J-4.60584
G2 X328.59227 Y26.29735 I17.83899 J18.08122
G1 F300.0 X327.52393 Y25.75086
G2 F800.0 X324.65718 Y36.20674 I23.68154 J12.11383
G3 X328.62473 Y34.86834 I4.63102 J7.17828
G3 X330.75518 Y31.78527 I11.94974 J5.97985
G3 X334.38109 Y30.08743 I3.8929 J3.59303
G3 X335.71375 Y30.15994 I0.32159 J6.37277
G3 X336.44922 Y25.41267 I16.16192 J0.07328
G3 X336.58653 Y16.86642 I3.35849 J-4.22026
G3 X337.04278 Y16.56209 I3.16389 J4.24904
G3 X337.70409 Y16.20019 I5.39074 J9.06546
G3 X337.76315 Y14.91117 I8.53869 J-0.25461
G2 X327.52393 Y25.75086 I13.44231 J22.95352
G1 F300.0 X326.45559 Y25.20438
G2 F800.0 X323.40546 Y37.86469 I24.74988 J12.66032
G1 Y38.99122
G3 X329.40133 Y36.0434 I5.88274 J4.3938
G3 X331.63699 Y32.59915 I11.17314 J4.80478
G3 X334.44157 Y31.28591 I3.01109 J2.77915
G3 X336.99746 Y31.81526 I0.26111 J5.1743
G3 X337.8884 Y24.92093 I14.87821 J-1.58204
G3 X337.30321 Y17.82891 I1.91931 J-3.72852
G3 X337.65611 Y17.59351 I2.44721 J3.28656
G3 X338.9688 Y16.94624 I4.77741 J8.03404
G3 X339.73776 Y12.54017 I7.27398 J-1.00066
G2 X326.45559 Y25.20438 I11.4677 J25.32453
G1 F300.0 X325.38725 Y24.65789
G2 F800.0 X322.20546 Y37.86469 I25.81822 J13.20681
G1 Y45.60639
G3 X323.41551 Y45.18546 I3.27348 J7.46061
G3 X330.19858 Y37.31037 I5.8727 J-1.80044
G3 X332.5188 Y33.41304 I10.37589 J3.53781
G3 X334.50205 Y32.48438 I2.12928 J1.96526
G3 X338.51436 Y35.31196 I0.20063 J3.97582
G3 X339.68058 Y37.71664 I-8.34228 J5.53097
G3 X340.5349 Y37.62218 I1.17025 J6.67397
G3 X340.70224 Y37.61921 I0.1351 J2.89445
G3 X346.60439 Y45.53057 I-0.06908 J6.20882
G3 X349.20057 Y47.00852 I-0.91544 J4.62726
G3 X349.05529 Y51.0284 I-2.15717 J1.9346
G3 X347.68911 Y52.03586 I-4.47463 J-4.63785
G2 X347.74428 Y52.47216 I0.79746 J0.12081
G3 X347.81255 Y52.64857 I-2.66672 J1.13343
G3 X348.96432 Y58.43064 I-19.94257 J6.97827
G3 X340.90434 Y65.87259 I-7.0441 J0.45655
G3 X340.87028 Y66.10779 I-14.03169 J-1.91206
G3 X340.38895 Y67.31722 I-2.8641 J-0.43936
G2 X337.98702 Y72.22543 I15.01469 J10.38956
G3 X337.92947 Y72.60861 I-3.15758 J-0.27835
G1 X364.42097
G3 X363.72589 Y70.06663 I8.66203 J-3.73454
G2 X361.80071 Y66.74335 I-133.53499 J75.13796
G3 X361.4249 Y65.69508 I2.48887 J-1.48378
G3 X354.11723 Y60.56023 I-0.64376 J-6.85121
G3 X354.08376 Y60.41488 I2.80602 J-0.72272
G3 X354.74976 Y52.6687 I13.48611 J-2.74223
G3 X354.8594 Y52.42231 I2.69927 J1.05358
G2 X355.09782 Y51.59797 I-2.09927 J-1.05382
G3 X352.7156 Y47.53749 I0.40409 J-2.96612
G3 X351.67427 Y47.67557 I-0.93158 J-3.02984
G3 X349.28535 Y46.26286 I0.10032 J-2.89586
G3 X348.03169 Y42.62719 I8.10345 J-4.82822
G2 X346.1065 Y39.30391 I-133.53499 J75.13796
G3 X345.73069 Y38.25564 I2.48887 J-1.48378
G3 X338.42303 Y33.12079 I-0.64376 J-6.85121
G3 X338.38956 Y32.97544 I2.80602 J-0.72272
G3 X339.05555 Y25.22926 I13.48611 J-2.74223
G3 X339.16519 Y24.98287 I2.69927 J1.05358
G2 X339.40362 Y24.15853 I-2.09927 J-1.05382
G3 X338.01989 Y18.79139 I0.40409 J-2.96612
G3 X338.26944 Y18.62493 I1.73054 J2.32408
G3 X340.37008 Y17.74602 I4.16408 J7.00262
G3 X347.15316 Y9.87093 I5.8727 J-1.80044
G3 X347.44479 Y9.10957 I10.37589 J3.53781
G2 X325.38725 Y24.65789 I3.76068 J28.75513
G0 Z3.0
G0 X375.23992 Y68.32225
G0 Z1.0
G1 F300.0 Z-1.0
G3 F800.0 X375.01132 Y68.68286 I-4.58496 J-2.65381
G2 X374.07819 Y70.20861 I13.04111 J9.02392
G1 X377.80546
G1 Y67.77515
G3 X375.23992 Y68.32225 I-3.23646 J-8.88795
G1 F300.0 X374.20135 Y67.72111
G3 F800.0 X374.02453 Y68.00004 I-3.54638 J-2.05268
G2 X372.19885 Y71.40861 I14.0279 J9.70674
G1 X379.00546
G1 Y65.85332
G3 X374.47706 Y67.14556 I-4.43646 J-6.96613
G3 X374.20135 Y67.72111 I-3.8221 J-1.47712
G1 F300.0 X373.16277 Y67.11998
G3 F800.0 X373.03774 Y67.31722 I-2.50781 J-1.45154
G2 X370.6358 Y72.22543 I15.01469 J10.38956
G3 X370.57825 Y72.60861 I-3.15758 J-0.27835
G1 X380.20546
G1 Y63.13668
G3 X373.55312 Y65.87259 I-5.63646 J-4.24948
G3 X373.51906 Y66.10779 I-14.03169 J-1.91206
G3 X373.16277 Y67.11998 I-2.8641 J-0.43936
G1 F300.0 X372.12628 Y66.52004
G3 F800.0 X372.05292 Y66.63576 I-1.47131 J-0.85161
G2 X369.44953 Y72.00732 I15.99951 J11.07101
G3 X368.12966 Y73.80861 I-1.97131 J-0.06024
G1 X381.40546
G1 Y37.86469
G2 X354.16333 Y7.80989 I-30.2 J0.0
G3 X354.36559 Y8.37923 I-2.50608 J1.21087
G3 X355.78232 Y11.75277 I-7.23893 J5.02426
G3 X357.54532 Y11.37904 I2.02309 J5.1984
G3 X357.6435 Y11.3773 I0.07926 J1.69815
G3 X362.36007 Y17.91865 I-0.05576 J5.0113
G3 X362.0273 Y18.5114 I-1.61883 J-0.51901
G3 X361.5873 Y18.9172 I-2.0083 J-1.73612
G3 X362.87688 Y19.20679 I-0.51699 J5.31847
G3 X365.26357 Y20.36867 I-0.23335 J3.5116
G3 X365.17834 Y22.7271 I-1.2656 J1.13502
G3 X363.69547 Y23.73271 I-3.6431 J-3.77599
G2 X363.59668 Y25.50118 I1.74567 J0.98452
G3 X363.63673 Y25.60468 I-1.56455 J0.66498
G3 X364.7235 Y31.06399 I-18.81218 J6.58272
G3 X356.78474 Y36.92372 I-5.8487 J0.38377
G3 X356.6411 Y38.48676 I-12.95751 J-0.40263
G3 X356.35871 Y39.19632 I-1.68034 J-0.25777
G2 X353.75532 Y44.56788 I15.99951 J11.07101
G3 X351.71573 Y46.47869 I-1.97131 J-0.06024
G3 X350.31417 Y45.64986 I0.05886 J-1.69898
G3 X349.19421 Y42.25143 I7.07462 J-4.21523
G2 X347.13517 Y38.69065 I-134.69751 J75.51373
G3 X346.89606 Y37.77189 I1.4602 J-0.87052
G3 X346.954 Y36.70132 I20.86671 J0.59243
G3 X346.71913 Y36.81815 I-4.67358 J-9.10156
G3 X346.3634 Y36.94303 I-0.73752 J-1.53169
G3 X339.58278 Y32.82208 I-1.27647 J-5.53859
G3 X339.56314 Y32.73681 I1.64627 J-0.42401
G3 X340.17118 Y25.66471 I12.31253 J-2.5036
G3 X340.23551 Y25.52015 I1.58364 J0.61813
G2 X340.57014 Y23.38281 I-3.16958 J-1.59111
G2 X339.74449 Y22.98721 I-1.03183 J1.09413
G3 X338.73513 Y19.75195 I0.06322 J-1.79481
G3 X338.88154 Y19.65429 I1.01529 J1.36352
G3 X342.26453 Y18.68004 I3.55198 J5.97327
G3 X341.67315 Y17.83513 I1.55006 J-1.71435
G3 X347.18179 Y11.09067 I4.56963 J-1.88955
G3 X347.67992 Y11.2711 I-0.32282 J1.66907
G3 X347.96552 Y11.43613 I-3.98463 J7.22531
G3 X349.60151 Y7.70732 I9.56352 J1.97261
G2 X321.00546 Y37.86469 I1.60396 J30.15738
G1 Y73.80861
G1 X334.21703
G3 X333.35959 Y73.0893 I0.60298 J-1.58947
G3 X332.23963 Y69.69087 I7.07462 J-4.21523
G2 X330.1806 Y66.13009 I-134.69751 J75.51373
G3 X329.94148 Y65.21133 I1.4602 J-0.87052
G3 X329.99942 Y64.14076 I20.86671 J0.59243
G3 X329.76456 Y64.25759 I-4.67358 J-9.10156
G3 X329.40883 Y64.38247 I-0.73752 J-1.53169
G3 X322.6282 Y60.26152 I-1.27647 J-5.53859
G3 X322.60856 Y60.17625 I1.64627 J-0.42401
G3 X323.2166 Y53.10415 I12.31253 J-2.5036
G3 X323.28093 Y52.95959 I1.58364 J0.61813
G2 X323.61556 Y50.82225 I-3.16958 J-1.59111
G2 X322.78991 Y50.42666 I-1.03183 J1.09413
G3 X321.78055 Y47.19139 I0.06322 J-1.79481
G3 X321.92696 Y47.09373 I1.01529 J1.36352
G3 X325.30995 Y46.11948 I3.55198 J5.97327
G3 X324.71857 Y45.27457 I1.55006 J-1.71435
G3 X330.22721 Y38.53011 I4.56963 J-1.88955
G3 X330.72535 Y38.71054 I-0.32282 J1.66907
G3 X331.01095 Y38.87557 I-3.98463 J7.22531
G3 X333.39885 Y34.2253 I9.56352 J1.97261
G3 X334.5624 Y33.68046 I1.24923 J1.153
G3 X337.41101 Y35.81867 I0.14027 J2.77974
G3 X338.82774 Y39.19221 I-7.23893 J5.02426
G3 X340.59074 Y38.81848 I2.02309 J5.1984
G3 X340.68892 Y38.81674 I0.07926 J1.69815
G3 X345.40549 Y45.35809 I-0.05576 J5.0113
G3 X345.07272 Y45.95084 I-1.61883 J-0.51901
G3 X344.63272 Y46.35664 I-2.0083 J-1.73612
G3 X345.9223 Y46.64623 I-0.51699 J5.31847
G3 X348.309 Y47.80811 I-0.23335 J3.5116
G3 X348.22376 Y50.16654 I-1.2656 J1.13502
G3 X346.7409 Y51.17215 I-3.6431 J-3.77599
G2 X346.6421 Y52.94062 I1.74567 J0.98452
G3 X346.68215 Y53.04412 I-1.56455 J0.66498
G3 X347.76893 Y58.50343 I-18.81218 J6.58272
G3 X339.83016 Y64.36316 I-5.8487 J0.38377
G3 X339.68652 Y65.9262 I-12.95751 J-0.40263
G3 X339.40413 Y66.63576 I-1.68034 J-0.25777
G2 X336.80075 Y72.00732 I15.99951 J11.07101
G3 X335.48088 Y73.80861 I-1.97131 J-0.06024
G1 X366.86582
G3 X366.00838 Y73.0893 I0.60298 J-1.58947
G3 X364.88841 Y69.69087 I7.07462 J-4.21523
G2 X362.82938 Y66.13009 I-134.69751 J75.51373
G3 X362.59027 Y65.21133 I1.4602 J-0.87052
G3 X362.6482 Y64.14076 I20.86671 J0.59243
G3 X362.41334 Y64.25759 I-4.67358 J-9.10156
G3 X362.05761 Y64.38247 I-0.73752 J-1.53169
G3 X355.27698 Y60.26152 I-1.27647 J-5.53859
G3 X355.25735 Y60.17625 I1.64627 J-0.42401
G3 X355.86538 Y53.10415 I12.31253 J-2.5036
G3 X355.92971 Y52.95959 I1.58364 J0.61813
G2 X356.26434 Y50.82225 I-3.16958 J-1.59111
G2 X355.4387 Y50.42666 I-1.03183 J1.09413
G3 X354.42934 Y47.19139 I0.06322 J-1.79481
G3 X354.57575 Y47.09373 I1.01529 J1.36352
G3 X357.95873 Y46.11948 I3.55198 J5.97327
G3 X357.36736 Y45.27457 I1.55006 J-1.71435
G3 X362.876 Y38.53011 I4.56963 J-1.88955
G3 X363.37413 Y38.71054 I-0.32282 J1.66907
G3 X363.65973 Y38.87557 I-3.98463 J7.22531
G3 X366.04763 Y34.2253 I9.56352 J1.97261
G3 X367.21119 Y33.68046 I1.24923 J1.153
G3 X370.0598 Y35.81867 I0.14027 J2.77974
G3 X371.47653 Y39.19221 I-7.23893 J5.02426
G3 X373.23952 Y38.81848 I2.02309 J5.1984
G3 X373.3377 Y38.81674 I0.07926 J1.69815
G3 X378.05427 Y45.35809 I-0.05576 J5.0113
G3 X377.72151 Y45.95084 I-1.61883 J-0.51901
G3 X377.28151 Y46.35664 I-2.0083 J-1.73612
G3 X378.57109 Y46.64623 I-0.51699 J5.31847
G3 X380.95778 Y47.80811 I-0.23335 J3.5116
G3 X380.87255 Y50.16654 I-1.2656 J1.13502
G3 X379.38968 Y51.17215 I-3.6431 J-3.77599
G2 X379.29088 Y52.94062 I1.74567 J0.98452
G3 X379.33094 Y53.04412 I-1.56455 J0.66498
G3 X380.41771 Y58.50343 I-18.81218 J6.58272
G3 X372.47894 Y64.36316 I-5.8487 J0.38377
G3 X372.33531 Y65.9262 I-12.95751 J-0.40263
G3 X372.12628 Y66.52004 I-1.68034 J-0.25777
G0 Z3.0
G0 X375.23992 Y68.32225
G0 Z0.0
G1 F300.0 Z-2.0
G3 F800.0 X375.01132 Y68.68286 I-4.58496 J-2.65381
G2 X374.07819 Y70.20861 I13.04111 J9.02392
G1 X377.80546
G1 Y67.77515
G3 X375.23992 Y68.32225 I-3.23646 J-8.88795
G1 F300.0 X374.20135 Y67.72111
G3 F800.0 X374.02453 Y68.00004 I-3.54638 J-2.05268
G2 X372.19885 Y71.40861 I14.0279 J9.70674
G1 X379.00546
G1 Y65.85332
G3 X374.47706 Y67.14556 I-4.43646 J-6.96613
G3 X374.20135 Y67.72111 I-3.8221 J-1.47712
G1 F300.0 X373.16277 Y67.11998
G3 F800.0 X373.03774 Y67.31722 I-2.50781 J-1.45154
G2 X370.6358 Y72.22543 I15.01469 J10.38956
G3 X370.57825 Y72.60861 I-3.15758 J-0.27835
G1 X380.20546
G1 Y63.13668
G3 X373.55312 Y65.87259 I-5.63646 J-4.24948
G3 X373.51906 Y66.10779 I-14.03169 J-1.91206
G3 X373.16277 Y67.11998 I-2.8641 J-0.43936
G0 Z3.0
G0 X353.29193 Y67.80861
G0 Z0.0
G1 F300.0 Z-2.0
G3 F800.0 X351.47762 Y65.90782 I7.48921 J-8.96474
G3 X349.73311 Y67.80861 I-9.55739 J-7.02063
G1 X353.29193
G1 F300.0 Y69.00861
G1 F800.0 X358.22427
G3 X351.46112 Y63.63936 I2.55687 J-10.16474
G3 X345.26216 Y69.00861 I-9.54089 J-4.75217
G1 X353.29193
G1 F300.0 Y70.20861
G1 F800.0 X361.04655
G2 X359.79933 Y68.07319 I-130.85564 J74.99598
G3 X351.79308 Y61.15883 I0.98181 J-9.22931
G3 X351.73189 Y60.89311 I5.13017 J-1.32132
G3 X352.14342 Y52.85211 I15.83799 J-3.22045
G3 X351.33221 Y52.0529 I3.35849 J-4.22026
G3 X350.72168 Y52.75558 I-4.28881 J-3.10977
G3 X350.4482 Y53.00854 I-6.14102 J-6.36502
G3 X351.35995 Y58.28554 I-22.57822 J6.6183
G3 X342.59114 Y68.32225 I-9.43972 J0.60166
G3 X342.36253 Y68.68286 I-4.58496 J-2.65381
G2 X341.42941 Y70.20861 I13.04111 J9.02392
G1 X353.29193
G1 F300.0 Y71.40861
G1 F800.0 X362.7567
G3 X362.56879 Y70.45763 I10.32629 J-2.53454
G2 X360.76998 Y67.35784 I-132.37788 J74.74696
G3 X360.54427 Y66.92179 I3.5196 J-2.09827
G3 X352.95516 Y60.85953 I0.23686 J-8.07791
G3 X352.90783 Y60.654 I3.9681 J-1.02202
G3 X353.58261 Y52.36037 I14.66205 J-2.98134
G3 X351.31414 Y48.85135 I1.91931 J-3.72852
G3 X351.13938 Y48.82777 I0.46045 J-4.07165
G3 X349.88849 Y51.89199 I-4.09598 J0.11536
G3 X349.05903 Y52.58596 I-5.30783 J-5.50143
G3 X350.16213 Y58.35799 I-21.18906 J7.04088
G3 X341.82828 Y67.14556 I-8.24191 J0.52921
G3 X341.37574 Y68.00004 I-3.8221 J-1.47712
G2 X339.55007 Y71.40861 I14.0279 J9.70674
G1 X353.29193
G0 Z3.0
G0 X328.39777 Y70.20861
G0 Z0.0
G1 F300.0 Z-2.0
G2 F800.0 X327.15054 Y68.07319 I-130.85564 J74.99598
G3 X324.60546 Y67.42905 I0.98181 J-9.22931
G1 Y70.20861
G1 X328.39777
G1 F300.0 Y71.40861
G1 F800.0 X330.10792
G3 X329.92 Y70.45763 I10.32629 J-2.53454
G2 X328.1212 Y67.35784 I-132.37788 J74.74696
G3 X327.89549 Y66.92179 I3.5196 J-2.09827
G3 X323.40546 Y65.39867 I0.23686 J-8.07791
G1 Y71.40861
G1 X328.39777
G1 F300.0 Y72.60861
G1 F800.0 X331.77218
G3 X331.07711 Y70.06663 I8.66203 J-3.73454
G2 X329.15193 Y66.74335 I-133.53499 J75.13796
G3 X328.77611 Y65.69508 I2.48887 J-1.48378
G3 X322.20546 Y62.34037 I-0.64376 J-6.85121
G1 Y72.60861
G1 X328.39777
G0 Z3.0
G0 X322.20546 Y52.43262
G0 Z0.0
G1 F300.0 Z-2.0
G3 F800.0 X322.21062 Y52.42231 I2.59478 J1.28966
G2 X322.44904 Y51.59797 I-2.09927 J-1.05382
G3 X322.20546 Y51.55446 I0.40409 J-2.96612
G1 Y52.43262
G0 Z3.0
G0 X330.72895 Y27.39033
G0 Z0.0
G1 F300.0 Z-2.0
G3 F800.0 X332.42046 Y26.76407 I3.91913 J7.98797
G3 X332.48595 Y26.41498 I19.45521 J3.46915
G3 X331.86672 Y25.41427 I7.32176 J-5.22258
G2 X330.72895 Y27.39033 I19.33874 J12.45042
G1 F300.0 X329.66061 Y26.84384
G2 F800.0 X327.84224 Y31.55598 I21.54486 J11.02085
G3 X328.99156 Y30.1575 I12.73223 J9.2922
G3 X333.47772 Y27.77019 I5.65652 J5.2208
G3 X333.77388 Y26.12514 I18.39795 J2.46302
G3 X332.19992 Y22.88373 I6.03383 J-4.93274
G2 X329.66061 Y26.84384 I19.00554 J14.98097
G1 F300.0 X328.59227 Y26.29735
G2 F800.0 X326.07292 Y34.18839 I22.6132 J11.56734
G3 X327.86037 Y33.74773 I3.21529 J9.19663
G3 X329.87337 Y30.97138 I12.7141 J7.10045
G3 X334.32061 Y28.88896 I4.77471 J4.40692
G3 X334.56635 Y28.88055 I0.38206 J7.57125
G3 X335.08957 Y25.79824 I17.30932 J1.35267
G3 X333.36648 Y19.78347 I4.71814 J-4.60584
G2 X328.59227 Y26.29735 I17.83899 J18.08122
G1 F300.0 X327.52393 Y25.75086
G2 F800.0 X324.65718 Y36.20674 I23.68154 J12.11383
G3 X328.62473 Y34.86834 I4.63102 J7.17828
G3 X330.75518 Y31.78527 I11.94974 J5.97985
G3 X334.38109 Y30.08743 I3.8929 J3.59303
G3 X335.71375 Y30.15994 I0.32159 J6.37277
G3 X336.44922 Y25.41267 I16.16192 J0.07328
G3 X336.58653 Y16.86642 I3.35849 J-4.22026
G3 X337.04278 Y16.56209 I3.16389 J4.24904
G3 X337.70409 Y16.20019 I5.39074 J9.06546
G3 X337.76315 Y14.91117 I8.53869 J-0.25461
G2 X327.52393 Y25.75086 I13.44231 J22.95352
G1 F300.0 X326.45559 Y25.20438
G2 F800.0 X323.40546 Y37.86469 I24.74988 J12.66032
G1 Y38.99122
G3 X329.40133 Y36.0434 I5.88274 J4.3938
G3 X331.63699 Y32.59915 I11.17314 J4.80478
G3 X334.44157 Y31.28591 I3.01109 J2.77915
G3 X336.99746 Y31.81526 I0.26111 J5.1743
G3 X337.8884 Y24.92093 I14.87821 J-1.58204
G3 X337.30321 Y17.82891 I1.91931 J-3.72852
G3 X337.65611 Y17.59351 I2.44721 J3.28656
G3 X338.9688 Y16.94624 I4.77741 J8.03404
G3 X339.73776 Y12.54017 I7.27398 J-1.00066
G2 X326.45559 Y25.20438 I11.4677 J25.32453
G1 F300.0 X325.38725 Y24.65789
G2 F800.0 X322.20546 Y37.86469 I25.81822 J13.20681
G1 Y45.60639
G3 X323.41551 Y45.18546 I3.27348 J7.46061
G3 X330.19858 Y37.31037 I5.8727 J-1.80044
G3 X332.5188 Y33.41304 I10.37589 J3.53781
G3 X334.50205 Y32.48438 I2.12928 J1.96526
G3 X338.51436 Y35.31196 I0.20063 J3.97582
G3 X339.68058 Y37.71664 I-8.34228 J5.53097
G3 X340.5349 Y37.62218 I1.17025 J6.67397
G3 X340.70224 Y37.61921 I0.1351 J2.89445
G3 X346.60439 Y45.53057 I-0.06908 J6.20882
G3 X349.20057 Y47.00852 I-0.91544 J4.62726
G3 X349.05529 Y51.0284 I-2.15717 J1.9346
G3 X347.68911 Y52.03586 I-4.47463 J-4.63785
G2 X347.74428 Y52.47216 I0.79746 J0.12081
G3 X347.81255 Y52.64857 I-2.66672 J1.13343
G3 X348.96432 Y58.43064 I-19.94257 J6.97827
G3 X340.90434 Y65.87259 I-7.0441 J0.45655
G3 X340.87028 Y66.10779 I-14.03169 J-1.91206
G3 X340.38895 Y67.31722 I-2.8641 J-0.43936
G2 X337.98702 Y72.22543 I15.01469 J10.38956
G3 X337.92947 Y72.60861 I-3.15758 J-0.27835
G1 X364.42097
G3 X363.72589 Y70.06663 I8.66203 J-3.73454
G2 X361.80071 Y66.74335 I-133.53499 J75.13796
G3 X361.4249 Y65.69508 I2.48887 J-1.48378
G3 X354.11723 Y60.56023 I-0.64376 J-6.85121
G3 X354.08376 Y60.41488 I2.80602 J-0.72272
G3 X354.74976 Y52.6687 I13.48611 J-2.74223
G3 X354.8594 Y52.42231 I2.69927 J1.05358
G2 X355.09782 Y51.59797 I-2.09927 J-1.05382
G3 X352.7156 Y47.53749 I0.40409 J-2.96612
G3 X351.67427 Y47.67557 I-0.93158 J-3.02984
G3 X349.28535 Y46.26286 I0.10032 J-2.89586
G3 X348.03169 Y42.62719 I8.10345 J-4.82822
G2 X346.1065 Y39.30391 I-133.53499 J75.13796
G3 X345.73069 Y38.25564 I2.48887 J-1.48378
G3 X338.42303 Y33.12079 I-0.64376 J-6.85121
G3 X338.38956 Y32.97544 I2.80602 J-0.72272
G3 X339.05555 Y25.22926 I13.48611 J-2.74223
G3 X339.16519 Y24.98287 I2.69927 J1.05358
G2 X339.40362 Y24.15853 I-2.09927 J-1.05382
G3 X338.01989 Y18.79139 I0.40409 J-2.96612
G3 X338.26944 Y18.62493 I1.73054 J2.32408
G3 X340.37008 Y17.74602 I4.16408 J7.00262
G3 X347.15316 Y9.87093 I5.8727 J-1.80044
G3 X347.44479 Y9.10957 I10.37589 J3.53781
G2 X325.38725 Y24.65789 I3.76068 J28.75513
G0 Z3.0
G0 X357.85892 Y38.43315
G0 Z0.0
G1 F300.0 Z-2.0
G3 F800.0 X357.82485 Y38.66835 I-14.03169 J-1.91206
G3 X357.79026 Y38.85348 I-2.8641 J-0.43936
G3 X358.24195 Y38.47821 I4.14673 J4.53154
G3 X357.85892 Y38.43315 I0.63285 J-7.03045
G0 Z3.0
G0 X355.87028 Y42.42311
G0 Z0.0
G1 F300.0 Z-2.0
G2 F800.0 X354.9416 Y44.78599 I16.48793 J7.84422
G3 X354.73745 Y45.65873 I-3.15758 J-0.27835
G3 X356.06429 Y45.18546 I3.39027 J7.40827
G3 X355.87028 Y42.42311 I5.8727 J-1.80044
G0 Z3.0
G0 X362.81376 Y37.30543
G0 Z0.0
G1 F300.0 Z-2.0
G3 F800.0 X362.84737 Y37.31037 I-0.87677 J6.07959
G3 X362.85976 Y37.27423 I10.37589 J3.53781
G3 X362.81376 Y37.30543 I-3.98496 J-5.82648
G0 Z3.0
G0 X371.526 Y27.39427
G0 Z0.0
G1 F300.0 Z-2.0
G3 F800.0 X371.73421 Y27.49307 I-4.17453 J9.06594
G2 X371.43765 Y26.92584 I-20.52875 J10.37162
G3 X371.526 Y27.39427 I-26.6131 J5.26156
G1 F300.0 X371.02409 Y28.48426
G3 F800.0 X374.52492 Y31.39609 I-3.67263 J7.97594
G2 X371.1974 Y24.22789 I-23.31946 J6.46861
G3 X370.06251 Y26.24442 I-7.19943 J-2.72421
G3 X370.45126 Y28.24467 I-25.23796 J5.94298
G3 X371.02409 Y28.48426 I-3.0998 J8.21554
G1 F300.0 X370.52219 Y29.57426
G3 F800.0 X374.4241 Y33.73118 I-3.17073 J6.88594
G3 X374.65066 Y34.11479 I-11.60323 J7.11175
G3 X376.38461 Y34.52245 I-1.36872 J9.71324
G2 X370.49346 Y21.33796 I-25.17915 J3.34225
G3 X368.74946 Y25.93564 I-6.49549 J0.16573
G3 X369.36576 Y29.15183 I-23.92491 J6.25176
G3 X370.52219 Y29.57426 I-2.0143 J7.30837
G1 F300.0 X370.02028 Y30.66426
G3 F800.0 X373.34228 Y34.26345 I-2.66882 J5.79595
G3 X373.89351 Y35.24058 I-10.52141 J6.57948
G3 X377.76944 Y36.48087 I-0.61156 J8.58746
G2 X366.18199 Y15.88144 I-26.56398 J1.38382
G3 X366.19541 Y16.55113 I-8.59425 J0.50716
G3 X367.94187 Y17.96671 I-3.55187 J6.16726
G3 X367.67626 Y25.31614 I-3.9439 J3.53698
G3 X367.40277 Y25.5691 I-6.14102 J-6.36502
G3 X368.26397 Y30.14491 I-22.57822 J6.6183
G3 X370.02028 Y30.66426 I-0.91251 J6.3153
G1 F300.0 X369.51838 Y31.75425
G3 F800.0 X372.25617 Y34.79128 I-2.16692 J4.70595
G3 X373.12224 Y36.42375 I-9.43531 J6.05165
G3 X373.12774 Y36.42349 I0.37737 J7.96686
G3 X373.36438 Y36.41929 I0.19105 J4.09314
G3 X379.00546 Y39.12297 I-0.08243 J7.40875
G1 Y37.86469
G2 X364.35461 Y13.37102 I-27.8 J0.0
G3 X364.94466 Y17.26724 I-6.76687 J3.01757
G3 X367.04851 Y18.76789 I-2.30113 J5.45115
G3 X366.84307 Y24.45255 I-3.05053 J2.73579
G3 X366.01361 Y25.14652 I-5.30783 J-5.50143
G3 X367.11671 Y30.91855 I-21.18906 J7.04088
G3 X367.13205 Y31.28397 I-8.24191 J0.52921
G3 X369.51838 Y31.75425 I0.21941 J5.17623
G1 F300.0 X369.01648 Y32.84425
G3 F800.0 X371.16315 Y35.31196 I-1.66502 J3.61595
G3 X372.32936 Y37.71664 I-8.34228 J5.53097
G3 X373.18369 Y37.62218 I1.17025 J6.67397
G3 X373.35103 Y37.61921 I0.1351 J2.89445
G3 X379.25318 Y45.53057 I-0.06908 J6.20882
G3 X380.20546 Y45.82641 I-0.91544 J4.62726
G1 Y37.86469
G2 X356.25994 Y9.30857 I-29.0 J0.0
G3 X356.63516 Y10.2772 I-9.13328 J4.09492
G3 X357.48948 Y10.18274 I1.17025 J6.67397
G3 X357.65682 Y10.17977 I0.1351 J2.89445
G3 X363.55897 Y18.09113 I-0.06908 J6.20882
G3 X366.15515 Y19.56908 I-0.91544 J4.62726
G3 X366.00987 Y23.58896 I-2.15717 J1.9346
G3 X364.64369 Y24.59642 I-4.47463 J-4.63785
G2 X364.69885 Y25.03272 I0.79746 J0.12081
G3 X364.76712 Y25.20913 I-2.66672 J1.13343
G3 X365.9189 Y30.9912 I-19.94257 J6.97827
G3 X365.78078 Y32.90897 I-7.0441 J0.45655
G3 X367.15083 Y32.48438 I1.51608 J2.46933
G3 X369.01648 Y32.84425 I0.20063 J3.97582
G1 F300.0 X368.51558 Y33.93207
G3 F800.0 X370.0598 Y35.81867 I-1.16412 J2.52814
G3 X371.47653 Y39.19221 I-7.23893 J5.02426
G3 X373.23952 Y38.81848 I2.02309 J5.1984
G3 X373.3377 Y38.81674 I0.07926 J1.69815
G3 X378.05427 Y45.35809 I-0.05576 J5.0113
G3 X377.72151 Y45.95084 I-1.61883 J-0.51901
G3 X377.28151 Y46.35664 I-2.0083 J-1.73612
G3 X378.57109 Y46.64623 I-0.51699 J5.31847
G3 X380.95778 Y47.80811 I-0.23335 J3.5116
G3 X380.87255 Y50.16654 I-1.2656 J1.13502
G3 X379.38968 Y51.17215 I-3.6431 J-3.77599
G2 X379.29088 Y52.94062 I1.74567 J0.98452
G3 X379.33094 Y53.04412 I-1.56455 J0.66498
G3 X380.41771 Y58.50343 I-18.81218 J6.58272
G3 X372.47894 Y64.36316 I-5.8487 J0.38377
G3 X372.33531 Y65.9262 I-12.95751 J-0.40263
G3 X372.05292 Y66.63576 I-1.68034 J-0.25777
G2 X369.44953 Y72.00732 I15.99951 J11.07101
G3 X368.12966 Y73.80861 I-1.97131 J-0.06024
G1 X381.40546
G1 Y37.86469
G2 X354.16333 Y7.80989 I-30.2 J0.0
G3 X354.36559 Y8.37923 I-2.50608 J1.21087
G3 X355.78232 Y11.75277 I-7.23893 J5.02426
G3 X357.54532 Y11.37904 I2.02309 J5.1984
G3 X357.6435 Y11.3773 I0.07926 J1.69815
G3 X362.36007 Y17.91865 I-0.05576 J5.0113
G3 X362.0273 Y18.5114 I-1.61883 J-0.51901
G3 X361.5873 Y18.9172 I-2.0083 J-1.73612
G3 X362.87688 Y19.20679 I-0.51699 J5.31847
G3 X365.26357 Y20.36867 I-0.23335 J3.5116
G3 X365.17834 Y22.7271 I-1.2656 J1.13502
G3 X363.69547 Y23.73271 I-3.6431 J-3.77599
G2 X363.59668 Y25.50118 I1.74567 J0.98452
G3 X363.63673 Y25.60468 I-1.56455 J0.66498
G3 X364.7235 Y31.06399 I-18.81218 J6.58272
G3 X356.78474 Y36.92372 I-5.8487 J0.38377
G3 X356.6411 Y38.48676 I-12.95751 J-0.40263
G3 X356.35871 Y39.19632 I-1.68034 J-0.25777
G2 X353.75532 Y44.56788 I15.99951 J11.07101
G3 X351.71573 Y46.47869 I-1.97131 J-0.06024
G3 X350.31417 Y45.64986 I0.05886 J-1.69898
G3 X349.19421 Y42.25143 I7.07462 J-4.21523
G2 X347.13517 Y38.69065 I-134.69751 J75.51373
G3 X346.89606 Y37.77189 I1.4602 J-0.87052
G3 X346.954 Y36.70132 I20.86671 J0.59243
G3 X346.71913 Y36.81815 I-4.67358 J-9.10156
G3 X346.3634 Y36.94303 I-0.73752 J-1.53169
G3 X339.58278 Y32.82208 I-1.27647 J-5.53859
G3 X339.56314 Y32.73681 I1.64627 J-0.42401
G3 X340.17118 Y25.66471 I12.31253 J-2.5036
G3 X340.23551 Y25.52015 I1.58364 J0.61813
G2 X340.57014 Y23.38281 I-3.16958 J-1.59111
G2 X339.74449 Y22.98721 I-1.03183 J1.09413
G3 X338.73513 Y19.75195 I0.06322 J-1.79481
G3 X338.88154 Y19.65429 I1.01529 J1.36352
G3 X342.26453 Y18.68004 I3.55198 J5.97327
G3 X341.67315 Y17.83513 I1.55006 J-1.71435
G3 X347.18179 Y11.09067 I4.56963 J-1.88955
G3 X347.67992 Y11.2711 I-0.32282 J1.66907
G3 X347.96552 Y11.43613 I-3.98463 J7.22531
G3 X349.60151 Y7.70732 I9.56352 J1.97261
G2 X321.00546 Y37.86469 I1.60396 J30.15738
G1 Y73.80861
G1 X334.21703
G3 X333.35959 Y73.0893 I0.60298 J-1.58947
G3 X332.23963 Y69.69087 I7.07462 J-4.21523
G2 X330.1806 Y66.13009 I-134.69751 J75.51373
G3 X329.94148 Y65.21133 I1.4602 J-0.87052
G3 X329.99942 Y64.14076 I20.86671 J0.59243
G3 X329.76456 Y64.25759 I-4.67358 J-9.10156
G3 X329.40883 Y64.38247 I-0.73752 J-1.53169
G3 X322.6282 Y60.26152 I-1.27647 J-5.53859
G3 X322.60856 Y60.17625 I1.64627 J-0.42401
G3 X323.2166 Y53.10415 I12.31253 J-2.5036
G3 X323.28093 Y52.95959 I1.58364 J0.61813
G2 X323.61556 Y50.82225 I-3.16958 J-1.59111
G2 X322.78991 Y50.42666 I-1.03183 J1.09413
G3 X321.78055 Y47.19139 I0.06322 J-1.79481
G3 X321.92696 Y47.09373 I1.01529 J1.36352
G3 X325.30995 Y46.11948 I3.55198 J5.97327
G3 X324.71857 Y45.27457 I1.55006 J-1.71435
G3 X330.22721 Y38.53011 I4.56963 J-1.88955
G3 X330.72535 Y38.71054 I-0.32282 J1.66907
G3 X331.01095 Y38.87557 I-3.98463 J7.22531
G3 X333.39885 Y34.2253 I9.56352 J1.97261
G3 X334.5624 Y33.68046 I1.24923 J1.153
G3 X337.41101 Y35.81867 I0.14027 J2.77974
G3 X338.82774 Y39.19221 I-7.23893 J5.02426
G3 X340.59074 Y38.81848 I2.02309 J5.1984
G3 X340.68892 Y38.81674 I0.07926 J1.69815
G3 X345.40549 Y45.35809 I-0.05576 J5.0113
G3 X345.07272 Y45.95084 I-1.61883 J-0.51901
G3 X344.63272 Y46.35664 I-2.0083 J-1.73612
G3 X345.9223 Y46.64623 I-0.51699 J5.31847
G3 X348.309 Y47.80811 I-0.23335 J3.5116
G3 X348.22376 Y50.16654 I-1.2656 J1.13502
G3 X346.7409 Y51.17215 I-3.6431 J-3.77599
G2 X346.6421 Y52.94062 I1.74567 J0.98452
G3 X346.68215 Y53.04412 I-1.56455 J0.66498
G3 X347.76893 Y58.50343 I-18.81218 J6.58272
G3 X339.83016 Y64.36316 I-5.8487 J0.38377
G3 X339.68652 Y65.9262 I-12.95751 J-0.40263
G3 X339.40413 Y66.63576 I-1.68034 J-0.25777
G2 X336.80075 Y72.00732 I15.99951 J11.07101
G3 X335.48088 Y73.80861 I-1.97131 J-0.06024
G1 X366.86582
G3 X366.00838 Y73.0893 I0.60298 J-1.58947
G3 X364.88841 Y69.69087 I7.07462 J-4.21523
G2 X362.82938 Y66.13009 I-134.69751 J75.51373
G3 X362.59027 Y65.21133 I1.4602 J-0.87052
G3 X362.6482 Y64.14076 I20.86671 J0.59243
G3 X362.41334 Y64.25759 I-4.67358 J-9.10156
G3 X362.05761 Y64.38247 I-0.73752 J-1.53169
G3 X355.27698 Y60.26152 I-1.27647 J-5.53859
G3 X355.25735 Y60.17625 I1.64627 J-0.42401
G3 X355.86538 Y53.10415 I12.31253 J-2.5036
G3 X355.92971 Y52.95959 I1.58364 J0.61813
G2 X356.26434 Y50.82225 I-3.16958 J-1.59111
G2 X355.4387 Y50.42666 I-1.03183 J1.09413
G3 X354.42934 Y47.19139 I0.06322 J-1.79481
G3 X354.57575 Y47.09373 I1.01529 J1.36352
G3 X357.95873 Y46.11948 I3.55198 J5.97327
G3 X357.36736 Y45.27457 I1.55006 J-1.71435
G3 X362.876 Y38.53011 I4.56963 J-1.88955
G3 X363.37413 Y38.71054 I-0.32282 J1.66907
G3 X363.65973 Y38.87557 I-3.98463 J7.22531
G3 X366.04763 Y34.2253 I9.56352 J1.97261
G3 X367.21119 Y33.68046 I1.24923 J1.153
G3 X368.51558 Y33.93207 I0.14027 J2.77974
G0 Z3.0
G0 X362.85976 Y37.27423
G0 Z-1.0
G1 F300.0 Z-3.0
G3 F800.0 X362.81376 Y37.30543 I-3.98496 J-5.82648
G3 X362.84737 Y37.31037 I-0.87677 J6.07959
G3 X362.85976 Y37.27423 I10.37589 J3.53781
G0 Z3.0
G0 X358.24195 Y38.47821
G0 Z-1.0
G1 F300.0 Z-3.0
G3 F800.0 X357.85892 Y38.43315 I0.63285 J-7.03045
G3 X357.82485 Y38.66835 I-14.03169 J-1.91206
G3 X357.79026 Y38.85348 I-2.8641 J-0.43936
G3 X358.24195 Y38.47821 I4.14673 J4.53154
G0 Z3.0
G0 X355.87028 Y42.42311
G0 Z-1.0
G1 F300.0 Z-3.0
G2 F800.0 X354.9416 Y44.78599 I16.48793 J7.84422
G3 X354.73745 Y45.65873 I-3.15758 J-0.27835
G3 X356.06429 Y45.18546 I3.39027 J7.40827
G3 X355.87028 Y42.42311 I5.8727 J-1.80044
G0 Z3.0
G0 X371.526 Y27.39427
G0 Z-1.0
G1 F300.0 Z-3.0
G3 F800.0 X371.73421 Y27.49307 I-4.17453 J9.06594
G2 X371.43765 Y26.92584 I-20.52875 J10.37162
G3 X371.526 Y27.39427 I-26.6131 J5.26156
G1 F300.0 X371.02409 Y28.48426
G3 F800.0 X374.52492 Y31.39609 I-3.67263 J7.97594
G2 X371.1974 Y24.22789 I-23.31946 J6.46861
G3 X370.06251 Y26.24442 I-7.19943 J-2.72421
G3 X370.45126 Y28.24467 I-25.23796 J5.94298
G3 X371.02409 Y28.48426 I-3.0998 J8.21554
G1 F300.0 X370.52219 Y29.57426
G3 F800.0 X374.4241 Y33.73118 I-3.17073 J6.88594
G3 X374.65066 Y34.11479 I-11.60323 J7.11175
G3 X376.38461 Y34.52245 I-1.36872 J9.71324
G2 X370.49346 Y21.33796 I-25.17915 J3.34225
G3 X368.74946 Y25.93564 I-6.49549 J0.16573
G3 X369.36576 Y29.15183 I-23.92491 J6.25176
G3 X370.52219 Y29.57426 I-2.0143 J7.30837
G1 F300.0 X370.02028 Y30.66426
G3 F800.0 X373.34228 Y34.26345 I-2.66882 J5.79595
G3 X373.89351 Y35.24058 I-10.52141 J6.57948
G3 X377.76944 Y36.48087 I-0.61156 J8.58746
G2 X366.18199 Y15.88144 I-26.56398 J1.38382
G3 X366.19541 Y16.55113 I-8.59425 J0.50716
G3 X367.94187 Y17.96671 I-3.55187 J6.16726
G3 X367.67626 Y25.31614 I-3.9439 J3.53698
G3 X367.40277 Y25.5691 I-6.14102 J-6.36502
G3 X368.26397 Y30.14491 I-22.57822 J6.6183
G3 X370.02028 Y30.66426 I-0.91251 J6.3153
G1 F300.0 X369.51838 Y31.75425
G3 F800.0 X372.25617 Y34.79128 I-2.16692 J4.70595
G3 X373.12224 Y36.42375 I-9.43531 J6.05165
G3 X373.12774 Y36.42349 I0.37737 J7.96686
G3 X373.36438 Y36.41929 I0.19105 J4.09314
G3 X379.00546 Y39.12297 I-0.08243 J7.40875
G1 Y37.86469
G2 X364.35461 Y13.37102 I-27.8 J0.0
G3 X364.94466 Y17.26724 I-6.76687 J3.01757
G3 X367.04851 Y18.76789 I-2.30113 J5.45115
G3 X366.84307 Y24.45255 I-3.05053 J2.73579
G3 X366.01361 Y25.14652 I-5.30783 J-5.50143
G3 X367.11671 Y30.91855 I-21.18906 J7.04088
G3 X367.13205 Y31.28397 I-8.24191 J0.52921
G3 X369.51838 Y31.75425 I0.21941 J5.17623
G1 F300.0 X369.01648 Y32.84425
G3 F800.0 X371.16315 Y35.31196 I-1.66502 J3.61595
G3 X372.32936 Y37.71664 I-8.34228 J5.53097
G3 X373.18369 Y37.62218 I1.17025 J6.67397
G3 X373.35103 Y37.61921 I0.1351 J2.89445
G3 X379.25318 Y45.53057 I-0.06908 J6.20882
G3 X380.20546 Y45.82641 I-0.91544 J4.62726
G1 Y37.86469
G2 X356.25994 Y9.30857 I-29.0 J0.0
G3 X356.63516 Y10.2772 I-9.13328 J4.09492
G3 X357.48948 Y10.18274 I1.17025 J6.67397
G3 X357.65682 Y10.17977 I0.1351 J2.89445
G3 X363.55897 Y18.09113 I-0.06908 J6.20882
G3 X366.15515 Y19.56908 I-0.91544 J4.62726
G3 X366.00987 Y23.58896 I-2.15717 J1.9346
G3 X364.64369 Y24.59642 I-4.47463 J-4.63785
G2 X364.69885 Y25.03272 I0.79746 J0.12081
G3 X364.76712 Y25.20913 I-2.66672 J1.13343
G3 X365.9189 Y30.9912 I-19.94257 J6.97827
G3 X365.78078 Y32.90897 I-7.0441 J0.45655
G3 X367.15083 Y32.48438 I1.51608 J2.46933
G3 X369.01648 Y32.84425 I0.20063 J3.97582
G0 Z3.0
G0 X377.80546 Y67.77515
G0 Z-1.0
G1 F300.0 Z-3.0
G3 F800.0 X375.23992 Y68.32225 I-3.23646 J-8.88795
G3 X375.01132 Y68.68286 I-4.58496 J-2.65381
G2 X374.07819 Y70.20861 I13.04111 J9.02392
G1 X377.80546
G1 Y67.77515
G1 F300.0 X377.39487 Y66.64758
G3 F800.0 X374.47706 Y67.14556 I-2.82586 J-7.76038
G3 X374.02453 Y68.00004 I-3.8221 J-1.47712
G2 X372.19885 Y71.40861 I14.0279 J9.70674
G1 X379.00546
G1 Y65.85332
G3 X377.39487 Y66.64758 I-4.43646 J-6.96613
G1 F300.0 X376.98428 Y65.52001
G3 F800.0 X373.55312 Y65.87259 I-2.41527 J-6.63281
G3 X373.51906 Y66.10779 I-14.03169 J-1.91206
G3 X373.03774 Y67.31722 I-2.8641 J-0.43936
G2 X370.6358 Y72.22543 I15.01469 J10.38956
G3 X370.57825 Y72.60861 I-3.15758 J-0.27835
G1 X380.20546
G1 Y63.13668
G3 X376.98428 Y65.52001 I-5.63646 J-4.24948
G0 Z3.0
G0 X353.29193 Y67.80861
G0 Z-1.0
G1 F300.0 Z-3.0
G3 F800.0 X351.47762 Y65.90782 I7.48921 J-8.96474
G3 X349.73311 Y67.80861 I-9.55739 J-7.02063
G1 X353.29193
G1 F300.0 Y69.00861
G1 F800.0 X358.22427
G3 X351.46112 Y63.63936 I2.55687 J-10.16474
G3 X345.26216 Y69.00861 I-9.54089 J-4.75217
G1 X353.29193
G1 F300.0 Y70.20861
G1 F800.0 X361.04655
G2 X359.79933 Y68.07319 I-130.85564 J74.99598
G3 X351.79308 Y61.15883 I0.98181 J-9.22931
G3 X351.73189 Y60.89311 I5.13017 J-1.32132
G3 X352.14342 Y52.85211 I15.83799 J-3.22045
G3 X351.33221 Y52.0529 I3.35849 J-4.22026
G3 X350.72168 Y52.75558 I-4.28881 J-3.10977
G3 X350.4482 Y53.00854 I-6.14102 J-6.36502
G3 X351.35995 Y58.28554 I-22.57822 J6.6183
G3 X342.59114 Y68.32225 I-9.43972 J0.60166
G3 X342.36253 Y68.68286 I-4.58496 J-2.65381
G2 X341.42941 Y70.20861 I13.04111 J9.02392
G1 X353.29193
G1 F300.0 Y71.40861
G1 F800.0 X362.7567
G3 X362.56879 Y70.45763 I10.32629 J-2.53454
G2 X360.76998 Y67.35784 I-132.37788 J74.74696
G3 X360.54427 Y66.92179 I3.5196 J-2.09827
G3 X352.95516 Y60.85953 I0.23686 J-8.07791
G3 X352.90783 Y60.654 I3.9681 J-1.02202
G3 X353.58261 Y52.36037 I14.66205 J-2.98134
G3 X351.31414 Y48.85135 I1.91931 J-3.72852
G3 X351.13938 Y48.82777 I0.46045 J-4.07165
G3 X349.88849 Y51.89199 I-4.09598 J0.11536
G3 X349.05903 Y52.58596 I-5.30783 J-5.50143
G3 X350.16213 Y58.35799 I-21.18906 J7.04088
G3 X341.82828 Y67.14556 I-8.24191 J0.52921
G3 X341.37574 Y68.00004 I-3.8221 J-1.47712
G2 X339.55007 Y71.40861 I14.0279 J9.70674
G1 X353.29193
G0 Z3.0
G0 X328.39777 Y70.20861
G0 Z-1.0
G1 F300.0 Z-3.0
G2 F800.0 X327.15054 Y68.07319 I-130.85564 J74.99598
G3 X324.60546 Y67.42905 I0.98181 J-9.22931
G1 Y70.20861
G1 X328.39777
G1 F300.0 Y71.40861
G1 F800.0 X330.10792
G3 X329.92 Y70.45763 I10.32629 J-2.53454
G2 X328.1212 Y67.35784 I-132.37788 J74.74696
G3 X327.89549 Y66.92179 I3.5196 J-2.09827
G3 X323.40546 Y65.39867 I0.23686 J-8.07791
G1 Y71.40861
G1 X328.39777
G1 F300.0 Y72.60861
G1 F800.0 X331.77218
G3 X331.07711 Y70.06663 I8.66203 J-3.73454
G2 X329.15193 Y66.74335 I-133.53499 J75.13796
G3 X328.77611 Y65.69508 I2.48887 J-1.48378
G3 X322.20546 Y62.34037 I-0.64376 J-6.85121
G1 Y72.60861
G1 X328.39777
G0 Z3.0
G0 X322.20546 Y52.43262
G0 Z-1.0
G1 F300.0 Z-3.0
G3 F800.0 X322.21062 Y52.42231 I2.59478 J1.28966
G2 X322.44904 Y51.59797 I-2.09927 J-1.05382
G3 X322.20546 Y51.55446 I0.40409 J-2.96612
G1 Y52.43262
G0 Z3.0
G0 X330.72895 Y27.39033
G0 Z-1.0
G1 F300.0 Z-3.0
G3 F800.0 X332.42046 Y26.76407 I3.91913 J7.98797
G3 X332.48595 Y26.41498 I19.45521 J3.46915
G3 X331.86672 Y25.41427 I7.32176 J-5.22258
G2 X330.72895 Y27.39033 I19.33874 J12.45042
G1 F300.0 X329.66061 Y26.84384
G2 F800.0 X327.84224 Y31.55598 I21.54486 J11.02085
G3 X328.99156 Y30.1575 I12.73223 J9.2922
G3 X333.47772 Y27.77019 I5.65652 J5.2208
G3 X333.77388 Y26.12514 I18.39795 J2.46302
G3 X332.19992 Y22.88373 I6.03383 J-4.93274
G2 X329.66061 Y26.84384 I19.00554 J14.98097
G1 F300.0 X328.59227 Y26.29735
G2 F800.0 X326.07292 Y34.18839 I22.6132 J11.56734
G3 X327.86037 Y33.74773 I3.21529 J9.19663
G3 X329.87337 Y30.97138 I12.7141 J7.10045
G3 X334.32061 Y28.88896 I4.77471 J4.40692
G3 X334.56635 Y28.88055 I0.38206 J7.57125
G3 X335.08957 Y25.79824 I17.30932 J1.35267
G3 X333.36648 Y19.78347 I4.71814 J-4.60584
G2 X328.59227 Y26.29735 I17.83899 J18.08122
G1 F300.0 X327.52393 Y25.75086
G2 F800.0 X324.65718 Y36.20674 I23.68154 J12.11383
G3 X328.62473 Y34.86834 I4.63102 J7.17828
G3 X330.75518 Y31.78527 I11.94974 J5.97985
G3 X334.38109 Y30.08743 I3.8929 J3.59303
G3 X335.71375 Y30.15994 I0.32159 J6.37277
G3 X336.44922 Y25.41267 I16.16192 J0.07328
G3 X336.58653 Y16.86642 I3.35849 J-4.22026
G3 X337.04278 Y16.56209 I3.16389 J4.24904
G3 X337.70409 Y16.20019 I5.39074 J9.06546
G3 X337.76315 Y14.91117 I8.53869 J-0.25461
G2 X327.52393 Y25.75086 I13.44231 J22.95352
G1 F300.0 X326.45559 Y25.20438
G2 F800.0 X323.40546 Y37.86469 I24.74988 J12.66032
G1 Y38.99122
G3 X329.40133 Y36.0434 I5.88274 J4.3938
G3 X331.63699 Y32.59915 I11.17314 J4.80478
G3 X334.44157 Y31.28591 I3.01109 J2.77915
G3 X336.99746 Y31.81526 I0.26111 J5.1743
G3 X337.8884 Y24.92093 I14.87821 J-1.58204
G3 X337.30321 Y17.82891 I1.91931 J-3.72852
G3 X337.65611 Y17.59351 I2.44721 J3.28656
G3 X338.9688 Y16.94624 I4.77741 J8.03404
G3 X339.73776 Y12.54017 I7.27398 J-1.00066
G2 X326.45559 Y25.20438 I11.4677 J25.32453
G1 F300.0 X325.38725 Y24.65789
G2 F800.0 X322.20546 Y37.86469 I25.81822 J13.20681
G1 Y45.60639
G3 X323.41551 Y45.18546 I3.27348 J7.46061
G3 X330.19858 Y37.31037 I5.8727 J-1.80044
G3 X332.5188 Y33.41304 I10.37589 J3.53781
G3 X334.50205 Y32.48438 I2.12928 J1.96526
G3 X338.51436 Y35.31196 I0.20063 J3.97582
G3 X339.68058 Y37.71664 I-8.34228 J5.53097
G3 X340.5349 Y37.62218 I1.17025 J6.67397
G3 X340.70224 Y37.61921 I0.1351 J2.89445
G3 X346.60439 Y45.53057 I-0.06908 J6.20882
G3 X349.20057 Y47.00852 I-0.91544 J4.62726
G3 X349.05529 Y51.0284 I-2.15717 J1.9346
G3 X347.68911 Y52.03586 I-4.47463 J-4.63785
G2 X347.74428 Y52.47216 I0.79746 J0.12081
G3 X347.81255 Y52.64857 I-2.66672 J1.13343
G3 X348.96432 Y58.43064 I-19.94257 J6.97827
G3 X340.90434 Y65.87259 I-7.0441 J0.45655
G3 X340.87028 Y66.10779 I-14.03169 J-1.91206
G3 X340.38895 Y67.31722 I-2.8641 J-0.43936
G2 X337.98702 Y72.22543 I15.01469 J10.38956
G3 X337.92947 Y72.60861 I-3.15758 J-0.27835
G1 X364.42097
G3 X363.72589 Y70.06663 I8.66203 J-3.73454
G2 X361.80071 Y66.74335 I-133.53499 J75.13796
G3 X361.4249 Y65.69508 I2.48887 J-1.48378
G3 X354.11723 Y60.56023 I-0.64376 J-6.85121
G3 X354.08376 Y60.41488 I2.80602 J-0.72272
G3 X354.74976 Y52.6687 I13.48611 J-2.74223
G3 X354.8594 Y52.42231 I2.69927 J1.05358
G2 X355.09782 Y51.59797 I-2.09927 J-1.05382
G3 X352.7156 Y47.53749 I0.40409 J-2.96612
G3 X351.67427 Y47.67557 I-0.93158 J-3.02984
G3 X349.28535 Y46.26286 I0.10032 J-2.89586
G3 X348.03169 Y42.62719 I8.10345 J-4.82822
G2 X346.1065 Y39.30391 I-133.53499 J75.13796
G3 X345.73069 Y38.25564 I2.48887 J-1.48378
G3 X338.42303 Y33.12079 I-0.64376 J-6.85121
G3 X338.38956 Y32.97544 I2.80602 J-0.72272
G3 X339.05555 Y25.22926 I13.48611 J-2.74223
G3 X339.16519 Y24.98287 I2.69927 J1.05358
G2 X339.40362 Y24.15853 I-2.09927 J-1.05382
G3 X338.01989 Y18.79139 I0.40409 J-2.96612
G3 X338.26944 Y18.62493 I1.73054 J2.32408
G3 X340.37008 Y17.74602 I4.16408 J7.00262
G3 X347.15316 Y9.87093 I5.8727 J-1.80044
G3 X347.44479 Y9.10957 I10.37589 J3.53781
G2 X325.38725 Y24.65789 I3.76068 J28.75513
G1 F300.0 X324.31891 Y24.1114
G2 F800.0 X321.00546 Y37.86469 I26.88656 J13.7533
G1 Y73.80861
G1 X334.21703
G3 X333.35959 Y73.0893 I0.60298 J-1.58947
G3 X332.23963 Y69.69087 I7.07462 J-4.21523
G2 X330.1806 Y66.13009 I-134.69751 J75.51373
G3 X329.94148 Y65.21133 I1.4602 J-0.87052
G3 X329.99942 Y64.14076 I20.86671 J0.59243
G3 X329.76456 Y64.25759 I-4.67358 J-9.10156
G3 X329.40883 Y64.38247 I-0.73752 J-1.53169
G3 X322.6282 Y60.26152 I-1.27647 J-5.53859
G3 X322.60856 Y60.17625 I1.64627 J-0.42401
G3 X323.2166 Y53.10415 I12.31253 J-2.5036
G3 X323.28093 Y52.95959 I1.58364 J0.61813
G2 X323.61556 Y50.82225 I-3.16958 J-1.59111
G2 X322.78991 Y50.42666 I-1.03183 J1.09413
G3 X321.78055 Y47.19139 I0.06322 J-1.79481
G3 X321.92696 Y47.09373 I1.01529 J1.36352
G3 X325.30995 Y46.11948 I3.55198 J5.97327
G3 X324.71857 Y45.27457 I1.55006 J-1.71435
G3 X330.22721 Y38.53011 I4.56963 J-1.88955
G3 X330.72535 Y38.71054 I-0.32282 J1.66907
G3 X331.01095 Y38.87557 I-3.98463 J7.22531
G3 X333.39885 Y34.2253 I9.56352 J1.97261
G3 X334.5624 Y33.68046 I1.24923 J1.153
G3 X337.41101 Y35.81867 I0.14027 J2.77974
G3 X338.82774 Y39.19221 I-7.23893 J5.02426
G3 X340.59074 Y38.81848 I2.02309 J5.1984
G3 X340.68892 Y38.81674 I0.07926 J1.69815
G3 X345.40549 Y45.35809 I-0.05576 J5.0113
G3 X345.07272 Y45.95084 I-1.61883 J-0.51901
G3 X344.63272 Y46.35664 I-2.0083 J-1.73612
G3 X345.9223 Y46.64623 I-0.51699 J5.31847
G3 X348.309 Y47.80811 I-0.23335 J3.5116
G3 X348.22376 Y50.16654 I-1.2656 J1.13502
G3 X346.7409 Y51.17215 I-3.6431 J-3.77599
G2 X346.6421 Y52.94062 I1.74567 J0.98452
G3 X346.68215 Y53.04412 I-1.56455 J0.66498
G3 X347.76893 Y58.50343 I-18.81218 J6.58272
G3 X339.83016 Y64.36316 I-5.8487 J0.38377
G3 X339.68652 Y65.9262 I-12.95751 J-0.40263
G3 X339.40413 Y66.63576 I-1.68034 J-0.25777
G2 X336.80075 Y72.00732 I15.99951 J11.07101
G3 X335.48088 Y73.80861 I-1.97131 J-0.06024
G1 X366.86582
G3 X366.00838 Y73.0893 I0.60298 J-1.58947
G3 X364.88841 Y69.69087 I7.07462 J-4.21523
G2 X362.82938 Y66.13009 I-134.69751 J75.51373
G3 X362.59027 Y65.21133 I1.4602 J-0.87052
G3 X362.6482 Y64.14076 I20.86671 J0.59243
G3 X362.41334 Y64.25759 I-4.67358 J-9.10156
G3 X362.05761 Y64.38247 I-0.73752 J-1.53169
G3 X355.27698 Y60.26152 I-1.27647 J-5.53859
G3 X355.25735 Y60.17625 I1.64627 J-0.42401
G3 X355.86538 Y53.10415 I12.31253 J-2.5036
G3 X355.92971 Y52.95959 I1.58364 J0.61813
G2 X356.26434 Y50.82225 I-3.16958 J-1.59111
G2 X355.4387 Y50.42666 I-1.03183 J1.09413
G3 X354.42934 Y47.19139 I0.06322 J-1.79481
G3 X354.57575 Y47.09373 I1.01529 J1.36352
G3 X357.95873 Y46.11948 I3.55198 J5.97327
G3 X357.36736 Y45.27457 I1.55006 J-1.71435
G3 X362.876 Y38.53011 I4.56963 J-1.88955
G3 X363.37413 Y38.71054 I-0.32282 J1.66907
G3 X363.65973 Y38.87557 I-3.98463 J7.22531
G3 X366.04763 Y34.2253 I9.56352 J1.97261
G3 X367.21119 Y33.68046 I1.24923 J1.153
G3 X370.0598 Y35.81867 I0.14027 J2.77974
G3 X371.47653 Y39.19221 I-7.23893 J5.02426
G3 X373.23952 Y38.81848 I2.02309 J5.1984
G3 X373.3377 Y38.81674 I0.07926 J1.69815
G3 X378.05427 Y45.35809 I-0.05576 J5.0113
G3 X377.72151 Y45.95084 I-1.61883 J-0.51901
G3 X377.28151 Y46.35664 I-2.0083 J-1.73612
G3 X378.57109 Y46.64623 I-0.51699 J5.31847
G3 X380.95778 Y47.80811 I-0.23335 J3.5116
G3 X380.87255 Y50.16654 I-1.2656 J1.13502
G3 X379.38968 Y51.17215 I-3.6431 J-3.77599
G2 X379.29088 Y52.94062 I1.74567 J0.98452
G3 X379.33094 Y53.04412 I-1.56455 J0.66498
G3 X380.41771 Y58.50343 I-18.81218 J6.58272
G3 X372.47894 Y64.36316 I-5.8487 J0.38377
G3 X372.33531 Y65.9262 I-12.95751 J-0.40263
G3 X372.05292 Y66.63576 I-1.68034 J-0.25777
G2 X369.44953 Y72.00732 I15.99951 J11.07101
G3 X368.12966 Y73.80861 I-1.97131 J-0.06024
G1 X381.40546
G1 Y37.86469
G2 X354.16333 Y7.80989 I-30.2 J0.0
G3 X354.36559 Y8.37923 I-2.50608 J1.21087
G3 X355.78232 Y11.75277 I-7.23893 J5.02426
G3 X357.54532 Y11.37904 I2.02309 J5.1984
G3 X357.6435 Y11.3773 I0.07926 J1.69815
G3 X362.36007 Y17.91865 I-0.05576 J5.0113
G3 X362.0273 Y18.5114 I-1.61883 J-0.51901
G3 X361.5873 Y18.9172 I-2.0083 J-1.73612
G3 X362.87688 Y19.20679 I-0.51699 J5.31847
G3 X365.26357 Y20.36867 I-0.23335 J3.5116
G3 X365.17834 Y22.7271 I-1.2656 J1.13502
G3 X363.69547 Y23.73271 I-3.6431 J-3.77599
G2 X363.59668 Y25.50118 I1.74567 J0.98452
G3 X363.63673 Y25.60468 I-1.56455 J0.66498
G3 X364.7235 Y31.06399 I-18.81218 J6.58272
G3 X356.78474 Y36.92372 I-5.8487 J0.38377
G3 X356.6411 Y38.48676 I-12.95751 J-0.40263
G3 X356.35871 Y39.19632 I-1.68034 J-0.25777
G2 X353.75532 Y44.56788 I15.99951 J11.07101
G3 X351.71573 Y46.47869 I-1.97131 J-0.06024
G3 X350.31417 Y45.64986 I0.05886 J-1.69898
G3 X349.19421 Y42.25143 I7.07462 J-4.21523
G2 X347.13517 Y38.69065 I-134.69751 J75.51373
G3 X346.89606 Y37.77189 I1.4602 J-0.87052
G3 X346.954 Y36.70132 I20.86671 J0.59243
G3 X346.71913 Y36.81815 I-4.67358 J-9.10156
G3 X346.3634 Y36.94303 I-0.73752 J-1.53169
G3 X339.58278 Y32.82208 I-1.27647 J-5.53859
G3 X339.56314 Y32.73681 I1.64627 J-0.42401
G3 X340.17118 Y25.66471 I12.31253 J-2.5036
G3 X340.23551 Y25.52015 I1.58364 J0.61813
G2 X340.57014 Y23.38281 I-3.16958 J-1.59111
G2 X339.74449 Y22.98721 I-1.03183 J1.09413
G3 X338.73513 Y19.75195 I0.06322 J-1.79481
G3 X338.88154 Y19.65429 I1.01529 J1.36352
G3 X342.26453 Y18.68004 I3.55198 J5.97327
G3 X341.67315 Y17.83513 I1.55006 J-1.71435
G3 X347.18179 Y11.09067 I4.56963 J-1.88955
G3 X347.67992 Y11.2711 I-0.32282 J1.66907
G3 X347.96552 Y11.43613 I-3.98463 J7.22531
G3 X349.60151 Y7.70732 I9.56352 J1.97261
G2 X324.31891 Y24.1114 I1.60396 J30.15738
G0 Z3.0
G0 X328.5741 Y46.13746
G0 Z1.0
G1 F300.0 Z-1.0
G2 F800.0 X328.16924 Y46.30937 I0.19945 J1.0324
G3 X328.11626 Y46.34511 I-0.97702 J-1.3912
G3 X327.80008 Y46.51651 I-1.25625 J-1.93997
G3 X330.06286 Y47.84357 I-2.32114 J6.55048
G3 X330.33503 Y48.14757 I-1.12132 J1.27775
G3 X330.46633 Y48.3438 I-4.78127 J3.34111
G2 X329.02093 Y46.14788 I-4.69137 J1.5143
G2 X328.5741 Y46.13746 I-0.24739 J1.02197
G1 F300.0 Z-2.0
G2 F800.0 X328.16924 Y46.30937 I0.19945 J1.0324
G3 X328.11626 Y46.34511 I-0.97702 J-1.3912
G3 X327.80008 Y46.51651 I-1.25625 J-1.93997
G3 X330.06286 Y47.84357 I-2.32114 J6.55048
G3 X330.33503 Y48.14757 I-1.12132 J1.27775
G3 X330.46633 Y48.3438 I-4.78127 J3.34111
G2 X329.02093 Y46.14788 I-4.69137 J1.5143
G2 X328.5741 Y46.13746 I-0.24739 J1.02197
G1 F300.0 Z-3.0
G2 F800.0 X328.16924 Y46.30937 I0.19945 J1.0324
G3 X328.11626 Y46.34511 I-0.97702 J-1.3912
G3 X327.80008 Y46.51651 I-1.25625 J-1.93997
G3 X330.06286 Y47.84357 I-2.32114 J6.55048
G3 X330.33503 Y48.14757 I-1.12132 J1.27775
G3 X330.46633 Y48.3438 I-4.78127 J3.34111
G2 X329.02093 Y46.14788 I-4.69137 J1.5143
G2 X328.5741 Y46.13746 I-0.24739 J1.02197
G0 Z3.0
G0 X339.61935 Y48.36489
G0 Z1.0
G1 F300.0 Z-1.0
G2 F800.0 X339.50937 Y48.96682 I16.40505 J3.30831
G3 X342.14911 Y46.70663 I4.60636 J2.7083
G3 X341.11188 Y46.01332 I0.91531 J-2.4919
G2 X339.92692 Y47.03306 I-0.02349 J1.17105
G3 X339.88103 Y47.26159 I-1.68576 J-0.21961
G2 X339.61935 Y48.36489 I16.14337 J4.41161
G1 F300.0 Z-2.0
G2 F800.0 X339.50937 Y48.96682 I16.40505 J3.30831
G3 X342.14911 Y46.70663 I4.60636 J2.7083
G3 X341.11188 Y46.01332 I0.91531 J-2.4919
G2 X339.92692 Y47.03306 I-0.02349 J1.17105
G3 X339.88103 Y47.26159 I-1.68576 J-0.21961
G2 X339.61935 Y48.36489 I16.14337 J4.41161
G1 F300.0 Z-3.0
G2 F800.0 X339.50937 Y48.96682 I16.40505 J3.30831
G3 X342.14911 Y46.70663 I4.60636 J2.7083
G3 X341.11188 Y46.01332 I0.91531 J-2.4919
G2 X339.92692 Y47.03306 I-0.02349 J1.17105
G3 X339.88103 Y47.26159 I-1.68576 J-0.21961
G2 X339.61935 Y48.36489 I16.14337 J4.41161
G0 Z3.0
G0 X360.44887 Y46.51651
G0 Z1.0
G1 F300.0 Z-1.0
G3 F800.0 X362.71165 Y47.84357 I-2.32114 J6.55048
G3 X362.98382 Y48.14757 I-1.12132 J1.27775
G3 X363.11511 Y48.3438 I-4.78127 J3.34111
G2 X361.66972 Y46.14788 I-4.69137 J1.5143
G2 X360.81803 Y46.30937 I-0.24739 J1.02197
G3 X360.76504 Y46.34511 I-0.97702 J-1.3912
G3 X360.44887 Y46.51651 I-1.25625 J-1.93997
G1 F300.0 Z-2.0
G3 F800.0 X362.71165 Y47.84357 I-2.32114 J6.55048
G3 X362.98382 Y48.14757 I-1.12132 J1.27775
G3 X363.11511 Y48.3438 I-4.78127 J3.34111
G2 X361.66972 Y46.14788 I-4.69137 J1.5143
G2 X360.81803 Y46.30937 I-0.24739 J1.02197
G3 X360.76504 Y46.34511 I-0.97702 J-1.3912
G3 X360.44887 Y46.51651 I-1.25625 J-1.93997
G1 F300.0 Z-3.0
G3 F800.0 X362.71165 Y47.84357 I-2.32114 J6.55048
G3 X362.98382 Y48.14757 I-1.12132 J1.27775
G3 X363.11511 Y48.3438 I-4.78127 J3.34111
G2 X361.66972 Y46.14788 I-4.69137 J1.5143
G2 X360.81803 Y46.30937 I-0.24739 J1.02197
G3 X360.76504 Y46.34511 I-0.97702 J-1.3912
G3 X360.44887 Y46.51651 I-1.25625 J-1.93997
G0 Z3.0
G0 X372.21039 Y48.66539
G0 Z1.0
G1 F300.0 Z-1.0
G2 F800.0 X372.15816 Y48.96682 I16.4628 J3.00781
G3 X374.7979 Y46.70663 I4.60636 J2.7083
G3 X373.76066 Y46.01332 I0.91531 J-2.4919
G2 X372.5757 Y47.03306 I-0.02349 J1.17105
G3 X372.52982 Y47.26159 I-1.68576 J-0.21961
G2 X372.21039 Y48.66539 I16.14337 J4.41161
G1 F300.0 Z-2.0
G2 F800.0 X372.15816 Y48.96682 I16.4628 J3.00781
G3 X374.7979 Y46.70663 I4.60636 J2.7083
G3 X373.76066 Y46.01332 I0.91531 J-2.4919
G2 X372.5757 Y47.03306 I-0.02349 J1.17105
G3 X372.52982 Y47.26159 I-1.68576 J-0.21961
G2 X372.21039 Y48.66539 I16.14337 J4.41161
G1 F300.0 Z-3.0
G2 F800.0 X372.15816 Y48.96682 I16.4628 J3.00781
G3 X374.7979 Y46.70663 I4.60636 J2.7083
G3 X373.76066 Y46.01332 I0.91531 J-2.4919
G2 X372.5757 Y47.03306 I-0.02349 J1.17105
G3 X372.52982 Y47.26159 I-1.68576 J-0.21961
G2 X372.21039 Y48.66539 I16.14337 J4.41161
( Tasche-Titel )
S1000
G0 Z3.0
G0 X22.65657 Y239.85875
G0 Z1.0
G1 F300.0 Z-1.0
G3 F800.0 X21.82476 Y237.16822 I38.08755 J-13.24909
G3 X21.92764 Y241.62776 I-604.7235 J16.18217
G3 X23.2868 Y240.99207 I1.86638 J2.2196
G3 X22.94508 Y240.45677 I67.86074 J-43.69744
G3 X22.65657 Y239.85875 I2.45051 J-1.55081
G1 F300.0 X23.78996 Y239.46449
G3 F800.0 X21.648 Y228.14283 I36.95417 J-12.85483
G2 X20.31799 Y228.21992 I-0.66246 J0.08247
G3 X20.76693 Y243.87833 I-603.21672 J25.13047
G2 X22.09402 Y243.84553 I0.66312 J-0.03353
G3 X25.42862 Y243.38037 I1.7 J0.00184
G2 X27.91068 Y244.55558 I2.25472 J-1.55333
G3 X28.08088 Y244.54996 I0.14115 J1.69413
G2 X31.1327 Y243.10507 I0.06508 J-3.80793
G3 X31.14685 Y243.08743 I1.33319 J1.05479
G2 X33.05744 Y238.36811 I-6.72813 J-5.47025
G3 X33.06283 Y238.31556 I1.69361 J0.14722
G2 X33.23675 Y228.19681 I-50.03611 J-5.92088
G2 X32.51823 Y227.55855 I-0.75132 J0.12223
G2 X31.91064 Y228.19766 I-0.00531 J0.60331
G3 X31.59041 Y239.1368 I-34.16848 J4.47402
G3 X31.57898 Y239.19175 I-1.66981 J-0.31894
G3 X30.58551 Y241.85716 I-10.30649 J-2.32362
G3 X30.17739 Y242.35863 I-1.49852 J-0.80277
G3 X25.10307 Y241.57107 I-2.19145 J-2.62121
G3 X23.95908 Y239.81506 I66.04447 J-44.27644
G3 X23.78996 Y239.46449 I1.4365 J-0.9091
G1 F300.0 X22.65657 Y239.85875
G1 Z-2.0
G3 F800.0 X21.82476 Y237.16822 I38.08755 J-13.24909
G3 X21.92764 Y241.62776 I-604.7235 J16.18217
G3 X23.2868 Y240.99207 I1.86638 J2.2196
G3 X22.94508 Y240.45677 I67.86074 J-43.69744
G3 X22.65657 Y239.85875 I2.45051 J-1.55081
G1 F300.0 X23.78996 Y239.46449
G3 F800.0 X21.648 Y228.14283 I36.95417 J-12.85483
G2 X20.31799 Y228.21992 I-0.66246 J0.08247
G3 X20.76693 Y243.87833 I-603.21672 J25.13047
G2 X22.09402 Y243.84553 I0.66312 J-0.03353
G3 X25.42862 Y243.38037 I1.7 J0.00184
G2 X27.91068 Y244.55558 I2.25472 J-1.55333
G3 X28.08088 Y244.54996 I0.14115 J1.69413
G2 X31.1327 Y243.10507 I0.06508 J-3.80793
G3 X31.14685 Y243.08743 I1.33319 J1.05479
G2 X33.05744 Y238.36811 I-6.72813 J-5.47025
G3 X33.06283 Y238.31556 I1.69361 J0.14722
G2 X33.23675 Y228.19681 I-50.03611 J-5.92088
G2 X32.51823 Y227.55855 I-0.75132 J0.12223
G2 X31.91064 Y228.19766 I-0.00531 J0.60331
G3 X31.59041 Y239.1368 I-34.16848 J4.47402
G3 X31.57898 Y239.19175 I-1.66981 J-0.31894
G3 X30.58551 Y241.85716 I-10.30649 J-2.32362
G3 X30.17739 Y242.35863 I-1.49852 J-0.80277
G3 X25.10307 Y241.57107 I-2.19145 J-2.62121
G3 X23.95908 Y239.81506 I66.04447 J-44.27644
G3 X23.78996 Y239.46449 I1.4365 J-0.9091
G1 F300.0 X22.65657 Y239.85875
G1 Z-3.0
G3 F800.0 X21.82476 Y237.16822 I38.08755 J-13.24909
G3 X21.92764 Y241.62776 I-604.7235 J16.18217
G3 X23.2868 Y240.99207 I1.86638 J2.2196
G3 X22.94508 Y240.45677 I67.86074 J-43.69744
G3 X22.65657 Y239.85875 I2.45051 J-1.55081
G1 F300.0 X23.78996 Y239.46449
G3 F800.0 X21.648 Y228.14283 I36.95417 J-12.85483
G2 X20.31799 Y228.21992 I-0.66246 J0.08247
G3 X20.76693 Y243.87833 I-603.21672 J25.13047
G2 X22.09402 Y243.84553 I0.66312 J-0.03353
G3 X25.42862 Y243.38037 I1.7 J0.00184
G2 X27.91068 Y244.55558 I2.25472 J-1.55333
G3 X28.08088 Y244.54996 I0.14115 J1.69413
G2 X31.1327 Y243.10507 I0.06508 J-3.80793
G3 X31.14685 Y243.08743 I1.33319 J1.05479
G2 X33.05744 Y238.36811 I-6.72813 J-5.47025
G3 X33.06283 Y238.31556 I1.69361 J0.14722
G2 X33.23675 Y228.19681 I-50.03611 J-5.92088
G2 X32.51823 Y227.55855 I-0.75132 J0.12223
G2 X31.91064 Y228.19766 I-0.00531 J0.60331
G3 X31.59041 Y239.1368 I-34.16848 J4.47402
G3 X31.57898 Y239.19175 I-1.66981 J-0.31894
G3 X30.58551 Y241.85716 I-10.30649 J-2.32362
G3 X30.17739 Y242.35863 I-1.49852 J-0.80277
G3 X25.10307 Y241.57107 I-2.19145 J-2.62121
G3 X23.95908 Y239.81506 I66.04447 J-44.27644
G3 X23.78996 Y239.46449 I1.4365 J-0.9091
G1 F300.0 X22.65657 Y239.85875
G1 Z-4.0
G3 F800.0 X21.82476 Y237.16822 I38.08755 J-13.24909
G3 X21.92764 Y241.62776 I-604.7235 J16.18217
G3 X23.2868 Y240.99207 I1.86638 J2.2196
G3 X22.94508 Y240.45677 I67.86074 J-43.69744
G3 X22.65657 Y239.85875 I2.45051 J-1.55081
G1 F300.0 X23.78996 Y239.46449
G3 F800.0 X21.648 Y228.14283 I36.95417 J-12.85483
G2 X20.31799 Y228.21992 I-0.66246 J0.08247
G3 X20.76693 Y243.87833 I-603.21672 J25.13047
G2 X22.09402 Y243.84553 I0.66312 J-0.03353
G3 X25.42862 Y243.38037 I1.7 J0.00184
G2 X27.91068 Y244.55558 I2.25472 J-1.55333
G3 X28.08088 Y244.54996 I0.14115 J1.69413
G2 X31.1327 Y243.10507 I0.06508 J-3.80793
G3 X31.14685 Y243.08743 I1.33319 J1.05479
G2 X33.05744 Y238.36811 I-6.72813 J-5.47025
G3 X33.06283 Y238.31556 I1.69361 J0.14722
G2 X33.23675 Y228.19681 I-50.03611 J-5.92088
G2 X32.51823 Y227.55855 I-0.75132 J0.12223
G2 X31.91064 Y228.19766 I-0.00531 J0.60331
G3 X31.59041 Y239.1368 I-34.16848 J4.47402
G3 X31.57898 Y239.19175 I-1.66981 J-0.31894
G3 X30.58551 Y241.85716 I-10.30649 J-2.32362
G3 X30.17739 Y242.35863 I-1.49852 J-0.80277
G3 X25.10307 Y241.57107 I-2.19145 J-2.62121
G3 X23.95908 Y239.81506 I66.04447 J-44.27644
G3 X23.78996 Y239.46449 I1.4365 J-0.9091
G1 F300.0 X22.65657 Y239.85875
G1 Z-5.0
G3 F800.0 X21.82476 Y237.16822 I38.08755 J-13.24909
G3 X21.92764 Y241.62776 I-604.7235 J16.18217
G3 X23.2868 Y240.99207 I1.86638 J2.2196
G3 X22.94508 Y240.45677 I67.86074 J-43.69744
G3 X22.65657 Y239.85875 I2.45051 J-1.55081
G1 F300.0 X23.78996 Y239.46449
G3 F800.0 X21.648 Y228.14283 I36.95417 J-12.85483
G2 X20.31799 Y228.21992 I-0.66246 J0.08247
G3 X20.76693 Y243.87833 I-603.21672 J25.13047
G2 X22.09402 Y243.84553 I0.66312 J-0.03353
G3 X25.42862 Y243.38037 I1.7 J0.00184
G2 X27.91068 Y244.55558 I2.25472 J-1.55333
G3 X28.08088 Y244.54996 I0.14115 J1.69413
G2 X31.1327 Y243.10507 I0.06508 J-3.80793
G3 X31.14685 Y243.08743 I1.33319 J1.05479
G2 X33.05744 Y238.36811 I-6.72813 J-5.47025
G3 X33.06283 Y238.31556 I1.69361 J0.14722
G2 X33.23675 Y228.19681 I-50.03611 J-5.92088
G2 X32.51823 Y227.55855 I-0.75132 J0.12223
G2 X31.91064 Y228.19766 I-0.00531 J0.60331
G3 X31.59041 Y239.1368 I-34.16848 J4.47402
G3 X31.57898 Y239.19175 I-1.66981 J-0.31894
G3 X30.58551 Y241.85716 I-10.30649 J-2.32362
G3 X30.17739 Y242.35863 I-1.49852 J-0.80277
G3 X25.10307 Y241.57107 I-2.19145 J-2.62121
G3 X23.95908 Y239.81506 I66.04447 J-44.27644
G3 X23.78996 Y239.46449 I1.4365 J-0.9091
G1 F300.0 X22.65657 Y239.85875
G1 Z-6.0
G3 F800.0 X21.82476 Y237.16822 I38.08755 J-13.24909
G3 X21.92764 Y241.62776 I-604.7235 J16.18217
G3 X23.2868 Y240.99207 I1.86638 J2.2196
G3 X22.94508 Y240.45677 I67.86074 J-43.69744
G3 X22.65657 Y239.85875 I2.45051 J-1.55081
G1 F300.0 X23.78996 Y239.46449
G3 F800.0 X21.648 Y228.14283 I36.95417 J-12.85483
G2 X20.31799 Y228.21992 I-0.66246 J0.08247
G3 X20.76693 Y243.87833 I-603.21672 J25.13047
G2 X22.09402 Y243.84553 I0.66312 J-0.03353
G3 X25.42862 Y243.38037 I1.7 J0.00184
G2 X27.91068 Y244.55558 I2.25472 J-1.55333
G3 X28.08088 Y244.54996 I0.14115 J1.69413
G2 X31.1327 Y243.10507 I0.06508 J-3.80793
G3 X31.14685 Y243.08743 I1.33319 J1.05479
G2 X33.05744 Y238.36811 I-6.72813 J-5.47025
G3 X33.06283 Y238.31556 I1.69361 J0.14722
G2 X33.23675 Y228.19681 I-50.03611 J-5.92088
G2 X32.51823 Y227.55855 I-0.75132 J0.12223
G2 X31.91064 Y228.19766 I-0.00531 J0.60331
G3 X31.59041 Y239.1368 I-34.16848 J4.47402
G3 X31.57898 Y239.19175 I-1.66981 J-0.31894
G3 X30.58551 Y241.85716 I-10.30649 J-2.32362
G3 X30.17739 Y242.35863 I-1.49852 J-0.80277
G3 X25.10307 Y241.57107 I-2.19145 J-2.62121
G3 X23.95908 Y239.81506 I66.04447 J-44.27644
G3 X23.78996 Y239.46449 I1.4365 J-0.9091
G0 Z3.0
G0 X5.6712 Y236.91728
G0 Z1.0
G1 F300.0 Z-1.0
G3 F800.0 X4.87775 Y235.99191 I1.75563 J-2.30819
G3 X4.37193 Y236.43708 I-2.15587 J-1.93964
G3 X5.16864 Y237.36214 I-1.74978 J2.31263
G3 X5.6712 Y236.91728 I2.16054 J1.93445
G1 F300.0 X6.35726 Y237.90182
G3 F800.0 X7.55805 Y237.61206 I0.97192 J1.39477
G1 X14.74555 Y238.58862
G3 X14.77806 Y238.59336 I-0.22888 J1.68452
G2 X15.52725 Y238.03418 I0.10062 J-0.64666
G3 X15.5278 Y238.03011 I1.68474 J0.22724
G2 X14.98836 Y237.30892 I-0.63517 J-0.08724
G1 X7.20714 Y236.29483
G3 X5.7277 Y234.55492 I0.2197 J-1.68574
G2 X5.92243 Y228.24609 I-3130.0498 J-99.77183
G2 X4.59538 Y228.2545 I-0.66356 J-0.00192
G3 X4.5955 Y228.26385 I-1.69979 J0.02646
G3 X4.41769 Y234.17157 I-73.61723 J0.74085
G3 X2.79966 Y235.75048 I-1.69581 J-0.11931
G2 X2.69769 Y237.05139 I0.03008 J0.65681
G3 X4.32028 Y238.82935 I-0.07554 J1.69832
G2 X5.22988 Y252.00719 I57.10849 J2.67838
G2 X6.87055 Y255.22413 I6.38876 J-1.23147
G3 X6.89503 Y255.25082 I-1.24059 J1.16229
G2 X11.323 Y255.83426 I2.55457 J-2.29316
G2 X14.50103 Y251.37559 I-4.56072 J-6.61271
G3 X14.52073 Y251.30993 I1.63774 J0.45586
G2 X15.25372 Y248.07387 I-17.75599 J-5.72291
G3 X15.27791 Y247.93679 I1.68483 J0.22662
G2 X14.74208 Y247.3199 I-0.49756 J-0.10897
G3 X14.56119 Y247.32388 I-0.12774 J-1.69519
G2 X13.9548 Y247.79768 I-0.01879 J0.60089
G3 X12.37834 Y252.84818 I-13.52698 J-1.45103
G3 X9.90285 Y255.01398 I-3.52524 J-1.53167
G3 X8.4231 Y254.74201 I-0.46429 J-1.63537
G3 X6.48984 Y251.49696 I2.94338 J-3.95194
G3 X5.63017 Y239.23862 I58.22563 J-10.24267
G3 X6.35726 Y237.90182 I1.69901 J0.05796
G1 F300.0 X5.6712 Y236.91728
G1 Z-2.0
G3 F800.0 X4.87775 Y235.99191 I1.75563 J-2.30819
G3 X4.37193 Y236.43708 I-2.15587 J-1.93964
G3 X5.16864 Y237.36214 I-1.74978 J2.31263
G3 X5.6712 Y236.91728 I2.16054 J1.93445
G1 F300.0 X6.35726 Y237.90182
G3 F800.0 X7.55805 Y237.61206 I0.97192 J1.39477
G1 X14.74555 Y238.58862
G3 X14.77806 Y238.59336 I-0.22888 J1.68452
G2 X15.52725 Y238.03418 I0.10062 J-0.64666
G3 X15.5278 Y238.03011 I1.68474 J0.22724
G2 X14.98836 Y237.30892 I-0.63517 J-0.08724
G1 X7.20714 Y236.29483
G3 X5.7277 Y234.55492 I0.2197 J-1.68574
G2 X5.92243 Y228.24609 I-3130.0498 J-99.77183
G2 X4.59538 Y228.2545 I-0.66356 J-0.00192
G3 X4.5955 Y228.26385 I-1.69979 J0.02646
G3 X4.41769 Y234.17157 I-73.61723 J0.74085
G3 X2.79966 Y235.75048 I-1.69581 J-0.11931
G2 X2.69769 Y237.05139 I0.03008 J0.65681
G3 X4.32028 Y238.82935 I-0.07554 J1.69832
G2 X5.22988 Y252.00719 I57.10849 J2.67838
G2 X6.87055 Y255.22413 I6.38876 J-1.23147
G3 X6.89503 Y255.25082 I-1.24059 J1.16229
G2 X11.323 Y255.83426 I2.55457 J-2.29316
G2 X14.50103 Y251.37559 I-4.56072 J-6.61271
G3 X14.52073 Y251.30993 I1.63774 J0.45586
G2 X15.25372 Y248.07387 I-17.75599 J-5.72291
G3 X15.27791 Y247.93679 I1.68483 J0.22662
G2 X14.74208 Y247.3199 I-0.49756 J-0.10897
G3 X14.56119 Y247.32388 I-0.12774 J-1.69519
G2 X13.9548 Y247.79768 I-0.01879 J0.60089
G3 X12.37834 Y252.84818 I-13.52698 J-1.45103
G3 X9.90285 Y255.01398 I-3.52524 J-1.53167
G3 X8.4231 Y254.74201 I-0.46429 J-1.63537
G3 X6.48984 Y251.49696 I2.94338 J-3.95194
G3 X5.63017 Y239.23862 I58.22563 J-10.24267
G3 X6.35726 Y237.90182 I1.69901 J0.05796
G1 F300.0 X5.6712 Y236.91728
G1 Z-3.0
G3 F800.0 X4.87775 Y235.99191 I1.75563 J-2.30819
G3 X4.37193 Y236.43708 I-2.15587 J-1.93964
G3 X5.16864 Y237.36214 I-1.74978 J2.31263
G3 X5.6712 Y236.91728 I2.16054 J1.93445
G1 F300.0 X6.35726 Y237.90182
G3 F800.0 X7.55805 Y237.61206 I0.97192 J1.39477
G1 X14.74555 Y238.58862
G3 X14.77806 Y238.59336 I-0.22888 J1.68452
G2 X15.52725 Y238.03418 I0.10062 J-0.64666
G3 X15.5278 Y238.03011 I1.68474 J0.22724
G2 X14.98836 Y237.30892 I-0.63517 J-0.08724
G1 X7.20714 Y236.29483
G3 X5.7277 Y234.55492 I0.2197 J-1.68574
G2 X5.92243 Y228.24609 I-3130.0498 J-99.77183
G2 X4.59538 Y228.2545 I-0.66356 J-0.00192
G3 X4.5955 Y228.26385 I-1.69979 J0.02646
G3 X4.41769 Y234.17157 I-73.61723 J0.74085
G3 X2.79966 Y235.75048 I-1.69581 J-0.11931
G2 X2.69769 Y237.05139 I0.03008 J0.65681
G3 X4.32028 Y238.82935 I-0.07554 J1.69832
G2 X5.22988 Y252.00719 I57.10849 J2.67838
G2 X6.87055 Y255.22413 I6.38876 J-1.23147
G3 X6.89503 Y255.25082 I-1.24059 J1.16229
G2 X11.323 Y255.83426 I2.55457 J-2.29316
G2 X14.50103 Y251.37559 I-4.56072 J-6.61271
G3 X14.52073 Y251.30993 I1.63774 J0.45586
G2 X15.25372 Y248.07387 I-17.75599 J-5.72291
G3 X15.27791 Y247.93679 I1.68483 J0.22662
G2 X14.74208 Y247.3199 I-0.49756 J-0.10897
G3 X14.56119 Y247.32388 I-0.12774 J-1.69519
G2 X13.9548 Y247.79768 I-0.01879 J0.60089
G3 X12.37834 Y252.84818 I-13.52698 J-1.45103
G3 X9.90285 Y255.01398 I-3.52524 J-1.53167
G3 X8.4231 Y254.74201 I-0.46429 J-1.63537
G3 X6.48984 Y251.49696 I2.94338 J-3.95194
G3 X5.63017 Y239.23862 I58.22563 J-10.24267
G3 X6.35726 Y237.90182 I1.69901 J0.05796
G1 F300.0 X5.6712 Y236.91728
G1 Z-4.0
G3 F800.0 X4.87775 Y235.99191 I1.75563 J-2.30819
G3 X4.37193 Y236.43708 I-2.15587 J-1.93964
G3 X5.16864 Y237.36214 I-1.74978 J2.31263
G3 X5.6712 Y236.91728 I2.16054 J1.93445
G1 F300.0 X6.35726 Y237.90182
G3 F800.0 X7.55805 Y237.61206 I0.97192 J1.39477
G1 X14.74555 Y238.58862
G3 X14.77806 Y238.59336 I-0.22888 J1.68452
G2 X15.52725 Y238.03418 I0.10062 J-0.64666
G3 X15.5278 Y238.03011 I1.68474 J0.22724
G2 X14.98836 Y237.30892 I-0.63517 J-0.08724
G1 X7.20714 Y236.29483
G3 X5.7277 Y234.55492 I0.2197 J-1.68574
G2 X5.92243 Y228.24609 I-3130.0498 J-99.77183
G2 X4.59538 Y228.2545 I-0.66356 J-0.00192
G3 X4.5955 Y228.26385 I-1.69979 J0.02646
G3 X4.41769 Y234.17157 I-73.61723 J0.74085
G3 X2.79966 Y235.75048 I-1.69581 J-0.11931
G2 X2.69769 Y237.05139 I0.03008 J0.65681
G3 X4.32028 Y238.82935 I-0.07554 J1.69832
G2 X5.22988 Y252.00719 I57.10849 J2.67838
G2 X6.87055 Y255.22413 I6.38876 J-1.23147
G3 X6.89503 Y255.25082 I-1.24059 J1.16229
G2 X11.323 Y255.83426 I2.55457 J-2.29316
G2 X14.50103 Y251.37559 I-4.56072 J-6.61271
G3 X14.52073 Y251.30993 I1.63774 J0.45586
G2 X15.25372 Y248.07387 I-17.75599 J-5.72291
G3 X15.27791 Y247.93679 I1.68483 J0.22662
G2 X14.74208 Y247.3199 I-0.49756 J-0.10897
G3 X14.56119 Y247.32388 I-0.12774 J-1.69519
G2 X13.9548 Y247.79768 I-0.01879 J0.60089
G3 X12.37834 Y252.84818 I-13.52698 J-1.45103
G3 X9.90285 Y255.01398 I-3.52524 J-1.53167
G3 X8.4231 Y254.74201 I-0.46429 J-1.63537
G3 X6.48984 Y251.49696 I2.94338 J-3.95194
G3 X5.63017 Y239.23862 I58.22563 J-10.24267
G3 X6.35726 Y237.90182 I1.69901 J0.05796
G1 F300.0 X5.6712 Y236.91728
G1 Z-5.0
G3 F800.0 X4.87775 Y235.99191 I1.75563 J-2.30819
G3 X4.37193 Y236.43708 I-2.15587 J-1.93964
G3 X5.16864 Y237.36214 I-1.74978 J2.31263
G3 X5.6712 Y236.91728 I2.16054 J1.93445
G1 F300.0 X6.35726 Y237.90182
G3 F800.0 X7.55805 Y237.61206 I0.97192 J1.39477
G1 X14.74555 Y238.58862
G3 X14.77806 Y238.59336 I-0.22888 J1.68452
G2 X15.52725 Y238.03418 I0.10062 J-0.64666
G3 X15.5278 Y238.03011 I1.68474 J0.22724
G2 X14.98836 Y237.30892 I-0.63517 J-0.08724
G1 X7.20714 Y236.29483
G3 X5.7277 Y234.55492 I0.2197 J-1.68574
G2 X5.92243 Y228.24609 I-3130.0498 J-99.77183
G2 X4.59538 Y228.2545 I-0.66356 J-0.00192
G3 X4.5955 Y228.26385 I-1.69979 J0.02646
G3 X4.41769 Y234.17157 I-73.61723 J0.74085
G3 X2.79966 Y235.75048 I-1.69581 J-0.11931
G2 X2.69769 Y237.05139 I0.03008 J0.65681
G3 X4.32028 Y238.82935 I-0.07554 J1.69832
G2 X5.22988 Y252.00719 I57.10849 J2.67838
G2 X6.87055 Y255.22413 I6.38876 J-1.23147
G3 X6.89503 Y255.25082 I-1.24059 J1.16229
G2 X11.323 Y255.83426 I2.55457 J-2.29316
G2 X14.50103 Y251.37559 I-4.56072 J-6.61271
G3 X14.52073 Y251.30993 I1.63774 J0.45586
G2 X15.25372 Y248.07387 I-17.75599 J-5.72291
G3 X15.27791 Y247.93679 I1.68483 J0.22662
G2 X14.74208 Y247.3199 I-0.49756 J-0.10897
G3 X14.56119 Y247.32388 I-0.12774 J-1.69519
G2 X13.9548 Y247.79768 I-0.01879 J0.60089
G3 X12.37834 Y252.84818 I-13.52698 J-1.45103
G3 X9.90285 Y255.01398 I-3.52524 J-1.53167
G3 X8.4231 Y254.74201 I-0.46429 J-1.63537
G3 X6.48984 Y251.49696 I2.94338 J-3.95194
G3 X5.63017 Y239.23862 I58.22563 J-10.24267
G3 X6.35726 Y237.90182 I1.69901 J0.05796
G1 F300.0 X5.6712 Y236.91728
G1 Z-6.0
G3 F800.0 X4.87775 Y235.99191 I1.75563 J-2.30819
G3 X4.37193 Y236.43708 I-2.15587 J-1.93964
G3 X5.16864 Y237.36214 I-1.74978 J2.31263
G3 X5.6712 Y236.91728 I2.16054 J1.93445
G1 F300.0 X6.35726 Y237.90182
G3 F800.0 X7.55805 Y237.61206 I0.97192 J1.39477
G1 X14.74555 Y238.58862
G3 X14.77806 Y238.59336 I-0.22888 J1.68452
G2 X15.52725 Y238.03418 I0.10062 J-0.64666
G3 X15.5278 Y238.03011 I1.68474 J0.22724
G2 X14.98836 Y237.30892 I-0.63517 J-0.08724
G1 X7.20714 Y236.29483
G3 X5.7277 Y234.55492 I0.2197 J-1.68574
G2 X5.92243 Y228.24609 I-3130.0498 J-99.77183
G2 X4.59538 Y228.2545 I-0.66356 J-0.00192
G3 X4.5955 Y228.26385 I-1.69979 J0.02646
G3 X4.41769 Y234.17157 I-73.61723 J0.74085
G3 X2.79966 Y235.75048 I-1.69581 J-0.11931
G2 X2.69769 Y237.05139 I0.03008 J0.65681
G3 X4.32028 Y238.82935 I-0.07554 J1.69832
G2 X5.22988 Y252.00719 I57.10849 J2.67838
G2 X6.87055 Y255.22413 I6.38876 J-1.23147
G3 X6.89503 Y255.25082 I-1.24059 J1.16229
G2 X11.323 Y255.83426 I2.55457 J-2.29316
G2 X14.50103 Y251.37559 I-4.56072 J-6.61271
G3 X14.52073 Y251.30993 I1.63774 J0.45586
G2 X15.25372 Y248.07387 I-17.75599 J-5.72291
G3 X15.27791 Y247.93679 I1.68483 J0.22662
G2 X14.74208 Y247.3199 I-0.49756 J-0.10897
G3 X14.56119 Y247.32388 I-0.12774 J-1.69519
G2 X13.9548 Y247.79768 I-0.01879 J0.60089
G3 X12.37834 Y252.84818 I-13.52698 J-1.45103
G3 X9.90285 Y255.01398 I-3.52524 J-1.53167
G3 X8.4231 Y254.74201 I-0.46429 J-1.63537
G3 X6.48984 Y251.49696 I2.94338 J-3.95194
G3 X5.63017 Y239.23862 I58.22563 J-10.24267
G3 X6.35726 Y237.90182 I1.69901 J0.05796
G0 Z3.0
G0 X49.64421 Y231.01105
G0 Z1.0
G1 F300.0 Z-1.0
G3 F800.0 X50.02603 Y231.60108 I-55.88161 J36.58037
G3 X50.31944 Y232.20337 I-2.44295 J1.56269
G3 X51.1492 Y234.86301 I-37.42052 J13.1338
G3 X51.05752 Y230.36182 I553.78284 J-13.53087
G3 X49.64421 Y231.01105 I-1.87287 J-2.21412
G1 F300.0 X48.6402 Y231.66828
G3 F800.0 X49.01516 Y232.24771 I-54.8776 J35.92314
G3 X49.18715 Y232.60078 I-1.43207 J0.91606
G3 X51.33088 Y243.91034 I-36.28823 J12.73639
G2 X52.64162 Y243.82163 I0.65291 J-0.08076
G3 X52.23088 Y228.5375 I552.29042 J-22.48948
G3 X52.24811 Y228.27297 I1.69986 J-0.02216
G2 X50.88453 Y228.16734 I-0.67831 J-0.0977
G3 X47.58551 Y228.72454 I-1.69989 J-0.01965
G2 X45.0619 Y227.51298 I-2.27549 J1.50566
G3 X44.95336 Y227.5194 I-0.15459 J-1.69296
G2 X40.61234 Y230.87287 I0.126 J4.64954
G3 X40.59793 Y230.91996 I-1.63267 J-0.47371
G2 X39.55897 Y238.67879 I21.01406 J6.76291
G3 X39.5607 Y238.75349 I-1.69827 J0.07669
G2 X39.74611 Y243.8823 I73.40367 J-0.08584
G2 X40.40479 Y244.51002 I0.69831 J-0.0733
G2 X41.06349 Y243.81685 I-0.03171 J-0.68969
G3 X41.38699 Y232.90668 I34.56527 J-4.43497
G3 X41.39619 Y232.8614 I1.6704 J0.31588
G3 X42.40214 Y230.17648 I9.73489 J2.11643
G3 X42.79151 Y229.6998 I1.48954 J0.81932
G3 X47.86024 Y230.50412 I2.189 J2.57865
G3 X48.6402 Y231.66828 I-54.09764 J37.0873
G1 F300.0 X49.64421 Y231.01105
G1 Z-2.0
G3 F800.0 X50.02603 Y231.60108 I-55.88161 J36.58037
G3 X50.31944 Y232.20337 I-2.44295 J1.56269
G3 X51.1492 Y234.86301 I-37.42052 J13.1338
G3 X51.05752 Y230.36182 I553.78284 J-13.53087
G3 X49.64421 Y231.01105 I-1.87287 J-2.21412
G1 F300.0 X48.6402 Y231.66828
G3 F800.0 X49.01516 Y232.24771 I-54.8776 J35.92314
G3 X49.18715 Y232.60078 I-1.43207 J0.91606
G3 X51.33088 Y243.91034 I-36.28823 J12.73639
G2 X52.64162 Y243.82163 I0.65291 J-0.08076
G3 X52.23088 Y228.5375 I552.29042 J-22.48948
G3 X52.24811 Y228.27297 I1.69986 J-0.02216
G2 X50.88453 Y228.16734 I-0.67831 J-0.0977
G3 X47.58551 Y228.72454 I-1.69989 J-0.01965
G2 X45.0619 Y227.51298 I-2.27549 J1.50566
G3 X44.95336 Y227.5194 I-0.15459 J-1.69296
G2 X40.61234 Y230.87287 I0.126 J4.64954
G3 X40.59793 Y230.91996 I-1.63267 J-0.47371
G2 X39.55897 Y238.67879 I21.01406 J6.76291
G3 X39.5607 Y238.75349 I-1.69827 J0.07669
G2 X39.74611 Y243.8823 I73.40367 J-0.08584
G2 X40.40479 Y244.51002 I0.69831 J-0.0733
G2 X41.06349 Y243.81685 I-0.03171 J-0.68969
G3 X41.38699 Y232.90668 I34.56527 J-4.43497
G3 X41.39619 Y232.8614 I1.6704 J0.31588
G3 X42.40214 Y230.17648 I9.73489 J2.11643
G3 X42.79151 Y229.6998 I1.48954 J0.81932
G3 X47.86024 Y230.50412 I2.189 J2.57865
G3 X48.6402 Y231.66828 I-54.09764 J37.0873
G1 F300.0 X49.64421 Y231.01105
G1 Z-3.0
G3 F800.0 X50.02603 Y231.60108 I-55.88161 J36.58037
G3 X50.31944 Y232.20337 I-2.44295 J1.56269
G3 X51.1492 Y234.86301 I-37.42052 J13.1338
G3 X51.05752 Y230.36182 I553.78284 J-13.53087
G3 X49.64421 Y231.01105 I-1.87287 J-2.21412
G1 F300.0 X48.6402 Y231.66828
G3 F800.0 X49.01516 Y232.24771 I-54.8776 J35.92314
G3 X49.18715 Y232.60078 I-1.43207 J0.91606
G3 X51.33088 Y243.91034 I-36.28823 J12.73639
G2 X52.64162 Y243.82163 I0.65291 J-0.08076
G3 X52.23088 Y228.5375 I552.29042 J-22.48948
G3 X52.24811 Y228.27297 I1.69986 J-0.02216
G2 X50.88453 Y228.16734 I-0.67831 J-0.0977
G3 X47.58551 Y228.72454 I-1.69989 J-0.01965
G2 X45.0619 Y227.51298 I-2.27549 J1.50566
G3 X44.95336 Y227.5194 I-0.15459 J-1.69296
G2 X40.61234 Y230.87287 I0.126 J4.64954
G3 X40.59793 Y230.91996 I-1.63267 J-0.47371
G2 X39.55897 Y238.67879 I21.01406 J6.76291
G3 X39.5607 Y238.75349 I-1.69827 J0.07669
G2 X39.74611 Y243.8823 I73.40367 J-0.08584
G2 X40.40479 Y244.51002 I0.69831 J-0.0733
G2 X41.06349 Y243.81685 I-0.03171 J-0.68969
G3 X41.38699 Y232.90668 I34.56527 J-4.43497
G3 X41.39619 Y232.8614 I1.6704 J0.31588
G3 X42.40214 Y230.17648 I9.73489 J2.11643
G3 X42.79151 Y229.6998 I1.48954 J0.81932
G3 X47.86024 Y230.50412 I2.189 J2.57865
G3 X48.6402 Y231.66828 I-54.09764 J37.0873
G1 F300.0 X49.64421 Y231.01105
G1 Z-4.0
G3 F800.0 X50.02603 Y231.60108 I-55.88161 J36.58037
G3 X50.31944 Y232.20337 I-2.44295 J1.56269
G3 X51.1492 Y234.86301 I-37.42052 J13.1338
G3 X51.05752 Y230.36182 I553.78284 J-13.53087
G3 X49.64421 Y231.01105 I-1.87287 J-2.21412
G1 F300.0 X48.6402 Y231.66828
G3 F800.0 X49.01516 Y232.24771 I-54.8776 J35.92314
G3 X49.18715 Y232.60078 I-1.43207 J0.91606
G3 X51.33088 Y243.91034 I-36.28823 J12.73639
G2 X52.64162 Y243.82163 I0.65291 J-0.08076
G3 X52.23088 Y228.5375 I552.29042 J-22.48948
G3 X52.24811 Y228.27297 I1.69986 J-0.02216
G2 X50.88453 Y228.16734 I-0.67831 J-0.0977
G3 X47.58551 Y228.72454 I-1.69989 J-0.01965
G2 X45.0619 Y227.51298 I-2.27549 J1.50566
G3 X44.95336 Y227.5194 I-0.15459 J-1.69296
G2 X40.61234 Y230.87287 I0.126 J4.64954
G3 X40.59793 Y230.91996 I-1.63267 J-0.47371
G2 X39.55897 Y238.67879 I21.01406 J6.76291
G3 X39.5607 Y238.75349 I-1.69827 J0.07669
G2 X39.74611 Y243.8823 I73.40367 J-0.08584
G2 X40.40479 Y244.51002 I0.69831 J-0.0733
G2 X41.06349 Y243.81685 I-0.03171 J-0.68969
G3 X41.38699 Y232.90668 I34.56527 J-4.43497
G3 X41.39619 Y232.8614 I1.6704 J0.31588
G3 X42.40214 Y230.17648 I9.73489 J2.11643
G3 X42.79151 Y229.6998 I1.48954 J0.81932
G3 X47.86024 Y230.50412 I2.189 J2.57865
G3 X48.6402 Y231.66828 I-54.09764 J37.0873
G1 F300.0 X49.64421 Y231.01105
G1 Z-5.0
G3 F800.0 X50.02603 Y231.60108 I-55.88161 J36.58037
G3 X50.31944 Y232.20337 I-2.44295 J1.56269
G3 X51.1492 Y234.86301 I-37.42052 J13.1338
G3 X51.05752 Y230.36182 I553.78284 J-13.53087
G3 X49.64421 Y231.01105 I-1.87287 J-2.21412
G1 F300.0 X48.6402 Y231.66828
G3 F800.0 X49.01516 Y232.24771 I-54.8776 J35.92314
G3 X49.18715 Y232.60078 I-1.43207 J0.91606
G3 X51.33088 Y243.91034 I-36.28823 J12.73639
G2 X52.64162 Y243.82163 I0.65291 J-0.08076
G3 X52.23088 Y228.5375 I552.29042 J-22.48948
G3 X52.24811 Y228.27297 I1.69986 J-0.02216
G2 X50.88453 Y228.16734 I-0.67831 J-0.0977
G3 X47.58551 Y228.72454 I-1.69989 J-0.01965
G2 X45.0619 Y227.51298 I-2.27549 J1.50566
G3 X44.95336 Y227.5194 I-0.15459 J-1.69296
G2 X40.61234 Y230.87287 I0.126 J4.64954
G3 X40.59793 Y230.91996 I-1.63267 J-0.47371
G2 X39.55897 Y238.67879 I21.01406 J6.76291
G3 X39.5607 Y238.75349 I-1.69827 J0.07669
G2 X39.74611 Y243.8823 I73.40367 J-0.08584
G2 X40.40479 Y244.51002 I0.69831 J-0.0733
G2 X41.06349 Y243.81685 I-0.03171 J-0.68969
G3 X41.38699 Y232.90668 I34.56527 J-4.43497
G3 X41.39619 Y232.8614 I1.6704 J0.31588
G3 X42.40214 Y230.17648 I9.73489 J2.11643
G3 X42.79151 Y229.6998 I1.48954 J0.81932
G3 X47.86024 Y230.50412 I2.189 J2.57865
G3 X48.6402 Y231.66828 I-54.09764 J37.0873
G1 F300.0 X49.64421 Y231.01105
G1 Z-6.0
G3 F800.0 X50.02603 Y231.60108 I-55.88161 J36.58037
G3 X50.31944 Y232.20337 I-2.44295 J1.56269
G3 X51.1492 Y234.86301 I-37.42052 J13.1338
G3 X51.05752 Y230.36182 I553.78284 J-13.53087
G3 X49.64421 Y231.01105 I-1.87287 J-2.21412
G1 F300.0 X48.6402 Y231.66828
G3 F800.0 X49.01516 Y232.24771 I-54.8776 J35.92314
G3 X49.18715 Y232.60078 I-1.43207 J0.91606
G3 X51.33088 Y243.91034 I-36.28823 J12.73639
G2 X52.64162 Y243.82163 I0.65291 J-0.08076
G3 X52.23088 Y228.5375 I552.29042 J-22.48948
G3 X52.24811 Y228.27297 I1.69986 J-0.02216
G2 X50.88453 Y228.16734 I-0.67831 J-0.0977
G3 X47.58551 Y228.72454 I-1.69989 J-0.01965
G2 X45.0619 Y227.51298 I-2.27549 J1.50566
G3 X44.95336 Y227.5194 I-0.15459 J-1.69296
G2 X40.61234 Y230.87287 I0.126 J4.64954
G3 X40.59793 Y230.91996 I-1.63267 J-0.47371
G2 X39.55897 Y238.67879 I21.01406 J6.76291
G3 X39.5607 Y238.75349 I-1.69827 J0.07669
G2 X39.74611 Y243.8823 I73.40367 J-0.08584
G2 X40.40479 Y244.51002 I0.69831 J-0.0733
G2 X41.06349 Y243.81685 I-0.03171 J-0.68969
G3 X41.38699 Y232.90668 I34.56527 J-4.43497
G3 X41.39619 Y232.8614 I1.6704 J0.31588
G3 X42.40214 Y230.17648 I9.73489 J2.11643
G3 X42.79151 Y229.6998 I1.48954 J0.81932
G3 X47.86024 Y230.50412 I2.189 J2.57865
G3 X48.6402 Y231.66828 I-54.09764 J37.0873
G0 Z3.0
G0 X60.06695 Y237.16822
G0 Z1.0
G1 F300.0 Z-1.0
G3 F800.0 X60.16983 Y241.62776 I-604.7235 J16.18217
G3 X61.52899 Y240.99207 I1.86638 J2.2196
G3 X61.18726 Y240.45677 I67.86074 J-43.69744
G3 X60.89876 Y239.85875 I2.45051 J-1.55081
G3 X60.06695 Y237.16822 I38.08755 J-13.24909
G1 F300.0 X58.86738 Y237.20032
G3 F800.0 X59.00912 Y243.87833 I-603.52393 J16.15007
G2 X60.33621 Y243.84553 I0.66312 J-0.03353
G3 X63.67081 Y243.38037 I1.7 J0.00184
G2 X66.15287 Y244.55558 I2.25472 J-1.55333
G3 X66.32307 Y244.54996 I0.14115 J1.69413
G2 X69.37489 Y243.10507 I0.06508 J-3.80793
G3 X69.38904 Y243.08743 I1.33319 J1.05479
G2 X71.29963 Y238.36811 I-6.72813 J-5.47025
G3 X71.30502 Y238.31556 I1.69361 J0.14722
G2 X71.47894 Y228.19681 I-50.03611 J-5.92088
G2 X70.76042 Y227.55855 I-0.75132 J0.12223
G2 X70.15283 Y228.19766 I-0.00531 J0.60331
G3 X69.8326 Y239.1368 I-34.16848 J4.47402
G3 X69.82116 Y239.19175 I-1.66981 J-0.31894
G3 X68.8277 Y241.85716 I-10.30649 J-2.32362
G3 X68.41958 Y242.35863 I-1.49852 J-0.80277
G3 X63.34526 Y241.57107 I-2.19145 J-2.62121
G3 X62.20127 Y239.81506 I66.04447 J-44.27644
G3 X62.03214 Y239.46449 I1.4365 J-0.9091
G3 X59.89019 Y228.14283 I36.95417 J-12.85483
G2 X58.56017 Y228.21992 I-0.66246 J0.08247
G3 X58.86738 Y237.20032 I-603.21672 J25.13047
G1 F300.0 X60.06695 Y237.16822
G1 Z-2.0
G3 F800.0 X60.16983 Y241.62776 I-604.7235 J16.18217
G3 X61.52899 Y240.99207 I1.86638 J2.2196
G3 X61.18726 Y240.45677 I67.86074 J-43.69744
G3 X60.89876 Y239.85875 I2.45051 J-1.55081
G3 X60.06695 Y237.16822 I38.08755 J-13.24909
G1 F300.0 X58.86738 Y237.20032
G3 F800.0 X59.00912 Y243.87833 I-603.52393 J16.15007
G2 X60.33621 Y243.84553 I0.66312 J-0.03353
G3 X63.67081 Y243.38037 I1.7 J0.00184
G2 X66.15287 Y244.55558 I2.25472 J-1.55333
G3 X66.32307 Y244.54996 I0.14115 J1.69413
G2 X69.37489 Y243.10507 I0.06508 J-3.80793
G3 X69.38904 Y243.08743 I1.33319 J1.05479
G2 X71.29963 Y238.36811 I-6.72813 J-5.47025
G3 X71.30502 Y238.31556 I1.69361 J0.14722
G2 X71.47894 Y228.19681 I-50.03611 J-5.92088
G2 X70.76042 Y227.55855 I-0.75132 J0.12223
G2 X70.15283 Y228.19766 I-0.00531 J0.60331
G3 X69.8326 Y239.1368 I-34.16848 J4.47402
G3 X69.82116 Y239.19175 I-1.66981 J-0.31894
G3 X68.8277 Y241.85716 I-10.30649 J-2.32362
G3 X68.41958 Y242.35863 I-1.49852 J-0.80277
G3 X63.34526 Y241.57107 I-2.19145 J-2.62121
G3 X62.20127 Y239.81506 I66.04447 J-44.27644
G3 X62.03214 Y239.46449 I1.4365 J-0.9091
G3 X59.89019 Y228.14283 I36.95417 J-12.85483
G2 X58.56017 Y228.21992 I-0.66246 J0.08247
G3 X58.86738 Y237.20032 I-603.21672 J25.13047
G1 F300.0 X60.06695 Y237.16822
G1 Z-3.0
G3 F800.0 X60.16983 Y241.62776 I-604.7235 J16.18217
G3 X61.52899 Y240.99207 I1.86638 J2.2196
G3 X61.18726 Y240.45677 I67.86074 J-43.69744
G3 X60.89876 Y239.85875 I2.45051 J-1.55081
G3 X60.06695 Y237.16822 I38.08755 J-13.24909
G1 F300.0 X58.86738 Y237.20032
G3 F800.0 X59.00912 Y243.87833 I-603.52393 J16.15007
G2 X60.33621 Y243.84553 I0.66312 J-0.03353
G3 X63.67081 Y243.38037 I1.7 J0.00184
G2 X66.15287 Y244.55558 I2.25472 J-1.55333
G3 X66.32307 Y244.54996 I0.14115 J1.69413
G2 X69.37489 Y243.10507 I0.06508 J-3.80793
G3 X69.38904 Y243.08743 I1.33319 J1.05479
G2 X71.29963 Y238.36811 I-6.72813 J-5.47025
G3 X71.30502 Y238.31556 I1.69361 J0.14722
G2 X71.47894 Y228.19681 I-50.03611 J-5.92088
G2 X70.76042 Y227.55855 I-0.75132 J0.12223
G2 X70.15283 Y228.19766 I-0.00531 J0.60331
G3 X69.8326 Y239.1368 I-34.16848 J4.47402
G3 X69.82116 Y239.19175 I-1.66981 J-0.31894
G3 X68.8277 Y241.85716 I-10.30649 J-2.32362
G3 X68.41958 Y242.35863 I-1.49852 J-0.80277
G3 X63.34526 Y241.57107 I-2.19145 J-2.62121
G3 X62.20127 Y239.81506 I66.04447 J-44.27644
G3 X62.03214 Y239.46449 I1.4365 J-0.9091
G3 X59.89019 Y228.14283 I36.95417 J-12.85483
G2 X58.56017 Y228.21992 I-0.66246 J0.08247
G3 X58.86738 Y237.20032 I-603.21672 J25.13047
G1 F300.0 X60.06695 Y237.16822
G1 Z-4.0
G3 F800.0 X60.16983 Y241.62776 I-604.7235 J16.18217
G3 X61.52899 Y240.99207 I1.86638 J2.2196
G3 X61.18726 Y240.45677 I67.86074 J-43.69744
G3 X60.89876 Y239.85875 I2.45051 J-1.55081
G3 X60.06695 Y237.16822 I38.08755 J-13.24909
G1 F300.0 X58.86738 Y237.20032
G3 F800.0 X59.00912 Y243.87833 I-603.52393 J16.15007
G2 X60.33621 Y243.84553 I0.66312 J-0.03353
G3 X63.67081 Y243.38037 I1.7 J0.00184
G2 X66.15287 Y244.55558 I2.25472 J-1.55333
G3 X66.32307 Y244.54996 I0.14115 J1.69413
G2 X69.37489 Y243.10507 I0.06508 J-3.80793
G3 X69.38904 Y243.08743 I1.33319 J1.05479
G2 X71.29963 Y238.36811 I-6.72813 J-5.47025
G3 X71.30502 Y238.31556 I1.69361 J0.14722
G2 X71.47894 Y228.19681 I-50.03611 J-5.92088
G2 X70.76042 Y227.55855 I-0.75132 J0.12223
G2 X70.15283 Y228.19766 I-0.00531 J0.60331
G3 X69.8326 Y239.1368 I-34.16848 J4.47402
G3 X69.82116 Y239.19175 I-1.66981 J-0.31894
G3 X68.8277 Y241.85716 I-10.30649 J-2.32362
G3 X68.41958 Y242.35863 I-1.49852 J-0.80277
G3 X63.34526 Y241.57107 I-2.19145 J-2.62121
G3 X62.20127 Y239.81506 I66.04447 J-44.27644
G3 X62.03214 Y239.46449 I1.4365 J-0.9091
G3 X59.89019 Y228.14283 I36.95417 J-12.85483
G2 X58.56017 Y228.21992 I-0.66246 J0.08247
G3 X58.86738 Y237.20032 I-603.21672 J25.13047
G1 F300.0 X60.06695 Y237.16822
G1 Z-5.0
G3 F800.0 X60.16983 Y241.62776 I-604.7235 J16.18217
G3 X61.52899 Y240.99207 I1.86638 J2.2196
G3 X61.18726 Y240.45677 I67.86074 J-43.69744
G3 X60.89876 Y239.85875 I2.45051 J-1.55081
G3 X60.06695 Y237.16822 I38.08755 J-13.24909
G1 F300.0 X58.86738 Y237.20032
G3 F800.0 X59.00912 Y243.87833 I-603.52393 J16.15007
G2 X60.33621 Y243.84553 I0.66312 J-0.03353
G3 X63.67081 Y243.38037 I1.7 J0.00184
G2 X66.15287 Y244.55558 I2.25472 J-1.55333
G3 X66.32307 Y244.54996 I0.14115 J1.69413
G2 X69.37489 Y243.10507 I0.06508 J-3.80793
G3 X69.38904 Y243.08743 I1.33319 J1.05479
G2 X71.29963 Y238.36811 I-6.72813 J-5.47025
G3 X71.30502 Y238.31556 I1.69361 J0.14722
G2 X71.47894 Y228.19681 I-50.03611 J-5.92088
G2 X70.76042 Y227.55855 I-0.75132 J0.12223
G2 X70.15283 Y228.19766 I-0.00531 J0.60331
G3 X69.8326 Y239.1368 I-34.16848 J4.47402
G3 X69.82116 Y239.19175 I-1.66981 J-0.31894
G3 X68.8277 Y241.85716 I-10.30649 J-2.32362
G3 X68.41958 Y242.35863 I-1.49852 J-0.80277
G3 X63.34526 Y241.57107 I-2.19145 J-2.62121
G3 X62.20127 Y239.81506 I66.04447 J-44.27644
G3 X62.03214 Y239.46449 I1.4365 J-0.9091
G3 X59.89019 Y228.14283 I36.95417 J-12.85483
G2 X58.56017 Y228.21992 I-0.66246 J0.08247
G3 X58.86738 Y237.20032 I-603.21672 J25.13047
G1 F300.0 X60.06695 Y237.16822
G1 Z-6.0
G3 F800.0 X60.16983 Y241.62776 I-604.7235 J16.18217
G3 X61.52899 Y240.99207 I1.86638 J2.2196
G3 X61.18726 Y240.45677 I67.86074 J-43.69744
G3 X60.89876 Y239.85875 I2.45051 J-1.55081
G3 X60.06695 Y237.16822 I38.08755 J-13.24909
G1 F300.0 X58.86738 Y237.20032
G3 F800.0 X59.00912 Y243.87833 I-603.52393 J16.15007
G2 X60.33621 Y243.84553 I0.66312 J-0.03353
G3 X63.67081 Y243.38037 I1.7 J0.00184
G2 X66.15287 Y244.55558 I2.25472 J-1.55333
G3 X66.32307 Y244.54996 I0.14115 J1.69413
G2 X69.37489 Y243.10507 I0.06508 J-3.80793
G3 X69.38904 Y243.08743 I1.33319 J1.05479
G2 X71.29963 Y238.36811 I-6.72813 J-5.47025
G3 X71.30502 Y238.31556 I1.69361 J0.14722
G2 X71.47894 Y228.19681 I-50.03611 J-5.92088
G2 X70.76042 Y227.55855 I-0.75132 J0.12223
G2 X70.15283 Y228.19766 I-0.00531 J0.60331
G3 X69.8326 Y239.1368 I-34.16848 J4.47402
G3 X69.82116 Y239.19175 I-1.66981 J-0.31894
G3 X68.8277 Y241.85716 I-10.30649 J-2.32362
G3 X68.41958 Y242.35863 I-1.49852 J-0.80277
G3 X63.34526 Y241.57107 I-2.19145 J-2.62121
G3 X62.20127 Y239.81506 I66.04447 J-44.27644
G3 X62.03214 Y239.46449 I1.4365 J-0.9091
G3 X59.89019 Y228.14283 I36.95417 J-12.85483
G2 X58.56017 Y228.21992 I-0.66246 J0.08247
G3 X58.86738 Y237.20032 I-603.21672 J25.13047
G0 Z3.0
G0 X77.81065 Y236.89069
G0 Z1.0
G1 F300.0 Z-1.0
G2 F800.0 X77.81191 Y236.94864 I5.28917 J-0.08645
G3 X77.81277 Y237.01644 I-2.29914 J0.06279
G2 X82.66764 Y243.53621 I6.78539 J0.01479
G3 X82.54781 Y243.42814 I1.47794 J-1.75916
G3 X77.94155 Y237.07025 I1.99308 J-6.29153
G3 X83.59058 Y231.5483 I5.47161 J-0.05296
G3 X89.52086 Y236.59186 I0.1354 J5.84901
G3 X86.47717 Y241.09009 I-3.84721 J0.67567
G3 X86.49377 Y241.23388 I-2.27299 J0.3354
G2 X89.6346 Y236.59146 I-0.82452 J-3.9415
G3 X89.63065 Y236.56842 I2.26489 J-0.40034
G2 X85.53547 Y231.74806 I-6.07344 J1.01001
G3 X83.97452 Y229.58134 I0.73902 J-2.17804
G2 X83.73105 Y227.06047 I-13.87906 J0.06828
G3 X85.56256 Y224.3716 I2.25963 J-0.42906
G2 X88.07752 Y219.2171 I-0.66604 J-3.51577
G3 X88.05931 Y219.18098 I2.04463 J-1.05332
G2 X79.31322 Y218.78949 I-4.48071 J2.20948
G2 X81.14234 Y223.56483 I3.70847 J1.31751
G3 X81.26971 Y223.63945 I-1.09832 J2.02081
G2 X81.79624 Y223.90869 I1.76593 J-2.80401
G3 X79.20303 Y220.51718 I2.27721 J-4.42836
G3 X79.3049 Y219.21637 I2.24724 J-0.47841
G3 X83.76474 Y216.49103 I3.99953 J1.53318
G3 X88.34564 Y220.70658 I-0.08215 J4.686
G3 X88.33309 Y221.26951 I-2.286 J0.23063
G3 X84.56698 Y224.43538 I-3.66389 J-0.53554
G3 X82.34052 Y224.14863 I-0.49352 J-4.95505
G3 X83.47233 Y225.9886 I-1.16368 J1.9839
G2 X83.81657 Y228.99623 I29.43384 J-1.84542
G3 X82.01821 Y231.62612 I-2.26865 J0.37848
G2 X77.81065 Y236.89069 I1.08162 J5.17812
G1 F300.0 X77.21073 Y236.9005
G2 F800.0 X77.21214 Y236.96502 I5.88909 J-0.09626
G3 X77.21277 Y237.01513 I-1.69937 J0.04641
G2 X84.38903 Y244.41367 I7.38539 J0.0161
G3 X84.48763 Y244.41934 I-0.04814 J1.69932
G2 X85.1429 Y244.03212 I0.05652 J-0.6524
G3 X85.09924 Y243.18437 I1.62215 J-0.50854
G3 X82.87069 Y242.90162 I-0.95365 J-1.40732
G3 X78.53918 Y237.07033 I1.6702 J-5.76501
G3 X83.58777 Y232.14615 I4.87398 J-0.05304
G3 X88.93043 Y236.68487 I0.13821 J5.25116
G3 X86.20013 Y240.53387 I-3.25679 J0.58266
G2 X85.81813 Y240.89149 I0.22473 J0.62288
G3 X85.88105 Y241.70497 I-1.61395 J0.534
G1 X85.82245 Y242.05653
G3 X85.8114 Y242.11626 I-1.67687 J-0.27948
G3 X86.47062 Y241.84927 I0.95365 J1.40732
G2 X90.22544 Y236.48702 I-0.80136 J-4.55689
G3 X90.22252 Y236.47 I1.67405 J-0.29591
G2 X85.72826 Y231.17988 I-6.66531 J1.10844
G3 X84.57451 Y229.57839 I0.54623 J-1.60986
G2 X84.32052 Y226.94854 I-14.47905 J0.07123
G3 X85.67424 Y224.96112 I1.67016 J-0.31713
G2 X88.6109 Y218.94232 I-0.77772 J-4.10528
G3 X88.59744 Y218.91562 I1.51125 J-0.77854
G2 X78.76917 Y218.52988 I-5.01884 J2.47484
G2 X80.85582 Y224.092 I4.25252 J1.57711
G3 X80.94997 Y224.14715 I-0.8118 J1.49365
G2 X81.73973 Y224.52842 I2.08567 J-3.31171
G3 X82.8735 Y226.02615 I-0.5629 J1.6041
G2 X83.22475 Y229.09496 I30.03266 J-1.88296
G3 X81.89553 Y231.03879 I-1.67682 J0.27975
G2 X77.21073 Y236.9005 I1.2043 J5.76545
G0 Z3.0
G0 X82.46731 Y223.55733
G0 Z1.0
G1 F300.0 Z-1.0
G3 F800.0 X79.78753 Y220.39275 I1.60615 J-4.077
G3 X79.86291 Y219.43027 I1.66274 J-0.35398
G3 X83.72722 Y217.08815 I3.44153 J1.31928
G3 X87.75106 Y220.76657 I-0.04462 J4.08887
G3 X87.74177 Y221.18308 I-1.69141 J0.17064
G3 X84.54598 Y223.83674 I-3.07257 J-0.44911
G3 X82.46731 Y223.55733 I-0.47252 J-4.35642
G1 F300.0 Z-2.0
G3 F800.0 X79.78753 Y220.39275 I1.60615 J-4.077
G3 X79.86291 Y219.43027 I1.66274 J-0.35398
G3 X83.72722 Y217.08815 I3.44153 J1.31928
G3 X87.75106 Y220.76657 I-0.04462 J4.08887
G3 X87.74177 Y221.18308 I-1.69141 J0.17064
G3 X84.54598 Y223.83674 I-3.07257 J-0.44911
G3 X82.46731 Y223.55733 I-0.47252 J-4.35642
G1 F300.0 X82.34052 Y224.14863
G3 F800.0 X83.47233 Y225.9886 I-1.16368 J1.9839
G2 X83.81657 Y228.99623 I29.43384 J-1.84542
G3 X82.01821 Y231.62612 I-2.26865 J0.37848
G2 X77.81191 Y236.94864 I1.08162 J5.17812
G3 X77.81277 Y237.01644 I-2.29914 J0.06279
G2 X82.66764 Y243.53621 I6.78539 J0.01479
G3 X82.54781 Y243.42814 I1.47794 J-1.75916
G3 X77.94155 Y237.07025 I1.99308 J-6.29153
G3 X83.59058 Y231.5483 I5.47161 J-0.05296
G3 X89.52086 Y236.59186 I0.1354 J5.84901
G3 X86.47717 Y241.09009 I-3.84721 J0.67567
G3 X86.49377 Y241.23388 I-2.27299 J0.3354
G2 X89.6346 Y236.59146 I-0.82452 J-3.9415
G3 X89.63065 Y236.56842 I2.26489 J-0.40034
G2 X85.53547 Y231.74806 I-6.07344 J1.01001
G3 X83.97452 Y229.58134 I0.73902 J-2.17804
G2 X83.73105 Y227.06047 I-13.87906 J0.06828
G3 X85.56256 Y224.3716 I2.25963 J-0.42906
G2 X88.07752 Y219.2171 I-0.66604 J-3.51577
G3 X88.05931 Y219.18098 I2.04463 J-1.05332
G2 X79.31322 Y218.78949 I-4.48071 J2.20948
G2 X81.14234 Y223.56483 I3.70847 J1.31751
G3 X81.26971 Y223.63945 I-1.09832 J2.02081
G2 X81.79624 Y223.90869 I1.76593 J-2.80401
G3 X79.20303 Y220.51718 I2.27721 J-4.42836
G3 X79.3049 Y219.21637 I2.24724 J-0.47841
G3 X83.76474 Y216.49103 I3.99953 J1.53318
G3 X88.34564 Y220.70658 I-0.08215 J4.686
G3 X88.33309 Y221.26951 I-2.286 J0.23063
G3 X84.56698 Y224.43538 I-3.66389 J-0.53554
G3 X82.34052 Y224.14863 I-0.49352 J-4.95505
G1 F300.0 X82.03695 Y224.66616
G3 F800.0 X82.8735 Y226.02615 I-0.86011 J1.46636
G2 X83.22475 Y229.09496 I30.03266 J-1.88296
G3 X81.89553 Y231.03879 I-1.67682 J0.27975
G2 X77.21214 Y236.96502 I1.2043 J5.76545
G3 X77.21277 Y237.01513 I-1.69937 J0.04641
G2 X84.38903 Y244.41367 I7.38539 J0.0161
G3 X84.48763 Y244.41934 I-0.04814 J1.69932
G2 X85.1429 Y244.03212 I0.05652 J-0.6524
G3 X85.09924 Y243.18437 I1.62215 J-0.50854
G3 X82.87069 Y242.90162 I-0.95365 J-1.40732
G3 X78.53918 Y237.07033 I1.6702 J-5.76501
G3 X83.58777 Y232.14615 I4.87398 J-0.05304
G3 X88.93043 Y236.68487 I0.13821 J5.25116
G3 X86.20013 Y240.53387 I-3.25679 J0.58266
G2 X85.81813 Y240.89149 I0.22473 J0.62288
G3 X85.88105 Y241.70497 I-1.61395 J0.534
G1 X85.82245 Y242.05653
G3 X85.8114 Y242.11626 I-1.67687 J-0.27948
G3 X86.47062 Y241.84927 I0.95365 J1.40732
G2 X90.22544 Y236.48702 I-0.80136 J-4.55689
G3 X90.22252 Y236.47 I1.67405 J-0.29591
G2 X85.72826 Y231.17988 I-6.66531 J1.10844
G3 X84.57451 Y229.57839 I0.54623 J-1.60986
G2 X84.32052 Y226.94854 I-14.47905 J0.07123
G3 X85.67424 Y224.96112 I1.67016 J-0.31713
G2 X88.6109 Y218.94232 I-0.77772 J-4.10528
G3 X88.59744 Y218.91562 I1.51125 J-0.77854
G2 X78.76917 Y218.52988 I-5.01884 J2.47484
G2 X80.85582 Y224.092 I4.25252 J1.57711
G3 X80.94997 Y224.14715 I-0.8118 J1.49365
G2 X81.73973 Y224.52842 I2.08567 J-3.31171
G3 X82.03695 Y224.66616 I-0.5629 J1.6041
G1 F300.0 X82.34052 Y224.14863
G1 Z-3.0
G3 F800.0 X83.47233 Y225.9886 I-1.16368 J1.9839
G2 X83.81657 Y228.99623 I29.43384 J-1.84542
G3 X82.01821 Y231.62612 I-2.26865 J0.37848
G2 X77.81191 Y236.94864 I1.08162 J5.17812
G3 X77.81277 Y237.01644 I-2.29914 J0.06279
G2 X82.66764 Y243.53621 I6.78539 J0.01479
G3 X82.54781 Y243.42814 I1.47794 J-1.75916
G3 X77.94155 Y237.07025 I1.99308 J-6.29153
G3 X83.59058 Y231.5483 I5.47161 J-0.05296
G3 X89.52086 Y236.59186 I0.1354 J5.84901
G3 X86.47717 Y241.09009 I-3.84721 J0.67567
G3 X86.49377 Y241.23388 I-2.27299 J0.3354
G2 X89.6346 Y236.59146 I-0.82452 J-3.9415
G3 X89.63065 Y236.56842 I2.26489 J-0.40034
G2 X85.53547 Y231.74806 I-6.07344 J1.01001
G3 X83.97452 Y229.58134 I0.73902 J-2.17804
G2 X83.73105 Y227.06047 I-13.87906 J0.06828
G3 X85.56256 Y224.3716 I2.25963 J-0.42906
G2 X88.07752 Y219.2171 I-0.66604 J-3.51577
G3 X88.05931 Y219.18098 I2.04463 J-1.05332
G2 X79.31322 Y218.78949 I-4.48071 J2.20948
G2 X81.14234 Y223.56483 I3.70847 J1.31751
G3 X81.26971 Y223.63945 I-1.09832 J2.02081
G2 X81.79624 Y223.90869 I1.76593 J-2.80401
G3 X79.20303 Y220.51718 I2.27721 J-4.42836
G3 X79.3049 Y219.21637 I2.24724 J-0.47841
G3 X83.76474 Y216.49103 I3.99953 J1.53318
G3 X88.34564 Y220.70658 I-0.08215 J4.686
G3 X88.33309 Y221.26951 I-2.286 J0.23063
G3 X84.56698 Y224.43538 I-3.66389 J-0.53554
G3 X82.34052 Y224.14863 I-0.49352 J-4.95505
G1 F300.0 X82.03695 Y224.66616
G3 F800.0 X82.8735 Y226.02615 I-0.86011 J1.46636
G2 X83.22475 Y229.09496 I30.03266 J-1.88296
G3 X81.89553 Y231.03879 I-1.67682 J0.27975
G2 X77.21214 Y236.96502 I1.2043 J5.76545
G3 X77.21277 Y237.01513 I-1.69937 J0.04641
G2 X84.38903 Y244.41367 I7.38539 J0.0161
G3 X84.48763 Y244.41934 I-0.04814 J1.69932
G2 X85.1429 Y244.03212 I0.05652 J-0.6524
G3 X85.09924 Y243.18437 I1.62215 J-0.50854
G3 X82.87069 Y242.90162 I-0.95365 J-1.40732
G3 X78.53918 Y237.07033 I1.6702 J-5.76501
G3 X83.58777 Y232.14615 I4.87398 J-0.05304
G3 X88.93043 Y236.68487 I0.13821 J5.25116
G3 X86.20013 Y240.53387 I-3.25679 J0.58266
G2 X85.81813 Y240.89149 I0.22473 J0.62288
G3 X85.88105 Y241.70497 I-1.61395 J0.534
G1 X85.82245 Y242.05653
G3 X85.8114 Y242.11626 I-1.67687 J-0.27948
G3 X86.47062 Y241.84927 I0.95365 J1.40732
G2 X90.22544 Y236.48702 I-0.80136 J-4.55689
G3 X90.22252 Y236.47 I1.67405 J-0.29591
G2 X85.72826 Y231.17988 I-6.66531 J1.10844
G3 X84.57451 Y229.57839 I0.54623 J-1.60986
G2 X84.32052 Y226.94854 I-14.47905 J0.07123
G3 X85.67424 Y224.96112 I1.67016 J-0.31713
G2 X88.6109 Y218.94232 I-0.77772 J-4.10528
G3 X88.59744 Y218.91562 I1.51125 J-0.77854
G2 X78.76917 Y218.52988 I-5.01884 J2.47484
G2 X80.85582 Y224.092 I4.25252 J1.57711
G3 X80.94997 Y224.14715 I-0.8118 J1.49365
G2 X81.73973 Y224.52842 I2.08567 J-3.31171
G3 X82.03695 Y224.66616 I-0.5629 J1.6041
G1 F300.0 X82.47171 Y223.55906
G3 F800.0 X79.78753 Y220.39275 I1.60174 J-4.07873
G3 X79.86291 Y219.43027 I1.66274 J-0.35398
G3 X83.72722 Y217.08815 I3.44153 J1.31928
G3 X87.75106 Y220.76657 I-0.04462 J4.08887
G3 X87.74177 Y221.18308 I-1.69141 J0.17064
G3 X84.54598 Y223.83674 I-3.07257 J-0.44911
G3 X82.47171 Y223.55906 I-0.47252 J-4.35642
G1 F300.0 Z-4.0
G3 F800.0 X79.78753 Y220.39275 I1.60174 J-4.07873
G3 X79.86291 Y219.43027 I1.66274 J-0.35398
