( Made using CamBam - http://www.cambam.co.uk )
( Tafel-Hof-links-oben 11/26/2017 2:03:39 PM )
( T1 : 1.0 )
( T2 : 2.0 )
( T3 : 3.0 )
( T6 : 6.0 )
( T15 : 1.5 )
G21 G90 G64 G40
G0 Z3.0
( T6 : 6.0 )
T6 M6
( TascheElipse )
G17
M3 S1000
G0 X-69.2 Y69.2
G0 Z1.0
G1 F300.0 Z-1.0
G1 F800.0 X-69.93431
G1 X-69.2 Y69.45018
G1 Y69.2
G1 F300.0 Y68.0
G1 F800.0 X-76.55674
G1 X-72.06926 Y69.74036
G1 X-68.0 Y71.12675
G1 Y68.0
G1 X-69.2
G1 F300.0 Y65.6
G1 F800.0 X-88.14184
G1 X-86.75448 Y66.28107
G1 X-79.97638 Y69.24795
G1 X-72.89051 Y71.99603
G1 X-65.6 Y74.47988
G1 Y65.6
G1 X-69.2
G1 F300.0 Y63.2
G1 F800.0 X-98.04181
G1 X-94.30674 Y65.24716
G1 X-87.76496 Y68.45862
G1 X-80.89187 Y71.46707
G1 X-73.71176 Y74.2517
G1 X-66.25072 Y76.79365
G1 X-63.2 Y77.69626
G1 Y63.2
G1 X-69.2
G1 F300.0 Y60.8
G1 F800.0 X-106.8334
G1 X-101.69748 Y63.93321
G1 X-95.41287 Y67.37774
G1 X-88.77543 Y70.63616
G1 X-81.80737 Y73.68618
G1 X-74.53301 Y76.50737
G1 X-66.97847 Y79.08118
G1 X-60.8 Y80.90918
G1 Y60.8
G1 X-69.2
G1 F300.0 Y58.4
G1 F800.0 X-114.70911
G1 X-114.52771 Y58.53654
G1 X-108.90848 Y62.34544
G1 X-102.89984 Y66.01105
G1 X-96.51901 Y69.50833
G1 X-89.78591 Y72.8137
G1 X-82.72287 Y75.9053
G1 X-75.35426 Y78.76304
G1 X-67.70622 Y81.3687
G1 X-59.8064 Y83.70599
G1 X-58.4 Y84.06173
G1 Y58.4
G1 X-69.2
G1 F300.0 Y56.0
G1 F800.0 X-121.82321
G1 X-121.23589 Y56.49119
G1 X-115.92352 Y60.48981
G1 X-110.20748 Y64.36432
G1 X-104.1022 Y68.08889
G1 X-97.62514 Y71.63891
G1 X-90.79639 Y74.99125
G1 X-83.63837 Y78.12442
G1 X-76.17551 Y81.01871
G1 X-68.43396 Y83.65623
G1 X-60.44137 Y86.02097
G1 X-56.0 Y87.14438
G1 Y56.0
G1 X-69.2
G1 F300.0 Y53.6
G1 F800.0 X-128.36164
G1 X-127.72213 Y54.1953
G1 X-122.72837 Y58.37169
G1 X-117.31933 Y62.44308
G1 X-111.50647 Y66.38321
G1 X-105.30456 Y70.16674
G1 X-98.73127 Y73.7695
G1 X-91.80687 Y77.16879
G1 X-84.55387 Y80.34353
G1 X-76.99676 Y83.27437
G1 X-69.16171 Y85.94375
G1 X-61.07633 Y88.33595
G1 X-53.6 Y90.22702
G1 Y53.6
G1 X-69.2
G1 F300.0 Y51.2
G1 F800.0 X-134.41156
G1 X-133.97636 Y51.6523
G1 X-129.31072 Y55.99543
G1 X-124.22085 Y60.25219
G1 X-118.71514 Y64.39634
G1 X-112.80547 Y68.4021
G1 X-106.50692 Y72.24458
G1 X-99.8374 Y75.90008
G1 X-92.81734 Y79.34633
G1 X-85.46937 Y82.56265
G1 X-77.81801 Y85.53004
G1 X-69.88945 Y88.23128
G1 X-61.7113 Y90.65092
G1 X-53.31234 Y92.77537
G1 X-51.2 Y93.2223
G1 Y51.2
G1 X-69.2
G1 F300.0 Y48.8
G1 F800.0 X-140.04475
G1 X-139.99011 Y48.86369
G1 X-135.65998 Y53.36396
G1 X-130.89931 Y57.79555
G1 X-125.71333 Y62.13269
G1 X-120.11095 Y66.34961
G1 X-114.10447 Y70.42099
G1 X-107.70928 Y74.32242
G1 X-100.94354 Y78.03066
G1 X-93.82782 Y81.52388
G1 X-86.38486 Y84.78177
G1 X-78.63926 Y87.78571
G1 X-70.6172 Y90.5188
G1 X-62.34627 Y92.9659
G1 X-53.85521 Y95.11364
G1 X-48.8 Y96.18323
G1 Y48.8
G1 X-69.2
G1 F300.0 Y46.4
G1 F800.0 X-145.26596
G1 X-141.76703 Y50.47839
G1 X-137.3436 Y55.07562
G1 X-132.4879 Y59.59567
G1 X-127.20581 Y64.0132
G1 X-121.50676 Y68.30287
G1 X-115.40347 Y72.43988
G1 X-108.91164 Y76.40026
G1 X-102.04967 Y80.16125
G1 X-94.8383 Y83.70142
G1 X-87.30036 Y87.00089
G1 X-79.46051 Y90.04138
G1 X-71.34494 Y92.80633
G1 X-62.98124 Y95.28087
G1 X-54.39808 Y97.45191
G1 X-46.4 Y99.14415
G1 Y46.4
G1 X-69.2
G1 F300.0 Y44.0
G1 F800.0 X-150.16082
G1 X-147.6238 Y47.33757
G1 X-143.54395 Y52.09308
G1 X-139.02722 Y56.78729
G1 X-134.07649 Y61.3958
G1 X-128.69829 Y65.8937
G1 X-122.90257 Y70.25614
G1 X-116.70246 Y74.45877
G1 X-110.114 Y78.47811
G1 X-103.1558 Y82.29183
G1 X-95.84878 Y85.87896
G1 X-88.21586 Y89.22
G1 X-80.28176 Y92.29705
G1 X-72.07269 Y95.09385
G1 X-63.6162 Y97.59585
G1 X-54.94095 Y99.79018
G1 X-46.07655 Y101.66572
G1 X-44.0 Y102.02182
G1 Y44.0
G1 X-69.2
G1 F300.0 Y41.6
G1 F800.0 X-154.78386
G1 X-153.22271 Y43.93786
G1 X-149.49152 Y48.84643
G1 X-145.32087 Y53.70778
G1 X-140.71084 Y58.49895
G1 X-135.66508 Y63.19592
G1 X-130.19077 Y67.7742
G1 X-124.29838 Y72.20941
G1 X-118.00146 Y76.47766
G1 X-111.31636 Y80.55595
G1 X-104.26194 Y84.42242
G1 X-96.85925 Y88.0565
G1 X-89.13136 Y91.43912
G1 X-81.10301 Y94.55272
G1 X-72.80044 Y97.38138
G1 X-64.25117 Y99.91082
G1 X-55.48382 Y102.12845
G1 X-46.52794 Y104.02335
G1 X-41.6 Y104.86841
G1 Y41.6
G1 X-69.2
G1 F300.0 Y39.2
G1 F800.0 X-159.17813
G1 X-158.55599 Y40.27284
G1 X-155.17783 Y45.33175
G1 X-151.35924 Y50.35529
G1 X-147.09779 Y55.32248
G1 X-142.39445 Y60.21062
G1 X-137.25367 Y64.99604
G1 X-131.68325 Y69.65471
G1 X-125.69419 Y74.16267
G1 X-119.30046 Y78.49654
G1 X-112.51873 Y82.63379
G1 X-105.36807 Y86.553
G1 X-97.86973 Y90.23405
G1 X-90.04686 Y93.65824
G1 X-81.92426 Y96.80839
G1 X-73.52818 Y99.6689
G1 X-64.88614 Y102.2258
G1 X-56.02669 Y104.46672
G1 X-46.97933 Y106.38097
G1 X-39.2 Y107.71501
G1 Y39.2
G1 X-69.2
G1 F300.0 Y36.8
G1 F800.0 X-163.34423
G1 X-160.59407 Y41.5425
G1 X-157.13294 Y46.72563
G1 X-153.22696 Y51.86415
G1 X-148.87471 Y56.93717
G1 X-144.07807 Y61.92228
G1 X-138.84226 Y66.79617
G1 X-133.17573 Y71.53521
G1 X-127.09 Y76.11594
G1 X-120.59946 Y80.51543
G1 X-113.72109 Y84.71164
G1 X-106.4742 Y88.68359
G1 X-98.88021 Y92.41159
G1 X-90.96236 Y95.87735
G1 X-82.74551 Y99.06406
G1 X-74.25593 Y101.95643
G1 X-65.5211 Y104.54077
G1 X-56.56956 Y106.80499
G1 X-47.43071 Y108.7386
G1 X-38.1347 Y110.33273
G1 X-36.8 Y110.50942
G1 Y36.8
G1 X-69.2
G1 F300.0 Y34.4
G1 F800.0 X-167.25208
G1 X-165.73028 Y37.4696
G1 X-162.63214 Y42.81215
G1 X-159.08806 Y48.11952
G1 X-155.09468 Y53.37301
G1 X-150.65163 Y58.55187
G1 X-145.76169 Y63.63394
G1 X-140.43085 Y68.59629
G1 X-134.66821 Y73.41571
G1 X-128.48581 Y78.0692
G1 X-121.89846 Y82.53432
G1 X-114.92345 Y86.78948
G1 X-107.58033 Y90.81417
G1 X-99.89069 Y94.58913
G1 X-91.87786 Y98.09647
G1 X-83.56676 Y101.31973
G1 X-74.98367 Y104.24395
G1 X-66.15607 Y106.85575
G1 X-57.11243 Y109.14326
G1 X-47.8821 Y111.09623
G1 X-38.49514 Y112.70595
G1 X-34.4 Y113.24808
G1 Y34.4
G1 X-69.2
G1 F300.0 Y32.0
G1 F800.0 X-171.03136
G1 X-170.57447 Y33.10174
G1 X-167.84574 Y38.60581
G1 X-164.67022 Y44.0818
G1 X-161.04317 Y49.51341
G1 X-156.9624 Y54.88187
G1 X-152.42855 Y60.16657
G1 X-147.44531 Y65.34561
G1 X-142.01944 Y70.39641
G1 X-136.16069 Y75.29622
G1 X-129.88162 Y80.02247
G1 X-123.19745 Y84.55321
G1 X-116.12581 Y88.86732
G1 X-108.68647 Y92.94476
G1 X-100.90116 Y96.76668
G1 X-92.79335 Y100.31559
G1 X-84.38801 Y103.57539
G1 X-75.71142 Y106.53148
G1 X-66.79104 Y109.17072
G1 X-57.6553 Y111.48153
G1 X-48.33349 Y113.45385
G1 X-38.85558 Y115.07917
G1 X-32.0 Y115.98675
G1 Y32.0
G1 X-69.2
G1 F300.0 Y29.6
G1 F800.0 X-174.62482
G1 X-172.76052 Y34.09555
G1 X-169.9612 Y39.74201
G1 X-166.70829 Y45.35145
G1 X-162.99829 Y50.9073
G1 X-158.83012 Y56.39073
G1 X-154.20547 Y61.78126
G1 X-149.12893 Y67.05727
G1 X-143.60803 Y72.19654
G1 X-137.65317 Y77.17672
G1 X-131.27743 Y81.97574
G1 X-124.49645 Y86.5721
G1 X-117.32817 Y90.94517
G1 X-109.7926 Y95.07534
G1 X-101.91164 Y98.94422
G1 X-93.70885 Y102.5347
G1 X-85.20926 Y105.83106
G1 X-76.43916 Y108.81901
G1 X-67.42601 Y111.4857
G1 X-58.19817 Y113.8198
G1 X-48.78488 Y115.81148
G1 X-39.21602 Y117.45239
G1 X-29.6 Y118.72541
G1 Y29.6
G1 X-69.2
G1 F300.0 Y27.2
G1 F800.0 X-178.05569
G1 X-177.3603 Y29.26893
G1 X-174.94658 Y35.08936
G1 X-172.07666 Y40.87822
G1 X-168.74637 Y46.6211
G1 X-164.9534 Y52.30118
G1 X-160.69784 Y57.89959
G1 X-155.98239 Y63.39596
G1 X-150.81255 Y68.76893
G1 X-145.19662 Y73.99666
G1 X-139.14564 Y79.05722
G1 X-132.67324 Y83.929
G1 X-125.79545 Y88.59099
G1 X-118.53053 Y93.02301
G1 X-110.89873 Y97.20592
G1 X-102.92212 Y101.12176
G1 X-94.62435 Y104.75382
G1 X-86.03051 Y108.08673
G1 X-77.16691 Y111.10653
G1 X-68.06097 Y113.80068
G1 X-58.74104 Y116.15808
G1 X-49.23627 Y118.16911
G1 X-39.57646 Y119.82562
G1 X-29.79199 Y121.12093
G1 X-27.2 Y121.36468
G1 Y27.2
G1 X-69.2
G1 F300.0 Y24.8
G1 F800.0 X-181.39429
G1 X-179.6089 Y30.11193
G1 X-177.13263 Y36.08317
G1 X-174.19212 Y42.01442
G1 X-170.78444 Y47.89076
G1 X-166.90852 Y53.69507
G1 X-162.56556 Y59.40845
G1 X-157.75931 Y65.01066
G1 X-152.49617 Y70.4806
G1 X-146.78521 Y75.79678
G1 X-140.63812 Y80.93773
G1 X-134.06905 Y85.88227
G1 X-127.09445 Y90.60988
G1 X-119.73289 Y95.10085
G1 X-112.00486 Y99.33651
G1 X-103.9326 Y103.29931
G1 X-95.53985 Y106.97294
G1 X-86.85176 Y110.3424
G1 X-77.89466 Y113.39406
G1 X-68.69594 Y116.11565
G1 X-59.28391 Y118.49635
G1 X-49.68766 Y120.52673
G1 X-39.9369 Y122.19884
G1 X-30.06192 Y123.50614
G1 X-24.8 Y124.00096
G1 Y24.8
G1 X-69.2
G1 F300.0 Y22.4
G1 F800.0 X-184.54915
G1 X-183.92704 Y24.79761
G1 X-181.8575 Y30.95492
G1 X-179.31869 Y37.07699
G1 X-176.30758 Y43.15062
G1 X-172.82251 Y49.16041
G1 X-168.86363 Y55.08896
G1 X-164.43328 Y60.91731
G1 X-159.53623 Y66.62535
G1 X-154.17979 Y72.19226
G1 X-148.37381 Y77.59691
G1 X-142.1306 Y82.81823
G1 X-135.46486 Y87.83553
G1 X-128.39345 Y92.62876
G1 X-120.93525 Y97.17869
G1 X-113.111 Y101.46709
G1 X-104.94307 Y105.47685
G1 X-96.45535 Y109.19205
G1 X-87.67301 Y112.59807
G1 X-78.6224 Y115.68158
G1 X-69.33091 Y118.43063
G1 X-59.82678 Y120.83462
G1 X-50.13904 Y122.88436
G1 X-40.29734 Y124.57206
G1 X-30.33185 Y125.89134
G1 X-22.4 Y126.63724
G1 Y22.4
G1 X-69.2
G1 F300.0 Y20.0
G1 F800.0 X-187.65137
G1 X-186.22889 Y25.48216
G1 X-184.1061 Y31.79791
G1 X-181.50474 Y38.0708
G1 X-178.42305 Y44.28683
G1 X-174.86059 Y50.43006
G1 X-170.81875 Y56.48285
G1 X-166.301 Y62.42617
G1 X-161.31315 Y68.24005
G1 X-155.86341 Y73.90392
G1 X-149.9624 Y79.39703
G1 X-143.62308 Y84.69873
G1 X-136.86067 Y89.7888
G1 X-129.69244 Y94.64765
G1 X-122.13761 Y99.25654
G1 X-114.21713 Y103.59768
G1 X-105.95355 Y107.65439
G1 X-97.37085 Y111.41117
G1 X-88.49426 Y114.85374
G1 X-79.35015 Y117.96911
G1 X-69.96588 Y120.7456
G1 X-60.36965 Y123.17289
G1 X-50.59043 Y125.24199
G1 X-40.65778 Y126.94528
G1 X-30.60179 Y128.27655
G1 X-20.45293 Y129.23092
G1 X-20.0 Y129.25638
G1 Y20.0
G1 X-69.2
G1 F300.0 Y17.6
G1 F800.0 X-190.59913
G1 X-190.22036 Y19.65501
G1 X-188.53074 Y26.16671
G1 X-186.3547 Y32.64091
G1 X-183.6908 Y39.06461
G1 X-180.53851 Y45.42303
G1 X-176.89866 Y51.69971
G1 X-172.77386 Y57.87673
G1 X-168.16872 Y63.93503
G1 X-163.09007 Y69.85475
G1 X-157.54703 Y75.61559
G1 X-151.55099 Y81.19715
G1 X-145.11556 Y86.57923
G1 X-138.25648 Y91.74207
G1 X-130.99144 Y96.66654
G1 X-123.33997 Y101.33438
G1 X-115.32326 Y105.72826
G1 X-106.96403 Y109.83194
G1 X-98.28634 Y113.63029
G1 X-89.31551 Y117.10941
G1 X-80.07789 Y120.25663
G1 X-70.60084 Y123.06058
G1 X-60.91252 Y125.51116
G1 X-51.04182 Y127.59961
G1 X-41.01822 Y129.31851
G1 X-30.87172 Y130.66175
G1 X-20.6327 Y131.6246
G1 X-17.6 Y131.79509
G1 Y17.6
G1 X-69.2
G1 F300.0 Y15.2
G1 F800.0 X-193.48191
G1 X-192.56503 Y20.17458
G1 X-190.83259 Y26.85126
G1 X-188.6033 Y33.4839
G1 X-185.87685 Y40.05842
G1 X-182.65397 Y46.55923
G1 X-178.93674 Y52.96937
G1 X-174.72898 Y59.27062
G1 X-170.03644 Y65.44389
G1 X-164.86699 Y71.46944
G1 X-159.23065 Y77.32725
G1 X-153.13958 Y82.99728
G1 X-146.60804 Y88.45974
G1 X-139.65229 Y93.69533
G1 X-132.29044 Y98.68543
G1 X-124.54233 Y103.41222
G1 X-116.4294 Y107.85885
G1 X-107.97451 Y112.00948
G1 X-99.20184 Y115.8494
G1 X-90.13676 Y119.36508
G1 X-80.80564 Y122.54416
G1 X-71.23581 Y125.37555
G1 X-61.45539 Y127.84943
G1 X-51.49321 Y129.95724
G1 X-41.37866 Y131.69173
G1 X-31.14166 Y133.04696
G1 X-20.81246 Y134.01829
G1 X-15.2 Y134.3338
G1 Y15.2
G1 X-69.2
G1 F300.0 Y12.8
G1 F800.0 X-196.28938
G1 X-196.17745 Y13.81583
G1 X-194.90969 Y20.69414
G1 X-193.13445 Y27.53581
G1 X-190.8519 Y34.32689
G1 X-188.06291 Y41.05223
G1 X-184.76943 Y47.69544
G1 X-180.97481 Y54.23902
G1 X-176.68409 Y60.66451
G1 X-171.90416 Y66.95275
G1 X-166.64391 Y73.08414
G1 X-160.91427 Y79.03892
G1 X-154.72817 Y84.7974
G1 X-148.10052 Y90.34024
G1 X-141.0481 Y95.6486
G1 X-133.58944 Y100.70432
G1 X-125.74469 Y105.49007
G1 X-117.53553 Y109.98943
G1 X-108.98498 Y114.18702
G1 X-100.11734 Y118.06852
G1 X-90.95801 Y121.62074
G1 X-81.53338 Y124.83168
G1 X-71.87078 Y127.69053
G1 X-61.99826 Y130.1877
G1 X-51.9446 Y132.31487
G1 X-41.7391 Y134.06495
G1 X-31.41159 Y135.43216
G1 X-20.99223 Y136.41197
G1 X-12.8 Y136.8725
G1 Y12.8
G1 X-69.2
G1 F300.0 Y10.4
G1 F800.0 X-198.96834
G1 X-198.55348 Y14.16522
G1 X-197.25435 Y21.21371
G1 X-195.4363 Y28.22037
G1 X-193.1005 Y35.16989
G1 X-190.24896 Y42.04604
G1 X-186.88489 Y48.83164
G1 X-183.01289 Y55.50867
G1 X-178.63921 Y62.0584
G1 X-173.77188 Y68.46161
G1 X-168.42083 Y74.69884
G1 X-162.59789 Y80.75058
G1 X-156.31676 Y86.59752
G1 X-149.593 Y92.22074
G1 X-142.44391 Y97.60186
G1 X-134.88844 Y102.72321
G1 X-126.94705 Y107.56791
G1 X-118.64166 Y112.12002
G1 X-109.99546 Y116.36457
G1 X-101.03284 Y120.28764
G1 X-91.77926 Y123.87641
G1 X-82.26113 Y127.11921
G1 X-72.50574 Y130.0055
G1 X-62.54113 Y132.52597
G1 X-52.39598 Y134.67249
G1 X-42.09955 Y136.43818
G1 X-31.68152 Y137.81737
G1 X-21.17199 Y138.80566
G1 X-10.60131 Y139.39989
G1 X-10.4 Y139.40366
G1 Y10.4
G1 X-69.2
G1 F300.0 Y8.0
G1 F800.0 X-201.6473
G1 X-200.92951 Y14.51462
G1 X-199.59901 Y21.73328
G1 X-197.73815 Y28.90492
G1 X-195.34909 Y36.01288
G1 X-192.43502 Y43.03985
G1 X-189.00035 Y49.96785
G1 X-185.05096 Y56.77832
G1 X-180.59432 Y63.45228
G1 X-175.6396 Y69.97047
G1 X-170.19775 Y76.31353
G1 X-164.2815 Y82.46224
G1 X-157.90535 Y88.39765
G1 X-151.08548 Y94.10125
G1 X-143.83972 Y99.55513
G1 X-136.18743 Y104.7421
G1 X-128.14941 Y109.64575
G1 X-119.74779 Y114.2506
G1 X-111.00594 Y118.54211
G1 X-101.94834 Y122.50675
G1 X-92.60051 Y126.13208
G1 X-82.98888 Y129.40673
G1 X-73.14071 Y132.32048
G1 X-63.084 Y134.86424
G1 X-52.84737 Y137.03012
G1 X-42.45999 Y138.8114
G1 X-31.95146 Y140.20257
G1 X-21.35176 Y141.19934
G1 X-10.69113 Y141.79863
G1 X-8.0 Y141.84897
G1 Y8.0
G1 X-69.2
G1 F300.0 Y5.6
G1 F800.0 X-204.19094
G1 X-204.12346 Y7.44061
G1 X-203.30553 Y14.86401
G1 X-201.94367 Y22.25285
G1 X-200.04001 Y29.58947
G1 X-197.59769 Y36.85587
G1 X-194.62107 Y44.03366
G1 X-191.11581 Y51.10405
G1 X-187.08904 Y58.04797
G1 X-182.54944 Y64.84617
G1 X-177.50732 Y71.47933
G1 X-171.97467 Y77.92823
G1 X-165.96512 Y84.17391
G1 X-159.49394 Y90.19777
G1 X-152.57796 Y95.98175
G1 X-145.23553 Y101.5084
G1 X-137.48643 Y106.76098
G1 X-129.35177 Y111.72359
G1 X-120.85393 Y116.38119
G1 X-112.01642 Y120.71965
G1 X-102.86384 Y124.72587
G1 X-93.42176 Y128.38775
G1 X-83.71662 Y131.69426
G1 X-73.77568 Y134.63545
G1 X-63.62687 Y137.20251
G1 X-53.29876 Y139.38775
G1 X-42.82043 Y141.18462
G1 X-32.22139 Y142.58777
G1 X-21.53153 Y143.59302
G1 X-10.78096 Y144.19737
G1 X-5.6 Y144.29428
G1 Y5.6
G1 X-69.2
G1 F300.0 Y3.2
G1 F800.0 X-206.68054
G1 X-206.51864 Y7.61623
G1 X-205.68156 Y15.21341
G1 X-204.28834 Y22.77241
G1 X-202.34186 Y30.27402
G1 X-199.84629 Y37.69887
G1 X-196.80713 Y45.02747
G1 X-193.23127 Y52.24025
G1 X-189.12711 Y59.31763
G1 X-184.50455 Y66.24006
G1 X-179.37504 Y72.98819
G1 X-173.75159 Y79.54293
G1 X-167.64874 Y85.88557
G1 X-161.08253 Y91.99789
G1 X-154.07044 Y97.86225
G1 X-146.63134 Y103.46166
G1 X-138.78543 Y108.77987
G1 X-130.55413 Y113.80144
G1 X-121.96006 Y118.51177
G1 X-113.02689 Y122.89719
G1 X-103.77934 Y126.94499
G1 X-94.24301 Y130.64342
G1 X-84.44437 Y133.98178
G1 X-74.41065 Y136.95043
G1 X-64.16974 Y139.54078
G1 X-53.75015 Y141.74537
G1 X-43.18087 Y143.55784
G1 X-32.49133 Y144.97298
G1 X-21.71129 Y145.98671
G1 X-10.87078 Y146.59611
G1 X-3.2 Y146.73959
G1 Y3.2
G1 X-69.2
G0 Z3.0
G0 Y69.2
G0 Z0.0
G1 F300.0 Z-2.0
G1 F800.0 X-69.93431
G1 X-69.2 Y69.45018
G1 Y69.2
G1 F300.0 Y68.0
G1 F800.0 X-76.55674
G1 X-72.06926 Y69.74036
G1 X-68.0 Y71.12675
G1 Y68.0
G1 X-69.2
G1 F300.0 Y65.6
G1 F800.0 X-88.14184
G1 X-86.75448 Y66.28107
G1 X-79.97638 Y69.24795
G1 X-72.89051 Y71.99603
G1 X-65.6 Y74.47988
G1 Y65.6
G1 X-69.2
G1 F300.0 Y63.2
G1 F800.0 X-98.04181
G1 X-94.30674 Y65.24716
G1 X-87.76496 Y68.45862
G1 X-80.89187 Y71.46707
G1 X-73.71176 Y74.2517
G1 X-66.25072 Y76.79365
G1 X-63.2 Y77.69626
G1 Y63.2
G1 X-69.2
G1 F300.0 Y60.8
G1 F800.0 X-106.8334
G1 X-101.69748 Y63.93321
G1 X-95.41287 Y67.37774
G1 X-88.77543 Y70.63616
G1 X-81.80737 Y73.68618
G1 X-74.53301 Y76.50737
G1 X-66.97847 Y79.08118
G1 X-60.8 Y80.90918
G1 Y60.8
G1 X-69.2
G1 F300.0 Y58.4
G1 F800.0 X-114.70911
G1 X-114.52771 Y58.53654
G1 X-108.90848 Y62.34544
G1 X-102.89984 Y66.01105
G1 X-96.51901 Y69.50833
G1 X-89.78591 Y72.8137
G1 X-82.72287 Y75.9053
G1 X-75.35426 Y78.76304
G1 X-67.70622 Y81.3687
G1 X-59.8064 Y83.70599
G1 X-58.4 Y84.06173
G1 Y58.4
G1 X-69.2
G1 F300.0 Y56.0
G1 F800.0 X-121.82321
G1 X-121.23589 Y56.49119
G1 X-115.92352 Y60.48981
G1 X-110.20748 Y64.36432
G1 X-104.1022 Y68.08889
G1 X-97.62514 Y71.63891
G1 X-90.79639 Y74.99125
G1 X-83.63837 Y78.12442
G1 X-76.17551 Y81.01871
G1 X-68.43396 Y83.65623
G1 X-60.44137 Y86.02097
G1 X-56.0 Y87.14438
G1 Y56.0
G1 X-69.2
G1 F300.0 Y53.6
G1 F800.0 X-128.36164
G1 X-127.72213 Y54.1953
G1 X-122.72837 Y58.37169
G1 X-117.31933 Y62.44308
G1 X-111.50647 Y66.38321
G1 X-105.30456 Y70.16674
G1 X-98.73127 Y73.7695
G1 X-91.80687 Y77.16879
G1 X-84.55387 Y80.34353
G1 X-76.99676 Y83.27437
G1 X-69.16171 Y85.94375
G1 X-61.07633 Y88.33595
G1 X-53.6 Y90.22702
G1 Y53.6
G1 X-69.2
G1 F300.0 Y51.2
G1 F800.0 X-134.41156
G1 X-133.97636 Y51.6523
G1 X-129.31072 Y55.99543
G1 X-124.22085 Y60.25219
G1 X-118.71514 Y64.39634
G1 X-112.80547 Y68.4021
G1 X-106.50692 Y72.24458
G1 X-99.8374 Y75.90008
G1 X-92.81734 Y79.34633
G1 X-85.46937 Y82.56265
G1 X-77.81801 Y85.53004
G1 X-69.88945 Y88.23128
G1 X-61.7113 Y90.65092
G1 X-53.31234 Y92.77537
G1 X-51.2 Y93.2223
G1 Y51.2
G1 X-69.2
G1 F300.0 Y48.8
G1 F800.0 X-140.04475
G1 X-139.99011 Y48.86369
G1 X-135.65998 Y53.36396
G1 X-130.89931 Y57.79555
G1 X-125.71333 Y62.13269
G1 X-120.11095 Y66.34961
G1 X-114.10447 Y70.42099
G1 X-107.70928 Y74.32242
G1 X-100.94354 Y78.03066
G1 X-93.82782 Y81.52388
G1 X-86.38486 Y84.78177
G1 X-78.63926 Y87.78571
G1 X-70.6172 Y90.5188
G1 X-62.34627 Y92.9659
G1 X-53.85521 Y95.11364
G1 X-48.8 Y96.18323
G1 Y48.8
G1 X-69.2
G1 F300.0 Y46.4
G1 F800.0 X-145.26596
G1 X-141.76703 Y50.47839
G1 X-137.3436 Y55.07562
G1 X-132.4879 Y59.59567
G1 X-127.20581 Y64.0132
G1 X-121.50676 Y68.30287
G1 X-115.40347 Y72.43988
G1 X-108.91164 Y76.40026
G1 X-102.04967 Y80.16125
G1 X-94.8383 Y83.70142
G1 X-87.30036 Y87.00089
G1 X-79.46051 Y90.04138
G1 X-71.34494 Y92.80633
G1 X-62.98124 Y95.28087
G1 X-54.39808 Y97.45191
G1 X-46.4 Y99.14415
G1 Y46.4
G1 X-69.2
G1 F300.0 Y44.0
G1 F800.0 X-150.16082
G1 X-147.6238 Y47.33757
G1 X-143.54395 Y52.09308
G1 X-139.02722 Y56.78729
G1 X-134.07649 Y61.3958
G1 X-128.69829 Y65.8937
G1 X-122.90257 Y70.25614
G1 X-116.70246 Y74.45877
G1 X-110.114 Y78.47811
G1 X-103.1558 Y82.29183
G1 X-95.84878 Y85.87896
G1 X-88.21586 Y89.22
G1 X-80.28176 Y92.29705
G1 X-72.07269 Y95.09385
G1 X-63.6162 Y97.59585
G1 X-54.94095 Y99.79018
G1 X-46.07655 Y101.66572
G1 X-44.0 Y102.02182
G1 Y44.0
G1 X-69.2
G1 F300.0 Y41.6
G1 F800.0 X-154.78386
G1 X-153.22271 Y43.93786
G1 X-149.49152 Y48.84643
G1 X-145.32087 Y53.70778
G1 X-140.71084 Y58.49895
G1 X-135.66508 Y63.19592
G1 X-130.19077 Y67.7742
G1 X-124.29838 Y72.20941
G1 X-118.00146 Y76.47766
G1 X-111.31636 Y80.55595
G1 X-104.26194 Y84.42242
G1 X-96.85925 Y88.0565
G1 X-89.13136 Y91.43912
G1 X-81.10301 Y94.55272
G1 X-72.80044 Y97.38138
G1 X-64.25117 Y99.91082
G1 X-55.48382 Y102.12845
G1 X-46.52794 Y104.02335
G1 X-41.6 Y104.86841
G1 Y41.6
G1 X-69.2
G1 F300.0 Y39.2
G1 F800.0 X-159.17813
G1 X-158.55599 Y40.27284
G1 X-155.17783 Y45.33175
G1 X-151.35924 Y50.35529
G1 X-147.09779 Y55.32248
G1 X-142.39445 Y60.21062
G1 X-137.25367 Y64.99604
G1 X-131.68325 Y69.65471
G1 X-125.69419 Y74.16267
G1 X-119.30046 Y78.49654
G1 X-112.51873 Y82.63379
G1 X-105.36807 Y86.553
G1 X-97.86973 Y90.23405
G1 X-90.04686 Y93.65824
G1 X-81.92426 Y96.80839
G1 X-73.52818 Y99.6689
G1 X-64.88614 Y102.2258
G1 X-56.02669 Y104.46672
G1 X-46.97933 Y106.38097
G1 X-39.2 Y107.71501
G1 Y39.2
G1 X-69.2
G1 F300.0 Y36.8
G1 F800.0 X-163.34423
G1 X-160.59407 Y41.5425
G1 X-157.13294 Y46.72563
G1 X-153.22696 Y51.86415
G1 X-148.87471 Y56.93717
G1 X-144.07807 Y61.92228
G1 X-138.84226 Y66.79617
G1 X-133.17573 Y71.53521
G1 X-127.09 Y76.11594
G1 X-120.59946 Y80.51543
G1 X-113.72109 Y84.71164
G1 X-106.4742 Y88.68359
G1 X-98.88021 Y92.41159
G1 X-90.96236 Y95.87735
G1 X-82.74551 Y99.06406
G1 X-74.25593 Y101.95643
G1 X-65.5211 Y104.54077
G1 X-56.56956 Y106.80499
G1 X-47.43071 Y108.7386
G1 X-38.1347 Y110.33273
G1 X-36.8 Y110.50942
G1 Y36.8
G1 X-69.2
G1 F300.0 Y34.4
G1 F800.0 X-167.25208
G1 X-165.73028 Y37.4696
G1 X-162.63214 Y42.81215
G1 X-159.08806 Y48.11952
G1 X-155.09468 Y53.37301
G1 X-150.65163 Y58.55187
G1 X-145.76169 Y63.63394
G1 X-140.43085 Y68.59629
G1 X-134.66821 Y73.41571
G1 X-128.48581 Y78.0692
G1 X-121.89846 Y82.53432
G1 X-114.92345 Y86.78948
G1 X-107.58033 Y90.81417
G1 X-99.89069 Y94.58913
G1 X-91.87786 Y98.09647
G1 X-83.56676 Y101.31973
G1 X-74.98367 Y104.24395
G1 X-66.15607 Y106.85575
G1 X-57.11243 Y109.14326
G1 X-47.8821 Y111.09623
G1 X-38.49514 Y112.70595
G1 X-34.4 Y113.24808
G1 Y34.4
G1 X-69.2
G1 F300.0 Y32.0
G1 F800.0 X-171.03136
G1 X-170.57447 Y33.10174
G1 X-167.84574 Y38.60581
G1 X-164.67022 Y44.0818
G1 X-161.04317 Y49.51341
G1 X-156.9624 Y54.88187
G1 X-152.42855 Y60.16657
G1 X-147.44531 Y65.34561
G1 X-142.01944 Y70.39641
G1 X-136.16069 Y75.29622
G1 X-129.88162 Y80.02247
G1 X-123.19745 Y84.55321
G1 X-116.12581 Y88.86732
G1 X-108.68647 Y92.94476
G1 X-100.90116 Y96.76668
G1 X-92.79335 Y100.31559
G1 X-84.38801 Y103.57539
G1 X-75.71142 Y106.53148
G1 X-66.79104 Y109.17072
G1 X-57.6553 Y111.48153
G1 X-48.33349 Y113.45385
G1 X-38.85558 Y115.07917
G1 X-32.0 Y115.98675
G1 Y32.0
G1 X-69.2
G1 F300.0 Y29.6
G1 F800.0 X-174.62482
G1 X-172.76052 Y34.09555
G1 X-169.9612 Y39.74201
G1 X-166.70829 Y45.35145
G1 X-162.99829 Y50.9073
G1 X-158.83012 Y56.39073
G1 X-154.20547 Y61.78126
G1 X-149.12893 Y67.05727
G1 X-143.60803 Y72.19654
G1 X-137.65317 Y77.17672
G1 X-131.27743 Y81.97574
G1 X-124.49645 Y86.5721
G1 X-117.32817 Y90.94517
G1 X-109.7926 Y95.07534
G1 X-101.91164 Y98.94422
G1 X-93.70885 Y102.5347
G1 X-85.20926 Y105.83106
G1 X-76.43916 Y108.81901
G1 X-67.42601 Y111.4857
G1 X-58.19817 Y113.8198
G1 X-48.78488 Y115.81148
G1 X-39.21602 Y117.45239
G1 X-29.6 Y118.72541
G1 Y29.6
G1 X-69.2
G1 F300.0 Y27.2
G1 F800.0 X-178.05569
G1 X-177.3603 Y29.26893
G1 X-174.94658 Y35.08936
G1 X-172.07666 Y40.87822
G1 X-168.74637 Y46.6211
G1 X-164.9534 Y52.30118
G1 X-160.69784 Y57.89959
G1 X-155.98239 Y63.39596
G1 X-150.81255 Y68.76893
G1 X-145.19662 Y73.99666
G1 X-139.14564 Y79.05722
G1 X-132.67324 Y83.929
G1 X-125.79545 Y88.59099
G1 X-118.53053 Y93.02301
G1 X-110.89873 Y97.20592
G1 X-102.92212 Y101.12176
G1 X-94.62435 Y104.75382
G1 X-86.03051 Y108.08673
G1 X-77.16691 Y111.10653
G1 X-68.06097 Y113.80068
G1 X-58.74104 Y116.15808
G1 X-49.23627 Y118.16911
G1 X-39.57646 Y119.82562
G1 X-29.79199 Y121.12093
G1 X-27.2 Y121.36468
G1 Y27.2
G1 X-69.2
G1 F300.0 Y24.8
G1 F800.0 X-181.39429
G1 X-179.6089 Y30.11193
G1 X-177.13263 Y36.08317
G1 X-174.19212 Y42.01442
G1 X-170.78444 Y47.89076
G1 X-166.90852 Y53.69507
G1 X-162.56556 Y59.40845
G1 X-157.75931 Y65.01066
G1 X-152.49617 Y70.4806
G1 X-146.78521 Y75.79678
G1 X-140.63812 Y80.93773
G1 X-134.06905 Y85.88227
G1 X-127.09445 Y90.60988
G1 X-119.73289 Y95.10085
G1 X-112.00486 Y99.33651
G1 X-103.9326 Y103.29931
G1 X-95.53985 Y106.97294
G1 X-86.85176 Y110.3424
G1 X-77.89466 Y113.39406
G1 X-68.69594 Y116.11565
G1 X-59.28391 Y118.49635
G1 X-49.68766 Y120.52673
G1 X-39.9369 Y122.19884
G1 X-30.06192 Y123.50614
G1 X-24.8 Y124.00096
G1 Y24.8
G1 X-69.2
G1 F300.0 Y22.4
G1 F800.0 X-184.54915
G1 X-183.92704 Y24.79761
G1 X-181.8575 Y30.95492
G1 X-179.31869 Y37.07699
G1 X-176.30758 Y43.15062
G1 X-172.82251 Y49.16041
G1 X-168.86363 Y55.08896
G1 X-164.43328 Y60.91731
G1 X-159.53623 Y66.62535
G1 X-154.17979 Y72.19226
G1 X-148.37381 Y77.59691
G1 X-142.1306 Y82.81823
G1 X-135.46486 Y87.83553
G1 X-128.39345 Y92.62876
G1 X-120.93525 Y97.17869
G1 X-113.111 Y101.46709
G1 X-104.94307 Y105.47685
G1 X-96.45535 Y109.19205
G1 X-87.67301 Y112.59807
G1 X-78.6224 Y115.68158
G1 X-69.33091 Y118.43063
G1 X-59.82678 Y120.83462
G1 X-50.13904 Y122.88436
G1 X-40.29734 Y124.57206
G1 X-30.33185 Y125.89134
G1 X-22.4 Y126.63724
G1 Y22.4
G1 X-69.2
G1 F300.0 Y20.0
G1 F800.0 X-187.65137
G1 X-186.22889 Y25.48216
G1 X-184.1061 Y31.79791
G1 X-181.50474 Y38.0708
G1 X-178.42305 Y44.28683
G1 X-174.86059 Y50.43006
G1 X-170.81875 Y56.48285
G1 X-166.301 Y62.42617
G1 X-161.31315 Y68.24005
G1 X-155.86341 Y73.90392
G1 X-149.9624 Y79.39703
G1 X-143.62308 Y84.69873
G1 X-136.86067 Y89.7888
G1 X-129.69244 Y94.64765
G1 X-122.13761 Y99.25654
G1 X-114.21713 Y103.59768
G1 X-105.95355 Y107.65439
G1 X-97.37085 Y111.41117
G1 X-88.49426 Y114.85374
G1 X-79.35015 Y117.96911
G1 X-69.96588 Y120.7456
G1 X-60.36965 Y123.17289
G1 X-50.59043 Y125.24199
G1 X-40.65778 Y126.94528
G1 X-30.60179 Y128.27655
G1 X-20.45293 Y129.23092
G1 X-20.0 Y129.25638
G1 Y20.0
G1 X-69.2
G1 F300.0 Y17.6
G1 F800.0 X-190.59913
G1 X-190.22036 Y19.65501
G1 X-188.53074 Y26.16671
G1 X-186.3547 Y32.64091
G1 X-183.6908 Y39.06461
G1 X-180.53851 Y45.42303
G1 X-176.89866 Y51.69971
G1 X-172.77386 Y57.87673
G1 X-168.16872 Y63.93503
G1 X-163.09007 Y69.85475
G1 X-157.54703 Y75.61559
G1 X-151.55099 Y81.19715
G1 X-145.11556 Y86.57923
G1 X-138.25648 Y91.74207
G1 X-130.99144 Y96.66654
G1 X-123.33997 Y101.33438
G1 X-115.32326 Y105.72826
G1 X-106.96403 Y109.83194
G1 X-98.28634 Y113.63029
G1 X-89.31551 Y117.10941
G1 X-80.07789 Y120.25663
G1 X-70.60084 Y123.06058
G1 X-60.91252 Y125.51116
G1 X-51.04182 Y127.59961
G1 X-41.01822 Y129.31851
G1 X-30.87172 Y130.66175
G1 X-20.6327 Y131.6246
G1 X-17.6 Y131.79509
G1 Y17.6
G1 X-69.2
G1 F300.0 Y15.2
G1 F800.0 X-193.48191
G1 X-192.56503 Y20.17458
G1 X-190.83259 Y26.85126
G1 X-188.6033 Y33.4839
G1 X-185.87685 Y40.05842
G1 X-182.65397 Y46.55923
G1 X-178.93674 Y52.96937
G1 X-174.72898 Y59.27062
G1 X-170.03644 Y65.44389
G1 X-164.86699 Y71.46944
G1 X-159.23065 Y77.32725
G1 X-153.13958 Y82.99728
G1 X-146.60804 Y88.45974
G1 X-139.65229 Y93.69533
G1 X-132.29044 Y98.68543
G1 X-124.54233 Y103.41222
G1 X-116.4294 Y107.85885
G1 X-107.97451 Y112.00948
G1 X-99.20184 Y115.8494
G1 X-90.13676 Y119.36508
G1 X-80.80564 Y122.54416
G1 X-71.23581 Y125.37555
G1 X-61.45539 Y127.84943
G1 X-51.49321 Y129.95724
G1 X-41.37866 Y131.69173
G1 X-31.14166 Y133.04696
G1 X-20.81246 Y134.01829
G1 X-15.2 Y134.3338
G1 Y15.2
G1 X-69.2
G1 F300.0 Y12.8
G1 F800.0 X-196.28938
G1 X-196.17745 Y13.81583
G1 X-194.90969 Y20.69414
G1 X-193.13445 Y27.53581
G1 X-190.8519 Y34.32689
G1 X-188.06291 Y41.05223
G1 X-184.76943 Y47.69544
G1 X-180.97481 Y54.23902
G1 X-176.68409 Y60.66451
G1 X-171.90416 Y66.95275
G1 X-166.64391 Y73.08414
G1 X-160.91427 Y79.03892
G1 X-154.72817 Y84.7974
G1 X-148.10052 Y90.34024
G1 X-141.0481 Y95.6486
G1 X-133.58944 Y100.70432
G1 X-125.74469 Y105.49007
G1 X-117.53553 Y109.98943
G1 X-108.98498 Y114.18702
G1 X-100.11734 Y118.06852
G1 X-90.95801 Y121.62074
G1 X-81.53338 Y124.83168
G1 X-71.87078 Y127.69053
G1 X-61.99826 Y130.1877
G1 X-51.9446 Y132.31487
G1 X-41.7391 Y134.06495
G1 X-31.41159 Y135.43216
G1 X-20.99223 Y136.41197
G1 X-12.8 Y136.8725
G1 Y12.8
G1 X-69.2
G1 F300.0 Y10.4
G1 F800.0 X-198.96834
G1 X-198.55348 Y14.16522
G1 X-197.25435 Y21.21371
G1 X-195.4363 Y28.22037
G1 X-193.1005 Y35.16989
G1 X-190.24896 Y42.04604
G1 X-186.88489 Y48.83164
G1 X-183.01289 Y55.50867
G1 X-178.63921 Y62.0584
G1 X-173.77188 Y68.46161
G1 X-168.42083 Y74.69884
G1 X-162.59789 Y80.75058
G1 X-156.31676 Y86.59752
G1 X-149.593 Y92.22074
G1 X-142.44391 Y97.60186
G1 X-134.88844 Y102.72321
G1 X-126.94705 Y107.56791
G1 X-118.64166 Y112.12002
G1 X-109.99546 Y116.36457
G1 X-101.03284 Y120.28764
G1 X-91.77926 Y123.87641
G1 X-82.26113 Y127.11921
G1 X-72.50574 Y130.0055
G1 X-62.54113 Y132.52597
G1 X-52.39598 Y134.67249
G1 X-42.09955 Y136.43818
G1 X-31.68152 Y137.81737
G1 X-21.17199 Y138.80566
G1 X-10.60131 Y139.39989
G1 X-10.4 Y139.40366
G1 Y10.4
G1 X-69.2
G1 F300.0 Y8.0
G1 F800.0 X-201.6473
G1 X-200.92951 Y14.51462
G1 X-199.59901 Y21.73328
G1 X-197.73815 Y28.90492
G1 X-195.34909 Y36.01288
G1 X-192.43502 Y43.03985
G1 X-189.00035 Y49.96785
G1 X-185.05096 Y56.77832
G1 X-180.59432 Y63.45228
G1 X-175.6396 Y69.97047
G1 X-170.19775 Y76.31353
G1 X-164.2815 Y82.46224
G1 X-157.90535 Y88.39765
G1 X-151.08548 Y94.10125
G1 X-143.83972 Y99.55513
G1 X-136.18743 Y104.7421
G1 X-128.14941 Y109.64575
G1 X-119.74779 Y114.2506
G1 X-111.00594 Y118.54211
G1 X-101.94834 Y122.50675
G1 X-92.60051 Y126.13208
G1 X-82.98888 Y129.40673
G1 X-73.14071 Y132.32048
G1 X-63.084 Y134.86424
G1 X-52.84737 Y137.03012
G1 X-42.45999 Y138.8114
G1 X-31.95146 Y140.20257
G1 X-21.35176 Y141.19934
G1 X-10.69113 Y141.79863
G1 X-8.0 Y141.84897
G1 Y8.0
G1 X-69.2
G1 F300.0 Y5.6
G1 F800.0 X-204.19094
G1 X-204.12346 Y7.44061
G1 X-203.30553 Y14.86401
G1 X-201.94367 Y22.25285
G1 X-200.04001 Y29.58947
G1 X-197.59769 Y36.85587
G1 X-194.62107 Y44.03366
G1 X-191.11581 Y51.10405
G1 X-187.08904 Y58.04797
G1 X-182.54944 Y64.84617
G1 X-177.50732 Y71.47933
G1 X-171.97467 Y77.92823
G1 X-165.96512 Y84.17391
G1 X-159.49394 Y90.19777
G1 X-152.57796 Y95.98175
G1 X-145.23553 Y101.5084
G1 X-137.48643 Y106.76098
G1 X-129.35177 Y111.72359
G1 X-120.85393 Y116.38119
G1 X-112.01642 Y120.71965
G1 X-102.86384 Y124.72587
G1 X-93.42176 Y128.38775
G1 X-83.71662 Y131.69426
G1 X-73.77568 Y134.63545
G1 X-63.62687 Y137.20251
G1 X-53.29876 Y139.38775
G1 X-42.82043 Y141.18462
G1 X-32.22139 Y142.58777
G1 X-21.53153 Y143.59302
G1 X-10.78096 Y144.19737
G1 X-5.6 Y144.29428
G1 Y5.6
G1 X-69.2
G1 F300.0 Y3.2
G1 F800.0 X-206.68054
G1 X-206.51864 Y7.61623
G1 X-205.68156 Y15.21341
G1 X-204.28834 Y22.77241
G1 X-202.34186 Y30.27402
G1 X-199.84629 Y37.69887
G1 X-196.80713 Y45.02747
G1 X-193.23127 Y52.24025
G1 X-189.12711 Y59.31763
G1 X-184.50455 Y66.24006
G1 X-179.37504 Y72.98819
G1 X-173.75159 Y79.54293
G1 X-167.64874 Y85.88557
G1 X-161.08253 Y91.99789
G1 X-154.07044 Y97.86225
G1 X-146.63134 Y103.46166
G1 X-138.78543 Y108.77987
G1 X-130.55413 Y113.80144
G1 X-121.96006 Y118.51177
G1 X-113.02689 Y122.89719
G1 X-103.77934 Y126.94499
G1 X-94.24301 Y130.64342
G1 X-84.44437 Y133.98178
G1 X-74.41065 Y136.95043
G1 X-64.16974 Y139.54078
G1 X-53.75015 Y141.74537
G1 X-43.18087 Y143.55784
G1 X-32.49133 Y144.97298
G1 X-21.71129 Y145.98671
G1 X-10.87078 Y146.59611
G1 X-3.2 Y146.73959
G1 Y3.2
G1 X-69.2
G0 Z3.0
G0 Y69.2
G0 Z-1.0
G1 F300.0 Z-3.0
G1 F800.0 X-69.93431
G1 X-69.2 Y69.45018
G1 Y69.2
G1 F300.0 Y68.0
G1 F800.0 X-76.55674
G1 X-72.06926 Y69.74036
G1 X-68.0 Y71.12675
G1 Y68.0
G1 X-69.2
G1 F300.0 Y65.6
G1 F800.0 X-88.14184
G1 X-86.75448 Y66.28107
G1 X-79.97638 Y69.24795
G1 X-72.89051 Y71.99603
G1 X-65.6 Y74.47988
G1 Y65.6
G1 X-69.2
G1 F300.0 Y63.2
G1 F800.0 X-98.04181
G1 X-94.30674 Y65.24716
G1 X-87.76496 Y68.45862
G1 X-80.89187 Y71.46707
G1 X-73.71176 Y74.2517
G1 X-66.25072 Y76.79365
G1 X-63.2 Y77.69626
G1 Y63.2
G1 X-69.2
G1 F300.0 Y60.8
G1 F800.0 X-106.8334
G1 X-101.69748 Y63.93321
G1 X-95.41287 Y67.37774
G1 X-88.77543 Y70.63616
G1 X-81.80737 Y73.68618
G1 X-74.53301 Y76.50737
G1 X-66.97847 Y79.08118
G1 X-60.8 Y80.90918
G1 Y60.8
G1 X-69.2
G1 F300.0 Y58.4
G1 F800.0 X-114.70911
G1 X-114.52771 Y58.53654
G1 X-108.90848 Y62.34544
G1 X-102.89984 Y66.01105
G1 X-96.51901 Y69.50833
G1 X-89.78591 Y72.8137
G1 X-82.72287 Y75.9053
G1 X-75.35426 Y78.76304
G1 X-67.70622 Y81.3687
G1 X-59.8064 Y83.70599
G1 X-58.4 Y84.06173
G1 Y58.4
G1 X-69.2
G1 F300.0 Y56.0
G1 F800.0 X-121.82321
G1 X-121.23589 Y56.49119
G1 X-115.92352 Y60.48981
G1 X-110.20748 Y64.36432
G1 X-104.1022 Y68.08889
G1 X-97.62514 Y71.63891
G1 X-90.79639 Y74.99125
G1 X-83.63837 Y78.12442
G1 X-76.17551 Y81.01871
G1 X-68.43396 Y83.65623
G1 X-60.44137 Y86.02097
G1 X-56.0 Y87.14438
G1 Y56.0
G1 X-69.2
G1 F300.0 Y53.6
G1 F800.0 X-128.36164
G1 X-127.72213 Y54.1953
G1 X-122.72837 Y58.37169
G1 X-117.31933 Y62.44308
G1 X-111.50647 Y66.38321
G1 X-105.30456 Y70.16674
G1 X-98.73127 Y73.7695
G1 X-91.80687 Y77.16879
G1 X-84.55387 Y80.34353
G1 X-76.99676 Y83.27437
G1 X-69.16171 Y85.94375
G1 X-61.07633 Y88.33595
G1 X-53.6 Y90.22702
G1 Y53.6
G1 X-69.2
G1 F300.0 Y51.2
G1 F800.0 X-134.41156
G1 X-133.97636 Y51.6523
G1 X-129.31072 Y55.99543
G1 X-124.22085 Y60.25219
G1 X-118.71514 Y64.39634
G1 X-112.80547 Y68.4021
G1 X-106.50692 Y72.24458
G1 X-99.8374 Y75.90008
G1 X-92.81734 Y79.34633
G1 X-85.46937 Y82.56265
G1 X-77.81801 Y85.53004
G1 X-69.88945 Y88.23128
G1 X-61.7113 Y90.65092
G1 X-53.31234 Y92.77537
G1 X-51.2 Y93.2223
G1 Y51.2
G1 X-69.2
G1 F300.0 Y48.8
G1 F800.0 X-140.04475
G1 X-139.99011 Y48.86369
G1 X-135.65998 Y53.36396
G1 X-130.89931 Y57.79555
G1 X-125.71333 Y62.13269
G1 X-120.11095 Y66.34961
G1 X-114.10447 Y70.42099
G1 X-107.70928 Y74.32242
G1 X-100.94354 Y78.03066
G1 X-93.82782 Y81.52388
G1 X-86.38486 Y84.78177
G1 X-78.63926 Y87.78571
G1 X-70.6172 Y90.5188
G1 X-62.34627 Y92.9659
G1 X-53.85521 Y95.11364
G1 X-48.8 Y96.18323
G1 Y48.8
G1 X-69.2
G1 F300.0 Y46.4
G1 F800.0 X-145.26596
G1 X-141.76703 Y50.47839
G1 X-137.3436 Y55.07562
G1 X-132.4879 Y59.59567
G1 X-127.20581 Y64.0132
G1 X-121.50676 Y68.30287
G1 X-115.40347 Y72.43988
G1 X-108.91164 Y76.40026
G1 X-102.04967 Y80.16125
G1 X-94.8383 Y83.70142
G1 X-87.30036 Y87.00089
G1 X-79.46051 Y90.04138
G1 X-71.34494 Y92.80633
G1 X-62.98124 Y95.28087
G1 X-54.39808 Y97.45191
G1 X-46.4 Y99.14415
G1 Y46.4
G1 X-69.2
G1 F300.0 Y44.0
G1 F800.0 X-150.16082
G1 X-147.6238 Y47.33757
G1 X-143.54395 Y52.09308
G1 X-139.02722 Y56.78729
G1 X-134.07649 Y61.3958
G1 X-128.69829 Y65.8937
G1 X-122.90257 Y70.25614
G1 X-116.70246 Y74.45877
G1 X-110.114 Y78.47811
G1 X-103.1558 Y82.29183
G1 X-95.84878 Y85.87896
G1 X-88.21586 Y89.22
G1 X-80.28176 Y92.29705
G1 X-72.07269 Y95.09385
G1 X-63.6162 Y97.59585
G1 X-54.94095 Y99.79018
G1 X-46.07655 Y101.66572
G1 X-44.0 Y102.02182
G1 Y44.0
G1 X-69.2
G1 F300.0 Y41.6
G1 F800.0 X-154.78386
G1 X-153.22271 Y43.93786
G1 X-149.49152 Y48.84643
G1 X-145.32087 Y53.70778
G1 X-140.71084 Y58.49895
G1 X-135.66508 Y63.19592
G1 X-130.19077 Y67.7742
G1 X-124.29838 Y72.20941
G1 X-118.00146 Y76.47766
G1 X-111.31636 Y80.55595
G1 X-104.26194 Y84.42242
G1 X-96.85925 Y88.0565
G1 X-89.13136 Y91.43912
G1 X-81.10301 Y94.55272
G1 X-72.80044 Y97.38138
G1 X-64.25117 Y99.91082
G1 X-55.48382 Y102.12845
G1 X-46.52794 Y104.02335
G1 X-41.6 Y104.86841
G1 Y41.6
G1 X-69.2
G1 F300.0 Y39.2
G1 F800.0 X-159.17813
G1 X-158.55599 Y40.27284
G1 X-155.17783 Y45.33175
G1 X-151.35924 Y50.35529
G1 X-147.09779 Y55.32248
G1 X-142.39445 Y60.21062
G1 X-137.25367 Y64.99604
G1 X-131.68325 Y69.65471
G1 X-125.69419 Y74.16267
G1 X-119.30046 Y78.49654
G1 X-112.51873 Y82.63379
G1 X-105.36807 Y86.553
G1 X-97.86973 Y90.23405
G1 X-90.04686 Y93.65824
G1 X-81.92426 Y96.80839
G1 X-73.52818 Y99.6689
G1 X-64.88614 Y102.2258
G1 X-56.02669 Y104.46672
G1 X-46.97933 Y106.38097
G1 X-39.2 Y107.71501
G1 Y39.2
G1 X-69.2
G1 F300.0 Y36.8
G1 F800.0 X-163.34423
G1 X-160.59407 Y41.5425
G1 X-157.13294 Y46.72563
G1 X-153.22696 Y51.86415
G1 X-148.87471 Y56.93717
G1 X-144.07807 Y61.92228
G1 X-138.84226 Y66.79617
G1 X-133.17573 Y71.53521
G1 X-127.09 Y76.11594
G1 X-120.59946 Y80.51543
G1 X-113.72109 Y84.71164
G1 X-106.4742 Y88.68359
G1 X-98.88021 Y92.41159
G1 X-90.96236 Y95.87735
G1 X-82.74551 Y99.06406
G1 X-74.25593 Y101.95643
G1 X-65.5211 Y104.54077
G1 X-56.56956 Y106.80499
G1 X-47.43071 Y108.7386
G1 X-38.1347 Y110.33273
G1 X-36.8 Y110.50942
G1 Y36.8
G1 X-69.2
G1 F300.0 Y34.4
G1 F800.0 X-167.25208
G1 X-165.73028 Y37.4696
G1 X-162.63214 Y42.81215
G1 X-159.08806 Y48.11952
G1 X-155.09468 Y53.37301
G1 X-150.65163 Y58.55187
G1 X-145.76169 Y63.63394
G1 X-140.43085 Y68.59629
G1 X-134.66821 Y73.41571
G1 X-128.48581 Y78.0692
G1 X-121.89846 Y82.53432
G1 X-114.92345 Y86.78948
G1 X-107.58033 Y90.81417
G1 X-99.89069 Y94.58913
G1 X-91.87786 Y98.09647
G1 X-83.56676 Y101.31973
G1 X-74.98367 Y104.24395
G1 X-66.15607 Y106.85575
G1 X-57.11243 Y109.14326
G1 X-47.8821 Y111.09623
G1 X-38.49514 Y112.70595
G1 X-34.4 Y113.24808
G1 Y34.4
G1 X-69.2
G1 F300.0 Y32.0
G1 F800.0 X-171.03136
G1 X-170.57447 Y33.10174
G1 X-167.84574 Y38.60581
G1 X-164.67022 Y44.0818
G1 X-161.04317 Y49.51341
G1 X-156.9624 Y54.88187
G1 X-152.42855 Y60.16657
G1 X-147.44531 Y65.34561
G1 X-142.01944 Y70.39641
G1 X-136.16069 Y75.29622
G1 X-129.88162 Y80.02247
G1 X-123.19745 Y84.55321
G1 X-116.12581 Y88.86732
G1 X-108.68647 Y92.94476
G1 X-100.90116 Y96.76668
G1 X-92.79335 Y100.31559
G1 X-84.38801 Y103.57539
G1 X-75.71142 Y106.53148
G1 X-66.79104 Y109.17072
G1 X-57.6553 Y111.48153
G1 X-48.33349 Y113.45385
G1 X-38.85558 Y115.07917
G1 X-32.0 Y115.98675
G1 Y32.0
G1 X-69.2
G1 F300.0 Y29.6
G1 F800.0 X-174.62482
G1 X-172.76052 Y34.09555
G1 X-169.9612 Y39.74201
G1 X-166.70829 Y45.35145
G1 X-162.99829 Y50.9073
G1 X-158.83012 Y56.39073
G1 X-154.20547 Y61.78126
G1 X-149.12893 Y67.05727
G1 X-143.60803 Y72.19654
G1 X-137.65317 Y77.17672
G1 X-131.27743 Y81.97574
G1 X-124.49645 Y86.5721
G1 X-117.32817 Y90.94517
G1 X-109.7926 Y95.07534
G1 X-101.91164 Y98.94422
G1 X-93.70885 Y102.5347
G1 X-85.20926 Y105.83106
G1 X-76.43916 Y108.81901
G1 X-67.42601 Y111.4857
G1 X-58.19817 Y113.8198
G1 X-48.78488 Y115.81148
G1 X-39.21602 Y117.45239
G1 X-29.6 Y118.72541
G1 Y29.6
G1 X-69.2
G1 F300.0 Y27.2
G1 F800.0 X-178.05569
G1 X-177.3603 Y29.26893
G1 X-174.94658 Y35.08936
G1 X-172.07666 Y40.87822
G1 X-168.74637 Y46.6211
G1 X-164.9534 Y52.30118
G1 X-160.69784 Y57.89959
G1 X-155.98239 Y63.39596
G1 X-150.81255 Y68.76893
G1 X-145.19662 Y73.99666
G1 X-139.14564 Y79.05722
G1 X-132.67324 Y83.929
G1 X-125.79545 Y88.59099
G1 X-118.53053 Y93.02301
G1 X-110.89873 Y97.20592
G1 X-102.92212 Y101.12176
G1 X-94.62435 Y104.75382
G1 X-86.03051 Y108.08673
G1 X-77.16691 Y111.10653
G1 X-68.06097 Y113.80068
G1 X-58.74104 Y116.15808
G1 X-49.23627 Y118.16911
G1 X-39.57646 Y119.82562
G1 X-29.79199 Y121.12093
G1 X-27.2 Y121.36468
G1 Y27.2
G1 X-69.2
G1 F300.0 Y24.8
G1 F800.0 X-181.39429
G1 X-179.6089 Y30.11193
G1 X-177.13263 Y36.08317
G1 X-174.19212 Y42.01442
G1 X-170.78444 Y47.89076
G1 X-166.90852 Y53.69507
G1 X-162.56556 Y59.40845
G1 X-157.75931 Y65.01066
G1 X-152.49617 Y70.4806
G1 X-146.78521 Y75.79678
G1 X-140.63812 Y80.93773
G1 X-134.06905 Y85.88227
G1 X-127.09445 Y90.60988
G1 X-119.73289 Y95.10085
G1 X-112.00486 Y99.33651
G1 X-103.9326 Y103.29931
G1 X-95.53985 Y106.97294
G1 X-86.85176 Y110.3424
G1 X-77.89466 Y113.39406
G1 X-68.69594 Y116.11565
G1 X-59.28391 Y118.49635
G1 X-49.68766 Y120.52673
G1 X-39.9369 Y122.19884
G1 X-30.06192 Y123.50614
G1 X-24.8 Y124.00096
G1 Y24.8
G1 X-69.2
G1 F300.0 Y22.4
G1 F800.0 X-184.54915
G1 X-183.92704 Y24.79761
G1 X-181.8575 Y30.95492
G1 X-179.31869 Y37.07699
G1 X-176.30758 Y43.15062
G1 X-172.82251 Y49.16041
G1 X-168.86363 Y55.08896
G1 X-164.43328 Y60.91731
G1 X-159.53623 Y66.62535
G1 X-154.17979 Y72.19226
G1 X-148.37381 Y77.59691
G1 X-142.1306 Y82.81823
G1 X-135.46486 Y87.83553
G1 X-128.39345 Y92.62876
G1 X-120.93525 Y97.17869
G1 X-113.111 Y101.46709
G1 X-104.94307 Y105.47685
G1 X-96.45535 Y109.19205
G1 X-87.67301 Y112.59807
G1 X-78.6224 Y115.68158
G1 X-69.33091 Y118.43063
G1 X-59.82678 Y120.83462
G1 X-50.13904 Y122.88436
G1 X-40.29734 Y124.57206
G1 X-30.33185 Y125.89134
G1 X-22.4 Y126.63724
G1 Y22.4
G1 X-69.2
G1 F300.0 Y20.0
G1 F800.0 X-187.65137
G1 X-186.22889 Y25.48216
G1 X-184.1061 Y31.79791
G1 X-181.50474 Y38.0708
G1 X-178.42305 Y44.28683
G1 X-174.86059 Y50.43006
G1 X-170.81875 Y56.48285
G1 X-166.301 Y62.42617
G1 X-161.31315 Y68.24005
G1 X-155.86341 Y73.90392
G1 X-149.9624 Y79.39703
G1 X-143.62308 Y84.69873
G1 X-136.86067 Y89.7888
G1 X-129.69244 Y94.64765
G1 X-122.13761 Y99.25654
G1 X-114.21713 Y103.59768
G1 X-105.95355 Y107.65439
G1 X-97.37085 Y111.41117
G1 X-88.49426 Y114.85374
G1 X-79.35015 Y117.96911
G1 X-69.96588 Y120.7456
G1 X-60.36965 Y123.17289
G1 X-50.59043 Y125.24199
G1 X-40.65778 Y126.94528
G1 X-30.60179 Y128.27655
G1 X-20.45293 Y129.23092
G1 X-20.0 Y129.25638
G1 Y20.0
G1 X-69.2
G1 F300.0 Y17.6
G1 F800.0 X-190.59913
G1 X-190.22036 Y19.65501
G1 X-188.53074 Y26.16671
G1 X-186.3547 Y32.64091
G1 X-183.6908 Y39.06461
G1 X-180.53851 Y45.42303
G1 X-176.89866 Y51.69971
G1 X-172.77386 Y57.87673
G1 X-168.16872 Y63.93503
G1 X-163.09007 Y69.85475
G1 X-157.54703 Y75.61559
G1 X-151.55099 Y81.19715
G1 X-145.11556 Y86.57923
G1 X-138.25648 Y91.74207
G1 X-130.99144 Y96.66654
G1 X-123.33997 Y101.33438
G1 X-115.32326 Y105.72826
G1 X-106.96403 Y109.83194
G1 X-98.28634 Y113.63029
G1 X-89.31551 Y117.10941
G1 X-80.07789 Y120.25663
G1 X-70.60084 Y123.06058
G1 X-60.91252 Y125.51116
G1 X-51.04182 Y127.59961
G1 X-41.01822 Y129.31851
G1 X-30.87172 Y130.66175
G1 X-20.6327 Y131.6246
G1 X-17.6 Y131.79509
G1 Y17.6
G1 X-69.2
G1 F300.0 Y15.2
G1 F800.0 X-193.48191
G1 X-192.56503 Y20.17458
G1 X-190.83259 Y26.85126
G1 X-188.6033 Y33.4839
G1 X-185.87685 Y40.05842
G1 X-182.65397 Y46.55923
G1 X-178.93674 Y52.96937
G1 X-174.72898 Y59.27062
G1 X-170.03644 Y65.44389
G1 X-164.86699 Y71.46944
G1 X-159.23065 Y77.32725
G1 X-153.13958 Y82.99728
G1 X-146.60804 Y88.45974
G1 X-139.65229 Y93.69533
G1 X-132.29044 Y98.68543
G1 X-124.54233 Y103.41222
G1 X-116.4294 Y107.85885
G1 X-107.97451 Y112.00948
G1 X-99.20184 Y115.8494
G1 X-90.13676 Y119.36508
G1 X-80.80564 Y122.54416
G1 X-71.23581 Y125.37555
G1 X-61.45539 Y127.84943
G1 X-51.49321 Y129.95724
G1 X-41.37866 Y131.69173
G1 X-31.14166 Y133.04696
G1 X-20.81246 Y134.01829
G1 X-15.2 Y134.3338
G1 Y15.2
G1 X-69.2
G1 F300.0 Y12.8
G1 F800.0 X-196.28938
G1 X-196.17745 Y13.81583
G1 X-194.90969 Y20.69414
G1 X-193.13445 Y27.53581
G1 X-190.8519 Y34.32689
G1 X-188.06291 Y41.05223
G1 X-184.76943 Y47.69544
G1 X-180.97481 Y54.23902
G1 X-176.68409 Y60.66451
G1 X-171.90416 Y66.95275
G1 X-166.64391 Y73.08414
G1 X-160.91427 Y79.03892
G1 X-154.72817 Y84.7974
G1 X-148.10052 Y90.34024
G1 X-141.0481 Y95.6486
G1 X-133.58944 Y100.70432
G1 X-125.74469 Y105.49007
G1 X-117.53553 Y109.98943
G1 X-108.98498 Y114.18702
G1 X-100.11734 Y118.06852
G1 X-90.95801 Y121.62074
G1 X-81.53338 Y124.83168
G1 X-71.87078 Y127.69053
G1 X-61.99826 Y130.1877
G1 X-51.9446 Y132.31487
G1 X-41.7391 Y134.06495
G1 X-31.41159 Y135.43216
G1 X-20.99223 Y136.41197
G1 X-12.8 Y136.8725
G1 Y12.8
G1 X-69.2
G1 F300.0 Y10.4
G1 F800.0 X-198.96834
G1 X-198.55348 Y14.16522
G1 X-197.25435 Y21.21371
G1 X-195.4363 Y28.22037
G1 X-193.1005 Y35.16989
G1 X-190.24896 Y42.04604
G1 X-186.88489 Y48.83164
G1 X-183.01289 Y55.50867
G1 X-178.63921 Y62.0584
G1 X-173.77188 Y68.46161
G1 X-168.42083 Y74.69884
G1 X-162.59789 Y80.75058
G1 X-156.31676 Y86.59752
G1 X-149.593 Y92.22074
G1 X-142.44391 Y97.60186
G1 X-134.88844 Y102.72321
G1 X-126.94705 Y107.56791
G1 X-118.64166 Y112.12002
G1 X-109.99546 Y116.36457
G1 X-101.03284 Y120.28764
G1 X-91.77926 Y123.87641
G1 X-82.26113 Y127.11921
G1 X-72.50574 Y130.0055
G1 X-62.54113 Y132.52597
G1 X-52.39598 Y134.67249
G1 X-42.09955 Y136.43818
G1 X-31.68152 Y137.81737
G1 X-21.17199 Y138.80566
G1 X-10.60131 Y139.39989
G1 X-10.4 Y139.40366
G1 Y10.4
G1 X-69.2
G1 F300.0 Y8.0
G1 F800.0 X-201.6473
G1 X-200.92951 Y14.51462
G1 X-199.59901 Y21.73328
G1 X-197.73815 Y28.90492
G1 X-195.34909 Y36.01288
G1 X-192.43502 Y43.03985
G1 X-189.00035 Y49.96785
G1 X-185.05096 Y56.77832
G1 X-180.59432 Y63.45228
G1 X-175.6396 Y69.97047
G1 X-170.19775 Y76.31353
G1 X-164.2815 Y82.46224
G1 X-157.90535 Y88.39765
G1 X-151.08548 Y94.10125
G1 X-143.83972 Y99.55513
G1 X-136.18743 Y104.7421
G1 X-128.14941 Y109.64575
G1 X-119.74779 Y114.2506
G1 X-111.00594 Y118.54211
G1 X-101.94834 Y122.50675
G1 X-92.60051 Y126.13208
G1 X-82.98888 Y129.40673
G1 X-73.14071 Y132.32048
G1 X-63.084 Y134.86424
G1 X-52.84737 Y137.03012
G1 X-42.45999 Y138.8114
G1 X-31.95146 Y140.20257
G1 X-21.35176 Y141.19934
G1 X-10.69113 Y141.79863
G1 X-8.0 Y141.84897
G1 Y8.0
G1 X-69.2
G1 F300.0 Y5.6
G1 F800.0 X-204.19094
G1 X-204.12346 Y7.44061
G1 X-203.30553 Y14.86401
G1 X-201.94367 Y22.25285
G1 X-200.04001 Y29.58947
G1 X-197.59769 Y36.85587
G1 X-194.62107 Y44.03366
G1 X-191.11581 Y51.10405
G1 X-187.08904 Y58.04797
G1 X-182.54944 Y64.84617
G1 X-177.50732 Y71.47933
G1 X-171.97467 Y77.92823
G1 X-165.96512 Y84.17391
G1 X-159.49394 Y90.19777
G1 X-152.57796 Y95.98175
G1 X-145.23553 Y101.5084
G1 X-137.48643 Y106.76098
G1 X-129.35177 Y111.72359
G1 X-120.85393 Y116.38119
G1 X-112.01642 Y120.71965
G1 X-102.86384 Y124.72587
G1 X-93.42176 Y128.38775
G1 X-83.71662 Y131.69426
G1 X-73.77568 Y134.63545
G1 X-63.62687 Y137.20251
G1 X-53.29876 Y139.38775
G1 X-42.82043 Y141.18462
G1 X-32.22139 Y142.58777
G1 X-21.53153 Y143.59302
G1 X-10.78096 Y144.19737
G1 X-5.6 Y144.29428
G1 Y5.6
G1 X-69.2
G1 F300.0 Y3.2
G1 F800.0 X-206.68054
G1 X-206.51864 Y7.61623
G1 X-205.68156 Y15.21341
G1 X-204.28834 Y22.77241
G1 X-202.34186 Y30.27402
G1 X-199.84629 Y37.69887
G1 X-196.80713 Y45.02747
G1 X-193.23127 Y52.24025
G1 X-189.12711 Y59.31763
G1 X-184.50455 Y66.24006
G1 X-179.37504 Y72.98819
G1 X-173.75159 Y79.54293
G1 X-167.64874 Y85.88557
G1 X-161.08253 Y91.99789
G1 X-154.07044 Y97.86225
G1 X-146.63134 Y103.46166
G1 X-138.78543 Y108.77987
G1 X-130.55413 Y113.80144
G1 X-121.96006 Y118.51177
G1 X-113.02689 Y122.89719
G1 X-103.77934 Y126.94499
G1 X-94.24301 Y130.64342
G1 X-84.44437 Y133.98178
G1 X-74.41065 Y136.95043
G1 X-64.16974 Y139.54078
G1 X-53.75015 Y141.74537
G1 X-43.18087 Y143.55784
G1 X-32.49133 Y144.97298
G1 X-21.71129 Y145.98671
G1 X-10.87078 Y146.59611
G1 X-3.2 Y146.73959
G1 Y3.2
G1 X-69.2
G0 Z3.0
G0 Y69.2
G0 Z-2.0
G1 F300.0 Z-4.0
G1 F800.0 X-69.93431
G1 X-69.2 Y69.45018
G1 Y69.2
G1 F300.0 Y68.0
G1 F800.0 X-76.55674
G1 X-72.06926 Y69.74036
G1 X-68.0 Y71.12675
G1 Y68.0
G1 X-69.2
G1 F300.0 Y65.6
G1 F800.0 X-88.14184
G1 X-86.75448 Y66.28107
G1 X-79.97638 Y69.24795
G1 X-72.89051 Y71.99603
G1 X-65.6 Y74.47988
G1 Y65.6
G1 X-69.2
G1 F300.0 Y63.2
G1 F800.0 X-98.04181
G1 X-94.30674 Y65.24716
G1 X-87.76496 Y68.45862
G1 X-80.89187 Y71.46707
G1 X-73.71176 Y74.2517
G1 X-66.25072 Y76.79365
G1 X-63.2 Y77.69626
G1 Y63.2
G1 X-69.2
G1 F300.0 Y60.8
G1 F800.0 X-106.8334
G1 X-101.69748 Y63.93321
G1 X-95.41287 Y67.37774
G1 X-88.77543 Y70.63616
G1 X-81.80737 Y73.68618
G1 X-74.53301 Y76.50737
G1 X-66.97847 Y79.08118
G1 X-60.8 Y80.90918
G1 Y60.8
G1 X-69.2
G1 F300.0 Y58.4
G1 F800.0 X-114.70911
G1 X-114.52771 Y58.53654
G1 X-108.90848 Y62.34544
G1 X-102.89984 Y66.01105
G1 X-96.51901 Y69.50833
G1 X-89.78591 Y72.8137
G1 X-82.72287 Y75.9053
G1 X-75.35426 Y78.76304
G1 X-67.70622 Y81.3687
G1 X-59.8064 Y83.70599
G1 X-58.4 Y84.06173
G1 Y58.4
G1 X-69.2
G1 F300.0 Y56.0
G1 F800.0 X-121.82321
G1 X-121.23589 Y56.49119
G1 X-115.92352 Y60.48981
G1 X-110.20748 Y64.36432
G1 X-104.1022 Y68.08889
G1 X-97.62514 Y71.63891
G1 X-90.79639 Y74.99125
G1 X-83.63837 Y78.12442
G1 X-76.17551 Y81.01871
G1 X-68.43396 Y83.65623
G1 X-60.44137 Y86.02097
G1 X-56.0 Y87.14438
G1 Y56.0
G1 X-69.2
G1 F300.0 Y53.6
G1 F800.0 X-128.36164
G1 X-127.72213 Y54.1953
G1 X-122.72837 Y58.37169
G1 X-117.31933 Y62.44308
G1 X-111.50647 Y66.38321
G1 X-105.30456 Y70.16674
G1 X-98.73127 Y73.7695
G1 X-91.80687 Y77.16879
G1 X-84.55387 Y80.34353
G1 X-76.99676 Y83.27437
G1 X-69.16171 Y85.94375
G1 X-61.07633 Y88.33595
G1 X-53.6 Y90.22702
G1 Y53.6
G1 X-69.2
G1 F300.0 Y51.2
G1 F800.0 X-134.41156
G1 X-133.97636 Y51.6523
G1 X-129.31072 Y55.99543
G1 X-124.22085 Y60.25219
G1 X-118.71514 Y64.39634
G1 X-112.80547 Y68.4021
G1 X-106.50692 Y72.24458
G1 X-99.8374 Y75.90008
G1 X-92.81734 Y79.34633
G1 X-85.46937 Y82.56265
G1 X-77.81801 Y85.53004
G1 X-69.88945 Y88.23128
G1 X-61.7113 Y90.65092
G1 X-53.31234 Y92.77537
G1 X-51.2 Y93.2223
G1 Y51.2
G1 X-69.2
G1 F300.0 Y48.8
G1 F800.0 X-140.04475
G1 X-139.99011 Y48.86369
G1 X-135.65998 Y53.36396
G1 X-130.89931 Y57.79555
G1 X-125.71333 Y62.13269
G1 X-120.11095 Y66.34961
G1 X-114.10447 Y70.42099
G1 X-107.70928 Y74.32242
G1 X-100.94354 Y78.03066
G1 X-93.82782 Y81.52388
G1 X-86.38486 Y84.78177
G1 X-78.63926 Y87.78571
G1 X-70.6172 Y90.5188
G1 X-62.34627 Y92.9659
G1 X-53.85521 Y95.11364
G1 X-48.8 Y96.18323
G1 Y48.8
G1 X-69.2
G1 F300.0 Y46.4
G1 F800.0 X-145.26596
G1 X-141.76703 Y50.47839
G1 X-137.3436 Y55.07562
G1 X-132.4879 Y59.59567
G1 X-127.20581 Y64.0132
G1 X-121.50676 Y68.30287
G1 X-115.40347 Y72.43988
G1 X-108.91164 Y76.40026
G1 X-102.04967 Y80.16125
G1 X-94.8383 Y83.70142
G1 X-87.30036 Y87.00089
G1 X-79.46051 Y90.04138
G1 X-71.34494 Y92.80633
G1 X-62.98124 Y95.28087
G1 X-54.39808 Y97.45191
G1 X-46.4 Y99.14415
G1 Y46.4
G1 X-69.2
G1 F300.0 Y44.0
G1 F800.0 X-150.16082
G1 X-147.6238 Y47.33757
G1 X-143.54395 Y52.09308
G1 X-139.02722 Y56.78729
G1 X-134.07649 Y61.3958
G1 X-128.69829 Y65.8937
G1 X-122.90257 Y70.25614
G1 X-116.70246 Y74.45877
G1 X-110.114 Y78.47811
G1 X-103.1558 Y82.29183
G1 X-95.84878 Y85.87896
G1 X-88.21586 Y89.22
G1 X-80.28176 Y92.29705
G1 X-72.07269 Y95.09385
G1 X-63.6162 Y97.59585
G1 X-54.94095 Y99.79018
G1 X-46.07655 Y101.66572
G1 X-44.0 Y102.02182
G1 Y44.0
G1 X-69.2
G1 F300.0 Y41.6
G1 F800.0 X-154.78386
G1 X-153.22271 Y43.93786
G1 X-149.49152 Y48.84643
G1 X-145.32087 Y53.70778
G1 X-140.71084 Y58.49895
G1 X-135.66508 Y63.19592
G1 X-130.19077 Y67.7742
G1 X-124.29838 Y72.20941
G1 X-118.00146 Y76.47766
G1 X-111.31636 Y80.55595
G1 X-104.26194 Y84.42242
G1 X-96.85925 Y88.0565
G1 X-89.13136 Y91.43912
G1 X-81.10301 Y94.55272
G1 X-72.80044 Y97.38138
G1 X-64.25117 Y99.91082
G1 X-55.48382 Y102.12845
G1 X-46.52794 Y104.02335
G1 X-41.6 Y104.86841
G1 Y41.6
G1 X-69.2
G1 F300.0 Y39.2
G1 F800.0 X-159.17813
G1 X-158.55599 Y40.27284
G1 X-155.17783 Y45.33175
G1 X-151.35924 Y50.35529
G1 X-147.09779 Y55.32248
G1 X-142.39445 Y60.21062
G1 X-137.25367 Y64.99604
G1 X-131.68325 Y69.65471
G1 X-125.69419 Y74.16267
G1 X-119.30046 Y78.49654
G1 X-112.51873 Y82.63379
G1 X-105.36807 Y86.553
G1 X-97.86973 Y90.23405
G1 X-90.04686 Y93.65824
G1 X-81.92426 Y96.80839
G1 X-73.52818 Y99.6689
G1 X-64.88614 Y102.2258
G1 X-56.02669 Y104.46672
G1 X-46.97933 Y106.38097
G1 X-39.2 Y107.71501
G1 Y39.2
G1 X-69.2
G1 F300.0 Y36.8
G1 F800.0 X-163.34423
G1 X-160.59407 Y41.5425
G1 X-157.13294 Y46.72563
G1 X-153.22696 Y51.86415
G1 X-148.87471 Y56.93717
G1 X-144.07807 Y61.92228
G1 X-138.84226 Y66.79617
G1 X-133.17573 Y71.53521
G1 X-127.09 Y76.11594
G1 X-120.59946 Y80.51543
G1 X-113.72109 Y84.71164
G1 X-106.4742 Y88.68359
G1 X-98.88021 Y92.41159
G1 X-90.96236 Y95.87735
G1 X-82.74551 Y99.06406
G1 X-74.25593 Y101.95643
G1 X-65.5211 Y104.54077
G1 X-56.56956 Y106.80499
G1 X-47.43071 Y108.7386
G1 X-38.1347 Y110.33273
G1 X-36.8 Y110.50942
G1 Y36.8
G1 X-69.2
G1 F300.0 Y34.4
G1 F800.0 X-167.25208
G1 X-165.73028 Y37.4696
G1 X-162.63214 Y42.81215
G1 X-159.08806 Y48.11952
G1 X-155.09468 Y53.37301
G1 X-150.65163 Y58.55187
G1 X-145.76169 Y63.63394
G1 X-140.43085 Y68.59629
G1 X-134.66821 Y73.41571
G1 X-128.48581 Y78.0692
G1 X-121.89846 Y82.53432
G1 X-114.92345 Y86.78948
G1 X-107.58033 Y90.81417
G1 X-99.89069 Y94.58913
G1 X-91.87786 Y98.09647
G1 X-83.56676 Y101.31973
G1 X-74.98367 Y104.24395
G1 X-66.15607 Y106.85575
G1 X-57.11243 Y109.14326
G1 X-47.8821 Y111.09623
G1 X-38.49514 Y112.70595
G1 X-34.4 Y113.24808
G1 Y34.4
G1 X-69.2
G1 F300.0 Y32.0
G1 F800.0 X-171.03136
G1 X-170.57447 Y33.10174
G1 X-167.84574 Y38.60581
G1 X-164.67022 Y44.0818
G1 X-161.04317 Y49.51341
G1 X-156.9624 Y54.88187
G1 X-152.42855 Y60.16657
G1 X-147.44531 Y65.34561
G1 X-142.01944 Y70.39641
G1 X-136.16069 Y75.29622
G1 X-129.88162 Y80.02247
G1 X-123.19745 Y84.55321
G1 X-116.12581 Y88.86732
G1 X-108.68647 Y92.94476
G1 X-100.90116 Y96.76668
G1 X-92.79335 Y100.31559
G1 X-84.38801 Y103.57539
G1 X-75.71142 Y106.53148
G1 X-66.79104 Y109.17072
G1 X-57.6553 Y111.48153
G1 X-48.33349 Y113.45385
G1 X-38.85558 Y115.07917
G1 X-32.0 Y115.98675
G1 Y32.0
G1 X-69.2
G1 F300.0 Y29.6
G1 F800.0 X-174.62482
G1 X-172.76052 Y34.09555
G1 X-169.9612 Y39.74201
G1 X-166.70829 Y45.35145
G1 X-162.99829 Y50.9073
G1 X-158.83012 Y56.39073
G1 X-154.20547 Y61.78126
G1 X-149.12893 Y67.05727
G1 X-143.60803 Y72.19654
G1 X-137.65317 Y77.17672
G1 X-131.27743 Y81.97574
G1 X-124.49645 Y86.5721
G1 X-117.32817 Y90.94517
G1 X-109.7926 Y95.07534
G1 X-101.91164 Y98.94422
G1 X-93.70885 Y102.5347
G1 X-85.20926 Y105.83106
G1 X-76.43916 Y108.81901
G1 X-67.42601 Y111.4857
G1 X-58.19817 Y113.8198
G1 X-48.78488 Y115.81148
G1 X-39.21602 Y117.45239
G1 X-29.6 Y118.72541
G1 Y29.6
G1 X-69.2
G1 F300.0 Y27.2
G1 F800.0 X-178.05569
G1 X-177.3603 Y29.26893
G1 X-174.94658 Y35.08936
G1 X-172.07666 Y40.87822
G1 X-168.74637 Y46.6211
G1 X-164.9534 Y52.30118
G1 X-160.69784 Y57.89959
G1 X-155.98239 Y63.39596
G1 X-150.81255 Y68.76893
G1 X-145.19662 Y73.99666
G1 X-139.14564 Y79.05722
G1 X-132.67324 Y83.929
G1 X-125.79545 Y88.59099
G1 X-118.53053 Y93.02301
G1 X-110.89873 Y97.20592
G1 X-102.92212 Y101.12176
G1 X-94.62435 Y104.75382
G1 X-86.03051 Y108.08673
G1 X-77.16691 Y111.10653
G1 X-68.06097 Y113.80068
G1 X-58.74104 Y116.15808
G1 X-49.23627 Y118.16911
G1 X-39.57646 Y119.82562
G1 X-29.79199 Y121.12093
G1 X-27.2 Y121.36468
G1 Y27.2
G1 X-69.2
G1 F300.0 Y24.8
G1 F800.0 X-181.39429
G1 X-179.6089 Y30.11193
G1 X-177.13263 Y36.08317
G1 X-174.19212 Y42.01442
G1 X-170.78444 Y47.89076
G1 X-166.90852 Y53.69507
G1 X-162.56556 Y59.40845
G1 X-157.75931 Y65.01066
G1 X-152.49617 Y70.4806
G1 X-146.78521 Y75.79678
G1 X-140.63812 Y80.93773
G1 X-134.06905 Y85.88227
G1 X-127.09445 Y90.60988
G1 X-119.73289 Y95.10085
G1 X-112.00486 Y99.33651
G1 X-103.9326 Y103.29931
G1 X-95.53985 Y106.97294
G1 X-86.85176 Y110.3424
G1 X-77.89466 Y113.39406
G1 X-68.69594 Y116.11565
G1 X-59.28391 Y118.49635
G1 X-49.68766 Y120.52673
G1 X-39.9369 Y122.19884
G1 X-30.06192 Y123.50614
G1 X-24.8 Y124.00096
G1 Y24.8
G1 X-69.2
G1 F300.0 Y22.4
G1 F800.0 X-184.54915
G1 X-183.92704 Y24.79761
G1 X-181.8575 Y30.95492
G1 X-179.31869 Y37.07699
G1 X-176.30758 Y43.15062
G1 X-172.82251 Y49.16041
G1 X-168.86363 Y55.08896
G1 X-164.43328 Y60.91731
G1 X-159.53623 Y66.62535
G1 X-154.17979 Y72.19226
G1 X-148.37381 Y77.59691
G1 X-142.1306 Y82.81823
G1 X-135.46486 Y87.83553
G1 X-128.39345 Y92.62876
G1 X-120.93525 Y97.17869
G1 X-113.111 Y101.46709
G1 X-104.94307 Y105.47685
G1 X-96.45535 Y109.19205
G1 X-87.67301 Y112.59807
G1 X-78.6224 Y115.68158
G1 X-69.33091 Y118.43063
G1 X-59.82678 Y120.83462
G1 X-50.13904 Y122.88436
G1 X-40.29734 Y124.57206
G1 X-30.33185 Y125.89134
G1 X-22.4 Y126.63724
G1 Y22.4
G1 X-69.2
G1 F300.0 Y20.0
G1 F800.0 X-187.65137
G1 X-186.22889 Y25.48216
G1 X-184.1061 Y31.79791
G1 X-181.50474 Y38.0708
G1 X-178.42305 Y44.28683
G1 X-174.86059 Y50.43006
G1 X-170.81875 Y56.48285
G1 X-166.301 Y62.42617
G1 X-161.31315 Y68.24005
G1 X-155.86341 Y73.90392
G1 X-149.9624 Y79.39703
G1 X-143.62308 Y84.69873
G1 X-136.86067 Y89.7888
G1 X-129.69244 Y94.64765
G1 X-122.13761 Y99.25654
G1 X-114.21713 Y103.59768
G1 X-105.95355 Y107.65439
G1 X-97.37085 Y111.41117
G1 X-88.49426 Y114.85374
G1 X-79.35015 Y117.96911
G1 X-69.96588 Y120.7456
G1 X-60.36965 Y123.17289
G1 X-50.59043 Y125.24199
G1 X-40.65778 Y126.94528
G1 X-30.60179 Y128.27655
G1 X-20.45293 Y129.23092
G1 X-20.0 Y129.25638
G1 Y20.0
G1 X-69.2
G1 F300.0 Y17.6
G1 F800.0 X-190.59913
G1 X-190.22036 Y19.65501
G1 X-188.53074 Y26.16671
G1 X-186.3547 Y32.64091
G1 X-183.6908 Y39.06461
G1 X-180.53851 Y45.42303
G1 X-176.89866 Y51.69971
G1 X-172.77386 Y57.87673
G1 X-168.16872 Y63.93503
G1 X-163.09007 Y69.85475
G1 X-157.54703 Y75.61559
G1 X-151.55099 Y81.19715
G1 X-145.11556 Y86.57923
G1 X-138.25648 Y91.74207
G1 X-130.99144 Y96.66654
G1 X-123.33997 Y101.33438
G1 X-115.32326 Y105.72826
G1 X-106.96403 Y109.83194
G1 X-98.28634 Y113.63029
G1 X-89.31551 Y117.10941
G1 X-80.07789 Y120.25663
G1 X-70.60084 Y123.06058
G1 X-60.91252 Y125.51116
G1 X-51.04182 Y127.59961
G1 X-41.01822 Y129.31851
G1 X-30.87172 Y130.66175
G1 X-20.6327 Y131.6246
G1 X-17.6 Y131.79509
G1 Y17.6
G1 X-69.2
G1 F300.0 Y15.2
G1 F800.0 X-193.48191
G1 X-192.56503 Y20.17458
G1 X-190.83259 Y26.85126
G1 X-188.6033 Y33.4839
G1 X-185.87685 Y40.05842
G1 X-182.65397 Y46.55923
G1 X-178.93674 Y52.96937
G1 X-174.72898 Y59.27062
G1 X-170.03644 Y65.44389
G1 X-164.86699 Y71.46944
G1 X-159.23065 Y77.32725
G1 X-153.13958 Y82.99728
G1 X-146.60804 Y88.45974
G1 X-139.65229 Y93.69533
G1 X-132.29044 Y98.68543
G1 X-124.54233 Y103.41222
G1 X-116.4294 Y107.85885
G1 X-107.97451 Y112.00948
G1 X-99.20184 Y115.8494
G1 X-90.13676 Y119.36508
G1 X-80.80564 Y122.54416
G1 X-71.23581 Y125.37555
G1 X-61.45539 Y127.84943
G1 X-51.49321 Y129.95724
G1 X-41.37866 Y131.69173
G1 X-31.14166 Y133.04696
G1 X-20.81246 Y134.01829
G1 X-15.2 Y134.3338
G1 Y15.2
G1 X-69.2
G1 F300.0 Y12.8
G1 F800.0 X-196.28938
G1 X-196.17745 Y13.81583
G1 X-194.90969 Y20.69414
G1 X-193.13445 Y27.53581
G1 X-190.8519 Y34.32689
G1 X-188.06291 Y41.05223
G1 X-184.76943 Y47.69544
G1 X-180.97481 Y54.23902
G1 X-176.68409 Y60.66451
G1 X-171.90416 Y66.95275
G1 X-166.64391 Y73.08414
G1 X-160.91427 Y79.03892
G1 X-154.72817 Y84.7974
G1 X-148.10052 Y90.34024
G1 X-141.0481 Y95.6486
G1 X-133.58944 Y100.70432
G1 X-125.74469 Y105.49007
G1 X-117.53553 Y109.98943
G1 X-108.98498 Y114.18702
G1 X-100.11734 Y118.06852
G1 X-90.95801 Y121.62074
G1 X-81.53338 Y124.83168
G1 X-71.87078 Y127.69053
G1 X-61.99826 Y130.1877
G1 X-51.9446 Y132.31487
G1 X-41.7391 Y134.06495
G1 X-31.41159 Y135.43216
G1 X-20.99223 Y136.41197
G1 X-12.8 Y136.8725
G1 Y12.8
G1 X-69.2
G1 F300.0 Y10.4
G1 F800.0 X-198.96834
G1 X-198.55348 Y14.16522
G1 X-197.25435 Y21.21371
G1 X-195.4363 Y28.22037
G1 X-193.1005 Y35.16989
G1 X-190.24896 Y42.04604
G1 X-186.88489 Y48.83164
G1 X-183.01289 Y55.50867
G1 X-178.63921 Y62.0584
G1 X-173.77188 Y68.46161
G1 X-168.42083 Y74.69884
G1 X-162.59789 Y80.75058
G1 X-156.31676 Y86.59752
G1 X-149.593 Y92.22074
G1 X-142.44391 Y97.60186
G1 X-134.88844 Y102.72321
G1 X-126.94705 Y107.56791
G1 X-118.64166 Y112.12002
G1 X-109.99546 Y116.36457
G1 X-101.03284 Y120.28764
G1 X-91.77926 Y123.87641
G1 X-82.26113 Y127.11921
G1 X-72.50574 Y130.0055
G1 X-62.54113 Y132.52597
G1 X-52.39598 Y134.67249
G1 X-42.09955 Y136.43818
G1 X-31.68152 Y137.81737
G1 X-21.17199 Y138.80566
G1 X-10.60131 Y139.39989
G1 X-10.4 Y139.40366
G1 Y10.4
G1 X-69.2
G1 F300.0 Y8.0
G1 F800.0 X-201.6473
G1 X-200.92951 Y14.51462
G1 X-199.59901 Y21.73328
G1 X-197.73815 Y28.90492
G1 X-195.34909 Y36.01288
G1 X-192.43502 Y43.03985
G1 X-189.00035 Y49.96785
G1 X-185.05096 Y56.77832
G1 X-180.59432 Y63.45228
G1 X-175.6396 Y69.97047
G1 X-170.19775 Y76.31353
G1 X-164.2815 Y82.46224
G1 X-157.90535 Y88.39765
G1 X-151.08548 Y94.10125
G1 X-143.83972 Y99.55513
G1 X-136.18743 Y104.7421
G1 X-128.14941 Y109.64575
G1 X-119.74779 Y114.2506
G1 X-111.00594 Y118.54211
G1 X-101.94834 Y122.50675
G1 X-92.60051 Y126.13208
G1 X-82.98888 Y129.40673
G1 X-73.14071 Y132.32048
G1 X-63.084 Y134.86424
G1 X-52.84737 Y137.03012
G1 X-42.45999 Y138.8114
G1 X-31.95146 Y140.20257
G1 X-21.35176 Y141.19934
G1 X-10.69113 Y141.79863
G1 X-8.0 Y141.84897
G1 Y8.0
G1 X-69.2
G1 F300.0 Y5.6
G1 F800.0 X-204.19094
G1 X-204.12346 Y7.44061
G1 X-203.30553 Y14.86401
G1 X-201.94367 Y22.25285
G1 X-200.04001 Y29.58947
G1 X-197.59769 Y36.85587
G1 X-194.62107 Y44.03366
G1 X-191.11581 Y51.10405
G1 X-187.08904 Y58.04797
G1 X-182.54944 Y64.84617
G1 X-177.50732 Y71.47933
G1 X-171.97467 Y77.92823
G1 X-165.96512 Y84.17391
G1 X-159.49394 Y90.19777
G1 X-152.57796 Y95.98175
G1 X-145.23553 Y101.5084
G1 X-137.48643 Y106.76098
G1 X-129.35177 Y111.72359
G1 X-120.85393 Y116.38119
G1 X-112.01642 Y120.71965
G1 X-102.86384 Y124.72587
G1 X-93.42176 Y128.38775
G1 X-83.71662 Y131.69426
G1 X-73.77568 Y134.63545
G1 X-63.62687 Y137.20251
G1 X-53.29876 Y139.38775
G1 X-42.82043 Y141.18462
G1 X-32.22139 Y142.58777
G1 X-21.53153 Y143.59302
G1 X-10.78096 Y144.19737
G1 X-5.6 Y144.29428
G1 Y5.6
G1 X-69.2
G1 F300.0 Y3.2
G1 F800.0 X-206.68054
G1 X-206.51864 Y7.61623
G1 X-205.68156 Y15.21341
G1 X-204.28834 Y22.77241
G1 X-202.34186 Y30.27402
G1 X-199.84629 Y37.69887
G1 X-196.80713 Y45.02747
G1 X-193.23127 Y52.24025
G1 X-189.12711 Y59.31763
G1 X-184.50455 Y66.24006
G1 X-179.37504 Y72.98819
G1 X-173.75159 Y79.54293
G1 X-167.64874 Y85.88557
G1 X-161.08253 Y91.99789
G1 X-154.07044 Y97.86225
G1 X-146.63134 Y103.46166
G1 X-138.78543 Y108.77987
G1 X-130.55413 Y113.80144
G1 X-121.96006 Y118.51177
G1 X-113.02689 Y122.89719
G1 X-103.77934 Y126.94499
G1 X-94.24301 Y130.64342
G1 X-84.44437 Y133.98178
G1 X-74.41065 Y136.95043
G1 X-64.16974 Y139.54078
G1 X-53.75015 Y141.74537
G1 X-43.18087 Y143.55784
G1 X-32.49133 Y144.97298
G1 X-21.71129 Y145.98671
G1 X-10.87078 Y146.59611
G1 X-3.2 Y146.73959
G1 Y3.2
G1 X-69.2
G0 Z3.0
G0 Y69.2
G0 Z-3.0
G1 F300.0 Z-5.0
G1 F800.0 X-69.93431
G1 X-69.2 Y69.45018
G1 Y69.2
G1 F300.0 Y68.0
G1 F800.0 X-76.55674
G1 X-72.06926 Y69.74036
G1 X-68.0 Y71.12675
G1 Y68.0
G1 X-69.2
G1 F300.0 Y65.6
G1 F800.0 X-88.14184
G1 X-86.75448 Y66.28107
G1 X-79.97638 Y69.24795
G1 X-72.89051 Y71.99603
G1 X-65.6 Y74.47988
G1 Y65.6
G1 X-69.2
G1 F300.0 Y63.2
G1 F800.0 X-98.04181
G1 X-94.30674 Y65.24716
G1 X-87.76496 Y68.45862
G1 X-80.89187 Y71.46707
G1 X-73.71176 Y74.2517
G1 X-66.25072 Y76.79365
G1 X-63.2 Y77.69626
G1 Y63.2
G1 X-69.2
G1 F300.0 Y60.8
G1 F800.0 X-106.8334
G1 X-101.69748 Y63.93321
G1 X-95.41287 Y67.37774
G1 X-88.77543 Y70.63616
G1 X-81.80737 Y73.68618
G1 X-74.53301 Y76.50737
G1 X-66.97847 Y79.08118
G1 X-60.8 Y80.90918
G1 Y60.8
G1 X-69.2
G1 F300.0 Y58.4
G1 F800.0 X-114.70911
G1 X-114.52771 Y58.53654
G1 X-108.90848 Y62.34544
G1 X-102.89984 Y66.01105
G1 X-96.51901 Y69.50833
G1 X-89.78591 Y72.8137
G1 X-82.72287 Y75.9053
G1 X-75.35426 Y78.76304
G1 X-67.70622 Y81.3687
G1 X-59.8064 Y83.70599
G1 X-58.4 Y84.06173
G1 Y58.4
G1 X-69.2
G1 F300.0 Y56.0
G1 F800.0 X-121.82321
G1 X-121.23589 Y56.49119
G1 X-115.92352 Y60.48981
G1 X-110.20748 Y64.36432
G1 X-104.1022 Y68.08889
G1 X-97.62514 Y71.63891
G1 X-90.79639 Y74.99125
G1 X-83.63837 Y78.12442
G1 X-76.17551 Y81.01871
G1 X-68.43396 Y83.65623
G1 X-60.44137 Y86.02097
G1 X-56.0 Y87.14438
G1 Y56.0
G1 X-69.2
G1 F300.0 Y53.6
G1 F800.0 X-128.36164
G1 X-127.72213 Y54.1953
G1 X-122.72837 Y58.37169
G1 X-117.31933 Y62.44308
G1 X-111.50647 Y66.38321
G1 X-105.30456 Y70.16674
G1 X-98.73127 Y73.7695
G1 X-91.80687 Y77.16879
G1 X-84.55387 Y80.34353
G1 X-76.99676 Y83.27437
G1 X-69.16171 Y85.94375
G1 X-61.07633 Y88.33595
G1 X-53.6 Y90.22702
G1 Y53.6
G1 X-69.2
G1 F300.0 Y51.2
G1 F800.0 X-134.41156
G1 X-133.97636 Y51.6523
G1 X-129.31072 Y55.99543
G1 X-124.22085 Y60.25219
G1 X-118.71514 Y64.39634
G1 X-112.80547 Y68.4021
G1 X-106.50692 Y72.24458
G1 X-99.8374 Y75.90008
G1 X-92.81734 Y79.34633
G1 X-85.46937 Y82.56265
G1 X-77.81801 Y85.53004
G1 X-69.88945 Y88.23128
G1 X-61.7113 Y90.65092
G1 X-53.31234 Y92.77537
G1 X-51.2 Y93.2223
G1 Y51.2
G1 X-69.2
G1 F300.0 Y48.8
G1 F800.0 X-140.04475
G1 X-139.99011 Y48.86369
G1 X-135.65998 Y53.36396
G1 X-130.89931 Y57.79555
G1 X-125.71333 Y62.13269
G1 X-120.11095 Y66.34961
G1 X-114.10447 Y70.42099
G1 X-107.70928 Y74.32242
G1 X-100.94354 Y78.03066
G1 X-93.82782 Y81.52388
G1 X-86.38486 Y84.78177
G1 X-78.63926 Y87.78571
G1 X-70.6172 Y90.5188
G1 X-62.34627 Y92.9659
G1 X-53.85521 Y95.11364
G1 X-48.8 Y96.18323
G1 Y48.8
G1 X-69.2
G1 F300.0 Y46.4
G1 F800.0 X-145.26596
G1 X-141.76703 Y50.47839
G1 X-137.3436 Y55.07562
G1 X-132.4879 Y59.59567
G1 X-127.20581 Y64.0132
G1 X-121.50676 Y68.30287
G1 X-115.40347 Y72.43988
G1 X-108.91164 Y76.40026
G1 X-102.04967 Y80.16125
G1 X-94.8383 Y83.70142
G1 X-87.30036 Y87.00089
G1 X-79.46051 Y90.04138
G1 X-71.34494 Y92.80633
G1 X-62.98124 Y95.28087
G1 X-54.39808 Y97.45191
G1 X-46.4 Y99.14415
G1 Y46.4
G1 X-69.2
G1 F300.0 Y44.0
G1 F800.0 X-150.16082
G1 X-147.6238 Y47.33757
G1 X-143.54395 Y52.09308
G1 X-139.02722 Y56.78729
G1 X-134.07649 Y61.3958
G1 X-128.69829 Y65.8937
G1 X-122.90257 Y70.25614
G1 X-116.70246 Y74.45877
G1 X-110.114 Y78.47811
G1 X-103.1558 Y82.29183
G1 X-95.84878 Y85.87896
G1 X-88.21586 Y89.22
G1 X-80.28176 Y92.29705
G1 X-72.07269 Y95.09385
G1 X-63.6162 Y97.59585
G1 X-54.94095 Y99.79018
G1 X-46.07655 Y101.66572
G1 X-44.0 Y102.02182
G1 Y44.0
G1 X-69.2
G1 F300.0 Y41.6
G1 F800.0 X-154.78386
G1 X-153.22271 Y43.93786
G1 X-149.49152 Y48.84643
G1 X-145.32087 Y53.70778
G1 X-140.71084 Y58.49895
G1 X-135.66508 Y63.19592
G1 X-130.19077 Y67.7742
G1 X-124.29838 Y72.20941
G1 X-118.00146 Y76.47766
G1 X-111.31636 Y80.55595
G1 X-104.26194 Y84.42242
G1 X-96.85925 Y88.0565
G1 X-89.13136 Y91.43912
G1 X-81.10301 Y94.55272
G1 X-72.80044 Y97.38138
G1 X-64.25117 Y99.91082
G1 X-55.48382 Y102.12845
G1 X-46.52794 Y104.02335
G1 X-41.6 Y104.86841
G1 Y41.6
G1 X-69.2
G1 F300.0 Y39.2
G1 F800.0 X-159.17813
G1 X-158.55599 Y40.27284
G1 X-155.17783 Y45.33175
G1 X-151.35924 Y50.35529
G1 X-147.09779 Y55.32248
G1 X-142.39445 Y60.21062
G1 X-137.25367 Y64.99604
G1 X-131.68325 Y69.65471
G1 X-125.69419 Y74.16267
G1 X-119.30046 Y78.49654
G1 X-112.51873 Y82.63379
G1 X-105.36807 Y86.553
G1 X-97.86973 Y90.23405
G1 X-90.04686 Y93.65824
G1 X-81.92426 Y96.80839
G1 X-73.52818 Y99.6689
G1 X-64.88614 Y102.2258
G1 X-56.02669 Y104.46672
G1 X-46.97933 Y106.38097
G1 X-39.2 Y107.71501
G1 Y39.2
G1 X-69.2
G1 F300.0 Y36.8
G1 F800.0 X-163.34423
G1 X-160.59407 Y41.5425
G1 X-157.13294 Y46.72563
G1 X-153.22696 Y51.86415
G1 X-148.87471 Y56.93717
G1 X-144.07807 Y61.92228
G1 X-138.84226 Y66.79617
G1 X-133.17573 Y71.53521
G1 X-127.09 Y76.11594
G1 X-120.59946 Y80.51543
G1 X-113.72109 Y84.71164
G1 X-106.4742 Y88.68359
G1 X-98.88021 Y92.41159
G1 X-90.96236 Y95.87735
G1 X-82.74551 Y99.06406
G1 X-74.25593 Y101.95643
G1 X-65.5211 Y104.54077
G1 X-56.56956 Y106.80499
G1 X-47.43071 Y108.7386
G1 X-38.1347 Y110.33273
G1 X-36.8 Y110.50942
G1 Y36.8
G1 X-69.2
G1 F300.0 Y34.4
G1 F800.0 X-167.25208
G1 X-165.73028 Y37.4696
G1 X-162.63214 Y42.81215
G1 X-159.08806 Y48.11952
G1 X-155.09468 Y53.37301
G1 X-150.65163 Y58.55187
G1 X-145.76169 Y63.63394
G1 X-140.43085 Y68.59629
G1 X-134.66821 Y73.41571
G1 X-128.48581 Y78.0692
G1 X-121.89846 Y82.53432
G1 X-114.92345 Y86.78948
G1 X-107.58033 Y90.81417
G1 X-99.89069 Y94.58913
G1 X-91.87786 Y98.09647
G1 X-83.56676 Y101.31973
G1 X-74.98367 Y104.24395
G1 X-66.15607 Y106.85575
G1 X-57.11243 Y109.14326
G1 X-47.8821 Y111.09623
G1 X-38.49514 Y112.70595
G1 X-34.4 Y113.24808
G1 Y34.4
G1 X-69.2
G1 F300.0 Y32.0
G1 F800.0 X-171.03136
G1 X-170.57447 Y33.10174
G1 X-167.84574 Y38.60581
G1 X-164.67022 Y44.0818
G1 X-161.04317 Y49.51341
G1 X-156.9624 Y54.88187
G1 X-152.42855 Y60.16657
G1 X-147.44531 Y65.34561
G1 X-142.01944 Y70.39641
G1 X-136.16069 Y75.29622
G1 X-129.88162 Y80.02247
G1 X-123.19745 Y84.55321
G1 X-116.12581 Y88.86732
G1 X-108.68647 Y92.94476
G1 X-100.90116 Y96.76668
G1 X-92.79335 Y100.31559
G1 X-84.38801 Y103.57539
G1 X-75.71142 Y106.53148
G1 X-66.79104 Y109.17072
G1 X-57.6553 Y111.48153
G1 X-48.33349 Y113.45385
G1 X-38.85558 Y115.07917
G1 X-32.0 Y115.98675
G1 Y32.0
G1 X-69.2
G1 F300.0 Y29.6
G1 F800.0 X-174.62482
G1 X-172.76052 Y34.09555
G1 X-169.9612 Y39.74201
G1 X-166.70829 Y45.35145
G1 X-162.99829 Y50.9073
G1 X-158.83012 Y56.39073
G1 X-154.20547 Y61.78126
G1 X-149.12893 Y67.05727
G1 X-143.60803 Y72.19654
G1 X-137.65317 Y77.17672
G1 X-131.27743 Y81.97574
G1 X-124.49645 Y86.5721
G1 X-117.32817 Y90.94517
G1 X-109.7926 Y95.07534
G1 X-101.91164 Y98.94422
G1 X-93.70885 Y102.5347
G1 X-85.20926 Y105.83106
G1 X-76.43916 Y108.81901
G1 X-67.42601 Y111.4857
G1 X-58.19817 Y113.8198
G1 X-48.78488 Y115.81148
G1 X-39.21602 Y117.45239
G1 X-29.6 Y118.72541
G1 Y29.6
G1 X-69.2
G1 F300.0 Y27.2
G1 F800.0 X-178.05569
G1 X-177.3603 Y29.26893
G1 X-174.94658 Y35.08936
G1 X-172.07666 Y40.87822
G1 X-168.74637 Y46.6211
G1 X-164.9534 Y52.30118
G1 X-160.69784 Y57.89959
G1 X-155.98239 Y63.39596
G1 X-150.81255 Y68.76893
G1 X-145.19662 Y73.99666
G1 X-139.14564 Y79.05722
G1 X-132.67324 Y83.929
G1 X-125.79545 Y88.59099
G1 X-118.53053 Y93.02301
G1 X-110.89873 Y97.20592
G1 X-102.92212 Y101.12176
G1 X-94.62435 Y104.75382
G1 X-86.03051 Y108.08673
G1 X-77.16691 Y111.10653
G1 X-68.06097 Y113.80068
G1 X-58.74104 Y116.15808
G1 X-49.23627 Y118.16911
G1 X-39.57646 Y119.82562
G1 X-29.79199 Y121.12093
G1 X-27.2 Y121.36468
G1 Y27.2
G1 X-69.2
G1 F300.0 Y24.8
G1 F800.0 X-181.39429
G1 X-179.6089 Y30.11193
G1 X-177.13263 Y36.08317
G1 X-174.19212 Y42.01442
G1 X-170.78444 Y47.89076
G1 X-166.90852 Y53.69507
G1 X-162.56556 Y59.40845
G1 X-157.75931 Y65.01066
G1 X-152.49617 Y70.4806
G1 X-146.78521 Y75.79678
G1 X-140.63812 Y80.93773
G1 X-134.06905 Y85.88227
G1 X-127.09445 Y90.60988
G1 X-119.73289 Y95.10085
G1 X-112.00486 Y99.33651
G1 X-103.9326 Y103.29931
G1 X-95.53985 Y106.97294
G1 X-86.85176 Y110.3424
G1 X-77.89466 Y113.39406
G1 X-68.69594 Y116.11565
G1 X-59.28391 Y118.49635
G1 X-49.68766 Y120.52673
G1 X-39.9369 Y122.19884
G1 X-30.06192 Y123.50614
G1 X-24.8 Y124.00096
G1 Y24.8
G1 X-69.2
G1 F300.0 Y22.4
G1 F800.0 X-184.54915
G1 X-183.92704 Y24.79761
G1 X-181.8575 Y30.95492
G1 X-179.31869 Y37.07699
G1 X-176.30758 Y43.15062
G1 X-172.82251 Y49.16041
G1 X-168.86363 Y55.08896
G1 X-164.43328 Y60.91731
G1 X-159.53623 Y66.62535
G1 X-154.17979 Y72.19226
G1 X-148.37381 Y77.59691
G1 X-142.1306 Y82.81823
G1 X-135.46486 Y87.83553
G1 X-128.39345 Y92.62876
G1 X-120.93525 Y97.17869
G1 X-113.111 Y101.46709
G1 X-104.94307 Y105.47685
G1 X-96.45535 Y109.19205
G1 X-87.67301 Y112.59807
G1 X-78.6224 Y115.68158
G1 X-69.33091 Y118.43063
G1 X-59.82678 Y120.83462
G1 X-50.13904 Y122.88436
G1 X-40.29734 Y124.57206
G1 X-30.33185 Y125.89134
G1 X-22.4 Y126.63724
G1 Y22.4
G1 X-69.2
G1 F300.0 Y20.0
G1 F800.0 X-187.65137
G1 X-186.22889 Y25.48216
G1 X-184.1061 Y31.79791
G1 X-181.50474 Y38.0708
G1 X-178.42305 Y44.28683
G1 X-174.86059 Y50.43006
G1 X-170.81875 Y56.48285
G1 X-166.301 Y62.42617
G1 X-161.31315 Y68.24005
G1 X-155.86341 Y73.90392
G1 X-149.9624 Y79.39703
G1 X-143.62308 Y84.69873
G1 X-136.86067 Y89.7888
G1 X-129.69244 Y94.64765
G1 X-122.13761 Y99.25654
G1 X-114.21713 Y103.59768
G1 X-105.95355 Y107.65439
G1 X-97.37085 Y111.41117
G1 X-88.49426 Y114.85374
G1 X-79.35015 Y117.96911
G1 X-69.96588 Y120.7456
G1 X-60.36965 Y123.17289
G1 X-50.59043 Y125.24199
G1 X-40.65778 Y126.94528
G1 X-30.60179 Y128.27655
G1 X-20.45293 Y129.23092
G1 X-20.0 Y129.25638
G1 Y20.0
G1 X-69.2
G1 F300.0 Y17.6
G1 F800.0 X-190.59913
G1 X-190.22036 Y19.65501
G1 X-188.53074 Y26.16671
G1 X-186.3547 Y32.64091
G1 X-183.6908 Y39.06461
G1 X-180.53851 Y45.42303
G1 X-176.89866 Y51.69971
G1 X-172.77386 Y57.87673
G1 X-168.16872 Y63.93503
G1 X-163.09007 Y69.85475
G1 X-157.54703 Y75.61559
G1 X-151.55099 Y81.19715
G1 X-145.11556 Y86.57923
G1 X-138.25648 Y91.74207
G1 X-130.99144 Y96.66654
G1 X-123.33997 Y101.33438
G1 X-115.32326 Y105.72826
G1 X-106.96403 Y109.83194
G1 X-98.28634 Y113.63029
G1 X-89.31551 Y117.10941
G1 X-80.07789 Y120.25663
G1 X-70.60084 Y123.06058
G1 X-60.91252 Y125.51116
G1 X-51.04182 Y127.59961
G1 X-41.01822 Y129.31851
G1 X-30.87172 Y130.66175
G1 X-20.6327 Y131.6246
G1 X-17.6 Y131.79509
G1 Y17.6
G1 X-69.2
G1 F300.0 Y15.2
G1 F800.0 X-193.48191
G1 X-192.56503 Y20.17458
G1 X-190.83259 Y26.85126
G1 X-188.6033 Y33.4839
G1 X-185.87685 Y40.05842
G1 X-182.65397 Y46.55923
G1 X-178.93674 Y52.96937
G1 X-174.72898 Y59.27062
G1 X-170.03644 Y65.44389
G1 X-164.86699 Y71.46944
G1 X-159.23065 Y77.32725
G1 X-153.13958 Y82.99728
G1 X-146.60804 Y88.45974
G1 X-139.65229 Y93.69533
G1 X-132.29044 Y98.68543
G1 X-124.54233 Y103.41222
G1 X-116.4294 Y107.85885
G1 X-107.97451 Y112.00948
G1 X-99.20184 Y115.8494
G1 X-90.13676 Y119.36508
G1 X-80.80564 Y122.54416
G1 X-71.23581 Y125.37555
G1 X-61.45539 Y127.84943
G1 X-51.49321 Y129.95724
G1 X-41.37866 Y131.69173
G1 X-31.14166 Y133.04696
G1 X-20.81246 Y134.01829
G1 X-15.2 Y134.3338
G1 Y15.2
G1 X-69.2
G1 F300.0 Y12.8
G1 F800.0 X-196.28938
G1 X-196.17745 Y13.81583
G1 X-194.90969 Y20.69414
G1 X-193.13445 Y27.53581
G1 X-190.8519 Y34.32689
G1 X-188.06291 Y41.05223
G1 X-184.76943 Y47.69544
G1 X-180.97481 Y54.23902
G1 X-176.68409 Y60.66451
G1 X-171.90416 Y66.95275
G1 X-166.64391 Y73.08414
G1 X-160.91427 Y79.03892
G1 X-154.72817 Y84.7974
G1 X-148.10052 Y90.34024
G1 X-141.0481 Y95.6486
G1 X-133.58944 Y100.70432
G1 X-125.74469 Y105.49007
G1 X-117.53553 Y109.98943
G1 X-108.98498 Y114.18702
G1 X-100.11734 Y118.06852
G1 X-90.95801 Y121.62074
G1 X-81.53338 Y124.83168
G1 X-71.87078 Y127.69053
G1 X-61.99826 Y130.1877
G1 X-51.9446 Y132.31487
G1 X-41.7391 Y134.06495
G1 X-31.41159 Y135.43216
G1 X-20.99223 Y136.41197
G1 X-12.8 Y136.8725
G1 Y12.8
G1 X-69.2
G1 F300.0 Y10.4
G1 F800.0 X-198.96834
G1 X-198.55348 Y14.16522
G1 X-197.25435 Y21.21371
G1 X-195.4363 Y28.22037
G1 X-193.1005 Y35.16989
G1 X-190.24896 Y42.04604
G1 X-186.88489 Y48.83164
G1 X-183.01289 Y55.50867
G1 X-178.63921 Y62.0584
G1 X-173.77188 Y68.46161
G1 X-168.42083 Y74.69884
G1 X-162.59789 Y80.75058
G1 X-156.31676 Y86.59752
G1 X-149.593 Y92.22074
G1 X-142.44391 Y97.60186
G1 X-134.88844 Y102.72321
G1 X-126.94705 Y107.56791
G1 X-118.64166 Y112.12002
G1 X-109.99546 Y116.36457
G1 X-101.03284 Y120.28764
G1 X-91.77926 Y123.87641
G1 X-82.26113 Y127.11921
G1 X-72.50574 Y130.0055
G1 X-62.54113 Y132.52597
G1 X-52.39598 Y134.67249
G1 X-42.09955 Y136.43818
G1 X-31.68152 Y137.81737
G1 X-21.17199 Y138.80566
G1 X-10.60131 Y139.39989
G1 X-10.4 Y139.40366
G1 Y10.4
G1 X-69.2
G1 F300.0 Y8.0
G1 F800.0 X-201.6473
G1 X-200.92951 Y14.51462
G1 X-199.59901 Y21.73328
G1 X-197.73815 Y28.90492
G1 X-195.34909 Y36.01288
G1 X-192.43502 Y43.03985
G1 X-189.00035 Y49.96785
G1 X-185.05096 Y56.77832
G1 X-180.59432 Y63.45228
G1 X-175.6396 Y69.97047
G1 X-170.19775 Y76.31353
G1 X-164.2815 Y82.46224
G1 X-157.90535 Y88.39765
G1 X-151.08548 Y94.10125
G1 X-143.83972 Y99.55513
G1 X-136.18743 Y104.7421
G1 X-128.14941 Y109.64575
G1 X-119.74779 Y114.2506
G1 X-111.00594 Y118.54211
G1 X-101.94834 Y122.50675
G1 X-92.60051 Y126.13208
G1 X-82.98888 Y129.40673
G1 X-73.14071 Y132.32048
G1 X-63.084 Y134.86424
G1 X-52.84737 Y137.03012
G1 X-42.45999 Y138.8114
G1 X-31.95146 Y140.20257
G1 X-21.35176 Y141.19934
G1 X-10.69113 Y141.79863
G1 X-8.0 Y141.84897
G1 Y8.0
G1 X-69.2
G1 F300.0 Y5.6
G1 F800.0 X-204.19094
G1 X-204.12346 Y7.44061
G1 X-203.30553 Y14.86401
G1 X-201.94367 Y22.25285
G1 X-200.04001 Y29.58947
G1 X-197.59769 Y36.85587
G1 X-194.62107 Y44.03366
G1 X-191.11581 Y51.10405
G1 X-187.08904 Y58.04797
G1 X-182.54944 Y64.84617
G1 X-177.50732 Y71.47933
G1 X-171.97467 Y77.92823
G1 X-165.96512 Y84.17391
G1 X-159.49394 Y90.19777
G1 X-152.57796 Y95.98175
G1 X-145.23553 Y101.5084
G1 X-137.48643 Y106.76098
G1 X-129.35177 Y111.72359
G1 X-120.85393 Y116.38119
G1 X-112.01642 Y120.71965
G1 X-102.86384 Y124.72587
G1 X-93.42176 Y128.38775
G1 X-83.71662 Y131.69426
G1 X-73.77568 Y134.63545
G1 X-63.62687 Y137.20251
G1 X-53.29876 Y139.38775
G1 X-42.82043 Y141.18462
G1 X-32.22139 Y142.58777
G1 X-21.53153 Y143.59302
G1 X-10.78096 Y144.19737
G1 X-5.6 Y144.29428
G1 Y5.6
G1 X-69.2
G1 F300.0 Y3.2
G1 F800.0 X-206.68054
G1 X-206.51864 Y7.61623
G1 X-205.68156 Y15.21341
G1 X-204.28834 Y22.77241
G1 X-202.34186 Y30.27402
G1 X-199.84629 Y37.69887
G1 X-196.80713 Y45.02747
G1 X-193.23127 Y52.24025
G1 X-189.12711 Y59.31763
G1 X-184.50455 Y66.24006
G1 X-179.37504 Y72.98819
G1 X-173.75159 Y79.54293
G1 X-167.64874 Y85.88557
G1 X-161.08253 Y91.99789
G1 X-154.07044 Y97.86225
G1 X-146.63134 Y103.46166
G1 X-138.78543 Y108.77987
G1 X-130.55413 Y113.80144
G1 X-121.96006 Y118.51177
G1 X-113.02689 Y122.89719
G1 X-103.77934 Y126.94499
G1 X-94.24301 Y130.64342
G1 X-84.44437 Y133.98178
G1 X-74.41065 Y136.95043
G1 X-64.16974 Y139.54078
G1 X-53.75015 Y141.74537
G1 X-43.18087 Y143.55784
G1 X-32.49133 Y144.97298
G1 X-21.71129 Y145.98671
G1 X-10.87078 Y146.59611
G1 X-3.2 Y146.73959
G1 Y3.2
G1 X-69.2
G0 Z3.0
G0 Y69.2
G0 Z-4.0
G1 F300.0 Z-6.0
G1 F800.0 X-69.93431
G1 X-69.2 Y69.45018
G1 Y69.2
G1 F300.0 Y68.0
G1 F800.0 X-76.55674
G1 X-72.06926 Y69.74036
G1 X-68.0 Y71.12675
G1 Y68.0
G1 X-69.2
G1 F300.0 Y65.6
G1 F800.0 X-88.14184
G1 X-86.75448 Y66.28107
G1 X-79.97638 Y69.24795
G1 X-72.89051 Y71.99603
G1 X-65.6 Y74.47988
G1 Y65.6
G1 X-69.2
G1 F300.0 Y63.2
G1 F800.0 X-98.04181
G1 X-94.30674 Y65.24716
G1 X-87.76496 Y68.45862
G1 X-80.89187 Y71.46707
G1 X-73.71176 Y74.2517
G1 X-66.25072 Y76.79365
G1 X-63.2 Y77.69626
G1 Y63.2
G1 X-69.2
G1 F300.0 Y60.8
G1 F800.0 X-106.8334
G1 X-101.69748 Y63.93321
G1 X-95.41287 Y67.37774
G1 X-88.77543 Y70.63616
G1 X-81.80737 Y73.68618
G1 X-74.53301 Y76.50737
G1 X-66.97847 Y79.08118
G1 X-60.8 Y80.90918
G1 Y60.8
G1 X-69.2
G1 F300.0 Y58.4
G1 F800.0 X-114.70911
G1 X-114.52771 Y58.53654
G1 X-108.90848 Y62.34544
G1 X-102.89984 Y66.01105
G1 X-96.51901 Y69.50833
G1 X-89.78591 Y72.8137
G1 X-82.72287 Y75.9053
G1 X-75.35426 Y78.76304
G1 X-67.70622 Y81.3687
G1 X-59.8064 Y83.70599
G1 X-58.4 Y84.06173
G1 Y58.4
G1 X-69.2
G1 F300.0 Y56.0
G1 F800.0 X-121.82321
G1 X-121.23589 Y56.49119
G1 X-115.92352 Y60.48981
G1 X-110.20748 Y64.36432
G1 X-104.1022 Y68.08889
G1 X-97.62514 Y71.63891
G1 X-90.79639 Y74.99125
G1 X-83.63837 Y78.12442
G1 X-76.17551 Y81.01871
G1 X-68.43396 Y83.65623
G1 X-60.44137 Y86.02097
G1 X-56.0 Y87.14438
G1 Y56.0
G1 X-69.2
G1 F300.0 Y53.6
G1 F800.0 X-128.36164
G1 X-127.72213 Y54.1953
G1 X-122.72837 Y58.37169
G1 X-117.31933 Y62.44308
G1 X-111.50647 Y66.38321
G1 X-105.30456 Y70.16674
G1 X-98.73127 Y73.7695
G1 X-91.80687 Y77.16879
G1 X-84.55387 Y80.34353
G1 X-76.99676 Y83.27437
G1 X-69.16171 Y85.94375
G1 X-61.07633 Y88.33595
G1 X-53.6 Y90.22702
G1 Y53.6
G1 X-69.2
G1 F300.0 Y51.2
G1 F800.0 X-134.41156
G1 X-133.97636 Y51.6523
G1 X-129.31072 Y55.99543
G1 X-124.22085 Y60.25219
G1 X-118.71514 Y64.39634
G1 X-112.80547 Y68.4021
G1 X-106.50692 Y72.24458
G1 X-99.8374 Y75.90008
G1 X-92.81734 Y79.34633
G1 X-85.46937 Y82.56265
G1 X-77.81801 Y85.53004
G1 X-69.88945 Y88.23128
G1 X-61.7113 Y90.65092
G1 X-53.31234 Y92.77537
G1 X-51.2 Y93.2223
G1 Y51.2
G1 X-69.2
G1 F300.0 Y48.8
G1 F800.0 X-140.04475
G1 X-139.99011 Y48.86369
G1 X-135.65998 Y53.36396
G1 X-130.89931 Y57.79555
G1 X-125.71333 Y62.13269
G1 X-120.11095 Y66.34961
G1 X-114.10447 Y70.42099
G1 X-107.70928 Y74.32242
G1 X-100.94354 Y78.03066
G1 X-93.82782 Y81.52388
G1 X-86.38486 Y84.78177
G1 X-78.63926 Y87.78571
G1 X-70.6172 Y90.5188
G1 X-62.34627 Y92.9659
G1 X-53.85521 Y95.11364
G1 X-48.8 Y96.18323
G1 Y48.8
G1 X-69.2
G1 F300.0 Y46.4
G1 F800.0 X-145.26596
G1 X-141.76703 Y50.47839
G1 X-137.3436 Y55.07562
G1 X-132.4879 Y59.59567
G1 X-127.20581 Y64.0132
G1 X-121.50676 Y68.30287
G1 X-115.40347 Y72.43988
G1 X-108.91164 Y76.40026
G1 X-102.04967 Y80.16125
G1 X-94.8383 Y83.70142
G1 X-87.30036 Y87.00089
G1 X-79.46051 Y90.04138
G1 X-71.34494 Y92.80633
G1 X-62.98124 Y95.28087
G1 X-54.39808 Y97.45191
G1 X-46.4 Y99.14415
G1 Y46.4
G1 X-69.2
G1 F300.0 Y44.0
G1 F800.0 X-150.16082
G1 X-147.6238 Y47.33757
G1 X-143.54395 Y52.09308
G1 X-139.02722 Y56.78729
G1 X-134.07649 Y61.3958
G1 X-128.69829 Y65.8937
G1 X-122.90257 Y70.25614
G1 X-116.70246 Y74.45877
G1 X-110.114 Y78.47811
G1 X-103.1558 Y82.29183
G1 X-95.84878 Y85.87896
G1 X-88.21586 Y89.22
G1 X-80.28176 Y92.29705
G1 X-72.07269 Y95.09385
G1 X-63.6162 Y97.59585
G1 X-54.94095 Y99.79018
G1 X-46.07655 Y101.66572
G1 X-44.0 Y102.02182
G1 Y44.0
G1 X-69.2
G1 F300.0 Y41.6
G1 F800.0 X-154.78386
G1 X-153.22271 Y43.93786
G1 X-149.49152 Y48.84643
G1 X-145.32087 Y53.70778
G1 X-140.71084 Y58.49895
G1 X-135.66508 Y63.19592
G1 X-130.19077 Y67.7742
G1 X-124.29838 Y72.20941
G1 X-118.00146 Y76.47766
G1 X-111.31636 Y80.55595
G1 X-104.26194 Y84.42242
G1 X-96.85925 Y88.0565
G1 X-89.13136 Y91.43912
G1 X-81.10301 Y94.55272
G1 X-72.80044 Y97.38138
G1 X-64.25117 Y99.91082
G1 X-55.48382 Y102.12845
G1 X-46.52794 Y104.02335
G1 X-41.6 Y104.86841
G1 Y41.6
G1 X-69.2
G1 F300.0 Y39.2
G1 F800.0 X-159.17813
G1 X-158.55599 Y40.27284
G1 X-155.17783 Y45.33175
G1 X-151.35924 Y50.35529
G1 X-147.09779 Y55.32248
G1 X-142.39445 Y60.21062
G1 X-137.25367 Y64.99604
G1 X-131.68325 Y69.65471
G1 X-125.69419 Y74.16267
G1 X-119.30046 Y78.49654
G1 X-112.51873 Y82.63379
G1 X-105.36807 Y86.553
G1 X-97.86973 Y90.23405
G1 X-90.04686 Y93.65824
G1 X-81.92426 Y96.80839
G1 X-73.52818 Y99.6689
G1 X-64.88614 Y102.2258
G1 X-56.02669 Y104.46672
G1 X-46.97933 Y106.38097
G1 X-39.2 Y107.71501
G1 Y39.2
G1 X-69.2
G1 F300.0 Y36.8
G1 F800.0 X-163.34423
G1 X-160.59407 Y41.5425
G1 X-157.13294 Y46.72563
G1 X-153.22696 Y51.86415
G1 X-148.87471 Y56.93717
G1 X-144.07807 Y61.92228
G1 X-138.84226 Y66.79617
G1 X-133.17573 Y71.53521
G1 X-127.09 Y76.11594
G1 X-120.59946 Y80.51543
G1 X-113.72109 Y84.71164
G1 X-106.4742 Y88.68359
G1 X-98.88021 Y92.41159
G1 X-90.96236 Y95.87735
G1 X-82.74551 Y99.06406
G1 X-74.25593 Y101.95643
G1 X-65.5211 Y104.54077
G1 X-56.56956 Y106.80499
G1 X-47.43071 Y108.7386
G1 X-38.1347 Y110.33273
G1 X-36.8 Y110.50942
G1 Y36.8
G1 X-69.2
G1 F300.0 Y34.4
G1 F800.0 X-167.25208
G1 X-165.73028 Y37.4696
G1 X-162.63214 Y42.81215
G1 X-159.08806 Y48.11952
G1 X-155.09468 Y53.37301
G1 X-150.65163 Y58.55187
G1 X-145.76169 Y63.63394
G1 X-140.43085 Y68.59629
G1 X-134.66821 Y73.41571
G1 X-128.48581 Y78.0692
G1 X-121.89846 Y82.53432
G1 X-114.92345 Y86.78948
G1 X-107.58033 Y90.81417
G1 X-99.89069 Y94.58913
G1 X-91.87786 Y98.09647
G1 X-83.56676 Y101.31973
G1 X-74.98367 Y104.24395
G1 X-66.15607 Y106.85575
G1 X-57.11243 Y109.14326
G1 X-47.8821 Y111.09623
G1 X-38.49514 Y112.70595
G1 X-34.4 Y113.24808
G1 Y34.4
G1 X-69.2
G1 F300.0 Y32.0
G1 F800.0 X-171.03136
G1 X-170.57447 Y33.10174
G1 X-167.84574 Y38.60581
G1 X-164.67022 Y44.0818
G1 X-161.04317 Y49.51341
G1 X-156.9624 Y54.88187
G1 X-152.42855 Y60.16657
G1 X-147.44531 Y65.34561
G1 X-142.01944 Y70.39641
G1 X-136.16069 Y75.29622
G1 X-129.88162 Y80.02247
G1 X-123.19745 Y84.55321
G1 X-116.12581 Y88.86732
G1 X-108.68647 Y92.94476
G1 X-100.90116 Y96.76668
G1 X-92.79335 Y100.31559
G1 X-84.38801 Y103.57539
G1 X-75.71142 Y106.53148
G1 X-66.79104 Y109.17072
G1 X-57.6553 Y111.48153
G1 X-48.33349 Y113.45385
G1 X-38.85558 Y115.07917
G1 X-32.0 Y115.98675
G1 Y32.0
G1 X-69.2
G1 F300.0 Y29.6
G1 F800.0 X-174.62482
G1 X-172.76052 Y34.09555
G1 X-169.9612 Y39.74201
G1 X-166.70829 Y45.35145
G1 X-162.99829 Y50.9073
G1 X-158.83012 Y56.39073
G1 X-154.20547 Y61.78126
G1 X-149.12893 Y67.05727
G1 X-143.60803 Y72.19654
G1 X-137.65317 Y77.17672
G1 X-131.27743 Y81.97574
G1 X-124.49645 Y86.5721
G1 X-117.32817 Y90.94517
G1 X-109.7926 Y95.07534
G1 X-101.91164 Y98.94422
G1 X-93.70885 Y102.5347
G1 X-85.20926 Y105.83106
G1 X-76.43916 Y108.81901
G1 X-67.42601 Y111.4857
G1 X-58.19817 Y113.8198
G1 X-48.78488 Y115.81148
G1 X-39.21602 Y117.45239
G1 X-29.6 Y118.72541
G1 Y29.6
G1 X-69.2
G1 F300.0 Y27.2
G1 F800.0 X-178.05569
G1 X-177.3603 Y29.26893
G1 X-174.94658 Y35.08936
G1 X-172.07666 Y40.87822
G1 X-168.74637 Y46.6211
G1 X-164.9534 Y52.30118
G1 X-160.69784 Y57.89959
G1 X-155.98239 Y63.39596
G1 X-150.81255 Y68.76893
G1 X-145.19662 Y73.99666
G1 X-139.14564 Y79.05722
G1 X-132.67324 Y83.929
G1 X-125.79545 Y88.59099
G1 X-118.53053 Y93.02301
G1 X-110.89873 Y97.20592
G1 X-102.92212 Y101.12176
G1 X-94.62435 Y104.75382
G1 X-86.03051 Y108.08673
G1 X-77.16691 Y111.10653
G1 X-68.06097 Y113.80068
G1 X-58.74104 Y116.15808
G1 X-49.23627 Y118.16911
G1 X-39.57646 Y119.82562
G1 X-29.79199 Y121.12093
G1 X-27.2 Y121.36468
G1 Y27.2
G1 X-69.2
G1 F300.0 Y24.8
G1 F800.0 X-181.39429
G1 X-179.6089 Y30.11193
G1 X-177.13263 Y36.08317
G1 X-174.19212 Y42.01442
G1 X-170.78444 Y47.89076
G1 X-166.90852 Y53.69507
G1 X-162.56556 Y59.40845
G1 X-157.75931 Y65.01066
G1 X-152.49617 Y70.4806
G1 X-146.78521 Y75.79678
G1 X-140.63812 Y80.93773
G1 X-134.06905 Y85.88227
G1 X-127.09445 Y90.60988
G1 X-119.73289 Y95.10085
G1 X-112.00486 Y99.33651
G1 X-103.9326 Y103.29931
G1 X-95.53985 Y106.97294
G1 X-86.85176 Y110.3424
G1 X-77.89466 Y113.39406
G1 X-68.69594 Y116.11565
G1 X-59.28391 Y118.49635
G1 X-49.68766 Y120.52673
G1 X-39.9369 Y122.19884
G1 X-30.06192 Y123.50614
G1 X-24.8 Y124.00096
G1 Y24.8
G1 X-69.2
G1 F300.0 Y22.4
G1 F800.0 X-184.54915
G1 X-183.92704 Y24.79761
G1 X-181.8575 Y30.95492
G1 X-179.31869 Y37.07699
G1 X-176.30758 Y43.15062
G1 X-172.82251 Y49.16041
G1 X-168.86363 Y55.08896
G1 X-164.43328 Y60.91731
G1 X-159.53623 Y66.62535
G1 X-154.17979 Y72.19226
G1 X-148.37381 Y77.59691
G1 X-142.1306 Y82.81823
G1 X-135.46486 Y87.83553
G1 X-128.39345 Y92.62876
G1 X-120.93525 Y97.17869
G1 X-113.111 Y101.46709
G1 X-104.94307 Y105.47685
G1 X-96.45535 Y109.19205
G1 X-87.67301 Y112.59807
G1 X-78.6224 Y115.68158
G1 X-69.33091 Y118.43063
G1 X-59.82678 Y120.83462
G1 X-50.13904 Y122.88436
G1 X-40.29734 Y124.57206
G1 X-30.33185 Y125.89134
G1 X-22.4 Y126.63724
G1 Y22.4
G1 X-69.2
G1 F300.0 Y20.0
G1 F800.0 X-187.65137
G1 X-186.22889 Y25.48216
G1 X-184.1061 Y31.79791
G1 X-181.50474 Y38.0708
G1 X-178.42305 Y44.28683
G1 X-174.86059 Y50.43006
G1 X-170.81875 Y56.48285
G1 X-166.301 Y62.42617
G1 X-161.31315 Y68.24005
G1 X-155.86341 Y73.90392
G1 X-149.9624 Y79.39703
G1 X-143.62308 Y84.69873
G1 X-136.86067 Y89.7888
G1 X-129.69244 Y94.64765
G1 X-122.13761 Y99.25654
G1 X-114.21713 Y103.59768
G1 X-105.95355 Y107.65439
G1 X-97.37085 Y111.41117
G1 X-88.49426 Y114.85374
G1 X-79.35015 Y117.96911
G1 X-69.96588 Y120.7456
G1 X-60.36965 Y123.17289
G1 X-50.59043 Y125.24199
G1 X-40.65778 Y126.94528
G1 X-30.60179 Y128.27655
G1 X-20.45293 Y129.23092
G1 X-20.0 Y129.25638
G1 Y20.0
G1 X-69.2
G1 F300.0 Y17.6
G1 F800.0 X-190.59913
G1 X-190.22036 Y19.65501
G1 X-188.53074 Y26.16671
G1 X-186.3547 Y32.64091
G1 X-183.6908 Y39.06461
G1 X-180.53851 Y45.42303
G1 X-176.89866 Y51.69971
G1 X-172.77386 Y57.87673
G1 X-168.16872 Y63.93503
G1 X-163.09007 Y69.85475
G1 X-157.54703 Y75.61559
G1 X-151.55099 Y81.19715
G1 X-145.11556 Y86.57923
G1 X-138.25648 Y91.74207
G1 X-130.99144 Y96.66654
G1 X-123.33997 Y101.33438
G1 X-115.32326 Y105.72826
G1 X-106.96403 Y109.83194
G1 X-98.28634 Y113.63029
G1 X-89.31551 Y117.10941
G1 X-80.07789 Y120.25663
G1 X-70.60084 Y123.06058
G1 X-60.91252 Y125.51116
G1 X-51.04182 Y127.59961
G1 X-41.01822 Y129.31851
G1 X-30.87172 Y130.66175
G1 X-20.6327 Y131.6246
G1 X-17.6 Y131.79509
G1 Y17.6
G1 X-69.2
G1 F300.0 Y15.2
G1 F800.0 X-193.48191
G1 X-192.56503 Y20.17458
G1 X-190.83259 Y26.85126
G1 X-188.6033 Y33.4839
G1 X-185.87685 Y40.05842
G1 X-182.65397 Y46.55923
G1 X-178.93674 Y52.96937
G1 X-174.72898 Y59.27062
G1 X-170.03644 Y65.44389
G1 X-164.86699 Y71.46944
G1 X-159.23065 Y77.32725
G1 X-153.13958 Y82.99728
G1 X-146.60804 Y88.45974
G1 X-139.65229 Y93.69533
G1 X-132.29044 Y98.68543
G1 X-124.54233 Y103.41222
G1 X-116.4294 Y107.85885
G1 X-107.97451 Y112.00948
G1 X-99.20184 Y115.8494
G1 X-90.13676 Y119.36508
G1 X-80.80564 Y122.54416
G1 X-71.23581 Y125.37555
G1 X-61.45539 Y127.84943
G1 X-51.49321 Y129.95724
G1 X-41.37866 Y131.69173
G1 X-31.14166 Y133.04696
G1 X-20.81246 Y134.01829
G1 X-15.2 Y134.3338
G1 Y15.2
G1 X-69.2
G1 F300.0 Y12.8
G1 F800.0 X-196.28938
G1 X-196.17745 Y13.81583
G1 X-194.90969 Y20.69414
G1 X-193.13445 Y27.53581
G1 X-190.8519 Y34.32689
G1 X-188.06291 Y41.05223
G1 X-184.76943 Y47.69544
G1 X-180.97481 Y54.23902
G1 X-176.68409 Y60.66451
G1 X-171.90416 Y66.95275
G1 X-166.64391 Y73.08414
G1 X-160.91427 Y79.03892
G1 X-154.72817 Y84.7974
G1 X-148.10052 Y90.34024
G1 X-141.0481 Y95.6486
G1 X-133.58944 Y100.70432
G1 X-125.74469 Y105.49007
G1 X-117.53553 Y109.98943
G1 X-108.98498 Y114.18702
G1 X-100.11734 Y118.06852
G1 X-90.95801 Y121.62074
G1 X-81.53338 Y124.83168
G1 X-71.87078 Y127.69053
G1 X-61.99826 Y130.1877
G1 X-51.9446 Y132.31487
G1 X-41.7391 Y134.06495
G1 X-31.41159 Y135.43216
G1 X-20.99223 Y136.41197
G1 X-12.8 Y136.8725
G1 Y12.8
G1 X-69.2
G1 F300.0 Y10.4
G1 F800.0 X-198.96834
G1 X-198.55348 Y14.16522
G1 X-197.25435 Y21.21371
G1 X-195.4363 Y28.22037
G1 X-193.1005 Y35.16989
G1 X-190.24896 Y42.04604
G1 X-186.88489 Y48.83164
G1 X-183.01289 Y55.50867
G1 X-178.63921 Y62.0584
G1 X-173.77188 Y68.46161
G1 X-168.42083 Y74.69884
G1 X-162.59789 Y80.75058
G1 X-156.31676 Y86.59752
G1 X-149.593 Y92.22074
G1 X-142.44391 Y97.60186
G1 X-134.88844 Y102.72321
G1 X-126.94705 Y107.56791
G1 X-118.64166 Y112.12002
G1 X-109.99546 Y116.36457
G1 X-101.03284 Y120.28764
G1 X-91.77926 Y123.87641
G1 X-82.26113 Y127.11921
G1 X-72.50574 Y130.0055
G1 X-62.54113 Y132.52597
G1 X-52.39598 Y134.67249
G1 X-42.09955 Y136.43818
G1 X-31.68152 Y137.81737
G1 X-21.17199 Y138.80566
G1 X-10.60131 Y139.39989
G1 X-10.4 Y139.40366
G1 Y10.4
G1 X-69.2
G1 F300.0 Y8.0
G1 F800.0 X-201.6473
G1 X-200.92951 Y14.51462
G1 X-199.59901 Y21.73328
G1 X-197.73815 Y28.90492
G1 X-195.34909 Y36.01288
G1 X-192.43502 Y43.03985
G1 X-189.00035 Y49.96785
G1 X-185.05096 Y56.77832
G1 X-180.59432 Y63.45228
G1 X-175.6396 Y69.97047
G1 X-170.19775 Y76.31353
G1 X-164.2815 Y82.46224
G1 X-157.90535 Y88.39765
G1 X-151.08548 Y94.10125
G1 X-143.83972 Y99.55513
G1 X-136.18743 Y104.7421
G1 X-128.14941 Y109.64575
G1 X-119.74779 Y114.2506
G1 X-111.00594 Y118.54211
G1 X-101.94834 Y122.50675
G1 X-92.60051 Y126.13208
G1 X-82.98888 Y129.40673
G1 X-73.14071 Y132.32048
G1 X-63.084 Y134.86424
G1 X-52.84737 Y137.03012
G1 X-42.45999 Y138.8114
G1 X-31.95146 Y140.20257
G1 X-21.35176 Y141.19934
G1 X-10.69113 Y141.79863
G1 X-8.0 Y141.84897
G1 Y8.0
G1 X-69.2
G1 F300.0 Y5.6
G1 F800.0 X-204.19094
G1 X-204.12346 Y7.44061
G1 X-203.30553 Y14.86401
G1 X-201.94367 Y22.25285
G1 X-200.04001 Y29.58947
G1 X-197.59769 Y36.85587
G1 X-194.62107 Y44.03366
G1 X-191.11581 Y51.10405
G1 X-187.08904 Y58.04797
G1 X-182.54944 Y64.84617
G1 X-177.50732 Y71.47933
G1 X-171.97467 Y77.92823
G1 X-165.96512 Y84.17391
G1 X-159.49394 Y90.19777
G1 X-152.57796 Y95.98175
G1 X-145.23553 Y101.5084
G1 X-137.48643 Y106.76098
G1 X-129.35177 Y111.72359
G1 X-120.85393 Y116.38119
G1 X-112.01642 Y120.71965
G1 X-102.86384 Y124.72587
G1 X-93.42176 Y128.38775
G1 X-83.71662 Y131.69426
G1 X-73.77568 Y134.63545
G1 X-63.62687 Y137.20251
G1 X-53.29876 Y139.38775
G1 X-42.82043 Y141.18462
G1 X-32.22139 Y142.58777
G1 X-21.53153 Y143.59302
G1 X-10.78096 Y144.19737
G1 X-5.6 Y144.29428
G1 Y5.6
G1 X-69.2
G1 F300.0 Y3.2
G1 F800.0 X-206.68054
G1 X-206.51864 Y7.61623
G1 X-205.68156 Y15.21341
G1 X-204.28834 Y22.77241
G1 X-202.34186 Y30.27402
G1 X-199.84629 Y37.69887
G1 X-196.80713 Y45.02747
G1 X-193.23127 Y52.24025
G1 X-189.12711 Y59.31763
G1 X-184.50455 Y66.24006
G1 X-179.37504 Y72.98819
G1 X-173.75159 Y79.54293
G1 X-167.64874 Y85.88557
G1 X-161.08253 Y91.99789
G1 X-154.07044 Y97.86225
G1 X-146.63134 Y103.46166
G1 X-138.78543 Y108.77987
G1 X-130.55413 Y113.80144
G1 X-121.96006 Y118.51177
G1 X-113.02689 Y122.89719
G1 X-103.77934 Y126.94499
G1 X-94.24301 Y130.64342
G1 X-84.44437 Y133.98178
G1 X-74.41065 Y136.95043
G1 X-64.16974 Y139.54078
G1 X-53.75015 Y141.74537
G1 X-43.18087 Y143.55784
G1 X-32.49133 Y144.97298
G1 X-21.71129 Y145.98671
G1 X-10.87078 Y146.59611
G1 X-3.2 Y146.73959
G1 Y3.2
G1 X-69.2
G0 Z3.0
G0 Y69.2
G0 Z-5.0
G1 F300.0 Z-7.0
G1 F800.0 X-69.93431
G1 X-69.2 Y69.45018
G1 Y69.2
G1 F300.0 Y68.0
G1 F800.0 X-76.55674
G1 X-72.06926 Y69.74036
G1 X-68.0 Y71.12675
G1 Y68.0
G1 X-69.2
G1 F300.0 Y65.6
G1 F800.0 X-88.14184
G1 X-86.75448 Y66.28107
G1 X-79.97638 Y69.24795
G1 X-72.89051 Y71.99603
G1 X-65.6 Y74.47988
G1 Y65.6
G1 X-69.2
G1 F300.0 Y63.2
G1 F800.0 X-98.04181
G1 X-94.30674 Y65.24716
G1 X-87.76496 Y68.45862
G1 X-80.89187 Y71.46707
G1 X-73.71176 Y74.2517
G1 X-66.25072 Y76.79365
G1 X-63.2 Y77.69626
G1 Y63.2
G1 X-69.2
G1 F300.0 Y60.8
G1 F800.0 X-106.8334
G1 X-101.69748 Y63.93321
G1 X-95.41287 Y67.37774
G1 X-88.77543 Y70.63616
G1 X-81.80737 Y73.68618
G1 X-74.53301 Y76.50737
G1 X-66.97847 Y79.08118
G1 X-60.8 Y80.90918
G1 Y60.8
G1 X-69.2
G1 F300.0 Y58.4
G1 F800.0 X-114.70911
G1 X-114.52771 Y58.53654
G1 X-108.90848 Y62.34544
G1 X-102.89984 Y66.01105
G1 X-96.51901 Y69.50833
G1 X-89.78591 Y72.8137
G1 X-82.72287 Y75.9053
G1 X-75.35426 Y78.76304
G1 X-67.70622 Y81.3687
G1 X-59.8064 Y83.70599
G1 X-58.4 Y84.06173
G1 Y58.4
G1 X-69.2
G1 F300.0 Y56.0
G1 F800.0 X-121.82321
G1 X-121.23589 Y56.49119
G1 X-115.92352 Y60.48981
G1 X-110.20748 Y64.36432
G1 X-104.1022 Y68.08889
G1 X-97.62514 Y71.63891
G1 X-90.79639 Y74.99125
G1 X-83.63837 Y78.12442
G1 X-76.17551 Y81.01871
G1 X-68.43396 Y83.65623
G1 X-60.44137 Y86.02097
G1 X-56.0 Y87.14438
G1 Y56.0
G1 X-69.2
G1 F300.0 Y53.6
G1 F800.0 X-128.36164
G1 X-127.72213 Y54.1953
G1 X-122.72837 Y58.37169
G1 X-117.31933 Y62.44308
G1 X-111.50647 Y66.38321
G1 X-105.30456 Y70.16674
G1 X-98.73127 Y73.7695
G1 X-91.80687 Y77.16879
G1 X-84.55387 Y80.34353
G1 X-76.99676 Y83.27437
G1 X-69.16171 Y85.94375
G1 X-61.07633 Y88.33595
G1 X-53.6 Y90.22702
G1 Y53.6
G1 X-69.2
G1 F300.0 Y51.2
G1 F800.0 X-134.41156
G1 X-133.97636 Y51.6523
G1 X-129.31072 Y55.99543
G1 X-124.22085 Y60.25219
G1 X-118.71514 Y64.39634
G1 X-112.80547 Y68.4021
G1 X-106.50692 Y72.24458
G1 X-99.8374 Y75.90008
G1 X-92.81734 Y79.34633
G1 X-85.46937 Y82.56265
G1 X-77.81801 Y85.53004
G1 X-69.88945 Y88.23128
G1 X-61.7113 Y90.65092
G1 X-53.31234 Y92.77537
G1 X-51.2 Y93.2223
G1 Y51.2
G1 X-69.2
G1 F300.0 Y48.8
G1 F800.0 X-140.04475
G1 X-139.99011 Y48.86369
G1 X-135.65998 Y53.36396
G1 X-130.89931 Y57.79555
G1 X-125.71333 Y62.13269
G1 X-120.11095 Y66.34961
G1 X-114.10447 Y70.42099
G1 X-107.70928 Y74.32242
G1 X-100.94354 Y78.03066
G1 X-93.82782 Y81.52388
G1 X-86.38486 Y84.78177
G1 X-78.63926 Y87.78571
G1 X-70.6172 Y90.5188
G1 X-62.34627 Y92.9659
G1 X-53.85521 Y95.11364
G1 X-48.8 Y96.18323
G1 Y48.8
G1 X-69.2
G1 F300.0 Y46.4
G1 F800.0 X-145.26596
G1 X-141.76703 Y50.47839
G1 X-137.3436 Y55.07562
G1 X-132.4879 Y59.59567
G1 X-127.20581 Y64.0132
G1 X-121.50676 Y68.30287
G1 X-115.40347 Y72.43988
G1 X-108.91164 Y76.40026
G1 X-102.04967 Y80.16125
G1 X-94.8383 Y83.70142
G1 X-87.30036 Y87.00089
G1 X-79.46051 Y90.04138
G1 X-71.34494 Y92.80633
G1 X-62.98124 Y95.28087
G1 X-54.39808 Y97.45191
G1 X-46.4 Y99.14415
G1 Y46.4
G1 X-69.2
G1 F300.0 Y44.0
G1 F800.0 X-150.16082
G1 X-147.6238 Y47.33757
G1 X-143.54395 Y52.09308
G1 X-139.02722 Y56.78729
G1 X-134.07649 Y61.3958
G1 X-128.69829 Y65.8937
G1 X-122.90257 Y70.25614
G1 X-116.70246 Y74.45877
G1 X-110.114 Y78.47811
G1 X-103.1558 Y82.29183
G1 X-95.84878 Y85.87896
G1 X-88.21586 Y89.22
G1 X-80.28176 Y92.29705
G1 X-72.07269 Y95.09385
G1 X-63.6162 Y97.59585
G1 X-54.94095 Y99.79018
G1 X-46.07655 Y101.66572
G1 X-44.0 Y102.02182
G1 Y44.0
G1 X-69.2
G1 F300.0 Y41.6
G1 F800.0 X-154.78386
G1 X-153.22271 Y43.93786
G1 X-149.49152 Y48.84643
G1 X-145.32087 Y53.70778
G1 X-140.71084 Y58.49895
G1 X-135.66508 Y63.19592
G1 X-130.19077 Y67.7742
G1 X-124.29838 Y72.20941
G1 X-118.00146 Y76.47766
G1 X-111.31636 Y80.55595
G1 X-104.26194 Y84.42242
G1 X-96.85925 Y88.0565
G1 X-89.13136 Y91.43912
G1 X-81.10301 Y94.55272
G1 X-72.80044 Y97.38138
G1 X-64.25117 Y99.91082
G1 X-55.48382 Y102.12845
G1 X-46.52794 Y104.02335
G1 X-41.6 Y104.86841
G1 Y41.6
G1 X-69.2
G1 F300.0 Y39.2
G1 F800.0 X-159.17813
G1 X-158.55599 Y40.27284
G1 X-155.17783 Y45.33175
G1 X-151.35924 Y50.35529
G1 X-147.09779 Y55.32248
G1 X-142.39445 Y60.21062
G1 X-137.25367 Y64.99604
G1 X-131.68325 Y69.65471
G1 X-125.69419 Y74.16267
G1 X-119.30046 Y78.49654
G1 X-112.51873 Y82.63379
G1 X-105.36807 Y86.553
G1 X-97.86973 Y90.23405
G1 X-90.04686 Y93.65824
G1 X-81.92426 Y96.80839
G1 X-73.52818 Y99.6689
G1 X-64.88614 Y102.2258
G1 X-56.02669 Y104.46672
G1 X-46.97933 Y106.38097
G1 X-39.2 Y107.71501
G1 Y39.2
G1 X-69.2
G1 F300.0 Y36.8
G1 F800.0 X-163.34423
G1 X-160.59407 Y41.5425
G1 X-157.13294 Y46.72563
G1 X-153.22696 Y51.86415
G1 X-148.87471 Y56.93717
G1 X-144.07807 Y61.92228
G1 X-138.84226 Y66.79617
G1 X-133.17573 Y71.53521
G1 X-127.09 Y76.11594
G1 X-120.59946 Y80.51543
G1 X-113.72109 Y84.71164
G1 X-106.4742 Y88.68359
G1 X-98.88021 Y92.41159
G1 X-90.96236 Y95.87735
G1 X-82.74551 Y99.06406
G1 X-74.25593 Y101.95643
G1 X-65.5211 Y104.54077
G1 X-56.56956 Y106.80499
G1 X-47.43071 Y108.7386
G1 X-38.1347 Y110.33273
G1 X-36.8 Y110.50942
G1 Y36.8
G1 X-69.2
G1 F300.0 Y34.4
G1 F800.0 X-167.25208
G1 X-165.73028 Y37.4696
G1 X-162.63214 Y42.81215
G1 X-159.08806 Y48.11952
G1 X-155.09468 Y53.37301
G1 X-150.65163 Y58.55187
G1 X-145.76169 Y63.63394
G1 X-140.43085 Y68.59629
G1 X-134.66821 Y73.41571
G1 X-128.48581 Y78.0692
G1 X-121.89846 Y82.53432
G1 X-114.92345 Y86.78948
G1 X-107.58033 Y90.81417
G1 X-99.89069 Y94.58913
G1 X-91.87786 Y98.09647
G1 X-83.56676 Y101.31973
G1 X-74.98367 Y104.24395
G1 X-66.15607 Y106.85575
G1 X-57.11243 Y109.14326
G1 X-47.8821 Y111.09623
G1 X-38.49514 Y112.70595
G1 X-34.4 Y113.24808
G1 Y34.4
G1 X-69.2
G1 F300.0 Y32.0
G1 F800.0 X-171.03136
G1 X-170.57447 Y33.10174
G1 X-167.84574 Y38.60581
G1 X-164.67022 Y44.0818
G1 X-161.04317 Y49.51341
G1 X-156.9624 Y54.88187
G1 X-152.42855 Y60.16657
G1 X-147.44531 Y65.34561
G1 X-142.01944 Y70.39641
G1 X-136.16069 Y75.29622
G1 X-129.88162 Y80.02247
G1 X-123.19745 Y84.55321
G1 X-116.12581 Y88.86732
G1 X-108.68647 Y92.94476
G1 X-100.90116 Y96.76668
G1 X-92.79335 Y100.31559
G1 X-84.38801 Y103.57539
G1 X-75.71142 Y106.53148
G1 X-66.79104 Y109.17072
G1 X-57.6553 Y111.48153
G1 X-48.33349 Y113.45385
G1 X-38.85558 Y115.07917
G1 X-32.0 Y115.98675
G1 Y32.0
G1 X-69.2
G1 F300.0 Y29.6
G1 F800.0 X-174.62482
G1 X-172.76052 Y34.09555
G1 X-169.9612 Y39.74201
G1 X-166.70829 Y45.35145
G1 X-162.99829 Y50.9073
G1 X-158.83012 Y56.39073
G1 X-154.20547 Y61.78126
G1 X-149.12893 Y67.05727
G1 X-143.60803 Y72.19654
G1 X-137.65317 Y77.17672
G1 X-131.27743 Y81.97574
G1 X-124.49645 Y86.5721
G1 X-117.32817 Y90.94517
G1 X-109.7926 Y95.07534
G1 X-101.91164 Y98.94422
G1 X-93.70885 Y102.5347
G1 X-85.20926 Y105.83106
G1 X-76.43916 Y108.81901
G1 X-67.42601 Y111.4857
G1 X-58.19817 Y113.8198
G1 X-48.78488 Y115.81148
G1 X-39.21602 Y117.45239
G1 X-29.6 Y118.72541
G1 Y29.6
G1 X-69.2
G1 F300.0 Y27.2
G1 F800.0 X-178.05569
G1 X-177.3603 Y29.26893
G1 X-174.94658 Y35.08936
G1 X-172.07666 Y40.87822
G1 X-168.74637 Y46.6211
G1 X-164.9534 Y52.30118
G1 X-160.69784 Y57.89959
G1 X-155.98239 Y63.39596
G1 X-150.81255 Y68.76893
G1 X-145.19662 Y73.99666
G1 X-139.14564 Y79.05722
G1 X-132.67324 Y83.929
G1 X-125.79545 Y88.59099
G1 X-118.53053 Y93.02301
G1 X-110.89873 Y97.20592
G1 X-102.92212 Y101.12176
G1 X-94.62435 Y104.75382
G1 X-86.03051 Y108.08673
G1 X-77.16691 Y111.10653
G1 X-68.06097 Y113.80068
G1 X-58.74104 Y116.15808
G1 X-49.23627 Y118.16911
G1 X-39.57646 Y119.82562
G1 X-29.79199 Y121.12093
G1 X-27.2 Y121.36468
G1 Y27.2
G1 X-69.2
G1 F300.0 Y24.8
G1 F800.0 X-181.39429
G1 X-179.6089 Y30.11193
G1 X-177.13263 Y36.08317
G1 X-174.19212 Y42.01442
G1 X-170.78444 Y47.89076
G1 X-166.90852 Y53.69507
G1 X-162.56556 Y59.40845
G1 X-157.75931 Y65.01066
G1 X-152.49617 Y70.4806
G1 X-146.78521 Y75.79678
G1 X-140.63812 Y80.93773
G1 X-134.06905 Y85.88227
G1 X-127.09445 Y90.60988
G1 X-119.73289 Y95.10085
G1 X-112.00486 Y99.33651
G1 X-103.9326 Y103.29931
G1 X-95.53985 Y106.97294
G1 X-86.85176 Y110.3424
G1 X-77.89466 Y113.39406
G1 X-68.69594 Y116.11565
G1 X-59.28391 Y118.49635
G1 X-49.68766 Y120.52673
G1 X-39.9369 Y122.19884
G1 X-30.06192 Y123.50614
G1 X-24.8 Y124.00096
G1 Y24.8
G1 X-69.2
G1 F300.0 Y22.4
G1 F800.0 X-184.54915
G1 X-183.92704 Y24.79761
G1 X-181.8575 Y30.95492
G1 X-179.31869 Y37.07699
G1 X-176.30758 Y43.15062
G1 X-172.82251 Y49.16041
G1 X-168.86363 Y55.08896
G1 X-164.43328 Y60.91731
G1 X-159.53623 Y66.62535
G1 X-154.17979 Y72.19226
G1 X-148.37381 Y77.59691
G1 X-142.1306 Y82.81823
G1 X-135.46486 Y87.83553
G1 X-128.39345 Y92.62876
G1 X-120.93525 Y97.17869
G1 X-113.111 Y101.46709
G1 X-104.94307 Y105.47685
G1 X-96.45535 Y109.19205
G1 X-87.67301 Y112.59807
G1 X-78.6224 Y115.68158
G1 X-69.33091 Y118.43063
G1 X-59.82678 Y120.83462
G1 X-50.13904 Y122.88436
G1 X-40.29734 Y124.57206
G1 X-30.33185 Y125.89134
G1 X-22.4 Y126.63724
G1 Y22.4
G1 X-69.2
G1 F300.0 Y20.0
G1 F800.0 X-187.65137
G1 X-186.22889 Y25.48216
G1 X-184.1061 Y31.79791
G1 X-181.50474 Y38.0708
G1 X-178.42305 Y44.28683
G1 X-174.86059 Y50.43006
G1 X-170.81875 Y56.48285
G1 X-166.301 Y62.42617
G1 X-161.31315 Y68.24005
G1 X-155.86341 Y73.90392
G1 X-149.9624 Y79.39703
G1 X-143.62308 Y84.69873
G1 X-136.86067 Y89.7888
G1 X-129.69244 Y94.64765
G1 X-122.13761 Y99.25654
G1 X-114.21713 Y103.59768
G1 X-105.95355 Y107.65439
G1 X-97.37085 Y111.41117
G1 X-88.49426 Y114.85374
G1 X-79.35015 Y117.96911
G1 X-69.96588 Y120.7456
G1 X-60.36965 Y123.17289
G1 X-50.59043 Y125.24199
G1 X-40.65778 Y126.94528
G1 X-30.60179 Y128.27655
G1 X-20.45293 Y129.23092
G1 X-20.0 Y129.25638
G1 Y20.0
G1 X-69.2
G1 F300.0 Y17.6
G1 F800.0 X-190.59913
G1 X-190.22036 Y19.65501
G1 X-188.53074 Y26.16671
G1 X-186.3547 Y32.64091
G1 X-183.6908 Y39.06461
G1 X-180.53851 Y45.42303
G1 X-176.89866 Y51.69971
G1 X-172.77386 Y57.87673
G1 X-168.16872 Y63.93503
G1 X-163.09007 Y69.85475
G1 X-157.54703 Y75.61559
G1 X-151.55099 Y81.19715
G1 X-145.11556 Y86.57923
G1 X-138.25648 Y91.74207
G1 X-130.99144 Y96.66654
G1 X-123.33997 Y101.33438
G1 X-115.32326 Y105.72826
G1 X-106.96403 Y109.83194
G1 X-98.28634 Y113.63029
G1 X-89.31551 Y117.10941
G1 X-80.07789 Y120.25663
G1 X-70.60084 Y123.06058
G1 X-60.91252 Y125.51116
G1 X-51.04182 Y127.59961
G1 X-41.01822 Y129.31851
G1 X-30.87172 Y130.66175
G1 X-20.6327 Y131.6246
G1 X-17.6 Y131.79509
G1 Y17.6
G1 X-69.2
G1 F300.0 Y15.2
G1 F800.0 X-193.48191
G1 X-192.56503 Y20.17458
G1 X-190.83259 Y26.85126
G1 X-188.6033 Y33.4839
G1 X-185.87685 Y40.05842
G1 X-182.65397 Y46.55923
G1 X-178.93674 Y52.96937
G1 X-174.72898 Y59.27062
G1 X-170.03644 Y65.44389
G1 X-164.86699 Y71.46944
G1 X-159.23065 Y77.32725
G1 X-153.13958 Y82.99728
G1 X-146.60804 Y88.45974
G1 X-139.65229 Y93.69533
G1 X-132.29044 Y98.68543
G1 X-124.54233 Y103.41222
G1 X-116.4294 Y107.85885
G1 X-107.97451 Y112.00948
G1 X-99.20184 Y115.8494
G1 X-90.13676 Y119.36508
G1 X-80.80564 Y122.54416
G1 X-71.23581 Y125.37555
G1 X-61.45539 Y127.84943
G1 X-51.49321 Y129.95724
G1 X-41.37866 Y131.69173
G1 X-31.14166 Y133.04696
G1 X-20.81246 Y134.01829
G1 X-15.2 Y134.3338
G1 Y15.2
G1 X-69.2
G1 F300.0 Y12.8
G1 F800.0 X-196.28938
G1 X-196.17745 Y13.81583
G1 X-194.90969 Y20.69414
G1 X-193.13445 Y27.53581
G1 X-190.8519 Y34.32689
G1 X-188.06291 Y41.05223
G1 X-184.76943 Y47.69544
G1 X-180.97481 Y54.23902
G1 X-176.68409 Y60.66451
G1 X-171.90416 Y66.95275
G1 X-166.64391 Y73.08414
G1 X-160.91427 Y79.03892
G1 X-154.72817 Y84.7974
G1 X-148.10052 Y90.34024
