( Made using CamBam - http://www.cambam.co.uk )
( Tafel-Hof-links-unten 12/31/2017 9:32:54 AM )
( T1 : 1.0 )
( T2 : 2.0 )
( T3 : 3.0 )
( T15 : 1.5 )
G21 G90 G64 G40
G0 Z3.0
( T3 : 3.0 )
T3 M6
( TascheTurm3 )
G17
M3 S1000
G0 X-269.62037 Y-95.81956
G0 Z1.0
G1 F300.0 Z-3.0
G3 F800.0 X-269.62691 Y-95.19088 I-1.46988 J0.2991
G1 X-270.54142 Y-91.13044
G3 X-272.02007 Y-89.9601 I-1.46334 J-0.32958
G1 X-279.18987 Y-90.03326
G3 X-280.67456 Y-91.53318 I0.01531 J-1.49992
G1 Y-95.55705
G3 X-280.42858 Y-96.38011 I1.5 J0.0
G3 X-280.67456 Y-97.20191 I1.25402 J-0.82306
G1 X-280.68466 Y-109.19744
G3 X-279.17604 Y-110.69868 I1.5 J-0.00126
G1 X-266.94803 Y-110.62842
G3 X-265.51635 Y-108.70945 I-0.00862 J1.49998
G1 X-269.02809 Y-96.63786
G3 X-269.62037 Y-95.81956 I-1.44029 J-0.41899
G0 Z3.0
G0 X-269.35933 Y-110.85574
G0 Z1.0
G1 F300.0 Z-3.0
G1 F800.0 X-279.13919 Y-111.02553
G3 X-280.61312 Y-112.53462 I0.02604 J-1.49977
G1 X-280.5246 Y-126.7873
G3 X-279.02462 Y-128.27798 I1.49997 J0.00932
G1 X-261.54075
G3 X-260.11773 Y-126.30364 I0.0 J1.5
G1 X-264.94239 Y-111.82965
G3 X-266.39145 Y-110.80422 I-1.42302 J-0.47434
G1 X-269.35933 Y-110.85574
G0 Z3.0
G0 X-268.58166 Y-128.93506
G0 Z1.0
G1 F300.0 Z-3.0
G2 F800.0 X-278.69272 Y-129.33818 I-69.25981 J1610.16148
G3 X-280.13755 Y-130.81833 I0.05505 J-1.49899
G3 X-279.61598 Y-147.07831 I182.33753 J-2.28951
G3 X-278.01837 Y-148.45992 I1.49559 J0.11492
G2 X-277.6172 Y-148.48273 I0.1097 J-1.6093
G3 X-275.28593 Y-148.65767 I1.49648 J4.32148
G3 X-274.64854 Y-148.3744 I-0.2738 J1.4748
G3 X-274.24227 Y-147.9166 I-0.97377 J1.27335
G3 X-272.68793 Y-149.06382 I2.49374 J1.75213
G3 X-272.00569 Y-149.12065 I0.46234 J1.42697
G2 X-270.19496 Y-148.98353 I1.8619 J-12.56353
G2 X-269.48568 Y-149.23904 I-0.7729 J-3.2578
G3 X-269.4032 Y-149.2767 I0.66401 J1.34502
G3 X-267.24259 Y-149.66229 I1.93636 J4.60397
G3 X-267.19834 Y-149.65965 I-0.06735 J1.49849
G3 X-263.36691 Y-149.09183 I-1.98482 J26.60328
G3 X-263.27556 Y-149.06838 I-0.32703 J1.46392
G2 X-260.68929 Y-148.48019 I6.26799 J-21.58011
G3 X-259.93825 Y-148.12134 I-0.24575 J1.47973
G3 X-258.84513 Y-148.31551 I0.79026 J1.27495
G2 X-255.57272 Y-148.47196 I1.33121 J-6.45753
G3 X-253.63812 Y-146.89336 I0.44163 J1.43351
G3 X-254.06731 Y-145.01445 I-7.5313 J-0.73188
G3 X-259.06949 Y-129.83177 I-1868.03598 J-607.03874
G3 X-259.07126 Y-129.82651 I-1.42275 J-0.47517
G3 X-260.62302 Y-128.57301 I-1.47989 J-0.24478
G2 X-268.58166 Y-128.93506 I-77.21845 J1609.79944
G0 Z3.0
G0 X-281.19049 Y-130.05129
G0 Z1.0
G1 F300.0 Z-3.0
G3 F800.0 X-282.63584 Y-128.68436 I-1.49416 J-0.13227
G3 X-297.69432 Y-128.64388 I-8.20695 J-252.08723
G3 X-299.08455 Y-129.69354 I0.04075 J-1.49945
G3 X-303.00799 Y-147.44255 I99.79707 J-31.36841
G1 X-303.29153 Y-149.35304
G3 X-302.61774 Y-150.83577 I1.48375 J-0.22021
G3 X-299.0565 Y-150.72468 I1.69971 J2.6494
G3 X-298.65461 Y-150.28228 I-0.88708 J1.20958
G2 X-297.56776 Y-148.45735 I3335.14761 J-1985.05747
G3 X-296.15642 Y-149.5103 I1.43188 J0.44691
G2 X-291.67854 Y-149.63115 I-2.3084 J-168.55839
G3 X-291.56837 Y-149.63154 I0.06039 J1.49878
G3 X-286.61134 Y-149.04943 I-0.99084 J29.83476
G3 X-282.1094 Y-149.0444 I2.24051 J9.3627
G3 X-280.96188 Y-147.56716 I-0.35236 J1.45803
G1 X-281.18477 Y-130.16435
G3 X-281.19049 Y-130.05129 I-1.49988 J-0.01921
G0 Z3.0
G0 X-279.83338 Y-150.46438
G0 Z1.0
G1 F300.0 Z-3.0
G3 F800.0 X-278.04823 Y-150.86032 I1.71299 J3.50099
G3 X-277.70253 Y-150.95026 I1.92751 J6.69907
G1 X-280.49312
G3 X-279.83338 Y-150.46438 I-1.96863 J3.36389
G0 Z3.0
G0 X-274.56071 Y-150.95026
G0 Z1.0
G1 F300.0 Z-3.0
G3 F800.0 X-274.41926 Y-150.90988 I-0.99903 J3.76739
G3 X-274.3462 Y-150.95026 I2.67073 J4.74541
G1 X-274.56071
G0 Z3.0
G0 X-260.87533
G0 Z1.0
G1 F300.0 Z-3.0
G2 F800.0 X-260.29648 Y-150.84539 I3.86776 J-19.69823
G3 X-259.71574 Y-150.70242 I-0.63857 J3.84493
G3 X-258.36105 Y-150.66373 I0.56776 J3.85603
G2 X-256.27862 Y-150.76329 I0.84713 J-4.1093
G3 X-254.26905 Y-150.83952 I1.14753 J3.72484
G3 X-254.14927 Y-150.95026 I5.24425 J5.55189
G1 X-260.87533
G1 F300.0 X-261.10654 Y-149.77275
G2 F800.0 X-260.49308 Y-149.6616 I4.09897 J-20.87575
G3 X-259.823 Y-149.45818 I-0.44196 J2.66115
G3 X-258.60333 Y-149.48844 I0.67502 J2.61178
G2 X-255.92531 Y-149.61648 I1.08941 J-5.28459
G3 X-253.91721 Y-149.4475 I0.79423 J2.57803
G3 X-253.67652 Y-149.73713 I2.19182 J1.57668
G3 X-251.52686 Y-151.21859 I4.65172 J4.4495
G3 X-251.2049 Y-151.33103 I1.04947 J2.48769
G3 X-248.09994 Y-151.31886 I1.53105 J5.47199
G3 X-247.9613 Y-151.27481 I-0.74788 J2.59435
G3 X-245.99852 Y-150.58266 I-76.29054 J219.47083
G2 X-244.79689 Y-150.38766 I1.53163 J-5.63843
G3 X-244.33233 Y-150.70575 I18.88454 J27.08242
G1 X-243.72512 Y-152.15026
G1 X-299.1377
G3 X-298.34825 Y-151.69041 I-1.78034 J3.9639
G3 X-297.6255 Y-150.8948 I-1.59532 J2.17531
G2 X-297.34422 Y-150.42228 I3334.1185 J-1984.44495
G3 X-296.17282 Y-150.70779 I1.20834 J2.41184
G2 X-291.72676 Y-150.82778 I-2.292 J-167.3609
G3 X-291.52862 Y-150.82848 I0.1086 J2.69541
G3 X-286.62706 Y-150.27362 I-1.03059 J31.0317
G3 X-281.82808 Y-150.20849 I2.25624 J10.5869
G3 X-280.06791 Y-148.82999 I-0.63368 J2.62212
G3 X-277.93692 Y-149.65474 I1.94753 J1.8666
G2 X-277.88997 Y-149.6542 I0.02825 J-0.41447
G3 X-275.06732 Y-149.83515 I1.76926 J5.49295
G3 X-274.29162 Y-149.56382 I-0.49241 J2.65228
G3 X-273.05707 Y-150.20311 I2.54309 J3.39935
G3 X-271.83013 Y-150.30531 I0.83148 J2.56626
G2 X-270.34526 Y-150.18279 I1.68634 J-11.37887
G2 X-270.01583 Y-150.3129 I-0.62259 J-2.05854
G3 X-269.8675 Y-150.38063 I1.19416 J2.41889
G3 X-267.18882 Y-150.85868 I2.40066 J5.70791
G3 X-267.10923 Y-150.85393 I-0.12112 J2.69488
G3 X-263.10581 Y-150.26062 I-2.07392 J27.79756
G3 X-262.94152 Y-150.21845 I-0.58814 J2.63271
G2 X-261.10654 Y-149.77275 I5.93395 J-20.43004
G0 Z3.0
G0 X-302.69837 Y-152.15026
G0 Z1.0
G1 F300.0 Z-3.0
G1 F800.0 X-303.68943
G3 X-303.5676 Y-151.61777 I-16.47926 J4.05044
G3 X-303.26442 Y-151.84376 I1.75982 J2.04453
G3 X-302.69837 Y-152.15026 I2.34638 J3.6574
G0 Z3.0
G0 X-282.1005 Y-82.22337
G0 Z1.0
G1 F300.0 Z-3.0
G3 F800.0 X-280.78505 Y-81.07152 I-6.78061 J9.07078
G3 X-279.65652 Y-82.24808 I9.89796 J8.36439
G3 X-281.13106 Y-82.44376 I0.48196 J-9.2851
G3 X-282.1005 Y-82.22337 I-2.54292 J-8.94309
G1 F300.0 X-282.20204 Y-82.81471
G3 F800.0 X-283.44716 Y-82.69222 I-1.47193 J-8.57214
G1 X-283.9543 Y-82.67899
G3 X-280.75338 Y-80.15014 I-4.92681 J9.5264
G3 X-277.98716 Y-82.82301 I9.86629 J7.443
G1 X-279.26331 Y-82.83603
G3 X-281.1512 Y-83.06317 I0.08875 J-8.69715
G3 X-282.20204 Y-82.81471 I-2.52277 J-8.32369
G1 F300.0 X-282.40512 Y-83.99741
G3 F800.0 X-283.47845 Y-83.89181 I-1.26885 J-7.38945
G1 X-286.11692 Y-83.82298
G3 X-286.55388 Y-83.4415 I-7.08008 J-7.66878
G2 X-285.405 Y-82.02064 I15.7194 J-11.53557
G3 X-280.68179 Y-77.99995 I-3.47611 J8.86806
G3 X-280.14417 Y-78.93828 I6.7594 J3.24969
G3 X-276.853 Y-82.13733 I9.25708 J6.23114
G3 X-276.08666 Y-83.68467 I174.91111 J85.66355
G3 X-276.16136 Y-84.00444 I7.26427 J-1.86559
G1 X-279.25107 Y-84.03597
G3 X-281.19182 Y-84.31205 I0.0765 J-7.49721
G3 X-282.40512 Y-83.99741 I-2.48216 J-7.07481
G1 F300.0 X-282.6082 Y-85.1801
G3 F800.0 X-283.50975 Y-85.0914 I-1.06577 J-6.20676
G1 X-286.61521 Y-85.01039
G3 X-287.85778 Y-83.9538 I-6.58179 J-6.48137
G3 X-288.02654 Y-83.45157 I-8.03864 J-2.42175
G2 X-286.09954 Y-80.99915 I17.19206 J-11.52549
G3 X-280.57212 Y-73.66872 I-2.78157 J7.84656
G2 X-280.01452 Y-72.55413 I25.96099 J-12.29073
G2 X-279.91218 Y-72.79774 I-258.77498 J-108.85552
G3 X-279.14868 Y-78.2682 I5.98979 J-1.95253
G3 X-275.92871 Y-81.29558 I8.26159 J5.56106
G3 X-274.8024 Y-83.56796 I173.98682 J84.8218
G3 X-275.1123 Y-85.1938 I5.98001 J-1.9823
G1 X-279.23882 Y-85.23591
G3 X-281.2331 Y-85.58153 I0.06426 J-6.29727
G3 X-282.6082 Y-85.1801 I-2.44088 J-5.80533
G1 F300.0 X-282.81129 Y-86.36279
G3 F800.0 X-283.54104 Y-86.29099 I-0.86269 J-5.02407
G1 X-287.15032 Y-86.19684
G3 X-288.89861 Y-84.70041 I-6.04668 J-5.29492
G3 X-289.37758 Y-83.32921 I-6.9978 J-1.67513
G2 X-286.7698 Y-79.95759 I18.5431 J-11.64785
G3 X-281.75957 Y-73.37477 I-2.11131 J6.805
G3 X-281.75526 Y-73.3655 I-4.622 J2.15572
G2 X-279.90559 Y-69.97191 I27.14413 J-12.59395
G3 X-279.84469 Y-69.88921 I-293.56617 J216.24695
G2 X-278.62258 Y-72.77081 I-258.94481 J-111.52044
G3 X-278.1532 Y-77.59811 I4.70019 J-1.97945
G3 X-275.03171 Y-80.42336 I7.26611 J4.89098
G3 X-275.01387 Y-80.4329 I2.41327 J4.4929
G3 X-273.49212 Y-83.49999 I173.07198 J83.95912
G3 X-273.85427 Y-86.38103 I4.66973 J-2.05027
G1 X-279.22658 Y-86.43585
G3 X-281.27561 Y-86.88871 I0.05201 J-5.09733
G3 X-282.81129 Y-86.36279 I-2.39837 J-4.49815
G1 F300.0 X-283.01437 Y-87.54548
G3 F800.0 X-283.57233 Y-87.49058 I-0.65961 J-3.84138
G1 X-287.73263 Y-87.38205
G3 X-289.97069 Y-85.4635 I-5.46437 J-4.10971
G3 X-290.75668 Y-83.2886 I-5.92573 J-0.91204
G2 X-287.50675 Y-78.99115 I19.92219 J-11.68846
G2 X-287.24024 Y-78.84585 I1.5423 J-2.51183
G3 X-282.9565 Y-73.08423 I-1.64087 J5.69326
G3 X-282.8438 Y-72.86046 I-3.42507 J1.86518
G2 X-280.89685 Y-69.29427 I28.23267 J-13.099
G3 X-279.57842 Y-67.49331 I-292.57492 J215.56931
G2 X-277.30599 Y-72.81088 I-259.21108 J-113.91634
G3 X-277.15771 Y-76.92803 I3.38361 J-1.93938
G3 X-274.46388 Y-79.36621 I6.27062 J4.2209
G3 X-274.31067 Y-79.4442 I1.84544 J3.43574
G2 X-274.03513 Y-79.70077 I-0.27558 J-0.57221
G3 X-272.14297 Y-83.50485 I172.09324 J83.22699
G3 X-272.62691 Y-86.40793 I3.32058 J-2.04542
G3 X-272.35346 Y-87.56578 I56.91945 J12.83156
G1 X-279.21433 Y-87.63578
G3 X-281.32085 Y-88.27976 I0.03977 J-3.8974
G3 X-283.01437 Y-87.54548 I-2.35313 J-3.1071
G1 F300.0 X-283.21745 Y-88.72817
G3 F800.0 X-283.60363 Y-88.69018 I-0.45653 J-2.65869
G1 X-287.8104 Y-88.58043
G3 X-288.36204 Y-88.6228 I-0.07035 J-2.69668
G3 X-288.56368 Y-88.28057 I-2.42077 J-1.19577
G3 X-291.04221 Y-86.28251 I-4.63332 J-3.21119
G3 X-291.10402 Y-86.25783 I-1.03204 J-2.49498
G3 X-291.10802 Y-86.11443 I-2.7 J-0.00361
G3 X-292.17227 Y-83.35434 I-4.78839 J-0.26111
G2 X-288.27373 Y-78.05779 I21.33779 J-11.62272
G2 X-287.65567 Y-77.71592 I2.30927 J-3.44518
G3 X-284.16061 Y-72.94637 I-1.22544 J4.56333
G2 X-284.04286 Y-72.56829 I0.89891 J-0.07258
G3 X-283.93235 Y-72.35541 I-2.33871 J1.34923
G2 X-281.88759 Y-68.61591 I29.32121 J-13.60404
G3 X-279.32823 Y-65.09912 I-291.58418 J214.89095
G2 X-275.94488 Y-72.96154 I-259.46127 J-116.31053
G3 X-276.16223 Y-76.25795 I2.02249 J-1.78873
G3 X-273.89605 Y-78.30905 I5.27514 J3.55081
G3 X-273.78999 Y-78.36305 I1.27762 J2.37859
G2 X-272.96829 Y-79.15049 I-0.79627 J-1.65336
G3 X-270.80682 Y-83.48011 I171.0264 J82.67671
G3 X-270.76456 Y-83.5589 I2.40014 J1.23665
G2 X-270.72351 Y-83.63304 I-11.59376 J-6.46811
G3 X-271.45629 Y-86.14403 I1.90112 J-1.91722
G3 X-270.9164 Y-88.33614 I55.74883 J12.56767
G3 X-270.84917 Y-88.55121 I2.60839 J0.69734
G2 X-270.82032 Y-89.03636 I-0.81257 J-0.29175
G3 X-272.03229 Y-88.76256 I-1.18444 J-2.42366
G1 X-279.20209 Y-88.83572
G3 X-281.37181 Y-89.9682 I0.02753 J-2.69746
G1 X-281.48165 Y-89.815
G3 X-283.21745 Y-88.72817 I-2.19233 J-1.57186
G1 F300.0 X-283.42012 Y-89.9085
G3 F800.0 X-283.63486 Y-89.88737 I-0.25385 J-1.47836
G1 X-287.84163 Y-89.77763
G3 X-289.10718 Y-90.41349 I-0.03912 J-1.49949
G3 X-289.40701 Y-89.22092 I-3.76435 J-0.31244
G3 X-289.54996 Y-88.96413 I-1.37579 J-0.59765
G3 X-291.50089 Y-87.39139 I-3.64704 J-2.52763
G3 X-291.63836 Y-87.34221 I-0.57335 J-1.3861
G2 X-292.39506 Y-87.09521 I5.59558 J18.42498
G3 X-292.30488 Y-86.31241 I-4.79412 J0.94885
G3 X-292.30624 Y-86.17977 I-1.49913 J0.05097
G3 X-293.47863 Y-83.71435 I-3.59017 J-0.19577
G3 X-293.48823 Y-83.70569 I-1.00867 J-1.11022
G3 X-293.64007 Y-83.57315 I-5.97388 J-6.69023
G2 X-289.05132 Y-77.13635 I22.80559 J-11.40391
G2 X-288.04624 Y-76.5773 I3.08686 J-4.36662
G3 X-285.36223 Y-72.94491 I-0.83487 J3.42471
G2 X-285.08228 Y-71.96863 I2.10053 J-0.07403
G3 X-285.02089 Y-71.85036 I-1.29928 J0.74957
G2 X-282.87783 Y-67.93688 I30.40976 J-14.10909
G3 X-280.11728 Y-64.14056 I-290.59393 J214.21192
G3 X-280.09405 Y-64.10722 I-1.21887 J0.87427
G2 X-279.05602 Y-62.78983 I9.62541 J-6.51663
G2 X-274.76562 Y-72.67359 I-259.73348 J-118.61982
G3 X-274.67125 Y-72.8634 I1.38698 J0.57122
G2 X-274.5428 Y-73.30648 I-0.80361 J-0.47312
G2 X-274.67274 Y-73.45143 I-0.28657 J0.12618
G3 X-275.16674 Y-75.58787 I0.75035 J-1.29884
G3 X-273.32822 Y-77.2519 I4.27965 J2.88073
G3 X-273.2693 Y-77.2819 I0.70979 J1.32144
G2 X-271.89728 Y-78.60882 I-1.31696 J-2.73451
G3 X-269.74009 Y-82.93048 I169.95539 J82.13504
G3 X-269.71661 Y-82.97426 I1.33341 J0.68703
G2 X-269.15672 Y-84.088 I-12.64171 J-7.05275
G3 X-270.28567 Y-85.88014 I0.33433 J-1.46227
G3 X-269.75712 Y-88.02621 I54.5782 J12.30377
G3 X-269.71977 Y-88.1457 I1.44911 J0.38741
G2 X-269.78416 Y-89.69862 I-1.94197 J-0.69727
G3 X-269.80922 Y-89.75683 I1.36494 J-0.62204
G3 X-270.03712 Y-92.12104 I3.85822 J-1.56501
G3 X-268.47697 Y-98.10735 I42.19822 J7.80123
G3 X-268.46294 Y-98.14688 I1.42047 J0.48193
G2 X-266.377 Y-104.07485 I-176.35593 J-65.3872
G3 X-255.21762 Y-140.32085 I2860.82571 J860.94722
G2 X-254.94875 Y-141.19116 I-334.49285 J-103.81407
G3 X-254.91774 Y-141.28162 I1.43374 J0.44089
G2 X-254.21442 Y-143.67558 I-15.29573 J-5.79401
G3 X-254.01308 Y-144.16845 I1.46723 J0.31181
G2 X-253.66404 Y-145.9025 I-2.07691 J-1.32021
G3 X-253.58843 Y-146.68532 I1.47864 J-0.25224
G2 X-253.20569 Y-148.11314 I-6.94948 J-2.62808
G3 X-252.80935 Y-148.90766 I1.4803 J0.24232
G3 X-251.06043 Y-150.11294 I3.78455 J3.62003
G3 X-250.88156 Y-150.17541 I0.58304 J1.38205
G3 X-248.43233 Y-150.16581 I1.20771 J4.31637
G3 X-248.35531 Y-150.14134 I-0.41549 J1.44131
G3 X-246.36056 Y-149.4377 I-75.89653 J218.33735
G2 X-244.42887 Y-149.17844 I1.89367 J-6.78339
G3 X-243.36651 Y-149.90667 I18.51653 J25.8732
G1 X-242.33648 Y-152.35709
G2 X-242.19646 Y-153.35026 I-3.45248 J-0.99318
G1 X-310.04004
G3 X-309.76494 Y-153.09957 I-4.98401 J5.74554
G3 X-309.32642 Y-152.28492 I-1.03716 J1.08365
G3 X-309.24193 Y-150.56997 I-6.46202 J1.17793
G3 X-307.31785 Y-152.67234 I11.03591 J8.16838
G3 X-304.8669 Y-151.91296 I0.99546 J1.12207
G3 X-304.44457 Y-149.29853 I-15.30179 J3.81314
G2 X-303.90977 Y-146.2534 I27.72968 J-3.30054
G3 X-300.0408 Y-131.30465 I-665.47259 J180.2095
G2 X-295.86905 Y-116.20579 I931.54371 J-249.25563
G3 X-295.86463 Y-116.18995 I-1.44254 J0.41121
G3 X-289.97029 Y-94.10441 I-1861.96352 J508.76331
G1 X-290.1569 Y-95.04594
G3 X-289.94825 Y-96.1472 I1.47138 J-0.29162
G3 X-290.50345 Y-96.97356 I0.89693 J-1.2023
G1 X-293.73496 Y-109.45585
G3 X-293.42915 Y-110.79923 I1.45213 J-0.37594
G3 X-294.30204 Y-111.79611 I0.57604 J-1.38498
G1 X-298.22299 Y-126.43413
G3 X-296.77129 Y-128.32224 I1.44892 J-0.38811
G1 X-283.5832 Y-128.29777
G3 X-282.08633 Y-126.82997 I-0.00278 J1.5
G1 X-281.77421 Y-112.29192
G3 X-282.42085 Y-111.02589 I-1.49965 J0.0322
G3 X-281.49025 Y-109.69692 I-0.56823 J1.38821
G1 X-281.00457 Y-97.40874
G3 X-281.38958 Y-96.3448 I-1.49883 J0.05924
G3 X-280.97321 Y-95.43928 I-1.07724 J1.04382
G1 X-280.7903 Y-93.46393
G3 X-281.06487 Y-92.4516 I-1.49361 J0.1383
G1 X-282.45493 Y-90.51283
G3 X-283.42012 Y-89.9085 I-1.21904 J-0.87403
( TascheMaske3 )
S1000
G0 Z3.0
G0 X-349.37664 Y-29.71187
G0 Z1.0
G1 F300.0 Z-3.0
G3 F800.0 X-347.37939 Y-28.19441 I-12.6323 J18.6994
G3 X-345.78675 Y-26.60475 I-8.20687 J9.81491
G2 X-345.60679 Y-27.32302 I-8.6243 J-2.54244
G3 X-345.49928 Y-27.64866 I1.4688 J0.30432
G3 X-345.05132 Y-28.60224 I83.22276 J38.51325
G3 X-344.48155 Y-30.41251 I12.54741 J2.95445
G3 X-344.42151 Y-30.54447 I1.39377 J0.55444
G3 X-344.98293 Y-30.08795 I-8.10309 J-9.39146
G3 X-345.3926 Y-29.86547 I-0.912 J-1.1909
G3 X-346.77031 Y-29.6118 I-1.4778 J-4.15797
G3 X-348.96663 Y-29.61003 I-1.10252 J-5.41645
G3 X-349.01991 Y-29.6218 I0.29682 J-1.47034
G3 X-349.37664 Y-29.71187 I3.65501 J-15.22695
G0 Z3.0
G0 X-359.03879 Y-35.55952
G0 Z1.0
G1 F300.0 Z-3.0
G3 F800.0 X-359.2633 Y-39.03105 I3.80478 J-1.98909
G3 X-359.79111 Y-38.91896 I-1.48754 J-5.70607
G3 X-359.96807 Y-38.02567 I-157.85984 J-30.8071
G3 X-360.10242 Y-37.56969 I-2.64704 J-0.53216
G2 X-360.39592 Y-36.29796 I4.12212 J1.62106
G3 X-360.42707 Y-35.72696 I-29.27275 J-1.31029
G2 X-359.21226 Y-35.56252 I1.15366 J-3.95324
G3 X-359.03879 Y-35.55952 I0.04009 J2.6997
G0 Z3.0
G0 X-354.04341 Y-49.3481
G0 Z1.0
G1 F300.0 Z-3.0
G3 F800.0 X-352.67072 Y-49.55495 I1.63287 J6.17791
G3 X-353.90164 Y-50.53046 I2.56525 J-4.50125
G2 X-354.04341 Y-49.3481 I15.71609 J2.48408
G0 Z3.0
G0 X-346.26687 Y-47.50771
G0 Z1.0
G1 F300.0 Z-3.0
G3 F800.0 X-346.13998 Y-47.39901 I-8.06492 J9.5432
G3 X-345.40698 Y-46.95757 I-1.94331 J4.0561
G3 X-344.33426 Y-46.51483 I-1.16518 J4.34405
G3 X-342.82352 Y-46.16357 I-1.45994 J9.70366
G3 X-342.57345 Y-47.22001 I11.59872 J2.18769
G2 X-342.51495 Y-47.57502 I-18.49875 J-3.23089
G3 X-343.25069 Y-47.44379 I-1.15534 J-4.34916
G3 X-345.66384 Y-47.46836 I-1.08836 J-11.6215
G3 X-346.26687 Y-47.50771 I0.1013 J-6.19305
G1 F300.0 X-346.19864 Y-48.10382
G3 F800.0 X-349.36649 Y-49.56002 I0.63611 J-5.5576
G3 X-350.49449 Y-49.49184 I-0.7968 J-3.81774
G3 X-354.22077 Y-52.044 I0.38902 J-4.56435
G3 X-354.22986 Y-51.98755 I-19.99217 J-3.18724
G3 X-354.27831 Y-51.73998 I-3.84961 J-0.62488
G2 X-354.68121 Y-48.76251 I16.09276 J3.6936
G3 X-354.68925 Y-48.62967 I-3.89633 J-0.16915
G2 X-354.6996 Y-48.48855 I16.60192 J1.28944
G3 X-352.50023 Y-48.95955 I2.28907 J5.31836
G3 X-349.98641 Y-48.8339 I0.4085 J17.0357
G3 X-348.58478 Y-48.37863 I-0.48154 J3.86774
G3 X-346.52438 Y-46.93816 I-5.74702 J10.41412
G3 X-346.47224 Y-46.89196 I-2.55831 J2.94046
G3 X-345.6732 Y-46.40603 I-1.61106 J3.54905
G3 X-344.56639 Y-45.9554 I-0.89897 J3.79251
G2 X-344.53625 Y-45.93775 I0.8226 J-1.37055
G3 X-342.74296 Y-45.50409 I-1.25796 J9.12658
G3 X-342.41756 Y-45.37315 I-1.29086 J3.67763
G3 X-342.27186 Y-45.83998 I18.34073 J5.46812
G3 X-341.98799 Y-47.08492 I11.04706 J1.8641
G2 X-341.87826 Y-47.78075 I-19.08421 J-3.36599
G3 X-341.71552 Y-48.4761 I3.8628 J0.53737
G3 X-342.42017 Y-48.22997 I-12.97735 J-36.02094
G3 X-343.30664 Y-48.04117 I-1.25011 J-3.69421
G3 X-345.62515 Y-48.06788 I-1.03241 J-11.02411
G3 X-346.19864 Y-48.10382 I0.06261 J-5.59353
G1 F300.0 X-346.06219 Y-49.29603
G3 F800.0 X-348.92716 Y-50.83555 I0.49965 J-4.36538
G3 X-348.97652 Y-50.89608 I2.06753 J-1.73646
G3 X-349.57037 Y-50.74366 I-2.851 J-9.8751
G3 X-350.39258 Y-50.68751 I-0.59292 J-2.63409
G3 X-353.45034 Y-54.54849 I0.28711 J-3.36869
G3 X-353.33821 Y-55.01617 I2.67122 J0.39314
G3 X-353.19403 Y-55.38224 I3.67846 J1.23736
G3 X-354.74284 Y-55.44529 I-0.64417 J-3.23099
G3 X-355.1713 Y-55.56901 I4.51404 J-16.43566
G3 X-355.41435 Y-52.17982 I-19.04164 J0.33778
G3 X-355.44789 Y-52.00843 I-2.66512 J-0.43261
G2 X-355.88008 Y-48.81456 I17.26235 J3.96205
G3 X-355.88564 Y-48.72259 I-2.69746 J-0.11711
G2 X-355.93365 Y-46.89349 I17.79832 J1.38236
G3 X-355.86259 Y-46.1878 I-38.39879 J4.22324
G3 X-355.69256 Y-46.37907 I2.09889 J1.69461
G3 X-352.47675 Y-47.75977 I3.28203 J3.20888
G3 X-350.13467 Y-47.64309 I0.38503 J15.83592
G3 X-349.16457 Y-47.32799 I-0.33328 J2.67693
G3 X-347.31204 Y-46.03284 I-5.16723 J9.36348
G3 X-347.1941 Y-45.9239 I-1.77066 J2.03515
G2 X-347.07151 Y-45.84358 I0.26406 J-0.26932
G3 X-346.2156 Y-45.28938 I-1.01179 J2.50067
G3 X-346.09102 Y-45.26786 I-1.23688 J7.53227
G3 X-345.18393 Y-44.92649 I-0.48115 J2.65434
G2 X-344.8896 Y-44.77281 I1.44014 J-2.39945
G3 X-343.14039 Y-44.37181 I-0.9046 J7.96164
G3 X-342.88939 Y-44.26927 I-0.89343 J2.54535
G3 X-341.65438 Y-43.37228 I-1.71404 J3.65866
G2 X-341.59189 Y-43.74336 I-8.69519 J-1.65515
G3 X-341.55048 Y-43.96235 I2.67144 J0.39169
G3 X-341.10285 Y-45.55348 I17.47365 J4.05732
G3 X-340.81794 Y-46.81071 I9.87804 J1.5776
G2 X-340.68971 Y-47.6154 I-20.25426 J-3.6402
G3 X-340.52074 Y-48.25015 I2.67425 J0.37203
G2 X-340.23664 Y-49.33821 I-4.12873 J-1.65917
G3 X-340.19642 Y-49.56946 I2.67767 J0.34654
G2 X-340.03784 Y-50.54371 I-8.88088 J-1.94557
G3 X-341.6601 Y-49.77504 I-2.67225 J-3.54356
G3 X-342.80482 Y-49.36665 I-13.03277 J-34.72199
G3 X-343.41853 Y-49.23594 I-0.86546 J-2.55753
G3 X-345.55051 Y-49.26755 I-0.92052 J-9.82934
G3 X-346.06219 Y-49.29603 I-0.01203 J-4.39386
G0 Z3.0
G0 X-339.74419 Y-59.09748
G0 Z1.0
G1 F300.0 Z-3.0
G3 F800.0 X-339.11652 Y-58.95086 I-0.46345 J3.40078
G2 X-339.25433 Y-59.73887 I-15.52568 J2.30925
G3 X-339.30006 Y-60.07238 I2.64691 J-0.53277
G2 X-339.45829 Y-61.42379 I-15.89743 J1.17642
G3 X-339.60126 Y-62.54216 I5.98627 J-1.33362
G2 X-339.74292 Y-62.81612 I-3.28858 J1.52681
G3 X-340.01674 Y-63.49384 I2.34344 J-1.341
G2 X-340.2324 Y-64.30722 I-37.1526 J9.4154
G3 X-340.76419 Y-65.37068 I4.9913 J-3.16061
G2 X-342.03948 Y-67.57574 I-16.81675 J8.25459
G3 X-343.07492 Y-68.85225 I24.45506 J-20.89497
G3 X-344.14246 Y-70.09906 I11.46579 J-10.89766
G3 X-344.79243 Y-70.48225 I1.0328 J-2.49466
G3 X-345.40857 Y-70.98255 I27.11068 J-34.01746
G2 X-345.85001 Y-71.15238 I-3.27964 J7.86605
G2 X-345.99594 Y-70.94447 I1.1985 J0.9964
G2 X-345.94355 Y-70.6945 I0.29768 J0.06809
G3 X-345.70835 Y-70.31543 I-2.1688 J1.6082
G3 X-345.35697 Y-67.9904 I-3.30154 J1.68803
G3 X-342.74285 Y-66.17843 I-9.74067 J16.84452
G3 X-342.41295 Y-65.85635 I-1.71434 J2.08591
G3 X-341.14901 Y-64.08209 I-8.88909 J7.66973
G3 X-340.99777 Y-63.7794 I-2.33491 J1.35579
G3 X-340.61406 Y-62.70718 I-9.20109 J3.89748
G3 X-339.94297 Y-60.25309 I-6.54479 J3.10852
G2 X-339.74419 Y-59.09748 I12.52383 J-1.55936
G1 F300.0 X-339.90623 Y-57.90847
G3 F800.0 X-338.26884 Y-54.59045 I-0.30141 J2.21177
G3 X-338.97303 Y-53.08463 I-10.60467 J-4.04165
G3 X-339.08488 Y-52.9135 I-1.30858 J-0.73323
G3 X-340.48878 Y-51.73105 I-3.30097 J-2.49451
G3 X-342.00941 Y-50.92577 I-2.22132 J-2.35622
G3 X-343.18947 Y-50.50333 I-12.68346 J-33.57127
G3 X-343.53042 Y-50.43072 I-0.48081 J-1.42085
G3 X-345.48178 Y-50.46855 I-0.80863 J-8.63457
G3 X-348.00826 Y-51.60731 I-0.08076 J-3.19286
G3 X-348.08084 Y-51.70102 I1.14863 J-0.9647
G2 X-348.48396 Y-52.07501 I-1.10853 J0.79063
G2 X-348.96768 Y-52.15498 I-0.46211 J1.29227
G3 X-349.83389 Y-51.91437 I-2.85984 J-8.61621
G3 X-350.29067 Y-51.88317 I-0.3294 J-1.46338
G3 X-352.26313 Y-54.37375 I0.18521 J-2.17302
G3 X-352.20083 Y-54.63358 I1.48401 J0.21841
G3 X-350.5286 Y-56.31512 I2.54108 J0.85477
G3 X-348.93252 Y-56.96905 I4.27777 J8.16606
G2 X-349.03861 Y-57.13551 I-3.36213 J2.026
G3 X-349.23403 Y-57.55209 I1.24422 J-0.8378
G2 X-349.43475 Y-58.14346 I-7.04319 J2.06073
G2 X-349.55504 Y-58.2149 I-0.72416 J1.08244
G3 X-349.97456 Y-58.54056 I0.69552 J-1.32901
G2 X-350.21155 Y-58.75292 I-1.10307 J0.99259
G3 X-350.948 Y-58.91217 I1.54418 J-8.92344
G3 X-351.31358 Y-59.06096 I0.37775 J-1.45166
G3 X-351.73132 Y-58.07352 I-4.79046 J-1.44452
G3 X-352.79371 Y-56.82522 I-3.05572 J-1.52441
G3 X-353.24318 Y-56.60495 I-0.87558 J-1.21793
G3 X-354.41862 Y-56.60068 I-0.59502 J-2.00829
G3 X-355.66214 Y-56.9974 I4.18983 J-15.28027
G3 X-355.81257 Y-57.06182 I0.51438 J-1.40905
G2 X-356.19192 Y-57.16043 I-0.42699 J0.86362
G3 X-356.22319 Y-56.84684 I-1.49997 J0.00877
G2 X-356.37188 Y-55.58838 I7.13689 J1.48124
G3 X-356.59885 Y-52.37209 I-17.84106 J0.35714
G3 X-356.61748 Y-52.27687 I-1.48062 J-0.24034
G2 X-357.07895 Y-48.8666 I18.43194 J4.23049
G3 X-357.08204 Y-48.81551 I-1.49859 J-0.06506
G2 X-357.13191 Y-46.81152 I18.99471 J1.47528
G3 X-356.90875 Y-43.37546 I-37.20053 J4.14127
G3 X-356.94907 Y-43.00064 I-1.49973 J0.02826
G3 X-358.00205 Y-41.33409 I-2.95643 J-0.70204
G3 X-358.99487 Y-40.43062 I-3.56623 J-2.92167
G3 X-359.4011 Y-40.23846 I-0.83729 J-1.24456
G3 X-360.51104 Y-40.04647 I-1.34974 J-4.49866
G2 X-360.80139 Y-39.76082 I0.53346 J0.83266
G3 X-360.86853 Y-39.66765 I-1.24962 J-0.82974
G3 X-361.14453 Y-38.26218 I-156.78242 J-30.05842
G3 X-361.21917 Y-38.00886 I-1.47058 J-0.29564
G2 X-361.59388 Y-36.37069 I5.23887 J2.06024
G3 X-361.7025 Y-34.84805 I-28.0748 J-1.23756
G3 X-361.00092 Y-34.6501 I-2.79308 J11.24158
G3 X-360.97385 Y-34.64125 I-0.45254 J1.43011
G2 X-359.19444 Y-34.36265 I1.70044 J-5.03895
G3 X-358.68221 Y-34.28054 I0.02227 J1.49983
G3 X-357.33009 Y-33.79989 I-26.61739 J77.01984
G3 X-353.73723 Y-32.31532 I-4.62984 J16.29471
G3 X-353.62182 Y-32.24424 I-0.72812 J1.31143
G2 X-352.9097 Y-31.93234 I1.19213 J-1.75294
G3 X-352.52043 Y-31.78228 I-0.33965 J1.46104
G3 X-352.23344 Y-31.61879 I-7.72831 J13.89978
G3 X-352.56951 Y-32.08151 I3.46458 J-2.86968
G2 X-353.96699 Y-33.64712 I-8.07374 J5.8002
G2 X-355.03596 Y-34.24671 I-3.19258 J4.43917
G3 X-357.87334 Y-35.93071 I0.17171 J-3.52167
G3 X-357.03876 Y-40.06387 I2.63933 J-1.6179
G3 X-356.80654 Y-40.20069 I0.87447 J1.21873
G3 X-354.34521 Y-40.65021 I2.06942 J4.36779
G3 X-354.48445 Y-40.83931 I2.05278 J-1.65735
G3 X-354.49465 Y-40.85474 I1.24626 J-0.83477
G3 X-355.2622 Y-42.25098 I8.8799 J-5.79059
G3 X-355.33991 Y-42.4624 I1.36506 J-0.62178
G3 X-355.11992 Y-45.13403 I3.66685 J-1.04293
G3 X-354.83624 Y-45.54184 I1.35622 J0.64084
G3 X-352.45389 Y-46.56237 I2.42571 J2.37165
G3 X-350.28263 Y-46.45466 I0.36216 J14.63852
G3 X-349.74321 Y-46.27945 I-0.18532 J1.48851
G3 X-348.09813 Y-45.12934 I-4.58859 J8.31495
G3 X-348.03254 Y-45.06876 I-0.98457 J1.13164
G2 X-347.52069 Y-44.7334 I1.1025 J-1.12445
G3 X-346.92954 Y-44.30147 I-0.5626 J1.39049
G2 X-346.8052 Y-44.16003 I2.59922 J-2.15947
G3 X-346.30462 Y-44.08947 I-0.64728 J6.40292
G3 X-345.80024 Y-43.89965 I-0.26754 J1.47595
G2 X-345.1861 Y-43.59925 I2.05645 J-3.4263
G3 X-343.53703 Y-43.2418 I-0.6081 J6.78808
G3 X-343.39746 Y-43.18478 I-0.49679 J1.41534
G3 X-341.77042 Y-40.37644 I-1.20597 J2.57418
G3 X-341.77617 Y-40.31999 I-1.4949 J-0.12356
G3 X-343.29443 Y-37.95589 I-3.20252 J-0.38713
G3 X-346.41075 Y-36.69919 I-4.33828 J-6.26572
G3 X-346.63963 Y-36.67983 I-0.24051 J-1.48059
G3 X-348.82861 Y-36.96903 I-0.06173 J-7.96167
G3 X-348.46349 Y-36.58419 I-17.66972 J17.12992
G3 X-348.20799 Y-36.20752 I-1.09924 J1.02063
G2 X-347.28003 Y-35.27285 I1.79326 J-0.8524
G2 X-346.66807 Y-35.35136 I-0.06654 J-2.9428
G3 X-346.15556 Y-35.38246 I0.34576 J1.45961
G3 X-344.65159 Y-35.98563 I1.82469 J2.37317
G3 X-344.17454 Y-35.96052 I0.1607 J1.49137
G3 X-342.88367 Y-35.17058 I-0.4831 J2.23914
G2 X-342.79631 Y-35.67781 I-5.45166 J-1.19998
G3 X-342.7143 Y-36.01327 I1.4884 J0.18615
G3 X-341.97346 Y-37.68986 I14.11378 J5.23453
G3 X-341.40138 Y-39.58131 I5.86628 J0.74203
G2 X-341.19996 Y-40.6858 I-6.80383 J-1.8114
G3 X-341.08947 Y-41.11853 I1.49242 J0.1506
G2 X-340.40458 Y-43.56927 I-9.2601 J-3.9089
G3 X-340.38158 Y-43.69093 I1.48413 J0.21761
G3 X-339.93249 Y-45.26936 I16.30475 J3.7859
G3 X-339.64914 Y-46.53074 I8.70768 J1.29348
G2 X-339.50116 Y-47.45006 I-21.42306 J-3.92016
G3 X-339.40728 Y-47.80269 I1.48569 J0.20668
G2 X-339.04657 Y-49.18419 I-5.24218 J-2.10662
G3 X-339.02422 Y-49.31266 I1.48759 J0.19252
G2 X-338.83972 Y-50.46304 I-10.05308 J-2.20237
G3 X-338.79621 Y-50.69889 I1.49214 J0.15333
G3 X-338.31905 Y-52.00702 I7.71073 J2.07151
G3 X-338.11116 Y-53.38843 I24.00475 J2.90607
G2 X-338.06703 Y-54.72049 I-14.02458 J-1.13148
G3 X-338.03591 Y-55.04653 I1.49985 J-0.02138
G2 X-337.74574 Y-56.61585 I-36.02774 J-7.47316
G2 X-338.07793 Y-59.97566 I-16.89646 J-0.02576
G3 X-338.10333 Y-60.16094 I1.47051 J-0.29598
G2 X-338.27964 Y-61.65218 I-17.09415 J1.26498
G3 X-338.40489 Y-62.79659 I4.80762 J-1.10523
G2 X-338.70139 Y-63.41212 I-4.48496 J1.78124
G3 X-338.85351 Y-63.78863 I1.30191 J-0.745
G2 X-339.12695 Y-64.81003 I-38.31583 J9.71019
G3 X-339.66055 Y-65.84541 I3.88585 J-2.6578
G2 X-341.08347 Y-68.30425 I-17.9204 J8.72932
G3 X-342.16241 Y-69.63422 I23.49905 J-20.16646
G3 X-343.26635 Y-70.929 I10.55328 J-10.1157
G2 X-343.67423 Y-71.20402 I-0.85756 J0.83188
G3 X-344.04453 Y-71.42068 I0.56456 J-1.3897
G3 X-344.77578 Y-72.01691 I26.36278 J-33.07903
G2 X-346.17447 Y-72.50828 I-3.91243 J8.90042
G3 X-346.21899 Y-72.52094 I0.38783 J-1.449
G3 X-346.47738 Y-72.22383 I-1.25123 J-0.8273
G2 X-347.09765 Y-71.43122 I1.82588 J2.06785
G2 X-346.90746 Y-69.97974 I1.39939 J0.55484
G3 X-346.77679 Y-69.76915 I-1.20489 J0.89344
G3 X-346.82609 Y-67.39399 I-2.2331 J1.14175
G3 X-346.86412 Y-67.33037 I-1.30608 J-0.73767
G3 X-346.39559 Y-67.17445 I-3.53063 J11.39082
G3 X-346.16473 Y-67.06951 I-0.50302 J1.41314
G3 X-343.50478 Y-65.25136 I-8.93292 J15.92364
G3 X-343.3215 Y-65.07243 I-0.95241 J1.15884
G3 X-342.18675 Y-63.47951 I-7.98054 J6.88581
G3 X-342.10273 Y-63.31135 I-1.29717 J0.75322
G3 X-341.73858 Y-62.27609 I-8.09613 J3.42943
G3 X-341.13641 Y-60.12608 I-5.42027 J2.67743
G2 X-340.69839 Y-57.98245 I13.71727 J-1.68638
G3 X-340.67269 Y-57.87993 I-1.44125 J0.41569
G3 X-339.90623 Y-57.90847 I0.46505 J2.18323
G0 Z3.0
G0 X-384.38081 Y-52.43519
G0 Z1.0
G1 F300.0 Z-3.0
G3 F800.0 X-385.0171 Y-52.85324 I3.02547 J-5.29819
G2 X-385.11018 Y-52.87586 I-0.26007 J0.86719
G3 X-385.54683 Y-52.99647 I0.49801 J-2.65367
G3 X-386.51743 Y-53.43577 I2.5802 J-6.99269
G2 X-388.09123 Y-53.67998 I-1.89416 J7.01336
G3 X-388.47766 Y-53.7251 I0.11906 J-2.69737
G3 X-389.11461 Y-53.8818 I1.16136 J-6.09344
G2 X-391.70997 Y-53.7299 I-1.08967 J3.62996
G2 X-392.58478 Y-53.00793 I8.87206 J11.64146
G3 X-392.62378 Y-52.9136 I-2.51428 J-0.98408
G3 X-390.58607 Y-52.1722 I-0.10291 J3.45383
G3 X-389.96206 Y-51.54379 I-2.15766 J2.76657
G3 X-388.28169 Y-52.36786 I2.78695 J3.55767
G3 X-388.09743 Y-52.4076 I0.66111 J2.61781
G3 X-386.89366 Y-52.52792 I1.37232 J7.64802
G3 X-384.85231 Y-52.54241 I1.06412 J6.11305
G3 X-384.39477 Y-52.42772 I-0.42523 J2.66631
G3 X-384.38081 Y-52.43519 I1.56196 J2.90215
G0 Z3.0
G0 X-381.24364 Y-39.69254
G0 Z1.0
G1 F300.0 Z-3.0
G3 F800.0 X-381.3746 Y-39.51607 I-7.3076 J-5.28625
G3 X-381.79071 Y-38.64497 I-3.70012 J-1.23253
G3 X-382.62704 Y-37.63046 I-4.63525 J-2.96921
G2 X-382.70336 Y-36.94529 I3.34579 J0.71952
G3 X-383.00283 Y-35.48524 I-3.8998 J-0.03915
G3 X-384.48605 Y-33.56759 I-4.29193 J-1.78719
G3 X-383.11672 Y-33.84198 I2.08806 J6.86639
G3 X-382.65088 Y-33.94916 I2.31026 J8.97498
G3 X-382.01468 Y-36.00152 I9.71933 J1.88801
G2 X-381.87378 Y-36.73865 I-2.43884 J-0.84823
G3 X-381.56388 Y-38.10286 I3.89639 J0.16781
G2 X-381.36446 Y-38.5709 I-254.698 J-108.79766
G2 X-381.26684 Y-39.48872 I-24.23362 J-3.04152
G3 X-381.24364 Y-39.69254 I3.88523 J0.33912
G0 Z3.0
G0 X-389.13723 Y-32.35724
G0 Z1.0
G1 F300.0 Z-3.0
G3 F800.0 X-391.13252 Y-33.69118 I1.84246 J-4.91519
G3 X-391.29046 Y-33.53849 I-3.94506 J-3.92266
G3 X-391.13891 Y-32.67523 I-9.0973 J2.042
G3 X-391.13413 Y-32.66477 I-4.09034 J1.87594
G3 X-390.72813 Y-31.61515 I-8.77819 J3.99878
G3 X-389.13723 Y-32.35724 I3.1128 J4.59695
G1 F300.0 X-388.97275 Y-31.78023
G3 F800.0 X-388.65164 Y-31.86026 I1.35741 J4.76202
G3 X-388.17032 Y-31.9322 I0.8157 J3.81129
G2 X-387.44169 Y-32.00878 I-1.67042 J-19.39891
G3 X-387.31069 Y-32.08991 I2.11726 J3.27239
G3 X-386.14755 Y-32.76703 I45.47288 J76.77478
G3 X-391.11928 Y-34.62898 I-1.14721 J-4.5054
G3 X-391.40717 Y-34.27276 I-3.17196 J-2.26907
G3 X-391.96055 Y-33.75135 I-3.67041 J-3.34108
G3 X-391.72277 Y-32.50651 I-8.42722 J2.25485
G3 X-391.68015 Y-32.41604 I-3.50648 J1.70722
G3 X-391.06831 Y-30.56734 I-8.23218 J3.75005
G3 X-388.97275 Y-31.78023 I3.45298 J3.54914
G1 F300.0 X-388.64379 Y-30.62619
G3 F800.0 X-388.4005 Y-30.68683 I1.02846 J3.60799
G3 X-388.06737 Y-30.73662 I0.56456 J2.63786
G2 X-387.13129 Y-30.83876 I-1.77337 J-20.59449
G2 X-386.79184 Y-30.99997 I-0.43841 J-1.36111
G3 X-386.69916 Y-31.05742 I1.4674 J2.26358
G3 X-384.80227 Y-32.1493 I44.86135 J75.74229
G3 X-384.38044 Y-32.3397 I1.31659 J2.35449
G3 X-382.90674 Y-32.65636 I1.98245 J5.63851
G3 X-381.74649 Y-32.8796 I2.10029 J7.78937
G3 X-381.65705 Y-32.88858 I0.31433 J2.67922
G3 X-381.55966 Y-33.18505 I4.34544 J1.26321
G3 X-380.89817 Y-35.55978 I8.62811 J1.1239
G2 X-380.67489 Y-36.68702 I-3.55536 J-1.28998
G3 X-380.46035 Y-37.63147 I2.6975 J0.11618
G2 X-380.19541 Y-38.25379 I-255.80154 J-109.26905
G2 X-380.07139 Y-39.38437 I-25.40268 J-3.35863
G3 X-379.97508 Y-39.90056 I2.68977 J0.23477
G3 X-379.4329 Y-41.71233 I101.84392 J29.48997
G3 X-379.07441 Y-43.76427 I37.73782 J5.53591
G3 X-378.84185 Y-44.43756 I2.64603 J0.53713
G2 X-378.64901 Y-45.09268 I-1.71813 J-0.86169
G3 X-378.55879 Y-45.55114 I2.68436 J0.29018
G3 X-378.05872 Y-46.70987 I4.80692 J1.38721
G2 X-378.51052 Y-47.22986 I-16.759 J14.10495
G3 X-378.73616 Y-46.18845 I-4.74238 J-0.48237
G3 X-379.53998 Y-44.24529 I-14.60972 J-4.9057
G3 X-379.56106 Y-44.20371 I-2.41873 J-1.19989
G3 X-380.63902 Y-42.62912 I-6.93147 J-3.58899
G3 X-381.88234 Y-40.89647 I-15.44633 J-9.77165
G3 X-382.45971 Y-40.07647 I-6.66889 J-4.08232
G3 X-382.80117 Y-39.29224 I-2.615 J-0.67214
G3 X-383.68415 Y-38.2956 I-3.62479 J-2.32194
G2 X-383.73924 Y-38.13898 I0.65132 J0.3171
G3 X-383.75747 Y-38.06375 I-2.63291 J-0.59816
G2 X-383.9033 Y-36.95734 I4.47622 J1.15281
G3 X-384.11063 Y-35.94653 I-2.69986 J-0.0271
G3 X-390.65947 Y-36.51385 I-3.18414 J-1.3259
G3 X-390.68189 Y-36.62391 I2.63389 J-0.59382
G3 X-390.75333 Y-37.95201 I5.18959 J-0.94509
G2 X-391.39898 Y-37.7265 I36.69515 J106.09641
G3 X-391.45152 Y-37.70857 I-0.89807 J-2.54627
G3 X-391.69164 Y-36.1686 I-6.56621 J-0.23514
G3 X-392.29458 Y-35.08054 I-2.5996 J-0.72945
G3 X-393.44972 Y-34.22079 I-2.783 J-2.5333
G3 X-393.14133 Y-33.52003 I-2.29212 J1.42694
G3 X-392.89274 Y-32.15234 I-7.24644 J2.02353
G3 X-392.77218 Y-31.91858 I-2.33651 J1.35305
G3 X-392.2003 Y-30.1102 I-7.14014 J3.25259
G2 X-391.74199 Y-29.15392 I10.31005 J-4.35331
G3 X-391.48755 Y-28.47846 I-2.37679 J1.28097
G3 X-391.36326 Y-28.32262 I-2.0473 J1.76027
G3 X-391.20658 Y-28.10368 I-7.13277 J5.26988
G3 X-388.64379 Y-30.62619 I3.59125 J1.08548
G0 Z3.0
G0 X-389.51161 Y-23.33189
G0 Z1.0
G1 F300.0 Z-3.0
G3 F800.0 X-389.57549 Y-22.83858 I-2.6982 J-0.09861
G3 X-390.45167 Y-20.64832 I-7.24514 J-1.62792
G3 X-391.01354 Y-19.98382 I-2.31574 J-1.38829
G2 X-391.17142 Y-19.84281 I3.12915 J3.66245
G3 X-390.5448 Y-18.2215 I-39.5398 J16.21347
G2 X-390.18057 Y-18.36042 I-0.28131 J-1.28447
G3 X-389.86441 Y-18.51242 I1.32553 J2.35223
G3 X-388.43884 Y-18.93138 I2.85864 J7.09221
G3 X-388.09904 Y-22.20362 I4.67231 J-1.16858
G3 X-389.51161 Y-23.33189 I3.45716 J-5.77671
G1 F300.0 X-388.64533 Y-24.15881
G3 F800.0 X-389.37018 Y-25.10373 I4.00344 J-3.82152
G3 X-390.0482 Y-26.26496 I3.15162 J-2.61873
G3 X-390.11335 Y-26.48587 I1.4019 J-0.53354
G3 X-388.14986 Y-29.51575 I2.49802 J-0.53233
G3 X-387.96463 Y-29.54344 I0.31392 J1.46678
G2 X-386.88191 Y-29.66391 I-1.87611 J-21.78767
G2 X-386.14039 Y-29.99505 I-0.68778 J-2.53596
G3 X-386.08885 Y-30.027 I0.81595 J1.25866
G3 X-384.21777 Y-31.10403 I44.25104 J74.71187
G3 X-383.98321 Y-31.2099 I0.73209 J1.30921
G3 X-382.69972 Y-31.47092 I1.58522 J4.50871
G3 X-381.60695 Y-31.69015 I1.89327 J6.60393
G3 X-381.24299 Y-31.68839 I0.17478 J1.48978
G3 X-380.63689 Y-31.60963 I-13.89519 J109.29432
G3 X-380.38645 Y-32.89152 I3.32528 J-0.01575
G3 X-379.78519 Y-35.10954 I7.4549 J0.83037
G2 X-379.476 Y-36.63538 I-4.66834 J-1.74021
G3 X-379.35681 Y-37.16008 I1.49861 J0.06454
G2 X-379.02782 Y-37.93346 I-256.90507 J-109.74044
G2 X-378.87593 Y-39.28003 I-26.57026 J-3.67896
G3 X-378.82243 Y-39.5668 I1.49432 J0.13043
G3 X-378.25887 Y-41.44698 I100.69127 J29.15621
G3 X-377.89839 Y-43.52554 I36.56379 J5.27057
G3 X-377.7692 Y-43.89959 I1.47002 J0.29841
G2 X-377.45596 Y-44.96371 I-2.79078 J-1.39966
G3 X-377.40584 Y-45.21841 I1.49131 J0.16121
G3 X-376.54513 Y-46.74484 I3.65397 J1.05448
G2 X-378.21209 Y-48.66972 I-18.27259 J14.13992
G3 X-379.43773 Y-50.08926 I6.69625 J-7.0205
G2 X-379.74586 Y-50.37649 I-2.33972 J2.20105
G3 X-379.76001 Y-50.38819 I0.94866 J-1.16191
G3 X-381.21994 Y-51.74461 I12.37136 J-14.77931
G3 X-381.2535 Y-51.78034 I1.07643 J-1.04465
G2 X-383.08117 Y-53.14612 I-4.43991 J4.03567
G3 X-384.42127 Y-53.90957 I1.72583 J-4.58726
G2 X-384.88884 Y-54.05527 I-0.8559 J1.92352
G3 X-385.13142 Y-54.12228 I0.27667 J-1.47426
G3 X-386.05837 Y-54.55337 I2.16479 J-5.86688
G2 X-388.03831 Y-54.87882 I-2.35322 J8.13097
G3 X-388.253 Y-54.90388 I0.06615 J-1.49854
G3 X-388.76798 Y-55.03065 I0.93669 J-4.91466
G2 X-392.32644 Y-54.76807 I-1.43629 J4.77881
G2 X-393.50855 Y-53.79069 I9.48853 J12.67964
G2 X-393.70171 Y-53.44666 I1.12846 J0.85982
G3 X-393.9188 Y-53.06628 I-1.39735 J-0.54535
G2 X-394.27036 Y-52.42686 I1.77527 J1.39243
G2 X-394.24411 Y-51.12833 I6.44405 J0.51924
G3 X-391.32678 Y-51.22808 I1.51742 J1.66856
G3 X-390.50082 Y-48.85937 I-1.41695 J1.82244
G3 X-390.418 Y-48.94804 I1.13671 J0.97871
G2 X-390.25339 Y-49.21377 I-0.46745 J-0.47343
G3 X-390.19143 Y-49.37163 I1.42504 J0.46826
G3 X-387.98786 Y-51.20438 I3.01632 J1.38551
G3 X-387.8855 Y-51.22647 I0.36729 J1.45434
G3 X-386.77595 Y-51.32955 I1.16038 J6.46688
G3 X-385.0413 Y-51.35739 I0.94641 J4.91468
G3 X-384.64651 Y-51.23692 I-0.23624 J1.48128
G3 X-384.27069 Y-51.0503 I-3.30763 J7.13294
G3 X-382.2485 Y-51.53825 I1.43788 J1.52474
G3 X-382.00323 Y-51.44301 I-0.41821 J1.44052
G3 X-380.35416 Y-49.79063 I-1.60162 J3.24747
G3 X-379.87346 Y-46.57128 I-2.89875 J2.07839
G3 X-380.61497 Y-44.77857 I-13.47242 J-4.52287
G3 X-380.62668 Y-44.75548 I-1.34374 J-0.66661
G3 X-381.60104 Y-43.35353 I-5.86584 J-3.03723
G3 X-382.86595 Y-41.58896 I-14.48432 J-9.04723
G3 X-383.58143 Y-40.60678 I-5.68529 J-3.38983
G3 X-383.81163 Y-39.93951 I-1.49328 J-0.14183
G3 X-384.58804 Y-39.11192 I-2.61432 J-1.67466
G2 X-384.90942 Y-38.40483 I1.55522 J1.13343
G3 X-384.91955 Y-38.36304 I-1.46273 J-0.33231
G2 X-385.10324 Y-36.96938 I5.6383 J1.4521
G3 X-385.21842 Y-36.40782 I-1.49992 J-0.01506
G3 X-389.48886 Y-36.77776 I-2.07634 J-0.8646
G3 X-389.50131 Y-36.83891 I1.46327 J-0.3299
G3 X-389.33412 Y-38.92755 I4.00901 J-0.73009
G3 X-389.16612 Y-39.93384 I18.44237 J2.56173
G3 X-389.61822 Y-39.75538 I-3.97211 J-9.40077
G3 X-389.65617 Y-39.74201 I-0.51737 J-1.40795
G2 X-390.33769 Y-39.41158 I0.96217 J2.85251
G3 X-390.67265 Y-39.2485 I-0.819 J-1.25668
G2 X-391.79813 Y-38.85817 I36.61447 J107.3929
G3 X-392.01083 Y-38.80032 I-0.49893 J-1.41459
G2 X-392.71379 Y-38.60273 I0.85022 J4.37387
G2 X-392.66025 Y-38.08524 I9.76739 J-0.74899
G3 X-392.6478 Y-37.87101 I-1.48741 J0.19393
G3 X-392.84702 Y-36.4928 I-5.36993 J-0.07271
G3 X-393.18198 Y-35.88832 I-1.44422 J-0.40525
G3 X-394.88547 Y-35.05771 I-1.8956 J-1.72552
G2 X-394.73847 Y-34.28853 I36.0503 J-6.49128
G3 X-394.7338 Y-34.26443 I-1.47024 J0.29732
G2 X-394.47127 Y-33.59112 I1.895 J-0.35104
G3 X-394.29711 Y-33.19728 I-1.27057 J0.79727
G3 X-394.06919 Y-31.75022 I-6.09065 J1.70078
G3 X-393.86421 Y-31.42112 I-1.16005 J0.95093
G3 X-393.35869 Y-29.77066 I-6.04811 J2.75513
G2 X-392.79834 Y-28.5846 I11.46843 J-4.69285
G3 X-392.62963 Y-28.05308 I-1.32044 J0.71165
G2 X-392.5071 Y-27.81077 I0.39546 J-0.04784
G3 X-392.32841 Y-27.60954 I-1.02775 J1.09258
G3 X-391.78507 Y-26.76313 I-6.16761 J4.5568
G3 X-390.99754 Y-25.07974 I-2.40547 J2.15125
G3 X-390.7125 Y-23.52037 I-6.27837 J1.95334
G3 X-390.7463 Y-23.10166 I-1.4973 J0.08988
G3 X-391.48089 Y-21.26533 I-6.07433 J-1.36485
G3 X-391.79304 Y-20.89617 I-1.28652 J-0.77127
G2 X-392.57657 Y-20.0883 I3.90865 J4.5748
G3 X-391.6401 Y-17.72176 I-38.13465 J16.45895
G3 X-391.21967 Y-16.664 I-6.94092 J3.37124
G3 X-391.00801 Y-16.80137 I26.4212 J40.47782
G3 X-390.43059 Y-17.02235 I0.81333 J1.26036
G2 X-389.59144 Y-17.31499 I-0.39552 J-2.48362
G3 X-389.4158 Y-17.39943 I0.73641 J1.30679
G3 X-386.90804 Y-17.86612 I2.41003 J5.97922
G3 X-386.77477 Y-17.9253 I0.67464 J1.33972
G3 X-386.54208 Y-18.01124 I2.89443 J7.47905
G3 X-387.08035 Y-18.698 I2.20209 J-2.28028
G3 X-387.21178 Y-18.99329 I1.2967 J-0.75403
G3 X-386.28742 Y-22.69603 I3.44525 J-1.10667
G3 X-388.64533 Y-24.15881 I1.64554 J-5.2843
G0 Z3.0
G0 X-373.06271 Y-21.51649
G0 Z1.0
G1 F300.0 Z-3.0
G3 F800.0 X-372.72366 Y-21.48318 I-0.27022 J4.49188
G3 X-372.80916 Y-21.99814 I42.383 J-7.30187
G2 X-373.06271 Y-21.51649 I30.65305 J16.44347
G1 F300.0 X-373.59581 Y-21.79181
G2 F800.0 X-373.70067 Y-21.58714 I31.43969 J16.23714
G3 X-374.01794 Y-20.9517 I-7.01643 J-3.10631
G2 X-373.39035 Y-20.92419 I0.54855 J-5.34071
G3 X-372.7351 Y-20.87852 I0.05742 J3.89958
G3 X-371.97774 Y-20.73888 I-2.07636 J13.38539
G3 X-372.45739 Y-23.82847 I41.63708 J-8.04617
G2 X-373.59581 Y-21.79181 I30.30128 J18.27379
G1 F300.0 X-374.66201 Y-22.34246
G2 F800.0 X-374.78569 Y-22.10079 I32.50589 J16.78779
G3 X-376.03412 Y-20.2243 I-5.93141 J-2.59266
G3 X-374.70186 Y-19.84026 I-1.02782 J6.06849
G2 X-373.37268 Y-19.72432 I1.23247 J-6.45215
G3 X-372.91905 Y-19.6927 I0.03975 J2.69971
G3 X-370.5064 Y-19.06366 I-1.89241 J12.19957
G3 X-370.57522 Y-20.14241 I32.66704 J-2.62565
G3 X-370.74323 Y-20.68065 I2.47925 J-1.06926
G3 X-371.4259 Y-25.6145 I40.40258 J-8.1044
G2 X-371.56927 Y-25.95451 I-2.07932 J0.67655
G3 X-371.8609 Y-26.89942 I2.39048 J-1.25523
G2 X-372.01988 Y-28.16995 I-68.46882 J7.92198
G3 X-372.02633 Y-28.2217 I2.67588 J-0.3601
G3 X-372.18988 Y-29.70851 I151.75988 J-17.44583
G3 X-372.21954 Y-29.82421 I14.96749 J-3.8984
G2 X-372.82044 Y-29.60521 I3.57352 J10.73938
G3 X-373.41269 Y-29.4452 I-0.99582 J-2.50965
G2 X-373.73963 Y-29.39239 I2.45224 J16.22187
G3 X-373.0483 Y-25.19389 I-2.19355 J2.51737
G3 X-373.08021 Y-25.14054 I-2.33073 J-1.35821
G2 X-373.12 Y-25.06812 I0.7301 J0.44831
G3 X-373.2513 Y-24.83037 I-2.4241 J-1.18354
G2 X-374.66201 Y-22.34246 I31.09518 J19.2757
G1 F300.0 X-375.72608 Y-22.892
G2 F800.0 X-375.87021 Y-22.61003 I33.56996 J17.33733
G3 X-377.10965 Y-20.84387 I-4.84689 J-2.08341
G3 X-378.23974 Y-19.63815 I-6.27177 J-4.74592
G3 X-378.48065 Y-19.4683 I-0.98061 J-1.13508
G3 X-379.10544 Y-19.11679 I-54.97004 J-96.975
G3 X-379.0745 Y-19.11678 I0.01523 J1.49992
G2 X-377.19741 Y-19.10888 I1.5704 J-149.96334
G3 X-375.05952 Y-18.68808 I0.13546 J4.95306
G2 X-373.35501 Y-18.52445 I1.59012 J-7.60433
G3 X-373.103 Y-18.50688 I0.02208 J1.49984
G3 X-369.79239 Y-17.44454 I-1.70847 J11.01375
G2 X-369.07927 Y-17.11949 I4.5492 J-9.03545
G3 X-369.38431 Y-20.37342 I31.23991 J-4.56983
G2 X-369.45694 Y-20.581 I-1.0991 J0.26808
G3 X-369.56667 Y-20.91665 I1.36098 J-0.63067
G3 X-370.23898 Y-25.83286 I39.22602 J-7.86839
G2 X-370.50683 Y-26.51239 I-3.26624 J0.89492
G3 X-370.66885 Y-27.03734 I1.32804 J-0.69735
G2 X-370.8306 Y-28.33 I-69.66086 J8.05991
G3 X-370.83418 Y-28.35874 I1.4866 J-0.20005
G3 X-371.00602 Y-29.92528 I150.56773 J-17.30879
G3 X-371.28949 Y-31.22792 I13.78363 J-3.68163
G3 X-371.73065 Y-31.14523 I-15.83591 J-83.27415
G3 X-372.3558 Y-31.04082 I-2.10678 J-10.69059
G2 X-373.26303 Y-30.72061 I3.70979 J11.956
G3 X-373.59205 Y-30.63171 I-0.55323 J-1.39425
G2 X-375.16253 Y-30.32069 I2.6316 J17.40839
G3 X-377.43378 Y-29.37018 I-19.17424 J-42.6281
G3 X-377.40102 Y-28.64156 I-3.41567 J0.51862
G3 X-375.28117 Y-28.91173 I1.37694 J2.35233
G3 X-375.12127 Y-28.85652 I-0.40883 J1.44321
G3 X-374.08303 Y-25.79687 I-0.81191 J1.98149
G3 X-374.10077 Y-25.7672 I-1.296 J-0.75523
G2 X-374.19619 Y-25.59356 I1.75066 J1.07497
G3 X-374.26919 Y-25.46135 I-1.34792 J-0.65811
G2 X-375.72608 Y-22.892 I32.11308 J19.90668
( TascheGeli3 )
S1000
G0 Z3.0
G0 X-115.56854 Y-213.97521
G0 Z1.0
G1 F300.0 Z-2.0
G3 F800.0 X-115.75234 Y-214.24043 I3.60434 J-2.6942
G3 X-115.93895 Y-213.9885 I-3.70717 J-2.55086
G3 X-115.56854 Y-213.97521 I-2.31211 J69.65352
G1 F300.0 X-115.59164 Y-213.37566
G3 F800.0 X-113.91167 Y-213.29046 I-2.65942 J69.04069
G3 X-115.72938 Y-215.65283 I1.94747 J-3.37896
G3 X-117.49414 Y-213.42271 I-3.73014 J-1.13846
G3 X-115.59164 Y-213.37566 I-0.75692 J69.08774
G1 F300.0 X-115.63783 Y-212.17655
G3 F800.0 X-110.33941 Y-211.7643 I-2.61323 J67.84158
G3 X-110.15254 Y-211.73571 I-0.31464 J2.6816
G2 X-109.00851 Y-212.57098 I0.18035 J-0.95407
G2 X-109.75205 Y-213.64574 I-0.98468 J-0.11336
G2 X-112.10434 Y-213.97305 I-3.06714 J13.42638
G3 X-114.637 Y-216.28712 I0.14014 J-2.69636
G2 X-116.95632 Y-220.68044 I-7.29792 J1.04384
G3 X-117.03002 Y-220.75053 I1.82337 J-1.99131
G2 X-139.87305 Y-219.46222 I-10.83877 J10.97677
G2 X-144.15116 Y-206.28544 I17.26049 J12.88685
G3 X-144.15175 Y-206.18198 I-2.69976 J0.03634
G2 X-139.89527 Y-190.51923 I28.3514 J0.70501
G3 X-139.83329 Y-190.41417 I-2.29393 J1.42404
G2 X-130.13154 Y-183.54149 I12.07351 J-6.75942
G2 X-122.43731 Y-186.06649 I1.11074 J-9.60082
G2 X-117.07642 Y-196.06996 I-14.18018 J-14.03739
G3 X-117.05437 Y-196.16758 I2.64425 J0.54586
G2 X-118.9616 Y-196.72888 I-0.96641 J-0.23715
G3 X-123.52332 Y-187.73527 I-17.67828 J-3.31304
G3 X-123.67131 Y-187.58923 I-1.96901 J-1.84743
G3 X-134.69009 Y-187.68396 I-5.45842 J-5.97535
G3 X-141.22198 Y-198.43646 I12.20162 J-14.77242
G3 X-141.84986 Y-210.51395 I29.15683 J-7.57087
G3 X-141.83385 Y-210.60838 I2.66961 J0.40393
G3 X-137.31154 Y-219.3928 I16.99138 J3.19106
G3 X-137.23924 Y-219.46527 I1.94734 J1.87026
G3 X-122.76947 Y-222.35163 I9.4826 J9.82492
G3 X-122.6327 Y-222.29358 I-0.98614 J2.51347
G3 X-117.51355 Y-218.66298 I-6.98413 J15.27193
G3 X-119.406 Y-214.09182 I-1.94596 J1.87169
G2 X-126.44434 Y-213.65063 I1.63397 J82.42981
G2 X-126.13388 Y-211.75652 I0.11474 J0.95369
G3 X-125.88742 Y-211.79603 I0.55015 J2.64336
G3 X-115.63783 Y-212.17655 I7.63637 J67.46106
G1 F300.0 X-115.68402 Y-210.97744
G3 F800.0 X-110.47925 Y-210.57248 I-2.56704 J66.64246
G3 X-110.37543 Y-210.55659 I-0.1748 J1.48978
G2 X-107.81694 Y-212.42896 I0.40324 J-2.13319
G2 X-109.47461 Y-214.81327 I-2.17625 J-0.25538
G2 X-112.04206 Y-215.17144 I-3.34458 J14.59391
G3 X-113.44909 Y-216.45703 I0.07786 J-1.49798
G2 X-116.14593 Y-221.56547 I-8.48583 J1.21375
G3 X-116.18688 Y-221.60441 I1.01298 J-1.10629
G2 X-140.82114 Y-220.19816 I-11.68191 J11.83065
G2 X-145.35106 Y-206.26929 I18.20858 J13.6228
G3 X-145.35138 Y-206.21181 I-1.49986 J0.02019
G2 X-140.9148 Y-189.88633 I29.55103 J0.73484
G3 X-140.88036 Y-189.82796 I-1.27441 J0.79113
G2 X-130.30376 Y-182.35346 I13.12058 J-7.34563
G2 X-121.6016 Y-185.20502 I1.28296 J-10.78884
G2 X-115.9012 Y-195.82736 I-15.01589 J-14.89887
G3 X-115.88895 Y-195.88159 I1.46903 J0.30326
G2 X-120.12843 Y-197.01812 I-2.13184 J-0.52314
G3 X-124.39843 Y-188.55635 I-16.51145 J-3.02379
G3 X-124.48065 Y-188.47521 I-1.09389 J-1.02635
G3 X-133.8941 Y-188.58296 I-4.64908 J-5.08936
G3 X-140.05401 Y-198.71312 I11.40562 J-13.87342
G3 X-140.66336 Y-210.33442 I27.98886 J-7.29421
G3 X-140.65447 Y-210.38689 I1.48312 J0.22441
G3 X-136.44606 Y-218.56157 I15.81199 J2.96957
G3 X-136.40589 Y-218.60184 I1.08186 J1.03903
G3 X-123.20775 Y-221.23454 I8.64924 J8.96149
G3 X-123.13177 Y-221.20229 I-0.54786 J1.39637
G3 X-118.37842 Y-217.83112 I-6.48506 J14.18063
G3 X-119.42979 Y-215.29158 I-1.08109 J1.03983
G2 X-126.57745 Y-214.84325 I1.65776 J83.62958
G2 X-125.88937 Y-210.5817 I0.24785 J2.14631
G3 X-125.75245 Y-210.60365 I0.30564 J1.46853
G3 X-115.68402 Y-210.97744 I7.50139 J66.26867
G0 Z3.0
G0 X-115.56854 Y-213.97521
G0 Z-1.0
G1 F300.0 Z-4.0
G3 F800.0 X-115.75234 Y-214.24043 I3.60434 J-2.6942
G3 X-115.93895 Y-213.9885 I-3.70717 J-2.55086
G3 X-115.56854 Y-213.97521 I-2.31211 J69.65352
G1 F300.0 X-115.59164 Y-213.37566
G3 F800.0 X-113.91167 Y-213.29046 I-2.65942 J69.04069
G3 X-115.72938 Y-215.65283 I1.94747 J-3.37896
G3 X-117.49414 Y-213.42271 I-3.73014 J-1.13846
G3 X-115.59164 Y-213.37566 I-0.75692 J69.08774
G1 F300.0 X-115.63783 Y-212.17655
G3 F800.0 X-110.33941 Y-211.7643 I-2.61323 J67.84158
G3 X-110.15254 Y-211.73571 I-0.31464 J2.6816
G2 X-109.00851 Y-212.57098 I0.18035 J-0.95407
G2 X-109.75205 Y-213.64574 I-0.98468 J-0.11336
G2 X-112.10434 Y-213.97305 I-3.06714 J13.42638
G3 X-114.637 Y-216.28712 I0.14014 J-2.69636
G2 X-116.95632 Y-220.68044 I-7.29792 J1.04384
G3 X-117.03002 Y-220.75053 I1.82337 J-1.99131
G2 X-139.87305 Y-219.46222 I-10.83877 J10.97677
G2 X-144.15116 Y-206.28544 I17.26049 J12.88685
G3 X-144.15175 Y-206.18198 I-2.69976 J0.03634
G2 X-139.89527 Y-190.51923 I28.3514 J0.70501
G3 X-139.83329 Y-190.41417 I-2.29393 J1.42404
G2 X-130.13154 Y-183.54149 I12.07351 J-6.75942
G2 X-122.43731 Y-186.06649 I1.11074 J-9.60082
G2 X-117.07642 Y-196.06996 I-14.18018 J-14.03739
G3 X-117.05437 Y-196.16758 I2.64425 J0.54586
G2 X-118.9616 Y-196.72888 I-0.96641 J-0.23715
G3 X-123.52332 Y-187.73527 I-17.67828 J-3.31304
G3 X-123.67131 Y-187.58923 I-1.96901 J-1.84743
G3 X-134.69009 Y-187.68396 I-5.45842 J-5.97535
G3 X-141.22198 Y-198.43646 I12.20162 J-14.77242
G3 X-141.84986 Y-210.51395 I29.15683 J-7.57087
G3 X-141.83385 Y-210.60838 I2.66961 J0.40393
G3 X-137.31154 Y-219.3928 I16.99138 J3.19106
G3 X-137.23924 Y-219.46527 I1.94734 J1.87026
G3 X-122.76947 Y-222.35163 I9.4826 J9.82492
G3 X-122.6327 Y-222.29358 I-0.98614 J2.51347
G3 X-117.51355 Y-218.66298 I-6.98413 J15.27193
G3 X-119.406 Y-214.09182 I-1.94596 J1.87169
G2 X-126.44434 Y-213.65063 I1.63397 J82.42981
G2 X-126.13388 Y-211.75652 I0.11474 J0.95369
G3 X-125.88742 Y-211.79603 I0.55015 J2.64336
G3 X-115.63783 Y-212.17655 I7.63637 J67.46106
G1 F300.0 X-115.68402 Y-210.97744
G3 F800.0 X-110.47925 Y-210.57248 I-2.56704 J66.64246
G3 X-110.37543 Y-210.55659 I-0.1748 J1.48978
G2 X-107.81694 Y-212.42896 I0.40324 J-2.13319
G2 X-109.47461 Y-214.81327 I-2.17625 J-0.25538
G2 X-112.04206 Y-215.17144 I-3.34458 J14.59391
G3 X-113.44909 Y-216.45703 I0.07786 J-1.49798
G2 X-116.14593 Y-221.56547 I-8.48583 J1.21375
G3 X-116.18688 Y-221.60441 I1.01298 J-1.10629
G2 X-140.82114 Y-220.19816 I-11.68191 J11.83065
G2 X-145.35106 Y-206.26929 I18.20858 J13.6228
G3 X-145.35138 Y-206.21181 I-1.49986 J0.02019
G2 X-140.9148 Y-189.88633 I29.55103 J0.73484
G3 X-140.88036 Y-189.82796 I-1.27441 J0.79113
G2 X-130.30376 Y-182.35346 I13.12058 J-7.34563
G2 X-121.6016 Y-185.20502 I1.28296 J-10.78884
G2 X-115.9012 Y-195.82736 I-15.01589 J-14.89887
G3 X-115.88895 Y-195.88159 I1.46903 J0.30326
G2 X-120.12843 Y-197.01812 I-2.13184 J-0.52314
G3 X-124.39843 Y-188.55635 I-16.51145 J-3.02379
G3 X-124.48065 Y-188.47521 I-1.09389 J-1.02635
G3 X-133.8941 Y-188.58296 I-4.64908 J-5.08936
G3 X-140.05401 Y-198.71312 I11.40562 J-13.87342
G3 X-140.66336 Y-210.33442 I27.98886 J-7.29421
G3 X-140.65447 Y-210.38689 I1.48312 J0.22441
G3 X-136.44606 Y-218.56157 I15.81199 J2.96957
G3 X-136.40589 Y-218.60184 I1.08186 J1.03903
G3 X-123.20775 Y-221.23454 I8.64924 J8.96149
G3 X-123.13177 Y-221.20229 I-0.54786 J1.39637
G3 X-118.37842 Y-217.83112 I-6.48506 J14.18063
G3 X-119.42979 Y-215.29158 I-1.08109 J1.03983
G2 X-126.57745 Y-214.84325 I1.65776 J83.62958
G2 X-125.88937 Y-210.5817 I0.24785 J2.14631
G3 X-125.75245 Y-210.60365 I0.30564 J1.46853
G3 X-115.68402 Y-210.97744 I7.50139 J66.26867
G0 Z3.0
G0 X-115.56854 Y-213.97521
G0 Z-3.0
G1 F300.0 Z-6.0
G3 F800.0 X-115.75234 Y-214.24043 I3.60434 J-2.6942
G3 X-115.93895 Y-213.9885 I-3.70717 J-2.55086
G3 X-115.56854 Y-213.97521 I-2.31211 J69.65352
G1 F300.0 X-115.59164 Y-213.37566
G3 F800.0 X-113.91167 Y-213.29046 I-2.65942 J69.04069
G3 X-115.72938 Y-215.65283 I1.94747 J-3.37896
G3 X-117.49414 Y-213.42271 I-3.73014 J-1.13846
G3 X-115.59164 Y-213.37566 I-0.75692 J69.08774
G1 F300.0 X-115.63783 Y-212.17655
G3 F800.0 X-110.33941 Y-211.7643 I-2.61323 J67.84158
G3 X-110.15254 Y-211.73571 I-0.31464 J2.6816
G2 X-109.00851 Y-212.57098 I0.18035 J-0.95407
G2 X-109.75205 Y-213.64574 I-0.98468 J-0.11336
G2 X-112.10434 Y-213.97305 I-3.06714 J13.42638
G3 X-114.637 Y-216.28712 I0.14014 J-2.69636
G2 X-116.95632 Y-220.68044 I-7.29792 J1.04384
G3 X-117.03002 Y-220.75053 I1.82337 J-1.99131
G2 X-139.87305 Y-219.46222 I-10.83877 J10.97677
G2 X-144.15116 Y-206.28544 I17.26049 J12.88685
G3 X-144.15175 Y-206.18198 I-2.69976 J0.03634
G2 X-139.89527 Y-190.51923 I28.3514 J0.70501
G3 X-139.83329 Y-190.41417 I-2.29393 J1.42404
G2 X-130.13154 Y-183.54149 I12.07351 J-6.75942
G2 X-122.43731 Y-186.06649 I1.11074 J-9.60082
G2 X-117.07642 Y-196.06996 I-14.18018 J-14.03739
G3 X-117.05437 Y-196.16758 I2.64425 J0.54586
G2 X-118.9616 Y-196.72888 I-0.96641 J-0.23715
G3 X-123.52332 Y-187.73527 I-17.67828 J-3.31304
G3 X-123.67131 Y-187.58923 I-1.96901 J-1.84743
G3 X-134.69009 Y-187.68396 I-5.45842 J-5.97535
G3 X-141.22198 Y-198.43646 I12.20162 J-14.77242
G3 X-141.84986 Y-210.51395 I29.15683 J-7.57087
G3 X-141.83385 Y-210.60838 I2.66961 J0.40393
G3 X-137.31154 Y-219.3928 I16.99138 J3.19106
G3 X-137.23924 Y-219.46527 I1.94734 J1.87026
G3 X-122.76947 Y-222.35163 I9.4826 J9.82492
G3 X-122.6327 Y-222.29358 I-0.98614 J2.51347
G3 X-117.51355 Y-218.66298 I-6.98413 J15.27193
G3 X-119.406 Y-214.09182 I-1.94596 J1.87169
G2 X-126.44434 Y-213.65063 I1.63397 J82.42981
G2 X-126.13388 Y-211.75652 I0.11474 J0.95369
G3 X-125.88742 Y-211.79603 I0.55015 J2.64336
G3 X-115.63783 Y-212.17655 I7.63637 J67.46106
G1 F300.0 X-115.68402 Y-210.97744
G3 F800.0 X-110.47925 Y-210.57248 I-2.56704 J66.64246
G3 X-110.37543 Y-210.55659 I-0.1748 J1.48978
G2 X-107.81694 Y-212.42896 I0.40324 J-2.13319
G2 X-109.47461 Y-214.81327 I-2.17625 J-0.25538
G2 X-112.04206 Y-215.17144 I-3.34458 J14.59391
G3 X-113.44909 Y-216.45703 I0.07786 J-1.49798
G2 X-116.14593 Y-221.56547 I-8.48583 J1.21375
G3 X-116.18688 Y-221.60441 I1.01298 J-1.10629
G2 X-140.82114 Y-220.19816 I-11.68191 J11.83065
G2 X-145.35106 Y-206.26929 I18.20858 J13.6228
G3 X-145.35138 Y-206.21181 I-1.49986 J0.02019
G2 X-140.9148 Y-189.88633 I29.55103 J0.73484
G3 X-140.88036 Y-189.82796 I-1.27441 J0.79113
G2 X-130.30376 Y-182.35346 I13.12058 J-7.34563
G2 X-121.6016 Y-185.20502 I1.28296 J-10.78884
G2 X-115.9012 Y-195.82736 I-15.01589 J-14.89887
G3 X-115.88895 Y-195.88159 I1.46903 J0.30326
G2 X-120.12843 Y-197.01812 I-2.13184 J-0.52314
G3 X-124.39843 Y-188.55635 I-16.51145 J-3.02379
G3 X-124.48065 Y-188.47521 I-1.09389 J-1.02635
G3 X-133.8941 Y-188.58296 I-4.64908 J-5.08936
G3 X-140.05401 Y-198.71312 I11.40562 J-13.87342
G3 X-140.66336 Y-210.33442 I27.98886 J-7.29421
G3 X-140.65447 Y-210.38689 I1.48312 J0.22441
G3 X-136.44606 Y-218.56157 I15.81199 J2.96957
G3 X-136.40589 Y-218.60184 I1.08186 J1.03903
G3 X-123.20775 Y-221.23454 I8.64924 J8.96149
G3 X-123.13177 Y-221.20229 I-0.54786 J1.39637
G3 X-118.37842 Y-217.83112 I-6.48506 J14.18063
G3 X-119.42979 Y-215.29158 I-1.08109 J1.03983
G2 X-126.57745 Y-214.84325 I1.65776 J83.62958
G2 X-125.88937 Y-210.5817 I0.24785 J2.14631
G3 X-125.75245 Y-210.60365 I0.30564 J1.46853
G3 X-115.68402 Y-210.97744 I7.50139 J66.26867
G0 Z3.0
G0 X-99.57449 Y-213.66047
G0 Z1.0
G1 F300.0 Z-2.0
G3 F800.0 X-98.76345 Y-214.25851 I3.05794 J3.29809
G3 X-99.49238 Y-215.01621 I2.85628 J-3.47731
G2 X-99.57449 Y-213.66047 I9.8018 J1.27398
G1 F300.0 X-100.17446 Y-213.65551
G2 F800.0 X-100.17334 Y-213.56616 I10.48389 J-0.08672
G3 X-100.1898 Y-213.13685 I-3.89945 J0.0655
G2 X-100.23451 Y-211.53201 I12.19762 J1.14285
G3 X-97.48727 Y-214.13716 I3.71796 J1.16963
G3 X-97.43935 Y-214.1494 I3.40214 J13.22965
G3 X-99.70455 Y-216.84704 I1.53218 J-3.58642
G2 X-100.17446 Y-213.65551 I10.01397 J3.10481
G0 Z3.0
G0 X-98.52138 Y-212.16728
G0 Z1.0
G1 F300.0 Z-2.0
G3 F800.0 X-97.1884 Y-212.97498 I2.00484 J1.8049
G3 X-86.94723 Y-211.12047 I3.10327 J12.06747
G3 X-83.88661 Y-205.8935 I-2.74583 J5.11736
G3 X-83.92626 Y-205.48083 I-2.69712 J-0.05092
G3 X-89.2047 Y-200.96252 I-5.37578 J-0.93779
G3 X-96.59026 Y-204.35141 I-0.45638 J-8.74768
G3 X-99.18564 Y-209.97126 I8.21777 J-7.2044
G3 X-98.52138 Y-212.16728 I2.66909 J-0.39113
G1 F300.0 X-97.63133 Y-211.366
G3 F800.0 X-96.89013 Y-211.81512 I1.11479 J1.00362
G3 X-87.57379 Y-210.09698 I2.805 J10.9076
G3 X-85.084 Y-205.9161 I-2.11928 J4.09387
G3 X-85.10605 Y-205.68664 I-1.49973 J-0.02831
G3 X-89.24608 Y-202.15962 I-4.196 J-0.73198
G3 X-95.6652 Y-205.11302 I-0.415 J-7.55058
G3 X-98.00069 Y-210.1449 I7.29271 J-6.44278
G3 X-97.63133 Y-211.366 I1.48415 J-0.21749
G0 Z3.0
G0 X-101.41477 Y-211.1195
G0 Z1.0
G1 F300.0 Z-2.0
G2 F800.0 X-94.33025 Y-200.1298 I13.42259 J-0.8745
G3 X-94.2682 Y-200.09559 I-1.27223 J2.38148
G2 X-84.8372 Y-200.40057 I4.46634 J-7.85717
G3 X-84.83017 Y-200.40518 I1.48315 J2.25616
G2 X-82.54806 Y-208.71553 I-3.55508 J-5.44479
G3 X-82.56345 Y-208.74741 I2.4237 J-1.18983
G2 X-88.98097 Y-214.33843 I-9.62528 J4.56954
G3 X-89.05751 Y-214.36386 I0.81286 J-2.57473
G2 X-95.57357 Y-215.05651 I-4.73866 J13.58254
G3 X-97.68981 Y-219.76367 I-0.3336 J-2.67931
G3 X-95.1277 Y-221.91458 I48.51566 J55.18929
G3 X-94.97826 Y-222.0261 I1.6885 J2.10689
G3 X-84.70237 Y-221.85389 I5.01817 J7.23319
G3 X-84.59798 Y-221.7721 I-1.61253 J2.16558
G3 X-82.94776 Y-219.49615 I-3.55339 J4.31271
G2 X-81.15612 Y-220.23643 I0.89485 J-0.37248
G2 X-85.73123 Y-224.53862 I-7.09126 J2.95735
G3 X-85.90035 Y-224.60367 I0.88421 J-2.55111
G2 X-89.84055 Y-225.42552 I-4.04916 J9.55674
G2 X-101.37318 Y-213.54601 I0.14997 J11.68329
G3 X-101.38457 Y-213.24879 I-2.69962 J0.04534
G2 X-101.41477 Y-211.1195 I13.39239 J1.25479
G1 F300.0 X-102.61223 Y-211.04149
G2 F800.0 X-94.89569 Y-199.07136 I14.62005 J-0.95252
G3 X-94.86121 Y-199.05236 I-0.70679 J1.32304
G2 X-84.17802 Y-199.39784 I5.05936 J-8.9004
G3 X-84.17412 Y-199.40039 I0.82397 J1.25342
G2 X-81.47086 Y-209.24434 I-4.21114 J-6.44957
G3 X-81.47941 Y-209.26205 I1.3465 J-0.66101
G2 X-88.6197 Y-215.48276 I-10.70932 J5.08418
G3 X-88.66222 Y-215.49688 I0.45159 J-1.43041
G2 X-95.72184 Y-216.24731 I-5.13395 J14.71556
G3 X-96.89753 Y-218.86241 I-0.18533 J-1.48851
G3 X-94.37726 Y-220.97819 I47.72337 J54.28803
G3 X-94.29423 Y-221.04014 I0.93806 J1.17049
G3 X-85.41905 Y-220.8914 I4.33415 J6.24724
G3 X-85.36106 Y-220.84597 I-0.89585 J1.2031
G3 X-84.06174 Y-219.04989 I-2.79032 J3.38658
G2 X-80.04744 Y-220.6956 I2.00884 J-0.81874
G2 X-85.33824 Y-225.67244 I-8.19994 J3.41651
G3 X-85.4322 Y-225.70858 I0.49123 J-1.41728
G2 X-89.84199 Y-226.62559 I-4.51731 J10.66165
G2 X-102.57301 Y-213.52586 I0.15142 J12.88336
G3 X-102.57934 Y-213.36074 I-1.49979 J0.02519
G2 X-102.61223 Y-211.04149 I14.58716 J1.36673
G0 Z3.0
G0 X-99.57449 Y-213.66047
G0 Z-1.0
G1 F300.0 Z-4.0
G3 F800.0 X-98.76345 Y-214.25851 I3.05794 J3.29809
G3 X-99.49238 Y-215.01621 I2.85628 J-3.47731
G2 X-99.57449 Y-213.66047 I9.8018 J1.27398
G1 F300.0 X-100.17446 Y-213.65551
G2 F800.0 X-100.17334 Y-213.56616 I10.48389 J-0.08672
G3 X-100.1898 Y-213.13685 I-3.89945 J0.0655
G2 X-100.23451 Y-211.53201 I12.19762 J1.14285
G3 X-97.48727 Y-214.13716 I3.71796 J1.16963
G3 X-97.43935 Y-214.1494 I3.40214 J13.22965
G3 X-99.70455 Y-216.84704 I1.53218 J-3.58642
G2 X-100.17446 Y-213.65551 I10.01397 J3.10481
G0 Z3.0
G0 X-98.52138 Y-212.16728
G0 Z-1.0
G1 F300.0 Z-4.0
G3 F800.0 X-97.1884 Y-212.97498 I2.00484 J1.8049
G3 X-86.94723 Y-211.12047 I3.10327 J12.06747
G3 X-83.88661 Y-205.8935 I-2.74583 J5.11736
G3 X-83.92626 Y-205.48083 I-2.69712 J-0.05092
G3 X-89.2047 Y-200.96252 I-5.37578 J-0.93779
G3 X-96.59026 Y-204.35141 I-0.45638 J-8.74768
G3 X-99.18564 Y-209.97126 I8.21777 J-7.2044
G3 X-98.52138 Y-212.16728 I2.66909 J-0.39113
G1 F300.0 X-97.63133 Y-211.366
G3 F800.0 X-96.89013 Y-211.81512 I1.11479 J1.00362
G3 X-87.57379 Y-210.09698 I2.805 J10.9076
G3 X-85.084 Y-205.9161 I-2.11928 J4.09387
G3 X-85.10605 Y-205.68664 I-1.49973 J-0.02831
G3 X-89.24608 Y-202.15962 I-4.196 J-0.73198
G3 X-95.6652 Y-205.11302 I-0.415 J-7.55058
G3 X-98.00069 Y-210.1449 I7.29271 J-6.44278
G3 X-97.63133 Y-211.366 I1.48415 J-0.21749
G0 Z3.0
G0 X-101.41477 Y-211.1195
G0 Z-1.0
G1 F300.0 Z-4.0
G2 F800.0 X-94.33025 Y-200.1298 I13.42259 J-0.8745
G3 X-94.2682 Y-200.09559 I-1.27223 J2.38148
G2 X-84.8372 Y-200.40057 I4.46634 J-7.85717
G3 X-84.83017 Y-200.40518 I1.48315 J2.25616
G2 X-82.54806 Y-208.71553 I-3.55508 J-5.44479
G3 X-82.56345 Y-208.74741 I2.4237 J-1.18983
G2 X-88.98097 Y-214.33843 I-9.62528 J4.56954
G3 X-89.05751 Y-214.36386 I0.81286 J-2.57473
G2 X-95.57357 Y-215.05651 I-4.73866 J13.58254
G3 X-97.68981 Y-219.76367 I-0.3336 J-2.67931
G3 X-95.1277 Y-221.91458 I48.51566 J55.18929
G3 X-94.97826 Y-222.0261 I1.6885 J2.10689
G3 X-84.70237 Y-221.85389 I5.01817 J7.23319
G3 X-84.59798 Y-221.7721 I-1.61253 J2.16558
G3 X-82.94776 Y-219.49615 I-3.55339 J4.31271
G2 X-81.15612 Y-220.23643 I0.89485 J-0.37248
G2 X-85.73123 Y-224.53862 I-7.09126 J2.95735
G3 X-85.90035 Y-224.60367 I0.88421 J-2.55111
G2 X-89.84055 Y-225.42552 I-4.04916 J9.55674
G2 X-101.37318 Y-213.54601 I0.14997 J11.68329
G3 X-101.38457 Y-213.24879 I-2.69962 J0.04534
G2 X-101.41477 Y-211.1195 I13.39239 J1.25479
G1 F300.0 X-102.61223 Y-211.04149
G2 F800.0 X-94.89569 Y-199.07136 I14.62005 J-0.95252
G3 X-94.86121 Y-199.05236 I-0.70679 J1.32304
G2 X-84.17802 Y-199.39784 I5.05936 J-8.9004
G3 X-84.17412 Y-199.40039 I0.82397 J1.25342
G2 X-81.47086 Y-209.24434 I-4.21114 J-6.44957
G3 X-81.47941 Y-209.26205 I1.3465 J-0.66101
G2 X-88.6197 Y-215.48276 I-10.70932 J5.08418
G3 X-88.66222 Y-215.49688 I0.45159 J-1.43041
G2 X-95.72184 Y-216.24731 I-5.13395 J14.71556
G3 X-96.89753 Y-218.86241 I-0.18533 J-1.48851
G3 X-94.37726 Y-220.97819 I47.72337 J54.28803
G3 X-94.29423 Y-221.04014 I0.93806 J1.17049
G3 X-85.41905 Y-220.8914 I4.33415 J6.24724
G3 X-85.36106 Y-220.84597 I-0.89585 J1.2031
G3 X-84.06174 Y-219.04989 I-2.79032 J3.38658
G2 X-80.04744 Y-220.6956 I2.00884 J-0.81874
G2 X-85.33824 Y-225.67244 I-8.19994 J3.41651
G3 X-85.4322 Y-225.70858 I0.49123 J-1.41728
G2 X-89.84199 Y-226.62559 I-4.51731 J10.66165
G2 X-102.57301 Y-213.52586 I0.15142 J12.88336
G3 X-102.57934 Y-213.36074 I-1.49979 J0.02519
G2 X-102.61223 Y-211.04149 I14.58716 J1.36673
G0 Z3.0
G0 X-99.57449 Y-213.66047
G0 Z-3.0
G1 F300.0 Z-6.0
G3 F800.0 X-98.76345 Y-214.25851 I3.05794 J3.29809
G3 X-99.49238 Y-215.01621 I2.85628 J-3.47731
G2 X-99.57449 Y-213.66047 I9.8018 J1.27398
G1 F300.0 X-100.17446 Y-213.65551
G2 F800.0 X-100.17334 Y-213.56616 I10.48389 J-0.08672
G3 X-100.1898 Y-213.13685 I-3.89945 J0.0655
G2 X-100.23451 Y-211.53201 I12.19762 J1.14285
G3 X-97.48727 Y-214.13716 I3.71796 J1.16963
G3 X-97.43935 Y-214.1494 I3.40214 J13.22965
G3 X-99.70455 Y-216.84704 I1.53218 J-3.58642
G2 X-100.17446 Y-213.65551 I10.01397 J3.10481
G0 Z3.0
G0 X-98.52138 Y-212.16728
G0 Z-3.0
G1 F300.0 Z-6.0
G3 F800.0 X-97.1884 Y-212.97498 I2.00484 J1.8049
G3 X-86.94723 Y-211.12047 I3.10327 J12.06747
G3 X-83.88661 Y-205.8935 I-2.74583 J5.11736
G3 X-83.92626 Y-205.48083 I-2.69712 J-0.05092
G3 X-89.2047 Y-200.96252 I-5.37578 J-0.93779
G3 X-96.59026 Y-204.35141 I-0.45638 J-8.74768
G3 X-99.18564 Y-209.97126 I8.21777 J-7.2044
G3 X-98.52138 Y-212.16728 I2.66909 J-0.39113
G1 F300.0 X-97.63133 Y-211.366
G3 F800.0 X-96.89013 Y-211.81512 I1.11479 J1.00362
G3 X-87.57379 Y-210.09698 I2.805 J10.9076
G3 X-85.084 Y-205.9161 I-2.11928 J4.09387
G3 X-85.10605 Y-205.68664 I-1.49973 J-0.02831
G3 X-89.24608 Y-202.15962 I-4.196 J-0.73198
G3 X-95.6652 Y-205.11302 I-0.415 J-7.55058
G3 X-98.00069 Y-210.1449 I7.29271 J-6.44278
G3 X-97.63133 Y-211.366 I1.48415 J-0.21749
G0 Z3.0
G0 X-101.41477 Y-211.1195
G0 Z-3.0
G1 F300.0 Z-6.0
G2 F800.0 X-94.33025 Y-200.1298 I13.42259 J-0.8745
G3 X-94.2682 Y-200.09559 I-1.27223 J2.38148
G2 X-84.8372 Y-200.40057 I4.46634 J-7.85717
G3 X-84.83017 Y-200.40518 I1.48315 J2.25616
G2 X-82.54806 Y-208.71553 I-3.55508 J-5.44479
G3 X-82.56345 Y-208.74741 I2.4237 J-1.18983
G2 X-88.98097 Y-214.33843 I-9.62528 J4.56954
G3 X-89.05751 Y-214.36386 I0.81286 J-2.57473
G2 X-95.57357 Y-215.05651 I-4.73866 J13.58254
G3 X-97.68981 Y-219.76367 I-0.3336 J-2.67931
G3 X-95.1277 Y-221.91458 I48.51566 J55.18929
G3 X-94.97826 Y-222.0261 I1.6885 J2.10689
G3 X-84.70237 Y-221.85389 I5.01817 J7.23319
G3 X-84.59798 Y-221.7721 I-1.61253 J2.16558
G3 X-82.94776 Y-219.49615 I-3.55339 J4.31271
G2 X-81.15612 Y-220.23643 I0.89485 J-0.37248
G2 X-85.73123 Y-224.53862 I-7.09126 J2.95735
G3 X-85.90035 Y-224.60367 I0.88421 J-2.55111
G2 X-89.84055 Y-225.42552 I-4.04916 J9.55674
G2 X-101.37318 Y-213.54601 I0.14997 J11.68329
G3 X-101.38457 Y-213.24879 I-2.69962 J0.04534
G2 X-101.41477 Y-211.1195 I13.39239 J1.25479
G1 F300.0 X-102.61223 Y-211.04149
G2 F800.0 X-94.89569 Y-199.07136 I14.62005 J-0.95252
G3 X-94.86121 Y-199.05236 I-0.70679 J1.32304
G2 X-84.17802 Y-199.39784 I5.05936 J-8.9004
G3 X-84.17412 Y-199.40039 I0.82397 J1.25342
G2 X-81.47086 Y-209.24434 I-4.21114 J-6.44957
G3 X-81.47941 Y-209.26205 I1.3465 J-0.66101
G2 X-88.6197 Y-215.48276 I-10.70932 J5.08418
G3 X-88.66222 Y-215.49688 I0.45159 J-1.43041
G2 X-95.72184 Y-216.24731 I-5.13395 J14.71556
G3 X-96.89753 Y-218.86241 I-0.18533 J-1.48851
G3 X-94.37726 Y-220.97819 I47.72337 J54.28803
G3 X-94.29423 Y-221.04014 I0.93806 J1.17049
G3 X-85.41905 Y-220.8914 I4.33415 J6.24724
G3 X-85.36106 Y-220.84597 I-0.89585 J1.2031
G3 X-84.06174 Y-219.04989 I-2.79032 J3.38658
G2 X-80.04744 Y-220.6956 I2.00884 J-0.81874
G2 X-85.33824 Y-225.67244 I-8.19994 J3.41651
G3 X-85.4322 Y-225.70858 I0.49123 J-1.41728
G2 X-89.84199 Y-226.62559 I-4.51731 J10.66165
G2 X-102.57301 Y-213.52586 I0.15142 J12.88336
G3 X-102.57934 Y-213.36074 I-1.49979 J0.02519
G2 X-102.61223 Y-211.04149 I14.58716 J1.36673
G0 Z3.0
G0 X-72.10255 Y-211.54826
G0 Z1.0
G1 F300.0 Z-2.0
G3 F800.0 X-71.61461 Y-181.34701 I-33275.96051 J552.72332
G3 X-71.61446 Y-181.25369 I-3.29959 J0.05181
G2 X-71.02552 Y-181.01354 I0.34168 J0.0043
G3 X-70.84284 Y-181.19083 I2.38788 J2.27772
G2 X-71.53893 Y-224.25561 I-3307.44277 J31.92227
G2 X-71.94646 Y-224.64227 I-0.43504 J0.05043
G2 X-72.3159 Y-224.24265 I0.02141 J0.39038
G3 X-72.31546 Y-224.22079 I-3.29908 J0.07793
G3 X-72.10255 Y-211.54826 I-33275.7476 J565.39585
G1 F300.0 X-72.70247 Y-211.5383
G3 F800.0 X-72.21453 Y-181.33759 I-33275.36059 J552.71336
G3 X-72.21441 Y-181.26124 I-2.69967 J0.04239
G2 X-70.59136 Y-180.59941 I0.94163 J0.01184
G3 X-70.42227 Y-180.76192 I1.95372 J1.86359
G2 X-70.24186 Y-181.09188 I-0.36412 J-0.41338
G2 X-70.93958 Y-224.29113 I-3308.04375 J31.82331
G2 X-71.94344 Y-225.24268 I-1.03439 J0.08595
G2 X-72.91574 Y-224.22849 I0.0184 J0.9908
G3 X-72.91537 Y-224.2106 I-2.69925 J0.06376
G3 X-72.70247 Y-211.5383 I-33275.14769 J565.38566
G1 F300.0 X-73.9023 Y-211.51837
G3 F800.0 X-73.41439 Y-181.31875 I-33274.16076 J552.69343
G3 X-73.41432 Y-181.27633 I-1.49982 J0.02355
G2 X-69.72304 Y-179.77115 I2.14154 J0.02693
G3 X-69.6291 Y-179.86143 I1.0854 J1.03533
G2 X-69.04125 Y-181.03365 I-1.15729 J-1.31388
G2 X-69.74055 Y-224.34762 I-3309.24436 J31.76509
G2 X-71.93676 Y-226.44282 I-2.23342 J0.14244
G2 X-74.1154 Y-224.20015 I0.01171 J2.19094
G3 X-74.1152 Y-224.19021 I-1.49958 J0.03542
G3 X-73.9023 Y-211.51837 I-33273.94786 J565.36527
G1 F300.0 X-72.10255 Y-211.54826
G1 Z-4.0
G3 F800.0 X-71.61461 Y-181.34701 I-33275.96051 J552.72332
G3 X-71.61446 Y-181.25369 I-3.29959 J0.05181
G2 X-71.02552 Y-181.01354 I0.34168 J0.0043
G3 X-70.84284 Y-181.19083 I2.38788 J2.27772
G2 X-71.53893 Y-224.25561 I-3307.44277 J31.92227
G2 X-71.94646 Y-224.64227 I-0.43504 J0.05043
G2 X-72.3159 Y-224.24265 I0.02141 J0.39038
G3 X-72.31546 Y-224.22079 I-3.29908 J0.07793
G3 X-72.10255 Y-211.54826 I-33275.7476 J565.39585
G1 F300.0 X-72.70247 Y-211.5383
G3 F800.0 X-72.21453 Y-181.33759 I-33275.36059 J552.71336
G3 X-72.21441 Y-181.26124 I-2.69967 J0.04239
G2 X-70.59136 Y-180.59941 I0.94163 J0.01184
G3 X-70.42227 Y-180.76192 I1.95372 J1.86359
G2 X-70.24186 Y-181.09188 I-0.36412 J-0.41338
G2 X-70.93958 Y-224.29113 I-3308.04375 J31.82331
G2 X-71.94344 Y-225.24268 I-1.03439 J0.08595
G2 X-72.91574 Y-224.22849 I0.0184 J0.9908
G3 X-72.91537 Y-224.2106 I-2.69925 J0.06376
G3 X-72.70247 Y-211.5383 I-33275.14769 J565.38566
G1 F300.0 X-73.9023 Y-211.51837
G3 F800.0 X-73.41439 Y-181.31875 I-33274.16076 J552.69343
G3 X-73.41432 Y-181.27633 I-1.49982 J0.02355
G2 X-69.72304 Y-179.77115 I2.14154 J0.02693
G3 X-69.6291 Y-179.86143 I1.0854 J1.03533
G2 X-69.04125 Y-181.03365 I-1.15729 J-1.31388
G2 X-69.74055 Y-224.34762 I-3309.24436 J31.76509
G2 X-71.93676 Y-226.44282 I-2.23342 J0.14244
G2 X-74.1154 Y-224.20015 I0.01171 J2.19094
G3 X-74.1152 Y-224.19021 I-1.49958 J0.03542
G3 X-73.9023 Y-211.51837 I-33273.94786 J565.36527
G1 F300.0 X-72.10255 Y-211.54826
G1 Z-6.0
G3 F800.0 X-71.61461 Y-181.34701 I-33275.96051 J552.72332
G3 X-71.61446 Y-181.25369 I-3.29959 J0.05181
G2 X-71.02552 Y-181.01354 I0.34168 J0.0043
G3 X-70.84284 Y-181.19083 I2.38788 J2.27772
G2 X-71.53893 Y-224.25561 I-3307.44277 J31.92227
G2 X-71.94646 Y-224.64227 I-0.43504 J0.05043
G2 X-72.3159 Y-224.24265 I0.02141 J0.39038
G3 X-72.31546 Y-224.22079 I-3.29908 J0.07793
G3 X-72.10255 Y-211.54826 I-33275.7476 J565.39585
G1 F300.0 X-72.70247 Y-211.5383
G3 F800.0 X-72.21453 Y-181.33759 I-33275.36059 J552.71336
G3 X-72.21441 Y-181.26124 I-2.69967 J0.04239
G2 X-70.59136 Y-180.59941 I0.94163 J0.01184
G3 X-70.42227 Y-180.76192 I1.95372 J1.86359
G2 X-70.24186 Y-181.09188 I-0.36412 J-0.41338
G2 X-70.93958 Y-224.29113 I-3308.04375 J31.82331
G2 X-71.94344 Y-225.24268 I-1.03439 J0.08595
G2 X-72.91574 Y-224.22849 I0.0184 J0.9908
G3 X-72.91537 Y-224.2106 I-2.69925 J0.06376
G3 X-72.70247 Y-211.5383 I-33275.14769 J565.38566
G1 F300.0 X-73.9023 Y-211.51837
G3 F800.0 X-73.41439 Y-181.31875 I-33274.16076 J552.69343
G3 X-73.41432 Y-181.27633 I-1.49982 J0.02355
G2 X-69.72304 Y-179.77115 I2.14154 J0.02693
G3 X-69.6291 Y-179.86143 I1.0854 J1.03533
G2 X-69.04125 Y-181.03365 I-1.15729 J-1.31388
G2 X-69.74055 Y-224.34762 I-3309.24436 J31.76509
G2 X-71.93676 Y-226.44282 I-2.23342 J0.14244
G2 X-74.1154 Y-224.20015 I0.01171 J2.19094
G3 X-74.1152 Y-224.19021 I-1.49958 J0.03542
G3 X-73.9023 Y-211.51837 I-33273.94786 J565.36527
G0 Z3.0
G0 X-60.12169 Y-211.87938
G0 Z1.0
G1 F300.0 Z-2.0
G3 F800.0 X-59.86142 Y-199.72532 I-1271.11501 J33.30004
G3 X-59.86113 Y-199.70414 I-3.29954 J0.05488
G2 X-59.09077 Y-199.63627 I0.38852 J-0.00397
G2 X-59.72438 Y-224.13306 I-17065.39725 J429.14103
G2 X-60.13228 Y-224.52298 I-0.43541 J0.04717
G2 X-60.50183 Y-224.13327 I0.02141 J0.39038
G3 X-60.12169 Y-211.87938 I-1270.73487 J45.55393
G1 F300.0 X-60.72148 Y-211.86367
G3 F800.0 X-60.46133 Y-199.71534 I-1270.51522 J33.28432
G3 X-60.4611 Y-199.69801 I-2.69963 J0.0449
G2 X-58.48973 Y-199.60247 I0.98849 J-0.0101
G2 X-59.12511 Y-224.16822 I-17065.99829 J429.10723
G2 X-60.12927 Y-225.12339 I-1.03468 J0.08233
G2 X-61.10176 Y-224.12047 I0.0184 J0.9908
G3 X-60.72148 Y-211.86367 I-1270.13494 J45.54112
G1 F300.0 X-61.92107 Y-211.83224
G3 F800.0 X-61.66117 Y-199.69538 I-1269.31563 J33.2529
G3 X-61.66104 Y-199.68576 I-1.49979 J0.02495
G2 X-57.28851 Y-199.56884 I2.18843 J-0.02235
G2 X-57.92621 Y-224.22579 I-17067.19951 J429.0736
G2 X-60.12258 Y-226.32353 I-2.23358 J0.1399
G2 X-62.3014 Y-224.08884 I0.01171 J2.19094
G3 X-61.92107 Y-211.83224 I-1268.9353 J45.5095
G1 F300.0 X-60.12169 Y-211.87938
G1 Z-4.0
G3 F800.0 X-59.86142 Y-199.72532 I-1271.11501 J33.30004
G3 X-59.86113 Y-199.70414 I-3.29954 J0.05488
G2 X-59.09077 Y-199.63627 I0.38852 J-0.00397
G2 X-59.72438 Y-224.13306 I-17065.39725 J429.14103
G2 X-60.13228 Y-224.52298 I-0.43541 J0.04717
G2 X-60.50183 Y-224.13327 I0.02141 J0.39038
G3 X-60.12169 Y-211.87938 I-1270.73487 J45.55393
G1 F300.0 X-60.72148 Y-211.86367
G3 F800.0 X-60.46133 Y-199.71534 I-1270.51522 J33.28432
G3 X-60.4611 Y-199.69801 I-2.69963 J0.0449
G2 X-58.48973 Y-199.60247 I0.98849 J-0.0101
G2 X-59.12511 Y-224.16822 I-17065.99829 J429.10723
G2 X-60.12927 Y-225.12339 I-1.03468 J0.08233
G2 X-61.10176 Y-224.12047 I0.0184 J0.9908
G3 X-60.72148 Y-211.86367 I-1270.13494 J45.54112
G1 F300.0 X-61.92107 Y-211.83224
G3 F800.0 X-61.66117 Y-199.69538 I-1269.31563 J33.2529
G3 X-61.66104 Y-199.68576 I-1.49979 J0.02495
G2 X-57.28851 Y-199.56884 I2.18843 J-0.02235
G2 X-57.92621 Y-224.22579 I-17067.19951 J429.0736
G2 X-60.12258 Y-226.32353 I-2.23358 J0.1399
G2 X-62.3014 Y-224.08884 I0.01171 J2.19094
G3 X-61.92107 Y-211.83224 I-1268.9353 J45.5095
G1 F300.0 X-60.12169 Y-211.87938
G1 Z-6.0
G3 F800.0 X-59.86142 Y-199.72532 I-1271.11501 J33.30004
G3 X-59.86113 Y-199.70414 I-3.29954 J0.05488
G2 X-59.09077 Y-199.63627 I0.38852 J-0.00397
G2 X-59.72438 Y-224.13306 I-17065.39725 J429.14103
G2 X-60.13228 Y-224.52298 I-0.43541 J0.04717
G2 X-60.50183 Y-224.13327 I0.02141 J0.39038
G3 X-60.12169 Y-211.87938 I-1270.73487 J45.55393
G1 F300.0 X-60.72148 Y-211.86367
G3 F800.0 X-60.46133 Y-199.71534 I-1270.51522 J33.28432
G3 X-60.4611 Y-199.69801 I-2.69963 J0.0449
G2 X-58.48973 Y-199.60247 I0.98849 J-0.0101
G2 X-59.12511 Y-224.16822 I-17065.99829 J429.10723
G2 X-60.12927 Y-225.12339 I-1.03468 J0.08233
G2 X-61.10176 Y-224.12047 I0.0184 J0.9908
G3 X-60.72148 Y-211.86367 I-1270.13494 J45.54112
G1 F300.0 X-61.92107 Y-211.83224
G3 F800.0 X-61.66117 Y-199.69538 I-1269.31563 J33.2529
G3 X-61.66104 Y-199.68576 I-1.49979 J0.02495
G2 X-57.28851 Y-199.56884 I2.18843 J-0.02235
G2 X-57.92621 Y-224.22579 I-17067.19951 J429.0736
G2 X-60.12258 Y-226.32353 I-2.23358 J0.1399
G2 X-62.3014 Y-224.08884 I0.01171 J2.19094
G3 X-61.92107 Y-211.83224 I-1268.9353 J45.5095
G0 Z3.0
G0 X-59.37071 Y-188.51936
G0 Z1.0
G1 F300.0 Z-2.0
G2 F800.0 X-59.04861 Y-187.85274 I0.04272 J0.39049
G3 X-59.00302 Y-187.89798 I2.34703 J2.3198
G2 X-58.93466 Y-188.064 I-0.15764 J-0.16199
G3 X-58.93518 Y-188.12823 I3.29948 J-0.05878
G2 X-59.37071 Y-188.51936 I-0.39282 J-0.00065
G1 F300.0 X-59.43596 Y-189.1158
G2 F800.0 X-58.62188 Y-187.43095 I0.10797 J0.98693
G3 X-58.58457 Y-187.46797 I1.92029 J1.89802
G2 X-58.33475 Y-188.07468 I-0.57608 J-0.592
G3 X-58.33518 Y-188.12724 I2.69957 J-0.0481
G2 X-59.43596 Y-189.1158 I-0.99282 J-0.00164
G1 F300.0 X-59.56646 Y-190.30869
G2 F800.0 X-57.76842 Y-186.58739 I0.23847 J2.17981
G3 X-57.74769 Y-186.60795 I1.06683 J1.05445
G2 X-57.13494 Y-188.09606 I-1.41296 J-1.45201
G3 X-57.13518 Y-188.12526 I1.49976 J-0.02672
G2 X-59.56646 Y-190.30869 I-2.19281 J-0.00362
G1 F300.0 X-59.37071 Y-188.51936
G1 Z-4.0
G2 F800.0 X-59.04861 Y-187.85274 I0.04272 J0.39049
G3 X-59.00302 Y-187.89798 I2.34703 J2.3198
G2 X-58.93466 Y-188.064 I-0.15764 J-0.16199
G3 X-58.93518 Y-188.12823 I3.29948 J-0.05878
G2 X-59.37071 Y-188.51936 I-0.39282 J-0.00065
G1 F300.0 X-59.43596 Y-189.1158
G2 F800.0 X-58.62188 Y-187.43095 I0.10797 J0.98693
G3 X-58.58457 Y-187.46797 I1.92029 J1.89802
G2 X-58.33475 Y-188.07468 I-0.57608 J-0.592
G3 X-58.33518 Y-188.12724 I2.69957 J-0.0481
G2 X-59.43596 Y-189.1158 I-0.99282 J-0.00164
G1 F300.0 X-59.56646 Y-190.30869
G2 F800.0 X-57.76842 Y-186.58739 I0.23847 J2.17981
G3 X-57.74769 Y-186.60795 I1.06683 J1.05445
G2 X-57.13494 Y-188.09606 I-1.41296 J-1.45201
G3 X-57.13518 Y-188.12526 I1.49976 J-0.02672
G2 X-59.56646 Y-190.30869 I-2.19281 J-0.00362
G1 F300.0 X-59.37071 Y-188.51936
G1 Z-6.0
G2 F800.0 X-59.04861 Y-187.85274 I0.04272 J0.39049
G3 X-59.00302 Y-187.89798 I2.34703 J2.3198
G2 X-58.93466 Y-188.064 I-0.15764 J-0.16199
G3 X-58.93518 Y-188.12823 I3.29948 J-0.05878
G2 X-59.37071 Y-188.51936 I-0.39282 J-0.00065
G1 F300.0 X-59.43596 Y-189.1158
G2 F800.0 X-58.62188 Y-187.43095 I0.10797 J0.98693
G3 X-58.58457 Y-187.46797 I1.92029 J1.89802
G2 X-58.33475 Y-188.07468 I-0.57608 J-0.592
G3 X-58.33518 Y-188.12724 I2.69957 J-0.0481
G2 X-59.43596 Y-189.1158 I-0.99282 J-0.00164
G1 F300.0 X-59.56646 Y-190.30869
G2 F800.0 X-57.76842 Y-186.58739 I0.23847 J2.17981
G3 X-57.74769 Y-186.60795 I1.06683 J1.05445
G2 X-57.13494 Y-188.09606 I-1.41296 J-1.45201
G3 X-57.13518 Y-188.12526 I1.49976 J-0.02672
G2 X-59.56646 Y-190.30869 I-2.19281 J-0.00362
G0 Z3.0
G0 X-19.38468 Y-208.25679
G0 Z1.0
G1 F300.0 Z-2.0
G3 F800.0 X-19.15395 Y-208.01095 I-3.60135 J3.61113
G3 X-19.13709 Y-208.02714 I3.54136 J3.66998
G3 X-19.37097 Y-208.27005 I3.55497 J-3.6568
G3 X-19.38468 Y-208.25679 I-3.55411 J-3.65763
G1 F300.0 X-20.23205 Y-207.40711
G3 F800.0 X-19.24716 Y-205.75512 I-2.75397 J2.76146
G3 X-16.91262 Y-208.01791 I3.63458 J1.41416
G3 X-19.29705 Y-210.49682 I1.33051 J-3.66603
G3 X-21.55844 Y-208.27498 I-3.62803 J-1.43087
G3 X-20.23205 Y-207.40711 I-1.42759 J3.62932
G1 F300.0 X-21.07943 Y-206.55743
G3 F800.0 X-20.28602 Y-204.64565 I-1.9066 J1.91178
G1 Y-198.67378
G3 X-20.2995 Y-198.40432 I-2.7 J0.0
G2 X-19.51262 Y-197.56364 I0.76098 J0.07633
G3 X-19.36516 Y-197.5646 I0.09144 J2.69845
G2 X-18.30992 Y-198.64517 I0.02147 J-1.03457
G3 X-18.31259 Y-198.76518 I2.69733 J-0.12002
G1 Y-204.34097
G3 X-15.50832 Y-207.03895 I2.7 J0.0
G1 X-9.26729 Y-206.79775
G2 X-9.35788 Y-208.74499 I-0.03248 J-0.97421
G3 X-9.62729 Y-208.74236 I-0.16095 J-2.6952
G1 X-15.69057 Y-208.98611
G3 X-18.28199 Y-211.71002 I0.10846 J-2.69782
G1 X-18.22105 Y-218.01705
G3 X-18.21626 Y-218.15387 I2.69987 J0.02609
G2 X-20.1643 Y-218.20237 I-0.97316 J-0.05882
G3 X-20.16428 Y-218.14744 I-2.69985 J0.02859
G1 X-20.22522 Y-211.90134
G3 X-23.05217 Y-209.23068 I-2.69987 J-0.02634
G1 X-28.85137 Y-209.50394
G2 X-28.78404 Y-207.54708 I-0.02446 J0.98043
G3 X-28.42757 Y-207.55694 I0.2527 J2.68815
G1 X-22.88225 Y-207.34366
G3 X-21.07943 Y-206.55743 I-0.10377 J2.69801
G1 F300.0 X-21.9268 Y-205.70775
G3 F800.0 X-21.48602 Y-204.64565 I-1.05922 J1.0621
G1 Y-198.67378
G3 X-21.49351 Y-198.52408 I-1.5 J0.0
G2 X-19.47198 Y-196.36432 I1.95499 J0.19609
G3 X-19.39006 Y-196.36486 I0.0508 J1.49914
G2 X-17.1111 Y-198.69851 I0.04637 J-2.23431
G3 X-17.11259 Y-198.76518 I1.49852 J-0.06668
G1 Y-204.34097
G3 X-15.55466 Y-205.83985 I1.5 J0.0
G1 X-9.27903 Y-205.59731
G2 X-9.42942 Y-209.94285 I-0.02075 J-2.17466
G3 X-9.57909 Y-209.9414 I-0.08942 J-1.49733
G1 X-15.64237 Y-210.18515
G3 X-17.08205 Y-211.69843 I0.06025 J-1.49879
G1 X-17.02111 Y-218.00546
G3 X-17.01845 Y-218.08147 I1.49993 J0.01449
G2 X-21.36423 Y-218.18966 I-2.17097 J-0.13123
G3 X-21.36422 Y-218.15914 I-1.49992 J0.01589
G1 X-21.42516 Y-211.91305
G3 X-22.99569 Y-210.42935 I-1.49993 J-0.01463
G1 X-28.80554 Y-210.70311
G2 X-28.67173 Y-206.35235 I-0.07028 J2.1796
G3 X-28.47369 Y-206.35783 I0.14039 J1.49342
G1 X-22.92837 Y-206.14454
G3 X-21.9268 Y-205.70775 I-0.05765 J1.49889
G0 Z3.0
G0 X-19.38468 Y-208.25679
G0 Z-1.0
G1 F300.0 Z-4.0
G3 F800.0 X-19.15395 Y-208.01095 I-3.60135 J3.61113
G3 X-19.13709 Y-208.02714 I3.54136 J3.66998
G3 X-19.37097 Y-208.27005 I3.55497 J-3.6568
G3 X-19.38468 Y-208.25679 I-3.55411 J-3.65763
G1 F300.0 X-20.23205 Y-207.40711
G3 F800.0 X-19.24716 Y-205.75512 I-2.75397 J2.76146
G3 X-16.91262 Y-208.01791 I3.63458 J1.41416
G3 X-19.29705 Y-210.49682 I1.33051 J-3.66603
G3 X-21.55844 Y-208.27498 I-3.62803 J-1.43087
G3 X-20.23205 Y-207.40711 I-1.42759 J3.62932
G1 F300.0 X-21.07943 Y-206.55743
G3 F800.0 X-20.28602 Y-204.64565 I-1.9066 J1.91178
G1 Y-198.67378
G3 X-20.2995 Y-198.40432 I-2.7 J0.0
G2 X-19.51262 Y-197.56364 I0.76098 J0.07633
G3 X-19.36516 Y-197.5646 I0.09144 J2.69845
G2 X-18.30992 Y-198.64517 I0.02147 J-1.03457
G3 X-18.31259 Y-198.76518 I2.69733 J-0.12002
G1 Y-204.34097
G3 X-15.50832 Y-207.03895 I2.7 J0.0
G1 X-9.26729 Y-206.79775
G2 X-9.35788 Y-208.74499 I-0.03248 J-0.97421
G3 X-9.62729 Y-208.74236 I-0.16095 J-2.6952
G1 X-15.69057 Y-208.98611
G3 X-18.28199 Y-211.71002 I0.10846 J-2.69782
G1 X-18.22105 Y-218.01705
G3 X-18.21626 Y-218.15387 I2.69987 J0.02609
G2 X-20.1643 Y-218.20237 I-0.97316 J-0.05882
G3 X-20.16428 Y-218.14744 I-2.69985 J0.02859
G1 X-20.22522 Y-211.90134
G3 X-23.05217 Y-209.23068 I-2.69987 J-0.02634
G1 X-28.85137 Y-209.50394
G2 X-28.78404 Y-207.54708 I-0.02446 J0.98043
G3 X-28.42757 Y-207.55694 I0.2527 J2.68815
G1 X-22.88225 Y-207.34366
G3 X-21.07943 Y-206.55743 I-0.10377 J2.69801
G1 F300.0 X-21.9268 Y-205.70775
G3 F800.0 X-21.48602 Y-204.64565 I-1.05922 J1.0621
G1 Y-198.67378
G3 X-21.49351 Y-198.52408 I-1.5 J0.0
G2 X-19.47198 Y-196.36432 I1.95499 J0.19609
G3 X-19.39006 Y-196.36486 I0.0508 J1.49914
G2 X-17.1111 Y-198.69851 I0.04637 J-2.23431
G3 X-17.11259 Y-198.76518 I1.49852 J-0.06668
G1 Y-204.34097
G3 X-15.55466 Y-205.83985 I1.5 J0.0
G1 X-9.27903 Y-205.59731
G2 X-9.42942 Y-209.94285 I-0.02075 J-2.17466
G3 X-9.57909 Y-209.9414 I-0.08942 J-1.49733
G1 X-15.64237 Y-210.18515
G3 X-17.08205 Y-211.69843 I0.06025 J-1.49879
G1 X-17.02111 Y-218.00546
G3 X-17.01845 Y-218.08147 I1.49993 J0.01449
G2 X-21.36423 Y-218.18966 I-2.17097 J-0.13123
G3 X-21.36422 Y-218.15914 I-1.49992 J0.01589
G1 X-21.42516 Y-211.91305
G3 X-22.99569 Y-210.42935 I-1.49993 J-0.01463
G1 X-28.80554 Y-210.70311
G2 X-28.67173 Y-206.35235 I-0.07028 J2.1796
G3 X-28.47369 Y-206.35783 I0.14039 J1.49342
G1 X-22.92837 Y-206.14454
G3 X-21.9268 Y-205.70775 I-0.05765 J1.49889
G0 Z3.0
G0 X-19.38468 Y-208.25679
G0 Z-3.0
G1 F300.0 Z-6.0
G3 F800.0 X-19.15395 Y-208.01095 I-3.60135 J3.61113
G3 X-19.13709 Y-208.02714 I3.54136 J3.66998
G3 X-19.37097 Y-208.27005 I3.55497 J-3.6568
G3 X-19.38468 Y-208.25679 I-3.55411 J-3.65763
G1 F300.0 X-20.23205 Y-207.40711
G3 F800.0 X-19.24716 Y-205.75512 I-2.75397 J2.76146
G3 X-16.91262 Y-208.01791 I3.63458 J1.41416
G3 X-19.29705 Y-210.49682 I1.33051 J-3.66603
G3 X-21.55844 Y-208.27498 I-3.62803 J-1.43087
G3 X-20.23205 Y-207.40711 I-1.42759 J3.62932
G1 F300.0 X-21.07943 Y-206.55743
G3 F800.0 X-20.28602 Y-204.64565 I-1.9066 J1.91178
G1 Y-198.67378
G3 X-20.2995 Y-198.40432 I-2.7 J0.0
G2 X-19.51262 Y-197.56364 I0.76098 J0.07633
G3 X-19.36516 Y-197.5646 I0.09144 J2.69845
G2 X-18.30992 Y-198.64517 I0.02147 J-1.03457
G3 X-18.31259 Y-198.76518 I2.69733 J-0.12002
G1 Y-204.34097
G3 X-15.50832 Y-207.03895 I2.7 J0.0
G1 X-9.26729 Y-206.79775
G2 X-9.35788 Y-208.74499 I-0.03248 J-0.97421
G3 X-9.62729 Y-208.74236 I-0.16095 J-2.6952
G1 X-15.69057 Y-208.98611
G3 X-18.28199 Y-211.71002 I0.10846 J-2.69782
G1 X-18.22105 Y-218.01705
G3 X-18.21626 Y-218.15387 I2.69987 J0.02609
G2 X-20.1643 Y-218.20237 I-0.97316 J-0.05882
G3 X-20.16428 Y-218.14744 I-2.69985 J0.02859
G1 X-20.22522 Y-211.90134
G3 X-23.05217 Y-209.23068 I-2.69987 J-0.02634
G1 X-28.85137 Y-209.50394
G2 X-28.78404 Y-207.54708 I-0.02446 J0.98043
G3 X-28.42757 Y-207.55694 I0.2527 J2.68815
G1 X-22.88225 Y-207.34366
G3 X-21.07943 Y-206.55743 I-0.10377 J2.69801
G1 F300.0 X-21.9268 Y-205.70775
G3 F800.0 X-21.48602 Y-204.64565 I-1.05922 J1.0621
G1 Y-198.67378
G3 X-21.49351 Y-198.52408 I-1.5 J0.0
G2 X-19.47198 Y-196.36432 I1.95499 J0.19609
G3 X-19.39006 Y-196.36486 I0.0508 J1.49914
G2 X-17.1111 Y-198.69851 I0.04637 J-2.23431
G3 X-17.11259 Y-198.76518 I1.49852 J-0.06668
G1 Y-204.34097
G3 X-15.55466 Y-205.83985 I1.5 J0.0
G1 X-9.27903 Y-205.59731
G2 X-9.42942 Y-209.94285 I-0.02075 J-2.17466
G3 X-9.57909 Y-209.9414 I-0.08942 J-1.49733
G1 X-15.64237 Y-210.18515
G3 X-17.08205 Y-211.69843 I0.06025 J-1.49879
G1 X-17.02111 Y-218.00546
G3 X-17.01845 Y-218.08147 I1.49993 J0.01449
G2 X-21.36423 Y-218.18966 I-2.17097 J-0.13123
G3 X-21.36422 Y-218.15914 I-1.49992 J0.01589
G1 X-21.42516 Y-211.91305
G3 X-22.99569 Y-210.42935 I-1.49993 J-0.01463
G1 X-28.80554 Y-210.70311
G2 X-28.67173 Y-206.35235 I-0.07028 J2.1796
G3 X-28.47369 Y-206.35783 I0.14039 J1.49342
G1 X-22.92837 Y-206.14454
G3 X-21.9268 Y-205.70775 I-0.05765 J1.49889
( TascheVereine2 )
G0 Z3.0
( T2 : 2.0 )
T2 M6
M3 S1000
G0 X-432.16631 Y-222.97085
G0 Z1.0
G1 F300.0 Z-2.0
G2 F800.0 X-432.09479 Y-222.54015 I297.65029 J-49.19965
G3 X-431.85031 Y-222.79918 I1.42484 J1.09992
G3 X-432.16631 Y-222.97085 I0.69695 J-1.6596
G1 F300.0 X-431.7161 Y-223.63215
G3 F800.0 X-432.14132 Y-224.30411 I0.56275 J-0.82663
G1 X-433.19405 Y-231.02872
G3 X-433.19883 Y-231.06312 I0.98797 J-0.15467
G2 X-434.23478 Y-231.56338 I-0.67846 J0.08219
G2 X-434.24605 Y-231.3892 I0.30674 J0.1073
G3 X-434.2338 Y-231.31844 I-0.97859 J0.20581
G2 X-431.84619 Y-216.54307 I299.71779 J-40.85206
G3 X-431.83965 Y-216.50383 I-0.98295 J0.1839
G2 X-430.83184 Y-215.95043 I0.71309 J-0.10425
G3 X-430.15451 Y-216.00119 I0.40896 J0.91255
G2 X-422.26167 Y-216.5277 I3.1982 J-11.47967
G3 X-422.09961 Y-216.58131 I0.39395 J0.91913
G3 X-422.16519 Y-216.72092 I0.86963 J-0.4937
G2 X-422.94082 Y-217.05686 I-0.55091 J0.20858
G3 X-423.12141 Y-217.00163 I-0.38148 J-0.92438
G3 X-430.27037 Y-216.88833 I-3.87482 J-18.89481
G3 X-431.09115 Y-217.73655 I0.16975 J-0.98549
G2 X-431.65399 Y-221.26227 I-85.84159 J11.89584
G3 X-430.45431 Y-222.4167 I0.98404 J-0.17795
G2 X-424.51878 Y-222.22247 I3.48774 J-15.79332
G2 X-424.3902 Y-222.81259 I-0.06322 J-0.32284
G2 X-426.39996 Y-223.10933 I-1.30607 J1.89158
G3 X-426.6104 Y-223.0659 I-0.30613 J-0.95199
G3 X-431.42403 Y-223.49611 I-1.25718 J-13.0786
G3 X-431.7161 Y-223.63215 I0.27068 J-0.96267
G1 F300.0 X-432.16631 Y-222.97085
G1 Z-4.0
G2 F800.0 X-432.09479 Y-222.54015 I297.65029 J-49.19965
G3 X-431.85031 Y-222.79918 I1.42484 J1.09992
G3 X-432.16631 Y-222.97085 I0.69695 J-1.6596
G1 F300.0 X-431.7161 Y-223.63215
G3 F800.0 X-432.14132 Y-224.30411 I0.56275 J-0.82663
G1 X-433.19405 Y-231.02872
G3 X-433.19883 Y-231.06312 I0.98797 J-0.15467
G2 X-434.23478 Y-231.56338 I-0.67846 J0.08219
G2 X-434.24605 Y-231.3892 I0.30674 J0.1073
G3 X-434.2338 Y-231.31844 I-0.97859 J0.20581
G2 X-431.84619 Y-216.54307 I299.71779 J-40.85206
G3 X-431.83965 Y-216.50383 I-0.98295 J0.1839
G2 X-430.83184 Y-215.95043 I0.71309 J-0.10425
G3 X-430.15451 Y-216.00119 I0.40896 J0.91255
G2 X-422.26167 Y-216.5277 I3.1982 J-11.47967
G3 X-422.09961 Y-216.58131 I0.39395 J0.91913
G3 X-422.16519 Y-216.72092 I0.86963 J-0.4937
G2 X-422.94082 Y-217.05686 I-0.55091 J0.20858
G3 X-423.12141 Y-217.00163 I-0.38148 J-0.92438
G3 X-430.27037 Y-216.88833 I-3.87482 J-18.89481
G3 X-431.09115 Y-217.73655 I0.16975 J-0.98549
G2 X-431.65399 Y-221.26227 I-85.84159 J11.89584
G3 X-430.45431 Y-222.4167 I0.98404 J-0.17795
G2 X-424.51878 Y-222.22247 I3.48774 J-15.79332
G2 X-424.3902 Y-222.81259 I-0.06322 J-0.32284
G2 X-426.39996 Y-223.10933 I-1.30607 J1.89158
G3 X-426.6104 Y-223.0659 I-0.30613 J-0.95199
G3 X-431.42403 Y-223.49611 I-1.25718 J-13.0786
G3 X-431.7161 Y-223.63215 I0.27068 J-0.96267
G0 Z3.0
G0 X-418.89975 Y-223.3718
G0 Z1.0
G1 F300.0 Z-2.0
G2 F800.0 X-418.81852 Y-222.93391 I149.2669 J-27.46198
G3 X-418.62249 Y-223.09121 I1.22181 J1.32181
G3 X-418.89975 Y-223.3718 I4.99906 J-5.21693
G1 F300.0 X-418.31556 Y-223.91835
G3 F800.0 X-419.06694 Y-224.89427 I4.69213 J-4.38979
G3 X-419.20786 Y-225.27174 I0.84718 J-0.53131
G1 X-420.04575 Y-230.65357
G3 X-420.04734 Y-230.66415 I0.9881 J-0.15384
G2 X-420.88247 Y-231.22806 I-0.67381 J0.09753
G2 X-420.93053 Y-231.07669 I0.09147 J0.11236
G3 X-420.90213 Y-230.93781 I-0.96306 J0.26928
G2 X-419.4322 Y-221.87869 I151.26928 J-19.89596
G3 X-419.41743 Y-221.77127 I-0.98183 J0.18978
G2 X-418.61947 Y-221.44589 I0.48154 J-0.0398
G2 X-418.59669 Y-221.60524 I-0.51976 J-0.15563
G3 X-417.02156 Y-222.43014 I0.99998 J-0.00686
G2 X-413.14988 Y-221.18333 I3.9423 J-5.60719
G3 X-413.10653 Y-221.18195 I-0.0103 J0.99995
G2 X-412.38692 Y-221.97615 I0.03705 J-0.68954
G3 X-412.3965 Y-222.19044 I0.98845 J-0.15157
G2 X-412.54805 Y-223.47865 I-3.61806 J-0.22736
G3 X-412.58885 Y-223.69411 I0.95623 J-0.29263
G2 X-413.44711 Y-224.42286 I-0.79047 J0.06118
G2 X-413.49053 Y-224.26359 I0.11935 J0.11809
G3 X-413.46394 Y-224.10711 I-0.96946 J0.24524
G1 X-413.36726 Y-223.02214
G3 X-414.49969 Y-221.94273 I-0.99605 J0.08876
G3 X-418.31556 Y-223.91835 I0.87626 J-6.36541
G1 F300.0 X-418.89975 Y-223.3718
G1 Z-4.0
G2 F800.0 X-418.81852 Y-222.93391 I149.2669 J-27.46198
G3 X-418.62249 Y-223.09121 I1.22181 J1.32181
G3 X-418.89975 Y-223.3718 I4.99906 J-5.21693
G1 F300.0 X-418.31556 Y-223.91835
G3 F800.0 X-419.06694 Y-224.89427 I4.69213 J-4.38979
G3 X-419.20786 Y-225.27174 I0.84718 J-0.53131
G1 X-420.04575 Y-230.65357
G3 X-420.04734 Y-230.66415 I0.9881 J-0.15384
G2 X-420.88247 Y-231.22806 I-0.67381 J0.09753
G2 X-420.93053 Y-231.07669 I0.09147 J0.11236
G3 X-420.90213 Y-230.93781 I-0.96306 J0.26928
G2 X-419.4322 Y-221.87869 I151.26928 J-19.89596
G3 X-419.41743 Y-221.77127 I-0.98183 J0.18978
G2 X-418.61947 Y-221.44589 I0.48154 J-0.0398
G2 X-418.59669 Y-221.60524 I-0.51976 J-0.15563
G3 X-417.02156 Y-222.43014 I0.99998 J-0.00686
G2 X-413.14988 Y-221.18333 I3.9423 J-5.60719
G3 X-413.10653 Y-221.18195 I-0.0103 J0.99995
G2 X-412.38692 Y-221.97615 I0.03705 J-0.68954
G3 X-412.3965 Y-222.19044 I0.98845 J-0.15157
G2 X-412.54805 Y-223.47865 I-3.61806 J-0.22736
G3 X-412.58885 Y-223.69411 I0.95623 J-0.29263
G2 X-413.44711 Y-224.42286 I-0.79047 J0.06118
G2 X-413.49053 Y-224.26359 I0.11935 J0.11809
G3 X-413.46394 Y-224.10711 I-0.96946 J0.24524
G1 X-413.36726 Y-223.02214
G3 X-414.49969 Y-221.94273 I-0.99605 J0.08876
G3 X-418.31556 Y-223.91835 I0.87626 J-6.36541
G0 Z3.0
G0 X-410.18186 Y-226.26118
G0 Z1.0
G1 F300.0 Z-2.0
G2 F800.0 X-409.58485 Y-224.85614 I6.05942 J-1.74535
G3 X-410.10352 Y-228.61372 I5.53534 J-2.67865
G3 X-408.77048 Y-230.55852 I2.80633 J0.49432
G2 X-410.43528 Y-228.17699 I0.55013 J2.15722
G3 X-410.42817 Y-228.03058 I-1.39288 J0.14106
G2 X-410.18186 Y-226.26118 I6.30573 J0.02406
G0 Z3.0
G0 X-403.18368 Y-226.81241
G0 Z1.0
G1 F300.0 Z-2.0
G2 F800.0 X-402.52709 Y-223.50391 I14.36581 J-1.13156
G3 X-403.00868 Y-221.96168 I-1.33037 J0.43087
G2 X-402.10849 Y-222.41607 I-1.50203 J-4.09456
G3 X-402.26678 Y-222.74697 I1.17291 J-0.76438
G3 X-403.2049 Y-228.07456 I18.36437 J-5.98012
G3 X-403.15733 Y-228.48668 I1.3992 J-0.0473
G2 X-402.62445 Y-230.74237 I-35.36181 J-9.54452
G2 X-402.63759 Y-230.75453 I-0.20283 J0.20588
G2 X-403.11179 Y-230.30261 I1.09605 J1.62484
G3 X-403.78802 Y-229.81316 I-1.12164 J-0.83781
G3 X-403.74531 Y-229.77994 I-3.3679 J4.37289
G3 X-403.21253 Y-228.61531 I-0.8641 J1.09948
G2 X-403.18368 Y-226.81241 I14.39466 J0.67134
G1 F300.0 X-402.72335 Y-226.85812
G3 F800.0 X-402.80513 Y-228.08808 I18.82095 J-1.86897
G3 X-402.77115 Y-228.38245 I0.99943 J-0.03379
G2 X-402.2004 Y-230.82241 I-35.74799 J-9.64875
G2 X-402.66367 Y-231.2058 I-0.62688 J0.28592
G2 X-403.43226 Y-230.54198 I1.12213 J2.0761
G3 X-404.76892 Y-230.29587 I-0.80117 J-0.59844
G2 X-408.85177 Y-230.95053 I-2.80266 J4.42021
G3 X-408.85479 Y-230.94977 I-0.2446 J-0.96962
G2 X-410.83325 Y-228.13668 I0.63445 J2.54848
G3 X-410.82816 Y-228.03211 I-0.99491 J0.10076
G2 X-404.25072 Y-221.30198 I6.70572 J0.02559
G2 X-401.65347 Y-222.24746 I-0.26 J-4.75426
G3 X-401.64763 Y-222.25181 I0.60009 J0.79993
G2 X-401.63321 Y-222.464 I-0.08292 J-0.11222
G3 X-401.88644 Y-222.87082 I0.69763 J-0.71646
G3 X-402.72335 Y-226.85812 I17.98403 J-5.85626
G1 F300.0 X-403.58163 Y-226.7911
G2 F800.0 X-402.90611 Y-223.38115 I14.76377 J-1.15287
G3 X-403.40203 Y-222.18276 I-0.95135 J0.30812
G3 X-406.59737 Y-222.37898 I-1.43182 J-2.79895
G3 X-409.71123 Y-228.54423 I2.54787 J-5.15581
G3 X-407.07882 Y-230.5608 I2.41404 J0.42482
G3 X-403.99149 Y-229.4667 I-0.07709 J5.12052
G3 X-403.61049 Y-228.63387 I-0.61792 J0.78624
G2 X-403.58163 Y-226.7911 I14.79263 J0.6899
G1 F300.0 Z-4.0
G2 F800.0 X-402.90611 Y-223.38115 I14.76377 J-1.15287
G3 X-403.40203 Y-222.18276 I-0.95135 J0.30812
G3 X-406.59737 Y-222.37898 I-1.43182 J-2.79895
G3 X-409.71123 Y-228.54423 I2.54787 J-5.15581
G3 X-407.07882 Y-230.5608 I2.41404 J0.42482
G3 X-403.99149 Y-229.4667 I-0.07709 J5.12052
G3 X-403.61049 Y-228.63387 I-0.61792 J0.78624
G2 X-403.58163 Y-226.7911 I14.79263 J0.6899
G1 F300.0 X-403.18444 Y-226.82211
G2 F800.0 X-402.52709 Y-223.50391 I14.36658 J-1.12186
G3 X-403.00868 Y-221.96168 I-1.33037 J0.43087
G2 X-402.10849 Y-222.41607 I-1.50203 J-4.09456
G3 X-402.26678 Y-222.74697 I1.17291 J-0.76438
G3 X-403.2049 Y-228.07456 I18.36437 J-5.98012
G3 X-403.15733 Y-228.48668 I1.3992 J-0.0473
G2 X-402.62445 Y-230.74237 I-35.36181 J-9.54452
G2 X-402.63759 Y-230.75453 I-0.20283 J0.20588
G2 X-403.11179 Y-230.30261 I1.09605 J1.62484
G3 X-403.78802 Y-229.81316 I-1.12164 J-0.83781
G3 X-403.74531 Y-229.77994 I-3.3679 J4.37289
G3 X-403.21253 Y-228.61531 I-0.8641 J1.09948
G2 X-403.18444 Y-226.82211 I14.39466 J0.67134
G0 Z3.0
G0 X-409.58485 Y-224.85614
G0 Z-1.0
G1 F300.0 Z-4.0
G3 F800.0 X-410.10352 Y-228.61372 I5.53534 J-2.67865
G3 X-408.77048 Y-230.55852 I2.80633 J0.49432
G2 X-410.43528 Y-228.17699 I0.55013 J2.15722
G3 X-410.42817 Y-228.03058 I-1.39288 J0.14106
G2 X-409.58485 Y-224.85614 I6.30573 J0.02406
G1 F300.0 X-409.93135 Y-224.6563
G2 F800.0 X-404.25072 Y-221.30198 I5.80891 J-3.35022
G2 X-401.65347 Y-222.24746 I-0.26 J-4.75426
G3 X-401.64763 Y-222.25181 I0.60009 J0.79993
G2 X-401.63321 Y-222.464 I-0.08292 J-0.11222
G3 X-401.88644 Y-222.87082 I0.69763 J-0.71646
G3 X-402.80513 Y-228.08808 I17.98403 J-5.85626
G3 X-402.77115 Y-228.38245 I0.99943 J-0.03379
G2 X-402.2004 Y-230.82241 I-35.74799 J-9.64875
G2 X-402.66367 Y-231.2058 I-0.62688 J0.28592
G2 X-403.43226 Y-230.54198 I1.12213 J2.0761
G3 X-404.76892 Y-230.29587 I-0.80117 J-0.59844
G2 X-408.85177 Y-230.95053 I-2.80266 J4.42021
G3 X-408.85479 Y-230.94977 I-0.2446 J-0.96962
G2 X-410.83325 Y-228.13668 I0.63445 J2.54848
G3 X-410.82816 Y-228.03211 I-0.99491 J0.10076
G2 X-409.93135 Y-224.6563 I6.70572 J0.02559
G0 Z3.0
G0 X-397.30338 Y-226.03318
G0 Z1.0
G1 F300.0 Z-2.0
G2 F800.0 X-396.28437 Y-221.71395 I17.9669 J-1.959
G3 X-396.25243 Y-221.61703 I-1.31282 J0.48632
G2 X-396.0994 Y-221.4632 I0.21699 J-0.06283
G3 X-396.16164 Y-221.60747 I1.2523 J-0.62589
G3 X-397.19675 Y-229.0878 I16.71789 J-6.12516
G3 X-396.49881 Y-230.19483 I1.39594 J0.10656
G3 X-394.79872 Y-230.62813 I1.62564 J2.82645
G3 X-393.69001 Y-230.5689 I-0.14278 J13.0788
G2 X-396.8646 Y-230.32221 I-1.25354 J4.41846
G2 X-397.34057 Y-229.59719 I0.35476 J0.75164
G3 X-397.34488 Y-229.52342 I-1.39928 J-0.04484
G2 X-397.30338 Y-226.03318 I18.0084 J1.53123
G0 Z3.0
G0 X-390.51951 Y-227.03886
G0 Z1.0
G1 F300.0 Z-2.0
G2 F800.0 X-389.48044 Y-221.83635 I52.54633 J-7.78974
G3 X-389.461 Y-221.7471 I-1.35748 J0.34241
G2 X-389.21014 Y-221.51905 I0.27506 J-0.05057
G2 X-389.25078 Y-221.69435 I-0.33847 J-0.01391
G3 X-389.39403 Y-222.09356 I1.23089 J-0.66701
G2 X-389.99011 Y-224.92349 I-93.8546 J18.2911
G3 X-390.03178 Y-225.10371 I1.34019 J-0.40485
G3 X-390.84573 Y-230.7653 I153.78427 J-24.99841
G2 X-391.09097 Y-230.97529 I-0.27237 J0.0699
G3 X-391.84775 Y-230.25775 I-1.27234 J-0.58408
G3 X-391.83774 Y-230.25531 I-3.09376 J12.70843
G3 X-390.77827 Y-229.04766 I-0.33222 J1.36001
G2 X-390.51951 Y-227.03886 I52.80509 J-5.78094
G1 F300.0 X-390.91518 Y-226.9802
G2 F800.0 X-389.86829 Y-221.73851 I52.94201 J-7.8484
G3 X-389.85441 Y-221.67477 I-0.96963 J0.24458
G2 X-388.89872 Y-221.18167 I0.66847 J-0.12291
G2 X-388.89909 Y-221.88493 I-0.64989 J-0.35129
G3 X-389.00142 Y-222.17007 I0.87921 J-0.47643
G2 X-389.60338 Y-225.02681 I-94.24721 J18.36761
G3 X-389.63696 Y-225.16789 I0.95345 J-0.30154
G3 X-390.45129 Y-230.83463 I153.38946 J-24.93423
G2 X-391.37046 Y-231.32813 I-0.66682 J0.13923
G2 X-391.41001 Y-231.25736 I0.15232 J0.13155
G3 X-392.79387 Y-230.6568 I-0.95331 J-0.302
G2 X-397.03349 Y-230.68481 I-2.14968 J4.50637
G2 X-397.74036 Y-229.61001 I0.52365 J1.11424
G3 X-397.74344 Y-229.55731 I-0.99949 J-0.03203
G2 X-396.65946 Y-221.575 I18.40697 J1.56512
G3 X-396.63665 Y-221.50577 I-0.93773 J0.34737
G2 X-395.74507 Y-221.12539 I0.60121 J-0.17409
G2 X-395.73405 Y-221.62723 I-0.45156 J-0.26096
G3 X-395.78606 Y-221.74507 I0.88695 J-0.46187
G3 X-396.79791 Y-229.05735 I16.34231 J-5.98755
G3 X-396.29938 Y-229.84809 I0.9971 J0.07611
G3 X-394.80553 Y-230.22818 I1.42621 J2.47971
G3 X-391.93266 Y-229.86674 I-0.13597 J12.67885
G3 X-391.17589 Y-229.00413 I-0.2373 J0.97144
G2 X-390.91518 Y-226.9802 I53.20272 J-5.82447
G1 F300.0 X-390.51951 Y-227.03886
G1 Z-4.0
G2 F800.0 X-389.48044 Y-221.83635 I52.54633 J-7.78974
G3 X-389.461 Y-221.7471 I-1.35748 J0.34241
G2 X-389.21014 Y-221.51905 I0.27506 J-0.05057
G2 X-389.25078 Y-221.69435 I-0.33847 J-0.01391
G3 X-389.39403 Y-222.09356 I1.23089 J-0.66701
G2 X-389.99011 Y-224.92349 I-93.8546 J18.2911
G3 X-390.03178 Y-225.10371 I1.34019 J-0.40485
G3 X-390.84573 Y-230.7653 I153.78427 J-24.99841
G2 X-391.09097 Y-230.97529 I-0.27237 J0.0699
G3 X-391.84775 Y-230.25775 I-1.27234 J-0.58408
G3 X-391.83774 Y-230.25531 I-3.09376 J12.70843
G3 X-390.77827 Y-229.04766 I-0.33222 J1.36001
G2 X-390.51951 Y-227.03886 I52.80509 J-5.78094
G0 Z3.0
G0 X-393.69001 Y-230.5689
G0 Z-1.0
G1 F300.0 Z-4.0
G2 F800.0 X-396.8646 Y-230.32221 I-1.25354 J4.41846
G2 X-397.34057 Y-229.59719 I0.35476 J0.75164
G3 X-397.34488 Y-229.52342 I-1.39928 J-0.04484
G2 X-396.28437 Y-221.71395 I18.0084 J1.53123
G3 X-396.25243 Y-221.61703 I-1.31282 J0.48632
G2 X-396.0994 Y-221.4632 I0.21699 J-0.06283
G3 X-396.16164 Y-221.60747 I1.2523 J-0.62589
G3 X-397.19675 Y-229.0878 I16.71789 J-6.12516
G3 X-396.49881 Y-230.19483 I1.39594 J0.10656
G3 X-394.79872 Y-230.62813 I1.62564 J2.82645
G3 X-393.69001 Y-230.5689 I-0.14278 J13.0788
G1 F300.0 X-393.58083 Y-230.95371
G2 F800.0 X-397.03349 Y-230.68481 I-1.36272 J4.80328
G2 X-397.74036 Y-229.61001 I0.52365 J1.11424
G3 X-397.74344 Y-229.55731 I-0.99949 J-0.03203
G2 X-396.65946 Y-221.575 I18.40697 J1.56512
G3 X-396.63665 Y-221.50577 I-0.93773 J0.34737
G2 X-395.74507 Y-221.12539 I0.60121 J-0.17409
G2 X-395.73405 Y-221.62723 I-0.45156 J-0.26096
G3 X-395.78606 Y-221.74507 I0.88695 J-0.46187
G3 X-396.79791 Y-229.05735 I16.34231 J-5.98755
G3 X-396.29938 Y-229.84809 I0.9971 J0.07611
G3 X-394.80553 Y-230.22818 I1.42621 J2.47971
G3 X-391.93266 Y-229.86674 I-0.13597 J12.67885
G3 X-391.17589 Y-229.00413 I-0.2373 J0.97144
G2 X-389.86829 Y-221.73851 I53.20272 J-5.82447
G3 X-389.85441 Y-221.67477 I-0.96963 J0.24458
G2 X-388.89872 Y-221.18167 I0.66847 J-0.12291
G2 X-388.89909 Y-221.88493 I-0.64989 J-0.35129
G3 X-389.00142 Y-222.17007 I0.87921 J-0.47643
G2 X-389.60338 Y-225.02681 I-94.24721 J18.36761
G3 X-389.63696 Y-225.16789 I0.95345 J-0.30154
G3 X-390.45129 Y-230.83463 I153.38946 J-24.93423
G2 X-391.37046 Y-231.32813 I-0.66682 J0.13923
G2 X-391.41001 Y-231.25736 I0.15232 J0.13155
G3 X-392.79387 Y-230.6568 I-0.95331 J-0.302
G2 X-393.58083 Y-230.95371 I-2.14968 J4.50637
G0 Z3.0
G0 X-386.3517 Y-228.69335
G0 Z1.0
G1 F300.0 Z-2.0
G2 F800.0 X-386.45246 Y-227.94553 I2.13949 J0.66896
G3 X-386.4517 Y-227.91308 I-1.39913 J0.04925
G2 X-386.08329 Y-225.78568 I6.79791 J-0.0816
G3 X-385.16103 Y-226.87614 I1.37916 J0.2312
G1 X-385.43595 Y-226.99069
G3 X-385.81563 Y-229.33989 I0.53846 J-1.29231
G3 X-383.60367 Y-230.55658 I3.9273 J4.52086
G2 X-385.62184 Y-229.76735 I0.70696 J4.78273
G2 X-386.3517 Y-228.69335 I1.40962 J1.74295
G0 Z3.0
G0 X-378.21016 Y-223.42732
G0 Z1.0
G1 F300.0 Z-2.0
G3 F800.0 X-378.9654 Y-222.04257 I-1.39143 J0.13944
G3 X-379.15623 Y-221.95028 I-2.21129 J-4.32846
G2 X-378.53237 Y-222.20342 I-1.72682 J-5.15098
G2 X-378.21016 Y-223.42732 I-0.535 J-0.79521
G1 F300.0 X-377.85241 Y-223.60623
G2 F800.0 X-378.23022 Y-224.06844 I-1.21496 J0.60761
G2 X-381.33889 Y-225.72047 I-6.23256 J7.97711
G3 X-381.41492 Y-225.74859 I0.30859 J-0.9512
G1 X-385.28211 Y-227.35992
G3 X-385.5533 Y-229.03792 I0.38462 J-0.92308
G3 X-379.1294 Y-229.67901 I3.66497 J4.21889
G3 X-378.94473 Y-229.5441 I-0.49368 J0.86964
G2 X-378.13893 Y-229.28373 I0.68454 J-0.74144
G2 X-378.28552 Y-229.57757 I-0.35471 J-0.00653
G3 X-378.34981 Y-229.62828 I0.58662 J-0.80987
G2 X-382.49746 Y-231.00218 I-3.75022 J4.37393
G3 X-382.61941 Y-231.0012 I-0.06898 J-0.99762
G2 X-385.86043 Y-230.08876 I-0.2773 J5.22735
G2 X-386.85221 Y-227.93146 I1.64821 J2.06437
G3 X-386.85167 Y-227.90828 I-0.99938 J0.03518
G2 X-383.33637 Y-221.80958 I7.19788 J-0.08641
G2 X-378.335 Y-221.85453 I2.45333 J-5.29168
G2 X-377.85241 Y-223.60623 I-0.73237 J-1.14409
G1 F300.0 X-378.61776 Y-223.46694
G3 F800.0 X-379.14665 Y-222.39736 I-0.98384 J0.17906
G3 X-384.99191 Y-224.05688 I-2.03004 J-3.97368
G3 X-385.60201 Y-225.11424 I7.5181 J-5.04274
G3 X-384.37329 Y-226.49817 I0.89788 J-0.44024
G3 X-379.12317 Y-224.16601 I-11.76968 J33.57129
G3 X-378.61776 Y-223.46694 I-0.47842 J0.87813
G1 F300.0 Z-4.0
G3 F800.0 X-379.14665 Y-222.39736 I-0.98384 J0.17906
G3 X-384.99191 Y-224.05688 I-2.03004 J-3.97368
G3 X-385.60201 Y-225.11424 I7.5181 J-5.04274
G3 X-384.37329 Y-226.49817 I0.89788 J-0.44024
G3 X-379.12317 Y-224.16601 I-11.76968 J33.57129
