( Made using CamBam - http://www.cambam.co.uk )
( Tafel-Hof-rechts-oben 12/1/2017 4:21:56 PM )
( T1 : 1.0 )
G21 G90 G64 G40
G0 Z3.0
( T1 : 1.0 )
T1 M6
( Profil-Feinschliff-Titel )
G17
M3 S1000
G0 X24.92334 Y239.07023
G0 Z1.0
G1 F300.0 Z-1.0
G3 F800.0 X22.84563 Y228.05819 I35.82078 J-12.46057
G2 X19.1181 Y228.24759 I-1.86008 J0.16712
G3 X19.56732 Y243.91277 I-602.01683 J25.1028
G2 X23.29402 Y243.84682 I1.86273 J-0.06796
G3 X24.29378 Y243.83169 I0.5 J0.00054
G2 X28.01032 Y245.75144 I3.38956 J-2.00465
G3 X28.06038 Y245.74978 I0.04152 J0.49827
G2 X32.07378 Y243.84963 I0.08559 J-5.00775
G3 X32.07794 Y243.84444 I0.39212 J0.31023
G2 X34.25293 Y238.47203 I-7.65922 J-6.22726
G3 X34.25452 Y238.45658 I0.49812 J0.0433
G2 X34.42956 Y228.06082 I-51.2278 J-6.0619
G2 X32.55013 Y226.35891 I-1.94413 J0.25822
G2 X30.71679 Y228.32291 I-0.03721 J1.80295
G3 X30.41172 Y238.91167 I-32.97462 J4.34877
G3 X30.40836 Y238.92783 I-0.49112 J-0.09381
G3 X29.52773 Y241.2905 I-9.13587 J-2.0597
G3 X29.4077 Y241.438 I-0.44074 J-0.23611
G3 X26.10869 Y240.91611 I-1.42176 J-1.70058
G3 X24.97308 Y239.17334 I65.03885 J-43.62147
G3 X24.92334 Y239.07023 I0.4225 J-0.26738
G1 F300.0 Z-2.0
G3 F800.0 X22.84563 Y228.05819 I35.82078 J-12.46057
G2 X19.1181 Y228.24759 I-1.86008 J0.16712
G3 X19.56732 Y243.91277 I-602.01683 J25.1028
G2 X23.29402 Y243.84682 I1.86273 J-0.06796
G3 X24.29378 Y243.83169 I0.5 J0.00054
G2 X28.01032 Y245.75144 I3.38956 J-2.00465
G3 X28.06038 Y245.74978 I0.04152 J0.49827
G2 X32.07378 Y243.84963 I0.08559 J-5.00775
G3 X32.07794 Y243.84444 I0.39212 J0.31023
G2 X34.25293 Y238.47203 I-7.65922 J-6.22726
G3 X34.25452 Y238.45658 I0.49812 J0.0433
G2 X34.42956 Y228.06082 I-51.2278 J-6.0619
G2 X32.55013 Y226.35891 I-1.94413 J0.25822
G2 X30.71679 Y228.32291 I-0.03721 J1.80295
G3 X30.41172 Y238.91167 I-32.97462 J4.34877
G3 X30.40836 Y238.92783 I-0.49112 J-0.09381
G3 X29.52773 Y241.2905 I-9.13587 J-2.0597
G3 X29.4077 Y241.438 I-0.44074 J-0.23611
G3 X26.10869 Y240.91611 I-1.42176 J-1.70058
G3 X24.97308 Y239.17334 I65.03885 J-43.62147
G3 X24.92334 Y239.07023 I0.4225 J-0.26738
G1 F300.0 Z-3.0
G3 F800.0 X22.84563 Y228.05819 I35.82078 J-12.46057
G2 X19.1181 Y228.24759 I-1.86008 J0.16712
G3 X19.56732 Y243.91277 I-602.01683 J25.1028
G2 X23.29402 Y243.84682 I1.86273 J-0.06796
G3 X24.29378 Y243.83169 I0.5 J0.00054
G2 X28.01032 Y245.75144 I3.38956 J-2.00465
G3 X28.06038 Y245.74978 I0.04152 J0.49827
G2 X32.07378 Y243.84963 I0.08559 J-5.00775
G3 X32.07794 Y243.84444 I0.39212 J0.31023
G2 X34.25293 Y238.47203 I-7.65922 J-6.22726
G3 X34.25452 Y238.45658 I0.49812 J0.0433
G2 X34.42956 Y228.06082 I-51.2278 J-6.0619
G2 X32.55013 Y226.35891 I-1.94413 J0.25822
G2 X30.71679 Y228.32291 I-0.03721 J1.80295
G3 X30.41172 Y238.91167 I-32.97462 J4.34877
G3 X30.40836 Y238.92783 I-0.49112 J-0.09381
G3 X29.52773 Y241.2905 I-9.13587 J-2.0597
G3 X29.4077 Y241.438 I-0.44074 J-0.23611
G3 X26.10869 Y240.91611 I-1.42176 J-1.70058
G3 X24.97308 Y239.17334 I65.03885 J-43.62147
G3 X24.92334 Y239.07023 I0.4225 J-0.26738
G1 F300.0 Z-4.0
G3 F800.0 X22.84563 Y228.05819 I35.82078 J-12.46057
G2 X19.1181 Y228.24759 I-1.86008 J0.16712
G3 X19.56732 Y243.91277 I-602.01683 J25.1028
G2 X23.29402 Y243.84682 I1.86273 J-0.06796
G3 X24.29378 Y243.83169 I0.5 J0.00054
G2 X28.01032 Y245.75144 I3.38956 J-2.00465
G3 X28.06038 Y245.74978 I0.04152 J0.49827
G2 X32.07378 Y243.84963 I0.08559 J-5.00775
G3 X32.07794 Y243.84444 I0.39212 J0.31023
G2 X34.25293 Y238.47203 I-7.65922 J-6.22726
G3 X34.25452 Y238.45658 I0.49812 J0.0433
G2 X34.42956 Y228.06082 I-51.2278 J-6.0619
G2 X32.55013 Y226.35891 I-1.94413 J0.25822
G2 X30.71679 Y228.32291 I-0.03721 J1.80295
G3 X30.41172 Y238.91167 I-32.97462 J4.34877
G3 X30.40836 Y238.92783 I-0.49112 J-0.09381
G3 X29.52773 Y241.2905 I-9.13587 J-2.0597
G3 X29.4077 Y241.438 I-0.44074 J-0.23611
G3 X26.10869 Y240.91611 I-1.42176 J-1.70058
G3 X24.97308 Y239.17334 I65.03885 J-43.62147
G3 X24.92334 Y239.07023 I0.4225 J-0.26738
G1 F300.0 Z-5.0
G3 F800.0 X22.84563 Y228.05819 I35.82078 J-12.46057
G2 X19.1181 Y228.24759 I-1.86008 J0.16712
G3 X19.56732 Y243.91277 I-602.01683 J25.1028
G2 X23.29402 Y243.84682 I1.86273 J-0.06796
G3 X24.29378 Y243.83169 I0.5 J0.00054
G2 X28.01032 Y245.75144 I3.38956 J-2.00465
G3 X28.06038 Y245.74978 I0.04152 J0.49827
G2 X32.07378 Y243.84963 I0.08559 J-5.00775
G3 X32.07794 Y243.84444 I0.39212 J0.31023
G2 X34.25293 Y238.47203 I-7.65922 J-6.22726
G3 X34.25452 Y238.45658 I0.49812 J0.0433
G2 X34.42956 Y228.06082 I-51.2278 J-6.0619
G2 X32.55013 Y226.35891 I-1.94413 J0.25822
G2 X30.71679 Y228.32291 I-0.03721 J1.80295
G3 X30.41172 Y238.91167 I-32.97462 J4.34877
G3 X30.40836 Y238.92783 I-0.49112 J-0.09381
G3 X29.52773 Y241.2905 I-9.13587 J-2.0597
G3 X29.4077 Y241.438 I-0.44074 J-0.23611
G3 X26.10869 Y240.91611 I-1.42176 J-1.70058
G3 X24.97308 Y239.17334 I65.03885 J-43.62147
G3 X24.92334 Y239.07023 I0.4225 J-0.26738
G1 F300.0 Z-6.0
G3 F800.0 X22.84563 Y228.05819 I35.82078 J-12.46057
G2 X19.1181 Y228.24759 I-1.86008 J0.16712
G3 X19.56732 Y243.91277 I-602.01683 J25.1028
G2 X23.29402 Y243.84682 I1.86273 J-0.06796
G3 X24.29378 Y243.83169 I0.5 J0.00054
G2 X28.01032 Y245.75144 I3.38956 J-2.00465
G3 X28.06038 Y245.74978 I0.04152 J0.49827
G2 X32.07378 Y243.84963 I0.08559 J-5.00775
G3 X32.07794 Y243.84444 I0.39212 J0.31023
G2 X34.25293 Y238.47203 I-7.65922 J-6.22726
G3 X34.25452 Y238.45658 I0.49812 J0.0433
G2 X34.42956 Y228.06082 I-51.2278 J-6.0619
G2 X32.55013 Y226.35891 I-1.94413 J0.25822
G2 X30.71679 Y228.32291 I-0.03721 J1.80295
G3 X30.41172 Y238.91167 I-32.97462 J4.34877
G3 X30.40836 Y238.92783 I-0.49112 J-0.09381
G3 X29.52773 Y241.2905 I-9.13587 J-2.0597
G3 X29.4077 Y241.438 I-0.44074 J-0.23611
G3 X26.10869 Y240.91611 I-1.42176 J-1.70058
G3 X24.97308 Y239.17334 I65.03885 J-43.62147
G3 X24.92334 Y239.07023 I0.4225 J-0.26738
G0 Z3.0
G0 X16.72224 Y238.14851
G0 Z1.0
G1 F300.0 Z-1.0
G2 F800.0 X15.1524 Y236.12015 I-1.82962 J-0.20563
G1 X7.36222 Y235.10489
G3 X6.92709 Y234.59316 I0.06462 J-0.49581
G2 X7.12226 Y228.26982 I-3131.24919 J-99.81006
G2 X3.39552 Y228.27318 I-1.86339 J-0.02565
G3 X3.39556 Y228.27593 I-0.49994 J0.00778
G3 X3.22065 Y234.08735 I-72.41729 J0.72877
G3 X2.74476 Y234.55174 I-0.49877 J-0.03509
G2 X2.59356 Y238.24971 I0.08498 J1.85555
G1 X2.62215
G3 X3.1216 Y238.77313 I0.0 J0.5
G2 X4.0509 Y252.23081 I58.30718 J2.73459
G2 X5.99484 Y256.04458 I7.56774 J-1.45509
G3 X6.00204 Y256.05243 I-0.36488 J0.34185
G2 X11.99172 Y256.83076 I3.44756 J-3.09476
G2 X15.65708 Y251.69737 I-5.22944 J-7.60921
G3 X15.66287 Y251.67806 I0.48169 J0.13408
G2 X16.44302 Y248.23384 I-18.89813 J-6.09103
G3 X16.45013 Y248.19352 I0.49554 J0.06665
G2 X14.65191 Y246.1233 I-1.66978 J-0.3657
G3 X14.5987 Y246.12447 I-0.03757 J-0.49859
G2 X12.7664 Y247.62465 I-0.0563 J1.80031
G3 X11.29698 Y252.32454 I-12.33857 J-1.27799
G3 X9.57511 Y253.85961 I-2.44387 J-1.00804
G3 X9.13989 Y253.77962 I-0.13656 J-0.48099
G3 X7.67504 Y251.30804 I2.22659 J-2.98954
G3 X6.82947 Y239.27954 I57.04043 J-10.05375
G3 X7.39649 Y238.80114 I0.49971 J0.01705
G1 X14.58399 Y239.7777
G3 X14.59355 Y239.77909 I-0.06732 J0.49545
G2 X16.71648 Y238.19459 I0.28513 J-1.83239
G3 X16.71664 Y238.19339 I0.49551 J0.06684
G2 X16.72224 Y238.14851 I-1.82401 J-0.25052
G1 F300.0 Z-2.0
G2 F800.0 X15.1524 Y236.12015 I-1.82962 J-0.20563
G1 X7.36222 Y235.10489
G3 X6.92709 Y234.59316 I0.06462 J-0.49581
G2 X7.12226 Y228.26982 I-3131.24919 J-99.81006
G2 X3.39552 Y228.27318 I-1.86339 J-0.02565
G3 X3.39556 Y228.27593 I-0.49994 J0.00778
G3 X3.22065 Y234.08735 I-72.41729 J0.72877
G3 X2.74476 Y234.55174 I-0.49877 J-0.03509
G2 X2.59356 Y238.24971 I0.08498 J1.85555
G1 X2.62215
G3 X3.1216 Y238.77313 I0.0 J0.5
G2 X4.0509 Y252.23081 I58.30718 J2.73459
G2 X5.99484 Y256.04458 I7.56774 J-1.45509
G3 X6.00204 Y256.05243 I-0.36488 J0.34185
G2 X11.99172 Y256.83076 I3.44756 J-3.09476
G2 X15.65708 Y251.69737 I-5.22944 J-7.60921
G3 X15.66287 Y251.67806 I0.48169 J0.13408
G2 X16.44302 Y248.23384 I-18.89813 J-6.09103
G3 X16.45013 Y248.19352 I0.49554 J0.06665
G2 X14.65191 Y246.1233 I-1.66978 J-0.3657
G3 X14.5987 Y246.12447 I-0.03757 J-0.49859
G2 X12.7664 Y247.62465 I-0.0563 J1.80031
G3 X11.29698 Y252.32454 I-12.33857 J-1.27799
G3 X9.57511 Y253.85961 I-2.44387 J-1.00804
G3 X9.13989 Y253.77962 I-0.13656 J-0.48099
G3 X7.67504 Y251.30804 I2.22659 J-2.98954
G3 X6.82947 Y239.27954 I57.04043 J-10.05375
G3 X7.39649 Y238.80114 I0.49971 J0.01705
G1 X14.58399 Y239.7777
G3 X14.59355 Y239.77909 I-0.06732 J0.49545
G2 X16.71648 Y238.19459 I0.28513 J-1.83239
G3 X16.71664 Y238.19339 I0.49551 J0.06684
G2 X16.72224 Y238.14851 I-1.82401 J-0.25052
G1 F300.0 Z-3.0
G2 F800.0 X15.1524 Y236.12015 I-1.82962 J-0.20563
G1 X7.36222 Y235.10489
G3 X6.92709 Y234.59316 I0.06462 J-0.49581
G2 X7.12226 Y228.26982 I-3131.24919 J-99.81006
G2 X3.39552 Y228.27318 I-1.86339 J-0.02565
G3 X3.39556 Y228.27593 I-0.49994 J0.00778
G3 X3.22065 Y234.08735 I-72.41729 J0.72877
G3 X2.74476 Y234.55174 I-0.49877 J-0.03509
G2 X2.59356 Y238.24971 I0.08498 J1.85555
G1 X2.62215
G3 X3.1216 Y238.77313 I0.0 J0.5
G2 X4.0509 Y252.23081 I58.30718 J2.73459
G2 X5.99484 Y256.04458 I7.56774 J-1.45509
G3 X6.00204 Y256.05243 I-0.36488 J0.34185
G2 X11.99172 Y256.83076 I3.44756 J-3.09476
G2 X15.65708 Y251.69737 I-5.22944 J-7.60921
G3 X15.66287 Y251.67806 I0.48169 J0.13408
G2 X16.44302 Y248.23384 I-18.89813 J-6.09103
G3 X16.45013 Y248.19352 I0.49554 J0.06665
G2 X14.65191 Y246.1233 I-1.66978 J-0.3657
G3 X14.5987 Y246.12447 I-0.03757 J-0.49859
G2 X12.7664 Y247.62465 I-0.0563 J1.80031
G3 X11.29698 Y252.32454 I-12.33857 J-1.27799
G3 X9.57511 Y253.85961 I-2.44387 J-1.00804
G3 X9.13989 Y253.77962 I-0.13656 J-0.48099
G3 X7.67504 Y251.30804 I2.22659 J-2.98954
G3 X6.82947 Y239.27954 I57.04043 J-10.05375
G3 X7.39649 Y238.80114 I0.49971 J0.01705
G1 X14.58399 Y239.7777
G3 X14.59355 Y239.77909 I-0.06732 J0.49545
G2 X16.71648 Y238.19459 I0.28513 J-1.83239
G3 X16.71664 Y238.19339 I0.49551 J0.06684
G2 X16.72224 Y238.14851 I-1.82401 J-0.25052
G1 F300.0 Z-4.0
G2 F800.0 X15.1524 Y236.12015 I-1.82962 J-0.20563
G1 X7.36222 Y235.10489
G3 X6.92709 Y234.59316 I0.06462 J-0.49581
G2 X7.12226 Y228.26982 I-3131.24919 J-99.81006
G2 X3.39552 Y228.27318 I-1.86339 J-0.02565
G3 X3.39556 Y228.27593 I-0.49994 J0.00778
G3 X3.22065 Y234.08735 I-72.41729 J0.72877
G3 X2.74476 Y234.55174 I-0.49877 J-0.03509
G2 X2.59356 Y238.24971 I0.08498 J1.85555
G1 X2.62215
G3 X3.1216 Y238.77313 I0.0 J0.5
G2 X4.0509 Y252.23081 I58.30718 J2.73459
G2 X5.99484 Y256.04458 I7.56774 J-1.45509
G3 X6.00204 Y256.05243 I-0.36488 J0.34185
G2 X11.99172 Y256.83076 I3.44756 J-3.09476
G2 X15.65708 Y251.69737 I-5.22944 J-7.60921
G3 X15.66287 Y251.67806 I0.48169 J0.13408
G2 X16.44302 Y248.23384 I-18.89813 J-6.09103
G3 X16.45013 Y248.19352 I0.49554 J0.06665
G2 X14.65191 Y246.1233 I-1.66978 J-0.3657
G3 X14.5987 Y246.12447 I-0.03757 J-0.49859
G2 X12.7664 Y247.62465 I-0.0563 J1.80031
G3 X11.29698 Y252.32454 I-12.33857 J-1.27799
G3 X9.57511 Y253.85961 I-2.44387 J-1.00804
G3 X9.13989 Y253.77962 I-0.13656 J-0.48099
G3 X7.67504 Y251.30804 I2.22659 J-2.98954
G3 X6.82947 Y239.27954 I57.04043 J-10.05375
G3 X7.39649 Y238.80114 I0.49971 J0.01705
G1 X14.58399 Y239.7777
G3 X14.59355 Y239.77909 I-0.06732 J0.49545
G2 X16.71648 Y238.19459 I0.28513 J-1.83239
G3 X16.71664 Y238.19339 I0.49551 J0.06684
G2 X16.72224 Y238.14851 I-1.82401 J-0.25052
G1 F300.0 Z-5.0
G2 F800.0 X15.1524 Y236.12015 I-1.82962 J-0.20563
G1 X7.36222 Y235.10489
G3 X6.92709 Y234.59316 I0.06462 J-0.49581
G2 X7.12226 Y228.26982 I-3131.24919 J-99.81006
G2 X3.39552 Y228.27318 I-1.86339 J-0.02565
G3 X3.39556 Y228.27593 I-0.49994 J0.00778
G3 X3.22065 Y234.08735 I-72.41729 J0.72877
G3 X2.74476 Y234.55174 I-0.49877 J-0.03509
G2 X2.59356 Y238.24971 I0.08498 J1.85555
G1 X2.62215
G3 X3.1216 Y238.77313 I0.0 J0.5
G2 X4.0509 Y252.23081 I58.30718 J2.73459
G2 X5.99484 Y256.04458 I7.56774 J-1.45509
G3 X6.00204 Y256.05243 I-0.36488 J0.34185
G2 X11.99172 Y256.83076 I3.44756 J-3.09476
G2 X15.65708 Y251.69737 I-5.22944 J-7.60921
G3 X15.66287 Y251.67806 I0.48169 J0.13408
G2 X16.44302 Y248.23384 I-18.89813 J-6.09103
G3 X16.45013 Y248.19352 I0.49554 J0.06665
G2 X14.65191 Y246.1233 I-1.66978 J-0.3657
G3 X14.5987 Y246.12447 I-0.03757 J-0.49859
G2 X12.7664 Y247.62465 I-0.0563 J1.80031
G3 X11.29698 Y252.32454 I-12.33857 J-1.27799
G3 X9.57511 Y253.85961 I-2.44387 J-1.00804
G3 X9.13989 Y253.77962 I-0.13656 J-0.48099
G3 X7.67504 Y251.30804 I2.22659 J-2.98954
G3 X6.82947 Y239.27954 I57.04043 J-10.05375
G3 X7.39649 Y238.80114 I0.49971 J0.01705
G1 X14.58399 Y239.7777
G3 X14.59355 Y239.77909 I-0.06732 J0.49545
G2 X16.71648 Y238.19459 I0.28513 J-1.83239
G3 X16.71664 Y238.19339 I0.49551 J0.06684
G2 X16.72224 Y238.14851 I-1.82401 J-0.25052
G1 F300.0 Z-6.0
G2 F800.0 X15.1524 Y236.12015 I-1.82962 J-0.20563
G1 X7.36222 Y235.10489
G3 X6.92709 Y234.59316 I0.06462 J-0.49581
G2 X7.12226 Y228.26982 I-3131.24919 J-99.81006
G2 X3.39552 Y228.27318 I-1.86339 J-0.02565
G3 X3.39556 Y228.27593 I-0.49994 J0.00778
G3 X3.22065 Y234.08735 I-72.41729 J0.72877
G3 X2.74476 Y234.55174 I-0.49877 J-0.03509
G2 X2.59356 Y238.24971 I0.08498 J1.85555
G1 X2.62215
G3 X3.1216 Y238.77313 I0.0 J0.5
G2 X4.0509 Y252.23081 I58.30718 J2.73459
G2 X5.99484 Y256.04458 I7.56774 J-1.45509
G3 X6.00204 Y256.05243 I-0.36488 J0.34185
G2 X11.99172 Y256.83076 I3.44756 J-3.09476
G2 X15.65708 Y251.69737 I-5.22944 J-7.60921
G3 X15.66287 Y251.67806 I0.48169 J0.13408
G2 X16.44302 Y248.23384 I-18.89813 J-6.09103
G3 X16.45013 Y248.19352 I0.49554 J0.06665
G2 X14.65191 Y246.1233 I-1.66978 J-0.3657
G3 X14.5987 Y246.12447 I-0.03757 J-0.49859
G2 X12.7664 Y247.62465 I-0.0563 J1.80031
G3 X11.29698 Y252.32454 I-12.33857 J-1.27799
G3 X9.57511 Y253.85961 I-2.44387 J-1.00804
G3 X9.13989 Y253.77962 I-0.13656 J-0.48099
G3 X7.67504 Y251.30804 I2.22659 J-2.98954
G3 X6.82947 Y239.27954 I57.04043 J-10.05375
G3 X7.39649 Y238.80114 I0.49971 J0.01705
G1 X14.58399 Y239.7777
G3 X14.59355 Y239.77909 I-0.06732 J0.49545
G2 X16.71648 Y238.19459 I0.28513 J-1.83239
G3 X16.71664 Y238.19339 I0.49551 J0.06684
G2 X16.72224 Y238.14851 I-1.82401 J-0.25052
G0 Z3.0
G0 X38.33774 Y237.92429
G0 Z1.0
G1 F300.0 Z-1.0
G2 F800.0 X38.36019 Y238.73292 I23.27425 J-0.24142
G3 X38.3607 Y238.75489 I-0.49949 J0.02256
G2 X38.55022 Y243.98278 I74.60367 J-0.08724
G2 X40.39831 Y245.71058 I1.89419 J-0.17378
G2 X42.26075 Y243.7185 I-0.02523 J-1.89025
G3 X42.56609 Y233.12965 I33.36801 J-4.33663
G3 X42.5688 Y233.11634 I0.49129 J0.0929
G3 X43.45358 Y230.75483 I8.56228 J1.8615
G3 X43.5681 Y230.61463 I0.4381 J0.24098
G3 X46.85221 Y231.15599 I1.41241 J1.66382
G3 X48.00428 Y232.89434 I-53.08961 J36.43543
G3 X48.05487 Y232.99819 I-0.4212 J0.26943
G3 X50.1331 Y243.99294 I-35.15595 J12.33899
G2 X53.84115 Y243.78559 I1.85069 J-0.16336
G3 X53.43078 Y228.52185 I551.09089 J-22.45345
G3 X53.43585 Y228.44405 I0.49996 J-0.00652
G2 X49.68461 Y228.15347 I-1.86605 J-0.26879
G3 X48.69157 Y228.23058 I-0.49997 J-0.00578
G2 X44.95277 Y226.31795 I-3.38154 J1.99961
G3 X44.92085 Y226.31984 I-0.04547 J-0.49793
G2 X39.45987 Y230.53849 I0.15851 J5.8491
G3 X39.45563 Y230.55234 I-0.4802 J-0.13933
G2 X38.33774 Y237.92429 I22.15636 J7.13054
G1 F300.0 Z-2.0
G2 F800.0 X38.36019 Y238.73292 I23.27425 J-0.24142
G3 X38.3607 Y238.75489 I-0.49949 J0.02256
G2 X38.55022 Y243.98278 I74.60367 J-0.08724
G2 X40.39831 Y245.71058 I1.89419 J-0.17378
G2 X42.26075 Y243.7185 I-0.02523 J-1.89025
G3 X42.56609 Y233.12965 I33.36801 J-4.33663
G3 X42.5688 Y233.11634 I0.49129 J0.0929
G3 X43.45358 Y230.75483 I8.56228 J1.8615
G3 X43.5681 Y230.61463 I0.4381 J0.24098
G3 X46.85221 Y231.15599 I1.41241 J1.66382
G3 X48.00428 Y232.89434 I-53.08961 J36.43543
G3 X48.05487 Y232.99819 I-0.4212 J0.26943
G3 X50.1331 Y243.99294 I-35.15595 J12.33899
G2 X53.84115 Y243.78559 I1.85069 J-0.16336
G3 X53.43078 Y228.52185 I551.09089 J-22.45345
G3 X53.43585 Y228.44405 I0.49996 J-0.00652
G2 X49.68461 Y228.15347 I-1.86605 J-0.26879
G3 X48.69157 Y228.23058 I-0.49997 J-0.00578
G2 X44.95277 Y226.31795 I-3.38154 J1.99961
G3 X44.92085 Y226.31984 I-0.04547 J-0.49793
G2 X39.45987 Y230.53849 I0.15851 J5.8491
G3 X39.45563 Y230.55234 I-0.4802 J-0.13933
G2 X38.33774 Y237.92429 I22.15636 J7.13054
G1 F300.0 Z-3.0
G2 F800.0 X38.36019 Y238.73292 I23.27425 J-0.24142
G3 X38.3607 Y238.75489 I-0.49949 J0.02256
G2 X38.55022 Y243.98278 I74.60367 J-0.08724
G2 X40.39831 Y245.71058 I1.89419 J-0.17378
G2 X42.26075 Y243.7185 I-0.02523 J-1.89025
G3 X42.56609 Y233.12965 I33.36801 J-4.33663
G3 X42.5688 Y233.11634 I0.49129 J0.0929
G3 X43.45358 Y230.75483 I8.56228 J1.8615
G3 X43.5681 Y230.61463 I0.4381 J0.24098
G3 X46.85221 Y231.15599 I1.41241 J1.66382
G3 X48.00428 Y232.89434 I-53.08961 J36.43543
G3 X48.05487 Y232.99819 I-0.4212 J0.26943
G3 X50.1331 Y243.99294 I-35.15595 J12.33899
G2 X53.84115 Y243.78559 I1.85069 J-0.16336
G3 X53.43078 Y228.52185 I551.09089 J-22.45345
G3 X53.43585 Y228.44405 I0.49996 J-0.00652
G2 X49.68461 Y228.15347 I-1.86605 J-0.26879
G3 X48.69157 Y228.23058 I-0.49997 J-0.00578
G2 X44.95277 Y226.31795 I-3.38154 J1.99961
G3 X44.92085 Y226.31984 I-0.04547 J-0.49793
G2 X39.45987 Y230.53849 I0.15851 J5.8491
G3 X39.45563 Y230.55234 I-0.4802 J-0.13933
G2 X38.33774 Y237.92429 I22.15636 J7.13054
G1 F300.0 Z-4.0
G2 F800.0 X38.36019 Y238.73292 I23.27425 J-0.24142
G3 X38.3607 Y238.75489 I-0.49949 J0.02256
G2 X38.55022 Y243.98278 I74.60367 J-0.08724
G2 X40.39831 Y245.71058 I1.89419 J-0.17378
G2 X42.26075 Y243.7185 I-0.02523 J-1.89025
G3 X42.56609 Y233.12965 I33.36801 J-4.33663
G3 X42.5688 Y233.11634 I0.49129 J0.0929
G3 X43.45358 Y230.75483 I8.56228 J1.8615
G3 X43.5681 Y230.61463 I0.4381 J0.24098
G3 X46.85221 Y231.15599 I1.41241 J1.66382
G3 X48.00428 Y232.89434 I-53.08961 J36.43543
G3 X48.05487 Y232.99819 I-0.4212 J0.26943
G3 X50.1331 Y243.99294 I-35.15595 J12.33899
G2 X53.84115 Y243.78559 I1.85069 J-0.16336
G3 X53.43078 Y228.52185 I551.09089 J-22.45345
G3 X53.43585 Y228.44405 I0.49996 J-0.00652
G2 X49.68461 Y228.15347 I-1.86605 J-0.26879
G3 X48.69157 Y228.23058 I-0.49997 J-0.00578
G2 X44.95277 Y226.31795 I-3.38154 J1.99961
G3 X44.92085 Y226.31984 I-0.04547 J-0.49793
G2 X39.45987 Y230.53849 I0.15851 J5.8491
G3 X39.45563 Y230.55234 I-0.4802 J-0.13933
G2 X38.33774 Y237.92429 I22.15636 J7.13054
G1 F300.0 Z-5.0
G2 F800.0 X38.36019 Y238.73292 I23.27425 J-0.24142
G3 X38.3607 Y238.75489 I-0.49949 J0.02256
G2 X38.55022 Y243.98278 I74.60367 J-0.08724
G2 X40.39831 Y245.71058 I1.89419 J-0.17378
G2 X42.26075 Y243.7185 I-0.02523 J-1.89025
G3 X42.56609 Y233.12965 I33.36801 J-4.33663
G3 X42.5688 Y233.11634 I0.49129 J0.0929
G3 X43.45358 Y230.75483 I8.56228 J1.8615
G3 X43.5681 Y230.61463 I0.4381 J0.24098
G3 X46.85221 Y231.15599 I1.41241 J1.66382
G3 X48.00428 Y232.89434 I-53.08961 J36.43543
G3 X48.05487 Y232.99819 I-0.4212 J0.26943
G3 X50.1331 Y243.99294 I-35.15595 J12.33899
G2 X53.84115 Y243.78559 I1.85069 J-0.16336
G3 X53.43078 Y228.52185 I551.09089 J-22.45345
G3 X53.43585 Y228.44405 I0.49996 J-0.00652
G2 X49.68461 Y228.15347 I-1.86605 J-0.26879
G3 X48.69157 Y228.23058 I-0.49997 J-0.00578
G2 X44.95277 Y226.31795 I-3.38154 J1.99961
G3 X44.92085 Y226.31984 I-0.04547 J-0.49793
G2 X39.45987 Y230.53849 I0.15851 J5.8491
G3 X39.45563 Y230.55234 I-0.4802 J-0.13933
G2 X38.33774 Y237.92429 I22.15636 J7.13054
G1 F300.0 Z-6.0
G2 F800.0 X38.36019 Y238.73292 I23.27425 J-0.24142
G3 X38.3607 Y238.75489 I-0.49949 J0.02256
G2 X38.55022 Y243.98278 I74.60367 J-0.08724
G2 X40.39831 Y245.71058 I1.89419 J-0.17378
G2 X42.26075 Y243.7185 I-0.02523 J-1.89025
G3 X42.56609 Y233.12965 I33.36801 J-4.33663
G3 X42.5688 Y233.11634 I0.49129 J0.0929
G3 X43.45358 Y230.75483 I8.56228 J1.8615
G3 X43.5681 Y230.61463 I0.4381 J0.24098
G3 X46.85221 Y231.15599 I1.41241 J1.66382
G3 X48.00428 Y232.89434 I-53.08961 J36.43543
G3 X48.05487 Y232.99819 I-0.4212 J0.26943
G3 X50.1331 Y243.99294 I-35.15595 J12.33899
G2 X53.84115 Y243.78559 I1.85069 J-0.16336
G3 X53.43078 Y228.52185 I551.09089 J-22.45345
G3 X53.43585 Y228.44405 I0.49996 J-0.00652
G2 X49.68461 Y228.15347 I-1.86605 J-0.26879
G3 X48.69157 Y228.23058 I-0.49997 J-0.00578
G2 X44.95277 Y226.31795 I-3.38154 J1.99961
G3 X44.92085 Y226.31984 I-0.04547 J-0.49793
G2 X39.45987 Y230.53849 I0.15851 J5.8491
G3 X39.45563 Y230.55234 I-0.4802 J-0.13933
G2 X38.33774 Y237.92429 I22.15636 J7.13054
G0 Z3.0
G0 X57.6726 Y237.41269
G0 Z1.0
G1 F300.0 Z-1.0
G3 F800.0 X57.80951 Y243.91277 I-602.32915 J15.9377
G2 X61.53621 Y243.84682 I1.86273 J-0.06796
G3 X62.53596 Y243.83169 I0.5 J0.00054
G2 X66.25251 Y245.75144 I3.38956 J-2.00465
G3 X66.30257 Y245.74978 I0.04152 J0.49827
G2 X70.31597 Y243.84963 I0.08559 J-5.00775
G3 X70.32013 Y243.84444 I0.39212 J0.31023
G2 X72.49512 Y238.47203 I-7.65922 J-6.22726
G3 X72.4967 Y238.45658 I0.49812 J0.0433
G2 X72.67174 Y228.06082 I-51.2278 J-6.0619
G2 X70.79232 Y226.35891 I-1.94413 J0.25822
G2 X68.95897 Y228.32291 I-0.03721 J1.80295
G3 X68.65391 Y238.91167 I-32.97462 J4.34877
G3 X68.65055 Y238.92783 I-0.49112 J-0.09381
G3 X67.76992 Y241.2905 I-9.13587 J-2.0597
G3 X67.64988 Y241.438 I-0.44074 J-0.23611
G3 X64.35088 Y240.91611 I-1.42176 J-1.70058
G3 X63.21527 Y239.17334 I65.03885 J-43.62147
G3 X63.16553 Y239.07023 I0.4225 J-0.26738
G3 X61.08781 Y228.05819 I35.82078 J-12.46057
G2 X57.36029 Y228.24759 I-1.86008 J0.16712
G3 X57.6726 Y237.41269 I-602.01683 J25.1028
G1 F300.0 Z-2.0
G3 F800.0 X57.80951 Y243.91277 I-602.32915 J15.9377
G2 X61.53621 Y243.84682 I1.86273 J-0.06796
G3 X62.53596 Y243.83169 I0.5 J0.00054
G2 X66.25251 Y245.75144 I3.38956 J-2.00465
G3 X66.30257 Y245.74978 I0.04152 J0.49827
G2 X70.31597 Y243.84963 I0.08559 J-5.00775
G3 X70.32013 Y243.84444 I0.39212 J0.31023
G2 X72.49512 Y238.47203 I-7.65922 J-6.22726
G3 X72.4967 Y238.45658 I0.49812 J0.0433
G2 X72.67174 Y228.06082 I-51.2278 J-6.0619
G2 X70.79232 Y226.35891 I-1.94413 J0.25822
G2 X68.95897 Y228.32291 I-0.03721 J1.80295
G3 X68.65391 Y238.91167 I-32.97462 J4.34877
G3 X68.65055 Y238.92783 I-0.49112 J-0.09381
G3 X67.76992 Y241.2905 I-9.13587 J-2.0597
G3 X67.64988 Y241.438 I-0.44074 J-0.23611
G3 X64.35088 Y240.91611 I-1.42176 J-1.70058
G3 X63.21527 Y239.17334 I65.03885 J-43.62147
G3 X63.16553 Y239.07023 I0.4225 J-0.26738
G3 X61.08781 Y228.05819 I35.82078 J-12.46057
G2 X57.36029 Y228.24759 I-1.86008 J0.16712
G3 X57.6726 Y237.41269 I-602.01683 J25.1028
G1 F300.0 Z-3.0
G3 F800.0 X57.80951 Y243.91277 I-602.32915 J15.9377
G2 X61.53621 Y243.84682 I1.86273 J-0.06796
G3 X62.53596 Y243.83169 I0.5 J0.00054
G2 X66.25251 Y245.75144 I3.38956 J-2.00465
G3 X66.30257 Y245.74978 I0.04152 J0.49827
G2 X70.31597 Y243.84963 I0.08559 J-5.00775
G3 X70.32013 Y243.84444 I0.39212 J0.31023
G2 X72.49512 Y238.47203 I-7.65922 J-6.22726
G3 X72.4967 Y238.45658 I0.49812 J0.0433
G2 X72.67174 Y228.06082 I-51.2278 J-6.0619
G2 X70.79232 Y226.35891 I-1.94413 J0.25822
G2 X68.95897 Y228.32291 I-0.03721 J1.80295
G3 X68.65391 Y238.91167 I-32.97462 J4.34877
G3 X68.65055 Y238.92783 I-0.49112 J-0.09381
G3 X67.76992 Y241.2905 I-9.13587 J-2.0597
G3 X67.64988 Y241.438 I-0.44074 J-0.23611
G3 X64.35088 Y240.91611 I-1.42176 J-1.70058
G3 X63.21527 Y239.17334 I65.03885 J-43.62147
G3 X63.16553 Y239.07023 I0.4225 J-0.26738
G3 X61.08781 Y228.05819 I35.82078 J-12.46057
G2 X57.36029 Y228.24759 I-1.86008 J0.16712
G3 X57.6726 Y237.41269 I-602.01683 J25.1028
G1 F300.0 Z-4.0
G3 F800.0 X57.80951 Y243.91277 I-602.32915 J15.9377
G2 X61.53621 Y243.84682 I1.86273 J-0.06796
G3 X62.53596 Y243.83169 I0.5 J0.00054
G2 X66.25251 Y245.75144 I3.38956 J-2.00465
G3 X66.30257 Y245.74978 I0.04152 J0.49827
G2 X70.31597 Y243.84963 I0.08559 J-5.00775
G3 X70.32013 Y243.84444 I0.39212 J0.31023
G2 X72.49512 Y238.47203 I-7.65922 J-6.22726
G3 X72.4967 Y238.45658 I0.49812 J0.0433
G2 X72.67174 Y228.06082 I-51.2278 J-6.0619
G2 X70.79232 Y226.35891 I-1.94413 J0.25822
G2 X68.95897 Y228.32291 I-0.03721 J1.80295
G3 X68.65391 Y238.91167 I-32.97462 J4.34877
G3 X68.65055 Y238.92783 I-0.49112 J-0.09381
G3 X67.76992 Y241.2905 I-9.13587 J-2.0597
G3 X67.64988 Y241.438 I-0.44074 J-0.23611
G3 X64.35088 Y240.91611 I-1.42176 J-1.70058
G3 X63.21527 Y239.17334 I65.03885 J-43.62147
G3 X63.16553 Y239.07023 I0.4225 J-0.26738
G3 X61.08781 Y228.05819 I35.82078 J-12.46057
G2 X57.36029 Y228.24759 I-1.86008 J0.16712
G3 X57.6726 Y237.41269 I-602.01683 J25.1028
G1 F300.0 Z-5.0
G3 F800.0 X57.80951 Y243.91277 I-602.32915 J15.9377
G2 X61.53621 Y243.84682 I1.86273 J-0.06796
G3 X62.53596 Y243.83169 I0.5 J0.00054
G2 X66.25251 Y245.75144 I3.38956 J-2.00465
G3 X66.30257 Y245.74978 I0.04152 J0.49827
G2 X70.31597 Y243.84963 I0.08559 J-5.00775
G3 X70.32013 Y243.84444 I0.39212 J0.31023
G2 X72.49512 Y238.47203 I-7.65922 J-6.22726
G3 X72.4967 Y238.45658 I0.49812 J0.0433
G2 X72.67174 Y228.06082 I-51.2278 J-6.0619
G2 X70.79232 Y226.35891 I-1.94413 J0.25822
G2 X68.95897 Y228.32291 I-0.03721 J1.80295
G3 X68.65391 Y238.91167 I-32.97462 J4.34877
G3 X68.65055 Y238.92783 I-0.49112 J-0.09381
G3 X67.76992 Y241.2905 I-9.13587 J-2.0597
G3 X67.64988 Y241.438 I-0.44074 J-0.23611
G3 X64.35088 Y240.91611 I-1.42176 J-1.70058
G3 X63.21527 Y239.17334 I65.03885 J-43.62147
G3 X63.16553 Y239.07023 I0.4225 J-0.26738
G3 X61.08781 Y228.05819 I35.82078 J-12.46057
G2 X57.36029 Y228.24759 I-1.86008 J0.16712
G3 X57.6726 Y237.41269 I-602.01683 J25.1028
G1 F300.0 Z-6.0
G3 F800.0 X57.80951 Y243.91277 I-602.32915 J15.9377
G2 X61.53621 Y243.84682 I1.86273 J-0.06796
G3 X62.53596 Y243.83169 I0.5 J0.00054
G2 X66.25251 Y245.75144 I3.38956 J-2.00465
G3 X66.30257 Y245.74978 I0.04152 J0.49827
G2 X70.31597 Y243.84963 I0.08559 J-5.00775
G3 X70.32013 Y243.84444 I0.39212 J0.31023
G2 X72.49512 Y238.47203 I-7.65922 J-6.22726
G3 X72.4967 Y238.45658 I0.49812 J0.0433
G2 X72.67174 Y228.06082 I-51.2278 J-6.0619
G2 X70.79232 Y226.35891 I-1.94413 J0.25822
G2 X68.95897 Y228.32291 I-0.03721 J1.80295
G3 X68.65391 Y238.91167 I-32.97462 J4.34877
G3 X68.65055 Y238.92783 I-0.49112 J-0.09381
G3 X67.76992 Y241.2905 I-9.13587 J-2.0597
G3 X67.64988 Y241.438 I-0.44074 J-0.23611
G3 X64.35088 Y240.91611 I-1.42176 J-1.70058
G3 X63.21527 Y239.17334 I65.03885 J-43.62147
G3 X63.16553 Y239.07023 I0.4225 J-0.26738
G3 X61.08781 Y228.05819 I35.82078 J-12.46057
G2 X57.36029 Y228.24759 I-1.86008 J0.16712
G3 X57.6726 Y237.41269 I-602.01683 J25.1028
G0 Z3.0
G0 X76.01361 Y237.15285
G0 Z1.0
G1 F300.0 Z-1.0
G2 F800.0 X84.35505 Y245.61319 I8.58454 J-0.12162
G3 X84.38405 Y245.61486 I-0.01416 J0.4998
G2 X86.39658 Y243.86155 I0.1601 J-1.84793
G3 X86.67845 Y243.03113 I0.36847 J-0.33798
G2 X91.40712 Y236.27815 I-1.0092 J-5.73875
G3 X91.40626 Y236.27314 I0.49237 J-0.08703
G2 X86.11383 Y230.04351 I-7.84906 J1.3053
G3 X85.7745 Y229.57248 I0.16066 J-0.47349
G2 X85.49945 Y226.72468 I-15.67904 J0.07713
G3 X85.89761 Y226.14015 I0.49122 J-0.09327
G2 X89.67766 Y218.39276 I-1.00109 J-5.28431
G3 X89.6737 Y218.3849 I0.44448 J-0.22898
G2 X77.68335 Y218.00969 I-6.0951 J3.00556
G2 X80.28279 Y225.14634 I5.33833 J2.09731
G3 X80.31048 Y225.16256 I-0.23877 J0.43931
G2 X81.34239 Y225.66073 I2.72516 J-4.32712
G3 X81.67585 Y226.10124 I-0.16556 J0.4718
G2 X82.04111 Y229.29243 I31.23031 J-1.95805
G3 X81.65016 Y229.86415 I-0.49318 J0.08228
G2 X76.01259 Y236.99778 I1.44966 J6.94009
G3 X76.01277 Y237.01252 I-0.49981 J0.01365
G2 X76.01361 Y237.15285 I8.58538 J0.01871
G1 F300.0 Z-2.0
G2 F800.0 X84.35505 Y245.61319 I8.58454 J-0.12162
G3 X84.38405 Y245.61486 I-0.01416 J0.4998
G2 X86.39658 Y243.86155 I0.1601 J-1.84793
G3 X86.67845 Y243.03113 I0.36847 J-0.33798
G2 X91.40712 Y236.27815 I-1.0092 J-5.73875
G3 X91.40626 Y236.27314 I0.49237 J-0.08703
G2 X86.11383 Y230.04351 I-7.84906 J1.3053
G3 X85.7745 Y229.57248 I0.16066 J-0.47349
G2 X85.49945 Y226.72468 I-15.67904 J0.07713
G3 X85.89761 Y226.14015 I0.49122 J-0.09327
G2 X89.67766 Y218.39276 I-1.00109 J-5.28431
G3 X89.6737 Y218.3849 I0.44448 J-0.22898
G2 X77.68335 Y218.00969 I-6.0951 J3.00556
G2 X80.28279 Y225.14634 I5.33833 J2.09731
G3 X80.31048 Y225.16256 I-0.23877 J0.43931
G2 X81.34239 Y225.66073 I2.72516 J-4.32712
G3 X81.67585 Y226.10124 I-0.16556 J0.4718
G2 X82.04111 Y229.29243 I31.23031 J-1.95805
G3 X81.65016 Y229.86415 I-0.49318 J0.08228
G2 X76.01259 Y236.99778 I1.44966 J6.94009
G3 X76.01277 Y237.01252 I-0.49981 J0.01365
G2 X76.01361 Y237.15285 I8.58538 J0.01871
G1 F300.0 Z-3.0
G2 F800.0 X84.35505 Y245.61319 I8.58454 J-0.12162
G3 X84.38405 Y245.61486 I-0.01416 J0.4998
G2 X86.39658 Y243.86155 I0.1601 J-1.84793
G3 X86.67845 Y243.03113 I0.36847 J-0.33798
G2 X91.40712 Y236.27815 I-1.0092 J-5.73875
G3 X91.40626 Y236.27314 I0.49237 J-0.08703
G2 X86.11383 Y230.04351 I-7.84906 J1.3053
G3 X85.7745 Y229.57248 I0.16066 J-0.47349
G2 X85.49945 Y226.72468 I-15.67904 J0.07713
G3 X85.89761 Y226.14015 I0.49122 J-0.09327
G2 X89.67766 Y218.39276 I-1.00109 J-5.28431
G3 X89.6737 Y218.3849 I0.44448 J-0.22898
G2 X77.68335 Y218.00969 I-6.0951 J3.00556
G2 X80.28279 Y225.14634 I5.33833 J2.09731
G3 X80.31048 Y225.16256 I-0.23877 J0.43931
G2 X81.34239 Y225.66073 I2.72516 J-4.32712
G3 X81.67585 Y226.10124 I-0.16556 J0.4718
G2 X82.04111 Y229.29243 I31.23031 J-1.95805
G3 X81.65016 Y229.86415 I-0.49318 J0.08228
G2 X76.01259 Y236.99778 I1.44966 J6.94009
G3 X76.01277 Y237.01252 I-0.49981 J0.01365
G2 X76.01361 Y237.15285 I8.58538 J0.01871
G1 F300.0 Z-4.0
G2 F800.0 X84.35505 Y245.61319 I8.58454 J-0.12162
G3 X84.38405 Y245.61486 I-0.01416 J0.4998
G2 X86.39658 Y243.86155 I0.1601 J-1.84793
G3 X86.67845 Y243.03113 I0.36847 J-0.33798
G2 X91.40712 Y236.27815 I-1.0092 J-5.73875
G3 X91.40626 Y236.27314 I0.49237 J-0.08703
G2 X86.11383 Y230.04351 I-7.84906 J1.3053
G3 X85.7745 Y229.57248 I0.16066 J-0.47349
G2 X85.49945 Y226.72468 I-15.67904 J0.07713
G3 X85.89761 Y226.14015 I0.49122 J-0.09327
G2 X89.67766 Y218.39276 I-1.00109 J-5.28431
G3 X89.6737 Y218.3849 I0.44448 J-0.22898
G2 X77.68335 Y218.00969 I-6.0951 J3.00556
G2 X80.28279 Y225.14634 I5.33833 J2.09731
G3 X80.31048 Y225.16256 I-0.23877 J0.43931
G2 X81.34239 Y225.66073 I2.72516 J-4.32712
G3 X81.67585 Y226.10124 I-0.16556 J0.4718
G2 X82.04111 Y229.29243 I31.23031 J-1.95805
G3 X81.65016 Y229.86415 I-0.49318 J0.08228
G2 X76.01259 Y236.99778 I1.44966 J6.94009
G3 X76.01277 Y237.01252 I-0.49981 J0.01365
G2 X76.01361 Y237.15285 I8.58538 J0.01871
G1 F300.0 Z-5.0
G2 F800.0 X84.35505 Y245.61319 I8.58454 J-0.12162
G3 X84.38405 Y245.61486 I-0.01416 J0.4998
G2 X86.39658 Y243.86155 I0.1601 J-1.84793
G3 X86.67845 Y243.03113 I0.36847 J-0.33798
G2 X91.40712 Y236.27815 I-1.0092 J-5.73875
G3 X91.40626 Y236.27314 I0.49237 J-0.08703
G2 X86.11383 Y230.04351 I-7.84906 J1.3053
G3 X85.7745 Y229.57248 I0.16066 J-0.47349
G2 X85.49945 Y226.72468 I-15.67904 J0.07713
G3 X85.89761 Y226.14015 I0.49122 J-0.09327
G2 X89.67766 Y218.39276 I-1.00109 J-5.28431
G3 X89.6737 Y218.3849 I0.44448 J-0.22898
G2 X77.68335 Y218.00969 I-6.0951 J3.00556
G2 X80.28279 Y225.14634 I5.33833 J2.09731
G3 X80.31048 Y225.16256 I-0.23877 J0.43931
G2 X81.34239 Y225.66073 I2.72516 J-4.32712
G3 X81.67585 Y226.10124 I-0.16556 J0.4718
G2 X82.04111 Y229.29243 I31.23031 J-1.95805
G3 X81.65016 Y229.86415 I-0.49318 J0.08228
G2 X76.01259 Y236.99778 I1.44966 J6.94009
G3 X76.01277 Y237.01252 I-0.49981 J0.01365
G2 X76.01361 Y237.15285 I8.58538 J0.01871
G1 F300.0 Z-6.0
G2 F800.0 X84.35505 Y245.61319 I8.58454 J-0.12162
G3 X84.38405 Y245.61486 I-0.01416 J0.4998
G2 X86.39658 Y243.86155 I0.1601 J-1.84793
G3 X86.67845 Y243.03113 I0.36847 J-0.33798
G2 X91.40712 Y236.27815 I-1.0092 J-5.73875
G3 X91.40626 Y236.27314 I0.49237 J-0.08703
G2 X86.11383 Y230.04351 I-7.84906 J1.3053
G3 X85.7745 Y229.57248 I0.16066 J-0.47349
G2 X85.49945 Y226.72468 I-15.67904 J0.07713
G3 X85.89761 Y226.14015 I0.49122 J-0.09327
G2 X89.67766 Y218.39276 I-1.00109 J-5.28431
G3 X89.6737 Y218.3849 I0.44448 J-0.22898
G2 X77.68335 Y218.00969 I-6.0951 J3.00556
G2 X80.28279 Y225.14634 I5.33833 J2.09731
G3 X80.31048 Y225.16256 I-0.23877 J0.43931
G2 X81.34239 Y225.66073 I2.72516 J-4.32712
G3 X81.67585 Y226.10124 I-0.16556 J0.4718
G2 X82.04111 Y229.29243 I31.23031 J-1.95805
G3 X81.65016 Y229.86415 I-0.49318 J0.08228
G2 X76.01259 Y236.99778 I1.44966 J6.94009
G3 X76.01277 Y237.01252 I-0.49981 J0.01365
G2 X76.01361 Y237.15285 I8.58538 J0.01871
G0 Z3.0
G0 X79.73883 Y237.14576
G0 Z1.0
G1 F300.0 Z-1.0
G3 F800.0 X79.73928 Y237.07023 I4.80207 J-0.00914
G3 X83.58184 Y233.3469 I3.67388 J-0.05295
G3 X87.74493 Y236.87317 I0.14414 J4.05041
G3 X85.93765 Y239.35944 I-2.07129 J0.39437
G2 X84.56432 Y241.07865 I0.48721 J1.79731
G3 X84.69737 Y241.50769 I-0.36014 J0.34684
G1 X84.63878 Y241.85925
G3 X83.66313 Y241.90835 I-0.4932 J-0.0822
G3 X83.64921 Y241.85517 I2.76173 J-0.75161
G3 X79.73883 Y237.14576 I0.89169 J-4.71856
G1 F300.0 Z-2.0
G3 F800.0 X79.73928 Y237.07023 I4.80207 J-0.00914
G3 X83.58184 Y233.3469 I3.67388 J-0.05295
G3 X87.74493 Y236.87317 I0.14414 J4.05041
G3 X85.93765 Y239.35944 I-2.07129 J0.39437
G2 X84.56432 Y241.07865 I0.48721 J1.79731
G3 X84.69737 Y241.50769 I-0.36014 J0.34684
G1 X84.63878 Y241.85925
G3 X83.66313 Y241.90835 I-0.4932 J-0.0822
G3 X83.64921 Y241.85517 I2.76173 J-0.75161
G3 X79.73883 Y237.14576 I0.89169 J-4.71856
G1 F300.0 Z-3.0
G3 F800.0 X79.73928 Y237.07023 I4.80207 J-0.00914
G3 X83.58184 Y233.3469 I3.67388 J-0.05295
G3 X87.74493 Y236.87317 I0.14414 J4.05041
G3 X85.93765 Y239.35944 I-2.07129 J0.39437
G2 X84.56432 Y241.07865 I0.48721 J1.79731
G3 X84.69737 Y241.50769 I-0.36014 J0.34684
G1 X84.63878 Y241.85925
G3 X83.66313 Y241.90835 I-0.4932 J-0.0822
G3 X83.64921 Y241.85517 I2.76173 J-0.75161
G3 X79.73883 Y237.14576 I0.89169 J-4.71856
G1 F300.0 Z-4.0
G3 F800.0 X79.73928 Y237.07023 I4.80207 J-0.00914
G3 X83.58184 Y233.3469 I3.67388 J-0.05295
G3 X87.74493 Y236.87317 I0.14414 J4.05041
G3 X85.93765 Y239.35944 I-2.07129 J0.39437
G2 X84.56432 Y241.07865 I0.48721 J1.79731
G3 X84.69737 Y241.50769 I-0.36014 J0.34684
G1 X84.63878 Y241.85925
G3 X83.66313 Y241.90835 I-0.4932 J-0.0822
G3 X83.64921 Y241.85517 I2.76173 J-0.75161
G3 X79.73883 Y237.14576 I0.89169 J-4.71856
G1 F300.0 Z-5.0
G3 F800.0 X79.73928 Y237.07023 I4.80207 J-0.00914
G3 X83.58184 Y233.3469 I3.67388 J-0.05295
G3 X87.74493 Y236.87317 I0.14414 J4.05041
G3 X85.93765 Y239.35944 I-2.07129 J0.39437
G2 X84.56432 Y241.07865 I0.48721 J1.79731
G3 X84.69737 Y241.50769 I-0.36014 J0.34684
G1 X84.63878 Y241.85925
G3 X83.66313 Y241.90835 I-0.4932 J-0.0822
G3 X83.64921 Y241.85517 I2.76173 J-0.75161
G3 X79.73883 Y237.14576 I0.89169 J-4.71856
G1 F300.0 Z-6.0
G3 F800.0 X79.73928 Y237.07023 I4.80207 J-0.00914
G3 X83.58184 Y233.3469 I3.67388 J-0.05295
G3 X87.74493 Y236.87317 I0.14414 J4.05041
G3 X85.93765 Y239.35944 I-2.07129 J0.39437
G2 X84.56432 Y241.07865 I0.48721 J1.79731
G3 X84.69737 Y241.50769 I-0.36014 J0.34684
G1 X84.63878 Y241.85925
G3 X83.66313 Y241.90835 I-0.4932 J-0.0822
G3 X83.64921 Y241.85517 I2.76173 J-0.75161
G3 X79.73883 Y237.14576 I0.89169 J-4.71856
G0 Z3.0
G0 X83.31518 Y222.57062
G0 Z1.0
G1 F300.0 Z-1.0
G3 F800.0 X80.96123 Y220.14288 I0.75828 J-3.0903
G3 X80.9834 Y219.8598 I0.48904 J-0.10411
G3 X83.65087 Y218.28808 I2.32103 J0.88975
G3 X86.55712 Y220.88702 I0.03173 J2.88894
G3 X86.55439 Y221.00953 I-0.49747 J0.05019
G3 X84.50856 Y222.6324 I-1.88519 J-0.27555
G3 X83.31518 Y222.57062 I-0.43511 J-3.15208
G1 F300.0 Z-2.0
G3 F800.0 X80.96123 Y220.14288 I0.75828 J-3.0903
G3 X80.9834 Y219.8598 I0.48904 J-0.10411
G3 X83.65087 Y218.28808 I2.32103 J0.88975
G3 X86.55712 Y220.88702 I0.03173 J2.88894
G3 X86.55439 Y221.00953 I-0.49747 J0.05019
G3 X84.50856 Y222.6324 I-1.88519 J-0.27555
G3 X83.31518 Y222.57062 I-0.43511 J-3.15208
G1 F300.0 Z-3.0
G3 F800.0 X80.96123 Y220.14288 I0.75828 J-3.0903
G3 X80.9834 Y219.8598 I0.48904 J-0.10411
G3 X83.65087 Y218.28808 I2.32103 J0.88975
G3 X86.55712 Y220.88702 I0.03173 J2.88894
G3 X86.55439 Y221.00953 I-0.49747 J0.05019
G3 X84.50856 Y222.6324 I-1.88519 J-0.27555
G3 X83.31518 Y222.57062 I-0.43511 J-3.15208
G1 F300.0 Z-4.0
G3 F800.0 X80.96123 Y220.14288 I0.75828 J-3.0903
G3 X80.9834 Y219.8598 I0.48904 J-0.10411
G3 X83.65087 Y218.28808 I2.32103 J0.88975
G3 X86.55712 Y220.88702 I0.03173 J2.88894
G3 X86.55439 Y221.00953 I-0.49747 J0.05019
G3 X84.50856 Y222.6324 I-1.88519 J-0.27555
G3 X83.31518 Y222.57062 I-0.43511 J-3.15208
G1 F300.0 Z-5.0
G3 F800.0 X80.96123 Y220.14288 I0.75828 J-3.0903
G3 X80.9834 Y219.8598 I0.48904 J-0.10411
G3 X83.65087 Y218.28808 I2.32103 J0.88975
G3 X86.55712 Y220.88702 I0.03173 J2.88894
G3 X86.55439 Y221.00953 I-0.49747 J0.05019
G3 X84.50856 Y222.6324 I-1.88519 J-0.27555
G3 X83.31518 Y222.57062 I-0.43511 J-3.15208
G1 F300.0 Z-6.0
G3 F800.0 X80.96123 Y220.14288 I0.75828 J-3.0903
G3 X80.9834 Y219.8598 I0.48904 J-0.10411
G3 X83.65087 Y218.28808 I2.32103 J0.88975
G3 X86.55712 Y220.88702 I0.03173 J2.88894
G3 X86.55439 Y221.00953 I-0.49747 J0.05019
G3 X84.50856 Y222.6324 I-1.88519 J-0.27555
G3 X83.31518 Y222.57062 I-0.43511 J-3.15208
G0 Z3.0
G0 X91.69429 Y205.9232
G0 Z1.0
G1 F300.0 Z-1.0
G2 F800.0 X94.39295 Y204.42734 I0.83945 J-1.6678
G2 X93.94426 Y176.63422 I-2121.77212 J20.35375
G2 X92.07782 Y174.84886 I-1.8929 J0.11058
G2 X90.21724 Y176.75892 I0.0049 J1.866
G3 X90.2173 Y176.76224 I-0.49986 J0.01181
G3 X90.66653 Y204.24335 I-21328.99217 J362.40579
G3 X90.66659 Y204.25209 I-0.49994 J0.00785
G2 X91.69429 Y205.9232 I1.86714 J0.00331
G1 F300.0 Z-2.0
G2 F800.0 X94.39295 Y204.42734 I0.83945 J-1.6678
G2 X93.94426 Y176.63422 I-2121.77212 J20.35375
G2 X92.07782 Y174.84886 I-1.8929 J0.11058
G2 X90.21724 Y176.75892 I0.0049 J1.866
G3 X90.2173 Y176.76224 I-0.49986 J0.01181
G3 X90.66653 Y204.24335 I-21328.99217 J362.40579
G3 X90.66659 Y204.25209 I-0.49994 J0.00785
G2 X91.69429 Y205.9232 I1.86714 J0.00331
G1 F300.0 Z-3.0
G2 F800.0 X94.39295 Y204.42734 I0.83945 J-1.6678
G2 X93.94426 Y176.63422 I-2121.77212 J20.35375
G2 X92.07782 Y174.84886 I-1.8929 J0.11058
G2 X90.21724 Y176.75892 I0.0049 J1.866
G3 X90.2173 Y176.76224 I-0.49986 J0.01181
G3 X90.66653 Y204.24335 I-21328.99217 J362.40579
G3 X90.66659 Y204.25209 I-0.49994 J0.00785
G2 X91.69429 Y205.9232 I1.86714 J0.00331
G1 F300.0 Z-4.0
G2 F800.0 X94.39295 Y204.42734 I0.83945 J-1.6678
G2 X93.94426 Y176.63422 I-2121.77212 J20.35375
G2 X92.07782 Y174.84886 I-1.8929 J0.11058
G2 X90.21724 Y176.75892 I0.0049 J1.866
G3 X90.2173 Y176.76224 I-0.49986 J0.01181
G3 X90.66653 Y204.24335 I-21328.99217 J362.40579
G3 X90.66659 Y204.25209 I-0.49994 J0.00785
G2 X91.69429 Y205.9232 I1.86714 J0.00331
G1 F300.0 Z-5.0
G2 F800.0 X94.39295 Y204.42734 I0.83945 J-1.6678
G2 X93.94426 Y176.63422 I-2121.77212 J20.35375
G2 X92.07782 Y174.84886 I-1.8929 J0.11058
G2 X90.21724 Y176.75892 I0.0049 J1.866
G3 X90.2173 Y176.76224 I-0.49986 J0.01181
G3 X90.66653 Y204.24335 I-21328.99217 J362.40579
G3 X90.66659 Y204.25209 I-0.49994 J0.00785
G2 X91.69429 Y205.9232 I1.86714 J0.00331
G1 F300.0 Z-6.0
G2 F800.0 X94.39295 Y204.42734 I0.83945 J-1.6678
G2 X93.94426 Y176.63422 I-2121.77212 J20.35375
G2 X92.07782 Y174.84886 I-1.8929 J0.11058
G2 X90.21724 Y176.75892 I0.0049 J1.866
G3 X90.2173 Y176.76224 I-0.49986 J0.01181
G3 X90.66653 Y204.24335 I-21328.99217 J362.40579
G3 X90.66659 Y204.25209 I-0.49994 J0.00785
G2 X91.69429 Y205.9232 I1.86714 J0.00331
G0 Z3.0
G0 X84.19322 Y193.21246
G0 Z1.0
G1 F300.0 Z-1.0
G2 F800.0 X84.48178 Y193.03261 I-3.56999 J-6.04944
G3 X84.48308 Y193.03176 I0.27466 J0.41781
G2 X86.37792 Y186.13169 I-2.95178 J-4.5208
G3 X86.37507 Y186.12579 I0.44883 J-0.22034
G2 X81.51997 Y181.89597 I-7.28189 J3.45703
G3 X81.5058 Y181.89126 I0.15053 J-0.4768
G2 X76.77134 Y181.38799 I-3.44303 J9.86883
G3 X76.30702 Y180.59524 I-0.06178 J-0.49617
G3 X82.19377 Y178.69679 I4.26222 J3.14027
G3 X83.86707 Y180.20362 I-0.82206 J2.59539
G3 X83.87256 Y180.21671 I-0.45829 J0.19992
G2 X87.3024 Y178.81776 I1.71794 J-0.69207
G2 X83.63566 Y175.36816 I-5.68272 J2.36684
G3 X83.60434 Y175.35611 I0.16374 J-0.47243
G2 X80.59692 Y174.73169 I-3.07577 J7.25936
G2 X71.97512 Y183.59827 I0.09764 J8.72013
G3 X71.97301 Y183.65331 I-0.49993 J0.0084
G2 X77.14047 Y193.26331 I9.81027 J0.91917
G3 X77.15197 Y193.26964 I-0.2356 J0.44101
G2 X84.19322 Y193.21246 I3.47126 J-6.10663
G1 F300.0 Z-2.0
G2 F800.0 X84.48178 Y193.03261 I-3.56999 J-6.04944
G3 X84.48308 Y193.03176 I0.27466 J0.41781
G2 X86.37792 Y186.13169 I-2.95178 J-4.5208
G3 X86.37507 Y186.12579 I0.44883 J-0.22034
G2 X81.51997 Y181.89597 I-7.28189 J3.45703
G3 X81.5058 Y181.89126 I0.15053 J-0.4768
G2 X76.77134 Y181.38799 I-3.44303 J9.86883
G3 X76.30702 Y180.59524 I-0.06178 J-0.49617
G3 X82.19377 Y178.69679 I4.26222 J3.14027
G3 X83.86707 Y180.20362 I-0.82206 J2.59539
G3 X83.87256 Y180.21671 I-0.45829 J0.19992
G2 X87.3024 Y178.81776 I1.71794 J-0.69207
G2 X83.63566 Y175.36816 I-5.68272 J2.36684
G3 X83.60434 Y175.35611 I0.16374 J-0.47243
G2 X80.59692 Y174.73169 I-3.07577 J7.25936
G2 X71.97512 Y183.59827 I0.09764 J8.72013
G3 X71.97301 Y183.65331 I-0.49993 J0.0084
G2 X77.14047 Y193.26331 I9.81027 J0.91917
G3 X77.15197 Y193.26964 I-0.2356 J0.44101
G2 X84.19322 Y193.21246 I3.47126 J-6.10663
G1 F300.0 Z-3.0
G2 F800.0 X84.48178 Y193.03261 I-3.56999 J-6.04944
G3 X84.48308 Y193.03176 I0.27466 J0.41781
G2 X86.37792 Y186.13169 I-2.95178 J-4.5208
G3 X86.37507 Y186.12579 I0.44883 J-0.22034
G2 X81.51997 Y181.89597 I-7.28189 J3.45703
G3 X81.5058 Y181.89126 I0.15053 J-0.4768
G2 X76.77134 Y181.38799 I-3.44303 J9.86883
G3 X76.30702 Y180.59524 I-0.06178 J-0.49617
G3 X82.19377 Y178.69679 I4.26222 J3.14027
G3 X83.86707 Y180.20362 I-0.82206 J2.59539
G3 X83.87256 Y180.21671 I-0.45829 J0.19992
G2 X87.3024 Y178.81776 I1.71794 J-0.69207
G2 X83.63566 Y175.36816 I-5.68272 J2.36684
G3 X83.60434 Y175.35611 I0.16374 J-0.47243
G2 X80.59692 Y174.73169 I-3.07577 J7.25936
G2 X71.97512 Y183.59827 I0.09764 J8.72013
G3 X71.97301 Y183.65331 I-0.49993 J0.0084
G2 X77.14047 Y193.26331 I9.81027 J0.91917
G3 X77.15197 Y193.26964 I-0.2356 J0.44101
G2 X84.19322 Y193.21246 I3.47126 J-6.10663
G1 F300.0 Z-4.0
G2 F800.0 X84.48178 Y193.03261 I-3.56999 J-6.04944
G3 X84.48308 Y193.03176 I0.27466 J0.41781
G2 X86.37792 Y186.13169 I-2.95178 J-4.5208
G3 X86.37507 Y186.12579 I0.44883 J-0.22034
G2 X81.51997 Y181.89597 I-7.28189 J3.45703
G3 X81.5058 Y181.89126 I0.15053 J-0.4768
G2 X76.77134 Y181.38799 I-3.44303 J9.86883
G3 X76.30702 Y180.59524 I-0.06178 J-0.49617
G3 X82.19377 Y178.69679 I4.26222 J3.14027
G3 X83.86707 Y180.20362 I-0.82206 J2.59539
G3 X83.87256 Y180.21671 I-0.45829 J0.19992
G2 X87.3024 Y178.81776 I1.71794 J-0.69207
G2 X83.63566 Y175.36816 I-5.68272 J2.36684
G3 X83.60434 Y175.35611 I0.16374 J-0.47243
G2 X80.59692 Y174.73169 I-3.07577 J7.25936
G2 X71.97512 Y183.59827 I0.09764 J8.72013
G3 X71.97301 Y183.65331 I-0.49993 J0.0084
G2 X77.14047 Y193.26331 I9.81027 J0.91917
G3 X77.15197 Y193.26964 I-0.2356 J0.44101
G2 X84.19322 Y193.21246 I3.47126 J-6.10663
G1 F300.0 Z-5.0
G2 F800.0 X84.48178 Y193.03261 I-3.56999 J-6.04944
G3 X84.48308 Y193.03176 I0.27466 J0.41781
G2 X86.37792 Y186.13169 I-2.95178 J-4.5208
G3 X86.37507 Y186.12579 I0.44883 J-0.22034
G2 X81.51997 Y181.89597 I-7.28189 J3.45703
G3 X81.5058 Y181.89126 I0.15053 J-0.4768
G2 X76.77134 Y181.38799 I-3.44303 J9.86883
G3 X76.30702 Y180.59524 I-0.06178 J-0.49617
G3 X82.19377 Y178.69679 I4.26222 J3.14027
G3 X83.86707 Y180.20362 I-0.82206 J2.59539
G3 X83.87256 Y180.21671 I-0.45829 J0.19992
G2 X87.3024 Y178.81776 I1.71794 J-0.69207
G2 X83.63566 Y175.36816 I-5.68272 J2.36684
G3 X83.60434 Y175.35611 I0.16374 J-0.47243
G2 X80.59692 Y174.73169 I-3.07577 J7.25936
G2 X71.97512 Y183.59827 I0.09764 J8.72013
G3 X71.97301 Y183.65331 I-0.49993 J0.0084
G2 X77.14047 Y193.26331 I9.81027 J0.91917
G3 X77.15197 Y193.26964 I-0.2356 J0.44101
G2 X84.19322 Y193.21246 I3.47126 J-6.10663
G1 F300.0 Z-6.0
G2 F800.0 X84.48178 Y193.03261 I-3.56999 J-6.04944
G3 X84.48308 Y193.03176 I0.27466 J0.41781
G2 X86.37792 Y186.13169 I-2.95178 J-4.5208
G3 X86.37507 Y186.12579 I0.44883 J-0.22034
G2 X81.51997 Y181.89597 I-7.28189 J3.45703
G3 X81.5058 Y181.89126 I0.15053 J-0.4768
G2 X76.77134 Y181.38799 I-3.44303 J9.86883
G3 X76.30702 Y180.59524 I-0.06178 J-0.49617
G3 X82.19377 Y178.69679 I4.26222 J3.14027
G3 X83.86707 Y180.20362 I-0.82206 J2.59539
G3 X83.87256 Y180.21671 I-0.45829 J0.19992
G2 X87.3024 Y178.81776 I1.71794 J-0.69207
G2 X83.63566 Y175.36816 I-5.68272 J2.36684
G3 X83.60434 Y175.35611 I0.16374 J-0.47243
G2 X80.59692 Y174.73169 I-3.07577 J7.25936
G2 X71.97512 Y183.59827 I0.09764 J8.72013
G3 X71.97301 Y183.65331 I-0.49993 J0.0084
G2 X77.14047 Y193.26331 I9.81027 J0.91917
G3 X77.15197 Y193.26964 I-0.2356 J0.44101
G2 X84.19322 Y193.21246 I3.47126 J-6.10663
G0 Z3.0
G0 X82.10872 Y190.01413
G0 Z1.0
G1 F300.0 Z-1.0
G3 F800.0 X80.42208 Y190.412 I-1.39525 J-2.14079
G3 X80.3986 Y190.40874 I0.05702 J-0.49674
G3 X75.82312 Y185.68289 I0.88674 J-5.43641
G3 X76.19441 Y185.13414 I0.49582 J-0.0645
G3 X81.81145 Y186.1842 I1.68313 J6.54506
G3 X83.18604 Y188.45986 I-1.11849 J2.22859
G3 X83.16601 Y188.5908 I-0.49991 J-0.00944
G3 X82.10872 Y190.01413 I-2.45254 J-0.71747
G1 F300.0 Z-2.0
G3 F800.0 X80.42208 Y190.412 I-1.39525 J-2.14079
G3 X80.3986 Y190.40874 I0.05702 J-0.49674
G3 X75.82312 Y185.68289 I0.88674 J-5.43641
G3 X76.19441 Y185.13414 I0.49582 J-0.0645
G3 X81.81145 Y186.1842 I1.68313 J6.54506
G3 X83.18604 Y188.45986 I-1.11849 J2.22859
G3 X83.16601 Y188.5908 I-0.49991 J-0.00944
G3 X82.10872 Y190.01413 I-2.45254 J-0.71747
G1 F300.0 Z-3.0
G3 F800.0 X80.42208 Y190.412 I-1.39525 J-2.14079
G3 X80.3986 Y190.40874 I0.05702 J-0.49674
G3 X75.82312 Y185.68289 I0.88674 J-5.43641
G3 X76.19441 Y185.13414 I0.49582 J-0.0645
G3 X81.81145 Y186.1842 I1.68313 J6.54506
G3 X83.18604 Y188.45986 I-1.11849 J2.22859
G3 X83.16601 Y188.5908 I-0.49991 J-0.00944
G3 X82.10872 Y190.01413 I-2.45254 J-0.71747
G1 F300.0 Z-4.0
G3 F800.0 X80.42208 Y190.412 I-1.39525 J-2.14079
G3 X80.3986 Y190.40874 I0.05702 J-0.49674
G3 X75.82312 Y185.68289 I0.88674 J-5.43641
G3 X76.19441 Y185.13414 I0.49582 J-0.0645
G3 X81.81145 Y186.1842 I1.68313 J6.54506
G3 X83.18604 Y188.45986 I-1.11849 J2.22859
G3 X83.16601 Y188.5908 I-0.49991 J-0.00944
G3 X82.10872 Y190.01413 I-2.45254 J-0.71747
G1 F300.0 Z-5.0
G3 F800.0 X80.42208 Y190.412 I-1.39525 J-2.14079
G3 X80.3986 Y190.40874 I0.05702 J-0.49674
G3 X75.82312 Y185.68289 I0.88674 J-5.43641
G3 X76.19441 Y185.13414 I0.49582 J-0.0645
G3 X81.81145 Y186.1842 I1.68313 J6.54506
G3 X83.18604 Y188.45986 I-1.11849 J2.22859
G3 X83.16601 Y188.5908 I-0.49991 J-0.00944
G3 X82.10872 Y190.01413 I-2.45254 J-0.71747
G1 F300.0 Z-6.0
G3 F800.0 X80.42208 Y190.412 I-1.39525 J-2.14079
G3 X80.3986 Y190.40874 I0.05702 J-0.49674
G3 X75.82312 Y185.68289 I0.88674 J-5.43641
G3 X76.19441 Y185.13414 I0.49582 J-0.0645
G3 X81.81145 Y186.1842 I1.68313 J6.54506
G3 X83.18604 Y188.45986 I-1.11849 J2.22859
G3 X83.16601 Y188.5908 I-0.49991 J-0.00944
G3 X82.10872 Y190.01413 I-2.45254 J-0.71747
G0 Z3.0
G0 X69.37813 Y190.33664
G0 Z1.0
G1 F300.0 Z-1.0
G2 F800.0 X69.02244 Y176.63513 I-10940.92052 J277.1714
G2 X67.15595 Y174.84886 I-1.89295 J0.10967
G2 X65.2953 Y176.75605 I0.0049 J1.866
G3 X65.70559 Y192.38742 I-812.9587 J29.15961
G3 X65.70563 Y192.39062 I-0.49993 J0.00832
G2 X69.43192 Y192.4683 I1.86435 J-0.01904
G2 X69.37813 Y190.33664 I-10940.97431 J275.03973
G1 F300.0 Z-2.0
G2 F800.0 X69.02244 Y176.63513 I-10940.92052 J277.1714
G2 X67.15595 Y174.84886 I-1.89295 J0.10967
G2 X65.2953 Y176.75605 I0.0049 J1.866
G3 X65.70559 Y192.38742 I-812.9587 J29.15961
G3 X65.70563 Y192.39062 I-0.49993 J0.00832
G2 X69.43192 Y192.4683 I1.86435 J-0.01904
G2 X69.37813 Y190.33664 I-10940.97431 J275.03973
G1 F300.0 Z-3.0
G2 F800.0 X69.02244 Y176.63513 I-10940.92052 J277.1714
G2 X67.15595 Y174.84886 I-1.89295 J0.10967
G2 X65.2953 Y176.75605 I0.0049 J1.866
G3 X65.70559 Y192.38742 I-812.9587 J29.15961
G3 X65.70563 Y192.39062 I-0.49993 J0.00832
G2 X69.43192 Y192.4683 I1.86435 J-0.01904
G2 X69.37813 Y190.33664 I-10940.97431 J275.03973
G1 F300.0 Z-4.0
G2 F800.0 X69.02244 Y176.63513 I-10940.92052 J277.1714
G2 X67.15595 Y174.84886 I-1.89295 J0.10967
G2 X65.2953 Y176.75605 I0.0049 J1.866
G3 X65.70559 Y192.38742 I-812.9587 J29.15961
G3 X65.70563 Y192.39062 I-0.49993 J0.00832
G2 X69.43192 Y192.4683 I1.86435 J-0.01904
G2 X69.37813 Y190.33664 I-10940.97431 J275.03973
G1 F300.0 Z-5.0
G2 F800.0 X69.02244 Y176.63513 I-10940.92052 J277.1714
G2 X67.15595 Y174.84886 I-1.89295 J0.10967
G2 X65.2953 Y176.75605 I0.0049 J1.866
G3 X65.70559 Y192.38742 I-812.9587 J29.15961
G3 X65.70563 Y192.39062 I-0.49993 J0.00832
G2 X69.43192 Y192.4683 I1.86435 J-0.01904
G2 X69.37813 Y190.33664 I-10940.97431 J275.03973
G1 F300.0 Z-6.0
G2 F800.0 X69.02244 Y176.63513 I-10940.92052 J277.1714
G2 X67.15595 Y174.84886 I-1.89295 J0.10967
G2 X65.2953 Y176.75605 I0.0049 J1.866
G3 X65.70559 Y192.38742 I-812.9587 J29.15961
G3 X65.70563 Y192.39062 I-0.49993 J0.00832
G2 X69.43192 Y192.4683 I1.86435 J-0.01904
G2 X69.37813 Y190.33664 I-10940.97431 J275.03973
G0 Z3.0
G0 X62.82681 Y190.50267
G0 Z1.0
G1 F300.0 Z-1.0
G2 F800.0 X61.4798 Y180.99903 I-41.6453 J1.0554
G3 X61.47941 Y180.99753 I0.48367 J-0.12673
G2 X57.20281 Y175.28248 I-9.10515 J2.35579
G2 X55.14647 Y174.88757 I-1.90727 J4.38014
G2 X51.18671 Y177.10873 I0.22478 J5.04093
G3 X51.13779 Y177.17027 I-0.41464 J-0.27941
G2 X49.07597 Y181.19909 I6.04546 J5.63587
G2 X48.49639 Y192.60105 I44.8756 J7.99683
G2 X52.20804 Y192.19061 I1.85328 J-0.22822
G3 X52.20776 Y192.18768 I0.49761 J-0.04879
G3 X52.72271 Y181.96803 I35.95304 J-3.31121
G3 X52.72372 Y181.96297 I0.49076 J0.09567
G3 X53.91922 Y179.21541 I7.12096 J1.46456
G3 X53.93743 Y179.19136 I0.40753 J0.28969
G3 X56.41529 I1.23893 J0.99842
G3 X56.42861 Y179.20866 I-0.38932 J0.31374
G3 X58.27459 Y183.5302 I-8.2659 J6.08588
G3 X59.12351 Y192.32839 I-36.75671 J7.98663
G3 X59.12335 Y192.33434 I-0.49988 J-0.01079
G2 X62.83079 Y192.44281 I1.85349 J0.06208
G2 X62.82681 Y190.50267 I-41.64928 J-0.88475
G1 F300.0 Z-2.0
G2 F800.0 X61.4798 Y180.99903 I-41.6453 J1.0554
G3 X61.47941 Y180.99753 I0.48367 J-0.12673
G2 X57.20281 Y175.28248 I-9.10515 J2.35579
G2 X55.14647 Y174.88757 I-1.90727 J4.38014
G2 X51.18671 Y177.10873 I0.22478 J5.04093
G3 X51.13779 Y177.17027 I-0.41464 J-0.27941
G2 X49.07597 Y181.19909 I6.04546 J5.63587
G2 X48.49639 Y192.60105 I44.8756 J7.99683
G2 X52.20804 Y192.19061 I1.85328 J-0.22822
G3 X52.20776 Y192.18768 I0.49761 J-0.04879
G3 X52.72271 Y181.96803 I35.95304 J-3.31121
G3 X52.72372 Y181.96297 I0.49076 J0.09567
G3 X53.91922 Y179.21541 I7.12096 J1.46456
G3 X53.93743 Y179.19136 I0.40753 J0.28969
G3 X56.41529 I1.23893 J0.99842
G3 X56.42861 Y179.20866 I-0.38932 J0.31374
G3 X58.27459 Y183.5302 I-8.2659 J6.08588
G3 X59.12351 Y192.32839 I-36.75671 J7.98663
G3 X59.12335 Y192.33434 I-0.49988 J-0.01079
G2 X62.83079 Y192.44281 I1.85349 J0.06208
G2 X62.82681 Y190.50267 I-41.64928 J-0.88475
G1 F300.0 Z-3.0
G2 F800.0 X61.4798 Y180.99903 I-41.6453 J1.0554
G3 X61.47941 Y180.99753 I0.48367 J-0.12673
G2 X57.20281 Y175.28248 I-9.10515 J2.35579
G2 X55.14647 Y174.88757 I-1.90727 J4.38014
G2 X51.18671 Y177.10873 I0.22478 J5.04093
G3 X51.13779 Y177.17027 I-0.41464 J-0.27941
G2 X49.07597 Y181.19909 I6.04546 J5.63587
G2 X48.49639 Y192.60105 I44.8756 J7.99683
G2 X52.20804 Y192.19061 I1.85328 J-0.22822
G3 X52.20776 Y192.18768 I0.49761 J-0.04879
G3 X52.72271 Y181.96803 I35.95304 J-3.31121
G3 X52.72372 Y181.96297 I0.49076 J0.09567
G3 X53.91922 Y179.21541 I7.12096 J1.46456
G3 X53.93743 Y179.19136 I0.40753 J0.28969
G3 X56.41529 I1.23893 J0.99842
G3 X56.42861 Y179.20866 I-0.38932 J0.31374
G3 X58.27459 Y183.5302 I-8.2659 J6.08588
G3 X59.12351 Y192.32839 I-36.75671 J7.98663
G3 X59.12335 Y192.33434 I-0.49988 J-0.01079
G2 X62.83079 Y192.44281 I1.85349 J0.06208
G2 X62.82681 Y190.50267 I-41.64928 J-0.88475
G1 F300.0 Z-4.0
G2 F800.0 X61.4798 Y180.99903 I-41.6453 J1.0554
G3 X61.47941 Y180.99753 I0.48367 J-0.12673
G2 X57.20281 Y175.28248 I-9.10515 J2.35579
G2 X55.14647 Y174.88757 I-1.90727 J4.38014
G2 X51.18671 Y177.10873 I0.22478 J5.04093
G3 X51.13779 Y177.17027 I-0.41464 J-0.27941
G2 X49.07597 Y181.19909 I6.04546 J5.63587
G2 X48.49639 Y192.60105 I44.8756 J7.99683
G2 X52.20804 Y192.19061 I1.85328 J-0.22822
G3 X52.20776 Y192.18768 I0.49761 J-0.04879
G3 X52.72271 Y181.96803 I35.95304 J-3.31121
G3 X52.72372 Y181.96297 I0.49076 J0.09567
G3 X53.91922 Y179.21541 I7.12096 J1.46456
G3 X53.93743 Y179.19136 I0.40753 J0.28969
G3 X56.41529 I1.23893 J0.99842
G3 X56.42861 Y179.20866 I-0.38932 J0.31374
G3 X58.27459 Y183.5302 I-8.2659 J6.08588
G3 X59.12351 Y192.32839 I-36.75671 J7.98663
G3 X59.12335 Y192.33434 I-0.49988 J-0.01079
G2 X62.83079 Y192.44281 I1.85349 J0.06208
G2 X62.82681 Y190.50267 I-41.64928 J-0.88475
G1 F300.0 Z-5.0
G2 F800.0 X61.4798 Y180.99903 I-41.6453 J1.0554
G3 X61.47941 Y180.99753 I0.48367 J-0.12673
G2 X57.20281 Y175.28248 I-9.10515 J2.35579
G2 X55.14647 Y174.88757 I-1.90727 J4.38014
G2 X51.18671 Y177.10873 I0.22478 J5.04093
G3 X51.13779 Y177.17027 I-0.41464 J-0.27941
G2 X49.07597 Y181.19909 I6.04546 J5.63587
G2 X48.49639 Y192.60105 I44.8756 J7.99683
G2 X52.20804 Y192.19061 I1.85328 J-0.22822
G3 X52.20776 Y192.18768 I0.49761 J-0.04879
G3 X52.72271 Y181.96803 I35.95304 J-3.31121
G3 X52.72372 Y181.96297 I0.49076 J0.09567
G3 X53.91922 Y179.21541 I7.12096 J1.46456
G3 X53.93743 Y179.19136 I0.40753 J0.28969
G3 X56.41529 I1.23893 J0.99842
G3 X56.42861 Y179.20866 I-0.38932 J0.31374
G3 X58.27459 Y183.5302 I-8.2659 J6.08588
G3 X59.12351 Y192.32839 I-36.75671 J7.98663
G3 X59.12335 Y192.33434 I-0.49988 J-0.01079
G2 X62.83079 Y192.44281 I1.85349 J0.06208
G2 X62.82681 Y190.50267 I-41.64928 J-0.88475
G1 F300.0 Z-6.0
G2 F800.0 X61.4798 Y180.99903 I-41.6453 J1.0554
G3 X61.47941 Y180.99753 I0.48367 J-0.12673
G2 X57.20281 Y175.28248 I-9.10515 J2.35579
G2 X55.14647 Y174.88757 I-1.90727 J4.38014
G2 X51.18671 Y177.10873 I0.22478 J5.04093
G3 X51.13779 Y177.17027 I-0.41464 J-0.27941
G2 X49.07597 Y181.19909 I6.04546 J5.63587
G2 X48.49639 Y192.60105 I44.8756 J7.99683
G2 X52.20804 Y192.19061 I1.85328 J-0.22822
G3 X52.20776 Y192.18768 I0.49761 J-0.04879
G3 X52.72271 Y181.96803 I35.95304 J-3.31121
G3 X52.72372 Y181.96297 I0.49076 J0.09567
G3 X53.91922 Y179.21541 I7.12096 J1.46456
G3 X53.93743 Y179.19136 I0.40753 J0.28969
G3 X56.41529 I1.23893 J0.99842
G3 X56.42861 Y179.20866 I-0.38932 J0.31374
G3 X58.27459 Y183.5302 I-8.2659 J6.08588
G3 X59.12351 Y192.32839 I-36.75671 J7.98663
G3 X59.12335 Y192.33434 I-0.49988 J-0.01079
G2 X62.83079 Y192.44281 I1.85349 J0.06208
G2 X62.82681 Y190.50267 I-41.64928 J-0.88475
G0 Z3.0
G0 X66.80065 Y198.13788
G0 Z1.0
G1 F300.0 Z-1.0
G2 F800.0 X68.99067 Y201.10675 I0.86204 J1.65629
G3 X68.99758 Y201.09989 I0.35561 J0.35148
G2 X69.52996 Y199.80698 I-1.22762 J-1.26155
G3 X69.52988 Y199.79725 I0.49992 J-0.00891
G2 X66.80065 Y198.13788 I-1.86719 J-0.00308
G1 F300.0 Z-2.0
G2 F800.0 X68.99067 Y201.10675 I0.86204 J1.65629
G3 X68.99758 Y201.09989 I0.35561 J0.35148
G2 X69.52996 Y199.80698 I-1.22762 J-1.26155
G3 X69.52988 Y199.79725 I0.49992 J-0.00891
G2 X66.80065 Y198.13788 I-1.86719 J-0.00308
G1 F300.0 Z-3.0
G2 F800.0 X68.99067 Y201.10675 I0.86204 J1.65629
G3 X68.99758 Y201.09989 I0.35561 J0.35148
G2 X69.52996 Y199.80698 I-1.22762 J-1.26155
G3 X69.52988 Y199.79725 I0.49992 J-0.00891
G2 X66.80065 Y198.13788 I-1.86719 J-0.00308
G1 F300.0 Z-4.0
G2 F800.0 X68.99067 Y201.10675 I0.86204 J1.65629
G3 X68.99758 Y201.09989 I0.35561 J0.35148
G2 X69.52996 Y199.80698 I-1.22762 J-1.26155
G3 X69.52988 Y199.79725 I0.49992 J-0.00891
G2 X66.80065 Y198.13788 I-1.86719 J-0.00308
G1 F300.0 Z-5.0
G2 F800.0 X68.99067 Y201.10675 I0.86204 J1.65629
G3 X68.99758 Y201.09989 I0.35561 J0.35148
G2 X69.52996 Y199.80698 I-1.22762 J-1.26155
G3 X69.52988 Y199.79725 I0.49992 J-0.00891
G2 X66.80065 Y198.13788 I-1.86719 J-0.00308
G1 F300.0 Z-6.0
G2 F800.0 X68.99067 Y201.10675 I0.86204 J1.65629
G3 X68.99758 Y201.09989 I0.35561 J0.35148
G2 X69.52996 Y199.80698 I-1.22762 J-1.26155
G3 X69.52988 Y199.79725 I0.49992 J-0.00891
G2 X66.80065 Y198.13788 I-1.86719 J-0.00308
G0 Z3.0
G0 X35.15059 Y198.94555
G0 Z1.0
G1 F300.0 Z-1.0
G3 F800.0 X35.36161 Y176.82657 I315.47888 J-8.05067
G3 X35.36222 Y176.81567 I0.4995 J0.02229
G2 X33.73106 Y174.92536 I-1.77414 J-0.11801
G3 X33.71509 Y174.92381 I0.04021 J-0.49838
G2 X32.45174 Y174.84891 I-1.33268 J11.78565
G2 X20.8892 Y182.73357 I0.53003 J13.1976
G3 X20.87503 Y182.76314 I-0.45777 J-0.20112
G2 X21.12557 Y191.71479 I8.17329 J4.25057
G2 X28.53533 Y193.66374 I4.85056 J-3.38133
G3 X28.55657 Y193.65415 I0.21641 J0.45074
G2 X30.2698 Y192.54609 I-2.3121 J-5.45337
G2 X30.38348 Y192.28395 I-0.36293 J-0.31312
G3 X31.38065 Y192.33749 I0.49716 J0.05318
G2 X31.61435 Y204.28301 I294.77142 J0.20808
G2 X35.32269 Y204.06149 I1.85313 J-0.12817
G3 X35.32249 Y204.05721 I0.49937 J-0.02513
G3 X35.15059 Y198.94555 I315.30698 J-13.16232
G1 F300.0 Z-2.0
G3 F800.0 X35.36161 Y176.82657 I315.47888 J-8.05067
G3 X35.36222 Y176.81567 I0.4995 J0.02229
G2 X33.73106 Y174.92536 I-1.77414 J-0.11801
G3 X33.71509 Y174.92381 I0.04021 J-0.49838
G2 X32.45174 Y174.84891 I-1.33268 J11.78565
G2 X20.8892 Y182.73357 I0.53003 J13.1976
G3 X20.87503 Y182.76314 I-0.45777 J-0.20112
G2 X21.12557 Y191.71479 I8.17329 J4.25057
G2 X28.53533 Y193.66374 I4.85056 J-3.38133
G3 X28.55657 Y193.65415 I0.21641 J0.45074
G2 X30.2698 Y192.54609 I-2.3121 J-5.45337
G2 X30.38348 Y192.28395 I-0.36293 J-0.31312
G3 X31.38065 Y192.33749 I0.49716 J0.05318
G2 X31.61435 Y204.28301 I294.77142 J0.20808
G2 X35.32269 Y204.06149 I1.85313 J-0.12817
G3 X35.32249 Y204.05721 I0.49937 J-0.02513
G3 X35.15059 Y198.94555 I315.30698 J-13.16232
G1 F300.0 Z-3.0
G3 F800.0 X35.36161 Y176.82657 I315.47888 J-8.05067
G3 X35.36222 Y176.81567 I0.4995 J0.02229
G2 X33.73106 Y174.92536 I-1.77414 J-0.11801
G3 X33.71509 Y174.92381 I0.04021 J-0.49838
G2 X32.45174 Y174.84891 I-1.33268 J11.78565
G2 X20.8892 Y182.73357 I0.53003 J13.1976
G3 X20.87503 Y182.76314 I-0.45777 J-0.20112
G2 X21.12557 Y191.71479 I8.17329 J4.25057
G2 X28.53533 Y193.66374 I4.85056 J-3.38133
G3 X28.55657 Y193.65415 I0.21641 J0.45074
G2 X30.2698 Y192.54609 I-2.3121 J-5.45337
G2 X30.38348 Y192.28395 I-0.36293 J-0.31312
G3 X31.38065 Y192.33749 I0.49716 J0.05318
G2 X31.61435 Y204.28301 I294.77142 J0.20808
G2 X35.32269 Y204.06149 I1.85313 J-0.12817
G3 X35.32249 Y204.05721 I0.49937 J-0.02513
G3 X35.15059 Y198.94555 I315.30698 J-13.16232
G1 F300.0 Z-4.0
G3 F800.0 X35.36161 Y176.82657 I315.47888 J-8.05067
G3 X35.36222 Y176.81567 I0.4995 J0.02229
G2 X33.73106 Y174.92536 I-1.77414 J-0.11801
G3 X33.71509 Y174.92381 I0.04021 J-0.49838
G2 X32.45174 Y174.84891 I-1.33268 J11.78565
G2 X20.8892 Y182.73357 I0.53003 J13.1976
G3 X20.87503 Y182.76314 I-0.45777 J-0.20112
G2 X21.12557 Y191.71479 I8.17329 J4.25057
G2 X28.53533 Y193.66374 I4.85056 J-3.38133
G3 X28.55657 Y193.65415 I0.21641 J0.45074
G2 X30.2698 Y192.54609 I-2.3121 J-5.45337
G2 X30.38348 Y192.28395 I-0.36293 J-0.31312
G3 X31.38065 Y192.33749 I0.49716 J0.05318
G2 X31.61435 Y204.28301 I294.77142 J0.20808
G2 X35.32269 Y204.06149 I1.85313 J-0.12817
G3 X35.32249 Y204.05721 I0.49937 J-0.02513
G3 X35.15059 Y198.94555 I315.30698 J-13.16232
G1 F300.0 Z-5.0
G3 F800.0 X35.36161 Y176.82657 I315.47888 J-8.05067
G3 X35.36222 Y176.81567 I0.4995 J0.02229
G2 X33.73106 Y174.92536 I-1.77414 J-0.11801
G3 X33.71509 Y174.92381 I0.04021 J-0.49838
G2 X32.45174 Y174.84891 I-1.33268 J11.78565
G2 X20.8892 Y182.73357 I0.53003 J13.1976
G3 X20.87503 Y182.76314 I-0.45777 J-0.20112
G2 X21.12557 Y191.71479 I8.17329 J4.25057
G2 X28.53533 Y193.66374 I4.85056 J-3.38133
G3 X28.55657 Y193.65415 I0.21641 J0.45074
G2 X30.2698 Y192.54609 I-2.3121 J-5.45337
G2 X30.38348 Y192.28395 I-0.36293 J-0.31312
G3 X31.38065 Y192.33749 I0.49716 J0.05318
G2 X31.61435 Y204.28301 I294.77142 J0.20808
G2 X35.32269 Y204.06149 I1.85313 J-0.12817
G3 X35.32249 Y204.05721 I0.49937 J-0.02513
G3 X35.15059 Y198.94555 I315.30698 J-13.16232
G1 F300.0 Z-6.0
G3 F800.0 X35.36161 Y176.82657 I315.47888 J-8.05067
G3 X35.36222 Y176.81567 I0.4995 J0.02229
G2 X33.73106 Y174.92536 I-1.77414 J-0.11801
G3 X33.71509 Y174.92381 I0.04021 J-0.49838
G2 X32.45174 Y174.84891 I-1.33268 J11.78565
G2 X20.8892 Y182.73357 I0.53003 J13.1976
G3 X20.87503 Y182.76314 I-0.45777 J-0.20112
G2 X21.12557 Y191.71479 I8.17329 J4.25057
G2 X28.53533 Y193.66374 I4.85056 J-3.38133
G3 X28.55657 Y193.65415 I0.21641 J0.45074
G2 X30.2698 Y192.54609 I-2.3121 J-5.45337
G2 X30.38348 Y192.28395 I-0.36293 J-0.31312
G3 X31.38065 Y192.33749 I0.49716 J0.05318
G2 X31.61435 Y204.28301 I294.77142 J0.20808
G2 X35.32269 Y204.06149 I1.85313 J-0.12817
G3 X35.32249 Y204.05721 I0.49937 J-0.02513
G3 X35.15059 Y198.94555 I315.30698 J-13.16232
G0 Z3.0
G0 X28.32345 Y189.52549
G0 Z1.0
G1 F300.0 Z-1.0
G3 F800.0 X26.31863 Y190.47179 I-3.51498 J-4.84996
G3 X24.04553 Y189.32972 I-0.51757 J-1.80302
G3 X24.04545 Y189.32952 I0.46793 J-0.17618
G3 X24.36696 Y184.08877 I6.01374 J-2.26131
G3 X28.58072 Y179.50945 I7.53279 J2.70311
G3 X30.98581 Y178.62267 I3.75558 J6.48089
G3 X31.57565 Y179.13198 I0.09015 J0.49181
G2 X31.38058 Y186.70087 I409.27469 J14.33527
G3 X30.96706 Y187.18508 I-0.49993 J-0.00826
G2 X29.85304 Y187.905 I0.29433 J1.67736
G3 X28.32345 Y189.52549 I-5.04457 J-3.22948
G1 F300.0 Z-2.0
G3 F800.0 X26.31863 Y190.47179 I-3.51498 J-4.84996
G3 X24.04553 Y189.32972 I-0.51757 J-1.80302
G3 X24.04545 Y189.32952 I0.46793 J-0.17618
G3 X24.36696 Y184.08877 I6.01374 J-2.26131
G3 X28.58072 Y179.50945 I7.53279 J2.70311
G3 X30.98581 Y178.62267 I3.75558 J6.48089
G3 X31.57565 Y179.13198 I0.09015 J0.49181
G2 X31.38058 Y186.70087 I409.27469 J14.33527
G3 X30.96706 Y187.18508 I-0.49993 J-0.00826
G2 X29.85304 Y187.905 I0.29433 J1.67736
G3 X28.32345 Y189.52549 I-5.04457 J-3.22948
G1 F300.0 Z-3.0
G3 F800.0 X26.31863 Y190.47179 I-3.51498 J-4.84996
G3 X24.04553 Y189.32972 I-0.51757 J-1.80302
G3 X24.04545 Y189.32952 I0.46793 J-0.17618
G3 X24.36696 Y184.08877 I6.01374 J-2.26131
G3 X28.58072 Y179.50945 I7.53279 J2.70311
G3 X30.98581 Y178.62267 I3.75558 J6.48089
G3 X31.57565 Y179.13198 I0.09015 J0.49181
G2 X31.38058 Y186.70087 I409.27469 J14.33527
G3 X30.96706 Y187.18508 I-0.49993 J-0.00826
G2 X29.85304 Y187.905 I0.29433 J1.67736
G3 X28.32345 Y189.52549 I-5.04457 J-3.22948
G1 F300.0 Z-4.0
G3 F800.0 X26.31863 Y190.47179 I-3.51498 J-4.84996
G3 X24.04553 Y189.32972 I-0.51757 J-1.80302
G3 X24.04545 Y189.32952 I0.46793 J-0.17618
G3 X24.36696 Y184.08877 I6.01374 J-2.26131
G3 X28.58072 Y179.50945 I7.53279 J2.70311
G3 X30.98581 Y178.62267 I3.75558 J6.48089
G3 X31.57565 Y179.13198 I0.09015 J0.49181
G2 X31.38058 Y186.70087 I409.27469 J14.33527
G3 X30.96706 Y187.18508 I-0.49993 J-0.00826
G2 X29.85304 Y187.905 I0.29433 J1.67736
G3 X28.32345 Y189.52549 I-5.04457 J-3.22948
G1 F300.0 Z-5.0
G3 F800.0 X26.31863 Y190.47179 I-3.51498 J-4.84996
G3 X24.04553 Y189.32972 I-0.51757 J-1.80302
G3 X24.04545 Y189.32952 I0.46793 J-0.17618
G3 X24.36696 Y184.08877 I6.01374 J-2.26131
G3 X28.58072 Y179.50945 I7.53279 J2.70311
G3 X30.98581 Y178.62267 I3.75558 J6.48089
G3 X31.57565 Y179.13198 I0.09015 J0.49181
G2 X31.38058 Y186.70087 I409.27469 J14.33527
G3 X30.96706 Y187.18508 I-0.49993 J-0.00826
G2 X29.85304 Y187.905 I0.29433 J1.67736
G3 X28.32345 Y189.52549 I-5.04457 J-3.22948
G1 F300.0 Z-6.0
G3 F800.0 X26.31863 Y190.47179 I-3.51498 J-4.84996
G3 X24.04553 Y189.32972 I-0.51757 J-1.80302
G3 X24.04545 Y189.32952 I0.46793 J-0.17618
G3 X24.36696 Y184.08877 I6.01374 J-2.26131
G3 X28.58072 Y179.50945 I7.53279 J2.70311
G3 X30.98581 Y178.62267 I3.75558 J6.48089
G3 X31.57565 Y179.13198 I0.09015 J0.49181
G2 X31.38058 Y186.70087 I409.27469 J14.33527
G3 X30.96706 Y187.18508 I-0.49993 J-0.00826
G2 X29.85304 Y187.905 I0.29433 J1.67736
G3 X28.32345 Y189.52549 I-5.04457 J-3.22948
G0 Z3.0
G0 X16.87567 Y187.67891
G0 Z1.0
G1 F300.0 Z-1.0
G2 F800.0 X16.96456 Y186.96181 I-9.74533 J-1.57196
G3 X16.96614 Y186.94635 I0.49812 J0.0433
G2 X17.14118 Y176.55059 I-51.2278 J-6.0619
G2 X15.26176 Y174.84868 I-1.94413 J0.25822
G2 X13.42841 Y176.81268 I-0.03721 J1.80295
G3 X13.12335 Y187.40144 I-32.97462 J4.34877
G3 X13.11998 Y187.4176 I-0.49112 J-0.09381
G3 X12.23936 Y189.78028 I-9.13587 J-2.0597
G3 X12.11932 Y189.92777 I-0.44074 J-0.23611
G3 X8.82032 Y189.40588 I-1.42176 J-1.70058
G3 X7.68471 Y187.66311 I65.03885 J-43.62147
G3 X7.63497 Y187.56 I0.4225 J-0.26738
G3 X5.55725 Y176.54796 I35.82078 J-12.46057
G2 X1.82972 Y176.73736 I-1.86008 J0.16712
G3 X2.27895 Y192.40254 I-602.01683 J25.1028
G2 X6.00565 Y192.3366 I1.86273 J-0.06796
G3 X7.0054 Y192.32146 I0.5 J0.00054
G2 X10.72194 Y194.24121 I3.38956 J-2.00465
G3 X10.772 Y194.23955 I0.04152 J0.49827
G2 X14.78541 Y192.3394 I0.08559 J-5.00775
G3 X14.78957 Y192.33421 I0.39212 J0.31023
G2 X16.87567 Y187.67891 I-7.65922 J-6.22726
G1 F300.0 Z-2.0
G2 F800.0 X16.96456 Y186.96181 I-9.74533 J-1.57196
G3 X16.96614 Y186.94635 I0.49812 J0.0433
G2 X17.14118 Y176.55059 I-51.2278 J-6.0619
G2 X15.26176 Y174.84868 I-1.94413 J0.25822
G2 X13.42841 Y176.81268 I-0.03721 J1.80295
G3 X13.12335 Y187.40144 I-32.97462 J4.34877
G3 X13.11998 Y187.4176 I-0.49112 J-0.09381
G3 X12.23936 Y189.78028 I-9.13587 J-2.0597
G3 X12.11932 Y189.92777 I-0.44074 J-0.23611
G3 X8.82032 Y189.40588 I-1.42176 J-1.70058
G3 X7.68471 Y187.66311 I65.03885 J-43.62147
G3 X7.63497 Y187.56 I0.4225 J-0.26738
G3 X5.55725 Y176.54796 I35.82078 J-12.46057
G2 X1.82972 Y176.73736 I-1.86008 J0.16712
G3 X2.27895 Y192.40254 I-602.01683 J25.1028
G2 X6.00565 Y192.3366 I1.86273 J-0.06796
G3 X7.0054 Y192.32146 I0.5 J0.00054
G2 X10.72194 Y194.24121 I3.38956 J-2.00465
G3 X10.772 Y194.23955 I0.04152 J0.49827
G2 X14.78541 Y192.3394 I0.08559 J-5.00775
G3 X14.78957 Y192.33421 I0.39212 J0.31023
G2 X16.87567 Y187.67891 I-7.65922 J-6.22726
G1 F300.0 Z-3.0
G2 F800.0 X16.96456 Y186.96181 I-9.74533 J-1.57196
G3 X16.96614 Y186.94635 I0.49812 J0.0433
G2 X17.14118 Y176.55059 I-51.2278 J-6.0619
G2 X15.26176 Y174.84868 I-1.94413 J0.25822
G2 X13.42841 Y176.81268 I-0.03721 J1.80295
G3 X13.12335 Y187.40144 I-32.97462 J4.34877
G3 X13.11998 Y187.4176 I-0.49112 J-0.09381
G3 X12.23936 Y189.78028 I-9.13587 J-2.0597
G3 X12.11932 Y189.92777 I-0.44074 J-0.23611
G3 X8.82032 Y189.40588 I-1.42176 J-1.70058
G3 X7.68471 Y187.66311 I65.03885 J-43.62147
G3 X7.63497 Y187.56 I0.4225 J-0.26738
G3 X5.55725 Y176.54796 I35.82078 J-12.46057
G2 X1.82972 Y176.73736 I-1.86008 J0.16712
G3 X2.27895 Y192.40254 I-602.01683 J25.1028
G2 X6.00565 Y192.3366 I1.86273 J-0.06796
G3 X7.0054 Y192.32146 I0.5 J0.00054
G2 X10.72194 Y194.24121 I3.38956 J-2.00465
G3 X10.772 Y194.23955 I0.04152 J0.49827
G2 X14.78541 Y192.3394 I0.08559 J-5.00775
G3 X14.78957 Y192.33421 I0.39212 J0.31023
G2 X16.87567 Y187.67891 I-7.65922 J-6.22726
G1 F300.0 Z-4.0
G2 F800.0 X16.96456 Y186.96181 I-9.74533 J-1.57196
G3 X16.96614 Y186.94635 I0.49812 J0.0433
G2 X17.14118 Y176.55059 I-51.2278 J-6.0619
G2 X15.26176 Y174.84868 I-1.94413 J0.25822
G2 X13.42841 Y176.81268 I-0.03721 J1.80295
G3 X13.12335 Y187.40144 I-32.97462 J4.34877
G3 X13.11998 Y187.4176 I-0.49112 J-0.09381
G3 X12.23936 Y189.78028 I-9.13587 J-2.0597
G3 X12.11932 Y189.92777 I-0.44074 J-0.23611
G3 X8.82032 Y189.40588 I-1.42176 J-1.70058
G3 X7.68471 Y187.66311 I65.03885 J-43.62147
G3 X7.63497 Y187.56 I0.4225 J-0.26738
G3 X5.55725 Y176.54796 I35.82078 J-12.46057
G2 X1.82972 Y176.73736 I-1.86008 J0.16712
G3 X2.27895 Y192.40254 I-602.01683 J25.1028
G2 X6.00565 Y192.3366 I1.86273 J-0.06796
G3 X7.0054 Y192.32146 I0.5 J0.00054
G2 X10.72194 Y194.24121 I3.38956 J-2.00465
G3 X10.772 Y194.23955 I0.04152 J0.49827
G2 X14.78541 Y192.3394 I0.08559 J-5.00775
G3 X14.78957 Y192.33421 I0.39212 J0.31023
G2 X16.87567 Y187.67891 I-7.65922 J-6.22726
G1 F300.0 Z-5.0
G2 F800.0 X16.96456 Y186.96181 I-9.74533 J-1.57196
G3 X16.96614 Y186.94635 I0.49812 J0.0433
G2 X17.14118 Y176.55059 I-51.2278 J-6.0619
G2 X15.26176 Y174.84868 I-1.94413 J0.25822
G2 X13.42841 Y176.81268 I-0.03721 J1.80295
G3 X13.12335 Y187.40144 I-32.97462 J4.34877
G3 X13.11998 Y187.4176 I-0.49112 J-0.09381
G3 X12.23936 Y189.78028 I-9.13587 J-2.0597
G3 X12.11932 Y189.92777 I-0.44074 J-0.23611
G3 X8.82032 Y189.40588 I-1.42176 J-1.70058
G3 X7.68471 Y187.66311 I65.03885 J-43.62147
G3 X7.63497 Y187.56 I0.4225 J-0.26738
G3 X5.55725 Y176.54796 I35.82078 J-12.46057
G2 X1.82972 Y176.73736 I-1.86008 J0.16712
G3 X2.27895 Y192.40254 I-602.01683 J25.1028
G2 X6.00565 Y192.3366 I1.86273 J-0.06796
G3 X7.0054 Y192.32146 I0.5 J0.00054
G2 X10.72194 Y194.24121 I3.38956 J-2.00465
G3 X10.772 Y194.23955 I0.04152 J0.49827
G2 X14.78541 Y192.3394 I0.08559 J-5.00775
G3 X14.78957 Y192.33421 I0.39212 J0.31023
G2 X16.87567 Y187.67891 I-7.65922 J-6.22726
G1 F300.0 Z-6.0
G2 F800.0 X16.96456 Y186.96181 I-9.74533 J-1.57196
G3 X16.96614 Y186.94635 I0.49812 J0.0433
G2 X17.14118 Y176.55059 I-51.2278 J-6.0619
G2 X15.26176 Y174.84868 I-1.94413 J0.25822
G2 X13.42841 Y176.81268 I-0.03721 J1.80295
G3 X13.12335 Y187.40144 I-32.97462 J4.34877
G3 X13.11998 Y187.4176 I-0.49112 J-0.09381
G3 X12.23936 Y189.78028 I-9.13587 J-2.0597
G3 X12.11932 Y189.92777 I-0.44074 J-0.23611
G3 X8.82032 Y189.40588 I-1.42176 J-1.70058
G3 X7.68471 Y187.66311 I65.03885 J-43.62147
G3 X7.63497 Y187.56 I0.4225 J-0.26738
G3 X5.55725 Y176.54796 I35.82078 J-12.46057
G2 X1.82972 Y176.73736 I-1.86008 J0.16712
G3 X2.27895 Y192.40254 I-602.01683 J25.1028
G2 X6.00565 Y192.3366 I1.86273 J-0.06796
G3 X7.0054 Y192.32146 I0.5 J0.00054
G2 X10.72194 Y194.24121 I3.38956 J-2.00465
G3 X10.772 Y194.23955 I0.04152 J0.49827
G2 X14.78541 Y192.3394 I0.08559 J-5.00775
G3 X14.78957 Y192.33421 I0.39212 J0.31023
G2 X16.87567 Y187.67891 I-7.65922 J-6.22726
G0 Z3.0
G0 X107.08533 Y188.34558
G0 Z1.0
G1 F300.0 Z-1.0
G2 F800.0 X107.21794 Y199.90009 I306.25115 J2.26324
G3 X107.21593 Y199.9625 I-0.49977 J0.01517
G2 X107.81736 Y202.63141 I4.37855 J0.41552
G2 X110.13255 Y203.67433 I2.57626 J-2.62783
G3 X110.14418 Y203.6753 I-0.03547 J0.49874
G2 X121.24343 Y203.98619 I7.88924 J-83.37302
G3 X123.41625 Y203.92695 I1.90052 J29.83207
G2 X123.3626 Y200.21962 I-0.02816 J-1.85365
G3 X111.3807 Y200.13984 I-5.50826 J-72.53554
G3 X110.92553 Y199.65992 I0.0445 J-0.49802
G3 X110.80805 Y189.71366 I203.73331 J-7.38013
G3 X111.73749 Y189.46393 I0.49996 J0.00629
G3 X123.27966 Y189.77015 I4.05362 J64.88757
G3 X123.30065 Y189.77304 I-0.05759 J0.49667
G2 X123.9048 Y186.13491 I0.28978 J-1.8211
G2 X111.29716 Y185.78628 I-10.17452 J139.8027
G3 X110.78848 Y185.28571 I-0.00868 J-0.49992
G3 X110.96504 Y179.12554 I112.57992 J0.1442
G3 X111.44683 Y178.65385 I0.49922 J0.028
G3 X124.31288 Y179.40142 I2.42131 J69.41755
G3 X124.31388 Y179.40157 I-0.07519 J0.49431
G2 X126.43378 Y177.84298 I0.28304 J-1.83601
G2 X124.17694 Y175.6298 I-2.18108 J-0.03316
G3 X124.09273 Y175.62562 I-0.01737 J-0.4997
G2 X112.61943 Y174.88791 I-11.00738 J81.60487
G3 X112.56864 Y174.88561 I-0.00283 J-0.49999
G2 X108.3389 Y175.8326 I-0.66832 J6.9345
G2 X107.33535 Y178.01817 I1.84629 J2.17095
G3 X107.33493 Y178.04125 I-0.49999 J0.00256
G2 X107.08533 Y188.34558 I306.00154 J12.56757
G1 F300.0 Z-2.0
G2 F800.0 X107.21794 Y199.90009 I306.25115 J2.26324
G3 X107.21593 Y199.9625 I-0.49977 J0.01517
G2 X107.81736 Y202.63141 I4.37855 J0.41552
G2 X110.13255 Y203.67433 I2.57626 J-2.62783
G3 X110.14418 Y203.6753 I-0.03547 J0.49874
G2 X121.24343 Y203.98619 I7.88924 J-83.37302
G3 X123.41625 Y203.92695 I1.90052 J29.83207
G2 X123.3626 Y200.21962 I-0.02816 J-1.85365
G3 X111.3807 Y200.13984 I-5.50826 J-72.53554
G3 X110.92553 Y199.65992 I0.0445 J-0.49802
G3 X110.80805 Y189.71366 I203.73331 J-7.38013
G3 X111.73749 Y189.46393 I0.49996 J0.00629
G3 X123.27966 Y189.77015 I4.05362 J64.88757
G3 X123.30065 Y189.77304 I-0.05759 J0.49667
G2 X123.9048 Y186.13491 I0.28978 J-1.8211
G2 X111.29716 Y185.78628 I-10.17452 J139.8027
G3 X110.78848 Y185.28571 I-0.00868 J-0.49992
G3 X110.96504 Y179.12554 I112.57992 J0.1442
G3 X111.44683 Y178.65385 I0.49922 J0.028
G3 X124.31288 Y179.40142 I2.42131 J69.41755
G3 X124.31388 Y179.40157 I-0.07519 J0.49431
G2 X126.43378 Y177.84298 I0.28304 J-1.83601
G2 X124.17694 Y175.6298 I-2.18108 J-0.03316
G3 X124.09273 Y175.62562 I-0.01737 J-0.4997
G2 X112.61943 Y174.88791 I-11.00738 J81.60487
G3 X112.56864 Y174.88561 I-0.00283 J-0.49999
G2 X108.3389 Y175.8326 I-0.66832 J6.9345
G2 X107.33535 Y178.01817 I1.84629 J2.17095
G3 X107.33493 Y178.04125 I-0.49999 J0.00256
G2 X107.08533 Y188.34558 I306.00154 J12.56757
G1 F300.0 Z-3.0
G2 F800.0 X107.21794 Y199.90009 I306.25115 J2.26324
G3 X107.21593 Y199.9625 I-0.49977 J0.01517
G2 X107.81736 Y202.63141 I4.37855 J0.41552
G2 X110.13255 Y203.67433 I2.57626 J-2.62783
G3 X110.14418 Y203.6753 I-0.03547 J0.49874
G2 X121.24343 Y203.98619 I7.88924 J-83.37302
G3 X123.41625 Y203.92695 I1.90052 J29.83207
G2 X123.3626 Y200.21962 I-0.02816 J-1.85365
G3 X111.3807 Y200.13984 I-5.50826 J-72.53554
G3 X110.92553 Y199.65992 I0.0445 J-0.49802
G3 X110.80805 Y189.71366 I203.73331 J-7.38013
G3 X111.73749 Y189.46393 I0.49996 J0.00629
G3 X123.27966 Y189.77015 I4.05362 J64.88757
G3 X123.30065 Y189.77304 I-0.05759 J0.49667
G2 X123.9048 Y186.13491 I0.28978 J-1.8211
G2 X111.29716 Y185.78628 I-10.17452 J139.8027
G3 X110.78848 Y185.28571 I-0.00868 J-0.49992
G3 X110.96504 Y179.12554 I112.57992 J0.1442
G3 X111.44683 Y178.65385 I0.49922 J0.028
G3 X124.31288 Y179.40142 I2.42131 J69.41755
G3 X124.31388 Y179.40157 I-0.07519 J0.49431
G2 X126.43378 Y177.84298 I0.28304 J-1.83601
G2 X124.17694 Y175.6298 I-2.18108 J-0.03316
G3 X124.09273 Y175.62562 I-0.01737 J-0.4997
G2 X112.61943 Y174.88791 I-11.00738 J81.60487
G3 X112.56864 Y174.88561 I-0.00283 J-0.49999
G2 X108.3389 Y175.8326 I-0.66832 J6.9345
G2 X107.33535 Y178.01817 I1.84629 J2.17095
G3 X107.33493 Y178.04125 I-0.49999 J0.00256
G2 X107.08533 Y188.34558 I306.00154 J12.56757
G1 F300.0 Z-4.0
G2 F800.0 X107.21794 Y199.90009 I306.25115 J2.26324
G3 X107.21593 Y199.9625 I-0.49977 J0.01517
G2 X107.81736 Y202.63141 I4.37855 J0.41552
G2 X110.13255 Y203.67433 I2.57626 J-2.62783
G3 X110.14418 Y203.6753 I-0.03547 J0.49874
G2 X121.24343 Y203.98619 I7.88924 J-83.37302
G3 X123.41625 Y203.92695 I1.90052 J29.83207
G2 X123.3626 Y200.21962 I-0.02816 J-1.85365
G3 X111.3807 Y200.13984 I-5.50826 J-72.53554
G3 X110.92553 Y199.65992 I0.0445 J-0.49802
G3 X110.80805 Y189.71366 I203.73331 J-7.38013
G3 X111.73749 Y189.46393 I0.49996 J0.00629
G3 X123.27966 Y189.77015 I4.05362 J64.88757
G3 X123.30065 Y189.77304 I-0.05759 J0.49667
G2 X123.9048 Y186.13491 I0.28978 J-1.8211
G2 X111.29716 Y185.78628 I-10.17452 J139.8027
G3 X110.78848 Y185.28571 I-0.00868 J-0.49992
G3 X110.96504 Y179.12554 I112.57992 J0.1442
G3 X111.44683 Y178.65385 I0.49922 J0.028
G3 X124.31288 Y179.40142 I2.42131 J69.41755
G3 X124.31388 Y179.40157 I-0.07519 J0.49431
G2 X126.43378 Y177.84298 I0.28304 J-1.83601
G2 X124.17694 Y175.6298 I-2.18108 J-0.03316
G3 X124.09273 Y175.62562 I-0.01737 J-0.4997
G2 X112.61943 Y174.88791 I-11.00738 J81.60487
G3 X112.56864 Y174.88561 I-0.00283 J-0.49999
G2 X108.3389 Y175.8326 I-0.66832 J6.9345
G2 X107.33535 Y178.01817 I1.84629 J2.17095
G3 X107.33493 Y178.04125 I-0.49999 J0.00256
G2 X107.08533 Y188.34558 I306.00154 J12.56757
G1 F300.0 Z-5.0
G2 F800.0 X107.21794 Y199.90009 I306.25115 J2.26324
G3 X107.21593 Y199.9625 I-0.49977 J0.01517
G2 X107.81736 Y202.63141 I4.37855 J0.41552
G2 X110.13255 Y203.67433 I2.57626 J-2.62783
G3 X110.14418 Y203.6753 I-0.03547 J0.49874
G2 X121.24343 Y203.98619 I7.88924 J-83.37302
G3 X123.41625 Y203.92695 I1.90052 J29.83207
G2 X123.3626 Y200.21962 I-0.02816 J-1.85365
G3 X111.3807 Y200.13984 I-5.50826 J-72.53554
G3 X110.92553 Y199.65992 I0.0445 J-0.49802
G3 X110.80805 Y189.71366 I203.73331 J-7.38013
G3 X111.73749 Y189.46393 I0.49996 J0.00629
G3 X123.27966 Y189.77015 I4.05362 J64.88757
G3 X123.30065 Y189.77304 I-0.05759 J0.49667
G2 X123.9048 Y186.13491 I0.28978 J-1.8211
G2 X111.29716 Y185.78628 I-10.17452 J139.8027
G3 X110.78848 Y185.28571 I-0.00868 J-0.49992
G3 X110.96504 Y179.12554 I112.57992 J0.1442
G3 X111.44683 Y178.65385 I0.49922 J0.028
G3 X124.31288 Y179.40142 I2.42131 J69.41755
G3 X124.31388 Y179.40157 I-0.07519 J0.49431
G2 X126.43378 Y177.84298 I0.28304 J-1.83601
G2 X124.17694 Y175.6298 I-2.18108 J-0.03316
G3 X124.09273 Y175.62562 I-0.01737 J-0.4997
G2 X112.61943 Y174.88791 I-11.00738 J81.60487
G3 X112.56864 Y174.88561 I-0.00283 J-0.49999
G2 X108.3389 Y175.8326 I-0.66832 J6.9345
G2 X107.33535 Y178.01817 I1.84629 J2.17095
G3 X107.33493 Y178.04125 I-0.49999 J0.00256
G2 X107.08533 Y188.34558 I306.00154 J12.56757
G1 F300.0 Z-6.0
G2 F800.0 X107.21794 Y199.90009 I306.25115 J2.26324
G3 X107.21593 Y199.9625 I-0.49977 J0.01517
G2 X107.81736 Y202.63141 I4.37855 J0.41552
G2 X110.13255 Y203.67433 I2.57626 J-2.62783
G3 X110.14418 Y203.6753 I-0.03547 J0.49874
G2 X121.24343 Y203.98619 I7.88924 J-83.37302
G3 X123.41625 Y203.92695 I1.90052 J29.83207
G2 X123.3626 Y200.21962 I-0.02816 J-1.85365
G3 X111.3807 Y200.13984 I-5.50826 J-72.53554
G3 X110.92553 Y199.65992 I0.0445 J-0.49802
G3 X110.80805 Y189.71366 I203.73331 J-7.38013
G3 X111.73749 Y189.46393 I0.49996 J0.00629
G3 X123.27966 Y189.77015 I4.05362 J64.88757
G3 X123.30065 Y189.77304 I-0.05759 J0.49667
G2 X123.9048 Y186.13491 I0.28978 J-1.8211
G2 X111.29716 Y185.78628 I-10.17452 J139.8027
G3 X110.78848 Y185.28571 I-0.00868 J-0.49992
G3 X110.96504 Y179.12554 I112.57992 J0.1442
G3 X111.44683 Y178.65385 I0.49922 J0.028
G3 X124.31288 Y179.40142 I2.42131 J69.41755
G3 X124.31388 Y179.40157 I-0.07519 J0.49431
G2 X126.43378 Y177.84298 I0.28304 J-1.83601
G2 X124.17694 Y175.6298 I-2.18108 J-0.03316
G3 X124.09273 Y175.62562 I-0.01737 J-0.4997
G2 X112.61943 Y174.88791 I-11.00738 J81.60487
G3 X112.56864 Y174.88561 I-0.00283 J-0.49999
G2 X108.3389 Y175.8326 I-0.66832 J6.9345
G2 X107.33535 Y178.01817 I1.84629 J2.17095
G3 X107.33493 Y178.04125 I-0.49999 J0.00256
G2 X107.08533 Y188.34558 I306.00154 J12.56757
G0 Z3.0
G0 X129.62998 Y187.91261
G0 Z1.0
G1 F300.0 Z-1.0
G3 F800.0 X129.6986 Y192.39001 I-577.20578 J11.0851
G3 X129.69861 Y192.39062 I-0.49997 J0.00572
G2 X133.42567 Y192.45223 I1.86435 J-0.01904
G3 X134.4252 Y192.47386 I0.49953 J0.02163
G1 Y192.514
G2 X137.81123 Y194.24106 I3.09752 J-1.8901
G3 X137.84028 Y194.23959 I0.03975 J0.49842
G2 X143.04586 Y190.24708 I-0.11866 J-5.54459
G3 X143.05789 Y190.21099 I0.48002 J0.13993
G2 X143.74564 Y187.71714 I-13.37235 J-5.02954
G3 X143.75295 Y187.68332 I0.49206 J0.08874
G2 X140.12704 Y187.09949 I-1.7872 J-0.45188
G3 X140.12004 Y187.15431 I-0.49872 J-0.03579
G3 X139.03683 Y189.94568 I-7.88048 J-1.45224
G3 X138.99735 Y190.00033 I-0.42413 J-0.26479
G3 X136.8408 Y190.11985 I-1.13377 J-0.94156
G3 X134.98005 Y187.29673 I5.19797 J-5.45082
G3 X134.97683 Y187.28783 I0.46859 J-0.17444
G3 X133.0157 Y176.55048 I32.98099 J-11.57163
G2 X131.14545 Y174.84883 I-1.91276 J0.22368
G2 X129.30765 Y176.75162 I-0.00572 J1.83339
G3 X129.62998 Y187.91261 I-576.88344 J22.24608
G1 F300.0 Z-2.0
G3 F800.0 X129.6986 Y192.39001 I-577.20578 J11.0851
G3 X129.69861 Y192.39062 I-0.49997 J0.00572
G2 X133.42567 Y192.45223 I1.86435 J-0.01904
G3 X134.4252 Y192.47386 I0.49953 J0.02163
G1 Y192.514
G2 X137.81123 Y194.24106 I3.09752 J-1.8901
G3 X137.84028 Y194.23959 I0.03975 J0.49842
G2 X143.04586 Y190.24708 I-0.11866 J-5.54459
G3 X143.05789 Y190.21099 I0.48002 J0.13993
G2 X143.74564 Y187.71714 I-13.37235 J-5.02954
G3 X143.75295 Y187.68332 I0.49206 J0.08874
G2 X140.12704 Y187.09949 I-1.7872 J-0.45188
G3 X140.12004 Y187.15431 I-0.49872 J-0.03579
G3 X139.03683 Y189.94568 I-7.88048 J-1.45224
G3 X138.99735 Y190.00033 I-0.42413 J-0.26479
G3 X136.8408 Y190.11985 I-1.13377 J-0.94156
G3 X134.98005 Y187.29673 I5.19797 J-5.45082
G3 X134.97683 Y187.28783 I0.46859 J-0.17444
G3 X133.0157 Y176.55048 I32.98099 J-11.57163
G2 X131.14545 Y174.84883 I-1.91276 J0.22368
G2 X129.30765 Y176.75162 I-0.00572 J1.83339
G3 X129.62998 Y187.91261 I-576.88344 J22.24608
G1 F300.0 Z-3.0
G3 F800.0 X129.6986 Y192.39001 I-577.20578 J11.0851
G3 X129.69861 Y192.39062 I-0.49997 J0.00572
G2 X133.42567 Y192.45223 I1.86435 J-0.01904
G3 X134.4252 Y192.47386 I0.49953 J0.02163
G1 Y192.514
G2 X137.81123 Y194.24106 I3.09752 J-1.8901
G3 X137.84028 Y194.23959 I0.03975 J0.49842
G2 X143.04586 Y190.24708 I-0.11866 J-5.54459
G3 X143.05789 Y190.21099 I0.48002 J0.13993
G2 X143.74564 Y187.71714 I-13.37235 J-5.02954
G3 X143.75295 Y187.68332 I0.49206 J0.08874
G2 X140.12704 Y187.09949 I-1.7872 J-0.45188
G3 X140.12004 Y187.15431 I-0.49872 J-0.03579
G3 X139.03683 Y189.94568 I-7.88048 J-1.45224
G3 X138.99735 Y190.00033 I-0.42413 J-0.26479
G3 X136.8408 Y190.11985 I-1.13377 J-0.94156
G3 X134.98005 Y187.29673 I5.19797 J-5.45082
G3 X134.97683 Y187.28783 I0.46859 J-0.17444
G3 X133.0157 Y176.55048 I32.98099 J-11.57163
G2 X131.14545 Y174.84883 I-1.91276 J0.22368
G2 X129.30765 Y176.75162 I-0.00572 J1.83339
G3 X129.62998 Y187.91261 I-576.88344 J22.24608
G1 F300.0 Z-4.0
G3 F800.0 X129.6986 Y192.39001 I-577.20578 J11.0851
G3 X129.69861 Y192.39062 I-0.49997 J0.00572
G2 X133.42567 Y192.45223 I1.86435 J-0.01904
G3 X134.4252 Y192.47386 I0.49953 J0.02163
G1 Y192.514
G2 X137.81123 Y194.24106 I3.09752 J-1.8901
G3 X137.84028 Y194.23959 I0.03975 J0.49842
G2 X143.04586 Y190.24708 I-0.11866 J-5.54459
G3 X143.05789 Y190.21099 I0.48002 J0.13993
G2 X143.74564 Y187.71714 I-13.37235 J-5.02954
G3 X143.75295 Y187.68332 I0.49206 J0.08874
G2 X140.12704 Y187.09949 I-1.7872 J-0.45188
G3 X140.12004 Y187.15431 I-0.49872 J-0.03579
G3 X139.03683 Y189.94568 I-7.88048 J-1.45224
G3 X138.99735 Y190.00033 I-0.42413 J-0.26479
G3 X136.8408 Y190.11985 I-1.13377 J-0.94156
G3 X134.98005 Y187.29673 I5.19797 J-5.45082
G3 X134.97683 Y187.28783 I0.46859 J-0.17444
G3 X133.0157 Y176.55048 I32.98099 J-11.57163
G2 X131.14545 Y174.84883 I-1.91276 J0.22368
G2 X129.30765 Y176.75162 I-0.00572 J1.83339
G3 X129.62998 Y187.91261 I-576.88344 J22.24608
G1 F300.0 Z-5.0
G3 F800.0 X129.6986 Y192.39001 I-577.20578 J11.0851
G3 X129.69861 Y192.39062 I-0.49997 J0.00572
G2 X133.42567 Y192.45223 I1.86435 J-0.01904
G3 X134.4252 Y192.47386 I0.49953 J0.02163
G1 Y192.514
G2 X137.81123 Y194.24106 I3.09752 J-1.8901
G3 X137.84028 Y194.23959 I0.03975 J0.49842
G2 X143.04586 Y190.24708 I-0.11866 J-5.54459
G3 X143.05789 Y190.21099 I0.48002 J0.13993
G2 X143.74564 Y187.71714 I-13.37235 J-5.02954
G3 X143.75295 Y187.68332 I0.49206 J0.08874
G2 X140.12704 Y187.09949 I-1.7872 J-0.45188
G3 X140.12004 Y187.15431 I-0.49872 J-0.03579
G3 X139.03683 Y189.94568 I-7.88048 J-1.45224
G3 X138.99735 Y190.00033 I-0.42413 J-0.26479
G3 X136.8408 Y190.11985 I-1.13377 J-0.94156
G3 X134.98005 Y187.29673 I5.19797 J-5.45082
G3 X134.97683 Y187.28783 I0.46859 J-0.17444
G3 X133.0157 Y176.55048 I32.98099 J-11.57163
G2 X131.14545 Y174.84883 I-1.91276 J0.22368
G2 X129.30765 Y176.75162 I-0.00572 J1.83339
G3 X129.62998 Y187.91261 I-576.88344 J22.24608
G1 F300.0 Z-6.0
G3 F800.0 X129.6986 Y192.39001 I-577.20578 J11.0851
G3 X129.69861 Y192.39062 I-0.49997 J0.00572
G2 X133.42567 Y192.45223 I1.86435 J-0.01904
G3 X134.4252 Y192.47386 I0.49953 J0.02163
G1 Y192.514
G2 X137.81123 Y194.24106 I3.09752 J-1.8901
G3 X137.84028 Y194.23959 I0.03975 J0.49842
G2 X143.04586 Y190.24708 I-0.11866 J-5.54459
G3 X143.05789 Y190.21099 I0.48002 J0.13993
G2 X143.74564 Y187.71714 I-13.37235 J-5.02954
G3 X143.75295 Y187.68332 I0.49206 J0.08874
G2 X140.12704 Y187.09949 I-1.7872 J-0.45188
G3 X140.12004 Y187.15431 I-0.49872 J-0.03579
G3 X139.03683 Y189.94568 I-7.88048 J-1.45224
G3 X138.99735 Y190.00033 I-0.42413 J-0.26479
G3 X136.8408 Y190.11985 I-1.13377 J-0.94156
G3 X134.98005 Y187.29673 I5.19797 J-5.45082
G3 X134.97683 Y187.28783 I0.46859 J-0.17444
G3 X133.0157 Y176.55048 I32.98099 J-11.57163
G2 X131.14545 Y174.84883 I-1.91276 J0.22368
G2 X129.30765 Y176.75162 I-0.00572 J1.83339
G3 X129.62998 Y187.91261 I-576.88344 J22.24608
G0 Z3.0
G0 X145.29058 Y185.21265
G0 Z1.0
G1 F300.0 Z-1.0
G2 F800.0 X146.8849 Y186.73948 I1.83049 J-0.31559
G1 X146.91348
G3 X147.41293 Y187.2629 I0.0 J0.5
G2 X148.34223 Y200.72059 I58.30718 J2.73459
G2 X150.28617 Y204.53435 I7.56774 J-1.45509
G3 X150.29337 Y204.5422 I-0.36488 J0.34185
G2 X156.28305 Y205.32053 I3.44756 J-3.09476
G2 X159.94841 Y200.18714 I-5.22944 J-7.60921
G3 X159.95421 Y200.16783 I0.48169 J0.13408
G2 X160.73435 Y196.72361 I-18.89813 J-6.09103
G3 X160.74146 Y196.68329 I0.49554 J0.06665
G2 X158.94324 Y194.61307 I-1.66978 J-0.3657
G3 X158.89004 Y194.61424 I-0.03757 J-0.49859
G2 X157.05773 Y196.11442 I-0.0563 J1.80031
G3 X155.58831 Y200.81432 I-12.33857 J-1.27799
G3 X153.86644 Y202.34938 I-2.44387 J-1.00804
G3 X153.43122 Y202.26939 I-0.13656 J-0.48099
G3 X151.96637 Y199.79781 I2.22659 J-2.98954
G3 X151.1208 Y187.76931 I57.04043 J-10.05375
G3 X151.68783 Y187.29091 I0.49971 J0.01705
G1 X158.87533 Y188.26747
G3 X158.88489 Y188.26886 I-0.06732 J0.49545
G2 X161.00781 Y186.68436 I0.28513 J-1.83239
G3 X161.00797 Y186.68316 I0.49551 J0.06684
G2 X159.44373 Y184.60992 I-1.82401 J-0.25052
G1 X151.65355 Y183.59466
G3 X151.21842 Y183.08293 I0.06462 J-0.49581
G2 X151.41359 Y176.75959 I-3131.24919 J-99.81006
G2 X147.68686 Y176.76295 I-1.86339 J-0.02565
G3 X147.68689 Y176.7657 I-0.49994 J0.00778
G3 X147.51198 Y182.57712 I-72.41729 J0.72877
G3 X147.03609 Y183.04151 I-0.49877 J-0.03509
G2 X145.29058 Y185.21265 I0.08498 J1.85555
G1 F300.0 Z-2.0
G2 F800.0 X146.8849 Y186.73948 I1.83049 J-0.31559
G1 X146.91348
G3 X147.41293 Y187.2629 I0.0 J0.5
G2 X148.34223 Y200.72059 I58.30718 J2.73459
G2 X150.28617 Y204.53435 I7.56774 J-1.45509
G3 X150.29337 Y204.5422 I-0.36488 J0.34185
G2 X156.28305 Y205.32053 I3.44756 J-3.09476
G2 X159.94841 Y200.18714 I-5.22944 J-7.60921
G3 X159.95421 Y200.16783 I0.48169 J0.13408
G2 X160.73435 Y196.72361 I-18.89813 J-6.09103
G3 X160.74146 Y196.68329 I0.49554 J0.06665
G2 X158.94324 Y194.61307 I-1.66978 J-0.3657
G3 X158.89004 Y194.61424 I-0.03757 J-0.49859
G2 X157.05773 Y196.11442 I-0.0563 J1.80031
G3 X155.58831 Y200.81432 I-12.33857 J-1.27799
G3 X153.86644 Y202.34938 I-2.44387 J-1.00804
G3 X153.43122 Y202.26939 I-0.13656 J-0.48099
G3 X151.96637 Y199.79781 I2.22659 J-2.98954
G3 X151.1208 Y187.76931 I57.04043 J-10.05375
G3 X151.68783 Y187.29091 I0.49971 J0.01705
G1 X158.87533 Y188.26747
G3 X158.88489 Y188.26886 I-0.06732 J0.49545
G2 X161.00781 Y186.68436 I0.28513 J-1.83239
G3 X161.00797 Y186.68316 I0.49551 J0.06684
G2 X159.44373 Y184.60992 I-1.82401 J-0.25052
G1 X151.65355 Y183.59466
G3 X151.21842 Y183.08293 I0.06462 J-0.49581
G2 X151.41359 Y176.75959 I-3131.24919 J-99.81006
G2 X147.68686 Y176.76295 I-1.86339 J-0.02565
G3 X147.68689 Y176.7657 I-0.49994 J0.00778
G3 X147.51198 Y182.57712 I-72.41729 J0.72877
G3 X147.03609 Y183.04151 I-0.49877 J-0.03509
G2 X145.29058 Y185.21265 I0.08498 J1.85555
G1 F300.0 Z-3.0
G2 F800.0 X146.8849 Y186.73948 I1.83049 J-0.31559
G1 X146.91348
G3 X147.41293 Y187.2629 I0.0 J0.5
G2 X148.34223 Y200.72059 I58.30718 J2.73459
G2 X150.28617 Y204.53435 I7.56774 J-1.45509
G3 X150.29337 Y204.5422 I-0.36488 J0.34185
G2 X156.28305 Y205.32053 I3.44756 J-3.09476
G2 X159.94841 Y200.18714 I-5.22944 J-7.60921
G3 X159.95421 Y200.16783 I0.48169 J0.13408
G2 X160.73435 Y196.72361 I-18.89813 J-6.09103
G3 X160.74146 Y196.68329 I0.49554 J0.06665
G2 X158.94324 Y194.61307 I-1.66978 J-0.3657
G3 X158.89004 Y194.61424 I-0.03757 J-0.49859
G2 X157.05773 Y196.11442 I-0.0563 J1.80031
G3 X155.58831 Y200.81432 I-12.33857 J-1.27799
G3 X153.86644 Y202.34938 I-2.44387 J-1.00804
G3 X153.43122 Y202.26939 I-0.13656 J-0.48099
G3 X151.96637 Y199.79781 I2.22659 J-2.98954
G3 X151.1208 Y187.76931 I57.04043 J-10.05375
G3 X151.68783 Y187.29091 I0.49971 J0.01705
G1 X158.87533 Y188.26747
G3 X158.88489 Y188.26886 I-0.06732 J0.49545
G2 X161.00781 Y186.68436 I0.28513 J-1.83239
G3 X161.00797 Y186.68316 I0.49551 J0.06684
G2 X159.44373 Y184.60992 I-1.82401 J-0.25052
G1 X151.65355 Y183.59466
G3 X151.21842 Y183.08293 I0.06462 J-0.49581
G2 X151.41359 Y176.75959 I-3131.24919 J-99.81006
G2 X147.68686 Y176.76295 I-1.86339 J-0.02565
G3 X147.68689 Y176.7657 I-0.49994 J0.00778
G3 X147.51198 Y182.57712 I-72.41729 J0.72877
G3 X147.03609 Y183.04151 I-0.49877 J-0.03509
G2 X145.29058 Y185.21265 I0.08498 J1.85555
G1 F300.0 Z-4.0
G2 F800.0 X146.8849 Y186.73948 I1.83049 J-0.31559
G1 X146.91348
G3 X147.41293 Y187.2629 I0.0 J0.5
G2 X148.34223 Y200.72059 I58.30718 J2.73459
G2 X150.28617 Y204.53435 I7.56774 J-1.45509
G3 X150.29337 Y204.5422 I-0.36488 J0.34185
G2 X156.28305 Y205.32053 I3.44756 J-3.09476
G2 X159.94841 Y200.18714 I-5.22944 J-7.60921
G3 X159.95421 Y200.16783 I0.48169 J0.13408
G2 X160.73435 Y196.72361 I-18.89813 J-6.09103
G3 X160.74146 Y196.68329 I0.49554 J0.06665
G2 X158.94324 Y194.61307 I-1.66978 J-0.3657
G3 X158.89004 Y194.61424 I-0.03757 J-0.49859
G2 X157.05773 Y196.11442 I-0.0563 J1.80031
G3 X155.58831 Y200.81432 I-12.33857 J-1.27799
G3 X153.86644 Y202.34938 I-2.44387 J-1.00804
G3 X153.43122 Y202.26939 I-0.13656 J-0.48099
G3 X151.96637 Y199.79781 I2.22659 J-2.98954
G3 X151.1208 Y187.76931 I57.04043 J-10.05375
G3 X151.68783 Y187.29091 I0.49971 J0.01705
G1 X158.87533 Y188.26747
G3 X158.88489 Y188.26886 I-0.06732 J0.49545
G2 X161.00781 Y186.68436 I0.28513 J-1.83239
G3 X161.00797 Y186.68316 I0.49551 J0.06684
G2 X159.44373 Y184.60992 I-1.82401 J-0.25052
G1 X151.65355 Y183.59466
G3 X151.21842 Y183.08293 I0.06462 J-0.49581
G2 X151.41359 Y176.75959 I-3131.24919 J-99.81006
G2 X147.68686 Y176.76295 I-1.86339 J-0.02565
G3 X147.68689 Y176.7657 I-0.49994 J0.00778
G3 X147.51198 Y182.57712 I-72.41729 J0.72877
G3 X147.03609 Y183.04151 I-0.49877 J-0.03509
G2 X145.29058 Y185.21265 I0.08498 J1.85555
G1 F300.0 Z-5.0
G2 F800.0 X146.8849 Y186.73948 I1.83049 J-0.31559
G1 X146.91348
G3 X147.41293 Y187.2629 I0.0 J0.5
G2 X148.34223 Y200.72059 I58.30718 J2.73459
G2 X150.28617 Y204.53435 I7.56774 J-1.45509
G3 X150.29337 Y204.5422 I-0.36488 J0.34185
G2 X156.28305 Y205.32053 I3.44756 J-3.09476
G2 X159.94841 Y200.18714 I-5.22944 J-7.60921
G3 X159.95421 Y200.16783 I0.48169 J0.13408
G2 X160.73435 Y196.72361 I-18.89813 J-6.09103
G3 X160.74146 Y196.68329 I0.49554 J0.06665
G2 X158.94324 Y194.61307 I-1.66978 J-0.3657
G3 X158.89004 Y194.61424 I-0.03757 J-0.49859
G2 X157.05773 Y196.11442 I-0.0563 J1.80031
G3 X155.58831 Y200.81432 I-12.33857 J-1.27799
G3 X153.86644 Y202.34938 I-2.44387 J-1.00804
G3 X153.43122 Y202.26939 I-0.13656 J-0.48099
G3 X151.96637 Y199.79781 I2.22659 J-2.98954
G3 X151.1208 Y187.76931 I57.04043 J-10.05375
G3 X151.68783 Y187.29091 I0.49971 J0.01705
G1 X158.87533 Y188.26747
G3 X158.88489 Y188.26886 I-0.06732 J0.49545
G2 X161.00781 Y186.68436 I0.28513 J-1.83239
G3 X161.00797 Y186.68316 I0.49551 J0.06684
G2 X159.44373 Y184.60992 I-1.82401 J-0.25052
G1 X151.65355 Y183.59466
G3 X151.21842 Y183.08293 I0.06462 J-0.49581
G2 X151.41359 Y176.75959 I-3131.24919 J-99.81006
G2 X147.68686 Y176.76295 I-1.86339 J-0.02565
G3 X147.68689 Y176.7657 I-0.49994 J0.00778
G3 X147.51198 Y182.57712 I-72.41729 J0.72877
G3 X147.03609 Y183.04151 I-0.49877 J-0.03509
G2 X145.29058 Y185.21265 I0.08498 J1.85555
G1 F300.0 Z-6.0
G2 F800.0 X146.8849 Y186.73948 I1.83049 J-0.31559
G1 X146.91348
G3 X147.41293 Y187.2629 I0.0 J0.5
G2 X148.34223 Y200.72059 I58.30718 J2.73459
G2 X150.28617 Y204.53435 I7.56774 J-1.45509
G3 X150.29337 Y204.5422 I-0.36488 J0.34185
G2 X156.28305 Y205.32053 I3.44756 J-3.09476
G2 X159.94841 Y200.18714 I-5.22944 J-7.60921
G3 X159.95421 Y200.16783 I0.48169 J0.13408
G2 X160.73435 Y196.72361 I-18.89813 J-6.09103
G3 X160.74146 Y196.68329 I0.49554 J0.06665
G2 X158.94324 Y194.61307 I-1.66978 J-0.3657
G3 X158.89004 Y194.61424 I-0.03757 J-0.49859
G2 X157.05773 Y196.11442 I-0.0563 J1.80031
G3 X155.58831 Y200.81432 I-12.33857 J-1.27799
G3 X153.86644 Y202.34938 I-2.44387 J-1.00804
G3 X153.43122 Y202.26939 I-0.13656 J-0.48099
G3 X151.96637 Y199.79781 I2.22659 J-2.98954
G3 X151.1208 Y187.76931 I57.04043 J-10.05375
G3 X151.68783 Y187.29091 I0.49971 J0.01705
G1 X158.87533 Y188.26747
G3 X158.88489 Y188.26886 I-0.06732 J0.49545
G2 X161.00781 Y186.68436 I0.28513 J-1.83239
G3 X161.00797 Y186.68316 I0.49551 J0.06684
G2 X159.44373 Y184.60992 I-1.82401 J-0.25052
G1 X151.65355 Y183.59466
G3 X151.21842 Y183.08293 I0.06462 J-0.49581
G2 X151.41359 Y176.75959 I-3131.24919 J-99.81006
G2 X147.68686 Y176.76295 I-1.86339 J-0.02565
G3 X147.68689 Y176.7657 I-0.49994 J0.00778
G3 X147.51198 Y182.57712 I-72.41729 J0.72877
G3 X147.03609 Y183.04151 I-0.49877 J-0.03509
G2 X145.29058 Y185.21265 I0.08498 J1.85555
G0 Z3.0
G0 X163.01006 Y184.39076
G0 Z1.0
G1 F300.0 Z-1.0
G2 F800.0 X164.92853 Y190.28451 I11.67617 J-0.54158
G3 X164.92984 Y190.2865 I-0.4174 J0.27528
G2 X171.34832 Y194.10439 I7.10215 J-4.63566
G3 X171.35865 Y194.10533 I-0.04031 J0.49837
G2 X173.37377 Y191.83633 I0.18946 J-1.86106
G3 X173.36902 Y191.81232 I0.48797 J-0.10904
G2 X173.31632 Y191.72715 I-0.13197 J0.02277
G3 X173.68371 Y190.82928 I0.29596 J-0.403
G2 X173.86191 Y190.78882 I0.03641 J-0.25228
G3 X173.98595 Y190.72866 I0.27813 J0.4155
G2 X177.79957 Y187.32015 I-1.95002 J-6.01948
G2 X175.80474 Y176.9936 I-9.28613 J-3.5621
G3 X175.78927 Y176.97612 I0.36655 J-0.34006
G2 X170.62927 Y174.73107 I-4.85038 J4.09568
G3 X170.61931 Y174.73146 I-0.02439 J-0.4994
G2 X163.4802 Y180.52257 I0.21841 J7.56525
G3 X163.47376 Y180.54664 I-0.48607 J-0.11721
G2 X163.01006 Y184.39076 I11.21247 J3.30254
G1 F300.0 Z-2.0
G2 F800.0 X164.92853 Y190.28451 I11.67617 J-0.54158
G3 X164.92984 Y190.2865 I-0.4174 J0.27528
G2 X171.34832 Y194.10439 I7.10215 J-4.63566
G3 X171.35865 Y194.10533 I-0.04031 J0.49837
G2 X173.37377 Y191.83633 I0.18946 J-1.86106
G3 X173.36902 Y191.81232 I0.48797 J-0.10904
G2 X173.31632 Y191.72715 I-0.13197 J0.02277
G3 X173.68371 Y190.82928 I0.29596 J-0.403
G2 X173.86191 Y190.78882 I0.03641 J-0.25228
G3 X173.98595 Y190.72866 I0.27813 J0.4155
G2 X177.79957 Y187.32015 I-1.95002 J-6.01948
G2 X175.80474 Y176.9936 I-9.28613 J-3.5621
G3 X175.78927 Y176.97612 I0.36655 J-0.34006
G2 X170.62927 Y174.73107 I-4.85038 J4.09568
G3 X170.61931 Y174.73146 I-0.02439 J-0.4994
G2 X163.4802 Y180.52257 I0.21841 J7.56525
G3 X163.47376 Y180.54664 I-0.48607 J-0.11721
G2 X163.01006 Y184.39076 I11.21247 J3.30254
G1 F300.0 Z-3.0
G2 F800.0 X164.92853 Y190.28451 I11.67617 J-0.54158
G3 X164.92984 Y190.2865 I-0.4174 J0.27528
G2 X171.34832 Y194.10439 I7.10215 J-4.63566
G3 X171.35865 Y194.10533 I-0.04031 J0.49837
G2 X173.37377 Y191.83633 I0.18946 J-1.86106
G3 X173.36902 Y191.81232 I0.48797 J-0.10904
G2 X173.31632 Y191.72715 I-0.13197 J0.02277
G3 X173.68371 Y190.82928 I0.29596 J-0.403
G2 X173.86191 Y190.78882 I0.03641 J-0.25228
G3 X173.98595 Y190.72866 I0.27813 J0.4155
G2 X177.79957 Y187.32015 I-1.95002 J-6.01948
G2 X175.80474 Y176.9936 I-9.28613 J-3.5621
G3 X175.78927 Y176.97612 I0.36655 J-0.34006
G2 X170.62927 Y174.73107 I-4.85038 J4.09568
G3 X170.61931 Y174.73146 I-0.02439 J-0.4994
G2 X163.4802 Y180.52257 I0.21841 J7.56525
G3 X163.47376 Y180.54664 I-0.48607 J-0.11721
G2 X163.01006 Y184.39076 I11.21247 J3.30254
G1 F300.0 Z-4.0
G2 F800.0 X164.92853 Y190.28451 I11.67617 J-0.54158
G3 X164.92984 Y190.2865 I-0.4174 J0.27528
G2 X171.34832 Y194.10439 I7.10215 J-4.63566
G3 X171.35865 Y194.10533 I-0.04031 J0.49837
G2 X173.37377 Y191.83633 I0.18946 J-1.86106
G3 X173.36902 Y191.81232 I0.48797 J-0.10904
G2 X173.31632 Y191.72715 I-0.13197 J0.02277
G3 X173.68371 Y190.82928 I0.29596 J-0.403
G2 X173.86191 Y190.78882 I0.03641 J-0.25228
G3 X173.98595 Y190.72866 I0.27813 J0.4155
G2 X177.79957 Y187.32015 I-1.95002 J-6.01948
G2 X175.80474 Y176.9936 I-9.28613 J-3.5621
G3 X175.78927 Y176.97612 I0.36655 J-0.34006
G2 X170.62927 Y174.73107 I-4.85038 J4.09568
G3 X170.61931 Y174.73146 I-0.02439 J-0.4994
G2 X163.4802 Y180.52257 I0.21841 J7.56525
G3 X163.47376 Y180.54664 I-0.48607 J-0.11721
G2 X163.01006 Y184.39076 I11.21247 J3.30254
G1 F300.0 Z-5.0
G2 F800.0 X164.92853 Y190.28451 I11.67617 J-0.54158
G3 X164.92984 Y190.2865 I-0.4174 J0.27528
G2 X171.34832 Y194.10439 I7.10215 J-4.63566
G3 X171.35865 Y194.10533 I-0.04031 J0.49837
G2 X173.37377 Y191.83633 I0.18946 J-1.86106
G3 X173.36902 Y191.81232 I0.48797 J-0.10904
G2 X173.31632 Y191.72715 I-0.13197 J0.02277
G3 X173.68371 Y190.82928 I0.29596 J-0.403
G2 X173.86191 Y190.78882 I0.03641 J-0.25228
G3 X173.98595 Y190.72866 I0.27813 J0.4155
G2 X177.79957 Y187.32015 I-1.95002 J-6.01948
G2 X175.80474 Y176.9936 I-9.28613 J-3.5621
G3 X175.78927 Y176.97612 I0.36655 J-0.34006
G2 X170.62927 Y174.73107 I-4.85038 J4.09568
G3 X170.61931 Y174.73146 I-0.02439 J-0.4994
G2 X163.4802 Y180.52257 I0.21841 J7.56525
G3 X163.47376 Y180.54664 I-0.48607 J-0.11721
G2 X163.01006 Y184.39076 I11.21247 J3.30254
G1 F300.0 Z-6.0
G2 F800.0 X164.92853 Y190.28451 I11.67617 J-0.54158
G3 X164.92984 Y190.2865 I-0.4174 J0.27528
G2 X171.34832 Y194.10439 I7.10215 J-4.63566
G3 X171.35865 Y194.10533 I-0.04031 J0.49837
G2 X173.37377 Y191.83633 I0.18946 J-1.86106
G3 X173.36902 Y191.81232 I0.48797 J-0.10904
G2 X173.31632 Y191.72715 I-0.13197 J0.02277
G3 X173.68371 Y190.82928 I0.29596 J-0.403
G2 X173.86191 Y190.78882 I0.03641 J-0.25228
G3 X173.98595 Y190.72866 I0.27813 J0.4155
G2 X177.79957 Y187.32015 I-1.95002 J-6.01948
G2 X175.80474 Y176.9936 I-9.28613 J-3.5621
G3 X175.78927 Y176.97612 I0.36655 J-0.34006
G2 X170.62927 Y174.73107 I-4.85038 J4.09568
G3 X170.61931 Y174.73146 I-0.02439 J-0.4994
G2 X163.4802 Y180.52257 I0.21841 J7.56525
G3 X163.47376 Y180.54664 I-0.48607 J-0.11721
G2 X163.01006 Y184.39076 I11.21247 J3.30254
G0 Z3.0
G0 X166.70014 Y184.17422
G0 Z1.0
G1 F300.0 Z-1.0
G3 F800.0 X167.86444 Y179.87259 I7.00896 J-0.4113
G3 X167.88025 Y179.85019 I0.41623 J0.27705
G3 X173.31965 Y179.81769 I2.732 J2.0431
G3 X174.45847 Y185.79501 I-4.80052 J4.01176
G3 X174.43903 Y185.84471 I-0.47468 J-0.15709
G3 X172.94243 Y187.16956 I-2.23241 J-1.01407
G3 X172.93007 Y187.17328 I-0.15005 J-0.47695
G2 X171.65174 Y189.38738 I0.50658 J1.76855
G2 X171.86046 Y189.4194 I0.78504 J-4.42116
G3 X171.97096 Y189.44676 I-0.06417 J0.49586
G3 X172.09017 Y189.50574 I-0.22691 J0.60863
G3 X172.2368 Y190.21058 I-0.26643 J0.4231
G3 X172.14227 Y190.31792 I-0.47994 J-0.32735
G3 X171.22868 Y190.62008 I-0.61378 J-0.32358
G3 X171.01905 Y190.43146 I0.21605 J-0.45091
G3 X170.91124 Y190.24034 I2.4176 J-1.48963
G3 X167.03272 Y185.93562 I1.52553 J-5.27412
G3 X166.70014 Y184.17422 I6.67638 J-2.17271
G1 F300.0 Z-2.0
G3 F800.0 X167.86444 Y179.87259 I7.00896 J-0.4113
G3 X167.88025 Y179.85019 I0.41623 J0.27705
G3 X173.31965 Y179.81769 I2.732 J2.0431
G3 X174.45847 Y185.79501 I-4.80052 J4.01176
G3 X174.43903 Y185.84471 I-0.47468 J-0.15709
G3 X172.94243 Y187.16956 I-2.23241 J-1.01407
G3 X172.93007 Y187.17328 I-0.15005 J-0.47695
G2 X171.65174 Y189.38738 I0.50658 J1.76855
G2 X171.86046 Y189.4194 I0.78504 J-4.42116
G3 X171.97096 Y189.44676 I-0.06417 J0.49586
G3 X172.09017 Y189.50574 I-0.22691 J0.60863
G3 X172.2368 Y190.21058 I-0.26643 J0.4231
G3 X172.14227 Y190.31792 I-0.47994 J-0.32735
G3 X171.22868 Y190.62008 I-0.61378 J-0.32358
G3 X171.01905 Y190.43146 I0.21605 J-0.45091
G3 X170.91124 Y190.24034 I2.4176 J-1.48963
G3 X167.03272 Y185.93562 I1.52553 J-5.27412
G3 X166.70014 Y184.17422 I6.67638 J-2.17271
G1 F300.0 Z-3.0
G3 F800.0 X167.86444 Y179.87259 I7.00896 J-0.4113
G3 X167.88025 Y179.85019 I0.41623 J0.27705
G3 X173.31965 Y179.81769 I2.732 J2.0431
G3 X174.45847 Y185.79501 I-4.80052 J4.01176
G3 X174.43903 Y185.84471 I-0.47468 J-0.15709
G3 X172.94243 Y187.16956 I-2.23241 J-1.01407
G3 X172.93007 Y187.17328 I-0.15005 J-0.47695
G2 X171.65174 Y189.38738 I0.50658 J1.76855
G2 X171.86046 Y189.4194 I0.78504 J-4.42116
G3 X171.97096 Y189.44676 I-0.06417 J0.49586
G3 X172.09017 Y189.50574 I-0.22691 J0.60863
G3 X172.2368 Y190.21058 I-0.26643 J0.4231
G3 X172.14227 Y190.31792 I-0.47994 J-0.32735
G3 X171.22868 Y190.62008 I-0.61378 J-0.32358
G3 X171.01905 Y190.43146 I0.21605 J-0.45091
G3 X170.91124 Y190.24034 I2.4176 J-1.48963
G3 X167.03272 Y185.93562 I1.52553 J-5.27412
G3 X166.70014 Y184.17422 I6.67638 J-2.17271
G1 F300.0 Z-4.0
G3 F800.0 X167.86444 Y179.87259 I7.00896 J-0.4113
G3 X167.88025 Y179.85019 I0.41623 J0.27705
G3 X173.31965 Y179.81769 I2.732 J2.0431
G3 X174.45847 Y185.79501 I-4.80052 J4.01176
G3 X174.43903 Y185.84471 I-0.47468 J-0.15709
G3 X172.94243 Y187.16956 I-2.23241 J-1.01407
G3 X172.93007 Y187.17328 I-0.15005 J-0.47695
G2 X171.65174 Y189.38738 I0.50658 J1.76855
G2 X171.86046 Y189.4194 I0.78504 J-4.42116
G3 X171.97096 Y189.44676 I-0.06417 J0.49586
G3 X172.09017 Y189.50574 I-0.22691 J0.60863
G3 X172.2368 Y190.21058 I-0.26643 J0.4231
G3 X172.14227 Y190.31792 I-0.47994 J-0.32735
G3 X171.22868 Y190.62008 I-0.61378 J-0.32358
G3 X171.01905 Y190.43146 I0.21605 J-0.45091
G3 X170.91124 Y190.24034 I2.4176 J-1.48963
G3 X167.03272 Y185.93562 I1.52553 J-5.27412
G3 X166.70014 Y184.17422 I6.67638 J-2.17271
G1 F300.0 Z-5.0
G3 F800.0 X167.86444 Y179.87259 I7.00896 J-0.4113
G3 X167.88025 Y179.85019 I0.41623 J0.27705
G3 X173.31965 Y179.81769 I2.732 J2.0431
G3 X174.45847 Y185.79501 I-4.80052 J4.01176
G3 X174.43903 Y185.84471 I-0.47468 J-0.15709
G3 X172.94243 Y187.16956 I-2.23241 J-1.01407
G3 X172.93007 Y187.17328 I-0.15005 J-0.47695
G2 X171.65174 Y189.38738 I0.50658 J1.76855
G2 X171.86046 Y189.4194 I0.78504 J-4.42116
G3 X171.97096 Y189.44676 I-0.06417 J0.49586
G3 X172.09017 Y189.50574 I-0.22691 J0.60863
G3 X172.2368 Y190.21058 I-0.26643 J0.4231
G3 X172.14227 Y190.31792 I-0.47994 J-0.32735
G3 X171.22868 Y190.62008 I-0.61378 J-0.32358
G3 X171.01905 Y190.43146 I0.21605 J-0.45091
G3 X170.91124 Y190.24034 I2.4176 J-1.48963
G3 X167.03272 Y185.93562 I1.52553 J-5.27412
G3 X166.70014 Y184.17422 I6.67638 J-2.17271
G1 F300.0 Z-6.0
G3 F800.0 X167.86444 Y179.87259 I7.00896 J-0.4113
G3 X167.88025 Y179.85019 I0.41623 J0.27705
G3 X173.31965 Y179.81769 I2.732 J2.0431
G3 X174.45847 Y185.79501 I-4.80052 J4.01176
G3 X174.43903 Y185.84471 I-0.47468 J-0.15709
