( Made using CamBam - http://www.cambam.co.uk )
( Tafel-Hof-links-oben 12/31/2017 9:35:01 AM )
( T1 : 1.0 )
( T2 : 2.0 )
( T3 : 3.0 )
G21 G90 G64 G40
G0 Z3.0
( T3 : 3.0 )
T3 M6
( Titel )
G17
M3 S1000
G0 X-106.77359 Y231.25978
G0 Z1.0
G1 F300.0 Z-2.0
G3 F800.0 X-106.69294 Y231.38553 I-56.51974 J36.33165
G3 X-106.3685 Y232.04439 I-2.7799 J1.77824
G3 X-106.38605 Y231.09457 I554.24461 J-10.71224
G3 X-106.77359 Y231.25978 I-1.48524 J-2.94687
G1 F300.0 X-106.97317 Y230.69394
G3 F800.0 X-107.76016 Y230.84541 I-0.89812 J-2.54625
G3 X-107.19838 Y231.70885 I-55.53317 J36.74602
G3 X-106.92521 Y232.26961 I-2.27447 J1.45492
G3 X-105.65918 Y236.68354 I-37.2318 J13.06757
G3 X-105.80593 Y229.88675 I553.53529 J-15.35139
G3 X-106.97317 Y230.69394 I-2.06536 J-1.73905
G1 F300.0 X-107.37233 Y229.56228
G3 F800.0 X-109.28986 Y228.63519 I-0.49895 J-1.41458
G2 X-112.01222 Y227.31381 I-2.45605 J1.59501
G3 X-112.10799 Y227.31947 I-0.13641 J-1.49378
G2 X-116.63567 Y230.81714 I0.13142 J4.84947
G3 X-116.64839 Y230.85869 I-1.44059 J-0.41798
G2 X-117.69676 Y238.68781 I21.20444 J6.82418
G3 X-117.69524 Y238.75372 I-1.49847 J0.06767
G2 X-117.5091 Y243.89964 I73.60367 J-0.08607
G2 X-116.65221 Y244.71023 I0.89758 J-0.09064
G2 X-115.79261 Y243.80277 I-0.03065 J-0.88989
G3 X-115.47243 Y232.94385 I34.36544 J-4.42089
G3 X-115.46431 Y232.90389 I1.47388 J0.27871
G3 X-114.47855 Y230.27288 I9.53945 J2.07394
G3 X-114.13499 Y229.85227 I1.3143 J0.72293
G3 X-109.36345 Y230.61313 I2.05956 J2.42618
G3 X-108.20926 Y232.35548 I-53.92989 J36.97829
G3 X-108.05749 Y232.66701 I-1.26359 J0.80829
G3 X-105.92462 Y243.92577 I-36.09952 J12.67016
G2 X-104.21437 Y243.81616 I0.85247 J-0.09619
G3 X-104.62507 Y228.53489 I552.09048 J-22.48402
G3 X-104.60987 Y228.30148 I1.49987 J-0.01955
G2 X-106.37139 Y228.16503 I-0.87627 J-0.12622
G3 X-107.37233 Y229.56228 I-1.4999 J-0.01734
G1 F300.0 X-106.77359 Y231.25978
G1 Z-4.0
G3 F800.0 X-106.69294 Y231.38553 I-56.51974 J36.33165
G3 X-106.3685 Y232.04439 I-2.7799 J1.77824
G3 X-106.38605 Y231.09457 I554.24461 J-10.71224
G3 X-106.77359 Y231.25978 I-1.48524 J-2.94687
G1 F300.0 X-106.97317 Y230.69394
G3 F800.0 X-107.76016 Y230.84541 I-0.89812 J-2.54625
G3 X-107.19838 Y231.70885 I-55.53317 J36.74602
G3 X-106.92521 Y232.26961 I-2.27447 J1.45492
G3 X-105.65918 Y236.68354 I-37.2318 J13.06757
G3 X-105.80593 Y229.88675 I553.53529 J-15.35139
G3 X-106.97317 Y230.69394 I-2.06536 J-1.73905
G1 F300.0 X-107.37233 Y229.56228
G3 F800.0 X-109.28986 Y228.63519 I-0.49895 J-1.41458
G2 X-112.01222 Y227.31381 I-2.45605 J1.59501
G3 X-112.10799 Y227.31947 I-0.13641 J-1.49378
G2 X-116.63567 Y230.81714 I0.13142 J4.84947
G3 X-116.64839 Y230.85869 I-1.44059 J-0.41798
G2 X-117.69676 Y238.68781 I21.20444 J6.82418
G3 X-117.69524 Y238.75372 I-1.49847 J0.06767
G2 X-117.5091 Y243.89964 I73.60367 J-0.08607
G2 X-116.65221 Y244.71023 I0.89758 J-0.09064
G2 X-115.79261 Y243.80277 I-0.03065 J-0.88989
G3 X-115.47243 Y232.94385 I34.36544 J-4.42089
G3 X-115.46431 Y232.90389 I1.47388 J0.27871
G3 X-114.47855 Y230.27288 I9.53945 J2.07394
G3 X-114.13499 Y229.85227 I1.3143 J0.72293
G3 X-109.36345 Y230.61313 I2.05956 J2.42618
G3 X-108.20926 Y232.35548 I-53.92989 J36.97829
G3 X-108.05749 Y232.66701 I-1.26359 J0.80829
G3 X-105.92462 Y243.92577 I-36.09952 J12.67016
G2 X-104.21437 Y243.81616 I0.85247 J-0.09619
G3 X-104.62507 Y228.53489 I552.09048 J-22.48402
G3 X-104.60987 Y228.30148 I1.49987 J-0.01955
G2 X-106.37139 Y228.16503 I-0.87627 J-0.12622
G3 X-107.37233 Y229.56228 I-1.4999 J-0.01734
G1 F300.0 X-106.77359 Y231.25978
G1 Z-6.0
G3 F800.0 X-106.69294 Y231.38553 I-56.51974 J36.33165
G3 X-106.3685 Y232.04439 I-2.7799 J1.77824
G3 X-106.38605 Y231.09457 I554.24461 J-10.71224
G3 X-106.77359 Y231.25978 I-1.48524 J-2.94687
G1 F300.0 X-106.97317 Y230.69394
G3 F800.0 X-107.76016 Y230.84541 I-0.89812 J-2.54625
G3 X-107.19838 Y231.70885 I-55.53317 J36.74602
G3 X-106.92521 Y232.26961 I-2.27447 J1.45492
G3 X-105.65918 Y236.68354 I-37.2318 J13.06757
G3 X-105.80593 Y229.88675 I553.53529 J-15.35139
G3 X-106.97317 Y230.69394 I-2.06536 J-1.73905
G1 F300.0 X-107.37233 Y229.56228
G3 F800.0 X-109.28986 Y228.63519 I-0.49895 J-1.41458
G2 X-112.01222 Y227.31381 I-2.45605 J1.59501
G3 X-112.10799 Y227.31947 I-0.13641 J-1.49378
G2 X-116.63567 Y230.81714 I0.13142 J4.84947
G3 X-116.64839 Y230.85869 I-1.44059 J-0.41798
G2 X-117.69676 Y238.68781 I21.20444 J6.82418
G3 X-117.69524 Y238.75372 I-1.49847 J0.06767
G2 X-117.5091 Y243.89964 I73.60367 J-0.08607
G2 X-116.65221 Y244.71023 I0.89758 J-0.09064
G2 X-115.79261 Y243.80277 I-0.03065 J-0.88989
G3 X-115.47243 Y232.94385 I34.36544 J-4.42089
G3 X-115.46431 Y232.90389 I1.47388 J0.27871
G3 X-114.47855 Y230.27288 I9.53945 J2.07394
G3 X-114.13499 Y229.85227 I1.3143 J0.72293
G3 X-109.36345 Y230.61313 I2.05956 J2.42618
G3 X-108.20926 Y232.35548 I-53.92989 J36.97829
G3 X-108.05749 Y232.66701 I-1.26359 J0.80829
G3 X-105.92462 Y243.92577 I-36.09952 J12.67016
G2 X-104.21437 Y243.81616 I0.85247 J-0.09619
G3 X-104.62507 Y228.53489 I552.09048 J-22.48402
G3 X-104.60987 Y228.30148 I1.49987 J-0.01955
G2 X-106.37139 Y228.16503 I-0.87627 J-0.12622
G3 X-107.37233 Y229.56228 I-1.4999 J-0.01734
G0 Z3.0
G0 X-96.93327 Y240.0053
G0 Z1.0
G1 F300.0 Z-2.0
G3 F800.0 X-96.91566 Y241.02772 I-580.01714 J10.50264
G3 X-96.54158 Y240.87006 I1.46625 J2.95637
G3 X-96.93327 Y240.0053 I9.20574 J-4.69079
G1 F300.0 X-97.53317 Y240.01616
G3 F800.0 X-97.49739 Y242.2246 I-579.41724 J10.49178
G3 X-95.61822 Y241.28937 I2.04798 J1.75948
G3 X-96.45633 Y239.57448 I8.28237 J-5.1101
G3 X-96.47371 Y239.52641 I2.53036 J-0.94196
G3 X-97.63213 Y235.51657 I35.05692 J-12.29998
G3 X-97.53317 Y240.01616 I-579.31828 J14.99137
G1 F300.0 X-98.73298 Y240.03789
G3 F800.0 X-98.67607 Y243.88879 I-578.21743 J10.47005
G3 X-98.67605 Y243.89064 I-1.4999 J0.01717
G2 X-96.94801 Y243.9192 I0.8644 J-0.00883
G3 X-93.98162 Y243.67494 I1.4986 J0.06488
G2 X-91.64289 Y244.75446 I2.12972 J-1.54081
G3 X-91.55573 Y244.75005 I0.11926 J1.49525
G2 X-87.28879 Y241.47745 I-0.09727 J-4.54482
G3 X-87.2527 Y241.36918 I1.44006 J0.41979
G2 X-86.6131 Y239.04989 I-12.43636 J-4.6775
G3 X-86.59115 Y238.94842 I1.47619 J0.26623
G2 X-88.25013 Y238.6813 I-0.81771 J-0.20675
G3 X-88.27113 Y238.84578 I-1.49615 J-0.10737
G3 X-89.48952 Y241.98548 I-8.86392 J-1.63347
G3 X-89.60795 Y242.14944 I-1.27239 J-0.79437
G3 X-93.22568 Y242.35211 I-1.90308 J-1.58044
G3 X-95.33173 Y239.15583 I5.88984 J-6.17284
G3 X-95.34138 Y239.12913 I1.40576 J-0.52331
G3 X-97.35727 Y228.13959 I33.9246 J-11.9027
G2 X-98.24163 Y227.35908 I-0.9144 J0.1448
G2 X-99.06769 Y228.22373 I0.00675 J0.83337
G3 X-98.73298 Y240.03789 I-577.88272 J22.28421
G1 F300.0 X-96.93327 Y240.0053
G1 Z-4.0
G3 F800.0 X-96.91566 Y241.02772 I-580.01714 J10.50264
G3 X-96.54158 Y240.87006 I1.46625 J2.95637
G3 X-96.93327 Y240.0053 I9.20574 J-4.69079
G1 F300.0 X-97.53317 Y240.01616
G3 F800.0 X-97.49739 Y242.2246 I-579.41724 J10.49178
G3 X-95.61822 Y241.28937 I2.04798 J1.75948
G3 X-96.45633 Y239.57448 I8.28237 J-5.1101
G3 X-96.47371 Y239.52641 I2.53036 J-0.94196
G3 X-97.63213 Y235.51657 I35.05692 J-12.29998
G3 X-97.53317 Y240.01616 I-579.31828 J14.99137
G1 F300.0 X-98.73298 Y240.03789
G3 F800.0 X-98.67607 Y243.88879 I-578.21743 J10.47005
G3 X-98.67605 Y243.89064 I-1.4999 J0.01717
G2 X-96.94801 Y243.9192 I0.8644 J-0.00883
G3 X-93.98162 Y243.67494 I1.4986 J0.06488
G2 X-91.64289 Y244.75446 I2.12972 J-1.54081
G3 X-91.55573 Y244.75005 I0.11926 J1.49525
G2 X-87.28879 Y241.47745 I-0.09727 J-4.54482
G3 X-87.2527 Y241.36918 I1.44006 J0.41979
G2 X-86.6131 Y239.04989 I-12.43636 J-4.6775
G3 X-86.59115 Y238.94842 I1.47619 J0.26623
G2 X-88.25013 Y238.6813 I-0.81771 J-0.20675
G3 X-88.27113 Y238.84578 I-1.49615 J-0.10737
G3 X-89.48952 Y241.98548 I-8.86392 J-1.63347
G3 X-89.60795 Y242.14944 I-1.27239 J-0.79437
G3 X-93.22568 Y242.35211 I-1.90308 J-1.58044
G3 X-95.33173 Y239.15583 I5.88984 J-6.17284
G3 X-95.34138 Y239.12913 I1.40576 J-0.52331
G3 X-97.35727 Y228.13959 I33.9246 J-11.9027
G2 X-98.24163 Y227.35908 I-0.9144 J0.1448
G2 X-99.06769 Y228.22373 I0.00675 J0.83337
G3 X-98.73298 Y240.03789 I-577.88272 J22.28421
G1 F300.0 X-96.93327 Y240.0053
G1 Z-6.0
G3 F800.0 X-96.91566 Y241.02772 I-580.01714 J10.50264
G3 X-96.54158 Y240.87006 I1.46625 J2.95637
G3 X-96.93327 Y240.0053 I9.20574 J-4.69079
G1 F300.0 X-97.53317 Y240.01616
G3 F800.0 X-97.49739 Y242.2246 I-579.41724 J10.49178
G3 X-95.61822 Y241.28937 I2.04798 J1.75948
G3 X-96.45633 Y239.57448 I8.28237 J-5.1101
G3 X-96.47371 Y239.52641 I2.53036 J-0.94196
G3 X-97.63213 Y235.51657 I35.05692 J-12.29998
G3 X-97.53317 Y240.01616 I-579.31828 J14.99137
G1 F300.0 X-98.73298 Y240.03789
G3 F800.0 X-98.67607 Y243.88879 I-578.21743 J10.47005
G3 X-98.67605 Y243.89064 I-1.4999 J0.01717
G2 X-96.94801 Y243.9192 I0.8644 J-0.00883
G3 X-93.98162 Y243.67494 I1.4986 J0.06488
G2 X-91.64289 Y244.75446 I2.12972 J-1.54081
G3 X-91.55573 Y244.75005 I0.11926 J1.49525
G2 X-87.28879 Y241.47745 I-0.09727 J-4.54482
G3 X-87.2527 Y241.36918 I1.44006 J0.41979
G2 X-86.6131 Y239.04989 I-12.43636 J-4.6775
G3 X-86.59115 Y238.94842 I1.47619 J0.26623
G2 X-88.25013 Y238.6813 I-0.81771 J-0.20675
G3 X-88.27113 Y238.84578 I-1.49615 J-0.10737
G3 X-89.48952 Y241.98548 I-8.86392 J-1.63347
G3 X-89.60795 Y242.14944 I-1.27239 J-0.79437
G3 X-93.22568 Y242.35211 I-1.90308 J-1.58044
G3 X-95.33173 Y239.15583 I5.88984 J-6.17284
G3 X-95.34138 Y239.12913 I1.40576 J-0.52331
G3 X-97.35727 Y228.13959 I33.9246 J-11.9027
G2 X-98.24163 Y227.35908 I-0.9144 J0.1448
G2 X-99.06769 Y228.22373 I0.00675 J0.83337
G3 X-98.73298 Y240.03789 I-577.88272 J22.28421
G0 Z3.0
G0 X-123.88313 Y230.31811
G0 Z1.0
G1 F300.0 Z-2.0
G2 F800.0 X-123.96778 Y230.02843 I-0.23163 J-0.08952
G2 X-131.27381 Y227.99809 I-7.20454 J11.7647
G3 X-131.42235 Y227.99393 I-0.01545 J-2.09994
G2 X-136.78853 Y230.01166 I-0.44249 J6.96778
G2 X-137.87708 Y232.18373 I3.6562 J3.19113
G2 X-135.31729 Y241.09393 I10.71313 J1.74504
G3 X-135.27925 Y241.13845 I-1.57744 J1.38625
G2 X-128.17501 Y247.81606 I30.50412 J-25.33513
G3 X-128.05843 Y247.90776 I-1.23924 J1.69537
G1 X-126.46845 Y249.25202
G3 X-126.7655 Y253.40432 I-0.42628 J2.05628
G3 X-137.60874 Y252.70864 I-2.66773 J-43.27107
G2 X-137.64535 Y253.22423 I0.00826 J0.25968
G3 X-137.62324 Y253.22823 I-0.36266 J2.06845
G2 X-128.43448 Y253.95513 I8.03256 J-43.09871
G3 X-128.40681 Y253.95458 I0.05538 J2.09927
G2 X-124.90477 Y253.24308 I-0.12666 J-9.59782
G2 X-124.46498 Y250.39453 I-0.70415 J-1.56694
G3 X-124.4677 Y250.3921 I1.39838 J-1.56669
G2 X-131.25989 Y244.58364 I-129.9551 J145.08892
G3 X-136.92475 Y237.35594 I12.40171 J-15.55395
G3 X-136.96288 Y237.268 I1.9072 J-0.87896
G3 X-137.3849 Y232.40798 I7.65608 J-3.11316
G3 X-134.1902 Y228.9627 I4.50252 J0.97123
G3 X-134.09559 Y228.93707 I0.59626 J2.01357
G3 X-124.51062 Y230.26315 I3.12612 J12.70769
G3 X-124.26623 Y230.42539 I-1.03645 J1.82641
G2 X-123.88313 Y230.31811 I0.15146 J-0.19679
G1 F300.0 X-123.32347 Y230.53441
G2 F800.0 X-123.63916 Y229.52613 I-0.79129 J-0.30581
G2 X-131.27822 Y227.39811 I-7.53317 J12.26701
G3 X-131.38432 Y227.39513 I-0.01103 J-1.49996
G2 X-137.22651 Y229.60108 I-0.48051 J7.56657
G2 X-138.46689 Y232.07267 I4.09418 J3.60172
G2 X-135.76798 Y241.49 I11.30293 J1.8561
G3 X-135.74081 Y241.5218 I-1.12674 J0.99018
G2 X-128.52908 Y248.30045 I30.96568 J-25.71848
G3 X-128.44581 Y248.36595 I-0.88517 J1.21098
G1 X-126.72893 Y249.81749
G3 X-126.80242 Y252.80546 I-0.16579 J1.49081
G3 X-137.54175 Y252.11051 I-2.63081 J-42.67221
G2 X-137.74896 Y253.81522 I-0.05873 J0.85781
G3 X-137.73317 Y253.81807 I-0.25904 J1.47746
G2 X-128.41866 Y254.55492 I8.1425 J-43.68856
G3 X-128.39889 Y254.55453 I0.03956 J1.49948
G2 X-124.66889 Y253.79485 I-0.13458 J-10.19777
G2 X-124.06545 Y249.9469 I-0.94003 J-2.11871
G3 X-124.06738 Y249.94517 I0.99885 J-1.11907
G2 X-130.88318 Y244.11662 I-130.35542 J145.53585
G3 X-136.37984 Y237.10481 I12.025 J-15.08694
G3 X-136.40707 Y237.042 I1.36229 J-0.62783
G3 X-136.79843 Y232.53465 I7.10027 J-2.88716
G3 X-134.01984 Y229.53801 I3.91604 J0.84457
G3 X-133.95226 Y229.5197 I0.4259 J1.43827
G3 X-124.80674 Y230.78498 I2.98279 J12.12507
G3 X-124.63218 Y230.90086 I-0.74032 J1.30458
G2 X-123.32347 Y230.53441 I0.51742 J-0.67227
G1 F300.0 X-123.88313 Y230.31811
G1 Z-4.0
G2 F800.0 X-123.96778 Y230.02843 I-0.23163 J-0.08952
G2 X-131.27381 Y227.99809 I-7.20454 J11.7647
G3 X-131.42235 Y227.99393 I-0.01545 J-2.09994
G2 X-136.78853 Y230.01166 I-0.44249 J6.96778
G2 X-137.87708 Y232.18373 I3.6562 J3.19113
G2 X-135.31729 Y241.09393 I10.71313 J1.74504
G3 X-135.27925 Y241.13845 I-1.57744 J1.38625
G2 X-128.17501 Y247.81606 I30.50412 J-25.33513
G3 X-128.05843 Y247.90776 I-1.23924 J1.69537
G1 X-126.46845 Y249.25202
G3 X-126.7655 Y253.40432 I-0.42628 J2.05628
G3 X-137.60874 Y252.70864 I-2.66773 J-43.27107
G2 X-137.64535 Y253.22423 I0.00826 J0.25968
G3 X-137.62324 Y253.22823 I-0.36266 J2.06845
G2 X-128.43448 Y253.95513 I8.03256 J-43.09871
G3 X-128.40681 Y253.95458 I0.05538 J2.09927
G2 X-124.90477 Y253.24308 I-0.12666 J-9.59782
G2 X-124.46498 Y250.39453 I-0.70415 J-1.56694
G3 X-124.4677 Y250.3921 I1.39838 J-1.56669
G2 X-131.25989 Y244.58364 I-129.9551 J145.08892
G3 X-136.92475 Y237.35594 I12.40171 J-15.55395
G3 X-136.96288 Y237.268 I1.9072 J-0.87896
G3 X-137.3849 Y232.40798 I7.65608 J-3.11316
G3 X-134.1902 Y228.9627 I4.50252 J0.97123
G3 X-134.09559 Y228.93707 I0.59626 J2.01357
G3 X-124.51062 Y230.26315 I3.12612 J12.70769
G3 X-124.26623 Y230.42539 I-1.03645 J1.82641
G2 X-123.88313 Y230.31811 I0.15146 J-0.19679
G1 F300.0 X-123.32347 Y230.53441
G2 F800.0 X-123.63916 Y229.52613 I-0.79129 J-0.30581
G2 X-131.27822 Y227.39811 I-7.53317 J12.26701
G3 X-131.38432 Y227.39513 I-0.01103 J-1.49996
G2 X-137.22651 Y229.60108 I-0.48051 J7.56657
G2 X-138.46689 Y232.07267 I4.09418 J3.60172
G2 X-135.76798 Y241.49 I11.30293 J1.8561
G3 X-135.74081 Y241.5218 I-1.12674 J0.99018
G2 X-128.52908 Y248.30045 I30.96568 J-25.71848
G3 X-128.44581 Y248.36595 I-0.88517 J1.21098
G1 X-126.72893 Y249.81749
G3 X-126.80242 Y252.80546 I-0.16579 J1.49081
G3 X-137.54175 Y252.11051 I-2.63081 J-42.67221
G2 X-137.74896 Y253.81522 I-0.05873 J0.85781
G3 X-137.73317 Y253.81807 I-0.25904 J1.47746
G2 X-128.41866 Y254.55492 I8.1425 J-43.68856
G3 X-128.39889 Y254.55453 I0.03956 J1.49948
G2 X-124.66889 Y253.79485 I-0.13458 J-10.19777
G2 X-124.06545 Y249.9469 I-0.94003 J-2.11871
G3 X-124.06738 Y249.94517 I0.99885 J-1.11907
G2 X-130.88318 Y244.11662 I-130.35542 J145.53585
G3 X-136.37984 Y237.10481 I12.025 J-15.08694
G3 X-136.40707 Y237.042 I1.36229 J-0.62783
G3 X-136.79843 Y232.53465 I7.10027 J-2.88716
G3 X-134.01984 Y229.53801 I3.91604 J0.84457
G3 X-133.95226 Y229.5197 I0.4259 J1.43827
G3 X-124.80674 Y230.78498 I2.98279 J12.12507
G3 X-124.63218 Y230.90086 I-0.74032 J1.30458
G2 X-123.32347 Y230.53441 I0.51742 J-0.67227
G1 F300.0 X-123.88313 Y230.31811
G1 Z-6.0
G2 F800.0 X-123.96778 Y230.02843 I-0.23163 J-0.08952
G2 X-131.27381 Y227.99809 I-7.20454 J11.7647
G3 X-131.42235 Y227.99393 I-0.01545 J-2.09994
G2 X-136.78853 Y230.01166 I-0.44249 J6.96778
G2 X-137.87708 Y232.18373 I3.6562 J3.19113
G2 X-135.31729 Y241.09393 I10.71313 J1.74504
G3 X-135.27925 Y241.13845 I-1.57744 J1.38625
G2 X-128.17501 Y247.81606 I30.50412 J-25.33513
G3 X-128.05843 Y247.90776 I-1.23924 J1.69537
G1 X-126.46845 Y249.25202
G3 X-126.7655 Y253.40432 I-0.42628 J2.05628
G3 X-137.60874 Y252.70864 I-2.66773 J-43.27107
G2 X-137.64535 Y253.22423 I0.00826 J0.25968
G3 X-137.62324 Y253.22823 I-0.36266 J2.06845
G2 X-128.43448 Y253.95513 I8.03256 J-43.09871
G3 X-128.40681 Y253.95458 I0.05538 J2.09927
G2 X-124.90477 Y253.24308 I-0.12666 J-9.59782
G2 X-124.46498 Y250.39453 I-0.70415 J-1.56694
G3 X-124.4677 Y250.3921 I1.39838 J-1.56669
G2 X-131.25989 Y244.58364 I-129.9551 J145.08892
G3 X-136.92475 Y237.35594 I12.40171 J-15.55395
G3 X-136.96288 Y237.268 I1.9072 J-0.87896
G3 X-137.3849 Y232.40798 I7.65608 J-3.11316
G3 X-134.1902 Y228.9627 I4.50252 J0.97123
G3 X-134.09559 Y228.93707 I0.59626 J2.01357
G3 X-124.51062 Y230.26315 I3.12612 J12.70769
G3 X-124.26623 Y230.42539 I-1.03645 J1.82641
G2 X-123.88313 Y230.31811 I0.15146 J-0.19679
G1 F300.0 X-123.32347 Y230.53441
G2 F800.0 X-123.63916 Y229.52613 I-0.79129 J-0.30581
G2 X-131.27822 Y227.39811 I-7.53317 J12.26701
G3 X-131.38432 Y227.39513 I-0.01103 J-1.49996
G2 X-137.22651 Y229.60108 I-0.48051 J7.56657
G2 X-138.46689 Y232.07267 I4.09418 J3.60172
G2 X-135.76798 Y241.49 I11.30293 J1.8561
G3 X-135.74081 Y241.5218 I-1.12674 J0.99018
G2 X-128.52908 Y248.30045 I30.96568 J-25.71848
G3 X-128.44581 Y248.36595 I-0.88517 J1.21098
G1 X-126.72893 Y249.81749
G3 X-126.80242 Y252.80546 I-0.16579 J1.49081
G3 X-137.54175 Y252.11051 I-2.63081 J-42.67221
G2 X-137.74896 Y253.81522 I-0.05873 J0.85781
G3 X-137.73317 Y253.81807 I-0.25904 J1.47746
G2 X-128.41866 Y254.55492 I8.1425 J-43.68856
G3 X-128.39889 Y254.55453 I0.03956 J1.49948
G2 X-124.66889 Y253.79485 I-0.13458 J-10.19777
G2 X-124.06545 Y249.9469 I-0.94003 J-2.11871
G3 X-124.06738 Y249.94517 I0.99885 J-1.11907
G2 X-130.88318 Y244.11662 I-130.35542 J145.53585
G3 X-136.37984 Y237.10481 I12.025 J-15.08694
G3 X-136.40707 Y237.042 I1.36229 J-0.62783
G3 X-136.79843 Y232.53465 I7.10027 J-2.88716
G3 X-134.01984 Y229.53801 I3.91604 J0.84457
G3 X-133.95226 Y229.5197 I0.4259 J1.43827
G3 X-124.80674 Y230.78498 I2.98279 J12.12507
G3 X-124.63218 Y230.90086 I-0.74032 J1.30458
G2 X-123.32347 Y230.53441 I0.51742 J-0.67227
G0 Z3.0
G0 X-128.47055 Y192.58169
G0 Z1.0
G1 F300.0 Z-2.0
G2 F800.0 X-127.72632 Y192.43577 I-0.86696 J-6.39262
G3 X-127.69169 Y192.42715 I0.52448 J2.03345
G2 X-124.9002 Y188.22434 I-0.86416 J-3.60243
G3 X-124.90595 Y188.18732 I2.07224 J-0.34033
G2 X-125.4566 Y188.21844 I-0.27395 J0.03999
G3 X-128.16347 Y192.00747 I-3.13766 J0.61987
G3 X-133.00077 Y190.98485 I-1.32996 J-5.66118
G3 X-133.2296 Y190.78418 I1.26656 J-1.67506
G3 X-133.76811 Y190.01489 I2.00423 J-1.97609
G3 X-132.97422 Y187.32765 I1.89717 J-0.90041
G3 X-132.58227 Y186.99995 I1.53297 J1.43527
G3 X-127.78954 Y184.03272 I76.32955 J117.93468
G2 X-126.3353 Y182.62272 I-3.10532 J-4.65768
G3 X-125.79433 Y182.09683 I1.71046 J1.21833
G2 X-126.21073 Y177.12261 I-1.59004 J-2.37144
G3 X-126.21458 Y177.12086 I0.86323 J-1.91438
G2 X-129.19434 Y176.44851 I-3.11729 J6.87621
G3 X-129.32698 Y176.44189 I0.03825 J-2.09965
G2 X-134.34984 Y178.95668 I-0.44039 J5.39394
G2 X-134.85664 Y181.24896 I3.88125 J2.06026
G2 X-134.33362 Y181.17725 I0.25983 J-0.04808
G3 X-134.31936 Y180.68179 I2.09159 J-0.18777
G3 X-131.15172 Y177.21149 I4.15976 J0.61614
G3 X-126.02647 Y177.85021 I1.91723 J5.49817
G3 X-125.43613 Y178.43789 I-1.15696 J1.75255
G1 X-125.39707 Y178.49648
G3 X-125.08739 Y180.08425 I-1.74731 J1.16487
G3 X-127.17362 Y183.00073 I-4.32461 J-0.88909
G3 X-131.90505 Y185.87236 I-25.76256 J-37.11388
G2 X-134.22434 Y188.08935 I3.60587 J6.0939
G2 X-134.04693 Y190.59799 I2.095 J1.11244
G2 X-128.47055 Y192.58169 I4.70942 J-4.40892
G1 F300.0 X-128.38992 Y193.17625
G2 F800.0 X-127.57646 Y193.01675 I-0.94759 J-6.98718
G3 X-127.55173 Y193.0106 I0.37463 J1.45246
G2 X-124.30814 Y188.12711 I-1.00412 J-4.18587
G3 X-124.31224 Y188.10066 I1.48017 J-0.24309
G2 X-126.05451 Y188.28979 I-0.86765 J0.12664
G3 X-128.27206 Y191.41656 I-2.53975 J0.54852
G3 X-132.6389 Y190.50627 I-1.22137 J-5.07027
G3 X-132.80235 Y190.36293 I0.90468 J-1.19647
G3 X-133.22606 Y189.75763 I1.57698 J-1.55483
G3 X-132.58954 Y187.79782 I1.35512 J-0.64315
G3 X-132.25627 Y187.50365 I1.14829 J0.9651
G3 X-127.47049 Y184.5411 I76.00355 J117.43097
G2 X-125.8466 Y182.97081 I-3.42437 J-5.16607
G3 X-125.46019 Y182.59517 I1.22176 J0.87023
G2 X-125.96409 Y176.57564 I-1.92418 J-2.86978
G3 X-125.96684 Y176.5744 I0.61659 J-1.36741
G2 X-129.18341 Y175.84861 I-3.36503 J7.42267
G3 X-129.27815 Y175.84388 I0.02732 J-1.49975
G2 X-134.86944 Y178.65594 I-0.48922 J5.99195
G2 X-135.45419 Y181.30958 I4.40084 J2.36101
G2 X-133.73602 Y181.1236 I0.85738 J-0.1087
G3 X-133.72584 Y180.7697 I1.49399 J-0.13412
G3 X-130.98205 Y177.78785 I3.56623 J0.52823
G3 X-126.35703 Y178.35094 I1.74756 J4.92182
G3 X-125.93536 Y178.77071 I-0.8264 J1.25182
G1 X-125.8963 Y178.8293
G3 X-125.6751 Y179.96342 I-1.24808 J0.83205
G3 X-127.49663 Y182.49455 I-3.7369 J-0.76827
G3 X-132.19734 Y185.34816 I-25.43955 J-36.6077
G2 X-134.74083 Y187.78295 I3.89816 J6.6181
G2 X-134.50927 Y190.98192 I2.61149 J1.41883
G2 X-128.38992 Y193.17625 I5.17177 J-4.79285
G1 F300.0 X-128.47055 Y192.58169
G1 Z-4.0
G2 F800.0 X-127.72632 Y192.43577 I-0.86696 J-6.39262
G3 X-127.69169 Y192.42715 I0.52448 J2.03345
G2 X-124.9002 Y188.22434 I-0.86416 J-3.60243
G3 X-124.90595 Y188.18732 I2.07224 J-0.34033
G2 X-125.4566 Y188.21844 I-0.27395 J0.03999
G3 X-128.16347 Y192.00747 I-3.13766 J0.61987
G3 X-133.00077 Y190.98485 I-1.32996 J-5.66118
G3 X-133.2296 Y190.78418 I1.26656 J-1.67506
G3 X-133.76811 Y190.01489 I2.00423 J-1.97609
G3 X-132.97422 Y187.32765 I1.89717 J-0.90041
G3 X-132.58227 Y186.99995 I1.53297 J1.43527
G3 X-127.78954 Y184.03272 I76.32955 J117.93468
G2 X-126.3353 Y182.62272 I-3.10532 J-4.65768
G3 X-125.79433 Y182.09683 I1.71046 J1.21833
G2 X-126.21073 Y177.12261 I-1.59004 J-2.37144
G3 X-126.21458 Y177.12086 I0.86323 J-1.91438
G2 X-129.19434 Y176.44851 I-3.11729 J6.87621
G3 X-129.32698 Y176.44189 I0.03825 J-2.09965
G2 X-134.34984 Y178.95668 I-0.44039 J5.39394
G2 X-134.85664 Y181.24896 I3.88125 J2.06026
G2 X-134.33362 Y181.17725 I0.25983 J-0.04808
G3 X-134.31936 Y180.68179 I2.09159 J-0.18777
G3 X-131.15172 Y177.21149 I4.15976 J0.61614
G3 X-126.02647 Y177.85021 I1.91723 J5.49817
G3 X-125.43613 Y178.43789 I-1.15696 J1.75255
G1 X-125.39707 Y178.49648
G3 X-125.08739 Y180.08425 I-1.74731 J1.16487
G3 X-127.17362 Y183.00073 I-4.32461 J-0.88909
G3 X-131.90505 Y185.87236 I-25.76256 J-37.11388
G2 X-134.22434 Y188.08935 I3.60587 J6.0939
G2 X-134.04693 Y190.59799 I2.095 J1.11244
G2 X-128.47055 Y192.58169 I4.70942 J-4.40892
G1 F300.0 X-128.38992 Y193.17625
G2 F800.0 X-127.57646 Y193.01675 I-0.94759 J-6.98718
G3 X-127.55173 Y193.0106 I0.37463 J1.45246
G2 X-124.30814 Y188.12711 I-1.00412 J-4.18587
G3 X-124.31224 Y188.10066 I1.48017 J-0.24309
G2 X-126.05451 Y188.28979 I-0.86765 J0.12664
G3 X-128.27206 Y191.41656 I-2.53975 J0.54852
G3 X-132.6389 Y190.50627 I-1.22137 J-5.07027
G3 X-132.80235 Y190.36293 I0.90468 J-1.19647
G3 X-133.22606 Y189.75763 I1.57698 J-1.55483
G3 X-132.58954 Y187.79782 I1.35512 J-0.64315
G3 X-132.25627 Y187.50365 I1.14829 J0.9651
G3 X-127.47049 Y184.5411 I76.00355 J117.43097
G2 X-125.8466 Y182.97081 I-3.42437 J-5.16607
G3 X-125.46019 Y182.59517 I1.22176 J0.87023
G2 X-125.96409 Y176.57564 I-1.92418 J-2.86978
G3 X-125.96684 Y176.5744 I0.61659 J-1.36741
G2 X-129.18341 Y175.84861 I-3.36503 J7.42267
G3 X-129.27815 Y175.84388 I0.02732 J-1.49975
G2 X-134.86944 Y178.65594 I-0.48922 J5.99195
G2 X-135.45419 Y181.30958 I4.40084 J2.36101
G2 X-133.73602 Y181.1236 I0.85738 J-0.1087
G3 X-133.72584 Y180.7697 I1.49399 J-0.13412
G3 X-130.98205 Y177.78785 I3.56623 J0.52823
G3 X-126.35703 Y178.35094 I1.74756 J4.92182
G3 X-125.93536 Y178.77071 I-0.8264 J1.25182
G1 X-125.8963 Y178.8293
G3 X-125.6751 Y179.96342 I-1.24808 J0.83205
G3 X-127.49663 Y182.49455 I-3.7369 J-0.76827
G3 X-132.19734 Y185.34816 I-25.43955 J-36.6077
G2 X-134.74083 Y187.78295 I3.89816 J6.6181
G2 X-134.50927 Y190.98192 I2.61149 J1.41883
G2 X-128.38992 Y193.17625 I5.17177 J-4.79285
G1 F300.0 X-128.47055 Y192.58169
G1 Z-6.0
G2 F800.0 X-127.72632 Y192.43577 I-0.86696 J-6.39262
G3 X-127.69169 Y192.42715 I0.52448 J2.03345
G2 X-124.9002 Y188.22434 I-0.86416 J-3.60243
G3 X-124.90595 Y188.18732 I2.07224 J-0.34033
G2 X-125.4566 Y188.21844 I-0.27395 J0.03999
G3 X-128.16347 Y192.00747 I-3.13766 J0.61987
G3 X-133.00077 Y190.98485 I-1.32996 J-5.66118
G3 X-133.2296 Y190.78418 I1.26656 J-1.67506
G3 X-133.76811 Y190.01489 I2.00423 J-1.97609
G3 X-132.97422 Y187.32765 I1.89717 J-0.90041
G3 X-132.58227 Y186.99995 I1.53297 J1.43527
G3 X-127.78954 Y184.03272 I76.32955 J117.93468
G2 X-126.3353 Y182.62272 I-3.10532 J-4.65768
G3 X-125.79433 Y182.09683 I1.71046 J1.21833
G2 X-126.21073 Y177.12261 I-1.59004 J-2.37144
G3 X-126.21458 Y177.12086 I0.86323 J-1.91438
G2 X-129.19434 Y176.44851 I-3.11729 J6.87621
G3 X-129.32698 Y176.44189 I0.03825 J-2.09965
G2 X-134.34984 Y178.95668 I-0.44039 J5.39394
G2 X-134.85664 Y181.24896 I3.88125 J2.06026
G2 X-134.33362 Y181.17725 I0.25983 J-0.04808
G3 X-134.31936 Y180.68179 I2.09159 J-0.18777
G3 X-131.15172 Y177.21149 I4.15976 J0.61614
G3 X-126.02647 Y177.85021 I1.91723 J5.49817
G3 X-125.43613 Y178.43789 I-1.15696 J1.75255
G1 X-125.39707 Y178.49648
G3 X-125.08739 Y180.08425 I-1.74731 J1.16487
G3 X-127.17362 Y183.00073 I-4.32461 J-0.88909
G3 X-131.90505 Y185.87236 I-25.76256 J-37.11388
G2 X-134.22434 Y188.08935 I3.60587 J6.0939
G2 X-134.04693 Y190.59799 I2.095 J1.11244
G2 X-128.47055 Y192.58169 I4.70942 J-4.40892
G1 F300.0 X-128.38992 Y193.17625
G2 F800.0 X-127.57646 Y193.01675 I-0.94759 J-6.98718
G3 X-127.55173 Y193.0106 I0.37463 J1.45246
G2 X-124.30814 Y188.12711 I-1.00412 J-4.18587
G3 X-124.31224 Y188.10066 I1.48017 J-0.24309
G2 X-126.05451 Y188.28979 I-0.86765 J0.12664
G3 X-128.27206 Y191.41656 I-2.53975 J0.54852
G3 X-132.6389 Y190.50627 I-1.22137 J-5.07027
G3 X-132.80235 Y190.36293 I0.90468 J-1.19647
G3 X-133.22606 Y189.75763 I1.57698 J-1.55483
G3 X-132.58954 Y187.79782 I1.35512 J-0.64315
G3 X-132.25627 Y187.50365 I1.14829 J0.9651
G3 X-127.47049 Y184.5411 I76.00355 J117.43097
G2 X-125.8466 Y182.97081 I-3.42437 J-5.16607
G3 X-125.46019 Y182.59517 I1.22176 J0.87023
G2 X-125.96409 Y176.57564 I-1.92418 J-2.86978
G3 X-125.96684 Y176.5744 I0.61659 J-1.36741
G2 X-129.18341 Y175.84861 I-3.36503 J7.42267
G3 X-129.27815 Y175.84388 I0.02732 J-1.49975
G2 X-134.86944 Y178.65594 I-0.48922 J5.99195
G2 X-135.45419 Y181.30958 I4.40084 J2.36101
G2 X-133.73602 Y181.1236 I0.85738 J-0.1087
G3 X-133.72584 Y180.7697 I1.49399 J-0.13412
G3 X-130.98205 Y177.78785 I3.56623 J0.52823
G3 X-126.35703 Y178.35094 I1.74756 J4.92182
G3 X-125.93536 Y178.77071 I-0.8264 J1.25182
G1 X-125.8963 Y178.8293
G3 X-125.6751 Y179.96342 I-1.24808 J0.83205
G3 X-127.49663 Y182.49455 I-3.7369 J-0.76827
G3 X-132.19734 Y185.34816 I-25.43955 J-36.6077
G2 X-134.74083 Y187.78295 I3.89816 J6.6181
G2 X-134.50927 Y190.98192 I2.61149 J1.41883
G2 X-128.38992 Y193.17625 I5.17177 J-4.79285
G0 Z3.0
G0 X-142.79927 Y188.88755
G0 Z1.0
G1 F300.0 Z-2.0
G3 F800.0 X-146.6123 Y191.40548 I-3.4076 J-1.01422
G3 X-146.68272 Y191.3957 I0.17105 J-1.49022
G3 X-152.08887 Y185.81188 I1.04772 J-6.42336
G3 X-150.97499 Y184.16565 I1.48747 J-0.1935
G3 X-144.5874 Y185.32812 I1.93219 J7.51355
G3 X-142.73448 Y188.47873 I-1.63998 J3.08467
G3 X-142.79455 Y188.87158 I-1.49973 J-0.02831
G3 X-142.79927 Y188.88755 I-3.41232 J-0.99824
G0 Z3.0
G0 X-151.69034 Y183.15034
G0 Z1.0
G1 F300.0 Z-2.0
G3 F800.0 X-152.61081 Y182.1287 I1.47956 J-2.25852
G2 X-152.74553 Y183.56132 I6.38502 J1.32311
G3 X-152.75693 Y183.85854 I-2.69962 J0.04534
G2 X-152.76988 Y184.01378 I7.61986 J0.71394
G3 X-151.69034 Y183.15034 I2.16848 J1.6046
G1 F300.0 X-151.03276 Y182.14655
G3 F800.0 X-151.4184 Y180.00208 I0.82198 J-1.25473
G3 X-144.42208 Y177.74427 I5.0673 J3.73343
G3 X-142.13668 Y179.80378 I-1.12655 J3.54791
G3 X-142.12022 Y179.84304 I-1.37488 J0.59976
G2 X-140.54175 Y179.20063 I0.79038 J-0.3184
G2 X-143.61216 Y176.31301 I-4.75891 J1.98398
G3 X-143.70612 Y176.27687 I0.49123 J-1.41728
G2 X-146.32219 Y175.73175 I-2.68565 J6.3386
G2 X-153.94536 Y183.58148 I0.09641 J7.72007
G3 X-153.95169 Y183.7466 I-1.49979 J0.02519
G2 X-149.30867 Y192.38128 I8.81463 J0.82588
G3 X-149.27419 Y192.40028 I-0.70679 J1.32304
G2 X-142.98788 Y192.197 I2.97708 J-5.23727
G3 X-142.98397 Y192.19444 I0.82397 J1.25342
G2 X-141.44009 Y186.57237 I-2.40506 J-3.68348
G3 X-141.44864 Y186.55466 I1.3465 J-0.66101
G2 X-145.70143 Y182.84958 I-6.37852 J3.02816
G3 X-145.74395 Y182.83545 I0.45159 J-1.43041
G2 X-150.02544 Y182.38033 I-3.11362 J8.92464
G3 X-151.03276 Y182.14655 I-0.18533 J-1.48851
G1 F300.0 X-151.69034 Y183.15034
G1 Z-4.0
G3 F800.0 X-152.61081 Y182.1287 I1.47956 J-2.25852
G2 X-152.74553 Y183.56132 I6.38502 J1.32311
G3 X-152.75693 Y183.85854 I-2.69962 J0.04534
G2 X-152.76988 Y184.01378 I7.61986 J0.71394
G3 X-151.69034 Y183.15034 I2.16848 J1.6046
G1 F300.0 X-151.03276 Y182.14655
G3 F800.0 X-151.4184 Y180.00208 I0.82198 J-1.25473
G3 X-144.42208 Y177.74427 I5.0673 J3.73343
G3 X-142.13668 Y179.80378 I-1.12655 J3.54791
G3 X-142.12022 Y179.84304 I-1.37488 J0.59976
G2 X-140.54175 Y179.20063 I0.79038 J-0.3184
G2 X-143.61216 Y176.31301 I-4.75891 J1.98398
G3 X-143.70612 Y176.27687 I0.49123 J-1.41728
G2 X-146.32219 Y175.73175 I-2.68565 J6.3386
G2 X-153.94536 Y183.58148 I0.09641 J7.72007
G3 X-153.95169 Y183.7466 I-1.49979 J0.02519
G2 X-149.30867 Y192.38128 I8.81463 J0.82588
G3 X-149.27419 Y192.40028 I-0.70679 J1.32304
G2 X-142.98788 Y192.197 I2.97708 J-5.23727
G3 X-142.98397 Y192.19444 I0.82397 J1.25342
G2 X-141.44009 Y186.57237 I-2.40506 J-3.68348
G3 X-141.44864 Y186.55466 I1.3465 J-0.66101
G2 X-145.70143 Y182.84958 I-6.37852 J3.02816
G3 X-145.74395 Y182.83545 I0.45159 J-1.43041
G2 X-150.02544 Y182.38033 I-3.11362 J8.92464
G3 X-151.03276 Y182.14655 I-0.18533 J-1.48851
G1 F300.0 X-150.62813 Y184.08489
G3 F800.0 X-144.5874 Y185.32812 I1.58532 J7.59431
G3 X-142.73448 Y188.47873 I-1.63998 J3.08467
G3 X-142.79455 Y188.87158 I-1.49973 J-0.02831
G3 X-146.6123 Y191.40548 I-3.41232 J-0.99824
G3 X-146.68272 Y191.3957 I0.17105 J-1.49022
G3 X-152.08887 Y185.81188 I1.04772 J-6.42336
G3 X-150.97499 Y184.16565 I1.48747 J-0.1935
G3 X-150.62813 Y184.08489 I1.93219 J7.51355
G1 F300.0 Z-6.0
G3 F800.0 X-144.5874 Y185.32812 I1.58532 J7.59431
G3 X-142.73448 Y188.47873 I-1.63998 J3.08467
G3 X-142.79455 Y188.87158 I-1.49973 J-0.02831
G3 X-146.6123 Y191.40548 I-3.41232 J-0.99824
G3 X-146.68272 Y191.3957 I0.17105 J-1.49022
G3 X-152.08887 Y185.81188 I1.04772 J-6.42336
G3 X-150.97499 Y184.16565 I1.48747 J-0.1935
G3 X-150.62813 Y184.08489 I1.93219 J7.51355
G1 F300.0 X-151.69034 Y183.15034
G3 F800.0 X-152.61081 Y182.1287 I1.47956 J-2.25852
G2 X-152.74553 Y183.56132 I6.38502 J1.32311
G3 X-152.75693 Y183.85854 I-2.69962 J0.04534
G2 X-152.76988 Y184.01378 I7.61986 J0.71394
G3 X-151.69034 Y183.15034 I2.16848 J1.6046
G1 F300.0 X-151.03276 Y182.14655
G3 F800.0 X-151.4184 Y180.00208 I0.82198 J-1.25473
G3 X-144.42208 Y177.74427 I5.0673 J3.73343
G3 X-142.13668 Y179.80378 I-1.12655 J3.54791
G3 X-142.12022 Y179.84304 I-1.37488 J0.59976
G2 X-140.54175 Y179.20063 I0.79038 J-0.3184
G2 X-143.61216 Y176.31301 I-4.75891 J1.98398
G3 X-143.70612 Y176.27687 I0.49123 J-1.41728
G2 X-146.32219 Y175.73175 I-2.68565 J6.3386
G2 X-153.94536 Y183.58148 I0.09641 J7.72007
G3 X-153.95169 Y183.7466 I-1.49979 J0.02519
G2 X-149.30867 Y192.38128 I8.81463 J0.82588
G3 X-149.27419 Y192.40028 I-0.70679 J1.32304
G2 X-142.98788 Y192.197 I2.97708 J-5.23727
G3 X-142.98397 Y192.19444 I0.82397 J1.25342
G2 X-141.44009 Y186.57237 I-2.40506 J-3.68348
G3 X-141.44864 Y186.55466 I1.3465 J-0.66101
G2 X-145.70143 Y182.84958 I-6.37852 J3.02816
G3 X-145.74395 Y182.83545 I0.45159 J-1.43041
G2 X-150.02544 Y182.38033 I-3.11362 J8.92464
G3 X-151.03276 Y182.14655 I-0.18533 J-1.48851
G0 Z3.0
G0 X-159.18175 Y182.30982
G0 Z1.0
G1 F300.0 Z-2.0
G2 F800.0 X-159.30131 Y176.71142 I-2119.84433 J42.47127
G2 X-159.57785 Y176.44921 I-0.29424 J0.03338
G2 X-159.83011 Y176.72114 I0.01366 J0.26565
G3 X-159.82983 Y176.73505 I-2.09941 J0.04959
G3 X-159.38057 Y204.21823 I-21330.59194 J362.43297
G3 X-159.38031 Y204.25493 I-2.09974 J0.03297
G2 X-158.85502 Y204.32416 I0.26715 J0.00047
G2 X-159.18175 Y182.30982 I-2120.17105 J20.45693
G1 F300.0 X-158.58187 Y182.2978
G2 F800.0 X-158.70191 Y176.67804 I-2120.44421 J42.48329
G2 X-159.57471 Y175.84892 I-0.89363 J0.06676
G2 X-160.42995 Y176.73531 I0.01053 J0.86594
G3 X-160.42974 Y176.74525 I-1.49958 J0.03542
G3 X-159.98049 Y204.22765 I-21329.99202 J362.42278
G3 X-159.98031 Y204.25386 I-1.49982 J0.02355
G2 X-158.25449 Y204.37631 I0.86715 J0.00154
G2 X-158.58187 Y182.2978 I-2120.77158 J20.40478
G1 F300.0 X-159.18175 Y182.30982
G1 Z-4.0
G2 F800.0 X-159.30131 Y176.71142 I-2119.84433 J42.47127
G2 X-159.57785 Y176.44921 I-0.29424 J0.03338
G2 X-159.83011 Y176.72114 I0.01366 J0.26565
G3 X-159.82983 Y176.73505 I-2.09941 J0.04959
G3 X-159.38057 Y204.21823 I-21330.59194 J362.43297
G3 X-159.38031 Y204.25493 I-2.09974 J0.03297
G2 X-158.85502 Y204.32416 I0.26715 J0.00047
G2 X-159.18175 Y182.30982 I-2120.17105 J20.45693
G1 F300.0 X-158.58187 Y182.2978
G2 F800.0 X-158.70191 Y176.67804 I-2120.44421 J42.48329
G2 X-159.57471 Y175.84892 I-0.89363 J0.06676
G2 X-160.42995 Y176.73531 I0.01053 J0.86594
G3 X-160.42974 Y176.74525 I-1.49958 J0.03542
G3 X-159.98049 Y204.22765 I-21329.99202 J362.42278
G3 X-159.98031 Y204.25386 I-1.49982 J0.02355
G2 X-158.25449 Y204.37631 I0.86715 J0.00154
G2 X-158.58187 Y182.2978 I-2120.77158 J20.40478
G1 F300.0 X-159.18175 Y182.30982
G1 Z-6.0
G2 F800.0 X-159.30131 Y176.71142 I-2119.84433 J42.47127
G2 X-159.57785 Y176.44921 I-0.29424 J0.03338
G2 X-159.83011 Y176.72114 I0.01366 J0.26565
G3 X-159.82983 Y176.73505 I-2.09941 J0.04959
G3 X-159.38057 Y204.21823 I-21330.59194 J362.43297
G3 X-159.38031 Y204.25493 I-2.09974 J0.03297
G2 X-158.85502 Y204.32416 I0.26715 J0.00047
G2 X-159.18175 Y182.30982 I-2120.17105 J20.45693
G1 F300.0 X-158.58187 Y182.2978
G2 F800.0 X-158.70191 Y176.67804 I-2120.44421 J42.48329
G2 X-159.57471 Y175.84892 I-0.89363 J0.06676
G2 X-160.42995 Y176.73531 I0.01053 J0.86594
G3 X-160.42974 Y176.74525 I-1.49958 J0.03542
G3 X-159.98049 Y204.22765 I-21329.99202 J362.42278
G3 X-159.98031 Y204.25386 I-1.49982 J0.02355
G2 X-158.25449 Y204.37631 I0.86715 J0.00154
G2 X-158.58187 Y182.2978 I-2120.77158 J20.40478
G0 Z3.0
G0 X-165.52687 Y182.43653
G0 Z1.0
G1 F300.0 Z-2.0
G2 F800.0 X-165.64896 Y176.71142 I-2119.84686 J42.34456
G2 X-165.9255 Y176.44921 I-0.29424 J0.03338
G2 X-166.17777 Y176.72114 I0.01366 J0.26565
G3 X-166.17749 Y176.73505 I-2.09941 J0.04959
G3 X-165.72822 Y204.21823 I-21330.59194 J362.43297
G3 X-165.72797 Y204.25493 I-2.09974 J0.03297
G2 X-165.20268 Y204.32416 I0.26715 J0.00047
G2 X-165.52687 Y182.43653 I-2120.17105 J20.45693
G1 F300.0 X-164.92699 Y182.42455
G2 F800.0 X-165.04957 Y176.67804 I-2120.44674 J42.35654
G2 X-165.92237 Y175.84892 I-0.89363 J0.06676
G2 X-166.7776 Y176.73531 I0.01053 J0.86594
G3 X-166.7774 Y176.74525 I-1.49958 J0.03542
G3 X-166.32815 Y204.22765 I-21329.99202 J362.42278
G3 X-166.32797 Y204.25386 I-1.49982 J0.02355
G2 X-164.60215 Y204.37631 I0.86715 J0.00154
G2 X-164.92699 Y182.42455 I-2120.77158 J20.40478
G1 F300.0 X-165.52687 Y182.43653
G1 Z-4.0
G2 F800.0 X-165.64896 Y176.71142 I-2119.84686 J42.34456
G2 X-165.9255 Y176.44921 I-0.29424 J0.03338
G2 X-166.17777 Y176.72114 I0.01366 J0.26565
G3 X-166.17749 Y176.73505 I-2.09941 J0.04959
G3 X-165.72822 Y204.21823 I-21330.59194 J362.43297
G3 X-165.72797 Y204.25493 I-2.09974 J0.03297
G2 X-165.20268 Y204.32416 I0.26715 J0.00047
G2 X-165.52687 Y182.43653 I-2120.17105 J20.45693
G1 F300.0 X-164.92699 Y182.42455
G2 F800.0 X-165.04957 Y176.67804 I-2120.44674 J42.35654
G2 X-165.92237 Y175.84892 I-0.89363 J0.06676
G2 X-166.7776 Y176.73531 I0.01053 J0.86594
G3 X-166.7774 Y176.74525 I-1.49958 J0.03542
G3 X-166.32815 Y204.22765 I-21329.99202 J362.42278
G3 X-166.32797 Y204.25386 I-1.49982 J0.02355
G2 X-164.60215 Y204.37631 I0.86715 J0.00154
G2 X-164.92699 Y182.42455 I-2120.77158 J20.40478
G1 F300.0 X-165.52687 Y182.43653
G1 Z-6.0
G2 F800.0 X-165.64896 Y176.71142 I-2119.84686 J42.34456
G2 X-165.9255 Y176.44921 I-0.29424 J0.03338
G2 X-166.17777 Y176.72114 I0.01366 J0.26565
G3 X-166.17749 Y176.73505 I-2.09941 J0.04959
G3 X-165.72822 Y204.21823 I-21330.59194 J362.43297
G3 X-165.72797 Y204.25493 I-2.09974 J0.03297
G2 X-165.20268 Y204.32416 I0.26715 J0.00047
G2 X-165.52687 Y182.43653 I-2120.17105 J20.45693
G1 F300.0 X-164.92699 Y182.42455
G2 F800.0 X-165.04957 Y176.67804 I-2120.44674 J42.35654
G2 X-165.92237 Y175.84892 I-0.89363 J0.06676
G2 X-166.7776 Y176.73531 I0.01053 J0.86594
G3 X-166.7774 Y176.74525 I-1.49958 J0.03542
G3 X-166.32815 Y204.22765 I-21329.99202 J362.42278
G3 X-166.32797 Y204.25386 I-1.49982 J0.02355
G2 X-164.60215 Y204.37631 I0.86715 J0.00154
G2 X-164.92699 Y182.42455 I-2120.77158 J20.40478
G0 Z3.0
G0 X-172.74988 Y182.11732
G0 Z1.0
G1 F300.0 Z-2.0
G2 F800.0 X-172.71458 Y181.03673 I-81.93801 J-3.21799
G3 X-173.44867 Y181.61229 I-2.00792 J-1.80506
G3 X-172.75466 Y182.23672 I-1.43007 J2.28734
G2 X-172.74988 Y182.11732 I-81.93324 J-3.33739
G0 Z3.0
G0 X-185.17664 Y181.5619
G0 Z1.0
G1 F300.0 Z-2.0
G3 F800.0 X-185.76917 Y181.02909 I1.4893 J-2.25211
G2 X-185.76326 Y181.92622 I81.13673 J-0.08615
G3 X-185.17664 Y181.5619 I1.70483 J2.0906
G1 F300.0 X-184.51473 Y180.56096
G3 F800.0 X-185.18613 Y179.24952 I0.82739 J-1.25117
G2 X-185.14824 Y176.97633 I-48.28637 J-1.94168
G3 X-185.1481 Y176.94269 I1.49996 J-0.01029
G2 X-186.87502 I-0.86346 J-0.01344
G3 X-186.87653 Y177.0372 I-1.49982 J0.02335
G2 X-186.05919 Y193.15071 I82.24409 J3.90574
G3 X-186.05689 Y193.16664 I-1.48342 J0.2224
G2 X-184.18739 Y199.38739 I20.99068 J-2.91696
G2 X-181.16252 Y202.60162 I7.02145 J-3.57734
G2 X-176.24118 Y201.73675 I1.89589 J-3.64618
G2 X-174.06667 Y197.88098 I-7.45975 J-6.74807
G3 X-174.06472 Y197.87454 I1.43666 J0.4313
G2 X-171.8984 Y187.16593 I-54.2084 J-16.53961
G2 X-171.51496 Y176.73168 I-82.78949 J-8.2666
G3 X-171.51503 Y176.72877 I1.49949 J-0.03908
G2 X-173.22256 Y176.74205 I-0.85366 J0.02059
G3 X-173.22348 Y179.28588 I-35.52337 J1.25915
G3 X-174.88002 Y180.72337 I-1.49902 J-0.05421
G2 X-183.50384 Y180.79853 I-3.9835 J37.72257
G3 X-184.51473 Y180.56096 I-0.1835 J-1.48873
G1 F300.0 X-184.25478 Y182.52973
G3 F800.0 X-184.24142 Y182.52803 I0.19635 J1.48709
G3 X-174.73383 Y182.40665 I5.30566 J43.16861
G3 X-173.38195 Y183.99755 I-0.14492 J1.49298
G3 X-174.9131 Y195.39174 I-84.10369 J-5.50192
G3 X-174.92633 Y195.45037 I-1.46955 J-0.3007
G3 X-177.33012 Y200.39027 I-12.73514 J-3.14221
G3 X-177.42027 Y200.49517 I-1.18144 J-0.92423
G3 X-181.62639 Y200.13504 I-1.9602 J-1.84855
G3 X-184.21283 Y193.56389 I12.05133 J-8.53806
G3 X-185.1188 Y185.07778 I60.36973 J-10.7364
G3 X-184.25478 Y182.52973 I1.06036 J-1.06096
G1 F300.0 Z-4.0
G3 F800.0 X-184.24142 Y182.52803 I0.19635 J1.48709
G3 X-174.73383 Y182.40665 I5.30566 J43.16861
G3 X-173.38195 Y183.99755 I-0.14492 J1.49298
G3 X-174.9131 Y195.39174 I-84.10369 J-5.50192
G3 X-174.92633 Y195.45037 I-1.46955 J-0.3007
G3 X-177.33012 Y200.39027 I-12.73514 J-3.14221
G3 X-177.42027 Y200.49517 I-1.18144 J-0.92423
G3 X-181.62639 Y200.13504 I-1.9602 J-1.84855
G3 X-184.21283 Y193.56389 I12.05133 J-8.53806
G3 X-185.1188 Y185.07778 I60.36973 J-10.7364
G3 X-184.25478 Y182.52973 I1.06036 J-1.06096
G1 F300.0 X-185.17664 Y181.5619
G3 F800.0 X-185.76917 Y181.02909 I1.4893 J-2.25211
G2 X-185.76326 Y181.92622 I81.13673 J-0.08615
G3 X-185.17664 Y181.5619 I1.70483 J2.0906
G0 Z3.0
G0 X-173.44867 Y181.61229
G0 Z-1.0
G1 F300.0 Z-4.0
G3 F800.0 X-172.75466 Y182.23672 I-1.43007 J2.28734
G2 X-172.71458 Y181.03673 I-81.93324 J-3.33739
G3 X-173.44867 Y181.61229 I-2.00792 J-1.80506
G1 F300.0 X-174.01482 Y180.55424
G3 F800.0 X-174.88002 Y180.72337 I-0.70768 J-1.32257
G2 X-183.50384 Y180.79853 I-3.9835 J37.72257
G3 X-185.18613 Y179.24952 I-0.1835 J-1.48873
G2 X-185.14824 Y176.97633 I-48.28637 J-1.94168
G3 X-185.1481 Y176.94269 I1.49996 J-0.01029
G2 X-186.87502 I-0.86346 J-0.01344
G3 X-186.87653 Y177.0372 I-1.49982 J0.02335
G2 X-186.05919 Y193.15071 I82.24409 J3.90574
G3 X-186.05689 Y193.16664 I-1.48342 J0.2224
G2 X-184.18739 Y199.38739 I20.99068 J-2.91696
G2 X-181.16252 Y202.60162 I7.02145 J-3.57734
G2 X-176.24118 Y201.73675 I1.89589 J-3.64618
G2 X-174.06667 Y197.88098 I-7.45975 J-6.74807
G3 X-174.06472 Y197.87454 I1.43666 J0.4313
G2 X-171.8984 Y187.16593 I-54.2084 J-16.53961
G2 X-171.51496 Y176.73168 I-82.78949 J-8.2666
G3 X-171.51503 Y176.72877 I1.49949 J-0.03908
G2 X-173.22256 Y176.74205 I-0.85366 J0.02059
G3 X-173.22348 Y179.28588 I-35.52337 J1.25915
G3 X-174.01482 Y180.55424 I-1.49902 J-0.05421
G1 F300.0 X-173.44867 Y181.61229
G1 Z-6.0
G3 F800.0 X-172.75466 Y182.23672 I-1.43007 J2.28734
G2 X-172.71458 Y181.03673 I-81.93324 J-3.33739
G3 X-173.44867 Y181.61229 I-2.00792 J-1.80506
G0 Z3.0
G0 X-185.17664 Y181.5619
G0 Z-3.0
G1 F300.0 Z-6.0
G3 F800.0 X-185.76917 Y181.02909 I1.4893 J-2.25211
G2 X-185.76326 Y181.92622 I81.13673 J-0.08615
G3 X-185.17664 Y181.5619 I1.70483 J2.0906
G1 F300.0 X-184.51473 Y180.56096
G3 F800.0 X-185.18613 Y179.24952 I0.82739 J-1.25117
G2 X-185.14824 Y176.97633 I-48.28637 J-1.94168
G3 X-185.1481 Y176.94269 I1.49996 J-0.01029
G2 X-186.87502 I-0.86346 J-0.01344
G3 X-186.87653 Y177.0372 I-1.49982 J0.02335
G2 X-186.05919 Y193.15071 I82.24409 J3.90574
G3 X-186.05689 Y193.16664 I-1.48342 J0.2224
G2 X-184.18739 Y199.38739 I20.99068 J-2.91696
G2 X-181.16252 Y202.60162 I7.02145 J-3.57734
G2 X-176.24118 Y201.73675 I1.89589 J-3.64618
G2 X-174.06667 Y197.88098 I-7.45975 J-6.74807
G3 X-174.06472 Y197.87454 I1.43666 J0.4313
G2 X-171.8984 Y187.16593 I-54.2084 J-16.53961
G2 X-171.51496 Y176.73168 I-82.78949 J-8.2666
G3 X-171.51503 Y176.72877 I1.49949 J-0.03908
G2 X-173.22256 Y176.74205 I-0.85366 J0.02059
G3 X-173.22348 Y179.28588 I-35.52337 J1.25915
G3 X-174.88002 Y180.72337 I-1.49902 J-0.05421
G2 X-183.50384 Y180.79853 I-3.9835 J37.72257
G3 X-184.51473 Y180.56096 I-0.1835 J-1.48873
G1 F300.0 X-184.25478 Y182.52973
G3 F800.0 X-184.24142 Y182.52803 I0.19635 J1.48709
G3 X-174.73383 Y182.40665 I5.30566 J43.16861
G3 X-173.38195 Y183.99755 I-0.14492 J1.49298
G3 X-174.9131 Y195.39174 I-84.10369 J-5.50192
G3 X-174.92633 Y195.45037 I-1.46955 J-0.3007
G3 X-177.33012 Y200.39027 I-12.73514 J-3.14221
G3 X-177.42027 Y200.49517 I-1.18144 J-0.92423
G3 X-181.62639 Y200.13504 I-1.9602 J-1.84855
G3 X-184.21283 Y193.56389 I12.05133 J-8.53806
G3 X-185.1188 Y185.07778 I60.36973 J-10.7364
G3 X-184.25478 Y182.52973 I1.06036 J-1.06096
G0 Z3.0
G0 X-91.32413 Y183.4669
G0 Z1.0
G1 F300.0 Z-2.0
G3 F800.0 X-90.25422 Y183.50557 I-1.07214 J44.47675
G3 X-90.78861 Y182.76795 I1.88799 J-1.93016
G3 X-91.32413 Y183.4669 I-2.38232 J-1.27065
G1 F300.0 X-92.14493 Y182.59152
G3 F800.0 X-93.1412 Y182.997 I-1.026 J-1.09423
G2 X-97.67417 Y183.28121 I1.05199 J53.07035
G2 X-97.40234 Y184.95064 I0.09934 J0.84067
G3 X-97.26542 Y184.92869 I0.30564 J1.46853
G3 X-87.35159 Y184.94892 I4.86915 J43.01496
G3 X-87.24778 Y184.9648 I-0.1748 J1.48978
G2 X-86.24242 Y184.22993 I0.15847 J-0.83834
G2 X-86.89459 Y183.2892 I-0.86035 J-0.09998
G2 X-88.44409 Y183.0734 I-2.01972 J8.83112
G3 X-89.85112 Y181.7878 I0.07786 J-1.49798
G2 X-91.41047 Y178.83405 I-4.9066 J0.7018
G3 X-91.45142 Y178.79511 I1.01298 J-1.10629
G2 X-106.43884 Y179.64362 I-7.11007 J7.2006
G2 X-109.22965 Y188.23492 I11.24673 J8.40234
G3 X-109.22998 Y188.29239 I-1.49986 J0.02019
G2 X-106.46683 Y198.46007 I18.40467 J0.45767
G3 X-106.4324 Y198.51844 I-1.27441 J0.79113
G2 X-100.08636 Y203.03249 I7.94079 J-4.4457
G2 X-92.75827 Y198.47993 I0.41811 J-7.50115
G3 X-92.72299 Y198.4033 I1.37964 J0.58871
G2 X-91.40629 Y194.77771 I-15.57472 J-7.70816
G3 X-91.40505 Y194.77262 I1.45802 J0.35239
G2 X-93.07571 Y194.30003 I-0.84362 J-0.20702
G3 X-95.94422 Y199.96505 I-11.10827 J-2.06596
G3 X-96.02644 Y200.04618 I-1.09389 J-1.02635
G3 X-102.78115 Y199.98287 I-3.34335 J-3.65997
G3 X-106.89662 Y193.20999 I7.66858 J-9.29654
G3 X-107.29862 Y185.57623 I18.46567 J-4.79989
G3 X-101.89629 Y178.29538 I9.14693 J1.14228
G3 X-93.36631 Y179.3302 I3.42923 J7.40649
G3 X-93.3438 Y179.34858 I-0.93742 J1.171
G3 X-92.15057 Y180.39781 I-18.95776 J22.76292
G3 X-92.14493 Y182.59152 I-1.02036 J1.09949
G1 F300.0 X-91.32413 Y183.4669
G1 Z-4.0
G3 F800.0 X-90.25422 Y183.50557 I-1.07214 J44.47675
G3 X-90.78861 Y182.76795 I1.88799 J-1.93016
G3 X-91.32413 Y183.4669 I-2.38232 J-1.27065
G1 F300.0 X-92.14493 Y182.59152
G3 F800.0 X-93.1412 Y182.997 I-1.026 J-1.09423
G2 X-97.67417 Y183.28121 I1.05199 J53.07035
G2 X-97.40234 Y184.95064 I0.09934 J0.84067
G3 X-97.26542 Y184.92869 I0.30564 J1.46853
G3 X-87.35159 Y184.94892 I4.86915 J43.01496
G3 X-87.24778 Y184.9648 I-0.1748 J1.48978
G2 X-86.24242 Y184.22993 I0.15847 J-0.83834
G2 X-86.89459 Y183.2892 I-0.86035 J-0.09998
G2 X-88.44409 Y183.0734 I-2.01972 J8.83112
G3 X-89.85112 Y181.7878 I0.07786 J-1.49798
G2 X-91.41047 Y178.83405 I-4.9066 J0.7018
G3 X-91.45142 Y178.79511 I1.01298 J-1.10629
G2 X-106.43884 Y179.64362 I-7.11007 J7.2006
G2 X-109.22965 Y188.23492 I11.24673 J8.40234
G3 X-109.22998 Y188.29239 I-1.49986 J0.02019
G2 X-106.46683 Y198.46007 I18.40467 J0.45767
G3 X-106.4324 Y198.51844 I-1.27441 J0.79113
G2 X-100.08636 Y203.03249 I7.94079 J-4.4457
G2 X-92.75827 Y198.47993 I0.41811 J-7.50115
G3 X-92.72299 Y198.4033 I1.37964 J0.58871
G2 X-91.40629 Y194.77771 I-15.57472 J-7.70816
G3 X-91.40505 Y194.77262 I1.45802 J0.35239
G2 X-93.07571 Y194.30003 I-0.84362 J-0.20702
G3 X-95.94422 Y199.96505 I-11.10827 J-2.06596
G3 X-96.02644 Y200.04618 I-1.09389 J-1.02635
G3 X-102.78115 Y199.98287 I-3.34335 J-3.65997
G3 X-106.89662 Y193.20999 I7.66858 J-9.29654
G3 X-107.29862 Y185.57623 I18.46567 J-4.79989
G3 X-101.89629 Y178.29538 I9.14693 J1.14228
G3 X-93.36631 Y179.3302 I3.42923 J7.40649
G3 X-93.3438 Y179.34858 I-0.93742 J1.171
G3 X-92.15057 Y180.39781 I-18.95776 J22.76292
G3 X-92.14493 Y182.59152 I-1.02036 J1.09949
G1 F300.0 X-91.32413 Y183.4669
G1 Z-6.0
G3 F800.0 X-90.25422 Y183.50557 I-1.07214 J44.47675
G3 X-90.78861 Y182.76795 I1.88799 J-1.93016
G3 X-91.32413 Y183.4669 I-2.38232 J-1.27065
G1 F300.0 X-92.14493 Y182.59152
G3 F800.0 X-93.1412 Y182.997 I-1.026 J-1.09423
G2 X-97.67417 Y183.28121 I1.05199 J53.07035
G2 X-97.40234 Y184.95064 I0.09934 J0.84067
G3 X-97.26542 Y184.92869 I0.30564 J1.46853
G3 X-87.35159 Y184.94892 I4.86915 J43.01496
G3 X-87.24778 Y184.9648 I-0.1748 J1.48978
G2 X-86.24242 Y184.22993 I0.15847 J-0.83834
G2 X-86.89459 Y183.2892 I-0.86035 J-0.09998
G2 X-88.44409 Y183.0734 I-2.01972 J8.83112
G3 X-89.85112 Y181.7878 I0.07786 J-1.49798
G2 X-91.41047 Y178.83405 I-4.9066 J0.7018
G3 X-91.45142 Y178.79511 I1.01298 J-1.10629
G2 X-106.43884 Y179.64362 I-7.11007 J7.2006
G2 X-109.22965 Y188.23492 I11.24673 J8.40234
G3 X-109.22998 Y188.29239 I-1.49986 J0.02019
G2 X-106.46683 Y198.46007 I18.40467 J0.45767
G3 X-106.4324 Y198.51844 I-1.27441 J0.79113
G2 X-100.08636 Y203.03249 I7.94079 J-4.4457
G2 X-92.75827 Y198.47993 I0.41811 J-7.50115
G3 X-92.72299 Y198.4033 I1.37964 J0.58871
G2 X-91.40629 Y194.77771 I-15.57472 J-7.70816
G3 X-91.40505 Y194.77262 I1.45802 J0.35239
G2 X-93.07571 Y194.30003 I-0.84362 J-0.20702
G3 X-95.94422 Y199.96505 I-11.10827 J-2.06596
G3 X-96.02644 Y200.04618 I-1.09389 J-1.02635
G3 X-102.78115 Y199.98287 I-3.34335 J-3.65997
G3 X-106.89662 Y193.20999 I7.66858 J-9.29654
G3 X-107.29862 Y185.57623 I18.46567 J-4.79989
G3 X-101.89629 Y178.29538 I9.14693 J1.14228
G3 X-93.36631 Y179.3302 I3.42923 J7.40649
G3 X-93.3438 Y179.34858 I-0.93742 J1.171
G3 X-92.15057 Y180.39781 I-18.95776 J22.76292
G3 X-92.14493 Y182.59152 I-1.02036 J1.09949
G0 Z3.0
G0 X-70.33494 Y179.74955
G0 Z1.0
G1 F300.0 Z-2.0
G3 F800.0 X-70.2543 Y179.87531 I-56.51974 J36.33165
G3 X-69.92986 Y180.53416 I-2.7799 J1.77824
G3 X-69.9474 Y179.58434 I554.24461 J-10.71224
G3 X-70.33494 Y179.74955 I-1.48524 J-2.94687
G1 F300.0 X-70.83966 Y180.07398
G3 F800.0 X-70.75974 Y180.19862 I-56.01503 J36.00721
G3 X-70.48657 Y180.75938 I-2.27447 J1.45492
G3 X-69.22054 Y185.17331 I-37.2318 J13.06757
G3 X-69.36729 Y178.37652 I553.53529 J-15.35139
G3 X-71.32152 Y179.33518 I-2.06536 J-1.73905
G3 X-70.83966 Y180.07398 I-55.53317 J36.74602
G1 F300.0 X-71.84909 Y180.72286
G3 F800.0 X-71.77061 Y180.84525 I-55.00559 J35.35833
G3 X-71.61885 Y181.15678 I-1.26359 J0.80829
G3 X-69.48597 Y192.41554 I-36.09952 J12.67016
G2 X-67.77573 Y192.30593 I0.85247 J-0.09619
G3 X-68.18642 Y177.02466 I552.09048 J-22.48402
G3 X-68.17123 Y176.79125 I1.49987 J-0.01955
G2 X-69.93274 Y176.6548 I-0.87627 J-0.12622
G3 X-72.85122 Y177.12496 I-1.4999 J-0.01734
G2 X-75.57358 Y175.80358 I-2.45605 J1.59501
G3 X-75.66935 Y175.80924 I-0.13641 J-1.49378
G2 X-80.19703 Y179.30691 I0.13142 J4.84947
G3 X-80.20974 Y179.34846 I-1.44059 J-0.41798
G2 X-81.25812 Y187.17758 I21.20444 J6.82418
G3 X-81.25659 Y187.2435 I-1.49847 J0.06767
G2 X-81.07045 Y192.38941 I73.60367 J-0.08607
G2 X-80.21356 Y193.2 I0.89758 J-0.09064
G2 X-79.35397 Y192.29254 I-0.03065 J-0.88989
G3 X-79.03378 Y181.43362 I34.36544 J-4.42089
G3 X-79.02566 Y181.39366 I1.47388 J0.27871
G3 X-78.03991 Y178.76265 I9.53945 J2.07394
G3 X-77.69635 Y178.34204 I1.3143 J0.72293
G3 X-72.9248 Y179.1029 I2.05956 J2.42618
G3 X-71.84909 Y180.72286 I-53.92989 J36.97829
G1 F300.0 X-70.33494 Y179.74955
G1 Z-4.0
G3 F800.0 X-70.2543 Y179.87531 I-56.51974 J36.33165
G3 X-69.92986 Y180.53416 I-2.7799 J1.77824
G3 X-69.9474 Y179.58434 I554.24461 J-10.71224
G3 X-70.33494 Y179.74955 I-1.48524 J-2.94687
G1 F300.0 X-70.83966 Y180.07398
G3 F800.0 X-70.75974 Y180.19862 I-56.01503 J36.00721
G3 X-70.48657 Y180.75938 I-2.27447 J1.45492
G3 X-69.22054 Y185.17331 I-37.2318 J13.06757
G3 X-69.36729 Y178.37652 I553.53529 J-15.35139
G3 X-71.32152 Y179.33518 I-2.06536 J-1.73905
G3 X-70.83966 Y180.07398 I-55.53317 J36.74602
G1 F300.0 X-71.84909 Y180.72286
G3 F800.0 X-71.77061 Y180.84525 I-55.00559 J35.35833
G3 X-71.61885 Y181.15678 I-1.26359 J0.80829
G3 X-69.48597 Y192.41554 I-36.09952 J12.67016
G2 X-67.77573 Y192.30593 I0.85247 J-0.09619
G3 X-68.18642 Y177.02466 I552.09048 J-22.48402
G3 X-68.17123 Y176.79125 I1.49987 J-0.01955
G2 X-69.93274 Y176.6548 I-0.87627 J-0.12622
G3 X-72.85122 Y177.12496 I-1.4999 J-0.01734
G2 X-75.57358 Y175.80358 I-2.45605 J1.59501
G3 X-75.66935 Y175.80924 I-0.13641 J-1.49378
G2 X-80.19703 Y179.30691 I0.13142 J4.84947
G3 X-80.20974 Y179.34846 I-1.44059 J-0.41798
G2 X-81.25812 Y187.17758 I21.20444 J6.82418
G3 X-81.25659 Y187.2435 I-1.49847 J0.06767
G2 X-81.07045 Y192.38941 I73.60367 J-0.08607
G2 X-80.21356 Y193.2 I0.89758 J-0.09064
G2 X-79.35397 Y192.29254 I-0.03065 J-0.88989
G3 X-79.03378 Y181.43362 I34.36544 J-4.42089
G3 X-79.02566 Y181.39366 I1.47388 J0.27871
G3 X-78.03991 Y178.76265 I9.53945 J2.07394
G3 X-77.69635 Y178.34204 I1.3143 J0.72293
G3 X-72.9248 Y179.1029 I2.05956 J2.42618
G3 X-71.84909 Y180.72286 I-53.92989 J36.97829
G1 F300.0 X-70.33494 Y179.74955
G1 Z-6.0
G3 F800.0 X-70.2543 Y179.87531 I-56.51974 J36.33165
G3 X-69.92986 Y180.53416 I-2.7799 J1.77824
G3 X-69.9474 Y179.58434 I554.24461 J-10.71224
G3 X-70.33494 Y179.74955 I-1.48524 J-2.94687
G1 F300.0 X-70.83966 Y180.07398
G3 F800.0 X-70.75974 Y180.19862 I-56.01503 J36.00721
G3 X-70.48657 Y180.75938 I-2.27447 J1.45492
G3 X-69.22054 Y185.17331 I-37.2318 J13.06757
G3 X-69.36729 Y178.37652 I553.53529 J-15.35139
G3 X-71.32152 Y179.33518 I-2.06536 J-1.73905
G3 X-70.83966 Y180.07398 I-55.53317 J36.74602
G1 F300.0 X-71.84909 Y180.72286
G3 F800.0 X-71.77061 Y180.84525 I-55.00559 J35.35833
G3 X-71.61885 Y181.15678 I-1.26359 J0.80829
G3 X-69.48597 Y192.41554 I-36.09952 J12.67016
G2 X-67.77573 Y192.30593 I0.85247 J-0.09619
G3 X-68.18642 Y177.02466 I552.09048 J-22.48402
G3 X-68.17123 Y176.79125 I1.49987 J-0.01955
G2 X-69.93274 Y176.6548 I-0.87627 J-0.12622
G3 X-72.85122 Y177.12496 I-1.4999 J-0.01734
G2 X-75.57358 Y175.80358 I-2.45605 J1.59501
G3 X-75.66935 Y175.80924 I-0.13641 J-1.49378
G2 X-80.19703 Y179.30691 I0.13142 J4.84947
G3 X-80.20974 Y179.34846 I-1.44059 J-0.41798
G2 X-81.25812 Y187.17758 I21.20444 J6.82418
G3 X-81.25659 Y187.2435 I-1.49847 J0.06767
G2 X-81.07045 Y192.38941 I73.60367 J-0.08607
G2 X-80.21356 Y193.2 I0.89758 J-0.09064
G2 X-79.35397 Y192.29254 I-0.03065 J-0.88989
G3 X-79.03378 Y181.43362 I34.36544 J-4.42089
G3 X-79.02566 Y181.39366 I1.47388 J0.27871
G3 X-78.03991 Y178.76265 I9.53945 J2.07394
G3 X-77.69635 Y178.34204 I1.3143 J0.72293
G3 X-72.9248 Y179.1029 I2.05956 J2.42618
G3 X-71.84909 Y180.72286 I-53.92989 J36.97829
G0 Z3.0
G0 X-60.69702 Y194.61053
G0 Z1.0
G1 F300.0 Z-2.0
G3 F800.0 X-59.58734 Y195.96156 I-1.41922 J2.29692
G3 X-58.72149 Y195.14777 I2.23673 J1.51229
G3 X-59.87667 Y193.94702 I1.27323 J-2.38094
G3 X-60.69702 Y194.61053 I-2.07538 J-1.72707
G1 F300.0 X-61.32778 Y195.63138
G3 F800.0 X-60.61767 Y196.84184 I-0.78845 J1.27606
G3 X-60.38217 Y204.18154 I-314.19171 J13.75464
G3 X-60.38209 Y204.18589 I-1.49969 J0.0306
G2 X-58.65706 Y204.23129 I0.86351 J-0.01511
G3 X-58.85059 Y197.46597 I99.78301 J-6.23986
G3 X-57.15748 Y195.98634 I1.49998 J0.00788
G1 X-50.08717 Y196.90431
G3 X-50.04076 Y196.91107 I-0.19313 J1.48751
G2 X-49.77713 Y195.23008 I0.13586 J-0.83986
G1 X-57.63296 Y194.25541
G3 X-58.94763 Y192.81051 I0.18469 J-1.48859
G3 X-58.09796 Y181.03356 I58.43914 J-1.7029
G3 X-56.687 Y178.2217 I4.27028 J0.38284
G3 X-53.50949 Y178.51161 I1.46401 J1.51216
G3 X-51.01648 Y184.73875 I-9.05855 J7.23917
G2 X-50.09104 Y185.41034 I0.80889 J-0.14122
G2 X-49.34044 Y184.32651 I-0.19408 J-0.93624
G3 X-49.34924 Y184.26068 I1.48202 J-0.23156
G2 X-51.55234 Y178.16249 I-13.78257 J1.5322
G3 X-51.62057 Y178.04823 I1.25251 J-0.82535
G2 X-58.06204 Y177.14205 I-3.55363 J1.91329
G2 X-59.74373 Y180.44695 I4.90324 J4.57532
G2 X-60.67106 Y191.43953 I55.35841 J10.2054
G3 X-61.94833 Y193.71994 I-1.28099 J0.78042
G2 X-62.07724 Y195.3868 I0.00208 J0.83857
G3 X-62.01738 Y195.39752 I-0.23431 J1.48159
G1 X-61.82206 Y195.43658
G3 X-61.32778 Y195.63138 I-0.29417 J1.47087
G1 F300.0 X-60.69702 Y194.61053
G1 Z-4.0
G3 F800.0 X-59.58734 Y195.96156 I-1.41922 J2.29692
G3 X-58.72149 Y195.14777 I2.23673 J1.51229
G3 X-59.87667 Y193.94702 I1.27323 J-2.38094
G3 X-60.69702 Y194.61053 I-2.07538 J-1.72707
G1 F300.0 X-61.32778 Y195.63138
G3 F800.0 X-60.61767 Y196.84184 I-0.78845 J1.27606
G3 X-60.38217 Y204.18154 I-314.19171 J13.75464
G3 X-60.38209 Y204.18589 I-1.49969 J0.0306
G2 X-58.65706 Y204.23129 I0.86351 J-0.01511
G3 X-58.85059 Y197.46597 I99.78301 J-6.23986
G3 X-57.15748 Y195.98634 I1.49998 J0.00788
G1 X-50.08717 Y196.90431
G3 X-50.04076 Y196.91107 I-0.19313 J1.48751
G2 X-49.77713 Y195.23008 I0.13586 J-0.83986
G1 X-57.63296 Y194.25541
G3 X-58.94763 Y192.81051 I0.18469 J-1.48859
G3 X-58.09796 Y181.03356 I58.43914 J-1.7029
G3 X-56.687 Y178.2217 I4.27028 J0.38284
G3 X-53.50949 Y178.51161 I1.46401 J1.51216
G3 X-51.01648 Y184.73875 I-9.05855 J7.23917
G2 X-50.09104 Y185.41034 I0.80889 J-0.14122
G2 X-49.34044 Y184.32651 I-0.19408 J-0.93624
G3 X-49.34924 Y184.26068 I1.48202 J-0.23156
G2 X-51.55234 Y178.16249 I-13.78257 J1.5322
G3 X-51.62057 Y178.04823 I1.25251 J-0.82535
G2 X-58.06204 Y177.14205 I-3.55363 J1.91329
G2 X-59.74373 Y180.44695 I4.90324 J4.57532
G2 X-60.67106 Y191.43953 I55.35841 J10.2054
G3 X-61.94833 Y193.71994 I-1.28099 J0.78042
G2 X-62.07724 Y195.3868 I0.00208 J0.83857
G3 X-62.01738 Y195.39752 I-0.23431 J1.48159
G1 X-61.82206 Y195.43658
G3 X-61.32778 Y195.63138 I-0.29417 J1.47087
G1 F300.0 X-60.69702 Y194.61053
G1 Z-6.0
G3 F800.0 X-59.58734 Y195.96156 I-1.41922 J2.29692
G3 X-58.72149 Y195.14777 I2.23673 J1.51229
G3 X-59.87667 Y193.94702 I1.27323 J-2.38094
G3 X-60.69702 Y194.61053 I-2.07538 J-1.72707
G1 F300.0 X-61.32778 Y195.63138
G3 F800.0 X-60.61767 Y196.84184 I-0.78845 J1.27606
G3 X-60.38217 Y204.18154 I-314.19171 J13.75464
G3 X-60.38209 Y204.18589 I-1.49969 J0.0306
G2 X-58.65706 Y204.23129 I0.86351 J-0.01511
G3 X-58.85059 Y197.46597 I99.78301 J-6.23986
G3 X-57.15748 Y195.98634 I1.49998 J0.00788
G1 X-50.08717 Y196.90431
G3 X-50.04076 Y196.91107 I-0.19313 J1.48751
G2 X-49.77713 Y195.23008 I0.13586 J-0.83986
G1 X-57.63296 Y194.25541
G3 X-58.94763 Y192.81051 I0.18469 J-1.48859
G3 X-58.09796 Y181.03356 I58.43914 J-1.7029
G3 X-56.687 Y178.2217 I4.27028 J0.38284
G3 X-53.50949 Y178.51161 I1.46401 J1.51216
G3 X-51.01648 Y184.73875 I-9.05855 J7.23917
G2 X-50.09104 Y185.41034 I0.80889 J-0.14122
G2 X-49.34044 Y184.32651 I-0.19408 J-0.93624
G3 X-49.34924 Y184.26068 I1.48202 J-0.23156
G2 X-51.55234 Y178.16249 I-13.78257 J1.5322
G3 X-51.62057 Y178.04823 I1.25251 J-0.82535
G2 X-58.06204 Y177.14205 I-3.55363 J1.91329
G2 X-59.74373 Y180.44695 I4.90324 J4.57532
G2 X-60.67106 Y191.43953 I55.35841 J10.2054
G3 X-61.94833 Y193.71994 I-1.28099 J0.78042
G2 X-62.07724 Y195.3868 I0.00208 J0.83857
G3 X-62.01738 Y195.39752 I-0.23431 J1.48159
G1 X-61.82206 Y195.43658
G3 X-61.32778 Y195.63138 I-0.29417 J1.47087
G0 Z3.0
G0 X-42.67342 Y187.55746
G0 Z1.0
G1 F300.0 Z-2.0
G3 F800.0 X-43.15449 Y185.81188 I5.97281 J-2.58513
G3 X-42.0406 Y184.16565 I1.48747 J-0.1935
G3 X-35.65302 Y185.32812 I1.93219 J7.51355
G3 X-33.8001 Y188.47873 I-1.63998 J3.08467
G3 X-33.86017 Y188.87158 I-1.49973 J-0.02831
G3 X-37.67791 Y191.40548 I-3.41232 J-0.99824
G3 X-37.74834 Y191.3957 I0.17105 J-1.49022
G3 X-42.67342 Y187.55746 I1.04772 J-6.42336
G0 Z3.0
G0 X-43.83549 Y184.01378
G0 Z1.0
G1 F300.0 Z-2.0
G3 F800.0 X-42.75596 Y183.15034 I2.16848 J1.6046
G3 X-43.67642 Y182.1287 I1.47956 J-2.25852
G2 X-43.81115 Y183.56132 I6.38502 J1.32311
G3 X-43.82254 Y183.85854 I-2.69962 J0.04534
G2 X-43.83549 Y184.01378 I7.61986 J0.71394
G1 F300.0 X-45.03229 Y183.92618
G2 F800.0 X-40.37429 Y192.38128 I8.82961 J0.64629
G3 X-40.33981 Y192.40028 I-0.70679 J1.32304
G2 X-34.05349 Y192.197 I2.97708 J-5.23727
G3 X-34.04959 Y192.19444 I0.82397 J1.25342
G2 X-32.5057 Y186.57237 I-2.40506 J-3.68348
G3 X-32.51426 Y186.55466 I1.3465 J-0.66101
G2 X-36.76705 Y182.84958 I-6.37852 J3.02816
G3 X-36.80957 Y182.83545 I0.45159 J-1.43041
G2 X-41.09106 Y182.38033 I-3.11362 J8.92464
G3 X-42.48402 Y180.00208 I-0.18533 J-1.48851
G3 X-35.4877 Y177.74427 I5.0673 J3.73343
G3 X-33.2023 Y179.80378 I-1.12655 J3.54791
G3 X-33.18583 Y179.84304 I-1.37488 J0.59976
G2 X-31.60736 Y179.20063 I0.79038 J-0.3184
G2 X-34.67778 Y176.31301 I-4.75891 J1.98398
G3 X-34.77174 Y176.27687 I0.49123 J-1.41728
G2 X-37.38781 Y175.73175 I-2.68565 J6.3386
G2 X-45.01098 Y183.58148 I0.09641 J7.72007
G3 X-45.01731 Y183.7466 I-1.49979 J0.02519
G2 X-45.03229 Y183.92618 I8.81463 J0.82588
G1 F300.0 X-43.83549 Y184.01378
G1 Z-4.0
G3 F800.0 X-42.75596 Y183.15034 I2.16848 J1.6046
G3 X-43.67642 Y182.1287 I1.47956 J-2.25852
G2 X-43.81115 Y183.56132 I6.38502 J1.32311
G3 X-43.82254 Y183.85854 I-2.69962 J0.04534
G2 X-43.83549 Y184.01378 I7.61986 J0.71394
G1 F300.0 X-45.03229 Y183.92618
G2 F800.0 X-40.37429 Y192.38128 I8.82961 J0.64629
G3 X-40.33981 Y192.40028 I-0.70679 J1.32304
G2 X-34.05349 Y192.197 I2.97708 J-5.23727
G3 X-34.04959 Y192.19444 I0.82397 J1.25342
G2 X-32.5057 Y186.57237 I-2.40506 J-3.68348
G3 X-32.51426 Y186.55466 I1.3465 J-0.66101
G2 X-36.76705 Y182.84958 I-6.37852 J3.02816
G3 X-36.80957 Y182.83545 I0.45159 J-1.43041
G2 X-41.09106 Y182.38033 I-3.11362 J8.92464
G3 X-42.48402 Y180.00208 I-0.18533 J-1.48851
G3 X-35.4877 Y177.74427 I5.0673 J3.73343
G3 X-33.2023 Y179.80378 I-1.12655 J3.54791
G3 X-33.18583 Y179.84304 I-1.37488 J0.59976
G2 X-31.60736 Y179.20063 I0.79038 J-0.3184
G2 X-34.67778 Y176.31301 I-4.75891 J1.98398
G3 X-34.77174 Y176.27687 I0.49123 J-1.41728
G2 X-37.38781 Y175.73175 I-2.68565 J6.3386
G2 X-45.01098 Y183.58148 I0.09641 J7.72007
G3 X-45.01731 Y183.7466 I-1.49979 J0.02519
G2 X-45.03229 Y183.92618 I8.81463 J0.82588
G0 Z3.0
G0 X-43.00713 Y184.94452
G0 Z-1.0
G1 F300.0 Z-4.0
G3 F800.0 X-42.0406 Y184.16565 I1.34011 J0.67387
G3 X-35.65302 Y185.32812 I1.93219 J7.51355
G3 X-33.8001 Y188.47873 I-1.63998 J3.08467
G3 X-33.86017 Y188.87158 I-1.49973 J-0.02831
G3 X-37.67791 Y191.40548 I-3.41232 J-0.99824
G3 X-37.74834 Y191.3957 I0.17105 J-1.49022
G3 X-43.15449 Y185.81188 I1.04772 J-6.42336
G3 X-43.00713 Y184.94452 I1.48747 J-0.1935
G1 F300.0 Z-6.0
G3 F800.0 X-42.0406 Y184.16565 I1.34011 J0.67387
G3 X-35.65302 Y185.32812 I1.93219 J7.51355
G3 X-33.8001 Y188.47873 I-1.63998 J3.08467
G3 X-33.86017 Y188.87158 I-1.49973 J-0.02831
G3 X-37.67791 Y191.40548 I-3.41232 J-0.99824
G3 X-37.74834 Y191.3957 I0.17105 J-1.49022
G3 X-43.15449 Y185.81188 I1.04772 J-6.42336
G3 X-43.00713 Y184.94452 I1.48747 J-0.1935
G1 F300.0 X-43.83549 Y184.01378
G3 F800.0 X-42.75596 Y183.15034 I2.16848 J1.6046
G3 X-43.67642 Y182.1287 I1.47956 J-2.25852
G2 X-43.81115 Y183.56132 I6.38502 J1.32311
G3 X-43.82254 Y183.85854 I-2.69962 J0.04534
G2 X-43.83549 Y184.01378 I7.61986 J0.71394
G1 F300.0 X-45.03229 Y183.92618
G2 F800.0 X-40.37429 Y192.38128 I8.82961 J0.64629
G3 X-40.33981 Y192.40028 I-0.70679 J1.32304
G2 X-34.05349 Y192.197 I2.97708 J-5.23727
G3 X-34.04959 Y192.19444 I0.82397 J1.25342
G2 X-32.5057 Y186.57237 I-2.40506 J-3.68348
G3 X-32.51426 Y186.55466 I1.3465 J-0.66101
G2 X-36.76705 Y182.84958 I-6.37852 J3.02816
G3 X-36.80957 Y182.83545 I0.45159 J-1.43041
G2 X-41.09106 Y182.38033 I-3.11362 J8.92464
G3 X-42.48402 Y180.00208 I-0.18533 J-1.48851
G3 X-35.4877 Y177.74427 I5.0673 J3.73343
G3 X-33.2023 Y179.80378 I-1.12655 J3.54791
G3 X-33.18583 Y179.84304 I-1.37488 J0.59976
G2 X-31.60736 Y179.20063 I0.79038 J-0.3184
G2 X-34.67778 Y176.31301 I-4.75891 J1.98398
G3 X-34.77174 Y176.27687 I0.49123 J-1.41728
G2 X-37.38781 Y175.73175 I-2.68565 J6.3386
G2 X-45.01098 Y183.58148 I0.09641 J7.72007
G3 X-45.01731 Y183.7466 I-1.49979 J0.02519
G2 X-45.03229 Y183.92618 I8.81463 J0.82588
G0 Z3.0
G0 X-5.24821 Y179.74955
G0 Z1.0
G1 F300.0 Z-2.0
G3 F800.0 X-5.16757 Y179.87531 I-56.51974 J36.33165
G3 X-4.84313 Y180.53416 I-2.7799 J1.77824
G3 X-4.86067 Y179.58434 I554.24461 J-10.71224
G3 X-5.24821 Y179.74955 I-1.48524 J-2.94687
G1 F300.0 X-5.75293 Y180.07398
G3 F800.0 X-5.67301 Y180.19862 I-56.01503 J36.00721
G3 X-5.39984 Y180.75938 I-2.27447 J1.45492
G3 X-4.13381 Y185.17331 I-37.2318 J13.06757
G3 X-4.28056 Y178.37652 I553.53529 J-15.35139
G3 X-6.23479 Y179.33518 I-2.06536 J-1.73905
G3 X-5.75293 Y180.07398 I-55.53317 J36.74602
G1 F300.0 X-6.76237 Y180.72286
G3 F800.0 X-6.68388 Y180.84525 I-55.00559 J35.35833
G3 X-6.53212 Y181.15678 I-1.26359 J0.80829
G3 X-4.39925 Y192.41554 I-36.09952 J12.67016
G2 X-2.689 Y192.30593 I0.85247 J-0.09619
G3 X-3.09969 Y177.02466 I552.09048 J-22.48402
G3 X-3.0845 Y176.79125 I1.49987 J-0.01955
G2 X-4.84602 Y176.6548 I-0.87627 J-0.12622
G3 X-7.76449 Y177.12496 I-1.4999 J-0.01734
G2 X-10.48685 Y175.80358 I-2.45605 J1.59501
G3 X-10.58262 Y175.80924 I-0.13641 J-1.49378
G2 X-15.1103 Y179.30691 I0.13142 J4.84947
G3 X-15.12301 Y179.34846 I-1.44059 J-0.41798
G2 X-16.17139 Y187.17758 I21.20444 J6.82418
G3 X-16.16987 Y187.2435 I-1.49847 J0.06767
G2 X-15.98373 Y192.38941 I73.60367 J-0.08607
G2 X-15.12684 Y193.2 I0.89758 J-0.09064
G2 X-14.26724 Y192.29254 I-0.03065 J-0.88989
G3 X-13.94705 Y181.43362 I34.36544 J-4.42089
G3 X-13.93893 Y181.39366 I1.47388 J0.27871
G3 X-12.95318 Y178.76265 I9.53945 J2.07394
G3 X-12.60962 Y178.34204 I1.3143 J0.72293
G3 X-7.83807 Y179.1029 I2.05956 J2.42618
G3 X-6.76237 Y180.72286 I-53.92989 J36.97829
G1 F300.0 X-5.24821 Y179.74955
G1 Z-4.0
G3 F800.0 X-5.16757 Y179.87531 I-56.51974 J36.33165
G3 X-4.84313 Y180.53416 I-2.7799 J1.77824
G3 X-4.86067 Y179.58434 I554.24461 J-10.71224
G3 X-5.24821 Y179.74955 I-1.48524 J-2.94687
G1 F300.0 X-5.75293 Y180.07398
G3 F800.0 X-5.67301 Y180.19862 I-56.01503 J36.00721
G3 X-5.39984 Y180.75938 I-2.27447 J1.45492
G3 X-4.13381 Y185.17331 I-37.2318 J13.06757
G3 X-4.28056 Y178.37652 I553.53529 J-15.35139
G3 X-6.23479 Y179.33518 I-2.06536 J-1.73905
G3 X-5.75293 Y180.07398 I-55.53317 J36.74602
G1 F300.0 X-6.76237 Y180.72286
G3 F800.0 X-6.68388 Y180.84525 I-55.00559 J35.35833
G3 X-6.53212 Y181.15678 I-1.26359 J0.80829
G3 X-4.39925 Y192.41554 I-36.09952 J12.67016
G2 X-2.689 Y192.30593 I0.85247 J-0.09619
G3 X-3.09969 Y177.02466 I552.09048 J-22.48402
G3 X-3.0845 Y176.79125 I1.49987 J-0.01955
G2 X-4.84602 Y176.6548 I-0.87627 J-0.12622
G3 X-7.76449 Y177.12496 I-1.4999 J-0.01734
G2 X-10.48685 Y175.80358 I-2.45605 J1.59501
G3 X-10.58262 Y175.80924 I-0.13641 J-1.49378
G2 X-15.1103 Y179.30691 I0.13142 J4.84947
G3 X-15.12301 Y179.34846 I-1.44059 J-0.41798
G2 X-16.17139 Y187.17758 I21.20444 J6.82418
G3 X-16.16987 Y187.2435 I-1.49847 J0.06767
G2 X-15.98373 Y192.38941 I73.60367 J-0.08607
G2 X-15.12684 Y193.2 I0.89758 J-0.09064
G2 X-14.26724 Y192.29254 I-0.03065 J-0.88989
G3 X-13.94705 Y181.43362 I34.36544 J-4.42089
G3 X-13.93893 Y181.39366 I1.47388 J0.27871
G3 X-12.95318 Y178.76265 I9.53945 J2.07394
G3 X-12.60962 Y178.34204 I1.3143 J0.72293
G3 X-7.83807 Y179.1029 I2.05956 J2.42618
G3 X-6.76237 Y180.72286 I-53.92989 J36.97829
G1 F300.0 X-5.24821 Y179.74955
G1 Z-6.0
G3 F800.0 X-5.16757 Y179.87531 I-56.51974 J36.33165
G3 X-4.84313 Y180.53416 I-2.7799 J1.77824
G3 X-4.86067 Y179.58434 I554.24461 J-10.71224
G3 X-5.24821 Y179.74955 I-1.48524 J-2.94687
G1 F300.0 X-5.75293 Y180.07398
G3 F800.0 X-5.67301 Y180.19862 I-56.01503 J36.00721
G3 X-5.39984 Y180.75938 I-2.27447 J1.45492
G3 X-4.13381 Y185.17331 I-37.2318 J13.06757
G3 X-4.28056 Y178.37652 I553.53529 J-15.35139
G3 X-6.23479 Y179.33518 I-2.06536 J-1.73905
G3 X-5.75293 Y180.07398 I-55.53317 J36.74602
G1 F300.0 X-6.76237 Y180.72286
G3 F800.0 X-6.68388 Y180.84525 I-55.00559 J35.35833
G3 X-6.53212 Y181.15678 I-1.26359 J0.80829
G3 X-4.39925 Y192.41554 I-36.09952 J12.67016
G2 X-2.689 Y192.30593 I0.85247 J-0.09619
G3 X-3.09969 Y177.02466 I552.09048 J-22.48402
G3 X-3.0845 Y176.79125 I1.49987 J-0.01955
G2 X-4.84602 Y176.6548 I-0.87627 J-0.12622
G3 X-7.76449 Y177.12496 I-1.4999 J-0.01734
G2 X-10.48685 Y175.80358 I-2.45605 J1.59501
G3 X-10.58262 Y175.80924 I-0.13641 J-1.49378
G2 X-15.1103 Y179.30691 I0.13142 J4.84947
G3 X-15.12301 Y179.34846 I-1.44059 J-0.41798
G2 X-16.17139 Y187.17758 I21.20444 J6.82418
G3 X-16.16987 Y187.2435 I-1.49847 J0.06767
G2 X-15.98373 Y192.38941 I73.60367 J-0.08607
G2 X-15.12684 Y193.2 I0.89758 J-0.09064
G2 X-14.26724 Y192.29254 I-0.03065 J-0.88989
G3 X-13.94705 Y181.43362 I34.36544 J-4.42089
G3 X-13.93893 Y181.39366 I1.47388 J0.27871
G3 X-12.95318 Y178.76265 I9.53945 J2.07394
G3 X-12.60962 Y178.34204 I1.3143 J0.72293
G3 X-7.83807 Y179.1029 I2.05956 J2.42618
G3 X-6.76237 Y180.72286 I-53.92989 J36.97829
G0 Z3.0
G0 X-25.11229 Y228.15361
G0 Z1.0
G1 F300.0 Z-2.0
G2 F800.0 X-27.05714 Y227.8394 I-1.71326 J4.42842
G3 X-27.09896 Y227.84102 I-0.10242 J-2.0975
G2 X-32.72882 Y232.40786 I0.17224 J5.96591
G3 X-32.75587 Y232.50893 I-2.04149 J-0.49227
G2 X-31.50024 Y240.91385 I9.67766 J2.85047
G3 X-31.49917 Y240.91547 I-1.75307 J1.15617
G2 X-26.27914 Y244.02049 I5.80696 J-3.82207
G3 X-26.24374 Y244.02379 I-0.1773 J2.0925
G2 X-25.97557 Y243.8782 I0.02741 J-0.26929
G3 X-26.0253 Y243.78633 I1.82135 J-1.04532
G3 X-27.22608 Y243.57107 I-0.21065 J-2.28175
G3 X-27.86953 Y243.0929 I0.90636 J-1.89168
G3 X-32.28376 Y237.83707 I2.54186 J-6.61646
G3 X-31.22993 Y230.49759 I8.22842 J-2.56392
G3 X-31.1636 Y230.40363 I1.74615 J1.16227
G3 X-23.19826 Y230.32828 I4.01141 J2.99989
G3 X-21.78927 Y237.80717 I-6.04706 J5.01141
G3 X-21.87085 Y238.01567 I-1.99138 J-0.65902
G3 X-24.26432 Y240.17826 I-3.68697 J-1.6748
G3 X-24.00708 Y240.62603 I-1.67639 J1.26081
G2 X-21.44505 Y238.22141 I-1.61719 J-4.29024
G2 X-23.13266 Y229.59203 I-7.80595 J-2.95314
G3 X-23.19765 Y229.51861 I1.5395 J-1.42826
G2 X-25.11229 Y228.15361 I-3.6279 J3.06342
G1 F300.0 X-24.8958 Y227.59403
G2 F800.0 X-27.0864 Y227.24011 I-1.92975 J4.98801
G3 X-27.11627 Y227.24127 I-0.07316 J-1.49821
G2 X-33.31211 Y232.26722 I0.18955 J6.56566
G3 X-33.33143 Y232.33941 I-1.45821 J-0.35162
G2 X-32.00111 Y241.24418 I10.25322 J3.02
G3 X-32.00035 Y241.24534 I-1.25219 J0.82584
G2 X-26.32979 Y244.61835 I6.30815 J-4.15194
G3 X-26.30451 Y244.6207 I-0.12664 J1.49464
G2 X-25.34571 Y243.74411 I0.08818 J-0.8662
G3 X-25.63249 Y243.08729 I1.19149 J-0.91124
G3 X-26.96786 Y243.03214 I-0.60346 J-1.58271
G3 X-27.51351 Y242.58761 I0.64814 J-1.35274
G3 X-31.70343 Y237.6905 I2.18585 J-6.11116
G3 X-30.73246 Y230.82872 I7.64808 J-2.41735
G3 X-30.68502 Y230.76153 I1.24868 J0.83115
G3 X-23.66437 Y230.70239 I3.53283 J2.64199
G3 X-22.35661 Y237.61942 I-5.58095 J4.63729
G3 X-22.41495 Y237.76852 I-1.42405 J-0.47127
G3 X-24.52192 Y239.6337 I-3.14287 J-1.42765
G3 X-24.55902 Y239.64485 I-0.45014 J-1.43086
G2 X-25.12276 Y240.1817 I0.23121 J0.80721
G3 X-24.44275 Y241.36089 I-0.81794 J1.25736
G3 X-24.21086 Y241.33395 I0.28852 J1.47199
G3 X-24.07315 Y241.28325 I0.58645 J1.38061
G2 X-20.8904 Y238.45092 I-1.55113 J-4.94746
G2 X-22.6928 Y229.18396 I-8.36061 J-3.18265
G3 X-22.73922 Y229.13152 I1.09965 J-1.02019
G2 X-24.8958 Y227.59403 I-4.08633 J3.45052
G1 F300.0 X-25.11229 Y228.15361
G1 Z-4.0
G2 F800.0 X-27.05714 Y227.8394 I-1.71326 J4.42842
G3 X-27.09896 Y227.84102 I-0.10242 J-2.0975
G2 X-32.72882 Y232.40786 I0.17224 J5.96591
G3 X-32.75587 Y232.50893 I-2.04149 J-0.49227
G2 X-31.50024 Y240.91385 I9.67766 J2.85047
G3 X-31.49917 Y240.91547 I-1.75307 J1.15617
G2 X-26.27914 Y244.02049 I5.80696 J-3.82207
G3 X-26.24374 Y244.02379 I-0.1773 J2.0925
G2 X-25.97557 Y243.8782 I0.02741 J-0.26929
G3 X-26.0253 Y243.78633 I1.82135 J-1.04532
G3 X-27.22608 Y243.57107 I-0.21065 J-2.28175
G3 X-27.86953 Y243.0929 I0.90636 J-1.89168
G3 X-32.28376 Y237.83707 I2.54186 J-6.61646
G3 X-31.22993 Y230.49759 I8.22842 J-2.56392
G3 X-31.1636 Y230.40363 I1.74615 J1.16227
G3 X-23.19826 Y230.32828 I4.01141 J2.99989
G3 X-21.78927 Y237.80717 I-6.04706 J5.01141
G3 X-21.87085 Y238.01567 I-1.99138 J-0.65902
G3 X-24.26432 Y240.17826 I-3.68697 J-1.6748
G3 X-24.00708 Y240.62603 I-1.67639 J1.26081
G2 X-21.44505 Y238.22141 I-1.61719 J-4.29024
G2 X-23.13266 Y229.59203 I-7.80595 J-2.95314
G3 X-23.19765 Y229.51861 I1.5395 J-1.42826
G2 X-25.11229 Y228.15361 I-3.6279 J3.06342
G1 F300.0 X-24.8958 Y227.59403
G2 F800.0 X-27.0864 Y227.24011 I-1.92975 J4.98801
G3 X-27.11627 Y227.24127 I-0.07316 J-1.49821
G2 X-33.31211 Y232.26722 I0.18955 J6.56566
G3 X-33.33143 Y232.33941 I-1.45821 J-0.35162
G2 X-32.00111 Y241.24418 I10.25322 J3.02
G3 X-32.00035 Y241.24534 I-1.25219 J0.82584
G2 X-26.32979 Y244.61835 I6.30815 J-4.15194
G3 X-26.30451 Y244.6207 I-0.12664 J1.49464
G2 X-25.34571 Y243.74411 I0.08818 J-0.8662
G3 X-25.63249 Y243.08729 I1.19149 J-0.91124
G3 X-26.96786 Y243.03214 I-0.60346 J-1.58271
G3 X-27.51351 Y242.58761 I0.64814 J-1.35274
G3 X-31.70343 Y237.6905 I2.18585 J-6.11116
G3 X-30.73246 Y230.82872 I7.64808 J-2.41735
G3 X-30.68502 Y230.76153 I1.24868 J0.83115
G3 X-23.66437 Y230.70239 I3.53283 J2.64199
G3 X-22.35661 Y237.61942 I-5.58095 J4.63729
G3 X-22.41495 Y237.76852 I-1.42405 J-0.47127
G3 X-24.52192 Y239.6337 I-3.14287 J-1.42765
G3 X-24.55902 Y239.64485 I-0.45014 J-1.43086
G2 X-25.12276 Y240.1817 I0.23121 J0.80721
G3 X-24.44275 Y241.36089 I-0.81794 J1.25736
G3 X-24.21086 Y241.33395 I0.28852 J1.47199
G3 X-24.07315 Y241.28325 I0.58645 J1.38061
G2 X-20.8904 Y238.45092 I-1.55113 J-4.94746
G2 X-22.6928 Y229.18396 I-8.36061 J-3.18265
G3 X-22.73922 Y229.13152 I1.09965 J-1.02019
G2 X-24.8958 Y227.59403 I-4.08633 J3.45052
G1 F300.0 X-25.11229 Y228.15361
G1 Z-6.0
G2 F800.0 X-27.05714 Y227.8394 I-1.71326 J4.42842
G3 X-27.09896 Y227.84102 I-0.10242 J-2.0975
G2 X-32.72882 Y232.40786 I0.17224 J5.96591
G3 X-32.75587 Y232.50893 I-2.04149 J-0.49227
G2 X-31.50024 Y240.91385 I9.67766 J2.85047
G3 X-31.49917 Y240.91547 I-1.75307 J1.15617
G2 X-26.27914 Y244.02049 I5.80696 J-3.82207
G3 X-26.24374 Y244.02379 I-0.1773 J2.0925
G2 X-25.97557 Y243.8782 I0.02741 J-0.26929
G3 X-26.0253 Y243.78633 I1.82135 J-1.04532
G3 X-27.22608 Y243.57107 I-0.21065 J-2.28175
G3 X-27.86953 Y243.0929 I0.90636 J-1.89168
G3 X-32.28376 Y237.83707 I2.54186 J-6.61646
G3 X-31.22993 Y230.49759 I8.22842 J-2.56392
G3 X-31.1636 Y230.40363 I1.74615 J1.16227
G3 X-23.19826 Y230.32828 I4.01141 J2.99989
G3 X-21.78927 Y237.80717 I-6.04706 J5.01141
G3 X-21.87085 Y238.01567 I-1.99138 J-0.65902
G3 X-24.26432 Y240.17826 I-3.68697 J-1.6748
G3 X-24.00708 Y240.62603 I-1.67639 J1.26081
G2 X-21.44505 Y238.22141 I-1.61719 J-4.29024
G2 X-23.13266 Y229.59203 I-7.80595 J-2.95314
G3 X-23.19765 Y229.51861 I1.5395 J-1.42826
G2 X-25.11229 Y228.15361 I-3.6279 J3.06342
G1 F300.0 X-24.8958 Y227.59403
G2 F800.0 X-27.0864 Y227.24011 I-1.92975 J4.98801
G3 X-27.11627 Y227.24127 I-0.07316 J-1.49821
G2 X-33.31211 Y232.26722 I0.18955 J6.56566
G3 X-33.33143 Y232.33941 I-1.45821 J-0.35162
G2 X-32.00111 Y241.24418 I10.25322 J3.02
G3 X-32.00035 Y241.24534 I-1.25219 J0.82584
G2 X-26.32979 Y244.61835 I6.30815 J-4.15194
G3 X-26.30451 Y244.6207 I-0.12664 J1.49464
G2 X-25.34571 Y243.74411 I0.08818 J-0.8662
G3 X-25.63249 Y243.08729 I1.19149 J-0.91124
G3 X-26.96786 Y243.03214 I-0.60346 J-1.58271
G3 X-27.51351 Y242.58761 I0.64814 J-1.35274
G3 X-31.70343 Y237.6905 I2.18585 J-6.11116
G3 X-30.73246 Y230.82872 I7.64808 J-2.41735
G3 X-30.68502 Y230.76153 I1.24868 J0.83115
G3 X-23.66437 Y230.70239 I3.53283 J2.64199
G3 X-22.35661 Y237.61942 I-5.58095 J4.63729
G3 X-22.41495 Y237.76852 I-1.42405 J-0.47127
G3 X-24.52192 Y239.6337 I-3.14287 J-1.42765
G3 X-24.55902 Y239.64485 I-0.45014 J-1.43086
G2 X-25.12276 Y240.1817 I0.23121 J0.80721
G3 X-24.44275 Y241.36089 I-0.81794 J1.25736
G3 X-24.21086 Y241.33395 I0.28852 J1.47199
G3 X-24.07315 Y241.28325 I0.58645 J1.38061
G2 X-20.8904 Y238.45092 I-1.55113 J-4.94746
G2 X-22.6928 Y229.18396 I-8.36061 J-3.18265
G3 X-22.73922 Y229.13152 I1.09965 J-1.02019
G2 X-24.8958 Y227.59403 I-4.08633 J3.45052
G0 Z3.0
G0 X-13.98232 Y236.42924
G0 Z1.0
G1 F300.0 Z-2.0
G3 F800.0 X-12.85975 Y237.73712 I-1.38036 J2.32047
G3 X-11.94611 Y236.92493 I2.2041 J1.55947
G3 X-13.06273 Y235.61721 I1.38811 J-2.31585
G3 X-13.98232 Y236.42924 I-2.20022 J-1.56494
G1 F300.0 X-14.59582 Y237.46056
G3 F800.0 X-13.86433 Y238.81998 I-0.76687 J1.28915
G2 X-12.95144 Y252.04447 I57.30827 J2.68775
G2 X-11.26023 Y255.36088 I6.58525 J-1.26875
G3 X-11.23864 Y255.38442 I-1.09464 J1.02555
G2 X-6.55045 Y256.00039 I2.70341 J-2.42676
G2 X-3.29113 Y251.42922 I-4.6721 J-6.77884
G3 X-3.27374 Y251.37129 I1.44507 J0.40223
G2 X-2.53289 Y248.10054 I-17.94635 J-5.78426
G3 X-2.51155 Y247.97958 I1.48661 J0.19996
G2 X-3.25778 Y247.12047 I-0.69293 J-0.15176
G3 X-3.41738 Y247.12398 I-0.11271 J-1.49576
G2 X-4.22784 Y247.76659 I-0.02504 J0.80079
G3 X-5.78644 Y252.76044 I-13.32916 J-1.41993
G3 X-8.13661 Y254.82159 I-3.34528 J-1.44393
G3 X-9.44226 Y254.58161 I-0.40967 J-1.44297
G3 X-11.29748 Y251.46531 I2.82392 J-3.79154
G3 X-12.15478 Y239.24544 I58.02812 J-10.21102
G3 X-10.4537 Y237.81024 I1.49913 J0.05114
G1 X-3.2662 Y238.7868
G3 X-3.23752 Y238.79098 I-0.20195 J1.48634
G2 X-2.25938 Y238.06092 I0.13137 J-0.84428
G3 X-2.25889 Y238.05733 I1.48654 J0.20051
G2 X-2.96875 Y237.11084 I-0.83331 J-0.11445
G1 X-10.75185 Y236.09651
G3 X-12.05723 Y234.5613 I0.19385 J-1.48742
G2 X-11.86241 Y228.24954 I-3130.2497 J-99.77821
G2 X-13.58943 Y228.25761 I-0.86355 J-0.00537
G3 X-13.58932 Y228.26587 I-1.49982 J0.02335
G3 X-13.76665 Y234.15754 I-73.41724 J0.73884
G3 X-15.19432 Y235.55069 I-1.4963 J-0.10527
G2 X-15.31028 Y237.25063 I0.03923 J0.8566
G3 X-14.59582 Y237.46056 I-0.0524 J1.49908
G1 F300.0 X-13.98232 Y236.42924
G1 Z-4.0
G3 F800.0 X-12.85975 Y237.73712 I-1.38036 J2.32047
G3 X-11.94611 Y236.92493 I2.2041 J1.55947
G3 X-13.06273 Y235.61721 I1.38811 J-2.31585
G3 X-13.98232 Y236.42924 I-2.20022 J-1.56494
G1 F300.0 X-14.59582 Y237.46056
G3 F800.0 X-13.86433 Y238.81998 I-0.76687 J1.28915
G2 X-12.95144 Y252.04447 I57.30827 J2.68775
G2 X-11.26023 Y255.36088 I6.58525 J-1.26875
G3 X-11.23864 Y255.38442 I-1.09464 J1.02555
G2 X-6.55045 Y256.00039 I2.70341 J-2.42676
G2 X-3.29113 Y251.42922 I-4.6721 J-6.77884
G3 X-3.27374 Y251.37129 I1.44507 J0.40223
G2 X-2.53289 Y248.10054 I-17.94635 J-5.78426
G3 X-2.51155 Y247.97958 I1.48661 J0.19996
G2 X-3.25778 Y247.12047 I-0.69293 J-0.15176
G3 X-3.41738 Y247.12398 I-0.11271 J-1.49576
G2 X-4.22784 Y247.76659 I-0.02504 J0.80079
G3 X-5.78644 Y252.76044 I-13.32916 J-1.41993
G3 X-8.13661 Y254.82159 I-3.34528 J-1.44393
G3 X-9.44226 Y254.58161 I-0.40967 J-1.44297
G3 X-11.29748 Y251.46531 I2.82392 J-3.79154
G3 X-12.15478 Y239.24544 I58.02812 J-10.21102
G3 X-10.4537 Y237.81024 I1.49913 J0.05114
G1 X-3.2662 Y238.7868
G3 X-3.23752 Y238.79098 I-0.20195 J1.48634
G2 X-2.25938 Y238.06092 I0.13137 J-0.84428
G3 X-2.25889 Y238.05733 I1.48654 J0.20051
G2 X-2.96875 Y237.11084 I-0.83331 J-0.11445
G1 X-10.75185 Y236.09651
G3 X-12.05723 Y234.5613 I0.19385 J-1.48742
G2 X-11.86241 Y228.24954 I-3130.2497 J-99.77821
G2 X-13.58943 Y228.25761 I-0.86355 J-0.00537
G3 X-13.58932 Y228.26587 I-1.49982 J0.02335
G3 X-13.76665 Y234.15754 I-73.41724 J0.73884
G3 X-15.19432 Y235.55069 I-1.4963 J-0.10527
G2 X-15.31028 Y237.25063 I0.03923 J0.8566
G3 X-14.59582 Y237.46056 I-0.0524 J1.49908
G1 F300.0 X-13.98232 Y236.42924
G1 Z-6.0
G3 F800.0 X-12.85975 Y237.73712 I-1.38036 J2.32047
G3 X-11.94611 Y236.92493 I2.2041 J1.55947
G3 X-13.06273 Y235.61721 I1.38811 J-2.31585
G3 X-13.98232 Y236.42924 I-2.20022 J-1.56494
G1 F300.0 X-14.59582 Y237.46056
G3 F800.0 X-13.86433 Y238.81998 I-0.76687 J1.28915
G2 X-12.95144 Y252.04447 I57.30827 J2.68775
G2 X-11.26023 Y255.36088 I6.58525 J-1.26875
G3 X-11.23864 Y255.38442 I-1.09464 J1.02555
G2 X-6.55045 Y256.00039 I2.70341 J-2.42676
G2 X-3.29113 Y251.42922 I-4.6721 J-6.77884
G3 X-3.27374 Y251.37129 I1.44507 J0.40223
G2 X-2.53289 Y248.10054 I-17.94635 J-5.78426
G3 X-2.51155 Y247.97958 I1.48661 J0.19996
G2 X-3.25778 Y247.12047 I-0.69293 J-0.15176
G3 X-3.41738 Y247.12398 I-0.11271 J-1.49576
G2 X-4.22784 Y247.76659 I-0.02504 J0.80079
G3 X-5.78644 Y252.76044 I-13.32916 J-1.41993
G3 X-8.13661 Y254.82159 I-3.34528 J-1.44393
G3 X-9.44226 Y254.58161 I-0.40967 J-1.44297
G3 X-11.29748 Y251.46531 I2.82392 J-3.79154
G3 X-12.15478 Y239.24544 I58.02812 J-10.21102
G3 X-10.4537 Y237.81024 I1.49913 J0.05114
G1 X-3.2662 Y238.7868
G3 X-3.23752 Y238.79098 I-0.20195 J1.48634
G2 X-2.25938 Y238.06092 I0.13137 J-0.84428
G3 X-2.25889 Y238.05733 I1.48654 J0.20051
G2 X-2.96875 Y237.11084 I-0.83331 J-0.11445
G1 X-10.75185 Y236.09651
G3 X-12.05723 Y234.5613 I0.19385 J-1.48742
G2 X-11.86241 Y228.24954 I-3130.2497 J-99.77821
G2 X-13.58943 Y228.25761 I-0.86355 J-0.00537
G3 X-13.58932 Y228.26587 I-1.49982 J0.02335
G3 X-13.76665 Y234.15754 I-73.41724 J0.73884
G3 X-15.19432 Y235.55069 I-1.4963 J-0.10527
G2 X-15.31028 Y237.25063 I0.03923 J0.8566
G3 X-14.59582 Y237.46056 I-0.0524 J1.49908
G0 Z3.0
G0 X-23.57683 Y249.21463
G0 Z1.0
G1 F300.0 Z-2.0
G2 F800.0 X-23.54673 Y249.66703 I-0.1829 J0.23937
G3 X-23.49918 Y249.62097 I1.48482 J1.48503
G2 X-23.45852 Y249.52495 I-0.08823 J-0.09399
G3 Y249.45875 I2.09974 J-0.03305
G2 X-23.57683 Y249.21463 I-0.30121 J-0.00475
G1 F300.0 X-23.21255 Y248.73787
G2 F800.0 X-23.12249 Y250.09132 I-0.54718 J0.71613
G3 X-23.08853 Y250.05842 I1.06059 J1.06073
G2 X-22.85859 Y249.51551 I-0.49888 J-0.53144
G3 Y249.46822 I1.49981 J-0.02361
G2 X-23.21255 Y248.73787 I-0.90113 J-0.01422
G1 F300.0 X-23.57683 Y249.21463
G1 Z-4.0
G2 F800.0 X-23.54673 Y249.66703 I-0.1829 J0.23937
G3 X-23.49918 Y249.62097 I1.48482 J1.48503
G2 X-23.45852 Y249.52495 I-0.08823 J-0.09399
G3 Y249.45875 I2.09974 J-0.03305
G2 X-23.57683 Y249.21463 I-0.30121 J-0.00475
G1 F300.0 X-23.21255 Y248.73787
G2 F800.0 X-23.12249 Y250.09132 I-0.54718 J0.71613
G3 X-23.08853 Y250.05842 I1.06059 J1.06073
G2 X-22.85859 Y249.51551 I-0.49888 J-0.53144
G3 Y249.46822 I1.49981 J-0.02361
G2 X-23.21255 Y248.73787 I-0.90113 J-0.01422
G1 F300.0 X-23.57683 Y249.21463
G1 Z-6.0
G2 F800.0 X-23.54673 Y249.66703 I-0.1829 J0.23937
G3 X-23.49918 Y249.62097 I1.48482 J1.48503
G2 X-23.45852 Y249.52495 I-0.08823 J-0.09399
G3 Y249.45875 I2.09974 J-0.03305
G2 X-23.57683 Y249.21463 I-0.30121 J-0.00475
G1 F300.0 X-23.21255 Y248.73787
G2 F800.0 X-23.12249 Y250.09132 I-0.54718 J0.71613
G3 X-23.08853 Y250.05842 I1.06059 J1.06073
G2 X-22.85859 Y249.51551 I-0.49888 J-0.53144
G3 Y249.46822 I1.49981 J-0.02361
G2 X-23.21255 Y248.73787 I-0.90113 J-0.01422
G0 Z3.0
G0 X-28.94886 Y249.41851
G0 Z1.0
G1 F300.0 Z-2.0
G2 F800.0 X-29.03501 Y249.66703 I-0.29915 J0.0355
G3 X-28.98746 Y249.62097 I1.48482 J1.48503
G2 X-28.9468 Y249.52495 I-0.08823 J-0.09399
G3 Y249.45875 I2.09974 J-0.03305
G2 X-28.94886 Y249.41851 I-0.30121 J-0.00475
G1 F300.0 X-28.35304 Y249.34781
G2 F800.0 X-28.61077 Y250.09132 I-0.89497 J0.10619
G3 X-28.57681 Y250.05842 I1.06059 J1.06073
G2 X-28.34687 Y249.51551 I-0.49888 J-0.53144
G3 Y249.46822 I1.49981 J-0.02361
G2 X-28.35304 Y249.34781 I-0.90113 J-0.01422
G1 F300.0 X-28.94886 Y249.41851
G1 Z-4.0
G2 F800.0 X-29.03501 Y249.66703 I-0.29915 J0.0355
G3 X-28.98746 Y249.62097 I1.48482 J1.48503
G2 X-28.9468 Y249.52495 I-0.08823 J-0.09399
G3 Y249.45875 I2.09974 J-0.03305
G2 X-28.94886 Y249.41851 I-0.30121 J-0.00475
G1 F300.0 X-28.35304 Y249.34781
G2 F800.0 X-28.61077 Y250.09132 I-0.89497 J0.10619
G3 X-28.57681 Y250.05842 I1.06059 J1.06073
G2 X-28.34687 Y249.51551 I-0.49888 J-0.53144
G3 Y249.46822 I1.49981 J-0.02361
G2 X-28.35304 Y249.34781 I-0.90113 J-0.01422
G1 F300.0 X-28.94886 Y249.41851
G1 Z-6.0
G2 F800.0 X-29.03501 Y249.66703 I-0.29915 J0.0355
G3 X-28.98746 Y249.62097 I1.48482 J1.48503
G2 X-28.9468 Y249.52495 I-0.08823 J-0.09399
G3 Y249.45875 I2.09974 J-0.03305
G2 X-28.94886 Y249.41851 I-0.30121 J-0.00475
G1 F300.0 X-28.35304 Y249.34781
G2 F800.0 X-28.61077 Y250.09132 I-0.89497 J0.10619
G3 X-28.57681 Y250.05842 I1.06059 J1.06073
G2 X-28.34687 Y249.51551 I-0.49888 J-0.53144
G3 Y249.46822 I1.49981 J-0.02361
G2 X-28.35304 Y249.34781 I-0.90113 J-0.01422
G0 Z3.0
G0 X-47.58767 Y240.87006
G0 Z1.0
G1 F300.0 Z-2.0
G3 F800.0 X-47.97936 Y240.0053 I9.20574 J-4.69079
G3 X-47.96174 Y241.02772 I-580.01714 J10.50264
G3 X-47.58767 Y240.87006 I1.46625 J2.95637
G1 F300.0 X-47.38909 Y241.43624
G3 F800.0 X-46.6643 Y241.28937 I0.89359 J2.54784
G3 X-47.50242 Y239.57448 I8.28237 J-5.1101
G3 X-47.51979 Y239.52641 I2.53036 J-0.94196
G3 X-48.67821 Y235.51657 I35.05692 J-12.29998
G3 X-48.54348 Y242.2246 I-579.31828 J14.99137
G3 X-47.38909 Y241.43624 I2.04798 J1.75948
G1 F300.0 X-46.99194 Y242.56862
G3 F800.0 X-45.0277 Y243.67494 I0.49644 J1.41547
G2 X-42.68898 Y244.75446 I2.12972 J-1.54081
G3 X-42.60181 Y244.75005 I0.11926 J1.49525
G2 X-38.33487 Y241.47745 I-0.09727 J-4.54482
G3 X-38.29879 Y241.36918 I1.44006 J0.41979
G2 X-37.65918 Y239.04989 I-12.43636 J-4.6775
G3 X-37.63723 Y238.94842 I1.47619 J0.26623
G2 X-39.29622 Y238.6813 I-0.81771 J-0.20675
G3 X-39.31721 Y238.84578 I-1.49615 J-0.10737
G3 X-40.5356 Y241.98548 I-8.86392 J-1.63347
G3 X-40.65404 Y242.14944 I-1.27239 J-0.79437
G3 X-44.27176 Y242.35211 I-1.90308 J-1.58044
G3 X-46.37781 Y239.15583 I5.88984 J-6.17284
G3 X-46.38747 Y239.12913 I1.40576 J-0.52331
G3 X-48.40336 Y228.13959 I33.9246 J-11.9027
G2 X-49.28771 Y227.35908 I-0.9144 J0.1448
G2 X-50.11378 Y228.22373 I0.00675 J0.83337
G3 X-49.72216 Y243.88879 I-577.88272 J22.28421
G3 X-49.72214 Y243.89064 I-1.4999 J0.01717
G2 X-47.99409 Y243.9192 I0.8644 J-0.00883
G3 X-46.99194 Y242.56862 I1.4986 J0.06488
G1 F300.0 X-47.58767 Y240.87006
G1 Z-4.0
G3 F800.0 X-47.97936 Y240.0053 I9.20574 J-4.69079
G3 X-47.96174 Y241.02772 I-580.01714 J10.50264
G3 X-47.58767 Y240.87006 I1.46625 J2.95637
G1 F300.0 X-47.38909 Y241.43624
G3 F800.0 X-46.6643 Y241.28937 I0.89359 J2.54784
G3 X-47.50242 Y239.57448 I8.28237 J-5.1101
G3 X-47.51979 Y239.52641 I2.53036 J-0.94196
G3 X-48.67821 Y235.51657 I35.05692 J-12.29998
G3 X-48.54348 Y242.2246 I-579.31828 J14.99137
G3 X-47.38909 Y241.43624 I2.04798 J1.75948
G1 F300.0 X-46.99194 Y242.56862
G3 F800.0 X-45.0277 Y243.67494 I0.49644 J1.41547
G2 X-42.68898 Y244.75446 I2.12972 J-1.54081
G3 X-42.60181 Y244.75005 I0.11926 J1.49525
G2 X-38.33487 Y241.47745 I-0.09727 J-4.54482
G3 X-38.29879 Y241.36918 I1.44006 J0.41979
G2 X-37.65918 Y239.04989 I-12.43636 J-4.6775
G3 X-37.63723 Y238.94842 I1.47619 J0.26623
G2 X-39.29622 Y238.6813 I-0.81771 J-0.20675
G3 X-39.31721 Y238.84578 I-1.49615 J-0.10737
G3 X-40.5356 Y241.98548 I-8.86392 J-1.63347
G3 X-40.65404 Y242.14944 I-1.27239 J-0.79437
G3 X-44.27176 Y242.35211 I-1.90308 J-1.58044
G3 X-46.37781 Y239.15583 I5.88984 J-6.17284
G3 X-46.38747 Y239.12913 I1.40576 J-0.52331
G3 X-48.40336 Y228.13959 I33.9246 J-11.9027
G2 X-49.28771 Y227.35908 I-0.9144 J0.1448
G2 X-50.11378 Y228.22373 I0.00675 J0.83337
G3 X-49.72216 Y243.88879 I-577.88272 J22.28421
G3 X-49.72214 Y243.89064 I-1.4999 J0.01717
G2 X-47.99409 Y243.9192 I0.8644 J-0.00883
G3 X-46.99194 Y242.56862 I1.4986 J0.06488
G1 F300.0 X-47.58767 Y240.87006
G1 Z-6.0
G3 F800.0 X-47.97936 Y240.0053 I9.20574 J-4.69079
G3 X-47.96174 Y241.02772 I-580.01714 J10.50264
G3 X-47.58767 Y240.87006 I1.46625 J2.95637
G1 F300.0 X-47.38909 Y241.43624
G3 F800.0 X-46.6643 Y241.28937 I0.89359 J2.54784
G3 X-47.50242 Y239.57448 I8.28237 J-5.1101
G3 X-47.51979 Y239.52641 I2.53036 J-0.94196
G3 X-48.67821 Y235.51657 I35.05692 J-12.29998
G3 X-48.54348 Y242.2246 I-579.31828 J14.99137
G3 X-47.38909 Y241.43624 I2.04798 J1.75948
G1 F300.0 X-46.99194 Y242.56862
G3 F800.0 X-45.0277 Y243.67494 I0.49644 J1.41547
G2 X-42.68898 Y244.75446 I2.12972 J-1.54081
G3 X-42.60181 Y244.75005 I0.11926 J1.49525
G2 X-38.33487 Y241.47745 I-0.09727 J-4.54482
G3 X-38.29879 Y241.36918 I1.44006 J0.41979
G2 X-37.65918 Y239.04989 I-12.43636 J-4.6775
G3 X-37.63723 Y238.94842 I1.47619 J0.26623
G2 X-39.29622 Y238.6813 I-0.81771 J-0.20675
G3 X-39.31721 Y238.84578 I-1.49615 J-0.10737
G3 X-40.5356 Y241.98548 I-8.86392 J-1.63347
G3 X-40.65404 Y242.14944 I-1.27239 J-0.79437
G3 X-44.27176 Y242.35211 I-1.90308 J-1.58044
G3 X-46.37781 Y239.15583 I5.88984 J-6.17284
G3 X-46.38747 Y239.12913 I1.40576 J-0.52331
G3 X-48.40336 Y228.13959 I33.9246 J-11.9027
G2 X-49.28771 Y227.35908 I-0.9144 J0.1448
G2 X-50.11378 Y228.22373 I0.00675 J0.83337
G3 X-49.72216 Y243.88879 I-577.88272 J22.28421
G3 X-49.72214 Y243.89064 I-1.4999 J0.01717
G2 X-47.99409 Y243.9192 I0.8644 J-0.00883
G3 X-46.99194 Y242.56862 I1.4986 J0.06488
G0 Z3.0
G0 X-70.66377 Y239.02017
G0 Z1.0
G1 F300.0 Z-2.0
G3 F800.0 X-71.12359 Y238.61988 I1.53156 J-2.22359
G2 X-71.13191 Y239.43777 I304.03937 J3.49916
G3 X-70.66377 Y239.02017 I2.01922 J1.79241
G1 F300.0 X-69.98308 Y238.03191
G3 F800.0 X-70.63221 Y236.79466 I0.85086 J-1.23533
G3 X-70.45408 Y230.57977 I113.57992 J0.14548
G3 X-69.00872 Y229.16468 I1.49765 J0.084
G3 X-55.95744 Y229.92302 I2.45617 J70.41695
G3 X-55.95445 Y229.92347 I-0.22556 J1.48294
G2 X-54.98782 Y229.26768 I0.13068 J-0.84768
G2 X-56.20902 Y228.13943 I-1.18017 J0.05237
G3 X-56.46163 Y228.12687 I-0.0521 J-1.49909
G2 X-67.7956 Y227.39812 I-10.87371 J80.61384
G3 X-67.94799 Y227.39123 I-0.00849 J-1.49998
G2 X-71.49269 Y228.15675 I-0.57239 J5.93911
G2 X-72.08536 Y229.52327 I1.25718 J1.35703
G3 X-72.0866 Y229.59251 I-1.49998 J0.00769
G2 X-72.20322 Y251.37998 I305.00238 J12.52653
G3 X-72.20924 Y251.5672 I-1.49931 J0.04551
G2 X-71.80983 Y253.51488 I3.38302 J0.32105
G2 X-70.2172 Y254.18708 I1.78276 J-2.00108
G3 X-70.18231 Y254.18997 I-0.10642 J1.49622
G2 X-59.22808 Y254.49763 I7.79504 J-82.37747
G3 X-57.00991 Y254.43709 I1.95134 J30.83086
G2 X-57.01935 Y252.72977 I-0.0227 J-0.85356
G3 X-69.12898 Y252.6461 I-5.547 J-73.53547
G3 X-70.49451 Y251.20635 I0.13349 J-1.49405
G3 X-70.61256 Y241.2113 I204.73265 J-7.41633
G3 X-68.32867 Y239.95138 I1.49988 J0.01888
G3 X-57.02585 Y240.28704 I3.69908 J65.91035
G3 X-56.9629 Y240.29569 I-0.17278 J1.49002
G2 X-56.64717 Y238.63824 I0.13264 J-0.83353
G2 X-69.10618 Y238.29636 I-10.04323 J138.8096
G3 X-69.98308 Y238.03191 I-0.02604 J-1.49977
G1 F300.0 X-70.66377 Y239.02017
G1 Z-4.0
G3 F800.0 X-71.12359 Y238.61988 I1.53156 J-2.22359
G2 X-71.13191 Y239.43777 I304.03937 J3.49916
G3 X-70.66377 Y239.02017 I2.01922 J1.79241
G1 F300.0 X-69.98308 Y238.03191
G3 F800.0 X-70.63221 Y236.79466 I0.85086 J-1.23533
G3 X-70.45408 Y230.57977 I113.57992 J0.14548
G3 X-69.00872 Y229.16468 I1.49765 J0.084
G3 X-55.95744 Y229.92302 I2.45617 J70.41695
G3 X-55.95445 Y229.92347 I-0.22556 J1.48294
G2 X-54.98782 Y229.26768 I0.13068 J-0.84768
G2 X-56.20902 Y228.13943 I-1.18017 J0.05237
G3 X-56.46163 Y228.12687 I-0.0521 J-1.49909
G2 X-67.7956 Y227.39812 I-10.87371 J80.61384
G3 X-67.94799 Y227.39123 I-0.00849 J-1.49998
G2 X-71.49269 Y228.15675 I-0.57239 J5.93911
G2 X-72.08536 Y229.52327 I1.25718 J1.35703
G3 X-72.0866 Y229.59251 I-1.49998 J0.00769
G2 X-72.20322 Y251.37998 I305.00238 J12.52653
G3 X-72.20924 Y251.5672 I-1.49931 J0.04551
G2 X-71.80983 Y253.51488 I3.38302 J0.32105
G2 X-70.2172 Y254.18708 I1.78276 J-2.00108
G3 X-70.18231 Y254.18997 I-0.10642 J1.49622
G2 X-59.22808 Y254.49763 I7.79504 J-82.37747
G3 X-57.00991 Y254.43709 I1.95134 J30.83086
G2 X-57.01935 Y252.72977 I-0.0227 J-0.85356
G3 X-69.12898 Y252.6461 I-5.547 J-73.53547
G3 X-70.49451 Y251.20635 I0.13349 J-1.49405
G3 X-70.61256 Y241.2113 I204.73265 J-7.41633
G3 X-68.32867 Y239.95138 I1.49988 J0.01888
G3 X-57.02585 Y240.28704 I3.69908 J65.91035
G3 X-56.9629 Y240.29569 I-0.17278 J1.49002
G2 X-56.64717 Y238.63824 I0.13264 J-0.83353
G2 X-69.10618 Y238.29636 I-10.04323 J138.8096
G3 X-69.98308 Y238.03191 I-0.02604 J-1.49977
G1 F300.0 X-70.66377 Y239.02017
G1 Z-6.0
G3 F800.0 X-71.12359 Y238.61988 I1.53156 J-2.22359
G2 X-71.13191 Y239.43777 I304.03937 J3.49916
G3 X-70.66377 Y239.02017 I2.01922 J1.79241
G1 F300.0 X-69.98308 Y238.03191
G3 F800.0 X-70.63221 Y236.79466 I0.85086 J-1.23533
G3 X-70.45408 Y230.57977 I113.57992 J0.14548
G3 X-69.00872 Y229.16468 I1.49765 J0.084
G3 X-55.95744 Y229.92302 I2.45617 J70.41695
G3 X-55.95445 Y229.92347 I-0.22556 J1.48294
G2 X-54.98782 Y229.26768 I0.13068 J-0.84768
G2 X-56.20902 Y228.13943 I-1.18017 J0.05237
G3 X-56.46163 Y228.12687 I-0.0521 J-1.49909
G2 X-67.7956 Y227.39812 I-10.87371 J80.61384
G3 X-67.94799 Y227.39123 I-0.00849 J-1.49998
G2 X-71.49269 Y228.15675 I-0.57239 J5.93911
G2 X-72.08536 Y229.52327 I1.25718 J1.35703
G3 X-72.0866 Y229.59251 I-1.49998 J0.00769
G2 X-72.20322 Y251.37998 I305.00238 J12.52653
G3 X-72.20924 Y251.5672 I-1.49931 J0.04551
G2 X-71.80983 Y253.51488 I3.38302 J0.32105
G2 X-70.2172 Y254.18708 I1.78276 J-2.00108
G3 X-70.18231 Y254.18997 I-0.10642 J1.49622
G2 X-59.22808 Y254.49763 I7.79504 J-82.37747
G3 X-57.00991 Y254.43709 I1.95134 J30.83086
G2 X-57.01935 Y252.72977 I-0.0227 J-0.85356
G3 X-69.12898 Y252.6461 I-5.547 J-73.53547
G3 X-70.49451 Y251.20635 I0.13349 J-1.49405
G3 X-70.61256 Y241.2113 I204.73265 J-7.41633
G3 X-68.32867 Y239.95138 I1.49988 J0.01888
G3 X-57.02585 Y240.28704 I3.69908 J65.91035
G3 X-56.9629 Y240.29569 I-0.17278 J1.49002
G2 X-56.64717 Y238.63824 I0.13264 J-0.83353
G2 X-69.10618 Y238.29636 I-10.04323 J138.8096
G3 X-69.98308 Y238.03191 I-0.02604 J-1.49977
( TascheVereine )
G0 Z3.0
( T2 : 2.0 )
T2 M6
M3 S1000
G0 X-430.562 Y27.7271
G0 Z1.0
G1 F300.0 Z-1.0
G3 F800.0 X-429.37506 Y27.74742 I-0.65742 J73.09138
G3 X-429.88359 Y26.87373 I1.05774 J-1.20049
G3 X-430.562 Y27.7271 I-1.51674 J-0.50942
G1 F300.0 X-430.5656 Y28.12709
G3 F800.0 X-426.63822 Y28.26864 I-0.65382 J72.6914
G2 X-422.60293 Y28.17724 I-0.47437 J-110.05881
G2 X-422.65316 Y28.00353 I-0.13955 J-0.05376
G3 X-422.82492 Y27.84769 I0.7167 J-0.96246
G2 X-423.12117 Y27.70438 I-0.32594 J0.29592
G3 X-428.31859 Y27.74693 I-4.90074 J-281.21434
G3 X-429.51336 Y26.6444 I0.00127 J-1.2
G2 X-430.74958 Y15.43125 I-197.40092 J16.08827
G3 X-430.75763 Y15.35616 I1.18854 J-0.16542
G2 X-431.48872 Y14.50747 I-0.94057 J0.071
G2 X-431.5445 Y14.64861 I0.03452 J0.09523
G3 X-431.42293 Y15.04789 I-1.0697 J0.54382
G3 X-430.20582 Y26.24963 I-446.89398 J54.22374
G3 X-431.52051 Y27.55828 I-1.19451 J0.11468
G2 X-435.46198 Y27.67771 I-1.51612 J15.06175
G3 X-435.48525 Y27.68126 I-0.19226 J-1.1845
G2 X-435.55504 Y27.93409 I0.02014 J0.1416
G3 X-435.40429 Y28.07947 I-0.75447 J0.93315
G2 X-435.0772 Y28.22658 I0.32309 J-0.28118
G3 X-430.5656 Y28.12709 I3.85777 J72.59191
G1 F300.0 X-430.562 Y27.7271
G1 Z-2.0
G3 F800.0 X-429.37506 Y27.74742 I-0.65742 J73.09138
G3 X-429.88359 Y26.87373 I1.05774 J-1.20049
G3 X-430.562 Y27.7271 I-1.51674 J-0.50942
G1 F300.0 X-430.5656 Y28.12709
G3 F800.0 X-426.63822 Y28.26864 I-0.65382 J72.6914
G2 X-422.60293 Y28.17724 I-0.47437 J-110.05881
G2 X-422.65316 Y28.00353 I-0.13955 J-0.05376
G3 X-422.82492 Y27.84769 I0.7167 J-0.96246
G2 X-423.12117 Y27.70438 I-0.32594 J0.29592
G3 X-428.31859 Y27.74693 I-4.90074 J-281.21434
G3 X-429.51336 Y26.6444 I0.00127 J-1.2
G2 X-430.74958 Y15.43125 I-197.40092 J16.08827
G3 X-430.75763 Y15.35616 I1.18854 J-0.16542
G2 X-431.48872 Y14.50747 I-0.94057 J0.071
G2 X-431.5445 Y14.64861 I0.03452 J0.09523
G3 X-431.42293 Y15.04789 I-1.0697 J0.54382
G3 X-430.20582 Y26.24963 I-446.89398 J54.22374
G3 X-431.52051 Y27.55828 I-1.19451 J0.11468
G2 X-435.46198 Y27.67771 I-1.51612 J15.06175
G3 X-435.48525 Y27.68126 I-0.19226 J-1.1845
G2 X-435.55504 Y27.93409 I0.02014 J0.1416
G3 X-435.40429 Y28.07947 I-0.75447 J0.93315
G2 X-435.0772 Y28.22658 I0.32309 J-0.28118
G3 X-430.5656 Y28.12709 I3.85777 J72.59191
G1 F300.0 X-430.562 Y27.7271
G1 Z-3.0
G3 F800.0 X-429.37506 Y27.74742 I-0.65742 J73.09138
G3 X-429.88359 Y26.87373 I1.05774 J-1.20049
G3 X-430.562 Y27.7271 I-1.51674 J-0.50942
G1 F300.0 X-430.5656 Y28.12709
G3 F800.0 X-426.63822 Y28.26864 I-0.65382 J72.6914
G2 X-422.60293 Y28.17724 I-0.47437 J-110.05881
G2 X-422.65316 Y28.00353 I-0.13955 J-0.05376
G3 X-422.82492 Y27.84769 I0.7167 J-0.96246
G2 X-423.12117 Y27.70438 I-0.32594 J0.29592
G3 X-428.31859 Y27.74693 I-4.90074 J-281.21434
G3 X-429.51336 Y26.6444 I0.00127 J-1.2
G2 X-430.74958 Y15.43125 I-197.40092 J16.08827
G3 X-430.75763 Y15.35616 I1.18854 J-0.16542
G2 X-431.48872 Y14.50747 I-0.94057 J0.071
G2 X-431.5445 Y14.64861 I0.03452 J0.09523
G3 X-431.42293 Y15.04789 I-1.0697 J0.54382
G3 X-430.20582 Y26.24963 I-446.89398 J54.22374
G3 X-431.52051 Y27.55828 I-1.19451 J0.11468
G2 X-435.46198 Y27.67771 I-1.51612 J15.06175
G3 X-435.48525 Y27.68126 I-0.19226 J-1.1845
G2 X-435.55504 Y27.93409 I0.02014 J0.1416
G3 X-435.40429 Y28.07947 I-0.75447 J0.93315
G2 X-435.0772 Y28.22658 I0.32309 J-0.28118
G3 X-430.5656 Y28.12709 I3.85777 J72.59191
G1 F300.0 X-430.562 Y27.7271
G1 Z-4.0
G3 F800.0 X-429.37506 Y27.74742 I-0.65742 J73.09138
G3 X-429.88359 Y26.87373 I1.05774 J-1.20049
G3 X-430.562 Y27.7271 I-1.51674 J-0.50942
G1 F300.0 X-430.5656 Y28.12709
G3 F800.0 X-426.63822 Y28.26864 I-0.65382 J72.6914
G2 X-422.60293 Y28.17724 I-0.47437 J-110.05881
G2 X-422.65316 Y28.00353 I-0.13955 J-0.05376
G3 X-422.82492 Y27.84769 I0.7167 J-0.96246
G2 X-423.12117 Y27.70438 I-0.32594 J0.29592
G3 X-428.31859 Y27.74693 I-4.90074 J-281.21434
G3 X-429.51336 Y26.6444 I0.00127 J-1.2
G2 X-430.74958 Y15.43125 I-197.40092 J16.08827
G3 X-430.75763 Y15.35616 I1.18854 J-0.16542
G2 X-431.48872 Y14.50747 I-0.94057 J0.071
G2 X-431.5445 Y14.64861 I0.03452 J0.09523
G3 X-431.42293 Y15.04789 I-1.0697 J0.54382
G3 X-430.20582 Y26.24963 I-446.89398 J54.22374
G3 X-431.52051 Y27.55828 I-1.19451 J0.11468
G2 X-435.46198 Y27.67771 I-1.51612 J15.06175
G3 X-435.48525 Y27.68126 I-0.19226 J-1.1845
G2 X-435.55504 Y27.93409 I0.02014 J0.1416
G3 X-435.40429 Y28.07947 I-0.75447 J0.93315
G2 X-435.0772 Y28.22658 I0.32309 J-0.28118
G3 X-430.5656 Y28.12709 I3.85777 J72.59191
G0 Z3.0
G0 X-419.13516 Y21.57431
G0 Z1.0
G1 F300.0 Z-1.0
G3 F800.0 X-418.99603 Y21.48592 I1.14108 J1.64254
G3 X-419.18592 Y21.26488 I11.99213 J-10.4944
G3 X-419.13516 Y21.57431 I-255.97628 J42.15631
G1 F300.0 X-418.67873 Y22.23132
G3 F800.0 X-417.15709 Y22.35694 I0.68465 J0.98553
G2 X-413.32535 Y23.47566 I2.97008 J-3.05142
G2 X-412.47195 Y22.15426 I-0.3725 J-1.17685
G3 X-412.48021 Y22.01761 I1.19174 J-0.14053
G2 X-412.50324 Y21.50368 I-6.19272 J0.02004
G3 X-412.90473 Y14.35878 I31.13519 J-5.33331
G2 X-413.4898 Y13.93406 I-0.54274 J0.13231
G3 X-413.49235 Y13.96019 I-1.19554 J-0.1034
G2 X-413.16922 Y19.655 I17.27879 J1.87616
G3 X-413.0751 Y21.99337 I-3.55634 J1.31421
G3 X-413.15979 Y22.21107 I-1.15539 J-0.32415
G3 X-414.69386 Y23.0819 I-1.423 J-0.72013
G3 X-414.73665 Y23.07815 I0.08357 J-1.19709
G3 X-418.34651 Y21.01309 I0.54413 J-5.13885
G3 X-419.61714 Y19.35768 I11.34261 J-10.02157
G3 X-419.81117 Y18.81378 I1.00002 J-0.6633
G2 X-420.67211 Y14.81605 I-18.12937 J1.81273
G3 X-420.71134 Y14.66932 I1.13734 J-0.38269
G2 X-421.35021 Y14.37153 I-0.42893 J0.08603
G2 X-421.34261 Y14.39979 I0.04055 J0.00425
G3 X-421.13376 Y14.88127 I-0.96983 J0.7067
G3 X-419.41497 Y24.95143 I-254.02844 J48.53992
G3 X-418.9021 Y28.88822 I-18.03108 J4.35079
G2 X-418.32079 Y29.39387 I0.52427 J-0.01575
G2 X-418.23712 Y29.08772 I-0.31405 J-0.25034
G3 X-418.23905 Y29.07336 I1.18836 J-0.16677
G2 X-419.16989 Y23.45656 I-76.58362 J9.80629
G3 X-418.67873 Y22.23132 I1.17581 J-0.23971
G1 F300.0 X-419.13516 Y21.57431
G1 Z-2.0
G3 F800.0 X-418.99603 Y21.48592 I1.14108 J1.64254
G3 X-419.18592 Y21.26488 I11.99213 J-10.4944
G3 X-419.13516 Y21.57431 I-255.97628 J42.15631
G1 F300.0 X-418.67873 Y22.23132
G3 F800.0 X-417.15709 Y22.35694 I0.68465 J0.98553
G2 X-413.32535 Y23.47566 I2.97008 J-3.05142
G2 X-412.47195 Y22.15426 I-0.3725 J-1.17685
G3 X-412.48021 Y22.01761 I1.19174 J-0.14053
G2 X-412.50324 Y21.50368 I-6.19272 J0.02004
G3 X-412.90473 Y14.35878 I31.13519 J-5.33331
G2 X-413.4898 Y13.93406 I-0.54274 J0.13231
G3 X-413.49235 Y13.96019 I-1.19554 J-0.1034
G2 X-413.16922 Y19.655 I17.27879 J1.87616
G3 X-413.0751 Y21.99337 I-3.55634 J1.31421
G3 X-413.15979 Y22.21107 I-1.15539 J-0.32415
G3 X-414.69386 Y23.0819 I-1.423 J-0.72013
G3 X-414.73665 Y23.07815 I0.08357 J-1.19709
G3 X-418.34651 Y21.01309 I0.54413 J-5.13885
G3 X-419.61714 Y19.35768 I11.34261 J-10.02157
G3 X-419.81117 Y18.81378 I1.00002 J-0.6633
G2 X-420.67211 Y14.81605 I-18.12937 J1.81273
G3 X-420.71134 Y14.66932 I1.13734 J-0.38269
G2 X-421.35021 Y14.37153 I-0.42893 J0.08603
G2 X-421.34261 Y14.39979 I0.04055 J0.00425
G3 X-421.13376 Y14.88127 I-0.96983 J0.7067
G3 X-419.41497 Y24.95143 I-254.02844 J48.53992
G3 X-418.9021 Y28.88822 I-18.03108 J4.35079
G2 X-418.32079 Y29.39387 I0.52427 J-0.01575
G2 X-418.23712 Y29.08772 I-0.31405 J-0.25034
G3 X-418.23905 Y29.07336 I1.18836 J-0.16677
G2 X-419.16989 Y23.45656 I-76.58362 J9.80629
G3 X-418.67873 Y22.23132 I1.17581 J-0.23971
G1 F300.0 X-419.13516 Y21.57431
G1 Z-3.0
G3 F800.0 X-418.99603 Y21.48592 I1.14108 J1.64254
G3 X-419.18592 Y21.26488 I11.99213 J-10.4944
G3 X-419.13516 Y21.57431 I-255.97628 J42.15631
G1 F300.0 X-418.67873 Y22.23132
G3 F800.0 X-417.15709 Y22.35694 I0.68465 J0.98553
G2 X-413.32535 Y23.47566 I2.97008 J-3.05142
G2 X-412.47195 Y22.15426 I-0.3725 J-1.17685
G3 X-412.48021 Y22.01761 I1.19174 J-0.14053
G2 X-412.50324 Y21.50368 I-6.19272 J0.02004
G3 X-412.90473 Y14.35878 I31.13519 J-5.33331
G2 X-413.4898 Y13.93406 I-0.54274 J0.13231
G3 X-413.49235 Y13.96019 I-1.19554 J-0.1034
G2 X-413.16922 Y19.655 I17.27879 J1.87616
G3 X-413.0751 Y21.99337 I-3.55634 J1.31421
G3 X-413.15979 Y22.21107 I-1.15539 J-0.32415
G3 X-414.69386 Y23.0819 I-1.423 J-0.72013
G3 X-414.73665 Y23.07815 I0.08357 J-1.19709
G3 X-418.34651 Y21.01309 I0.54413 J-5.13885
G3 X-419.61714 Y19.35768 I11.34261 J-10.02157
G3 X-419.81117 Y18.81378 I1.00002 J-0.6633
G2 X-420.67211 Y14.81605 I-18.12937 J1.81273
G3 X-420.71134 Y14.66932 I1.13734 J-0.38269
G2 X-421.35021 Y14.37153 I-0.42893 J0.08603
G2 X-421.34261 Y14.39979 I0.04055 J0.00425
G3 X-421.13376 Y14.88127 I-0.96983 J0.7067
G3 X-419.41497 Y24.95143 I-254.02844 J48.53992
G3 X-418.9021 Y28.88822 I-18.03108 J4.35079
G2 X-418.32079 Y29.39387 I0.52427 J-0.01575
G2 X-418.23712 Y29.08772 I-0.31405 J-0.25034
G3 X-418.23905 Y29.07336 I1.18836 J-0.16677
G2 X-419.16989 Y23.45656 I-76.58362 J9.80629
G3 X-418.67873 Y22.23132 I1.17581 J-0.23971
G1 F300.0 X-419.13516 Y21.57431
G1 Z-4.0
G3 F800.0 X-418.99603 Y21.48592 I1.14108 J1.64254
G3 X-419.18592 Y21.26488 I11.99213 J-10.4944
G3 X-419.13516 Y21.57431 I-255.97628 J42.15631
G1 F300.0 X-418.67873 Y22.23132
G3 F800.0 X-417.15709 Y22.35694 I0.68465 J0.98553
G2 X-413.32535 Y23.47566 I2.97008 J-3.05142
G2 X-412.47195 Y22.15426 I-0.3725 J-1.17685
G3 X-412.48021 Y22.01761 I1.19174 J-0.14053
G2 X-412.50324 Y21.50368 I-6.19272 J0.02004
G3 X-412.90473 Y14.35878 I31.13519 J-5.33331
G2 X-413.4898 Y13.93406 I-0.54274 J0.13231
G3 X-413.49235 Y13.96019 I-1.19554 J-0.1034
G2 X-413.16922 Y19.655 I17.27879 J1.87616
G3 X-413.0751 Y21.99337 I-3.55634 J1.31421
G3 X-413.15979 Y22.21107 I-1.15539 J-0.32415
G3 X-414.69386 Y23.0819 I-1.423 J-0.72013
G3 X-414.73665 Y23.07815 I0.08357 J-1.19709
G3 X-418.34651 Y21.01309 I0.54413 J-5.13885
G3 X-419.61714 Y19.35768 I11.34261 J-10.02157
G3 X-419.81117 Y18.81378 I1.00002 J-0.6633
G2 X-420.67211 Y14.81605 I-18.12937 J1.81273
G3 X-420.71134 Y14.66932 I1.13734 J-0.38269
G2 X-421.35021 Y14.37153 I-0.42893 J0.08603
G2 X-421.34261 Y14.39979 I0.04055 J0.00425
G3 X-421.13376 Y14.88127 I-0.96983 J0.7067
G3 X-419.41497 Y24.95143 I-254.02844 J48.53992
G3 X-418.9021 Y28.88822 I-18.03108 J4.35079
G2 X-418.32079 Y29.39387 I0.52427 J-0.01575
G2 X-418.23712 Y29.08772 I-0.31405 J-0.25034
G3 X-418.23905 Y29.07336 I1.18836 J-0.16677
G2 X-419.16989 Y23.45656 I-76.58362 J9.80629
G3 X-418.67873 Y22.23132 I1.17581 J-0.23971
G0 Z3.0
G0 X-408.47658 Y18.49956
G0 Z1.0
G1 F300.0 Z-1.0
G3 F800.0 X-408.04632 Y18.04492 I1.35359 J0.8501
G3 X-408.64316 Y17.51532 I0.72997 J-1.42378
G2 X-408.47658 Y18.49956 I6.57052 J-0.60587
G1 F300.0 X-408.1392 Y18.71145
G3 F800.0 X-406.72597 Y18.21724 I1.01621 J0.63821
G3 X-405.69973 Y18.59473 I-11.83585 J33.76003
G1 X-407.77788 Y17.72884
G3 X-408.10332 Y15.71523 I0.46154 J-1.10769
G3 X-401.44951 Y15.05121 I3.79613 J4.36987
G3 X-401.22791 Y15.21309 I-0.59242 J1.04357
G2 X-400.95708 Y15.37845 I0.54887 J-0.59449
G2 X-404.90252 Y14.10149 I-3.56181 J4.27133
G3 X-405.04886 Y14.10266 I-0.08277 J-1.19714
G2 X-408.16005 Y14.97613 I-0.26671 J5.02763
G2 X-409.07119 Y16.96565 I1.52899 J1.90362
G3 X-409.07053 Y16.99346 I-1.19926 J0.04222
G2 X-405.66177 Y22.91743 I6.99789 J-0.084
