( Made using CamBam - http://www.cambam.co.uk )
( Tafel-Hof-rechts-oben 12/1/2017 4:23:16 PM )
( T1 : 1.0 )
G21 G90 G64 G40
G0 Z3.0
( T1 : 1.0 )
T1 M6
( Profil-Elipse )
G17
M3 S1000
G0 X0.5 Y0.5
G0 Z1.0
G1 F300.0 Z-2.0
G1 F800.0 Y149.49056
G1 X10.97184 Y149.29469
G1 X21.91353 Y148.6796
G1 X32.795 Y147.65633
G1 X43.58636 Y146.22772
G1 X54.25796 Y144.3977
G1 X64.78047 Y142.17134
G1 X75.12498 Y139.55478
G1 X85.26308 Y136.55525
G1 X95.16691 Y133.18105
G1 X104.80927 Y129.44149
G1 X114.16368 Y125.34693
G1 X123.20446 Y120.90868
G1 X131.90679 Y116.13901
G1 X140.2468 Y111.05112
G1 X148.20163 Y105.65909
G1 X155.74948 Y99.97782
G1 X162.8697 Y94.02303
G1 X169.54281 Y87.81119
G1 X175.75063 Y81.35946
G1 X181.47623 Y74.68565
G1 X186.70405 Y67.80818
G1 X191.41995 Y60.74599
G1 X195.61117 Y53.51848
G1 X199.26644 Y46.14551
G1 X202.37597 Y38.64723
G1 X204.93144 Y31.04414
G1 X206.92608 Y23.35693
G1 X208.35459 Y15.60648
G1 X209.21321 Y7.81381
G1 X209.48133 Y0.5
G1 X0.5
G1 F300.0 Z-4.0
G1 F800.0 Y149.49056
G1 X10.97184 Y149.29469
G1 X21.91353 Y148.6796
G1 X32.795 Y147.65633
G1 X43.58636 Y146.22772
G1 X54.25796 Y144.3977
G1 X64.78047 Y142.17134
G1 X75.12498 Y139.55478
G1 X85.26308 Y136.55525
G1 X95.16691 Y133.18105
G1 X104.80927 Y129.44149
G1 X114.16368 Y125.34693
G1 X123.20446 Y120.90868
G1 X131.90679 Y116.13901
G1 X140.2468 Y111.05112
G1 X148.20163 Y105.65909
G1 X155.74948 Y99.97782
G1 X162.8697 Y94.02303
G1 X169.54281 Y87.81119
G1 X175.75063 Y81.35946
G1 X181.47623 Y74.68565
G1 X186.70405 Y67.80818
G1 X191.41995 Y60.74599
G1 X195.61117 Y53.51848
G1 X199.26644 Y46.14551
G1 X202.37597 Y38.64723
G1 X204.93144 Y31.04414
G1 X206.92608 Y23.35693
G1 X208.35459 Y15.60648
G1 X209.21321 Y7.81381
G1 X209.48133 Y0.5
G1 X0.5
G1 F300.0 Z-6.0
G1 F800.0 Y149.49056
G1 X10.97184 Y149.29469
G1 X21.91353 Y148.6796
G1 X32.795 Y147.65633
G1 X43.58636 Y146.22772
G1 X54.25796 Y144.3977
G1 X64.78047 Y142.17134
G1 X75.12498 Y139.55478
G1 X85.26308 Y136.55525
G1 X95.16691 Y133.18105
G1 X104.80927 Y129.44149
G1 X114.16368 Y125.34693
G1 X123.20446 Y120.90868
G1 X131.90679 Y116.13901
G1 X140.2468 Y111.05112
G1 X148.20163 Y105.65909
G1 X155.74948 Y99.97782
G1 X162.8697 Y94.02303
G1 X169.54281 Y87.81119
G1 X175.75063 Y81.35946
G1 X181.47623 Y74.68565
G1 X186.70405 Y67.80818
G1 X191.41995 Y60.74599
G1 X195.61117 Y53.51848
G1 X199.26644 Y46.14551
G1 X202.37597 Y38.64723
G1 X204.93144 Y31.04414
G1 X206.92608 Y23.35693
G1 X208.35459 Y15.60648
G1 X209.21321 Y7.81381
G1 X209.48133 Y0.5
G1 X0.5
G1 F300.0 Z-8.0
G1 F800.0 Y149.49056
G1 X10.97184 Y149.29469
G1 X21.91353 Y148.6796
G1 X32.795 Y147.65633
G1 X43.58636 Y146.22772
G1 X54.25796 Y144.3977
G1 X64.78047 Y142.17134
G1 X75.12498 Y139.55478
G1 X85.26308 Y136.55525
G1 X95.16691 Y133.18105
G1 X104.80927 Y129.44149
G1 X114.16368 Y125.34693
G1 X123.20446 Y120.90868
G1 X131.90679 Y116.13901
G1 X140.2468 Y111.05112
G1 X148.20163 Y105.65909
G1 X155.74948 Y99.97782
G1 X162.8697 Y94.02303
G1 X169.54281 Y87.81119
G1 X175.75063 Y81.35946
G1 X181.47623 Y74.68565
G1 X186.70405 Y67.80818
G1 X191.41995 Y60.74599
G1 X195.61117 Y53.51848
G1 X199.26644 Y46.14551
G1 X202.37597 Y38.64723
G1 X204.93144 Y31.04414
G1 X206.92608 Y23.35693
G1 X208.35459 Y15.60648
G1 X209.21321 Y7.81381
G1 X209.48133 Y0.5
G1 X0.5
G0 Z3.0
M5
M30
