( Made using CamBam - http://www.cambam.co.uk )
( Tafel-Hof-rechts-unten 1/3/2018 10:18:42 AM )
( T1 : 1.0 )
( T2 : 2.0 )
( T4 : 4.0 )
( T12 : 1.2 )
( T15 : 1.5 )
G21 G90 G64 G40
G0 Z3.0
( T4 : 4.0 )
T4 M6
( TascheHaseFuchs4 )
G17
M3 S1000
G0 X274.83798 Y-183.64581
G0 Z1.0
G1 F300.0 Z-2.0
G2 F800.0 X275.83002 Y-177.6823 I69.7339 J-8.53609
G3 X275.87149 Y-177.34942 I-1.95694 J0.41277
G2 X276.74167 Y-174.70288 I5.07689 J-0.20296
G2 X276.803 Y-178.1251 I-4.27061 J-1.7882
G3 X276.76548 Y-178.23398 I1.8713 J-0.70586
G2 X274.83798 Y-183.64581 I-70.23922 J21.96745
G1 F300.0 Z-3.0
G2 F800.0 X275.83002 Y-177.6823 I69.7339 J-8.53609
G3 X275.87149 Y-177.34942 I-1.95694 J0.41277
G2 X276.74167 Y-174.70288 I5.07689 J-0.20296
G2 X276.803 Y-178.1251 I-4.27061 J-1.7882
G3 X276.76548 Y-178.23398 I1.8713 J-0.70586
G2 X274.83798 Y-183.64581 I-70.23922 J21.96745
G0 Z3.0
G0 X272.88489 Y-192.13521
G0 Z1.0
G1 F300.0 Z-2.0
G3 F800.0 X273.03339 Y-192.27411 I3.62576 J3.72745
G2 X274.99981 Y-195.24236 I-4.75173 J-5.28344
G3 X275.04699 Y-195.37353 I4.91626 J1.69423
G3 X272.55609 Y-197.55323 I5.36604 J-8.64529
G3 X271.62924 Y-199.24014 I4.01525 J-3.30421
G3 X271.60771 Y-195.6569 I-26.54189 J1.63218
G2 X272.0197 Y-193.88864 I3.33154 J0.1559
G3 X272.88489 Y-192.13521 I-8.59312 J5.33025
G0 Z3.0
G0 X270.83394 Y-214.12327
G0 Z1.0
G1 F300.0 Z-2.0
G3 F800.0 X271.49665 Y-216.16364 I131.33116 J41.52862
G3 X271.19317 Y-216.25641 I2.3035 J-8.07799
G3 X270.67251 Y-216.01199 I-3.82769 J-7.47722
G2 X270.83394 Y-214.12327 I11.74671 J-0.05273
G1 F300.0 X272.35948 Y-213.64087
G3 F800.0 X273.42153 Y-216.85957 I129.80561 J41.04622
G2 X273.49625 Y-217.44842 I-2.39101 J-0.60255
G3 X271.05388 Y-218.02086 I0.3039 J-6.79321
G3 X269.07588 Y-217.15225 I-3.68839 J-5.71277
G3 X269.08106 Y-216.54584 I-6.7904 J0.36129
G2 X269.3116 Y-213.54911 I13.33815 J0.48111
G2 X271.00944 Y-208.69569 I47.28004 J-13.81599
G3 X271.11906 Y-209.38407 I13.06436 J1.72746
G3 X271.26554 Y-210.00581 I6.68161 J1.24601
G3 X272.35948 Y-213.64087 I130.89955 J37.41116
G1 F300.0 X273.88503 Y-213.15847
G3 F800.0 X274.95375 Y-216.39502 I128.28006 J40.56382
G2 X274.74051 Y-219.12537 I-3.92323 J-1.0671
G3 X274.44542 Y-219.08182 I-1.13151 J-6.64476
G3 X271.17502 Y-219.7529 I-0.64527 J-5.15981
G3 X270.78184 Y-219.81336 I0.59313 J-5.16606
G3 X267.18365 Y-218.53681 I-3.41635 J-3.92027
G3 X267.4821 Y-216.60351 I-4.89816 J1.74585
G2 X267.75505 Y-213.17163 I14.93711 J0.53879
G2 X269.59701 Y-207.92361 I48.83659 J-14.19347
G3 X271.35349 Y-201.75838 I-24.50965 J10.31565
G3 X272.06224 Y-205.85807 I13.92326 J0.29595
G3 X272.50662 Y-206.84006 I4.93418 J1.64129
G3 X272.49988 Y-207.278 I5.1882 J-0.2989
G3 X272.69195 Y-209.09076 I11.57393 J0.30976
G3 X272.80394 Y-209.56613 I5.10873 J0.95269
G3 X273.88503 Y-213.15847 I129.36115 J36.97149
G1 F300.0 X275.41058 Y-212.67607
G3 F800.0 X276.48232 Y-215.9198 I126.75452 J40.08142
G2 X276.15017 Y-219.88907 I-5.4518 J-1.54232
G3 X275.85681 Y-220.81269 I3.25011 J-1.5407
G3 X275.63519 Y-221.0459 I8.36171 J-8.16776
G3 X274.24687 Y-220.66945 I-2.02619 J-4.72423
G3 X271.69727 Y-221.31966 I-0.44672 J-3.57218
G3 X270.29115 Y-221.6359 I0.07088 J-3.5993
G3 X264.50535 Y-221.54739 I-2.92567 J-2.09773
G3 X263.91332 Y-220.0019 I-6.00048 J-1.41244
G3 X265.88314 Y-216.66119 I-1.62784 J3.21094
G2 X266.19935 Y-212.79159 I16.53607 J0.59646
G2 X268.12045 Y-207.30734 I50.39229 J-14.57351
G3 X270.01062 Y-195.75541 I-23.03309 J9.69938
G2 X270.64161 Y-193.07482 I4.92863 J0.25441
G3 X271.91695 Y-189.16534 I-7.21503 J4.51642
G3 X272.83854 Y-189.22667 I0.69787 J3.53171
G3 X273.70617 Y-190.66494 I5.73264 J2.47733
G3 X274.10332 Y-191.08447 I2.80448 J2.25718
G2 X276.51251 Y-194.72106 I-5.82165 J-6.47309
G3 X276.64996 Y-195.06224 I3.40356 J1.17293
G2 X276.49703 Y-196.38996 I-1.16224 J-0.53879
G3 X273.79155 Y-198.56991 I3.916 J-7.62886
G3 X272.98 Y-200.60785 I2.77979 J-2.28753
G3 X273.58045 Y-205.35306 I12.29675 J-0.85458
G3 X274.16625 Y-206.44167 I3.41597 J1.13628
G3 X274.0993 Y-207.23519 I3.52856 J-0.69729
G3 X274.26483 Y-208.79744 I9.9745 J0.26696
G3 X274.34235 Y-209.12646 I3.53584 J0.65937
G3 X275.41058 Y-212.67607 I127.82275 J36.53181
G1 F300.0 X276.93307 Y-212.19464
G3 F800.0 X278.00564 Y-215.43913 I125.23202 J39.59999
G2 X277.59305 Y-220.57307 I-6.97512 J-2.02299
G3 X277.40347 Y-221.54274 I1.80722 J-0.85671
G3 X277.34902 Y-221.59153 I1.30735 J-1.51355
G3 X275.98694 Y-223.14717 I6.86949 J-7.38891
G3 X274.04833 Y-222.25708 I-2.37794 J-2.62296
G3 X272.25001 Y-222.97787 I-0.24818 J-1.98454
G3 X269.95435 Y-224.07627 I-0.48186 J-1.94108
G2 X269.09596 Y-222.73091 I15.29626 J10.70605
G3 X265.37249 Y-223.56639 I-1.73048 J-1.00271
G3 X263.46022 Y-223.9098 I-0.64712 J-1.89242
G3 X263.00067 Y-223.74861 I-0.88685 J-1.79262
G3 X261.51556 Y-219.52906 I-4.4958 J0.78878
G2 X260.80567 Y-218.22863 I1.78769 J1.81984
G3 X261.23937 Y-218.49556 I103.7671 J168.11148
G3 X264.28418 Y-216.71887 I1.04611 J1.7046
G2 X264.64433 Y-212.40946 I18.13503 J0.65414
G2 X266.64398 Y-206.69086 I51.94731 J-14.95563
G3 X268.41379 Y-195.85753 I-21.55662 J9.08289
G2 X269.26843 Y-192.25285 I6.52546 J0.35653
G3 X270.22632 Y-187.31751 I-5.84185 J3.69446
G3 X270.22142 Y-187.29163 I-1.96751 J-0.35905
G2 X269.01856 Y-178.28496 I73.24687 J14.36592
G3 X269.01732 Y-178.2686 I-1.99484 J-0.1436
G2 X270.44231 Y-172.40935 I9.59339 J0.76974
G2 X271.4984 Y-176.12468 I-3.86158 J-3.10542
G3 X271.49788 Y-176.12893 I1.98479 J-0.24616
G3 X270.61913 Y-185.50232 I168.24959 J-20.50115
G3 X273.94178 Y-187.13001 I1.99569 J-0.13131
G3 X274.9526 Y-189.66175 I4.6294 J0.38067
G3 X275.17324 Y-189.89482 I1.55805 J1.25399
G2 X278.0252 Y-194.19976 I-6.89158 J-7.66273
G3 X278.10157 Y-194.3893 I1.89087 J0.65163
G2 X277.46348 Y-197.6979 I-2.61384 J-1.21173
G3 X275.02702 Y-199.58659 I2.94955 J-6.32092
G3 X274.57615 Y-200.71878 I1.54433 J-1.27085
G3 X275.09866 Y-204.84805 I10.7006 J-0.74366
G3 X275.49875 Y-205.54229 I1.89776 J0.63127
G3 X276.0243 Y-206.03924 I3.05176 J2.70095
G3 X275.69553 Y-207.19247 I1.67052 J-1.09971
G3 X275.83457 Y-208.50471 I8.37827 J0.22424
G3 X275.87767 Y-208.68766 I1.96611 J0.36665
G3 X276.93307 Y-212.19464 I126.28742 J36.09301
G0 Z3.0
G0 X270.83394 Y-214.12327
G0 Z-1.0
G1 F300.0 Z-3.0
G3 F800.0 X271.49665 Y-216.16364 I131.33116 J41.52862
G3 X271.19317 Y-216.25641 I2.3035 J-8.07799
G3 X270.67251 Y-216.01199 I-3.82769 J-7.47722
G2 X270.83394 Y-214.12327 I11.74671 J-0.05273
G1 F300.0 X272.35948 Y-213.64087
G3 F800.0 X273.42153 Y-216.85957 I129.80561 J41.04622
G2 X273.49625 Y-217.44842 I-2.39101 J-0.60255
G3 X271.05388 Y-218.02086 I0.3039 J-6.79321
G3 X269.07588 Y-217.15225 I-3.68839 J-5.71277
G3 X269.08106 Y-216.54584 I-6.7904 J0.36129
G2 X269.3116 Y-213.54911 I13.33815 J0.48111
G2 X271.00944 Y-208.69569 I47.28004 J-13.81599
G3 X271.11906 Y-209.38407 I13.06436 J1.72746
G3 X271.26554 Y-210.00581 I6.68161 J1.24601
G3 X272.35948 Y-213.64087 I130.89955 J37.41116
G1 F300.0 X273.88503 Y-213.15847
G3 F800.0 X274.95375 Y-216.39502 I128.28006 J40.56382
G2 X274.74051 Y-219.12537 I-3.92323 J-1.0671
G3 X274.44542 Y-219.08182 I-1.13151 J-6.64476
G3 X271.17502 Y-219.7529 I-0.64527 J-5.15981
G3 X270.78184 Y-219.81336 I0.59313 J-5.16606
G3 X267.18365 Y-218.53681 I-3.41635 J-3.92027
G3 X267.4821 Y-216.60351 I-4.89816 J1.74585
G2 X267.75505 Y-213.17163 I14.93711 J0.53879
G2 X269.59701 Y-207.92361 I48.83659 J-14.19347
G3 X271.35349 Y-201.75838 I-24.50965 J10.31565
G3 X272.06224 Y-205.85807 I13.92326 J0.29595
G3 X272.50662 Y-206.84006 I4.93418 J1.64129
G3 X272.49988 Y-207.278 I5.1882 J-0.2989
G3 X272.69195 Y-209.09076 I11.57393 J0.30976
G3 X272.80394 Y-209.56613 I5.10873 J0.95269
G3 X273.88503 Y-213.15847 I129.36115 J36.97149
G0 Z3.0
G0 X271.62924 Y-199.24014
G0 Z-1.0
G1 F300.0 Z-3.0
G3 F800.0 X271.60771 Y-195.6569 I-26.54189 J1.63218
G2 X272.0197 Y-193.88864 I3.33154 J0.1559
G3 X272.88489 Y-192.13521 I-8.59312 J5.33025
G3 X273.03339 Y-192.27411 I3.62576 J3.72745
G2 X274.99981 Y-195.24236 I-4.75173 J-5.28344
G3 X275.04699 Y-195.37353 I4.91626 J1.69423
G3 X272.55609 Y-197.55323 I5.36604 J-8.64529
G3 X271.62924 Y-199.24014 I4.01525 J-3.30421
G1 F300.0 X273.14989 Y-199.73777
G3 F800.0 X272.98 Y-200.60785 I3.42145 J-1.11967
G3 X273.58045 Y-205.35306 I12.29675 J-0.85458
G3 X274.16625 Y-206.44167 I3.41597 J1.13628
G3 X274.0993 Y-207.23519 I3.52856 J-0.69729
G3 X274.26483 Y-208.79744 I9.9745 J0.26696
G3 X274.34235 Y-209.12646 I3.53584 J0.65937
G3 X276.48232 Y-215.9198 I127.82275 J36.53181
G2 X276.15017 Y-219.88907 I-5.4518 J-1.54232
G3 X275.85681 Y-220.81269 I3.25011 J-1.5407
G3 X275.63519 Y-221.0459 I8.36171 J-8.16776
G3 X274.24687 Y-220.66945 I-2.02619 J-4.72423
G3 X271.69727 Y-221.31966 I-0.44672 J-3.57218
G3 X270.29115 Y-221.6359 I0.07088 J-3.5993
G3 X264.50535 Y-221.54739 I-2.92567 J-2.09773
G3 X263.91332 Y-220.0019 I-6.00048 J-1.41244
G3 X265.88314 Y-216.66119 I-1.62784 J3.21094
G2 X266.19935 Y-212.79159 I16.53607 J0.59646
G2 X268.12045 Y-207.30734 I50.39229 J-14.57351
G3 X270.01062 Y-195.75541 I-23.03309 J9.69938
G2 X270.64161 Y-193.07482 I4.92863 J0.25441
G3 X271.91695 Y-189.16534 I-7.21503 J4.51642
G3 X272.83854 Y-189.22667 I0.69787 J3.53171
G3 X273.70617 Y-190.66494 I5.73264 J2.47733
G3 X274.10332 Y-191.08447 I2.80448 J2.25718
G2 X276.51251 Y-194.72106 I-5.82165 J-6.47309
G3 X276.64996 Y-195.06224 I3.40356 J1.17293
G2 X276.49703 Y-196.38996 I-1.16224 J-0.53879
G3 X273.79155 Y-198.56991 I3.916 J-7.62886
G3 X273.14989 Y-199.73777 I2.77979 J-2.28753
G1 F300.0 X274.67053 Y-200.2354
G3 F800.0 X274.57615 Y-200.71878 I1.90081 J-0.62204
G3 X275.09866 Y-204.84805 I10.7006 J-0.74366
G3 X275.49875 Y-205.54229 I1.89776 J0.63127
G3 X276.0243 Y-206.03924 I3.05176 J2.70095
G3 X275.69553 Y-207.19247 I1.67052 J-1.09971
G3 X275.83457 Y-208.50471 I8.37827 J0.22424
G3 X275.87767 Y-208.68766 I1.96611 J0.36665
G3 X278.00564 Y-215.43913 I126.28742 J36.09301
G2 X277.59305 Y-220.57307 I-6.97512 J-2.02299
G3 X277.40347 Y-221.54274 I1.80722 J-0.85671
G3 X277.34902 Y-221.59153 I1.30735 J-1.51355
G3 X275.98694 Y-223.14717 I6.86949 J-7.38891
G3 X274.04833 Y-222.25708 I-2.37794 J-2.62296
G3 X272.25001 Y-222.97787 I-0.24818 J-1.98454
G3 X269.95435 Y-224.07627 I-0.48186 J-1.94108
G2 X269.09596 Y-222.73091 I15.29626 J10.70605
G3 X265.37249 Y-223.56639 I-1.73048 J-1.00271
G3 X263.46022 Y-223.9098 I-0.64712 J-1.89242
G3 X263.00067 Y-223.74861 I-0.88685 J-1.79262
G3 X261.51556 Y-219.52906 I-4.4958 J0.78878
G2 X260.80567 Y-218.22863 I1.78769 J1.81984
G3 X261.23937 Y-218.49556 I103.7671 J168.11148
G3 X264.28418 Y-216.71887 I1.04611 J1.7046
G2 X264.64433 Y-212.40946 I18.13503 J0.65414
G2 X266.64398 Y-206.69086 I51.94731 J-14.95563
G3 X268.41379 Y-195.85753 I-21.55662 J9.08289
G2 X269.26843 Y-192.25285 I6.52546 J0.35653
G3 X270.22632 Y-187.31751 I-5.84185 J3.69446
G3 X270.22142 Y-187.29163 I-1.96751 J-0.35905
G2 X269.01856 Y-178.28496 I73.24687 J14.36592
G3 X269.01732 Y-178.2686 I-1.99484 J-0.1436
G2 X270.44231 Y-172.40935 I9.59339 J0.76974
G2 X271.4984 Y-176.12468 I-3.86158 J-3.10542
G3 X271.49788 Y-176.12893 I1.98479 J-0.24616
G3 X270.61913 Y-185.50232 I168.24959 J-20.50115
G3 X273.94178 Y-187.13001 I1.99569 J-0.13131
G3 X274.9526 Y-189.66175 I4.6294 J0.38067
G3 X275.17324 Y-189.89482 I1.55805 J1.25399
G2 X278.0252 Y-194.19976 I-6.89158 J-7.66273
G3 X278.10157 Y-194.3893 I1.89087 J0.65163
G2 X277.46348 Y-197.6979 I-2.61384 J-1.21173
G3 X275.02702 Y-199.58659 I2.94955 J-6.32092
G3 X274.67053 Y-200.2354 I1.54433 J-1.27085
G0 Z3.0
G0 X309.36628 Y-205.26543
G0 Z1.0
G1 F300.0 Z-2.0
G2 F800.0 X310.38799 Y-214.21661 I-34.04162 J-8.41949
G3 X310.34461 Y-214.89695 I207.32428 J-13.56219
G3 X310.15315 Y-214.96106 I3.07954 J-9.51401
G3 X309.36628 Y-214.28725 I-6.889 J-7.24856
G1 Y-205.26543
G1 F300.0 X307.76628
G1 F800.0 Y-204.93763
G3 X307.52264 Y-202.92957 I-8.3968 J0.0
G3 X308.12377 Y-197.58932 I-11.24532 J3.96981
G2 X308.11649 Y-197.44998 I17.52203 J0.98566
G3 X308.9213 Y-198.9961 I82.58094 J42.00362
G2 X311.98717 Y-214.28153 I-33.59663 J-14.68881
G3 X311.87279 Y-216.15546 I205.7251 J-13.49728
G3 X309.87216 Y-216.7989 I1.55136 J-8.2555
G3 X309.66265 Y-216.76727 I-1.35868 J-8.28939
G3 X307.76628 Y-215.11803 I-6.3985 J-5.44236
G1 Y-205.26543
G1 F300.0 X306.16628
G1 F800.0 Y-204.93763
G3 X305.83958 Y-202.85571 I-6.7968 J0.0
G3 X306.52917 Y-197.72902 I-9.56226 J3.89594
G2 X306.74816 Y-193.50668 I19.11664 J1.12537
G3 X306.83308 Y-192.15713 I-6.71048 J1.09972
G2 X306.90912 Y-189.60543 I19.1845 J0.70531
G3 X307.50232 Y-192.18135 I64.16145 J13.41927
G3 X307.91412 Y-193.3531 I6.59444 J1.65931
G3 X310.36214 Y-198.29772 I82.78331 J37.90674
G2 X313.58629 Y-214.34745 I-35.03748 J-15.38719
G3 X313.39772 Y-217.61101 I204.12598 J-13.43135
G3 X310.1036 Y-218.47682 I0.02643 J-6.79995
G3 X308.82463 Y-218.29541 I-1.59012 J-6.61147
G3 X306.16628 Y-216.06002 I-5.56048 J-3.91421
G1 Y-205.26543
G0 Z3.0
G0 X305.72881 Y-181.67434
G0 Z1.0
G1 F300.0 Z-2.0
G3 F800.0 X303.33555 Y-179.07363 I-8.17257 J-5.11918
G3 X302.68513 Y-178.64264 I-4.07521 J-5.44359
G3 X302.77284 Y-178.43879 I-9.3923 J4.16218
G3 X303.82408 Y-177.36269 I-6.77987 J7.67472
G3 X304.05246 Y-177.49462 I3.51499 J5.82107
G2 X305.17408 Y-178.65585 I-1.32751 J-2.4045
G2 X305.72881 Y-181.67434 I-30.93119 J-7.24474
G1 F300.0 X304.37286 Y-182.52368
G3 F800.0 X302.37667 Y-180.35448 I-6.81662 J-4.26983
G3 X301.55697 Y-179.85188 I-3.11634 J-4.16274
G3 X300.44521 Y-179.38639 I-4.37088 J-8.87892
G3 X301.43148 Y-177.47831 I-7.15238 J4.90594
G3 X303.47604 Y-175.08403 I-5.43851 J6.71423
G3 X304.23852 Y-175.71614 I6.30014 J6.8237
G3 X304.82578 Y-176.09391 I3.10054 J4.17452
G2 X306.6921 Y-178.12292 I-2.10083 J-3.80521
G2 X307.39855 Y-182.13956 I-32.44921 J-7.77767
G3 X309.05396 Y-191.79093 I63.67203 J5.95339
G3 X309.36886 Y-192.68697 I5.04281 J1.26888
G3 X311.80217 Y-197.59772 I81.32857 J37.24061
G2 X315.18535 Y-214.41434 I-36.4775 J-16.0872
G3 X314.93344 Y-219.03196 I202.52692 J-13.36446
G3 X314.33239 Y-219.29089 I2.12666 J-5.76348
G3 X310.63422 Y-220.02276 I-0.90824 J-5.12007
G3 X310.06786 Y-220.12605 I0.64831 J-5.15943
G3 X307.93331 Y-219.92076 I-1.55438 J-4.96225
G3 X304.56628 Y-217.1753 I-4.66916 J-2.28887
G1 Y-204.93763
G3 X304.10914 Y-202.80635 I-5.1968 J0.0
G3 X304.93503 Y-197.87453 I-7.83182 J3.84658
G2 X305.16922 Y-193.24792 I20.71078 J1.27087
G3 X305.23416 Y-192.21591 I-5.13155 J0.84097
G2 X305.50213 Y-188.03851 I20.78342 J0.76409
G3 X305.52311 Y-187.90113 I-5.12949 J0.85343
G3 X304.37286 Y-182.52368 I-7.96687 J1.10761
G1 F300.0 X303.01691 Y-183.37303
G3 F800.0 X301.4178 Y-181.63532 I-5.46067 J-3.42048
G3 X300.85031 Y-181.28737 I-2.15746 J-2.8819
G3 X297.11089 Y-180.43468 I-3.66422 J-7.44343
G3 X299.95876 Y-176.84599 I-3.81806 J5.95423
G3 X300.0595 Y-176.51143 I-3.39271 J1.20397
G3 X302.62505 Y-173.12718 I-4.06653 J5.74735
G3 X303.6263 Y-172.87272 I-0.3769 J3.58022
G3 X305.19254 Y-174.43167 I6.14988 J4.61239
G3 X305.5991 Y-174.69321 I2.14653 J2.89005
G2 X308.21536 Y-177.61489 I-2.87414 J-5.20592
G2 X308.99016 Y-181.97518 I-33.97248 J-8.2857
G3 X310.60559 Y-191.4005 I62.08042 J5.78902
G3 X310.8236 Y-192.02084 I3.49118 J0.87846
G3 X313.2414 Y-196.89615 I79.87383 J36.57448
G2 X316.78436 Y-214.48214 I-37.91674 J-16.78876
G3 X316.48422 Y-220.28876 I200.92791 J-13.29666
G3 X314.56707 Y-220.9972 I0.57588 J-4.50667
G3 X311.19616 Y-221.58322 I-1.14292 J-3.41376
G3 X310.01061 Y-221.81437 I0.08637 J-3.59896
G3 X306.89117 Y-221.87456 I-1.49713 J-3.27393
G3 X306.73619 Y-221.25834 I-14.72929 J-3.37691
G3 X302.96628 Y-218.62197 I-3.47204 J-0.95128
G1 Y-204.93763
G3 X302.26527 Y-202.80423 I-3.5968 J0.0
G3 X302.46695 Y-202.48973 I-2.92551 J2.09795
G3 X303.34142 Y-198.02668 I-6.18963 J3.52996
G2 X303.59028 Y-192.98917 I22.30439 J1.42302
G3 X303.63524 Y-192.2747 I-3.55261 J0.58221
G2 X303.92383 Y-187.77591 I22.38234 J0.82288
G3 X303.93835 Y-187.68081 I-3.55118 J0.59084
G3 X303.01691 Y-183.37303 I-6.38211 J0.88729
G1 F300.0 X301.66096 Y-184.22238
G2 F800.0 X302.35359 Y-187.46048 I-4.10472 J-2.57113
G2 X302.34553 Y-187.51332 I-1.98095 J0.27541
G3 X302.03632 Y-192.33348 I23.67206 J-3.9385
G2 X302.01135 Y-192.73041 I-1.99865 J-0.07348
G3 X301.74846 Y-198.18691 I23.63446 J-3.87325
G2 X301.07709 Y-201.69709 I-5.47114 J-0.77286
G2 X300.90918 Y-201.94601 I-1.73733 J0.9908
G2 X300.11386 Y-202.67623 I-2.66756 J2.10716
G2 X300.11215 Y-202.67736 I-1.10151 J1.66934
G2 X299.66453 Y-202.95951 I-7.34431 J11.15527
G2 X301.36948 Y-204.93763 I-0.29504 J-1.97812
G1 Y-219.50029
G2 X300.95208 Y-220.72315 I-2.0 J0.0
G2 X300.88077 Y-221.75434 I-8.9495 J0.10086
G2 X301.15039 Y-221.44565 I1.63318 J-1.15444
G1 X301.9006 Y-220.7465
G2 X305.19306 Y-221.68113 I1.36355 J-1.46312
G2 X305.55438 Y-223.46265 I-13.03118 J-3.57034
G2 X306.71582 Y-224.21171 I-0.43652 J-1.95178
G2 X309.90615 Y-223.65286 I1.79767 J-0.87658
G2 X310.47413 Y-223.35285 I2.42778 J-3.90856
G2 X311.79613 Y-223.24926 I0.8084 J-1.82934
G2 X314.80373 Y-222.96294 I1.62802 J-1.1617
G2 X315.25946 Y-222.46717 I1.67927 J-1.0863
G2 X318.0283 Y-222.01592 I1.80064 J-2.32826
G2 X318.02899 Y-221.98226 I1.99985 J-0.02438
G2 X318.38332 Y-214.55081 I199.68328 J-5.79654
G3 X314.67988 Y-196.19307 I-43.05865 J0.8659
G2 X312.27834 Y-191.35471 I76.01755 J40.74671
G2 X312.15722 Y-191.01008 I1.81843 J0.83266
G2 X310.58183 Y-181.81135 I58.91335 J14.82392
G3 X309.7416 Y-177.12096 I-36.33894 J-4.08924
G3 X306.37242 Y-173.2925 I-7.01664 J-2.77816
G2 X306.14655 Y-173.1472 I0.96665 J1.75088
G2 X304.11779 Y-170.50496 I3.62963 J4.88687
G2 X304.04402 Y-170.59196 I-1.5617 J1.24943
G2 X303.5007 Y-171.10617 I-3.43448 J3.08479
G2 X301.36225 Y-171.34005 I-1.25255 J1.55921
G3 X301.32422 Y-171.76426 I39.22334 J-3.73032
G2 X301.27186 Y-172.0803 I-1.99295 J0.16782
G2 X298.84031 Y-175.4 I-5.27889 J1.31622
G3 X298.53661 Y-175.984 I0.76693 J-0.7698
G2 X298.4509 Y-176.3109 I-1.97055 J0.34197
G2 X295.07094 Y-179.65679 I-5.15807 J1.83044
G2 X290.67708 Y-181.06274 I-9.0136 J20.6005
G3 X295.48685 Y-182.25352 I4.15337 J6.46702
G2 X300.14366 Y-182.72286 I1.69924 J-6.47727
G2 X300.45893 Y-182.91617 I-0.88332 J-1.79436
G2 X301.66096 Y-184.22238 I-2.90269 J-3.87735
G0 Z3.0
G0 X305.72881 Y-181.67434
G0 Z-1.0
G1 F300.0 Z-3.0
G3 F800.0 X303.33555 Y-179.07363 I-8.17257 J-5.11918
G3 X302.68513 Y-178.64264 I-4.07521 J-5.44359
G3 X302.77284 Y-178.43879 I-9.3923 J4.16218
G3 X303.82408 Y-177.36269 I-6.77987 J7.67472
G3 X304.05246 Y-177.49462 I3.51499 J5.82107
G2 X305.17408 Y-178.65585 I-1.32751 J-2.4045
G2 X305.72881 Y-181.67434 I-30.93119 J-7.24474
G0 Z3.0
G0 X309.36628 Y-205.26543
G0 Z-1.0
G1 F300.0 Z-3.0
G2 F800.0 X310.38799 Y-214.21661 I-34.04162 J-8.41949
G3 X310.34461 Y-214.89695 I207.32428 J-13.56219
G3 X310.15315 Y-214.96106 I3.07954 J-9.51401
G3 X309.36628 Y-214.28725 I-6.889 J-7.24856
G1 Y-205.26543
G1 F300.0 X307.76628
G1 F800.0 Y-204.93763
G3 X307.52264 Y-202.92957 I-8.3968 J0.0
G3 X308.12377 Y-197.58932 I-11.24532 J3.96981
G2 X308.11649 Y-197.44998 I17.52203 J0.98566
G3 X308.9213 Y-198.9961 I82.58094 J42.00362
G2 X311.98717 Y-214.28153 I-33.59663 J-14.68881
G3 X311.87279 Y-216.15546 I205.7251 J-13.49728
G3 X309.87216 Y-216.7989 I1.55136 J-8.2555
G3 X309.66265 Y-216.76727 I-1.35868 J-8.28939
G3 X307.76628 Y-215.11803 I-6.3985 J-5.44236
G1 Y-205.26543
G1 F300.0 X306.16628
G1 F800.0 Y-204.93763
G3 X305.83958 Y-202.85571 I-6.7968 J0.0
G3 X306.52917 Y-197.72902 I-9.56226 J3.89594
G2 X306.74816 Y-193.50668 I19.11664 J1.12537
G3 X306.83308 Y-192.15713 I-6.71048 J1.09972
G2 X306.90912 Y-189.60543 I19.1845 J0.70531
G3 X307.50232 Y-192.18135 I64.16145 J13.41927
G3 X307.91412 Y-193.3531 I6.59444 J1.65931
G3 X310.36214 Y-198.29772 I82.78331 J37.90674
G2 X313.58629 Y-214.34745 I-35.03748 J-15.38719
G3 X313.39772 Y-217.61101 I204.12598 J-13.43135
G3 X310.1036 Y-218.47682 I0.02643 J-6.79995
G3 X308.82463 Y-218.29541 I-1.59012 J-6.61147
G3 X306.16628 Y-216.06002 I-5.56048 J-3.91421
G1 Y-205.26543
G1 F300.0 X304.56628
G1 F800.0 Y-204.93763
G3 X304.10914 Y-202.80635 I-5.1968 J0.0
G3 X304.93503 Y-197.87453 I-7.83182 J3.84658
G2 X305.16922 Y-193.24792 I20.71078 J1.27087
G3 X305.23416 Y-192.21591 I-5.13155 J0.84097
G2 X305.50213 Y-188.03851 I20.78342 J0.76409
G3 X305.52311 Y-187.90113 I-5.12949 J0.85343
G3 X302.37667 Y-180.35448 I-7.96687 J1.10761
G3 X301.55697 Y-179.85188 I-3.11634 J-4.16274
G3 X300.44521 Y-179.38639 I-4.37088 J-8.87892
G3 X301.43148 Y-177.47831 I-7.15238 J4.90594
G3 X303.47604 Y-175.08403 I-5.43851 J6.71423
G3 X304.23852 Y-175.71614 I6.30014 J6.8237
G3 X304.82578 Y-176.09391 I3.10054 J4.17452
G2 X306.6921 Y-178.12292 I-2.10083 J-3.80521
G2 X307.39855 Y-182.13956 I-32.44921 J-7.77767
G3 X309.05396 Y-191.79093 I63.67203 J5.95339
G3 X309.36886 Y-192.68697 I5.04281 J1.26888
G3 X311.80217 Y-197.59772 I81.32857 J37.24061
G2 X315.18535 Y-214.41434 I-36.4775 J-16.0872
G3 X314.93344 Y-219.03196 I202.52692 J-13.36446
G3 X314.33239 Y-219.29089 I2.12666 J-5.76348
G3 X310.63422 Y-220.02276 I-0.90824 J-5.12007
G3 X310.06786 Y-220.12605 I0.64831 J-5.15943
G3 X307.93331 Y-219.92076 I-1.55438 J-4.96225
G3 X304.56628 Y-217.1753 I-4.66916 J-2.28887
G1 Y-205.26543
G1 F300.0 X302.96628
G1 F800.0 Y-204.93763
G3 X302.26527 Y-202.80423 I-3.5968 J0.0
G3 X302.46695 Y-202.48973 I-2.92551 J2.09795
G3 X303.34142 Y-198.02668 I-6.18963 J3.52996
G2 X303.59028 Y-192.98917 I22.30439 J1.42302
G3 X303.63524 Y-192.2747 I-3.55261 J0.58221
G2 X303.92383 Y-187.77591 I22.38234 J0.82288
G3 X303.93835 Y-187.68081 I-3.55118 J0.59084
G3 X301.4178 Y-181.63532 I-6.38211 J0.88729
G3 X300.85031 Y-181.28737 I-2.15746 J-2.8819
G3 X297.11089 Y-180.43468 I-3.66422 J-7.44343
G3 X299.95876 Y-176.84599 I-3.81806 J5.95423
G3 X300.0595 Y-176.51143 I-3.39271 J1.20397
G3 X302.62505 Y-173.12718 I-4.06653 J5.74735
G3 X303.6263 Y-172.87272 I-0.3769 J3.58022
G3 X305.19254 Y-174.43167 I6.14988 J4.61239
G3 X305.5991 Y-174.69321 I2.14653 J2.89005
G2 X308.21536 Y-177.61489 I-2.87414 J-5.20592
G2 X308.99016 Y-181.97518 I-33.97248 J-8.2857
G3 X310.60559 Y-191.4005 I62.08042 J5.78902
G3 X310.8236 Y-192.02084 I3.49118 J0.87846
G3 X313.2414 Y-196.89615 I79.87383 J36.57448
G2 X316.78436 Y-214.48214 I-37.91674 J-16.78876
G3 X316.48422 Y-220.28876 I200.92791 J-13.29666
G3 X314.56707 Y-220.9972 I0.57588 J-4.50667
G3 X311.19616 Y-221.58322 I-1.14292 J-3.41376
G3 X310.01061 Y-221.81437 I0.08637 J-3.59896
G3 X306.89117 Y-221.87456 I-1.49713 J-3.27393
G3 X306.73619 Y-221.25834 I-14.72929 J-3.37691
G3 X302.96628 Y-218.62197 I-3.47204 J-0.95128
G1 Y-205.26543
G1 F300.0 X301.36948
G1 F800.0 Y-219.50029
G2 X300.95208 Y-220.72315 I-2.0 J0.0
G2 X300.88077 Y-221.75434 I-8.9495 J0.10086
G2 X301.15039 Y-221.44565 I1.63318 J-1.15444
G1 X301.9006 Y-220.7465
G2 X305.19306 Y-221.68113 I1.36355 J-1.46312
G2 X305.55438 Y-223.46265 I-13.03118 J-3.57034
G2 X306.71582 Y-224.21171 I-0.43652 J-1.95178
G2 X309.90615 Y-223.65286 I1.79767 J-0.87658
G2 X310.47413 Y-223.35285 I2.42778 J-3.90856
G2 X311.79613 Y-223.24926 I0.8084 J-1.82934
G2 X314.80373 Y-222.96294 I1.62802 J-1.1617
G2 X315.25946 Y-222.46717 I1.67927 J-1.0863
G2 X318.0283 Y-222.01592 I1.80064 J-2.32826
G2 X318.02899 Y-221.98226 I1.99985 J-0.02438
G2 X318.38332 Y-214.55081 I199.68328 J-5.79654
G3 X314.67988 Y-196.19307 I-43.05865 J0.8659
G2 X312.27834 Y-191.35471 I76.01755 J40.74671
G2 X312.15722 Y-191.01008 I1.81843 J0.83266
G2 X310.58183 Y-181.81135 I58.91335 J14.82392
G3 X309.7416 Y-177.12096 I-36.33894 J-4.08924
G3 X306.37242 Y-173.2925 I-7.01664 J-2.77816
G2 X306.14655 Y-173.1472 I0.96665 J1.75088
G2 X304.11779 Y-170.50496 I3.62963 J4.88687
G2 X304.04402 Y-170.59196 I-1.5617 J1.24943
G2 X303.5007 Y-171.10617 I-3.43448 J3.08479
G2 X301.36225 Y-171.34005 I-1.25255 J1.55921
G3 X301.32422 Y-171.76426 I39.22334 J-3.73032
G2 X301.27186 Y-172.0803 I-1.99295 J0.16782
G2 X298.84031 Y-175.4 I-5.27889 J1.31622
G3 X298.53661 Y-175.984 I0.76693 J-0.7698
G2 X298.4509 Y-176.3109 I-1.97055 J0.34197
G2 X295.07094 Y-179.65679 I-5.15807 J1.83044
G2 X290.67708 Y-181.06274 I-9.0136 J20.6005
G3 X295.48685 Y-182.25352 I4.15337 J6.46702
G2 X300.14366 Y-182.72286 I1.69924 J-6.47727
G2 X300.45893 Y-182.91617 I-0.88332 J-1.79436
G2 X302.35359 Y-187.46048 I-2.90269 J-3.87735
G2 X302.34553 Y-187.51332 I-1.98095 J0.27541
G3 X302.03632 Y-192.33348 I23.67206 J-3.9385
G2 X302.01135 Y-192.73041 I-1.99865 J-0.07348
G3 X301.74846 Y-198.18691 I23.63446 J-3.87325
G2 X301.07709 Y-201.69709 I-5.47114 J-0.77286
G2 X300.90918 Y-201.94601 I-1.73733 J0.9908
G2 X300.11386 Y-202.67623 I-2.66756 J2.10716
G2 X300.11215 Y-202.67736 I-1.10151 J1.66934
G2 X299.66453 Y-202.95951 I-7.34431 J11.15527
G2 X301.36948 Y-204.93763 I-0.29504 J-1.97812
G1 Y-205.26543
G0 Z3.0
G0 X332.9956 Y-212.14621
G0 Z1.0
G1 F300.0 Z-2.0
G3 F800.0 X333.64259 Y-212.56035 I3.11922 J4.16059
G2 X332.55442 Y-214.07526 I-30.97101 J21.09832
G3 X332.9956 Y-212.14621 I-23.81247 J6.46091
G1 F300.0 X331.42282 Y-211.85233
G3 F800.0 X331.59994 Y-210.7599 I-22.68087 J4.23798
G2 X331.86538 Y-209.78738 I11.99364 J-2.75101
G3 X333.05212 Y-209.87769 I0.86277 J3.49509
G3 X336.00893 Y-211.58407 I3.0627 J1.89206
G3 X336.10033 Y-211.69418 I2.81522 J2.24378
G2 X332.46327 Y-216.74595 I-33.42875 J20.23215
G3 X329.69621 Y-220.5772 I6.84492 J-7.85848
G3 X327.79758 Y-220.62455 I-0.86273 J-3.4951
G3 X331.42282 Y-211.85233 I-19.05562 J13.0102
G1 F300.0 X329.85004 Y-211.55846
G2 F800.0 X324.46992 Y-222.23414 I-21.10809 J3.9441
G2 X324.43937 Y-222.26629 I-1.46488 J1.36166
G2 X323.40362 Y-223.13997 I-4.91637 J4.77753
G2 X326.20653 Y-223.68483 I0.74752 J-3.6364
G2 X327.21717 Y-222.61892 I1.85527 J-0.74699
G1 X327.98886 Y-222.25939
G2 X330.44215 Y-222.88394 I0.84462 J-1.8129
G2 X331.01304 Y-222.36261 I1.60867 J-1.18836
G2 X331.13356 Y-221.28852 I1.97386 J0.32232
G2 X333.60091 Y-217.87786 I8.17462 J-3.31591
G3 X338.21152 Y-211.24415 I-30.92933 J26.41583
G2 X336.88752 Y-209.83977 I0.61263 J1.90386
G2 X336.70847 Y-209.89549 I-87.57984 J281.12333
G2 X334.12164 Y-207.82057 I-0.59366 J1.90986
G3 X333.65556 Y-208.06427 I311.0415 J-595.43087
G2 X331.08641 Y-207.43453 I-0.92741 J1.77198
G3 X330.02399 Y-210.47482 I12.50717 J-6.07639
G2 X329.85004 Y-211.55846 I-21.28204 J2.86047
G0 Z3.0
G0 X332.9956 Y-212.14621
G0 Z-1.0
G1 F300.0 Z-3.0
G3 F800.0 X333.64259 Y-212.56035 I3.11922 J4.16059
G2 X332.55442 Y-214.07526 I-30.97101 J21.09832
G3 X332.9956 Y-212.14621 I-23.81247 J6.46091
G1 F300.0 X331.42282 Y-211.85233
G3 F800.0 X331.59994 Y-210.7599 I-22.68087 J4.23798
G2 X331.86538 Y-209.78738 I11.99364 J-2.75101
G3 X333.05212 Y-209.87769 I0.86277 J3.49509
G3 X336.00893 Y-211.58407 I3.0627 J1.89206
G3 X336.10033 Y-211.69418 I2.81522 J2.24378
G2 X332.46327 Y-216.74595 I-33.42875 J20.23215
G3 X329.69621 Y-220.5772 I6.84492 J-7.85848
G3 X327.79758 Y-220.62455 I-0.86273 J-3.4951
G3 X331.42282 Y-211.85233 I-19.05562 J13.0102
G1 F300.0 X329.85004 Y-211.55846
G2 F800.0 X324.46992 Y-222.23414 I-21.10809 J3.9441
G2 X324.43937 Y-222.26629 I-1.46488 J1.36166
G2 X323.40362 Y-223.13997 I-4.91637 J4.77753
G2 X326.20653 Y-223.68483 I0.74752 J-3.6364
G2 X327.21717 Y-222.61892 I1.85527 J-0.74699
G1 X327.98886 Y-222.25939
G2 X330.44215 Y-222.88394 I0.84462 J-1.8129
G2 X331.01304 Y-222.36261 I1.60867 J-1.18836
G2 X331.13356 Y-221.28852 I1.97386 J0.32232
G2 X333.60091 Y-217.87786 I8.17462 J-3.31591
G3 X338.21152 Y-211.24415 I-30.92933 J26.41583
G2 X336.88752 Y-209.83977 I0.61263 J1.90386
G2 X336.70847 Y-209.89549 I-87.57984 J281.12333
G2 X334.12164 Y-207.82057 I-0.59366 J1.90986
G3 X333.65556 Y-208.06427 I311.0415 J-595.43087
G2 X331.08641 Y-207.43453 I-0.92741 J1.77198
G3 X330.02399 Y-210.47482 I12.50717 J-6.07639
G2 X329.85004 Y-211.55846 I-21.28204 J2.86047
G0 Z3.0
G0 X342.49821 Y-201.86834
G0 Z1.0
G1 F300.0 Z-2.0
G3 F800.0 X342.39817 Y-201.29876 I-3.58429 J-0.33594
G2 X343.98201 Y-201.3556 I0.43618 J-9.94043
G3 X342.97101 Y-202.1492 I8.23745 J-11.53473
G3 X342.49821 Y-201.86834 I-2.06965 J-2.9456
G1 F300.0 X340.90519 Y-202.01764
G3 F800.0 X338.64997 Y-200.22177 I-1.99127 J-0.18663
G2 X342.10266 Y-199.71145 I3.90576 J-14.4902
G3 X342.15919 Y-199.70894 I-0.06038 J1.99909
G2 X348.15911 Y-200.98983 I0.67516 J-11.53024
G3 X342.82176 Y-204.53619 I4.06035 J-11.90051
G3 X340.79099 Y-203.09785 I-1.9204 J-0.55861
G3 X340.89931 Y-202.44554 I-7.41589 J1.56665
G3 X340.90519 Y-202.01764 I-1.98539 J0.24127
G1 F300.0 X342.49821 Y-201.86834
G1 Z-3.0
G3 F800.0 X342.39817 Y-201.29876 I-3.58429 J-0.33594
G2 X343.98201 Y-201.3556 I0.43618 J-9.94043
G3 X342.97101 Y-202.1492 I8.23745 J-11.53473
G3 X342.49821 Y-201.86834 I-2.06965 J-2.9456
G1 F300.0 X340.90519 Y-202.01764
G3 F800.0 X338.64997 Y-200.22177 I-1.99127 J-0.18663
G2 X342.10266 Y-199.71145 I3.90576 J-14.4902
G3 X342.15919 Y-199.70894 I-0.06038 J1.99909
G2 X348.15911 Y-200.98983 I0.67516 J-11.53024
G3 X342.82176 Y-204.53619 I4.06035 J-11.90051
G3 X340.79099 Y-203.09785 I-1.9204 J-0.55861
G3 X340.89931 Y-202.44554 I-7.41589 J1.56665
G3 X340.90519 Y-202.01764 I-1.98539 J0.24127
G0 Z3.0
G0 X399.51593 Y-185.35762
G0 Z1.0
G1 F300.0 Z-2.0
G3 F800.0 X400.2372 Y-180.73944 I-18.86645 J5.31199
G3 X401.3156 Y-184.74473 I19.35895 J3.06448
G3 X399.51593 Y-185.35762 I5.41121 J-18.83823
G0 Z3.0
G0 X400.00843 Y-176.98115
G0 Z1.0
G1 F300.0 Z-2.0
G3 F800.0 X399.80428 Y-175.89185 I-19.35895 J-3.06448
G3 X400.11549 Y-175.51535 I-33.301 J27.84339
G3 X400.00843 Y-176.98115 I19.48066 J-2.15961
G1 F300.0 X398.42811 Y-177.23131
G3 F800.0 X398.05899 Y-175.47297 I-17.77863 J-2.81432
G3 X400.50111 Y-172.3798 I-31.55571 J27.42452
G3 X401.15518 Y-173.74922 I16.55504 J7.06617
G3 X401.81024 Y-174.90705 I21.67873 J11.50074
G3 X403.13507 Y-184.95732 I17.78591 J-2.76791
G3 X403.31961 Y-185.90837 I17.75628 J2.95202
G3 X397.97542 Y-187.85359 I3.4072 J-17.67459
G3 X396.89772 Y-187.79124 I-1.57794 J-17.9307
G3 X398.42811 Y-177.23131 I-16.24824 J7.74562
G1 F300.0 X396.84779 Y-177.48147
G3 F800.0 X396.27664 Y-175.07048 I-16.19831 J-2.56416
G3 X401.00758 Y-168.69054 I-29.77336 J27.02203
G3 X402.5686 Y-172.99939 I16.04856 J3.37692
G3 X403.49057 Y-174.58136 I20.26531 J10.75091
G3 X404.68141 Y-184.49481 I16.10558 J-3.0936
G3 X405.34952 Y-187.2409 I16.20995 J2.48951
G3 X398.32588 Y-189.49806 I1.3773 J-16.34206
G3 X394.02894 Y-189.55623 I-1.9284 J-16.28623
G3 X394.53111 Y-188.77835 I-32.93828 J21.81477
G3 X396.84779 Y-177.48147 I-13.88163 J8.73272
G1 F300.0 X395.26747 Y-177.73163
G3 F800.0 X394.4462 Y-174.68926 I-14.61798 J-2.31399
G3 X401.80051 Y-163.68957 I-27.94292 J26.6408
G3 X402.89929 Y-159.93167 I-13.53102 J5.99595
G3 X403.11236 Y-160.35271 I13.3102 J6.47137
G3 X403.98202 Y-172.24956 I13.94379 J-4.96092
G3 X405.19533 Y-174.2608 I18.85189 J10.00108
G3 X406.23069 Y-184.03142 I14.40082 J-3.41416
G3 X407.49022 Y-188.28621 I14.66066 J2.02612
G3 X406.89843 Y-188.78395 I9.22726 J-11.57142
G3 X398.68037 Y-191.16142 I-0.17161 J-14.799
G3 X393.07822 Y-191.36131 I-2.28288 J-14.62287
G3 X393.01134 Y-191.3348 I-5.48608 J-13.74565
G3 X391.82212 Y-189.93445 I-11.85386 J-8.86149
G3 X393.1768 Y-187.92638 I-30.73146 J22.19298
G3 X395.26747 Y-177.73163 I-12.52732 J7.88075
G1 F300.0 X393.68714 Y-177.98179
G3 F800.0 X392.73037 Y-174.72659 I-13.03766 J-2.06383
G3 X393.01895 Y-173.86461 I-21.12501 J7.55173
G3 X400.33769 Y-163.04136 I-26.51568 J25.81616
G3 X401.2766 Y-155.44534 I-12.06821 J5.34774
G3 X404.00934 Y-158.4998 I26.08114 J20.58439
G3 X404.87568 Y-160.22675 I12.20014 J5.03951
G3 X405.39544 Y-171.49973 I12.18047 J-5.08687
G3 X406.93344 Y-173.94724 I17.43847 J9.25125
G3 X407.78404 Y-183.56682 I12.66271 J-3.72772
G3 X409.55601 Y-188.76919 I13.10731 J1.56151
G3 X407.50319 Y-190.40581 I7.16147 J-11.08843
G3 X399.04057 Y-192.85162 I-0.77637 J-13.17715
G3 X392.94888 Y-193.04274 I-2.64309 J-12.93267
G3 X391.9972 Y-192.66367 I-5.35673 J-12.06422
G3 X389.68238 Y-190.11829 I-10.83972 J-7.53262
G3 X391.8225 Y-187.0744 I-28.59172 J22.37682
G3 X393.68714 Y-177.98179 I-11.17302 J7.02878
G1 F300.0 X392.10682 Y-178.23195
G3 F800.0 X390.99477 Y-174.79824 I-11.45734 J-1.81367
G3 X391.60181 Y-173.02353 I-19.38941 J7.62338
G3 X398.87488 Y-162.39315 I-25.09854 J24.97508
G3 X397.38377 Y-150.51799 I-10.6054 J4.69953
G3 X397.49778 Y-148.73301 I-11.48495 J1.62969
G3 X398.02585 Y-146.68555 I-10.92163 J3.90872
G3 X405.37065 Y-157.59306 I29.33189 J11.8246
G3 X406.64419 Y-160.0227 I10.83883 J4.13277
G3 X406.66756 Y-160.1525 I11.42796 J1.9904
G3 X406.80886 Y-170.74989 I10.38859 J-5.16112
G3 X408.71917 Y-173.64367 I16.02505 J8.50142
G3 X409.34317 Y-183.10049 I10.87698 J-4.03129
G3 X411.88275 Y-189.31318 I11.54819 J1.09518
G3 X408.12271 Y-192.06725 I4.83474 J-10.54445
G3 X399.40937 Y-194.58213 I-1.3959 J-11.51571
G3 X392.81752 Y-194.75053 I-3.01189 J-11.20217
G3 X390.97 Y-194.00966 I-5.22537 J-10.35643
G3 X387.37696 Y-190.40456 I-9.81252 J-6.18664
G3 X390.46819 Y-186.22243 I-26.2863 J22.66309
G3 X392.10682 Y-178.23195 I-9.81871 J6.1768
G1 F300.0 X390.5265 Y-178.48212
G3 F800.0 X389.22173 Y-174.8962 I-9.87702 J-1.56351
G3 X390.17565 Y-172.18486 I-17.61637 J7.72134
G3 X397.41207 Y-161.74494 I-23.67237 J24.1364
G3 X395.67821 Y-150.97717 I-9.14258 J4.05132
G3 X395.88985 Y-148.46502 I-9.7794 J2.08888
G3 X396.57615 Y-144.82429 I-9.3137 J3.64073
G1 Y-144.48563
G3 X395.72745 Y-140.45403 I-10.0 J0.0
G3 X395.72947 Y-140.26615 I-9.99796 J0.20174
G3 X397.21011 Y-138.26416 I-25.20411 J20.18904
G3 X398.9466 Y-132.69845 I-8.2633 J5.63187
G3 X399.43247 Y-134.37786 I9.81222 J1.92882
G3 X400.49764 Y-136.64931 I16.88545 J6.53274
G3 X399.47126 Y-145.99121 I8.26117 J-5.63498
G3 X406.58022 Y-156.53659 I27.88649 J11.13026
G3 X406.74607 Y-156.692 I6.91993 J7.21904
G3 X408.16647 Y-159.40251 I9.46341 J3.2317
G3 X408.31248 Y-160.21146 I9.90568 J1.37022
G3 X408.35294 Y-160.38877 I18.86115 J4.21137
G3 X408.22228 Y-170.00006 I8.70321 J-4.92486
G3 X410.57725 Y-173.35529 I14.61163 J7.75159
G3 X410.91098 Y-182.63155 I9.01889 J-4.31967
G3 X413.9399 Y-189.194 I9.98037 J0.62625
G3 X413.52444 Y-190.3811 I9.21225 J-3.8903
G3 X408.76626 Y-193.79313 I3.19304 J-9.47652
G3 X399.79212 Y-196.3781 I-2.03944 J-9.78982
G3 X392.68296 Y-196.49977 I-3.39464 J-9.40619
G3 X389.92248 Y-195.38227 I-5.09081 J-8.60719
G3 X384.77563 Y-190.87379 I-8.765 J-4.81402
G3 X389.11389 Y-185.37046 I-23.68498 J23.13233
G3 X390.5265 Y-178.48212 I-8.46441 J5.32483
G1 F300.0 X388.94618 Y-178.73228
G3 F800.0 X387.39113 Y-175.03461 I-8.29669 J-1.31335
G3 X388.73841 Y-171.34914 I-15.78577 J7.85975
G3 X395.94925 Y-161.09673 I-22.23514 J23.30068
G3 X393.89646 Y-151.45687 I-7.67977 J3.4031
G3 X394.27016 Y-148.19507 I-7.99765 J2.56858
G3 X394.97615 Y-144.82429 I-7.69401 J3.37078
G1 Y-144.48563
G3 X394.11308 Y-140.77691 I-8.4 J0.0
G3 X394.1124 Y-139.71683 I-8.3836 J0.52461
G3 X395.88798 Y-137.36306 I-23.58704 J19.63972
G3 X397.32292 Y-131.99909 I-6.94117 J4.73077
G3 X399.0085 Y-129.21376 I-26.91586 J18.19115
G3 X400.36469 Y-131.08358 I87.32735 J61.91191
G3 X400.92469 Y-133.80054 I8.39413 J0.31396
G3 X402.26716 Y-136.50507 I15.39324 J5.95543
G3 X402.4308 Y-136.76015 I7.1509 J4.40734
G3 X400.95727 Y-145.3981 I6.32802 J-5.52414
G3 X407.68741 Y-155.38155 I26.40048 J10.53715
G3 X408.13684 Y-155.78244 I5.81274 J6.064
G3 X409.70511 Y-158.77566 I8.07265 J2.32215
G3 X409.87402 Y-159.86279 I8.36704 J0.74336
G3 X410.06906 Y-160.65095 I17.2996 J3.8627
G3 X409.6357 Y-169.25023 I6.98709 J-4.66268
G3 X412.55632 Y-173.0923 I13.19821 J7.00176
G3 X412.49275 Y-182.15845 I7.03983 J-4.58266
G3 X415.14642 Y-188.13359 I8.3986 J0.15314
G3 X415.924 Y-188.80483 I8.5734 J9.14549
G3 X414.87334 Y-191.66256 I7.22815 J-4.27946
G3 X409.4542 Y-195.63806 I1.84414 J-8.19507
G3 X400.20053 Y-198.29451 I-2.72738 J-7.9449
G3 X392.54287 Y-198.32092 I-3.80305 J-7.48978
G3 X388.84036 Y-196.80022 I-4.95072 J-6.78604
G3 X383.04666 Y-192.01149 I-7.68288 J-3.39608
G3 X383.12282 Y-190.88296 I-8.32385 J1.12853
G1 Y-190.54429
G3 X383.1183 Y-190.26885 I-8.4 J0.0
G3 X387.75958 Y-184.51848 I-22.02764 J22.52738
G3 X388.94618 Y-178.73228 I-7.1101 J4.47286
G1 F300.0 X387.36585 Y-178.98244
G3 F800.0 X385.46244 Y-175.24194 I-6.71637 J-1.06319
G3 X387.28739 Y-170.5171 I-13.85708 J8.06708
G3 X394.48644 Y-160.44852 I-20.78412 J22.46864
G3 X391.95563 Y-151.97941 I-6.21696 J2.75489
G3 X392.62976 Y-147.92167 I-6.05682 J3.09111
G3 X393.37615 Y-144.82429 I-6.05361 J3.09738
G1 Y-144.48563
G3 X392.47589 Y-141.10434 I-6.8 J0.0
G3 X392.44806 Y-139.20312 I-6.74641 J0.85205
G3 X394.56586 Y-136.46196 I-21.92269 J19.12601
G3 X395.66555 Y-131.58413 I-5.61904 J3.82967
G3 X398.78329 Y-126.00522 I-25.25849 J17.77619
G3 X398.84995 Y-126.12507 I31.43357 J17.40502
G3 X399.16486 Y-126.63462 I5.93631 J3.31665
G3 X401.96238 Y-130.54959 I87.17099 J59.33277
G3 X402.4169 Y-133.22322 I6.79644 J-0.22004
G3 X403.62923 Y-135.66557 I13.90102 J5.37811
G3 X404.0284 Y-136.244 I5.78882 J3.56784
G2 X404.55839 Y-136.93673 I-129.86327 J-99.90401
G3 X402.44328 Y-144.805 I4.20043 J-5.34756
G3 X408.7946 Y-154.2265 I24.91447 J9.94405
G3 X409.55416 Y-154.85552 I4.70555 J4.90895
G3 X411.27295 Y-158.1369 I6.65532 J1.39523
G3 X411.43557 Y-159.51413 I6.7992 J0.10461
G3 X411.83054 Y-160.96241 I15.73805 J3.51403
G3 X411.04912 Y-168.5004 I5.22561 J-4.35121
G3 X413.73326 Y-172.00276 I11.78479 J6.25193
G3 X413.91562 Y-172.16685 I4.63885 J4.97203
G3 X414.77241 Y-172.88209 I19.17704 J22.1016
G3 X414.09924 Y-181.67795 I4.82374 J-4.79287
G3 X416.2407 Y-186.96629 I6.79212 J-0.32736
G3 X418.19743 Y-188.42696 I7.47913 J7.9782
G3 X416.35217 Y-193.06745 I4.95472 J-4.65733
G3 X410.24739 Y-197.76527 I0.36531 J-6.79018
G3 X400.66917 Y-200.49348 I-3.52058 J-5.81769
G3 X392.39143 Y-200.28961 I-4.27168 J-5.29081
G3 X387.68995 Y-198.30766 I-4.79928 J-4.81735
G3 X381.70125 Y-193.41807 I-6.53246 J-1.88863
G3 X381.25393 Y-192.77626 I-5.7931 J-3.56089
G3 X381.52282 Y-190.88296 I-6.53111 J1.8933
G1 Y-190.54429
G3 X381.4621 Y-189.63762 I-6.8 J0.0
G3 X386.40528 Y-183.66651 I-20.37144 J21.89615
G3 X387.36585 Y-178.98244 I-5.7558 J3.62089
G1 F300.0 X385.78553 Y-179.2326
G3 F800.0 X383.33207 Y-175.591 I-5.13605 J-0.81303
G3 X385.74243 Y-170.08868 I-11.72671 J8.41614
G3 X385.80729 Y-169.70002 I-5.09295 J1.04972
G3 X393.02363 Y-159.80031 I-19.30402 J21.65156
G3 X389.49848 Y-152.64095 I-4.75414 J2.10668
G3 X390.94706 Y-147.64122 I-3.59966 J3.75265
G3 X391.77615 Y-144.82429 I-4.37092 J2.81693
G1 Y-144.48563
G3 X390.79175 Y-141.44117 I-5.2 J0.0
G3 X390.70693 Y-138.74728 I-5.06227 J1.18888
G3 X393.24373 Y-135.56086 I-20.18156 J18.67017
G3 X393.95249 Y-131.22402 I-4.29691 J2.92857
G3 X398.36983 Y-122.5137 I-23.54543 J17.41607
G3 X398.56405 Y-121.89253 I-147.93992 J46.59747
G3 X400.24673 Y-125.34468 I31.65281 J13.29233
G3 X400.48754 Y-125.73433 I4.53953 J2.53626
G3 X403.60588 Y-130.07158 I85.84831 J58.43248
G3 X403.90912 Y-132.64591 I5.15293 J-0.69804
G3 X404.99131 Y-134.82608 I12.40881 J4.80079
G3 X405.29655 Y-135.26841 I4.42675 J2.72835
G2 X406.9233 Y-137.41902 I-131.13143 J-100.87961
G3 X403.92929 Y-144.21189 I1.83552 J-4.86527
G3 X409.90179 Y-153.07145 I23.42846 J9.35094
G3 X411.02743 Y-153.89201 I3.59836 J3.7539
G3 X412.9023 Y-157.47309 I5.18205 J0.43172
G3 X412.99712 Y-159.16546 I5.16984 J-0.5592
G3 X413.67445 Y-161.36342 I14.17651 J3.16537
G3 X412.46254 Y-167.75057 I3.38169 J-3.95021
G3 X414.82475 Y-170.83288 I10.37137 J5.50209
G3 X414.96421 Y-170.95836 I3.54736 J3.80214
G3 X417.50258 Y-172.91502 I18.12846 J20.8931
G3 X415.75692 Y-181.18214 I2.09357 J-4.75993
G3 X417.33497 Y-185.799 I5.13443 J-0.82317
G3 X420.83265 Y-187.86611 I6.38485 J6.81091
G3 X420.84768 Y-188.42281 I5.19816 J-0.13819
G3 X418.2785 Y-194.89746 I2.30446 J-4.66149
G3 X411.51897 Y-199.98183 I-1.56102 J-4.96016
G3 X410.2363 Y-199.74584 I-1.57482 J-4.9558
G3 X401.85899 Y-205.4117 I-3.50949 J-3.83712
G3 X402.0966 Y-206.00794 I15.12748 J5.68309
G3 X401.62145 Y-206.05066 I0.22755 J-5.19502
G3 X401.58742 Y-205.46099 I-64.50455 J-3.42642
G3 X392.81813 Y-202.01226 I-5.18994 J-0.3233
G3 X391.93311 Y-202.24408 I0.87002 J-5.1267
G3 X386.35559 Y-200.05612 I-4.34096 J-2.86288
G3 X380.7228 Y-195.01449 I-5.19811 J-0.14017
G3 X379.40994 Y-193.13481 I-4.81465 J-1.96447
G3 X379.92282 Y-190.88296 I-4.68713 J2.25186
G1 Y-190.54429
G3 X379.70795 Y-189.06494 I-5.2 J0.0
G3 X385.05097 Y-182.81454 I-18.61729 J21.32348
G3 X385.78553 Y-179.2326 I-4.40149 J2.76891
G1 F300.0 X384.20521 Y-179.48276
G3 F800.0 X380.47627 Y-176.4498 I-3.55573 J-0.56286
G3 X384.17537 Y-169.76569 I-8.87091 J9.27494
G3 X384.24794 Y-168.93368 I-3.52589 J0.72673
G3 X384.34515 Y-168.85323 I-2.24634 J2.81318
G3 X391.56081 Y-159.1521 I-17.84188 J20.80477
G3 X386.79221 Y-154.41069 I-3.29133 J1.45847
G3 X387.04004 Y-153.74441 I-12.01248 J4.84731
G3 X387.22349 Y-152.3249 I-3.40732 J1.16197
G3 X387.90031 Y-151.88062 I-25.33688 J39.33595
G3 X389.14965 Y-147.34165 I-2.00149 J2.99233
G3 X390.17615 Y-144.82429 I-2.5735 J2.51736
G1 Y-144.48563
G3 X388.97793 Y-141.80394 I-3.6 J0.0
G3 X388.81806 Y-138.40278 I-3.24845 J1.55164
G3 X391.9216 Y-134.65976 I-18.2927 J18.32567
G3 X392.13722 Y-130.96457 I-2.97479 J2.02747
G3 X396.84294 Y-122.03558 I-21.73016 J17.15662
G3 X398.46298 Y-116.53617 I-146.41302 J46.11935
G3 X401.64351 Y-124.56429 I31.75388 J7.93597
G3 X401.81022 Y-124.83405 I3.14275 J1.75587
G3 X405.32556 Y-129.68669 I84.52562 J57.5322
G3 X405.40133 Y-132.06859 I3.43326 J-1.08293
G3 X406.35339 Y-133.98659 I10.91659 J4.22348
G3 X406.56471 Y-134.29281 I3.06467 J1.88886
G2 X409.98415 Y-138.89924 I-132.39958 J-101.8552
G3 X405.41529 Y-143.61878 I-1.22534 J-3.38505
G3 X411.00898 Y-151.9164 I21.94245 J8.75783
G3 X411.88024 Y-152.5325 I2.49117 J2.59886
G3 X412.65055 Y-152.91806 I72.58991 J144.06593
G3 X414.6866 Y-156.72232 I3.55893 J-0.54224
G2 X414.71393 Y-156.73524 I-1.35198 J-2.89595
G3 X414.55867 Y-158.81679 I3.35822 J-1.29706
G3 X415.71146 Y-161.97419 I12.61496 J2.8167
G3 X413.87596 Y-167.00074 I1.34468 J-3.33943
G3 X415.91625 Y-169.66299 I8.95795 J4.75226
G3 X416.01279 Y-169.74986 I2.45586 J2.63225
G3 X420.60042 Y-172.93772 I17.07987 J19.6846
G3 X420.82512 Y-174.2487 I3.59954 J-0.0578
G3 X420.81713 Y-174.28834 I3.52501 J-0.73097
G3 X416.94538 Y-180.11082 I-1.22098 J-3.38662
G3 X417.52279 Y-180.73534 I102.59086 J94.27337
G3 X418.42924 Y-184.63171 I3.36856 J-1.26997
G3 X422.15874 Y-186.56462 I5.29058 J5.64362
G2 X422.61573 Y-186.86535 I-19.35136 J-29.90403
G3 X422.75891 Y-189.50583 I3.41508 J-1.13895
G3 X420.42384 Y-195.43298 I0.39324 J-3.57846
G2 X421.88511 Y-197.1653 I-85.59579 J-73.68562
G3 X420.28625 Y-198.35629 I1.26704 J-3.36966
G3 X419.28106 Y-197.33016 I-160.18145 J-155.90794
G3 X413.32693 Y-201.06766 I-2.56358 J-2.52746
G3 X414.30564 Y-203.16028 I11.5076 J4.10688
G3 X411.43323 Y-201.66003 I-15.0901 J-25.39198
G3 X409.56208 Y-201.35796 I-1.48908 J-3.2776
G3 X409.44695 Y-201.22481 I-52.1518 J-44.97861
G3 X403.35678 Y-204.84901 I-2.72014 J-2.35815
G3 X403.94463 Y-206.20141 I13.62969 J5.1204
G3 X404.05158 Y-206.4009 I3.22468 J1.60044
G2 X405.38191 Y-208.77002 I-98.67768 J-56.9686
G3 X405.3039 Y-209.00592 I3.3769 J-1.24761
G3 X404.63637 Y-208.44368 I-111.73656 J-131.98171
G3 X400.10266 Y-208.37012 I-2.31222 J-2.75928
G3 X399.99052 Y-205.56047 I-62.98577 J-1.10696
G3 X393.67639 Y-203.42725 I-3.59304 J-0.22382
G3 X393.57982 Y-203.54059 I6.87786 J-5.95768
G3 X392.05331 Y-203.93158 I0.10832 J-3.59837
G3 X391.1269 Y-204.42464 I13.45489 J-26.397
G3 X385.43761 Y-202.22287 I-3.53475 J-0.68232
G3 X383.21445 Y-204.12706 I13.14987 J-17.60251
G3 X382.91993 Y-203.4753 I-3.41164 J-1.14924
G3 X383.6299 Y-202.813 I-51.59074 J56.01529
G3 X379.63987 Y-196.93181 I-2.47242 J2.61671
G3 X379.50815 Y-196.99402 I5.03373 J-10.82791
G1 Y-196.97896
G3 X377.10365 Y-193.58326 I-3.6 J0.0
G3 X378.32282 Y-190.88296 I-2.38084 J2.7003
G1 Y-190.54429
G3 X377.74488 Y-188.58799 I-3.6 J0.0
G3 X378.35487 Y-188.11588 I-16.45664 J21.89303
G3 X378.4518 Y-188.03586 I-2.24328 J2.81562
G3 X383.69667 Y-181.96256 I-17.36114 J20.29439
G3 X384.20521 Y-179.48276 I-3.04719 J1.91694
G0 Z3.0
G0 X399.37996 Y-219.15145
G0 Z1.0
G1 F300.0 Z-2.0
G3 F800.0 X400.38135 Y-221.95178 I15.43074 J3.93875
G3 X399.15926 Y-221.19977 I-2.45987 J-2.62851
G2 X399.37996 Y-219.15145 I64.09067 J-5.86978
G1 F300.0 X400.93026 Y-218.75574
G2 F800.0 X400.48529 Y-215.1643 I13.88045 J3.54303
G2 X400.32415 Y-211.20167 I47.87972 J3.93161
G2 X403.60872 Y-209.67002 I2.0 J-0.00129
G2 X406.85406 Y-212.45928 I-110.04138 J-131.31761
G2 X407.8706 Y-212.25505 I0.88875 J-1.79168
G2 X407.88648 Y-212.2124 I2.67097 J-0.9702
G3 X407.15512 Y-211.21268 I-57.05721 J-40.97357
G2 X407.19891 Y-208.76595 I1.6037 J1.19505
G3 X405.43724 Y-205.60093 I-101.82501 J-54.60354
G2 X405.37782 Y-205.4901 I1.73207 J0.99996
G2 X404.85458 Y-204.28632 I11.60865 J5.76149
G2 X408.238 Y-202.27288 I1.87224 J0.70336
G2 X409.00404 Y-203.17235 I-50.82772 J-44.06369
G2 X410.77141 Y-203.11674 I0.94011 J-1.76528
G2 X414.56549 Y-205.20953 I-11.55587 J-25.43552
G2 X415.08175 Y-205.70104 I-1.09888 J-1.67107
G2 X416.07592 Y-207.29203 I-10.49148 J-7.66205
G2 X418.68353 Y-208.00244 I0.71484 J-2.51702
G2 X418.89956 Y-207.92615 I1.24011 J-3.16731
G3 X415.71498 Y-202.40007 I-703.15255 J-401.53453
G2 X414.83384 Y-200.52987 I9.11955 J5.43929
G2 X418.14169 Y-198.45348 I1.88364 J0.67224
G2 X421.75165 Y-202.20192 I-158.0369 J-155.81075
G3 X421.37354 Y-201.44959 I-40.78522 J-20.02672
G2 X424.75252 Y-199.33546 I1.77861 J0.91463
G2 X425.38636 Y-198.9803 I1.27829 J-1.53817
G3 X421.63642 Y-194.38912 I-90.55831 J-70.13829
G2 X423.38319 Y-191.09768 I1.51573 J1.30482
G3 X424.56775 Y-191.2213 I5.83058 J50.13518
G2 X425.22885 Y-190.049 I1.97106 J-0.339
G3 X425.19353 Y-190.02208 I-10.75199 J-14.07166
G2 X425.0154 Y-189.8694 I1.21029 J1.59223
G2 X424.42172 Y-189.19207 I3.73518 J3.87273
G2 X424.79061 Y-186.43525 I1.6091 J1.18777
G3 X422.75726 Y-185.0478 I-21.98324 J-30.0334
G2 X419.52351 Y-183.46442 I0.96256 J6.0597
G2 X419.53209 Y-180.5382 I1.36784 J1.45911
G2 X418.1235 Y-179.02822 I100.00415 J94.70075
G2 X420.32869 Y-175.81394 I1.47265 J1.35326
G2 X422.95103 Y-176.86448 I-85.70563 J-217.73498
G2 X423.09519 Y-176.53791 I1.89445 J-0.64114
G2 X423.04495 Y-176.49509 I4.09128 J4.85147
G2 X422.54501 Y-174.11853 I1.30518 J1.51542
G2 X422.32784 Y-172.29184 I1.65495 J1.12301
G2 X422.44351 Y-172.01216 I4.34209 J-1.63207
G2 X421.93229 Y-171.83254 I0.40126 J1.95933
G2 X417.06138 Y-168.54136 I11.16038 J21.76728
G2 X417.00774 Y-168.4931 I1.31073 J1.51062
G2 X415.28937 Y-166.25091 I5.82617 J6.24462
G2 X417.86864 Y-163.4861 I1.76677 J0.93729
G3 X419.26537 Y-164.02847 I6.35014 J14.28339
G3 X418.79785 Y-163.60487 I-52.78222 J-57.78495
G2 X418.62516 Y-163.42928 I1.3369 J1.48752
G2 X416.12021 Y-158.46813 I8.54846 J7.42919
G2 X416.91861 Y-156.39848 I1.95193 J0.43583
G3 X416.01787 Y-155.64313 I-43.21542 J-50.61918
G3 X415.36344 Y-155.27253 I-2.68324 J-3.97514
G2 X414.70357 Y-152.14415 I0.84605 J1.81224
G2 X412.6002 Y-151.10363 I69.76658 J143.67758
G2 X412.11616 Y-150.76136 I0.89995 J1.78608
G2 X406.9013 Y-143.02568 I15.24158 J15.90041
G2 X409.98599 Y-140.70504 I1.85751 J0.74138
G3 X412.76741 Y-142.5053 I11.81212 J15.20105
G2 X412.79114 Y-141.68762 I7.74642 J0.18434
G2 X413.17623 Y-140.66214 I1.99331 J-0.16347
G2 X413.13636 Y-140.60623 I1.60823 J1.18895
G3 X407.83286 Y-133.31722 I-138.97123 J-95.54178
G2 X407.71546 Y-133.1471 I1.58519 J1.21949
G2 X406.89355 Y-131.49127 I8.60246 J5.30198
G2 X407.21044 Y-129.50372 I1.86527 J0.72165
G2 X403.13291 Y-123.93377 I79.12541 J62.20187
G2 X403.04029 Y-123.7839 I1.65335 J1.12535
G2 X399.28995 Y-112.15507 I27.17657 J15.1837
G2 X399.2803 Y-112.0438 I1.98692 J0.22838
G3 X398.91436 Y-107.97058 I-65.83829 J-3.86193
G2 X395.31602 Y-121.55752 I-148.48445 J32.05436
G2 X390.05539 Y-130.96764 I-24.90896 J7.74957
G2 X390.59947 Y-133.75867 I-1.10858 J-1.66465
G2 X386.47856 Y-138.39787 I-20.07411 J13.68156
G2 X387.20498 Y-141.60244 I-0.74908 J-1.85442
G2 X386.4015 Y-142.45447 I-28.76467 J26.321
G2 X386.80712 Y-142.49901 I-3.29496 J-31.87441
G2 X388.57615 Y-144.48563 I-0.23097 J-1.98662
G1 Y-144.82429
G2 X387.39787 Y-146.64769 I-2.0 J0.0
G3 X386.64146 Y-147.03128 I3.79472 J-8.42043
G2 X387.01076 Y-150.5507 I-0.74264 J-1.85701
G2 X385.37261 Y-151.59614 I-25.12414 J37.56175
G2 X385.52567 Y-153.22798 I-1.73989 J-0.9863
G2 X382.09045 Y-158.25003 I-10.74594 J3.6646
G2 X383.43454 Y-159.03325 I-0.25564 J-1.9836
G3 X385.56495 Y-157.16701 I-92.23039 J107.43445
G2 X387.32864 Y-155.92874 I5.91659 J-6.55198
G2 X390.098 Y-158.50389 I0.94084 J-1.76488
G2 X383.30358 Y-167.63868 I-23.59473 J10.45543
G2 X383.11712 Y-167.78051 I-1.30197 J1.51818
G3 X382.47216 Y-168.21565 I117.40064 J-174.70584
G2 X382.60831 Y-169.4427 I-1.82268 J-0.82331
G2 X377.52072 Y-176.72559 I-11.00295 J2.26784
G2 X377.18799 Y-176.94783 I-56.58351 J84.35454
G2 X377.30274 Y-178.46084 I-1.78784 J-0.89646
G2 X377.14605 Y-178.89631 I-6.87582 J2.22816
G3 X380.13965 Y-178.1117 I-272.37465 J1045.32135
G2 X382.34236 Y-181.11059 I0.50984 J-1.93393
G2 X377.41171 Y-186.82004 I-21.2517 J13.36913
G2 X377.35786 Y-186.8645 I-1.30011 J1.51977
G2 X374.96354 Y-188.55883 I-16.06961 J20.16953
G2 X376.72282 Y-190.54429 I-0.24073 J-1.98546
G1 Y-190.88296
G2 X375.17496 Y-192.83118 I-2.0 J0.0
G3 X373.33613 Y-193.41388 I2.76869 J-11.92987
G2 X372.9002 Y-194.66945 I-1.99998 J-0.00907
G2 X372.99139 Y-195.44162 I-1.90272 J-0.61617
G1 X375.5763 Y-195.00668
G2 X377.90815 Y-196.97896 I0.33185 J-1.97228
G1 Y-197.31763
G2 X376.40932 Y-199.25381 I-2.0 J0.0
G3 X375.82657 Y-199.41505 I4.55267 J-17.58851
G2 X375.86399 Y-200.07782 I-1.95042 J-0.44258
G2 X376.56853 Y-200.95001 I-1.14118 J-1.64247
G3 X377.678 Y-200.14447 I-2.73543 J4.93435
G2 X377.69037 Y-200.13305 I1.36299 J-1.46364
G2 X380.31437 Y-198.38269 I6.98323 J-7.62667
G2 X382.53105 Y-201.65002 I0.84312 J-1.8136
G2 X380.57668 Y-203.43208 I-51.20185 J54.19001
G2 X381.55778 Y-206.23551 I-0.77386 J-1.84422
G2 X382.78375 Y-206.91415 I-0.29425 J-1.97824
G3 X382.89746 Y-206.83152 I-8.63616 J12.00452
G2 X386.39518 Y-203.50469 I15.69002 J-12.99386
G2 X389.36982 Y-206.02341 I1.19697 J-1.60227
G3 X388.35027 Y-208.16946 I32.51498 J-16.76248
G3 X388.35685 Y-208.16385 I-3.26871 J3.83971
G2 X388.43781 Y-208.09826 I1.29905 J-1.52068
G2 X392.7799 Y-205.35708 I17.07038 J-22.23033
G2 X394.30831 Y-205.23754 I0.90825 J-1.78188
G2 X394.36334 Y-205.15249 I1.70608 J-1.04369
G2 X394.88576 Y-204.47482 I6.19091 J-4.23244
G2 X398.39361 Y-205.65995 I1.51172 J-1.30947
G2 X397.94671 Y-217.79213 I-61.27672 J-3.81713
G2 X397.9453 Y-217.80226 I-1.98157 J0.27087
G3 X397.43999 Y-222.63912 I65.30462 J-9.2673
G2 X399.80932 Y-223.91993 I0.4815 J-1.94118
G3 X401.28727 Y-224.73535 I1.19444 J0.41782
G2 X403.3402 Y-223.79452 I1.71421 J-1.03028
G2 X400.93026 Y-218.75574 I11.4705 J8.58181
G1 F300.0 X399.37996 Y-219.15145
G1 Z-3.0
G3 F800.0 X400.38135 Y-221.95178 I15.43074 J3.93875
G3 X399.15926 Y-221.19977 I-2.45987 J-2.62851
G2 X399.37996 Y-219.15145 I64.09067 J-5.86978
G0 Z3.0
G0 X399.51593 Y-185.35762
G0 Z-1.0
G1 F300.0 Z-3.0
G3 F800.0 X400.2372 Y-180.73944 I-18.86645 J5.31199
G3 X401.3156 Y-184.74473 I19.35895 J3.06448
G3 X399.51593 Y-185.35762 I5.41121 J-18.83823
G0 Z3.0
G0 X400.00843 Y-176.98115
G0 Z-1.0
G1 F300.0 Z-3.0
G3 F800.0 X399.80428 Y-175.89185 I-19.35895 J-3.06448
G3 X400.11549 Y-175.51535 I-33.301 J27.84339
G3 X400.00843 Y-176.98115 I19.48066 J-2.15961
G1 F300.0 X398.42811 Y-177.23131
G3 F800.0 X398.05899 Y-175.47297 I-17.77863 J-2.81432
G3 X400.50111 Y-172.3798 I-31.55571 J27.42452
G3 X401.15518 Y-173.74922 I16.55504 J7.06617
G3 X401.81024 Y-174.90705 I21.67873 J11.50074
G3 X403.13507 Y-184.95732 I17.78591 J-2.76791
G3 X403.31961 Y-185.90837 I17.75628 J2.95202
G3 X397.97542 Y-187.85359 I3.4072 J-17.67459
G3 X396.89772 Y-187.79124 I-1.57794 J-17.9307
G3 X398.42811 Y-177.23131 I-16.24824 J7.74562
G1 F300.0 X396.84779 Y-177.48147
G3 F800.0 X396.27664 Y-175.07048 I-16.19831 J-2.56416
G3 X401.00758 Y-168.69054 I-29.77336 J27.02203
G3 X402.5686 Y-172.99939 I16.04856 J3.37692
G3 X403.49057 Y-174.58136 I20.26531 J10.75091
G3 X404.68141 Y-184.49481 I16.10558 J-3.0936
G3 X405.34952 Y-187.2409 I16.20995 J2.48951
G3 X398.32588 Y-189.49806 I1.3773 J-16.34206
G3 X394.02894 Y-189.55623 I-1.9284 J-16.28623
G3 X394.53111 Y-188.77835 I-32.93828 J21.81477
G3 X396.84779 Y-177.48147 I-13.88163 J8.73272
G1 F300.0 X395.26747 Y-177.73163
G3 F800.0 X394.4462 Y-174.68926 I-14.61798 J-2.31399
G3 X401.80051 Y-163.68957 I-27.94292 J26.6408
G3 X402.89929 Y-159.93167 I-13.53102 J5.99595
G3 X403.11236 Y-160.35271 I13.3102 J6.47137
G3 X403.98202 Y-172.24956 I13.94379 J-4.96092
G3 X405.19533 Y-174.2608 I18.85189 J10.00108
G3 X406.23069 Y-184.03142 I14.40082 J-3.41416
G3 X407.49022 Y-188.28621 I14.66066 J2.02612
G3 X406.89843 Y-188.78395 I9.22726 J-11.57142
G3 X398.68037 Y-191.16142 I-0.17161 J-14.799
G3 X393.07822 Y-191.36131 I-2.28288 J-14.62287
G3 X393.01134 Y-191.3348 I-5.48608 J-13.74565
G3 X391.82212 Y-189.93445 I-11.85386 J-8.86149
G3 X393.1768 Y-187.92638 I-30.73146 J22.19298
G3 X395.26747 Y-177.73163 I-12.52732 J7.88075
G1 F300.0 X393.68714 Y-177.98179
G3 F800.0 X392.73037 Y-174.72659 I-13.03766 J-2.06383
G3 X393.01895 Y-173.86461 I-21.12501 J7.55173
G3 X400.33769 Y-163.04136 I-26.51568 J25.81616
G3 X401.2766 Y-155.44534 I-12.06821 J5.34774
G3 X404.00934 Y-158.4998 I26.08114 J20.58439
G3 X404.87568 Y-160.22675 I12.20014 J5.03951
G3 X405.39544 Y-171.49973 I12.18047 J-5.08687
G3 X406.93344 Y-173.94724 I17.43847 J9.25125
G3 X407.78404 Y-183.56682 I12.66271 J-3.72772
G3 X409.55601 Y-188.76919 I13.10731 J1.56151
G3 X407.50319 Y-190.40581 I7.16147 J-11.08843
G3 X399.04057 Y-192.85162 I-0.77637 J-13.17715
G3 X392.94888 Y-193.04274 I-2.64309 J-12.93267
G3 X391.9972 Y-192.66367 I-5.35673 J-12.06422
G3 X389.68238 Y-190.11829 I-10.83972 J-7.53262
G3 X391.8225 Y-187.0744 I-28.59172 J22.37682
G3 X393.68714 Y-177.98179 I-11.17302 J7.02878
G1 F300.0 X392.10682 Y-178.23195
G3 F800.0 X390.99477 Y-174.79824 I-11.45734 J-1.81367
G3 X391.60181 Y-173.02353 I-19.38941 J7.62338
G3 X398.87488 Y-162.39315 I-25.09854 J24.97508
G3 X397.38377 Y-150.51799 I-10.6054 J4.69953
G3 X397.49778 Y-148.73301 I-11.48495 J1.62969
G3 X398.02585 Y-146.68555 I-10.92163 J3.90872
G3 X405.37065 Y-157.59306 I29.33189 J11.8246
G3 X406.64419 Y-160.0227 I10.83883 J4.13277
G3 X406.66756 Y-160.1525 I11.42796 J1.9904
G3 X406.80886 Y-170.74989 I10.38859 J-5.16112
G3 X408.71917 Y-173.64367 I16.02505 J8.50142
G3 X409.34317 Y-183.10049 I10.87698 J-4.03129
G3 X411.88275 Y-189.31318 I11.54819 J1.09518
G3 X408.12271 Y-192.06725 I4.83474 J-10.54445
G3 X399.40937 Y-194.58213 I-1.3959 J-11.51571
G3 X392.81752 Y-194.75053 I-3.01189 J-11.20217
G3 X390.97 Y-194.00966 I-5.22537 J-10.35643
G3 X387.37696 Y-190.40456 I-9.81252 J-6.18664
G3 X390.46819 Y-186.22243 I-26.2863 J22.66309
G3 X392.10682 Y-178.23195 I-9.81871 J6.1768
G1 F300.0 X390.5265 Y-178.48212
G3 F800.0 X389.22173 Y-174.8962 I-9.87702 J-1.56351
G3 X390.17565 Y-172.18486 I-17.61637 J7.72134
G3 X397.41207 Y-161.74494 I-23.67237 J24.1364
G3 X395.67821 Y-150.97717 I-9.14258 J4.05132
G3 X395.88985 Y-148.46502 I-9.7794 J2.08888
G3 X396.57615 Y-144.82429 I-9.3137 J3.64073
G1 Y-144.48563
G3 X395.72745 Y-140.45403 I-10.0 J0.0
G3 X395.72947 Y-140.26615 I-9.99796 J0.20174
G3 X397.21011 Y-138.26416 I-25.20411 J20.18904
G3 X398.9466 Y-132.69845 I-8.2633 J5.63187
G3 X399.43247 Y-134.37786 I9.81222 J1.92882
G3 X400.49764 Y-136.64931 I16.88545 J6.53274
G3 X399.47126 Y-145.99121 I8.26117 J-5.63498
G3 X406.58022 Y-156.53659 I27.88649 J11.13026
G3 X406.74607 Y-156.692 I6.91993 J7.21904
G3 X408.16647 Y-159.40251 I9.46341 J3.2317
G3 X408.31248 Y-160.21146 I9.90568 J1.37022
G3 X408.35294 Y-160.38877 I18.86115 J4.21137
G3 X408.22228 Y-170.00006 I8.70321 J-4.92486
G3 X410.57725 Y-173.35529 I14.61163 J7.75159
G3 X410.91098 Y-182.63155 I9.01889 J-4.31967
G3 X413.9399 Y-189.194 I9.98037 J0.62625
G3 X413.52444 Y-190.3811 I9.21225 J-3.8903
G3 X408.76626 Y-193.79313 I3.19304 J-9.47652
G3 X399.79212 Y-196.3781 I-2.03944 J-9.78982
G3 X392.68296 Y-196.49977 I-3.39464 J-9.40619
G3 X389.92248 Y-195.38227 I-5.09081 J-8.60719
G3 X384.77563 Y-190.87379 I-8.765 J-4.81402
G3 X389.11389 Y-185.37046 I-23.68498 J23.13233
G3 X390.5265 Y-178.48212 I-8.46441 J5.32483
G1 F300.0 X388.94618 Y-178.73228
G3 F800.0 X387.39113 Y-175.03461 I-8.29669 J-1.31335
G3 X388.73841 Y-171.34914 I-15.78577 J7.85975
G3 X395.94925 Y-161.09673 I-22.23514 J23.30068
G3 X393.89646 Y-151.45687 I-7.67977 J3.4031
G3 X394.27016 Y-148.19507 I-7.99765 J2.56858
G3 X394.97615 Y-144.82429 I-7.69401 J3.37078
G1 Y-144.48563
G3 X394.11308 Y-140.77691 I-8.4 J0.0
G3 X394.1124 Y-139.71683 I-8.3836 J0.52461
G3 X395.88798 Y-137.36306 I-23.58704 J19.63972
G3 X397.32292 Y-131.99909 I-6.94117 J4.73077
G3 X399.0085 Y-129.21376 I-26.91586 J18.19115
G3 X400.36469 Y-131.08358 I87.32735 J61.91191
G3 X400.92469 Y-133.80054 I8.39413 J0.31396
G3 X402.26716 Y-136.50507 I15.39324 J5.95543
G3 X402.4308 Y-136.76015 I7.1509 J4.40734
G3 X400.95727 Y-145.3981 I6.32802 J-5.52414
G3 X407.68741 Y-155.38155 I26.40048 J10.53715
G3 X408.13684 Y-155.78244 I5.81274 J6.064
G3 X409.70511 Y-158.77566 I8.07265 J2.32215
G3 X409.87402 Y-159.86279 I8.36704 J0.74336
G3 X410.06906 Y-160.65095 I17.2996 J3.8627
G3 X409.6357 Y-169.25023 I6.98709 J-4.66268
G3 X412.55632 Y-173.0923 I13.19821 J7.00176
G3 X412.49275 Y-182.15845 I7.03983 J-4.58266
G3 X415.14642 Y-188.13359 I8.3986 J0.15314
G3 X415.924 Y-188.80483 I8.5734 J9.14549
G3 X414.87334 Y-191.66256 I7.22815 J-4.27946
G3 X409.4542 Y-195.63806 I1.84414 J-8.19507
G3 X400.20053 Y-198.29451 I-2.72738 J-7.9449
G3 X392.54287 Y-198.32092 I-3.80305 J-7.48978
G3 X388.84036 Y-196.80022 I-4.95072 J-6.78604
G3 X383.04666 Y-192.01149 I-7.68288 J-3.39608
G3 X383.12282 Y-190.88296 I-8.32385 J1.12853
G1 Y-190.54429
G3 X383.1183 Y-190.26885 I-8.4 J0.0
G3 X387.75958 Y-184.51848 I-22.02764 J22.52738
G3 X388.94618 Y-178.73228 I-7.1101 J4.47286
G1 F300.0 X387.36585 Y-178.98244
G3 F800.0 X385.46244 Y-175.24194 I-6.71637 J-1.06319
G3 X387.28739 Y-170.5171 I-13.85708 J8.06708
G3 X394.48644 Y-160.44852 I-20.78412 J22.46864
G3 X391.95563 Y-151.97941 I-6.21696 J2.75489
G3 X392.62976 Y-147.92167 I-6.05682 J3.09111
G3 X393.37615 Y-144.82429 I-6.05361 J3.09738
G1 Y-144.48563
G3 X392.47589 Y-141.10434 I-6.8 J0.0
G3 X392.44806 Y-139.20312 I-6.74641 J0.85205
G3 X394.56586 Y-136.46196 I-21.92269 J19.12601
G3 X395.66555 Y-131.58413 I-5.61904 J3.82967
G3 X398.78329 Y-126.00522 I-25.25849 J17.77619
G3 X398.84995 Y-126.12507 I31.43357 J17.40502
G3 X399.16486 Y-126.63462 I5.93631 J3.31665
G3 X401.96238 Y-130.54959 I87.17099 J59.33277
G3 X402.4169 Y-133.22322 I6.79644 J-0.22004
G3 X403.62923 Y-135.66557 I13.90102 J5.37811
G3 X404.0284 Y-136.244 I5.78882 J3.56784
G2 X404.55839 Y-136.93673 I-129.86327 J-99.90401
G3 X402.44328 Y-144.805 I4.20043 J-5.34756
G3 X408.7946 Y-154.2265 I24.91447 J9.94405
G3 X409.55416 Y-154.85552 I4.70555 J4.90895
G3 X411.27295 Y-158.1369 I6.65532 J1.39523
G3 X411.43557 Y-159.51413 I6.7992 J0.10461
G3 X411.83054 Y-160.96241 I15.73805 J3.51403
G3 X411.04912 Y-168.5004 I5.22561 J-4.35121
G3 X413.73326 Y-172.00276 I11.78479 J6.25193
G3 X413.91562 Y-172.16685 I4.63885 J4.97203
G3 X414.77241 Y-172.88209 I19.17704 J22.1016
G3 X414.09924 Y-181.67795 I4.82374 J-4.79287
G3 X416.2407 Y-186.96629 I6.79212 J-0.32736
G3 X418.19743 Y-188.42696 I7.47913 J7.9782
G3 X416.35217 Y-193.06745 I4.95472 J-4.65733
G3 X410.24739 Y-197.76527 I0.36531 J-6.79018
G3 X400.66917 Y-200.49348 I-3.52058 J-5.81769
G3 X392.39143 Y-200.28961 I-4.27168 J-5.29081
G3 X387.68995 Y-198.30766 I-4.79928 J-4.81735
G3 X381.70125 Y-193.41807 I-6.53246 J-1.88863
G3 X381.25393 Y-192.77626 I-5.7931 J-3.56089
G3 X381.52282 Y-190.88296 I-6.53111 J1.8933
G1 Y-190.54429
G3 X381.4621 Y-189.63762 I-6.8 J0.0
G3 X386.40528 Y-183.66651 I-20.37144 J21.89615
G3 X387.36585 Y-178.98244 I-5.7558 J3.62089
G1 F300.0 X385.78553 Y-179.2326
G3 F800.0 X383.33207 Y-175.591 I-5.13605 J-0.81303
G3 X385.74243 Y-170.08868 I-11.72671 J8.41614
G3 X385.80729 Y-169.70002 I-5.09295 J1.04972
G3 X393.02363 Y-159.80031 I-19.30402 J21.65156
G3 X389.49848 Y-152.64095 I-4.75414 J2.10668
G3 X390.94706 Y-147.64122 I-3.59966 J3.75265
G3 X391.77615 Y-144.82429 I-4.37092 J2.81693
G1 Y-144.48563
G3 X390.79175 Y-141.44117 I-5.2 J0.0
G3 X390.70693 Y-138.74728 I-5.06227 J1.18888
G3 X393.24373 Y-135.56086 I-20.18156 J18.67017
G3 X393.95249 Y-131.22402 I-4.29691 J2.92857
G3 X398.36983 Y-122.5137 I-23.54543 J17.41607
G3 X398.56405 Y-121.89253 I-147.93992 J46.59747
G3 X400.24673 Y-125.34468 I31.65281 J13.29233
G3 X400.48754 Y-125.73433 I4.53953 J2.53626
G3 X403.60588 Y-130.07158 I85.84831 J58.43248
G3 X403.90912 Y-132.64591 I5.15293 J-0.69804
G3 X404.99131 Y-134.82608 I12.40881 J4.80079
G3 X405.29655 Y-135.26841 I4.42675 J2.72835
G2 X406.9233 Y-137.41902 I-131.13143 J-100.87961
G3 X403.92929 Y-144.21189 I1.83552 J-4.86527
G3 X409.90179 Y-153.07145 I23.42846 J9.35094
G3 X411.02743 Y-153.89201 I3.59836 J3.7539
G3 X412.9023 Y-157.47309 I5.18205 J0.43172
G3 X412.99712 Y-159.16546 I5.16984 J-0.5592
G3 X413.67445 Y-161.36342 I14.17651 J3.16537
G3 X412.46254 Y-167.75057 I3.38169 J-3.95021
G3 X414.82475 Y-170.83288 I10.37137 J5.50209
G3 X414.96421 Y-170.95836 I3.54736 J3.80214
G3 X417.50258 Y-172.91502 I18.12846 J20.8931
G3 X415.75692 Y-181.18214 I2.09357 J-4.75993
G3 X417.33497 Y-185.799 I5.13443 J-0.82317
G3 X420.83265 Y-187.86611 I6.38485 J6.81091
G3 X420.84768 Y-188.42281 I5.19816 J-0.13819
G3 X418.2785 Y-194.89746 I2.30446 J-4.66149
G3 X411.51897 Y-199.98183 I-1.56102 J-4.96016
G3 X410.2363 Y-199.74584 I-1.57482 J-4.9558
G3 X401.85899 Y-205.4117 I-3.50949 J-3.83712
G3 X402.0966 Y-206.00794 I15.12748 J5.68309
G3 X401.62145 Y-206.05066 I0.22755 J-5.19502
G3 X401.58742 Y-205.46099 I-64.50455 J-3.42642
G3 X392.81813 Y-202.01226 I-5.18994 J-0.3233
G3 X391.93311 Y-202.24408 I0.87002 J-5.1267
G3 X386.35559 Y-200.05612 I-4.34096 J-2.86288
G3 X380.7228 Y-195.01449 I-5.19811 J-0.14017
G3 X379.40994 Y-193.13481 I-4.81465 J-1.96447
G3 X379.92282 Y-190.88296 I-4.68713 J2.25186
G1 Y-190.54429
G3 X379.70795 Y-189.06494 I-5.2 J0.0
G3 X385.05097 Y-182.81454 I-18.61729 J21.32348
G3 X385.78553 Y-179.2326 I-4.40149 J2.76891
G1 F300.0 X384.20521 Y-179.48276
G3 F800.0 X380.47627 Y-176.4498 I-3.55573 J-0.56286
G3 X384.17537 Y-169.76569 I-8.87091 J9.27494
G3 X384.24794 Y-168.93368 I-3.52589 J0.72673
G3 X384.34515 Y-168.85323 I-2.24634 J2.81318
G3 X391.56081 Y-159.1521 I-17.84188 J20.80477
G3 X386.79221 Y-154.41069 I-3.29133 J1.45847
G3 X387.04004 Y-153.74441 I-12.01248 J4.84731
G3 X387.22349 Y-152.3249 I-3.40732 J1.16197
G3 X387.90031 Y-151.88062 I-25.33688 J39.33595
G3 X389.14965 Y-147.34165 I-2.00149 J2.99233
G3 X390.17615 Y-144.82429 I-2.5735 J2.51736
G1 Y-144.48563
G3 X388.97793 Y-141.80394 I-3.6 J0.0
G3 X388.81806 Y-138.40278 I-3.24845 J1.55164
G3 X391.9216 Y-134.65976 I-18.2927 J18.32567
G3 X392.13722 Y-130.96457 I-2.97479 J2.02747
G3 X396.84294 Y-122.03558 I-21.73016 J17.15662
G3 X398.46298 Y-116.53617 I-146.41302 J46.11935
G3 X401.64351 Y-124.56429 I31.75388 J7.93597
G3 X401.81022 Y-124.83405 I3.14275 J1.75587
G3 X405.32556 Y-129.68669 I84.52562 J57.5322
G3 X405.40133 Y-132.06859 I3.43326 J-1.08293
G3 X406.35339 Y-133.98659 I10.91659 J4.22348
G3 X406.56471 Y-134.29281 I3.06467 J1.88886
G2 X409.98415 Y-138.89924 I-132.39958 J-101.8552
G3 X405.41529 Y-143.61878 I-1.22534 J-3.38505
G3 X411.00898 Y-151.9164 I21.94245 J8.75783
G3 X411.88024 Y-152.5325 I2.49117 J2.59886
G3 X412.65055 Y-152.91806 I72.58991 J144.06593
G3 X414.6866 Y-156.72232 I3.55893 J-0.54224
G2 X414.71393 Y-156.73524 I-1.35198 J-2.89595
G3 X414.55867 Y-158.81679 I3.35822 J-1.29706
G3 X415.71146 Y-161.97419 I12.61496 J2.8167
G3 X413.87596 Y-167.00074 I1.34468 J-3.33943
G3 X415.91625 Y-169.66299 I8.95795 J4.75226
G3 X416.01279 Y-169.74986 I2.45586 J2.63225
G3 X420.60042 Y-172.93772 I17.07987 J19.6846
G3 X420.82512 Y-174.2487 I3.59954 J-0.0578
G3 X420.81713 Y-174.28834 I3.52501 J-0.73097
G3 X416.94538 Y-180.11082 I-1.22098 J-3.38662
G3 X417.52279 Y-180.73534 I102.59086 J94.27337
G3 X418.42924 Y-184.63171 I3.36856 J-1.26997
G3 X422.15874 Y-186.56462 I5.29058 J5.64362
G2 X422.61573 Y-186.86535 I-19.35136 J-29.90403
G3 X422.75891 Y-189.50583 I3.41508 J-1.13895
G3 X420.42384 Y-195.43298 I0.39324 J-3.57846
G2 X421.88511 Y-197.1653 I-85.59579 J-73.68562
G3 X420.28625 Y-198.35629 I1.26704 J-3.36966
G3 X419.28106 Y-197.33016 I-160.18145 J-155.90794
G3 X413.32693 Y-201.06766 I-2.56358 J-2.52746
G3 X414.30564 Y-203.16028 I11.5076 J4.10688
G3 X411.43323 Y-201.66003 I-15.0901 J-25.39198
G3 X409.56208 Y-201.35796 I-1.48908 J-3.2776
G3 X409.44695 Y-201.22481 I-52.1518 J-44.97861
G3 X403.35678 Y-204.84901 I-2.72014 J-2.35815
G3 X403.94463 Y-206.20141 I13.62969 J5.1204
G3 X404.05158 Y-206.4009 I3.22468 J1.60044
G2 X405.38191 Y-208.77002 I-98.67768 J-56.9686
G3 X405.3039 Y-209.00592 I3.3769 J-1.24761
G3 X404.63637 Y-208.44368 I-111.73656 J-131.98171
G3 X400.10266 Y-208.37012 I-2.31222 J-2.75928
G3 X399.99052 Y-205.56047 I-62.98577 J-1.10696
G3 X393.67639 Y-203.42725 I-3.59304 J-0.22382
G3 X393.57982 Y-203.54059 I6.87786 J-5.95768
G3 X392.05331 Y-203.93158 I0.10832 J-3.59837
G3 X391.1269 Y-204.42464 I13.45489 J-26.397
G3 X385.43761 Y-202.22287 I-3.53475 J-0.68232
G3 X383.21445 Y-204.12706 I13.14987 J-17.60251
G3 X382.91993 Y-203.4753 I-3.41164 J-1.14924
G3 X383.6299 Y-202.813 I-51.59074 J56.01529
G3 X379.63987 Y-196.93181 I-2.47242 J2.61671
G3 X379.50815 Y-196.99402 I5.03373 J-10.82791
G1 Y-196.97896
G3 X377.10365 Y-193.58326 I-3.6 J0.0
G3 X378.32282 Y-190.88296 I-2.38084 J2.7003
G1 Y-190.54429
G3 X377.74488 Y-188.58799 I-3.6 J0.0
G3 X378.35487 Y-188.11588 I-16.45664 J21.89303
G3 X378.4518 Y-188.03586 I-2.24328 J2.81562
G3 X383.69667 Y-181.96256 I-17.36114 J20.29439
G3 X384.20521 Y-179.48276 I-3.04719 J1.91694
G1 F300.0 X382.62489 Y-179.73292
G2 F800.0 X382.34236 Y-181.11059 I-1.9754 J-0.3127
G2 X377.41171 Y-186.82004 I-21.2517 J13.36913
G2 X377.35786 Y-186.8645 I-1.30011 J1.51977
G2 X374.96354 Y-188.55883 I-16.06961 J20.16953
G2 X376.72282 Y-190.54429 I-0.24073 J-1.98546
G1 Y-190.88296
G2 X375.17496 Y-192.83118 I-2.0 J0.0
G3 X373.33613 Y-193.41388 I2.76869 J-11.92987
G2 X372.9002 Y-194.66945 I-1.99998 J-0.00907
G2 X372.99139 Y-195.44162 I-1.90272 J-0.61617
G1 X375.5763 Y-195.00668
G2 X377.90815 Y-196.97896 I0.33185 J-1.97228
G1 Y-197.31763
G2 X376.40932 Y-199.25381 I-2.0 J0.0
G3 X375.82657 Y-199.41505 I4.55267 J-17.58851
G2 X375.86399 Y-200.07782 I-1.95042 J-0.44258
G2 X376.56853 Y-200.95001 I-1.14118 J-1.64247
G3 X377.678 Y-200.14447 I-2.73543 J4.93435
G2 X377.69037 Y-200.13305 I1.36299 J-1.46364
G2 X380.31437 Y-198.38269 I6.98323 J-7.62667
G2 X382.53105 Y-201.65002 I0.84312 J-1.8136
G2 X380.57668 Y-203.43208 I-51.20185 J54.19001
G2 X381.55778 Y-206.23551 I-0.77386 J-1.84422
G2 X382.78375 Y-206.91415 I-0.29425 J-1.97824
G3 X382.89746 Y-206.83152 I-8.63616 J12.00452
G2 X386.39518 Y-203.50469 I15.69002 J-12.99386
G2 X389.36982 Y-206.02341 I1.19697 J-1.60227
G3 X388.35027 Y-208.16946 I32.51498 J-16.76248
G3 X388.35685 Y-208.16385 I-3.26871 J3.83971
G2 X388.43781 Y-208.09826 I1.29905 J-1.52068
G2 X392.7799 Y-205.35708 I17.07038 J-22.23033
G2 X394.30831 Y-205.23754 I0.90825 J-1.78188
G2 X394.36334 Y-205.15249 I1.70608 J-1.04369
G2 X394.88576 Y-204.47482 I6.19091 J-4.23244
G2 X398.39361 Y-205.65995 I1.51172 J-1.30947
G2 X397.94671 Y-217.79213 I-61.27672 J-3.81713
G2 X397.9453 Y-217.80226 I-1.98157 J0.27087
G3 X397.43999 Y-222.63912 I65.30462 J-9.2673
G2 X399.80932 Y-223.91993 I0.4815 J-1.94118
G3 X401.28727 Y-224.73535 I1.19444 J0.41782
G2 X403.3402 Y-223.79452 I1.71421 J-1.03028
G2 X400.48529 Y-215.1643 I11.4705 J8.58181
G2 X400.32415 Y-211.20167 I47.87972 J3.93161
G2 X403.60872 Y-209.67002 I2.0 J-0.00129
G2 X406.85406 Y-212.45928 I-110.04138 J-131.31761
G2 X407.8706 Y-212.25505 I0.88875 J-1.79168
G2 X407.88648 Y-212.2124 I2.67097 J-0.9702
G3 X407.15512 Y-211.21268 I-57.05721 J-40.97357
G2 X407.19891 Y-208.76595 I1.6037 J1.19505
G3 X405.43724 Y-205.60093 I-101.82501 J-54.60354
G2 X405.37782 Y-205.4901 I1.73207 J0.99996
G2 X404.85458 Y-204.28632 I11.60865 J5.76149
G2 X408.238 Y-202.27288 I1.87224 J0.70336
G2 X409.00404 Y-203.17235 I-50.82772 J-44.06369
G2 X410.77141 Y-203.11674 I0.94011 J-1.76528
G2 X414.56549 Y-205.20953 I-11.55587 J-25.43552
G2 X415.08175 Y-205.70104 I-1.09888 J-1.67107
G2 X416.07592 Y-207.29203 I-10.49148 J-7.66205
G2 X418.68353 Y-208.00244 I0.71484 J-2.51702
G2 X418.89956 Y-207.92615 I1.24011 J-3.16731
G3 X415.71498 Y-202.40007 I-703.15255 J-401.53453
G2 X414.83384 Y-200.52987 I9.11955 J5.43929
G2 X418.14169 Y-198.45348 I1.88364 J0.67224
G2 X421.75165 Y-202.20192 I-158.0369 J-155.81075
G3 X421.37354 Y-201.44959 I-40.78522 J-20.02672
G2 X424.75252 Y-199.33546 I1.77861 J0.91463
G2 X425.38636 Y-198.9803 I1.27829 J-1.53817
G3 X421.63642 Y-194.38912 I-90.55831 J-70.13829
G2 X423.38319 Y-191.09768 I1.51573 J1.30482
G3 X424.56775 Y-191.2213 I5.83058 J50.13518
G2 X425.22885 Y-190.049 I1.97106 J-0.339
G3 X425.19353 Y-190.02208 I-10.75199 J-14.07166
G2 X425.0154 Y-189.8694 I1.21029 J1.59223
G2 X424.42172 Y-189.19207 I3.73518 J3.87273
G2 X424.79061 Y-186.43525 I1.6091 J1.18777
G3 X422.75726 Y-185.0478 I-21.98324 J-30.0334
G2 X419.52351 Y-183.46442 I0.96256 J6.0597
G2 X419.53209 Y-180.5382 I1.36784 J1.45911
G2 X418.1235 Y-179.02822 I100.00415 J94.70075
G2 X420.32869 Y-175.81394 I1.47265 J1.35326
G2 X422.95103 Y-176.86448 I-85.70563 J-217.73498
G2 X423.09519 Y-176.53791 I1.89445 J-0.64114
G2 X423.04495 Y-176.49509 I4.09128 J4.85147
G2 X422.54501 Y-174.11853 I1.30518 J1.51542
G2 X422.32784 Y-172.29184 I1.65495 J1.12301
G2 X422.44351 Y-172.01216 I4.34209 J-1.63207
G2 X421.93229 Y-171.83254 I0.40126 J1.95933
G2 X417.06138 Y-168.54136 I11.16038 J21.76728
G2 X417.00774 Y-168.4931 I1.31073 J1.51062
G2 X415.28937 Y-166.25091 I5.82617 J6.24462
G2 X417.86864 Y-163.4861 I1.76677 J0.93729
G3 X419.26537 Y-164.02847 I6.35014 J14.28339
G3 X418.79785 Y-163.60487 I-52.78222 J-57.78495
G2 X418.62516 Y-163.42928 I1.3369 J1.48752
G2 X416.12021 Y-158.46813 I8.54846 J7.42919
G2 X416.91861 Y-156.39848 I1.95193 J0.43583
G3 X416.01787 Y-155.64313 I-43.21542 J-50.61918
G3 X415.36344 Y-155.27253 I-2.68324 J-3.97514
G2 X414.70357 Y-152.14415 I0.84605 J1.81224
G2 X412.6002 Y-151.10363 I69.76658 J143.67758
G2 X412.11616 Y-150.76136 I0.89995 J1.78608
G2 X406.9013 Y-143.02568 I15.24158 J15.90041
G2 X409.98599 Y-140.70504 I1.85751 J0.74138
G3 X412.76741 Y-142.5053 I11.81212 J15.20105
G2 X412.79114 Y-141.68762 I7.74642 J0.18434
G2 X413.17623 Y-140.66214 I1.99331 J-0.16347
G2 X413.13636 Y-140.60623 I1.60823 J1.18895
G3 X407.83286 Y-133.31722 I-138.97123 J-95.54178
G2 X407.71546 Y-133.1471 I1.58519 J1.21949
G2 X406.89355 Y-131.49127 I8.60246 J5.30198
G2 X407.21044 Y-129.50372 I1.86527 J0.72165
G2 X403.13291 Y-123.93377 I79.12541 J62.20187
G2 X403.04029 Y-123.7839 I1.65335 J1.12535
G2 X399.28995 Y-112.15507 I27.17657 J15.1837
G2 X399.2803 Y-112.0438 I1.98692 J0.22838
G3 X398.91436 Y-107.97058 I-65.83829 J-3.86193
G2 X395.31602 Y-121.55752 I-148.48445 J32.05436
G2 X390.05539 Y-130.96764 I-24.90896 J7.74957
G2 X390.59947 Y-133.75867 I-1.10858 J-1.66465
G2 X386.47856 Y-138.39787 I-20.07411 J13.68156
G2 X387.20498 Y-141.60244 I-0.74908 J-1.85442
G2 X386.4015 Y-142.45447 I-28.76467 J26.321
G2 X386.80712 Y-142.49901 I-3.29496 J-31.87441
G2 X388.57615 Y-144.48563 I-0.23097 J-1.98662
G1 Y-144.82429
G2 X387.39787 Y-146.64769 I-2.0 J0.0
G3 X386.64146 Y-147.03128 I3.79472 J-8.42043
G2 X387.01076 Y-150.5507 I-0.74264 J-1.85701
G2 X385.37261 Y-151.59614 I-25.12414 J37.56175
G2 X385.52567 Y-153.22798 I-1.73989 J-0.9863
G2 X382.09045 Y-158.25003 I-10.74594 J3.6646
G2 X383.43454 Y-159.03325 I-0.25564 J-1.9836
G3 X385.56495 Y-157.16701 I-92.23039 J107.43445
G2 X387.32864 Y-155.92874 I5.91659 J-6.55198
G2 X390.098 Y-158.50389 I0.94084 J-1.76488
G2 X383.30358 Y-167.63868 I-23.59473 J10.45543
G2 X383.11712 Y-167.78051 I-1.30197 J1.51818
G3 X382.47216 Y-168.21565 I117.40064 J-174.70584
G2 X382.60831 Y-169.4427 I-1.82268 J-0.82331
G2 X377.52072 Y-176.72559 I-11.00295 J2.26784
G2 X377.18799 Y-176.94783 I-56.58351 J84.35454
G2 X377.30274 Y-178.46084 I-1.78784 J-0.89646
G2 X377.14605 Y-178.89631 I-6.87582 J2.22816
G3 X380.13965 Y-178.1117 I-272.37465 J1045.32135
G2 X382.62489 Y-179.73292 I0.50984 J-1.93393
( TascheHebbi4 )
S1000
G0 Z3.0
G0 X57.20464 Y-203.59081
G0 Z1.0
G1 F300.0 Z-2.0
G3 F800.0 X55.82762 Y-204.9893 I5.01338 J-6.31359
G3 X53.38369 Y-210.26661 I7.67899 J-6.76071
G3 X54.86444 Y-212.49357 I1.97887 J-0.28998
G3 X64.56643 Y-210.7189 I2.92953 J11.39185
G3 X67.29501 Y-206.10087 I-2.3804 J4.52158
G3 X67.26561 Y-205.79492 I-1.99964 J-0.03775
G3 X62.65016 Y-201.85402 I-4.68856 J-0.8179
G3 X57.20464 Y-203.59081 I-0.43213 J-8.05039
G0 Z3.0
G0 X57.94159 Y-214.4602
G0 Z1.0
G1 F300.0 Z-2.0
G3 F800.0 X65.40438 Y-212.08136 I-0.14762 J13.35848
G3 X66.68835 Y-211.16812 I-3.21835 J5.88404
G2 X62.62718 Y-213.67439 I-6.99798 J6.79604
G3 X62.52513 Y-213.7083 I1.08382 J-3.43298
G2 X57.94159 Y-214.4602 I-4.44219 J12.73277
G0 Z3.0
G0 X53.29584 Y-214.43738
G0 Z1.0
G1 F300.0 Z-2.0
G3 F800.0 X52.32296 Y-215.47136 I2.67609 J-3.49264
G2 X52.20568 Y-213.76877 I9.86556 J1.53492
G3 X52.20561 Y-213.61691 I-4.39938 J0.07389
G3 X53.29584 Y-214.43738 I3.15694 J3.06032
G1 F300.0 X53.67188 Y-213.73127
G3 F800.0 X54.46675 Y-214.04005 I1.69067 J3.17468
G3 X55.92954 Y-214.33028 I3.32723 J12.93833
G3 X52.41728 Y-218.49964 I0.04239 J-3.59975
G2 X51.4058 Y-213.75533 I9.77125 J4.5632
G3 X51.39061 Y-213.35904 I-3.59949 J0.06046
G2 X57.97292 Y-201.11783 I12.49631 J1.17083
G3 X58.05566 Y-201.07222 I-1.6963 J3.1753
G2 X66.54752 Y-201.34683 I4.02158 J-7.07475
G3 X66.55688 Y-201.35297 I1.97754 J3.00821
G2 X68.52314 Y-208.51312 I-3.06304 J-4.6912
G3 X68.50262 Y-208.55564 I3.2316 J-1.58644
G2 X68.28741 Y-208.98173 I-8.81225 J4.18356
G3 X68.89153 Y-206.07073 I-6.10138 J2.7844
G3 X68.83866 Y-205.52051 I-3.59616 J-0.06789
G3 X62.70606 Y-200.25797 I-6.2616 J-1.09232
G3 X54.59457 Y-203.97356 I-0.48804 J-9.64644
G3 X51.80376 Y-210.03509 I8.91205 J-7.77645
G3 X53.67188 Y-213.73127 I3.55879 J-0.5215
G0 Z3.0
G0 X54.11685 Y-221.08823
G0 Z1.0
G1 F300.0 Z-2.0
G3 F800.0 X56.18856 Y-222.81108 I48.5881 J56.31964
G3 X56.38782 Y-222.95977 I2.25133 J2.80918
G3 X58.67707 Y-224.133 I5.53119 J7.97266
G2 X54.11685 Y-221.08823 I3.51145 J10.19655
G0 Z3.0
G0 X60.35821 Y-224.56423
G0 Z1.0
G1 F300.0 Z-2.0
G3 F800.0 X67.71424 Y-222.76996 I1.5608 J9.57712
G3 X67.85342 Y-222.66091 I-2.15004 J2.88744
G3 X69.7638 Y-220.03273 I-4.12569 J5.00731
G2 X69.89072 Y-220.08804 I0.06239 J-0.03011
G2 X65.85313 Y-223.88245 I-6.25901 J2.61475
G3 X65.62764 Y-223.96919 I1.17895 J-3.40148
G2 X62.03957 Y-224.71966 I-3.69805 J8.72805
G2 X60.35821 Y-224.56423 I0.14895 J10.78322
G1 F300.0 X60.08665 Y-226.14102
G2 F800.0 X49.80602 Y-213.72846 I2.10187 J12.20458
G3 X49.79758 Y-213.5083 I-1.99972 J0.03359
G2 X57.21901 Y-199.70659 I14.08934 J1.32009
G3 X57.26498 Y-199.68125 I-0.94239 J1.76406
G2 X67.42642 Y-200.00985 I4.81227 J-8.46572
G3 X67.43163 Y-200.01326 I1.09863 J1.67123
G2 X69.95941 Y-209.21821 I-3.93778 J-6.03091
G3 X69.94801 Y-209.24182 I1.79533 J-0.88135
G2 X63.10887 Y-215.20016 I-10.25764 J4.86975
G3 X63.05218 Y-215.219 I0.60212 J-1.90721
G2 X56.21904 Y-215.94535 I-4.96924 J14.24347
G3 X54.65145 Y-219.43214 I-0.24711 J-1.98468
G3 X57.18916 Y-221.56256 I48.05349 J54.66355
G3 X57.29985 Y-221.64516 I1.25074 J1.56066
G3 X66.75867 Y-221.48665 I4.61916 J6.65805
G3 X66.83599 Y-221.42606 I-1.19447 J1.60414
G3 X68.28176 Y-219.42943 I-3.10827 J3.77246
G2 X71.36975 Y-220.69839 I1.54443 J-0.63341
G2 X66.37711 Y-225.39422 I-7.73803 J3.2251
G3 X66.25184 Y-225.44241 I0.65497 J-1.88971
G2 X62.03772 Y-226.31977 I-4.32225 J10.20127
G2 X60.08665 Y-226.14102 I0.15081 J12.38333
G1 F300.0 X60.35821 Y-224.56423
G1 Z-4.0
G3 F800.0 X67.71424 Y-222.76996 I1.5608 J9.57712
G3 X67.85342 Y-222.66091 I-2.15004 J2.88744
G3 X69.7638 Y-220.03273 I-4.12569 J5.00731
G2 X69.89072 Y-220.08804 I0.06239 J-0.03011
G2 X65.85313 Y-223.88245 I-6.25901 J2.61475
G3 X65.62764 Y-223.96919 I1.17895 J-3.40148
G2 X62.03957 Y-224.71966 I-3.69805 J8.72805
G2 X60.35821 Y-224.56423 I0.14895 J10.78322
G1 F300.0 X58.67707 Y-224.133
G2 F800.0 X54.11685 Y-221.08823 I3.51145 J10.19655
G3 X56.18856 Y-222.81108 I48.5881 J56.31964
G3 X56.38782 Y-222.95977 I2.25133 J2.80918
G3 X58.67707 Y-224.133 I5.53119 J7.97266
G0 Z3.0
G0 X58.42881 Y-214.45651
G0 Z-1.0
G1 F300.0 Z-4.0
G2 F800.0 X57.94159 Y-214.4602 I-0.34587 J13.48098
G3 X65.40438 Y-212.08136 I-0.14762 J13.35848
G3 X66.68835 Y-211.16812 I-3.21835 J5.88404
G2 X62.62718 Y-213.67439 I-6.99798 J6.79604
G3 X62.52513 Y-213.7083 I1.08382 J-3.43298
G2 X58.42881 Y-214.45651 I-4.44219 J12.73277
G0 Z3.0
G0 X53.29584 Y-214.43738
G0 Z-1.0
G1 F300.0 Z-4.0
G3 F800.0 X52.32296 Y-215.47136 I2.67609 J-3.49264
G2 X52.20568 Y-213.76877 I9.86556 J1.53492
G3 X52.20561 Y-213.61691 I-4.39938 J0.07389
G3 X53.29584 Y-214.43738 I3.15694 J3.06032
G1 F300.0 X53.67188 Y-213.73127
G3 F800.0 X54.46675 Y-214.04005 I1.69067 J3.17468
G3 X55.92954 Y-214.33028 I3.32723 J12.93833
G3 X52.41728 Y-218.49964 I0.04239 J-3.59975
G2 X51.4058 Y-213.75533 I9.77125 J4.5632
G3 X51.39061 Y-213.35904 I-3.59949 J0.06046
G2 X57.97292 Y-201.11783 I12.49631 J1.17083
G3 X58.05566 Y-201.07222 I-1.6963 J3.1753
G2 X66.54752 Y-201.34683 I4.02158 J-7.07475
G3 X66.55688 Y-201.35297 I1.97754 J3.00821
G2 X68.52314 Y-208.51312 I-3.06304 J-4.6912
G3 X68.50262 Y-208.55564 I3.2316 J-1.58644
G2 X68.28741 Y-208.98173 I-8.81225 J4.18356
G3 X68.89153 Y-206.07073 I-6.10138 J2.7844
G3 X68.83866 Y-205.52051 I-3.59616 J-0.06789
G3 X62.70606 Y-200.25797 I-6.2616 J-1.09232
G3 X54.59457 Y-203.97356 I-0.48804 J-9.64644
G3 X51.80376 Y-210.03509 I8.91205 J-7.77645
G3 X53.67188 Y-213.73127 I3.55879 J-0.5215
G1 F300.0 X55.01107 Y-216.17596
G3 F800.0 X54.65145 Y-219.43214 I0.96086 J-1.75406
G3 X57.18916 Y-221.56256 I48.05349 J54.66355
G3 X57.29985 Y-221.64516 I1.25074 J1.56066
G3 X66.75867 Y-221.48665 I4.61916 J6.65805
G3 X66.83599 Y-221.42606 I-1.19447 J1.60414
G3 X68.28176 Y-219.42943 I-3.10827 J3.77246
G2 X71.36975 Y-220.69839 I1.54443 J-0.63341
G2 X66.37711 Y-225.39422 I-7.73803 J3.2251
G3 X66.25184 Y-225.44241 I0.65497 J-1.88971
G2 X62.03772 Y-226.31977 I-4.32225 J10.20127
G2 X49.80602 Y-213.72846 I0.15081 J12.38333
G3 X49.79758 Y-213.5083 I-1.99972 J0.03359
G2 X57.21901 Y-199.70659 I14.08934 J1.32009
G3 X57.26498 Y-199.68125 I-0.94239 J1.76406
G2 X67.42642 Y-200.00985 I4.81227 J-8.46572
G3 X67.43163 Y-200.01326 I1.09863 J1.67123
G2 X69.95941 Y-209.21821 I-3.93778 J-6.03091
G3 X69.94801 Y-209.24182 I1.79533 J-0.88135
G2 X63.10887 Y-215.20016 I-10.25764 J4.86975
G3 X63.05218 Y-215.219 I0.60212 J-1.90721
G2 X56.21904 Y-215.94535 I-4.96924 J14.24347
G3 X55.01107 Y-216.17596 I-0.24711 J-1.98468
G0 Z3.0
G0 X55.65854 Y-212.66876
G0 Z-1.0
G1 F300.0 Z-4.0
G3 F800.0 X64.56643 Y-210.7189 I2.13543 J11.56704
G3 X67.29501 Y-206.10087 I-2.3804 J4.52158
G3 X67.26561 Y-205.79492 I-1.99964 J-0.03775
G3 X62.65016 Y-201.85402 I-4.68856 J-0.8179
G3 X55.82762 Y-204.9893 I-0.43213 J-8.05039
G3 X53.38369 Y-210.26661 I7.67899 J-6.76071
G3 X54.86444 Y-212.49357 I1.97887 J-0.28998
G3 X55.65854 Y-212.66876 I2.92953 J11.39185
G1 F300.0 Z-6.0
G3 F800.0 X64.56643 Y-210.7189 I2.13543 J11.56704
G3 X67.29501 Y-206.10087 I-2.3804 J4.52158
G3 X67.26561 Y-205.79492 I-1.99964 J-0.03775
G3 X62.65016 Y-201.85402 I-4.68856 J-0.8179
G3 X55.82762 Y-204.9893 I-0.43213 J-8.05039
G3 X53.38369 Y-210.26661 I7.67899 J-6.76071
G3 X54.86444 Y-212.49357 I1.97887 J-0.28998
G3 X55.65854 Y-212.66876 I2.92953 J11.39185
G0 Z3.0
G0 X57.94159 Y-214.4602
G0 Z-3.0
G1 F300.0 Z-6.0
G3 F800.0 X65.40438 Y-212.08136 I-0.14762 J13.35848
G3 X66.68835 Y-211.16812 I-3.21835 J5.88404
G2 X62.62718 Y-213.67439 I-6.99798 J6.79604
G3 X62.52513 Y-213.7083 I1.08382 J-3.43298
G2 X57.94159 Y-214.4602 I-4.44219 J12.73277
G0 Z3.0
G0 X53.29584 Y-214.43738
G0 Z-3.0
G1 F300.0 Z-6.0
G3 F800.0 X52.32296 Y-215.47136 I2.67609 J-3.49264
G2 X52.20568 Y-213.76877 I9.86556 J1.53492
G3 X52.20561 Y-213.61691 I-4.39938 J0.07389
G3 X53.29584 Y-214.43738 I3.15694 J3.06032
G1 F300.0 X53.67188 Y-213.73127
G3 F800.0 X54.46675 Y-214.04005 I1.69067 J3.17468
G3 X55.92954 Y-214.33028 I3.32723 J12.93833
G3 X52.41728 Y-218.49964 I0.04239 J-3.59975
G2 X51.4058 Y-213.75533 I9.77125 J4.5632
G3 X51.39061 Y-213.35904 I-3.59949 J0.06046
G2 X57.97292 Y-201.11783 I12.49631 J1.17083
G3 X58.05566 Y-201.07222 I-1.6963 J3.1753
G2 X66.54752 Y-201.34683 I4.02158 J-7.07475
G3 X66.55688 Y-201.35297 I1.97754 J3.00821
G2 X68.52314 Y-208.51312 I-3.06304 J-4.6912
G3 X68.50262 Y-208.55564 I3.2316 J-1.58644
G2 X68.28741 Y-208.98173 I-8.81225 J4.18356
G3 X68.89153 Y-206.07073 I-6.10138 J2.7844
G3 X68.83866 Y-205.52051 I-3.59616 J-0.06789
G3 X62.70606 Y-200.25797 I-6.2616 J-1.09232
G3 X54.59457 Y-203.97356 I-0.48804 J-9.64644
G3 X51.80376 Y-210.03509 I8.91205 J-7.77645
G3 X53.67188 Y-213.73127 I3.55879 J-0.5215
G0 Z3.0
G0 X54.11685 Y-221.08823
G0 Z-3.0
G1 F300.0 Z-6.0
G3 F800.0 X56.18856 Y-222.81108 I48.5881 J56.31964
G3 X56.38782 Y-222.95977 I2.25133 J2.80918
G3 X58.67707 Y-224.133 I5.53119 J7.97266
G2 X54.11685 Y-221.08823 I3.51145 J10.19655
G0 Z3.0
G0 X60.35821 Y-224.56423
G0 Z-3.0
G1 F300.0 Z-6.0
G3 F800.0 X67.71424 Y-222.76996 I1.5608 J9.57712
G3 X67.85342 Y-222.66091 I-2.15004 J2.88744
G3 X69.7638 Y-220.03273 I-4.12569 J5.00731
G2 X69.89072 Y-220.08804 I0.06239 J-0.03011
G2 X65.85313 Y-223.88245 I-6.25901 J2.61475
G3 X65.62764 Y-223.96919 I1.17895 J-3.40148
G2 X62.03957 Y-224.71966 I-3.69805 J8.72805
G2 X60.35821 Y-224.56423 I0.14895 J10.78322
G1 F300.0 X60.08665 Y-226.14102
G2 F800.0 X49.80602 Y-213.72846 I2.10187 J12.20458
G3 X49.79758 Y-213.5083 I-1.99972 J0.03359
G2 X57.21901 Y-199.70659 I14.08934 J1.32009
G3 X57.26498 Y-199.68125 I-0.94239 J1.76406
G2 X67.42642 Y-200.00985 I4.81227 J-8.46572
G3 X67.43163 Y-200.01326 I1.09863 J1.67123
G2 X69.95941 Y-209.21821 I-3.93778 J-6.03091
G3 X69.94801 Y-209.24182 I1.79533 J-0.88135
G2 X63.10887 Y-215.20016 I-10.25764 J4.86975
G3 X63.05218 Y-215.219 I0.60212 J-1.90721
G2 X56.21904 Y-215.94535 I-4.96924 J14.24347
G3 X54.65145 Y-219.43214 I-0.24711 J-1.98468
G3 X57.18916 Y-221.56256 I48.05349 J54.66355
G3 X57.29985 Y-221.64516 I1.25074 J1.56066
G3 X66.75867 Y-221.48665 I4.61916 J6.65805
G3 X66.83599 Y-221.42606 I-1.19447 J1.60414
G3 X68.28176 Y-219.42943 I-3.10827 J3.77246
G2 X71.36975 Y-220.69839 I1.54443 J-0.63341
G2 X66.37711 Y-225.39422 I-7.73803 J3.2251
G3 X66.25184 Y-225.44241 I0.65497 J-1.88971
G2 X62.03772 Y-226.31977 I-4.32225 J10.20127
G2 X60.08665 Y-226.14102 I0.15081 J12.38333
G0 Z3.0
G0 X82.144 Y-221.14454
G0 Z1.0
G1 F300.0 Z-2.0
G3 F800.0 X84.58775 Y-222.64093 I1.95058 J0.44185
G3 X92.29954 Y-218.58029 I-4.60517 J18.09922
G3 X92.48369 Y-218.39618 I-1.31902 J1.50339
G3 X96.60198 Y-210.94132 I-14.95834 J13.12841
G3 X95.38857 Y-203.04279 I-7.9801 J2.81653
G3 X94.89464 Y-202.57701 I-1.59921 J-1.20106
G3 X89.46291 Y-202.40809 I-2.85226 J-4.30139
G3 X85.04681 Y-206.19743 I6.10411 J-11.58165
G3 X84.99786 Y-206.26654 I1.60715 J-1.19041
G2 X84.00719 Y-206.91377 I-1.2674 J0.85812
G3 X82.36916 Y-208.84282 I0.36161 J-1.96704
G2 X82.09534 Y-220.64791 I-1406.2874 J26.71435
G3 X82.144 Y-221.14454 I1.99925 J-0.05477
G0 Z3.0
G0 X94.11383 Y-218.94401
G0 Z1.0
G1 F300.0 Z-2.0
G3 F800.0 X98.12133 Y-211.43403 I-16.58848 J13.67624
G3 X98.24548 Y-211.05344 I-9.49946 J3.30923
G2 X94.11383 Y-218.94401 I-17.41528 J4.09197
G0 Z3.0
G0 X98.68123 Y-208.1349
G0 Z1.0
G1 F300.0 Z-2.0
G3 F800.0 X96.66537 Y-202.08387 I-10.05935 J0.0101
G3 X95.7771 Y-201.24621 I-2.87601 J-2.15998
G3 X88.69239 Y-201.00922 I-3.73472 J-5.63219
G3 X87.65328 Y-201.61528 I6.87462 J-12.98053
G3 X87.7625 Y-201.35936 I-3.25401 J1.53994
G2 X94.1091 Y-200.16531 I4.41102 J-5.98165
G2 X98.71647 Y-207.31193 I-2.89494 J-6.92482
G3 X98.71571 Y-207.34178 I3.59843 J-0.10638
G2 X98.68123 Y-208.1349 I-17.88551 J0.38031
G0 Z3.0
G0 X83.43011 Y-204.36728
G0 Z1.0
G1 F300.0 Z-2.0
G3 F800.0 X83.22159 Y-204.63631 I12.1369 J-9.62247
G3 X81.47731 Y-205.56854 I1.14722 J-4.2445
G3 X81.48681 Y-203.37346 I-495.91667 J3.24329
G3 X83.43011 Y-204.36728 I2.91246 J3.29812
G1 F300.0 X84.057 Y-204.86429
G3 F800.0 X83.76367 Y-205.247 I11.51002 J-9.12546
G3 X83.69125 Y-205.3484 I2.89029 J-2.14084
G3 X80.77265 Y-208.8125 I0.67756 J-3.53241
G2 X80.49913 Y-220.60418 I-1404.69089 J26.68402
G3 X84.9815 Y-224.18842 I3.59545 J-0.0985
G3 X92.89684 Y-220.16875 I-4.99891 J19.64672
G2 X87.8734 Y-223.40621 I-12.06664 J13.20728
G2 X81.90653 Y-224.53706 I-5.94128 J15.04142
G3 X81.4635 Y-224.56372 I-0.0057 J-3.6
G2 X80.1984 Y-224.33671 I-0.26475 J2.16316
G3 X80.25942 Y-181.73067 I-494.63777 J22.01146
G2 X80.41307 Y-181.70726 I0.07958 J-0.00636
G2 X80.79927 Y-200.07445 I-431.4707 J-18.26002
G3 X85.19849 Y-203.5855 I3.6 J-0.00089
G3 X84.057 Y-204.86429 I10.36853 J-10.40424
G0 Z3.0
G0 X84.25669 Y-202.07025
G0 Z1.0
G1 F300.0 Z-2.0
G3 F800.0 X86.37433 Y-200.39021 I0.14258 J1.99491
G2 X86.40409 Y-200.34855 I0.0567 J-0.00904
G3 X86.68173 Y-200.17021 I-0.93841 J1.76618
G2 X94.62813 Y-198.64877 I5.49179 J-7.1708
G2 X100.31577 Y-207.35921 I-3.41397 J-8.44136
G3 X100.31535 Y-207.37579 I1.99913 J-0.0591
G2 X88.48243 Y-224.88593 I-19.48515 J0.41432
G2 X81.904 Y-226.13706 I-6.55031 J16.52113
G3 X81.65787 Y-226.15187 I-0.00316 J-2.0
G2 X78.8959 Y-225.39722 I-0.45912 J3.75131
G2 X78.59472 Y-224.3719 I1.24014 J0.92117
G3 X78.59728 Y-224.32622 I-1.99545 J0.13484
G3 X78.65936 Y-181.76254 I-493.03665 J22.00097
G2 X82.00752 Y-181.5424 I1.67964 J0.02552
G2 X82.39927 Y-200.07484 I-433.06514 J-18.42488
G3 X84.25669 Y-202.07025 I2.0 J-0.0005
G1 F300.0 X83.43011 Y-204.36728
G1 Z-4.0
G3 F800.0 X83.22159 Y-204.63631 I12.1369 J-9.62247
G3 X81.47731 Y-205.56854 I1.14722 J-4.2445
G3 X81.48681 Y-203.37346 I-495.91667 J3.24329
G3 X83.43011 Y-204.36728 I2.91246 J3.29812
G1 F300.0 X84.057 Y-204.86429
G3 F800.0 X83.76367 Y-205.247 I11.51002 J-9.12546
G3 X83.69125 Y-205.3484 I2.89029 J-2.14084
G3 X80.77265 Y-208.8125 I0.67756 J-3.53241
G2 X80.49913 Y-220.60418 I-1404.69089 J26.68402
G3 X84.9815 Y-224.18842 I3.59545 J-0.0985
G3 X92.89684 Y-220.16875 I-4.99891 J19.64672
G2 X87.8734 Y-223.40621 I-12.06664 J13.20728
G2 X81.90653 Y-224.53706 I-5.94128 J15.04142
G3 X81.4635 Y-224.56372 I-0.0057 J-3.6
G2 X80.1984 Y-224.33671 I-0.26475 J2.16316
G3 X80.25942 Y-181.73067 I-494.63777 J22.01146
G2 X80.41307 Y-181.70726 I0.07958 J-0.00636
G2 X80.79927 Y-200.07445 I-431.4707 J-18.26002
G3 X85.19849 Y-203.5855 I3.6 J-0.00089
G3 X84.057 Y-204.86429 I10.36853 J-10.40424
G0 Z3.0
G0 X87.65328 Y-201.61528
G0 Z-1.0
G1 F300.0 Z-4.0
G3 F800.0 X87.7625 Y-201.35936 I-3.25401 J1.53994
G2 X94.1091 Y-200.16531 I4.41102 J-5.98165
G2 X98.71647 Y-207.31193 I-2.89494 J-6.92482
G3 X98.71571 Y-207.34178 I3.59843 J-0.10638
G2 X98.68123 Y-208.1349 I-17.88551 J0.38031
G3 X96.66537 Y-202.08387 I-10.05935 J0.0101
G3 X95.7771 Y-201.24621 I-2.87601 J-2.15998
G3 X88.69239 Y-201.00922 I-3.73472 J-5.63219
G3 X87.65328 Y-201.61528 I6.87462 J-12.98053
G0 Z3.0
G0 X98.24548 Y-211.05344
G0 Z-1.0
G1 F300.0 Z-4.0
G2 F800.0 X94.11383 Y-218.94401 I-17.41528 J4.09197
G3 X98.12133 Y-211.43403 I-16.58848 J13.67624
G3 X98.24548 Y-211.05344 I-9.49946 J3.30923
G1 F300.0 X99.80306 Y-211.41942
G2 F800.0 X88.48243 Y-224.88593 I-18.97286 J4.45795
G2 X81.904 Y-226.13706 I-6.55031 J16.52113
G3 X81.65787 Y-226.15187 I-0.00316 J-2.0
G2 X78.8959 Y-225.39722 I-0.45912 J3.75131
G2 X78.59472 Y-224.3719 I1.24014 J0.92117
G3 X78.59728 Y-224.32622 I-1.99545 J0.13484
G3 X78.65936 Y-181.76254 I-493.03665 J22.00097
G2 X82.00752 Y-181.5424 I1.67964 J0.02552
G2 X82.39927 Y-200.07484 I-433.06514 J-18.42488
G3 X86.37433 Y-200.39021 I2.0 J-0.0005
G2 X86.40409 Y-200.34855 I0.0567 J-0.00904
G3 X86.68173 Y-200.17021 I-0.93841 J1.76618
G2 X94.62813 Y-198.64877 I5.49179 J-7.1708
G2 X100.31577 Y-207.35921 I-3.41397 J-8.44136
G3 X100.31535 Y-207.37579 I1.99913 J-0.0591
G2 X99.80306 Y-211.41942 I-19.48515 J0.41432
G0 Z3.0
G0 X96.73937 Y-210.51668
G0 Z-1.0
G1 F300.0 Z-4.0
G3 F800.0 X95.38857 Y-203.04279 I-8.1175 J2.39188
G3 X94.89464 Y-202.57701 I-1.59921 J-1.20106
G3 X89.46291 Y-202.40809 I-2.85226 J-4.30139
G3 X85.04681 Y-206.19743 I6.10411 J-11.58165
G3 X84.99786 Y-206.26654 I1.60715 J-1.19041
G2 X84.00719 Y-206.91377 I-1.2674 J0.85812
G3 X82.36916 Y-208.84282 I0.36161 J-1.96704
G2 X82.09534 Y-220.64791 I-1406.2874 J26.71435
G3 X84.58775 Y-222.64093 I1.99925 J-0.05477
G3 X92.29954 Y-218.58029 I-4.60517 J18.09922
G3 X92.48369 Y-218.39618 I-1.31902 J1.50339
G3 X96.60198 Y-210.94132 I-14.95834 J13.12841
G3 X96.73937 Y-210.51668 I-7.9801 J2.81653
G1 F300.0 Z-6.0
G3 F800.0 X95.38857 Y-203.04279 I-8.1175 J2.39188
G3 X94.89464 Y-202.57701 I-1.59921 J-1.20106
G3 X89.46291 Y-202.40809 I-2.85226 J-4.30139
G3 X85.04681 Y-206.19743 I6.10411 J-11.58165
G3 X84.99786 Y-206.26654 I1.60715 J-1.19041
G2 X84.00719 Y-206.91377 I-1.2674 J0.85812
G3 X82.36916 Y-208.84282 I0.36161 J-1.96704
G2 X82.09534 Y-220.64791 I-1406.2874 J26.71435
G3 X84.58775 Y-222.64093 I1.99925 J-0.05477
G3 X92.29954 Y-218.58029 I-4.60517 J18.09922
G3 X92.48369 Y-218.39618 I-1.31902 J1.50339
G3 X96.60198 Y-210.94132 I-14.95834 J13.12841
G3 X96.73937 Y-210.51668 I-7.9801 J2.81653
G1 F300.0 X98.24548 Y-211.05344
G2 F800.0 X94.11383 Y-218.94401 I-17.41528 J4.09197
G3 X98.12133 Y-211.43403 I-16.58848 J13.67624
G3 X98.24548 Y-211.05344 I-9.49946 J3.30923
G0 Z3.0
G0 X98.68123 Y-208.1349
G0 Z-3.0
G1 F300.0 Z-6.0
G3 F800.0 X96.66537 Y-202.08387 I-10.05935 J0.0101
G3 X95.7771 Y-201.24621 I-2.87601 J-2.15998
G3 X88.69239 Y-201.00922 I-3.73472 J-5.63219
G3 X87.65328 Y-201.61528 I6.87462 J-12.98053
G3 X87.7625 Y-201.35936 I-3.25401 J1.53994
G2 X94.1091 Y-200.16531 I4.41102 J-5.98165
G2 X98.71647 Y-207.31193 I-2.89494 J-6.92482
G3 X98.71571 Y-207.34178 I3.59843 J-0.10638
G2 X98.68123 Y-208.1349 I-17.88551 J0.38031
G0 Z3.0
G0 X83.43011 Y-204.36728
G0 Z-3.0
G1 F300.0 Z-6.0
G3 F800.0 X83.22159 Y-204.63631 I12.1369 J-9.62247
G3 X81.47731 Y-205.56854 I1.14722 J-4.2445
G3 X81.48681 Y-203.37346 I-495.91667 J3.24329
G3 X83.43011 Y-204.36728 I2.91246 J3.29812
G1 F300.0 X84.057 Y-204.86429
G3 F800.0 X83.76367 Y-205.247 I11.51002 J-9.12546
G3 X83.69125 Y-205.3484 I2.89029 J-2.14084
G3 X80.77265 Y-208.8125 I0.67756 J-3.53241
G2 X80.49913 Y-220.60418 I-1404.69089 J26.68402
G3 X84.9815 Y-224.18842 I3.59545 J-0.0985
G3 X92.89684 Y-220.16875 I-4.99891 J19.64672
G2 X87.8734 Y-223.40621 I-12.06664 J13.20728
G2 X81.90653 Y-224.53706 I-5.94128 J15.04142
G3 X81.4635 Y-224.56372 I-0.0057 J-3.6
G2 X80.1984 Y-224.33671 I-0.26475 J2.16316
G3 X80.25942 Y-181.73067 I-494.63777 J22.01146
G2 X80.41307 Y-181.70726 I0.07958 J-0.00636
G2 X80.79927 Y-200.07445 I-431.4707 J-18.26002
G3 X85.19849 Y-203.5855 I3.6 J-0.00089
G3 X84.057 Y-204.86429 I10.36853 J-10.40424
G0 Z3.0
G0 X84.25669 Y-202.07025
G0 Z-3.0
G1 F300.0 Z-6.0
G3 F800.0 X86.37433 Y-200.39021 I0.14258 J1.99491
G2 X86.40409 Y-200.34855 I0.0567 J-0.00904
G3 X86.68173 Y-200.17021 I-0.93841 J1.76618
G2 X94.62813 Y-198.64877 I5.49179 J-7.1708
G2 X100.31577 Y-207.35921 I-3.41397 J-8.44136
G3 X100.31535 Y-207.37579 I1.99913 J-0.0591
G2 X88.48243 Y-224.88593 I-19.48515 J0.41432
G2 X81.904 Y-226.13706 I-6.55031 J16.52113
G3 X81.65787 Y-226.15187 I-0.00316 J-2.0
G2 X78.8959 Y-225.39722 I-0.45912 J3.75131
G2 X78.59472 Y-224.3719 I1.24014 J0.92117
G3 X78.59728 Y-224.32622 I-1.99545 J0.13484
G3 X78.65936 Y-181.76254 I-493.03665 J22.00097
G2 X82.00752 Y-181.5424 I1.67964 J0.02552
G2 X82.39927 Y-200.07484 I-433.06514 J-18.42488
G3 X84.25669 Y-202.07025 I2.0 J-0.0005
G0 Z3.0
G0 X108.72587 Y-203.37346
G0 Z1.0
G1 F300.0 Z-2.0
G3 F800.0 X110.66918 Y-204.36728 I2.91246 J3.29812
G3 X110.46065 Y-204.63631 I12.1369 J-9.62247
G3 X108.71638 Y-205.56854 I1.14722 J-4.2445
G3 X108.72587 Y-203.37346 I-495.91667 J3.24329
G1 F300.0 X107.92588 Y-203.37177
G3 F800.0 X107.49849 Y-181.73067 I-495.12617 J1.04652
G2 X107.65214 Y-181.70726 I0.07958 J-0.00636
G2 X108.03834 Y-200.07445 I-431.4707 J-18.26002
G3 X112.43755 Y-203.5855 I3.6 J-0.00089
G3 X111.00273 Y-205.247 I10.36853 J-10.40424
G3 X110.93031 Y-205.3484 I2.89029 J-2.14084
G3 X108.01172 Y-208.8125 I0.67756 J-3.53241
G2 X107.7382 Y-220.60418 I-1404.69089 J26.68402
G3 X112.22056 Y-224.18842 I3.59545 J-0.0985
G3 X120.13591 Y-220.16875 I-4.99891 J19.64672
G2 X115.11246 Y-223.40621 I-12.06664 J13.20728
G2 X109.14559 Y-224.53706 I-5.94128 J15.04142
G3 X108.70256 Y-224.56372 I-0.0057 J-3.6
G2 X107.43747 Y-224.33671 I-0.26475 J2.16316
G3 X107.92588 Y-203.37177 I-494.63777 J22.01146
G0 Z3.0
G0 X114.89235 Y-201.61528
G0 Z1.0
G1 F300.0 Z-2.0
G3 F800.0 X115.00156 Y-201.35936 I-3.25401 J1.53994
G2 X121.34816 Y-200.16531 I4.41102 J-5.98165
G2 X125.95553 Y-207.31193 I-2.89494 J-6.92482
G3 X125.95477 Y-207.34178 I3.59843 J-0.10638
G2 X125.92029 Y-208.1349 I-17.88551 J0.38031
G3 X123.90444 Y-202.08387 I-10.05935 J0.0101
G3 X123.01617 Y-201.24621 I-2.87601 J-2.15998
G3 X115.93146 Y-201.00922 I-3.73472 J-5.63219
G3 X114.89235 Y-201.61528 I6.87462 J-12.98053
G0 Z3.0
G0 X125.48454 Y-211.05344
G0 Z1.0
G1 F300.0 Z-2.0
G2 F800.0 X121.35289 Y-218.94401 I-17.41528 J4.09197
G3 X125.36039 Y-211.43403 I-16.58848 J13.67624
G3 X125.48454 Y-211.05344 I-9.49946 J3.30923
G1 F300.0 X127.04212 Y-211.41942
G2 F800.0 X115.72149 Y-224.88593 I-18.97286 J4.45795
G2 X109.14306 Y-226.13706 I-6.55031 J16.52113
G3 X108.89693 Y-226.15187 I-0.00316 J-2.0
G2 X106.13496 Y-225.39722 I-0.45912 J3.75131
G2 X105.83378 Y-224.3719 I1.24014 J0.92117
G3 X105.83635 Y-224.32622 I-1.99545 J0.13484
G3 X105.89843 Y-181.76254 I-493.03665 J22.00097
G2 X109.24658 Y-181.5424 I1.67964 J0.02552
G2 X109.63834 Y-200.07484 I-433.06514 J-18.42488
G3 X113.61339 Y-200.39021 I2.0 J-0.0005
G2 X113.64315 Y-200.34855 I0.0567 J-0.00904
G3 X113.92079 Y-200.17021 I-0.93841 J1.76618
G2 X121.86719 Y-198.64877 I5.49179 J-7.1708
G2 X127.55483 Y-207.35921 I-3.41397 J-8.44136
G3 X127.55441 Y-207.37579 I1.99913 J-0.0591
G2 X127.04212 Y-211.41942 I-19.48515 J0.41432
G0 Z3.0
G0 X123.97844 Y-210.51668
G0 Z1.0
G1 F300.0 Z-2.0
G3 F800.0 X122.62763 Y-203.04279 I-8.1175 J2.39188
G3 X122.13371 Y-202.57701 I-1.59921 J-1.20106
G3 X116.70197 Y-202.40809 I-2.85226 J-4.30139
G3 X112.28588 Y-206.19743 I6.10411 J-11.58165
G3 X112.23692 Y-206.26654 I1.60715 J-1.19041
G2 X111.24626 Y-206.91377 I-1.2674 J0.85812
G3 X109.60823 Y-208.84282 I0.36161 J-1.96704
G2 X109.3344 Y-220.64791 I-1406.2874 J26.71435
G3 X111.82681 Y-222.64093 I1.99925 J-0.05477
G3 X119.53861 Y-218.58029 I-4.60517 J18.09922
G3 X119.72275 Y-218.39618 I-1.31902 J1.50339
G3 X123.84104 Y-210.94132 I-14.95834 J13.12841
G3 X123.97844 Y-210.51668 I-7.9801 J2.81653
G1 F300.0 Z-4.0
G3 F800.0 X122.62763 Y-203.04279 I-8.1175 J2.39188
G3 X122.13371 Y-202.57701 I-1.59921 J-1.20106
G3 X116.70197 Y-202.40809 I-2.85226 J-4.30139
G3 X112.28588 Y-206.19743 I6.10411 J-11.58165
G3 X112.23692 Y-206.26654 I1.60715 J-1.19041
G2 X111.24626 Y-206.91377 I-1.2674 J0.85812
G3 X109.60823 Y-208.84282 I0.36161 J-1.96704
G2 X109.3344 Y-220.64791 I-1406.2874 J26.71435
G3 X111.82681 Y-222.64093 I1.99925 J-0.05477
G3 X119.53861 Y-218.58029 I-4.60517 J18.09922
G3 X119.72275 Y-218.39618 I-1.31902 J1.50339
G3 X123.84104 Y-210.94132 I-14.95834 J13.12841
G3 X123.97844 Y-210.51668 I-7.9801 J2.81653
G1 F300.0 X125.48454 Y-211.05344
G2 F800.0 X121.35289 Y-218.94401 I-17.41528 J4.09197
G3 X125.36039 Y-211.43403 I-16.58848 J13.67624
G3 X125.48454 Y-211.05344 I-9.49946 J3.30923
G0 Z3.0
G0 X125.92029 Y-208.1349
G0 Z-1.0
G1 F300.0 Z-4.0
G3 F800.0 X123.90444 Y-202.08387 I-10.05935 J0.0101
G3 X123.01617 Y-201.24621 I-2.87601 J-2.15998
G3 X115.93146 Y-201.00922 I-3.73472 J-5.63219
G3 X114.89235 Y-201.61528 I6.87462 J-12.98053
G3 X115.00156 Y-201.35936 I-3.25401 J1.53994
G2 X121.34816 Y-200.16531 I4.41102 J-5.98165
G2 X125.95553 Y-207.31193 I-2.89494 J-6.92482
G3 X125.95477 Y-207.34178 I3.59843 J-0.10638
G2 X125.92029 Y-208.1349 I-17.88551 J0.38031
G0 Z3.0
G0 X110.66918 Y-204.36728
G0 Z-1.0
G1 F300.0 Z-4.0
G3 F800.0 X110.46065 Y-204.63631 I12.1369 J-9.62247
G3 X108.71638 Y-205.56854 I1.14722 J-4.2445
G3 X108.72587 Y-203.37346 I-495.91667 J3.24329
G3 X110.66918 Y-204.36728 I2.91246 J3.29812
G1 F300.0 X111.29606 Y-204.86429
G3 F800.0 X111.00273 Y-205.247 I11.51002 J-9.12546
G3 X110.93031 Y-205.3484 I2.89029 J-2.14084
G3 X108.01172 Y-208.8125 I0.67756 J-3.53241
G2 X107.7382 Y-220.60418 I-1404.69089 J26.68402
G3 X112.22056 Y-224.18842 I3.59545 J-0.0985
G3 X120.13591 Y-220.16875 I-4.99891 J19.64672
G2 X115.11246 Y-223.40621 I-12.06664 J13.20728
G2 X109.14559 Y-224.53706 I-5.94128 J15.04142
G3 X108.70256 Y-224.56372 I-0.0057 J-3.6
G2 X107.43747 Y-224.33671 I-0.26475 J2.16316
G3 X107.49849 Y-181.73067 I-494.63777 J22.01146
G2 X107.65214 Y-181.70726 I0.07958 J-0.00636
G2 X108.03834 Y-200.07445 I-431.4707 J-18.26002
G3 X112.43755 Y-203.5855 I3.6 J-0.00089
G3 X111.29606 Y-204.86429 I10.36853 J-10.40424
G0 Z3.0
G0 X111.49575 Y-202.07025
G0 Z-1.0
G1 F300.0 Z-4.0
G3 F800.0 X113.61339 Y-200.39021 I0.14258 J1.99491
G2 X113.64315 Y-200.34855 I0.0567 J-0.00904
G3 X113.92079 Y-200.17021 I-0.93841 J1.76618
G2 X121.86719 Y-198.64877 I5.49179 J-7.1708
G2 X127.55483 Y-207.35921 I-3.41397 J-8.44136
G3 X127.55441 Y-207.37579 I1.99913 J-0.0591
G2 X115.72149 Y-224.88593 I-19.48515 J0.41432
G2 X109.14306 Y-226.13706 I-6.55031 J16.52113
G3 X108.89693 Y-226.15187 I-0.00316 J-2.0
G2 X106.13496 Y-225.39722 I-0.45912 J3.75131
G2 X105.83378 Y-224.3719 I1.24014 J0.92117
G3 X105.83635 Y-224.32622 I-1.99545 J0.13484
G3 X105.89843 Y-181.76254 I-493.03665 J22.00097
G2 X109.24658 Y-181.5424 I1.67964 J0.02552
G2 X109.63834 Y-200.07484 I-433.06514 J-18.42488
G3 X111.49575 Y-202.07025 I2.0 J-0.0005
G1 F300.0 X110.66918 Y-204.36728
G1 Z-6.0
G3 F800.0 X110.46065 Y-204.63631 I12.1369 J-9.62247
G3 X108.71638 Y-205.56854 I1.14722 J-4.2445
G3 X108.72587 Y-203.37346 I-495.91667 J3.24329
G3 X110.66918 Y-204.36728 I2.91246 J3.29812
G1 F300.0 X111.29606 Y-204.86429
G3 F800.0 X111.00273 Y-205.247 I11.51002 J-9.12546
G3 X110.93031 Y-205.3484 I2.89029 J-2.14084
G3 X108.01172 Y-208.8125 I0.67756 J-3.53241
G2 X107.7382 Y-220.60418 I-1404.69089 J26.68402
G3 X112.22056 Y-224.18842 I3.59545 J-0.0985
G3 X120.13591 Y-220.16875 I-4.99891 J19.64672
G2 X115.11246 Y-223.40621 I-12.06664 J13.20728
G2 X109.14559 Y-224.53706 I-5.94128 J15.04142
G3 X108.70256 Y-224.56372 I-0.0057 J-3.6
G2 X107.43747 Y-224.33671 I-0.26475 J2.16316
G3 X107.49849 Y-181.73067 I-494.63777 J22.01146
G2 X107.65214 Y-181.70726 I0.07958 J-0.00636
G2 X108.03834 Y-200.07445 I-431.4707 J-18.26002
G3 X112.43755 Y-203.5855 I3.6 J-0.00089
G3 X111.29606 Y-204.86429 I10.36853 J-10.40424
G0 Z3.0
G0 X114.89235 Y-201.61528
G0 Z-3.0
G1 F300.0 Z-6.0
G3 F800.0 X115.00156 Y-201.35936 I-3.25401 J1.53994
G2 X121.34816 Y-200.16531 I4.41102 J-5.98165
G2 X125.95553 Y-207.31193 I-2.89494 J-6.92482
G3 X125.95477 Y-207.34178 I3.59843 J-0.10638
G2 X125.92029 Y-208.1349 I-17.88551 J0.38031
G3 X123.90444 Y-202.08387 I-10.05935 J0.0101
G3 X123.01617 Y-201.24621 I-2.87601 J-2.15998
G3 X115.93146 Y-201.00922 I-3.73472 J-5.63219
G3 X114.89235 Y-201.61528 I6.87462 J-12.98053
G0 Z3.0
G0 X125.48454 Y-211.05344
G0 Z-3.0
G1 F300.0 Z-6.0
G2 F800.0 X121.35289 Y-218.94401 I-17.41528 J4.09197
G3 X125.36039 Y-211.43403 I-16.58848 J13.67624
G3 X125.48454 Y-211.05344 I-9.49946 J3.30923
G1 F300.0 X127.04212 Y-211.41942
G2 F800.0 X115.72149 Y-224.88593 I-18.97286 J4.45795
G2 X109.14306 Y-226.13706 I-6.55031 J16.52113
G3 X108.89693 Y-226.15187 I-0.00316 J-2.0
G2 X106.13496 Y-225.39722 I-0.45912 J3.75131
G2 X105.83378 Y-224.3719 I1.24014 J0.92117
G3 X105.83635 Y-224.32622 I-1.99545 J0.13484
G3 X105.89843 Y-181.76254 I-493.03665 J22.00097
G2 X109.24658 Y-181.5424 I1.67964 J0.02552
G2 X109.63834 Y-200.07484 I-433.06514 J-18.42488
G3 X113.61339 Y-200.39021 I2.0 J-0.0005
G2 X113.64315 Y-200.34855 I0.0567 J-0.00904
G3 X113.92079 Y-200.17021 I-0.93841 J1.76618
G2 X121.86719 Y-198.64877 I5.49179 J-7.1708
G2 X127.55483 Y-207.35921 I-3.41397 J-8.44136
G3 X127.55441 Y-207.37579 I1.99913 J-0.0591
G2 X127.04212 Y-211.41942 I-19.48515 J0.41432
G0 Z3.0
G0 X123.97844 Y-210.51668
G0 Z-3.0
G1 F300.0 Z-6.0
G3 F800.0 X122.62763 Y-203.04279 I-8.1175 J2.39188
G3 X122.13371 Y-202.57701 I-1.59921 J-1.20106
G3 X116.70197 Y-202.40809 I-2.85226 J-4.30139
G3 X112.28588 Y-206.19743 I6.10411 J-11.58165
G3 X112.23692 Y-206.26654 I1.60715 J-1.19041
G2 X111.24626 Y-206.91377 I-1.2674 J0.85812
G3 X109.60823 Y-208.84282 I0.36161 J-1.96704
G2 X109.3344 Y-220.64791 I-1406.2874 J26.71435
G3 X111.82681 Y-222.64093 I1.99925 J-0.05477
G3 X119.53861 Y-218.58029 I-4.60517 J18.09922
G3 X119.72275 Y-218.39618 I-1.31902 J1.50339
G3 X123.84104 Y-210.94132 I-14.95834 J13.12841
G3 X123.97844 Y-210.51668 I-7.9801 J2.81653
G0 Z3.0
G0 X135.0011 Y-210.79323
G0 Z1.0
G1 F300.0 Z-2.0
G3 F800.0 X135.22534 Y-200.0438 I-1271.451 J31.90039
G3 X135.22565 Y-200.0207 I-3.5995 J0.05987
G2 X135.39503 Y-199.98551 I0.08854 J-0.0009
G2 X134.76294 Y-224.42294 I-17065.09625 J429.17677
G2 X134.65466 Y-224.53454 I-0.13593 J0.02356
G2 X134.58504 Y-224.44992 I0.02127 J0.08845
G3 X135.0011 Y-210.79323 I-1271.03495 J45.55707
