( Made using CamBam - http://www.cambam.co.uk )
( PoolRadiusLehre 10/27/2021 4:09:21 PM )
( T4 : 4.0 )
G21 G90 G64 G40
G0 Z3.0
( T4 : 4.0 )
T4 M6
( Gravieren1 )
G17
M3 S1000
G0 X-220.0 Y10.54592
G0 Z1.0
G1 F300.0 Z-2.0
G3 F800.0 X220.0 I220.0 J2289.45408
G1 F300.0 Z-4.0
G2 F800.0 X-220.0 I-220.0 J2289.45408
G1 F300.0 Z-6.0
G3 F800.0 X220.0 I220.0 J2289.45408
G1 F300.0 Z-8.0
G2 F800.0 X-220.0 I-220.0 J2289.45408
G1 F300.0 Z-10.0
G3 F800.0 X220.0 I220.0 J2289.45408
G1 F300.0 Z-12.0
G2 F800.0 X-220.0 I-220.0 J2289.45408
G1 F300.0 Z-14.0
G3 F800.0 X220.0 I220.0 J2289.45408
G1 F300.0 Z-16.0
G2 F800.0 X-220.0 I-220.0 J2289.45408
G1 F300.0 Z-18.0
G3 F800.0 X220.0 I220.0 J2289.45408
G1 F300.0 Z-20.0
G2 F800.0 X-220.0 I-220.0 J2289.45408
G0 Z3.0
M5
M30
