; generated by PrusaSlicer 2.2.0+win64 on 2021-01-18 at 03:29:19 UTC

; 

; external perimeters extrusion width = 0.45mm
; perimeters extrusion width = 0.45mm
; infill extrusion width = 0.45mm
; solid infill extrusion width = 0.45mm
; top infill extrusion width = 0.40mm
; first layer extrusion width = 0.42mm

M73 P0 R325
M201 X9000 Y9000 Z500 E10000 ; sets maximum accelerations, mm/sec^2
M203 X500 Y500 Z12 E120 ; sets maximum feedrates, mm/sec
M204 P2000 R1500 T2000 ; sets acceleration (P, T) and retract acceleration (R), mm/sec^2
M205 X10.00 Y10.00 Z0.20 E2.50 ; sets the jerk limits, mm/sec
M205 S0 T0 ; sets the minimum extruding and travel feed rate, mm/sec
M107
M862.3 P "MK2S" ; printer model check
M862.1 P0.4 ; nozzle diameter check
M115 U3.2.3 ; tell printer latest fw version
G90 ; use absolute coordinates
M83 ; extruder relative mode
M204 S2000 T1500 ; MK2 firmware only supports the old M204 format
M104 S265 ; set extruder temp
M140 S100 ; set bed temp
M190 S100 ; wait for bed temp
M109 S265 ; wait for extruder temp
G28 W ; home all without mesh bed level
G80 ; mesh bed leveling
G1 Y-3.0 F1000.0 ; go outside print area
G92 E0.0
G1 X60.0 E9.0  F1000.0 ; intro line
M73 P0 R324
G1 X100.0 E12.5 F1000.0 ; intro line
G92 E0.0
G21 ; set units to millimeters
G90 ; use absolute coordinates
M83 ; use relative distances for extrusion
M900 K0.04 ; Filament gcode LA 1.5
M900 K20 ; Filament gcode LA 1.0
;BEFORE_LAYER_CHANGE
G92 E0.0
;0.2


G1 E-0.80000 F2100.00000
G1 Z0.600 F10800.000
;AFTER_LAYER_CHANGE
;0.2
G1 X36.178 Y29.769
G1 Z0.200
G1 E0.80000 F2100.00000
M204 S1000
G1 F1200.000
G1 X36.991 Y29.623 E0.02590
G1 X213.004 Y29.623 E5.51875
G1 X213.906 Y29.802 E0.02884
G1 X214.675 Y30.313 E0.02896
G1 X215.190 Y31.076 E0.02884
G1 X215.377 Y31.976 E0.02884
G1 X215.377 Y178.011 E4.57884
G1 X215.319 Y178.521 E0.01609
G1 X215.153 Y179.007 E0.01609
G1 X214.887 Y179.446 E0.01609
G1 X214.533 Y179.817 E0.01609
G1 X213.822 Y180.231 E0.02579
G1 X213.009 Y180.377 E0.02590
G1 X36.996 Y180.377 E5.51875
G1 X36.486 Y180.321 E0.01609
G1 X35.996 Y180.155 E0.01621
G1 X35.554 Y179.887 E0.01621
G1 X35.183 Y179.533 E0.01609
G1 X34.769 Y178.822 E0.02579
G1 X34.623 Y178.009 E0.02590
G1 X34.623 Y31.996 E4.57812
G1 X34.679 Y31.486 E0.01609
G1 X34.845 Y30.996 E0.01621
G1 X35.113 Y30.554 E0.01621
G1 X35.467 Y30.183 E0.01609
G1 X36.126 Y29.800 E0.02390
G1 F8640.000
G1 X36.991 Y29.623 E-0.20384
G1 X39.400 Y29.623 E-0.55616
G1 E-0.04000 F2100.00000
G1 Z0.800 F10800.000
G1 X121.787 Y103.405
G1 Z0.200
G1 E0.80000 F2100.00000
G1 F1200.000
G1 X122.000 Y103.528 E0.00771
G1 X122.213 Y103.405 E0.00771
G1 X122.213 Y108.595 E0.16275
G1 X122.000 Y108.472 E0.00771
G1 X121.787 Y108.595 E0.00771
G1 X121.787 Y103.465 E0.16087
G1 F8640.000
G1 X122.000 Y103.528 E-0.05127
G1 X122.213 Y103.405 E-0.05677
G1 X122.213 Y106.228 E-0.65196
G1 E-0.04000 F2100.00000
G1 Z0.800 F10800.000
G1 X126.787 Y111.405
G1 Z0.200
G1 E0.80000 F2100.00000
G1 F1200.000
G1 X127.000 Y111.528 E0.00771
G1 X127.213 Y111.405 E0.00771
G1 X127.213 Y116.595 E0.16275
G1 X127.000 Y116.472 E0.00771
G1 X126.787 Y116.595 E0.00771
G1 X126.787 Y111.465 E0.16087
G1 F8640.000
G1 X127.000 Y111.528 E-0.05127
G1 X127.213 Y111.405 E-0.05677
G1 X127.213 Y114.228 E-0.65196
G1 E-0.04000 F2100.00000
G1 Z0.800 F10800.000
G1 X122.213 Y119.405
G1 Z0.200
G1 E0.80000 F2100.00000
G1 F1200.000
G1 X122.213 Y124.595 E0.16275
G1 X122.000 Y124.472 E0.00771
G1 X121.787 Y124.595 E0.00771
G1 X121.787 Y119.405 E0.16275
G1 X122.000 Y119.528 E0.00771
G1 X122.161 Y119.435 E0.00583
G1 F8640.000
G1 X122.194 Y122.726 E-0.76000
G1 E-0.04000 F2100.00000
G1 Z0.800 F10800.000
G1 X117.213 Y116.595
G1 Z0.200
G1 E0.80000 F2100.00000
G1 F1200.000
G1 X117.000 Y116.472 E0.00771
G1 X116.787 Y116.595 E0.00771
G1 X116.787 Y111.405 E0.16275
G1 X117.000 Y111.528 E0.00771
G1 X117.213 Y111.405 E0.00771
G1 X117.213 Y116.535 E0.16087
G1 F8640.000
G1 X117.000 Y116.472 E-0.05127
G1 X116.787 Y116.595 E-0.05677
G1 X116.787 Y113.772 E-0.65196
G1 E-0.04000 F2100.00000
G1 Z0.800 F10800.000
G1 X112.213 Y119.405
G1 Z0.200
G1 E0.80000 F2100.00000
G1 F1200.000
G1 X112.213 Y124.595 E0.16275
G1 X112.000 Y124.472 E0.00771
G1 X111.787 Y124.595 E0.00771
G1 X111.787 Y119.405 E0.16275
G1 X112.000 Y119.528 E0.00771
G1 X112.161 Y119.435 E0.00583
G1 F8640.000
G1 X112.194 Y122.726 E-0.76000
G1 E-0.04000 F2100.00000
G1 Z0.800 F10800.000
G1 X107.213 Y116.595
G1 Z0.200
G1 E0.80000 F2100.00000
G1 F1200.000
G1 X107.000 Y116.472 E0.00771
G1 X106.787 Y116.595 E0.00771
G1 X106.787 Y111.405 E0.16275
G1 X107.000 Y111.528 E0.00771
G1 X107.213 Y111.405 E0.00771
G1 X107.213 Y116.535 E0.16087
G1 F8640.000
G1 X107.000 Y116.472 E-0.05127
G1 X106.787 Y116.595 E-0.05677
G1 X106.787 Y113.772 E-0.65196
G1 E-0.04000 F2100.00000
G1 Z0.800 F10800.000
G1 X102.213 Y119.405
G1 Z0.200
G1 E0.80000 F2100.00000
G1 F1200.000
G1 X102.213 Y124.595 E0.16275
G1 X102.000 Y124.472 E0.00771
G1 X101.787 Y124.595 E0.00771
G1 X101.787 Y119.405 E0.16275
G1 X102.000 Y119.528 E0.00771
G1 X102.161 Y119.435 E0.00583
G1 F8640.000
G1 X102.194 Y122.726 E-0.76000
G1 E-0.04000 F2100.00000
G1 Z0.800 F10800.000
G1 X97.213 Y116.595
G1 Z0.200
G1 E0.80000 F2100.00000
G1 F1200.000
G1 X97.000 Y116.472 E0.00771
G1 X96.787 Y116.595 E0.00771
G1 X96.787 Y111.405 E0.16275
G1 X97.000 Y111.528 E0.00771
G1 X97.213 Y111.405 E0.00771
G1 X97.213 Y116.535 E0.16087
G1 F8640.000
G1 X97.000 Y116.472 E-0.05127
G1 X96.787 Y116.595 E-0.05677
G1 X96.787 Y113.772 E-0.65196
G1 E-0.04000 F2100.00000
G1 Z0.800 F10800.000
G1 X92.213 Y119.405
G1 Z0.200
G1 E0.80000 F2100.00000
G1 F1200.000
G1 X92.213 Y124.595 E0.16275
G1 X92.000 Y124.472 E0.00771
G1 X91.787 Y124.595 E0.00771
G1 X91.787 Y119.405 E0.16275
G1 X92.000 Y119.528 E0.00771
G1 X92.161 Y119.435 E0.00583
G1 F8640.000
G1 X92.194 Y122.726 E-0.76000
G1 E-0.04000 F2100.00000
G1 Z0.800 F10800.000
G1 X87.213 Y116.595
G1 Z0.200
G1 E0.80000 F2100.00000
G1 F1200.000
G1 X87.000 Y116.472 E0.00771
G1 X86.787 Y116.595 E0.00771
G1 X86.787 Y111.405 E0.16275
G1 X87.000 Y111.528 E0.00771
G1 X87.213 Y111.405 E0.00771
G1 X87.213 Y116.535 E0.16087
G1 F8640.000
G1 X87.000 Y116.472 E-0.05127
G1 X86.787 Y116.595 E-0.05677
G1 X86.787 Y113.772 E-0.65196
G1 E-0.04000 F2100.00000
G1 Z0.800 F10800.000
G1 X82.213 Y119.405
G1 Z0.200
G1 E0.80000 F2100.00000
G1 F1200.000
G1 X82.213 Y124.595 E0.16275
G1 X82.000 Y124.472 E0.00771
G1 X81.787 Y124.595 E0.00771
G1 X81.787 Y119.405 E0.16275
G1 X82.000 Y119.528 E0.00771
G1 X82.161 Y119.435 E0.00583
G1 F8640.000
G1 X82.194 Y122.726 E-0.76000
G1 E-0.04000 F2100.00000
G1 Z0.800 F10800.000
G1 X77.213 Y116.595
G1 Z0.200
G1 E0.80000 F2100.00000
G1 F1200.000
G1 X77.000 Y116.472 E0.00771
G1 X76.787 Y116.595 E0.00771
G1 X76.787 Y111.405 E0.16275
G1 X77.000 Y111.528 E0.00771
G1 X77.213 Y111.405 E0.00771
G1 X77.213 Y116.535 E0.16087
G1 F8640.000
G1 X77.000 Y116.472 E-0.05127
G1 X76.787 Y116.595 E-0.05677
G1 X76.787 Y113.772 E-0.65196
G1 E-0.04000 F2100.00000
G1 Z0.800 F10800.000
G1 X72.213 Y119.405
G1 Z0.200
G1 E0.80000 F2100.00000
G1 F1200.000
G1 X72.213 Y124.595 E0.16275
G1 X72.000 Y124.472 E0.00771
G1 X71.787 Y124.595 E0.00771
G1 X71.787 Y119.405 E0.16275
G1 X72.000 Y119.528 E0.00771
G1 X72.161 Y119.435 E0.00583
G1 F8640.000
G1 X72.194 Y122.726 E-0.76000
G1 E-0.04000 F2100.00000
G1 Z0.800 F10800.000
G1 X67.213 Y116.595
G1 Z0.200
G1 E0.80000 F2100.00000
G1 F1200.000
G1 X67.000 Y116.472 E0.00771
G1 X66.787 Y116.595 E0.00771
G1 X66.787 Y111.405 E0.16275
G1 X67.000 Y111.528 E0.00771
G1 X67.213 Y111.405 E0.00771
G1 X67.213 Y116.535 E0.16087
G1 F8640.000
G1 X67.000 Y116.472 E-0.05127
G1 X66.787 Y116.595 E-0.05677
G1 X66.787 Y113.772 E-0.65196
G1 E-0.04000 F2100.00000
G1 Z0.800 F10800.000
G1 X71.787 Y108.595
G1 Z0.200
G1 E0.80000 F2100.00000
G1 F1200.000
G1 X71.787 Y103.405 E0.16275
G1 X72.000 Y103.528 E0.00771
G1 X72.213 Y103.405 E0.00771
G1 X72.213 Y108.595 E0.16275
G1 X72.000 Y108.472 E0.00771
G1 X71.839 Y108.565 E0.00583
G1 F8640.000
G1 X71.806 Y105.274 E-0.76000
G1 E-0.04000 F2100.00000
G1 Z0.800 F10800.000
G1 X67.213 Y100.595
G1 Z0.200
G1 E0.80000 F2100.00000
G1 F1200.000
G1 X67.000 Y100.472 E0.00771
G1 X66.787 Y100.595 E0.00771
G1 X66.787 Y95.405 E0.16275
G1 X67.000 Y95.528 E0.00771
G1 X67.213 Y95.405 E0.00771
G1 X67.213 Y100.535 E0.16087
G1 F8640.000
G1 X67.000 Y100.472 E-0.05127
G1 X66.787 Y100.595 E-0.05677
G1 X66.787 Y97.772 E-0.65196
G1 E-0.04000 F2100.00000
G1 Z0.800 F10800.000
G1 X76.787 Y100.535
G1 Z0.200
G1 E0.80000 F2100.00000
G1 F1200.000
G1 X76.787 Y95.405 E0.16087
G1 X77.000 Y95.528 E0.00771
G1 X77.213 Y95.405 E0.00771
G1 X77.213 Y100.595 E0.16275
G1 X77.000 Y100.472 E0.00771
G1 X76.787 Y100.595 E0.00771
G1 F8640.000
G1 X76.787 Y97.304 E-0.76000
G1 E-0.04000 F2100.00000
G1 Z0.800 F10800.000
G1 X81.787 Y103.405
G1 Z0.200
G1 E0.80000 F2100.00000
G1 F1200.000
G1 X82.000 Y103.528 E0.00771
G1 X82.213 Y103.405 E0.00771
G1 X82.213 Y108.595 E0.16275
G1 X82.000 Y108.472 E0.00771
G1 X81.787 Y108.595 E0.00771
G1 X81.787 Y103.465 E0.16087
G1 F8640.000
G1 X82.000 Y103.528 E-0.05127
G1 X82.213 Y103.405 E-0.05677
G1 X82.213 Y106.228 E-0.65196
G1 E-0.04000 F2100.00000
G1 Z0.800 F10800.000
G1 X86.787 Y100.595
G1 Z0.200
G1 E0.80000 F2100.00000
G1 F1200.000
G1 X86.787 Y95.405 E0.16275
G1 X87.000 Y95.528 E0.00771
G1 X87.213 Y95.405 E0.00771
G1 X87.213 Y100.595 E0.16275
G1 X87.000 Y100.472 E0.00771
G1 X86.839 Y100.565 E0.00583
G1 F8640.000
G1 X86.806 Y97.274 E-0.76000
G1 E-0.04000 F2100.00000
G1 Z0.800 F10800.000
G1 X91.787 Y103.405
G1 Z0.200
G1 E0.80000 F2100.00000
G1 F1200.000
G1 X92.000 Y103.528 E0.00771
G1 X92.213 Y103.405 E0.00771
G1 X92.213 Y108.595 E0.16275
G1 X92.000 Y108.472 E0.00771
G1 X91.787 Y108.595 E0.00771
G1 X91.787 Y103.465 E0.16087
G1 F8640.000
G1 X92.000 Y103.528 E-0.05127
G1 X92.213 Y103.405 E-0.05677
G1 X92.213 Y106.228 E-0.65196
G1 E-0.04000 F2100.00000
G1 Z0.800 F10800.000
G1 X96.787 Y100.595
G1 Z0.200
G1 E0.80000 F2100.00000
G1 F1200.000
G1 X96.787 Y95.405 E0.16275
G1 X97.000 Y95.528 E0.00771
G1 X97.213 Y95.405 E0.00771
G1 X97.213 Y100.595 E0.16275
G1 X97.000 Y100.472 E0.00771
G1 X96.839 Y100.565 E0.00583
G1 F8640.000
G1 X96.806 Y97.274 E-0.76000
G1 E-0.04000 F2100.00000
G1 Z0.800 F10800.000
G1 X101.787 Y103.405
G1 Z0.200
G1 E0.80000 F2100.00000
G1 F1200.000
G1 X102.000 Y103.528 E0.00771
G1 X102.213 Y103.405 E0.00771
G1 X102.213 Y108.595 E0.16275
G1 X102.000 Y108.472 E0.00771
G1 X101.787 Y108.595 E0.00771
M73 P0 R323
G1 X101.787 Y103.465 E0.16087
G1 F8640.000
G1 X102.000 Y103.528 E-0.05127
G1 X102.213 Y103.405 E-0.05677
G1 X102.213 Y106.228 E-0.65196
G1 E-0.04000 F2100.00000
G1 Z0.800 F10800.000
G1 X106.787 Y100.595
G1 Z0.200
G1 E0.80000 F2100.00000
G1 F1200.000
G1 X106.787 Y95.405 E0.16275
G1 X107.000 Y95.528 E0.00771
G1 X107.213 Y95.405 E0.00771
G1 X107.213 Y100.595 E0.16275
G1 X107.000 Y100.472 E0.00771
G1 X106.839 Y100.565 E0.00583
G1 F8640.000
G1 X106.806 Y97.274 E-0.76000
G1 E-0.04000 F2100.00000
G1 Z0.800 F10800.000
G1 X111.787 Y103.405
G1 Z0.200
G1 E0.80000 F2100.00000
G1 F1200.000
G1 X112.000 Y103.528 E0.00771
G1 X112.213 Y103.405 E0.00771
G1 X112.213 Y108.595 E0.16275
G1 X112.000 Y108.472 E0.00771
G1 X111.787 Y108.595 E0.00771
G1 X111.787 Y103.465 E0.16087
G1 F8640.000
G1 X112.000 Y103.528 E-0.05127
G1 X112.213 Y103.405 E-0.05677
G1 X112.213 Y106.228 E-0.65196
G1 E-0.04000 F2100.00000
G1 Z0.800 F10800.000
G1 X116.787 Y100.595
G1 Z0.200
G1 E0.80000 F2100.00000
G1 F1200.000
G1 X116.787 Y95.405 E0.16275
G1 X117.000 Y95.528 E0.00771
G1 X117.213 Y95.405 E0.00771
G1 X117.213 Y100.595 E0.16275
G1 X117.000 Y100.472 E0.00771
G1 X116.839 Y100.565 E0.00583
G1 F8640.000
G1 X116.806 Y97.274 E-0.76000
G1 E-0.04000 F2100.00000
G1 Z0.800 F10800.000
G1 X126.787 Y100.565
G1 Z0.200
G1 E0.80000 F2100.00000
G1 F1200.000
G1 X126.787 Y95.405 E0.16181
G1 X127.000 Y95.528 E0.00771
G1 X127.213 Y95.405 E0.00771
G1 X127.213 Y100.595 E0.16275
G1 X127.000 Y100.472 E0.00771
G1 X126.813 Y100.580 E0.00677
G1 F8640.000
G1 X126.797 Y97.289 E-0.76000
G1 E-0.04000 F2100.00000
G1 Z0.800 F10800.000
G1 X67.213 Y127.405
G1 Z0.200
G1 E0.80000 F2100.00000
G1 F1200.000
G1 X67.213 Y132.595 E0.16275
G1 X67.000 Y132.472 E0.00771
G1 X66.787 Y132.595 E0.00771
G1 X66.787 Y127.405 E0.16275
G1 X67.000 Y127.528 E0.00771
G1 X67.161 Y127.435 E0.00583
G1 F8640.000
G1 X67.194 Y130.726 E-0.76000
G1 E-0.04000 F2100.00000
G1 Z0.800 F10800.000
G1 X76.787 Y127.435
G1 Z0.200
G1 E0.80000 F2100.00000
G1 F1200.000
G1 X76.787 Y127.405 E0.00094
G1 X77.000 Y127.528 E0.00771
G1 X77.213 Y127.405 E0.00771
G1 X77.213 Y132.595 E0.16275
G1 X77.000 Y132.472 E0.00771
G1 X76.787 Y132.595 E0.00771
G1 X76.787 Y127.495 E0.15992
G1 F8640.000
G1 X76.787 Y127.405 E-0.02078
G1 X77.000 Y127.528 E-0.05677
G1 X77.213 Y127.405 E-0.05677
G1 X77.213 Y130.114 E-0.62568
G1 E-0.04000 F2100.00000
G1 Z0.800 F10800.000
G1 X86.787 Y127.495
G1 Z0.200
G1 E0.80000 F2100.00000
G1 F1200.000
G1 X86.787 Y127.405 E0.00282
G1 X87.000 Y127.528 E0.00771
G1 X87.213 Y127.405 E0.00771
G1 X87.213 Y132.595 E0.16275
G1 X87.000 Y132.472 E0.00771
G1 X86.787 Y132.595 E0.00771
G1 X86.787 Y127.555 E0.15804
G1 F8640.000
G1 X86.787 Y127.405 E-0.03464
G1 X87.000 Y127.528 E-0.05677
G1 X87.213 Y127.405 E-0.05677
G1 X87.213 Y130.054 E-0.61182
G1 E-0.04000 F2100.00000
G1 Z0.800 F10800.000
G1 X96.787 Y127.555
G1 Z0.200
G1 E0.80000 F2100.00000
G1 F1200.000
G1 X96.787 Y127.405 E0.00470
G1 X97.000 Y127.528 E0.00771
G1 X97.213 Y127.405 E0.00771
G1 X97.213 Y132.595 E0.16275
G1 X97.000 Y132.472 E0.00771
G1 X96.787 Y132.595 E0.00771
G1 X96.787 Y127.615 E0.15616
G1 F8640.000
G1 X96.787 Y127.405 E-0.04849
G1 X97.000 Y127.528 E-0.05677
G1 X97.213 Y127.405 E-0.05677
G1 X97.213 Y129.994 E-0.59797
G1 E-0.04000 F2100.00000
G1 Z0.800 F10800.000
G1 X107.000 Y132.472
G1 Z0.200
G1 E0.80000 F2100.00000
G1 F1200.000
G1 X106.787 Y132.595 E0.00771
G1 X106.787 Y127.405 E0.16275
G1 X107.000 Y127.528 E0.00771
G1 X107.213 Y127.405 E0.00771
G1 X107.213 Y132.595 E0.16275
G1 X107.052 Y132.502 E0.00583
G1 F8640.000
G1 X106.787 Y132.595 E-0.06482
G1 X106.787 Y129.585 E-0.69518
G1 E-0.04000 F2100.00000
G1 Z0.800 F10800.000
G1 X116.787 Y132.502
G1 Z0.200
G1 E0.80000 F2100.00000
G1 F1200.000
G1 X116.787 Y127.405 E0.15983
G1 X117.000 Y127.528 E0.00771
G1 X117.213 Y127.405 E0.00771
G1 X117.213 Y132.595 E0.16275
G1 X117.000 Y132.472 E0.00771
G1 X116.787 Y132.595 E0.00771
G1 X116.787 Y132.562 E0.00103
G1 F8640.000
G1 X116.787 Y129.271 E-0.76000
G1 E-0.04000 F2100.00000
G1 Z0.800 F10800.000
G1 X126.787 Y132.562
G1 Z0.200
G1 E0.80000 F2100.00000
G1 F1200.000
G1 X126.787 Y127.405 E0.16171
G1 X127.000 Y127.528 E0.00771
G1 X127.213 Y127.405 E0.00771
G1 X127.213 Y132.595 E0.16275
G1 X127.000 Y132.472 E0.00771
G1 X126.811 Y132.582 E0.00686
G1 F8640.000
G1 X126.796 Y129.290 E-0.76000
G1 E-0.04000 F2100.00000
G1 Z0.800 F10800.000
G1 X126.787 Y143.405
G1 Z0.200
G1 E0.80000 F2100.00000
G1 F1200.000
G1 X127.000 Y143.528 E0.00771
G1 X127.213 Y143.405 E0.00771
G1 X127.213 Y148.595 E0.16275
G1 X127.000 Y148.472 E0.00771
G1 X126.787 Y148.595 E0.00771
G1 X126.787 Y143.465 E0.16087
G1 F8640.000
G1 X127.000 Y143.528 E-0.05127
G1 X127.213 Y143.405 E-0.05677
G1 X127.213 Y146.228 E-0.65196
G1 E-0.04000 F2100.00000
G1 Z0.800 F10800.000
G1 X122.213 Y140.595
G1 Z0.200
G1 E0.80000 F2100.00000
G1 F1200.000
G1 X122.000 Y140.472 E0.00771
G1 X121.787 Y140.595 E0.00771
G1 X121.787 Y135.405 E0.16275
G1 X122.000 Y135.528 E0.00771
G1 X122.213 Y135.405 E0.00771
G1 X122.213 Y140.535 E0.16087
G1 F8640.000
G1 X122.000 Y140.472 E-0.05127
G1 X121.787 Y140.595 E-0.05677
G1 X121.787 Y137.772 E-0.65196
G1 E-0.04000 F2100.00000
G1 Z0.800 F10800.000
G1 X117.213 Y143.405
G1 Z0.200
G1 E0.80000 F2100.00000
G1 F1200.000
G1 X117.213 Y148.595 E0.16275
G1 X117.000 Y148.472 E0.00771
G1 X116.787 Y148.595 E0.00771
G1 X116.787 Y143.405 E0.16275
G1 X117.000 Y143.528 E0.00771
G1 X117.161 Y143.435 E0.00583
G1 F8640.000
G1 X117.194 Y146.726 E-0.76000
G1 E-0.04000 F2100.00000
G1 Z0.800 F10800.000
G1 X112.213 Y140.595
G1 Z0.200
G1 E0.80000 F2100.00000
G1 F1200.000
G1 X112.000 Y140.472 E0.00771
G1 X111.787 Y140.595 E0.00771
G1 X111.787 Y135.405 E0.16275
