; generated by Slic3r Prusa Edition 1.40.1+win64 on 2018-09-08 at 14:39:11

; 

; external perimeters extrusion width = 0.60mm
; perimeters extrusion width = 0.43mm
; infill extrusion width = 0.45mm
; solid infill extrusion width = 0.70mm
; top infill extrusion width = 0.43mm
; first layer extrusion width = 0.42mm

M107
M115 U3.1.0 ; tell printer latest fw version
M201 X9000 Y9000 Z500 E10000 ; sets maximum accelerations, mm/sec^2
M203 X500 Y500 Z12 E120 ; sets maximum feedrates, mm/sec
M204 S1500 T1500 ; sets acceleration (S) and retract acceleration (T)
M205 X10 Y10 Z0.2 E2.5 ; sets the jerk limits, mm/sec
M205 S0 T0 ; sets the minimum extruding and travel feed rate, mm/sec
M83  ; extruder relative mode
M104 S215 ; set extruder temp
M140 S60 ; set bed temp
M190 S60 ; wait for bed temp
M109 S215 ; wait for extruder temp
G28 W ; home all without mesh bed level
G80 ; mesh bed leveling
G1 Y-3.0 F1000.0 ; go outside print area
G92 E0.0
G1 X60.0 E9.0  F1000.0 ; intro line
G1 X100.0 E12.5  F1000.0 ; intro line
G92 E0.0
M900 K30; Filament gcode
G21 ; set units to millimeters
G90 ; use absolute coordinates
M83 ; use relative distances for extrusion
;BEFORE_LAYER_CHANGE
G92 E0.0
;0.2


G1 E-0.80000 F2100.00000
G1 Z0.600 F10800.000
;AFTER_LAYER_CHANGE
;0.2
G1 X111.450 Y100.218
G1 Z0.200
G1 E0.80000 F2100.00000
M204 S1000
G1 F1800
G1 X112.373 Y99.526 E0.03617
G1 X113.340 Y99.085 E0.03332
G1 X114.013 Y98.907 E0.02183
G1 X114.973 Y98.812 E0.03024
G1 X135.004 Y98.811 E0.62804
G1 X136.060 Y98.921 E0.03329
G1 X137.022 Y99.223 E0.03161
G1 X137.690 Y99.565 E0.02354
G1 X138.538 Y100.206 E0.03332
G1 X228.835 Y190.506 E4.00400
G1 X229.539 Y191.488 E0.03787
G1 X230.061 Y192.859 E0.04602
G1 X230.187 Y193.915 E0.03332
G1 X230.187 Y196.080 E0.06790
G1 X230.072 Y197.095 E0.03203
G1 X229.736 Y198.119 E0.03378
G1 X229.200 Y199.046 E0.03356
G1 X228.494 Y199.835 E0.03321
G1 X227.680 Y200.441 E0.03184
G1 X227.017 Y200.779 E0.02331
G1 X226.066 Y201.078 E0.03127
G1 X225.027 Y201.188 E0.03276
G1 X204.901 Y201.186 E0.63102
G1 X204.009 Y201.092 E0.02815
G1 X203.363 Y200.923 E0.02092
G1 X202.487 Y200.538 E0.03001
G1 X201.893 Y200.154 E0.02217
G1 X111.218 Y109.550 E4.01912
G1 X110.526 Y108.627 E0.03617
G1 X110.085 Y107.660 E0.03332
G1 X109.834 Y106.474 E0.03799
G1 X109.811 Y103.993 E0.07782
G1 X109.908 Y103.009 E0.03100
G1 X110.100 Y102.298 E0.02309
G1 X110.566 Y101.308 E0.03431
G1 X111.413 Y100.264 E0.04212
G1 F8640
G1 X112.373 Y99.526 E-0.27980
G1 X113.340 Y99.085 E-0.24540
G1 X114.013 Y98.907 E-0.16078
G1 X114.332 Y98.876 E-0.07402
G1 E-0.04000 F2100.00000
G1 Z0.800 F10800.000
G1 X114.469 Y103.299
G1 Z0.200
G1 E0.80000 F2100.00000
G1 F1800
G1 X114.720 Y103.103 E0.01001
G1 X114.997 Y102.943 E0.01001
G1 X115.297 Y102.822 E0.01014
G1 X115.634 Y102.743 E0.01085
G1 X115.920 Y102.713 E0.00903
G1 X116.239 Y102.724 E0.01001
G1 X116.558 Y102.780 E0.01014
G1 X116.885 Y102.892 E0.01085
G1 X117.144 Y103.018 E0.00903
G1 X117.412 Y103.199 E0.01014
G1 X117.666 Y103.434 E0.01085
G1 X117.851 Y103.655 E0.00903
G1 X118.021 Y103.926 E0.01001
G1 X118.150 Y104.217 E0.01001
G1 X118.239 Y104.524 E0.01001
G1 X118.283 Y104.840 E0.01001
G1 X118.283 Y105.160 E0.01001
G1 X118.239 Y105.476 E0.01001
G1 X118.150 Y105.783 E0.01001
G1 X118.021 Y106.074 E0.01001
G1 X117.849 Y106.349 E0.01014
G1 X117.623 Y106.611 E0.01085
G1 X117.409 Y106.803 E0.00903
G1 X117.144 Y106.982 E0.01001
G1 X116.857 Y107.122 E0.01001
G1 X116.554 Y107.221 E0.01001
G1 X116.239 Y107.276 E0.01001
G1 X115.920 Y107.287 E0.01001
G1 X115.603 Y107.254 E0.01001
G1 X115.293 Y107.177 E0.01001
G1 X114.993 Y107.055 E0.01014
G1 X114.696 Y106.878 E0.01085
G1 X114.469 Y106.701 E0.00903
G1 X114.247 Y106.471 E0.01001
G1 X114.057 Y106.209 E0.01014
G1 X113.899 Y105.902 E0.01085
G1 X113.800 Y105.631 E0.00903
G1 X113.734 Y105.318 E0.01001
G1 X113.711 Y105.000 E0.01001
G1 X113.734 Y104.682 E0.01001
G1 X113.800 Y104.369 E0.01001
G1 X113.909 Y104.069 E0.01001
G1 X114.059 Y103.787 E0.01001
G1 X114.247 Y103.529 E0.01001
G1 X114.427 Y103.342 E0.00813
G1 X114.698 Y103.604 F10800.000
G1 F1800
G1 X114.932 Y103.416 E0.00940
G1 X115.162 Y103.283 E0.00836
G1 X115.411 Y103.182 E0.00840
G1 X115.697 Y103.116 E0.00920
G1 X115.933 Y103.091 E0.00746
G1 X116.200 Y103.100 E0.00836
G1 X116.464 Y103.146 E0.00840
G1 X116.741 Y103.241 E0.00920
G1 X116.955 Y103.345 E0.00746
G1 X117.177 Y103.495 E0.00840
G1 X117.393 Y103.695 E0.00920
G1 X117.546 Y103.877 E0.00746
G1 X117.687 Y104.103 E0.00836
G1 X117.795 Y104.347 E0.00836
G1 X117.869 Y104.603 E0.00836
G1 X117.906 Y104.867 E0.00836
G1 X117.906 Y105.133 E0.00836
G1 X117.869 Y105.397 E0.00836
G1 X117.795 Y105.653 E0.00836
G1 X117.687 Y105.897 E0.00836
G1 X117.545 Y106.124 E0.00840
G1 X117.353 Y106.346 E0.00920
G1 X117.176 Y106.506 E0.00746
G1 X116.955 Y106.655 E0.00836
G1 X116.716 Y106.771 E0.00836
G1 X116.462 Y106.854 E0.00836
G1 X116.200 Y106.900 E0.00836
G1 X115.933 Y106.909 E0.00836
G1 X115.668 Y106.881 E0.00836
G1 X115.410 Y106.817 E0.00836
G1 X115.161 Y106.717 E0.00840
G1 X114.909 Y106.566 E0.00920
G1 X114.722 Y106.420 E0.00746
G1 X114.536 Y106.228 E0.00836
G1 X114.379 Y106.011 E0.00840
G1 X114.245 Y105.750 E0.00920
G1 X114.163 Y105.527 E0.00746
G1 X114.108 Y105.266 E0.00836
G1 X114.089 Y105.000 E0.00836
G1 X114.108 Y104.734 E0.00836
G1 X114.163 Y104.473 E0.00836
G1 X114.255 Y104.223 E0.00836
G1 X114.380 Y103.988 E0.00836
G1 X114.536 Y103.772 E0.00836
G1 X114.657 Y103.648 E0.00542
G1 X114.632 Y103.312 F10800.000
G1 F8640
G1 X114.932 Y103.416 E-0.08301
G1 X115.162 Y103.283 E-0.06155
G1 X115.411 Y103.182 E-0.06189
G1 X115.697 Y103.116 E-0.06772
G1 X115.933 Y103.091 E-0.05497
G1 X116.200 Y103.100 E-0.06155
G1 X116.464 Y103.146 E-0.06189
G1 X116.741 Y103.241 E-0.06772
G1 X116.955 Y103.345 E-0.05497
G1 X117.177 Y103.495 E-0.06189
G1 X117.393 Y103.695 E-0.06772
G1 X117.546 Y103.877 E-0.05497
G1 X117.546 Y103.878 E-0.00016
G1 E-0.04000 F2100.00000
G1 Z0.800 F10800.000
G1 X131.723 Y104.841
G1 Z0.200
G1 E0.80000 F2100.00000
G1 F1800
G1 X131.734 Y104.682 E0.00501
G1 X131.800 Y104.369 E0.01001
G1 X131.909 Y104.069 E0.01001
G1 X132.059 Y103.787 E0.01001
G1 X132.247 Y103.529 E0.01001
G1 X132.469 Y103.299 E0.01001
G1 X132.720 Y103.103 E0.01001
G1 X132.997 Y102.943 E0.01001
G1 X133.297 Y102.822 E0.01014
G1 X133.634 Y102.743 E0.01085
G1 X133.920 Y102.713 E0.00903
G1 X134.239 Y102.724 E0.01001
G1 X134.558 Y102.780 E0.01014
G1 X134.885 Y102.892 E0.01085
G1 X135.144 Y103.018 E0.00903
G1 X135.409 Y103.197 E0.01001
G1 X135.646 Y103.410 E0.01001
G1 X135.851 Y103.655 E0.01001
G1 X136.021 Y103.926 E0.01001
G1 X136.150 Y104.217 E0.01001
G1 X136.239 Y104.524 E0.01001
G1 X136.283 Y104.840 E0.01001
G1 X136.283 Y105.160 E0.01001
G1 X136.239 Y105.476 E0.01001
G1 X136.150 Y105.783 E0.01001
G1 X136.021 Y106.074 E0.01001
G1 X135.851 Y106.345 E0.01001
G1 X135.644 Y106.593 E0.01014
G1 X135.383 Y106.821 E0.01085
G1 X135.144 Y106.982 E0.00903
G1 X134.857 Y107.122 E0.01001
G1 X134.554 Y107.221 E0.01001
G1 X134.239 Y107.276 E0.01001
G1 X133.920 Y107.287 E0.01001
G1 X133.603 Y107.254 E0.01001
G1 X133.293 Y107.177 E0.01001
G1 X132.993 Y107.055 E0.01014
G1 X132.696 Y106.878 E0.01085
G1 X132.469 Y106.701 E0.00903
G1 X132.247 Y106.471 E0.01001
G1 X132.057 Y106.209 E0.01014
G1 X131.899 Y105.902 E0.01085
G1 X131.800 Y105.631 E0.00903
G1 X131.734 Y105.318 E0.01001
G1 X131.718 Y104.901 E0.01311
G1 X132.095 Y104.927 F10800.000
G1 F1800
G1 X132.108 Y104.734 E0.00607
G1 X132.163 Y104.473 E0.00836
G1 X132.255 Y104.223 E0.00836
G1 X132.380 Y103.988 E0.00836
G1 X132.536 Y103.772 E0.00836
G1 X132.722 Y103.580 E0.00836
G1 X132.932 Y103.416 E0.00836
G1 X133.162 Y103.283 E0.00836
G1 X133.411 Y103.182 E0.00840
G1 X133.697 Y103.116 E0.00920
G1 X133.933 Y103.091 E0.00746
G1 X134.200 Y103.100 E0.00836
G1 X134.464 Y103.146 E0.00840
G1 X134.741 Y103.241 E0.00920
G1 X134.955 Y103.345 E0.00746
G1 X135.176 Y103.494 E0.00836
G1 X135.374 Y103.673 E0.00836
G1 X135.546 Y103.877 E0.00836
G1 X135.687 Y104.103 E0.00836
G1 X135.795 Y104.347 E0.00836
G1 X135.869 Y104.603 E0.00836
G1 X135.906 Y104.867 E0.00836
G1 X135.906 Y105.133 E0.00836
G1 X135.869 Y105.397 E0.00836
G1 X135.795 Y105.653 E0.00836
G1 X135.687 Y105.897 E0.00836
G1 X135.546 Y106.123 E0.00836
G1 X135.373 Y106.328 E0.00840
G1 X135.153 Y106.521 E0.00920
G1 X134.955 Y106.655 E0.00746
G1 X134.716 Y106.771 E0.00836
G1 X134.462 Y106.854 E0.00836
G1 X134.200 Y106.900 E0.00836
G1 X133.933 Y106.909 E0.00836
G1 X133.668 Y106.881 E0.00836
G1 X133.410 Y106.817 E0.00836
G1 X133.161 Y106.717 E0.00840
G1 X132.909 Y106.566 E0.00920
G1 X132.722 Y106.420 E0.00746
G1 X132.536 Y106.228 E0.00836
G1 X132.379 Y106.011 E0.00840
G1 X132.245 Y105.750 E0.00920
G1 X132.163 Y105.527 E0.00746
G1 X132.108 Y105.266 E0.00836
G1 X132.090 Y104.987 E0.00876
G1 X131.928 Y104.829 F10800.000
G1 F8640
G1 X132.108 Y104.734 E-0.05853
G1 X132.163 Y104.473 E-0.06155
G1 X132.255 Y104.223 E-0.06155
G1 X132.380 Y103.988 E-0.06155
G1 X132.536 Y103.772 E-0.06154
G1 X132.722 Y103.580 E-0.06154
G1 X132.932 Y103.416 E-0.06155
G1 X133.162 Y103.283 E-0.06155
G1 X133.411 Y103.182 E-0.06189
G1 X133.697 Y103.116 E-0.06772
G1 X133.933 Y103.091 E-0.05497
G1 X134.200 Y103.100 E-0.06155
G1 X134.304 Y103.118 E-0.02453
G1 E-0.04000 F2100.00000
G1 Z0.800 F10800.000
G1 X132.090 Y101.587
G1 Z0.200
G1 E0.80000 F2100.00000
G1 F1800
G1 X134.985 Y101.587 E0.09075
G1 X135.238 Y101.600 E0.00795
G1 X135.503 Y101.641 E0.00841
G1 X135.745 Y101.706 E0.00787
G1 X135.981 Y101.796 E0.00792
G1 X136.206 Y101.911 E0.00792
G1 X136.418 Y102.049 E0.00792
G1 X136.614 Y102.207 E0.00792
G1 X136.793 Y102.386 E0.00792
G1 X136.951 Y102.582 E0.00792
G1 X137.089 Y102.794 E0.00792
G1 X137.204 Y103.019 E0.00792
G1 X137.289 Y103.241 E0.00747
G1 X137.360 Y103.500 E0.00841
G1 X137.399 Y103.748 E0.00787
G1 X137.413 Y104.015 E0.00840
G1 X137.399 Y106.252 E0.07013
G1 X137.359 Y106.502 E0.00792
G1 X137.298 Y106.732 E0.00747
G1 X137.203 Y106.982 E0.00841
G1 X137.089 Y107.206 E0.00787
G1 X136.951 Y107.418 E0.00792
G1 X136.793 Y107.614 E0.00792
G1 X136.614 Y107.793 E0.00792
G1 X136.418 Y107.951 E0.00792
G1 X136.206 Y108.089 E0.00792
G1 X135.981 Y108.204 E0.00792
G1 X135.759 Y108.289 E0.00747
G1 X135.500 Y108.360 E0.00841
G1 X135.252 Y108.399 E0.00787
G1 X134.985 Y108.413 E0.00840
G1 X115.015 Y108.413 E0.62612
G1 X114.748 Y108.399 E0.00840
G1 X114.498 Y108.359 E0.00792
G1 X114.255 Y108.294 E0.00792
G1 X114.019 Y108.204 E0.00792
G1 X113.794 Y108.089 E0.00792
G1 X113.582 Y107.951 E0.00792
G1 X113.386 Y107.793 E0.00792
G1 X113.207 Y107.614 E0.00792
G1 X113.049 Y107.418 E0.00792
G1 X112.911 Y107.206 E0.00792
G1 X112.796 Y106.981 E0.00792
G1 X112.706 Y106.745 E0.00792
G1 X112.641 Y106.502 E0.00792
G1 X112.601 Y106.252 E0.00792
G1 X112.587 Y105.985 E0.00840
G1 X112.587 Y104.015 E0.06174
G1 X112.601 Y103.748 E0.00840
G1 X112.641 Y103.498 E0.00792
G1 X112.706 Y103.255 E0.00792
G1 X112.796 Y103.019 E0.00792
G1 X112.911 Y102.794 E0.00792
G1 X113.049 Y102.582 E0.00792
G1 X113.207 Y102.386 E0.00792
G1 X113.386 Y102.207 E0.00792
G1 X113.582 Y102.049 E0.00792
G1 X113.794 Y101.911 E0.00792
G1 X114.019 Y101.796 E0.00792
G1 X114.255 Y101.706 E0.00792
G1 X114.498 Y101.641 E0.00792
G1 X114.748 Y101.601 E0.00792
G1 X115.015 Y101.587 E0.00840
G1 X132.030 Y101.587 E0.53349
G1 X132.030 Y101.210 F10800.000
G1 F1800
G1 X134.995 Y101.210 E0.09294
G1 X135.276 Y101.225 E0.00885
G1 X135.581 Y101.271 E0.00965
G1 X135.862 Y101.347 E0.00914
G1 X136.135 Y101.451 E0.00916
G1 X136.395 Y101.584 E0.00916
G1 X136.640 Y101.743 E0.00916
G1 X136.867 Y101.927 E0.00916
G1 X137.073 Y102.133 E0.00916
G1 X137.257 Y102.360 E0.00916
G1 X137.416 Y102.605 E0.00916
G1 X137.549 Y102.865 E0.00916
G1 X137.648 Y103.124 E0.00868
G1 X137.729 Y103.421 E0.00965
G1 X137.774 Y103.708 E0.00914
G1 X137.790 Y104.005 E0.00933
G1 X137.790 Y105.995 E0.06236
G1 X137.774 Y106.292 E0.00933
G1 X137.729 Y106.580 E0.00916
G1 X137.657 Y106.847 E0.00868
G1 X137.548 Y107.135 E0.00965
G1 X137.416 Y107.395 E0.00914
G1 X137.257 Y107.640 E0.00916
G1 X137.073 Y107.867 E0.00916
G1 X136.867 Y108.073 E0.00916
G1 X136.640 Y108.257 E0.00916
G1 X136.395 Y108.416 E0.00916
G1 X136.135 Y108.549 E0.00916
G1 X135.876 Y108.648 E0.00868
G1 X135.579 Y108.729 E0.00965
G1 X135.292 Y108.774 E0.00914
G1 X134.995 Y108.790 E0.00933
G1 X115.005 Y108.790 E0.62674
G1 X114.708 Y108.774 E0.00933
G1 X114.420 Y108.729 E0.00916
G1 X114.138 Y108.653 E0.00916
G1 X113.865 Y108.549 E0.00916
G1 X113.605 Y108.416 E0.00916
G1 X113.360 Y108.257 E0.00916
G1 X113.133 Y108.073 E0.00916
G1 X112.927 Y107.867 E0.00916
G1 X112.743 Y107.640 E0.00916
G1 X112.584 Y107.395 E0.00916
G1 X112.451 Y107.135 E0.00916
G1 X112.347 Y106.862 E0.00916
G1 X112.271 Y106.580 E0.00916
G1 X112.226 Y106.292 E0.00916
G1 X112.210 Y105.995 E0.00933
G1 X112.210 Y104.005 E0.06236
G1 X112.226 Y103.708 E0.00933
G1 X112.271 Y103.420 E0.00916
G1 X112.347 Y103.138 E0.00916
G1 X112.451 Y102.865 E0.00916
G1 X112.584 Y102.605 E0.00916
G1 X112.743 Y102.360 E0.00916
G1 X112.927 Y102.133 E0.00916
G1 X113.133 Y101.927 E0.00916
G1 X113.360 Y101.743 E0.00916
G1 X113.605 Y101.584 E0.00916
G1 X113.865 Y101.451 E0.00916
G1 X114.138 Y101.347 E0.00916
G1 X114.420 Y101.271 E0.00916
G1 X114.708 Y101.226 E0.00916
G1 X115.005 Y101.210 E0.00933
G1 X131.970 Y101.210 E0.53192
G1 X132.231 Y101.556 F10800.000
G1 F8640
G1 X134.995 Y101.210 E-0.69827
G1 X135.261 Y101.224 E-0.06173
G1 E-0.04000 F2100.00000
G1 Z0.800 F10800.000
G1 X135.884 Y101.880
G1 Z0.200
G1 E0.80000 F2100.00000
G1 F1800
G1 X137.120 Y103.116 E0.05532
G1 X137.290 Y103.824 F10800.000
G1 F1800
G1 X135.372 Y101.907 E0.08587
G1 X135.209 Y101.882 E0.00523
G1 X134.797 Y101.870 E0.01307
G1 X137.129 Y104.202 E0.10446
G1 X137.126 Y104.738 E0.01695
G1 X136.343 Y103.955 E0.03503
G1 X136.417 Y104.120 E0.00572
G1 X136.516 Y104.465 E0.01136
G1 X136.549 Y104.699 E0.00748
G1 X137.122 Y105.273 E0.02569
G1 X137.119 Y105.808 E0.01695
G1 X136.556 Y105.246 E0.02519
G1 X136.516 Y105.535 E0.00925
G1 X136.469 Y105.697 E0.00535
G1 X137.101 Y106.328 E0.02827
G1 X137.028 Y106.645 E0.01028
G1 X136.987 Y106.754 E0.00368
G1 X136.323 Y106.090 E0.02973
G1 X136.129 Y106.434 E0.01252
G1 X136.811 Y107.116 E0.03051
G1 X136.582 Y107.425 E0.01220
G1 X135.893 Y106.736 E0.03086
G1 X135.613 Y106.995 E0.01207
G1 X136.300 Y107.683 E0.03078
G1 X135.971 Y107.892 E0.01236
G1 X135.298 Y107.219 E0.03011
G1 X134.935 Y107.394 E0.01278
G1 X135.584 Y108.044 E0.02909
G1 X135.223 Y108.117 E0.01168
G1 X135.124 Y108.122 E0.00311
G1 X134.516 Y107.514 E0.02724
G1 X134.269 Y107.558 E0.00795
G1 X134.030 Y107.566 E0.00758
G1 X134.593 Y108.130 E0.02525
G1 X134.055 Y108.130 E0.01706
G1 X133.176 Y107.251 E0.03936
G1 F8640
G1 X134.055 Y108.130 E-0.28698
G1 X134.593 Y108.130 E-0.12437
G1 X134.030 Y107.566 E-0.18413
G1 X134.269 Y107.558 E-0.05528
G1 X134.516 Y107.514 E-0.05800
G1 X134.673 Y107.671 E-0.05124
G1 E-0.04000 F2100.00000
G1 Z0.800 F10800.000
G1 X135.645 Y103.257
G1 Z0.200
G1 E0.80000 F2100.00000
G1 F1800
G1 X134.258 Y101.870 E0.06214
G1 X133.719 Y101.870 E0.01706
G1 X134.296 Y102.447 E0.02585
G1 X133.910 Y102.430 E0.01224
G1 X133.757 Y102.446 E0.00489
G1 X133.181 Y101.870 E0.02579
G1 X132.642 Y101.870 E0.01706
G1 X133.302 Y102.530 E0.02957
G1 X132.908 Y102.674 E0.01330
G1 X132.103 Y101.870 E0.03602
G1 X131.565 Y101.870 E0.01706
G1 X132.562 Y102.867 E0.04467
G1 X132.262 Y103.106 E0.01214
G1 X131.026 Y101.870 E0.05536
G1 X130.488 Y101.870 E0.01706
G1 X132.002 Y103.385 E0.06784
G1 X131.783 Y103.704 E0.01227
G1 X129.949 Y101.870 E0.08215
G1 X129.410 Y101.870 E0.01706
G1 X131.609 Y104.068 E0.09845
G1 X131.528 Y104.291 E0.00751
G1 X131.487 Y104.485 E0.00627
G1 X128.872 Y101.870 E0.11710
G1 X128.333 Y101.870 E0.01706
G1 X131.430 Y104.967 E0.13871
G1 X131.453 Y105.358 E0.01240
G1 X131.499 Y105.574 E0.00701
G1 X127.795 Y101.870 E0.16591
G1 X127.256 Y101.870 E0.01706
G1 X133.516 Y108.130 E0.28037
G1 X132.978 Y108.130 E0.01706
G1 X126.717 Y101.870 E0.28037
G1 X126.179 Y101.870 E0.01706
G1 X132.439 Y108.130 E0.28037
G1 X131.900 Y108.130 E0.01706
G1 X125.640 Y101.870 E0.28037
G1 X125.102 Y101.870 E0.01706
G1 X131.362 Y108.130 E0.28037
G1 X130.823 Y108.130 E0.01706
