( Made using CamBam - http://www.cambam.co.uk )
( Firobehiesle 10/24/2015 4:39:20 PM )
( T3 : 3.0 )
G21 G90 G64 G40
G0 Z3.0
( T3 : 3.0 )
T3 M6
( Tasche1 )
G17
M3 S1000
G0 X60.3969 Y173.608
G0 Z1.0
G1 F300.0 Z-4.0
G2 F1000.0 X60.3177 Y173.6405 I-0.0013 J0.1098
G3 X60.2468 Y173.7093 I-1.9162 J-1.9022
G3 Y173.7712 I-2.6998 J0.031
G3 X60.3177 Y173.84 I-1.8453 J1.971
G2 X60.3969 Y173.8724 I0.0779 J-0.0773
G3 X60.4694 Y173.8726 I0.031 J2.6998
G2 X60.4902 Y173.864 I0.0004 J-0.0283
G3 X60.5845 Y173.7712 I1.9397 J1.8782
G3 Y173.7093 I2.6998 J-0.031
G3 X60.4901 Y173.6165 I1.8453 J-1.971
G2 X60.4694 Y173.6079 I-0.0203 J0.0197
G3 X60.3969 Y173.608 I-0.0415 J-2.6997
G1 F300.0 X60.4106 Y172.4081
G2 F1000.0 X59.466 Y172.795 I-0.015 J1.3097
G3 X59.4249 Y172.835 I-1.0645 J-1.0568
G2 X59.0469 Y173.7205 I0.8117 J0.8699
G3 Y173.7599 I-1.4999 J0.0197
G2 X59.4249 Y174.6455 I1.1898 J0.0156
G3 X59.466 Y174.6854 I-1.0234 J1.0967
G2 X60.4106 Y175.0724 I0.9295 J-0.9228
G3 X60.4509 I0.0172 J1.4999
G2 X61.3522 Y174.6987 I0.0189 J-1.2282
G3 X61.4065 Y174.6455 I1.0776 J1.0435
G2 X61.7844 Y173.7599 I-0.8117 J-0.8699
G3 Y173.7205 I1.4999 J-0.0197
G2 X61.4065 Y172.835 I-1.1898 J-0.0156
G3 X61.3522 Y172.7817 I1.0234 J-1.0967
G2 X60.4509 Y172.408 I-0.8824 J0.8544
G3 X60.4106 Y172.4081 I-0.0231 J-1.4998
G1 F300.0 X60.3969 Y173.608
G1 Z-8.0
G2 F1000.0 X60.3177 Y173.6405 I-0.0013 J0.1098
G3 X60.2468 Y173.7093 I-1.9162 J-1.9022
G3 Y173.7712 I-2.6998 J0.031
G3 X60.3177 Y173.84 I-1.8453 J1.971
G2 X60.3969 Y173.8724 I0.0779 J-0.0773
G3 X60.4694 Y173.8726 I0.031 J2.6998
G2 X60.4902 Y173.864 I0.0004 J-0.0283
G3 X60.5845 Y173.7712 I1.9397 J1.8782
G3 Y173.7093 I2.6998 J-0.031
G3 X60.4901 Y173.6165 I1.8453 J-1.971
G2 X60.4694 Y173.6079 I-0.0203 J0.0197
G3 X60.3969 Y173.608 I-0.0415 J-2.6997
G1 F300.0 X60.4106 Y172.4081
G2 F1000.0 X59.466 Y172.795 I-0.015 J1.3097
G3 X59.4249 Y172.835 I-1.0645 J-1.0568
G2 X59.0469 Y173.7205 I0.8117 J0.8699
G3 Y173.7599 I-1.4999 J0.0197
G2 X59.4249 Y174.6455 I1.1898 J0.0156
G3 X59.466 Y174.6854 I-1.0234 J1.0967
G2 X60.4106 Y175.0724 I0.9295 J-0.9228
G3 X60.4509 I0.0172 J1.4999
G2 X61.3522 Y174.6987 I0.0189 J-1.2282
G3 X61.4065 Y174.6455 I1.0776 J1.0435
G2 X61.7844 Y173.7599 I-0.8117 J-0.8699
G3 Y173.7205 I1.4999 J-0.0197
G2 X61.4065 Y172.835 I-1.1898 J-0.0156
G3 X61.3522 Y172.7817 I1.0234 J-1.0967
G2 X60.4509 Y172.408 I-0.8824 J0.8544
G3 X60.4106 Y172.4081 I-0.0231 J-1.4998
G0 Z3.0
G0 X59.7179 Y162.9011
G0 Z1.0
G1 F300.0 Z-4.0
G2 F1000.0 X59.8276 Y162.8504 I-0.0125 J-0.1711
G2 X59.9164 Y162.6176 I-0.2276 J-0.2202
G3 X59.9149 Y162.5528 I2.0983 J-0.0834
G2 X59.6768 Y156.9572 I-83.2479 J0.7393
G3 X59.4266 Y151.1023 I85.9953 J-6.6075
G3 X59.4265 Y151.0716 I2.0999 J-0.0183
G3 X59.5005 Y146.6318 I206.0931 J1.2144
G3 X59.5012 Y146.6122 I2.0992 J0.0576
G2 X59.5975 Y142.3028 I-148.869 J-5.4824
G3 X59.5989 Y142.2411 I2.0999 J0.0165
G2 X59.5269 Y142.0215 I-0.3329 J-0.0124
G2 X59.3903 Y141.9762 I-0.1283 J0.1582
G3 X59.2381 Y141.9769 I-0.0854 J-2.0983
G2 X59.0774 Y142.0285 I-0.008 J0.2511
G2 X59.0108 Y142.2411 I0.2664 J0.2001
G3 X59.0122 Y142.3354 I-2.0985 J0.0783
G3 X58.9135 Y146.7572 I-150.744 J-1.1515
G2 X58.8414 Y151.0808 I200.2346 J5.5024
G2 X59.0793 Y156.6362 I82.2641 J-0.7404
G3 X59.0794 Y156.6371 I-2.0938 J0.1607
G3 X59.3295 Y162.5155 I-87.2322 J6.6565
G3 X59.3279 Y162.6201 I-2.0999 J0.0187
G2 X59.3983 Y162.8521 I0.3677 J0.0151
G2 X59.5555 Y162.9011 I0.1492 J-0.2022
G3 X59.6991 Y162.9014 I0.0667 J2.0989
G2 X59.7179 Y162.9011 I0.0063 J-0.1715
G1 F300.0 X59.7615 Y163.4995
G2 F1000.0 X60.2572 Y163.2693 I-0.0561 J-0.7696
G2 X60.516 Y162.5938 I-0.6572 J-0.6391
G3 X60.5148 Y162.5475 I1.4988 J-0.0596
G2 X60.275 Y156.9114 I-83.8479 J0.7447
G3 X60.0266 Y151.0971 I85.3971 J-6.5617
G3 X60.0265 Y151.0751 I1.4999 J-0.0131
G3 X60.1003 Y146.6483 I205.4931 J1.2108
G3 X60.1008 Y146.6342 I1.4994 J0.0412
G2 X60.1975 Y142.3075 I-149.4685 J-5.5045
G3 X60.1984 Y142.2634 I1.5 J0.0118
G2 X59.9581 Y141.6028 I-0.9325 J-0.0348
G2 X59.3659 Y141.3767 I-0.5596 J0.5769
G3 X59.2571 Y141.3772 I-0.061 J-1.4988
G2 X58.6471 Y141.6077 I-0.0271 J0.8508
G2 X58.4112 Y142.2634 I0.6966 J0.6209
G3 X58.4122 Y142.3308 I-1.499 J0.0559
G3 X58.3138 Y146.7378 I-150.144 J-1.147
G2 X58.2414 Y151.0817 I200.8343 J5.5217
G2 X58.4811 Y156.6821 I82.8641 J-0.7414
G3 Y156.6827 I-1.4956 J0.1148
G3 X58.7296 Y162.5208 I-86.634 J6.6109
G3 X58.7284 Y162.5956 I-1.4999 J0.0133
G2 X58.9673 Y163.2728 I0.9671 J0.0396
G2 X59.5746 Y163.5008 I0.5803 J-0.6229
G3 X59.6771 Y163.501 I0.0476 J1.4992
G2 X59.7615 Y163.4995 I0.0283 J-0.7711
G1 F300.0 X59.7179 Y162.9011
G1 Z-8.0
G2 F1000.0 X59.8276 Y162.8504 I-0.0125 J-0.1711
G2 X59.9164 Y162.6176 I-0.2276 J-0.2202
G3 X59.9149 Y162.5528 I2.0983 J-0.0834
G2 X59.6768 Y156.9572 I-83.2479 J0.7393
G3 X59.4266 Y151.1023 I85.9953 J-6.6075
G3 X59.4265 Y151.0716 I2.0999 J-0.0183
G3 X59.5005 Y146.6318 I206.0931 J1.2144
G3 X59.5012 Y146.6122 I2.0992 J0.0576
G2 X59.5975 Y142.3028 I-148.869 J-5.4824
G3 X59.5989 Y142.2411 I2.0999 J0.0165
G2 X59.5269 Y142.0215 I-0.3329 J-0.0124
G2 X59.3903 Y141.9762 I-0.1283 J0.1582
G3 X59.2381 Y141.9769 I-0.0854 J-2.0983
G2 X59.0774 Y142.0285 I-0.008 J0.2511
G2 X59.0108 Y142.2411 I0.2664 J0.2001
G3 X59.0122 Y142.3354 I-2.0985 J0.0783
G3 X58.9135 Y146.7572 I-150.744 J-1.1515
G2 X58.8414 Y151.0808 I200.2346 J5.5024
G2 X59.0793 Y156.6362 I82.2641 J-0.7404
G3 X59.0794 Y156.6371 I-2.0938 J0.1607
G3 X59.3295 Y162.5155 I-87.2322 J6.6565
G3 X59.3279 Y162.6201 I-2.0999 J0.0187
G2 X59.3983 Y162.8521 I0.3677 J0.0151
G2 X59.5555 Y162.9011 I0.1492 J-0.2022
G3 X59.6991 Y162.9014 I0.0667 J2.0989
G2 X59.7179 Y162.9011 I0.0063 J-0.1715
G1 F300.0 X59.7615 Y163.4995
G2 F1000.0 X60.2572 Y163.2693 I-0.0561 J-0.7696
G2 X60.516 Y162.5938 I-0.6572 J-0.6391
G3 X60.5148 Y162.5475 I1.4988 J-0.0596
G2 X60.275 Y156.9114 I-83.8479 J0.7447
G3 X60.0266 Y151.0971 I85.3971 J-6.5617
G3 X60.0265 Y151.0751 I1.4999 J-0.0131
G3 X60.1003 Y146.6483 I205.4931 J1.2108
G3 X60.1008 Y146.6342 I1.4994 J0.0412
G2 X60.1975 Y142.3075 I-149.4685 J-5.5045
G3 X60.1984 Y142.2634 I1.5 J0.0118
G2 X59.9581 Y141.6028 I-0.9325 J-0.0348
G2 X59.3659 Y141.3767 I-0.5596 J0.5769
G3 X59.2571 Y141.3772 I-0.061 J-1.4988
G2 X58.6471 Y141.6077 I-0.0271 J0.8508
G2 X58.4112 Y142.2634 I0.6966 J0.6209
G3 X58.4122 Y142.3308 I-1.499 J0.0559
G3 X58.3138 Y146.7378 I-150.144 J-1.147
G2 X58.2414 Y151.0817 I200.8343 J5.5217
G2 X58.4811 Y156.6821 I82.8641 J-0.7414
G3 Y156.6827 I-1.4956 J0.1148
G3 X58.7296 Y162.5208 I-86.634 J6.6109
G3 X58.7284 Y162.5956 I-1.4999 J0.0133
G2 X58.9673 Y163.2728 I0.9671 J0.0396
G2 X59.5746 Y163.5008 I0.5803 J-0.6229
G3 X59.6771 Y163.501 I0.0476 J1.4992
G2 X59.7615 Y163.4995 I0.0283 J-0.7711
G0 Z3.0
G0 X72.406 Y156.994
G0 Z1.0
G1 F300.0 Z-4.0
G3 F1000.0 X73.458 Y156.3873 I1.8403 J1.9757
G2 X72.6764 Y155.4534 I-10.0974 J7.6569
G3 X72.5229 Y155.2715 I1.9849 J-1.8304
G3 X72.406 Y156.994 I-50.4694 J-2.5611
G0 Z3.0
G0 X85.5993 Y158.6757
G0 Z1.0
G1 F300.0 Z-4.0
G3 F1000.0 X85.5183 Y159.3263 I-16.2074 J-1.6867
G3 X85.321 Y160.342 I-9.2466 J-1.2691
G3 X86.4384 Y159.4954 I2.1332 J1.6551
G3 X85.6915 Y158.778 I7.4101 J-8.4619
G3 X85.5993 Y158.6757 I1.9581 J-1.859
G1 F300.0 X84.4057 Y158.5515
G3 F1000.0 X84.3301 Y159.1587 I-15.0138 J-1.5624
G3 X83.6068 Y161.5709 I-8.0583 J-1.1016
G3 X81.5924 Y162.269 I-1.3528 J-0.648
G3 X77.7035 Y159.4208 I6.0966 J-12.4032
G3 X77.6689 Y159.3835 I1.0838 J-1.037
G1 X74.7881 Y156.1608
G3 X74.6822 Y156.0279 I1.1183 J-0.9997
G2 X73.5586 Y154.6399 I-11.3216 J8.0163
G3 X73.1616 Y153.6548 I1.1027 J-1.0169
G2 X72.9007 Y149.4561 I-51.4471 J1.0897
G3 X72.6246 Y145.1138 I54.4662 J-5.643
G3 X72.625 Y145.0291 I1.4996 J-0.0356
G3 X72.8683 Y142.7576 I15.4313 J0.5046
G3 X72.8745 Y142.7261 I1.4756 J0.2697
G2 X73.0882 Y141.0795 I-11.1284 J-2.2816
G2 X72.8518 Y140.5746 I-0.6811 J0.0111
G3 X72.7926 Y140.5207 I0.9793 J-1.1362
G2 X72.1181 Y140.2547 I-0.6616 J0.6894
G3 X72.0801 Y140.2548 I-0.0203 J-1.4999
G2 X71.6563 Y140.4802 I-0.0059 J0.5
G3 X71.6414 Y140.5024 I-1.2536 J-0.8237
G2 X71.2516 Y141.3301 I2.3846 J1.6286
G3 X71.2506 Y141.3334 I-1.4412 J-0.416
G2 X70.9248 Y143.0826 I8.6336 J2.5133
G3 X70.9239 Y143.093 I-1.4946 J-0.1275
G2 X70.8389 Y145.0103 I20.0051 J1.8465
G2 X71.0999 Y149.2477 I53.2913 J-1.1547
G3 X71.3758 Y153.7374 I-55.9956 J5.6944
G3 X71.3757 Y153.8027 I-1.4997 J0.0321
G3 X71.1248 Y157.7984 I-49.3222 J-1.0923
G2 X70.912 Y161.5857 I51.3933 J4.7871
G2 X71.1836 Y164.4426 I12.7473 J0.2296
G3 X71.184 Y164.4445 I-1.4678 J0.3091
G2 X71.6195 Y165.4681 I2.7953 J-0.5849
G2 X71.8726 Y165.5998 I0.2548 J-0.1805
G2 X72.4923 Y165.2989 I-0.0317 J-0.8538
G3 X72.6075 Y165.1776 I1.1436 J0.9706
G2 X72.9406 Y164.4614 I-0.73 J-0.7751
G2 X72.8335 Y163.2274 I-12.2629 J0.4426
G3 X72.8334 Y163.2266 I1.4859 J-0.2049
G3 X72.698 Y161.5738 I15.0225 J-2.0633
G3 X72.6977 Y161.5046 I1.4995 J-0.0406
G1 X72.7465 Y158.9412
G3 X75.5887 Y158.3007 I1.4997 J0.0286
G2 X78.9393 Y162.5272 I11.6903 J-5.8261
G3 X78.9727 Y162.5557 I-0.9577 J1.1544
G2 X80.6746 Y163.7928 I7.4622 J-8.4767
G3 X80.7083 Y163.8134 I-0.7651 J1.2902
G2 X82.2462 Y164.307 I1.7312 J-2.7518
G2 X84.5713 Y163.6118 I0.1088 J-3.8722
G2 X86.0342 Y161.5137 I-2.9056 J-3.585
G3 X88.6641 Y161.1104 I1.42 J0.4833
G2 X91.2962 Y163.3033 I5.7252 J-4.1957
G2 X94.8731 Y164.0618 I3.4283 J-7.3543
G3 X94.9507 Y164.0624 I0.0275 J1.4997
G2 X97.499 Y163.2053 I0.1283 J-3.8356
G2 X98.3892 Y162.1345 I-2.8471 J-3.2724
G3 X98.3902 Y162.1329 I1.2924 J0.7613
G2 X99.0259 Y160.7466 I-6.3452 J-3.7487
G2 X99.3098 Y159.2626 I-13.5665 J-3.3645
G3 X99.3118 Y159.2482 I1.4864 J0.2018
G2 X99.9777 Y154.1353 I-169.4645 J-24.672
G3 X99.9856 Y154.0769 I1.4902 J0.1713
G2 X100.9311 Y147.1456 I-190.0113 J-29.4493
G3 X100.9316 Y147.1417 I1.4897 J0.1757
G2 X101.7328 Y140.1705 I-625.0225 J-75.3729
G2 X101.5752 Y139.7829 I-0.4676 J-0.0356
G3 X101.5385 Y139.7495 I0.9914 J-1.1257
G2 X100.8182 Y139.4732 I-0.6973 J0.7408
G3 X100.7046 Y139.4715 I-0.0339 J-1.4996
G2 X100.204 Y139.6223 I-0.041 J0.7702
G2 X99.9314 Y140.263 I0.9303 J0.7741
G3 X99.9241 Y140.3192 I-1.4909 J-0.1653
G2 X99.0565 Y147.7904 I114.069 J17.0327
G3 X99.0527 Y147.8296 I-1.4948 J-0.1244
G1 X98.2226 Y155.3979
G3 X98.216 Y155.4497 I-1.4911 J-0.1635
G3 X97.3115 Y159.0419 I-17.8946 J-2.5958
G3 X96.5518 Y160.6301 I-8.3565 J-3.0218
G3 X96.5487 Y160.6352 I-1.2824 J-0.7782
G3 X95.8129 Y161.5304 I-3.578 J-2.1908
G3 X94.1501 Y162.2265 I-1.7571 J-1.8632
G3 X93.991 Y162.2239 I-0.0552 J-1.499
G3 X92.593 Y161.8845 I0.2963 J-4.2688
G3 X92.5921 Y161.8841 I0.5939 J-1.3774
G3 X89.9323 Y160.4627 I7.213 J-16.6965
G3 X88.2732 Y159.3926 I15.7202 J-26.1947
G3 X86.5617 Y157.9517 I5.5753 J-8.3591
G3 X86.1496 Y156.9349 I1.0878 J-1.0328
G3 X86.2747 Y152.2334 I63.1873 J-0.6719
G3 X86.281 Y152.1616 I1.4969 J0.0957
G1 X87.0134 Y145.6431
G3 X87.0165 Y145.6173 I1.4906 J0.1675
G2 X87.4681 Y139.4142 I-54.6115 J-7.0935
G3 X87.4689 Y139.3847 I1.4998 J0.0243
G2 X87.2155 Y138.7331 I-0.8829 J-0.0317
G3 X87.1873 Y138.7037 I1.0688 J-1.0524
G2 X86.6275 Y138.4717 I-0.5344 J0.4984
G3 X86.5305 Y138.472 I-0.0521 J-1.4991
G2 X85.929 Y138.7143 I-0.0242 J0.8077
G2 X85.6817 Y139.3826 I0.6852 J0.6335
G3 X85.6827 Y139.4544 I-1.499 J0.0559
G3 X85.473 Y143.9248 I-61.7736 J-0.6572
G3 X85.0642 Y148.3109 I-157.0989 J-12.4298
G2 X84.6791 Y152.6312 I161.2127 J16.5484
G3 X84.6786 Y152.6373 I-1.4957 J-0.1132
G2 X84.4865 Y156.8975 I61.5231 J4.9085
G3 X84.4057 Y158.5515 I-15.0946 J0.0916
G1 F300.0 X85.5993 Y158.6757
G1 Z-8.0
G3 F1000.0 X85.5183 Y159.3263 I-16.2074 J-1.6867
G3 X85.321 Y160.342 I-9.2466 J-1.2691
G3 X86.4384 Y159.4954 I2.1332 J1.6551
G3 X85.6915 Y158.778 I7.4101 J-8.4619
G3 X85.5993 Y158.6757 I1.9581 J-1.859
G0 Z3.0
G0 X73.458 Y156.3873
G0 Z-3.0
G1 F300.0 Z-8.0
G2 F1000.0 X72.6764 Y155.4534 I-10.0974 J7.6569
G3 X72.5229 Y155.2715 I1.9849 J-1.8304
G3 X72.406 Y156.994 I-50.4694 J-2.5611
G3 X73.458 Y156.3873 I1.8403 J1.9757
G1 F300.0 X74.4142 Y155.6623
G2 F1000.0 X73.5586 Y154.6399 I-11.0536 J8.382
G3 X73.1616 Y153.6548 I1.1027 J-1.0169
G2 X72.9007 Y149.4561 I-51.4471 J1.0897
G3 X72.6246 Y145.1138 I54.4662 J-5.643
G3 X72.625 Y145.0291 I1.4996 J-0.0356
G3 X72.8683 Y142.7576 I15.4313 J0.5046
G3 X72.8745 Y142.7261 I1.4756 J0.2697
G2 X73.0882 Y141.0795 I-11.1284 J-2.2816
G2 X72.8518 Y140.5746 I-0.6811 J0.0111
G3 X72.7926 Y140.5207 I0.9793 J-1.1362
G2 X72.1181 Y140.2547 I-0.6616 J0.6894
G3 X72.0801 Y140.2548 I-0.0203 J-1.4999
G2 X71.6563 Y140.4802 I-0.0059 J0.5
G3 X71.6414 Y140.5024 I-1.2536 J-0.8237
G2 X71.2516 Y141.3301 I2.3846 J1.6286
G3 X71.2506 Y141.3334 I-1.4412 J-0.416
G2 X70.9248 Y143.0826 I8.6336 J2.5133
G3 X70.9239 Y143.093 I-1.4946 J-0.1275
G2 X70.8389 Y145.0103 I20.0051 J1.8465
G2 X71.0999 Y149.2477 I53.2913 J-1.1547
G3 X71.3758 Y153.7374 I-55.9956 J5.6944
G3 X71.3757 Y153.8027 I-1.4997 J0.0321
G3 X71.1248 Y157.7984 I-49.3222 J-1.0923
G2 X70.912 Y161.5857 I51.3933 J4.7871
G2 X71.1836 Y164.4426 I12.7473 J0.2296
G3 X71.184 Y164.4445 I-1.4678 J0.3091
G2 X71.6195 Y165.4681 I2.7953 J-0.5849
G2 X71.8726 Y165.5998 I0.2548 J-0.1805
G2 X72.4923 Y165.2989 I-0.0317 J-0.8538
G3 X72.6075 Y165.1776 I1.1436 J0.9706
G2 X72.9406 Y164.4614 I-0.73 J-0.7751
G2 X72.8335 Y163.2274 I-12.2629 J0.4426
G3 X72.8334 Y163.2266 I1.4859 J-0.2049
G3 X72.698 Y161.5738 I15.0225 J-2.0633
G3 X72.6977 Y161.5046 I1.4995 J-0.0406
G1 X72.7465 Y158.9412
G3 X75.5887 Y158.3007 I1.4997 J0.0286
G2 X78.9393 Y162.5272 I11.6903 J-5.8261
G3 X78.9727 Y162.5557 I-0.9577 J1.1544
G2 X80.6746 Y163.7928 I7.4622 J-8.4767
G3 X80.7083 Y163.8134 I-0.7651 J1.2902
G2 X82.2462 Y164.307 I1.7312 J-2.7518
G2 X84.5713 Y163.6118 I0.1088 J-3.8722
G2 X86.0342 Y161.5137 I-2.9056 J-3.585
G3 X88.6641 Y161.1104 I1.42 J0.4833
G2 X91.2962 Y163.3033 I5.7252 J-4.1957
G2 X94.8731 Y164.0618 I3.4283 J-7.3543
G3 X94.9507 Y164.0624 I0.0275 J1.4997
G2 X97.499 Y163.2053 I0.1283 J-3.8356
G2 X98.3892 Y162.1345 I-2.8471 J-3.2724
G3 X98.3902 Y162.1329 I1.2924 J0.7613
G2 X99.0259 Y160.7466 I-6.3452 J-3.7487
G2 X99.3098 Y159.2626 I-13.5665 J-3.3645
G3 X99.3118 Y159.2482 I1.4864 J0.2018
G2 X99.9777 Y154.1353 I-169.4645 J-24.672
G3 X99.9856 Y154.0769 I1.4902 J0.1713
G2 X100.9311 Y147.1456 I-190.0113 J-29.4493
G3 X100.9316 Y147.1417 I1.4897 J0.1757
G2 X101.7328 Y140.1705 I-625.0225 J-75.3729
G2 X101.5752 Y139.7829 I-0.4676 J-0.0356
G3 X101.5385 Y139.7495 I0.9914 J-1.1257
G2 X100.8182 Y139.4732 I-0.6973 J0.7408
G3 X100.7046 Y139.4715 I-0.0339 J-1.4996
G2 X100.204 Y139.6223 I-0.041 J0.7702
G2 X99.9314 Y140.263 I0.9303 J0.7741
G3 X99.9241 Y140.3192 I-1.4909 J-0.1653
G2 X99.0565 Y147.7904 I114.069 J17.0327
G3 X99.0527 Y147.8296 I-1.4948 J-0.1244
G1 X98.2226 Y155.3979
G3 X98.216 Y155.4497 I-1.4911 J-0.1635
G3 X97.3115 Y159.0419 I-17.8946 J-2.5958
G3 X96.5518 Y160.6301 I-8.3565 J-3.0218
G3 X96.5487 Y160.6352 I-1.2824 J-0.7782
G3 X95.8129 Y161.5304 I-3.578 J-2.1908
G3 X94.1501 Y162.2265 I-1.7571 J-1.8632
G3 X93.991 Y162.2239 I-0.0552 J-1.499
G3 X92.593 Y161.8845 I0.2963 J-4.2688
G3 X92.5921 Y161.8841 I0.5939 J-1.3774
G3 X89.9323 Y160.4627 I7.213 J-16.6965
G3 X88.2732 Y159.3926 I15.7202 J-26.1947
G3 X86.5617 Y157.9517 I5.5753 J-8.3591
G3 X86.1496 Y156.9349 I1.0878 J-1.0328
G3 X86.2747 Y152.2334 I63.1873 J-0.6719
G3 X86.281 Y152.1616 I1.4969 J0.0957
G1 X87.0134 Y145.6431
G3 X87.0165 Y145.6173 I1.4906 J0.1675
G2 X87.4681 Y139.4142 I-54.6115 J-7.0935
G3 X87.4689 Y139.3847 I1.4998 J0.0243
G2 X87.2155 Y138.7331 I-0.8829 J-0.0317
G3 X87.1873 Y138.7037 I1.0688 J-1.0524
G2 X86.6275 Y138.4717 I-0.5344 J0.4984
G3 X86.5305 Y138.472 I-0.0521 J-1.4991
G2 X85.929 Y138.7143 I-0.0242 J0.8077
G2 X85.6817 Y139.3826 I0.6852 J0.6335
G3 X85.6827 Y139.4544 I-1.499 J0.0559
G3 X85.473 Y143.9248 I-61.7736 J-0.6572
G3 X85.0642 Y148.3109 I-157.0989 J-12.4298
G2 X84.6791 Y152.6312 I161.2127 J16.5484
G3 X84.6786 Y152.6373 I-1.4957 J-0.1132
G2 X84.4865 Y156.8975 I61.5231 J4.9085
G3 X84.3301 Y159.1587 I-15.0946 J0.0916
G3 X83.6068 Y161.5709 I-8.0583 J-1.1016
G3 X81.5924 Y162.269 I-1.3528 J-0.648
G3 X77.7035 Y159.4208 I6.0966 J-12.4032
G3 X77.6689 Y159.3835 I1.0838 J-1.037
G1 X74.7881 Y156.1608
G3 X74.6822 Y156.0279 I1.1183 J-0.9997
G2 X74.4142 Y155.6623 I-11.3216 J8.0163
G0 Z3.0
G0 X126.373 Y163.838
G0 Z1.0
G1 F300.0 Z-4.0
G2 F1000.0 X126.3365 Y164.1861 I3.3648 J0.5294
G3 X126.7805 Y162.6774 I4.6628 J0.5526
G2 X126.373 Y163.838 I2.9573 J1.6901
G1 F300.0 X125.1876 Y163.6515
G2 F1000.0 X125.1325 Y164.4579 I4.5502 J0.716
G3 X125.1328 Y164.4743 I-1.4997 J0.0294
G2 X126.349 Y168.1726 I6.3999 J-0.0556
G2 X129.4244 Y171.1928 I10.5599 J-7.6769
G3 X129.4509 Y171.2118 I-0.8599 J1.229
G2 X133.6829 Y173.4915 I10.3151 J-14.081
G2 X138.2918 Y174.3154 I4.6411 J-12.6593
G2 X143.2388 Y173.5679 I-0.4001 J-19.3907
G3 X143.2885 Y173.5546 I0.4135 J1.4419
G2 X145.3408 Y172.8247 I-2.7357 J-10.9426
G2 X146.0437 Y172.3577 I-1.2479 J-2.6406
G3 X146.0779 Y172.3279 I1.0019 J1.1163
G2 X146.1077 Y172.2743 I-0.056 J-0.0663
G2 X146.0499 Y171.8648 I-1.5206 J0.0059
G3 X146.0447 Y171.8461 I1.4429 J-0.4098
G2 X145.9968 Y171.7765 I-0.1229 J0.0332
G2 X145.4627 Y171.6749 I-0.4934 J1.1388
G2 X143.9613 Y171.8391 I0.3831 J10.4469
G3 X143.9427 Y171.8424 I-0.2704 J-1.4754
G2 X142.3113 Y172.1542 I6.9127 J40.5969
G3 X140.3499 Y172.5251 I-6.6697 J-29.8915
G3 X138.2113 Y172.7012 I-2.1678 J-13.2583
G3 X138.2002 I-0.0032 J-1.5
G3 X134.4437 Y172.1969 I0.0774 J-14.8218
G3 X134.4397 Y172.1959 I0.388 J-1.449
G3 X130.9023 Y170.5668 I3.0584 J-11.2962
G3 X128.5404 Y168.2334 I4.7084 J-7.128
G3 X128.5272 Y168.2136 I1.2415 J-0.8419
G3 X127.5039 Y164.757 I5.2338 J-3.4291
G3 X128.1811 Y162.6709 I3.4954 J-0.0183
G3 X128.2212 Y162.6187 I1.2094 J0.8874
G3 X130.2882 Y161.0786 I4.0056 J3.2191
G3 X132.2975 Y160.4339 I4.361 J10.1374
G3 X132.3214 Y160.4289 I0.3196 J1.4655
G3 X135.0715 Y160.0349 I4.8767 J24.2456
G3 X137.7161 Y159.8169 I8.7374 J89.8529
G3 X137.7232 Y159.8164 I0.1012 J1.4966
G2 X141.9926 Y158.931 I-0.9696 J-15.412
G2 X145.5115 Y156.7229 I-3.386 J-9.3037
G3 X145.5215 Y156.7132 I1.0461 J1.075
G2 X147.9387 Y150.916 I-5.402 J-5.655
G3 Y150.8656 I1.4998 J-0.0273
G2 X146.731 Y146.3029 I-8.7163 J-0.1341
G2 X143.2804 Y142.8883 I-9.0886 J5.7337
G3 X143.2554 Y142.8726 I0.787 J-1.277
G2 X138.4958 Y140.7676 I-9.0891 J14.1179
G2 X133.2612 Y140.1084 I-5.1102 J19.4655
G3 X133.2343 Y140.1083 I-0.0093 J-1.5
G2 X125.69 Y141.6847 I-0.2099 J17.8361
G3 X125.6683 Y141.6943 I-0.6168 J-1.3673
G2 X122.9902 Y143.5437 I3.3078 J7.6539
G2 X121.9588 Y146.1003 I2.7873 J2.6108
G3 X121.9562 Y146.1711 I-1.4998 J-0.0212
G2 X122.1409 Y146.6197 I0.5544 J0.0341
G3 X122.1461 Y146.6243 I-0.9983 J1.1195
G2 X122.8883 Y146.8989 I0.7162 J-0.7958
G3 X122.9197 Y146.8984 I0.0365 J1.4996
G2 X123.245 Y146.7902 I-0.0019 J-0.5485
G2 X123.7564 Y146.2299 I-1.3173 J-1.716
G3 X123.7743 Y146.2023 I1.268 J0.8014
G3 X124.864 Y144.7315 I14.649 J9.7142
G3 X126.3648 Y143.3028 I6.0989 J4.9043
G3 X126.4545 Y143.2425 I0.8813 J1.2138
G3 X129.9084 Y141.9352 I5.0524 J8.1322
G3 X133.2773 Y141.6494 I3.2165 J17.9143
G3 X140.9653 Y143.437 I0.12 J16.9099
G3 X144.4147 Y146.1212 I-4.3573 J9.1578
G3 X144.4388 Y146.1509 I-1.1547 J0.9575
G3 X145.9581 Y150.6221 I-5.5755 J4.3883
G3 X144.6038 Y154.5115 I-6.1082 J0.0535
G3 X144.5825 Y154.5373 I-1.1674 J-0.9419
G3 X141.6317 Y156.8232 I-6.8255 J-5.7633
G3 X137.7088 Y158.1884 I-6.9767 J-13.7289
G3 X133.7079 Y158.6381 I-4.5076 J-22.0785
G2 X130.6259 Y159.0468 I0.509 J15.6635
G3 X130.6255 Y159.0469 I-0.3437 J-1.4601
G2 X127.8321 Y160.1322 I2.4645 J10.4809
G3 X127.8119 Y160.1433 I-0.7325 J-1.309
G2 X125.809 Y161.963 I2.673 J4.9542
G2 X125.1876 Y163.6515 I3.9288 J2.4045
G1 F300.0 X126.373 Y163.838
G1 Z-8.0
G2 F1000.0 X126.3365 Y164.1861 I3.3648 J0.5294
G3 X126.7805 Y162.6774 I4.6628 J0.5526
G2 X126.373 Y163.838 I2.9573 J1.6901
G1 F300.0 X125.1876 Y163.6515
G2 F1000.0 X125.1325 Y164.4579 I4.5502 J0.716
G3 X125.1328 Y164.4743 I-1.4997 J0.0294
G2 X126.349 Y168.1726 I6.3999 J-0.0556
G2 X129.4244 Y171.1928 I10.5599 J-7.6769
G3 X129.4509 Y171.2118 I-0.8599 J1.229
G2 X133.6829 Y173.4915 I10.3151 J-14.081
G2 X138.2918 Y174.3154 I4.6411 J-12.6593
G2 X143.2388 Y173.5679 I-0.4001 J-19.3907
G3 X143.2885 Y173.5546 I0.4135 J1.4419
G2 X145.3408 Y172.8247 I-2.7357 J-10.9426
G2 X146.0437 Y172.3577 I-1.2479 J-2.6406
G3 X146.0779 Y172.3279 I1.0019 J1.1163
G2 X146.1077 Y172.2743 I-0.056 J-0.0663
G2 X146.0499 Y171.8648 I-1.5206 J0.0059
G3 X146.0447 Y171.8461 I1.4429 J-0.4098
G2 X145.9968 Y171.7765 I-0.1229 J0.0332
G2 X145.4627 Y171.6749 I-0.4934 J1.1388
G2 X143.9613 Y171.8391 I0.3831 J10.4469
G3 X143.9427 Y171.8424 I-0.2704 J-1.4754
G2 X142.3113 Y172.1542 I6.9127 J40.5969
G3 X140.3499 Y172.5251 I-6.6697 J-29.8915
G3 X138.2113 Y172.7012 I-2.1678 J-13.2583
G3 X138.2002 I-0.0032 J-1.5
G3 X134.4437 Y172.1969 I0.0774 J-14.8218
G3 X134.4397 Y172.1959 I0.388 J-1.449
G3 X130.9023 Y170.5668 I3.0584 J-11.2962
G3 X128.5404 Y168.2334 I4.7084 J-7.128
G3 X128.5272 Y168.2136 I1.2415 J-0.8419
G3 X127.5039 Y164.757 I5.2338 J-3.4291
G3 X128.1811 Y162.6709 I3.4954 J-0.0183
G3 X128.2212 Y162.6187 I1.2094 J0.8874
G3 X130.2882 Y161.0786 I4.0056 J3.2191
G3 X132.2975 Y160.4339 I4.361 J10.1374
G3 X132.3214 Y160.4289 I0.3196 J1.4655
G3 X135.0715 Y160.0349 I4.8767 J24.2456
G3 X137.7161 Y159.8169 I8.7374 J89.8529
G3 X137.7232 Y159.8164 I0.1012 J1.4966
G2 X141.9926 Y158.931 I-0.9696 J-15.412
G2 X145.5115 Y156.7229 I-3.386 J-9.3037
G3 X145.5215 Y156.7132 I1.0461 J1.075
G2 X147.9387 Y150.916 I-5.402 J-5.655
G3 Y150.8656 I1.4998 J-0.0273
G2 X146.731 Y146.3029 I-8.7163 J-0.1341
G2 X143.2804 Y142.8883 I-9.0886 J5.7337
G3 X143.2554 Y142.8726 I0.787 J-1.277
G2 X138.4958 Y140.7676 I-9.0891 J14.1179
G2 X133.2612 Y140.1084 I-5.1102 J19.4655
G3 X133.2343 Y140.1083 I-0.0093 J-1.5
G2 X125.69 Y141.6847 I-0.2099 J17.8361
G3 X125.6683 Y141.6943 I-0.6168 J-1.3673
G2 X122.9902 Y143.5437 I3.3078 J7.6539
G2 X121.9588 Y146.1003 I2.7873 J2.6108
G3 X121.9562 Y146.1711 I-1.4998 J-0.0212
G2 X122.1409 Y146.6197 I0.5544 J0.0341
G3 X122.1461 Y146.6243 I-0.9983 J1.1195
G2 X122.8883 Y146.8989 I0.7162 J-0.7958
G3 X122.9197 Y146.8984 I0.0365 J1.4996
G2 X123.245 Y146.7902 I-0.0019 J-0.5485
G2 X123.7564 Y146.2299 I-1.3173 J-1.716
G3 X123.7743 Y146.2023 I1.268 J0.8014
G3 X124.864 Y144.7315 I14.649 J9.7142
G3 X126.3648 Y143.3028 I6.0989 J4.9043
G3 X126.4545 Y143.2425 I0.8813 J1.2138
G3 X129.9084 Y141.9352 I5.0524 J8.1322
G3 X133.2773 Y141.6494 I3.2165 J17.9143
G3 X140.9653 Y143.437 I0.12 J16.9099
G3 X144.4147 Y146.1212 I-4.3573 J9.1578
G3 X144.4388 Y146.1509 I-1.1547 J0.9575
G3 X145.9581 Y150.6221 I-5.5755 J4.3883
G3 X144.6038 Y154.5115 I-6.1082 J0.0535
G3 X144.5825 Y154.5373 I-1.1674 J-0.9419
G3 X141.6317 Y156.8232 I-6.8255 J-5.7633
G3 X137.7088 Y158.1884 I-6.9767 J-13.7289
G3 X133.7079 Y158.6381 I-4.5076 J-22.0785
G2 X130.6259 Y159.0468 I0.509 J15.6635
G3 X130.6255 Y159.0469 I-0.3437 J-1.4601
G2 X127.8321 Y160.1322 I2.4645 J10.4809
G3 X127.8119 Y160.1433 I-0.7325 J-1.309
G2 X125.809 Y161.963 I2.673 J4.9542
G2 X125.1876 Y163.6515 I3.9288 J2.4045
G0 Z3.0
G0 X163.1794 Y162.9919
G0 Z1.0
G1 F300.0 Z-4.0
G3 F1000.0 X163.3173 Y163.1301 I-2.2663 J2.3988
G3 X163.5534 Y162.9071 I2.381 J2.2849
G3 X163.417 Y162.7674 I2.2913 J-2.3749
G3 X163.1794 Y162.9919 I-2.3818 J-2.284
G1 F300.0 X162.7673 Y163.428
G3 F1000.0 X163.312 Y164.1517 I-1.8542 J1.9626
G3 X164.6213 Y162.9391 I2.3862 J1.2634
G3 X163.4275 Y161.7351 I1.2235 J-2.4069
G3 X162.099 Y162.965 I-2.3923 J-1.2517
G3 X162.7673 Y163.428 I-1.1859 J2.4256
G1 F300.0 X161.9432 Y164.3003
G3 F1000.0 X162.413 Y165.4052 I-1.0301 J1.0903
G3 X162.2886 Y168.797 I-62.9829 J-0.6126
G2 X162.1932 Y171.7583 I78.4384 J4.0078
G3 X162.1927 Y171.7835 I-1.4999 J-0.02
G2 X162.4182 Y172.3201 I0.7008 J0.0212
G3 X162.4499 Y172.3502 I-1.0168 J1.1028
G2 X163.1007 Y172.6068 I0.6303 J-0.6449
G3 X163.1543 Y172.6066 I0.0341 J1.4996
G2 X163.7318 Y172.2285 I0.0081 J-0.6178
G3 X163.7485 Y172.1904 I1.3825 J0.582
G2 X164.2022 Y170.4088 I-4.76 J-2.1608
G3 Y170.4084 I1.496 J0.1088
G2 X164.2716 Y168.3743 I-26.2228 J-1.9129
G1 X164.2235 Y166.9804
G3 X164.2229 Y166.9529 I1.4991 J-0.0517
G1 X164.1984 Y165.4392
G3 X165.9034 Y163.9291 I1.4998 J-0.0242
G2 X169.2323 Y164.3058 I9.345 J-67.692
G2 X170.7648 Y164.2724 I0.032 J-33.6746
G3 X170.7981 Y164.2712 I0.0668 J1.4985
G2 X172.0941 Y164.1123 I-0.1465 J-6.5587
G2 X172.3449 Y163.9234 I-0.1724 J-0.4898
G2 X172.4756 Y163.3197 I-1.1236 J-0.5593
G3 X172.4753 Y163.2197 I1.4991 J-0.0531
G2 X172.2127 Y162.5271 I-0.965 J-0.0302
G2 X171.6369 Y162.2998 I-0.5475 J0.5438
G3 X171.5917 Y162.3008 I-0.0549 J-1.499
G2 X170.473 Y162.3455 I0.1076 J16.7149
G3 X169.1741 Y162.3984 I-1.412 J-18.6766
G3 X169.0507 Y162.3941 I-0.0091 J-1.5
G3 X165.6304 Y162.0168 I3.9114 J-51.1571
G3 X164.3455 Y160.484 I0.2143 J-1.4846
G1 X164.8091 Y146.0624
G1 X164.8333 Y144.9976
G1 X164.8577 Y143.7548
G3 X164.8586 Y143.7247 I1.4997 J0.0294
G2 X164.6081 Y140.9617 I-10.6835 J-0.4242
G2 X164.1913 Y140.0819 I-2.1627 J0.4858
G2 X163.8393 Y139.9368 I-0.338 J0.3205
G3 X163.7742 Y139.9374 I-0.0453 J-1.4993
G2 X163.079 Y140.1956 I-0.0135 J1.0285
G3 X163.0648 Y140.208 I-0.9941 J-1.1233
G2 X162.8767 Y140.6297 I0.3546 J0.411
G3 X162.8769 Y140.6454 I-1.4997 J0.0295
G2 X162.9488 Y143.3773 I79.91 J-0.736
G1 Y143.3774
G3 X163.0234 Y146.2117 I-83.1353 J3.6059
G3 X163.0226 Y146.2769 I-1.4999 J0.0139
G1 X162.5343 Y160.5347
G3 X161.1159 Y161.9812 I-1.4991 J-0.0513
G2 X155.7635 Y162.3911 I6.3974 J118.6947
G3 X155.7364 Y162.3935 I-0.1483 J-1.4927
G2 X155.1064 Y162.6534 I0.0902 J1.1123
G2 X154.9401 Y163.2324 I0.7481 J0.5282
G3 X154.9416 Y163.3645 I-1.4977 J0.0831
G2 X155.2061 Y164.0827 I1.0172 J0.0333
G2 X155.7135 Y164.3066 I0.5136 J-0.4771
G1 X160.7921 Y163.8955
G3 X161.9432 Y164.3003 I0.121 J1.4951
G1 F300.0 X163.1794 Y162.9919
G1 Z-8.0
G3 F1000.0 X163.3173 Y163.1301 I-2.2663 J2.3988
G3 X163.5534 Y162.9071 I2.381 J2.2849
G3 X163.417 Y162.7674 I2.2913 J-2.3749
G3 X163.1794 Y162.9919 I-2.3818 J-2.284
G1 F300.0 X162.7673 Y163.428
G3 F1000.0 X163.312 Y164.1517 I-1.8542 J1.9626
G3 X164.6213 Y162.9391 I2.3862 J1.2634
G3 X163.4275 Y161.7351 I1.2235 J-2.4069
G3 X162.099 Y162.965 I-2.3923 J-1.2517
G3 X162.7673 Y163.428 I-1.1859 J2.4256
G1 F300.0 X161.9432 Y164.3003
G3 F1000.0 X162.413 Y165.4052 I-1.0301 J1.0903
G3 X162.2886 Y168.797 I-62.9829 J-0.6126
G2 X162.1932 Y171.7583 I78.4384 J4.0078
G3 X162.1927 Y171.7835 I-1.4999 J-0.02
G2 X162.4182 Y172.3201 I0.7008 J0.0212
G3 X162.4499 Y172.3502 I-1.0168 J1.1028
G2 X163.1007 Y172.6068 I0.6303 J-0.6449
G3 X163.1543 Y172.6066 I0.0341 J1.4996
G2 X163.7318 Y172.2285 I0.0081 J-0.6178
G3 X163.7485 Y172.1904 I1.3825 J0.582
G2 X164.2022 Y170.4088 I-4.76 J-2.1608
G3 Y170.4084 I1.496 J0.1088
G2 X164.2716 Y168.3743 I-26.2228 J-1.9129
G1 X164.2235 Y166.9804
G3 X164.2229 Y166.9529 I1.4991 J-0.0517
G1 X164.1984 Y165.4392
G3 X165.9034 Y163.9291 I1.4998 J-0.0242
G2 X169.2323 Y164.3058 I9.345 J-67.692
G2 X170.7648 Y164.2724 I0.032 J-33.6746
G3 X170.7981 Y164.2712 I0.0668 J1.4985
G2 X172.0941 Y164.1123 I-0.1465 J-6.5587
G2 X172.3449 Y163.9234 I-0.1724 J-0.4898
G2 X172.4756 Y163.3197 I-1.1236 J-0.5593
G3 X172.4753 Y163.2197 I1.4991 J-0.0531
G2 X172.2127 Y162.5271 I-0.965 J-0.0302
G2 X171.6369 Y162.2998 I-0.5475 J0.5438
G3 X171.5917 Y162.3008 I-0.0549 J-1.499
G2 X170.473 Y162.3455 I0.1076 J16.7149
G3 X169.1741 Y162.3984 I-1.412 J-18.6766
G3 X169.0507 Y162.3941 I-0.0091 J-1.5
G3 X165.6304 Y162.0168 I3.9114 J-51.1571
G3 X164.3455 Y160.484 I0.2143 J-1.4846
G1 X164.8091 Y146.0624
G1 X164.8333 Y144.9976
G1 X164.8577 Y143.7548
G3 X164.8586 Y143.7247 I1.4997 J0.0294
G2 X164.6081 Y140.9617 I-10.6835 J-0.4242
G2 X164.1913 Y140.0819 I-2.1627 J0.4858
G2 X163.8393 Y139.9368 I-0.338 J0.3205
G3 X163.7742 Y139.9374 I-0.0453 J-1.4993
G2 X163.079 Y140.1956 I-0.0135 J1.0285
G3 X163.0648 Y140.208 I-0.9941 J-1.1233
G2 X162.8767 Y140.6297 I0.3546 J0.411
G3 X162.8769 Y140.6454 I-1.4997 J0.0295
G2 X162.9488 Y143.3773 I79.91 J-0.736
G1 Y143.3774
G3 X163.0234 Y146.2117 I-83.1353 J3.6059
G3 X163.0226 Y146.2769 I-1.4999 J0.0139
G1 X162.5343 Y160.5347
G3 X161.1159 Y161.9812 I-1.4991 J-0.0513
G2 X155.7635 Y162.3911 I6.3974 J118.6947
G3 X155.7364 Y162.3935 I-0.1483 J-1.4927
G2 X155.1064 Y162.6534 I0.0902 J1.1123
G2 X154.9401 Y163.2324 I0.7481 J0.5282
G3 X154.9416 Y163.3645 I-1.4977 J0.0831
G2 X155.2061 Y164.0827 I1.0172 J0.0333
G2 X155.7135 Y164.3066 I0.5136 J-0.4771
G1 X160.7921 Y163.8955
G3 X161.9432 Y164.3003 I0.121 J1.4951
G0 Z3.0
G0 X195.6052 Y142.6185
G0 Z1.0
G1 F300.0 Z-4.0
G3 F1000.0 X196.0944 Y143.0884 I-1.6111 J2.1667
G3 X196.1408 Y142.1526 I31.3223 J1.0853
G3 X195.6052 Y142.6185 I-2.0246 J-1.7864
G1 F300.0 X194.8892 Y143.5815
G3 F1000.0 X195.4941 Y144.7925 I-0.8951 J1.2037
G1 X195.4697 Y149.7486
G3 X195.4696 Y149.7567 I-1.5 J-0.0074
G1 X195.4208 Y154.4907
G2 X195.8759 Y163.4704 I77.7286 J0.562
G3 X195.8814 Y163.533 I-1.4912 J0.1624
G2 X196.1427 Y164.2215 I1.2591 J-0.0839
G2 X196.6656 Y164.3814 I0.4772 J-0.6252
G3 X196.7936 Y164.3795 I0.0873 J1.4975
G2 X197.4677 Y164.1173 I0.0253 J-0.9328
G3 X197.48 Y164.1056 I1.043 J1.078
G2 X197.6744 Y163.6016 I-0.431 J-0.4557
G3 X197.6716 Y163.5577 I1.4956 J-0.1153
G1 X197.2322 Y154.3292
G3 X197.2305 Y154.2545 I1.4983 J-0.0713
G3 X197.2549 Y148.9738 I1079.926 J2.3592
G3 Y148.9722 I1.5 J0.0106
G2 X197.2793 Y143.7092 I-757.0246 J-6.1363
G3 X197.2795 Y143.6867 I1.5 J0.0017
G3 X197.3566 Y141.9653 I30.1371 J0.487
G3 X197.3597 Y141.929 I1.496 J0.1099
G2 X197.4505 Y140.407 I-19.9899 J-1.9572
G3 X197.4511 Y140.3873 I1.4996 J0.0325
G2 X197.2192 Y139.8275 I-0.7303 J-0.0254
G3 X197.1937 Y139.8032 I1.023 J-1.097
G2 X196.5429 Y139.5465 I-0.6303 J0.6449
G3 X196.4483 Y139.5457 I-0.0341 J-1.4996
G2 X195.9984 Y139.7209 I-0.0243 J0.6026
G2 X195.5921 Y140.634 I1.6691 J1.2897
G3 X193.4456 Y141.7079 I-1.4759 J-0.2678
G2 X187.1143 Y140.279 I-6.0658 J12.1354
G3 X187.0722 Y140.2792 I-0.0294 J-1.4997
G2 X184.6767 Y140.5493 I-0.0851 J10.0037
G2 X182.6215 Y141.4418 I1.4812 J6.2232
G2 X180.5193 Y144.9246 I2.7105 J4.0119
G3 X180.5105 Y144.991 I-1.491 J-0.1639
G2 X179.5763 Y156.2828 I78.3083 J12.1637
G2 X180.2846 Y163.6341 I44.4984 J-0.5777
G3 X180.2994 Y163.7352 I-1.476 J0.2673
G2 X180.5713 Y164.3817 I1.2303 J-0.1371
G2 X181.0481 Y164.5275 I0.4381 J-0.5799
G3 X181.1686 Y164.5259 I0.0799 J1.4979
G2 X181.8427 Y164.2638 I0.0253 J-0.9328
G3 X181.8627 Y164.2448 I1.043 J1.078
G2 X182.0948 Y163.6882 I-0.4984 J-0.5344
G2 X181.7474 Y160.287 I-28.0285 J1.1445
G3 X181.7447 Y160.27 I1.4802 J-0.2431
G3 X181.3864 Y156.3293 I32.3005 J-4.923
G3 X181.3858 Y156.2933 I1.4993 J-0.0451
G3 X181.659 Y149.1832 I79.9835 J-0.4869
G3 X182.5131 Y144.2429 I26.1343 J1.9744
G3 X183.2345 Y143.3258 I1.4469 J0.3957
G3 X185.0912 Y142.526 I4.9929 J9.0356
G3 X185.1332 Y142.5132 I0.4557 J1.4291
G3 X187.0784 Y142.2354 I1.9767 J6.8896
G3 X187.1008 I0.0066 J1.5
G3 X194.4245 Y143.3482 I-0.2804 J26.5015
G3 X194.8892 Y143.5815 I-0.4304 J1.4369
G1 F300.0 X195.6052 Y142.6185
G1 Z-8.0
G3 F1000.0 X196.0944 Y143.0884 I-1.6111 J2.1667
G3 X196.1408 Y142.1526 I31.3223 J1.0853
G3 X195.6052 Y142.6185 I-2.0246 J-1.7864
G1 F300.0 X194.8892 Y143.5815
G3 F1000.0 X195.4941 Y144.7925 I-0.8951 J1.2037
G1 X195.4697 Y149.7486
G3 X195.4696 Y149.7567 I-1.5 J-0.0074
G1 X195.4208 Y154.4907
G2 X195.8759 Y163.4704 I77.7286 J0.562
G3 X195.8814 Y163.533 I-1.4912 J0.1624
G2 X196.1427 Y164.2215 I1.2591 J-0.0839
G2 X196.6656 Y164.3814 I0.4772 J-0.6252
G3 X196.7936 Y164.3795 I0.0873 J1.4975
G2 X197.4677 Y164.1173 I0.0253 J-0.9328
G3 X197.48 Y164.1056 I1.043 J1.078
G2 X197.6744 Y163.6016 I-0.431 J-0.4557
G3 X197.6716 Y163.5577 I1.4956 J-0.1153
G1 X197.2322 Y154.3292
G3 X197.2305 Y154.2545 I1.4983 J-0.0713
G3 X197.2549 Y148.9738 I1079.926 J2.3592
G3 Y148.9722 I1.5 J0.0106
G2 X197.2793 Y143.7092 I-757.0246 J-6.1363
G3 X197.2795 Y143.6867 I1.5 J0.0017
G3 X197.3566 Y141.9653 I30.1371 J0.487
G3 X197.3597 Y141.929 I1.496 J0.1099
G2 X197.4505 Y140.407 I-19.9899 J-1.9572
G3 X197.4511 Y140.3873 I1.4996 J0.0325
G2 X197.2192 Y139.8275 I-0.7303 J-0.0254
G3 X197.1937 Y139.8032 I1.023 J-1.097
G2 X196.5429 Y139.5465 I-0.6303 J0.6449
G3 X196.4483 Y139.5457 I-0.0341 J-1.4996
G2 X195.9984 Y139.7209 I-0.0243 J0.6026
G2 X195.5921 Y140.634 I1.6691 J1.2897
G3 X193.4456 Y141.7079 I-1.4759 J-0.2678
G2 X187.1143 Y140.279 I-6.0658 J12.1354
G3 X187.0722 Y140.2792 I-0.0294 J-1.4997
G2 X184.6767 Y140.5493 I-0.0851 J10.0037
G2 X182.6215 Y141.4418 I1.4812 J6.2232
G2 X180.5193 Y144.9246 I2.7105 J4.0119
G3 X180.5105 Y144.991 I-1.491 J-0.1639
G2 X179.5763 Y156.2828 I78.3083 J12.1637
G2 X180.2846 Y163.6341 I44.4984 J-0.5777
G3 X180.2994 Y163.7352 I-1.476 J0.2673
G2 X180.5713 Y164.3817 I1.2303 J-0.1371
G2 X181.0481 Y164.5275 I0.4381 J-0.5799
G3 X181.1686 Y164.5259 I0.0799 J1.4979
G2 X181.8427 Y164.2638 I0.0253 J-0.9328
G3 X181.8627 Y164.2448 I1.043 J1.078
G2 X182.0948 Y163.6882 I-0.4984 J-0.5344
G2 X181.7474 Y160.287 I-28.0285 J1.1445
G3 X181.7447 Y160.27 I1.4802 J-0.2431
G3 X181.3864 Y156.3293 I32.3005 J-4.923
G3 X181.3858 Y156.2933 I1.4993 J-0.0451
G3 X181.659 Y149.1832 I79.9835 J-0.4869
G3 X182.5131 Y144.2429 I26.1343 J1.9744
G3 X183.2345 Y143.3258 I1.4469 J0.3957
G3 X185.0912 Y142.526 I4.9929 J9.0356
G3 X185.1332 Y142.5132 I0.4557 J1.4291
G3 X187.0784 Y142.2354 I1.9767 J6.8896
G3 X187.1008 I0.0066 J1.5
G3 X194.4245 Y143.3482 I-0.2804 J26.5015
G3 X194.8892 Y143.5815 I-0.4304 J1.4369
G0 Z3.0
G0 X207.554 Y155.2715
G0 Z1.0
G1 F300.0 Z-4.0
G3 F1000.0 X207.4371 Y156.994 I-50.4694 J-2.5611
G3 X208.4891 Y156.3873 I1.8403 J1.9757
G2 X207.7075 Y155.4534 I-10.0974 J7.6569
G3 X207.554 Y155.2715 I1.9849 J-1.8304
G0 Z3.0
G0 X220.6304 Y158.6757
G0 Z1.0
G1 F300.0 Z-4.0
G3 F1000.0 X220.5494 Y159.3263 I-16.2074 J-1.6867
G3 X220.3521 Y160.342 I-9.2466 J-1.2691
G3 X221.4695 Y159.4954 I2.1332 J1.6551
G3 X220.7226 Y158.778 I7.4101 J-8.4619
G3 X220.6304 Y158.6757 I1.9581 J-1.859
G1 F300.0 X221.5416 Y157.8949
G3 F1000.0 X221.1807 Y156.9349 I1.139 J-0.976
G3 X221.3058 Y152.2334 I63.1873 J-0.6719
G3 X221.3121 Y152.1616 I1.4969 J0.0957
G1 X222.0445 Y145.6431
G3 X222.0477 Y145.6173 I1.4906 J0.1675
G2 X222.4992 Y139.4142 I-54.6115 J-7.0935
G3 X222.5 Y139.3847 I1.4998 J0.0243
G2 X222.2466 Y138.7331 I-0.8829 J-0.0317
G3 X222.2184 Y138.7037 I1.0688 J-1.0524
G2 X221.6586 Y138.4717 I-0.5344 J0.4984
G3 X221.5616 Y138.472 I-0.0521 J-1.4991
G2 X220.9601 Y138.7143 I-0.0242 J0.8077
G2 X220.7128 Y139.3826 I0.6852 J0.6335
G3 X220.7138 Y139.4544 I-1.499 J0.0559
G3 X220.5041 Y143.9248 I-61.7736 J-0.6572
G3 X220.0953 Y148.3109 I-157.0989 J-12.4298
G2 X219.7102 Y152.6312 I161.2127 J16.5484
G3 X219.7097 Y152.6373 I-1.4957 J-0.1132
G2 X219.5176 Y156.8975 I61.5231 J4.9085
G3 X219.3612 Y159.1587 I-15.0946 J0.0916
G3 X218.638 Y161.5709 I-8.0583 J-1.1016
G3 X216.6235 Y162.269 I-1.3528 J-0.648
G3 X212.7346 Y159.4208 I6.0966 J-12.4032
G3 X212.7001 Y159.3835 I1.0838 J-1.037
G1 X209.8192 Y156.1608
G3 X209.7133 Y156.0279 I1.1183 J-0.9997
G2 X208.5897 Y154.6399 I-11.3216 J8.0163
G3 X208.1927 Y153.6548 I1.1027 J-1.0169
G2 X207.9318 Y149.4561 I-51.4471 J1.0897
G3 X207.6557 Y145.1138 I54.4662 J-5.643
G3 X207.6561 Y145.0291 I1.4996 J-0.0356
G3 X207.8994 Y142.7576 I15.4313 J0.5046
G3 X207.9056 Y142.7261 I1.4756 J0.2697
G2 X208.1193 Y141.0795 I-11.1284 J-2.2816
G2 X207.883 Y140.5746 I-0.6811 J0.0111
G3 X207.8237 Y140.5207 I0.9793 J-1.1362
G2 X207.1492 Y140.2547 I-0.6616 J0.6894
G3 X207.1112 Y140.2548 I-0.0203 J-1.4999
G2 X206.6874 Y140.4802 I-0.0059 J0.5
G3 X206.6725 Y140.5024 I-1.2536 J-0.8237
G2 X206.2827 Y141.3301 I2.3846 J1.6286
G3 X206.2817 Y141.3334 I-1.4412 J-0.416
G2 X205.9559 Y143.0826 I8.6336 J2.5133
G3 X205.955 Y143.093 I-1.4946 J-0.1275
G2 X205.8701 Y145.0103 I20.0051 J1.8465
G2 X206.131 Y149.2477 I53.2913 J-1.1547
G3 X206.4069 Y153.7374 I-55.9956 J5.6944
G3 Y153.8027 I-1.4997 J0.0321
G3 X206.1559 Y157.7984 I-49.3222 J-1.0923
G2 X205.9431 Y161.5857 I51.3933 J4.7871
G2 X206.2147 Y164.4426 I12.7473 J0.2296
G3 X206.2151 Y164.4445 I-1.4678 J0.3091
G2 X206.6506 Y165.4681 I2.7953 J-0.5849
G2 X206.9037 Y165.5998 I0.2548 J-0.1805
G2 X207.5234 Y165.2989 I-0.0317 J-0.8538
G3 X207.6386 Y165.1776 I1.1436 J0.9706
G2 X207.9717 Y164.4614 I-0.73 J-0.7751
G2 X207.8647 Y163.2274 I-12.2629 J0.4426
G3 X207.8645 Y163.2266 I1.4859 J-0.2049
G3 X207.7291 Y161.5738 I15.0225 J-2.0633
G3 X207.7288 Y161.5046 I1.4995 J-0.0406
G1 X207.7776 Y158.9412
G3 X210.6199 Y158.3007 I1.4997 J0.0286
G2 X213.9704 Y162.5272 I11.6903 J-5.8261
G3 X214.0038 Y162.5557 I-0.9577 J1.1544
G2 X215.7057 Y163.7928 I7.4622 J-8.4767
G3 X215.7394 Y163.8134 I-0.7651 J1.2902
G2 X217.2773 Y164.307 I1.7312 J-2.7518
G2 X219.6024 Y163.6118 I0.1088 J-3.8722
G2 X221.0654 Y161.5137 I-2.9056 J-3.585
G3 X223.6952 Y161.1104 I1.42 J0.4833
G2 X226.3273 Y163.3033 I5.7252 J-4.1957
G2 X229.9042 Y164.0618 I3.4283 J-7.3543
G3 X229.9818 Y164.0624 I0.0275 J1.4997
G2 X232.5301 Y163.2053 I0.1283 J-3.8356
G2 X233.4203 Y162.1345 I-2.8471 J-3.2724
G3 X233.4213 Y162.1329 I1.2924 J0.7613
G2 X234.057 Y160.7466 I-6.3452 J-3.7487
G2 X234.3409 Y159.2626 I-13.5665 J-3.3645
G3 X234.3429 Y159.2482 I1.4864 J0.2018
G2 X235.0088 Y154.1353 I-169.4645 J-24.672
G3 X235.0167 Y154.0769 I1.4902 J0.1713
G2 X235.9622 Y147.1456 I-190.0113 J-29.4493
G3 X235.9627 Y147.1417 I1.4897 J0.1757
G2 X236.764 Y140.1705 I-625.0225 J-75.3729
G2 X236.6063 Y139.7829 I-0.4676 J-0.0356
G3 X236.5696 Y139.7495 I0.9914 J-1.1257
G2 X235.8493 Y139.4732 I-0.6973 J0.7408
G3 X235.7357 Y139.4715 I-0.0339 J-1.4996
G2 X235.2351 Y139.6223 I-0.041 J0.7702
G2 X234.9625 Y140.263 I0.9303 J0.7741
G3 X234.9552 Y140.3192 I-1.4909 J-0.1653
G2 X234.0876 Y147.7904 I114.069 J17.0327
G3 X234.0838 Y147.8296 I-1.4948 J-0.1244
G1 X233.2538 Y155.3979
G3 X233.2472 Y155.4497 I-1.4911 J-0.1635
G3 X232.3427 Y159.0419 I-17.8946 J-2.5958
G3 X231.5829 Y160.6301 I-8.3565 J-3.0218
G3 X231.5798 Y160.6352 I-1.2824 J-0.7782
G3 X230.844 Y161.5304 I-3.578 J-2.1908
G3 X229.1812 Y162.2265 I-1.7571 J-1.8632
G3 X229.0221 Y162.2239 I-0.0552 J-1.499
G3 X227.6241 Y161.8845 I0.2963 J-4.2688
G3 X227.6232 Y161.8841 I0.5939 J-1.3774
G3 X224.9634 Y160.4627 I7.213 J-16.6965
G3 X223.3043 Y159.3926 I15.7202 J-26.1947
G3 X221.5929 Y157.9517 I5.5753 J-8.3591
G3 X221.5416 Y157.8949 I1.0878 J-1.0328
G1 F300.0 X220.6304 Y158.6757
G1 Z-8.0
G3 F1000.0 X220.5494 Y159.3263 I-16.2074 J-1.6867
G3 X220.3521 Y160.342 I-9.2466 J-1.2691
G3 X221.4695 Y159.4954 I2.1332 J1.6551
G3 X220.7226 Y158.778 I7.4101 J-8.4619
G3 X220.6304 Y158.6757 I1.9581 J-1.859
G0 Z3.0
G0 X208.4891 Y156.3873
G0 Z-3.0
G1 F300.0 Z-8.0
G2 F1000.0 X207.7075 Y155.4534 I-10.0974 J7.6569
G3 X207.554 Y155.2715 I1.9849 J-1.8304
G3 X207.4371 Y156.994 I-50.4694 J-2.5611
G3 X208.4891 Y156.3873 I1.8403 J1.9757
G1 F300.0 X209.4453 Y155.6623
G2 F1000.0 X208.5897 Y154.6399 I-11.0536 J8.382
G3 X208.1927 Y153.6548 I1.1027 J-1.0169
G2 X207.9318 Y149.4561 I-51.4471 J1.0897
G3 X207.6557 Y145.1138 I54.4662 J-5.643
G3 X207.6561 Y145.0291 I1.4996 J-0.0356
G3 X207.8994 Y142.7576 I15.4313 J0.5046
G3 X207.9056 Y142.7261 I1.4756 J0.2697
G2 X208.1193 Y141.0795 I-11.1284 J-2.2816
G2 X207.883 Y140.5746 I-0.6811 J0.0111
G3 X207.8237 Y140.5207 I0.9793 J-1.1362
G2 X207.1492 Y140.2547 I-0.6616 J0.6894
G3 X207.1112 Y140.2548 I-0.0203 J-1.4999
G2 X206.6874 Y140.4802 I-0.0059 J0.5
G3 X206.6725 Y140.5024 I-1.2536 J-0.8237
G2 X206.2827 Y141.3301 I2.3846 J1.6286
G3 X206.2817 Y141.3334 I-1.4412 J-0.416
G2 X205.9559 Y143.0826 I8.6336 J2.5133
G3 X205.955 Y143.093 I-1.4946 J-0.1275
G2 X205.8701 Y145.0103 I20.0051 J1.8465
G2 X206.131 Y149.2477 I53.2913 J-1.1547
G3 X206.4069 Y153.7374 I-55.9956 J5.6944
G3 Y153.8027 I-1.4997 J0.0321
G3 X206.1559 Y157.7984 I-49.3222 J-1.0923
G2 X205.9431 Y161.5857 I51.3933 J4.7871
G2 X206.2147 Y164.4426 I12.7473 J0.2296
G3 X206.2151 Y164.4445 I-1.4678 J0.3091
G2 X206.6506 Y165.4681 I2.7953 J-0.5849
G2 X206.9037 Y165.5998 I0.2548 J-0.1805
G2 X207.5234 Y165.2989 I-0.0317 J-0.8538
G3 X207.6386 Y165.1776 I1.1436 J0.9706
G2 X207.9717 Y164.4614 I-0.73 J-0.7751
G2 X207.8647 Y163.2274 I-12.2629 J0.4426
G3 X207.8645 Y163.2266 I1.4859 J-0.2049
G3 X207.7291 Y161.5738 I15.0225 J-2.0633
G3 X207.7288 Y161.5046 I1.4995 J-0.0406
G1 X207.7776 Y158.9412
G3 X210.6199 Y158.3007 I1.4997 J0.0286
G2 X213.9704 Y162.5272 I11.6903 J-5.8261
G3 X214.0038 Y162.5557 I-0.9577 J1.1544
G2 X215.7057 Y163.7928 I7.4622 J-8.4767
G3 X215.7394 Y163.8134 I-0.7651 J1.2902
G2 X217.2773 Y164.307 I1.7312 J-2.7518
G2 X219.6024 Y163.6118 I0.1088 J-3.8722
G2 X221.0654 Y161.5137 I-2.9056 J-3.585
G3 X223.6952 Y161.1104 I1.42 J0.4833
G2 X226.3273 Y163.3033 I5.7252 J-4.1957
G2 X229.9042 Y164.0618 I3.4283 J-7.3543
G3 X229.9818 Y164.0624 I0.0275 J1.4997
G2 X232.5301 Y163.2053 I0.1283 J-3.8356
G2 X233.4203 Y162.1345 I-2.8471 J-3.2724
G3 X233.4213 Y162.1329 I1.2924 J0.7613
G2 X234.057 Y160.7466 I-6.3452 J-3.7487
G2 X234.3409 Y159.2626 I-13.5665 J-3.3645
G3 X234.3429 Y159.2482 I1.4864 J0.2018
G2 X235.0088 Y154.1353 I-169.4645 J-24.672
G3 X235.0167 Y154.0769 I1.4902 J0.1713
G2 X235.9622 Y147.1456 I-190.0113 J-29.4493
G3 X235.9627 Y147.1417 I1.4897 J0.1757
G2 X236.764 Y140.1705 I-625.0225 J-75.3729
G2 X236.6063 Y139.7829 I-0.4676 J-0.0356
G3 X236.5696 Y139.7495 I0.9914 J-1.1257
G2 X235.8493 Y139.4732 I-0.6973 J0.7408
G3 X235.7357 Y139.4715 I-0.0339 J-1.4996
G2 X235.2351 Y139.6223 I-0.041 J0.7702
G2 X234.9625 Y140.263 I0.9303 J0.7741
G3 X234.9552 Y140.3192 I-1.4909 J-0.1653
G2 X234.0876 Y147.7904 I114.069 J17.0327
G3 X234.0838 Y147.8296 I-1.4948 J-0.1244
G1 X233.2538 Y155.3979
G3 X233.2472 Y155.4497 I-1.4911 J-0.1635
G3 X232.3427 Y159.0419 I-17.8946 J-2.5958
G3 X231.5829 Y160.6301 I-8.3565 J-3.0218
G3 X231.5798 Y160.6352 I-1.2824 J-0.7782
G3 X230.844 Y161.5304 I-3.578 J-2.1908
G3 X229.1812 Y162.2265 I-1.7571 J-1.8632
G3 X229.0221 Y162.2239 I-0.0552 J-1.499
G3 X227.6241 Y161.8845 I0.2963 J-4.2688
G3 X227.6232 Y161.8841 I0.5939 J-1.3774
G3 X224.9634 Y160.4627 I7.213 J-16.6965
G3 X223.3043 Y159.3926 I15.7202 J-26.1947
G3 X221.5929 Y157.9517 I5.5753 J-8.3591
G3 X221.1807 Y156.9349 I1.0878 J-1.0328
G3 X221.3058 Y152.2334 I63.1873 J-0.6719
G3 X221.3121 Y152.1616 I1.4969 J0.0957
G1 X222.0445 Y145.6431
G3 X222.0477 Y145.6173 I1.4906 J0.1675
G2 X222.4992 Y139.4142 I-54.6115 J-7.0935
G3 X222.5 Y139.3847 I1.4998 J0.0243
G2 X222.2466 Y138.7331 I-0.8829 J-0.0317
G3 X222.2184 Y138.7037 I1.0688 J-1.0524
G2 X221.6586 Y138.4717 I-0.5344 J0.4984
G3 X221.5616 Y138.472 I-0.0521 J-1.4991
G2 X220.9601 Y138.7143 I-0.0242 J0.8077
G2 X220.7128 Y139.3826 I0.6852 J0.6335
G3 X220.7138 Y139.4544 I-1.499 J0.0559
G3 X220.5041 Y143.9248 I-61.7736 J-0.6572
G3 X220.0953 Y148.3109 I-157.0989 J-12.4298
G2 X219.7102 Y152.6312 I161.2127 J16.5484
G3 X219.7097 Y152.6373 I-1.4957 J-0.1132
G2 X219.5176 Y156.8975 I61.5231 J4.9085
G3 X219.3612 Y159.1587 I-15.0946 J0.0916
G3 X218.638 Y161.5709 I-8.0583 J-1.1016
G3 X216.6235 Y162.269 I-1.3528 J-0.648
G3 X212.7346 Y159.4208 I6.0966 J-12.4032
G3 X212.7001 Y159.3835 I1.0838 J-1.037
G1 X209.8192 Y156.1608
G3 X209.7133 Y156.0279 I1.1183 J-0.9997
G2 X209.4453 Y155.6623 I-11.3216 J8.0163
G0 Z3.0
G0 X246.8381 Y155.23
G0 Z1.0
G1 F300.0 Z-4.0
G1 F1000.0 X246.8155 Y153.2742
G3 Y153.2472 I1.4999 J-0.0173
G1 X246.8399 Y149.4389
G1 X246.8643 Y145.4352
G3 X247.7539 Y144.0741 I1.5 J0.0091
G3 X251.1214 Y142.6772 I28.6825 J64.3877
G3 X251.2399 Y142.6372 I0.5387 J1.3999
G3 X255.0537 Y142.1132 I3.6715 J12.5806
G3 X258.8014 Y142.8293 I0.102 J9.6306
G3 X258.822 Y142.8379 I-0.5678 J1.3884
G3 X261.9808 Y145.1019 I-3.513 J8.2372
G3 X264.6349 Y152.3205 I-7.7121 J6.9328
G3 X264.167 Y155.8915 I-13.176 J0.0897
G3 X264.1656 Y155.8968 I-1.4467 J-0.3963
G3 X262.5149 Y159.2688 I-9.8759 J-2.7445
G3 X255.9438 Y162.52 I-6.3445 J-4.5567
G3 X251.1422 Y161.2036 I0.2152 J-10.1992
G3 X251.0965 Y161.1767 I0.7376 J-1.3061
G3 X247.4504 Y158.6699 I21.8848 J-35.7376
G3 X246.8644 Y157.4978 I0.9139 J-1.1895
G1 X246.8381 Y155.23
G0 Z3.0
G0 X246.7026 Y159.6056
G0 Z1.0
G1 F300.0 Z-4.0
G2 F1000.0 X246.6953 Y160.6126 I374.1091 J3.2372
G3 X247.4844 Y160.193 I1.6446 J2.1413
G3 X246.7208 Y159.6196 I25.4969 J-34.7539
G3 X246.7026 Y159.6056 I1.6435 J-2.1392
G0 Z3.0
G0 X246.8823 Y143.1903
G0 Z1.0
G1 F300.0 Z-4.0
G3 F1000.0 X247.2666 Y142.9802 I1.482 J2.2541
G3 X247.3058 Y142.9627 I29.1698 J65.4817
G3 X246.8661 Y142.7478 I0.9608 J-2.5233
G2 X246.8823 Y143.1903 I52.7998 J-1.7114
G1 F300.0 X245.6833 Y143.2392
G2 F1000.0 X245.6874 Y143.3376 I53.9826 J-2.2028
G3 X245.7626 Y145.278 I-37.9716 J2.4428
G3 X245.7627 Y145.3078 I-1.4999 J0.0198
G3 X245.6156 Y153.08 I-316.2984 J-2.0973
G2 X245.4941 Y160.8035 I375.1961 J9.7628
G2 X245.5185 Y167.5307 I1877.9798 J-3.4432
G3 X245.543 Y174.3241 I-1544.2172 J8.9514
G3 X245.5428 Y174.3491 I-1.5 J0.0021
G2 X245.9903 Y176.2828 I4.1295 J0.063
G2 X246.4381 Y176.8279 I1.4634 J-0.7456
G2 X246.8517 Y176.9523 I0.4025 J-0.5884
G3 X246.9029 Y176.9524 I0.0233 J1.4998
G2 X247.1201 Y176.9238 I0.0137 J-0.7356
G2 X247.2068 Y176.3785 I-1.4659 J-0.5127
G2 X247.1143 Y175.627 I-4.8104 J0.2112
G1 Y175.6271
G1 Y175.627
G3 X246.9632 Y174.3883 I7.6556 J-1.5622
G3 X246.9621 Y174.3467 I1.4987 J-0.0621
G1 X246.8888 Y169.0
G3 X246.8887 Y168.9913 I1.4999 J-0.0205
G1 X246.8399 Y162.7657
G3 X249.1971 Y161.523 I1.5 J-0.0118
G2 X252.9128 Y163.5047 I10.1902 J-14.6322
G3 X252.9253 Y163.5097 I-0.5447 J1.3976
G2 X256.0064 Y164.135 I3.2554 J-8.1371
G2 X260.0832 Y163.2771 I0.1279 J-9.5075
G2 X263.3252 Y160.6762 I-4.0407 J-8.3579
G3 X263.339 Y160.6591 I1.1767 J0.9302
G2 X265.4292 Y156.7816 I-9.0823 J-7.398
G2 X266.0782 Y152.3186 I-14.0836 J-4.3267
G3 Y152.2903 I1.4999 J-0.0139
G2 X265.3007 Y147.7506 I-12.9202 J-0.1237
G2 X262.8941 Y143.8814 I-10.9527 J4.1295
G3 X262.8719 Y143.8572 I1.0952 J-1.025
G2 X255.0848 Y140.4743 I-7.5762 J6.7856
G3 X255.0338 Y140.4745 I-0.0311 J-1.4997
G2 X248.9034 Y141.7976 I-0.1863 J14.0003
G3 X247.0016 Y141.2455 I-0.6368 J-1.3581
G2 X246.6173 Y140.8399 I-1.2409 J0.7907
G2 X246.3706 Y140.7676 I-0.2442 J0.3764
G3 X246.3402 Y140.7674 I-0.0083 J-1.5
G2 X245.8537 Y140.9695 I-0.0098 J0.6632
G3 X245.839 Y140.9845 I-1.0783 J-1.0428
G2 X245.6399 Y141.4899 I0.4861 J0.4834
G3 X245.6406 Y141.5245 I-1.4992 J0.0482
G2 X245.6833 Y143.2392 I54.0253 J-0.4881
G1 F300.0 X246.8823 Y143.1903
G1 Z-8.0
G3 F1000.0 X247.2666 Y142.9802 I1.482 J2.2541
G3 X247.3058 Y142.9627 I29.1698 J65.4817
G3 X246.8661 Y142.7478 I0.9608 J-2.5233
G2 X246.8823 Y143.1903 I52.7998 J-1.7114
G0 Z3.0
G0 X246.7026 Y159.6056
G0 Z-3.0
G1 F300.0 Z-8.0
G2 F1000.0 X246.6953 Y160.6126 I374.1091 J3.2372
G3 X247.4844 Y160.193 I1.6446 J2.1413
G3 X246.7208 Y159.6196 I25.4969 J-34.7539
G3 X246.7026 Y159.6056 I1.6435 J-2.1392
G1 F300.0 X245.5027 Y159.5952
G2 F1000.0 X245.4941 Y160.8035 I375.309 J3.2476
G2 X245.5185 Y167.5307 I1877.9798 J-3.4432
G3 X245.543 Y174.3241 I-1544.2172 J8.9514
G3 X245.5428 Y174.3491 I-1.5 J0.0021
G2 X245.9903 Y176.2828 I4.1295 J0.063
G2 X246.4381 Y176.8279 I1.4634 J-0.7456
G2 X246.8517 Y176.9523 I0.4025 J-0.5884
G3 X246.9029 Y176.9524 I0.0233 J1.4998
G2 X247.1201 Y176.9238 I0.0137 J-0.7356
G2 X247.2068 Y176.3785 I-1.4659 J-0.5127
G2 X247.1143 Y175.627 I-4.8104 J0.2112
G1 Y175.6271
G1 Y175.627
G3 X246.9632 Y174.3883 I7.6556 J-1.5622
G3 X246.9621 Y174.3467 I1.4987 J-0.0621
G1 X246.8888 Y169.0
G3 X246.8887 Y168.9913 I1.4999 J-0.0205
G1 X246.8399 Y162.7657
G3 X249.1971 Y161.523 I1.5 J-0.0118
G2 X252.9128 Y163.5047 I10.1902 J-14.6322
G3 X252.9253 Y163.5097 I-0.5447 J1.3976
G2 X256.0064 Y164.135 I3.2554 J-8.1371
G2 X260.0832 Y163.2771 I0.1279 J-9.5075
G2 X263.3252 Y160.6762 I-4.0407 J-8.3579
G3 X263.339 Y160.6591 I1.1767 J0.9302
G2 X265.4292 Y156.7816 I-9.0823 J-7.398
G2 X266.0782 Y152.3186 I-14.0836 J-4.3267
G3 Y152.2903 I1.4999 J-0.0139
G2 X265.3007 Y147.7506 I-12.9202 J-0.1237
G2 X262.8941 Y143.8814 I-10.9527 J4.1295
G3 X262.8719 Y143.8572 I1.0952 J-1.025
G2 X255.0848 Y140.4743 I-7.5762 J6.7856
G3 X255.0338 Y140.4745 I-0.0311 J-1.4997
G2 X248.9034 Y141.7976 I-0.1863 J14.0003
G3 X247.0016 Y141.2455 I-0.6368 J-1.3581
G2 X246.6173 Y140.8399 I-1.2409 J0.7907
G2 X246.3706 Y140.7676 I-0.2442 J0.3764
G3 X246.3402 Y140.7674 I-0.0083 J-1.5
G2 X245.8537 Y140.9695 I-0.0098 J0.6632
G3 X245.839 Y140.9845 I-1.0783 J-1.0428
G2 X245.6399 Y141.4899 I0.4861 J0.4834
G3 X245.6406 Y141.5245 I-1.4992 J0.0482
G2 X245.6874 Y143.3376 I54.0253 J-0.4881
G3 X245.7626 Y145.278 I-37.9716 J2.4428
G3 X245.7627 Y145.3078 I-1.4999 J0.0198
G3 X245.6156 Y153.08 I-316.2984 J-2.0973
G2 X245.5027 Y159.5952 I375.1961 J9.7628
G1 F300.0 X247.1579 Y158.3719
G3 F1000.0 X246.8644 Y157.4978 I1.2063 J-0.8915
G1 X246.8155 Y153.2742
G3 Y153.2472 I1.4999 J-0.0173
G1 X246.8399 Y149.4389
G1 X246.8643 Y145.4352
G3 X247.7539 Y144.0741 I1.5 J0.0091
G3 X251.1214 Y142.6772 I28.6825 J64.3877
G3 X251.2399 Y142.6372 I0.5387 J1.3999
G3 X255.0537 Y142.1132 I3.6715 J12.5806
G3 X258.8014 Y142.8293 I0.102 J9.6306
G3 X258.822 Y142.8379 I-0.5678 J1.3884
G3 X261.9808 Y145.1019 I-3.513 J8.2372
G3 X264.6349 Y152.3205 I-7.7121 J6.9328
G3 X264.167 Y155.8915 I-13.176 J0.0897
G3 X264.1656 Y155.8968 I-1.4467 J-0.3963
G3 X262.5149 Y159.2688 I-9.8759 J-2.7445
G3 X255.9438 Y162.52 I-6.3445 J-4.5567
G3 X251.1422 Y161.2036 I0.2152 J-10.1992
G3 X251.0965 Y161.1767 I0.7376 J-1.3061
G3 X247.4504 Y158.6699 I21.8848 J-35.7376
G3 X247.1579 Y158.3719 I0.9139 J-1.1895
G0 Z3.0
G0 X274.736 Y152.4442
G0 Z1.0
G1 F300.0 Z-4.0
G3 F1000.0 X274.6773 Y152.1632 I23.8524 J-5.1269
G3 X276.7917 Y150.5106 I1.4701 J-0.2979
G1 X284.2868 Y154.0751
G3 X284.2939 Y154.0785 I-0.6442 J1.3546
G3 X287.6229 Y155.8171 I-25.397 J52.6847
G3 X290.8791 Y157.9942 I-11.0089 J19.9888
G3 X290.9541 Y160.2716 I-0.9377 J1.1708
G3 X287.5972 Y162.1464 I-5.6503 J-6.1745
G3 X287.595 Y162.147 I-0.411 J-1.4426
G3 X284.0594 Y162.6183 I-3.3976 J-11.9915
G3 X277.9391 Y159.7469 I-0.1003 J-7.7444
G3 X275.8039 Y156.0402 I10.0349 J-8.2489
G3 X274.736 Y152.4442 I22.7845 J-8.7229
G0 Z3.0
G0 X274.7538 Y149.5555
G0 Z1.0
G1 F300.0 Z-4.0
G3 F1000.0 X274.8794 Y149.4843 I1.3936 J2.3097
G3 X274.7629 Y149.3859 I1.6831 J-2.1112
G2 X274.7538 Y149.5555 I9.5194 J0.5962
G1 F300.0 X273.555 Y149.5018
G2 F1000.0 X273.5457 Y150.1563 I10.7273 J0.4802
G3 X273.5458 Y150.1935 I-1.4998 J0.0243
G2 X274.19 Y155.3642 I19.7163 J0.1694
G2 X276.3447 Y159.9563 I13.758 J-3.6542
G3 X276.358 Y159.9752 I-1.2227 J0.8689
G2 X279.6924 Y162.9951 I8.0457 J-5.5329
G2 X284.0343 Y164.0129 I4.1993 J-8.1439
G3 X284.0682 Y164.0127 I0.0233 J1.4998
G2 X287.1872 Y163.7505 I0.1215 J-17.2364
G3 X287.1933 Y163.7494 I0.2609 J1.4771
G2 X289.9856 Y162.8127 I-1.6407 J-9.5206
G3 X289.9989 Y162.8059 I0.6883 J1.3328
G2 X291.7469 Y161.2414 I-2.0271 J-4.0234
G2 X292.3237 Y159.0049 I-3.662 J-2.1371
G3 X292.3233 Y158.9817 I1.4996 J-0.0352
G2 X291.7699 Y157.2913 I-2.9299 J0.0234
G2 X290.2216 Y155.7673 I-5.3348 J3.8717
G2 X287.8623 Y154.4196 I-11.7926 J17.9054
G3 X287.8452 Y154.4111 I0.66 J-1.347
G2 X285.254 Y153.1511 I-41.3187 J81.6763
G3 X285.2464 Y153.1475 I0.6347 J-1.3591
G1 X275.9202 Y148.7286
G3 X275.308 Y146.5507 I0.6423 J-1.3555
G3 X279.271 Y142.9869 I8.731 J5.7236
G3 X279.3104 Y142.9674 I0.6851 J1.3344
G3 X284.7478 Y141.7962 I5.1881 J10.8794
G3 X284.7573 Y141.7964 I-0.031 J1.4997
G3 X289.0817 Y142.4876 I-0.4505 J16.6935
G3 X291.3243 Y143.3145 I-3.4752 J12.8793
G3 X293.5928 Y145.1438 I-2.3057 J5.1806
G3 X293.6668 Y145.2549 I-1.21 J0.8865
G2 X294.1158 Y145.7996 I2.0761 J-1.2537
G3 X294.1362 Y145.8184 I-1.0064 J1.1123
G2 X294.194 Y145.8475 I0.0783 J-0.0834
G2 X294.584 Y145.664 I-0.036 J-0.5827
G3 X294.6983 Y145.5542 I1.0947 J1.0255
G2 X294.8623 Y145.1992 I-0.3096 J-0.3584
G2 X294.631 Y144.3203 I-1.8103 J0.0066
G2 X293.3566 Y143.0021 I-3.6261 J2.2305
G3 X293.3365 Y142.9886 I0.8286 J-1.2504
G2 X291.3939 Y141.9126 I-6.5853 J9.5981
G3 X291.361 Y141.8978 I0.5983 J-1.3755
G2 X284.6981 Y140.3768 I-6.9009 J14.8762
G2 X280.4063 Y140.9285 I-0.1628 J15.7031
G2 X276.7192 Y142.8063 I2.7349 J9.9287
G2 X274.297 Y146.0326 I5.134 J6.3769
G2 X273.555 Y149.5018 I9.9854 J3.9494
G1 F300.0 X274.7538 Y149.5555
G1 Z-8.0
G3 F1000.0 X274.8794 Y149.4843 I1.3936 J2.3097
G3 X274.7629 Y149.3859 I1.6831 J-2.1112
G2 X274.7538 Y149.5555 I9.5194 J0.5962
G1 F300.0 X273.555 Y149.5018
G2 F1000.0 X273.5457 Y150.1563 I10.7273 J0.4802
G3 X273.5458 Y150.1935 I-1.4998 J0.0243
G2 X274.19 Y155.3642 I19.7163 J0.1694
G2 X276.3447 Y159.9563 I13.758 J-3.6542
G3 X276.358 Y159.9752 I-1.2227 J0.8689
G2 X279.6924 Y162.9951 I8.0457 J-5.5329
G2 X284.0343 Y164.0129 I4.1993 J-8.1439
G3 X284.0682 Y164.0127 I0.0233 J1.4998
G2 X287.1872 Y163.7505 I0.1215 J-17.2364
G3 X287.1933 Y163.7494 I0.2609 J1.4771
G2 X289.9856 Y162.8127 I-1.6407 J-9.5206
G3 X289.9989 Y162.8059 I0.6883 J1.3328
G2 X291.7469 Y161.2414 I-2.0271 J-4.0234
G2 X292.3237 Y159.0049 I-3.662 J-2.1371
G3 X292.3233 Y158.9817 I1.4996 J-0.0352
G2 X291.7699 Y157.2913 I-2.9299 J0.0234
G2 X290.2216 Y155.7673 I-5.3348 J3.8717
G2 X287.8623 Y154.4196 I-11.7926 J17.9054
G3 X287.8452 Y154.4111 I0.66 J-1.347
G2 X285.254 Y153.1511 I-41.3187 J81.6763
G3 X285.2464 Y153.1475 I0.6347 J-1.3591
G1 X275.9202 Y148.7286
G3 X275.308 Y146.5507 I0.6423 J-1.3555
G3 X279.271 Y142.9869 I8.731 J5.7236
G3 X279.3104 Y142.9674 I0.6851 J1.3344
G3 X284.7478 Y141.7962 I5.1881 J10.8794
G3 X284.7573 Y141.7964 I-0.031 J1.4997
G3 X289.0817 Y142.4876 I-0.4505 J16.6935
G3 X291.3243 Y143.3145 I-3.4752 J12.8793
G3 X293.5928 Y145.1438 I-2.3057 J5.1806
G3 X293.6668 Y145.2549 I-1.21 J0.8865
G2 X294.1158 Y145.7996 I2.0761 J-1.2537
G3 X294.1362 Y145.8184 I-1.0064 J1.1123
G2 X294.194 Y145.8475 I0.0783 J-0.0834
G2 X294.584 Y145.664 I-0.036 J-0.5827
G3 X294.6983 Y145.5542 I1.0947 J1.0255
G2 X294.8623 Y145.1992 I-0.3096 J-0.3584
G2 X294.631 Y144.3203 I-1.8103 J0.0066
G2 X293.3566 Y143.0021 I-3.6261 J2.2305
G3 X293.3365 Y142.9886 I0.8286 J-1.2504
G2 X291.3939 Y141.9126 I-6.5853 J9.5981
G3 X291.361 Y141.8978 I0.5983 J-1.3755
G2 X284.6981 Y140.3768 I-6.9009 J14.8762
G2 X280.4063 Y140.9285 I-0.1628 J15.7031
G2 X276.7192 Y142.8063 I2.7349 J9.9287
G2 X274.297 Y146.0326 I5.134 J6.3769
G2 X273.555 Y149.5018 I9.9854 J3.9494
G1 F300.0 X275.039 Y150.8547
G3 F1000.0 X276.7917 Y150.5106 I1.1085 J1.0106
G1 X284.2868 Y154.0751
G3 X284.2939 Y154.0785 I-0.6442 J1.3546
G3 X287.6229 Y155.8171 I-25.397 J52.6847
G3 X290.8791 Y157.9942 I-11.0089 J19.9888
G3 X290.9541 Y160.2716 I-0.9377 J1.1708
G3 X287.5972 Y162.1464 I-5.6503 J-6.1745
G3 X287.595 Y162.147 I-0.411 J-1.4426
G3 X284.0594 Y162.6183 I-3.3976 J-11.9915
G3 X277.9391 Y159.7469 I-0.1003 J-7.7444
G3 X275.8039 Y156.0402 I10.0349 J-8.2489
G3 X274.6773 Y152.1632 I22.7845 J-8.7229
G3 X275.039 Y150.8547 I1.4701 J-0.2979
G0 Z3.0
G0 X327.372 Y164.9357
G0 Z1.0
G1 F300.0 Z-4.0
G3 F1000.0 X327.4366 Y164.9636 I-10.4092 J24.2084
G2 X328.2388 Y165.1693 I1.0512 J-2.4313
G3 X328.2963 Y164.4655 I14.096 J0.7976
G3 X327.372 Y164.9357 I-1.6636 J-2.1266
G1 F300.0 X326.898 Y166.0381
G3 F1000.0 X326.96 Y166.0648 I-9.9352 J23.106
G2 X328.5232 Y166.3809 I1.5279 J-3.5326
G3 X328.5919 Y166.3819 I0.0138 J1.4999
G2 X329.1719 Y166.1501 I0.0283 J-0.7711
G2 X329.4307 Y165.4746 I-0.6572 J-0.6391
G3 X329.4313 Y165.3425 I1.4988 J-0.0596
G3 X329.7628 Y162.9947 I12.9035 J0.6244
G3 X329.7695 Y162.9673 I1.4598 J0.3451
G2 X330.0414 Y161.1974 I-8.8093 J-2.2588
G2 X329.7823 Y160.5296 I-0.9162 J-0.0288
G2 X329.2022 Y160.2978 I-0.5518 J0.5395
G3 X329.1133 Y160.2984 I-0.0549 J-1.499
G2 X328.6515 Y160.3781 I-0.0276 J1.2188
G2 X328.5837 Y160.4295 I0.0864 J0.1844
G2 X328.3323 Y161.2542 I3.1886 J1.4223
G3 X328.325 Y161.2933 I-1.4779 J-0.2568
G2 X328.1202 Y162.5321 I17.758 J3.5725
G3 X326.239 Y163.7863 I-1.4875 J-0.1933
G3 X320.517 Y162.0523 I27.3422 J-100.5375
G3 X320.4668 Y162.0346 I0.476 J-1.4225
G3 X317.5788 Y160.4665 I4.1606 J-11.1067
G3 X317.565 Y160.4562 I0.8914 J-1.2064
G3 X316.2095 Y159.0052 I3.5121 J-4.6398
G3 X316.2039 Y158.9967 I1.2547 J-0.822
G3 X315.5381 Y156.7929 I3.5022 J-2.2606
G3 X316.5163 Y155.3661 I1.4999 J-0.0204
G3 X318.218 Y154.9046 I3.3972 J9.1588
G3 X318.2235 Y154.9037 I0.2603 J1.4772
G2 X322.3533 Y153.9415 I-6.2034 J-35.9697
G3 X322.3703 Y153.9366 I0.4246 J1.4386
G2 X326.0454 Y152.3433 I-4.0789 J-14.4441
G2 X328.5027 Y149.754 I-3.7078 J-5.9794
G2 X329.3078 Y146.2308 I-6.6614 J-3.3757
G3 Y146.1692 I1.4997 J-0.0296
G2 X328.6439 Y143.4535 I-5.4129 J-0.1156
G2 X326.6322 Y141.5041 I-4.6817 J2.8184
G3 X326.6243 Y141.4996 I0.7329 J-1.3088
G2 X323.5685 Y140.3623 I-5.047 J8.8866
G3 X323.5656 Y140.3617 I0.2923 J-1.4713
G2 X320.1497 Y140.0351 I-3.2918 J16.402
G3 X320.1322 I-0.0111 J-1.5
G2 X314.5531 Y141.0171 I-0.067 J15.9602
G3 X314.5138 Y141.0309 I-0.518 J-1.4077
G2 X312.488 Y142.1093 I2.2389 J6.6482
G2 X311.9387 Y142.7526 I1.4343 J1.7806
G2 X311.7752 Y143.4093 I1.2051 J0.6488
G3 X311.7753 Y143.4178 I-1.5 J0.0087
G2 X312.0403 Y144.0163 I0.8085 J-0.0001
G3 X312.0913 Y144.0648 I-1.0082 J1.1106
G2 X312.7166 Y144.3556 I0.7126 J-0.7146
G2 X312.9388 Y144.2513 I-0.1173 J-0.5388
G3 X312.991 Y144.2124 I0.9235 J1.182
G2 X313.6822 Y143.627 I-3.1798 J-4.4554
G3 X313.8205 Y143.5047 I1.0608 J1.0605
G3 X315.6202 Y142.6244 I2.9912 J3.835
G3 X317.111 Y142.284 I3.9139 J13.7068
G3 X320.1068 Y141.9671 I3.375 J17.5908
G3 X320.1152 Y141.967 I0.0318 J1.4997
G3 X324.1663 Y142.5135 I0.2131 J13.7089
G3 X326.1545 Y143.4935 I-1.6762 J5.9077
G3 X327.5223 Y146.185 I-1.997 J2.7081
G3 X325.4246 Y150.4812 I-5.2602 J0.0919
G3 X323.5989 Y151.5368 I-4.8949 J-6.3589
G3 X321.7424 Y152.1498 I-4.88 J-11.6618
G3 X321.7076 Y152.158 I-0.3587 J-1.4565
G1 X319.1685 Y152.7195
G3 X319.1562 Y152.7222 I-0.3239 J-1.4646
G2 X316.9241 Y153.3153 I4.7544 J22.3881
G3 X316.9002 Y153.3227 I-0.4579 J-1.4284
G2 X315.0548 Y154.1683 I2.1644 J7.1601
G2 X314.0774 Y155.3264 I1.6049 J2.3459
G2 X313.7525 Y157.0114 I3.7861 J1.6039
G3 X313.7522 Y157.0829 I-1.4997 J0.0296
G2 X314.7272 Y160.6142 I6.2498 J0.1747
G2 X317.64 Y162.9321 I5.5352 J-3.9668
G3 X317.654 Y162.938 I-0.5776 J1.3843
G2 X319.827 Y163.7401 I8.8122 J-20.5301
G3 X319.8367 Y163.7431 I-0.4458 J1.4322
G2 X322.1519 Y164.4338 I19.7289 J-61.9081
G3 X322.1622 Y164.4367 I-0.402 J1.4451
G3 X324.5378 Y165.1604 I-19.7872 J69.2087
G3 X326.898 Y166.0381 I-7.575 J23.9836
G1 F300.0 X327.372 Y164.9357
G1 Z-8.0
G3 F1000.0 X327.4366 Y164.9636 I-10.4092 J24.2084
G2 X328.2388 Y165.1693 I1.0512 J-2.4313
G3 X328.2963 Y164.4655 I14.096 J0.7976
G3 X327.372 Y164.9357 I-1.6636 J-2.1266
G1 F300.0 X326.898 Y166.0381
G3 F1000.0 X326.96 Y166.0648 I-9.9352 J23.106
G2 X328.5232 Y166.3809 I1.5279 J-3.5326
G3 X328.5919 Y166.3819 I0.0138 J1.4999
G2 X329.1719 Y166.1501 I0.0283 J-0.7711
G2 X329.4307 Y165.4746 I-0.6572 J-0.6391
G3 X329.4313 Y165.3425 I1.4988 J-0.0596
G3 X329.7628 Y162.9947 I12.9035 J0.6244
G3 X329.7695 Y162.9673 I1.4598 J0.3451
G2 X330.0414 Y161.1974 I-8.8093 J-2.2588
G2 X329.7823 Y160.5296 I-0.9162 J-0.0288
G2 X329.2022 Y160.2978 I-0.5518 J0.5395
G3 X329.1133 Y160.2984 I-0.0549 J-1.499
G2 X328.6515 Y160.3781 I-0.0276 J1.2188
G2 X328.5837 Y160.4295 I0.0864 J0.1844
G2 X328.3323 Y161.2542 I3.1886 J1.4223
G3 X328.325 Y161.2933 I-1.4779 J-0.2568
G2 X328.1202 Y162.5321 I17.758 J3.5725
G3 X326.239 Y163.7863 I-1.4875 J-0.1933
G3 X320.517 Y162.0523 I27.3422 J-100.5375
G3 X320.4668 Y162.0346 I0.476 J-1.4225
G3 X317.5788 Y160.4665 I4.1606 J-11.1067
G3 X317.565 Y160.4562 I0.8914 J-1.2064
G3 X316.2095 Y159.0052 I3.5121 J-4.6398
G3 X316.2039 Y158.9967 I1.2547 J-0.822
G3 X315.5381 Y156.7929 I3.5022 J-2.2606
G3 X316.5163 Y155.3661 I1.4999 J-0.0204
G3 X318.218 Y154.9046 I3.3972 J9.1588
G3 X318.2235 Y154.9037 I0.2603 J1.4772
G2 X322.3533 Y153.9415 I-6.2034 J-35.9697
G3 X322.3703 Y153.9366 I0.4246 J1.4386
G2 X326.0454 Y152.3433 I-4.0789 J-14.4441
G2 X328.5027 Y149.754 I-3.7078 J-5.9794
G2 X329.3078 Y146.2308 I-6.6614 J-3.3757
G3 Y146.1692 I1.4997 J-0.0296
G2 X328.6439 Y143.4535 I-5.4129 J-0.1156
G2 X326.6322 Y141.5041 I-4.6817 J2.8184
G3 X326.6243 Y141.4996 I0.7329 J-1.3088
G2 X323.5685 Y140.3623 I-5.047 J8.8866
G3 X323.5656 Y140.3617 I0.2923 J-1.4713
G2 X320.1497 Y140.0351 I-3.2918 J16.402
G3 X320.1322 I-0.0111 J-1.5
G2 X314.5531 Y141.0171 I-0.067 J15.9602
G3 X314.5138 Y141.0309 I-0.518 J-1.4077
G2 X312.488 Y142.1093 I2.2389 J6.6482
G2 X311.9387 Y142.7526 I1.4343 J1.7806
G2 X311.7752 Y143.4093 I1.2051 J0.6488
G3 X311.7753 Y143.4178 I-1.5 J0.0087
G2 X312.0403 Y144.0163 I0.8085 J-0.0001
G3 X312.0913 Y144.0648 I-1.0082 J1.1106
G2 X312.7166 Y144.3556 I0.7126 J-0.7146
G2 X312.9388 Y144.2513 I-0.1173 J-0.5388
G3 X312.991 Y144.2124 I0.9235 J1.182
G2 X313.6822 Y143.627 I-3.1798 J-4.4554
G3 X313.8205 Y143.5047 I1.0608 J1.0605
G3 X315.6202 Y142.6244 I2.9912 J3.835
G3 X317.111 Y142.284 I3.9139 J13.7068
G3 X320.1068 Y141.9671 I3.375 J17.5908
G3 X320.1152 Y141.967 I0.0318 J1.4997
G3 X324.1663 Y142.5135 I0.2131 J13.7089
G3 X326.1545 Y143.4935 I-1.6762 J5.9077
G3 X327.5223 Y146.185 I-1.997 J2.7081
G3 X325.4246 Y150.4812 I-5.2602 J0.0919
G3 X323.5989 Y151.5368 I-4.8949 J-6.3589
G3 X321.7424 Y152.1498 I-4.88 J-11.6618
G3 X321.7076 Y152.158 I-0.3587 J-1.4565
G1 X319.1685 Y152.7195
G3 X319.1562 Y152.7222 I-0.3239 J-1.4646
G2 X316.9241 Y153.3153 I4.7544 J22.3881
G3 X316.9002 Y153.3227 I-0.4579 J-1.4284
G2 X315.0548 Y154.1683 I2.1644 J7.1601
G2 X314.0774 Y155.3264 I1.6049 J2.3459
G2 X313.7525 Y157.0114 I3.7861 J1.6039
G3 X313.7522 Y157.0829 I-1.4997 J0.0296
G2 X314.7272 Y160.6142 I6.2498 J0.1747
G2 X317.64 Y162.9321 I5.5352 J-3.9668
G3 X317.654 Y162.938 I-0.5776 J1.3843
G2 X319.827 Y163.7401 I8.8122 J-20.5301
G3 X319.8367 Y163.7431 I-0.4458 J1.4322
G2 X322.1519 Y164.4338 I19.7289 J-61.9081
G3 X322.1622 Y164.4367 I-0.402 J1.4451
G3 X324.5378 Y165.1604 I-19.7872 J69.2087
G3 X326.898 Y166.0381 I-7.575 J23.9836
G0 Z3.0
G0 X340.5818 Y162.7218
G0 Z1.0
G1 F300.0 Z-4.0
G2 F1000.0 X340.6422 Y162.8521 I0.3576 J-0.0867
G2 X340.7994 Y162.9011 I0.1492 J-0.2022
G3 X340.943 Y162.9014 I0.0667 J2.0989
G2 X341.0715 Y162.8504 I0.0063 J-0.1715
G2 X341.1603 Y162.6176 I-0.2276 J-0.2202
G3 X341.1587 Y162.5528 I2.0983 J-0.0834
G2 X340.9206 Y156.9572 I-83.2479 J0.7393
G3 X340.6704 Y151.1023 I85.9953 J-6.6075
G3 Y151.0716 I2.0999 J-0.0183
G3 X340.7444 Y146.6318 I206.0931 J1.2144
G3 X340.745 Y146.6122 I2.0992 J0.0576
G2 X340.8413 Y142.3028 I-148.869 J-5.4824
G3 X340.8427 Y142.2411 I2.0999 J0.0165
G2 X340.7708 Y142.0215 I-0.3329 J-0.0124
G2 X340.6341 Y141.9762 I-0.1283 J0.1582
G3 X340.4819 Y141.9769 I-0.0854 J-2.0983
G2 X340.3212 Y142.0285 I-0.008 J0.2511
G2 X340.2547 Y142.2411 I0.2664 J0.2001
G3 X340.2561 Y142.3354 I-2.0985 J0.0783
G3 X340.1574 Y146.7572 I-150.744 J-1.1515
G2 X340.0853 Y151.0808 I200.2346 J5.5024
G2 X340.3232 Y156.6362 I82.2641 J-0.7404
G3 X340.3233 Y156.6371 I-2.0938 J0.1607
G3 X340.5734 Y162.5155 I-87.2322 J6.6565
G3 X340.5717 Y162.6201 I-2.0999 J0.0187
G2 X340.5818 Y162.7218 I0.3677 J0.0151
G1 F300.0 X339.9987 Y162.8631
G2 F1000.0 X340.2111 Y163.2728 I0.9407 J-0.228
G2 X340.8184 Y163.5008 I0.5803 J-0.6229
G3 X340.921 Y163.501 I0.0476 J1.4992
G2 X341.501 Y163.2693 I0.0283 J-0.7711
G2 X341.7598 Y162.5938 I-0.6572 J-0.6391
G3 X341.7587 Y162.5475 I1.4988 J-0.0596
G2 X341.5189 Y156.9114 I-83.8479 J0.7447
G3 X341.2704 Y151.0971 I85.3971 J-6.5617
G3 Y151.0751 I1.4999 J-0.0131
G3 X341.3442 Y146.6483 I205.4931 J1.2108
G3 X341.3446 Y146.6342 I1.4994 J0.0412
G2 X341.4413 Y142.3075 I-149.4685 J-5.5045
G3 X341.4423 Y142.2634 I1.5 J0.0118
G2 X341.202 Y141.6028 I-0.9325 J-0.0348
G2 X340.6097 Y141.3767 I-0.5596 J0.5769
G3 X340.501 Y141.3772 I-0.061 J-1.4988
G2 X339.891 Y141.6077 I-0.0271 J0.8508
G2 X339.6551 Y142.2634 I0.6966 J0.6209
G3 X339.6561 Y142.3308 I-1.499 J0.0559
G3 X339.5577 Y146.7378 I-150.144 J-1.147
G2 X339.4853 Y151.0817 I200.8343 J5.5217
G2 X339.725 Y156.6821 I82.8641 J-0.7414
G3 Y156.6827 I-1.4956 J0.1148
G3 X339.9734 Y162.5208 I-86.634 J6.6109
G3 X339.9722 Y162.5956 I-1.4999 J0.0133
G2 X339.9987 Y162.8631 I0.9671 J0.0396
G1 F300.0 X340.5818 Y162.7218
G1 Z-8.0
G2 F1000.0 X340.6422 Y162.8521 I0.3576 J-0.0867
G2 X340.7994 Y162.9011 I0.1492 J-0.2022
G3 X340.943 Y162.9014 I0.0667 J2.0989
G2 X341.0715 Y162.8504 I0.0063 J-0.1715
G2 X341.1603 Y162.6176 I-0.2276 J-0.2202
G3 X341.1587 Y162.5528 I2.0983 J-0.0834
G2 X340.9206 Y156.9572 I-83.2479 J0.7393
G3 X340.6704 Y151.1023 I85.9953 J-6.6075
G3 Y151.0716 I2.0999 J-0.0183
G3 X340.7444 Y146.6318 I206.0931 J1.2144
G3 X340.745 Y146.6122 I2.0992 J0.0576
G2 X340.8413 Y142.3028 I-148.869 J-5.4824
G3 X340.8427 Y142.2411 I2.0999 J0.0165
G2 X340.7708 Y142.0215 I-0.3329 J-0.0124
G2 X340.6341 Y141.9762 I-0.1283 J0.1582
G3 X340.4819 Y141.9769 I-0.0854 J-2.0983
G2 X340.3212 Y142.0285 I-0.008 J0.2511
G2 X340.2547 Y142.2411 I0.2664 J0.2001
G3 X340.2561 Y142.3354 I-2.0985 J0.0783
G3 X340.1574 Y146.7572 I-150.744 J-1.1515
G2 X340.0853 Y151.0808 I200.2346 J5.5024
G2 X340.3232 Y156.6362 I82.2641 J-0.7404
G3 X340.3233 Y156.6371 I-2.0938 J0.1607
G3 X340.5734 Y162.5155 I-87.2322 J6.6565
G3 X340.5717 Y162.6201 I-2.0999 J0.0187
G2 X340.5818 Y162.7218 I0.3677 J0.0151
G1 F300.0 X339.9987 Y162.8631
G2 F1000.0 X340.2111 Y163.2728 I0.9407 J-0.228
G2 X340.8184 Y163.5008 I0.5803 J-0.6229
G3 X340.921 Y163.501 I0.0476 J1.4992
G2 X341.501 Y163.2693 I0.0283 J-0.7711
G2 X341.7598 Y162.5938 I-0.6572 J-0.6391
G3 X341.7587 Y162.5475 I1.4988 J-0.0596
G2 X341.5189 Y156.9114 I-83.8479 J0.7447
G3 X341.2704 Y151.0971 I85.3971 J-6.5617
G3 Y151.0751 I1.4999 J-0.0131
G3 X341.3442 Y146.6483 I205.4931 J1.2108
G3 X341.3446 Y146.6342 I1.4994 J0.0412
G2 X341.4413 Y142.3075 I-149.4685 J-5.5045
G3 X341.4423 Y142.2634 I1.5 J0.0118
G2 X341.202 Y141.6028 I-0.9325 J-0.0348
G2 X340.6097 Y141.3767 I-0.5596 J0.5769
G3 X340.501 Y141.3772 I-0.061 J-1.4988
G2 X339.891 Y141.6077 I-0.0271 J0.8508
G2 X339.6551 Y142.2634 I0.6966 J0.6209
G3 X339.6561 Y142.3308 I-1.499 J0.0559
G3 X339.5577 Y146.7378 I-150.144 J-1.147
G2 X339.4853 Y151.0817 I200.8343 J5.5217
G2 X339.725 Y156.6821 I82.8641 J-0.7414
G3 Y156.6827 I-1.4956 J0.1148
G3 X339.9734 Y162.5208 I-86.634 J6.6109
G3 X339.9722 Y162.5956 I-1.4999 J0.0133
G2 X339.9987 Y162.8631 I0.9671 J0.0396
G0 Z3.0
G0 X341.623 Y173.6093
G0 Z1.0
G1 F300.0 Z-4.0
G2 F1000.0 X341.5615 Y173.6405 I0.0164 J0.1085
G3 X341.4907 Y173.7093 I-1.9162 J-1.9022
G3 Y173.7712 I-2.6998 J0.031
G3 X341.5615 Y173.84 I-1.8453 J1.971
G2 X341.6407 Y173.8724 I0.0779 J-0.0773
G3 X341.7133 Y173.8726 I0.031 J2.6998
G2 X341.734 Y173.864 I0.0004 J-0.0283
G3 X341.8284 Y173.7712 I1.9397 J1.8782
G3 Y173.7093 I2.6998 J-0.031
G3 X341.734 Y173.6165 I1.8453 J-1.971
G2 X341.7133 Y173.6079 I-0.0203 J0.0197
G3 X341.6407 Y173.608 I-0.0415 J-2.6997
G2 X341.623 Y173.6093 I-0.0013 J0.1098
G1 F300.0 X341.4437 Y172.4227
G2 F1000.0 X340.7099 Y172.795 I0.1958 J1.2951
G3 X340.6687 Y172.835 I-1.0645 J-1.0568
G2 X340.2907 Y173.7205 I0.8117 J0.8699
G3 Y173.7599 I-1.4999 J0.0197
G2 X340.6687 Y174.6455 I1.1898 J0.0156
G3 X340.7099 Y174.6854 I-1.0234 J1.0967
G2 X341.6545 Y175.0724 I0.9295 J-0.9228
G3 X341.6948 I0.0172 J1.4999
G2 X342.5961 Y174.6987 I0.0189 J-1.2282
G3 X342.6503 Y174.6455 I1.0776 J1.0435
G2 X343.0283 Y173.7599 I-0.8117 J-0.8699
G3 Y173.7205 I1.4999 J-0.0197
G2 X342.6503 Y172.835 I-1.1898 J-0.0156
G3 X342.5961 Y172.7817 I1.0234 J-1.0967
G2 X341.6948 Y172.408 I-0.8824 J0.8544
G3 X341.6545 Y172.4081 I-0.0231 J-1.4998
G2 X341.4437 Y172.4227 I-0.015 J1.3097
G1 F300.0 X341.623 Y173.6093
G1 Z-8.0
G2 F1000.0 X341.5615 Y173.6405 I0.0164 J0.1085
G3 X341.4907 Y173.7093 I-1.9162 J-1.9022
G3 Y173.7712 I-2.6998 J0.031
G3 X341.5615 Y173.84 I-1.8453 J1.971
G2 X341.6407 Y173.8724 I0.0779 J-0.0773
G3 X341.7133 Y173.8726 I0.031 J2.6998
G2 X341.734 Y173.864 I0.0004 J-0.0283
G3 X341.8284 Y173.7712 I1.9397 J1.8782
G3 Y173.7093 I2.6998 J-0.031
G3 X341.734 Y173.6165 I1.8453 J-1.971
G2 X341.7133 Y173.6079 I-0.0203 J0.0197
G3 X341.6407 Y173.608 I-0.0415 J-2.6997
G2 X341.623 Y173.6093 I-0.0013 J0.1098
G1 F300.0 X341.4437 Y172.4227
G2 F1000.0 X340.7099 Y172.795 I0.1958 J1.2951
G3 X340.6687 Y172.835 I-1.0645 J-1.0568
G2 X340.2907 Y173.7205 I0.8117 J0.8699
G3 Y173.7599 I-1.4999 J0.0197
G2 X340.6687 Y174.6455 I1.1898 J0.0156
G3 X340.7099 Y174.6854 I-1.0234 J1.0967
G2 X341.6545 Y175.0724 I0.9295 J-0.9228
G3 X341.6948 I0.0172 J1.4999
G2 X342.5961 Y174.6987 I0.0189 J-1.2282
G3 X342.6503 Y174.6455 I1.0776 J1.0435
G2 X343.0283 Y173.7599 I-0.8117 J-0.8699
G3 Y173.7205 I1.4999 J-0.0197
G2 X342.6503 Y172.835 I-1.1898 J-0.0156
G3 X342.5961 Y172.7817 I1.0234 J-1.0967
G2 X341.6948 Y172.408 I-0.8824 J0.8544
G3 X341.6545 Y172.4081 I-0.0231 J-1.4998
G2 X341.4437 Y172.4227 I-0.015 J1.3097
( Tasche2 )
S1000
G0 Z3.0
G0 X61.7891 Y87.2363
G0 Z1.0
G1 F300.0 Z-4.0
G3 F1000.0 X61.845 Y87.2915 I-2.712 J2.8027
G2 X61.8693 Y87.3014 I0.0239 J-0.0237
G3 X61.9393 Y87.3013 I0.0448 J3.8997
G3 X62.0048 Y87.2363 I2.7775 J2.7378
G3 X61.9393 Y87.1714 I2.712 J-2.8027
G3 X61.8693 Y87.1712 I-0.0253 J-3.8999
G2 X61.845 Y87.1812 I-0.0004 J0.0337
G3 X61.7891 Y87.2363 I-2.7678 J-2.7476
G1 F300.0 X60.9547 Y88.0987
G3 F1000.0 X60.9933 Y88.1369 I-1.8775 J1.9404
G2 X61.883 Y88.5014 I0.8755 J-0.8692
G3 X61.9556 Y88.5015 I0.031 J2.6998
G2 X62.7771 Y88.1609 I0.0172 J-1.1195
G3 X62.8748 Y88.065 I1.9397 J1.8782
G2 X63.2133 Y87.2718 I-0.7271 J-0.7792
G3 Y87.2009 I2.6998 J-0.0355
G2 X62.8747 Y86.4076 I-1.0657 J-0.014
G3 X62.7771 Y86.3118 I1.8421 J-1.974
G2 X61.9556 Y85.9712 I-0.8043 J0.7788
G3 X61.883 Y85.9713 I-0.0415 J-2.6997
G2 X60.9933 Y86.3358 I-0.0142 J1.2336
G3 X60.9192 Y86.4076 I-1.9162 J-1.9022
G2 X60.5806 Y87.2008 I0.7271 J0.7792
G3 Y87.2718 I-2.6998 J0.0355
G2 X60.9192 Y88.065 I1.0657 J0.014
G3 X60.9547 Y88.0987 I-1.8421 J1.974
G1 F300.0 X60.1202 Y88.9611
G3 F1000.0 X60.1417 Y88.9823 I-1.0431 J1.078
G2 X61.8968 Y89.7013 I1.7272 J-1.7146
G3 X61.9371 I0.0172 J1.4999
G2 X63.6392 Y88.9956 I0.0357 J-2.3193
G3 X63.6934 Y88.9424 I1.0776 J1.0435
G2 X64.4132 Y87.256 I-1.5458 J-1.6566
G3 Y87.2166 I1.4999 J-0.0197
G2 X63.6934 Y85.5303 I-2.2656 J-0.0298
G3 X63.6392 Y85.477 I1.0234 J-1.0967
G2 X61.9371 Y84.7713 I-1.6664 J1.6136
G3 X61.8968 Y84.7714 I-0.0231 J-1.4998
G2 X60.1417 Y85.4904 I-0.028 J2.4335
G3 X60.1005 Y85.5303 I-1.0645 J-1.0568
G2 X59.3807 Y87.2166 I1.5458 J1.6566
G3 Y87.256 I-1.4999 J0.0197
G2 X60.1005 Y88.9424 I2.2656 J0.0298
G3 X60.1202 Y88.9611 I-1.0234 J1.0967
G0 Z3.0
G0 X61.7891 Y87.2363
G0 Z-3.0
G1 F300.0 Z-8.0
G3 F1000.0 X61.845 Y87.2915 I-2.712 J2.8027
G2 X61.8693 Y87.3014 I0.0239 J-0.0237
G3 X61.9393 Y87.3013 I0.0448 J3.8997
G3 X62.0048 Y87.2363 I2.7775 J2.7378
G3 X61.9393 Y87.1714 I2.712 J-2.8027
G3 X61.8693 Y87.1712 I-0.0253 J-3.8999
G2 X61.845 Y87.1812 I-0.0004 J0.0337
G3 X61.7891 Y87.2363 I-2.7678 J-2.7476
G1 F300.0 X60.9547 Y88.0987
G3 F1000.0 X60.9933 Y88.1369 I-1.8775 J1.9404
G2 X61.883 Y88.5014 I0.8755 J-0.8692
G3 X61.9556 Y88.5015 I0.031 J2.6998
G2 X62.7771 Y88.1609 I0.0172 J-1.1195
G3 X62.8748 Y88.065 I1.9397 J1.8782
G2 X63.2133 Y87.2718 I-0.7271 J-0.7792
G3 Y87.2009 I2.6998 J-0.0355
G2 X62.8747 Y86.4076 I-1.0657 J-0.014
G3 X62.7771 Y86.3118 I1.8421 J-1.974
G2 X61.9556 Y85.9712 I-0.8043 J0.7788
G3 X61.883 Y85.9713 I-0.0415 J-2.6997
G2 X60.9933 Y86.3358 I-0.0142 J1.2336
G3 X60.9192 Y86.4076 I-1.9162 J-1.9022
G2 X60.5806 Y87.2008 I0.7271 J0.7792
G3 Y87.2718 I-2.6998 J0.0355
G2 X60.9192 Y88.065 I1.0657 J0.014
G3 X60.9547 Y88.0987 I-1.8421 J1.974
G1 F300.0 X60.1202 Y88.9611
G3 F1000.0 X60.1417 Y88.9823 I-1.0431 J1.078
G2 X61.8968 Y89.7013 I1.7272 J-1.7146
G3 X61.9371 I0.0172 J1.4999
G2 X63.6392 Y88.9956 I0.0357 J-2.3193
G3 X63.6934 Y88.9424 I1.0776 J1.0435
G2 X64.4132 Y87.256 I-1.5458 J-1.6566
G3 Y87.2166 I1.4999 J-0.0197
G2 X63.6934 Y85.5303 I-2.2656 J-0.0298
G3 X63.6392 Y85.477 I1.0234 J-1.0967
G2 X61.9371 Y84.7713 I-1.6664 J1.6136
G3 X61.8968 Y84.7714 I-0.0231 J-1.4998
G2 X60.1417 Y85.4904 I-0.028 J2.4335
G3 X60.1005 Y85.5303 I-1.0645 J-1.0568
G2 X59.3807 Y87.2166 I1.5458 J1.6566
G3 Y87.256 I-1.4999 J0.0197
G2 X60.1005 Y88.9424 I2.2656 J0.0298
G3 X60.1202 Y88.9611 I-1.0234 J1.0967
G0 Z3.0
G0 X60.734 Y71.7004
G0 Z1.0
G1 F300.0 Z-4.0
G3 F1000.0 X60.8364 I0.0521 J3.2996
G2 X60.8383 Y71.6789 I-0.0814 J-0.0181
G3 X60.8359 Y71.5772 I3.2974 J-0.1311
G2 X60.5036 Y63.7676 I-116.1871 J1.0319
G3 X60.1523 Y55.5464 I120.7524 J-9.278
G3 X60.1522 Y55.4981 I3.2999 J-0.0288
G3 X60.2559 Y49.2747 I288.8903 J1.7023
G3 X60.2569 Y49.2438 I3.2988 J0.0905
G2 X60.3915 Y43.2211 I-208.0568 J-7.6622
G3 X60.3935 Y43.1287 I3.2999 J0.026
G3 X60.2901 I-0.0517 J-3.2996
G3 X60.2921 Y43.2723 I-3.2979 J0.1184
G3 X60.1538 Y49.4716 I-211.4015 J-1.6149
G2 X60.053 Y55.5125 I279.9686 J7.6917
G2 X60.385 Y63.2631 I114.8097 J-1.036
G3 X60.3852 Y63.2645 I-3.2903 J0.2525
G3 X60.7364 Y71.5185 I-122.4841 J9.3465
G3 X60.7338 Y71.6829 I-3.2999 J0.0294
G2 X60.734 Y71.7004 I0.155 J0.0063
G1 F300.0 X60.7435 Y72.3003
G3 F1000.0 X60.885 Y72.3018 I0.0426 J2.6997
G2 X61.2455 Y72.1581 I0.0176 J-0.4799
G2 X61.4379 Y71.6551 I-0.4905 J-0.4759
G3 X61.4358 Y71.5718 I2.6979 J-0.1072
G2 X61.1018 Y63.7218 I-116.787 J1.0372
G3 X60.7523 Y55.5411 I120.1542 J-9.2322
G3 X60.7522 Y55.5017 I2.6999 J-0.0236
G3 X60.8557 Y49.2912 I288.2903 J1.6987
G3 X60.8565 Y49.2659 I2.699 J0.0741
G2 X60.9915 Y43.2258 I-208.6564 J-7.6842
G3 X60.9933 Y43.1464 I2.6999 J0.0213
G2 X60.8248 Y42.6617 I-0.7059 J-0.0263
G2 X60.4517 Y42.5269 I-0.3518 J0.39
G3 X60.256 Y42.5277 I-0.1099 J-2.6978
G2 X59.8512 Y42.6706 I-0.0188 J0.5914
G2 X59.6903 Y43.1464 I0.545 J0.4495
G3 X59.6921 Y43.2677 I-2.6981 J0.1006
G3 X59.5541 Y49.4523 I-210.8016 J-1.6103
G2 X59.453 Y55.5135 I280.5683 J7.7111
G2 X59.7868 Y63.309 I115.4097 J-1.037
G3 X59.7869 Y63.3102 I-2.6921 J0.2066
G3 X60.1364 Y71.5238 I-121.8858 J9.3009
G3 X60.1343 Y71.6583 I-2.6999 J0.024
G2 X60.3004 Y72.1626 I0.7545 J0.0309
G2 X60.7004 Y72.3014 I0.3812 J-0.4527
G3 X60.7435 Y72.3003 I0.0858 J2.6986
G1 F300.0 X60.7625 Y73.5002
G3 F1000.0 X60.8411 Y73.501 I0.0237 J1.4998
G2 X62.1047 Y72.9959 I0.0615 J-1.6791
G2 X62.6369 Y71.6074 I-1.3496 J-1.3136
G3 X62.6358 Y71.5612 I1.4988 J-0.0596
G2 X62.2983 Y63.6302 I-117.987 J1.0478
G3 X61.9522 Y55.5307 I118.9577 J-9.1406
G3 Y55.5087 I1.4999 J-0.0131
G3 X62.0553 Y49.3241 I287.0903 J1.6917
G3 X62.0557 Y49.31 I1.4994 J0.0412
G2 X62.1915 Y43.2353 I-209.8556 J-7.7284
G3 X62.1924 Y43.1912 I1.5 J0.0118
G2 X61.6884 Y41.8272 I-1.9051 J-0.0711
G2 X60.4028 Y41.3279 I-1.2153 J1.2245
G3 X60.2941 Y41.3283 I-0.061 J-1.4988
G2 X58.9907 Y41.8321 I-0.0569 J1.7908
G2 X58.4911 Y43.1912 I1.4056 J1.288
G3 X58.4921 Y43.2585 I-1.499 J0.0559
G3 X58.3547 Y49.4136 I-209.6016 J-1.6012
G2 X58.253 Y55.5153 I281.7677 J7.7497
G2 X58.5903 Y63.4008 I116.6098 J-1.0388
G3 X58.5904 Y63.4015 I-1.4956 J0.1148
G3 X58.9365 Y71.5345 I-120.6893 J9.2096
G3 X58.9353 Y71.6092 I-1.4999 J0.0133
G2 X59.4379 Y72.9997 I1.9535 J0.08
G2 X60.7385 Y73.5008 I1.2437 J-1.2899
G3 X60.7625 Y73.5002 I0.0476 J1.4992
G1 F300.0 X60.734 Y71.7004
G1 Z-8.0
G3 F1000.0 X60.8364 I0.0521 J3.2996
G2 X60.8383 Y71.6789 I-0.0814 J-0.0181
G3 X60.8359 Y71.5772 I3.2974 J-0.1311
G2 X60.5036 Y63.7676 I-116.1871 J1.0319
G3 X60.1523 Y55.5464 I120.7524 J-9.278
G3 X60.1522 Y55.4981 I3.2999 J-0.0288
G3 X60.2559 Y49.2747 I288.8903 J1.7023
G3 X60.2569 Y49.2438 I3.2988 J0.0905
G2 X60.3915 Y43.2211 I-208.0568 J-7.6622
G3 X60.3935 Y43.1287 I3.2999 J0.026
G3 X60.2901 I-0.0517 J-3.2996
G3 X60.2921 Y43.2723 I-3.2979 J0.1184
G3 X60.1538 Y49.4716 I-211.4015 J-1.6149
G2 X60.053 Y55.5125 I279.9686 J7.6917
G2 X60.385 Y63.2631 I114.8097 J-1.036
G3 X60.3852 Y63.2645 I-3.2903 J0.2525
G3 X60.7364 Y71.5185 I-122.4841 J9.3465
G3 X60.7338 Y71.6829 I-3.2999 J0.0294
G2 X60.734 Y71.7004 I0.155 J0.0063
G1 F300.0 X60.7435 Y72.3003
G3 F1000.0 X60.885 Y72.3018 I0.0426 J2.6997
G2 X61.2455 Y72.1581 I0.0176 J-0.4799
G2 X61.4379 Y71.6551 I-0.4905 J-0.4759
G3 X61.4358 Y71.5718 I2.6979 J-0.1072
G2 X61.1018 Y63.7218 I-116.787 J1.0372
G3 X60.7523 Y55.5411 I120.1542 J-9.2322
G3 X60.7522 Y55.5017 I2.6999 J-0.0236
G3 X60.8557 Y49.2912 I288.2903 J1.6987
G3 X60.8565 Y49.2659 I2.699 J0.0741
G2 X60.9915 Y43.2258 I-208.6564 J-7.6842
G3 X60.9933 Y43.1464 I2.6999 J0.0213
G2 X60.8248 Y42.6617 I-0.7059 J-0.0263
G2 X60.4517 Y42.5269 I-0.3518 J0.39
G3 X60.256 Y42.5277 I-0.1099 J-2.6978
G2 X59.8512 Y42.6706 I-0.0188 J0.5914
G2 X59.6903 Y43.1464 I0.545 J0.4495
G3 X59.6921 Y43.2677 I-2.6981 J0.1006
G3 X59.5541 Y49.4523 I-210.8016 J-1.6103
G2 X59.453 Y55.5135 I280.5683 J7.7111
G2 X59.7868 Y63.309 I115.4097 J-1.037
G3 X59.7869 Y63.3102 I-2.6921 J0.2066
G3 X60.1364 Y71.5238 I-121.8858 J9.3009
G3 X60.1343 Y71.6583 I-2.6999 J0.024
G2 X60.3004 Y72.1626 I0.7545 J0.0309
G2 X60.7004 Y72.3014 I0.3812 J-0.4527
G3 X60.7435 Y72.3003 I0.0858 J2.6986
G1 F300.0 X60.7625 Y73.5002
G3 F1000.0 X60.8411 Y73.501 I0.0237 J1.4998
G2 X62.1047 Y72.9959 I0.0615 J-1.6791
G2 X62.6369 Y71.6074 I-1.3496 J-1.3136
G3 X62.6358 Y71.5612 I1.4988 J-0.0596
G2 X62.2983 Y63.6302 I-117.987 J1.0478
G3 X61.9522 Y55.5307 I118.9577 J-9.1406
G3 Y55.5087 I1.4999 J-0.0131
G3 X62.0553 Y49.3241 I287.0903 J1.6917
G3 X62.0557 Y49.31 I1.4994 J0.0412
G2 X62.1915 Y43.2353 I-209.8556 J-7.7284
G3 X62.1924 Y43.1912 I1.5 J0.0118
G2 X61.6884 Y41.8272 I-1.9051 J-0.0711
G2 X60.4028 Y41.3279 I-1.2153 J1.2245
G3 X60.2941 Y41.3283 I-0.061 J-1.4988
G2 X58.9907 Y41.8321 I-0.0569 J1.7908
G2 X58.4911 Y43.1912 I1.4056 J1.288
G3 X58.4921 Y43.2585 I-1.499 J0.0559
G3 X58.3547 Y49.4136 I-209.6016 J-1.6012
G2 X58.253 Y55.5153 I281.7677 J7.7497
G2 X58.5903 Y63.4008 I116.6098 J-1.0388
G3 X58.5904 Y63.4015 I-1.4956 J0.1148
G3 X58.9365 Y71.5345 I-120.6893 J9.2096
G3 X58.9353 Y71.6092 I-1.4999 J0.0133
G2 X59.4379 Y72.9997 I1.9535 J0.08
G2 X60.7385 Y73.5008 I1.2437 J-1.2899
G3 X60.7625 Y73.5002 I0.0476 J1.4992
G0 Z3.0
G0 X78.9285 Y66.8305
G0 Z1.0
G1 F300.0 Z-4.0
G3 F1000.0 X80.3646 Y65.9922 I2.6389 J2.8716
G3 X80.251 Y65.8347 I14.1591 J-10.3341
G3 X78.9049 Y63.7343 I20.0215 J-14.3125
G1 Y65.1422
G2 X78.9285 Y66.8305 I125.702 J-0.9116
G1 F300.0 X79.7404 Y67.7141
G3 F1000.0 X83.4638 Y67.7803 I1.8269 J1.988
G2 X89.3432 Y71.8702 I14.7859 J-14.9844
G2 X96.1201 Y73.3254 I6.7294 J-14.8309
G3 X96.1836 Y73.326 I0.0079 J2.7
G2 X97.3196 Y73.0984 I0.0551 J-2.6741
G2 X97.9728 Y72.511 I-0.7783 J-1.5225
G2 X98.7065 Y70.4812 I-4.765 J-2.8699
G3 X98.7128 Y70.4422 I2.669 J0.4078
G2 X98.931 Y67.6753 I-15.6491 J-2.626
G3 X98.9309 Y67.6354 I2.6999 J-0.024
G2 X98.8983 Y65.3519 I-56.5219 J-0.3345
G3 X98.897 Y65.2971 I2.6984 J-0.0931
G2 X98.5193 Y63.7509 I-3.5611 J0.0506
G2 X98.3454 Y63.6812 I-0.1604 J0.1482
G3 X98.1292 Y63.6859 I-0.1667 J-2.6948
G2 X98.0088 Y63.6916 I-0.0169 J0.9196
G2 X97.9382 Y64.2956 I2.0495 J0.5455
G3 X97.9387 Y64.4259 I-2.699 J0.0745
G3 X97.8336 Y66.8981 I-56.7473 J-1.1737
G1 X97.7325 Y69.7302
G3 X94.7315 Y72.3168 I-2.6983 J-0.0964
G3 X89.6963 Y71.2382 I2.931 J-25.9762
G3 X84.8095 Y68.7832 I5.2469 J-16.5354
G3 X84.7748 Y68.7578 I1.5772 J-2.1915
G3 X81.2276 Y65.1374 I9.749 J-13.0997
G3 X78.8585 Y60.9838 I19.0448 J-13.6152
G3 X78.6281 Y59.8827 I2.4697 J-1.0912
G1 X78.6965 Y41.1523
G3 X78.6967 Y41.126 I2.7 J0.0099
G2 X78.6192 Y40.4891 I-2.3927 J-0.032
G2 X78.1114 Y40.4082 I-0.4592 J1.2484
G3 X77.9635 Y40.4095 I-0.0987 J-2.6982
G2 X77.7876 Y40.4216 I-0.0185 J1.0165
G2 X77.7038 Y41.0873 I2.1179 J0.6047
G3 X77.7049 Y41.1621 I-2.699 J0.0748
G1 Y65.1466
G2 X77.771 Y68.4279 I126.902 J-0.9159
G3 X77.8756 Y71.8954 I-88.1906 J4.3963
G3 X77.8713 Y72.0785 I-2.6999 J0.0284
G2 X77.9708 Y72.6843 I1.4042 J0.0806
G2 X77.9749 Y72.6841 I-0.0035 J-0.0991
G3 X78.2675 Y72.6773 I0.2087 J2.6919
G2 X78.2892 Y72.676 I0.0038 J-0.1215
G2 X78.633 Y71.9524 I-1.1219 J-0.9766
G3 X78.6525 Y71.8511 I2.6606 J0.4594
G2 X78.8675 Y69.7233 I-9.6605 J-2.0507
G3 X79.7404 Y67.7141 I2.6999 J-0.0211
G1 F300.0 X80.5524 Y68.5977
G3 F1000.0 X82.6209 Y68.6344 I1.015 J1.1045
G2 X88.8414 Y72.9602 I15.6288 J-15.8385
G2 X96.1236 Y74.5254 I7.2312 J-15.921
G3 X96.1588 Y74.5257 I0.0044 J1.5
G2 X97.8343 Y74.1827 I0.0798 J-3.8738
G2 X98.9904 Y73.1473 I-1.293 J-2.6069
G2 X99.8928 Y70.6625 I-5.7826 J-3.5062
G3 X99.8963 Y70.6408 I1.4828 J0.2266
G2 X100.1309 Y67.6647 I-16.8326 J-2.8246
G3 Y67.6425 I1.4999 J-0.0133
G2 X100.0976 Y65.3105 I-57.7219 J-0.3416
G3 X100.0968 Y65.2801 I1.4991 J-0.0517
G2 X99.5436 Y63.1192 I-4.7609 J0.0676
G2 X98.2713 Y62.4835 I-1.1847 J0.7799
G3 X98.1512 Y62.4861 I-0.0926 J-1.4971
G2 X97.4184 Y62.6025 I-0.0389 J2.1194
G2 X96.9548 Y63.0554 I0.2864 J0.757
G2 X96.7387 Y64.3287 I3.1035 J1.1817
G3 X96.7389 Y64.4011 I-1.4994 J0.0414
G3 X96.635 Y66.838 I-55.5475 J-1.1489
G1 X96.5332 Y69.6873
G3 X94.866 Y71.1243 I-1.499 J-0.0535
G3 X90.0606 Y70.0949 I2.7964 J-24.7838
G3 X85.5105 Y67.8093 I4.8826 J-15.392
G3 X85.4912 Y67.7951 I0.8762 J-1.2175
G3 X82.2043 Y64.4402 I9.0325 J-12.137
G3 X79.9561 Y60.4988 I18.0682 J-12.918
G3 X79.8281 Y59.8871 I1.372 J-0.6062
G1 X79.8965 Y41.1566
G3 X79.8966 Y41.1421 I1.5 J0.0055
G2 X79.7784 Y40.1787 I-3.5926 J-0.048
G3 X79.771 Y40.1497 I1.4505 J-0.3821
G2 X79.2817 Y39.4695 I-1.0813 J0.2619
G2 X78.0675 Y39.209 I-1.1217 J2.2679
G3 X77.9854 Y39.2097 I-0.0548 J-1.499
G2 X77.2219 Y39.3306 I-0.0403 J2.2163
G2 X76.7277 Y39.8104 I0.3012 J0.8048
G2 X76.5043 Y41.1205 I3.1779 J1.2159
G3 X76.5049 Y41.1621 I-1.4994 J0.0416
G1 Y65.1509
G2 X76.572 Y68.4777 I128.102 J-0.9203
G3 X76.6757 Y71.9081 I-86.9916 J4.3465
G3 X76.6733 Y72.0098 I-1.4999 J0.0158
G2 X77.0336 Y73.4886 I2.6022 J0.1493
G2 X78.0677 Y73.8805 I0.9336 J-0.9034
G3 X78.2302 Y73.8767 I0.1159 J1.4955
G2 X79.025 Y73.6413 I0.0411 J-1.321
G2 X79.8155 Y72.1566 I-1.8577 J-1.942
G3 X79.8264 Y72.1003 I1.4781 J0.2552
G2 X80.0674 Y69.7139 I-10.8344 J-2.2998
G3 X80.5524 Y68.5977 I1.5 J-0.0117
G0 Z3.0
G0 X78.9285 Y66.8305
G0 Z-3.0
G1 F300.0 Z-8.0
G3 F1000.0 X80.3646 Y65.9922 I2.6389 J2.8716
G3 X80.251 Y65.8347 I14.1591 J-10.3341
G3 X78.9049 Y63.7343 I20.0215 J-14.3125
G1 Y65.1422
G2 X78.9285 Y66.8305 I125.702 J-0.9116
G1 F300.0 X79.7404 Y67.7141
G3 F1000.0 X83.4638 Y67.7803 I1.8269 J1.988
G2 X89.3432 Y71.8702 I14.7859 J-14.9844
G2 X96.1201 Y73.3254 I6.7294 J-14.8309
G3 X96.1836 Y73.326 I0.0079 J2.7
G2 X97.3196 Y73.0984 I0.0551 J-2.6741
G2 X97.9728 Y72.511 I-0.7783 J-1.5225
G2 X98.7065 Y70.4812 I-4.765 J-2.8699
G3 X98.7128 Y70.4422 I2.669 J0.4078
G2 X98.931 Y67.6753 I-15.6491 J-2.626
G3 X98.9309 Y67.6354 I2.6999 J-0.024
G2 X98.8983 Y65.3519 I-56.5219 J-0.3345
G3 X98.897 Y65.2971 I2.6984 J-0.0931
G2 X98.5193 Y63.7509 I-3.5611 J0.0506
G2 X98.3454 Y63.6812 I-0.1604 J0.1482
G3 X98.1292 Y63.6859 I-0.1667 J-2.6948
G2 X98.0088 Y63.6916 I-0.0169 J0.9196
G2 X97.9382 Y64.2956 I2.0495 J0.5455
G3 X97.9387 Y64.4259 I-2.699 J0.0745
G3 X97.8336 Y66.8981 I-56.7473 J-1.1737
G1 X97.7325 Y69.7302
G3 X94.7315 Y72.3168 I-2.6983 J-0.0964
G3 X89.6963 Y71.2382 I2.931 J-25.9762
G3 X84.8095 Y68.7832 I5.2469 J-16.5354
G3 X84.7748 Y68.7578 I1.5772 J-2.1915
G3 X81.2276 Y65.1374 I9.749 J-13.0997
G3 X78.8585 Y60.9838 I19.0448 J-13.6152
G3 X78.6281 Y59.8827 I2.4697 J-1.0912
G1 X78.6965 Y41.1523
G3 X78.6967 Y41.126 I2.7 J0.0099
G2 X78.6192 Y40.4891 I-2.3927 J-0.032
G2 X78.1114 Y40.4082 I-0.4592 J1.2484
G3 X77.9635 Y40.4095 I-0.0987 J-2.6982
G2 X77.7876 Y40.4216 I-0.0185 J1.0165
G2 X77.7038 Y41.0873 I2.1179 J0.6047
G3 X77.7049 Y41.1621 I-2.699 J0.0748
G1 Y65.1466
G2 X77.771 Y68.4279 I126.902 J-0.9159
G3 X77.8756 Y71.8954 I-88.1906 J4.3963
G3 X77.8713 Y72.0785 I-2.6999 J0.0284
G2 X77.9708 Y72.6843 I1.4042 J0.0806
G2 X77.9749 Y72.6841 I-0.0035 J-0.0991
G3 X78.2675 Y72.6773 I0.2087 J2.6919
G2 X78.2892 Y72.676 I0.0038 J-0.1215
G2 X78.633 Y71.9524 I-1.1219 J-0.9766
G3 X78.6525 Y71.8511 I2.6606 J0.4594
G2 X78.8675 Y69.7233 I-9.6605 J-2.0507
G3 X79.7404 Y67.7141 I2.6999 J-0.0211
G1 F300.0 X80.5524 Y68.5977
G3 F1000.0 X82.6209 Y68.6344 I1.015 J1.1045
G2 X88.8414 Y72.9602 I15.6288 J-15.8385
G2 X96.1236 Y74.5254 I7.2312 J-15.921
G3 X96.1588 Y74.5257 I0.0044 J1.5
G2 X97.8343 Y74.1827 I0.0798 J-3.8738
G2 X98.9904 Y73.1473 I-1.293 J-2.6069
G2 X99.8928 Y70.6625 I-5.7826 J-3.5062
G3 X99.8963 Y70.6408 I1.4828 J0.2266
G2 X100.1309 Y67.6647 I-16.8326 J-2.8246
G3 Y67.6425 I1.4999 J-0.0133
G2 X100.0976 Y65.3105 I-57.7219 J-0.3416
G3 X100.0968 Y65.2801 I1.4991 J-0.0517
G2 X99.5436 Y63.1192 I-4.7609 J0.0676
G2 X98.2713 Y62.4835 I-1.1847 J0.7799
G3 X98.1512 Y62.4861 I-0.0926 J-1.4971
G2 X97.4184 Y62.6025 I-0.0389 J2.1194
G2 X96.9548 Y63.0554 I0.2864 J0.757
G2 X96.7387 Y64.3287 I3.1035 J1.1817
G3 X96.7389 Y64.4011 I-1.4994 J0.0414
G3 X96.635 Y66.838 I-55.5475 J-1.1489
G1 X96.5332 Y69.6873
G3 X94.866 Y71.1243 I-1.499 J-0.0535
G3 X90.0606 Y70.0949 I2.7964 J-24.7838
G3 X85.5105 Y67.8093 I4.8826 J-15.392
G3 X85.4912 Y67.7951 I0.8762 J-1.2175
G3 X82.2043 Y64.4402 I9.0325 J-12.137
G3 X79.9561 Y60.4988 I18.0682 J-12.918
G3 X79.8281 Y59.8871 I1.372 J-0.6062
G1 X79.8965 Y41.1566
G3 X79.8966 Y41.1421 I1.5 J0.0055
G2 X79.7784 Y40.1787 I-3.5926 J-0.048
G3 X79.771 Y40.1497 I1.4505 J-0.3821
G2 X79.2817 Y39.4695 I-1.0813 J0.2619
G2 X78.0675 Y39.209 I-1.1217 J2.2679
G3 X77.9854 Y39.2097 I-0.0548 J-1.499
G2 X77.2219 Y39.3306 I-0.0403 J2.2163
G2 X76.7277 Y39.8104 I0.3012 J0.8048
G2 X76.5043 Y41.1205 I3.1779 J1.2159
G3 X76.5049 Y41.1621 I-1.4994 J0.0416
G1 Y65.1509
G2 X76.572 Y68.4777 I128.102 J-0.9203
G3 X76.6757 Y71.9081 I-86.9916 J4.3465
G3 X76.6733 Y72.0098 I-1.4999 J0.0158
G2 X77.0336 Y73.4886 I2.6022 J0.1493
G2 X78.0677 Y73.8805 I0.9336 J-0.9034
G3 X78.2302 Y73.8767 I0.1159 J1.4955
G2 X79.025 Y73.6413 I0.0411 J-1.321
G2 X79.8155 Y72.1566 I-1.8577 J-1.942
G3 X79.8264 Y72.1003 I1.4781 J0.2552
G2 X80.0674 Y69.7139 I-10.8344 J-2.2998
G3 X80.5524 Y68.5977 I1.5 J-0.0117
G0 Z3.0
G0 X110.6616 Y60.8636
G0 Z1.0
G1 F300.0 Z-4.0
G2 F1000.0 X110.7365 Y61.1468 I20.0692 J-5.1551
G2 X113.3223 Y66.6116 I17.2656 J-4.8255
G3 X113.3681 Y66.6787 I-2.7022 J1.8942
G2 X117.8889 Y70.7925 I10.4633 J-6.9573
G2 X123.8916 Y72.1449 I5.7722 J-11.6232
G3 X124.0202 Y72.1451 I0.0586 J3.2995
G2 X128.299 Y71.026 I0.1714 J-8.0841
G2 X131.0829 Y68.1781 I-5.0508 J-7.722
G3 X128.8706 Y70.262 I-7.8176 J-6.083
G3 X128.7541 Y70.3384 I-1.866 J-2.7188
G3 X123.5124 Y71.8041 I-5.1076 J-8.1606
G3 X117.1479 Y70.0347 I-0.2146 J-11.5594
G3 X117.0634 Y69.9798 I1.7541 J-2.7924
G3 X112.7964 Y65.3227 I7.4802 J-11.137
G3 X110.1591 Y54.8946 I18.0496 J-10.1123
G3 X110.8824 Y49.8181 I16.952 J-0.1744
G3 X110.8862 Y49.8056 I3.1567 J0.9535
G3 X113.7654 Y44.9075 I11.7086 J3.5873
G3 X121.4444 Y41.59 I7.6594 J7.1833
G3 X128.6558 Y44.0277 I0.0982 J11.5954
G2 X126.4684 Y42.4501 I-7.7651 J8.4613
G2 X121.5047 Y41.283 I-4.8061 J9.3019
G3 X121.4225 Y41.2832 I-0.0497 J-3.2996
G2 X113.991 Y44.4718 I-0.099 J10.0237
G3 X113.9392 Y44.5262 I-2.4139 J-2.2501
G2 X111.0449 Y49.1813 I9.1191 J8.8971
G2 X110.0231 Y54.9619 I17.7598 J6.1199
G3 X110.0218 Y55.0131 I-3.2995 J-0.0596
G2 X110.6616 Y60.8636 I20.7091 J0.6954
G1 F300.0 X111.5011 Y60.6285
G3 F1000.0 X110.7592 Y54.8961 I19.3449 J-5.4181
G3 X111.4568 Y49.9916 I16.352 J-0.1759
G3 X111.4599 Y49.9814 I2.5824 J0.78
G3 X114.2006 Y45.3206 I11.135 J3.4115
G3 X121.4463 Y42.1901 I7.2242 J6.7702
G3 X129.5022 Y45.5991 I0.0962 J10.9954
G3 X132.4053 Y50.1336 I-8.7929 J8.826
G3 X132.4118 Y50.1516 I-2.5325 J0.9292
G3 X133.3457 Y55.1576 I-15.028 J5.3939
G3 X133.2698 Y59.54 I-38.0331 J1.5332
G3 X132.7287 Y63.0745 I-23.0153 J-1.7149
G1 Y63.0747
G3 X131.778 Y65.8534 I-14.3047 J-3.3419
G3 X128.5311 Y69.7673 I-8.5127 J-3.7583
G3 X128.4357 Y69.8298 I-1.5265 J-2.2241
G3 X123.511 Y71.204 I-4.7893 J-7.652
G3 X117.4671 Y69.5267 I-0.2132 J-10.9593
G3 X117.3979 Y69.4817 I1.4349 J-2.2843
G3 X113.3208 Y65.0312 I7.1457 J-10.639
G3 X111.5011 Y60.6285 I17.5252 J-9.8208
G1 F300.0 X112.6543 Y60.3055
G3 F1000.0 X111.9569 Y54.8989 I18.1917 J-5.0951
G3 X112.6032 Y50.3379 I15.1543 J-0.1788
G3 X112.605 Y50.3322 I1.4359 J0.4337
G3 X115.0692 Y46.1451 I9.9899 J3.0607
G3 X121.4503 Y43.3877 I6.3556 J5.9457
G3 X128.6459 Y46.4366 I0.0923 J9.7978
G3 X131.2809 Y50.5462 I-7.9367 J7.9885
G3 X131.2846 Y50.5561 I-1.4082 J0.5167
G3 X132.1487 Y55.1962 I-13.9008 J4.9893
G3 X132.0756 Y59.4507 I-36.836 J1.4946
G3 X131.5625 Y62.8021 I-21.821 J-1.6256
G1 Y62.8022
G3 X130.6858 Y65.3621 I-13.1385 J-3.0695
G3 X127.8534 Y68.7799 I-7.4205 J-3.2671
G3 X127.8004 Y68.8147 I-0.8488 J-1.2367
G3 X123.5085 Y70.0062 I-4.1539 J-6.6368
G3 X118.1041 Y68.5125 I-0.2107 J-9.7615
G3 X118.0657 Y68.4876 I0.7979 J-1.2702
G3 X114.3676 Y64.4494 I6.4779 J-9.6448
G3 X112.6543 Y60.3055 I16.4784 J-9.2389
G0 Z3.0
G0 X110.0678 Y60.9633
G0 Z1.0
G1 F300.0 Z-4.0
G2 F1000.0 X110.1581 Y61.3063 I20.663 J-5.2548
G2 X112.831 Y66.956 I17.844 J-4.985
G3 X112.8685 Y67.0109 I-2.2109 J1.5498
G2 X117.6135 Y71.3257 I10.9629 J-7.2895
G2 X123.9022 Y72.7448 I6.0476 J-12.1564
G3 X124.0074 Y72.7449 I0.048 J2.6996
G2 X128.6158 Y71.5357 I0.1842 J-8.684
G2 X131.9232 Y67.921 I-5.3676 J-8.2317
G3 X131.9376 Y67.8942 I2.3835 J1.2685
G2 X133.8073 Y62.7538 I-15.8991 J-8.693
G2 X134.3074 Y57.0784 I-25.6816 J-5.123
G3 X134.3069 Y57.0373 I2.6994 J-0.057
G2 X133.4428 Y50.9798 I-22.591 J0.1322
G2 X130.8488 Y45.6422 I-16.8118 J4.8711
G3 X130.8229 Y45.6054 I2.1932 J-1.5748
G2 X126.7519 Y41.9212 I-9.9321 J6.8836
G2 X121.4957 Y40.6831 I-5.0896 J9.8308
G3 X121.4284 Y40.6833 I-0.0406 J-2.6997
G2 X113.5521 Y44.0627 I-0.1049 J10.6236
G3 X113.5097 Y44.1072 I-1.975 J-1.841
G2 X110.4784 Y48.9836 I9.5485 J9.3161
G2 X109.4232 Y54.9511 I18.3264 J6.3175
G3 X109.4221 Y54.993 I-2.6996 J-0.0488
G2 X110.0678 Y60.9633 I21.3087 J0.7155
G1 F300.0 X108.9048 Y61.259
G2 F1000.0 X109.0012 Y61.6253 I21.826 J-5.5505
G2 X111.8484 Y67.6449 I19.0008 J-5.3039
G3 X111.8692 Y67.6753 I-1.2283 J0.861
G2 X117.0628 Y72.392 I11.9622 J-7.954
G2 X123.9236 Y73.9446 I6.5983 J-13.2227
G3 X123.982 Y73.9447 I0.0266 J1.4998
G2 X129.2495 Y72.5551 I0.2096 J-9.8837
G2 X132.9825 Y68.4847 I-6.0013 J-9.251
G3 X132.9905 Y68.4698 I1.3241 J0.7047
G2 X134.984 Y62.9888 I-16.952 J-9.2687
G2 X135.5072 Y57.0531 I-26.8584 J-5.358
G3 X135.5069 Y57.0303 I1.4997 J-0.0316
G2 X134.5961 Y50.6484 I-23.791 J0.1392
G2 X131.8236 Y44.9423 I-17.9651 J5.2025
G3 X131.8091 Y44.9218 I1.2184 J-0.8749
G2 X127.3189 Y40.8635 I-10.9184 J7.5671
G2 X121.4776 Y39.4832 I-5.6566 J10.8885
G3 X121.4403 Y39.4833 I-0.0226 J-1.4998
G2 X112.6744 Y43.2445 I-0.1167 J11.8236
G3 X112.6508 Y43.2692 I-1.0972 J-1.0228
G2 X109.3453 Y48.5884 I10.4075 J10.1541
G2 X108.2234 Y54.9294 I19.4594 J6.7127
G3 X108.2228 Y54.9527 I-1.4998 J-0.0271
G2 X108.9048 Y61.259 I22.5081 J0.7558
G1 F300.0 X110.6493 Y60.8154
G1 Z-8.0
G2 F1000.0 X110.7365 Y61.1468 I20.0816 J-5.1069
G2 X113.3223 Y66.6116 I17.2656 J-4.8255
G3 X113.3681 Y66.6787 I-2.7022 J1.8942
G2 X117.8889 Y70.7925 I10.4633 J-6.9573
G2 X123.8916 Y72.1449 I5.7722 J-11.6232
G3 X124.0202 Y72.1451 I0.0586 J3.2995
G2 X128.299 Y71.026 I0.1714 J-8.0841
G2 X131.0829 Y68.1781 I-5.0508 J-7.722
G3 X128.8706 Y70.262 I-7.8176 J-6.083
G3 X128.7541 Y70.3384 I-1.866 J-2.7188
G3 X123.5124 Y71.8041 I-5.1076 J-8.1606
G3 X117.1479 Y70.0347 I-0.2146 J-11.5594
G3 X117.0634 Y69.9798 I1.7541 J-2.7924
G3 X112.7964 Y65.3227 I7.4802 J-11.137
G3 X110.1591 Y54.8946 I18.0496 J-10.1123
G3 X110.8824 Y49.8181 I16.952 J-0.1744
G3 X110.8862 Y49.8056 I3.1567 J0.9535
G3 X113.7654 Y44.9075 I11.7086 J3.5873
G3 X121.4444 Y41.59 I7.6594 J7.1833
G3 X128.6558 Y44.0277 I0.0982 J11.5954
G2 X126.4684 Y42.4501 I-7.7651 J8.4613
G2 X121.5047 Y41.283 I-4.8061 J9.3019
G3 X121.4225 Y41.2832 I-0.0497 J-3.2996
G2 X113.991 Y44.4718 I-0.099 J10.0237
G3 X113.9392 Y44.5262 I-2.4139 J-2.2501
G2 X111.0449 Y49.1813 I9.1191 J8.8971
G2 X110.0231 Y54.9619 I17.7598 J6.1199
G3 X110.0218 Y55.0131 I-3.2995 J-0.0596
G2 X110.6493 Y60.8154 I20.7091 J0.6954
G1 F300.0 X111.4883 Y60.5826
G3 F1000.0 X110.7592 Y54.8961 I19.3577 J-5.3721
G3 X111.4568 Y49.9916 I16.352 J-0.1759
G3 X111.4599 Y49.9814 I2.5824 J0.78
G3 X114.2006 Y45.3206 I11.135 J3.4115
G3 X121.4463 Y42.1901 I7.2242 J6.7702
G3 X129.5022 Y45.5991 I0.0962 J10.9954
G3 X132.4053 Y50.1336 I-8.7929 J8.826
G3 X132.4118 Y50.1516 I-2.5325 J0.9292
G3 X133.3457 Y55.1576 I-15.028 J5.3939
G3 X133.2698 Y59.54 I-38.0331 J1.5332
G3 X132.7287 Y63.0745 I-23.0153 J-1.7149
G1 Y63.0747
G3 X131.778 Y65.8534 I-14.3047 J-3.3419
G3 X128.5311 Y69.7673 I-8.5127 J-3.7583
G3 X128.4357 Y69.8298 I-1.5265 J-2.2241
G3 X123.511 Y71.204 I-4.7893 J-7.652
G3 X117.4671 Y69.5267 I-0.2132 J-10.9593
G3 X117.3979 Y69.4817 I1.4349 J-2.2843
G3 X113.3208 Y65.0312 I7.1457 J-10.639
G3 X111.4883 Y60.5826 I17.5252 J-9.8208
G1 F300.0 X112.6423 Y60.2623
G3 F1000.0 X111.9569 Y54.8989 I18.2037 J-5.0519
G3 X112.6032 Y50.3379 I15.1543 J-0.1788
G3 X112.605 Y50.3322 I1.4359 J0.4337
G3 X115.0692 Y46.1451 I9.9899 J3.0607
G3 X121.4503 Y43.3877 I6.3556 J5.9457
G3 X128.6459 Y46.4366 I0.0923 J9.7978
G3 X131.2809 Y50.5462 I-7.9367 J7.9885
G3 X131.2846 Y50.5561 I-1.4082 J0.5167
G3 X132.1487 Y55.1962 I-13.9008 J4.9893
G3 X132.0756 Y59.4507 I-36.836 J1.4946
G3 X131.5625 Y62.8021 I-21.821 J-1.6256
G1 Y62.8022
G3 X130.6858 Y65.3621 I-13.1385 J-3.0695
G3 X127.8534 Y68.7799 I-7.4205 J-3.2671
G3 X127.8004 Y68.8147 I-0.8488 J-1.2367
G3 X123.5085 Y70.0062 I-4.1539 J-6.6368
G3 X118.1041 Y68.5125 I-0.2107 J-9.7615
G3 X118.0657 Y68.4876 I0.7979 J-1.2702
G3 X114.3676 Y64.4494 I6.4779 J-9.6448
G3 X112.6423 Y60.2623 I16.4784 J-9.2389
G0 Z3.0
G0 X110.0552 Y60.9136
G0 Z-3.0
G1 F300.0 Z-8.0
G2 F1000.0 X110.1581 Y61.3063 I20.6756 J-5.2051
G2 X112.831 Y66.956 I17.844 J-4.985
G3 X112.8685 Y67.0109 I-2.2109 J1.5498
G2 X117.6135 Y71.3257 I10.9629 J-7.2895
G2 X123.9022 Y72.7448 I6.0476 J-12.1564
G3 X124.0074 Y72.7449 I0.048 J2.6996
G2 X128.6158 Y71.5357 I0.1842 J-8.684
G2 X131.9232 Y67.921 I-5.3676 J-8.2317
G3 X131.9376 Y67.8942 I2.3835 J1.2685
G2 X133.8073 Y62.7538 I-15.8991 J-8.693
G2 X134.3074 Y57.0784 I-25.6816 J-5.123
G3 X134.3069 Y57.0373 I2.6994 J-0.057
G2 X133.4428 Y50.9798 I-22.591 J0.1322
G2 X130.8488 Y45.6422 I-16.8118 J4.8711
G3 X130.8229 Y45.6054 I2.1932 J-1.5748
G2 X126.7519 Y41.9212 I-9.9321 J6.8836
G2 X121.4957 Y40.6831 I-5.0896 J9.8308
G3 X121.4284 Y40.6833 I-0.0406 J-2.6997
G2 X113.5521 Y44.0627 I-0.1049 J10.6236
G3 X113.5097 Y44.1072 I-1.975 J-1.841
G2 X110.4784 Y48.9836 I9.5485 J9.3161
G2 X109.4232 Y54.9511 I18.3264 J6.3175
G3 X109.4221 Y54.993 I-2.6996 J-0.0488
G2 X110.0552 Y60.9136 I21.3087 J0.7155
G1 F300.0 X108.8915 Y61.2066
G2 F1000.0 X109.0012 Y61.6253 I21.8393 J-5.4981
G2 X111.8484 Y67.6449 I19.0008 J-5.3039
G3 X111.8692 Y67.6753 I-1.2283 J0.861
G2 X117.0628 Y72.392 I11.9622 J-7.954
G2 X123.9236 Y73.9446 I6.5983 J-13.2227
G3 X123.982 Y73.9447 I0.0266 J1.4998
G2 X129.2495 Y72.5551 I0.2096 J-9.8837
G2 X132.9825 Y68.4847 I-6.0013 J-9.251
G3 X132.9905 Y68.4698 I1.3241 J0.7047
G2 X134.984 Y62.9888 I-16.952 J-9.2687
G2 X135.5072 Y57.0531 I-26.8584 J-5.358
G3 X135.5069 Y57.0303 I1.4997 J-0.0316
G2 X134.5961 Y50.6484 I-23.791 J0.1392
G2 X131.8236 Y44.9423 I-17.9651 J5.2025
G3 X131.8091 Y44.9218 I1.2184 J-0.8749
G2 X127.3189 Y40.8635 I-10.9184 J7.5671
G2 X121.4776 Y39.4832 I-5.6566 J10.8885
G3 X121.4403 Y39.4833 I-0.0226 J-1.4998
G2 X112.6744 Y43.2445 I-0.1167 J11.8236
G3 X112.6508 Y43.2692 I-1.0972 J-1.0228
G2 X109.3453 Y48.5884 I10.4075 J10.1541
G2 X108.2234 Y54.9294 I19.4594 J6.7127
G3 X108.2228 Y54.9527 I-1.4998 J-0.0271
G2 X108.8915 Y61.2066 I22.5081 J0.7558
G0 Z3.0
G0 X149.8376 Y67.6907
G0 Z1.0
G1 F300.0 Z-4.0
G2 F1000.0 X149.8308 Y68.6223 I523.6347 J4.2893
G3 X150.5622 Y68.2349 I2.181 J3.2332
G3 X149.8376 Y67.6907 I35.9477 J-48.6201
G0 Z3.0
G0 X150.0829 Y44.2549
G0 Z1.0
G1 F300.0 Z-4.0
G3 F1000.0 X150.2685 Y44.1533 I1.963 J3.3672
G3 X150.0757 Y44.0574 I1.6407 J-3.5381
G2 X150.0829 Y44.2549 I73.7925 J-2.6063
G1 F300.0 X150.6873 Y45.2916
G3 F1000.0 X150.9482 Y45.1579 I1.3586 J2.3305
G3 X155.6913 Y43.1904 I40.3987 J90.6887
G3 X155.9044 Y43.1184 I0.9688 J2.5176
G3 X161.4112 Y42.3608 I5.3076 J18.1864
G3 X166.8841 Y43.4079 I0.1428 J14.0804
G3 X166.9212 Y43.4234 I-1.0211 J2.4969
G3 X171.5539 Y46.7435 I-5.1527 J12.0818
G3 X175.4225 Y57.2549 I-11.2418 J10.105
G3 X174.7461 Y62.406 I-19.0441 J0.1194
G3 X174.7435 Y62.4155 I-2.6017 J-0.7127
G3 X172.3393 Y67.3289 I-14.4021 J-4.0023
G3 X162.6423 Y72.1255 I-9.3648 J-6.732
G3 X155.6412 Y70.2053 I0.3162 J-14.8763
G3 X155.559 Y70.157 I1.3266 J-2.3489
G3 X150.4024 Y66.6118 I30.9509 J-50.5423
G3 X149.3485 Y64.5038 I1.6435 J-2.1392
G1 X149.2801 Y58.5908
G3 X149.28 Y58.5423 I2.6974 J-0.0312
G1 X149.3142 Y53.2107
G1 X149.3483 Y47.6056
G3 X150.6873 Y45.2916 I2.6975 J0.0164
G1 F300.0 X151.2904 Y46.3262
G3 F1000.0 X151.4355 Y46.2519 I0.7555 J1.2959
G3 X156.1214 Y44.3081 I39.9113 J89.5947
G3 X156.2399 Y44.2681 I0.5387 J1.3999
G3 X161.4111 Y43.5585 I4.9721 J17.0368
G3 X166.4307 Y44.5163 I0.1429 J12.8828
G3 X166.4514 Y44.525 I-0.5678 J1.3884
G3 X170.6624 Y47.5433 I-4.6829 J10.9802
G3 X174.2248 Y57.2424 I-10.3504 J9.3053
G3 X173.5911 Y62.0896 I-17.8464 J0.1318
G3 X173.5896 Y62.0949 I-1.4467 J-0.3963
G3 X171.3724 Y66.6222 I-13.2482 J-3.6816
G3 X162.6723 Y70.9283 I-8.3978 J-6.0254
G3 X156.2301 Y69.1625 I0.2862 J-13.6791
G3 X156.1844 Y69.1356 I0.7376 J-1.3061
G3 X151.132 Y65.6621 I30.3254 J-49.5209
G3 X150.546 Y64.49 I0.9139 J-1.1895
G1 X150.4776 Y58.5769
G3 Y58.55 I1.4999 J-0.0173
G1 X150.5117 Y53.2182
G1 X150.5459 Y47.6129
G3 X151.2904 Y46.3262 I1.5 J0.0091
G0 Z3.0
G0 X148.9815 Y46.3988
G0 Z1.0
G1 F300.0 Z-4.0
G3 F1000.0 X149.0035 Y47.3813 I-53.8435 J1.6937
G3 X149.0037 Y47.4349 I-2.6998 J0.0356
G3 X148.7975 Y58.3292 I-443.4178 J-2.9401
G2 X148.6277 Y69.1259 I524.6748 J13.6507
G2 X148.6619 Y78.5396 I2628.5717 J-4.8216
G3 X148.6961 Y88.0529 I-2162.5041 J12.5353
G3 X148.6958 Y88.0978 I-2.7 J0.0038
G2 X149.2571 Y90.5238 I5.1814 J0.0791
G2 X149.7023 Y91.0732 I1.514 J-0.7718
G2 X149.8192 Y91.1222 I0.2105 J-0.3378
G2 X149.8258 Y90.949 I-1.5672 J-0.1466
G2 X149.708 Y89.9978 I-6.1349 J0.2765
G1 Y89.9979
G1 Y89.9978
G3 X149.4849 Y88.1684 I11.3057 J-2.307
G3 X149.4829 Y88.0936 I2.6977 J-0.1118
G1 X149.3803 Y80.6083
G3 X149.3802 Y80.5925 I2.6997 J-0.037
G1 X149.3118 Y71.8766
G3 X153.5547 Y69.6398 I2.6999 J-0.0212
G2 X158.6317 Y72.3476 I13.9233 J-19.9927
G3 X158.6543 Y72.3565 I-0.9804 J2.5157
G2 X162.755 Y73.189 I4.3347 J-10.8349
G2 X168.1972 Y72.0448 I0.1691 J-12.7106
G2 X172.5206 Y68.5746 I-5.4017 J-11.158
G3 X172.5453 Y68.5438 I2.1181 J1.6744
G2 X175.3639 Y63.3159 I-12.25 J-9.9783
G2 X176.2454 Y57.2515 I-19.1441 J-5.8792
G3 Y57.2007 I2.6999 J-0.025
G2 X175.1943 Y51.0593 I-17.4883 J-0.1674
G2 X171.9496 Y45.844 I-14.7711 J5.5729
G3 X171.9097 Y45.8004 I1.9713 J-1.845
G2 X161.4671 Y41.2639 I-10.1597 J9.0995
G3 X161.3752 Y41.2642 I-0.056 J-2.6994
G2 X153.0554 Y43.0599 I-0.2529 J19.0004
G3 X149.6321 Y42.0661 I-1.1462 J-2.4446
G2 X149.2687 Y41.6766 I-1.2313 J0.7845
G2 X149.2581 Y41.6746 I-0.0104 J0.0262
G3 X149.2034 Y41.6743 I-0.0149 J-2.7
G2 X148.9624 Y41.7744 I-0.0048 J0.3285
G3 X148.9359 Y41.8014 I-1.9409 J-1.877
G2 X148.8314 Y42.0666 I0.2551 J0.2537
G3 X148.8327 Y42.1289 I-2.6986 J0.0867
G2 X148.8975 Y44.6406 I75.0354 J-0.6779
