( Made using CamBam - http://www.cambam.co.uk )
( Firobehiesle 11/6/2015 6:11:50 PM )
( T4 : 4.0 )
G21 G90 G64 G40
G0 Z3.0
( T4 : 4.0 )
T4 M6
( Tasche1 )
G17
M3 S1000
G0 X60.3957 Y173.708
G0 Z1.0
G1 F300.0 Z-3.0
G2 F1000.0 X60.3887 Y173.7109 I-0.0001 J0.0098
G3 X60.3591 Y173.7402 I-1.9871 J-1.9726
G3 X60.3886 Y173.7696 I-1.9576 J2.002
G2 X60.3957 Y173.7725 I0.0069 J-0.0069
G3 X60.44 Y173.7723 I0.0322 J2.7998
G3 X60.4722 Y173.7402 I1.9899 J1.9699
G3 X60.44 Y173.7082 I1.9576 J-2.002
G3 X60.3957 Y173.708 I-0.0121 J-2.8
G1 F300.0 X60.4049 Y172.9081
G2 F1000.0 X59.8209 Y173.1473 I-0.0093 J0.8097
G3 X59.766 Y173.2005 I-1.4194 J-1.409
G2 X59.5468 Y173.714 I0.4706 J0.5043
G3 Y173.7665 I-1.9998 J0.0263
G2 X59.766 Y174.2799 I0.6898 J0.0091
G3 X59.8209 Y174.3332 I-1.3645 J1.4623
G2 X60.4049 Y174.5724 I0.5747 J-0.5705
G3 X60.4586 Y174.5725 I0.023 J1.9999
G2 X60.993 Y174.3509 I0.0112 J-0.7282
G3 X61.0654 Y174.2799 I1.4368 J1.3913
G2 X61.2845 Y173.7665 I-0.4706 J-0.5043
G3 Y173.714 I1.9998 J-0.0263
G2 X61.0653 Y173.2005 I-0.6898 J-0.0091
G3 X60.993 Y173.1295 I1.3645 J-1.4623
G2 X60.4586 Y172.908 I-0.5232 J0.5066
G3 X60.4049 Y172.9081 I-0.0308 J-1.9998
G1 F300.0 X60.3957 Y173.708
G1 Z-5.0
G2 F1000.0 X60.3887 Y173.7109 I-0.0001 J0.0098
G3 X60.3591 Y173.7402 I-1.9871 J-1.9726
G3 X60.3886 Y173.7696 I-1.9576 J2.002
G2 X60.3957 Y173.7725 I0.0069 J-0.0069
G3 X60.44 Y173.7723 I0.0322 J2.7998
G3 X60.4722 Y173.7402 I1.9899 J1.9699
G3 X60.44 Y173.7082 I1.9576 J-2.002
G3 X60.3957 Y173.708 I-0.0121 J-2.8
G1 F300.0 X60.4049 Y172.9081
G2 F1000.0 X59.8209 Y173.1473 I-0.0093 J0.8097
G3 X59.766 Y173.2005 I-1.4194 J-1.409
G2 X59.5468 Y173.714 I0.4706 J0.5043
G3 Y173.7665 I-1.9998 J0.0263
G2 X59.766 Y174.2799 I0.6898 J0.0091
G3 X59.8209 Y174.3332 I-1.3645 J1.4623
G2 X60.4049 Y174.5724 I0.5747 J-0.5705
G3 X60.4586 Y174.5725 I0.023 J1.9999
G2 X60.993 Y174.3509 I0.0112 J-0.7282
G3 X61.0654 Y174.2799 I1.4368 J1.3913
G2 X61.2845 Y173.7665 I-0.4706 J-0.5043
G3 Y173.714 I1.9998 J-0.0263
G2 X61.0653 Y173.2005 I-0.6898 J-0.0091
G3 X60.993 Y173.1295 I1.3645 J-1.4623
G2 X60.4586 Y172.908 I-0.5232 J0.5066
G3 X60.4049 Y172.9081 I-0.0308 J-1.9998
G0 Z3.0
G0 X59.724 Y163.0009
G0 Z1.0
G1 F300.0 Z-3.0
G2 F1000.0 X59.8992 Y162.9202 I-0.0186 J-0.271
G2 X60.0164 Y162.6136 I-0.2992 J-0.29
G3 X60.0149 Y162.5519 I1.9984 J-0.0794
G2 X59.7765 Y156.9496 I-83.3479 J0.7402
G3 X59.5266 Y151.1014 I85.8956 J-6.5999
G3 X59.5265 Y151.0722 I1.9999 J-0.0175
G3 X59.6005 Y146.6346 I205.9931 J1.2138
G3 X59.6011 Y146.6158 I1.9992 J0.0549
G2 X59.6975 Y142.3036 I-148.9689 J-5.4861
G3 X59.6988 Y142.2448 I1.9999 J0.0157
G2 X59.5986 Y141.9512 I-0.4329 J-0.0161
G2 X59.3862 Y141.8763 I-0.2 J0.2286
G3 X59.2413 Y141.8769 I-0.0814 J-1.9983
G2 X59.0057 Y141.9578 I-0.0112 J0.351
G2 X58.9109 Y142.2448 I0.3381 J0.2708
G3 X58.9122 Y142.3346 I-1.9986 J0.0745
G3 X58.8136 Y146.754 I-150.644 J-1.1508
G2 X58.7414 Y151.0809 I200.3345 J5.5056
G2 X58.9796 Y156.6438 I82.3641 J-0.7406
G3 X58.9797 Y156.6447 I-1.9941 J0.1531
G3 X59.2296 Y162.5164 I-87.1325 J6.6489
G3 X59.228 Y162.616 I-1.9999 J0.0178
G2 X59.3266 Y162.923 I0.4676 J0.0191
G2 X59.5587 Y163.001 I0.221 J-0.2731
G3 X59.6954 Y163.0013 I0.0635 J1.999
G2 X59.724 Y163.0009 I0.0099 J-0.2714
G1 F300.0 Z-5.0
G2 F1000.0 X59.8992 Y162.9202 I-0.0186 J-0.271
G2 X60.0164 Y162.6136 I-0.2992 J-0.29
G3 X60.0149 Y162.5519 I1.9984 J-0.0794
G2 X59.7765 Y156.9496 I-83.3479 J0.7402
G3 X59.5266 Y151.1014 I85.8956 J-6.5999
G3 X59.5265 Y151.0722 I1.9999 J-0.0175
G3 X59.6005 Y146.6346 I205.9931 J1.2138
G3 X59.6011 Y146.6158 I1.9992 J0.0549
G2 X59.6975 Y142.3036 I-148.9689 J-5.4861
G3 X59.6988 Y142.2448 I1.9999 J0.0157
G2 X59.5986 Y141.9512 I-0.4329 J-0.0161
G2 X59.3862 Y141.8763 I-0.2 J0.2286
G3 X59.2413 Y141.8769 I-0.0814 J-1.9983
G2 X59.0057 Y141.9578 I-0.0112 J0.351
G2 X58.9109 Y142.2448 I0.3381 J0.2708
G3 X58.9122 Y142.3346 I-1.9986 J0.0745
G3 X58.8136 Y146.754 I-150.644 J-1.1508
G2 X58.7414 Y151.0809 I200.3345 J5.5056
G2 X58.9796 Y156.6438 I82.3641 J-0.7406
G3 X58.9797 Y156.6447 I-1.9941 J0.1531
G3 X59.2296 Y162.5164 I-87.1325 J6.6489
G3 X59.228 Y162.616 I-1.9999 J0.0178
G2 X59.3266 Y162.923 I0.4676 J0.0191
G2 X59.5587 Y163.001 I0.221 J-0.2731
G3 X59.6954 Y163.0013 I0.0635 J1.999
G2 X59.724 Y163.0009 I0.0099 J-0.2714
G0 Z3.0
G0 X72.5256 Y156.7608
G0 Z1.0
G1 F300.0 Z-3.0
G3 F1000.0 X73.2933 Y156.3369 I1.7207 J2.2089
G2 X72.6094 Y155.5283 I-9.9327 J7.7074
G3 X72.5256 Y156.7608 I-50.5559 J-2.8178
G1 F300.0 X73.0172 Y157.3919
G3 F1000.0 X74.9574 Y157.1004 I1.229 J1.5778
G1 X74.4153 Y156.4941
G3 X74.2741 Y156.3169 I1.4911 J-1.3329
G2 X73.191 Y154.9789 I-10.9135 J7.7274
G3 X72.6617 Y153.6654 I1.4703 J-1.3558
G2 X72.4033 Y149.5076 I-50.9472 J1.0791
G3 X72.1247 Y145.1256 I54.9636 J-5.6945
G3 X72.1252 Y145.0128 I1.9994 J-0.0475
G3 X72.3765 Y142.6677 I15.9311 J0.5209
G3 X72.3846 Y142.6256 I1.9674 J0.3596
G2 X72.5876 Y141.0752 I-10.6386 J-2.1812
G2 X72.5254 Y140.9534 I-0.1805 J0.0154
G3 X72.4464 Y140.8815 I1.3058 J-1.5149
G2 X72.1249 Y140.7547 I-0.3154 J0.3286
G3 X72.0742 I-0.0271 J-1.9998
G1 X72.0741 Y140.7548
G3 X72.0542 Y140.7844 I-1.6714 J-1.0983
G2 X71.732 Y141.4688 I1.9717 J1.3466
G3 X71.7307 Y141.4731 I-1.9215 J-0.5547
G2 X71.423 Y143.1251 I8.1535 J2.3735
G3 X71.4217 Y143.139 I-1.9928 J-0.1699
G2 X71.3389 Y145.004 I19.5072 J1.8005
G2 X71.5973 Y149.1971 I52.7914 J-1.1484
G3 X71.8757 Y153.7267 I-56.493 J5.745
G3 X71.8756 Y153.8138 I-1.9995 J0.0428
G3 X71.6224 Y157.8474 I-49.8221 J-1.1034
G2 X71.4119 Y161.595 I50.8957 J4.7382
G2 X71.6728 Y164.3396 I12.2474 J0.2203
G3 X71.6734 Y164.3421 I-1.9571 J0.4121
G2 X71.9633 Y165.0786 I2.3059 J-0.4825
G2 X72.1111 Y164.9754 I-0.1224 J-0.3326
G3 X72.2647 Y164.8136 I1.5248 J1.2942
G2 X72.44 Y164.4532 I-0.3872 J-0.4111
G2 X72.3382 Y163.2957 I-11.7623 J0.4508
G3 X72.3381 Y163.2946 I1.9812 J-0.2733
G3 X72.1981 Y161.5874 I15.5179 J-2.1313
G3 X72.1978 Y161.4951 I1.9993 J-0.0541
G1 X72.2466 Y158.9316
G3 X73.0172 Y157.3919 I1.9996 J0.0381
G0 Z3.0
G0 X85.6745 Y158.9049
G0 Z1.0
G1 F300.0 Z-3.0
G3 F1000.0 X85.6173 Y159.3403 I-16.2826 J-1.9158
G3 X85.5056 Y159.9864 I-9.3456 J-1.2831
G3 X86.2554 Y159.4667 I1.9486 J2.0107
G3 X85.6745 Y158.9049 I7.593 J-8.4332
G1 F300.0 X86.2507 Y158.35
G2 F1000.0 X87.9922 Y159.8062 I7.5977 J-7.3164
G2 X89.6679 Y160.8871 I17.6603 J-25.5382
G2 X92.3938 Y162.3431 I10.1372 J-15.6995
G2 X92.395 Y162.3436 I0.7932 J-1.836
G2 X93.9564 Y162.7227 I1.8923 J-4.3885
G2 X94.1685 Y162.7262 I0.1385 J-1.9952
G2 X96.1538 Y161.8962 I-0.1126 J-3.0589
G2 X96.9751 Y160.8963 I-3.1831 J-3.4518
G2 X96.9792 Y160.8895 I-1.7057 J-1.0444
G2 X97.7815 Y159.2125 I-8.0242 J-4.8694
G2 X98.7109 Y155.5215 I-17.4601 J-6.3586
G2 X98.7197 Y155.4524 I-1.9793 J-0.2871
G1 X99.5497 Y147.8841
G2 X99.5548 Y147.8318 I-1.9881 J-0.218
G3 X100.4186 Y140.393 I114.4383 J9.5201
G2 X100.4284 Y140.3181 I-1.9781 J-0.2954
G3 X100.5472 Y139.9966 I0.7059 J0.0783
G3 X100.678 Y139.9708 I0.1163 J0.2451
G2 X100.8295 Y139.9731 I0.1063 J-1.9972
G3 X101.1958 Y140.1136 I0.0117 J0.5172
G2 X101.2324 Y140.1472 I1.3707 J-1.4564
G3 X100.4352 Y147.0819 I-625.3233 J-68.3784
G2 X100.4345 Y147.0871 I1.9856 J0.2394
G3 X99.4915 Y154.0003 I-190.4602 J-22.4595
G2 X99.481 Y154.0782 I1.9764 J0.3063
G3 X98.817 Y159.1762 I-169.6337 J-19.5019
G2 X98.8143 Y159.1953 I1.9791 J0.2881
G3 X98.5456 Y160.6059 I-13.3549 J-1.8131
G3 X97.9597 Y161.8785 I-6.5007 J-2.2217
G2 X97.9584 Y161.8807 I1.7219 J1.0173
G3 X97.1772 Y162.8225 I-3.3065 J-1.9478
G3 X94.9674 Y163.5626 I-2.0982 J-2.5957
G2 X94.8639 Y163.5619 I-0.0669 J1.9989
G3 X91.5108 Y162.8517 I-0.1394 J-7.6128
G3 X89.0674 Y160.8149 I2.8785 J-5.937
G2 X85.5609 Y161.3526 I-1.6132 J1.1822
G3 X84.2705 Y163.2119 I-3.8951 J-1.3258
G3 X82.2681 Y163.8074 I-1.9155 J-2.7772
G3 X80.9746 Y163.3902 I0.1714 J-2.7457
G2 X80.9297 Y163.3628 I-1.065 J1.6928
G3 X79.3031 Y162.1805 I5.5053 J-9.2837
G2 X79.2586 Y162.1424 I-1.3215 J1.5012
G3 X76.3361 Y158.6427 I8.0204 J-9.6678
G1 X77.2962 Y159.7167
G2 X77.3422 Y159.7665 I1.4911 J-1.3329
G2 X81.3718 Y162.7177 I10.3467 J-9.9007
G2 X84.0578 Y161.7869 I0.8823 J-1.7949
G2 X84.8252 Y159.2285 I-7.786 J-3.7297
G2 X84.9865 Y156.8986 I-15.4333 J-2.2395
G3 X85.177 Y152.677 I61.2152 J0.6472
G2 X85.1777 Y152.6689 I-1.9937 J-0.1591
G3 X85.5615 Y148.3631 I161.0992 J12.1905
G2 X85.9714 Y143.9653 I-157.1874 J-16.8681
G2 X86.1826 Y139.4598 I-62.0623 J-5.168
G2 X86.1814 Y139.3639 I-1.9999 J-0.0213
G3 X86.2911 Y139.0593 I0.4329 J-0.0161
G3 X86.5156 Y138.9718 I0.2153 J0.2204
G2 X86.6449 Y138.9714 I0.0598 J-1.9991
G3 X86.8216 Y139.0447 I0.008 J0.2306
G2 X86.8592 Y139.0839 I1.4627 J-1.364
G3 X86.9692 Y139.3667 I-0.2733 J0.2691
G2 X86.9682 Y139.4061 I1.9987 J0.0718
G3 X86.5207 Y145.5529 I-54.5632 J-0.8823
G2 X86.5166 Y145.5872 I1.9833 J0.2576
G1 X85.7841 Y152.1058
G2 X85.7757 Y152.2016 I1.9875 J0.2233
G2 X85.6497 Y156.9402 I63.5613 J4.0615
G2 X86.1991 Y158.296 I1.9999 J-0.0213
G2 X86.2507 Y158.35 I7.6493 J-7.2625
G1 F300.0 X85.6745 Y158.9049
G1 Z-5.0
G3 F1000.0 X85.6173 Y159.3403 I-16.2826 J-1.9158
G3 X85.5056 Y159.9864 I-9.3456 J-1.2831
G3 X86.2554 Y159.4667 I1.9486 J2.0107
G3 X85.6745 Y158.9049 I7.593 J-8.4332
G1 F300.0 X86.2507 Y158.35
G2 F1000.0 X87.9922 Y159.8062 I7.5977 J-7.3164
G2 X89.6679 Y160.8871 I17.6603 J-25.5382
G2 X92.3938 Y162.3431 I10.1372 J-15.6995
G2 X92.395 Y162.3436 I0.7932 J-1.836
G2 X93.9564 Y162.7227 I1.8923 J-4.3885
G2 X94.1685 Y162.7262 I0.1385 J-1.9952
G2 X96.1538 Y161.8962 I-0.1126 J-3.0589
G2 X96.9751 Y160.8963 I-3.1831 J-3.4518
G2 X96.9792 Y160.8895 I-1.7057 J-1.0444
G2 X97.7815 Y159.2125 I-8.0242 J-4.8694
G2 X98.7109 Y155.5215 I-17.4601 J-6.3586
G2 X98.7197 Y155.4524 I-1.9793 J-0.2871
G1 X99.5497 Y147.8841
G2 X99.5548 Y147.8318 I-1.9881 J-0.218
G3 X100.4186 Y140.393 I114.4383 J9.5201
G2 X100.4284 Y140.3181 I-1.9781 J-0.2954
G3 X100.5472 Y139.9966 I0.7059 J0.0783
G3 X100.678 Y139.9708 I0.1163 J0.2451
G2 X100.8295 Y139.9731 I0.1063 J-1.9972
G3 X101.1958 Y140.1136 I0.0117 J0.5172
G2 X101.2324 Y140.1472 I1.3707 J-1.4564
G3 X100.4352 Y147.0819 I-625.3233 J-68.3784
G2 X100.4345 Y147.0871 I1.9856 J0.2394
G3 X99.4915 Y154.0003 I-190.4602 J-22.4595
G2 X99.481 Y154.0782 I1.9764 J0.3063
G3 X98.817 Y159.1762 I-169.6337 J-19.5019
G2 X98.8143 Y159.1953 I1.9791 J0.2881
G3 X98.5456 Y160.6059 I-13.3549 J-1.8131
G3 X97.9597 Y161.8785 I-6.5007 J-2.2217
G2 X97.9584 Y161.8807 I1.7219 J1.0173
G3 X97.1772 Y162.8225 I-3.3065 J-1.9478
G3 X94.9674 Y163.5626 I-2.0982 J-2.5957
G2 X94.8639 Y163.5619 I-0.0669 J1.9989
G3 X91.5108 Y162.8517 I-0.1394 J-7.6128
G3 X89.0674 Y160.8149 I2.8785 J-5.937
G2 X85.5609 Y161.3526 I-1.6132 J1.1822
G3 X84.2705 Y163.2119 I-3.8951 J-1.3258
G3 X82.2681 Y163.8074 I-1.9155 J-2.7772
G3 X80.9746 Y163.3902 I0.1714 J-2.7457
G2 X80.9297 Y163.3628 I-1.065 J1.6928
G3 X79.3031 Y162.1805 I5.5053 J-9.2837
G2 X79.2586 Y162.1424 I-1.3215 J1.5012
G3 X76.3361 Y158.6427 I8.0204 J-9.6678
G1 X77.2962 Y159.7167
G2 X77.3422 Y159.7665 I1.4911 J-1.3329
G2 X81.3718 Y162.7177 I10.3467 J-9.9007
G2 X84.0578 Y161.7869 I0.8823 J-1.7949
G2 X84.8252 Y159.2285 I-7.786 J-3.7297
G2 X84.9865 Y156.8986 I-15.4333 J-2.2395
G3 X85.177 Y152.677 I61.2152 J0.6472
G2 X85.1777 Y152.6689 I-1.9937 J-0.1591
G3 X85.5615 Y148.3631 I161.0992 J12.1905
G2 X85.9714 Y143.9653 I-157.1874 J-16.8681
G2 X86.1826 Y139.4598 I-62.0623 J-5.168
G2 X86.1814 Y139.3639 I-1.9999 J-0.0213
G3 X86.2911 Y139.0593 I0.4329 J-0.0161
G3 X86.5156 Y138.9718 I0.2153 J0.2204
G2 X86.6449 Y138.9714 I0.0598 J-1.9991
G3 X86.8216 Y139.0447 I0.008 J0.2306
G2 X86.8592 Y139.0839 I1.4627 J-1.364
G3 X86.9692 Y139.3667 I-0.2733 J0.2691
G2 X86.9682 Y139.4061 I1.9987 J0.0718
G3 X86.5207 Y145.5529 I-54.5632 J-0.8823
G2 X86.5166 Y145.5872 I1.9833 J0.2576
G1 X85.7841 Y152.1058
G2 X85.7757 Y152.2016 I1.9875 J0.2233
G2 X85.6497 Y156.9402 I63.5613 J4.0615
G2 X86.1991 Y158.296 I1.9999 J-0.0213
G2 X86.2507 Y158.35 I7.6493 J-7.2625
G0 Z3.0
G0 X73.2933 Y156.3369
G0 Z-2.0
G1 F300.0 Z-5.0
G2 F1000.0 X72.6094 Y155.5283 I-9.9327 J7.7074
G3 X72.5256 Y156.7608 I-50.5559 J-2.8178
G3 X73.2933 Y156.3369 I1.7207 J2.2089
G1 F300.0 X73.5656 Y157.0891
G3 F1000.0 X74.9574 Y157.1004 I0.6807 J1.8806
G1 X74.4153 Y156.4941
G3 X74.2741 Y156.3169 I1.4911 J-1.3329
G2 X73.191 Y154.9789 I-10.9135 J7.7274
G3 X72.6617 Y153.6654 I1.4703 J-1.3558
G2 X72.4033 Y149.5076 I-50.9472 J1.0791
G3 X72.1247 Y145.1256 I54.9636 J-5.6945
G3 X72.1252 Y145.0128 I1.9994 J-0.0475
G3 X72.3765 Y142.6677 I15.9311 J0.5209
G3 X72.3846 Y142.6256 I1.9674 J0.3596
G2 X72.5876 Y141.0752 I-10.6386 J-2.1812
G2 X72.5254 Y140.9534 I-0.1805 J0.0154
G3 X72.4464 Y140.8815 I1.3058 J-1.5149
G2 X72.1249 Y140.7547 I-0.3154 J0.3286
G3 X72.0742 I-0.0271 J-1.9998
G1 X72.0741 Y140.7548
G3 X72.0542 Y140.7844 I-1.6714 J-1.0983
G2 X71.732 Y141.4688 I1.9717 J1.3466
G3 X71.7307 Y141.4731 I-1.9215 J-0.5547
G2 X71.423 Y143.1251 I8.1535 J2.3735
G3 X71.4217 Y143.139 I-1.9928 J-0.1699
G2 X71.3389 Y145.004 I19.5072 J1.8005
G2 X71.5973 Y149.1971 I52.7914 J-1.1484
G3 X71.8757 Y153.7267 I-56.493 J5.745
G3 X71.8756 Y153.8138 I-1.9995 J0.0428
G3 X71.6224 Y157.8474 I-49.8221 J-1.1034
G2 X71.4119 Y161.595 I50.8957 J4.7382
G2 X71.6728 Y164.3396 I12.2474 J0.2203
G3 X71.6734 Y164.3421 I-1.9571 J0.4121
G2 X71.9633 Y165.0786 I2.3059 J-0.4825
G2 X72.1111 Y164.9754 I-0.1224 J-0.3326
G3 X72.2647 Y164.8136 I1.5248 J1.2942
G2 X72.44 Y164.4532 I-0.3872 J-0.4111
G2 X72.3382 Y163.2957 I-11.7623 J0.4508
G3 X72.3381 Y163.2946 I1.9812 J-0.2733
G3 X72.1981 Y161.5874 I15.5179 J-2.1313
G3 X72.1978 Y161.4951 I1.9993 J-0.0541
G1 X72.2466 Y158.9316
G3 X73.5656 Y157.0891 I1.9996 J0.0381
G0 Z3.0
G0 X122.4564 Y146.2172
G0 Z1.0
G1 F300.0 Z-3.0
G2 F1000.0 X122.4737 Y146.2465 I0.0541 J-0.012
G3 X122.4806 Y146.2527 I-1.3311 J1.4927
G2 X122.8762 Y146.399 I0.3817 J-0.4241
G3 X122.918 Y146.3984 I0.0486 J1.9994
G2 X122.9451 Y146.39 I-0.0002 J-0.0485
G2 X123.3337 Y145.9628 I-1.0174 J-1.3158
G3 X123.3576 Y145.9259 I1.6907 J1.0685
G3 X124.4763 Y144.4157 I15.0657 J9.9905
G3 X126.071 Y142.8982 I6.4866 J5.22
G3 X126.1906 Y142.8178 I1.1751 J1.6184
G3 X129.8224 Y141.4426 I5.3162 J8.5569
G3 X133.2776 Y141.1494 I3.3024 J18.4069
G3 X141.1847 Y142.9876 I0.1197 J17.4099
G3 X144.7996 Y145.802 I-4.5766 J9.6072
G3 X144.8317 Y145.8417 I-1.5395 J1.2767
G3 X146.4581 Y150.6229 I-5.9684 J4.6976
G3 X144.9929 Y154.8255 I-6.6083 J0.0528
G3 X144.9645 Y154.8599 I-1.5565 J-1.2559
G3 X141.8534 Y157.2714 I-7.2076 J-6.0858
G3 X137.8084 Y158.6784 I-7.1984 J-14.1771
G3 X133.7217 Y159.1379 I-4.6072 J-22.5685
G2 X130.7405 Y159.5335 I0.4952 J15.1637
G3 X130.74 Y159.5336 I-0.4583 J-1.9468
G2 X128.0763 Y160.5685 I2.3501 J9.9942
G3 X128.0493 Y160.5834 I-0.9767 J-1.7453
G2 X126.2301 Y162.2328 I2.4356 J4.5142
G2 X125.6324 Y164.4481 I3.5077 J2.1347
G3 X125.6327 Y164.4699 I-1.9996 J0.0393
G2 X126.7537 Y167.879 I5.8999 J-0.0512
G2 X129.711 Y170.7832 I10.1552 J-7.3832
G3 X129.7464 Y170.8085 I-1.1466 J1.6387
G2 X133.8561 Y173.0224 I10.0197 J-13.6777
G2 X138.2873 Y173.8154 I4.4679 J-12.1903
G2 X143.101 Y173.0873 I-0.3955 J-18.8907
G3 X143.1673 Y173.0695 I0.5514 J1.9225
G2 X145.1279 Y172.3723 I-2.6144 J-10.4575
G2 X145.4698 Y172.1749 I-1.0349 J-2.1882
G2 X144.0514 Y172.3309 I0.376 J9.9468
G3 X144.0266 Y172.3353 I-0.3605 J-1.9672
G2 X142.4176 Y172.6427 I6.8288 J40.104
G3 X140.4287 Y173.0189 I-6.776 J-30.3801
G3 X138.2123 Y173.2012 I-2.2466 J-13.752
G3 X138.1976 Y173.2011 I-0.0043 J-2.0
G3 X134.3144 Y172.6799 I0.08 J-15.3218
G3 X134.309 Y172.6785 I0.5173 J-1.9319
G3 X130.6236 Y170.9819 I3.189 J-11.7788
G3 X128.1265 Y168.514 I4.9871 J-7.5432
G3 X128.1089 Y168.4876 I1.6553 J-1.1225
G3 X127.0039 Y164.7572 I5.652 J-3.7032
G3 X127.7779 Y162.3751 I3.9954 J-0.0184
G3 X127.8315 Y162.3054 I1.6125 J1.1831
G3 X130.095 Y160.6174 I4.3954 J3.5323
G3 X132.191 Y159.9454 I4.5542 J10.5986
G3 X132.2228 Y159.9387 I0.4262 J1.9541
G3 X135.0258 Y159.537 I4.9753 J24.7357
G3 X137.6824 Y159.318 I8.7831 J90.3508
G3 X137.6918 Y159.3174 I0.135 J1.9954
G2 X141.8223 Y158.461 I-0.9382 J-14.913
G2 X145.1628 Y156.3645 I-3.2157 J-8.8336
G3 X145.1761 Y156.3517 I1.3948 J1.4333
G2 X147.4388 Y150.9251 I-5.0566 J-5.2935
G3 X147.4387 Y150.8579 I1.9997 J-0.0364
G2 X146.3041 Y146.5633 I-8.2163 J-0.1264
G2 X143.0181 Y143.314 I-8.6617 J5.4733
G3 X142.9847 Y143.293 I1.0493 J-1.7026
G2 X138.3679 Y141.2509 I-8.8184 J13.6975
G2 X133.2643 Y140.6084 I-4.9822 J18.9821
G3 X133.2284 Y140.6083 I-0.0124 J-2.0
G2 X125.8956 Y142.1405 I-0.204 J17.3362
G3 X125.8667 Y142.1533 I-0.8224 J-1.8231
G2 X123.3522 Y143.8886 I3.1094 J7.1949
G2 X122.4588 Y146.1074 I2.4253 J2.2658
G3 X122.4552 Y146.2017 I-1.9998 J-0.0283
G2 X122.4564 Y146.2172 I0.0554 J0.0034
G1 F300.0 Z-5.0
G2 F1000.0 X122.4737 Y146.2465 I0.0541 J-0.012
G3 X122.4806 Y146.2527 I-1.3311 J1.4927
G2 X122.8762 Y146.399 I0.3817 J-0.4241
G3 X122.918 Y146.3984 I0.0486 J1.9994
G2 X122.9451 Y146.39 I-0.0002 J-0.0485
G2 X123.3337 Y145.9628 I-1.0174 J-1.3158
G3 X123.3576 Y145.9259 I1.6907 J1.0685
G3 X124.4763 Y144.4157 I15.0657 J9.9905
G3 X126.071 Y142.8982 I6.4866 J5.22
G3 X126.1906 Y142.8178 I1.1751 J1.6184
G3 X129.8224 Y141.4426 I5.3162 J8.5569
G3 X133.2776 Y141.1494 I3.3024 J18.4069
G3 X141.1847 Y142.9876 I0.1197 J17.4099
G3 X144.7996 Y145.802 I-4.5766 J9.6072
G3 X144.8317 Y145.8417 I-1.5395 J1.2767
G3 X146.4581 Y150.6229 I-5.9684 J4.6976
G3 X144.9929 Y154.8255 I-6.6083 J0.0528
G3 X144.9645 Y154.8599 I-1.5565 J-1.2559
G3 X141.8534 Y157.2714 I-7.2076 J-6.0858
G3 X137.8084 Y158.6784 I-7.1984 J-14.1771
G3 X133.7217 Y159.1379 I-4.6072 J-22.5685
G2 X130.7405 Y159.5335 I0.4952 J15.1637
G3 X130.74 Y159.5336 I-0.4583 J-1.9468
G2 X128.0763 Y160.5685 I2.3501 J9.9942
G3 X128.0493 Y160.5834 I-0.9767 J-1.7453
G2 X126.2301 Y162.2328 I2.4356 J4.5142
G2 X125.6324 Y164.4481 I3.5077 J2.1347
G3 X125.6327 Y164.4699 I-1.9996 J0.0393
G2 X126.7537 Y167.879 I5.8999 J-0.0512
G2 X129.711 Y170.7832 I10.1552 J-7.3832
G3 X129.7464 Y170.8085 I-1.1466 J1.6387
G2 X133.8561 Y173.0224 I10.0197 J-13.6777
G2 X138.2873 Y173.8154 I4.4679 J-12.1903
G2 X143.101 Y173.0873 I-0.3955 J-18.8907
G3 X143.1673 Y173.0695 I0.5514 J1.9225
G2 X145.1279 Y172.3723 I-2.6144 J-10.4575
G2 X145.4698 Y172.1749 I-1.0349 J-2.1882
G2 X144.0514 Y172.3309 I0.376 J9.9468
G3 X144.0266 Y172.3353 I-0.3605 J-1.9672
G2 X142.4176 Y172.6427 I6.8288 J40.104
G3 X140.4287 Y173.0189 I-6.776 J-30.3801
G3 X138.2123 Y173.2012 I-2.2466 J-13.752
G3 X138.1976 Y173.2011 I-0.0043 J-2.0
G3 X134.3144 Y172.6799 I0.08 J-15.3218
G3 X134.309 Y172.6785 I0.5173 J-1.9319
G3 X130.6236 Y170.9819 I3.189 J-11.7788
G3 X128.1265 Y168.514 I4.9871 J-7.5432
G3 X128.1089 Y168.4876 I1.6553 J-1.1225
G3 X127.0039 Y164.7572 I5.652 J-3.7032
G3 X127.7779 Y162.3751 I3.9954 J-0.0184
G3 X127.8315 Y162.3054 I1.6125 J1.1831
G3 X130.095 Y160.6174 I4.3954 J3.5323
G3 X132.191 Y159.9454 I4.5542 J10.5986
G3 X132.2228 Y159.9387 I0.4262 J1.9541
G3 X135.0258 Y159.537 I4.9753 J24.7357
G3 X137.6824 Y159.318 I8.7831 J90.3508
G3 X137.6918 Y159.3174 I0.135 J1.9954
G2 X141.8223 Y158.461 I-0.9382 J-14.913
G2 X145.1628 Y156.3645 I-3.2157 J-8.8336
G3 X145.1761 Y156.3517 I1.3948 J1.4333
G2 X147.4388 Y150.9251 I-5.0566 J-5.2935
G3 X147.4387 Y150.8579 I1.9997 J-0.0364
G2 X146.3041 Y146.5633 I-8.2163 J-0.1264
G2 X143.0181 Y143.314 I-8.6617 J5.4733
G3 X142.9847 Y143.293 I1.0493 J-1.7026
G2 X138.3679 Y141.2509 I-8.8184 J13.6975
G2 X133.2643 Y140.6084 I-4.9822 J18.9821
G3 X133.2284 Y140.6083 I-0.0124 J-2.0
G2 X125.8956 Y142.1405 I-0.204 J17.3362
G3 X125.8667 Y142.1533 I-0.8224 J-1.8231
G2 X123.3522 Y143.8886 I3.1094 J7.1949
G2 X122.4588 Y146.1074 I2.4253 J2.2658
G3 X122.4552 Y146.2017 I-1.9998 J-0.0283
G2 X122.4564 Y146.2172 I0.0554 J0.0034
G0 Z3.0
G0 X162.3213 Y162.9705
G0 Z1.0
G1 F300.0 Z-3.0
G3 F1000.0 X163.3131 Y163.9484 I-1.4082 J2.4201
G3 X164.4031 Y162.9326 I2.3852 J1.4666
G3 X163.4254 Y161.9418 I1.4416 J-2.4004
G3 X162.3213 Y162.9705 I-2.3902 J-1.4584
G1 F300.0 X161.9538 Y162.2599
G3 F1000.0 X161.1428 Y162.4805 I-0.9187 J-1.7765
G2 X155.8129 Y162.8886 I6.3704 J118.1954
G3 X155.7768 Y162.8919 I-0.1977 J-1.9902
G2 X155.4832 Y162.9945 I0.0498 J0.6139
G2 X155.4393 Y163.2047 I0.3713 J0.1871
G3 X155.4413 Y163.3808 I-1.9969 J0.1108
G2 X155.5739 Y163.7441 I0.5174 J0.0169
G2 X155.7023 Y163.8059 I0.1458 J-0.1384
G1 X160.7517 Y163.3971
G3 X162.913 Y165.4101 I0.1614 J1.9935
G3 X162.7878 Y168.8256 I-63.4829 J-0.6175
G2 X162.6932 Y171.7649 I77.9392 J3.9791
G3 X162.6924 Y171.7986 I-1.9998 J-0.0266
G2 X162.7571 Y171.9525 I0.201 J0.0061
G3 X162.7994 Y171.9926 I-1.3558 J1.4703
G2 X163.0893 Y172.107 I0.2808 J-0.2873
G3 X163.1608 Y172.1066 I0.0454 J1.9995
G2 X163.271 Y172.0345 I0.0015 J-0.1179
G3 X163.2932 Y171.9838 I1.8433 J0.776
G2 X163.7035 Y170.3725 I-4.3047 J-1.9541
G3 Y170.3721 I1.9947 J0.145
G2 X163.7717 Y168.3841 I-25.7242 J-1.8765
G1 X163.7238 Y166.9976
G3 X163.7229 Y166.961 I1.9988 J-0.0689
G1 X163.6985 Y165.4473
G3 X165.9718 Y163.4338 I1.9997 J-0.0323
G2 X169.2545 Y163.8058 I9.2766 J-67.1967
G2 X170.7425 Y163.7729 I0.0098 J-33.1746
G3 X170.787 Y163.7714 I0.0891 J1.998
G2 X171.9251 Y163.6376 I-0.1353 J-6.0589
G2 X171.9759 Y163.3374 I-0.7039 J-0.2734
G3 X171.9756 Y163.2041 I1.9987 J-0.0708
G2 X171.8537 Y162.8753 I-0.4652 J-0.0145
G2 X171.6552 Y162.7994 I-0.1885 J0.1957
G3 X171.5949 Y162.8007 I-0.0732 J-1.9987
G2 X170.5101 Y162.8441 I0.1044 J16.2149
G3 X169.1771 Y162.8984 I-1.4492 J-19.1752
G3 X169.0126 Y162.8926 I-0.0121 J-2.0
G3 X165.5589 Y162.5117 I3.9495 J-51.6556
G3 X163.8458 Y160.468 I0.2858 J-1.9795
G1 X164.3093 Y146.0487
G1 X164.3335 Y144.987
G1 X164.3578 Y143.745
G3 X164.359 Y143.7048 I1.9996 J0.0392
G2 X164.1202 Y141.0712 I-10.1839 J-0.4044
G2 X163.8331 Y140.4371 I-1.6748 J0.3764
G3 X163.7676 Y140.4373 I-0.0392 J-1.9996
G2 X163.4104 Y140.57 I-0.007 J0.5285
G3 X163.3914 Y140.5866 I-1.3254 J-1.4978
G2 X163.3766 Y140.6199 I0.028 J0.0325
G3 X163.3769 Y140.6408 I-1.9996 J0.0393
G2 X163.4483 Y143.3556 I79.41 J-0.7314
G1 Y143.3557
G3 X163.5234 Y146.207 I-83.6349 J3.6276
G3 X163.5223 Y146.294 I-1.9999 J0.0185
G1 X163.034 Y160.5519
G3 X161.9538 Y162.2599 I-1.9988 J-0.0685
G1 F300.0 X162.3213 Y162.9705
G1 Z-5.0
G3 F1000.0 X163.3131 Y163.9484 I-1.4082 J2.4201
G3 X164.4031 Y162.9326 I2.3852 J1.4666
G3 X163.4254 Y161.9418 I1.4416 J-2.4004
G3 X162.3213 Y162.9705 I-2.3902 J-1.4584
G1 F300.0 X161.9538 Y162.2599
G3 F1000.0 X161.1428 Y162.4805 I-0.9187 J-1.7765
G2 X155.8129 Y162.8886 I6.3704 J118.1954
G3 X155.7768 Y162.8919 I-0.1977 J-1.9902
G2 X155.4832 Y162.9945 I0.0498 J0.6139
G2 X155.4393 Y163.2047 I0.3713 J0.1871
G3 X155.4413 Y163.3808 I-1.9969 J0.1108
G2 X155.5739 Y163.7441 I0.5174 J0.0169
G2 X155.7023 Y163.8059 I0.1458 J-0.1384
G1 X160.7517 Y163.3971
G3 X162.913 Y165.4101 I0.1614 J1.9935
G3 X162.7878 Y168.8256 I-63.4829 J-0.6175
G2 X162.6932 Y171.7649 I77.9392 J3.9791
G3 X162.6924 Y171.7986 I-1.9998 J-0.0266
G2 X162.7571 Y171.9525 I0.201 J0.0061
G3 X162.7994 Y171.9926 I-1.3558 J1.4703
G2 X163.0893 Y172.107 I0.2808 J-0.2873
G3 X163.1608 Y172.1066 I0.0454 J1.9995
G2 X163.271 Y172.0345 I0.0015 J-0.1179
G3 X163.2932 Y171.9838 I1.8433 J0.776
G2 X163.7035 Y170.3725 I-4.3047 J-1.9541
G3 Y170.3721 I1.9947 J0.145
G2 X163.7717 Y168.3841 I-25.7242 J-1.8765
G1 X163.7238 Y166.9976
G3 X163.7229 Y166.961 I1.9988 J-0.0689
G1 X163.6985 Y165.4473
G3 X165.9718 Y163.4338 I1.9997 J-0.0323
G2 X169.2545 Y163.8058 I9.2766 J-67.1967
G2 X170.7425 Y163.7729 I0.0098 J-33.1746
G3 X170.787 Y163.7714 I0.0891 J1.998
G2 X171.9251 Y163.6376 I-0.1353 J-6.0589
G2 X171.9759 Y163.3374 I-0.7039 J-0.2734
G3 X171.9756 Y163.2041 I1.9987 J-0.0708
G2 X171.8537 Y162.8753 I-0.4652 J-0.0145
G2 X171.6552 Y162.7994 I-0.1885 J0.1957
G3 X171.5949 Y162.8007 I-0.0732 J-1.9987
G2 X170.5101 Y162.8441 I0.1044 J16.2149
G3 X169.1771 Y162.8984 I-1.4492 J-19.1752
G3 X169.0126 Y162.8926 I-0.0121 J-2.0
G3 X165.5589 Y162.5117 I3.9495 J-51.6556
G3 X163.8458 Y160.468 I0.2858 J-1.9795
G1 X164.3093 Y146.0487
G1 X164.3335 Y144.987
G1 X164.3578 Y143.745
G3 X164.359 Y143.7048 I1.9996 J0.0392
G2 X164.1202 Y141.0712 I-10.1839 J-0.4044
G2 X163.8331 Y140.4371 I-1.6748 J0.3764
G3 X163.7676 Y140.4373 I-0.0392 J-1.9996
G2 X163.4104 Y140.57 I-0.007 J0.5285
G3 X163.3914 Y140.5866 I-1.3254 J-1.4978
G2 X163.3766 Y140.6199 I0.028 J0.0325
G3 X163.3769 Y140.6408 I-1.9996 J0.0393
G2 X163.4483 Y143.3556 I79.41 J-0.7314
G1 Y143.3557
G3 X163.5234 Y146.207 I-83.6349 J3.6276
G3 X163.5223 Y146.294 I-1.9999 J0.0185
G1 X163.034 Y160.5519
G3 X161.9538 Y162.2599 I-1.9988 J-0.0685
G0 Z3.0
G0 X195.7734 Y142.6231
G0 Z1.0
G1 F300.0 Z-3.0
G3 F1000.0 X196.004 Y142.8357 I-1.7792 J2.162
G3 X196.0248 Y142.415 I31.4126 J1.338
G3 X195.7734 Y142.6231 I-1.9086 J-2.0487
G1 F300.0 X195.2999 Y141.9783
G3 F1000.0 X193.222 Y142.1552 I-1.1837 J-1.6121
G2 X187.1241 Y140.7789 I-5.8422 J11.6882
G3 X187.0679 Y140.7792 I-0.0391 J-1.9996
G2 X184.7923 Y141.0358 I-0.0808 J9.5038
G2 X182.8997 Y141.8573 I1.3656 J5.7368
G2 X181.0163 Y144.9793 I2.4323 J3.5964
G3 X181.0046 Y145.0677 I-1.988 J-0.2185
G2 X180.0763 Y156.2823 I77.8142 J12.0869
G2 X180.7766 Y163.545 I43.9984 J-0.5772
G3 X180.7963 Y163.6798 I-1.968 J0.3563
G2 X180.9165 Y164.0087 I0.7334 J-0.0817
G2 X181.0214 Y164.0282 I0.0929 J-0.2068
G3 X181.1821 Y164.0261 I0.1065 J1.9972
G2 X181.4951 Y163.9044 I0.0117 J-0.433
G3 X181.5217 Y163.8791 I1.3907 J1.4374
G2 X181.595 Y163.7053 I-0.1574 J-0.1688
G2 X181.254 Y160.368 I-27.5287 J1.1274
G3 X181.2504 Y160.3453 I1.9736 J-0.3241
G3 X180.8866 Y156.3443 I32.7948 J-4.9984
G3 X180.8858 Y156.2964 I1.9991 J-0.0601
G3 X181.1605 Y149.1437 I80.4835 J-0.49
G3 X182.0308 Y144.111 I26.6327 J2.0139
G3 X182.9927 Y142.8881 I1.9291 J0.5277
G3 X184.9393 Y142.0496 I5.2347 J9.4732
G3 X184.9953 Y142.0326 I0.6076 J1.9055
G3 X187.0762 Y141.7354 I2.1146 J7.3702
G3 X187.1061 Y141.7355 I0.0088 J2.0
G3 X194.568 Y142.8692 I-0.2856 J27.0015
G3 X195.9941 Y144.795 I-0.5738 J1.9159
G1 X195.9697 Y149.7511
G3 X195.9696 Y149.7618 I-2.0 J-0.0099
G1 X195.9208 Y154.4951
G2 X196.373 Y163.4162 I77.2286 J0.5576
G3 X196.3803 Y163.4998 I-1.9882 J0.2166
G2 X196.4954 Y163.8543 I0.7602 J-0.0507
G2 X196.6365 Y163.8823 I0.1245 J-0.2581
G3 X196.8071 Y163.8796 I0.1164 J1.9966
G2 X197.1201 Y163.7579 I0.0117 J-0.433
G3 X197.1364 Y163.7423 I1.3907 J1.4374
G2 X197.1758 Y163.6401 I-0.0875 J-0.0925
G3 X197.1722 Y163.5815 I1.9941 J-0.1537
G1 X196.7327 Y154.3529
G3 X196.7305 Y154.2534 I1.9977 J-0.0951
G3 X196.7549 Y148.9702 I1080.426 J2.3603
G3 Y148.9682 I1.9999 J0.0141
G2 X196.7793 Y143.7086 I-756.5247 J-6.1323
G3 X196.7796 Y143.6786 I2.0 J0.0023
G3 X196.8579 Y141.9287 I30.6371 J0.4951
G3 X196.8621 Y141.8803 I1.9946 J0.1465
G2 X196.9507 Y140.3961 I-19.4923 J-1.9085
G3 X196.9514 Y140.3699 I1.9995 J0.0433
G2 X196.8782 Y140.1932 I-0.2306 J-0.008
G3 X196.8442 Y140.1607 I1.364 J-1.4627
G2 X196.5542 Y140.0464 I-0.2808 J0.2873
G3 X196.4282 Y140.0452 I-0.0454 J-1.9995
G2 X196.3675 Y140.062 I-0.0042 J0.103
G2 X196.0841 Y140.7233 I1.3 J0.9486
G3 X195.2999 Y141.9783 I-1.9679 J-0.3571
G1 F300.0 X195.7734 Y142.6231
G1 Z-5.0
G3 F1000.0 X196.004 Y142.8357 I-1.7792 J2.162
G3 X196.0248 Y142.415 I31.4126 J1.338
G3 X195.7734 Y142.6231 I-1.9086 J-2.0487
G1 F300.0 X195.2999 Y141.9783
G3 F1000.0 X193.222 Y142.1552 I-1.1837 J-1.6121
G2 X187.1241 Y140.7789 I-5.8422 J11.6882
G3 X187.0679 Y140.7792 I-0.0391 J-1.9996
G2 X184.7923 Y141.0358 I-0.0808 J9.5038
G2 X182.8997 Y141.8573 I1.3656 J5.7368
G2 X181.0163 Y144.9793 I2.4323 J3.5964
G3 X181.0046 Y145.0677 I-1.988 J-0.2185
G2 X180.0763 Y156.2823 I77.8142 J12.0869
G2 X180.7766 Y163.545 I43.9984 J-0.5772
G3 X180.7963 Y163.6798 I-1.968 J0.3563
G2 X180.9165 Y164.0087 I0.7334 J-0.0817
G2 X181.0214 Y164.0282 I0.0929 J-0.2068
G3 X181.1821 Y164.0261 I0.1065 J1.9972
G2 X181.4951 Y163.9044 I0.0117 J-0.433
G3 X181.5217 Y163.8791 I1.3907 J1.4374
G2 X181.595 Y163.7053 I-0.1574 J-0.1688
G2 X181.254 Y160.368 I-27.5287 J1.1274
G3 X181.2504 Y160.3453 I1.9736 J-0.3241
G3 X180.8866 Y156.3443 I32.7948 J-4.9984
G3 X180.8858 Y156.2964 I1.9991 J-0.0601
G3 X181.1605 Y149.1437 I80.4835 J-0.49
G3 X182.0308 Y144.111 I26.6327 J2.0139
G3 X182.9927 Y142.8881 I1.9291 J0.5277
G3 X184.9393 Y142.0496 I5.2347 J9.4732
G3 X184.9953 Y142.0326 I0.6076 J1.9055
G3 X187.0762 Y141.7354 I2.1146 J7.3702
G3 X187.1061 Y141.7355 I0.0088 J2.0
G3 X194.568 Y142.8692 I-0.2856 J27.0015
G3 X195.9941 Y144.795 I-0.5738 J1.9159
G1 X195.9697 Y149.7511
G3 X195.9696 Y149.7618 I-2.0 J-0.0099
G1 X195.9208 Y154.4951
G2 X196.373 Y163.4162 I77.2286 J0.5576
G3 X196.3803 Y163.4998 I-1.9882 J0.2166
G2 X196.4954 Y163.8543 I0.7602 J-0.0507
G2 X196.6365 Y163.8823 I0.1245 J-0.2581
G3 X196.8071 Y163.8796 I0.1164 J1.9966
G2 X197.1201 Y163.7579 I0.0117 J-0.433
G3 X197.1364 Y163.7423 I1.3907 J1.4374
G2 X197.1758 Y163.6401 I-0.0875 J-0.0925
G3 X197.1722 Y163.5815 I1.9941 J-0.1537
G1 X196.7327 Y154.3529
G3 X196.7305 Y154.2534 I1.9977 J-0.0951
G3 X196.7549 Y148.9702 I1080.426 J2.3603
G3 Y148.9682 I1.9999 J0.0141
G2 X196.7793 Y143.7086 I-756.5247 J-6.1323
G3 X196.7796 Y143.6786 I2.0 J0.0023
G3 X196.8579 Y141.9287 I30.6371 J0.4951
G3 X196.8621 Y141.8803 I1.9946 J0.1465
G2 X196.9507 Y140.3961 I-19.4923 J-1.9085
G3 X196.9514 Y140.3699 I1.9995 J0.0433
G2 X196.8782 Y140.1932 I-0.2306 J-0.008
G3 X196.8442 Y140.1607 I1.364 J-1.4627
G2 X196.5542 Y140.0464 I-0.2808 J0.2873
G3 X196.4282 Y140.0452 I-0.0454 J-1.9995
G2 X196.3675 Y140.062 I-0.0042 J0.103
G2 X196.0841 Y140.7233 I1.3 J0.9486
G3 X195.2999 Y141.9783 I-1.9679 J-0.3571
G0 Z3.0
G0 X207.6405 Y155.5283
G0 Z1.0
G1 F300.0 Z-3.0
G3 F1000.0 X207.5567 Y156.7608 I-50.5559 J-2.8178
G3 X208.3244 Y156.3369 I1.7207 J2.2089
G2 X207.6405 Y155.5283 I-9.9327 J7.7074
G1 F300.0 X206.8417 Y155.4837
G3 F1000.0 X206.6535 Y157.8474 I-49.7571 J-2.7733
G2 X206.443 Y161.595 I50.8957 J4.7382
G2 X206.7039 Y164.3396 I12.2474 J0.2203
G3 X206.7045 Y164.3421 I-1.9571 J0.4121
G2 X206.9944 Y165.0786 I2.3059 J-0.4825
G2 X207.1422 Y164.9754 I-0.1224 J-0.3326
G3 X207.2958 Y164.8136 I1.5248 J1.2942
G2 X207.4711 Y164.4532 I-0.3872 J-0.4111
G2 X207.3693 Y163.2957 I-11.7623 J0.4508
G3 X207.3692 Y163.2946 I1.9812 J-0.2733
G3 X207.2292 Y161.5874 I15.5179 J-2.1313
G3 X207.2289 Y161.4951 I1.9993 J-0.0541
G1 X207.2777 Y158.9316
G3 X209.9885 Y157.1004 I1.9996 J0.0381
G1 X209.4464 Y156.4941
G3 X209.3052 Y156.3169 I1.4911 J-1.3329
G2 X208.2221 Y154.9789 I-10.9135 J7.7274
G3 X207.6928 Y153.6654 I1.4703 J-1.3558
G2 X207.4344 Y149.5076 I-50.9472 J1.0791
G3 X207.1558 Y145.1256 I54.9636 J-5.6945
G3 X207.1563 Y145.0128 I1.9994 J-0.0475
G3 X207.4076 Y142.6677 I15.9311 J0.5209
G3 X207.4158 Y142.6256 I1.9674 J0.3596
G2 X207.6187 Y141.0752 I-10.6386 J-2.1812
G2 X207.5565 Y140.9534 I-0.1805 J0.0154
G3 X207.4775 Y140.8815 I1.3058 J-1.5149
G2 X207.156 Y140.7547 I-0.3154 J0.3286
G3 X207.1053 I-0.0271 J-1.9998
G1 X207.1052 Y140.7548
G3 X207.0854 Y140.7844 I-1.6714 J-1.0983
G2 X206.7631 Y141.4688 I1.9717 J1.3466
G3 X206.7618 Y141.4731 I-1.9215 J-0.5547
G2 X206.4541 Y143.1251 I8.1535 J2.3735
G3 X206.4528 Y143.139 I-1.9928 J-0.1699
G2 X206.37 Y145.004 I19.5072 J1.8005
G2 X206.6284 Y149.1971 I52.7914 J-1.1484
G3 X206.9068 Y153.7267 I-56.493 J5.745
G3 X206.9067 Y153.8138 I-1.9995 J0.0428
G3 X206.8417 Y155.4837 I-49.8221 J-1.1034
G0 Z3.0
G0 X220.7056 Y158.9049
G0 Z1.0
G1 F300.0 Z-3.0
G3 F1000.0 X220.6484 Y159.3403 I-16.2826 J-1.9158
G3 X220.5367 Y159.9864 I-9.3456 J-1.2831
G3 X221.2865 Y159.4667 I1.9486 J2.0107
G3 X220.7056 Y158.9049 I7.593 J-8.4332
G1 F300.0 X219.9111 Y158.8114
G2 F1000.0 X220.0176 Y156.8986 I-15.4881 J-1.8223
G3 X220.2081 Y152.677 I61.2152 J0.6472
G2 X220.2088 Y152.6689 I-1.9937 J-0.1591
G3 X220.5926 Y148.3631 I161.0992 J12.1905
G2 X221.0025 Y143.9653 I-157.1874 J-16.8681
G2 X221.2138 Y139.4598 I-62.0623 J-5.168
G2 X221.2125 Y139.3639 I-1.9999 J-0.0213
G3 X221.3222 Y139.0593 I0.4329 J-0.0161
G3 X221.5467 Y138.9718 I0.2153 J0.2204
G2 X221.676 Y138.9714 I0.0598 J-1.9991
G3 X221.8527 Y139.0447 I0.008 J0.2306
G2 X221.8903 Y139.0839 I1.4627 J-1.364
G3 X222.0003 Y139.3667 I-0.2733 J0.2691
G2 X221.9993 Y139.4061 I1.9987 J0.0718
G3 X221.5518 Y145.5529 I-54.5632 J-0.8823
G2 X221.5477 Y145.5872 I1.9833 J0.2576
G1 X220.8152 Y152.1058
G2 X220.8068 Y152.2016 I1.9875 J0.2233
G2 X220.6808 Y156.9402 I63.5613 J4.0615
G2 X221.2302 Y158.296 I1.9999 J-0.0213
G2 X223.0233 Y159.8062 I7.6493 J-7.2625
G2 X224.699 Y160.8871 I17.6603 J-25.5382
G2 X227.4249 Y162.3431 I10.1372 J-15.6995
G2 X227.4261 Y162.3436 I0.7932 J-1.836
G2 X228.9875 Y162.7227 I1.8923 J-4.3885
G2 X229.1996 Y162.7262 I0.1385 J-1.9952
G2 X231.1849 Y161.8962 I-0.1126 J-3.0589
G2 X232.0062 Y160.8963 I-3.1831 J-3.4518
G2 X232.0104 Y160.8895 I-1.7057 J-1.0444
G2 X232.8127 Y159.2125 I-8.0242 J-4.8694
G2 X233.742 Y155.5215 I-17.4601 J-6.3586
G2 X233.7508 Y155.4524 I-1.9793 J-0.2871
G1 X234.5809 Y147.8841
G2 X234.5859 Y147.8318 I-1.9881 J-0.218
G3 X235.4497 Y140.393 I114.4383 J9.5201
G2 X235.4595 Y140.3181 I-1.9781 J-0.2954
G3 X235.5783 Y139.9966 I0.7059 J0.0783
G3 X235.7091 Y139.9708 I0.1163 J0.2451
G2 X235.8606 Y139.9731 I0.1063 J-1.9972
G3 X236.2269 Y140.1136 I0.0117 J0.5172
G2 X236.2635 Y140.1472 I1.3707 J-1.4564
G3 X235.4663 Y147.0819 I-625.3233 J-68.3784
G2 X235.4656 Y147.0871 I1.9856 J0.2394
G3 X234.5226 Y154.0003 I-190.4602 J-22.4595
G2 X234.5121 Y154.0782 I1.9764 J0.3063
G3 X233.8481 Y159.1762 I-169.6337 J-19.5019
G2 X233.8454 Y159.1953 I1.9791 J0.2881
G3 X233.5767 Y160.6059 I-13.3549 J-1.8131
G3 X232.9908 Y161.8785 I-6.5007 J-2.2217
G2 X232.9895 Y161.8807 I1.7219 J1.0173
G3 X232.2083 Y162.8225 I-3.3065 J-1.9478
G3 X229.9985 Y163.5626 I-2.0982 J-2.5957
G2 X229.895 Y163.5619 I-0.0669 J1.9989
G3 X226.5419 Y162.8517 I-0.1394 J-7.6128
G3 X224.0985 Y160.8149 I2.8785 J-5.937
G2 X220.592 Y161.3526 I-1.6132 J1.1822
G3 X219.3017 Y163.2119 I-3.8951 J-1.3258
G3 X217.2992 Y163.8074 I-1.9155 J-2.7772
G3 X216.0057 Y163.3902 I0.1714 J-2.7457
G2 X215.9608 Y163.3628 I-1.065 J1.6928
G3 X214.3342 Y162.1805 I5.5053 J-9.2837
G2 X214.2897 Y162.1424 I-1.3215 J1.5012
G3 X211.3672 Y158.6427 I8.0204 J-9.6678
G1 X212.3273 Y159.7167
G2 X212.3733 Y159.7665 I1.4911 J-1.3329
G2 X216.4029 Y162.7177 I10.3467 J-9.9007
G2 X219.0889 Y161.7869 I0.8823 J-1.7949
G2 X219.8563 Y159.2285 I-7.786 J-3.7297
G2 X219.9111 Y158.8114 I-15.4333 J-2.2395
G1 F300.0 X220.7056 Y158.9049
G1 Z-5.0
G3 F1000.0 X220.6484 Y159.3403 I-16.2826 J-1.9158
G3 X220.5367 Y159.9864 I-9.3456 J-1.2831
G3 X221.2865 Y159.4667 I1.9486 J2.0107
G3 X220.7056 Y158.9049 I7.593 J-8.4332
G1 F300.0 X219.9111 Y158.8114
G2 F1000.0 X220.0176 Y156.8986 I-15.4881 J-1.8223
G3 X220.2081 Y152.677 I61.2152 J0.6472
G2 X220.2088 Y152.6689 I-1.9937 J-0.1591
G3 X220.5926 Y148.3631 I161.0992 J12.1905
G2 X221.0025 Y143.9653 I-157.1874 J-16.8681
G2 X221.2138 Y139.4598 I-62.0623 J-5.168
G2 X221.2125 Y139.3639 I-1.9999 J-0.0213
G3 X221.3222 Y139.0593 I0.4329 J-0.0161
G3 X221.5467 Y138.9718 I0.2153 J0.2204
G2 X221.676 Y138.9714 I0.0598 J-1.9991
G3 X221.8527 Y139.0447 I0.008 J0.2306
G2 X221.8903 Y139.0839 I1.4627 J-1.364
G3 X222.0003 Y139.3667 I-0.2733 J0.2691
G2 X221.9993 Y139.4061 I1.9987 J0.0718
G3 X221.5518 Y145.5529 I-54.5632 J-0.8823
G2 X221.5477 Y145.5872 I1.9833 J0.2576
G1 X220.8152 Y152.1058
G2 X220.8068 Y152.2016 I1.9875 J0.2233
G2 X220.6808 Y156.9402 I63.5613 J4.0615
G2 X221.2302 Y158.296 I1.9999 J-0.0213
G2 X223.0233 Y159.8062 I7.6493 J-7.2625
G2 X224.699 Y160.8871 I17.6603 J-25.5382
G2 X227.4249 Y162.3431 I10.1372 J-15.6995
G2 X227.4261 Y162.3436 I0.7932 J-1.836
G2 X228.9875 Y162.7227 I1.8923 J-4.3885
G2 X229.1996 Y162.7262 I0.1385 J-1.9952
G2 X231.1849 Y161.8962 I-0.1126 J-3.0589
G2 X232.0062 Y160.8963 I-3.1831 J-3.4518
G2 X232.0104 Y160.8895 I-1.7057 J-1.0444
G2 X232.8127 Y159.2125 I-8.0242 J-4.8694
G2 X233.742 Y155.5215 I-17.4601 J-6.3586
G2 X233.7508 Y155.4524 I-1.9793 J-0.2871
G1 X234.5809 Y147.8841
G2 X234.5859 Y147.8318 I-1.9881 J-0.218
G3 X235.4497 Y140.393 I114.4383 J9.5201
G2 X235.4595 Y140.3181 I-1.9781 J-0.2954
G3 X235.5783 Y139.9966 I0.7059 J0.0783
G3 X235.7091 Y139.9708 I0.1163 J0.2451
G2 X235.8606 Y139.9731 I0.1063 J-1.9972
G3 X236.2269 Y140.1136 I0.0117 J0.5172
G2 X236.2635 Y140.1472 I1.3707 J-1.4564
G3 X235.4663 Y147.0819 I-625.3233 J-68.3784
G2 X235.4656 Y147.0871 I1.9856 J0.2394
G3 X234.5226 Y154.0003 I-190.4602 J-22.4595
G2 X234.5121 Y154.0782 I1.9764 J0.3063
G3 X233.8481 Y159.1762 I-169.6337 J-19.5019
G2 X233.8454 Y159.1953 I1.9791 J0.2881
G3 X233.5767 Y160.6059 I-13.3549 J-1.8131
G3 X232.9908 Y161.8785 I-6.5007 J-2.2217
G2 X232.9895 Y161.8807 I1.7219 J1.0173
G3 X232.2083 Y162.8225 I-3.3065 J-1.9478
G3 X229.9985 Y163.5626 I-2.0982 J-2.5957
G2 X229.895 Y163.5619 I-0.0669 J1.9989
G3 X226.5419 Y162.8517 I-0.1394 J-7.6128
G3 X224.0985 Y160.8149 I2.8785 J-5.937
G2 X220.592 Y161.3526 I-1.6132 J1.1822
G3 X219.3017 Y163.2119 I-3.8951 J-1.3258
G3 X217.2992 Y163.8074 I-1.9155 J-2.7772
G3 X216.0057 Y163.3902 I0.1714 J-2.7457
G2 X215.9608 Y163.3628 I-1.065 J1.6928
G3 X214.3342 Y162.1805 I5.5053 J-9.2837
G2 X214.2897 Y162.1424 I-1.3215 J1.5012
G3 X211.3672 Y158.6427 I8.0204 J-9.6678
G1 X212.3273 Y159.7167
G2 X212.3733 Y159.7665 I1.4911 J-1.3329
G2 X216.4029 Y162.7177 I10.3467 J-9.9007
G2 X219.0889 Y161.7869 I0.8823 J-1.7949
G2 X219.8563 Y159.2285 I-7.786 J-3.7297
G2 X219.9111 Y158.8114 I-15.4333 J-2.2395
G0 Z3.0
G0 X208.3244 Y156.3369
G0 Z-2.0
G1 F300.0 Z-5.0
G2 F1000.0 X207.6405 Y155.5283 I-9.9327 J7.7074
G3 X207.5567 Y156.7608 I-50.5559 J-2.8178
G3 X208.3244 Y156.3369 I1.7207 J2.2089
G1 F300.0 X208.5967 Y157.0891
G3 F1000.0 X209.9885 Y157.1004 I0.6807 J1.8806
G1 X209.4464 Y156.4941
G3 X209.3052 Y156.3169 I1.4911 J-1.3329
G2 X208.2221 Y154.9789 I-10.9135 J7.7274
G3 X207.6928 Y153.6654 I1.4703 J-1.3558
G2 X207.4344 Y149.5076 I-50.9472 J1.0791
G3 X207.1558 Y145.1256 I54.9636 J-5.6945
G3 X207.1563 Y145.0128 I1.9994 J-0.0475
G3 X207.4076 Y142.6677 I15.9311 J0.5209
G3 X207.4158 Y142.6256 I1.9674 J0.3596
G2 X207.6187 Y141.0752 I-10.6386 J-2.1812
G2 X207.5565 Y140.9534 I-0.1805 J0.0154
G3 X207.4775 Y140.8815 I1.3058 J-1.5149
G2 X207.156 Y140.7547 I-0.3154 J0.3286
G3 X207.1053 I-0.0271 J-1.9998
G1 X207.1052 Y140.7548
G3 X207.0854 Y140.7844 I-1.6714 J-1.0983
G2 X206.7631 Y141.4688 I1.9717 J1.3466
G3 X206.7618 Y141.4731 I-1.9215 J-0.5547
G2 X206.4541 Y143.1251 I8.1535 J2.3735
G3 X206.4528 Y143.139 I-1.9928 J-0.1699
G2 X206.37 Y145.004 I19.5072 J1.8005
G2 X206.6284 Y149.1971 I52.7914 J-1.1484
G3 X206.9068 Y153.7267 I-56.493 J5.745
G3 X206.9067 Y153.8138 I-1.9995 J0.0428
G3 X206.6535 Y157.8474 I-49.8221 J-1.1034
G2 X206.443 Y161.595 I50.8957 J4.7382
G2 X206.7039 Y164.3396 I12.2474 J0.2203
G3 X206.7045 Y164.3421 I-1.9571 J0.4121
G2 X206.9944 Y165.0786 I2.3059 J-0.4825
G2 X207.1422 Y164.9754 I-0.1224 J-0.3326
G3 X207.2958 Y164.8136 I1.5248 J1.2942
G2 X207.4711 Y164.4532 I-0.3872 J-0.4111
G2 X207.3693 Y163.2957 I-11.7623 J0.4508
G3 X207.3692 Y163.2946 I1.9812 J-0.2733
G3 X207.2292 Y161.5874 I15.5179 J-2.1313
G3 X207.2289 Y161.4951 I1.9993 J-0.0541
G1 X207.2777 Y158.9316
G3 X208.5967 Y157.0891 I1.9996 J0.0381
G0 Z3.0
G0 X246.3546 Y156.6526
G0 Z1.0
G1 F300.0 Z-3.0
G1 F1000.0 X246.3156 Y153.28
G3 X246.3155 Y153.244 I1.9999 J-0.0231
G1 X246.3399 Y149.4357
G1 X246.3643 Y145.4321
G3 X247.5504 Y143.6174 I2.0 J0.0122
G3 X250.9419 Y142.2106 I28.886 J64.8445
G3 X251.0998 Y142.1572 I0.7183 J1.8666
G3 X255.0538 Y141.6132 I3.8116 J13.0605
G3 X258.9906 Y142.3665 I0.102 J10.1306
G3 X259.0182 Y142.378 I-0.757 J1.8512
G3 X262.353 Y144.768 I-3.7092 J8.6971
G3 X265.135 Y152.3257 I-8.0843 J7.2667
G3 X264.6493 Y156.0236 I-13.6761 J0.0845
G3 X264.6473 Y156.0307 I-1.9289 J-0.5284
G3 X262.9186 Y159.5638 I-10.3577 J-2.8784
G3 X255.9313 Y163.0199 I-6.7482 J-4.8518
G3 X250.8964 Y161.6389 I0.2277 J-10.6991
G3 X250.8354 Y161.6031 I0.9835 J-1.7415
G3 X247.1458 Y159.0664 I22.146 J-36.164
G3 X246.3644 Y157.5036 I1.2185 J-1.586
G1 X246.3546 Y156.6526
G0 Z3.0
G0 X246.8009 Y159.8059
G0 Z1.0
G1 F300.0 Z-3.0
G2 F1000.0 X246.7965 Y160.4177 I374.0107 J3.0369
G3 X247.2771 Y160.1634 I1.5434 J2.3362
G3 X246.8009 Y159.8059 I25.7043 J-34.7244
G0 Z3.0
G0 X246.9756 Y143.0167
G0 Z1.0
G1 F300.0 Z-3.0
G3 F1000.0 X247.0641 Y142.9681 I1.3887 J2.4277
G3 X246.9721 Y142.9222 I1.2025 J-2.5286
G2 X246.9756 Y143.0167 I52.6938 J-1.8858
G1 F300.0 X246.1761 Y143.0467
G2 F1000.0 X246.1867 Y143.3109 I53.4897 J-2.0103
G3 X246.2625 Y145.2714 I-38.4709 J2.4695
G3 X246.2627 Y145.3111 I-1.9998 J0.0264
G3 X246.1154 Y153.0943 I-316.7984 J-2.1006
G2 X245.9942 Y160.8044 I374.6963 J9.7485
G2 X246.0185 Y167.5279 I1877.4798 J-3.4441
G3 X246.043 Y174.3234 I-1544.7172 J8.9542
G3 X246.0427 Y174.3567 I-2.0 J0.0028
G2 X246.4359 Y176.056 I3.6296 J0.0554
G2 X246.7071 Y176.4019 I1.0178 J-0.5189
G2 X246.707 Y176.3943 I-1.0529 J0.0093
G2 X246.6244 Y175.727 I-4.3106 J0.1953
G3 X246.4636 Y174.409 I8.1455 J-1.6622
G3 X246.4621 Y174.3536 I1.9983 J-0.0828
G1 X246.3889 Y169.0069
G3 X246.3887 Y168.9952 I1.9998 J-0.0274
G1 X246.3399 Y162.7696
G3 X249.4828 Y161.1127 I1.9999 J-0.0157
G2 X253.0944 Y163.0388 I9.9044 J-14.2219
G3 X253.1111 Y163.0454 I-0.7262 J1.8635
G2 X256.0148 Y163.635 I3.0697 J-7.6729
G2 X259.8705 Y162.8245 I0.1196 J-9.0075
G2 X262.933 Y160.3662 I-3.828 J-7.9054
G3 X262.9513 Y160.3433 I1.569 J1.2403
G2 X264.9518 Y156.633 I-8.6946 J-7.0823
G2 X265.5782 Y152.3232 I-13.6061 J-4.1782
G3 Y152.2855 I1.9999 J-0.0185
G2 X264.8318 Y147.9243 I-12.4202 J-0.1189
G2 X262.529 Y144.2231 I-10.4838 J3.9558
G3 X262.4994 Y144.1908 I1.4602 J-1.3667
G2 X255.0952 Y140.9742 I-7.2037 J6.452
G3 X255.0271 Y140.9744 I-0.0415 J-1.9996
G2 X249.1157 Y142.2503 I-0.1797 J13.5003
G3 X246.5799 Y141.5142 I-0.8491 J-1.8108
G2 X246.3547 Y141.2676 I-0.8192 J0.522
G3 X246.3328 Y141.2674 I0.0076 J-2.0
G2 X246.2131 Y141.3171 I-0.0024 J0.1632
G3 X246.1935 Y141.3371 I-1.4377 J-1.3903
G2 X246.1396 Y141.4739 I0.1316 J0.1308
G3 X246.1405 Y141.52 I-1.999 J0.0642
G2 X246.1761 Y143.0467 I53.5253 J-0.4836
G1 F300.0 X246.9756 Y143.0167
G1 Z-5.0
G3 F1000.0 X247.0641 Y142.9681 I1.3887 J2.4277
G3 X246.9721 Y142.9222 I1.2025 J-2.5286
G2 X246.9756 Y143.0167 I52.6938 J-1.8858
G0 Z3.0
G0 X246.8009 Y159.8059
G0 Z-2.0
G1 F300.0 Z-5.0
G2 F1000.0 X246.7965 Y160.4177 I374.0107 J3.0369
G3 X247.2771 Y160.1634 I1.5434 J2.3362
G3 X246.8009 Y159.8059 I25.7043 J-34.7244
G1 F300.0 X246.001 Y159.7994
G2 F1000.0 X245.9942 Y160.8044 I374.8107 J3.0434
G2 X246.0185 Y167.5279 I1877.4798 J-3.4441
G3 X246.043 Y174.3234 I-1544.7172 J8.9542
G3 X246.0427 Y174.3567 I-2.0 J0.0028
G2 X246.4359 Y176.056 I3.6296 J0.0554
G2 X246.7071 Y176.4019 I1.0178 J-0.5189
G2 X246.707 Y176.3943 I-1.0529 J0.0093
G2 X246.6244 Y175.727 I-4.3106 J0.1953
G3 X246.4636 Y174.409 I8.1455 J-1.6622
G3 X246.4621 Y174.3536 I1.9983 J-0.0828
G1 X246.3889 Y169.0069
G3 X246.3887 Y168.9952 I1.9998 J-0.0274
G1 X246.3399 Y162.7696
G3 X249.4828 Y161.1127 I1.9999 J-0.0157
G2 X253.0944 Y163.0388 I9.9044 J-14.2219
G3 X253.1111 Y163.0454 I-0.7262 J1.8635
G2 X256.0148 Y163.635 I3.0697 J-7.6729
G2 X259.8705 Y162.8245 I0.1196 J-9.0075
G2 X262.933 Y160.3662 I-3.828 J-7.9054
G3 X262.9513 Y160.3433 I1.569 J1.2403
G2 X264.9518 Y156.633 I-8.6946 J-7.0823
G2 X265.5782 Y152.3232 I-13.6061 J-4.1782
G3 Y152.2855 I1.9999 J-0.0185
G2 X264.8318 Y147.9243 I-12.4202 J-0.1189
G2 X262.529 Y144.2231 I-10.4838 J3.9558
G3 X262.4994 Y144.1908 I1.4602 J-1.3667
G2 X255.0952 Y140.9742 I-7.2037 J6.452
G3 X255.0271 Y140.9744 I-0.0415 J-1.9996
G2 X249.1157 Y142.2503 I-0.1797 J13.5003
G3 X246.5799 Y141.5142 I-0.8491 J-1.8108
G2 X246.3547 Y141.2676 I-0.8192 J0.522
G3 X246.3328 Y141.2674 I0.0076 J-2.0
G2 X246.2131 Y141.3171 I-0.0024 J0.1632
G3 X246.1935 Y141.3371 I-1.4377 J-1.3903
G2 X246.1396 Y141.4739 I0.1316 J0.1308
G3 X246.1405 Y141.52 I-1.999 J0.0642
G2 X246.1867 Y143.3109 I53.5253 J-0.4836
G3 X246.2625 Y145.2714 I-38.4709 J2.4695
G3 X246.2627 Y145.3111 I-1.9998 J0.0264
G3 X246.1154 Y153.0943 I-316.7984 J-2.1006
G2 X246.001 Y159.7994 I374.6963 J9.7485
G1 F300.0 X246.9367 Y158.8812
G3 F1000.0 X246.3644 Y157.5036 I1.4276 J-1.4007
G1 X246.3156 Y153.28
G3 X246.3155 Y153.244 I1.9999 J-0.0231
G1 X246.3399 Y149.4357
G1 X246.3643 Y145.4321
G3 X247.5504 Y143.6174 I2.0 J0.0122
G3 X250.9419 Y142.2106 I28.886 J64.8445
G3 X251.0998 Y142.1572 I0.7183 J1.8666
G3 X255.0538 Y141.6132 I3.8116 J13.0605
G3 X258.9906 Y142.3665 I0.102 J10.1306
G3 X259.0182 Y142.378 I-0.757 J1.8512
G3 X262.353 Y144.768 I-3.7092 J8.6971
G3 X265.135 Y152.3257 I-8.0843 J7.2667
G3 X264.6493 Y156.0236 I-13.6761 J0.0845
G3 X264.6473 Y156.0307 I-1.9289 J-0.5284
G3 X262.9186 Y159.5638 I-10.3577 J-2.8784
G3 X255.9313 Y163.0199 I-6.7482 J-4.8518
G3 X250.8964 Y161.6389 I0.2277 J-10.6991
G3 X250.8354 Y161.6031 I0.9835 J-1.7415
G3 X247.1458 Y159.0664 I22.146 J-36.164
G3 X246.9367 Y158.8812 I1.2185 J-1.586
G0 Z3.0
G0 X274.362 Y153.8383
G0 Z1.0
G1 F300.0 Z-3.0
G2 F1000.0 X274.6734 Y155.2366 I18.9001 J-3.4753
G2 X276.7523 Y159.6666 I13.2745 J-3.5267
G3 X276.77 Y159.6919 I-1.6302 J1.1586
G2 X279.9276 Y162.5538 I7.6337 J-5.2496
G2 X284.0265 Y163.5129 I3.964 J-7.7027
G3 X284.0717 Y163.5127 I0.0311 J1.9998
G2 X287.1003 Y163.2581 I0.118 J-16.7364
G3 X287.1084 Y163.2567 I0.3478 J1.9695
G2 X289.7561 Y162.3685 I-1.5558 J-9.0278
G3 X289.7739 Y162.3594 I0.9177 J1.777
G2 X291.3212 Y160.9788 I-1.8021 J-3.5768
G2 X291.6689 Y160.1728 I-3.2363 J-1.8745
G3 X291.2916 Y160.6405 I-1.7275 J-1.0078
G3 X287.7342 Y162.6273 I-5.9879 J-6.5433
G3 X287.7313 Y162.6281 I-0.548 J-1.9234
G3 X284.0599 Y163.1183 I-3.5339 J-12.4726
G3 X277.5517 Y160.0629 I-0.1007 J-8.2445
G3 X275.3362 Y156.217 I10.4224 J-8.565
G3 X274.1873 Y152.2625 I23.2522 J-8.8997
G3 X277.0064 Y150.0591 I1.9602 J-0.3972
G1 X284.5015 Y153.6235
G3 X284.5111 Y153.6281 I-0.859 J1.8062
G3 X287.8663 Y155.3803 I-25.6142 J53.1351
G3 X291.1916 Y157.604 I-11.2523 J20.4255
G3 X291.6738 Y158.1656 I-1.2502 J1.5611
G2 X291.3648 Y157.5843 I-2.2804 J0.8394
G2 X289.9403 Y156.1808 I-4.9297 J3.5786
G2 X287.6423 Y154.8686 I-11.5113 J17.4919
G3 X287.6195 Y154.8573 I0.88 J-1.796
G2 X285.0425 Y153.6042 I-41.093 J81.2301
G3 X285.0323 Y153.5994 I0.8462 J-1.8122
G1 X275.7061 Y149.1804
G3 X274.8899 Y146.2766 I0.8564 J-1.8074
G3 X279.0426 Y142.5421 I9.1492 J5.9977
G3 X279.0952 Y142.516 I0.9134 J1.7792
G3 X284.7582 Y141.2963 I5.4033 J11.3307
G3 X284.7708 Y141.2966 I-0.0414 J1.9996
G3 X289.2183 Y142.0066 I-0.464 J17.1933
G3 X291.5332 Y142.8602 I-3.6118 J13.3603
G3 X293.9961 Y144.8483 I-2.5146 J5.6349
G3 X294.0949 Y144.9964 I-1.6133 J1.182
G2 X294.2833 Y145.2566 I1.6481 J-0.9952
G3 X294.3621 Y145.1839 I1.3954 J1.4328
G2 X294.1995 Y144.5732 I-1.3102 J0.0218
G2 X293.0804 Y143.4189 I-3.1946 J1.9776
G3 X293.0537 Y143.4009 I1.1048 J-1.6672
G2 X291.1945 Y142.3711 I-6.3025 J9.1858
G3 X291.1506 Y142.3514 I0.7977 J-1.834
G2 X284.6919 Y140.8768 I-6.6905 J14.4226
G2 X280.5384 Y141.4108 I-0.1566 J15.2032
G2 X277.0319 Y143.1965 I2.6028 J9.4465
G2 X274.7602 Y146.2208 I4.8213 J5.9868
G2 X274.0456 Y150.1482 I9.5221 J3.7612
G3 X274.0458 Y150.1978 I-1.9997 J0.0325
G2 X274.362 Y153.8383 I19.2163 J0.1651
G1 F300.0 Z-5.0
G2 F1000.0 X274.6734 Y155.2366 I18.9001 J-3.4753
G2 X276.7523 Y159.6666 I13.2745 J-3.5267
G3 X276.77 Y159.6919 I-1.6302 J1.1586
G2 X279.9276 Y162.5538 I7.6337 J-5.2496
G2 X284.0265 Y163.5129 I3.964 J-7.7027
G3 X284.0717 Y163.5127 I0.0311 J1.9998
G2 X287.1003 Y163.2581 I0.118 J-16.7364
G3 X287.1084 Y163.2567 I0.3478 J1.9695
G2 X289.7561 Y162.3685 I-1.5558 J-9.0278
G3 X289.7739 Y162.3594 I0.9177 J1.777
G2 X291.3212 Y160.9788 I-1.8021 J-3.5768
G2 X291.6689 Y160.1728 I-3.2363 J-1.8745
G3 X291.2916 Y160.6405 I-1.7275 J-1.0078
G3 X287.7342 Y162.6273 I-5.9879 J-6.5433
G3 X287.7313 Y162.6281 I-0.548 J-1.9234
G3 X284.0599 Y163.1183 I-3.5339 J-12.4726
G3 X277.5517 Y160.0629 I-0.1007 J-8.2445
G3 X275.3362 Y156.217 I10.4224 J-8.565
G3 X274.1873 Y152.2625 I23.2522 J-8.8997
G3 X277.0064 Y150.0591 I1.9602 J-0.3972
G1 X284.5015 Y153.6235
G3 X284.5111 Y153.6281 I-0.859 J1.8062
G3 X287.8663 Y155.3803 I-25.6142 J53.1351
G3 X291.1916 Y157.604 I-11.2523 J20.4255
G3 X291.6738 Y158.1656 I-1.2502 J1.5611
G2 X291.3648 Y157.5843 I-2.2804 J0.8394
G2 X289.9403 Y156.1808 I-4.9297 J3.5786
G2 X287.6423 Y154.8686 I-11.5113 J17.4919
G3 X287.6195 Y154.8573 I0.88 J-1.796
G2 X285.0425 Y153.6042 I-41.093 J81.2301
G3 X285.0323 Y153.5994 I0.8462 J-1.8122
G1 X275.7061 Y149.1804
G3 X274.8899 Y146.2766 I0.8564 J-1.8074
G3 X279.0426 Y142.5421 I9.1492 J5.9977
G3 X279.0952 Y142.516 I0.9134 J1.7792
G3 X284.7582 Y141.2963 I5.4033 J11.3307
G3 X284.7708 Y141.2966 I-0.0414 J1.9996
G3 X289.2183 Y142.0066 I-0.464 J17.1933
G3 X291.5332 Y142.8602 I-3.6118 J13.3603
G3 X293.9961 Y144.8483 I-2.5146 J5.6349
G3 X294.0949 Y144.9964 I-1.6133 J1.182
G2 X294.2833 Y145.2566 I1.6481 J-0.9952
G3 X294.3621 Y145.1839 I1.3954 J1.4328
G2 X294.1995 Y144.5732 I-1.3102 J0.0218
G2 X293.0804 Y143.4189 I-3.1946 J1.9776
G3 X293.0537 Y143.4009 I1.1048 J-1.6672
G2 X291.1945 Y142.3711 I-6.3025 J9.1858
G3 X291.1506 Y142.3514 I0.7977 J-1.834
G2 X284.6919 Y140.8768 I-6.6905 J14.4226
G2 X280.5384 Y141.4108 I-0.1566 J15.2032
G2 X277.0319 Y143.1965 I2.6028 J9.4465
G2 X274.7602 Y146.2208 I4.8213 J5.9868
G2 X274.0456 Y150.1482 I9.5221 J3.7612
G3 X274.0458 Y150.1978 I-1.9997 J0.0325
G2 X274.362 Y153.8383 I19.2163 J0.1651
G0 Z3.0
G0 X327.6609 Y164.9432
G0 Z1.0
G1 F300.0 Z-3.0
G2 F1000.0 X328.1453 Y165.058 I0.8269 J-2.411
G3 X328.1749 Y164.6758 I14.1895 J0.909
G3 X327.6609 Y164.9432 I-1.5423 J-2.337
G1 F300.0 X327.3672 Y164.1991
G3 F1000.0 X326.1078 Y164.2688 I-0.7345 J-1.8603
G3 X320.3583 Y162.5265 I27.4734 J-101.0199
G3 X320.2914 Y162.5028 I0.6347 J-1.8966
G3 X317.2817 Y160.8687 I4.336 J-11.5749
G3 X317.2632 Y160.8548 I1.1886 J-1.6085
G3 X315.7912 Y159.2792 I3.8139 J-5.0384
G3 X315.7838 Y159.2679 I1.673 J-1.096
G3 X315.0381 Y156.7997 I3.9223 J-2.5318
G3 X316.3424 Y154.8973 I1.9998 J-0.0272
G3 X318.1313 Y154.4122 I3.5711 J9.6276
G3 X318.1385 Y154.4109 I0.3471 J1.9696
G2 X322.2118 Y153.4619 I-6.1184 J-35.477
G3 X322.2344 Y153.4554 I0.5662 J1.9182
G2 X325.7845 Y151.9168 I-3.943 J-13.9629
G2 X328.0605 Y149.5204 I-3.4469 J-5.5529
G2 X328.8079 Y146.2407 I-6.2192 J-3.1421
G3 Y146.1585 I1.9996 J-0.0395
G2 X328.2102 Y143.7026 I-4.913 J-0.1049
G2 X326.3879 Y141.9403 I-4.248 J2.5693
G3 X326.3774 Y141.9344 I0.9772 J-1.745
G2 X323.4711 Y140.8527 I-4.8001 J8.4518
G3 X323.4672 Y140.8519 I0.3897 J-1.9617
G2 X320.1534 Y140.5351 I-3.1934 J15.9117
G3 X320.1301 I-0.0148 J-1.9999
G2 X314.7258 Y141.4863 I-0.0649 J15.4602
G3 X314.6733 Y141.5048 I-0.6907 J-1.8769
G2 X312.797 Y142.5023 I2.0793 J6.1743
G2 X312.376 Y142.9952 I1.1253 J1.3875
G2 X312.2752 Y143.4064 I0.7678 J0.4062
G3 X312.2753 Y143.4177 I-2.0 J0.0115
G2 X312.3764 Y143.6461 I0.3085 J0.0
G3 X312.4443 Y143.7108 I-1.3443 J1.4808
G2 X312.6566 Y143.8377 I0.3596 J-0.3606
G3 X312.7006 Y143.8054 I1.2058 J1.5957
G2 X313.3286 Y143.2735 I-2.8893 J-4.0485
G3 X313.513 Y143.1105 I1.4144 J1.414
G3 X315.4902 Y142.1415 I3.2987 J4.2292
G3 X317.0214 Y141.792 I4.044 J14.1897
G3 X320.0962 Y141.4672 I3.4647 J18.0827
G3 X320.1075 Y141.467 I0.0423 J1.9996
G3 X324.3045 Y142.0329 I0.2208 J14.2089
G3 X326.4521 Y143.0917 I-1.8144 J6.3882
G3 X328.0223 Y146.1793 I-2.2946 J3.1099
G3 X325.7274 Y150.8791 I-5.7601 J0.0975
G3 X323.7911 Y151.9984 I-5.1977 J-6.7568
G3 X321.862 Y152.6353 I-5.0721 J-12.1234
G3 X321.8155 Y152.6462 I-0.4783 J-1.942
G1 X319.2765 Y153.2077
G3 X319.2601 Y153.2113 I-0.4319 J-1.9528
G2 X317.0767 Y153.7914 I4.6506 J21.899
G3 X317.0449 Y153.8013 I-0.6105 J-1.9045
G2 X315.3303 Y154.5857 I2.0197 J6.6815
G2 X314.5348 Y155.5285 I1.3294 J1.9286
G2 X314.2524 Y157.0016 I3.3287 J1.4018
G3 X314.252 Y157.0969 I-1.9996 J0.0395
G2 X315.1417 Y160.3342 I5.75 J0.1607
G2 X317.8325 Y162.4706 I5.1207 J-3.6868
G3 X317.8512 Y162.4786 I-0.7702 J1.8458
G2 X319.9756 Y163.2627 I8.615 J-20.0707
G3 X319.9885 Y163.2667 I-0.5943 J1.9096
G2 X322.2859 Y163.9521 I19.5771 J-61.4317
G3 X322.2996 Y163.956 I-0.536 J1.9268
G3 X324.69 Y164.6842 I-19.9247 J69.6895
G3 X327.1586 Y165.606 I-7.7272 J24.4598
G2 X328.5186 Y165.8809 I1.3293 J-3.0738
G3 X328.6102 Y165.8822 I0.0184 J1.9999
G2 X328.814 Y165.8011 I0.0099 J-0.2714
G2 X328.9311 Y165.4945 I-0.2992 J-0.29
G3 X328.9319 Y165.3184 I1.9984 J-0.0794
G3 X329.2762 Y162.8797 I13.4029 J0.6485
G3 X329.2852 Y162.8431 I1.9463 J0.4601
G2 X329.5417 Y161.1771 I-8.3249 J-2.1346
G2 X329.4243 Y160.8786 I-0.4166 J-0.0085
G2 X329.2205 Y160.7975 I-0.1939 J0.1904
G3 X329.102 Y160.7983 I-0.0732 J-1.9987
G2 X328.969 Y160.8077 I-0.0163 J0.7189
G2 X328.8249 Y161.3398 I2.8033 J1.0442
G3 X328.8152 Y161.3919 I-1.9705 J-0.3423
G2 X328.616 Y162.5965 I17.2678 J3.4739
G3 X327.3672 Y164.1991 I-1.9833 J-0.2577
G1 F300.0 X327.6609 Y164.9432
G1 Z-5.0
G2 F1000.0 X328.1453 Y165.058 I0.8269 J-2.411
G3 X328.1749 Y164.6758 I14.1895 J0.909
G3 X327.6609 Y164.9432 I-1.5423 J-2.337
G1 F300.0 X327.3672 Y164.1991
G3 F1000.0 X326.1078 Y164.2688 I-0.7345 J-1.8603
G3 X320.3583 Y162.5265 I27.4734 J-101.0199
G3 X320.2914 Y162.5028 I0.6347 J-1.8966
G3 X317.2817 Y160.8687 I4.336 J-11.5749
G3 X317.2632 Y160.8548 I1.1886 J-1.6085
G3 X315.7912 Y159.2792 I3.8139 J-5.0384
G3 X315.7838 Y159.2679 I1.673 J-1.096
G3 X315.0381 Y156.7997 I3.9223 J-2.5318
G3 X316.3424 Y154.8973 I1.9998 J-0.0272
G3 X318.1313 Y154.4122 I3.5711 J9.6276
G3 X318.1385 Y154.4109 I0.3471 J1.9696
G2 X322.2118 Y153.4619 I-6.1184 J-35.477
G3 X322.2344 Y153.4554 I0.5662 J1.9182
G2 X325.7845 Y151.9168 I-3.943 J-13.9629
G2 X328.0605 Y149.5204 I-3.4469 J-5.5529
G2 X328.8079 Y146.2407 I-6.2192 J-3.1421
G3 Y146.1585 I1.9996 J-0.0395
G2 X328.2102 Y143.7026 I-4.913 J-0.1049
G2 X326.3879 Y141.9403 I-4.248 J2.5693
G3 X326.3774 Y141.9344 I0.9772 J-1.745
G2 X323.4711 Y140.8527 I-4.8001 J8.4518
G3 X323.4672 Y140.8519 I0.3897 J-1.9617
G2 X320.1534 Y140.5351 I-3.1934 J15.9117
G3 X320.1301 I-0.0148 J-1.9999
G2 X314.7258 Y141.4863 I-0.0649 J15.4602
G3 X314.6733 Y141.5048 I-0.6907 J-1.8769
G2 X312.797 Y142.5023 I2.0793 J6.1743
G2 X312.376 Y142.9952 I1.1253 J1.3875
G2 X312.2752 Y143.4064 I0.7678 J0.4062
G3 X312.2753 Y143.4177 I-2.0 J0.0115
G2 X312.3764 Y143.6461 I0.3085 J0.0
G3 X312.4443 Y143.7108 I-1.3443 J1.4808
G2 X312.6566 Y143.8377 I0.3596 J-0.3606
G3 X312.7006 Y143.8054 I1.2058 J1.5957
G2 X313.3286 Y143.2735 I-2.8893 J-4.0485
G3 X313.513 Y143.1105 I1.4144 J1.414
G3 X315.4902 Y142.1415 I3.2987 J4.2292
G3 X317.0214 Y141.792 I4.044 J14.1897
G3 X320.0962 Y141.4672 I3.4647 J18.0827
G3 X320.1075 Y141.467 I0.0423 J1.9996
G3 X324.3045 Y142.0329 I0.2208 J14.2089
G3 X326.4521 Y143.0917 I-1.8144 J6.3882
G3 X328.0223 Y146.1793 I-2.2946 J3.1099
G3 X325.7274 Y150.8791 I-5.7601 J0.0975
G3 X323.7911 Y151.9984 I-5.1977 J-6.7568
G3 X321.862 Y152.6353 I-5.0721 J-12.1234
G3 X321.8155 Y152.6462 I-0.4783 J-1.942
G1 X319.2765 Y153.2077
G3 X319.2601 Y153.2113 I-0.4319 J-1.9528
G2 X317.0767 Y153.7914 I4.6506 J21.899
G3 X317.0449 Y153.8013 I-0.6105 J-1.9045
G2 X315.3303 Y154.5857 I2.0197 J6.6815
G2 X314.5348 Y155.5285 I1.3294 J1.9286
G2 X314.2524 Y157.0016 I3.3287 J1.4018
G3 X314.252 Y157.0969 I-1.9996 J0.0395
G2 X315.1417 Y160.3342 I5.75 J0.1607
G2 X317.8325 Y162.4706 I5.1207 J-3.6868
G3 X317.8512 Y162.4786 I-0.7702 J1.8458
G2 X319.9756 Y163.2627 I8.615 J-20.0707
G3 X319.9885 Y163.2667 I-0.5943 J1.9096
G2 X322.2859 Y163.9521 I19.5771 J-61.4317
G3 X322.2996 Y163.956 I-0.536 J1.9268
G3 X324.69 Y164.6842 I-19.9247 J69.6895
G3 X327.1586 Y165.606 I-7.7272 J24.4598
G2 X328.5186 Y165.8809 I1.3293 J-3.0738
G3 X328.6102 Y165.8822 I0.0184 J1.9999
G2 X328.814 Y165.8011 I0.0099 J-0.2714
G2 X328.9311 Y165.4945 I-0.2992 J-0.29
G3 X328.9319 Y165.3184 I1.9984 J-0.0794
G3 X329.2762 Y162.8797 I13.4029 J0.6485
G3 X329.2852 Y162.8431 I1.9463 J0.4601
G2 X329.5417 Y161.1771 I-8.3249 J-2.1346
G2 X329.4243 Y160.8786 I-0.4166 J-0.0085
G2 X329.2205 Y160.7975 I-0.1939 J0.1904
G3 X329.102 Y160.7983 I-0.0732 J-1.9987
G2 X328.969 Y160.8077 I-0.0163 J0.7189
G2 X328.8249 Y161.3398 I2.8033 J1.0442
G3 X328.8152 Y161.3919 I-1.9705 J-0.3423
G2 X328.616 Y162.5965 I17.2678 J3.4739
G3 X327.3672 Y164.1991 I-1.9833 J-0.2577
G0 Z3.0
G0 X340.4745 Y162.6887
G0 Z1.0
G1 F300.0 Z-3.0
G2 F1000.0 X340.5704 Y162.923 I0.4649 J-0.0536
G2 X340.8025 Y163.001 I0.221 J-0.2731
G3 X340.9393 Y163.0013 I0.0635 J1.999
G2 X341.1431 Y162.9202 I0.0099 J-0.2714
G2 X341.2602 Y162.6136 I-0.2992 J-0.29
G3 X341.2587 Y162.5519 I1.9984 J-0.0794
G2 X341.0203 Y156.9496 I-83.3479 J0.7402
G3 X340.7704 Y151.1014 I85.8956 J-6.5999
G3 Y151.0722 I1.9999 J-0.0175
G3 X340.8444 Y146.6346 I205.9931 J1.2138
G3 X340.845 Y146.6158 I1.9992 J0.0549
G2 X340.9413 Y142.3036 I-148.9689 J-5.4861
G3 X340.9427 Y142.2448 I1.9999 J0.0157
G2 X340.8424 Y141.9512 I-0.4329 J-0.0161
G2 X340.6301 Y141.8763 I-0.2 J0.2286
G3 X340.4851 Y141.8769 I-0.0814 J-1.9983
G2 X340.2495 Y141.9578 I-0.0112 J0.351
G2 X340.1547 Y142.2448 I0.3381 J0.2708
G3 X340.1561 Y142.3346 I-1.9986 J0.0745
G3 X340.0574 Y146.754 I-150.644 J-1.1508
G2 X339.9853 Y151.0809 I200.3345 J5.5056
G2 X340.2235 Y156.6438 I82.3641 J-0.7406
G3 X340.2236 Y156.6447 I-1.9941 J0.1531
G3 X340.4734 Y162.5164 I-87.1325 J6.6489
G3 X340.4718 Y162.616 I-1.9999 J0.0178
G2 X340.4745 Y162.6887 I0.4676 J0.0191
G1 F300.0 Z-5.0
G2 F1000.0 X340.5704 Y162.923 I0.4649 J-0.0536
G2 X340.8025 Y163.001 I0.221 J-0.2731
G3 X340.9393 Y163.0013 I0.0635 J1.999
G2 X341.1431 Y162.9202 I0.0099 J-0.2714
G2 X341.2602 Y162.6136 I-0.2992 J-0.29
G3 X341.2587 Y162.5519 I1.9984 J-0.0794
G2 X341.0203 Y156.9496 I-83.3479 J0.7402
G3 X340.7704 Y151.1014 I85.8956 J-6.5999
G3 Y151.0722 I1.9999 J-0.0175
G3 X340.8444 Y146.6346 I205.9931 J1.2138
G3 X340.845 Y146.6158 I1.9992 J0.0549
G2 X340.9413 Y142.3036 I-148.9689 J-5.4861
G3 X340.9427 Y142.2448 I1.9999 J0.0157
G2 X340.8424 Y141.9512 I-0.4329 J-0.0161
G2 X340.6301 Y141.8763 I-0.2 J0.2286
G3 X340.4851 Y141.8769 I-0.0814 J-1.9983
G2 X340.2495 Y141.9578 I-0.0112 J0.351
G2 X340.1547 Y142.2448 I0.3381 J0.2708
G3 X340.1561 Y142.3346 I-1.9986 J0.0745
G3 X340.0574 Y146.754 I-150.644 J-1.1508
G2 X339.9853 Y151.0809 I200.3345 J5.5056
G2 X340.2235 Y156.6438 I82.3641 J-0.7406
G3 X340.2236 Y156.6447 I-1.9941 J0.1531
G3 X340.4734 Y162.5164 I-87.1325 J6.6489
G3 X340.4718 Y162.616 I-1.9999 J0.0178
G2 X340.4745 Y162.6887 I0.4676 J0.0191
G0 Z3.0
G0 X341.6384 Y173.7081
G0 Z1.0
G1 F300.0 Z-3.0
G2 F1000.0 X341.6325 Y173.7109 I0.001 J0.0097
G3 X341.603 Y173.7402 I-1.9871 J-1.9726
G3 X341.6325 Y173.7696 I-1.9576 J2.002
G2 X341.6396 Y173.7725 I0.0069 J-0.0069
G3 X341.6838 Y173.7723 I0.0322 J2.7998
G3 X341.7161 Y173.7402 I1.9899 J1.9699
G3 X341.6838 Y173.7082 I1.9576 J-2.002
G3 X341.6396 Y173.708 I-0.0121 J-2.8
G2 X341.6384 Y173.7081 I-0.0001 J0.0098
G1 F300.0 X341.5544 Y172.9125
G2 F1000.0 X341.0648 Y173.1473 I0.0851 J0.8053
G3 X341.0098 Y173.2005 I-1.4194 J-1.409
G2 X340.7907 Y173.714 I0.4706 J0.5043
G3 Y173.7665 I-1.9998 J0.0263
G2 X341.0099 Y174.2799 I0.6898 J0.0091
G3 X341.0648 Y174.3332 I-1.3645 J1.4623
G2 X341.6488 Y174.5724 I0.5747 J-0.5705
G3 X341.7025 Y174.5725 I0.023 J1.9999
G2 X342.2369 Y174.3509 I0.0112 J-0.7282
G3 X342.3092 Y174.2799 I1.4368 J1.3913
G2 X342.5284 Y173.7665 I-0.4706 J-0.5043
G3 Y173.714 I1.9998 J-0.0263
G2 X342.3092 Y173.2005 I-0.6898 J-0.0091
G3 X342.2369 Y173.1295 I1.3645 J-1.4623
G2 X341.7025 Y172.908 I-0.5232 J0.5066
G3 X341.6488 Y172.9081 I-0.0308 J-1.9998
G2 X341.5544 Y172.9125 I-0.0093 J0.8097
G1 F300.0 X341.6384 Y173.7081
G1 Z-5.0
G2 F1000.0 X341.6325 Y173.7109 I0.001 J0.0097
G3 X341.603 Y173.7402 I-1.9871 J-1.9726
G3 X341.6325 Y173.7696 I-1.9576 J2.002
G2 X341.6396 Y173.7725 I0.0069 J-0.0069
G3 X341.6838 Y173.7723 I0.0322 J2.7998
G3 X341.7161 Y173.7402 I1.9899 J1.9699
G3 X341.6838 Y173.7082 I1.9576 J-2.002
G3 X341.6396 Y173.708 I-0.0121 J-2.8
G2 X341.6384 Y173.7081 I-0.0001 J0.0098
G1 F300.0 X341.5544 Y172.9125
G2 F1000.0 X341.0648 Y173.1473 I0.0851 J0.8053
G3 X341.0098 Y173.2005 I-1.4194 J-1.409
G2 X340.7907 Y173.714 I0.4706 J0.5043
G3 Y173.7665 I-1.9998 J0.0263
G2 X341.0099 Y174.2799 I0.6898 J0.0091
G3 X341.0648 Y174.3332 I-1.3645 J1.4623
G2 X341.6488 Y174.5724 I0.5747 J-0.5705
G3 X341.7025 Y174.5725 I0.023 J1.9999
G2 X342.2369 Y174.3509 I0.0112 J-0.7282
G3 X342.3092 Y174.2799 I1.4368 J1.3913
G2 X342.5284 Y173.7665 I-0.4706 J-0.5043
G3 Y173.714 I1.9998 J-0.0263
G2 X342.3092 Y173.2005 I-0.6898 J-0.0091
G3 X342.2369 Y173.1295 I1.3645 J-1.4623
G2 X341.7025 Y172.908 I-0.5232 J0.5066
G3 X341.6488 Y172.9081 I-0.0308 J-1.9998
G2 X341.5544 Y172.9125 I-0.0093 J0.8097
( Tasche2 )
S1000
G0 Z3.0
G0 X61.4806 Y87.1839
G0 Z1.0
G1 F300.0 Z-3.0
G2 F1000.0 X61.4805 Y87.189 I0.1657 J0.0029
G3 Y87.2836 I-3.5997 J0.0473
G2 X61.5332 Y87.407 I0.1658 J0.0022
G3 X61.632 Y87.5028 I-2.4561 J2.6321
G2 X61.8727 Y87.6014 I0.2368 J-0.2351
G3 X61.9694 Y87.6016 I0.0414 J3.5998
G2 X62.1306 Y87.5348 I0.0034 J-0.2196
G3 X62.2607 Y87.407 I2.5862 J2.5043
G2 X62.3134 Y87.2836 I-0.1131 J-0.1212
G3 Y87.1891 I3.5997 J-0.0473
G2 X62.2607 Y87.0656 I-0.1658 J-0.0022
G3 X62.1306 Y86.9379 I2.4561 J-2.6321
G2 X61.9694 Y86.8711 I-0.1577 J0.1527
G3 X61.8727 Y86.8712 I-0.0554 J-3.5996
G2 X61.6321 Y86.9698 I-0.0038 J0.3337
G3 X61.5332 Y87.0657 I-2.5549 J-2.5362
G2 X61.4806 Y87.1839 I0.1131 J0.1212
G1 F300.0 X59.8808 Y87.1559
G2 F1000.0 X59.8807 Y87.21 I1.7655 J0.031
G3 Y87.2626 I-1.9998 J0.0263
G2 X60.4416 Y88.5768 I1.7657 J0.0232
G3 X60.4965 Y88.63 I-1.3645 J1.4623
G2 X61.8911 Y89.2013 I1.3723 J-1.3623
G3 X61.9448 Y89.2014 I0.023 J1.9999
G2 X63.28 Y88.6478 I0.028 J-1.8194
G3 X63.3523 Y88.5768 I1.4368 J1.3913
G2 X63.9133 Y87.2626 I-1.2047 J-1.291
G3 Y87.2101 I1.9998 J-0.0263
G2 X63.3523 Y85.8958 I-1.7657 J-0.0232
G3 X63.28 Y85.8249 I1.3645 J-1.4623
G2 X61.9448 Y85.2712 I-1.3072 J1.2658
G3 X61.8911 Y85.2714 I-0.0308 J-1.9998
G2 X60.4965 Y85.8426 I-0.0222 J1.9336
G3 X60.4416 Y85.8959 I-1.4194 J-1.409
G2 X59.8808 Y87.1559 I1.2047 J1.291
G1 F300.0 X61.4806 Y87.1839
G1 Z-5.0
G2 F1000.0 X61.4805 Y87.189 I0.1657 J0.0029
G3 Y87.2836 I-3.5997 J0.0473
G2 X61.5332 Y87.407 I0.1658 J0.0022
G3 X61.632 Y87.5028 I-2.4561 J2.6321
G2 X61.8727 Y87.6014 I0.2368 J-0.2351
G3 X61.9694 Y87.6016 I0.0414 J3.5998
G2 X62.1306 Y87.5348 I0.0034 J-0.2196
G3 X62.2607 Y87.407 I2.5862 J2.5043
G2 X62.3134 Y87.2836 I-0.1131 J-0.1212
G3 Y87.1891 I3.5997 J-0.0473
G2 X62.2607 Y87.0656 I-0.1658 J-0.0022
G3 X62.1306 Y86.9379 I2.4561 J-2.6321
G2 X61.9694 Y86.8711 I-0.1577 J0.1527
G3 X61.8727 Y86.8712 I-0.0554 J-3.5996
G2 X61.6321 Y86.9698 I-0.0038 J0.3337
G3 X61.5332 Y87.0657 I-2.5549 J-2.5362
G2 X61.4806 Y87.1839 I0.1131 J0.1212
G1 F300.0 X59.8808 Y87.1559
G2 F1000.0 X59.8807 Y87.21 I1.7655 J0.031
G3 Y87.2626 I-1.9998 J0.0263
G2 X60.4416 Y88.5768 I1.7657 J0.0232
G3 X60.4965 Y88.63 I-1.3645 J1.4623
G2 X61.8911 Y89.2013 I1.3723 J-1.3623
G3 X61.9448 Y89.2014 I0.023 J1.9999
G2 X63.28 Y88.6478 I0.028 J-1.8194
G3 X63.3523 Y88.5768 I1.4368 J1.3913
G2 X63.9133 Y87.2626 I-1.2047 J-1.291
G3 Y87.2101 I1.9998 J-0.0263
G2 X63.3523 Y85.8958 I-1.7657 J-0.0232
G3 X63.28 Y85.8249 I1.3645 J-1.4623
G2 X61.9448 Y85.2712 I-1.3072 J1.2658
G3 X61.8911 Y85.2714 I-0.0308 J-1.9998
G2 X60.4965 Y85.8426 I-0.0222 J1.9336
G3 X60.4416 Y85.8959 I-1.4194 J-1.409
G2 X59.8808 Y87.1559 I1.2047 J1.291
G0 Z3.0
G0 X60.6561 Y72.201
G0 Z1.0
G1 F300.0 Z-3.0
G2 F1000.0 X60.6972 Y72.2014 I0.0255 J-0.4912
G3 X60.8887 Y72.2019 I0.0889 J2.7986
G2 X61.1739 Y72.0883 I0.0139 J-0.38
G2 X61.338 Y71.6591 I-0.4189 J-0.406
G3 X61.3359 Y71.5727 I2.7978 J-0.1112
G2 X61.0021 Y63.7294 I-116.687 J1.0363
G3 X60.6523 Y55.542 I120.2539 J-9.2399
G3 X60.6522 Y55.5011 I2.7999 J-0.0244
G3 X60.7557 Y49.2884 I288.3903 J1.6993
G3 X60.7566 Y49.2622 I2.7989 J0.0768
G2 X60.8915 Y43.225 I-208.5564 J-7.6806
G3 X60.8934 Y43.1427 I2.7999 J0.022
G2 X60.753 Y42.7316 I-0.606 J-0.0226
G2 X60.4557 Y42.6268 I-0.28 J0.32
G3 X60.2528 Y42.6277 I-0.1139 J-2.7977
G2 X59.923 Y42.7409 I-0.0156 J0.4914
G2 X59.7902 Y43.1427 I0.4733 J0.3792
G3 X59.7921 Y43.2685 I-2.7981 J0.1044
G3 X59.654 Y49.4555 I-210.9016 J-1.6111
G2 X59.553 Y55.5133 I280.4684 J7.7078
G2 X59.8865 Y63.3013 I115.3097 J-1.0368
G3 X59.8866 Y63.3026 I-2.7918 J0.2143
G3 X60.2364 Y71.5229 I-121.9855 J9.3085
G3 X60.2342 Y71.6624 I-2.7999 J0.0249
G2 X60.3722 Y72.0922 I0.6546 J0.0268
G2 X60.6561 Y72.201 I0.3093 J-0.3824
G1 F300.0 X60.6147 Y72.9999
G2 F1000.0 X60.7226 Y73.001 I0.0669 J-1.2901
G3 X60.8594 Y73.0013 I0.0635 J1.999
G2 X61.7467 Y72.6468 I0.0432 J-1.1794
G2 X62.1373 Y71.6273 I-0.9916 J-0.9646
G3 X62.1358 Y71.5656 I1.9984 J-0.0794
G2 X61.7998 Y63.6683 I-117.487 J1.0434
G3 X61.4522 Y55.535 I119.4562 J-9.1788
G3 Y55.5058 I1.9999 J-0.0175
G3 X61.5554 Y49.3104 I287.5903 J1.6946
G3 X61.556 Y49.2916 I1.9992 J0.0549
G2 X61.6915 Y43.2313 I-209.3559 J-7.71
G3 X61.6928 Y43.1725 I1.9999 J0.0157
G2 X61.3284 Y42.1744 I-1.4054 J-0.0524
G2 X60.4232 Y41.8274 I-0.8554 J0.8772
G3 X60.2782 Y41.8281 I-0.0814 J-1.9983
G2 X59.3493 Y42.181 I-0.0411 J1.291
G2 X58.9908 Y43.1725 I1.047 J0.9391
G3 X58.9921 Y43.2623 I-1.9986 J0.0745
G3 X58.8545 Y49.4298 I-210.1016 J-1.605
G2 X58.753 Y55.5145 I281.268 J7.7336
G2 X59.0889 Y63.3626 I116.1098 J-1.0381
G3 Y63.3635 I-1.9941 J0.1531
G3 X59.4364 Y71.5301 I-121.1878 J9.2476
G3 X59.4348 Y71.6297 I-1.9999 J0.0178
G2 X59.7973 Y72.6516 I1.4539 J0.0595
G2 X60.6147 Y72.9999 I0.8842 J-0.9418
G1 F300.0 X60.6561 Y72.201
G1 Z-5.0
G2 F1000.0 X60.6972 Y72.2014 I0.0255 J-0.4912
G3 X60.8887 Y72.2019 I0.0889 J2.7986
G2 X61.1739 Y72.0883 I0.0139 J-0.38
G2 X61.338 Y71.6591 I-0.4189 J-0.406
G3 X61.3359 Y71.5727 I2.7978 J-0.1112
G2 X61.0021 Y63.7294 I-116.687 J1.0363
G3 X60.6523 Y55.542 I120.2539 J-9.2399
G3 X60.6522 Y55.5011 I2.7999 J-0.0244
G3 X60.7557 Y49.2884 I288.3903 J1.6993
G3 X60.7566 Y49.2622 I2.7989 J0.0768
G2 X60.8915 Y43.225 I-208.5564 J-7.6806
G3 X60.8934 Y43.1427 I2.7999 J0.022
G2 X60.753 Y42.7316 I-0.606 J-0.0226
G2 X60.4557 Y42.6268 I-0.28 J0.32
G3 X60.2528 Y42.6277 I-0.1139 J-2.7977
G2 X59.923 Y42.7409 I-0.0156 J0.4914
G2 X59.7902 Y43.1427 I0.4733 J0.3792
G3 X59.7921 Y43.2685 I-2.7981 J0.1044
G3 X59.654 Y49.4555 I-210.9016 J-1.6111
G2 X59.553 Y55.5133 I280.4684 J7.7078
G2 X59.8865 Y63.3013 I115.3097 J-1.0368
G3 X59.8866 Y63.3026 I-2.7918 J0.2143
G3 X60.2364 Y71.5229 I-121.9855 J9.3085
G3 X60.2342 Y71.6624 I-2.7999 J0.0249
G2 X60.3722 Y72.0922 I0.6546 J0.0268
G2 X60.6561 Y72.201 I0.3093 J-0.3824
G1 F300.0 X60.6147 Y72.9999
G2 F1000.0 X60.7226 Y73.001 I0.0669 J-1.2901
G3 X60.8594 Y73.0013 I0.0635 J1.999
G2 X61.7467 Y72.6468 I0.0432 J-1.1794
G2 X62.1373 Y71.6273 I-0.9916 J-0.9646
G3 X62.1358 Y71.5656 I1.9984 J-0.0794
G2 X61.7998 Y63.6683 I-117.487 J1.0434
G3 X61.4522 Y55.535 I119.4562 J-9.1788
G3 Y55.5058 I1.9999 J-0.0175
G3 X61.5554 Y49.3104 I287.5903 J1.6946
G3 X61.556 Y49.2916 I1.9992 J0.0549
G2 X61.6915 Y43.2313 I-209.3559 J-7.71
G3 X61.6928 Y43.1725 I1.9999 J0.0157
G2 X61.3284 Y42.1744 I-1.4054 J-0.0524
G2 X60.4232 Y41.8274 I-0.8554 J0.8772
G3 X60.2782 Y41.8281 I-0.0814 J-1.9983
G2 X59.3493 Y42.181 I-0.0411 J1.291
G2 X58.9908 Y43.1725 I1.047 J0.9391
G3 X58.9921 Y43.2623 I-1.9986 J0.0745
G3 X58.8545 Y49.4298 I-210.1016 J-1.605
G2 X58.753 Y55.5145 I281.268 J7.7336
G2 X59.0889 Y63.3626 I116.1098 J-1.0381
G3 Y63.3635 I-1.9941 J0.1531
G3 X59.4364 Y71.5301 I-121.1878 J9.2476
G3 X59.4348 Y71.6297 I-1.9999 J0.0178
G2 X59.7973 Y72.6516 I1.4539 J0.0595
G2 X60.6147 Y72.9999 I0.8842 J-0.9418
G0 Z3.0
G0 X79.4123 Y65.8661
G0 Z1.0
G1 F300.0 Z-3.0
G3 F1000.0 X79.5943 Y65.7694 I2.1551 J3.8361
G3 X79.408 Y65.4951 I20.6781 J-14.2471
G2 X79.4123 Y65.8661 I125.1989 J-1.2645
G1 F300.0 X79.8041 Y66.5635
G3 F1000.0 X80.8727 Y66.1698 I1.7633 J3.1386
G3 X80.4951 Y65.6604 I13.651 J-10.5117
G3 X78.6049 Y62.547 I19.7773 J-14.1382
G1 Y65.1433
G2 X78.6466 Y67.5977 I126.002 J-0.9127
G3 X79.8041 Y66.5635 I2.9208 J2.1045
G1 F300.0 X80.5878 Y67.9585
G3 F1000.0 X82.9721 Y68.2785 I0.9796 J1.7437
G2 X89.0505 Y72.5061 I15.2776 J-15.4826
G2 X96.1221 Y74.0254 I7.0221 J-15.4668
G3 X96.1691 Y74.0258 I0.0058 J2.0
G2 X97.62 Y73.7308 I0.0695 J-3.3739
G2 X98.5662 Y72.8825 I-1.0787 J-2.155
G2 X99.3985 Y70.5869 I-5.3584 J-3.2414
G3 X99.4031 Y70.558 I1.9771 J0.3021
G2 X99.6309 Y67.6691 I-16.3395 J-2.7418
G3 Y67.6395 I1.9999 J-0.0178
G2 X99.5979 Y65.3278 I-57.2219 J-0.3387
G3 X99.5969 Y65.2872 I1.9988 J-0.069
G2 X99.1138 Y63.376 I-4.261 J0.0605
G2 X98.3022 Y62.9825 I-0.7548 J0.5231
G3 X98.1421 Y62.986 I-0.1235 J-1.9962
G2 X97.5899 Y63.0723 I-0.0297 J1.6194
G2 X97.4198 Y63.2393 I0.1149 J0.2872
G2 X97.2385 Y64.3149 I2.6385 J0.9978
G3 X97.2388 Y64.4115 I-1.9992 J0.0552
G3 X97.1344 Y66.8631 I-56.0474 J-1.1592
G1 X97.0329 Y69.7052
G3 X94.8099 Y71.6212 I-1.9987 J-0.0714
G3 X89.9088 Y70.5713 I2.8525 J-25.2806
G3 X85.2184 Y68.2151 I5.0344 J-15.8684
G3 X85.1927 Y68.1962 I1.1683 J-1.6233
G3 X81.7973 Y64.7307 I9.331 J-12.5381
G3 X79.4987 Y60.7009 I18.4751 J-13.2085
G3 X79.3281 Y59.8853 I1.8294 J-0.8083
G1 X79.3965 Y41.1548
G3 X79.3967 Y41.1354 I2.0 J0.0073
G2 X79.2949 Y40.3061 I-3.0927 J-0.0413
G3 X79.2851 Y40.2673 I1.934 J-0.5095
G2 X79.035 Y39.9055 I-0.5954 J0.1442
G2 X78.0858 Y39.7086 I-0.875 J1.832
G3 X77.9763 Y39.7096 I-0.0731 J-1.9987
G2 X77.3921 Y39.8008 I-0.0312 J1.7164
G2 X77.1923 Y39.9952 I0.1311 J0.3346
G2 X77.0041 Y41.1067 I2.7133 J1.0311
G3 X77.0049 Y41.1621 I-1.9992 J0.0554
G1 Y65.1491
G2 X77.0716 Y68.4569 I127.602 J-0.9185
G3 X77.1757 Y71.9028 I-87.4911 J4.3673
G3 X77.1725 Y72.0384 I-1.9999 J0.021
G2 X77.4324 Y73.179 I2.103 J0.1207
G2 X78.029 Y73.382 I0.5348 J-0.5938
G3 X78.2457 Y73.3769 I0.1546 J1.994
G2 X78.7093 Y73.2508 I0.0255 J-0.8212
G2 X79.3228 Y72.0715 I-1.542 J-1.5514
G3 X79.3373 Y71.9965 I1.9708 J0.3403
G2 X79.5674 Y69.7178 I-10.3453 J-2.196
G3 X80.5878 Y67.9585 I1.9999 J-0.0156
G1 F300.0 X79.4123 Y65.8661
G1 Z-5.0
G3 F1000.0 X79.5943 Y65.7694 I2.1551 J3.8361
G3 X79.408 Y65.4951 I20.6781 J-14.2471
G2 X79.4123 Y65.8661 I125.1989 J-1.2645
G1 F300.0 X79.8041 Y66.5635
G3 F1000.0 X80.8727 Y66.1698 I1.7633 J3.1386
G3 X80.4951 Y65.6604 I13.651 J-10.5117
G3 X78.6049 Y62.547 I19.7773 J-14.1382
G1 Y65.1433
G2 X78.6466 Y67.5977 I126.002 J-0.9127
G3 X79.8041 Y66.5635 I2.9208 J2.1045
G1 F300.0 X80.5878 Y67.9585
G3 F1000.0 X82.9721 Y68.2785 I0.9796 J1.7437
G2 X89.0505 Y72.5061 I15.2776 J-15.4826
G2 X96.1221 Y74.0254 I7.0221 J-15.4668
G3 X96.1691 Y74.0258 I0.0058 J2.0
G2 X97.62 Y73.7308 I0.0695 J-3.3739
G2 X98.5662 Y72.8825 I-1.0787 J-2.155
G2 X99.3985 Y70.5869 I-5.3584 J-3.2414
G3 X99.4031 Y70.558 I1.9771 J0.3021
G2 X99.6309 Y67.6691 I-16.3395 J-2.7418
G3 Y67.6395 I1.9999 J-0.0178
G2 X99.5979 Y65.3278 I-57.2219 J-0.3387
G3 X99.5969 Y65.2872 I1.9988 J-0.069
G2 X99.1138 Y63.376 I-4.261 J0.0605
G2 X98.3022 Y62.9825 I-0.7548 J0.5231
G3 X98.1421 Y62.986 I-0.1235 J-1.9962
G2 X97.5899 Y63.0723 I-0.0297 J1.6194
G2 X97.4198 Y63.2393 I0.1149 J0.2872
G2 X97.2385 Y64.3149 I2.6385 J0.9978
G3 X97.2388 Y64.4115 I-1.9992 J0.0552
G3 X97.1344 Y66.8631 I-56.0474 J-1.1592
G1 X97.0329 Y69.7052
G3 X94.8099 Y71.6212 I-1.9987 J-0.0714
G3 X89.9088 Y70.5713 I2.8525 J-25.2806
G3 X85.2184 Y68.2151 I5.0344 J-15.8684
G3 X85.1927 Y68.1962 I1.1683 J-1.6233
G3 X81.7973 Y64.7307 I9.331 J-12.5381
G3 X79.4987 Y60.7009 I18.4751 J-13.2085
G3 X79.3281 Y59.8853 I1.8294 J-0.8083
G1 X79.3965 Y41.1548
G3 X79.3967 Y41.1354 I2.0 J0.0073
G2 X79.2949 Y40.3061 I-3.0927 J-0.0413
G3 X79.2851 Y40.2673 I1.934 J-0.5095
G2 X79.035 Y39.9055 I-0.5954 J0.1442
G2 X78.0858 Y39.7086 I-0.875 J1.832
G3 X77.9763 Y39.7096 I-0.0731 J-1.9987
G2 X77.3921 Y39.8008 I-0.0312 J1.7164
G2 X77.1923 Y39.9952 I0.1311 J0.3346
G2 X77.0041 Y41.1067 I2.7133 J1.0311
G3 X77.0049 Y41.1621 I-1.9992 J0.0554
G1 Y65.1491
G2 X77.0716 Y68.4569 I127.602 J-0.9185
G3 X77.1757 Y71.9028 I-87.4911 J4.3673
G3 X77.1725 Y72.0384 I-1.9999 J0.021
G2 X77.4324 Y73.179 I2.103 J0.1207
G2 X78.029 Y73.382 I0.5348 J-0.5938
G3 X78.2457 Y73.3769 I0.1546 J1.994
G2 X78.7093 Y73.2508 I0.0255 J-0.8212
G2 X79.3228 Y72.0715 I-1.542 J-1.5514
G3 X79.3373 Y71.9965 I1.9708 J0.3403
G2 X79.5674 Y69.7178 I-10.3453 J-2.196
G3 X80.5878 Y67.9585 I1.9999 J-0.0156
G0 Z3.0
G0 X109.3392 Y60.9345
G0 Z1.0
G1 F300.0 Z-3.0
G2 F1000.0 X109.4833 Y61.4924 I21.3916 J-5.226
G2 X112.2578 Y67.3578 I18.5188 J-5.171
G3 X112.2856 Y67.3985 I-1.6377 J1.148
G2 X117.2922 Y71.9477 I11.5458 J-7.6771
G2 X123.9147 Y73.4447 I6.3689 J-12.7784
G3 X123.9926 Y73.4448 I0.0355 J1.9997
G2 X128.9854 Y72.1304 I0.199 J-9.3838
G2 X132.5411 Y68.2498 I-5.7373 J-8.8263
G3 X132.5518 Y68.23 I1.7655 J0.9396
G2 X134.4937 Y62.8909 I-16.5133 J-9.0288
G2 X135.0073 Y57.0637 I-26.3681 J-5.2601
G3 X135.0069 Y57.0332 I1.9996 J-0.0422
G2 X134.1156 Y50.7865 I-23.291 J0.1363
G2 X131.4174 Y45.2339 I-17.4846 J5.0644
G3 X131.3982 Y45.2066 I1.6246 J-1.1665
G2 X127.0827 Y41.3042 I-10.5074 J7.2823
G2 X121.4852 Y39.9832 I-5.4204 J10.4478
G3 X121.4353 Y39.9833 I-0.0301 J-1.9998
G2 X113.0401 Y43.5854 I-0.1118 J11.3236
G3 X113.0087 Y43.6184 I-1.463 J-1.3637
G2 X109.8174 Y48.7531 I10.0496 J9.8049
G2 X108.7233 Y54.9385 I18.9873 J6.5481
G3 X108.7225 Y54.9695 I-1.9997 J-0.0361
G2 X109.3392 Y60.9345 I22.0083 J0.739
G1 F300.0 X111.3367 Y60.4029
G3 F1000.0 X110.66 Y54.8958 I19.5093 J-5.1924
G3 X111.3618 Y49.9629 I16.4512 J-0.1756
G3 X111.3651 Y49.9523 I2.6773 J0.8087
G3 X114.1286 Y45.2523 I11.2298 J3.4406
G3 X121.446 Y42.0909 I7.2962 J6.8385
G3 X129.5731 Y45.5297 I0.0965 J11.0946
G3 X132.4984 Y50.0995 I-8.8638 J8.8953
G3 X132.5051 Y50.118 I-2.6256 J0.9634
G3 X133.4449 Y55.1544 I-15.1214 J5.4274
G3 X133.3688 Y59.5474 I-38.1322 J1.5364
G3 X132.8253 Y63.0971 I-23.1142 J-1.7223
G1 Y63.0972
G3 X131.8685 Y65.8941 I-14.4013 J-3.3645
G3 X128.5872 Y69.8491 I-8.6032 J-3.799
G3 X128.4884 Y69.9139 I-1.5827 J-2.3059
G3 X123.5112 Y71.3032 I-4.8419 J-7.7361
G3 X117.4143 Y69.6107 I-0.2135 J-11.0585
G3 X117.3426 Y69.5641 I1.4877 J-2.3683
G3 X113.2341 Y65.0794 I7.201 J-10.7213
G3 X111.3367 Y60.4029 I17.6119 J-9.869
G1 F300.0 X112.1067 Y60.1979
G3 F1000.0 X111.4568 Y54.8978 I18.7393 J-4.9875
G3 X112.1246 Y50.1933 I15.6543 J-0.1776
G3 X112.1269 Y50.1857 I1.9146 J0.5783
G3 X114.7065 Y45.8009 I10.468 J3.2071
G3 X121.4486 Y42.8877 I6.7183 J6.2899
G3 X129.0034 Y46.0869 I0.0939 J10.2978
G3 X131.7503 Y50.3739 I-8.2942 J8.3381
G3 X131.7552 Y50.3872 I-1.8776 J0.6889
G3 X132.6485 Y55.1801 I-14.3714 J5.1582
G3 X132.5742 Y59.488 I-37.3358 J1.5107
G3 X132.0494 Y62.9159 I-22.3196 J-1.6628
G3 X131.1418 Y65.5672 I-13.6254 J-3.1832
G3 X128.1363 Y69.1921 I-7.8765 J-3.4721
G3 X128.0656 Y69.2385 I-1.1318 J-1.649
G3 X123.5095 Y70.5063 I-4.4192 J-7.0606
G3 X117.8382 Y68.9359 I-0.2117 J-10.2616
G3 X117.7869 Y68.9026 I1.0639 J-1.6936
G3 X113.9305 Y64.6923 I6.7567 J-10.0599
G3 X112.1067 Y60.1979 I16.9155 J-9.4818
G1 F300.0 X110.101 Y60.6814
G3 F1000.0 X109.5221 Y54.9963 I20.6298 J-4.9729
G2 X109.5232 Y54.9529 I-2.7984 J-0.094
G3 X110.5728 Y49.0166 I19.2816 J0.3483
G3 X113.5813 Y44.177 I12.4855 J4.4067
G2 X113.6253 Y44.1309 I-2.0041 J-1.9554
G3 X121.4274 Y40.7833 I7.6982 J7.176
G2 X121.4972 Y40.7831 I0.0276 J-2.7999
G3 X126.7047 Y42.0094 I0.1651 J10.969
G3 X130.7407 Y45.6623 I-5.8139 J10.4796
G2 X130.7676 Y45.7005 I2.3013 J-1.595
G3 X133.3467 Y51.0074 I-14.1366 J10.1504
G3 X134.2069 Y57.0379 I-21.6308 J6.162
G2 X134.2075 Y57.0805 I2.8 J-0.0164
G3 X133.7092 Y62.7343 I-26.0818 J0.5503
G3 X131.8499 Y67.8462 I-17.6707 J-3.5331
G2 X131.8349 Y67.874 I2.4568 J1.3433
G3 X128.563 Y71.4508 I-8.5868 J-4.5699
G3 X124.0096 Y72.645 I-4.3714 J-7.3898
G2 X123.9005 Y72.6448 I-0.0594 J2.7994
G3 X117.6594 Y71.2368 I-0.2394 J-13.4754
G3 X112.9517 Y66.9555 I6.172 J-11.5155
G2 X112.9129 Y66.8986 I-2.3316 J1.5504
G3 X110.2545 Y61.2797 I15.0892 J-10.5773
G3 X110.101 Y60.6814 I20.4764 J-5.5712
G1 F300.0 X109.3233 Y60.8689
G1 Z-5.0
G2 F1000.0 X109.4833 Y61.4924 I21.4076 J-5.1604
G2 X112.2578 Y67.3578 I18.5188 J-5.171
G3 X112.2856 Y67.3985 I-1.6377 J1.148
G2 X117.2922 Y71.9477 I11.5458 J-7.6771
G2 X123.9147 Y73.4447 I6.3689 J-12.7784
G3 X123.9926 Y73.4448 I0.0355 J1.9997
G2 X128.9854 Y72.1304 I0.199 J-9.3838
G2 X132.5411 Y68.2498 I-5.7373 J-8.8263
G3 X132.5518 Y68.23 I1.7655 J0.9396
G2 X134.4937 Y62.8909 I-16.5133 J-9.0288
G2 X135.0073 Y57.0637 I-26.3681 J-5.2601
G3 X135.0069 Y57.0332 I1.9996 J-0.0422
G2 X134.1156 Y50.7865 I-23.291 J0.1363
G2 X131.4174 Y45.2339 I-17.4846 J5.0644
G3 X131.3982 Y45.2066 I1.6246 J-1.1665
G2 X127.0827 Y41.3042 I-10.5074 J7.2823
G2 X121.4852 Y39.9832 I-5.4204 J10.4478
G3 X121.4353 Y39.9833 I-0.0301 J-1.9998
G2 X113.0401 Y43.5854 I-0.1118 J11.3236
G3 X113.0087 Y43.6184 I-1.463 J-1.3637
G2 X109.8174 Y48.7531 I10.0496 J9.8049
G2 X108.7233 Y54.9385 I18.9873 J6.5481
G3 X108.7225 Y54.9695 I-1.9997 J-0.0361
G2 X109.3233 Y60.8689 I22.0083 J0.739
G1 F300.0 X111.321 Y60.3437
G3 F1000.0 X110.66 Y54.8958 I19.525 J-5.1332
G3 X111.3618 Y49.9629 I16.4512 J-0.1756
G3 X111.3651 Y49.9523 I2.6773 J0.8087
G3 X114.1286 Y45.2523 I11.2298 J3.4406
G3 X121.446 Y42.0909 I7.2962 J6.8385
G3 X129.5731 Y45.5297 I0.0965 J11.0946
G3 X132.4984 Y50.0995 I-8.8638 J8.8953
G3 X132.5051 Y50.118 I-2.6256 J0.9634
G3 X133.4449 Y55.1544 I-15.1214 J5.4274
G3 X133.3688 Y59.5474 I-38.1322 J1.5364
G3 X132.8253 Y63.0971 I-23.1142 J-1.7223
G1 Y63.0972
G3 X131.8685 Y65.8941 I-14.4013 J-3.3645
G3 X128.5872 Y69.8491 I-8.6032 J-3.799
G3 X128.4884 Y69.9139 I-1.5827 J-2.3059
G3 X123.5112 Y71.3032 I-4.8419 J-7.7361
G3 X117.4143 Y69.6107 I-0.2135 J-11.0585
G3 X117.3426 Y69.5641 I1.4877 J-2.3683
G3 X113.2341 Y65.0794 I7.201 J-10.7213
G3 X111.321 Y60.3437 I17.6119 J-9.869
G1 F300.0 X112.0916 Y60.1411
G3 F1000.0 X111.4568 Y54.8978 I18.7544 J-4.9306
G3 X112.1246 Y50.1933 I15.6543 J-0.1776
G3 X112.1269 Y50.1857 I1.9146 J0.5783
G3 X114.7065 Y45.8009 I10.468 J3.2071
G3 X121.4486 Y42.8877 I6.7183 J6.2899
G3 X129.0034 Y46.0869 I0.0939 J10.2978
G3 X131.7503 Y50.3739 I-8.2942 J8.3381
G3 X131.7552 Y50.3872 I-1.8776 J0.6889
G3 X132.6485 Y55.1801 I-14.3714 J5.1582
G3 X132.5742 Y59.488 I-37.3358 J1.5107
G3 X132.0494 Y62.9159 I-22.3196 J-1.6628
G3 X131.1418 Y65.5672 I-13.6254 J-3.1832
G3 X128.1363 Y69.1921 I-7.8765 J-3.4721
G3 X128.0656 Y69.2385 I-1.1318 J-1.649
G3 X123.5095 Y70.5063 I-4.4192 J-7.0606
G3 X117.8382 Y68.9359 I-0.2117 J-10.2616
G3 X117.7869 Y68.9026 I1.0639 J-1.6936
G3 X113.9305 Y64.6923 I6.7567 J-10.0599
G3 X112.0916 Y60.1411 I16.9155 J-9.4818
G1 F300.0 X110.0858 Y60.6181
G3 F1000.0 X109.5221 Y54.9963 I20.645 J-4.9096
G2 X109.5232 Y54.9529 I-2.7984 J-0.094
G3 X110.5728 Y49.0166 I19.2816 J0.3483
G3 X113.5813 Y44.177 I12.4855 J4.4067
G2 X113.6253 Y44.1309 I-2.0041 J-1.9554
G3 X121.4274 Y40.7833 I7.6982 J7.176
G2 X121.4972 Y40.7831 I0.0276 J-2.7999
G3 X126.7047 Y42.0094 I0.1651 J10.969
G3 X130.7407 Y45.6623 I-5.8139 J10.4796
G2 X130.7676 Y45.7005 I2.3013 J-1.595
G3 X133.3467 Y51.0074 I-14.1366 J10.1504
G3 X134.2069 Y57.0379 I-21.6308 J6.162
G2 X134.2075 Y57.0805 I2.8 J-0.0164
G3 X133.7092 Y62.7343 I-26.0818 J0.5503
G3 X131.8499 Y67.8462 I-17.6707 J-3.5331
G2 X131.8349 Y67.874 I2.4568 J1.3433
G3 X128.563 Y71.4508 I-8.5868 J-4.5699
G3 X124.0096 Y72.645 I-4.3714 J-7.3898
G2 X123.9005 Y72.6448 I-0.0594 J2.7994
G3 X117.6594 Y71.2368 I-0.2394 J-13.4754
G3 X112.9517 Y66.9555 I6.172 J-11.5155
G2 X112.9129 Y66.8986 I-2.3316 J1.5504
G3 X110.2545 Y61.2797 I15.0892 J-10.5773
G3 X110.0858 Y60.6181 I20.4764 J-5.5712
G0 Z3.0
G0 X149.9959 Y60.1567
G0 Z1.0
G1 F300.0 Z-3.0
G1 F1000.0 X149.9777 Y58.5827
G3 X149.9776 Y58.5468 I1.9999 J-0.0231
G1 X150.0118 Y53.215
G1 X150.0459 Y47.6099
G3 X151.2321 Y45.7951 I2.0 J0.0122
G3 X155.9419 Y43.8414 I40.1148 J90.0515
G3 X156.0998 Y43.7881 I0.7183 J1.8666
G3 X161.4111 Y43.0585 I5.1121 J17.5168
G3 X166.62 Y44.0536 I0.1429 J13.3828
G3 X166.6475 Y44.0651 I-0.757 J1.8512
G3 X171.0346 Y47.2094 I-4.879 J11.4401
G3 X174.7248 Y57.2476 I-10.7226 J9.6392
G3 X174.0733 Y62.2217 I-18.3464 J0.1266
G3 X174.0714 Y62.2287 I-1.9289 J-0.5284
G3 X171.7761 Y66.9173 I-13.73 J-3.8155
G3 X162.6597 Y71.4281 I-8.8015 J-6.3204
G3 X155.9842 Y69.5979 I0.2988 J-14.1789
G3 X155.9233 Y69.562 I0.9835 J-1.7415
G3 X150.8274 Y66.0586 I30.5865 J-49.9473
G3 X150.046 Y64.4958 I1.2185 J-1.586
G1 X149.9959 Y60.1567
G0 Z3.0
G0 X149.5431 Y67.0559
G0 Z1.0
G1 F300.0 Z-3.0
G2 F1000.0 X149.5278 Y69.1276 I523.9292 J4.924
G2 X149.528 Y69.2495 I2627.6717 J-4.8232
G3 X151.2201 Y68.3436 I2.4837 J2.606
G3 X149.8546 Y67.3249 I35.2897 J-48.7289
G3 X149.5431 Y67.0559 I2.1913 J-2.8522
G0 Z3.0
G0 X149.8094 Y44.8051
G0 Z1.0
G1 F300.0 Z-3.0
G3 F1000.0 X150.5823 Y44.3365 I2.2365 J2.8169
G3 X151.077 Y44.1177 I40.7646 J91.5101
G3 X149.758 Y43.5018 I0.8322 J-3.5025
G2 X149.7962 Y44.5927 I74.1101 J-2.0508
G3 X149.8094 Y44.8051 I-54.6582 J3.4998
G1 F300.0 X148.2123 Y44.9012
G3 F1000.0 X148.3035 Y47.3906 I-53.0743 J3.1914
G3 X148.3037 Y47.4303 I-1.9998 J0.0264
G3 X148.0978 Y58.3092 I-442.7178 J-2.9355
G2 X147.9277 Y69.1247 I525.3745 J13.6707
G2 X147.9619 Y78.5435 I2629.2717 J-4.8203
G3 X147.9961 Y88.0538 I-2161.8041 J12.5313
G3 X147.9959 Y88.0872 I-2.0 J0.0028
G2 X148.6332 Y90.8412 I5.8813 J0.0898
G2 X149.2901 Y91.6397 I2.1379 J-1.0893
G2 X149.9299 Y91.8332 I0.6227 J-0.9043
G3 X149.9981 Y91.8334 I0.0311 J1.9998
G2 X150.3757 Y91.7758 I0.021 J-1.1298
G2 X150.3839 Y91.7669 I-0.0118 J-0.019
G2 X150.5255 Y90.9267 I-2.132 J-0.7913
G2 X150.3939 Y89.8579 I-6.8346 J0.2989
G1 Y89.8578
G1 Y89.8579
G3 X150.1843 Y88.1394 I10.6199 J-2.1671
G3 X150.1828 Y88.084 I1.9983 J-0.0828
G1 X150.0803 Y80.5987
G3 X150.0801 Y80.587 I1.9998 J-0.0274
G1 X150.0118 Y71.8712
G3 X153.1547 Y70.2143 I1.9999 J-0.0157
G2 X158.3776 Y72.9998 I14.3234 J-20.5671
G3 X158.3943 Y73.0064 I-0.7262 J1.8635
G2 X162.7433 Y73.8889 I4.5947 J-11.4848
G2 X168.4949 Y72.6784 I0.1808 J-13.4105
G2 X173.0697 Y69.0087 I-5.6995 J-11.7916
G3 X173.088 Y68.9859 I1.569 J1.2403
G2 X176.0323 Y63.5239 I-12.7927 J-10.4204
G2 X176.9454 Y57.2451 I-19.8125 J-6.0871
G3 Y57.2074 I1.9999 J-0.0185
G2 X175.8507 Y50.8162 I-18.1883 J-0.1741
G2 X172.4607 Y45.3657 I-15.4276 J5.816
G3 X172.4311 Y45.3334 I1.4602 J-1.3667
G2 X161.4526 Y40.564 I-10.6812 J9.5666
G3 X161.3845 Y40.5643 I-0.0415 J-1.9996
G2 X152.7582 Y42.4261 I-0.2622 J19.7004
G3 X150.2225 Y41.69 I-0.8491 J-1.8108
G2 X149.6566 Y41.0932 I-1.8216 J1.1607
G2 X149.2542 Y40.9746 I-0.3983 J0.6095
G3 X149.2137 Y40.9744 I-0.011 J-2.0
G2 X148.4592 Y41.2878 I-0.0152 J1.0284
G3 X148.4396 Y41.3078 I-1.4377 J-1.3903
G2 X148.1318 Y42.0891 I0.7514 J0.7473
G3 X148.1327 Y42.1353 I-1.999 J0.0642
G2 X148.1984 Y44.678 I75.7354 J-0.6842
G3 X148.2123 Y44.9012 I-53.0604 J3.4146
G1 F300.0 X149.8094 Y44.8051
G1 Z-5.0
G3 F1000.0 X150.5823 Y44.3365 I2.2365 J2.8169
G3 X151.077 Y44.1177 I40.7646 J91.5101
G3 X149.758 Y43.5018 I0.8322 J-3.5025
G2 X149.7962 Y44.5927 I74.1101 J-2.0508
G3 X149.8094 Y44.8051 I-54.6582 J3.4998
G0 Z3.0
G0 X149.5431 Y67.0559
G0 Z-2.0
G1 F300.0 Z-5.0
G2 F1000.0 X149.5278 Y69.1276 I523.9292 J4.924
G2 X149.528 Y69.2495 I2627.6717 J-4.8232
G3 X151.2201 Y68.3436 I2.4837 J2.606
G3 X149.8546 Y67.3249 I35.2897 J-48.7289
G3 X149.5431 Y67.0559 I2.1913 J-2.8522
G1 F300.0 X147.9432 Y67.0409
G2 F1000.0 X147.9277 Y69.1247 I525.5291 J4.9391
G2 X147.9619 Y78.5435 I2629.2717 J-4.8203
G3 X147.9961 Y88.0538 I-2161.8041 J12.5313
G3 X147.9959 Y88.0872 I-2.0 J0.0028
G2 X148.6332 Y90.8412 I5.8813 J0.0898
G2 X149.2901 Y91.6397 I2.1379 J-1.0893
G2 X149.9299 Y91.8332 I0.6227 J-0.9043
G3 X149.9981 Y91.8334 I0.0311 J1.9998
G2 X150.3757 Y91.7758 I0.021 J-1.1298
G2 X150.3839 Y91.7669 I-0.0118 J-0.019
G2 X150.5255 Y90.9267 I-2.132 J-0.7913
G2 X150.3939 Y89.8579 I-6.8346 J0.2989
G1 Y89.8578
G1 Y89.8579
G3 X150.1843 Y88.1394 I10.6199 J-2.1671
G3 X150.1828 Y88.084 I1.9983 J-0.0828
G1 X150.0803 Y80.5987
G3 X150.0801 Y80.587 I1.9998 J-0.0274
G1 X150.0118 Y71.8712
G3 X153.1547 Y70.2143 I1.9999 J-0.0157
G2 X158.3776 Y72.9998 I14.3234 J-20.5671
G3 X158.3943 Y73.0064 I-0.7262 J1.8635
G2 X162.7433 Y73.8889 I4.5947 J-11.4848
G2 X168.4949 Y72.6784 I0.1808 J-13.4105
G2 X173.0697 Y69.0087 I-5.6995 J-11.7916
G3 X173.088 Y68.9859 I1.569 J1.2403
G2 X176.0323 Y63.5239 I-12.7927 J-10.4204
G2 X176.9454 Y57.2451 I-19.8125 J-6.0871
G3 Y57.2074 I1.9999 J-0.0185
G2 X175.8507 Y50.8162 I-18.1883 J-0.1741
G2 X172.4607 Y45.3657 I-15.4276 J5.816
G3 X172.4311 Y45.3334 I1.4602 J-1.3667
G2 X161.4526 Y40.564 I-10.6812 J9.5666
G3 X161.3845 Y40.5643 I-0.0415 J-1.9996
G2 X152.7582 Y42.4261 I-0.2622 J19.7004
G3 X150.2225 Y41.69 I-0.8491 J-1.8108
G2 X149.6566 Y41.0932 I-1.8216 J1.1607
G2 X149.2542 Y40.9746 I-0.3983 J0.6095
G3 X149.2137 Y40.9744 I-0.011 J-2.0
G2 X148.4592 Y41.2878 I-0.0152 J1.0284
G3 X148.4396 Y41.3078 I-1.4377 J-1.3903
G2 X148.1318 Y42.0891 I0.7514 J0.7473
G3 X148.1327 Y42.1353 I-1.999 J0.0642
G2 X148.1984 Y44.678 I75.7354 J-0.6842
G3 X148.3035 Y47.3906 I-53.0604 J3.4146
G3 X148.3037 Y47.4303 I-1.9998 J0.0264
G3 X148.0978 Y58.3092 I-442.7178 J-2.9355
G2 X147.9432 Y67.0409 I525.3745 J13.6707
G0 Z3.0
G0 X150.3506 Y65.5338
G0 Z-1.0
G1 F300.0 Z-5.0
G3 F1000.0 X150.046 Y64.4958 I1.6953 J-1.0612
G1 X149.9777 Y58.5827
G3 X149.9776 Y58.5468 I1.9999 J-0.0231
G1 X150.0118 Y53.215
G1 X150.0459 Y47.6099
G3 X151.2321 Y45.7951 I2.0 J0.0122
G3 X155.9419 Y43.8414 I40.1148 J90.0515
G3 X156.0998 Y43.7881 I0.7183 J1.8666
G3 X161.4111 Y43.0585 I5.1121 J17.5168
G3 X166.62 Y44.0536 I0.1429 J13.3828
G3 X166.6475 Y44.0651 I-0.757 J1.8512
G3 X171.0346 Y47.2094 I-4.879 J11.4401
G3 X174.7248 Y57.2476 I-10.7226 J9.6392
G3 X174.0733 Y62.2217 I-18.3464 J0.1266
G3 X174.0714 Y62.2287 I-1.9289 J-0.5284
G3 X171.7761 Y66.9173 I-13.73 J-3.8155
G3 X162.6597 Y71.4281 I-8.8015 J-6.3204
G3 X155.9842 Y69.5979 I0.2988 J-14.1789
G3 X155.9233 Y69.562 I0.9835 J-1.7415
G3 X150.8274 Y66.0586 I30.5865 J-49.9473
G3 X150.3506 Y65.5338 I1.2185 J-1.586
G0 Z3.0
G0 X189.0464 Y57.3177
G0 Z1.0
G1 F300.0 Z-3.0
G3 F1000.0 X188.9822 Y57.0086 I33.3134 J-7.0734
G3 X191.8013 Y54.8052 I1.9602 J-0.3972
G1 X202.2945 Y59.7954
G3 X202.304 Y59.8 I-0.859 J1.8062
G3 X206.9593 Y62.2313 I-35.5124 J73.6685
G3 X211.5041 Y65.27 I-15.3638 J27.8969
G3 X211.6041 Y68.3065 I-1.2502 J1.5611
G3 X206.9446 Y70.9088 I-7.843 J-8.5705
G3 X206.9417 Y70.9096 I-0.548 J-1.9234
G3 X202.019 Y71.5656 I-4.7294 J-16.6919
G3 X193.5282 Y67.5824 I-0.1403 J-10.7422
G3 X190.555 Y62.4209 I13.9714 J-11.4853
G3 X189.0464 Y57.3177 I31.8048 J-12.1766
G0 Z3.0
G0 X188.8003 Y53.722
G0 Z1.0
G1 F300.0 Z-3.0
G3 F1000.0 X189.515 Y53.3099 I2.1421 J2.8894
G3 X188.8546 Y52.7383 I2.0085 J-2.9876
G2 X188.8003 Y53.722 I13.4766 J1.2366
G1 F300.0 X187.2006 Y53.6921
G2 F1000.0 X187.1999 Y54.2205 I15.1306 J0.2829
G3 X187.2001 Y54.2701 I-1.9997 J0.0325
G2 X188.1052 Y61.5354 I27.7028 J0.238
G2 X191.1371 Y67.9967 I19.3579 J-5.1415
G3 X191.1548 Y68.022 I-1.6302 J1.1586
G2 X195.8582 Y72.2814 I11.3463 J-7.8027
G2 X201.9855 Y73.718 I5.926 J-11.4898
G3 X202.0307 Y73.7178 I0.0311 J1.9998
G2 X206.4154 Y73.3492 I0.1708 J-24.2309
G3 X206.4236 Y73.3478 I0.3478 J1.9695
G2 X210.3616 Y72.0267 I-2.3139 J-13.4273
G3 X210.3794 Y72.0176 I0.9177 J1.777
G2 X212.8667 Y69.7905 I-2.8829 J-5.722
G2 X213.689 Y66.6045 I-5.2119 J-3.0444
G3 X213.6885 Y66.5736 I1.9995 J-0.0469
G2 X212.8948 Y64.1492 I-4.2018 J0.0335
G2 X210.7024 Y61.9915 I-7.5498 J5.479
G2 X207.3872 Y60.0977 I-16.5658 J25.1502
G3 X207.3643 Y60.0863 I0.88 J-1.796
G2 X203.7339 Y58.321 I-57.8914 J114.436
G3 X203.7237 Y58.3162 I0.8462 J-1.8122
G1 X190.6671 Y52.1296
G3 X189.8508 Y49.2258 I0.8564 J-1.8074
G3 X195.361 Y44.2706 I12.1398 J7.9582
G3 X195.4135 Y44.2446 I0.9134 J1.7792
G3 X202.9808 Y42.6147 I7.2203 J15.1409
G3 X202.9934 Y42.615 I-0.0414 J1.9996
G3 X209.0229 Y43.5788 I-0.6281 J23.2709
G3 X212.1482 Y44.7312 I-4.8379 J17.9348
G3 X215.2852 Y47.2604 I-3.1862 J7.1619
G3 X215.3839 Y47.4085 I-1.6133 J1.182
G2 X216.0309 Y48.1935 I2.9921 J-1.8069
G3 X216.0581 Y48.2186 I-1.3418 J1.4831
G2 X216.2027 Y48.287 I0.1781 J-0.1897
G2 X216.8265 Y47.9979 I-0.0456 J-0.9163
G3 X216.9789 Y47.8516 I1.4596 J1.3673
G2 X217.2432 Y47.279 I-0.4987 J-0.5775
G2 X216.9055 Y45.9977 I-2.6345 J0.009
G2 X215.0904 Y44.1196 I-5.1627 J3.1734
G3 X215.0637 Y44.1016 I1.1048 J-1.6672
G2 X212.3273 Y42.586 I-9.2761 J13.5198
G3 X212.2834 Y42.5662 I0.7977 J-1.834
G2 X202.9146 Y40.4276 I-9.7034 J20.9173
G2 X196.8783 Y41.2035 I-0.2292 J22.0844
G2 X191.6803 Y43.8508 I3.8553 J13.9966
G2 X188.259 Y48.4081 I7.2501 J9.0057
G2 X187.2006 Y53.6921 I14.0721 J5.5668
G1 F300.0 X188.8003 Y53.722
G1 Z-5.0
G3 F1000.0 X189.515 Y53.3099 I2.1421 J2.8894
G3 X188.8546 Y52.7383 I2.0085 J-2.9876
G2 X188.8003 Y53.722 I13.4766 J1.2366
G1 F300.0 X187.2006 Y53.6921
G2 F1000.0 X187.1999 Y54.2205 I15.1306 J0.2829
G3 X187.2001 Y54.2701 I-1.9997 J0.0325
G2 X188.1052 Y61.5354 I27.7028 J0.238
G2 X191.1371 Y67.9967 I19.3579 J-5.1415
G3 X191.1548 Y68.022 I-1.6302 J1.1586
G2 X195.8582 Y72.2814 I11.3463 J-7.8027
G2 X201.9855 Y73.718 I5.926 J-11.4898
G3 X202.0307 Y73.7178 I0.0311 J1.9998
G2 X206.4154 Y73.3492 I0.1708 J-24.2309
G3 X206.4236 Y73.3478 I0.3478 J1.9695
G2 X210.3616 Y72.0267 I-2.3139 J-13.4273
G3 X210.3794 Y72.0176 I0.9177 J1.777
G2 X212.8667 Y69.7905 I-2.8829 J-5.722
G2 X213.689 Y66.6045 I-5.2119 J-3.0444
G3 X213.6885 Y66.5736 I1.9995 J-0.0469
G2 X212.8948 Y64.1492 I-4.2018 J0.0335
G2 X210.7024 Y61.9915 I-7.5498 J5.479
G2 X207.3872 Y60.0977 I-16.5658 J25.1502
G3 X207.3643 Y60.0863 I0.88 J-1.796
G2 X203.7339 Y58.321 I-57.8914 J114.436
G3 X203.7237 Y58.3162 I0.8462 J-1.8122
G1 X190.6671 Y52.1296
G3 X189.8508 Y49.2258 I0.8564 J-1.8074
G3 X195.361 Y44.2706 I12.1398 J7.9582
G3 X195.4135 Y44.2446 I0.9134 J1.7792
G3 X202.9808 Y42.6147 I7.2203 J15.1409
G3 X202.9934 Y42.615 I-0.0414 J1.9996
G3 X209.0229 Y43.5788 I-0.6281 J23.2709
G3 X212.1482 Y44.7312 I-4.8379 J17.9348
G3 X215.2852 Y47.2604 I-3.1862 J7.1619
G3 X215.3839 Y47.4085 I-1.6133 J1.182
G2 X216.0309 Y48.1935 I2.9921 J-1.8069
G3 X216.0581 Y48.2186 I-1.3418 J1.4831
G2 X216.2027 Y48.287 I0.1781 J-0.1897
G2 X216.8265 Y47.9979 I-0.0456 J-0.9163
G3 X216.9789 Y47.8516 I1.4596 J1.3673
G2 X217.2432 Y47.279 I-0.4987 J-0.5775
G2 X216.9055 Y45.9977 I-2.6345 J0.009
G2 X215.0904 Y44.1196 I-5.1627 J3.1734
G3 X215.0637 Y44.1016 I1.1048 J-1.6672
G2 X212.3273 Y42.586 I-9.2761 J13.5198
G3 X212.2834 Y42.5662 I0.7977 J-1.834
G2 X202.9146 Y40.4276 I-9.7034 J20.9173
G2 X196.8783 Y41.2035 I-0.2292 J22.0844
G2 X191.6803 Y43.8508 I3.8553 J13.9966
G2 X188.259 Y48.4081 I7.2501 J9.0057
G2 X187.2006 Y53.6921 I14.0721 J5.5668
G1 F300.0 X189.3655 Y55.3811
G3 F1000.0 X191.8013 Y54.8052 I1.5769 J1.2302
G1 X202.2945 Y59.7954
G3 X202.304 Y59.8 I-0.859 J1.8062
G3 X206.9593 Y62.2313 I-35.5124 J73.6685
G3 X211.5041 Y65.27 I-15.3638 J27.8969
G3 X211.6041 Y68.3065 I-1.2502 J1.5611
G3 X206.9446 Y70.9088 I-7.843 J-8.5705
G3 X206.9417 Y70.9096 I-0.548 J-1.9234
G3 X202.019 Y71.5656 I-4.7294 J-16.6919
G3 X193.5282 Y67.5824 I-0.1403 J-10.7422
G3 X190.555 Y62.4209 I13.9714 J-11.4853
G3 X188.9822 Y57.0086 I31.8048 J-12.1766
G3 X189.3655 Y55.3811 I1.9602 J-0.3972
G0 Z3.0
G0 X230.749 Y61.588
G0 Z1.0
G1 F300.0 Z-3.0
G1 F1000.0 X230.7586 Y63.9337
G3 X231.8713 Y63.5055 I2.1223 J3.8544
G3 X231.5466 Y62.9558 I28.8559 J-17.4103
G3 X230.749 Y61.588 I87.4384 J-51.9058
G1 F300.0 X229.949 Y61.5913
G1 F1000.0 X229.9657 Y65.6758
G3 X233.2605 Y64.2082 I2.9151 J2.1123
G3 X232.237 Y62.5515 I27.4667 J-18.113
G3 X229.9427 Y58.4745 I86.748 J-51.5015
G3 X229.9363 Y58.4624 I3.1774 J-1.6923
G1 X229.949 Y61.5913
G0 Z3.0
G0 X248.8898 Y71.1097
G0 Z1.0
G1 F300.0 Z-3.0
G2 F1000.0 X250.1656 Y70.0574 I-1.2877 J-2.8606
G3 X248.8898 Y71.1097 I-4.4341 J-4.0762
G1 F300.0 X249.5466 Y72.5687
G2 F1000.0 X251.7135 Y70.6021 I-1.9444 J-4.3196
G2 X252.3732 Y68.9735 I-6.4332 J-3.5537
G3 X252.3739 Y68.9709 I1.9302 J0.5239
G2 X252.9391 Y65.9766 I-18.4356 J-5.0304
G3 X252.9402 Y65.9666 I1.9886 J0.2131
G2 X253.1669 Y62.7722 I-38.9008 J-4.3665
G3 X253.1678 Y62.7483 I1.9991 J0.0599
G1 X253.4412 Y56.22
G3 X253.4486 Y56.1123 I1.9982 J0.0837
G1 X254.1322 Y49.0029
G3 X254.1359 Y48.9676 I1.9908 J0.1914
G3 X255.3306 Y41.7295 I72.9737 J8.3266
G3 X255.3464 Y41.6623 I1.9546 J0.4238
G2 X255.4225 Y41.1138 I-2.4405 J-0.6181
G2 X255.082 Y40.3453 I-0.9935 J-0.0196
G3 X255.0187 Y40.2876 I1.3145 J-1.5074
G2 X253.972 Y39.8805 I-1.0197 J1.0729
G3 X253.8578 Y39.8793 I-0.0364 J-1.9997
G2 X253.1865 Y40.0873 I-0.041 J1.0551
G2 X252.6979 Y40.9603 I1.3521 J1.3298
G3 X252.697 Y40.9643 I-1.9411 J-0.4818
G2 X251.3089 Y48.6647 I56.7042 J14.1967
G3 X251.3035 Y48.7086 I-1.9876 J-0.2223
G2 X250.7062 Y56.5858 I67.7125 J9.0954
G2 X250.7718 Y59.1736 I79.8496 J-0.7298
G3 X250.8767 Y61.9425 I-57.3687 J3.5585
G3 X250.3991 Y66.2617 I-16.6022 J0.3503
G3 X250.3985 Y66.2642 I-1.942 J-0.478
G3 X249.0683 Y68.8835 I-6.3273 J-1.5659
G3 X249.0237 Y68.935 I-1.5333 J-1.2842
G3 X245.6421 Y70.4034 I-3.2922 J-2.9537
G3 X240.387 Y69.0672 I-0.003 J-10.9907
G3 X240.3671 Y69.0563 I0.9557 J-1.7569
G3 X236.3758 Y65.7613 I7.0297 J-12.5804
G3 X236.3475 Y65.727 I1.5295 J-1.2886
G3 X233.6177 Y61.743 I24.3796 J-19.6318
G3 X231.3549 Y57.7224 I85.3673 J-50.693
G3 X231.1201 Y56.7769 I1.7652 J-0.9402
G2 X230.9906 Y49.1187 I-195.43 J-0.525
G2 X230.7531 Y45.3551 I-72.6161 J2.6929
G2 X230.5321 Y43.5567 I-27.9048 J2.5163
G3 X230.5259 Y43.5139 I1.9761 J-0.308
G2 X230.1712 Y42.1153 I-6.2106 J0.8307
G2 X229.6511 Y41.4127 I-1.7627 J0.7611
G2 X229.1 Y41.2475 I-0.5291 J0.7633
G3 X229.0344 Y41.248 I-0.0473 J-1.9994
G2 X227.9565 Y41.6672 I-0.0143 J1.5587
G3 X227.8897 Y41.7268 I-1.3647 J-1.4621
G2 X227.5333 Y42.4514 I0.6609 J0.7749
G2 X227.737 Y43.4 I4.3701 J-0.4419
G3 X227.8008 Y43.6397 I-1.8971 J0.6332
G3 X228.1211 Y46.4403 I-16.4432 J3.2995
G3 X228.2153 Y48.9784 I-86.9995 J4.5001
G3 X228.2154 Y48.9829 I-1.9995 J0.045
G1 X228.3179 Y54.0415
G3 X228.3183 Y54.0739 I-1.9996 J0.0405
G1 X228.4206 Y79.138
G3 X228.6597 Y84.869 I-142.2132 J8.8023
G3 X228.6601 Y84.9011 I-1.9995 J0.0431
G3 X228.278 Y88.5936 I-17.1251 J0.0939
G2 X228.0107 Y91.4358 I14.6115 J2.8078
G3 X228.0098 Y91.5008 I-2.0 J0.0046
G2 X228.3577 Y92.3285 I1.081 J0.0326
G3 X228.4 Y92.3686 I-1.3558 J1.4703
G2 X229.3833 Y92.7564 I0.9524 J-0.9744
G3 X229.5356 Y92.7587 I0.0454 J1.9995
G2 X230.3032 Y92.5188 I0.0616 J-1.1508
G2 X230.7218 Y91.5305 I-1.437 J-1.1914
G3 X230.7394 Y91.4063 I1.9881 J0.2176
G2 X231.2568 Y85.7572 I-34.8197 J-6.0377
G2 X231.0215 Y78.4062 I-120.5988 J0.1816
G3 X231.0206 Y78.3909 I1.9961 J-0.1249
G3 X230.8468 Y70.7775 I118.8064 J-6.5211
G3 Y70.7732 I1.9999 J0.0184
G1 X230.881 Y67.7654
G3 X234.4902 Y66.6007 I1.9999 J0.0227
G2 X236.9838 Y69.4569 I18.6132 J-13.733
G3 X236.9858 Y69.4589 I-1.3938 J1.4344
G2 X239.8788 Y71.6712 I10.6465 J-10.9251
G3 X239.8888 Y71.677 I-1.0165 J1.7224
G2 X245.6648 Y73.2734 I5.7801 J-9.6658
G3 X245.7098 Y73.274 I-0.0007 J2.0
G2 X249.353 Y72.6508 I0.2213 J-9.6663
G2 X249.5466 Y72.5687 I-1.7508 J-4.4016
G1 F300.0 X248.8898 Y71.1097
G1 Z-5.0
G2 F1000.0 X250.1656 Y70.0574 I-1.2877 J-2.8606
G3 X248.8898 Y71.1097 I-4.4341 J-4.0762
G0 Z3.0
G0 X231.8713 Y63.5055
G0 Z-2.0
G1 F300.0 Z-5.0
G3 F1000.0 X231.5466 Y62.9558 I28.8559 J-17.4103
G3 X230.749 Y61.588 I87.4384 J-51.9058
G1 X230.7586 Y63.9337
G3 X231.8713 Y63.5055 I2.1223 J3.8544
G1 F300.0 X232.0548 Y64.2841
G3 F1000.0 X233.2605 Y64.2082 I0.826 J3.5039
G3 X232.237 Y62.5515 I27.4667 J-18.113
G3 X229.9427 Y58.4745 I86.748 J-51.5015
G3 X229.9363 Y58.4624 I3.1774 J-1.6923
G1 X229.9657 Y65.6758
G3 X232.0548 Y64.2841 I2.9151 J2.1123
G1 F300.0 X232.4219 Y65.8414
G3 F1000.0 X234.4902 Y66.6007 I0.4589 J1.9466
G2 X236.9838 Y69.4569 I18.6132 J-13.733
G3 X236.9858 Y69.4589 I-1.3938 J1.4344
G2 X239.8788 Y71.6712 I10.6465 J-10.9251
G3 X239.8888 Y71.677 I-1.0165 J1.7224
G2 X245.6648 Y73.2734 I5.7801 J-9.6658
G3 X245.7098 Y73.274 I-0.0007 J2.0
G2 X249.353 Y72.6508 I0.2213 J-9.6663
G2 X251.7135 Y70.6021 I-1.7508 J-4.4016
G2 X252.3732 Y68.9735 I-6.4332 J-3.5537
G3 X252.3739 Y68.9709 I1.9302 J0.5239
G2 X252.9391 Y65.9766 I-18.4356 J-5.0304
G3 X252.9402 Y65.9666 I1.9886 J0.2131
G2 X253.1669 Y62.7722 I-38.9008 J-4.3665
G3 X253.1678 Y62.7483 I1.9991 J0.0599
G1 X253.4412 Y56.22
G3 X253.4486 Y56.1123 I1.9982 J0.0837
G1 X254.1322 Y49.0029
G3 X254.1359 Y48.9676 I1.9908 J0.1914
G3 X255.3306 Y41.7295 I72.9737 J8.3266
G3 X255.3464 Y41.6623 I1.9546 J0.4238
G2 X255.4225 Y41.1138 I-2.4405 J-0.6181
G2 X255.082 Y40.3453 I-0.9935 J-0.0196
G3 X255.0187 Y40.2876 I1.3145 J-1.5074
G2 X253.972 Y39.8805 I-1.0197 J1.0729
G3 X253.8578 Y39.8793 I-0.0364 J-1.9997
G2 X253.1865 Y40.0873 I-0.041 J1.0551
G2 X252.6979 Y40.9603 I1.3521 J1.3298
G3 X252.697 Y40.9643 I-1.9411 J-0.4818
G2 X251.3089 Y48.6647 I56.7042 J14.1967
G3 X251.3035 Y48.7086 I-1.9876 J-0.2223
G2 X250.7062 Y56.5858 I67.7125 J9.0954
G2 X250.7718 Y59.1736 I79.8496 J-0.7298
G3 X250.8767 Y61.9425 I-57.3687 J3.5585
G3 X250.3991 Y66.2617 I-16.6022 J0.3503
G3 X250.3985 Y66.2642 I-1.942 J-0.478
G3 X249.0683 Y68.8835 I-6.3273 J-1.5659
G3 X249.0237 Y68.935 I-1.5333 J-1.2842
G3 X245.6421 Y70.4034 I-3.2922 J-2.9537
G3 X240.387 Y69.0672 I-0.003 J-10.9907
G3 X240.3671 Y69.0563 I0.9557 J-1.7569
G3 X236.3758 Y65.7613 I7.0297 J-12.5804
G3 X236.3475 Y65.727 I1.5295 J-1.2886
G3 X233.6177 Y61.743 I24.3796 J-19.6318
G3 X231.3549 Y57.7224 I85.3673 J-50.693
G3 X231.1201 Y56.7769 I1.7652 J-0.9402
G2 X230.9906 Y49.1187 I-195.43 J-0.525
G2 X230.7531 Y45.3551 I-72.6161 J2.6929
G2 X230.5321 Y43.5567 I-27.9048 J2.5163
G3 X230.5259 Y43.5139 I1.9761 J-0.308
G2 X230.1712 Y42.1153 I-6.2106 J0.8307
G2 X229.6511 Y41.4127 I-1.7627 J0.7611
G2 X229.1 Y41.2475 I-0.5291 J0.7633
G3 X229.0344 Y41.248 I-0.0473 J-1.9994
G2 X227.9565 Y41.6672 I-0.0143 J1.5587
G3 X227.8897 Y41.7268 I-1.3647 J-1.4621
G2 X227.5333 Y42.4514 I0.6609 J0.7749
G2 X227.737 Y43.4 I4.3701 J-0.4419
G3 X227.8008 Y43.6397 I-1.8971 J0.6332
G3 X228.1211 Y46.4403 I-16.4432 J3.2995
G3 X228.2153 Y48.9784 I-86.9995 J4.5001
G3 X228.2154 Y48.9829 I-1.9995 J0.045
G1 X228.3179 Y54.0415
G3 X228.3183 Y54.0739 I-1.9996 J0.0405
G1 X228.4206 Y79.138
G3 X228.6597 Y84.869 I-142.2132 J8.8023
G3 X228.6601 Y84.9011 I-1.9995 J0.0431
G3 X228.278 Y88.5936 I-17.1251 J0.0939
G2 X228.0107 Y91.4358 I14.6115 J2.8078
G3 X228.0098 Y91.5008 I-2.0 J0.0046
G2 X228.3577 Y92.3285 I1.081 J0.0326
G3 X228.4 Y92.3686 I-1.3558 J1.4703
G2 X229.3833 Y92.7564 I0.9524 J-0.9744
G3 X229.5356 Y92.7587 I0.0454 J1.9995
G2 X230.3032 Y92.5188 I0.0616 J-1.1508
G2 X230.7218 Y91.5305 I-1.437 J-1.1914
G3 X230.7394 Y91.4063 I1.9881 J0.2176
G2 X231.2568 Y85.7572 I-34.8197 J-6.0377
G2 X231.0215 Y78.4062 I-120.5988 J0.1816
G3 X231.0206 Y78.3909 I1.9961 J-0.1249
G3 X230.8468 Y70.7775 I118.8064 J-6.5211
G3 Y70.7732 I1.9999 J0.0184
G1 X230.881 Y67.7654
G3 X232.4219 Y65.8414 I1.9999 J0.0227
G0 Z3.0
G0 X270.2419 Y63.0288
G0 Z1.0
G1 F300.0 Z-3.0
G2 F1000.0 X270.2625 Y63.3013 I114.9968 J-8.5523
G3 X270.2626 Y63.3026 I-2.7918 J0.2143
G3 X270.6124 Y71.5229 I-121.9855 J9.3085
G3 X270.6102 Y71.6624 I-2.7999 J0.0249
G2 X270.7482 Y72.0922 I0.6546 J0.0268
G2 X271.0732 Y72.2014 I0.3093 J-0.3824
G3 X271.2646 Y72.2019 I0.0889 J2.7986
G2 X271.5499 Y72.0883 I0.0139 J-0.38
