; generated by Slic3r 1.37.2.1-prusa3d-win64 on 2022-02-13 at 08:50:25

; 

; external perimeters extrusion width = 0.42mm
; perimeters extrusion width = 0.45mm
; infill extrusion width = 0.45mm
; solid infill extrusion width = 0.45mm
; top infill extrusion width = 0.42mm
; first layer extrusion width = 0.42mm

M107 ; disable fan
M115 U3.1.0 ; tell printer latest fw version
M83  ; extruder relative mode
M104 S215 ; set extruder temp
M140 S55 ; set bed temp
M190 S55 ; wait for bed temp
M109 S215 ; wait for extruder temp
G28 W ; home all without mesh bed level
G80 ; mesh bed leveling
G1 Y-3.0 F1000.0 ; go outside pritn area
G1 X60.0 E9.0  F1000.0 ; intro line
G1 X100.0 E12.5  F1000.0 ; intro line
G92 E0.0
M900 K30
G21 ; set units to millimeters
G90 ; use absolute coordinates
M83 ; use relative distances for extrusion
;BEFORE_LAYER_CHANGE
;0.2


G1 E-0.80000 F2100.00000 ; retract
G1 Z0.600 F7200.000 ; lift Z
;AFTER_LAYER_CHANGE
;0.2
G1 X92.107 Y83.285 F7200.000 ; move to first skirt point
G1 Z0.200 F7200.000 ; restore layer Z
G1 E0.80000 F2100.00000 ; unretract
M204 S1000 ; adjust acceleration
G1 F1800
G1 X93.614 Y82.787 E0.04977 ; skirt
G1 X95.136 Y82.623 E0.04800 ; skirt
G1 X154.844 Y82.623 E1.87209 ; skirt
G1 X156.372 Y82.784 E0.04820 ; skirt
G1 X157.839 Y83.260 E0.04835 ; skirt
G1 X159.175 Y84.031 E0.04835 ; skirt
G1 X160.319 Y85.060 E0.04824 ; skirt
G1 X161.209 Y86.278 E0.04730 ; skirt
G1 X165.566 Y93.825 E0.27324 ; skirt
G1 X165.776 Y94.314 E0.01668 ; skirt
G1 X165.872 Y94.837 E0.01668 ; skirt
G1 X165.877 Y115.008 E0.63243 ; skirt
G1 X165.806 Y115.577 E0.01799 ; skirt
G1 X165.570 Y116.169 E0.02000 ; skirt
G1 X161.107 Y123.878 E0.27926 ; skirt
G1 X160.323 Y124.935 E0.04128 ; skirt
G1 X159.352 Y125.827 E0.04133 ; skirt
G1 X157.890 Y126.717 E0.05367 ; skirt
G1 X156.386 Y127.213 E0.04966 ; skirt
G1 X154.860 Y127.377 E0.04812 ; skirt
G1 X95.156 Y127.377 E1.87197 ; skirt
G1 X93.778 Y127.243 E0.04344 ; skirt
G1 X91.950 Y126.633 E0.06040 ; skirt
G1 X90.789 Y125.942 E0.04239 ; skirt
G1 X89.624 Y124.874 E0.04954 ; skirt
G1 X88.788 Y123.716 E0.04479 ; skirt
G1 X84.351 Y116.017 E0.27861 ; skirt
G1 X84.183 Y115.532 E0.01609 ; skirt
G1 X84.123 Y115.018 E0.01621 ; skirt
G1 X84.123 Y94.992 E0.62789 ; skirt
G1 X84.187 Y94.453 E0.01704 ; skirt
G1 X84.431 Y93.831 E0.02095 ; skirt
G1 X88.891 Y86.126 E0.27914 ; skirt
G1 X89.677 Y85.065 E0.04140 ; skirt
G1 X90.648 Y84.173 E0.04133 ; skirt
G1 X92.056 Y83.316 E0.05167 ; skirt
G1 F5760
G1 X93.614 Y82.787 E-0.57009 ; wipe and retract
G1 F5760
G1 X94.159 Y82.728 E-0.18991 ; wipe and retract
G1 E-0.04000 F2100.00000 ; retract
G1 Z0.800 F7200.000 ; lift Z
G1 X94.320 Y117.241 F7200.000 ; move to first perimeter point
G1 Z0.200 F7200.000 ; restore layer Z
G1 E0.80000 F2100.00000 ; unretract
G1 F1800
G1 X94.964 Y117.163 E0.02036 ; perimeter
G1 X155.036 Y117.163 E1.88349 ; perimeter
G1 X155.680 Y117.241 E0.02036 ; perimeter
G1 X156.320 Y117.484 E0.02148 ; perimeter
G1 X156.884 Y117.873 E0.02148 ; perimeter
G1 X157.331 Y118.378 E0.02113 ; perimeter
G1 X157.656 Y118.991 E0.02178 ; perimeter
G1 X157.821 Y119.658 E0.02152 ; perimeter
G1 X157.821 Y120.342 E0.02148 ; perimeter
G1 X157.657 Y121.008 E0.02148 ; perimeter
G1 X157.338 Y121.614 E0.02148 ; perimeter
G1 X156.884 Y122.127 E0.02148 ; perimeter
G1 X156.320 Y122.516 E0.02148 ; perimeter
G1 X155.680 Y122.759 E0.02148 ; perimeter
G1 X155.036 Y122.837 E0.02036 ; perimeter
G1 X94.964 Y122.837 E1.88349 ; perimeter
G1 X94.320 Y122.759 E0.02036 ; perimeter
G1 X93.680 Y122.516 E0.02148 ; perimeter
G1 X93.116 Y122.127 E0.02148 ; perimeter
G1 X92.662 Y121.614 E0.02148 ; perimeter
G1 X92.343 Y121.008 E0.02148 ; perimeter
G1 X92.179 Y120.342 E0.02148 ; perimeter
G1 X92.179 Y119.658 E0.02148 ; perimeter
G1 X92.343 Y118.992 E0.02148 ; perimeter
G1 X92.662 Y118.386 E0.02148 ; perimeter
G1 X93.116 Y117.873 E0.02148 ; perimeter
G1 X93.680 Y117.484 E0.02148 ; perimeter
G1 X94.264 Y117.262 E0.01959 ; perimeter
G1 X94.398 Y117.615 F7200.000 ; move to first perimeter point
G1 F1800
G1 X94.987 Y117.540 E0.01864 ; perimeter
G1 X155.013 Y117.540 E1.88205 ; perimeter
G1 X155.589 Y117.610 E0.01821 ; perimeter
G1 X156.144 Y117.820 E0.01860 ; perimeter
G1 X156.632 Y118.158 E0.01861 ; perimeter
G1 X157.019 Y118.594 E0.01828 ; perimeter
G1 X157.301 Y119.127 E0.01890 ; perimeter
G1 X157.444 Y119.703 E0.01862 ; perimeter
G1 X157.444 Y120.297 E0.01861 ; perimeter
G1 X157.302 Y120.873 E0.01861 ; perimeter
G1 X157.026 Y121.398 E0.01860 ; perimeter
G1 X156.632 Y121.842 E0.01861 ; perimeter
G1 X156.144 Y122.180 E0.01861 ; perimeter
G1 X155.589 Y122.390 E0.01860 ; perimeter
G1 X155.013 Y122.460 E0.01821 ; perimeter
G1 X94.987 Y122.460 E1.88205 ; perimeter
G1 X94.411 Y122.390 E0.01821 ; perimeter
G1 X93.856 Y122.180 E0.01860 ; perimeter
G1 X93.368 Y121.842 E0.01861 ; perimeter
G1 X92.974 Y121.398 E0.01861 ; perimeter
G1 X92.698 Y120.873 E0.01860 ; perimeter
G1 X92.556 Y120.297 E0.01861 ; perimeter
G1 X92.556 Y119.703 E0.01861 ; perimeter
G1 X92.698 Y119.127 E0.01861 ; perimeter
G1 X92.974 Y118.602 E0.01860 ; perimeter
G1 X93.368 Y118.158 E0.01861 ; perimeter
G1 X93.856 Y117.820 E0.01861 ; perimeter
G1 X94.341 Y117.636 E0.01628 ; perimeter
G1 X94.507 Y117.230 F7200.000 ; move inwards before travel
G1 F5760
G1 X94.987 Y117.540 E-0.22615 ; wipe and retract
G1 F5760
G1 X96.529 Y117.540 E-0.53385 ; wipe and retract
G1 E-0.04000 F2100.00000 ; retract
G1 Z0.800 F7200.000 ; lift Z
G1 X92.764 Y107.175 F7200.000 ; move to first perimeter point
G1 Z0.200 F7200.000 ; restore layer Z
G1 E0.80000 F2100.00000 ; unretract
G1 F1800
G1 X92.236 Y107.175 E0.01657 ; perimeter
G1 X91.723 Y107.049 E0.01656 ; perimeter
G1 X91.252 Y106.802 E0.01667 ; perimeter
G1 X90.847 Y106.434 E0.01715 ; perimeter
G1 X90.560 Y106.018 E0.01585 ; perimeter
G1 X90.372 Y105.524 E0.01656 ; perimeter
G1 X90.309 Y105.000 E0.01656 ; perimeter
G1 X90.373 Y104.472 E0.01667 ; perimeter
G1 X90.573 Y103.963 E0.01715 ; perimeter
G1 X90.860 Y103.547 E0.01585 ; perimeter
G1 X91.255 Y103.197 E0.01656 ; perimeter
G1 X91.723 Y102.951 E0.01656 ; perimeter
G1 X92.236 Y102.825 E0.01656 ; perimeter
G1 X92.764 Y102.825 E0.01657 ; perimeter
G1 X93.277 Y102.951 E0.01656 ; perimeter
G1 X93.745 Y103.197 E0.01656 ; perimeter
G1 X94.140 Y103.547 E0.01656 ; perimeter
G1 X94.442 Y103.984 E0.01667 ; perimeter
G1 X94.630 Y104.498 E0.01715 ; perimeter
G1 X94.691 Y105.000 E0.01585 ; perimeter
G1 X94.628 Y105.524 E0.01656 ; perimeter
G1 X94.440 Y106.018 E0.01656 ; perimeter
G1 X94.140 Y106.453 E0.01656 ; perimeter
G1 X93.745 Y106.803 E0.01656 ; perimeter
G1 X93.277 Y107.049 E0.01656 ; perimeter
G1 X92.822 Y107.161 E0.01468 ; perimeter
G1 X92.732 Y106.795 F7200.000 ; move to first perimeter point
G1 F1800
G1 X92.282 Y106.798 E0.01413 ; perimeter
G1 X91.858 Y106.694 E0.01369 ; perimeter
G1 X91.470 Y106.490 E0.01373 ; perimeter
G1 X91.132 Y106.184 E0.01428 ; perimeter
G1 X90.896 Y105.842 E0.01305 ; perimeter
G1 X90.741 Y105.434 E0.01369 ; perimeter
G1 X90.688 Y105.000 E0.01369 ; perimeter
G1 X90.741 Y104.565 E0.01373 ; perimeter
G1 X90.908 Y104.141 E0.01428 ; perimeter
G1 X91.144 Y103.799 E0.01305 ; perimeter
G1 X91.471 Y103.509 E0.01369 ; perimeter
G1 X91.858 Y103.306 E0.01369 ; perimeter
G1 X92.282 Y103.202 E0.01369 ; perimeter
G1 X92.718 Y103.202 E0.01370 ; perimeter
G1 X93.142 Y103.306 E0.01369 ; perimeter
G1 X93.529 Y103.509 E0.01369 ; perimeter
G1 X93.856 Y103.799 E0.01369 ; perimeter
G1 X94.105 Y104.159 E0.01373 ; perimeter
G1 X94.261 Y104.587 E0.01428 ; perimeter
G1 X94.312 Y105.000 E0.01305 ; perimeter
G1 X94.259 Y105.434 E0.01369 ; perimeter
G1 X94.104 Y105.842 E0.01369 ; perimeter
G1 X93.856 Y106.201 E0.01369 ; perimeter
G1 X93.529 Y106.491 E0.01369 ; perimeter
G1 X93.142 Y106.694 E0.01369 ; perimeter
G1 X92.790 Y106.781 E0.01137 ; perimeter
G1 X92.578 Y107.164 F7200.000 ; move inwards before travel
G1 F5760
G1 X92.282 Y106.798 E-0.17635 ; wipe and retract
G1 F5760
G1 X91.858 Y106.694 E-0.15126 ; wipe and retract
G1 F5760
G1 X91.470 Y106.490 E-0.15167 ; wipe and retract
G1 F5760
G1 X91.132 Y106.184 E-0.15775 ; wipe and retract
G1 F5760
G1 X90.931 Y105.892 E-0.12298 ; wipe and retract
G1 E-0.04000 F2100.00000 ; retract
G1 Z0.800 F7200.000 ; lift Z
G1 X94.320 Y92.759 F7200.000 ; move to first perimeter point
G1 Z0.200 F7200.000 ; restore layer Z
G1 E0.80000 F2100.00000 ; unretract
G1 F1800
G1 X93.680 Y92.516 E0.02148 ; perimeter
G1 X93.116 Y92.127 E0.02148 ; perimeter
G1 X92.662 Y91.614 E0.02148 ; perimeter
G1 X92.343 Y91.008 E0.02148 ; perimeter
G1 X92.179 Y90.342 E0.02148 ; perimeter
G1 X92.179 Y89.658 E0.02148 ; perimeter
G1 X92.343 Y88.992 E0.02148 ; perimeter
G1 X92.662 Y88.386 E0.02148 ; perimeter
G1 X93.116 Y87.873 E0.02148 ; perimeter
G1 X93.680 Y87.484 E0.02148 ; perimeter
G1 X94.320 Y87.241 E0.02148 ; perimeter
G1 X94.964 Y87.163 E0.02036 ; perimeter
G1 X155.036 Y87.163 E1.88349 ; perimeter
G1 X155.680 Y87.241 E0.02036 ; perimeter
G1 X156.320 Y87.484 E0.02148 ; perimeter
G1 X156.884 Y87.873 E0.02148 ; perimeter
G1 X157.331 Y88.378 E0.02113 ; perimeter
G1 X157.656 Y88.991 E0.02178 ; perimeter
G1 X157.821 Y89.658 E0.02152 ; perimeter
G1 X157.821 Y90.342 E0.02148 ; perimeter
G1 X157.657 Y91.008 E0.02148 ; perimeter
G1 X157.338 Y91.614 E0.02148 ; perimeter
G1 X156.884 Y92.127 E0.02148 ; perimeter
G1 X156.320 Y92.516 E0.02148 ; perimeter
G1 X155.680 Y92.759 E0.02148 ; perimeter
G1 X155.036 Y92.837 E0.02036 ; perimeter
G1 X94.964 Y92.837 E1.88349 ; perimeter
G1 X94.380 Y92.766 E0.01848 ; perimeter
G1 X94.425 Y92.392 F7200.000 ; move to first perimeter point
G1 F1800
G1 X93.856 Y92.180 E0.01904 ; perimeter
G1 X93.368 Y91.842 E0.01861 ; perimeter
G1 X92.974 Y91.398 E0.01861 ; perimeter
G1 X92.698 Y90.873 E0.01860 ; perimeter
G1 X92.556 Y90.297 E0.01861 ; perimeter
G1 X92.556 Y89.703 E0.01861 ; perimeter
G1 X92.698 Y89.127 E0.01861 ; perimeter
G1 X92.974 Y88.602 E0.01860 ; perimeter
G1 X93.368 Y88.158 E0.01861 ; perimeter
G1 X93.856 Y87.820 E0.01861 ; perimeter
G1 X94.411 Y87.610 E0.01860 ; perimeter
G1 X94.987 Y87.540 E0.01821 ; perimeter
G1 X155.013 Y87.540 E1.88205 ; perimeter
G1 X155.589 Y87.610 E0.01821 ; perimeter
G1 X156.144 Y87.820 E0.01860 ; perimeter
G1 X156.632 Y88.158 E0.01861 ; perimeter
G1 X157.019 Y88.594 E0.01828 ; perimeter
G1 X157.301 Y89.127 E0.01890 ; perimeter
G1 X157.444 Y89.703 E0.01862 ; perimeter
G1 X157.444 Y90.297 E0.01861 ; perimeter
G1 X157.302 Y90.873 E0.01861 ; perimeter
G1 X157.026 Y91.398 E0.01860 ; perimeter
G1 X156.632 Y91.842 E0.01861 ; perimeter
G1 X156.144 Y92.180 E0.01861 ; perimeter
G1 X155.589 Y92.390 E0.01860 ; perimeter
G1 X155.013 Y92.460 E0.01821 ; perimeter
G1 X94.987 Y92.460 E1.88205 ; perimeter
G1 X94.485 Y92.399 E0.01588 ; perimeter
G1 X94.149 Y92.681 F7200.000 ; move inwards before travel
G1 F5760
G1 X93.856 Y92.180 E-0.23055 ; wipe and retract
G1 F5760
G1 X93.368 Y91.842 E-0.20555 ; wipe and retract
G1 F5760
G1 X92.974 Y91.398 E-0.20552 ; wipe and retract
G1 F5760
G1 X92.815 Y91.096 E-0.11838 ; wipe and retract
G1 E-0.04000 F2100.00000 ; retract
G1 Z0.800 F7200.000 ; lift Z
G1 X119.573 Y103.963 F7200.000 ; move to first perimeter point
G1 Z0.200 F7200.000 ; restore layer Z
G1 E0.80000 F2100.00000 ; unretract
G1 F1800
G1 X119.860 Y103.547 E0.01585 ; perimeter
G1 X120.255 Y103.197 E0.01656 ; perimeter
G1 X120.723 Y102.951 E0.01656 ; perimeter
G1 X121.236 Y102.825 E0.01656 ; perimeter
G1 X121.764 Y102.825 E0.01656 ; perimeter
G1 X122.277 Y102.951 E0.01656 ; perimeter
G1 X122.745 Y103.197 E0.01656 ; perimeter
G1 X123.143 Y103.549 E0.01667 ; perimeter
G1 X123.448 Y104.003 E0.01715 ; perimeter
G1 X123.628 Y104.476 E0.01585 ; perimeter
G1 X123.691 Y105.000 E0.01656 ; perimeter
G1 X123.628 Y105.524 E0.01656 ; perimeter
G1 X123.440 Y106.018 E0.01656 ; perimeter
G1 X123.140 Y106.453 E0.01656 ; perimeter
G1 X122.745 Y106.803 E0.01656 ; perimeter
G1 X122.277 Y107.049 E0.01656 ; perimeter
G1 X121.764 Y107.175 E0.01656 ; perimeter
G1 X121.236 Y107.175 E0.01656 ; perimeter
G1 X120.723 Y107.049 E0.01656 ; perimeter
G1 X120.252 Y106.802 E0.01667 ; perimeter
G1 X119.847 Y106.435 E0.01715 ; perimeter
G1 X119.560 Y106.018 E0.01585 ; perimeter
G1 X119.372 Y105.524 E0.01656 ; perimeter
G1 X119.309 Y105.000 E0.01656 ; perimeter
G1 X119.373 Y104.472 E0.01667 ; perimeter
G1 X119.551 Y104.019 E0.01527 ; perimeter
G1 X119.902 Y104.157 F7200.000 ; move to first perimeter point
G1 F1800
G1 X120.144 Y103.799 E0.01355 ; perimeter
G1 X120.471 Y103.509 E0.01369 ; perimeter
G1 X120.858 Y103.306 E0.01369 ; perimeter
G1 X121.282 Y103.202 E0.01369 ; perimeter
G1 X121.718 Y103.202 E0.01369 ; perimeter
G1 X122.142 Y103.306 E0.01369 ; perimeter
G1 X122.529 Y103.509 E0.01369 ; perimeter
G1 X122.857 Y103.800 E0.01373 ; perimeter
G1 X123.111 Y104.177 E0.01428 ; perimeter
G1 X123.259 Y104.566 E0.01305 ; perimeter
G1 X123.312 Y105.000 E0.01369 ; perimeter
G1 X123.259 Y105.434 E0.01369 ; perimeter
G1 X123.104 Y105.842 E0.01369 ; perimeter
G1 X122.856 Y106.201 E0.01369 ; perimeter
G1 X122.529 Y106.491 E0.01369 ; perimeter
G1 X122.142 Y106.694 E0.01369 ; perimeter
G1 X121.718 Y106.798 E0.01369 ; perimeter
G1 X121.282 Y106.798 E0.01369 ; perimeter
G1 X120.858 Y106.694 E0.01369 ; perimeter
G1 X120.470 Y106.490 E0.01373 ; perimeter
G1 X120.132 Y106.184 E0.01428 ; perimeter
G1 X119.896 Y105.842 E0.01305 ; perimeter
G1 X119.741 Y105.434 E0.01369 ; perimeter
G1 X119.688 Y105.000 E0.01369 ; perimeter
G1 X119.741 Y104.565 E0.01373 ; perimeter
G1 X119.880 Y104.212 E0.01189 ; perimeter
G1 X119.687 Y103.819 F7200.000 ; move inwards before travel
G1 F5760
G1 X120.144 Y103.799 E-0.17002 ; wipe and retract
G1 F5760
G1 X120.471 Y103.509 E-0.15126 ; wipe and retract
G1 F5760
G1 X120.858 Y103.306 E-0.15126 ; wipe and retract
G1 F5760
G1 X121.282 Y103.202 E-0.15126 ; wipe and retract
G1 F5760
G1 X121.675 Y103.202 E-0.13621 ; wipe and retract
G1 E-0.04000 F2100.00000 ; retract
G1 Z0.800 F7200.000 ; lift Z
G1 X148.309 Y105.000 F7200.000 ; move to first perimeter point
G1 Z0.200 F7200.000 ; restore layer Z
G1 E0.80000 F2100.00000 ; unretract
G1 F1800
G1 X148.372 Y104.476 E0.01656 ; perimeter
G1 X148.560 Y103.982 E0.01656 ; perimeter
G1 X148.860 Y103.547 E0.01656 ; perimeter
G1 X149.255 Y103.197 E0.01656 ; perimeter
G1 X149.723 Y102.951 E0.01656 ; perimeter
G1 X150.236 Y102.825 E0.01656 ; perimeter
G1 X150.764 Y102.825 E0.01657 ; perimeter
G1 X151.280 Y102.952 E0.01667 ; perimeter
G1 X151.762 Y103.212 E0.01715 ; perimeter
G1 X152.140 Y103.547 E0.01585 ; perimeter
G1 X152.440 Y103.982 E0.01656 ; perimeter
G1 X152.628 Y104.476 E0.01656 ; perimeter
G1 X152.691 Y105.000 E0.01656 ; perimeter
G1 X152.628 Y105.524 E0.01657 ; perimeter
G1 X152.440 Y106.018 E0.01656 ; perimeter
G1 X152.140 Y106.453 E0.01656 ; perimeter
G1 X151.745 Y106.803 E0.01656 ; perimeter
G1 X151.277 Y107.049 E0.01656 ; perimeter
G1 X150.764 Y107.175 E0.01656 ; perimeter
G1 X150.236 Y107.175 E0.01657 ; perimeter
G1 X149.720 Y107.048 E0.01667 ; perimeter
G1 X149.238 Y106.788 E0.01715 ; perimeter
G1 X148.860 Y106.453 E0.01585 ; perimeter
G1 X148.560 Y106.018 E0.01656 ; perimeter
G1 X148.372 Y105.524 E0.01656 ; perimeter
G1 X148.316 Y105.060 E0.01468 ; perimeter
G1 X148.690 Y105.014 F7200.000 ; move to first perimeter point
G1 F1800
G1 X148.741 Y104.566 E0.01413 ; perimeter
G1 X148.896 Y104.158 E0.01369 ; perimeter
G1 X149.144 Y103.799 E0.01369 ; perimeter
G1 X149.471 Y103.509 E0.01369 ; perimeter
G1 X149.858 Y103.306 E0.01369 ; perimeter
G1 X150.282 Y103.202 E0.01369 ; perimeter
G1 X150.718 Y103.202 E0.01370 ; perimeter
G1 X151.144 Y103.306 E0.01373 ; perimeter
G1 X151.544 Y103.523 E0.01428 ; perimeter
G1 X151.856 Y103.799 E0.01305 ; perimeter
G1 X152.104 Y104.158 E0.01369 ; perimeter
G1 X152.259 Y104.566 E0.01369 ; perimeter
G1 X152.312 Y105.000 E0.01369 ; perimeter
G1 X152.259 Y105.434 E0.01369 ; perimeter
G1 X152.104 Y105.842 E0.01369 ; perimeter
G1 X151.856 Y106.201 E0.01369 ; perimeter
G1 X151.529 Y106.491 E0.01369 ; perimeter
G1 X151.142 Y106.694 E0.01369 ; perimeter
G1 X150.718 Y106.798 E0.01369 ; perimeter
G1 X150.282 Y106.798 E0.01370 ; perimeter
