; generated by Slic3r 1.37.2.1-prusa3d-win64 on 2022-02-13 at 08:49:54

; 

; external perimeters extrusion width = 0.42mm
; perimeters extrusion width = 0.45mm
; infill extrusion width = 0.45mm
; solid infill extrusion width = 0.45mm
; top infill extrusion width = 0.42mm
; first layer extrusion width = 0.42mm

M107 ; disable fan
M115 U3.1.0 ; tell printer latest fw version
M83  ; extruder relative mode
M104 S215 ; set extruder temp
M140 S55 ; set bed temp
M190 S55 ; wait for bed temp
M109 S215 ; wait for extruder temp
G28 W ; home all without mesh bed level
G80 ; mesh bed leveling
G1 Y-3.0 F1000.0 ; go outside pritn area
G1 X60.0 E9.0  F1000.0 ; intro line
G1 X100.0 E12.5  F1000.0 ; intro line
G92 E0.0
M900 K30
G21 ; set units to millimeters
G90 ; use absolute coordinates
M83 ; use relative distances for extrusion
;BEFORE_LAYER_CHANGE
;0.2


G1 E-0.80000 F2100.00000 ; retract
G1 Z0.600 F7200.000 ; lift Z
;AFTER_LAYER_CHANGE
;0.2
G1 X87.674 Y101.008 F7200.000 ; move to first skirt point
G1 Z0.200 F7200.000 ; restore layer Z
G1 E0.80000 F2100.00000 ; unretract
M204 S1000 ; adjust acceleration
G1 F1800
G1 X87.931 Y100.331 E0.02272 ; skirt
G1 X88.382 Y99.759 E0.02284 ; skirt
G1 X88.985 Y99.350 E0.02284 ; skirt
G1 X89.684 Y99.144 E0.02284 ; skirt
G1 X160.004 Y99.123 E2.20484 ; skirt
G1 X160.895 Y99.298 E0.02849 ; skirt
G1 X161.659 Y99.797 E0.02860 ; skirt
G1 X162.178 Y100.548 E0.02860 ; skirt
G1 X162.376 Y101.438 E0.02860 ; skirt
G1 X162.377 Y108.515 E0.22190 ; skirt
G1 X162.322 Y109.006 E0.01550 ; skirt
G1 X162.062 Y109.683 E0.02272 ; skirt
G1 X161.610 Y110.249 E0.02272 ; skirt
G1 X161.011 Y110.651 E0.02260 ; skirt
G1 X160.316 Y110.856 E0.02272 ; skirt
G1 X89.935 Y110.876 E2.20675 ; skirt
G1 X89.119 Y110.708 E0.02614 ; skirt
G1 X88.411 Y110.268 E0.02614 ; skirt
G1 X87.898 Y109.610 E0.02614 ; skirt
G1 X87.644 Y108.816 E0.02614 ; skirt
G1 X87.674 Y101.068 E0.24293 ; skirt
G1 F5760
G1 X87.931 Y100.331 E-0.27056 ; wipe and retract
G1 F5760
G1 X88.382 Y99.759 E-0.25230 ; wipe and retract
G1 F5760
G1 X88.949 Y99.375 E-0.23714 ; wipe and retract
G1 E-0.04000 F2100.00000 ; retract
G1 Z0.800 F7200.000 ; lift Z
G1 X151.825 Y104.736 F7200.000 ; move to first perimeter point
G1 Z0.200 F7200.000 ; restore layer Z
G1 E0.80000 F2100.00000 ; unretract
G1 F1800
G1 X151.951 Y104.223 E0.01656 ; perimeter
G1 X152.197 Y103.755 E0.01656 ; perimeter
G1 X152.547 Y103.360 E0.01656 ; perimeter
G1 X152.984 Y103.058 E0.01664 ; perimeter
G1 X153.491 Y102.870 E0.01696 ; perimeter
G1 X154.000 Y102.809 E0.01609 ; perimeter
G1 X154.524 Y102.872 E0.01656 ; perimeter
G1 X155.018 Y103.060 E0.01656 ; perimeter
G1 X155.453 Y103.360 E0.01656 ; perimeter
G1 X155.803 Y103.755 E0.01656 ; perimeter
G1 X156.049 Y104.223 E0.01656 ; perimeter
G1 X156.175 Y104.736 E0.01656 ; perimeter
G1 X156.175 Y105.264 E0.01656 ; perimeter
G1 X156.049 Y105.777 E0.01656 ; perimeter
G1 X155.803 Y106.245 E0.01656 ; perimeter
G1 X155.453 Y106.640 E0.01656 ; perimeter
G1 X155.018 Y106.940 E0.01656 ; perimeter
G1 X154.524 Y107.128 E0.01656 ; perimeter
G1 X154.000 Y107.191 E0.01656 ; perimeter
G1 X153.476 Y107.128 E0.01656 ; perimeter
G1 X152.982 Y106.940 E0.01656 ; perimeter
G1 X152.547 Y106.640 E0.01656 ; perimeter
G1 X152.197 Y106.245 E0.01656 ; perimeter
G1 X151.951 Y105.777 E0.01656 ; perimeter
G1 X151.825 Y105.264 E0.01656 ; perimeter
G1 X151.825 Y104.796 E0.01468 ; perimeter
G1 X152.202 Y104.796 F7200.000 ; move to first perimeter point
G1 F1800
G1 X152.306 Y104.358 E0.01413 ; perimeter
G1 X152.509 Y103.971 E0.01369 ; perimeter
G1 X152.799 Y103.644 E0.01369 ; perimeter
G1 X153.159 Y103.395 E0.01372 ; perimeter
G1 X153.580 Y103.239 E0.01408 ; perimeter
G1 X154.000 Y103.188 E0.01326 ; perimeter
G1 X154.434 Y103.241 E0.01369 ; perimeter
G1 X154.842 Y103.396 E0.01369 ; perimeter
G1 X155.201 Y103.644 E0.01369 ; perimeter
G1 X155.491 Y103.971 E0.01369 ; perimeter
G1 X155.694 Y104.358 E0.01369 ; perimeter
G1 X155.798 Y104.782 E0.01369 ; perimeter
G1 X155.798 Y105.218 E0.01369 ; perimeter
G1 X155.694 Y105.642 E0.01369 ; perimeter
G1 X155.491 Y106.029 E0.01369 ; perimeter
G1 X155.201 Y106.356 E0.01369 ; perimeter
G1 X154.842 Y106.604 E0.01369 ; perimeter
G1 X154.434 Y106.759 E0.01369 ; perimeter
G1 X154.000 Y106.812 E0.01369 ; perimeter
G1 X153.566 Y106.759 E0.01369 ; perimeter
G1 X153.158 Y106.604 E0.01369 ; perimeter
G1 X152.799 Y106.356 E0.01369 ; perimeter
G1 X152.509 Y106.029 E0.01369 ; perimeter
G1 X152.306 Y105.642 E0.01369 ; perimeter
G1 X152.202 Y105.218 E0.01369 ; perimeter
G1 X152.202 Y104.856 E0.01137 ; perimeter
G1 X151.881 Y104.557 F7200.000 ; move inwards before travel
G1 F5760
G1 X152.306 Y104.358 E-0.17633 ; wipe and retract
G1 F5760
G1 X152.509 Y103.971 E-0.15126 ; wipe and retract
G1 F5760
G1 X152.799 Y103.644 E-0.15126 ; wipe and retract
G1 F5760
G1 X153.159 Y103.395 E-0.15155 ; wipe and retract
G1 F5760
G1 X153.510 Y103.265 E-0.12961 ; wipe and retract
G1 E-0.04000 F2100.00000 ; retract
G1 Z0.800 F7200.000 ; lift Z
G1 X127.176 Y104.738 F7200.000 ; move to first perimeter point
G1 Z0.200 F7200.000 ; restore layer Z
G1 E0.80000 F2100.00000 ; unretract
G1 F1800
G1 X127.172 Y105.279 E0.01696 ; perimeter
G1 X127.049 Y105.777 E0.01609 ; perimeter
G1 X126.804 Y106.245 E0.01656 ; perimeter
G1 X126.453 Y106.640 E0.01656 ; perimeter
G1 X126.018 Y106.940 E0.01656 ; perimeter
G1 X125.524 Y107.128 E0.01657 ; perimeter
G1 X125.000 Y107.191 E0.01656 ; perimeter
G1 X124.476 Y107.128 E0.01656 ; perimeter
G1 X123.982 Y106.940 E0.01657 ; perimeter
G1 X123.547 Y106.640 E0.01656 ; perimeter
G1 X123.196 Y106.245 E0.01656 ; perimeter
G1 X122.951 Y105.777 E0.01656 ; perimeter
G1 X122.824 Y105.262 E0.01663 ; perimeter
G1 X122.828 Y104.721 E0.01695 ; perimeter
G1 X122.951 Y104.223 E0.01609 ; perimeter
G1 X123.196 Y103.755 E0.01656 ; perimeter
G1 X123.547 Y103.360 E0.01657 ; perimeter
G1 X123.983 Y103.058 E0.01664 ; perimeter
G1 X124.491 Y102.870 E0.01696 ; perimeter
G1 X125.000 Y102.809 E0.01609 ; perimeter
G1 X125.524 Y102.872 E0.01656 ; perimeter
G1 X126.018 Y103.060 E0.01657 ; perimeter
G1 X126.453 Y103.360 E0.01656 ; perimeter
G1 X126.804 Y103.755 E0.01656 ; perimeter
G1 X127.049 Y104.223 E0.01656 ; perimeter
G1 X127.162 Y104.680 E0.01475 ; perimeter
G1 X126.795 Y104.770 F7200.000 ; move to first perimeter point
G1 F1800
G1 X126.795 Y105.232 E0.01447 ; perimeter
G1 X126.694 Y105.642 E0.01326 ; perimeter
G1 X126.491 Y106.029 E0.01369 ; perimeter
G1 X126.201 Y106.356 E0.01369 ; perimeter
G1 X125.842 Y106.604 E0.01369 ; perimeter
G1 X125.434 Y106.759 E0.01369 ; perimeter
G1 X125.000 Y106.812 E0.01369 ; perimeter
G1 X124.566 Y106.759 E0.01369 ; perimeter
G1 X124.158 Y106.604 E0.01369 ; perimeter
G1 X123.799 Y106.356 E0.01369 ; perimeter
G1 X123.509 Y106.029 E0.01369 ; perimeter
G1 X123.306 Y105.642 E0.01369 ; perimeter
G1 X123.202 Y105.218 E0.01372 ; perimeter
G1 X123.205 Y104.768 E0.01408 ; perimeter
G1 X123.306 Y104.358 E0.01326 ; perimeter
G1 X123.509 Y103.971 E0.01369 ; perimeter
G1 X123.799 Y103.644 E0.01369 ; perimeter
G1 X124.159 Y103.395 E0.01372 ; perimeter
G1 X124.580 Y103.239 E0.01409 ; perimeter
G1 X125.000 Y103.188 E0.01326 ; perimeter
G1 X125.434 Y103.241 E0.01369 ; perimeter
G1 X125.842 Y103.396 E0.01369 ; perimeter
G1 X126.201 Y103.644 E0.01369 ; perimeter
G1 X126.491 Y103.971 E0.01369 ; perimeter
G1 X126.694 Y104.358 E0.01369 ; perimeter
G1 X126.781 Y104.712 E0.01144 ; perimeter
G1 X127.163 Y104.927 F7200.000 ; move inwards before travel
G1 F5760
G1 X126.795 Y105.232 E-0.18011 ; wipe and retract
G1 F5760
G1 X126.694 Y105.642 E-0.14651 ; wipe and retract
G1 F5760
G1 X126.491 Y106.029 E-0.15125 ; wipe and retract
G1 F5760
G1 X126.201 Y106.356 E-0.15126 ; wipe and retract
G1 F5760
G1 X125.890 Y106.571 E-0.13087 ; wipe and retract
G1 E-0.04000 F2100.00000 ; retract
G1 Z0.800 F7200.000 ; lift Z
G1 X98.176 Y104.738 F7200.000 ; move to first perimeter point
G1 Z0.200 F7200.000 ; restore layer Z
G1 E0.80000 F2100.00000 ; unretract
G1 F1800
G1 X98.172 Y105.279 E0.01696 ; perimeter
G1 X98.049 Y105.777 E0.01609 ; perimeter
G1 X97.804 Y106.245 E0.01656 ; perimeter
G1 X97.453 Y106.640 E0.01657 ; perimeter
G1 X97.018 Y106.940 E0.01656 ; perimeter
G1 X96.524 Y107.128 E0.01657 ; perimeter
G1 X96.000 Y107.191 E0.01656 ; perimeter
G1 X95.476 Y107.128 E0.01656 ; perimeter
G1 X94.982 Y106.940 E0.01657 ; perimeter
G1 X94.547 Y106.640 E0.01656 ; perimeter
G1 X94.196 Y106.245 E0.01656 ; perimeter
G1 X93.951 Y105.777 E0.01656 ; perimeter
G1 X93.824 Y105.262 E0.01663 ; perimeter
G1 X93.828 Y104.721 E0.01696 ; perimeter
G1 X93.951 Y104.223 E0.01609 ; perimeter
G1 X94.196 Y103.755 E0.01656 ; perimeter
G1 X94.547 Y103.360 E0.01657 ; perimeter
G1 X94.983 Y103.058 E0.01664 ; perimeter
G1 X95.491 Y102.870 E0.01696 ; perimeter
G1 X96.000 Y102.809 E0.01609 ; perimeter
G1 X96.524 Y102.872 E0.01656 ; perimeter
G1 X97.018 Y103.060 E0.01657 ; perimeter
G1 X97.453 Y103.360 E0.01656 ; perimeter
G1 X97.804 Y103.755 E0.01657 ; perimeter
G1 X98.049 Y104.223 E0.01656 ; perimeter
G1 X98.162 Y104.680 E0.01475 ; perimeter
G1 X97.795 Y104.770 F7200.000 ; move to first perimeter point
G1 F1800
G1 X97.795 Y105.232 E0.01447 ; perimeter
G1 X97.694 Y105.642 E0.01326 ; perimeter
G1 X97.491 Y106.029 E0.01369 ; perimeter
G1 X97.201 Y106.356 E0.01369 ; perimeter
G1 X96.842 Y106.604 E0.01369 ; perimeter
G1 X96.434 Y106.759 E0.01369 ; perimeter
G1 X96.000 Y106.812 E0.01369 ; perimeter
G1 X95.566 Y106.759 E0.01369 ; perimeter
G1 X95.158 Y106.604 E0.01369 ; perimeter
G1 X94.799 Y106.356 E0.01369 ; perimeter
G1 X94.509 Y106.029 E0.01369 ; perimeter
G1 X94.306 Y105.642 E0.01369 ; perimeter
G1 X94.202 Y105.218 E0.01372 ; perimeter
G1 X94.205 Y104.768 E0.01408 ; perimeter
G1 X94.306 Y104.358 E0.01326 ; perimeter
G1 X94.509 Y103.971 E0.01369 ; perimeter
G1 X94.799 Y103.644 E0.01369 ; perimeter
G1 X95.159 Y103.395 E0.01372 ; perimeter
G1 X95.580 Y103.239 E0.01409 ; perimeter
G1 X96.000 Y103.188 E0.01326 ; perimeter
G1 X96.434 Y103.241 E0.01369 ; perimeter
G1 X96.842 Y103.396 E0.01369 ; perimeter
G1 X97.201 Y103.644 E0.01369 ; perimeter
G1 X97.491 Y103.971 E0.01369 ; perimeter
G1 X97.694 Y104.358 E0.01369 ; perimeter
G1 X97.781 Y104.712 E0.01144 ; perimeter
G1 X98.163 Y104.927 F7200.000 ; move inwards before travel
G1 F5760
G1 X97.795 Y105.232 E-0.18011 ; wipe and retract
G1 F5760
G1 X97.694 Y105.642 E-0.14651 ; wipe and retract
G1 F5760
G1 X97.491 Y106.029 E-0.15125 ; wipe and retract
G1 F5760
G1 X97.201 Y106.356 E-0.15126 ; wipe and retract
G1 F5760
G1 X96.890 Y106.571 E-0.13086 ; wipe and retract
G1 E-0.04000 F2100.00000 ; retract
G1 Z0.800 F7200.000 ; lift Z
G1 X90.587 Y102.087 F7200.000 ; move to first perimeter point
G1 Z0.200 F7200.000 ; restore layer Z
G1 E0.80000 F2100.00000 ; unretract
G1 F1800
G1 X159.413 Y102.087 E2.15799 ; perimeter
G1 X159.413 Y107.913 E0.18267 ; perimeter
G1 X90.587 Y107.913 E2.15799 ; perimeter
G1 X90.587 Y102.147 E0.18078 ; perimeter
G1 X90.210 Y101.710 F7200.000 ; move to first perimeter point
G1 F1800
G1 X159.790 Y101.710 E2.18163 ; perimeter
G1 X159.790 Y108.290 E0.20631 ; perimeter
G1 X90.210 Y108.290 E2.18163 ; perimeter
G1 X90.210 Y101.770 E0.20443 ; perimeter
G1 X90.610 Y101.723 F7200.000 ; move inwards before travel
G1 F5760
G1 X92.404 Y101.768 E-0.76000 ; wipe and retract
G1 E-0.04000 F2100.00000 ; retract
G1 Z0.800 F7200.000 ; lift Z
G1 X90.700 Y107.036 F7200.000 ; move to first infill point
G1 Z0.200 F7200.000 ; restore layer Z
G1 E0.80000 F2100.00000 ; unretract
G1 F1800
G1 X91.294 Y107.630 E0.02640 ; infill
G1 X91.829 Y107.630 E0.01679 ; infill
G1 X90.870 Y106.671 E0.04260 ; infill
G1 X90.870 Y106.137 E0.01679 ; infill
G1 X92.363 Y107.630 E0.06635 ; infill
G1 X92.897 Y107.630 E0.01679 ; infill
G1 X90.870 Y105.603 E0.09009 ; infill
G1 X90.870 Y105.068 E0.01679 ; infill
G1 X93.432 Y107.630 E0.11383 ; infill
G1 X93.966 Y107.630 E0.01679 ; infill
G1 X90.870 Y104.534 E0.13757 ; infill
G1 X90.870 Y104.000 E0.01679 ; infill
G1 X94.670 Y107.800 E0.16885 ; infill
G1 F5760
G1 X93.119 Y106.248 E-0.76000 ; wipe and retract
G1 E-0.04000 F2100.00000 ; retract
G1 Z0.800 F7200.000 ; lift Z
G1 X96.017 Y102.200 F7200.000 ; move to first infill point
G1 Z0.200 F7200.000 ; restore layer Z
G1 E0.80000 F2100.00000 ; unretract
G1 F1800
G1 X96.388 Y102.571 E0.01647 ; infill
G1 X96.000 Y102.524 E0.01227 ; infill
G1 X95.827 Y102.545 E0.00547 ; infill
G1 X95.652 Y102.370 E0.00777 ; infill
G1 X95.118 Y102.370 E0.01679 ; infill
G1 X95.364 Y102.616 E0.01093 ; infill
G1 X94.974 Y102.760 E0.01306 ; infill
G1 X94.584 Y102.370 E0.01734 ; infill
G1 X94.049 Y102.370 E0.01679 ; infill
G1 X94.635 Y102.955 E0.02601 ; infill
G1 X94.327 Y103.182 E0.01201 ; infill
G1 X93.515 Y102.370 E0.03607 ; infill
G1 X92.981 Y102.370 E0.01679 ; infill
G1 X94.076 Y103.465 E0.04866 ; infill
G1 X93.962 Y103.593 E0.00539 ; infill
G1 X93.861 Y103.785 E0.00680 ; infill
G1 X92.446 Y102.370 E0.06288 ; infill
G1 X91.912 Y102.370 E0.01679 ; infill
G1 X93.681 Y104.139 E0.07858 ; infill
G1 X93.575 Y104.567 E0.01387 ; infill
G1 X91.378 Y102.370 E0.09763 ; infill
G1 X90.870 Y102.370 E0.01595 ; infill
G1 X90.870 Y102.396 E0.00084 ; infill
G1 X93.543 Y105.069 E0.11876 ; infill
G1 X93.541 Y105.295 E0.00709 ; infill
G1 X93.641 Y105.702 E0.01317 ; infill
G1 X90.870 Y102.931 E0.12314 ; infill
G1 X90.870 Y103.465 E0.01679 ; infill
G1 X95.035 Y107.630 E0.18505 ; infill
G1 X95.569 Y107.630 E0.01679 ; infill
G1 X95.304 Y107.365 E0.01177 ; infill
G1 X95.407 Y107.404 E0.00347 ; infill
G1 X95.943 Y107.469 E0.01694 ; infill
G1 X96.104 Y107.630 E0.00715 ; infill
G1 X96.638 Y107.630 E0.01679 ; infill
G1 X96.432 Y107.424 E0.00917 ; infill
G1 X96.593 Y107.404 E0.00510 ; infill
G1 X96.849 Y107.307 E0.00862 ; infill
G1 X97.172 Y107.630 E0.01436 ; infill
G1 X97.707 Y107.630 E0.01679 ; infill
G1 X97.221 Y107.144 E0.02158 ; infill
G1 X97.537 Y106.926 E0.01207 ; infill
G1 X98.241 Y107.630 E0.03128 ; infill
G1 X98.775 Y107.630 E0.01679 ; infill
G1 X97.810 Y106.664 E0.04291 ; infill
G1 X98.055 Y106.375 E0.01191 ; infill
G1 X99.310 Y107.630 E0.05576 ; infill
G1 X99.844 Y107.630 E0.01679 ; infill
G1 X98.238 Y106.025 E0.07134 ; infill
G1 X98.315 Y105.878 E0.00520 ; infill
G1 X98.377 Y105.629 E0.00807 ; infill
G1 X100.378 Y107.630 E0.08893 ; infill
G1 X100.913 Y107.630 E0.01679 ; infill
G1 X98.455 Y105.173 E0.10918 ; infill
G1 X98.459 Y104.705 E0.01470 ; infill
G1 X98.438 Y104.622 E0.00269 ; infill
G1 X101.447 Y107.630 E0.13367 ; infill
G1 X101.981 Y107.630 E0.01679 ; infill
G1 X96.721 Y102.370 E0.23372 ; infill
G1 X97.255 Y102.370 E0.01679 ; infill
G1 X102.516 Y107.630 E0.23372 ; infill
G1 X103.050 Y107.630 E0.01679 ; infill
G1 X97.790 Y102.370 E0.23372 ; infill
G1 X98.324 Y102.370 E0.01679 ; infill
G1 X103.584 Y107.630 E0.23372 ; infill
G1 X104.119 Y107.630 E0.01679 ; infill
G1 X98.858 Y102.370 E0.23372 ; infill
G1 X99.393 Y102.370 E0.01679 ; infill
G1 X104.653 Y107.630 E0.23372 ; infill
G1 X105.187 Y107.630 E0.01679 ; infill
G1 X99.927 Y102.370 E0.23372 ; infill
G1 X100.462 Y102.370 E0.01679 ; infill
G1 X105.722 Y107.630 E0.23372 ; infill
G1 X106.256 Y107.630 E0.01679 ; infill
G1 X100.996 Y102.370 E0.23372 ; infill
G1 X101.530 Y102.370 E0.01679 ; infill
G1 X106.791 Y107.630 E0.23372 ; infill
G1 X107.325 Y107.630 E0.01679 ; infill
G1 X102.065 Y102.370 E0.23372 ; infill
G1 X102.599 Y102.370 E0.01679 ; infill
G1 X107.859 Y107.630 E0.23372 ; infill
G1 X108.394 Y107.630 E0.01679 ; infill
G1 X103.133 Y102.370 E0.23372 ; infill
G1 X103.668 Y102.370 E0.01679 ; infill
G1 X108.928 Y107.630 E0.23372 ; infill
G1 X109.462 Y107.630 E0.01679 ; infill
G1 X104.202 Y102.370 E0.23372 ; infill
G1 X104.736 Y102.370 E0.01679 ; infill
G1 X109.997 Y107.630 E0.23372 ; infill
G1 X110.531 Y107.630 E0.01679 ; infill
G1 X105.271 Y102.370 E0.23372 ; infill
G1 X105.805 Y102.370 E0.01679 ; infill
G1 X111.065 Y107.630 E0.23372 ; infill
G1 X111.600 Y107.630 E0.01679 ; infill
G1 X106.339 Y102.370 E0.23372 ; infill
G1 X106.874 Y102.370 E0.01679 ; infill
G1 X112.134 Y107.630 E0.23372 ; infill
G1 X112.668 Y107.630 E0.01679 ; infill
G1 X107.408 Y102.370 E0.23372 ; infill
