; generated by Slic3r 1.37.2.1-prusa3d-win64 on 2022-02-13 at 08:16:35

; 

; external perimeters extrusion width = 0.42mm
; perimeters extrusion width = 0.45mm
; infill extrusion width = 0.45mm
; solid infill extrusion width = 0.45mm
; top infill extrusion width = 0.42mm
; first layer extrusion width = 0.42mm

M107 ; disable fan
M115 U3.1.0 ; tell printer latest fw version
M83  ; extruder relative mode
M104 S215 ; set extruder temp
M140 S55 ; set bed temp
M190 S55 ; wait for bed temp
M109 S215 ; wait for extruder temp
G28 W ; home all without mesh bed level
G80 ; mesh bed leveling
G1 Y-3.0 F1000.0 ; go outside pritn area
G1 X60.0 E9.0  F1000.0 ; intro line
G1 X100.0 E12.5  F1000.0 ; intro line
G92 E0.0
M900 K30
G21 ; set units to millimeters
G90 ; use absolute coordinates
M83 ; use relative distances for extrusion
;BEFORE_LAYER_CHANGE
;0.2


G1 E-0.80000 F2100.00000 ; retract
G1 Z0.600 F7200.000 ; lift Z
;AFTER_LAYER_CHANGE
;0.2
G1 X84.165 Y85.428 F7200.000 ; move to first skirt point
G1 Z0.200 F7200.000 ; restore layer Z
G1 E0.80000 F2100.00000 ; unretract
M204 S1000 ; adjust acceleration
G1 F1800
G1 X84.414 Y84.735 E0.02308 ; skirt
G1 X84.865 Y84.149 E0.02319 ; skirt
G1 X85.475 Y83.730 E0.02319 ; skirt
G1 X86.184 Y83.519 E0.02319 ; skirt
G1 X163.504 Y83.498 E2.42432 ; skirt
G1 X164.409 Y83.679 E0.02896 ; skirt
G1 X165.178 Y84.191 E0.02896 ; skirt
G1 X165.691 Y84.954 E0.02884 ; skirt
G1 X165.877 Y85.859 E0.02896 ; skirt
G1 X165.874 Y124.247 E1.20363 ; skirt
G1 X165.692 Y125.045 E0.02567 ; skirt
G1 X165.247 Y125.737 E0.02579 ; skirt
G1 X164.597 Y126.234 E0.02567 ; skirt
G1 X163.816 Y126.481 E0.02567 ; skirt
G1 X155.462 Y126.502 E0.26195 ; skirt
G1 X154.608 Y126.328 E0.02731 ; skirt
G1 X85.514 Y96.038 E2.36543 ; skirt
G1 X85.007 Y95.725 E0.01870 ; skirt
G1 X84.591 Y95.292 E0.01882 ; skirt
G1 X84.297 Y94.768 E0.01882 ; skirt
G1 X84.144 Y94.192 E0.01870 ; skirt
G1 X84.165 Y85.488 E0.27290 ; skirt
G1 F5760
G1 X84.414 Y84.735 E-0.27457 ; wipe and retract
G1 F5760
G1 X84.865 Y84.149 E-0.25621 ; wipe and retract
G1 F5760
G1 X85.411 Y83.775 E-0.22921 ; wipe and retract
G1 E-0.04000 F2100.00000 ; retract
G1 Z0.800 F7200.000 ; lift Z
G1 X87.087 Y86.462 F7200.000 ; move to first perimeter point
G1 Z0.200 F7200.000 ; restore layer Z
G1 E0.80000 F2100.00000 ; unretract
G1 F1800
G1 X162.913 Y86.462 E2.37747 ; perimeter
G1 X162.913 Y123.538 E1.16249 ; perimeter
G1 X156.087 Y123.538 E0.21402 ; perimeter
G1 X156.087 Y120.368 E0.09939 ; perimeter
G1 X157.330 Y119.125 E0.05512 ; perimeter
G1 X156.087 Y117.882 E0.05512 ; perimeter
G1 X156.087 Y114.348 E0.11079 ; perimeter
G1 X158.087 Y112.098 E0.09439 ; perimeter
G1 X158.087 Y93.288 E0.58978 ; perimeter
G1 X87.087 Y93.288 E2.22615 ; perimeter
G1 X87.087 Y86.522 E0.21214 ; perimeter
G1 F5760
G1 X89.281 Y86.520 E-0.76000 ; wipe and retract
G1 E-0.04000 F2100.00000 ; retract
G1 Z0.800 F7200.000 ; lift Z
G1 X156.797 Y119.125 F7200.000 ; move to first perimeter point
G1 Z0.200 F7200.000 ; restore layer Z
G1 E0.80000 F2100.00000 ; unretract
G1 F1800
G1 X155.710 Y118.038 E0.04820 ; perimeter
G1 X155.710 Y114.205 E0.12019 ; perimeter
G1 X157.710 Y111.955 E0.09439 ; perimeter
G1 X157.710 Y93.665 E0.57347 ; perimeter
G1 X86.710 Y93.665 E2.22615 ; perimeter
G1 X86.710 Y86.085 E0.23767 ; perimeter
G1 X163.290 Y86.085 E2.40111 ; perimeter
G1 X163.290 Y123.915 E1.18613 ; perimeter
G1 X155.710 Y123.915 E0.23767 ; perimeter
G1 X155.710 Y120.212 E0.11611 ; perimeter
G1 X156.755 Y119.167 E0.04632 ; perimeter
G1 X157.022 Y118.794 F7200.000 ; move inwards before travel
G1 F5760
G1 X155.710 Y118.038 E-0.53283 ; wipe and retract
G1 F5760
G1 X155.710 Y117.382 E-0.22717 ; wipe and retract
G1 E-0.04000 F2100.00000 ; retract
G1 Z0.800 F7200.000 ; lift Z
G1 X156.200 Y117.068 F7200.000 ; move to first infill point
G1 Z0.200 F7200.000 ; restore layer Z
G1 E0.80000 F2100.00000 ; unretract
G1 F1800
G1 X162.387 Y123.255 E0.27484 ; infill
G1 X162.630 Y123.255 E0.00764 ; infill
G1 X162.630 Y122.964 E0.00914 ; infill
G1 X156.370 Y116.704 E0.27810 ; infill
G1 X156.370 Y116.169 E0.01678 ; infill
G1 X162.630 Y122.430 E0.27810 ; infill
G1 X162.630 Y121.896 E0.01678 ; infill
G1 X156.370 Y115.635 E0.27810 ; infill
G1 X156.370 Y115.101 E0.01678 ; infill
G1 X162.630 Y121.361 E0.27810 ; infill
G1 X162.630 Y120.827 E0.01678 ; infill
G1 X156.370 Y114.567 E0.27810 ; infill
G1 X156.370 Y114.456 E0.00349 ; infill
G1 X156.569 Y114.232 E0.00942 ; infill
G1 X162.630 Y120.293 E0.26925 ; infill
G1 X162.630 Y119.759 E0.01678 ; infill
G1 X156.820 Y113.949 E0.25808 ; infill
G1 X157.072 Y113.666 E0.01189 ; infill
G1 X162.630 Y119.224 E0.24692 ; infill
G1 X162.630 Y118.690 E0.01678 ; infill
G1 X157.323 Y113.383 E0.23575 ; infill
G1 X157.575 Y113.100 E0.01189 ; infill
G1 X162.630 Y118.156 E0.22458 ; infill
G1 X162.630 Y117.622 E0.01678 ; infill
G1 X157.826 Y112.817 E0.21341 ; infill
G1 X158.078 Y112.535 E0.01189 ; infill
G1 X162.630 Y117.087 E0.20224 ; infill
G1 X162.630 Y116.553 E0.01678 ; infill
G1 X158.329 Y112.252 E0.19107 ; infill
G1 X158.370 Y112.206 E0.00194 ; infill
G1 X158.370 Y111.758 E0.01405 ; infill
G1 X162.630 Y116.019 E0.18925 ; infill
G1 X162.630 Y115.485 E0.01678 ; infill
G1 X158.370 Y111.224 E0.18925 ; infill
G1 X158.370 Y110.690 E0.01678 ; infill
G1 X162.630 Y114.950 E0.18925 ; infill
G1 X162.630 Y114.416 E0.01678 ; infill
G1 X158.370 Y110.156 E0.18925 ; infill
G1 X158.370 Y109.621 E0.01678 ; infill
G1 X162.630 Y113.882 E0.18925 ; infill
G1 X162.630 Y113.348 E0.01678 ; infill
G1 X158.370 Y109.087 E0.18925 ; infill
G1 X158.370 Y108.553 E0.01678 ; infill
G1 X162.630 Y112.813 E0.18925 ; infill
G1 X162.630 Y112.279 E0.01678 ; infill
G1 X158.370 Y108.019 E0.18925 ; infill
G1 X158.370 Y107.484 E0.01678 ; infill
G1 X162.630 Y111.745 E0.18925 ; infill
G1 X162.630 Y111.211 E0.01678 ; infill
G1 X158.370 Y106.950 E0.18925 ; infill
G1 X158.370 Y106.416 E0.01678 ; infill
G1 X162.630 Y110.676 E0.18925 ; infill
G1 X162.630 Y110.142 E0.01678 ; infill
G1 X158.370 Y105.882 E0.18925 ; infill
G1 X158.370 Y105.347 E0.01678 ; infill
G1 X162.630 Y109.608 E0.18925 ; infill
G1 X162.630 Y109.074 E0.01678 ; infill
G1 X158.370 Y104.813 E0.18925 ; infill
G1 X158.370 Y104.279 E0.01678 ; infill
G1 X162.630 Y108.539 E0.18925 ; infill
G1 X162.630 Y108.005 E0.01678 ; infill
G1 X158.370 Y103.745 E0.18925 ; infill
G1 X158.370 Y103.210 E0.01678 ; infill
G1 X162.630 Y107.471 E0.18925 ; infill
G1 X162.630 Y106.937 E0.01678 ; infill
G1 X158.370 Y102.676 E0.18925 ; infill
G1 X158.370 Y102.142 E0.01678 ; infill
G1 X162.630 Y106.402 E0.18925 ; infill
G1 X162.630 Y105.868 E0.01678 ; infill
G1 X158.370 Y101.608 E0.18925 ; infill
G1 X158.370 Y101.073 E0.01678 ; infill
G1 X162.630 Y105.334 E0.18925 ; infill
G1 X162.630 Y104.799 E0.01678 ; infill
G1 X158.370 Y100.539 E0.18925 ; infill
G1 X158.370 Y100.005 E0.01678 ; infill
G1 X162.630 Y104.265 E0.18925 ; infill
G1 X162.630 Y103.731 E0.01678 ; infill
G1 X158.370 Y99.471 E0.18925 ; infill
G1 X158.370 Y98.936 E0.01678 ; infill
G1 X162.630 Y103.197 E0.18925 ; infill
G1 X162.630 Y102.662 E0.01678 ; infill
G1 X158.370 Y98.402 E0.18925 ; infill
G1 X158.370 Y97.868 E0.01678 ; infill
G1 X162.630 Y102.128 E0.18925 ; infill
G1 X162.630 Y101.594 E0.01678 ; infill
G1 X158.370 Y97.334 E0.18925 ; infill
G1 X158.370 Y96.799 E0.01678 ; infill
G1 X162.630 Y101.060 E0.18925 ; infill
G1 X162.630 Y100.525 E0.01678 ; infill
G1 X158.370 Y96.265 E0.18925 ; infill
G1 X158.370 Y95.731 E0.01678 ; infill
G1 X162.630 Y99.991 E0.18925 ; infill
G1 X162.630 Y99.457 E0.01678 ; infill
G1 X158.370 Y95.197 E0.18925 ; infill
G1 X158.370 Y94.662 E0.01678 ; infill
G1 X162.630 Y98.923 E0.18925 ; infill
G1 X162.630 Y98.388 E0.01678 ; infill
G1 X158.370 Y94.128 E0.18925 ; infill
G1 X158.370 Y93.594 E0.01678 ; infill
G1 X162.630 Y97.854 E0.18925 ; infill
G1 X162.630 Y97.320 E0.01678 ; infill
G1 X152.055 Y86.745 E0.46978 ; infill
G1 X152.589 Y86.745 E0.01678 ; infill
G1 X162.630 Y96.786 E0.44605 ; infill
G1 X162.630 Y96.251 E0.01678 ; infill
G1 X153.124 Y86.745 E0.42231 ; infill
G1 X153.658 Y86.745 E0.01678 ; infill
G1 X162.630 Y95.717 E0.39858 ; infill
G1 X162.630 Y95.183 E0.01678 ; infill
G1 X154.192 Y86.745 E0.37485 ; infill
G1 X154.726 Y86.745 E0.01678 ; infill
G1 X162.630 Y94.649 E0.35111 ; infill
G1 X162.630 Y94.114 E0.01678 ; infill
G1 X155.261 Y86.745 E0.32738 ; infill
G1 X155.795 Y86.745 E0.01678 ; infill
G1 X162.630 Y93.580 E0.30365 ; infill
G1 X162.630 Y93.046 E0.01678 ; infill
G1 X156.329 Y86.745 E0.27992 ; infill
G1 X156.863 Y86.745 E0.01678 ; infill
G1 X162.630 Y92.512 E0.25618 ; infill
G1 X162.630 Y91.977 E0.01678 ; infill
G1 X157.398 Y86.745 E0.23245 ; infill
G1 X157.932 Y86.745 E0.01678 ; infill
G1 X162.630 Y91.443 E0.20872 ; infill
G1 X162.630 Y90.909 E0.01678 ; infill
G1 X158.466 Y86.745 E0.18498 ; infill
G1 X159.000 Y86.745 E0.01678 ; infill
G1 X162.630 Y90.375 E0.16125 ; infill
G1 X162.630 Y89.840 E0.01678 ; infill
G1 X159.535 Y86.745 E0.13752 ; infill
G1 X160.069 Y86.745 E0.01678 ; infill
G1 X162.630 Y89.306 E0.11378 ; infill
G1 X162.630 Y88.772 E0.01678 ; infill
G1 X160.603 Y86.745 E0.09005 ; infill
G1 X161.137 Y86.745 E0.01678 ; infill
G1 X162.630 Y88.238 E0.06632 ; infill
G1 X162.630 Y87.703 E0.01678 ; infill
G1 X161.672 Y86.745 E0.04258 ; infill
G1 X162.206 Y86.745 E0.01678 ; infill
G1 X162.800 Y87.339 E0.02639 ; infill
G1 F5760
G1 X162.206 Y86.745 E-0.29098 ; wipe and retract
G1 F5760
G1 X161.672 Y86.745 E-0.18504 ; wipe and retract
G1 F5760
G1 X162.251 Y87.325 E-0.28398 ; wipe and retract
G1 E-0.04000 F2100.00000 ; retract
G1 Z0.800 F7200.000 ; lift Z
G1 X157.951 Y93.175 F7200.000 ; move to first infill point
G1 Z0.200 F7200.000 ; restore layer Z
G1 E0.80000 F2100.00000 ; unretract
G1 F1800
G1 X151.521 Y86.745 E0.28564 ; infill
G1 X150.987 Y86.745 E0.01678 ; infill
G1 X157.247 Y93.005 E0.27810 ; infill
G1 X156.713 Y93.005 E0.01678 ; infill
G1 X150.452 Y86.745 E0.27810 ; infill
G1 X149.918 Y86.745 E0.01678 ; infill
G1 X156.178 Y93.005 E0.27810 ; infill
G1 X155.644 Y93.005 E0.01678 ; infill
G1 X149.384 Y86.745 E0.27810 ; infill
G1 X148.850 Y86.745 E0.01678 ; infill
G1 X155.110 Y93.005 E0.27810 ; infill
G1 X154.576 Y93.005 E0.01678 ; infill
G1 X148.315 Y86.745 E0.27810 ; infill
G1 X147.781 Y86.745 E0.01678 ; infill
G1 X154.041 Y93.005 E0.27810 ; infill
G1 X153.507 Y93.005 E0.01678 ; infill
G1 X147.247 Y86.745 E0.27810 ; infill
G1 X146.713 Y86.745 E0.01678 ; infill
G1 X152.973 Y93.005 E0.27810 ; infill
G1 X152.439 Y93.005 E0.01678 ; infill
G1 X146.178 Y86.745 E0.27810 ; infill
G1 X145.644 Y86.745 E0.01678 ; infill
G1 X151.904 Y93.005 E0.27810 ; infill
G1 X151.370 Y93.005 E0.01678 ; infill
G1 X145.110 Y86.745 E0.27810 ; infill
G1 X144.576 Y86.745 E0.01678 ; infill
G1 X150.836 Y93.005 E0.27810 ; infill
G1 X150.302 Y93.005 E0.01678 ; infill
G1 X144.041 Y86.745 E0.27810 ; infill
G1 X143.507 Y86.745 E0.01678 ; infill
G1 X149.767 Y93.005 E0.27810 ; infill
G1 X149.233 Y93.005 E0.01678 ; infill
G1 X142.973 Y86.745 E0.27810 ; infill
G1 X142.439 Y86.745 E0.01678 ; infill
G1 X148.699 Y93.005 E0.27810 ; infill
G1 X148.165 Y93.005 E0.01678 ; infill
G1 X141.904 Y86.745 E0.27810 ; infill
G1 X141.370 Y86.745 E0.01678 ; infill
G1 X147.630 Y93.005 E0.27810 ; infill
G1 X147.096 Y93.005 E0.01678 ; infill
G1 X140.836 Y86.745 E0.27810 ; infill
G1 X140.302 Y86.745 E0.01678 ; infill
G1 X146.562 Y93.005 E0.27810 ; infill
G1 X146.028 Y93.005 E0.01678 ; infill
G1 X139.767 Y86.745 E0.27810 ; infill
G1 X139.233 Y86.745 E0.01678 ; infill
G1 X145.493 Y93.005 E0.27810 ; infill
G1 X144.959 Y93.005 E0.01678 ; infill
G1 X138.699 Y86.745 E0.27810 ; infill
G1 X138.165 Y86.745 E0.01678 ; infill
G1 X144.425 Y93.005 E0.27810 ; infill
G1 X143.891 Y93.005 E0.01678 ; infill
G1 X137.630 Y86.745 E0.27810 ; infill
G1 X137.096 Y86.745 E0.01678 ; infill
G1 X143.356 Y93.005 E0.27810 ; infill
G1 X142.822 Y93.005 E0.01678 ; infill
G1 X136.562 Y86.745 E0.27810 ; infill
G1 X136.028 Y86.745 E0.01678 ; infill
G1 X142.288 Y93.005 E0.27810 ; infill
G1 X141.754 Y93.005 E0.01678 ; infill
G1 X135.493 Y86.745 E0.27810 ; infill
G1 X134.959 Y86.745 E0.01678 ; infill
G1 X141.219 Y93.005 E0.27810 ; infill
G1 X140.685 Y93.005 E0.01678 ; infill
G1 X134.425 Y86.745 E0.27810 ; infill
G1 X133.891 Y86.745 E0.01678 ; infill
G1 X140.151 Y93.005 E0.27810 ; infill
G1 X139.617 Y93.005 E0.01678 ; infill
G1 X133.356 Y86.745 E0.27810 ; infill
G1 X132.822 Y86.745 E0.01678 ; infill
G1 X139.082 Y93.005 E0.27810 ; infill
G1 X138.548 Y93.005 E0.01678 ; infill
G1 X132.288 Y86.745 E0.27810 ; infill
G1 X131.754 Y86.745 E0.01678 ; infill
G1 X138.014 Y93.005 E0.27810 ; infill
G1 X137.480 Y93.005 E0.01678 ; infill
G1 X131.219 Y86.745 E0.27810 ; infill
G1 X130.685 Y86.745 E0.01678 ; infill
G1 X136.945 Y93.005 E0.27810 ; infill
G1 X136.411 Y93.005 E0.01678 ; infill
G1 X130.151 Y86.745 E0.27810 ; infill
G1 X129.617 Y86.745 E0.01678 ; infill
G1 X135.877 Y93.005 E0.27810 ; infill
G1 X135.343 Y93.005 E0.01678 ; infill
G1 X129.082 Y86.745 E0.27810 ; infill
G1 X128.548 Y86.745 E0.01678 ; infill
G1 X134.808 Y93.005 E0.27810 ; infill
G1 X134.274 Y93.005 E0.01678 ; infill
G1 X128.014 Y86.745 E0.27810 ; infill
G1 X127.480 Y86.745 E0.01678 ; infill
G1 X133.740 Y93.005 E0.27810 ; infill
G1 X133.206 Y93.005 E0.01678 ; infill
G1 X126.945 Y86.745 E0.27810 ; infill
G1 X126.411 Y86.745 E0.01678 ; infill
G1 X132.671 Y93.005 E0.27810 ; infill
G1 X132.137 Y93.005 E0.01678 ; infill
G1 X125.877 Y86.745 E0.27810 ; infill
G1 X125.343 Y86.745 E0.01678 ; infill
G1 X131.603 Y93.005 E0.27810 ; infill
G1 X131.069 Y93.005 E0.01678 ; infill
G1 X124.808 Y86.745 E0.27810 ; infill
G1 X124.274 Y86.745 E0.01678 ; infill
G1 X130.534 Y93.005 E0.27810 ; infill
G1 X130.000 Y93.005 E0.01678 ; infill
G1 X123.740 Y86.745 E0.27810 ; infill
G1 X123.206 Y86.745 E0.01678 ; infill
G1 X129.466 Y93.005 E0.27810 ; infill
G1 X128.932 Y93.005 E0.01678 ; infill
G1 X122.671 Y86.745 E0.27810 ; infill
G1 X122.137 Y86.745 E0.01678 ; infill
G1 X128.397 Y93.005 E0.27810 ; infill
G1 X127.863 Y93.005 E0.01678 ; infill
G1 X121.603 Y86.745 E0.27810 ; infill
G1 X121.069 Y86.745 E0.01678 ; infill
G1 X127.329 Y93.005 E0.27810 ; infill
G1 X126.795 Y93.005 E0.01678 ; infill
G1 X120.534 Y86.745 E0.27810 ; infill
G1 X120.000 Y86.745 E0.01678 ; infill
G1 X126.260 Y93.005 E0.27810 ; infill
G1 X125.726 Y93.005 E0.01678 ; infill
G1 X119.466 Y86.745 E0.27810 ; infill
G1 X118.932 Y86.745 E0.01678 ; infill
G1 X125.192 Y93.005 E0.27810 ; infill
G1 X124.658 Y93.005 E0.01678 ; infill
G1 X118.397 Y86.745 E0.27810 ; infill
G1 X117.863 Y86.745 E0.01678 ; infill
G1 X124.123 Y93.005 E0.27810 ; infill
G1 X123.589 Y93.005 E0.01678 ; infill
G1 X117.329 Y86.745 E0.27810 ; infill
G1 X116.795 Y86.745 E0.01678 ; infill
G1 X123.055 Y93.005 E0.27810 ; infill
G1 X122.521 Y93.005 E0.01678 ; infill
G1 X116.260 Y86.745 E0.27810 ; infill
G1 X115.726 Y86.745 E0.01678 ; infill
G1 X121.986 Y93.005 E0.27810 ; infill
G1 X121.452 Y93.005 E0.01678 ; infill
G1 X115.192 Y86.745 E0.27810 ; infill
G1 X114.657 Y86.745 E0.01678 ; infill
G1 X120.918 Y93.005 E0.27810 ; infill
G1 X120.384 Y93.005 E0.01678 ; infill
G1 X114.123 Y86.745 E0.27810 ; infill
G1 X113.589 Y86.745 E0.01678 ; infill
G1 X119.849 Y93.005 E0.27810 ; infill
G1 X119.315 Y93.005 E0.01678 ; infill
G1 X113.055 Y86.745 E0.27810 ; infill
G1 X112.520 Y86.745 E0.01678 ; infill
G1 X118.781 Y93.005 E0.27810 ; infill
G1 X118.247 Y93.005 E0.01678 ; infill
G1 X111.986 Y86.745 E0.27810 ; infill
G1 X111.452 Y86.745 E0.01678 ; infill
G1 X117.712 Y93.005 E0.27810 ; infill
G1 X117.178 Y93.005 E0.01678 ; infill
G1 X110.918 Y86.745 E0.27810 ; infill
G1 X110.383 Y86.745 E0.01678 ; infill
G1 X116.644 Y93.005 E0.27810 ; infill
G1 X116.110 Y93.005 E0.01678 ; infill
G1 X109.849 Y86.745 E0.27810 ; infill
G1 X109.315 Y86.745 E0.01678 ; infill
G1 X115.575 Y93.005 E0.27810 ; infill
G1 X115.041 Y93.005 E0.01678 ; infill
G1 X108.781 Y86.745 E0.27810 ; infill
G1 X108.246 Y86.745 E0.01678 ; infill
G1 X114.507 Y93.005 E0.27810 ; infill
G1 X113.973 Y93.005 E0.01678 ; infill
G1 X107.712 Y86.745 E0.27810 ; infill
G1 X107.178 Y86.745 E0.01678 ; infill
G1 X113.438 Y93.005 E0.27810 ; infill
