; generated by Slic3r 1.37.2.1-prusa3d-win64 on 2022-02-13 at 08:50:43

; 

; external perimeters extrusion width = 0.42mm
; perimeters extrusion width = 0.45mm
; infill extrusion width = 0.45mm
; solid infill extrusion width = 0.45mm
; top infill extrusion width = 0.42mm
; first layer extrusion width = 0.42mm

M107 ; disable fan
M115 U3.1.0 ; tell printer latest fw version
M83  ; extruder relative mode
M104 S215 ; set extruder temp
M140 S55 ; set bed temp
M190 S55 ; wait for bed temp
M109 S215 ; wait for extruder temp
G28 W ; home all without mesh bed level
G80 ; mesh bed leveling
G1 Y-3.0 F1000.0 ; go outside pritn area
G1 X60.0 E9.0  F1000.0 ; intro line
G1 X100.0 E12.5  F1000.0 ; intro line
G92 E0.0
M900 K30
G21 ; set units to millimeters
G90 ; use absolute coordinates
M83 ; use relative distances for extrusion
;BEFORE_LAYER_CHANGE
;0.2


G1 E-0.80000 F2100.00000 ; retract
G1 Z0.600 F7200.000 ; lift Z
;AFTER_LAYER_CHANGE
;0.2
G1 X113.912 Y99.883 F7200.000 ; move to first skirt point
G1 Z0.200 F7200.000 ; restore layer Z
G1 E0.80000 F2100.00000 ; unretract
M204 S1000 ; adjust acceleration
G1 F1800
G1 X114.902 Y99.660 E0.03183 ; skirt
G1 X134.674 Y99.658 E0.61994 ; skirt
G1 X135.780 Y99.771 E0.03486 ; skirt
G1 X136.277 Y99.973 E0.01681 ; skirt
G1 X136.726 Y100.267 E0.01681 ; skirt
G1 X137.111 Y100.645 E0.01694 ; skirt
G1 X137.416 Y101.091 E0.01694 ; skirt
G1 X137.627 Y101.589 E0.01694 ; skirt
G1 X137.738 Y102.122 E0.01707 ; skirt
G1 X137.751 Y119.118 E0.53290 ; skirt
G1 X137.516 Y120.118 E0.03221 ; skirt
G1 X136.931 Y120.962 E0.03221 ; skirt
G1 X136.088 Y121.529 E0.03183 ; skirt
G1 X135.098 Y121.751 E0.03183 ; skirt
G1 X114.997 Y121.753 E0.63026 ; skirt
G1 X114.455 Y121.699 E0.01707 ; skirt
G1 X113.935 Y121.538 E0.01707 ; skirt
G1 X113.456 Y121.279 E0.01707 ; skirt
G1 X113.038 Y120.931 E0.01707 ; skirt
G1 X112.476 Y120.100 E0.03145 ; skirt
G1 X112.249 Y119.119 E0.03157 ; skirt
G1 X112.247 Y102.408 E0.52394 ; skirt
G1 X112.301 Y101.867 E0.01707 ; skirt
G1 X112.462 Y101.346 E0.01707 ; skirt
G1 X112.721 Y100.868 E0.01707 ; skirt
G1 X113.069 Y100.449 E0.01707 ; skirt
G1 X113.862 Y99.916 E0.02995 ; skirt
G1 F5760
G1 X114.902 Y99.660 E-0.37102 ; wipe and retract
G1 F5760
G1 X116.025 Y99.660 E-0.38898 ; wipe and retract
G1 E-0.04000 F2100.00000 ; retract
G1 Z0.800 F7200.000 ; lift Z
G1 X112.814 Y101.482 F7200.000 ; move to first skirt point
G1 Z0.200 F7200.000 ; restore layer Z
G1 E0.80000 F2100.00000 ; unretract
G1 F1800
G1 X113.350 Y100.702 E0.02966 ; skirt
G1 X114.077 Y100.222 E0.02731 ; skirt
G1 X114.928 Y100.036 E0.02731 ; skirt
G1 X134.674 Y100.035 E0.61914 ; skirt
G1 X135.657 Y100.128 E0.03097 ; skirt
G1 X136.484 Y100.556 E0.02919 ; skirt
G1 X137.090 Y101.282 E0.02966 ; skirt
G1 X137.365 Y102.187 E0.02966 ; skirt
G1 X137.374 Y119.090 E0.52998 ; skirt
G1 X137.168 Y119.971 E0.02837 ; skirt
G1 X136.648 Y120.711 E0.02837 ; skirt
G1 X135.920 Y121.190 E0.02731 ; skirt
G1 X135.072 Y121.375 E0.02720 ; skirt
G1 X114.993 Y121.376 E0.62956 ; skirt
G1 X114.067 Y121.185 E0.02966 ; skirt
G1 X113.289 Y120.648 E0.02966 ; skirt
G1 X112.813 Y119.927 E0.02708 ; skirt
G1 X112.625 Y119.084 E0.02708 ; skirt
G1 X112.624 Y102.405 E0.52296 ; skirt
G1 X112.802 Y101.541 E0.02766 ; skirt
G1 F5760
G1 X113.350 Y100.702 E-0.34685 ; wipe and retract
G1 F5760
G1 X114.077 Y100.222 E-0.30172 ; wipe and retract
G1 F5760
G1 X114.391 Y100.154 E-0.11143 ; wipe and retract
G1 E-0.04000 F2100.00000 ; retract
G1 Z0.800 F7200.000 ; lift Z
G1 X115.588 Y103.230 F7200.000 ; move to first perimeter point
G1 Z0.200 F7200.000 ; restore layer Z
G1 E0.80000 F2100.00000 ; unretract
G1 F1800
G1 X134.412 Y103.230 E0.59021 ; perimeter
G1 X134.412 Y118.412 E0.47601 ; perimeter
G1 X126.242 Y118.412 E0.25616 ; perimeter
G1 X124.999 Y117.169 E0.05512 ; perimeter
G1 X123.756 Y118.412 E0.05512 ; perimeter
G1 X115.588 Y118.412 E0.25609 ; perimeter
G1 X115.588 Y103.290 E0.47413 ; perimeter
G1 F5760
G1 X117.782 Y103.283 E-0.76000 ; wipe and retract
G1 E-0.04000 F2100.00000 ; retract
G1 Z0.800 F7200.000 ; lift Z
G1 X124.999 Y117.702 F7200.000 ; move to first perimeter point
G1 Z0.200 F7200.000 ; restore layer Z
G1 E0.80000 F2100.00000 ; unretract
G1 F1800
G1 X123.912 Y118.789 E0.04820 ; perimeter
G1 X115.211 Y118.789 E0.27281 ; perimeter
G1 X115.211 Y102.853 E0.49965 ; perimeter
G1 X134.789 Y102.853 E0.61385 ; perimeter
G1 X134.789 Y118.789 E0.49965 ; perimeter
G1 X126.086 Y118.789 E0.27288 ; perimeter
G1 X125.041 Y117.744 E0.04632 ; perimeter
G1 X124.660 Y117.489 F7200.000 ; move inwards before travel
G1 X124.891 Y117.117 F7200.000 ; move to first infill point
G1 F1800
G1 X115.871 Y108.097 E0.40033 ; infill
G1 X115.871 Y108.631 E0.01675 ; infill
G1 X124.504 Y117.264 E0.38316 ; infill
G1 X124.237 Y117.531 E0.01185 ; infill
G1 X115.871 Y109.165 E0.37132 ; infill
G1 X115.871 Y109.699 E0.01675 ; infill
G1 X123.970 Y117.798 E0.35947 ; infill
G1 X123.703 Y118.065 E0.01185 ; infill
G1 X115.871 Y110.233 E0.34763 ; infill
G1 X115.871 Y110.766 E0.01675 ; infill
G1 X123.234 Y118.129 E0.32679 ; infill
G1 X122.700 Y118.129 E0.01675 ; infill
G1 X115.871 Y111.300 E0.30310 ; infill
G1 X115.871 Y111.834 E0.01675 ; infill
G1 X122.166 Y118.129 E0.27941 ; infill
G1 X121.632 Y118.129 E0.01675 ; infill
G1 X115.871 Y112.368 E0.25572 ; infill
G1 X115.871 Y112.901 E0.01675 ; infill
G1 X121.099 Y118.129 E0.23203 ; infill
G1 X120.565 Y118.129 E0.01675 ; infill
G1 X115.871 Y113.435 E0.20833 ; infill
G1 X115.871 Y113.969 E0.01675 ; infill
G1 X120.031 Y118.129 E0.18464 ; infill
G1 X119.497 Y118.129 E0.01675 ; infill
G1 X115.871 Y114.503 E0.16095 ; infill
G1 X115.871 Y115.037 E0.01675 ; infill
G1 X118.963 Y118.129 E0.13726 ; infill
G1 X118.430 Y118.129 E0.01675 ; infill
G1 X115.871 Y115.570 E0.11357 ; infill
G1 X115.871 Y116.104 E0.01675 ; infill
G1 X117.896 Y118.129 E0.08988 ; infill
G1 X117.362 Y118.129 E0.01675 ; infill
G1 X115.871 Y116.638 E0.06618 ; infill
G1 X115.871 Y117.172 E0.01675 ; infill
G1 X116.828 Y118.129 E0.04249 ; infill
G1 X116.294 Y118.129 E0.01675 ; infill
G1 X115.701 Y117.536 E0.02633 ; infill
G1 F5760
G1 X116.294 Y118.129 E-0.29060 ; wipe and retract
G1 F5760
G1 X116.828 Y118.129 E-0.18488 ; wipe and retract
G1 F5760
G1 X116.247 Y117.548 E-0.28452 ; wipe and retract
G1 E-0.04000 F2100.00000 ; retract
G1 Z0.800 F7200.000 ; lift Z
G1 X126.606 Y118.299 F7200.000 ; move to first infill point
G1 Z0.200 F7200.000 ; restore layer Z
G1 E0.80000 F2100.00000 ; unretract
G1 F1800
G1 X115.871 Y107.564 E0.47647 ; infill
G1 X115.871 Y107.030 E0.01675 ; infill
G1 X126.970 Y118.129 E0.49263 ; infill
G1 X127.504 Y118.129 E0.01675 ; infill
G1 X115.871 Y106.496 E0.51632 ; infill
G1 X115.871 Y105.962 E0.01675 ; infill
G1 X128.038 Y118.129 E0.54002 ; infill
G1 X128.571 Y118.129 E0.01675 ; infill
G1 X115.871 Y105.429 E0.56371 ; infill
G1 X115.871 Y104.895 E0.01675 ; infill
G1 X129.105 Y118.129 E0.58740 ; infill
G1 X129.639 Y118.129 E0.01675 ; infill
G1 X115.871 Y104.361 E0.61109 ; infill
G1 X115.871 Y103.827 E0.01675 ; infill
G1 X130.173 Y118.129 E0.63478 ; infill
G1 X130.707 Y118.129 E0.01675 ; infill
G1 X116.091 Y103.513 E0.64872 ; infill
G1 X116.624 Y103.513 E0.01675 ; infill
G1 X131.240 Y118.129 E0.64872 ; infill
G1 X131.774 Y118.129 E0.01675 ; infill
G1 X117.158 Y103.513 E0.64872 ; infill
G1 X117.692 Y103.513 E0.01675 ; infill
G1 X132.308 Y118.129 E0.64872 ; infill
G1 X132.842 Y118.129 E0.01675 ; infill
G1 X118.226 Y103.513 E0.64872 ; infill
G1 X118.760 Y103.513 E0.01675 ; infill
G1 X133.376 Y118.129 E0.64872 ; infill
G1 X133.909 Y118.129 E0.01675 ; infill
G1 X119.293 Y103.513 E0.64872 ; infill
G1 X119.827 Y103.513 E0.01675 ; infill
G1 X134.129 Y117.815 E0.63479 ; infill
G1 X134.129 Y117.281 E0.01675 ; infill
G1 X120.361 Y103.513 E0.61109 ; infill
G1 X120.895 Y103.513 E0.01675 ; infill
G1 X134.129 Y116.748 E0.58740 ; infill
G1 X134.129 Y116.214 E0.01675 ; infill
G1 X121.428 Y103.513 E0.56371 ; infill
G1 X121.962 Y103.513 E0.01675 ; infill
G1 X134.129 Y115.680 E0.54002 ; infill
G1 X134.129 Y115.146 E0.01675 ; infill
G1 X122.496 Y103.513 E0.51633 ; infill
G1 X123.030 Y103.513 E0.01675 ; infill
G1 X134.129 Y114.612 E0.49264 ; infill
G1 X134.129 Y114.079 E0.01675 ; infill
G1 X123.564 Y103.513 E0.46894 ; infill
G1 X124.097 Y103.513 E0.01675 ; infill
G1 X134.129 Y113.545 E0.44525 ; infill
G1 X134.129 Y113.011 E0.01675 ; infill
G1 X124.631 Y103.513 E0.42156 ; infill
G1 X125.165 Y103.513 E0.01675 ; infill
G1 X134.129 Y112.477 E0.39787 ; infill
G1 X134.129 Y111.944 E0.01675 ; infill
G1 X125.699 Y103.513 E0.37418 ; infill
G1 X126.232 Y103.513 E0.01675 ; infill
G1 X134.129 Y111.410 E0.35049 ; infill
G1 X134.129 Y110.876 E0.01675 ; infill
G1 X126.766 Y103.513 E0.32679 ; infill
G1 X127.300 Y103.513 E0.01675 ; infill
G1 X134.129 Y110.342 E0.30310 ; infill
G1 X134.129 Y109.808 E0.01675 ; infill
G1 X127.834 Y103.513 E0.27941 ; infill
G1 X128.368 Y103.513 E0.01675 ; infill
G1 X134.129 Y109.275 E0.25572 ; infill
G1 X134.129 Y108.741 E0.01675 ; infill
G1 X128.901 Y103.513 E0.23203 ; infill
G1 X129.435 Y103.513 E0.01675 ; infill
G1 X134.129 Y108.207 E0.20834 ; infill
G1 X134.129 Y107.673 E0.01675 ; infill
G1 X129.969 Y103.513 E0.18465 ; infill
G1 X130.503 Y103.513 E0.01675 ; infill
G1 X134.129 Y107.139 E0.16095 ; infill
G1 X134.129 Y106.606 E0.01675 ; infill
G1 X131.037 Y103.513 E0.13726 ; infill
G1 X131.570 Y103.513 E0.01675 ; infill
G1 X134.129 Y106.072 E0.11357 ; infill
G1 X134.129 Y105.538 E0.01675 ; infill
G1 X132.104 Y103.513 E0.08988 ; infill
G1 X132.638 Y103.513 E0.01675 ; infill
G1 X134.129 Y105.004 E0.06619 ; infill
G1 X134.129 Y104.471 E0.01675 ; infill
G1 X133.172 Y103.513 E0.04250 ; infill
G1 X133.705 Y103.513 E0.01675 ; infill
G1 X134.299 Y104.106 E0.02634 ; infill
M106 S247.35 ; enable fan
;BEFORE_LAYER_CHANGE
;0.4


G1 F5760
G1 X133.705 Y103.513 E-0.29064 ; wipe and retract
G1 F5760
G1 X133.172 Y103.513 E-0.18488 ; wipe and retract
G1 F5760
G1 X133.752 Y104.094 E-0.28449 ; wipe and retract
G1 E-0.04000 F2100.00000 ; retract
G1 Z0.800 F7200.000 ; lift Z
;AFTER_LAYER_CHANGE
;0.4
M104 S210 ; set temperature
G1 X137.516 Y120.118 F7200.000 ; move to first skirt point
G1 Z0.400 F7200.000 ; restore layer Z
G1 E0.80000 F2100.00000 ; unretract
G1 F3000
G1 X136.931 Y120.962 E0.03221 ; skirt
G1 X136.088 Y121.529 E0.03183 ; skirt
G1 X135.098 Y121.751 E0.03183 ; skirt
G1 X114.997 Y121.753 E0.63026 ; skirt
G1 X114.455 Y121.699 E0.01707 ; skirt
G1 X113.935 Y121.538 E0.01707 ; skirt
G1 X113.456 Y121.279 E0.01707 ; skirt
G1 X113.038 Y120.931 E0.01707 ; skirt
G1 X112.476 Y120.100 E0.03145 ; skirt
G1 X112.249 Y119.119 E0.03157 ; skirt
G1 X112.247 Y102.408 E0.52394 ; skirt
G1 X112.301 Y101.867 E0.01707 ; skirt
G1 X112.462 Y101.346 E0.01707 ; skirt
G1 X112.721 Y100.868 E0.01707 ; skirt
G1 X113.069 Y100.449 E0.01707 ; skirt
G1 X113.912 Y99.883 E0.03183 ; skirt
G1 X114.902 Y99.660 E0.03183 ; skirt
G1 X134.674 Y99.658 E0.61994 ; skirt
G1 X135.780 Y99.771 E0.03486 ; skirt
G1 X136.277 Y99.973 E0.01681 ; skirt
G1 X136.726 Y100.267 E0.01681 ; skirt
G1 X137.111 Y100.645 E0.01694 ; skirt
G1 X137.416 Y101.091 E0.01694 ; skirt
G1 X137.627 Y101.589 E0.01694 ; skirt
G1 X137.738 Y102.122 E0.01707 ; skirt
G1 X137.751 Y119.118 E0.53290 ; skirt
G1 X137.529 Y120.059 E0.03032 ; skirt
G1 F5760
G1 X136.931 Y120.962 E-0.37517 ; wipe and retract
G1 F5760
G1 X136.088 Y121.529 E-0.35157 ; wipe and retract
G1 F5760
G1 X135.995 Y121.550 E-0.03326 ; wipe and retract
G1 E-0.04000 F2100.00000 ; retract
G1 Z1.000 F7200.000 ; lift Z
G1 X134.397 Y118.397 F7200.000 ; move to first perimeter point
G1 Z0.400 F7200.000 ; restore layer Z
G1 E0.80000 F2100.00000 ; unretract
M204 S800 ; adjust acceleration
G1 F2400
G1 X126.248 Y118.397 E0.27582 ; perimeter
G1 X124.999 Y117.148 E0.05981 ; perimeter
G1 X123.750 Y118.397 E0.05981 ; perimeter
G1 X115.603 Y118.397 E0.27575 ; perimeter
G1 X115.603 Y103.130 E0.51677 ; perimeter
G1 X134.397 Y103.130 E0.63615 ; perimeter
G1 X134.397 Y118.337 E0.51474 ; perimeter
M204 S1000 ; adjust acceleration
G1 F5760
G1 X132.203 Y118.353 E-0.76000 ; wipe and retract
G1 E-0.04000 F2100.00000 ; retract
G1 Z1.000 F7200.000 ; lift Z
G1 X124.999 Y117.702 F7200.000 ; move to first perimeter point
G1 Z0.400 F7200.000 ; restore layer Z
G1 E0.80000 F2100.00000 ; unretract
M204 S800 ; adjust acceleration
G1 F1800
G1 X123.912 Y118.789 E0.04820 ; perimeter
G1 X115.211 Y118.789 E0.27281 ; perimeter
G1 X115.211 Y102.738 E0.50327 ; perimeter
G1 X134.789 Y102.738 E0.61385 ; perimeter
G1 X134.789 Y118.789 E0.50328 ; perimeter
G1 X126.086 Y118.789 E0.27288 ; perimeter
G1 X125.041 Y117.744 E0.04632 ; perimeter
M204 S1000 ; adjust acceleration
G1 X124.660 Y117.489 F7200.000 ; move inwards before travel
G1 F5760
G1 X123.912 Y118.789 E-0.53283 ; wipe and retract
G1 F5760
G1 X123.256 Y118.789 E-0.22717 ; wipe and retract
G1 E-0.04000 F2100.00000 ; retract
G1 Z1.000 F7200.000 ; lift Z
G1 X123.581 Y118.275 F7200.000 ; move to first infill point
G1 Z0.400 F7200.000 ; restore layer Z
G1 E0.80000 F2100.00000 ; unretract
M204 S2000 ; adjust acceleration
G1 F2400
G1 X134.092 Y107.764 E0.50710 ; infill
G1 X134.092 Y108.344 E0.01980 ; infill
G1 X125.360 Y117.076 E0.42129 ; infill
G1 X125.650 Y117.367 E0.01400 ; infill
G1 X134.092 Y108.925 E0.40729 ; infill
G1 X134.092 Y109.505 E0.01980 ; infill
G1 X125.940 Y117.657 E0.39330 ; infill
G1 X126.230 Y117.947 E0.01400 ; infill
G1 X134.092 Y110.085 E0.37930 ; infill
G1 X134.092 Y110.665 E0.01980 ; infill
G1 X126.665 Y118.092 E0.35829 ; infill
G1 X127.246 Y118.092 E0.01980 ; infill
G1 X134.092 Y111.246 E0.33030 ; infill
G1 X134.092 Y111.826 E0.01980 ; infill
G1 X127.826 Y118.092 E0.30230 ; infill
G1 X128.406 Y118.092 E0.01980 ; infill
G1 X134.092 Y112.406 E0.27431 ; infill
G1 X134.092 Y112.986 E0.01980 ; infill
G1 X128.986 Y118.092 E0.24631 ; infill
G1 X129.567 Y118.092 E0.01980 ; infill
G1 X134.092 Y113.567 E0.21832 ; infill
G1 X134.092 Y114.147 E0.01980 ; infill
G1 X130.147 Y118.092 E0.19032 ; infill
G1 X130.727 Y118.092 E0.01980 ; infill
G1 X134.092 Y114.727 E0.16233 ; infill
G1 X134.092 Y115.307 E0.01980 ; infill
G1 X131.307 Y118.092 E0.13433 ; infill
G1 X131.888 Y118.092 E0.01980 ; infill
G1 X134.092 Y115.888 E0.10634 ; infill
G1 X134.092 Y116.468 E0.01980 ; infill
G1 X132.468 Y118.092 E0.07834 ; infill
G1 X133.048 Y118.092 E0.01980 ; infill
G1 X134.092 Y117.048 E0.05035 ; infill
G1 X134.092 Y117.628 E0.01980 ; infill
G1 X133.445 Y118.275 E0.03119 ; infill
M204 S1000 ; adjust acceleration
G1 F5760
G1 X134.092 Y117.628 E-0.31669 ; wipe and retract
G1 F5760
G1 X134.092 Y117.048 E-0.20097 ; wipe and retract
G1 F5760
G1 X133.597 Y117.543 E-0.24235 ; wipe and retract
G1 E-0.04000 F2100.00000 ; retract
G1 Z1.000 F7200.000 ; lift Z
G1 X123.001 Y118.275 F7200.000 ; move to first infill point
G1 Z0.400 F7200.000 ; restore layer Z
G1 E0.80000 F2100.00000 ; unretract
M204 S2000 ; adjust acceleration
G1 F2400
G1 X134.092 Y107.184 E0.53510 ; infill
G1 X134.092 Y106.604 E0.01980 ; infill
G1 X122.604 Y118.092 E0.55425 ; infill
G1 X122.024 Y118.092 E0.01980 ; infill
G1 X134.092 Y106.024 E0.58225 ; infill
G1 X134.092 Y105.443 E0.01980 ; infill
G1 X121.443 Y118.092 E0.61024 ; infill
G1 X120.863 Y118.092 E0.01980 ; infill
G1 X134.092 Y104.863 E0.63824 ; infill
G1 X134.092 Y104.283 E0.01980 ; infill
G1 X120.283 Y118.092 E0.66623 ; infill
G1 X119.703 Y118.092 E0.01980 ; infill
G1 X134.092 Y103.703 E0.69423 ; infill
G1 X134.092 Y103.435 E0.00912 ; infill
G1 X133.779 Y103.435 E0.01067 ; infill
G1 X119.122 Y118.092 E0.70713 ; infill
G1 X118.542 Y118.092 E0.01980 ; infill
G1 X133.199 Y103.435 E0.70713 ; infill
G1 X132.618 Y103.435 E0.01980 ; infill
G1 X117.962 Y118.092 E0.70713 ; infill
G1 X117.382 Y118.092 E0.01980 ; infill
G1 X132.038 Y103.435 E0.70713 ; infill
G1 X131.458 Y103.435 E0.01980 ; infill
G1 X116.801 Y118.092 E0.70713 ; infill
G1 X116.221 Y118.092 E0.01980 ; infill
G1 X130.878 Y103.435 E0.70713 ; infill
G1 X130.297 Y103.435 E0.01980 ; infill
G1 X115.908 Y117.824 E0.69423 ; infill
G1 X115.908 Y117.244 E0.01980 ; infill
G1 X129.717 Y103.435 E0.66623 ; infill
G1 X129.137 Y103.435 E0.01980 ; infill
