; generated by PrusaSlicer 2.2.0+win64 on 2022-02-08 at 17:35:36 UTC

; 

; external perimeters extrusion width = 0.45mm
; perimeters extrusion width = 0.45mm
; infill extrusion width = 0.45mm
; solid infill extrusion width = 0.45mm
; top infill extrusion width = 0.40mm
; first layer extrusion width = 0.42mm

M73 P0 R167
M201 X9000 Y9000 Z500 E10000 ; sets maximum accelerations, mm/sec^2
M203 X500 Y500 Z12 E120 ; sets maximum feedrates, mm/sec
M204 P2000 R1500 T2000 ; sets acceleration (P, T) and retract acceleration (R), mm/sec^2
M205 X10.00 Y10.00 Z0.20 E2.50 ; sets the jerk limits, mm/sec
M205 S0 T0 ; sets the minimum extruding and travel feed rate, mm/sec
M107
M862.3 P "MK2S" ; printer model check
M862.1 P0.4 ; nozzle diameter check
M115 U3.2.3 ; tell printer latest fw version
G90 ; use absolute coordinates
M83 ; extruder relative mode
M204 S2000 T1500 ; MK2 firmware only supports the old M204 format
M104 S255 ; set extruder temp
M140 S100 ; set bed temp
M190 S100 ; wait for bed temp
M109 S255 ; wait for extruder temp
G28 W ; home all without mesh bed level
G80 ; mesh bed leveling
G1 Y-3.0 F1000.0 ; go outside print area
G92 E0.0
G1 X60.0 E9.0  F1000.0 ; intro line
M73 P0 R167
G1 X100.0 E12.5 F1000.0 ; intro line
G92 E0.0
G21 ; set units to millimeters
G90 ; use absolute coordinates
M83 ; use relative distances for extrusion
M900 K0.04 ; Filament gcode LA 1.5
M900 K20 ; Filament gcode LA 1.0
;BEFORE_LAYER_CHANGE
G92 E0.0
;0.2


G1 E-0.80000 F2100.00000
G1 Z0.400 F10800.000
;AFTER_LAYER_CHANGE
;0.2
G1 X75.239 Y56.761
G1 Z0.200
G1 E0.80000 F2100.00000
M204 S1000
G1 F1200.000
G1 X75.866 Y55.945 E0.03227
G1 X76.614 Y55.337 E0.03024
G1 X77.068 Y55.081 E0.01633
G1 X77.924 Y54.758 E0.02868
G1 X78.967 Y54.623 E0.03298
G1 X171.004 Y54.623 E2.88575
G1 X171.926 Y54.726 E0.02909
G1 X172.422 Y54.870 E0.01621
G1 X173.245 Y55.243 E0.02832
G1 X174.082 Y55.892 E0.03322
G1 X174.670 Y56.623 E0.02941
G1 X174.919 Y57.068 E0.01597
G1 X175.240 Y57.913 E0.02833
G1 X175.376 Y58.925 E0.03203
G1 X175.377 Y151.030 E2.88790
G1 X175.272 Y151.933 E0.02850
G1 X175.130 Y152.422 E0.01597
G1 X174.761 Y153.239 E0.02809
G1 X174.134 Y154.055 E0.03227
G1 X173.386 Y154.663 E0.03024
G1 X172.925 Y154.922 E0.01657
G1 X172.065 Y155.245 E0.02880
G1 X171.003 Y155.377 E0.03357
G1 X78.970 Y155.377 E2.88563
G1 X78.067 Y155.272 E0.02850
G1 X77.578 Y155.130 E0.01597
G1 X76.761 Y154.761 E0.02809
G1 X75.945 Y154.134 E0.03227
G1 X75.337 Y153.386 E0.03024
G1 X75.078 Y152.925 E0.01657
G1 X74.755 Y152.065 E0.02880
G1 X74.623 Y151.003 E0.03357
G1 X74.623 Y58.970 E2.88563
G1 X74.728 Y58.067 E0.02850
G1 X74.870 Y57.578 E0.01597
G1 X75.214 Y56.816 E0.02621
; printing object Ventilatorgitter.stl id:0 copy 0
G1 F8640.000
G1 X75.866 Y55.945 E-0.25115
G1 X76.614 Y55.337 E-0.22267
G1 X77.068 Y55.081 E-0.12025
G1 X77.740 Y54.827 E-0.16593
G1 E-0.04000 F2100.00000
G1 Z0.600 F10800.000
G1 X92.538 Y72.699
G1 Z0.200
G1 E0.80000 F2100.00000
G1 F1200.000
G1 X93.237 Y72.759 E0.02201
G1 X93.085 Y72.375 E0.01295
G1 X93.588 Y71.738 E0.02545
G1 X93.875 Y71.429 E0.01324
G1 X94.171 Y71.151 E0.01273
G1 X94.481 Y70.875 E0.01301
G1 X94.713 Y70.707 E0.00896
G1 X96.610 Y69.077 E0.07844
G1 X97.442 Y68.437 E0.03289
G1 X98.044 Y68.035 E0.02270
G1 X98.759 Y67.653 E0.02544
G1 X99.349 Y67.118 E0.02496
G1 X99.928 Y66.690 E0.02258
G1 X100.809 Y66.127 E0.03279
G1 X101.442 Y65.783 E0.02258
G1 X102.179 Y65.472 E0.02507
G1 X102.816 Y64.989 E0.02507
G1 X103.430 Y64.614 E0.02257
G1 X104.354 Y64.132 E0.03268
G1 X105.341 Y63.688 E0.03395
G1 X105.662 Y63.673 E0.01005
G1 X106.466 Y63.173 E0.02968
G1 X107.115 Y62.852 E0.02270
G1 X108.086 Y62.452 E0.03293
G1 X109.723 Y61.882 E0.05436
G1 X111.091 Y61.380 E0.04568
G1 X111.489 Y61.259 E0.01303
G1 X111.900 Y61.166 E0.01324
G1 X112.703 Y61.048 E0.02545
G1 X112.960 Y61.372 E0.01295
G1 X113.260 Y60.732 E0.02218
G1 X114.623 Y60.718 E0.04274
G1 X115.098 Y60.748 E0.01492
G1 X115.662 Y60.824 E0.01785
G1 X115.893 Y60.166 E0.02184
G1 X117.296 Y59.866 E0.04499
G1 X118.816 Y59.640 E0.04818
G1 X119.871 Y59.578 E0.03314
G1 X119.897 Y59.635 E0.00199
G1 X120.752 Y59.446 E0.02745
G1 X121.523 Y59.349 E0.02436
G1 X122.308 Y59.328 E0.02462
G1 X123.056 Y59.399 E0.02356
G1 X123.195 Y59.624 E0.00830
G1 X123.346 Y59.280 E0.01180
G1 X124.595 Y59.216 E0.03922
G1 X125.405 Y59.216 E0.02538
G1 X126.654 Y59.280 E0.03922
G1 X126.805 Y59.624 E0.01180
G1 X126.944 Y59.399 E0.00830
G1 X127.682 Y59.329 E0.02325
G1 X128.092 Y59.326 E0.01285
G1 X128.822 Y59.379 E0.02293
G1 X129.257 Y59.448 E0.01384
G1 X130.103 Y59.636 E0.02716
G1 X130.132 Y59.573 E0.00217
G1 X131.330 Y59.661 E0.03767
G1 X132.704 Y59.866 E0.04358
G1 X134.107 Y60.166 E0.04499
G1 X134.338 Y60.824 E0.02184
G1 X134.902 Y60.748 E0.01785
G1 X135.377 Y60.718 E0.01492
G1 X136.740 Y60.732 E0.04274
G1 X137.040 Y61.372 E0.02218
G1 X137.297 Y61.048 E0.01295
G1 X138.100 Y61.166 E0.02545
G1 X138.515 Y61.260 E0.01336
G1 X139.291 Y61.506 E0.02551
G1 X139.555 Y61.624 E0.00907
G1 X141.915 Y62.452 E0.07844
G1 X142.885 Y62.852 E0.03289
G1 X143.534 Y63.173 E0.02270
G1 X144.223 Y63.601 E0.02544
G1 X144.981 Y63.844 E0.02496
G1 X145.641 Y64.132 E0.02258
G1 X146.569 Y64.614 E0.03279
G1 X147.184 Y64.989 E0.02258
G1 X147.821 Y65.472 E0.02507
G1 X148.558 Y65.783 E0.02507
G1 X149.191 Y66.127 E0.02258
G1 X150.072 Y66.690 E0.03279
G1 X150.651 Y67.118 E0.02258
G1 X151.241 Y67.653 E0.02496
G1 X151.956 Y68.035 E0.02544
G1 X152.558 Y68.437 E0.02270
G1 X153.390 Y69.077 E0.03289
G1 X155.287 Y70.707 E0.07844
G1 X155.522 Y70.877 E0.00907
G1 X156.122 Y71.426 E0.02551
G1 X156.412 Y71.738 E0.01336
G1 X156.915 Y72.375 E0.02545
G1 X156.766 Y72.751 E0.01269
G1 X157.472 Y72.706 E0.02219
G1 X158.161 Y73.873 E0.04247
G1 X158.372 Y74.299 E0.01492
G1 X158.589 Y74.825 E0.01785
G1 X159.273 Y74.696 E0.02184
G1 X160.233 Y75.759 E0.04490
G1 X160.889 Y76.569 E0.03268
G1 X161.303 Y77.136 E0.02203
G1 X161.771 Y77.846 E0.02665
G1 X161.739 Y77.891 E0.00171
G1 X162.568 Y78.841 E0.03953
G1 X163.008 Y79.484 E0.02443
G1 X163.211 Y79.842 E0.01288
G1 X163.519 Y80.516 E0.02325
G1 X163.394 Y80.749 E0.00830
G1 X163.762 Y80.708 E0.01161
G1 X164.237 Y81.418 E0.02679
G1 X164.651 Y82.107 E0.02520
G1 X165.041 Y82.810 E0.02520
G1 X165.418 Y83.577 E0.02679
G1 X165.199 Y83.876 E0.01161
G1 X165.464 Y83.883 E0.00830
G1 X165.899 Y84.496 E0.02355
G1 X166.260 Y85.159 E0.02369
G1 X166.421 Y85.503 E0.01190
G1 X166.578 Y85.911 E0.01371
G1 X166.838 Y86.738 E0.02719
G1 X166.907 Y86.732 E0.00218
G1 X167.430 Y87.812 E0.03763
G1 X167.939 Y89.105 E0.04358
G1 X168.381 Y90.470 E0.04499
G1 X167.927 Y90.998 E0.02184
G1 X168.279 Y91.456 E0.01811
G1 X168.763 Y92.230 E0.02861
G1 X169.204 Y93.037 E0.02886
G1 X168.803 Y93.613 E0.02201
G1 X169.212 Y93.673 E0.01295
G1 X169.511 Y94.427 E0.02545
G1 X169.637 Y94.834 E0.01336
G1 X169.812 Y95.629 E0.02551
G1 X169.842 Y95.917 E0.00907
G1 X170.305 Y98.375 E0.07844
G1 X170.443 Y99.415 E0.03289
G1 X170.490 Y100.138 E0.02270
G1 X170.464 Y100.949 E0.02544
G1 X170.633 Y101.726 E0.02496
G1 X170.714 Y102.442 E0.02258
G1 X170.760 Y103.487 E0.03279
G1 X170.742 Y104.207 E0.02258
G1 X170.642 Y105.000 E0.02507
G1 X170.742 Y105.787 E0.02488
G1 X170.759 Y106.163 E0.01181
G1 X170.746 Y106.867 E0.02205
G1 X170.682 Y107.904 E0.03259
G1 X170.631 Y108.280 E0.01188
G1 X170.464 Y109.051 E0.02477
G1 X170.490 Y109.862 E0.02544
G1 X170.443 Y110.585 E0.02270
G1 X170.305 Y111.625 E0.03289
G1 X169.842 Y114.083 E0.07844
G1 X169.812 Y114.371 E0.00907
G1 X169.637 Y115.166 E0.02551
G1 X169.511 Y115.573 E0.01336
G1 X169.212 Y116.327 E0.02545
G1 X168.803 Y116.387 E0.01295
G1 X169.208 Y116.967 E0.02218
G1 X168.538 Y118.154 E0.04274
G1 X168.274 Y118.551 E0.01492
G1 X167.927 Y119.002 E0.01785
G1 X168.381 Y119.530 E0.02184
G1 X167.940 Y120.892 E0.04490
G1 X167.567 Y121.865 E0.03268
G1 X167.282 Y122.508 E0.02203
G1 X166.901 Y123.268 E0.02665
G1 X166.847 Y123.263 E0.00171
G1 X166.439 Y124.455 E0.03953
G1 X166.101 Y125.158 E0.02443
G1 X165.893 Y125.512 E0.01288
G1 X165.464 Y126.117 E0.02325
G1 X165.199 Y126.124 E0.00830
G1 X165.418 Y126.423 E0.01161
G1 X165.041 Y127.190 E0.02679
G1 X164.661 Y127.876 E0.02459
G1 X164.238 Y128.582 E0.02581
G1 X163.762 Y129.292 E0.02680
G1 X163.394 Y129.251 E0.01161
G1 X163.519 Y129.484 E0.00830
G1 X163.207 Y130.167 E0.02356
G1 X162.796 Y130.837 E0.02462
G1 X162.327 Y131.456 E0.02436
G1 X161.735 Y132.102 E0.02749
G1 X161.771 Y132.154 E0.00197
G1 X161.303 Y132.864 E0.02665
G1 X160.889 Y133.431 E0.02203
G1 X160.233 Y134.241 E0.03268
G1 X159.273 Y135.304 E0.04490
G1 X158.589 Y135.175 E0.02184
G1 X158.372 Y135.701 E0.01785
G1 X158.161 Y136.127 E0.01492
G1 X157.468 Y137.301 E0.04274
G1 X156.763 Y137.241 E0.02218
G1 X156.915 Y137.625 E0.01295
G1 X156.412 Y138.262 E0.02545
G1 X156.122 Y138.574 E0.01336
G1 X155.522 Y139.123 E0.02551
G1 X155.287 Y139.293 E0.00907
G1 X153.390 Y140.923 E0.07844
G1 X152.558 Y141.563 E0.03289
G1 X151.956 Y141.965 E0.02270
G1 X151.241 Y142.347 E0.02544
G1 X150.656 Y142.878 E0.02476
G1 X150.356 Y143.110 E0.01188
G1 X149.490 Y143.684 E0.03259
G1 X148.887 Y144.047 E0.02205
G1 X148.553 Y144.220 E0.01181
G1 X147.821 Y144.528 E0.02488
G1 X147.189 Y145.007 E0.02488
G1 X146.871 Y145.211 E0.01185
G1 X146.129 Y145.617 E0.02653
G1 X145.325 Y146.014 E0.02810
G1 X144.975 Y146.158 E0.01185
G1 X144.223 Y146.399 E0.02476
G1 X143.534 Y146.827 E0.02544
G1 X142.885 Y147.148 E0.02270
G1 X141.915 Y147.548 E0.03289
G1 X139.555 Y148.376 E0.07844
G1 X139.291 Y148.494 E0.00907
G1 X138.515 Y148.740 E0.02551
G1 X138.100 Y148.834 E0.01336
G1 X137.297 Y148.952 E0.02545
G1 X137.040 Y148.628 E0.01295
G1 X136.740 Y149.268 E0.02218
G1 X135.377 Y149.282 E0.04274
G1 X134.902 Y149.252 E0.01492
G1 X134.338 Y149.176 E0.01785
G1 X134.107 Y149.834 E0.02184
G1 X132.707 Y150.133 E0.04490
G1 X131.678 Y150.296 E0.03268
G1 X130.979 Y150.371 E0.02203
G1 X130.130 Y150.421 E0.02665
G1 X130.104 Y150.364 E0.00197
G1 X129.248 Y150.554 E0.02749
G1 X128.477 Y150.651 E0.02436
G1 X127.692 Y150.672 E0.02462
G1 X126.944 Y150.601 E0.02356
G1 X126.805 Y150.376 E0.00830
G1 X126.656 Y150.715 E0.01161
G1 X125.804 Y150.771 E0.02679
G1 X125.000 Y150.785 E0.02520
G1 X124.196 Y150.771 E0.02520
G1 X123.344 Y150.715 E0.02679
G1 X123.195 Y150.376 E0.01161
G1 X123.056 Y150.601 E0.00830
G1 X122.318 Y150.671 E0.02325
G1 X121.908 Y150.674 E0.01285
G1 X121.178 Y150.621 E0.02293
G1 X120.743 Y150.552 E0.01384
G1 X119.896 Y150.364 E0.02719
G1 X119.870 Y150.421 E0.00198
G1 X119.021 Y150.371 E0.02665
G1 X118.322 Y150.296 E0.02203
G1 X117.293 Y150.133 E0.03268
G1 X115.893 Y149.834 E0.04490
G1 X115.662 Y149.176 E0.02184
G1 X115.098 Y149.252 E0.01785
G1 X114.623 Y149.282 E0.01492
G1 X113.260 Y149.268 E0.04274
G1 X112.960 Y148.628 E0.02218
G1 X112.703 Y148.952 E0.01295
G1 X111.900 Y148.834 E0.02545
G1 X111.485 Y148.740 E0.01336
G1 X110.709 Y148.494 E0.02551
G1 X110.445 Y148.376 E0.00907
G1 X108.085 Y147.548 E0.07844
G1 X107.115 Y147.148 E0.03289
G1 X106.466 Y146.827 E0.02270
G1 X105.777 Y146.399 E0.02544
G1 X105.024 Y146.158 E0.02477
G1 X104.674 Y146.014 E0.01188
G1 X103.743 Y145.551 E0.03259
G1 X103.128 Y145.210 E0.02205
G1 X102.811 Y145.007 E0.01181
G1 X102.179 Y144.528 E0.02488
G1 X101.447 Y144.220 E0.02488
G1 X101.112 Y144.046 E0.01185
G1 X100.389 Y143.607 E0.02653
G1 X99.643 Y143.109 E0.02810
G1 X99.344 Y142.878 E0.01185
G1 X98.759 Y142.347 E0.02476
G1 X98.044 Y141.965 E0.02544
G1 X97.442 Y141.563 E0.02270
G1 X96.610 Y140.923 E0.03289
G1 X94.713 Y139.293 E0.07844
G1 X94.478 Y139.123 E0.00907
G1 X93.878 Y138.574 E0.02551
G1 X93.588 Y138.262 E0.01336
G1 X93.085 Y137.625 E0.02545
G1 X93.237 Y137.241 E0.01295
G1 X92.538 Y137.301 E0.02201
G1 X92.059 Y136.514 E0.02886
G1 X91.631 Y135.709 E0.02861
G1 X91.411 Y135.175 E0.01811
G1 X90.727 Y135.304 E0.02184
G1 X89.767 Y134.241 E0.04490
G1 X89.111 Y133.431 E0.03268
G1 X88.697 Y132.864 E0.02203
G1 X88.229 Y132.154 E0.02665
G1 X88.261 Y132.109 E0.00171
G1 X87.432 Y131.159 E0.03953
G1 X86.992 Y130.516 E0.02443
G1 X86.789 Y130.158 E0.01288
G1 X86.481 Y129.484 E0.02325
G1 X86.606 Y129.251 E0.00830
G1 X86.238 Y129.292 E0.01161
G1 X85.763 Y128.582 E0.02679
G1 X85.349 Y127.893 E0.02520
G1 X84.959 Y127.190 E0.02520
G1 X84.582 Y126.423 E0.02679
G1 X84.801 Y126.124 E0.01161
G1 X84.536 Y126.117 E0.00830
G1 X84.107 Y125.512 E0.02325
G1 X83.899 Y125.159 E0.01285
G1 X83.580 Y124.501 E0.02293
G1 X83.422 Y124.089 E0.01384
G1 X83.162 Y123.262 E0.02719
G1 X83.099 Y123.268 E0.00198
G1 X82.718 Y122.508 E0.02665
G1 X82.433 Y121.865 E0.02203
G1 X82.060 Y120.892 E0.03268
G1 X81.619 Y119.530 E0.04490
G1 X82.073 Y119.002 E0.02184
G1 X81.721 Y118.544 E0.01811
G1 X81.237 Y117.770 E0.02861
G1 X80.796 Y116.963 E0.02886
G1 X81.197 Y116.387 E0.02201
G1 X80.788 Y116.327 E0.01295
G1 X80.489 Y115.573 E0.02545
G1 X80.363 Y115.166 E0.01336
G1 X80.188 Y114.371 E0.02551
G1 X80.158 Y114.083 E0.00907
G1 X79.695 Y111.625 E0.07844
G1 X79.557 Y110.585 E0.03289
G1 X79.510 Y109.862 E0.02270
G1 X79.536 Y109.051 E0.02544
G1 X79.369 Y108.280 E0.02477
G1 X79.318 Y107.904 E0.01188
G1 X79.254 Y106.867 E0.03259
G1 X79.241 Y106.163 E0.02205
G1 X79.258 Y105.787 E0.01181
G1 X79.358 Y105.000 E0.02488
G1 X79.258 Y104.207 E0.02507
G1 X79.240 Y103.487 E0.02258
G1 X79.286 Y102.442 E0.03279
G1 X79.367 Y101.726 E0.02258
G1 X79.536 Y100.949 E0.02496
G1 X79.510 Y100.138 E0.02544
G1 X79.557 Y99.415 E0.02270
G1 X79.695 Y98.378 E0.03281
G1 X80.158 Y95.917 E0.07852
G1 X80.188 Y95.629 E0.00907
G1 X80.363 Y94.834 E0.02551
G1 X80.489 Y94.427 E0.01336
G1 X80.788 Y93.673 E0.02545
G1 X81.197 Y93.613 E0.01295
G1 X80.792 Y93.033 E0.02218
G1 X81.462 Y91.846 E0.04274
G1 X81.726 Y91.449 E0.01492
G1 X82.073 Y90.998 E0.01785
G1 X81.619 Y90.470 E0.02184
G1 X82.060 Y89.108 E0.04490
G1 X82.433 Y88.135 E0.03268
G1 X82.718 Y87.492 E0.02203
G1 X83.099 Y86.732 E0.02665
G1 X83.161 Y86.738 E0.00197
G1 X83.425 Y85.902 E0.02749
G1 X83.726 Y85.186 E0.02436
G1 X84.101 Y84.496 E0.02462
G1 X84.536 Y83.883 E0.02356
G1 X84.801 Y83.876 E0.00830
G1 X84.578 Y83.572 E0.01180
G1 X85.149 Y82.455 E0.03932
G1 X85.762 Y81.420 E0.03773
G1 X86.238 Y80.708 E0.02685
G1 X86.606 Y80.749 E0.01161
G1 X86.481 Y80.516 E0.00830
G1 X86.793 Y79.833 E0.02356
G1 X87.204 Y79.163 E0.02462
G1 X87.673 Y78.544 E0.02436
G1 X88.265 Y77.898 E0.02749
G1 X88.229 Y77.846 E0.00197
G1 X88.697 Y77.136 E0.02665
G1 X89.111 Y76.569 E0.02203
G1 X89.765 Y75.761 E0.03258
G1 X90.733 Y74.697 E0.04511
G1 X91.411 Y74.825 E0.02162
G1 X91.631 Y74.291 E0.01811
G1 X92.059 Y73.486 E0.02861
G1 X92.506 Y72.750 E0.02698
G1 F8640.000
G1 X93.237 Y72.759 E-0.16873
G1 X93.085 Y72.375 E-0.09534
G1 X93.588 Y71.738 E-0.18740
G1 X93.875 Y71.429 E-0.09752
G1 X94.171 Y71.151 E-0.09372
G1 X94.481 Y70.875 E-0.09584
G1 X94.557 Y70.820 E-0.02146
G1 E-0.04000 F2100.00000
G1 Z0.600 F10800.000
G1 X123.954 Y103.189
G1 Z0.200
G1 E0.80000 F2100.00000
G1 F1200.000
G1 X126.046 Y103.189 E0.06558
G1 X127.092 Y105.000 E0.06558
G1 X126.046 Y106.811 E0.06558
G1 X123.954 Y106.811 E0.06558
G1 X122.908 Y105.000 E0.06558
G1 X123.924 Y103.241 E0.06370
G1 X123.954 Y102.789 F10800.000
G1 F8640.000
G1 X126.046 Y103.189 E-0.49005
G1 X126.630 Y104.201 E-0.26995
G1 E-0.04000 F2100.00000
G1 Z0.600 F10800.000
G1 X126.372 Y103.000
G1 Z0.200
G1 E0.80000 F2100.00000
G1 F1200.000
G1 X127.418 Y101.189 E0.06558
G1 X129.510 Y101.189 E0.06558
G1 X130.556 Y103.000 E0.06558
G1 X129.510 Y104.811 E0.06558
G1 X127.418 Y104.811 E0.06558
G1 X126.402 Y103.052 E0.06370
G1 X126.026 Y102.800 F10800.000
G1 X126.046 Y102.811
G1 F1200.000
G1 X123.954 Y102.811 E0.06558
G1 X122.908 Y101.000 E0.06558
G1 X123.954 Y99.189 E0.06558
G1 X126.046 Y99.189 E0.06558
G1 X127.092 Y101.000 E0.06558
G1 X126.076 Y102.759 E0.06370
G1 X126.046 Y103.211 F10800.000
G1 F8640.000
G1 X123.954 Y102.811 E-0.49005
G1 X123.370 Y101.799 E-0.26995
G1 E-0.04000 F2100.00000
G1 Z0.600 F10800.000
G1 X127.418 Y100.811
G1 Z0.200
G1 E0.80000 F2100.00000
G1 F1200.000
G1 X126.372 Y99.000 E0.06558
G1 X127.418 Y97.189 E0.06558
G1 X129.510 Y97.189 E0.06558
G1 X130.556 Y99.000 E0.06558
G1 X129.510 Y100.811 E0.06558
G1 X127.478 Y100.811 E0.06370
G1 X127.072 Y101.011 F10800.000
G1 F8640.000
G1 X126.372 Y99.000 E-0.49005
G1 X126.957 Y97.988 E-0.26995
