( Made using CamBam - http://www.cambam.co.uk )
( Uwe_60 1/25/2022 1:30:31 PM )
( Post processor: Default )
( T3 : 3.0 )
( T15 : 1.5 )
G21 G90 G64 G40
G0 Z3.0
( T3 : 3.0 )
T3 M6
( Ring )
G17
M3 S1000
G0 X118.5 Y0.0
G0 Z1.0
G1 F300.0 Z-2.0
G2 F800.0 X-59.25 Y-102.624 I-118.5 J0.0
G2 Y102.624 I59.25 J102.624
G2 X118.5 Y0.0 I59.25 J-102.624
G1 F300.0 X117.5
G3 F800.0 X-58.75 Y101.758 I-117.5 J0.0
G3 Y-101.758 I58.75 J-101.758
G3 X117.5 Y0.0 I58.75 J101.758
G1 F300.0 Z-4.0
G3 F800.0 X-58.75 Y101.758 I-117.5 J0.0
G3 Y-101.758 I58.75 J-101.758
G3 X117.5 Y0.0 I58.75 J101.758
G1 F300.0 X118.5
G2 F800.0 X-59.25 Y-102.624 I-118.5 J0.0
G2 Y102.624 I59.25 J102.624
G2 X118.5 Y0.0 I59.25 J-102.624
( Uwe_60_3mm )
S1000
G0 Z3.0
G0 X-11.95 Y-18.6625
G0 Z1.0
G1 F300.0 Z-2.0
G3 F800.0 X-10.6793 Y-15.1671 I-16.4936 J7.9746
G1 Y-15.1669
G3 X-9.8834 Y-8.528 I-25.4691 J6.4204
G3 X-10.7572 Y-2.7509 I-17.9658 J0.2373
G3 X-10.7634 Y-2.7317 I-3.7077 J-1.2017
G3 X-14.465 Y2.8327 I-11.9664 J-3.9469
G3 X-14.5256 Y2.8843 I-2.5565 J-2.9421
G3 X-20.7907 Y5.9673 I-9.4961 J-11.39
G3 X-26.7759 Y6.6186 I-5.7328 J-24.8554
G3 X-28.9103 Y6.5296 I-0.2583 J-19.4365
G2 X-28.8726 Y6.5412 I12.85 J-41.4755
G3 X-28.7805 Y6.5709 I-1.1508 J3.7263
G2 X-25.5178 Y7.189 I3.871 J-11.5131
G2 X-18.8654 Y6.2657 I0.2499 J-22.6267
G2 X-13.6647 Y3.1999 I-3.5807 J-12.018
G2 X-10.612 Y-1.9035 I-8.9454 J-8.8156
G2 X-9.6828 Y-8.464 I-20.6055 J-6.2645
G3 X-9.683 Y-8.5614 I3.8996 J-0.0536
G2 X-10.7571 Y-15.8584 I-23.5244 J-0.2646
G2 X-11.95 Y-18.6625 I-16.0237 J5.1607
G0 Z3.0
G0 X-39.344 Y3.7874
G0 Z1.0
G1 F300.0 Z-2.0
G3 F800.0 X-40.6609 Y2.9783 I49.6608 J-82.3112
G2 X-40.2409 Y4.6625 I37.9877 J-8.581
G3 X-39.344 Y3.7874 I3.983 J3.1852
G1 F300.0 X-38.6178 Y4.7428
G3 F800.0 X-36.6623 Y3.9687 I2.36 J3.1049
G3 X-40.5616 Y1.6226 I46.9792 J-82.4925
G3 X-42.3449 Y-1.2244 I2.0889 J-3.2906
G3 X-42.6163 Y-5.9176 I41.5078 J-4.7548
G3 X-42.0469 Y-12.7347 I38.0252 J-0.2561
G3 X-39.7363 Y-19.6686 I23.7955 J4.0776
G3 X-35.4456 Y-24.8707 I13.4147 J6.6939
G2 X-39.227 Y-21.0506 I6.602 J10.3166
G3 X-39.2326 Y-21.0417 I-3.3062 J-2.0686
G2 X-42.0269 Y-14.0536 I17.6543 J11.112
G3 X-42.0301 Y-14.0376 I-3.823 J-0.771
G2 X-42.8169 Y-5.9678 I37.5377 J7.7333
G3 Y-5.9043 I-3.8998 J0.0342
G2 X-39.4338 Y10.5302 I40.1437 J0.3017
G3 X-39.9478 Y9.1103 I40.0502 J-15.3004
G3 X-38.6178 Y4.7428 I3.6899 J-1.2626
G0 Z3.0
G0 X-31.0798 Y22.9574
G0 Z1.0
G1 F300.0 Z-2.0
G2 F800.0 X-27.6623 Y26.3164 I39.3899 J-36.6587
G3 X-27.4973 Y26.4737 I-2.6072 J2.9004
G1 X-23.6693 Y30.3424
G2 X-23.1314 Y30.8401 I11.1688 J-11.5304
G2 X-24.9173 Y28.9689 I-29.7805 J26.6347
G1 X-31.0798 Y22.9574
G0 Z3.0
G0 X-29.0836 Y5.3048
G0 Z1.0
G1 F300.0 Z-2.0
G3 F800.0 X-34.1525 Y3.9739 I2.0494 J-18.1227
G3 X-34.3862 Y3.8613 I1.0528 J-2.4837
G3 X-39.9184 Y0.6095 I44.703 J-82.3851
G3 X-41.1527 Y-1.361 I1.4458 J-2.2775
G3 X-41.4163 Y-5.9225 I40.3156 J-4.6182
G3 X-40.8645 Y-12.5299 I36.8252 J-0.2511
G3 X-38.6654 Y-19.1271 I22.6131 J3.8727
G3 X-33.7384 Y-24.6028 I12.3439 J6.1524
G3 X-33.6526 Y-24.6553 I1.4507 J2.2743
G3 X-26.5281 Y-26.5145 I6.854 J11.6848
G3 X-20.1424 Y-25.2624 I0.2153 J15.8118
G3 X-20.0955 Y-25.2419 I-1.0526 J2.4838
G3 X-14.7856 Y-21.0109 I-5.5287 J12.3858
G3 X-11.8429 Y-14.8737 I-13.658 J10.323
G1 Y-14.8736
G3 X-11.0835 Y-8.525 I-24.3055 J6.127
G3 X-11.8987 Y-3.1209 I-16.7658 J0.2343
G3 X-11.903 Y-3.1076 I-2.5662 J-0.8317
G3 X-15.2521 Y1.9269 I-10.8267 J-3.571
G3 X-15.294 Y1.9626 I-1.7694 J-2.0363
G3 X-21.0563 Y4.7971 I-8.7277 J-10.4683
G3 X-26.778 Y5.4185 I-5.4672 J-23.6851
G3 X-29.0836 Y5.3048 I-0.2562 J-18.2364
G1 F300.0 X-28.949 Y4.1148
G3 F800.0 X-33.685 Y2.8713 I1.9148 J-16.9327
G3 X-33.815 Y2.8087 I0.5854 J-1.381
G3 X-39.2766 Y-0.4016 I44.1319 J-81.3325
G3 X-39.9629 Y-1.4973 I0.8039 J-1.2664
G3 X-40.2187 Y-5.9274 I39.1257 J-4.4819
G3 X-39.6845 Y-12.3255 I35.6276 J-0.2462
G3 X-37.5966 Y-18.5867 I21.433 J3.6683
G3 X-33.0943 Y-23.5931 I11.2751 J5.6121
G3 X-33.0466 Y-23.6223 I0.8066 J1.2646
G3 X-26.532 Y-25.3167 I6.248 J10.6518
G3 X-20.6097 Y-24.1597 I0.2192 J14.6141
G3 X-20.5836 Y-24.1483 I-0.5853 J1.3811
G3 X-15.7418 Y-20.2898 I-5.0405 J11.2922
G3 X-13.0041 Y-14.5809 I-12.7018 J9.6019
G1 Y-14.5808
G3 X-12.2811 Y-8.5218 I-23.1442 J5.8343
G3 X-13.038 Y-3.4901 I-15.5681 J0.2311
G3 X-13.0404 Y-3.4827 I-1.4269 J-0.4625
G3 X-16.0376 Y1.0229 I-9.6894 J-3.1959
G3 X-16.0609 Y1.0427 I-0.9839 J-1.1323
G3 X-21.3212 Y3.6291 I-7.9608 J-9.5484
G3 X-26.7802 Y4.2208 I-5.2023 J-22.5172
G3 X-28.949 Y4.1148 I-0.254 J-17.0387
G0 Z3.0
G0 X-30.0421 Y7.4274
G0 Z1.0
G1 F300.0 Z-2.0
G2 F800.0 X-29.2267 Y7.6878 I13.9818 J-42.3734
G3 X-29.163 Y7.7084 I-0.7967 J2.5798
G2 X-25.5542 Y8.3887 I4.2535 J-12.6505
G2 X-18.5243 Y7.4162 I0.2863 J-23.8264
G2 X-12.8172 Y4.0495 I-3.9218 J-13.1685
G2 X-9.4648 Y-1.5517 I-9.7929 J-9.6651
G2 X-8.4829 Y-8.4805 I-21.7527 J-6.6164
G3 X-8.483 Y-8.5479 I2.6997 J-0.0371
G2 X-9.6134 Y-16.2217 I-24.7243 J-0.2781
G2 X-13.3336 Y-22.7146 I-17.1674 J5.524
G3 X-13.3409 Y-22.7228 I2.0133 J-1.7991
G2 X-19.3225 Y-26.9352 I-11.904 J10.5505
G2 X-26.745 Y-28.2534 I-7.1402 J18.6491
G3 X-26.8406 Y-28.2537 I-0.0382 J-2.6997
G2 X-34.5968 Y-26.7095 I-0.3893 J18.2954
G2 X-40.2443 Y-21.6871 I5.7532 J12.1554
G3 X-40.2482 Y-21.6809 I-2.2889 J-1.4321
G2 X-43.2032 Y-14.2908 I18.6698 J11.7513
G3 X-43.2054 Y-14.2798 I-2.6467 J-0.5338
G2 X-44.0169 Y-5.9573 I38.713 J7.9754
G3 Y-5.9133 I-2.6999 J0.0237
G2 X-39.9479 Y12.2858 I41.3437 J0.3107
G2 X-34.9643 Y20.2595 I39.8712 J-19.3752
G2 X-28.4645 Y27.2088 I43.2744 J-33.9608
G3 X-28.3503 Y27.3177 I-1.805 J2.008
G1 X-24.5135 Y31.1953
G2 X-22.8581 Y32.6098 I12.013 J-12.3833
G2 X-22.131 Y33.0671 I3.2694 J-4.3915
G3 X-22.0663 Y33.1022 I-1.2538 J2.3912
G2 X-22.0317 Y33.1171 I0.0891 J-0.1592
G2 X-21.1981 Y32.7333 I-0.093 J-1.2992
G3 X-21.0666 Y32.6089 I1.9207 J1.8976
G2 X-20.7317 Y32.0436 I-0.7103 J-0.8027
G2 X-22.0187 Y30.285 I-8.2928 J4.7188
G3 X-22.0603 Y30.2389 I1.9825 J-1.833
G2 X-24.078 Y28.1113 I-30.8516 J27.2359
G1 X-32.442 Y19.9523
G3 X-32.5127 Y19.8806 I1.8854 J-1.9327
G3 X-36.3467 Y14.4753 I16.7768 J-15.9623
G3 X-38.8124 Y8.7218 I36.9631 J-19.2455
G3 X-35.1054 Y5.406 I2.5546 J-0.8741
G2 X-30.0421 Y7.4274 I19.0451 J-40.3519
G1 F300.0 X-30.4181 Y8.567
G2 F800.0 X-29.5808 Y8.8344 I14.3578 J-43.5129
G3 X-29.5454 Y8.8458 I-0.4426 J1.4332
G2 X-25.5902 Y9.5884 I4.6359 J-13.788
G2 X-18.1832 Y8.5668 I0.3223 J-25.026
G2 X-11.9696 Y4.899 I-4.2628 J-14.319
G2 X-8.3175 Y-1.1999 I-10.6405 J-10.5146
G2 X-7.2831 Y-8.497 I-22.9 J-6.9682
G3 Y-8.5344 I1.4999 J-0.0206
G2 X-8.4697 Y-16.5849 I-25.9243 J-0.2916
G2 X-12.4388 Y-23.5142 I-18.3111 J5.8873
G3 X-12.4429 Y-23.5188 I1.1185 J-0.9995
G2 X-18.8846 Y-28.0525 I-12.802 J11.3464
G2 X-26.762 Y-29.4533 I-7.5781 J19.7663
G3 X-26.8151 Y-29.4535 I-0.0212 J-1.4999
G2 X-35.0951 Y-27.8013 I-0.4149 J19.4951
G2 X-41.2616 Y-22.3235 I6.2515 J13.2472
G3 X-41.2637 Y-22.3201 I-1.2716 J-0.7956
G2 X-44.3795 Y-14.528 I19.6854 J12.3905
G3 X-44.3808 Y-14.5219 I-1.4704 J-0.2965
G2 X-45.2169 Y-5.9468 I39.8883 J8.2175
G3 X-45.2168 Y-5.9223 I-1.4999 J0.0132
G2 X-41.0285 Y12.8076 I42.5437 J0.3197
G2 X-35.9085 Y21.0001 I40.9518 J-19.8971
G2 X-29.2668 Y28.1013 I44.2186 J-34.7013
G3 X-29.2033 Y28.1618 I-1.0028 J1.1155
G1 X-25.358 Y32.0479
G2 X-23.5767 Y33.5709 I12.8575 J-13.2359
G2 X-22.6882 Y34.1299 I3.988 J-5.3526
G3 X-22.6523 Y34.1494 I-0.6965 J1.3285
G2 X-22.0967 Y34.3202 I0.6751 J-1.2064
G2 X-20.3444 Y33.5766 I-0.028 J-2.5024
G3 X-20.2714 Y33.5075 I1.0671 J1.0542
G2 X-19.5064 Y31.8834 I-1.5056 J-1.7014
G2 X-19.5558 Y31.6908 I-0.5053 J0.0271
G2 X-21.1376 Y29.4704 I-9.4686 J5.0716
G3 X-21.1607 Y29.4448 I1.1014 J-1.0183
G2 X-23.2386 Y27.2537 I-31.7512 J28.0301
G1 X-31.6041 Y19.0933
G3 X-31.6434 Y19.0535 I1.0474 J-1.0737
G3 X-35.2805 Y13.9247 I15.9074 J-15.1351
G3 X-37.677 Y8.3333 I35.8969 J-18.6949
G3 X-35.6176 Y6.4912 I1.4192 J-0.4856
G2 X-30.4181 Y8.567 I19.5573 J-41.4371
G0 Z3.0
G0 X-28.9103 Y6.5296
G0 Z-1.0
G1 F300.0 Z-4.0
G2 F800.0 X-28.8726 Y6.5412 I12.85 J-41.4755
G3 X-28.7805 Y6.5709 I-1.1508 J3.7263
G2 X-25.5178 Y7.189 I3.871 J-11.5131
G2 X-18.8654 Y6.2657 I0.2499 J-22.6267
G2 X-13.6647 Y3.1999 I-3.5807 J-12.018
G2 X-10.612 Y-1.9035 I-8.9454 J-8.8156
G2 X-9.6828 Y-8.464 I-20.6055 J-6.2645
G3 X-9.683 Y-8.5614 I3.8996 J-0.0536
G2 X-10.7571 Y-15.8584 I-23.5244 J-0.2646
G2 X-11.95 Y-18.6625 I-16.0237 J5.1607
G3 X-10.6793 Y-15.1671 I-16.4936 J7.9746
G1 Y-15.1669
G3 X-9.8834 Y-8.528 I-25.4691 J6.4204
G3 X-10.7572 Y-2.7509 I-17.9658 J0.2373
G3 X-10.7634 Y-2.7317 I-3.7077 J-1.2017
G3 X-14.465 Y2.8327 I-11.9664 J-3.9469
G3 X-14.5256 Y2.8843 I-2.5565 J-2.9421
G3 X-20.7907 Y5.9673 I-9.4961 J-11.39
G3 X-26.7759 Y6.6186 I-5.7328 J-24.8554
G3 X-28.9103 Y6.5296 I-0.2583 J-19.4365
G0 Z3.0
G0 X-39.344 Y3.7874
G0 Z-1.0
G1 F300.0 Z-4.0
G3 F800.0 X-40.6609 Y2.9783 I49.6608 J-82.3112
G2 X-40.2409 Y4.6625 I37.9877 J-8.581
G3 X-39.344 Y3.7874 I3.983 J3.1852
G1 F300.0 X-38.6178 Y4.7428
G3 F800.0 X-36.6623 Y3.9687 I2.36 J3.1049
G3 X-40.5616 Y1.6226 I46.9792 J-82.4925
G3 X-42.3449 Y-1.2244 I2.0889 J-3.2906
G3 X-42.6163 Y-5.9176 I41.5078 J-4.7548
G3 X-42.0469 Y-12.7347 I38.0252 J-0.2561
G3 X-39.7363 Y-19.6686 I23.7955 J4.0776
G3 X-35.4456 Y-24.8707 I13.4147 J6.6939
G2 X-39.227 Y-21.0506 I6.602 J10.3166
G3 X-39.2326 Y-21.0417 I-3.3062 J-2.0686
G2 X-42.0269 Y-14.0536 I17.6543 J11.112
G3 X-42.0301 Y-14.0376 I-3.823 J-0.771
G2 X-42.8169 Y-5.9678 I37.5377 J7.7333
G3 Y-5.9043 I-3.8998 J0.0342
G2 X-39.4338 Y10.5302 I40.1437 J0.3017
G3 X-39.9478 Y9.1103 I40.0502 J-15.3004
G3 X-38.6178 Y4.7428 I3.6899 J-1.2626
G0 Z3.0
G0 X-31.0798 Y22.9574
G0 Z-1.0
G1 F300.0 Z-4.0
G2 F800.0 X-27.6623 Y26.3164 I39.3899 J-36.6587
G3 X-27.4973 Y26.4737 I-2.6072 J2.9004
G1 X-23.6693 Y30.3424
G2 X-23.1314 Y30.8401 I11.1688 J-11.5304
G2 X-24.9173 Y28.9689 I-29.7805 J26.6347
G1 X-31.0798 Y22.9574
G0 Z3.0
G0 X-29.0836 Y5.3048
G0 Z-1.0
G1 F300.0 Z-4.0
G3 F800.0 X-34.1525 Y3.9739 I2.0494 J-18.1227
G3 X-34.3862 Y3.8613 I1.0528 J-2.4837
G3 X-39.9184 Y0.6095 I44.703 J-82.3851
G3 X-41.1527 Y-1.361 I1.4458 J-2.2775
G3 X-41.4163 Y-5.9225 I40.3156 J-4.6182
G3 X-40.8645 Y-12.5299 I36.8252 J-0.2511
G3 X-38.6654 Y-19.1271 I22.6131 J3.8727
G3 X-33.7384 Y-24.6028 I12.3439 J6.1524
G3 X-33.6526 Y-24.6553 I1.4507 J2.2743
G3 X-26.5281 Y-26.5145 I6.854 J11.6848
G3 X-20.1424 Y-25.2624 I0.2153 J15.8118
G3 X-20.0955 Y-25.2419 I-1.0526 J2.4838
G3 X-14.7856 Y-21.0109 I-5.5287 J12.3858
G3 X-11.8429 Y-14.8737 I-13.658 J10.323
G1 Y-14.8736
G3 X-11.0835 Y-8.525 I-24.3055 J6.127
G3 X-11.8987 Y-3.1209 I-16.7658 J0.2343
G3 X-11.903 Y-3.1076 I-2.5662 J-0.8317
G3 X-15.2521 Y1.9269 I-10.8267 J-3.571
G3 X-15.294 Y1.9626 I-1.7694 J-2.0363
G3 X-21.0563 Y4.7971 I-8.7277 J-10.4683
G3 X-26.778 Y5.4185 I-5.4672 J-23.6851
G3 X-29.0836 Y5.3048 I-0.2562 J-18.2364
G1 F300.0 X-28.949 Y4.1148
G3 F800.0 X-33.685 Y2.8713 I1.9148 J-16.9327
G3 X-33.815 Y2.8087 I0.5854 J-1.381
G3 X-39.2766 Y-0.4016 I44.1319 J-81.3325
G3 X-39.9629 Y-1.4973 I0.8039 J-1.2664
G3 X-40.2187 Y-5.9274 I39.1257 J-4.4819
G3 X-39.6845 Y-12.3255 I35.6276 J-0.2462
G3 X-37.5966 Y-18.5867 I21.433 J3.6683
G3 X-33.0943 Y-23.5931 I11.2751 J5.6121
G3 X-33.0466 Y-23.6223 I0.8066 J1.2646
G3 X-26.532 Y-25.3167 I6.248 J10.6518
G3 X-20.6097 Y-24.1597 I0.2192 J14.6141
G3 X-20.5836 Y-24.1483 I-0.5853 J1.3811
G3 X-15.7418 Y-20.2898 I-5.0405 J11.2922
G3 X-13.0041 Y-14.5809 I-12.7018 J9.6019
G1 Y-14.5808
G3 X-12.2811 Y-8.5218 I-23.1442 J5.8343
G3 X-13.038 Y-3.4901 I-15.5681 J0.2311
G3 X-13.0404 Y-3.4827 I-1.4269 J-0.4625
G3 X-16.0376 Y1.0229 I-9.6894 J-3.1959
G3 X-16.0609 Y1.0427 I-0.9839 J-1.1323
G3 X-21.3212 Y3.6291 I-7.9608 J-9.5484
G3 X-26.7802 Y4.2208 I-5.2023 J-22.5172
G3 X-28.949 Y4.1148 I-0.254 J-17.0387
G0 Z3.0
G0 X-30.0421 Y7.4274
G0 Z-1.0
G1 F300.0 Z-4.0
G2 F800.0 X-29.2267 Y7.6878 I13.9818 J-42.3734
G3 X-29.163 Y7.7084 I-0.7967 J2.5798
G2 X-25.5542 Y8.3887 I4.2535 J-12.6505
G2 X-18.5243 Y7.4162 I0.2863 J-23.8264
G2 X-12.8172 Y4.0495 I-3.9218 J-13.1685
G2 X-9.4648 Y-1.5517 I-9.7929 J-9.6651
G2 X-8.4829 Y-8.4805 I-21.7527 J-6.6164
G3 X-8.483 Y-8.5479 I2.6997 J-0.0371
G2 X-9.6134 Y-16.2217 I-24.7243 J-0.2781
G2 X-13.3336 Y-22.7146 I-17.1674 J5.524
G3 X-13.3409 Y-22.7228 I2.0133 J-1.7991
G2 X-19.3225 Y-26.9352 I-11.904 J10.5505
G2 X-26.745 Y-28.2534 I-7.1402 J18.6491
G3 X-26.8406 Y-28.2537 I-0.0382 J-2.6997
G2 X-34.5968 Y-26.7095 I-0.3893 J18.2954
G2 X-40.2443 Y-21.6871 I5.7532 J12.1554
G3 X-40.2482 Y-21.6809 I-2.2889 J-1.4321
G2 X-43.2032 Y-14.2908 I18.6698 J11.7513
G3 X-43.2054 Y-14.2798 I-2.6467 J-0.5338
G2 X-44.0169 Y-5.9573 I38.713 J7.9754
G3 Y-5.9133 I-2.6999 J0.0237
G2 X-39.9479 Y12.2858 I41.3437 J0.3107
G2 X-34.9643 Y20.2595 I39.8712 J-19.3752
G2 X-28.4645 Y27.2088 I43.2744 J-33.9608
G3 X-28.3503 Y27.3177 I-1.805 J2.008
G1 X-24.5135 Y31.1953
G2 X-22.8581 Y32.6098 I12.013 J-12.3833
G2 X-22.131 Y33.0671 I3.2694 J-4.3915
G3 X-22.0663 Y33.1022 I-1.2538 J2.3912
G2 X-22.0317 Y33.1171 I0.0891 J-0.1592
G2 X-21.1981 Y32.7333 I-0.093 J-1.2992
G3 X-21.0666 Y32.6089 I1.9207 J1.8976
G2 X-20.7317 Y32.0436 I-0.7103 J-0.8027
G2 X-22.0187 Y30.285 I-8.2928 J4.7188
G3 X-22.0603 Y30.2389 I1.9825 J-1.833
G2 X-24.078 Y28.1113 I-30.8516 J27.2359
G1 X-32.442 Y19.9523
G3 X-32.5127 Y19.8806 I1.8854 J-1.9327
G3 X-36.3467 Y14.4753 I16.7768 J-15.9623
G3 X-38.8124 Y8.7218 I36.9631 J-19.2455
G3 X-35.1054 Y5.406 I2.5546 J-0.8741
G2 X-30.0421 Y7.4274 I19.0451 J-40.3519
G1 F300.0 X-30.4181 Y8.567
G2 F800.0 X-29.5808 Y8.8344 I14.3578 J-43.5129
G3 X-29.5454 Y8.8458 I-0.4426 J1.4332
G2 X-25.5902 Y9.5884 I4.6359 J-13.788
G2 X-18.1832 Y8.5668 I0.3223 J-25.026
G2 X-11.9696 Y4.899 I-4.2628 J-14.319
G2 X-8.3175 Y-1.1999 I-10.6405 J-10.5146
G2 X-7.2831 Y-8.497 I-22.9 J-6.9682
G3 Y-8.5344 I1.4999 J-0.0206
G2 X-8.4697 Y-16.5849 I-25.9243 J-0.2916
G2 X-12.4388 Y-23.5142 I-18.3111 J5.8873
G3 X-12.4429 Y-23.5188 I1.1185 J-0.9995
G2 X-18.8846 Y-28.0525 I-12.802 J11.3464
G2 X-26.762 Y-29.4533 I-7.5781 J19.7663
G3 X-26.8151 Y-29.4535 I-0.0212 J-1.4999
G2 X-35.0951 Y-27.8013 I-0.4149 J19.4951
G2 X-41.2616 Y-22.3235 I6.2515 J13.2472
G3 X-41.2637 Y-22.3201 I-1.2716 J-0.7956
G2 X-44.3795 Y-14.528 I19.6854 J12.3905
G3 X-44.3808 Y-14.5219 I-1.4704 J-0.2965
G2 X-45.2169 Y-5.9468 I39.8883 J8.2175
G3 X-45.2168 Y-5.9223 I-1.4999 J0.0132
G2 X-41.0285 Y12.8076 I42.5437 J0.3197
G2 X-35.9085 Y21.0001 I40.9518 J-19.8971
G2 X-29.2668 Y28.1013 I44.2186 J-34.7013
G3 X-29.2033 Y28.1618 I-1.0028 J1.1155
G1 X-25.358 Y32.0479
G2 X-23.5767 Y33.5709 I12.8575 J-13.2359
G2 X-22.6882 Y34.1299 I3.988 J-5.3526
G3 X-22.6523 Y34.1494 I-0.6965 J1.3285
G2 X-22.0967 Y34.3202 I0.6751 J-1.2064
G2 X-20.3444 Y33.5766 I-0.028 J-2.5024
G3 X-20.2714 Y33.5075 I1.0671 J1.0542
G2 X-19.5064 Y31.8834 I-1.5056 J-1.7014
G2 X-19.5558 Y31.6908 I-0.5053 J0.0271
G2 X-21.1376 Y29.4704 I-9.4686 J5.0716
G3 X-21.1607 Y29.4448 I1.1014 J-1.0183
G2 X-23.2386 Y27.2537 I-31.7512 J28.0301
G1 X-31.6041 Y19.0933
G3 X-31.6434 Y19.0535 I1.0474 J-1.0737
G3 X-35.2805 Y13.9247 I15.9074 J-15.1351
G3 X-37.677 Y8.3333 I35.8969 J-18.6949
G3 X-35.6176 Y6.4912 I1.4192 J-0.4856
G2 X-30.4181 Y8.567 I19.5573 J-41.4371
G0 Z3.0
G0 X6.446 Y6.7843
G0 Z1.0
G1 F300.0 Z-2.0
G2 F800.0 X7.6008 Y14.4642 I38.4946 J-1.8615
G2 X11.4508 Y23.3061 I29.8875 J-7.7547
G3 X11.4515 Y23.3071 I-3.2887 J2.0963
G2 X14.3452 Y26.967 I19.352 J-12.3265
G3 X14.3576 Y26.9799 I-2.7975 J2.7173
G2 X26.2443 Y31.8803 I11.5269 J-11.0938
G3 X26.4024 Y31.8799 I0.0877 J3.899
G2 X34.0947 Y30.0403 I0.2855 J-15.8082
G2 X36.0699 Y28.7076 I-8.2257 J-14.3216
G3 X34.079 Y29.974 I-9.171 J-12.2195
G3 X33.9795 Y30.0252 I-1.8317 J-3.4404
G3 X26.2785 Y31.7613 I-7.4165 J-14.9491
G3 X16.9395 Y28.936 I-0.1724 J-16.2778
G3 X16.855 Y28.8768 I2.1948 J-3.2209
G3 X10.7816 Y21.9995 I12.1424 J-16.8433
G3 X6.5612 Y5.285 I28.8469 J-16.174
G3 X7.2695 Y-5.5664 I75.7472 J-0.504
G3 X7.2722 Y-5.5855 I3.8611 J0.5324
G3 X8.4428 Y-11.1624 I43.4783 J6.2149
G3 X10.6472 Y-16.7474 I27.0419 J7.4459
G3 X16.4223 Y-23.221 I15.2143 J7.76
G3 X16.539 Y-23.2954 I2.1541 J3.2482
G3 X25.0543 Y-25.623 I8.2561 J13.4638
G3 X35.5376 Y-21.8035 I0.3022 J15.4666
G3 X35.5736 Y-21.7716 I-2.5651 J2.9345
G3 X39.008 Y-17.6355 I-12.2357 J13.6539
G3 X41.1816 Y-13.1598 I-22.2993 J13.595
G3 X41.1886 Y-13.1409 I-3.6523 J1.3609
G3 X43.4798 Y-3.6642 I-40.1297 J14.718
G3 X44.052 Y5.6669 I-70.4774 J9.0044
G3 X43.3527 Y14.8503 I-54.832 J0.4431
G3 X43.349 Y14.873 I-3.8478 J-0.6213
G3 X42.1814 Y19.6213 I-32.138 J-5.3845
G3 X40.768 Y22.9931 I-20.9262 J-6.79
G2 X43.3947 Y16.3459 I-23.2386 J-13.0254
G2 X44.4575 Y7.2212 I-36.1897 J-8.8396
G3 X44.4576 Y7.1579 I3.8999 J-0.0298
G2 X43.4204 Y-6.3543 I-79.6243 J-0.6842
G2 X41.8413 Y-12.7077 I-42.8451 J7.2762
G3 X41.838 Y-12.7177 I3.7032 J-1.2231
G2 X39.2157 Y-18.3617 I-24.985 J8.1773
G3 X39.204 Y-18.3807 I3.3175 J-2.0504
G2 X33.3008 Y-23.9215 I-12.993 J7.9279
G2 X25.1422 Y-25.7005 I-7.7843 J16.1023
G3 X25.034 Y-25.6997 I-0.0816 J-3.8991
G2 X20.3589 Y-25.1467 I-0.1288 J18.9478
G2 X14.5282 Y-22.0867 I3.3329 J13.4357
G2 X10.3641 Y-16.5066 I12.5051 J13.6756
G2 X7.2489 Y-6.4189 I32.9221 J15.6917
G3 X7.2457 Y-6.3989 I-3.8537 J-0.5993
G2 X6.4019 Y4.6227 I65.8061 J10.5816
G3 Y4.6736 I-3.8999 J0.0257
G2 X6.446 Y6.7843 I38.5388 J0.2491
G1 F300.0 X7.77 Y6.746
G3 F800.0 X7.7612 Y5.2909 I31.8585 J-0.9206
G3 X8.4583 Y-5.4025 I74.5471 J-0.5098
G3 X8.4602 Y-5.4157 I2.6723 J0.3685
G3 X9.5993 Y-10.842 I42.2904 J6.0451
G3 X11.7131 Y-16.196 I25.8855 J7.1255
G3 X17.0856 Y-22.2209 I14.1485 J7.2086
G3 X17.1663 Y-22.2724 I1.4909 J2.2482
G3 X25.0562 Y-24.4228 I7.6288 J12.4408
G3 X34.7478 Y-20.9 I0.3003 J14.2664
G3 X34.7727 Y-20.878 I-1.7754 J2.031
G3 X37.9829 Y-17.0117 I-11.4349 J12.7602
G3 X40.0571 Y-12.7408 I-21.2742 J12.9712
G3 X40.0619 Y-12.7277 I-2.5278 J0.9419
G3 X42.2892 Y-3.5146 I-39.003 J14.3048
G3 X42.852 Y5.669 I-69.2868 J8.8547
G3 X42.1681 Y14.659 I-53.632 J0.441
G3 X42.1655 Y14.6748 I-2.6631 J-0.43
G3 X41.0405 Y19.2496 I-30.9545 J-5.1862
G3 X38.9741 Y23.7259 I-19.7852 J-6.4183
G3 X33.5151 Y28.9148 I-12.0752 J-7.2378
G3 X33.4462 Y28.9502 I-1.2678 J-2.3811
G3 X26.2824 Y30.5612 I-6.8831 J-13.8742
G3 X17.6152 Y27.9444 I-0.1763 J-15.0777
G3 X17.5567 Y27.9034 I1.519 J-2.2293
G3 X11.8314 Y21.4181 I11.4407 J-15.8699
G3 X7.77 Y6.746 I27.7971 J-15.5926
G1 F300.0 X8.9671 Y6.7115
G3 F800.0 X8.9589 Y5.2969 I30.6614 J-0.886
G3 X9.6447 Y-5.2389 I73.3494 J-0.5159
G3 X9.6457 Y-5.2463 I1.4859 J0.2049
G3 X10.7534 Y-10.5223 I41.1048 J5.8756
G3 X12.7769 Y-15.6459 I24.7313 J6.8058
G3 X17.7474 Y-21.2228 I13.0847 J6.6585
G3 X17.7923 Y-21.2515 I0.829 J1.2501
G3 X25.0581 Y-23.225 I7.0027 J11.4198
G3 X33.9596 Y-19.9983 I0.2984 J13.0685
G3 X33.9735 Y-19.9861 I-0.9872 J1.1294
G3 X36.9598 Y-16.3892 I-10.6357 J11.8683
G3 X38.9349 Y-12.3226 I-20.2511 J12.3487
G3 X38.9376 Y-12.3153 I-1.4056 J0.5238
G3 X41.1009 Y-3.3653 I-37.8787 J13.8924
G3 X41.6543 Y5.6711 I-68.0985 J8.7055
G3 X40.9858 Y14.4681 I-52.4344 J0.4389
G3 X40.9843 Y14.4769 I-1.4808 J-0.2391
G3 X39.9018 Y18.8786 I-29.7733 J-4.9883
G3 X37.9503 Y23.1044 I-18.6465 J-6.0473
G3 X32.9522 Y27.8577 I-11.0515 J-6.6163
G3 X32.9139 Y27.8774 I-0.7049 J-1.324
G3 X26.2862 Y29.3635 I-6.3509 J-12.8013
G3 X18.2896 Y26.9547 I-0.1801 J-13.8799
G3 X18.2571 Y26.9319 I0.8447 J-1.2396
G3 X12.8791 Y20.8379 I10.7403 J-14.8984
G3 X8.9671 Y6.7115 I26.7494 J-15.0124
G0 Z3.0
G0 X5.2501 Y6.8963
G0 Z1.0
G1 F300.0 Z-2.0
G2 F800.0 X6.4387 Y14.7634 I39.6905 J-1.9735
G2 X10.4389 Y23.9511 I31.0496 J-8.0539
G3 X10.4394 Y23.9518 I-2.2768 J1.4513
G2 X13.4844 Y27.8031 I20.3641 J-12.9712
G3 X13.493 Y27.8121 I-1.9368 J1.8812
G2 X26.2713 Y33.08 I12.3915 J-11.9259
G3 X26.3808 Y33.0797 I0.0607 J2.6993
G2 X34.6748 Y31.0909 I0.3071 J-17.008
G2 X40.8632 Y25.1538 I-8.8058 J-15.3723
G3 X40.8835 Y25.1221 I2.2852 J1.438
G2 X44.5601 Y16.6319 I-23.3541 J-15.1544
G2 X45.6575 Y7.2121 I-37.3551 J-9.1257
G3 Y7.1682 I2.6999 J-0.0207
G2 X44.6041 Y-6.5514 I-80.8242 J-0.6946
G2 X42.9808 Y-13.084 I-44.0288 J7.4733
G3 X42.9785 Y-13.0909 I2.5638 J-0.8468
G2 X40.2365 Y-18.9926 I-26.1255 J8.5505
G3 X40.2284 Y-19.0058 I2.2967 J-1.4195
G2 X33.8415 Y-24.993 I-14.0174 J8.5529
G2 X25.1171 Y-26.9002 I-8.325 J17.1737
G3 X25.0422 Y-26.8997 I-0.0565 J-2.6994
G2 X20.0705 Y-26.3115 I-0.137 J20.1478
G2 X13.7261 Y-22.9792 I3.6213 J14.6006
G2 X9.2828 Y-17.0269 I13.3073 J14.5682
G2 X6.0631 Y-6.6032 I34.0035 J16.212
G3 X6.061 Y-6.5895 I-2.6679 J-0.4149
G2 X5.2019 Y4.6306 I66.9908 J10.7721
G3 Y4.6659 I-2.6999 J0.0178
G2 X5.2501 Y6.8963 I39.7387 J0.2569
G1 F300.0 X4.0516 Y6.9559
G2 F800.0 X5.2767 Y15.0626 I40.8891 J-2.0331
G2 X9.427 Y24.5961 I32.2117 J-8.3531
G3 X9.4273 Y24.5965 I-1.2649 J0.8063
G2 X12.6236 Y28.6392 I21.3762 J-13.6159
G3 X12.6284 Y28.6442 I-1.076 J1.0451
G2 X26.2983 Y34.2797 I13.2561 J-12.758
G3 X26.3591 Y34.2795 I0.0337 J1.4996
G2 X35.2549 Y32.1416 I0.3288 J-18.2078
G2 X41.8789 Y25.7929 I-9.3859 J-16.4229
G3 X41.8901 Y25.7753 I1.2696 J0.7989
G2 X45.7255 Y16.9179 I-24.3607 J-15.8076
G2 X46.8575 Y7.2029 I-38.5206 J-9.4117
G3 Y7.1785 I1.5 J-0.0115
G2 X45.7878 Y-6.7485 I-82.0242 J-0.7049
G2 X44.1202 Y-13.4603 I-45.2125 J7.6703
G3 X44.119 Y-13.4642 I1.4243 J-0.4704
G2 X41.2572 Y-19.6235 I-27.2659 J8.9238
G3 X41.2527 Y-19.6308 I1.276 J-0.7886
G2 X34.3821 Y-26.0645 I-15.0418 J9.178
G2 X25.0919 Y-28.0999 I-8.8656 J18.2452
G3 X25.0503 Y-28.0996 I-0.0314 J-1.4997
G2 X19.7821 Y-27.4763 I-0.1452 J21.3478
G2 X12.9238 Y-23.8717 I3.9097 J15.7654
G2 X8.2014 Y-17.5471 I14.1095 J15.4607
G2 X4.8774 Y-6.7876 I35.0849 J16.7322
G3 X4.8762 Y-6.78 I-1.4822 J-0.2305
G2 X4.0019 Y4.6385 I68.1756 J10.9626
G3 Y4.6581 I-1.5 J0.0099
G2 X4.0516 Y6.9559 I40.9387 J0.2647
G0 Z3.0
G0 X6.4486 Y6.8367
G0 Z-1.0
G1 F300.0 Z-4.0
G2 F800.0 X7.6008 Y14.4642 I38.492 J-1.9139
G2 X11.4508 Y23.3061 I29.8875 J-7.7547
G3 X11.4515 Y23.3071 I-3.2887 J2.0963
G2 X14.3452 Y26.967 I19.352 J-12.3265
G3 X14.3576 Y26.9799 I-2.7975 J2.7173
G2 X26.2443 Y31.8803 I11.5269 J-11.0938
G3 X26.4024 Y31.8799 I0.0877 J3.899
G2 X34.0947 Y30.0403 I0.2855 J-15.8082
G2 X36.0699 Y28.7076 I-8.2257 J-14.3216
G3 X34.079 Y29.974 I-9.171 J-12.2195
G3 X33.9795 Y30.0252 I-1.8317 J-3.4404
G3 X26.2785 Y31.7613 I-7.4165 J-14.9491
G3 X16.9395 Y28.936 I-0.1724 J-16.2778
G3 X16.855 Y28.8768 I2.1948 J-3.2209
G3 X10.7816 Y21.9995 I12.1424 J-16.8433
G3 X6.5612 Y5.285 I28.8469 J-16.174
G3 X7.2695 Y-5.5664 I75.7472 J-0.504
G3 X7.2722 Y-5.5855 I3.8611 J0.5324
G3 X8.4428 Y-11.1624 I43.4783 J6.2149
G3 X10.6472 Y-16.7474 I27.0419 J7.4459
G3 X16.4223 Y-23.221 I15.2143 J7.76
G3 X16.539 Y-23.2954 I2.1541 J3.2482
G3 X25.0543 Y-25.623 I8.2561 J13.4638
G3 X35.5376 Y-21.8035 I0.3022 J15.4666
G3 X35.5736 Y-21.7716 I-2.5651 J2.9345
G3 X39.008 Y-17.6355 I-12.2357 J13.6539
G3 X41.1816 Y-13.1598 I-22.2993 J13.595
G3 X41.1886 Y-13.1409 I-3.6523 J1.3609
G3 X43.4798 Y-3.6642 I-40.1297 J14.718
G3 X44.052 Y5.6669 I-70.4774 J9.0044
G3 X43.3527 Y14.8503 I-54.832 J0.4431
G3 X43.349 Y14.873 I-3.8478 J-0.6213
G3 X42.1814 Y19.6213 I-32.138 J-5.3845
G3 X40.768 Y22.9931 I-20.9262 J-6.79
G2 X43.3947 Y16.3459 I-23.2386 J-13.0254
G2 X44.4575 Y7.2212 I-36.1897 J-8.8396
G3 X44.4576 Y7.1579 I3.8999 J-0.0298
G2 X43.4204 Y-6.3543 I-79.6243 J-0.6842
G2 X41.8413 Y-12.7077 I-42.8451 J7.2762
G3 X41.838 Y-12.7177 I3.7032 J-1.2231
G2 X39.2157 Y-18.3617 I-24.985 J8.1773
G3 X39.204 Y-18.3807 I3.3175 J-2.0504
G2 X33.3008 Y-23.9215 I-12.993 J7.9279
G2 X25.1422 Y-25.7005 I-7.7843 J16.1023
G3 X25.034 Y-25.6997 I-0.0816 J-3.8991
G2 X20.3589 Y-25.1467 I-0.1288 J18.9478
G2 X14.5282 Y-22.0867 I3.3329 J13.4357
G2 X10.3641 Y-16.5066 I12.5051 J13.6756
G2 X7.2489 Y-6.4189 I32.9221 J15.6917
G3 X7.2457 Y-6.3989 I-3.8537 J-0.5993
G2 X6.4019 Y4.6227 I65.8061 J10.5816
G3 Y4.6736 I-3.8999 J0.0257
G2 X6.4486 Y6.8367 I38.5388 J0.2491
G1 F300.0 X7.7715 Y6.7964
G3 F800.0 X7.7612 Y5.2909 I31.857 J-0.9709
G3 X8.4583 Y-5.4025 I74.5471 J-0.5098
G3 X8.4602 Y-5.4157 I2.6723 J0.3685
G3 X9.5993 Y-10.842 I42.2904 J6.0451
G3 X11.7131 Y-16.196 I25.8855 J7.1255
G3 X17.0856 Y-22.2209 I14.1485 J7.2086
G3 X17.1663 Y-22.2724 I1.4909 J2.2482
G3 X25.0562 Y-24.4228 I7.6288 J12.4408
G3 X34.7478 Y-20.9 I0.3003 J14.2664
G3 X34.7727 Y-20.878 I-1.7754 J2.031
G3 X37.9829 Y-17.0117 I-11.4349 J12.7602
G3 X40.0571 Y-12.7408 I-21.2742 J12.9712
G3 X40.0619 Y-12.7277 I-2.5278 J0.9419
G3 X42.2892 Y-3.5146 I-39.003 J14.3048
G3 X42.852 Y5.669 I-69.2868 J8.8547
G3 X42.1681 Y14.659 I-53.632 J0.441
G3 X42.1655 Y14.6748 I-2.6631 J-0.43
G3 X41.0405 Y19.2496 I-30.9545 J-5.1862
G3 X38.9741 Y23.7259 I-19.7852 J-6.4183
G3 X33.5151 Y28.9148 I-12.0752 J-7.2378
G3 X33.4462 Y28.9502 I-1.2678 J-2.3811
G3 X26.2824 Y30.5612 I-6.8831 J-13.8742
G3 X17.6152 Y27.9444 I-0.1763 J-15.0777
G3 X17.5567 Y27.9034 I1.519 J-2.2293
G3 X11.8314 Y21.4181 I11.4407 J-15.8699
G3 X7.7715 Y6.7964 I27.7971 J-15.5926
G1 F300.0 X8.9686 Y6.7599
G3 F800.0 X8.9589 Y5.2969 I30.6599 J-0.9344
G3 X9.6447 Y-5.2389 I73.3494 J-0.5159
G3 X9.6457 Y-5.2463 I1.4859 J0.2049
G3 X10.7534 Y-10.5223 I41.1048 J5.8756
G3 X12.7769 Y-15.6459 I24.7313 J6.8058
G3 X17.7474 Y-21.2228 I13.0847 J6.6585
G3 X17.7923 Y-21.2515 I0.829 J1.2501
G3 X25.0581 Y-23.225 I7.0027 J11.4198
G3 X33.9596 Y-19.9983 I0.2984 J13.0685
G3 X33.9735 Y-19.9861 I-0.9872 J1.1294
G3 X36.9598 Y-16.3892 I-10.6357 J11.8683
G3 X38.9349 Y-12.3226 I-20.2511 J12.3487
G3 X38.9376 Y-12.3153 I-1.4056 J0.5238
G3 X41.1009 Y-3.3653 I-37.8787 J13.8924
G3 X41.6543 Y5.6711 I-68.0985 J8.7055
G3 X40.9858 Y14.4681 I-52.4344 J0.4389
G3 X40.9843 Y14.4769 I-1.4808 J-0.2391
G3 X39.9018 Y18.8786 I-29.7733 J-4.9883
G3 X37.9503 Y23.1044 I-18.6465 J-6.0473
G3 X32.9522 Y27.8577 I-11.0515 J-6.6163
G3 X32.9139 Y27.8774 I-0.7049 J-1.324
G3 X26.2862 Y29.3635 I-6.3509 J-12.8013
G3 X18.2896 Y26.9547 I-0.1801 J-13.8799
G3 X18.2571 Y26.9319 I0.8447 J-1.2396
G3 X12.8791 Y20.8379 I10.7403 J-14.8984
G3 X8.9686 Y6.7599 I26.7494 J-15.0124
G0 Z3.0
G0 X5.2528 Y6.9496
G0 Z-1.0
G1 F300.0 Z-4.0
G2 F800.0 X6.4387 Y14.7634 I39.6879 J-2.0268
G2 X10.4389 Y23.9511 I31.0496 J-8.0539
G3 X10.4394 Y23.9518 I-2.2768 J1.4513
G2 X13.4844 Y27.8031 I20.3641 J-12.9712
G3 X13.493 Y27.8121 I-1.9368 J1.8812
G2 X26.2713 Y33.08 I12.3915 J-11.9259
G3 X26.3808 Y33.0797 I0.0607 J2.6993
G2 X34.6748 Y31.0909 I0.3071 J-17.008
G2 X40.8632 Y25.1538 I-8.8058 J-15.3723
G3 X40.8835 Y25.1221 I2.2852 J1.438
G2 X44.5601 Y16.6319 I-23.3541 J-15.1544
G2 X45.6575 Y7.2121 I-37.3551 J-9.1257
G3 Y7.1682 I2.6999 J-0.0207
G2 X44.6041 Y-6.5514 I-80.8242 J-0.6946
G2 X42.9808 Y-13.084 I-44.0288 J7.4733
G3 X42.9785 Y-13.0909 I2.5638 J-0.8468
G2 X40.2365 Y-18.9926 I-26.1255 J8.5505
G3 X40.2284 Y-19.0058 I2.2967 J-1.4195
G2 X33.8415 Y-24.993 I-14.0174 J8.5529
G2 X25.1171 Y-26.9002 I-8.325 J17.1737
G3 X25.0422 Y-26.8997 I-0.0565 J-2.6994
G2 X20.0705 Y-26.3115 I-0.137 J20.1478
G2 X13.7261 Y-22.9792 I3.6213 J14.6006
G2 X9.2828 Y-17.0269 I13.3073 J14.5682
G2 X6.0631 Y-6.6032 I34.0035 J16.212
G3 X6.061 Y-6.5895 I-2.6679 J-0.4149
G2 X5.2019 Y4.6306 I66.9908 J10.7721
G3 Y4.6659 I-2.6999 J0.0178
G2 X5.2528 Y6.9496 I39.7387 J0.2569
G1 F300.0 X4.0543 Y7.0108
G2 F800.0 X5.2767 Y15.0626 I40.8863 J-2.088
G2 X9.427 Y24.5961 I32.2117 J-8.3531
G3 X9.4273 Y24.5965 I-1.2649 J0.8063
G2 X12.6236 Y28.6392 I21.3762 J-13.6159
G3 X12.6284 Y28.6442 I-1.076 J1.0451
G2 X26.2983 Y34.2797 I13.2561 J-12.758
G3 X26.3591 Y34.2795 I0.0337 J1.4996
G2 X35.2549 Y32.1416 I0.3288 J-18.2078
G2 X41.8789 Y25.7929 I-9.3859 J-16.4229
G3 X41.8901 Y25.7753 I1.2696 J0.7989
G2 X45.7255 Y16.9179 I-24.3607 J-15.8076
G2 X46.8575 Y7.2029 I-38.5206 J-9.4117
G3 Y7.1785 I1.5 J-0.0115
G2 X45.7878 Y-6.7485 I-82.0242 J-0.7049
G2 X44.1202 Y-13.4603 I-45.2125 J7.6703
G3 X44.119 Y-13.4642 I1.4243 J-0.4704
G2 X41.2572 Y-19.6235 I-27.2659 J8.9238
G3 X41.2527 Y-19.6308 I1.276 J-0.7886
G2 X34.3821 Y-26.0645 I-15.0418 J9.178
G2 X25.0919 Y-28.0999 I-8.8656 J18.2452
G3 X25.0503 Y-28.0996 I-0.0314 J-1.4997
G2 X19.7821 Y-27.4763 I-0.1452 J21.3478
G2 X12.9238 Y-23.8717 I3.9097 J15.7654
G2 X8.2014 Y-17.5471 I14.1095 J15.4607
G2 X4.8774 Y-6.7876 I35.0849 J16.7322
G3 X4.8762 Y-6.78 I-1.4822 J-0.2305
G2 X4.0019 Y4.6385 I68.1756 J10.9626
G3 Y4.6581 I-1.5 J0.0099
G2 X4.0543 Y7.0108 I40.9387 J0.2647
G0 Z3.0
G0 X-15.9475 Y-66.7526
G0 Z1.0
G1 F300.0 Z-2.0
G2 F800.0 X-15.9236 Y-66.8709 I-0.2714 J-0.1163
G3 Y-66.8947 I2.6999 J-0.0178
G2 X-16.0689 Y-73.3942 I-132.296 J-0.2945
G3 X-16.0695 Y-73.4078 I2.697 J-0.1266
G2 X-16.6861 Y-79.7057 I-56.7573 J2.3778
G2 X-18.2094 Y-85.55 I-30.5296 J4.8368
G3 X-18.2097 Y-85.5509 I2.5337 J-0.933
G2 X-20.9481 Y-90.6923 I-20.03 J7.3683
G2 X-24.0022 Y-93.5533 I-9.2159 J6.7772
G3 X-24.0093 Y-93.5579 I1.4543 J-2.2748
G2 X-26.0366 Y-94.521 I-4.7421 J7.3666
G2 X-28.1143 Y-94.8469 I-2.0827 J6.4917
G3 X-28.1408 Y-94.847 I0.002 J-2.7
G2 X-31.814 Y-94.5095 I-0.1905 J18.0837
G2 X-33.3856 Y-94.0354 I1.8451 J8.9579
G3 X-33.3895 Y-94.0338 I-1.0087 J-2.5045
G2 X-34.6082 Y-93.3446 I1.9588 J4.8855
G2 X-36.7791 Y-90.9467 I5.8169 J7.4478
G2 X-38.6605 Y-86.0419 I12.4373 J7.5839
G3 X-38.6636 Y-86.0253 I-2.6539 J-0.4966
G2 X-39.1839 Y-80.3445 I28.0853 J5.4366
G2 X-39.0809 Y-77.4 I64.6447 J-0.7886
G3 X-39.0808 Y-77.3986 I-2.6955 J0.1559
G3 X-38.9691 Y-74.1833 I-71.2659 J4.0841
G3 X-38.969 Y-74.1668 I-2.6998 J0.0329
G2 X-38.9271 Y-71.7795 I104.215 J-0.6343
G3 Y-71.779 I-2.6989 J0.0783
G3 X-38.8831 Y-69.2466 I-110.7431 J3.1926
G3 X-38.883 Y-69.2177 I-2.7 J0.0161
G2 X-38.4645 Y-67.0816 I5.5262 J0.0262
G3 X-38.4437 Y-67.0297 I-2.4955 J1.0308
G2 X-38.3484 Y-66.8289 I1.4425 J-0.5612
G2 X-38.3169 Y-66.854 I-0.2374 J-0.331
G3 X-38.246 Y-66.9141 I1.7827 J2.0278
G2 X-38.2884 Y-70.4677 I-243.7298 J1.1261
G3 X-38.2887 Y-70.4923 I2.6995 J-0.0518
G3 X-38.3103 Y-74.131 I437.5307 J-4.4157
G2 X-38.4133 Y-77.0449 I-64.5517 J0.8213
G1 Y-77.0452
G3 X-38.525 Y-80.2179 I70.1343 J-4.0578
G3 X-38.5251 Y-80.2301 I2.6998 J-0.034
G3 X-37.6629 Y-86.9976 I25.3761 J-0.2057
G3 X-36.5249 Y-90.0437 I15.1106 J3.9096
G3 X-34.0942 Y-93.0823 I7.9423 J3.8617
G3 X-33.9336 Y-93.2012 I1.6851 J2.1096
G3 X-31.9697 Y-94.0428 I3.1118 J4.5491
G3 X-29.9434 Y-94.3355 I2.8657 J12.6793
G3 X-28.1531 Y-94.403 I1.9027 J26.6753
G3 X-23.3276 Y-92.973 I0.2006 J8.1801
G3 X-23.2975 Y-92.9522 I-1.5261 J2.2273
G3 X-20.8726 Y-90.5035 I-5.6705 J8.0404
G3 X-20.8639 Y-90.4907 I-2.2216 J1.5345
G3 X-18.8786 Y-86.5052 I-13.5049 J9.2141
G3 X-17.8145 Y-82.5553 I-27.9204 J9.6406
G3 X-17.8105 Y-82.535 I-2.6494 J0.5202
G3 X-16.9281 Y-75.1133 I-54.1732 J10.2045
G3 X-16.7326 Y-67.8677 I-122.3241 J6.9262
G2 X-16.4714 Y-67.0242 I1.5762 J-0.0259
G3 X-16.4181 Y-66.9404 I-2.2523 J1.4891
G2 X-16.067 Y-66.7511 I0.3375 J-0.2057
G3 X-15.9475 Y-66.7526 I0.0934 J2.6984
G1 F300.0 X-14.8445 Y-66.2798
G2 F800.0 X-14.7236 Y-66.8788 I-1.3743 J-0.5892
G3 Y-66.892 I1.5 J-0.0099
G2 X-14.8702 Y-73.4505 I-133.496 J-0.2972
G3 X-14.8706 Y-73.458 I1.4983 J-0.0704
G2 X-15.5005 Y-79.8912 I-57.9563 J2.4281
G2 X-17.0833 Y-85.9647 I-31.7151 J5.0223
G3 X-17.0835 Y-85.9652 I1.4076 J-0.5183
G2 X-19.9786 Y-91.3994 I-21.1562 J7.7826
G2 X-23.3558 Y-94.5643 I-10.1854 J7.4843
G3 X-23.3598 Y-94.5669 I0.808 J-1.2638
G2 X-25.6674 Y-95.6628 I-5.3917 J8.3756
G2 X-28.1134 Y-96.0469 I-2.4519 J7.6335
G3 X-28.1281 Y-96.047 I0.0011 J-1.5
G2 X-32.0505 Y-95.686 I-0.2032 J19.2836
G2 X-33.8339 Y-95.1485 I2.0817 J10.1344
G3 X-33.8361 Y-95.1476 I-0.5604 J-1.3914
G2 X-35.3399 Y-94.2957 I2.4054 J5.9994
G2 X-37.7986 Y-91.5796 I6.5486 J8.3989
G2 X-39.84 Y-86.2626 I13.4568 J8.2168
G3 X-39.8418 Y-86.2534 I-1.4744 J-0.2759
G2 X-40.3839 Y-80.332 I29.2634 J5.6646
G2 X-40.2789 Y-77.3308 I65.8447 J-0.8011
G3 X-40.2788 Y-77.33 I-1.4975 J0.0866
G3 X-40.1691 Y-74.1686 I-70.0679 J4.0155
G3 X-40.169 Y-74.1595 I-1.4999 J0.0183
G2 X-40.1266 Y-71.7447 I105.415 J-0.6416
G3 Y-71.7444 I-1.4994 J0.0435
G3 X-40.083 Y-69.2394 I-109.5436 J3.158
G3 Y-69.2234 I-1.5 J0.0089
G2 X-39.5736 Y-66.6235 I6.7261 J0.0319
G3 X-39.562 Y-66.5946 I-1.3864 J0.5727
G2 X-39.0106 Y-65.7167 I2.5608 J-0.9963
G2 X-38.6229 Y-65.5527 I0.3861 J-0.3725
G3 X-38.6026 I0.0047 J1.5
G2 X-37.5246 Y-65.9527 I0.0167 J-1.6073
G3 X-37.4465 Y-66.0168 I0.9904 J1.1266
G2 X-37.0455 Y-66.8537 I-0.623 J-0.8131
G3 X-37.0459 Y-66.882 I1.4996 J-0.0349
G2 X-37.0886 Y-70.4907 I-244.9299 J1.0939
G3 X-37.0888 Y-70.5044 I1.4997 J-0.0288
G3 X-37.1103 Y-74.1397 I436.3308 J-4.4036
G2 X-37.2153 Y-77.1144 I-65.7517 J0.83
G1 Y-77.1145
G3 X-37.3251 Y-80.2331 I68.9363 J-3.9885
G3 Y-80.2398 I1.4999 J-0.0189
G3 X-36.5024 Y-86.6922 I24.1761 J-0.196
G3 X-35.4481 Y-89.514 I13.9501 J3.6042
G3 X-33.3453 Y-92.1447 I6.8655 J3.3321
G3 X-33.2561 Y-92.2107 I0.9361 J1.172
G3 X-31.7127 Y-92.8706 I2.4343 J3.5587
G3 X-29.862 Y-93.1382 I2.6087 J11.5072
G3 X-28.1355 Y-93.2031 I1.8213 J25.478
G3 X-24.0058 Y-91.9831 I0.183 J6.9802
G3 X-23.9891 Y-91.9715 I-0.8478 J1.2374
G3 X-21.86 Y-89.8215 I-4.9789 J7.0597
G3 X-21.8551 Y-89.8144 I-1.2342 J0.8525
G3 X-20.0143 Y-86.1175 I-12.5136 J8.5378
G3 X-18.992 Y-82.3241 I-26.7847 J9.2529
G3 X-18.9898 Y-82.3128 I-1.4719 J0.289
G3 X-18.1264 Y-75.0491 I-52.9939 J9.9824
G3 X-17.9326 Y-67.8611 I-121.1258 J6.862
G2 X-17.4724 Y-66.3624 I2.7762 J-0.0326
G3 X-17.4428 Y-66.3159 I-1.2513 J0.8273
G2 X-16.0255 Y-65.5518 I1.3621 J-0.8303
G3 X-15.9438 Y-65.5524 I0.0519 J1.4991
G2 X-15.3609 Y-65.6657 I0.0281 J-1.4115
G2 X-15.0333 Y-65.9545 I-0.3704 J-0.7504
G3 X-15.0025 Y-65.9993 I1.2511 J0.8275
G2 X-14.8445 Y-66.2798 I-1.2164 J-0.8696
G1 F300.0 X-15.9475 Y-66.7526
G1 Z-4.0
G2 F800.0 X-15.9236 Y-66.8709 I-0.2714 J-0.1163
G3 Y-66.8947 I2.6999 J-0.0178
G2 X-16.0689 Y-73.3942 I-132.296 J-0.2945
G3 X-16.0695 Y-73.4078 I2.697 J-0.1266
G2 X-16.6861 Y-79.7057 I-56.7573 J2.3778
G2 X-18.2094 Y-85.55 I-30.5296 J4.8368
G3 X-18.2097 Y-85.5509 I2.5337 J-0.933
G2 X-20.9481 Y-90.6923 I-20.03 J7.3683
G2 X-24.0022 Y-93.5533 I-9.2159 J6.7772
G3 X-24.0093 Y-93.5579 I1.4543 J-2.2748
G2 X-26.0366 Y-94.521 I-4.7421 J7.3666
G2 X-28.1143 Y-94.8469 I-2.0827 J6.4917
G3 X-28.1408 Y-94.847 I0.002 J-2.7
G2 X-31.814 Y-94.5095 I-0.1905 J18.0837
G2 X-33.3856 Y-94.0354 I1.8451 J8.9579
G3 X-33.3895 Y-94.0338 I-1.0087 J-2.5045
G2 X-34.6082 Y-93.3446 I1.9588 J4.8855
G2 X-36.7791 Y-90.9467 I5.8169 J7.4478
G2 X-38.6605 Y-86.0419 I12.4373 J7.5839
G3 X-38.6636 Y-86.0253 I-2.6539 J-0.4966
G2 X-39.1839 Y-80.3445 I28.0853 J5.4366
G2 X-39.0809 Y-77.4 I64.6447 J-0.7886
G3 X-39.0808 Y-77.3986 I-2.6955 J0.1559
G3 X-38.9691 Y-74.1833 I-71.2659 J4.0841
G3 X-38.969 Y-74.1668 I-2.6998 J0.0329
G2 X-38.9271 Y-71.7795 I104.215 J-0.6343
G3 Y-71.779 I-2.6989 J0.0783
G3 X-38.8831 Y-69.2466 I-110.7431 J3.1926
G3 X-38.883 Y-69.2177 I-2.7 J0.0161
G2 X-38.4645 Y-67.0816 I5.5262 J0.0262
G3 X-38.4437 Y-67.0297 I-2.4955 J1.0308
G2 X-38.3484 Y-66.8289 I1.4425 J-0.5612
G2 X-38.3169 Y-66.854 I-0.2374 J-0.331
G3 X-38.246 Y-66.9141 I1.7827 J2.0278
G2 X-38.2884 Y-70.4677 I-243.7298 J1.1261
G3 X-38.2887 Y-70.4923 I2.6995 J-0.0518
G3 X-38.3103 Y-74.131 I437.5307 J-4.4157
G2 X-38.4133 Y-77.0449 I-64.5517 J0.8213
G1 Y-77.0452
G3 X-38.525 Y-80.2179 I70.1343 J-4.0578
G3 X-38.5251 Y-80.2301 I2.6998 J-0.034
G3 X-37.6629 Y-86.9976 I25.3761 J-0.2057
G3 X-36.5249 Y-90.0437 I15.1106 J3.9096
G3 X-34.0942 Y-93.0823 I7.9423 J3.8617
G3 X-33.9336 Y-93.2012 I1.6851 J2.1096
G3 X-31.9697 Y-94.0428 I3.1118 J4.5491
G3 X-29.9434 Y-94.3355 I2.8657 J12.6793
G3 X-28.1531 Y-94.403 I1.9027 J26.6753
G3 X-23.3276 Y-92.973 I0.2006 J8.1801
G3 X-23.2975 Y-92.9522 I-1.5261 J2.2273
G3 X-20.8726 Y-90.5035 I-5.6705 J8.0404
G3 X-20.8639 Y-90.4907 I-2.2216 J1.5345
G3 X-18.8786 Y-86.5052 I-13.5049 J9.2141
G3 X-17.8145 Y-82.5553 I-27.9204 J9.6406
G3 X-17.8105 Y-82.535 I-2.6494 J0.5202
G3 X-16.9281 Y-75.1133 I-54.1732 J10.2045
G3 X-16.7326 Y-67.8677 I-122.3241 J6.9262
G2 X-16.4714 Y-67.0242 I1.5762 J-0.0259
G3 X-16.4181 Y-66.9404 I-2.2523 J1.4891
G2 X-16.067 Y-66.7511 I0.3375 J-0.2057
G3 X-15.9475 Y-66.7526 I0.0934 J2.6984
G1 F300.0 X-14.8445 Y-66.2798
G2 F800.0 X-14.7236 Y-66.8788 I-1.3743 J-0.5892
G3 Y-66.892 I1.5 J-0.0099
G2 X-14.8702 Y-73.4505 I-133.496 J-0.2972
G3 X-14.8706 Y-73.458 I1.4983 J-0.0704
G2 X-15.5005 Y-79.8912 I-57.9563 J2.4281
G2 X-17.0833 Y-85.9647 I-31.7151 J5.0223
G3 X-17.0835 Y-85.9652 I1.4076 J-0.5183
G2 X-19.9786 Y-91.3994 I-21.1562 J7.7826
G2 X-23.3558 Y-94.5643 I-10.1854 J7.4843
G3 X-23.3598 Y-94.5669 I0.808 J-1.2638
G2 X-25.6674 Y-95.6628 I-5.3917 J8.3756
G2 X-28.1134 Y-96.0469 I-2.4519 J7.6335
G3 X-28.1281 Y-96.047 I0.0011 J-1.5
G2 X-32.0505 Y-95.686 I-0.2032 J19.2836
G2 X-33.8339 Y-95.1485 I2.0817 J10.1344
G3 X-33.8361 Y-95.1476 I-0.5604 J-1.3914
G2 X-35.3399 Y-94.2957 I2.4054 J5.9994
G2 X-37.7986 Y-91.5796 I6.5486 J8.3989
G2 X-39.84 Y-86.2626 I13.4568 J8.2168
G3 X-39.8418 Y-86.2534 I-1.4744 J-0.2759
G2 X-40.3839 Y-80.332 I29.2634 J5.6646
G2 X-40.2789 Y-77.3308 I65.8447 J-0.8011
G3 X-40.2788 Y-77.33 I-1.4975 J0.0866
G3 X-40.1691 Y-74.1686 I-70.0679 J4.0155
G3 X-40.169 Y-74.1595 I-1.4999 J0.0183
G2 X-40.1266 Y-71.7447 I105.415 J-0.6416
G3 Y-71.7444 I-1.4994 J0.0435
G3 X-40.083 Y-69.2394 I-109.5436 J3.158
G3 Y-69.2234 I-1.5 J0.0089
G2 X-39.5736 Y-66.6235 I6.7261 J0.0319
G3 X-39.562 Y-66.5946 I-1.3864 J0.5727
G2 X-39.0106 Y-65.7167 I2.5608 J-0.9963
G2 X-38.6229 Y-65.5527 I0.3861 J-0.3725
G3 X-38.6026 I0.0047 J1.5
G2 X-37.5246 Y-65.9527 I0.0167 J-1.6073
G3 X-37.4465 Y-66.0168 I0.9904 J1.1266
G2 X-37.0455 Y-66.8537 I-0.623 J-0.8131
G3 X-37.0459 Y-66.882 I1.4996 J-0.0349
G2 X-37.0886 Y-70.4907 I-244.9299 J1.0939
G3 X-37.0888 Y-70.5044 I1.4997 J-0.0288
G3 X-37.1103 Y-74.1397 I436.3308 J-4.4036
G2 X-37.2153 Y-77.1144 I-65.7517 J0.83
G1 Y-77.1145
G3 X-37.3251 Y-80.2331 I68.9363 J-3.9885
G3 Y-80.2398 I1.4999 J-0.0189
G3 X-36.5024 Y-86.6922 I24.1761 J-0.196
G3 X-35.4481 Y-89.514 I13.9501 J3.6042
G3 X-33.3453 Y-92.1447 I6.8655 J3.3321
G3 X-33.2561 Y-92.2107 I0.9361 J1.172
G3 X-31.7127 Y-92.8706 I2.4343 J3.5587
G3 X-29.862 Y-93.1382 I2.6087 J11.5072
G3 X-28.1355 Y-93.2031 I1.8213 J25.478
G3 X-24.0058 Y-91.9831 I0.183 J6.9802
G3 X-23.9891 Y-91.9715 I-0.8478 J1.2374
G3 X-21.86 Y-89.8215 I-4.9789 J7.0597
G3 X-21.8551 Y-89.8144 I-1.2342 J0.8525
G3 X-20.0143 Y-86.1175 I-12.5136 J8.5378
G3 X-18.992 Y-82.3241 I-26.7847 J9.2529
G3 X-18.9898 Y-82.3128 I-1.4719 J0.289
G3 X-18.1264 Y-75.0491 I-52.9939 J9.9824
G3 X-17.9326 Y-67.8611 I-121.1258 J6.862
G2 X-17.4724 Y-66.3624 I2.7762 J-0.0326
G3 X-17.4428 Y-66.3159 I-1.2513 J0.8273
G2 X-16.0255 Y-65.5518 I1.3621 J-0.8303
G3 X-15.9438 Y-65.5524 I0.0519 J1.4991
G2 X-15.3609 Y-65.6657 I0.0281 J-1.4115
G2 X-15.0333 Y-65.9545 I-0.3704 J-0.7504
G3 X-15.0025 Y-65.9993 I1.2511 J0.8275
G2 X-14.8445 Y-66.2798 I-1.2164 J-0.8696
G0 Z3.0
G0 X3.9102 Y-79.6844
G0 Z1.0
G1 F300.0 Z-2.0
G2 F800.0 X4.2356 Y-81.318 I-82.2863 J-17.2418
G3 X3.3997 Y-81.252 I-0.7229 J-3.8324
G3 X3.9102 Y-79.6844 I-276.2801 J90.838
G1 F300.0 X5.0847 Y-79.4383
G2 F800.0 X5.7475 Y-82.9712 I-83.4608 J-17.4879
G3 X5.7497 Y-82.9843 I2.6636 J0.4419
G3 X5.9079 Y-83.9042 I495.82 J84.77
G3 X1.3894 Y-83.4825 I-2.3952 J-1.2462
G3 X3.4027 Y-77.3239 I-274.2698 J93.0685
G3 X3.4289 Y-77.2354 I-2.5756 J0.8102
G2 X3.8426 Y-76.4802 I1.8149 J-0.5034
G2 X4.0477 Y-76.4193 I0.194 J-0.2775
G3 X4.2101 Y-76.4197 I0.088 J2.6986
G2 X4.6275 Y-77.3786 I-2.0604 J-1.4672
G3 X4.6438 Y-77.4525 I2.6449 J0.5426
G2 X5.0847 Y-79.4383 I-83.0199 J-19.4737
G0 Z3.0
G0 X8.9788 Y-92.4549
G0 Z1.0
G1 F300.0 Z-2.0
G3 F800.0 X9.7126 Y-92.4813 I0.5065 J3.867
G2 X9.3037 Y-93.2099 I-10.0508 J5.161
G2 X8.9788 Y-92.4549 I10.7179 J5.0586
G1 F300.0 X7.8607 Y-92.8906
G2 F800.0 X7.4897 Y-91.798 I12.1608 J4.7392
G2 X6.981 Y-89.5969 I34.7834 J9.1983
G3 X12.0977 Y-89.2702 I2.5044 J1.0091
G3 X15.428 Y-76.3753 I-2342.102 J611.7607
G2 X15.4375 Y-76.3756 I-0.0104 J-0.5035
G3 X15.5776 Y-76.3775 I0.1065 J2.6979
G2 X15.8924 Y-76.4859 I0.0061 J-0.4935
G2 X11.4411 Y-91.4986 I-265.3717 J70.5177
G2 X9.719 Y-94.7407 I-11.7793 J4.1783
G3 X9.6555 Y-94.8305 I2.1726 J-1.603
G2 X9.239 Y-95.042 I-0.3991 J0.2701
G3 X9.1976 Y-95.0408 I-0.0974 J-2.6982
G2 X9.1437 Y-95.0254 I0.0023 J0.1096
G2 X8.2936 Y-93.8803 I2.2524 J2.5605
G3 X8.2685 Y-93.8268 I-2.4565 J-1.1206
G2 X7.8607 Y-92.8906 I11.7531 J5.6755
G0 Z3.0
G0 X-3.1692 Y-91.2481
G0 Z1.0
G1 F300.0 Z-2.0
G3 F800.0 X-3.546 Y-92.2262 I315.7249 J-122.1826
G2 X-3.5825 Y-92.1302 I8.6989 J3.3638
G3 X-3.5866 Y-92.1192 I-3.6528 J-1.3665
G2 X-3.9352 Y-91.102 I16.3028 J6.1551
G3 X-3.1692 Y-91.2481 I1.11 J3.7387
G1 F300.0 X-2.0501 Y-91.6812
G3 F800.0 X-2.8358 Y-93.7314 I314.6058 J-121.7495
G3 X-2.873 Y-93.8358 I2.5243 J-0.958
G2 X-3.0375 Y-94.0807 I-0.5251 J0.175
G3 X-3.5883 Y-94.7311 I1.7592 J-2.0482
G2 X-3.7699 Y-94.4484 I3.9622 J2.7461
G3 X-3.7956 Y-94.4062 I-2.3209 J-1.3797
G2 X-4.7064 Y-92.5507 I8.9485 J5.5438
G3 X-4.7093 Y-92.543 I-2.5288 J-0.946
G2 X-5.3742 Y-90.399 I17.4254 J6.5789
G2 X-6.4564 Y-84.798 I92.6835 J20.8139
G3 X-6.4594 Y-84.7799 I-2.6652 J-0.4324
G2 X-7.3974 Y-78.9996 I427.932 J72.4099
G3 X-7.4037 Y-78.9608 I-2.668 J-0.4145
G2 X-7.6635 Y-76.4245 I18.8853 J3.2158
G2 X-7.3874 Y-76.3343 I0.2678 J-0.3521
G3 X-7.2153 Y-76.332 I0.0505 J2.6995
G2 X-7.1664 Y-76.3354 I0.0097 J-0.2161
G2 X-7.1335 Y-76.43 I-0.2976 J-0.1565
G3 X-7.1172 Y-76.5102 I2.654 J0.4964
G2 X-6.6935 Y-79.1666 I-23.0431 J-5.0375
G3 X-6.3661 Y-82.2002 I158.6055 J15.5834
G3 X-6.3495 Y-82.3188 I2.6815 J0.3154
G2 X-5.495 Y-87.7661 I-465.5946 J-75.8251
G3 X-1.207 Y-89.5246 I2.6698 J0.4028
G3 X-2.0501 Y-91.6812 I313.7627 J-123.9061
G1 F300.0 X-0.931 Y-92.1143
G3 F800.0 X-1.7139 Y-94.1572 I313.4867 J-121.3164
G3 X-1.7346 Y-94.2152 I1.4024 J-0.5322
G2 X-2.2556 Y-94.991 I-1.6636 J0.5544
G3 X-2.5628 Y-95.3542 I0.9773 J-1.1379
G2 X-3.9275 Y-96.1328 I-1.379 J0.8317
G2 X-4.2918 Y-95.7907 I0.9301 J1.3557
G3 X-4.3067 Y-95.772 I-1.181 J-0.9248
G2 X-4.8014 Y-95.0616 I4.6807 J3.787
G3 X-4.8157 Y-95.0382 I-1.2894 J-0.7665
G2 X-5.8303 Y-92.9711 I9.9686 J6.1758
G3 X-5.8319 Y-92.9669 I-1.4049 J-0.5256
G2 X-6.5425 Y-90.6732 I18.5481 J7.0028
G2 X-7.6409 Y-84.9902 I93.8518 J21.0881
G3 X-7.6426 Y-84.9801 I-1.4806 J-0.2402
G2 X-8.5832 Y-79.1838 I429.1151 J72.6101
G3 X-8.5867 Y-79.1623 I-1.4822 J-0.2303
G2 X-8.8667 Y-76.3475 I20.0682 J3.4172
G2 X-8.5164 Y-75.5748 I0.9895 J0.0173
G3 X-8.4879 Y-75.55 I-0.9689 J1.1451
G2 X-7.365 Y-75.1345 I1.0922 J-1.2266
G3 X-7.2693 Y-75.1332 I0.0281 J1.4997
G2 X-6.4019 Y-75.3819 I0.0638 J-1.4149
G2 X-5.9539 Y-76.2094 I-1.0621 J-1.11
G3 X-5.9449 Y-76.2539 I1.4744 J0.2758
G2 X-5.4994 Y-79.0474 I-24.2154 J-5.2938
G3 X-5.1743 Y-82.06 I157.4115 J15.4642
G3 X-5.1651 Y-82.1259 I1.4897 J0.1752
G2 X-4.3084 Y-87.5871 I-466.779 J-76.018
G3 X-1.4134 Y-87.8701 I1.4832 J0.2238
G3 X2.258 Y-76.9638 I-271.467 J97.4561
G3 X2.2726 Y-76.9146 I-1.4309 J0.4501
G2 X3.02 Y-75.6028 I2.9713 J-0.8242
G2 X4.0868 Y-75.2199 I1.0166 J-1.1549
G3 X4.1831 Y-75.22 I0.0489 J1.4992
G2 X5.1192 Y-75.6306 I0.0375 J-1.187
G2 X5.8031 Y-77.1374 I-2.9694 J-2.2563
G3 X5.8121 Y-77.1785 I1.4694 J0.3015
G2 X6.9314 Y-82.7748 I-84.1882 J-19.7477
G3 X6.9326 Y-82.7821 I1.4798 J0.2455
G3 X8.01 Y-88.8588 I494.6372 J84.5677
G3 X10.9367 Y-88.967 I1.4753 J0.271
G3 X14.3118 Y-75.8964 I-2340.941 J611.4575
G3 X14.3256 Y-75.8372 I-1.4534 J0.371
G2 X14.6291 Y-75.3687 I0.7641 J-0.1624
G2 X15.4848 Y-75.1766 I0.7885 J-1.5101
G3 X15.5626 Y-75.1776 I0.0592 J1.4988
G2 X16.7019 Y-75.5992 I0.0211 J-1.6934
G3 X16.7638 Y-75.6507 I0.9904 J1.1265
G2 X17.1376 Y-76.3986 I-0.6078 J-0.771
G2 X17.09 Y-76.6533 I-1.3144 J0.1139
G3 X17.0804 Y-76.6876 I1.4403 J-0.419
G2 X12.577 Y-91.8859 I-266.5597 J70.7194
G2 X10.6846 Y-95.4532 I-12.9152 J4.5656
G3 X10.6493 Y-95.503 I1.207 J-0.8906
G2 X9.1957 Y-96.2412 I-1.3929 J0.9427
G3 X9.1727 Y-96.2406 I-0.0541 J-1.499
G2 X8.3931 Y-95.9628 I0.0272 J1.3093
G2 X7.2018 Y-94.3783 I3.0031 J3.4979
G3 X7.1879 Y-94.3486 I-1.3647 J-0.6226
G2 X6.3333 Y-92.1189 I12.8337 J6.1973
G2 X5.5831 Y-88.6106 I35.9398 J9.5192
G3 X5.5809 Y-88.5971 I-1.4803 J-0.2425
G2 X4.997 Y-84.9342 I136.0985 J23.5709
G3 X2.1673 Y-84.4871 I-1.4843 J-0.2162
G3 X1.5616 Y-85.8603 I15.8156 J-7.7968
G3 X-0.931 Y-92.1143 I310.9942 J-127.5704
G0 Z3.0
G0 X-3.1692 Y-91.2481
G0 Z-1.0
G1 F300.0 Z-4.0
G3 F800.0 X-3.546 Y-92.2262 I315.7249 J-122.1826
G2 X-3.5825 Y-92.1302 I8.6989 J3.3638
G3 X-3.5866 Y-92.1192 I-3.6528 J-1.3665
G2 X-3.9352 Y-91.102 I16.3028 J6.1551
G3 X-3.1692 Y-91.2481 I1.11 J3.7387
G1 F300.0 X-2.0501 Y-91.6812
G3 F800.0 X-2.8358 Y-93.7314 I314.6058 J-121.7495
G3 X-2.873 Y-93.8358 I2.5243 J-0.958
G2 X-3.0375 Y-94.0807 I-0.5251 J0.175
G3 X-3.5883 Y-94.7311 I1.7592 J-2.0482
G2 X-3.7699 Y-94.4484 I3.9622 J2.7461
G3 X-3.7956 Y-94.4062 I-2.3209 J-1.3797
G2 X-4.7064 Y-92.5507 I8.9485 J5.5438
G3 X-4.7093 Y-92.543 I-2.5288 J-0.946
G2 X-5.3742 Y-90.399 I17.4254 J6.5789
G2 X-6.4564 Y-84.798 I92.6835 J20.8139
G3 X-6.4594 Y-84.7799 I-2.6652 J-0.4324
G2 X-7.3974 Y-78.9996 I427.932 J72.4099
G3 X-7.4037 Y-78.9608 I-2.668 J-0.4145
G2 X-7.6635 Y-76.4245 I18.8853 J3.2158
G2 X-7.3874 Y-76.3343 I0.2678 J-0.3521
G3 X-7.2153 Y-76.332 I0.0505 J2.6995
G2 X-7.1664 Y-76.3354 I0.0097 J-0.2161
G2 X-7.1335 Y-76.43 I-0.2976 J-0.1565
G3 X-7.1172 Y-76.5102 I2.654 J0.4964
G2 X-6.6935 Y-79.1666 I-23.0431 J-5.0375
G3 X-6.3661 Y-82.2002 I158.6055 J15.5834
G3 X-6.3495 Y-82.3188 I2.6815 J0.3154
G2 X-5.495 Y-87.7661 I-465.5946 J-75.8251
G3 X-1.207 Y-89.5246 I2.6698 J0.4028
G3 X-2.0501 Y-91.6812 I313.7627 J-123.9061
G0 Z3.0
G0 X8.9788 Y-92.4549
G0 Z-1.0
G1 F300.0 Z-4.0
G3 F800.0 X9.7126 Y-92.4813 I0.5065 J3.867
G2 X9.3037 Y-93.2099 I-10.0508 J5.161
G2 X8.9788 Y-92.4549 I10.7179 J5.0586
G1 F300.0 X7.8607 Y-92.8906
G2 F800.0 X7.4897 Y-91.798 I12.1608 J4.7392
G2 X6.981 Y-89.5969 I34.7834 J9.1983
G3 X12.0977 Y-89.2702 I2.5044 J1.0091
G3 X15.428 Y-76.3753 I-2342.102 J611.7607
G2 X15.4375 Y-76.3756 I-0.0104 J-0.5035
G3 X15.5776 Y-76.3775 I0.1065 J2.6979
G2 X15.8924 Y-76.4859 I0.0061 J-0.4935
G2 X11.4411 Y-91.4986 I-265.3717 J70.5177
G2 X9.719 Y-94.7407 I-11.7793 J4.1783
G3 X9.6555 Y-94.8305 I2.1726 J-1.603
G2 X9.239 Y-95.042 I-0.3991 J0.2701
G3 X9.1976 Y-95.0408 I-0.0974 J-2.6982
G2 X9.1437 Y-95.0254 I0.0023 J0.1096
G2 X8.2936 Y-93.8803 I2.2524 J2.5605
G3 X8.2685 Y-93.8268 I-2.4565 J-1.1206
G2 X7.8607 Y-92.8906 I11.7531 J5.6755
G0 Z3.0
G0 X4.2356 Y-81.318
G0 Z-1.0
G1 F300.0 Z-4.0
G3 F800.0 X3.3997 Y-81.252 I-0.7229 J-3.8324
G3 X3.9102 Y-79.6844 I-276.2801 J90.838
G2 X4.2356 Y-81.318 I-82.2863 J-17.2418
G1 F300.0 X4.0132 Y-82.4972
G3 F800.0 X1.3894 Y-83.4825 I-0.5005 J-2.6532
G3 X3.4027 Y-77.3239 I-274.2698 J93.0685
G3 X3.4289 Y-77.2354 I-2.5756 J0.8102
G2 X3.8426 Y-76.4802 I1.8149 J-0.5034
G2 X4.0477 Y-76.4193 I0.194 J-0.2775
G3 X4.2101 Y-76.4197 I0.088 J2.6986
G2 X4.6275 Y-77.3786 I-2.0604 J-1.4672
G3 X4.6438 Y-77.4525 I2.6449 J0.5426
G2 X5.7475 Y-82.9712 I-83.0199 J-19.4737
G3 X5.7497 Y-82.9843 I2.6636 J0.4419
G3 X5.9079 Y-83.9042 I495.82 J84.77
G3 X4.0132 Y-82.4972 I-2.3952 J-1.2462
G1 F300.0 X3.7907 Y-83.6764
G3 F800.0 X2.1673 Y-84.4871 I-0.278 J-1.474
G3 X1.5616 Y-85.8603 I15.8156 J-7.7968
G3 X-1.7139 Y-94.1572 I310.9942 J-127.5704
G3 X-1.7346 Y-94.2152 I1.4024 J-0.5322
G2 X-2.2556 Y-94.991 I-1.6636 J0.5544
G3 X-2.5628 Y-95.3542 I0.9773 J-1.1379
G2 X-3.9275 Y-96.1328 I-1.379 J0.8317
G2 X-4.2918 Y-95.7907 I0.9301 J1.3557
G3 X-4.3067 Y-95.772 I-1.181 J-0.9248
G2 X-4.8014 Y-95.0616 I4.6807 J3.787
G3 X-4.8157 Y-95.0382 I-1.2894 J-0.7665
G2 X-5.8303 Y-92.9711 I9.9686 J6.1758
G3 X-5.8319 Y-92.9669 I-1.4049 J-0.5256
G2 X-6.5425 Y-90.6732 I18.5481 J7.0028
G2 X-7.6409 Y-84.9902 I93.8518 J21.0881
G3 X-7.6426 Y-84.9801 I-1.4806 J-0.2402
G2 X-8.5832 Y-79.1838 I429.1151 J72.6101
G3 X-8.5867 Y-79.1623 I-1.4822 J-0.2303
G2 X-8.8667 Y-76.3475 I20.0682 J3.4172
G2 X-8.5164 Y-75.5748 I0.9895 J0.0173
G3 X-8.4879 Y-75.55 I-0.9689 J1.1451
G2 X-7.365 Y-75.1345 I1.0922 J-1.2266
G3 X-7.2693 Y-75.1332 I0.0281 J1.4997
G2 X-6.4019 Y-75.3819 I0.0638 J-1.4149
G2 X-5.9539 Y-76.2094 I-1.0621 J-1.11
G3 X-5.9449 Y-76.2539 I1.4744 J0.2758
G2 X-5.4994 Y-79.0474 I-24.2154 J-5.2938
G3 X-5.1743 Y-82.06 I157.4115 J15.4642
G3 X-5.1651 Y-82.1259 I1.4897 J0.1752
G2 X-4.3084 Y-87.5871 I-466.779 J-76.018
G3 X-1.4134 Y-87.8701 I1.4832 J0.2238
G3 X2.258 Y-76.9638 I-271.467 J97.4561
G3 X2.2726 Y-76.9146 I-1.4309 J0.4501
G2 X3.02 Y-75.6028 I2.9713 J-0.8242
G2 X4.0868 Y-75.2199 I1.0166 J-1.1549
G3 X4.1831 Y-75.22 I0.0489 J1.4992
G2 X5.1192 Y-75.6306 I0.0375 J-1.187
G2 X5.8031 Y-77.1374 I-2.9694 J-2.2563
G3 X5.8121 Y-77.1785 I1.4694 J0.3015
G2 X6.9314 Y-82.7748 I-84.1882 J-19.7477
G3 X6.9326 Y-82.7821 I1.4798 J0.2455
G3 X8.01 Y-88.8588 I494.6372 J84.5677
G3 X10.9367 Y-88.967 I1.4753 J0.271
G3 X14.3118 Y-75.8964 I-2340.941 J611.4575
G3 X14.3256 Y-75.8372 I-1.4534 J0.371
G2 X14.6291 Y-75.3687 I0.7641 J-0.1624
G2 X15.4848 Y-75.1766 I0.7885 J-1.5101
G3 X15.5626 Y-75.1776 I0.0592 J1.4988
G2 X16.7019 Y-75.5992 I0.0211 J-1.6934
G3 X16.7638 Y-75.6507 I0.9904 J1.1265
G2 X17.1376 Y-76.3986 I-0.6078 J-0.771
G2 X17.09 Y-76.6533 I-1.3144 J0.1139
G3 X17.0804 Y-76.6876 I1.4403 J-0.419
G2 X12.577 Y-91.8859 I-266.5597 J70.7194
G2 X10.6846 Y-95.4532 I-12.9152 J4.5656
G3 X10.6493 Y-95.503 I1.207 J-0.8906
G2 X9.1957 Y-96.2412 I-1.3929 J0.9427
G3 X9.1727 Y-96.2406 I-0.0541 J-1.499
G2 X8.3931 Y-95.9628 I0.0272 J1.3093
G2 X7.2018 Y-94.3783 I3.0031 J3.4979
G3 X7.1879 Y-94.3486 I-1.3647 J-0.6226
G2 X6.3333 Y-92.1189 I12.8337 J6.1973
G2 X5.5831 Y-88.6106 I35.9398 J9.5192
G3 X5.5809 Y-88.5971 I-1.4803 J-0.2425
G2 X4.997 Y-84.9342 I136.0985 J23.5709
G3 X3.7907 Y-83.6764 I-1.4843 J-0.2162
G0 Z3.0
G0 X23.2768 Y-86.3061
G0 Z1.0
G1 F300.0 Z-2.0
G3 F800.0 X24.085 Y-86.9478 I2.4293 J2.23
G3 X23.3083 Y-87.8315 I2.0508 J-2.5854
G2 X23.2692 Y-86.9695 I6.8434 J0.7424
G3 X23.2696 Y-86.8835 I-3.2995 J0.0574
G2 X23.2768 Y-86.3061 I13.6799 J0.1186
G1 F300.0 X23.7188 Y-85.9004
G3 F800.0 X25.6999 Y-86.7738 I1.9873 J1.8242
G1 X25.0439 Y-87.0638
G3 X24.1523 Y-91.3652 I1.0918 J-2.4694
G3 X26.0664 Y-92.9443 I6.7586 J6.2425
G2 X25.1859 Y-92.3692 I4.4418 J7.7625
G3 X25.1733 Y-92.3599 I-1.6068 J-2.1698
G2 X23.2859 Y-90.0663 I3.5351 J4.8323
G2 X22.6693 Y-86.959 I6.8658 J2.9771
G3 X22.6696 Y-86.8887 I-2.6996 J0.0469
G2 X23.2226 Y-82.8276 I14.2799 J0.1239
G2 X24.9778 Y-79.3493 I10.3299 J-3.0304
G3 X24.9965 Y-79.3242 I-2.1506 J1.6325
G2 X26.4188 Y-77.859 I6.1951 J-4.5905
G3 X26.1197 Y-78.1297 I4.8889 J-5.7
G3 X26.1057 Y-78.1433 I1.8637 J-1.9503
G3 X24.2096 Y-80.6841 I6.9335 J-7.1518
G3 X23.1327 Y-83.267 I13.7074 J-7.2315
G3 X23.7188 Y-85.9004 I2.5734 J-0.8091
G0 Z3.0
G0 X37.3712 Y-81.1085
G0 Z1.0
G1 F300.0 Z-2.0
G3 F800.0 X36.4571 Y-77.1996 I-2.212 J1.5441
G3 X36.3842 Y-77.1601 I-4.1929 J-7.6392
G2 X36.4534 Y-77.1924 I-3.6747 J-7.9427
G3 X36.4867 Y-77.2079 I1.155 J2.4405
G2 X37.7728 Y-78.2481 I-1.3796 J-3.0208
G2 X38.1533 Y-79.6278 I-2.0928 J-1.3195
G3 X38.1526 Y-79.6836 I2.6992 J-0.0656
G2 X37.8785 Y-80.5298 I-1.4598 J0.0053
G2 X37.3712 Y-81.1085 I-3.6988 J2.7308
G1 F300.0 X38.2042 Y-81.9723
G2 F800.0 X37.39 Y-82.6267 I-4.0245 J4.1733
G2 X35.2001 Y-83.8357 I-10.2317 J15.9462
G3 X35.1829 Y-83.8438 I0.6367 J-1.3582
G2 X32.7706 Y-84.9596 I-32.5959 J67.3062
G3 X32.7694 Y-84.9601 I0.6054 J-1.3724
G1 X25.5292 Y-88.1613
G3 X25.0338 Y-90.551 I0.6066 J-1.3719
G3 X28.1011 Y-92.6134 I5.8771 J5.4283
G3 X28.1176 Y-92.6195 I0.5268 J1.4044
G3 X31.9867 Y-93.2677 I3.7036 J10.2363
G3 X34.8172 Y-92.9706 I0.0735 J12.9348
G3 X34.8177 Y-92.9705 I-0.3197 J1.4655
G3 X37.6122 Y-91.8816 I-2.054 J9.4017
G3 X37.6288 Y-91.8718 I-0.7557 J1.2957
G2 X38.8086 Y-91.2709 I4.8851 J-8.1325
G3 X38.8374 Y-91.2583 I-0.5859 J1.3809
G2 X39.7584 Y-91.0329 I1.0721 J-2.3865
G2 X40.2171 Y-91.0915 I-0.001 J-1.8328
G3 X40.2481 Y-91.0992 I0.3763 J1.452
G2 X40.3525 Y-91.1644 I-0.0442 J-0.187
G2 X40.4493 Y-91.6475 I-0.9614 J-0.4438
G3 X40.4485 Y-91.6779 I1.499 J-0.0556
G2 X39.7793 Y-93.0891 I-1.8899 J0.0318
G3 X39.7628 Y-93.1033 I0.9688 J-1.1452
G2 X37.7985 Y-94.3084 I-4.5703 J5.2461
G3 X37.771 Y-94.3199 I0.5618 J-1.3908
G2 X31.9872 Y-95.4883 I-5.7091 J13.361
G3 X31.965 Y-95.4884 I-0.0077 J-1.5
G2 X27.9552 Y-94.9988 I-0.1488 J15.4473
G2 X24.4718 Y-93.3336 I2.5531 J9.8169
G3 X24.4647 Y-93.3284 I-0.8927 J-1.2055
G2 X22.1917 Y-90.5593 I4.2436 J5.8008
G2 X21.4695 Y-86.9382 I7.96 J3.4702
G3 X21.4697 Y-86.8991 I-1.4998 J0.0261
G2 X22.0701 Y-82.4933 I15.4798 J0.1343
G2 X24.0219 Y-78.6237 I11.4824 J-3.3647
G3 X24.0323 Y-78.6098 I-1.1948 J0.9069
G2 X27.2455 Y-75.9256 I7.1593 J-5.3049
G2 X31.3758 Y-75.0486 I3.9811 J-8.585
G3 X31.4087 Y-75.0488 I0.0236 J1.4998
G2 X34.3225 Y-75.2828 I0.1053 J-16.9474
G3 X34.3273 Y-75.2836 I0.2486 J1.4793
G2 X36.9667 Y-76.1078 I-1.6177 J-9.8192
G3 X36.9853 Y-76.1164 I0.6417 J1.3558
G2 X38.7626 Y-77.5686 I-1.8781 J-4.1124
G2 X39.353 Y-79.6569 I-3.0826 J-1.9991
G3 X39.3525 Y-79.6879 I1.4996 J-0.0364
G2 X38.8481 Y-81.2368 I-2.6598 J0.0096
G2 X38.2042 Y-81.9723 I-4.6684 J3.4378
G1 F300.0 Z-4.0
G2 F800.0 X37.39 Y-82.6267 I-4.0245 J4.1733
G2 X35.2001 Y-83.8357 I-10.2317 J15.9462
G3 X35.1829 Y-83.8438 I0.6367 J-1.3582
G2 X32.7706 Y-84.9596 I-32.5959 J67.3062
G3 X32.7694 Y-84.9601 I0.6054 J-1.3724
G1 X25.5292 Y-88.1613
G3 X25.0338 Y-90.551 I0.6066 J-1.3719
G3 X28.1011 Y-92.6134 I5.8771 J5.4283
G3 X28.1176 Y-92.6195 I0.5268 J1.4044
G3 X31.9867 Y-93.2677 I3.7036 J10.2363
G3 X34.8172 Y-92.9706 I0.0735 J12.9348
G3 X34.8177 Y-92.9705 I-0.3197 J1.4655
G3 X37.6122 Y-91.8816 I-2.054 J9.4017
G3 X37.6288 Y-91.8718 I-0.7557 J1.2957
G2 X38.8086 Y-91.2709 I4.8851 J-8.1325
G3 X38.8374 Y-91.2583 I-0.5859 J1.3809
G2 X39.7584 Y-91.0329 I1.0721 J-2.3865
G2 X40.2171 Y-91.0915 I-0.001 J-1.8328
G3 X40.2481 Y-91.0992 I0.3763 J1.452
G2 X40.3525 Y-91.1644 I-0.0442 J-0.187
G2 X40.4493 Y-91.6475 I-0.9614 J-0.4438
G3 X40.4485 Y-91.6779 I1.499 J-0.0556
G2 X39.7793 Y-93.0891 I-1.8899 J0.0318
G3 X39.7628 Y-93.1033 I0.9688 J-1.1452
G2 X37.7985 Y-94.3084 I-4.5703 J5.2461
G3 X37.771 Y-94.3199 I0.5618 J-1.3908
G2 X31.9872 Y-95.4883 I-5.7091 J13.361
G3 X31.965 Y-95.4884 I-0.0077 J-1.5
G2 X27.9552 Y-94.9988 I-0.1488 J15.4473
G2 X24.4718 Y-93.3336 I2.5531 J9.8169
G3 X24.4647 Y-93.3284 I-0.8927 J-1.2055
G2 X22.1917 Y-90.5593 I4.2436 J5.8008
G2 X21.4695 Y-86.9382 I7.96 J3.4702
G3 X21.4697 Y-86.8991 I-1.4998 J0.0261
G2 X22.0701 Y-82.4933 I15.4798 J0.1343
G2 X24.0219 Y-78.6237 I11.4824 J-3.3647
G3 X24.0323 Y-78.6098 I-1.1948 J0.9069
G2 X27.2455 Y-75.9256 I7.1593 J-5.3049
G2 X31.3758 Y-75.0486 I3.9811 J-8.585
G3 X31.4087 Y-75.0488 I0.0236 J1.4998
G2 X34.3225 Y-75.2828 I0.1053 J-16.9474
G3 X34.3273 Y-75.2836 I0.2486 J1.4793
G2 X36.9667 Y-76.1078 I-1.6177 J-9.8192
G3 X36.9853 Y-76.1164 I0.6417 J1.3558
G2 X38.7626 Y-77.5686 I-1.8781 J-4.1124
G2 X39.353 Y-79.6569 I-3.0826 J-1.9991
G3 X39.3525 Y-79.6879 I1.4996 J-0.0364
G2 X38.8481 Y-81.2368 I-2.6598 J0.0096
G2 X38.2042 Y-81.9723 I-4.6684 J3.4378
G0 Z3.0
G0 X36.3358 Y-80.4948
G0 Z1.0
G1 F300.0 Z-2.0
G3 F800.0 X35.8809 Y-78.2495 I-1.1766 J0.9304
G3 X33.6004 Y-77.4419 I-3.6166 J-6.5893
G3 X31.4074 Y-77.248 I-2.1236 J-11.5152
G3 X26.9471 Y-78.9956 I-0.0997 J-6.311
G3 X26.9393 Y-79.0031 I1.0363 J-1.0845
G3 X25.2701 Y-81.2407 I6.0999 J-6.2919
G3 X24.2751 Y-83.6263 I12.647 J-6.6749
G3 X26.303 Y-85.4523 I1.4309 J-0.4499
G2 X31.1308 Y-83.371 I465.8084 J-1073.8435
G3 X31.141 Y-83.3665 I-0.5907 J1.3788
G3 X35.9503 Y-80.8389 I-15.2002 J34.7598
G3 X36.3358 Y-80.4948 I-0.7911 J1.2744
G1 F300.0 Z-4.0
G3 F800.0 X35.8809 Y-78.2495 I-1.1766 J0.9304
G3 X33.6004 Y-77.4419 I-3.6166 J-6.5893
G3 X31.4074 Y-77.248 I-2.1236 J-11.5152
G3 X26.9471 Y-78.9956 I-0.0997 J-6.311
G3 X26.9393 Y-79.0031 I1.0363 J-1.0845
G3 X25.2701 Y-81.2407 I6.0999 J-6.2919
G3 X24.2751 Y-83.6263 I12.647 J-6.6749
G3 X26.303 Y-85.4523 I1.4309 J-0.4499
G2 X31.1308 Y-83.371 I465.8084 J-1073.8435
G3 X31.141 Y-83.3665 I-0.5907 J1.3788
G3 X35.9503 Y-80.8389 I-15.2002 J34.7598
G3 X36.3358 Y-80.4948 I-0.7911 J1.2744
G1 F300.0 X37.3712 Y-81.1085
G3 F800.0 X37.8785 Y-80.5298 I-3.1915 J3.3095
G3 X38.1526 Y-79.6836 I-1.1857 J0.8516
G2 X38.1533 Y-79.6278 I2.7 J-0.0098
G3 X37.7728 Y-78.2481 I-2.4733 J0.0601
G3 X36.4867 Y-77.2079 I-2.6657 J-1.9806
G2 X36.4534 Y-77.1924 I1.1217 J2.456
G3 X36.3842 Y-77.1601 I-3.7438 J-7.9103
G2 X36.4571 Y-77.1996 I-4.12 J-7.6787
G2 X37.3712 Y-81.1085 I-1.298 J-2.3648
G0 Z3.0
G0 X24.085 Y-86.9478
G0 Z-1.0
G1 F300.0 Z-4.0
G3 F800.0 X23.3083 Y-87.8315 I2.0508 J-2.5854
G2 X23.2692 Y-86.9695 I6.8434 J0.7424
G3 X23.2696 Y-86.8835 I-3.2995 J0.0574
G2 X23.2768 Y-86.3061 I13.6799 J0.1186
G3 X24.085 Y-86.9478 I2.4293 J2.23
G1 F300.0 X24.3799 Y-86.4253
G2 F800.0 X23.1327 Y-83.267 I1.3261 J2.3491
G2 X24.2096 Y-80.6841 I14.7844 J-4.6486
G2 X26.1057 Y-78.1433 I8.8295 J-4.6109
G2 X26.1197 Y-78.1297 I1.8777 J-1.9368
G2 X26.4188 Y-77.859 I5.1879 J-5.4292
G3 X24.9965 Y-79.3242 I4.7729 J-6.0557
G2 X24.9778 Y-79.3493 I-2.1694 J1.6074
G3 X23.2226 Y-82.8276 I8.5747 J-6.5088
G3 X22.6696 Y-86.8887 I13.7269 J-3.9372
G2 X22.6693 Y-86.959 I-2.6999 J-0.0234
G3 X23.2859 Y-90.0663 I7.4824 J-0.1301
G3 X25.1733 Y-92.3599 I5.4225 J2.5386
G2 X25.1859 Y-92.3692 I-1.5942 J-2.1791
G3 X26.0664 Y-92.9443 I5.3224 J7.1874
G2 X24.1523 Y-91.3652 I4.8445 J7.8217
G2 X25.0439 Y-87.0638 I1.9834 J1.832
G1 X25.6999 Y-86.7738
G2 X24.3799 Y-86.4253 I0.0061 J2.6976
( Tasche1.5mm )
G0 Z3.0
( T15 : 1.5 )
T15 M6
M3 S1000
G0 X-91.6365 Y-52.9598
G0 Z1.0
G1 F300.0 Z-1.5
G1 F800.0 X-91.8782
G1 X-92.1279 Y-52.9585
G3 X-91.9015 Y-52.625 I-0.7393 J0.7456
G3 X-91.6365 Y-52.9598 I0.9386 J0.4707
G0 Z3.0
G0 X-91.7715 Y-41.2599
G0 Z1.0
G1 F300.0 Z-1.5
G3 F800.0 X-92.7155 Y-40.8564 I-0.832 J-0.6405
G3 X-92.2198 Y-40.4391 I-16.0584 J19.5789
G3 X-92.1496 Y-40.3725 I-0.6864 J0.7946
G2 X-91.7018 Y-39.9978 I1.9536 J-1.8796
G2 X-91.709 Y-40.0504 I-4.9578 J0.6569
G3 X-91.778 Y-40.8335 I6.7509 J-0.9894
G3 X-91.7785 Y-40.8767 I1.0495 J-0.0317
G3 X-91.7715 Y-41.2599 I26.6123 J0.2896
G1 F300.0 X-91.4716 Y-41.2523
G3 F800.0 X-91.4483 Y-41.8786 I26.3054 J0.6652
G3 X-91.4476 Y-41.8909 I0.7491 J0.0368
G2 X-91.4102 Y-42.8197 I-18.3924 J-1.2056
G2 X-91.4866 Y-44.4183 I-22.0645 J0.2535
G3 X-91.4869 Y-44.4215 I0.7474 J-0.063
G2 X-91.6402 Y-46.0584 I-59.4866 J4.7466
G1 Y-46.0585
G3 X-91.797 Y-47.7297 I61.3554 J-6.5989
G3 X-91.8789 Y-49.4407 I23.4009 J-1.9768
G3 Y-49.4571 I0.75 J-0.0085
G3 X-91.7968 Y-50.903 I15.6789 J0.1642
G2 X-91.7126 Y-52.1766 I-17.4765 J-1.796
G3 X-90.9486 Y-52.9042 I0.7497 J0.0223
G1 X-89.9232 Y-52.8846
G3 X-89.9133 Y-52.8844 I-0.0143 J0.7499
G2 X-89.8034 Y-52.929 I0.0047 J-0.1461
G3 X-89.7814 Y-52.9508 I0.5397 J0.5208
G2 X-89.7399 Y-53.0515 I-0.0925 J-0.097
G3 X-89.7398 Y-53.0965 I0.7497 J-0.0207
G2 X-89.7844 Y-53.2064 I-0.1461 J-0.0047
G3 X-89.7912 Y-53.2129 I0.5208 J-0.5397
G2 X-89.9119 Y-53.2602 I-0.1152 J0.1164
G3 X-89.9375 Y-53.2598 I-0.0256 J-0.7496
G1 X-91.879
G1 X-93.8107 Y-53.25
G3 X-93.8174 I-0.0038 J-0.75
G2 X-94.249 Y-53.2374 I-0.0256 J6.5158
G3 X-94.2625 Y-53.2367 I-0.0467 J-0.7485
G2 X-94.5202 Y-53.2019 I0.0643 J1.4491
G3 X-94.5204 Y-53.1331 I-0.7493 J0.032
G2 X-94.4631 Y-53.047 I0.0869 J0.0043
G3 X-94.4591 Y-53.0455 I-0.2553 J0.7052
G2 X-93.7616 Y-52.9332 I0.6356 J-1.7246
G3 X-93.7519 Y-52.9334 I0.0253 J0.7496
G1 X-93.2937 Y-52.943
G1 X-92.9037 Y-52.962
G3 X-92.1174 Y-52.1966 I0.0365 J0.7491
G3 X-92.2087 Y-50.752 I-17.4645 J-0.3795
G2 X-92.2831 Y-49.4454 I17.9715 J1.6786
G2 X-92.2086 Y-47.6157 I30.0683 J-0.3086
G3 X-92.2084 Y-47.6126 I-0.7481 J0.0533
G2 X-92.0616 Y-45.747 I82.0809 J-5.5181
G3 X-92.0615 Y-45.7451 I-0.747 J0.0673
G3 X-91.9188 Y-43.8401 I-75.5669 J6.6158
G3 X-91.8535 Y-41.9016 I-30.1589 J1.9863
G3 X-93.0659 Y-41.3099 I-0.75 J0.0012
G2 X-93.8187 Y-41.8623 I-9.2137 J11.7663
G2 X-94.1822 Y-42.0897 I-2.8928 J4.2199
G2 X-94.3224 Y-42.1603 I-0.7965 J1.409
G2 X-94.4124 Y-42.1075 I0.0461 J0.1816
G3 X-94.4324 Y-42.087 I-0.5447 J-0.5156
G2 X-94.4879 Y-41.9794 I0.1345 J0.1374
G2 X-94.2868 Y-41.7293 I1.0402 J-0.6308
G3 X-94.2802 Y-41.7229 I-0.5173 J0.543
G2 X-93.9492 Y-41.4351 I2.6595 J-2.7239
G3 X-92.4159 Y-40.2121 I-14.8248 J20.1576
G3 X-92.3658 Y-40.1645 I-0.4903 J0.5675
G2 X-91.7765 Y-39.6893 I2.1698 J-2.0876
G3 X-91.769 Y-39.6846 I-0.3937 J0.6384
G2 X-91.362 Y-39.5349 I0.5515 J-0.8712
G2 X-91.4121 Y-40.0935 I-5.2976 J0.194
G3 X-91.4782 Y-40.8426 I6.454 J-0.9463
G3 X-91.4785 Y-40.8734 I0.7497 J-0.0227
G3 X-91.4716 Y-41.2523 I26.3123 J0.2863
G1 F300.0 X-91.7715 Y-41.2599
G1 Z-3.0
G3 F800.0 X-92.7155 Y-40.8564 I-0.832 J-0.6405
G3 X-92.2198 Y-40.4391 I-16.0584 J19.5789
G3 X-92.1496 Y-40.3725 I-0.6864 J0.7946
G2 X-91.7018 Y-39.9978 I1.9536 J-1.8796
G2 X-91.709 Y-40.0504 I-4.9578 J0.6569
G3 X-91.778 Y-40.8335 I6.7509 J-0.9894
G3 X-91.7785 Y-40.8767 I1.0495 J-0.0317
G3 X-91.7715 Y-41.2599 I26.6123 J0.2896
G0 Z3.0
G0 X-91.9015 Y-52.625
G0 Z-0.5
G1 F300.0 Z-3.0
G3 F800.0 X-91.6365 Y-52.9598 I0.9386 J0.4707
G1 X-91.8782
G1 X-92.1279 Y-52.9585
G3 X-91.9015 Y-52.625 I-0.7393 J0.7456
G1 F300.0 X-91.6333 Y-52.4905
G3 F800.0 X-90.9486 Y-52.9042 I0.6704 J0.3362
G1 X-89.9232 Y-52.8846
G3 X-89.9133 Y-52.8844 I-0.0143 J0.7499
G2 X-89.8034 Y-52.929 I0.0047 J-0.1461
G3 X-89.7814 Y-52.9508 I0.5397 J0.5208
G2 X-89.7399 Y-53.0515 I-0.0925 J-0.097
G3 X-89.7398 Y-53.0965 I0.7497 J-0.0207
G2 X-89.7844 Y-53.2064 I-0.1461 J-0.0047
G3 X-89.7912 Y-53.2129 I0.5208 J-0.5397
G2 X-89.9119 Y-53.2602 I-0.1152 J0.1164
G3 X-89.9375 Y-53.2598 I-0.0256 J-0.7496
G1 X-91.879
G1 X-93.8107 Y-53.25
G3 X-93.8174 I-0.0038 J-0.75
G2 X-94.249 Y-53.2374 I-0.0256 J6.5158
G3 X-94.2625 Y-53.2367 I-0.0467 J-0.7485
G2 X-94.5202 Y-53.2019 I0.0643 J1.4491
G3 X-94.5204 Y-53.1331 I-0.7493 J0.032
G2 X-94.4631 Y-53.047 I0.0869 J0.0043
G3 X-94.4591 Y-53.0455 I-0.2553 J0.7052
G2 X-93.7616 Y-52.9332 I0.6356 J-1.7246
G3 X-93.7519 Y-52.9334 I0.0253 J0.7496
G1 X-93.2937 Y-52.943
G1 X-92.9037 Y-52.962
G3 X-92.1174 Y-52.1966 I0.0365 J0.7491
G3 X-92.2087 Y-50.752 I-17.4645 J-0.3795
G2 X-92.2831 Y-49.4454 I17.9715 J1.6786
G2 X-92.2086 Y-47.6157 I30.0683 J-0.3086
G3 X-92.2084 Y-47.6126 I-0.7481 J0.0533
G2 X-92.0616 Y-45.747 I82.0809 J-5.5181
G3 X-92.0615 Y-45.7451 I-0.747 J0.0673
G3 X-91.9188 Y-43.8401 I-75.5669 J6.6158
G3 X-91.8535 Y-41.9016 I-30.1589 J1.9863
G3 X-93.0659 Y-41.3099 I-0.75 J0.0012
G2 X-93.8187 Y-41.8623 I-9.2137 J11.7663
G2 X-94.1822 Y-42.0897 I-2.8928 J4.2199
G2 X-94.3224 Y-42.1603 I-0.7965 J1.409
G2 X-94.4124 Y-42.1075 I0.0461 J0.1816
G3 X-94.4324 Y-42.087 I-0.5447 J-0.5156
G2 X-94.4879 Y-41.9794 I0.1345 J0.1374
G2 X-94.2868 Y-41.7293 I1.0402 J-0.6308
G3 X-94.2802 Y-41.7229 I-0.5173 J0.543
G2 X-93.9492 Y-41.4351 I2.6595 J-2.7239
G3 X-92.4159 Y-40.2121 I-14.8248 J20.1576
G3 X-92.3658 Y-40.1645 I-0.4903 J0.5675
G2 X-91.7765 Y-39.6893 I2.1698 J-2.0876
G3 X-91.769 Y-39.6846 I-0.3937 J0.6384
G2 X-91.362 Y-39.5349 I0.5515 J-0.8712
G2 X-91.4121 Y-40.0935 I-5.2976 J0.194
G3 X-91.4782 Y-40.8426 I6.454 J-0.9463
G3 X-91.4785 Y-40.8734 I0.7497 J-0.0227
G3 X-91.4483 Y-41.8786 I26.3123 J0.2863
G3 X-91.4476 Y-41.8909 I0.7491 J0.0368
G2 X-91.4102 Y-42.8197 I-18.3924 J-1.2056
G2 X-91.4866 Y-44.4183 I-22.0645 J0.2535
G3 X-91.4869 Y-44.4215 I0.7474 J-0.063
G2 X-91.6402 Y-46.0584 I-59.4866 J4.7466
G1 Y-46.0585
G3 X-91.797 Y-47.7297 I61.3554 J-6.5989
G3 X-91.8789 Y-49.4407 I23.4009 J-1.9768
G3 Y-49.4571 I0.75 J-0.0085
G3 X-91.7968 Y-50.903 I15.6789 J0.1642
G2 X-91.7126 Y-52.1766 I-17.4765 J-1.796
G3 X-91.6333 Y-52.4905 I0.7497 J0.0223
G0 Z3.0
G0 X-84.754 Y-46.4645
G0 Z1.0
G1 F300.0 Z-1.5
G3 F800.0 X-84.293 Y-46.8978 I2.4574 J2.1526
G3 X-82.9807 Y-47.5627 I2.3769 J3.0641
G3 X-82.9777 Y-47.5635 I0.2059 J0.7212
G3 X-81.5905 Y-47.748 I1.3399 J4.7668
G3 X-81.5769 Y-47.7478 I-0.0072 J0.75
G3 X-79.5863 Y-47.1756 I-0.1149 J4.1487
G3 X-79.5728 Y-47.1675 I-0.3805 J0.6463
G3 X-78.1058 Y-46.1589 I-9.5098 J15.4037
G3 X-77.8203 Y-45.6833 I-0.4548 J0.5964
G3 X-77.6838 Y-44.2344 I-10.601 J1.7295
G3 X-77.6837 Y-44.2046 I-0.7497 J0.0196
G3 X-78.056 Y-42.6065 I-3.8408 J-0.0524
G3 X-78.0569 Y-42.6046 I-0.6772 J-0.3223
G3 X-78.9042 Y-41.3382 I-4.8311 J-2.3157
G3 X-79.9679 Y-40.4014 I-3.7681 J-3.2066
G3 X-81.5263 Y-39.92 I-1.6083 J-2.4431
G3 X-81.5284 I-0.0128 J-0.7499
G3 X-83.0654 Y-40.1232 I-0.0759 J-5.3401
G3 X-84.5401 Y-40.9892 I0.9272 J-3.2677
G3 X-84.5582 Y-41.008 I0.5304 J-0.5303
G3 X-85.3941 Y-42.5299 I2.5831 J-2.4092
G3 X-85.5899 Y-44.0748 I5.7177 J-1.5095
G3 X-85.2992 Y-45.599 I3.8505 J-0.0554
G3 X-85.294 Y-45.6112 I0.6933 J0.2861
G3 X-84.754 Y-46.4645 I2.9974 J1.2993
G0 Z3.0
G0 X-78.7561 Y-46.9947
G0 Z1.0
G1 F300.0 Z-1.5
G3 F800.0 X-77.9246 Y-46.3965 I-10.3265 J15.2309
G3 X-77.7416 Y-46.2177 I-0.636 J0.834
G2 X-78.0807 Y-47.666 I-11.5715 J1.9456
G3 X-78.7561 Y-46.9947 I-0.9974 J-0.3281
G1 F300.0 X-78.8481 Y-47.2803
G3 F800.0 X-79.4348 Y-47.3344 I-0.23 J-0.7139
G2 X-80.6932 Y-47.85 I-3.0346 J5.6131
G3 X-80.7074 Y-47.8542 I0.2088 J-0.7204
G2 X-81.3292 Y-48.0167 I-2.0582 J6.6081
G3 X-81.3349 Y-48.0179 I0.1557 J-0.7337
G2 X-81.8908 Y-48.084 I-0.6131 J2.7834
G2 X-83.3428 Y-47.873 I-0.0331 J4.8735
G2 X-84.6188 Y-47.2127 I1.2304 J3.9405
G3 X-84.6258 Y-47.2074 I-0.4554 J-0.5959
G2 X-85.6442 Y-45.9353 I1.9316 J2.59
G2 X-85.965 Y-44.267 I3.8048 J1.5966
G3 Y-44.2411 I-0.7499 J0.0131
G2 X-85.6451 Y-42.2652 I5.667 J0.0966
G2 X-84.5643 Y-40.7459 I3.2976 J-1.2018
G2 X-83.054 Y-39.9775 I2.6193 J-3.2798
G2 X-81.2736 Y-39.75 I1.7109 J-6.3077
G3 X-81.2626 I0.008 J0.75
G2 X-79.8264 Y-40.07 I0.0136 J-3.3212
G2 X-78.5871 Y-40.981 I-1.9119 J-3.8996
G3 X-78.5758 Y-40.9926 I0.5442 J0.5161
G2 X-77.2792 Y-44.2049 I-3.1829 J-3.1525
G3 X-77.2793 Y-44.2182 I0.7499 J-0.01
G2 X-78.1434 Y-48.7502 I-12.0338 J-0.0539
G3 X-78.1468 Y-48.759 I0.6961 J-0.2791
G2 X-79.1568 Y-50.6933 I-9.0726 J3.506
G3 X-79.1569 Y-50.6935 I0.6217 J-0.4195
G2 X-80.5955 Y-52.2132 I-5.2912 J3.5681
G2 X-81.6156 Y-52.8376 I-5.1679 J7.2977
G3 X-81.621 Y-52.8404 I0.3479 J-0.6644
G2 X-82.7558 Y-53.4088 I-11.4777 J21.4989
G3 X-82.7655 Y-53.4134 I0.3183 J-0.6791
G2 X-83.8936 Y-53.9096 I-7.0335 J14.4615
G2 X-84.442 Y-54.0969 I-2.3707 J6.0435
G3 X-84.4544 Y-54.1007 I0.2105 J-0.7198
G2 X-84.8906 Y-54.1779 I-0.5217 J1.6753
G2 X-84.9679 Y-54.1418 I0.0021 J0.1053
G3 X-84.9715 Y-54.1377 I-0.5653 J-0.4929
G2 X-85.0372 Y-53.961 I0.1958 J0.1733
G3 Y-53.9377 I-0.7499 J0.0099
G2 X-85.0271 Y-53.9037 I0.0585 J0.0011
G2 X-84.8557 Y-53.7832 I0.3929 J-0.3771
G1 X-83.2499 Y-53.2352
G3 X-83.213 Y-53.2215 I-0.2423 J0.7098
G3 X-81.8663 Y-52.5739 I-4.1668 J10.3883
G3 X-80.6 Y-51.6688 I-3.5237 J6.2683
G3 X-80.5886 Y-51.6584 I-0.4996 J0.5594
G3 X-79.5712 Y-50.4631 I-4.618 J4.9614
G3 X-78.8251 Y-49.1651 I-8.806 J5.9255
G1 X-78.4073 Y-48.3296
G3 X-78.8481 Y-47.2803 I-0.6708 J0.3354
G1 F300.0 X-78.7561 Y-46.9947
G1 Z-3.0
G3 F800.0 X-77.9246 Y-46.3965 I-10.3265 J15.2309
G3 X-77.7416 Y-46.2177 I-0.636 J0.834
G2 X-78.0807 Y-47.666 I-11.5715 J1.9456
G3 X-78.7561 Y-46.9947 I-0.9974 J-0.3281
G1 F300.0 X-78.8481 Y-47.2803
G3 F800.0 X-79.4348 Y-47.3344 I-0.23 J-0.7139
G2 X-80.6932 Y-47.85 I-3.0346 J5.6131
G3 X-80.7074 Y-47.8542 I0.2088 J-0.7204
G2 X-81.3292 Y-48.0167 I-2.0582 J6.6081
G3 X-81.3349 Y-48.0179 I0.1557 J-0.7337
G2 X-81.8908 Y-48.084 I-0.6131 J2.7834
G2 X-83.3428 Y-47.873 I-0.0331 J4.8735
G2 X-84.6188 Y-47.2127 I1.2304 J3.9405
G3 X-84.6258 Y-47.2074 I-0.4554 J-0.5959
G2 X-85.6442 Y-45.9353 I1.9316 J2.59
G2 X-85.965 Y-44.267 I3.8048 J1.5966
G3 Y-44.2411 I-0.7499 J0.0131
G2 X-85.6451 Y-42.2652 I5.667 J0.0966
G2 X-84.5643 Y-40.7459 I3.2976 J-1.2018
G2 X-83.054 Y-39.9775 I2.6193 J-3.2798
G2 X-81.2736 Y-39.75 I1.7109 J-6.3077
G3 X-81.2626 I0.008 J0.75
G2 X-79.8264 Y-40.07 I0.0136 J-3.3212
G2 X-78.5871 Y-40.981 I-1.9119 J-3.8996
G3 X-78.5758 Y-40.9926 I0.5442 J0.5161
G2 X-77.2792 Y-44.2049 I-3.1829 J-3.1525
G3 X-77.2793 Y-44.2182 I0.7499 J-0.01
G2 X-78.1434 Y-48.7502 I-12.0338 J-0.0539
G3 X-78.1468 Y-48.759 I0.6961 J-0.2791
G2 X-79.1568 Y-50.6933 I-9.0726 J3.506
G3 X-79.1569 Y-50.6935 I0.6217 J-0.4195
G2 X-80.5955 Y-52.2132 I-5.2912 J3.5681
G2 X-81.6156 Y-52.8376 I-5.1679 J7.2977
G3 X-81.621 Y-52.8404 I0.3479 J-0.6644
G2 X-82.7558 Y-53.4088 I-11.4777 J21.4989
G3 X-82.7655 Y-53.4134 I0.3183 J-0.6791
G2 X-83.8936 Y-53.9096 I-7.0335 J14.4615
G2 X-84.442 Y-54.0969 I-2.3707 J6.0435
G3 X-84.4544 Y-54.1007 I0.2105 J-0.7198
G2 X-84.8906 Y-54.1779 I-0.5217 J1.6753
G2 X-84.9679 Y-54.1418 I0.0021 J0.1053
G3 X-84.9715 Y-54.1377 I-0.5653 J-0.4929
G2 X-85.0372 Y-53.961 I0.1958 J0.1733
G3 Y-53.9377 I-0.7499 J0.0099
G2 X-85.0271 Y-53.9037 I0.0585 J0.0011
G2 X-84.8557 Y-53.7832 I0.3929 J-0.3771
G1 X-83.2499 Y-53.2352
G3 X-83.213 Y-53.2215 I-0.2423 J0.7098
G3 X-81.8663 Y-52.5739 I-4.1668 J10.3883
G3 X-80.6 Y-51.6688 I-3.5237 J6.2683
G3 X-80.5886 Y-51.6584 I-0.4996 J0.5594
G3 X-79.5712 Y-50.4631 I-4.618 J4.9614
G3 X-78.8251 Y-49.1651 I-8.806 J5.9255
G1 X-78.4073 Y-48.3296
G3 X-78.8481 Y-47.2803 I-0.6708 J0.3354
G1 F300.0 X-79.1152 Y-46.8754
G3 F800.0 X-78.1058 Y-46.1589 I-9.9674 J15.1116
G3 X-77.8203 Y-45.6833 I-0.4548 J0.5964
G3 X-77.6838 Y-44.2344 I-10.601 J1.7295
G3 X-77.6837 Y-44.2046 I-0.7497 J0.0196
G3 X-78.056 Y-42.6065 I-3.8408 J-0.0524
G3 X-78.0569 Y-42.6046 I-0.6772 J-0.3223
G3 X-78.9042 Y-41.3382 I-4.8311 J-2.3157
G3 X-79.9679 Y-40.4014 I-3.7681 J-3.2066
G3 X-81.5263 Y-39.92 I-1.6083 J-2.4431
G3 X-81.5284 I-0.0128 J-0.7499
G3 X-83.0654 Y-40.1232 I-0.0759 J-5.3401
G3 X-84.5401 Y-40.9892 I0.9272 J-3.2677
G3 X-84.5582 Y-41.008 I0.5304 J-0.5303
G3 X-85.3941 Y-42.5299 I2.5831 J-2.4092
G3 X-85.5899 Y-44.0748 I5.7177 J-1.5095
G3 X-85.2992 Y-45.599 I3.8505 J-0.0554
G3 X-85.294 Y-45.6112 I0.6933 J0.2861
G3 X-84.293 Y-46.8978 I2.9974 J1.2993
G3 X-82.9807 Y-47.5627 I2.3769 J3.0641
G3 X-82.9777 Y-47.5635 I0.2059 J0.7212
G3 X-81.5905 Y-47.748 I1.3399 J4.7668
G3 X-81.5769 Y-47.7478 I-0.0072 J0.75
G3 X-79.5863 Y-47.1756 I-0.1149 J4.1487
G3 X-79.5728 Y-47.1675 I-0.3805 J0.6463
G3 X-79.1152 Y-46.8754 I-9.5098 J15.4037
G0 Z3.0
G0 X-73.3222 Y-47.0157
G0 Z1.0
G1 F300.0 Z-1.5
G2 F800.0 X-73.0221 Y-45.801 I9.2912 J-1.6516
G3 X-72.4386 Y-46.431 I0.9947 J0.3362
G3 X-73.1168 Y-46.845 I11.5005 J-19.5985
G3 X-73.3222 Y-47.0157 I0.5621 J-0.8855
G1 F300.0 X-73.6176 Y-46.9632
G2 F800.0 X-72.8094 Y-44.4547 I9.5866 J-1.7041
G2 X-71.6351 Y-42.5758 I9.3967 J-4.5666
G2 X-70.1002 Y-40.9347 I10.2191 J-8.0198
G3 X-70.0684 Y-40.9045 I-0.5014 J0.5578
G1 X-69.1557 Y-39.982
G2 X-68.7728 Y-39.6549 I2.7849 J-2.8723
G2 X-68.6212 Y-39.5589 I0.7143 J-0.9598
G2 X-68.5179 Y-39.615 I-0.0411 J-0.1988
G3 X-68.4814 Y-39.6496 I0.5335 J0.5271
G2 X-68.448 Y-39.6924 I-0.0981 J-0.1109
G2 X-68.7157 Y-40.0499 I-1.8571 J1.112
G3 X-68.7273 Y-40.0627 I0.5507 J-0.5092
G2 X-69.2023 Y-40.5636 I-7.2653 J6.4138
G1 X-71.1936 Y-42.5061
G3 X-71.2133 Y-42.526 I0.5237 J-0.5369
G3 X-72.1437 Y-43.8377 I4.0721 J-3.8744
G3 X-72.7369 Y-45.222 I8.8959 J-4.6314
G3 X-71.7072 Y-46.1431 I0.7096 J-0.2428
G2 X-70.3217 Y-45.6053 I4.4888 J-9.5107
G3 X-70.3039 Y-45.5996 I-0.2213 J0.7166
G2 X-69.4756 Y-45.4431 I0.9786 J-2.9105
G2 X-67.8355 Y-45.6703 I0.0649 J-5.5658
G2 X-66.5219 Y-46.445 I-0.9033 J-3.0326
G2 X-65.7505 Y-47.7342 I-2.256 J-2.2254
G2 X-65.5214 Y-49.351 I-5.0768 J-1.5439
G3 Y-49.3698 I0.7499 J-0.0103
G2 X-65.7856 Y-51.1632 I-5.7796 J-0.065
G2 X-66.6491 Y-52.6702 I-3.9853 J1.2828
G3 X-66.6511 Y-52.6725 I0.5592 J-0.4998
G2 X-68.0342 Y-53.6467 I-2.7541 J2.4409
G2 X-69.7609 Y-53.9532 I-1.6609 J4.3405
G3 X-69.7874 Y-53.9533 I-0.0106 J-0.7499
G2 X-71.5874 Y-53.5953 I-0.0904 J4.2489
G2 X-72.8857 Y-52.4401 I1.3253 J2.7967
G3 X-72.8868 Y-52.4384 I-0.6358 J-0.3978
G2 X-73.576 Y-50.7147 I4.3545 J2.7408
G3 X-73.5766 Y-50.7117 I-0.7352 J-0.1483
G2 X-73.7676 Y-48.7527 I9.1124 J1.8773
G3 Y-48.7405 I-0.75 J0.0066
G2 X-73.6176 Y-46.9632 I9.7366 J0.0732
G1 F300.0 X-73.1628 Y-47.2915
G3 F800.0 X-73.2998 Y-47.6451 I0.6081 J-0.439
G3 X-73.3633 Y-48.743 I9.706 J-1.1118
G3 X-73.2303 Y-50.335 I8.8756 J-0.0602
G3 X-72.6967 Y-51.936 I5.4902 J0.9405
G3 X-71.4854 Y-53.282 I3.0351 J1.5135
G3 X-71.4615 Y-53.2966 I0.4033 J0.6323
G3 X-69.7104 Y-53.754 I1.6864 J2.875
G3 X-68.1483 Y-53.4474 I0.0509 J3.8725
G3 X-68.1353 Y-53.4417 I-0.2927 J0.6905
G3 X-66.8289 Y-52.4008 I-1.3603 J3.0474
G3 X-66.1098 Y-50.901 I-3.3379 J2.5227
G3 X-65.9257 Y-49.3634 I-5.8915 J1.4851
G3 X-66.1251 Y-48.0432 I-4.0996 J0.0561
G3 X-66.1263 Y-48.0395 I-0.7135 J-0.2312
G3 X-66.9553 Y-46.7932 I-2.6801 J-0.884
G3 X-66.967 Y-46.7833 I-0.4919 J-0.5661
G3 X-68.3841 Y-46.0861 I-2.147 J-2.5752
G3 X-69.7701 Y-45.9355 I-1.3256 J-5.7444
G3 X-71.5681 Y-46.288 I-0.0612 J-4.4497
G3 X-71.6331 Y-46.3193 I0.2927 J-0.6905
G3 X-72.9566 Y-47.0973 I10.6949 J-19.7102
G3 X-73.1628 Y-47.2915 I0.402 J-0.6332
G1 F300.0 Z-3.0
G3 F800.0 X-73.2998 Y-47.6451 I0.6081 J-0.439
G3 X-73.3633 Y-48.743 I9.706 J-1.1118
G3 X-73.2303 Y-50.335 I8.8756 J-0.0602
G3 X-72.6967 Y-51.936 I5.4902 J0.9405
G3 X-71.4854 Y-53.282 I3.0351 J1.5135
G3 X-71.4615 Y-53.2966 I0.4033 J0.6323
G3 X-69.7104 Y-53.754 I1.6864 J2.875
G3 X-68.1483 Y-53.4474 I0.0509 J3.8725
G3 X-68.1353 Y-53.4417 I-0.2927 J0.6905
G3 X-66.8289 Y-52.4008 I-1.3603 J3.0474
G3 X-66.1098 Y-50.901 I-3.3379 J2.5227
G3 X-65.9257 Y-49.3634 I-5.8915 J1.4851
G3 X-66.1251 Y-48.0432 I-4.0996 J0.0561
G3 X-66.1263 Y-48.0395 I-0.7135 J-0.2312
G3 X-66.9553 Y-46.7932 I-2.6801 J-0.884
G3 X-66.967 Y-46.7833 I-0.4919 J-0.5661
G3 X-68.3841 Y-46.0861 I-2.147 J-2.5752
G3 X-69.7701 Y-45.9355 I-1.3256 J-5.7444
G3 X-71.5681 Y-46.288 I-0.0612 J-4.4497
G3 X-71.6331 Y-46.3193 I0.2927 J-0.6905
G3 X-72.9566 Y-47.0973 I10.6949 J-19.7102
G3 X-73.1628 Y-47.2915 I0.402 J-0.6332
G1 F300.0 X-73.3222 Y-47.0157
G2 F800.0 X-73.0221 Y-45.801 I9.2912 J-1.6516
G3 X-72.4386 Y-46.431 I0.9947 J0.3362
G3 X-73.1168 Y-46.845 I11.5005 J-19.5985
G3 X-73.3222 Y-47.0157 I0.5621 J-0.8855
G1 F300.0 X-73.6176 Y-46.9632
G2 F800.0 X-72.8094 Y-44.4547 I9.5866 J-1.7041
G2 X-71.6351 Y-42.5758 I9.3967 J-4.5666
G2 X-70.1002 Y-40.9347 I10.2191 J-8.0198
G3 X-70.0684 Y-40.9045 I-0.5014 J0.5578
G1 X-69.1557 Y-39.982
G2 X-68.7728 Y-39.6549 I2.7849 J-2.8723
G2 X-68.6212 Y-39.5589 I0.7143 J-0.9598
G2 X-68.5179 Y-39.615 I-0.0411 J-0.1988
G3 X-68.4814 Y-39.6496 I0.5335 J0.5271
G2 X-68.448 Y-39.6924 I-0.0981 J-0.1109
G2 X-68.7157 Y-40.0499 I-1.8571 J1.112
G3 X-68.7273 Y-40.0627 I0.5507 J-0.5092
G2 X-69.2023 Y-40.5636 I-7.2653 J6.4138
G1 X-71.1936 Y-42.5061
G3 X-71.2133 Y-42.526 I0.5237 J-0.5369
G3 X-72.1437 Y-43.8377 I4.0721 J-3.8744
G3 X-72.7369 Y-45.222 I8.8959 J-4.6314
G3 X-71.7072 Y-46.1431 I0.7096 J-0.2428
G2 X-70.3217 Y-45.6053 I4.4888 J-9.5107
G3 X-70.3039 Y-45.5996 I-0.2213 J0.7166
G2 X-69.4756 Y-45.4431 I0.9786 J-2.9105
G2 X-67.8355 Y-45.6703 I0.0649 J-5.5658
G2 X-66.5219 Y-46.445 I-0.9033 J-3.0326
G2 X-65.7505 Y-47.7342 I-2.256 J-2.2254
G2 X-65.5214 Y-49.351 I-5.0768 J-1.5439
G3 Y-49.3698 I0.7499 J-0.0103
G2 X-65.7856 Y-51.1632 I-5.7796 J-0.065
G2 X-66.6491 Y-52.6702 I-3.9853 J1.2828
G3 X-66.6511 Y-52.6725 I0.5592 J-0.4998
G2 X-68.0342 Y-53.6467 I-2.7541 J2.4409
G2 X-69.7609 Y-53.9532 I-1.6609 J4.3405
G3 X-69.7874 Y-53.9533 I-0.0106 J-0.7499
G2 X-71.5874 Y-53.5953 I-0.0904 J4.2489
G2 X-72.8857 Y-52.4401 I1.3253 J2.7967
G3 X-72.8868 Y-52.4384 I-0.6358 J-0.3978
G2 X-73.576 Y-50.7147 I4.3545 J2.7408
G3 X-73.5766 Y-50.7117 I-0.7352 J-0.1483
G2 X-73.7676 Y-48.7527 I9.1124 J1.8773
G3 Y-48.7405 I-0.75 J0.0066
G2 X-73.6176 Y-46.9632 I9.7366 J0.0732
G0 Z3.0
G0 X-60.7124 Y-52.7957
G0 Z1.0
G1 F300.0 Z-1.5
G3 F800.0 X-60.6053 Y-52.912 I0.8237 J0.6511
G3 X-60.6927 Y-52.9052 I-0.2719 J-2.9514
G2 X-60.7124 Y-52.7957 I1.4555 J0.3189
G1 F300.0 X-61.0094 Y-52.8378
G2 F800.0 X-61.0249 Y-52.6769 I1.7723 J0.2514
G3 X-61.0257 Y-52.6634 I-0.749 J-0.0379
G2 X-61.043 Y-52.1281 I7.3431 J0.505
G3 Y-52.1162 I-0.75 J0.0031
G2 X-60.7999 Y-50.3956 I5.7349 J0.067
G2 X-60.002 Y-48.9722 I3.6979 J-1.1375
G2 X-59.3757 Y-48.4107 I4.2555 J-4.116
G3 X-59.3746 Y-48.4098 I-0.4598 J0.5926
G2 X-57.0761 Y-46.7405 I25.9091 J-33.2577
G3 X-57.074 Y-46.7391 I-0.42 J0.6213
G3 X-56.0749 Y-46.0188 I-12.8902 J18.9343
G3 X-55.0852 Y-45.1395 I-4.4697 J6.0275
G3 X-55.0785 Y-45.1323 I-0.5457 J0.5145
G3 X-54.0411 Y-42.4182 I-2.9003 J2.6639
G3 Y-42.4161 I-0.7499 J-0.0096
G3 X-54.4893 Y-41.2667 I-1.7683 J-0.0275
G3 X-55.2078 Y-40.6758 I-2.2062 J-1.9504
G3 X-56.9777 Y-40.1253 I-1.8628 J-2.8684
G3 X-57.0014 Y-40.125 I-0.0204 J-0.7497
G3 X-59.1203 Y-40.7667 I0.0176 J-3.8771
G3 X-59.1695 Y-40.8021 I0.4133 J-0.6259
G1 X-60.566 Y-41.8959
G3 X-60.5742 Y-41.9024 I0.4625 J-0.5905
G2 X-60.7914 Y-42.0513 I-1.0675 J1.3245
G3 X-60.8127 Y-42.0641 I0.3749 J-0.6496
G2 X-60.8275 Y-42.0698 I-0.0224 J0.0361
G2 X-61.0335 Y-42.0372 I-0.0152 J0.5719
G3 X-61.0332 Y-42.0175 I-0.7497 J0.0196
G2 X-60.9328 Y-41.8034 I0.2783 J0.0
G3 X-60.8966 Y-41.7713 I-0.4793 J0.5768
G2 X-59.9914 Y-40.9779 I10.8358 J-11.4501
G3 X-59.9881 Y-40.9753 I-0.4724 J0.5825
G2 X-59.0496 Y-40.3204 I4.6717 J-5.6951
G3 X-59.0484 Y-40.3197 I-0.3801 J0.6465
G2 X-56.9925 Y-39.75 I2.0863 J-3.5344
G3 X-56.9873 Y-39.7499 I-0.0056 J0.75
G2 X-54.6026 Y-40.4761 I0.0584 J-4.0872
G3 X-54.5928 Y-40.4828 I0.4268 J0.6167
G2 X-53.8057 Y-41.302 I-1.4741 J-2.2038
G2 X-53.539 Y-42.3304 I-1.7517 J-1.0031
G3 Y-42.3473 I0.7499 J-0.0094
G2 X-53.784 Y-43.9394 I-4.9741 J-0.0494
G2 X-54.5015 Y-45.2213 I-3.8003 J1.2852
G2 X-55.5441 Y-46.1758 I-4.9006 J4.3062
G3 X-55.5504 Y-46.1804 I0.4435 J-0.6048
G2 X-56.8045 Y-47.0327 I-9.8211 J13.1031
G3 X-56.8091 Y-47.0356 I0.3924 J-0.6392
G3 X-58.0799 Y-47.8697 I17.4191 J-27.9214
G3 X-59.3397 Y-48.8751 I5.326 J-7.9656
G3 X-59.3586 Y-48.8937 I0.5155 J-0.5448
G3 X-60.6383 Y-52.1691 I3.1777 J-3.1292
G3 X-59.8198 Y-52.8914 I0.7496 J0.0246
G1 X-57.8191 Y-52.7068
G2 X-54.9099 Y-52.5918 I3.9876 J-63.9839
G2 X-53.7778 Y-52.7969 I0.013 J-3.1547
G3 X-53.7661 Y-52.8012 I0.2661 J0.7012
G2 X-53.4058 Y-53.0081 I-0.4048 J-1.1226
G3 X-53.4005 Y-53.0124 I0.4809 J0.5755
G2 X-53.3828 Y-53.0478 I-0.0308 J-0.0375
G2 X-53.4514 Y-53.222 I-0.2637 J0.0031
G3 X-53.4645 Y-53.2368 I0.5549 J-0.5045
G2 X-53.5267 Y-53.2692 I-0.0718 J0.0619
G2 X-53.9804 Y-53.1709 I0.1544 J1.8086
G3 X-54.8586 Y-52.9691 I-1.1224 J-2.8738
G3 X-54.9283 Y-52.9669 I-0.0593 J-0.7476
G3 X-56.4605 Y-53.027 I0.4166 J-30.1898
G2 X-57.926 Y-53.0841 I-1.8485 J28.609
G3 X-57.9385 Y-53.0843 I0.01 J-0.7499
G3 X-59.155 Y-53.1892 I0.3261 J-10.8907
G3 X-59.1563 Y-53.1894 I0.1062 J-0.7424
G2 X-60.1645 Y-53.2787 I-1.3092 J9.0432
G2 X-60.3303 Y-53.2562 I0.0724 J1.157
G3 X-60.3304 I-0.1541 J-0.734
G3 X-60.7654 Y-53.2018 I-0.5468 J-2.6072
G3 X-60.8255 Y-53.2017 I-0.0315 J-0.7493
G2 X-60.9043 Y-53.1844 I-0.0061 J0.1606
G2 X-60.9521 Y-53.1 I0.142 J0.136
G3 X-60.9557 Y-53.0871 I-0.7237 J-0.1969
G2 X-61.0094 Y-52.8378 I1.7185 J0.5007
G1 F300.0 X-60.7124 Y-52.7957
G1 Z-3.0
G3 F800.0 X-60.6053 Y-52.912 I0.8237 J0.6511
G3 X-60.6927 Y-52.9052 I-0.2719 J-2.9514
G2 X-60.7124 Y-52.7957 I1.4555 J0.3189
G1 F300.0 X-61.0094 Y-52.8378
G2 F800.0 X-61.0249 Y-52.6769 I1.7723 J0.2514
G3 X-61.0257 Y-52.6634 I-0.749 J-0.0379
G2 X-61.043 Y-52.1281 I7.3431 J0.505
G3 Y-52.1162 I-0.75 J0.0031
G2 X-60.7999 Y-50.3956 I5.7349 J0.067
G2 X-60.002 Y-48.9722 I3.6979 J-1.1375
G2 X-59.3757 Y-48.4107 I4.2555 J-4.116
G3 X-59.3746 Y-48.4098 I-0.4598 J0.5926
G2 X-57.0761 Y-46.7405 I25.9091 J-33.2577
G3 X-57.074 Y-46.7391 I-0.42 J0.6213
G3 X-56.0749 Y-46.0188 I-12.8902 J18.9343
G3 X-55.0852 Y-45.1395 I-4.4697 J6.0275
G3 X-55.0785 Y-45.1323 I-0.5457 J0.5145
G3 X-54.0411 Y-42.4182 I-2.9003 J2.6639
G3 Y-42.4161 I-0.7499 J-0.0096
G3 X-54.4893 Y-41.2667 I-1.7683 J-0.0275
G3 X-55.2078 Y-40.6758 I-2.2062 J-1.9504
G3 X-56.9777 Y-40.1253 I-1.8628 J-2.8684
G3 X-57.0014 Y-40.125 I-0.0204 J-0.7497
G3 X-59.1203 Y-40.7667 I0.0176 J-3.8771
G3 X-59.1695 Y-40.8021 I0.4133 J-0.6259
G1 X-60.566 Y-41.8959
G3 X-60.5742 Y-41.9024 I0.4625 J-0.5905
G2 X-60.7914 Y-42.0513 I-1.0675 J1.3245
G3 X-60.8127 Y-42.0641 I0.3749 J-0.6496
G2 X-60.8275 Y-42.0698 I-0.0224 J0.0361
G2 X-61.0335 Y-42.0372 I-0.0152 J0.5719
G3 X-61.0332 Y-42.0175 I-0.7497 J0.0196
G2 X-60.9328 Y-41.8034 I0.2783 J0.0
G3 X-60.8966 Y-41.7713 I-0.4793 J0.5768
G2 X-59.9914 Y-40.9779 I10.8358 J-11.4501
G3 X-59.9881 Y-40.9753 I-0.4724 J0.5825
G2 X-59.0496 Y-40.3204 I4.6717 J-5.6951
G3 X-59.0484 Y-40.3197 I-0.3801 J0.6465
G2 X-56.9925 Y-39.75 I2.0863 J-3.5344
G3 X-56.9873 Y-39.7499 I-0.0056 J0.75
G2 X-54.6026 Y-40.4761 I0.0584 J-4.0872
G3 X-54.5928 Y-40.4828 I0.4268 J0.6167
G2 X-53.8057 Y-41.302 I-1.4741 J-2.2038
G2 X-53.539 Y-42.3304 I-1.7517 J-1.0031
G3 Y-42.3473 I0.7499 J-0.0094
G2 X-53.784 Y-43.9394 I-4.9741 J-0.0494
G2 X-54.5015 Y-45.2213 I-3.8003 J1.2852
G2 X-55.5441 Y-46.1758 I-4.9006 J4.3062
G3 X-55.5504 Y-46.1804 I0.4435 J-0.6048
G2 X-56.8045 Y-47.0327 I-9.8211 J13.1031
G3 X-56.8091 Y-47.0356 I0.3924 J-0.6392
G3 X-58.0799 Y-47.8697 I17.4191 J-27.9214
G3 X-59.3397 Y-48.8751 I5.326 J-7.9656
G3 X-59.3586 Y-48.8937 I0.5155 J-0.5448
G3 X-60.6383 Y-52.1691 I3.1777 J-3.1292
G3 X-59.8198 Y-52.8914 I0.7496 J0.0246
G1 X-57.8191 Y-52.7068
G2 X-54.9099 Y-52.5918 I3.9876 J-63.9839
G2 X-53.7778 Y-52.7969 I0.013 J-3.1547
G3 X-53.7661 Y-52.8012 I0.2661 J0.7012
G2 X-53.4058 Y-53.0081 I-0.4048 J-1.1226
G3 X-53.4005 Y-53.0124 I0.4809 J0.5755
G2 X-53.3828 Y-53.0478 I-0.0308 J-0.0375
G2 X-53.4514 Y-53.222 I-0.2637 J0.0031
G3 X-53.4645 Y-53.2368 I0.5549 J-0.5045
G2 X-53.5267 Y-53.2692 I-0.0718 J0.0619
G2 X-53.9804 Y-53.1709 I0.1544 J1.8086
G3 X-54.8586 Y-52.9691 I-1.1224 J-2.8738
G3 X-54.9283 Y-52.9669 I-0.0593 J-0.7476
G3 X-56.4605 Y-53.027 I0.4166 J-30.1898
G2 X-57.926 Y-53.0841 I-1.8485 J28.609
G3 X-57.9385 Y-53.0843 I0.01 J-0.7499
G3 X-59.155 Y-53.1892 I0.3261 J-10.8907
G3 X-59.1563 Y-53.1894 I0.1062 J-0.7424
G2 X-60.1645 Y-53.2787 I-1.3092 J9.0432
G2 X-60.3303 Y-53.2562 I0.0724 J1.157
G3 X-60.3304 I-0.1541 J-0.734
G3 X-60.7654 Y-53.2018 I-0.5468 J-2.6072
G3 X-60.8255 Y-53.2017 I-0.0315 J-0.7493
G2 X-60.9043 Y-53.1844 I-0.0061 J0.1606
G2 X-60.9521 Y-53.1 I0.142 J0.136
G3 X-60.9557 Y-53.0871 I-0.7237 J-0.1969
G2 X-61.0094 Y-52.8378 I1.7185 J0.5007
G0 Z3.0
G0 X-41.75 Y-47.0
G0 Z1.0
G1 F300.0 Z-1.5
G1 F800.0 X-41.2113 Y-46.596
G3 X-40.9069 Y-47.0 I1.2113 J0.596
G3 X-41.2113 Y-47.404 I0.9069 J-1.0
G1 X-41.75 Y-47.0
G0 Z3.0
G0 X40.9069
G0 Z1.0
G1 F300.0 Z-1.5
G3 F800.0 X41.2113 Y-46.596 I-0.9069 J1.0
G1 X41.75 Y-47.0
G1 X41.2113 Y-47.404
G3 X40.9069 Y-47.0 I-1.2113 J-0.596
G1 F300.0 X40.5038 Y-46.5556
G3 F800.0 X40.75 Y-46.0 I-0.5038 J0.5556
G1 Y-45.5
G1 X42.75 Y-47.0
G1 X40.75 Y-48.5
G1 Y-48.0
G3 X40.0 Y-47.25 I-0.75 J0.0
G1 X-40.0
G3 X-40.75 Y-48.0 I0.0 J-0.75
G1 Y-48.5
G1 X-42.75 Y-47.0
G1 X-40.75 Y-45.5
G1 Y-46.0
G3 X-40.0 Y-46.75 I0.75 J0.0
G1 X40.0
G3 X40.5038 Y-46.5556 I0.0 J0.75
G1 F300.0 X40.9069 Y-47.0
G1 Z-3.0
G3 F800.0 X41.2113 Y-46.596 I-0.9069 J1.0
G1 X41.75 Y-47.0
G1 X41.2113 Y-47.404
G3 X40.9069 Y-47.0 I-1.2113 J-0.596
G0 Z3.0
G0 X-40.9069
G0 Z-0.5
G1 F300.0 Z-3.0
G3 F800.0 X-41.2113 Y-47.404 I0.9069 J-1.0
G1 X-41.75 Y-47.0
G1 X-41.2113 Y-46.596
G3 X-40.9069 Y-47.0 I1.2113 J0.596
G1 F300.0 X-40.5038 Y-47.4444
G3 F800.0 X-40.75 Y-48.0 I0.5038 J-0.5556
G1 Y-48.5
G1 X-42.75 Y-47.0
G1 X-40.75 Y-45.5
G1 Y-46.0
G3 X-40.0 Y-46.75 I0.75 J0.0
G1 X40.0
G3 X40.75 Y-46.0 I0.0 J0.75
G1 Y-45.5
G1 X42.75 Y-47.0
G1 X40.75 Y-48.5
G1 Y-48.0
G3 X40.0 Y-47.25 I-0.75 J0.0
G1 X-40.0
G3 X-40.5038 Y-47.4444 I0.0 J-0.75
G0 Z3.0
G0 X52.2681 Y-52.7957
G0 Z1.0
G1 F300.0 Z-1.5
G3 F800.0 X52.3752 Y-52.912 I0.8237 J0.6511
G3 X52.2878 Y-52.9052 I-0.2719 J-2.9514
G2 X52.2681 Y-52.7957 I1.4555 J0.3189
G1 F300.0 X51.971 Y-52.8378
G2 F800.0 X51.9556 Y-52.6769 I1.7723 J0.2514
G3 X51.9548 Y-52.6634 I-0.749 J-0.0379
G2 X51.9375 Y-52.1281 I7.3431 J0.505
G3 X51.9374 Y-52.1162 I-0.75 J0.0031
G2 X52.1806 Y-50.3956 I5.7349 J0.067
G2 X52.9785 Y-48.9722 I3.6979 J-1.1375
G2 X53.6047 Y-48.4107 I4.2555 J-4.116
G3 X53.6059 Y-48.4098 I-0.4598 J0.5926
G2 X55.9044 Y-46.7405 I25.9091 J-33.2577
G3 X55.9064 Y-46.7391 I-0.42 J0.6213
G3 X56.9056 Y-46.0188 I-12.8902 J18.9343
G3 X57.8953 Y-45.1395 I-4.4697 J6.0275
G3 X57.902 Y-45.1323 I-0.5457 J0.5145
G3 X58.9394 Y-42.4182 I-2.9003 J2.6639
G3 Y-42.4161 I-0.7499 J-0.0096
G3 X58.4911 Y-41.2667 I-1.7683 J-0.0275
G3 X57.7727 Y-40.6758 I-2.2062 J-1.9504
G3 X56.0028 Y-40.1253 I-1.8628 J-2.8684
G3 X55.979 Y-40.125 I-0.0204 J-0.7497
G3 X53.8602 Y-40.7667 I0.0176 J-3.8771
G3 X53.811 Y-40.8021 I0.4133 J-0.6259
G1 X52.4145 Y-41.8959
G3 X52.4063 Y-41.9024 I0.4625 J-0.5905
G2 X52.1891 Y-42.0513 I-1.0675 J1.3245
G3 X52.1677 Y-42.0641 I0.3749 J-0.6496
G2 X52.153 Y-42.0698 I-0.0224 J0.0361
G2 X51.947 Y-42.0372 I-0.0152 J0.5719
G3 X51.9473 Y-42.0175 I-0.7497 J0.0196
G2 X52.0477 Y-41.8034 I0.2783 J0.0
G3 X52.0839 Y-41.7713 I-0.4793 J0.5768
G2 X52.9891 Y-40.9779 I10.8358 J-11.4501
G3 X52.9923 Y-40.9753 I-0.4724 J0.5825
G2 X53.9309 Y-40.3204 I4.6717 J-5.6951
G3 X53.932 Y-40.3197 I-0.3801 J0.6465
G2 X55.988 Y-39.75 I2.0863 J-3.5344
G3 X55.9931 Y-39.7499 I-0.0056 J0.75
G2 X58.3778 Y-40.4761 I0.0584 J-4.0872
G3 X58.3877 Y-40.4828 I0.4268 J0.6167
G2 X59.1748 Y-41.302 I-1.4741 J-2.2038
G2 X59.4415 Y-42.3304 I-1.7517 J-1.0031
G3 X59.4414 Y-42.3473 I0.7499 J-0.0094
G2 X59.1964 Y-43.9394 I-4.9741 J-0.0494
G2 X58.479 Y-45.2213 I-3.8003 J1.2852
G2 X57.4364 Y-46.1758 I-4.9006 J4.3062
G3 X57.4301 Y-46.1804 I0.4435 J-0.6048
G2 X56.176 Y-47.0327 I-9.8211 J13.1031
G3 X56.1714 Y-47.0356 I0.3924 J-0.6392
G3 X54.9006 Y-47.8697 I17.4191 J-27.9214
G3 X53.6408 Y-48.8751 I5.326 J-7.9656
G3 X53.6219 Y-48.8937 I0.5155 J-0.5448
G3 X52.3422 Y-52.1691 I3.1777 J-3.1292
G3 X53.1607 Y-52.8914 I0.7496 J0.0246
G1 X55.1613 Y-52.7068
G2 X58.0706 Y-52.5918 I3.9876 J-63.9839
G2 X59.2027 Y-52.7969 I0.013 J-3.1547
G3 X59.2143 Y-52.8012 I0.2661 J0.7012
G2 X59.5747 Y-53.0081 I-0.4048 J-1.1226
G3 X59.5799 Y-53.0124 I0.4809 J0.5755
G2 X59.5976 Y-53.0478 I-0.0308 J-0.0375
G2 X59.5291 Y-53.222 I-0.2637 J0.0031
G3 X59.516 Y-53.2368 I0.5549 J-0.5045
G2 X59.4538 Y-53.2692 I-0.0718 J0.0619
G2 X59.0001 Y-53.1709 I0.1544 J1.8086
G3 X58.1218 Y-52.9691 I-1.1224 J-2.8738
G3 X58.0522 Y-52.9669 I-0.0593 J-0.7476
G3 X56.52 Y-53.027 I0.4166 J-30.1898
G1 X56.5199
G1 X56.52
G2 X55.0544 Y-53.0841 I-1.8485 J28.609
G3 X55.042 Y-53.0843 I0.01 J-0.7499
G3 X53.8255 Y-53.1892 I0.3261 J-10.8907
G3 X53.8242 Y-53.1894 I0.1062 J-0.7424
G2 X52.8159 Y-53.2787 I-1.3092 J9.0432
G2 X52.6502 Y-53.2562 I0.0724 J1.157
G3 X52.65 I-0.1541 J-0.734
G3 X52.2151 Y-53.2018 I-0.5468 J-2.6072
G3 X52.155 Y-53.2017 I-0.0315 J-0.7493
G2 X52.0761 Y-53.1844 I-0.0061 J0.1606
G2 X52.0284 Y-53.1 I0.142 J0.136
G3 X52.0247 Y-53.0871 I-0.7237 J-0.1969
G2 X51.971 Y-52.8378 I1.7185 J0.5007
G1 F300.0 X52.2681 Y-52.7957
G1 Z-3.0
G3 F800.0 X52.3752 Y-52.912 I0.8237 J0.6511
G3 X52.2878 Y-52.9052 I-0.2719 J-2.9514
G2 X52.2681 Y-52.7957 I1.4555 J0.3189
G1 F300.0 X51.971 Y-52.8378
G2 F800.0 X51.9556 Y-52.6769 I1.7723 J0.2514
G3 X51.9548 Y-52.6634 I-0.749 J-0.0379
G2 X51.9375 Y-52.1281 I7.3431 J0.505
G3 X51.9374 Y-52.1162 I-0.75 J0.0031
G2 X52.1806 Y-50.3956 I5.7349 J0.067
G2 X52.9785 Y-48.9722 I3.6979 J-1.1375
G2 X53.6047 Y-48.4107 I4.2555 J-4.116
G3 X53.6059 Y-48.4098 I-0.4598 J0.5926
G2 X55.9044 Y-46.7405 I25.9091 J-33.2577
G3 X55.9064 Y-46.7391 I-0.42 J0.6213
G3 X56.9056 Y-46.0188 I-12.8902 J18.9343
G3 X57.8953 Y-45.1395 I-4.4697 J6.0275
G3 X57.902 Y-45.1323 I-0.5457 J0.5145
G3 X58.9394 Y-42.4182 I-2.9003 J2.6639
G3 Y-42.4161 I-0.7499 J-0.0096
G3 X58.4911 Y-41.2667 I-1.7683 J-0.0275
G3 X57.7727 Y-40.6758 I-2.2062 J-1.9504
G3 X56.0028 Y-40.1253 I-1.8628 J-2.8684
G3 X55.979 Y-40.125 I-0.0204 J-0.7497
G3 X53.8602 Y-40.7667 I0.0176 J-3.8771
G3 X53.811 Y-40.8021 I0.4133 J-0.6259
G1 X52.4145 Y-41.8959
G3 X52.4063 Y-41.9024 I0.4625 J-0.5905
G2 X52.1891 Y-42.0513 I-1.0675 J1.3245
G3 X52.1677 Y-42.0641 I0.3749 J-0.6496
G2 X52.153 Y-42.0698 I-0.0224 J0.0361
G2 X51.947 Y-42.0372 I-0.0152 J0.5719
G3 X51.9473 Y-42.0175 I-0.7497 J0.0196
G2 X52.0477 Y-41.8034 I0.2783 J0.0
G3 X52.0839 Y-41.7713 I-0.4793 J0.5768
G2 X52.9891 Y-40.9779 I10.8358 J-11.4501
G3 X52.9923 Y-40.9753 I-0.4724 J0.5825
G2 X53.9309 Y-40.3204 I4.6717 J-5.6951
G3 X53.932 Y-40.3197 I-0.3801 J0.6465
G2 X55.988 Y-39.75 I2.0863 J-3.5344
G3 X55.9931 Y-39.7499 I-0.0056 J0.75
G2 X58.3778 Y-40.4761 I0.0584 J-4.0872
G3 X58.3877 Y-40.4828 I0.4268 J0.6167
G2 X59.1748 Y-41.302 I-1.4741 J-2.2038
G2 X59.4415 Y-42.3304 I-1.7517 J-1.0031
G3 X59.4414 Y-42.3473 I0.7499 J-0.0094
G2 X59.1964 Y-43.9394 I-4.9741 J-0.0494
G2 X58.479 Y-45.2213 I-3.8003 J1.2852
G2 X57.4364 Y-46.1758 I-4.9006 J4.3062
G3 X57.4301 Y-46.1804 I0.4435 J-0.6048
G2 X56.176 Y-47.0327 I-9.8211 J13.1031
G3 X56.1714 Y-47.0356 I0.3924 J-0.6392
G3 X54.9006 Y-47.8697 I17.4191 J-27.9214
G3 X53.6408 Y-48.8751 I5.326 J-7.9656
G3 X53.6219 Y-48.8937 I0.5155 J-0.5448
G3 X52.3422 Y-52.1691 I3.1777 J-3.1292
G3 X53.1607 Y-52.8914 I0.7496 J0.0246
G1 X55.1613 Y-52.7068
G2 X58.0706 Y-52.5918 I3.9876 J-63.9839
G2 X59.2027 Y-52.7969 I0.013 J-3.1547
G3 X59.2143 Y-52.8012 I0.2661 J0.7012
G2 X59.5747 Y-53.0081 I-0.4048 J-1.1226
G3 X59.5799 Y-53.0124 I0.4809 J0.5755
G2 X59.5976 Y-53.0478 I-0.0308 J-0.0375
G2 X59.5291 Y-53.222 I-0.2637 J0.0031
G3 X59.516 Y-53.2368 I0.5549 J-0.5045
G2 X59.4538 Y-53.2692 I-0.0718 J0.0619
G2 X59.0001 Y-53.1709 I0.1544 J1.8086
G3 X58.1218 Y-52.9691 I-1.1224 J-2.8738
G3 X58.0522 Y-52.9669 I-0.0593 J-0.7476
G3 X56.52 Y-53.027 I0.4166 J-30.1898
G1 X56.5199
G1 X56.52
G2 X55.0544 Y-53.0841 I-1.8485 J28.609
G3 X55.042 Y-53.0843 I0.01 J-0.7499
G3 X53.8255 Y-53.1892 I0.3261 J-10.8907
G3 X53.8242 Y-53.1894 I0.1062 J-0.7424
G2 X52.8159 Y-53.2787 I-1.3092 J9.0432
G2 X52.6502 Y-53.2562 I0.0724 J1.157
G3 X52.65 I-0.1541 J-0.734
G3 X52.2151 Y-53.2018 I-0.5468 J-2.6072
G3 X52.155 Y-53.2017 I-0.0315 J-0.7493
G2 X52.0761 Y-53.1844 I-0.0061 J0.1606
G2 X52.0284 Y-53.1 I0.142 J0.136
G3 X52.0247 Y-53.0871 I-0.7237 J-0.1969
G2 X51.971 Y-52.8378 I1.7185 J0.5007
G0 Z3.0
G0 X63.5304 Y-49.7881
G0 Z1.0
G1 F300.0 Z-1.5
G2 F800.0 X63.3424 Y-48.8891 I8.5688 J2.2607
G3 X63.3418 Y-48.8852 I-0.7411 J-0.1152
G2 X63.1387 Y-46.2315 I15.8444 J2.5478
G3 Y-46.2217 I-0.75 J0.005
G2 X63.4298 Y-43.8449 I9.3545 J0.0605
G2 X64.3688 Y-41.6883 I7.289 J-1.8909
G3 X64.3689 Y-41.6881 I-0.6324 J0.4031
G2 X65.0804 Y-40.7882 I4.7582 J-3.0308
G3 X65.0828 Y-40.7857 I-0.538 J0.5226
G2 X68.0456 Y-39.5643 I2.8732 J-2.7652
G3 X68.076 I0.0169 J0.7498
G2 X69.9971 Y-40.0245 I0.0712 J-3.9424
G2 X71.4316 Y-41.4014 I-2.0448 J-3.5663
G3 X71.4373 Y-41.4102 I0.6348 J0.3994
G2 X72.2985 Y-43.3989 I-5.4706 J-3.5499
G2 X72.5567 Y-45.6154 I-8.79 J-2.1472
G3 Y-45.6275 I0.75 J-0.0057
G2 X72.3073 Y-48.8756 I-19.1367 J-0.1645
G2 X71.9247 Y-50.415 I-10.3774 J1.7617
G3 X71.9241 Y-50.4169 I0.7122 J-0.2352
G2 X71.2819 Y-51.7991 I-6.1185 J2.0025
G3 X71.2797 Y-51.8027 I0.638 J-0.3943
G2 X69.8022 Y-53.1884 I-3.246 J1.9806
G2 X67.7755 Y-53.631 I-1.9339 J3.9933
G3 X67.7547 Y-53.6309 I-0.0157 J-0.7498
G2 X66.5974 Y-53.494 I-0.0319 J4.6899
G2 X65.1327 Y-52.7249 I0.8365 J3.3723
G2 X64.0997 Y-51.3409 I3.0968 J3.3889
G2 X63.5304 Y-49.7881 I7.9995 J3.8135
G1 F300.0 X63.9083 Y-49.693
G3 F800.0 X63.9747 Y-49.9435 I9.9682 J2.5095
G3 X64.4861 Y-51.239 I6.267 J1.7253
G3 X65.8014 Y-52.7138 I3.4644 J1.7658
G3 X65.8239 Y-52.7281 I0.4145 J0.625
G3 X67.7586 Y-53.256 I1.8727 J3.0539
G3 X70.1371 Y-52.3906 I0.0717 J3.5045
G3 X70.1441 Y-52.3845 I-0.4936 J0.5647
G3 X70.9285 Y-51.4397 I-2.7945 J3.1184
G3 X71.4313 Y-50.4045 I-5.1573 J3.1444
G3 X71.4327 Y-50.4008 I-0.7028 J0.2619
G3 X71.9687 Y-48.1836 I-9.3876 J3.443
G3 X72.1035 Y-45.9838 I-16.6037 J2.1217
G3 X71.9393 Y-43.8259 I-12.8772 J0.1052
G3 X71.9386 Y-43.8215 I-0.7404 J-0.1195
G3 X71.6669 Y-42.7167 I-7.4763 J-1.2526
G3 X71.1646 Y-41.6284 I-4.8132 J-1.5615
G3 X69.8234 Y-40.3538 I-2.9671 J-1.7792
G3 X69.8042 Y-40.3439 I-0.3525 J-0.662
G3 X68.0503 Y-39.9491 I-1.6867 J-3.3999
G3 X65.9264 Y-40.5909 I-0.0416 J-3.6976
G3 X65.9102 Y-40.6023 I0.4223 J-0.6198
G3 X64.5157 Y-42.1816 I2.787 J-3.8659
G3 X63.5332 Y-46.0741 I6.7126 J-3.7647
G3 X63.7001 Y-48.6344 I17.857 J-0.1209
G3 X63.7007 Y-48.638 I0.743 J0.1025
G3 X63.9083 Y-49.693 I10.1758 J1.4546
G1 F300.0 Z-3.0
G3 F800.0 X63.9747 Y-49.9435 I9.9682 J2.5095
G3 X64.4861 Y-51.239 I6.267 J1.7253
G3 X65.8014 Y-52.7138 I3.4644 J1.7658
G3 X65.8239 Y-52.7281 I0.4145 J0.625
G3 X67.7586 Y-53.256 I1.8727 J3.0539
G3 X70.1371 Y-52.3906 I0.0717 J3.5045
G3 X70.1441 Y-52.3845 I-0.4936 J0.5647
G3 X70.9285 Y-51.4397 I-2.7945 J3.1184
G3 X71.4313 Y-50.4045 I-5.1573 J3.1444
G3 X71.4327 Y-50.4008 I-0.7028 J0.2619
G3 X71.9687 Y-48.1836 I-9.3876 J3.443
G3 X72.1035 Y-45.9838 I-16.6037 J2.1217
G3 X71.9393 Y-43.8259 I-12.8772 J0.1052
G3 X71.9386 Y-43.8215 I-0.7404 J-0.1195
G3 X71.6669 Y-42.7167 I-7.4763 J-1.2526
G3 X71.1646 Y-41.6284 I-4.8132 J-1.5615
G3 X69.8234 Y-40.3538 I-2.9671 J-1.7792
G3 X69.8042 Y-40.3439 I-0.3525 J-0.662
G3 X68.0503 Y-39.9491 I-1.6867 J-3.3999
G3 X65.9264 Y-40.5909 I-0.0416 J-3.6976
G3 X65.9102 Y-40.6023 I0.4223 J-0.6198
G3 X64.5157 Y-42.1816 I2.787 J-3.8659
G3 X63.5332 Y-46.0741 I6.7126 J-3.7647
G3 X63.7001 Y-48.6344 I17.857 J-0.1209
G3 X63.7007 Y-48.638 I0.743 J0.1025
G3 X63.9083 Y-49.693 I10.1758 J1.4546
G1 F300.0 X63.5316 Y-49.7925
G2 F800.0 X63.3424 Y-48.8891 I8.5676 J2.2652
G3 X63.3418 Y-48.8852 I-0.7411 J-0.1152
G2 X63.1387 Y-46.2315 I15.8444 J2.5478
G3 Y-46.2217 I-0.75 J0.005
G2 X63.4298 Y-43.8449 I9.3545 J0.0605
G2 X64.3688 Y-41.6883 I7.289 J-1.8909
G3 X64.3689 Y-41.6881 I-0.6324 J0.4031
G2 X65.0804 Y-40.7882 I4.7582 J-3.0308
G3 X65.0828 Y-40.7857 I-0.538 J0.5226
G2 X68.0456 Y-39.5643 I2.8732 J-2.7652
G3 X68.076 I0.0169 J0.7498
G2 X69.9971 Y-40.0245 I0.0712 J-3.9424
G2 X71.4316 Y-41.4014 I-2.0448 J-3.5663
G3 X71.4373 Y-41.4102 I0.6348 J0.3994
G2 X72.2985 Y-43.3989 I-5.4706 J-3.5499
G2 X72.5567 Y-45.6154 I-8.79 J-2.1472
G3 Y-45.6275 I0.75 J-0.0057
G2 X72.3073 Y-48.8756 I-19.1367 J-0.1645
G2 X71.9247 Y-50.415 I-10.3774 J1.7617
G3 X71.9241 Y-50.4169 I0.7122 J-0.2352
G2 X71.2819 Y-51.7991 I-6.1185 J2.0025
G3 X71.2797 Y-51.8027 I0.638 J-0.3943
G2 X69.8022 Y-53.1884 I-3.246 J1.9806
G2 X67.7755 Y-53.631 I-1.9339 J3.9933
G3 X67.7547 Y-53.6309 I-0.0157 J-0.7498
G2 X66.5974 Y-53.494 I-0.0319 J4.6899
G2 X65.1327 Y-52.7249 I0.8365 J3.3723
G2 X64.0997 Y-51.3409 I3.0968 J3.3889
G2 X63.5316 Y-49.7925 I7.9995 J3.8135
G0 Z3.0
G0 X76.6821 Y-52.7957
G0 Z1.0
G1 F300.0 Z-1.5
G3 F800.0 X76.7893 Y-52.912 I0.8237 J0.6511
G3 X76.7019 Y-52.9052 I-0.2719 J-2.9514
G2 X76.6821 Y-52.7957 I1.4555 J0.3189
G1 F300.0 X76.3851 Y-52.8378
G2 F800.0 X76.3696 Y-52.6769 I1.7723 J0.2514
G3 X76.3688 Y-52.6634 I-0.749 J-0.0379
G2 X76.3516 Y-52.1281 I7.3431 J0.505
G3 X76.3515 Y-52.1162 I-0.75 J0.0031
G2 X76.5947 Y-50.3956 I5.7349 J0.067
G2 X77.3925 Y-48.9722 I3.6979 J-1.1375
G2 X78.0188 Y-48.4107 I4.2555 J-4.116
G3 X78.0199 Y-48.4098 I-0.4598 J0.5926
G2 X80.3185 Y-46.7405 I25.9091 J-33.2577
G3 X80.3205 Y-46.7391 I-0.42 J0.6213
G3 X81.3196 Y-46.0188 I-12.8902 J18.9343
G3 X82.3093 Y-45.1395 I-4.4697 J6.0275
G3 X82.316 Y-45.1323 I-0.5457 J0.5145
G3 X83.3535 Y-42.4182 I-2.9003 J2.6639
G3 X83.3534 Y-42.4161 I-0.7499 J-0.0096
G3 X82.9052 Y-41.2667 I-1.7683 J-0.0275
G3 X82.1867 Y-40.6758 I-2.2062 J-1.9504
G3 X80.4169 Y-40.1253 I-1.8628 J-2.8684
G3 X80.3931 Y-40.125 I-0.0204 J-0.7497
G3 X78.2742 Y-40.7667 I0.0176 J-3.8771
G3 X78.225 Y-40.8021 I0.4133 J-0.6259
G1 X76.8286 Y-41.8959
G3 X76.8204 Y-41.9024 I0.4625 J-0.5905
G2 X76.6031 Y-42.0513 I-1.0675 J1.3245
G3 X76.5818 Y-42.0641 I0.3749 J-0.6496
G2 X76.567 Y-42.0698 I-0.0224 J0.0361
G2 X76.3611 Y-42.0372 I-0.0152 J0.5719
G3 X76.3613 Y-42.0175 I-0.7497 J0.0196
G2 X76.4618 Y-41.8034 I0.2783 J0.0
G3 X76.4979 Y-41.7713 I-0.4793 J0.5768
G2 X77.4032 Y-40.9779 I10.8358 J-11.4501
G3 X77.4064 Y-40.9753 I-0.4724 J0.5825
G2 X78.3449 Y-40.3204 I4.6717 J-5.6951
G3 X78.3461 Y-40.3197 I-0.3801 J0.6465
G2 X80.402 Y-39.75 I2.0863 J-3.5344
G3 X80.4072 Y-39.7499 I-0.0056 J0.75
G2 X82.7919 Y-40.4761 I0.0584 J-4.0872
G3 X82.8018 Y-40.4828 I0.4268 J0.6167
G2 X83.5888 Y-41.302 I-1.4741 J-2.2038
G2 X83.8555 Y-42.3304 I-1.7517 J-1.0031
G3 Y-42.3473 I0.7499 J-0.0094
G2 X83.6105 Y-43.9394 I-4.9741 J-0.0494
G2 X82.893 Y-45.2213 I-3.8003 J1.2852
G2 X81.8505 Y-46.1758 I-4.9006 J4.3062
G3 X81.8442 Y-46.1804 I0.4435 J-0.6048
G2 X80.59 Y-47.0327 I-9.8211 J13.1031
G3 X80.5854 Y-47.0356 I0.3924 J-0.6392
G3 X79.3146 Y-47.8697 I17.4191 J-27.9214
G3 X78.0548 Y-48.8751 I5.326 J-7.9656
G3 X78.0359 Y-48.8937 I0.5155 J-0.5448
G3 X76.7563 Y-52.1691 I3.1777 J-3.1292
G3 X77.5747 Y-52.8914 I0.7496 J0.0246
G1 X79.5754 Y-52.7068
G2 X82.4847 Y-52.5918 I3.9876 J-63.9839
G2 X83.6167 Y-52.7969 I0.013 J-3.1547
G3 X83.6284 Y-52.8012 I0.2661 J0.7012
G2 X83.9888 Y-53.0081 I-0.4048 J-1.1226
G3 X83.994 Y-53.0124 I0.4809 J0.5755
G2 X84.0117 Y-53.0478 I-0.0308 J-0.0375
G2 X83.9431 Y-53.222 I-0.2637 J0.0031
G3 X83.9301 Y-53.2368 I0.5549 J-0.5045
G2 X83.8679 Y-53.2692 I-0.0718 J0.0619
G2 X83.4142 Y-53.1709 I0.1544 J1.8086
G3 X82.5359 Y-52.9691 I-1.1224 J-2.8738
G3 X82.4662 Y-52.9669 I-0.0593 J-0.7476
G3 X80.934 Y-53.027 I0.4166 J-30.1898
G1 X80.9341
G1 X80.934
G2 X79.4685 Y-53.0841 I-1.8485 J28.609
G3 X79.4561 Y-53.0843 I0.01 J-0.7499
G3 X78.2395 Y-53.1892 I0.3261 J-10.8907
G3 X78.2382 Y-53.1894 I0.1062 J-0.7424
G2 X77.23 Y-53.2787 I-1.3092 J9.0432
G2 X77.0642 Y-53.2562 I0.0724 J1.157
G3 X77.0641 I-0.1541 J-0.734
G3 X76.6291 Y-53.2018 I-0.5468 J-2.6072
G3 X76.5691 Y-53.2017 I-0.0315 J-0.7493
G2 X76.4902 Y-53.1844 I-0.0061 J0.1606
G2 X76.4425 Y-53.1 I0.142 J0.136
G3 X76.4388 Y-53.0871 I-0.7237 J-0.1969
G2 X76.3851 Y-52.8378 I1.7185 J0.5007
G1 F300.0 X76.6821 Y-52.7957
G1 Z-3.0
G3 F800.0 X76.7893 Y-52.912 I0.8237 J0.6511
G3 X76.7019 Y-52.9052 I-0.2719 J-2.9514
G2 X76.6821 Y-52.7957 I1.4555 J0.3189
G1 F300.0 X76.3851 Y-52.8378
G2 F800.0 X76.3696 Y-52.6769 I1.7723 J0.2514
G3 X76.3688 Y-52.6634 I-0.749 J-0.0379
G2 X76.3516 Y-52.1281 I7.3431 J0.505
G3 X76.3515 Y-52.1162 I-0.75 J0.0031
G2 X76.5947 Y-50.3956 I5.7349 J0.067
G2 X77.3925 Y-48.9722 I3.6979 J-1.1375
G2 X78.0188 Y-48.4107 I4.2555 J-4.116
G3 X78.0199 Y-48.4098 I-0.4598 J0.5926
G2 X80.3185 Y-46.7405 I25.9091 J-33.2577
G3 X80.3205 Y-46.7391 I-0.42 J0.6213
G3 X81.3196 Y-46.0188 I-12.8902 J18.9343
G3 X82.3093 Y-45.1395 I-4.4697 J6.0275
G3 X82.316 Y-45.1323 I-0.5457 J0.5145
G3 X83.3535 Y-42.4182 I-2.9003 J2.6639
G3 X83.3534 Y-42.4161 I-0.7499 J-0.0096
G3 X82.9052 Y-41.2667 I-1.7683 J-0.0275
G3 X82.1867 Y-40.6758 I-2.2062 J-1.9504
G3 X80.4169 Y-40.1253 I-1.8628 J-2.8684
G3 X80.3931 Y-40.125 I-0.0204 J-0.7497
G3 X78.2742 Y-40.7667 I0.0176 J-3.8771
G3 X78.225 Y-40.8021 I0.4133 J-0.6259
G1 X76.8286 Y-41.8959
G3 X76.8204 Y-41.9024 I0.4625 J-0.5905
G2 X76.6031 Y-42.0513 I-1.0675 J1.3245
G3 X76.5818 Y-42.0641 I0.3749 J-0.6496
G2 X76.567 Y-42.0698 I-0.0224 J0.0361
G2 X76.3611 Y-42.0372 I-0.0152 J0.5719
G3 X76.3613 Y-42.0175 I-0.7497 J0.0196
G2 X76.4618 Y-41.8034 I0.2783 J0.0
G3 X76.4979 Y-41.7713 I-0.4793 J0.5768
G2 X77.4032 Y-40.9779 I10.8358 J-11.4501
G3 X77.4064 Y-40.9753 I-0.4724 J0.5825
G2 X78.3449 Y-40.3204 I4.6717 J-5.6951
G3 X78.3461 Y-40.3197 I-0.3801 J0.6465
G2 X80.402 Y-39.75 I2.0863 J-3.5344
G3 X80.4072 Y-39.7499 I-0.0056 J0.75
G2 X82.7919 Y-40.4761 I0.0584 J-4.0872
G3 X82.8018 Y-40.4828 I0.4268 J0.6167
G2 X83.5888 Y-41.302 I-1.4741 J-2.2038
G2 X83.8555 Y-42.3304 I-1.7517 J-1.0031
G3 Y-42.3473 I0.7499 J-0.0094
G2 X83.6105 Y-43.9394 I-4.9741 J-0.0494
G2 X82.893 Y-45.2213 I-3.8003 J1.2852
G2 X81.8505 Y-46.1758 I-4.9006 J4.3062
G3 X81.8442 Y-46.1804 I0.4435 J-0.6048
G2 X80.59 Y-47.0327 I-9.8211 J13.1031
G3 X80.5854 Y-47.0356 I0.3924 J-0.6392
G3 X79.3146 Y-47.8697 I17.4191 J-27.9214
G3 X78.0548 Y-48.8751 I5.326 J-7.9656
G3 X78.0359 Y-48.8937 I0.5155 J-0.5448
G3 X76.7563 Y-52.1691 I3.1777 J-3.1292
G3 X77.5747 Y-52.8914 I0.7496 J0.0246
G1 X79.5754 Y-52.7068
G2 X82.4847 Y-52.5918 I3.9876 J-63.9839
G2 X83.6167 Y-52.7969 I0.013 J-3.1547
G3 X83.6284 Y-52.8012 I0.2661 J0.7012
G2 X83.9888 Y-53.0081 I-0.4048 J-1.1226
G3 X83.994 Y-53.0124 I0.4809 J0.5755
G2 X84.0117 Y-53.0478 I-0.0308 J-0.0375
G2 X83.9431 Y-53.222 I-0.2637 J0.0031
G3 X83.9301 Y-53.2368 I0.5549 J-0.5045
G2 X83.8679 Y-53.2692 I-0.0718 J0.0619
G2 X83.4142 Y-53.1709 I0.1544 J1.8086
G3 X82.5359 Y-52.9691 I-1.1224 J-2.8738
G3 X82.4662 Y-52.9669 I-0.0593 J-0.7476
G3 X80.934 Y-53.027 I0.4166 J-30.1898
G1 X80.9341
G1 X80.934
G2 X79.4685 Y-53.0841 I-1.8485 J28.609
G3 X79.4561 Y-53.0843 I0.01 J-0.7499
G3 X78.2395 Y-53.1892 I0.3261 J-10.8907
G3 X78.2382 Y-53.1894 I0.1062 J-0.7424
G2 X77.23 Y-53.2787 I-1.3092 J9.0432
G2 X77.0642 Y-53.2562 I0.0724 J1.157
G3 X77.0641 I-0.1541 J-0.734
G3 X76.6291 Y-53.2018 I-0.5468 J-2.6072
G3 X76.5691 Y-53.2017 I-0.0315 J-0.7493
G2 X76.4902 Y-53.1844 I-0.0061 J0.1606
G2 X76.4425 Y-53.1 I0.142 J0.136
G3 X76.4388 Y-53.0871 I-0.7237 J-0.1969
G2 X76.3851 Y-52.8378 I1.7185 J0.5007
G0 Z3.0
G0 X88.8892 Y-52.7957
G0 Z1.0
G1 F300.0 Z-1.5
G3 F800.0 X88.9963 Y-52.912 I0.8237 J0.6511
G3 X88.9089 Y-52.9052 I-0.2719 J-2.9514
G2 X88.8892 Y-52.7957 I1.4555 J0.3189
G1 F300.0 X88.5921 Y-52.8378
G2 F800.0 X88.5767 Y-52.6769 I1.7723 J0.2514
G3 X88.5759 Y-52.6634 I-0.749 J-0.0379
G2 X88.5586 Y-52.1281 I7.3431 J0.505
G3 X88.5585 Y-52.1162 I-0.75 J0.0031
G2 X88.8017 Y-50.3956 I5.7349 J0.067
G2 X89.5996 Y-48.9722 I3.6979 J-1.1375
G2 X90.2258 Y-48.4107 I4.2555 J-4.116
G3 X90.227 Y-48.4098 I-0.4598 J0.5926
G2 X92.5255 Y-46.7405 I25.9091 J-33.2577
G3 X92.5275 Y-46.7391 I-0.42 J0.6213
G3 X93.5267 Y-46.0188 I-12.8902 J18.9343
G3 X94.5164 Y-45.1395 I-4.4697 J6.0275
G3 X94.5231 Y-45.1323 I-0.5457 J0.5145
G3 X95.5605 Y-42.4182 I-2.9003 J2.6639
G3 Y-42.4161 I-0.7499 J-0.0096
