; generated by PrusaSlicer 2.2.0+win64 on 2021-10-07 at 06:30:01 UTC

; 

; external perimeters extrusion width = 0.45mm
; perimeters extrusion width = 0.45mm
; infill extrusion width = 0.45mm
; solid infill extrusion width = 0.45mm
; top infill extrusion width = 0.40mm
; first layer extrusion width = 0.42mm

M73 P0 R18
M201 X9000 Y9000 Z500 E10000 ; sets maximum accelerations, mm/sec^2
M203 X500 Y500 Z12 E120 ; sets maximum feedrates, mm/sec
M204 P2000 R1500 T2000 ; sets acceleration (P, T) and retract acceleration (R), mm/sec^2
M205 X10.00 Y10.00 Z0.20 E2.50 ; sets the jerk limits, mm/sec
M205 S0 T0 ; sets the minimum extruding and travel feed rate, mm/sec
M107
M862.3 P "MK2S" ; printer model check
M862.1 P0.4 ; nozzle diameter check
M115 U3.2.3 ; tell printer latest fw version
G90 ; use absolute coordinates
M83 ; extruder relative mode
M204 S2000 T1500 ; MK2 firmware only supports the old M204 format
M104 S255 ; set extruder temp
M140 S100 ; set bed temp
M190 S100 ; wait for bed temp
M109 S255 ; wait for extruder temp
G28 W ; home all without mesh bed level
G80 ; mesh bed leveling
G1 Y-3.0 F1000.0 ; go outside print area
G92 E0.0
G1 X60.0 E9.0  F1000.0 ; intro line
M73 P0 R18
G1 X100.0 E12.5 F1000.0 ; intro line
G92 E0.0
G21 ; set units to millimeters
G90 ; use absolute coordinates
M83 ; use relative distances for extrusion
M900 K0.04 ; Filament gcode LA 1.5
M900 K20 ; Filament gcode LA 1.0
;BEFORE_LAYER_CHANGE
G92 E0.0
;0.2


G1 E-0.80000 F2100.00000
G1 Z0.400 F10800.000
;AFTER_LAYER_CHANGE
;0.2
G1 X102.964 Y92.089
G1 Z0.200
G1 E0.80000 F2100.00000
M204 S1000
G1 F1200.000
G1 X111.415 Y81.136 E0.43374
G1 X111.932 Y80.667 E0.02190
G1 X112.544 Y80.310 E0.02221
G1 X113.182 Y80.101 E0.02104
G1 X113.887 Y80.027 E0.02222
G1 X135.915 Y80.078 E0.69070
G1 X188.167 Y87.799 E1.65610
G1 X188.987 Y88.217 E0.02884
G1 X189.647 Y88.843 E0.02852
G1 X196.064 Y97.684 E0.34254
G1 X196.296 Y98.279 E0.02002
G1 X198.525 Y106.471 E0.26618
G1 X198.595 Y107.300 E0.02611
G1 X198.442 Y108.108 E0.02577
G1 X194.330 Y116.163 E0.28357
G1 X193.822 Y116.862 E0.02709
G1 X182.537 Y125.462 E0.44485
G1 X181.907 Y125.849 E0.02321
G1 X181.225 Y126.113 E0.02290
G1 X180.439 Y126.251 E0.02504
G1 X126.522 Y129.964 E1.69453
G1 X125.700 Y129.941 E0.02578
G1 X124.855 Y129.752 E0.02715
G1 X124.071 Y129.414 E0.02675
G1 X107.151 Y120.075 E0.60597
G1 X106.339 Y119.439 E0.03232
G1 X105.957 Y118.936 E0.01983
G1 X105.689 Y118.389 E0.01910
G1 X100.062 Y103.009 E0.51349
G1 X99.984 Y102.227 E0.02464
G1 X100.097 Y101.429 E0.02526
G1 X102.637 Y92.829 E0.28116
G1 X102.940 Y92.144 E0.02349
; printing object Ausstecher_Grantelbart.stl id:1 copy 0
G1 F8640.000
G1 X104.948 Y89.536 E-0.76000
G1 E-0.04000 F2100.00000
G1 Z0.600 F10800.000
G1 X176.222 Y111.760
G1 Z0.200
G1 E0.80000 F2100.00000
G1 F1200.000
G1 X176.704 Y112.019 E0.01714
G1 X176.374 Y111.981 E0.01040
G1 X176.256 Y111.809 E0.00654
G1 X175.882 Y111.970 F10800.000
G1 F8640.000
G1 X176.704 Y112.019 E-0.11409
G1 X176.374 Y111.981 E-0.07656
G1 X176.256 Y111.809 E-0.04813
G1 E-0.56122 F2100.00000
G1 Z0.600 F10800.000
G1 X179.609 Y113.601
G1 Z0.200
G1 E0.80000 F2100.00000
G1 F1200.000
G1 X179.567 Y113.230 E0.01172
G1 X179.398 Y112.610 E0.02014
G1 X179.516 Y111.754 E0.02710
G1 X179.442 Y111.215 E0.01706
G1 X179.442 Y110.566 E0.02036
G1 X179.528 Y110.213 E0.01136
G1 X179.430 Y109.811 E0.01298
G1 X179.525 Y109.389 E0.01358
G1 X179.430 Y108.966 E0.01360
G1 X179.568 Y108.450 E0.01674
G1 X179.616 Y107.959 E0.01548
G1 X179.638 Y107.933 E0.00106
G1 X179.637 Y106.998 E0.02932
G1 X179.783 Y107.545 E0.01776
G1 X179.648 Y107.976 E0.01417
G1 X179.648 Y108.540 E0.01767
G1 X179.779 Y108.960 E0.01381
G1 X179.685 Y109.383 E0.01358
G1 X179.768 Y109.762 E0.01218
G1 X179.768 Y110.427 E0.02085
G1 X179.679 Y110.764 E0.01091
G1 X179.768 Y111.100 E0.01091
G1 X179.768 Y111.345 E0.00768
G1 X179.691 Y111.810 E0.01478
G1 X179.827 Y112.633 E0.02614
G1 X179.654 Y113.261 E0.02041
G1 X179.617 Y113.542 E0.00890
G1 F8640.000
G1 X179.567 Y113.230 E-0.07297
G1 X179.398 Y112.610 E-0.14831
G1 X179.516 Y111.754 E-0.19956
G1 X179.442 Y111.215 E-0.12563
G1 X179.442 Y110.566 E-0.14991
G1 X179.507 Y110.298 E-0.06362
G1 E-0.04000 F2100.00000
G1 Z0.600 F10800.000
G1 X179.604 Y101.119
G1 Z0.200
G1 E0.80000 F2100.00000
G1 F1200.000
G1 X179.574 Y100.835 E0.00895
G1 X179.527 Y100.623 E0.00681
G1 X179.675 Y100.620 E0.00464
G1 X179.610 Y101.059 E0.01390
G1 F8640.000
G1 X179.574 Y100.835 E-0.05249
G1 X179.527 Y100.623 E-0.05013
G1 X179.675 Y100.620 E-0.03417
G1 X179.610 Y101.059 E-0.10238
G1 E-0.56083 F2100.00000
G1 Z0.600 F10800.000
G1 X187.227 Y90.505
G1 Z0.200
G1 E0.80000 F2100.00000
G1 F1200.000
G1 X187.433 Y90.920 E0.01454
G1 X187.901 Y92.084 E0.03932
G1 X188.214 Y93.080 E0.03273
G1 X188.402 Y93.899 E0.02635
G1 X188.546 Y94.749 E0.02705
G1 X188.636 Y95.624 E0.02756
G1 X188.679 Y96.510 E0.02781
G1 X188.650 Y97.651 E0.03581
G1 X188.606 Y98.135 E0.01522
G1 X188.479 Y98.920 E0.02493
G1 X188.315 Y99.546 E0.02029
G1 X188.050 Y100.296 E0.02494
G1 X187.808 Y100.903 E0.02050
G1 X187.684 Y101.322 E0.01371
G1 X187.547 Y101.981 E0.02109
G1 X188.504 Y101.784 E0.03065
G1 X189.092 Y101.562 E0.01971
G1 X190.040 Y101.137 E0.03255
G1 X190.494 Y100.896 E0.01613
G1 X190.946 Y100.625 E0.01653
G1 X191.334 Y100.368 E0.01460
G1 X192.773 Y99.321 E0.05578
G1 X193.184 Y99.052 E0.01542
G1 X193.443 Y99.220 E0.00967
G1 X193.040 Y101.132 E0.06126
G1 X192.838 Y101.768 E0.02093
G1 X192.578 Y102.399 E0.02139
G1 X192.151 Y103.293 E0.03106
G1 X191.311 Y104.856 E0.05564
G1 X190.895 Y105.559 E0.02562
G1 X190.092 Y106.780 E0.04581
G1 X189.940 Y107.064 E0.01011
G1 X189.708 Y107.577 E0.01763
G1 X190.473 Y107.707 E0.02432
G1 X191.544 Y107.676 E0.03360
G1 X192.305 Y107.617 E0.02395
G1 X193.037 Y107.537 E0.02309
G1 X194.115 Y107.375 E0.03418
G1 X195.279 Y107.158 E0.03711
G1 X195.448 Y107.424 E0.00990
G1 X194.903 Y108.135 E0.02808
G1 X194.450 Y108.619 E0.02079
G1 X193.890 Y109.118 E0.02353
G1 X193.546 Y109.386 E0.01368
G1 X192.910 Y109.823 E0.02419
G1 X192.143 Y110.290 E0.02816
G1 X189.719 Y111.572 E0.08598
G1 X188.662 Y112.189 E0.03838
G1 X188.092 Y112.591 E0.02187
G1 X187.634 Y112.950 E0.01825
G1 X187.301 Y113.286 E0.01480
G1 X187.899 Y113.533 E0.02029
G1 X189.285 Y114.169 E0.04782
G1 X189.985 Y114.454 E0.02370
G1 X189.891 Y114.926 E0.01507
G1 X189.169 Y114.868 E0.02270
G1 X188.812 Y114.817 E0.01132
G1 X187.887 Y114.633 E0.02955
G1 X187.537 Y114.540 E0.01135
G1 X186.833 Y114.297 E0.02338
G1 X186.411 Y114.181 E0.01372
G1 X185.711 Y114.810 E0.02951
G1 X185.746 Y115.230 E0.01320
G1 X185.786 Y115.360 E0.00426
G1 X186.203 Y116.161 E0.02833
G1 X185.497 Y116.263 E0.02239
G1 X184.890 Y116.128 E0.01949
G1 X185.003 Y115.795 E0.01104
G1 X185.013 Y115.711 E0.00264
G1 X184.982 Y115.574 E0.00441
G1 X184.505 Y116.159 E0.02366
G1 X184.130 Y116.260 E0.01218
G1 X183.751 Y116.158 E0.01228
G1 X183.224 Y116.314 E0.01725
G1 X182.568 Y116.376 E0.02065
G1 X182.089 Y115.859 E0.02208
G1 X181.763 Y115.542 E0.01427
G1 X181.599 Y115.509 E0.00523
G1 X181.203 Y115.529 E0.01245
G1 X181.157 Y115.432 E0.00337
G1 X180.970 Y115.582 E0.00751
G1 X180.660 Y115.757 E0.01117
G1 X180.601 Y115.823 E0.00278
G1 X180.044 Y116.244 E0.02191
G1 X179.956 Y115.194 E0.03306
G1 X179.947 Y114.278 E0.02870
G1 X179.962 Y113.812 E0.01463
G1 X180.024 Y113.336 E0.01506
G1 X180.216 Y112.638 E0.02269
G1 X180.687 Y112.840 E0.01606
G1 X180.853 Y112.957 E0.00638
G1 X181.008 Y113.140 E0.00751
G1 X180.958 Y113.006 E0.00449
G1 X180.994 Y112.804 E0.00643
G1 X181.180 Y112.643 E0.00770
G1 X181.142 Y112.577 E0.00240
G1 X181.065 Y112.545 E0.00260
G1 X180.799 Y112.487 E0.00855
G1 X180.174 Y112.419 E0.01972
G1 X180.074 Y111.810 E0.01933
G1 X180.145 Y111.376 E0.01380
G1 X180.145 Y111.051 E0.01018
G1 X180.069 Y110.764 E0.00933
G1 X180.172 Y110.372 E0.01271
G1 X180.145 Y110.357 E0.00097
G1 X180.146 Y109.722 E0.01993
G1 X180.071 Y109.384 E0.01086
G1 X180.169 Y108.944 E0.01413
G1 X180.025 Y108.482 E0.01517
G1 X180.025 Y108.034 E0.01406
G1 X180.176 Y107.550 E0.01590
G1 X180.015 Y106.984 E0.01847
G1 X179.956 Y106.488 E0.01565
G1 X179.947 Y101.780 E0.14761
G1 X179.962 Y101.299 E0.01509
G1 X180.019 Y100.811 E0.01541
G1 X180.128 Y100.315 E0.01592
G1 X180.563 Y99.110 E0.04017
G1 X181.152 Y97.681 E0.04847
G1 X181.446 Y97.050 E0.02183
G1 X181.894 Y96.221 E0.02953
G1 X182.304 Y95.604 E0.02323
G1 X182.551 Y95.284 E0.01269
G1 X183.211 Y94.539 E0.03120
G1 X185.250 Y92.559 E0.08911
G1 X185.850 Y91.946 E0.02692
G1 X186.930 Y90.777 E0.04989
G1 X187.183 Y90.546 E0.01074
G1 X187.562 Y90.287 F10800.000
G1 F8640.000
G1 X187.433 Y90.920 E-0.10408
G1 X187.901 Y92.084 E-0.28958
G1 X188.214 Y93.080 E-0.24104
G1 X188.335 Y93.609 E-0.12530
G1 E-0.04000 F2100.00000
G1 Z0.600 F10800.000
G1 X170.738 Y90.762
G1 Z0.200
G1 E0.80000 F2100.00000
G1 F1200.000
G1 X171.018 Y90.707 E0.00896
G1 X171.681 Y91.532 E0.03317
G1 X172.142 Y92.065 E0.02212
G1 X173.075 Y93.041 E0.04233
G1 X174.075 Y93.961 E0.04260
G1 X175.509 Y95.191 E0.05923
G1 X176.001 Y95.638 E0.02084
G1 X176.627 Y96.265 E0.02780
G1 X177.163 Y96.875 E0.02545
G1 X177.475 Y97.278 E0.01600
G1 X178.001 Y98.064 E0.02963
G1 X178.241 Y98.481 E0.01509
G1 X178.587 Y99.176 E0.02436
G1 X179.085 Y100.380 E0.04085
G1 X179.202 Y100.896 E0.01656
G1 X179.253 Y101.399 E0.01587
G1 X179.261 Y107.798 E0.20064
G1 X179.196 Y108.382 E0.01843
G1 X179.041 Y108.958 E0.01869
G1 X179.139 Y109.389 E0.01385
G1 X179.042 Y109.814 E0.01368
G1 X179.140 Y110.213 E0.01288
G1 X179.057 Y110.555 E0.01101
G1 X179.061 Y111.214 E0.02068
G1 X179.136 Y111.754 E0.01708
G1 X179.042 Y112.432 E0.02147
G1 X178.599 Y112.512 E0.01411
G1 X178.435 Y112.568 E0.00544
G1 X178.393 Y112.599 E0.00164
G1 X178.352 Y112.698 E0.00336
G1 X178.403 Y112.724 E0.00179
G1 X178.344 Y112.782 E0.00257
G1 X178.510 Y112.698 E0.00581
G1 X179.008 Y112.613 E0.01586
G1 X179.195 Y113.301 E0.02236
G1 X179.254 Y113.820 E0.01637
G1 X179.258 Y114.823 E0.03144
G1 X179.221 Y115.329 E0.01593
G1 X179.087 Y116.267 E0.02970
G1 X177.935 Y115.511 E0.04320
G1 X177.521 Y115.528 E0.01300
G1 X177.299 Y115.615 E0.00747
G1 X177.090 Y115.930 E0.01185
G1 X176.882 Y116.301 E0.01334
G1 X176.377 Y116.300 E0.01583
G1 X176.061 Y116.163 E0.01079
G1 X175.640 Y116.257 E0.01353
G1 X175.231 Y116.166 E0.01315
G1 X174.777 Y115.727 E0.01980
G1 X174.769 Y115.774 E0.00149
G1 X174.828 Y116.119 E0.01096
G1 X174.235 Y116.306 E0.01951
G1 X173.787 Y116.312 E0.01404
G1 X173.145 Y116.149 E0.02078
G1 X173.287 Y115.522 E0.02014
G1 X173.327 Y115.160 E0.01142
G1 X173.293 Y114.965 E0.00622
G1 X173.136 Y114.632 E0.01154
G1 X173.290 Y114.493 E0.00651
G1 X172.966 Y114.317 E0.01154
G1 X172.983 Y114.151 E0.00524
G1 X172.460 Y114.309 E0.01715
G1 X171.968 Y114.524 E0.01682
G1 X171.489 Y114.621 E0.01534
G1 X170.807 Y114.822 E0.02228
G1 X168.194 Y115.773 E0.08718
G1 X167.966 Y115.320 E0.01590
G1 X170.484 Y113.783 E0.09247
G1 X171.231 Y113.377 E0.02667
G1 X169.223 Y111.770 E0.08064
G1 X168.197 Y110.907 E0.04203
G1 X167.449 Y110.247 E0.03127
G1 X166.244 Y109.113 E0.05189
G1 X164.724 Y107.575 E0.06779
G1 X164.317 Y107.135 E0.01879
G1 X163.858 Y106.565 E0.02293
G1 X163.617 Y106.219 E0.01324
G1 X163.112 Y105.381 E0.03067
G1 X163.447 Y105.077 E0.01419
G1 X164.061 Y105.497 E0.02330
G1 X164.402 Y105.703 E0.01249
G1 X165.026 Y106.025 E0.02204
G1 X165.756 Y106.320 E0.02468
G1 X166.510 Y106.556 E0.02478
G1 X167.477 Y106.806 E0.03133
G1 X168.375 Y106.923 E0.02839
G1 X168.709 Y107.016 E0.01085
G1 X169.006 Y107.052 E0.00938
G1 X169.235 Y107.039 E0.00721
G1 X168.615 Y106.467 E0.02645
G1 X168.183 Y105.822 E0.02433
G1 X167.700 Y105.239 E0.02373
G1 X167.255 Y104.661 E0.02289
G1 X166.703 Y103.860 E0.03050
G1 X166.264 Y103.136 E0.02655
G1 X165.781 Y102.181 E0.03355
G1 X165.383 Y101.192 E0.03344
G1 X165.038 Y100.082 E0.03643
G1 X164.923 Y99.608 E0.01529
G1 X164.744 Y98.624 E0.03136
G1 X165.023 Y98.461 E0.01013
G1 X165.394 Y98.771 E0.01516
G1 X165.853 Y99.266 E0.02117
G1 X166.443 Y99.833 E0.02566
G1 X166.928 Y100.219 E0.01943
G1 X167.349 Y100.494 E0.01578
G1 X167.866 Y100.768 E0.01834
G1 X168.618 Y101.105 E0.02583
G1 X169.637 Y101.517 E0.03447
G1 X169.903 Y101.594 E0.00870
G1 X170.233 Y101.734 E0.01124
G1 X170.754 Y102.106 E0.02006
G1 X170.859 Y102.044 E0.00384
G1 X171.060 Y102.132 E0.00690
G1 X170.915 Y101.923 E0.00797
G1 X170.952 Y101.801 E0.00400
G1 X170.757 Y101.603 E0.00869
G1 X170.585 Y101.329 E0.01016
G1 X170.457 Y101.029 E0.01023
G1 X170.253 Y100.312 E0.02337
G1 X169.968 Y99.056 E0.04039
G1 X169.881 Y98.584 E0.01505
G1 X169.793 Y97.797 E0.02481
G1 X169.774 Y97.360 E0.01371
G1 X169.802 Y96.390 E0.03042
G1 X169.941 Y95.117 E0.04018
G1 X170.051 Y94.398 E0.02280
G1 X170.579 Y91.423 E0.09473
G1 X170.724 Y90.820 E0.01943
G1 X170.719 Y90.477 F10800.000
G1 F8640.000
G1 X171.018 Y90.707 E-0.07281
G1 X171.681 Y91.532 E-0.24425
G1 X172.142 Y92.065 E-0.16286
G1 X172.981 Y92.942 E-0.28007
G1 E-0.04000 F2100.00000
G1 Z0.600 F10800.000
G1 X168.180 Y106.495
G1 Z0.200
G1 E0.80000 F2100.00000
G1 F1200.000
G1 X168.194 Y106.515 E0.00076
G1 F8640.000
G1 X168.194 Y106.515 E0.00000
G1 E-0.80000 F2100.00000
G1 Z0.600 F10800.000
G1 X167.697 Y115.623
G1 Z0.200
G1 E0.80000 F2100.00000
G1 F1200.000
G1 X167.804 Y115.837 E0.00749
G1 X167.382 Y115.921 E0.01349
G1 X167.653 Y115.664 E0.01170
G1 F8640.000
G1 X167.804 Y115.837 E-0.05289
G1 X167.382 Y115.921 E-0.09936
G1 X167.653 Y115.664 E-0.08615
G1 E-0.56160 F2100.00000
G1 Z0.600 F10800.000
G1 X173.145 Y116.538
G1 Z0.200
G1 E0.80000 F2100.00000
G1 F1200.000
G1 X173.259 Y116.567 E0.00369
G1 X173.144 Y116.594 E0.00371
G1 X173.230 Y116.961 F10800.000
G1 F1200.000
G1 X173.809 Y116.826 E0.01866
G1 X174.318 Y116.776 E0.01603
G1 X174.822 Y116.784 E0.01580
G1 X175.633 Y116.864 E0.02555
G1 X175.531 Y117.368 E0.01612
G1 X175.033 Y117.736 E0.01942
G1 X174.813 Y117.853 E0.00780
G1 X174.605 Y117.928 E0.00695
G1 X174.398 Y117.970 E0.00663
G1 X174.189 Y117.983 E0.00656
G1 X173.859 Y117.941 E0.01042
G1 X173.573 Y117.827 E0.00965
G1 X173.344 Y117.636 E0.00937
G1 X173.206 Y117.416 E0.00813
G1 X173.049 Y117.003 E0.01386
G1 X173.171 Y116.975 E0.00395
G1 X173.176 Y116.565 F10800.000
G1 F8640.000
G1 X173.809 Y116.826 E-0.15124
G1 X174.318 Y116.776 E-0.11808
G1 X174.822 Y116.784 E-0.11634
G1 X175.633 Y116.864 E-0.18818
G1 X175.531 Y117.368 E-0.11871
G1 X175.296 Y117.541 E-0.06745
G1 E-0.04000 F2100.00000
G1 Z0.600 F10800.000
G1 X177.264 Y116.895
G1 Z0.200
G1 E0.80000 F2100.00000
G1 F1200.000
G1 X177.266 Y116.590 E0.00958
G1 X177.353 Y116.394 E0.00672
G1 X177.487 Y116.202 E0.00735
G1 X177.770 Y116.053 E0.01001
G1 X178.040 Y116.098 E0.00859
G1 X178.283 Y116.215 E0.00846
G1 X178.406 Y116.320 E0.00505
G1 X178.526 Y116.524 E0.00744
G1 X178.541 Y116.787 E0.00827
G1 X178.454 Y117.083 E0.00967
G1 X178.316 Y117.272 E0.00733
G1 X178.102 Y117.392 E0.00769
G1 X177.790 Y117.419 E0.00982
G1 X177.626 Y117.361 E0.00544
G1 X177.417 Y117.176 E0.00879
G1 X177.293 Y116.948 E0.00812
G1 X176.973 Y116.803 F10800.000
G1 F8640.000
G1 X177.266 Y116.590 E-0.08295
G1 X177.353 Y116.394 E-0.04946
G1 X177.487 Y116.202 E-0.05412
G1 X177.770 Y116.053 E-0.07372
G1 X178.040 Y116.098 E-0.06328
G1 X178.283 Y116.215 E-0.06231
G1 X178.406 Y116.320 E-0.03720
G1 X178.526 Y116.524 E-0.05480
G1 X178.541 Y116.787 E-0.06089
G1 X178.454 Y117.083 E-0.07124
G1 X178.316 Y117.272 E-0.05401
G1 X178.102 Y117.392 E-0.05661
G1 X177.932 Y117.407 E-0.03941
G1 E-0.04000 F2100.00000
G1 Z0.600 F10800.000
G1 X179.423 Y116.584
G1 Z0.200
G1 E0.80000 F2100.00000
G1 F1200.000
G1 X179.594 Y115.387 E0.03789
G1 X179.694 Y116.589 E0.03779
G1 X179.483 Y116.585 E0.00662
G1 X180.276 Y116.542 F10800.000
G1 F1200.000
G1 X180.353 Y116.483 E0.00306
G1 X180.350 Y116.583 E0.00314
G1 X180.327 Y116.561 E0.00100
G1 X180.776 Y116.391 F10800.000
G1 F1200.000
G1 X180.850 Y116.283 E0.00412
G1 X181.019 Y116.119 E0.00738
G1 X181.273 Y116.027 E0.00847
G1 X181.511 Y116.051 E0.00752
G1 X181.724 Y116.144 E0.00727
G1 X181.900 Y116.322 E0.00784
G1 X182.000 Y116.517 E0.00688
G1 X182.032 Y116.805 E0.00906
G1 X181.982 Y117.035 E0.00739
G1 X181.913 Y117.196 E0.00549
G1 X181.753 Y117.352 E0.00700
G1 X181.610 Y117.416 E0.00493
G1 X181.438 Y117.434 E0.00542
G1 X181.236 Y117.406 E0.00639
