( Made using CamBam - http://www.cambam.co.uk )
( Gutmann_Brender_Tuerschild 5/4/2024 9:43:19 AM )
( Post processor: Default )
( T15 : 1.5 )
G21 G90 G64 G40
G0 Z3.0
( T15 : 1.5 )
T15 M6
( Tasche15mm )
G17
M3 S1000
G0 X127.4228 Y-4.0484
G0 Z1.0
G1 F300.0 Z-1.0
G3 F800.0 X128.1213 Y-3.7937 I-1.7194 J5.8001
G3 X128.1217 Y-3.7935 I-0.2997 J0.6875
G3 X128.6088 Y-3.513 I-1.0171 J2.3292
G3 X128.6125 Y-3.5102 I-0.4439 J0.6045
G3 X128.9113 Y-3.2101 I-0.8561 J1.1511
G3 X129.1215 Y-2.5611 I-0.8562 J0.6359
G3 X129.1199 Y-2.5198 I-0.7499 J-0.0092
G3 X128.6094 Y-1.4245 I-1.6726 J-0.113
G3 X127.9082 Y-0.911 I-2.1055 J-2.1399
G3 X126.4568 Y-0.4133 I-1.9693 J-3.3779
G3 X126.3642 Y-0.4068 I-0.0993 J-0.7434
G2 X124.3971 Y-0.3561 I0.5269 J58.7173
G3 X123.6152 Y-1.1055 I-0.0319 J-0.7493
G1 Y-3.8447
G3 X124.4132 Y-4.5932 I0.75 J0.0
G3 X127.3018 Y-4.0829 I-0.8492 J13.2379
G3 X127.4228 Y-4.0484 I-1.5983 J5.8346
G0 Z3.0
G0 X123.9282 Y-4.7981
G0 Z1.0
G1 F300.0 Z-1.0
G2 F800.0 X123.5243 Y-4.8016 I-0.3384 J15.7801
G2 X123.5063 Y-4.7926 I0.0022 J0.0267
G3 X123.4735 Y-4.7569 I-0.789 J-0.6928
G2 X123.423 Y-4.6883 I0.2313 J0.2228
G1 Y-4.3054
G3 X123.9282 Y-4.7981 I0.9422 J0.4607
G0 Z3.0
G0 X123.423 Y-0.6447
G0 Z1.0
G1 F300.0 Z-1.0
G1 F800.0 Y0.4553
G3 X124.0853 Y-0.0947 I0.9422 J0.4607
G3 X123.423 Y-0.6447 I0.28 J-1.0107
G0 Z3.0
G0 X126.0699 Y-0.1046
G0 Z1.0
G1 F300.0 Z-1.0
G3 F800.0 X126.341 Y-0.0514 I-1.0841 J6.2472
G1 X126.3409
G1 X126.341
G3 X127.069 Y0.1797 I-0.8884 J4.0619
G3 X127.4833 Y0.391 I-1.006 J2.4842
G3 X127.5623 Y-0.4058 I1.0055 J-0.3026
G3 X126.4963 Y-0.1172 I-1.6235 J-3.8831
G3 X126.3668 Y-0.108 I-0.1389 J-1.0396
G2 X126.0699 Y-0.1046 I0.5242 J58.4185
G0 Z3.0
G0 X123.3793 Y4.3646
G0 Z1.0
G1 F300.0 Z-1.0
G2 F800.0 X123.3968 Y4.7168 I4.2053 J-0.0316
G2 X123.6654 Y4.788 I0.5065 J-1.3682
G3 X123.3793 Y4.3646 I0.6998 J-0.7812
G1 F300.0 X123.0794 Y4.3669
G2 F800.0 X123.1139 Y4.891 I4.5053 J-0.0338
G2 X123.1606 Y4.9437 I0.0767 J-0.0209
G3 X123.1838 Y4.9536 I-0.2836 J0.6943
G2 X123.7291 Y5.0989 I0.7196 J-1.605
G3 X123.8362 Y5.1175 I-0.0743 J0.7463
G2 X124.6078 Y5.2305 I0.9552 J-3.8313
G3 X124.6188 Y5.2311 I-0.0349 J0.7492
G2 X125.4977 Y5.2564 I0.8291 J-13.5418
G3 X125.5006 Y5.2563 I0.0028 J0.75
G2 X126.647 Y5.0616 I0.0004 J-3.4699
G2 X127.7151 Y4.503 I-1.4521 J-4.0775
G3 X127.7341 Y4.4899 I0.4367 J0.6097
G2 X128.5927 Y3.6101 I-1.6673 J-2.4859
G2 X128.8887 Y2.5202 I-1.7815 J-1.0691
G3 Y2.5078 I0.75 J-0.0075
G2 X128.8351 Y1.9251 I-2.9821 J-0.0194
G3 X128.8349 Y1.9242 I0.7365 J-0.1417
G2 X128.668 Y1.4423 I-1.7366 J0.3317
G2 X128.3948 Y1.053 I-1.7852 J0.9622
G3 X128.3916 Y1.0494 I0.5592 J-0.4998
G2 X127.9929 Y0.6511 I-3.3722 J2.9764
G3 X128.1541 Y-0.5828 I0.4958 J-0.5627
G2 X129.1529 Y-1.4074 I-1.2811 J-2.569
G3 X129.1685 Y-1.4271 I0.5957 J0.4557
G2 X129.5072 Y-1.9759 I-1.8725 J-1.5347
G2 X129.621 Y-2.4956 I-1.2093 J-0.5372
G2 X129.4247 Y-3.1234 I-1.1676 J0.0206
G3 X129.4244 Y-3.1238 I0.6238 J-0.4164
G2 X128.843 Y-3.7551 I-2.2963 J1.531
G3 X128.8305 Y-3.7653 I0.466 J-0.5876
G2 X127.5602 Y-4.5116 I-2.9335 J3.5393
G2 X125.6024 Y-4.9753 I-3.0469 J8.4982
G3 X125.5992 Y-4.9757 I0.0905 J-0.7445
G2 X123.5177 Y-5.1016 I-2.0094 J15.9577
G2 X123.2809 Y-4.9905 I0.0088 J0.3267
G3 X123.2574 Y-4.965 I-0.5636 J-0.4948
G2 X123.146 Y-4.8054 I0.4474 J0.431
G2 X123.123 Y-4.7012 I0.2267 J0.1045
G1 Y3.062
G3 X123.1223 Y3.0949 I-0.75 J0.0
G2 X123.0861 Y4.0803 I69.3851 J3.0443
G3 X123.0854 Y4.0973 I-0.7497 J-0.0222
G2 X123.0794 Y4.3669 I4.4992 J0.2357
G1 F300.0 X123.643 Y4.2091
G3 F800.0 X123.6152 Y4.0033 I0.7222 J-0.2022
G1 X123.6226 Y2.4541
G1 X123.6152 Y0.9196
G3 X124.2598 Y0.1735 I0.75 J-0.0036
G3 X125.3978 Y0.1153 I0.8913 J6.2787
G3 X125.4229 Y0.1167 I-0.0292 J0.7494
G3 X126.2771 Y0.2405 I-0.4371 J6.0259
G3 X126.9549 Y0.4558 I-0.8246 J3.77
G3 X127.9593 Y1.2234 I-0.8918 J2.2081
G3 X127.9793 Y1.2509 I-0.5972 J0.4537
G3 X128.3596 Y2.5328 I-1.7706 J1.2227
G3 X127.9845 Y3.558 I-1.7107 J-0.0446
G3 X127.3979 Y4.1184 I-2.2668 J-1.7859
G3 X125.5072 Y4.7715 I-1.9188 J-2.4916
G3 X125.5055 I-0.0067 J-0.75
G3 X124.3408 Y4.7564 I-0.1997 J-29.6625
G3 X123.643 Y4.2091 I0.0244 J-0.7496
G1 F300.0 Z-2.0
G3 F800.0 X123.6152 Y4.0033 I0.7222 J-0.2022
G1 X123.6226 Y2.4541
G1 X123.6152 Y0.9196
G3 X124.2598 Y0.1735 I0.75 J-0.0036
G3 X125.3978 Y0.1153 I0.8913 J6.2787
G3 X125.4229 Y0.1167 I-0.0292 J0.7494
G3 X126.2771 Y0.2405 I-0.4371 J6.0259
G3 X126.9549 Y0.4558 I-0.8246 J3.77
G3 X127.9593 Y1.2234 I-0.8918 J2.2081
G3 X127.9793 Y1.2509 I-0.5972 J0.4537
G3 X128.3596 Y2.5328 I-1.7706 J1.2227
G3 X127.9845 Y3.558 I-1.7107 J-0.0446
G3 X127.3979 Y4.1184 I-2.2668 J-1.7859
G3 X125.5072 Y4.7715 I-1.9188 J-2.4916
G3 X125.5055 I-0.0067 J-0.75
G3 X124.3408 Y4.7564 I-0.1997 J-29.6625
G3 X123.643 Y4.2091 I0.0244 J-0.7496
G1 F300.0 X123.3793 Y4.3646
G2 F800.0 X123.3968 Y4.7168 I4.2053 J-0.0316
G2 X123.6654 Y4.788 I0.5065 J-1.3682
G3 X123.3793 Y4.3646 I0.6998 J-0.7812
G0 Z3.0
G0 X123.423 Y0.4553
G0 Z0.0
G1 F300.0 Z-2.0
G3 F800.0 X124.0853 Y-0.0947 I0.9422 J0.4607
G3 X123.423 Y-0.6447 I0.28 J-1.0107
G1 Y0.4553
G0 Z3.0
G0 X126.0699 Y-0.1046
G0 Z0.0
G1 F300.0 Z-2.0
G3 F800.0 X126.341 Y-0.0514 I-1.0841 J6.2472
G1 X126.3409
G1 X126.341
G3 X127.069 Y0.1797 I-0.8884 J4.0619
G3 X127.4833 Y0.391 I-1.006 J2.4842
G3 X127.5623 Y-0.4058 I1.0055 J-0.3026
G3 X126.4963 Y-0.1172 I-1.6235 J-3.8831
G3 X126.3668 Y-0.108 I-0.1389 J-1.0396
G2 X126.0699 Y-0.1046 I0.5242 J58.4185
G0 Z3.0
G0 X123.423 Y-4.3054
G0 Z0.0
G1 F300.0 Z-2.0
G3 F800.0 X123.9282 Y-4.7981 I0.9422 J0.4607
G2 X123.5243 Y-4.8016 I-0.3384 J15.7801
G2 X123.5063 Y-4.7926 I0.0022 J0.0267
G3 X123.4735 Y-4.7569 I-0.789 J-0.6928
G2 X123.423 Y-4.6883 I0.2313 J0.2228
G1 Y-4.3054
G1 F300.0 X123.123
G1 F800.0 Y3.062
G3 X123.1223 Y3.0949 I-0.75 J0.0
G2 X123.0861 Y4.0803 I69.3851 J3.0443
G3 X123.0854 Y4.0973 I-0.7497 J-0.0222
G2 X123.1139 Y4.891 I4.4992 J0.2357
G2 X123.1606 Y4.9437 I0.0767 J-0.0209
G3 X123.1838 Y4.9536 I-0.2836 J0.6943
G2 X123.7291 Y5.0989 I0.7196 J-1.605
G3 X123.8362 Y5.1175 I-0.0743 J0.7463
G2 X124.6078 Y5.2305 I0.9552 J-3.8313
G3 X124.6188 Y5.2311 I-0.0349 J0.7492
G2 X125.4977 Y5.2564 I0.8291 J-13.5418
G3 X125.5006 Y5.2563 I0.0028 J0.75
G2 X126.647 Y5.0616 I0.0004 J-3.4699
G2 X127.7151 Y4.503 I-1.4521 J-4.0775
G3 X127.7341 Y4.4899 I0.4367 J0.6097
G2 X128.5927 Y3.6101 I-1.6673 J-2.4859
G2 X128.8887 Y2.5202 I-1.7815 J-1.0691
G3 Y2.5078 I0.75 J-0.0075
G2 X128.8351 Y1.9251 I-2.9821 J-0.0194
G3 X128.8349 Y1.9242 I0.7365 J-0.1417
G2 X128.668 Y1.4423 I-1.7366 J0.3317
G2 X128.3948 Y1.053 I-1.7852 J0.9622
G3 X128.3916 Y1.0494 I0.5592 J-0.4998
G2 X127.9929 Y0.6511 I-3.3722 J2.9764
G3 X128.1541 Y-0.5828 I0.4958 J-0.5627
G2 X129.1529 Y-1.4074 I-1.2811 J-2.569
G3 X129.1685 Y-1.4271 I0.5957 J0.4557
G2 X129.5072 Y-1.9759 I-1.8725 J-1.5347
G2 X129.621 Y-2.4956 I-1.2093 J-0.5372
G2 X129.4247 Y-3.1234 I-1.1676 J0.0206
G3 X129.4244 Y-3.1238 I0.6238 J-0.4164
G2 X128.843 Y-3.7551 I-2.2963 J1.531
G3 X128.8305 Y-3.7653 I0.466 J-0.5876
G2 X127.5602 Y-4.5116 I-2.9335 J3.5393
G2 X125.6024 Y-4.9753 I-3.0469 J8.4982
G3 X125.5992 Y-4.9757 I0.0905 J-0.7445
G2 X123.5177 Y-5.1016 I-2.0094 J15.9577
G2 X123.2809 Y-4.9905 I0.0088 J0.3267
G3 X123.2574 Y-4.965 I-0.5636 J-0.4948
G2 X123.146 Y-4.8054 I0.4474 J0.431
G2 X123.123 Y-4.7012 I0.2267 J0.1045
G1 Y-4.3054
G1 F300.0 X123.662 Y-4.1055
G3 F800.0 X124.4132 Y-4.5932 I0.7032 J0.2608
G3 X127.3018 Y-4.0829 I-0.8492 J13.2379
G3 X128.1213 Y-3.7937 I-1.5983 J5.8346
G3 X128.1217 Y-3.7935 I-0.2997 J0.6875
G3 X128.6088 Y-3.513 I-1.0171 J2.3292
G3 X128.6125 Y-3.5102 I-0.4439 J0.6045
G3 X128.9113 Y-3.2101 I-0.8561 J1.1511
G3 X129.1215 Y-2.5611 I-0.8562 J0.6359
G3 X129.1199 Y-2.5198 I-0.7499 J-0.0092
G3 X128.6094 Y-1.4245 I-1.6726 J-0.113
G3 X127.9082 Y-0.911 I-2.1055 J-2.1399
G3 X126.4568 Y-0.4133 I-1.9693 J-3.3779
G3 X126.3642 Y-0.4068 I-0.0993 J-0.7434
G2 X124.3971 Y-0.3561 I0.5269 J58.7173
G3 X123.6152 Y-1.1055 I-0.0319 J-0.7493
G1 Y-3.8447
G3 X123.662 Y-4.1055 I0.75 J0.0
G0 Z3.0
G0 X132.4611 Y-0.7737
G0 Z1.0
G1 F300.0 Z-1.0
G1 F800.0 Y-0.2305
G2 X132.4751 Y0.4095 I22.5894 J-0.1729
G3 Y0.4101 I-1.0493 J0.0378
G3 X132.4828 Y0.6639 I-25.606 J0.906
G3 X133.1809 Y0.217 I0.8692 J0.589
G3 X132.4611 Y-0.7737 I2.9001 J-2.8637
G0 Z3.0
G0 X136.3864 Y1.1555
G0 Z1.0
G1 F300.0 Z-1.0
G2 F800.0 X136.447 Y1.1362 I-0.1192 J-0.477
G2 X136.5464 Y1.0002 I-0.1313 J-0.2004
G3 X136.5521 Y0.9807 I1.0113 J0.2825
G2 X136.5525 Y0.9793 I-2.1306 J-0.6397
G3 X136.3864 Y1.1555 I-0.8421 J-0.6273
G1 F300.0 X136.4591 Y1.4466
G2 F800.0 X136.5828 Y1.4046 I-0.1919 J-0.7681
G2 X136.8354 Y1.0809 I-0.2672 J-0.4689
G3 X136.8394 Y1.067 I0.7224 J0.2018
G2 X136.9455 Y0.2874 I-2.4179 J-0.726
G3 X136.9453 Y0.2666 I0.7498 J-0.0159
G2 X136.9387 Y-0.1867 I-10.688 J-0.0698
G2 X136.8982 Y-0.4412 I-1.2284 J0.0647
G3 X136.8928 Y-0.4625 I0.7243 J-0.1946
G2 X136.8387 Y-0.559 I-0.1962 J0.0466
G2 X136.7003 Y-0.5905 I-0.1274 J0.2403
G3 X136.6588 Y-0.5899 I-0.0304 J-0.7494
G2 X136.5208 Y-0.5739 I-0.0079 J0.5351
G2 X136.4966 Y-0.4128 I0.4252 J0.1461
G3 X136.4962 Y-0.3506 I-0.7496 J0.0251
G1 X136.4595 Y0.3891
G3 X135.6051 Y1.0946 I-0.7491 J-0.0371
G3 X133.8901 Y0.4281 I0.5678 J-4.0007
G3 X133.8757 Y0.418 I0.4237 J-0.6189
G3 X132.6756 Y-1.0159 I2.2053 J-3.0648
G3 X132.6021 Y-1.3413 I0.6764 J-0.3239
G1 X132.6094 Y-5.0254
G3 X132.6097 Y-5.046 I0.75 J0.0015
G2 X132.5599 Y-5.1661 I-0.1584 J-0.0047
G3 X132.5536 Y-5.172 I0.5138 J-0.5463
G2 X132.3736 Y-5.2411 I-0.1718 J0.1785
G3 X132.3368 Y-5.2408 I-0.025 J-0.7496
G2 X132.2313 Y-5.2239 I-0.0049 J0.3075
G2 X132.2191 Y-5.2145 I0.0156 J0.0328
G3 X132.2155 Y-5.2104 I-0.5736 J-0.4832
G2 X132.1606 Y-5.0524 I0.1746 J0.1493
G3 X132.1611 Y-5.0239 I-0.7495 J0.0284
G1 Y-0.2294
G2 X132.1753 Y0.4203 I22.8894 J-0.174
G3 Y0.4207 I-0.7495 J0.027
G3 X132.1904 Y1.1227 I-25.3062 J0.8954
G3 X132.19 Y1.1537 I-0.75 J0.0057
G2 X132.2367 Y1.3032 I0.2374 J0.008
G2 X132.3428 Y1.3391 I0.0976 J-0.1138
G3 X132.4229 Y1.3388 I0.0425 J0.7488
G2 X132.5413 Y1.3094 I0.0106 J-0.2098
G2 X132.6088 Y1.1528 I-0.2458 J-0.1988
G3 X133.8076 Y0.6571 I0.7433 J0.1002
G2 X136.2269 Y1.4697 I2.4006 J-3.1394
G3 X136.2484 Y1.4699 I0.0036 J0.75
G2 X136.4591 Y1.4466 I0.0189 J-0.7915
G1 F300.0 X136.3864 Y1.1555
G1 Z-2.0
G2 F800.0 X136.447 Y1.1362 I-0.1192 J-0.477
G2 X136.5464 Y1.0002 I-0.1313 J-0.2004
G3 X136.5521 Y0.9807 I1.0113 J0.2825
G2 X136.5525 Y0.9793 I-2.1306 J-0.6397
G3 X136.3864 Y1.1555 I-0.8421 J-0.6273
G0 Z3.0
G0 X133.1809 Y0.217
G0 Z0.0
G1 F300.0 Z-2.0
G3 F800.0 X132.4611 Y-0.7737 I2.9001 J-2.8637
G1 Y-0.2305
G2 X132.4751 Y0.4095 I22.5894 J-0.1729
G3 Y0.4101 I-1.0493 J0.0378
G3 X132.4828 Y0.6639 I-25.606 J0.906
G3 X133.1809 Y0.217 I0.8692 J0.589
G1 F300.0 X133.2298 Y0.513
G3 F800.0 X133.8076 Y0.6571 I0.1223 J0.74
G2 X136.2269 Y1.4697 I2.4006 J-3.1394
G3 X136.2484 Y1.4699 I0.0036 J0.75
G2 X136.5828 Y1.4046 I0.0189 J-0.7915
G2 X136.8354 Y1.0809 I-0.2672 J-0.4689
G3 X136.8394 Y1.067 I0.7224 J0.2018
G2 X136.9455 Y0.2874 I-2.4179 J-0.726
G3 X136.9453 Y0.2666 I0.7498 J-0.0159
G2 X136.9387 Y-0.1867 I-10.688 J-0.0698
G2 X136.8982 Y-0.4412 I-1.2284 J0.0647
G3 X136.8928 Y-0.4625 I0.7243 J-0.1946
G2 X136.8387 Y-0.559 I-0.1962 J0.0466
G2 X136.7003 Y-0.5905 I-0.1274 J0.2403
G3 X136.6588 Y-0.5899 I-0.0304 J-0.7494
G2 X136.5208 Y-0.5739 I-0.0079 J0.5351
G2 X136.4966 Y-0.4128 I0.4252 J0.1461
G3 X136.4962 Y-0.3506 I-0.7496 J0.0251
G1 X136.4595 Y0.3891
G3 X135.6051 Y1.0946 I-0.7491 J-0.0371
G3 X133.8901 Y0.4281 I0.5678 J-4.0007
G3 X133.8757 Y0.418 I0.4237 J-0.6189
G3 X132.6756 Y-1.0159 I2.2053 J-3.0648
G3 X132.6021 Y-1.3413 I0.6764 J-0.3239
G1 X132.6094 Y-5.0254
G3 X132.6097 Y-5.046 I0.75 J0.0015
G2 X132.5599 Y-5.1661 I-0.1584 J-0.0047
G3 X132.5536 Y-5.172 I0.5138 J-0.5463
G2 X132.3736 Y-5.2411 I-0.1718 J0.1785
G3 X132.3368 Y-5.2408 I-0.025 J-0.7496
G2 X132.2313 Y-5.2239 I-0.0049 J0.3075
G2 X132.2191 Y-5.2145 I0.0156 J0.0328
G3 X132.2155 Y-5.2104 I-0.5736 J-0.4832
G2 X132.1606 Y-5.0524 I0.1746 J0.1493
G3 X132.1611 Y-5.0239 I-0.7495 J0.0284
G1 Y-0.2294
G2 X132.1753 Y0.4203 I22.8894 J-0.174
G3 Y0.4207 I-0.7495 J0.027
G3 X132.1904 Y1.1227 I-25.3062 J0.8954
G3 X132.19 Y1.1537 I-0.75 J0.0057
G2 X132.2367 Y1.3032 I0.2374 J0.008
G2 X132.3428 Y1.3391 I0.0976 J-0.1138
G3 X132.4229 Y1.3388 I0.0425 J0.7488
G2 X132.5413 Y1.3094 I0.0106 J-0.2098
G2 X132.6088 Y1.1528 I-0.2458 J-0.1988
G3 X133.2298 Y0.513 I0.7433 J0.1002
G0 Z3.0
G0 X139.5869 Y-1.2361
G0 Z1.0
G1 F300.0 Z-1.0
G3 F800.0 X140.6085 Y-2.1231 I0.7231 J-0.199
G2 X142.2534 Y-1.414 I158.7033 J-365.8641
G3 X142.2585 Y-1.4118 I-0.2954 J0.6894
G3 X143.9283 Y-0.5342 I-5.2775 J12.0686
G3 X143.8936 Y0.7605 I-0.3956 J0.6372
G3 X143.0442 Y1.0614 I-1.3478 J-2.4556
G3 X142.2548 Y1.1314 I-0.7668 J-4.1604
G3 X140.5683 Y0.4695 I-0.0351 J-2.3901
G3 X140.5644 Y0.4657 I0.5181 J-0.5422
G3 X139.9501 Y-0.3575 I2.2456 J-2.3163
G3 X139.5946 Y-1.2101 I4.5228 J-2.3865
G3 X139.5869 Y-1.2361 I0.7155 J-0.225
G1 F300.0 X139.4183 Y-1.9871
G3 F800.0 X139.9045 Y-2.4023 I0.8917 J0.5521
G3 X139.458 Y-2.9708 I0.5521 J-0.8931
G2 X139.4043 Y-2.4201 I2.3676 J0.5086
G3 X139.4045 Y-2.3927 I-1.0498 J0.0183
G2 X139.4183 Y-1.9871 I4.7386 J0.0411
G1 F300.0 X139.1192 Y-1.964
G2 F800.0 X139.2997 Y-0.9619 I5.0239 J-0.3876
G2 X139.926 Y0.2795 I3.6853 J-1.0806
G3 X139.9312 Y0.2864 I-0.5974 J0.4535
G2 X140.9379 Y1.1283 I2.2489 J-1.6664
G2 X142.2392 Y1.4039 I1.2541 J-2.7114
G3 X142.2556 Y1.4038 I0.0118 J0.7499
G2 X143.208 Y1.3273 I0.0344 J-5.5389
G3 X143.2103 Y1.327 I0.1243 J0.7396
G2 X144.0468 Y1.0657 I-0.5127 J-3.112
G3 X144.0561 Y1.0614 I0.3208 J0.6779
G2 X144.5644 Y0.6482 I-0.5411 J-1.1849
G2 X144.7239 Y0.0773 I-0.8541 J-0.5463
G3 X144.7236 Y0.0618 I0.7498 J-0.0182
G2 X144.5975 Y-0.3265 I-0.6681 J0.0024
G2 X144.1627 Y-0.7412 I-1.3987 J1.0313
G2 X143.4454 Y-1.137 I-3.3575 J5.2364
G3 X143.4368 Y-1.1411 I0.3183 J-0.6791
G2 X142.6221 Y-1.5179 I-11.0082 J22.7305
G3 X142.6215 Y-1.5182 I0.3027 J-0.6862
G1 X140.1533 Y-2.6095
G3 X139.9056 Y-3.8043 I0.3033 J-0.6859
G3 X141.0427 Y-4.5689 I2.1789 J2.0125
G3 X141.051 Y-4.572 I0.2634 J0.7022
G3 X142.4523 Y-4.8072 I1.3438 J3.7141
G3 X143.467 Y-4.7004 I0.0239 J4.6482
G3 X143.4672 I-0.1599 J0.7328
G3 X144.4892 Y-4.3022 I-0.7512 J3.4382
G3 X144.4975 Y-4.2972 I-0.3779 J0.6479
G2 X144.87 Y-4.1075 I1.5425 J-2.5679
G3 X144.8844 Y-4.1012 I-0.2929 J0.6904
G2 X145.0962 Y-4.0462 I0.2677 J-0.5959
G2 X144.9536 Y-4.3255 I-0.4046 J0.0305
G3 X144.9454 Y-4.3326 I0.4844 J-0.5726
G2 X144.3431 Y-4.7021 I-1.4013 J1.6085
G3 X144.3293 Y-4.7078 I0.2809 J-0.6954
G2 X142.4526 Y-5.0869 I-1.8525 J4.3354
G3 X142.4415 I-0.0039 J-0.75
G2 X141.1367 Y-4.9277 I-0.0484 J5.0275
G2 X140.0313 Y-4.3992 I0.8105 J3.1157
G3 X140.0278 Y-4.3966 I-0.4463 J-0.6027
G2 X139.3296 Y-3.5472 I1.3058 J1.7849
G2 X139.1044 Y-2.4149 I2.496 J1.085
G3 X139.1045 Y-2.3954 I-0.7499 J0.013
G2 X139.1192 Y-1.964 I5.0386 J0.0437
G1 F300.0 X139.4183 Y-1.9871
G1 Z-2.0
G3 F800.0 X139.9045 Y-2.4023 I0.8917 J0.5521
G3 X139.458 Y-2.9708 I0.5521 J-0.8931
G2 X139.4043 Y-2.4201 I2.3676 J0.5086
G3 X139.4045 Y-2.3927 I-1.0498 J0.0183
G2 X139.4183 Y-1.9871 I4.7386 J0.0411
G1 F300.0 X139.1192 Y-1.964
G2 F800.0 X139.2997 Y-0.9619 I5.0239 J-0.3876
G2 X139.926 Y0.2795 I3.6853 J-1.0806
G3 X139.9312 Y0.2864 I-0.5974 J0.4535
G2 X140.9379 Y1.1283 I2.2489 J-1.6664
G2 X142.2392 Y1.4039 I1.2541 J-2.7114
G3 X142.2556 Y1.4038 I0.0118 J0.7499
G2 X143.208 Y1.3273 I0.0344 J-5.5389
G3 X143.2103 Y1.327 I0.1243 J0.7396
G2 X144.0468 Y1.0657 I-0.5127 J-3.112
G3 X144.0561 Y1.0614 I0.3208 J0.6779
G2 X144.5644 Y0.6482 I-0.5411 J-1.1849
G2 X144.7239 Y0.0773 I-0.8541 J-0.5463
G3 X144.7236 Y0.0618 I0.7498 J-0.0182
G2 X144.5975 Y-0.3265 I-0.6681 J0.0024
G2 X144.1627 Y-0.7412 I-1.3987 J1.0313
G2 X143.4454 Y-1.137 I-3.3575 J5.2364
G3 X143.4368 Y-1.1411 I0.3183 J-0.6791
G2 X142.6221 Y-1.5179 I-11.0082 J22.7305
G3 X142.6215 Y-1.5182 I0.3027 J-0.6862
G1 X140.1533 Y-2.6095
G3 X139.9056 Y-3.8043 I0.3033 J-0.6859
G3 X141.0427 Y-4.5689 I2.1789 J2.0125
G3 X141.051 Y-4.572 I0.2634 J0.7022
G3 X142.4523 Y-4.8072 I1.3438 J3.7141
G3 X143.467 Y-4.7004 I0.0239 J4.6482
G3 X143.4672 I-0.1599 J0.7328
G3 X144.4892 Y-4.3022 I-0.7512 J3.4382
G3 X144.4975 Y-4.2972 I-0.3779 J0.6479
G2 X144.87 Y-4.1075 I1.5425 J-2.5679
G3 X144.8844 Y-4.1012 I-0.2929 J0.6904
G2 X145.0962 Y-4.0462 I0.2677 J-0.5959
G2 X144.9536 Y-4.3255 I-0.4046 J0.0305
G3 X144.9454 Y-4.3326 I0.4844 J-0.5726
G2 X144.3431 Y-4.7021 I-1.4013 J1.6085
G3 X144.3293 Y-4.7078 I0.2809 J-0.6954
G2 X142.4526 Y-5.0869 I-1.8525 J4.3354
G3 X142.4415 I-0.0039 J-0.75
G2 X141.1367 Y-4.9277 I-0.0484 J5.0275
G2 X140.0313 Y-4.3992 I0.8105 J3.1157
G3 X140.0278 Y-4.3966 I-0.4463 J-0.6027
G2 X139.3296 Y-3.5472 I1.3058 J1.7849
G2 X139.1044 Y-2.4149 I2.496 J1.085
G3 X139.1045 Y-2.3954 I-0.7499 J0.013
G2 X139.1192 Y-1.964 I5.0386 J0.0437
G1 F300.0 X139.6246 Y-1.7395
G3 F800.0 X140.6085 Y-2.1231 I0.6854 J0.3045
G2 X142.2534 Y-1.414 I158.7033 J-365.8641
G3 X142.2585 Y-1.4118 I-0.2954 J0.6894
G3 X143.9283 Y-0.5342 I-5.2775 J12.0686
G3 X143.8936 Y0.7605 I-0.3956 J0.6372
G3 X143.0442 Y1.0614 I-1.3478 J-2.4556
G3 X142.2548 Y1.1314 I-0.7668 J-4.1604
G3 X140.5683 Y0.4695 I-0.0351 J-2.3901
G3 X140.5644 Y0.4657 I0.5181 J-0.5422
G3 X139.9501 Y-0.3575 I2.2456 J-2.3163
G3 X139.5946 Y-1.2101 I4.5228 J-2.3865
G3 X139.6246 Y-1.7395 I0.7155 J-0.225
G0 Z3.0
G0 X148.4241 Y-0.6641
G0 Z1.0
G1 F300.0 Z-1.0
G3 F800.0 X148.4478 Y0.0891 I-28.8203 J1.2861
G3 X148.7648 Y-0.0385 I0.6586 J1.1784
G3 X148.4241 Y-0.6641 I5.556 J-3.4314
G1 F300.0 X148.9659 Y-0.9219
G3 F800.0 X148.8944 Y-1.0778 I5.3549 J-2.548
G3 X148.4782 Y-2.248 I7.5905 J-3.3589
G3 X148.4524 Y-2.4123 I0.7235 J-0.1978
G2 X148.3996 Y-3.0058 I-6.7768 J0.3033
G3 X148.3976 Y-3.0229 I0.7434 J-0.0992
G3 X148.3565 Y-3.7524 I6.8092 J-0.7495
G2 X148.3117 Y-4.3025 I-5.4071 J0.163
G3 X148.31 Y-4.3164 I0.7435 J-0.0989
G3 X148.2615 Y-5.0119 I7.9023 J-0.9007
G3 X148.2616 Y-5.0545 I0.7498 J-0.0194
G2 X148.2029 Y-5.1968 I-0.1877 J-0.0058
G3 X148.1982 Y-5.2013 I0.5153 J-0.5449
G2 X148.0181 Y-5.2704 I-0.1718 J0.1785
G3 X147.9682 I-0.025 J-0.7496
G2 X147.7892 Y-5.2023 I-0.0082 J0.2476
G2 X147.7321 Y-5.0605 I0.1337 J0.1362
G3 X147.7322 Y-5.0193 I-0.7497 J0.0219
G3 X147.6836 Y-4.3237 I-7.9371 J-0.2043
G1 X147.6837 Y-4.3238
G1 X147.6836 Y-4.3237
G2 X147.6447 Y-3.7745 I6.4119 J0.7308
G2 X147.7442 Y-1.8523 I26.7396 J-0.4205
G3 X147.8495 Y0.1942 I-28.1404 J2.4744
G3 Y0.2174 I-0.7499 J0.0114
G3 X147.8189 Y0.9192 I-12.6058 J-0.1991
G2 X147.7983 Y1.5406 I15.0652 J0.81
G3 X147.7981 Y1.5521 I-0.7499 J-0.0094
G2 X147.8461 Y1.665 I0.1471 J0.0041
G3 X147.8525 Y1.6709 I-0.5048 J0.5547
G2 X148.056 Y1.7483 I0.1966 J-0.2111
G3 X148.0874 Y1.7482 I0.0178 J0.7498
G2 X148.2293 Y1.7255 I0.0074 J-0.4098
G2 X148.2711 Y1.6819 I-0.0376 J-0.078
G2 X148.3495 Y1.3235 I-0.9323 J-0.3917
G3 X148.3522 Y1.2802 I0.7496 J0.0247
G1 X148.3595 Y1.1997
G3 X149.6458 Y0.7465 I0.7469 J0.0679
G2 X150.4758 Y1.3725 I2.4007 J-2.3194
G2 X151.3657 Y1.5942 I0.8985 J-1.7096
G3 X151.3841 Y1.5946 I-0.0034 J0.75
G2 X152.1314 Y1.4205 I0.0437 J-1.504
G2 X152.5823 Y0.8968 I-0.6015 J-0.974
G2 X152.8154 Y-0.0321 I-3.0549 J-1.2601
G3 X152.8165 Y-0.0426 I0.7462 J0.0752
G2 X152.8755 Y-1.1302 I-8.977 J-1.0323
G3 Y-1.1348 I0.75 J-0.0046
G1 Y-1.6459
G3 X152.8682 Y-2.1257 I28.8385 J-0.6791
G3 X152.8684 Y-2.1496 I0.75 J-0.0052
G3 X153.0345 Y-3.7397 I10.1123 J0.2528
G3 X153.0358 Y-3.7462 I0.7374 J0.1366
G2 X153.1833 Y-5.0866 I-8.0425 J-1.5638
G2 X153.1376 Y-5.1923 I-0.1387 J-0.0027
G3 X153.1325 Y-5.1969 I0.5025 J-0.5567
G2 X152.9361 Y-5.2703 I-0.1885 J0.205
G3 X152.9061 Y-5.2701 I-0.0211 J-0.7497
G2 X152.7386 Y-5.2492 I-0.0074 J0.6214
G3 X152.7308 Y-5.2471 I-0.1931 J-0.7247
G2 X152.7104 Y-5.2356 I0.0112 J0.0438
G2 X152.6589 Y-5.0703 I0.3494 J0.1994
G3 X152.6549 Y-5.0333 I-0.7473 J-0.0635
G1 X152.4498 Y-3.5171
G3 X152.4492 Y-3.5132 I-0.7432 J-0.1005
G2 X152.3467 Y-2.1053 I10.4196 J1.4664
G2 X152.3673 Y-1.4955 I16.5672 J-0.2537
G3 X152.3977 Y-0.819 I-13.7399 J0.9562
G2 X152.4103 Y-0.6002 I5.2848 J-0.1951
G3 X152.4105 Y-0.5973 I-0.7477 J0.0587
G3 X152.4272 Y-0.2089 I-6.1212 J0.4569
G3 X152.3673 Y0.3379 I-2.1504 J0.0413
G3 X152.3672 Y0.3384 I-0.729 J-0.1763
G3 X152.1332 Y0.8085 I-1.149 J-0.2787
G3 X152.118 Y0.8265 I-0.5805 J-0.4749
G3 X151.3568 Y1.1604 I-0.735 J-0.641
G3 X151.3528 Y1.1603 I0.0202 J-0.7497
G3 X150.1984 Y0.7283 I0.0619 J-1.9238
G3 X149.5403 Y0.0393 I2.1841 J-2.7452
G3 X148.9659 Y-0.9219 I4.7805 J-3.5092
G1 F300.0 X148.4241 Y-0.6641
G1 Z-2.0
G3 F800.0 X148.4478 Y0.0891 I-28.8203 J1.2861
G3 X148.7648 Y-0.0385 I0.6586 J1.1784
G3 X148.4241 Y-0.6641 I5.556 J-3.4314
G1 F300.0 X148.9659 Y-0.9219
G3 F800.0 X148.8944 Y-1.0778 I5.3549 J-2.548
G3 X148.4782 Y-2.248 I7.5905 J-3.3589
G3 X148.4524 Y-2.4123 I0.7235 J-0.1978
G2 X148.3996 Y-3.0058 I-6.7768 J0.3033
G3 X148.3976 Y-3.0229 I0.7434 J-0.0992
G3 X148.3565 Y-3.7524 I6.8092 J-0.7495
G2 X148.3117 Y-4.3025 I-5.4071 J0.163
G3 X148.31 Y-4.3164 I0.7435 J-0.0989
G3 X148.2615 Y-5.0119 I7.9023 J-0.9007
G3 X148.2616 Y-5.0545 I0.7498 J-0.0194
G2 X148.2029 Y-5.1968 I-0.1877 J-0.0058
G3 X148.1982 Y-5.2013 I0.5153 J-0.5449
G2 X148.0181 Y-5.2704 I-0.1718 J0.1785
G3 X147.9682 I-0.025 J-0.7496
G2 X147.7892 Y-5.2023 I-0.0082 J0.2476
G2 X147.7321 Y-5.0605 I0.1337 J0.1362
G3 X147.7322 Y-5.0193 I-0.7497 J0.0219
G3 X147.6836 Y-4.3237 I-7.9371 J-0.2043
G1 X147.6837 Y-4.3238
G1 X147.6836 Y-4.3237
G2 X147.6447 Y-3.7745 I6.4119 J0.7308
G2 X147.7442 Y-1.8523 I26.7396 J-0.4205
G3 X147.8495 Y0.1942 I-28.1404 J2.4744
G3 Y0.2174 I-0.7499 J0.0114
G3 X147.8189 Y0.9192 I-12.6058 J-0.1991
G2 X147.7983 Y1.5406 I15.0652 J0.81
G3 X147.7981 Y1.5521 I-0.7499 J-0.0094
G2 X147.8461 Y1.665 I0.1471 J0.0041
G3 X147.8525 Y1.6709 I-0.5048 J0.5547
G2 X148.056 Y1.7483 I0.1966 J-0.2111
G3 X148.0874 Y1.7482 I0.0178 J0.7498
G2 X148.2293 Y1.7255 I0.0074 J-0.4098
G2 X148.2711 Y1.6819 I-0.0376 J-0.078
G2 X148.3495 Y1.3235 I-0.9323 J-0.3917
G3 X148.3522 Y1.2802 I0.7496 J0.0247
G1 X148.3595 Y1.1997
G3 X149.6458 Y0.7465 I0.7469 J0.0679
G2 X150.4758 Y1.3725 I2.4007 J-2.3194
G2 X151.3657 Y1.5942 I0.8985 J-1.7096
G3 X151.3841 Y1.5946 I-0.0034 J0.75
G2 X152.1314 Y1.4205 I0.0437 J-1.504
G2 X152.5823 Y0.8968 I-0.6015 J-0.974
G2 X152.8154 Y-0.0321 I-3.0549 J-1.2601
G3 X152.8165 Y-0.0426 I0.7462 J0.0752
G2 X152.8755 Y-1.1302 I-8.977 J-1.0323
G3 Y-1.1348 I0.75 J-0.0046
G1 Y-1.6459
G3 X152.8682 Y-2.1257 I28.8385 J-0.6791
G3 X152.8684 Y-2.1496 I0.75 J-0.0052
G3 X153.0345 Y-3.7397 I10.1123 J0.2528
G3 X153.0358 Y-3.7462 I0.7374 J0.1366
G2 X153.1833 Y-5.0866 I-8.0425 J-1.5638
G2 X153.1376 Y-5.1923 I-0.1387 J-0.0027
G3 X153.1325 Y-5.1969 I0.5025 J-0.5567
G2 X152.9361 Y-5.2703 I-0.1885 J0.205
G3 X152.9061 Y-5.2701 I-0.0211 J-0.7497
G2 X152.7386 Y-5.2492 I-0.0074 J0.6214
G3 X152.7308 Y-5.2471 I-0.1931 J-0.7247
G2 X152.7104 Y-5.2356 I0.0112 J0.0438
G2 X152.6589 Y-5.0703 I0.3494 J0.1994
G3 X152.6549 Y-5.0333 I-0.7473 J-0.0635
G1 X152.4498 Y-3.5171
G3 X152.4492 Y-3.5132 I-0.7432 J-0.1005
G2 X152.3467 Y-2.1053 I10.4196 J1.4664
G2 X152.3673 Y-1.4955 I16.5672 J-0.2537
G3 X152.3977 Y-0.819 I-13.7399 J0.9562
G2 X152.4103 Y-0.6002 I5.2848 J-0.1951
G3 X152.4105 Y-0.5973 I-0.7477 J0.0587
G3 X152.4272 Y-0.2089 I-6.1212 J0.4569
G3 X152.3673 Y0.3379 I-2.1504 J0.0413
G3 X152.3672 Y0.3384 I-0.729 J-0.1763
G3 X152.1332 Y0.8085 I-1.149 J-0.2787
G3 X152.118 Y0.8265 I-0.5805 J-0.4749
G3 X151.3568 Y1.1604 I-0.735 J-0.641
G3 X151.3528 Y1.1603 I0.0202 J-0.7497
G3 X150.1984 Y0.7283 I0.0619 J-1.9238
G3 X149.5403 Y0.0393 I2.1841 J-2.7452
G3 X148.9659 Y-0.9219 I4.7805 J-3.5092
G0 Z3.0
G0 X155.7592 Y-1.5404
G0 Z1.0
G1 F300.0 Z-1.0
G3 F800.0 X155.7392 Y-2.0364 I4.8914 J-0.4453
G3 X156.5547 Y-3.9308 I2.5638 J-0.0191
G3 X158.4369 Y-4.7046 I1.8734 J1.8809
G3 X158.9563 Y-4.6755 I0.0224 J4.2535
G3 X159.5818 Y-4.5155 I-0.2437 J2.2554
G3 X159.6352 Y-4.4909 I-0.2874 J0.6928
G3 X160.0906 Y-4.2056 I-1.3899 J2.725
G3 X160.4384 Y-3.9383 I-5.7975 J7.9047
G3 X160.446 Y-3.9321 I-0.4702 J0.5843
G3 X160.7571 Y-3.6399 I-2.1419 J2.5918
G3 X160.9599 Y-3.1196 I-0.5472 J0.5129
G2 Y-0.4537 I135.6053 J1.333
G3 X160.8827 Y-0.1147 I-0.75 J0.0074
G3 X159.97 Y0.8828 I-2.1713 J-1.0703
G3 X159.9448 Y0.8975 I-0.39 J-0.6406
G3 X158.6542 Y1.2194 I-1.2418 J-2.2311
G3 X157.5407 Y1.0485 I-0.0405 J-3.4501
G3 X157.5366 Y1.0472 I0.2332 J-0.7128
G3 X156.4647 Y0.3308 I0.7727 J-2.3164
G3 X156.4544 Y0.3186 I0.5666 J-0.4914
G3 X155.8639 Y-0.8851 I2.1946 J-1.8233
G3 X155.7592 Y-1.5404 I4.7868 J-1.1006
G0 Z3.0
G0 X160.5409 Y0.8272
G0 Z1.0
G1 F300.0 Z-1.0
G3 F800.0 X161.2206 Y1.2644 I-0.1845 J1.0337
G3 X161.1717 Y0.4734 I81.6976 J-5.4522
G3 X161.1478 Y0.0232 I31.6704 J-1.903
G3 X160.5409 Y0.8272 I-2.4365 J-1.2081
G0 Z3.0
G0 X161.1658 Y-3.5586
G0 Z1.0
G1 F300.0 Z-1.0
G3 F800.0 X161.1859 Y-3.8882 I25.044 J1.3644
G3 X161.25 Y-4.5482 I9.1804 J0.5578
G3 X160.4473 Y-4.3115 I-0.6738 J-0.8053
G3 X160.6257 Y-4.1711 I-6.1541 J8.0106
G3 X160.6364 Y-4.1625 I-0.6575 J0.8171
G3 X160.9751 Y-3.8442 I-2.3322 J2.8221
G3 X161.1658 Y-3.5586 I-0.7652 J0.7173
G1 F300.0 X161.4654 Y-3.5423
G3 F800.0 X161.4853 Y-3.869 I24.7445 J1.3481
G3 X161.5946 Y-4.8199 I8.8811 J0.5386
G3 X161.5981 Y-4.8394 I0.7394 J0.1256
G2 X161.606 Y-4.9154 I-0.4106 J-0.0809
G3 X161.6063 Y-4.9304 I0.7499 J0.0087
G2 X161.5736 Y-5.0049 I-0.0943 J-0.003
G3 X161.5526 Y-5.0237 I0.4894 J-0.5683
G2 X161.3892 Y-5.0869 I-0.1611 J0.1735
G3 X161.3544 Y-5.0874 I-0.0073 J-0.75
G2 X161.2504 Y-5.025 I-0.0041 J0.1111
G3 X160.1836 Y-4.7144 I-0.6742 J-0.3285
G2 X159.4178 Y-5.0023 I-1.1263 J1.8338
G3 X159.4135 Y-5.003 I0.1256 J-0.7394
G2 X158.4392 Y-5.0869 I-0.9614 J5.4665
G3 X158.4292 Y-5.087 I-0.0017 J-0.75
G2 X157.2288 Y-4.884 I-0.038 J3.4261
G2 X156.2369 Y-4.253 I1.0064 J2.6771
G3 X156.2304 Y-4.2467 I-0.524 J-0.5366
G2 X155.5702 Y-3.2712 I1.9105 J2.0042
G2 X155.3569 Y-2.0739 I3.0347 J1.1583
G3 Y-2.056 I-0.7499 J0.009
G2 X155.5718 Y-0.5956 I4.6896 J0.0559
G2 X156.2723 Y0.6061 I3.0914 J-0.997
G3 X156.2772 Y0.6115 I-0.5521 J0.5077
G2 X157.319 Y1.3444 I2.1297 J-1.9206
G2 X158.618 Y1.5797 I1.2532 J-3.2152
G3 X158.6372 Y1.5796 I0.0099 J0.7499
G2 X159.4231 Y1.4859 I0.0376 J-3.0258
G2 X159.9158 Y1.2539 I-0.3637 J-1.4117
G3 X161.1059 Y1.8332 I0.4406 J0.6069
G2 X161.1859 Y3.5455 I87.274 J-3.2174
G3 X161.1862 Y3.5503 I-0.7488 J0.0423
G2 X161.3282 Y5.2212 I24.1637 J-1.2121
G3 X161.3303 Y5.2418 I-0.7447 J0.0894
G2 X161.3903 Y5.4006 I0.3173 J-0.0292
G2 X161.4945 Y5.4259 I0.094 J-0.1596
G3 X161.5654 Y5.4254 I0.0411 J0.7489
G2 X161.6837 Y5.3768 I0.0061 J-0.1535
G3 X161.687 Y5.3733 I0.5477 J0.5123
G2 X161.7454 Y5.2209 I-0.1548 J-0.1467
G3 X161.7451 Y5.2069 I0.7497 J-0.0202
G2 X161.6898 Y3.6496 I-28.5752 J0.2367
G3 X161.6896 Y3.6472 I0.7485 J-0.0471
G2 X161.5791 Y2.0674 I-76.4702 J4.5569
G3 X161.5789 Y2.0648 I0.7476 J-0.0601
G3 X161.4712 Y0.4558 I81.3394 J-6.2525
G3 X161.4156 Y-1.1801 I31.3709 J-1.8855
G3 X161.4155 Y-1.1845 I0.75 J-0.006
G3 X161.4407 Y-2.9657 I55.3045 J-0.1097
G3 Y-2.9664 I0.7497 J0.0227
G3 X161.4654 Y-3.5423 I24.7691 J0.7722
G1 F300.0 X161.1658 Y-3.5586
G1 Z-2.0
G3 F800.0 X161.1859 Y-3.8882 I25.044 J1.3644
G3 X161.25 Y-4.5482 I9.1804 J0.5578
G3 X160.4473 Y-4.3115 I-0.6738 J-0.8053
G3 X160.6257 Y-4.1711 I-6.1541 J8.0106
G3 X160.6364 Y-4.1625 I-0.6575 J0.8171
G3 X160.9751 Y-3.8442 I-2.3322 J2.8221
G3 X161.1658 Y-3.5586 I-0.7652 J0.7173
G0 Z3.0
G0 X161.1478 Y0.0232
G0 Z0.0
G1 F300.0 Z-2.0
G3 F800.0 X160.5409 Y0.8272 I-2.4365 J-1.2081
G3 X161.2206 Y1.2644 I-0.1845 J1.0337
G3 X161.1717 Y0.4734 I81.6976 J-5.4522
G3 X161.1478 Y0.0232 I31.6704 J-1.903
G1 F300.0 X161.4475 Y0.0094
G3 F800.0 X161.4156 Y-1.1801 I31.3945 J-1.4391
G3 X161.4155 Y-1.1845 I0.75 J-0.006
G3 X161.4407 Y-2.9657 I55.3045 J-0.1097
G3 Y-2.9664 I0.7497 J0.0227
G3 X161.4853 Y-3.869 I24.7691 J0.7722
G3 X161.5946 Y-4.8199 I8.8811 J0.5386
G3 X161.5981 Y-4.8394 I0.7394 J0.1256
G2 X161.606 Y-4.9154 I-0.4106 J-0.0809
G3 X161.6063 Y-4.9304 I0.7499 J0.0087
G2 X161.5736 Y-5.0049 I-0.0943 J-0.003
G3 X161.5526 Y-5.0237 I0.4894 J-0.5683
G2 X161.3892 Y-5.0869 I-0.1611 J0.1735
G3 X161.3544 Y-5.0874 I-0.0073 J-0.75
G2 X161.2504 Y-5.025 I-0.0041 J0.1111
G3 X160.1836 Y-4.7144 I-0.6742 J-0.3285
G2 X159.4178 Y-5.0023 I-1.1263 J1.8338
G3 X159.4135 Y-5.003 I0.1256 J-0.7394
G2 X158.4392 Y-5.0869 I-0.9614 J5.4665
G3 X158.4292 Y-5.087 I-0.0017 J-0.75
G2 X157.2288 Y-4.884 I-0.038 J3.4261
G2 X156.2369 Y-4.253 I1.0064 J2.6771
G3 X156.2304 Y-4.2467 I-0.524 J-0.5366
G2 X155.5702 Y-3.2712 I1.9105 J2.0042
G2 X155.3569 Y-2.0739 I3.0347 J1.1583
G3 Y-2.056 I-0.7499 J0.009
G2 X155.5718 Y-0.5956 I4.6896 J0.0559
G2 X156.2723 Y0.6061 I3.0914 J-0.997
G3 X156.2772 Y0.6115 I-0.5521 J0.5077
G2 X157.319 Y1.3444 I2.1297 J-1.9206
G2 X158.618 Y1.5797 I1.2532 J-3.2152
G3 X158.6372 Y1.5796 I0.0099 J0.7499
G2 X159.4231 Y1.4859 I0.0376 J-3.0258
G2 X159.9158 Y1.2539 I-0.3637 J-1.4117
G3 X161.1059 Y1.8332 I0.4406 J0.6069
G2 X161.1859 Y3.5455 I87.274 J-3.2174
G3 X161.1862 Y3.5503 I-0.7488 J0.0423
G2 X161.3282 Y5.2212 I24.1637 J-1.2121
G3 X161.3303 Y5.2418 I-0.7447 J0.0894
G2 X161.3903 Y5.4006 I0.3173 J-0.0292
G2 X161.4945 Y5.4259 I0.094 J-0.1596
G3 X161.5654 Y5.4254 I0.0411 J0.7489
G2 X161.6837 Y5.3768 I0.0061 J-0.1535
G3 X161.687 Y5.3733 I0.5477 J0.5123
G2 X161.7454 Y5.2209 I-0.1548 J-0.1467
G3 X161.7451 Y5.2069 I0.7497 J-0.0202
G2 X161.6898 Y3.6496 I-28.5752 J0.2367
G3 X161.6896 Y3.6472 I0.7485 J-0.0471
G2 X161.5791 Y2.0674 I-76.4702 J4.5569
G3 X161.5789 Y2.0648 I0.7476 J-0.0601
G3 X161.4712 Y0.4558 I81.3394 J-6.2525
G3 X161.4475 Y0.0094 I31.3709 J-1.8855
G1 F300.0 X160.9138 Y-0.1871
G3 F800.0 X160.8827 Y-0.1147 I-0.7038 J-0.2592
G3 X159.97 Y0.8828 I-2.1713 J-1.0703
G3 X159.9448 Y0.8975 I-0.39 J-0.6406
G3 X158.6542 Y1.2194 I-1.2418 J-2.2311
G3 X157.5407 Y1.0485 I-0.0405 J-3.4501
G3 X157.5366 Y1.0472 I0.2332 J-0.7128
G3 X156.4647 Y0.3308 I0.7727 J-2.3164
G3 X156.4544 Y0.3186 I0.5666 J-0.4914
G3 X155.8639 Y-0.8851 I2.1946 J-1.8233
G3 X155.7392 Y-2.0364 I4.7868 J-1.1006
G3 X156.5547 Y-3.9308 I2.5638 J-0.0191
G3 X158.4369 Y-4.7046 I1.8734 J1.8809
G3 X158.9563 Y-4.6755 I0.0224 J4.2535
G3 X159.5818 Y-4.5155 I-0.2437 J2.2554
G3 X159.6352 Y-4.4909 I-0.2874 J0.6928
G3 X160.0906 Y-4.2056 I-1.3899 J2.725
G3 X160.4384 Y-3.9383 I-5.7975 J7.9047
G3 X160.446 Y-3.9321 I-0.4702 J0.5843
G3 X160.7571 Y-3.6399 I-2.1419 J2.5918
G3 X160.9599 Y-3.1196 I-0.5472 J0.5129
G2 Y-0.4537 I135.6053 J1.333
G3 X160.9138 Y-0.1871 I-0.75 J0.0074
G0 Z3.0
G0 X164.6368 Y-1.2323
G0 Z1.0
G1 F300.0 Z-1.0
G3 F800.0 X165.6573 Y-2.1231 I0.7221 J-0.2027
G2 X167.3022 Y-1.414 I158.7033 J-365.8641
G3 X167.3073 Y-1.4118 I-0.2954 J0.6894
G3 X168.9771 Y-0.5342 I-5.2775 J12.0686
G3 X168.9424 Y0.7605 I-0.3956 J0.6372
G3 X168.093 Y1.0614 I-1.3478 J-2.4556
G3 X167.3037 Y1.1314 I-0.7668 J-4.1604
G3 X165.6171 Y0.4695 I-0.0351 J-2.3901
G3 X165.6132 Y0.4657 I0.5181 J-0.5422
G3 X164.999 Y-0.3575 I2.2456 J-2.3163
G3 X164.6434 Y-1.2101 I4.5228 J-2.3865
G3 X164.6368 Y-1.2323 I0.7155 J-0.225
G1 F300.0 X164.4671 Y-1.9871
G3 F800.0 X164.9533 Y-2.4023 I0.8917 J0.5521
G3 X164.5068 Y-2.9708 I0.5521 J-0.8931
G2 X164.4532 Y-2.4201 I2.3676 J0.5086
G3 X164.4533 Y-2.3927 I-1.0498 J0.0183
G2 X164.4671 Y-1.9871 I4.7386 J0.0411
G1 F300.0 X164.168 Y-1.964
G2 F800.0 X164.3485 Y-0.9619 I5.0239 J-0.3876
G2 X164.9748 Y0.2795 I3.6853 J-1.0806
G3 X164.98 Y0.2864 I-0.5974 J0.4535
G2 X165.9868 Y1.1283 I2.2489 J-1.6664
G2 X167.288 Y1.4039 I1.2541 J-2.7114
G3 X167.3045 Y1.4038 I0.0118 J0.7499
G2 X168.2568 Y1.3273 I0.0344 J-5.5389
G3 X168.2591 Y1.327 I0.1243 J0.7396
G2 X169.0957 Y1.0657 I-0.5127 J-3.112
G3 X169.1049 Y1.0614 I0.3208 J0.6779
G2 X169.6132 Y0.6482 I-0.5411 J-1.1849
G2 X169.7727 Y0.0773 I-0.8541 J-0.5463
G3 X169.7725 Y0.0618 I0.7498 J-0.0182
G2 X169.6463 Y-0.3265 I-0.6681 J0.0024
G2 X169.2115 Y-0.7412 I-1.3987 J1.0313
G2 X168.4942 Y-1.137 I-3.3575 J5.2364
G3 X168.4856 Y-1.1411 I0.3183 J-0.6791
G2 X167.6709 Y-1.5179 I-11.0082 J22.7305
G3 X167.6704 Y-1.5182 I0.3027 J-0.6862
G1 X165.2021 Y-2.6095
G3 X164.9544 Y-3.8043 I0.3033 J-0.6859
G3 X166.0916 Y-4.5689 I2.1789 J2.0125
G3 X166.0998 Y-4.572 I0.2634 J0.7022
G3 X167.5012 Y-4.8072 I1.3438 J3.7141
G3 X168.5158 Y-4.7004 I0.0239 J4.6482
G3 X168.5161 I-0.1599 J0.7328
G3 X169.538 Y-4.3022 I-0.7512 J3.4382
G3 X169.5464 Y-4.2972 I-0.3779 J0.6479
G2 X169.9189 Y-4.1075 I1.5425 J-2.5679
G3 X169.9333 Y-4.1012 I-0.2929 J0.6904
G2 X170.145 Y-4.0462 I0.2677 J-0.5959
G2 X170.0025 Y-4.3255 I-0.4046 J0.0305
G3 X169.9942 Y-4.3326 I0.4844 J-0.5726
G2 X169.3919 Y-4.7021 I-1.4013 J1.6085
G3 X169.3782 Y-4.7078 I0.2809 J-0.6954
G2 X167.5014 Y-5.0869 I-1.8525 J4.3354
G3 X167.4903 I-0.0039 J-0.75
G2 X166.1855 Y-4.9277 I-0.0484 J5.0275
G2 X165.0801 Y-4.3992 I0.8105 J3.1157
G3 X165.0766 Y-4.3966 I-0.4463 J-0.6027
G2 X164.3784 Y-3.5472 I1.3058 J1.7849
G2 X164.1532 Y-2.4149 I2.496 J1.085
G3 X164.1533 Y-2.3954 I-0.7499 J0.013
G2 X164.168 Y-1.964 I5.0386 J0.0437
G1 F300.0 X164.4671 Y-1.9871
G1 Z-2.0
G3 F800.0 X164.9533 Y-2.4023 I0.8917 J0.5521
G3 X164.5068 Y-2.9708 I0.5521 J-0.8931
G2 X164.4532 Y-2.4201 I2.3676 J0.5086
G3 X164.4533 Y-2.3927 I-1.0498 J0.0183
G2 X164.4671 Y-1.9871 I4.7386 J0.0411
G1 F300.0 X164.168 Y-1.964
G2 F800.0 X164.3485 Y-0.9619 I5.0239 J-0.3876
G2 X164.9748 Y0.2795 I3.6853 J-1.0806
G3 X164.98 Y0.2864 I-0.5974 J0.4535
G2 X165.9868 Y1.1283 I2.2489 J-1.6664
G2 X167.288 Y1.4039 I1.2541 J-2.7114
G3 X167.3045 Y1.4038 I0.0118 J0.7499
G2 X168.2568 Y1.3273 I0.0344 J-5.5389
G3 X168.2591 Y1.327 I0.1243 J0.7396
G2 X169.0957 Y1.0657 I-0.5127 J-3.112
G3 X169.1049 Y1.0614 I0.3208 J0.6779
G2 X169.6132 Y0.6482 I-0.5411 J-1.1849
G2 X169.7727 Y0.0773 I-0.8541 J-0.5463
G3 X169.7725 Y0.0618 I0.7498 J-0.0182
G2 X169.6463 Y-0.3265 I-0.6681 J0.0024
G2 X169.2115 Y-0.7412 I-1.3987 J1.0313
G2 X168.4942 Y-1.137 I-3.3575 J5.2364
G3 X168.4856 Y-1.1411 I0.3183 J-0.6791
G2 X167.6709 Y-1.5179 I-11.0082 J22.7305
G3 X167.6704 Y-1.5182 I0.3027 J-0.6862
G1 X165.2021 Y-2.6095
G3 X164.9544 Y-3.8043 I0.3033 J-0.6859
G3 X166.0916 Y-4.5689 I2.1789 J2.0125
G3 X166.0998 Y-4.572 I0.2634 J0.7022
G3 X167.5012 Y-4.8072 I1.3438 J3.7141
G3 X168.5158 Y-4.7004 I0.0239 J4.6482
G3 X168.5161 I-0.1599 J0.7328
G3 X169.538 Y-4.3022 I-0.7512 J3.4382
G3 X169.5464 Y-4.2972 I-0.3779 J0.6479
G2 X169.9189 Y-4.1075 I1.5425 J-2.5679
G3 X169.9333 Y-4.1012 I-0.2929 J0.6904
G2 X170.145 Y-4.0462 I0.2677 J-0.5959
G2 X170.0025 Y-4.3255 I-0.4046 J0.0305
G3 X169.9942 Y-4.3326 I0.4844 J-0.5726
G2 X169.3919 Y-4.7021 I-1.4013 J1.6085
G3 X169.3782 Y-4.7078 I0.2809 J-0.6954
G2 X167.5014 Y-5.0869 I-1.8525 J4.3354
G3 X167.4903 I-0.0039 J-0.75
G2 X166.1855 Y-4.9277 I-0.0484 J5.0275
G2 X165.0801 Y-4.3992 I0.8105 J3.1157
G3 X165.0766 Y-4.3966 I-0.4463 J-0.6027
G2 X164.3784 Y-3.5472 I1.3058 J1.7849
G2 X164.1532 Y-2.4149 I2.496 J1.085
G3 X164.1533 Y-2.3954 I-0.7499 J0.013
G2 X164.168 Y-1.964 I5.0386 J0.0437
G1 F300.0 X164.6735 Y-1.7395
G3 F800.0 X165.6573 Y-2.1231 I0.6854 J0.3045
G2 X167.3022 Y-1.414 I158.7033 J-365.8641
G3 X167.3073 Y-1.4118 I-0.2954 J0.6894
G3 X168.9771 Y-0.5342 I-5.2775 J12.0686
G3 X168.9424 Y0.7605 I-0.3956 J0.6372
G3 X168.093 Y1.0614 I-1.3478 J-2.4556
G3 X167.3037 Y1.1314 I-0.7668 J-4.1604
G3 X165.6171 Y0.4695 I-0.0351 J-2.3901
G3 X165.6132 Y0.4657 I0.5181 J-0.5422
G3 X164.999 Y-0.3575 I2.2456 J-2.3163
G3 X164.6434 Y-1.2101 I4.5228 J-2.3865
G3 X164.6735 Y-1.7395 I0.7155 J-0.225
G0 Z3.0
G0 X173.1032 Y-0.7737
G0 Z1.0
G1 F300.0 Z-1.0
G1 F800.0 Y-0.2305
G2 X173.1172 Y0.4095 I22.5894 J-0.1729
G3 Y0.4101 I-1.0493 J0.0378
G3 X173.1249 Y0.6639 I-25.606 J0.906
G3 X173.823 Y0.217 I0.8692 J0.589
G3 X173.1032 Y-0.7737 I2.9001 J-2.8637
G0 Z3.0
G0 X177.0285 Y1.1555
G0 Z1.0
G1 F300.0 Z-1.0
G2 F800.0 X177.0891 Y1.1362 I-0.1192 J-0.477
G2 X177.1885 Y1.0002 I-0.1313 J-0.2004
G3 X177.1942 Y0.9807 I1.0113 J0.2825
G2 X177.1946 Y0.9793 I-2.1306 J-0.6397
G3 X177.0285 Y1.1555 I-0.8421 J-0.6273
G1 F300.0 X177.1012 Y1.4466
G2 F800.0 X177.2249 Y1.4046 I-0.1919 J-0.7681
G2 X177.4775 Y1.0809 I-0.2672 J-0.4689
G3 X177.4815 Y1.067 I0.7224 J0.2018
G2 X177.5876 Y0.2874 I-2.4179 J-0.726
G3 X177.5874 Y0.2666 I0.7498 J-0.0159
G2 X177.5808 Y-0.1867 I-10.688 J-0.0698
G2 X177.5403 Y-0.4412 I-1.2284 J0.0647
G3 X177.5349 Y-0.4625 I0.7243 J-0.1946
G2 X177.4808 Y-0.559 I-0.1962 J0.0466
G2 X177.3424 Y-0.5905 I-0.1274 J0.2403
G3 X177.3009 Y-0.5899 I-0.0304 J-0.7494
G2 X177.1629 Y-0.5739 I-0.0079 J0.5351
G2 X177.1387 Y-0.4128 I0.4252 J0.1461
G3 X177.1382 Y-0.3506 I-0.7496 J0.0251
G1 X177.1016 Y0.3891
G3 X176.2472 Y1.0946 I-0.7491 J-0.0371
G3 X174.5322 Y0.4281 I0.5678 J-4.0007
G3 X174.5178 Y0.418 I0.4237 J-0.6189
G3 X173.3177 Y-1.0159 I2.2053 J-3.0648
G3 X173.2441 Y-1.3413 I0.6764 J-0.3239
G1 X173.2515 Y-5.0254
G3 X173.2518 Y-5.046 I0.75 J0.0015
G2 X173.202 Y-5.1661 I-0.1584 J-0.0047
G3 X173.1957 Y-5.172 I0.5138 J-0.5463
G2 X173.0157 Y-5.2411 I-0.1718 J0.1785
G3 X172.9788 Y-5.2408 I-0.025 J-0.7496
G2 X172.8734 Y-5.2239 I-0.0049 J0.3075
G2 X172.8612 Y-5.2145 I0.0156 J0.0328
G3 X172.8576 Y-5.2104 I-0.5736 J-0.4832
G2 X172.8027 Y-5.0524 I0.1746 J0.1493
G3 X172.8032 Y-5.0239 I-0.7495 J0.0284
G1 Y-0.2294
G2 X172.8174 Y0.4203 I22.8894 J-0.174
G3 Y0.4207 I-0.7495 J0.027
G3 X172.8325 Y1.1227 I-25.3062 J0.8954
G3 X172.8321 Y1.1537 I-0.75 J0.0057
G2 X172.8788 Y1.3032 I0.2374 J0.008
G2 X172.9848 Y1.3391 I0.0976 J-0.1138
G3 X173.065 Y1.3388 I0.0425 J0.7488
G2 X173.1833 Y1.3094 I0.0106 J-0.2098
G2 X173.2509 Y1.1528 I-0.2458 J-0.1988
G3 X174.4497 Y0.6571 I0.7433 J0.1002
G2 X176.869 Y1.4697 I2.4006 J-3.1394
G3 X176.8905 Y1.4699 I0.0036 J0.75
G2 X177.1012 Y1.4466 I0.0189 J-0.7915
G1 F300.0 X177.0285 Y1.1555
G1 Z-2.0
G2 F800.0 X177.0891 Y1.1362 I-0.1192 J-0.477
G2 X177.1885 Y1.0002 I-0.1313 J-0.2004
G3 X177.1942 Y0.9807 I1.0113 J0.2825
G2 X177.1946 Y0.9793 I-2.1306 J-0.6397
G3 X177.0285 Y1.1555 I-0.8421 J-0.6273
G0 Z3.0
G0 X173.823 Y0.217
G0 Z0.0
G1 F300.0 Z-2.0
G3 F800.0 X173.1032 Y-0.7737 I2.9001 J-2.8637
G1 Y-0.2305
G2 X173.1172 Y0.4095 I22.5894 J-0.1729
G3 Y0.4101 I-1.0493 J0.0378
G3 X173.1249 Y0.6639 I-25.606 J0.906
G3 X173.823 Y0.217 I0.8692 J0.589
G1 F300.0 X173.8719 Y0.513
G3 F800.0 X174.4497 Y0.6571 I0.1223 J0.74
G2 X176.869 Y1.4697 I2.4006 J-3.1394
G3 X176.8905 Y1.4699 I0.0036 J0.75
G2 X177.2249 Y1.4046 I0.0189 J-0.7915
G2 X177.4775 Y1.0809 I-0.2672 J-0.4689
G3 X177.4815 Y1.067 I0.7224 J0.2018
G2 X177.5876 Y0.2874 I-2.4179 J-0.726
G3 X177.5874 Y0.2666 I0.7498 J-0.0159
G2 X177.5808 Y-0.1867 I-10.688 J-0.0698
G2 X177.5403 Y-0.4412 I-1.2284 J0.0647
G3 X177.5349 Y-0.4625 I0.7243 J-0.1946
G2 X177.4808 Y-0.559 I-0.1962 J0.0466
G2 X177.3424 Y-0.5905 I-0.1274 J0.2403
G3 X177.3009 Y-0.5899 I-0.0304 J-0.7494
G2 X177.1629 Y-0.5739 I-0.0079 J0.5351
G2 X177.1387 Y-0.4128 I0.4252 J0.1461
G3 X177.1382 Y-0.3506 I-0.7496 J0.0251
G1 X177.1016 Y0.3891
G3 X176.2472 Y1.0946 I-0.7491 J-0.0371
G3 X174.5322 Y0.4281 I0.5678 J-4.0007
G3 X174.5178 Y0.418 I0.4237 J-0.6189
G3 X173.3177 Y-1.0159 I2.2053 J-3.0648
G3 X173.2441 Y-1.3413 I0.6764 J-0.3239
G1 X173.2515 Y-5.0254
G3 X173.2518 Y-5.046 I0.75 J0.0015
G2 X173.202 Y-5.1661 I-0.1584 J-0.0047
G3 X173.1957 Y-5.172 I0.5138 J-0.5463
G2 X173.0157 Y-5.2411 I-0.1718 J0.1785
G3 X172.9788 Y-5.2408 I-0.025 J-0.7496
G2 X172.8734 Y-5.2239 I-0.0049 J0.3075
G2 X172.8612 Y-5.2145 I0.0156 J0.0328
G3 X172.8576 Y-5.2104 I-0.5736 J-0.4832
G2 X172.8027 Y-5.0524 I0.1746 J0.1493
G3 X172.8032 Y-5.0239 I-0.7495 J0.0284
G1 Y-0.2294
G2 X172.8174 Y0.4203 I22.8894 J-0.174
G3 Y0.4207 I-0.7495 J0.027
G3 X172.8325 Y1.1227 I-25.3062 J0.8954
G3 X172.8321 Y1.1537 I-0.75 J0.0057
G2 X172.8788 Y1.3032 I0.2374 J0.008
G2 X172.9848 Y1.3391 I0.0976 J-0.1138
G3 X173.065 Y1.3388 I0.0425 J0.7488
G2 X173.1833 Y1.3094 I0.0106 J-0.2098
G2 X173.2509 Y1.1528 I-0.2458 J-0.1988
G3 X173.8719 Y0.513 I0.7433 J0.1002
G0 Z3.0
G0 X54.8939 Y-0.0385
G0 Z1.0
G1 F300.0 Z-1.0
G3 F800.0 X54.5532 Y-0.6641 I5.556 J-3.4314
G3 X54.577 Y0.0891 I-28.8203 J1.2861
G3 X54.8939 Y-0.0385 I0.6586 J1.1784
G1 F300.0 X55.4044 Y-0.3538
G3 F800.0 X55.0236 Y-1.0778 I5.0455 J-3.1162
G3 X54.6074 Y-2.248 I7.5905 J-3.3589
G3 X54.5816 Y-2.4123 I0.7235 J-0.1978
G2 X54.5288 Y-3.0058 I-6.7768 J0.3033
G3 X54.5267 Y-3.0229 I0.7434 J-0.0992
G3 X54.4856 Y-3.7524 I6.8092 J-0.7495
G2 X54.4409 Y-4.3025 I-5.4071 J0.163
G3 X54.4392 Y-4.3164 I0.7435 J-0.0989
G3 X54.3906 Y-5.0119 I7.9023 J-0.9007
G3 X54.3907 Y-5.0545 I0.7498 J-0.0194
G2 X54.3321 Y-5.1968 I-0.1877 J-0.0058
G3 X54.3273 Y-5.2013 I0.5153 J-0.5449
G2 X54.1473 Y-5.2704 I-0.1718 J0.1785
G3 X54.0974 I-0.025 J-0.7496
G2 X53.9183 Y-5.2023 I-0.0082 J0.2476
G2 X53.8613 Y-5.0605 I0.1337 J0.1362
G3 Y-5.0193 I-0.7497 J0.0219
G3 X53.8128 Y-4.3237 I-7.9371 J-0.2043
G1 Y-4.3238
G1 Y-4.3237
G2 X53.7738 Y-3.7745 I6.4119 J0.7308
G2 X53.8733 Y-1.8523 I26.7396 J-0.4205
G3 X53.9787 Y0.1942 I-28.1404 J2.4744
G3 Y0.2174 I-0.7499 J0.0114
G3 X53.948 Y0.9192 I-12.6058 J-0.1991
G2 X53.9274 Y1.5406 I15.0652 J0.81
G3 X53.9272 Y1.5521 I-0.7499 J-0.0094
G2 X53.9753 Y1.665 I0.1471 J0.0041
G3 X53.9817 Y1.6709 I-0.5048 J0.5547
G2 X54.1851 Y1.7483 I0.1966 J-0.2111
G3 X54.2165 Y1.7482 I0.0178 J0.7498
G2 X54.3584 Y1.7255 I0.0074 J-0.4098
G2 X54.4003 Y1.6819 I-0.0376 J-0.078
G2 X54.4787 Y1.3235 I-0.9323 J-0.3917
G3 X54.4814 Y1.2802 I0.7496 J0.0247
G1 X54.4887 Y1.1997
G3 X55.775 Y0.7465 I0.7469 J0.0679
G2 X56.605 Y1.3725 I2.4007 J-2.3194
G2 X57.4948 Y1.5942 I0.8985 J-1.7096
G3 X57.5132 Y1.5946 I-0.0034 J0.75
G2 X58.2605 Y1.4205 I0.0437 J-1.504
G2 X58.7115 Y0.8968 I-0.6015 J-0.974
G2 X58.9445 Y-0.0321 I-3.0549 J-1.2601
G3 X58.9457 Y-0.0426 I0.7462 J0.0752
G2 X59.0047 Y-1.1302 I-8.977 J-1.0323
G3 X59.0046 Y-1.1348 I0.75 J-0.0046
G1 Y-1.6459
G3 X58.9973 Y-2.1257 I28.8385 J-0.6791
G3 X58.9975 Y-2.1496 I0.75 J-0.0052
G3 X59.1637 Y-3.7397 I10.1123 J0.2528
G3 X59.1649 Y-3.7462 I0.7374 J0.1366
G2 X59.3125 Y-5.0866 I-8.0425 J-1.5638
G2 X59.2667 Y-5.1923 I-0.1387 J-0.0027
G3 X59.2616 Y-5.1969 I0.5025 J-0.5567
G2 X59.0653 Y-5.2703 I-0.1885 J0.205
G3 X59.0352 Y-5.2701 I-0.0211 J-0.7497
G2 X58.8677 Y-5.2492 I-0.0074 J0.6214
G3 X58.86 Y-5.2471 I-0.1931 J-0.7247
G2 X58.8395 Y-5.2356 I0.0112 J0.0438
G2 X58.7881 Y-5.0703 I0.3494 J0.1994
G3 X58.784 Y-5.0333 I-0.7473 J-0.0635
G1 X58.5789 Y-3.5171
G3 X58.5784 Y-3.5132 I-0.7432 J-0.1005
G2 X58.4759 Y-2.1053 I10.4196 J1.4664
G2 X58.4964 Y-1.4955 I16.5672 J-0.2537
G3 X58.5268 Y-0.819 I-13.7399 J0.9562
G2 X58.5394 Y-0.6002 I5.2848 J-0.1951
G3 X58.5397 Y-0.5973 I-0.7477 J0.0587
G3 X58.5563 Y-0.2089 I-6.1212 J0.4569
G3 X58.4965 Y0.3379 I-2.1504 J0.0413
G3 X58.4964 Y0.3384 I-0.729 J-0.1763
G3 X58.2624 Y0.8085 I-1.149 J-0.2787
G3 X58.2472 Y0.8265 I-0.5805 J-0.4749
G3 X57.486 Y1.1604 I-0.735 J-0.641
G3 X57.482 Y1.1603 I0.0202 J-0.7497
G3 X56.3276 Y0.7283 I0.0619 J-1.9238
G3 X55.6695 Y0.0393 I2.1841 J-2.7452
G3 X55.4044 Y-0.3538 I4.7805 J-3.5092
G1 F300.0 X54.8939 Y-0.0385
G1 Z-2.0
G3 F800.0 X54.5532 Y-0.6641 I5.556 J-3.4314
G3 X54.577 Y0.0891 I-28.8203 J1.2861
G3 X54.8939 Y-0.0385 I0.6586 J1.1784
G1 F300.0 X55.4044 Y-0.3538
G3 F800.0 X55.0236 Y-1.0778 I5.0455 J-3.1162
G3 X54.6074 Y-2.248 I7.5905 J-3.3589
G3 X54.5816 Y-2.4123 I0.7235 J-0.1978
G2 X54.5288 Y-3.0058 I-6.7768 J0.3033
G3 X54.5267 Y-3.0229 I0.7434 J-0.0992
G3 X54.4856 Y-3.7524 I6.8092 J-0.7495
G2 X54.4409 Y-4.3025 I-5.4071 J0.163
G3 X54.4392 Y-4.3164 I0.7435 J-0.0989
G3 X54.3906 Y-5.0119 I7.9023 J-0.9007
G3 X54.3907 Y-5.0545 I0.7498 J-0.0194
G2 X54.3321 Y-5.1968 I-0.1877 J-0.0058
G3 X54.3273 Y-5.2013 I0.5153 J-0.5449
G2 X54.1473 Y-5.2704 I-0.1718 J0.1785
G3 X54.0974 I-0.025 J-0.7496
G2 X53.9183 Y-5.2023 I-0.0082 J0.2476
G2 X53.8613 Y-5.0605 I0.1337 J0.1362
G3 Y-5.0193 I-0.7497 J0.0219
G3 X53.8128 Y-4.3237 I-7.9371 J-0.2043
G1 Y-4.3238
G1 Y-4.3237
G2 X53.7738 Y-3.7745 I6.4119 J0.7308
G2 X53.8733 Y-1.8523 I26.7396 J-0.4205
G3 X53.9787 Y0.1942 I-28.1404 J2.4744
G3 Y0.2174 I-0.7499 J0.0114
G3 X53.948 Y0.9192 I-12.6058 J-0.1991
G2 X53.9274 Y1.5406 I15.0652 J0.81
G3 X53.9272 Y1.5521 I-0.7499 J-0.0094
G2 X53.9753 Y1.665 I0.1471 J0.0041
G3 X53.9817 Y1.6709 I-0.5048 J0.5547
G2 X54.1851 Y1.7483 I0.1966 J-0.2111
G3 X54.2165 Y1.7482 I0.0178 J0.7498
G2 X54.3584 Y1.7255 I0.0074 J-0.4098
G2 X54.4003 Y1.6819 I-0.0376 J-0.078
G2 X54.4787 Y1.3235 I-0.9323 J-0.3917
G3 X54.4814 Y1.2802 I0.7496 J0.0247
G1 X54.4887 Y1.1997
G3 X55.775 Y0.7465 I0.7469 J0.0679
G2 X56.605 Y1.3725 I2.4007 J-2.3194
G2 X57.4948 Y1.5942 I0.8985 J-1.7096
G3 X57.5132 Y1.5946 I-0.0034 J0.75
G2 X58.2605 Y1.4205 I0.0437 J-1.504
G2 X58.7115 Y0.8968 I-0.6015 J-0.974
G2 X58.9445 Y-0.0321 I-3.0549 J-1.2601
G3 X58.9457 Y-0.0426 I0.7462 J0.0752
G2 X59.0047 Y-1.1302 I-8.977 J-1.0323
G3 X59.0046 Y-1.1348 I0.75 J-0.0046
G1 Y-1.6459
G3 X58.9973 Y-2.1257 I28.8385 J-0.6791
G3 X58.9975 Y-2.1496 I0.75 J-0.0052
G3 X59.1637 Y-3.7397 I10.1123 J0.2528
G3 X59.1649 Y-3.7462 I0.7374 J0.1366
G2 X59.3125 Y-5.0866 I-8.0425 J-1.5638
G2 X59.2667 Y-5.1923 I-0.1387 J-0.0027
G3 X59.2616 Y-5.1969 I0.5025 J-0.5567
G2 X59.0653 Y-5.2703 I-0.1885 J0.205
G3 X59.0352 Y-5.2701 I-0.0211 J-0.7497
G2 X58.8677 Y-5.2492 I-0.0074 J0.6214
G3 X58.86 Y-5.2471 I-0.1931 J-0.7247
G2 X58.8395 Y-5.2356 I0.0112 J0.0438
G2 X58.7881 Y-5.0703 I0.3494 J0.1994
G3 X58.784 Y-5.0333 I-0.7473 J-0.0635
G1 X58.5789 Y-3.5171
G3 X58.5784 Y-3.5132 I-0.7432 J-0.1005
G2 X58.4759 Y-2.1053 I10.4196 J1.4664
G2 X58.4964 Y-1.4955 I16.5672 J-0.2537
G3 X58.5268 Y-0.819 I-13.7399 J0.9562
G2 X58.5394 Y-0.6002 I5.2848 J-0.1951
G3 X58.5397 Y-0.5973 I-0.7477 J0.0587
G3 X58.5563 Y-0.2089 I-6.1212 J0.4569
G3 X58.4965 Y0.3379 I-2.1504 J0.0413
G3 X58.4964 Y0.3384 I-0.729 J-0.1763
G3 X58.2624 Y0.8085 I-1.149 J-0.2787
G3 X58.2472 Y0.8265 I-0.5805 J-0.4749
G3 X57.486 Y1.1604 I-0.735 J-0.641
G3 X57.482 Y1.1603 I0.0202 J-0.7497
G3 X56.3276 Y0.7283 I0.0619 J-1.9238
G3 X55.6695 Y0.0393 I2.1841 J-2.7452
G3 X55.4044 Y-0.3538 I4.7805 J-3.5092
G0 Z3.0
G0 X47.0424 Y-0.0385
G0 Z1.0
G1 F300.0 Z-1.0
G3 F800.0 X46.7017 Y-0.6641 I5.556 J-3.4314
G3 X46.7254 Y0.0891 I-28.8203 J1.2861
G3 X47.0424 Y-0.0385 I0.6586 J1.1784
G1 F300.0 X47.5529 Y-0.3538
G3 F800.0 X47.172 Y-1.0778 I5.0455 J-3.1162
G3 X46.7558 Y-2.248 I7.5905 J-3.3589
G3 X46.73 Y-2.4123 I0.7235 J-0.1978
G2 X46.6772 Y-3.0058 I-6.7768 J0.3033
G3 X46.6752 Y-3.0229 I0.7434 J-0.0992
G3 X46.6341 Y-3.7524 I6.8092 J-0.7495
G2 X46.5893 Y-4.3025 I-5.4071 J0.163
G3 X46.5876 Y-4.3164 I0.7435 J-0.0989
G3 X46.5391 Y-5.0119 I7.9023 J-0.9007
G3 X46.5392 Y-5.0545 I0.7498 J-0.0194
G2 X46.4805 Y-5.1968 I-0.1877 J-0.0058
G3 X46.4758 Y-5.2013 I0.5153 J-0.5449
G2 X46.2957 Y-5.2704 I-0.1718 J0.1785
G3 X46.2458 I-0.025 J-0.7496
G2 X46.0667 Y-5.2023 I-0.0082 J0.2476
G2 X46.0097 Y-5.0605 I0.1337 J0.1362
G3 X46.0098 Y-5.0193 I-0.7497 J0.0219
G3 X45.9612 Y-4.3237 I-7.9371 J-0.2043
G1 Y-4.3238
G1 Y-4.3237
G2 X45.9223 Y-3.7745 I6.4119 J0.7308
G2 X46.0218 Y-1.8523 I26.7396 J-0.4205
G3 X46.1271 Y0.1942 I-28.1404 J2.4744
G3 Y0.2174 I-0.7499 J0.0114
G3 X46.0964 Y0.9192 I-12.6058 J-0.1991
G2 X46.0759 Y1.5406 I15.0652 J0.81
G3 X46.0756 Y1.5521 I-0.7499 J-0.0094
G2 X46.1237 Y1.665 I0.1471 J0.0041
G3 X46.1301 Y1.6709 I-0.5048 J0.5547
G2 X46.3336 Y1.7483 I0.1966 J-0.2111
G3 X46.3649 Y1.7482 I0.0178 J0.7498
G2 X46.5069 Y1.7255 I0.0074 J-0.4098
G2 X46.5487 Y1.6819 I-0.0376 J-0.078
G2 X46.6271 Y1.3235 I-0.9323 J-0.3917
G3 X46.6298 Y1.2802 I0.7496 J0.0247
G1 X46.6371 Y1.1997
G3 X47.9234 Y0.7465 I0.7469 J0.0679
G2 X48.7534 Y1.3725 I2.4007 J-2.3194
G2 X49.6433 Y1.5942 I0.8985 J-1.7096
G3 X49.6617 Y1.5946 I-0.0034 J0.75
G2 X50.409 Y1.4205 I0.0437 J-1.504
G2 X50.8599 Y0.8968 I-0.6015 J-0.974
G2 X51.093 Y-0.0321 I-3.0549 J-1.2601
G3 X51.0941 Y-0.0426 I0.7462 J0.0752
G2 X51.1531 Y-1.1302 I-8.977 J-1.0323
G3 Y-1.1348 I0.75 J-0.0046
G1 Y-1.6459
G3 X51.1458 Y-2.1257 I28.8385 J-0.6791
G3 X51.146 Y-2.1496 I0.75 J-0.0052
G3 X51.3121 Y-3.7397 I10.1123 J0.2528
G3 X51.3133 Y-3.7462 I0.7374 J0.1366
G2 X51.4609 Y-5.0866 I-8.0425 J-1.5638
G2 X51.4152 Y-5.1923 I-0.1387 J-0.0027
G3 X51.4101 Y-5.1969 I0.5025 J-0.5567
G2 X51.2137 Y-5.2703 I-0.1885 J0.205
G3 X51.1836 Y-5.2701 I-0.0211 J-0.7497
G2 X51.0162 Y-5.2492 I-0.0074 J0.6214
G3 X51.0084 Y-5.2471 I-0.1931 J-0.7247
G2 X50.988 Y-5.2356 I0.0112 J0.0438
G2 X50.9365 Y-5.0703 I0.3494 J0.1994
G3 X50.9324 Y-5.0333 I-0.7473 J-0.0635
G1 X50.7274 Y-3.5171
G3 X50.7268 Y-3.5132 I-0.7432 J-0.1005
G2 X50.6243 Y-2.1053 I10.4196 J1.4664
G2 X50.6449 Y-1.4955 I16.5672 J-0.2537
G3 X50.6753 Y-0.819 I-13.7399 J0.9562
G2 X50.6879 Y-0.6002 I5.2848 J-0.1951
G3 X50.6881 Y-0.5973 I-0.7477 J0.0587
G3 X50.7048 Y-0.2089 I-6.1212 J0.4569
G3 X50.6449 Y0.3379 I-2.1504 J0.0413
G3 X50.6448 Y0.3384 I-0.729 J-0.1763
G3 X50.4108 Y0.8085 I-1.149 J-0.2787
G3 X50.3956 Y0.8265 I-0.5805 J-0.4749
G3 X49.6344 Y1.1604 I-0.735 J-0.641
G3 X49.6304 Y1.1603 I0.0202 J-0.7497
G3 X48.476 Y0.7283 I0.0619 J-1.9238
G3 X47.8179 Y0.0393 I2.1841 J-2.7452
G3 X47.5529 Y-0.3538 I4.7805 J-3.5092
G1 F300.0 X47.0424 Y-0.0385
G1 Z-2.0
G3 F800.0 X46.7017 Y-0.6641 I5.556 J-3.4314
G3 X46.7254 Y0.0891 I-28.8203 J1.2861
G3 X47.0424 Y-0.0385 I0.6586 J1.1784
G1 F300.0 X47.5529 Y-0.3538
G3 F800.0 X47.172 Y-1.0778 I5.0455 J-3.1162
G3 X46.7558 Y-2.248 I7.5905 J-3.3589
G3 X46.73 Y-2.4123 I0.7235 J-0.1978
G2 X46.6772 Y-3.0058 I-6.7768 J0.3033
G3 X46.6752 Y-3.0229 I0.7434 J-0.0992
G3 X46.6341 Y-3.7524 I6.8092 J-0.7495
G2 X46.5893 Y-4.3025 I-5.4071 J0.163
G3 X46.5876 Y-4.3164 I0.7435 J-0.0989
G3 X46.5391 Y-5.0119 I7.9023 J-0.9007
G3 X46.5392 Y-5.0545 I0.7498 J-0.0194
G2 X46.4805 Y-5.1968 I-0.1877 J-0.0058
G3 X46.4758 Y-5.2013 I0.5153 J-0.5449
G2 X46.2957 Y-5.2704 I-0.1718 J0.1785
G3 X46.2458 I-0.025 J-0.7496
G2 X46.0667 Y-5.2023 I-0.0082 J0.2476
G2 X46.0097 Y-5.0605 I0.1337 J0.1362
G3 X46.0098 Y-5.0193 I-0.7497 J0.0219
G3 X45.9612 Y-4.3237 I-7.9371 J-0.2043
G1 Y-4.3238
G1 Y-4.3237
G2 X45.9223 Y-3.7745 I6.4119 J0.7308
G2 X46.0218 Y-1.8523 I26.7396 J-0.4205
G3 X46.1271 Y0.1942 I-28.1404 J2.4744
G3 Y0.2174 I-0.7499 J0.0114
G3 X46.0964 Y0.9192 I-12.6058 J-0.1991
G2 X46.0759 Y1.5406 I15.0652 J0.81
G3 X46.0756 Y1.5521 I-0.7499 J-0.0094
G2 X46.1237 Y1.665 I0.1471 J0.0041
G3 X46.1301 Y1.6709 I-0.5048 J0.5547
G2 X46.3336 Y1.7483 I0.1966 J-0.2111
G3 X46.3649 Y1.7482 I0.0178 J0.7498
G2 X46.5069 Y1.7255 I0.0074 J-0.4098
G2 X46.5487 Y1.6819 I-0.0376 J-0.078
G2 X46.6271 Y1.3235 I-0.9323 J-0.3917
G3 X46.6298 Y1.2802 I0.7496 J0.0247
G1 X46.6371 Y1.1997
G3 X47.9234 Y0.7465 I0.7469 J0.0679
G2 X48.7534 Y1.3725 I2.4007 J-2.3194
G2 X49.6433 Y1.5942 I0.8985 J-1.7096
G3 X49.6617 Y1.5946 I-0.0034 J0.75
G2 X50.409 Y1.4205 I0.0437 J-1.504
G2 X50.8599 Y0.8968 I-0.6015 J-0.974
G2 X51.093 Y-0.0321 I-3.0549 J-1.2601
G3 X51.0941 Y-0.0426 I0.7462 J0.0752
G2 X51.1531 Y-1.1302 I-8.977 J-1.0323
G3 Y-1.1348 I0.75 J-0.0046
G1 Y-1.6459
G3 X51.1458 Y-2.1257 I28.8385 J-0.6791
G3 X51.146 Y-2.1496 I0.75 J-0.0052
G3 X51.3121 Y-3.7397 I10.1123 J0.2528
G3 X51.3133 Y-3.7462 I0.7374 J0.1366
G2 X51.4609 Y-5.0866 I-8.0425 J-1.5638
G2 X51.4152 Y-5.1923 I-0.1387 J-0.0027
G3 X51.4101 Y-5.1969 I0.5025 J-0.5567
G2 X51.2137 Y-5.2703 I-0.1885 J0.205
G3 X51.1836 Y-5.2701 I-0.0211 J-0.7497
G2 X51.0162 Y-5.2492 I-0.0074 J0.6214
G3 X51.0084 Y-5.2471 I-0.1931 J-0.7247
G2 X50.988 Y-5.2356 I0.0112 J0.0438
G2 X50.9365 Y-5.0703 I0.3494 J0.1994
G3 X50.9324 Y-5.0333 I-0.7473 J-0.0635
G1 X50.7274 Y-3.5171
G3 X50.7268 Y-3.5132 I-0.7432 J-0.1005
G2 X50.6243 Y-2.1053 I10.4196 J1.4664
G2 X50.6449 Y-1.4955 I16.5672 J-0.2537
G3 X50.6753 Y-0.819 I-13.7399 J0.9562
G2 X50.6879 Y-0.6002 I5.2848 J-0.1951
G3 X50.6881 Y-0.5973 I-0.7477 J0.0587
G3 X50.7048 Y-0.2089 I-6.1212 J0.4569
G3 X50.6449 Y0.3379 I-2.1504 J0.0413
G3 X50.6448 Y0.3384 I-0.729 J-0.1763
G3 X50.4108 Y0.8085 I-1.149 J-0.2787
G3 X50.3956 Y0.8265 I-0.5805 J-0.4749
G3 X49.6344 Y1.1604 I-0.735 J-0.641
G3 X49.6304 Y1.1603 I0.0202 J-0.7497
G3 X48.476 Y0.7283 I0.0619 J-1.9238
G3 X47.8179 Y0.0393 I2.1841 J-2.7452
G3 X47.5529 Y-0.3538 I4.7805 J-3.5092
G0 Z3.0
G0 X42.7484 Y0.5916
G0 Z1.0
G1 F300.0 Z-1.0
G3 F800.0 X42.7308 Y0.545 I0.9736 J-0.3933
G3 X42.7072 Y0.6177 I-1.0084 J-0.2882
G2 X42.7484 Y0.5916 I-1.0796 J-1.7441
G0 Z3.0
G0 X42.7903 Y-3.94
G0 Z1.0
G1 F300.0 Z-1.0
G3 F800.0 X42.8012 Y-3.9664 I0.9756 J0.3883
G3 X43.0125 Y-4.4466 I27.8821 J11.9836
G3 X42.6155 Y-4.2384 I-0.6749 J-0.8044
G3 X42.7903 Y-3.94 I-0.8052 J0.672
G1 F300.0 X43.069 Y-3.8291
G3 F800.0 X43.0768 Y-3.8479 I0.6968 J0.2773
G3 X43.4219 Y-4.6207 I27.6065 J11.8651
G2 X43.5705 Y-4.9535 I-14.5799 J-6.7094
G2 X43.6165 Y-5.0634 I-4.887 J-2.1076
G3 X43.5872 Y-5.0883 I0.4717 J-0.5831
G2 X43.4542 Y-5.1504 I-0.1688 J0.1881
G2 X42.8502 Y-4.7034 I1.6268 J2.8305
G3 X42.0078 Y-4.5774 I-0.5125 J-0.5476
G2 X40.9164 Y-5.0221 I-3.7833 J7.7245
G3 X40.8993 Y-5.0279 I0.2347 J-0.7123
G2 X40.2589 Y-5.153 I-0.7355 J2.063
G2 X39.0684 Y-4.9882 I-0.05 J4.0195
G2 X38.1785 Y-4.4483 I0.5839 J1.9658
G2 X37.6533 Y-3.4475 I1.7606 J1.5623
G3 X37.6522 Y-3.4433 I-0.7283 J-0.1789
G2 X37.4992 Y-2.1405 I4.9147 J1.2376
G3 Y-2.122 I-0.7499 J0.0097
G2 X38.5605 Y0.3346 I3.2837 J0.0388
G3 X38.5818 Y0.3549 I-0.5076 J0.5522
G2 X41.1618 Y1.3966 I2.5259 J-2.5402
G3 X41.163 I0.0113 J0.7499
G2 X41.7981 Y1.3058 I-0.0339 J-2.5055
G3 X41.8016 Y1.3049 I0.2002 J0.7228
G2 X42.4831 Y1.0642 I-1.2831 J-4.7183
G3 X42.5047 Y1.0551 I0.3013 J0.6868
G2 X43.0333 Y0.7583 I-0.8771 J-2.1815
G2 X43.1305 Y0.6595 I-0.3152 J-0.4074
G3 X42.9921 Y0.3709 I0.5914 J-0.4613
G3 X42.8577 Y-0.4608 I5.6942 J-1.347
G3 X42.8569 Y-0.4697 I0.7471 J-0.066
G3 X42.8181 Y-1.5525 I13.3663 J-1.0211
G3 X42.8525 Y-2.605 I14.4192 J-0.055
G3 X43.044 Y-3.7553 I5.3097 J0.2927
G3 X43.069 Y-3.8291 I0.7219 J0.2035
G1 F300.0 X42.5445 Y-3.7196
G3 F800.0 X42.5543 Y-3.4714 I-0.7342 J0.1532
G2 X42.4119 Y-2.1944 I40.0143 J5.1077
G3 X42.4115 Y-2.1904 I-0.7466 J-0.0712
G2 X42.3406 Y-0.9566 I14.2546 J1.4378
G2 X42.3652 Y-0.5081 I4.8518 J-0.0412
G2 X42.4607 Y0.1247 I11.6068 J-1.4274
G3 X42.067 Y0.923 I-0.7383 J0.1321
G3 X41.6815 Y1.0759 I-0.9558 J-1.8476
G3 X41.2944 Y1.1455 I-0.4349 J-1.3066
G3 X41.2671 Y1.146 I-0.0261 J-0.7495
G3 X38.9773 Y0.1248 I0.0052 J-3.0892
G3 X38.2815 Y-0.9164 I2.481 J-2.411
G3 X38.2782 Y-0.9243 I0.6887 J-0.297
G3 X38.0281 Y-2.1883 I2.988 J-1.2481
G3 X38.1072 Y-3.0883 I4.7108 J-0.0395
G3 X38.5047 Y-4.0837 I2.5817 J0.4542
G3 X38.5159 Y-4.1 I0.6249 J0.4147
G3 X39.2951 Y-4.7361 I1.5217 J1.0689
G3 X39.3081 Y-4.7416 I0.2995 J0.6876
G3 X40.1888 Y-4.9097 I0.8481 J2.0524
G3 X41.2948 Y-4.719 I0.0111 J3.2389
G3 X41.3072 Y-4.7145 I-0.2535 J0.7058
G3 X42.2878 Y-4.1448 I-1.2326 J3.2505
G3 X42.5445 Y-3.7196 I-0.4775 J0.5784
G1 F300.0 Z-2.0
G3 F800.0 X42.5543 Y-3.4714 I-0.7342 J0.1532
G2 X42.4119 Y-2.1944 I40.0143 J5.1077
G3 X42.4115 Y-2.1904 I-0.7466 J-0.0712
G2 X42.3406 Y-0.9566 I14.2546 J1.4378
G2 X42.3652 Y-0.5081 I4.8518 J-0.0412
G2 X42.4607 Y0.1247 I11.6068 J-1.4274
G3 X42.067 Y0.923 I-0.7383 J0.1321
G3 X41.6815 Y1.0759 I-0.9558 J-1.8476
G3 X41.2944 Y1.1455 I-0.4349 J-1.3066
G3 X41.2671 Y1.146 I-0.0261 J-0.7495
G3 X38.9773 Y0.1248 I0.0052 J-3.0892
G3 X38.2815 Y-0.9164 I2.481 J-2.411
G3 X38.2782 Y-0.9243 I0.6887 J-0.297
G3 X38.0281 Y-2.1883 I2.988 J-1.2481
G3 X38.1072 Y-3.0883 I4.7108 J-0.0395
G3 X38.5047 Y-4.0837 I2.5817 J0.4542
G3 X38.5159 Y-4.1 I0.6249 J0.4147
G3 X39.2951 Y-4.7361 I1.5217 J1.0689
G3 X39.3081 Y-4.7416 I0.2995 J0.6876
G3 X40.1888 Y-4.9097 I0.8481 J2.0524
G3 X41.2948 Y-4.719 I0.0111 J3.2389
G3 X41.3072 Y-4.7145 I-0.2535 J0.7058
G3 X42.2878 Y-4.1448 I-1.2326 J3.2505
G3 X42.5445 Y-3.7196 I-0.4775 J0.5784
G1 F300.0 X42.7903 Y-3.94
G3 F800.0 X42.8012 Y-3.9664 I0.9756 J0.3883
G3 X43.0125 Y-4.4466 I27.8821 J11.9836
G3 X42.6155 Y-4.2384 I-0.6749 J-0.8044
G3 X42.7903 Y-3.94 I-0.8052 J0.672
G0 Z3.0
G0 X42.7308 Y0.545
G0 Z0.0
G1 F300.0 Z-2.0
G3 F800.0 X42.7072 Y0.6177 I-1.0084 J-0.2882
G2 X42.7484 Y0.5916 I-1.0796 J-1.7441
G3 X42.7308 Y0.545 I0.9736 J-0.3933
G1 F300.0 X43.014 Y0.4459
G3 F800.0 X42.9921 Y0.3709 I0.7079 J-0.2477
G3 X42.8577 Y-0.4608 I5.6942 J-1.347
G3 X42.8569 Y-0.4697 I0.7471 J-0.066
G3 X42.8181 Y-1.5525 I13.3663 J-1.0211
G3 X42.8525 Y-2.605 I14.4192 J-0.055
G3 X43.044 Y-3.7553 I5.3097 J0.2927
G3 X43.0768 Y-3.8479 I0.7219 J0.2035
G3 X43.4219 Y-4.6207 I27.6065 J11.8651
G2 X43.5705 Y-4.9535 I-14.5799 J-6.7094
G2 X43.6165 Y-5.0634 I-4.887 J-2.1076
G3 X43.5872 Y-5.0883 I0.4717 J-0.5831
G2 X43.4542 Y-5.1504 I-0.1688 J0.1881
G2 X42.8502 Y-4.7034 I1.6268 J2.8305
G3 X42.0078 Y-4.5774 I-0.5125 J-0.5476
G2 X40.9164 Y-5.0221 I-3.7833 J7.7245
G3 X40.8993 Y-5.0279 I0.2347 J-0.7123
G2 X40.2589 Y-5.153 I-0.7355 J2.063
G2 X39.0684 Y-4.9882 I-0.05 J4.0195
G2 X38.1785 Y-4.4483 I0.5839 J1.9658
G2 X37.6533 Y-3.4475 I1.7606 J1.5623
G3 X37.6522 Y-3.4433 I-0.7283 J-0.1789
G2 X37.4992 Y-2.1405 I4.9147 J1.2376
G3 Y-2.122 I-0.7499 J0.0097
G2 X38.5605 Y0.3346 I3.2837 J0.0388
G3 X38.5818 Y0.3549 I-0.5076 J0.5522
G2 X41.1618 Y1.3966 I2.5259 J-2.5402
G3 X41.163 I0.0113 J0.7499
G2 X41.7981 Y1.3058 I-0.0339 J-2.5055
G3 X41.8016 Y1.3049 I0.2002 J0.7228
G2 X42.4831 Y1.0642 I-1.2831 J-4.7183
G3 X42.5047 Y1.0551 I0.3013 J0.6868
G2 X43.0333 Y0.7583 I-0.8771 J-2.1815
G2 X43.1305 Y0.6595 I-0.3152 J-0.4074
G3 X43.014 Y0.4459 I0.5914 J-0.4613
G0 Z3.0
G0 X26.7765 Y-0.2492
G0 Z1.0
G1 F300.0 Z-1.0
G3 F800.0 X26.6854 Y-0.3625 I7.4303 J-6.0634
G3 X26.6794 Y-0.2237 I-30.4199 J-1.254
G2 X26.6784 Y-0.2002 I28.2499 J1.2826
G3 X26.7765 Y-0.2492 I0.652 J1.1821
G1 F300.0 X27.2413 Y-0.6286
G3 F800.0 X26.9855 Y-0.9573 I6.9654 J-5.6841
G2 X26.8971 Y-1.0664 I-1.5392 J1.1569
G3 X26.7123 Y-1.5433 I0.5651 J-0.4931
G3 X26.6829 Y-3.8773 I129.4139 J-2.8008
G2 X26.669 Y-4.4033 I-13.7594 J0.0993
G3 X26.6536 Y-4.9431 I14.616 J-0.6874
G3 Y-4.9571 I0.75 J-0.0076
G2 X26.381 Y-5.0361 I-0.2574 J0.3788
G3 X26.3323 Y-5.036 I-0.0248 J-0.7496
G2 X26.2405 Y-5.0179 I-0.0066 J0.2081
G2 X26.2172 Y-4.9831 I0.0612 J0.0661
G3 X26.2167 Y-4.9818 I-0.7033 J-0.2606
G2 X26.1344 Y-4.6092 I1.2893 J0.4804
G3 X26.1332 Y-4.5965 I-0.7477 J-0.0588
G2 X26.1101 Y-4.0832 I5.0675 J0.4858
G3 Y-4.0791 I-0.75 J0.0041
G1 Y-1.3545
G3 Y-1.3477 I-0.75 J0.0
G3 X26.08 Y-0.251 I-29.8446 J-0.2688
G2 X26.0515 Y0.7983 I28.8492 J1.31
G3 X26.0514 Y0.8021 I-0.75 J-0.0068
G2 X26.2247 Y1.6741 I2.1282 J0.0302
G3 X26.2318 Y1.6909 I-0.6889 J0.2966
G2 X26.3505 Y1.8794 I0.5772 J-0.232
G2 X26.525 Y1.7967 I-0.0168 J-0.2607
G3 X26.5758 Y1.747 I0.549 J0.511
G2 X26.6395 Y1.6435 I-0.1398 J-0.1574
G3 X26.5825 Y1.0391 I17.0767 J-1.9147
G3 X27.9052 Y0.5003 I0.7478 J-0.0572
G2 X28.6846 Y1.2293 I3.3769 J-2.8293
G2 X29.0803 Y1.4445 I1.0953 J-1.542
G3 X29.0807 Y1.4447 I-0.2774 J0.6968
G2 X29.4317 Y1.5137 I0.3598 J-0.9022
G3 X29.4416 Y1.5139 I-0.0067 J0.75
G2 X30.0458 Y1.3895 I0.0306 J-1.3816
G2 X30.4355 Y1.0238 I-0.4384 J-0.8575
G3 X31.5801 Y0.8476 I0.6449 J0.383
G2 X32.3243 Y1.2948 I1.5456 J-1.7292
G2 X33.2345 Y1.4478 I0.8872 J-2.4938
G3 X33.2478 I0.0065 J0.75
G2 X33.6834 Y1.3908 I0.0144 J-1.5834
G2 X34.1475 Y1.1062 I-0.2685 J-0.9583
G2 X34.4724 Y0.5478 I-1.2865 J-1.1223
G2 X34.5529 Y0.1662 I-3.2252 J-0.8797
G3 X34.5539 Y0.1597 I0.7416 J0.1117
G2 X34.7596 Y-1.3057 I-39.0009 J-6.2225
G3 X34.7641 Y-1.3371 I0.7445 J0.0903
G2 X35.0458 Y-3.283 I-50.2649 J-8.2702
G3 X35.0461 Y-3.2853 I0.7442 J0.0931
G2 X35.2853 Y-5.2464 I-159.715 J-20.4746
G2 X35.2709 Y-5.2785 I-0.0393 J-0.0016
G3 X35.2525 Y-5.294 I0.475 J-0.5804
G2 X35.0178 Y-5.38 I-0.2292 J0.2624
G3 X34.9683 Y-5.3808 I-0.0117 J-0.7499
G2 X34.8236 Y-5.3458 I-0.0132 J0.2614
G2 X34.7616 Y-5.2025 I0.2135 J0.1775
G3 X34.7579 Y-5.1762 I-0.7443 J-0.0924
G2 X34.4931 Y-3.0942 I31.8642 J5.1098
G3 X34.2479 Y-0.9248 I-51.018 J-4.6677
G3 X34.247 Y-0.9184 I-0.7433 J-0.1001
G3 X34.096 Y-0.1442 I-7.7738 J-1.1149
G3 X33.9448 Y0.3123 I-3.0416 J-0.754
G3 X33.9445 Y0.313 I-0.6918 J-0.2897
G3 X33.7773 Y0.6134 I-1.4384 J-0.6039
G3 X33.0719 Y1.0326 I-0.7989 J-0.541
G3 X32.9236 Y1.0323 I-0.0726 J-0.7465
G3 X32.4966 Y0.9202 I0.1437 J-1.4159
G3 X31.8655 Y0.6047 I2.3765 J-5.5426
G3 X30.8839 Y-0.0429 I3.1072 J-5.7781
G3 X30.6014 Y-0.638 I0.4674 J-0.5865
G3 X30.6702 Y-1.9044 I14.8152 J0.1704
G3 X30.8051 Y-3.1269 I35.3856 J3.2865
G3 X30.8053 Y-3.1282 I0.7439 J0.0952
G2 X30.938 Y-4.3021 I-35.6644 J-4.6253
G3 X30.9384 Y-4.3063 I0.7465 J0.072
G2 X31.0042 Y-5.4444 I-12.8969 J-1.3169
G3 X31.0044 Y-5.4535 I0.7499 J0.0103
G2 X30.9487 Y-5.5893 I-0.1818 J-0.0047
G3 X30.9484 Y-5.5895 I0.5198 J-0.5406
G2 X30.7684 Y-5.6586 I-0.1718 J0.1785
G3 X30.7184 I-0.025 J-0.7496
G2 X30.5384 Y-5.5895 I-0.0082 J0.2476
G3 X30.5382 Y-5.5893 I-0.5201 J-0.5404
G2 X30.4824 Y-5.4535 I0.1261 J0.1311
G3 X30.4826 Y-5.4257 I-0.7497 J0.0194
G3 X30.4185 Y-4.1404 I-16.6588 J-0.1863
G3 X30.2949 Y-2.897 I-41.6047 J-3.5091
G2 X30.1803 Y-1.6917 I42.2382 J4.6238
G3 X30.18 Y-1.6885 I-0.7476 J-0.0603
G2 X30.1239 Y-0.5237 I15.8573 J1.3485
G3 X30.0219 Y0.4052 I-3.6099 J0.0736
G3 X28.9088 Y0.8715 I-0.7287 J-0.1777
G3 X27.8267 Y0.0214 I2.7678 J-4.637
G3 X27.2413 Y-0.6286 I6.3801 J-6.3341
G1 F300.0 X26.7765 Y-0.2492
G1 Z-2.0
G3 F800.0 X26.6854 Y-0.3625 I7.4303 J-6.0634
G3 X26.6794 Y-0.2237 I-30.4199 J-1.254
G2 X26.6784 Y-0.2002 I28.2499 J1.2826
G3 X26.7765 Y-0.2492 I0.652 J1.1821
G1 F300.0 X27.2413 Y-0.6286
G3 F800.0 X26.9855 Y-0.9573 I6.9654 J-5.6841
G2 X26.8971 Y-1.0664 I-1.5392 J1.1569
G3 X26.7123 Y-1.5433 I0.5651 J-0.4931
G3 X26.6829 Y-3.8773 I129.4139 J-2.8008
G2 X26.669 Y-4.4033 I-13.7594 J0.0993
G3 X26.6536 Y-4.9431 I14.616 J-0.6874
G3 Y-4.9571 I0.75 J-0.0076
G2 X26.381 Y-5.0361 I-0.2574 J0.3788
G3 X26.3323 Y-5.036 I-0.0248 J-0.7496
G2 X26.2405 Y-5.0179 I-0.0066 J0.2081
G2 X26.2172 Y-4.9831 I0.0612 J0.0661
G3 X26.2167 Y-4.9818 I-0.7033 J-0.2606
G2 X26.1344 Y-4.6092 I1.2893 J0.4804
G3 X26.1332 Y-4.5965 I-0.7477 J-0.0588
G2 X26.1101 Y-4.0832 I5.0675 J0.4858
G3 Y-4.0791 I-0.75 J0.0041
G1 Y-1.3545
G3 Y-1.3477 I-0.75 J0.0
G3 X26.08 Y-0.251 I-29.8446 J-0.2688
G2 X26.0515 Y0.7983 I28.8492 J1.31
G3 X26.0514 Y0.8021 I-0.75 J-0.0068
G2 X26.2247 Y1.6741 I2.1282 J0.0302
G3 X26.2318 Y1.6909 I-0.6889 J0.2966
G2 X26.3505 Y1.8794 I0.5772 J-0.232
G2 X26.525 Y1.7967 I-0.0168 J-0.2607
G3 X26.5758 Y1.747 I0.549 J0.511
G2 X26.6395 Y1.6435 I-0.1398 J-0.1574
G3 X26.5825 Y1.0391 I17.0767 J-1.9147
G3 X27.9052 Y0.5003 I0.7478 J-0.0572
G2 X28.6846 Y1.2293 I3.3769 J-2.8293
G2 X29.0803 Y1.4445 I1.0953 J-1.542
G3 X29.0807 Y1.4447 I-0.2774 J0.6968
G2 X29.4317 Y1.5137 I0.3598 J-0.9022
G3 X29.4416 Y1.5139 I-0.0067 J0.75
G2 X30.0458 Y1.3895 I0.0306 J-1.3816
G2 X30.4355 Y1.0238 I-0.4384 J-0.8575
G3 X31.5801 Y0.8476 I0.6449 J0.383
G2 X32.3243 Y1.2948 I1.5456 J-1.7292
G2 X33.2345 Y1.4478 I0.8872 J-2.4938
G3 X33.2478 I0.0065 J0.75
G2 X33.6834 Y1.3908 I0.0144 J-1.5834
G2 X34.1475 Y1.1062 I-0.2685 J-0.9583
G2 X34.4724 Y0.5478 I-1.2865 J-1.1223
G2 X34.5529 Y0.1662 I-3.2252 J-0.8797
G3 X34.5539 Y0.1597 I0.7416 J0.1117
G2 X34.7596 Y-1.3057 I-39.0009 J-6.2225
G3 X34.7641 Y-1.3371 I0.7445 J0.0903
G2 X35.0458 Y-3.283 I-50.2649 J-8.2702
G3 X35.0461 Y-3.2853 I0.7442 J0.0931
G2 X35.2853 Y-5.2464 I-159.715 J-20.4746
G2 X35.2709 Y-5.2785 I-0.0393 J-0.0016
G3 X35.2525 Y-5.294 I0.475 J-0.5804
G2 X35.0178 Y-5.38 I-0.2292 J0.2624
G3 X34.9683 Y-5.3808 I-0.0117 J-0.7499
G2 X34.8236 Y-5.3458 I-0.0132 J0.2614
G2 X34.7616 Y-5.2025 I0.2135 J0.1775
G3 X34.7579 Y-5.1762 I-0.7443 J-0.0924
G2 X34.4931 Y-3.0942 I31.8642 J5.1098
G3 X34.2479 Y-0.9248 I-51.018 J-4.6677
G3 X34.247 Y-0.9184 I-0.7433 J-0.1001
G3 X34.096 Y-0.1442 I-7.7738 J-1.1149
G3 X33.9448 Y0.3123 I-3.0416 J-0.754
G3 X33.9445 Y0.313 I-0.6918 J-0.2897
G3 X33.7773 Y0.6134 I-1.4384 J-0.6039
G3 X33.0719 Y1.0326 I-0.7989 J-0.541
G3 X32.9236 Y1.0323 I-0.0726 J-0.7465
G3 X32.4966 Y0.9202 I0.1437 J-1.4159
G3 X31.8655 Y0.6047 I2.3765 J-5.5426
G3 X30.8839 Y-0.0429 I3.1072 J-5.7781
G3 X30.6014 Y-0.638 I0.4674 J-0.5865
G3 X30.6702 Y-1.9044 I14.8152 J0.1704
G3 X30.8051 Y-3.1269 I35.3856 J3.2865
G3 X30.8053 Y-3.1282 I0.7439 J0.0952
G2 X30.938 Y-4.3021 I-35.6644 J-4.6253
G3 X30.9384 Y-4.3063 I0.7465 J0.072
G2 X31.0042 Y-5.4444 I-12.8969 J-1.3169
G3 X31.0044 Y-5.4535 I0.7499 J0.0103
G2 X30.9487 Y-5.5893 I-0.1818 J-0.0047
G3 X30.9484 Y-5.5895 I0.5198 J-0.5406
G2 X30.7684 Y-5.6586 I-0.1718 J0.1785
G3 X30.7184 I-0.025 J-0.7496
G2 X30.5384 Y-5.5895 I-0.0082 J0.2476
G3 X30.5382 Y-5.5893 I-0.5201 J-0.5404
G2 X30.4824 Y-5.4535 I0.1261 J0.1311
G3 X30.4826 Y-5.4257 I-0.7497 J0.0194
G3 X30.4185 Y-4.1404 I-16.6588 J-0.1863
G3 X30.2949 Y-2.897 I-41.6047 J-3.5091
G2 X30.1803 Y-1.6917 I42.2382 J4.6238
G3 X30.18 Y-1.6885 I-0.7476 J-0.0603
G2 X30.1239 Y-0.5237 I15.8573 J1.3485
G3 X30.0219 Y0.4052 I-3.6099 J0.0736
G3 X28.9088 Y0.8715 I-0.7287 J-0.1777
G3 X27.8267 Y0.0214 I2.7678 J-4.637
G3 X27.2413 Y-0.6286 I6.3801 J-6.3341
G0 Z3.0
G0 X21.1593 Y1.3124
G0 Z1.0
G1 F300.0 Z-1.0
G3 F800.0 X21.0853 Y1.2319 I0.9561 J-0.953
G3 X20.9947 Y1.3211 I-0.9913 J-0.9164
G3 X21.07 Y1.4024 I-0.9519 J0.9573
G3 X21.1593 Y1.3124 I1.0015 J0.9052
G1 F300.0 X21.5843 Y0.8888
G3 F800.0 X21.3662 Y0.3259 I0.5312 J-0.5295
G2 X21.4465 Y-1.6026 I-312.5692 J-13.9696
G3 Y-1.6049 I0.7494 J0.0289
G2 X21.4974 Y-3.5162 I-63.8636 J-2.6542
G3 X21.505 Y-3.8892 I19.5144 J0.2119
G3 Y-3.8896 I0.7497 J0.0225
G2 X21.512 Y-4.2876 I-15.3843 J-0.469
G3 Y-4.2884 I0.75 J0.0035
G2 X21.4848 Y-4.7322 I-3.3347 J-0.0186
G3 X21.4821 Y-4.7568 I0.7439 J-0.0956
G2 X21.3403 Y-5.1772 I-0.9679 J0.0921
G2 X21.237 Y-5.2197 I-0.0968 J0.0888
G3 X21.1853 Y-5.2189 I-0.037 J-0.7491
G2 X20.9913 Y-5.1495 I-0.0057 J0.2899
G3 X20.9588 Y-5.1232 I-0.4871 J-0.5703
G2 X20.9318 Y-5.0681 I0.0415 J0.0544
G3 X20.9319 Y-5.0678 I-0.75 J0.0076
G2 X20.9531 Y-4.304 I21.04 J-0.2023
G3 Y-4.3038 I-0.7492 J0.0344
G3 X20.9758 Y-3.4859 I-22.8674 J1.0444
G3 Y-3.4695 I-0.75 J0.0074
G3 X20.9237 Y-1.5506 I-63.367 J-0.7591
G3 X20.8432 Y0.3497 I-284.9661 J-11.1202
G3 X20.1401 Y1.064 I-0.7492 J-0.0342
G2 X18.7981 Y1.1782 I1.7696 J28.7339
G3 X18.7925 Y1.1788 I-0.0811 J-0.7456
G2 X18.6127 Y1.2195 I0.0765 J0.756
G3 X18.5993 Y1.2242 I-0.253 J-0.706
G2 X18.5744 Y1.2398 I0.0201 J0.0595
G2 X18.5511 Y1.3597 I0.2499 J0.1107
G3 X18.5514 Y1.4002 I-0.7496 J0.0251
G2 X18.6122 Y1.5523 I0.2098 J0.0043
G3 X18.6142 Y1.5543 I-0.5324 J0.5283
G2 X18.7694 Y1.6167 I0.1493 J-0.147
G2 X19.9687 Y1.532 I-0.8963 J-21.2114
G3 X20.7922 Y2.3065 I0.074 J0.7463
G3 X20.7549 Y3.0972 I-41.1997 J-1.5471
G3 X20.7543 Y3.106 I-0.7488 J-0.0425
G2 X20.7267 Y3.789 I12.1686 J0.8338
G3 X20.7266 Y3.7964 I-0.7499 J-0.0093
G2 X20.7706 Y3.8962 I0.1286 J0.0029
G3 X20.7813 Y3.9057 I-0.4935 J0.5648
G2 X20.9858 Y3.9821 I0.1981 J-0.2181
G3 X21.0259 Y3.9823 I0.0164 J0.7498
G2 X21.1198 Y3.9562 I0.0052 J-0.1633
G2 X21.1806 Y3.8757 I-0.18 J-0.1991
G2 X21.2987 Y3.4707 I-1.2317 J-0.5789
G3 X21.2998 Y3.4624 I0.7439 J0.0958
G2 X21.3362 Y2.9197 I-3.7281 J-0.5227
G1 X21.3218 Y2.3259
G3 X22.1882 Y1.5667 I0.7498 J-0.0183
G2 X22.821 Y1.6236 I0.7423 J-4.7149
G2 X23.3431 Y1.6081 I0.025 J-7.9715
G3 X23.3594 Y1.6072 I0.0468 J0.7485
G2 X23.7413 Y1.5465 I-0.0671 J-1.6526
G2 X23.7716 Y1.5265 I-0.0282 J-0.0755
G2 X23.7976 Y1.3962 I-0.2631 J-0.1202
G3 X23.7974 Y1.3507 I0.7495 J-0.0261
G2 X23.7416 Y1.2149 I-0.1818 J-0.0047
G3 X23.7414 Y1.2147 I0.5198 J-0.5406
G2 X23.5613 Y1.1456 I-0.1718 J0.1785
G3 X23.539 Y1.146 I-0.025 J-0.7496
G2 X23.2114 Y1.1523 I0.036 J10.3414
G3 X22.8158 Y1.168 I-0.4314 J-5.9032
G3 X22.8021 Y1.1679 I-0.0045 J-0.75
G3 X21.9991 Y1.1003 I0.0689 J-5.6194
G3 X21.5843 Y0.8888 I0.1164 J-0.7409
G1 F300.0 X21.1593 Y1.3124
G1 Z-2.0
G3 F800.0 X21.0853 Y1.2319 I0.9561 J-0.953
G3 X20.9947 Y1.3211 I-0.9913 J-0.9164
G3 X21.07 Y1.4024 I-0.9519 J0.9573
G3 X21.1593 Y1.3124 I1.0015 J0.9052
G1 F300.0 X21.5843 Y0.8888
G3 F800.0 X21.3662 Y0.3259 I0.5312 J-0.5295
G2 X21.4465 Y-1.6026 I-312.5692 J-13.9696
G3 Y-1.6049 I0.7494 J0.0289
G2 X21.4974 Y-3.5162 I-63.8636 J-2.6542
G3 X21.505 Y-3.8892 I19.5144 J0.2119
G3 Y-3.8896 I0.7497 J0.0225
G2 X21.512 Y-4.2876 I-15.3843 J-0.469
G3 Y-4.2884 I0.75 J0.0035
G2 X21.4848 Y-4.7322 I-3.3347 J-0.0186
G3 X21.4821 Y-4.7568 I0.7439 J-0.0956
G2 X21.3403 Y-5.1772 I-0.9679 J0.0921
G2 X21.237 Y-5.2197 I-0.0968 J0.0888
G3 X21.1853 Y-5.2189 I-0.037 J-0.7491
G2 X20.9913 Y-5.1495 I-0.0057 J0.2899
G3 X20.9588 Y-5.1232 I-0.4871 J-0.5703
G2 X20.9318 Y-5.0681 I0.0415 J0.0544
G3 X20.9319 Y-5.0678 I-0.75 J0.0076
G2 X20.9531 Y-4.304 I21.04 J-0.2023
G3 Y-4.3038 I-0.7492 J0.0344
G3 X20.9758 Y-3.4859 I-22.8674 J1.0444
G3 Y-3.4695 I-0.75 J0.0074
G3 X20.9237 Y-1.5506 I-63.367 J-0.7591
G3 X20.8432 Y0.3497 I-284.9661 J-11.1202
G3 X20.1401 Y1.064 I-0.7492 J-0.0342
G2 X18.7981 Y1.1782 I1.7696 J28.7339
G3 X18.7925 Y1.1788 I-0.0811 J-0.7456
G2 X18.6127 Y1.2195 I0.0765 J0.756
G3 X18.5993 Y1.2242 I-0.253 J-0.706
G2 X18.5744 Y1.2398 I0.0201 J0.0595
G2 X18.5511 Y1.3597 I0.2499 J0.1107
G3 X18.5514 Y1.4002 I-0.7496 J0.0251
G2 X18.6122 Y1.5523 I0.2098 J0.0043
G3 X18.6142 Y1.5543 I-0.5324 J0.5283
G2 X18.7694 Y1.6167 I0.1493 J-0.147
G2 X19.9687 Y1.532 I-0.8963 J-21.2114
G3 X20.7922 Y2.3065 I0.074 J0.7463
G3 X20.7549 Y3.0972 I-41.1997 J-1.5471
G3 X20.7543 Y3.106 I-0.7488 J-0.0425
G2 X20.7267 Y3.789 I12.1686 J0.8338
G3 X20.7266 Y3.7964 I-0.7499 J-0.0093
G2 X20.7706 Y3.8962 I0.1286 J0.0029
G3 X20.7813 Y3.9057 I-0.4935 J0.5648
G2 X20.9858 Y3.9821 I0.1981 J-0.2181
G3 X21.0259 Y3.9823 I0.0164 J0.7498
G2 X21.1198 Y3.9562 I0.0052 J-0.1633
G2 X21.1806 Y3.8757 I-0.18 J-0.1991
G2 X21.2987 Y3.4707 I-1.2317 J-0.5789
G3 X21.2998 Y3.4624 I0.7439 J0.0958
G2 X21.3362 Y2.9197 I-3.7281 J-0.5227
G1 X21.3218 Y2.3259
G3 X22.1882 Y1.5667 I0.7498 J-0.0183
G2 X22.821 Y1.6236 I0.7423 J-4.7149
G2 X23.3431 Y1.6081 I0.025 J-7.9715
G3 X23.3594 Y1.6072 I0.0468 J0.7485
G2 X23.7413 Y1.5465 I-0.0671 J-1.6526
G2 X23.7716 Y1.5265 I-0.0282 J-0.0755
G2 X23.7976 Y1.3962 I-0.2631 J-0.1202
G3 X23.7974 Y1.3507 I0.7495 J-0.0261
G2 X23.7416 Y1.2149 I-0.1818 J-0.0047
G3 X23.7414 Y1.2147 I0.5198 J-0.5406
G2 X23.5613 Y1.1456 I-0.1718 J0.1785
G3 X23.539 Y1.146 I-0.025 J-0.7496
G2 X23.2114 Y1.1523 I0.036 J10.3414
G3 X22.8158 Y1.168 I-0.4314 J-5.9032
G3 X22.8021 Y1.1679 I-0.0045 J-0.75
G3 X21.9991 Y1.1003 I0.0689 J-5.6194
G3 X21.5843 Y0.8888 I0.1164 J-0.7409
G0 Z3.0
G0 X15.9457 Y-4.129
G0 Z1.0
G1 F300.0 Z-1.0
G2 F800.0 X15.9459 Y-4.2269 I-199.475 J-0.3495
G3 X15.946 Y-4.243 I1.05 J0.0013
G3 X15.9711 Y-4.7694 I8.4995 J0.1409
G3 X15.9738 Y-4.799 I1.0468 J0.0824
G2 X15.985 Y-4.9195 I-4.2898 J-0.4601
G3 X15.5716 Y-4.5815 I-0.8495 J-0.6171
G3 X15.9457 Y-4.129 I-0.5899 J0.8686
G1 F300.0 X15.6703 Y-4.0101
G3 F800.0 X15.7317 Y-3.712 I-0.6886 J0.2972
G3 X15.7243 Y-2.4235 I-141.9945 J-0.1671
G3 X15.7242 Y-2.4168 I-0.75 J-0.0077
G2 X15.7097 Y-1.1972 I84.6124 J1.6172
G3 Y-1.1947 I-0.75 J-0.0035
G2 X15.8439 Y1.3059 I20.3408 J0.1622
G3 X15.8441 Y1.3075 I-0.745 J0.0862
G2 X15.8837 Y1.4607 I0.5629 J-0.0639
G3 X15.886 Y1.4662 I-0.6927 J0.2875
G2 X15.8976 Y1.4815 I0.0345 J-0.014
G2 X16.073 Y1.514 I0.1631 J-0.3905
G3 X16.1113 Y1.5138 I0.022 J0.7497
G2 X16.3379 Y1.4308 I0.0072 J-0.3312
G3 X16.3524 Y1.4183 I0.4968 J0.5619
G2 X16.3726 Y1.3701 I-0.0368 J-0.0438
G3 X16.3713 Y1.3493 I0.7477 J-0.0585
G1 X16.3062 Y0.06
G3 X16.3061 Y0.0573 I0.749 J-0.0378
G2 X16.2329 Y-1.2156 I-59.7801 J2.798
G3 X16.2312 Y-1.2684 I0.7483 J-0.051
G3 X16.2385 Y-2.7518 I284.0842 J0.6646
G3 X16.2386 Y-2.7526 I0.75 J0.0057
G2 X16.2459 Y-4.2265 I-199.7678 J-1.7259
G3 X16.246 Y-4.238 I0.75 J0.0009
G3 X16.2701 Y-4.7459 I8.1995 J0.1359
G3 X16.2721 Y-4.767 I0.7477 J0.0589
G2 X16.2973 Y-5.1576 I-4.5881 J-0.4921
G3 X16.2974 Y-5.1605 I0.7498 J0.0165
G2 X16.26 Y-5.2444 I-0.1066 J-0.0028
G3 X16.2392 Y-5.2629 I0.4869 J-0.5705
G2 X16.0428 Y-5.3362 I-0.1885 J0.205
G3 X15.9909 Y-5.3366 I-0.0211 J-0.7497
G2 X15.8203 Y-5.2309 I-0.0074 J0.1786
G3 X14.8763 Y-4.8328 I-0.6848 J-0.3058
G2 X13.1959 Y-5.1309 I-1.6717 J4.5394
G3 X13.1891 I-0.0013 J-0.75
G2 X12.4516 Y-5.0531 I-0.0243 J3.3032
G2 X11.8333 Y-4.8076 I0.4512 J2.0379
G2 X11.2353 Y-3.8845 I0.6764 J1.0934
G3 X11.2319 Y-3.8617 I-0.7434 J-0.0993
G2 X10.9564 Y-0.7257 I20.4392 J3.3761
G2 X11.1627 Y1.2952 I11.6634 J-0.1698
G3 X11.1702 Y1.3426 I-0.7367 J0.1409
G2 X11.2298 Y1.4793 I0.262 J-0.0329
G2 X11.3772 Y1.5146 I0.1339 J-0.2337
G3 X11.4312 Y1.5139 I0.0376 J0.7491
G2 X11.6357 Y1.4374 I0.0064 J-0.2946
G3 X11.653 Y1.4222 I0.5042 J0.5553
G2 X11.6905 Y1.3418 I-0.0693 J-0.0812
G2 X11.5917 Y0.4458 I-6.9365 J0.3109
G3 X11.5904 Y0.4379 I0.7386 J-0.1304
G3 X11.4782 Y-0.7002 I8.5859 J-1.4211
G3 X11.4778 Y-0.7209 I0.7496 J-0.0244
G3 X11.546 Y-2.5778 I22.2775 J-0.1114
G3 X11.5463 Y-2.5814 I0.7477 J0.0588
G3 X11.7792 Y-3.9709 I8.488 J0.7086
G3 X12.2005 Y-4.471 I0.7269 J0.1847
G3 X12.6641 Y-4.6352 I1.2645 J2.8337
G3 X12.7006 Y-4.644 I0.1936 J0.7246
G3 X13.1904 Y-4.6973 I0.5032 J2.3504
G3 X13.2048 Y-4.6972 I0.0042 J0.75
G3 X15.1652 Y-4.4401 I-0.1151 J8.4803
G3 X15.6703 Y-4.0101 I-0.1835 J0.7272
G1 F300.0 X15.9457 Y-4.129
G1 Z-2.0
G2 F800.0 X15.9459 Y-4.2269 I-199.475 J-0.3495
G3 X15.946 Y-4.243 I1.05 J0.0013
G3 X15.9711 Y-4.7694 I8.4995 J0.1409
G3 X15.9738 Y-4.799 I1.0468 J0.0824
G2 X15.985 Y-4.9195 I-4.2898 J-0.4601
G3 X15.5716 Y-4.5815 I-0.8495 J-0.6171
G3 X15.9457 Y-4.129 I-0.5899 J0.8686
G1 F300.0 X15.6703 Y-4.0101
G3 F800.0 X15.7317 Y-3.712 I-0.6886 J0.2972
G3 X15.7243 Y-2.4235 I-141.9945 J-0.1671
G3 X15.7242 Y-2.4168 I-0.75 J-0.0077
G2 X15.7097 Y-1.1972 I84.6124 J1.6172
G3 Y-1.1947 I-0.75 J-0.0035
G2 X15.8439 Y1.3059 I20.3408 J0.1622
G3 X15.8441 Y1.3075 I-0.745 J0.0862
G2 X15.8837 Y1.4607 I0.5629 J-0.0639
G3 X15.886 Y1.4662 I-0.6927 J0.2875
G2 X15.8976 Y1.4815 I0.0345 J-0.014
G2 X16.073 Y1.514 I0.1631 J-0.3905
G3 X16.1113 Y1.5138 I0.022 J0.7497
G2 X16.3379 Y1.4308 I0.0072 J-0.3312
G3 X16.3524 Y1.4183 I0.4968 J0.5619
G2 X16.3726 Y1.3701 I-0.0368 J-0.0438
G3 X16.3713 Y1.3493 I0.7477 J-0.0585
G1 X16.3062 Y0.06
G3 X16.3061 Y0.0573 I0.749 J-0.0378
G2 X16.2329 Y-1.2156 I-59.7801 J2.798
G3 X16.2312 Y-1.2684 I0.7483 J-0.051
G3 X16.2385 Y-2.7518 I284.0842 J0.6646
G3 X16.2386 Y-2.7526 I0.75 J0.0057
G2 X16.2459 Y-4.2265 I-199.7678 J-1.7259
G3 X16.246 Y-4.238 I0.75 J0.0009
G3 X16.2701 Y-4.7459 I8.1995 J0.1359
G3 X16.2721 Y-4.767 I0.7477 J0.0589
G2 X16.2973 Y-5.1576 I-4.5881 J-0.4921
G3 X16.2974 Y-5.1605 I0.7498 J0.0165
G2 X16.26 Y-5.2444 I-0.1066 J-0.0028
G3 X16.2392 Y-5.2629 I0.4869 J-0.5705
G2 X16.0428 Y-5.3362 I-0.1885 J0.205
G3 X15.9909 Y-5.3366 I-0.0211 J-0.7497
G2 X15.8203 Y-5.2309 I-0.0074 J0.1786
G3 X14.8763 Y-4.8328 I-0.6848 J-0.3058
G2 X13.1959 Y-5.1309 I-1.6717 J4.5394
G3 X13.1891 I-0.0013 J-0.75
G2 X12.4516 Y-5.0531 I-0.0243 J3.3032
G2 X11.8333 Y-4.8076 I0.4512 J2.0379
G2 X11.2353 Y-3.8845 I0.6764 J1.0934
G3 X11.2319 Y-3.8617 I-0.7434 J-0.0993
G2 X10.9564 Y-0.7257 I20.4392 J3.3761
G2 X11.1627 Y1.2952 I11.6634 J-0.1698
G3 X11.1702 Y1.3426 I-0.7367 J0.1409
G2 X11.2298 Y1.4793 I0.262 J-0.0329
G2 X11.3772 Y1.5146 I0.1339 J-0.2337
G3 X11.4312 Y1.5139 I0.0376 J0.7491
G2 X11.6357 Y1.4374 I0.0064 J-0.2946
G3 X11.653 Y1.4222 I0.5042 J0.5553
G2 X11.6905 Y1.3418 I-0.0693 J-0.0812
G2 X11.5917 Y0.4458 I-6.9365 J0.3109
G3 X11.5904 Y0.4379 I0.7386 J-0.1304
G3 X11.4782 Y-0.7002 I8.5859 J-1.4211
G3 X11.4778 Y-0.7209 I0.7496 J-0.0244
G3 X11.546 Y-2.5778 I22.2775 J-0.1114
G3 X11.5463 Y-2.5814 I0.7477 J0.0588
G3 X11.7792 Y-3.9709 I8.488 J0.7086
G3 X12.2005 Y-4.471 I0.7269 J0.1847
G3 X12.6641 Y-4.6352 I1.2645 J2.8337
G3 X12.7006 Y-4.644 I0.1936 J0.7246
G3 X13.1904 Y-4.6973 I0.5032 J2.3504
G3 X13.2048 Y-4.6972 I0.0042 J0.75
G3 X15.1652 Y-4.4401 I-0.1151 J8.4803
G3 X15.6703 Y-4.0101 I-0.1835 J0.7272
G0 Z3.0
G0 X8.2134 Y-1.559
G0 Z1.0
G1 F300.0 Z-1.0
G2 F800.0 X7.7629 Y-2.5938 I-5.7724 J1.8974
G2 X7.5965 Y-2.8696 I-4.2476 J2.3741
G3 X8.1064 Y-1.7386 I-4.9425 J2.9087
G3 X7.5397 Y-0.4559 I-0.9983 J0.3255
G2 X8.6828 Y-0.427 I1.2178 J-25.604
G3 X8.3752 Y-0.9677 I0.7178 J-0.7663
G2 X8.2134 Y-1.559 I-5.9342 J1.306
G1 F300.0 X8.4984 Y-1.6527
G2 F800.0 X8.0252 Y-2.7393 I-6.0574 J1.9911
G2 X6.9021 Y-4.1207 I-4.5099 J2.5196
G3 X6.8998 Y-4.1227 I0.4917 J-0.5663
G2 X3.8162 Y-5.2555 I-3.0149 J3.4439
G3 X3.794 I-0.0112 J-0.7499
G2 X2.4468 Y-5.0741 I-0.0672 J4.5947
G3 X2.4466 Y-5.074 I-0.2089 J-0.7203
G2 X1.429 Y-4.466 I0.6504 J2.2444
G2 X0.8313 Y-3.3445 I1.9496 J1.759
G3 X0.8303 Y-3.3407 I-0.7276 J-0.1821
G2 X0.6584 Y-1.8989 I5.354 J1.3696
G3 Y-1.8915 I-0.7499 J0.0098
G2 X0.8845 Y-0.0999 I7.3959 J-0.0229
G2 X1.5091 Y1.6349 I9.2352 J-2.3453
G3 X1.5118 Y1.6408 I-0.6778 J0.3212
G2 X2.4508 Y3.2418 I8.7303 J-4.0446
G2 X3.6894 Y4.5774 I6.1702 J-4.4799
G3 X3.693 Y4.5804 I-0.4851 J0.572
G2 X4.5058 Y5.0831 I2.0074 J-2.3375
G2 X5.3742 Y5.2563 I0.8785 J-2.1404
G2 X6.1496 Y5.1211 I-0.1108 J-2.9262
G3 X6.1598 Y5.1179 I0.227 J0.7148
G2 X7.0268 Y4.8036 I-2.4385 J-8.0779
G3 X7.0411 Y4.7977 I0.2938 J0.6901
G2 X7.7862 Y4.4037 I-1.5035 J-3.7447
G2 X8.0069 Y4.2018 I-0.5942 J-0.8714
G3 X8.0144 Y4.1929 I0.5795 J0.4761
G2 X8.0199 Y4.1827 I-0.0214 J-0.0182
G2 X7.9446 Y4.0215 I-0.2542 J0.0207
G3 X7.9276 Y4.0044 I0.5259 J-0.5347
G2 X7.7767 Y3.9303 I-0.176 J0.1678
G2 X7.7632 Y3.935 I0.0334 J0.1164
G3 X7.7568 Y3.9377 I-0.2904 J-0.6915
G2 X7.1253 Y4.2425 I2.1699 J5.3027
G3 X6.3389 Y4.5946 I-2.2315 J-3.9297
G3 X5.3963 Y4.7568 I-0.9806 J-2.8784
G3 X5.3371 Y4.7552 I-0.0094 J-0.7499
G3 X4.41 Y4.4297 I0.1219 J-1.8303
G3 X3.627 Y3.7579 I2.5309 J-3.7421
G3 X3.0194 Y3.0518 I7.1985 J-6.8089
G3 X1.7024 Y0.7582 I6.6611 J-5.3499
G3 X1.7006 Y0.7535 I0.7004 J-0.2683
G3 X1.2239 Y-1.8866 I6.9984 J-2.6267
G3 X1.2898 Y-2.8548 I6.3326 J-0.055
G3 X1.2904 Y-2.8585 I0.7422 J0.1082
G3 X1.4182 Y-3.3978 I3.3065 J0.4988
G3 X1.7394 Y-4.0104 I1.8915 J0.6012
G3 X1.7604 Y-4.0365 I0.5934 J0.4587
G3 X2.3103 Y-4.4688 I1.3317 J1.1278
G3 X2.3166 Y-4.4719 I0.336 J0.6705
G3 X3.1066 Y-4.7139 I1.1546 J2.3589
G3 X3.8012 Y-4.7632 I0.6711 J4.536
G3 X6.2247 Y-3.9763 I0.0585 J3.945
G3 X6.2268 Y-3.9748 I-0.4496 J0.6003
G3 X7.2226 Y-2.9048 I-2.5265 J3.3497
G3 X7.2235 Y-2.9033 I-0.6296 J0.4075
G3 X7.8212 Y-1.6456 I-4.5695 J2.9424
G3 X7.0529 Y-0.6651 I-0.7131 J0.2325
G3 X5.4373 Y-0.9021 I0.8359 J-11.3236
G3 X3.8463 Y-1.4228 I1.8123 J-8.2294
G3 X3.8324 Y-1.4291 I0.3029 J-0.6861
G2 X3.6889 Y-1.4615 I-0.1463 J0.314
G3 X3.6794 Y-1.4616 I0.0061 J-0.75
G2 X3.5095 Y-1.3857 I-0.0046 J0.2178
G3 X3.4853 Y-1.3589 I-0.5689 J-0.4888
G2 X3.4198 Y-1.2018 I0.1741 J0.1648
G2 X3.5061 Y-1.0371 I0.2246 J-0.0126
G3 X3.5258 Y-1.0211 I-0.4612 J0.5914
G2 X3.8738 Y-0.8021 I0.9842 J-1.1776
G3 X3.8744 Y-0.8018 I-0.311 J0.6825
G2 X4.6105 Y-0.5426 I1.8066 J-3.9555
G3 X4.6146 Y-0.5415 I-0.1846 J0.7269
G2 X5.4421 Y-0.3661 I2.3364 J-8.9849
G2 X7.1059 Y-0.1795 I2.7215 J-16.7558
G3 X7.1069 I-0.0467 J0.7485
G2 X8.806 Y-0.127 I1.6505 J-25.8804
G3 X8.8289 Y-0.1266 I0.0014 J0.75
G2 X9.0164 Y-0.1997 I0.0074 J-0.2579
G3 X9.0315 Y-0.2141 I0.5234 J0.5371
G2 X9.0902 Y-0.3516 I-0.1235 J-0.134
G3 X9.0905 Y-0.3918 I0.7499 J-0.0142
G2 X9.0024 Y-0.5578 I-0.1881 J-0.0065
G3 X8.6682 Y-1.0322 I0.3982 J-0.6355
G2 X8.4984 Y-1.6527 I-6.2272 J1.3705
G1 F300.0 X8.2134 Y-1.559
G1 Z-2.0
G2 F800.0 X7.7629 Y-2.5938 I-5.7724 J1.8974
G2 X7.5965 Y-2.8696 I-4.2476 J2.3741
G3 X8.1064 Y-1.7386 I-4.9425 J2.9087
G3 X7.5397 Y-0.4559 I-0.9983 J0.3255
G2 X8.6828 Y-0.427 I1.2178 J-25.604
G3 X8.3752 Y-0.9677 I0.7178 J-0.7663
G2 X8.2134 Y-1.559 I-5.9342 J1.306
G1 F300.0 X8.4984 Y-1.6527
G2 F800.0 X8.0252 Y-2.7393 I-6.0574 J1.9911
G2 X6.9021 Y-4.1207 I-4.5099 J2.5196
G3 X6.8998 Y-4.1227 I0.4917 J-0.5663
G2 X3.8162 Y-5.2555 I-3.0149 J3.4439
G3 X3.794 I-0.0112 J-0.7499
G2 X2.4468 Y-5.0741 I-0.0672 J4.5947
G3 X2.4466 Y-5.074 I-0.2089 J-0.7203
G2 X1.429 Y-4.466 I0.6504 J2.2444
G2 X0.8313 Y-3.3445 I1.9496 J1.759
G3 X0.8303 Y-3.3407 I-0.7276 J-0.1821
G2 X0.6584 Y-1.8989 I5.354 J1.3696
G3 Y-1.8915 I-0.7499 J0.0098
G2 X0.8845 Y-0.0999 I7.3959 J-0.0229
G2 X1.5091 Y1.6349 I9.2352 J-2.3453
G3 X1.5118 Y1.6408 I-0.6778 J0.3212
G2 X2.4508 Y3.2418 I8.7303 J-4.0446
G2 X3.6894 Y4.5774 I6.1702 J-4.4799
G3 X3.693 Y4.5804 I-0.4851 J0.572
G2 X4.5058 Y5.0831 I2.0074 J-2.3375
G2 X5.3742 Y5.2563 I0.8785 J-2.1404
G2 X6.1496 Y5.1211 I-0.1108 J-2.9262
G3 X6.1598 Y5.1179 I0.227 J0.7148
G2 X7.0268 Y4.8036 I-2.4385 J-8.0779
G3 X7.0411 Y4.7977 I0.2938 J0.6901
G2 X7.7862 Y4.4037 I-1.5035 J-3.7447
G2 X8.0069 Y4.2018 I-0.5942 J-0.8714
G3 X8.0144 Y4.1929 I0.5795 J0.4761
G2 X8.0199 Y4.1827 I-0.0214 J-0.0182
G2 X7.9446 Y4.0215 I-0.2542 J0.0207
G3 X7.9276 Y4.0044 I0.5259 J-0.5347
G2 X7.7767 Y3.9303 I-0.176 J0.1678
G2 X7.7632 Y3.935 I0.0334 J0.1164
G3 X7.7568 Y3.9377 I-0.2904 J-0.6915
G2 X7.1253 Y4.2425 I2.1699 J5.3027
G3 X6.3389 Y4.5946 I-2.2315 J-3.9297
G3 X5.3963 Y4.7568 I-0.9806 J-2.8784
G3 X5.3371 Y4.7552 I-0.0094 J-0.7499
G3 X4.41 Y4.4297 I0.1219 J-1.8303
G3 X3.627 Y3.7579 I2.5309 J-3.7421
G3 X3.0194 Y3.0518 I7.1985 J-6.8089
G3 X1.7024 Y0.7582 I6.6611 J-5.3499
G3 X1.7006 Y0.7535 I0.7004 J-0.2683
G3 X1.2239 Y-1.8866 I6.9984 J-2.6267
G3 X1.2898 Y-2.8548 I6.3326 J-0.055
G3 X1.2904 Y-2.8585 I0.7422 J0.1082
G3 X1.4182 Y-3.3978 I3.3065 J0.4988
G3 X1.7394 Y-4.0104 I1.8915 J0.6012
G3 X1.7604 Y-4.0365 I0.5934 J0.4587
G3 X2.3103 Y-4.4688 I1.3317 J1.1278
G3 X2.3166 Y-4.4719 I0.336 J0.6705
G3 X3.1066 Y-4.7139 I1.1546 J2.3589
G3 X3.8012 Y-4.7632 I0.6711 J4.536
G3 X6.2247 Y-3.9763 I0.0585 J3.945
G3 X6.2268 Y-3.9748 I-0.4496 J0.6003
G3 X7.2226 Y-2.9048 I-2.5265 J3.3497
G3 X7.2235 Y-2.9033 I-0.6296 J0.4075
G3 X7.8212 Y-1.6456 I-4.5695 J2.9424
G3 X7.0529 Y-0.6651 I-0.7131 J0.2325
G3 X5.4373 Y-0.9021 I0.8359 J-11.3236
G3 X3.8463 Y-1.4228 I1.8123 J-8.2294
G3 X3.8324 Y-1.4291 I0.3029 J-0.6861
G2 X3.6889 Y-1.4615 I-0.1463 J0.314
G3 X3.6794 Y-1.4616 I0.0061 J-0.75
G2 X3.5095 Y-1.3857 I-0.0046 J0.2178
G3 X3.4853 Y-1.3589 I-0.5689 J-0.4888
G2 X3.4198 Y-1.2018 I0.1741 J0.1648
G2 X3.5061 Y-1.0371 I0.2246 J-0.0126
G3 X3.5258 Y-1.0211 I-0.4612 J0.5914
G2 X3.8738 Y-0.8021 I0.9842 J-1.1776
G3 X3.8744 Y-0.8018 I-0.311 J0.6825
G2 X4.6105 Y-0.5426 I1.8066 J-3.9555
G3 X4.6146 Y-0.5415 I-0.1846 J0.7269
G2 X5.4421 Y-0.3661 I2.3364 J-8.9849
G2 X7.1059 Y-0.1795 I2.7215 J-16.7558
G3 X7.1069 I-0.0467 J0.7485
G2 X8.806 Y-0.127 I1.6505 J-25.8804
G3 X8.8289 Y-0.1266 I0.0014 J0.75
G2 X9.0164 Y-0.1997 I0.0074 J-0.2579
G3 X9.0315 Y-0.2141 I0.5234 J0.5371
G2 X9.0902 Y-0.3516 I-0.1235 J-0.134
G3 X9.0905 Y-0.3918 I0.7499 J-0.0142
G2 X9.0024 Y-0.5578 I-0.1881 J-0.0065
G3 X8.6682 Y-1.0322 I0.3982 J-0.6355
G2 X8.4984 Y-1.6527 I-6.2272 J1.3705
G0 Z3.0
M5
M30
