( Made using CamBam - http://www.cambam.co.uk )
( Bayern-Muenchen 6/22/2019 9:21:49 PM )
( T2 : 2.0 )
( T6 : 6.0 )
G21 G90 G64 G40
G0 Z3.0
( T6 : 6.0 )
T6 M6
( Tasche6 )
G17
M3 S1000
G0 X-94.69043 Y-49.8
G0 Z1.0
G1 F300.0 Z-2.5
G1 F800.0 X-105.60254
G3 X-100.14648 Y-45.55336 I-6.36035 J13.8
G3 X-94.69043 Y-49.8 I11.81641 J9.55336
G0 Z3.0
G0 X-138.12215 Y-14.81088
G0 Z1.0
G1 F300.0 Z-2.5
G3 F800.0 X-140.8007 Y-13.65409 I-4.45597 J-6.63834
G3 X-138.12215 Y-10.25331 I-4.70711 J6.46269
G1 Y-14.81088
G0 Z3.0
G0 Y10.42128
G0 Z1.0
G1 F300.0 Z-2.5
G3 F800.0 X-140.24798 Y13.38079 I-7.38566 J-3.0619
G3 X-138.12215 Y14.86486 I-3.45319 J7.21101
G1 Y10.42128
G0 Z3.0
G0 X-136.91406 Y48.73777
G0 Z1.0
G1 F300.0 Z-2.5
G3 F800.0 X-139.69442 Y49.8 I-6.78711 J-13.59519
G1 X-134.13371
G3 X-136.91406 Y48.73777 I4.00676 J-14.65742
G0 Z3.0
G0 X-101.65731 Y49.8
G0 Z1.0
G1 F300.0 Z-2.5
G1 F800.0 X-85.94035
G3 X-93.79883 Y44.63522 I4.00676 J-14.65742
G3 X-101.65731 Y49.8 I-11.86523 J-9.49265
G0 Z3.0
G0 X-59.73136 Y49.79138
G0 Z1.0
G1 F300.0 Z-2.5
G2 F800.0 X-57.03251 Y48.76266 I-0.28835 J-4.81109
G3 X-59.73136 Y49.79138 I-6.73702 J-13.62008
G0 Z3.0
G0 X-197.17082 Y49.8
G0 Z1.0
G1 F300.0 Z-2.5
G3 F800.0 X-199.80469 Y48.80992 I4.00676 J-14.65742
G3 X-202.43856 Y49.8 I-6.64063 J-13.66734
G1 X-197.17082
G0 Z3.0
G0 X-229.98332
G0 Z1.0
G1 F300.0 Z-2.5
G3 F800.0 X-237.76855 Y44.72605 I4.00676 J-14.65742
G3 X-245.55379 Y49.8 I-11.79199 J-9.58348
G1 X-229.98332
G0 Z3.0
G0 X-273.09855
G0 Z1.0
G1 F300.0 Z-2.5
G3 F800.0 X-281.13099 Y44.4136 I4.00676 J-14.65742
G3 X-290.07368 Y49.07723 I-22.76253 J-32.7422
G3 X-292.12627 Y49.8 I-15.29661 J-40.16489
G1 X-273.09855
G0 Z3.0
G0 X-281.887 Y1.61504
G0 Z1.0
G1 F300.0 Z-2.5
G1 F800.0 Y-1.7061
G1 X-289.79017 Y0.06456
G1 X-281.887 Y1.61504
G0 Z3.0
G0 X-306.6607 Y-0.20892
G0 Z1.0
G1 F300.0 Z-2.5
G3 F800.0 X-306.78151 Y-0.3181 I10.1275 J-11.32819
G2 X-306.77988 Y-0.11258 I39.53073 J-0.2118
G3 X-306.6607 Y-0.20892 I9.61191 J11.76883
G1 F300.0 X-305.06112 Y-1.99814
G3 F800.0 X-308.62378 Y-7.34963 I8.52791 J-9.53897
G2 X-309.17854 Y0.01528 I41.373 J6.81973
G3 X-309.17809 Y0.05381 I-12.79412 J0.16636
G2 X-308.78302 Y5.58315 I45.21358 J-0.45172
G3 X-308.76341 Y5.73729 I-12.68276 J1.69252
G2 X-308.70923 Y6.13208 I12.46884 J-1.51009
G3 X-302.2461 Y-0.0881 I11.54126 J5.52417
G3 X-305.06112 Y-1.99814 I5.7129 J-11.44901
G1 F300.0 X-303.46153 Y-3.78737
G3 F800.0 X-306.4714 Y-8.48877 I6.92833 J-7.74974
G2 X-307.90937 Y-12.17137 I-25.33902 J7.77224
G3 X-307.96153 Y-12.28186 I9.37421 J-4.49269
G2 X-308.25404 Y-12.75021 I-2.03857 J0.94771
G2 X-308.37017 Y-12.75938 I-0.28588 J2.87909
G2 X-309.2403 Y-12.61797 I0.19062 J3.92058
G2 X-310.72591 Y-9.2045 I6.63431 J4.9174
G3 X-310.74772 Y-9.09033 I-10.22136 J-1.89315
G2 X-311.57833 Y0.04648 I43.49693 J8.56043
G3 X-311.57798 Y0.07779 I-10.39432 J0.13516
G2 X-311.16193 Y5.90062 I47.61346 J-0.4757
G3 X-311.146 Y6.02585 I-10.30385 J1.37506
G2 X-310.11067 Y9.9644 I14.85143 J-1.79865
G2 X-309.12379 Y11.61388 I8.5158 J-3.97501
G3 X-309.07666 Y11.67747 I-8.32793 J6.22139
G3 X-309.01117 Y11.71544 I-5.18115 J9.01198
G2 X-308.37411 Y11.90413 I0.70221 J-1.20107
G2 X-307.9295 Y11.87076 I-0.16357 J-5.15812
G2 X-307.44528 Y10.09516 I-7.41096 J-2.97484
G3 X-295.16673 Y1.4555 I10.27731 J1.56109
G1 X-279.487 Y4.53164
G1 Y-4.7033
G1 X-294.26056 Y-1.39338
G3 X-303.46153 Y-3.78737 I-2.27264 J-10.14373
G1 F300.0 X-301.86195 Y-5.5766
G3 F800.0 X-304.17691 Y-9.19255 I5.32875 J-5.96051
G2 X-305.74509 Y-13.20862 I-27.63351 J8.47602
G3 X-305.78521 Y-13.29361 I7.20993 J-3.45544
G2 X-307.06721 Y-14.94011 I-4.2149 J1.95945
G2 X-307.14539 Y-14.97738 I-0.14067 J0.19444
G3 X-307.15519 Y-14.98003 I2.08177 J-7.71942
G2 X-308.3621 Y-15.16138 I-1.38473 J5.10892
G2 X-310.2712 Y-14.80817 I0.18254 J6.32257
G2 X-310.88345 Y-14.41451 I0.61998 J1.63721
G2 X-313.08577 Y-9.64159 I8.27747 J6.71394
G3 X-313.10254 Y-9.55377 I-7.86149 J-1.45607
G2 X-313.97813 Y0.07769 I45.85176 J9.02387
G3 X-313.97786 Y0.10177 I-7.99452 J0.10395
G2 X-313.54085 Y6.21808 I50.01334 J-0.49967
G3 X-313.52859 Y6.3144 I-7.92494 J1.05759
G2 X-312.30763 Y10.93165 I17.23402 J-2.0872
G2 X-311.0465 Y13.05025 I10.71277 J-4.94226
G3 X-311.00889 Y13.10102 I-6.40521 J4.78502
G2 X-310.27487 Y13.75697 I1.92253 J-1.4127
G3 X-310.22249 Y13.78732 I-3.98295 J6.93249
G2 X-308.37777 Y14.30503 I1.91353 J-3.27296
G2 X-306.74483 Y14.09108 I-0.15991 J-7.55902
G3 X-306.69777 Y14.07974 I1.89587 J7.76717
G2 X-306.50796 Y13.98983 I-0.11701 J-0.49231
G3 X-306.4949 Y13.97988 I4.8478 J6.35783
G2 X-305.84515 Y13.11679 I-1.1982 J-1.57813
G3 X-305.76223 Y12.91102 I7.45648 J2.88517
G2 X-305.0725 Y10.45558 I-9.57823 J-4.01511
G3 X-295.62877 Y3.81061 I7.90453 J1.20067
G1 X-277.70885 Y7.32623
G3 X-277.087 Y7.47427 I-1.5392 J7.84564
G1 Y-7.7005
G1 X-294.78526 Y-3.73532
G3 X-301.86195 Y-5.5766 I-1.74794 J-7.80179
G1 F300.0 X-300.26237 Y-7.36582
G3 F800.0 X-301.88242 Y-9.89634 I3.72916 J-4.17128
G2 X-303.58081 Y-14.24588 I-29.92799 J9.17981
G3 X-303.60889 Y-14.30535 I5.04566 J-2.41819
G2 X-305.5814 Y-16.82512 I-6.39122 J2.9712
G2 X-306.52048 Y-17.2946 I-1.62648 J2.07945
G3 X-306.52734 Y-17.29645 I1.45686 J-5.4022
G2 X-308.35739 Y-17.5622 I-2.01258 J7.42534
G2 X-311.0893 Y-17.06454 I0.17784 J8.72339
G2 X-312.67842 Y-16.01068 I1.43808 J3.89357
G2 X-315.44564 Y-10.07867 I10.07243 J8.31012
G3 X-315.45737 Y-10.01722 I-5.50163 J-1.01899
G2 X-316.37793 Y0.10889 I48.20659 J9.48732
G3 X-316.37774 Y0.12574 I-5.59473 J0.07275
G2 X-315.91976 Y6.53555 I52.41322 J-0.52365
G3 X-315.91118 Y6.60296 I-5.54603 J0.74012
G2 X-314.50505 Y11.89753 I19.61661 J-2.37576
G2 X-312.96922 Y14.48662 I12.91019 J-5.90813
G3 X-312.9429 Y14.52215 I-4.4825 J3.34865
G2 X-311.47047 Y15.83796 I3.85654 J-2.83383
G3 X-311.43381 Y15.85921 I-2.78734 J4.85149
G2 X-308.37164 Y16.70533 I3.12485 J-5.34484
G2 X-306.17573 Y16.42263 I-0.16604 J-9.95933
G3 X-306.1428 Y16.41469 I1.32677 J5.43562
G2 X-305.05275 Y15.89832 I-0.67199 J-2.82726
G3 X-305.0436 Y15.89136 I3.39259 J4.44934
G2 X-303.60686 Y13.98286 I-2.64949 J-3.48961
G3 X-303.54884 Y13.83886 I5.21819 J2.0191
G2 X-302.69972 Y10.816 I-11.79163 J-4.94294
G3 X-296.09081 Y6.16571 I5.53175 J0.84025
G1 X-278.17088 Y9.68134
G3 X-274.687 Y11.93103 I-1.07716 J5.49054
G1 Y-11.60341
G3 X-277.43886 Y-10.08117 I-3.97511 J-3.93761
G1 X-295.30996 Y-6.07726
G3 X-300.26237 Y-7.36582 I-1.22324 J-5.45985
G0 Z3.0
G0 X-274.687 Y-21.63353
G0 Z1.0
G1 F300.0 Z-2.5
G1 F800.0 Y-36.0
G3 X-269.0918 Y-41.5952 I5.5952 J0.0
G1 X-249.56055
G3 X-243.96535 Y-36.0 I0.0 J5.5952
G1 Y-11.61473
G1 X-231.57176
G1 Y-36.0
G3 X-225.97656 Y-41.5952 I5.5952 J0.0
G1 X-206.44531
G3 X-200.85011 Y-36.0 I0.0 J5.5952
G1 Y35.14258
G3 X-206.44531 Y40.73778 I-5.5952 J0.0
G1 X-225.97656
G3 X-231.57176 Y35.14258 I0.0 J-5.5952
G1 Y14.12645
G1 X-243.96535
G1 Y35.14258
G3 X-249.56055 Y40.73778 I-5.5952 J0.0
G1 X-269.0918
G3 X-274.687 Y35.14258 I0.0 J-5.5952
G1 Y19.96569
G3 X-276.83729 Y25.25431 I-32.31191 J-10.05619
G3 X-283.25294 Y33.82248 I-26.58245 J-13.21832
G3 X-293.44537 Y40.08865 I-20.64058 J-22.15108
G3 X-300.41762 Y41.92198 I-11.92491 J-31.1763
G3 X-307.24962 Y42.44671 I-6.96643 J-45.96455
G3 X-321.62895 Y40.22689 I-0.28943 J-45.80751
G3 X-334.91613 Y32.77757 I11.40519 J-35.91785
G3 X-334.97906 Y32.72216 I3.66613 J-4.22679
G3 X-344.57436 Y19.11807 I24.646 J-27.56938
G3 X-347.23683 Y10.03588 I38.90264 J-16.33578
G1 Y35.14258
G3 X-352.83203 Y40.73778 I-5.5952 J0.0
G1 X-370.99609
G3 X-376.59129 Y35.14258 I0.0 J-5.5952
G1 Y11.67602
G1 X-389.73337 Y37.66731
G3 X-394.72656 Y40.73778 I-4.9932 J-2.52473
G1 X-419.18945
G3 X-424.78465 Y35.14258 I0.0 J-5.5952
G1 Y-36.0
G3 X-419.18945 Y-41.5952 I5.5952 J0.0
G1 X-401.02539
G3 X-395.43019 Y-36.0 I0.0 J5.5952
G1 Y-12.74896
G1 X-382.38489 Y-38.52647
G3 X-377.39258 Y-41.5952 I4.99231 J2.52647
G1 X-352.83203
G3 X-347.23683 Y-36.0 I0.0 J5.5952
G1 Y-11.20868
G3 X-344.80994 Y-19.92405 I44.00568 J7.55827
G3 X-344.785 Y-19.98667 I5.21033 J2.03929
G3 X-340.96732 Y-27.20629 I37.42023 J15.16834
G3 X-340.96436 Y-27.21073 I4.65637 J3.10234
G3 X-335.40414 Y-33.59238 I27.56325 J18.40227
G3 X-335.40301 Y-33.59338 I3.71469 J4.18418
G3 X-322.09565 Y-41.13998 I24.36691 J27.46147
G3 X-322.0569 Y-41.15207 I1.68549 J5.33529
G3 X-307.2758 Y-43.30448 I14.31739 J46.49208
G3 X-295.97086 Y-41.94765 I0.42535 J44.23036
G3 X-284.90378 Y-36.47893 I-7.22136 J28.54649
G3 X-284.82927 Y-36.41883 I-3.47512 J4.38518
G3 X-277.26533 Y-27.29423 I-19.76237 J24.07964
G3 X-277.26177 Y-27.28772 I-4.90824 J2.68616
G3 X-274.687 Y-21.63353 I-37.8506 J20.64957
G1 F300.0 X-272.2918
G1 F800.0 Y-36.0
G3 X-269.0918 Y-39.2 I3.2 J0.0
G1 X-249.56055
G3 X-246.36055 Y-36.0 I0.0 J3.2
G1 Y-9.21953
G1 X-229.17656
G1 Y-36.0
G3 X-225.97656 Y-39.2 I3.2 J0.0
G1 X-206.44531
G3 X-203.24531 Y-36.0 I0.0 J3.2
G1 Y35.14258
G3 X-206.44531 Y38.34258 I-3.2 J0.0
G1 X-225.97656
G3 X-229.17656 Y35.14258 I0.0 J-3.2
G1 Y11.73125
G1 X-246.36055
G1 Y35.14258
G3 X-249.56055 Y38.34258 I-3.2 J0.0
G1 X-269.0918
G3 X-272.2918 Y35.14258 I0.0 J-3.2
G1 Y-21.63353
G0 Z3.0
G0 X-276.67909 Y-20.09714
G0 Z1.0
G1 F300.0 Z-2.5
G3 F800.0 X-275.55349 Y-16.30029 I-38.43329 J13.45899
G3 X-277.96251 Y-12.41843 I-3.10862 J0.75927
G1 X-295.83361 Y-8.41452
G3 X-299.59252 Y-10.59872 I-0.6996 J-3.12259
G2 X-301.42086 Y-15.28106 I-32.2179 J9.88219
G3 X-301.43692 Y-15.31507 I2.88571 J-1.38301
G2 X-304.09154 Y-18.70062 I-8.56319 J3.98092
G2 X-305.89683 Y-19.60718 I-3.11633 J3.95494
G3 X-305.90075 Y-19.60824 I0.83321 J-3.08962
G2 X-308.35376 Y-19.95785 I-2.63917 J9.73713
G2 X-311.90282 Y-19.31739 I0.17421 J11.11904
G2 X-314.48083 Y-17.58946 I2.25161 J6.14643
G2 X-317.80078 Y-10.51488 I11.87484 J9.8889
G3 X-317.80749 Y-10.47973 I-3.14649 J-0.58278
G2 X-318.77293 Y0.14003 I50.55671 J9.94983
G3 X-318.77282 Y0.14967 I-3.19973 J0.04161
G2 X-318.29391 Y6.85238 I54.8083 J-0.54758
G3 X-318.289 Y6.89093 I-3.17188 J0.42329
G2 X-316.69836 Y12.86062 I21.99443 J-2.66373
G2 X-314.88809 Y15.92012 I15.10349 J-6.87123
G3 X-314.87304 Y15.94044 I-2.56362 J1.91516
G2 X-312.66368 Y17.91479 I5.78668 J-4.25211
G3 X-312.64271 Y17.92694 I-1.59413 J2.77466
G2 X-308.3629 Y19.10068 I4.33375 J-7.41258
G2 X-305.60777 Y18.74951 I-0.17478 J-12.35467
G3 X-305.58893 Y18.74498 I0.7588 J3.10873
G2 X-303.60044 Y17.803 I-1.22585 J-5.15754
G3 X-303.59521 Y17.79902 I1.94029 J2.54466
G2 X-301.37305 Y14.84719 I-4.09788 J-5.39726
G3 X-301.33987 Y14.76484 I2.98438 J1.15476
G2 X-300.33168 Y11.17569 I-14.0006 J-5.86892
G3 X-296.55192 Y8.51611 I3.16371 J0.48056
G1 X-278.632 Y12.03173
G3 X-276.10408 Y15.76806 I-0.61605 J3.14014
G3 X-278.97709 Y24.17804 I-30.89483 J-5.85857
G3 X-284.88291 Y32.06742 I-24.44265 J-12.14205
G3 X-294.2865 Y37.84594 I-19.01062 J-20.39603
G3 X-300.77476 Y39.55356 I-11.08378 J-28.93359
G3 X-307.26065 Y40.05153 I-6.60929 J-43.59613
G3 X-320.89816 Y37.94589 I-0.2784 J-43.41233
G3 X-333.34673 Y30.96816 I10.6744 J-33.63685
G3 X-333.38272 Y30.93647 I2.09673 J-2.41738
G3 X-342.36117 Y18.20213 I23.04966 J-25.78369
G3 X-344.9945 Y8.91469 I36.68945 J-15.41984
G3 X-345.7293 Y-0.45381 I59.02126 J-9.34227
G3 X-345.04019 Y-9.77224 I63.33777 J-0.00082
G3 X-342.5795 Y-19.05107 I41.80904 J6.12183
G3 X-342.56523 Y-19.08688 I2.97989 J1.16631
G3 X-338.97402 Y-25.87823 I35.20046 J14.26856
G3 X-338.97232 Y-25.88078 I2.66306 J1.77429
G3 X-333.81395 Y-31.80121 I25.57121 J17.07231
G3 X-333.81331 Y-31.80179 I2.1245 J2.39301
G3 X-321.37412 Y-38.85604 I22.7772 J25.66987
G3 X-321.35196 Y-38.86296 I0.96397 J3.05136
G3 X-307.27567 Y-40.90916 I13.61245 J44.20297
G3 X-296.55912 Y-39.62581 I0.42522 J41.83505
G3 X-286.39142 Y-34.60172 I-6.6331 J26.22465
G3 X-286.3488 Y-34.56735 I-1.98749 J2.50797
G3 X-279.36645 Y-26.14433 I-18.24283 J22.22815
G3 X-279.36442 Y-26.14061 I-2.80711 J1.53627
G3 X-276.67909 Y-20.09714 I-35.74796 J19.50246
G0 Z3.0
G0 X-349.63203
G0 Z1.0
G1 F300.0 Z-2.5
G1 F800.0 Y35.14258
G3 X-352.83203 Y38.34258 I-3.2 J0.0
G1 X-370.99609
G3 X-374.19609 Y35.14258 I0.0 J-3.2
G1 Y1.6287
G3 X-374.3394 Y1.91426 I-93.36575 J-46.67507
G3 X-374.34156 Y1.91855 I-2.85787 J-1.43965
G1 X-391.87086 Y36.58652
G3 X-394.72656 Y38.34258 I-2.8557 J-1.44394
G1 X-419.18945
G3 X-422.38945 Y35.14258 I0.0 J-3.2
G1 Y-36.0
G3 X-419.18945 Y-39.2 I3.2 J0.0
G1 X-401.02539
G3 X-397.82539 Y-36.0 I0.0 J3.2
G1 Y-2.71157
G1 X-380.24778 Y-37.44494
G3 X-377.39258 Y-39.2 I2.8552 J1.44494
G1 X-352.83203
G3 X-349.63203 Y-36.0 I0.0 J3.2
G1 Y-20.09714
G0 Z3.0
G0 X-338.57625 Y-46.31328
G0 Z1.0
G1 F300.0 Z-2.5
G3 F800.0 X-336.91943 Y-47.4 I27.54014 J40.18137
G1 X-339.42938
G3 X-338.57625 Y-46.31328 I-13.40265 J11.4
G1 F300.0 X-340.52075 Y-44.90654
G3 F800.0 X-339.26671 Y-42.84662 I-12.31128 J8.90654
G3 X-326.46449 Y-49.8 I28.2306 J36.71471
G1 X-346.47168
G3 X-340.52075 Y-44.90654 I-6.36035 J13.8
G0 Z3.0
G0 X-383.75293 Y-49.8
G0 Z1.0
G1 F300.0 Z-2.5
G1 F800.0 X-394.66504
G3 X-389.20898 Y-45.55336 I-6.36035 J13.8
G3 X-383.75293 Y-49.8 I11.81641 J9.55336
G0 Z3.0
G0 X-382.86133 Y44.63522
G0 Z1.0
G1 F300.0 Z-2.5
G3 F800.0 X-390.71981 Y49.8 I-11.86523 J-9.49265
G1 X-375.00285
G3 X-382.86133 Y44.63522 I4.00676 J-14.65742
G0 Z3.0
G0 X-423.19621 Y49.8
G0 Z1.0
G1 F300.0 Z-2.5
G3 F800.0 X-424.8 Y49.26405 I4.00676 J-14.65742
G1 Y49.8
G1 X-423.19621
G0 Z3.0
G0 X-340.20877 Y47.4
G0 Z1.0
G1 F300.0 Z-2.5
G1 F800.0 X-334.95801
G3 X-338.41158 Y45.22433 I24.73425 J-43.09097
G3 X-340.20877 Y47.4 I-14.42045 J-10.08175
G1 F300.0 X-341.9306 Y45.72808
G3 F800.0 X-348.82528 Y49.8 I-10.90144 J-10.5855
G1 X-323.16029
G3 X-324.55828 Y49.36907 I15.62124 J-53.1608
G3 X-339.13647 Y41.72481 I14.33452 J-45.06004
G3 X-341.9306 Y45.72808 I-13.69556 J-6.58224
G1 F300.0 X-343.65242 Y44.05615
G3 F800.0 X-352.83203 Y47.93778 I-9.17961 J-8.91358
G1 X-370.99609
G3 X-382.83852 Y39.98759 I0.0 J-12.7952
G1 X-383.30804 Y40.91617
G3 X-394.72656 Y47.93778 I-11.41853 J-5.77359
G1 X-419.18945
G3 X-425.84988 Y46.06759 I0.0 J-12.7952
G3 X-427.2 Y46.78485 I-6.66965 J-10.92501
G1 Y52.2
G1 X-60.00788
G2 X-52.8 Y44.99212 I-0.01184 J-7.21971
G1 Y41.72942
G3 X-63.76953 Y47.93778 I-10.96953 J-6.58685
G1 X-81.93359
G3 X-93.77602 Y39.98759 I0.0 J-12.7952
G1 X-94.24554 Y40.91617
G3 X-105.66406 Y47.93778 I-11.41853 J-5.77359
G1 X-130.12695
G3 X-136.91406 Y45.98934 I0.0 J-12.7952
G3 X-143.70117 Y47.93778 I-6.78711 J-10.84676
G1 X-193.16406
G3 X-199.80469 Y46.07964 I0.0 J-12.7952
G3 X-206.44531 Y47.93778 I-6.64063 J-10.93706
G1 X-225.97656
G3 X-237.76855 Y40.10907 I0.0 J-12.7952
G3 X-249.56055 Y47.93778 I-11.79199 J-4.96649
G1 X-269.0918
G3 X-280.49488 Y40.94661 I0.0 J-12.7952
G3 X-290.91665 Y46.83011 I-23.39864 J-29.27521
G3 X-299.34393 Y49.04148 I-14.45363 J-37.91777
G3 X-307.21647 Y49.64665 I-8.04012 J-53.08405
G3 X-323.82592 Y47.08354 I-0.32258 J-53.00744
G3 X-339.63377 Y38.21667 I13.60215 J-42.77451
G3 X-339.77767 Y38.08996 I8.38377 J-9.66589
G3 X-340.28145 Y37.63257 I29.44461 J-32.93718
G3 X-343.65242 Y44.05615 I-12.55058 J-2.49
G0 Z3.0
G0 X-289.06096 Y-49.8
G0 Z1.0
G1 F300.0 Z-2.5
G3 F800.0 X-280.95462 Y-45.49566 I-14.13126 J36.39884
G3 X-275.45215 Y-49.8 I11.86282 J9.49566
G1 X-289.06096
G0 Z3.0
G0 X-243.20019
G0 Z1.0
G1 F300.0 Z-2.5
G3 F800.0 X-237.76855 Y-45.58348 I-6.36035 J13.8
G3 X-232.33692 Y-49.8 I11.79199 J9.58348
G1 X-243.20019
G0 Z3.0
G0 X-200.08496
G0 Z1.0
G1 F300.0 Z-2.5
G3 F800.0 X-199.80469 Y-49.66734 I-6.36035 J13.8
G3 X-199.52442 Y-49.8 I6.64063 J13.66734
G1 X-200.08496
G1 F300.0 Y-52.2
G1 F800.0 X-427.2
G1 Y-45.97739
G3 X-419.18945 Y-48.7952 I8.01055 J9.97739
G1 X-401.02539
G3 X-389.22712 Y-40.95155 I0.0 J12.7952
G1 X-388.80909 Y-41.77759
G3 X-377.39258 Y-48.7952 I11.41651 J5.77759
G1 X-352.83203
G3 X-340.35285 Y-38.82614 I0.0 J12.7952
G3 X-340.18427 Y-38.97665 I26.95174 J30.01768
G3 X-340.18169 Y-38.97894 I8.49482 J9.56845
G3 X-324.26457 Y-48.00553 I29.14558 J32.84703
G3 X-324.17596 Y-48.03317 I3.85442 J12.20084
G3 X-307.27588 Y-50.50476 I16.43645 J53.37319
G3 X-294.20247 Y-48.92711 I0.42543 J51.43065
G3 X-280.43194 Y-42.12185 I-8.98975 J35.52594
G3 X-280.35899 Y-42.06361 I-7.94697 J10.0281
G3 X-269.0918 Y-48.7952 I11.2672 J6.06361
G1 X-249.56055
G3 X-237.76855 Y-40.96649 I0.0 J12.7952
G3 X-225.97656 Y-48.7952 I11.79199 J4.96649
G1 X-206.44531
G3 X-199.80469 Y-46.93706 I0.0 J12.7952
G3 X-193.16406 Y-48.7952 I6.64063 J10.93706
G1 X-142.57813
G3 X-136.35254 Y-47.17852 I0.0 J12.7952
G3 X-130.12695 Y-48.7952 I6.22559 J11.17852
G1 X-111.96289
G3 X-100.16462 Y-40.95155 I0.0 J12.7952
G1 X-99.74659 Y-41.77759
G3 X-88.33008 Y-48.7952 I11.41651 J5.77759
G1 X-63.76953
G3 X-52.8 Y-42.58685 I0.0 J12.7952
G1 Y-44.9986
G2 X-60.0014 Y-52.2 I-7.2035 J0.0021
G1 X-200.08496
G1 F300.0 Y-54.6
G1 F800.0 X-429.6
G1 Y-33.95821
G3 X-429.58465 Y-33.93816 I-26.82019 J20.54339
G1 Y-36.0
G3 X-419.18945 Y-46.3952 I10.3952 J0.0
G1 X-401.02539
G3 X-390.63019 Y-36.0 I0.0 J10.3952
G1 Y-32.86398
G1 X-386.66769 Y-40.69388
G3 X-377.39258 Y-46.3952 I9.27511 J4.69388
G1 X-352.83203
G3 X-342.43683 Y-36.0 I0.0 J10.3952
G1 Y-33.23189
G3 X-338.5909 Y-37.18189 I29.03572 J24.42342
G3 X-338.5888 Y-37.18376 I6.90144 J7.77369
G3 X-323.5416 Y-45.71702 I27.55269 J31.05184
G3 X-323.46961 Y-45.73947 I3.13144 J9.91233
G3 X-307.2759 Y-48.10468 I15.73009 J51.07949
G3 X-294.79194 Y-46.60062 I0.42545 J49.03056
G3 X-281.92255 Y-40.24088 I-8.40028 J33.19946
G3 X-281.78412 Y-40.12923 I-6.45635 J8.14713
G3 X-279.31174 Y-37.9008 I-22.80752 J27.79003
G3 X-269.0918 Y-46.3952 I10.21994 J1.9008
G1 X-249.56055
G3 X-239.16535 Y-36.0 I0.0 J10.3952
G1 Y-16.41473
G1 X-236.37176
G1 Y-36.0
G3 X-225.97656 Y-46.3952 I10.3952 J0.0
G1 X-206.44531
G3 X-199.80469 Y-43.99764 I0.0 J10.3952
G3 X-193.16406 Y-46.3952 I6.64063 J7.99764
G1 X-142.57813
G3 X-136.35254 Y-44.3248 I0.0 J10.3952
G3 X-130.12695 Y-46.3952 I6.22559 J8.3248
G1 X-111.96289
G3 X-101.56769 Y-36.0 I0.0 J10.3952
G1 Y-32.86398
G1 X-97.60519 Y-40.69388
G3 X-88.33008 Y-46.3952 I9.27511 J4.69388
G1 X-63.76953
G3 X-53.37433 Y-36.0 I0.0 J10.3952
G1 Y35.14258
G3 X-63.76953 Y45.53778 I-10.3952 J0.0
G1 X-81.93359
G3 X-92.32879 Y35.14258 I0.0 J-10.3952
G1 Y31.80662
G1 X-96.38731 Y39.83322
G3 X-105.66406 Y45.53778 I-9.27675 J-4.69064
G1 X-130.12695
G3 X-136.91406 Y43.01629 I0.0 J-10.3952
G3 X-143.70117 Y45.53778 I-6.78711 J-7.87371
G1 X-193.16406
G3 X-199.80469 Y43.14022 I0.0 J-10.3952
G3 X-206.44531 Y45.53778 I-6.64063 J-7.99764
G1 X-225.97656
G3 X-236.37176 Y35.14258 I0.0 J-10.3952
G1 Y18.92645
G1 X-239.16535
G1 Y35.14258
G3 X-249.56055 Y45.53778 I-10.3952 J0.0
G1 X-269.0918
G3 X-279.36243 Y36.74706 I0.0 J-10.3952
G3 X-279.98648 Y37.33961 I-24.05731 J-24.71107
G3 X-291.7596 Y44.58297 I-23.90705 J-25.66822
G3 X-299.70184 Y46.66832 I-13.61069 J-35.67063
G3 X-307.22752 Y47.24667 I-7.68221 J-50.71089
G3 X-323.09357 Y44.798 I-0.31153 J-50.60746
G3 X-338.06123 Y36.40364 I12.86981 J-40.48896
G3 X-338.17813 Y36.30069 I6.81123 J-7.85286
G3 X-342.43683 Y31.89018 I27.84507 J-31.14791
G1 Y35.14258
G3 X-352.83203 Y45.53778 I-10.3952 J0.0
G1 X-370.99609
G3 X-381.39129 Y35.14258 I0.0 J-10.3952
G1 Y31.80662
G1 X-385.44981 Y39.83322
G3 X-394.72656 Y45.53778 I-9.27675 J-4.69064
G1 X-419.18945
G3 X-425.85075 Y43.12301 I0.0 J-10.3952
G3 X-429.6 Y45.12438 I-6.66878 J-7.98043
G1 Y54.6
G1 X-60.00605
G2 X-50.4 Y44.99395 I-0.01367 J-9.61971
G1 Y-44.99892
G2 X-60.00108 Y-54.6 I-9.6035 J0.00243
G1 X-200.08496
G1 F300.0 Y-57.0
G1 F800.0 X-432.0
G1 Y-33.12789
G3 X-427.18465 Y-24.82683 I-24.42019 J19.71306
G1 Y-36.0
G3 X-419.18945 Y-43.9952 I7.9952 J0.0
G1 X-401.02539
G3 X-393.03019 Y-36.0 I0.0 J7.9952
G1 Y-22.80647
G1 X-384.52629 Y-39.61018
G3 X-377.39258 Y-43.9952 I7.13371 J3.61018
G1 X-352.83203
G3 X-344.83683 Y-36.0 I0.0 J7.9952
G1 Y-25.45251
G3 X-342.96462 Y-28.537 I37.47206 J20.63418
G3 X-342.96038 Y-28.54335 I6.65366 J4.43306
G3 X-336.99752 Y-35.38714 I29.55927 J19.73489
G3 X-336.99591 Y-35.38857 I5.30807 J5.97893
G3 X-322.81863 Y-43.4285 I25.9598 J29.25665
G3 X-322.76325 Y-43.44577 I2.40847 J7.62381
G3 X-307.27587 Y-45.70458 I15.02374 J48.78578
G3 X-295.3814 Y-44.27414 I0.42542 J46.63047
G3 X-283.41317 Y-38.3599 I-7.81081 J30.87298
G3 X-283.30669 Y-38.27403 I-4.96574 J6.26615
G3 X-277.087 Y-31.55271 I-21.28494 J25.93483
G1 Y-36.0
G3 X-269.0918 Y-43.9952 I7.9952 J0.0
G1 X-249.56055
G3 X-241.56535 Y-36.0 I0.0 J7.9952
G1 Y-14.01473
G1 X-233.97176
G1 Y-36.0
G3 X-225.97656 Y-43.9952 I7.9952 J0.0
G1 X-206.44531
G3 X-199.80469 Y-40.45256 I0.0 J7.9952
G3 X-193.16406 Y-43.9952 I6.64063 J4.45256
G1 X-142.57813
G3 X-136.35254 Y-41.0165 I0.0 J7.9952
G3 X-130.12695 Y-43.9952 I6.22559 J5.0165
G1 X-111.96289
G3 X-103.96769 Y-36.0 I0.0 J7.9952
G1 Y-22.80647
G1 X-95.46379 Y-39.61018
G3 X-88.33008 Y-43.9952 I7.13371 J3.61018
G1 X-63.76953
G3 X-55.77433 Y-36.0 I0.0 J7.9952
G1 Y35.14258
G3 X-63.76953 Y43.13778 I-7.9952 J0.0
G1 X-81.93359
G3 X-89.92879 Y35.14258 I0.0 J-7.9952
G1 Y21.74132
G1 X-98.52909 Y38.75026
G3 X-105.66406 Y43.13778 I-7.13497 J-3.60768
G1 X-130.12695
G3 X-136.91406 Y39.36849 I0.0 J-7.9952
G3 X-143.70117 Y43.13778 I-6.78711 J-4.22592
G1 X-193.16406
G3 X-199.80469 Y39.59514 I0.0 J-7.9952
G3 X-206.44531 Y43.13778 I-6.64063 J-4.45256
G1 X-225.97656
G3 X-233.97176 Y35.14258 I0.0 J-7.9952
G1 Y16.52645
G1 X-241.56535
G1 Y35.14258
G3 X-249.56055 Y43.13778 I-7.9952 J0.0
G1 X-269.0918
G3 X-277.087 Y35.14258 I0.0 J-7.9952
G1 Y30.37168
G3 X-281.61971 Y35.58104 I-26.33274 J-18.33569
G3 X-292.6025 Y42.33582 I-22.27381 J-23.90965
G3 X-300.05974 Y44.29515 I-12.76778 J-33.42348
G3 X-307.23857 Y44.84669 I-7.32431 J-48.33772
G3 X-322.36125 Y42.51245 I-0.30048 J-48.20749
G3 X-336.48868 Y34.5906 I12.13749 J-38.20341
G3 X-336.57859 Y34.51143 I5.23868 J-6.03982
G3 X-344.83683 Y24.13298 I26.24553 J-29.35865
G1 Y35.14258
G3 X-352.83203 Y43.13778 I-7.9952 J0.0
G1 X-370.99609
G3 X-378.99129 Y35.14258 I0.0 J-7.9952
G1 Y21.74132
G1 X-387.59159 Y38.75026
G3 X-394.72656 Y43.13778 I-7.13497 J-3.60768
G1 X-419.18945
G3 X-425.85161 Y39.56286 I0.0 J-7.9952
G3 X-432.0 Y43.12569 I-6.66792 J-4.42028
G1 Y57.0
G1 X-60.00444
G2 X-48.0 Y44.99556 I-0.01528 J-12.01971
G1 Y-44.99921
G2 X-60.00079 Y-57.0 I-12.0035 J0.00271
G1 X-200.08496
G0 Z3.0
G0 X-194.91539 Y-41.31405
G0 Z1.0
G1 F300.0 Z-2.5
G3 F800.0 X-193.16406 Y-41.5952 I1.75133 J5.31405
G1 X-142.57813
G3 X-136.98293 Y-36.0 I0.0 J5.5952
G1 Y-21.44922
G3 X-142.57813 Y-15.85402 I-5.5952 J0.0
G1 X-168.42824
G1 Y-12.78661
G1 X-145.50781
G3 X-139.91261 Y-7.19141 I0.0 J5.5952
G1 Y7.35938
G3 X-145.50781 Y12.95458 I-5.5952 J0.0
G1 X-168.42824
G1 Y14.9966
G1 X-143.70117
G3 X-138.10597 Y20.5918 I0.0 J5.5952
G1 Y35.14258
G3 X-143.70117 Y40.73778 I-5.5952 J0.0
G1 X-193.16406
G3 X-198.75926 Y35.14258 I0.0 J-5.5952
G1 Y-36.0
G3 X-194.91539 Y-41.31405 I5.5952 J0.0
G1 F300.0 X-194.16568 Y-39.0392
G3 F800.0 X-193.16406 Y-39.2 I1.00162 J3.0392
G1 X-142.57813
G3 X-139.37813 Y-36.0 I0.0 J3.2
G1 Y-21.44922
G3 X-142.57813 Y-18.24922 I-3.2 J0.0
G1 X-170.82344
G1 Y-10.39141
G1 X-145.50781
G3 X-142.30781 Y-7.19141 I0.0 J3.2
G1 Y7.35938
G3 X-145.50781 Y10.55938 I-3.2 J0.0
G1 X-170.82344
G1 Y17.3918
G1 X-143.70117
G3 X-140.50117 Y20.5918 I0.0 J3.2
G1 Y35.14258
G3 X-143.70117 Y38.34258 I-3.2 J0.0
G1 X-193.16406
G3 X-196.36406 Y35.14258 I0.0 J-3.2
G1 Y-36.0
G3 X-194.16568 Y-39.0392 I3.2 J0.0
G0 Z3.0
G0 X-135.71586 Y-36.26524
G0 Z1.0
G1 F300.0 Z-2.5
G3 F800.0 X-130.12695 Y-41.5952 I5.58891 J0.26524
G1 X-111.96289
G3 X-106.36769 Y-36.0 I0.0 J5.5952
G1 Y-12.74896
G1 X-93.32239 Y-38.52647
G3 X-88.33008 Y-41.5952 I4.99231 J2.52647
G1 X-63.76953
G3 X-58.17433 Y-36.0 I0.0 J5.5952
G1 Y35.14258
G3 X-63.76953 Y40.73778 I-5.5952 J0.0
G1 X-81.93359
G3 X-87.52879 Y35.14258 I0.0 J-5.5952
G1 Y11.67602
G1 X-100.67087 Y37.66731
G3 X-105.66406 Y40.73778 I-4.9932 J-2.52473
G1 X-130.12695
G3 X-135.72215 Y35.14258 I0.0 J-5.5952
G1 Y-36.0
G3 X-135.71586 Y-36.26524 I5.5952 J0.0
G1 F300.0 X-133.32336 Y-36.1517
G3 F800.0 X-130.12695 Y-39.2 I3.1964 J0.1517
G1 X-111.96289
G3 X-108.76289 Y-36.0 I0.0 J3.2
G1 Y-2.71157
G1 X-91.18528 Y-37.44494
G3 X-88.33008 Y-39.2 I2.8552 J1.44494
G1 X-63.76953
G3 X-60.56953 Y-36.0 I0.0 J3.2
G1 Y35.14258
G3 X-63.76953 Y38.34258 I-3.2 J0.0
G1 X-81.93359
G3 X-85.13359 Y35.14258 I0.0 J-3.2
G1 Y1.6287
G3 X-85.2769 Y1.91426 I-93.36575 J-46.67507
G3 X-85.27906 Y1.91855 I-2.85787 J-1.43965
G1 X-102.80836 Y36.58652
G3 X-105.66406 Y38.34258 I-2.8557 J-1.44394
G1 X-130.12695
G3 X-133.32695 Y35.14258 I0.0 J-3.2
G1 Y-36.0
G3 X-133.32336 Y-36.1517 I3.2 J0.0
G0 Z3.0
G0 Y-59.4
G0 Z1.0
G1 F300.0 Z-2.5
G1 F800.0 X-434.4
G1 Y-32.26102
G3 X-428.93231 Y-22.60634 I-22.02019 J18.84619
G3 X-428.92096 Y-22.57205 I-5.31095 J1.7759
G3 X-426.91953 Y-9.60378 I-38.39656 J12.56443
G1 Y35.14258
G3 X-432.51953 Y40.74258 I-5.6 J0.0
G1 X-434.4
G1 Y59.4
G1 X-60.00298
G2 X-45.6 Y44.99702 I-0.01673 J-14.41971
G1 Y-44.99947
G2 X-60.00053 Y-59.4 I-14.4035 J0.00297
G1 X-133.32336
G1 F300.0 Y-61.8
G1 F800.0 X-436.8
G1 Y-31.3523
G3 X-431.20843 Y-21.84524 I-19.62019 J17.93748
G3 X-431.20195 Y-21.82565 I-3.03483 J1.0148
G3 X-429.31953 Y-9.61596 I-36.11557 J11.81803
G1 Y35.14258
G3 X-432.51953 Y38.34258 I-3.2 J0.0
G1 X-436.8
G1 Y61.8
G1 X-60.00164
G2 X-43.2 Y44.99836 I-0.01807 J-16.81971
G1 Y-44.99971
G2 X-60.00029 Y-61.8 I-16.8035 J0.00321
G1 X-133.32336
G0 Z3.0
G0 X-105.60254 Y-49.8
G0 Z-1.5
G1 F300.0 Z-5.0
G3 F800.0 X-100.14648 Y-45.55336 I-6.36035 J13.8
G3 X-94.69043 Y-49.8 I11.81641 J9.55336
G1 X-105.60254
G0 Z3.0
G0 X-138.12215 Y-14.81088
G0 Z-1.5
G1 F300.0 Z-5.0
G3 F800.0 X-140.8007 Y-13.65409 I-4.45597 J-6.63834
G3 X-138.12215 Y-10.25331 I-4.70711 J6.46269
G1 Y-14.81088
G0 Z3.0
G0 Y10.42128
G0 Z-1.5
G1 F300.0 Z-5.0
G3 F800.0 X-140.24798 Y13.38079 I-7.38566 J-3.0619
G3 X-138.12215 Y14.86486 I-3.45319 J7.21101
G1 Y10.42128
G0 Z3.0
G0 X-136.91406 Y48.73777
G0 Z-1.5
G1 F300.0 Z-5.0
G3 F800.0 X-139.69442 Y49.8 I-6.78711 J-13.59519
G1 X-134.13371
G3 X-136.91406 Y48.73777 I4.00676 J-14.65742
G0 Z3.0
G0 X-101.65731 Y49.8
G0 Z-1.5
G1 F300.0 Z-5.0
G1 F800.0 X-85.94035
G3 X-93.79883 Y44.63522 I4.00676 J-14.65742
G3 X-101.65731 Y49.8 I-11.86523 J-9.49265
G0 Z3.0
G0 X-59.73136 Y49.79138
G0 Z-1.5
G1 F300.0 Z-5.0
G2 F800.0 X-57.03251 Y48.76266 I-0.28835 J-4.81109
G3 X-59.73136 Y49.79138 I-6.73702 J-13.62008
G0 Z3.0
G0 X-197.17082 Y49.8
G0 Z-1.5
G1 F300.0 Z-5.0
G3 F800.0 X-199.80469 Y48.80992 I4.00676 J-14.65742
G3 X-202.43856 Y49.8 I-6.64063 J-13.66734
G1 X-197.17082
G0 Z3.0
G0 X-229.98332
G0 Z-1.5
G1 F300.0 Z-5.0
G3 F800.0 X-237.76855 Y44.72605 I4.00676 J-14.65742
G3 X-245.55379 Y49.8 I-11.79199 J-9.58348
G1 X-229.98332
G0 Z3.0
G0 X-273.09855
G0 Z-1.5
G1 F300.0 Z-5.0
G3 F800.0 X-281.13099 Y44.4136 I4.00676 J-14.65742
G3 X-290.07368 Y49.07723 I-22.76253 J-32.7422
G3 X-292.12627 Y49.8 I-15.29661 J-40.16489
G1 X-273.09855
G0 Z3.0
G0 X-281.887 Y1.61504
G0 Z-1.5
G1 F300.0 Z-5.0
G1 F800.0 Y-1.7061
G1 X-289.79017 Y0.06456
G1 X-281.887 Y1.61504
G0 Z3.0
G0 X-306.6607 Y-0.20892
G0 Z-1.5
G1 F300.0 Z-5.0
G3 F800.0 X-306.78151 Y-0.3181 I10.1275 J-11.32819
G2 X-306.77988 Y-0.11258 I39.53073 J-0.2118
G3 X-306.6607 Y-0.20892 I9.61191 J11.76883
G1 F300.0 X-305.06112 Y-1.99814
G3 F800.0 X-308.62378 Y-7.34963 I8.52791 J-9.53897
G2 X-309.17854 Y0.01528 I41.373 J6.81973
G3 X-309.17809 Y0.05381 I-12.79412 J0.16636
G2 X-308.78302 Y5.58315 I45.21358 J-0.45172
G3 X-308.76341 Y5.73729 I-12.68276 J1.69252
G2 X-308.70923 Y6.13208 I12.46884 J-1.51009
G3 X-302.2461 Y-0.0881 I11.54126 J5.52417
G3 X-305.06112 Y-1.99814 I5.7129 J-11.44901
G1 F300.0 X-303.46153 Y-3.78737
G3 F800.0 X-306.4714 Y-8.48877 I6.92833 J-7.74974
G2 X-307.90937 Y-12.17137 I-25.33902 J7.77224
G3 X-307.96153 Y-12.28186 I9.37421 J-4.49269
G2 X-308.25404 Y-12.75021 I-2.03857 J0.94771
G2 X-308.37017 Y-12.75938 I-0.28588 J2.87909
G2 X-309.2403 Y-12.61797 I0.19062 J3.92058
G2 X-310.72591 Y-9.2045 I6.63431 J4.9174
G3 X-310.74772 Y-9.09033 I-10.22136 J-1.89315
G2 X-311.57833 Y0.04648 I43.49693 J8.56043
G3 X-311.57798 Y0.07779 I-10.39432 J0.13516
G2 X-311.16193 Y5.90062 I47.61346 J-0.4757
G3 X-311.146 Y6.02585 I-10.30385 J1.37506
G2 X-310.11067 Y9.9644 I14.85143 J-1.79865
G2 X-309.12379 Y11.61388 I8.5158 J-3.97501
G3 X-309.07666 Y11.67747 I-8.32793 J6.22139
G3 X-309.01117 Y11.71544 I-5.18115 J9.01198
G2 X-308.37411 Y11.90413 I0.70221 J-1.20107
G2 X-307.9295 Y11.87076 I-0.16357 J-5.15812
G2 X-307.44528 Y10.09516 I-7.41096 J-2.97484
G3 X-295.16673 Y1.4555 I10.27731 J1.56109
G1 X-279.487 Y4.53164
G1 Y-4.7033
G1 X-294.26056 Y-1.39338
G3 X-303.46153 Y-3.78737 I-2.27264 J-10.14373
G1 F300.0 X-301.86195 Y-5.5766
G3 F800.0 X-304.17691 Y-9.19255 I5.32875 J-5.96051
G2 X-305.74509 Y-13.20862 I-27.63351 J8.47602
G3 X-305.78521 Y-13.29361 I7.20993 J-3.45544
G2 X-307.06721 Y-14.94011 I-4.2149 J1.95945
G2 X-307.14539 Y-14.97738 I-0.14067 J0.19444
G3 X-307.15519 Y-14.98003 I2.08177 J-7.71942
G2 X-308.3621 Y-15.16138 I-1.38473 J5.10892
G2 X-310.2712 Y-14.80817 I0.18254 J6.32257
G2 X-310.88345 Y-14.41451 I0.61998 J1.63721
G2 X-313.08577 Y-9.64159 I8.27747 J6.71394
G3 X-313.10254 Y-9.55377 I-7.86149 J-1.45607
G2 X-313.97813 Y0.07769 I45.85176 J9.02387
G3 X-313.97786 Y0.10177 I-7.99452 J0.10395
G2 X-313.54085 Y6.21808 I50.01334 J-0.49967
G3 X-313.52859 Y6.3144 I-7.92494 J1.05759
G2 X-312.30763 Y10.93165 I17.23402 J-2.0872
G2 X-311.0465 Y13.05025 I10.71277 J-4.94226
G3 X-311.00889 Y13.10102 I-6.40521 J4.78502
G2 X-310.27487 Y13.75697 I1.92253 J-1.4127
G3 X-310.22249 Y13.78732 I-3.98295 J6.93249
G2 X-308.37777 Y14.30503 I1.91353 J-3.27296
G2 X-306.74483 Y14.09108 I-0.15991 J-7.55902
G3 X-306.69777 Y14.07974 I1.89587 J7.76717
G2 X-306.50796 Y13.98983 I-0.11701 J-0.49231
G3 X-306.4949 Y13.97988 I4.8478 J6.35783
G2 X-305.84515 Y13.11679 I-1.1982 J-1.57813
G3 X-305.76223 Y12.91102 I7.45648 J2.88517
G2 X-305.0725 Y10.45558 I-9.57823 J-4.01511
G3 X-295.62877 Y3.81061 I7.90453 J1.20067
G1 X-277.70885 Y7.32623
G3 X-277.087 Y7.47427 I-1.5392 J7.84564
G1 Y-7.7005
G1 X-294.78526 Y-3.73532
G3 X-301.86195 Y-5.5766 I-1.74794 J-7.80179
G1 F300.0 X-300.26237 Y-7.36582
G3 F800.0 X-301.88242 Y-9.89634 I3.72916 J-4.17128
G2 X-303.58081 Y-14.24588 I-29.92799 J9.17981
G3 X-303.60889 Y-14.30535 I5.04566 J-2.41819
G2 X-305.5814 Y-16.82512 I-6.39122 J2.9712
G2 X-306.52048 Y-17.2946 I-1.62648 J2.07945
G3 X-306.52734 Y-17.29645 I1.45686 J-5.4022
G2 X-308.35739 Y-17.5622 I-2.01258 J7.42534
G2 X-311.0893 Y-17.06454 I0.17784 J8.72339
G2 X-312.67842 Y-16.01068 I1.43808 J3.89357
G2 X-315.44564 Y-10.07867 I10.07243 J8.31012
G3 X-315.45737 Y-10.01722 I-5.50163 J-1.01899
G2 X-316.37793 Y0.10889 I48.20659 J9.48732
G3 X-316.37774 Y0.12574 I-5.59473 J0.07275
G2 X-315.91976 Y6.53555 I52.41322 J-0.52365
G3 X-315.91118 Y6.60296 I-5.54603 J0.74012
G2 X-314.50505 Y11.89753 I19.61661 J-2.37576
G2 X-312.96922 Y14.48662 I12.91019 J-5.90813
G3 X-312.9429 Y14.52215 I-4.4825 J3.34865
G2 X-311.47047 Y15.83796 I3.85654 J-2.83383
G3 X-311.43381 Y15.85921 I-2.78734 J4.85149
G2 X-308.37164 Y16.70533 I3.12485 J-5.34484
G2 X-306.17573 Y16.42263 I-0.16604 J-9.95933
G3 X-306.1428 Y16.41469 I1.32677 J5.43562
G2 X-305.05275 Y15.89832 I-0.67199 J-2.82726
G3 X-305.0436 Y15.89136 I3.39259 J4.44934
G2 X-303.60686 Y13.98286 I-2.64949 J-3.48961
G3 X-303.54884 Y13.83886 I5.21819 J2.0191
G2 X-302.69972 Y10.816 I-11.79163 J-4.94294
G3 X-296.09081 Y6.16571 I5.53175 J0.84025
G1 X-278.17088 Y9.68134
G3 X-274.687 Y11.93103 I-1.07716 J5.49054
G1 Y-11.60341
G3 X-277.43886 Y-10.08117 I-3.97511 J-3.93761
G1 X-295.30996 Y-6.07726
G3 X-300.26237 Y-7.36582 I-1.22324 J-5.45985
G0 Z3.0
G0 X-274.687 Y-21.63353
G0 Z-1.5
G1 F300.0 Z-5.0
G1 F800.0 Y-36.0
G3 X-269.0918 Y-41.5952 I5.5952 J0.0
G1 X-249.56055
G3 X-243.96535 Y-36.0 I0.0 J5.5952
G1 Y-11.61473
G1 X-231.57176
G1 Y-36.0
G3 X-225.97656 Y-41.5952 I5.5952 J0.0
G1 X-206.44531
G3 X-200.85011 Y-36.0 I0.0 J5.5952
G1 Y35.14258
G3 X-206.44531 Y40.73778 I-5.5952 J0.0
G1 X-225.97656
G3 X-231.57176 Y35.14258 I0.0 J-5.5952
G1 Y14.12645
G1 X-243.96535
G1 Y35.14258
G3 X-249.56055 Y40.73778 I-5.5952 J0.0
G1 X-269.0918
G3 X-274.687 Y35.14258 I0.0 J-5.5952
G1 Y19.96569
G3 X-276.83729 Y25.25431 I-32.31191 J-10.05619
G3 X-283.25294 Y33.82248 I-26.58245 J-13.21832
G3 X-293.44537 Y40.08865 I-20.64058 J-22.15108
G3 X-300.41762 Y41.92198 I-11.92491 J-31.1763
G3 X-307.24962 Y42.44671 I-6.96643 J-45.96455
G3 X-321.62895 Y40.22689 I-0.28943 J-45.80751
G3 X-334.91613 Y32.77757 I11.40519 J-35.91785
G3 X-334.97906 Y32.72216 I3.66613 J-4.22679
G3 X-344.57436 Y19.11807 I24.646 J-27.56938
G3 X-347.23683 Y10.03588 I38.90264 J-16.33578
G1 Y35.14258
G3 X-352.83203 Y40.73778 I-5.5952 J0.0
G1 X-370.99609
G3 X-376.59129 Y35.14258 I0.0 J-5.5952
G1 Y11.67602
G1 X-389.73337 Y37.66731
G3 X-394.72656 Y40.73778 I-4.9932 J-2.52473
G1 X-419.18945
G3 X-424.78465 Y35.14258 I0.0 J-5.5952
G1 Y-36.0
G3 X-419.18945 Y-41.5952 I5.5952 J0.0
G1 X-401.02539
G3 X-395.43019 Y-36.0 I0.0 J5.5952
G1 Y-12.74896
G1 X-382.38489 Y-38.52647
G3 X-377.39258 Y-41.5952 I4.99231 J2.52647
G1 X-352.83203
G3 X-347.23683 Y-36.0 I0.0 J5.5952
G1 Y-11.20868
G3 X-344.80994 Y-19.92405 I44.00568 J7.55827
G3 X-344.785 Y-19.98667 I5.21033 J2.03929
G3 X-340.96732 Y-27.20629 I37.42023 J15.16834
G3 X-340.96436 Y-27.21073 I4.65637 J3.10234
G3 X-335.40414 Y-33.59238 I27.56325 J18.40227
G3 X-335.40301 Y-33.59338 I3.71469 J4.18418
G3 X-322.09565 Y-41.13998 I24.36691 J27.46147
G3 X-322.0569 Y-41.15207 I1.68549 J5.33529
G3 X-307.2758 Y-43.30448 I14.31739 J46.49208
G3 X-295.97086 Y-41.94765 I0.42535 J44.23036
G3 X-284.90378 Y-36.47893 I-7.22136 J28.54649
G3 X-284.82927 Y-36.41883 I-3.47512 J4.38518
G3 X-277.26533 Y-27.29423 I-19.76237 J24.07964
G3 X-277.26177 Y-27.28772 I-4.90824 J2.68616
G3 X-274.687 Y-21.63353 I-37.8506 J20.64957
G1 F300.0 X-272.2918
G1 F800.0 Y-36.0
G3 X-269.0918 Y-39.2 I3.2 J0.0
G1 X-249.56055
G3 X-246.36055 Y-36.0 I0.0 J3.2
G1 Y-9.21953
G1 X-229.17656
G1 Y-36.0
G3 X-225.97656 Y-39.2 I3.2 J0.0
G1 X-206.44531
G3 X-203.24531 Y-36.0 I0.0 J3.2
G1 Y35.14258
G3 X-206.44531 Y38.34258 I-3.2 J0.0
G1 X-225.97656
G3 X-229.17656 Y35.14258 I0.0 J-3.2
G1 Y11.73125
G1 X-246.36055
G1 Y35.14258
G3 X-249.56055 Y38.34258 I-3.2 J0.0
G1 X-269.0918
G3 X-272.2918 Y35.14258 I0.0 J-3.2
G1 Y-21.63353
G0 Z3.0
G0 X-276.67909 Y-20.09714
G0 Z-1.5
G1 F300.0 Z-5.0
G3 F800.0 X-275.55349 Y-16.30029 I-38.43329 J13.45899
G3 X-277.96251 Y-12.41843 I-3.10862 J0.75927
G1 X-295.83361 Y-8.41452
G3 X-299.59252 Y-10.59872 I-0.6996 J-3.12259
G2 X-301.42086 Y-15.28106 I-32.2179 J9.88219
G3 X-301.43692 Y-15.31507 I2.88571 J-1.38301
G2 X-304.09154 Y-18.70062 I-8.56319 J3.98092
G2 X-305.89683 Y-19.60718 I-3.11633 J3.95494
G3 X-305.90075 Y-19.60824 I0.83321 J-3.08962
G2 X-308.35376 Y-19.95785 I-2.63917 J9.73713
G2 X-311.90282 Y-19.31739 I0.17421 J11.11904
G2 X-314.48083 Y-17.58946 I2.25161 J6.14643
G2 X-317.80078 Y-10.51488 I11.87484 J9.8889
G3 X-317.80749 Y-10.47973 I-3.14649 J-0.58278
G2 X-318.77293 Y0.14003 I50.55671 J9.94983
G3 X-318.77282 Y0.14967 I-3.19973 J0.04161
G2 X-318.29391 Y6.85238 I54.8083 J-0.54758
G3 X-318.289 Y6.89093 I-3.17188 J0.42329
G2 X-316.69836 Y12.86062 I21.99443 J-2.66373
G2 X-314.88809 Y15.92012 I15.10349 J-6.87123
G3 X-314.87304 Y15.94044 I-2.56362 J1.91516
G2 X-312.66368 Y17.91479 I5.78668 J-4.25211
G3 X-312.64271 Y17.92694 I-1.59413 J2.77466
G2 X-308.3629 Y19.10068 I4.33375 J-7.41258
G2 X-305.60777 Y18.74951 I-0.17478 J-12.35467
G3 X-305.58893 Y18.74498 I0.7588 J3.10873
G2 X-303.60044 Y17.803 I-1.22585 J-5.15754
G3 X-303.59521 Y17.79902 I1.94029 J2.54466
G2 X-301.37305 Y14.84719 I-4.09788 J-5.39726
G3 X-301.33987 Y14.76484 I2.98438 J1.15476
G2 X-300.33168 Y11.17569 I-14.0006 J-5.86892
G3 X-296.55192 Y8.51611 I3.16371 J0.48056
G1 X-278.632 Y12.03173
G3 X-276.10408 Y15.76806 I-0.61605 J3.14014
G3 X-278.97709 Y24.17804 I-30.89483 J-5.85857
G3 X-284.88291 Y32.06742 I-24.44265 J-12.14205
G3 X-294.2865 Y37.84594 I-19.01062 J-20.39603
G3 X-300.77476 Y39.55356 I-11.08378 J-28.93359
G3 X-307.26065 Y40.05153 I-6.60929 J-43.59613
G3 X-320.89816 Y37.94589 I-0.2784 J-43.41233
G3 X-333.34673 Y30.96816 I10.6744 J-33.63685
G3 X-333.38272 Y30.93647 I2.09673 J-2.41738
G3 X-342.36117 Y18.20213 I23.04966 J-25.78369
G3 X-344.9945 Y8.91469 I36.68945 J-15.41984
G3 X-345.7293 Y-0.45381 I59.02126 J-9.34227
G3 X-345.04019 Y-9.77224 I63.33777 J-0.00082
G3 X-342.5795 Y-19.05107 I41.80904 J6.12183
G3 X-342.56523 Y-19.08688 I2.97989 J1.16631
G3 X-338.97402 Y-25.87823 I35.20046 J14.26856
G3 X-338.97232 Y-25.88078 I2.66306 J1.77429
G3 X-333.81395 Y-31.80121 I25.57121 J17.07231
G3 X-333.81331 Y-31.80179 I2.1245 J2.39301
G3 X-321.37412 Y-38.85604 I22.7772 J25.66987
G3 X-321.35196 Y-38.86296 I0.96397 J3.05136
G3 X-307.27567 Y-40.90916 I13.61245 J44.20297
G3 X-296.55912 Y-39.62581 I0.42522 J41.83505
G3 X-286.39142 Y-34.60172 I-6.6331 J26.22465
G3 X-286.3488 Y-34.56735 I-1.98749 J2.50797
G3 X-279.36645 Y-26.14433 I-18.24283 J22.22815
G3 X-279.36442 Y-26.14061 I-2.80711 J1.53627
G3 X-276.67909 Y-20.09714 I-35.74796 J19.50246
G0 Z3.0
G0 X-349.63203
G0 Z-1.5
G1 F300.0 Z-5.0
G1 F800.0 Y35.14258
G3 X-352.83203 Y38.34258 I-3.2 J0.0
G1 X-370.99609
G3 X-374.19609 Y35.14258 I0.0 J-3.2
G1 Y1.6287
G3 X-374.3394 Y1.91426 I-93.36575 J-46.67507
G3 X-374.34156 Y1.91855 I-2.85787 J-1.43965
G1 X-391.87086 Y36.58652
G3 X-394.72656 Y38.34258 I-2.8557 J-1.44394
G1 X-419.18945
G3 X-422.38945 Y35.14258 I0.0 J-3.2
G1 Y-36.0
G3 X-419.18945 Y-39.2 I3.2 J0.0
G1 X-401.02539
G3 X-397.82539 Y-36.0 I0.0 J3.2
G1 Y-2.71157
G1 X-380.24778 Y-37.44494
G3 X-377.39258 Y-39.2 I2.8552 J1.44494
G1 X-352.83203
G3 X-349.63203 Y-36.0 I0.0 J3.2
G1 Y-20.09714
G0 Z3.0
G0 X-338.57625 Y-46.31328
G0 Z-1.5
G1 F300.0 Z-5.0
G3 F800.0 X-336.91943 Y-47.4 I27.54014 J40.18137
G1 X-339.42938
G3 X-338.57625 Y-46.31328 I-13.40265 J11.4
G1 F300.0 X-340.52075 Y-44.90654
G3 F800.0 X-339.26671 Y-42.84662 I-12.31128 J8.90654
G3 X-326.46449 Y-49.8 I28.2306 J36.71471
G1 X-346.47168
G3 X-340.52075 Y-44.90654 I-6.36035 J13.8
G0 Z3.0
G0 X-383.75293 Y-49.8
G0 Z-1.5
G1 F300.0 Z-5.0
G1 F800.0 X-394.66504
G3 X-389.20898 Y-45.55336 I-6.36035 J13.8
G3 X-383.75293 Y-49.8 I11.81641 J9.55336
G0 Z3.0
G0 X-382.86133 Y44.63522
G0 Z-1.5
G1 F300.0 Z-5.0
G3 F800.0 X-390.71981 Y49.8 I-11.86523 J-9.49265
G1 X-375.00285
G3 X-382.86133 Y44.63522 I4.00676 J-14.65742
G0 Z3.0
G0 X-423.19621 Y49.8
G0 Z-1.5
G1 F300.0 Z-5.0
G3 F800.0 X-424.8 Y49.26405 I4.00676 J-14.65742
G1 Y49.8
G1 X-423.19621
G0 Z3.0
G0 X-340.20877 Y47.4
G0 Z-1.5
G1 F300.0 Z-5.0
G1 F800.0 X-334.95801
G3 X-338.41158 Y45.22433 I24.73425 J-43.09097
G3 X-340.20877 Y47.4 I-14.42045 J-10.08175
G1 F300.0 X-341.9306 Y45.72808
G3 F800.0 X-348.82528 Y49.8 I-10.90144 J-10.5855
G1 X-323.16029
G3 X-324.55828 Y49.36907 I15.62124 J-53.1608
G3 X-339.13647 Y41.72481 I14.33452 J-45.06004
G3 X-341.9306 Y45.72808 I-13.69556 J-6.58224
G1 F300.0 X-343.65242 Y44.05615
G3 F800.0 X-352.83203 Y47.93778 I-9.17961 J-8.91358
G1 X-370.99609
G3 X-382.83852 Y39.98759 I0.0 J-12.7952
G1 X-383.30804 Y40.91617
G3 X-394.72656 Y47.93778 I-11.41853 J-5.77359
G1 X-419.18945
G3 X-425.84988 Y46.06759 I0.0 J-12.7952
G3 X-427.2 Y46.78485 I-6.66965 J-10.92501
G1 Y52.2
G1 X-60.00788
G2 X-52.8 Y44.99212 I-0.01184 J-7.21971
G1 Y41.72942
G3 X-63.76953 Y47.93778 I-10.96953 J-6.58685
G1 X-81.93359
G3 X-93.77602 Y39.98759 I0.0 J-12.7952
G1 X-94.24554 Y40.91617
G3 X-105.66406 Y47.93778 I-11.41853 J-5.77359
G1 X-130.12695
G3 X-136.91406 Y45.98934 I0.0 J-12.7952
G3 X-143.70117 Y47.93778 I-6.78711 J-10.84676
G1 X-193.16406
G3 X-199.80469 Y46.07964 I0.0 J-12.7952
G3 X-206.44531 Y47.93778 I-6.64063 J-10.93706
G1 X-225.97656
G3 X-237.76855 Y40.10907 I0.0 J-12.7952
G3 X-249.56055 Y47.93778 I-11.79199 J-4.96649
G1 X-269.0918
G3 X-280.49488 Y40.94661 I0.0 J-12.7952
G3 X-290.91665 Y46.83011 I-23.39864 J-29.27521
G3 X-299.34393 Y49.04148 I-14.45363 J-37.91777
G3 X-307.21647 Y49.64665 I-8.04012 J-53.08405
G3 X-323.82592 Y47.08354 I-0.32258 J-53.00744
G3 X-339.63377 Y38.21667 I13.60215 J-42.77451
G3 X-339.77767 Y38.08996 I8.38377 J-9.66589
G3 X-340.28145 Y37.63257 I29.44461 J-32.93718
G3 X-343.65242 Y44.05615 I-12.55058 J-2.49
G0 Z3.0
G0 X-289.06096 Y-49.8
G0 Z-1.5
G1 F300.0 Z-5.0
G3 F800.0 X-280.95462 Y-45.49566 I-14.13126 J36.39884
G3 X-275.45215 Y-49.8 I11.86282 J9.49566
G1 X-289.06096
G0 Z3.0
G0 X-243.20019
G0 Z-1.5
G1 F300.0 Z-5.0
G3 F800.0 X-237.76855 Y-45.58348 I-6.36035 J13.8
G3 X-232.33692 Y-49.8 I11.79199 J9.58348
G1 X-243.20019
G0 Z3.0
G0 X-200.08496
G0 Z-1.5
G1 F300.0 Z-5.0
G3 F800.0 X-199.80469 Y-49.66734 I-6.36035 J13.8
G3 X-199.52442 Y-49.8 I6.64063 J13.66734
G1 X-200.08496
G1 F300.0 Y-52.2
G1 F800.0 X-427.2
G1 Y-45.97739
G3 X-419.18945 Y-48.7952 I8.01055 J9.97739
G1 X-401.02539
G3 X-389.22712 Y-40.95155 I0.0 J12.7952
G1 X-388.80909 Y-41.77759
G3 X-377.39258 Y-48.7952 I11.41651 J5.77759
G1 X-352.83203
G3 X-340.35285 Y-38.82614 I0.0 J12.7952
G3 X-340.18427 Y-38.97665 I26.95174 J30.01768
G3 X-340.18169 Y-38.97894 I8.49482 J9.56845
G3 X-324.26457 Y-48.00553 I29.14558 J32.84703
G3 X-324.17596 Y-48.03317 I3.85442 J12.20084
G3 X-307.27588 Y-50.50476 I16.43645 J53.37319
G3 X-294.20247 Y-48.92711 I0.42543 J51.43065
G3 X-280.43194 Y-42.12185 I-8.98975 J35.52594
G3 X-280.35899 Y-42.06361 I-7.94697 J10.0281
G3 X-269.0918 Y-48.7952 I11.2672 J6.06361
G1 X-249.56055
G3 X-237.76855 Y-40.96649 I0.0 J12.7952
G3 X-225.97656 Y-48.7952 I11.79199 J4.96649
G1 X-206.44531
G3 X-199.80469 Y-46.93706 I0.0 J12.7952
G3 X-193.16406 Y-48.7952 I6.64063 J10.93706
G1 X-142.57813
G3 X-136.35254 Y-47.17852 I0.0 J12.7952
G3 X-130.12695 Y-48.7952 I6.22559 J11.17852
G1 X-111.96289
G3 X-100.16462 Y-40.95155 I0.0 J12.7952
G1 X-99.74659 Y-41.77759
G3 X-88.33008 Y-48.7952 I11.41651 J5.77759
G1 X-63.76953
G3 X-52.8 Y-42.58685 I0.0 J12.7952
G1 Y-44.9986
G2 X-60.0014 Y-52.2 I-7.2035 J0.0021
G1 X-200.08496
G1 F300.0 Y-54.6
G1 F800.0 X-429.6
G1 Y-33.95821
G3 X-429.58465 Y-33.93816 I-26.82019 J20.54339
G1 Y-36.0
G3 X-419.18945 Y-46.3952 I10.3952 J0.0
G1 X-401.02539
G3 X-390.63019 Y-36.0 I0.0 J10.3952
G1 Y-32.86398
G1 X-386.66769 Y-40.69388
G3 X-377.39258 Y-46.3952 I9.27511 J4.69388
G1 X-352.83203
G3 X-342.43683 Y-36.0 I0.0 J10.3952
G1 Y-33.23189
G3 X-338.5909 Y-37.18189 I29.03572 J24.42342
G3 X-338.5888 Y-37.18376 I6.90144 J7.77369
G3 X-323.5416 Y-45.71702 I27.55269 J31.05184
G3 X-323.46961 Y-45.73947 I3.13144 J9.91233
G3 X-307.2759 Y-48.10468 I15.73009 J51.07949
G3 X-294.79194 Y-46.60062 I0.42545 J49.03056
G3 X-281.92255 Y-40.24088 I-8.40028 J33.19946
G3 X-281.78412 Y-40.12923 I-6.45635 J8.14713
G3 X-279.31174 Y-37.9008 I-22.80752 J27.79003
G3 X-269.0918 Y-46.3952 I10.21994 J1.9008
G1 X-249.56055
G3 X-239.16535 Y-36.0 I0.0 J10.3952
G1 Y-16.41473
G1 X-236.37176
G1 Y-36.0
G3 X-225.97656 Y-46.3952 I10.3952 J0.0
G1 X-206.44531
G3 X-199.80469 Y-43.99764 I0.0 J10.3952
G3 X-193.16406 Y-46.3952 I6.64063 J7.99764
G1 X-142.57813
G3 X-136.35254 Y-44.3248 I0.0 J10.3952
G3 X-130.12695 Y-46.3952 I6.22559 J8.3248
G1 X-111.96289
G3 X-101.56769 Y-36.0 I0.0 J10.3952
G1 Y-32.86398
G1 X-97.60519 Y-40.69388
G3 X-88.33008 Y-46.3952 I9.27511 J4.69388
G1 X-63.76953
G3 X-53.37433 Y-36.0 I0.0 J10.3952
G1 Y35.14258
G3 X-63.76953 Y45.53778 I-10.3952 J0.0
G1 X-81.93359
G3 X-92.32879 Y35.14258 I0.0 J-10.3952
G1 Y31.80662
G1 X-96.38731 Y39.83322
G3 X-105.66406 Y45.53778 I-9.27675 J-4.69064
G1 X-130.12695
G3 X-136.91406 Y43.01629 I0.0 J-10.3952
G3 X-143.70117 Y45.53778 I-6.78711 J-7.87371
G1 X-193.16406
G3 X-199.80469 Y43.14022 I0.0 J-10.3952
G3 X-206.44531 Y45.53778 I-6.64063 J-7.99764
G1 X-225.97656
G3 X-236.37176 Y35.14258 I0.0 J-10.3952
G1 Y18.92645
G1 X-239.16535
G1 Y35.14258
G3 X-249.56055 Y45.53778 I-10.3952 J0.0
G1 X-269.0918
G3 X-279.36243 Y36.74706 I0.0 J-10.3952
G3 X-279.98648 Y37.33961 I-24.05731 J-24.71107
G3 X-291.7596 Y44.58297 I-23.90705 J-25.66822
G3 X-299.70184 Y46.66832 I-13.61069 J-35.67063
G3 X-307.22752 Y47.24667 I-7.68221 J-50.71089
G3 X-323.09357 Y44.798 I-0.31153 J-50.60746
G3 X-338.06123 Y36.40364 I12.86981 J-40.48896
G3 X-338.17813 Y36.30069 I6.81123 J-7.85286
G3 X-342.43683 Y31.89018 I27.84507 J-31.14791
G1 Y35.14258
G3 X-352.83203 Y45.53778 I-10.3952 J0.0
G1 X-370.99609
G3 X-381.39129 Y35.14258 I0.0 J-10.3952
G1 Y31.80662
G1 X-385.44981 Y39.83322
G3 X-394.72656 Y45.53778 I-9.27675 J-4.69064
G1 X-419.18945
G3 X-425.85075 Y43.12301 I0.0 J-10.3952
G3 X-429.6 Y45.12438 I-6.66878 J-7.98043
G1 Y54.6
G1 X-60.00605
G2 X-50.4 Y44.99395 I-0.01367 J-9.61971
G1 Y-44.99892
G2 X-60.00108 Y-54.6 I-9.6035 J0.00243
G1 X-200.08496
G1 F300.0 Y-57.0
G1 F800.0 X-432.0
G1 Y-33.12789
G3 X-427.18465 Y-24.82683 I-24.42019 J19.71306
G1 Y-36.0
G3 X-419.18945 Y-43.9952 I7.9952 J0.0
G1 X-401.02539
G3 X-393.03019 Y-36.0 I0.0 J7.9952
G1 Y-22.80647
G1 X-384.52629 Y-39.61018
G3 X-377.39258 Y-43.9952 I7.13371 J3.61018
G1 X-352.83203
G3 X-344.83683 Y-36.0 I0.0 J7.9952
G1 Y-25.45251
G3 X-342.96462 Y-28.537 I37.47206 J20.63418
G3 X-342.96038 Y-28.54335 I6.65366 J4.43306
G3 X-336.99752 Y-35.38714 I29.55927 J19.73489
G3 X-336.99591 Y-35.38857 I5.30807 J5.97893
G3 X-322.81863 Y-43.4285 I25.9598 J29.25665
G3 X-322.76325 Y-43.44577 I2.40847 J7.62381
G3 X-307.27587 Y-45.70458 I15.02374 J48.78578
G3 X-295.3814 Y-44.27414 I0.42542 J46.63047
G3 X-283.41317 Y-38.3599 I-7.81081 J30.87298
G3 X-283.30669 Y-38.27403 I-4.96574 J6.26615
G3 X-277.087 Y-31.55271 I-21.28494 J25.93483
G1 Y-36.0
G3 X-269.0918 Y-43.9952 I7.9952 J0.0
G1 X-249.56055
G3 X-241.56535 Y-36.0 I0.0 J7.9952
G1 Y-14.01473
G1 X-233.97176
G1 Y-36.0
G3 X-225.97656 Y-43.9952 I7.9952 J0.0
G1 X-206.44531
G3 X-199.80469 Y-40.45256 I0.0 J7.9952
G3 X-193.16406 Y-43.9952 I6.64063 J4.45256
G1 X-142.57813
G3 X-136.35254 Y-41.0165 I0.0 J7.9952
G3 X-130.12695 Y-43.9952 I6.22559 J5.0165
G1 X-111.96289
G3 X-103.96769 Y-36.0 I0.0 J7.9952
G1 Y-22.80647
G1 X-95.46379 Y-39.61018
G3 X-88.33008 Y-43.9952 I7.13371 J3.61018
G1 X-63.76953
G3 X-55.77433 Y-36.0 I0.0 J7.9952
G1 Y35.14258
G3 X-63.76953 Y43.13778 I-7.9952 J0.0
G1 X-81.93359
G3 X-89.92879 Y35.14258 I0.0 J-7.9952
G1 Y21.74132
G1 X-98.52909 Y38.75026
G3 X-105.66406 Y43.13778 I-7.13497 J-3.60768
G1 X-130.12695
G3 X-136.91406 Y39.36849 I0.0 J-7.9952
G3 X-143.70117 Y43.13778 I-6.78711 J-4.22592
G1 X-193.16406
G3 X-199.80469 Y39.59514 I0.0 J-7.9952
G3 X-206.44531 Y43.13778 I-6.64063 J-4.45256
G1 X-225.97656
G3 X-233.97176 Y35.14258 I0.0 J-7.9952
G1 Y16.52645
G1 X-241.56535
G1 Y35.14258
G3 X-249.56055 Y43.13778 I-7.9952 J0.0
G1 X-269.0918
G3 X-277.087 Y35.14258 I0.0 J-7.9952
G1 Y30.37168
G3 X-281.61971 Y35.58104 I-26.33274 J-18.33569
G3 X-292.6025 Y42.33582 I-22.27381 J-23.90965
G3 X-300.05974 Y44.29515 I-12.76778 J-33.42348
G3 X-307.23857 Y44.84669 I-7.32431 J-48.33772
G3 X-322.36125 Y42.51245 I-0.30048 J-48.20749
G3 X-336.48868 Y34.5906 I12.13749 J-38.20341
G3 X-336.57859 Y34.51143 I5.23868 J-6.03982
G3 X-344.83683 Y24.13298 I26.24553 J-29.35865
G1 Y35.14258
G3 X-352.83203 Y43.13778 I-7.9952 J0.0
G1 X-370.99609
G3 X-378.99129 Y35.14258 I0.0 J-7.9952
G1 Y21.74132
G1 X-387.59159 Y38.75026
G3 X-394.72656 Y43.13778 I-7.13497 J-3.60768
G1 X-419.18945
G3 X-425.85161 Y39.56286 I0.0 J-7.9952
G3 X-432.0 Y43.12569 I-6.66792 J-4.42028
G1 Y57.0
G1 X-60.00444
G2 X-48.0 Y44.99556 I-0.01528 J-12.01971
G1 Y-44.99921
G2 X-60.00079 Y-57.0 I-12.0035 J0.00271
G1 X-200.08496
G0 Z3.0
G0 X-194.91539 Y-41.31405
G0 Z-1.5
G1 F300.0 Z-5.0
G3 F800.0 X-193.16406 Y-41.5952 I1.75133 J5.31405
G1 X-142.57813
G3 X-136.98293 Y-36.0 I0.0 J5.5952
G1 Y-21.44922
G3 X-142.57813 Y-15.85402 I-5.5952 J0.0
G1 X-168.42824
G1 Y-12.78661
G1 X-145.50781
G3 X-139.91261 Y-7.19141 I0.0 J5.5952
G1 Y7.35938
G3 X-145.50781 Y12.95458 I-5.5952 J0.0
G1 X-168.42824
G1 Y14.9966
G1 X-143.70117
G3 X-138.10597 Y20.5918 I0.0 J5.5952
G1 Y35.14258
G3 X-143.70117 Y40.73778 I-5.5952 J0.0
G1 X-193.16406
G3 X-198.75926 Y35.14258 I0.0 J-5.5952
G1 Y-36.0
G3 X-194.91539 Y-41.31405 I5.5952 J0.0
G1 F300.0 X-194.16568 Y-39.0392
G3 F800.0 X-193.16406 Y-39.2 I1.00162 J3.0392
G1 X-142.57813
G3 X-139.37813 Y-36.0 I0.0 J3.2
G1 Y-21.44922
G3 X-142.57813 Y-18.24922 I-3.2 J0.0
G1 X-170.82344
G1 Y-10.39141
G1 X-145.50781
G3 X-142.30781 Y-7.19141 I0.0 J3.2
G1 Y7.35938
G3 X-145.50781 Y10.55938 I-3.2 J0.0
G1 X-170.82344
G1 Y17.3918
G1 X-143.70117
G3 X-140.50117 Y20.5918 I0.0 J3.2
G1 Y35.14258
G3 X-143.70117 Y38.34258 I-3.2 J0.0
G1 X-193.16406
G3 X-196.36406 Y35.14258 I0.0 J-3.2
G1 Y-36.0
G3 X-194.16568 Y-39.0392 I3.2 J0.0
G0 Z3.0
G0 X-135.71586 Y-36.26524
G0 Z-1.5
G1 F300.0 Z-5.0
G3 F800.0 X-130.12695 Y-41.5952 I5.58891 J0.26524
G1 X-111.96289
G3 X-106.36769 Y-36.0 I0.0 J5.5952
G1 Y-12.74896
G1 X-93.32239 Y-38.52647
G3 X-88.33008 Y-41.5952 I4.99231 J2.52647
G1 X-63.76953
G3 X-58.17433 Y-36.0 I0.0 J5.5952
G1 Y35.14258
G3 X-63.76953 Y40.73778 I-5.5952 J0.0
G1 X-81.93359
G3 X-87.52879 Y35.14258 I0.0 J-5.5952
G1 Y11.67602
G1 X-100.67087 Y37.66731
G3 X-105.66406 Y40.73778 I-4.9932 J-2.52473
G1 X-130.12695
G3 X-135.72215 Y35.14258 I0.0 J-5.5952
G1 Y-36.0
G3 X-135.71586 Y-36.26524 I5.5952 J0.0
G1 F300.0 X-133.32336 Y-36.1517
G3 F800.0 X-130.12695 Y-39.2 I3.1964 J0.1517
G1 X-111.96289
G3 X-108.76289 Y-36.0 I0.0 J3.2
G1 Y-2.71157
G1 X-91.18528 Y-37.44494
G3 X-88.33008 Y-39.2 I2.8552 J1.44494
G1 X-63.76953
G3 X-60.56953 Y-36.0 I0.0 J3.2
G1 Y35.14258
G3 X-63.76953 Y38.34258 I-3.2 J0.0
G1 X-81.93359
G3 X-85.13359 Y35.14258 I0.0 J-3.2
G1 Y1.6287
G3 X-85.2769 Y1.91426 I-93.36575 J-46.67507
G3 X-85.27906 Y1.91855 I-2.85787 J-1.43965
G1 X-102.80836 Y36.58652
G3 X-105.66406 Y38.34258 I-2.8557 J-1.44394
G1 X-130.12695
G3 X-133.32695 Y35.14258 I0.0 J-3.2
G1 Y-36.0
G3 X-133.32336 Y-36.1517 I3.2 J0.0
G0 Z3.0
G0 Y-59.4
G0 Z-1.5
G1 F300.0 Z-5.0
G1 F800.0 X-434.4
G1 Y-32.26102
G3 X-428.93231 Y-22.60634 I-22.02019 J18.84619
G3 X-428.92096 Y-22.57205 I-5.31095 J1.7759
G3 X-426.91953 Y-9.60378 I-38.39656 J12.56443
G1 Y35.14258
G3 X-432.51953 Y40.74258 I-5.6 J0.0
G1 X-434.4
G1 Y59.4
G1 X-60.00298
G2 X-45.6 Y44.99702 I-0.01673 J-14.41971
G1 Y-44.99947
G2 X-60.00053 Y-59.4 I-14.4035 J0.00297
G1 X-133.32336
G1 F300.0 Y-61.8
G1 F800.0 X-436.8
G1 Y-31.3523
G3 X-431.20843 Y-21.84524 I-19.62019 J17.93748
G3 X-431.20195 Y-21.82565 I-3.03483 J1.0148
G3 X-429.31953 Y-9.61596 I-36.11557 J11.81803
G1 Y35.14258
G3 X-432.51953 Y38.34258 I-3.2 J0.0
G1 X-436.8
G1 Y61.8
G1 X-60.00164
G2 X-43.2 Y44.99836 I-0.01807 J-16.81971
G1 Y-44.99971
G2 X-60.00029 Y-61.8 I-16.8035 J0.00321
G1 X-133.32336
( Profil2 )
G0 Z3.0
( T2 : 2.0 )
T2 M6
M3 S1000
G0 X-419.18945 Y-37.0
G0 Z1.0
G1 F300.0 Z-2.5
G1 F800.0 X-401.02539
G3 X-400.02539 Y-36.0 I0.0 J1.0
G1 Y2.96328
G3 X-400.18026 Y8.11191 I-77.63089 J0.24149
G3 X-399.07211 Y5.1791 I63.95967 J22.49126
G3 X-396.59462 Y-0.27138 I61.52112 J24.67574
G1 X-378.28483 Y-36.45154
G3 X-377.39258 Y-37.0 I0.89225 J0.45154
G1 X-352.83203
G3 X-351.83203 Y-36.0 I0.0 J1.0
G1 Y35.14258
G3 X-352.83203 Y36.14258 I-1.0 J0.0
G1 X-370.99609
G3 X-371.99609 Y35.14258 I0.0 J-1.0
G1 Y0.28068
G3 X-371.79968 Y-8.60553 I178.80973 J-0.49299
G3 X-371.79924 Y-8.61408 I0.9989 J0.04694
G3 X-371.73979 Y-9.55358 I61.17357 J3.39961
G3 X-373.00062 Y-6.32354 I-91.0548 J-33.6819
G3 X-376.30418 Y0.9245 I-94.56122 J-38.72283
G3 X-376.30486 Y0.92584 I-0.89308 J-0.44989
G1 X-393.83416 Y35.59381
G3 X-394.72656 Y36.14258 I-0.89241 J-0.45123
G1 X-419.18945
G3 X-420.18945 Y35.14258 I0.0 J-1.0
G1 Y-36.0
G3 X-419.18945 Y-37.0 I1.0 J0.0
G1 F300.0 Z-5.0
G1 F800.0 X-401.02539
G3 X-400.02539 Y-36.0 I0.0 J1.0
G1 Y2.96328
G3 X-400.18026 Y8.11191 I-77.63089 J0.24149
G3 X-399.07211 Y5.1791 I63.95967 J22.49126
G3 X-396.59462 Y-0.27138 I61.52112 J24.67574
G1 X-378.28483 Y-36.45154
G3 X-377.39258 Y-37.0 I0.89225 J0.45154
G1 X-352.83203
G3 X-351.83203 Y-36.0 I0.0 J1.0
G1 Y35.14258
G3 X-352.83203 Y36.14258 I-1.0 J0.0
G1 X-370.99609
G3 X-371.99609 Y35.14258 I0.0 J-1.0
G1 Y0.28068
G3 X-371.79968 Y-8.60553 I178.80973 J-0.49299
G3 X-371.79924 Y-8.61408 I0.9989 J0.04694
G3 X-371.73979 Y-9.55358 I61.17357 J3.39961
G3 X-373.00062 Y-6.32354 I-91.0548 J-33.6819
G3 X-376.30418 Y0.9245 I-94.56122 J-38.72283
G3 X-376.30486 Y0.92584 I-0.89308 J-0.44989
G1 X-393.83416 Y35.59381
G3 X-394.72656 Y36.14258 I-0.89241 J-0.45123
G1 X-419.18945
G3 X-420.18945 Y35.14258 I0.0 J-1.0
G1 Y-36.0
G3 X-419.18945 Y-37.0 I1.0 J0.0
G0 Z3.0
G0 X-341.72562 Y-14.72141
G0 Z1.0
G1 F300.0 Z-2.5
G3 F800.0 X-340.53082 Y-18.24924 I38.49447 J11.071
G3 X-340.52637 Y-18.26043 I0.93121 J0.36447
G3 X-337.14316 Y-24.65841 I33.1616 J13.4421
G3 X-337.14263 Y-24.65921 I0.83221 J0.55446
G3 X-332.35336 Y-30.15602 I23.74152 J15.85074
G3 X-332.35316 Y-30.1562 I0.66391 J0.74782
G3 X-320.7114 Y-36.75824 I21.31705 J24.02428
G3 X-320.70447 Y-36.7604 I0.30124 J0.95355
G3 X-307.27549 Y-38.70904 I12.96496 J42.10041
G3 X-297.09943 Y-37.49319 I0.42504 J39.63493
G3 X-287.75782 Y-32.87749 I-6.09279 J24.09203
G3 X-287.7445 Y-32.86675 I-0.62109 J0.78374
G3 X-281.29634 Y-25.08815 I-16.84714 J20.52755
G3 X-281.29571 Y-25.08699 I-0.87722 J0.48008
G3 X-277.69067 Y-15.77829 I-33.81667 J18.44884
G3 X-278.44349 Y-14.56521 I-0.97144 J0.23727
G1 X-296.31458 Y-10.5613
G3 X-297.48924 Y-11.24386 I-0.21862 J-0.97581
G2 X-299.43694 Y-16.23187 I-34.32118 J10.52733
G3 X-299.44196 Y-16.2425 I0.90178 J-0.43219
G2 X-302.72217 Y-20.4225 I-10.55815 J4.90835
G2 X-305.324 Y-21.73129 I-4.4857 J5.67683
G3 X-305.32522 Y-21.73163 I0.26038 J-0.96551
G2 X-308.35085 Y-22.15811 I-3.2147 J11.86051
G2 X-312.64923 Y-21.38692 I0.1713 J13.3193
G2 X-316.13983 Y-19.03509 I2.99802 J8.21596
G2 X-319.96399 Y-10.91554 I13.53384 J11.33452
G3 X-319.96609 Y-10.90455 I-0.98328 J-0.18212
G2 X-320.97274 Y0.16864 I52.7153 J10.37465
G3 X-320.97271 Y0.17165 I-0.99992 J0.013
G2 X-320.47458 Y7.14339 I57.00819 J-0.56956
G3 X-320.47304 Y7.15544 I-0.99121 J0.13228
G2 X-318.71308 Y13.74473 I24.17847 J-2.92824
G2 X-316.65059 Y17.23679 I17.11822 J-7.75534
G3 X-316.64588 Y17.24314 I-0.80113 J0.59849
G2 X-313.75965 Y19.82237 I7.55952 J-5.55482
G3 X-313.75309 Y19.82617 I-0.49817 J0.86708
G2 X-308.35389 Y21.30076 I5.44413 J-9.3118
G2 X-305.08609 Y20.88677 I-0.18379 J-14.55475
G3 X-305.0802 Y20.88535 I0.23713 J0.97148
G2 X-302.2665 Y19.55245 I-1.73458 J-7.29792
G3 X-302.26486 Y19.55121 I0.60634 J0.79521
G2 X-299.32129 Y15.64109 I-5.42823 J-7.14945
G3 X-299.31092 Y15.61535 I0.93262 J0.36086
G2 X-298.15663 Y11.50608 I-16.02954 J-6.71944
G3 X-296.97545 Y10.67496 I0.98866 J0.15017
G1 X-279.05553 Y14.19058
G3 X-278.26556 Y15.35818 I-0.19252 J0.98129
G3 X-280.94254 Y23.18954 I-28.73335 J-5.44869
G3 X-286.38004 Y30.4554 I-22.4772 J-11.15355
G3 X-295.05903 Y35.78597 I-17.51349 J-18.784
G3 X-301.10278 Y37.37815 I-10.31126 J-26.87362
G3 X-307.27078 Y37.85155 I-6.28127 J-41.42072
G3 X-320.22695 Y35.85077 I-0.26827 J-41.21235
G3 X-331.90523 Y29.30621 I10.00319 J-31.54174
G3 X-331.91647 Y29.29631 I0.65523 J-0.75543
G3 X-340.32833 Y17.36088 I21.58341 J-24.14353
G3 X-342.82116 Y8.57323 I34.6566 J-14.57859
G3 X-343.5293 Y-0.45334 I56.84791 J-9.00081
G3 X-342.86376 Y-9.45106 I61.13777 J-0.00129
G3 X-341.72562 Y-14.72141 I39.63261 J5.80065
G1 F300.0 Z-5.0
G3 F800.0 X-340.53082 Y-18.24924 I38.49447 J11.071
G3 X-340.52637 Y-18.26043 I0.93121 J0.36447
G3 X-337.14316 Y-24.65841 I33.1616 J13.4421
G3 X-337.14263 Y-24.65921 I0.83221 J0.55446
G3 X-332.35336 Y-30.15602 I23.74152 J15.85074
G3 X-332.35316 Y-30.1562 I0.66391 J0.74782
G3 X-320.7114 Y-36.75824 I21.31705 J24.02428
G3 X-320.70447 Y-36.7604 I0.30124 J0.95355
G3 X-307.27549 Y-38.70904 I12.96496 J42.10041
G3 X-297.09943 Y-37.49319 I0.42504 J39.63493
G3 X-287.75782 Y-32.87749 I-6.09279 J24.09203
G3 X-287.7445 Y-32.86675 I-0.62109 J0.78374
G3 X-281.29634 Y-25.08815 I-16.84714 J20.52755
G3 X-281.29571 Y-25.08699 I-0.87722 J0.48008
G3 X-277.69067 Y-15.77829 I-33.81667 J18.44884
G3 X-278.44349 Y-14.56521 I-0.97144 J0.23727
G1 X-296.31458 Y-10.5613
G3 X-297.48924 Y-11.24386 I-0.21862 J-0.97581
G2 X-299.43694 Y-16.23187 I-34.32118 J10.52733
G3 X-299.44196 Y-16.2425 I0.90178 J-0.43219
G2 X-302.72217 Y-20.4225 I-10.55815 J4.90835
G2 X-305.324 Y-21.73129 I-4.4857 J5.67683
G3 X-305.32522 Y-21.73163 I0.26038 J-0.96551
G2 X-308.35085 Y-22.15811 I-3.2147 J11.86051
G2 X-312.64923 Y-21.38692 I0.1713 J13.3193
G2 X-316.13983 Y-19.03509 I2.99802 J8.21596
G2 X-319.96399 Y-10.91554 I13.53384 J11.33452
G3 X-319.96609 Y-10.90455 I-0.98328 J-0.18212
G2 X-320.97274 Y0.16864 I52.7153 J10.37465
G3 X-320.97271 Y0.17165 I-0.99992 J0.013
G2 X-320.47458 Y7.14339 I57.00819 J-0.56956
G3 X-320.47304 Y7.15544 I-0.99121 J0.13228
G2 X-318.71308 Y13.74473 I24.17847 J-2.92824
G2 X-316.65059 Y17.23679 I17.11822 J-7.75534
G3 X-316.64588 Y17.24314 I-0.80113 J0.59849
G2 X-313.75965 Y19.82237 I7.55952 J-5.55482
G3 X-313.75309 Y19.82617 I-0.49817 J0.86708
G2 X-308.35389 Y21.30076 I5.44413 J-9.3118
G2 X-305.08609 Y20.88677 I-0.18379 J-14.55475
G3 X-305.0802 Y20.88535 I0.23713 J0.97148
G2 X-302.2665 Y19.55245 I-1.73458 J-7.29792
G3 X-302.26486 Y19.55121 I0.60634 J0.79521
G2 X-299.32129 Y15.64109 I-5.42823 J-7.14945
G3 X-299.31092 Y15.61535 I0.93262 J0.36086
G2 X-298.15663 Y11.50608 I-16.02954 J-6.71944
G3 X-296.97545 Y10.67496 I0.98866 J0.15017
G1 X-279.05553 Y14.19058
G3 X-278.26556 Y15.35818 I-0.19252 J0.98129
G3 X-280.94254 Y23.18954 I-28.73335 J-5.44869
G3 X-286.38004 Y30.4554 I-22.4772 J-11.15355
G3 X-295.05903 Y35.78597 I-17.51349 J-18.784
G3 X-301.10278 Y37.37815 I-10.31126 J-26.87362
G3 X-307.27078 Y37.85155 I-6.28127 J-41.42072
G3 X-320.22695 Y35.85077 I-0.26827 J-41.21235
G3 X-331.90523 Y29.30621 I10.00319 J-31.54174
G3 X-331.91647 Y29.29631 I0.65523 J-0.75543
G3 X-340.32833 Y17.36088 I21.58341 J-24.14353
G3 X-342.82116 Y8.57323 I34.6566 J-14.57859
G3 X-343.5293 Y-0.45334 I56.84791 J-9.00081
G3 X-342.86376 Y-9.45106 I61.13777 J-0.00129
G3 X-341.72562 Y-14.72141 I39.63261 J5.80065
G0 Z3.0
G0 X-270.0918
G0 Z1.0
G1 F300.0 Z-2.5
G1 F800.0 Y-36.0
G3 X-269.0918 Y-37.0 I1.0 J0.0
G1 X-249.56055
G3 X-248.56055 Y-36.0 I0.0 J1.0
G1 Y-7.01953
G1 X-226.97656
G1 Y-36.0
G3 X-225.97656 Y-37.0 I1.0 J0.0
G1 X-206.44531
G3 X-205.44531 Y-36.0 I0.0 J1.0
G1 Y35.14258
G3 X-206.44531 Y36.14258 I-1.0 J0.0
G1 X-225.97656
G3 X-226.97656 Y35.14258 I0.0 J-1.0
G1 Y9.53125
G1 X-248.56055
G1 Y35.14258
G3 X-249.56055 Y36.14258 I-1.0 J0.0
G1 X-269.0918
G3 X-270.0918 Y35.14258 I0.0 J-1.0
G1 Y-14.72141
G1 F300.0 Z-5.0
G1 F800.0 Y-36.0
G3 X-269.0918 Y-37.0 I1.0 J0.0
G1 X-249.56055
G3 X-248.56055 Y-36.0 I0.0 J1.0
G1 Y-7.01953
G1 X-226.97656
G1 Y-36.0
G3 X-225.97656 Y-37.0 I1.0 J0.0
G1 X-206.44531
G3 X-205.44531 Y-36.0 I0.0 J1.0
G1 Y35.14258
G3 X-206.44531 Y36.14258 I-1.0 J0.0
G1 X-225.97656
G3 X-226.97656 Y35.14258 I0.0 J-1.0
G1 Y9.53125
G1 X-248.56055
G1 Y35.14258
G3 X-249.56055 Y36.14258 I-1.0 J0.0
G1 X-269.0918
G3 X-270.0918 Y35.14258 I0.0 J-1.0
G1 Y-14.72141
G0 Z3.0
G0 X-194.16406
G0 Z1.0
G1 F300.0 Z-2.5
G1 F800.0 Y-36.0
G3 X-193.16406 Y-37.0 I1.0 J0.0
G1 X-142.57813
G3 X-141.57813 Y-36.0 I0.0 J1.0
G1 Y-21.44922
G3 X-142.57813 Y-20.44922 I-1.0 J0.0
G1 X-173.02344
G1 Y-8.19141
G1 X-145.50781
G3 X-144.50781 Y-7.19141 I0.0 J1.0
G1 Y7.35938
G3 X-145.50781 Y8.35938 I-1.0 J0.0
G1 X-173.02344
G1 Y19.5918
G1 X-143.70117
G3 X-142.70117 Y20.5918 I0.0 J1.0
G1 Y35.14258
G3 X-143.70117 Y36.14258 I-1.0 J0.0
G1 X-193.16406
G3 X-194.16406 Y35.14258 I0.0 J-1.0
G1 Y-14.72141
G1 F300.0 Z-5.0
G1 F800.0 Y-36.0
G3 X-193.16406 Y-37.0 I1.0 J0.0
G1 X-142.57813
G3 X-141.57813 Y-36.0 I0.0 J1.0
G1 Y-21.44922
G3 X-142.57813 Y-20.44922 I-1.0 J0.0
G1 X-173.02344
G1 Y-8.19141
G1 X-145.50781
G3 X-144.50781 Y-7.19141 I0.0 J1.0
G1 Y7.35938
G3 X-145.50781 Y8.35938 I-1.0 J0.0
G1 X-173.02344
G1 Y19.5918
G1 X-143.70117
G3 X-142.70117 Y20.5918 I0.0 J1.0
G1 Y35.14258
G3 X-143.70117 Y36.14258 I-1.0 J0.0
G1 X-193.16406
G3 X-194.16406 Y35.14258 I0.0 J-1.0
G1 Y-14.72141
G0 Z3.0
G0 X-131.12695
G0 Z1.0
G1 F300.0 Z-2.5
G1 F800.0 Y-36.0
G3 X-130.12695 Y-37.0 I1.0 J0.0
G1 X-111.96289
G3 X-110.96289 Y-36.0 I0.0 J1.0
G1 Y2.96328
G3 X-111.11776 Y8.11191 I-77.63089 J0.24149
G3 X-110.00961 Y5.1791 I63.95967 J22.49126
G3 X-107.53212 Y-0.27138 I61.52112 J24.67574
G1 X-89.22233 Y-36.45154
G3 X-88.33008 Y-37.0 I0.89225 J0.45154
G1 X-63.76953
G3 X-62.76953 Y-36.0 I0.0 J1.0
G1 Y35.14258
G3 X-63.76953 Y36.14258 I-1.0 J0.0
G1 X-81.93359
G3 X-82.93359 Y35.14258 I0.0 J-1.0
G1 Y0.28068
G3 X-82.73718 Y-8.60553 I178.80973 J-0.49299
G3 X-82.73674 Y-8.61408 I0.9989 J0.04694
G3 X-82.67729 Y-9.55358 I61.17357 J3.39961
G3 X-83.93812 Y-6.32354 I-91.0548 J-33.6819
G3 X-87.24168 Y0.9245 I-94.56122 J-38.72283
G3 X-87.24236 Y0.92584 I-0.89308 J-0.44989
G1 X-104.77166 Y35.59381
G3 X-105.66406 Y36.14258 I-0.89241 J-0.45123
G1 X-130.12695
G3 X-131.12695 Y35.14258 I0.0 J-1.0
G1 Y-14.72141
G1 F300.0 Z-5.0
G1 F800.0 Y-36.0
G3 X-130.12695 Y-37.0 I1.0 J0.0
G1 X-111.96289
G3 X-110.96289 Y-36.0 I0.0 J1.0
G1 Y2.96328
G3 X-111.11776 Y8.11191 I-77.63089 J0.24149
G3 X-110.00961 Y5.1791 I63.95967 J22.49126
G3 X-107.53212 Y-0.27138 I61.52112 J24.67574
G1 X-89.22233 Y-36.45154
G3 X-88.33008 Y-37.0 I0.89225 J0.45154
G1 X-63.76953
G3 X-62.76953 Y-36.0 I0.0 J1.0
G1 Y35.14258
G3 X-63.76953 Y36.14258 I-1.0 J0.0
G1 X-81.93359
G3 X-82.93359 Y35.14258 I0.0 J-1.0
G1 Y0.28068
G3 X-82.73718 Y-8.60553 I178.80973 J-0.49299
G3 X-82.73674 Y-8.61408 I0.9989 J0.04694
G3 X-82.67729 Y-9.55358 I61.17357 J3.39961
G3 X-83.93812 Y-6.32354 I-91.0548 J-33.6819
G3 X-87.24168 Y0.9245 I-94.56122 J-38.72283
G3 X-87.24236 Y0.92584 I-0.89308 J-0.44989
G1 X-104.77166 Y35.59381
G3 X-105.66406 Y36.14258 I-0.89241 J-0.45123
G1 X-130.12695
G3 X-131.12695 Y35.14258 I0.0 J-1.0
G1 Y-14.72141
( Profil2K )
S1000
G0 Z3.0
G0 X-60.00009 Y-64.0
G0 Z1.0
G1 F300.0 Z-2.5
G1 F800.0 X-439.0
G1 Y-30.47685
G3 X-433.29487 Y-21.14757 I-17.42019 J17.06202
G3 X-433.29285 Y-21.14144 I-0.94838 J0.31712
G3 X-431.51953 Y-9.62747 I-34.02467 J11.13383
G1 Y35.14258
G3 X-432.51953 Y36.14258 I-1.0 J0.0
G1 X-439.0
G1 Y64.0
G1 X-60.0005
G2 X-41.0 Y44.9995 I-0.01921 J-19.01971
G1 Y-44.99991
G2 X-60.00009 Y-64.0 I-19.0035 J0.00341
G1 F300.0 Z-5.0
G1 F800.0 X-439.0
G1 Y-30.47685
G3 X-433.29487 Y-21.14757 I-17.42019 J17.06202
G3 X-433.29285 Y-21.14144 I-0.94838 J0.31712
G3 X-431.51953 Y-9.62747 I-34.02467 J11.13383
G1 Y35.14258
G3 X-432.51953 Y36.14258 I-1.0 J0.0
G1 X-439.0
G1 Y64.0
G1 X-60.0005
G2 X-41.0 Y44.9995 I-0.01921 J-19.01971
G1 Y-44.99991
G2 X-60.00009 Y-64.0 I-19.0035 J0.00341
G0 Z3.0
M5
M30
