( Made using CamBam - http://www.cambam.co.uk )
( Bayern-Muenchen 6/22/2019 4:50:40 PM )
( T2 : 2.0 )
( T6 : 6.0 )
G21 G90 G64 G40
G0 Z3.0
( T6 : 6.0 )
T6 M6
( Tasche6 )
G17
M3 S1000
G0 X-15.0 Y49.24294
G0 Z1.0
G1 F300.0 Z-2.5
G3 F800.0 X-21.74861 Y44.31952 I5.11663 J-14.10036
G3 X-31.55059 Y50.0 I-11.86523 J-9.17694
G1 X-15.0
G1 Y49.24294
G0 Z3.0
G0 X-70.22468 Y47.6
G0 Z1.0
G1 F300.0 Z-2.5
G3 F800.0 X-70.57032 Y47.25333 I12.14795 J-12.45742
G3 X-71.2043 Y47.6 I-16.51305 J-29.44548
G1 X-70.22468
G1 F300.0 X-68.5491 Y45.88173
G3 F800.0 X-70.07014 Y44.15136 I10.47237 J-10.73916
G3 X-73.88468 Y46.25473 I-17.01323 J-26.34351
G3 X-73.94153 Y46.28096 I-6.31119 J-13.60239
G3 X-86.4023 Y49.74773 I-17.04789 J-37.1485
G3 X-89.12135 Y50.0 I-6.87332 J-59.30362
G1 X-60.13998
G3 X-68.5491 Y45.88173 I2.06325 J-14.85742
G0 Z3.0
G0 X-68.27673 Y-7.33842
G0 Z1.0
G1 F300.0 Z-2.5
G1 F800.0 Y-9.2435
G1 X-68.91528 Y-7.96838
G3 X-68.27673 Y-7.33842 I-17.96081 J18.84433
G1 F300.0 X-65.87673
G1 F800.0 Y-19.39599
G1 X-71.88664 Y-7.39477
G3 X-66.19725 Y-0.5647 I-14.98944 J18.27072
G3 X-66.09892 Y-0.38123 I-6.82089 J3.77368
G3 X-65.87673 Y0.05528 I-27.87916 J14.46582
G1 Y-7.33842
G0 Z3.0
G0 X-93.23367 Y-50.0
G0 Z1.0
G1 F300.0 Z-2.5
G1 F800.0 X-101.72839
G3 X-97.48103 Y-47.5034 I-5.37178 J14.0
G3 X-93.23367 Y-50.0 I9.61914 J11.5034
G0 Z3.0
G0 X-132.0032
G0 Z1.0
G1 F300.0 Z-2.5
G1 F800.0 X-133.71081
G3 X-132.857 Y-49.64178 I-5.37178 J14.0
G3 X-132.0032 Y-50.0 I6.22559 J13.64178
G0 Z3.0
G0 X-134.42662 Y-15.19725
G0 Z1.0
G1 F300.0 Z-2.5
G3 F800.0 X-137.81208 Y-13.75825 I-4.65597 J-6.25197
G3 X-134.42662 Y-8.98665 I-4.2002 J6.56685
G1 Y-15.19725
G0 Z3.0
G0 Y9.15462
G0 Z1.0
G1 F300.0 Z-2.5
G3 F800.0 X-137.12412 Y13.43153 I-7.58566 J-1.79525
G3 X-134.42662 Y15.36035 I-3.08151 J7.16027
G1 Y9.15462
G0 Z3.0
G0 X-133.41853 Y48.51386
G0 Z1.0
G1 F300.0 Z-2.5
G3 F800.0 X-138.17757 Y50.0 I-6.78711 J-13.37128
G1 X-128.65948
G3 X-133.41853 Y48.51386 I2.02806 J-14.85742
G0 Z3.0
G0 X-191.69659 Y50.0
G0 Z1.0
G1 F300.0 Z-2.5
G3 F800.0 X-193.20857 Y49.71392 I2.02806 J-14.85742
G3 X-194.72054 Y50.0 I-3.54004 J-14.57135
G1 X-191.69659
G0 Z3.0
G0 X-230.47171 Y47.6
G0 Z1.0
G1 F300.0 Z-2.5
G3 F800.0 X-232.02693 Y45.8666 I12.14107 J-12.45742
G3 X-233.58214 Y47.6 I-13.69629 J-10.72402
G1 X-230.47171
G1 F300.0 Y50.0
G1 F800.0 X-220.3587
G3 X-231.71337 Y41.90708 I2.02806 J-14.85742
G1 X-232.02153 Y41.29742
G1 X-232.42496 Y42.07167
G3 X-243.69515 Y50.0 I-13.29826 J-6.92909
G1 X-230.47171
G0 Z3.0
G0 X-280.2764 Y47.6
G0 Z1.0
G1 F300.0 Z-2.5
G3 F800.0 X-280.85505 Y47.00856 I12.14107 J-12.45742
G3 X-281.43371 Y47.6 I-12.71973 J-11.86598
G1 X-280.2764
G1 F300.0 X-278.6013 Y45.88126
G3 F800.0 X-280.85505 Y43.0839 I10.46598 J-10.73868
G3 X-291.54671 Y50.0 I-12.71973 J-7.94132
G1 X-270.16339
G3 X-278.6013 Y45.88126 I2.02806 J-14.85742
G0 Z3.0
G0 X-265.87086 Y1.30808
G0 Z1.0
G1 F300.0 Z-2.5
G1 F800.0 X-257.20279 Y-13.66108
G1 Y-23.50406
G1 X-265.87086 Y1.30808
G0 Z3.0
G0 X-255.46443 Y-47.26274
G0 Z1.0
G1 F300.0 Z-2.5
G3 F800.0 X-255.17034 Y-47.6 I13.25684 J11.26274
G1 X-255.75851
G3 X-255.46443 Y-47.26274 I-12.96275 J11.6
G1 F300.0 X-253.63539 Y-45.70883
G3 F800.0 X-247.57937 Y-50.0 I11.4278 J9.70883
G1 X-263.34948
G3 X-255.46443 Y-43.00802 I-5.37178 J14.0
G3 X-253.63539 Y-45.70883 I13.25684 J7.00802
G0 Z3.0
G0 X-209.71359 Y-47.6
G0 Z1.0
G1 F300.0 Z-2.5
G3 F800.0 X-206.17243 Y-41.49673 I-12.96275 J11.6
G3 X-202.63128 Y-47.6 I16.50391 J5.49673
G1 X-209.71359
G1 F300.0 X-211.50205 Y-45.99956
G3 F800.0 X-207.68114 Y-36.0 I-11.17429 J9.99956
G1 Y-13.66108
G1 X-204.66373 Y-8.45021
G1 Y-36.0
G3 X-195.04031 Y-50.0 I14.9952 J0.0
G1 X-217.30456
G3 X-211.50205 Y-45.99956 I-5.37178 J14.0
G0 Z3.0
G0 X-306.80531 Y-45.2
G0 Z1.0
G1 F300.0 Z-2.5
G1 F800.0 X-307.24854
G3 X-307.02693 Y-44.76482 I-17.52741 J9.2
G3 X-306.80531 Y-45.2 I17.74902 J8.76482
G1 F300.0 Y-47.6
G1 F800.0 X-311.8132
G3 X-308.21349 Y-41.31771 I-12.96275 J11.6
G1 X-307.40372 Y-38.79559
G1 X-306.58807
G1 X-305.96537 Y-40.91136
G3 X-302.24066 Y-47.6 I16.68747 J4.91136
G1 X-306.80531
G1 F300.0 Y-50.0
G1 F800.0 X-319.40417
G3 X-310.4986 Y-40.58403 I-5.37178 J14.0
G1 X-309.15382 Y-36.39559
G1 X-304.79264
G1 X-303.66301 Y-40.23375
G3 X-294.64968 Y-50.0 I14.38511 J4.23375
G1 X-306.80531
G0 Z3.0
G0 X-349.72781
G0 Z1.0
G1 F300.0 Z-2.5
G1 F800.0 X-363.59779
G3 X-360.65645 Y-49.38933 I-10.37513 J57.36171
G3 X-354.18841 Y-47.32167 I-8.86197 J38.87243
G3 X-349.72781 Y-50.0 I9.83238 J11.32167
G0 Z3.0
G0 X-338.332 Y41.44724
G0 Z1.0
G1 F300.0 Z-2.5
G3 F800.0 X-340.64776 Y44.0 I-27.22765 J-22.37301
G1 X-337.31716
G3 X-337.99472 Y42.36749 I19.03535 J-8.85742
G1 X-338.332 Y41.44724
G1 F300.0 X-337.20529 Y41.03429
G1 F800.0 X-337.95406 Y38.99131
G3 X-343.73757 Y45.2 I-27.6056 J-19.91708
G1 X-335.33168
G3 X-336.86801 Y41.95454 I17.04987 J-10.05742
G1 X-337.20529 Y41.03429
G1 F300.0 X-334.95187 Y40.2084
G1 F800.0 X-337.4056 Y33.51348
G3 X-337.98841 Y34.59683 I-28.04396 J-14.38841
G3 X-349.14289 Y46.1226 I-27.57125 J-15.5226
G3 X-351.75099 Y47.6 I-20.78816 J-33.65724
G1 X-330.42288
G3 X-334.61459 Y41.12865 I12.14107 J-12.45742
G1 X-334.95187 Y40.2084
G1 F300.0 X-332.69845 Y39.38251
G1 F800.0 X-337.33844 Y26.72247
G3 X-340.07956 Y33.41908 I-28.11113 J-7.59739
G3 X-350.39609 Y44.07575 I-25.48009 J-14.34485
G3 X-361.22442 Y48.59051 I-19.53496 J-31.61039
G3 X-370.36502 Y49.96189 I-12.03232 J-49.05053
G3 X-370.94832 Y50.0 I-5.22279 J-75.45689
G1 X-320.30987
G3 X-332.36117 Y40.30276 I2.02806 J-14.85742
G1 X-332.69845 Y39.38251
G0 Z3.0
G0 X-418.63157 Y47.52753
G0 Z1.0
G1 F300.0 Z-2.5
G3 F800.0 X-420.59228 Y45.22437 I12.21499 J-12.38495
G2 X-418.63157 Y47.52753 I2.56741 J-0.19951
G1 F300.0 X-416.94628 Y45.81879
G3 F800.0 X-421.41177 Y35.14258 I10.5297 J-10.67621
G1 Y-36.0
G3 X-411.78835 Y-50.0 I14.9952 J0.0
G1 X-418.0
G3 X-418.01799 Y-50.00001 I0.0 J-15.0
G2 X-423.00001 Y-45.01799 I-0.00597 J4.97605
G3 X-423.0 Y-45.0 I-14.99999 J0.01799
G1 Y45.0
G3 X-423.00001 Y45.01867 I-15.0 J0.0
G2 X-418.01867 Y50.00001 I4.97515 J0.00619
G3 X-418.0 Y50.0 I0.01867 J14.99999
G1 X-408.44464
G3 X-416.94628 Y45.81879 I2.02806 J-14.85742
G0 Z3.0
G0 X-34.5275 Y-50.0
G0 Z1.0
G1 F300.0 Z-2.5
G3 F800.0 X-28.09626 Y-45.23973 I-5.38516 J14.0
G3 X-21.66502 Y-50.0 I11.81641 J9.23973
G1 X-34.5275
G1 F300.0 X-35.38913 Y-47.76
G3 F800.0 X-28.13526 Y-40.47803 I-4.52354 J11.76
G1 X-27.5222 Y-41.68944
G3 X-16.27986 Y-48.6 I11.24234 J5.68944
G1 X-12.6
G1 Y-52.4
G1 X-418.0
G3 X-418.01511 Y-52.40001 I0.0 J-12.6
G2 X-425.40001 Y-45.01511 I-0.00885 J7.37605
G3 X-425.4 Y-45.0 I-12.59999 J0.01511
G1 Y45.0
G3 X-425.40001 Y45.01568 I-12.6 J0.0
G2 X-418.01568 Y52.40001 I7.37515 J0.00918
G3 X-418.0 Y52.4 I0.01568 J12.59999
G1 X-12.6
G1 Y47.44623
G3 X-21.70258 Y39.50909 I2.71663 J-12.30365
G1 X-22.36951 Y40.82809
G3 X-33.61384 Y47.74258 I-11.24433 J-5.68551
G1 X-58.07673
G3 X-69.37418 Y40.72179 I0.0 J-12.6
G3 X-74.8948 Y44.07765 I-17.70918 J-22.91394
G3 X-74.94255 Y44.09969 I-5.30107 J-11.42531
G3 X-86.67511 Y47.36328 I-16.04688 J-34.96722
G3 X-94.16712 Y47.73778 I-6.60051 J-56.91917
G1 X-126.63142
G3 X-133.41853 Y45.75268 I0.0 J-12.5952
G3 X-140.20564 Y47.73778 I-6.78711 J-10.6101
G1 X-189.66853
G3 X-193.20857 Y47.23006 I0.0 J-12.5952
G3 X-196.74861 Y47.73778 I-3.54004 J-12.08748
G1 X-218.33064
G3 X-229.57145 Y40.82441 I0.0 J-12.5952
G1 X-231.98911 Y36.04137
G1 X-234.55336 Y40.96266
G3 X-245.72321 Y47.73778 I-11.16986 J-5.82008
G1 X-268.13532
G3 X-280.66867 Y36.38934 I0.0 J-12.5952
G1 X-281.68428 Y39.2965
G3 X-293.57478 Y47.73778 I-11.8905 J-4.15392
G1 X-318.28181
G3 X-330.10776 Y39.47686 I0.0 J-12.5952
G1 X-338.56217 Y16.4093
G3 X-338.54803 Y17.32063 I-39.06126 J1.06183
G3 X-338.54796 Y17.39143 I-12.59511 J0.04851
G3 X-339.23333 Y24.28746 I-35.67081 J-0.06313
G3 X-342.17072 Y32.24134 I-26.21624 J-5.16239
G3 X-351.64921 Y42.02886 I-23.38894 J-13.16711
G3 X-361.79146 Y46.25845 I-18.28184 J-29.56349
G3 X-370.51653 Y47.56663 I-11.46529 J-46.71847
G3 X-376.41273 Y47.73778 I-5.07128 J-73.06163
G1 X-406.41657
G3 X-419.01177 Y35.14258 I0.0 J-12.5952
G1 Y-36.0
G3 X-406.41657 Y-48.5952 I12.5952 J0.0
G1 X-377.09252
G3 X-370.52561 Y-48.42432 I0.96257 J89.27805
G3 X-361.19728 Y-47.05105 I-3.44732 J55.78603
G3 X-353.67558 Y-44.4726 I-8.32115 J36.53414
G3 X-344.35603 Y-48.5952 I9.31955 J8.4726
G1 X-324.77595
G3 X-312.78371 Y-39.85035 I0.0 J12.5952
G1 X-310.90392 Y-33.99559
G1 X-302.99721
G1 X-301.36066 Y-39.55613
G3 X-289.2779 Y-48.5952 I12.08276 J3.55613
G1 X-268.72126
G3 X-256.83076 Y-31.84608 I0.0 J12.5952
G1 X-276.497 Y24.44803
G1 X-254.80279 Y-13.01635
G1 Y-36.0
G3 X-242.20759 Y-48.5952 I12.5952 J0.0
G1 X-222.67634
G3 X-210.08114 Y-36.0 I0.0 J12.5952
G1 Y-13.01635
G1 X-202.26373 Y0.48378
G1 Y-36.0
G3 X-189.66853 Y-48.5952 I12.5952 J0.0
G1 X-139.08259
G3 X-132.857 Y-46.94902 I0.0 J12.5952
G3 X-126.63142 Y-48.5952 I6.22559 J10.94902
G1 X-107.10017
G3 X-97.48103 Y-44.13088 I0.0 J12.5952
G3 X-87.86189 Y-48.5952 I9.61914 J8.13088
G1 X-66.27986
G3 X-62.18566 Y-47.9112 I0.0 J12.5952
G3 X-58.07673 Y-48.6 I4.10893 J11.9112
G1 X-39.91267
G3 X-35.38913 Y-47.76 I0.0 J12.6
G0 Z3.0
G0 X-133.72176 Y-36.60798
G0 Z1.0
G1 F300.0 Z-2.5
G3 F800.0 X-133.68739 Y-36.0 I-5.36083 J0.60798
G1 Y-21.44922
G3 X-139.08259 Y-16.05402 I-5.3952 J0.0
G1 X-165.1327
G1 Y-12.58661
G1 X-142.01228
G3 X-136.61708 Y-7.19141 I0.0 J5.3952
G1 Y7.35938
G3 X-142.01228 Y12.75458 I-5.3952 J0.0
G1 X-165.1327
G1 Y15.1966
G1 X-140.20564
G3 X-134.81044 Y20.5918 I0.0 J5.3952
G1 Y35.14258
G3 X-140.20564 Y40.53778 I-5.3952 J0.0
G1 X-189.66853
G3 X-193.20857 Y39.21398 I0.0 J-5.3952
G3 X-196.74861 Y40.53778 I-3.54004 J-4.0714
G1 X-218.33064
G3 X-223.14568 Y37.57641 I0.0 J-5.3952
G1 X-231.89183 Y20.27321
G1 X-240.93857 Y37.63563
G3 X-245.72321 Y40.53778 I-4.78465 J-2.49305
G1 X-268.13532
G3 X-272.80424 Y32.43899 I0.0 J-5.3952
G1 X-247.60279 Y-11.08216
G1 Y-36.0
G3 X-242.20759 Y-41.3952 I5.3952 J0.0
G1 X-222.67634
G3 X-217.28114 Y-36.0 I0.0 J5.3952
G1 Y-11.08216
G1 X-195.06373 Y27.28576
G1 Y-36.0
G3 X-189.66853 Y-41.3952 I5.3952 J0.0
G1 X-139.08259
G3 X-133.72176 Y-36.60798 I0.0 J5.3952
G1 F300.0 X-136.1017 Y-36.33807
G3 F800.0 X-136.08259 Y-36.0 I-2.98089 J0.33807
G1 Y-21.44922
G3 X-139.08259 Y-18.44922 I-3.0 J0.0
G1 X-167.5279
G1 Y-10.19141
G1 X-142.01228
G3 X-139.01228 Y-7.19141 I0.0 J3.0
G1 Y7.35938
G3 X-142.01228 Y10.35938 I-3.0 J0.0
G1 X-167.5279
G1 Y17.5918
G1 X-140.20564
G3 X-137.20564 Y20.5918 I0.0 J3.0
G1 Y35.14258
G3 X-140.20564 Y38.14258 I-3.0 J0.0
G1 X-189.66853
G3 X-192.66853 Y35.14258 I0.0 J-3.0
G1 Y-36.0
G3 X-189.66853 Y-39.0 I3.0 J0.0
G1 X-139.08259
G3 X-136.1017 Y-36.33807 I0.0 J3.0
G0 Z3.0
G0 X-219.67636 Y-36.01171
G0 Z1.0
G1 F300.0 Z-2.5
G3 F800.0 X-219.67634 Y-36.0 I-2.99998 J0.01171
G1 Y-10.43872
G1 X-194.15246 Y33.63925
G3 X-196.74861 Y38.14258 I-2.59615 J1.50333
G1 X-218.33064
G3 X-221.00804 Y36.49591 I0.0 J-3.0
G1 X-230.04124 Y18.62482
G3 X-230.10811 Y18.48349 I2.6774 J-1.35333
G2 X-231.51493 Y15.33028 I-419.69427 J185.35778
G3 X-231.54127 Y15.27008 I2.73507 J-1.23263
G3 X-231.81705 Y14.61806 I238.8046 J-101.39012
G3 X-233.38357 Y17.9525 I-51.24297 J-22.0388
G3 X-233.39474 Y17.97415 I-2.67167 J-1.36461
G1 X-243.06271 Y36.52884
G3 X-245.72321 Y38.14258 I-2.6605 J-1.38626
G1 X-268.13532
G3 X-270.73147 Y33.63925 I0.0 J-3.0
G1 X-245.20759 Y-10.43872
G1 Y-36.0
G3 X-242.20759 Y-39.0 I3.0 J0.0
G1 X-222.67634
G3 X-219.67636 Y-36.01171 I0.0 J3.0
G0 Z3.0
G0 X-263.32606 Y-36.00129
G0 Z1.0
G1 F300.0 Z-2.5
G3 F800.0 X-263.62792 Y-34.22065 I-5.3952 J0.00129
G1 X-288.48144 Y36.92193
G3 X-293.57478 Y40.53778 I-5.09334 J-1.77935
G1 X-318.28181
G3 X-323.3475 Y36.99919 I0.0 J-5.3952
G1 X-343.81016 Y-18.83247
G3 X-343.74599 Y-16.91292 I-29.44751 J1.94534
G3 X-343.74607 Y-16.87723 I-5.3952 J0.00472
G3 X-344.42281 Y-10.50958 I-32.02587 J-0.18383
G3 X-347.2013 Y-3.72043 I-19.21339 J-3.90004
G3 X-351.83742 Y1.29267 I-16.65255 J-10.75001
G3 X-347.73616 Y7.09992 I-12.74616 J13.35357
G3 X-346.15102 Y12.41671 I-18.88434 J8.52484
G3 X-345.74798 Y17.34836 I-31.47241 J5.05442
G3 X-345.74794 Y17.37869 I-5.39516 J0.02078
G3 X-346.29636 Y22.88973 I-28.47082 J-0.05039
G3 X-348.44418 Y28.70811 I-19.1532 J-3.76466
G3 X-355.40792 Y35.88772 I-17.11548 J-9.63388
G3 X-363.49223 Y39.26219 I-14.52313 J-23.42236
G3 X-370.97025 Y40.38079 I-9.76451 J-39.72221
G3 X-376.37113 Y40.53778 I-4.61756 J-65.87579
G1 X-406.41657
G3 X-411.81177 Y35.14258 I0.0 J-5.3952
G1 Y-36.0
G3 X-406.41657 Y-41.3952 I5.3952 J0.0
G1 X-377.05289
G3 X-370.97357 Y-41.23827 I0.92294 J82.07805
G3 X-362.8192 Y-40.03606 I-2.99936 J48.59998
G3 X-354.05018 Y-36.53601 I-6.69922 J29.51915
G3 X-353.98487 Y-36.49655 I-2.75701 J4.63757
G3 X-348.50934 Y-31.65401 I-11.06748 J18.03107
G1 X-349.42171 Y-34.14339
G3 X-344.35603 Y-41.3952 I5.06569 J-1.85661
G1 X-324.77595
G3 X-319.63903 Y-37.64931 I0.0 J5.3952
G1 X-316.15422 Y-26.79559
G1 X-297.61091
G1 X-294.45359 Y-37.52328
G3 X-289.2779 Y-41.3952 I5.17569 J1.52328
G1 X-268.72126
G3 X-263.32606 Y-36.00129 I0.0 J5.3952
G1 F300.0 X-265.72126 Y-36.00072
G3 F800.0 X-265.88911 Y-35.01059 I-3.0 J0.00072
G1 X-290.74263 Y36.13198
G3 X-293.57478 Y38.14258 I-2.83215 J-0.98941
G1 X-318.28181
G3 X-321.09858 Y36.17494 I0.0 J-3.0
G1 X-347.1728 Y-34.96763
G3 X-344.35603 Y-39.0 I2.81677 J-1.03237
G1 X-324.77595
G3 X-321.91957 Y-36.9171 I0.0 J3.0
G1 X-317.90082 Y-24.40039
G1 X-295.81907
G1 X-292.15585 Y-36.84702
G3 X-289.2779 Y-39.0 I2.87794 J0.84702
G1 X-268.72126
G3 X-265.72126 Y-36.00072 I0.0 J3.0
G0 Z3.0
G0 X-346.55961 Y-21.63245
G0 Z1.0
G1 F300.0 Z-2.5
G3 F800.0 X-346.14118 Y-16.91083 I-26.69806 J4.74533
G3 X-346.14123 Y-16.89098 I-3.0 J0.00262
G3 X-346.76879 Y-10.99272 I-29.63071 J-0.17008
G3 X-349.21141 Y-5.02292 I-16.86741 J-3.4169
G3 X-355.97974 Y1.07482 I-14.64244 J-9.44752
G3 X-354.44297 Y2.18622 I-10.47127 J16.09706
G3 X-354.42119 Y2.20385 I-1.87594 J2.34112
G3 X-349.92067 Y8.08222 I-10.16239 J12.44238
G3 X-348.51664 Y12.79199 I-16.69983 J7.54255
G3 X-348.14316 Y17.35759 I-29.10678 J4.67914
G3 X-348.14314 Y17.37445 I-2.99998 J0.01155
G3 X-348.64602 Y22.42485 I-26.07562 J-0.04615
G3 X-350.53115 Y27.53273 I-16.80355 J-3.29978
G3 X-356.65796 Y33.84454 I-15.02851 J-8.4585
G3 X-364.05787 Y36.93473 I-13.27309 J-21.37917
G3 X-371.12084 Y37.99027 I-9.19887 J-37.39475
G3 X-376.35679 Y38.14258 I-4.46697 J-63.48526
G1 X-406.41657
G3 X-409.41657 Y35.14258 I0.0 J-3.0
G1 Y-36.0
G3 X-406.41657 Y-39.0 I3.0 J0.0
G1 X-377.03932
G3 X-371.12256 Y-38.84771 I0.90938 J79.68285
G3 X-363.35851 Y-37.70235 I-2.85036 J46.20942
G3 X-355.27416 Y-34.47716 I-6.15991 J27.18544
G3 X-355.23785 Y-34.45522 I-1.53304 J2.57872
G3 X-348.73496 Y-27.72502 I-9.8145 J15.98973
G3 X-346.68921 Y-22.31128 I-15.4849 J8.94484
G3 X-346.55961 Y-21.63245 I-26.56846 J5.42416
G0 Z3.0
G0 X-342.50051 Y-8.28487
G0 Z1.0
G1 F300.0 Z-2.5
G1 F800.0 X-325.60092 Y37.82508
G2 X-318.28181 Y42.93778 I7.31911 J-2.6825
G1 X-293.57478
G2 X-286.21572 Y37.71345 I0.0 J-7.7952
G1 X-261.3622 Y-33.42913
G2 X-268.72126 Y-43.7952 I-7.35906 J-2.57087
G1 X-289.2779
G2 X-296.75595 Y-38.2009 I0.0 J7.7952
G1 X-299.40634 Y-29.19559
G1 X-314.40412
G1 X-317.35392 Y-38.38299
G2 X-324.77595 Y-43.7952 I-7.42203 J2.38299
G1 X-344.35603
G2 X-351.88981 Y-38.00182 I0.0 J7.7952
G2 X-352.72939 Y-38.54198 I-13.16254 J19.53634
G2 X-352.82375 Y-38.59898 I-4.07781 J6.64354
G2 X-362.27867 Y-42.37442 I-16.69467 J28.08208
G2 X-370.82426 Y-43.63362 I-11.69425 J49.73613
G2 X-377.06629 Y-43.7952 I-5.30569 J84.31648
G1 X-406.41657
G2 X-414.21177 Y-36.0 I0.0 J7.7952
G1 Y35.14258
G2 X-406.41657 Y42.93778 I7.7952 J0.0
G1 X-376.38524
G2 X-370.81917 Y42.77609 I0.79743 J-68.43278
G2 X-362.92537 Y41.59429 I-2.43758 J-43.2361
G2 X-354.15516 Y37.93486 I-7.00567 J-29.12893
G2 X-346.35302 Y29.88586 I-11.4045 J-18.86063
G2 X-343.94201 Y23.3556 I-19.09654 J-10.76078
G2 X-343.34795 Y17.38294 I-30.27675 J-6.0273
G2 X-343.34799 Y17.33912 I-7.79519 J-0.0138
G2 X-343.78067 Y12.04058 I-34.27543 J0.132
G2 X-345.54728 Y6.11563 I-22.83983 J3.58418
G2 X-348.39424 Y1.49112 I-19.03629 J8.5306
G2 X-345.18717 Y-2.41533 I-15.4596 J-15.96155
G2 X-342.50051 Y-8.28487 I-18.44903 J-11.99429
G0 Z3.0
G0 X-342.703 Y-1.86307
G0 Z1.0
G1 F300.0 Z-2.5
G1 F800.0 X-327.85434 Y38.65097
G2 X-318.28181 Y45.33778 I9.57253 J-3.50839
G1 X-293.57478
G2 X-283.95 Y38.50498 I0.0 J-10.1952
G1 X-259.09648 Y-32.6376
G2 X-268.72126 Y-46.1952 I-9.62478 J-3.3624
G1 X-289.2779
G2 X-299.0583 Y-38.87851 I0.0 J10.1952
G1 X-301.20177 Y-31.59559
G1 X-312.65402
G1 X-315.06881 Y-39.11667
G2 X-324.77595 Y-46.1952 I-9.70713 J3.11667
G1 X-344.35603
G2 X-352.97793 Y-41.44104 I0.0 J10.1952
G2 X-361.73802 Y-44.71274 I-16.5405 J30.92413
G2 X-370.67494 Y-46.02897 I-12.2349 J52.07445
G2 X-377.07949 Y-46.1952 I-5.45501 J86.71183
G1 X-406.41657
G2 X-416.61177 Y-36.0 I0.0 J10.1952
G1 Y35.14258
G2 X-406.41657 Y45.33778 I10.1952 J0.0
G1 X-376.3991
G2 X-370.66792 Y45.17137 I0.81129 J-70.83278
G2 X-362.35844 Y43.92638 I-2.58883 J-45.63138
G2 X-352.90224 Y39.9819 I-7.5726 J-31.46102
G2 X-344.26187 Y31.0636 I-12.65741 J-20.90767
G2 X-341.58767 Y23.82152 I-21.18769 J-11.93853
G2 X-340.94795 Y17.38718 I-32.6311 J-6.49321
G2 X-340.94801 Y17.32988 I-10.19518 J-0.01804
G2 X-341.41034 Y11.66439 I-36.67541 J0.14125
G2 X-343.35841 Y5.13133 I-25.21016 J3.96037
G2 X-345.27147 Y1.68153 I-21.22516 J9.5149
G2 X-343.17303 Y-1.11024 I-18.58238 J-16.15197
G2 X-342.703 Y-1.86307 I-20.46317 J-13.29938
G0 Z3.0
G0 Y-54.8
G0 Z1.0
G1 F300.0 Z-2.5
G1 F800.0 X-418.0
G3 X-418.01223 Y-54.80001 I0.0 J-10.2
G2 X-427.80001 Y-45.01223 I-0.01173 J9.77605
G3 X-427.8 Y-45.0 I-10.19999 J0.01223
G1 Y45.0
G3 X-427.80001 Y45.01269 I-10.2 J0.0
G2 X-418.01269 Y54.80001 I9.77515 J0.01217
G3 X-418.0 Y54.8 I0.01269 J10.19999
G1 X-10.2
G1 Y45.33766
G3 X-20.08337 Y35.14258 I0.31663 J-10.19508
G1 Y30.98798
G1 X-24.51129 Y39.74514
G3 X-33.61384 Y45.34258 I-9.10255 J-4.60256
G1 X-58.07673
G3 X-68.18942 Y36.47429 I0.0 J-10.2
G3 X-75.90491 Y41.90057 I-18.89394 J-18.66645
G3 X-75.94356 Y41.91841 I-4.29096 J-9.24823
G3 X-86.94789 Y44.97883 I-15.04586 J-32.78594
G3 X-94.14825 Y45.33778 I-6.32773 J-54.53472
G1 X-126.63142
G3 X-133.41853 Y42.75029 I0.0 J-10.1952
G3 X-140.20564 Y45.33778 I-6.78711 J-7.60771
G1 X-189.66853
G3 X-193.20857 Y44.70345 I0.0 J-10.1952
G3 X-196.74861 Y45.33778 I-3.54004 J-9.56087
G1 X-218.33064
G3 X-227.42953 Y39.74174 I0.0 J-10.1952
G1 X-231.95668 Y30.78532
G1 X-236.68176 Y39.85365
G3 X-245.72321 Y45.33778 I-9.04145 J-4.71107
G1 X-268.13532
G3 X-276.95808 Y30.03365 I0.0 J-10.1952
G1 X-252.40279 Y-12.37162
G1 Y-36.0
G3 X-242.20759 Y-46.1952 I10.1952 J0.0
G1 X-222.67634
G3 X-212.48114 Y-36.0 I0.0 J10.1952
G1 Y-12.37162
G1 X-199.86373 Y9.41777
G1 Y-36.0
G3 X-189.66853 Y-46.1952 I10.1952 J0.0
G1 X-139.08259
G3 X-132.857 Y-44.07367 I0.0 J10.1952
G3 X-126.63142 Y-46.1952 I6.22559 J8.07367
G1 X-107.10017
G3 X-97.49353 Y-39.41389 I0.0 J10.1952
G1 X-97.21797 Y-40.0504
G3 X-87.86189 Y-46.1952 I9.35609 J4.0504
G1 X-66.27986
G3 X-62.18426 Y-45.33639 I0.0 J10.1952
G3 X-58.07673 Y-46.2 I4.10753 J9.33639
G1 X-39.91267
G3 X-29.71267 Y-36.0 I0.0 J10.2
G1 Y-32.04597
G1 X-25.3808 Y-40.60574
G3 X-16.27986 Y-46.2 I9.10094 J4.60574
G1 X-10.2
G1 Y-54.8
G1 X-342.703
G1 F300.0 Y-57.2
G1 F800.0 X-418.0
G3 X-418.00936 Y-57.20001 I0.0 J-7.8
G2 X-430.20001 Y-45.00936 I-0.0146 J12.17605
G3 X-430.2 Y-45.0 I-7.79999 J0.00936
G1 Y45.0
G3 X-430.20001 Y45.00971 I-7.8 J0.0
G2 X-418.00971 Y57.20001 I12.17514 J0.01515
G3 X-418.0 Y57.2 I0.00971 J7.79999
G1 X-7.8
G1 Y42.94258
G1 X-9.88337
G3 X-17.68337 Y35.14258 I0.0 J-7.8
G1 Y20.92268
G1 X-26.65306 Y38.66218
G3 X-33.61384 Y42.94258 I-6.96078 J-3.5196
G1 X-58.07673
G3 X-65.87673 Y35.14258 I0.0 J-7.8
G1 Y29.39118
G3 X-66.75867 Y30.86915 I-21.11518 J-11.59782
G3 X-76.91502 Y39.7235 I-20.3247 J-13.0613
G3 X-76.94458 Y39.73713 I-3.28085 J-7.07115
G3 X-87.22062 Y42.59438 I-14.04485 J-30.60466
G3 X-94.12896 Y42.93778 I-6.055 J-52.15026
G1 X-126.63142
G3 X-133.41853 Y38.97667 I0.0 J-7.7952
G3 X-140.20564 Y42.93778 I-6.78711 J-3.8341
G1 X-189.66853
G3 X-193.20857 Y42.0876 I0.0 J-7.7952
G3 X-196.74861 Y42.93778 I-3.54004 J-6.94502
G1 X-218.33064
G3 X-225.2876 Y38.65908 I0.0 J-7.7952
G1 X-231.92426 Y25.52926
G1 X-238.81016 Y38.74464
G3 X-245.72321 Y42.93778 I-6.91305 J-3.60206
G1 X-268.13532
G3 X-274.88116 Y31.23632 I0.0 J-7.7952
G1 X-250.00279 Y-11.72689
G1 Y-36.0
G3 X-242.20759 Y-43.7952 I7.7952 J0.0
G1 X-222.67634
G3 X-214.88114 Y-36.0 I0.0 J7.7952
G1 Y-11.72689
G1 X-197.46373 Y18.35177
G1 Y-36.0
G3 X-189.66853 Y-43.7952 I7.7952 J0.0
G1 X-139.08259
G3 X-132.857 Y-40.69119 I0.0 J7.7952
G3 X-126.63142 Y-43.7952 I6.22559 J4.69119
G1 X-107.10017
G3 X-99.30497 Y-36.0 I0.0 J7.7952
G1 Y-29.18861
G1 X-95.0155 Y-39.09692
G3 X-87.86189 Y-43.7952 I7.15362 J3.09692
G1 X-66.27986
G3 X-62.18286 Y-42.63172 I0.0 J7.7952
G3 X-58.07673 Y-43.8 I4.10613 J6.63172
G1 X-39.91267
G3 X-32.11267 Y-36.0 I0.0 J7.8
G1 Y-21.98846
G1 X-23.2394 Y-39.52204
G3 X-16.27986 Y-43.8 I6.95954 J3.52204
G1 X-7.8
G1 Y-57.2
G1 X-342.703
G1 F300.0 Y-59.6
G1 F800.0 X-418.0
G3 X-418.00648 I0.0 J-5.4
G2 X-432.6 Y-45.00648 I-0.01748 J14.57604
G3 Y-45.0 I-5.4 J0.00648
G1 Y45.0
G3 Y45.00672 I-5.4 J0.0
G2 X-418.00672 Y59.6 I14.57514 J0.01814
G3 X-418.0 I0.00672 J5.4
G1 X-5.4
G1 Y40.54258
G1 X-9.88337
G3 X-15.28337 Y35.14258 I0.0 J-5.4
G1 Y10.85738
G1 X-28.79484 Y37.57923
G3 X-33.61384 Y40.54258 I-4.819 J-2.43665
G1 X-58.07673
G3 X-63.47673 Y35.14258 I0.0 J-5.4
G1 Y-29.54848
G1 X-74.92489 Y-6.6876
G3 X-73.4944 Y-5.60905 I-15.55431 J22.11773
G3 X-73.47928 Y-5.5968 I-3.38899 J4.19797
G3 X-68.29728 Y0.59715 I-13.39681 J16.47274
G3 X-68.22922 Y0.72413 I-4.72086 J2.61183
G3 X-64.98674 Y15.08857 I-25.74886 J13.36046
G3 X-65.73429 Y22.10597 I-35.51645 J-0.23496
G3 X-68.77604 Y29.56907 I-21.25762 J-4.3126
G3 X-77.92514 Y37.54642 I-18.30732 J-11.76122
G3 X-77.94559 Y37.55586 I-2.27073 J-4.89407
G3 X-87.4933 Y40.20991 I-13.04383 J-28.42339
G3 X-94.10922 Y40.53778 I-5.78233 J-49.7658
G1 X-126.63142
G3 X-132.02662 Y35.14258 I0.0 J-5.3952
G1 Y-36.0
G3 X-126.63142 Y-41.3952 I5.3952 J0.0
G1 X-107.10017
G3 X-101.70497 Y-36.0 I0.0 J5.3952
G1 Y-17.6038
G1 X-92.81304 Y-38.14343
G3 X-87.86189 Y-41.3952 I4.95115 J2.14343
G1 X-66.27986
G3 X-62.18145 Y-39.50874 I0.0 J5.3952
G3 X-58.07673 Y-41.4 I4.10472 J3.50874
G1 X-39.91267
G3 X-34.51267 Y-36.0 I0.0 J5.4
G1 Y-11.93095
G1 X-21.098 Y-38.43833
G3 X-16.27986 Y-41.4 I4.81815 J2.43833
G1 X-5.4
G1 Y-59.6
G1 X-342.703
G1 F300.0 Y-62.0
G1 F800.0 X-418.0
G3 X-418.0036 I0.0 J-3.0
G2 X-435.0 Y-45.0036 I-0.02036 J16.97604
G3 Y-45.0 I-3.0 J0.0036
G1 Y45.0
G3 Y45.00373 I-3.0 J0.0
G2 X-418.00373 Y62.0 I16.97514 J0.02113
G3 X-418.0 I0.00373 J3.0
G1 X-3.0
G1 Y38.14258
G1 X-9.88337
G3 X-12.88337 Y35.14258 I0.0 J-3.0
G1 Y0.77352
G3 X-13.40529 Y1.82428 I-93.56575 J-45.8199
G3 X-13.40732 Y1.8283 I-2.67925 J-1.34967
G1 X-30.93662 Y36.49627
G3 X-33.61384 Y38.14258 I-2.67722 J-1.35369
G1 X-58.07673
G3 X-61.07673 Y35.14258 I0.0 J-3.0
G1 Y-36.0
G3 X-58.07673 Y-39.0 I3.0 J0.0
G1 X-39.91267
G3 X-36.91267 Y-36.0 I0.0 J3.0
G1 Y-1.87345
G1 X-18.9566 Y-37.35463
G3 X-16.27986 Y-39.0 I2.67675 J1.35463
G1 X-3.0
G1 Y-62.0
G1 X-342.703
G0 Z3.0
G0 X-374.71814 Y-15.12347
G0 Z1.0
G1 F300.0 Z-2.5
G2 F800.0 X-374.96686 Y-15.24516 I-0.54335 J0.79558
G2 X-376.24471 Y-15.43516 I-1.28464 J4.24775
G1 X-381.06657
G1 Y-13.20547
G1 X-377.02204
G3 X-376.88244 Y-13.20399 I0.0 J6.6
G2 X-374.76477 Y-13.38125 I0.21512 J-10.16818
G3 X-374.70432 Y-13.39247 I1.23463 J6.48349
G2 X-374.5585 Y-13.42473 I-0.34188 J-1.89104
G2 X-374.49102 Y-14.27437 I-4.88188 J-0.81519
G3 X-374.49118 Y-14.32223 I6.59984 J-0.04594
G2 X-374.60823 Y-15.03157 I-2.20418 J-0.00064
G2 X-374.62051 Y-15.04715 I-0.06307 J0.03713
G2 X-374.71814 Y-15.12347 I-0.64097 J0.71925
G1 F300.0 X-374.04135 Y-16.11441
G2 F800.0 X-374.61105 Y-16.39122 I-1.22013 J1.78652
G2 X-376.24385 Y-16.63516 I-1.64045 J5.39381
G1 X-382.26657
G1 Y-12.00547
G1 X-377.02204
G3 X-376.90782 Y-12.00426 I0.0 J5.4
G2 X-374.54029 Y-12.20243 I0.24051 J-11.36792
G3 X-374.49083 Y-12.21161 I1.01015 J5.30468
G2 X-373.52561 Y-12.5572 I-0.55537 J-3.0719
G2 X-373.29105 Y-14.28273 I-5.91477 J-1.68273
G3 X-373.29118 Y-14.32188 I5.39987 J-0.03759
G2 X-373.49051 Y-15.47064 I-3.40418 J-0.00099
G2 X-373.81295 Y-15.93479 I-1.18078 J0.4762
G2 X-374.04135 Y-16.11441 I-1.44854 J1.60689
G1 F300.0 X-372.68779 Y-18.0963
G2 F800.0 X-373.90222 Y-18.68417 I-2.5737 J3.7684
G2 X-376.24236 Y-19.03516 I-2.34928 J7.68676
G1 X-384.66657
G1 Y-9.60547
G1 X-377.02204
G3 X-376.95859 Y-9.6048 I0.0 J3.0
G2 X-374.09134 Y-9.8448 I0.29127 J-13.76738
G3 X-374.06386 Y-9.8499 I0.5612 J2.94704
G2 X-372.00893 Y-10.67221 I-0.98235 J-5.43361
G2 X-371.24871 Y-11.79123 I-1.28571 J-1.69121
G3 X-371.23784 Y-11.82915 I2.88914 J0.80801
G2 X-370.89111 Y-14.29943 I-8.20254 J-2.41077
G3 X-370.89118 Y-14.32118 I2.99993 J-0.02088
G2 X-371.24505 Y-16.31852 I-5.80418 J-0.00168
G2 X-372.20089 Y-17.71279 I-3.42624 J1.32408
G2 X-372.68779 Y-18.0963 I-3.0606 J3.3849
G1 F300.0 X-374.71814 Y-15.12347
G1 Z-5.0
G2 F800.0 X-374.96686 Y-15.24516 I-0.54335 J0.79558
G2 X-376.24471 Y-15.43516 I-1.28464 J4.24775
G1 X-381.06657
G1 Y-13.20547
G1 X-377.02204
G3 X-376.88244 Y-13.20399 I0.0 J6.6
G2 X-374.76477 Y-13.38125 I0.21512 J-10.16818
G3 X-374.70432 Y-13.39247 I1.23463 J6.48349
G2 X-374.5585 Y-13.42473 I-0.34188 J-1.89104
G2 X-374.49102 Y-14.27437 I-4.88188 J-0.81519
G3 X-374.49118 Y-14.32223 I6.59984 J-0.04594
G2 X-374.60823 Y-15.03157 I-2.20418 J-0.00064
G2 X-374.62051 Y-15.04715 I-0.06307 J0.03713
G2 X-374.71814 Y-15.12347 I-0.64097 J0.71925
G1 F300.0 X-374.04135 Y-16.11441
G2 F800.0 X-374.61105 Y-16.39122 I-1.22013 J1.78652
G2 X-376.24385 Y-16.63516 I-1.64045 J5.39381
G1 X-382.26657
G1 Y-12.00547
G1 X-377.02204
G3 X-376.90782 Y-12.00426 I0.0 J5.4
G2 X-374.54029 Y-12.20243 I0.24051 J-11.36792
G3 X-374.49083 Y-12.21161 I1.01015 J5.30468
G2 X-373.52561 Y-12.5572 I-0.55537 J-3.0719
G2 X-373.29105 Y-14.28273 I-5.91477 J-1.68273
G3 X-373.29118 Y-14.32188 I5.39987 J-0.03759
G2 X-373.49051 Y-15.47064 I-3.40418 J-0.00099
G2 X-373.81295 Y-15.93479 I-1.18078 J0.4762
G2 X-374.04135 Y-16.11441 I-1.44854 J1.60689
G1 F300.0 X-372.68779 Y-18.0963
G2 F800.0 X-373.90222 Y-18.68417 I-2.5737 J3.7684
G2 X-376.24236 Y-19.03516 I-2.34928 J7.68676
G1 X-384.66657
G1 Y-9.60547
G1 X-377.02204
G3 X-376.95859 Y-9.6048 I0.0 J3.0
G2 X-374.09134 Y-9.8448 I0.29127 J-13.76738
G3 X-374.06386 Y-9.8499 I0.5612 J2.94704
G2 X-372.00893 Y-10.67221 I-0.98235 J-5.43361
G2 X-371.24871 Y-11.79123 I-1.28571 J-1.69121
G3 X-371.23784 Y-11.82915 I2.88914 J0.80801
G2 X-370.89111 Y-14.29943 I-8.20254 J-2.41077
G3 X-370.89118 Y-14.32118 I2.99993 J-0.02088
G2 X-371.24505 Y-16.31852 I-5.80418 J-0.00168
G2 X-372.20089 Y-17.71279 I-3.42624 J1.32408
G2 X-372.68779 Y-18.0963 I-3.0606 J3.3849
G0 Z3.0
G0 X-376.59078 Y13.99982
G0 Z1.0
G1 F300.0 Z-2.5
G2 F800.0 X-377.33673 Y13.95894 I-0.68105 J5.60057
G3 X-377.41267 Y13.95938 I-0.07593 J-6.59956
G1 X-381.06657
G1 Y14.57773
G1 X-377.41267
G3 X-377.26174 Y14.57946 I0.0 J6.6
G2 X-376.19917 Y14.5384 I0.19786 J-8.64978
G2 X-376.19931 Y14.39914 I-4.6303 J-0.06477
G3 X-376.20013 Y14.27222 I6.59915 J-0.10617
G2 X-376.20846 Y14.05968 I-2.51471 J-0.00791
G2 X-376.59078 Y13.99982 I-1.06336 J5.54071
G1 F300.0 X-376.44592 Y12.8086
G2 F800.0 X-377.35054 Y12.75902 I-0.8259 J6.79179
G3 X-377.41267 Y12.75938 I-0.06213 J-5.39964
G1 X-382.26657
G1 Y15.77773
G1 X-377.41267
G3 X-377.28918 Y15.77915 I0.0 J5.4
G2 X-375.30853 Y15.62409 I0.2253 J-9.84947
G3 X-375.22499 Y15.60964 I0.96212 J5.3136
G2 X-375.1055 Y15.58445 I-0.22404 J-1.35869
G2 X-374.99947 Y14.37983 I-5.72396 J-1.11082
G3 X-375.00014 Y14.27599 I5.3993 J-0.08687
G2 X-375.16586 Y13.16711 I-3.71471 J-0.01168
G2 X-375.64956 Y12.95357 I-0.81324 J1.18748
G3 X-375.67413 Y12.94773 I1.23643 J-5.25654
G2 X-376.44592 Y12.8086 I-1.5977 J6.65266
G1 F300.0 X-376.15621 Y10.42615
G2 F800.0 X-377.37815 Y10.35918 I-1.11562 J9.17424
G3 X-377.41267 Y10.35938 I-0.03452 J-2.9998
G1 X-384.66657
G1 Y18.17773
G1 X-377.41267
G3 X-377.34406 Y18.17852 I0.0 J3.0
G2 X-374.88092 Y17.98569 I0.28019 J-12.24884
G3 X-374.83451 Y17.97766 I0.53451 J2.952
G2 X-373.34797 Y17.38966 I-0.61452 J-3.72671
G2 X-372.86624 Y16.55823 I-1.12127 J-1.20493
G3 X-372.85213 Y16.5003 I2.92174 J0.68077
G2 X-372.59978 Y14.34123 I-7.97733 J-2.02667
G3 X-372.60015 Y14.28354 I2.99961 J-0.04826
G2 X-372.90452 Y12.35908 I-6.11469 J-0.01922
G2 X-373.59296 Y11.34689 I-2.12683 J0.70635
G2 X-375.10003 Y10.61733 I-2.38614 J3.0077
G3 X-375.11368 Y10.61408 I0.68691 J-2.9203
G2 X-376.15621 Y10.42615 I-2.15814 J8.98631
G1 F300.0 X-376.59078 Y13.99982
G1 Z-5.0
G2 F800.0 X-377.33673 Y13.95894 I-0.68105 J5.60057
G3 X-377.41267 Y13.95938 I-0.07593 J-6.59956
G1 X-381.06657
G1 Y14.57773
G1 X-377.41267
G3 X-377.26174 Y14.57946 I0.0 J6.6
G2 X-376.19917 Y14.5384 I0.19786 J-8.64978
G2 X-376.19931 Y14.39914 I-4.6303 J-0.06477
G3 X-376.20013 Y14.27222 I6.59915 J-0.10617
G2 X-376.20846 Y14.05968 I-2.51471 J-0.00791
G2 X-376.59078 Y13.99982 I-1.06336 J5.54071
G1 F300.0 X-376.44592 Y12.8086
G2 F800.0 X-377.35054 Y12.75902 I-0.8259 J6.79179
G3 X-377.41267 Y12.75938 I-0.06213 J-5.39964
G1 X-382.26657
G1 Y15.77773
G1 X-377.41267
G3 X-377.28918 Y15.77915 I0.0 J5.4
G2 X-375.30853 Y15.62409 I0.2253 J-9.84947
G3 X-375.22499 Y15.60964 I0.96212 J5.3136
G2 X-375.1055 Y15.58445 I-0.22404 J-1.35869
G2 X-374.99947 Y14.37983 I-5.72396 J-1.11082
G3 X-375.00014 Y14.27599 I5.3993 J-0.08687
G2 X-375.16586 Y13.16711 I-3.71471 J-0.01168
G2 X-375.64956 Y12.95357 I-0.81324 J1.18748
G3 X-375.67413 Y12.94773 I1.23643 J-5.25654
G2 X-376.44592 Y12.8086 I-1.5977 J6.65266
G1 F300.0 X-376.15621 Y10.42615
G2 F800.0 X-377.37815 Y10.35918 I-1.11562 J9.17424
G3 X-377.41267 Y10.35938 I-0.03452 J-2.9998
G1 X-384.66657
G1 Y18.17773
G1 X-377.41267
G3 X-377.34406 Y18.17852 I0.0 J3.0
G2 X-374.88092 Y17.98569 I0.28019 J-12.24884
G3 X-374.83451 Y17.97766 I0.53451 J2.952
G2 X-373.34797 Y17.38966 I-0.61452 J-3.72671
G2 X-372.86624 Y16.55823 I-1.12127 J-1.20493
G3 X-372.85213 Y16.5003 I2.92174 J0.68077
G2 X-372.59978 Y14.34123 I-7.97733 J-2.02667
G3 X-372.60015 Y14.28354 I2.99961 J-0.04826
G2 X-372.90452 Y12.35908 I-6.11469 J-0.01922
G2 X-373.59296 Y11.34689 I-2.12683 J0.70635
G2 X-375.10003 Y10.61733 I-2.38614 J3.0077
G3 X-375.11368 Y10.61408 I0.68691 J-2.9203
G2 X-376.15621 Y10.42615 I-2.15814 J8.98631
G0 Z3.0
G0 X-307.88805 Y-2.03555
G0 Z1.0
G1 F300.0 Z-2.5
G1 F800.0 X-306.62162 Y1.7307
G1 X-305.39924 Y-2.03555
G1 X-307.88805
G1 F300.0 X-310.16288 Y-1.27062
G1 F800.0 X-306.94217 Y8.30751
G3 X-306.93766 Y8.32104 I-2.84355 J0.95616
G3 X-306.58606 Y9.39573 I-156.15035 J51.68175
G3 X-306.24037 Y8.33038 I105.35542 J33.5967
G1 X-302.09705 Y-4.43555
G1 X-311.22711
G1 X-310.16288 Y-1.27062
G1 F300.0 X-307.88805 Y-2.03555
G1 Z-5.0
G1 F800.0 X-306.62162 Y1.7307
G1 X-305.39924 Y-2.03555
G1 X-307.88805
G1 F300.0 X-310.16288 Y-1.27062
G1 F800.0 X-306.94217 Y8.30751
G3 X-306.93766 Y8.32104 I-2.84355 J0.95616
G3 X-306.58606 Y9.39573 I-156.15035 J51.68175
G3 X-306.24037 Y8.33038 I105.35542 J33.5967
G1 X-302.09705 Y-4.43555
G1 X-311.22711
G1 X-310.16288 Y-1.27062
G0 Z3.0
G0 X-129.63142
G0 Z1.0
G1 F300.0 Z-2.5
G1 F800.0 Y-36.0
G3 X-126.63142 Y-39.0 I3.0 J0.0
G1 X-107.10017
G3 X-104.10017 Y-36.0 I0.0 J3.0
G1 Y-11.70508
G1 X-101.6486
G1 X-90.61497 Y-37.19185
G3 X-87.86189 Y-39.0 I2.75309 J1.19185
G1 X-66.27986
G3 X-63.59741 Y-34.6567 I0.0 J3.0
G1 X-78.0291 Y-5.83799
G3 X-74.99895 Y-3.74536 I-12.4501 J21.26812
G3 X-74.99054 Y-3.73855 I-1.88445 J2.33428
G3 X-70.3931 Y1.75667 I-11.88555 J14.6145
G3 X-70.35526 Y1.82728 I-2.62503 J1.45231
G3 X-67.38169 Y15.03905 I-23.62282 J12.25731
G3 X-68.08038 Y21.62339 I-33.12151 J-0.18545
G3 X-70.78939 Y28.27159 I-18.91153 J-3.83002
G3 X-78.93323 Y35.37369 I-16.29398 J-10.46374
G3 X-78.9446 Y35.37894 I-1.26264 J-2.72135
G3 X-87.76537 Y37.83021 I-12.04482 J-26.24647
G3 X-94.08905 Y38.14258 I-5.51026 J-47.3861
G1 X-126.63142
G3 X-129.63142 Y35.14258 I0.0 J-3.0
G1 Y-1.27062
G1 F300.0 Z-5.0
G1 F800.0 Y-36.0
G3 X-126.63142 Y-39.0 I3.0 J0.0
G1 X-107.10017
G3 X-104.10017 Y-36.0 I0.0 J3.0
G1 Y-11.70508
G1 X-101.6486
G1 X-90.61497 Y-37.19185
G3 X-87.86189 Y-39.0 I2.75309 J1.19185
G1 X-66.27986
G3 X-63.59741 Y-34.6567 I0.0 J3.0
G1 X-78.0291 Y-5.83799
G3 X-74.99895 Y-3.74536 I-12.4501 J21.26812
G3 X-74.99054 Y-3.73855 I-1.88445 J2.33428
G3 X-70.3931 Y1.75667 I-11.88555 J14.6145
G3 X-70.35526 Y1.82728 I-2.62503 J1.45231
G3 X-67.38169 Y15.03905 I-23.62282 J12.25731
G3 X-68.08038 Y21.62339 I-33.12151 J-0.18545
G3 X-70.78939 Y28.27159 I-18.91153 J-3.83002
G3 X-78.93323 Y35.37369 I-16.29398 J-10.46374
G3 X-78.9446 Y35.37894 I-1.26264 J-2.72135
G3 X-87.76537 Y37.83021 I-12.04482 J-26.24647
G3 X-94.08905 Y38.14258 I-5.51026 J-47.3861
G1 X-126.63142
G3 X-129.63142 Y35.14258 I0.0 J-3.0
G1 Y-1.27062
G0 Z3.0
G0 X-134.42662 Y-8.98665
G0 Z-1.5
G1 F300.0 Z-5.0
G1 F800.0 Y-15.19725
G3 X-137.81208 Y-13.75825 I-4.65597 J-6.25197
G3 X-134.42662 Y-8.98665 I-4.2002 J6.56685
G0 Z3.0
G0 Y9.15462
G0 Z-1.5
G1 F300.0 Z-5.0
G3 F800.0 X-137.12412 Y13.43153 I-7.58566 J-1.79525
G3 X-134.42662 Y15.36035 I-3.08151 J7.16027
G1 Y9.15462
G0 Z3.0
G0 X-133.41853 Y48.51386
G0 Z-1.5
G1 F300.0 Z-5.0
G3 F800.0 X-138.17757 Y50.0 I-6.78711 J-13.37128
G1 X-128.65948
G3 X-133.41853 Y48.51386 I2.02806 J-14.85742
G0 Z3.0
G0 X-191.69659 Y50.0
G0 Z-1.5
G1 F300.0 Z-5.0
G3 F800.0 X-193.20857 Y49.71392 I2.02806 J-14.85742
G3 X-194.72054 Y50.0 I-3.54004 J-14.57135
G1 X-191.69659
G0 Z3.0
G0 X-230.47171 Y47.6
G0 Z-1.5
G1 F300.0 Z-5.0
G3 F800.0 X-232.02693 Y45.8666 I12.14107 J-12.45742
G3 X-233.58214 Y47.6 I-13.69629 J-10.72402
G1 X-230.47171
G1 F300.0 Y50.0
G1 F800.0 X-220.3587
G3 X-231.71337 Y41.90708 I2.02806 J-14.85742
G1 X-232.02153 Y41.29742
G1 X-232.42496 Y42.07167
G3 X-243.69515 Y50.0 I-13.29826 J-6.92909
G1 X-230.47171
G0 Z3.0
G0 X-280.2764 Y47.6
G0 Z-1.5
G1 F300.0 Z-5.0
G3 F800.0 X-280.85505 Y47.00856 I12.14107 J-12.45742
G3 X-281.43371 Y47.6 I-12.71973 J-11.86598
G1 X-280.2764
G1 F300.0 X-278.6013 Y45.88126
G3 F800.0 X-280.85505 Y43.0839 I10.46598 J-10.73868
G3 X-291.54671 Y50.0 I-12.71973 J-7.94132
G1 X-270.16339
G3 X-278.6013 Y45.88126 I2.02806 J-14.85742
G0 Z3.0
G0 X-265.87086 Y1.30808
G0 Z-1.5
G1 F300.0 Z-5.0
G1 F800.0 X-257.20279 Y-13.66108
G1 Y-23.50406
G1 X-265.87086 Y1.30808
G0 Z3.0
G0 X-255.46443 Y-47.26274
G0 Z-1.5
G1 F300.0 Z-5.0
G3 F800.0 X-255.17034 Y-47.6 I13.25684 J11.26274
G1 X-255.75851
G3 X-255.46443 Y-47.26274 I-12.96275 J11.6
G1 F300.0 X-253.63539 Y-45.70883
G3 F800.0 X-247.57937 Y-50.0 I11.4278 J9.70883
G1 X-263.34948
G3 X-255.46443 Y-43.00802 I-5.37178 J14.0
G3 X-253.63539 Y-45.70883 I13.25684 J7.00802
G0 Z3.0
G0 X-209.71359 Y-47.6
G0 Z-1.5
G1 F300.0 Z-5.0
G3 F800.0 X-206.17243 Y-41.49673 I-12.96275 J11.6
G3 X-202.63128 Y-47.6 I16.50391 J5.49673
G1 X-209.71359
G1 F300.0 X-211.50205 Y-45.99956
G3 F800.0 X-207.68114 Y-36.0 I-11.17429 J9.99956
G1 Y-13.66108
G1 X-204.66373 Y-8.45021
G1 Y-36.0
G3 X-195.04031 Y-50.0 I14.9952 J0.0
G1 X-217.30456
G3 X-211.50205 Y-45.99956 I-5.37178 J14.0
G0 Z3.0
G0 X-133.71081 Y-50.0
G0 Z-1.5
G1 F300.0 Z-5.0
G3 F800.0 X-132.857 Y-49.64178 I-5.37178 J14.0
G3 X-132.0032 Y-50.0 I6.22559 J13.64178
G1 X-133.71081
G0 Z3.0
G0 X-101.72839
G0 Z-1.5
G1 F300.0 Z-5.0
G3 F800.0 X-97.48103 Y-47.5034 I-5.37178 J14.0
G3 X-93.23367 Y-50.0 I9.61914 J11.5034
G1 X-101.72839
G0 Z3.0
G0 X-68.27673 Y-9.2435
G0 Z-1.5
G1 F300.0 Z-5.0
G1 F800.0 X-68.91528 Y-7.96838
G3 X-68.27673 Y-7.33842 I-17.96081 J18.84433
G1 Y-9.2435
G1 F300.0 X-65.87673
G1 F800.0 Y-19.39599
G1 X-71.88664 Y-7.39477
G3 X-66.19725 Y-0.5647 I-14.98944 J18.27072
G3 X-66.09892 Y-0.38123 I-6.82089 J3.77368
G3 X-65.87673 Y0.05528 I-27.87916 J14.46582
G1 Y-9.2435
G0 Z3.0
G0 X-34.5275 Y-50.0
G0 Z-1.5
G1 F300.0 Z-5.0
G3 F800.0 X-28.09626 Y-45.23973 I-5.38516 J14.0
G3 X-21.66502 Y-50.0 I11.81641 J9.23973
G1 X-34.5275
G0 Z3.0
G0 X-21.74861 Y44.31952
G0 Z-1.5
G1 F300.0 Z-5.0
G3 F800.0 X-31.55059 Y50.0 I-11.86523 J-9.17694
G1 X-15.0
G1 Y49.24294
G3 X-21.74861 Y44.31952 I5.11663 J-14.10036
G0 Z3.0
G0 X-70.22468 Y47.6
G0 Z-1.5
G1 F300.0 Z-5.0
G3 F800.0 X-70.57032 Y47.25333 I12.14795 J-12.45742
G3 X-71.2043 Y47.6 I-16.51305 J-29.44548
G1 X-70.22468
G1 F300.0 X-68.5491 Y45.88173
G3 F800.0 X-70.07014 Y44.15136 I10.47237 J-10.73916
G3 X-73.88468 Y46.25473 I-17.01323 J-26.34351
G3 X-73.94153 Y46.28096 I-6.31119 J-13.60239
G3 X-86.4023 Y49.74773 I-17.04789 J-37.1485
G3 X-89.12135 Y50.0 I-6.87332 J-59.30362
G1 X-60.13998
G3 X-68.5491 Y45.88173 I2.06325 J-14.85742
G0 Z3.0
G0 X-306.80531 Y-45.2
G0 Z-1.5
G1 F300.0 Z-5.0
G1 F800.0 X-307.24854
G3 X-307.02693 Y-44.76482 I-17.52741 J9.2
G3 X-306.80531 Y-45.2 I17.74902 J8.76482
G1 F300.0 Y-47.6
G1 F800.0 X-311.8132
G3 X-308.21349 Y-41.31771 I-12.96275 J11.6
G1 X-307.40372 Y-38.79559
G1 X-306.58807
G1 X-305.96537 Y-40.91136
G3 X-302.24066 Y-47.6 I16.68747 J4.91136
G1 X-306.80531
G1 F300.0 Y-50.0
G1 F800.0 X-319.40417
G3 X-310.4986 Y-40.58403 I-5.37178 J14.0
G1 X-309.15382 Y-36.39559
G1 X-304.79264
G1 X-303.66301 Y-40.23375
G3 X-294.64968 Y-50.0 I14.38511 J4.23375
G1 X-306.80531
G0 Z3.0
G0 X-349.72781
G0 Z-1.5
G1 F300.0 Z-5.0
G1 F800.0 X-363.59779
G3 X-360.65645 Y-49.38933 I-10.37513 J57.36171
G3 X-354.18841 Y-47.32167 I-8.86197 J38.87243
G3 X-349.72781 Y-50.0 I9.83238 J11.32167
G0 Z3.0
G0 X-338.332 Y41.44724
G0 Z-1.5
G1 F300.0 Z-5.0
G3 F800.0 X-340.64776 Y44.0 I-27.22765 J-22.37301
G1 X-337.31716
G3 X-337.99472 Y42.36749 I19.03535 J-8.85742
G1 X-338.332 Y41.44724
G1 F300.0 X-337.20529 Y41.03429
G1 F800.0 X-337.95406 Y38.99131
G3 X-343.73757 Y45.2 I-27.6056 J-19.91708
G1 X-335.33168
G3 X-336.86801 Y41.95454 I17.04987 J-10.05742
G1 X-337.20529 Y41.03429
G1 F300.0 X-334.95187 Y40.2084
G1 F800.0 X-337.4056 Y33.51348
G3 X-337.98841 Y34.59683 I-28.04396 J-14.38841
G3 X-349.14289 Y46.1226 I-27.57125 J-15.5226
G3 X-351.75099 Y47.6 I-20.78816 J-33.65724
G1 X-330.42288
G3 X-334.61459 Y41.12865 I12.14107 J-12.45742
G1 X-334.95187 Y40.2084
G1 F300.0 X-332.69845 Y39.38251
G1 F800.0 X-337.33844 Y26.72247
G3 X-340.07956 Y33.41908 I-28.11113 J-7.59739
G3 X-350.39609 Y44.07575 I-25.48009 J-14.34485
G3 X-361.22442 Y48.59051 I-19.53496 J-31.61039
G3 X-370.36502 Y49.96189 I-12.03232 J-49.05053
G3 X-370.94832 Y50.0 I-5.22279 J-75.45689
G1 X-320.30987
G3 X-332.36117 Y40.30276 I2.02806 J-14.85742
G1 X-332.69845 Y39.38251
G0 Z3.0
G0 X-418.63157 Y47.52753
G0 Z-1.5
G1 F300.0 Z-5.0
G3 F800.0 X-420.59228 Y45.22437 I12.21499 J-12.38495
G2 X-418.63157 Y47.52753 I2.56741 J-0.19951
G1 F300.0 X-416.94628 Y45.81879
G3 F800.0 X-421.41177 Y35.14258 I10.5297 J-10.67621
G1 Y-36.0
G3 X-411.78835 Y-50.0 I14.9952 J0.0
G1 X-418.0
G3 X-418.01799 Y-50.00001 I0.0 J-15.0
G2 X-423.00001 Y-45.01799 I-0.00597 J4.97605
G3 X-423.0 Y-45.0 I-14.99999 J0.01799
G1 Y45.0
G3 X-423.00001 Y45.01867 I-15.0 J0.0
G2 X-418.01867 Y50.00001 I4.97515 J0.00619
G3 X-418.0 Y50.0 I0.01867 J14.99999
G1 X-408.44464
G3 X-416.94628 Y45.81879 I2.02806 J-14.85742
G1 F300.0 X-415.26098 Y44.11005
G3 F800.0 X-419.01177 Y35.14258 I8.84441 J-8.96747
G1 Y-36.0
G3 X-406.41657 Y-48.5952 I12.5952 J0.0
G1 X-377.09252
G3 X-370.52561 Y-48.42432 I0.96257 J89.27805
G3 X-361.19728 Y-47.05105 I-3.44732 J55.78603
G3 X-353.67558 Y-44.4726 I-8.32115 J36.53414
G3 X-344.35603 Y-48.5952 I9.31955 J8.4726
G1 X-324.77595
G3 X-312.78371 Y-39.85035 I0.0 J12.5952
G1 X-310.90392 Y-33.99559
G1 X-302.99721
G1 X-301.36066 Y-39.55613
G3 X-289.2779 Y-48.5952 I12.08276 J3.55613
G1 X-268.72126
G3 X-256.83076 Y-31.84608 I0.0 J12.5952
G1 X-276.497 Y24.44803
G1 X-254.80279 Y-13.01635
G1 Y-36.0
G3 X-242.20759 Y-48.5952 I12.5952 J0.0
G1 X-222.67634
G3 X-210.08114 Y-36.0 I0.0 J12.5952
G1 Y-13.01635
G1 X-202.26373 Y0.48378
G1 Y-36.0
G3 X-189.66853 Y-48.5952 I12.5952 J0.0
G1 X-139.08259
G3 X-132.857 Y-46.94902 I0.0 J12.5952
G3 X-126.63142 Y-48.5952 I6.22559 J10.94902
G1 X-107.10017
G3 X-97.48103 Y-44.13088 I0.0 J12.5952
G3 X-87.86189 Y-48.5952 I9.61914 J8.13088
G1 X-66.27986
G3 X-62.18566 Y-47.9112 I0.0 J12.5952
G3 X-58.07673 Y-48.6 I4.10893 J11.9112
G1 X-39.91267
G3 X-28.13526 Y-40.47803 I0.0 J12.6
G1 X-27.5222 Y-41.68944
G3 X-16.27986 Y-48.6 I11.24234 J5.68944
G1 X-12.6
G1 Y-52.4
G1 X-418.0
G3 X-418.01511 Y-52.40001 I0.0 J-12.6
G2 X-425.40001 Y-45.01511 I-0.00885 J7.37605
G3 X-425.4 Y-45.0 I-12.59999 J0.01511
G1 Y45.0
G3 X-425.40001 Y45.01568 I-12.6 J0.0
G2 X-418.01568 Y52.40001 I7.37515 J0.00918
G3 X-418.0 Y52.4 I0.01568 J12.59999
G1 X-12.6
G1 Y47.44623
G3 X-21.70258 Y39.50909 I2.71663 J-12.30365
G1 X-22.36951 Y40.82809
G3 X-33.61384 Y47.74258 I-11.24433 J-5.68551
G1 X-58.07673
G3 X-69.37418 Y40.72179 I0.0 J-12.6
G3 X-74.8948 Y44.07765 I-17.70918 J-22.91394
G3 X-74.94255 Y44.09969 I-5.30107 J-11.42531
G3 X-86.67511 Y47.36328 I-16.04688 J-34.96722
G3 X-94.16712 Y47.73778 I-6.60051 J-56.91917
G1 X-126.63142
G3 X-133.41853 Y45.75268 I0.0 J-12.5952
G3 X-140.20564 Y47.73778 I-6.78711 J-10.6101
G1 X-189.66853
G3 X-193.20857 Y47.23006 I0.0 J-12.5952
G3 X-196.74861 Y47.73778 I-3.54004 J-12.08748
G1 X-218.33064
G3 X-229.57145 Y40.82441 I0.0 J-12.5952
G1 X-231.98911 Y36.04137
G1 X-234.55336 Y40.96266
G3 X-245.72321 Y47.73778 I-11.16986 J-5.82008
G1 X-268.13532
G3 X-280.66867 Y36.38934 I0.0 J-12.5952
G1 X-281.68428 Y39.2965
G3 X-293.57478 Y47.73778 I-11.8905 J-4.15392
G1 X-318.28181
G3 X-330.10776 Y39.47686 I0.0 J-12.5952
G1 X-338.56217 Y16.4093
G3 X-338.54803 Y17.32063 I-39.06126 J1.06183
G3 X-338.54796 Y17.39143 I-12.59511 J0.04851
G3 X-339.23333 Y24.28746 I-35.67081 J-0.06313
G3 X-342.17072 Y32.24134 I-26.21624 J-5.16239
G3 X-351.64921 Y42.02886 I-23.38894 J-13.16711
G3 X-361.79146 Y46.25845 I-18.28184 J-29.56349
G3 X-370.51653 Y47.56663 I-11.46529 J-46.71847
G3 X-376.41273 Y47.73778 I-5.07128 J-73.06163
G1 X-406.41657
G3 X-415.26098 Y44.11005 I0.0 J-12.5952
G0 Z3.0
G0 X-410.20511 Y38.98383
G0 Z-1.5
G1 F300.0 Z-5.0
G3 F800.0 X-411.81177 Y35.14258 I3.78854 J-3.84125
G1 Y-36.0
G3 X-406.41657 Y-41.3952 I5.3952 J0.0
G1 X-377.05289
G3 X-370.97357 Y-41.23827 I0.92294 J82.07805
G3 X-362.8192 Y-40.03606 I-2.99936 J48.59998
G3 X-354.05018 Y-36.53601 I-6.69922 J29.51915
G3 X-353.98487 Y-36.49655 I-2.75701 J4.63757
G3 X-348.50934 Y-31.65401 I-11.06748 J18.03107
G1 X-349.42171 Y-34.14339
G3 X-344.35603 Y-41.3952 I5.06569 J-1.85661
G1 X-324.77595
G3 X-319.63903 Y-37.64931 I0.0 J5.3952
G1 X-316.15422 Y-26.79559
G1 X-297.61091
G1 X-294.45359 Y-37.52328
G3 X-289.2779 Y-41.3952 I5.17569 J1.52328
G1 X-268.72126
G3 X-263.62792 Y-34.22065 I0.0 J5.3952
G1 X-288.48144 Y36.92193
G3 X-293.57478 Y40.53778 I-5.09334 J-1.77935
G1 X-318.28181
G3 X-323.3475 Y36.99919 I0.0 J-5.3952
G1 X-343.81016 Y-18.83247
G3 X-343.74599 Y-16.91292 I-29.44751 J1.94534
G3 X-343.74607 Y-16.87723 I-5.3952 J0.00472
G3 X-344.42281 Y-10.50958 I-32.02587 J-0.18383
G3 X-347.2013 Y-3.72043 I-19.21339 J-3.90004
G3 X-351.83742 Y1.29267 I-16.65255 J-10.75001
G3 X-347.73616 Y7.09992 I-12.74616 J13.35357
G3 X-346.15102 Y12.41671 I-18.88434 J8.52484
G3 X-345.74798 Y17.34836 I-31.47241 J5.05442
G3 X-345.74794 Y17.37869 I-5.39516 J0.02078
G3 X-346.29636 Y22.88973 I-28.47082 J-0.05039
G3 X-348.44418 Y28.70811 I-19.1532 J-3.76466
G3 X-355.40792 Y35.88772 I-17.11548 J-9.63388
G3 X-363.49223 Y39.26219 I-14.52313 J-23.42236
G3 X-370.97025 Y40.38079 I-9.76451 J-39.72221
G3 X-376.37113 Y40.53778 I-4.61756 J-65.87579
G1 X-406.41657
G3 X-410.20511 Y38.98383 I0.0 J-5.3952
G1 F300.0 X-408.52319 Y37.2785
G3 F800.0 X-409.41657 Y35.14258 I2.10661 J-2.13592
G1 Y-36.0
G3 X-406.41657 Y-39.0 I3.0 J0.0
G1 X-377.03932
G3 X-371.12256 Y-38.84771 I0.90938 J79.68285
G3 X-363.35851 Y-37.70235 I-2.85036 J46.20942
G3 X-355.27416 Y-34.47716 I-6.15991 J27.18544
G3 X-355.23785 Y-34.45522 I-1.53304 J2.57872
G3 X-348.73496 Y-27.72502 I-9.8145 J15.98973
G3 X-346.68921 Y-22.31128 I-15.4849 J8.94484
G3 X-346.14118 Y-16.91083 I-26.56846 J5.42416
G3 X-346.14123 Y-16.89098 I-3.0 J0.00262
G3 X-346.76879 Y-10.99272 I-29.63071 J-0.17008
G3 X-349.21141 Y-5.02292 I-16.86741 J-3.4169
G3 X-355.97974 Y1.07482 I-14.64244 J-9.44752
G3 X-354.44297 Y2.18622 I-10.47127 J16.09706
G3 X-354.42119 Y2.20385 I-1.87594 J2.34112
G3 X-349.92067 Y8.08222 I-10.16239 J12.44238
G3 X-348.51664 Y12.79199 I-16.69983 J7.54255
G3 X-348.14316 Y17.35759 I-29.10678 J4.67914
G3 X-348.14314 Y17.37445 I-2.99998 J0.01155
G3 X-348.64602 Y22.42485 I-26.07562 J-0.04615
G3 X-350.53115 Y27.53273 I-16.80355 J-3.29978
G3 X-356.65796 Y33.84454 I-15.02851 J-8.4585
G3 X-364.05787 Y36.93473 I-13.27309 J-21.37917
G3 X-371.12084 Y37.99027 I-9.19887 J-37.39475
G3 X-376.35679 Y38.14258 I-4.46697 J-63.48526
G1 X-406.41657
G3 X-408.52319 Y37.2785 I0.0 J-3.0
G0 Z3.0
G0 X-331.09484 Y8.90051
G0 Z-1.5
G1 F300.0 Z-5.0
G1 F800.0 X-347.1728 Y-34.96763
G3 X-344.35603 Y-39.0 I2.81677 J-1.03237
G1 X-324.77595
G3 X-321.91957 Y-36.9171 I0.0 J3.0
G1 X-317.90082 Y-24.40039
G1 X-295.81907
G1 X-292.15585 Y-36.84702
G3 X-289.2779 Y-39.0 I2.87794 J0.84702
G1 X-268.72126
G3 X-265.88911 Y-35.01059 I0.0 J3.0
G1 X-290.74263 Y36.13198
G3 X-293.57478 Y38.14258 I-2.83215 J-0.98941
G1 X-318.28181
G3 X-321.09858 Y36.17494 I0.0 J-3.0
G1 X-331.09484 Y8.90051
G0 Z3.0
G0 X-335.59717 Y10.55064
G0 Z-1.5
G1 F300.0 Z-5.0
G1 F800.0 X-325.60092 Y37.82508
G2 X-318.28181 Y42.93778 I7.31911 J-2.6825
G1 X-293.57478
G2 X-286.21572 Y37.71345 I0.0 J-7.7952
G1 X-261.3622 Y-33.42913
G2 X-268.72126 Y-43.7952 I-7.35906 J-2.57087
G1 X-289.2779
G2 X-296.75595 Y-38.2009 I0.0 J7.7952
G1 X-299.40634 Y-29.19559
G1 X-314.40412
G1 X-317.35392 Y-38.38299
G2 X-324.77595 Y-43.7952 I-7.42203 J2.38299
G1 X-344.35603
G2 X-351.88981 Y-38.00182 I0.0 J7.7952
G2 X-352.72939 Y-38.54198 I-13.16254 J19.53634
G2 X-352.82375 Y-38.59898 I-4.07781 J6.64354
G2 X-362.27867 Y-42.37442 I-16.69467 J28.08208
G2 X-370.82426 Y-43.63362 I-11.69425 J49.73613
G2 X-377.06629 Y-43.7952 I-5.30569 J84.31648
G1 X-406.41657
G2 X-414.21177 Y-36.0 I0.0 J7.7952
G1 Y35.14258
G2 X-406.41657 Y42.93778 I7.7952 J0.0
G1 X-376.38524
G2 X-370.81917 Y42.77609 I0.79743 J-68.43278
G2 X-362.92537 Y41.59429 I-2.43758 J-43.2361
G2 X-354.15516 Y37.93486 I-7.00567 J-29.12893
G2 X-346.35302 Y29.88586 I-11.4045 J-18.86063
G2 X-343.94201 Y23.3556 I-19.09654 J-10.76078
G2 X-343.34795 Y17.38294 I-30.27675 J-6.0273
G2 X-343.34799 Y17.33912 I-7.79519 J-0.0138
G2 X-343.78067 Y12.04058 I-34.27543 J0.132
G2 X-345.54728 Y6.11563 I-22.83983 J3.58418
G2 X-348.39424 Y1.49112 I-19.03629 J8.5306
G2 X-345.18717 Y-2.41533 I-15.4596 J-15.96155
G2 X-342.50051 Y-8.28487 I-18.44903 J-11.99429
G1 X-335.59717 Y10.55064
G1 F300.0 X-337.85059 Y11.37654
G1 F800.0 X-327.85434 Y38.65097
G2 X-318.28181 Y45.33778 I9.57253 J-3.50839
G1 X-293.57478
G2 X-283.95 Y38.50498 I0.0 J-10.1952
G1 X-259.09648 Y-32.6376
G2 X-268.72126 Y-46.1952 I-9.62478 J-3.3624
G1 X-289.2779
G2 X-299.0583 Y-38.87851 I0.0 J10.1952
G1 X-301.20177 Y-31.59559
G1 X-312.65402
G1 X-315.06881 Y-39.11667
G2 X-324.77595 Y-46.1952 I-9.70713 J3.11667
G1 X-344.35603
G2 X-352.97793 Y-41.44104 I0.0 J10.1952
G2 X-361.73802 Y-44.71274 I-16.5405 J30.92413
G2 X-370.67494 Y-46.02897 I-12.2349 J52.07445
G2 X-377.07949 Y-46.1952 I-5.45501 J86.71183
G1 X-406.41657
G2 X-416.61177 Y-36.0 I0.0 J10.1952
G1 Y35.14258
G2 X-406.41657 Y45.33778 I10.1952 J0.0
G1 X-376.3991
G2 X-370.66792 Y45.17137 I0.81129 J-70.83278
G2 X-362.35844 Y43.92638 I-2.58883 J-45.63138
G2 X-352.90224 Y39.9819 I-7.5726 J-31.46102
G2 X-344.26187 Y31.0636 I-12.65741 J-20.90767
G2 X-341.58767 Y23.82152 I-21.18769 J-11.93853
G2 X-340.94795 Y17.38718 I-32.6311 J-6.49321
G2 X-340.94801 Y17.32988 I-10.19518 J-0.01804
G2 X-341.41034 Y11.66439 I-36.67541 J0.14125
G2 X-343.35841 Y5.13133 I-25.21016 J3.96037
G2 X-345.27147 Y1.68153 I-21.22516 J9.5149
G2 X-343.17303 Y-1.11024 I-18.58238 J-16.15197
G2 X-342.703 Y-1.86307 I-20.46317 J-13.29938
G1 X-337.85059 Y11.37654
G0 Z3.0
G0 Y54.8
G0 Z-1.5
G1 F300.0 Z-5.0
G1 F800.0 X-10.2
G1 Y45.33766
G3 X-20.08337 Y35.14258 I0.31663 J-10.19508
G1 Y30.98798
G1 X-24.51129 Y39.74514
G3 X-33.61384 Y45.34258 I-9.10255 J-4.60256
G1 X-58.07673
G3 X-68.18942 Y36.47429 I0.0 J-10.2
G3 X-75.90491 Y41.90057 I-18.89394 J-18.66645
G3 X-75.94356 Y41.91841 I-4.29096 J-9.24823
G3 X-86.94789 Y44.97883 I-15.04586 J-32.78594
G3 X-94.14825 Y45.33778 I-6.32773 J-54.53472
G1 X-126.63142
G3 X-133.41853 Y42.75029 I0.0 J-10.1952
G3 X-140.20564 Y45.33778 I-6.78711 J-7.60771
G1 X-189.66853
G3 X-193.20857 Y44.70345 I0.0 J-10.1952
G3 X-196.74861 Y45.33778 I-3.54004 J-9.56087
G1 X-218.33064
G3 X-227.42953 Y39.74174 I0.0 J-10.1952
G1 X-231.95668 Y30.78532
G1 X-236.68176 Y39.85365
G3 X-245.72321 Y45.33778 I-9.04145 J-4.71107
G1 X-268.13532
G3 X-276.95808 Y30.03365 I0.0 J-10.1952
G1 X-252.40279 Y-12.37162
G1 Y-36.0
G3 X-242.20759 Y-46.1952 I10.1952 J0.0
G1 X-222.67634
G3 X-212.48114 Y-36.0 I0.0 J10.1952
G1 Y-12.37162
G1 X-199.86373 Y9.41777
G1 Y-36.0
G3 X-189.66853 Y-46.1952 I10.1952 J0.0
G1 X-139.08259
G3 X-132.857 Y-44.07367 I0.0 J10.1952
G3 X-126.63142 Y-46.1952 I6.22559 J8.07367
G1 X-107.10017
G3 X-97.49353 Y-39.41389 I0.0 J10.1952
G1 X-97.21797 Y-40.0504
G3 X-87.86189 Y-46.1952 I9.35609 J4.0504
G1 X-66.27986
G3 X-62.18426 Y-45.33639 I0.0 J10.1952
G3 X-58.07673 Y-46.2 I4.10753 J9.33639
G1 X-39.91267
G3 X-29.71267 Y-36.0 I0.0 J10.2
G1 Y-32.04597
G1 X-25.3808 Y-40.60574
G3 X-16.27986 Y-46.2 I9.10094 J4.60574
G1 X-10.2
G1 Y-54.8
G1 X-418.0
G3 X-418.01223 Y-54.80001 I0.0 J-10.2
G2 X-427.80001 Y-45.01223 I-0.01173 J9.77605
G3 X-427.8 Y-45.0 I-10.19999 J0.01223
G1 Y45.0
G3 X-427.80001 Y45.01269 I-10.2 J0.0
G2 X-418.01269 Y54.80001 I9.77515 J0.01217
G3 X-418.0 Y54.8 I0.01269 J10.19999
G1 X-337.85059
G1 F300.0 Y57.2
G1 F800.0 X-7.8
G1 Y42.94258
G1 X-9.88337
G3 X-17.68337 Y35.14258 I0.0 J-7.8
G1 Y20.92268
G1 X-26.65306 Y38.66218
G3 X-33.61384 Y42.94258 I-6.96078 J-3.5196
G1 X-58.07673
G3 X-65.87673 Y35.14258 I0.0 J-7.8
G1 Y29.39118
G3 X-66.75867 Y30.86915 I-21.11518 J-11.59782
G3 X-76.91502 Y39.7235 I-20.3247 J-13.0613
G3 X-76.94458 Y39.73713 I-3.28085 J-7.07115
G3 X-87.22062 Y42.59438 I-14.04485 J-30.60466
G3 X-94.12896 Y42.93778 I-6.055 J-52.15026
G1 X-126.63142
G3 X-133.41853 Y38.97667 I0.0 J-7.7952
G3 X-140.20564 Y42.93778 I-6.78711 J-3.8341
G1 X-189.66853
G3 X-193.20857 Y42.0876 I0.0 J-7.7952
G3 X-196.74861 Y42.93778 I-3.54004 J-6.94502
G1 X-218.33064
G3 X-225.2876 Y38.65908 I0.0 J-7.7952
G1 X-231.92426 Y25.52926
G1 X-238.81016 Y38.74464
G3 X-245.72321 Y42.93778 I-6.91305 J-3.60206
G1 X-268.13532
G3 X-274.88116 Y31.23632 I0.0 J-7.7952
G1 X-250.00279 Y-11.72689
G1 Y-36.0
G3 X-242.20759 Y-43.7952 I7.7952 J0.0
G1 X-222.67634
G3 X-214.88114 Y-36.0 I0.0 J7.7952
G1 Y-11.72689
G1 X-197.46373 Y18.35177
G1 Y-36.0
G3 X-189.66853 Y-43.7952 I7.7952 J0.0
G1 X-139.08259
G3 X-132.857 Y-40.69119 I0.0 J7.7952
G3 X-126.63142 Y-43.7952 I6.22559 J4.69119
G1 X-107.10017
G3 X-99.30497 Y-36.0 I0.0 J7.7952
G1 Y-29.18861
G1 X-95.0155 Y-39.09692
G3 X-87.86189 Y-43.7952 I7.15362 J3.09692
G1 X-66.27986
G3 X-62.18286 Y-42.63172 I0.0 J7.7952
G3 X-58.07673 Y-43.8 I4.10613 J6.63172
G1 X-39.91267
G3 X-32.11267 Y-36.0 I0.0 J7.8
G1 Y-21.98846
G1 X-23.2394 Y-39.52204
G3 X-16.27986 Y-43.8 I6.95954 J3.52204
G1 X-7.8
G1 Y-57.2
G1 X-418.0
G3 X-418.00936 Y-57.20001 I0.0 J-7.8
G2 X-430.20001 Y-45.00936 I-0.0146 J12.17605
G3 X-430.2 Y-45.0 I-7.79999 J0.00936
G1 Y45.0
G3 X-430.20001 Y45.00971 I-7.8 J0.0
G2 X-418.00971 Y57.20001 I12.17514 J0.01515
G3 X-418.0 Y57.2 I0.00971 J7.79999
G1 X-337.85059
G0 Z3.0
G0 X-273.2792 Y36.77006
G0 Z-1.5
G1 F300.0 Z-5.0
G3 F800.0 X-272.80424 Y32.43899 I5.14388 J-1.62749
G1 X-247.60279 Y-11.08216
G1 Y-36.0
G3 X-242.20759 Y-41.3952 I5.3952 J0.0
G1 X-222.67634
G3 X-217.28114 Y-36.0 I0.0 J5.3952
G1 Y-11.08216
G1 X-195.06373 Y27.28576
G1 Y-36.0
G3 X-189.66853 Y-41.3952 I5.3952 J0.0
G1 X-139.08259
G3 X-133.68739 Y-36.0 I0.0 J5.3952
G1 Y-21.44922
G3 X-139.08259 Y-16.05402 I-5.3952 J0.0
G1 X-165.1327
G1 Y-12.58661
G1 X-142.01228
G3 X-136.61708 Y-7.19141 I0.0 J5.3952
G1 Y7.35938
G3 X-142.01228 Y12.75458 I-5.3952 J0.0
G1 X-165.1327
G1 Y15.1966
G1 X-140.20564
G3 X-134.81044 Y20.5918 I0.0 J5.3952
G1 Y35.14258
G3 X-140.20564 Y40.53778 I-5.3952 J0.0
G1 X-189.66853
G3 X-193.20857 Y39.21398 I0.0 J-5.3952
G3 X-196.74861 Y40.53778 I-3.54004 J-4.0714
G1 X-218.33064
G3 X-223.14568 Y37.57641 I0.0 J-5.3952
G1 X-231.89183 Y20.27321
G1 X-240.93857 Y37.63563
G3 X-245.72321 Y40.53778 I-4.78465 J-2.49305
G1 X-268.13532
G3 X-273.2792 Y36.77006 I0.0 J-5.3952
G1 F300.0 X-270.99558 Y36.04754
G3 F800.0 X-270.73147 Y33.63925 I2.86025 J-0.90496
G1 X-245.20759 Y-10.43872
G1 Y-36.0
G3 X-242.20759 Y-39.0 I3.0 J0.0
G1 X-222.67634
G3 X-219.67634 Y-36.0 I0.0 J3.0
G1 Y-10.43872
G1 X-194.15246 Y33.63925
G3 X-196.74861 Y38.14258 I-2.59615 J1.50333
G1 X-218.33064
G3 X-221.00804 Y36.49591 I0.0 J-3.0
G1 X-230.04124 Y18.62482
G3 X-230.10811 Y18.48349 I2.6774 J-1.35333
G2 X-231.51493 Y15.33028 I-419.69427 J185.35778
G3 X-231.54127 Y15.27008 I2.73507 J-1.23263
G3 X-231.81705 Y14.61806 I238.8046 J-101.39012
G3 X-233.38357 Y17.9525 I-51.24297 J-22.0388
G3 X-233.39474 Y17.97415 I-2.67167 J-1.36461
G1 X-243.06271 Y36.52884
G3 X-245.72321 Y38.14258 I-2.6605 J-1.38626
G1 X-268.13532
G3 X-270.99558 Y36.04754 I0.0 J-3.0
G0 Z3.0
G0 X-192.66834 Y35.17596
G0 Z-1.5
G1 F300.0 Z-5.0
G3 F800.0 X-192.66853 Y35.14258 I2.99981 J-0.03338
G1 Y-36.0
G3 X-189.66853 Y-39.0 I3.0 J0.0
G1 X-139.08259
G3 X-136.08259 Y-36.0 I0.0 J3.0
G1 Y-21.44922
G3 X-139.08259 Y-18.44922 I-3.0 J0.0
G1 X-167.5279
G1 Y-10.19141
G1 X-142.01228
G3 X-139.01228 Y-7.19141 I0.0 J3.0
G1 Y7.35938
G3 X-142.01228 Y10.35938 I-3.0 J0.0
G1 X-167.5279
G1 Y17.5918
G1 X-140.20564
G3 X-137.20564 Y20.5918 I0.0 J3.0
G1 Y35.14258
G3 X-140.20564 Y38.14258 I-3.0 J0.0
G1 X-189.66853
G3 X-192.66834 Y35.17596 I0.0 J-3.0
G0 Z3.0
G0 Y59.6
G0 Z-1.5
G1 F300.0 Z-5.0
G1 F800.0 X-5.4
G1 Y40.54258
G1 X-9.88337
G3 X-15.28337 Y35.14258 I0.0 J-5.4
G1 Y10.85738
G1 X-28.79484 Y37.57923
G3 X-33.61384 Y40.54258 I-4.819 J-2.43665
G1 X-58.07673
G3 X-63.47673 Y35.14258 I0.0 J-5.4
G1 Y-29.54848
G1 X-74.92489 Y-6.6876
G3 X-73.4944 Y-5.60905 I-15.55431 J22.11773
G3 X-73.47928 Y-5.5968 I-3.38899 J4.19797
G3 X-68.29728 Y0.59715 I-13.39681 J16.47274
G3 X-68.22922 Y0.72413 I-4.72086 J2.61183
G3 X-64.98674 Y15.08857 I-25.74886 J13.36046
G3 X-65.73429 Y22.10597 I-35.51645 J-0.23496
G3 X-68.77604 Y29.56907 I-21.25762 J-4.3126
G3 X-77.92514 Y37.54642 I-18.30732 J-11.76122
G3 X-77.94559 Y37.55586 I-2.27073 J-4.89407
G3 X-87.4933 Y40.20991 I-13.04383 J-28.42339
G3 X-94.10922 Y40.53778 I-5.78233 J-49.7658
G1 X-126.63142
G3 X-132.02662 Y35.14258 I0.0 J-5.3952
G1 Y-36.0
G3 X-126.63142 Y-41.3952 I5.3952 J0.0
G1 X-107.10017
G3 X-101.70497 Y-36.0 I0.0 J5.3952
G1 Y-17.6038
G1 X-92.81304 Y-38.14343
G3 X-87.86189 Y-41.3952 I4.95115 J2.14343
G1 X-66.27986
G3 X-62.18145 Y-39.50874 I0.0 J5.3952
G3 X-58.07673 Y-41.4 I4.10472 J3.50874
G1 X-39.91267
G3 X-34.51267 Y-36.0 I0.0 J5.4
G1 Y-11.93095
G1 X-21.098 Y-38.43833
G3 X-16.27986 Y-41.4 I4.81815 J2.43833
G1 X-5.4
G1 Y-59.6
G1 X-418.0
G3 X-418.00648 I0.0 J-5.4
G2 X-432.6 Y-45.00648 I-0.01748 J14.57604
G3 Y-45.0 I-5.4 J0.00648
G1 Y45.0
G3 Y45.00672 I-5.4 J0.0
G2 X-418.00672 Y59.6 I14.57514 J0.01814
G3 X-418.0 I0.00672 J5.4
G1 X-192.66834
G1 F300.0 Y62.0
G1 F800.0 X-3.0
G1 Y38.14258
G1 X-9.88337
G3 X-12.88337 Y35.14258 I0.0 J-3.0
G1 Y0.77352
G3 X-13.40529 Y1.82428 I-93.56575 J-45.8199
G3 X-13.40732 Y1.8283 I-2.67925 J-1.34967
G1 X-30.93662 Y36.49627
G3 X-33.61384 Y38.14258 I-2.67722 J-1.35369
G1 X-58.07673
G3 X-61.07673 Y35.14258 I0.0 J-3.0
G1 Y-36.0
G3 X-58.07673 Y-39.0 I3.0 J0.0
G1 X-39.91267
G3 X-36.91267 Y-36.0 I0.0 J3.0
G1 Y-1.87345
G1 X-18.9566 Y-37.35463
G3 X-16.27986 Y-39.0 I2.67675 J1.35463
G1 X-3.0
G1 Y-62.0
G1 X-418.0
G3 X-418.0036 I0.0 J-3.0
G2 X-435.0 Y-45.0036 I-0.02036 J16.97604
G3 Y-45.0 I-3.0 J0.0036
G1 Y45.0
G3 Y45.00373 I-3.0 J0.0
G2 X-418.00373 Y62.0 I16.97514 J0.02113
G3 X-418.0 I0.00373 J3.0
G1 X-192.66834
G0 Z3.0
G0 X-99.69079 Y13.37773
G0 Z1.0
G1 F300.0 Z-2.5
G1 F800.0 X-97.4137
G2 X-96.95311 Y13.35761 I-0.06492 J-6.76641
G2 X-97.39459 Y13.35226 I-0.33606 J9.5078
G3 X-97.48103 Y13.35273 I-0.08643 J-7.79952
G1 X-99.69079
G1 Y13.37773
G1 F300.0 X-102.09079
G1 F800.0 Y15.77773
G1 X-97.40306
G2 X-95.18845 Y15.48735 I-0.07557 J-9.16641
G3 X-95.09733 Y15.46468 I1.34911 J5.22876
G2 X-94.68562 Y15.24025 I-0.20932 J-0.8738
G2 X-94.23202 Y13.92159 I-1.42344 J-1.22699
G3 X-94.238 Y13.7281 I5.39357 J-0.26339
G2 X-94.46264 Y11.88387 I-8.59613 J0.11128
G3 X-94.4819 Y11.79826 I5.25844 J-1.22832
G2 X-94.64288 Y11.46515 I-0.77023 J0.16677
G2 X-95.18327 Y11.13927 I-0.80039 J0.71626
G2 X-97.42119 Y10.9524 I-2.1059 J11.72613
G3 X-97.48103 Y10.95273 I-0.05984 J-5.39967
G1 X-102.09079
G1 Y13.37773
G1 F300.0 X-104.49079
G1 F800.0 Y18.17773
G1 X-97.39374
G2 X-94.58885 Y17.81124 I-0.08488 J-11.56641
G3 X-94.53822 Y17.79865 I0.74951 J2.90486
G2 X-92.93517 Y16.88355 I-0.76843 J-3.20777
G2 X-91.83488 Y13.80453 I-3.1739 J-2.8703
G3 X-91.8382 Y13.69704 I2.99643 J-0.14633
G2 X-92.12555 Y11.33795 I-10.99593 J0.14234
G3 X-92.13626 Y11.29039 I2.92136 J-0.6824
G2 X-92.82229 Y9.90113 I-3.11588 J0.67464
G2 X-94.69929 Y8.78792 I-2.62099 J2.28028
G2 X-97.44778 Y8.55255 I-2.58987 J14.07748
G3 X-97.48103 Y8.55273 I-0.03324 J-2.99982
G1 X-104.49079
G1 Y13.37773
G0 Z3.0
G0 X-99.69079
G0 Z-1.5
G1 F300.0 Z-5.0
G1 F800.0 X-97.4137
G2 X-96.95311 Y13.35761 I-0.06492 J-6.76641
G2 X-97.39459 Y13.35226 I-0.33606 J9.5078
G3 X-97.48103 Y13.35273 I-0.08643 J-7.79952
G1 X-99.69079
G1 Y13.37773
G1 F300.0 X-102.09079
G1 F800.0 Y15.77773
G1 X-97.40306
G2 X-95.18845 Y15.48735 I-0.07557 J-9.16641
G3 X-95.09733 Y15.46468 I1.34911 J5.22876
G2 X-94.68562 Y15.24025 I-0.20932 J-0.8738
G2 X-94.23202 Y13.92159 I-1.42344 J-1.22699
G3 X-94.238 Y13.7281 I5.39357 J-0.26339
G2 X-94.46264 Y11.88387 I-8.59613 J0.11128
G3 X-94.4819 Y11.79826 I5.25844 J-1.22832
G2 X-94.64288 Y11.46515 I-0.77023 J0.16677
G2 X-95.18327 Y11.13927 I-0.80039 J0.71626
G2 X-97.42119 Y10.9524 I-2.1059 J11.72613
G3 X-97.48103 Y10.95273 I-0.05984 J-5.39967
G1 X-102.09079
G1 Y13.37773
G1 F300.0 X-104.49079
G1 F800.0 Y18.17773
G1 X-97.39374
G2 X-94.58885 Y17.81124 I-0.08488 J-11.56641
G3 X-94.53822 Y17.79865 I0.74951 J2.90486
G2 X-92.93517 Y16.88355 I-0.76843 J-3.20777
G2 X-91.83488 Y13.80453 I-3.1739 J-2.8703
G3 X-91.8382 Y13.69704 I2.99643 J-0.14633
G2 X-92.12555 Y11.33795 I-10.99593 J0.14234
G3 X-92.13626 Y11.29039 I2.92136 J-0.6824
G2 X-92.82229 Y9.90113 I-3.11588 J0.67464
G2 X-94.69929 Y8.78792 I-2.62099 J2.28028
G2 X-97.44778 Y8.55255 I-2.58987 J14.07748
G3 X-97.48103 Y8.55273 I-0.03324 J-2.99982
G1 X-104.49079
G1 Y13.37773
( Profil2 )
G0 Z3.0
( T2 : 2.0 )
T2 M6
M3 S1000
G0 X-299.34522 Y-6.43555
G0 Z1.0
G1 F300.0 Z-2.5
G1 F800.0 X-314.00967
G1 X-308.83787 Y8.94495
G3 X-308.83636 Y8.94946 I-0.94785 J0.31872
G3 X-307.16623 Y14.30364 I-154.25164 J51.05333
G3 X-306.53685 Y16.61338 I-54.07082 J15.97438
G3 X-306.21402 Y15.26787 I52.44921 J11.87267
G3 X-306.21153 Y15.25825 I0.96932 J0.2458
G3 X-304.33961 Y8.95256 I104.9809 J27.73418
G1 X-299.34522 Y-6.43555
G1 F300.0 Z-5.0
G1 F800.0 X-314.00967
G1 X-308.83787 Y8.94495
G3 X-308.83636 Y8.94946 I-0.94785 J0.31872
G3 X-307.16623 Y14.30364 I-154.25164 J51.05333
G3 X-306.53685 Y16.61338 I-54.07082 J15.97438
G3 X-306.21402 Y15.26787 I52.44921 J11.87267
G3 X-306.21153 Y15.25825 I0.96932 J0.2458
G3 X-304.33961 Y8.95256 I104.9809 J27.73418
G1 X-299.34522 Y-6.43555
G0 Z3.0
G0 X-368.94063 Y-13.21684
G0 Z1.0
G1 F300.0 Z-2.5
G2 F800.0 X-368.89116 Y-14.31335 I-10.49975 J-1.02308
G3 X-368.89118 Y-14.3206 I0.99998 J-0.00696
G2 X-369.37291 Y-17.0223 I-7.80418 J-0.00226
G2 X-370.85769 Y-19.19462 I-5.29839 J2.02786
G2 X-373.31227 Y-20.59519 I-4.4038 J4.86672
G2 X-376.24129 Y-21.03516 I-2.93923 J9.59778
G1 X-386.66657
G1 Y-7.60547
G1 X-377.02204
G3 X-377.00089 Y-7.60525 I0.0 J1.0
G2 X-373.7172 Y-7.88011 I0.33358 J-15.76693
G3 X-373.70804 Y-7.88181 I0.18707 J0.98235
G2 X-370.85749 Y-9.03606 I-1.33816 J-7.40171
G2 X-369.32262 Y-11.25255 I-2.43715 J-3.32735
G3 X-369.31899 Y-11.2652 I0.96305 J0.26934
G2 X-368.94063 Y-13.21684 I-10.12139 J-2.97473
G1 F300.0 Z-5.0
G2 F800.0 X-368.89116 Y-14.31335 I-10.49975 J-1.02308
G3 X-368.89118 Y-14.3206 I0.99998 J-0.00696
G2 X-369.37291 Y-17.0223 I-7.80418 J-0.00226
G2 X-370.85769 Y-19.19462 I-5.29839 J2.02786
G2 X-373.31227 Y-20.59519 I-4.4038 J4.86672
G2 X-376.24129 Y-21.03516 I-2.93923 J9.59778
G1 X-386.66657
G1 Y-7.60547
G1 X-377.02204
G3 X-377.00089 Y-7.60525 I0.0 J1.0
G2 X-373.7172 Y-7.88011 I0.33358 J-15.76693
G3 X-373.70804 Y-7.88181 I0.18707 J0.98235
G2 X-370.85749 Y-9.03606 I-1.33816 J-7.40171
G2 X-369.32262 Y-11.25255 I-2.43715 J-3.32735
G3 X-369.31899 Y-11.2652 I0.96305 J0.26934
G2 X-368.94063 Y-13.21684 I-10.12139 J-2.97473
G0 Z3.0
G0 X-374.53477 Y8.69678
G0 Z1.0
G1 F300.0 Z-2.5
G2 F800.0 X-374.64209 Y8.67046 I-1.44433 J5.65781
G3 X-374.64664 Y8.66938 I0.22897 J-0.97343
G2 X-377.40116 Y8.35931 I-2.62518 J10.93101
G3 X-377.41267 Y8.35938 I-0.01151 J-0.99993
G1 X-386.66657
G1 Y20.17773
G1 X-377.41267
G3 X-377.3898 Y20.178 I0.0 J1.0
G2 X-374.52458 Y19.95368 I0.32592 J-14.24832
G3 X-374.50911 Y19.95101 I0.17817 J0.984
G2 X-372.11599 Y18.96953 I-0.93992 J-5.70006
G2 X-370.91841 Y17.01207 I-2.35324 J-2.7848
G3 X-370.91371 Y16.99276 I0.97391 J0.22692
G2 X-370.60004 Y14.30906 I-9.91576 J-2.51913
G3 X-370.60016 Y14.28983 I0.99987 J-0.01609
G2 X-371.00516 Y11.73263 I-8.11468 J-0.02551
G2 X-372.33056 Y9.79553 I-4.02619 J1.3328
G2 X-374.53477 Y8.69678 I-3.64855 J4.55906
G1 F300.0 Z-5.0
G2 F800.0 X-374.64209 Y8.67046 I-1.44433 J5.65781
G3 X-374.64664 Y8.66938 I0.22897 J-0.97343
G2 X-377.40116 Y8.35931 I-2.62518 J10.93101
G3 X-377.41267 Y8.35938 I-0.01151 J-0.99993
G1 X-386.66657
G1 Y20.17773
G1 X-377.41267
G3 X-377.3898 Y20.178 I0.0 J1.0
G2 X-374.52458 Y19.95368 I0.32592 J-14.24832
G3 X-374.50911 Y19.95101 I0.17817 J0.984
G2 X-372.11599 Y18.96953 I-0.93992 J-5.70006
G2 X-370.91841 Y17.01207 I-2.35324 J-2.7848
G3 X-370.91371 Y16.99276 I0.97391 J0.22692
G2 X-370.60004 Y14.30906 I-9.91576 J-2.51913
G3 X-370.60016 Y14.28983 I0.99987 J-0.01609
G2 X-371.00516 Y11.73263 I-8.11468 J-0.02551
G2 X-372.33056 Y9.79553 I-4.02619 J1.3328
G2 X-374.53477 Y8.69678 I-3.64855 J4.55906
G0 Z3.0
G0 X-106.49079
G0 Z1.0
G1 F300.0 Z-2.5
G1 F800.0 Y20.17773
G1 X-97.3867
G2 X-94.08918 Y19.74782 I-0.09193 J-13.56641
G3 X-94.0723 Y19.74362 I0.24984 J0.96829
G2 X-91.47368 Y18.24911 I-1.23435 J-5.15274
G2 X-89.83726 Y13.70698 I-4.63539 J-4.23586
G3 X-89.83837 Y13.67115 I0.99881 J-0.04878
G2 X-90.17798 Y10.88302 I-12.99576 J0.16823
G3 X-90.18155 Y10.86716 I0.97379 J-0.22747
G2 X-91.3057 Y8.59727 I-5.07058 J1.09786
G2 X-94.30679 Y6.8266 I-4.13757 J3.58414
G2 X-97.46995 Y6.55267 I-2.98238 J16.03881
G3 X-97.48103 Y6.55273 I-0.01108 J-0.99994
G1 X-106.49079
G1 Y8.69678
G1 F300.0 Z-5.0
G1 F800.0 Y20.17773
G1 X-97.3867
G2 X-94.08918 Y19.74782 I-0.09193 J-13.56641
G3 X-94.0723 Y19.74362 I0.24984 J0.96829
G2 X-91.47368 Y18.24911 I-1.23435 J-5.15274
G2 X-89.83726 Y13.70698 I-4.63539 J-4.23586
G3 X-89.83837 Y13.67115 I0.99881 J-0.04878
G2 X-90.17798 Y10.88302 I-12.99576 J0.16823
G3 X-90.18155 Y10.86716 I0.97379 J-0.22747
G2 X-91.3057 Y8.59727 I-5.07058 J1.09786
G2 X-94.30679 Y6.8266 I-4.13757 J3.58414
G2 X-97.46995 Y6.55267 I-2.98238 J16.03881
G3 X-97.48103 Y6.55273 I-0.01108 J-0.99994
G1 X-106.49079
G1 Y8.69678
G0 Z3.0
G0 X-106.10017 Y-9.70508
G0 Z1.0
G1 F300.0 Z-2.5
G1 F800.0 X-100.33506
G1 X-88.77958 Y-36.39728
G3 X-87.86189 Y-37.0 I0.9177 J0.39728
G1 X-66.27986
G3 X-65.38571 Y-35.55223 I0.0 J1.0
G1 X-80.6909 Y-4.98923
G3 X-76.25525 Y-2.18918 I-9.7883 J20.41936
G3 X-76.25244 Y-2.18691 I-0.62815 J0.77809
G3 X-72.14313 Y2.72488 I-10.62364 J13.06285
G3 X-72.13051 Y2.74842 I-0.87501 J0.4841
G3 X-69.3815 Y14.99746 I-21.84757 J11.33618
G3 X-70.03941 Y21.22057 I-31.1217 J-0.14385
G3 X-72.47053 Y27.18819 I-16.9525 J-3.42721
G3 X-79.77499 Y33.55946 I-14.61283 J-9.38034
G3 X-79.77878 Y33.56121 I-0.42088 J-0.90712
G3 X-87.99249 Y35.84315 I-11.21064 J-24.42874
G3 X-94.07182 Y36.14258 I-5.28313 J-45.39903
G1 X-126.63142
G3 X-127.63142 Y35.14258 I0.0 J-1.0
G1 Y-36.0
G3 X-126.63142 Y-37.0 I1.0 J0.0
G1 X-107.10017
G3 X-106.10017 Y-36.0 I0.0 J1.0
G1 Y-9.70508
G1 F300.0 Z-5.0
G1 F800.0 X-100.33506
G1 X-88.77958 Y-36.39728
G3 X-87.86189 Y-37.0 I0.9177 J0.39728
G1 X-66.27986
G3 X-65.38571 Y-35.55223 I0.0 J1.0
G1 X-80.6909 Y-4.98923
G3 X-76.25525 Y-2.18918 I-9.7883 J20.41936
G3 X-76.25244 Y-2.18691 I-0.62815 J0.77809
G3 X-72.14313 Y2.72488 I-10.62364 J13.06285
G3 X-72.13051 Y2.74842 I-0.87501 J0.4841
G3 X-69.3815 Y14.99746 I-21.84757 J11.33618
G3 X-70.03941 Y21.22057 I-31.1217 J-0.14385
G3 X-72.47053 Y27.18819 I-16.9525 J-3.42721
G3 X-79.77499 Y33.55946 I-14.61283 J-9.38034
G3 X-79.77878 Y33.56121 I-0.42088 J-0.90712
G3 X-87.99249 Y35.84315 I-11.21064 J-24.42874
G3 X-94.07182 Y36.14258 I-5.28313 J-45.39903
G1 X-126.63142
G3 X-127.63142 Y35.14258 I0.0 J-1.0
G1 Y-36.0
G3 X-126.63142 Y-37.0 I1.0 J0.0
G1 X-107.10017
G3 X-106.10017 Y-36.0 I0.0 J1.0
G1 Y-9.70508
G0 Z3.0
G0 X-138.14053 Y-21.11378
G0 Z1.0
G1 F300.0 Z-2.5
G3 F800.0 X-139.08259 Y-20.44922 I-0.94206 J-0.33544
G1 X-169.5279
G1 Y-8.19141
G1 X-142.01228
G3 X-141.01228 Y-7.19141 I0.0 J1.0
G1 Y7.35938
G3 X-142.01228 Y8.35938 I-1.0 J0.0
G1 X-169.5279
G1 Y19.5918
G1 X-140.20564
G3 X-139.20564 Y20.5918 I0.0 J1.0
G1 Y35.14258
G3 X-140.20564 Y36.14258 I-1.0 J0.0
G1 X-189.66853
G3 X-190.66853 Y35.14258 I0.0 J-1.0
G1 Y-36.0
G3 X-189.66853 Y-37.0 I1.0 J0.0
G1 X-139.08259
G3 X-138.08259 Y-36.0 I0.0 J1.0
G1 Y-21.44922
G3 X-138.14053 Y-21.11378 I-1.0 J0.0
G1 F300.0 Z-5.0
G3 F800.0 X-139.08259 Y-20.44922 I-0.94206 J-0.33544
G1 X-169.5279
G1 Y-8.19141
G1 X-142.01228
G3 X-141.01228 Y-7.19141 I0.0 J1.0
G1 Y7.35938
G3 X-142.01228 Y8.35938 I-1.0 J0.0
G1 X-169.5279
G1 Y19.5918
G1 X-140.20564
G3 X-139.20564 Y20.5918 I0.0 J1.0
G1 Y35.14258
G3 X-140.20564 Y36.14258 I-1.0 J0.0
G1 X-189.66853
G3 X-190.66853 Y35.14258 I0.0 J-1.0
G1 Y-36.0
G3 X-189.66853 Y-37.0 I1.0 J0.0
G1 X-139.08259
G3 X-138.08259 Y-36.0 I0.0 J1.0
G1 Y-21.44922
G3 X-138.14053 Y-21.11378 I-1.0 J0.0
G0 Z3.0
G0 X-205.56176 Y17.92731
G0 Z1.0
G1 F300.0 Z-2.5
G1 F800.0 X-195.88322 Y34.64147
G3 X-196.74861 Y36.14258 I-0.86538 J0.50111
G1 X-218.33064
G3 X-219.2231 Y35.59369 I0.0 J-1.0
G1 X-228.25631 Y17.7226
G3 X-228.2786 Y17.67549 I0.89247 J-0.45111
G2 X-229.69155 Y14.50853 I-421.52378 J186.16578
G3 X-229.70033 Y14.48846 I0.91169 J-0.41088
G3 X-231.36696 Y10.46894 I236.96366 J-100.6085
G3 X-231.37249 Y10.45496 I0.92695 J-0.37519
G3 X-231.87666 Y9.0875 I41.57179 J-16.10355
G3 X-232.8761 Y11.91833 I-49.72507 J-15.96383
G3 X-235.16469 Y17.04276 I-50.18393 J-19.33907
G3 X-235.16841 Y17.04998 I-0.89056 J-0.45487
G1 X-244.83638 Y35.60467
G3 X-245.72321 Y36.14258 I-0.88683 J-0.46209
G1 X-268.13532
G3 X-269.00071 Y34.64147 I0.0 J-1.0
G1 X-243.20759 Y-9.90145
G1 Y-36.0
G3 X-242.20759 Y-37.0 I1.0 J0.0
G1 X-222.67634
G3 X-221.67634 Y-36.0 I0.0 J1.0
G1 Y-9.90145
G1 X-205.56176 Y17.92731
G1 F300.0 Z-5.0
G1 F800.0 X-195.88322 Y34.64147
G3 X-196.74861 Y36.14258 I-0.86538 J0.50111
G1 X-218.33064
G3 X-219.2231 Y35.59369 I0.0 J-1.0
G1 X-228.25631 Y17.7226
G3 X-228.2786 Y17.67549 I0.89247 J-0.45111
G2 X-229.69155 Y14.50853 I-421.52378 J186.16578
G3 X-229.70033 Y14.48846 I0.91169 J-0.41088
G3 X-231.36696 Y10.46894 I236.96366 J-100.6085
G3 X-231.37249 Y10.45496 I0.92695 J-0.37519
G3 X-231.87666 Y9.0875 I41.57179 J-16.10355
G3 X-232.8761 Y11.91833 I-49.72507 J-15.96383
G3 X-235.16469 Y17.04276 I-50.18393 J-19.33907
G3 X-235.16841 Y17.04998 I-0.89056 J-0.45487
G1 X-244.83638 Y35.60467
G3 X-245.72321 Y36.14258 I-0.88683 J-0.46209
G1 X-268.13532
G3 X-269.00071 Y34.64147 I0.0 J-1.0
G1 X-243.20759 Y-9.90145
G1 Y-36.0
G3 X-242.20759 Y-37.0 I1.0 J0.0
G1 X-222.67634
G3 X-221.67634 Y-36.0 I0.0 J1.0
G1 Y-9.90145
G1 X-205.56176 Y17.92731
G0 Z3.0
G0 X-277.69764 Y-7.27322
G0 Z1.0
G1 F300.0 Z-2.5
G1 F800.0 X-292.63073 Y35.47238
G3 X-293.57478 Y36.14258 I-0.94405 J-0.3298
G1 X-318.28181
G3 X-319.22073 Y35.4867 I0.0 J-1.0
G1 X-345.29495 Y-35.65588
G3 X-344.35603 Y-37.0 I0.93892 J-0.34412
G1 X-324.77595
G3 X-323.82382 Y-36.3057 I0.0 J1.0
G1 X-319.35924 Y-22.40039
G1 X-294.32287
G1 X-290.23722 Y-36.28234
G3 X-289.2779 Y-37.0 I0.95931 J0.28234
G1 X-268.72126
G3 X-267.77721 Y-35.6702 I0.0 J1.0
G1 X-277.69764 Y-7.27322
G1 F300.0 Z-5.0
G1 F800.0 X-292.63073 Y35.47238
G3 X-293.57478 Y36.14258 I-0.94405 J-0.3298
G1 X-318.28181
G3 X-319.22073 Y35.4867 I0.0 J-1.0
G1 X-345.29495 Y-35.65588
G3 X-344.35603 Y-37.0 I0.93892 J-0.34412
G1 X-324.77595
G3 X-323.82382 Y-36.3057 I0.0 J1.0
G1 X-319.35924 Y-22.40039
G1 X-294.32287
G1 X-290.23722 Y-36.28234
G3 X-289.2779 Y-37.0 I0.95931 J0.28234
G1 X-268.72126
G3 X-267.77721 Y-35.6702 I0.0 J1.0
G1 X-277.69764 Y-7.27322
G0 Z3.0
G0 X-348.27733 Y-14.31709
G0 Z1.0
G1 F300.0 Z-2.5
G3 F800.0 X-348.72772 Y-11.39598 I-27.49461 J-2.74397
G3 X-350.88985 Y-6.1105 I-14.90848 J-3.01364
G3 X-357.25855 Y-0.5257 I-12.96399 J-8.35993
G3 X-357.26155 Y-0.52429 I-0.42755 J-0.90399
G3 X-361.00555 Y0.84999 I-9.77971 J-20.85613
G3 X-360.3117 Y1.10145 I-9.33088 J26.82905
G3 X-360.30751 Y1.10305 I-0.35292 J0.93565
G3 X-355.6936 Y3.74697 I-6.1435 J16.06883
G3 X-355.68634 Y3.75285 I-0.62531 J0.78037
G3 X-351.74476 Y8.90241 I-8.89723 J10.89339
G3 X-350.49196 Y13.10525 I-14.87574 J6.72235
G3 X-350.14314 Y17.36529 I-27.13146 J4.36587
G3 Y17.37091 I-0.99999 J0.00385
G3 X-350.608 Y22.03674 I-24.07563 J-0.04261
G3 X-352.27378 Y26.55127 I-14.84157 J-2.91166
G3 X-357.70153 Y32.13833 I-13.28588 J-7.47704
G3 X-364.5301 Y34.99127 I-12.22952 J-19.67296
G3 X-371.24642 Y35.99415 I-8.72664 J-35.45129
G3 X-376.34461 Y36.14258 I-4.34139 J-61.48915
G1 X-406.41657
G3 X-407.41657 Y35.14258 I0.0 J-1.0
G1 Y-36.0
G3 X-406.41657 Y-37.0 I1.0 J0.0
G1 X-377.02784
G3 X-371.24696 Y-36.85158 I0.89789 J77.68285
G3 X-363.80871 Y-35.75366 I-2.72597 J44.21329
G3 X-356.29619 Y-32.75801 I-5.70971 J25.23675
G3 X-356.28408 Y-32.7507 I-0.51101 J0.85957
G3 X-350.47062 Y-26.73126 I-8.76827 J14.28521
G3 X-348.64932 Y-21.91382 I-13.74924 J7.95109
G3 X-348.14118 Y-16.90908 I-24.60835 J5.0267
G3 X-348.1412 Y-16.90246 I-1.0 J0.00087
G3 X-348.27733 Y-14.31709 I-27.63074 J-0.1586
G1 F300.0 Z-5.0
G3 F800.0 X-348.72772 Y-11.39598 I-27.49461 J-2.74397
G3 X-350.88985 Y-6.1105 I-14.90848 J-3.01364
G3 X-357.25855 Y-0.5257 I-12.96399 J-8.35993
G3 X-357.26155 Y-0.52429 I-0.42755 J-0.90399
G3 X-361.00555 Y0.84999 I-9.77971 J-20.85613
G3 X-360.3117 Y1.10145 I-9.33088 J26.82905
G3 X-360.30751 Y1.10305 I-0.35292 J0.93565
G3 X-355.6936 Y3.74697 I-6.1435 J16.06883
G3 X-355.68634 Y3.75285 I-0.62531 J0.78037
G3 X-351.74476 Y8.90241 I-8.89723 J10.89339
G3 X-350.49196 Y13.10525 I-14.87574 J6.72235
G3 X-350.14314 Y17.36529 I-27.13146 J4.36587
G3 Y17.37091 I-0.99999 J0.00385
G3 X-350.608 Y22.03674 I-24.07563 J-0.04261
G3 X-352.27378 Y26.55127 I-14.84157 J-2.91166
G3 X-357.70153 Y32.13833 I-13.28588 J-7.47704
G3 X-364.5301 Y34.99127 I-12.22952 J-19.67296
G3 X-371.24642 Y35.99415 I-8.72664 J-35.45129
G3 X-376.34461 Y36.14258 I-4.34139 J-61.48915
G1 X-406.41657
G3 X-407.41657 Y35.14258 I0.0 J-1.0
G1 Y-36.0
G3 X-406.41657 Y-37.0 I1.0 J0.0
G1 X-377.02784
G3 X-371.24696 Y-36.85158 I0.89789 J77.68285
G3 X-363.80871 Y-35.75366 I-2.72597 J44.21329
G3 X-356.29619 Y-32.75801 I-5.70971 J25.23675
G3 X-356.28408 Y-32.7507 I-0.51101 J0.85957
G3 X-350.47062 Y-26.73126 I-8.76827 J14.28521
G3 X-348.64932 Y-21.91382 I-13.74924 J7.95109
G3 X-348.14118 Y-16.90908 I-24.60835 J5.0267
G3 X-348.1412 Y-16.90246 I-1.0 J0.00087
G3 X-348.27733 Y-14.31709 I-27.63074 J-0.1586
( Profil2K )
S1000
G0 Z3.0
G0 X-1.0 Y36.14258
G0 Z1.0
G1 F300.0 Z-2.5
G1 F800.0 X-9.88337
G3 X-10.88337 Y35.14258 I0.0 J-1.0
G1 Y0.28068
G3 X-10.68696 Y-8.60553 I178.80973 J-0.49299
G3 X-10.68652 Y-8.61408 I0.9989 J0.04694
G3 X-10.62706 Y-9.55358 I61.17357 J3.39961
G3 X-11.8879 Y-6.32354 I-91.0548 J-33.6819
G3 X-15.19146 Y0.9245 I-94.56122 J-38.72283
G3 X-15.19214 Y0.92584 I-0.89308 J-0.44989
G1 X-32.72143 Y35.59381
G3 X-33.61384 Y36.14258 I-0.89241 J-0.45123
G1 X-58.07673
G3 X-59.07673 Y35.14258 I0.0 J-1.0
G1 Y-36.0
G3 X-58.07673 Y-37.0 I1.0 J0.0
G1 X-39.91267
G3 X-38.91267 Y-36.0 I0.0 J1.0
G1 Y2.96328
G3 X-39.06754 Y8.11191 I-77.63089 J0.24149
G3 X-37.95939 Y5.1791 I63.95967 J22.49126
G3 X-35.4819 Y-0.27138 I61.52112 J24.67574
G1 X-17.1721 Y-36.45154
G3 X-16.27986 Y-37.0 I0.89225 J0.45154
G1 X-1.0
G1 Y-64.0
G1 X-418.0
G3 X-418.0012 I0.0 J-1.0
G2 X-437.0 Y-45.0012 I-0.02276 J18.97604
G3 Y-45.0 I-1.0 J0.0012
G1 Y45.0
G3 Y45.00124 I-1.0 J0.0
G2 X-418.00124 Y64.0 I18.97514 J0.02362
G3 X-418.0 I0.00124 J1.0
G1 X-1.0
G1 Y36.14258
G1 F300.0 Z-5.0
G1 F800.0 X-9.88337
G3 X-10.88337 Y35.14258 I0.0 J-1.0
G1 Y0.28068
G3 X-10.68696 Y-8.60553 I178.80973 J-0.49299
G3 X-10.68652 Y-8.61408 I0.9989 J0.04694
G3 X-10.62706 Y-9.55358 I61.17357 J3.39961
G3 X-11.8879 Y-6.32354 I-91.0548 J-33.6819
G3 X-15.19146 Y0.9245 I-94.56122 J-38.72283
G3 X-15.19214 Y0.92584 I-0.89308 J-0.44989
G1 X-32.72143 Y35.59381
G3 X-33.61384 Y36.14258 I-0.89241 J-0.45123
G1 X-58.07673
G3 X-59.07673 Y35.14258 I0.0 J-1.0
G1 Y-36.0
G3 X-58.07673 Y-37.0 I1.0 J0.0
G1 X-39.91267
G3 X-38.91267 Y-36.0 I0.0 J1.0
G1 Y2.96328
G3 X-39.06754 Y8.11191 I-77.63089 J0.24149
G3 X-37.95939 Y5.1791 I63.95967 J22.49126
G3 X-35.4819 Y-0.27138 I61.52112 J24.67574
G1 X-17.1721 Y-36.45154
G3 X-16.27986 Y-37.0 I0.89225 J0.45154
G1 X-1.0
G1 Y-64.0
G1 X-418.0
G3 X-418.0012 I0.0 J-1.0
G2 X-437.0 Y-45.0012 I-0.02276 J18.97604
G3 Y-45.0 I-1.0 J0.0012
G1 Y45.0
G3 Y45.00124 I-1.0 J0.0
G2 X-418.00124 Y64.0 I18.97514 J0.02362
G3 X-418.0 I0.00124 J1.0
G1 X-1.0
G1 Y36.14258
G0 Z3.0
M5
M30
