( Made using CamBam - http://www.cambam.co.uk )
( Bayern-Muenchen 6/22/2019 9:34:02 PM )
( T2 : 2.0 )
( T4 : 4.0 )
( T6 : 6.0 )
G21 G90 G64 G40
G0 Z3.0
( T6 : 6.0 )
T6 M6
( Tasche6BG )
G17
M3 S1000
G0 X-169.12761 Y49.8
G0 Z1.0
G1 F300.0 Z-2.5
G1 F800.0 X-160.82902
G3 X-167.52378 Y45.93015 I4.00676 J-14.65742
G3 X-169.12761 Y49.8 I-115.87277 J-45.75507
G0 Z3.0
G0 X-114.70682 Y47.4
G0 Z1.0
G1 F300.0 Z-2.5
G1 F800.0 X-112.51193
G3 X-113.60938 Y46.15772 I12.62326 J-12.25742
G3 X-114.70682 Y47.4 I-13.7207 J-11.01514
G1 F300.0 Y49.8
G1 F800.0 X-103.89543
G3 X-113.60938 Y41.67223 I4.00676 J-14.65742
G3 X-123.32332 Y49.8 I-13.7207 J-6.52966
G1 X-114.70682
G0 Z3.0
G0 X-67.21981
G0 Z1.0
G1 F300.0 Z-2.5
G1 F800.0 X-62.69129
G1 Y49.37671
G3 X-64.29823 Y48.66635 I5.33192 J-14.23414
G3 X-67.21981 Y49.8 I-6.92833 J-13.52377
G1 F300.0 X-67.85265 Y47.48494
G3 F800.0 X-71.22656 Y47.93778 I-3.37391 J-12.34236
G1 X-99.88867
G3 X-112.08424 Y39.01364 I0.0 J-12.7952
G1 X-113.66119 Y34.04556
G1 X-115.06122 Y38.7747
G3 X-127.33008 Y47.93778 I-12.26886 J-3.63212
G1 X-156.82227
G3 X-168.22258 Y40.95204 I0.0 J-12.7952
G3 X-172.87252 Y52.25427 I-115.17397 J-40.77696
G3 X-171.69509 Y52.2 I1.17742 J12.74573
G1 X-171.4167
G1 X-60.29129
G1 Y47.60227
G3 X-64.2974 Y45.89915 I2.93192 J-12.45969
G3 X-67.85265 Y47.48494 I-6.92916 J-10.75657
G1 F300.0 X-68.4855 Y45.16988
G3 F800.0 X-71.22656 Y45.53778 I-2.74106 J-10.0273
G1 X-99.88867
G3 X-109.79672 Y38.28755 I0.0 J-10.3952
G1 X-113.74113 Y25.86089
G1 X-117.36249 Y38.09342
G3 X-127.33008 Y45.53778 I-9.96758 J-2.95084
G1 X-156.82227
G3 X-167.21747 Y35.14258 I0.0 J-10.3952
G1 Y29.32165
G3 X-177.68591 Y56.49882 I-116.17909 J-29.14657
G3 X-171.69509 Y54.6 I5.99082 J8.50118
G1 X-171.4167
G1 X-57.69199
G3 X-57.89129 Y52.57422 I10.1959 J-2.02578
G1 Y45.52897
G3 X-64.29657 Y42.89083 I0.53192 J-10.38639
G3 X-68.4855 Y45.16988 I-6.92999 J-7.74825
G0 Z3.0
G0 X-57.33015 Y-46.79263
G0 Z1.0
G1 F300.0 Z-2.5
G3 F800.0 X-56.44682 Y-47.4 I23.70548 J33.53027
G1 X-57.82391
G3 X-57.33015 Y-46.79263 I-13.40265 J11.4
G1 F300.0 X-55.94467 Y-44.83293
G3 F800.0 X-47.47067 Y-49.36183 I22.32 J31.57056
G3 X-47.291 Y-49.42944 I5.44332 J14.19191
G3 X-46.25622 Y-49.8 I19.53696 J52.92669
G1 X-64.86621
G3 X-57.92092 Y-43.33852 I-6.36035 J13.8
G3 X-55.94467 Y-44.83293 I24.29624 J30.07616
G0 Z3.0
G0 X-96.33692 Y-49.8
G0 Z1.0
G1 F300.0 Z-2.5
G1 F800.0 X-100.75488
G3 X-98.5459 Y-48.54833 I-6.36035 J13.8
G3 X-96.33692 Y-49.8 I8.56934 J12.54833
G0 Z3.0
G0 X-127.87989
G0 Z1.0
G1 F300.0 Z-2.5
G1 F800.0 X-132.29785
G3 X-130.08887 Y-48.54833 I-6.36035 J13.8
G3 X-127.87989 Y-49.8 I8.56934 J12.54833
G0 Z3.0
G0 X-163.18262
G0 Z1.0
G1 F300.0 Z-2.5
G1 F800.0 X-169.10696
G3 X-167.75309 Y-46.55515 I-114.16089 J49.53707
G3 X-163.18262 Y-49.8 I10.93082 J10.55515
G1 F300.0 X-162.17804 Y-47.62036
G3 F800.0 X-156.82227 Y-48.7952 I5.35577 J11.62036
G1 X-138.6582
G3 X-130.08887 Y-45.50177 I0.0 J12.7952
G3 X-121.51953 Y-48.7952 I8.56934 J9.50177
G1 X-107.11523
G3 X-98.5459 Y-45.50177 I0.0 J12.7952
G3 X-89.97656 Y-48.7952 I8.56934 J9.50177
G1 X-71.22656
G3 X-58.86449 Y-39.30096 I0.0 J12.7952
G3 X-46.6112 Y-47.121 I25.23982 J26.0386
G3 X-46.45989 Y-47.17794 I4.58385 J11.95108
G3 X-26.70578 Y-50.51002 I18.70585 J50.67519
G3 X-12.8 Y-48.85911 I0.33238 J56.59081
G1 Y-52.2
G1 X-171.4167
G1 X-171.59239
G3 X-172.85449 Y-52.26237 I0.0 J-12.8
G3 X-168.38942 Y-41.46973 I-110.41337 J51.99945
G3 X-162.17804 Y-47.62036 I11.56716 J5.46973
G1 F300.0 X-161.17345 Y-45.44073
G3 F800.0 X-156.82227 Y-46.3952 I4.35119 J9.44073
G1 X-138.6582
G3 X-130.08887 Y-41.88444 I0.0 J10.3952
G3 X-121.51953 Y-46.3952 I8.56934 J5.88444
G1 X-107.11523
G3 X-98.5459 Y-41.88444 I0.0 J10.3952
G3 X-89.97656 Y-46.3952 I8.56934 J5.88444
G1 X-71.22656
G3 X-60.83136 Y-36.0 I0.0 J10.3952
G1 Y-33.42538
G3 X-45.75172 Y-44.88017 I27.20669 J20.16301
G3 X-45.62879 Y-44.92644 I3.72438 J9.71025
G3 X-26.72203 Y-48.10987 I17.87475 J48.42369
G3 X-12.14526 Y-46.20984 I0.34864 J54.19067
G3 X-10.4 Y-45.68945 I-9.37637 J34.63296
G1 Y-54.6
G1 X-171.4167
G1 X-171.59239
G3 X-177.71122 Y-56.59048 I0.0 J-10.4
G3 X-167.55203 Y-30.6742 I-105.55663 J56.32756
G1 X-167.55175 Y-30.67312
G3 X-167.21747 Y-29.37095 I-116.00888 J30.47492
G1 Y-36.0
G3 X-161.17345 Y-45.44073 I10.3952 J0.0
G0 Z3.0
G0 X-407.71546 Y-43.76823
G0 Z1.0
G1 F300.0 Z-2.5
G1 F800.0 X-407.99384 Y-43.76825
G3 X-407.8488 Y-43.38939 I-19.72547 J7.76825
G3 X-407.71546 Y-43.76823 I123.08171 J43.10802
G1 F300.0 X-407.71538 Y-44.96823
G1 F800.0 X-409.84284 Y-44.96838
G3 X-407.97769 Y-39.20446 I-17.87647 J8.96838
G3 X-406.00633 Y-44.96811 I123.2106 J38.9231
G1 X-407.71538 Y-44.96823
G1 F300.0 X-407.7152 Y-47.36823
G1 F800.0 X-414.28381 Y-47.3687
G3 X-410.11931 Y-36.0 I-13.4355 J11.3687
G1 Y-19.46837
G3 X-409.16728 Y-24.89828 I126.4898 J19.37908
G3 X-409.16628 Y-24.90335 I17.26136 J3.41122
G3 X-402.51369 Y-47.36786 I124.39919 J24.62198
G1 X-407.7152 Y-47.36823
G0 Z3.0
G0 X-407.99971 Y42.92574
G0 Z1.0
G1 F300.0 Z-2.5
G3 F800.0 X-408.36759 Y43.8 I-19.7196 J-7.78316
G1 X-407.69357
G3 X-407.99971 Y42.92574 I122.96144 J-43.54835
G1 F300.0 X-409.11592 Y42.48518
G3 F800.0 X-410.31726 Y45.0 I-18.60339 J-7.3426
G1 X-405.98365
G3 X-408.07096 Y38.87651 I121.25152 J-44.74835
G3 X-409.11592 Y42.48518 I-19.64835 J-3.73393
G1 F300.0 X-411.34832 Y41.60407
G3 F800.0 X-415.08936 Y47.4 I-16.37098 J-6.46149
G1 X-402.48934
G3 X-407.41148 Y32.493 I117.75721 J-47.14835
G1 X-407.41197 Y32.49117
G3 X-410.11931 Y19.4321 I122.97261 J-32.30425
G1 Y35.14258
G3 X-411.34832 Y41.60407 I-17.6 J0.0
G1 F300.0 X-413.58073 Y40.72296
G3 F800.0 X-423.69439 Y49.8 I-14.13858 J-5.58038
G1 X-398.88813
G3 X-405.09031 Y31.88298 I114.156 J-49.54835
G1 X-405.09072 Y31.88139
G3 X-408.17209 Y16.04578 I120.65136 J-31.69448
G3 X-408.1725 Y16.04255 I15.07191 J-1.93177
G3 X-409.19518 Y-0.02179 I125.44101 J-16.05051
G3 X-406.81282 Y-24.43298 I125.56567 J-0.0675
G3 X-406.81195 Y-24.43737 I14.9069 J2.94593
G3 X-398.91424 Y-49.76761 I122.04486 J24.156
G1 X-421.28121 Y-49.7692
G3 X-412.51931 Y-36.0 I-6.4381 J13.7692
G1 Y35.14258
G3 X-413.58073 Y40.72296 I-15.2 J0.0
G1 F300.0 X-415.81314 Y39.84184
G3 F800.0 X-427.2 Y47.93204 I-11.90617 J-4.69927
G1 Y52.2
G1 X-396.5833
G1 X-396.55405
G3 X-395.13225 Y52.27921 I0.0 J12.8
G3 X-402.76913 Y31.27295 I110.40012 J-52.02756
G1 X-402.76948 Y31.27161
G3 X-405.79156 Y15.74066 I118.33012 J-31.0847
G3 X-405.79191 Y15.73795 I12.69138 J-1.62666
G3 X-406.79518 Y-0.0223 I123.06042 J-15.74591
G3 X-404.45835 Y-23.96769 I123.16567 J-0.06698
G3 X-404.45762 Y-23.97138 I12.55243 J2.48063
G3 X-395.15703 Y-52.25348 I119.69053 J23.69001
G3 X-396.63955 Y-52.16744 I-1.48161 J-12.71396
G1 X-427.2 Y-52.16962
G1 Y-48.78946
G3 X-414.91931 Y-36.0 I-0.51931 J12.78946
G1 Y35.14258
G3 X-415.81314 Y39.84184 I-12.8 J0.0
G1 F300.0 X-418.04554 Y38.96073
G3 F800.0 X-427.71931 Y45.54258 I-9.67376 J-3.81815
G1 X-429.6
G1 Y54.6
G1 X-396.5833
G1 X-396.55405
G3 X-390.18028 Y56.78203 I0.0 J10.4
G3 X-400.44795 Y30.66292 I105.44815 J-56.53039
G1 X-400.44824 Y30.66183
G3 X-403.41103 Y15.43555 I116.00888 J-30.47492
G3 X-403.41132 Y15.43334 I10.31085 J-1.32155
G3 X-404.39518 Y-0.02281 I120.67983 J-15.4413
G3 X-402.10389 Y-23.5024 I120.76567 J-0.06647
G3 X-402.10329 Y-23.50539 I10.19797 J2.01534
G3 X-390.18274 Y-56.80288 I117.33621 J23.22403
G3 X-391.31008 Y-56.03601 I-6.40056 J-8.19712
G1 X-391.36542 Y-56.00345
G3 X-396.63938 Y-54.56744 I-5.27322 J-8.96399
G1 X-429.6 Y-54.56979
G1 Y-46.4
G1 X-427.71931
G3 X-417.31931 Y-36.0 I0.0 J10.4
G1 Y35.14258
G3 X-418.04554 Y38.96073 I-10.4 J0.0
G0 Z3.0
G0 X-395.02223 Y32.27565
G0 Z1.0
G1 F300.0 Z-2.5
G3 F800.0 X-395.8056 Y29.44286 I110.29009 J-32.024
G1 X-395.80575 Y29.44228
G3 X-398.64998 Y14.82533 I111.36639 J-29.25536
G3 X-398.65013 Y14.82414 I5.5498 J-0.71132
G3 X-399.59518 Y-0.02384 I115.91865 J-14.8321
G3 X-397.39496 Y-22.57181 I115.96567 J-0.06544
G3 X-397.39464 Y-22.57342 I5.48904 J1.08475
G3 X-383.15608 Y-59.45491 I112.62755 J22.29206
G1 X-383.15594 Y-59.45514
G1 X-383.15622 Y-59.45467
G1 X-383.15608 Y-59.45491
G3 X-340.98679 Y-100.58664 I99.5037 J59.83133
G1 X-340.98636 Y-100.58688
G3 X-313.46198 Y-111.79356 I56.71649 J99.89545
G1 X-313.46119 Y-111.79376
G3 X-298.84743 Y-114.63662 I29.25815 J111.41933
G3 X-298.84648 Y-114.63675 I0.71129 J5.5498
G3 X-284.00111 Y-115.58143 I14.82202 J115.80541
G3 X-261.44999 Y-113.38303 I0.06969 J116.04858
G3 X-261.44806 Y-113.38265 I-1.08393 J5.4892
G3 X-224.55763 Y-99.15144 I-22.30515 J112.74955
G1 X-224.55759 Y-99.15142
G1 X-224.55767 Y-99.15147
G1 X-224.55763 Y-99.15144
G3 X-183.40682 Y-56.98344 I-59.78881 J99.50963
G1 X-183.40664 Y-56.98312
G3 X-172.19439 Y-29.45414 I-99.86121 J56.72019
G1 X-172.19423 Y-29.45356
G3 X-169.35 Y-14.83661 I-111.36639 J29.25536
G3 X-169.34985 Y-14.83542 I-5.5498 J0.71132
G3 X-168.4048 Y0.01462 I-115.91865 J14.8321
G3 X-168.40484 Y0.03414 I-5.5952 J-0.00086
G1 X-168.4073 Y0.70897
G3 X-168.40737 Y0.72373 I-5.59516 J-0.02038
G3 X-170.73926 Y23.16628 I-116.18477 J-0.72976
G3 X-170.73989 Y23.16934 I-5.48279 J-1.1159
G3 X-185.10311 Y59.82959 I-112.65667 J-22.99426
G1 X-185.10323 Y59.82979
G1 X-185.103 Y59.82939
G1 X-185.10311 Y59.82959
G3 X-227.22239 Y100.67939 I-99.31869 J-60.26617
G1 X-227.22291 Y100.67969
G3 X-254.65172 Y111.80802 I-56.51741 J-99.93554
G3 X-269.21273 Y114.63197 I-29.03702 J-110.77022
G1 X-269.21298 Y114.632
G3 X-283.99822 Y115.57015 I-14.78824 J-116.08565
G3 X-306.55 Y113.37175 I-0.07034 J-116.04858
G3 X-306.55192 Y113.37137 I1.08393 J-5.4892
G3 X-343.44235 Y99.14016 I22.30515 J-112.74955
G1 X-343.4424 Y99.14013
G1 X-343.44231 Y99.14019
G1 X-343.44235 Y99.14016
G3 X-384.59316 Y56.97216 I59.78881 J-99.50963
G1 X-384.59334 Y56.97184
G3 X-395.02223 Y32.27565 I99.86121 J-56.72019
G1 F300.0 X-392.72203 Y31.60776
G3 F800.0 X-393.48906 Y28.83405 I107.9899 J-31.35611
G1 X-393.48915 Y28.83372
G3 X-396.27421 Y14.52082 I109.04979 J-28.6468
G3 X-396.2743 Y14.52014 I3.17404 J-0.40682
G3 X-397.19998 Y-0.02436 I113.54282 J-14.5281
G3 X-395.0452 Y-22.10745 I113.57047 J-0.06493
G3 X-395.04502 Y-22.10837 I3.13929 J0.62039
G3 X-381.10344 Y-58.22053 I110.27793 J21.827
G1 X-381.10336 Y-58.22067
G1 X-381.10353 Y-58.2204
G1 X-381.10344 Y-58.22053
G3 X-339.80402 Y-98.50384 I97.45107 J58.59696
G1 X-339.80377 Y-98.50398
G3 X-312.8533 Y-109.47699 I55.5339 J97.81255
G1 X-312.85285 Y-109.47711
G3 X-298.54294 Y-112.26086 I28.64981 J109.10267
G3 X-298.54239 Y-112.26093 I0.4068 J3.17404
G3 X-284.00063 Y-113.18623 I14.51794 J113.42959
G3 X-261.91399 Y-111.0332 I0.06921 J113.65338
G3 X-261.91289 Y-111.03299 I-0.61992 J3.13938
G3 X-225.79123 Y-97.09834 I-21.84031 J110.39989
G1 X-225.7912 Y-97.09833
G1 X-225.79125 Y-97.09836
G1 X-225.79123 Y-97.09834
G3 X-185.48944 Y-55.80035 I-58.55521 J97.45653
G1 X-185.48933 Y-55.80017
G3 X-174.51092 Y-28.84534 I-97.77852 J55.53724
G1 X-174.51083 Y-28.845
G3 X-171.72577 Y-14.5321 I-109.04979 J28.6468
G3 X-171.72568 Y-14.53143 I-3.17404 J0.40682
G3 X-170.8 Y0.01425 I-113.54282 J14.5281
G3 X-170.80002 Y0.02541 I-3.2 J-0.00049
G1 X-170.80248 Y0.70025
G3 X-170.80252 Y0.70869 I-3.19998 J-0.01165
G3 X-173.08634 Y22.68858 I-113.78962 J-0.71471
G3 X-173.0867 Y22.69033 I-3.13571 J-0.63821
G3 X-187.15077 Y58.58697 I-110.30985 J-22.51525
G1 X-187.15084 Y58.58708
G1 X-187.1507 Y58.58686
G1 X-187.15077 Y58.58697
G3 X-228.4017 Y98.59463 I-97.27103 J-59.02355
G1 X-228.402 Y98.5948
G3 X-255.25882 Y109.49103 I-55.33832 J-97.85066
G3 X-269.51552 Y112.25598 I-28.42992 J-108.45324
G1 X-269.51566 Y112.256
G3 X-283.99898 Y113.17495 I-14.48556 J-113.70965
G3 X-306.08599 Y111.02192 I-0.06958 J-113.65338
G3 X-306.08709 Y111.0217 I0.61992 J-3.13938
G3 X-342.20876 Y97.08706 I21.84031 J-110.39989
G1 X-342.20878 Y97.08705
G1 X-342.20873 Y97.08708
G1 X-342.20876 Y97.08706
G3 X-382.51054 Y55.78907 I58.55521 J-97.45653
G1 X-382.51065 Y55.78889
G3 X-392.72203 Y31.60776 I97.77852 J-55.53724
G0 Z3.0
G0 X-397.32703 Y32.94487
G0 Z1.0
G1 F300.0 Z-2.5
G2 F800.0 X-386.68021 Y58.15716 I112.5949 J-32.69323
G1 X-386.67995 Y58.15762
G2 X-344.67842 Y101.19738 I103.0264 J-58.52709
G1 X-344.67836 Y101.19741
G1 X-344.67849 Y101.19734
G1 X-344.67842 Y101.19738
G2 X-307.01768 Y115.72574 I60.43165 J-100.57556
G2 X-307.01494 Y115.72628 I1.55161 J-7.8432
G2 X-283.99747 Y117.97015 I22.94637 J-116.20471
G2 X-268.9097 Y117.01276 I-0.00375 J-119.4238
G1 X-268.90934 Y117.01271
G2 X-254.0434 Y114.12964 I-14.7794 J-115.97492
G2 X-226.04147 Y102.76875 I-29.69692 J-113.3855
G1 X-226.04072 Y102.76833
G2 X-183.05136 Y61.0747 I-58.38109 J-103.20491
G1 X-183.05119 Y61.07442
G1 X-183.05153 Y61.07498
G1 X-183.05136 Y61.0747
G2 X-168.38837 Y23.6493 I-100.34519 J-60.89962
G2 X-168.38748 Y23.64494 I-7.83369 J-1.59893
G2 X-166.00742 Y0.73881 I-116.20466 J-23.65096
G2 X-166.00731 Y0.71771 I-7.99504 J-0.05022
G1 X-166.00485 Y0.04288
G2 X-166.0048 Y0.01499 I-7.99515 J-0.02912
G2 X-166.96926 Y-15.14002 I-119.2637 J-0.01831
G2 X-166.96948 Y-15.14172 I-7.93054 J1.01473
G2 X-169.87299 Y-30.06334 I-116.59115 J14.94352
G1 X-169.87321 Y-30.06417
G2 X-181.31977 Y-58.16844 I-113.39464 J29.80124
G1 X-181.32004 Y-58.1689
G2 X-223.32156 Y-101.20866 I-103.0264 J58.52709
G1 X-223.32162 Y-101.2087
G1 X-223.3215 Y-101.20862
G1 X-223.32156 Y-101.20866
G2 X-260.9823 Y-115.73702 I-60.43165 J100.57556
G2 X-260.98505 Y-115.73756 I-1.55161 J7.8432
G2 X-284.00159 Y-117.98143 I-22.94637 J116.20471
G2 X-299.15117 Y-117.01733 I-0.02286 J119.15009
G2 X-299.15253 Y-117.01715 I1.01503 J7.93051
G2 X-314.07076 Y-114.11506 I14.94948 J116.64272
G1 X-314.07188 Y-114.11477
G2 X-342.17131 Y-102.67396 I29.80201 J113.42334
G1 X-342.17193 Y-102.67361
G2 X-385.21283 Y-60.69175 I58.51955 J103.05003
G1 X-385.21303 Y-60.69142
G1 X-385.21262 Y-60.69209
G1 X-385.21283 Y-60.69175
G2 X-399.74897 Y-23.03941 I100.44574 J60.41039
G2 X-399.74942 Y-23.0371 I7.84305 J1.55235
G2 X-401.99518 Y-0.02333 I116.11991 J22.94782
G2 X-401.03072 Y15.12874 I119.2637 J0.01537
G2 X-401.03051 Y15.13044 I7.93054 J-1.01473
G2 X-398.12699 Y30.05206 I116.59115 J-14.94352
G1 X-398.12677 Y30.05289
G2 X-397.32703 Y32.94487 I113.39464 J-29.80124
G0 Z3.0
G0 X-419.71931
G0 Z1.0
G1 F300.0 Z-2.5
G1 F800.0 Y35.14258
G3 X-427.71931 Y43.14258 I-8.0 J0.0
G1 X-432.0
G1 Y57.0
G1 X-396.5833
G1 X-396.55405
G3 X-389.33869 Y61.54479 I0.0 J8.0
G2 X-179.36967 Y62.74149 I105.33869 J-61.54479
G3 X-171.69509 Y57.0 I7.67458 J2.25851
G1 X-171.4167
G1 X-54.1546
G3 X-55.49129 Y52.57422 I6.6585 J-4.42578
G1 Y43.14258
G1 X-57.35938
G3 X-64.29574 Y39.12841 I0.0 J-8.0
G3 X-71.22656 Y43.13778 I-6.93083 J-3.98584
G1 X-99.88867
G3 X-107.50919 Y37.56145 I0.0 J-7.9952
G1 X-113.82107 Y17.67622
G1 X-119.66377 Y37.41214
G3 X-127.33008 Y43.13778 I-7.66631 J-2.26956
G1 X-156.82227
G3 X-164.81747 Y35.14258 I0.0 J-7.9952
G1 Y-36.0
G3 X-156.82227 Y-43.9952 I7.9952 J0.0
G1 X-138.6582
G3 X-130.663 Y-36.0 I0.0 J7.9952
G1 Y-33.51452
G1 X-129.15513 Y-38.37083
G3 X-121.51953 Y-43.9952 I7.6356 J2.37083
G1 X-107.11523
G3 X-99.46722 Y-38.33047 I0.0 J7.9952
G1 X-97.97176 Y-33.42276
G1 Y-36.0
G3 X-89.97656 Y-43.9952 I7.9952 J0.0
G1 X-71.22656
G3 X-63.23136 Y-36.0 I0.0 J7.9952
G1 Y-23.6741
G3 X-59.82497 Y-30.68255 I30.15217 J10.32314
G3 X-59.75534 Y-30.78816 I6.71364 J4.35052
G3 X-44.89225 Y-42.63935 I26.13067 J17.52579
G3 X-44.79769 Y-42.67493 I2.86491 J7.46942
G3 X-26.73833 Y-45.70971 I17.04365 J46.17218
G3 X-12.77391 Y-43.89363 I0.36494 J51.7905
G3 X-8.0 Y-42.20466 I-8.74772 J32.31676
G1 Y-57.0
G1 X-171.4167
G1 X-171.59239
G3 X-179.14762 Y-62.36969 I0.0 J-8.0
G2 X-389.6551 Y-61.0 I-104.85238 J62.36969
G3 X-392.52698 Y-58.10462 I-6.9282 J-4.0
G1 X-392.58232 Y-58.07207
G3 X-396.63921 Y-56.96744 I-4.05632 J-6.89538
G1 X-432.0 Y-56.96996
G1 Y-44.0
G1 X-427.71931
G3 X-419.71931 Y-36.0 I0.0 J8.0
G1 Y32.94487
G0 Z3.0
G0 X-162.41747
G0 Z1.0
G1 F300.0 Z-2.5
G1 F800.0 Y-36.0
G3 X-156.82227 Y-41.5952 I5.5952 J0.0
G1 X-138.6582
G3 X-133.063 Y-36.0 I0.0 J5.5952
G1 Y-17.69142
G1 X-126.86308 Y-37.65916
G3 X-121.51953 Y-41.5952 I5.34354 J1.65916
G1 X-107.11523
G3 X-101.763 Y-37.63091 I0.0 J5.5952
G1 X-95.57176 Y-17.31284
G1 Y-36.0
G3 X-89.97656 Y-41.5952 I5.5952 J0.0
G1 X-71.22656
G3 X-65.63136 Y-36.0 I0.0 J5.5952
G1 Y35.14258
G3 X-71.22656 Y40.73778 I-5.5952 J0.0
G1 X-99.88867
G3 X-105.22166 Y36.83535 I0.0 J-5.5952
G1 X-113.90102 Y9.49155
G1 X-121.96504 Y36.73086
G3 X-127.33008 Y40.73778 I-5.36504 J-1.58828
G1 X-156.82227
G3 X-162.41747 Y35.14258 I0.0 J-5.5952
G1 Y32.94487
G1 F300.0 X-160.02227
G1 F800.0 Y-36.0
G3 X-156.82227 Y-39.2 I3.2 J0.0
G1 X-138.6582
G3 X-135.4582 Y-36.0 I0.0 J3.2
G1 Y-1.89996
G1 X-124.5756 Y-36.9489
G3 X-121.51953 Y-39.2 I3.05607 J0.9489
G1 X-107.11523
G3 X-104.05419 Y-36.93275 I0.0 J3.2
G1 X-93.17656 Y-1.23513
G1 Y-36.0
G3 X-89.97656 Y-39.2 I3.2 J0.0
G1 X-71.22656
G3 X-68.02656 Y-36.0 I0.0 J3.2
G1 Y35.14258
G3 X-71.22656 Y38.34258 I-3.2 J0.0
G1 X-99.88867
G3 X-102.93871 Y36.11071 I0.0 J-3.2
G1 X-113.97386 Y1.34508
G3 X-113.98075 Y1.3231 I3.05004 J-0.96813
G1 X-124.26171 Y36.05095
G3 X-127.33008 Y38.34258 I-3.06837 J-0.90837
G1 X-156.82227
G3 X-160.02227 Y35.14258 I0.0 J-3.2
G1 Y32.94487
G0 Z3.0
G0 Y59.4
G0 Z1.0
G1 F300.0 Z-2.5
G1 F800.0 X-5.6
G1 Y58.12731
G3 X-6.28516 Y58.16942 I-0.68516 J-5.55309
G1 X-23.86328
G3 X-26.89063 Y57.27969 I0.0 J-5.5952
G3 X-29.91797 Y58.16942 I-3.02734 J-4.70547
G1 X-47.49609
G3 X-53.09129 Y52.57422 I0.0 J-5.5952
G1 Y40.74258
G1 X-57.35938
G3 X-62.95938 Y35.14258 I0.0 J-5.6
G1 Y-9.63281
G3 X-62.95937 Y-9.63519 I5.6 J0.0
G3 X-61.90993 Y-19.45763 I46.67742 J0.01981
G3 X-57.81088 Y-29.3774 I28.83073 J6.10666
G3 X-57.76214 Y-29.45132 I4.69955 J3.04537
G3 X-44.03278 Y-40.39852 I24.13746 J16.18895
G3 X-43.96658 Y-40.42343 I2.00544 J5.2286
G3 X-26.75466 Y-43.30952 I16.21254 J43.92068
G3 X-13.40254 Y-41.57742 I0.38127 J49.39032
G3 X-5.6 Y-38.26871 I-8.11909 J30.00055
G1 Y-59.4
G1 X-171.4167
G1 X-171.59239
G3 X-176.94934 Y-63.3681 I0.0 J-5.6
G2 X-391.73356 Y-62.2 I-107.05066 J63.3681
G3 X-393.74388 Y-60.17324 I-4.84974 J-2.8
G1 X-393.79922 Y-60.14068
G3 X-396.63904 Y-59.36744 I-2.83943 J-4.82676
G1 X-434.4 Y-59.37013
G1 Y-41.6
G1 X-427.71931
G3 X-422.11931 Y-36.0 I0.0 J5.6
G1 Y35.14258
G3 X-427.71931 Y40.74258 I-5.6 J0.0
G1 X-434.4
G1 Y59.4
G1 X-396.5833
G1 X-396.55405
G3 X-391.46532 Y62.6623 I0.0 J5.6
G2 X-177.13916 Y63.68768 I107.46532 J-62.6623
G3 X-171.69509 Y59.4 I5.44406 J1.31232
G1 X-171.4167
G1 X-160.02227
G1 F300.0 Y61.8
G1 F800.0 X-3.2
G1 Y53.42381
G3 X-6.28516 Y55.77422 I-3.08516 J-0.84959
G1 X-23.86328
G3 X-26.89063 Y53.61113 I0.0 J-3.2
G3 X-29.91797 Y55.77422 I-3.02734 J-1.03691
G1 X-47.49609
G3 X-50.69609 Y52.57422 I0.0 J-3.2
G1 Y40.31836
G3 X-50.01329 Y38.34258 I3.2 J0.0
G1 X-57.35938
G3 X-60.55938 Y35.14258 I0.0 J-3.2
G1 Y-9.63281
G3 X-60.55937 Y-9.63417 I3.2 J0.0
G3 X-59.56294 Y-18.95598 I44.27742 J0.01879
G3 X-55.79678 Y-28.07224 I26.48374 J5.60501
G3 X-55.76893 Y-28.11448 I2.68546 J1.74021
G3 X-43.17331 Y-38.15769 I22.14426 J14.85212
G3 X-43.13548 Y-38.17193 I1.14596 J2.98777
G3 X-26.77104 Y-40.90931 I15.38144 J41.66918
G3 X-14.03114 Y-39.26121 I0.39765 J46.99011
G3 X-3.2 Y-33.6415 I-7.49049 J27.68433
G1 Y-61.8
G1 X-171.4167
G1 X-171.59239
G3 X-174.71633 Y-64.30645 I0.0 J-3.2
G2 X-393.81202 Y-63.4 I-109.28367 J64.30645
G3 X-394.96077 Y-62.24185 I-2.77128 J-1.6
G1 X-395.01611 Y-62.20929
G3 X-396.63887 Y-61.76744 I-1.62253 J-2.75815
G1 X-436.8 Y-61.7703
G1 Y-39.2
G1 X-427.71931
G3 X-424.51931 Y-36.0 I0.0 J3.2
G1 Y35.14258
G3 X-427.71931 Y38.34258 I-3.2 J0.0
G1 X-436.8
G1 Y61.8
G1 X-396.5833
G1 X-396.55405
G3 X-393.60586 Y63.75574 I0.0 J3.2
G2 X-174.86432 Y64.55729 I109.60586 J-63.75574
G3 X-171.69509 Y61.8 I3.16923 J0.44271
G1 X-171.4167
G1 X-160.02227
G0 Z3.0
G0 X-160.82902 Y49.8
G0 Z-1.5
G1 F300.0 Z-5.0
G3 F800.0 X-167.52378 Y45.93015 I4.00676 J-14.65742
G3 X-169.12761 Y49.8 I-115.87277 J-45.75507
G1 X-160.82902
G0 Z3.0
G0 X-114.70682 Y47.4
G0 Z-1.5
G1 F300.0 Z-5.0
G1 F800.0 X-112.51193
G3 X-113.60938 Y46.15772 I12.62326 J-12.25742
G3 X-114.70682 Y47.4 I-13.7207 J-11.01514
G1 F300.0 Y49.8
G1 F800.0 X-103.89543
G3 X-113.60938 Y41.67223 I4.00676 J-14.65742
G3 X-123.32332 Y49.8 I-13.7207 J-6.52966
G1 X-114.70682
G0 Z3.0
G0 X-67.21981
G0 Z-1.5
G1 F300.0 Z-5.0
G1 F800.0 X-62.69129
G1 Y49.37671
G3 X-64.29823 Y48.66635 I5.33192 J-14.23414
G3 X-67.21981 Y49.8 I-6.92833 J-13.52377
G1 F300.0 X-67.85265 Y47.48494
G3 F800.0 X-71.22656 Y47.93778 I-3.37391 J-12.34236
G1 X-99.88867
G3 X-112.08424 Y39.01364 I0.0 J-12.7952
G1 X-113.66119 Y34.04556
G1 X-115.06122 Y38.7747
G3 X-127.33008 Y47.93778 I-12.26886 J-3.63212
G1 X-156.82227
G3 X-168.22258 Y40.95204 I0.0 J-12.7952
G3 X-172.87252 Y52.25427 I-115.17397 J-40.77696
G3 X-171.69509 Y52.2 I1.17742 J12.74573
G1 X-171.4167
G1 X-60.29129
G1 Y47.60227
G3 X-64.2974 Y45.89915 I2.93192 J-12.45969
G3 X-67.85265 Y47.48494 I-6.92916 J-10.75657
G1 F300.0 X-68.4855 Y45.16988
G3 F800.0 X-71.22656 Y45.53778 I-2.74106 J-10.0273
G1 X-99.88867
G3 X-109.79672 Y38.28755 I0.0 J-10.3952
G1 X-113.74113 Y25.86089
G1 X-117.36249 Y38.09342
G3 X-127.33008 Y45.53778 I-9.96758 J-2.95084
G1 X-156.82227
G3 X-167.21747 Y35.14258 I0.0 J-10.3952
G1 Y29.32165
G3 X-177.68591 Y56.49882 I-116.17909 J-29.14657
G3 X-171.69509 Y54.6 I5.99082 J8.50118
G1 X-171.4167
G1 X-57.69199
G3 X-57.89129 Y52.57422 I10.1959 J-2.02578
G1 Y45.52897
G3 X-64.29657 Y42.89083 I0.53192 J-10.38639
G3 X-68.4855 Y45.16988 I-6.92999 J-7.74825
G0 Z3.0
G0 X-57.33015 Y-46.79263
G0 Z-1.5
G1 F300.0 Z-5.0
G3 F800.0 X-56.44682 Y-47.4 I23.70548 J33.53027
G1 X-57.82391
G3 X-57.33015 Y-46.79263 I-13.40265 J11.4
G1 F300.0 X-55.94467 Y-44.83293
G3 F800.0 X-47.47067 Y-49.36183 I22.32 J31.57056
G3 X-47.291 Y-49.42944 I5.44332 J14.19191
G3 X-46.25622 Y-49.8 I19.53696 J52.92669
G1 X-64.86621
G3 X-57.92092 Y-43.33852 I-6.36035 J13.8
G3 X-55.94467 Y-44.83293 I24.29624 J30.07616
G0 Z3.0
G0 X-96.33692 Y-49.8
G0 Z-1.5
G1 F300.0 Z-5.0
G1 F800.0 X-100.75488
G3 X-98.5459 Y-48.54833 I-6.36035 J13.8
G3 X-96.33692 Y-49.8 I8.56934 J12.54833
G0 Z3.0
G0 X-127.87989
G0 Z-1.5
G1 F300.0 Z-5.0
G1 F800.0 X-132.29785
G3 X-130.08887 Y-48.54833 I-6.36035 J13.8
G3 X-127.87989 Y-49.8 I8.56934 J12.54833
G0 Z3.0
G0 X-163.18262
G0 Z-1.5
G1 F300.0 Z-5.0
G1 F800.0 X-169.10696
G3 X-167.75309 Y-46.55515 I-114.16089 J49.53707
G3 X-163.18262 Y-49.8 I10.93082 J10.55515
G1 F300.0 X-162.17804 Y-47.62036
G3 F800.0 X-156.82227 Y-48.7952 I5.35577 J11.62036
G1 X-138.6582
G3 X-130.08887 Y-45.50177 I0.0 J12.7952
G3 X-121.51953 Y-48.7952 I8.56934 J9.50177
G1 X-107.11523
G3 X-98.5459 Y-45.50177 I0.0 J12.7952
G3 X-89.97656 Y-48.7952 I8.56934 J9.50177
G1 X-71.22656
G3 X-58.86449 Y-39.30096 I0.0 J12.7952
G3 X-46.6112 Y-47.121 I25.23982 J26.0386
G3 X-46.45989 Y-47.17794 I4.58385 J11.95108
G3 X-26.70578 Y-50.51002 I18.70585 J50.67519
G3 X-12.8 Y-48.85911 I0.33238 J56.59081
G1 Y-52.2
G1 X-171.4167
G1 X-171.59239
G3 X-172.85449 Y-52.26237 I0.0 J-12.8
G3 X-168.38942 Y-41.46973 I-110.41337 J51.99945
G3 X-162.17804 Y-47.62036 I11.56716 J5.46973
G1 F300.0 X-161.17345 Y-45.44073
G3 F800.0 X-156.82227 Y-46.3952 I4.35119 J9.44073
G1 X-138.6582
G3 X-130.08887 Y-41.88444 I0.0 J10.3952
G3 X-121.51953 Y-46.3952 I8.56934 J5.88444
G1 X-107.11523
G3 X-98.5459 Y-41.88444 I0.0 J10.3952
G3 X-89.97656 Y-46.3952 I8.56934 J5.88444
G1 X-71.22656
G3 X-60.83136 Y-36.0 I0.0 J10.3952
G1 Y-33.42538
G3 X-45.75172 Y-44.88017 I27.20669 J20.16301
G3 X-45.62879 Y-44.92644 I3.72438 J9.71025
G3 X-26.72203 Y-48.10987 I17.87475 J48.42369
G3 X-12.14526 Y-46.20984 I0.34864 J54.19067
G3 X-10.4 Y-45.68945 I-9.37637 J34.63296
G1 Y-54.6
G1 X-171.4167
G1 X-171.59239
G3 X-177.71122 Y-56.59048 I0.0 J-10.4
G3 X-167.55203 Y-30.6742 I-105.55663 J56.32756
G1 X-167.55175 Y-30.67312
G3 X-167.21747 Y-29.37095 I-116.00888 J30.47492
G1 Y-36.0
G3 X-161.17345 Y-45.44073 I10.3952 J0.0
G0 Z3.0
G0 X-407.71546 Y-43.76823
G0 Z-1.5
G1 F300.0 Z-5.0
G1 F800.0 X-407.99384 Y-43.76825
G3 X-407.8488 Y-43.38939 I-19.72547 J7.76825
G3 X-407.71546 Y-43.76823 I123.08171 J43.10802
G1 F300.0 X-407.71538 Y-44.96823
G1 F800.0 X-409.84284 Y-44.96838
G3 X-407.97769 Y-39.20446 I-17.87647 J8.96838
G3 X-406.00633 Y-44.96811 I123.2106 J38.9231
G1 X-407.71538 Y-44.96823
G1 F300.0 X-407.7152 Y-47.36823
G1 F800.0 X-414.28381 Y-47.3687
G3 X-410.11931 Y-36.0 I-13.4355 J11.3687
G1 Y-19.46837
G3 X-409.16728 Y-24.89828 I126.4898 J19.37908
G3 X-409.16628 Y-24.90335 I17.26136 J3.41122
G3 X-402.51369 Y-47.36786 I124.39919 J24.62198
G1 X-407.7152 Y-47.36823
G0 Z3.0
G0 X-407.99971 Y42.92574
G0 Z-1.5
G1 F300.0 Z-5.0
G3 F800.0 X-408.36759 Y43.8 I-19.7196 J-7.78316
G1 X-407.69357
G3 X-407.99971 Y42.92574 I122.96144 J-43.54835
G1 F300.0 X-409.11592 Y42.48518
G3 F800.0 X-410.31726 Y45.0 I-18.60339 J-7.3426
G1 X-405.98365
G3 X-408.07096 Y38.87651 I121.25152 J-44.74835
G3 X-409.11592 Y42.48518 I-19.64835 J-3.73393
G1 F300.0 X-411.34832 Y41.60407
G3 F800.0 X-415.08936 Y47.4 I-16.37098 J-6.46149
G1 X-402.48934
G3 X-407.41148 Y32.493 I117.75721 J-47.14835
G1 X-407.41197 Y32.49117
G3 X-410.11931 Y19.4321 I122.97261 J-32.30425
G1 Y35.14258
G3 X-411.34832 Y41.60407 I-17.6 J0.0
G1 F300.0 X-413.58073 Y40.72296
G3 F800.0 X-423.69439 Y49.8 I-14.13858 J-5.58038
G1 X-398.88813
G3 X-405.09031 Y31.88298 I114.156 J-49.54835
G1 X-405.09072 Y31.88139
G3 X-408.17209 Y16.04578 I120.65136 J-31.69448
G3 X-408.1725 Y16.04255 I15.07191 J-1.93177
G3 X-409.19518 Y-0.02179 I125.44101 J-16.05051
G3 X-406.81282 Y-24.43298 I125.56567 J-0.0675
G3 X-406.81195 Y-24.43737 I14.9069 J2.94593
G3 X-398.91424 Y-49.76761 I122.04486 J24.156
G1 X-421.28121 Y-49.7692
G3 X-412.51931 Y-36.0 I-6.4381 J13.7692
G1 Y35.14258
G3 X-413.58073 Y40.72296 I-15.2 J0.0
G1 F300.0 X-415.81314 Y39.84184
G3 F800.0 X-427.2 Y47.93204 I-11.90617 J-4.69927
G1 Y52.2
G1 X-396.5833
G1 X-396.55405
G3 X-395.13225 Y52.27921 I0.0 J12.8
G3 X-402.76913 Y31.27295 I110.40012 J-52.02756
G1 X-402.76948 Y31.27161
G3 X-405.79156 Y15.74066 I118.33012 J-31.0847
G3 X-405.79191 Y15.73795 I12.69138 J-1.62666
G3 X-406.79518 Y-0.0223 I123.06042 J-15.74591
G3 X-404.45835 Y-23.96769 I123.16567 J-0.06698
G3 X-404.45762 Y-23.97138 I12.55243 J2.48063
G3 X-395.15703 Y-52.25348 I119.69053 J23.69001
G3 X-396.63955 Y-52.16744 I-1.48161 J-12.71396
G1 X-427.2 Y-52.16962
G1 Y-48.78946
G3 X-414.91931 Y-36.0 I-0.51931 J12.78946
G1 Y35.14258
G3 X-415.81314 Y39.84184 I-12.8 J0.0
G1 F300.0 X-418.04554 Y38.96073
G3 F800.0 X-427.71931 Y45.54258 I-9.67376 J-3.81815
G1 X-429.6
G1 Y54.6
G1 X-396.5833
G1 X-396.55405
G3 X-390.18028 Y56.78203 I0.0 J10.4
G3 X-400.44795 Y30.66292 I105.44815 J-56.53039
G1 X-400.44824 Y30.66183
G3 X-403.41103 Y15.43555 I116.00888 J-30.47492
G3 X-403.41132 Y15.43334 I10.31085 J-1.32155
G3 X-404.39518 Y-0.02281 I120.67983 J-15.4413
G3 X-402.10389 Y-23.5024 I120.76567 J-0.06647
G3 X-402.10329 Y-23.50539 I10.19797 J2.01534
G3 X-390.18274 Y-56.80288 I117.33621 J23.22403
G3 X-391.31008 Y-56.03601 I-6.40056 J-8.19712
G1 X-391.36542 Y-56.00345
G3 X-396.63938 Y-54.56744 I-5.27322 J-8.96399
G1 X-429.6 Y-54.56979
G1 Y-46.4
G1 X-427.71931
G3 X-417.31931 Y-36.0 I0.0 J10.4
G1 Y35.14258
G3 X-418.04554 Y38.96073 I-10.4 J0.0
G0 Z3.0
G0 X-395.02223 Y32.27565
G0 Z-1.5
G1 F300.0 Z-5.0
G3 F800.0 X-395.8056 Y29.44286 I110.29009 J-32.024
G1 X-395.80575 Y29.44228
G3 X-398.64998 Y14.82533 I111.36639 J-29.25536
G3 X-398.65013 Y14.82414 I5.5498 J-0.71132
G3 X-399.59518 Y-0.02384 I115.91865 J-14.8321
G3 X-397.39496 Y-22.57181 I115.96567 J-0.06544
G3 X-397.39464 Y-22.57342 I5.48904 J1.08475
G3 X-383.15608 Y-59.45491 I112.62755 J22.29206
G1 X-383.15594 Y-59.45514
G1 X-383.15622 Y-59.45467
G1 X-383.15608 Y-59.45491
G3 X-340.98679 Y-100.58664 I99.5037 J59.83133
G1 X-340.98636 Y-100.58688
G3 X-313.46198 Y-111.79356 I56.71649 J99.89545
G1 X-313.46119 Y-111.79376
G3 X-298.84743 Y-114.63662 I29.25815 J111.41933
G3 X-298.84648 Y-114.63675 I0.71129 J5.5498
G3 X-284.00111 Y-115.58143 I14.82202 J115.80541
G3 X-261.44999 Y-113.38303 I0.06969 J116.04858
G3 X-261.44806 Y-113.38265 I-1.08393 J5.4892
G3 X-224.55763 Y-99.15144 I-22.30515 J112.74955
G1 X-224.55759 Y-99.15142
G1 X-224.55767 Y-99.15147
G1 X-224.55763 Y-99.15144
G3 X-183.40682 Y-56.98344 I-59.78881 J99.50963
G1 X-183.40664 Y-56.98312
G3 X-172.19439 Y-29.45414 I-99.86121 J56.72019
G1 X-172.19423 Y-29.45356
G3 X-169.35 Y-14.83661 I-111.36639 J29.25536
G3 X-169.34985 Y-14.83542 I-5.5498 J0.71132
G3 X-168.4048 Y0.01462 I-115.91865 J14.8321
G3 X-168.40484 Y0.03414 I-5.5952 J-0.00086
G1 X-168.4073 Y0.70897
G3 X-168.40737 Y0.72373 I-5.59516 J-0.02038
G3 X-170.73926 Y23.16628 I-116.18477 J-0.72976
G3 X-170.73989 Y23.16934 I-5.48279 J-1.1159
G3 X-185.10311 Y59.82959 I-112.65667 J-22.99426
G1 X-185.10323 Y59.82979
G1 X-185.103 Y59.82939
G1 X-185.10311 Y59.82959
G3 X-227.22239 Y100.67939 I-99.31869 J-60.26617
G1 X-227.22291 Y100.67969
G3 X-254.65172 Y111.80802 I-56.51741 J-99.93554
G3 X-269.21273 Y114.63197 I-29.03702 J-110.77022
G1 X-269.21298 Y114.632
G3 X-283.99822 Y115.57015 I-14.78824 J-116.08565
G3 X-306.55 Y113.37175 I-0.07034 J-116.04858
G3 X-306.55192 Y113.37137 I1.08393 J-5.4892
G3 X-343.44235 Y99.14016 I22.30515 J-112.74955
G1 X-343.4424 Y99.14013
G1 X-343.44231 Y99.14019
G1 X-343.44235 Y99.14016
G3 X-384.59316 Y56.97216 I59.78881 J-99.50963
G1 X-384.59334 Y56.97184
G3 X-395.02223 Y32.27565 I99.86121 J-56.72019
G1 F300.0 X-392.72203 Y31.60776
G3 F800.0 X-393.48906 Y28.83405 I107.9899 J-31.35611
G1 X-393.48915 Y28.83372
G3 X-396.27421 Y14.52082 I109.04979 J-28.6468
G3 X-396.2743 Y14.52014 I3.17404 J-0.40682
G3 X-397.19998 Y-0.02436 I113.54282 J-14.5281
G3 X-395.0452 Y-22.10745 I113.57047 J-0.06493
G3 X-395.04502 Y-22.10837 I3.13929 J0.62039
G3 X-381.10344 Y-58.22053 I110.27793 J21.827
G1 X-381.10336 Y-58.22067
G1 X-381.10353 Y-58.2204
G1 X-381.10344 Y-58.22053
G3 X-339.80402 Y-98.50384 I97.45107 J58.59696
G1 X-339.80377 Y-98.50398
G3 X-312.8533 Y-109.47699 I55.5339 J97.81255
G1 X-312.85285 Y-109.47711
G3 X-298.54294 Y-112.26086 I28.64981 J109.10267
G3 X-298.54239 Y-112.26093 I0.4068 J3.17404
G3 X-284.00063 Y-113.18623 I14.51794 J113.42959
G3 X-261.91399 Y-111.0332 I0.06921 J113.65338
G3 X-261.91289 Y-111.03299 I-0.61992 J3.13938
G3 X-225.79123 Y-97.09834 I-21.84031 J110.39989
G1 X-225.7912 Y-97.09833
G1 X-225.79125 Y-97.09836
G1 X-225.79123 Y-97.09834
G3 X-185.48944 Y-55.80035 I-58.55521 J97.45653
G1 X-185.48933 Y-55.80017
G3 X-174.51092 Y-28.84534 I-97.77852 J55.53724
G1 X-174.51083 Y-28.845
G3 X-171.72577 Y-14.5321 I-109.04979 J28.6468
G3 X-171.72568 Y-14.53143 I-3.17404 J0.40682
G3 X-170.8 Y0.01425 I-113.54282 J14.5281
G3 X-170.80002 Y0.02541 I-3.2 J-0.00049
G1 X-170.80248 Y0.70025
G3 X-170.80252 Y0.70869 I-3.19998 J-0.01165
G3 X-173.08634 Y22.68858 I-113.78962 J-0.71471
G3 X-173.0867 Y22.69033 I-3.13571 J-0.63821
G3 X-187.15077 Y58.58697 I-110.30985 J-22.51525
G1 X-187.15084 Y58.58708
G1 X-187.1507 Y58.58686
G1 X-187.15077 Y58.58697
G3 X-228.4017 Y98.59463 I-97.27103 J-59.02355
G1 X-228.402 Y98.5948
G3 X-255.25882 Y109.49103 I-55.33832 J-97.85066
G3 X-269.51552 Y112.25598 I-28.42992 J-108.45324
G1 X-269.51566 Y112.256
G3 X-283.99898 Y113.17495 I-14.48556 J-113.70965
G3 X-306.08599 Y111.02192 I-0.06958 J-113.65338
G3 X-306.08709 Y111.0217 I0.61992 J-3.13938
G3 X-342.20876 Y97.08706 I21.84031 J-110.39989
G1 X-342.20878 Y97.08705
G1 X-342.20873 Y97.08708
G1 X-342.20876 Y97.08706
G3 X-382.51054 Y55.78907 I58.55521 J-97.45653
G1 X-382.51065 Y55.78889
G3 X-392.72203 Y31.60776 I97.77852 J-55.53724
G0 Z3.0
G0 X-397.32703 Y32.94487
G0 Z-1.5
G1 F300.0 Z-5.0
G2 F800.0 X-386.68021 Y58.15716 I112.5949 J-32.69323
G1 X-386.67995 Y58.15762
G2 X-344.67842 Y101.19738 I103.0264 J-58.52709
G1 X-344.67836 Y101.19741
G1 X-344.67849 Y101.19734
G1 X-344.67842 Y101.19738
G2 X-307.01768 Y115.72574 I60.43165 J-100.57556
G2 X-307.01494 Y115.72628 I1.55161 J-7.8432
G2 X-283.99747 Y117.97015 I22.94637 J-116.20471
G2 X-268.9097 Y117.01276 I-0.00375 J-119.4238
G1 X-268.90934 Y117.01271
G2 X-254.0434 Y114.12964 I-14.7794 J-115.97492
G2 X-226.04147 Y102.76875 I-29.69692 J-113.3855
G1 X-226.04072 Y102.76833
G2 X-183.05136 Y61.0747 I-58.38109 J-103.20491
G1 X-183.05119 Y61.07442
G1 X-183.05153 Y61.07498
G1 X-183.05136 Y61.0747
G2 X-168.38837 Y23.6493 I-100.34519 J-60.89962
G2 X-168.38748 Y23.64494 I-7.83369 J-1.59893
G2 X-166.00742 Y0.73881 I-116.20466 J-23.65096
G2 X-166.00731 Y0.71771 I-7.99504 J-0.05022
G1 X-166.00485 Y0.04288
G2 X-166.0048 Y0.01499 I-7.99515 J-0.02912
G2 X-166.96926 Y-15.14002 I-119.2637 J-0.01831
G2 X-166.96948 Y-15.14172 I-7.93054 J1.01473
G2 X-169.87299 Y-30.06334 I-116.59115 J14.94352
G1 X-169.87321 Y-30.06417
G2 X-181.31977 Y-58.16844 I-113.39464 J29.80124
G1 X-181.32004 Y-58.1689
G2 X-223.32156 Y-101.20866 I-103.0264 J58.52709
G1 X-223.32162 Y-101.2087
G1 X-223.3215 Y-101.20862
G1 X-223.32156 Y-101.20866
G2 X-260.9823 Y-115.73702 I-60.43165 J100.57556
G2 X-260.98505 Y-115.73756 I-1.55161 J7.8432
G2 X-284.00159 Y-117.98143 I-22.94637 J116.20471
G2 X-299.15117 Y-117.01733 I-0.02286 J119.15009
G2 X-299.15253 Y-117.01715 I1.01503 J7.93051
G2 X-314.07076 Y-114.11506 I14.94948 J116.64272
G1 X-314.07188 Y-114.11477
G2 X-342.17131 Y-102.67396 I29.80201 J113.42334
G1 X-342.17193 Y-102.67361
G2 X-385.21283 Y-60.69175 I58.51955 J103.05003
G1 X-385.21303 Y-60.69142
G1 X-385.21262 Y-60.69209
G1 X-385.21283 Y-60.69175
G2 X-399.74897 Y-23.03941 I100.44574 J60.41039
G2 X-399.74942 Y-23.0371 I7.84305 J1.55235
G2 X-401.99518 Y-0.02333 I116.11991 J22.94782
G2 X-401.03072 Y15.12874 I119.2637 J0.01537
G2 X-401.03051 Y15.13044 I7.93054 J-1.01473
G2 X-398.12699 Y30.05206 I116.59115 J-14.94352
G1 X-398.12677 Y30.05289
G2 X-397.32703 Y32.94487 I113.39464 J-29.80124
G0 Z3.0
G0 X-419.71931
G0 Z-1.5
G1 F300.0 Z-5.0
G1 F800.0 Y35.14258
G3 X-427.71931 Y43.14258 I-8.0 J0.0
G1 X-432.0
G1 Y57.0
G1 X-396.5833
G1 X-396.55405
G3 X-389.33869 Y61.54479 I0.0 J8.0
G2 X-179.36967 Y62.74149 I105.33869 J-61.54479
G3 X-171.69509 Y57.0 I7.67458 J2.25851
G1 X-171.4167
G1 X-54.1546
G3 X-55.49129 Y52.57422 I6.6585 J-4.42578
G1 Y43.14258
G1 X-57.35938
G3 X-64.29574 Y39.12841 I0.0 J-8.0
G3 X-71.22656 Y43.13778 I-6.93083 J-3.98584
G1 X-99.88867
G3 X-107.50919 Y37.56145 I0.0 J-7.9952
G1 X-113.82107 Y17.67622
G1 X-119.66377 Y37.41214
G3 X-127.33008 Y43.13778 I-7.66631 J-2.26956
G1 X-156.82227
G3 X-164.81747 Y35.14258 I0.0 J-7.9952
G1 Y-36.0
G3 X-156.82227 Y-43.9952 I7.9952 J0.0
G1 X-138.6582
G3 X-130.663 Y-36.0 I0.0 J7.9952
G1 Y-33.51452
G1 X-129.15513 Y-38.37083
G3 X-121.51953 Y-43.9952 I7.6356 J2.37083
G1 X-107.11523
G3 X-99.46722 Y-38.33047 I0.0 J7.9952
G1 X-97.97176 Y-33.42276
G1 Y-36.0
G3 X-89.97656 Y-43.9952 I7.9952 J0.0
G1 X-71.22656
G3 X-63.23136 Y-36.0 I0.0 J7.9952
G1 Y-23.6741
G3 X-59.82497 Y-30.68255 I30.15217 J10.32314
G3 X-59.75534 Y-30.78816 I6.71364 J4.35052
G3 X-44.89225 Y-42.63935 I26.13067 J17.52579
G3 X-44.79769 Y-42.67493 I2.86491 J7.46942
G3 X-26.73833 Y-45.70971 I17.04365 J46.17218
G3 X-12.77391 Y-43.89363 I0.36494 J51.7905
G3 X-8.0 Y-42.20466 I-8.74772 J32.31676
G1 Y-57.0
G1 X-171.4167
G1 X-171.59239
G3 X-179.14762 Y-62.36969 I0.0 J-8.0
G2 X-389.6551 Y-61.0 I-104.85238 J62.36969
G3 X-392.52698 Y-58.10462 I-6.9282 J-4.0
G1 X-392.58232 Y-58.07207
G3 X-396.63921 Y-56.96744 I-4.05632 J-6.89538
G1 X-432.0 Y-56.96996
G1 Y-44.0
G1 X-427.71931
G3 X-419.71931 Y-36.0 I0.0 J8.0
G1 Y32.94487
G0 Z3.0
G0 X-162.41747
G0 Z-1.5
G1 F300.0 Z-5.0
G1 F800.0 Y-36.0
G3 X-156.82227 Y-41.5952 I5.5952 J0.0
G1 X-138.6582
G3 X-133.063 Y-36.0 I0.0 J5.5952
G1 Y-17.69142
G1 X-126.86308 Y-37.65916
G3 X-121.51953 Y-41.5952 I5.34354 J1.65916
G1 X-107.11523
G3 X-101.763 Y-37.63091 I0.0 J5.5952
G1 X-95.57176 Y-17.31284
G1 Y-36.0
G3 X-89.97656 Y-41.5952 I5.5952 J0.0
G1 X-71.22656
G3 X-65.63136 Y-36.0 I0.0 J5.5952
G1 Y35.14258
G3 X-71.22656 Y40.73778 I-5.5952 J0.0
G1 X-99.88867
G3 X-105.22166 Y36.83535 I0.0 J-5.5952
G1 X-113.90102 Y9.49155
G1 X-121.96504 Y36.73086
G3 X-127.33008 Y40.73778 I-5.36504 J-1.58828
G1 X-156.82227
G3 X-162.41747 Y35.14258 I0.0 J-5.5952
G1 Y32.94487
G1 F300.0 X-160.02227
G1 F800.0 Y-36.0
G3 X-156.82227 Y-39.2 I3.2 J0.0
G1 X-138.6582
G3 X-135.4582 Y-36.0 I0.0 J3.2
G1 Y-1.89996
G1 X-124.5756 Y-36.9489
G3 X-121.51953 Y-39.2 I3.05607 J0.9489
G1 X-107.11523
G3 X-104.05419 Y-36.93275 I0.0 J3.2
G1 X-93.17656 Y-1.23513
G1 Y-36.0
G3 X-89.97656 Y-39.2 I3.2 J0.0
G1 X-71.22656
G3 X-68.02656 Y-36.0 I0.0 J3.2
G1 Y35.14258
G3 X-71.22656 Y38.34258 I-3.2 J0.0
G1 X-99.88867
G3 X-102.93871 Y36.11071 I0.0 J-3.2
G1 X-113.97386 Y1.34508
G3 X-113.98075 Y1.3231 I3.05004 J-0.96813
G1 X-124.26171 Y36.05095
G3 X-127.33008 Y38.34258 I-3.06837 J-0.90837
G1 X-156.82227
G3 X-160.02227 Y35.14258 I0.0 J-3.2
G1 Y32.94487
G0 Z3.0
G0 Y59.4
G0 Z-1.5
G1 F300.0 Z-5.0
G1 F800.0 X-5.6
G1 Y58.12731
G3 X-6.28516 Y58.16942 I-0.68516 J-5.55309
G1 X-23.86328
G3 X-26.89063 Y57.27969 I0.0 J-5.5952
G3 X-29.91797 Y58.16942 I-3.02734 J-4.70547
G1 X-47.49609
G3 X-53.09129 Y52.57422 I0.0 J-5.5952
G1 Y40.74258
G1 X-57.35938
G3 X-62.95938 Y35.14258 I0.0 J-5.6
G1 Y-9.63281
G3 X-62.95937 Y-9.63519 I5.6 J0.0
G3 X-61.90993 Y-19.45763 I46.67742 J0.01981
G3 X-57.81088 Y-29.3774 I28.83073 J6.10666
G3 X-57.76214 Y-29.45132 I4.69955 J3.04537
G3 X-44.03278 Y-40.39852 I24.13746 J16.18895
G3 X-43.96658 Y-40.42343 I2.00544 J5.2286
G3 X-26.75466 Y-43.30952 I16.21254 J43.92068
G3 X-13.40254 Y-41.57742 I0.38127 J49.39032
G3 X-5.6 Y-38.26871 I-8.11909 J30.00055
G1 Y-59.4
G1 X-171.4167
G1 X-171.59239
G3 X-176.94934 Y-63.3681 I0.0 J-5.6
G2 X-391.73356 Y-62.2 I-107.05066 J63.3681
G3 X-393.74388 Y-60.17324 I-4.84974 J-2.8
G1 X-393.79922 Y-60.14068
G3 X-396.63904 Y-59.36744 I-2.83943 J-4.82676
G1 X-434.4 Y-59.37013
G1 Y-41.6
G1 X-427.71931
G3 X-422.11931 Y-36.0 I0.0 J5.6
G1 Y35.14258
G3 X-427.71931 Y40.74258 I-5.6 J0.0
G1 X-434.4
G1 Y59.4
G1 X-396.5833
G1 X-396.55405
G3 X-391.46532 Y62.6623 I0.0 J5.6
G2 X-177.13916 Y63.68768 I107.46532 J-62.6623
G3 X-171.69509 Y59.4 I5.44406 J1.31232
G1 X-171.4167
G1 X-160.02227
G1 F300.0 Y61.8
G1 F800.0 X-3.2
G1 Y53.42381
G3 X-6.28516 Y55.77422 I-3.08516 J-0.84959
G1 X-23.86328
G3 X-26.89063 Y53.61113 I0.0 J-3.2
G3 X-29.91797 Y55.77422 I-3.02734 J-1.03691
G1 X-47.49609
G3 X-50.69609 Y52.57422 I0.0 J-3.2
G1 Y40.31836
G3 X-50.01329 Y38.34258 I3.2 J0.0
G1 X-57.35938
G3 X-60.55938 Y35.14258 I0.0 J-3.2
G1 Y-9.63281
G3 X-60.55937 Y-9.63417 I3.2 J0.0
G3 X-59.56294 Y-18.95598 I44.27742 J0.01879
G3 X-55.79678 Y-28.07224 I26.48374 J5.60501
G3 X-55.76893 Y-28.11448 I2.68546 J1.74021
G3 X-43.17331 Y-38.15769 I22.14426 J14.85212
G3 X-43.13548 Y-38.17193 I1.14596 J2.98777
G3 X-26.77104 Y-40.90931 I15.38144 J41.66918
G3 X-14.03114 Y-39.26121 I0.39765 J46.99011
G3 X-3.2 Y-33.6415 I-7.49049 J27.68433
G1 Y-61.8
G1 X-171.4167
G1 X-171.59239
G3 X-174.71633 Y-64.30645 I0.0 J-3.2
G2 X-393.81202 Y-63.4 I-109.28367 J64.30645
G3 X-394.96077 Y-62.24185 I-2.77128 J-1.6
G1 X-395.01611 Y-62.20929
G3 X-396.63887 Y-61.76744 I-1.62253 J-2.75815
G1 X-436.8 Y-61.7703
G1 Y-39.2
G1 X-427.71931
G3 X-424.51931 Y-36.0 I0.0 J3.2
G1 Y35.14258
G3 X-427.71931 Y38.34258 I-3.2 J0.0
G1 X-436.8
G1 Y61.8
G1 X-396.5833
G1 X-396.55405
G3 X-393.60586 Y63.75574 I0.0 J3.2
G2 X-174.86432 Y64.55729 I109.60586 J-63.75574
G3 X-171.69509 Y61.8 I3.16923 J0.44271
G1 X-171.4167
G1 X-160.02227
G0 Z3.0
G0 X-27.42813 Y30.22575
G0 Z1.0
G1 F300.0 Z-2.5
G3 F800.0 X-26.89063 Y30.37374 I-2.48984 J10.09261
G3 X-25.66953 Y30.08129 I3.02734 J9.94462
G1 Y-9.63281
G3 X-25.66898 Y-9.74032 I10.4 J0.0
G2 X-26.0898 Y-12.70838 I-9.95165 J-0.10288
G2 X-26.78854 Y-12.75815 I-0.72717 J5.27985
G2 X-27.06046 Y-12.74733 I0.02768 J4.12043
G2 X-27.42913 Y-9.77728 I10.55655 J2.81828
G3 X-27.42813 Y-9.63281 I-10.399 J0.14447
G1 Y30.22575
G1 F300.0 X-29.82813
G1 F800.0 Y32.32366
G3 X-26.89063 Y32.91847 I-0.08984 J7.9947
G3 X-23.86328 Y32.32316 I3.02734 J7.39989
G1 X-23.26953
G1 Y-9.63281
G3 X-23.2691 Y-9.71551 I8.0 J0.0
G2 X-23.92107 Y-13.80512 I-12.35152 J-0.12769
G3 X-23.94598 Y-13.87988 I7.57732 J-2.56597
G2 X-24.56783 Y-14.75042 I-1.70025 J0.55716
G2 X-25.01548 Y-14.94545 I-0.75248 J1.11586
G3 X-25.04132 Y-14.95151 I1.81191 J-7.79211
G2 X-26.78989 Y-15.15817 I-1.77565 J7.52298
G2 X-28.30959 Y-14.97164 I0.02903 J6.52046
G3 X-28.32531 Y-14.96782 I-1.90013 J-7.77107
G2 X-28.58068 Y-14.86403 I0.21981 J0.90692
G2 X-29.20833 Y-13.95238 I1.39821 J1.63452
G2 X-29.8289 Y-9.74394 I12.70443 J4.02333
G3 X-29.82813 Y-9.63281 I-7.99923 J0.11113
G1 Y30.22575
G1 F300.0 X-32.22813
G1 F800.0 Y34.72316
G1 X-29.91797
G3 X-26.89063 Y35.61289 I0.0 J5.5952
G3 X-23.86328 Y34.72316 I3.02734 J4.70547
G1 X-20.86953
G1 Y-9.63281
G3 X-20.86923 Y-9.6907 I5.6 J0.0
G2 X-21.64787 Y-14.57491 I-14.75139 J-0.1525
G3 X-21.66531 Y-14.62724 I5.30412 J-1.79618
G2 X-23.17068 Y-16.70224 I-3.98092 J1.30453
G2 X-24.47191 Y-17.28309 I-2.14962 J3.06768
G3 X-24.48999 Y-17.28732 I1.26833 J-5.45448
G2 X-26.79093 Y-17.55819 I-2.32698 J9.85879
G2 X-28.87963 Y-17.30297 I0.03007 J8.92048
G3 X-28.89063 Y-17.30029 I-1.33009 J-5.43975
G2 X-30.00088 Y-16.80272 I0.78513 J3.23938
G2 X-31.48513 Y-14.71221 I2.8184 J3.57322
G2 X-32.22867 Y-9.7106 I14.98123 J4.78316
G3 X-32.22813 Y-9.63281 I-5.59946 J0.07779
G1 Y30.22575
G1 F300.0 X-34.62813
G1 F800.0 Y35.14258
G3 X-35.31093 Y37.11836 I-3.2 J0.0
G1 X-29.91797
G3 X-26.89063 Y39.28145 I0.0 J3.2
G3 X-23.86328 Y37.11836 I3.02734 J1.03691
G1 X-17.78673
G3 X-18.46953 Y35.14258 I2.5172 J-1.97578
G1 Y-9.63281
G3 X-18.46936 Y-9.66589 I3.2 J0.0
G2 X-19.37468 Y-15.3447 I-17.15127 J-0.17731
G3 X-19.38464 Y-15.37461 I3.03093 J-1.02639
G2 X-21.77258 Y-18.65306 I-6.26159 J2.05189
G2 X-23.92833 Y-19.62072 I-3.54772 J5.0185
G3 X-23.93867 Y-19.62314 I0.72476 J-3.11684
G2 X-26.79184 Y-19.9582 I-2.8783 J12.19461
G2 X-29.44967 Y-19.63429 I0.03098 J11.32049
G3 X-29.45596 Y-19.63275 I-0.76005 J-3.10843
G2 X-31.42935 Y-18.73223 I1.35045 J5.57185
G2 X-33.76367 Y-15.46641 I4.24688 J5.50272
G2 X-34.62843 Y-9.67726 I17.25976 J5.53736
G3 X-34.62813 Y-9.63281 I-3.19969 J0.04445
G1 Y30.22575
G0 Z3.0
G0 X-27.42813
G0 Z-1.5
G1 F300.0 Z-5.0
G3 F800.0 X-26.89063 Y30.37374 I-2.48984 J10.09261
G3 X-25.66953 Y30.08129 I3.02734 J9.94462
G1 Y-9.63281
G3 X-25.66898 Y-9.74032 I10.4 J0.0
G2 X-26.0898 Y-12.70838 I-9.95165 J-0.10288
G2 X-26.78854 Y-12.75815 I-0.72717 J5.27985
G2 X-27.06046 Y-12.74733 I0.02768 J4.12043
G2 X-27.42913 Y-9.77728 I10.55655 J2.81828
G3 X-27.42813 Y-9.63281 I-10.399 J0.14447
G1 Y30.22575
G1 F300.0 X-29.82813
G1 F800.0 Y32.32366
G3 X-26.89063 Y32.91847 I-0.08984 J7.9947
G3 X-23.86328 Y32.32316 I3.02734 J7.39989
G1 X-23.26953
G1 Y-9.63281
G3 X-23.2691 Y-9.71551 I8.0 J0.0
G2 X-23.92107 Y-13.80512 I-12.35152 J-0.12769
G3 X-23.94598 Y-13.87988 I7.57732 J-2.56597
G2 X-24.56783 Y-14.75042 I-1.70025 J0.55716
G2 X-25.01548 Y-14.94545 I-0.75248 J1.11586
G3 X-25.04132 Y-14.95151 I1.81191 J-7.79211
G2 X-26.78989 Y-15.15817 I-1.77565 J7.52298
G2 X-28.30959 Y-14.97164 I0.02903 J6.52046
G3 X-28.32531 Y-14.96782 I-1.90013 J-7.77107
G2 X-28.58068 Y-14.86403 I0.21981 J0.90692
G2 X-29.20833 Y-13.95238 I1.39821 J1.63452
G2 X-29.8289 Y-9.74394 I12.70443 J4.02333
G3 X-29.82813 Y-9.63281 I-7.99923 J0.11113
G1 Y30.22575
G1 F300.0 X-32.22813
G1 F800.0 Y34.72316
G1 X-29.91797
G3 X-26.89063 Y35.61289 I0.0 J5.5952
G3 X-23.86328 Y34.72316 I3.02734 J4.70547
G1 X-20.86953
G1 Y-9.63281
G3 X-20.86923 Y-9.6907 I5.6 J0.0
G2 X-21.64787 Y-14.57491 I-14.75139 J-0.1525
G3 X-21.66531 Y-14.62724 I5.30412 J-1.79618
G2 X-23.17068 Y-16.70224 I-3.98092 J1.30453
G2 X-24.47191 Y-17.28309 I-2.14962 J3.06768
G3 X-24.48999 Y-17.28732 I1.26833 J-5.45448
G2 X-26.79093 Y-17.55819 I-2.32698 J9.85879
G2 X-28.87963 Y-17.30297 I0.03007 J8.92048
G3 X-28.89063 Y-17.30029 I-1.33009 J-5.43975
G2 X-30.00088 Y-16.80272 I0.78513 J3.23938
G2 X-31.48513 Y-14.71221 I2.8184 J3.57322
G2 X-32.22867 Y-9.7106 I14.98123 J4.78316
G3 X-32.22813 Y-9.63281 I-5.59946 J0.07779
G1 Y30.22575
G1 F300.0 X-34.62813
G1 F800.0 Y35.14258
G3 X-35.31093 Y37.11836 I-3.2 J0.0
G1 X-29.91797
G3 X-26.89063 Y39.28145 I0.0 J3.2
G3 X-23.86328 Y37.11836 I3.02734 J1.03691
G1 X-17.78673
G3 X-18.46953 Y35.14258 I2.5172 J-1.97578
G1 Y-9.63281
G3 X-18.46936 Y-9.66589 I3.2 J0.0
G2 X-19.37468 Y-15.3447 I-17.15127 J-0.17731
G3 X-19.38464 Y-15.37461 I3.03093 J-1.02639
G2 X-21.77258 Y-18.65306 I-6.26159 J2.05189
G2 X-23.92833 Y-19.62072 I-3.54772 J5.0185
G3 X-23.93867 Y-19.62314 I0.72476 J-3.11684
G2 X-26.79184 Y-19.9582 I-2.8783 J12.19461
G2 X-29.44967 Y-19.63429 I0.03098 J11.32049
G3 X-29.45596 Y-19.63275 I-0.76005 J-3.10843
G2 X-31.42935 Y-18.73223 I1.35045 J5.57185
G2 X-33.76367 Y-15.46641 I4.24688 J5.50272
G2 X-34.62843 Y-9.67726 I17.25976 J5.53736
G3 X-34.62813 Y-9.63281 I-3.19969 J0.04445
G1 Y30.22575
G0 Z3.0
G0 X-3.76796 Y38.34258
G0 Z1.0
G1 F300.0 Z-2.5
G3 F800.0 X-3.2 Y39.46876 I-2.5172 J1.97578
G1 Y38.34258
G1 X-3.76796
G1 F300.0 Z-5.0
G3 F800.0 X-3.2 Y39.46876 I-2.5172 J1.97578
G1 Y38.34258
G1 X-3.76796
( Tasche6VertiefungInnen )
S1000
G0 Z3.0
G0 X-283.64125 Y0.05483
G0 Z1.0
G1 F300.0 Z-1.2
G1 F800.0 Y0.05728
G2 X-283.64126 Y0.05445 I-0.83844 J0.00059
G2 X-283.65238 Y-0.07826 I-0.83843 J0.00342
G2 X-283.6655 Y-0.10841 I-0.1215 J0.03497
G1 X-283.66588 Y-0.10904
G2 X-283.89439 Y-0.34051 I-0.59143 J0.35533
G2 X-283.95196 Y-0.34498 I-0.05729 J0.3647
G3 X-284.02772 Y-0.34497 I-0.04803 J-61.79998
G2 X-284.13925 Y-0.33658 I-0.00033 J0.74075
G2 X-284.34965 Y-0.12586 I0.32942 J0.5393
G2 X-284.35873 Y-0.02461 I0.55588 J0.1009
G3 X-284.35872 Y0.04149 I-61.79999 J0.03837
G2 X-284.35033 Y0.15302 I0.74075 J0.00033
G2 X-284.13961 Y0.36341 I0.5393 J-0.32942
G2 X-284.03836 Y0.3725 I0.1009 J-0.55588
G3 X-283.97226 Y0.37249 I0.03837 J61.79999
G2 X-283.86073 Y0.3641 I0.00033 J-0.74075
G2 X-283.65034 Y0.15338 I-0.32942 J-0.5393
G2 X-283.64126 Y0.05445 I-0.55588 J-0.1009
G2 X-283.64125 Y0.05213 I-0.56496 J-0.00197
G1 Y0.05483
G1 F300.0 X-282.44127 Y0.05982
G2 F800.0 X-282.44126 Y0.05382 I-1.76495 J-0.00734
G2 X-282.44125 Y0.05138 I-1.76496 J-0.00134
G1 Y0.05643
G2 X-282.44126 Y0.05382 I-2.03844 J0.00144
G2 X-282.47622 Y-0.31807 I-2.03843 J0.00405
G2 X-282.63688 Y-0.72642 I-1.29766 J0.27478
G1 X-282.63725 Y-0.72704
G2 X-283.32081 Y-1.39533 I-1.62006 J0.97333
G2 X-283.32288 Y-1.39652 I-0.9365 J1.64162
G1 X-283.31923 Y-1.39444
G2 X-283.32081 Y-1.39533 I-0.53484 J0.94044
G2 X-283.56701 Y-1.49711 I-0.53325 J0.94134
G2 X-283.9529 Y-1.54498 I-0.38466 J1.52129
G3 X-284.02719 Y-1.54497 I-0.0471 J-60.59998
G2 X-284.38867 Y-1.51118 I-0.00087 J1.94075
G2 X-284.74953 Y-1.36987 I0.23656 J1.13554
G1 X-284.75328 Y-1.36761
G2 X-285.40224 Y-0.70297 I0.94345 J1.57033
G2 X-285.40274 Y-0.7021 I1.59241 J0.9057
G1 X-285.40186 Y-0.70365
G2 X-285.40224 Y-0.70297 I0.96469 J0.54794
G2 X-285.50604 Y-0.45299 I0.96508 J0.54726
G2 X-285.55873 Y-0.02387 I1.71227 J0.42803
G3 X-285.55872 Y0.04095 I-60.59999 J0.03762
G2 X-285.52493 Y0.40243 I1.94075 J0.00087
G2 X-285.38362 Y0.7633 I1.13554 J-0.23656
G1 X-285.38136 Y0.76705
G2 X-284.71672 Y1.41601 I1.57033 J-0.94345
G2 X-284.71585 Y1.4165 I0.9057 J-1.59241
G1 X-284.7174 Y1.41562
G2 X-284.71672 Y1.41601 I0.54794 J-0.96469
G2 X-284.46674 Y1.51981 I0.54726 J-0.96508
G2 X-284.03762 Y1.5725 I0.42803 J-1.71227
G3 X-283.9728 Y1.57249 I0.03762 J60.59999
G2 X-283.61132 Y1.53869 I0.00087 J-1.94075
G2 X-283.25045 Y1.39738 I-0.23656 J-1.13554
G1 X-283.2467 Y1.39513
G2 X-282.59774 Y0.73049 I-0.94345 J-1.57033
G2 X-282.59725 Y0.72962 I-1.59241 J-0.9057
G1 X-282.59813 Y0.73117
G2 X-282.59774 Y0.73049 I-0.96469 J-0.54794
G2 X-282.49394 Y0.48051 I-0.96508 J-0.54726
G2 X-282.44127 Y0.05982 I-1.71227 J-0.42803
G1 F300.0 X-280.04129 Y0.0698
G2 F800.0 X-280.04125 Y0.05228 I-4.16492 J-0.01732
G2 X-280.04126 Y0.04989 I-4.16496 J0.0002
G1 X-280.04125 Y0.05474
G2 Y0.05228 I-4.43844 J0.00313
G2 X-280.12227 Y-0.78628 I-4.43843 J0.00559
G2 X-280.57964 Y-1.96244 I-3.65161 J0.74299
G1 X-280.58 Y-1.96304
G2 X-282.13444 Y-3.48161 I-3.67732 J2.20933
G2 X-282.13629 Y-3.48266 I-2.12287 J3.7279
G1 X-282.13278 Y-3.48066
G2 X-282.13444 Y-3.48161 I-1.72129 J3.02666
G2 X-282.95587 Y-3.81804 I-1.71962 J3.02761
G2 X-283.95476 Y-3.94498 I-0.99581 J3.84222
G3 X-284.02611 Y-3.94497 I-0.04523 J-58.19998
G2 X-284.85468 Y-3.86554 I-0.00195 J4.34075
G2 X-285.98567 Y-3.42704 I0.70258 J3.4899
G1 X-285.98928 Y-3.42487
G2 X-287.48912 Y-1.88827 I2.17944 J3.6276
G2 X-287.48956 Y-1.88749 I3.67929 J2.091
G1 X-287.48872 Y-1.88898
G2 X-287.48912 Y-1.88827 I3.05155 J1.73327
G2 X-287.8272 Y-1.0634 I3.05196 J1.73256
G2 X-287.95873 Y-0.02238 I4.03343 J1.03844
G3 X-287.95872 Y0.03988 I-58.19999 J0.03613
G2 X-287.87929 Y0.86845 I4.34075 J0.00195
G2 X-287.44079 Y1.99944 I3.4899 J-0.70258
G1 X-287.43862 Y2.00304
G2 X-285.90202 Y3.50289 I3.6276 J-2.17944
G2 X-285.90124 Y3.50333 I2.091 J-3.67929
G1 X-285.90273 Y3.50249
G2 X-285.90202 Y3.50289 I1.73327 J-3.05155
G2 X-285.07715 Y3.84096 I1.73256 J-3.05196
G2 X-284.03613 Y3.97249 I1.03844 J-4.03343
G3 X-283.97387 I0.03613 J58.19999
G2 X-283.1453 Y3.89305 I0.00195 J-4.34075
G2 X-282.01431 Y3.45456 I-0.70258 J-3.4899
G1 X-282.01071 Y3.45239
G2 X-280.51086 Y1.91579 I-2.17944 J-3.6276
G2 X-280.51042 Y1.91501 I-3.67929 J-2.091
G1 X-280.51127 Y1.9165
G2 X-280.51086 Y1.91579 I-3.05155 J-1.73327
G2 X-280.17279 Y1.09092 I-3.05196 J-1.73256
G2 X-280.04129 Y0.0698 I-4.03343 J-1.03844
G1 F300.0 X-277.64131 Y0.07978
G2 F800.0 X-277.64125 Y0.05071 I-6.5649 J-0.02731
G2 X-277.64126 Y0.0484 I-6.56496 J0.00177
G1 X-277.64125 Y0.05305
G2 Y0.05071 I-6.83844 J0.00482
G2 X-277.76819 Y-1.2536 I-6.83843 J0.00716
G2 X-278.52239 Y-3.19847 I-6.00569 J1.2103
G1 X-278.52274 Y-3.19904
G2 X-280.94796 Y-5.56781 I-5.73458 J3.44533
G2 X-280.94969 Y-5.5688 I-3.30936 J5.8141
G1 X-280.94632 Y-5.56688
G2 X-280.94796 Y-5.56781 I-2.90774 J5.11288
G2 X-282.34535 Y-6.1391 I-2.90611 J5.11381
G2 X-283.95663 Y-6.34498 I-1.60633 J6.16328
G3 X-284.02503 Y-6.34497 I-0.04337 J-55.79998
G2 X-285.31988 Y-6.22003 I-0.00302 J6.74075
G2 X-287.22181 Y-5.48421 I1.16778 J5.84439
G1 X-287.22527 Y-5.48213
G2 X-289.57597 Y-3.07362 I3.41544 J5.68486
G2 X-289.57639 Y-3.07289 I5.76614 J3.27634
G1 X-289.57558 Y-3.07431
G2 X-289.57597 Y-3.07362 I5.13841 J2.91861
G2 X-290.14856 Y-1.67279 I5.13881 J2.91791
G2 X-290.35873 Y-0.02089 I6.35479 J1.64782
G3 X-290.35872 Y0.0388 I-55.79999 J0.03464
G2 X-290.23378 Y1.33365 I6.74075 J0.00302
G2 X-289.49796 Y3.23558 I5.84439 J-1.16778
G1 X-289.49588 Y3.23904
G2 X-287.08737 Y5.58974 I5.68486 J-3.41544
G2 X-287.08664 Y5.59016 I3.27634 J-5.76614
G1 X-287.08806 Y5.58935
G2 X-287.08737 Y5.58974 I2.91861 J-5.13841
G2 X-285.68654 Y6.16233 I2.91791 J-5.13881
G2 X-284.03464 Y6.37249 I1.64782 J-6.35479
G3 X-283.97495 I0.03464 J55.79999
G2 X-282.6801 Y6.24755 I0.00302 J-6.74075
G2 X-280.77817 Y5.51173 I-1.16778 J-5.84439
G1 X-280.77471 Y5.50965
G2 X-278.42401 Y3.10114 I-3.41544 J-5.68486
G2 X-278.42359 Y3.10041 I-5.76614 J-3.27634
G1 X-278.4244 Y3.10183
G2 X-278.42401 Y3.10114 I-5.13841 J-2.91861
G2 X-277.85142 Y1.7003 I-5.13881 J-2.91791
G2 X-277.64131 Y0.07978 I-6.35479 J-1.64782
G1 F300.0 X-275.24133 Y0.08977
G2 F800.0 X-275.24126 Y0.04912 I-8.96488 J-0.03729
G2 Y0.04691 I-8.96496 J0.00335
G1 X-275.24125 Y0.05136
G2 X-275.24126 Y0.04912 I-9.23844 J0.00651
G2 X-275.41408 Y-1.72075 I-9.23843 J0.00875
G2 X-276.46515 Y-4.43449 I-8.3598 J1.67746
G1 X-276.46548 Y-4.43503
G2 X-279.76145 Y-7.654 I-7.79183 J4.68133
G2 X-279.76309 Y-7.65494 I-4.49587 J7.90029
G1 X-279.75987 Y-7.65311
G2 X-279.76145 Y-7.654 I-4.0942 J7.19911
G2 X-281.73493 Y-8.46018 I-4.09262 J7.2
G2 X-283.95849 Y-8.74498 I-2.21675 J8.48436
G3 X-284.02396 Y-8.74497 I-0.0415 J-53.39998
G2 X-285.78494 Y-8.57454 I-0.0041 J9.14075
G2 X-288.45795 Y-7.54138 I1.63284 J8.1989
G1 X-288.46126 Y-7.53939
G2 X-291.66282 Y-4.25897 I4.65143 J7.74212
G2 X-291.66322 Y-4.25828 I7.85299 J4.4617
G1 X-291.66244 Y-4.25965
G2 X-291.66282 Y-4.25897 I7.22528 J4.10394
G2 X-292.46996 Y-2.28201 I7.22566 J4.10327
G2 X-292.75873 Y-0.0194 I8.67619 J2.25705
G3 X-292.75872 Y0.03772 I-53.39999 J0.03315
G2 X-292.58829 Y1.79871 I9.14075 J0.0041
G2 X-291.55513 Y4.47172 I8.1989 J-1.63284
G1 X-291.55314 Y4.47503
G2 X-288.27273 Y7.67659 I7.74212 J-4.65143
G2 X-288.27203 Y7.67698 I4.4617 J-7.85299
G1 X-288.2734 Y7.67621
G2 X-288.27273 Y7.67659 I4.10394 J-7.22528
G2 X-286.29576 Y8.48372 I4.10327 J-7.22566
G2 X-284.03315 Y8.77249 I2.25705 J-8.67619
G3 X-283.97603 I0.03315 J53.39999
G2 X-282.21504 Y8.60206 I0.0041 J-9.14075
G2 X-279.54203 Y7.5689 I-1.63284 J-8.1989
G1 X-279.53872 Y7.56691
G2 X-276.33716 Y4.28649 I-4.65143 J-7.74212
G2 X-276.33677 Y4.2858 I-7.85299 J-4.4617
G1 X-276.33754 Y4.28716
G2 X-276.33716 Y4.28649 I-7.22528 J-4.10394
G2 X-275.53003 Y2.30953 I-7.22566 J-4.10327
G2 X-275.24133 Y0.08977 I-8.67619 J-2.25705
G1 F300.0 X-272.84135 Y0.09975
G2 F800.0 X-272.84126 Y0.04754 I-11.36486 J-0.04727
G2 Y0.04542 I-11.36496 J0.00494
G1 X-272.84125 Y0.04967
G2 X-272.84126 Y0.04754 I-11.63843 J0.0082
G2 X-273.05997 Y-2.18784 I-11.63843 J0.01033
G2 X-274.40791 Y-5.67051 I-10.71391 J2.14455
G1 X-274.40822 Y-5.67103
G2 X-278.57493 Y-9.74019 I-9.84909 J5.91732
G2 X-278.57649 Y-9.74108 I-5.68238 J9.98648
G1 X-278.57341 Y-9.73933
G2 X-278.57493 Y-9.74019 I-5.28065 J9.28533
G2 X-281.12454 Y-10.78126 I-5.27914 J9.28619
G2 X-283.96036 Y-11.14498 I-2.82713 J10.80545
G3 X-284.02288 Y-11.14497 I-0.03964 J-50.99998
G2 X-286.24995 Y-10.92907 I-0.00518 J11.54075
G2 X-289.69409 Y-9.59855 I2.09785 J10.55343
G1 X-289.69725 Y-9.59665
G2 X-293.74967 Y-5.44433 I5.88742 J9.79938
G2 X-293.75004 Y-5.44367 I9.93983 J5.64706
G1 X-293.7493 Y-5.44498
G2 X-293.74967 Y-5.44433 I9.31214 J5.28927
G2 X-294.79137 Y-2.89117 I9.3125 J5.28862
G2 X-295.15873 Y-0.01791 I10.9976 J2.86621
G3 X-295.15872 Y0.03665 I-50.99999 J0.03166
G2 X-294.94282 Y2.26372 I11.54075 J0.00518
G2 X-293.6123 Y5.70786 I10.55343 J-2.09785
G1 X-293.6104 Y5.71102
G2 X-289.45808 Y9.76343 I9.79938 J-5.88742
G2 X-289.45742 Y9.76381 I5.64706 J-9.93983
G1 X-289.45873 Y9.76307
G2 X-289.45808 Y9.76343 I5.28927 J-9.31214
G2 X-286.90492 Y10.80513 I5.28862 J-9.3125
G2 X-284.03166 Y11.17249 I2.86621 J-10.9976
G3 X-283.9771 I0.03166 J50.99999
G2 X-281.75003 Y10.95658 I0.00518 J-11.54075
G2 X-278.30589 Y9.62607 I-2.09785 J-10.55343
G1 X-278.30273 Y9.62417
G2 X-274.25032 Y5.47185 I-5.88742 J-9.79938
G2 X-274.24994 Y5.47119 I-9.93983 J-5.64706
G1 X-274.25068 Y5.47249
G2 X-274.25032 Y5.47185 I-9.31214 J-5.28927
G2 X-273.20862 Y2.91869 I-9.3125 J-5.28862
G2 X-272.84135 Y0.09975 I-10.9976 J-2.86621
G1 F300.0 X-270.44137 Y0.10973
G2 F800.0 X-270.44126 Y0.04595 I-13.76484 J-0.05725
G2 Y0.04393 I-13.76496 J0.00653
G1 X-270.44125 Y0.04798
G2 X-270.44126 Y0.04595 I-14.03843 J0.00989
G2 X-270.70585 Y-2.65491 I-14.03843 J0.01192
G2 X-272.35067 Y-6.90653 I-13.06803 J2.61161
G1 X-272.35096 Y-6.90703
G2 X-277.38841 Y-11.82638 I-11.90635 J7.15332
G2 X-277.38989 Y-11.82722 I-6.8689 J12.07267
G1 X-277.38696 Y-11.82555
G2 X-277.38841 Y-11.82638 I-6.4671 J11.37155
G2 X-280.51417 Y-13.10235 I-6.46566 J11.37238
G2 X-283.96222 Y-13.54498 I-3.43751 J13.12653
G3 X-284.0218 Y-13.54497 I-0.03777 J-48.59999
G2 X-286.71494 Y-13.28359 I-0.00626 J13.94075
G2 X-290.93024 Y-11.65572 I2.56283 J12.90795
G1 X-290.93325 Y-11.65391
G2 X-295.83651 Y-6.62969 I7.12341 J11.85664
G2 X-295.83687 Y-6.62907 I12.02668 J6.83242
G1 X-295.83616 Y-6.63031
G2 X-295.83651 Y-6.62969 I11.399 J6.4746
G2 X-297.11278 Y-3.50031 I11.39935 J6.47398
G2 X-297.55873 Y-0.01642 I13.31901 J3.47535
G3 X-297.55872 Y0.03557 I-48.59999 J0.03017
G2 X-297.29734 Y2.7287 I13.94075 J0.00626
G2 X-295.66947 Y6.944 I12.90795 J-2.56283
G1 X-295.66766 Y6.94701
G2 X-290.64344 Y11.85028 I11.85664 J-7.12341
G2 X-290.64282 Y11.85064 I6.83242 J-12.02668
G1 X-290.64406 Y11.84993
G2 X-290.64344 Y11.85028 I6.4746 J-11.399
G2 X-287.51406 Y13.12655 I6.47398 J-11.39935
G2 X-284.03017 Y13.57249 I3.47535 J-13.31901
G3 X-283.97818 I0.03017 J48.59999
G2 X-281.28505 Y13.31111 I0.00626 J-13.94075
G2 X-277.06975 Y11.68324 I-2.56283 J-12.90795
G1 X-277.06674 Y11.68143
G2 X-272.16347 Y6.65721 I-7.12341 J-11.85664
G2 X-272.16311 Y6.65658 I-12.02668 J-6.83242
G1 X-272.16382 Y6.65783
G2 X-272.16347 Y6.65721 I-11.399 J-6.4746
G2 X-270.8872 Y3.52783 I-11.39935 J-6.47398
G2 X-270.44137 Y0.10973 I-13.31901 J-3.47535
G1 F300.0 X-268.04139 Y0.11971
G2 F800.0 X-268.04126 Y0.04436 I-16.16482 J-0.06723
G2 Y0.04244 I-16.16496 J0.00812
G1 Y0.04629
G2 Y0.04436 I-16.43843 J0.01158
G2 X-268.35173 Y-3.12196 I-16.43843 J0.01351
G2 X-270.29342 Y-8.14256 I-15.42214 J3.07866
G1 X-270.29371 Y-8.14303
G2 X-276.20189 Y-13.91256 I-13.96361 J8.38932
G2 X-276.20329 Y-13.91336 I-8.05543 J14.15885
G1 X-276.20051 Y-13.91178
G2 X-276.20189 Y-13.91256 I-7.65356 J13.45778
G2 X-279.90381 Y-15.42344 I-7.65218 J13.45856
G2 X-283.96409 Y-15.94498 I-4.04787 J15.44762
G3 X-284.02072 Y-15.94497 I-0.0359 J-46.19999
G2 X-287.17991 Y-15.63812 I-0.00733 J16.34075
G2 X-292.16638 Y-13.7129 I3.02781 J15.26248
G1 X-292.16924 Y-13.71117
G2 X-297.92336 Y-7.81505 I8.35941 J13.9139
G2 X-297.92369 Y-7.81446 I14.11352 J8.01778
G1 X-297.92302 Y-7.81564
G2 X-297.92336 Y-7.81505 I13.48586 J7.65993
G2 X-299.4342 Y-4.10944 I13.48619 J7.65935
G2 X-299.95872 Y-0.01493 I15.64043 J4.08448
G3 Y0.03449 I-46.19999 J0.02868
G2 X-299.65187 Y3.19368 I16.34075 J0.00733
G2 X-297.72665 Y8.18014 I15.26248 J-3.02781
G1 X-297.72493 Y8.18301
G2 X-291.8288 Y13.93712 I13.9139 J-8.35941
G2 X-291.82821 Y13.93746 I8.01778 J-14.11352
G1 X-291.82939 Y13.93679
G2 X-291.8288 Y13.93712 I7.65993 J-13.48586
G2 X-288.12319 Y15.44796 I7.65935 J-13.48619
G2 X-284.02868 Y15.97249 I4.08448 J-15.64043
G3 X-283.97926 I0.02868 J46.19999
G2 X-280.82007 Y15.66564 I0.00733 J-16.34075
G2 X-275.83361 Y13.74041 I-3.02781 J-15.26248
G1 X-275.83074 Y13.73869
G2 X-270.07663 Y7.84257 I-8.35941 J-13.9139
G2 X-270.07629 Y7.84198 I-14.11352 J-8.01778
G1 X-270.07696 Y7.84316
G2 X-270.07663 Y7.84257 I-13.48586 J-7.65993
G2 X-268.56579 Y4.13695 I-13.48619 J-7.65935
G2 X-268.04139 Y0.11971 I-15.64043 J-4.08448
G1 F300.0 X-265.64142 Y0.1297
G2 F800.0 X-265.64126 Y0.04277 I-18.5648 J-0.07722
G2 Y0.04095 I-18.56496 J0.00971
G1 Y0.0446
G2 Y0.04277 I-18.83843 J0.01327
G2 X-265.99761 Y-3.589 I-18.83843 J0.0151
G2 X-268.23618 Y-9.37858 I-17.77626 J3.5457
G1 X-268.23645 Y-9.37903
G2 X-275.01536 Y-15.99874 I-16.02086 J9.62532
G2 X-275.01669 Y-15.9995 I-9.24195 J16.24503
G1 X-275.01405 Y-15.998
G2 X-275.01536 Y-15.99874 I-8.84001 J15.544
G2 X-279.29345 Y-17.74453 I-8.8387 J15.54475
G2 X-283.96595 Y-18.34498 I-4.65823 J17.76872
G3 X-284.01965 Y-18.34497 I-0.03404 J-43.79999
G2 X-287.64487 Y-17.99265 I-0.00841 J18.74075
G2 X-293.40252 Y-15.77007 I3.49277 J17.61701
G1 X-293.40523 Y-15.76844
G2 X-300.0102 Y-9.00041 I9.5954 J15.97116
G1 X-300.01052 Y-8.99985
G1 X-300.00988 Y-9.00097
G1 X-300.0102 Y-9.00041
G2 X-301.75561 Y-4.71855 I15.57304 J8.84471
G2 X-302.35872 Y-0.01344 I17.96185 J4.69359
G3 Y0.03341 I-43.79999 J0.02719
G2 X-302.0064 Y3.65864 I18.74075 J0.00841
G2 X-299.78382 Y9.41629 I17.61701 J-3.49277
G1 X-299.78219 Y9.419
G2 X-293.01417 Y16.02397 I15.97116 J-9.5954
G1 X-293.0136 Y16.02429
G1 X-293.01472 Y16.02365
G1 X-293.01417 Y16.02397
G2 X-288.7323 Y17.76938 I8.84471 J-15.57304
G2 X-284.02719 Y18.37249 I4.69359 J-17.96185
G3 X-283.98034 I0.02719 J43.79999
G2 X-280.35511 Y18.02017 I0.00841 J-18.74075
G2 X-274.59746 Y15.79758 I-3.49277 J-17.61701
G1 X-274.59475 Y15.79595
G2 X-267.98978 Y9.02793 I-9.5954 J-15.97116
G1 X-267.98946 Y9.02737
G1 X-267.9901 Y9.02849
G1 X-267.98978 Y9.02793
G2 X-266.24437 Y4.74607 I-15.57304 J-8.84471
G2 X-265.64142 Y0.1297 I-17.96185 J-4.69359
G1 F300.0 X-263.24144 Y0.13968
G2 F800.0 X-263.24126 Y0.04118 I-20.96478 J-0.0872
G2 Y0.03946 I-20.96496 J0.01129
G1 Y0.04291
G2 Y0.04118 I-21.23843 J0.01496
G2 X-263.64349 Y-4.05603 I-21.23843 J0.01669
G2 X-266.17894 Y-10.6146 I-20.13039 J4.01273
G1 X-266.17919 Y-10.61503
G2 X-273.82884 Y-18.08493 I-18.07812 J10.86132
G2 X-273.8301 Y-18.08564 I-10.42847 J18.33122
G1 X-273.8276 Y-18.08422
G2 X-273.82884 Y-18.08493 I-10.02647 J17.63022
G2 X-278.68309 Y-20.06562 I-10.02523 J17.63093
G2 X-283.96782 Y-20.74498 I-5.26859 J20.08981
G3 X-284.01857 Y-20.74497 I-0.03217 J-41.39999
G2 X-288.10983 Y-20.34718 I-0.00949 J21.14074
G2 X-294.63866 Y-17.82724 I3.95773 J19.97154
G1 X-294.64123 Y-17.8257
G2 X-302.09704 Y-10.18578 I10.83139 J18.02842
G1 X-302.09735 Y-10.18524
G1 X-302.09675 Y-10.1863
G1 X-302.09704 Y-10.18578
G2 X-304.07703 Y-5.32766 I17.65988 J10.03007
G2 X-304.75872 Y-0.01195 I20.28327 J5.3027
G3 Y0.03234 I-41.39999 J0.0257
G2 X-304.36093 Y4.1236 I21.14074 J0.00949
G2 X-301.84099 Y10.65243 I19.97154 J-3.95773
G1 X-301.83945 Y10.65499
G2 X-294.19953 Y18.11081 I18.02842 J-10.83139
G1 X-294.19899 Y18.11111
G1 X-294.20005 Y18.11051
G1 X-294.19953 Y18.11081
G2 X-289.34141 Y20.0908 I10.03007 J-17.65988
G2 X-284.0257 Y20.77249 I5.3027 J-20.28327
G3 X-283.98141 I0.0257 J41.39999
G2 X-279.89015 Y20.3747 I0.00949 J-21.14074
G2 X-273.36132 Y17.85476 I-3.95773 J-19.97154
G1 X-273.35876 Y17.85321
G2 X-265.90294 Y10.21329 I-10.83139 J-18.02842
G1 X-265.90264 Y10.21276
G1 X-265.90324 Y10.21382
G1 X-265.90294 Y10.21329
G2 X-263.92295 Y5.35518 I-17.65988 J-10.03007
G2 X-263.24144 Y0.13968 I-20.28327 J-5.3027
G1 F300.0 X-260.84146 Y0.14966
G2 F800.0 X-260.84126 Y0.0396 I-23.36476 J-0.09718
G2 Y0.03797 I-23.36496 J0.01288
G1 Y0.04122
G2 Y0.0396 I-23.63843 J0.01665
G2 X-261.28937 Y-4.52306 I-23.63843 J0.01827
G2 X-264.1217 Y-11.85063 I-22.48451 J4.47976
G1 X-264.12193 Y-11.85102
G2 X-272.64231 Y-20.17111 I-20.13538 J12.09731
G2 X-272.6435 Y-20.17178 I-11.615 J20.4174
G1 X-272.64115 Y-20.17045
G2 X-272.64231 Y-20.17111 I-11.21292 J19.71645
G2 X-278.07274 Y-22.38672 I-11.21175 J19.71711
G2 X-283.96968 Y-23.14498 I-5.87894 J22.4109
G3 X-284.01749 Y-23.14497 I-0.03031 J-38.99999
G2 X-288.57479 Y-22.70171 I-0.01056 J23.54074
G2 X-295.8748 Y-19.88441 I4.42269 J22.32607
G1 X-295.87722 Y-19.88296
G2 X-304.18389 Y-11.37114 I12.06738 J20.08568
G1 X-304.18417 Y-11.37064
G1 X-304.18361 Y-11.37163
G1 X-304.18389 Y-11.37114
G2 X-306.39846 Y-5.93677 I19.74672 J11.21543
G2 X-307.15872 Y-0.01045 I22.60469 J5.91181
G3 Y0.03126 I-38.99999 J0.02421
G2 X-306.71546 Y4.58856 I23.54074 J0.01056
G2 X-303.89816 Y11.88857 I22.32607 J-4.42269
G1 X-303.89671 Y11.89099
G2 X-295.38489 Y20.19766 I20.08568 J-12.06738
G1 X-295.38439 Y20.19794
G1 X-295.38538 Y20.19737
G1 X-295.38489 Y20.19766
G2 X-289.95052 Y22.41222 I11.21543 J-19.74672
G2 X-284.02421 Y23.17249 I5.91181 J-22.60469
G3 X-283.98249 I0.02421 J38.99999
G2 X-279.42519 Y22.72923 I0.01056 J-23.54074
G2 X-272.12518 Y19.91193 I-4.42269 J-22.32607
G1 X-272.12276 Y19.91048
G2 X-263.81609 Y11.39866 I-12.06738 J-20.08568
G1 X-263.81581 Y11.39815
G1 X-263.81638 Y11.39915
G1 X-263.81609 Y11.39866
G2 X-261.60153 Y5.96429 I-19.74672 J-11.21543
G2 X-260.84146 Y0.14966 I-22.60469 J-5.91181
G1 F300.0 X-258.44148 Y0.15964
G2 F800.0 X-258.44126 Y0.03801 I-25.76474 J-0.10716
G2 Y0.03648 I-25.76496 J0.01447
G1 Y0.03953
G2 Y0.03801 I-26.03843 J0.01834
G2 X-258.93525 Y-4.99008 I-26.03843 J0.01986
G2 X-262.06445 Y-13.08665 I-24.83863 J4.94679
G1 X-262.06468 Y-13.08702
G2 X-271.45579 Y-22.25729 I-22.19264 J13.33331
G2 X-271.4569 Y-22.25792 I-12.80152 J22.50358
G1 X-271.45469 Y-22.25667
G2 X-271.45579 Y-22.25729 I-12.39937 J21.80267
G2 X-277.46238 Y-24.70781 I-12.39827 J21.8033
G2 X-283.97155 Y-25.54498 I-6.48929 J24.73199
G3 X-284.01642 Y-25.54497 I-0.02844 J-36.59999
G2 X-289.03974 Y-25.05625 I-0.01164 J25.94074
G2 X-297.11094 Y-21.94158 I4.88764 J24.68061
G1 X-297.11321 Y-21.94022
G2 X-306.27073 Y-12.5565 I13.30338 J22.14294
G1 X-306.271 Y-12.55603
G1 X-306.27047 Y-12.55697
G1 X-306.27073 Y-12.5565
G2 X-308.71988 Y-6.54587 I21.83357 J12.40079
G2 X-309.55872 Y-0.00896 I24.92611 J6.52091
G3 Y0.03018 I-36.59999 J0.02272
G2 X-309.07 Y5.05351 I25.94074 J0.01164
G2 X-305.95533 Y13.12471 I24.68061 J-4.88764
G1 X-305.95397 Y13.12698
G2 X-296.57025 Y22.2845 I22.14294 J-13.30338
G1 X-296.56978 Y22.28477
G1 X-296.57072 Y22.28424
G1 X-296.57025 Y22.2845
G2 X-290.55962 Y24.73364 I12.40079 J-21.83357
G2 X-284.02272 Y25.57249 I6.52091 J-24.92611
G3 X-283.98357 I0.02272 J36.59999
G2 X-278.96024 Y25.08376 I0.01164 J-25.94074
G2 X-270.88904 Y21.9691 I-4.88764 J-24.68061
G1 X-270.88677 Y21.96774
G2 X-261.72925 Y12.58402 I-13.30338 J-22.14294
G1 X-261.72898 Y12.58355
G1 X-261.72951 Y12.58448
G1 X-261.72925 Y12.58402
G2 X-259.28011 Y6.57339 I-21.83357 J-12.40079
G2 X-258.44148 Y0.15964 I-24.92611 J-6.52091
G1 F300.0 X-256.0415 Y0.16962
G2 F800.0 X-256.04126 Y0.03642 I-28.16472 J-0.11715
G2 Y0.03499 I-28.16496 J0.01606
G1 Y0.03784
G2 Y0.03642 I-28.43843 J0.02003
G2 X-256.58113 Y-5.45711 I-28.43843 J0.02145
G2 X-260.00721 Y-14.32267 I-27.19275 J5.41381
G1 X-260.00742 Y-14.32302
G2 X-270.26926 Y-24.34348 I-24.24989 J14.56931
G2 X-270.2703 Y-24.34407 I-13.98805 J24.58977
G1 X-270.26824 Y-24.34289
G2 X-270.26926 Y-24.34348 I-13.58583 J23.88889
G2 X-276.85203 Y-27.0289 I-13.5848 J23.88948
G2 X-283.97341 Y-27.94498 I-7.09964 J27.05309
G3 X-284.01534 Y-27.94497 I-0.02658 J-34.19999
G2 X-289.5047 Y-27.41078 I-0.01272 J28.34074
G2 X-298.34708 Y-23.99875 I5.35259 J27.03514
G1 X-298.3492 Y-23.99748
G2 X-308.35758 Y-13.74186 I14.53937 J24.2002
G1 X-308.35783 Y-13.74142
G1 X-308.35733 Y-13.7423
G1 X-308.35758 Y-13.74186
G2 X-311.0413 Y-7.15497 I23.92041 J13.58615
G2 X-311.95872 Y-0.00747 I27.24753 J7.13001
G3 Y0.02911 I-34.19999 J0.02123
G2 X-311.42453 Y5.51846 I28.34074 J0.01272
G2 X-308.0125 Y14.36085 I27.03514 J-5.35259
G1 X-308.01123 Y14.36297
G2 X-297.75561 Y24.37134 I24.2002 J-14.53937
G1 X-297.75517 Y24.37159
G1 X-297.75605 Y24.3711
G1 X-297.75561 Y24.37134
G2 X-291.16872 Y27.05507 I13.58615 J-23.92041
G2 X-284.02123 Y27.97249 I7.13001 J-27.24753
G3 X-283.98464 I0.02123 J34.19999
G2 X-278.49529 Y27.4383 I0.01272 J-28.34074
G2 X-269.6529 Y24.02627 I-5.35259 J-27.03514
G1 X-269.65078 Y24.025
G2 X-259.64241 Y13.76938 I-14.53937 J-24.2002
G1 X-259.64216 Y13.76894
G1 X-259.64265 Y13.76981
G1 X-259.64241 Y13.76938
G2 X-256.95868 Y7.18249 I-23.92041 J-13.58615
G2 X-256.0415 Y0.16962 I-27.24753 J-7.13001
G1 F300.0 X-253.64152 Y0.17961
G2 F800.0 X-253.64126 Y0.03483 I-30.5647 J-0.12713
G2 Y0.0335 I-30.56496 J0.01765
G1 Y0.03615
G2 Y0.03483 I-30.83843 J0.02172
G2 X-254.227 Y-5.92413 I-30.83843 J0.02304
G2 X-257.94997 Y-15.55869 I-29.54687 J5.88083
G1 X-257.95016 Y-15.55902
G2 X-269.08274 Y-26.42966 I-26.30715 J15.80531
G1 X-269.0837 Y-26.43021
G1 X-269.08178 Y-26.42912
G1 X-269.08274 Y-26.42966
G2 X-276.24168 Y-29.35 I-14.77132 J25.97566
G2 X-283.97528 Y-30.34498 I-7.70999 J29.37418
G3 X-284.01426 Y-30.34497 I-0.02471 J-31.79999
G2 X-289.96965 Y-29.76531 I-0.0138 J30.74074
G2 X-299.58323 Y-26.05592 I5.81754 J29.38967
G1 X-299.5852 Y-26.05474
G2 X-310.44442 Y-14.92722 I15.77536 J26.25746
G1 X-310.44465 Y-14.92682
G1 X-310.44419 Y-14.92763
G1 X-310.44442 Y-14.92722
G2 X-313.36272 Y-7.76407 I26.00726 J14.77151
G2 X-314.35872 Y-0.00598 I29.56895 J7.73911
G3 Y0.02803 I-31.79999 J0.01974
G2 X-313.77906 Y5.98341 I30.74074 J0.0138
G2 X-310.06967 Y15.59699 I29.38967 J-5.81754
G1 X-310.06849 Y15.59896
G2 X-298.94097 Y26.45819 I26.25746 J-15.77536
G1 X-298.94057 Y26.45842
G1 X-298.94138 Y26.45796
G1 X-298.94097 Y26.45819
G2 X-291.77782 Y29.37649 I14.77151 J-26.00726
G2 X-284.01973 Y30.37249 I7.73911 J-29.56895
G3 X-283.98572 I0.01974 J31.79999
G2 X-278.03034 Y29.79283 I0.0138 J-30.74074
G2 X-268.41676 Y26.08344 I-5.81754 J-29.38967
G1 X-268.41479 Y26.08226
G2 X-257.55556 Y14.95474 I-15.77536 J-26.25746
G1 X-257.55533 Y14.95433
G1 X-257.55579 Y14.95515
G1 X-257.55556 Y14.95474
G2 X-254.63726 Y7.79159 I-26.00726 J-14.77151
G2 X-253.64152 Y0.17961 I-29.56895 J-7.73911
G1 F300.0 X-251.24154 Y0.18959
G2 F800.0 X-251.24126 Y0.03324 I-32.96468 J-0.13711
G1 Y0.03201
G1 Y0.03446
G1 Y0.03324
G2 X-251.87288 Y-6.39115 I-33.23843 J0.02463
G2 X-255.89272 Y-16.79472 I-31.901 J6.34785
G1 X-255.8929 Y-16.79502
G2 X-267.89621 Y-28.51584 I-28.36441 J17.04131
G1 X-267.8971 Y-28.51635
G1 X-267.89533 Y-28.51534
G1 X-267.89621 Y-28.51584
G2 X-275.63133 Y-31.67109 I-15.95785 J28.06184
G2 X-283.97714 Y-32.74497 I-8.32034 J31.69527
G3 X-284.01318 I-0.02285 J-29.39999
G2 X-290.4346 Y-32.11984 I-0.01487 J33.14074
G2 X-300.81937 Y-28.1131 I6.28249 J31.7442
G1 X-300.82119 Y-28.112
G2 X-312.53126 Y-16.11258 I17.01135 J28.31473
G1 X-312.53148 Y-16.11221
G1 X-312.53105 Y-16.11296
G1 X-312.53126 Y-16.11258
G2 X-315.68414 Y-8.37317 I28.0941 J15.95688
G2 X-316.75872 Y-0.00449 I31.89038 J8.34821
G3 Y0.02695 I-29.39999 J0.01825
G2 X-316.13359 Y6.44836 I33.14074 J0.01487
G2 X-312.12685 Y16.83313 I31.7442 J-6.28249
G1 X-312.12575 Y16.83496
G2 X-300.12634 Y28.54503 I28.31473 J-17.01135
G1 X-300.12596 Y28.54525
G1 X-300.12671 Y28.54482
G1 X-300.12634 Y28.54503
G2 X-292.38692 Y31.69791 I15.95688 J-28.0941
G2 X-284.01824 Y32.77249 I8.34821 J-31.89038
G3 X-283.9868 I0.01825 J29.39999
G2 X-277.56539 Y32.14736 I0.01487 J-33.14074
G2 X-267.18062 Y28.14061 I-6.28249 J-31.7442
G1 X-267.17879 Y28.13952
G2 X-255.46872 Y16.1401 I-17.01135 J-28.31473
G1 X-255.4685 Y16.13973
G1 X-255.46893 Y16.14048
G1 X-255.46872 Y16.1401
G2 X-252.31584 Y8.40069 I-28.0941 J-15.95688
G2 X-251.24154 Y0.18959 I-31.89038 J-8.34821
G1 F300.0 X-248.84156 Y0.19957
G2 F800.0 X-248.84126 Y0.03165 I-35.36465 J-0.14709
G1 Y0.03052
G1 Y0.03277
G1 Y0.03165
G2 X-249.51876 Y-6.85817 I-35.63843 J0.02622
G2 X-253.83548 Y-18.03074 I-34.25512 J6.81487
G1 X-253.83565 Y-18.03102
G2 X-266.70969 Y-30.60202 I-30.42167 J18.27731
G1 X-266.7105 Y-30.60249
G1 X-266.70888 Y-30.60156
G1 X-266.70969 Y-30.60202
G2 X-275.02099 Y-33.99218 I-17.14438 J30.14803
G2 X-283.97901 Y-35.14497 I-8.93069 J34.01637
G3 X-284.01211 I-0.02098 J-26.99999
G2 X-290.89954 Y-34.47437 I-0.01595 J35.54074
G2 X-302.05551 Y-30.17027 I6.74744 J34.09874
G1 X-302.05718 Y-30.16926
G2 X-314.61811 Y-17.29795 I18.24735 J30.37199
G1 X-314.6183 Y-17.2976
G1 X-314.61791 Y-17.29829
G1 X-314.61811 Y-17.29795
G2 X-318.00557 Y-8.98227 I30.18094 J17.14224
G2 X-319.15872 Y-0.003 I34.2118 J8.9573
G3 Y0.02588 I-26.99999 J0.01676
G2 X-318.48813 Y6.91331 I35.54074 J0.01595
G2 X-314.18402 Y18.06928 I34.09874 J-6.74744
G1 X-314.18301 Y18.07095
G2 X-301.3117 Y30.63188 I30.37199 J-18.24735
G1 X-301.31135 Y30.63207
G1 X-301.31204 Y30.63168
G1 X-301.3117 Y30.63188
G2 X-292.99602 Y34.01933 I17.14224 J-30.18094
G2 X-284.01675 Y35.17249 I8.9573 J-34.2118
G3 X-283.98787 I0.01676 J26.99999
G2 X-277.10044 Y34.50189 I0.01595 J-35.54074
G2 X-265.94447 Y30.19778 I-6.74744 J-34.09874
G1 X-265.9428 Y30.19678
G2 X-253.38187 Y17.32546 I-18.24735 J-30.37199
G1 X-253.38168 Y17.32512
G1 X-253.38207 Y17.32581
G1 X-253.38187 Y17.32546
G2 X-249.99442 Y9.00978 I-30.18094 J-17.14224
G2 X-248.84156 Y0.19957 I-34.2118 J-8.9573
G1 F300.0 X-246.44158 Y0.20955
G2 F800.0 X-246.44126 Y0.03006 I-37.76463 J-0.15707
G1 Y0.02903
G1 Y0.03108
G1 Y0.03006
G2 X-247.16463 Y-7.32518 I-38.03843 J0.02781
G2 X-251.77824 Y-19.26676 I-36.60924 J7.28189
G1 X-251.77839 Y-19.26701
G2 X-265.52316 Y-32.68821 I-32.47892 J19.5133
G1 X-265.52391 Y-32.68863
G1 X-265.52242 Y-32.68779
G1 X-265.52316 Y-32.68821
G2 X-274.41064 Y-36.31328 I-18.3309 J32.23421
G2 X-283.98087 Y-37.54497 I-9.54104 J36.33746
G3 X-284.01103 I-0.01912 J-24.59999
G2 X-291.36449 Y-36.82891 I-0.01703 J37.94074
G2 X-303.29165 Y-32.22744 I7.21239 J36.45327
G1 X-303.29317 Y-32.22652
G2 X-316.70495 Y-18.48331 I19.48334 J32.42925
G1 X-316.70513 Y-18.48299
G1 X-316.70477 Y-18.48362
G1 X-316.70495 Y-18.48331
G2 X-320.32699 Y-9.59136 I32.26779 J18.3276
G2 X-321.55872 Y-0.00151 I36.53322 J9.5664
G3 Y0.0248 I-24.6 J0.01527
G2 X-320.84266 Y7.37826 I37.94074 J0.01703
G2 X-316.24119 Y19.30542 I36.45327 J-7.21239
G1 X-316.24027 Y19.30694
G2 X-302.49706 Y32.71872 I32.42925 J-19.48334
G1 X-302.49674 Y32.7189
G1 X-302.49737 Y32.71854
G1 X-302.49706 Y32.71872
G2 X-293.60511 Y36.34076 I18.3276 J-32.26779
G2 X-284.01526 Y37.57249 I9.5664 J-36.53322
G3 X-283.98895 I0.01527 J24.6
G2 X-276.63549 Y36.85643 I0.01703 J-37.94074
G2 X-264.70833 Y32.25496 I-7.21239 J-36.45327
G1 X-264.70681 Y32.25404
G2 X-251.29503 Y18.51083 I-19.48334 J-32.42925
G1 X-251.29485 Y18.51051
G1 X-251.29521 Y18.51114
G1 X-251.29503 Y18.51083
G2 X-247.67299 Y9.61888 I-32.26779 J-18.3276
G2 X-246.44158 Y0.20955 I-36.53322 J-9.5664
G1 F300.0 X-244.0416 Y0.21954
G2 F800.0 X-244.04126 Y0.02847 I-40.16461 J-0.16706
G1 Y0.02754
G1 Y0.02939
G1 Y0.02847
G2 X-244.81051 Y-7.7922 I-40.43843 J0.0294
G2 X-249.721 Y-20.50278 I-38.96337 J7.74891
G1 X-249.72113 Y-20.50301
G2 X-264.33664 Y-34.77439 I-34.53618 J20.7493
G1 X-264.33731 Y-34.77477
G1 X-264.33597 Y-34.77401
G1 X-264.33664 Y-34.77439
G2 X-273.80029 Y-38.63437 I-19.51743 J34.32039
G2 X-283.98274 Y-39.94497 I-10.15139 J38.65855
G3 X-284.00995 I-0.01725 J-22.19999
G2 X-291.82944 Y-39.18344 I-0.0181 J40.34074
G2 X-304.52779 Y-34.28461 I7.67734 J38.8078
G1 X-304.52917 Y-34.28378
G2 X-318.7918 Y-19.66867 I20.71933 J34.48651
G1 X-318.79196 Y-19.66839
G1 X-318.79163 Y-19.66895
G1 X-318.7918 Y-19.66867
G2 X-322.64841 Y-10.20046 I34.35463 J19.51296
G2 X-323.95872 Y-0.00002 I38.85464 J10.1755
G3 Y0.02372 I-22.2 J0.01378
G2 X-323.19719 Y7.84321 I40.34074 J0.0181
G2 X-318.29836 Y20.54156 I38.8078 J-7.67734
G1 X-318.29753 Y20.54293
G2 X-303.68242 Y34.80556 I34.48651 J-20.71933
G1 X-303.68214 Y34.80572
G1 X-303.6827 Y34.8054
G1 X-303.68242 Y34.80556
G2 X-294.21421 Y38.66218 I19.51296 J-34.35463
G2 X-284.01377 Y39.97249 I10.1755 J-38.85464
G3 X-283.99003 I0.01378 J22.2
G2 X-276.17054 Y39.21096 I0.0181 J-40.34074
G2 X-263.47219 Y34.31213 I-7.67734 J-38.8078
G1 X-263.47082 Y34.3113
G2 X-249.20819 Y19.69619 I-20.71933 J-34.48651
G1 X-249.20803 Y19.6959
G1 X-249.20835 Y19.69647
G1 X-249.20819 Y19.69619
G2 X-245.35157 Y10.22797 I-34.35463 J-19.51296
G2 X-244.0416 Y0.21954 I-38.85464 J-10.1755
G1 F300.0 X-241.64162 Y0.22952
G2 F800.0 X-241.64126 Y0.02688 I-42.56459 J-0.17704
G1 Y0.02605
G1 Y0.0277
G1 Y0.02688
G2 X-242.45639 Y-8.25922 I-42.83843 J0.03099
G2 X-247.66375 Y-21.73881 I-41.31749 J8.21592
G1 X-247.66387 Y-21.73901
G2 X-263.15011 Y-36.86057 I-36.59344 J21.9853
G1 X-263.15071 Y-36.86091
G1 X-263.14952 Y-36.86023
G1 X-263.15011 Y-36.86057
G2 X-273.18994 Y-40.95546 I-20.70395 J36.40657
G2 X-283.9846 Y-42.34497 I-10.76173 J40.97965
G3 X-284.00888 I-0.01539 J-19.79999
G2 X-292.29439 Y-41.53797 I-0.01918 J42.74074
G2 X-305.76393 Y-36.34178 I8.14228 J41.16233
G1 X-305.76516 Y-36.34104
G2 X-320.87864 Y-20.85403 I21.95533 J36.54377
G1 X-320.87878 Y-20.85378
G1 X-320.8785 Y-20.85429
G1 X-320.87864 Y-20.85403
G2 X-324.96983 Y-10.80955 I36.44147 J20.69832
G2 X-326.35872 Y0.00147 I41.17607 J10.78459
G3 Y0.02264 I-19.8 J0.01229
G2 X-325.55172 Y8.30815 I42.74074 J0.01918
G2 X-320.35553 Y21.7777 I41.16233 J-8.14228
G1 X-320.35479 Y21.77893
G2 X-304.86778 Y36.89241 I36.54377 J-21.95533
G1 X-304.86753 Y36.89255
G1 X-304.86804 Y36.89226
G1 X-304.86778 Y36.89241
G2 X-294.8233 Y40.9836 I20.69832 J-36.44147
G2 X-284.01228 Y42.37249 I10.78459 J-41.17607
G3 X-283.99111 I0.01229 J19.8
G2 X-275.7056 Y41.56549 I0.01918 J-42.74074
G2 X-262.23605 Y36.3693 I-8.14228 J-41.16233
G1 X-262.23482 Y36.36856
G2 X-247.12134 Y20.88155 I-21.95533 J-36.54377
G1 X-247.1212 Y20.8813
G1 X-247.12149 Y20.8818
G1 X-247.12134 Y20.88155
G2 X-243.03015 Y10.83707 I-36.44147 J-20.69832
G2 X-241.64162 Y0.22952 I-41.17607 J-10.78459
G1 F300.0 X-239.24164 Y0.2395
G2 F800.0 X-239.24126 Y0.02529 I-44.96457 J-0.18702
G1 Y0.02456
G1 Y0.02601
G1 Y0.02529
G2 X-240.10226 Y-8.72623 I-45.23843 J0.03258
G2 X-245.60651 Y-22.97483 I-43.67161 J8.68294
G1 X-245.60662 Y-22.97501
G2 X-261.96359 Y-38.94675 I-38.6507 J23.2213
G1 X-261.96411 Y-38.94705
G1 X-261.96306 Y-38.94646
G1 X-261.96359 Y-38.94675
G2 X-272.57959 Y-43.27656 I-21.89048 J38.49275
G2 X-283.98647 Y-44.74497 I-11.37208 J43.30074
G3 X-284.0078 I-0.01352 J-17.39999
G2 X-292.75933 Y-43.89251 I-0.02026 J45.14074
G2 X-307.00007 Y-38.39895 I8.60723 J43.51687
G1 X-307.00115 Y-38.3983
G2 X-322.96548 Y-22.03939 I23.19132 J38.60103
G1 X-322.96561 Y-22.03917
G1 X-322.96536 Y-22.03962
G1 X-322.96548 Y-22.03939
G2 X-327.29126 Y-11.41865 I38.52832 J21.88369
G2 X-328.75872 Y0.00296 I43.49749 J11.39368
G3 Y0.02157 I-17.4 J0.0108
G2 X-327.90626 Y8.7731 I45.14074 J0.02026
G2 X-322.4127 Y23.01384 I43.51687 J-8.60723
G1 X-322.41205 Y23.01492
G2 X-306.05314 Y38.97925 I38.60103 J-23.19132
G1 X-306.05292 Y38.97938
G1 X-306.05337 Y38.97912
G1 X-306.05314 Y38.97925
G2 X-295.4324 Y43.30502 I21.88369 J-38.52832
G2 X-284.01079 Y44.77249 I11.39368 J-43.49749
G3 X-283.99218 I0.0108 J17.4
G2 X-275.24065 Y43.92002 I0.02026 J-45.14074
G2 X-260.99991 Y38.42647 I-8.60723 J-43.51687
G1 X-260.99883 Y38.42582
G2 X-245.0345 Y22.06691 I-23.19132 J-38.60103
G1 X-245.03437 Y22.06669
G1 X-245.03463 Y22.06713
G1 X-245.0345 Y22.06691
G2 X-240.70873 Y11.44616 I-38.52832 J-21.88369
G2 X-239.24164 Y0.2395 I-43.49749 J-11.39368
G1 F300.0 X-236.84166 Y0.24948
G2 F800.0 X-236.84126 Y0.0237 I-47.36455 J-0.197
G1 Y0.02307
G1 Y0.02432
G1 Y0.0237
G2 X-237.74814 Y-9.19325 I-47.63843 J0.03417
G2 X-243.54927 Y-24.21085 I-46.02574 J9.14995
G1 X-243.54936 Y-24.21101
G2 X-260.77706 Y-41.03294 I-40.70795 J24.4573
G1 X-260.77751 Y-41.03319
G1 X-260.77661 Y-41.03268
G1 X-260.77706 Y-41.03294
G2 X-271.96925 Y-45.59765 I-23.077 J40.57894
G2 X-283.98833 Y-47.14497 I-11.98243 J45.62184
G3 X-284.00672 I-0.01166 J-15.0
G2 X-293.22428 Y-46.24704 I-0.02133 J47.54074
G2 X-308.23622 Y-40.45612 I9.07218 J45.8714
G1 X-308.23715 Y-40.45557
G2 X-325.05233 Y-23.22476 I24.42731 J40.65829
G1 X-325.05244 Y-23.22456
G1 X-325.05222 Y-23.22495
G1 X-325.05233 Y-23.22476
G2 X-329.61268 Y-12.02774 I40.61516 J23.06905
G2 X-331.15872 Y0.00445 I45.81891 J12.00278
G3 Y0.02049 I-15.0 J0.00931
G2 X-330.26079 Y9.23805 I47.54074 J0.02133
G2 X-324.46987 Y24.24998 I45.8714 J-9.07218
G1 X-324.46932 Y24.25091
G2 X-307.23851 Y41.06609 I40.65829 J-24.42731
G1 X-307.23832 Y41.0662
G1 X-307.2387 Y41.06599
G1 X-307.23851 Y41.06609
G2 X-296.04149 Y45.62645 I23.06905 J-40.61516
G2 X-284.0093 Y47.17249 I12.00278 J-45.81891
G3 X-283.99326 I0.00931 J15.0
G2 X-274.7757 Y46.27456 I0.02133 J-47.54074
G2 X-259.76377 Y40.48364 I-9.07218 J-45.8714
G1 X-259.76284 Y40.48308
G2 X-242.94766 Y23.25227 I-24.42731 J-40.65829
G1 X-242.94755 Y23.25208
G1 X-242.94776 Y23.25247
G1 X-242.94766 Y23.25227
G2 X-238.3873 Y12.05526 I-40.61516 J-23.06905
G2 X-236.84166 Y0.24948 I-45.81891 J-12.00278
G1 F300.0 X-234.44169 Y0.25946
G2 F800.0 X-234.44126 Y0.02211 I-49.76453 J-0.20698
G1 Y0.02158
G1 Y0.02263
G1 Y0.02211
G2 X-235.39402 Y-9.66026 I-50.03842 J0.03576
G2 X-241.49202 Y-25.44688 I-48.37986 J9.61697
G1 X-241.4921 Y-25.447
G2 X-259.59053 Y-43.11912 I-42.76521 J25.69329
G1 X-259.59091 Y-43.11933
G1 X-259.59015 Y-43.1189
G1 X-259.59053 Y-43.11912
G2 X-271.3589 Y-47.91874 I-24.26353 J42.66512
G2 X-283.9902 Y-49.54497 I-12.59278 J47.94293
G3 X-284.00565 I-0.00979 J-12.6
G2 X-293.68922 Y-48.60157 I-0.02241 J49.94074
G2 X-309.47236 Y-42.5133 I9.53712 J48.22593
G1 X-309.47314 Y-42.51283
G2 X-327.13917 Y-24.41012 I25.6633 J42.71555
G1 X-327.13926 Y-24.40996
G1 X-327.13908 Y-24.41028
G1 X-327.13917 Y-24.41012
G2 X-331.9341 Y-12.63683 I42.70201 J24.25441
G2 X-333.55872 Y0.00594 I48.14034 J12.61187
G3 Y0.01941 I-12.6 J0.00782
G2 X-332.61532 Y9.70299 I49.94074 J0.02241
G2 X-326.52705 Y25.48612 I48.22593 J-9.53712
G1 X-326.52658 Y25.48691
G2 X-308.42387 Y43.15294 I42.71555 J-25.6633
G1 X-308.42371 Y43.15303
G1 X-308.42403 Y43.15285
G1 X-308.42387 Y43.15294
G2 X-296.65058 Y47.94787 I24.25441 J-42.70201
G2 X-284.00781 Y49.57249 I12.61187 J-48.14034
G3 X-283.99434 Y49.57248 I0.00782 J12.6
G2 X-274.31076 Y48.62909 I0.02241 J-49.94074
G2 X-258.52763 Y42.54081 I-9.53712 J-48.22593
G1 X-258.52684 Y42.54034
G2 X-240.86081 Y24.43764 I-25.6633 J-42.71555
G1 X-240.86072 Y24.43748
G1 X-240.8609 Y24.4378
G1 X-240.86081 Y24.43764
G2 X-236.06588 Y12.66435 I-42.70201 J-24.25441
G2 X-234.44169 Y0.25946 I-48.14034 J-12.61187
G1 F300.0 X-232.04171 Y0.26945
G2 F800.0 X-232.04126 Y0.02052 I-52.16451 J-0.21697
G1 Y0.02009
G1 Y0.02094
G1 Y0.02052
G2 X-233.03989 Y-10.12728 I-52.43842 J0.03735
G2 X-239.43478 Y-26.6829 I-50.73398 J10.08398
G1 X-239.43484 Y-26.683
G2 X-258.40401 Y-45.2053 I-44.82247 J26.92929
G1 X-258.40432 Y-45.20547
G1 X-258.4037 Y-45.20512
G1 X-258.40401 Y-45.2053
G2 X-270.74855 Y-50.23984 I-25.45006 J44.7513
G2 X-283.99206 Y-51.94497 I-13.20312 J50.26402
G3 X-284.00457 I-0.00793 J-10.2
G2 X-294.15417 Y-50.95611 I-0.02349 J52.34074
G2 X-310.7085 Y-44.57047 I10.00207 J50.58047
G1 X-310.70913 Y-44.57009
G2 X-329.22601 Y-25.59548 I26.8993 J44.77281
G1 X-329.22609 Y-25.59535
G1 X-329.22594 Y-25.59561
G1 X-329.22601 Y-25.59548
G2 X-334.25553 Y-13.24593 I44.78885 J25.43977
G2 X-335.95872 Y0.00743 I50.46176 J13.22097
G3 Y0.01834 I-10.2 J0.00633
G2 X-334.96986 Y10.16794 I52.34074 J0.02349
G2 X-328.58422 Y26.72227 I50.58047 J-10.00207
G1 X-328.58384 Y26.7229
G2 X-309.60923 Y45.23978 I44.77281 J-26.8993
G1 X-309.6091 Y45.23986
G1 X-309.60936 Y45.23971
G1 X-309.60923 Y45.23978
G2 X-297.25968 Y50.26929 I25.43977 J-44.78885
G2 X-284.00632 Y51.97249 I13.22097 J-50.46176
G3 X-283.99541 Y51.97248 I0.00633 J10.2
G2 X-273.84581 Y50.98362 I0.02349 J-52.34074
G2 X-257.29148 Y44.59798 I-10.00207 J-50.58047
G1 X-257.29085 Y44.5976
G2 X-238.77397 Y25.623 I-26.8993 J-44.77281
G1 X-238.77389 Y25.62287
G1 X-238.77404 Y25.62313
G1 X-238.77397 Y25.623
G2 X-233.74446 Y13.27345 I-44.78885 J-25.43977
G2 X-232.04171 Y0.26945 I-50.46176 J-13.22097
G1 F300.0 X-229.64173 Y0.27943
G2 F800.0 X-229.64126 Y0.01893 I-54.56449 J-0.22695
G1 X-229.64127 Y0.0186
G1 X-229.64126 Y0.01925
G1 Y0.01893
G2 X-230.68577 Y-10.59429 I-54.83842 J0.03894
G2 X-237.37754 Y-27.91892 I-53.08811 J10.551
G1 X-237.37759 Y-27.919
G2 X-257.21748 Y-47.29148 I-46.87973 J28.16529
G1 X-257.21772 Y-47.29162
G1 X-257.21725 Y-47.29135
G1 X-257.21748 Y-47.29148
G2 X-270.13821 Y-52.56093 I-26.63658 J46.83748
G2 X-283.99393 Y-54.34497 I-13.81347 J52.58512
G3 X-284.00349 I-0.00606 J-7.8
G2 X-294.61911 Y-53.31064 I-0.02457 J54.74074
G2 X-311.94464 Y-46.62764 I10.46701 J52.935
G1 X-311.94512 Y-46.62735
G2 X-331.31286 Y-26.78084 I28.13529 J46.83007
G1 X-331.31291 Y-26.78074
G1 X-331.3128 Y-26.78094
G1 X-331.31286 Y-26.78084
G2 X-336.57695 Y-13.85502 I46.87569 J26.62513
G2 X-338.35872 Y0.00892 I52.78318 J13.83006
G3 Y0.01726 I-7.8 J0.00484
G2 X-337.32439 Y10.63288 I54.74074 J0.02457
G2 X-330.64139 Y27.95841 I52.935 J-10.46701
G1 X-330.6411 Y27.95889
G2 X-310.79459 Y47.32663 I46.83007 J-28.13529
G1 X-310.79449 Y47.32668
G1 X-310.79469 Y47.32657
G1 X-310.79459 Y47.32663
G2 X-297.86877 Y52.59072 I26.62513 J-46.87569
G2 X-284.00483 Y54.37249 I13.83006 J-52.78318
G3 X-283.99649 Y54.37248 I0.00484 J7.8
G2 X-273.38087 Y53.33816 I0.02457 J-54.74074
G2 X-256.05534 Y46.65516 I-10.46701 J-52.935
G1 X-256.05486 Y46.65487
G2 X-236.68712 Y26.80836 I-28.13529 J-46.83007
G1 X-236.68707 Y26.80826
G1 X-236.68718 Y26.80846
G1 X-236.68712 Y26.80836
G2 X-231.42303 Y13.88254 I-46.87569 J-26.62513
G2 X-229.64173 Y0.27943 I-52.78318 J-13.83006
G1 F300.0 X-227.24175 Y0.28941
G2 F800.0 X-227.24127 Y0.01734 I-56.96447 J-0.23693
G1 Y0.01711
G1 Y0.01756
G1 Y0.01734
G2 X-228.33165 Y-11.06131 I-57.23842 J0.04053
G2 X-235.3203 Y-29.15494 I-55.44223 J11.01801
G1 X-235.32033 Y-29.155
G2 X-256.03096 Y-49.37766 I-48.93698 J29.40129
G1 X-256.03112 Y-49.37776
G1 X-256.03079 Y-49.37757
G1 X-256.03096 Y-49.37766
G2 X-269.52786 Y-54.88203 I-27.82311 J48.92367
G2 X-283.99579 Y-56.74497 I-14.42382 J54.90621
G3 X-284.00241 I-0.0042 J-5.4
G2 X-295.08406 Y-55.66517 I-0.02564 J57.14074
G2 X-313.18078 Y-48.68481 I10.93196 J55.28953
G1 X-313.18112 Y-48.68461
G2 X-333.3997 Y-27.96621 I29.37128 J48.88733
G1 X-333.39974 Y-27.96614
G1 X-333.39966 Y-27.96627
G1 X-333.3997 Y-27.96621
G2 X-338.89837 Y-14.46411 I48.96254 J27.8105
G2 X-340.75872 Y0.01041 I55.10461 J14.43915
G3 Y0.01618 I-5.4 J0.00335
G2 X-339.67892 Y11.09783 I57.14074 J0.02564
G2 X-332.69856 Y29.19455 I55.28953 J-10.93196
G1 X-332.69836 Y29.19488
G2 X-311.97996 Y49.41347 I48.88733 J-29.37128
G1 X-311.97989 Y49.41351
G1 X-311.98002 Y49.41343
G1 X-311.97996 Y49.41347
G2 X-298.47786 Y54.91214 I27.8105 J-48.96254
G2 X-284.00334 Y56.77248 I14.43915 J-55.10461
G3 X-283.99757 I0.00335 J5.4
G2 X-272.91592 Y55.69269 I0.02564 J-57.14074
G2 X-254.8192 Y48.71233 I-10.93196 J-55.28953
G1 X-254.81887 Y48.71213
G2 X-234.60028 Y27.99372 I-29.37128 J-48.88733
G1 X-234.60024 Y27.99365
G1 X-234.60032 Y27.99379
G1 X-234.60028 Y27.99372
G2 X-229.10161 Y14.49163 I-48.96254 J-27.8105
G2 X-227.24175 Y0.28941 I-55.10461 J-14.43915
G1 F300.0 X-224.84177 Y0.29939
G2 F800.0 X-224.84127 Y0.01575 I-59.36445 J-0.24691
G1 Y0.01562
G1 Y0.01587
G1 Y0.01575
G2 X-225.97752 Y-11.52832 I-59.63842 J0.04212
G2 X-233.26305 Y-30.39097 I-57.79636 J11.48503
G1 X-233.26307 Y-30.391
G2 X-254.84443 Y-51.46385 I-50.99424 J30.63729
G1 X-254.84452 Y-51.4639
G1 X-254.84434 Y-51.46379
G1 X-254.84443 Y-51.46385
G2 X-268.91751 Y-57.20312 I-29.00964 J51.00985
G2 X-283.99766 Y-59.14497 I-15.03416 J57.22731
G3 X-284.00134 I-0.00233 J-3.0
G2 X-295.549 Y-58.01971 I-0.02672 J59.54074
G2 X-314.41692 Y-50.74198 I11.3969 J57.64407
G1 X-314.41711 Y-50.74187
G2 X-335.48655 Y-29.15157 I30.60727 J50.94459
G1 X-335.48657 Y-29.15153
G1 X-335.48652 Y-29.15161
G1 X-335.48655 Y-29.15157
G2 X-341.2198 Y-15.07321 I51.04938 J28.99586
G2 X-343.15872 Y0.0119 I57.42603 J15.04825
G3 Y0.01511 I-3.0 J0.00186
G2 X-342.03346 Y11.56277 I59.54074 J0.02672
G2 X-334.75573 Y30.43069 I57.64407 J-11.3969
G1 X-334.75562 Y30.43088
G2 X-313.16532 Y51.50031 I50.94459 J-30.60727
G1 X-313.16528 Y51.50033
G1 X-313.16536 Y51.50029
G1 X-313.16532 Y51.50031
G2 X-299.08696 Y57.23356 I28.99586 J-51.04938
G2 X-284.00185 Y59.17248 I15.04825 J-57.42603
G3 X-283.99865 I0.00186 J3.0
G2 X-272.45098 Y58.04722 I0.02672 J-59.54074
G2 X-253.58306 Y50.7695 I-11.3969 J-57.64407
G1 X-253.58287 Y50.76939
G2 X-232.51344 Y29.17908 I-30.60727 J-50.94459
G1 X-232.51342 Y29.17905
G1 X-232.51346 Y29.17912
G1 X-232.51344 Y29.17908
G2 X-226.78019 Y15.10072 I-51.04938 J-28.99586
G2 X-224.84177 Y0.29939 I-57.42603 J-15.04825
( Profil4Kontur )
G0 Z3.0
( T4 : 4.0 )
T4 M6
M3 S1000
G0 X-171.4167 Y-63.0
G0 Z1.0
G1 F300.0 Z-2.5
G1 F800.0 X-171.59239
G3 X-173.57428 Y-64.73145 I0.0 J-2.0
G2 X-394.85125 Y-64.0 I-110.42572 J64.73145
G3 X-395.56922 Y-63.27616 I-1.73205 J-1.0
G1 X-395.62456 Y-63.2436
G3 X-396.63879 Y-62.96744 I-1.01408 J-1.72384
G1 X-438.0 Y-62.97039
G1 Y-38.0
G1 X-427.71931
G3 X-425.71931 Y-36.0 I0.0 J2.0
G1 Y35.14258
G3 X-427.71931 Y37.14258 I-2.0 J0.0
G1 X-438.0
G1 Y63.0
G1 X-396.5833
G1 X-396.55405
G3 X-394.68625 Y64.28495 I0.0 J2.0
G2 X-173.69405 Y64.93533 I110.68625 J-64.28495
G3 X-171.69509 Y63.0 I1.99895 J0.06467
G1 X-171.4167
G1 X-2.0
G1 Y37.14258
G1 X-15.26953
G3 X-17.26953 Y35.14258 I0.0 J-2.0
G1 Y-9.63281
G3 X-17.26942 Y-9.65349 I2.0 J0.0
G2 X-18.23808 Y-15.7296 I-18.3512 J-0.18971
G3 X-18.24431 Y-15.74829 I1.89433 J-0.64149
G2 X-21.07345 Y-19.6284 I-7.40192 J2.42557
G2 X-23.65655 Y-20.78954 I-4.24685 J5.99384
G3 X-23.66301 Y-20.79105 I0.45298 J-1.94803
G2 X-26.79227 Y-21.1582 I-3.15396 J13.36252
G2 X-29.73469 Y-20.79995 I0.03141 J12.52049
G3 X-29.73862 Y-20.79899 I-0.47503 J-1.94277
G2 X-32.14419 Y-19.69632 I1.63311 J6.73809
G2 X-34.90323 Y-15.84259 I4.96171 J6.46681
G2 X-35.82832 Y-9.66059 I18.39932 J5.91353
G3 X-35.82813 Y-9.63281 I-1.99981 J0.02778
G1 Y35.14258
G3 X-37.82813 Y37.14258 I-2.0 J0.0
G1 X-57.35938
G3 X-59.35938 Y35.14258 I0.0 J-2.0
G1 Y-9.63281
G3 X-59.35937 Y-9.63366 I2.0 J0.0
G3 X-58.38944 Y-18.70518 I43.07742 J0.01828
G3 X-54.78974 Y-27.41966 I25.31024 J5.35422
G3 X-54.77233 Y-27.44606 I1.67841 J1.08763
G3 X-42.74357 Y-37.03728 I21.14766 J14.1837
G3 X-42.71993 Y-37.04617 I0.71623 J1.86736
G3 X-26.77925 Y-39.7092 I14.96589 J40.54342
G3 X-14.34543 Y-38.10309 I0.40586 J45.78999
G3 X-2.98276 Y-31.86107 I-7.1762 J26.52622
G3 X-2.95603 Y-31.83619 I-1.34927 J1.4763
G3 X-2.0 Y-30.88022 I-17.46416 J18.42136
G1 Y-63.0
G1 X-171.4167
G1 F300.0 Z-5.0
G1 F800.0 X-171.59239
G3 X-173.57428 Y-64.73145 I0.0 J-2.0
G2 X-394.85125 Y-64.0 I-110.42572 J64.73145
G3 X-395.56922 Y-63.27616 I-1.73205 J-1.0
G1 X-395.62456 Y-63.2436
G3 X-396.63879 Y-62.96744 I-1.01408 J-1.72384
G1 X-438.0 Y-62.97039
G1 Y-38.0
G1 X-427.71931
G3 X-425.71931 Y-36.0 I0.0 J2.0
G1 Y35.14258
G3 X-427.71931 Y37.14258 I-2.0 J0.0
G1 X-438.0
G1 Y63.0
G1 X-396.5833
G1 X-396.55405
G3 X-394.68625 Y64.28495 I0.0 J2.0
G2 X-173.69405 Y64.93533 I110.68625 J-64.28495
G3 X-171.69509 Y63.0 I1.99895 J0.06467
G1 X-171.4167
G1 X-2.0
G1 Y37.14258
G1 X-15.26953
G3 X-17.26953 Y35.14258 I0.0 J-2.0
G1 Y-9.63281
G3 X-17.26942 Y-9.65349 I2.0 J0.0
G2 X-18.23808 Y-15.7296 I-18.3512 J-0.18971
G3 X-18.24431 Y-15.74829 I1.89433 J-0.64149
G2 X-21.07345 Y-19.6284 I-7.40192 J2.42557
G2 X-23.65655 Y-20.78954 I-4.24685 J5.99384
G3 X-23.66301 Y-20.79105 I0.45298 J-1.94803
G2 X-26.79227 Y-21.1582 I-3.15396 J13.36252
G2 X-29.73469 Y-20.79995 I0.03141 J12.52049
G3 X-29.73862 Y-20.79899 I-0.47503 J-1.94277
G2 X-32.14419 Y-19.69632 I1.63311 J6.73809
G2 X-34.90323 Y-15.84259 I4.96171 J6.46681
G2 X-35.82832 Y-9.66059 I18.39932 J5.91353
G3 X-35.82813 Y-9.63281 I-1.99981 J0.02778
G1 Y35.14258
G3 X-37.82813 Y37.14258 I-2.0 J0.0
G1 X-57.35938
G3 X-59.35938 Y35.14258 I0.0 J-2.0
G1 Y-9.63281
G3 X-59.35937 Y-9.63366 I2.0 J0.0
G3 X-58.38944 Y-18.70518 I43.07742 J0.01828
G3 X-54.78974 Y-27.41966 I25.31024 J5.35422
G3 X-54.77233 Y-27.44606 I1.67841 J1.08763
G3 X-42.74357 Y-37.03728 I21.14766 J14.1837
G3 X-42.71993 Y-37.04617 I0.71623 J1.86736
G3 X-26.77925 Y-39.7092 I14.96589 J40.54342
G3 X-14.34543 Y-38.10309 I0.40586 J45.78999
G3 X-2.98276 Y-31.86107 I-7.1762 J26.52622
G3 X-2.95603 Y-31.83619 I-1.34927 J1.4763
G3 X-2.0 Y-30.88022 I-17.46416 J18.42136
G1 Y-63.0
G1 X-171.4167
( Profil4M )
S1000
G0 Z3.0
G0 X-156.82227 Y-38.0
G0 Z1.0
G1 F300.0 Z-2.5
G1 F800.0 X-138.6582
G3 X-136.6582 Y-36.0 I0.0 J2.0
G1 Y3.0625
G3 X-136.65821 Y3.06717 I-2.0 J0.0
G3 X-136.6932 Y6.12428 I-167.80087 J-0.39161
G1 X-123.42958 Y-36.59306
G3 X-121.51953 Y-38.0 I1.91005 J0.59306
G1 X-107.11523
G3 X-105.20208 Y-36.58297 I0.0 J2.0
G1 X-92.89936 Y3.79145
G3 X-91.9704 Y6.8861 I-141.98253 J44.30718
G3 X-91.97656 Y4.96827 I387.79336 J-2.20441
G3 Y4.9668 I2.0 J-0.00148
G1 Y-36.0
G3 X-89.97656 Y-38.0 I2.0 J0.0
G1 X-71.22656
G3 X-69.22656 Y-36.0 I0.0 J2.0
G1 Y35.14258
G3 X-71.22656 Y37.14258 I-2.0 J0.0
G1 X-99.88867
G3 X-101.79494 Y35.74766 I0.0 J-2.0
G1 X-112.8301 Y0.98203
G3 X-112.84153 Y0.94476 I1.90627 J-0.60508
G3 X-113.88294 Y-2.77456 I124.67696 J-36.915
G3 X-113.89214 Y-2.81076 I1.93372 J-0.5106
G3 X-114.00624 Y-3.28123 I150.53169 J-36.75452
G3 X-114.04721 Y-3.105 I-73.78396 J-17.06306
G3 X-114.82028 Y-0.06842 I-30.05318 J-6.03443
G1 X-125.41235 Y35.71031
G3 X-127.33008 Y37.14258 I-1.91773 J-0.56773
G1 X-156.82227
G3 X-158.82227 Y35.14258 I0.0 J-2.0
G1 Y-36.0
G3 X-156.82227 Y-38.0 I2.0 J0.0
G1 F300.0 Z-5.0
G1 F800.0 X-138.6582
G3 X-136.6582 Y-36.0 I0.0 J2.0
G1 Y3.0625
G3 X-136.65821 Y3.06717 I-2.0 J0.0
G3 X-136.6932 Y6.12428 I-167.80087 J-0.39161
G1 X-123.42958 Y-36.59306
G3 X-121.51953 Y-38.0 I1.91005 J0.59306
G1 X-107.11523
G3 X-105.20208 Y-36.58297 I0.0 J2.0
G1 X-92.89936 Y3.79145
G3 X-91.9704 Y6.8861 I-141.98253 J44.30718
G3 X-91.97656 Y4.96827 I387.79336 J-2.20441
G3 Y4.9668 I2.0 J-0.00148
G1 Y-36.0
G3 X-89.97656 Y-38.0 I2.0 J0.0
G1 X-71.22656
G3 X-69.22656 Y-36.0 I0.0 J2.0
G1 Y35.14258
G3 X-71.22656 Y37.14258 I-2.0 J0.0
G1 X-99.88867
G3 X-101.79494 Y35.74766 I0.0 J-2.0
G1 X-112.8301 Y0.98203
G3 X-112.84153 Y0.94476 I1.90627 J-0.60508
G3 X-113.88294 Y-2.77456 I124.67696 J-36.915
G3 X-113.89214 Y-2.81076 I1.93372 J-0.5106
G3 X-114.00624 Y-3.28123 I150.53169 J-36.75452
G3 X-114.04721 Y-3.105 I-73.78396 J-17.06306
G3 X-114.82028 Y-0.06842 I-30.05318 J-6.03443
G1 X-125.41235 Y35.71031
G3 X-127.33008 Y37.14258 I-1.91773 J-0.56773
G1 X-156.82227
G3 X-158.82227 Y35.14258 I0.0 J-2.0
G1 Y-36.0
G3 X-156.82227 Y-38.0 I2.0 J0.0
( Tasche4Ring )
S1000
G0 Z3.0
G0 X-386.49028 Y-0.02355
G0 Z1.0
G1 F300.0 Z-2.0
G2 F800.0 X-385.71502 Y12.64153 I103.04968 J0.04836
G1 Y12.64156
G1 X-385.71503 Y12.6415
G1 X-385.71502 Y12.64153
G2 X-383.38373 Y25.11264 I101.56286 J-12.53221
G2 X-374.18198 Y48.70538 I98.75121 J-24.92462
G2 X-340.16403 Y85.71404 I90.56443 J-49.10702
G3 X-340.16356 Y85.71435 I-1.09776 J1.6718
G2 X-309.33466 Y99.3088 I55.98782 J-85.21328
G2 X-290.24897 Y102.27781 I25.17812 J-99.02381
G3 X-290.24549 Y102.27802 I-0.11926 J1.99644
G2 X-289.03378 Y102.34376 I5.16405 J-83.98856
G3 X-289.03332 Y102.34378 I-0.09394 J1.99779
G2 X-283.99856 Y102.46525 I5.14661 J-108.91875
G2 X-271.23325 Y101.67822 I0.04232 J-103.23093
G1 X-271.2332 Y101.67821
G2 X-258.67061 Y99.3125 I-12.58988 J-101.39391
G1 X-257.86372 Y99.10391
G2 X-233.47156 Y89.16783 I-25.85744 J-98.38594
G1 X-233.47154 Y89.16782
G1 X-233.47158 Y89.16784
G1 X-233.47156 Y89.16783
G2 X-196.07212 Y52.67204 I-50.87489 J-89.5452
G1 X-196.07209 Y52.67199
G1 X-196.07215 Y52.67209
G1 X-196.07212 Y52.67204
G2 X-183.45926 Y19.97815 I-87.31146 J-52.46345
G2 X-181.5097 Y-0.02415 I-101.16378 J-19.95629
G3 Y-0.02599 I2.0 J-0.00089
G2 X-182.28496 Y-12.69161 I-103.04977 J-0.0489
G1 Y-12.69164
G1 X-182.28495 Y-12.69158
G1 X-182.28496 Y-12.69161
G2 X-184.61625 Y-25.16273 I-101.56296 J12.53223
G2 X-193.81801 Y-48.75546 I-98.75126 J24.92464
G2 X-227.83596 Y-85.76413 I-90.56444 J49.10703
G3 X-227.83642 Y-85.76443 I1.09776 J-1.6718
G2 X-258.66533 Y-99.35889 I-55.98783 J85.21329
G2 X-277.75101 Y-102.3279 I-25.17812 J99.02381
G3 X-277.7545 Y-102.32811 I0.11926 J-1.99644
G2 X-278.9662 Y-102.39384 I-5.16405 J83.98856
G3 X-278.96666 Y-102.39386 I0.09394 J-1.99779
G2 X-284.00149 Y-102.51533 I-5.14661 J108.91875
G2 X-296.66656 Y-101.74007 I-0.04835 J103.04977
G1 X-296.66659
G1 X-296.66653 Y-101.74008
G1 X-296.66656 Y-101.74007
G2 X-309.13768 Y-99.40878 I12.53223 J101.56296
G2 X-332.73041 Y-90.20703 I24.92464 J98.75126
G2 X-369.73908 Y-56.18908 I49.10703 J90.56444
G3 X-369.73938 Y-56.18861 I-1.6718 J-1.09776
G2 X-383.33384 Y-25.35971 I85.21329 J55.98783
G2 X-386.30285 Y-6.27402 I99.02381 J25.17812
G3 X-386.30306 Y-6.27054 I-1.99644 J-0.11926
G2 X-386.36879 Y-5.05883 I83.98856 J5.16405
G3 X-386.36881 Y-5.05837 I-1.99779 J-0.09394
G2 X-386.49028 Y-0.02355 I108.91875 J5.14661
G1 F300.0 X-385.52383 Y-0.02423
G3 F800.0 X-383.60348 Y-19.80043 I102.04405 J-0.07247
G3 X-383.60331 Y-19.80132 I1.96236 J0.38618
G3 X-371.11167 Y-52.20778 I98.88792 J19.5073
G1 X-371.11161 Y-52.20787
G1 X-371.11172 Y-52.20769
G1 X-371.11167 Y-52.20778
G3 X-334.06722 Y-88.36669 I87.44653 J52.53281
G3 X-334.06689 Y-88.36688 I0.98815 J1.73884
G3 X-309.88953 Y-98.21789 I49.85979 J87.77618
G3 X-309.88143 Y-98.22001 I0.50882 J1.93419
G1 X-309.10511 Y-98.42076
G3 X-309.09632 Y-98.42301 I0.50072 J1.93631
G3 X-283.99958 Y-101.54884 I25.02682 J98.62434
G3 X-264.19286 Y-99.61509 I0.02826 J102.1142
G3 X-264.19145 Y-99.61482 I-0.38738 J1.96213
G3 X-231.80443 Y-87.10957 I-19.62048 J99.00633
G1 Y-87.10956
G1 X-231.80444 Y-87.10957
G1 X-231.80443
G3 X-195.66144 Y-50.07454 I-52.59763 J87.48451
G3 X-195.66114 Y-50.07402 I-1.73867 J0.98844
G3 X-185.80899 Y-25.90661 I-87.83138 J49.89746
G3 X-185.80888 Y-25.90621 I-1.93403 J0.50943
G3 X-183.30784 Y-13.07088 I-97.49171 J25.65821
G3 X-183.30778 Y-13.07043 I-1.98376 J0.25439
G3 X-182.47619 Y-0.02551 I-101.91368 J13.04579
G3 X-184.40826 Y19.78605 I-102.06248 J0.04662
G3 X-184.40845 Y19.78699 I-1.96214 J-0.38731
G3 X-196.90715 Y52.18434 I-99.03937 J-19.59917
G1 X-196.90716 Y52.18435
G1 X-196.90715 Y52.18434
G3 X-233.94035 Y88.34522 I-87.51296 J-52.58034
G1 X-233.94053 Y88.34532
G3 X-258.1131 Y98.2032 I-49.82616 J-87.61326
G1 X-258.11319 Y98.20323
G1 X-258.113 Y98.20318
G1 X-258.1131 Y98.2032
G3 X-270.95124 Y100.70552 I-25.65487 J-97.43822
G3 X-270.95178 Y100.70559 I-0.2544 J-1.98375
G3 X-283.99899 Y101.53756 I-13.05597 J-102.02626
G3 X-288.98094 Y101.41747 I-0.09148 J-99.60113
G3 X-308.0688 Y98.66685 I4.81946 J-101.0498
G1 X-308.0689 Y98.66683
G3 X-338.9768 Y85.37649 I23.85496 J-98.06162
G3 X-373.14082 Y48.63817 I55.34005 J-85.71653
G3 X-373.14124 Y48.6374 I1.75449 J-0.96009
G3 X-382.39803 Y25.10443 I88.63613 J-48.45244
G3 X-382.39838 Y25.10305 I1.93819 J-0.49338
G3 X-385.52379 Y0.01416 I98.57832 J-25.01938
G3 X-385.52383 Y-0.02423 I102.04401 J-0.11086
G1 F300.0 Z-4.0
G3 F800.0 X-383.60348 Y-19.80043 I102.04405 J-0.07247
G3 X-383.60331 Y-19.80132 I1.96236 J0.38618
G3 X-371.11167 Y-52.20778 I98.88792 J19.5073
G1 X-371.11161 Y-52.20787
G1 X-371.11172 Y-52.20769
G1 X-371.11167 Y-52.20778
G3 X-334.06722 Y-88.36669 I87.44653 J52.53281
G3 X-334.06689 Y-88.36688 I0.98815 J1.73884
G3 X-309.88953 Y-98.21789 I49.85979 J87.77618
G3 X-309.88143 Y-98.22001 I0.50882 J1.93419
G1 X-309.10511 Y-98.42076
G3 X-309.09632 Y-98.42301 I0.50072 J1.93631
G3 X-283.99958 Y-101.54884 I25.02682 J98.62434
G3 X-264.19286 Y-99.61509 I0.02826 J102.1142
G3 X-264.19145 Y-99.61482 I-0.38738 J1.96213
G3 X-231.80443 Y-87.10957 I-19.62048 J99.00633
G1 Y-87.10956
G1 X-231.80444 Y-87.10957
G1 X-231.80443
G3 X-195.66144 Y-50.07454 I-52.59763 J87.48451
G3 X-195.66114 Y-50.07402 I-1.73867 J0.98844
G3 X-185.80899 Y-25.90661 I-87.83138 J49.89746
G3 X-185.80888 Y-25.90621 I-1.93403 J0.50943
G3 X-183.30784 Y-13.07088 I-97.49171 J25.65821
G3 X-183.30778 Y-13.07043 I-1.98376 J0.25439
G3 X-182.47619 Y-0.02551 I-101.91368 J13.04579
G3 X-184.40826 Y19.78605 I-102.06248 J0.04662
G3 X-184.40845 Y19.78699 I-1.96214 J-0.38731
G3 X-196.90715 Y52.18434 I-99.03937 J-19.59917
G1 X-196.90716 Y52.18435
G1 X-196.90715 Y52.18434
G3 X-233.94035 Y88.34522 I-87.51296 J-52.58034
G1 X-233.94053 Y88.34532
G3 X-258.1131 Y98.2032 I-49.82616 J-87.61326
G1 X-258.11319 Y98.20323
G1 X-258.113 Y98.20318
G1 X-258.1131 Y98.2032
G3 X-270.95124 Y100.70552 I-25.65487 J-97.43822
G3 X-270.95178 Y100.70559 I-0.2544 J-1.98375
G3 X-283.99899 Y101.53756 I-13.05597 J-102.02626
G3 X-288.98094 Y101.41747 I-0.09148 J-99.60113
G3 X-308.0688 Y98.66685 I4.81946 J-101.0498
G1 X-308.0689 Y98.66683
