( Made using CamBam - http://www.cambam.co.uk )
( Bayern-Muenchen 6/22/2019 9:21:26 PM )
( T2 : 2.0 )
( T6 : 6.0 )
G21 G90 G64 G40
G0 Z3.0
( T6 : 6.0 )
T6 M6
( Tasche6 )
G17
M3 S1000
G0 X-15.2 Y49.38243
G0 Z1.0
G1 F300.0 Z-2.5
G3 F800.0 X-21.74861 Y44.64291 I5.31663 J-14.23985
G3 X-29.58892 Y49.8 I-11.86523 J-9.50033
G1 X-15.2
G1 Y49.38243
G0 Z3.0
G0 X-62.10165 Y49.8
G0 Z1.0
G1 F300.0 Z-2.5
G3 F800.0 X-70.11752 Y44.41939 I4.02492 J-14.65742
G3 X-73.80051 Y46.43615 I-16.96584 J-26.61155
G3 X-73.85812 Y46.46274 I-6.39536 J-13.78381
G3 X-85.22899 Y49.8 I-17.13131 J-37.33027
G1 X-62.10165
G0 Z3.0
G0 X-68.47673 Y-7.82208
G0 Z1.0
G1 F300.0 Z-2.5
G1 F800.0 Y-8.39746
G1 X-68.67041 Y-8.0107
G3 X-68.47673 Y-7.82208 I-18.20568 J18.88665
G1 F300.0 X-66.07673
G1 F800.0 Y-18.54995
G1 X-71.63652 Y-7.44757
G3 X-66.07673 Y-0.75945 I-15.23956 J18.32352
G1 Y-7.82208
G0 Z3.0
G0 X-94.22224 Y-49.8
G0 Z1.0
G1 F300.0 Z-2.5
G1 F800.0 X-100.73981
G3 X-97.48103 Y-47.76292 I-6.36035 J13.8
G3 X-94.22224 Y-49.8 I9.61914 J11.76292
G0 Z3.0
G0 X-134.62662 Y-14.81088
G0 Z1.0
G1 F300.0 Z-2.5
G3 F800.0 X-137.30516 Y-13.65409 I-4.45597 J-6.63834
G3 X-134.62662 Y-10.25331 I-4.70711 J6.46269
G1 Y-14.81088
G0 Z3.0
G0 Y10.42128
G0 Z1.0
G1 F300.0 Z-2.5
G3 F800.0 X-136.75244 Y13.38079 I-7.38566 J-3.0619
G3 X-134.62662 Y14.86486 I-3.45319 J7.21101
G1 Y10.42128
G0 Z3.0
G0 X-133.41853 Y48.73777
G0 Z1.0
G1 F300.0 Z-2.5
G3 F800.0 X-136.19888 Y49.8 I-6.78711 J-13.59519
G1 X-130.63817
G3 X-133.41853 Y48.73777 I4.00676 J-14.65742
G0 Z3.0
G0 X-230.9539 Y47.4
G0 Z1.0
G1 F300.0 Z-2.5
G3 F800.0 X-232.02693 Y46.18806 I12.62326 J-12.25742
G3 X-233.09996 Y47.4 I-13.69629 J-11.04548
G1 X-230.9539
G1 F300.0 Y49.8
G1 F800.0 X-222.33739
G3 X-231.89187 Y41.9973 I4.00676 J-14.65742
G1 X-232.02423 Y41.73543
G1 X-232.24759 Y42.16409
G3 X-241.71646 Y49.8 I-13.47563 J-7.02151
G1 X-230.9539
G0 Z3.0
G0 X-280.75858 Y47.4
G0 Z1.0
G1 F300.0 Z-2.5
G3 F800.0 X-280.85505 Y47.29986 I12.62326 J-12.25742
G3 X-280.95152 Y47.4 I-12.71973 J-12.15729
G1 X-280.75858
G1 F300.0 X-279.03676 Y45.72808
G3 F800.0 X-280.85505 Y43.45538 I10.90144 J-10.5855
G3 X-289.56802 Y49.8 I-12.71973 J-8.3128
G1 X-272.14208
G3 X-279.03676 Y45.72808 I4.00676 J-14.65742
G0 Z3.0
G0 X-264.98535 Y-0.62025
G0 Z1.0
G1 F300.0 Z-2.5
G1 F800.0 X-257.40279 Y-13.7148
G1 Y-22.32514
G1 X-264.98535 Y-0.62025
G0 Z3.0
G0 X-255.46443 Y-43.42633
G0 Z1.0
G1 F300.0 Z-2.5
G3 F800.0 X-248.56794 Y-49.8 I13.25684 J7.42633
G1 X-262.36091
G3 X-255.46443 Y-43.42633 I-6.36035 J13.8
G0 Z3.0
G0 X-209.27369 Y-47.4
G0 Z1.0
G1 F300.0 Z-2.5
G3 F800.0 X-206.17243 Y-42.10018 I-13.40265 J11.4
G3 X-203.07118 Y-47.4 I16.50391 J6.10018
G1 X-209.27369
G1 F300.0 Y-49.8
G1 F800.0 X-216.31599
G3 X-207.48114 Y-36.0 I-6.36035 J13.8
G1 Y-13.7148
G1 X-204.86373 Y-9.19471
G1 Y-36.0
G3 X-196.02888 Y-49.8 I15.1952 J0.0
G1 X-209.27369
G0 Z3.0
G0 X-302.68055 Y-47.4
G0 Z1.0
G1 F300.0 Z-2.5
G1 F800.0 X-311.3733
G3 X-308.02307 Y-41.37885 I-13.40265 J11.4
G1 X-307.25787 Y-38.99559
G1 X-306.73769
G1 X-306.15723 Y-40.96783
G3 X-302.68055 Y-47.4 I16.87933 J4.96783
G1 F300.0 Y-49.8
G1 F800.0 X-318.41559
G3 X-310.30817 Y-40.64517 I-6.36035 J13.8
G1 X-309.00797 Y-36.59559
G1 X-304.94226
G1 X-303.85488 Y-40.29021
G3 X-295.63826 Y-49.8 I14.57697 J4.29021
G1 X-302.68055
G0 Z3.0
G0 X-350.71638
G0 Z1.0
G1 F300.0 Z-2.5
G1 F800.0 X-361.56708
G3 X-360.61138 Y-49.58419 I-12.40585 J57.16171
G3 X-354.22559 Y-47.55361 I-8.90704 J39.06728
G3 X-350.71638 Y-49.8 I9.86956 J11.55361
G0 Z3.0
G0 X-338.40015 Y41.8425
G0 Z1.0
G1 F300.0 Z-2.5
G3 F800.0 X-340.16932 Y43.8 I-27.15951 J-22.76827
G1 X-337.62827
G3 X-338.18251 Y42.43631 I19.34646 J-8.65742
G1 X-338.40015 Y41.8425
G1 F300.0 X-339.31976 Y41.07157
G3 F800.0 X-343.19294 Y45.0 I-26.2399 J-21.99734
G1 X-335.67834
G3 X-337.0558 Y42.02337 I17.39653 J-9.85742
G1 X-338.01309 Y39.41144
G3 X-339.31976 Y41.07157 I-27.54657 J-20.33721
G1 F300.0 X-341.15897 Y39.52973
G3 F800.0 X-349.03845 Y46.29317 I-24.40069 J-20.4555
G3 X-350.94705 Y47.4 I-20.8926 J-33.82781
G1 X-330.90507
G3 X-334.80238 Y41.19748 I12.62326 J-12.25742
G1 X-337.43771 Y34.00707
G3 X-337.81415 Y34.69497 I-28.01186 J-14.882
G3 X-341.15897 Y39.52973 I-27.74551 J-15.62074
G1 F300.0 X-342.99819 Y37.98788
G3 F800.0 X-350.29166 Y44.24633 I-22.56147 J-18.91365
G3 X-361.17717 Y48.78485 I-19.63939 J-31.78096
G3 X-366.55574 Y49.8 I-12.07958 J-49.24486
G1 X-322.28856
G3 X-332.54896 Y40.37158 I4.00676 J-14.65742
G1 X-337.31351 Y27.37166
G3 X-339.9053 Y33.51723 I-28.13605 J-8.24659
G3 X-342.99819 Y37.98788 I-25.65436 J-14.443
G0 Z3.0
G0 X-419.572 Y46.827
G0 Z1.0
G1 F300.0 Z-2.5
G3 F800.0 X-420.05083 Y46.26455 I13.15543 J-11.68442
G2 X-419.572 Y46.827 I2.02596 J-1.23969
G1 F300.0 X-417.77759 Y45.23324
G3 F800.0 X-421.61177 Y35.14258 I11.36102 J-10.09066
G1 Y-36.0
G3 X-412.77693 Y-49.8 I15.1952 J0.0
G1 X-418.0
G3 X-418.01823 Y-49.80001 I0.0 J-15.2
G2 X-422.80001 Y-45.01823 I-0.00573 J4.77605
G3 X-422.8 Y-45.0 I-15.19999 J0.01823
G1 Y45.0
G3 X-422.80001 Y45.01892 I-15.2 J0.0
G2 X-418.01892 Y49.80001 I4.77515 J0.00594
G3 X-418.0 Y49.8 I0.01892 J15.19999
G1 X-410.42333
G3 X-417.77759 Y45.23324 I4.00676 J-14.65742
G0 Z3.0
G0 X-33.54085 Y-49.8
G0 Z1.0
G1 F300.0 Z-2.5
G3 F800.0 X-28.09626 Y-45.56099 I-6.37181 J13.8
G3 X-22.65167 Y-49.8 I11.81641 J9.56099
G1 X-33.54085
G1 F300.0 Y-52.2
G1 F800.0 X-418.0
G3 X-418.01535 Y-52.20001 I0.0 J-12.8
G2 X-425.20001 Y-45.01535 I-0.00861 J7.17605
G3 X-425.2 Y-45.0 I-12.79999 J0.01535
G1 Y45.0
G3 X-425.20001 Y45.01593 I-12.8 J0.0
G2 X-418.01593 Y52.20001 I7.17515 J0.00893
G3 X-418.0 Y52.2 I0.01593 J12.79999
G1 X-12.8
G1 Y47.60586
G3 X-21.72625 Y39.99914 I2.91663 J-12.46328
G1 X-22.19103 Y40.91834
G3 X-33.61384 Y47.94258 I-11.42281 J-5.77576
G1 X-58.07673
G3 X-69.44387 Y41.02715 I0.0 J-12.8
G3 X-74.81062 Y44.25908 I-17.6395 J-23.2193
G3 X-74.85913 Y44.28146 I-5.38525 J-11.60673
G3 X-86.65238 Y47.56199 I-16.13029 J-35.14899
G3 X-94.16867 Y47.93778 I-6.62324 J-57.11787
G1 X-126.63142
G3 X-133.41853 Y45.98934 I0.0 J-12.7952
G3 X-140.20564 Y47.93778 I-6.78711 J-10.84676
G1 X-189.66853
G3 X-193.20857 Y47.43832 I0.0 J-12.7952
G3 X-196.74861 Y47.93778 I-3.54004 J-12.29574
G1 X-218.33064
G3 X-229.74994 Y40.91463 I0.0 J-12.7952
G1 X-231.99181 Y36.47937
G1 X-234.37599 Y41.05508
G3 X-245.72321 Y47.93778 I-11.34722 J-5.9125
G1 X-268.13532
G3 X-280.75633 Y37.2467 I0.0 J-12.7952
G1 X-281.49547 Y39.36246
G3 X-293.57478 Y47.93778 I-12.07931 J-4.21988
G1 X-318.28181
G3 X-330.29554 Y39.54569 I0.0 J-12.7952
G1 X-338.34873 Y17.57284
G3 X-339.03713 Y24.32629 I-35.87003 J-0.24453
G3 X-341.99645 Y32.33949 I-26.41243 J-5.20122
G3 X-351.54479 Y42.19943 I-23.5632 J-13.26526
G3 X-361.74421 Y46.45279 I-18.38626 J-29.73407
G3 X-370.50391 Y47.76624 I-11.51254 J-46.91281
G3 X-376.41385 Y47.93778 I-5.0839 J-73.26124
G1 X-406.41657
G3 X-419.21177 Y35.14258 I0.0 J-12.7952
G1 Y-36.0
G3 X-406.41657 Y-48.7952 I12.7952 J0.0
G1 X-377.0936
G3 X-370.51316 Y-48.62393 I0.96365 J89.47805
G3 X-361.15221 Y-47.24591 I-3.45976 J55.98564
G3 X-353.72389 Y-44.71552 I-8.36621 J36.729
G3 X-344.35603 Y-48.7952 I9.36786 J8.71552
G1 X-324.77595
G3 X-312.59328 Y-39.91149 I0.0 J12.7952
G1 X-310.75808 Y-34.19559
G1 X-303.14682
G1 X-301.55252 Y-39.6126
G3 X-289.2779 Y-48.7952 I12.27462 J3.6126
G1 X-268.72126
G3 X-256.64195 Y-31.78012 I0.0 J12.7952
G1 X-275.61148 Y22.51971
G1 X-255.00279 Y-13.07007
G1 Y-36.0
G3 X-242.20759 Y-48.7952 I12.7952 J0.0
G1 X-222.67634
G3 X-209.88114 Y-36.0 I0.0 J12.7952
G1 Y-13.07007
G1 X-202.46373 Y-0.26072
G1 Y-36.0
G3 X-189.66853 Y-48.7952 I12.7952 J0.0
G1 X-139.08259
G3 X-132.857 Y-47.17852 I0.0 J12.7952
G3 X-126.63142 Y-48.7952 I6.22559 J11.17852
G1 X-107.10017
G3 X-97.48103 Y-44.43737 I0.0 J12.7952
G3 X-87.86189 Y-48.7952 I9.61914 J8.43737
G1 X-66.27986
G3 X-62.18578 Y-48.12253 I0.0 J12.7952
G3 X-58.07673 Y-48.8 I4.10905 J12.12253
G1 X-39.91267
G3 X-28.11399 Y-40.96298 I0.0 J12.8
G1 X-27.70065 Y-41.77975
G3 X-16.27986 Y-48.8 I11.42079 J5.77975
G1 X-12.8
G1 Y-52.2
G1 X-33.54085
G0 Z3.0
G0 X-133.55216 Y-36.84889
G0 Z1.0
G1 F300.0 Z-2.5
G3 F800.0 X-133.48739 Y-36.0 I-5.53043 J0.84889
G1 Y-21.44922
G3 X-139.08259 Y-15.85402 I-5.5952 J0.0
G1 X-164.9327
G1 Y-12.78661
G1 X-142.01228
G3 X-136.41708 Y-7.19141 I0.0 J5.5952
G1 Y7.35938
G3 X-142.01228 Y12.95458 I-5.5952 J0.0
G1 X-164.9327
G1 Y14.9966
G1 X-140.20564
G3 X-134.61044 Y20.5918 I0.0 J5.5952
G1 Y35.14258
G3 X-140.20564 Y40.73778 I-5.5952 J0.0
G1 X-189.66853
G3 X-193.20857 Y39.47552 I0.0 J-5.5952
G3 X-196.74861 Y40.73778 I-3.54004 J-4.33294
G1 X-218.33064
G3 X-223.32417 Y37.66663 I0.0 J-5.5952
G1 X-231.89453 Y20.71122
G1 X-240.7612 Y37.72805
G3 X-245.72321 Y40.73778 I-4.96202 J-2.58547
G1 X-268.13532
G3 X-272.97732 Y32.33876 I0.0 J-5.5952
G1 X-247.80279 Y-11.13589
G1 Y-36.0
G3 X-242.20759 Y-41.5952 I5.5952 J0.0
G1 X-222.67634
G3 X-217.08114 Y-36.0 I0.0 J5.5952
G1 Y-11.13589
G1 X-195.26373 Y26.54126
G1 Y-36.0
G3 X-189.66853 Y-41.5952 I5.5952 J0.0
G1 X-139.08259
G3 X-133.55216 Y-36.84889 I0.0 J5.5952
G1 F300.0 X-135.91963 Y-36.48549
G3 F800.0 X-135.88259 Y-36.0 I-3.16296 J0.48549
G1 Y-21.44922
G3 X-139.08259 Y-18.24922 I-3.2 J0.0
G1 X-167.3279
G1 Y-10.39141
G1 X-142.01228
G3 X-138.81228 Y-7.19141 I0.0 J3.2
G1 Y7.35938
G3 X-142.01228 Y10.55938 I-3.2 J0.0
G1 X-167.3279
G1 Y17.3918
G1 X-140.20564
G3 X-137.00564 Y20.5918 I0.0 J3.2
G1 Y35.14258
G3 X-140.20564 Y38.34258 I-3.2 J0.0
G1 X-189.66853
G3 X-192.86853 Y35.14258 I0.0 J-3.2
G1 Y-36.0
G3 X-189.66853 Y-39.2 I3.2 J0.0
G1 X-139.08259
G3 X-135.91963 Y-36.48549 I0.0 J3.2
G0 Z3.0
G0 X-219.47639 Y-36.01791
G0 Z1.0
G1 F300.0 Z-2.5
G3 F800.0 X-219.47634 Y-36.0 I-3.19995 J0.01791
G1 Y-10.49245
G1 X-193.97938 Y33.53902
G3 X-196.74861 Y38.34258 I-2.76923 J1.60355
G1 X-218.33064
G3 X-221.18653 Y36.58613 I0.0 J-3.2
G1 X-230.21974 Y18.71504
G3 X-230.29106 Y18.56429 I2.8559 J-1.44355
G2 X-231.69727 Y15.41246 I-419.51131 J185.27698
G3 X-231.72537 Y15.34824 I2.91741 J-1.3148
G3 X-231.81976 Y15.12563 I238.98869 J-101.46828
G3 X-233.20546 Y18.04348 I-51.24027 J-22.54637
G3 X-233.21738 Y18.06657 I-2.84978 J-1.45558
G1 X-242.88534 Y36.62126
G3 X-245.72321 Y38.34258 I-2.83787 J-1.47868
G1 X-268.13532
G3 X-270.90455 Y33.53902 I0.0 J-3.2
G1 X-245.40759 Y-10.49245
G1 Y-36.0
G3 X-242.20759 Y-39.2 I3.2 J0.0
G1 X-222.67634
G3 X-219.47639 Y-36.01791 I0.0 J3.2
G0 Z3.0
G0 X-263.12606 Y-36.00203
G0 Z1.0
G1 F300.0 Z-2.5
G3 F800.0 X-263.43911 Y-34.15469 I-5.5952 J0.00203
G1 X-288.29263 Y36.98789
G3 X-293.57478 Y40.73778 I-5.28215 J-1.84531
G1 X-318.28181
G3 X-323.53528 Y37.06801 I0.0 J-5.5952
G1 X-343.55338 Y-17.55067
G3 X-343.54599 Y-16.91309 I-29.70429 J0.66355
G3 X-343.54608 Y-16.87609 I-5.5952 J0.00489
G3 X-344.22692 Y-10.46923 I-32.22587 J-0.18498
G3 X-347.03346 Y-3.61167 I-19.40928 J-3.94039
G3 X-351.53205 Y1.30967 I-16.82039 J-10.85876
G3 X-347.55375 Y7.0179 I-13.05153 J13.33657
G3 X-345.95349 Y12.38537 I-19.06675 J8.60687
G3 X-345.54798 Y17.34759 I-31.66993 J5.08576
G3 X-345.54795 Y17.37904 I-5.59516 J0.02155
G3 X-346.10016 Y22.92855 I-28.67082 J-0.05074
G3 X-348.26991 Y28.80626 I-19.3494 J-3.80348
G3 X-355.30353 Y36.05832 I-17.28974 J-9.73203
G3 X-363.445 Y39.45653 I-14.62752 J-23.59296
G3 X-370.95767 Y40.5804 I-9.81175 J-39.91655
G3 X-376.37232 Y40.73778 I-4.63014 J-66.0754
G1 X-406.41657
G3 X-412.01177 Y35.14258 I0.0 J-5.5952
G1 Y-36.0
G3 X-406.41657 Y-41.5952 I5.5952 J0.0
G1 X-377.05401
G3 X-370.96112 Y-41.43788 I0.92407 J82.27805
G3 X-362.77416 Y-40.23093 I-3.0118 J48.79959
G3 X-353.94798 Y-36.70792 I-6.74426 J29.71402
G3 X-353.88025 Y-36.66701 I-2.85922 J4.80948
G3 X-349.08806 Y-32.65184 I-11.1721 J18.20152
G1 X-349.6095 Y-34.07457
G3 X-344.35603 Y-41.5952 I5.25347 J-1.92543
G1 X-324.77595
G3 X-319.4486 Y-37.71045 I0.0 J5.5952
G1 X-316.00838 Y-26.99559
G1 X-297.76053
G1 X-294.64546 Y-37.57975
G3 X-289.2779 Y-41.5952 I5.36756 J1.57975
G1 X-268.72126
G3 X-263.12606 Y-36.00203 I0.0 J5.5952
G1 F300.0 X-265.52126 Y-36.00116
G3 F800.0 X-265.7003 Y-34.94463 I-3.2 J0.00116
G1 X-290.55382 Y36.19794
G3 X-293.57478 Y38.34258 I-3.02096 J-1.05537
G1 X-318.28181
G3 X-321.28637 Y36.24377 I0.0 J-3.2
G1 X-347.36059 Y-34.89881
G3 X-344.35603 Y-39.2 I3.00456 J-1.10119
G1 X-324.77595
G3 X-321.72914 Y-36.97824 I0.0 J3.2
G1 X-317.75498 Y-24.60039
G1 X-295.96869
G1 X-292.34771 Y-36.90349
G3 X-289.2779 Y-39.2 I3.06981 J0.90349
G1 X-268.72126
G3 X-265.52126 Y-36.00116 I0.0 J3.2
G0 Z3.0
G0 X-346.36119 Y-21.65896
G0 Z1.0
G1 F300.0 Z-2.5
G3 F800.0 X-345.94118 Y-16.911 I-26.89648 J4.77184
G3 X-345.94124 Y-16.88984 I-3.2 J0.0028
G3 X-346.57289 Y-10.95239 I-29.8307 J-0.17123
G3 X-349.04356 Y-4.91416 I-17.0633 J-3.45723
G3 X-355.58607 Y1.0959 I-14.81028 J-9.55628
G3 X-354.31791 Y2.03015 I-10.86494 J16.07598
G3 X-354.29467 Y2.04895 I-2.00101 J2.49719
G3 X-349.73827 Y8.0002 I-10.2889 J12.59728
G3 X-348.31911 Y12.76066 I-16.88224 J7.62457
G3 X-347.94316 Y17.35682 I-29.30431 J4.71047
G3 X-347.94314 Y17.3748 I-3.19998 J0.01232
G3 X-348.44982 Y22.46367 I-26.27562 J-0.0465
G3 X-350.35689 Y27.63087 I-16.99975 J-3.3386
G3 X-356.55359 Y34.01515 I-15.20277 J-8.55664
G3 X-364.01065 Y37.12907 I-13.37746 J-21.54979
G3 X-371.10828 Y38.18988 I-9.2461 J-37.58909
G3 X-376.358 Y38.34258 I-4.47953 J-63.68487
G1 X-406.41657
G3 X-409.61657 Y35.14258 I0.0 J-3.2
G1 Y-36.0
G3 X-406.41657 Y-39.2 I3.2 J0.0
G1 X-377.04047
G3 X-371.11012 Y-39.04732 I0.91052 J79.88285
G3 X-363.31349 Y-37.89721 I-2.8628 J46.40903
G3 X-355.17196 Y-34.64907 I-6.20494 J27.38031
G3 X-355.13322 Y-34.62567 I-1.63524 J2.75063
G3 X-348.5614 Y-27.8244 I-9.91913 J16.16019
G3 X-346.4932 Y-22.35103 I-15.65846 J9.04422
G3 X-346.36119 Y-21.65896 I-26.76447 J5.46391
G0 Z3.0
G0 X-342.48298 Y-7.65586
G0 Z1.0
G1 F300.0 Z-2.5
G1 F800.0 X-325.7887 Y37.8939
G2 X-318.28181 Y43.13778 I7.50689 J-2.75133
G1 X-293.57478
G2 X-286.02691 Y37.77941 I0.0 J-7.9952
G1 X-261.17339 Y-33.36317
G2 X-268.72126 Y-43.9952 I-7.54787 J-2.63683
G1 X-289.2779
G2 X-296.94781 Y-38.25736 I0.0 J7.9952
G1 X-299.55596 Y-29.39559
G1 X-314.25828
G1 X-317.1635 Y-38.44413
G2 X-324.77595 Y-43.9952 I-7.61245 J2.44413
G1 X-344.35603
G2 X-352.00718 Y-38.32014 I0.0 J7.9952
G2 X-352.62477 Y-38.71243 I-13.04517 J19.85465
G2 X-352.72155 Y-38.7709 I-4.18243 J6.81399
G2 X-362.23362 Y-42.56928 I-16.79687 J28.25399
G2 X-370.81182 Y-43.83323 I-11.7393 J49.93099
G2 X-377.06739 Y-43.9952 I-5.31813 J84.51609
G1 X-406.41657
G2 X-414.41177 Y-36.0 I0.0 J7.9952
G1 Y35.14258
G2 X-406.41657 Y43.13778 I7.9952 J0.0
G1 X-376.3864
G2 X-370.80657 Y42.97569 I0.79859 J-68.63278
G2 X-362.87813 Y41.78864 I-2.45018 J-43.43571
G2 X-354.05075 Y38.10545 I-7.05292 J-29.32327
G2 X-346.17876 Y29.984 I-11.5089 J-19.03122
G2 X-343.74581 Y23.39443 I-19.2708 J-10.85893
G2 X-343.14795 Y17.38329 I-30.47295 J-6.06612
G2 X-343.148 Y17.33835 I-7.99519 J-0.01415
G2 X-343.58314 Y12.00924 I-34.47543 J0.13277
G2 X-345.36488 Y6.03361 I-23.03736 J3.61553
G2 X-348.12447 Y1.50722 I-19.2187 J8.61262
G2 X-345.01932 Y-2.30658 I-15.72937 J-15.97766
G2 X-342.48298 Y-7.65586 I-18.61687 J-12.10305
G0 Z3.0
G0 X-342.74825 Y-1.40537
G0 Z1.0
G1 F300.0 Z-2.5
G1 F800.0 X-328.04212 Y38.7198
G2 X-318.28181 Y45.53778 I9.76031 J-3.57722
G1 X-293.57478
G2 X-283.76119 Y38.57094 I0.0 J-10.3952
G1 X-258.90767 Y-32.57164
G2 X-268.72126 Y-46.3952 I-9.81359 J-3.42836
G1 X-289.2779
G2 X-299.25017 Y-38.93498 I0.0 J10.3952
G1 X-301.35139 Y-31.79559
G1 X-312.50818
G1 X-314.87839 Y-39.17781
G2 X-324.77595 Y-46.3952 I-9.89756 J3.17781
G1 X-344.35603
G2 X-353.04652 Y-41.70399 I0.0 J10.3952
G2 X-361.69296 Y-44.9076 I-16.4719 J31.18709
G2 X-370.66249 Y-46.22858 I-12.27996 J52.26931
G2 X-377.08059 Y-46.3952 I-5.46745 J86.91144
G1 X-406.41657
G2 X-416.81177 Y-36.0 I0.0 J10.3952
G1 Y35.14258
G2 X-406.41657 Y45.53778 I10.3952 J0.0
G1 X-376.40024
G2 X-370.65531 Y45.37097 I0.81243 J-71.03278
G2 X-362.3112 Y44.12072 I-2.60144 J-45.83099
G2 X-352.79783 Y40.15248 I-7.61985 J-31.65536
G2 X-344.08761 Y31.16174 I-12.76183 J-21.07825
G2 X-341.39147 Y23.86034 I-21.36196 J-12.03667
G2 X-340.74795 Y17.38754 I-32.82729 J-6.53204
G2 X-340.74801 Y17.32911 I-10.39518 J-0.0184
G2 X-341.21281 Y11.63304 I-36.87541 J0.14202
G2 X-343.17601 Y5.0493 I-25.40769 J3.99172
G2 X-345.02068 Y1.69717 I-21.40757 J9.59693
G2 X-343.00519 Y-1.00148 I-18.83316 J-16.1676
G2 X-342.74825 Y-1.40537 I-20.63101 J-13.40814
G0 Z3.0
G0 Y-54.6
G0 Z1.0
G1 F300.0 Z-2.5
G1 F800.0 X-418.0
G3 X-418.01247 Y-54.60001 I0.0 J-10.4
G2 X-427.60001 Y-45.01247 I-0.01149 J9.57605
G3 X-427.6 Y-45.0 I-10.39999 J0.01247
G1 Y45.0
G3 X-427.60001 Y45.01294 I-10.4 J0.0
G2 X-418.01294 Y54.60001 I9.57515 J0.01192
G3 X-418.0 Y54.6 I0.01294 J10.39999
G1 X-10.4
G1 Y45.52974
G3 X-20.28337 Y35.14258 I0.51663 J-10.38716
G1 Y31.82675
G1 X-24.33281 Y39.83538
G3 X-33.61384 Y45.54258 I-9.28103 J-4.6928
G1 X-58.07673
G3 X-68.32803 Y36.89498 I0.0 J-10.4
G3 X-75.82073 Y42.082 I-18.75534 J-19.08713
G3 X-75.86014 Y42.10018 I-4.37514 J-9.42965
G3 X-86.92516 Y45.17754 I-15.12928 J-32.96771
G3 X-94.14983 Y45.53778 I-6.35046 J-54.73342
G1 X-126.63142
G3 X-133.41853 Y43.01629 I0.0 J-10.3952
G3 X-140.20564 Y45.53778 I-6.78711 J-7.87371
G1 X-189.66853
G3 X-193.20857 Y44.91644 I0.0 J-10.3952
G3 X-196.74861 Y45.53778 I-3.54004 J-9.77386
G1 X-218.33064
G3 X-227.60802 Y39.83197 I0.0 J-10.3952
G1 X-231.95938 Y31.22332
G1 X-236.50439 Y39.94607
G3 X-245.72321 Y45.53778 I-9.21882 J-4.80349
G1 X-268.13532
G3 X-277.13116 Y29.93343 I0.0 J-10.3952
G1 X-252.60279 Y-12.42535
G1 Y-36.0
G3 X-242.20759 Y-46.3952 I10.3952 J0.0
G1 X-222.67634
G3 X-212.28114 Y-36.0 I0.0 J10.3952
G1 Y-12.42535
G1 X-200.06373 Y8.67327
G1 Y-36.0
G3 X-189.66853 Y-46.3952 I10.3952 J0.0
G1 X-139.08259
G3 X-132.857 Y-44.3248 I0.0 J10.3952
G3 X-126.63142 Y-46.3952 I6.22559 J8.3248
G1 X-107.10017
G3 X-97.4821 Y-39.94371 I0.0 J10.3952
G1 X-97.40151 Y-40.12986
G3 X-87.86189 Y-46.3952 I9.53963 J4.12986
G1 X-66.27986
G3 X-62.18438 Y-45.55444 I0.0 J10.3952
G3 X-58.07673 Y-46.4 I4.10765 J9.55444
G1 X-39.91267
G3 X-29.51267 Y-36.0 I0.0 J10.4
G1 Y-32.88409
G1 X-25.55925 Y-40.69605
G3 X-16.27986 Y-46.4 I9.27939 J4.69605
G1 X-10.4
G1 Y-54.6
G1 X-342.74825
G1 F300.0 Y-57.0
G1 F800.0 X-418.0
G3 X-418.0096 Y-57.00001 I0.0 J-8.0
G2 X-430.00001 Y-45.0096 I-0.01436 J11.97605
G3 X-430.0 Y-45.0 I-7.99999 J0.0096
G1 Y45.0
G3 X-430.00001 Y45.00996 I-8.0 J0.0
G2 X-418.00996 Y57.00001 I11.97515 J0.0149
G3 X-418.0 Y57.0 I0.00996 J7.99999
G1 X-8.0
G1 Y43.14258
G1 X-9.88337
G3 X-17.88337 Y35.14258 I0.0 J-8.0
G1 Y21.76145
G1 X-26.47458 Y38.75243
G3 X-33.61384 Y43.14258 I-7.13926 J-3.60985
G1 X-58.07673
G3 X-66.07673 Y35.14258 I0.0 J-8.0
G1 Y30.14616
G3 X-66.59055 Y30.97749 I-20.91518 J-12.3528
G3 X-76.83085 Y39.90492 I-20.49281 J-13.16964
G3 X-76.86116 Y39.91891 I-3.36502 J-7.25257
G3 X-87.19789 Y42.79308 I-14.12826 J-30.78644
G3 X-94.13058 Y43.13778 I-6.07773 J-52.34897
G1 X-126.63142
G3 X-133.41853 Y39.36849 I0.0 J-7.9952
G3 X-140.20564 Y43.13778 I-6.78711 J-4.22592
G1 X-189.66853
G3 X-193.20857 Y42.31135 I0.0 J-7.9952
G3 X-196.74861 Y43.13778 I-3.54004 J-7.16878
G1 X-218.33064
G3 X-225.4661 Y38.7493 I0.0 J-7.9952
G1 X-231.92696 Y25.96727
G1 X-238.6328 Y38.83706
G3 X-245.72321 Y43.13778 I-7.09042 J-3.69448
G1 X-268.13532
G3 X-275.05424 Y31.1361 I0.0 J-7.9952
G1 X-250.20279 Y-11.78062
G1 Y-36.0
G3 X-242.20759 Y-43.9952 I7.9952 J0.0
G1 X-222.67634
G3 X-214.68114 Y-36.0 I0.0 J7.9952
G1 Y-11.78062
G1 X-197.66373 Y17.60727
G1 Y-36.0
G3 X-189.66853 Y-43.9952 I7.9952 J0.0
G1 X-139.08259
G3 X-132.857 Y-41.0165 I0.0 J7.9952
G3 X-126.63142 Y-43.9952 I6.22559 J5.0165
G1 X-107.10017
G3 X-99.10497 Y-36.0 I0.0 J7.9952
G1 Y-30.15401
G1 X-95.19904 Y-39.17637
G3 X-87.86189 Y-43.9952 I7.33716 J3.17637
G1 X-66.27986
G3 X-62.18297 Y-42.86577 I0.0 J7.9952
G3 X-58.07673 Y-44.0 I4.10624 J6.86577
G1 X-39.91267
G3 X-31.91267 Y-36.0 I0.0 J8.0
G1 Y-22.82658
G1 X-23.41785 Y-39.61235
G3 X-16.27986 Y-44.0 I7.13799 J3.61235
G1 X-8.0
G1 Y-57.0
G1 X-342.74825
G1 F300.0 Y-59.4
G1 F800.0 X-418.0
G3 X-418.00672 I0.0 J-5.6
G2 X-432.4 Y-45.00672 I-0.01724 J14.37604
G3 Y-45.0 I-5.6 J0.00672
G1 Y45.0
G3 Y45.00697 I-5.6 J0.0
G2 X-418.00697 Y59.4 I14.37514 J0.01789
G3 X-418.0 I0.00697 J5.6
G1 X-5.6
G1 Y40.74258
G1 X-9.88337
G3 X-15.48337 Y35.14258 I0.0 J-5.6
G1 Y11.69615
G1 X-28.61636 Y37.66947
G3 X-33.61384 Y40.74258 I-4.99748 J-2.52689
G1 X-58.07673
G3 X-63.67673 Y35.14258 I0.0 J-5.6
G1 Y-28.70243
G1 X-74.66916 Y-6.7516
G3 X-73.36877 Y-5.76467 I-15.81004 J22.18173
G3 X-73.35309 Y-5.75196 I-3.51462 J4.35358
G3 X-68.12228 Y0.50033 I-13.523 J16.62791
G3 X-68.0517 Y0.63202 I-4.89586 J2.70865
G3 X-64.78677 Y15.09269 I-25.92638 J13.45257
G3 X-65.53839 Y22.14627 I-35.71643 J-0.23909
G3 X-68.60793 Y29.67741 I-21.45352 J-4.35291
G3 X-77.84096 Y37.72784 I-18.47544 J-11.86956
G3 X-77.86217 Y37.73763 I-2.35491 J-5.0755
G3 X-87.47058 Y40.40862 I-13.12725 J-28.60516
G3 X-94.11089 Y40.73778 I-5.80505 J-49.9645
G1 X-126.63142
G3 X-132.22662 Y35.14258 I0.0 J-5.5952
G1 Y-36.0
G3 X-126.63142 Y-41.5952 I5.5952 J0.0
G1 X-107.10017
G3 X-101.50497 Y-36.0 I0.0 J5.5952
G1 Y-18.56921
G1 X-92.99658 Y-38.22289
G3 X-87.86189 Y-41.5952 I5.13469 J2.22289
G1 X-66.27986
G3 X-62.18157 Y-39.80924 I0.0 J5.5952
G3 X-58.07673 Y-41.6 I4.10484 J3.80924
G1 X-39.91267
G3 X-34.31267 Y-36.0 I0.0 J5.6
G1 Y-12.76908
G1 X-21.27645 Y-38.52864
G3 X-16.27986 Y-41.6 I4.9966 J2.52864
G1 X-5.6
G1 Y-59.4
G1 X-342.74825
G1 F300.0 Y-61.8
G1 F800.0 X-418.0
G3 X-418.00384 I0.0 J-3.2
G2 X-434.8 Y-45.00384 I-0.02012 J16.77604
G3 Y-45.0 I-3.2 J0.00384
G1 Y45.0
G3 Y45.00398 I-3.2 J0.0
G2 X-418.00398 Y61.8 I16.77514 J0.02088
G3 X-418.0 I0.00398 J3.2
G1 X-3.2
G1 Y38.34258
G1 X-9.88337
G3 X-13.08337 Y35.14258 I0.0 J-3.2
G1 Y1.6287
G3 X-13.22667 Y1.91426 I-93.36575 J-46.67507
G3 X-13.22884 Y1.91855 I-2.85787 J-1.43965
G1 X-30.75814 Y36.58652
G3 X-33.61384 Y38.34258 I-2.8557 J-1.44394
G1 X-58.07673
G3 X-61.27673 Y35.14258 I0.0 J-3.2
G1 Y-36.0
G3 X-58.07673 Y-39.2 I3.2 J0.0
G1 X-39.91267
G3 X-36.71267 Y-36.0 I0.0 J3.2
G1 Y-2.71157
G1 X-19.13505 Y-37.44494
G3 X-16.27986 Y-39.2 I2.8552 J1.44494
G1 X-3.2
G1 Y-61.8
G1 X-342.74825
G0 Z3.0
G0 X-374.83011 Y-14.95775
G0 Z1.0
G1 F300.0 Z-2.5
G2 F800.0 X-375.02647 Y-15.05424 I-0.43138 J0.62985
G2 X-376.24487 Y-15.23516 I-1.22503 J4.05683
G1 X-380.86657
G1 Y-13.40547
G1 X-377.02204
G3 X-376.87821 Y-13.40395 I0.0 J6.8
G2 X-374.80218 Y-13.57772 I0.21089 J-9.96823
G3 X-374.7399 Y-13.58928 I1.27205 J6.67996
G2 X-374.73557 Y-13.59007 I-0.3063 J-1.69423
G2 X-374.69102 Y-14.27298 I-4.70481 J-0.64986
G3 X-374.69118 Y-14.32229 I6.79984 J-0.04733
G2 X-374.78309 Y-14.92282 I-2.00418 J-0.00058
G2 X-374.83011 Y-14.95775 I-0.4784 J0.59493
G1 F300.0 X-374.15203 Y-15.9478
G2 F800.0 X-374.67023 Y-16.20017 I-1.10946 J1.61991
G2 X-376.24398 Y-16.43516 I-1.58127 J5.20276
G1 X-382.06657
G1 Y-12.20547
G1 X-377.02204
G3 X-376.90359 Y-12.20422 I0.0 J5.6
G2 X-374.57771 Y-12.3989 I0.23628 J-11.16796
G3 X-374.52641 Y-12.40842 I1.04757 J5.50115
G2 X-373.69561 Y-12.69272 I-0.51979 J-2.87509
G2 X-373.49105 Y-14.28133 I-5.74477 J-1.5472
G3 X-373.49118 Y-14.32194 I5.59986 J-0.03898
G2 X-373.67744 Y-15.39939 I-3.20418 J-0.00093
G2 X-373.94733 Y-15.78666 I-0.99386 J0.40495
G2 X-374.15203 Y-15.9478 I-1.31416 J1.45877
G1 F300.0 X-372.79587 Y-17.92791
G2 F800.0 X-373.96124 Y-18.49308 I-2.46562 J3.60002
G2 X-376.24248 Y-18.83516 I-2.29027 J7.49567
G1 X-384.46657
G1 Y-9.80547
G1 X-377.02204
G3 X-376.95436 Y-9.80475 I0.0 J3.2
G2 X-374.12875 Y-10.04127 I0.28704 J-13.56742
G3 X-374.09944 Y-10.04671 I0.59861 J3.14351
G2 X-372.12468 Y-10.83546 I-0.94676 J-5.2368
G2 X-371.44132 Y-11.8451 I-1.16996 J-1.52796
G3 X-371.42972 Y-11.88555 I3.08175 J0.86188
G2 X-371.09111 Y-14.29804 I-8.01066 J-2.35437
G3 X-371.09118 Y-14.32124 I3.19992 J-0.02227
G2 X-371.43225 Y-16.24808 I-5.60418 J-0.00163
G2 X-372.33521 Y-17.56461 I-3.23905 J1.25364
G2 X-372.79587 Y-17.92791 I-2.92627 J3.23672
G1 F300.0 X-374.83011 Y-14.95775
G1 Z-5.0
G2 F800.0 X-375.02647 Y-15.05424 I-0.43138 J0.62985
G2 X-376.24487 Y-15.23516 I-1.22503 J4.05683
G1 X-380.86657
G1 Y-13.40547
G1 X-377.02204
G3 X-376.87821 Y-13.40395 I0.0 J6.8
G2 X-374.80218 Y-13.57772 I0.21089 J-9.96823
G3 X-374.7399 Y-13.58928 I1.27205 J6.67996
G2 X-374.73557 Y-13.59007 I-0.3063 J-1.69423
G2 X-374.69102 Y-14.27298 I-4.70481 J-0.64986
G3 X-374.69118 Y-14.32229 I6.79984 J-0.04733
G2 X-374.78309 Y-14.92282 I-2.00418 J-0.00058
G2 X-374.83011 Y-14.95775 I-0.4784 J0.59493
G1 F300.0 X-374.15203 Y-15.9478
G2 F800.0 X-374.67023 Y-16.20017 I-1.10946 J1.61991
G2 X-376.24398 Y-16.43516 I-1.58127 J5.20276
G1 X-382.06657
G1 Y-12.20547
G1 X-377.02204
G3 X-376.90359 Y-12.20422 I0.0 J5.6
G2 X-374.57771 Y-12.3989 I0.23628 J-11.16796
G3 X-374.52641 Y-12.40842 I1.04757 J5.50115
G2 X-373.69561 Y-12.69272 I-0.51979 J-2.87509
G2 X-373.49105 Y-14.28133 I-5.74477 J-1.5472
G3 X-373.49118 Y-14.32194 I5.59986 J-0.03898
G2 X-373.67744 Y-15.39939 I-3.20418 J-0.00093
G2 X-373.94733 Y-15.78666 I-0.99386 J0.40495
G2 X-374.15203 Y-15.9478 I-1.31416 J1.45877
G1 F300.0 X-372.79587 Y-17.92791
G2 F800.0 X-373.96124 Y-18.49308 I-2.46562 J3.60002
G2 X-376.24248 Y-18.83516 I-2.29027 J7.49567
G1 X-384.46657
G1 Y-9.80547
G1 X-377.02204
G3 X-376.95436 Y-9.80475 I0.0 J3.2
G2 X-374.12875 Y-10.04127 I0.28704 J-13.56742
G3 X-374.09944 Y-10.04671 I0.59861 J3.14351
G2 X-372.12468 Y-10.83546 I-0.94676 J-5.2368
G2 X-371.44132 Y-11.8451 I-1.16996 J-1.52796
G3 X-371.42972 Y-11.88555 I3.08175 J0.86188
G2 X-371.09111 Y-14.29804 I-8.01066 J-2.35437
G3 X-371.09118 Y-14.32124 I3.19992 J-0.02227
G2 X-371.43225 Y-16.24808 I-5.60418 J-0.00163
G2 X-372.33521 Y-17.56461 I-3.23905 J1.25364
G2 X-372.79587 Y-17.92791 I-2.92627 J3.23672
G0 Z3.0
G0 X-376.62735 Y14.19686
G0 Z1.0
G1 F300.0 Z-2.5
G2 F800.0 X-377.33443 Y14.15892 I-0.64447 J5.40353
G3 X-377.41267 Y14.15938 I-0.07824 J-6.79955
G1 X-380.86657
G1 Y14.37773
G1 X-377.41267
G3 X-377.25716 Y14.37951 I0.0 J6.8
G2 X-376.39988 Y14.3556 I0.19329 J-8.44984
G3 X-376.40013 Y14.27159 I6.79971 J-0.06263
G2 X-376.4004 Y14.22879 I-2.31471 J-0.00728
G2 X-376.62735 Y14.19686 I-0.87143 J5.3716
G1 F300.0 X-376.48523 Y13.00531
G2 F800.0 X-377.34824 Y12.959 I-0.78659 J6.59508
G3 X-377.41267 Y12.95938 I-0.06443 J-5.59963
G1 X-382.06657
G1 Y15.57773
G1 X-377.41267
G3 X-377.2846 Y15.5792 I0.0 J5.6
G2 X-375.34417 Y15.42729 I0.22073 J-9.64952
G3 X-375.27809 Y15.41573 I0.99776 J5.5104
G2 X-375.19944 Y14.38305 I-5.55138 J-0.9421
G3 X-375.20014 Y14.27537 I5.59928 J-0.09008
G2 X-375.33643 Y13.295 I-3.51471 J-0.01105
G2 X-375.69535 Y13.14825 I-0.64267 J1.05959
G3 X-375.72083 Y13.1422 I1.28223 J-5.45123
G2 X-376.48523 Y13.00531 I-1.55099 J6.45819
G1 F300.0 X-376.201 Y10.6222
G2 F800.0 X-377.37585 Y10.55916 I-1.07082 J8.97819
G3 X-377.41267 Y10.55938 I-0.03682 J-3.19979
G1 X-384.46657
G1 Y17.97773
G1 X-377.41267
G3 X-377.33949 Y17.97857 I0.0 J3.2
G2 X-374.91656 Y17.78889 I0.27561 J-12.0489
G3 X-374.86705 Y17.78032 I0.57015 J3.1488
G2 X-373.47278 Y17.23249 I-0.58198 J-3.52938
G2 X-373.06102 Y16.51284 I-0.99645 J-1.04777
G3 X-373.04597 Y16.45105 I3.11652 J0.72615
G2 X-372.79975 Y14.34444 I-7.78349 J-1.97742
G3 X-372.80015 Y14.28291 I3.19959 J-0.05148
G2 X-373.09444 Y12.42177 I-5.9147 J-0.01859
G2 X-373.71934 Y11.50193 I-1.93691 J0.64367
G2 X-375.14582 Y10.81201 I-2.25976 J2.85266
G3 X-375.16038 Y10.80855 I0.7327 J-3.11499
G2 X-376.201 Y10.6222 I-2.11144 J8.79184
G1 F300.0 X-376.62735 Y14.19686
G1 Z-5.0
G2 F800.0 X-377.33443 Y14.15892 I-0.64447 J5.40353
G3 X-377.41267 Y14.15938 I-0.07824 J-6.79955
G1 X-380.86657
G1 Y14.37773
G1 X-377.41267
G3 X-377.25716 Y14.37951 I0.0 J6.8
G2 X-376.39988 Y14.3556 I0.19329 J-8.44984
G3 X-376.40013 Y14.27159 I6.79971 J-0.06263
G2 X-376.4004 Y14.22879 I-2.31471 J-0.00728
G2 X-376.62735 Y14.19686 I-0.87143 J5.3716
G1 F300.0 X-376.48523 Y13.00531
G2 F800.0 X-377.34824 Y12.959 I-0.78659 J6.59508
G3 X-377.41267 Y12.95938 I-0.06443 J-5.59963
G1 X-382.06657
G1 Y15.57773
G1 X-377.41267
G3 X-377.2846 Y15.5792 I0.0 J5.6
G2 X-375.34417 Y15.42729 I0.22073 J-9.64952
G3 X-375.27809 Y15.41573 I0.99776 J5.5104
G2 X-375.19944 Y14.38305 I-5.55138 J-0.9421
G3 X-375.20014 Y14.27537 I5.59928 J-0.09008
G2 X-375.33643 Y13.295 I-3.51471 J-0.01105
G2 X-375.69535 Y13.14825 I-0.64267 J1.05959
G3 X-375.72083 Y13.1422 I1.28223 J-5.45123
G2 X-376.48523 Y13.00531 I-1.55099 J6.45819
G1 F300.0 X-376.201 Y10.6222
G2 F800.0 X-377.37585 Y10.55916 I-1.07082 J8.97819
G3 X-377.41267 Y10.55938 I-0.03682 J-3.19979
G1 X-384.46657
G1 Y17.97773
G1 X-377.41267
G3 X-377.33949 Y17.97857 I0.0 J3.2
G2 X-374.91656 Y17.78889 I0.27561 J-12.0489
G3 X-374.86705 Y17.78032 I0.57015 J3.1488
G2 X-373.47278 Y17.23249 I-0.58198 J-3.52938
G2 X-373.06102 Y16.51284 I-0.99645 J-1.04777
G3 X-373.04597 Y16.45105 I3.11652 J0.72615
G2 X-372.79975 Y14.34444 I-7.78349 J-1.97742
G3 X-372.80015 Y14.28291 I3.19959 J-0.05148
G2 X-373.09444 Y12.42177 I-5.9147 J-0.01859
G2 X-373.71934 Y11.50193 I-1.93691 J0.64367
G2 X-375.14582 Y10.81201 I-2.25976 J2.85266
G3 X-375.16038 Y10.80855 I0.7327 J-3.11499
G2 X-376.201 Y10.6222 I-2.11144 J8.79184
G0 Z3.0
G0 X-307.60979 Y-1.83555
G0 Z1.0
G1 F300.0 Z-2.5
G1 F800.0 X-306.62498 Y1.0932
G1 X-305.67442 Y-1.83555
G1 X-307.60979
G1 F300.0 Y-4.23555
G1 F800.0 X-310.94886
G1 X-306.7526 Y8.24376
G3 X-306.74778 Y8.2582 I-3.03312 J1.01991
G3 X-306.58708 Y8.74631 I-156.34022 J51.7446
G3 X-306.43045 Y8.26816 I105.35644 J34.24612
G1 X-302.37223 Y-4.23555
G1 X-307.60979
G1 F300.0 Y-1.83555
G1 Z-5.0
G1 F800.0 X-306.62498 Y1.0932
G1 X-305.67442 Y-1.83555
G1 X-307.60979
G1 F300.0 Y-4.23555
G1 F800.0 X-310.94886
G1 X-306.7526 Y8.24376
G3 X-306.74778 Y8.2582 I-3.03312 J1.01991
G3 X-306.58708 Y8.74631 I-156.34022 J51.7446
G3 X-306.43045 Y8.26816 I105.35644 J34.24612
G1 X-302.37223 Y-4.23555
G1 X-307.60979
G0 Z3.0
G0 X-129.83142
G0 Z1.0
G1 F300.0 Z-2.5
G1 F800.0 Y-36.0
G3 X-126.63142 Y-39.2 I3.2 J0.0
G1 X-107.10017
G3 X-103.90017 Y-36.0 I0.0 J3.2
G1 Y-11.90508
G1 X-101.77996
G1 X-90.79851 Y-37.27131
G3 X-87.86189 Y-39.2 I2.93663 J1.27131
G1 X-66.27986
G3 X-63.41858 Y-34.56714 I0.0 J3.2
G1 X-77.7667 Y-5.91531
G3 X-74.87332 Y-3.90098 I-12.7125 J21.34544
G3 X-74.86435 Y-3.89371 I-2.01008 J2.4899
G3 X-70.2181 Y1.65985 I-12.01174 J14.76966
G3 X-70.17774 Y1.73517 I-2.80003 J1.54913
G3 X-67.18171 Y15.0432 I-23.80034 J12.34942
G3 X-67.88448 Y21.66368 I-33.32149 J-0.18959
G3 X-70.62127 Y28.37993 I-19.10743 J-3.87031
G3 X-78.84905 Y35.55512 I-16.4621 J-10.57208
G3 X-78.86118 Y35.56071 I-1.34682 J-2.90277
G3 X-87.74265 Y38.02892 I-12.12824 J-26.42824
G3 X-94.09076 Y38.34258 I-5.53297 J-47.5848
G1 X-126.63142
G3 X-129.83142 Y35.14258 I0.0 J-3.2
G1 Y-4.23555
G1 F300.0 Z-5.0
G1 F800.0 Y-36.0
G3 X-126.63142 Y-39.2 I3.2 J0.0
G1 X-107.10017
G3 X-103.90017 Y-36.0 I0.0 J3.2
G1 Y-11.90508
G1 X-101.77996
G1 X-90.79851 Y-37.27131
G3 X-87.86189 Y-39.2 I2.93663 J1.27131
G1 X-66.27986
G3 X-63.41858 Y-34.56714 I0.0 J3.2
G1 X-77.7667 Y-5.91531
G3 X-74.87332 Y-3.90098 I-12.7125 J21.34544
G3 X-74.86435 Y-3.89371 I-2.01008 J2.4899
G3 X-70.2181 Y1.65985 I-12.01174 J14.76966
G3 X-70.17774 Y1.73517 I-2.80003 J1.54913
G3 X-67.18171 Y15.0432 I-23.80034 J12.34942
G3 X-67.88448 Y21.66368 I-33.32149 J-0.18959
G3 X-70.62127 Y28.37993 I-19.10743 J-3.87031
G3 X-78.84905 Y35.55512 I-16.4621 J-10.57208
G3 X-78.86118 Y35.56071 I-1.34682 J-2.90277
G3 X-87.74265 Y38.02892 I-12.12824 J-26.42824
G3 X-94.09076 Y38.34258 I-5.53297 J-47.5848
G1 X-126.63142
G3 X-129.83142 Y35.14258 I0.0 J-3.2
G1 Y-4.23555
G0 Z3.0
G0 X-134.62662 Y-10.25331
G0 Z-1.5
G1 F300.0 Z-5.0
G1 F800.0 Y-14.81088
G3 X-137.30516 Y-13.65409 I-4.45597 J-6.63834
G3 X-134.62662 Y-10.25331 I-4.70711 J6.46269
G0 Z3.0
G0 Y10.42128
G0 Z-1.5
G1 F300.0 Z-5.0
G3 F800.0 X-136.75244 Y13.38079 I-7.38566 J-3.0619
G3 X-134.62662 Y14.86486 I-3.45319 J7.21101
G1 Y10.42128
G0 Z3.0
G0 X-133.41853 Y48.73777
G0 Z-1.5
G1 F300.0 Z-5.0
G3 F800.0 X-136.19888 Y49.8 I-6.78711 J-13.59519
G1 X-130.63817
G3 X-133.41853 Y48.73777 I4.00676 J-14.65742
G0 Z3.0
G0 X-85.22899 Y49.8
G0 Z-1.5
G1 F300.0 Z-5.0
G1 F800.0 X-62.10165
G3 X-70.11752 Y44.41939 I4.02492 J-14.65742
G3 X-73.80051 Y46.43615 I-16.96584 J-26.61155
G3 X-73.85812 Y46.46274 I-6.39536 J-13.78381
G3 X-85.22899 Y49.8 I-17.13131 J-37.33027
G0 Z3.0
G0 X-29.58892
G0 Z-1.5
G1 F300.0 Z-5.0
G1 F800.0 X-15.2
G1 Y49.38243
G3 X-21.74861 Y44.64291 I5.31663 J-14.23985
G3 X-29.58892 Y49.8 I-11.86523 J-9.50033
G0 Z3.0
G0 X-68.47673 Y-7.82208
G0 Z-1.5
G1 F300.0 Z-5.0
G1 F800.0 Y-8.39746
G1 X-68.67041 Y-8.0107
G3 X-68.47673 Y-7.82208 I-18.20568 J18.88665
G1 F300.0 X-66.07673
G1 F800.0 Y-18.54995
G1 X-71.63652 Y-7.44757
G3 X-66.07673 Y-0.75945 I-15.23956 J18.32352
G1 Y-7.82208
G0 Z3.0
G0 X-94.22224 Y-49.8
G0 Z-1.5
G1 F300.0 Z-5.0
G1 F800.0 X-100.73981
G3 X-97.48103 Y-47.76292 I-6.36035 J13.8
G3 X-94.22224 Y-49.8 I9.61914 J11.76292
G0 Z3.0
G0 X-33.54085
G0 Z-1.5
G1 F300.0 Z-5.0
G3 F800.0 X-28.09626 Y-45.56099 I-6.37181 J13.8
G3 X-22.65167 Y-49.8 I11.81641 J9.56099
G1 X-33.54085
G0 Z3.0
G0 X-203.07118 Y-47.4
G0 Z-1.5
G1 F300.0 Z-5.0
G1 F800.0 X-209.27369
G3 X-206.17243 Y-42.10018 I-13.40265 J11.4
G3 X-203.07118 Y-47.4 I16.50391 J6.10018
G1 F300.0 Y-49.8
G1 F800.0 X-216.31599
G3 X-207.48114 Y-36.0 I-6.36035 J13.8
G1 Y-13.7148
G1 X-204.86373 Y-9.19471
G1 Y-36.0
G3 X-196.02888 Y-49.8 I15.1952 J0.0
G1 X-203.07118
G0 Z3.0
G0 X-248.56794
G0 Z-1.5
G1 F300.0 Z-5.0
G1 F800.0 X-262.36091
G3 X-255.46443 Y-43.42633 I-6.36035 J13.8
G3 X-248.56794 Y-49.8 I13.25684 J7.42633
G0 Z3.0
G0 X-257.40279 Y-22.32514
G0 Z-1.5
G1 F300.0 Z-5.0
G1 F800.0 X-264.98535 Y-0.62025
G1 X-257.40279 Y-13.7148
G1 Y-22.32514
G0 Z3.0
G0 X-302.68055 Y-47.4
G0 Z-1.5
G1 F300.0 Z-5.0
G1 F800.0 X-311.3733
G3 X-308.02307 Y-41.37885 I-13.40265 J11.4
G1 X-307.25787 Y-38.99559
G1 X-306.73769
G1 X-306.15723 Y-40.96783
G3 X-302.68055 Y-47.4 I16.87933 J4.96783
G1 F300.0 Y-49.8
G1 F800.0 X-318.41559
G3 X-310.30817 Y-40.64517 I-6.36035 J13.8
G1 X-309.00797 Y-36.59559
G1 X-304.94226
G1 X-303.85488 Y-40.29021
G3 X-295.63826 Y-49.8 I14.57697 J4.29021
G1 X-302.68055
G0 Z3.0
G0 X-350.71638
G0 Z-1.5
G1 F300.0 Z-5.0
G1 F800.0 X-361.56708
G3 X-360.61138 Y-49.58419 I-12.40585 J57.16171
G3 X-354.22559 Y-47.55361 I-8.90704 J39.06728
G3 X-350.71638 Y-49.8 I9.86956 J11.55361
G0 Z3.0
G0 X-338.40015 Y41.8425
G0 Z-1.5
G1 F300.0 Z-5.0
G3 F800.0 X-340.16932 Y43.8 I-27.15951 J-22.76827
G1 X-337.62827
G3 X-338.18251 Y42.43631 I19.34646 J-8.65742
G1 X-338.40015 Y41.8425
G1 F300.0 X-339.31976 Y41.07157
G3 F800.0 X-343.19294 Y45.0 I-26.2399 J-21.99734
G1 X-335.67834
G3 X-337.0558 Y42.02337 I17.39653 J-9.85742
G1 X-338.01309 Y39.41144
G3 X-339.31976 Y41.07157 I-27.54657 J-20.33721
G1 F300.0 X-341.15897 Y39.52973
G3 F800.0 X-349.03845 Y46.29317 I-24.40069 J-20.4555
G3 X-350.94705 Y47.4 I-20.8926 J-33.82781
G1 X-330.90507
G3 X-334.80238 Y41.19748 I12.62326 J-12.25742
G1 X-337.43771 Y34.00707
G3 X-337.81415 Y34.69497 I-28.01186 J-14.882
G3 X-341.15897 Y39.52973 I-27.74551 J-15.62074
G1 F300.0 X-342.99819 Y37.98788
G3 F800.0 X-350.29166 Y44.24633 I-22.56147 J-18.91365
G3 X-361.17717 Y48.78485 I-19.63939 J-31.78096
G3 X-366.55574 Y49.8 I-12.07958 J-49.24486
G1 X-322.28856
G3 X-332.54896 Y40.37158 I4.00676 J-14.65742
G1 X-337.31351 Y27.37166
G3 X-339.9053 Y33.51723 I-28.13605 J-8.24659
G3 X-342.99819 Y37.98788 I-25.65436 J-14.443
G0 Z3.0
G0 X-280.95152 Y47.4
G0 Z-1.5
G1 F300.0 Z-5.0
G1 F800.0 X-280.75858
G3 X-280.85505 Y47.29986 I12.62326 J-12.25742
G3 X-280.95152 Y47.4 I-12.71973 J-12.15729
G1 F300.0 X-282.67334 Y45.72808
G3 F800.0 X-289.56802 Y49.8 I-10.90144 J-10.5855
G1 X-272.14208
G3 X-280.85505 Y43.45538 I4.00676 J-14.65742
G3 X-282.67334 Y45.72808 I-12.71973 J-8.3128
G0 Z3.0
G0 X-233.09996 Y47.4
G0 Z-1.5
G1 F300.0 Z-5.0
G1 F800.0 X-230.9539
G3 X-232.02693 Y46.18806 I12.62326 J-12.25742
G3 X-233.09996 Y47.4 I-13.69629 J-11.04548
G1 F300.0 Y49.8
G1 F800.0 X-222.33739
G3 X-231.89187 Y41.9973 I4.00676 J-14.65742
G1 X-232.02423 Y41.73543
G1 X-232.24759 Y42.16409
G3 X-241.71646 Y49.8 I-13.47563 J-7.02151
G1 X-233.09996
G0 Z3.0
G0 X-419.572 Y46.827
G0 Z-1.5
G1 F300.0 Z-5.0
G3 F800.0 X-420.05083 Y46.26455 I13.15543 J-11.68442
G2 X-419.572 Y46.827 I2.02596 J-1.23969
G1 F300.0 X-417.77759 Y45.23324
G3 F800.0 X-421.61177 Y35.14258 I11.36102 J-10.09066
G1 Y-36.0
G3 X-412.77693 Y-49.8 I15.1952 J0.0
G1 X-418.0
G3 X-418.01823 Y-49.80001 I0.0 J-15.2
G2 X-422.80001 Y-45.01823 I-0.00573 J4.77605
G3 X-422.8 Y-45.0 I-15.19999 J0.01823
G1 Y45.0
G3 X-422.80001 Y45.01892 I-15.2 J0.0
G2 X-418.01892 Y49.80001 I4.77515 J0.00594
G3 X-418.0 Y49.8 I0.01892 J15.19999
G1 X-410.42333
G3 X-417.77759 Y45.23324 I4.00676 J-14.65742
G1 F300.0 X-415.98318 Y43.63947
G3 F800.0 X-419.21177 Y35.14258 I9.56661 J-8.49689
G1 Y-36.0
G3 X-406.41657 Y-48.7952 I12.7952 J0.0
G1 X-377.0936
G3 X-370.51316 Y-48.62393 I0.96365 J89.47805
G3 X-361.15221 Y-47.24591 I-3.45976 J55.98564
G3 X-353.72389 Y-44.71552 I-8.36621 J36.729
G3 X-344.35603 Y-48.7952 I9.36786 J8.71552
G1 X-324.77595
G3 X-312.59328 Y-39.91149 I0.0 J12.7952
G1 X-310.75808 Y-34.19559
G1 X-303.14682
G1 X-301.55252 Y-39.6126
G3 X-289.2779 Y-48.7952 I12.27462 J3.6126
G1 X-268.72126
G3 X-256.64195 Y-31.78012 I0.0 J12.7952
G1 X-275.61148 Y22.51971
G1 X-255.00279 Y-13.07007
G1 Y-36.0
G3 X-242.20759 Y-48.7952 I12.7952 J0.0
G1 X-222.67634
G3 X-209.88114 Y-36.0 I0.0 J12.7952
G1 Y-13.07007
G1 X-202.46373 Y-0.26072
G1 Y-36.0
G3 X-189.66853 Y-48.7952 I12.7952 J0.0
G1 X-139.08259
G3 X-132.857 Y-47.17852 I0.0 J12.7952
G3 X-126.63142 Y-48.7952 I6.22559 J11.17852
G1 X-107.10017
G3 X-97.48103 Y-44.43737 I0.0 J12.7952
G3 X-87.86189 Y-48.7952 I9.61914 J8.43737
G1 X-66.27986
G3 X-62.18578 Y-48.12253 I0.0 J12.7952
G3 X-58.07673 Y-48.8 I4.10905 J12.12253
G1 X-39.91267
G3 X-28.11399 Y-40.96298 I0.0 J12.8
G1 X-27.70065 Y-41.77975
G3 X-16.27986 Y-48.8 I11.42079 J5.77975
G1 X-12.8
G1 Y-52.2
G1 X-418.0
G3 X-418.01535 Y-52.20001 I0.0 J-12.8
G2 X-425.20001 Y-45.01535 I-0.00861 J7.17605
G3 X-425.2 Y-45.0 I-12.79999 J0.01535
G1 Y45.0
G3 X-425.20001 Y45.01593 I-12.8 J0.0
G2 X-418.01593 Y52.20001 I7.17515 J0.00893
G3 X-418.0 Y52.2 I0.01593 J12.79999
G1 X-12.8
G1 Y47.60586
G3 X-21.72625 Y39.99914 I2.91663 J-12.46328
G1 X-22.19103 Y40.91834
G3 X-33.61384 Y47.94258 I-11.42281 J-5.77576
G1 X-58.07673
G3 X-69.44387 Y41.02715 I0.0 J-12.8
G3 X-74.81062 Y44.25908 I-17.6395 J-23.2193
G3 X-74.85913 Y44.28146 I-5.38525 J-11.60673
G3 X-86.65238 Y47.56199 I-16.13029 J-35.14899
G3 X-94.16867 Y47.93778 I-6.62324 J-57.11787
G1 X-126.63142
G3 X-133.41853 Y45.98934 I0.0 J-12.7952
G3 X-140.20564 Y47.93778 I-6.78711 J-10.84676
G1 X-189.66853
G3 X-193.20857 Y47.43832 I0.0 J-12.7952
G3 X-196.74861 Y47.93778 I-3.54004 J-12.29574
G1 X-218.33064
G3 X-229.74994 Y40.91463 I0.0 J-12.7952
G1 X-231.99181 Y36.47937
G1 X-234.37599 Y41.05508
G3 X-245.72321 Y47.93778 I-11.34722 J-5.9125
G1 X-268.13532
G3 X-280.75633 Y37.2467 I0.0 J-12.7952
G1 X-281.49547 Y39.36246
G3 X-293.57478 Y47.93778 I-12.07931 J-4.21988
G1 X-318.28181
G3 X-330.29554 Y39.54569 I0.0 J-12.7952
G1 X-338.34873 Y17.57284
G3 X-339.03713 Y24.32629 I-35.87003 J-0.24453
G3 X-341.99645 Y32.33949 I-26.41243 J-5.20122
G3 X-351.54479 Y42.19943 I-23.5632 J-13.26526
G3 X-361.74421 Y46.45279 I-18.38626 J-29.73407
G3 X-370.50391 Y47.76624 I-11.51254 J-46.91281
G3 X-376.41385 Y47.93778 I-5.0839 J-73.26124
G1 X-406.41657
G3 X-415.98318 Y43.63947 I0.0 J-12.7952
G0 Z3.0
G0 X-410.59994 Y38.85818
G0 Z-1.5
G1 F300.0 Z-5.0
G3 F800.0 X-412.01177 Y35.14258 I4.18337 J-3.7156
G1 Y-36.0
G3 X-406.41657 Y-41.5952 I5.5952 J0.0
G1 X-377.05401
G3 X-370.96112 Y-41.43788 I0.92407 J82.27805
G3 X-362.77416 Y-40.23093 I-3.0118 J48.79959
G3 X-353.94798 Y-36.70792 I-6.74426 J29.71402
G3 X-353.88025 Y-36.66701 I-2.85922 J4.80948
G3 X-349.08806 Y-32.65184 I-11.1721 J18.20152
G1 X-349.6095 Y-34.07457
G3 X-344.35603 Y-41.5952 I5.25347 J-1.92543
G1 X-324.77595
G3 X-319.4486 Y-37.71045 I0.0 J5.5952
G1 X-316.00838 Y-26.99559
G1 X-297.76053
G1 X-294.64546 Y-37.57975
G3 X-289.2779 Y-41.5952 I5.36756 J1.57975
G1 X-268.72126
G3 X-263.43911 Y-34.15469 I0.0 J5.5952
G1 X-288.29263 Y36.98789
G3 X-293.57478 Y40.73778 I-5.28215 J-1.84531
G1 X-318.28181
G3 X-323.53528 Y37.06801 I0.0 J-5.5952
G1 X-343.55338 Y-17.55067
G3 X-343.54599 Y-16.91309 I-29.70429 J0.66355
G3 X-343.54608 Y-16.87609 I-5.5952 J0.00489
G3 X-344.22692 Y-10.46923 I-32.22587 J-0.18498
G3 X-347.03346 Y-3.61167 I-19.40928 J-3.94039
G3 X-351.53205 Y1.30967 I-16.82039 J-10.85876
G3 X-347.55375 Y7.0179 I-13.05153 J13.33657
G3 X-345.95349 Y12.38537 I-19.06675 J8.60687
G3 X-345.54798 Y17.34759 I-31.66993 J5.08576
G3 X-345.54795 Y17.37904 I-5.59516 J0.02155
G3 X-346.10016 Y22.92855 I-28.67082 J-0.05074
G3 X-348.26991 Y28.80626 I-19.3494 J-3.80348
G3 X-355.30353 Y36.05832 I-17.28974 J-9.73203
G3 X-363.445 Y39.45653 I-14.62752 J-23.59296
G3 X-370.95767 Y40.5804 I-9.81175 J-39.91655
G3 X-376.37232 Y40.73778 I-4.63014 J-66.0754
G1 X-406.41657
G3 X-410.59994 Y38.85818 I0.0 J-5.5952
G1 F300.0 X-408.80912 Y37.2676
G3 F800.0 X-409.61657 Y35.14258 I2.39255 J-2.12502
G1 Y-36.0
G3 X-406.41657 Y-39.2 I3.2 J0.0
G1 X-377.04047
G3 X-371.11012 Y-39.04732 I0.91052 J79.88285
G3 X-363.31349 Y-37.89721 I-2.8628 J46.40903
G3 X-355.17196 Y-34.64907 I-6.20494 J27.38031
G3 X-355.13322 Y-34.62567 I-1.63524 J2.75063
G3 X-348.5614 Y-27.8244 I-9.91913 J16.16019
G3 X-346.4932 Y-22.35103 I-15.65846 J9.04422
G3 X-345.94118 Y-16.911 I-26.76447 J5.46391
G3 X-345.94124 Y-16.88984 I-3.2 J0.0028
G3 X-346.57289 Y-10.95239 I-29.8307 J-0.17123
G3 X-349.04356 Y-4.91416 I-17.0633 J-3.45723
G3 X-355.58607 Y1.0959 I-14.81028 J-9.55628
G3 X-354.31791 Y2.03015 I-10.86494 J16.07598
G3 X-354.29467 Y2.04895 I-2.00101 J2.49719
G3 X-349.73827 Y8.0002 I-10.2889 J12.59728
G3 X-348.31911 Y12.76066 I-16.88224 J7.62457
G3 X-347.94316 Y17.35682 I-29.30431 J4.71047
G3 X-347.94314 Y17.3748 I-3.19998 J0.01232
G3 X-348.44982 Y22.46367 I-26.27562 J-0.0465
G3 X-350.35689 Y27.63087 I-16.99975 J-3.3386
G3 X-356.55359 Y34.01515 I-15.20277 J-8.55664
G3 X-364.01065 Y37.12907 I-13.37746 J-21.54979
G3 X-371.10828 Y38.18988 I-9.2461 J-37.58909
G3 X-376.358 Y38.34258 I-4.47953 J-63.68487
G1 X-406.41657
G3 X-408.80912 Y37.2676 I0.0 J-3.2
G0 Z3.0
G0 X-331.32001 Y8.86733
G0 Z-1.5
G1 F300.0 Z-5.0
G1 F800.0 X-347.36059 Y-34.89881
G3 X-344.35603 Y-39.2 I3.00456 J-1.10119
G1 X-324.77595
G3 X-321.72914 Y-36.97824 I0.0 J3.2
G1 X-317.75498 Y-24.60039
G1 X-295.96869
G1 X-292.34771 Y-36.90349
G3 X-289.2779 Y-39.2 I3.06981 J0.90349
G1 X-268.72126
G3 X-265.7003 Y-34.94463 I0.0 J3.2
G1 X-290.55382 Y36.19794
G3 X-293.57478 Y38.34258 I-3.02096 J-1.05537
G1 X-318.28181
G3 X-321.28637 Y36.24377 I0.0 J-3.2
G1 X-331.32001 Y8.86733
G0 Z3.0
G0 X-335.82234 Y10.51747
G0 Z-1.5
G1 F300.0 Z-5.0
G1 F800.0 X-325.7887 Y37.8939
G2 X-318.28181 Y43.13778 I7.50689 J-2.75133
G1 X-293.57478
G2 X-286.02691 Y37.77941 I0.0 J-7.9952
G1 X-261.17339 Y-33.36317
G2 X-268.72126 Y-43.9952 I-7.54787 J-2.63683
G1 X-289.2779
G2 X-296.94781 Y-38.25736 I0.0 J7.9952
G1 X-299.55596 Y-29.39559
G1 X-314.25828
G1 X-317.1635 Y-38.44413
G2 X-324.77595 Y-43.9952 I-7.61245 J2.44413
G1 X-344.35603
G2 X-352.00718 Y-38.32014 I0.0 J7.9952
G2 X-352.62477 Y-38.71243 I-13.04517 J19.85465
G2 X-352.72155 Y-38.7709 I-4.18243 J6.81399
G2 X-362.23362 Y-42.56928 I-16.79687 J28.25399
G2 X-370.81182 Y-43.83323 I-11.7393 J49.93099
G2 X-377.06739 Y-43.9952 I-5.31813 J84.51609
G1 X-406.41657
G2 X-414.41177 Y-36.0 I0.0 J7.9952
G1 Y35.14258
G2 X-406.41657 Y43.13778 I7.9952 J0.0
G1 X-376.3864
G2 X-370.80657 Y42.97569 I0.79859 J-68.63278
G2 X-362.87813 Y41.78864 I-2.45018 J-43.43571
G2 X-354.05075 Y38.10545 I-7.05292 J-29.32327
G2 X-346.17876 Y29.984 I-11.5089 J-19.03122
G2 X-343.74581 Y23.39443 I-19.2708 J-10.85893
G2 X-343.14795 Y17.38329 I-30.47295 J-6.06612
G2 X-343.148 Y17.33835 I-7.99519 J-0.01415
G2 X-343.58314 Y12.00924 I-34.47543 J0.13277
G2 X-345.36488 Y6.03361 I-23.03736 J3.61553
G2 X-348.12447 Y1.50722 I-19.2187 J8.61262
G2 X-345.01932 Y-2.30658 I-15.72937 J-15.97766
G2 X-342.48298 Y-7.65586 I-18.61687 J-12.10305
G1 X-335.82234 Y10.51747
G1 F300.0 X-338.07576 Y11.34336
G1 F800.0 X-328.04212 Y38.7198
G2 X-318.28181 Y45.53778 I9.76031 J-3.57722
G1 X-293.57478
G2 X-283.76119 Y38.57094 I0.0 J-10.3952
G1 X-258.90767 Y-32.57164
G2 X-268.72126 Y-46.3952 I-9.81359 J-3.42836
G1 X-289.2779
G2 X-299.25017 Y-38.93498 I0.0 J10.3952
G1 X-301.35139 Y-31.79559
G1 X-312.50818
G1 X-314.87839 Y-39.17781
G2 X-324.77595 Y-46.3952 I-9.89756 J3.17781
G1 X-344.35603
G2 X-353.04652 Y-41.70399 I0.0 J10.3952
G2 X-361.69296 Y-44.9076 I-16.4719 J31.18709
G2 X-370.66249 Y-46.22858 I-12.27996 J52.26931
G2 X-377.08059 Y-46.3952 I-5.46745 J86.91144
G1 X-406.41657
G2 X-416.81177 Y-36.0 I0.0 J10.3952
G1 Y35.14258
G2 X-406.41657 Y45.53778 I10.3952 J0.0
G1 X-376.40024
G2 X-370.65531 Y45.37097 I0.81243 J-71.03278
G2 X-362.3112 Y44.12072 I-2.60144 J-45.83099
G2 X-352.79783 Y40.15248 I-7.61985 J-31.65536
G2 X-344.08761 Y31.16174 I-12.76183 J-21.07825
G2 X-341.39147 Y23.86034 I-21.36196 J-12.03667
G2 X-340.74795 Y17.38754 I-32.82729 J-6.53204
G2 X-340.74801 Y17.32911 I-10.39518 J-0.0184
G2 X-341.21281 Y11.63304 I-36.87541 J0.14202
G2 X-343.17601 Y5.0493 I-25.40769 J3.99172
G2 X-345.02068 Y1.69717 I-21.40757 J9.59693
G2 X-343.00519 Y-1.00148 I-18.83316 J-16.1676
G2 X-342.74825 Y-1.40537 I-20.63101 J-13.40814
G1 X-338.07576 Y11.34336
G0 Z3.0
G0 Y54.6
G0 Z-1.5
G1 F300.0 Z-5.0
G1 F800.0 X-10.4
G1 Y45.52974
G3 X-20.28337 Y35.14258 I0.51663 J-10.38716
G1 Y31.82675
G1 X-24.33281 Y39.83538
G3 X-33.61384 Y45.54258 I-9.28103 J-4.6928
G1 X-58.07673
G3 X-68.32803 Y36.89498 I0.0 J-10.4
G3 X-75.82073 Y42.082 I-18.75534 J-19.08713
G3 X-75.86014 Y42.10018 I-4.37514 J-9.42965
G3 X-86.92516 Y45.17754 I-15.12928 J-32.96771
G3 X-94.14983 Y45.53778 I-6.35046 J-54.73342
G1 X-126.63142
G3 X-133.41853 Y43.01629 I0.0 J-10.3952
G3 X-140.20564 Y45.53778 I-6.78711 J-7.87371
G1 X-189.66853
G3 X-193.20857 Y44.91644 I0.0 J-10.3952
G3 X-196.74861 Y45.53778 I-3.54004 J-9.77386
G1 X-218.33064
G3 X-227.60802 Y39.83197 I0.0 J-10.3952
G1 X-231.95938 Y31.22332
G1 X-236.50439 Y39.94607
G3 X-245.72321 Y45.53778 I-9.21882 J-4.80349
G1 X-268.13532
G3 X-277.13116 Y29.93343 I0.0 J-10.3952
G1 X-252.60279 Y-12.42535
G1 Y-36.0
G3 X-242.20759 Y-46.3952 I10.3952 J0.0
G1 X-222.67634
G3 X-212.28114 Y-36.0 I0.0 J10.3952
G1 Y-12.42535
G1 X-200.06373 Y8.67327
G1 Y-36.0
G3 X-189.66853 Y-46.3952 I10.3952 J0.0
G1 X-139.08259
G3 X-132.857 Y-44.3248 I0.0 J10.3952
G3 X-126.63142 Y-46.3952 I6.22559 J8.3248
G1 X-107.10017
G3 X-97.4821 Y-39.94371 I0.0 J10.3952
G1 X-97.40151 Y-40.12986
G3 X-87.86189 Y-46.3952 I9.53963 J4.12986
G1 X-66.27986
G3 X-62.18438 Y-45.55444 I0.0 J10.3952
G3 X-58.07673 Y-46.4 I4.10765 J9.55444
G1 X-39.91267
G3 X-29.51267 Y-36.0 I0.0 J10.4
G1 Y-32.88409
G1 X-25.55925 Y-40.69605
G3 X-16.27986 Y-46.4 I9.27939 J4.69605
G1 X-10.4
G1 Y-54.6
G1 X-418.0
G3 X-418.01247 Y-54.60001 I0.0 J-10.4
G2 X-427.60001 Y-45.01247 I-0.01149 J9.57605
G3 X-427.6 Y-45.0 I-10.39999 J0.01247
G1 Y45.0
G3 X-427.60001 Y45.01294 I-10.4 J0.0
G2 X-418.01294 Y54.60001 I9.57515 J0.01192
G3 X-418.0 Y54.6 I0.01294 J10.39999
G1 X-338.07576
G1 F300.0 Y57.0
G1 F800.0 X-8.0
G1 Y43.14258
G1 X-9.88337
G3 X-17.88337 Y35.14258 I0.0 J-8.0
G1 Y21.76145
G1 X-26.47458 Y38.75243
G3 X-33.61384 Y43.14258 I-7.13926 J-3.60985
G1 X-58.07673
G3 X-66.07673 Y35.14258 I0.0 J-8.0
G1 Y30.14616
G3 X-66.59055 Y30.97749 I-20.91518 J-12.3528
G3 X-76.83085 Y39.90492 I-20.49281 J-13.16964
G3 X-76.86116 Y39.91891 I-3.36502 J-7.25257
G3 X-87.19789 Y42.79308 I-14.12826 J-30.78644
G3 X-94.13058 Y43.13778 I-6.07773 J-52.34897
G1 X-126.63142
G3 X-133.41853 Y39.36849 I0.0 J-7.9952
G3 X-140.20564 Y43.13778 I-6.78711 J-4.22592
G1 X-189.66853
G3 X-193.20857 Y42.31135 I0.0 J-7.9952
G3 X-196.74861 Y43.13778 I-3.54004 J-7.16878
G1 X-218.33064
G3 X-225.4661 Y38.7493 I0.0 J-7.9952
G1 X-231.92696 Y25.96727
G1 X-238.6328 Y38.83706
G3 X-245.72321 Y43.13778 I-7.09042 J-3.69448
G1 X-268.13532
G3 X-275.05424 Y31.1361 I0.0 J-7.9952
G1 X-250.20279 Y-11.78062
G1 Y-36.0
G3 X-242.20759 Y-43.9952 I7.9952 J0.0
G1 X-222.67634
G3 X-214.68114 Y-36.0 I0.0 J7.9952
G1 Y-11.78062
G1 X-197.66373 Y17.60727
G1 Y-36.0
G3 X-189.66853 Y-43.9952 I7.9952 J0.0
G1 X-139.08259
G3 X-132.857 Y-41.0165 I0.0 J7.9952
G3 X-126.63142 Y-43.9952 I6.22559 J5.0165
G1 X-107.10017
G3 X-99.10497 Y-36.0 I0.0 J7.9952
G1 Y-30.15401
G1 X-95.19904 Y-39.17637
G3 X-87.86189 Y-43.9952 I7.33716 J3.17637
G1 X-66.27986
G3 X-62.18297 Y-42.86577 I0.0 J7.9952
G3 X-58.07673 Y-44.0 I4.10624 J6.86577
G1 X-39.91267
G3 X-31.91267 Y-36.0 I0.0 J8.0
G1 Y-22.82658
G1 X-23.41785 Y-39.61235
G3 X-16.27986 Y-44.0 I7.13799 J3.61235
G1 X-8.0
G1 Y-57.0
G1 X-418.0
G3 X-418.0096 Y-57.00001 I0.0 J-8.0
G2 X-430.00001 Y-45.0096 I-0.01436 J11.97605
G3 X-430.0 Y-45.0 I-7.99999 J0.0096
G1 Y45.0
G3 X-430.00001 Y45.00996 I-8.0 J0.0
G2 X-418.00996 Y57.00001 I11.97515 J0.0149
G3 X-418.0 Y57.0 I0.00996 J7.99999
G1 X-338.07576
G0 Z3.0
G0 X-273.47581 Y36.81156
G0 Z-1.5
G1 F300.0 Z-5.0
G3 F800.0 X-272.97732 Y32.33876 I5.34048 J-1.66898
G1 X-247.80279 Y-11.13589
G1 Y-36.0
G3 X-242.20759 Y-41.5952 I5.5952 J0.0
G1 X-222.67634
G3 X-217.08114 Y-36.0 I0.0 J5.5952
G1 Y-11.13589
G1 X-195.26373 Y26.54126
G1 Y-36.0
G3 X-189.66853 Y-41.5952 I5.5952 J0.0
G1 X-139.08259
G3 X-133.48739 Y-36.0 I0.0 J5.5952
G1 Y-21.44922
G3 X-139.08259 Y-15.85402 I-5.5952 J0.0
G1 X-164.9327
G1 Y-12.78661
G1 X-142.01228
G3 X-136.41708 Y-7.19141 I0.0 J5.5952
G1 Y7.35938
G3 X-142.01228 Y12.95458 I-5.5952 J0.0
G1 X-164.9327
G1 Y14.9966
G1 X-140.20564
G3 X-134.61044 Y20.5918 I0.0 J5.5952
G1 Y35.14258
G3 X-140.20564 Y40.73778 I-5.5952 J0.0
G1 X-189.66853
G3 X-193.20857 Y39.47552 I0.0 J-5.5952
G3 X-196.74861 Y40.73778 I-3.54004 J-4.33294
G1 X-218.33064
G3 X-223.32417 Y37.66663 I0.0 J-5.5952
G1 X-231.89453 Y20.71122
G1 X-240.7612 Y37.72805
G3 X-245.72321 Y40.73778 I-4.96202 J-2.58547
G1 X-268.13532
G3 X-273.47581 Y36.81156 I0.0 J-5.5952
G1 F300.0 X-271.18965 Y36.0971
G3 F800.0 X-270.90455 Y33.53902 I3.05432 J-0.95452
G1 X-245.40759 Y-10.49245
G1 Y-36.0
G3 X-242.20759 Y-39.2 I3.2 J0.0
G1 X-222.67634
G3 X-219.47634 Y-36.0 I0.0 J3.2
G1 Y-10.49245
G1 X-193.97938 Y33.53902
G3 X-196.74861 Y38.34258 I-2.76923 J1.60355
G1 X-218.33064
G3 X-221.18653 Y36.58613 I0.0 J-3.2
G1 X-230.21974 Y18.71504
G3 X-230.29106 Y18.56429 I2.8559 J-1.44355
G2 X-231.69727 Y15.41246 I-419.51131 J185.27698
G3 X-231.72537 Y15.34824 I2.91741 J-1.3148
G3 X-231.81976 Y15.12563 I238.98869 J-101.46828
G3 X-233.20546 Y18.04348 I-51.24027 J-22.54637
G3 X-233.21738 Y18.06657 I-2.84978 J-1.45558
G1 X-242.88534 Y36.62126
G3 X-245.72321 Y38.34258 I-2.83787 J-1.47868
G1 X-268.13532
G3 X-271.18965 Y36.0971 I0.0 J-3.2
G0 Z3.0
G0 X-192.86831 Y35.18004
G0 Z-1.5
G1 F300.0 Z-5.0
G3 F800.0 X-192.86853 Y35.14258 I3.19978 J-0.03747
G1 Y-36.0
G3 X-189.66853 Y-39.2 I3.2 J0.0
G1 X-139.08259
G3 X-135.88259 Y-36.0 I0.0 J3.2
G1 Y-21.44922
G3 X-139.08259 Y-18.24922 I-3.2 J0.0
G1 X-167.3279
G1 Y-10.39141
G1 X-142.01228
G3 X-138.81228 Y-7.19141 I0.0 J3.2
G1 Y7.35938
G3 X-142.01228 Y10.55938 I-3.2 J0.0
G1 X-167.3279
G1 Y17.3918
G1 X-140.20564
G3 X-137.00564 Y20.5918 I0.0 J3.2
G1 Y35.14258
G3 X-140.20564 Y38.34258 I-3.2 J0.0
G1 X-189.66853
G3 X-192.86831 Y35.18004 I0.0 J-3.2
G0 Z3.0
G0 Y59.4
G0 Z-1.5
G1 F300.0 Z-5.0
G1 F800.0 X-5.6
G1 Y40.74258
G1 X-9.88337
G3 X-15.48337 Y35.14258 I0.0 J-5.6
G1 Y11.69615
G1 X-28.61636 Y37.66947
G3 X-33.61384 Y40.74258 I-4.99748 J-2.52689
G1 X-58.07673
G3 X-63.67673 Y35.14258 I0.0 J-5.6
G1 Y-28.70243
G1 X-74.66916 Y-6.7516
G3 X-73.36877 Y-5.76467 I-15.81004 J22.18173
G3 X-73.35309 Y-5.75196 I-3.51462 J4.35358
G3 X-68.12228 Y0.50033 I-13.523 J16.62791
G3 X-68.0517 Y0.63202 I-4.89586 J2.70865
G3 X-64.78677 Y15.09269 I-25.92638 J13.45257
G3 X-65.53839 Y22.14627 I-35.71643 J-0.23909
G3 X-68.60793 Y29.67741 I-21.45352 J-4.35291
G3 X-77.84096 Y37.72784 I-18.47544 J-11.86956
G3 X-77.86217 Y37.73763 I-2.35491 J-5.0755
G3 X-87.47058 Y40.40862 I-13.12725 J-28.60516
G3 X-94.11089 Y40.73778 I-5.80505 J-49.9645
G1 X-126.63142
G3 X-132.22662 Y35.14258 I0.0 J-5.5952
G1 Y-36.0
G3 X-126.63142 Y-41.5952 I5.5952 J0.0
G1 X-107.10017
G3 X-101.50497 Y-36.0 I0.0 J5.5952
G1 Y-18.56921
G1 X-92.99658 Y-38.22289
G3 X-87.86189 Y-41.5952 I5.13469 J2.22289
G1 X-66.27986
G3 X-62.18157 Y-39.80924 I0.0 J5.5952
G3 X-58.07673 Y-41.6 I4.10484 J3.80924
G1 X-39.91267
G3 X-34.31267 Y-36.0 I0.0 J5.6
G1 Y-12.76908
G1 X-21.27645 Y-38.52864
G3 X-16.27986 Y-41.6 I4.9966 J2.52864
G1 X-5.6
G1 Y-59.4
G1 X-418.0
G3 X-418.00672 I0.0 J-5.6
G2 X-432.4 Y-45.00672 I-0.01724 J14.37604
G3 Y-45.0 I-5.6 J0.00672
G1 Y45.0
G3 Y45.00697 I-5.6 J0.0
G2 X-418.00697 Y59.4 I14.37514 J0.01789
G3 X-418.0 I0.00697 J5.6
G1 X-192.86831
G1 F300.0 Y61.8
G1 F800.0 X-3.2
G1 Y38.34258
G1 X-9.88337
G3 X-13.08337 Y35.14258 I0.0 J-3.2
G1 Y1.6287
G3 X-13.22667 Y1.91426 I-93.36575 J-46.67507
G3 X-13.22884 Y1.91855 I-2.85787 J-1.43965
G1 X-30.75814 Y36.58652
G3 X-33.61384 Y38.34258 I-2.8557 J-1.44394
G1 X-58.07673
G3 X-61.27673 Y35.14258 I0.0 J-3.2
G1 Y-36.0
G3 X-58.07673 Y-39.2 I3.2 J0.0
G1 X-39.91267
G3 X-36.71267 Y-36.0 I0.0 J3.2
G1 Y-2.71157
G1 X-19.13505 Y-37.44494
G3 X-16.27986 Y-39.2 I2.8552 J1.44494
G1 X-3.2
G1 Y-61.8
G1 X-418.0
G3 X-418.00384 I0.0 J-3.2
G2 X-434.8 Y-45.00384 I-0.02012 J16.77604
G3 Y-45.0 I-3.2 J0.00384
G1 Y45.0
G3 Y45.00398 I-3.2 J0.0
G2 X-418.00398 Y61.8 I16.77514 J0.02088
G3 X-418.0 I0.00398 J3.2
G1 X-192.86831
G0 Z3.0
G0 X-100.69079 Y14.37773
G0 Z1.0
G1 F300.0 Z-2.5
G1 F800.0 X-97.40907
G2 X-95.65294 Y14.16042 I-0.06956 J-7.76641
G2 X-95.63036 Y13.98988 I-0.45613 J-0.14716
G3 X-95.63788 Y13.74622 I6.79191 J-0.33167
G2 X-95.77032 Y12.46196 I-7.19624 J0.09316
G2 X-97.40567 Y12.35232 I-1.51885 J10.40345
G3 X-97.48103 Y12.35273 I-0.07535 J-6.79958
G1 X-100.69079
G1 Y14.37773
G1 F300.0 Y15.57773
G1 F800.0 X-97.40389
G2 X-95.23842 Y15.2937 I-0.07474 J-8.96641
G3 X-95.14392 Y15.27019 I1.39908 J5.42241
G2 X-94.83062 Y15.10209 I-0.16273 J-0.6793
G2 X-94.43178 Y13.93135 I-1.27844 J-1.08884
G3 X-94.43798 Y13.73069 I5.59333 J-0.27314
G2 X-94.65739 Y11.92937 I-8.39614 J0.10869
G3 X-94.67737 Y11.84058 I5.4532 J-1.27382
G2 X-94.79485 Y11.59526 I-0.57476 J0.12444
G2 X-95.22551 Y11.33489 I-0.64842 J0.58614
G2 X-97.41897 Y11.15239 I-2.06366 J11.53052
G3 X-97.48103 Y11.15273 I-0.06206 J-5.59966
G1 X-101.89079
G1 Y15.57773
G1 X-100.69079
G1 F300.0 Y17.97773
G1 F800.0 X-97.39448
G2 X-94.63882 Y17.61759 I-0.08415 J-11.36641
G3 X-94.58481 Y17.60415 I0.79947 J3.09852
G2 X-93.08126 Y16.74692 I-0.72183 J-3.01327
G2 X-92.03464 Y13.81428 I-3.0278 J-2.73367
G3 X-92.03818 Y13.69962 I3.19619 J-0.15608
G2 X-92.32031 Y11.38345 I-10.79594 J0.13975
G3 X-92.33173 Y11.33271 I3.11611 J-0.7279
G2 X-92.97395 Y10.03151 I-2.92041 J0.63231
G2 X-94.73885 Y8.984 I-2.46932 J2.1499
G2 X-97.44557 Y8.75254 I-2.55032 J13.8814
G3 X-97.48103 Y8.75273 I-0.03546 J-3.1998
G1 X-104.29079
G1 Y17.97773
G1 X-100.69079
G1 F300.0 Y14.37773
G1 Z-5.0
G1 F800.0 X-97.40907
G2 X-95.65294 Y14.16042 I-0.06956 J-7.76641
G2 X-95.63036 Y13.98988 I-0.45613 J-0.14716
G3 X-95.63788 Y13.74622 I6.79191 J-0.33167
G2 X-95.77032 Y12.46196 I-7.19624 J0.09316
G2 X-97.40567 Y12.35232 I-1.51885 J10.40345
G3 X-97.48103 Y12.35273 I-0.07535 J-6.79958
G1 X-100.69079
G1 Y14.37773
G1 F300.0 Y15.57773
G1 F800.0 X-97.40389
G2 X-95.23842 Y15.2937 I-0.07474 J-8.96641
G3 X-95.14392 Y15.27019 I1.39908 J5.42241
G2 X-94.83062 Y15.10209 I-0.16273 J-0.6793
G2 X-94.43178 Y13.93135 I-1.27844 J-1.08884
G3 X-94.43798 Y13.73069 I5.59333 J-0.27314
G2 X-94.65739 Y11.92937 I-8.39614 J0.10869
G3 X-94.67737 Y11.84058 I5.4532 J-1.27382
G2 X-94.79485 Y11.59526 I-0.57476 J0.12444
G2 X-95.22551 Y11.33489 I-0.64842 J0.58614
G2 X-97.41897 Y11.15239 I-2.06366 J11.53052
G3 X-97.48103 Y11.15273 I-0.06206 J-5.59966
G1 X-101.89079
G1 Y15.57773
G1 X-100.69079
G1 F300.0 Y17.97773
G1 F800.0 X-97.39448
G2 X-94.63882 Y17.61759 I-0.08415 J-11.36641
G3 X-94.58481 Y17.60415 I0.79947 J3.09852
G2 X-93.08126 Y16.74692 I-0.72183 J-3.01327
G2 X-92.03464 Y13.81428 I-3.0278 J-2.73367
G3 X-92.03818 Y13.69962 I3.19619 J-0.15608
G2 X-92.32031 Y11.38345 I-10.79594 J0.13975
G3 X-92.33173 Y11.33271 I3.11611 J-0.7279
G2 X-92.97395 Y10.03151 I-2.92041 J0.63231
G2 X-94.73885 Y8.984 I-2.46932 J2.1499
G2 X-97.44557 Y8.75254 I-2.55032 J13.8814
G3 X-97.48103 Y8.75273 I-0.03546 J-3.1998
G1 X-104.29079
G1 Y17.97773
G1 X-100.69079
( Profil2 )
G0 Z3.0
( T2 : 2.0 )
T2 M6
M3 S1000
G0 X-299.34522 Y-6.43555
G0 Z1.0
G1 F300.0 Z-2.5
G1 F800.0 X-314.00967
G1 X-308.83787 Y8.94495
G3 X-308.83636 Y8.94946 I-0.94785 J0.31872
G3 X-307.16623 Y14.30364 I-154.25164 J51.05333
G3 X-306.53685 Y16.61338 I-54.07082 J15.97438
G3 X-306.21402 Y15.26787 I52.44921 J11.87267
G3 X-306.21153 Y15.25825 I0.96932 J0.2458
G3 X-304.33961 Y8.95256 I104.9809 J27.73418
G1 X-299.34522 Y-6.43555
G1 F300.0 Z-5.0
G1 F800.0 X-314.00967
G1 X-308.83787 Y8.94495
G3 X-308.83636 Y8.94946 I-0.94785 J0.31872
G3 X-307.16623 Y14.30364 I-154.25164 J51.05333
G3 X-306.53685 Y16.61338 I-54.07082 J15.97438
G3 X-306.21402 Y15.26787 I52.44921 J11.87267
G3 X-306.21153 Y15.25825 I0.96932 J0.2458
G3 X-304.33961 Y8.95256 I104.9809 J27.73418
G1 X-299.34522 Y-6.43555
G0 Z3.0
G0 X-368.94063 Y-13.21684
G0 Z1.0
G1 F300.0 Z-2.5
G2 F800.0 X-368.89116 Y-14.31335 I-10.49975 J-1.02308
G3 X-368.89118 Y-14.3206 I0.99998 J-0.00696
G2 X-369.37291 Y-17.0223 I-7.80418 J-0.00226
G2 X-370.85769 Y-19.19462 I-5.29839 J2.02786
G2 X-373.31227 Y-20.59519 I-4.4038 J4.86672
G2 X-376.24129 Y-21.03516 I-2.93923 J9.59778
G1 X-386.66657
G1 Y-7.60547
G1 X-377.02204
G3 X-377.00089 Y-7.60525 I0.0 J1.0
G2 X-373.7172 Y-7.88011 I0.33358 J-15.76693
G3 X-373.70804 Y-7.88181 I0.18707 J0.98235
G2 X-370.85749 Y-9.03606 I-1.33816 J-7.40171
G2 X-369.32262 Y-11.25255 I-2.43715 J-3.32735
G3 X-369.31899 Y-11.2652 I0.96305 J0.26934
G2 X-368.94063 Y-13.21684 I-10.12139 J-2.97473
G1 F300.0 Z-5.0
G2 F800.0 X-368.89116 Y-14.31335 I-10.49975 J-1.02308
G3 X-368.89118 Y-14.3206 I0.99998 J-0.00696
G2 X-369.37291 Y-17.0223 I-7.80418 J-0.00226
G2 X-370.85769 Y-19.19462 I-5.29839 J2.02786
G2 X-373.31227 Y-20.59519 I-4.4038 J4.86672
G2 X-376.24129 Y-21.03516 I-2.93923 J9.59778
G1 X-386.66657
G1 Y-7.60547
G1 X-377.02204
G3 X-377.00089 Y-7.60525 I0.0 J1.0
G2 X-373.7172 Y-7.88011 I0.33358 J-15.76693
G3 X-373.70804 Y-7.88181 I0.18707 J0.98235
G2 X-370.85749 Y-9.03606 I-1.33816 J-7.40171
G2 X-369.32262 Y-11.25255 I-2.43715 J-3.32735
G3 X-369.31899 Y-11.2652 I0.96305 J0.26934
G2 X-368.94063 Y-13.21684 I-10.12139 J-2.97473
G0 Z3.0
G0 X-374.53477 Y8.69678
G0 Z1.0
G1 F300.0 Z-2.5
G2 F800.0 X-374.64209 Y8.67046 I-1.44433 J5.65781
G3 X-374.64664 Y8.66938 I0.22897 J-0.97343
G2 X-377.40116 Y8.35931 I-2.62518 J10.93101
G3 X-377.41267 Y8.35938 I-0.01151 J-0.99993
G1 X-386.66657
G1 Y20.17773
G1 X-377.41267
G3 X-377.3898 Y20.178 I0.0 J1.0
G2 X-374.52458 Y19.95368 I0.32592 J-14.24832
G3 X-374.50911 Y19.95101 I0.17817 J0.984
G2 X-372.11599 Y18.96953 I-0.93992 J-5.70006
G2 X-370.91841 Y17.01207 I-2.35324 J-2.7848
G3 X-370.91371 Y16.99276 I0.97391 J0.22692
G2 X-370.60004 Y14.30906 I-9.91576 J-2.51913
G3 X-370.60016 Y14.28983 I0.99987 J-0.01609
G2 X-371.00516 Y11.73263 I-8.11468 J-0.02551
G2 X-372.33056 Y9.79553 I-4.02619 J1.3328
G2 X-374.53477 Y8.69678 I-3.64855 J4.55906
G1 F300.0 Z-5.0
G2 F800.0 X-374.64209 Y8.67046 I-1.44433 J5.65781
G3 X-374.64664 Y8.66938 I0.22897 J-0.97343
G2 X-377.40116 Y8.35931 I-2.62518 J10.93101
G3 X-377.41267 Y8.35938 I-0.01151 J-0.99993
G1 X-386.66657
G1 Y20.17773
G1 X-377.41267
G3 X-377.3898 Y20.178 I0.0 J1.0
G2 X-374.52458 Y19.95368 I0.32592 J-14.24832
G3 X-374.50911 Y19.95101 I0.17817 J0.984
G2 X-372.11599 Y18.96953 I-0.93992 J-5.70006
G2 X-370.91841 Y17.01207 I-2.35324 J-2.7848
G3 X-370.91371 Y16.99276 I0.97391 J0.22692
G2 X-370.60004 Y14.30906 I-9.91576 J-2.51913
G3 X-370.60016 Y14.28983 I0.99987 J-0.01609
G2 X-371.00516 Y11.73263 I-8.11468 J-0.02551
G2 X-372.33056 Y9.79553 I-4.02619 J1.3328
G2 X-374.53477 Y8.69678 I-3.64855 J4.55906
G0 Z3.0
G0 X-106.49079
G0 Z1.0
G1 F300.0 Z-2.5
G1 F800.0 Y20.17773
G1 X-97.3867
G2 X-94.08918 Y19.74782 I-0.09193 J-13.56641
G3 X-94.0723 Y19.74362 I0.24984 J0.96829
G2 X-91.47368 Y18.24911 I-1.23435 J-5.15274
G2 X-89.83726 Y13.70698 I-4.63539 J-4.23586
G3 X-89.83837 Y13.67115 I0.99881 J-0.04878
G2 X-90.17798 Y10.88302 I-12.99576 J0.16823
G3 X-90.18155 Y10.86716 I0.97379 J-0.22747
G2 X-91.3057 Y8.59727 I-5.07058 J1.09786
G2 X-94.30679 Y6.8266 I-4.13757 J3.58414
G2 X-97.46995 Y6.55267 I-2.98238 J16.03881
G3 X-97.48103 Y6.55273 I-0.01108 J-0.99994
G1 X-106.49079
G1 Y8.69678
G1 F300.0 Z-5.0
G1 F800.0 Y20.17773
G1 X-97.3867
G2 X-94.08918 Y19.74782 I-0.09193 J-13.56641
G3 X-94.0723 Y19.74362 I0.24984 J0.96829
G2 X-91.47368 Y18.24911 I-1.23435 J-5.15274
G2 X-89.83726 Y13.70698 I-4.63539 J-4.23586
G3 X-89.83837 Y13.67115 I0.99881 J-0.04878
G2 X-90.17798 Y10.88302 I-12.99576 J0.16823
G3 X-90.18155 Y10.86716 I0.97379 J-0.22747
G2 X-91.3057 Y8.59727 I-5.07058 J1.09786
G2 X-94.30679 Y6.8266 I-4.13757 J3.58414
G2 X-97.46995 Y6.55267 I-2.98238 J16.03881
G3 X-97.48103 Y6.55273 I-0.01108 J-0.99994
G1 X-106.49079
G1 Y8.69678
G0 Z3.0
G0 X-106.10017 Y-9.70508
G0 Z1.0
G1 F300.0 Z-2.5
G1 F800.0 X-100.33506
G1 X-88.77958 Y-36.39728
G3 X-87.86189 Y-37.0 I0.9177 J0.39728
G1 X-66.27986
G3 X-65.38571 Y-35.55223 I0.0 J1.0
G1 X-80.6909 Y-4.98923
G3 X-76.25525 Y-2.18918 I-9.7883 J20.41936
G3 X-76.25244 Y-2.18691 I-0.62815 J0.77809
G3 X-72.14313 Y2.72488 I-10.62364 J13.06285
G3 X-72.13051 Y2.74842 I-0.87501 J0.4841
G3 X-69.3815 Y14.99746 I-21.84757 J11.33618
G3 X-70.03941 Y21.22057 I-31.1217 J-0.14385
G3 X-72.47053 Y27.18819 I-16.9525 J-3.42721
G3 X-79.77499 Y33.55946 I-14.61283 J-9.38034
G3 X-79.77878 Y33.56121 I-0.42088 J-0.90712
G3 X-87.99249 Y35.84315 I-11.21064 J-24.42874
G3 X-94.07182 Y36.14258 I-5.28313 J-45.39903
G1 X-126.63142
G3 X-127.63142 Y35.14258 I0.0 J-1.0
G1 Y-36.0
G3 X-126.63142 Y-37.0 I1.0 J0.0
G1 X-107.10017
G3 X-106.10017 Y-36.0 I0.0 J1.0
G1 Y-9.70508
G1 F300.0 Z-5.0
G1 F800.0 X-100.33506
G1 X-88.77958 Y-36.39728
G3 X-87.86189 Y-37.0 I0.9177 J0.39728
G1 X-66.27986
G3 X-65.38571 Y-35.55223 I0.0 J1.0
G1 X-80.6909 Y-4.98923
G3 X-76.25525 Y-2.18918 I-9.7883 J20.41936
G3 X-76.25244 Y-2.18691 I-0.62815 J0.77809
G3 X-72.14313 Y2.72488 I-10.62364 J13.06285
G3 X-72.13051 Y2.74842 I-0.87501 J0.4841
G3 X-69.3815 Y14.99746 I-21.84757 J11.33618
G3 X-70.03941 Y21.22057 I-31.1217 J-0.14385
G3 X-72.47053 Y27.18819 I-16.9525 J-3.42721
G3 X-79.77499 Y33.55946 I-14.61283 J-9.38034
G3 X-79.77878 Y33.56121 I-0.42088 J-0.90712
G3 X-87.99249 Y35.84315 I-11.21064 J-24.42874
G3 X-94.07182 Y36.14258 I-5.28313 J-45.39903
G1 X-126.63142
G3 X-127.63142 Y35.14258 I0.0 J-1.0
G1 Y-36.0
G3 X-126.63142 Y-37.0 I1.0 J0.0
G1 X-107.10017
G3 X-106.10017 Y-36.0 I0.0 J1.0
G1 Y-9.70508
G0 Z3.0
G0 X-138.14053 Y-21.11378
G0 Z1.0
G1 F300.0 Z-2.5
G3 F800.0 X-139.08259 Y-20.44922 I-0.94206 J-0.33544
G1 X-169.5279
G1 Y-8.19141
G1 X-142.01228
G3 X-141.01228 Y-7.19141 I0.0 J1.0
G1 Y7.35938
G3 X-142.01228 Y8.35938 I-1.0 J0.0
G1 X-169.5279
G1 Y19.5918
G1 X-140.20564
G3 X-139.20564 Y20.5918 I0.0 J1.0
G1 Y35.14258
G3 X-140.20564 Y36.14258 I-1.0 J0.0
G1 X-189.66853
G3 X-190.66853 Y35.14258 I0.0 J-1.0
G1 Y-36.0
G3 X-189.66853 Y-37.0 I1.0 J0.0
G1 X-139.08259
G3 X-138.08259 Y-36.0 I0.0 J1.0
G1 Y-21.44922
G3 X-138.14053 Y-21.11378 I-1.0 J0.0
G1 F300.0 Z-5.0
G3 F800.0 X-139.08259 Y-20.44922 I-0.94206 J-0.33544
G1 X-169.5279
G1 Y-8.19141
G1 X-142.01228
G3 X-141.01228 Y-7.19141 I0.0 J1.0
G1 Y7.35938
G3 X-142.01228 Y8.35938 I-1.0 J0.0
G1 X-169.5279
G1 Y19.5918
G1 X-140.20564
G3 X-139.20564 Y20.5918 I0.0 J1.0
G1 Y35.14258
G3 X-140.20564 Y36.14258 I-1.0 J0.0
G1 X-189.66853
G3 X-190.66853 Y35.14258 I0.0 J-1.0
G1 Y-36.0
G3 X-189.66853 Y-37.0 I1.0 J0.0
G1 X-139.08259
G3 X-138.08259 Y-36.0 I0.0 J1.0
G1 Y-21.44922
G3 X-138.14053 Y-21.11378 I-1.0 J0.0
G0 Z3.0
G0 X-205.56176 Y17.92731
G0 Z1.0
G1 F300.0 Z-2.5
G1 F800.0 X-195.88322 Y34.64147
G3 X-196.74861 Y36.14258 I-0.86538 J0.50111
G1 X-218.33064
G3 X-219.2231 Y35.59369 I0.0 J-1.0
G1 X-228.25631 Y17.7226
G3 X-228.2786 Y17.67549 I0.89247 J-0.45111
G2 X-229.69155 Y14.50853 I-421.52378 J186.16578
G3 X-229.70033 Y14.48846 I0.91169 J-0.41088
G3 X-231.36696 Y10.46894 I236.96366 J-100.6085
G3 X-231.37249 Y10.45496 I0.92695 J-0.37519
G3 X-231.87666 Y9.0875 I41.57179 J-16.10355
G3 X-232.8761 Y11.91833 I-49.72507 J-15.96383
G3 X-235.16469 Y17.04276 I-50.18393 J-19.33907
G3 X-235.16841 Y17.04998 I-0.89056 J-0.45487
G1 X-244.83638 Y35.60467
G3 X-245.72321 Y36.14258 I-0.88683 J-0.46209
G1 X-268.13532
G3 X-269.00071 Y34.64147 I0.0 J-1.0
G1 X-243.20759 Y-9.90145
G1 Y-36.0
G3 X-242.20759 Y-37.0 I1.0 J0.0
G1 X-222.67634
G3 X-221.67634 Y-36.0 I0.0 J1.0
G1 Y-9.90145
G1 X-205.56176 Y17.92731
G1 F300.0 Z-5.0
G1 F800.0 X-195.88322 Y34.64147
G3 X-196.74861 Y36.14258 I-0.86538 J0.50111
G1 X-218.33064
G3 X-219.2231 Y35.59369 I0.0 J-1.0
G1 X-228.25631 Y17.7226
G3 X-228.2786 Y17.67549 I0.89247 J-0.45111
G2 X-229.69155 Y14.50853 I-421.52378 J186.16578
G3 X-229.70033 Y14.48846 I0.91169 J-0.41088
G3 X-231.36696 Y10.46894 I236.96366 J-100.6085
G3 X-231.37249 Y10.45496 I0.92695 J-0.37519
G3 X-231.87666 Y9.0875 I41.57179 J-16.10355
G3 X-232.8761 Y11.91833 I-49.72507 J-15.96383
G3 X-235.16469 Y17.04276 I-50.18393 J-19.33907
G3 X-235.16841 Y17.04998 I-0.89056 J-0.45487
G1 X-244.83638 Y35.60467
G3 X-245.72321 Y36.14258 I-0.88683 J-0.46209
G1 X-268.13532
G3 X-269.00071 Y34.64147 I0.0 J-1.0
G1 X-243.20759 Y-9.90145
G1 Y-36.0
G3 X-242.20759 Y-37.0 I1.0 J0.0
G1 X-222.67634
G3 X-221.67634 Y-36.0 I0.0 J1.0
G1 Y-9.90145
G1 X-205.56176 Y17.92731
G0 Z3.0
G0 X-277.69764 Y-7.27322
G0 Z1.0
G1 F300.0 Z-2.5
G1 F800.0 X-292.63073 Y35.47238
G3 X-293.57478 Y36.14258 I-0.94405 J-0.3298
G1 X-318.28181
G3 X-319.22073 Y35.4867 I0.0 J-1.0
G1 X-345.29495 Y-35.65588
G3 X-344.35603 Y-37.0 I0.93892 J-0.34412
G1 X-324.77595
G3 X-323.82382 Y-36.3057 I0.0 J1.0
G1 X-319.35924 Y-22.40039
G1 X-294.32287
G1 X-290.23722 Y-36.28234
G3 X-289.2779 Y-37.0 I0.95931 J0.28234
G1 X-268.72126
G3 X-267.77721 Y-35.6702 I0.0 J1.0
G1 X-277.69764 Y-7.27322
G1 F300.0 Z-5.0
G1 F800.0 X-292.63073 Y35.47238
G3 X-293.57478 Y36.14258 I-0.94405 J-0.3298
G1 X-318.28181
G3 X-319.22073 Y35.4867 I0.0 J-1.0
G1 X-345.29495 Y-35.65588
G3 X-344.35603 Y-37.0 I0.93892 J-0.34412
G1 X-324.77595
G3 X-323.82382 Y-36.3057 I0.0 J1.0
G1 X-319.35924 Y-22.40039
G1 X-294.32287
G1 X-290.23722 Y-36.28234
G3 X-289.2779 Y-37.0 I0.95931 J0.28234
G1 X-268.72126
G3 X-267.77721 Y-35.6702 I0.0 J1.0
G1 X-277.69764 Y-7.27322
G0 Z3.0
G0 X-348.27733 Y-14.31709
G0 Z1.0
G1 F300.0 Z-2.5
G3 F800.0 X-348.72772 Y-11.39598 I-27.49461 J-2.74397
G3 X-350.88985 Y-6.1105 I-14.90848 J-3.01364
G3 X-357.25855 Y-0.5257 I-12.96399 J-8.35993
G3 X-357.26155 Y-0.52429 I-0.42755 J-0.90399
G3 X-361.00555 Y0.84999 I-9.77971 J-20.85613
G3 X-360.3117 Y1.10145 I-9.33088 J26.82905
G3 X-360.30751 Y1.10305 I-0.35292 J0.93565
G3 X-355.6936 Y3.74697 I-6.1435 J16.06883
G3 X-355.68634 Y3.75285 I-0.62531 J0.78037
G3 X-351.74476 Y8.90241 I-8.89723 J10.89339
G3 X-350.49196 Y13.10525 I-14.87574 J6.72235
G3 X-350.14314 Y17.36529 I-27.13146 J4.36587
G3 Y17.37091 I-0.99999 J0.00385
G3 X-350.608 Y22.03674 I-24.07563 J-0.04261
G3 X-352.27378 Y26.55127 I-14.84157 J-2.91166
G3 X-357.70153 Y32.13833 I-13.28588 J-7.47704
G3 X-364.5301 Y34.99127 I-12.22952 J-19.67296
G3 X-371.24642 Y35.99415 I-8.72664 J-35.45129
G3 X-376.34461 Y36.14258 I-4.34139 J-61.48915
G1 X-406.41657
G3 X-407.41657 Y35.14258 I0.0 J-1.0
G1 Y-36.0
G3 X-406.41657 Y-37.0 I1.0 J0.0
G1 X-377.02784
G3 X-371.24696 Y-36.85158 I0.89789 J77.68285
G3 X-363.80871 Y-35.75366 I-2.72597 J44.21329
G3 X-356.29619 Y-32.75801 I-5.70971 J25.23675
G3 X-356.28408 Y-32.7507 I-0.51101 J0.85957
G3 X-350.47062 Y-26.73126 I-8.76827 J14.28521
G3 X-348.64932 Y-21.91382 I-13.74924 J7.95109
G3 X-348.14118 Y-16.90908 I-24.60835 J5.0267
G3 X-348.1412 Y-16.90246 I-1.0 J0.00087
G3 X-348.27733 Y-14.31709 I-27.63074 J-0.1586
G1 F300.0 Z-5.0
G3 F800.0 X-348.72772 Y-11.39598 I-27.49461 J-2.74397
G3 X-350.88985 Y-6.1105 I-14.90848 J-3.01364
G3 X-357.25855 Y-0.5257 I-12.96399 J-8.35993
G3 X-357.26155 Y-0.52429 I-0.42755 J-0.90399
G3 X-361.00555 Y0.84999 I-9.77971 J-20.85613
G3 X-360.3117 Y1.10145 I-9.33088 J26.82905
G3 X-360.30751 Y1.10305 I-0.35292 J0.93565
G3 X-355.6936 Y3.74697 I-6.1435 J16.06883
G3 X-355.68634 Y3.75285 I-0.62531 J0.78037
G3 X-351.74476 Y8.90241 I-8.89723 J10.89339
G3 X-350.49196 Y13.10525 I-14.87574 J6.72235
G3 X-350.14314 Y17.36529 I-27.13146 J4.36587
G3 Y17.37091 I-0.99999 J0.00385
G3 X-350.608 Y22.03674 I-24.07563 J-0.04261
G3 X-352.27378 Y26.55127 I-14.84157 J-2.91166
G3 X-357.70153 Y32.13833 I-13.28588 J-7.47704
G3 X-364.5301 Y34.99127 I-12.22952 J-19.67296
G3 X-371.24642 Y35.99415 I-8.72664 J-35.45129
G3 X-376.34461 Y36.14258 I-4.34139 J-61.48915
G1 X-406.41657
G3 X-407.41657 Y35.14258 I0.0 J-1.0
G1 Y-36.0
G3 X-406.41657 Y-37.0 I1.0 J0.0
G1 X-377.02784
G3 X-371.24696 Y-36.85158 I0.89789 J77.68285
G3 X-363.80871 Y-35.75366 I-2.72597 J44.21329
G3 X-356.29619 Y-32.75801 I-5.70971 J25.23675
G3 X-356.28408 Y-32.7507 I-0.51101 J0.85957
G3 X-350.47062 Y-26.73126 I-8.76827 J14.28521
G3 X-348.64932 Y-21.91382 I-13.74924 J7.95109
G3 X-348.14118 Y-16.90908 I-24.60835 J5.0267
G3 X-348.1412 Y-16.90246 I-1.0 J0.00087
G3 X-348.27733 Y-14.31709 I-27.63074 J-0.1586
( Profil2K )
S1000
G0 Z3.0
G0 X-1.0 Y36.14258
G0 Z1.0
G1 F300.0 Z-2.5
G1 F800.0 X-9.88337
G3 X-10.88337 Y35.14258 I0.0 J-1.0
G1 Y0.28068
G3 X-10.68696 Y-8.60553 I178.80973 J-0.49299
G3 X-10.68652 Y-8.61408 I0.9989 J0.04694
G3 X-10.62706 Y-9.55358 I61.17357 J3.39961
G3 X-11.8879 Y-6.32354 I-91.0548 J-33.6819
G3 X-15.19146 Y0.9245 I-94.56122 J-38.72283
G3 X-15.19214 Y0.92584 I-0.89308 J-0.44989
G1 X-32.72143 Y35.59381
G3 X-33.61384 Y36.14258 I-0.89241 J-0.45123
G1 X-58.07673
G3 X-59.07673 Y35.14258 I0.0 J-1.0
G1 Y-36.0
G3 X-58.07673 Y-37.0 I1.0 J0.0
G1 X-39.91267
G3 X-38.91267 Y-36.0 I0.0 J1.0
G1 Y2.96328
G3 X-39.06754 Y8.11191 I-77.63089 J0.24149
G3 X-37.95939 Y5.1791 I63.95967 J22.49126
G3 X-35.4819 Y-0.27138 I61.52112 J24.67574
G1 X-17.1721 Y-36.45154
G3 X-16.27986 Y-37.0 I0.89225 J0.45154
G1 X-1.0
G1 Y-64.0
G1 X-418.0
G3 X-418.0012 I0.0 J-1.0
G2 X-437.0 Y-45.0012 I-0.02276 J18.97604
G3 Y-45.0 I-1.0 J0.0012
G1 Y45.0
G3 Y45.00124 I-1.0 J0.0
G2 X-418.00124 Y64.0 I18.97514 J0.02362
G3 X-418.0 I0.00124 J1.0
G1 X-1.0
G1 Y36.14258
G1 F300.0 Z-5.0
G1 F800.0 X-9.88337
G3 X-10.88337 Y35.14258 I0.0 J-1.0
G1 Y0.28068
G3 X-10.68696 Y-8.60553 I178.80973 J-0.49299
G3 X-10.68652 Y-8.61408 I0.9989 J0.04694
G3 X-10.62706 Y-9.55358 I61.17357 J3.39961
G3 X-11.8879 Y-6.32354 I-91.0548 J-33.6819
G3 X-15.19146 Y0.9245 I-94.56122 J-38.72283
G3 X-15.19214 Y0.92584 I-0.89308 J-0.44989
G1 X-32.72143 Y35.59381
G3 X-33.61384 Y36.14258 I-0.89241 J-0.45123
G1 X-58.07673
G3 X-59.07673 Y35.14258 I0.0 J-1.0
G1 Y-36.0
G3 X-58.07673 Y-37.0 I1.0 J0.0
G1 X-39.91267
G3 X-38.91267 Y-36.0 I0.0 J1.0
G1 Y2.96328
G3 X-39.06754 Y8.11191 I-77.63089 J0.24149
G3 X-37.95939 Y5.1791 I63.95967 J22.49126
G3 X-35.4819 Y-0.27138 I61.52112 J24.67574
G1 X-17.1721 Y-36.45154
G3 X-16.27986 Y-37.0 I0.89225 J0.45154
G1 X-1.0
G1 Y-64.0
G1 X-418.0
G3 X-418.0012 I0.0 J-1.0
G2 X-437.0 Y-45.0012 I-0.02276 J18.97604
G3 Y-45.0 I-1.0 J0.0012
G1 Y45.0
G3 Y45.00124 I-1.0 J0.0
G2 X-418.00124 Y64.0 I18.97514 J0.02362
G3 X-418.0 I0.00124 J1.0
G1 X-1.0
G1 Y36.14258
G0 Z3.0
M5
M30
