; generated by PrusaSlicer 2.6.1+win64 on 2023-11-12 at 13:26:48 UTC

; 

; external perimeters extrusion width = 0.45mm
; perimeters extrusion width = 0.45mm
; infill extrusion width = 0.45mm
; solid infill extrusion width = 0.45mm
; top infill extrusion width = 0.40mm
; first layer extrusion width = 0.42mm

M73 P0 R178
;TYPE:Custom
M862.3 P "MK2S" ; printer model check
M862.1 P0.4 ; nozzle diameter check
M115 U3.2.3 ; tell printer latest fw version
G90 ; use absolute coordinates
M83 ; extruder relative mode
M204 S2000 T1500 ; MK2 firmware only supports the old M204 format
M104 S240 ; set extruder temp
M140 S85 ; set bed temp
M190 S85 ; wait for bed temp
M109 S240 ; wait for extruder temp
G28 W ; home all without mesh bed level
G80 ; mesh bed leveling
G1 Y-3.0 F1000.0 ; go outside print area
G92 E0.0
G1 X60.0 E9.0  F1000.0 ; intro line
G1 X100.0 E12.5 F1000.0 ; intro line
G92 E0.0
G21 ; set units to millimeters
G90 ; use absolute coordinates
M83 ; use relative distances for extrusion
M900 K0.08 ; Filament gcode LA 1.5
M900 K45 ; Filament gcode LA 1.0
M107
;LAYER_CHANGE
;Z:0.2
;HEIGHT:0.2
;BEFORE_LAYER_CHANGE
G92 E0.0
;0.2


G1 E-1.4 F2100
G1 Z.2 F10800
;AFTER_LAYER_CHANGE
;0.2
G1 Z.4
G1 X81.396 Y66.784
G1 Z.2
G1 E1.4 F2100
M204 S1000
;TYPE:Skirt/Brim
;WIDTH:0.42
G1 F1200
G1 X81.834 Y66.346 E.01942
G1 X82.659 Y65.724 E.0324
G1 X83.579 Y65.255 E.03238
G1 X84.567 Y64.952 E.0324
G1 X85.8 Y64.817 E.03889
G1 X164.407 Y64.827 E2.46467
G1 X165.433 Y64.952 E.03241
M73 P0 R177
G1 X166.421 Y65.255 E.0324
G1 X167.341 Y65.724 E.03238
G1 X168.166 Y66.346 E.0324
G1 X168.871 Y67.101 E.03239
G1 X169.433 Y67.968 E.0324
G1 X169.695 Y68.529 E.01941
G1 X169.998 Y69.517 E.0324
G1 X170.123 Y70.543 E.03241
G1 X170.133 Y139.65 E2.1668
G1 X169.998 Y140.883 E.03889
G1 X169.695 Y141.871 E.0324
G1 X169.226 Y142.791 E.03238
G1 X168.871 Y143.299 E.01943
G1 X168.166 Y144.054 E.03239
G1 X167.341 Y144.676 E.0324
G1 X166.421 Y145.145 E.03238
G1 X165.433 Y145.448 E.0324
G1 X164.2 Y145.583 E.03889
G1 X85.8 Y145.583 E2.45818
G1 X84.567 Y145.448 E.03889
G1 X83.579 Y145.145 E.0324
G1 X82.659 Y144.676 E.03238
G1 X81.834 Y144.055 E.03238
G1 X81.396 Y143.616 E.01944
G1 X80.774 Y142.791 E.0324
G1 X80.305 Y141.871 E.03238
G1 X80.002 Y140.883 E.0324
G1 X79.867 Y139.65 E.03889
G1 X79.867 Y70.75 E2.16031
G1 X80.002 Y69.517 E.03889
G1 X80.305 Y68.529 E.0324
G1 X80.774 Y67.609 E.03238
G1 X81.359 Y66.832 E.0305
; printing object Box-unten.stl id:0 copy 0
;WIPE_START
G1 F8640
G1 X81.834 Y66.346 E-.15692
G1 X82.659 Y65.724 E-.23857
G1 X83.579 Y65.255 E-.23844
G1 X84.567 Y64.952 E-.23862
G1 X85.8 Y64.817 E-.2864
G1 X86.844 Y64.817 E-.24105
;WIPE_END
G1 Z.4 F10800
G1 X166.36 Y72.824
G1 Z.2
G1 E1.4 F2100
;TYPE:Perimeter
;WIDTH:0.419999
G1 F1200
G1 X166.341 Y73.246 E.01324
G1 X166.337 Y135.605 E1.95522
G1 X166.337 Y136.67 E.03339
G1 X166.362 Y137.579 E.02851
G1 X166.094 Y137.281 E.01257
G1 X165.441 Y136.875 E.02411
G1 X164.712 Y136.656 E.02387
G1 X163.952 Y136.626 E.02385
G1 X163.208 Y136.786 E.02386
G1 X162.527 Y137.126 E.02387
G1 X161.952 Y137.625 E.02387
G1 X161.52 Y138.25 E.02382
G1 X161.256 Y138.964 E.02387
G1 X161.178 Y139.721 E.02386
G1 X161.292 Y140.474 E.02388
G1 X161.521 Y141.05 E.01944
G1 X161.844 Y141.508 E.01757
G1 X162.116 Y141.808 E.0127
G1 X161.704 Y141.791 E.01293
G1 X89.489 Y141.787 E2.26425
G1 X87.871 Y141.812 E.05074
G1 X88.186 Y141.512 E.01364
G1 X88.407 Y141.17 E.01277
G1 X88.647 Y140.701 E.01652
G1 X88.819 Y139.96 E.02385
G1 X88.802 Y139.199 E.02387
G1 X88.595 Y138.467 E.02385
G1 X88.213 Y137.809 E.02386
G1 X87.68 Y137.267 E.02383
G1 X87.028 Y136.874 E.02387
G1 X86.299 Y136.656 E.02386
G1 X85.539 Y136.626 E.02385
G1 X84.793 Y136.787 E.02393
G1 X84.098 Y137.143 E.02448
G1 X83.641 Y137.553 E.01925
G1 X83.659 Y137.154 E.01252
G1 X83.663 Y74.327 E1.96989
G1 X83.639 Y72.845 E.04647
G1 X84.098 Y73.257 E.01934
G1 X84.268 Y73.363 E.00628
G1 X84.93 Y73.658 E.02272
G1 X85.68 Y73.783 E.02384
G1 X86.438 Y73.717 E.02386
G1 X87.156 Y73.465 E.02386
G1 X87.789 Y73.043 E.02385
G1 X88.297 Y72.476 E.02387
G1 X88.647 Y71.801 E.02384
G1 X88.819 Y71.06 E.02385
G1 X88.802 Y70.299 E.02387
G1 X88.593 Y69.564 E.02396
G1 X88.291 Y69.022 E.01945
G1 X87.871 Y68.588 E.01894
G1 X88.796 Y68.613 E.02901
G1 X161.297 Y68.609 E2.27321
G1 X162.116 Y68.592 E.02568
G1 X161.844 Y68.892 E.0127
G1 X161.521 Y69.35 E.01757
G1 X161.256 Y70.064 E.02388
G1 X161.178 Y70.821 E.02386
G1 X161.291 Y71.573 E.02384
G1 X161.588 Y72.274 E.02387
G1 X162.049 Y72.879 E.02385
G1 X162.647 Y73.35 E.02387
G1 X163.343 Y73.658 E.02386
G1 X164.093 Y73.783 E.02384
G1 X164.852 Y73.717 E.02389
G1 X165.577 Y73.46 E.02412
G1 X166.094 Y73.119 E.01942
G1 X166.32 Y72.869 E.01057
G1 X166.361 Y72.215 F10800
;TYPE:External perimeter
;WIDTH:0.464815
G1 F1200
G1 X165.933 Y72.761 E.02434
;WIDTH:0.419999
G1 X165.37 Y73.145 E.02137
G1 X164.735 Y73.359 E.02101
G1 X164.069 Y73.407 E.02094
G1 X163.413 Y73.287 E.02091
G1 X162.807 Y73.009 E.0209
G1 X162.29 Y72.588 E.0209
G1 X161.893 Y72.052 E.02091
G1 X161.642 Y71.434 E.02091
G1 X161.553 Y70.774 E.02088
G1 X161.63 Y70.111 E.02093
G1 X161.871 Y69.489 E.02092
G1 X162.143 Y69.121 E.01435
G1 X162.321 Y68.908 E.0087
;WIDTH:0.441729
G1 X162.833 Y68.568 E.02038
G1 X163.287 Y68.457 E.0155
;WIDTH:0.436757
G1 X163.661 Y68.392 E.01243
;WIDTH:0.399365
G1 X164.035 Y68.327 E.01125
;WIDTH:0.361972
G1 X164.639 Y68.361 E.01605
;WIDTH:0.358183
G1 X165.228 Y68.548 E.0162
;WIDTH:0.352893
G1 X165.744 Y68.869 E.01566
G1 X166.162 Y69.31 E.01566
;WIDTH:0.34927
G1 X166.459 Y69.84 E.01548
;WIDTH:0.356601
G1 X166.596 Y70.34 E.01352
;WIDTH:0.358072
G1 X166.624 Y71.035 E.01823
;WIDTH:0.397347
G1 X166.562 Y71.345 E.00932
;WIDTH:0.436621
G1 X166.5 Y71.655 E.01035
;WIDTH:0.464815
G1 X166.376 Y72.157 E.01814
;WIPE_START
G1 F8640
G1 X165.933 Y72.761 E-.17296
G1 X165.37 Y73.145 E-.15736
G1 X164.735 Y73.359 E-.15473
G1 X164.069 Y73.407 E-.15418
G1 X163.413 Y73.287 E-.15399
G1 X162.807 Y73.009 E-.15395
G1 X162.29 Y72.588 E-.15395
G1 X161.893 Y72.052 E-.15401
G1 X161.657 Y71.471 E-.14487
;WIPE_END
G1 Z.4 F10800
G1 X166.444 Y69.18
G1 Z.2
G1 E1.4 F2100
;WIDTH:0.351567
G1 F1200
G1 X166.764 Y69.772 E.01727
;WIDTH:0.356601
G1 X166.9 Y70.26 E.01321
;WIDTH:0.36071
G1 X166.943 Y70.765 E.01339
;WIDTH:0.362961
G1 X166.935 Y71.122 E.0095
;WIDTH:0.399791
G1 X166.911 Y71.425 E.00902
;WIDTH:0.436621
G1 X166.887 Y71.727 E.00992
;WIDTH:0.459106
G1 X166.787 Y72.219 E.01737
G1 X166.742 Y72.736 E.01796
;WIDTH:0.419999
G1 X166.718 Y73.246 E.01601
G1 X166.714 Y136.531 E1.98425
G1 X166.743 Y137.678 E.03597
;WIDTH:0.453913
G1 X166.791 Y138.192 E.01764
G1 X166.891 Y138.688 E.01729
;WIDTH:0.429487
G1 X166.917 Y139.162 E.01526
;WIDTH:0.395099
G1 X166.943 Y139.635 E.01387
;WIDTH:0.36071
G1 X166.9 Y140.14 E.01339
;WIDTH:0.3566
G1 X166.732 Y140.699 E.01522
;WIDTH:0.349269
G1 X166.399 Y141.283 E.01712
;WIDTH:0.353333
G1 X165.997 Y141.723 E.01538
;WIDTH:0.362054
G1 X165.583 Y142.017 E.01347
;WIDTH:0.363856
G1 X165.15 Y142.22 E.01276
G1 X164.663 Y142.354 E.01348
;WIDTH:0.361048
G1 X164.007 Y142.389 E.01738
;WIDTH:0.395771
G1 X163.615 Y142.362 E.01153
;WIDTH:0.430493
G1 X163.223 Y142.335 E.01266
;WIDTH:0.448607
G1 X162.729 Y142.237 E.01699
G1 X162.212 Y142.19 E.01751
;WIDTH:0.419999
G1 X161.704 Y142.168 E.01594
G1 X89.151 Y142.164 E2.27484
G1 X88.316 Y142.177 E.02618
G1 X87.555 Y142.224 E.02391
;WIDTH:0.422834
G1 X86.77 Y142.333 E.02504
G1 X86.292 Y142.362 E.01513
;WIDTH:0.393842
G1 X85.815 Y142.391 E.01394
;WIDTH:0.366502
G1 X85.338 Y142.35 E.01288
G1 X84.849 Y142.221 E.01361
;WIDTH:0.36132
G1 X84.295 Y141.936 E.01649
;WIDTH:0.355251
G1 X83.781 Y141.499 E.01752
;WIDTH:0.359563
G1 X83.432 Y141.033 E.01533
;WIDTH:0.366125
G1 X83.231 Y140.6 E.01283
G1 X83.1 Y140.112 E.01358
;WIDTH:0.365092
G1 X83.057 Y139.606 E.0136
;WIDTH:0.389738
G1 X83.09 Y138.998 E.01756
;WIDTH:0.433172
G1 X83.259 Y137.664 E.04363
;WIDTH:0.419999
G1 X83.282 Y137.154 E.01601
G1 X83.286 Y74.327 E1.96989
G1 X83.254 Y72.696 E.05115
;WIDTH:0.437051
G1 X83.124 Y71.682 E.0335
;WIDTH:0.41182
G1 X83.087 Y71.361 E.00991
;WIDTH:0.386589
G1 X83.057 Y70.794 E.01623
;WIDTH:0.365092
G1 X83.1 Y70.288 E.0136
;WIDTH:0.366125
G1 X83.221 Y69.826 E.01283
G1 X83.432 Y69.367 E.01358
;WIDTH:0.359562
G1 X83.836 Y68.845 E.01738
;WIDTH:0.356223
G1 X84.36 Y68.42 E.01758
;WIDTH:0.36132
G1 X84.849 Y68.179 E.01443
;WIDTH:0.366502
G1 X85.311 Y68.055 E.01287
G1 X85.806 Y68.009 E.01338
;WIDTH:0.375372
G1 X86.308 Y68.029 E.01389
;WIDTH:0.402427
G1 X86.63 Y68.062 E.00968
;WIDTH:0.429482
G1 X87.791 Y68.209 E.03762
;WIDTH:0.419999
G1 X88.796 Y68.236 E.03152
G1 X161.712 Y68.232 E2.28623
G1 X162.227 Y68.209 E.01616
;WIDTH:0.44639
G1 X162.741 Y68.16 E.01732
G1 X163.239 Y68.068 E.01699
;WIDTH:0.436757
G1 X163.662 Y68.038 E.01389
;WIDTH:0.39813
G1 X164.086 Y68.009 E.01255
;WIDTH:0.359503
G1 X164.663 Y68.046 E.01522
;WIDTH:0.363856
G1 X165.124 Y68.17 E.01274
G1 X165.583 Y68.383 E.0135
;WIDTH:0.362054
G1 X165.997 Y68.677 E.01347
;WIDTH:0.353333
G1 X166.404 Y69.135 E.01581
;WIPE_START
G1 F8640
G1 X166.764 Y69.772 E-.16895
G1 X166.9 Y70.26 E-.11697
G1 X166.943 Y70.765 E-.11703
G1 X166.935 Y71.122 E-.08245
G1 X166.911 Y71.425 E-.07018
G1 X166.887 Y71.727 E-.06995
G1 X166.787 Y72.219 E-.11593
G1 X166.742 Y72.736 E-.11983
G1 X166.718 Y73.246 E-.11789
G1 X166.718 Y75.068 E-.42082
;WIPE_END
G1 Z.4 F10800
G1 X162.89 Y141.859
G1 Z.2
G1 E1.4 F2100
;WIDTH:0.445572
G1 F1200
G1 X162.448 Y141.573 E.01763
;WIDTH:0.419999
G1 X162.272 Y141.447 E.00679
G1 X161.897 Y140.956 E.01937
G1 X161.642 Y140.335 E.02105
G1 X161.553 Y139.674 E.02091
G1 X161.63 Y139.011 E.02093
G1 X161.87 Y138.389 E.0209
G1 X162.257 Y137.846 E.02091
G1 X162.767 Y137.417 E.0209
G1 X163.368 Y137.127 E.02092
G1 X164.022 Y136.996 E.02091
G1 X164.688 Y137.032 E.02091
G1 X165.324 Y137.234 E.02092
G1 X165.887 Y137.596 E.02099
G1 X166.151 Y137.922 E.01315
;WIDTH:0.442805
G1 X166.347 Y138.175 E.01064
G1 X166.51 Y138.739 E.01952
;WIDTH:0.429487
G1 X166.566 Y139.033 E.00962
;WIDTH:0.39577
G1 X166.621 Y139.327 E.00878
;WIDTH:0.362052
G1 X166.619 Y139.935 E.01613
;WIDTH:0.354235
G1 X166.483 Y140.497 E.01497
G1 X166.185 Y141.059 E.01647
;WIDTH:0.353333
G1 X165.774 Y141.507 E.01569
G1 X165.263 Y141.836 E.01569
;WIDTH:0.354365
G1 X164.687 Y142.029 E.01573
;WIDTH:0.363816
G1 X164.179 Y142.071 E.0136
;WIDTH:0.40776
G1 X163.479 Y141.99 E.02138
;WIDTH:0.445572
G1 X162.948 Y141.872 E.01821
;WIPE_START
G1 F8640
G1 X162.448 Y141.573 E-.13452
G1 X162.272 Y141.447 E-.04998
G1 X161.897 Y140.956 E-.14266
G1 X161.642 Y140.335 E-.15501
G1 X161.553 Y139.674 E-.154
G1 X161.63 Y139.011 E-.15412
G1 X161.87 Y138.389 E-.15394
G1 X162.257 Y137.846 E-.15397
G1 X162.767 Y137.417 E-.15388
G1 X163.344 Y137.139 E-.14792
;WIPE_END
G1 Z.4 F10800
G1 X87.418 Y141.702
G1 Z.2
G1 E1.4 F2100
;WIDTH:0.432302
G1 F1200
G1 X86.854 Y141.929 E.01968
G1 X86.559 Y141.986 E.00973
;WIDTH:0.403837
G1 X86.264 Y142.043 E.00902
;WIDTH:0.375372
G1 X85.667 Y142.073 E.01652
;WIDTH:0.354863
G1 X85.069 Y141.964 E.01577
;WIDTH:0.36211
G1 X84.577 Y141.742 E.01433
G1 X84.045 Y141.325 E.01794
;WIDTH:0.359563
G1 X83.69 Y140.849 E.01563
G1 X83.455 Y140.272 E.0164
;WIDTH:0.357207
G1 X83.372 Y139.67 E.01588
;WIDTH:0.386588
G1 X83.429 Y139.065 E.01737
;WIDTH:0.41182
G1 X83.489 Y138.769 E.00926
;WIDTH:0.437051
G1 X83.548 Y138.474 E.00986
G1 X83.847 Y137.892 E.02144
;WIDTH:0.419999
G1 X84.35 Y137.424 E.02154
G1 X84.955 Y137.128 E.02112
G1 X85.609 Y136.996 E.02092
G1 X86.275 Y137.032 E.02091
G1 X86.911 Y137.233 E.02091
G1 X87.478 Y137.585 E.02093
G1 X87.938 Y138.067 E.02089
G1 X88.265 Y138.649 E.02093
G1 X88.436 Y139.293 E.02089
G1 X88.442 Y139.96 E.02091
G1 X88.282 Y140.607 E.0209
G1 X87.962 Y141.194 E.02096
G1 X87.465 Y141.665 E.02147
G1 X87.431 Y142.102 F10800
;WIPE_START
G1 F8640
G1 X86.854 Y141.929 E-.15369
G1 X86.559 Y141.986 E-.06938
G1 X86.264 Y142.043 E-.06938
G1 X85.667 Y142.073 E-.13802
G1 X85.069 Y141.964 E-.14035
G1 X84.577 Y141.742 E-.12463
G1 X84.045 Y141.325 E-.15608
G1 X83.69 Y140.849 E-.13711
G1 X83.455 Y140.272 E-.14386
G1 X83.372 Y139.67 E-.14032
G1 X83.424 Y139.122 E-.12718
;WIPE_END
G1 Z.4 F10800
G1 X83.89 Y72.563
G1 Z.2
G1 E1.4 F2100
;WIDTH:0.436133
G1 F1200
G1 X83.564 Y71.968 E.02218
G1 X83.431 Y71.355 E.02051
;WIDTH:0.38974
G1 X83.372 Y70.77 E.01696
;WIDTH:0.358963
G1 X83.445 Y70.166 E.01599
;WIDTH:0.354269
G1 X83.455 Y70.128 E.00102
;WIDTH:0.355539
G1 X83.664 Y69.598 E.01481
;WIDTH:0.363493
G1 X83.953 Y69.185 E.01344
;WIDTH:0.366597
G1 X84.246 Y68.9 E.011
G1 X84.577 Y68.658 E.01104
;WIDTH:0.36211
G1 X85.031 Y68.448 E.01328
;WIDTH:0.356803
G1 X85.628 Y68.33 E.01588
;WIDTH:0.371998
G1 X86.236 Y68.354 E.01665
;WIDTH:0.399977
G1 X86.532 Y68.409 E.00894
;WIDTH:0.427956
G1 X86.828 Y68.465 E.00964
G1 X87.418 Y68.698 E.02031
;WIDTH:0.419999
G1 X87.927 Y69.161 E.02157
G1 X88.264 Y69.748 E.02122
G1 X88.436 Y70.393 E.02093
G1 X88.442 Y71.06 E.02091
G1 X88.282 Y71.707 E.0209
G1 X87.966 Y72.295 E.02093
G1 X87.514 Y72.785 E.0209
G1 X86.954 Y73.147 E.02091
G1 X86.322 Y73.359 E.0209
G1 X85.657 Y73.407 E.0209
G1 X85 Y73.287 E.02094
G1 X84.429 Y73.023 E.01972
G1 X83.935 Y72.602 E.02035
G1 X83.494 Y72.619 F10800
;WIPE_START
G1 F8640
G1 X83.564 Y71.968 E-.16961
G1 X83.431 Y71.355 E-.14484
G1 X83.372 Y70.77 E-.13576
G1 X83.445 Y70.166 E-.14048
G1 X83.455 Y70.128 E-.00907
G1 X83.664 Y69.598 E-.13155
G1 X83.953 Y69.185 E-.11639
G1 X84.246 Y68.9 E-.09438
G1 X84.577 Y68.658 E-.09468
G1 X85.031 Y68.448 E-.1155
G1 X85.628 Y68.33 E-.14052
G1 X86.092 Y68.348 E-.10722
;WIPE_END
G1 Z.4 F10800
G1 X165.808 Y73.443
G1 Z.2
G1 E1.4 F2100
;TYPE:Solid infill
;WIDTH:0.420064
G1 F1200
G1 X166.058 Y73.693 E.01109
G1 X166.058 Y74.226 E.01671
G1 X165.595 Y73.763 E.02053
G1 X165.2 Y73.901 E.01312
G1 X166.059 Y74.759 E.03807
G1 X166.059 Y75.293 E.01675
G1 X164.782 Y74.017 E.05661
G1 X164.286 Y74.054 E.0156
G1 X166.059 Y75.826 E.07861
G1 X166.059 Y76.36 E.01675
G1 X163.497 Y73.798 E.11362
;WIPE_START
G1 F8640
G1 X166.059 Y76.36 E-.83661
G1 X166.059 Y75.826 E-.1233
G1 X164.711 Y74.479 E-.44009
;WIPE_END
G1 Z.4 F10800
G1 X161.51 Y69.144
G1 Z.2
G1 E1.4 F2100
G1 F1200
G1 X161.258 Y68.892 E.01118
G1 X160.724 Y68.892 E.01675
G1 X161.207 Y69.374 E.0214
G1 X161.055 Y69.756 E.01289
G1 X160.191 Y68.892 E.03832
G1 X159.658 Y68.892 E.01671
G1 X160.955 Y70.19 E.05754
G1 X160.897 Y70.665 E.01501
G1 X159.124 Y68.892 E.07863
G1 X158.591 Y68.892 E.01671
G1 X161.143 Y71.444 E.11318
;WIPE_START
G1 F8640
G1 X158.591 Y68.892 E-.83334
G1 X159.124 Y68.892 E-.12307
G1 X160.482 Y70.25 E-.44359
;WIPE_END
G1 Z.4 F10800
G1 X157.888 Y68.722
G1 Z.2
G1 E1.4 F2100
G1 F1200
G1 X161.15 Y71.985 E.14469
G1 X161.259 Y72.259 E.00925
G1 X161.356 Y72.436 E.00633
G1 X161.81 Y73.044 E.0238
G1 X162.351 Y73.496 E.02211
G1 X162.521 Y73.604 E.00632
G1 X162.982 Y73.816 E.01591
G1 X166.059 Y76.893 E.13646
G1 X166.059 Y77.427 E.01675
G1 X157.524 Y68.892 E.37852
G1 X156.991 Y68.892 E.01671
G1 X166.059 Y77.96 E.40216
G1 X166.059 Y78.493 E.01671
G1 X156.457 Y68.892 E.42582
G1 X155.924 Y68.892 E.01671
M73 P0 R176
G1 X166.059 Y79.027 E.44948
G1 X166.059 Y79.56 E.01671
G1 X155.391 Y68.892 E.47312
G1 X154.857 Y68.892 E.01675
G1 X166.059 Y80.094 E.4968
G1 X166.059 Y80.627 E.01671
G1 X154.324 Y68.892 E.52044
G1 X153.79 Y68.892 E.01675
G1 X166.059 Y81.161 E.54412
G1 X166.059 Y81.694 E.01671
G1 X153.257 Y68.892 E.56776
G1 X152.724 Y68.892 E.01671
G1 X166.059 Y82.227 E.5914
G1 X166.059 Y82.761 E.01675
G1 X152.19 Y68.892 E.61508
G1 X151.657 Y68.892 E.01671
G1 X166.06 Y83.294 E.63874
G1 X166.06 Y83.828 E.01675
G1 X151.124 Y68.892 E.6624
G1 X150.59 Y68.892 E.01675
G1 X166.06 Y84.361 E.68606
G1 X166.06 Y84.895 E.01675
G1 X150.057 Y68.892 E.70972
G1 X149.523 Y68.892 E.01675
G1 X166.06 Y85.428 E.73338
G1 X166.06 Y85.961 E.01671
G1 X148.99 Y68.892 E.75702
G1 X148.457 Y68.892 E.01671
G1 X166.06 Y86.495 E.78068
G1 X166.06 Y87.028 E.01671
G1 X147.923 Y68.892 E.80434
G1 X147.39 Y68.891 E.01671
G1 X166.06 Y87.562 E.82802
G1 X166.06 Y88.095 E.01671
G1 X146.856 Y68.891 E.85168
G1 X146.323 Y68.891 E.01671
G1 X166.06 Y88.629 E.87534
G1 X166.06 Y89.162 E.01671
G1 X145.79 Y68.891 E.89898
G1 X145.256 Y68.891 E.01675
