; generated by PrusaSlicer 2.6.1+win64 on 2023-11-12 at 09:25:14 UTC

; 

; external perimeters extrusion width = 0.45mm
; perimeters extrusion width = 0.45mm
; infill extrusion width = 0.45mm
; solid infill extrusion width = 0.45mm
; top infill extrusion width = 0.40mm
; first layer extrusion width = 0.42mm

M73 P0 R131
;TYPE:Custom
M862.3 P "MK2S" ; printer model check
M862.1 P0.4 ; nozzle diameter check
M115 U3.2.3 ; tell printer latest fw version
G90 ; use absolute coordinates
M83 ; extruder relative mode
M204 S2000 T1500 ; MK2 firmware only supports the old M204 format
M104 S240 ; set extruder temp
M140 S85 ; set bed temp
M190 S85 ; wait for bed temp
M109 S240 ; wait for extruder temp
G28 W ; home all without mesh bed level
G80 ; mesh bed leveling
G1 Y-3.0 F1000.0 ; go outside print area
G92 E0.0
G1 X60.0 E9.0  F1000.0 ; intro line
G1 X100.0 E12.5 F1000.0 ; intro line
G92 E0.0
G21 ; set units to millimeters
G90 ; use absolute coordinates
M83 ; use relative distances for extrusion
M900 K0.08 ; Filament gcode LA 1.5
M900 K45 ; Filament gcode LA 1.0
M107
;LAYER_CHANGE
;Z:0.2
;HEIGHT:0.2
;BEFORE_LAYER_CHANGE
G92 E0.0
;0.2


G1 E-1.4 F2100
G1 Z.2 F10800
;AFTER_LAYER_CHANGE
;0.2
G1 Z.4
G1 X81.397 Y66.585
G1 Z.2
G1 E1.4 F2100
M204 S1000
;TYPE:Skirt/Brim
;WIDTH:0.42
G1 F1200
G1 X81.835 Y66.147 E.01942
G1 X82.66 Y65.526 E.03238
G1 X83.58 Y65.057 E.03238
G1 X84.568 Y64.755 E.03239
G1 X85.779 Y64.624 E.03819
G1 X163.088 Y64.614 E2.42397
G1 X164.358 Y64.63 E.03982
G1 X165.432 Y64.754 E.0339
G1 X166.031 Y64.914 E.01944
G1 X166.982 Y65.318 E.0324
G1 X167.848 Y65.88 E.03237
G1 X168.604 Y66.585 E.03241
G1 X169.432 Y67.768 E.04527
G1 X169.694 Y68.33 E.01944
G1 X169.996 Y69.318 E.03239
G1 X170.12 Y70.391 E.03387
G1 X170.126 Y139.472 E2.16599
G1 X169.996 Y140.682 E.03816
G1 X169.694 Y141.67 E.03239
G1 X169.225 Y142.591 E.03241
G1 X168.87 Y143.098 E.01941
G1 X168.165 Y143.854 E.03241
G1 X167.341 Y144.475 E.03235
G1 X166.42 Y144.944 E.03241
G1 X165.432 Y145.246 E.03239
G1 X164.222 Y145.376 E.03816
G1 X86.922 Y145.386 E2.42369
G1 X85.061 Y145.329 E.05838
G1 X83.969 Y145.086 E.03508
G1 X82.659 Y144.475 E.04532
G1 X82.152 Y144.12 E.01941
G1 X81.396 Y143.415 E.03241
G1 X80.775 Y142.591 E.03235
G1 X80.306 Y141.67 E.03241
G1 X80.004 Y140.682 E.03239
G1 X79.874 Y139.472 E.03816
G1 X79.864 Y71.643 E2.12673
G1 X79.919 Y69.832 E.05681
G1 X80.165 Y68.72 E.03571
G1 X80.776 Y67.41 E.04532
G1 X81.361 Y66.633 E.0305
; printing object Box-oben.stl id:0 copy 0
;WIPE_START
G1 F8640
G1 X81.835 Y66.147 E-.15675
G1 X82.66 Y65.526 E-.23843
G1 X83.58 Y65.057 E-.23844
G1 X84.568 Y64.755 E-.23855
G1 X85.779 Y64.624 E-.28125
G1 X86.847 Y64.624 E-.24658
;WIPE_END
G1 Z.4 F10800
G1 X83.595 Y73.28
G1 Z.2
G1 E1.4 F2100
;TYPE:Perimeter
;WIDTH:0.419999
G1 F1200
G1 X83.733 Y73.428 E.00634
G1 X84.129 Y73.676 E.01465
G1 X84.645 Y73.937 E.01813
G1 X85.399 Y74.11 E.02426
G1 X86.252 Y74.107 E.02675
G1 X87 Y73.931 E.02409
G1 X87.732 Y73.577 E.02549
G1 X88.364 Y73.067 E.02546
G1 X88.867 Y72.424 E.0256
G1 X89.225 Y71.644 E.02691
G1 X89.384 Y70.847 E.02548
G1 X89.359 Y70.034 E.0255
G1 X89.145 Y69.237 E.02587
G1 X88.84 Y68.669 E.02021
G1 X88.568 Y68.363 E.01284
G1 X89.739 Y68.413 E.03675
G1 X160.041 Y68.408 E2.20427
G1 X160.838 Y68.406 E.02499
G1 X161.474 Y68.344 E.02004
G1 X161.321 Y68.49 E.00663
G1 X161.073 Y68.891 E.01478
G1 X160.82 Y69.4 E.01782
G1 X160.652 Y70.151 E.02413
G1 X160.657 Y71.001 E.02665
G1 X160.834 Y71.744 E.02395
G1 X161.188 Y72.472 E.02538
G1 X161.696 Y73.101 E.02535
G1 X162.336 Y73.603 E.0255
G1 X163.111 Y73.96 E.02675
G1 X163.904 Y74.12 E.02536
G1 X164.714 Y74.098 E.02541
G1 X165.508 Y73.889 E.02574
G1 X166.075 Y73.589 E.02011
G1 X166.389 Y73.313 E.01311
G1 X166.342 Y74.013 E.022
G1 X166.337 Y134.631 E1.90063
G1 X166.339 Y135.573 E.02954
G1 X166.387 Y136.691 E.03509
G1 X166.115 Y136.447 E.01146
G1 X165.345 Y136.055 E.02709
G1 X164.591 Y135.888 E.02421
G1 X163.74 Y135.896 E.02668
G1 X162.995 Y136.075 E.02402
G1 X162.264 Y136.435 E.02555
G1 X161.604 Y136.979 E.02682
G1 X161.115 Y137.626 E.02543
G1 X160.784 Y138.366 E.02542
G1 X160.628 Y139.158 E.02531
G1 X160.649 Y139.928 E.02415
G1 X160.87 Y140.769 E.02726
G1 X161.175 Y141.335 E.02016
G1 X161.445 Y141.637 E.0127
G1 X161.281 Y141.618 E.00518
G1 X159.777 Y141.587 E.04717
G1 X90.619 Y141.587 E2.1684
G1 X89.677 Y141.588 E.02954
G1 X88.559 Y141.636 E.03509
G1 X88.803 Y141.365 E.01143
G1 X89.195 Y140.595 E.02709
G1 X89.362 Y139.845 E.02409
G1 X89.36 Y139.035 E.0254
G1 X89.175 Y138.245 E.02544
G1 X88.815 Y137.514 E.02555
G1 X88.271 Y136.854 E.02682
G1 X87.627 Y136.367 E.02532
G1 X86.93 Y136.049 E.02402
G1 X86.133 Y135.882 E.02553
G1 X85.277 Y135.905 E.02685
G1 X84.481 Y136.12 E.02585
G1 X83.915 Y136.425 E.02016
G1 X83.613 Y136.695 E.0127
G1 X83.663 Y135.525 E.03672
G1 X83.658 Y74.708 E1.90687
G1 X83.656 Y73.901 E.0253
G1 X83.601 Y73.34 E.01767
;WIPE_START
G1 F8640
G1 X83.733 Y73.428 E-.03663
G1 X84.129 Y73.676 E-.10789
G1 X84.645 Y73.937 E-.13352
G1 X85.399 Y74.11 E-.17862
G1 X86.252 Y74.107 E-.19696
G1 X87 Y73.931 E-.17743
G1 X87.732 Y73.577 E-.18775
G1 X88.364 Y73.067 E-.18752
G1 X88.867 Y72.424 E-.1885
G1 X88.876 Y72.404 E-.00518
;WIPE_END
G1 Z.4 F10800
G1 X83.079 Y71.749
G1 Z.2
G1 E1.4 F2100
;TYPE:External perimeter
G1 F1200
G1 X83.204 Y72.048 E.01016
G1 X83.418 Y72.344 E.01145
G1 X83.683 Y72.773 E.01581
G1 X84.009 Y73.171 E.01613
G1 X84.736 Y73.571 E.02602
G1 X85.405 Y73.733 E.02158
G1 X86.173 Y73.738 E.02408
G1 X86.842 Y73.589 E.02149
G1 X87.5 Y73.279 E.02281
G1 X88.072 Y72.829 E.02282
G1 X88.528 Y72.26 E.02286
G1 X88.857 Y71.564 E.02414
G1 X89.007 Y70.852 E.02281
G1 X88.993 Y70.124 E.02283
G1 X88.812 Y69.415 E.02294
G1 X88.508 Y68.847 E.0202
G1 X88.418 Y68.746 E.00424
G1 X88.027 Y68.402 E.01633
G1 X87.635 Y68.173 E.01423
G1 X87.374 Y67.978 E.01022
G1 X87.099 Y67.834 E.00973
G1 X87.753 Y67.84 E.02051
G1 X88.502 Y67.973 E.02385
G1 X89.024 Y68.014 E.01642
G1 X89.739 Y68.036 E.02243
G1 X160.802 Y68.03 E2.22813
G1 X161.799 Y67.934 E.0314
G1 X162.295 Y67.836 E.01585
G1 X162.926 Y67.834 E.01978
G1 X162.68 Y67.96 E.00867
G1 X162.399 Y68.169 E.01098
G1 X161.97 Y68.438 E.01588
G1 X161.581 Y68.763 E.01589
G1 X161.186 Y69.489 E.02591
G1 X161.029 Y70.155 E.02145
G1 X161.026 Y70.92 E.02399
G1 X161.176 Y71.586 E.02141
G1 X161.485 Y72.24 E.02268
G1 X161.934 Y72.809 E.02273
G1 X162.5 Y73.263 E.02275
G1 X163.192 Y73.592 E.02402
G1 X163.901 Y73.743 E.02273
G1 X164.625 Y73.732 E.0227
G1 X165.288 Y73.572 E.02138
G1 X165.666 Y73.379 E.01331
G1 X165.999 Y73.168 E.01236
G1 X166.34 Y72.788 E.01601
G1 X166.575 Y72.391 E.01446
G1 X166.771 Y72.133 E.01016
G1 X166.916 Y71.862 E.00964
G1 X166.914 Y72.492 E.01975
G1 X166.815 Y72.984 E.01574
G1 X166.744 Y73.502 E.01639
G1 X166.719 Y74.013 E.01604
G1 X166.714 Y134.631 E1.90063
G1 X166.716 Y135.562 E.02919
M73 P0 R130
G1 X166.746 Y136.536 E.03055
G1 X166.818 Y137.048 E.01621
G1 X166.914 Y137.546 E.0159
G1 X166.916 Y138.164 E.01938
G1 X166.79 Y137.917 E.00869
G1 X166.58 Y137.636 E.011
G1 X166.233 Y137.082 E.0205
G1 X165.937 Y136.779 E.01328
G1 X165.256 Y136.421 E.02412
G1 X164.588 Y136.265 E.02151
G1 X163.822 Y136.264 E.02402
G1 X163.155 Y136.416 E.02145
G1 X162.499 Y136.73 E.0228
G1 X161.901 Y137.212 E.02408
G1 X161.456 Y137.786 E.02277
G1 X161.153 Y138.445 E.02274
G1 X161.005 Y139.155 E.02274
G1 X161.016 Y139.84 E.02148
G1 X161.202 Y140.59 E.02423
G1 X161.507 Y141.156 E.02016
G1 X161.798 Y141.457 E.01313
G1 X162.639 Y142.022 E.03177
G1 X162.914 Y142.166 E.00973
G1 X162.299 Y142.164 E.01928
G1 X161.794 Y142.067 E.01612
G1 X161.273 Y141.995 E.01649
G1 X159.777 Y141.964 E.04692
G1 X89.72 Y141.964 E2.19658
G1 X88.967 Y141.988 E.02362
G1 X88.373 Y142.043 E.0187
G1 X87.718 Y142.164 E.02088
G1 X87.086 Y142.166 E.01982
G1 X87.333 Y142.04 E.00869
G1 X87.614 Y141.83 E.011
G1 X88.168 Y141.483 E.0205
G1 X88.471 Y141.187 E.01328
G1 X88.829 Y140.506 E.02412
G1 X88.985 Y139.84 E.02145
G1 X88.991 Y139.114 E.02276
G1 X88.834 Y138.405 E.02277
G1 X88.52 Y137.749 E.0228
G1 X88.038 Y137.151 E.02408
G1 X87.465 Y136.707 E.02273
G1 X86.846 Y136.417 E.02143
G1 X86.136 Y136.259 E.02281
G1 X85.368 Y136.271 E.02408
G1 X84.66 Y136.452 E.02291
G1 X84.094 Y136.757 E.02016
G1 X83.793 Y137.048 E.01313
G1 X83.228 Y137.889 E.03177
G1 X83.084 Y138.164 E.00973
G1 X83.093 Y137.497 E.02092
G1 X83.222 Y136.765 E.0233
G1 X83.264 Y136.244 E.01639
G1 X83.286 Y135.525 E.02255
G1 X83.28 Y73.938 E1.93101
G1 X83.183 Y72.942 E.03138
G1 X83.086 Y72.446 E.01585
G1 X83.08 Y71.809 E.01997
G1 X83.173 Y72.06 F10800
;WIPE_START
G1 F8640
G1 X83.204 Y72.048 E-.06217
G1 X83.418 Y72.344 E-.08434
G1 X83.683 Y72.773 E-.11643
G1 X84.009 Y73.171 E-.11879
G1 X84.736 Y73.571 E-.1916
G1 X85.405 Y73.733 E-.15894
G1 X86.173 Y73.738 E-.17734
G1 X86.842 Y73.589 E-.15826
G1 X87.5 Y73.279 E-.16795
G1 X88.059 Y72.839 E-.16418
;WIPE_END
G1 Z.4 F10800
G1 X167.013 Y138.693
G1 Z.2
G1 E1.4 F2100
;WIDTH:0.38292
G1 F1200
G1 X167.057 Y139.338 E.01828
;WIPE_START
G1 F8640
G1 X167.013 Y138.693 E-.14928
;WIPE_END
G1 E-1.25072 F2100
G1 Z.4 F10800
G1 X164.088 Y142.307
G1 Z.2
G1 E1.4 F2100
G1 F1200
G1 X163.443 Y142.263 E.01828
;WIPE_START
G1 F8640
G1 X164.088 Y142.307 E-.14928
;WIPE_END
G1 E-1.25072 F2100
G1 Z.4 F10800
G1 X163.446 Y67.738
G1 Z.2
G1 E1.4 F2100
G1 F1200
G1 X164.091 Y67.693 E.01828
;WIPE_START
G1 F8640
G1 X163.446 Y67.738 E-.14929
;WIPE_END
G1 E-1.25071 F2100
G1 Z.4 F10800
G1 X86.023 Y67.693
G1 Z.2
G1 E1.4 F2100
G1 F1200
G1 X86.19 Y67.699 E.00472
;WIPE_START
G1 F8640
G1 X86.023 Y67.693 E-.03859
;WIPE_END
G1 E-1.36141 F2100
G1 Z.4 F10800
G1 X82.989 Y71.299
G1 Z.2
G1 E1.4 F2100
G1 F1200
G1 X82.943 Y70.571 E.02062
;WIPE_START
G1 F8640
G1 X82.989 Y71.299 E-.16843
;WIPE_END
G1 E-1.23157 F2100
G1 Z.4 F10800
G1 X82.943 Y139.338
G1 Z.2
G1 E1.4 F2100
G1 F1200
G1 X82.987 Y138.693 E.01828
;WIPE_START
G1 F8640
G1 X82.943 Y139.338 E-.14928
;WIPE_END
G1 E-1.25072 F2100
G1 Z.4 F10800
G1 X86.561 Y142.263
G1 Z.2
G1 E1.4 F2100
G1 F1200
G1 X85.912 Y142.307 E.01839
;WIPE_START
G1 F8640
G1 X86.561 Y142.263 E-.1502
;WIPE_END
G1 E-1.2498 F2100
G1 Z.4 F10800
G1 X165.79 Y73.868
G1 Z.2
G1 E1.4 F2100
;TYPE:Solid infill
;WIDTH:0.420955
G1 F1200
G1 X166.07 Y74.147 E.01242
G1 X166.069 Y74.682 E.01682
G1 X165.558 Y74.171 E.02272
G1 X165.14 Y74.287 E.01364
G1 X166.069 Y75.216 E.0413
G1 X166.069 Y75.751 E.01682
G1 X164.702 Y74.384 E.06077
G1 X164.185 Y74.401 E.01626
G1 X166.069 Y76.285 E.08375
G1 X166.069 Y76.82 E.01682
G1 X163.382 Y74.133 E.11945
;WIPE_START
G1 F8640
G1 X166.069 Y76.82 E-.87743
G1 X166.069 Y76.285 E-.12353
G1 X164.847 Y75.063 E-.39904
;WIPE_END
G1 Z.4 F10800
G1 X160.899 Y68.976
G1 Z.2
G1 E1.4 F2100
G1 F1200
G1 X160.614 Y68.691 E.01267
G1 X160.079 Y68.691 E.01682
G1 X160.593 Y69.205 E.02285
G1 X160.475 Y69.621 E.01359
G1 X159.544 Y68.691 E.04136
G1 X159.01 Y68.691 E.01679
G1 X160.379 Y70.061 E.06088
G1 X160.364 Y70.581 E.01635
G1 X158.475 Y68.691 E.084
G1 X157.941 Y68.691 E.01679
G1 X160.623 Y71.374 E.11925
;WIPE_START
G1 F8640
G1 X157.941 Y68.691 E-.87596
G1 X158.475 Y68.691 E-.1233
G1 X159.702 Y69.919 E-.40074
;WIPE_END
G1 Z.4 F10800
G1 X157.236 Y68.522
G1 Z.2
G1 E1.4 F2100
G1 F1200
G1 X160.577 Y71.862 E.1485
G1 X160.867 Y72.487 E.02166
G1 X160.962 Y72.642 E.00571
G1 X161.453 Y73.263 E.02488
G1 X162.051 Y73.755 E.02434
G1 X162.208 Y73.855 E.00585
G1 X162.899 Y74.184 E.02406
G1 X166.069 Y77.354 E.14092
G1 X166.069 Y77.889 E.01682
G1 X156.871 Y68.691 E.40889
G1 X156.337 Y68.691 E.01679
G1 X166.068 Y78.423 E.4326
G1 X166.068 Y78.958 E.01682
G1 X155.802 Y68.691 E.45639
G1 X155.268 Y68.691 E.01679
G1 X166.068 Y79.492 E.48013
G1 X166.068 Y80.027 E.01682
G1 X154.733 Y68.692 E.50389
G1 X154.198 Y68.692 E.01682
G1 X166.068 Y80.561 E.52765
G1 X166.068 Y81.096 E.01682
G1 X153.664 Y68.692 E.55141
G1 X153.129 Y68.692 E.01682
G1 X166.068 Y81.63 E.57517
G1 X166.068 Y82.164 E.01679
G1 X152.595 Y68.692 E.59891
G1 X152.06 Y68.692 E.01682
G1 X166.067 Y82.699 E.62267
G1 X166.067 Y83.233 E.01679
G1 X151.526 Y68.692 E.64641
G1 X150.991 Y68.692 E.01682
G1 X166.067 Y83.768 E.67019
G1 X166.067 Y84.302 E.01679
G1 X150.456 Y68.692 E.69395
G1 X149.922 Y68.692 E.01679
G1 X166.067 Y84.837 E.71771
G1 X166.067 Y85.371 E.01679
G1 X149.387 Y68.692 E.74147
G1 X148.853 Y68.692 E.01679
M73 P1 R130
G1 X166.067 Y85.906 E.76523
G1 X166.066 Y86.44 E.01679
G1 X148.318 Y68.692 E.78897
G1 X147.783 Y68.692 E.01682
G1 X166.066 Y86.975 E.81275
G1 X166.066 Y87.509 E.01679
G1 X147.249 Y68.692 E.83649
G1 X146.714 Y68.692 E.01682
G1 X166.066 Y88.044 E.86027
G1 X166.066 Y88.578 E.01679
G1 X146.18 Y68.692 E.88401
G1 X145.645 Y68.692 E.01682
G1 X166.066 Y89.113 E.9078
G1 X166.066 Y89.647 E.01679
G1 X145.11 Y68.692 E.93156
G1 X144.576 Y68.692 E.01679
G1 X166.066 Y90.182 E.95532
G1 X166.065 Y90.716 E.01679
G1 X144.041 Y68.692 E.97906
G1 X143.507 Y68.692 E.01679
G1 X166.065 Y91.251 E1.00282
G1 X166.065 Y91.785 E.01679
G1 X142.972 Y68.692 E1.02658
G1 X142.438 Y68.692 E.01679
G1 X166.065 Y92.32 E1.05034
G1 X166.065 Y92.854 E.01679
G1 X141.903 Y68.692 E1.0741
G1 X141.368 Y68.692 E.01682
G1 X166.065 Y93.389 E1.09788
G1 X166.065 Y93.923 E.01679
G1 X140.834 Y68.692 E1.12162
G1 X140.299 Y68.692 E.01682
G1 X166.065 Y94.458 E1.1454
G1 X166.064 Y94.992 E.01679
G1 X139.765 Y68.692 E1.16912
G1 X139.23 Y68.692 E.01682
M73 P1 R129
G1 X166.064 Y95.527 E1.1929
G1 X166.064 Y96.061 E.01679
G1 X138.695 Y68.693 E1.21664
G1 X138.161 Y68.693 E.01679
G1 X166.064 Y96.596 E1.2404
G1 X166.064 Y97.13 E.01679
G1 X137.626 Y68.693 E1.26416
G1 X137.092 Y68.693 E.01679
G1 X166.064 Y97.665 E1.28792
G1 X166.064 Y98.199 E.01679
G1 X136.557 Y68.693 E1.31168
G1 X136.022 Y68.693 E.01682
G1 X166.063 Y98.734 E1.33544
G1 X166.063 Y99.268 E.01679
G1 X135.488 Y68.693 E1.35918
G1 X134.953 Y68.693 E.01682
G1 X166.063 Y99.803 E1.38296
G1 X166.063 Y100.337 E.01679
G1 X134.419 Y68.693 E1.4067
G1 X133.884 Y68.693 E.01682
G1 X166.063 Y100.872 E1.43049
G1 X166.063 Y101.406 E.01679
G1 X133.35 Y68.693 E1.45422
G1 X132.815 Y68.693 E.01682
G1 X166.063 Y101.941 E1.47801
G1 X166.063 Y102.475 E.01679
G1 X132.28 Y68.693 E1.50177
G1 X131.746 Y68.693 E.01679
G1 X166.062 Y103.01 E1.52551
G1 X166.062 Y103.544 E.01679
G1 X131.211 Y68.693 E1.54927
G1 X130.677 Y68.693 E.01679
G1 X166.062 Y104.079 E1.57303
G1 X166.062 Y104.613 E.01679
G1 X130.142 Y68.693 E1.59679
G1 X129.607 Y68.693 E.01682
G1 X166.062 Y105.148 E1.62057
G1 X166.062 Y105.682 E.01679
G1 X129.073 Y68.693 E1.64431
G1 X128.538 Y68.693 E.01682
G1 X166.062 Y106.217 E1.66809
G1 X166.061 Y106.751 E.01679
G1 X128.004 Y68.693 E1.69181
G1 X127.469 Y68.693 E.01682
M73 P2 R129
G1 X166.061 Y107.285 E1.71557
G1 X166.061 Y107.82 E.01682
G1 X126.934 Y68.693 E1.73935
G1 X126.4 Y68.693 E.01679
G1 X166.061 Y108.354 E1.76309
G1 X166.061 Y108.889 E.01682
G1 X125.865 Y68.693 E1.78687
G1 X125.331 Y68.693 E.01679
M73 P2 R128
G1 X166.061 Y109.423 E1.81061
G1 X166.061 Y109.958 E.01682
G1 X124.796 Y68.693 E1.8344
G1 X124.262 Y68.693 E.01679
G1 X166.061 Y110.492 E1.85813
G1 X166.06 Y111.027 E.01682
G1 X123.727 Y68.693 E1.88189
G1 X123.192 Y68.694 E.01682
G1 X166.06 Y111.561 E1.90563
G1 X166.06 Y112.096 E.01682
G1 X122.658 Y68.694 E1.92939
G1 X122.123 Y68.694 E.01682
G1 X166.06 Y112.63 E1.95315
G1 X166.06 Y113.165 E.01682
G1 X121.589 Y68.694 E1.97691
G1 X121.054 Y68.694 E.01682
G1 X166.06 Y113.699 E2.00068
G1 X166.06 Y114.234 E.01682
G1 X120.519 Y68.694 E2.02446
G1 X119.985 Y68.694 E.01679
G1 X166.059 Y114.768 E2.04817
G1 X166.059 Y115.303 E.01682
G1 X119.45 Y68.694 E2.07196
G1 X118.916 Y68.694 E.01679
G1 X166.059 Y115.837 E2.0957
G1 X166.059 Y116.372 E.01682
G1 X118.381 Y68.694 E2.11948
G1 X117.846 Y68.694 E.01682
G1 X166.059 Y116.906 E2.14324
G1 X166.059 Y117.441 E.01682
G1 X117.312 Y68.694 E2.167
G1 X116.777 Y68.694 E.01682
G1 X166.059 Y117.975 E2.19076
G1 X166.059 Y118.51 E.01682
G1 X116.243 Y68.694 E2.21452
G1 X115.708 Y68.694 E.01682
M73 P2 R127
G1 X166.058 Y119.044 E2.23826
G1 X166.058 Y119.579 E.01682
G1 X115.174 Y68.694 E2.26202
G1 X114.639 Y68.694 E.01682
G1 X166.058 Y120.113 E2.28578
G1 X166.058 Y120.648 E.01682
M73 P3 R127
G1 X114.104 Y68.694 E2.30956
G1 X113.57 Y68.694 E.01679
G1 X166.058 Y121.182 E2.3333
