( Made using CamBam - http://www.cambam.co.uk )
( Motorsportfreunde_Thomas_und_Marinela 4/20/2024 12:01:58 PM )
( Post processor: Default )
( T3 : 3.0 )
( T15 : 1.5 )
G21 G90 G64 G40
G0 Z3.0
( T3 : 3.0 )
T3 M6
( Tasche3mm )
G17
M3 S1000
G0 X33.6272 Y4.0957
G0 Z1.0
G1 F300.0 Z-1.5
G3 F800.0 X33.6298 Y4.0905 I3.2723 J1.6804
G3 X33.6848 Y3.993 I1.3333 J0.6873
G3 X33.7784 Y3.8498 I2.5709 J1.5783
G3 X34.4561 Y3.1501 I2.397 J1.6437
G3 X35.7004 Y2.6061 I1.7996 J2.4212
G3 X36.612 Y2.4602 I1.2566 J4.9306
G3 X37.4984 Y2.4774 I0.3728 J3.6409
G3 X37.5029 Y2.4779 I-0.5414 J5.0593
G3 X37.574 Y2.4873 I-0.1609 J1.4913
G3 X39.1882 Y3.1788 I-0.5502 J3.5142
G3 X39.796 Y3.7576 I-2.2034 J2.9223
G2 X40.4107 Y4.3102 I2.6107 J-2.2855
G2 X42.5036 Y5.3504 I15.1033 J-27.765
G3 X47.6616 Y7.8312 I-34.5396 J78.4139
G3 X47.7883 Y7.9056 I-0.695 J1.3293
G3 X48.7531 Y8.3814 I-245.6988 J499.3977
G3 X50.1132 Y8.8902 I-3.3586 J11.0511
G3 X51.0342 Y9.3515 I-4.7265 J10.5865
G2 X52.1154 Y9.8619 I19.0287 J-38.9101
G3 X52.2536 Y9.8738 I-0.0599 J1.4988
G3 X52.3591 Y9.8895 I-0.1676 J1.4906
G3 X53.5326 Y10.2228 I-0.8119 J5.0908
G3 X53.7623 Y10.3162 I-2.4178 J6.2799
G3 X55.1374 Y11.1084 I-1.8314 J4.7683
G3 X55.2141 Y11.1715 I-0.9141 J1.1893
G3 X56.9322 Y14.0464 I-3.2833 J3.913
G3 X56.9832 Y14.2775 I-5.499 J1.3353
G3 X56.9906 Y14.3174 I-1.4712 J0.2927
G3 X57.0047 Y14.401 I-15.6575 J2.6774
G3 X57.2178 Y16.7865 I-11.5028 J2.23
G3 X57.2179 Y16.9925 I-78.1352 J0.1252
G3 X57.2178 Y17.0394 I-15.8847 J0.0023
G3 X57.1683 Y19.696 I-78.1352 J-0.1277
G3 X56.0049 Y21.1045 I-1.499 J-0.0535
G2 X52.35 Y21.9627 I85.4843 J372.2769
G2 X49.2665 Y22.7413 I49.2808 J201.6709
G3 X45.2272 Y23.7223 I-29.6545 J-113.292
G3 X40.2023 Y24.7337 I-20.1817 J-87.2784
G3 X38.7651 Y24.9812 I-20.5904 J-115.2844
G3 X35.422 Y25.422 I-8.1773 J-49.12
G3 X33.7764 Y23.9397 I-0.1456 J-1.4929
G1 X33.6971 Y12.7931
G3 X35.0812 Y11.2869 I1.5 J-0.0107
G1 X37.1679 Y11.1254
G3 X36.7354 Y10.4024 I1.0192 J-1.1006
G3 X36.6065 Y9.8084 I7.2118 J-1.8762
G2 X34.3028 Y8.9525 I-15.1899 J37.3569
G3 X33.2874 Y7.6572 I0.4793 J-1.4214
G3 X33.2212 Y5.7353 I19.3017 J-1.6276
G3 X33.3539 Y4.7961 I3.6783 J0.0408
G3 X33.6272 Y4.0957 I2.8215 J0.6974
G0 Z3.0
G0 X34.1295 Y-0.692
G0 Z1.0
G1 F300.0 Z-1.5
G3 F800.0 X34.9173 Y-0.9062 I2.1262 J6.2633
G3 X35.3203 Y-0.9935 I2.0396 J8.4429
G3 X35.2638 Y-1.3992 I5.0164 J-0.906
G3 X34.2976 Y-2.2612 I4.6348 J-6.1673
G3 X34.2536 Y-1.993 I-5.0506 J-0.6909
G2 X34.1877 Y-1.4218 I3.8014 J0.7282
G3 X34.1295 Y-0.692 I-5.2842 J-0.054
G1 F300.0 X32.9428 Y-0.87
G3 F800.0 X31.7873 Y1.4167 I-4.0393 J-0.6058
G3 X32.2241 Y1.9552 I-2.7963 J2.7151
G3 X33.0318 Y1.2215 I3.9513 J3.5384
G3 X35.1795 Y0.265 I3.2239 J4.3498
G3 X36.4098 Y0.071 I1.7775 J7.2717
G3 X36.9549 Y0.0437 I0.575 J6.0302
G3 X36.8174 Y-0.2246 I4.4946 J-2.4727
G3 X36.4403 Y-1.9947 I3.5194 J-1.6749
G3 X36.2939 Y-2.1411 I2.682 J-2.8281
G3 X36.1769 Y-2.2195 I2.1095 J-3.2774
G3 X34.8405 Y-3.4606 I3.7217 J-5.347
G3 X34.7272 Y-3.6073 I3.0261 J-2.4564
G3 X33.4984 Y-5.4615 I18.2775 J-13.4471
G3 X33.457 Y-5.5327 I3.3505 J-1.9913
G3 X33.112 Y-2.4488 I-85.4778 J-8.0017
G3 X33.075 Y-2.2188 I-3.865 J-0.5033
G2 X32.9879 Y-1.4499 I4.98 J0.954
G3 X32.9428 Y-0.87 I-4.0844 J-0.0259
G0 Z3.0
G0 X32.5561 Y9.055
G0 Z1.0
G1 F300.0 Z-1.5
G3 F800.0 X29.6068 Y12.0714 I-2.677 J0.3326
G3 X28.8685 Y11.9705 I1.0846 J-10.6897
G3 X28.8391 Y12.261 I-2.6947 J-0.1259
G3 X29.5944 Y12.771 I-2.0834 J3.9
G3 X30.2682 Y13.6188 I-1.7319 J2.0682
G3 X30.8109 Y14.7004 I-121.2491 J61.5085
G3 X32.5422 Y18.7998 I-17.544 J9.8248
G1 X32.4995 Y12.8017
G3 X34.3299 Y10.228 I2.6975 J-0.0192
G2 X33.9201 Y10.0873 I-12.9133 J36.9372
G3 X32.5561 Y9.055 I0.862 J-2.5562
G0 Z3.0
G0 X22.1427 Y2.7717
G0 Z1.0
G1 F300.0 Z-1.5
G3 F800.0 X22.3242 Y2.4236 I3.5427 J1.6251
G3 X20.5405 Y2.1685 I2.5245 J-24.0134
G3 X20.5979 Y2.216 I-4.1986 J5.1308
G2 X20.8814 Y2.3797 I0.7493 J-0.9709
G3 X22.1427 Y2.7717 I-0.7998 J4.7981
G0 Z3.0
G0 X5.2169 Y2.0592
G0 Z1.0
G1 F300.0 Z-1.5
G3 F800.0 X4.8919 Y1.6704 I4.666 J-4.2295
G3 X3.3098 Y-1.4014 I7.6364 J-5.8765
G3 X3.1164 Y-2.2381 I6.0249 J-1.8331
G3 X3.0226 Y-3.2284 I7.6268 J-1.222
G3 X2.8856 Y-3.349 I4.624 J-5.3902
G3 X2.6844 Y-3.539 I4.2218 J-4.6729
G3 X2.6721 Y1.1931 I-9006.8826 J-20.9253
G2 X2.6688 Y5.0744 I6896.8434 J7.8988
G3 X3.0569 Y4.7216 I4.4265 J4.4795
G3 X4.5332 Y3.6297 I9.9346 J11.8874
G3 X4.5974 Y3.434 I6.0151 J1.8649
G3 X5.2169 Y2.0592 I7.9266 J2.7448
G1 F300.0 X6.106 Y1.2533
G3 F800.0 X5.8429 Y0.9385 I3.7769 J-3.4236
G3 X4.4579 Y-1.7507 I6.6854 J-5.1446
G3 X4.3013 Y-2.428 I4.8769 J-1.4838
G3 X4.2284 Y-3.8075 I6.4419 J-1.0322
G3 X3.6901 Y-4.2394 I3.4182 J-4.8111
G3 X2.379 Y-6.1173 I3.4174 J-3.7825
G3 X1.5651 Y-10.1468 I10.4438 J-4.2066
G3 X1.5607 Y-11.1943 I20.12 J-0.6071
G3 X1.6491 Y-12.0342 I5.0964 J0.1115
G3 X1.5004 Y-12.2643 I4.2056 J-2.8807
G3 X1.4721 Y1.1907 I-9005.6986 J-12.2001
G2 X1.4681 Y11.7674 I6898.0434 J7.9012
G3 X2.1375 Y8.3684 I42.5155 J6.6069
G3 X3.8264 Y5.6424 I4.9578 J1.1855
G3 X5.5709 Y4.3943 I9.165 J10.9666
G3 X5.7313 Y3.8266 I4.9774 J1.1003
G3 X6.7717 Y1.8678 I6.7927 J2.3521
G3 X6.106 Y1.2533 I3.1111 J-4.0381
G0 Z3.0
G0 X1.5076 Y-20.0113
G0 Z1.0
G1 F300.0 Z-1.5
G1 F800.0 X2.4815 Y-26.0994
G3 X2.5152 Y-26.2875 I5.0336 J0.8053
G3 X2.605 Y-29.1508 I4.9347 J-1.2783
G2 X2.9529 Y-30.2616 I-43.6547 J-14.2805
G3 X2.0609 Y-33.0168 I170.0301 J-56.5689
G3 X1.8298 Y-34.754 I4.8623 J-1.5309
G3 X1.5024 Y-35.0653 I3.347 J-3.848
G3 X1.5076 Y-20.0113 I-9005.7006 J10.6009
G1 F300.0 X2.6925 Y-19.8218
G1 F800.0 X3.6665 Y-25.9099
G3 X3.7558 Y-26.3231 I3.8487 J0.6157
G3 X3.7455 Y-28.7777 I3.6942 J-1.2428
G2 X4.2105 Y-30.284 I-44.7953 J-14.6536
G3 X3.2055 Y-33.3771 I168.7724 J-56.5466
G3 X3.0992 Y-35.3015 I3.7177 J-1.1705
G3 X1.4917 Y-37.3254 I2.0776 J-3.3005
G3 X0.6985 Y-39.7566 I66.5876 J-23.0698
G3 X0.6712 Y-39.85 I3.729 J-1.1422
G3 X1.811 Y-44.1502 I4.2279 J-1.1806
G2 X1.8551 Y-44.2135 I-0.2155 J-0.1969
G2 X2.4921 Y-46.574 I-6.3866 J-2.9897
G3 X2.4929 Y-46.5831 I3.8844 J0.348
G2 X2.5366 Y-47.19 I-15.3451 J-1.411
G3 X0.2807 Y-46.9273 I-1.5596 J-3.5746
G3 X0.2721 Y1.1883 I-9004.4788 J22.4629
G2 X0.2897 Y26.5686 I6899.2434 J7.9035
G3 X0.9685 Y25.528 I3.5622 J1.5818
G3 X1.7212 Y24.8441 I3.9554 J3.5973
G3 X1.7042 Y24.2775 I3.877 J-0.3998
G3 X2.4175 Y13.7277 I213.7515 J9.154
G3 X2.426 Y13.646 I3.881 J0.359
G3 X3.3046 Y8.6475 I41.5577 J4.7283
G3 X4.5959 Y6.5632 I3.7907 J0.9064
G3 X6.6663 Y5.1462 I8.3955 J10.0458
G3 X6.8653 Y4.2193 I3.882 J0.3484
G3 X8.4147 Y1.8228 I5.6587 J1.9595
G3 X8.7324 Y1.5537 I2.6746 J2.8351
G3 X6.7939 Y0.2067 I1.1504 J-3.7239
G3 X5.6059 Y-2.0999 I5.7344 J-4.4128
G3 X5.4862 Y-2.6178 I3.7288 J-1.1345
G3 X5.5085 Y-4.4311 I5.257 J-0.8423
G3 X4.4946 Y-5.1298 I2.1381 J-4.1875
G3 X3.4921 Y-6.5657 I2.6129 J-2.8921
G3 X2.7648 Y-10.1742 I9.3307 J-3.7582
G3 X2.7605 Y-11.168 I18.9203 J-0.5797
G3 X2.9571 Y-12.3081 I3.8967 J0.0853
G3 X2.006 Y-15.5306 I2.8975 J-2.6068
G1 X2.6925 Y-19.8218
G1 F300.0 X3.8774 Y-19.6322
G1 F800.0 X4.8514 Y-25.7203
G3 X5.037 Y-26.3599 I2.6637 J0.4261
G3 X4.8861 Y-28.4046 I2.413 J-1.206
G2 X5.4584 Y-30.2824 I-45.9358 J-15.0267
G2 X5.4598 Y-30.3337 I-0.1691 J-0.0303
G3 X4.3501 Y-33.7375 I167.5231 J-56.4969
G3 X4.6244 Y-35.9592 I2.5731 J-0.8101
G3 X2.6256 Y-37.7182 I0.5524 J-2.6429
G3 X1.8459 Y-40.1081 I65.4538 J-22.677
G3 X1.827 Y-40.1727 I2.5816 J-0.7907
G3 X2.6669 Y-43.3089 I3.0721 J-0.8578
G2 X2.9357 Y-43.6916 I-1.0714 J-1.0382
G2 X3.6873 Y-46.4669 I-7.4672 J-3.5117
G3 X3.6878 Y-46.4733 I2.6892 J0.2409
G2 X3.7321 Y-48.914 I-16.5401 J-1.5209
G3 X3.7305 Y-48.9464 I2.6959 J-0.1495
G2 X3.6718 Y-50.2311 I-285.7805 J12.4128
G1 X3.6238 Y-50.2315
G3 X-0.9243 Y-48.8476 I-2.6468 J-0.5331
G3 X-0.9279 Y1.1859 I-9003.2738 J24.3833
G2 X-0.8816 Y35.5558 I6900.4434 J7.9059
G3 X-0.6197 Y35.3197 I1.9348 J1.8832
G3 X0.2639 Y34.7588 I3.1645 J4.0088
G3 X0.2332 Y34.6884 I2.4576 J-1.1124
G3 X-0.1497 Y31.068 I5.8481 J-2.4489
G3 X-0.0107 Y30.5836 I2.6511 J0.4984
G3 X1.3468 Y27.1497 I481.9787 J188.5595
G3 X1.8563 Y26.3354 I2.5051 J1.0007
G3 X2.7184 Y25.6139 I3.0676 J2.7899
G3 X3.0692 Y25.383 I11.2213 J16.6679
G3 X2.9031 Y24.3288 I2.529 J-0.9387
G3 X3.6124 Y13.8382 I212.5526 J9.1026
G3 X3.6183 Y13.7817 I2.6861 J0.2484
G3 X4.4717 Y8.9265 I40.3654 J4.5926
G3 X5.3654 Y7.484 I2.6236 J0.6273
G3 X7.6541 Y5.9819 I7.626 J9.125
G3 X7.8742 Y5.8497 I2.7209 J4.2809
G3 X7.9992 Y4.6119 I2.6741 J-0.3551
G3 X9.2381 Y2.6957 I4.5248 J1.5668
G3 X9.8016 Y2.2875 I1.8511 J1.9622
G3 X12.2877 Y1.8419 I1.9147 J3.5245
G2 X15.6665 Y1.8584 I1.7756 J-17.6724
G3 X15.888 Y1.8475 I0.2435 J2.6866
G3 X18.2327 Y2.2136 I0.0597 J7.3096
G3 X18.4238 Y2.2846 I-0.8433 J2.5624
G3 X19.8419 Y3.1481 I-2.0819 J5.0148
G2 X20.5823 Y3.5478 I1.5053 J-1.9031
G3 X22.9507 Y4.8983 I-0.5006 J3.63
G3 X23.0147 Y4.0168 I6.428 J0.0239
G3 X25.4699 Y1.7078 I2.6707 J0.3799
G1 X26.7985 Y1.6013
G3 X25.6668 Y1.1297 I0.9487 J-3.8703
G3 X24.5547 Y1.354 I-1.0775 J-2.473
G3 X19.5255 Y0.73 I0.294 J-22.9439
G3 X19.4375 Y0.7074 I0.6258 J-2.624
G2 X17.95 Y0.348 I-6.5792 J23.9746
G3 X17.722 Y0.4911 I-1.5464 J-2.2103
G3 X15.7669 Y1.0138 I-2.0035 J-3.5762
G3 X12.9141 Y0.8995 I-0.4089 J-25.4504
G3 X12.9028 Y0.8984 I0.259 J-2.6851
G3 X9.5268 Y0.5037 I10.6457 J-105.7024
G3 X7.745 Y-0.5251 I0.356 J-2.674
G3 X6.7539 Y-2.4492 I4.7834 J-3.681
G3 X6.6711 Y-2.8077 I2.5808 J-0.7852
G3 X6.9818 Y-5.1511 I4.0722 J-0.6525
G3 X6.1819 Y-5.438 I1.3134 J-4.9208
G3 X6.1426 Y-5.4562 I1.1193 J-2.4544
G3 X5.299 Y-6.0202 I1.504 J-3.1624
G3 X4.6052 Y-7.014 I1.8084 J-2.0016
G3 X3.9645 Y-10.2014 I8.2176 J-3.3099
G3 X3.9602 Y-11.1418 I17.7206 J-0.5525
G3 X4.2047 Y-12.2064 I2.697 J0.059
G1 X4.3981 Y-12.6285
G1 X4.1871 Y-12.7945
G3 X3.191 Y-15.341 I1.6676 J-2.1204
G1 X3.8774 Y-19.6322
G0 Z3.0
G0 X30.598 Y-14.1202
G0 Z1.0
G1 F300.0 Z-1.5
G3 F800.0 X31.9798 Y-13.2402 I-0.6898 J2.6079
G1 X31.9207 Y-19.1584
G3 X31.5397 Y-17.6617 I-137.4257 J-34.1883
G3 X31.5364 Y-17.6494 I-2.6106 J-0.6798
G3 X30.598 Y-14.1202 I-4360.9923 J-1157.7015
G0 Z3.0
G0 X32.7002 Y-22.4602
G0 Z1.0
G1 F300.0 Z-1.5
G3 F800.0 X33.3441 Y-22.9345 I1.9043 J1.9106
G1 X32.8909 Y-23.3261
G3 X32.7002 Y-22.4602 I-138.3959 J-30.0207
G0 Z3.0
G0 X54.3807 Y5.4395
G0 Z1.0
G1 F300.0 Z-1.5
G3 F800.0 X55.3167 Y5.769 I-2.8335 J9.5408
G3 X55.5692 Y5.8713 I-4.202 J10.7337
G3 X56.4169 Y6.253 I-3.6384 J9.2132
G3 X56.6899 Y5.1204 I13.0965 J2.5579
G3 X54.5546 Y5.4433 I-1.9954 J-5.9731
G1 X54.3807 Y5.4395
G1 F300.0 X54.4074 Y4.2398
G1 F800.0 X51.3358 Y4.1715
G3 X50.2254 Y4.0237 I0.1133 J-5.0963
G3 X49.4484 Y3.791 I2.0067 J-8.1152
G3 X48.2339 Y4.0674 I-2.1549 J-6.6626
G3 X48.2135 Y4.0701 I-0.6846 J-5.0514
G3 X49.3284 Y4.643 I-40.2495 J79.6941
G3 X49.5159 Y4.7462 I-2.3617 J4.5175
G3 X50.0999 Y5.0341 I-247.4264 J502.5572
G3 X51.5814 Y5.6058 I-4.7054 J14.3984
G3 X52.6942 Y6.1584 I-6.1947 J13.8708
G2 X53.1467 Y6.375 I17.3687 J-35.717
G3 X54.8707 Y6.8831 I-1.5995 J8.6053
G3 X55.117 Y6.9829 I-3.7559 J9.6196
G3 X57.3687 Y8.2862 I-3.1862 J8.1016
G3 X57.3804 Y8.2954 I-3.1453 J4.0115
G3 X58.5705 Y3.545 I12.133 J0.5155
G3 X59.2244 Y2.5205 I4.5934 J2.2104
G3 X58.8859 Y2.0487 I3.9658 J-3.2028
G3 X54.5812 Y4.2436 I-4.1913 J-2.9014
G1 X54.4074 Y4.2398
G1 F300.0 X54.4341 Y3.0401
G1 F800.0 X51.3624 Y2.9718
G3 X50.5135 Y2.8588 I0.0866 J-3.8966
G3 X49.4618 Y2.5104 I1.7186 J-6.9503
G3 X48.0728 Y2.8782 I-2.1683 J-5.382
G3 X48.0166 Y2.8854 I-0.5235 J-3.8623
G3 X45.3477 Y2.9438 I-1.63 J-13.4966
G2 X43.4014 Y2.8864 I-2.4531 J50.1631
G3 X42.9082 Y2.8945 I-0.4313 J-11.1306
G2 X43.4806 Y3.1608 I12.6058 J-26.3493
G3 X48.7724 Y5.7065 I-35.5166 J80.6034
G3 X48.9478 Y5.804 I-1.8058 J3.4541
G3 X49.6471 Y6.1489 I-246.8583 J501.4993
G3 X51.0916 Y6.7013 I-4.2526 J13.2837
G3 X52.1421 Y7.2243 I-5.7049 J12.7753
G2 X52.7818 Y7.5292 I17.9208 J-36.7829
G3 X54.4245 Y7.9971 I-1.2346 J7.4511
G3 X54.6649 Y8.0946 I-3.3098 J8.5056
G3 X56.6238 Y9.2271 I-2.734 J6.9899
G3 X56.7736 Y9.3503 I-2.4005 J3.0707
G3 X59.2714 Y13.5195 I-4.8428 J5.7342
G3 X59.3347 Y13.8097 I-7.8382 J1.8622
G3 X59.3539 Y13.9133 I-3.8227 J0.7605
G3 X59.3647 Y13.9774 I-18.0208 J3.0815
G3 X59.3696 Y14.0031 I-13.8629 J2.6536
G1 X59.444 Y13.2177
G3 X59.4634 Y13.051 I3.8803 J0.3672
G3 X59.2317 Y12.557 I3.4044 J-1.8976
G3 X58.8332 Y11.2151 I8.2035 J-3.1666
G3 X58.8296 Y11.1982 I3.8128 J-0.8088
G3 X58.7865 Y10.9796 I11.1991 J-2.3239
G3 X59.6519 Y4.0653 I10.7269 J-2.1687
G3 X60.9794 Y2.5276 I3.5121 J1.6901
G3 X59.3685 Y-1.4482 I2.2108 J-3.21
G3 X59.1786 Y-1.8537 I3.429 J-1.853
G3 X58.653 Y-0.7838 I-21.3582 J-9.8289
G3 X58.4743 Y0.0985 I-9.5439 J-1.4746
G3 X54.6079 Y3.0439 I-3.7797 J-0.9512
G1 X54.4341 Y3.0401
G0 Z3.0
G0 X74.4236 Y4.7036
G0 Z1.0
G1 F300.0 Z-1.5
G3 F800.0 X76.2383 Y6.0365 I-12.398 J18.7808
G3 X77.6234 Y2.6355 I5.0967 J0.0932
G3 X77.6056 Y2.6 I4.5465 J-2.3053
G3 X74.4236 Y4.7036 I-4.198 J-2.8918
G1 F300.0 X74.1844 Y3.5277
G3 F800.0 X73.0044 Y3.585 I-0.7769 J-3.8194
G1 X68.7142 Y3.1388
G3 X67.8606 Y2.9516 I0.4031 J-3.8767
G3 X67.8594 Y2.952 I-2.0419 J-6.0234
G3 X73.2356 Y5.3773 I-13.7421 J37.634
G3 X73.4693 Y5.515 I-1.8599 J3.4252
G3 X77.61 Y8.9591 I-11.4438 J17.9694
G1 X77.4453 Y6.3779
G3 X79.208 Y2.8637 I3.8897 J-0.2482
G3 X78.286 Y0.6558 I2.9619 J-2.5334
G3 X78.2673 Y0.003 I5.9212 J-0.4963
G3 X77.8358 Y-0.8453 I3.2323 J-2.178
G3 X77.4832 Y0.1 I-21.8658 J-7.6182
G3 X77.17 Y0.8632 I-23.7095 J-9.2854
G3 X77.1654 Y0.8737 I-3.5813 J-1.5381
G3 X76.8743 Y1.4895 I-9.4679 J-4.0993
G3 X74.1844 Y3.5277 I-3.4668 J-1.7813
G0 Z3.0
G0 X98.6163 Y2.549
G0 Z1.0
G1 F300.0 Z-1.5
G3 F800.0 X98.8949 Y2.2908 I8.5003 J8.8901
G3 X98.7175 Y2.1698 I6.8418 J-10.2215
G3 X98.6163 Y2.549 I-26.731 J-6.9272
G1 F300.0 X97.4591 Y2.2314
G3 F800.0 X97.0137 Y3.6887 I-25.4726 J-6.9889
G3 X96.8434 Y4.1583 I-10.515 J-3.5486
G3 X97.6564 Y5.6328 I-12.8187 J8.0295
G3 X100.3948 Y2.6058 I9.4603 J5.8063
G1 X101.0304 Y2.1221
G3 X97.9688 Y-0.0017 I4.7062 J-10.0529
G3 X97.4591 Y2.2314 I-25.9823 J-4.7558
G1 F300.0 X96.3019 Y1.9139
G3 F800.0 X95.8767 Y3.305 I-24.3154 J-6.6714
G3 X95.4884 Y4.2813 I-9.378 J-3.1649
G3 X96.6599 Y6.3329 I-11.4637 J7.9065
G3 X96.6835 Y6.3826 I-8.9345 J4.2587
G3 X97.4363 Y8.4508 I-11.0622 J5.1978
G3 X97.5005 Y8.6998 I-11.6522 J3.1379
G3 X97.6296 Y8.6096 I742.1015 J1062.8787
G3 X101.1215 Y3.5608 I9.4871 J2.8294
G1 X103.0568 Y2.0881
G3 X103.5548 Y1.7329 I5.9952 J7.8783
G1 X103.1973 Y1.638
G3 X97.0707 Y-3.1441 I2.5393 J-9.5688
G3 X96.8081 Y-0.3265 I-15.126 J0.0111
G3 X96.3019 Y1.9139 I-24.8216 J-4.431
G1 F300.0 X95.1446 Y1.5964
G3 F800.0 X94.7397 Y2.9213 I-23.1581 J-6.3539
G3 X94.0849 Y4.3943 I-8.241 J-2.7812
G3 X95.5739 Y6.8434 I-10.0603 J7.7935
G3 X95.5974 Y6.8929 I-7.8485 J3.7482
G3 X96.2769 Y8.7605 I-9.9761 J4.6874
G3 X96.6212 Y10.779 I-10.4928 J2.8282
G3 X98.6724 Y9.3453 I742.9808 J1060.7995
G3 X101.8482 Y4.5157 I8.4443 J2.0938
G1 X103.7834 Y3.043
G3 X109.4778 Y1.2768 I5.2685 J6.9234
G2 X109.8188 Y1.0346 I-44.612 J-63.1737
G1 X109.716 Y0.9844
G3 X105.3337 Y0.9634 I-2.1508 J-8.43
G1 X103.5051 Y0.4782
G3 X97.5711 Y-4.9283 I2.2315 J-8.4089
G1 X95.5442 Y-5.9385
G3 X95.8281 Y-4.2216 I-9.261 J2.4136
G3 X95.6278 Y-0.5433 I-13.8834 J1.0886
G3 X95.1446 Y1.5964 I-23.6413 J-4.2142
G1 F300.0 X93.9874 Y1.2789
G3 F800.0 X93.6027 Y2.5376 I-22.0009 J-6.0364
G3 X92.6045 Y4.4915 I-7.104 J-2.3974
G3 X94.488 Y7.3541 I-8.5798 J7.6963
G3 X94.5113 Y7.4032 I-6.7625 J3.2376
G3 X95.1176 Y9.0701 I-8.8901 J4.1771
G3 X95.4074 Y12.5096 I-9.3335 J2.5186
G3 X95.931 Y12.7288 I-2.6325 J7.0228
G3 X99.7444 Y10.0607 I743.671 J1058.8497
G3 X102.5749 Y5.4707 I7.3723 J1.3784
G1 X104.5101 Y3.998
G3 X109.8162 Y2.5054 I4.5418 J5.9684
G2 X111.8715 Y1.021 I-44.9504 J-64.4023
G1 X112.1228 Y0.8231
G1 X109.8293 Y-0.2954
G3 X105.6415 Y-0.1964 I-2.2641 J-7.1501
G1 X103.8129 Y-0.6817
G3 X98.5515 Y-5.7805 I1.9237 J-7.2491
G1 X95.4545 Y-7.324
G3 X94.0707 Y-6.8894 I-2.9285 J-6.9046
G3 X94.0386 Y-6.6739 I-8.5578 J-1.1633
G3 X94.6315 Y-4.131 I-7.7554 J3.1489
G3 X94.4476 Y-0.7602 I-12.6868 J0.9981
G3 X93.9874 Y1.2789 I-22.4611 J-3.9972
G1 F300.0 X92.8302 Y0.9614
G3 F800.0 X92.4657 Y2.1538 I-20.8437 J-5.7189
G3 X90.9916 Y4.553 I-5.967 J-2.0137
G3 X91.2231 Y4.7846 I-8.4901 J8.7162
G3 X93.4021 Y7.8649 I-7.1984 J7.4031
G3 X93.4252 Y7.9135 I-5.6767 J2.7267
G3 X93.9582 Y9.3798 I-7.804 J3.6668
G3 X94.0629 Y13.3655 I-8.1741 J2.2089
G3 X96.0203 Y14.1327 I-1.288 J6.1669
G3 X100.5332 Y10.9737 I743.5816 J1057.4458
G2 X100.8563 Y10.7338 I-18.0976 J-24.7183
G3 X103.3016 Y6.4256 I6.2604 J0.7052
G1 X105.2368 Y4.9529
G3 X110.1171 Y3.7571 I3.8151 J5.0135
G2 X112.6019 Y1.9732 I-45.2513 J-65.6539
G1 X114.3678 Y0.583
G1 X109.9021 Y-1.595
G3 X105.9493 Y-1.3563 I-2.3369 J-5.8505
G1 X104.1207 Y-1.8416
G3 X99.5765 Y-6.6104 I1.6159 J-6.0892
G1 X95.4682 Y-8.6579
G3 X92.9486 Y-7.9428 I-2.9423 J-5.5707
G3 X92.7923 Y-6.5324 I-7.4357 J-0.1099
G3 X93.4349 Y-4.0406 I-6.5091 J3.0075
G3 X93.2674 Y-0.9773 I-11.4902 J0.9076
G3 X92.8302 Y0.9614 I-21.2808 J-3.7801
G1 F300.0 X91.6729 Y0.6439
G3 F800.0 X91.3287 Y1.7701 I-19.6864 J-5.4014
G3 X89.1195 Y4.5124 I-4.83 J-1.63
G3 X89.5565 Y4.8717 I-11.627 J14.5895
G3 X90.3746 Y5.6334 I-7.0549 J8.3975
G3 X92.3164 Y8.3761 I-6.35 J6.5543
G3 X92.3391 Y8.4238 I-4.591 J2.2155
G3 X92.7988 Y9.6894 I-6.7179 J3.1565
G3 X92.5473 Y14.2481 I-7.0147 J1.8993
G3 X92.4676 Y14.4393 I-4.744 J-1.8654
G3 X92.6837 Y14.4332 I0.4081 J10.7298
G3 X96.0214 Y15.5992 I0.0912 J5.0992
G3 X101.2307 Y11.9503 I743.5805 J1055.9793
G2 X102.0158 Y11.3571 I-18.795 J-25.6949
G3 X102.0216 Y11.2164 I23.8689 J0.9023
G3 X104.0283 Y7.3805 I5.0951 J0.2227
G1 X105.9635 Y5.9079
G3 X110.3684 Y5.0392 I3.0884 J4.0585
G2 X113.3324 Y2.9254 I-45.5027 J-66.9361
G1 X116.6129 Y0.3428
G1 X109.9197 Y-2.9216
G3 X106.2571 Y-2.5162 I-2.3545 J-4.524
G1 X104.4285 Y-3.0014
G3 X100.6682 Y-7.364 I1.3081 J-4.9294
G1 X100.6631 Y-7.4097
G1 X95.4145 Y-10.0255
G3 X91.6363 Y-9.2068 I-2.8885 J-4.2032
G3 X91.7184 Y-8.6732 I-4.9902 J1.0408
G3 X91.5228 Y-6.387 I-6.2056 J0.6205
G3 X92.2383 Y-3.9503 I-5.2396 J2.862
G3 X92.0872 Y-1.1946 I-10.2936 J0.8173
G3 X91.6729 Y0.6439 I-20.1007 J-3.5629
G1 F300.0 X90.5157 Y0.3264
G3 F800.0 X90.1917 Y1.3864 I-18.5292 J-5.0839
G3 X86.6698 Y4.034 I-3.693 J-1.2463
G1 X86.3305 Y4.0489
G3 X88.7826 Y5.7888 I-8.838 J15.0531
G3 X89.5263 Y6.4824 I-6.281 J7.4805
G3 X91.2309 Y8.8879 I-5.5016 J5.7054
G3 X91.253 Y8.9342 I-3.5055 J1.7038
G3 X91.6395 Y9.9991 I-5.6318 J2.6462
G3 X91.4306 Y13.8089 I-5.8554 J1.5896
G3 X91.0467 Y14.5441 I-3.6273 J-1.4263
G1 X91.4683 Y15.7359
G3 X92.7052 Y15.633 I1.4074 J9.4332
G3 X95.8772 Y17.169 I0.0697 J3.8994
G3 X101.9279 Y12.927 I743.7248 J1054.4095
G2 X103.2009 Y11.9483 I-19.4923 J-26.6717
G3 X103.2204 Y11.2688 I22.6838 J0.311
G3 X104.7549 Y8.3355 I3.8963 J0.1703
G1 X106.6902 Y6.8628
G3 X110.5488 Y6.365 I2.3617 J3.1036
G2 X114.063 Y3.8775 I-45.683 J-68.2619
G1 X118.8579 Y0.1026
G1 X109.8547 Y-4.2883
G3 X106.5649 Y-3.676 I-2.2896 J-3.1572
G1 X104.7363 Y-4.1613
G3 X101.8608 Y-7.4973 I1.0003 J-3.7695
G1 X101.7831 Y-8.1923
G1 X95.2571 Y-11.4446
G3 X91.5368 Y-10.4561 I-2.7312 J-2.784
G1 X90.3346 Y-10.7714
G3 X90.2909 Y-10.5358 I-3.8523 J-0.5925
G2 X90.3502 Y-9.3789 I2.1588 J0.4694
G3 X90.5244 Y-8.5538 I-3.7041 J1.2129
G3 X90.2096 Y-6.2341 I-5.0115 J0.5011
G3 X91.0417 Y-3.8601 I-3.9264 J2.7091
G3 X90.907 Y-1.4121 I-9.097 J0.7272
G3 X90.5157 Y0.3264 I-18.9205 J-3.3454
G1 F300.0 X89.3585 Y0.0089
G3 F800.0 X89.0547 Y1.0027 I-17.372 J-4.7663
G3 X86.6171 Y2.8351 I-2.556 J-0.8626
G1 X82.2883 Y3.0252
G3 X79.4818 Y0.5556 I-0.1184 J-2.695
G3 X79.4948 Y-0.37 I4.7254 J-0.3961
G3 X78.8318 Y-1.7751 I2.0047 J-1.805
G1 X77.6586 Y-9.601
G3 X77.6302 Y-10.0901 I2.6678 J-0.3999
G3 X77.4808 Y-10.3147 I3.0197 J-2.1713
G3 X76.8282 Y-9.4639 I-5.7835 J-3.7609
G2 X76.2219 Y-8.6583 I16.4127 J12.981
G3 X76.5143 Y-8.2152 I-2.0947 J1.6998
G3 X77.0274 Y-7.1668 I-17.5432 J9.2361
G1 X77.0282 Y-7.1651
G3 X77.0506 Y-7.1183 I-2.4216 J1.1887
G3 X77.157 Y-6.8748 I-4.7372 J2.2136
G3 X77.1675 Y-6.8505 I-18.1859 J7.8957
G3 X77.2277 Y-6.6989 I-2.4759 J1.071
G3 X77.3546 Y-3.473 I-4.9979 J1.812
G3 X77.2083 Y-2.8999 I-23.5809 J-5.7124
G3 X76.3671 Y-0.3407 I-21.2383 J-5.5635
G3 X76.0673 Y0.3897 I-22.5934 J-8.8447
G3 X76.0642 Y0.3969 I-2.4787 J-1.0646
G3 X75.807 Y0.9411 I-8.3667 J-3.6225
G3 X73.1285 Y2.3914 I-2.3994 J-1.2328
G1 X68.8383 Y1.9453
G3 X67.8794 Y1.6589 I0.279 J-2.6831
G3 X65.5514 Y2.0813 I-2.0607 J-4.7307
G3 X65.4596 Y2.0818 I-0.2322 J-36.6411
G3 X64.8214 Y2.0787 I-0.2492 J-14.3264
G3 X63.0209 Y2.0099 I0.4977 J-36.6385
G3 X60.6695 Y-1.6432 I0.1692 J-2.6923
G3 X60.5866 Y-4.8468 I2.128 J-1.6579
G1 X60.8766 Y-5.2616
G2 X60.7079 Y-5.3954 I-2.4776 J2.9496
G3 X60.6398 Y-5.4481 I1.617 J-2.1593
G3 X60.285 Y-5.7368 I17.0042 J-21.2578
G3 X59.3128 Y-7.6479 I1.7202 J-2.078
G3 X59.1503 Y-12.6884 I84.863 J-5.2593
G3 X59.2324 Y-14.4052 I10.0303 J-0.3809
G3 X59.4865 Y-15.3845 I3.7325 J0.4459
G3 X59.8378 Y-15.9977 I2.4962 J1.0227
G1 X59.7848 Y-16.1018
G3 X59.2126 Y-15.1113 I-7.3459 J-3.5827
G2 X57.5775 Y-12.3038 I204.5866 J121.034
G3 X58.6685 Y-10.8645 I-1.4803 J2.2551
G3 X58.4428 Y-3.1699 I-11.1086 J3.5248
G3 X58.4136 Y-3.097 I-2.519 J-0.9652
G3 X57.4947 Y-1.1604 I-20.5933 J-8.5856
G3 X57.3105 Y-0.1944 I-8.3856 J-1.098
G3 X54.6346 Y1.8442 I-2.616 J-0.6584
G1 X51.3891 Y1.7721
G3 X50.8015 Y1.6939 I0.06 J-2.6969
G3 X49.539 Y1.2249 I1.4306 J-5.7854
G3 X49.4653 Y1.1862 I1.219 J-2.4065
G3 X47.9116 Y1.6891 I-2.1718 J-4.0577
G3 X47.8728 Y1.6941 I-0.3623 J-2.6732
G3 X45.4234 Y1.746 I-1.4861 J-12.3053
G2 X43.3832 Y1.6861 I-2.5288 J51.3608
G3 X40.3621 Y1.3464 I-0.4131 J-9.9304
G3 X40.2392 Y1.3099 I0.7079 J-2.6031
G3 X37.9009 Y-0.7403 I1.2102 J-3.7389
G3 X37.7122 Y-2.5231 I2.4358 J-1.1592
G3 X37.1137 Y-3.0221 I1.4101 J-2.2997
G2 X37.0073 Y-3.1102 I-0.3487 J0.3126
G3 X36.8624 Y-3.2044 I1.3961 J-2.3082
G3 X35.7722 Y-4.2169 I3.0361 J-4.3621
G3 X35.6937 Y-4.3184 I2.0944 J-1.7001
G3 X34.5299 Y-6.0746 I17.3109 J-12.7359
G3 X34.2001 Y-6.9419 I2.319 J-1.3782
G3 X32.4569 Y-8.1126 I0.5138 J-2.6482
G3 X31.9221 Y-2.6037 I-84.4777 J-5.4219
G3 X31.8965 Y-2.4445 I-2.675 J-0.3483
G2 X31.788 Y-1.4731 I6.1586 J1.1797
G3 X29.9513 Y1.2116 I-2.8844 J-0.0027
G3 X29.2761 Y1.4494 I-2.7672 J-6.7813
G3 X31.6508 Y3.6823 I-0.2852 J2.6825
G1 X32.0219 Y5.8781
G3 X32.0237 Y5.7194 I20.5673 J0.1515
G3 X32.1953 Y4.4926 I4.8758 J0.0566
G3 X32.5694 Y3.534 I3.9801 J1.0009
G3 X32.6641 Y3.3665 I2.3937 J1.2438
G3 X32.7928 Y3.1695 I3.5915 J2.2048
G3 X33.7447 Y2.1868 I3.3826 J2.324
G3 X35.4409 Y1.4365 I2.511 J3.3845
G3 X36.5108 Y1.2668 I1.5161 J6.1002
G3 X37.6467 Y1.2889 I0.474 J4.8344
G3 X37.7593 Y1.3041 I-0.3048 J2.6803
G3 X39.9131 Y2.2255 I-0.7355 J4.6974
G3 X40.705 Y2.9777 I-2.9283 J3.8757
G2 X41.0492 Y3.2942 I1.7017 J-1.5056
G2 X42.9915 Y4.2567 I14.4648 J-26.749
G3 X48.2164 Y6.7699 I-35.0275 J79.5076
G3 X48.3733 Y6.8587 I-1.2498 J2.3906
G3 X49.1977 Y7.2653 I-246.2838 J500.4446
G3 X50.6019 Y7.7969 I-3.8032 J12.1673
G3 X51.5884 Y8.2894 I-5.2152 J11.6798
G2 X52.4304 Y8.6889 I18.4745 J-37.848
G3 X52.5611 Y8.709 I-0.3444 J2.6755
G3 X53.9782 Y9.1111 I-1.0139 J6.2713
G3 X54.213 Y9.2064 I-2.8635 J7.3916
G3 X55.8794 Y10.1683 I-2.2821 J5.8781
G3 X55.9936 Y10.2623 I-1.656 J2.1295
G3 X58.1007 Y13.7832 I-4.0628 J4.8222
G3 X58.1578 Y14.0439 I-6.6674 J1.5984
G3 X58.1711 Y14.1155 I-2.6458 J0.5264
G3 X58.1835 Y14.1893 I-16.8379 J2.8792
G3 X58.4154 Y16.7933 I-12.6817 J2.4417
G3 X58.4155 Y16.993 I-79.3328 J0.1184
G3 X58.4154 Y17.042 I-17.0823 J0.0017
G3 X58.3651 Y19.7387 I-79.3328 J-0.1303
G3 X58.3413 Y20.0131 I-2.6959 J-0.0961
G3 X60.8945 Y19.3381 I1554.994 J5876.6268
G3 X60.26 Y17.3318 I2.0511 J-1.7521
G1 X60.6386 Y13.3308
G3 X60.7399 Y12.8114 I2.6856 J0.2541
G3 X60.3512 Y12.1248 I2.1279 J-1.658
G3 X60.007 Y10.9661 I7.084 J-2.7345
G3 X60.0046 Y10.9544 I2.6389 J-0.5598
G3 X59.9644 Y10.7502 I10.0242 J-2.08
G3 X60.7332 Y4.5857 I9.549 J-1.9393
G3 X63.3554 Y3.0646 I2.4308 J1.1697
G3 X66.0818 Y3.6077 I-0.7877 J11.0707
G3 X66.7672 Y3.8314 I-4.2511 J14.1814
G3 X66.7717 Y3.833 I-0.8995 J2.5432
G3 X67.3893 Y4.0579 I-14.644 J41.1749
G3 X72.6629 Y6.4318 I-13.272 J36.5281
G3 X72.8247 Y6.5271 I-1.2873 J2.3707
G3 X76.8944 Y9.9534 I-10.7992 J16.9572
G3 X76.9551 Y10.0224 I-1.9951 J1.8156
G3 X77.1315 Y10.2306 I-86.9414 J73.8593
G3 X77.6478 Y10.8456 I-15.0851 J13.1867
G3 X79.0417 Y12.5513 I-87.634 J73.0361
G1 X78.6429 Y6.3015
G3 X81.8836 Y3.4885 I2.6921 J-0.1718
G3 X83.0263 Y3.817 I-1.6107 J7.7546
G3 X88.0087 Y6.7059 I-5.5338 J15.2849
G3 X88.6781 Y7.3316 I-5.5072 J6.5633
G3 X90.1459 Y9.4007 I-4.6535 J4.8562
G3 X90.1669 Y9.4445 I-2.4205 J1.191
G3 X90.4801 Y10.3088 I-4.5457 J2.1359
G3 X90.3138 Y13.3698 I-4.696 J1.2799
G3 X89.6906 Y14.3101 I-2.5105 J-0.9871
G3 X89.7057 Y14.3518 I-2.5303 J0.9421
G1 X90.6865 Y17.1241
G3 X92.7266 Y16.8329 I2.1892 J8.045
G3 X94.995 Y17.9958 I0.0483 J2.6996
G1 X95.5832 Y18.8455
G3 X102.6249 Y13.9039 I744.0188 J1052.733
G2 X104.4003 Y12.5157 I-20.1893 J-27.6486
G3 X104.4193 Y11.3212 I21.4844 J-0.2563
G3 X105.4816 Y9.2904 I2.6974 J0.1179
G1 X107.4169 Y7.8177
G3 X110.6121 Y7.7628 I1.6351 J2.1486
G2 X114.7936 Y4.8295 I-45.7464 J-69.6596
G1 X121.1029 Y-0.1376
G1 X109.6461 Y-5.7252
G3 X106.8727 Y-4.8359 I-2.081 J-1.7204
G1 X105.0441 Y-5.3211
G3 X103.0534 Y-7.6307 I0.6925 J-2.6097
G1 X102.903 Y-8.9749
G1 X94.9088 Y-12.959
G3 X91.8412 Y-11.6169 I-2.3828 J-1.2697
G1 X88.9872 Y-12.3652
G3 X89.1183 Y-10.7908 I-2.5049 J1.0013
G2 X89.2098 Y-9.0055 I3.3314 J0.7243
G3 X89.3303 Y-8.4344 I-2.5636 J0.8395
G3 X88.7935 Y-6.0637 I-3.8175 J0.3817
G3 X89.8451 Y-3.7704 I-2.5103 J2.5388
G3 X89.7269 Y-1.6299 I-7.9003 J0.6374
G3 X89.3585 Y0.0089 I-17.7404 J-3.1276
G0 Z3.0
G0 X34.2474 Y26.4227
G0 Z1.0
G1 F300.0 Z-1.5
G3 F800.0 X33.7025 Y26.1199 I1.029 J-2.4936
G3 X33.4213 Y26.6463 I-2.5054 J-1.0001
G3 X34.2474 Y26.4227 I258.4905 J953.1964
G0 Z3.0
G0 X9.8018 Y32.8694
G0 Z1.0
G1 F300.0 Z-1.5
G3 F800.0 X8.9193 Y33.0203 I-9.4022 J-52.3319
G3 X8.8979 Y33.1074 I-2.6301 J-0.5998
G1 X9.8018 Y32.8694
G1 F300.0 X9.59 Y31.6907
G3 F800.0 X7.8118 Y31.9785 I-9.1904 J-51.1532
G1 X7.7875 Y32.4914
G3 X6.8204 Y33.8233 I-1.4983 J-0.0709
G1 X6.891 Y34.046
G3 X6.9142 Y34.8707 I-1.43 J0.453
G3 X6.9458 Y34.862 I0.4134 J1.4419
G1 X23.357 Y30.5423
G3 X23.4402 Y30.5229 I0.3818 J1.4506
G3 X24.7246 Y30.426 I1.0278 J5.0597
G3 X24.9536 Y30.4498 I-0.0629 J1.7167
G2 X25.176 Y30.2919 I-2.6546 J-3.9733
G3 X25.508 Y30.1026 I0.9031 J1.1977
G3 X26.6883 Y29.7436 I2.4674 J5.9933
G3 X42.3288 Y25.5157 I265.2235 J950.0992
G3 X84.9158 Y14.2853 I1571.0064 J5871.1242
G1 X81.986 Y14.6802
G3 X80.2888 Y13.2891 I-0.2003 J-1.4866
G1 X79.8381 Y6.2253
G3 X81.6401 Y4.6611 I1.497 J-0.0955
G3 X82.6142 Y4.9415 I-1.3672 J6.5821
G3 X87.2365 Y7.6213 I-5.1217 J14.1604
G3 X87.832 Y8.1795 I-4.7349 J5.6479
G3 X89.0641 Y9.9149 I-3.8073 J4.0083
G3 X89.083 Y9.9538 I-1.3387 J0.6768
G3 X89.3231 Y10.6179 I-3.4618 J1.6266
G3 X89.1993 Y12.9316 I-3.539 J0.9708
G3 X88.0036 Y13.8692 I-1.396 J-0.5489
G1 X87.8019 Y13.8964
G3 X88.5745 Y14.752 I-0.6416 J1.3559
G1 X89.9662 Y18.6861
G3 X90.2851 Y18.5242 I3.9788 J7.446
G3 X90.419 Y18.4676 I0.6503 J1.3517
G3 X92.7481 Y18.0327 I2.4566 J6.7015
G3 X94.0083 Y18.6787 I0.0268 J1.4998
G1 X95.2865 Y20.5254
G3 X103.3218 Y14.8809 I744.3155 J1051.0532
G2 X105.3779 Y13.261 I-20.8861 J-28.6256
G2 X105.6081 Y12.8728 I-0.661 J-0.6541
G3 X105.6181 Y11.3736 I20.2766 J-0.6134
G3 X106.2083 Y10.2454 I1.4986 J0.0655
G1 X108.1436 Y8.7727
G3 X110.2164 Y9.0208 I0.9084 J1.1937
G3 X110.4397 Y9.3047 I-8.9538 J7.2712
G2 X115.5244 Y5.7814 I-45.5739 J-71.2016
G1 X123.348 Y-0.3778
G1 X109.2291 Y-7.2637
G3 X108.7689 Y-6.5505 I-5.5945 J-3.1048
G3 X107.1805 Y-5.9957 I-1.2037 J-0.8951
G1 X105.3519 Y-6.481
G3 X104.2459 Y-7.7641 I0.3847 J-1.4498
G1 X104.023 Y-9.7576
G1 X94.0444 Y-14.7305
G1 X94.0251 Y-14.1763
G3 X92.1455 Y-12.7777 I-1.4991 J-0.0523
G1 X87.5966 Y-13.9704
G1 X87.3501 Y-13.5214
G3 X86.6692 Y-12.8839 I-1.3148 J-0.722
G1 X86.9617 Y-12.7852
G3 X87.9481 Y-11.0452 I-0.4794 J1.4213
G2 X88.0716 Y-8.6328 I4.5017 J0.9788
G3 X88.1387 Y-8.3152 I-1.4255 J0.4668
G3 X87.7366 Y-6.6318 I-2.6258 J0.2626
G3 X87.6696 Y-6.5355 I-1.264 J-0.8076
G3 X87.0565 Y-5.7543 I-21.3088 J-16.0913
G3 X87.3613 Y-5.6386 I-0.3768 J1.4519
G3 X88.6507 Y-3.6815 I-1.0781 J2.1136
G3 X88.5492 Y-1.8476 I-6.706 J0.5485
G3 X87.92 Y0.6198 I-16.5627 J-2.9098
G3 X86.5646 Y1.6387 I-1.4212 J-0.4796
G1 X82.2358 Y1.8288
G3 X80.6752 Y0.4555 I-0.0658 J-1.4986
G3 X80.8078 Y-0.844 I3.5319 J-0.2961
G3 X80.0161 Y-1.9526 I0.6917 J-1.331
G1 X78.8429 Y-9.7785
G3 X78.8953 Y-10.4503 I1.4834 J-0.2224
G3 X78.1325 Y-12.4072 I1.7547 J-1.8111
G3 X78.1978 Y-12.7666 I1.4975 J0.0867
G3 X79.8187 Y-14.3845 I2.348 J0.7314
G3 X77.0796 Y-15.2135 I276.2357 J-917.5956
G3 X77.3895 Y-14.3929 I-1.187 J0.9171
G3 X77.1276 Y-12.3392 I-5.4356 J0.3503
G3 X75.9137 Y-10.2382 I-5.4303 J-1.7364
G2 X75.0401 Y-9.0596 I17.3272 J13.7553
G3 X75.0264 Y-9.04 I-1.234 J-0.8527
G1 X74.5642 Y-8.3934
G3 X75.4546 Y-7.6573 I-0.437 J1.4349
G3 X75.9441 Y-6.6559 I-16.4835 J8.6782
G2 X75.9532 Y-6.6373 I218.1306 J-107.0553
G3 X75.9656 Y-6.6113 I-1.3465 J0.661
G3 X76.0526 Y-6.4113 I-3.6522 J1.7066
G3 X76.0683 Y-6.375 I-17.0815 J7.4322
G3 X76.1018 Y-6.2907 I-1.3767 J0.5955
G3 X76.1953 Y-3.7743 I-3.872 J1.4038
G3 X76.0507 Y-3.2068 I-22.4216 J-5.4112
G3 X75.2531 Y-0.7805 I-20.0807 J-5.2567
G3 X74.9669 Y-0.083 I-21.4795 J-8.4049
G3 X74.9652 Y-0.0789 I-1.3783 J-0.592
G3 X74.7417 Y0.3938 I-7.2677 J-3.1467
G3 X73.2524 Y1.2002 I-1.3342 J-0.6855
G1 X68.9621 Y0.7541
G3 X67.9859 Y0.247 I0.1551 J-1.492
G3 X67.7203 Y0.4046 I-2.0718 J-3.1898
G3 X65.5807 Y0.8835 I-1.9016 J-3.4763
G3 X65.4468 Y0.8842 I-0.2615 J-35.4433
G3 X64.8459 Y0.8813 I-0.2364 J-13.1289
G3 X63.096 Y0.8147 I0.4732 J-35.4411
G3 X61.9027 Y-1.4521 I0.0941 J-1.497
G3 X62.2362 Y-1.9101 I2.6899 J1.6084
G3 X61.5681 Y-4.1606 I0.5613 J-1.391
G1 X62.3733 Y-5.3124
G2 X62.3558 Y-5.3488 I-4.404 J2.103
G2 X62.1614 Y-5.68 I-3.2588 J1.6898
G2 X61.4258 Y-6.354 I-3.7625 J3.3679
G3 X61.3879 Y-6.3833 I0.8991 J-1.2007
G3 X61.0487 Y-6.6593 I16.2561 J-20.3226
G3 X60.5081 Y-7.722 I0.9565 J-1.1554
G3 X60.3478 Y-12.7132 I83.6677 J-5.1852
G3 X60.4206 Y-14.255 I8.8327 J-0.356
G3 X60.5947 Y-14.9304 I2.5444 J0.2958
G3 X60.8666 Y-15.3639 I1.388 J0.5687
G1 X61.2733 Y-15.8169
G1 X60.406 Y-17.5222
G3 X61.8758 Y-19.6963 I1.337 J-0.68
G3 X62.4413 Y-19.6184 I-0.5234 J5.8882
G3 X63.9951 Y-19.2829 I-5.3106 J28.3626
G2 X56.9997 Y-21.3381 I-97.5361 J319.0549
G3 X56.7788 Y-21.3932 I10.9392 J-44.2923
G3 X57.0077 Y-20.9435 I-1.2034 J0.8955
G3 X57.0231 Y-20.893 I-4.6731 J1.4543
G2 X57.486 Y-20.8475 I0.9022 J-6.8025
G3 X58.6714 Y-20.1304 I-0.096 J1.4969
G3 X59.0193 Y-17.3756 I-2.9016 J1.7659
G3 X58.9939 Y-17.2995 I-1.435 J-0.4367
G3 X58.2008 Y-15.753 I-6.555 J-2.385
G2 X55.7465 Y-11.5071 I205.5984 J121.6758
G3 X57.527 Y-10.5023 I0.3507 J1.4584
G3 X57.3245 Y-3.5984 I-9.9671 J3.1626
G3 X57.3083 Y-3.5578 I-1.4007 J-0.5367
G3 X56.3318 Y-1.528 I-19.4879 J-8.1247
G3 X56.1492 Y-0.4866 I-7.2227 J-0.7304
G3 X54.6612 Y0.6469 I-1.4546 J-0.3661
G1 X51.4157 Y0.5748
G3 X51.089 Y0.5313 I0.0333 J-1.4996
G3 X50.0802 Y0.1566 I1.1431 J-4.6228
G3 X49.5369 Y-0.3104 I0.6778 J-1.3381
G3 X47.7508 Y0.5024 I-2.2434 J-2.5612
G3 X47.7292 Y0.5051 I-0.2015 J-1.4864
G3 X45.4999 Y0.5507 I-1.3425 J-11.1163
G2 X43.3629 Y0.4883 I-2.6053 J52.5561
G3 X40.6763 Y0.1908 I-0.3927 J-8.7326
G3 X40.608 Y0.1705 I0.3936 J-1.4474
G3 X38.9823 Y-1.2549 I0.8414 J-2.5995
G3 X38.9428 Y-2.4535 I1.3544 J-0.6446
G3 X39.1391 Y-3.2554 I1.5922 J-0.0352
G3 X38.6771 Y-3.3904 I3.7037 J-13.5379
G3 X38.0054 Y-3.8215 I0.4452 J-1.4324
G2 X37.6271 Y-4.135 I-1.2405 J1.112
G3 X37.5465 Y-4.1873 I0.7763 J-1.2835
G3 X36.702 Y-4.9717 I2.352 J-3.3791
G3 X36.6584 Y-5.0281 I1.1646 J-0.9454
G3 X35.5594 Y-6.6864 I16.3462 J-12.0262
G3 X35.4378 Y-7.9615 I1.2895 J-0.7663
G3 X34.4822 Y-8.1081 I25.3989 J-168.7328
G3 X33.214 Y-9.5751 I0.2317 J-1.482
G1 X33.1046 Y-20.5345
G3 X34.3319 Y-22.0245 I1.4999 J-0.015
G1 X35.8949 Y-22.3135
G1 X33.4411 Y-24.4334
G3 X34.8304 Y-27.0117 I0.9806 J-1.1351
G1 X54.216 Y-21.5224
G1 X54.9468 Y-21.8597
G3 X54.9964 Y-21.8815 I0.6286 J1.3619
G3 X53.0436 Y-22.5073 I12.9425 J-43.7488
G2 X50.7414 Y-23.1731 I-8.231 J24.1459
G3 X48.3836 Y-23.6218 I89.725 J-477.9754
G3 X48.2439 Y-23.6557 I0.284 J-1.4729
G3 X46.0594 Y-24.4149 I6.7986 J-23.0852
G2 X39.1274 Y-26.741 I-53.7784 J148.7717
G3 X39.1088 Y-26.7469 I0.4442 J-1.4327
G2 X13.4423 Y-34.8398 I-507.9772 J1566.2995
G3 X10.2324 Y-35.7159 I21.1278 J-83.7262
G3 X9.3616 Y-35.0028 I-2.2188 J-1.8213
G3 X9.6969 Y-33.9682 I-1.6115 J1.0938
G2 X9.8721 Y-33.8897 I0.4375 J-0.7419
G2 X21.3985 Y-30.686 I65.2653 J-212.4736
G3 X21.4031 Y-30.6848 I-0.3627 J1.4555
G2 X21.7438 Y-30.6041 I2.8975 J-11.4746
G3 X21.8109 Y-30.5877 I-0.3241 J1.4646
G1 X28.2539 Y-28.8475
G3 X29.6667 Y-28.474 I-1.1678 J7.2763
G1 X30.2979 Y-28.6648
G3 X32.2316 Y-27.1998 I0.434 J1.4358
G3 X31.9999 Y-24.9004 I-14.2843 J-0.2781
G3 X31.9934 Y-24.8668 I-1.4754 J-0.2706
G3 X30.3807 Y-17.9635 I-137.4983 J-28.4799
G3 X30.3789 Y-17.9566 I-1.4516 J-0.378
G3 X28.9769 Y-12.6881 I-4359.8348 J-1157.3942
G3 X28.9802 Y-12.6907 I3.0843 J3.9101
G3 X31.4077 Y-11.4753 I0.928 J1.1785
G3 X30.7345 Y-2.7584 I-83.4285 J-2.0592
G3 X30.7203 Y-2.6698 I-1.4874 J-0.1937
G2 X30.5903 Y-1.4901 I7.3348 J1.4051
G3 X29.5083 Y0.0989 I-1.6868 J0.0144
G3 X27.9791 Y0.5051 I-2.3242 J-5.6686
G3 X27.8279 Y0.5171 I-0.1946 J-1.4873
G3 X25.7192 Y-0.3568 I-0.0807 J-2.7861
G3 X24.57 Y0.1565 I-1.13 J-0.9865
G3 X19.8034 Y-0.435 I0.2786 J-21.7464
G3 X19.7544 Y-0.4475 I0.348 J-1.4591
G2 X17.593 Y-0.9428 I-6.8961 J25.1295
G3 X17.5188 Y-0.8593 I-6.4784 J-5.6763
G3 X17.1367 Y-0.5537 I-1.1153 J-1.0031
G3 X15.7504 Y-0.1837 I-1.4182 J-2.5314
G3 X13.0291 Y-0.2926 I-0.3924 J-24.253
G3 X13.0228 Y-0.2932 I0.144 J-1.4931
G3 X9.6849 Y-0.6834 I10.5256 J-104.5108
G3 X8.6941 Y-1.2555 I0.198 J-1.4869
G3 X7.8997 Y-2.7978 I3.8343 J-2.9506
G3 X7.8536 Y-2.9971 I1.435 J-0.4366
G3 X8.2446 Y-4.9837 I2.8896 J-0.463
G2 X8.6963 Y-5.8044 I-56.9866 J-31.9004
G3 X8.9749 Y-6.1708 I1.3193 J0.7138
G3 X8.3508 Y-6.1768 I-0.1758 J-14.2541
G3 X6.6788 Y-6.5276 I-0.0556 J-3.895
G3 X6.657 Y-6.5378 I0.6224 J-1.3648
G3 X6.1019 Y-6.9089 I0.9896 J-2.0808
G3 X5.7161 Y-7.4615 I1.0056 J-1.113
G3 X5.1619 Y-10.2282 I7.1067 J-2.8625
G3 X5.1575 Y-11.1156 I16.5232 J-0.5258
G3 X5.2935 Y-11.7076 I1.4996 J0.0328
G1 X5.8797 Y-12.987
G1 X4.9274 Y-13.7359
G3 X4.3735 Y-15.1519 I0.9273 J-1.1791
G1 X6.034 Y-25.5311
G3 X6.5038 Y-26.4019 I1.4812 J0.237
G3 X6.0243 Y-28.0322 I0.9462 J-1.1639
G2 X6.6192 Y-29.9864 I-47.074 J-15.3991
G2 X6.6149 Y-30.6561 I-1.33 J-0.3263
G3 X5.4925 Y-34.0972 I166.368 J-56.1744
G3 X6.2536 Y-35.8899 I1.4308 J-0.4505
G3 X5.6214 Y-37.1271 I680.5516 J-348.5116
G2 X5.3162 Y-37.1086 I0.1308 J4.692
G3 X3.7595 Y-38.111 I-0.1394 J-1.4935
G3 X2.9933 Y-40.4595 I64.3199 J-22.2841
G3 X2.9827 Y-40.4954 I1.4342 J-0.4393
G3 X3.515 Y-42.4598 I1.9163 J-0.5351
G2 X4.0181 Y-43.1735 I-1.9195 J-1.8874
G2 X4.8825 Y-46.3599 I-8.5496 J-4.0297
G3 X4.8828 Y-46.3634 I1.494 J0.1338
G2 X4.9303 Y-48.9804 I-17.735 J-1.6308
G3 X4.9294 Y-48.9984 I1.4977 J-0.0831
G2 X4.8139 Y-51.4215 I-286.9794 J12.4648
G1 X2.3633 Y-51.4421
G1 X2.4415 Y-51.089
G3 X-0.1199 Y-49.7415 I-1.4645 J0.3244
G1 X-1.5332 Y-51.2567
G2 X-2.1536 Y-51.3503 I-2.6478 J15.4464
G2 X-2.1277 Y-49.8653 I62.4293 J-0.3451
G3 X-2.127 Y-49.8256 I-1.4994 J0.044
G3 X-2.1279 Y1.1835 I-9002.0711 J25.3612
G2 X-2.0471 Y43.3959 I6901.6434 J7.9083
G3 X-1.8908 Y42.776 I194.1193 J48.6223
G3 X-1.8823 Y42.7438 I1.4539 J0.3691
G3 X-0.4613 Y40.3334 I5.2069 J1.4455
G3 X-0.3058 Y40.2003 I1.0509 J1.0703
G2 X0.8982 Y39.2757 I-29.6726 J-39.8831
G1 X0.0819 Y38.5821
G3 X0.1238 Y36.2616 I0.9713 J-1.1431
G3 X1.9087 Y35.4733 I2.4209 J3.0669
G2 X1.3741 Y34.3058 I-22.9441 J9.7993
G3 X1.3378 Y34.2258 I1.3473 J-0.6594
G3 X1.0273 Y31.2893 I4.7435 J-1.9863
G3 X1.1045 Y31.0199 I1.4742 J0.2772
G3 X2.459 Y27.5939 I480.8634 J188.1232
G3 X2.7423 Y27.1411 I1.393 J0.5564
G3 X3.3703 Y26.6187 I2.1816 J1.9841
G3 X4.8253 Y25.7298 I10.5693 J15.6631
G3 X4.0996 Y24.3801 I0.773 J-1.2855
G3 X4.805 Y13.9485 I211.3561 J9.0514
G3 X4.8082 Y13.9171 I1.4936 J0.1381
G3 X5.6364 Y9.2051 I39.1755 J4.4572
G3 X6.1334 Y8.4029 I1.4589 J0.3488
G3 X8.2479 Y7.0241 I6.858 J8.2061
G3 X9.4379 Y6.503 I2.1271 J3.2387
G3 X9.1309 Y5.0038 I1.1104 J-1.0084
G3 X10.0599 Y3.5668 I3.3931 J1.1749
G3 X10.3732 Y3.3398 I1.0293 J1.0911
G3 X12.1397 Y3.0307 I1.343 J2.4721
G2 X15.7746 Y3.0511 I1.9235 J-18.8611
G3 X15.8978 Y3.045 I0.1354 J1.4939
G3 X17.8584 Y3.3512 I0.0499 J6.1121
G3 X17.9646 Y3.3906 I-0.4689 J1.4248
G3 X19.0819 Y4.0739 I-1.6227 J3.9087
G2 X20.3307 Y4.7237 I2.2653 J-2.8288
G3 X22.4836 Y6.6162 I-0.2491 J2.4541
G3 X23.5244 Y6.9331 I0.1134 J1.4957
G1 X23.7889 Y7.1411
G1 X23.8735 Y7.0663
G3 X24.6423 Y6.7076 I0.9928 J1.1244
G3 X24.3358 Y6.2187 I1.3781 J-1.2045
G3 X24.2438 Y5.9177 I1.3806 J-0.5865
G3 X24.2292 Y5.8392 I5.1348 J-0.9955
G3 X24.1631 Y5.3163 I2.2421 J-0.5493
G3 X24.2003 Y4.1855 I5.2156 J-0.3941
G3 X25.5656 Y2.9016 I1.485 J0.2113
G1 X28.8711 Y2.6366
G3 X30.47 Y3.8819 I0.1198 J1.4952
G1 X31.3581 Y9.1376
G3 X29.7277 Y10.8799 I-1.479 J0.2499
G3 X27.1753 Y10.2576 I0.9637 J-9.4982
G3 X27.0643 Y10.2187 I0.9564 J-2.9059
G2 X27.1842 Y10.4772 I47.7916 J-21.996
G2 X27.5276 Y11.1986 I414.2048 J-196.744
G3 X27.1942 Y12.944 I-1.3538 J0.6459
G3 X27.3413 Y12.9906 I-14.94 J47.396
G3 X28.8255 Y13.6892 I-0.5856 J3.1704
G3 X29.2002 Y14.1606 I-0.963 J1.15
G3 X29.7515 Y15.2598 I-120.181 J60.9667
G3 X31.8017 Y20.7767 I-16.4847 J9.2654
G3 X32.6668 Y24.8198 I-214.9616 J48.1114
G3 X31.8254 Y26.4819 I-1.4697 J0.3001
G3 X29.9857 Y27.1971 I-6.7333 J-14.5975
G3 X29.9734 Y27.2009 I-0.4566 J-1.4288
G3 X24.6556 Y28.493 I-13.002 J-41.9237
G2 X19.5418 Y29.5447 I58.2972 J296.4317
G3 X10.8708 Y31.444 I-47.8597 J-197.7546
G3 X9.59 Y31.6907 I-10.4712 J-50.9065
G0 Z3.0
G0 X33.8405 Y24.3629
G0 Z-0.5
G1 F300.0 Z-3.0
G3 F800.0 X33.7764 Y23.9397 I1.4359 J-0.4339
G1 X33.6971 Y12.7931
G3 X35.0812 Y11.2869 I1.5 J-0.0107
G1 X37.1679 Y11.1254
G3 X36.7354 Y10.4024 I1.0192 J-1.1006
G3 X36.6065 Y9.8084 I7.2118 J-1.8762
G2 X34.3028 Y8.9525 I-15.1899 J37.3569
G3 X33.2874 Y7.6572 I0.4793 J-1.4214
G3 X33.2212 Y5.7353 I19.3017 J-1.6276
G3 X33.3539 Y4.7961 I3.6783 J0.0408
G3 X33.6272 Y4.0957 I2.8215 J0.6974
G3 X33.6298 Y4.0905 I3.2723 J1.6804
G3 X33.6848 Y3.993 I1.3333 J0.6873
G3 X33.7784 Y3.8498 I2.5709 J1.5783
G3 X34.4561 Y3.1501 I2.397 J1.6437
G3 X35.7004 Y2.6061 I1.7996 J2.4212
G3 X36.612 Y2.4602 I1.2566 J4.9306
G3 X37.4984 Y2.4774 I0.3728 J3.6409
G3 X37.5029 Y2.4779 I-0.5414 J5.0593
G3 X37.574 Y2.4873 I-0.1609 J1.4913
G3 X39.1882 Y3.1788 I-0.5502 J3.5142
G3 X39.796 Y3.7576 I-2.2034 J2.9223
G2 X40.4107 Y4.3102 I2.6107 J-2.2855
G2 X42.5036 Y5.3504 I15.1033 J-27.765
G3 X47.6616 Y7.8312 I-34.5396 J78.4139
G3 X47.7883 Y7.9056 I-0.695 J1.3293
G3 X48.7531 Y8.3814 I-245.6988 J499.3977
G3 X50.1132 Y8.8902 I-3.3586 J11.0511
G3 X51.0342 Y9.3515 I-4.7265 J10.5865
G2 X52.1154 Y9.8619 I19.0287 J-38.9101
G3 X52.2536 Y9.8738 I-0.0599 J1.4988
G3 X52.3591 Y9.8895 I-0.1676 J1.4906
G3 X53.5326 Y10.2228 I-0.8119 J5.0908
G3 X53.7623 Y10.3162 I-2.4178 J6.2799
G3 X55.1374 Y11.1084 I-1.8314 J4.7683
G3 X55.2141 Y11.1715 I-0.9141 J1.1893
G3 X56.9322 Y14.0464 I-3.2833 J3.913
G3 X56.9832 Y14.2775 I-5.499 J1.3353
G3 X56.9906 Y14.3174 I-1.4712 J0.2927
G3 X57.0047 Y14.401 I-15.6575 J2.6774
G3 X57.2178 Y16.7865 I-11.5028 J2.23
G3 X57.2179 Y16.9925 I-78.1352 J0.1252
G3 X57.2178 Y17.0394 I-15.8847 J0.0023
G3 X57.1683 Y19.696 I-78.1352 J-0.1277
G3 X56.0049 Y21.1045 I-1.499 J-0.0535
G2 X52.35 Y21.9627 I85.4843 J372.2769
G2 X49.2665 Y22.7413 I49.2808 J201.6709
G3 X45.2272 Y23.7223 I-29.6545 J-113.292
G3 X40.2023 Y24.7337 I-20.1817 J-87.2784
G3 X38.7651 Y24.9812 I-20.5904 J-115.2844
G3 X35.422 Y25.422 I-8.1773 J-49.12
G3 X33.8405 Y24.3629 I-0.1456 J-1.4929
G0 Z3.0
G0 X61.4847 Y17.9262
G0 Z1.0
G1 F300.0 Z-1.5
G3 F800.0 X61.4523 Y17.4447 I1.4609 J-0.3402
G1 X61.8309 Y13.4436
G3 X62.2621 Y12.5257 I1.4933 J0.1413
G3 X61.4684 Y11.6936 I0.6057 J-1.3723
G3 X61.1786 Y10.7176 I5.9667 J-2.3032
G3 X61.1772 Y10.7111 I1.4673 J-0.3113
G3 X61.1399 Y10.5213 I8.8515 J-1.8367
G3 X61.8123 Y5.105 I8.3735 J-1.7104
G3 X63.2704 Y4.2592 I1.3516 J0.6504
G3 X65.7201 Y4.7495 I-0.7027 J9.8761
G3 X66.3679 Y4.9605 I-3.8893 J13.0396
G3 X66.3704 Y4.9614 I-0.5001 J1.4142
G3 X66.9757 Y5.1818 I-14.2427 J40.0465
G3 X72.0915 Y7.4843 I-12.8584 J35.4042
G3 X72.1814 Y7.5373 I-0.7158 J1.3182
G3 X76.0086 Y10.7594 I-10.1559 J15.9471
G3 X76.0424 Y10.7978 I-1.1094 J1.0096
G3 X76.2234 Y11.0114 I-86.0286 J73.0839
G3 X76.7214 Y11.6047 I-14.177 J12.4058
G3 X78.2135 Y13.4332 I-86.7076 J72.277
G3 X77.7746 Y15.678 I-1.172 J0.9361
G3 X76.0647 Y16.3721 I-3.6158 J-6.4543
G3 X75.9203 Y16.412 I-5.9314 J-21.152
G3 X75.5961 Y16.4981 I-2.721 J-9.5965
G3 X75.5828 Y16.5013 I-0.3604 J-1.4561
G3 X73.4549 Y16.9354 I-5.4495 J-21.2812
G2 X70.6752 Y17.4416 I24.3887 J141.8186
G2 X69.7365 Y17.6635 I6.3744 J29.0609
G2 X69.0051 Y17.8589 I15.4158 J59.1664
G2 X68.4175 Y18.0305 I8.0446 J28.6435
G1 X68.4174
G3 X63.0868 Y19.0793 I-7.8927 J-26.0436
G3 X61.4847 Y17.9262 I-0.1412 J-1.4933
G1 F300.0 Z-3.0
G3 F800.0 X61.4523 Y17.4447 I1.4609 J-0.3402
G1 X61.8309 Y13.4436
G3 X62.2621 Y12.5257 I1.4933 J0.1413
G3 X61.4684 Y11.6936 I0.6057 J-1.3723
G3 X61.1786 Y10.7176 I5.9667 J-2.3032
G3 X61.1772 Y10.7111 I1.4673 J-0.3113
G3 X61.1399 Y10.5213 I8.8515 J-1.8367
G3 X61.8123 Y5.105 I8.3735 J-1.7104
G3 X63.2704 Y4.2592 I1.3516 J0.6504
G3 X65.7201 Y4.7495 I-0.7027 J9.8761
G3 X66.3679 Y4.9605 I-3.8893 J13.0396
G3 X66.3704 Y4.9614 I-0.5001 J1.4142
G3 X66.9757 Y5.1818 I-14.2427 J40.0465
G3 X72.0915 Y7.4843 I-12.8584 J35.4042
G3 X72.1814 Y7.5373 I-0.7158 J1.3182
G3 X76.0086 Y10.7594 I-10.1559 J15.9471
G3 X76.0424 Y10.7978 I-1.1094 J1.0096
G3 X76.2234 Y11.0114 I-86.0286 J73.0839
G3 X76.7214 Y11.6047 I-14.177 J12.4058
G3 X78.2135 Y13.4332 I-86.7076 J72.277
G3 X77.7746 Y15.678 I-1.172 J0.9361
G3 X76.0647 Y16.3721 I-3.6158 J-6.4543
G3 X75.9203 Y16.412 I-5.9314 J-21.152
G3 X75.5961 Y16.4981 I-2.721 J-9.5965
G3 X75.5828 Y16.5013 I-0.3604 J-1.4561
G3 X73.4549 Y16.9354 I-5.4495 J-21.2812
G2 X70.6752 Y17.4416 I24.3887 J141.8186
G2 X69.7365 Y17.6635 I6.3744 J29.0609
G2 X69.0051 Y17.8589 I15.4158 J59.1664
G2 X68.4175 Y18.0305 I8.0446 J28.6435
G1 X68.4174
G3 X63.0868 Y19.0793 I-7.8927 J-26.0436
G3 X61.4847 Y17.9262 I-0.1412 J-1.4933
G0 Z3.0
G0 X13.6628 Y-6.2478
G0 Z1.0
G1 F300.0 Z-1.5
G2 F800.0 X13.1623 Y-6.3687 I-2.0321 J7.3177
G2 X11.1732 Y-6.3688 I-0.995 J6.2515
G3 X10.8729 Y-6.3214 I-2.374 J-14.0561
G3 X11.4619 Y-5.4884 I-0.8573 J1.2309
G1 X11.4837 Y-5.4089
G1 X13.6628 Y-6.2478
G1 F300.0 Z-3.0
G2 F800.0 X13.1623 Y-6.3687 I-2.0321 J7.3177
G2 X11.1732 Y-6.3688 I-0.995 J6.2515
G3 X10.8729 Y-6.3214 I-2.374 J-14.0561
G3 X11.4619 Y-5.4884 I-0.8573 J1.2309
G1 X11.4837 Y-5.4089
G1 X13.6628 Y-6.2478
G0 Z3.0
G0 X20.5405 Y2.1685
G0 Z-0.5
G1 F300.0 Z-3.0
G3 F800.0 X20.5979 Y2.216 I-4.1986 J5.1308
G2 X20.8814 Y2.3797 I0.7493 J-0.9709
G3 X22.1427 Y2.7717 I-0.7998 J4.7981
G3 X22.3242 Y2.4236 I3.5427 J1.6251
G3 X20.5405 Y2.1685 I2.5245 J-24.0134
G0 Z3.0
G0 X28.8685 Y11.9705
G0 Z-0.5
G1 F300.0 Z-3.0
G3 F800.0 X28.8391 Y12.261 I-2.6947 J-0.1259
G3 X29.5944 Y12.771 I-2.0834 J3.9
G3 X30.2682 Y13.6188 I-1.7319 J2.0682
G3 X30.8109 Y14.7004 I-121.2491 J61.5085
G3 X32.5422 Y18.7998 I-17.544 J9.8248
G1 X32.4995 Y12.8017
G3 X34.3299 Y10.228 I2.6975 J-0.0192
G2 X33.9201 Y10.0873 I-12.9133 J36.9372
G3 X32.5561 Y9.055 I0.862 J-2.5562
G3 X29.6068 Y12.0714 I-2.677 J0.3326
G3 X28.8685 Y11.9705 I1.0846 J-10.6897
G0 Z3.0
G0 X34.1295 Y-0.692
G0 Z-0.5
G1 F300.0 Z-3.0
G3 F800.0 X34.9173 Y-0.9062 I2.1262 J6.2633
G3 X35.3203 Y-0.9935 I2.0396 J8.4429
G3 X35.2638 Y-1.3992 I5.0164 J-0.906
G3 X34.2976 Y-2.2612 I4.6348 J-6.1673
G3 X34.2536 Y-1.993 I-5.0506 J-0.6909
G2 X34.1877 Y-1.4218 I3.8014 J0.7282
G3 X34.1295 Y-0.692 I-5.2842 J-0.054
G1 F300.0 X32.9428 Y-0.87
G3 F800.0 X31.7873 Y1.4167 I-4.0393 J-0.6058
G3 X32.2241 Y1.9552 I-2.7963 J2.7151
G3 X33.0318 Y1.2215 I3.9513 J3.5384
G3 X35.1795 Y0.265 I3.2239 J4.3498
G3 X36.4098 Y0.071 I1.7775 J7.2717
G3 X36.9549 Y0.0437 I0.575 J6.0302
G3 X36.8174 Y-0.2246 I4.4946 J-2.4727
G3 X36.4403 Y-1.9947 I3.5194 J-1.6749
G3 X36.2939 Y-2.1411 I2.682 J-2.8281
G3 X36.1769 Y-2.2195 I2.1095 J-3.2774
G3 X34.8405 Y-3.4606 I3.7217 J-5.347
G3 X34.7272 Y-3.6073 I3.0261 J-2.4564
G3 X33.4984 Y-5.4615 I18.2775 J-13.4471
G3 X33.457 Y-5.5327 I3.3505 J-1.9913
G3 X33.112 Y-2.4488 I-85.4778 J-8.0017
G3 X33.075 Y-2.2188 I-3.865 J-0.5033
G2 X32.9879 Y-1.4499 I4.98 J0.954
G3 X32.9428 Y-0.87 I-4.0844 J-0.0259
G0 Z3.0
G0 X31.9798 Y-13.2402
G0 Z-0.5
G1 F300.0 Z-3.0
G1 F800.0 X31.9207 Y-19.1584
G3 X31.5397 Y-17.6617 I-137.4257 J-34.1883
G3 X31.5364 Y-17.6494 I-2.6106 J-0.6798
G3 X30.598 Y-14.1202 I-4360.9923 J-1157.7015
G3 X31.9798 Y-13.2402 I-0.6898 J2.6079
G0 Z3.0
G0 X32.7002 Y-22.4602
G0 Z-0.5
G1 F300.0 Z-3.0
G3 F800.0 X33.3441 Y-22.9345 I1.9043 J1.9106
G1 X32.8909 Y-23.3261
G3 X32.7002 Y-22.4602 I-138.3959 J-30.0207
G0 Z3.0
G0 X2.5152 Y-26.2875
G0 Z-0.5
G1 F300.0 Z-3.0
G3 F800.0 X2.605 Y-29.1508 I4.9347 J-1.2783
G2 X2.9529 Y-30.2616 I-43.6547 J-14.2805
G3 X2.0609 Y-33.0168 I170.0301 J-56.5689
G3 X1.8298 Y-34.754 I4.8623 J-1.5309
G3 X1.5024 Y-35.0653 I3.347 J-3.848
G3 X1.5076 Y-20.0113 I-9005.7006 J10.6009
G1 X2.4815 Y-26.0994
G3 X2.5152 Y-26.2875 I5.0336 J0.8053
G0 Z3.0
G0 X2.6844 Y-3.539
G0 Z-0.5
G1 F300.0 Z-3.0
G3 F800.0 X2.6721 Y1.1931 I-9006.8826 J-20.9253
G2 X2.6688 Y5.0744 I6896.8434 J7.8988
G3 X3.0569 Y4.7216 I4.4265 J4.4795
G3 X4.5332 Y3.6297 I9.9346 J11.8874
G3 X4.5974 Y3.434 I6.0151 J1.8649
G3 X5.2169 Y2.0592 I7.9266 J2.7448
G3 X4.8919 Y1.6704 I4.666 J-4.2295
G3 X3.3098 Y-1.4014 I7.6364 J-5.8765
G3 X3.1164 Y-2.2381 I6.0249 J-1.8331
G3 X3.0226 Y-3.2284 I7.6268 J-1.222
G3 X2.8856 Y-3.349 I4.624 J-5.3902
G3 X2.6844 Y-3.539 I4.2218 J-4.6729
G1 F300.0 X3.5272 Y-4.3932
G3 F800.0 X2.379 Y-6.1173 I3.5803 J-3.6286
G3 X1.5651 Y-10.1468 I10.4438 J-4.2066
G3 X1.5607 Y-11.1943 I20.12 J-0.6071
G3 X1.6491 Y-12.0342 I5.0964 J0.1115
G3 X1.5004 Y-12.2643 I4.2056 J-2.8807
G3 X1.4721 Y1.1907 I-9005.6986 J-12.2001
G2 X1.4681 Y11.7674 I6898.0434 J7.9012
G3 X2.1375 Y8.3684 I42.5155 J6.6069
G3 X3.8264 Y5.6424 I4.9578 J1.1855
G3 X5.5709 Y4.3943 I9.165 J10.9666
G3 X5.7313 Y3.8266 I4.9774 J1.1003
G3 X6.7717 Y1.8678 I6.7927 J2.3521
G3 X5.8429 Y0.9385 I3.1111 J-4.0381
G3 X4.4579 Y-1.7507 I6.6854 J-5.1446
G3 X4.3013 Y-2.428 I4.8769 J-1.4838
G3 X4.2284 Y-3.8075 I6.4419 J-1.0322
G3 X3.6901 Y-4.2394 I3.4182 J-4.8111
G3 X3.5272 Y-4.3932 I3.4174 J-3.7825
G1 F300.0 X4.37 Y-5.2474
G3 F800.0 X3.4921 Y-6.5657 I2.7375 J-2.7744
G3 X2.7648 Y-10.1742 I9.3307 J-3.7582
G3 X2.7605 Y-11.168 I18.9203 J-0.5797
G3 X2.9571 Y-12.3081 I3.8967 J0.0853
G3 X2.006 Y-15.5306 I2.8975 J-2.6068
G1 X3.6665 Y-25.9099
G3 X3.7558 Y-26.3231 I3.8487 J0.6157
G3 X3.7455 Y-28.7777 I3.6942 J-1.2428
G2 X4.2105 Y-30.284 I-44.7953 J-14.6536
G3 X3.2055 Y-33.3771 I168.7724 J-56.5466
G3 X3.0992 Y-35.3015 I3.7177 J-1.1705
G3 X1.4917 Y-37.3254 I2.0776 J-3.3005
G3 X0.6985 Y-39.7566 I66.5876 J-23.0698
G3 X0.6712 Y-39.85 I3.729 J-1.1422
G3 X1.811 Y-44.1502 I4.2279 J-1.1806
G2 X1.8551 Y-44.2135 I-0.2155 J-0.1969
G2 X2.4921 Y-46.574 I-6.3866 J-2.9897
G3 X2.4929 Y-46.5831 I3.8844 J0.348
G2 X2.5366 Y-47.19 I-15.3451 J-1.411
G3 X0.2807 Y-46.9273 I-1.5596 J-3.5746
G3 X0.2721 Y1.1883 I-9004.4788 J22.4629
G2 X0.2897 Y26.5686 I6899.2434 J7.9035
G3 X0.9685 Y25.528 I3.5622 J1.5818
G3 X1.7212 Y24.8441 I3.9554 J3.5973
G3 X1.7042 Y24.2775 I3.877 J-0.3998
G3 X2.4175 Y13.7277 I213.7515 J9.154
G3 X2.426 Y13.646 I3.881 J0.359
G3 X3.3046 Y8.6475 I41.5577 J4.7283
G3 X4.5959 Y6.5632 I3.7907 J0.9064
G3 X6.6663 Y5.1462 I8.3955 J10.0458
G3 X6.8653 Y4.2193 I3.882 J0.3484
G3 X8.4147 Y1.8228 I5.6587 J1.9595
G3 X8.7324 Y1.5537 I2.6746 J2.8351
G3 X6.7939 Y0.2067 I1.1504 J-3.7239
G3 X5.6059 Y-2.0999 I5.7344 J-4.4128
G3 X5.4862 Y-2.6178 I3.7288 J-1.1345
G3 X5.5085 Y-4.4311 I5.257 J-0.8423
G3 X4.4946 Y-5.1298 I2.1381 J-4.1875
G3 X4.37 Y-5.2474 I2.6129 J-2.8921
G1 F300.0 X5.2128 Y-6.1016
G3 F800.0 X4.6052 Y-7.014 I1.8947 J-1.9202
G3 X3.9645 Y-10.2014 I8.2176 J-3.3099
G3 X3.9602 Y-11.1418 I17.7206 J-0.5525
G3 X4.2047 Y-12.2064 I2.697 J0.059
G1 X4.3981 Y-12.6285
G1 X4.1871 Y-12.7945
G3 X3.191 Y-15.341 I1.6676 J-2.1204
G1 X4.8514 Y-25.7203
G3 X5.037 Y-26.3599 I2.6637 J0.4261
G3 X4.8861 Y-28.4046 I2.413 J-1.206
G2 X5.4584 Y-30.2824 I-45.9358 J-15.0267
G2 X5.4598 Y-30.3337 I-0.1691 J-0.0303
G3 X4.3501 Y-33.7375 I167.5231 J-56.4969
G3 X4.6244 Y-35.9592 I2.5731 J-0.8101
G3 X2.6256 Y-37.7182 I0.5524 J-2.6429
G3 X1.8459 Y-40.1081 I65.4538 J-22.677
G3 X1.827 Y-40.1727 I2.5816 J-0.7907
G3 X2.6669 Y-43.3089 I3.0721 J-0.8578
G2 X2.9357 Y-43.6916 I-1.0714 J-1.0382
G2 X3.6873 Y-46.4669 I-7.4672 J-3.5117
G3 X3.6878 Y-46.4733 I2.6892 J0.2409
G2 X3.7321 Y-48.914 I-16.5401 J-1.5209
G3 X3.7305 Y-48.9464 I2.6959 J-0.1495
G2 X3.6718 Y-50.2311 I-285.7805 J12.4128
G1 X3.6238 Y-50.2315
G3 X-0.9243 Y-48.8476 I-2.6468 J-0.5331
G3 X-0.9279 Y1.1859 I-9003.2738 J24.3833
G2 X-0.8816 Y35.5558 I6900.4434 J7.9059
G3 X-0.6197 Y35.3197 I1.9348 J1.8832
G3 X0.2639 Y34.7588 I3.1645 J4.0088
G3 X0.2332 Y34.6884 I2.4576 J-1.1124
G3 X-0.1497 Y31.068 I5.8481 J-2.4489
G3 X-0.0107 Y30.5836 I2.6511 J0.4984
G3 X1.3468 Y27.1497 I481.9787 J188.5595
G3 X1.8563 Y26.3354 I2.5051 J1.0007
G3 X2.7184 Y25.6139 I3.0676 J2.7899
G3 X3.0692 Y25.383 I11.2213 J16.6679
G3 X2.9031 Y24.3288 I2.529 J-0.9387
G3 X3.6124 Y13.8382 I212.5526 J9.1026
G3 X3.6183 Y13.7817 I2.6861 J0.2484
G3 X4.4717 Y8.9265 I40.3654 J4.5926
G3 X5.3654 Y7.484 I2.6236 J0.6273
G3 X7.6541 Y5.9819 I7.626 J9.125
G3 X7.8742 Y5.8497 I2.7209 J4.2809
G3 X7.9992 Y4.6119 I2.6741 J-0.3551
G3 X9.2381 Y2.6957 I4.5248 J1.5668
G3 X9.8016 Y2.2875 I1.8511 J1.9622
G3 X12.2877 Y1.8419 I1.9147 J3.5245
G2 X15.6665 Y1.8584 I1.7756 J-17.6724
G3 X15.888 Y1.8475 I0.2435 J2.6866
G3 X18.2327 Y2.2136 I0.0597 J7.3096
G3 X18.4238 Y2.2846 I-0.8433 J2.5624
G3 X19.8419 Y3.1481 I-2.0819 J5.0148
G2 X20.5823 Y3.5478 I1.5053 J-1.9031
G3 X22.9507 Y4.8983 I-0.5006 J3.63
G3 X23.0147 Y4.0168 I6.428 J0.0239
G3 X25.4699 Y1.7078 I2.6707 J0.3799
G1 X26.7985 Y1.6013
G3 X25.6668 Y1.1297 I0.9487 J-3.8703
G3 X24.5547 Y1.354 I-1.0775 J-2.473
G3 X19.5255 Y0.73 I0.294 J-22.9439
G3 X19.4375 Y0.7074 I0.6258 J-2.624
G2 X17.95 Y0.348 I-6.5792 J23.9746
G3 X17.722 Y0.4911 I-1.5464 J-2.2103
G3 X15.7669 Y1.0138 I-2.0035 J-3.5762
G3 X12.9141 Y0.8995 I-0.4089 J-25.4504
G3 X12.9028 Y0.8984 I0.259 J-2.6851
G3 X9.5268 Y0.5037 I10.6457 J-105.7024
G3 X7.745 Y-0.5251 I0.356 J-2.674
G3 X6.7539 Y-2.4492 I4.7834 J-3.681
G3 X6.6711 Y-2.8077 I2.5808 J-0.7852
G3 X6.9818 Y-5.1511 I4.0722 J-0.6525
G3 X6.1819 Y-5.438 I1.3134 J-4.9208
G3 X6.1426 Y-5.4562 I1.1193 J-2.4544
G3 X5.299 Y-6.0202 I1.504 J-3.1624
G3 X5.2128 Y-6.1016 I1.8084 J-2.0016
G0 Z3.0
G0 X9.8018 Y32.8694
G0 Z-0.5
G1 F300.0 Z-3.0
G3 F800.0 X8.9193 Y33.0203 I-9.4022 J-52.3319
G3 X8.8979 Y33.1074 I-2.6301 J-0.5998
G1 X9.8018 Y32.8694
G0 Z3.0
G0 X33.4213 Y26.6463
G0 Z-0.5
G1 F300.0 Z-3.0
G3 F800.0 X34.2474 Y26.4227 I258.4905 J953.1964
G3 X33.7025 Y26.1199 I1.029 J-2.4936
G3 X33.4213 Y26.6463 I-2.5054 J-1.0001
G0 Z3.0
G0 X54.3807 Y5.4395
G0 Z-0.5
G1 F300.0 Z-3.0
G3 F800.0 X55.3167 Y5.769 I-2.8335 J9.5408
G3 X55.5692 Y5.8713 I-4.202 J10.7337
G3 X56.4169 Y6.253 I-3.6384 J9.2132
G3 X56.6899 Y5.1204 I13.0965 J2.5579
G3 X54.5546 Y5.4433 I-1.9954 J-5.9731
G1 X54.3807 Y5.4395
G1 F300.0 X54.4074 Y4.2398
G1 F800.0 X51.3358 Y4.1715
G3 X50.2254 Y4.0237 I0.1133 J-5.0963
G3 X49.4484 Y3.791 I2.0067 J-8.1152
G3 X48.2339 Y4.0674 I-2.1549 J-6.6626
G3 X48.2135 Y4.0701 I-0.6846 J-5.0514
G3 X49.3284 Y4.643 I-40.2495 J79.6941
G3 X49.5159 Y4.7462 I-2.3617 J4.5175
G3 X50.0999 Y5.0341 I-247.4264 J502.5572
G3 X51.5814 Y5.6058 I-4.7054 J14.3984
G3 X52.6942 Y6.1584 I-6.1947 J13.8708
G2 X53.1467 Y6.375 I17.3687 J-35.717
G3 X54.8707 Y6.8831 I-1.5995 J8.6053
G3 X55.117 Y6.9829 I-3.7559 J9.6196
G3 X57.3687 Y8.2862 I-3.1862 J8.1016
G3 X57.3804 Y8.2954 I-3.1453 J4.0115
G3 X58.5705 Y3.545 I12.133 J0.5155
G3 X59.2244 Y2.5205 I4.5934 J2.2104
G3 X58.8859 Y2.0487 I3.9658 J-3.2028
G3 X54.5812 Y4.2436 I-4.1913 J-2.9014
G1 X54.4074 Y4.2398
G1 F300.0 X54.4341 Y3.0401
G1 F800.0 X51.3624 Y2.9718
G3 X50.5135 Y2.8588 I0.0866 J-3.8966
G3 X49.4618 Y2.5104 I1.7186 J-6.9503
G3 X48.0728 Y2.8782 I-2.1683 J-5.382
G3 X48.0166 Y2.8854 I-0.5235 J-3.8623
G3 X45.3477 Y2.9438 I-1.63 J-13.4966
G2 X43.4014 Y2.8864 I-2.4531 J50.1631
G3 X42.9082 Y2.8945 I-0.4313 J-11.1306
G2 X43.4806 Y3.1608 I12.6058 J-26.3493
G3 X48.7724 Y5.7065 I-35.5166 J80.6034
G3 X48.9478 Y5.804 I-1.8058 J3.4541
G3 X49.6471 Y6.1489 I-246.8583 J501.4993
G3 X51.0916 Y6.7013 I-4.2526 J13.2837
G3 X52.1421 Y7.2243 I-5.7049 J12.7753
G2 X52.7818 Y7.5292 I17.9208 J-36.7829
G3 X54.4245 Y7.9971 I-1.2346 J7.4511
G3 X54.6649 Y8.0946 I-3.3098 J8.5056
G3 X56.6238 Y9.2271 I-2.734 J6.9899
G3 X56.7736 Y9.3503 I-2.4005 J3.0707
G3 X59.2714 Y13.5195 I-4.8428 J5.7342
G3 X59.3347 Y13.8097 I-7.8382 J1.8622
G3 X59.3539 Y13.9133 I-3.8227 J0.7605
G3 X59.3647 Y13.9774 I-18.0208 J3.0815
G3 X59.3696 Y14.0031 I-13.8629 J2.6536
G1 X59.444 Y13.2177
G3 X59.4634 Y13.051 I3.8803 J0.3672
G3 X59.2317 Y12.557 I3.4044 J-1.8976
G3 X58.8332 Y11.2151 I8.2035 J-3.1666
G3 X58.8296 Y11.1982 I3.8128 J-0.8088
G3 X58.7865 Y10.9796 I11.1991 J-2.3239
G3 X59.6519 Y4.0653 I10.7269 J-2.1687
G3 X60.9794 Y2.5276 I3.5121 J1.6901
G3 X59.3685 Y-1.4482 I2.2108 J-3.21
G3 X59.1786 Y-1.8537 I3.429 J-1.853
G3 X58.653 Y-0.7838 I-21.3582 J-9.8289
G3 X58.4743 Y0.0985 I-9.5439 J-1.4746
G3 X54.6079 Y3.0439 I-3.7797 J-0.9512
G1 X54.4341 Y3.0401
G0 Z3.0
G0 X74.4236 Y4.7036
G0 Z-0.5
G1 F300.0 Z-3.0
G3 F800.0 X76.2383 Y6.0365 I-12.398 J18.7808
G3 X77.6234 Y2.6355 I5.0967 J0.0932
G3 X77.6056 Y2.6 I4.5465 J-2.3053
G3 X74.4236 Y4.7036 I-4.198 J-2.8918
G1 F300.0 X74.1844 Y3.5277
G3 F800.0 X73.0044 Y3.585 I-0.7769 J-3.8194
G1 X68.7142 Y3.1388
G3 X67.8606 Y2.9516 I0.4031 J-3.8767
G3 X67.8594 Y2.952 I-2.0419 J-6.0234
G3 X73.2356 Y5.3773 I-13.7421 J37.634
G3 X73.4693 Y5.515 I-1.8599 J3.4252
G3 X77.61 Y8.9591 I-11.4438 J17.9694
G1 X77.4453 Y6.3779
G3 X79.208 Y2.8637 I3.8897 J-0.2482
G3 X78.286 Y0.6558 I2.9619 J-2.5334
G3 X78.2673 Y0.003 I5.9212 J-0.4963
G3 X77.8358 Y-0.8453 I3.2323 J-2.178
G3 X77.4832 Y0.1 I-21.8658 J-7.6182
G3 X77.17 Y0.8632 I-23.7095 J-9.2854
G3 X77.1654 Y0.8737 I-3.5813 J-1.5381
G3 X76.8743 Y1.4895 I-9.4679 J-4.0993
G3 X74.1844 Y3.5277 I-3.4668 J-1.7813
G0 Z3.0
G0 X98.6163 Y2.549
G0 Z-0.5
G1 F300.0 Z-3.0
G3 F800.0 X98.8949 Y2.2908 I8.5003 J8.8901
G3 X98.7175 Y2.1698 I6.8418 J-10.2215
G3 X98.6163 Y2.549 I-26.731 J-6.9272
G1 F300.0 X97.4591 Y2.2314
G3 F800.0 X97.0137 Y3.6887 I-25.4726 J-6.9889
G3 X96.8434 Y4.1583 I-10.515 J-3.5486
G3 X97.6564 Y5.6328 I-12.8187 J8.0295
G3 X100.3948 Y2.6058 I9.4603 J5.8063
G1 X101.0304 Y2.1221
G3 X97.9688 Y-0.0017 I4.7062 J-10.0529
G3 X97.4591 Y2.2314 I-25.9823 J-4.7558
G1 F300.0 X96.3019 Y1.9139
G3 F800.0 X95.8767 Y3.305 I-24.3154 J-6.6714
G3 X95.4884 Y4.2813 I-9.378 J-3.1649
G3 X96.6599 Y6.3329 I-11.4637 J7.9065
G3 X96.6835 Y6.3826 I-8.9345 J4.2587
G3 X97.4363 Y8.4508 I-11.0622 J5.1978
G3 X97.5005 Y8.6998 I-11.6522 J3.1379
G3 X97.6296 Y8.6096 I742.1015 J1062.8787
G3 X101.1215 Y3.5608 I9.4871 J2.8294
G1 X103.0568 Y2.0881
G3 X103.5548 Y1.7329 I5.9952 J7.8783
G1 X103.1973 Y1.638
G3 X97.0707 Y-3.1441 I2.5393 J-9.5688
G3 X96.8081 Y-0.3265 I-15.126 J0.0111
G3 X96.3019 Y1.9139 I-24.8216 J-4.431
G1 F300.0 X95.1446 Y1.5964
G3 F800.0 X94.7397 Y2.9213 I-23.1581 J-6.3539
G3 X94.0849 Y4.3943 I-8.241 J-2.7812
G3 X95.5739 Y6.8434 I-10.0603 J7.7935
G3 X95.5974 Y6.8929 I-7.8485 J3.7482
G3 X96.2769 Y8.7605 I-9.9761 J4.6874
G3 X96.6212 Y10.779 I-10.4928 J2.8282
G3 X98.6724 Y9.3453 I742.9808 J1060.7995
G3 X101.8482 Y4.5157 I8.4443 J2.0938
G1 X103.7834 Y3.043
G3 X109.4778 Y1.2768 I5.2685 J6.9234
G2 X109.8188 Y1.0346 I-44.612 J-63.1737
G1 X109.716 Y0.9844
G3 X105.3337 Y0.9634 I-2.1508 J-8.43
G1 X103.5051 Y0.4782
G3 X97.5711 Y-4.9283 I2.2315 J-8.4089
G1 X95.5442 Y-5.9385
G3 X95.8281 Y-4.2216 I-9.261 J2.4136
G3 X95.6278 Y-0.5433 I-13.8834 J1.0886
G3 X95.1446 Y1.5964 I-23.6413 J-4.2142
G1 F300.0 X93.9874 Y1.2789
G3 F800.0 X93.6027 Y2.5376 I-22.0009 J-6.0364
G3 X92.6045 Y4.4915 I-7.104 J-2.3974
G3 X94.488 Y7.3541 I-8.5798 J7.6963
G3 X94.5113 Y7.4032 I-6.7625 J3.2376
G3 X95.1176 Y9.0701 I-8.8901 J4.1771
G3 X95.4074 Y12.5096 I-9.3335 J2.5186
G3 X95.931 Y12.7288 I-2.6325 J7.0228
G3 X99.7444 Y10.0607 I743.671 J1058.8497
G3 X102.5749 Y5.4707 I7.3723 J1.3784
G1 X104.5101 Y3.998
G3 X109.8162 Y2.5054 I4.5418 J5.9684
G2 X111.8715 Y1.021 I-44.9504 J-64.4023
G1 X112.1228 Y0.8231
G1 X109.8293 Y-0.2954
G3 X105.6415 Y-0.1964 I-2.2641 J-7.1501
G1 X103.8129 Y-0.6817
G3 X98.5515 Y-5.7805 I1.9237 J-7.2491
G1 X95.4545 Y-7.324
G3 X94.0707 Y-6.8894 I-2.9285 J-6.9046
G3 X94.0386 Y-6.6739 I-8.5578 J-1.1633
G3 X94.6315 Y-4.131 I-7.7554 J3.1489
G3 X94.4476 Y-0.7602 I-12.6868 J0.9981
G3 X93.9874 Y1.2789 I-22.4611 J-3.9972
G1 F300.0 X92.8302 Y0.9614
G3 F800.0 X92.4657 Y2.1538 I-20.8437 J-5.7189
G3 X90.9916 Y4.553 I-5.967 J-2.0137
G3 X91.2231 Y4.7846 I-8.4901 J8.7162
G3 X93.4021 Y7.8649 I-7.1984 J7.4031
G3 X93.4252 Y7.9135 I-5.6767 J2.7267
G3 X93.9582 Y9.3798 I-7.804 J3.6668
G3 X94.0629 Y13.3655 I-8.1741 J2.2089
G3 X96.0203 Y14.1327 I-1.288 J6.1669
G3 X100.5332 Y10.9737 I743.5816 J1057.4458
G2 X100.8563 Y10.7338 I-18.0976 J-24.7183
G3 X103.3016 Y6.4256 I6.2604 J0.7052
G1 X105.2368 Y4.9529
G3 X110.1171 Y3.7571 I3.8151 J5.0135
G2 X112.6019 Y1.9732 I-45.2513 J-65.6539
G1 X114.3678 Y0.583
G1 X109.9021 Y-1.595
G3 X105.9493 Y-1.3563 I-2.3369 J-5.8505
G1 X104.1207 Y-1.8416
G3 X99.5765 Y-6.6104 I1.6159 J-6.0892
G1 X95.4682 Y-8.6579
G3 X92.9486 Y-7.9428 I-2.9423 J-5.5707
G3 X92.7923 Y-6.5324 I-7.4357 J-0.1099
G3 X93.4349 Y-4.0406 I-6.5091 J3.0075
G3 X93.2674 Y-0.9773 I-11.4902 J0.9076
G3 X92.8302 Y0.9614 I-21.2808 J-3.7801
G1 F300.0 X91.6729 Y0.6439
G3 F800.0 X91.3287 Y1.7701 I-19.6864 J-5.4014
G3 X89.1195 Y4.5124 I-4.83 J-1.63
G3 X89.5565 Y4.8717 I-11.627 J14.5895
G3 X90.3746 Y5.6334 I-7.0549 J8.3975
G3 X92.3164 Y8.3761 I-6.35 J6.5543
G3 X92.3391 Y8.4238 I-4.591 J2.2155
G3 X92.7988 Y9.6894 I-6.7179 J3.1565
G3 X92.5473 Y14.2481 I-7.0147 J1.8993
G3 X92.4676 Y14.4393 I-4.744 J-1.8654
G3 X92.6837 Y14.4332 I0.4081 J10.7298
G3 X96.0214 Y15.5992 I0.0912 J5.0992
G3 X101.2307 Y11.9503 I743.5805 J1055.9793
G2 X102.0158 Y11.3571 I-18.795 J-25.6949
G3 X102.0216 Y11.2164 I23.8689 J0.9023
G3 X104.0283 Y7.3805 I5.0951 J0.2227
G1 X105.9635 Y5.9079
G3 X110.3684 Y5.0392 I3.0884 J4.0585
G2 X113.3324 Y2.9254 I-45.5027 J-66.9361
G1 X116.6129 Y0.3428
G1 X109.9197 Y-2.9216
G3 X106.2571 Y-2.5162 I-2.3545 J-4.524
G1 X104.4285 Y-3.0014
G3 X100.6682 Y-7.364 I1.3081 J-4.9294
G1 X100.6631 Y-7.4097
G1 X95.4145 Y-10.0255
G3 X91.6363 Y-9.2068 I-2.8885 J-4.2032
G3 X91.7184 Y-8.6732 I-4.9902 J1.0408
G3 X91.5228 Y-6.387 I-6.2056 J0.6205
G3 X92.2383 Y-3.9503 I-5.2396 J2.862
G3 X92.0872 Y-1.1946 I-10.2936 J0.8173
G3 X91.6729 Y0.6439 I-20.1007 J-3.5629
G1 F300.0 X90.5157 Y0.3264
G3 F800.0 X90.1917 Y1.3864 I-18.5292 J-5.0839
G3 X86.6698 Y4.034 I-3.693 J-1.2463
G1 X86.3305 Y4.0489
G3 X88.7826 Y5.7888 I-8.838 J15.0531
G3 X89.5263 Y6.4824 I-6.281 J7.4805
G3 X91.2309 Y8.8879 I-5.5016 J5.7054
G3 X91.253 Y8.9342 I-3.5055 J1.7038
G3 X91.6395 Y9.9991 I-5.6318 J2.6462
G3 X91.4306 Y13.8089 I-5.8554 J1.5896
G3 X91.0467 Y14.5441 I-3.6273 J-1.4263
G1 X91.4683 Y15.7359
G3 X92.7052 Y15.633 I1.4074 J9.4332
G3 X95.8772 Y17.169 I0.0697 J3.8994
G3 X101.9279 Y12.927 I743.7248 J1054.4095
G2 X103.2009 Y11.9483 I-19.4923 J-26.6717
G3 X103.2204 Y11.2688 I22.6838 J0.311
G3 X104.7549 Y8.3355 I3.8963 J0.1703
G1 X106.6902 Y6.8628
G3 X110.5488 Y6.365 I2.3617 J3.1036
G2 X114.063 Y3.8775 I-45.683 J-68.2619
G1 X118.8579 Y0.1026
G1 X109.8547 Y-4.2883
G3 X106.5649 Y-3.676 I-2.2896 J-3.1572
G1 X104.7363 Y-4.1613
G3 X101.8608 Y-7.4973 I1.0003 J-3.7695
G1 X101.7831 Y-8.1923
G1 X95.2571 Y-11.4446
G3 X91.5368 Y-10.4561 I-2.7312 J-2.784
G1 X90.3346 Y-10.7714
G3 X90.2909 Y-10.5358 I-3.8523 J-0.5925
G2 X90.3502 Y-9.3789 I2.1588 J0.4694
G3 X90.5244 Y-8.5538 I-3.7041 J1.2129
G3 X90.2096 Y-6.2341 I-5.0115 J0.5011
G3 X91.0417 Y-3.8601 I-3.9264 J2.7091
G3 X90.907 Y-1.4121 I-9.097 J0.7272
G3 X90.5157 Y0.3264 I-18.9205 J-3.3454
G1 F300.0 X89.3585 Y0.0089
G3 F800.0 X89.0547 Y1.0027 I-17.372 J-4.7663
G3 X86.6171 Y2.8351 I-2.556 J-0.8626
G1 X82.2883 Y3.0252
G3 X79.4818 Y0.5556 I-0.1184 J-2.695
G3 X79.4948 Y-0.37 I4.7254 J-0.3961
G3 X78.8318 Y-1.7751 I2.0047 J-1.805
G1 X77.6586 Y-9.601
G3 X77.6302 Y-10.0901 I2.6678 J-0.3999
G3 X77.4808 Y-10.3147 I3.0197 J-2.1713
G3 X76.8282 Y-9.4639 I-5.7835 J-3.7609
G2 X76.2219 Y-8.6583 I16.4127 J12.981
G3 X76.5143 Y-8.2152 I-2.0947 J1.6998
G3 X77.0274 Y-7.1668 I-17.5432 J9.2361
G1 X77.0282 Y-7.1651
G3 X77.0506 Y-7.1183 I-2.4216 J1.1887
G3 X77.157 Y-6.8748 I-4.7372 J2.2136
G3 X77.1675 Y-6.8505 I-18.1859 J7.8957
G3 X77.2277 Y-6.6989 I-2.4759 J1.071
G3 X77.3546 Y-3.473 I-4.9979 J1.812
G3 X77.2083 Y-2.8999 I-23.5809 J-5.7124
G3 X76.3671 Y-0.3407 I-21.2383 J-5.5635
G3 X76.0673 Y0.3897 I-22.5934 J-8.8447
G3 X76.0642 Y0.3969 I-2.4787 J-1.0646
G3 X75.807 Y0.9411 I-8.3667 J-3.6225
G3 X73.1285 Y2.3914 I-2.3994 J-1.2328
G1 X68.8383 Y1.9453
G3 X67.8794 Y1.6589 I0.279 J-2.6831
G3 X65.5514 Y2.0813 I-2.0607 J-4.7307
G3 X65.4596 Y2.0818 I-0.2322 J-36.6411
G3 X64.8214 Y2.0787 I-0.2492 J-14.3264
G3 X63.0209 Y2.0099 I0.4977 J-36.6385
G3 X60.6695 Y-1.6432 I0.1692 J-2.6923
G3 X60.5866 Y-4.8468 I2.128 J-1.6579
G1 X60.8766 Y-5.2616
G2 X60.7079 Y-5.3954 I-2.4776 J2.9496
G3 X60.6398 Y-5.4481 I1.617 J-2.1593
G3 X60.285 Y-5.7368 I17.0042 J-21.2578
G3 X59.3128 Y-7.6479 I1.7202 J-2.078
G3 X59.1503 Y-12.6884 I84.863 J-5.2593
G3 X59.2324 Y-14.4052 I10.0303 J-0.3809
G3 X59.4865 Y-15.3845 I3.7325 J0.4459
G3 X59.8378 Y-15.9977 I2.4962 J1.0227
G1 X59.7848 Y-16.1018
G3 X59.2126 Y-15.1113 I-7.3459 J-3.5827
G2 X57.5775 Y-12.3038 I204.5866 J121.034
G3 X58.6685 Y-10.8645 I-1.4803 J2.2551
G3 X58.4428 Y-3.1699 I-11.1086 J3.5248
G3 X58.4136 Y-3.097 I-2.519 J-0.9652
G3 X57.4947 Y-1.1604 I-20.5933 J-8.5856
G3 X57.3105 Y-0.1944 I-8.3856 J-1.098
G3 X54.6346 Y1.8442 I-2.616 J-0.6584
G1 X51.3891 Y1.7721
G3 X50.8015 Y1.6939 I0.06 J-2.6969
G3 X49.539 Y1.2249 I1.4306 J-5.7854
G3 X49.4653 Y1.1862 I1.219 J-2.4065
G3 X47.9116 Y1.6891 I-2.1718 J-4.0577
G3 X47.8728 Y1.6941 I-0.3623 J-2.6732
G3 X45.4234 Y1.746 I-1.4861 J-12.3053
G2 X43.3832 Y1.6861 I-2.5288 J51.3608
G3 X40.3621 Y1.3464 I-0.4131 J-9.9304
G3 X40.2392 Y1.3099 I0.7079 J-2.6031
G3 X37.9009 Y-0.7403 I1.2102 J-3.7389
G3 X37.7122 Y-2.5231 I2.4358 J-1.1592
G3 X37.1137 Y-3.0221 I1.4101 J-2.2997
G2 X37.0073 Y-3.1102 I-0.3487 J0.3126
G3 X36.8624 Y-3.2044 I1.3961 J-2.3082
G3 X35.7722 Y-4.2169 I3.0361 J-4.3621
G3 X35.6937 Y-4.3184 I2.0944 J-1.7001
G3 X34.5299 Y-6.0746 I17.3109 J-12.7359
G3 X34.2001 Y-6.9419 I2.319 J-1.3782
G3 X32.4569 Y-8.1126 I0.5138 J-2.6482
G3 X31.9221 Y-2.6037 I-84.4777 J-5.4219
G3 X31.8965 Y-2.4445 I-2.675 J-0.3483
G2 X31.788 Y-1.4731 I6.1586 J1.1797
G3 X29.9513 Y1.2116 I-2.8844 J-0.0027
G3 X29.2761 Y1.4494 I-2.7672 J-6.7813
G3 X31.6508 Y3.6823 I-0.2852 J2.6825
G1 X32.0219 Y5.8781
G3 X32.0237 Y5.7194 I20.5673 J0.1515
G3 X32.1953 Y4.4926 I4.8758 J0.0566
G3 X32.5694 Y3.534 I3.9801 J1.0009
G3 X32.6641 Y3.3665 I2.3937 J1.2438
G3 X32.7928 Y3.1695 I3.5915 J2.2048
G3 X33.7447 Y2.1868 I3.3826 J2.324
G3 X35.4409 Y1.4365 I2.511 J3.3845
G3 X36.5108 Y1.2668 I1.5161 J6.1002
G3 X37.6467 Y1.2889 I0.474 J4.8344
G3 X37.7593 Y1.3041 I-0.3048 J2.6803
G3 X39.9131 Y2.2255 I-0.7355 J4.6974
G3 X40.705 Y2.9777 I-2.9283 J3.8757
G2 X41.0492 Y3.2942 I1.7017 J-1.5056
G2 X42.9915 Y4.2567 I14.4648 J-26.749
G3 X48.2164 Y6.7699 I-35.0275 J79.5076
G3 X48.3733 Y6.8587 I-1.2498 J2.3906
G3 X49.1977 Y7.2653 I-246.2838 J500.4446
G3 X50.6019 Y7.7969 I-3.8032 J12.1673
G3 X51.5884 Y8.2894 I-5.2152 J11.6798
G2 X52.4304 Y8.6889 I18.4745 J-37.848
G3 X52.5611 Y8.709 I-0.3444 J2.6755
G3 X53.9782 Y9.1111 I-1.0139 J6.2713
G3 X54.213 Y9.2064 I-2.8635 J7.3916
G3 X55.8794 Y10.1683 I-2.2821 J5.8781
G3 X55.9936 Y10.2623 I-1.656 J2.1295
G3 X58.1007 Y13.7832 I-4.0628 J4.8222
G3 X58.1578 Y14.0439 I-6.6674 J1.5984
G3 X58.1711 Y14.1155 I-2.6458 J0.5264
G3 X58.1835 Y14.1893 I-16.8379 J2.8792
G3 X58.4154 Y16.7933 I-12.6817 J2.4417
G3 X58.4155 Y16.993 I-79.3328 J0.1184
G3 X58.4154 Y17.042 I-17.0823 J0.0017
G3 X58.3651 Y19.7387 I-79.3328 J-0.1303
G3 X58.3413 Y20.0131 I-2.6959 J-0.0961
G3 X60.8945 Y19.3381 I1554.994 J5876.6268
G3 X60.26 Y17.3318 I2.0511 J-1.7521
G1 X60.6386 Y13.3308
G3 X60.7399 Y12.8114 I2.6856 J0.2541
G3 X60.3512 Y12.1248 I2.1279 J-1.658
G3 X60.007 Y10.9661 I7.084 J-2.7345
G3 X60.0046 Y10.9544 I2.6389 J-0.5598
G3 X59.9644 Y10.7502 I10.0242 J-2.08
G3 X60.7332 Y4.5857 I9.549 J-1.9393
G3 X63.3554 Y3.0646 I2.4308 J1.1697
G3 X66.0818 Y3.6077 I-0.7877 J11.0707
G3 X66.7672 Y3.8314 I-4.2511 J14.1814
G3 X66.7717 Y3.833 I-0.8995 J2.5432
G3 X67.3893 Y4.0579 I-14.644 J41.1749
G3 X72.6629 Y6.4318 I-13.272 J36.5281
G3 X72.8247 Y6.5271 I-1.2873 J2.3707
G3 X76.8944 Y9.9534 I-10.7992 J16.9572
G3 X76.9551 Y10.0224 I-1.9951 J1.8156
G3 X77.1315 Y10.2306 I-86.9414 J73.8593
G3 X77.6478 Y10.8456 I-15.0851 J13.1867
G3 X79.0417 Y12.5513 I-87.634 J73.0361
G1 X78.6429 Y6.3015
G3 X81.8836 Y3.4885 I2.6921 J-0.1718
G3 X83.0263 Y3.817 I-1.6107 J7.7546
G3 X88.0087 Y6.7059 I-5.5338 J15.2849
G3 X88.6781 Y7.3316 I-5.5072 J6.5633
G3 X90.1459 Y9.4007 I-4.6535 J4.8562
G3 X90.1669 Y9.4445 I-2.4205 J1.191
G3 X90.4801 Y10.3088 I-4.5457 J2.1359
G3 X90.3138 Y13.3698 I-4.696 J1.2799
G3 X89.6906 Y14.3101 I-2.5105 J-0.9871
G3 X89.7057 Y14.3518 I-2.5303 J0.9421
G1 X90.6865 Y17.1241
G3 X92.7266 Y16.8329 I2.1892 J8.045
G3 X94.995 Y17.9958 I0.0483 J2.6996
G1 X95.5832 Y18.8455
G3 X102.6249 Y13.9039 I744.0188 J1052.733
G2 X104.4003 Y12.5157 I-20.1893 J-27.6486
G3 X104.4193 Y11.3212 I21.4844 J-0.2563
G3 X105.4816 Y9.2904 I2.6974 J0.1179
G1 X107.4169 Y7.8177
G3 X110.6121 Y7.7628 I1.6351 J2.1486
G2 X114.7936 Y4.8295 I-45.7464 J-69.6596
G1 X121.1029 Y-0.1376
G1 X109.6461 Y-5.7252
G3 X106.8727 Y-4.8359 I-2.081 J-1.7204
G1 X105.0441 Y-5.3211
G3 X103.0534 Y-7.6307 I0.6925 J-2.6097
G1 X102.903 Y-8.9749
G1 X94.9088 Y-12.959
G3 X91.8412 Y-11.6169 I-2.3828 J-1.2697
G1 X88.9872 Y-12.3652
G3 X89.1183 Y-10.7908 I-2.5049 J1.0013
G2 X89.2098 Y-9.0055 I3.3314 J0.7243
G3 X89.3303 Y-8.4344 I-2.5636 J0.8395
G3 X88.7935 Y-6.0637 I-3.8175 J0.3817
G3 X89.8451 Y-3.7704 I-2.5103 J2.5388
G3 X89.7269 Y-1.6299 I-7.9003 J0.6374
G3 X89.3585 Y0.0089 I-17.7404 J-3.1276
G1 F300.0 X88.2036 Y-0.308
G3 F800.0 X87.92 Y0.6198 I-16.2171 J-4.4495
G3 X86.5646 Y1.6387 I-1.4212 J-0.4796
G1 X82.2358 Y1.8288
G3 X80.6752 Y0.4555 I-0.0658 J-1.4986
G3 X80.8078 Y-0.844 I3.5319 J-0.2961
G3 X80.0161 Y-1.9526 I0.6917 J-1.331
G1 X78.8429 Y-9.7785
G3 X78.8953 Y-10.4503 I1.4834 J-0.2224
G3 X78.1325 Y-12.4072 I1.7547 J-1.8111
G3 X78.1978 Y-12.7666 I1.4975 J0.0867
G3 X79.8187 Y-14.3845 I2.348 J0.7314
G3 X77.0796 Y-15.2135 I276.2357 J-917.5956
G3 X77.3895 Y-14.3929 I-1.187 J0.9171
G3 X77.1276 Y-12.3392 I-5.4356 J0.3503
G3 X75.9137 Y-10.2382 I-5.4303 J-1.7364
G2 X75.0401 Y-9.0596 I17.3272 J13.7553
G3 X75.0264 Y-9.04 I-1.234 J-0.8527
G1 X74.5642 Y-8.3934
G3 X75.4546 Y-7.6573 I-0.437 J1.4349
G3 X75.9441 Y-6.6559 I-16.4835 J8.6782
G2 X75.9532 Y-6.6373 I218.1306 J-107.0553
G3 X75.9656 Y-6.6113 I-1.3465 J0.661
G3 X76.0526 Y-6.4113 I-3.6522 J1.7066
G3 X76.0683 Y-6.375 I-17.0815 J7.4322
G3 X76.1018 Y-6.2907 I-1.3767 J0.5955
G3 X76.1953 Y-3.7743 I-3.872 J1.4038
G3 X76.0507 Y-3.2068 I-22.4216 J-5.4112
G3 X75.2531 Y-0.7805 I-20.0807 J-5.2567
G3 X74.9669 Y-0.083 I-21.4795 J-8.4049
G3 X74.9652 Y-0.0789 I-1.3783 J-0.592
G3 X74.7417 Y0.3938 I-7.2677 J-3.1467
G3 X73.2524 Y1.2002 I-1.3342 J-0.6855
G1 X68.9621 Y0.7541
G3 X67.9859 Y0.247 I0.1551 J-1.492
G3 X67.7203 Y0.4046 I-2.0718 J-3.1898
G3 X65.5807 Y0.8835 I-1.9016 J-3.4763
G3 X65.4468 Y0.8842 I-0.2615 J-35.4433
G3 X64.8459 Y0.8813 I-0.2364 J-13.1289
G3 X63.096 Y0.8147 I0.4732 J-35.4411
G3 X61.9027 Y-1.4521 I0.0941 J-1.497
G3 X62.2362 Y-1.9101 I2.6899 J1.6084
G3 X61.5681 Y-4.1606 I0.5613 J-1.391
G1 X62.3733 Y-5.3124
G2 X62.3558 Y-5.3488 I-4.404 J2.103
G2 X62.1614 Y-5.68 I-3.2588 J1.6898
G2 X61.4258 Y-6.354 I-3.7625 J3.3679
G3 X61.3879 Y-6.3833 I0.8991 J-1.2007
G3 X61.0487 Y-6.6593 I16.2561 J-20.3226
G3 X60.5081 Y-7.722 I0.9565 J-1.1554
G3 X60.3478 Y-12.7132 I83.6677 J-5.1852
G3 X60.4206 Y-14.255 I8.8327 J-0.356
G3 X60.5947 Y-14.9304 I2.5444 J0.2958
G3 X60.8666 Y-15.3639 I1.388 J0.5687
G1 X61.2733 Y-15.8169
G1 X60.406 Y-17.5222
G3 X61.8758 Y-19.6963 I1.337 J-0.68
G3 X62.4413 Y-19.6184 I-0.5234 J5.8882
G3 X63.9951 Y-19.2829 I-5.3106 J28.3626
G2 X56.9997 Y-21.3381 I-97.5361 J319.0549
G3 X56.7788 Y-21.3932 I10.9392 J-44.2923
G3 X57.0077 Y-20.9435 I-1.2034 J0.8955
G3 X57.0231 Y-20.893 I-4.6731 J1.4543
G2 X57.486 Y-20.8475 I0.9022 J-6.8025
G3 X58.6714 Y-20.1304 I-0.096 J1.4969
G3 X59.0193 Y-17.3756 I-2.9016 J1.7659
G3 X58.9939 Y-17.2995 I-1.435 J-0.4367
G3 X58.2008 Y-15.753 I-6.555 J-2.385
G2 X55.7465 Y-11.5071 I205.5984 J121.6758
G3 X57.527 Y-10.5023 I0.3507 J1.4584
G3 X57.3245 Y-3.5984 I-9.9671 J3.1626
G3 X57.3083 Y-3.5578 I-1.4007 J-0.5367
G3 X56.3318 Y-1.528 I-19.4879 J-8.1247
G3 X56.1492 Y-0.4866 I-7.2227 J-0.7304
G3 X54.6612 Y0.6469 I-1.4546 J-0.3661
G1 X51.4157 Y0.5748
G3 X51.089 Y0.5313 I0.0333 J-1.4996
G3 X50.0802 Y0.1566 I1.1431 J-4.6228
G3 X49.5369 Y-0.3104 I0.6778 J-1.3381
G3 X47.7508 Y0.5024 I-2.2434 J-2.5612
G3 X47.7292 Y0.5051 I-0.2015 J-1.4864
G3 X45.4999 Y0.5507 I-1.3425 J-11.1163
G2 X43.3629 Y0.4883 I-2.6053 J52.5561
G3 X40.6763 Y0.1908 I-0.3927 J-8.7326
G3 X40.608 Y0.1705 I0.3936 J-1.4474
G3 X38.9823 Y-1.2549 I0.8414 J-2.5995
G3 X38.9428 Y-2.4535 I1.3544 J-0.6446
G3 X39.1391 Y-3.2554 I1.5922 J-0.0352
G3 X38.6771 Y-3.3904 I3.7037 J-13.5379
G3 X38.0054 Y-3.8215 I0.4452 J-1.4324
G2 X37.6271 Y-4.135 I-1.2405 J1.112
G3 X37.5465 Y-4.1873 I0.7763 J-1.2835
G3 X36.702 Y-4.9717 I2.352 J-3.3791
G3 X36.6584 Y-5.0281 I1.1646 J-0.9454
G3 X35.5594 Y-6.6864 I16.3462 J-12.0262
G3 X35.4378 Y-7.9615 I1.2895 J-0.7663
G3 X34.4822 Y-8.1081 I25.3989 J-168.7328
G3 X33.214 Y-9.5751 I0.2317 J-1.482
G1 X33.1046 Y-20.5345
G3 X34.3319 Y-22.0245 I1.4999 J-0.015
G1 X35.8949 Y-22.3135
G1 X33.4411 Y-24.4334
G3 X34.8304 Y-27.0117 I0.9806 J-1.1351
G1 X54.216 Y-21.5224
G1 X54.9468 Y-21.8597
G3 X54.9964 Y-21.8815 I0.6286 J1.3619
G3 X53.0436 Y-22.5073 I12.9425 J-43.7488
G2 X50.7414 Y-23.1731 I-8.231 J24.1459
G3 X48.3836 Y-23.6218 I89.725 J-477.9754
G3 X48.2439 Y-23.6557 I0.284 J-1.4729
G3 X46.0594 Y-24.4149 I6.7986 J-23.0852
G2 X39.1274 Y-26.741 I-53.7784 J148.7717
G3 X39.1088 Y-26.7469 I0.4442 J-1.4327
G2 X13.4423 Y-34.8398 I-507.9772 J1566.2995
G3 X10.2324 Y-35.7159 I21.1278 J-83.7262
G3 X9.3616 Y-35.0028 I-2.2188 J-1.8213
G3 X9.6969 Y-33.9682 I-1.6115 J1.0938
G2 X9.8721 Y-33.8897 I0.4375 J-0.7419
G2 X21.3985 Y-30.686 I65.2653 J-212.4736
G3 X21.4031 Y-30.6848 I-0.3627 J1.4555
G2 X21.7438 Y-30.6041 I2.8975 J-11.4746
G3 X21.8109 Y-30.5877 I-0.3241 J1.4646
G1 X28.2539 Y-28.8475
G3 X29.6667 Y-28.474 I-1.1678 J7.2763
G1 X30.2979 Y-28.6648
G3 X32.2316 Y-27.1998 I0.434 J1.4358
G3 X31.9999 Y-24.9004 I-14.2843 J-0.2781
G3 X31.9934 Y-24.8668 I-1.4754 J-0.2706
G3 X30.3807 Y-17.9635 I-137.4983 J-28.4799
G3 X30.3789 Y-17.9566 I-1.4516 J-0.378
G3 X28.9769 Y-12.6881 I-4359.8348 J-1157.3942
G3 X28.9802 Y-12.6907 I3.0843 J3.9101
G3 X31.4077 Y-11.4753 I0.928 J1.1785
G3 X30.7345 Y-2.7584 I-83.4285 J-2.0592
G3 X30.7203 Y-2.6698 I-1.4874 J-0.1937
G2 X30.5903 Y-1.4901 I7.3348 J1.4051
G3 X29.5083 Y0.0989 I-1.6868 J0.0144
G3 X27.9791 Y0.5051 I-2.3242 J-5.6686
G3 X27.8279 Y0.5171 I-0.1946 J-1.4873
G3 X25.7192 Y-0.3568 I-0.0807 J-2.7861
G3 X24.57 Y0.1565 I-1.13 J-0.9865
G3 X19.8034 Y-0.435 I0.2786 J-21.7464
G3 X19.7544 Y-0.4475 I0.348 J-1.4591
G2 X17.593 Y-0.9428 I-6.8961 J25.1295
G3 X17.5188 Y-0.8593 I-6.4784 J-5.6763
G3 X17.1367 Y-0.5537 I-1.1153 J-1.0031
G3 X15.7504 Y-0.1837 I-1.4182 J-2.5314
G3 X13.0291 Y-0.2926 I-0.3924 J-24.253
G3 X13.0228 Y-0.2932 I0.144 J-1.4931
G3 X9.6849 Y-0.6834 I10.5256 J-104.5108
G3 X8.6941 Y-1.2555 I0.198 J-1.4869
G3 X7.8997 Y-2.7978 I3.8343 J-2.9506
G3 X7.8536 Y-2.9971 I1.435 J-0.4366
G3 X8.2446 Y-4.9837 I2.8896 J-0.463
G2 X8.6963 Y-5.8044 I-56.9866 J-31.9004
G3 X8.9749 Y-6.1708 I1.3193 J0.7138
G3 X8.3508 Y-6.1768 I-0.1758 J-14.2541
G3 X6.6788 Y-6.5276 I-0.0556 J-3.895
G3 X6.657 Y-6.5378 I0.6224 J-1.3648
G3 X6.1019 Y-6.9089 I0.9896 J-2.0808
G3 X5.7161 Y-7.4615 I1.0056 J-1.113
G3 X5.1619 Y-10.2282 I7.1067 J-2.8625
G3 X5.1575 Y-11.1156 I16.5232 J-0.5258
G3 X5.2935 Y-11.7076 I1.4996 J0.0328
G1 X5.8797 Y-12.987
G1 X4.9274 Y-13.7359
G3 X4.3735 Y-15.1519 I0.9273 J-1.1791
G1 X6.034 Y-25.5311
G3 X6.5038 Y-26.4019 I1.4812 J0.237
G3 X6.0243 Y-28.0322 I0.9462 J-1.1639
G2 X6.6192 Y-29.9864 I-47.074 J-15.3991
G2 X6.6149 Y-30.6561 I-1.33 J-0.3263
G3 X5.4925 Y-34.0972 I166.368 J-56.1744
G3 X6.2536 Y-35.8899 I1.4308 J-0.4505
G3 X5.6214 Y-37.1271 I680.5516 J-348.5116
G2 X5.3162 Y-37.1086 I0.1308 J4.692
G3 X3.7595 Y-38.111 I-0.1394 J-1.4935
G3 X2.9933 Y-40.4595 I64.3199 J-22.2841
G3 X2.9827 Y-40.4954 I1.4342 J-0.4393
G3 X3.515 Y-42.4598 I1.9163 J-0.5351
G2 X4.0181 Y-43.1735 I-1.9195 J-1.8874
G2 X4.8825 Y-46.3599 I-8.5496 J-4.0297
G3 X4.8828 Y-46.3634 I1.494 J0.1338
G2 X4.9303 Y-48.9804 I-17.735 J-1.6308
G3 X4.9294 Y-48.9984 I1.4977 J-0.0831
G2 X4.8139 Y-51.4215 I-286.9794 J12.4648
G1 X2.3633 Y-51.4421
G1 X2.4415 Y-51.089
G3 X-0.1199 Y-49.7415 I-1.4645 J0.3244
G1 X-1.5332 Y-51.2567
G2 X-2.1536 Y-51.3503 I-2.6478 J15.4464
G2 X-2.1277 Y-49.8653 I62.4293 J-0.3451
G3 X-2.127 Y-49.8256 I-1.4994 J0.044
G3 X-2.1279 Y1.1835 I-9002.0711 J25.3612
G2 X-2.0471 Y43.3959 I6901.6434 J7.9083
G3 X-1.8908 Y42.776 I194.1193 J48.6223
G3 X-1.8823 Y42.7438 I1.4539 J0.3691
G3 X-0.4613 Y40.3334 I5.2069 J1.4455
G3 X-0.3058 Y40.2003 I1.0509 J1.0703
G2 X0.8982 Y39.2757 I-29.6726 J-39.8831
G1 X0.0819 Y38.5821
G3 X0.1238 Y36.2616 I0.9713 J-1.1431
G3 X1.9087 Y35.4733 I2.4209 J3.0669
G2 X1.3741 Y34.3058 I-22.9441 J9.7993
G3 X1.3378 Y34.2258 I1.3473 J-0.6594
G3 X1.0273 Y31.2893 I4.7435 J-1.9863
G3 X1.1045 Y31.0199 I1.4742 J0.2772
G3 X2.459 Y27.5939 I480.8634 J188.1232
G3 X2.7423 Y27.1411 I1.393 J0.5564
G3 X3.3703 Y26.6187 I2.1816 J1.9841
G3 X4.8253 Y25.7298 I10.5693 J15.6631
G3 X4.0996 Y24.3801 I0.773 J-1.2855
G3 X4.805 Y13.9485 I211.3561 J9.0514
G3 X4.8082 Y13.9171 I1.4936 J0.1381
G3 X5.6364 Y9.2051 I39.1755 J4.4572
G3 X6.1334 Y8.4029 I1.4589 J0.3488
G3 X8.2479 Y7.0241 I6.858 J8.2061
G3 X9.4379 Y6.503 I2.1271 J3.2387
G3 X9.1309 Y5.0038 I1.1104 J-1.0084
G3 X10.0599 Y3.5668 I3.3931 J1.1749
G3 X10.3732 Y3.3398 I1.0293 J1.0911
G3 X12.1397 Y3.0307 I1.343 J2.4721
G2 X15.7746 Y3.0511 I1.9235 J-18.8611
G3 X15.8978 Y3.045 I0.1354 J1.4939
G3 X17.8584 Y3.3512 I0.0499 J6.1121
G3 X17.9646 Y3.3906 I-0.4689 J1.4248
G3 X19.0819 Y4.0739 I-1.6227 J3.9087
G2 X20.3307 Y4.7237 I2.2653 J-2.8288
G3 X22.4836 Y6.6162 I-0.2491 J2.4541
G3 X23.5244 Y6.9331 I0.1134 J1.4957
G1 X23.7889 Y7.1411
G1 X23.8735 Y7.0663
G3 X24.6423 Y6.7076 I0.9928 J1.1244
G3 X24.3358 Y6.2187 I1.3781 J-1.2045
G3 X24.2438 Y5.9177 I1.3806 J-0.5865
G3 X24.2292 Y5.8392 I5.1348 J-0.9955
G3 X24.1631 Y5.3163 I2.2421 J-0.5493
G3 X24.2003 Y4.1855 I5.2156 J-0.3941
G3 X25.5656 Y2.9016 I1.485 J0.2113
G1 X28.8711 Y2.6366
G3 X30.47 Y3.8819 I0.1198 J1.4952
G1 X31.3581 Y9.1376
G3 X29.7277 Y10.8799 I-1.479 J0.2499
G3 X27.1753 Y10.2576 I0.9637 J-9.4982
G3 X27.0643 Y10.2187 I0.9564 J-2.9059
G2 X27.1842 Y10.4772 I47.7916 J-21.996
G2 X27.5276 Y11.1986 I414.2048 J-196.744
G3 X27.1942 Y12.944 I-1.3538 J0.6459
G3 X27.3413 Y12.9906 I-14.94 J47.396
G3 X28.8255 Y13.6892 I-0.5856 J3.1704
G3 X29.2002 Y14.1606 I-0.963 J1.15
G3 X29.7515 Y15.2598 I-120.181 J60.9667
G3 X31.8017 Y20.7767 I-16.4847 J9.2654
G3 X32.6668 Y24.8198 I-214.9616 J48.1114
G3 X31.8254 Y26.4819 I-1.4697 J0.3001
G3 X29.9857 Y27.1971 I-6.7333 J-14.5975
G3 X29.9734 Y27.2009 I-0.4566 J-1.4288
G3 X24.6556 Y28.493 I-13.002 J-41.9237
G2 X19.5418 Y29.5447 I58.2972 J296.4317
G3 X10.8708 Y31.444 I-47.8597 J-197.7546
G3 X7.8118 Y31.9785 I-10.4712 J-50.9065
G1 X7.7875 Y32.4914
G3 X6.8204 Y33.8233 I-1.4983 J-0.0709
G1 X6.891 Y34.046
G3 X6.9142 Y34.8707 I-1.43 J0.453
G3 X6.9458 Y34.862 I0.4134 J1.4419
G1 X23.357 Y30.5423
G3 X23.4402 Y30.5229 I0.3818 J1.4506
G3 X24.7246 Y30.426 I1.0278 J5.0597
G3 X24.9536 Y30.4498 I-0.0629 J1.7167
G2 X25.176 Y30.2919 I-2.6546 J-3.9733
G3 X25.508 Y30.1026 I0.9031 J1.1977
G3 X26.6883 Y29.7436 I2.4674 J5.9933
G3 X42.3288 Y25.5157 I265.2235 J950.0992
G3 X84.9158 Y14.2853 I1571.0064 J5871.1242
G1 X81.986 Y14.6802
G3 X80.2888 Y13.2891 I-0.2003 J-1.4866
G1 X79.8381 Y6.2253
G3 X81.6401 Y4.6611 I1.497 J-0.0955
G3 X82.6142 Y4.9415 I-1.3672 J6.5821
G3 X87.2365 Y7.6213 I-5.1217 J14.1604
G3 X87.832 Y8.1795 I-4.7349 J5.6479
G3 X89.0641 Y9.9149 I-3.8073 J4.0083
G3 X89.083 Y9.9538 I-1.3387 J0.6768
G3 X89.3231 Y10.6179 I-3.4618 J1.6266
G3 X89.1993 Y12.9316 I-3.539 J0.9708
G3 X88.0036 Y13.8692 I-1.396 J-0.5489
G1 X87.8019 Y13.8964
G3 X88.5745 Y14.752 I-0.6416 J1.3559
G1 X89.9662 Y18.6861
G3 X90.2851 Y18.5242 I3.9788 J7.446
G3 X90.419 Y18.4676 I0.6503 J1.3517
G3 X92.7481 Y18.0327 I2.4566 J6.7015
G3 X94.0083 Y18.6787 I0.0268 J1.4998
G1 X95.2865 Y20.5254
G3 X103.3218 Y14.8809 I744.3155 J1051.0532
G2 X105.3779 Y13.261 I-20.8861 J-28.6256
G2 X105.6081 Y12.8728 I-0.661 J-0.6541
G3 X105.6181 Y11.3736 I20.2766 J-0.6134
G3 X106.2083 Y10.2454 I1.4986 J0.0655
G1 X108.1436 Y8.7727
G3 X110.2164 Y9.0208 I0.9084 J1.1937
G3 X110.4397 Y9.3047 I-8.9538 J7.2712
G2 X115.5244 Y5.7814 I-45.5739 J-71.2016
G1 X123.348 Y-0.3778
G1 X109.2291 Y-7.2637
G3 X108.7689 Y-6.5505 I-5.5945 J-3.1048
G3 X107.1805 Y-5.9957 I-1.2037 J-0.8951
G1 X105.3519 Y-6.481
G3 X104.2459 Y-7.7641 I0.3847 J-1.4498
G1 X104.023 Y-9.7576
G1 X94.0444 Y-14.7305
G1 X94.0251 Y-14.1763
G3 X92.1455 Y-12.7777 I-1.4991 J-0.0523
G1 X87.5966 Y-13.9704
G1 X87.3501 Y-13.5214
G3 X86.6692 Y-12.8839 I-1.3148 J-0.722
G1 X86.9617 Y-12.7852
G3 X87.9481 Y-11.0452 I-0.4794 J1.4213
G2 X88.0716 Y-8.6328 I4.5017 J0.9788
G3 X88.1387 Y-8.3152 I-1.4255 J0.4668
G3 X87.7366 Y-6.6318 I-2.6258 J0.2626
G3 X87.6696 Y-6.5355 I-1.264 J-0.8076
G3 X87.0565 Y-5.7543 I-21.3088 J-16.0913
G3 X87.3613 Y-5.6386 I-0.3768 J1.4519
G3 X88.6507 Y-3.6815 I-1.0781 J2.1136
G3 X88.5492 Y-1.8476 I-6.706 J0.5485
G3 X88.2036 Y-0.308 I-16.5627 J-2.9098
G0 Z3.0
G0 X148.4361 Y12.6573
G0 Z1.0
G1 F300.0 Z-1.5
G2 F800.0 X148.3325 Y13.4061 I4.963 J1.0683
G3 X148.329 Y13.4511 I-1.497 J-0.0944
G2 X148.5852 Y15.7995 I5.8709 J0.5477
G2 X149.8632 Y17.6447 I4.1192 J-1.4879
G2 X153.8308 Y19.5664 I6.2468 J-7.8407
G2 X156.9929 Y20.0347 I4.6376 J-20.4028
G3 X157.0148 Y20.0364 I-0.1058 J1.4963
G2 X160.9331 Y19.9148 I1.4384 J-16.8402
G3 X160.9464 Y19.9129 I0.2201 J1.4838
G2 X164.0879 Y18.8438 I-1.2125 J-8.7129
G3 X164.1061 Y18.8336 I0.7424 J1.3034
G2 X166.3659 Y15.8143 I-2.2111 J-4.0102
G3 X166.372 Y15.7878 I1.4645 J0.3246
G2 X166.2689 Y12.6847 I-5.6688 J-1.3649
G2 X164.7224 Y10.515 I-4.5636 J1.6169
G2 X161.9188 Y9.0717 I-5.6392 J7.5094
G2 X154.6419 Y8.3762 I-5.5767 J19.9312
G3 X154.6035 Y8.3788 I-0.1232 J-1.4949
G2 X151.2759 Y9.2156 I0.5142 J9.0802
G3 X151.2671 Y9.2196 I-0.6336 J-1.3596
G2 X149.505 Y10.4685 I2.4211 J5.2836
G2 X148.4361 Y12.6573 I3.8941 J3.2571
G1 F300.0 X149.581 Y12.9223
G3 F800.0 X151.4489 Y10.2089 I4.377 J1.0134
G3 X151.476 Y10.1909 I1.1715 J1.74
G3 X153.7999 Y9.2847 I3.3387 J5.1287
G3 X153.8569 Y9.2759 I0.3478 J2.0686
G3 X158.0119 Y9.1606 I2.5932 J18.5212
G3 X161.5433 Y9.7987 I-0.6637 J13.762
G3 X164.0428 Y11.3176 I-1.784 J5.7519
G3 X164.0465 Y11.3214 I-1.492 J1.4744
G3 X163.2827 Y18.1864 I-3.1751 J3.1218
G3 X163.2772 Y18.19 I-1.1359 J-1.7634
G3 X160.4234 Y19.1952 I-3.5688 J-5.5783
G3 X160.4127 Y19.1963 I-0.2265 J-2.0853
G3 X157.0768 Y19.2583 I-2.0343 J-19.6749
G3 X152.9865 Y18.4918 I0.4262 J-13.5715
G3 X150.221 Y16.4285 I1.701 J-5.1648
G3 X150.1802 Y16.3674 I1.723 J-1.1964
G3 X149.581 Y12.9223 I3.7779 J-2.4317
G1 F300.0 X150.1632 Y13.0571
G3 F800.0 X151.7826 Y10.7046 I3.7948 J0.8786
G3 X151.802 Y10.6918 I0.8377 J1.2443
G3 X153.899 Y9.874 I3.0127 J4.6279
G3 X153.9398 Y9.8677 I0.2487 J1.4792
G3 X157.9726 Y9.757 I2.5103 J17.9294
G3 X161.3638 Y10.3687 I-0.6243 J13.1656
G3 X163.6177 Y11.7376 I-1.6045 J5.1819
G3 X163.6204 Y11.7403 I-1.0669 J1.0544
G3 X162.9591 Y17.684 I-2.749 J2.7028
G3 X162.9552 Y17.6866 I-0.8123 J-1.261
G3 X160.3589 Y18.6011 I-3.2467 J-5.0749
G3 X160.3512 Y18.6019 I-0.162 J-1.4912
G3 X157.1058 Y18.6613 I-1.9729 J-19.0804
G3 X153.1793 Y17.9261 I0.3972 J-12.9745
G3 X150.7119 Y16.0876 I1.5082 J-4.5991
G3 X150.6827 Y16.0439 I1.2321 J-0.8555
G3 X150.1632 Y13.0571 I3.2754 J-2.1082
G1 F300.0 X149.015 Y12.82
G3 F800.0 X149.9517 Y10.8697 I4.3841 J0.9056
G3 X151.5171 Y9.7651 I3.7365 J3.6335
G2 X151.5293 Y9.7594 I-0.8748 J-1.9091
G3 X154.6374 Y8.9779 I3.5884 J7.6997
G2 X154.6912 Y8.9741 I-0.1187 J-2.0966
G3 X161.7472 Y9.6467 I1.6509 J20.0287
G3 X164.3551 Y10.9895 I-2.6641 J8.3776
G3 X165.6996 Y12.8745 I-2.6498 J3.3121
G3 X165.7887 Y15.6473 I-4.9964 J1.5484
G2 X165.7801 Y15.6845 I2.0417 J0.4916
G3 X163.8164 Y18.3082 I-3.8851 J-0.8611
G2 X163.791 Y18.3224 I1.014 J1.839
G3 X160.8637 Y19.3186 I-4.057 J-7.1224
G2 X160.845 Y19.3213 I0.2894 J2.08
G3 X157.0658 Y19.4386 I-2.3919 J-16.1251
G2 X157.0352 Y19.4362 I-0.1787 J2.0924
G3 X153.9655 Y18.9817 I1.4332 J-20.2727
G3 X150.245 Y17.1817 I2.1446 J-9.1777
G3 X149.1532 Y15.6058 I2.4593 J-2.8701
G3 X148.9264 Y13.5068 I5.0468 J-1.607
G2 X148.9313 Y13.4439 I-2.0909 J-0.1951
G3 X149.015 Y12.82 I4.4678 J0.2817
G1 F300.0 X148.4274 Y12.6986
G1 Z-3.0
G2 F800.0 X148.3325 Y13.4061 I4.9717 J1.027
G3 X148.329 Y13.4511 I-1.497 J-0.0944
G2 X148.5852 Y15.7995 I5.8709 J0.5477
G2 X149.8632 Y17.6447 I4.1192 J-1.4879
G2 X153.8308 Y19.5664 I6.2468 J-7.8407
G2 X156.9929 Y20.0347 I4.6376 J-20.4028
G3 X157.0148 Y20.0364 I-0.1058 J1.4963
G2 X160.9331 Y19.9148 I1.4384 J-16.8402
G3 X160.9464 Y19.9129 I0.2201 J1.4838
G2 X164.0879 Y18.8438 I-1.2125 J-8.7129
G3 X164.1061 Y18.8336 I0.7424 J1.3034
G2 X166.3659 Y15.8143 I-2.2111 J-4.0102
G3 X166.372 Y15.7878 I1.4645 J0.3246
G2 X166.2689 Y12.6847 I-5.6688 J-1.3649
G2 X164.7224 Y10.515 I-4.5636 J1.6169
G2 X161.9188 Y9.0717 I-5.6392 J7.5094
G2 X154.6419 Y8.3762 I-5.5767 J19.9312
G3 X154.6035 Y8.3788 I-0.1232 J-1.4949
G2 X151.2759 Y9.2156 I0.5142 J9.0802
G3 X151.2671 Y9.2196 I-0.6336 J-1.3596
G2 X149.505 Y10.4685 I2.4211 J5.2836
G2 X148.4274 Y12.6986 I3.8941 J3.2571
G1 F300.0 X149.5736 Y12.955
G3 F800.0 X151.4489 Y10.2089 I4.3844 J0.9808
G3 X151.476 Y10.1909 I1.1715 J1.74
G3 X153.7999 Y9.2847 I3.3387 J5.1287
G3 X153.8569 Y9.2759 I0.3478 J2.0686
G3 X158.0119 Y9.1606 I2.5932 J18.5212
G3 X161.5433 Y9.7987 I-0.6637 J13.762
G3 X164.0428 Y11.3176 I-1.784 J5.7519
G3 X164.0465 Y11.3214 I-1.492 J1.4744
G3 X163.2827 Y18.1864 I-3.1751 J3.1218
G3 X163.2772 Y18.19 I-1.1359 J-1.7634
G3 X160.4234 Y19.1952 I-3.5688 J-5.5783
G3 X160.4127 Y19.1963 I-0.2265 J-2.0853
G3 X157.0768 Y19.2583 I-2.0343 J-19.6749
G3 X152.9865 Y18.4918 I0.4262 J-13.5715
G3 X150.221 Y16.4285 I1.701 J-5.1648
G3 X150.1802 Y16.3674 I1.723 J-1.1964
G3 X149.5736 Y12.955 I3.7779 J-2.4317
G1 F300.0 X150.1568 Y13.0854
G3 F800.0 X151.7826 Y10.7046 I3.8013 J0.8503
G3 X151.802 Y10.6918 I0.8377 J1.2443
G3 X153.899 Y9.874 I3.0127 J4.6279
G3 X153.9398 Y9.8677 I0.2487 J1.4792
G3 X157.9726 Y9.757 I2.5103 J17.9294
G3 X161.3638 Y10.3687 I-0.6243 J13.1656
G3 X163.6177 Y11.7376 I-1.6045 J5.1819
G3 X163.6204 Y11.7403 I-1.0669 J1.0544
G3 X162.9591 Y17.684 I-2.749 J2.7028
G3 X162.9552 Y17.6866 I-0.8123 J-1.261
G3 X160.3589 Y18.6011 I-3.2467 J-5.0749
G3 X160.3512 Y18.6019 I-0.162 J-1.4912
G3 X157.1058 Y18.6613 I-1.9729 J-19.0804
G3 X153.1793 Y17.9261 I0.3972 J-12.9745
G3 X150.7119 Y16.0876 I1.5082 J-4.5991
G3 X150.6827 Y16.0439 I1.2321 J-0.8555
G3 X150.1568 Y13.0854 I3.2754 J-2.1082
G1 F300.0 X149.0072 Y12.8584
G3 F800.0 X149.9517 Y10.8697 I4.3919 J0.8671
G3 X151.5171 Y9.7651 I3.7365 J3.6335
G2 X151.5293 Y9.7594 I-0.8748 J-1.9091
G3 X154.6374 Y8.9779 I3.5884 J7.6997
G2 X154.6912 Y8.9741 I-0.1187 J-2.0966
G3 X161.7472 Y9.6467 I1.6509 J20.0287
G3 X164.3551 Y10.9895 I-2.6641 J8.3776
G3 X165.6996 Y12.8745 I-2.6498 J3.3121
G3 X165.7887 Y15.6473 I-4.9964 J1.5484
G2 X165.7801 Y15.6845 I2.0417 J0.4916
G3 X163.8164 Y18.3082 I-3.8851 J-0.8611
G2 X163.791 Y18.3224 I1.014 J1.839
G3 X160.8637 Y19.3186 I-4.057 J-7.1224
G2 X160.845 Y19.3213 I0.2894 J2.08
G3 X157.0658 Y19.4386 I-2.3919 J-16.1251
G2 X157.0352 Y19.4362 I-0.1787 J2.0924
G3 X153.9655 Y18.9817 I1.4332 J-20.2727
G3 X150.245 Y17.1817 I2.1446 J-9.1777
G3 X149.1532 Y15.6058 I2.4593 J-2.8701
G3 X148.9264 Y13.5068 I5.0468 J-1.607
G2 X148.9313 Y13.4439 I-2.0909 J-0.1951
G3 X149.0072 Y12.8584 I4.4678 J0.2817
G0 Z3.0
G0 X150.065 Y1.5616
G0 Z1.0
G1 F300.0 Z-1.5
G1 F800.0 X166.4127 Y1.2765
G2 X166.3803 Y-0.6843 I-612.6724 J9.1343
G3 X164.3408 Y1.1127 I-2.076 J-0.3002
G1 X160.1528 Y1.1856
G3 X158.1955 Y-0.0689 I-0.0365 J-2.0973
G3 X156.2804 Y1.2556 I-1.9517 J-0.7751
G1 X150.0615 Y1.364
G1 X150.065 Y1.5616
G0 Z3.0
G0 X152.675 Y-5.8122
G0 Z1.0
G1 F300.0 Z-1.5
G1 F800.0 X154.9482 Y-5.0076
G2 X154.7171 Y-5.3638 I-1.5363 J0.7437
G2 X153.0308 Y-6.2395 I-4.275 J6.1707
G1 X149.9105 Y-7.2983
G1 X149.9194 Y-6.7877
G1 X152.675 Y-5.8122
G0 Z3.0
G0 X157.2571 Y-3.7586
G0 Z1.0
G1 F300.0 Z-1.5
G3 F800.0 X157.9864 Y-2.7396 I-2.5115 J2.5682
G3 X158.006 Y-3.0503 I2.0975 J-0.024
G3 X158.2473 Y-4.2279 I9.1628 J1.264
G3 X157.2571 Y-3.7586 I-1.3634 J-1.5973
G0 Z3.0
G0 X159.2563 Y-5.9936
G0 Z1.0
G1 F300.0 Z-1.5
G3 F800.0 X160.0584 Y-6.5365 I2.2221 J2.4192
G3 X164.1525 Y-6.6907 I2.217 J4.4357
G3 X164.1577 Y-6.6885 I-0.794 J1.9415
G3 X166.1388 Y-4.4938 I-1.3069 J3.1711
G3 X166.3193 Y-3.6544 I-5.2588 J1.5704
G2 X166.3087 Y-4.1101 I-612.579 J14.0652
G3 X166.3082 Y-4.1767 I2.0994 J-0.0498
G2 X166.0904 Y-5.8052 I-5.8484 J-0.0468
G3 X166.0767 Y-5.8566 I2.0217 J-0.5679
G2 X165.6097 Y-6.5379 I-1.16 J0.2944
G2 X163.6866 Y-7.2106 I-2.2779 J3.4267
G3 X163.6375 Y-7.2154 I0.1811 J-2.0922
G2 X161.1781 Y-7.0905 I-0.844 J7.6562
G3 X161.1413 Y-7.083 I-0.4404 J-2.0533
G2 X159.288 Y-6.0371 I0.6494 J3.3157
G2 X159.2563 Y-5.9936 I1.8661 J1.3987
G1 F300.0 X158.768 Y-6.3423
G2 F800.0 X158.3291 Y-5.4235 I2.3862 J1.704
G3 X155.5159 Y-5.21 I-1.4452 J-0.4017
G2 X155.1205 Y-5.8139 I-2.1039 J0.9461
G2 X153.2306 Y-6.8054 I-4.6784 J6.6207
G1 X149.2957 Y-8.1405
G1 X149.3267 Y-6.361
G1 X154.8094 Y-4.4203
G3 X156.6639 Y-3.484 I-1.4851 J5.246
G3 X156.7499 Y-3.412 I-0.9188 J1.1857
G3 X157.7366 Y-1.2709 I-2.0043 J2.2216
G3 X157.7369 Y-1.2564 I-1.4995 J0.0404
G1 X157.7436 Y-0.8699
G3 X156.2699 Y0.6557 I-1.4998 J0.0258
G1 X149.4511 Y0.7746
G1 X149.4755 Y2.172
G1 X167.0213 Y1.866
G2 X166.9085 Y-4.1243 I-613.281 J8.5448
G3 X166.9082 Y-4.1719 I1.4996 J-0.0355
G2 X166.6681 Y-5.9675 I-6.4484 J-0.0516
G3 X166.6582 Y-6.0042 I1.4441 J-0.4057
G2 X165.949 Y-7.0328 I-1.7416 J0.442
G2 X163.7383 Y-7.8084 I-2.6172 J3.9215
G3 X163.7033 Y-7.8118 I0.1293 J-1.4944
G2 X161.0522 Y-7.6772 I-0.9098 J8.2526
G3 X161.026 Y-7.6718 I-0.3146 J-1.4666
G2 X158.8251 Y-6.4196 I0.7648 J3.9045
G2 X158.768 Y-6.3423 I2.329 J1.7813
G1 F300.0 X159.5983 Y-5.4945
G3 F800.0 X160.3211 Y-5.9997 I1.8801 J1.92
G3 X163.9263 Y-6.1375 I1.9543 J3.8989
G3 X163.93 Y-6.136 I-0.5678 J1.3884
G3 X165.566 Y-4.3233 I-1.0792 J2.6186
G3 X165.7706 Y-2.9246 I-4.6861 J1.3998
G1 X165.8041 Y-1.0108
G3 X164.3304 Y0.5152 I-1.4998 J0.0262
G1 X160.1424 Y0.588
G3 X158.6166 Y-0.8854 I-0.0261 J-1.4998
G1 X158.5841 Y-2.7373
G3 X158.598 Y-2.9686 I1.4998 J-0.0263
G3 X158.9148 Y-4.3802 I8.5708 J1.1823
G1 Y-4.3803
G3 X159.5983 Y-5.4945 I2.5635 J0.8058
G1 F300.0 Z-3.0
G3 F800.0 X160.3211 Y-5.9997 I1.8801 J1.92
G3 X163.9263 Y-6.1375 I1.9543 J3.8989
G3 X163.93 Y-6.136 I-0.5678 J1.3884
G3 X165.566 Y-4.3233 I-1.0792 J2.6186
G3 X165.7706 Y-2.9246 I-4.6861 J1.3998
G1 X165.8041 Y-1.0108
G3 X164.3304 Y0.5152 I-1.4998 J0.0262
G1 X160.1424 Y0.588
G3 X158.6166 Y-0.8854 I-0.0261 J-1.4998
G1 X158.5841 Y-2.7373
G3 X158.598 Y-2.9686 I1.4998 J-0.0263
G3 X158.9148 Y-4.3802 I8.5708 J1.1823
G1 Y-4.3803
G3 X159.5983 Y-5.4945 I2.5635 J0.8058
G1 F300.0 X159.2563 Y-5.9936
G3 F800.0 X160.0584 Y-6.5365 I2.2221 J2.4192
G3 X164.1525 Y-6.6907 I2.217 J4.4357
G3 X164.1577 Y-6.6885 I-0.794 J1.9415
G3 X166.1388 Y-4.4938 I-1.3069 J3.1711
G3 X166.3193 Y-3.6544 I-5.2588 J1.5704
G2 X166.3087 Y-4.1101 I-612.579 J14.0652
G3 X166.3082 Y-4.1767 I2.0994 J-0.0498
G2 X166.0904 Y-5.8052 I-5.8484 J-0.0468
G3 X166.0767 Y-5.8566 I2.0217 J-0.5679
G2 X165.6097 Y-6.5379 I-1.16 J0.2944
G2 X163.6866 Y-7.2106 I-2.2779 J3.4267
G3 X163.6375 Y-7.2154 I0.1811 J-2.0922
G2 X161.1781 Y-7.0905 I-0.844 J7.6562
G3 X161.1413 Y-7.083 I-0.4404 J-2.0533
G2 X159.288 Y-6.0371 I0.6494 J3.3157
G2 X159.2563 Y-5.9936 I1.8661 J1.3987
G1 F300.0 X158.2473 Y-4.2279
G3 F800.0 X157.2571 Y-3.7586 I-1.3634 J-1.5973
G3 X157.9864 Y-2.7396 I-2.5115 J2.5682
G3 X158.006 Y-3.0503 I2.0975 J-0.024
G3 X158.2473 Y-4.2279 I9.1628 J1.264
G0 Z3.0
G0 X154.9482 Y-5.0076
G0 Z-0.5
G1 F300.0 Z-3.0
G2 F800.0 X154.7171 Y-5.3638 I-1.5363 J0.7437
G2 X153.0308 Y-6.2395 I-4.275 J6.1707
G1 X149.9105 Y-7.2983
G1 X149.9194 Y-6.7877
G1 X154.9482 Y-5.0076
G0 Z3.0
G0 X158.1955 Y-0.0689
G0 Z-0.5
G1 F300.0 Z-3.0
G3 F800.0 X156.2804 Y1.2556 I-1.9517 J-0.7751
G1 X150.0615 Y1.364
G1 X150.065 Y1.5616
G1 X166.4127 Y1.2765
G2 X166.3803 Y-0.6843 I-612.6724 J9.1343
G3 X164.3408 Y1.1127 I-2.076 J-0.3002
G1 X160.1528 Y1.1856
G3 X158.1955 Y-0.0689 I-0.0365 J-2.0973
G1 F300.0 X157.6379 Y-0.2904
G3 F800.0 X156.2699 Y0.6557 I-1.3941 J-0.5537
G1 X149.4511 Y0.7746
G1 X149.4755 Y2.172
G1 X167.0213 Y1.866
G2 X166.9085 Y-4.1243 I-613.281 J8.5448
G3 X166.9082 Y-4.1719 I1.4996 J-0.0355
G2 X166.6681 Y-5.9675 I-6.4484 J-0.0516
G3 X166.6582 Y-6.0042 I1.4441 J-0.4057
G2 X165.949 Y-7.0328 I-1.7416 J0.442
G2 X163.7383 Y-7.8084 I-2.6172 J3.9215
G3 X163.7033 Y-7.8118 I0.1293 J-1.4944
G2 X161.0522 Y-7.6772 I-0.9098 J8.2526
G3 X161.026 Y-7.6718 I-0.3146 J-1.4666
G2 X158.8251 Y-6.4196 I0.7648 J3.9045
G2 X158.3291 Y-5.4235 I2.329 J1.7813
G3 X155.5159 Y-5.21 I-1.4452 J-0.4017
G2 X155.1205 Y-5.8139 I-2.1039 J0.9461
G2 X153.2306 Y-6.8054 I-4.6784 J6.6207
G1 X149.2957 Y-8.1405
G1 X149.3267 Y-6.361
G1 X154.8094 Y-4.4203
G3 X156.6639 Y-3.484 I-1.4851 J5.246
G3 X156.7499 Y-3.412 I-0.9188 J1.1857
G3 X157.7366 Y-1.2709 I-2.0043 J2.2216
G3 X157.7369 Y-1.2564 I-1.4995 J0.0404
G1 X157.7436 Y-0.8699
G3 X157.6379 Y-0.2904 I-1.4998 J0.0258
G0 Z3.0
G0 X164.4062 Y-18.3698
G0 Z1.0
G1 F300.0 Z-1.5
G1 F800.0 X164.1844 Y-20.1763
G3 X163.504 Y-19.1759 I-2.516 J-0.9796
G3 X164.4062 Y-18.3698 I-1.3022 J2.3652
G1 F300.0 X163.4265 Y-17.6768
G3 F800.0 X163.6907 Y-16.9934 I-1.2246 J0.8662
G1 X164.0535 Y-14.0384
G1 X166.1159 Y-14.2915
G1 X164.8569 Y-24.5466
G1 X162.7946 Y-24.2934
G1 X163.1573 Y-21.3386
G3 X161.8512 Y-19.6671 I-1.4888 J0.1827
G1 X147.9919 Y-17.9656
G1 X148.1598 Y-16.5979
G1 X162.0191 Y-18.2995
G3 X163.4265 Y-17.6768 I0.1828 J1.4888
G1 F300.0 X164.4062 Y-18.3698
G1 Z-3.0
G1 F800.0 X164.1844 Y-20.1763
G3 X163.504 Y-19.1759 I-2.516 J-0.9796
G3 X164.4062 Y-18.3698 I-1.3022 J2.3652
G1 F300.0 X163.4265 Y-17.6768
G3 F800.0 X163.6907 Y-16.9934 I-1.2246 J0.8662
G1 X164.0535 Y-14.0384
G1 X166.1159 Y-14.2915
G1 X164.8569 Y-24.5466
G1 X162.7946 Y-24.2934
G1 X163.1573 Y-21.3386
G3 X161.8512 Y-19.6671 I-1.4888 J0.1827
G1 X147.9919 Y-17.9656
G1 X148.1598 Y-16.5979
G1 X162.0191 Y-18.2995
G3 X163.4265 Y-17.6768 I0.1828 J1.4888
G0 Z3.0
G0 X159.9951 Y-31.4404
G0 Z1.0
G1 F300.0 Z-1.5
G1 F800.0 X162.4778 Y-32.0593
G1 X160.8725 Y-38.498
G1 X160.6611 Y-38.4453
G1 X161.7104 Y-34.2362
G3 X160.1809 Y-31.6906 I-2.0376 J0.508
G1 X156.7015 Y-30.8229
G3 X154.245 Y-32.077 I-0.5081 J-2.0376
G3 X152.6649 Y-29.8167 I-2.0882 J0.2227
G1 X146.574 Y-28.2982
G1 X146.6219 Y-28.1063
G1 X159.9951 Y-31.4404
G1 F300.0 X160.1403 Y-30.8582
G1 F800.0 X163.2051 Y-31.6223
G1 X161.3096 Y-39.2253
G1 X159.9337 Y-38.8824
G1 X161.1283 Y-34.091
G3 X160.0357 Y-32.2728 I-1.4554 J0.3629
G1 X156.5563 Y-31.4051
G3 X154.7379 Y-32.4977 I-0.3629 J-1.4554
G1 X153.7686 Y-36.3858
G1 X152.643 Y-36.1052
G1 X153.6123 Y-32.2172
G3 X152.5197 Y-30.3989 I-1.4554 J0.3629
G1 X145.8467 Y-28.7352
G1 X146.1848 Y-27.379
G1 X160.1403 Y-30.8582
G1 F300.0 X159.9951 Y-31.4404
G1 Z-3.0
G1 F800.0 X162.4778 Y-32.0593
G1 X160.8725 Y-38.498
G1 X160.6611 Y-38.4453
G1 X161.7104 Y-34.2362
G3 X160.1809 Y-31.6906 I-2.0376 J0.508
G1 X156.7015 Y-30.8229
G3 X154.245 Y-32.077 I-0.5081 J-2.0376
G3 X152.6649 Y-29.8167 I-2.0882 J0.2227
G1 X146.574 Y-28.2982
G1 X146.6219 Y-28.1063
G1 X159.9951 Y-31.4404
G1 F300.0 X160.1403 Y-30.8582
G1 F800.0 X163.2051 Y-31.6223
G1 X161.3096 Y-39.2253
G1 X159.9337 Y-38.8824
G1 X161.1283 Y-34.091
G3 X160.0357 Y-32.2728 I-1.4554 J0.3629
G1 X156.5563 Y-31.4051
G3 X154.7379 Y-32.4977 I-0.3629 J-1.4554
G1 X153.7686 Y-36.3858
G1 X152.643 Y-36.1052
G1 X153.6123 Y-32.2172
G3 X152.5197 Y-30.3989 I-1.4554 J0.3629
G1 X145.8467 Y-28.7352
G1 X146.1848 Y-27.379
G1 X160.1403 Y-30.8582
G0 Z3.0
G0 X154.86 Y-45.3666
G0 Z1.0
G1 F300.0 Z-1.5
G1 F800.0 X158.3957 Y-46.6534
G2 X157.7266 Y-48.4972 I-575.2593 J207.7104
G3 X156.3834 Y-46.134 I-2.0606 J0.3921
G1 X152.4473 Y-44.7014
G3 X150.1881 Y-45.2501 I-0.7174 J-1.9711
G3 X148.8086 Y-43.3746 I-2.0977 J-0.0978
G1 X142.9639 Y-41.2473
G1 X143.0314 Y-41.0616
G1 X154.86 Y-45.3666
G0 Z3.0
G0 X149.121 Y-47.7073
G0 Z1.0
G1 F300.0 Z-1.5
G3 F800.0 X149.0383 Y-48.0076 I1.9753 J-0.7058
G3 X148.8831 Y-49.1995 I9.0747 J-1.788
G3 X148.0998 Y-48.4335 I-1.809 J-1.0665
G3 X149.121 Y-47.7073 I-1.5405 J3.2473
G0 Z3.0
G0 X149.2669 Y-51.206
G0 Z1.0
G1 F300.0 Z-1.5
G3 F800.0 X149.8622 Y-51.9899 I2.8842 J1.5725
G3 X153.3034 Y-53.4599 I3.5953 J3.6534
G3 X156.2571 Y-52.0215 I0.1485 J3.4469
G3 X156.7024 Y-51.2844 I-4.462 J3.1989
G2 X156.5437 Y-51.7126 I-573.566 J212.3414
G3 X156.5172 Y-51.7884 I1.9688 J-0.7306
G2 X155.6916 Y-53.3698 I-5.1871 J1.7021
G2 X155.0953 Y-53.7798 I-0.9189 J0.6977
G2 X153.0399 Y-53.7872 I-1.0421 J4.0054
G3 X152.9702 Y-53.7709 I-0.5141 J-2.0361
G2 X150.6955 Y-52.8431 I1.5012 J6.9331
G3 X150.6486 Y-52.8145 I-1.1178 J-1.7778
G2 X149.2832 Y-51.2613 I1.7049 J2.8756
G2 X149.2669 Y-51.206 I2.4904 J0.7649
G0 Z3.0
G0 X145.5099 Y-48.8628
G0 Z1.0
G1 F300.0 Z-1.5
G2 F800.0 X145.1755 Y-49.1243 I-1.2078 J1.2004
G2 X143.2962 Y-49.4032 I-2.0308 J7.2111
G1 X140.001 Y-49.3885
G1 X140.1755 Y-48.9088
G1 X145.5099 Y-48.8628
G1 F300.0 X145.9354 Y-49.2858
G2 F800.0 X145.4103 Y-49.6811 I-1.6333 J1.6234
G2 X143.3007 Y-50.0032 I-2.2656 J7.7679
G1 X139.1455 Y-49.9847
G1 X139.7541 Y-48.3124
G1 X145.5703 Y-48.2623
G3 X147.6273 Y-47.9812 I0.3024 J5.453
G3 X147.7337 Y-47.9405 I-0.4819 J1.4205
G3 X149.3627 Y-46.2379 I-1.1743 J2.7542
G3 X149.368 Y-46.2238 I-1.4044 J0.5269
G1 X149.5001 Y-45.8606
G3 X148.6034 Y-43.9384 I-1.4097 J0.5127
G1 X142.1948 Y-41.6059
G1 X142.6728 Y-40.2926
G1 X159.163 Y-46.2942
G2 X157.1062 Y-51.9214 I-576.0266 J207.3511
G3 X157.0873 Y-51.9755 I1.4063 J-0.5218
G2 X156.1702 Y-53.7316 I-5.7572 J1.8892
G2 X155.2541 Y-54.3584 I-1.3975 J1.0595
G2 X152.893 Y-54.3689 I-1.201 J4.584
G3 X152.8432 Y-54.3573 I-0.3672 J-1.4544
G2 X150.3761 Y-53.351 I1.6282 J7.5195
G3 X150.3426 Y-53.3306 I-0.7984 J-1.2698
G2 X148.7195 Y-51.469 I2.0109 J3.3917
G2 X148.5722 Y-50.3394 I3.0541 J0.9726
G3 X145.9807 Y-49.239 I-1.4982 J0.0735
G2 X145.9354 Y-49.2858 I-1.6785 J1.5766
G0 Z3.0
G0 X149.469 Y-49.4337
G0 Z1.0
G1 F300.0 Z-1.5
G3 F800.0 X149.4646 Y-49.561 I8.644 J-0.3619
G3 Y-49.5615 I1.4994 J-0.0407
G3 X150.28 Y-51.5625 I2.6865 J-0.0719
G3 X153.3253 Y-52.8627 I3.1775 J3.226
G3 X155.7713 Y-51.6734 I0.1266 J2.8497
G3 X156.4207 Y-50.4167 I-3.9762 J2.8508
G1 X157.0755 Y-48.6182
G3 X156.179 Y-46.6956 I-1.4095 J0.5131
G1 X152.2429 Y-45.2629
G3 X150.3203 Y-46.1595 I-0.513 J-1.4095
G1 X149.6868 Y-47.9001
G3 X149.6246 Y-48.1231 I1.4095 J-0.513
G3 X149.469 Y-49.4337 I8.4883 J-1.6725
G1 F300.0 Z-3.0
G3 F800.0 X149.4646 Y-49.561 I8.644 J-0.3619
G3 Y-49.5615 I1.4994 J-0.0407
G3 X150.28 Y-51.5625 I2.6865 J-0.0719
G3 X153.3253 Y-52.8627 I3.1775 J3.226
G3 X155.7713 Y-51.6734 I0.1266 J2.8497
G3 X156.4207 Y-50.4167 I-3.9762 J2.8508
G1 X157.0755 Y-48.6182
G3 X156.179 Y-46.6956 I-1.4095 J0.5131
G1 X152.2429 Y-45.2629
G3 X150.3203 Y-46.1595 I-0.513 J-1.4095
G1 X149.6868 Y-47.9001
G3 X149.6246 Y-48.1231 I1.4095 J-0.513
G3 X149.469 Y-49.4337 I8.4883 J-1.6725
G1 F300.0 X148.8831 Y-49.1995
G3 F800.0 X148.0998 Y-48.4335 I-1.809 J-1.0665
G3 X149.121 Y-47.7073 I-1.5405 J3.2473
G3 X149.0383 Y-48.0076 I1.9753 J-0.7058
G3 X148.8831 Y-49.1995 I9.0747 J-1.788
G1 F300.0 X149.2669 Y-51.206
G3 F800.0 X149.8622 Y-51.9899 I2.8842 J1.5725
G3 X153.3034 Y-53.4599 I3.5953 J3.6534
G3 X156.2571 Y-52.0215 I0.1485 J3.4469
G3 X156.7024 Y-51.2844 I-4.462 J3.1989
G2 X156.5437 Y-51.7126 I-573.566 J212.3414
G3 X156.5172 Y-51.7884 I1.9688 J-0.7306
G2 X155.6916 Y-53.3698 I-5.1871 J1.7021
G2 X155.0953 Y-53.7798 I-0.9189 J0.6977
G2 X153.0399 Y-53.7872 I-1.0421 J4.0054
G3 X152.9702 Y-53.7709 I-0.5141 J-2.0361
G2 X150.6955 Y-52.8431 I1.5012 J6.9331
G3 X150.6486 Y-52.8145 I-1.1178 J-1.7778
G2 X149.2832 Y-51.2613 I1.7049 J2.8756
G2 X149.2669 Y-51.206 I2.4904 J0.7649
G0 Z3.0
G0 X145.5099 Y-48.8628
G0 Z-0.5
G1 F300.0 Z-3.0
G2 F800.0 X145.1755 Y-49.1243 I-1.2078 J1.2004
G2 X143.2962 Y-49.4032 I-2.0308 J7.2111
G1 X140.001 Y-49.3885
G1 X140.1755 Y-48.9088
G1 X145.5099 Y-48.8628
G0 Z3.0
G0 X150.1881 Y-45.2501
G0 Z-0.5
G1 F300.0 Z-3.0
G3 F800.0 X148.8086 Y-43.3746 I-2.0977 J-0.0978
G1 X142.9639 Y-41.2473
G1 X143.0314 Y-41.0616
G1 X158.3957 Y-46.6534
G2 X157.7266 Y-48.4972 I-575.2593 J207.7104
G3 X156.3834 Y-46.134 I-2.0606 J0.3921
G1 X152.4473 Y-44.7014
G3 X150.1881 Y-45.2501 I-0.7174 J-1.9711
G1 F300.0 X149.5888 Y-45.2781
G3 F800.0 X148.6034 Y-43.9384 I-1.4984 J-0.0699
G1 X142.1948 Y-41.6059
G1 X142.6728 Y-40.2926
G1 X159.163 Y-46.2942
G2 X157.1062 Y-51.9214 I-576.0266 J207.3511
G3 X157.0873 Y-51.9755 I1.4063 J-0.5218
G2 X156.1702 Y-53.7316 I-5.7572 J1.8892
G2 X155.2541 Y-54.3584 I-1.3975 J1.0595
G2 X152.893 Y-54.3689 I-1.201 J4.584
G3 X152.8432 Y-54.3573 I-0.3672 J-1.4544
G2 X150.3761 Y-53.351 I1.6282 J7.5195
G3 X150.3426 Y-53.3306 I-0.7984 J-1.2698
G2 X148.7195 Y-51.469 I2.0109 J3.3917
G2 X148.5722 Y-50.3394 I3.0541 J0.9726
G3 X145.9807 Y-49.239 I-1.4982 J0.0735
G2 X145.4103 Y-49.6811 I-1.6785 J1.5766
G2 X143.3007 Y-50.0032 I-2.2656 J7.7679
G1 X139.1455 Y-49.9847
G1 X139.7541 Y-48.3124
G1 X145.5703 Y-48.2623
G3 X147.6273 Y-47.9812 I0.3024 J5.453
G3 X147.7337 Y-47.9405 I-0.4819 J1.4205
G3 X149.3627 Y-46.2379 I-1.1743 J2.7542
G3 X149.368 Y-46.2238 I-1.4044 J0.5269
G1 X149.5001 Y-45.8606
G3 X149.5888 Y-45.2781 I-1.4097 J0.5127
G0 Z3.0
G0 X143.1831 Y-58.4122
G0 Z1.0
G1 F300.0 Z-1.5
G1 F800.0 X151.8611 Y-62.6445
G1 X148.5617 Y-69.41
G1 X148.3914 Y-69.327
G1 X150.6837 Y-64.6268
G3 X149.7169 Y-61.8189 I-1.8875 J0.9205
G1 X146.7775 Y-60.385
G3 X144.0425 Y-61.2148 I-0.9207 J-1.8874
G3 X143.0126 Y-58.5489 I-1.9504 J0.7784
G1 X139.3767 Y-56.7756
G3 X136.5687 Y-57.7425 I-0.9206 J-1.8875
G1 X134.1808 Y-62.6387
G1 X133.7786 Y-62.4426
G1 X137.1736 Y-55.4813
G1 X143.1831 Y-58.4122
G1 F300.0 X143.4461 Y-57.8729
G1 F800.0 X152.6634 Y-62.3683
G1 X148.838 Y-70.2123
G1 X147.5891 Y-69.6032
G1 X150.1444 Y-64.3638
G3 X149.4538 Y-62.3581 I-1.3482 J0.6575
G1 X146.5144 Y-60.9242
G3 X144.5085 Y-61.6148 I-0.6577 J-1.3481
G1 X142.1876 Y-66.3738
G1 X141.1193 Y-65.8529
G1 X143.4403 Y-61.0939
G3 X142.7496 Y-59.0882 I-1.3482 J0.6575
G1 X139.1137 Y-57.3149
G3 X137.108 Y-58.0055 I-0.6575 J-1.3482
G1 X134.457 Y-63.441
G1 X132.9763 Y-62.7189
G1 X136.8973 Y-54.679
G1 X143.4461 Y-57.8729
G1 F300.0 X143.1831 Y-58.4122
G1 Z-3.0
G1 F800.0 X151.8611 Y-62.6445
G1 X148.5617 Y-69.41
G1 X148.3914 Y-69.327
G1 X150.6837 Y-64.6268
G3 X149.7169 Y-61.8189 I-1.8875 J0.9205
G1 X146.7775 Y-60.385
G3 X144.0425 Y-61.2148 I-0.9207 J-1.8874
G3 X143.0126 Y-58.5489 I-1.9504 J0.7784
G1 X139.3767 Y-56.7756
G3 X136.5687 Y-57.7425 I-0.9206 J-1.8875
G1 X134.1808 Y-62.6387
G1 X133.7786 Y-62.4426
G1 X137.1736 Y-55.4813
G1 X143.1831 Y-58.4122
G1 F300.0 X143.4461 Y-57.8729
G1 F800.0 X152.6634 Y-62.3683
G1 X148.838 Y-70.2123
G1 X147.5891 Y-69.6032
G1 X150.1444 Y-64.3638
G3 X149.4538 Y-62.3581 I-1.3482 J0.6575
G1 X146.5144 Y-60.9242
G3 X144.5085 Y-61.6148 I-0.6577 J-1.3481
G1 X142.1876 Y-66.3738
G1 X141.1193 Y-65.8529
G1 X143.4403 Y-61.0939
G3 X142.7496 Y-59.0882 I-1.3482 J0.6575
G1 X139.1137 Y-57.3149
G3 X137.108 Y-58.0055 I-0.6575 J-1.3482
G1 X134.457 Y-63.441
G1 X132.9763 Y-62.7189
G1 X136.8973 Y-54.679
G1 X143.4461 Y-57.8729
G0 Z3.0
G0 X134.8355 Y-71.5011
G0 Z1.0
G1 F300.0 Z-1.5
G2 F800.0 X135.1364 Y-71.6969 I-7.1026 J-11.2413
G1 X143.5369 Y-77.363
G1 X143.4375 Y-77.5105
G1 X134.832 Y-71.7063
G3 X132.0477 Y-70.478 I-4.1442 J-5.6242
G3 X127.5669 Y-72.2574 I-0.9649 J-4.1015
G3 X127.1568 Y-76.2452 I3.4076 J-2.3655
G3 X127.1652 Y-76.2647 I1.9327 J0.8213
G3 X128.849 Y-78.4924 I5.4877 J2.3979
G3 X129.7446 Y-79.1714 I6.1873 J7.2303
G1 X138.3861 Y-84.9999
G1 X138.2866 Y-85.1475
G1 X129.8834 Y-79.4798
G3 X129.8444 Y-79.4541 I-1.1743 J-1.741
G2 X127.1574 Y-76.9865 I5.7696 J8.9792
G3 X127.1553 Y-76.9837 I-1.6639 J-1.2812
