; generated by PrusaSlicer 2.6.0+win64 on 2023-08-03 at 13:57:33 UTC

; 

; external perimeters extrusion width = 0.45mm
; perimeters extrusion width = 0.45mm
; infill extrusion width = 0.45mm
; solid infill extrusion width = 0.45mm
; top infill extrusion width = 0.40mm
; support material extrusion width = 0.35mm
; first layer extrusion width = 0.42mm

; external perimeters extrusion width = 0.45mm
; perimeters extrusion width = 0.45mm
; infill extrusion width = 0.45mm
; solid infill extrusion width = 0.45mm
; top infill extrusion width = 0.40mm
; support material extrusion width = 0.35mm
; first layer extrusion width = 0.42mm

M73 P0 R135
;TYPE:Custom
M862.3 P "MK2S" ; printer model check
M862.1 P0.4 ; nozzle diameter check
M115 U3.2.3 ; tell printer latest fw version
G90 ; use absolute coordinates
M83 ; extruder relative mode
M204 S2000 T1500 ; MK2 firmware only supports the old M204 format
M104 S215 ; set extruder temp
M140 S60 ; set bed temp
M190 S60 ; wait for bed temp
M109 S215 ; wait for extruder temp
G28 W ; home all without mesh bed level
G80 ; mesh bed leveling
G1 Y-3.0 F1000.0 ; go outside print area
G92 E0.0
G1 X60.0 E9.0  F1000.0 ; intro line
G1 X100.0 E12.5 F1000.0 ; intro line
G92 E0.0
G21 ; set units to millimeters
G90 ; use absolute coordinates
M83 ; use relative distances for extrusion
M900 K0.05 ; Filament gcode LA 1.5
M900 K30 ; Filament gcode LA 1.0
M107
;LAYER_CHANGE
;Z:0.2
;HEIGHT:0.2
;BEFORE_LAYER_CHANGE
G92 E0.0
;0.2


G1 E-.8 F2100
G1 Z.4 F10800
;AFTER_LAYER_CHANGE
;0.2
G1 X88.575 Y77.339
G1 Z.2
G1 E.8 F2100
M204 S1000
;TYPE:Skirt/Brim
;WIDTH:0.42
G1 F1200
G1 X90.328 Y76.567 E.06006
G1 X164.813 Y76.567 E2.33542
G1 X166.12 Y76.959 E.04278
G1 X166.997 Y78.004 E.04277
G1 X167.19 Y78.903 E.02883
G1 X167.703 Y108.318 E.92243
G1 X167.704 Y135.01 E.83691
G1 X165.356 Y147.707 E.40486
G1 X164.729 Y148.919 E.04279
G1 X164.087 Y149.391 E.02498
G1 X160.042 Y151.413 E.14179
G1 X158.965 Y151.735 E.03525
G1 X158.094 Y151.827 E.02746
G1 X92.969 Y151.83 E2.04195
G1 X91.738 Y151.685 E.03886
G1 X90.681 Y151.317 E.03509
G1 X86.852 Y149.391 E.13439
G1 X85.861 Y148.454 E.04276
G1 X85.584 Y147.707 E.02498
G1 X83.236 Y135.01 E.40486
G1 X83.236 Y108.36 E.83559
G1 X87.981 Y78.568 E.94588
G1 X88.549 Y77.393 E.04092
; printing object Balkongriff_Abdeckung.stl id:0 copy 0
;WIPE_START
G1 F8640
G1 X90.328 Y76.567 E-.45289
G1 X91.831 Y76.567 E-.34711
;WIPE_END
G1 Z.6 F10800
G1 X92.828 Y82.464
G1 Z.2
G1 E.8 F2100
;TYPE:Support material interface
;WIDTH:0.35
G1 F1200
G1 X92.862 Y82.43 E.00123
G1 X92.965 Y82.43 E.00263
G1 X92.965 Y81.888 E.01384
G1 X92.582 Y81.888 E.00978
G1 X92.582 Y95.73 E.35344
G1 X92.075 Y95.73 E.01295
G1 X92.075 Y81.888 E.35344
G1 X91.568 Y81.888 E.01295
G1 X91.568 Y95.73 E.35344
G1 X91.061 Y95.73 E.01295
G1 X91.061 Y81.888 E.35344
G1 X90.658 Y81.888 E.01029
G1 X90.658 Y95.73 E.35344
G1 X90.908 Y95.73 E.00638
;WIPE_START
G1 F8640
G1 X90.658 Y95.73 E-.05773
G1 X90.658 Y92.515 E-.74227
;WIPE_END
G1 Z.6 F10800
G1 X92.736 Y95.73
G1 Z.2
G1 E.8 F2100
G1 F1200
G1 X92.965 Y95.73 E.00585
G1 X92.965 Y95.187 E.01386
G1 X92.862 Y95.187 E.00263
G1 X92.828 Y95.153 E.00123
;WIPE_START
G1 F8640
G1 X92.862 Y95.187 E-.0111
G1 X92.965 Y95.187 E-.02378
G1 X92.965 Y95.73 E-.12538
G1 X92.736 Y95.73 E-.05288
;WIPE_END
G1 E-.58686 F2100
G1 Z.6 F10800
G1 X93.016 Y93.812
G1 Z.2
G1 E.8 F2100
;TYPE:Support material
;WIDTH:0.42
G1 F1200
G1 X93.012 Y94.824 E.03173
G1 X93.007 Y92.244 E.08089
G1 X93.019 Y92.244 E.00038
G1 X93.016 Y93.756 E.04741
;WIPE_START
G1 F8640
G1 X93.019 Y92.244 E-.34913
G1 X93.007 Y92.244 E-.00277
G1 X93.011 Y94.185 E-.4481
;WIPE_END
G1 Z.6 F10800
G1 X98.215 Y98.673
G1 Z.2
G1 E.8 F2100
G1 F1200
G1 X90.328 Y98.673 E.24729
G1 X90.328 Y96.094 E.08086
G1 X93.328 Y96.094 E.09406
G1 X93.328 Y95.244 E.02665
G1 X98.215 Y95.244 E.15323
G1 X98.215 Y98.617 E.10576
G1 X97.823 Y98.504 F10800
G1 F1200
G1 X97.823 Y95.583 E.09159
G1 X97.405 Y95.583 E.01311
G1 X97.405 Y98.334 E.08626
G1 X96.986 Y98.334 E.01314
G1 X96.986 Y95.583 E.08626
G1 X96.567 Y95.583 E.01314
G1 X96.567 Y98.334 E.08626
G1 X96.148 Y98.334 E.01314
G1 X96.148 Y95.583 E.08626
G1 X95.729 Y95.583 E.01314
G1 X95.729 Y98.334 E.08626
G1 X95.31 Y98.334 E.01314
G1 X95.31 Y95.583 E.08626
G1 X94.891 Y95.583 E.01314
G1 X94.891 Y98.334 E.08626
G1 X94.472 Y98.334 E.01314
G1 X94.472 Y95.583 E.08626
G1 X94.053 Y95.583 E.01314
G1 X94.053 Y98.334 E.08626
G1 X93.634 Y98.334 E.01314
G1 X93.634 Y96.433 E.0596
G1 X93.215 Y96.433 E.01314
G1 X93.215 Y98.334 E.0596
G1 X92.796 Y98.334 E.01314
G1 X92.796 Y96.433 E.0596
G1 X92.377 Y96.433 E.01314
G1 X92.377 Y98.334 E.0596
G1 X91.958 Y98.334 E.01314
G1 X91.958 Y96.433 E.0596
G1 X91.539 Y96.433 E.01314
G1 X91.539 Y98.334 E.0596
G1 X91.12 Y98.334 E.01314
G1 X91.12 Y96.433 E.0596
G1 X90.701 Y96.433 E.01314
M73 P0 R134
G1 X90.701 Y98.504 E.06493
;WIPE_START
G1 F8640
G1 X90.701 Y96.433 E-.4782
G1 X91.12 Y96.433 E-.09675
G1 X91.12 Y97.408 E-.22505
;WIPE_END
G1 Z.6 F10800
G1 X93.016 Y83.805
G1 Z.2
G1 E.8 F2100
G1 F1200
G1 X93.019 Y85.374 E.04919
G1 X93.007 Y85.374 E.00038
G1 X93.012 Y82.794 E.08089
G1 X93.016 Y83.748 E.02991
;WIPE_START
G1 F8640
G1 X93.012 Y82.794 E-.22028
G1 X93.007 Y85.305 E-.57972
;WIPE_END
G1 Z.6 F10800
G1 X98.215 Y82.374
G1 Z.2
G1 E.8 F2100
G1 F1200
G1 X93.328 Y82.374 E.15323
G1 X93.328 Y81.524 E.02665
G1 X90.328 Y81.524 E.09406
G1 X90.328 Y78.944 E.08089
G1 X98.215 Y78.944 E.24729
G1 X98.215 Y82.317 E.10576
G1 X97.823 Y82.204 F10800
G1 F1200
G1 X97.823 Y79.283 E.09159
G1 X97.405 Y79.283 E.01311
G1 X97.405 Y82.034 E.08626
G1 X96.986 Y82.034 E.01314
G1 X96.986 Y79.283 E.08626
G1 X96.567 Y79.283 E.01314
G1 X96.567 Y82.034 E.08626
G1 X96.148 Y82.034 E.01314
G1 X96.148 Y79.283 E.08626
G1 X95.729 Y79.283 E.01314
G1 X95.729 Y82.034 E.08626
G1 X95.31 Y82.034 E.01314
G1 X95.31 Y79.283 E.08626
G1 X94.891 Y79.283 E.01314
G1 X94.891 Y82.034 E.08626
G1 X94.472 Y82.034 E.01314
G1 X94.472 Y79.283 E.08626
G1 X94.053 Y79.283 E.01314
G1 X94.053 Y82.034 E.08626
G1 X93.668 Y82.034 E.01207
G1 X93.668 Y81.185 E.02662
G1 X93.634 Y81.185 E.00107
G1 X93.634 Y79.283 E.05964
G1 X93.215 Y79.283 E.01314
G1 X93.215 Y81.185 E.05964
G1 X92.796 Y81.185 E.01314
G1 X92.796 Y79.283 E.05964
G1 X92.377 Y79.283 E.01314
G1 X92.377 Y81.185 E.05964
G1 X91.958 Y81.185 E.01314
G1 X91.958 Y79.283 E.05964
G1 X91.539 Y79.283 E.01314
G1 X91.539 Y81.185 E.05964
G1 X91.12 Y81.185 E.01314
G1 X91.12 Y79.283 E.05964
G1 X90.701 Y79.283 E.01314
G1 X90.701 Y81.354 E.06493
;WIPE_START
G1 F8640
G1 X90.701 Y79.283 E-.4782
G1 X91.12 Y79.283 E-.09675
G1 X91.12 Y80.258 E-.22505
;WIPE_END
G1 Z.6 F10800
G1 X162.138 Y82.803
G1 Z.2
G1 E.8 F2100
G1 F1200
G1 X162.135 Y85.374 E.08061
G1 X162.122 Y85.374 E.00041
G1 X162.124 Y82.833 E.07967
G1 X162.314 Y82.464 F10800
;TYPE:Support material interface
;WIDTH:0.35
G1 F1200
G1 X162.28 Y82.43 E.00123
G1 X162.177 Y82.43 E.00263
G1 X162.177 Y81.888 E.01384
G1 X162.559 Y81.888 E.00975
G1 X162.559 Y95.73 E.35344
G1 X163.066 Y95.73 E.01295
G1 X163.066 Y81.888 E.35344
G1 X163.573 Y81.888 E.01295
G1 X163.573 Y95.73 E.35344
G1 X164.081 Y95.73 E.01297
G1 X164.081 Y81.888 E.35344
G1 X164.484 Y81.888 E.01029
G1 X164.484 Y95.73 E.35344
G1 X164.234 Y95.73 E.00638
;WIPE_START
G1 F8640
G1 X164.484 Y95.73 E-.05773
G1 X164.484 Y92.515 E-.74227
;WIPE_END
G1 Z.6 F10800
G1 X162.406 Y95.73
G1 Z.2
G1 E.8 F2100
G1 F1200
G1 X162.177 Y95.73 E.00585
G1 X162.177 Y95.187 E.01386
G1 X162.28 Y95.187 E.00263
G1 X162.314 Y95.153 E.00123
G1 X162.138 Y94.445 F10800
;TYPE:Support material
;WIDTH:0.42
G1 F1200
G1 X162.138 Y94.815 E.0116
G1 X162.124 Y94.824 E.00052
G1 X162.122 Y92.244 E.08089
G1 X162.135 Y92.244 E.00041
G1 X162.138 Y94.389 E.06726
G1 X161.813 Y96.094 F10800
G1 F1200
G1 X164.813 Y96.094 E.09406
G1 X164.813 Y98.673 E.08086
G1 X156.927 Y98.673 E.24726
G1 X156.927 Y95.244 E.10751
G1 X161.813 Y95.244 E.1532
G1 X161.813 Y96.037 E.02486
G1 X164.441 Y98.504 F10800
G1 F1200
G1 X164.441 Y96.433 E.06493
G1 X164.022 Y96.433 E.01314
G1 X164.022 Y98.334 E.0596
G1 X163.603 Y98.334 E.01314
G1 X163.603 Y96.433 E.0596
G1 X163.184 Y96.433 E.01314
G1 X163.184 Y98.334 E.0596
G1 X162.765 Y98.334 E.01314
G1 X162.765 Y96.433 E.0596
G1 X162.346 Y96.433 E.01314
G1 X162.346 Y98.334 E.0596
G1 X161.927 Y98.334 E.01314
G1 X161.927 Y96.433 E.0596
G1 X161.508 Y96.433 E.01314
G1 X161.508 Y98.334 E.0596
G1 X161.089 Y98.334 E.01314
G1 X161.089 Y95.583 E.08626
G1 X160.67 Y95.583 E.01314
G1 X160.67 Y98.334 E.08626
G1 X160.251 Y98.334 E.01314
G1 X160.251 Y95.583 E.08626
G1 X159.832 Y95.583 E.01314
G1 X159.832 Y98.334 E.08626
G1 X159.413 Y98.334 E.01314
G1 X159.413 Y95.583 E.08626
G1 X158.994 Y95.583 E.01314
G1 X158.994 Y98.334 E.08626
G1 X158.575 Y98.334 E.01314
G1 X158.575 Y95.583 E.08626
G1 X158.156 Y95.583 E.01314
G1 X158.156 Y98.334 E.08626
G1 X157.737 Y98.334 E.01314
G1 X157.737 Y95.583 E.08626
G1 X157.318 Y95.583 E.01314
G1 X157.318 Y98.504 E.09159
;WIPE_START
G1 F8640
G1 X157.318 Y95.583 E-.67447
G1 X157.737 Y95.583 E-.09675
G1 X157.737 Y95.708 E-.02878
;WIPE_END
G1 Z.6 F10800
G1 X164.813 Y81.524
G1 Z.2
G1 E.8 F2100
G1 F1200
G1 X161.813 Y81.524 E.09406
G1 X161.813 Y82.374 E.02665
G1 X156.927 Y82.374 E.1532
G1 X156.927 Y78.944 E.10755
G1 X164.813 Y78.944 E.24726
G1 X164.813 Y81.467 E.07911
G1 X164.441 Y81.354 F10800
G1 F1200
G1 X164.441 Y79.283 E.06493
G1 X164.022 Y79.283 E.01314
G1 X164.022 Y81.185 E.05964
G1 X163.603 Y81.185 E.01314
G1 X163.603 Y79.283 E.05964
G1 X163.184 Y79.283 E.01314
G1 X163.184 Y81.185 E.05964
G1 X162.765 Y81.185 E.01314
G1 X162.765 Y79.283 E.05964
G1 X162.346 Y79.283 E.01314
G1 X162.346 Y81.185 E.05964
G1 X161.927 Y81.185 E.01314
G1 X161.927 Y79.283 E.05964
G1 X161.508 Y79.283 E.01314
G1 X161.508 Y81.185 E.05964
G1 X161.474 Y81.185 E.00107
G1 X161.474 Y82.034 E.02662
G1 X161.089 Y82.034 E.01207
G1 X161.089 Y79.283 E.08626
G1 X160.67 Y79.283 E.01314
G1 X160.67 Y82.034 E.08626
G1 X160.251 Y82.034 E.01314
G1 X160.251 Y79.283 E.08626
G1 X159.832 Y79.283 E.01314
G1 X159.832 Y82.034 E.08626
G1 X159.413 Y82.034 E.01314
G1 X159.413 Y79.283 E.08626
G1 X158.994 Y79.283 E.01314
G1 X158.994 Y82.034 E.08626
G1 X158.575 Y82.034 E.01314
G1 X158.575 Y79.283 E.08626
G1 X158.156 Y79.283 E.01314
G1 X158.156 Y82.034 E.08626
G1 X157.737 Y82.034 E.01314
G1 X157.737 Y79.283 E.08626
G1 X157.318 Y79.283 E.01314
G1 X157.318 Y82.204 E.09159
;WIPE_START
G1 F8640
G1 X157.318 Y79.283 E-.67447
G1 X157.737 Y79.283 E-.09675
G1 X157.737 Y79.408 E-.02878
;WIPE_END
G1 Z.6 F10800
G1 X160.902 Y83.596
G1 Z.2
G1 E.8 F2100
;TYPE:Perimeter
;WIDTH:0.419999
G1 F1200
G1 X160.902 Y94.022 E.3269
G1 X94.239 Y94.022 E2.09017
G1 X94.239 Y83.596 E.3269
G1 X160.842 Y83.596 E2.08829
G1 X161.279 Y83.219 F10800
;TYPE:External perimeter
G1 F1200
G1 X161.279 Y94.399 E.35054
G1 X93.862 Y94.399 E2.11381
G1 X93.862 Y83.219 E.35054
G1 X161.219 Y83.219 E2.11193
G1 X161.099 Y83.576 F10800
;WIPE_START
G1 F8640
G1 X161.238 Y86.684 E-.8
;WIPE_END
G1 Z.6 F10800
G1 X160.022 Y83.709
G1 Z.2
G1 E.8 F2100
;TYPE:Solid infill
;WIDTH:0.422244
G1 F1200
G1 X160.62 Y84.306 E.02665
G1 X160.62 Y84.843 E.01694
G1 X159.655 Y83.879 E.04302
G1 X159.119 Y83.879 E.01691
G1 X160.62 Y85.379 E.06693
G1 X160.62 Y85.916 E.01694
G1 X158.583 Y83.879 E.09086
G1 X158.046 Y83.879 E.01694
G1 X160.62 Y86.452 E.11479
G1 X160.62 Y86.989 E.01694
G1 X157.51 Y83.879 E.13872
G1 X156.973 Y83.879 E.01694
G1 X160.62 Y87.525 E.16265
G1 X160.62 Y88.061 E.01691
G1 X156.437 Y83.879 E.18656
G1 X155.9 Y83.879 E.01694
G1 X160.62 Y88.598 E.21052
G1 X160.619 Y89.134 E.01691
G1 X155.364 Y83.879 E.2344
G1 X154.827 Y83.879 E.01694
G1 X160.619 Y89.671 E.25836
G1 X160.619 Y90.207 E.01691
G1 X154.291 Y83.879 E.28226
G1 X153.755 Y83.879 E.01691
G1 X160.619 Y90.744 E.3062
G1 X160.619 Y91.28 E.01691
G1 X153.218 Y83.879 E.33013
G1 X152.682 Y83.879 E.01691
G1 X160.619 Y91.817 E.35406
G1 X160.619 Y92.353 E.01691
G1 X152.145 Y83.879 E.37799
G1 X151.609 Y83.879 E.01691
G1 X160.619 Y92.889 E.4019
G1 X160.619 Y93.426 E.01694
G1 X151.072 Y83.879 E.42585
G1 X150.536 Y83.879 E.01691
G1 X160.396 Y93.739 E.43981
G1 X159.86 Y93.739 E.01691
G1 X149.999 Y83.879 E.43983
G1 X149.463 Y83.879 E.01691
G1 X159.323 Y93.739 E.43981
G1 X158.787 Y93.739 E.01691
G1 X148.927 Y83.879 E.43981
G1 X148.39 Y83.879 E.01694
G1 X158.25 Y93.739 E.43981
G1 X157.714 Y93.739 E.01691
G1 X147.854 Y83.879 E.43981
G1 X147.317 Y83.879 E.01694
G1 X157.177 Y93.739 E.43981
G1 X156.641 Y93.739 E.01691
G1 X146.781 Y83.879 E.43981
G1 X146.244 Y83.879 E.01694
G1 X156.105 Y93.739 E.43983
G1 X155.568 Y93.739 E.01694
G1 X145.708 Y83.879 E.43981
G1 X145.171 Y83.879 E.01694
M73 P1 R134
G1 X155.032 Y93.739 E.43983
G1 X154.495 Y93.739 E.01694
G1 X144.635 Y83.879 E.43981
G1 X144.099 Y83.879 E.01691
G1 X153.959 Y93.739 E.43981
G1 X153.422 Y93.739 E.01694
G1 X143.562 Y83.879 E.43981
G1 X143.026 Y83.879 E.01691
G1 X152.886 Y93.739 E.43981
G1 X152.349 Y93.739 E.01694
G1 X142.489 Y83.879 E.43981
G1 X141.953 Y83.879 E.01691
G1 X151.813 Y93.739 E.43981
G1 X151.277 Y93.739 E.01691
G1 X141.416 Y83.879 E.43983
G1 X140.88 Y83.879 E.01691
G1 X150.74 Y93.739 E.43981
G1 X150.204 Y93.739 E.01691
G1 X140.343 Y83.879 E.43983
G1 X139.807 Y83.879 E.01691
G1 X149.667 Y93.739 E.43981
G1 X149.131 Y93.739 E.01691
G1 X139.27 Y83.879 E.43983
G1 X138.734 Y83.879 E.01691
G1 X148.594 Y93.739 E.43981
G1 X148.058 Y93.739 E.01691
G1 X138.198 Y83.879 E.43981
G1 X137.661 Y83.879 E.01694
M73 P1 R133
G1 X147.521 Y93.739 E.43981
G1 X146.985 Y93.739 E.01691
G1 X137.125 Y83.879 E.43981
G1 X136.588 Y83.879 E.01694
G1 X146.448 Y93.739 E.43981
G1 X145.912 Y93.739 E.01691
G1 X136.052 Y83.879 E.43981
G1 X135.515 Y83.879 E.01694
G1 X145.376 Y93.739 E.43983
G1 X144.839 Y93.739 E.01694
G1 X134.979 Y83.879 E.43981
G1 X134.442 Y83.879 E.01694
G1 X144.303 Y93.739 E.43983
G1 X143.766 Y93.739 E.01694
G1 X133.906 Y83.879 E.43981
G1 X133.37 Y83.879 E.01691
G1 X143.23 Y93.739 E.43981
G1 X142.693 Y93.739 E.01694
G1 X132.833 Y83.879 E.43981
G1 X132.297 Y83.879 E.01691
G1 X142.157 Y93.739 E.43981
G1 X141.62 Y93.739 E.01694
G1 X131.76 Y83.879 E.43981
G1 X131.224 Y83.879 E.01691
G1 X141.084 Y93.739 E.43981
G1 X140.548 Y93.739 E.01691
G1 X130.687 Y83.879 E.43983
G1 X130.151 Y83.879 E.01691
G1 X140.011 Y93.739 E.43981
G1 X139.475 Y93.739 E.01691
G1 X129.614 Y83.879 E.43983
G1 X129.078 Y83.879 E.01691
G1 X138.938 Y93.739 E.43981
G1 X138.402 Y93.739 E.01691
G1 X128.542 Y83.879 E.43981
G1 X128.005 Y83.879 E.01694
G1 X137.865 Y93.739 E.43981
G1 X137.329 Y93.739 E.01691
G1 X127.469 Y83.879 E.43981
G1 X126.932 Y83.879 E.01694
G1 X136.792 Y93.739 E.43981
G1 X136.256 Y93.739 E.01691
G1 X126.396 Y83.879 E.43981
G1 X125.859 Y83.879 E.01694
G1 X135.72 Y93.739 E.43983
G1 X135.183 Y93.739 E.01694
G1 X125.323 Y83.879 E.43981
G1 X124.786 Y83.879 E.01694
G1 X134.647 Y93.739 E.43983
G1 X134.11 Y93.739 E.01694
G1 X124.25 Y83.879 E.43981
G1 X123.714 Y83.879 E.01691
G1 X133.574 Y93.739 E.43981
G1 X133.037 Y93.739 E.01694
G1 X123.177 Y83.879 E.43981
G1 X122.641 Y83.879 E.01691
G1 X132.501 Y93.739 E.43981
G1 X131.964 Y93.739 E.01694
G1 X122.104 Y83.879 E.43981
G1 X121.568 Y83.879 E.01691
G1 X131.428 Y93.739 E.43981
G1 X130.892 Y93.739 E.01691
G1 X121.031 Y83.879 E.43983
G1 X120.495 Y83.879 E.01691
G1 X130.355 Y93.739 E.43981
G1 X129.819 Y93.739 E.01691
G1 X119.958 Y83.879 E.43983
G1 X119.422 Y83.879 E.01691
G1 X129.282 Y93.739 E.43981
G1 X128.746 Y93.739 E.01691
G1 X118.886 Y83.879 E.43981
G1 X118.349 Y83.879 E.01694
G1 X128.209 Y93.739 E.43981
G1 X127.673 Y93.739 E.01691
G1 X117.813 Y83.879 E.43981
G1 X117.276 Y83.879 E.01694
G1 X127.136 Y93.739 E.43981
G1 X126.6 Y93.739 E.01691
G1 X116.74 Y83.879 E.43981
G1 X116.203 Y83.879 E.01694
G1 X126.064 Y93.739 E.43983
G1 X125.527 Y93.739 E.01694
G1 X115.667 Y83.879 E.43981
G1 X115.13 Y83.879 E.01694
G1 X124.991 Y93.739 E.43983
G1 X124.454 Y93.739 E.01694
G1 X114.594 Y83.879 E.43981
G1 X114.058 Y83.879 E.01691
G1 X123.918 Y93.739 E.43981
G1 X123.381 Y93.739 E.01694
G1 X113.521 Y83.879 E.43981
G1 X112.985 Y83.879 E.01691
G1 X122.845 Y93.739 E.43981
G1 X122.308 Y93.739 E.01694
G1 X112.448 Y83.879 E.43981
G1 X111.912 Y83.879 E.01691
G1 X121.772 Y93.739 E.43981
