( Made using CamBam - http://www.cambam.co.uk )
( zum60sten 8/31/2014 3:03:52 PM )
( T8 : 8.0 )
G21 G90 G64 G40
G0 Z3.0
( T8 : 8.0 )
T8 M6
( zum60 )
G17
M3 S1000
G0 X47.1042 Y48.7496
G0 Z1.0
G1 F60.0 Z-4.0
G3 F500.0 X47.0842 Y48.7247 I199.6072 J-160.2478
G3 X46.2907 Y50.1189 I-6.6154 J-2.8419
G2 X48.2159 Y50.2103 I8.9677 J-168.5053
G2 X47.2207 Y48.891 I-12.3338 J8.2682
G3 X47.1042 Y48.7496 I5.498 J-4.6489
G0 Z3.0
G0 X20.5649 Y6.5972
G0 Z1.0
G1 F60.0 Z-4.0
G3 F500.0 X21.7178 Y4.5303 I6.7789 J2.4262
G3 X18.0841 Y4.0315 I15.1168 J-123.6157
G3 X20.5649 Y6.5972 I-81.55 J81.3318
G1 F60.0 X23.5777 Y7.6755
G3 F500.0 X27.5452 Y5.0285 I3.7661 J1.3479
G2 X37.2669 Y5.2965 I10.7275 J-212.7251
G2 X42.8546 Y4.5659 I-1.6637 J-34.4593
G1 X42.8547
G3 X49.8573 Y3.6604 I8.9348 J41.5665
G3 X50.1953 Y3.6593 I0.1818 J3.9959
G2 X51.012 Y3.3257 I0.0416 J-1.0647
G3 X51.0717 Y3.2638 I2.9098 J2.7446
G2 X51.4557 Y2.2763 I-0.9541 J-0.9395
G3 X51.4563 Y1.9739 I3.9974 J-0.1435
G2 X51.066 Y0.9414 I-1.4122 J-0.0561
G2 X50.2081 Y0.6058 I-0.8169 J0.824
G2 X44.5361 Y1.3403 I1.5793 J34.4633
G1 X44.5359 Y1.3404
G3 X37.5334 Y2.2459 I-8.9348 J-41.5665
G3 X37.3692 Y2.25 I-0.1818 J-3.9959
G3 X13.2216 Y-0.0687 I-0.5346 J-121.3354
G3 X13.2071 Y-0.0716 I0.7784 J-3.9235
G2 X11.9132 Y-0.2114 I-1.4062 J6.9535
G3 X11.7454 Y-0.2176 I0.0633 J-3.9995
G2 X10.6823 Y-0.0215 I-0.1313 J2.268
G2 X10.66 Y0.1291 I0.3191 J0.1242
G3 X10.6717 Y0.4011 I-3.9881 J0.3084
G2 X10.9252 Y1.3138 I1.8292 J-0.0166
G2 X12.0698 Y2.7033 I5.0746 J-3.0139
G3 X12.1058 Y2.7359 I-2.6635 J2.9842
G3 X21.3131 Y12.2134 I-75.5717 J82.6274
G3 X21.3153 Y12.216 I-3.0285 J2.6131
G3 X33.2744 Y27.6196 I-145.2644 J125.1246
G3 X43.8799 Y43.7937 I-256.6401 J179.8451
G3 X40.204 Y49.874 I-3.4111 J2.0891
G2 X29.8856 Y49.4454 I-13.8291 J208.488
G2 X13.8817 Y50.659 I0.2944 J110.0143
G3 X13.6625 Y50.6857 I-0.5926 J-3.9559
G2 X12.6265 Y51.0968 I0.1855 J1.9785
G2 X12.4159 Y51.8994 I1.1431 J0.7288
G3 X12.4197 Y52.2479 I-3.9941 J0.2178
G2 X12.849 Y53.4086 I1.6388 J0.0536
G3 X12.9132 Y53.4805 I-2.9506 J2.7007
G2 X13.519 Y53.7512 I0.5953 J-0.5191
G2 X21.1814 Y53.129 I-2.1747 J-74.2732
G3 X21.2257 Y53.1233 I0.5296 J3.9648
G3 X29.8149 Y52.4934 I10.7961 J88.3428
G3 X29.9764 Y52.4927 I0.0992 J3.9988
G3 X41.3605 Y52.9949 I-3.1136 J199.846
G3 X41.3929 Y52.9974 I-0.2901 J3.9895
G2 X52.2955 Y53.5318 I13.8656 J-171.3838
G3 X52.4357 Y53.5367 I-0.0689 J3.9994
G2 X52.8656 Y53.5099 I0.0984 J-1.8789
G2 X52.0379 Y50.4318 I-7.7131 J0.4238
G3 X52.0255 Y50.4072 I3.5654 J-1.8133
G2 X49.6643 Y46.8249 I-16.1435 J8.0713
G3 X49.5996 Y46.7463 I3.0545 J-2.5827
G3 X36.9316 Y29.5225 I197.1119 J-158.2445
G2 X24.1289 Y11.4035 I-415.61 J280.0833
G3 X23.5777 Y7.6755 I3.2149 J-2.38
G0 Z3.0
G0 X78.4456 Y4.6096
G0 Z1.0
G1 F60.0 Z-4.0
G3 F500.0 X81.2597 Y3.524 I10.5196 J23.0799
G3 X81.4166 Y3.4765 I1.7013 J5.3353
G3 X82.4078 Y3.2219 I5.0455 J17.5859
G2 X81.5297 Y3.4098 I3.7793 J19.8119
G2 X78.4456 Y4.6096 I2.7998 J11.7608
G0 Z3.0
G0 X104.6351 Y5.8418
G0 Z1.0
G1 F60.0 Z-4.0
G3 F500.0 X107.0014 Y8.4472 I-2.7523 J4.877
G2 X107.0016 Y8.306 I-1693.5496 J-2.0947
G3 X107.0023 Y8.222 I5.6 J0.0065
G3 X107.1807 Y4.2381 I69.7469 J1.1271
G3 X107.1923 Y4.1028 I5.5849 J0.4103
G2 X107.28 Y3.0802 I-42.5481 J-4.1658
G3 X104.6351 Y5.8418 I-5.1238 J-2.2599
G1 F60.0 X103.8487 Y7.2352
G3 F500.0 X105.8828 Y10.7385 I-1.9659 J3.4835
G1 X105.8281 Y21.84
G3 X105.8279 Y21.8615 I-4.0 J-0.0197
G1 X105.7186 Y32.4648
G2 X106.7343 Y52.5043 I173.472 J1.2532
G3 X106.749 Y52.6714 I-3.9765 J0.4332
G2 X107.149 Y53.7936 I2.1819 J-0.1455
G2 X107.8297 Y53.9755 I0.6154 J-0.938
G3 X108.1709 Y53.9702 I0.2328 J3.9932
G2 X109.2186 Y53.5628 I0.0393 J-1.4497
G3 X109.2513 Y53.5315 I2.7814 J2.8747
G2 X109.4884 Y52.9169 I-0.5257 J-0.5558
G3 X109.4811 Y52.7996 I3.9882 J-0.3075
G1 X108.4967 Y32.1278
G3 X108.4922 Y31.9288 I3.9955 J-0.1903
G3 X108.547 Y20.0967 I2419.6743 J5.286
G3 Y20.0926 I3.9999 J0.0283
G2 X108.6016 Y8.3079 I-1695.0952 J-13.7401
G3 X108.6021 Y8.2479 I4.0 J0.0046
G3 X108.7764 Y4.3554 I68.1471 J1.1012
G3 X108.7847 Y4.2587 I3.9892 J0.2931
G2 X108.9853 Y0.8977 I-44.1405 J-4.3217
G3 X108.9868 Y0.8453 I3.9991 J0.0867
G2 X108.6704 Y0.0816 I-0.9962 J-0.0347
G3 X108.6024 Y0.0167 I2.728 J-2.9254
G2 X107.6065 Y-0.376 I-0.9646 J0.9869
G3 X107.3544 Y-0.3783 I-0.0909 J-3.999
G2 X106.8505 Y-0.1967 I-0.0287 J0.7104
G2 X106.092 Y1.5345 I3.2607 J2.4606
G3 X100.3679 Y4.3983 I-3.9357 J-0.7142
G2 X86.4845 Y1.2649 I-13.3012 J26.6109
G3 X86.3722 Y1.2655 I-0.0783 J-3.9992
G2 X81.1597 Y1.8531 I-0.1852 J21.7684
G2 X76.7642 Y3.7615 I3.1698 J13.3174
G2 X72.3354 Y11.1011 I5.7155 J8.4548
G3 X72.312 Y11.278 I-3.976 J-0.4371
G2 X70.2268 Y36.4727 I174.7782 J27.1484
G2 X71.8032 Y52.8264 I99.0365 J-1.2934
G3 X71.8426 Y53.096 I-3.936 J0.7127
G2 X72.2607 Y54.1458 I2.1199 J-0.2363
G2 X72.8495 Y54.3025 I0.5362 J-0.8297
G3 X73.1709 Y54.2983 I0.213 J3.9943
G2 X74.2186 Y53.8909 I0.0393 J-1.4497
G3 X74.272 Y53.8403 I2.7814 J2.8747
G2 X74.5886 Y53.0839 I-0.6799 J-0.7291
G2 X73.8185 Y45.5466 I-62.1441 J2.5413
G3 X73.8113 Y45.5011 I3.9471 J-0.6482
G3 X73.0018 Y36.5968 I72.9858 J-11.124
G3 X73.0001 Y36.5009 I3.9982 J-0.1203
G3 X73.614 Y20.5198 I179.803 J-1.0946
G3 X75.548 Y9.3353 I59.1788 J4.4733
G3 X77.4716 Y6.8896 I3.8583 J1.0553
G3 X81.7458 Y5.0484 I11.4936 J20.7999
G3 X81.8578 Y5.0145 I1.2152 J3.8109
G3 X86.3887 Y4.3672 I4.6042 J16.0479
G3 X86.4486 Y4.3674 I0.0176 J4.0
G3 X103.0305 Y6.8869 I-0.6348 J60.0034
G3 X103.8487 Y7.2352 I-1.1476 J3.8318
G0 Z3.0
G0 X131.8763 Y32.6663
G0 Z1.0
G1 F60.0 Z-4.0
G3 F500.0 X131.4191 Y39.4445 I-112.6708 J-4.195
G3 X135.1126 Y36.983 I4.698 J3.0477
G2 X132.9301 Y34.312 I-23.3793 J16.8761
G3 X131.8763 Y32.6663 I4.1168 J-3.7964
G0 Z3.0
G0 X161.2095 Y40.5525
G0 Z1.0
G1 F60.0 Z-4.0
G3 F500.0 X160.923 Y43.2284 I-35.966 J-2.4969
G3 X159.1051 Y49.2865 I-20.2687 J-2.7803
G3 X157.1364 Y51.543 I-5.0504 J-2.4193
G2 X157.8983 Y51.0984 I-2.8556 J-5.7691
G2 X160.4018 Y47.469 I-5.1613 J-6.2384
G3 X164.3272 Y43.8451 I5.3013 J1.8044
G3 X162.0795 Y41.7542 I15.699 J-19.13
G3 X161.2095 Y40.5525 I4.0612 J-3.8558
G0 Z3.0
G0 X182.8843 Y51.6637
G0 Z1.0
G1 F60.0 Z-4.0
G2 F500.0 X186.7618 Y50.2649 I-0.1018 J-6.3556
G2 X188.2674 Y48.4443 I-4.936 J-5.6152
G3 X188.271 Y48.4382 I4.8251 J2.8423
G2 X189.4721 Y45.8411 I-12.2847 J-7.2576
G2 X190.005 Y43.096 I-28.2375 J-6.905
G3 X189.8891 Y43.4181 I-40.2794 J-14.3032
G3 X187.9966 Y47.3735 I-20.8243 J-7.533
G3 X187.985 Y47.3925 I-4.7875 J-2.9052
G3 X185.9535 Y49.8671 I-9.9251 J-6.077
G3 X182.8843 Y51.6637 I-5.4628 J-5.8125
G1 F60.0 X182.4042 Y50.1374
G3 F500.0 X180.7253 Y50.427 I-1.9135 J-6.0828
G3 X180.3011 Y50.4201 I-0.1472 J-3.9973
G3 X176.9606 Y49.609 I0.7081 J-10.2007
G3 X176.958 Y49.6079 I1.5838 J-3.6731
G3 X170.9154 Y46.3797 I16.4109 J-37.9877
G3 X167.1779 Y43.9689 I35.5517 J-59.2193
G3 X163.2398 Y40.6526 I12.8483 J-19.2538
G3 X162.1409 Y37.941 I2.9008 J-2.7541
G3 X162.4222 Y27.3621 I142.1796 J-1.5118
G3 X162.4391 Y27.1706 I3.9919 J0.2551
G1 X164.0797 Y12.569
G3 X164.088 Y12.5004 I3.975 J0.4466
G2 X165.0943 Y-1.3225 I-121.6952 J-15.8071
G3 X165.0963 Y-1.4013 I3.9995 J0.0647
G2 X164.7123 Y-2.3888 I-1.3382 J-0.048
G3 X164.6371 Y-2.4673 I2.8502 J-2.8065
G2 X163.8734 Y-2.7837 I-0.7291 J0.6799
G3 X163.6148 Y-2.783 I-0.139 J-3.9976
G2 X162.7502 Y-2.4386 I-0.035 J1.1695
G2 X162.3722 Y-1.4069 I1.0713 J0.9776
G3 X162.3748 Y-1.2153 I-3.9972 J0.1491
G3 X161.9031 Y8.8434 I-139.0128 J-1.4789
G3 X160.986 Y18.6833 I-352.5394 J-27.8947
G2 X160.125 Y28.3421 I360.4799 J37.0016
G3 X160.1237 Y28.3584 I-3.9886 J-0.3018
G2 X159.6954 Y37.8518 I137.1737 J10.9442
G3 X159.3387 Y43.0049 I-34.452 J0.2038
G3 X157.6621 Y48.5953 I-18.6844 J-2.5569
G3 X152.2902 Y50.457 I-3.6075 J-1.7281
G3 X143.399 Y43.9451 I13.9387 J-28.3576
G3 X143.3069 Y43.8455 I2.89 J-2.7654
G1 X136.8538 Y36.6268
G3 X136.5714 Y36.2724 I2.9821 J-2.6659
G2 X134.1063 Y33.2273 I-24.8381 J17.5867
G3 X133.0478 Y30.6003 I2.9405 J-2.7117
G2 X132.4666 Y21.2476 I-114.6016 J2.4274
G3 X131.8449 Y11.47 I122.6409 J-12.7062
G3 X131.8459 Y11.2443 I3.9989 J-0.095
G3 X132.4011 Y6.062 I35.2058 J1.1512
G3 X132.4174 Y5.9779 I3.9348 J0.7192
G2 X132.8827 Y2.4084 I-24.3006 J-4.9823
G2 X132.5759 Y1.772 I-0.8851 J0.0345
G3 X132.4179 Y1.6282 I2.6116 J-3.0298
G2 X131.3588 Y1.2106 I-1.0387 J1.0824
G3 X131.2574 Y1.2107 I-0.0541 J-3.9996
G2 X130.8505 Y1.4271 I-0.0057 J0.4801
G3 X130.8108 Y1.4864 I-3.3429 J-2.1966
G2 X130.024 Y3.157 I4.8129 J3.2871
G3 X130.0215 Y3.1656 I-3.8431 J-1.1094
G2 X129.3148 Y6.9594 I18.7248 J5.4509
G3 X129.3123 Y6.9872 I-3.9855 J-0.3399
G2 X129.1248 Y11.2149 I44.1741 J4.0773
G2 X129.706 Y20.65 I118.7326 J-2.5785
G1 Y20.6501
G1 Y20.65
G3 X130.3272 Y30.7581 I-126.0668 J12.8202
G3 X130.3271 Y30.9323 I-3.9991 J0.0856
G3 X129.762 Y39.9311 I-111.1216 J-2.461
G2 X129.2884 Y48.3639 I114.484 J10.6605
G2 X129.8831 Y54.6196 I27.914 J0.5024
G3 X129.8841 Y54.6246 I-3.9141 J0.8243
G2 X130.7571 Y56.6808 I5.6351 J-1.1791
G2 X130.7965 Y56.7032 I0.0468 J-0.0365
G2 X131.7003 Y56.2554 I-0.0673 J-1.272
G3 X132.0076 Y55.9318 I3.0497 J2.5884
G2 X132.5519 Y54.7851 I-1.1964 J-1.2704
G2 X132.3188 Y52.1168 I-26.8282 J0.9997
G3 X132.3185 Y52.1146 I3.9625 J-0.5465
G3 X132.0093 Y48.3427 I34.2845 J-4.7088
G3 X132.0085 Y48.1582 I3.9985 J-0.1083
G1 X132.1179 Y42.416
G3 X139.6972 Y40.708 I3.9993 J0.0762
G2 X147.0383 Y49.9684 I25.6134 J-12.7649
G3 X147.1274 Y50.0445 I-2.554 J3.0785
G2 X150.8432 Y52.7455 I16.2924 J-18.5074
G3 X150.933 Y52.8003 I-2.0403 J3.4405
G2 X154.0651 Y53.8081 I3.5372 J-5.6223
G2 X158.8604 Y52.3787 I0.2157 J-8.0343
G2 X161.9165 Y47.9845 I-6.1234 J-7.5186
G3 X168.9295 Y46.909 I3.7867 J1.2889
G2 X174.5837 Y51.6213 I12.3082 J-9.02
G2 X182.3096 Y53.2585 I7.4048 J-15.8955
G3 X182.5165 Y53.26 I0.0732 J3.9993
G2 X187.7914 Y51.49 I0.266 J-7.952
G2 X189.646 Y49.2564 I-5.9656 J-6.8403
G3 X189.6486 Y49.2521 I3.4465 J2.0302
G2 X191.0088 Y46.2924 I-13.6623 J-8.0715
G2 X191.6253 Y43.062 I-29.7742 J-7.3564
G3 X191.6307 Y43.0239 I3.9636 J0.5381
G2 X193.1199 Y31.59 I-378.9671 J-55.173
G3 X193.1409 Y31.4342 I3.9738 J0.4569
G2 X195.2557 Y15.9313 I-424.9928 J-65.8684
G3 X195.2569 Y15.9208 I3.9725 J0.4684
G2 X197.0496 Y0.3252 I-1399.415 J-168.7586
G2 X196.9111 Y-0.0059 I-0.4098 J-0.0231
G3 X196.8132 Y-0.095 I2.6436 J-3.0019
G2 X195.6529 Y-0.5401 I-1.1232 J1.1934
G3 X195.3499 Y-0.5447 I-0.0904 J-3.999
G2 X194.7041 Y-0.3737 I-0.0578 J1.0861
G2 X194.2881 Y0.6596 I1.6422 J1.2616
G3 X194.2686 Y0.8095 I-3.9756 J-0.4409
G2 X192.33 Y17.5035 I254.8816 J38.0587
G3 X192.3199 Y17.608 I-3.9862 J-0.3316
G1 X190.4605 Y34.5611
G3 X190.4429 Y34.6992 I-3.9762 J-0.4361
G3 X188.3851 Y42.8723 I-40.7174 J-5.9064
G3 X186.6288 Y46.5435 I-19.3203 J-6.9872
G3 X186.6205 Y46.557 I-3.4196 J-2.0751
G3 X184.8629 Y48.6964 I-8.5606 J-5.2415
G3 X182.4042 Y50.1374 I-4.3722 J-4.6418
G0 Z3.0
G0 X245.4652 Y35.9853
G0 Z1.0
G1 F60.0 Z-4.0
G3 F500.0 X245.3941 Y35.5646 I3.9029 J-0.8759
G3 X245.04 Y29.4383 I54.1547 J-6.2035
G3 X245.7817 Y20.558 I49.5035 J-0.3365
G3 X248.7513 Y11.6486 I30.548 J5.2324
G3 X255.4637 Y4.1896 I16.8183 J8.3852
G3 X255.5909 Y4.1118 I2.151 J3.3724
G3 X265.2954 Y1.5775 I9.3426 J15.9275
G3 X273.9658 Y3.2789 I0.2858 J21.4857
G3 X274.0354 Y3.3092 I-1.5608 J3.6829
G3 X281.2728 Y9.076 I-7.5359 J16.8826
G3 X285.2655 Y17.4032 I-18.5327 J14.0067
G1 Y17.4034
G3 X286.2903 Y25.9657 I-32.7983 J8.2679
G3 X285.1836 Y33.2965 I-22.7576 J0.3134
G3 X285.1772 Y33.3162 I-3.8051 J-1.2333
G3 X280.5933 Y40.2069 I-14.8186 J-4.8877
G3 X280.5311 Y40.2598 I-2.6236 J-3.0194
G3 X272.6792 Y44.1226 I-11.8951 J-14.2674
G3 X264.9617 Y44.9613 I-7.3788 J-31.9734
G3 X254.971 Y43.0031 I-0.3424 J-24.7184
G3 X254.6245 Y42.8361 I1.5612 J-3.6828
G3 X247.2243 Y38.4864 I59.7963 J-110.2012
G3 X245.4652 Y35.9853 I2.1438 J-3.377
G0 Z3.0
G0 X247.0606 Y42.1499
G0 Z1.0
G1 F60.0 Z-4.0
G2 F500.0 X247.2065 Y42.7294 I50.0401 J-12.2867
G3 X247.5202 Y42.4312 I5.1148 J5.0675
G3 X247.0606 Y42.1499 I66.9006 J-109.7963
G1 F60.0 X243.9529 Y42.9129
G2 F500.0 X247.7614 Y53.5404 I53.1478 J-13.0497
G2 X254.3607 Y64.0991 I52.8014 J-25.6597
G2 X262.9797 Y73.3143 I57.3845 J-45.0341
G3 X263.149 Y73.4756 I-2.6741 J2.9748
G1 X268.2617 Y78.6428
G2 X270.427 Y80.4927 I15.7359 J-16.2268
G2 X271.3428 Y81.0685 I4.1197 J-5.535
G3 X271.3629 Y81.0792 I-1.8574 J3.5426
G2 X272.1164 Y80.6966 I-0.1975 J-1.3221
G3 X272.3111 Y80.5123 I2.8455 J2.8112
G2 X272.5903 Y80.1093 I-0.682 J-0.7708
G2 X271.013 Y77.9849 I-10.6246 J6.2405
G3 X270.9514 Y77.9167 I2.937 J-2.7155
G2 X268.2813 Y75.1009 I-40.8356 J36.0498
G1 X257.1297 Y64.2227
G3 X257.0249 Y64.1166 I2.7931 J-2.8633
G3 X251.8473 Y56.8173 I22.6589 J-21.5587
G3 X248.5367 Y49.0919 I49.6396 J-25.8442
G3 X254.0285 Y44.1795 I3.7846 J-1.295
G2 X261.8141 Y47.2015 I25.2227 J-53.4408
G3 X261.9085 Y47.232 I-1.1803 J3.8219
G2 X266.6048 Y48.1184 I5.5438 J-16.4882
G2 X275.8523 Y46.8382 I0.3697 J-31.3686
G2 X283.2929 Y42.4495 I-5.1153 J-17.1745
G2 X287.6629 Y35.1472 I-12.7747 J-12.6036
G2 X288.9544 Y26.0315 I-28.6212 J-8.7046
G3 X288.9543 Y25.9316 I3.9996 J-0.055
G2 X287.4659 Y15.8255 I-32.5658 J-0.3663
G2 X282.5887 Y7.3138 I-22.5086 J7.2443
G3 X282.5778 Y7.3016 I2.9826 J-2.6654
G2 X274.7557 Y1.7921 I-15.5726 J13.802
G2 X265.0106 Y0.0621 I-9.3743 J24.493
G3 X264.869 Y0.0616 I-0.0566 J-3.9996
G2 X254.702 Y2.0845 I-0.5106 J23.994
G2 X247.3451 Y8.6294 I7.5048 J15.8433
G3 X247.3393 Y8.6386 I-3.391 J-2.1216
G2 X243.4528 Y18.358 I24.5546 J15.4553
G3 X243.4495 Y18.3744 I-3.9211 J-0.7908
G2 X242.3758 Y29.3868 I51.2256 J10.5531
G3 Y29.4519 I-3.9998 J0.0351
G2 X243.9529 Y42.9129 I54.7249 J0.4112
G0 Z3.0
G0 X307.9989 Y42.9118
G0 Z1.0
G1 F60.0 Z-4.0
G2 F500.0 X308.0009 Y43.5048 I90.0685 J-0.0016
G3 Y43.5571 I-3.9999 J0.0264
G2 X309.6374 Y56.9182 I52.585 J0.34
G2 X314.9209 Y69.0531 I41.0121 J-10.6388
G3 X314.9215 Y69.0542 I-3.373 J2.15
G2 X318.9311 Y74.1255 I26.8148 J-17.08
G3 X318.9439 Y74.1387 I-2.8693 J2.787
G2 X335.6844 Y81.0401 I16.2338 J-15.6238
G3 X335.8466 Y81.0397 I0.09 J3.999
G2 X346.7047 Y78.4377 I0.4023 J-22.2774
G2 X354.8107 Y70.6587 I-11.5477 J-20.1461
G3 X354.8408 Y70.6117 I3.3855 J2.1303
G2 X359.69 Y59.4138 I-30.8032 J-19.9882
G2 X361.1417 Y46.9525 I-49.4184 J-12.0722
G3 Y46.8875 I3.9999 J-0.0306
G2 X359.7426 Y28.6638 I-107.3656 J-0.9226
G2 X357.5929 Y20.0135 I-58.3105 J9.8986
G3 X357.5895 Y20.0032 I3.7982 J-1.2545
G2 X353.9734 Y12.2202 I-34.4538 J11.2763
G3 X353.9614 Y12.2006 I3.4026 J-2.103
G2 X345.6068 Y4.3665 I-18.3484 J11.1956
G2 X334.1628 Y1.8663 I-10.9198 J22.5411
G3 X334.0519 Y1.8671 I-0.0837 J-3.9991
G2 X327.5218 Y2.6396 I-0.18 J26.4637
G2 X319.2338 Y6.9918 I4.7322 J19.0791
G2 X313.4025 Y14.8042 I17.4757 J19.1267
G2 X309.1444 Y28.5905 I44.9775 J21.4426
G3 X309.1412 Y28.6109 I-3.9525 J-0.6146
G2 X307.9989 Y42.9118 I88.9262 J14.2993
G1 F60.0 X310.6108 Y42.9321
G3 F500.0 X311.5433 Y30.0749 I99.7986 J0.776
G3 X311.5461 Y30.0553 I3.9625 J0.5464
G3 X313.0755 Y22.7697 I56.7863 J8.1172
G3 X315.9243 Y15.5534 I34.9025 J9.6083
G3 X323.2229 Y7.3694 I19.2228 J9.7967
G3 X323.3426 Y7.2931 I2.2107 J3.3336
G3 X334.0727 Y4.3663 I10.3825 J16.9314
G3 X347.2608 Y9.1631 I0.4011 J19.4251
G3 X347.2977 Y9.1958 I-2.6325 J3.0116
G3 X351.6533 Y14.4415 I-15.5156 J17.3139
G3 X354.4523 Y20.2049 I-28.71 J17.5046
G3 X354.4595 Y20.2242 I-3.7482 J1.3967
G3 X357.4507 Y32.597 I-52.3826 J19.2119
G3 X358.2041 Y44.8913 I-92.7824 J11.8566
G3 X357.2871 Y56.9429 I-71.9125 J0.5887
G3 X357.2833 Y56.9663 I-3.9489 J-0.6376
G3 X355.769 Y63.1243 I-41.6703 J-6.9816
G3 X352.9751 Y69.1771 I-26.7636 J-8.6826
G3 X345.5412 Y76.2423 I-16.445 J-9.8596
G3 X345.4391 Y76.2948 I-1.8798 J-3.5307
G3 X335.7069 Y78.4849 I-9.3567 J-18.8601
G3 X323.9249 Y74.9257 I-0.2337 J-20.5068
G3 X323.8382 Y74.8649 I2.2524 J-3.3055
G3 X316.0874 Y66.0861 I15.49 J-21.487
G3 X310.6101 Y44.3858 I37.4156 J-20.9855
G3 X310.6108 Y42.9321 I99.7994 J-0.6778
G0 Z3.0
G0 X382.5582 Y2.2339
G0 Z1.0
G1 F60.0 Z-4.0
G2 F500.0 X382.7119 Y2.4329 I0.7677 J-0.4343
G3 X382.8855 Y2.6088 I-3.8984 J4.0202
G2 X383.5244 Y2.8775 I0.6234 J-0.5886
G3 X383.7044 Y2.8771 I0.1015 J5.5991
G2 X384.2961 Y2.6255 I0.0111 J-0.7952
G3 X384.5561 Y2.3654 I4.0877 J3.8276
G2 X384.8077 Y1.7738 I-0.5436 J-0.5805
G3 X384.8081 Y1.5938 I5.5995 J-0.0785
G2 X384.5394 Y0.9548 I-0.8573 J-0.0155
G3 X384.3635 Y0.7812 I3.8443 J-4.072
G2 X383.7161 Y0.5133 I-0.6333 J0.6141
G3 X383.5137 Y0.5129 I-0.0901 J-5.5993
G2 X382.8177 Y0.7977 I-0.019 J0.9466
G3 X382.7282 Y0.8871 I-4.0042 J-3.9149
G2 X382.4436 Y1.583 I0.6618 J0.6769
G3 X382.444 Y1.7855 I-5.5989 J0.1123
G2 X382.5582 Y2.2339 I0.8819 J0.0142
G1 F60.0 X381.1655 Y3.0217
G2 F500.0 X381.598 Y3.5815 I2.1603 J-1.222
G3 X381.722 Y3.7072 I-2.7846 J2.8716
G2 X383.5534 Y4.4772 I1.7869 J-1.6869
G3 X383.682 Y4.477 I0.0725 J3.9993
G2 X385.464 Y3.7191 I0.0336 J-2.3951
G3 X385.6497 Y3.5333 I2.9198 J2.734
G2 X386.4076 Y1.7514 I-1.6372 J-1.7484
G3 X386.4078 Y1.6228 I3.9996 J-0.056
G2 X385.6378 Y-0.2086 I-2.457 J-0.0445
G3 X385.5122 Y-0.3326 I2.7459 J-2.9086
G2 X383.6903 Y-1.0865 I-1.7819 J1.7279
G3 X383.5458 Y-1.0867 I-0.0644 J-3.9995
G2 X381.6736 Y-0.3209 I-0.0511 J2.5463
G3 X381.6097 Y-0.257 I-2.8602 J-2.7963
G2 X380.8439 Y1.6151 I1.7803 J1.821
G3 X380.8442 Y1.7597 I-3.9992 J0.0802
G2 X381.1655 Y3.0217 I2.4817 J0.04
G0 Z3.0
M5
M30
