( Made using CamBam - http://www.cambam.co.uk )
( zum60sten 8/31/2014 3:04:03 PM )
( T8 : 8.0 )
G21 G90 G64 G40
G0 Z3.0
( T8 : 8.0 )
T8 M6
( zum1 )
G17
M3 S1000
G0 X64.7504 Y36.4922
G0 Z1.0
G1 F60.0 Z-4.0
G3 F500.0 X64.73 Y36.5213 I-5.9067 J-4.1172
G2 X64.7666 Y36.522 I3.1865 J-169.7737
G3 X64.7504 Y36.4922 I6.3272 J-3.4361
G1 F60.0 X62.1252 Y34.6623
G3 F500.0 X58.6604 Y36.3708 I-3.2815 J-2.2873
G3 X44.7625 Y34.621 I4.0488 J-88.2283
G3 X31.1909 Y30.1553 I12.6264 J-61.2267
G3 X31.0771 Y30.1006 I1.6763 J-3.6318
G2 X30.3442 Y29.9214 I-0.7592 J1.5172
G3 X30.336 Y29.9213 I0.062 J-3.9995
G2 X29.5206 Y30.301 I-0.018 J1.0266
G3 X29.3977 Y30.4455 I-3.1066 J-2.5198
G2 X28.9372 Y31.6733 I1.3518 J1.2072
G3 X28.9375 Y31.7029 I-3.9997 J0.0455
G2 X29.7205 Y33.003 I1.4805 J-0.0059
G3 X29.8486 Y33.0745 I-1.8845 J3.5283
G2 X38.5177 Y36.6424 I17.2907 J-29.6963
G3 X38.5245 Y36.6441 I-1.0036 J3.8721
G2 X53.2585 Y39.1292 I21.4073 J-82.0022
G3 X53.2819 Y39.1311 I-0.315 J3.9876
G2 X68.5632 Y39.75 I14.6346 J-172.3835
G3 X68.679 Y39.7513 I0.015 J4.0
G2 X69.6714 Y39.3516 I0.034 J-1.3474
G3 X69.6884 Y39.3344 I2.8443 J2.8125
G2 X70.1033 Y38.2901 I-1.0016 J-1.0025
G3 X70.1029 Y38.0673 I3.9983 J-0.1182
G2 X69.9037 Y37.159 I-1.9384 J-0.0507
G2 X69.3651 Y36.6931 I-1.1235 J0.7545
G3 X67.1666 Y33.8459 I1.7287 J-3.6072
G2 X62.5446 Y20.3266 I-50.885 J9.8469
G2 X54.1011 Y9.168 I-35.6781 J18.2231
G3 X54.0669 Y9.1359 I2.7192 J-2.9336
G2 X31.2814 Y0.2262 I-22.3402 J23.542
G3 X31.1647 Y0.2261 I-0.0549 J-3.9996
G2 X21.5201 Y1.6119 I-0.4784 J30.9233
G2 X14.0464 Y6.366 I5.1269 J16.3115
G2 X9.5483 Y15.3095 I16.1602 J13.7305
G3 X9.5415 Y15.3386 I-3.8968 J-0.903
G2 X8.32 Y26.2554 I43.2716 J10.3683
G3 X8.3203 Y26.2925 I-3.9997 J0.0493
G2 X10.0064 Y40.2919 I60.4947 J-0.1847
G2 X14.6396 Y53.811 I74.8862 J-18.1111
G3 X14.6509 Y53.8364 I-3.6474 J1.6422
G2 X21.5901 Y66.2527 I69.6415 J-30.7737
G2 X30.8728 Y76.7417 I47.8319 J-32.9788
G3 X30.8995 Y76.7656 I-2.654 J2.9927
G2 X36.6905 Y80.561 I15.0956 J-16.7174
G2 X42.987 Y81.9139 I6.3709 J-14.3214
G2 X48.6094 Y81.012 I-0.6705 J-22.1553
G3 X48.6545 Y80.9989 I1.1356 J3.8354
G2 X54.6496 Y78.9306 I-15.4257 J-54.4347
G3 X54.751 Y78.8907 I1.5144 J3.7022
G2 X60.0572 Y76.2048 I-9.7871 J-25.9193
G2 X61.7852 Y74.6572 I-4.3556 J-6.6018
G3 X61.8192 Y74.6169 I3.0768 J2.5561
G2 X62.1163 Y73.8842 I-0.9528 J-0.813
G2 X61.632 Y72.7575 I-1.6789 J0.0543
G3 X61.4858 Y72.6015 I2.8446 J-2.8122
G2 X60.7014 Y72.2011 I-0.9045 J0.8033
G2 X60.5555 Y72.2533 I0.1411 J0.6247
G3 X60.4547 Y72.3021 I-1.7929 J-3.5757
G2 X59.2939 Y72.9384 I4.3317 J9.2786
G3 X59.2542 Y72.9633 I-2.1455 J-3.3759
G3 X51.9681 Y76.6915 I-26.4766 J-42.7599
G3 X43.1713 Y78.6463 I-9.6039 J-22.4489
G3 X42.9498 Y78.6474 I-0.1322 J-3.9978
G3 X36.3436 Y76.785 I0.3067 J-13.7351
G3 X31.6587 Y73.2448 I11.5921 J-20.2107
G3 X31.6285 Y73.215 I2.7944 J-2.862
G3 X27.966 Y69.1064 I33.1338 J-33.2224
G3 X24.8077 Y65.0275 I106.1705 J-85.4724
G3 X14.8856 Y46.8787 I53.8626 J-41.2336
G3 X14.877 Y46.8547 I3.7612 J-1.3613
G3 X11.3671 Y26.3181 I57.4917 J-20.394
G3 X11.9531 Y18.2674 I49.4721 J-0.4461
G3 X11.9567 Y18.2447 I3.9525 J0.6148
G3 X13.0186 Y13.9724 I26.0344 J4.2032
G3 X15.3279 Y9.5368 I15.0002 J4.9905
G3 X15.4488 Y9.3822 I3.2111 J2.3851
G3 X23.404 Y4.3789 I11.4896 J9.4425
G3 X31.2256 Y3.437 I7.4063 J28.5564
G3 X50.8534 Y10.5938 I0.4269 J29.3226
G3 X50.8664 Y10.6051 I-2.619 J3.0234
G3 X58.5413 Y20.2925 I-22.3905 J25.6231
G3 X58.5438 Y20.2971 I-3.5342 J1.8733
G3 X62.7358 Y31.4519 I-41.7196 J22.0434
G3 X62.1252 Y34.6623 I-3.892 J0.9231
G0 Z3.0
G0 X86.4981 Y28.9685
G0 Z1.0
G1 F60.0 Z-4.0
G3 F500.0 X86.15 Y27.3726 I53.8401 J-12.5777
G3 X91.7882 Y22.9658 I3.9203 J-0.7945
G1 X108.5773 Y30.9502
G3 X108.5963 Y30.9593 I-1.7179 J3.6123
G3 X116.0869 Y34.8713 I-57.1673 J118.5902
G3 X123.4692 Y39.8076 I-24.9715 J45.3339
G3 X123.6692 Y45.8806 I-2.5005 J3.1221
G3 X115.8931 Y50.2235 I-13.0888 J-14.303
G3 X115.8874 Y50.2251 I-1.0961 J-3.8469
G3 X107.7937 Y51.305 I-7.7851 J-27.4768
G3 X93.5877 Y44.6376 I-0.2253 J-17.9876
G3 X88.7021 Y36.1564 I22.9742 J-18.8821
G3 X86.4981 Y28.9685 I51.636 J-19.7655
G0 Z3.0
G0 X86.4793 Y22.2894
G0 Z1.0
G1 F60.0 Z-4.0
G3 F500.0 X88.1378 Y21.3289 I3.591 J4.2887
G3 X86.6083 Y19.9902 I2.8622 J-4.8133
G2 X86.4793 Y22.2894 I21.6841 J2.3696
G1 F60.0 X84.8793 Y22.2842
G2 F500.0 X84.8823 Y22.7398 I23.4131 J0.0756
G3 X84.8827 Y22.839 I-3.9995 J0.0649
G2 X86.3043 Y34.2525 I43.5245 J0.3739
G2 X91.0339 Y44.3313 I30.1991 J-8.0222
G3 X91.0693 Y44.3819 I-3.2605 J2.3172
G2 X98.312 Y50.9442 I17.4949 J-12.031
G2 X107.7268 Y53.1489 I9.1053 J-17.6776
G3 X107.8173 Y53.1485 I0.0623 J3.9995
G2 X114.6881 Y52.5709 I0.2676 J-37.9695
G3 X114.7044 Y52.5681 I0.6956 J3.9391
G2 X120.774 Y50.5319 I-3.5664 J-20.6953
G3 X120.8096 Y50.5137 I1.8354 J3.5541
G2 X124.4681 Y47.2446 I-4.2527 J-8.4408
G2 X125.6652 Y42.586 I-7.658 J-4.4509
G3 X125.6642 Y42.5241 I3.9989 J-0.0938
G2 X124.546 Y39.1075 I-5.923 J0.0472
G2 X121.2363 Y35.8481 I-11.4315 J8.2975
G2 X116.03 Y32.8747 I-26.0554 J39.5788
G3 X115.9843 Y32.852 I1.76 J-3.592
G2 X110.1982 Y30.0384 I-92.2651 J182.3838
G3 X110.1779 Y30.0288 I1.6924 J-3.6243
G1 X89.2872 Y20.1304
G3 X87.6547 Y14.3226 I1.7128 J-3.6148
G3 X96.7747 Y6.1212 I20.0928 J13.1717
G3 X96.8798 Y6.0692 I1.8269 J3.5584
G3 X109.3484 Y3.3837 I11.8968 J24.9475
G3 X109.3735 Y3.3843 I-0.0827 J3.9991
G3 X119.2178 Y4.9565 I-1.0265 J38.0331
G3 X124.3338 Y6.8429 I-7.9593 J29.4654
G3 X129.6642 Y11.1438 I-5.4321 J12.186
G3 X129.8616 Y11.4401 I-3.2267 J2.364
G2 X130.6449 Y12.4197 I4.1025 J-2.4774
G2 X130.9011 Y12.2497 I-0.2312 J-0.6266
G3 X131.2058 Y11.9571 I2.9192 J2.7347
G2 X131.3515 Y11.6444 I-0.2751 J-0.3185
G2 X130.9213 Y10.0015 I-3.4151 J0.0165
G2 X128.2652 Y7.2582 I-7.5703 J4.6724
G3 X128.2118 Y7.2222 I2.2096 J-3.3343
G2 X123.9671 Y4.8712 I-14.3891 J20.9719
G3 X123.8792 Y4.8317 I1.5954 J-3.6681
G2 X109.2158 Y1.4841 I-15.1888 J32.742
G2 X99.7791 Y2.6972 I-0.3568 J34.5351
G2 X91.7513 Y6.7855 I5.9571 J21.6231
G2 X86.5182 Y13.754 I11.0998 J13.7849
G2 X84.8793 Y22.2842 I21.7742 J8.6058
G0 Z3.0
G0 X151.5759 Y22.7118
G0 Z1.0
G1 F60.0 Z-4.0
G1 F500.0 X151.586 Y21.139
G1 X151.6407 Y12.1709
G3 X154.013 Y8.5415 I3.9999 J0.0244
G3 X161.5869 Y5.3997 I64.5092 J144.8131
G3 X161.9028 Y5.293 I1.4366 J3.7331
G3 X170.6251 Y4.0935 I8.4035 J28.7948
G3 X179.262 Y5.7452 I0.2285 J22.2125
G3 X179.3171 Y5.7682 I-1.5141 J3.7024
G3 X186.6181 Y11.0008 I-8.1203 J19.04
G3 X192.727 Y27.6045 I-17.7516 J15.9569
G3 X191.6561 Y35.766 I-30.1543 J0.1943
G3 X191.6522 Y35.7802 I-3.8579 J-1.0568
G3 X187.8548 Y43.5397 I-22.7387 J-6.319
G3 X172.6027 Y51.0847 I-14.7284 J-10.5847
G3 X161.5486 Y48.0532 I0.498 J-23.486
G3 X161.4267 Y47.9815 I1.9671 J-3.4829
G3 X153.2037 Y42.3282 I49.3563 J-80.598
G3 X151.6409 Y39.2025 I2.437 J-3.1719
G1 X151.5315 Y29.7416
G3 X151.5313 Y29.6697 I3.9997 J-0.0462
G1 X151.5759 Y22.7118
G0 Z3.0
G0 X151.9212 Y8.0175
G0 Z1.0
G1 F60.0 Z-4.0
G3 F500.0 X153.3645 Y7.0858 I3.7194 J4.1778
G3 X154.6308 Y6.5282 I65.1577 J146.2688
G3 X151.8111 Y5.2648 I0.7911 J-5.5438
G2 X151.8814 Y7.3569 I118.7451 J-2.9432
G3 X151.9212 Y8.0175 I-87.2933 J5.5912
G0 Z3.0
G0 X151.48 Y42.8949
G0 Z1.0
G1 F60.0 Z-4.0
G2 F500.0 X151.4516 Y46.6038 I838.4429 J8.273
G2 X151.4527 Y47.1903 I4204.4347 J-7.7168
G3 X154.7158 Y45.4368 I4.1332 J3.7784
G3 X152.2328 Y43.5919 I56.0672 J-78.0532
G3 X151.48 Y42.8949 I3.4079 J-4.4356
G1 F60.0 X149.8801 Y42.8791
G2 F500.0 X149.8516 Y46.6009 I840.0428 J8.2887
G2 X149.9062 Y61.6651 I4206.0347 J-7.714
G3 X149.9609 Y76.885 I-3459.6866 J20.0546
G3 X149.9605 Y76.9517 I-4.0 J0.0056
G2 X150.8933 Y80.9831 I8.6102 J0.1314
G2 X151.7038 Y81.9773 I2.7076 J-1.38
G2 X152.2425 Y82.1333 I0.5239 J-0.8006
G3 X152.3505 Y82.1331 I0.0622 J3.9995
G2 X152.4083 Y81.5084 I-2.7803 J-0.5721
G2 X152.2136 Y79.9325 I-10.1357 J0.4525
G1 Y79.9326
G1 Y79.9325
G3 X151.8628 Y77.0562 I17.7756 J-3.6273
G3 X151.8598 Y76.9454 I3.9966 J-0.1656
G1 X151.6957 Y64.9689
G3 X151.6954 Y64.9454 I3.9996 J-0.0548
G1 X151.5861 Y51.0001
G3 X157.8719 Y47.6863 I3.9999 J-0.0314
G2 X166.0618 Y52.0543 I22.4602 J-32.2509
G3 X166.0952 Y52.0674 I-1.4524 J3.727
G2 X172.7698 Y53.4224 I7.0544 J-17.6329
G2 X181.6188 Y51.5614 I0.2759 J-20.6568
G2 X188.6511 Y45.9179 I-8.7789 J-18.1424
G3 X188.6877 Y45.8722 I3.1379 J2.4806
G2 X193.2549 Y37.4006 I-19.8481 J-16.1674
G2 X194.6799 Y27.5995 I-30.9361 J-9.5017
G3 Y27.5242 I3.9998 J-0.037
G2 X192.9781 Y17.5837 I-28.3013 J-0.2709
G2 X187.7202 Y9.1318 I-23.9339 J9.0278
G3 X187.661 Y9.0671 I2.9204 J-2.7333
G2 X170.7079 Y1.7023 I-16.494 J14.7728
G3 X170.5718 Y1.7028 I-0.0829 J-3.9991
G2 X157.12 Y4.606 I-0.4088 J30.7207
G3 X152.0485 Y3.1338 I-1.6981 J-3.6217
G2 X151.3691 Y2.4119 I-2.2399 J1.4272
G2 X151.1783 Y2.3593 I-0.1887 J0.3125
G3 X151.0973 Y2.3589 I-0.0221 J-3.9999
G2 X150.4769 Y2.6166 I-0.0125 J0.8456
G3 X150.4378 Y2.6566 I-2.8754 J-2.7807
G2 X150.1776 Y3.3169 I0.6351 J0.6316
G3 X150.1795 Y3.4092 I-3.9979 J0.1284
G2 X150.2836 Y7.4421 I120.3767 J-1.0875
G3 X150.4528 Y11.8144 I-85.6955 J5.506
G3 X150.453 Y11.8937 I-3.9997 J0.0528
G3 X150.1234 Y29.3176 I-709.1485 J-4.7021
G2 X149.8801 Y42.8791 I839.7995 J21.8503
G0 Z3.0
G0 X222.1097 Y4.6096
G0 Z1.0
G1 F60.0 Z-4.0
G3 F500.0 X224.9237 Y3.524 I10.5196 J23.0799
G3 X225.0806 Y3.4765 I1.7013 J5.3353
G3 X226.0718 Y3.2219 I5.0455 J17.5859
G2 X225.1938 Y3.4098 I3.7793 J19.8119
G2 X222.1097 Y4.6096 I2.7998 J11.7608
G0 Z3.0
G0 X248.2992 Y5.8418
G0 Z1.0
G1 F60.0 Z-4.0
G3 F500.0 X250.6655 Y8.4472 I-2.7523 J4.877
G2 X250.6656 Y8.306 I-1693.5496 J-2.0947
G3 X250.6664 Y8.222 I5.6 J0.0065
G3 X250.8447 Y4.2381 I69.7469 J1.1271
G3 X250.8563 Y4.1028 I5.5849 J0.4103
G2 X250.9441 Y3.0802 I-42.5481 J-4.1658
G3 X248.2992 Y5.8418 I-5.1238 J-2.2599
G1 F60.0 X247.5909 Y4.4071
G3 F500.0 X244.0319 Y4.3983 I-1.7706 J-3.5868
G2 X230.1486 Y1.2649 I-13.3012 J26.6109
G3 X230.0363 Y1.2655 I-0.0783 J-3.9992
G2 X224.8238 Y1.8531 I-0.1852 J21.7684
G2 X220.4283 Y3.7615 I3.1698 J13.3174
G2 X215.9995 Y11.1011 I5.7155 J8.4548
G3 X215.976 Y11.278 I-3.976 J-0.4371
G2 X213.8909 Y36.4727 I174.7782 J27.1484
G2 X215.4672 Y52.8264 I99.0365 J-1.2934
G3 X215.5066 Y53.096 I-3.936 J0.7127
G2 X215.9248 Y54.1458 I2.1199 J-0.2363
G2 X216.5136 Y54.3025 I0.5362 J-0.8297
G3 X216.835 Y54.2983 I0.213 J3.9943
G2 X217.8827 Y53.8909 I0.0393 J-1.4497
G3 X217.936 Y53.8403 I2.7814 J2.8747
G2 X218.2526 Y53.0839 I-0.6799 J-0.7291
G2 X217.4826 Y45.5466 I-62.1441 J2.5413
G3 X217.4754 Y45.5011 I3.9471 J-0.6482
G3 X216.6659 Y36.5968 I72.9858 J-11.124
G3 X216.6641 Y36.5009 I3.9982 J-0.1203
G3 X217.2781 Y20.5198 I179.803 J-1.0946
G3 X219.212 Y9.3353 I59.1788 J4.4733
G3 X221.1357 Y6.8896 I3.8583 J1.0553
G3 X225.4098 Y5.0484 I11.4936 J20.7999
G3 X225.5219 Y5.0145 I1.2152 J3.8109
G3 X230.0527 Y4.3672 I4.6042 J16.0479
G3 X230.1126 Y4.3674 I0.0176 J4.0
G3 X246.6945 Y6.8869 I-0.6348 J60.0034
G3 X249.5468 Y10.7385 I-1.1476 J3.8318
G1 X249.4921 Y21.84
G3 X249.492 Y21.8615 I-4.0 J-0.0197
G1 X249.3827 Y32.4648
G2 X250.3984 Y52.5043 I173.472 J1.2532
G3 X250.413 Y52.6714 I-3.9765 J0.4332
G2 X250.8131 Y53.7936 I2.1819 J-0.1455
G2 X251.4938 Y53.9755 I0.6154 J-0.938
G3 X251.835 Y53.9702 I0.2328 J3.9932
G2 X252.8827 Y53.5628 I0.0393 J-1.4497
G3 X252.9154 Y53.5315 I2.7814 J2.8747
G2 X253.1525 Y52.9169 I-0.5257 J-0.5558
G3 X253.1452 Y52.7996 I3.9882 J-0.3075
G1 X252.1608 Y32.1278
G3 X252.1563 Y31.9288 I3.9955 J-0.1903
G3 X252.211 Y20.0967 I2419.6743 J5.286
G3 X252.2111 Y20.0926 I3.9999 J0.0283
G2 X252.2656 Y8.3079 I-1695.0952 J-13.7401
G3 X252.2661 Y8.2479 I4.0 J0.0046
G3 X252.4404 Y4.3554 I68.1471 J1.1012
G3 X252.4487 Y4.2587 I3.9892 J0.2931
G2 X252.6494 Y0.8977 I-44.1405 J-4.3217
G3 X252.6509 Y0.8453 I3.9991 J0.0867
G2 X252.3345 Y0.0816 I-0.9962 J-0.0347
G3 X252.2665 Y0.0167 I2.728 J-2.9254
G2 X251.2705 Y-0.376 I-0.9646 J0.9869
G3 X251.0185 Y-0.3783 I-0.0909 J-3.999
G2 X250.5146 Y-0.1967 I-0.0287 J0.7104
G2 X249.756 Y1.5345 I3.2607 J2.4606
G3 X247.5909 Y4.4071 I-3.9357 J-0.7142
G0 Z3.0
G0 X275.3734 Y35.3949
G0 Z1.0
G1 F60.0 Z-4.0
G1 F500.0 Y40.2299
G2 X275.4545 Y44.6708 I201.7632 J-1.4609
G3 X279.452 Y41.984 I4.819 J2.8527
G3 X278.688 Y40.9636 I21.5516 J-16.931
G3 X275.3734 Y35.3949 I31.5134 J-22.5281
G1 F60.0 X276.812 Y34.6944
G3 F500.0 X276.2319 Y33.4447 I33.3895 J-16.2589
G3 X275.8907 Y31.8135 I3.6588 J-1.6166
G1 X276.0 Y1.8448
G3 X276.0004 Y1.8059 I4.0 J0.0146
G2 X275.8638 Y0.6936 I-4.1483 J-0.0555
G3 X275.8443 Y0.616 I3.868 J-1.019
G2 X275.8016 Y0.5363 I-0.175 J0.0424
G2 X274.7321 Y0.3333 I-0.98 J2.2436
G3 X274.5131 Y0.3353 I-0.1462 J-3.9973
G2 X273.9764 Y0.4006 I-0.0354 J1.9464
G2 X273.7719 Y1.7485 I3.6381 J1.2414
G3 X273.7734 Y1.8594 I-3.9985 J0.1108
G1 Y40.2356
G2 X273.8795 Y45.4979 I203.3632 J-1.4667
G3 X274.0467 Y51.0361 I-140.7852 J7.0208
G3 X274.0403 Y51.3073 I-3.9998 J0.0421
G2 X274.2844 Y52.5567 I2.5662 J0.1472
G2 X274.5502 Y52.6135 I0.2288 J-0.4204
G3 X274.9837 Y52.6035 I0.3092 J3.988
G2 X275.2088 Y52.5593 I0.016 J-0.5143
G2 X275.8938 Y51.1783 I-1.9755 J-1.8403
G3 X275.9227 Y51.0283 I3.9417 J0.6805
G2 X276.2736 Y47.5547 I-15.7699 J-3.3475
G3 X283.0829 Y44.6762 I3.9999 J-0.0313
G2 X292.5809 Y51.283 I23.8822 J-24.2027
G2 X303.5586 Y53.6406 I10.9008 J-24.0202
G3 X303.6527 Y53.6415 I0.0117 J4.0
G2 X305.6145 Y53.2465 I0.0948 J-4.5985
G2 X306.7933 Y52.1876 I-1.3828 J-2.7251
G2 X308.0124 Y48.8183 I-7.8952 J-4.7619
G3 X308.0217 Y48.7605 I3.9541 J0.6041
G2 X308.3752 Y44.2777 I-25.3542 J-4.2545
G3 X308.3751 Y44.2185 I3.9998 J-0.0355
G2 X308.3227 Y40.552 I-90.7551 J-0.5371
G3 X308.3207 Y40.4708 I3.9976 J-0.1379
G2 X307.6652 Y37.8236 I-6.0177 J0.0854
G2 X307.0986 Y37.5705 I-0.5253 J0.415
G3 X306.7782 Y37.5775 I-0.247 J-3.9924
G2 X306.3291 Y37.6262 I-0.0328 J1.7912
G2 X306.1469 Y38.8818 I3.5298 J1.1531
G3 X306.1476 Y39.0749 I-3.9985 J0.1104
G3 X305.9798 Y43.021 I-90.4757 J-1.8713
G1 X305.8178 Y47.5568
G3 X301.3718 Y51.3888 I-3.9975 J-0.1428
G3 X293.3769 Y49.6763 I4.6537 J-41.244
G3 X285.6478 Y45.7935 I8.2979 J-26.1517
G3 X285.5963 Y45.7558 I2.3366 J-3.2466
G3 X279.9902 Y40.034 I15.4073 J-20.7028
G3 X276.812 Y34.6944 I30.2112 J-21.5984
G0 Z3.0
M5
M30
