( Made using CamBam - http://www.cambam.co.uk )
( zum60sten 8/31/2014 2:41:16 PM )
( T8 : 8.0 )
G21 G90 G64 G40
G0 Z3.0
( T8 : 8.0 )
T8 M6
( zum60sten )
G17
M3 S1000
G0 X83.1042 Y48.7496
G0 Z1.0
G1 F60.0 Z-4.0
G3 F300.0 X83.0842 Y48.7247 I199.6072 J-160.2478
G3 X82.2907 Y50.1189 I-6.6154 J-2.8419
G2 X84.2159 Y50.2103 I8.9677 J-168.5053
G2 X83.2207 Y48.891 I-12.3338 J8.2682
G3 X83.1042 Y48.7496 I5.498 J-4.6489
G0 Z3.0
G0 X56.5649 Y6.5972
G0 Z1.0
G1 F60.0 Z-4.0
G3 F300.0 X57.7178 Y4.5303 I6.7789 J2.4262
G3 X54.0841 Y4.0315 I15.1168 J-123.6157
G3 X56.5649 Y6.5972 I-81.55 J81.3318
G1 F60.0 X59.5777 Y7.6755
G3 F300.0 X63.5452 Y5.0285 I3.7661 J1.3479
G2 X73.2669 Y5.2965 I10.7275 J-212.7251
G2 X78.8546 Y4.5659 I-1.6637 J-34.4593
G1 X78.8547
G3 X85.8573 Y3.6604 I8.9348 J41.5665
G3 X86.1953 Y3.6593 I0.1818 J3.9959
G2 X87.012 Y3.3257 I0.0416 J-1.0647
G3 X87.0717 Y3.2638 I2.9098 J2.7446
G2 X87.4557 Y2.2763 I-0.9541 J-0.9395
G3 X87.4563 Y1.9739 I3.9974 J-0.1435
G2 X87.066 Y0.9414 I-1.4122 J-0.0561
G2 X86.2081 Y0.6058 I-0.8169 J0.824
G2 X80.5361 Y1.3403 I1.5793 J34.4633
G1 X80.5359 Y1.3404
G3 X73.5334 Y2.2459 I-8.9348 J-41.5665
G3 X73.3692 Y2.25 I-0.1818 J-3.9959
G3 X49.2216 Y-0.0687 I-0.5346 J-121.3354
G3 X49.2071 Y-0.0716 I0.7784 J-3.9235
G2 X47.9132 Y-0.2114 I-1.4062 J6.9535
G3 X47.7454 Y-0.2176 I0.0633 J-3.9995
G2 X46.6823 Y-0.0215 I-0.1313 J2.268
G2 X46.66 Y0.1291 I0.3191 J0.1242
G3 X46.6717 Y0.4011 I-3.9881 J0.3084
G2 X46.9252 Y1.3138 I1.8292 J-0.0166
G2 X48.0698 Y2.7033 I5.0746 J-3.0139
G3 X48.1058 Y2.7359 I-2.6635 J2.9842
G3 X57.3131 Y12.2134 I-75.5717 J82.6274
G3 X57.3153 Y12.216 I-3.0285 J2.6131
G3 X69.2744 Y27.6196 I-145.2644 J125.1246
G3 X79.8799 Y43.7937 I-256.6401 J179.8451
G3 X76.204 Y49.874 I-3.4111 J2.0891
G2 X65.8856 Y49.4454 I-13.8291 J208.488
G2 X49.8817 Y50.659 I0.2944 J110.0143
G3 X49.6625 Y50.6857 I-0.5926 J-3.9559
G2 X48.6265 Y51.0968 I0.1855 J1.9785
G2 X48.4159 Y51.8994 I1.1431 J0.7288
G3 X48.4197 Y52.2479 I-3.9941 J0.2178
G2 X48.849 Y53.4086 I1.6388 J0.0536
G3 X48.9132 Y53.4805 I-2.9506 J2.7007
G2 X49.519 Y53.7512 I0.5953 J-0.5191
G2 X57.1814 Y53.129 I-2.1747 J-74.2732
G3 X57.2257 Y53.1233 I0.5296 J3.9648
G3 X65.8149 Y52.4934 I10.7961 J88.3428
G3 X65.9764 Y52.4927 I0.0992 J3.9988
G3 X77.3605 Y52.9949 I-3.1136 J199.846
G3 X77.3929 Y52.9974 I-0.2901 J3.9895
G2 X88.2955 Y53.5318 I13.8656 J-171.3838
G3 X88.4357 Y53.5367 I-0.0689 J3.9994
G2 X88.8656 Y53.5099 I0.0984 J-1.8789
G2 X88.0379 Y50.4318 I-7.7131 J0.4238
G3 X88.0255 Y50.4072 I3.5654 J-1.8133
G2 X85.6643 Y46.8249 I-16.1435 J8.0713
G3 X85.5996 Y46.7463 I3.0545 J-2.5827
G3 X72.9316 Y29.5225 I197.1119 J-158.2445
G2 X60.1289 Y11.4035 I-415.61 J280.0833
G3 X59.5777 Y7.6755 I3.2149 J-2.38
G0 Z3.0
G0 X114.4456 Y4.6096
G0 Z1.0
G1 F60.0 Z-4.0
G3 F300.0 X117.2597 Y3.524 I10.5196 J23.0799
G3 X117.4166 Y3.4765 I1.7013 J5.3353
G3 X118.4078 Y3.2219 I5.0455 J17.5859
G2 X117.5297 Y3.4098 I3.7793 J19.8119
G2 X114.4456 Y4.6096 I2.7998 J11.7608
G0 Z3.0
G0 X140.6351 Y5.8418
G0 Z1.0
G1 F60.0 Z-4.0
G3 F300.0 X143.0014 Y8.4472 I-2.7523 J4.877
G2 X143.0016 Y8.306 I-1693.5496 J-2.0947
G3 X143.0023 Y8.222 I5.6 J0.0065
G3 X143.1807 Y4.2381 I69.7469 J1.1271
G3 X143.1923 Y4.1028 I5.5849 J0.4103
G2 X143.28 Y3.0802 I-42.5481 J-4.1658
G3 X140.6351 Y5.8418 I-5.1238 J-2.2599
G1 F60.0 X139.9269 Y4.4071
G3 F300.0 X136.3679 Y4.3983 I-1.7706 J-3.5868
G2 X122.4845 Y1.2649 I-13.3012 J26.6109
G3 X122.3722 Y1.2655 I-0.0783 J-3.9992
G2 X117.1597 Y1.8531 I-0.1852 J21.7684
G2 X112.7642 Y3.7615 I3.1698 J13.3174
G2 X108.3354 Y11.1011 I5.7155 J8.4548
G3 X108.312 Y11.278 I-3.976 J-0.4371
G2 X106.2268 Y36.4727 I174.7782 J27.1484
G2 X107.8032 Y52.8264 I99.0365 J-1.2934
G3 X107.8426 Y53.096 I-3.936 J0.7127
G2 X108.2607 Y54.1458 I2.1199 J-0.2363
G2 X108.8495 Y54.3025 I0.5362 J-0.8297
G3 X109.1709 Y54.2983 I0.213 J3.9943
G2 X110.2186 Y53.8909 I0.0393 J-1.4497
G3 X110.272 Y53.8403 I2.7814 J2.8747
G2 X110.5886 Y53.0839 I-0.6799 J-0.7291
G2 X109.8185 Y45.5466 I-62.1441 J2.5413
G3 X109.8113 Y45.5011 I3.9471 J-0.6482
G3 X109.0018 Y36.5968 I72.9858 J-11.124
G3 X109.0001 Y36.5009 I3.9982 J-0.1203
G3 X109.614 Y20.5198 I179.803 J-1.0946
G3 X111.548 Y9.3353 I59.1788 J4.4733
G3 X113.4716 Y6.8896 I3.8583 J1.0553
G3 X117.7458 Y5.0484 I11.4936 J20.7999
G3 X117.8578 Y5.0145 I1.2152 J3.8109
G3 X122.3887 Y4.3672 I4.6042 J16.0479
G3 X122.4486 Y4.3674 I0.0176 J4.0
G3 X139.0305 Y6.8869 I-0.6348 J60.0034
G3 X141.8828 Y10.7385 I-1.1476 J3.8318
G1 X141.8281 Y21.84
G3 X141.8279 Y21.8615 I-4.0 J-0.0197
G1 X141.7186 Y32.4648
G2 X142.7343 Y52.5043 I173.472 J1.2532
G3 X142.749 Y52.6714 I-3.9765 J0.4332
G2 X143.149 Y53.7936 I2.1819 J-0.1455
G2 X143.8297 Y53.9755 I0.6154 J-0.938
G3 X144.1709 Y53.9702 I0.2328 J3.9932
G2 X145.2186 Y53.5628 I0.0393 J-1.4497
G3 X145.2513 Y53.5315 I2.7814 J2.8747
G2 X145.4884 Y52.9169 I-0.5257 J-0.5558
G3 X145.4811 Y52.7996 I3.9882 J-0.3075
G1 X144.4967 Y32.1278
G3 X144.4922 Y31.9288 I3.9955 J-0.1903
G3 X144.547 Y20.0967 I2419.6743 J5.286
G3 Y20.0926 I3.9999 J0.0283
G2 X144.6016 Y8.3079 I-1695.0952 J-13.7401
G3 X144.6021 Y8.2479 I4.0 J0.0046
G3 X144.7764 Y4.3554 I68.1471 J1.1012
G3 X144.7847 Y4.2587 I3.9892 J0.2931
G2 X144.9853 Y0.8977 I-44.1405 J-4.3217
G3 X144.9868 Y0.8453 I3.9991 J0.0867
G2 X144.6704 Y0.0816 I-0.9962 J-0.0347
G3 X144.6024 Y0.0167 I2.728 J-2.9254
G2 X143.6065 Y-0.376 I-0.9646 J0.9869
G3 X143.3544 Y-0.3783 I-0.0909 J-3.999
G2 X142.8505 Y-0.1967 I-0.0287 J0.7104
G2 X142.092 Y1.5345 I3.2607 J2.4606
G3 X139.9269 Y4.4071 I-3.9357 J-0.7142
G0 Z3.0
G0 X167.8763 Y32.6663
G0 Z1.0
G1 F60.0 Z-4.0
G3 F300.0 X167.4191 Y39.4445 I-112.6708 J-4.195
G3 X171.1126 Y36.983 I4.698 J3.0477
G2 X168.9301 Y34.312 I-23.3793 J16.8761
G3 X167.8763 Y32.6663 I4.1168 J-3.7964
G0 Z3.0
G0 X197.2095 Y40.5525
G0 Z1.0
G1 F60.0 Z-4.0
G3 F300.0 X196.923 Y43.2284 I-35.966 J-2.4969
G3 X195.1051 Y49.2865 I-20.2687 J-2.7803
G3 X193.1364 Y51.543 I-5.0504 J-2.4193
G2 X193.8983 Y51.0984 I-2.8556 J-5.7691
G2 X196.4018 Y47.469 I-5.1613 J-6.2384
G3 X200.3272 Y43.8451 I5.3013 J1.8044
G3 X198.0795 Y41.7542 I15.699 J-19.13
G3 X197.2095 Y40.5525 I4.0612 J-3.8558
G0 Z3.0
G0 X218.8843 Y51.6637
G0 Z1.0
G1 F60.0 Z-4.0
G2 F300.0 X222.7618 Y50.2649 I-0.1018 J-6.3556
G2 X224.2674 Y48.4443 I-4.936 J-5.6152
G3 X224.271 Y48.4382 I4.8251 J2.8423
G2 X225.4721 Y45.8411 I-12.2847 J-7.2576
G2 X226.005 Y43.096 I-28.2375 J-6.905
G3 X225.8891 Y43.4181 I-40.2794 J-14.3032
G3 X223.9966 Y47.3735 I-20.8243 J-7.533
G3 X223.985 Y47.3925 I-4.7875 J-2.9052
G3 X221.9535 Y49.8671 I-9.9251 J-6.077
G3 X218.8843 Y51.6637 I-5.4628 J-5.8125
G1 F60.0 X218.4042 Y50.1374
G3 F300.0 X216.7253 Y50.427 I-1.9135 J-6.0828
G3 X216.3011 Y50.4201 I-0.1472 J-3.9973
G3 X212.9606 Y49.609 I0.7081 J-10.2007
G3 X212.958 Y49.6079 I1.5838 J-3.6731
G3 X206.9154 Y46.3797 I16.4109 J-37.9877
G3 X203.1779 Y43.9689 I35.5517 J-59.2193
G3 X199.2398 Y40.6526 I12.8483 J-19.2538
G3 X198.1409 Y37.941 I2.9008 J-2.7541
G3 X198.4222 Y27.3621 I142.1796 J-1.5118
G3 X198.4391 Y27.1706 I3.9919 J0.2551
G1 X200.0797 Y12.569
G3 X200.088 Y12.5004 I3.975 J0.4466
G2 X201.0943 Y-1.3225 I-121.6952 J-15.8071
G3 X201.0963 Y-1.4013 I3.9995 J0.0647
G2 X200.7123 Y-2.3888 I-1.3382 J-0.048
G3 X200.6371 Y-2.4673 I2.8502 J-2.8065
G2 X199.8734 Y-2.7837 I-0.7291 J0.6799
G3 X199.6148 Y-2.783 I-0.139 J-3.9976
G2 X198.7502 Y-2.4386 I-0.035 J1.1695
G2 X198.3722 Y-1.4069 I1.0713 J0.9776
G3 X198.3748 Y-1.2153 I-3.9972 J0.1491
G3 X197.9031 Y8.8434 I-139.0128 J-1.4789
G3 X196.986 Y18.6833 I-352.5394 J-27.8947
G2 X196.125 Y28.3421 I360.4799 J37.0016
G3 X196.1237 Y28.3584 I-3.9886 J-0.3018
G2 X195.6954 Y37.8518 I137.1737 J10.9442
G3 X195.3387 Y43.0049 I-34.452 J0.2038
G3 X193.6621 Y48.5953 I-18.6844 J-2.5569
G3 X188.2902 Y50.457 I-3.6075 J-1.7281
G3 X179.399 Y43.9451 I13.9387 J-28.3576
G3 X179.3069 Y43.8455 I2.89 J-2.7654
G1 X172.8538 Y36.6268
G3 X172.5714 Y36.2724 I2.9821 J-2.6659
G2 X170.1063 Y33.2273 I-24.8381 J17.5867
G3 X169.0478 Y30.6003 I2.9405 J-2.7117
G2 X168.4666 Y21.2476 I-114.6016 J2.4274
G3 X167.8449 Y11.47 I122.6409 J-12.7062
G3 X167.8459 Y11.2443 I3.9989 J-0.095
G3 X168.4011 Y6.062 I35.2058 J1.1512
G3 X168.4174 Y5.9779 I3.9348 J0.7192
G2 X168.8827 Y2.4084 I-24.3006 J-4.9823
G2 X168.5759 Y1.772 I-0.8851 J0.0345
G3 X168.4179 Y1.6282 I2.6116 J-3.0298
G2 X167.3588 Y1.2106 I-1.0387 J1.0824
G3 X167.2574 Y1.2107 I-0.0541 J-3.9996
G2 X166.8505 Y1.4271 I-0.0057 J0.4801
G3 X166.8108 Y1.4864 I-3.3429 J-2.1966
G2 X166.024 Y3.157 I4.8129 J3.2871
G3 X166.0215 Y3.1656 I-3.8431 J-1.1094
G2 X165.3148 Y6.9594 I18.7248 J5.4509
G3 X165.3123 Y6.9872 I-3.9855 J-0.3399
G2 X165.1248 Y11.2149 I44.1741 J4.0773
G2 X165.706 Y20.65 I118.7326 J-2.5785
G1 Y20.6501
G1 Y20.65
G3 X166.3272 Y30.7581 I-126.0668 J12.8202
G3 X166.3271 Y30.9323 I-3.9991 J0.0856
G3 X165.762 Y39.9311 I-111.1216 J-2.461
G2 X165.2884 Y48.3639 I114.484 J10.6605
G2 X165.8831 Y54.6196 I27.914 J0.5024
G3 X165.8841 Y54.6246 I-3.9141 J0.8243
G2 X166.7571 Y56.6808 I5.6351 J-1.1791
G2 X166.7965 Y56.7032 I0.0468 J-0.0365
G2 X167.7003 Y56.2554 I-0.0673 J-1.272
G3 X168.0076 Y55.9318 I3.0497 J2.5884
G2 X168.5519 Y54.7851 I-1.1964 J-1.2704
G2 X168.3188 Y52.1168 I-26.8282 J0.9997
G3 X168.3185 Y52.1146 I3.9625 J-0.5465
G3 X168.0093 Y48.3427 I34.2845 J-4.7088
G3 X168.0085 Y48.1582 I3.9985 J-0.1083
G1 X168.1179 Y42.416
G3 X175.6972 Y40.708 I3.9993 J0.0762
G2 X183.0383 Y49.9684 I25.6134 J-12.7649
G3 X183.1274 Y50.0445 I-2.554 J3.0785
G2 X186.8432 Y52.7455 I16.2924 J-18.5074
G3 X186.933 Y52.8003 I-2.0403 J3.4405
G2 X190.0651 Y53.8081 I3.5372 J-5.6223
G2 X194.8604 Y52.3787 I0.2157 J-8.0343
G2 X197.9165 Y47.9845 I-6.1234 J-7.5186
G3 X204.9295 Y46.909 I3.7867 J1.2889
G2 X210.5837 Y51.6213 I12.3082 J-9.02
G2 X218.3096 Y53.2585 I7.4048 J-15.8955
G3 X218.5165 Y53.26 I0.0732 J3.9993
G2 X223.7914 Y51.49 I0.266 J-7.952
G2 X225.646 Y49.2564 I-5.9656 J-6.8403
G3 X225.6486 Y49.2521 I3.4465 J2.0302
G2 X227.0088 Y46.2924 I-13.6623 J-8.0715
G2 X227.6253 Y43.062 I-29.7742 J-7.3564
G3 X227.6307 Y43.0239 I3.9636 J0.5381
G2 X229.1199 Y31.59 I-378.9671 J-55.173
G3 X229.1409 Y31.4342 I3.9738 J0.4569
G2 X231.2557 Y15.9313 I-424.9928 J-65.8684
G3 X231.2569 Y15.9208 I3.9725 J0.4684
G2 X233.0496 Y0.3252 I-1399.415 J-168.7586
G2 X232.9111 Y-0.0059 I-0.4098 J-0.0231
G3 X232.8132 Y-0.095 I2.6436 J-3.0019
G2 X231.6529 Y-0.5401 I-1.1232 J1.1934
G3 X231.3499 Y-0.5447 I-0.0904 J-3.999
G2 X230.7041 Y-0.3737 I-0.0578 J1.0861
G2 X230.2881 Y0.6596 I1.6422 J1.2616
G3 X230.2686 Y0.8095 I-3.9756 J-0.4409
G2 X228.33 Y17.5035 I254.8816 J38.0587
G3 X228.3199 Y17.608 I-3.9862 J-0.3316
G1 X226.4605 Y34.5611
G3 X226.4429 Y34.6992 I-3.9762 J-0.4361
G3 X224.3851 Y42.8723 I-40.7174 J-5.9064
G3 X222.6288 Y46.5435 I-19.3203 J-6.9872
G3 X222.6205 Y46.557 I-3.4196 J-2.0751
G3 X220.8629 Y48.6964 I-8.5606 J-5.2415
G3 X218.4042 Y50.1374 I-4.3722 J-4.6418
G0 Z3.0
G0 X281.4652 Y35.9853
G0 Z1.0
G1 F60.0 Z-4.0
G3 F300.0 X281.3941 Y35.5646 I3.9029 J-0.8759
G3 X281.04 Y29.4383 I54.1547 J-6.2035
G3 X281.7817 Y20.558 I49.5035 J-0.3365
G3 X284.7513 Y11.6486 I30.548 J5.2324
G3 X291.4637 Y4.1896 I16.8183 J8.3852
G3 X291.5909 Y4.1118 I2.151 J3.3724
G3 X301.2954 Y1.5775 I9.3426 J15.9275
G3 X309.9658 Y3.2789 I0.2858 J21.4857
G3 X310.0354 Y3.3092 I-1.5608 J3.6829
G3 X317.2728 Y9.076 I-7.5359 J16.8826
G3 X321.2655 Y17.4032 I-18.5327 J14.0067
G1 Y17.4034
G3 X322.2903 Y25.9657 I-32.7983 J8.2679
G3 X321.1836 Y33.2965 I-22.7576 J0.3134
G3 X321.1772 Y33.3162 I-3.8051 J-1.2333
G3 X316.5933 Y40.2069 I-14.8186 J-4.8877
G3 X316.5311 Y40.2598 I-2.6236 J-3.0194
G3 X308.6792 Y44.1226 I-11.8951 J-14.2674
G3 X300.9617 Y44.9613 I-7.3788 J-31.9734
G3 X290.971 Y43.0031 I-0.3424 J-24.7184
G3 X290.6245 Y42.8361 I1.5612 J-3.6828
G3 X283.2243 Y38.4864 I59.7963 J-110.2012
G3 X281.4652 Y35.9853 I2.1438 J-3.377
G0 Z3.0
G0 X283.0606 Y42.1499
G0 Z1.0
G1 F60.0 Z-4.0
G2 F300.0 X283.2065 Y42.7294 I50.0401 J-12.2867
G3 X283.5202 Y42.4312 I5.1148 J5.0675
G3 X283.0606 Y42.1499 I66.9006 J-109.7963
G1 F60.0 X279.9529 Y42.9129
G2 F300.0 X283.7614 Y53.5404 I53.1478 J-13.0497
G2 X290.3607 Y64.0991 I52.8014 J-25.6597
G2 X298.9797 Y73.3143 I57.3845 J-45.0341
G3 X299.149 Y73.4756 I-2.6741 J2.9748
G1 X304.2617 Y78.6428
G2 X306.427 Y80.4927 I15.7359 J-16.2268
G2 X307.3428 Y81.0685 I4.1197 J-5.535
G3 X307.3629 Y81.0792 I-1.8574 J3.5426
G2 X308.1164 Y80.6966 I-0.1975 J-1.3221
G3 X308.3111 Y80.5123 I2.8455 J2.8112
G2 X308.5903 Y80.1093 I-0.682 J-0.7708
G2 X307.013 Y77.9849 I-10.6246 J6.2405
G3 X306.9514 Y77.9167 I2.937 J-2.7155
G2 X304.2813 Y75.1009 I-40.8356 J36.0498
G1 X293.1297 Y64.2227
G3 X293.0249 Y64.1166 I2.7931 J-2.8633
G3 X287.8473 Y56.8173 I22.6589 J-21.5587
G3 X284.5367 Y49.0919 I49.6396 J-25.8442
G3 X290.0285 Y44.1795 I3.7846 J-1.295
G2 X297.8141 Y47.2015 I25.2227 J-53.4408
G3 X297.9085 Y47.232 I-1.1803 J3.8219
G2 X302.6048 Y48.1184 I5.5438 J-16.4882
G2 X311.8523 Y46.8382 I0.3697 J-31.3686
G2 X319.2929 Y42.4495 I-5.1153 J-17.1745
G2 X323.6629 Y35.1472 I-12.7747 J-12.6036
G2 X324.9544 Y26.0315 I-28.6212 J-8.7046
G3 X324.9543 Y25.9316 I3.9996 J-0.055
G2 X323.4659 Y15.8255 I-32.5658 J-0.3663
G2 X318.5887 Y7.3138 I-22.5086 J7.2443
G3 X318.5778 Y7.3016 I2.9826 J-2.6654
G2 X310.7557 Y1.7921 I-15.5726 J13.802
G2 X301.0106 Y0.0621 I-9.3743 J24.493
G3 X300.869 Y0.0616 I-0.0566 J-3.9996
G2 X290.702 Y2.0845 I-0.5106 J23.994
G2 X283.3451 Y8.6294 I7.5048 J15.8433
G3 X283.3393 Y8.6386 I-3.391 J-2.1216
G2 X279.4528 Y18.358 I24.5546 J15.4553
G3 X279.4495 Y18.3744 I-3.9211 J-0.7908
G2 X278.3758 Y29.3868 I51.2256 J10.5531
G3 Y29.4519 I-3.9998 J0.0351
G2 X279.9529 Y42.9129 I54.7249 J0.4112
G0 Z3.0
G0 X343.9989 Y42.9118
G0 Z1.0
G1 F60.0 Z-4.0
G2 F300.0 X344.0009 Y43.5048 I90.0685 J-0.0016
G3 Y43.5571 I-3.9999 J0.0264
G2 X345.6374 Y56.9182 I52.585 J0.34
G2 X350.9209 Y69.0531 I41.0121 J-10.6388
G3 X350.9215 Y69.0542 I-3.373 J2.15
G2 X354.9311 Y74.1255 I26.8148 J-17.08
G3 X354.9439 Y74.1387 I-2.8693 J2.787
G2 X371.6844 Y81.0401 I16.2338 J-15.6238
G3 X371.8466 Y81.0397 I0.09 J3.999
G2 X382.7047 Y78.4377 I0.4023 J-22.2774
G2 X390.8107 Y70.6587 I-11.5477 J-20.1461
G3 X390.8408 Y70.6117 I3.3855 J2.1303
G2 X395.69 Y59.4138 I-30.8032 J-19.9882
G2 X397.1417 Y46.9525 I-49.4184 J-12.0722
G3 Y46.8875 I3.9999 J-0.0306
G2 X395.7426 Y28.6638 I-107.3656 J-0.9226
G2 X393.5929 Y20.0135 I-58.3105 J9.8986
G3 X393.5895 Y20.0032 I3.7982 J-1.2545
G2 X389.9734 Y12.2202 I-34.4538 J11.2763
G3 X389.9614 Y12.2006 I3.4026 J-2.103
G2 X381.6068 Y4.3665 I-18.3484 J11.1956
G2 X370.1628 Y1.8663 I-10.9198 J22.5411
G3 X370.0519 Y1.8671 I-0.0837 J-3.9991
G2 X363.5218 Y2.6396 I-0.18 J26.4637
G2 X355.2338 Y6.9918 I4.7322 J19.0791
G2 X349.4025 Y14.8042 I17.4757 J19.1267
G2 X345.1444 Y28.5905 I44.9775 J21.4426
G3 X345.1412 Y28.6109 I-3.9525 J-0.6146
G2 X343.9989 Y42.9118 I88.9262 J14.2993
G1 F60.0 X346.6108 Y42.9321
G3 F300.0 X347.5433 Y30.0749 I99.7986 J0.776
G3 X347.5461 Y30.0553 I3.9625 J0.5464
G3 X349.0755 Y22.7697 I56.7863 J8.1172
G3 X351.9243 Y15.5534 I34.9025 J9.6083
G3 X359.2229 Y7.3694 I19.2228 J9.7967
G3 X359.3426 Y7.2931 I2.2107 J3.3336
G3 X370.0727 Y4.3663 I10.3825 J16.9314
G3 X383.2608 Y9.1631 I0.4011 J19.4251
G3 X383.2977 Y9.1958 I-2.6325 J3.0116
G3 X387.6533 Y14.4415 I-15.5156 J17.3139
G3 X390.4523 Y20.2049 I-28.71 J17.5046
G3 X390.4595 Y20.2242 I-3.7482 J1.3967
G3 X393.4507 Y32.597 I-52.3826 J19.2119
G3 X394.2041 Y44.8913 I-92.7824 J11.8566
G3 X393.2871 Y56.9429 I-71.9125 J0.5887
G3 X393.2833 Y56.9663 I-3.9489 J-0.6376
G3 X391.769 Y63.1243 I-41.6703 J-6.9816
G3 X388.9751 Y69.1771 I-26.7636 J-8.6826
G3 X381.5412 Y76.2423 I-16.445 J-9.8596
G3 X381.4391 Y76.2948 I-1.8798 J-3.5307
G3 X371.7069 Y78.4849 I-9.3567 J-18.8601
G3 X359.9249 Y74.9257 I-0.2337 J-20.5068
G3 X359.8382 Y74.8649 I2.2524 J-3.3055
G3 X352.0874 Y66.0861 I15.49 J-21.487
G3 X346.6101 Y44.3858 I37.4156 J-20.9855
G3 X346.6108 Y42.9321 I99.7994 J-0.6778
G0 Z3.0
G0 X418.5582 Y2.2339
G0 Z1.0
G1 F60.0 Z-4.0
G2 F300.0 X418.7119 Y2.4329 I0.7677 J-0.4343
G3 X418.8855 Y2.6088 I-3.8984 J4.0202
G2 X419.5244 Y2.8775 I0.6234 J-0.5886
G3 X419.7044 Y2.8771 I0.1015 J5.5991
G2 X420.2961 Y2.6255 I0.0111 J-0.7952
G3 X420.5561 Y2.3654 I4.0877 J3.8276
G2 X420.8077 Y1.7738 I-0.5436 J-0.5805
G3 X420.8081 Y1.5938 I5.5995 J-0.0785
G2 X420.5394 Y0.9548 I-0.8573 J-0.0155
G3 X420.3635 Y0.7812 I3.8443 J-4.072
G2 X419.7161 Y0.5133 I-0.6333 J0.6141
G3 X419.5137 Y0.5129 I-0.0901 J-5.5993
G2 X418.8177 Y0.7977 I-0.019 J0.9466
G3 X418.7282 Y0.8871 I-4.0042 J-3.9149
G2 X418.4436 Y1.583 I0.6618 J0.6769
G3 X418.444 Y1.7855 I-5.5989 J0.1123
G2 X418.5582 Y2.2339 I0.8819 J0.0142
G1 F60.0 X417.1655 Y3.0217
G2 F300.0 X417.598 Y3.5815 I2.1603 J-1.222
G3 X417.722 Y3.7072 I-2.7846 J2.8716
G2 X419.5534 Y4.4772 I1.7869 J-1.6869
G3 X419.682 Y4.477 I0.0725 J3.9993
G2 X421.464 Y3.7191 I0.0336 J-2.3951
G3 X421.6497 Y3.5333 I2.9198 J2.734
G2 X422.4076 Y1.7514 I-1.6372 J-1.7484
G3 X422.4078 Y1.6228 I3.9996 J-0.056
G2 X421.6378 Y-0.2086 I-2.457 J-0.0445
G3 X421.5122 Y-0.3326 I2.7459 J-2.9086
G2 X419.6903 Y-1.0865 I-1.7819 J1.7279
G3 X419.5458 Y-1.0867 I-0.0644 J-3.9995
G2 X417.6736 Y-0.3209 I-0.0511 J2.5463
G3 X417.6097 Y-0.257 I-2.8602 J-2.7963
G2 X416.8439 Y1.6151 I1.7803 J1.821
G3 X416.8442 Y1.7597 I-3.9992 J0.0802
G2 X417.1655 Y3.0217 I2.4817 J0.04
G0 Z3.0
G0 X524.435 Y36.5213
G0 Z1.0
G1 F60.0 Z-4.0
G2 F300.0 X524.4716 Y36.522 I3.1865 J-169.7737
G3 X524.4554 Y36.4922 I6.3272 J-3.4361
G3 X524.435 Y36.5213 I-5.9067 J-4.1172
G1 F60.0 X521.8189 Y34.6785
G3 F300.0 X518.3654 Y36.3708 I-3.2701 J-2.3035
G3 X504.4675 Y34.621 I4.0488 J-88.2283
G3 X490.8959 Y30.1553 I12.6264 J-61.2267
G3 X490.7822 Y30.1006 I1.6763 J-3.6318
G2 X490.0492 Y29.9214 I-0.7592 J1.5172
G3 X490.041 Y29.9213 I0.062 J-3.9995
G2 X489.2256 Y30.301 I-0.018 J1.0266
G3 X489.1027 Y30.4455 I-3.1066 J-2.5198
G2 X488.6422 Y31.6733 I1.3518 J1.2072
G3 X488.6425 Y31.7029 I-3.9997 J0.0455
G2 X489.4255 Y33.003 I1.4805 J-0.0059
G3 X489.5536 Y33.0745 I-1.8845 J3.5283
G2 X498.2227 Y36.6424 I17.2907 J-29.6963
G3 X498.2295 Y36.6441 I-1.0036 J3.8721
G2 X512.9635 Y39.1292 I21.4073 J-82.0022
G3 X512.9869 Y39.1311 I-0.315 J3.9876
G2 X528.2682 Y39.75 I14.6346 J-172.3835
G3 X528.384 Y39.7513 I0.015 J4.0
G2 X529.3764 Y39.3516 I0.034 J-1.3474
G3 X529.3934 Y39.3344 I2.8443 J2.8125
G2 X529.8083 Y38.2901 I-1.0016 J-1.0025
G3 X529.8079 Y38.0673 I3.9983 J-0.1182
G2 X529.6087 Y37.159 I-1.9384 J-0.0507
G2 X529.0701 Y36.6931 I-1.1235 J0.7545
G3 X526.8716 Y33.8459 I1.7287 J-3.6072
G2 X522.2496 Y20.3266 I-50.885 J9.8469
G2 X513.8061 Y9.168 I-35.6781 J18.2231
G3 X513.7719 Y9.1359 I2.7192 J-2.9336
G2 X490.9864 Y0.2262 I-22.3402 J23.542
G3 X490.8697 Y0.2261 I-0.0549 J-3.9996
G2 X481.2251 Y1.6119 I-0.4784 J30.9233
G2 X473.7514 Y6.366 I5.1269 J16.3115
G2 X469.2533 Y15.3095 I16.1602 J13.7305
G3 X469.2465 Y15.3386 I-3.8968 J-0.903
G2 X468.025 Y26.2554 I43.2716 J10.3683
G3 X468.0253 Y26.2925 I-3.9997 J0.0493
G2 X469.7114 Y40.2919 I60.4947 J-0.1847
G2 X474.3446 Y53.811 I74.8862 J-18.1111
G3 X474.3559 Y53.8364 I-3.6474 J1.6422
G2 X481.2951 Y66.2527 I69.6415 J-30.7737
G2 X490.5778 Y76.7417 I47.8319 J-32.9788
G3 X490.6045 Y76.7656 I-2.654 J2.9927
G2 X496.3955 Y80.561 I15.0956 J-16.7174
G2 X502.692 Y81.9139 I6.3709 J-14.3214
G2 X508.3144 Y81.012 I-0.6705 J-22.1553
G3 X508.3595 Y80.9989 I1.1356 J3.8354
G2 X514.3546 Y78.9306 I-15.4257 J-54.4347
G3 X514.4561 Y78.8907 I1.5144 J3.7022
G2 X519.7622 Y76.2048 I-9.7871 J-25.9193
G2 X521.4902 Y74.6572 I-4.3556 J-6.6018
G3 X521.5242 Y74.6169 I3.0768 J2.5561
G2 X521.8213 Y73.8842 I-0.9528 J-0.813
G2 X521.337 Y72.7575 I-1.6789 J0.0543
G3 X521.1908 Y72.6015 I2.8446 J-2.8122
G2 X520.4064 Y72.2011 I-0.9045 J0.8033
G2 X520.2605 Y72.2533 I0.1411 J0.6247
G3 X520.1597 Y72.3021 I-1.7929 J-3.5757
G2 X518.9989 Y72.9384 I4.3317 J9.2786
G3 X518.9592 Y72.9633 I-2.1455 J-3.3759
G3 X511.6731 Y76.6915 I-26.4766 J-42.7599
G3 X502.8763 Y78.6463 I-9.6039 J-22.4489
G3 X502.6548 Y78.6474 I-0.1322 J-3.9978
G3 X496.0486 Y76.785 I0.3067 J-13.7351
G3 X491.3637 Y73.2448 I11.5921 J-20.2107
G3 X491.3335 Y73.215 I2.7944 J-2.862
G3 X487.671 Y69.1064 I33.1338 J-33.2224
G3 X484.5127 Y65.0275 I106.1705 J-85.4724
G3 X474.5906 Y46.8787 I53.8626 J-41.2336
G3 X474.582 Y46.8547 I3.7612 J-1.3613
G3 X471.0721 Y26.3181 I57.4917 J-20.394
G3 X471.6581 Y18.2674 I49.4721 J-0.4461
G3 X471.6617 Y18.2447 I3.9525 J0.6148
G3 X472.7236 Y13.9724 I26.0344 J4.2032
G3 X475.0329 Y9.5368 I15.0002 J4.9905
G3 X475.1538 Y9.3822 I3.2111 J2.3851
G3 X483.109 Y4.3789 I11.4896 J9.4425
G3 X490.9306 Y3.437 I7.4063 J28.5564
G3 X510.5584 Y10.5938 I0.4269 J29.3226
G3 X510.5714 Y10.6051 I-2.619 J3.0234
G3 X518.2463 Y20.2925 I-22.3905 J25.6231
G3 X518.2488 Y20.2971 I-3.5342 J1.8733
G3 X522.4408 Y31.4519 I-41.7196 J22.0434
G3 X521.8189 Y34.6785 I-3.892 J0.9231
G0 Z3.0
G0 X546.2051 Y28.9774
G0 Z1.0
G1 F60.0 Z-4.0
G3 F300.0 X545.855 Y27.3726 I53.838 J-12.5865
G3 X551.4932 Y22.9658 I3.9203 J-0.7945
G1 X568.2823 Y30.9502
G3 X568.3013 Y30.9593 I-1.7179 J3.6123
G3 X575.7919 Y34.8713 I-57.1673 J118.5902
G3 X583.1742 Y39.8076 I-24.9715 J45.3339
G3 X583.3742 Y45.8806 I-2.5005 J3.1221
G3 X575.5981 Y50.2235 I-13.0888 J-14.303
G3 X575.5924 Y50.2251 I-1.0961 J-3.8469
G3 X567.4987 Y51.305 I-7.7851 J-27.4768
G3 X553.2928 Y44.6376 I-0.2253 J-17.9876
G3 X548.4071 Y36.1564 I22.9742 J-18.8821
G3 X546.2051 Y28.9774 I51.636 J-19.7655
G0 Z3.0
G0 X546.1843 Y22.2894
G0 Z1.0
G1 F60.0 Z-4.0
G3 F300.0 X547.8428 Y21.3289 I3.591 J4.2887
G3 X546.3133 Y19.9902 I2.8622 J-4.8133
G2 X546.1843 Y22.2894 I21.6841 J2.3696
G1 F60.0 X544.5843 Y22.2842
G2 F300.0 X544.5873 Y22.7398 I23.4131 J0.0756
G3 X544.5877 Y22.839 I-3.9995 J0.0649
G2 X546.0093 Y34.2525 I43.5245 J0.3739
G2 X550.7389 Y44.3313 I30.1991 J-8.0222
G3 X550.7743 Y44.3819 I-3.2605 J2.3172
G2 X558.0171 Y50.9442 I17.4949 J-12.031
G2 X567.4318 Y53.1489 I9.1053 J-17.6776
G3 X567.5223 Y53.1485 I0.0623 J3.9995
G2 X574.3931 Y52.5709 I0.2676 J-37.9695
G3 X574.4094 Y52.5681 I0.6956 J3.9391
G2 X580.479 Y50.5319 I-3.5664 J-20.6953
G3 X580.5146 Y50.5137 I1.8354 J3.5541
G2 X584.1731 Y47.2446 I-4.2527 J-8.4408
G2 X585.3702 Y42.586 I-7.658 J-4.4509
G3 X585.3692 Y42.5241 I3.9989 J-0.0938
G2 X584.251 Y39.1075 I-5.923 J0.0472
G2 X580.9413 Y35.8481 I-11.4315 J8.2975
G2 X575.735 Y32.8747 I-26.0554 J39.5788
G3 X575.6893 Y32.852 I1.76 J-3.592
G2 X569.9032 Y30.0384 I-92.2651 J182.3838
G3 X569.8829 Y30.0288 I1.6924 J-3.6243
G1 X548.9923 Y20.1304
G3 X547.3597 Y14.3226 I1.7128 J-3.6148
G3 X556.4797 Y6.1212 I20.0928 J13.1717
G3 X556.5848 Y6.0692 I1.8269 J3.5584
G3 X569.0534 Y3.3837 I11.8968 J24.9475
G3 X569.0785 Y3.3843 I-0.0827 J3.9991
G3 X578.9228 Y4.9565 I-1.0265 J38.0331
G3 X584.0388 Y6.8429 I-7.9593 J29.4654
G3 X589.3692 Y11.1438 I-5.4321 J12.186
G3 X589.5666 Y11.4401 I-3.2267 J2.364
G2 X590.3499 Y12.4197 I4.1025 J-2.4774
G2 X590.6061 Y12.2497 I-0.2312 J-0.6266
G3 X590.9108 Y11.9571 I2.9192 J2.7347
G2 X591.0565 Y11.6444 I-0.2751 J-0.3185
G2 X590.6263 Y10.0015 I-3.4151 J0.0165
G2 X587.9702 Y7.2582 I-7.5703 J4.6724
G3 X587.9168 Y7.2222 I2.2096 J-3.3343
G2 X583.6721 Y4.8712 I-14.3891 J20.9719
G3 X583.5842 Y4.8317 I1.5954 J-3.6681
G2 X568.9208 Y1.4841 I-15.1888 J32.742
G2 X559.4841 Y2.6972 I-0.3568 J34.5351
G2 X551.4563 Y6.7855 I5.9571 J21.6231
G2 X546.2232 Y13.754 I11.0998 J13.7849
G2 X544.5843 Y22.2842 I21.7742 J8.6058
G0 Z3.0
G0 X611.2809 Y22.7118
G0 Z1.0
G1 F60.0 Z-4.0
G1 F300.0 X611.291 Y21.139
G1 X611.3457 Y12.1709
G3 X613.718 Y8.5415 I3.9999 J0.0244
G3 X621.2919 Y5.3997 I64.5092 J144.8131
G3 X621.6078 Y5.293 I1.4366 J3.7331
G3 X630.3301 Y4.0935 I8.4035 J28.7948
G3 X638.967 Y5.7452 I0.2285 J22.2125
G3 X639.0221 Y5.7682 I-1.5141 J3.7024
G3 X646.3231 Y11.0008 I-8.1203 J19.04
G3 X652.432 Y27.6045 I-17.7516 J15.9569
G3 X651.3611 Y35.766 I-30.1543 J0.1943
G3 X651.3572 Y35.7802 I-3.8579 J-1.0568
G3 X647.5598 Y43.5397 I-22.7387 J-6.319
G3 X632.3077 Y51.0847 I-14.7284 J-10.5847
G3 X621.2536 Y48.0532 I0.498 J-23.486
G3 X621.1317 Y47.9815 I1.9671 J-3.4829
G3 X612.9087 Y42.3282 I49.3563 J-80.598
G3 X611.3459 Y39.2025 I2.437 J-3.1719
G1 X611.2365 Y29.7416
G3 X611.2363 Y29.6697 I3.9997 J-0.0462
G1 X611.2809 Y22.7118
G0 Z3.0
G0 X611.6262 Y8.0175
G0 Z1.0
G1 F60.0 Z-4.0
G3 F300.0 X613.0695 Y7.0858 I3.7194 J4.1778
G3 X614.3358 Y6.5282 I65.1577 J146.2688
G3 X611.5161 Y5.2648 I0.7911 J-5.5438
G2 X611.5864 Y7.3569 I118.7451 J-2.9432
G3 X611.6262 Y8.0175 I-87.2933 J5.5912
G0 Z3.0
G0 X611.185 Y42.8949
G0 Z1.0
G1 F60.0 Z-4.0
G2 F300.0 X611.1566 Y46.6038 I838.4429 J8.273
G2 X611.1577 Y47.1903 I4204.4347 J-7.7168
G3 X614.4208 Y45.4368 I4.1332 J3.7784
G3 X611.9378 Y43.5919 I56.0672 J-78.0532
G3 X611.185 Y42.8949 I3.4079 J-4.4356
G1 F60.0 X609.5851 Y42.8791
G2 F300.0 X609.5566 Y46.6009 I840.0428 J8.2887
G2 X609.6112 Y61.6651 I4206.0347 J-7.714
G3 X609.6659 Y76.885 I-3459.6866 J20.0546
G3 X609.6655 Y76.9517 I-4.0 J0.0056
G2 X610.5983 Y80.9831 I8.6102 J0.1314
G2 X611.4088 Y81.9773 I2.7076 J-1.38
G2 X611.9475 Y82.1333 I0.5239 J-0.8006
G3 X612.0555 Y82.1331 I0.0622 J3.9995
G2 X612.1133 Y81.5084 I-2.7803 J-0.5721
G2 X611.9186 Y79.9325 I-10.1357 J0.4525
G1 Y79.9326
G1 Y79.9325
G3 X611.5678 Y77.0562 I17.7756 J-3.6273
G3 X611.5648 Y76.9454 I3.9966 J-0.1656
G1 X611.4007 Y64.9689
G3 X611.4004 Y64.9454 I3.9996 J-0.0548
G1 X611.2911 Y51.0001
G3 X617.5769 Y47.6863 I3.9999 J-0.0314
G2 X625.7668 Y52.0543 I22.4602 J-32.2509
G3 X625.8002 Y52.0674 I-1.4524 J3.727
G2 X632.4748 Y53.4224 I7.0544 J-17.6329
G2 X641.3238 Y51.5614 I0.2759 J-20.6568
G2 X648.3561 Y45.9179 I-8.7789 J-18.1424
G3 X648.3927 Y45.8722 I3.1379 J2.4806
G2 X652.9599 Y37.4006 I-19.8481 J-16.1674
G2 X654.3849 Y27.5995 I-30.9361 J-9.5017
G3 Y27.5242 I3.9998 J-0.037
G2 X652.6831 Y17.5837 I-28.3013 J-0.2709
G2 X647.4252 Y9.1318 I-23.9339 J9.0278
G3 X647.366 Y9.0671 I2.9204 J-2.7333
G2 X630.4129 Y1.7023 I-16.494 J14.7728
G3 X630.2768 Y1.7028 I-0.0829 J-3.9991
G2 X616.825 Y4.606 I-0.4088 J30.7207
G3 X611.7535 Y3.1338 I-1.6981 J-3.6217
G2 X611.0741 Y2.4119 I-2.2399 J1.4272
G2 X610.8834 Y2.3593 I-0.1887 J0.3125
G3 X610.8023 Y2.3589 I-0.0221 J-3.9999
G2 X610.1819 Y2.6166 I-0.0125 J0.8456
G3 X610.1428 Y2.6566 I-2.8754 J-2.7807
G2 X609.8826 Y3.3169 I0.6351 J0.6316
G3 X609.8845 Y3.4092 I-3.9979 J0.1284
G2 X609.9886 Y7.4421 I120.3767 J-1.0875
G3 X610.1578 Y11.8144 I-85.6955 J5.506
G3 X610.158 Y11.8937 I-3.9997 J0.0528
G3 X609.8284 Y29.3176 I-709.1485 J-4.7021
G2 X609.5851 Y42.8791 I839.7995 J21.8503
G0 Z3.0
G0 X681.8147 Y4.6096
G0 Z1.0
G1 F60.0 Z-4.0
G3 F300.0 X684.6288 Y3.524 I10.5196 J23.0799
G3 X684.7856 Y3.4765 I1.7013 J5.3353
G3 X685.7768 Y3.2219 I5.0455 J17.5859
G2 X684.8988 Y3.4098 I3.7793 J19.8119
G2 X681.8147 Y4.6096 I2.7998 J11.7608
G0 Z3.0
G0 X708.0042 Y5.8418
G0 Z1.0
G1 F60.0 Z-4.0
G3 F300.0 X710.3705 Y8.4472 I-2.7523 J4.877
G2 X710.3706 Y8.306 I-1693.5496 J-2.0947
G3 X710.3714 Y8.222 I5.6 J0.0065
G3 X710.5497 Y4.2381 I69.7469 J1.1271
G3 X710.5613 Y4.1028 I5.5849 J0.4103
G2 X710.6491 Y3.0802 I-42.5481 J-4.1658
G3 X708.0042 Y5.8418 I-5.1238 J-2.2599
G1 F60.0 X707.2178 Y7.2352
G3 F300.0 X709.2518 Y10.7385 I-1.9659 J3.4835
G1 X709.1971 Y21.84
G3 X709.197 Y21.8615 I-4.0 J-0.0197
G1 X709.0877 Y32.4648
G2 X710.1034 Y52.5043 I173.472 J1.2532
G3 X710.118 Y52.6714 I-3.9765 J0.4332
G2 X710.5181 Y53.7936 I2.1819 J-0.1455
G2 X711.1988 Y53.9755 I0.6154 J-0.938
G3 X711.54 Y53.9702 I0.2328 J3.9932
G2 X712.5877 Y53.5628 I0.0393 J-1.4497
G3 X712.6204 Y53.5315 I2.7814 J2.8747
G2 X712.8575 Y52.9169 I-0.5257 J-0.5558
G3 X712.8502 Y52.7996 I3.9882 J-0.3075
G1 X711.8658 Y32.1278
G3 X711.8613 Y31.9288 I3.9955 J-0.1903
G3 X711.916 Y20.0967 I2419.6743 J5.286
G3 X711.9161 Y20.0926 I3.9999 J0.0283
G2 X711.9706 Y8.3079 I-1695.0952 J-13.7401
G3 X711.9712 Y8.2479 I4.0 J0.0046
G3 X712.1454 Y4.3554 I68.1471 J1.1012
G3 X712.1537 Y4.2587 I3.9892 J0.2931
G2 X712.3544 Y0.8977 I-44.1405 J-4.3217
G3 X712.3559 Y0.8453 I3.9991 J0.0867
G2 X712.0395 Y0.0816 I-0.9962 J-0.0347
G3 X711.9715 Y0.0167 I2.728 J-2.9254
G2 X710.9755 Y-0.376 I-0.9646 J0.9869
G3 X710.7235 Y-0.3783 I-0.0909 J-3.999
G2 X710.2196 Y-0.1967 I-0.0287 J0.7104
G2 X709.461 Y1.5345 I3.2607 J2.4606
G3 X703.7369 Y4.3983 I-3.9357 J-0.7142
G2 X689.8536 Y1.2649 I-13.3012 J26.6109
G3 X689.7413 Y1.2655 I-0.0783 J-3.9992
G2 X684.5288 Y1.8531 I-0.1852 J21.7684
G2 X680.1333 Y3.7615 I3.1698 J13.3174
G2 X675.7045 Y11.1011 I5.7155 J8.4548
G3 X675.681 Y11.278 I-3.976 J-0.4371
G2 X673.5959 Y36.4727 I174.7782 J27.1484
G2 X675.1723 Y52.8264 I99.0365 J-1.2934
G3 X675.2116 Y53.096 I-3.936 J0.7127
G2 X675.6298 Y54.1458 I2.1199 J-0.2363
G2 X676.2186 Y54.3025 I0.5362 J-0.8297
G3 X676.54 Y54.2983 I0.213 J3.9943
G2 X677.5877 Y53.8909 I0.0393 J-1.4497
G3 X677.641 Y53.8403 I2.7814 J2.8747
G2 X677.9577 Y53.0839 I-0.6799 J-0.7291
G2 X677.1876 Y45.5466 I-62.1441 J2.5413
G3 X677.1804 Y45.5011 I3.9471 J-0.6482
G3 X676.3709 Y36.5968 I72.9858 J-11.124
G3 X676.3691 Y36.5009 I3.9982 J-0.1203
G3 X676.9831 Y20.5198 I179.803 J-1.0946
G3 X678.917 Y9.3353 I59.1788 J4.4733
G3 X680.8407 Y6.8896 I3.8583 J1.0553
G3 X685.1148 Y5.0484 I11.4936 J20.7999
G3 X685.2269 Y5.0145 I1.2152 J3.8109
G3 X689.7577 Y4.3672 I4.6042 J16.0479
G3 X689.8176 Y4.3674 I0.0176 J4.0
G3 X706.3995 Y6.8869 I-0.6348 J60.0034
G3 X707.2178 Y7.2352 I-1.1476 J3.8318
G0 Z3.0
G0 X735.0784 Y35.3949
G0 Z1.0
G1 F60.0 Z-4.0
G1 F300.0 Y40.2299
G2 X735.1595 Y44.6708 I201.7632 J-1.4609
G3 X739.157 Y41.984 I4.819 J2.8527
G3 X738.393 Y40.9636 I21.5516 J-16.931
G3 X735.0784 Y35.3949 I31.5134 J-22.5281
G1 F60.0 X736.517 Y34.6944
G3 F300.0 X735.9369 Y33.4447 I33.3895 J-16.2589
G3 X735.5957 Y31.8135 I3.6588 J-1.6166
G1 X735.705 Y1.8448
G3 X735.7054 Y1.8059 I4.0 J0.0146
G2 X735.5689 Y0.6936 I-4.1483 J-0.0555
G3 X735.5493 Y0.616 I3.868 J-1.019
G2 X735.5066 Y0.5363 I-0.175 J0.0424
G2 X734.4371 Y0.3333 I-0.98 J2.2436
G3 X734.2181 Y0.3353 I-0.1462 J-3.9973
G2 X733.6814 Y0.4006 I-0.0354 J1.9464
G2 X733.4769 Y1.7485 I3.6381 J1.2414
G3 X733.4784 Y1.8594 I-3.9985 J0.1108
G1 Y40.2356
G2 X733.5845 Y45.4979 I203.3632 J-1.4667
G3 X733.7517 Y51.0361 I-140.7852 J7.0208
G3 X733.7453 Y51.3073 I-3.9998 J0.0421
G2 X733.9894 Y52.5567 I2.5662 J0.1472
G2 X734.2552 Y52.6135 I0.2288 J-0.4204
G3 X734.6887 Y52.6035 I0.3092 J3.988
G2 X734.9138 Y52.5593 I0.016 J-0.5143
G2 X735.5988 Y51.1783 I-1.9755 J-1.8403
G3 X735.6277 Y51.0283 I3.9417 J0.6805
G2 X735.9786 Y47.5547 I-15.7699 J-3.3475
G3 X742.788 Y44.6762 I3.9999 J-0.0313
G2 X752.2859 Y51.283 I23.8822 J-24.2027
G2 X763.2636 Y53.6406 I10.9008 J-24.0202
G3 X763.3577 Y53.6415 I0.0117 J4.0
G2 X765.3195 Y53.2465 I0.0948 J-4.5985
G2 X766.4983 Y52.1876 I-1.3828 J-2.7251
G2 X767.7174 Y48.8183 I-7.8952 J-4.7619
G3 X767.7267 Y48.7605 I3.9541 J0.6041
G2 X768.0802 Y44.2777 I-25.3542 J-4.2545
G3 X768.0801 Y44.2185 I3.9998 J-0.0355
G2 X768.0277 Y40.552 I-90.7551 J-0.5371
G3 X768.0257 Y40.4708 I3.9976 J-0.1379
G2 X767.3702 Y37.8236 I-6.0177 J0.0854
G2 X766.8036 Y37.5705 I-0.5253 J0.415
G3 X766.4832 Y37.5775 I-0.247 J-3.9924
G2 X766.0341 Y37.6262 I-0.0328 J1.7912
G2 X765.8519 Y38.8818 I3.5298 J1.1531
G3 X765.8526 Y39.0749 I-3.9985 J0.1104
G3 X765.6848 Y43.021 I-90.4757 J-1.8713
G1 X765.5228 Y47.5568
G3 X761.0768 Y51.3888 I-3.9975 J-0.1428
G3 X753.0819 Y49.6763 I4.6537 J-41.244
G3 X745.3528 Y45.7935 I8.2979 J-26.1517
G3 X745.3013 Y45.7558 I2.3366 J-3.2466
G3 X739.6952 Y40.034 I15.4073 J-20.7028
G3 X736.517 Y34.6944 I30.2112 J-21.5984
G0 Z3.0
G0 X800.7628 Y51.4945
G0 Z1.0
G1 F60.0 Z-4.0
G3 F300.0 X801.3623 Y52.0945 I-4.7844 J5.3805
G3 X802.183 Y51.3206 I5.3348 J4.8352
G3 X801.5901 Y50.7143 I4.8423 J-5.3284
G3 X800.7628 Y51.4945 I-5.3382 J-4.8315
G1 F60.0 X798.6364 Y53.8858
G3 F300.0 X799.9783 Y56.9139 I-2.658 J2.9892
G3 X799.6985 Y64.5419 I-141.7216 J-1.3784
G2 X799.4859 Y71.147 I175.063 J8.9407
G3 X799.4844 Y71.2144 I-3.9996 J-0.0533
G2 X799.7837 Y71.9265 I0.93 J0.0281
G3 X799.8682 Y72.0067 I-2.7115 J2.9407
G2 X800.8642 Y72.3995 I0.9646 J-0.9869
G3 X801.0071 Y72.3988 I0.0909 J3.999
G2 X801.7026 Y71.9435 I0.0097 J-0.744
G3 X801.747 Y71.842 I3.6866 J1.552
G2 X802.7077 Y68.0693 I-10.0795 J-4.5756
G3 X802.7078 Y68.0684 I3.9895 J0.2901
G2 X802.8616 Y63.571 I-58.1009 J-4.2383
G1 X802.7543 Y60.4582
G3 X802.7524 Y60.3848 I3.9976 J-0.1378
G1 X802.6977 Y56.9942
G3 X807.2442 Y52.9673 I3.9995 J-0.0645
G2 X814.6419 Y53.805 I20.8452 J-150.996
G2 X818.0177 Y53.7307 I0.0433 J-74.7911
G3 X818.1066 Y53.7277 I0.1782 J3.996
G2 X820.8398 Y53.397 I-0.3138 J-14.0517
G2 X821.0374 Y53.252 I-0.2022 J-0.4825
G2 X821.2388 Y52.2588 I-1.9686 J-0.9162
G3 X821.2382 Y51.9922 I3.9975 J-0.1416
G2 X820.8298 Y50.9061 I-1.5219 J-0.0476
G2 X820.0233 Y50.5911 I-0.7667 J0.7729
G3 X819.9026 Y50.5937 I-0.1464 J-3.9973
G2 X817.4402 Y50.692 I0.2369 J36.8015
G3 X814.487 Y50.8124 I-3.2105 J-42.4739
G3 X814.1579 Y50.8009 I-0.0242 J-3.9999
G3 X806.4537 Y49.9511 I8.8102 J-115.23
G3 X803.0274 Y45.8637 I0.5716 J-3.9589
G1 X804.0658 Y13.5622
G1 X804.12 Y11.181
G1 X804.1745 Y8.3981
G3 X804.1769 Y8.3179 I3.9992 J0.0784
G2 X803.6308 Y2.2944 I-23.2915 J-0.9249
G2 X802.84 Y0.6066 I-4.22 J0.9482
G2 X802.5525 Y0.4982 I-0.2754 J0.2947
G3 X802.3789 Y0.4997 I-0.1209 J-3.9982
G2 X801.2543 Y0.9174 I-0.0219 J1.6639
G3 X801.2164 Y0.9505 I-2.6508 J-2.9955
G2 X801.0167 Y1.398 I0.3763 J0.4361
G3 X801.0173 Y1.4397 I-3.9992 J0.0786
G2 X801.1778 Y7.5374 I178.3583 J-1.6427
G1 Y7.5376
G3 X801.3455 Y13.9082 I-186.8626 J8.105
G3 X801.3433 Y14.0822 I-3.9998 J0.0371
G1 X800.2495 Y46.0197
G3 X796.4672 Y49.877 I-3.9977 J-0.1369
G2 X784.5066 Y50.7929 I14.2956 J265.2371
G3 X784.4345 Y50.7994 I-0.3954 J-3.9804
G2 X783.4496 Y51.18 I0.1503 J1.8535
G2 X783.2379 Y52.005 I1.1975 J0.7469
G3 X783.2419 Y52.3573 I-3.9939 J0.2215
G2 X783.6658 Y53.512 I1.6388 J0.0536
G2 X784.312 Y53.8063 I0.6794 J-0.6353
G1 X795.6557 Y52.888
G3 X798.6364 Y53.8858 I0.3228 J3.987
G0 Z3.0
G0 X841.3217 Y42.3475
G0 Z1.0
G1 F60.0 Z-4.0
G2 F300.0 X842.5343 Y44.9213 I11.1713 J-3.6905
G2 X848.0646 Y49.3006 I10.5419 J-7.6311
G3 X848.117 Y49.3228 I-2.1565 J5.1681
G2 X848.6977 Y49.5675 I18.8558 J-43.9291
G3 X845.7338 Y47.6466 I14.1562 J-25.0891
G3 X845.682 Y47.6078 I3.3281 J-4.5038
G3 X842.1239 Y43.7992 I9.2191 J-12.1791
G3 X842.1032 Y43.7675 I4.6843 J-3.0687
G3 X841.3217 Y42.3475 I9.727 J-6.2786
G0 Z3.0
G0 X867.3045 Y55.6389
G0 Z1.0
G1 F60.0 Z-4.0
G3 F300.0 X868.9685 Y56.3295 I-21.6193 J54.4437
G2 X871.3712 Y56.8523 I2.5327 J-5.8574
G3 X871.3772 Y56.659 I5.5995 J0.0774
G3 X871.6789 Y53.5863 I31.1412 J1.5069
G3 X867.3045 Y55.6389 I-4.3333 J-3.5472
G1 F60.0 X867.3162 Y54.039
G3 F300.0 X866.2959 Y53.8989 I0.0294 J-3.9999
G3 X853.4434 Y50.0042 I61.4144 J-225.8215
G3 X853.3096 Y49.9567 I1.2694 J-3.7932
G3 X846.6847 Y46.3598 I9.5443 J-25.4783
G3 X846.6477 Y46.3321 I2.3772 J-3.217
G3 X843.4623 Y42.9224 I8.2534 J-10.9034
G3 X843.4475 Y42.8997 I3.3459 J-2.192
G3 X841.8538 Y37.6248 I8.3827 J-5.4109
G3 X844.4624 Y33.82 I3.9996 J-0.0545
G3 X848.3858 Y32.756 I7.8323 J21.1157
G3 X848.4002 Y32.7535 I0.6942 J3.9393
G2 X857.5787 Y30.6151 I-13.7868 J-79.9415
G3 X857.624 Y30.602 I1.1324 J3.8364
G2 X865.6962 Y27.1031 I-8.9628 J-31.7389
G2 X870.9686 Y21.55 I-7.9715 J-12.8479
G2 X872.698 Y13.9696 I-14.3555 J-7.2626
G3 X872.6981 Y13.8052 I3.9992 J-0.079
G2 X871.2956 Y8.0547 I-11.4849 J-0.2452
G2 X867.0319 Y3.9275 I-9.9318 J5.9944
G3 X867.0109 Y3.9157 I1.9544 J-3.49
G2 X860.3572 Y1.4393 I-10.9893 J19.3494
G3 X860.3494 Y1.4377 I0.7794 J-3.9233
G2 X852.8284 Y0.7186 I-7.2476 J36.1129
G3 X852.782 Y0.7187 I-0.0297 J-3.9999
G2 X840.5083 Y2.8789 I-0.1474 J35.1109
G3 X840.4035 Y2.9158 I-1.3815 J-3.7539
G2 X836.057 Y5.228 I4.8109 J14.2853
G2 X834.9908 Y6.4766 I2.8174 J3.4852
G2 X834.7049 Y7.6332 I2.1399 J1.1426
G3 X834.705 Y7.6558 I-3.9999 J0.0231
G2 X835.0889 Y8.5227 I1.171 J-0.0001
G3 X835.2248 Y8.652 I-2.6886 J2.9617
G2 X836.1221 Y9.1061 I1.1443 J-1.1475
G2 X836.2774 Y9.0187 I-0.2112 J-0.5565
G3 X836.4165 Y8.9147 I2.4628 J3.1519
G2 X837.884 Y7.6719 I-6.7509 J-9.4592
G3 X838.2527 Y7.3459 I2.8288 J2.8281
G3 X842.5113 Y5.2605 I7.0938 J9.095
G3 X845.9024 Y4.4864 I8.9336 J31.3214
G3 X852.7141 Y3.7665 I7.6748 J40.0331
G3 X852.7366 Y3.7661 I0.0847 J3.9991
G3 X861.9978 Y5.0151 I0.4872 J31.3479
G3 X866.6555 Y7.311 I-3.9316 J13.8482
G3 X869.9783 Y13.8471 I-4.8542 J6.5804
G3 X865.0272 Y23.9871 I-12.4227 J0.213
G3 X860.796 Y26.4334 I-11.3522 J-14.7533
G3 X856.5445 Y27.837 I-11.1771 J-26.7132
G3 X856.4516 Y27.8588 I-0.9567 J-3.8839
G1 X850.7641 Y29.1166
G3 X850.7312 Y29.1237 I-0.8637 J-3.9056
G2 X845.7938 Y30.4357 I10.5169 J49.5233
G3 X845.7301 Y30.4555 I-1.221 J-3.8091
G2 X841.7636 Y32.2714 I4.663 J15.426
G2 X839.8074 Y34.5898 I3.2425 J4.7206
G2 X839.1339 Y38.093 I7.8953 J3.3341
G3 X839.1331 Y38.2836 I-3.9992 J0.0789
G2 X841.2079 Y45.8174 I13.3599 J0.3734
G2 X847.4485 Y50.7772 I11.8684 J-8.5272
G3 X847.4859 Y50.793 I-1.5404 J3.6915
G2 X852.2911 Y52.5667 I19.4869 J-45.3993
G3 X852.3169 Y52.5748 I-1.1887 J3.8193
G2 X857.4801 Y54.1151 I43.9984 J-138.0644
G3 X857.5077 Y54.1228 I-1.072 J3.8537
G3 X862.848 Y55.7498 I-44.4993 J155.6429
G3 X868.333 Y57.7979 I-17.1628 J54.3329
G2 X871.5745 Y58.4533 I3.1682 J-7.3257
G3 X871.7577 Y58.4558 I0.0367 J3.9998
G2 X872.5753 Y58.1295 I0.0399 J-1.0876
G2 X872.9738 Y57.0886 I-1.0138 J-0.9848
G3 X872.9753 Y56.7364 I3.9968 J-0.1589
G3 X873.7342 Y51.361 I29.5431 J1.4295
G3 X873.7522 Y51.2877 I3.8927 J0.9203
G2 X874.3416 Y47.4555 I-19.1128 J-4.9008
G2 X873.9426 Y46.433 I-1.4128 J-0.0378
G2 X873.1248 Y46.1067 I-0.7779 J0.7616
G3 X872.8878 Y46.1083 I-0.1464 J-3.9973
G2 X872.2238 Y46.2008 I-0.0474 J2.0902
G2 X871.7834 Y47.7191 I6.6344 J2.7474
G3 X871.7639 Y47.8233 I-3.941 J-0.6847
G2 X871.3123 Y50.5544 I39.1505 J7.8761
G3 X867.3162 Y54.039 I-3.9667 J-0.5153
G0 Z3.0
G0 X908.0597 Y51.4945
G0 Z1.0
G1 F60.0 Z-4.0
G3 F300.0 X908.6592 Y52.0945 I-4.7844 J5.3805
G3 X909.4799 Y51.3206 I5.3348 J4.8352
G3 X908.887 Y50.7143 I4.8423 J-5.3284
G3 X908.0597 Y51.4945 I-5.3382 J-4.8315
G1 F60.0 X905.9333 Y53.8858
G3 F300.0 X907.2751 Y56.9139 I-2.658 J2.9892
G3 X906.9954 Y64.5419 I-141.7216 J-1.3784
G2 X906.7828 Y71.147 I175.063 J8.9407
G3 X906.7813 Y71.2144 I-3.9996 J-0.0533
G2 X907.0806 Y71.9265 I0.93 J0.0281
G3 X907.1651 Y72.0067 I-2.7115 J2.9407
G2 X908.161 Y72.3995 I0.9646 J-0.9869
G3 X908.304 Y72.3988 I0.0909 J3.999
G2 X908.9995 Y71.9435 I0.0097 J-0.744
G3 X909.0438 Y71.842 I3.6866 J1.552
G2 X910.0046 Y68.0693 I-10.0795 J-4.5756
G3 X910.0047 Y68.0684 I3.9895 J0.2901
G2 X910.1585 Y63.571 I-58.1009 J-4.2383
G1 X910.0511 Y60.4582
G3 X910.0493 Y60.3848 I3.9976 J-0.1378
G1 X909.9946 Y56.9942
G3 X914.5411 Y52.9673 I3.9995 J-0.0645
G2 X921.9388 Y53.805 I20.8452 J-150.996
G2 X925.3146 Y53.7307 I0.0433 J-74.7911
G3 X925.4035 Y53.7277 I0.1782 J3.996
G2 X928.1366 Y53.397 I-0.3138 J-14.0517
G2 X928.3342 Y53.252 I-0.2022 J-0.4825
G2 X928.5356 Y52.2588 I-1.9686 J-0.9162
G3 X928.5351 Y51.9922 I3.9975 J-0.1416
G2 X928.1267 Y50.9061 I-1.5219 J-0.0476
G2 X927.3201 Y50.5911 I-0.7667 J0.7729
G3 X927.1995 Y50.5937 I-0.1464 J-3.9973
G2 X924.737 Y50.692 I0.2369 J36.8015
G3 X921.7839 Y50.8124 I-3.2105 J-42.4739
G3 X921.4548 Y50.8009 I-0.0242 J-3.9999
G3 X913.7506 Y49.9511 I8.8102 J-115.23
G3 X910.3243 Y45.8637 I0.5716 J-3.9589
G1 X911.3627 Y13.5622
G1 X911.4168 Y11.181
G1 X911.4714 Y8.3981
G3 X911.4738 Y8.3179 I3.9992 J0.0784
G2 X910.9277 Y2.2944 I-23.2915 J-0.9249
G2 X910.1369 Y0.6066 I-4.22 J0.9482
G2 X909.8493 Y0.4982 I-0.2754 J0.2947
G3 X909.6758 Y0.4997 I-0.1209 J-3.9982
G2 X908.5512 Y0.9174 I-0.0219 J1.6639
G3 X908.5132 Y0.9505 I-2.6508 J-2.9955
G2 X908.3136 Y1.398 I0.3763 J0.4361
G3 X908.3142 Y1.4397 I-3.9992 J0.0786
G2 X908.4747 Y7.5374 I178.3583 J-1.6427
G1 Y7.5376
G3 X908.6423 Y13.9082 I-186.8626 J8.105
G3 X908.6402 Y14.0822 I-3.9998 J0.0371
G1 X907.5464 Y46.0197
G3 X903.764 Y49.877 I-3.9977 J-0.1369
G2 X891.8035 Y50.7929 I14.2956 J265.2371
G3 X891.7313 Y50.7994 I-0.3954 J-3.9804
G2 X890.7465 Y51.18 I0.1503 J1.8535
G2 X890.5348 Y52.005 I1.1975 J0.7469
G3 X890.5388 Y52.3573 I-3.9939 J0.2215
G2 X890.9627 Y53.512 I1.6388 J0.0536
G2 X891.6089 Y53.8063 I0.6794 J-0.6353
G1 X902.9526 Y52.888
G3 X905.9333 Y53.8858 I0.3228 J3.987
G0 Z3.0
G0 X947.6038 Y35.6613
G0 Z1.0
G1 F60.0 Z-4.0
G3 F300.0 X945.3221 Y24.558 I24.9569 J-10.9149
G3 X945.9846 Y16.8975 I40.5075 J-0.3552
G3 X949.1596 Y8.8921 I20.5895 J3.5336
G3 X949.205 Y8.8251 I3.3344 J2.2094
G3 X955.054 Y3.9827 I11.5443 J7.9903
G3 X955.1269 Y3.9512 I1.6226 J3.6561
G3 X961.9902 Y2.6163 I6.6295 J15.7748
G3 X972.6679 Y4.9315 I0.5603 J23.1963
G3 X972.8897 Y5.0477 I-1.7441 J3.5997
G3 X976.2772 Y7.341 I-12.3775 J21.9317
G3 X979.0942 Y9.6886 I-39.9045 J50.7474
G3 X980.4176 Y13.1733 I-2.647 J2.9989
G2 X979.2745 Y23.8834 I346.3541 J42.3823
G3 X979.2726 Y23.9041 I-3.9835 J-0.3631
G2 X978.6973 Y34.4155 I126.4776 J12.193
G2 X978.946 Y39.0401 I47.4827 J-0.2346
G2 X979.8263 Y44.6245 I77.132 J-9.2963
G3 X977.767 Y48.9284 I-3.9259 J0.7662
G3 X973.7752 Y50.6784 I-14.071 J-26.6677
G3 X970.3356 Y51.4073 I-4.119 J-10.9572
G3 X970.1345 Y51.4139 I-0.2322 J-3.9933
G3 X960.2488 Y49.1772 I-0.1725 J-22.2019
G3 X960.1961 Y49.1511 I1.7499 J-3.5969
G3 X952.4613 Y43.131 I11.4618 J-22.7055
G3 X947.6038 Y35.6613 I20.0994 J-18.3846
G0 Z3.0
G0 X980.8984 Y47.902
G0 Z1.0
G1 F60.0 Z-4.0
G2 F300.0 X981.4148 Y47.5331 I-8.0596 J-11.8277
G2 X981.5483 Y47.4211 I-1.6402 J-2.0892
G3 X981.2852 Y46.9044 I4.852 J-2.7961
G3 X980.8984 Y47.902 I-5.3849 J-1.5137
G0 Z3.0
G0 X981.5952 Y10.4998
G0 Z1.0
G1 F60.0 Z-4.0
G3 F300.0 X982.4862 Y8.0197 I50.4739 J16.7327
G3 X983.2877 Y5.9168 I202.0526 J75.8098
G2 X983.145 Y6.1083 I15.5653 J11.7513
G3 X979.8718 Y8.2507 I-4.5103 J-3.3192
G3 X980.1488 Y8.4939 I-43.4991 J49.8377
G3 X981.5952 Y10.4998 I-3.7016 J4.1936
G1 F60.0 X983.1139 Y11.0032
G3 F300.0 X983.9812 Y8.5898 I48.9552 J16.2292
G3 X985.8622 Y3.7547 I200.5576 J75.2396
G3 X985.8638 Y3.7507 I3.71 J1.4953
G3 X987.0722 Y0.9483 I61.792 J24.9833
G2 X986.9281 Y0.7649 I-0.625 J0.3426
G3 X986.8477 Y0.6894 I2.6988 J-2.9524
G2 X986.5776 Y0.4996 I-0.7396 J0.7656
G2 X985.0039 Y1.7435 I7.6214 J11.2599
G3 X984.9366 Y1.8039 I-2.7051 J-2.9466
G2 X981.8563 Y5.1599 I13.9165 J15.8642
G3 X976.693 Y6.2862 I-3.2216 J-2.3709
G2 X967.9911 Y2.2699 I-31.2727 J56.3223
G3 X967.8917 Y2.2312 I1.4014 J-3.7465
G2 X962.5832 Y1.0452 I-6.22 J15.3671
G2 X953.7777 Y2.3354 I-0.4057 J27.9246
G2 X947.1751 Y6.7901 I4.2821 J13.4673
G2 X944.9472 Y10.5237 I12.4776 J9.977
G2 X943.0692 Y17.4233 I25.7582 J10.7165
G3 X943.0665 Y17.4425 I-3.9624 J-0.5473
G2 X942.5487 Y25.0241 I50.9435 J7.288
G3 X942.5486 Y25.0835 I-3.9999 J0.0228
G2 X944.5179 Y35.8027 I28.7243 J0.2633
G2 X950.4818 Y44.8858 I25.9772 J-10.557
G3 X950.5273 Y44.9329 I-2.8549 J2.8017
G2 X959.1268 Y51.0291 I19.7726 J-18.7784
G2 X969.3562 Y53.0939 I10.0147 J-23.2435
G2 X973.8536 Y52.5061 I-0.1834 J-18.9019
G3 X973.8645 Y52.5033 I0.9905 J3.8754
G2 X978.4991 Y50.9485 I-7.8577 J-31.1068
G3 X978.6067 Y50.9048 I1.5575 J3.6843
G2 X982.3869 Y48.8041 I-5.7678 J-14.8305
G2 X983.3394 Y47.7693 I-2.6123 J-3.3601
G2 X983.4853 Y47.3641 I-0.8606 J-0.5388
G3 X982.4844 Y45.4408 I2.915 J-2.7391
G3 X981.5303 Y37.9884 I47.1591 J-9.8249
G3 X981.1973 Y25.6234 I262.3827 J-13.2536
G3 X981.3563 Y19.9499 I72.0816 J-0.8186
G3 X982.2314 Y13.9667 I36.0376 J2.2151
G3 X982.2642 Y13.836 I3.8955 J0.9083
G3 X983.1139 Y11.0032 I49.8049 J13.3964
G0 Z3.0
G0 X1037.0911 Y14.7723
G0 Z1.0
G1 F60.0 Z-4.0
G3 F300.0 X1038.191 Y16.7677 I-29.1683 J17.3781
G3 X1039.9016 Y21.1327 I-21.4211 J10.9125
G1 X1039.3528 Y13.1151
G3 X1037.0911 Y14.7723 I-4.3353 J-3.5448
G1 F60.0 X1035.7221 Y15.5879
G3 F300.0 X1036.7707 Y17.4904 I-27.7992 J16.5625
G3 X1039.0259 Y24.759 I-20.0008 J10.1899
G3 X1040.4466 Y34.1343 I-153.5404 J28.0616
G3 X1041.5122 Y43.5057 I-426.949 J53.2969
G3 X1040.012 Y47.0534 I-3.9791 J0.4084
G3 X1034.3422 Y50.1957 I-12.4298 J-15.7414
G3 X1034.3129 Y50.206 I-1.3481 J-3.766
G3 X1028.157 Y51.25 I-6.1559 J-17.6268
G3 X1017.7292 Y49.3048 I-0.411 J-26.7201
G3 X1017.6669 Y49.279 I1.4993 J-3.7084
G3 X1008.8972 Y42.5493 I8.6051 J-20.2923
G3 X1004.2536 Y33.4075 I20.9305 J-16.3821
G3 X1004.2495 Y33.3931 I3.8487 J-1.0896
G3 X1002.9626 Y23.6806 I33.7104 J-9.4081
G3 X1003.613 Y16.7272 I34.1533 J-0.3127
G3 X1006.7105 Y9.4402 I18.1482 J3.4124
G3 X1006.7621 Y9.3693 I3.2602 J2.3176
G3 X1012.4918 Y4.9443 I10.7589 J8.0093
G3 X1012.5481 Y4.922 I1.4998 J3.7082
G3 X1019.0646 Y3.7662 I6.2048 J16.0351
G3 X1027.2974 Y6.3941 I-0.2578 J15.0178
G3 X1028.9016 Y7.5783 I-14.3552 J21.126
G3 X1028.9009 Y7.5774 I3.0896 J-2.5405
G2 X1025.7303 Y4.6863 I-11.5834 J9.5189
G2 X1018.7348 Y2.6322 I-6.7851 J10.169
G3 X1018.6145 Y2.6325 I-0.0688 J-3.9994
G2 X1011.3544 Y3.9523 I-0.2478 J19.2646
G2 X1005.4883 Y8.0551 I6.2096 J15.1233
G2 X1001.5653 Y14.776 I13.732 J12.5209
G2 X1000.3532 Y22.8682 I24.4425 J7.798
G3 X1000.3531 Y22.9626 I-3.9997 J0.0459
G2 X1002.0682 Y34.4037 I36.0959 J0.4382
G2 X1007.7461 Y43.9652 I24.4171 J-8.0331
G3 X1007.7491 Y43.9684 I-2.9161 J2.738
G2 X1017.0985 Y50.1307 I17.5297 J-16.4224
G2 X1028.6175 Y52.0004 I11.0479 J-31.6466
G3 X1028.7732 Y52.0012 I0.0562 J3.9996
G2 X1035.8955 Y50.9079 I0.5083 J-20.4332
G2 X1039.2 Y48.4251 I-2.2741 J-6.4672
G3 X1042.4059 Y46.7503 I3.255 J2.3249
G2 X1043.5994 Y46.5423 I-0.0466 J-3.7959
G3 X1043.6001 Y46.5421 I1.3067 J3.7806
G2 X1043.9712 Y46.2221 I-0.2162 J-0.6259
G2 X1044.3084 Y44.3616 I-4.2151 J-1.7246
G2 X1043.2303 Y34.6082 I-61.1991 J1.8279
G3 X1043.2187 Y34.5448 I3.9278 J-0.7566
G3 X1041.7062 Y24.0138 I166.1025 J-29.2293
G3 X1041.6909 Y23.8435 I3.9753 J-0.4435
G1 X1040.4331 Y5.4685
G3 X1040.4252 Y5.3025 I3.9907 J-0.2732
G2 X1039.8345 Y-3.3741 I-105.5891 J2.8296
G3 X1039.8327 Y-3.3909 I3.9762 J-0.4357
G2 X1038.3155 Y-11.6609 I-54.698 J5.7604
G2 X1035.7926 Y-17.918 I-26.7614 J7.1533
G3 X1035.7898 Y-17.9231 I3.5 J-1.9364
G2 X1031.8688 Y-22.5856 I-13.7422 J7.5768
G2 X1024.4109 Y-25.919 I-11.388 J15.4689
G3 X1024.3801 Y-25.9256 I0.8184 J-3.9154
G2 X1015.3729 Y-26.844 I-8.5744 J39.4653
G3 X1015.273 Y-26.8442 I-0.0429 J-3.9998
G2 X1003.8325 Y-25.9207 I-0.8641 J60.6238
G3 X1003.8042 Y-25.9158 I-0.6978 J-3.9387
G2 X1000.6552 Y-24.7862 I1.5967 J9.4054
G3 X1000.5813 Y-24.7449 I-1.9898 J-3.47
G2 X1000.2441 Y-24.176 I0.31 J0.5682
G3 X1000.235 Y-23.9024 I-4.0 J0.0042
G2 X1000.33 Y-23.3599 I1.1524 J0.0778
G2 X1000.7181 Y-23.2946 I0.3288 J-0.7688
G3 X1000.7593 Y-23.2973 I0.2838 J3.9899
G2 X1006.6884 Y-24.1373 I-2.2704 J-37.3724
G3 X1006.7679 Y-24.1543 I0.876 J3.9029
G3 X1017.7676 Y-25.1101 I9.6818 J47.65
G3 X1028.9207 Y-21.748 I0.1976 J19.5249
G3 X1029.0805 Y-21.6339 I-2.2443 J3.3111
G3 X1035.9779 Y-12.3312 I-12.2522 J16.2926
G3 X1037.5814 Y-6.7051 I-32.4398 J12.2872
G3 X1038.6768 Y1.4916 I-66.8258 J13.1023
G3 X1039.0173 Y9.5332 I-121.459 J9.1713
G3 X1034.3802 Y13.5192 I-3.9998 J0.0371
G3 X1035.7221 Y15.5879 I-26.4574 J18.6312
G0 Z3.0
M5
M30
