( Made using CamBam - http://www.cambam.co.uk )
( zum60sten 8/31/2014 3:04:17 PM )
( T8 : 8.0 )
G21 G90 G64 G40
G0 Z3.0
( T8 : 8.0 )
T8 M6
( zum2 )
G17
M3 S1000
G0 X26.4936 Y51.3206
G0 Z1.0
G1 F60.0 Z-4.0
G3 F500.0 X25.9007 Y50.7143 I4.8423 J-5.3284
G3 X25.0735 Y51.4945 I-5.3382 J-4.8315
G3 X25.673 Y52.0945 I-4.7844 J5.3805
G3 X26.4936 Y51.3206 I5.3348 J4.8352
G1 F60.0 X28.6458 Y48.9524
G3 F500.0 X27.338 Y45.8637 I2.6902 J-2.9602
G1 X28.3765 Y13.5622
G1 X28.4306 Y11.181
G1 X28.4851 Y8.3981
G3 X28.4875 Y8.3179 I3.9992 J0.0784
G2 X27.9414 Y2.2944 I-23.2915 J-0.9249
G2 X27.1506 Y0.6066 I-4.22 J0.9482
G2 X26.8631 Y0.4982 I-0.2754 J0.2947
G3 X26.6896 Y0.4997 I-0.1209 J-3.9982
G2 X25.5649 Y0.9174 I-0.0219 J1.6639
G3 X25.527 Y0.9505 I-2.6508 J-2.9955
G2 X25.3274 Y1.398 I0.3763 J0.4361
G3 X25.328 Y1.4397 I-3.9992 J0.0786
G2 X25.4884 Y7.5374 I178.3583 J-1.6427
G1 Y7.5376
G3 X25.6561 Y13.9082 I-186.8626 J8.105
G3 X25.6539 Y14.0822 I-3.9998 J0.0371
G1 X24.5602 Y46.0197
G3 X20.7778 Y49.877 I-3.9977 J-0.1369
G2 X8.8173 Y50.7929 I14.2956 J265.2371
G3 X8.7451 Y50.7994 I-0.3954 J-3.9804
G2 X7.7602 Y51.18 I0.1503 J1.8535
G2 X7.5485 Y52.005 I1.1975 J0.7469
G3 X7.5525 Y52.3573 I-3.9939 J0.2215
G2 X7.9764 Y53.512 I1.6388 J0.0536
G2 X8.6226 Y53.8063 I0.6794 J-0.6353
G1 X19.9663 Y52.888
G3 X24.2889 Y56.9139 I0.3228 J3.987
G3 X24.0091 Y64.5419 I-141.7216 J-1.3784
G2 X23.7965 Y71.147 I175.063 J8.9407
G3 X23.7951 Y71.2144 I-3.9996 J-0.0533
G2 X24.0943 Y71.9265 I0.93 J0.0281
G3 X24.1788 Y72.0067 I-2.7115 J2.9407
G2 X25.1748 Y72.3995 I0.9646 J-0.9869
G3 X25.3177 Y72.3988 I0.0909 J3.999
G2 X26.0132 Y71.9435 I0.0097 J-0.744
G3 X26.0576 Y71.842 I3.6866 J1.552
G2 X27.0183 Y68.0693 I-10.0795 J-4.5756
G3 X27.0184 Y68.0684 I3.9895 J0.2901
G2 X27.1722 Y63.571 I-58.1009 J-4.2383
G1 X27.0649 Y60.4582
G3 X27.063 Y60.3848 I3.9976 J-0.1378
G1 X27.0083 Y56.9942
G3 X31.5548 Y52.9673 I3.9995 J-0.0645
G2 X38.9525 Y53.805 I20.8452 J-150.996
G2 X42.3283 Y53.7307 I0.0433 J-74.7911
G3 X42.4172 Y53.7277 I0.1782 J3.996
G2 X45.1504 Y53.397 I-0.3138 J-14.0517
G2 X45.348 Y53.252 I-0.2022 J-0.4825
G2 X45.5494 Y52.2588 I-1.9686 J-0.9162
G3 X45.5488 Y51.9922 I3.9975 J-0.1416
G2 X45.1404 Y50.9061 I-1.5219 J-0.0476
G2 X44.3339 Y50.5911 I-0.7667 J0.7729
G3 X44.2133 Y50.5937 I-0.1464 J-3.9973
G2 X41.7508 Y50.692 I0.2369 J36.8015
G3 X38.7976 Y50.8124 I-3.2105 J-42.4739
G3 X38.4685 Y50.8009 I-0.0242 J-3.9999
G3 X30.7643 Y49.9511 I8.8102 J-115.23
G3 X28.6458 Y48.9524 I0.5716 J-3.9589
G0 Z3.0
G0 X65.6324 Y42.3475
G0 Z1.0
G1 F60.0 Z-4.0
G2 F500.0 X66.8449 Y44.9213 I11.1713 J-3.6905
G2 X72.3753 Y49.3006 I10.5419 J-7.6311
G3 X72.4276 Y49.3228 I-2.1565 J5.1681
G2 X73.0083 Y49.5675 I18.8558 J-43.9291
G3 X70.0444 Y47.6466 I14.1562 J-25.0891
G3 X69.9926 Y47.6078 I3.3281 J-4.5038
G3 X66.4345 Y43.7992 I9.2191 J-12.1791
G3 X66.4139 Y43.7675 I4.6843 J-3.0687
G3 X65.6324 Y42.3475 I9.727 J-6.2786
G0 Z3.0
G0 X91.6151 Y55.6389
G0 Z1.0
G1 F60.0 Z-4.0
G3 F500.0 X93.2792 Y56.3295 I-21.6193 J54.4437
G2 X95.6818 Y56.8523 I2.5327 J-5.8574
G3 X95.6878 Y56.659 I5.5995 J0.0774
G3 X95.9895 Y53.5863 I31.1412 J1.5069
G3 X91.6151 Y55.6389 I-4.3333 J-3.5472
G1 F60.0 X91.0246 Y57.126
G3 F500.0 X92.6437 Y57.7979 I-21.0288 J52.9567
G2 X95.8851 Y58.4533 I3.1682 J-7.3257
G3 X96.0683 Y58.4558 I0.0367 J3.9998
G2 X96.8859 Y58.1295 I0.0399 J-1.0876
G2 X97.2844 Y57.0886 I-1.0138 J-0.9848
G3 X97.2859 Y56.7364 I3.9968 J-0.1589
G3 X98.0448 Y51.361 I29.5431 J1.4295
G3 X98.0628 Y51.2877 I3.8927 J0.9203
G2 X98.6522 Y47.4555 I-19.1128 J-4.9008
G2 X98.2532 Y46.433 I-1.4128 J-0.0378
G2 X97.4354 Y46.1067 I-0.7779 J0.7616
G3 X97.1984 Y46.1083 I-0.1464 J-3.9973
G2 X96.5344 Y46.2008 I-0.0474 J2.0902
G2 X96.094 Y47.7191 I6.6344 J2.7474
G3 X96.0745 Y47.8233 I-3.941 J-0.6847
G2 X95.6229 Y50.5544 I39.1505 J7.8761
G3 X90.6065 Y53.8989 I-3.9667 J-0.5153
G3 X77.754 Y50.0042 I61.4144 J-225.8215
G3 X77.6202 Y49.9567 I1.2694 J-3.7932
G3 X70.9953 Y46.3598 I9.5443 J-25.4783
G3 X70.9583 Y46.3321 I2.3772 J-3.217
G3 X67.7729 Y42.9224 I8.2534 J-10.9034
G3 X67.7581 Y42.8997 I3.3459 J-2.192
G3 X66.1644 Y37.6248 I8.3827 J-5.4109
G3 X68.773 Y33.82 I3.9996 J-0.0545
G3 X72.6964 Y32.756 I7.8323 J21.1157
G3 X72.7108 Y32.7535 I0.6942 J3.9393
G2 X81.8893 Y30.6151 I-13.7868 J-79.9415
G3 X81.9346 Y30.602 I1.1324 J3.8364
G2 X90.0068 Y27.1031 I-8.9628 J-31.7389
G2 X95.2792 Y21.55 I-7.9715 J-12.8479
G2 X97.0086 Y13.9696 I-14.3555 J-7.2626
G3 X97.0087 Y13.8052 I3.9992 J-0.079
G2 X95.6062 Y8.0547 I-11.4849 J-0.2452
G2 X91.3425 Y3.9275 I-9.9318 J5.9944
G3 X91.3215 Y3.9157 I1.9544 J-3.49
G2 X84.6678 Y1.4393 I-10.9893 J19.3494
G3 X84.6601 Y1.4377 I0.7794 J-3.9233
G2 X77.1391 Y0.7186 I-7.2476 J36.1129
G3 X77.0926 Y0.7187 I-0.0297 J-3.9999
G2 X64.819 Y2.8789 I-0.1474 J35.1109
G3 X64.7141 Y2.9158 I-1.3815 J-3.7539
G2 X60.3676 Y5.228 I4.8109 J14.2853
G2 X59.3014 Y6.4766 I2.8174 J3.4852
G2 X59.0156 Y7.6332 I2.1399 J1.1426
G3 Y7.6558 I-3.9999 J0.0231
G2 X59.3995 Y8.5227 I1.171 J-0.0001
G3 X59.5354 Y8.652 I-2.6886 J2.9617
G2 X60.4327 Y9.1061 I1.1443 J-1.1475
G2 X60.588 Y9.0187 I-0.2112 J-0.5565
G3 X60.7271 Y8.9147 I2.4628 J3.1519
G2 X62.1947 Y7.6719 I-6.7509 J-9.4592
G3 X62.5634 Y7.3459 I2.8288 J2.8281
G3 X66.8219 Y5.2605 I7.0938 J9.095
G3 X70.213 Y4.4864 I8.9336 J31.3214
G3 X77.0247 Y3.7665 I7.6748 J40.0331
G3 X77.0472 Y3.7661 I0.0847 J3.9991
G3 X86.3084 Y5.0151 I0.4872 J31.3479
G3 X90.9661 Y7.311 I-3.9316 J13.8482
G3 X94.2889 Y13.8471 I-4.8542 J6.5804
G3 X89.3378 Y23.9871 I-12.4227 J0.213
G3 X85.1066 Y26.4334 I-11.3522 J-14.7533
G3 X80.8551 Y27.837 I-11.1771 J-26.7132
G3 X80.7622 Y27.8588 I-0.9567 J-3.8839
G1 X75.0747 Y29.1166
G3 X75.0419 Y29.1237 I-0.8637 J-3.9056
G2 X70.1044 Y30.4357 I10.5169 J49.5233
G3 X70.0408 Y30.4555 I-1.221 J-3.8091
G2 X66.0742 Y32.2714 I4.663 J15.426
G2 X64.118 Y34.5898 I3.2425 J4.7206
G2 X63.4445 Y38.093 I7.8953 J3.3341
G3 X63.4438 Y38.2836 I-3.9992 J0.0789
G2 X65.5185 Y45.8174 I13.3599 J0.3734
G2 X71.7591 Y50.7772 I11.8684 J-8.5272
G3 X71.7965 Y50.793 I-1.5404 J3.6915
G2 X76.6017 Y52.5667 I19.4869 J-45.3993
G3 X76.6276 Y52.5748 I-1.1887 J3.8193
G2 X81.7908 Y54.1151 I43.9984 J-138.0644
G3 X81.8183 Y54.1228 I-1.072 J3.8537
G3 X87.1586 Y55.7498 I-44.4993 J155.6429
G3 X91.0246 Y57.126 I-17.1628 J54.3329
G0 Z3.0
G0 X132.3703 Y51.4945
G0 Z1.0
G1 F60.0 Z-4.0
G3 F500.0 X132.9698 Y52.0945 I-4.7844 J5.3805
G3 X133.7905 Y51.3206 I5.3348 J4.8352
G3 X133.1976 Y50.7143 I4.8423 J-5.3284
G3 X132.3703 Y51.4945 I-5.3382 J-4.8315
G1 F60.0 X130.2439 Y53.8858
G3 F500.0 X131.5857 Y56.9139 I-2.658 J2.9892
G3 X131.306 Y64.5419 I-141.7216 J-1.3784
G2 X131.0934 Y71.147 I175.063 J8.9407
G3 X131.0919 Y71.2144 I-3.9996 J-0.0533
G2 X131.3912 Y71.9265 I0.93 J0.0281
G3 X131.4757 Y72.0067 I-2.7115 J2.9407
G2 X132.4716 Y72.3995 I0.9646 J-0.9869
G3 X132.6146 Y72.3988 I0.0909 J3.999
G2 X133.3101 Y71.9435 I0.0097 J-0.744
G3 X133.3545 Y71.842 I3.6866 J1.552
G2 X134.3152 Y68.0693 I-10.0795 J-4.5756
G3 X134.3153 Y68.0684 I3.9895 J0.2901
G2 X134.4691 Y63.571 I-58.1009 J-4.2383
G1 X134.3618 Y60.4582
G3 X134.3599 Y60.3848 I3.9976 J-0.1378
G1 X134.3052 Y56.9942
G3 X138.8517 Y52.9673 I3.9995 J-0.0645
G2 X146.2494 Y53.805 I20.8452 J-150.996
G2 X149.6252 Y53.7307 I0.0433 J-74.7911
G3 X149.7141 Y53.7277 I0.1782 J3.996
G2 X152.4472 Y53.397 I-0.3138 J-14.0517
G2 X152.6448 Y53.252 I-0.2022 J-0.4825
G2 X152.8463 Y52.2588 I-1.9686 J-0.9162
G3 X152.8457 Y51.9922 I3.9975 J-0.1416
G2 X152.4373 Y50.9061 I-1.5219 J-0.0476
G2 X151.6308 Y50.5911 I-0.7667 J0.7729
G3 X151.5101 Y50.5937 I-0.1464 J-3.9973
G2 X149.0476 Y50.692 I0.2369 J36.8015
G3 X146.0945 Y50.8124 I-3.2105 J-42.4739
G3 X145.7654 Y50.8009 I-0.0242 J-3.9999
G3 X138.0612 Y49.9511 I8.8102 J-115.23
G3 X134.6349 Y45.8637 I0.5716 J-3.9589
G1 X135.6733 Y13.5622
G1 X135.7275 Y11.181
G1 X135.782 Y8.3981
G3 X135.7844 Y8.3179 I3.9992 J0.0784
G2 X135.2383 Y2.2944 I-23.2915 J-0.9249
G2 X134.4475 Y0.6066 I-4.22 J0.9482
G2 X134.16 Y0.4982 I-0.2754 J0.2947
G3 X133.9864 Y0.4997 I-0.1209 J-3.9982
G2 X132.8618 Y0.9174 I-0.0219 J1.6639
G3 X132.8239 Y0.9505 I-2.6508 J-2.9955
G2 X132.6242 Y1.398 I0.3763 J0.4361
G3 X132.6248 Y1.4397 I-3.9992 J0.0786
G2 X132.7853 Y7.5374 I178.3583 J-1.6427
G1 Y7.5376
G3 X132.953 Y13.9082 I-186.8626 J8.105
G3 X132.9508 Y14.0822 I-3.9998 J0.0371
G1 X131.857 Y46.0197
G3 X128.0747 Y49.877 I-3.9977 J-0.1369
G2 X116.1141 Y50.7929 I14.2956 J265.2371
G3 X116.042 Y50.7994 I-0.3954 J-3.9804
G2 X115.0571 Y51.18 I0.1503 J1.8535
G2 X114.8454 Y52.005 I1.1975 J0.7469
G3 X114.8494 Y52.3573 I-3.9939 J0.2215
G2 X115.2733 Y53.512 I1.6388 J0.0536
G2 X115.9195 Y53.8063 I0.6794 J-0.6353
G1 X127.2632 Y52.888
G3 X130.2439 Y53.8858 I0.3228 J3.987
G0 Z3.0
G0 X171.9145 Y35.6613
G0 Z1.0
G1 F60.0 Z-4.0
G3 F500.0 X169.6327 Y24.558 I24.9569 J-10.9149
G3 X170.2953 Y16.8975 I40.5075 J-0.3552
G3 X173.4703 Y8.8921 I20.5895 J3.5336
G3 X173.5157 Y8.8251 I3.3344 J2.2094
G3 X179.3646 Y3.9827 I11.5443 J7.9903
G3 X179.4375 Y3.9512 I1.6226 J3.6561
G3 X186.3008 Y2.6163 I6.6295 J15.7748
G3 X196.9785 Y4.9315 I0.5603 J23.1963
G3 X197.2004 Y5.0477 I-1.7441 J3.5997
G3 X200.5878 Y7.341 I-12.3775 J21.9317
G3 X203.4049 Y9.6886 I-39.9045 J50.7474
G3 X204.7282 Y13.1733 I-2.647 J2.9989
G2 X203.5851 Y23.8834 I346.3541 J42.3823
G3 X203.5832 Y23.9041 I-3.9835 J-0.3631
G2 X203.0079 Y34.4155 I126.4776 J12.193
G2 X203.2566 Y39.0401 I47.4827 J-0.2346
G2 X204.1369 Y44.6245 I77.132 J-9.2963
G3 X202.0776 Y48.9284 I-3.9259 J0.7662
G3 X198.0858 Y50.6784 I-14.071 J-26.6677
G3 X194.6462 Y51.4073 I-4.119 J-10.9572
G3 X194.4451 Y51.4139 I-0.2322 J-3.9933
G3 X184.5594 Y49.1772 I-0.1725 J-22.2019
G3 X184.5067 Y49.1511 I1.7499 J-3.5969
G3 X176.7719 Y43.131 I11.4618 J-22.7055
G3 X171.9145 Y35.6613 I20.0994 J-18.3846
G0 Z3.0
G0 X205.2091 Y47.902
G0 Z1.0
G1 F60.0 Z-4.0
G2 F500.0 X205.7254 Y47.5331 I-8.0596 J-11.8277
G2 X205.8589 Y47.4211 I-1.6402 J-2.0892
G3 X205.5958 Y46.9044 I4.852 J-2.7961
G3 X205.2091 Y47.902 I-5.3849 J-1.5137
G0 Z3.0
G0 X205.9058 Y10.4998
G0 Z1.0
G1 F60.0 Z-4.0
G3 F500.0 X206.7968 Y8.0197 I50.4739 J16.7327
G3 X207.5983 Y5.9168 I202.0526 J75.8098
G2 X207.4556 Y6.1083 I15.5653 J11.7513
G3 X204.1824 Y8.2507 I-4.5103 J-3.3192
G3 X204.4594 Y8.4939 I-43.4991 J49.8377
G3 X205.9058 Y10.4998 I-3.7016 J4.1936
G1 F60.0 X207.4246 Y11.0032
G3 F500.0 X208.2918 Y8.5898 I48.9552 J16.2292
G3 X210.1728 Y3.7547 I200.5576 J75.2396
G3 X210.1744 Y3.7507 I3.71 J1.4953
G3 X211.3828 Y0.9483 I61.792 J24.9833
G2 X211.2387 Y0.7649 I-0.625 J0.3426
G3 X211.1584 Y0.6894 I2.6988 J-2.9524
G2 X210.8882 Y0.4996 I-0.7396 J0.7656
G2 X209.3145 Y1.7435 I7.6214 J11.2599
G3 X209.2472 Y1.8039 I-2.7051 J-2.9466
G2 X206.167 Y5.1599 I13.9165 J15.8642
G3 X201.0036 Y6.2862 I-3.2216 J-2.3709
G2 X192.3017 Y2.2699 I-31.2727 J56.3223
G3 X192.2023 Y2.2312 I1.4014 J-3.7465
G2 X186.8938 Y1.0452 I-6.22 J15.3671
G2 X178.0883 Y2.3354 I-0.4057 J27.9246
G2 X171.4857 Y6.7901 I4.2821 J13.4673
G2 X169.2579 Y10.5237 I12.4776 J9.977
G2 X167.3798 Y17.4233 I25.7582 J10.7165
G3 X167.3771 Y17.4425 I-3.9624 J-0.5473
G2 X166.8593 Y25.0241 I50.9435 J7.288
G3 X166.8592 Y25.0835 I-3.9999 J0.0228
G2 X168.8285 Y35.8027 I28.7243 J0.2633
G2 X174.7924 Y44.8858 I25.9772 J-10.557
G3 X174.8379 Y44.9329 I-2.8549 J2.8017
G2 X183.4374 Y51.0291 I19.7726 J-18.7784
G2 X193.6668 Y53.0939 I10.0147 J-23.2435
G2 X198.1642 Y52.5061 I-0.1834 J-18.9019
G3 X198.1751 Y52.5033 I0.9905 J3.8754
G2 X202.8097 Y50.9485 I-7.8577 J-31.1068
G3 X202.9173 Y50.9048 I1.5575 J3.6843
G2 X206.6975 Y48.8041 I-5.7678 J-14.8305
G2 X207.65 Y47.7693 I-2.6123 J-3.3601
G2 X207.7959 Y47.3641 I-0.8606 J-0.5388
G3 X206.795 Y45.4408 I2.915 J-2.7391
G3 X205.8409 Y37.9884 I47.1591 J-9.8249
G3 X205.5079 Y25.6234 I262.3827 J-13.2536
G3 X205.6669 Y19.9499 I72.0816 J-0.8186
G3 X206.542 Y13.9667 I36.0376 J2.2151
G3 X206.5748 Y13.836 I3.8955 J0.9083
G3 X207.4246 Y11.0032 I49.8049 J13.3964
G0 Z3.0
G0 X261.4017 Y14.7723
G0 Z1.0
G1 F60.0 Z-4.0
G3 F500.0 X262.5016 Y16.7677 I-29.1683 J17.3781
G3 X264.2122 Y21.1327 I-21.4211 J10.9125
G1 X263.6634 Y13.1151
G3 X261.4017 Y14.7723 I-4.3353 J-3.5448
G1 F60.0 X260.0327 Y15.5879
G3 F500.0 X261.0813 Y17.4904 I-27.7992 J16.5625
G3 X263.3365 Y24.759 I-20.0008 J10.1899
G3 X264.7572 Y34.1343 I-153.5404 J28.0616
G3 X265.8229 Y43.5057 I-426.949 J53.2969
G3 X264.3226 Y47.0534 I-3.9791 J0.4084
G3 X258.6528 Y50.1957 I-12.4298 J-15.7414
G3 X258.6235 Y50.206 I-1.3481 J-3.766
G3 X252.4677 Y51.25 I-6.1559 J-17.6268
G3 X242.0398 Y49.3048 I-0.411 J-26.7201
G3 X241.9775 Y49.279 I1.4993 J-3.7084
G3 X233.2079 Y42.5493 I8.6051 J-20.2923
G3 X228.5642 Y33.4075 I20.9305 J-16.3821
G3 X228.5602 Y33.3931 I3.8487 J-1.0896
G3 X227.2733 Y23.6806 I33.7104 J-9.4081
G3 X227.9236 Y16.7272 I34.1533 J-0.3127
G3 X231.0211 Y9.4402 I18.1482 J3.4124
G3 X231.0727 Y9.3693 I3.2602 J2.3176
G3 X236.8024 Y4.9443 I10.7589 J8.0093
G3 X236.8587 Y4.922 I1.4998 J3.7082
G3 X243.3753 Y3.7662 I6.2048 J16.0351
G3 X251.6081 Y6.3941 I-0.2578 J15.0178
G3 X253.2123 Y7.5783 I-14.3552 J21.126
G3 X253.2115 Y7.5774 I3.0896 J-2.5405
G2 X250.041 Y4.6863 I-11.5834 J9.5189
G2 X243.0454 Y2.6322 I-6.7851 J10.169
G3 X242.9251 Y2.6325 I-0.0688 J-3.9994
G2 X235.665 Y3.9523 I-0.2478 J19.2646
G2 X229.7989 Y8.0551 I6.2096 J15.1233
G2 X225.8759 Y14.776 I13.732 J12.5209
G2 X224.6638 Y22.8682 I24.4425 J7.798
G3 Y22.9626 I-3.9997 J0.0459
G2 X226.3788 Y34.4037 I36.0959 J0.4382
G2 X232.0567 Y43.9652 I24.4171 J-8.0331
G3 X232.0598 Y43.9684 I-2.9161 J2.738
G2 X241.4091 Y50.1307 I17.5297 J-16.4224
G2 X252.9282 Y52.0004 I11.0479 J-31.6466
G3 X253.0839 Y52.0012 I0.0562 J3.9996
G2 X260.2061 Y50.9079 I0.5083 J-20.4332
G2 X263.5106 Y48.4251 I-2.2741 J-6.4672
G3 X266.7165 Y46.7503 I3.255 J2.3249
G2 X267.9101 Y46.5423 I-0.0466 J-3.7959
G3 X267.9107 Y46.5421 I1.3067 J3.7806
G2 X268.2818 Y46.2221 I-0.2162 J-0.6259
G2 X268.619 Y44.3616 I-4.2151 J-1.7246
G2 X267.541 Y34.6082 I-61.1991 J1.8279
G3 X267.5293 Y34.5448 I3.9278 J-0.7566
G3 X266.0168 Y24.0138 I166.1025 J-29.2293
G3 X266.0015 Y23.8435 I3.9753 J-0.4435
G1 X264.7437 Y5.4685
G3 X264.7358 Y5.3025 I3.9907 J-0.2732
G2 X264.1452 Y-3.3741 I-105.5891 J2.8296
G3 X264.1433 Y-3.3909 I3.9762 J-0.4357
G2 X262.6262 Y-11.6609 I-54.698 J5.7604
G2 X260.1033 Y-17.918 I-26.7614 J7.1533
G3 X260.1004 Y-17.9231 I3.5 J-1.9364
G2 X256.1794 Y-22.5856 I-13.7422 J7.5768
G2 X248.7215 Y-25.919 I-11.388 J15.4689
G3 X248.6907 Y-25.9256 I0.8184 J-3.9154
G2 X239.6835 Y-26.844 I-8.5744 J39.4653
G3 X239.5836 Y-26.8442 I-0.0429 J-3.9998
G2 X228.1431 Y-25.9207 I-0.8641 J60.6238
G3 X228.1148 Y-25.9158 I-0.6978 J-3.9387
G2 X224.9658 Y-24.7862 I1.5967 J9.4054
G3 X224.8919 Y-24.7449 I-1.9898 J-3.47
G2 X224.5547 Y-24.176 I0.31 J0.5682
G3 X224.5456 Y-23.9024 I-4.0 J0.0042
G2 X224.6406 Y-23.3599 I1.1524 J0.0778
G2 X225.0287 Y-23.2946 I0.3288 J-0.7688
G3 X225.0699 Y-23.2973 I0.2838 J3.9899
G2 X230.999 Y-24.1373 I-2.2704 J-37.3724
G3 X231.0785 Y-24.1543 I0.876 J3.9029
G3 X242.0782 Y-25.1101 I9.6818 J47.65
G3 X253.2313 Y-21.748 I0.1976 J19.5249
G3 X253.3911 Y-21.6339 I-2.2443 J3.3111
G3 X260.2885 Y-12.3312 I-12.2522 J16.2926
G3 X261.892 Y-6.7051 I-32.4398 J12.2872
G3 X262.9874 Y1.4916 I-66.8258 J13.1023
G3 X263.328 Y9.5332 I-121.459 J9.1713
G3 X258.6908 Y13.5192 I-3.9998 J0.0371
G3 X260.0327 Y15.5879 I-26.4574 J18.6312
G0 Z3.0
M5
M30
