( Made using CamBam - http://www.cambam.co.uk )
( Zum-Hof-Elipse 12/2/2017 11:26:01 AM )
( T6 : 6.0 )
G21 G90 G64 G40
G0 Z3.0
( T6 : 6.0 )
T6 M6
( GravierenUnten )
G17
M3 S1000
G0 X-194.8584 Y7.61739
G0 Z1.0
G1 F300.0 Z-4.0
G1 F800.0 X-195.12598 Y0.20686
G1 X-194.8584 Y-7.20368
G1 X-194.05641 Y-14.5939
G1 X-192.72221 Y-21.94355
G1 X-190.85944 Y-29.2325
G1 X-188.47322 Y-36.44075
G1 X-185.57008 Y-43.54855
G1 X-182.15799 Y-50.53642
G1 X-178.24629 Y-57.38521
G1 X-173.84571 Y-64.07614
G1 X-168.96831 Y-70.59088
G1 X-163.62746 Y-76.91156
G1 X-157.8378 Y-83.02087
G1 X-151.61518 Y-88.90206
G1 X-144.97669 Y-94.53901
G1 X-137.94049 Y-99.91626
G1 X-130.52589 Y-105.01909
G1 X-122.75321 Y-109.83349
G1 X-114.64375 Y-114.34629
G1 X-106.21973 Y-118.5451
G1 X-97.50425 Y-122.41842
G1 X-88.5212 Y-125.95563
G1 X-79.29519 Y-129.14704
G1 X-69.85152 Y-131.9839
G1 X-60.21607 Y-134.45844
G1 X-50.41525 Y-136.56387
G1 X-40.47592 Y-138.29441
G1 X-30.42533 Y-139.64534
G1 X-20.29102 Y-140.61294
G1 X-10.10078 Y-141.19456
G1 X0.11747 Y-141.38862
G1 X10.33573 Y-141.19456
G1 X20.52597 Y-140.61294
G1 X30.66028 Y-139.64534
G1 X40.71087 Y-138.29441
G1 X50.6502 Y-136.56387
G1 X60.45102 Y-134.45844
G1 X70.08647 Y-131.9839
G1 X79.53014 Y-129.14704
G1 X88.75615 Y-125.95563
G1 X97.7392 Y-122.41842
G1 X106.45468 Y-118.5451
G1 X114.87869 Y-114.34629
G1 X122.98816 Y-109.83349
G1 X130.76084 Y-105.01909
G1 X138.17544 Y-99.91626
G1 X145.21163 Y-94.53901
G1 X151.85013 Y-88.90206
G1 X158.07274 Y-83.02087
G1 X163.86241 Y-76.91156
G1 X169.20326 Y-70.59088
G1 X174.08066 Y-64.07614
G1 X178.48124 Y-57.38521
G1 X182.39294 Y-50.53642
G1 X185.80503 Y-43.54855
G1 X188.70816 Y-36.44075
G1 X191.09439 Y-29.2325
G1 X192.95715 Y-21.94355
G1 X194.29136 Y-14.5939
G1 X195.09335 Y-7.20368
G1 X195.36092 Y0.20686
G1 F300.0 Z-8.0
G1 F800.0 X195.09335 Y-7.20368
G1 X194.29136 Y-14.5939
G1 X192.95715 Y-21.94355
G1 X191.09439 Y-29.2325
G1 X188.70816 Y-36.44075
G1 X185.80503 Y-43.54855
G1 X182.39294 Y-50.53642
G1 X178.48124 Y-57.38521
G1 X174.08066 Y-64.07614
G1 X169.20326 Y-70.59088
G1 X163.86241 Y-76.91156
G1 X158.07274 Y-83.02087
G1 X151.85013 Y-88.90206
G1 X145.21163 Y-94.53901
G1 X138.17544 Y-99.91626
G1 X130.76084 Y-105.01909
G1 X122.98816 Y-109.83349
G1 X114.87869 Y-114.34629
G1 X106.45468 Y-118.5451
G1 X97.7392 Y-122.41842
G1 X88.75615 Y-125.95563
G1 X79.53014 Y-129.14704
G1 X70.08647 Y-131.9839
G1 X60.45102 Y-134.45844
G1 X50.6502 Y-136.56387
G1 X40.71087 Y-138.29441
G1 X30.66028 Y-139.64534
G1 X20.52597 Y-140.61294
G1 X10.33573 Y-141.19456
G1 X0.11747 Y-141.38862
G1 X-10.10078 Y-141.19456
G1 X-20.29102 Y-140.61294
G1 X-30.42533 Y-139.64534
G1 X-40.47592 Y-138.29441
G1 X-50.41525 Y-136.56387
G1 X-60.21607 Y-134.45844
G1 X-69.85152 Y-131.9839
G1 X-79.29519 Y-129.14704
G1 X-88.5212 Y-125.95563
G1 X-97.50425 Y-122.41842
G1 X-106.21973 Y-118.5451
G1 X-114.64375 Y-114.34629
G1 X-122.75321 Y-109.83349
G1 X-130.52589 Y-105.01909
G1 X-137.94049 Y-99.91626
G1 X-144.97669 Y-94.53901
G1 X-151.61518 Y-88.90206
G1 X-157.8378 Y-83.02087
G1 X-163.62746 Y-76.91156
G1 X-168.96831 Y-70.59088
G1 X-173.84571 Y-64.07614
G1 X-178.24629 Y-57.38521
G1 X-182.15799 Y-50.53642
G1 X-185.57008 Y-43.54855
G1 X-188.47322 Y-36.44075
G1 X-190.85944 Y-29.2325
G1 X-192.72221 Y-21.94355
G1 X-194.05641 Y-14.5939
G1 X-194.8584 Y-7.20368
G1 X-195.12598 Y0.20686
G1 X-194.8584 Y7.61739
G1 F300.0 Z-12.0
G1 F800.0 X-195.12598 Y0.20686
G1 X-194.8584 Y-7.20368
G1 X-194.05641 Y-14.5939
G1 X-192.72221 Y-21.94355
G1 X-190.85944 Y-29.2325
G1 X-188.47322 Y-36.44075
G1 X-185.57008 Y-43.54855
G1 X-182.15799 Y-50.53642
G1 X-178.24629 Y-57.38521
G1 X-173.84571 Y-64.07614
G1 X-168.96831 Y-70.59088
G1 X-163.62746 Y-76.91156
G1 X-157.8378 Y-83.02087
G1 X-151.61518 Y-88.90206
G1 X-144.97669 Y-94.53901
G1 X-137.94049 Y-99.91626
G1 X-130.52589 Y-105.01909
G1 X-122.75321 Y-109.83349
G1 X-114.64375 Y-114.34629
G1 X-106.21973 Y-118.5451
G1 X-97.50425 Y-122.41842
G1 X-88.5212 Y-125.95563
G1 X-79.29519 Y-129.14704
G1 X-69.85152 Y-131.9839
G1 X-60.21607 Y-134.45844
G1 X-50.41525 Y-136.56387
G1 X-40.47592 Y-138.29441
G1 X-30.42533 Y-139.64534
G1 X-20.29102 Y-140.61294
G1 X-10.10078 Y-141.19456
G1 X0.11747 Y-141.38862
G1 X10.33573 Y-141.19456
G1 X20.52597 Y-140.61294
G1 X30.66028 Y-139.64534
G1 X40.71087 Y-138.29441
G1 X50.6502 Y-136.56387
G1 X60.45102 Y-134.45844
G1 X70.08647 Y-131.9839
G1 X79.53014 Y-129.14704
G1 X88.75615 Y-125.95563
G1 X97.7392 Y-122.41842
G1 X106.45468 Y-118.5451
G1 X114.87869 Y-114.34629
G1 X122.98816 Y-109.83349
G1 X130.76084 Y-105.01909
G1 X138.17544 Y-99.91626
G1 X145.21163 Y-94.53901
G1 X151.85013 Y-88.90206
G1 X158.07274 Y-83.02087
G1 X163.86241 Y-76.91156
G1 X169.20326 Y-70.59088
G1 X174.08066 Y-64.07614
G1 X178.48124 Y-57.38521
G1 X182.39294 Y-50.53642
G1 X185.80503 Y-43.54855
G1 X188.70816 Y-36.44075
G1 X191.09439 Y-29.2325
G1 X192.95715 Y-21.94355
G1 X194.29136 Y-14.5939
G1 X195.09335 Y-7.20368
G1 X195.36092 Y0.20686
G1 F300.0 Z-16.0
G1 F800.0 X195.09335 Y-7.20368
G1 X194.29136 Y-14.5939
G1 X192.95715 Y-21.94355
G1 X191.09439 Y-29.2325
G1 X188.70816 Y-36.44075
G1 X185.80503 Y-43.54855
G1 X182.39294 Y-50.53642
G1 X178.48124 Y-57.38521
G1 X174.08066 Y-64.07614
G1 X169.20326 Y-70.59088
G1 X163.86241 Y-76.91156
G1 X158.07274 Y-83.02087
G1 X151.85013 Y-88.90206
G1 X145.21163 Y-94.53901
G1 X138.17544 Y-99.91626
G1 X130.76084 Y-105.01909
G1 X122.98816 Y-109.83349
G1 X114.87869 Y-114.34629
G1 X106.45468 Y-118.5451
G1 X97.7392 Y-122.41842
G1 X88.75615 Y-125.95563
G1 X79.53014 Y-129.14704
G1 X70.08647 Y-131.9839
G1 X60.45102 Y-134.45844
G1 X50.6502 Y-136.56387
G1 X40.71087 Y-138.29441
G1 X30.66028 Y-139.64534
G1 X20.52597 Y-140.61294
G1 X10.33573 Y-141.19456
G1 X0.11747 Y-141.38862
G1 X-10.10078 Y-141.19456
G1 X-20.29102 Y-140.61294
G1 X-30.42533 Y-139.64534
G1 X-40.47592 Y-138.29441
G1 X-50.41525 Y-136.56387
G1 X-60.21607 Y-134.45844
G1 X-69.85152 Y-131.9839
G1 X-79.29519 Y-129.14704
G1 X-88.5212 Y-125.95563
G1 X-97.50425 Y-122.41842
G1 X-106.21973 Y-118.5451
G1 X-114.64375 Y-114.34629
G1 X-122.75321 Y-109.83349
G1 X-130.52589 Y-105.01909
G1 X-137.94049 Y-99.91626
G1 X-144.97669 Y-94.53901
G1 X-151.61518 Y-88.90206
G1 X-157.8378 Y-83.02087
G1 X-163.62746 Y-76.91156
G1 X-168.96831 Y-70.59088
G1 X-173.84571 Y-64.07614
G1 X-178.24629 Y-57.38521
G1 X-182.15799 Y-50.53642
G1 X-185.57008 Y-43.54855
G1 X-188.47322 Y-36.44075
G1 X-190.85944 Y-29.2325
G1 X-192.72221 Y-21.94355
G1 X-194.05641 Y-14.5939
G1 X-194.8584 Y-7.20368
G1 X-195.12598 Y0.20686
G1 X-194.8584 Y7.61739
G1 F300.0 Z-20.0
G1 F800.0 X-195.12598 Y0.20686
G1 X-194.8584 Y-7.20368
G1 X-194.05641 Y-14.5939
G1 X-192.72221 Y-21.94355
G1 X-190.85944 Y-29.2325
G1 X-188.47322 Y-36.44075
G1 X-185.57008 Y-43.54855
G1 X-182.15799 Y-50.53642
G1 X-178.24629 Y-57.38521
G1 X-173.84571 Y-64.07614
G1 X-168.96831 Y-70.59088
G1 X-163.62746 Y-76.91156
G1 X-157.8378 Y-83.02087
G1 X-151.61518 Y-88.90206
G1 X-144.97669 Y-94.53901
G1 X-137.94049 Y-99.91626
G1 X-130.52589 Y-105.01909
G1 X-122.75321 Y-109.83349
G1 X-114.64375 Y-114.34629
G1 X-106.21973 Y-118.5451
G1 X-97.50425 Y-122.41842
G1 X-88.5212 Y-125.95563
G1 X-79.29519 Y-129.14704
G1 X-69.85152 Y-131.9839
G1 X-60.21607 Y-134.45844
G1 X-50.41525 Y-136.56387
G1 X-40.47592 Y-138.29441
G1 X-30.42533 Y-139.64534
G1 X-20.29102 Y-140.61294
G1 X-10.10078 Y-141.19456
G1 X0.11747 Y-141.38862
G1 X10.33573 Y-141.19456
G1 X20.52597 Y-140.61294
G1 X30.66028 Y-139.64534
G1 X40.71087 Y-138.29441
G1 X50.6502 Y-136.56387
G1 X60.45102 Y-134.45844
G1 X70.08647 Y-131.9839
G1 X79.53014 Y-129.14704
G1 X88.75615 Y-125.95563
G1 X97.7392 Y-122.41842
G1 X106.45468 Y-118.5451
G1 X114.87869 Y-114.34629
G1 X122.98816 Y-109.83349
G1 X130.76084 Y-105.01909
G1 X138.17544 Y-99.91626
G1 X145.21163 Y-94.53901
G1 X151.85013 Y-88.90206
G1 X158.07274 Y-83.02087
G1 X163.86241 Y-76.91156
G1 X169.20326 Y-70.59088
G1 X174.08066 Y-64.07614
G1 X178.48124 Y-57.38521
G1 X182.39294 Y-50.53642
G1 X185.80503 Y-43.54855
G1 X188.70816 Y-36.44075
G1 X191.09439 Y-29.2325
G1 X192.95715 Y-21.94355
G1 X194.29136 Y-14.5939
G1 X195.09335 Y-7.20368
G1 X195.36092 Y0.20686
G1 F300.0 Z-24.0
G1 F800.0 X195.09335 Y-7.20368
G1 X194.29136 Y-14.5939
G1 X192.95715 Y-21.94355
G1 X191.09439 Y-29.2325
G1 X188.70816 Y-36.44075
G1 X185.80503 Y-43.54855
G1 X182.39294 Y-50.53642
G1 X178.48124 Y-57.38521
G1 X174.08066 Y-64.07614
G1 X169.20326 Y-70.59088
G1 X163.86241 Y-76.91156
G1 X158.07274 Y-83.02087
G1 X151.85013 Y-88.90206
G1 X145.21163 Y-94.53901
G1 X138.17544 Y-99.91626
G1 X130.76084 Y-105.01909
G1 X122.98816 Y-109.83349
G1 X114.87869 Y-114.34629
G1 X106.45468 Y-118.5451
G1 X97.7392 Y-122.41842
G1 X88.75615 Y-125.95563
G1 X79.53014 Y-129.14704
G1 X70.08647 Y-131.9839
G1 X60.45102 Y-134.45844
G1 X50.6502 Y-136.56387
G1 X40.71087 Y-138.29441
G1 X30.66028 Y-139.64534
G1 X20.52597 Y-140.61294
G1 X10.33573 Y-141.19456
G1 X0.11747 Y-141.38862
G1 X-10.10078 Y-141.19456
G1 X-20.29102 Y-140.61294
G1 X-30.42533 Y-139.64534
G1 X-40.47592 Y-138.29441
G1 X-50.41525 Y-136.56387
G1 X-60.21607 Y-134.45844
G1 X-69.85152 Y-131.9839
G1 X-79.29519 Y-129.14704
G1 X-88.5212 Y-125.95563
G1 X-97.50425 Y-122.41842
G1 X-106.21973 Y-118.5451
G1 X-114.64375 Y-114.34629
G1 X-122.75321 Y-109.83349
G1 X-130.52589 Y-105.01909
G1 X-137.94049 Y-99.91626
G1 X-144.97669 Y-94.53901
G1 X-151.61518 Y-88.90206
G1 X-157.8378 Y-83.02087
G1 X-163.62746 Y-76.91156
G1 X-168.96831 Y-70.59088
G1 X-173.84571 Y-64.07614
G1 X-178.24629 Y-57.38521
G1 X-182.15799 Y-50.53642
G1 X-185.57008 Y-43.54855
G1 X-188.47322 Y-36.44075
G1 X-190.85944 Y-29.2325
G1 X-192.72221 Y-21.94355
G1 X-194.05641 Y-14.5939
G1 X-194.8584 Y-7.20368
G1 X-195.12598 Y0.20686
G1 X-194.8584 Y7.61739
G1 F300.0 Z-28.0
G1 F800.0 X-195.12598 Y0.20686
G1 X-194.8584 Y-7.20368
G1 X-194.05641 Y-14.5939
G1 X-192.72221 Y-21.94355
G1 X-190.85944 Y-29.2325
G1 X-188.47322 Y-36.44075
G1 X-185.57008 Y-43.54855
G1 X-182.15799 Y-50.53642
G1 X-178.24629 Y-57.38521
G1 X-173.84571 Y-64.07614
G1 X-168.96831 Y-70.59088
G1 X-163.62746 Y-76.91156
G1 X-157.8378 Y-83.02087
G1 X-151.61518 Y-88.90206
G1 X-144.97669 Y-94.53901
G1 X-137.94049 Y-99.91626
G1 X-130.52589 Y-105.01909
G1 X-122.75321 Y-109.83349
G1 X-114.64375 Y-114.34629
G1 X-106.21973 Y-118.5451
G1 X-97.50425 Y-122.41842
G1 X-88.5212 Y-125.95563
G1 X-79.29519 Y-129.14704
G1 X-69.85152 Y-131.9839
G1 X-60.21607 Y-134.45844
G1 X-50.41525 Y-136.56387
G1 X-40.47592 Y-138.29441
G1 X-30.42533 Y-139.64534
G1 X-20.29102 Y-140.61294
G1 X-10.10078 Y-141.19456
G1 X0.11747 Y-141.38862
G1 X10.33573 Y-141.19456
G1 X20.52597 Y-140.61294
G1 X30.66028 Y-139.64534
G1 X40.71087 Y-138.29441
G1 X50.6502 Y-136.56387
G1 X60.45102 Y-134.45844
G1 X70.08647 Y-131.9839
G1 X79.53014 Y-129.14704
G1 X88.75615 Y-125.95563
G1 X97.7392 Y-122.41842
G1 X106.45468 Y-118.5451
G1 X114.87869 Y-114.34629
G1 X122.98816 Y-109.83349
G1 X130.76084 Y-105.01909
G1 X138.17544 Y-99.91626
G1 X145.21163 Y-94.53901
G1 X151.85013 Y-88.90206
G1 X158.07274 Y-83.02087
G1 X163.86241 Y-76.91156
G1 X169.20326 Y-70.59088
G1 X174.08066 Y-64.07614
G1 X178.48124 Y-57.38521
G1 X182.39294 Y-50.53642
G1 X185.80503 Y-43.54855
G1 X188.70816 Y-36.44075
G1 X191.09439 Y-29.2325
G1 X192.95715 Y-21.94355
G1 X194.29136 Y-14.5939
G1 X195.09335 Y-7.20368
G1 X195.36092 Y0.20686
G0 Z3.0
M5
M30
