( Made using CamBam - http://www.cambam.co.uk )
( Zum-Hof 12/2/2017 12:45:14 PM )
( T3 : 3.0 )
G21 G90 G64 G40
G0 Z3.0
( T3 : 3.0 )
T3 M6
( TascheGasthofHofsgrund-Korrektur6 )
G17
M3 S1000
G0 X-139.8469 Y70.42107
G0 Z1.0
G1 F300.0 Z-6.0
G2 F800.0 X-139.57328 Y70.64869 I1.06672 J-1.004
G3 X-136.05286 Y69.76451 I8.0585 J24.63486
G2 X-139.8469 Y70.42107 I0.02852 J11.4553
G0 Z3.0
G0 X-117.5369 Y70.41373
G0 Z1.0
G1 F300.0 Z-6.0
G3 F800.0 X-116.20317 Y70.56853 I-21.01218 J186.86307
G3 X-117.24074 Y69.76478 I666.69411 J-861.71821
G3 X-117.5369 Y70.41373 I-2.76631 J-0.87038
G0 Z3.0
G0 X-143.06207 Y48.27862
G0 Z1.0
G1 F300.0 Z-6.0
G3 F800.0 X-142.58519 Y46.76802 I2.89877 J0.08453
G2 X-145.67433 Y46.56762 I-10.3278 J135.28954
G2 X-143.06207 Y48.27862 I123.59502 J-185.84802
G1 F300.0 X-141.86258 Y48.3136
G3 F800.0 X-139.85118 Y46.69205 I1.69928 J0.04955
G2 X-119.03088 Y49.9799 I69.05884 J-369.74862
G2 X-112.56349 Y50.38322 I7.42314 J-66.97879
G2 X-112.5835 Y50.24302 I-0.35519 J-0.02083
G2 X-116.35785 Y49.3536 I-4.94437 J12.52883
G3 X-116.52602 Y49.33043 I0.14767 J-1.69357
G2 X-141.519 Y45.64942 I-57.75135 J305.42716
G2 X-146.96375 Y45.30373 I-11.394 J136.40814
G3 X-147.9652 Y44.92202 I0.07389 J-1.69839
G2 X-151.93926 Y43.14188 I-5.28364 J6.46944
G2 X-151.85535 Y43.77833 I0.41349 J0.26924
G2 X-139.74065 Y51.7906 I129.77603 J-183.05873
G3 X-139.58529 Y51.89864 I-0.8914 J1.44755
G2 X-122.61066 Y64.98667 I1015.09144 J-1298.98007
G1 X-122.6106 Y64.98671
G1 X-122.61071 Y64.98662
G1 X-122.61066 Y64.98667
G2 X-119.08177 Y67.46827 I34.96394 J-45.96955
G3 X-120.40277 Y70.5477 I-0.92528 J1.42614
G2 X-134.52324 Y68.64819 I-16.41176 J68.56707
G3 X-134.6523 Y68.63907 I0.05525 J-1.6991
G2 X-141.4212 Y69.77291 I-1.37205 J12.58074
G2 X-139.99665 Y71.78811 I2.64103 J-0.35584
G3 X-139.91911 Y71.83048 I-0.77602 J1.51254
G2 X-139.46439 Y71.87729 I0.2793 J-0.48106
G3 X-129.26173 Y70.66703 I7.94961 J23.40625
G3 X-115.81583 Y71.82422 I-9.28736 J186.60977
G3 X-115.09739 Y72.08546 I-0.20684 J1.68737
G2 X-113.07596 Y71.65393 I0.79515 J-1.22556
G2 X-113.4592 Y71.14866 I-0.77533 J0.19011
G3 X-113.66168 Y71.01458 I0.83496 J-1.48082
G3 X-132.46756 Y56.19535 I664.15262 J-862.16426
G2 X-141.16473 Y49.73689 I-370.00839 J489.17937
G3 X-141.86258 Y48.3136 I1.00143 J-1.37373
G0 Z3.0
G0 X-107.6957 Y44.52068
G0 Z1.0
G1 F300.0 Z-6.0
G2 F800.0 X-107.46888 Y45.58883 I12.99196 J-2.20058
G3 X-107.18759 Y45.00487 I4.19013 J1.65864
G3 X-106.85602 Y44.53993 I2.51541 J1.44315
G3 X-106.73839 Y44.41218 I2.50926 J2.19243
G2 X-107.45581 Y44.37195 I-0.91763 J9.94574
G3 X-107.54977 Y44.36854 I0.05813 J-2.89942
G2 X-107.6957 Y44.52068 I-0.0073 J0.13905
G1 F300.0 X-108.89038 Y44.63349
G2 F800.0 X-108.88254 Y44.69913 I1.33331 J-0.1259
G2 X-106.95665 Y49.84103 I14.17881 J-2.37903
G3 X-106.87843 Y49.98327 I-1.44884 J0.88931
G3 X-103.083 Y58.42811 I-127.57661 J62.41312
G3 X-102.98413 Y58.76336 I-1.57248 J0.64598
G2 X-100.96042 Y61.21962 I3.23174 J-0.60083
G3 X-100.63499 Y61.39099 I-0.62476 J1.58104
G2 X-100.26737 Y61.45904 I0.26207 J-0.38879
G2 X-101.46071 Y57.61066 I-10.47943 J1.14034
G3 X-106.20197 Y48.79263 I63.59812 J-39.87894
G3 X-106.14673 Y45.60204 I2.92321 J-1.54517
G3 X-105.95236 Y45.32949 I1.47455 J0.84599
G3 X-104.25107 Y44.60237 I1.60561 J1.40287
G3 X-103.88541 Y44.6591 I-0.07629 J1.69829
G3 X-95.58513 Y49.21913 I-5.19204 J19.28487
G3 X-95.58369 Y49.22046 I-1.14848 J1.25339
G3 X-92.1855 Y52.58116 I-43.75019 J47.63669
G2 X-102.68504 Y44.33491 I-24.59668 J20.51036
G3 X-102.69114 Y44.33191 I0.7483 J-1.52645
G2 X-107.43175 Y43.17219 I-4.96488 J10.02602
G3 X-107.48683 Y43.17019 I0.03408 J-1.69966
G2 X-108.89038 Y44.63349 I-0.07024 J1.3374
G0 Z3.0
G0 X-87.22428 Y49.02288
G0 Z1.0
G1 F300.0 Z-6.0
G2 F800.0 X-87.25902 Y49.32118 I1.7552 J0.35559
G3 X-86.39142 Y48.16173 I3.27792 J1.54849
G2 X-86.89966 Y48.30116 I0.27808 J2.00961
G2 X-87.22428 Y49.02288 I1.43059 J1.07731
G0 Z3.0
G0 X-87.81432 Y55.13778
G0 Z1.0
G1 F300.0 Z-6.0
G3 F800.0 X-88.14484 Y55.38807 I-1.91148 J-2.18088
G3 X-87.67566 Y55.97401 I-51.18904 J41.46908
G3 X-87.81432 Y55.13778 I17.20112 J-3.28173
G1 F300.0 X-86.62608 Y54.9702
G2 F800.0 X-84.11278 Y61.63987 I16.15153 J-2.27791
G3 X-83.51028 Y62.91816 I-6.54209 J3.86468
G3 X-86.92722 Y58.95333 I14.11065 J-15.61556
G2 X-86.96658 Y58.89666 I-1.41576 J0.94107
G2 X-90.46496 Y54.4878 I-52.36731 J37.96049
G2 X-88.06294 Y52.6035 I0.73916 J-1.5309
G3 X-88.40323 Y50.03002 I16.30499 J-3.46527
G2 X-88.42223 Y49.85188 I-1.69757 J0.09095
G3 X-87.64978 Y47.33158 I2.95315 J-0.47341
G3 X-84.3497 Y47.46682 I1.53643 J2.83976
G2 X-84.05154 Y47.62163 I0.92859 J-1.42398
G3 X-78.78204 Y50.0746 I-19.33873 J48.43018
G2 X-83.60367 Y48.4874 I-10.95562 J25.16412
G2 X-83.9895 Y48.44441 I-0.37994 J1.657
G2 X-86.18398 Y49.85515 I0.00841 J2.42525
G2 X-86.20071 Y49.89267 I1.54412 J0.71113
G2 X-86.785 Y52.86541 I6.56884 J2.83489
G2 X-86.62608 Y54.9702 I16.31045 J-0.17313
G0 Z3.0
G0 X-69.8723 Y46.48712
G0 Z1.0
G1 F300.0 Z-6.0
G3 F800.0 X-69.19985 Y45.9705 I2.084 J2.01666
G2 X-70.47775 Y44.68884 I-65.19782 J63.72859
G3 X-70.57956 Y44.58355 I2.0332 J-2.06788
G2 X-70.37955 Y45.29768 I1.91057 J-0.15003
G3 X-70.29112 Y45.48983 I-2.58844 J1.30766
G2 X-69.8723 Y46.48712 I181.48725 J-75.62955
G0 Z3.0
G0 X-67.28401 Y55.69014
G0 Z1.0
G1 F300.0 Z-6.0
G3 F800.0 X-67.46723 Y55.93134 I-2.39775 J-1.63119
G2 X-66.97084 Y56.28273 I2359.00999 J-3331.98138
G3 X-67.28401 Y55.69014 I1781.88109 J-942.05351
G0 Z3.0
G0 X-52.03869 Y59.35683
G0 Z1.0
G1 F300.0 Z-6.0
G2 F800.0 X-51.20731 Y59.54414 I1.73334 J-5.75482
G3 X-51.45075 Y58.76821 I163.95556 J-51.86472
G3 X-52.03869 Y59.35683 I-2.39237 J-1.80169
G0 Z3.0
G0 X-52.97154 Y48.15138
G0 Z1.0
G1 F300.0 Z-6.0
G3 F800.0 X-52.41413 Y47.68344 I2.12855 J1.96958
G2 X-53.41483 Y46.91088 I-11.13889 J13.39397
G3 X-52.97154 Y48.15138 I-50.0864 J18.5976
G0 Z3.0
G0 X-37.8239 Y48.18157
G0 Z1.0
G1 F300.0 Z-6.0
G3 F800.0 X-37.01334 Y47.15613 I3.62688 J2.03379
G2 X-37.54402 Y47.14214 I-0.32371 J2.2074
G2 X-37.8239 Y48.18157 I1.97313 J1.08869
G0 Z3.0
G0 X-36.64645 Y58.61637
G0 Z1.0
G1 F300.0 Z-6.0
G3 F800.0 X-37.30425 Y59.32982 I-2.43091 J-1.58135
G2 X-36.40015 Y59.92564 I16.64691 J-24.27647
G2 X-36.64645 Y58.61637 I-8.70579 J0.95994
G1 F300.0 X-35.48742 Y58.30547
G3 F800.0 X-35.15065 Y61.14058 I-9.61851 J2.58011
G3 X-36.68923 Y61.19338 I-0.7963 J-0.76058
G2 X-36.93208 Y61.00881 I-1.14595 J1.25571
G3 X-43.99337 Y54.90234 I16.27473 J-25.95545
G2 X-44.00229 Y54.89194 I-1.29493 J1.10143
G2 X-49.65926 Y48.90081 I-71.12742 J61.49386
G2 X-52.46708 Y49.61865 I-1.18373 J1.22016
G2 X-52.46793 Y50.85023 I1.99541 J0.61716
G2 X-49.99839 Y59.38661 I165.21617 J-43.17081
G3 X-50.90781 Y60.78699 I-1.15421 J0.24592
G3 X-55.25427 Y58.84559 I0.60245 J-7.18498
G2 X-55.31138 Y58.79408 I-1.16684 J1.23632
G3 X-66.48029 Y47.4179 I62.514 J-72.54589
G2 X-69.29405 Y49.29291 I-1.30801 J1.08587
G2 X-62.97898 Y61.24504 I1784.2043 J-935.06369
G3 X-62.8308 Y62.08833 I-1.51226 J0.70039
G3 X-63.2763 Y61.97259 I0.06984 J-1.18416
G2 X-63.31815 Y61.9531 I-0.73856 J1.53119
G3 X-65.79561 Y59.05787 I1.83035 J-4.07383
G2 X-66.45374 Y58.11853 I-1.63974 J0.44863
G3 X-69.79164 Y55.75539 I2357.9965 J-3334.16857
G2 X-68.14056 Y53.34152 I0.10988 J-1.69645
G3 X-71.39879 Y45.95142 I179.33669 J-83.48124
G2 X-71.45063 Y45.83878 I-1.5692 J0.65392
G3 X-71.49906 Y43.12854 I2.78163 J-1.40527
G3 X-69.75621 Y43.70242 I0.41699 J1.66703
G2 X-69.63642 Y43.83317 I1.31166 J-1.08145
G3 X-64.94213 Y48.80356 I-64.76125 J65.86592
G2 X-54.8753 Y58.3909 I57.59382 J-50.39537
G2 X-53.39739 Y58.70521 I1.05575 J-1.33244
G2 X-52.11499 Y57.4516 I-0.44573 J-1.73869
G2 X-52.12225 Y56.13126 I-1.9484 J-0.64948
G2 X-54.78865 Y46.6719 I-51.37897 J9.37722
G2 X-54.82824 Y46.578 I-1.58558 J0.61313
G3 X-54.78399 Y45.1764 I1.43485 J-0.6562
G3 X-53.61783 Y45.32893 I0.41259 J1.37973
G3 X-49.7801 Y48.54627 I-9.93519 J15.74848
G2 X-49.77486 Y48.55201 I1.25743 J-1.14406
G2 X-40.25155 Y58.26438 I152.87523 J-140.3744
G2 X-37.40142 Y57.31999 I1.17418 J-1.22935
G2 X-37.45247 Y56.36479 I-2.14324 J-0.36442
G3 X-39.00789 Y48.56843 I86.62715 J-21.33604
G3 X-38.2549 Y46.05757 I3.43701 J-0.3376
G3 X-36.04023 Y46.18704 I0.91786 J3.30596
G2 X-35.97726 Y46.2113 I0.64255 J-1.57389
G3 X-28.46118 Y50.01863 I-11.90122 J32.81673
G2 X-32.43162 Y47.8417 I-40.03646 J68.31213
G2 X-37.13914 Y50.52322 I-1.7654 J2.37366
G2 X-35.86135 Y57.17613 I25.46287 J-1.44139
G2 X-35.83231 Y57.25616 I1.61211 J-0.53954
G3 X-35.48742 Y58.30547 I-9.27362 J3.62942
G0 Z3.0
G0 X-27.81317 Y101.94626
G0 Z1.0
G1 F300.0 Z-6.0
G3 F800.0 X-22.73889 Y103.42912 I1.03456 J5.8832
G3 X-22.22222 Y105.01806 I-1.14967 J1.2523
G2 X-22.64276 Y110.00844 I21.33989 J4.31121
G3 X-22.64208 Y110.0388 I-1.69917 J0.05303
G2 X-22.40471 Y112.22793 I11.6453 J-0.15531
G3 X-23.35422 Y114.11215 I-1.6652 J0.34221
G3 X-29.94604 Y112.29257 I-2.22421 J-4.79224
G3 X-30.89669 Y103.62805 I5.50017 J-4.98787
G3 X-30.47038 Y103.13338 I1.47695 J0.84179
G3 X-27.81317 Y101.94626 I3.69177 J4.69609
G0 Z3.0
G0 X-22.00615 Y103.36403
G0 Z1.0
G1 F300.0 Z-6.0
G3 F800.0 X-21.91896 Y103.49836 I-1.88241 J1.31739
G3 X-21.85405 Y103.3018 I16.00464 J5.17638
G3 X-22.00615 Y103.36403 I-0.94641 J-2.09626
G1 F300.0 X-22.21336 Y102.80095
G3 F800.0 X-23.78311 Y102.59277 I-0.5871 J-1.5954
G2 X-31.25826 Y102.96446 I-3.50106 J4.94248
G2 X-25.25422 Y114.76936 I5.99534 J4.38003
G2 X-21.40081 Y113.43013 I-0.43892 J-7.47632
G3 X-21.33996 Y113.3895 I0.97433 J1.39308
G3 X-21.58671 Y112.85737 I1.39577 J-0.97048
G3 X-20.45954 Y101.49457 I15.67239 J-4.18264
G2 X-21.53143 Y102.33673 I1.82057 J3.42043
G3 X-22.21336 Y102.80095 I-1.26903 J-1.13118
G0 Z3.0
G0 X-15.47837 Y102.6715
G0 Z1.0
G1 F300.0 Z-6.0
G2 F800.0 X-15.056 Y102.69456 I0.24964 J-0.69294
G3 X-8.06679 Y102.4374 I3.7556 J6.96522
G3 X-7.49063 Y102.85985 I-0.69468 J1.55159
G3 X-8.93286 Y107.63723 I-2.18953 J1.94539
G2 X-13.56094 Y109.93924 I19.30003 J44.60513
G3 X-13.56379 Y109.94084 I-0.83697 J-1.47969
G2 X-12.91657 Y114.54325 I1.22447 J2.17452
G3 X-12.89096 Y114.54955 I-0.39323 J1.65389
G2 X-6.57905 Y115.05294 I4.62787 J-18.20435
G3 X-6.41219 Y115.04616 I0.15241 J1.69315
G2 X-6.02609 Y114.62721 I0.00327 J-0.38437
G3 X-6.01638 Y114.23732 I1.69311 J-0.1529
G2 X-6.04026 Y113.6908 I-1.48412 J-0.20895
G3 X-7.32463 Y114.6864 I-1.55703 J-0.6824
G3 X-12.09014 Y114.47736 I-1.87985 J-11.56926
G3 X-12.51841 Y109.812 I0.41652 J-2.39057
G2 X-7.12055 Y106.93153 I-22.88137 J-49.37649
G3 X-7.06285 Y106.89797 I0.88339 J1.45245
G2 X-7.19445 Y102.39297 I-1.23264 J-2.21841
G2 X-14.3696 Y102.01065 I-4.05634 J8.60653
G3 X-14.81631 Y102.10098 I-0.55725 J-1.60607
G2 X-15.47837 Y102.6715 I0.04719 J0.72416
G0 Z3.0
G0 X3.23151 Y114.74456
G0 Z1.0
G1 F300.0 Z-6.0
G3 F800.0 X4.19667 Y115.81858 I-1.14168 J1.99664
G3 X5.20448 Y114.76649 I2.07932 J0.98307
G3 X4.26009 Y113.70493 I1.16219 J-1.98477
G3 X3.23151 Y114.74456 I-2.06447 J-1.01389
G1 F300.0 X2.93368 Y115.26542
G3 F800.0 X3.78765 Y116.82722 I-0.84385 J1.47577
G2 X3.65446 Y119.85363 I227.6217 J11.53367
G2 X4.26179 Y120.03608 I0.33738 J-0.02102
G2 X4.58244 Y116.94952 I-7.8378 J-2.37416
G3 X6.5723 Y115.12767 I1.69356 J-0.14788
G2 X9.58754 Y115.09775 I1.42775 J-8.06592
G2 X9.39352 Y114.55542 I-0.20093 J-0.23399
G3 X6.12932 Y114.46507 I-1.23185 J-14.50447
G3 X4.6778 Y112.58749 I0.23735 J-1.68335
G2 X4.9045 Y102.19898 I-55.76862 J-6.41374
G3 X4.91588 Y101.8485 I1.69573 J-0.12037
G2 X4.08107 Y101.68715 I-0.42186 J-0.05763
G3 X3.89168 Y112.80668 I-108.91994 J3.70624
G3 X2.15503 Y114.39056 I-1.69606 J-0.11564
G2 X-0.74498 Y114.69323 I-0.27296 J11.42886
G2 X-0.53621 Y115.22343 I0.2054 J0.22533
G2 X1.92203 Y115.0495 I-1.85069 J-43.61401
G3 X2.93368 Y115.26542 I0.1678 J1.6917
G0 Z3.0
G0 X16.56113 Y111.85308
G0 Z1.0
G1 F300.0 Z-6.0
G3 F800.0 X16.67764 Y111.80624 I1.13991 J2.66657
G3 X16.55952 Y111.64738 I11.78727 J-8.88737
G3 X16.56113 Y111.85308 I-226.86553 J1.87983
G1 F300.0 X17.03282 Y112.95649
G3 F800.0 X18.92567 Y113.34055 I0.66822 J1.56316
G2 X24.15622 Y114.80132 I3.85616 J-3.71282
G2 X25.80932 Y111.92033 I-1.58352 J-2.82339
G3 X25.81332 Y111.76973 I1.69973 J-0.03025
G3 X26.8561 Y101.66832 I158.23756 J11.23056
G2 X26.09253 Y101.66993 I-0.38159 J0.09505
G3 X26.0908 Y101.67695 I-1.65131 J-0.40394
G2 X25.25957 Y110.07014 I28.23453 J7.03397
G3 X19.87572 Y113.41465 I-2.97988 J1.20873
G3 X16.29668 Y108.90802 I8.58919 J-10.49579
G3 X16.13919 Y107.91576 I1.52526 J-0.75073
G2 X15.68636 Y102.1268 I-13.13222 J-1.88494
G2 X14.98831 Y102.4286 I-0.34818 J0.15284
G3 X15.12236 Y103.01542 I-1.56411 J0.666
G3 X15.17221 Y122.90905 I-225.42836 J10.51178
G2 X15.91281 Y123.00332 I0.38379 J-0.05886
G2 X16.00338 Y114.60878 I-66.23815 J-4.91244
G3 X17.03282 Y112.95649 I1.69766 J-0.08912
G0 Z3.0
G0 X31.96396 Y109.73716
G0 Z1.0
G1 F300.0 Z-6.0
G2 F800.0 X40.27799 Y114.26979 I6.11087 J-1.31757
G2 X39.66416 Y101.98041 I-4.72579 J-5.92398
G2 X37.35717 Y101.49973 I-2.25317 J5.03755
G2 X31.89869 Y107.28954 I0.21199 J5.66783
G3 X31.88293 Y107.55989 I-1.69961 J0.03656
G2 X31.96396 Y109.73716 I6.1919 J0.8597
G1 F300.0 X32.85062 Y109.50312
G3 F800.0 X32.67774 Y107.29134 I5.98852 J-1.58075
G3 X42.06678 Y105.37069 I4.83464 J-0.27537
G3 X41.26392 Y112.6462 I-7.50806 J2.85352
G3 X40.95069 Y113.00135 I-1.41917 J-0.93592
G3 X38.34042 Y114.06968 I-2.91791 J-3.40637
G3 X37.99103 Y114.05767 I-0.1166 J-1.696
G3 X32.85062 Y109.50312 I0.84812 J-6.1353
G0 Z3.0
G0 X51.64992 Y114.09599
G0 Z1.0
G1 F300.0 Z-6.0
G3 F800.0 X52.5486 Y115.07071 I-1.16987 J1.98025
G3 X53.16501 Y114.37249 I1.99671 J1.14155
G3 X52.30649 Y113.41621 I1.21407 J-1.95347
G3 X51.64992 Y114.09599 I-1.94734 J-1.22388
G1 F300.0 X51.34474 Y114.61258
G3 F800.0 X52.17962 Y116.11447 I-0.86469 J1.46367
G2 X53.79297 Y121.67222 I9.63308 J0.21667
G2 X58.59745 Y123.1023 I3.98741 J-4.61049
G3 X58.81651 Y123.08698 I0.22787 J1.68466
G2 X58.95137 Y122.75499 I-0.001 J-0.1938
G3 X56.21886 Y122.28817 I3.87637 J-30.92092
G3 X55.38581 Y121.83737 I0.36053 J-1.66133
G3 X52.84961 Y116.333 I6.02864 J-6.11423
G3 X55.10081 Y114.60557 I1.69571 J-0.12074
G2 X58.55474 Y114.46934 I1.55254 J-4.49046
G2 X58.38174 Y114.3075 I-0.17347 J0.01204
G3 X58.30692 Y114.30565 I0.00455 J-1.69999
G3 X54.2987 Y114.11712 I313.14281 J-6700.13373
G3 X52.67987 Y112.3673 I0.08038 J-1.6981
G2 X52.64398 Y102.1372 I-150.67777 J-4.58656
G3 X52.65202 Y101.89668 I1.69881 J-0.06364
G2 X52.16566 Y99.88927 I-3.06322 J-0.32046
G2 X51.67136 Y100.2798 I-0.14133 J0.3292
G3 X51.68419 Y100.367 I-1.67491 J0.29102
G3 X52.05632 Y112.29051 I-66.63528 J8.04721
G3 X49.79131 Y113.79469 I-1.69716 J-0.09818
G2 X48.02497 Y113.88158 I-0.7774 J2.19367
G2 X48.1693 Y114.1524 I0.18893 J0.07318
G2 X50.4858 Y114.37625 I2.35885 J-12.31213
G3 X51.34474 Y114.61258 I-0.00574 J1.69999
G0 Z3.0
G0 X-37.81568 Y111.0385
G0 Z1.0
G1 F300.0 Z-6.0
G3 F800.0 X-38.31117 Y109.93462 I1.77667 J-1.46063
G2 X-38.46933 Y109.14725 I-9.33753 J1.46609
G3 X-39.45334 Y111.01088 I-2.29989 J-0.02276
G2 X-37.81568 Y111.0385 I1.25411 J-25.797
G1 F300.0 X-37.80677 Y111.63844
G2 F800.0 X-37.3197 Y111.62671 I-0.39246 J-26.42455
G3 X-37.19489 Y111.62714 I0.05658 J1.69906
G2 X-36.98656 Y110.9893 I0.01399 J-0.34837
G3 X-37.71843 Y109.84156 I0.94756 J-1.41143
G2 X-50.35568 Y101.72013 I-9.93027 J1.55916
G2 X-53.55311 Y105.09127 I1.25839 J4.39546
G2 X-47.70746 Y121.38353 I17.49957 J2.91601
G3 X-47.65575 Y121.43048 I-1.11673 J1.28177
G2 X-42.83211 Y122.47441 I3.27347 J-3.45942
G3 X-42.54961 Y122.40355 I0.55332 J1.60743
G2 X-39.05563 Y120.6271 I-1.02223 J-6.33481
G2 X-39.2812 Y120.28972 I-0.22876 J-0.09115
G3 X-44.17586 Y122.00157 I-5.78325 J-8.68244
G3 X-45.13552 Y121.79972 I-0.1448 J-1.69382
G3 X-52.93856 Y106.21751 I7.3259 J-13.41342
G3 X-48.97372 Y102.15293 I4.28273 J0.21158
G3 X-39.13253 Y108.66488 I1.15138 J8.95221
G3 X-40.87181 Y110.82139 I-1.63669 J0.45961
G3 X-47.53906 Y109.2536 I1.21755 J-20.13835
G3 X-47.68527 Y109.18311 I0.66439 J-1.5648
G2 X-48.18372 Y109.68266 I-0.17543 J0.32341
G2 X-37.80677 Y111.63844 I9.98449 J-24.46877
G0 Z3.0
G0 X-30.58752 Y-105.85096
G0 Z1.0
G1 F300.0 Z-6.0
G3 F800.0 X-29.97112 Y-106.54918 I1.99671 J1.14155
G3 X-30.82963 Y-107.50546 I1.21407 J-1.95347
G3 X-31.4862 Y-106.82567 I-1.94734 J-1.22388
G3 X-30.58752 Y-105.85096 I-1.16987 J1.98025
G1 F300.0 X-31.12714 Y-105.58864
G3 F800.0 X-30.9565 Y-104.80719 I-1.52893 J0.74322
G2 X-29.34315 Y-99.24944 I9.63308 J0.21667
G2 X-24.53867 Y-97.81936 I3.98741 J-4.61049
G3 X-24.31962 Y-97.83468 I0.22787 J1.68466
G2 X-24.18475 Y-98.16667 I-0.001 J-0.1938
G3 X-26.91727 Y-98.63349 I3.87637 J-30.92092
G3 X-27.75032 Y-99.0843 I0.36053 J-1.66133
G3 X-30.28652 Y-104.58866 I6.02864 J-6.11423
G3 X-28.03531 Y-106.31609 I1.69571 J-0.12074
G2 X-24.58138 Y-106.45232 I1.55254 J-4.49046
G2 X-24.75438 Y-106.61417 I-0.17347 J0.01204
G3 X-24.8292 Y-106.61601 I0.00455 J-1.69999
G3 X-28.83743 Y-106.80455 I313.14281 J-6700.13373
G3 X-30.45626 Y-108.55437 I0.08038 J-1.6981
G2 X-30.49214 Y-118.78446 I-150.67777 J-4.58656
G3 X-30.48411 Y-119.02498 I1.69881 J-0.06364
G2 X-30.97046 Y-121.03239 I-3.06322 J-0.32046
G2 X-31.46477 Y-120.64186 I-0.14133 J0.3292
G3 X-31.45193 Y-120.55466 I-1.67491 J0.29102
G3 X-31.07981 Y-108.63115 I-66.63528 J8.04721
G3 X-33.34482 Y-107.12697 I-1.69716 J-0.09818
G2 X-35.11116 Y-107.04008 I-0.7774 J2.19367
G2 X-34.96682 Y-106.76927 I0.18893 J0.07318
G2 X-32.65033 Y-106.54541 I2.35885 J-12.31213
G3 X-31.12714 Y-105.58864 I-0.00574 J1.69999
G0 Z3.0
G0 X-40.60857 Y-109.61426
G0 Z1.0
G1 F300.0 Z-6.0
G2 F800.0 X-43.47197 Y-118.94126 I-6.97535 J-2.96159
G2 X-45.77896 Y-119.42193 I-2.25317 J5.03755
G2 X-51.23744 Y-113.63212 I0.21199 J5.66783
G3 X-51.2532 Y-113.36177 I-1.69961 J0.03656
G2 X-42.85814 Y-106.65187 I6.1919 J0.8597
G2 X-40.60857 Y-109.61426 I-4.72579 J-5.92398
G1 F300.0 X-41.0865 Y-109.79917
G3 F800.0 X-41.87221 Y-108.27547 I-7.4909 J-2.89828
G3 X-42.18544 Y-107.92031 I-1.41917 J-0.93592
G3 X-44.79571 Y-106.85199 I-2.91791 J-3.40637
G3 X-45.1451 Y-106.864 I-0.1166 J-1.696
G3 X-50.45839 Y-113.63032 I0.84812 J-6.1353
G3 X-41.06934 Y-115.55098 I4.83464 J-0.27537
G3 X-41.0865 Y-109.79917 I-7.50806 J2.85352
G0 Z3.0
G0 X-57.63233 Y-109.49451
G0 Z1.0
G1 F300.0 Z-6.0
G3 F800.0 X-58.36823 Y-108.81245 I-1.89377 J-1.30524
G3 X-57.59773 Y-108.07871 I-1.15787 J1.98729
G3 X-57.63233 Y-109.49451 I114.85167 J-3.51508
G0 Z3.0
G0 X-72.32448 Y-110.61084
G0 Z1.0
G1 F300.0 Z-6.0
G3 F800.0 X-72.94851 Y-111.12732 I1.13153 J-2.00241
G3 X-72.91115 Y-110.13741 I-403.58785 J15.72722
G3 X-72.32448 Y-110.61084 I1.71821 J1.52897
G1 F300.0 X-72.0293 Y-110.08847
G3 F800.0 X-70.82359 Y-110.26782 I0.83635 J1.48004
G2 X-59.3829 Y-108.51912 I18.68447 J-83.94177
G3 X-57.82971 Y-106.71431 I-0.1432 J1.69396
G2 X-57.43395 Y-100.3325 I25.15053 J1.64347
G3 X-57.41857 Y-100.23775 I-1.66969 J0.3196
G2 X-56.5387 Y-98.56025 I2.73469 J-0.36489
G2 X-56.32155 Y-98.84602 I-0.00454 J-0.22883
G3 X-56.36477 Y-99.08284 I1.64656 J-0.42288
G3 X-56.81929 Y-118.87621 I113.61871 J-12.51096
G2 X-57.66451 Y-118.8195 I-0.41831 J0.09251
G2 X-57.82681 Y-110.84915 I80.48168 J5.62572
G3 X-59.69074 Y-109.10774 I-1.69928 J0.0494
G3 X-71.54968 Y-110.95109 I10.16414 J-104.45723
G3 X-72.88872 Y-112.49343 I0.35673 J-1.66215
G3 X-73.25463 Y-119.44569 I193.39222 J-13.6643
G3 X-73.25539 Y-119.47511 I1.69898 J-0.05885
G2 X-73.96373 Y-119.51365 I-0.35555 J0.00616
G3 X-73.25611 Y-98.74978 I-402.57263 J24.11356
G2 X-72.54586 Y-98.73651 I0.35545 J-0.01066
G2 X-72.89064 Y-108.51994 I-290.40404 J5.33655
G3 X-72.0293 Y-110.08847 I1.6977 J-0.0885
G0 Z3.0
G0 X-19.07741 Y-118.25016
G0 Z1.0
G1 F300.0 Z-6.0
G2 F800.0 X-18.65504 Y-118.22711 I0.24964 J-0.69294
G3 X-11.66583 Y-118.48426 I3.7556 J6.96522
G3 X-11.08967 Y-118.06181 I-0.69468 J1.55159
G3 X-12.53189 Y-113.28444 I-2.18953 J1.94539
G2 X-17.15998 Y-110.98243 I19.30003 J44.60513
G3 X-17.16283 Y-110.98082 I-0.83697 J-1.47969
G2 X-16.51561 Y-106.37841 I1.22447 J2.17452
G3 X-16.49 Y-106.37211 I-0.39323 J1.65389
G2 X-10.17809 Y-105.86872 I4.62787 J-18.20435
G3 X-10.01123 Y-105.87551 I0.15241 J1.69315
G2 X-9.62513 Y-106.29445 I0.00327 J-0.38437
G3 X-9.61542 Y-106.68435 I1.69311 J-0.1529
G2 X-9.63929 Y-107.23086 I-1.48412 J-0.20895
G3 X-10.92367 Y-106.23526 I-1.55703 J-0.6824
G3 X-15.68918 Y-106.44431 I-1.87985 J-11.56926
G3 X-16.11745 Y-111.10967 I0.41652 J-2.39057
G2 X-10.71959 Y-113.99013 I-22.88137 J-49.37649
G3 X-10.66188 Y-114.0237 I0.88339 J1.45245
G2 X-10.79349 Y-118.5287 I-1.23264 J-2.21841
G2 X-17.96863 Y-118.91101 I-4.05634 J8.60653
G3 X-18.41535 Y-118.82068 I-0.55725 J-1.60607
G2 X-19.07741 Y-118.25016 I0.04719 J0.72416
G0 Z3.0
G0 X5.14747 Y-117.24877
G0 Z1.0
G1 F300.0 Z-6.0
G3 F800.0 X6.32316 Y-115.22701 I-6.15081 J4.92954
G3 X6.06198 Y-117.82365 I8124.62938 J-818.52312
G3 X5.14747 Y-117.24877 I-1.64709 J-1.60534
G1 F300.0 X4.68115 Y-116.87504
G3 F800.0 X6.16274 Y-113.62924 I-5.68449 J4.55581
G3 X6.16386 Y-113.62305 I-1.67229 J0.30571
G3 X6.84415 Y-109.00014 I-74.18636 J13.27857
G3 X6.00497 Y-107.3324 I-1.68875 J0.19524
G3 X3.29355 Y-106.50449 I-3.14827 J-5.45669
G3 X3.1672 Y-106.50042 I-0.11789 J-1.69591
G3 X-3.77863 Y-113.63515 I0.03479 J-6.98219
G3 X1.18262 Y-119.10426 I4.31331 J-1.07206
G2 X-4.51132 Y-114.11876 I-0.87543 J4.74445
G3 X-4.51165 Y-113.94256 I-1.69788 J0.08494
G2 X6.50876 Y-107.58416 I7.12353 J0.38297
G3 X7.34873 Y-107.85789 I0.92863 J1.42395
G2 X7.66773 Y-108.23351 I-0.01767 J-0.33827
G3 X7.34968 Y-111.03549 I545.99113 J-63.39514
G3 X7.34797 Y-111.05161 I1.68964 J-0.1874
G3 X6.22718 Y-122.19491 I8123.60458 J-822.69853
G2 X1.44514 Y-126.93289 I-5.27742 J0.54425
G3 X1.25282 Y-126.96211 I0.15873 J-1.69257
G2 X-4.51487 Y-126.40083 I-1.99245 J9.44077
G2 X-4.46631 Y-126.26332 I0.06173 J0.05553
G3 X-0.2958 Y-126.77182 I16.98906 J121.97869
G3 X-0.26213 Y-126.77501 I0.17694 J1.69077
G3 X5.77932 Y-121.94949 I0.47376 J5.60151
G3 X6.11252 Y-119.51867 I-14.36535 J3.20735
G3 X3.68846 Y-117.89201 I-1.69763 J0.08969
G3 X4.68115 Y-116.87504 I-4.6918 J5.57278
G0 Z3.0
G0 X13.4676 Y-109.96675
G0 Z1.0
G1 F300.0 Z-6.0
G2 F800.0 X13.50248 Y-107.87505 I334.8698 J-4.53905
G3 X14.55978 Y-108.51241 I1.67251 J1.57884
G3 X13.4676 Y-109.96675 I6.21866 J-5.80739
G1 F300.0 X12.86765 Y-109.95861
G2 F800.0 X12.93016 Y-106.59323 I335.46975 J-4.54718
G3 X12.92959 Y-106.49365 I-1.69953 J0.04009
G2 X13.48267 Y-106.45762 I0.27708 J0.0097
G3 X16.34199 Y-107.53239 I1.69232 J0.1614
G2 X21.73994 Y-106.13866 I3.96271 J-4.1976
G2 X22.45257 Y-108.08959 I-1.48603 J-1.64842
G3 X22.43985 Y-108.42472 I1.68414 J-0.23171
G2 X22.42858 Y-109.17981 I-4.97674 J-0.30335
G3 X22.43818 Y-109.57071 I1.69301 J-0.15402
G2 X21.89196 Y-109.96896 I-0.37937 J-0.05338
G2 X21.74002 Y-108.21886 I6.93694 J1.48388
G3 X19.83936 Y-106.46708 I-1.6988 J0.0638
G3 X13.64071 Y-110.91394 I0.93908 J-7.85272
G3 X13.47499 Y-111.64942 I1.53428 J-0.7321
G1 X13.49011 Y-119.25101
G3 X13.49145 Y-119.31538 I1.7 J0.00338
G2 X12.86883 I-0.31131 J-0.01242
G3 X12.87001 Y-119.22373 I-1.69865 J0.06775
G2 X12.86765 Y-109.95861 I335.46739 J4.71793
G0 Z3.0
G0 X36.90819 Y-118.31363
G0 Z1.0
G1 F300.0 Z-6.0
G3 F800.0 X37.34772 Y-117.82852 I-1.46733 J1.77114
G3 X37.373 Y-118.66768 I207.14856 J5.82171
G3 X36.90819 Y-118.31363 I-1.61479 J-1.63782
G1 F300.0 X36.52541 Y-117.8516
G3 F800.0 X37.13953 Y-116.47551 I-1.08455 J1.3091
G2 X37.37461 Y-106.17575 I82.75971 J3.26371
G2 X38.14833 Y-106.15766 I0.38825 J-0.05007
G3 X37.8668 Y-111.46688 I72.58925 J-6.51133
G3 X37.86657 Y-111.49067 I1.69977 J-0.02804
G3 X37.99923 Y-119.42778 I206.62971 J-0.51614
G2 X37.2697 Y-119.52741 I-0.38237 J0.07908
G3 X35.0255 Y-118.77152 I-1.51148 J-0.77809
G2 X28.99684 Y-118.6388 I-2.88292 J6.03555
G2 X27.86255 Y-116.85109 I1.35433 J2.11302
G3 X27.84307 Y-116.73404 I-1.68566 J-0.22034
G2 X27.71474 Y-106.12472 I27.86504 J5.64251
G3 X27.71826 Y-106.10413 I-1.67386 J0.29699
G2 X28.47451 Y-106.03109 I0.38782 J-0.0639
G3 X28.67227 Y-117.04257 I27.55965 J-5.01256
G3 X29.7599 Y-118.27905 I1.66056 J0.36407
G3 X36.09815 Y-118.11028 I2.9518 J8.24617
G3 X36.52541 Y-117.8516 I-0.6573 J1.56779
G0 Z3.0
G0 X45.18987 Y-109.0847
G0 Z1.0
G1 F300.0 Z-6.0
G2 F800.0 X45.20398 Y-108.87361 I108.06885 J-7.12137
G3 X45.29744 Y-108.91705 I1.269 J2.60761
G3 X45.18987 Y-109.0847 I7.40984 J-4.87269
G1 F300.0 X46.20706 Y-109.72135
G3 F800.0 X45.56396 Y-111.00089 I6.50022 J-4.06839
G3 X45.55622 Y-111.02109 I1.58359 J-0.61826
G3 X44.56927 Y-119.03159 I16.09594 J-6.04919
G2 X43.7901 Y-118.9616 I-0.38583 J0.07672
G3 X43.78982 Y-118.94815 I-1.69975 J-0.02911
G2 X44.02792 Y-108.48648 I109.4689 J2.74208
G3 X44.02998 Y-108.28078 I-1.69577 J0.11984
G2 X43.92998 Y-105.77816 I118.13674 J5.97383
G2 X44.76644 Y-105.92929 I0.4123 J-0.10838
G3 X44.76485 Y-106.25367 I1.69143 J-0.17047
G1 X44.77996 Y-106.41991
G3 X47.81721 Y-107.30669 I1.69302 J0.15391
G2 X52.61169 Y-106.07711 I3.18784 J-2.46801
G2 X53.96567 Y-108.81093 I-2.15939 J-2.77168
G3 X53.96593 Y-108.82768 I1.6999 J0.01832
G3 X54.71093 Y-119.27192 I103.53771 J2.13678
G2 X54.24768 Y-119.605 I-0.48915 J0.19162
G3 X54.15029 Y-119.61262 I0.0838 J-1.69793
G2 X53.96082 Y-119.44527 I-0.01825 J0.17027
G3 X53.94344 Y-119.23012 I-1.69975 J-0.02905
G2 X53.46339 Y-109.6291 I50.57819 J7.34141
G3 X51.38611 Y-106.35392 I-2.46873 J0.73056
G3 X50.67769 Y-106.39478 I-0.25848 J-1.68023
G3 X46.20706 Y-109.72135 I2.02958 J-7.39496
G0 Z3.0
G0 X59.95379 Y-111.82212
G0 Z1.0
G1 F300.0 Z-6.0
G3 F800.0 X70.74345 Y-116.3536 I5.96365 J-0.91136
G3 X71.08345 Y-115.31678 I-1.35992 J1.02011
G2 Y-109.81903 I279.65001 J2.74888
G3 X70.84904 Y-108.94077 I-1.69992 J0.01671
G3 X60.29571 Y-110.54446 I-4.95579 J-2.91342
G3 X59.95379 Y-111.82212 I5.62173 J-2.18903
G0 Z3.0
G0 X70.27649 Y-107.26473
G0 Z1.0
G1 F300.0 Z-6.0
G3 F800.0 X71.15405 Y-106.81224 I-0.59071 J2.22285
G3 X71.12157 Y-108.25689 I102.07121 J-3.01727
G3 X70.27649 Y-107.26473 I-5.22832 J-3.59729
G0 Z3.0
G0 X71.33102 Y-116.55261
G0 Z1.0
G1 F300.0 Z-6.0
G3 F800.0 X71.41904 Y-117.7749 I101.89423 J6.7231
G3 X70.59608 Y-117.43174 I-1.27988 J-1.91099
G3 X71.2215 Y-116.7122 I-4.67865 J4.69825
G3 X71.33102 Y-116.55261 I-1.83797 J1.37871
G1 F300.0 X71.92972 Y-116.51311
G3 F800.0 X72.10501 Y-118.78225 I101.29554 J6.68359
G2 X71.61943 Y-118.84996 I-0.25614 J0.06186
G3 X69.1555 Y-118.29938 I-1.48028 J-0.83593
G2 X59.52202 Y-113.18122 I-3.53159 J4.97801
G3 X59.5163 Y-112.99749 I-1.69955 J0.03904
G2 X67.72902 Y-105.96501 I6.63214 J0.56656
G2 X68.68707 Y-106.41759 I-0.71947 J-2.76335
G3 X71.38513 Y-105.0888 I0.99871 J1.37571
G2 X71.84511 Y-98.10011 I91.85667 J-2.53628
G3 X71.84917 Y-98.05549 I-1.69084 J0.17621
G2 X72.3965 Y-98.03895 I0.27456 J-0.02132
G3 X71.92972 Y-116.51311 I100.82876 J-11.79056
G0 Z3.0
M5
M30
