( Made using CamBam - http://www.cambam.co.uk )
( Zum-Hof 12/2/2017 11:26:49 AM )
( T3 : 3.0 )
( T6 : 6.0 )
( T15 : 1.5 )
G21 G90 G64 G40
G0 Z3.0
( T6 : 6.0 )
T6 M6
( Hof )
G17
M3 S1000
G0 X44.63296 Y-49.55498
G0 Z1.0
G1 F300.0 Z-3.0
G2 F800.0 X44.28279 Y-49.56083 I-0.47138 J17.72517
G3 X42.47366 Y-49.86861 I0.03897 J-5.69987
G3 X42.29607 Y-49.22887 I-5.56715 J-1.2009
G2 X43.41404 Y-37.22677 I13.92576 J4.75596
G3 X43.44393 Y-37.17328 I-4.95688 J2.8044
G2 X44.72077 Y-34.92901 I85.90231 J-47.38739
G3 X44.74388 Y-29.20638 I-4.91264 J2.88119
G3 X47.36257 Y-31.00969 I4.41387 J3.60662
G2 X47.98931 Y-31.90403 I-0.2883 J-0.86882
G2 X44.4089 Y-43.95344 I-33.93171 J3.52595
G3 X44.63296 Y-49.55498 I5.07124 J-2.60241
G0 Z3.0
G0 X44.21804 Y-28.44392
G0 Z1.0
G1 F300.0 Z-3.0
G3 F800.0 X38.02565 Y-26.63874 I-4.40991 J-3.60389
G3 X24.23901 Y-35.34671 I10.51965 J-31.92256
G2 X25.86841 Y-33.6312 I14.80285 J-12.42836
G3 X26.00328 Y-33.50139 I-3.88488 J4.17106
G2 X43.57463 Y-24.45136 I23.05311 J-23.17638
G3 X44.21804 Y-28.44392 I5.58312 J-1.1484
G1 F300.0 X46.29792 Y-27.24638
G3 F800.0 X48.11843 Y-28.73182 I2.85983 J1.64662
G2 X50.38301 Y-32.08847 I-1.04417 J-3.14668
G2 X46.54416 Y-45.04919 I-36.32541 J3.71039
G3 X50.11007 Y-49.79517 I2.93598 J-1.50666
G3 X54.51274 Y-48.49446 I-4.60961 J23.70425
G3 X53.2494 Y-49.79328 I2.77034 J-3.9585
G2 X44.2992 Y-51.96077 I-9.08782 J17.96347
G3 X41.66329 Y-53.30556 I0.02256 J-3.29992
G2 X26.71376 Y-61.61603 I-16.55137 J12.17248
G2 X18.45811 Y-54.73453 I1.68225 J10.41103
G2 X24.23267 Y-31.87497 I20.58375 J6.95947
G3 X24.31076 Y-31.79981 I-2.24914 J2.41482
G2 X45.31812 Y-21.78816 I24.74564 J-24.87796
G3 X46.16972 Y-21.57979 I-0.35157 J3.28122
G2 X48.25822 Y-22.2935 I0.62271 J-1.59039
G2 X47.90154 Y-22.54821 I-0.7232 J0.63562
G3 X46.29792 Y-27.24638 I1.25621 J-3.05155
G0 Z3.0
G0 X42.46101 Y-30.0851
G0 Z1.0
G1 F300.0 Z-3.0
G3 F800.0 X38.7753 Y-28.9136 I-2.65288 J-1.96271
G3 X22.41828 Y-41.47862 I9.77 J-29.6477
G3 X19.33654 Y-54.14162 I11.91369 J-9.60587
G3 X20.02386 Y-55.5817 I3.23349 J0.65921
G3 X34.16153 Y-57.63979 I8.20323 J6.76346
G3 X34.3123 Y-57.53209 I-1.84197 J2.73809
G3 X39.14051 Y-53.49836 I-39.88043 J52.64164
G3 X40.02941 Y-50.00298 I-2.234 J2.42884
G2 X41.32935 Y-36.04734 I16.19241 J5.53007
G3 X41.34667 Y-36.01634 I-2.87219 J1.62497
G2 X42.65469 Y-33.71728 I87.99956 J-48.54433
G3 X42.46101 Y-30.0851 I-2.84656 J1.66947
G1 F300.0 Z-6.0
G3 F800.0 X38.7753 Y-28.9136 I-2.65288 J-1.96271
G3 X22.41828 Y-41.47862 I9.77 J-29.6477
G3 X19.33654 Y-54.14162 I11.91369 J-9.60587
G3 X20.02386 Y-55.5817 I3.23349 J0.65921
G3 X34.16153 Y-57.63979 I8.20323 J6.76346
G3 X34.3123 Y-57.53209 I-1.84197 J2.73809
G3 X39.14051 Y-53.49836 I-39.88043 J52.64164
G3 X40.02941 Y-50.00298 I-2.234 J2.42884
G2 X41.32935 Y-36.04734 I16.19241 J5.53007
G3 X41.34667 Y-36.01634 I-2.87219 J1.62497
G2 X42.65469 Y-33.71728 I87.99956 J-48.54433
G3 X42.46101 Y-30.0851 I-2.84656 J1.66947
G0 Z3.0
G0 X67.36566 Y-47.43996
G0 Z1.0
G1 F300.0 Z-3.0
G3 F800.0 X68.15817 Y-46.84714 I-34.75292 J47.28528
G3 X69.343 Y-48.29795 I7.75892 J5.12729
G2 X70.5417 Y-49.58567 I-17.23279 J-17.24329
G3 X68.43818 Y-49.20772 I-2.68464 J-8.89907
G3 X67.36566 Y-47.43996 I-9.38655 J-4.48573
G1 F300.0 X66.655 Y-46.47303
G3 F800.0 X68.52738 Y-45.03679 I-34.04226 J46.31834
G3 X70.19127 Y-47.44916 I7.38972 J3.31694
G2 X73.32398 Y-51.25054 I-18.08106 J-18.09207
G2 X70.3043 Y-50.7683 I0.0991 J10.31611
G3 X67.64256 Y-50.39238 I-2.44724 J-7.71643
G3 X65.6021 Y-47.22874 I-8.59093 J-3.30107
G3 X66.655 Y-46.47303 I-32.98936 J47.07405
G1 F300.0 X65.23368 Y-44.53916
G3 F800.0 X70.4196 Y-40.21399 I-32.62093 J44.38447
G3 X71.88781 Y-45.75159 I5.49749 J-1.50586
G2 X77.24452 Y-53.25098 I-19.7776 J-19.78964
G3 X77.40458 Y-53.55477 I5.1206 J2.50389
G3 X75.36831 Y-53.50135 I-1.16509 J-5.57475
G2 X69.57876 Y-53.05601 I-1.94523 J12.56693
G3 X65.83408 Y-53.16093 I-1.7217 J-5.42872
G3 X63.20905 Y-48.30818 I-6.78245 J-0.53251
G3 X61.95009 Y-46.9289 I-5.92597 J-4.14478
G3 X62.79976 Y-46.22909 I-16.44963 J20.83798
G3 X65.23368 Y-44.53916 I-30.18702 J46.0744
G0 Z3.0
G0 X85.61467 Y-15.40288
G0 Z1.0
G1 F300.0 Z-3.0
G2 F800.0 X92.30162 Y-4.4082 I50.98797 J-23.47995
G2 X91.58749 Y-5.84795 I-4.84631 J1.50683
G3 X91.39213 Y-6.14062 I4.64092 J-3.30936
G1 X85.61467 Y-15.40288
G0 Z3.0
G0 X59.09894 Y-81.52246
G0 Z1.0
G1 F300.0 Z-3.0
G3 F800.0 X61.06922 Y-85.32225 I27.22901 J11.70819
G3 X61.32195 Y-85.69932 I4.85344 J2.97984
G2 X60.3758 Y-86.03087 I-7.11089 J18.77681
G2 X59.63329 Y-84.85431 I1.26187 J1.61891
G2 X59.09894 Y-81.52246 I31.7889 J6.80703
G1 F300.0 X61.29934 Y-80.57631
G2 F800.0 X60.49551 Y-78.47093 I25.0286 J10.76204
G2 X60.41481 Y-78.18914 I3.12898 J1.04855
G2 X65.27921 Y-56.42447 I24.71076 J5.90308
G2 X68.85467 Y-55.33914 I2.57785 J-2.06027
G3 X75.7347 Y-55.86836 I4.5684 J14.40472
G2 X79.51517 Y-58.72966 I0.50479 J-3.26116
G2 X75.02571 Y-77.651 I-27.81004 J-3.39478
G3 X81.33323 Y-56.50063 I-23.90551 J18.64488
G2 X82.15136 Y-54.04017 I3.28871 J0.27272
G2 X79.40056 Y-52.19672 I0.21376 J3.29307
G3 X73.58435 Y-44.05401 I-27.29034 J-13.34451
G2 X73.11714 Y-39.97335 I2.33274 J2.33416
G1 X93.42846 Y-7.4108
G2 X93.54156 Y-7.24137 I2.79995 J-1.74651
G3 X94.33152 Y0.03048 I-6.08625 J4.34
G3 X91.64752 Y-1.3664 I-0.07608 J-3.13081
G2 X91.44531 Y-1.63901 I-2.74805 J1.82709
G3 X80.62424 Y-21.77422 I45.15733 J-37.24382
G2 X80.46582 Y-22.18996 I-3.1559 J0.96453
G2 X61.35233 Y-44.3079 I-47.85307 J22.03527
G2 X56.18153 Y-47.74859 I-15.85186 J18.21698
G2 X61.44364 Y-49.99648 I1.10156 J-4.70437
G2 X63.00058 Y-55.64154 I-2.392 J-3.69696
G2 X59.13186 Y-64.7804 I-501.92729 J207.09041
G3 X57.2878 Y-85.36291 I32.29033 J-13.26688
G3 X60.13928 Y-88.60487 I4.34987 J0.95095
G3 X66.85362 Y-85.50837 I-5.92821 J21.68236
G2 X63.1104 Y-84.06904 I-0.93096 J3.16596
G2 X61.29934 Y-80.57631 I23.21754 J14.25476
G1 F300.0 X59.09894 Y-81.52246
G1 Z-6.0
G3 F800.0 X61.06922 Y-85.32225 I27.22901 J11.70819
G3 X61.32195 Y-85.69932 I4.85344 J2.97984
G2 X60.3758 Y-86.03087 I-7.11089 J18.77681
G2 X59.63329 Y-84.85431 I1.26187 J1.61891
G2 X59.09894 Y-81.52246 I31.7889 J6.80703
G0 Z3.0
G0 X68.43818 Y-49.20772
G0 Z-2.0
G1 F300.0 Z-6.0
G3 F800.0 X67.36566 Y-47.43996 I-9.38655 J-4.48573
G3 X68.15817 Y-46.84714 I-34.75292 J47.28528
G3 X69.343 Y-48.29795 I7.75892 J5.12729
G2 X70.5417 Y-49.58567 I-17.23279 J-17.24329
G3 X68.43818 Y-49.20772 I-2.68464 J-8.89907
G1 F300.0 X68.36316 Y-50.40537
G3 F800.0 X67.64256 Y-50.39238 I-0.5061 J-8.07936
G3 X65.6021 Y-47.22874 I-8.59093 J-3.30107
G3 X68.52738 Y-45.03679 I-32.98936 J47.07405
G3 X70.19127 Y-47.44916 I7.38972 J3.31694
G2 X73.32398 Y-51.25054 I-18.08106 J-18.09207
G2 X70.3043 Y-50.7683 I0.0991 J10.31611
G3 X68.36316 Y-50.40537 I-2.44724 J-7.71643
G1 F300.0 X68.21312 Y-52.80068
G3 F800.0 X65.83408 Y-53.16093 I-0.35606 J-5.68406
G3 X63.20905 Y-48.30818 I-6.78245 J-0.53251
G3 X61.95009 Y-46.9289 I-5.92597 J-4.14478
G3 X62.79976 Y-46.22909 I-16.44963 J20.83798
G3 X70.4196 Y-40.21399 I-30.18702 J46.0744
G3 X71.88781 Y-45.75159 I5.49749 J-1.50586
G2 X77.24452 Y-53.25098 I-19.7776 J-19.78964
G3 X77.40458 Y-53.55477 I5.1206 J2.50389
G3 X75.36831 Y-53.50135 I-1.16509 J-5.57475
G2 X69.57876 Y-53.05601 I-1.94523 J12.56693
G3 X68.21312 Y-52.80068 I-1.7217 J-5.42872
G0 Z3.0
G0 X85.61467 Y-15.40288
G0 Z-2.0
G1 F300.0 Z-6.0
G2 F800.0 X92.30162 Y-4.4082 I50.98797 J-23.47995
G2 X91.58749 Y-5.84795 I-4.84631 J1.50683
G3 X91.39213 Y-6.14062 I4.64092 J-3.30936
G1 X85.61467 Y-15.40288
G1 F300.0 X83.43471 Y-14.39901
G3 F800.0 X80.62424 Y-21.77422 I53.16793 J-24.48382
G2 X80.46582 Y-22.18996 I-3.1559 J0.96453
G2 X61.35233 Y-44.3079 I-47.85307 J22.03527
G2 X56.18153 Y-47.74859 I-15.85186 J18.21698
G2 X61.44364 Y-49.99648 I1.10156 J-4.70437
G2 X63.00058 Y-55.64154 I-2.392 J-3.69696
G2 X59.13186 Y-64.7804 I-501.92729 J207.09041
G3 X57.2878 Y-85.36291 I32.29033 J-13.26688
G3 X60.13928 Y-88.60487 I4.34987 J0.95095
G3 X66.85362 Y-85.50837 I-5.92821 J21.68236
G2 X63.1104 Y-84.06904 I-0.93096 J3.16596
G2 X60.49551 Y-78.47093 I23.21754 J14.25476
G2 X60.41481 Y-78.18914 I3.12898 J1.04855
G2 X65.27921 Y-56.42447 I24.71076 J5.90308
G2 X68.85467 Y-55.33914 I2.57785 J-2.06027
G3 X75.7347 Y-55.86836 I4.5684 J14.40472
G2 X79.51517 Y-58.72966 I0.50479 J-3.26116
G2 X75.02571 Y-77.651 I-27.81004 J-3.39478
G3 X81.33323 Y-56.50063 I-23.90551 J18.64488
G2 X82.15136 Y-54.04017 I3.28871 J0.27272
G2 X79.40056 Y-52.19672 I0.21376 J3.29307
G3 X73.58435 Y-44.05401 I-27.29034 J-13.34451
G2 X73.11714 Y-39.97335 I2.33274 J2.33416
G1 X93.42846 Y-7.4108
G2 X93.54156 Y-7.24137 I2.79995 J-1.74651
G3 X94.33152 Y0.03048 I-6.08625 J4.34
G3 X91.64752 Y-1.3664 I-0.07608 J-3.13081
G2 X91.44531 Y-1.63901 I-2.74805 J1.82709
G3 X83.43471 Y-14.39901 I45.15733 J-37.24382
G0 Z3.0
G0 X47.89929 Y-31.4819
G0 Z-2.0
G1 F300.0 Z-6.0
G2 F800.0 X47.98931 Y-31.90403 I-0.82502 J-0.39661
G2 X44.4089 Y-43.95344 I-33.93171 J3.52595
G3 X44.63296 Y-49.55498 I5.07124 J-2.60241
G2 X44.28279 Y-49.56083 I-0.47138 J17.72517
G3 X42.47366 Y-49.86861 I0.03897 J-5.69987
G3 X42.29607 Y-49.22887 I-5.56715 J-1.2009
G2 X43.41404 Y-37.22677 I13.92576 J4.75596
G3 X43.44393 Y-37.17328 I-4.95688 J2.8044
G2 X44.72077 Y-34.92901 I85.90231 J-47.38739
G3 X44.74388 Y-29.20638 I-4.91264 J2.88119
G3 X47.36257 Y-31.00969 I4.41387 J3.60662
G2 X47.89929 Y-31.4819 I-0.2883 J-0.86882
G0 Z3.0
G0 X44.21804 Y-28.44392
G0 Z-2.0
G1 F300.0 Z-6.0
G3 F800.0 X38.02565 Y-26.63874 I-4.40991 J-3.60389
G3 X24.23901 Y-35.34671 I10.51965 J-31.92256
G2 X25.86841 Y-33.6312 I14.80285 J-12.42836
G3 X26.00328 Y-33.50139 I-3.88488 J4.17106
G2 X43.57463 Y-24.45136 I23.05311 J-23.17638
G3 X44.21804 Y-28.44392 I5.58312 J-1.1484
G1 F300.0 X46.29792 Y-27.24638
G3 F800.0 X48.11843 Y-28.73182 I2.85983 J1.64662
G2 X50.38301 Y-32.08847 I-1.04417 J-3.14668
G2 X46.54416 Y-45.04919 I-36.32541 J3.71039
G3 X50.11007 Y-49.79517 I2.93598 J-1.50666
G3 X54.51274 Y-48.49446 I-4.60961 J23.70425
G3 X53.2494 Y-49.79328 I2.77034 J-3.9585
G2 X44.2992 Y-51.96077 I-9.08782 J17.96347
G3 X41.66329 Y-53.30556 I0.02256 J-3.29992
G2 X26.71376 Y-61.61603 I-16.55137 J12.17248
G2 X18.45811 Y-54.73453 I1.68225 J10.41103
G2 X24.23267 Y-31.87497 I20.58375 J6.95947
G3 X24.31076 Y-31.79981 I-2.24914 J2.41482
G2 X45.31812 Y-21.78816 I24.74564 J-24.87796
G3 X46.16972 Y-21.57979 I-0.35157 J3.28122
G2 X48.25822 Y-22.2935 I0.62271 J-1.59039
G2 X47.90154 Y-22.54821 I-0.7232 J0.63562
G3 X46.29792 Y-27.24638 I1.25621 J-3.05155
G0 Z3.0
G0 X4.20484 Y-31.68427
G0 Z1.0
G1 F300.0 Z-3.0
G3 F800.0 X4.17055 Y-31.7353 I54.22943 J-36.47865
G3 X0.30784 Y-31.68498 I-3.07932 J-88.10262
G3 X2.02934 Y-30.79709 I-3.37909 J8.66439
G3 X4.20484 Y-31.68427 I4.57142 J8.0989
G0 Z3.0
G0 X-7.6597 Y-33.17736
G0 Z1.0
G1 F300.0 Z-3.0
G3 F800.0 X-9.38626 Y-34.56085 I4.91084 J-7.8977
G3 X-10.67826 Y-33.66249 I-5.93623 J-7.159
G1 X-7.6597 Y-33.17736
G0 Z3.0
G0 X-25.54828 Y-34.10334
G0 Z1.0
G1 F300.0 Z-3.0
G1 F800.0 X-29.17982 Y-34.75377
G2 X-27.53119 Y-32.66461 I386.91242 J-303.63182
G3 X-25.54828 Y-34.10334 I6.40546 J6.74241
G1 F300.0 X-25.33672 Y-35.28455
G1 F800.0 X-34.12551 Y-36.85866
G3 X-30.22713 Y-34.14461 I-2.47546 J7.71246
G2 X-27.58674 Y-30.80742 I387.95974 J-304.24098
G3 X-19.84043 Y-33.91958 I6.46102 J4.88521
G1 X-1.78596 Y-31.01796
G3 X1.98116 Y-29.35171 I-1.2853 J7.99738
G3 X6.28521 Y-30.79204 I4.6196 J6.65352
G3 X4.79755 Y-32.96052 I52.14906 J-37.37088
G3 X-3.1433 Y-32.98467 I-3.70632 J-86.87739
G3 X-9.06063 Y-35.99849 I0.39445 J-8.09039
G3 X-9.30165 Y-36.30141 I28.56679 J-22.97635
G3 X-16.75051 Y-33.74672 I-6.02084 J-5.41844
G1 X-25.33672 Y-35.28455
G0 Z3.0
G0 X-45.07592 Y-40.88959
G0 Z1.0
G1 F300.0 Z-3.0
G2 F800.0 X-45.30964 Y-41.18105 I-11664.03303 J9353.0204
G3 X-45.46982 Y-40.99734 I-7.089 J-6.01964
G2 X-45.07592 Y-40.88959 I80.94156 J-295.12411
G1 F300.0 X-44.13974 Y-41.64029
G2 F800.0 X-45.37014 Y-43.17451 I-11664.96922 J9353.7711
G3 X-47.93928 Y-40.43873 I-7.0285 J-4.02618
G2 X-40.93497 Y-38.55182 I83.41102 J-295.68273
G3 X-43.24313 Y-40.52204 I4.0116 J-7.03683
G2 X-44.13974 Y-41.64029 I-11665.86583 J9352.65284
G1 F300.0 X-42.26736 Y-43.1417
G2 F800.0 X-47.00659 Y-49.04886 I-11666.8416 J9355.2725
G3 X-54.13467 Y-41.77149 I-5.39205 J1.84817
G2 X-58.46374 Y-41.9188 I-2.42512 J7.58424
G2 X-58.31211 Y-41.2266 I1.63334 J0.00491
G3 X-57.84611 Y-39.67442 I-5.17082 J2.39845
G2 X-57.72567 Y-39.41656 I0.49552 J-0.07439
G3 X-48.72054 Y-38.16548 I0.94002 J26.26847
G2 X-35.29813 Y-34.6953 I84.19228 J-297.95597
G3 X-32.11568 Y-32.6636 I-1.30284 J5.54911
G2 X-26.82462 Y-26.03425 I389.84828 J-305.72199
G3 X-20.22126 Y-31.54999 I5.6989 J0.11205
G1 X-2.16679 Y-28.64837
G3 X1.75989 Y-26.04549 I-0.90447 J5.62778
G2 X1.8674 Y-25.87393 I224.98271 J-140.8672
G3 X7.57715 Y-28.31394 I4.73336 J3.17574
G2 X11.51374 Y-28.0085 I3.57598 J-20.56749
G3 X6.06691 Y-35.42803 I46.92053 J-40.15442
G3 X-3.02643 Y-35.38182 I-4.97569 J-84.40989
G3 X-7.19047 Y-37.50265 I0.27757 J-5.69324
G3 X-9.66676 Y-41.01083 I26.69664 J-21.47218
G3 X-16.32739 Y-36.10913 I-5.65573 J-0.70902
G1 X-37.92827 Y-39.97794
G3 X-41.37061 Y-42.02326 I1.0049 J-5.61072
G2 X-42.26736 Y-43.1417 I-11667.73835 J9354.15406
G0 Z3.0
G0 X-13.73094 Y-53.12444
G0 Z1.0
G1 F300.0 Z-3.0
G3 F800.0 X-13.27891 Y-56.83021 I43.37715 J3.41072
G3 X-15.07166 Y-57.58781 I32.43322 J-79.24797
G2 X-13.73094 Y-53.12444 I80.14264 J-21.6404
G0 Z3.0
G0 X-45.16908 Y8.18241
G0 Z1.0
G1 F300.0 Z-3.0
G3 F800.0 X-51.18417 Y5.63373 I77.5172 J-191.3195
G3 X-46.27238 Y9.54008 I-164.42058 J211.78155
G3 X-45.16908 Y8.18241 I7.73701 J5.1603
G0 Z3.0
G0 X-63.01128 Y-3.59265
G0 Z1.0
G1 F300.0 Z-3.0
G3 F800.0 X-63.1403 Y-4.16148 I9.00063 J-2.34066
G3 X-64.23278 Y-4.70889 I664.75152 J-1328.02119
G2 X-63.01128 Y-3.59265 I51.06898 J-54.65848
G1 F300.0 X-63.81093 Y-2.69791
G2 F800.0 X-58.51896 Y1.62008 I50.64713 J-56.66946
G3 X-45.92254 Y11.37775 I-157.08579 J215.79521
G3 X-42.82204 Y7.82764 I7.38716 J3.32263
G3 X-57.55915 Y1.34804 I75.17016 J-190.96474
G3 X-62.0518 Y-4.95871 I3.54851 J-7.28135
G3 X-70.21481 Y-9.072 I663.66301 J-1327.22396
G3 X-69.59722 Y-8.45736 I-5.39673 J6.04031
G2 X-63.81093 Y-2.69791 I56.43342 J-50.91
G1 F300.0 X-65.41024 Y-0.90844
G2 F800.0 X-59.94122 Y3.55329 I52.24644 J-58.45893
G3 X-44.07104 Y16.0592 I-155.66352 J213.86199
G3 X-36.58891 Y9.34302 I5.53567 J-1.35882
G2 X-9.29033 Y14.16872 I27.41405 J-75.45328
G2 X-3.32796 Y5.98361 I-0.03841 J-6.29215
G2 X-4.15785 Y4.65805 I-137.32092 J85.04952
G3 X-4.14397 Y5.83583 I-14.58899 J0.76083
G3 X-4.8617 Y8.44624 I-5.69768 J-0.16268
G3 X-16.63594 Y13.68494 I-9.37538 J-5.2207
G3 X-16.74128 Y13.65972 I1.27421 J-5.55575
G3 X-56.50775 Y-0.80939 I49.0894 J-196.79681
G3 X-59.68627 Y-6.45996 I2.4971 J-5.12392
G3 X-73.59519 Y-13.48961 I661.29748 J-1325.72271
G2 X-72.3374 Y-7.69753 I15.19813 J-0.26775
G3 X-71.37924 Y-6.84976 I-3.27413 J4.66584
G2 X-65.41024 Y-0.90844 I58.21544 J-52.51761
G0 Z3.0
G0 X0.61849 Y66.0212
G0 Z1.0
G1 F300.0 Z-3.0
G2 F800.0 X3.76411 Y70.82933 I499.51444 J-323.36441
G3 X37.43491 Y36.59827 I172.18646 J135.69287
G2 X19.06524 Y52.87021 I85.10005 J114.57573
G2 X8.46957 Y65.01305 I139.5715 J132.48245
G3 X0.61849 Y66.0212 I-4.44798 J-3.56448
G0 Z3.0
G0 X107.56994 Y10.71747
G0 Z1.0
G1 F300.0 Z-3.0
G3 F800.0 X135.01674 Y22.09707 I-6.66475 J54.86458
G2 X134.30971 Y15.88772 I-150.67006 J14.01098
G2 X129.60691 Y14.02183 I-10.21163 J18.87813
G3 X129.48702 Y13.98859 I1.463 J-5.50905
G2 X107.56994 Y10.71747 I-23.16093 J80.12261
G1 F300.0 X107.28053 Y13.09996
G3 F800.0 X137.83969 Y27.75536 I-6.37534 J52.48209
G2 X136.52545 Y14.39419 I-153.49301 J8.35269
G2 X130.22291 Y11.70223 I-12.42737 J20.37165
G3 X130.1535 Y11.68299 I0.847 J-3.18945
G2 X82.23922 Y11.75843 I-23.82741 J82.42821
G3 X82.22937 Y11.7613 I-0.92639 J-3.1673
G2 X17.32493 Y51.21755 I40.30559 J139.41271
G2 X6.59673 Y63.51222 I141.31181 J134.13512
G3 X1.60414 Y63.69489 I-2.57514 J-2.06365
G3 X-40.61386 Y17.2888 I2179.5829 J-2025.28542
G1 X-40.86883 Y17.03383
G3 X-37.40848 Y11.59875 I2.33345 J-2.33345
G2 X-9.28539 Y16.56873 I28.23361 J-77.70901
G2 X-1.14202 Y4.95541 I-0.04335 J-8.69216
G2 X-23.48437 Y-23.61423 I-139.50686 J86.07772
G3 X-20.60208 Y-29.1804 I2.35865 J-2.30798
G1 X-2.54762 Y-26.27878
G3 X-0.27427 Y-24.77185 I-0.52364 J3.25819
G2 X24.15108 Y8.29392 I227.01687 J-142.14084
G2 X22.48445 Y3.79419 I-8.14302 J0.45754
G3 X22.45616 Y3.75669 I2.62046 J-2.00579
G2 X3.98407 Y-20.68748 I-1526.42531 J1134.29468
G3 X7.16604 Y-25.94942 I2.61669 J-2.01071
G2 X16.4401 Y-26.21379 I3.98709 J-22.93202
G3 X7.35919 Y-37.92095 I41.99417 J-41.94914
G3 X-2.90956 Y-37.77897 I-6.26797 J-81.91696
G3 X-5.32032 Y-39.00682 I0.1607 J-3.29608
G3 X-11.30373 Y-50.86149 I24.82648 J-19.96801
G3 X-11.40796 Y-51.87537 I3.19121 J-0.84036
G3 X-10.55134 Y-58.33196 I41.05417 J2.16164
G3 X-17.55009 Y-61.38088 I29.70565 J-77.74622
G3 X-17.68437 Y-61.45073 I1.45533 J-2.96176
G2 X-18.37247 Y-60.99193 I-0.22458 J0.40857
G2 X-12.33196 Y-43.11511 I83.44346 J-18.23628
G3 X-15.90428 Y-38.47154 I-2.99053 J1.39526
G1 X-37.50515 Y-42.34035
G3 X-39.49809 Y-43.52448 I0.58179 J-3.24831
G2 X-54.96286 Y-62.78159 I-11669.61087 J9355.65528
G2 X-58.1074 Y-62.65644 I-1.52002 J1.37545
G2 X-50.50448 Y-50.6014 I188.65792 J-110.55848
G3 X-50.47042 Y-50.55009 I-2.73239 J1.85042
G3 X-49.37839 Y-48.53038 I-11.90292 J7.74084
G3 X-53.40371 Y-44.05747 I-3.02025 J1.32969
G2 X-60.38632 Y-43.81739 I-3.15608 J9.87022
G2 X-60.4893 Y-40.21673 I3.55591 J1.90351
G3 X-60.21951 Y-39.3181 I-2.99364 J1.38858
G2 X-58.24421 Y-36.98879 I2.86892 J-0.43072
G3 X-49.41636 Y-35.86813 I1.45856 J23.8407
G2 X-35.8467 Y-32.35884 I84.8881 J-300.25333
G3 X-34.00422 Y-31.18259 I-0.75428 J3.21264
G2 X-11.31628 Y-4.26832 I391.73683 J-307.203
G3 X-6.543 Y5.76733 I-7.43056 J9.68721
G3 X-6.95852 Y7.27862 I-3.29866 J-0.09418
G3 X-16.09943 Y11.34567 I-7.27856 J-4.05308
G3 X-16.16042 Y11.33107 I0.7377 J-3.21649
G3 X-55.45634 Y-2.96683 I48.50854 J-194.46817
G3 X-56.79658 Y-7.7021 I1.44569 J-2.96648
G3 X-75.06671 Y-16.94254 I658.40779 J-1324.48057
G2 X-75.77 Y-16.57837 I-0.19583 J0.483
G2 X-74.20384 Y-6.01639 I17.37294 J2.821
G3 X-73.16126 Y-5.24215 I-1.4077 J2.98469
G2 X-61.3633 Y5.48664 I59.99746 J-54.12522
G3 X-6.35081 Y59.56421 I-154.24145 J211.92864
G3 X-6.18862 Y59.79979 I-2.63449 J1.98733
G2 X3.61483 Y74.93825 I506.32155 J-317.14301
G3 X3.65231 Y74.88821 I2.65977 J1.95336
G3 X39.26243 Y38.20539 I172.29827 J131.63399
G3 X39.29473 Y38.17949 I2.08032 J2.56169
G3 X88.67084 Y14.14924 I79.2923 J100.18285
G3 X88.68047 Y14.14693 I0.7727 J3.20826
G3 X107.28053 Y13.09996 I12.22472 J51.43512
G1 F300.0 X107.56994 Y10.71747
G1 Z-6.0
G3 F800.0 X135.01674 Y22.09707 I-6.66475 J54.86458
G2 X134.30971 Y15.88772 I-150.67006 J14.01098
G2 X129.60691 Y14.02183 I-10.21163 J18.87813
G3 X129.48702 Y13.98859 I1.463 J-5.50905
G2 X107.56994 Y10.71747 I-23.16093 J80.12261
G0 Z3.0
G0 X37.43491 Y36.59827
G0 Z-2.0
G1 F300.0 Z-6.0
G2 F800.0 X19.06524 Y52.87021 I85.10005 J114.57573
G2 X8.46957 Y65.01305 I139.5715 J132.48245
G3 X0.61849 Y66.0212 I-4.44798 J-3.56448
G2 X3.76411 Y70.82933 I499.51444 J-323.36441
G3 X37.43491 Y36.59827 I172.18646 J135.69287
G0 Z3.0
G0 X4.20484 Y-31.68427
G0 Z-2.0
G1 F300.0 Z-6.0
G3 F800.0 X4.17055 Y-31.7353 I54.22943 J-36.47865
G3 X0.30784 Y-31.68498 I-3.07932 J-88.10262
G3 X2.02934 Y-30.79709 I-3.37909 J8.66439
G3 X4.20484 Y-31.68427 I4.57142 J8.0989
G0 Z3.0
G0 X-7.6597 Y-33.17736
G0 Z-2.0
G1 F300.0 Z-6.0
G3 F800.0 X-9.38626 Y-34.56085 I4.91084 J-7.8977
G3 X-10.67826 Y-33.66249 I-5.93623 J-7.159
G1 X-7.6597 Y-33.17736
G0 Z3.0
G0 X-25.54828 Y-34.10334
G0 Z-2.0
G1 F300.0 Z-6.0
G1 F800.0 X-29.17982 Y-34.75377
G2 X-27.53119 Y-32.66461 I386.91242 J-303.63182
G3 X-25.54828 Y-34.10334 I6.40546 J6.74241
G1 F300.0 X-25.33672 Y-35.28455
G1 F800.0 X-34.12551 Y-36.85866
G3 X-30.22713 Y-34.14461 I-2.47546 J7.71246
G2 X-27.58674 Y-30.80742 I387.95974 J-304.24098
G3 X-19.84043 Y-33.91958 I6.46102 J4.88521
G1 X-1.78596 Y-31.01796
G3 X1.98116 Y-29.35171 I-1.2853 J7.99738
G3 X6.28521 Y-30.79204 I4.6196 J6.65352
G3 X4.79755 Y-32.96052 I52.14906 J-37.37088
G3 X-3.1433 Y-32.98467 I-3.70632 J-86.87739
G3 X-9.06063 Y-35.99849 I0.39445 J-8.09039
G3 X-9.30165 Y-36.30141 I28.56679 J-22.97635
G3 X-16.75051 Y-33.74672 I-6.02084 J-5.41844
G1 X-25.33672 Y-35.28455
G0 Z3.0
G0 X-45.07592 Y-40.88959
G0 Z-2.0
G1 F300.0 Z-6.0
G2 F800.0 X-45.30964 Y-41.18105 I-11664.03303 J9353.0204
G3 X-45.46982 Y-40.99734 I-7.089 J-6.01964
G2 X-45.07592 Y-40.88959 I80.94156 J-295.12411
G1 F300.0 X-44.13974 Y-41.64029
G2 F800.0 X-45.37014 Y-43.17451 I-11664.96922 J9353.7711
G3 X-47.93928 Y-40.43873 I-7.0285 J-4.02618
G2 X-40.93497 Y-38.55182 I83.41102 J-295.68273
G3 X-43.24313 Y-40.52204 I4.0116 J-7.03683
G2 X-44.13974 Y-41.64029 I-11665.86583 J9352.65284
G1 F300.0 X-42.26736 Y-43.1417
G2 F800.0 X-47.00659 Y-49.04886 I-11666.8416 J9355.2725
G3 X-54.13467 Y-41.77149 I-5.39205 J1.84817
G2 X-58.46374 Y-41.9188 I-2.42512 J7.58424
G2 X-58.31211 Y-41.2266 I1.63334 J0.00491
G3 X-57.84611 Y-39.67442 I-5.17082 J2.39845
G2 X-57.72567 Y-39.41656 I0.49552 J-0.07439
G3 X-48.72054 Y-38.16548 I0.94002 J26.26847
G2 X-35.29813 Y-34.6953 I84.19228 J-297.95597
G3 X-32.11568 Y-32.6636 I-1.30284 J5.54911
G2 X-26.82462 Y-26.03425 I389.84828 J-305.72199
G3 X-20.22126 Y-31.54999 I5.6989 J0.11205
G1 X-2.16679 Y-28.64837
G3 X1.75989 Y-26.04549 I-0.90447 J5.62778
G2 X1.8674 Y-25.87393 I224.98271 J-140.8672
G3 X7.57715 Y-28.31394 I4.73336 J3.17574
G2 X11.51374 Y-28.0085 I3.57598 J-20.56749
G3 X6.06691 Y-35.42803 I46.92053 J-40.15442
G3 X-3.02643 Y-35.38182 I-4.97569 J-84.40989
G3 X-7.19047 Y-37.50265 I0.27757 J-5.69324
G3 X-9.66676 Y-41.01083 I26.69664 J-21.47218
G3 X-16.32739 Y-36.10913 I-5.65573 J-0.70902
G1 X-37.92827 Y-39.97794
G3 X-41.37061 Y-42.02326 I1.0049 J-5.61072
G2 X-42.26736 Y-43.1417 I-11667.73835 J9354.15406
G0 Z3.0
G0 X-13.73094 Y-53.12444
G0 Z-2.0
G1 F300.0 Z-6.0
G3 F800.0 X-13.27891 Y-56.83021 I43.37715 J3.41072
G3 X-15.07166 Y-57.58781 I32.43322 J-79.24797
G2 X-13.73094 Y-53.12444 I80.14264 J-21.6404
G0 Z3.0
G0 X-45.16908 Y8.18241
G0 Z-2.0
G1 F300.0 Z-6.0
G3 F800.0 X-51.18417 Y5.63373 I77.5172 J-191.3195
G3 X-46.27238 Y9.54008 I-164.42058 J211.78155
G3 X-45.16908 Y8.18241 I7.73701 J5.1603
G0 Z3.0
G0 X-63.01128 Y-3.59265
G0 Z-2.0
G1 F300.0 Z-6.0
G3 F800.0 X-63.1403 Y-4.16148 I9.00063 J-2.34066
G3 X-64.23278 Y-4.70889 I664.75152 J-1328.02119
G2 X-63.01128 Y-3.59265 I51.06898 J-54.65848
G1 F300.0 X-63.81093 Y-2.69791
G2 F800.0 X-58.51896 Y1.62008 I50.64713 J-56.66946
G3 X-45.92254 Y11.37775 I-157.08579 J215.79521
G3 X-42.82204 Y7.82764 I7.38716 J3.32263
G3 X-57.55915 Y1.34804 I75.17016 J-190.96474
G3 X-62.0518 Y-4.95871 I3.54851 J-7.28135
G3 X-70.21481 Y-9.072 I663.66301 J-1327.22396
G3 X-69.59722 Y-8.45736 I-5.39673 J6.04031
G2 X-63.81093 Y-2.69791 I56.43342 J-50.91
G1 F300.0 X-65.41024 Y-0.90844
G2 F800.0 X-59.94122 Y3.55329 I52.24644 J-58.45893
G3 X-44.07104 Y16.0592 I-155.66352 J213.86199
G3 X-36.58891 Y9.34302 I5.53567 J-1.35882
G2 X-9.29033 Y14.16872 I27.41405 J-75.45328
G2 X-3.32796 Y5.98361 I-0.03841 J-6.29215
G2 X-4.15785 Y4.65805 I-137.32092 J85.04952
G3 X-4.14397 Y5.83583 I-14.58899 J0.76083
G3 X-4.8617 Y8.44624 I-5.69768 J-0.16268
G3 X-16.63594 Y13.68494 I-9.37538 J-5.2207
G3 X-16.74128 Y13.65972 I1.27421 J-5.55575
G3 X-56.50775 Y-0.80939 I49.0894 J-196.79681
G3 X-59.68627 Y-6.45996 I2.4971 J-5.12392
G3 X-73.59519 Y-13.48961 I661.29748 J-1325.72271
G2 X-72.3374 Y-7.69753 I15.19813 J-0.26775
G3 X-71.37924 Y-6.84976 I-3.27413 J4.66584
G2 X-65.41024 Y-0.90844 I58.21544 J-52.51761
G1 F300.0 X-67.00954 Y0.88104
G2 F800.0 X-61.3633 Y5.48664 I53.84574 J-60.24841
G3 X-6.35081 Y59.56421 I-154.24145 J211.92864
G3 X-6.18862 Y59.79979 I-2.63449 J1.98733
G2 X3.61483 Y74.93825 I506.32155 J-317.14301
G3 X3.65231 Y74.88821 I2.65977 J1.95336
G3 X39.26243 Y38.20539 I172.29827 J131.63399
G3 X39.29473 Y38.17949 I2.08032 J2.56169
G3 X88.67084 Y14.14924 I79.2923 J100.18285
G3 X88.68047 Y14.14693 I0.7727 J3.20826
G3 X137.83969 Y27.75536 I12.22472 J51.43512
G2 X136.52545 Y14.39419 I-153.49301 J8.35269
G2 X130.22291 Y11.70223 I-12.42737 J20.37165
G3 X130.1535 Y11.68299 I0.847 J-3.18945
G2 X82.23922 Y11.75843 I-23.82741 J82.42821
G3 X82.22937 Y11.7613 I-0.92639 J-3.1673
G2 X17.32493 Y51.21755 I40.30559 J139.41271
G2 X6.59673 Y63.51222 I141.31181 J134.13512
G3 X1.60414 Y63.69489 I-2.57514 J-2.06365
G3 X-40.61386 Y17.2888 I2179.5829 J-2025.28542
G1 X-40.86883 Y17.03383
G3 X-37.40848 Y11.59875 I2.33345 J-2.33345
G2 X-9.28539 Y16.56873 I28.23361 J-77.70901
G2 X-1.14202 Y4.95541 I-0.04335 J-8.69216
G2 X-23.48437 Y-23.61423 I-139.50686 J86.07772
G3 X-20.60208 Y-29.1804 I2.35865 J-2.30798
G1 X-2.54762 Y-26.27878
G3 X-0.27427 Y-24.77185 I-0.52364 J3.25819
G2 X24.15108 Y8.29392 I227.01687 J-142.14084
G2 X22.48445 Y3.79419 I-8.14302 J0.45754
G3 X22.45616 Y3.75669 I2.62046 J-2.00579
G2 X3.98407 Y-20.68748 I-1526.42531 J1134.29468
G3 X7.16604 Y-25.94942 I2.61669 J-2.01071
G2 X16.4401 Y-26.21379 I3.98709 J-22.93202
G3 X7.35919 Y-37.92095 I41.99417 J-41.94914
G3 X-2.90956 Y-37.77897 I-6.26797 J-81.91696
G3 X-5.32032 Y-39.00682 I0.1607 J-3.29608
G3 X-11.30373 Y-50.86149 I24.82648 J-19.96801
G3 X-11.40796 Y-51.87537 I3.19121 J-0.84036
G3 X-10.55134 Y-58.33196 I41.05417 J2.16164
G3 X-17.55009 Y-61.38088 I29.70565 J-77.74622
G3 X-17.68437 Y-61.45073 I1.45533 J-2.96176
G2 X-18.37247 Y-60.99193 I-0.22458 J0.40857
G2 X-12.33196 Y-43.11511 I83.44346 J-18.23628
G3 X-15.90428 Y-38.47154 I-2.99053 J1.39526
G1 X-37.50515 Y-42.34035
G3 X-39.49809 Y-43.52448 I0.58179 J-3.24831
G2 X-54.96286 Y-62.78159 I-11669.61087 J9355.65528
G2 X-58.1074 Y-62.65644 I-1.52002 J1.37545
G2 X-50.50448 Y-50.6014 I188.65792 J-110.55848
G3 X-50.47042 Y-50.55009 I-2.73239 J1.85042
G3 X-49.37839 Y-48.53038 I-11.90292 J7.74084
G3 X-53.40371 Y-44.05747 I-3.02025 J1.32969
G2 X-60.38632 Y-43.81739 I-3.15608 J9.87022
G2 X-60.4893 Y-40.21673 I3.55591 J1.90351
G3 X-60.21951 Y-39.3181 I-2.99364 J1.38858
G2 X-58.24421 Y-36.98879 I2.86892 J-0.43072
G3 X-49.41636 Y-35.86813 I1.45856 J23.8407
G2 X-35.8467 Y-32.35884 I84.8881 J-300.25333
G3 X-34.00422 Y-31.18259 I-0.75428 J3.21264
G2 X-11.31628 Y-4.26832 I391.73683 J-307.203
G3 X-6.543 Y5.76733 I-7.43056 J9.68721
G3 X-6.95852 Y7.27862 I-3.29866 J-0.09418
G3 X-16.09943 Y11.34567 I-7.27856 J-4.05308
G3 X-16.16042 Y11.33107 I0.7377 J-3.21649
G3 X-55.45634 Y-2.96683 I48.50854 J-194.46817
G3 X-56.79658 Y-7.7021 I1.44569 J-2.96648
G3 X-75.06671 Y-16.94254 I658.40779 J-1324.48057
G2 X-75.77 Y-16.57837 I-0.19583 J0.483
G2 X-74.20384 Y-6.01639 I17.37294 J2.821
G3 X-73.16126 Y-5.24215 I-1.4077 J2.98469
G2 X-67.00954 Y0.88104 I59.99746 J-54.12522
( ProfilHof3 )
G0 Z3.0
( T3 : 3.0 )
T3 M6
M3 S1000
G0 X60.24296 Y-51.15586
G0 Z1.0
G1 F300.0 Z-2.0
G3 F800.0 X54.39643 Y-51.00018 I-2.95988 J-1.2971
G2 X44.31013 Y-53.56074 I-10.23485 J19.17037
G3 X42.95224 Y-54.25351 I0.01162 J-1.69996
G2 X26.65082 Y-63.22504 I-17.84032 J13.12042
G2 X16.94623 Y-55.25834 I1.74519 J12.02004
G2 X23.14218 Y-30.70414 I22.09562 J7.48327
G3 X23.18241 Y-30.66543 I-1.15865 J1.244
G2 X45.14766 Y-20.19727 I25.87399 J-26.01234
G3 X45.58636 Y-20.08992 I-0.18111 J1.69033
G2 X49.99971 Y-22.3603 I1.20607 J-3.08025
G2 X48.51061 Y-24.02775 I-2.46468 J0.70242
G3 X48.62234 Y-27.21325 I0.64714 J-1.57201
G2 X51.97757 Y-32.22315 I-1.54808 J-4.66526
G2 X47.96767 Y-45.77969 I-37.91997 J3.84507
G3 X49.80465 Y-48.22459 I1.51248 J-0.77616
G3 X60.38514 Y-43.02821 I-4.30419 J22.13367
G3 X79.0125 Y-21.52073 I-27.7724 J42.87352
G3 X79.09411 Y-21.30657 I-1.54415 J0.71105
G2 X90.21097 Y-0.62098 I57.50854 J-17.57627
G3 X90.31514 Y-0.48054 I-1.31149 J1.08166
G2 X95.39624 Y1.49183 I3.94031 J-2.61978
G2 X94.84428 Y-8.17031 I-7.94093 J-4.39319
G3 X94.78601 Y-8.2576 I1.38413 J-0.987
G1 X74.4747 Y-40.82014
G3 X74.71538 Y-42.9223 I1.4424 J-0.89972
G2 X80.83792 Y-51.49387 I-22.60516 J-22.61893
G3 X83.32822 Y-52.14797 I1.5272 J0.74677
G1 X97.02742 Y-42.72977
G1 X97.48467 Y-43.91863
G2 X83.77052 Y-54.75649 I-44.17215 J41.79933
G3 X82.92776 Y-56.3684 I0.85142 J-1.47142
G2 X72.08863 Y-83.0686 I-31.80757 J-2.63771
G3 X71.95286 Y-83.20094 I1.11685 J-1.28165
G2 X60.10672 Y-90.26774 I-17.74179 J16.27843
G2 X55.72397 Y-85.70121 I1.53094 J5.85578
G2 X57.65799 Y-64.15755 I35.69823 J7.65393
G3 X61.54425 Y-54.9762 I-496.5847 J215.60642
G3 X60.24296 Y-51.15586 I-2.49262 J1.28276
G1 F300.0 Z-4.0
G3 F800.0 X54.39643 Y-51.00018 I-2.95988 J-1.2971
G2 X44.31013 Y-53.56074 I-10.23485 J19.17037
G3 X42.95224 Y-54.25351 I0.01162 J-1.69996
G2 X26.65082 Y-63.22504 I-17.84032 J13.12042
G2 X16.94623 Y-55.25834 I1.74519 J12.02004
G2 X23.14218 Y-30.70414 I22.09562 J7.48327
G3 X23.18241 Y-30.66543 I-1.15865 J1.244
G2 X45.14766 Y-20.19727 I25.87399 J-26.01234
G3 X45.58636 Y-20.08992 I-0.18111 J1.69033
G2 X49.99971 Y-22.3603 I1.20607 J-3.08025
G2 X48.51061 Y-24.02775 I-2.46468 J0.70242
G3 X48.62234 Y-27.21325 I0.64714 J-1.57201
G2 X51.97757 Y-32.22315 I-1.54808 J-4.66526
G2 X47.96767 Y-45.77969 I-37.91997 J3.84507
G3 X49.80465 Y-48.22459 I1.51248 J-0.77616
G3 X60.38514 Y-43.02821 I-4.30419 J22.13367
G3 X79.0125 Y-21.52073 I-27.7724 J42.87352
G3 X79.09411 Y-21.30657 I-1.54415 J0.71105
G2 X90.21097 Y-0.62098 I57.50854 J-17.57627
G3 X90.31514 Y-0.48054 I-1.31149 J1.08166
G2 X95.39624 Y1.49183 I3.94031 J-2.61978
G2 X94.84428 Y-8.17031 I-7.94093 J-4.39319
G3 X94.78601 Y-8.2576 I1.38413 J-0.987
G1 X74.4747 Y-40.82014
G3 X74.71538 Y-42.9223 I1.4424 J-0.89972
G2 X80.83792 Y-51.49387 I-22.60516 J-22.61893
G3 X83.32822 Y-52.14797 I1.5272 J0.74677
G1 X97.02742 Y-42.72977
G1 X97.48467 Y-43.91863
G2 X83.77052 Y-54.75649 I-44.17215 J41.79933
G3 X82.92776 Y-56.3684 I0.85142 J-1.47142
G2 X72.08863 Y-83.0686 I-31.80757 J-2.63771
G3 X71.95286 Y-83.20094 I1.11685 J-1.28165
G2 X60.10672 Y-90.26774 I-17.74179 J16.27843
G2 X55.72397 Y-85.70121 I1.53094 J5.85578
G2 X57.65799 Y-64.15755 I35.69823 J7.65393
G3 X61.54425 Y-54.9762 I-496.5847 J215.60642
G3 X60.24296 Y-51.15586 I-2.49262 J1.28276
G1 F300.0 Z-6.0
G3 F800.0 X54.39643 Y-51.00018 I-2.95988 J-1.2971
G2 X44.31013 Y-53.56074 I-10.23485 J19.17037
G3 X42.95224 Y-54.25351 I0.01162 J-1.69996
G2 X26.65082 Y-63.22504 I-17.84032 J13.12042
G2 X16.94623 Y-55.25834 I1.74519 J12.02004
G2 X23.14218 Y-30.70414 I22.09562 J7.48327
G3 X23.18241 Y-30.66543 I-1.15865 J1.244
G2 X45.14766 Y-20.19727 I25.87399 J-26.01234
G3 X45.58636 Y-20.08992 I-0.18111 J1.69033
G2 X49.99971 Y-22.3603 I1.20607 J-3.08025
G2 X48.51061 Y-24.02775 I-2.46468 J0.70242
G3 X48.62234 Y-27.21325 I0.64714 J-1.57201
G2 X51.97757 Y-32.22315 I-1.54808 J-4.66526
G2 X47.96767 Y-45.77969 I-37.91997 J3.84507
G3 X49.80465 Y-48.22459 I1.51248 J-0.77616
G3 X60.38514 Y-43.02821 I-4.30419 J22.13367
G3 X79.0125 Y-21.52073 I-27.7724 J42.87352
G3 X79.09411 Y-21.30657 I-1.54415 J0.71105
G2 X90.21097 Y-0.62098 I57.50854 J-17.57627
G3 X90.31514 Y-0.48054 I-1.31149 J1.08166
G2 X95.39624 Y1.49183 I3.94031 J-2.61978
G2 X94.84428 Y-8.17031 I-7.94093 J-4.39319
G3 X94.78601 Y-8.2576 I1.38413 J-0.987
G1 X74.4747 Y-40.82014
G3 X74.71538 Y-42.9223 I1.4424 J-0.89972
G2 X80.83792 Y-51.49387 I-22.60516 J-22.61893
G3 X83.32822 Y-52.14797 I1.5272 J0.74677
G1 X97.02742 Y-42.72977
G1 X97.48467 Y-43.91863
G2 X83.77052 Y-54.75649 I-44.17215 J41.79933
G3 X82.92776 Y-56.3684 I0.85142 J-1.47142
G2 X72.08863 Y-83.0686 I-31.80757 J-2.63771
G3 X71.95286 Y-83.20094 I1.11685 J-1.28165
G2 X60.10672 Y-90.26774 I-17.74179 J16.27843
G2 X55.72397 Y-85.70121 I1.53094 J5.85578
G2 X57.65799 Y-64.15755 I35.69823 J7.65393
G3 X61.54425 Y-54.9762 I-496.5847 J215.60642
G3 X60.24296 Y-51.15586 I-2.49262 J1.28276
G0 Z3.0
G0 X66.63226 Y-57.30581
G0 Z1.0
G1 F300.0 Z-2.0
G3 F800.0 X66.52908 Y-57.42338 I1.2248 J-1.17892
G3 X61.97102 Y-77.81738 I18.59649 J-14.86268
G3 X62.01259 Y-77.96255 I1.65348 J0.39499
G3 X64.47392 Y-83.23189 I24.31535 J8.14827
G3 X66.90054 Y-83.733 I1.44874 J0.88947
G3 X77.92696 Y-58.92354 I-15.1954 J21.60856
G3 X75.97944 Y-57.44953 I-1.68747 J-0.20599
G2 X68.37098 Y-56.86428 I-2.55637 J16.51511
G3 X66.63226 Y-57.30581 I-0.51392 J-1.62046
G1 F300.0 Z-4.0
G3 F800.0 X66.52908 Y-57.42338 I1.2248 J-1.17892
G3 X61.97102 Y-77.81738 I18.59649 J-14.86268
G3 X62.01259 Y-77.96255 I1.65348 J0.39499
G3 X64.47392 Y-83.23189 I24.31535 J8.14827
G3 X66.90054 Y-83.733 I1.44874 J0.88947
G3 X77.92696 Y-58.92354 I-15.1954 J21.60856
G3 X75.97944 Y-57.44953 I-1.68747 J-0.20599
G2 X68.37098 Y-56.86428 I-2.55637 J16.51511
G3 X66.63226 Y-57.30581 I-0.51392 J-1.62046
G1 F300.0 Z-6.0
G3 F800.0 X66.52908 Y-57.42338 I1.2248 J-1.17892
G3 X61.97102 Y-77.81738 I18.59649 J-14.86268
G3 X62.01259 Y-77.96255 I1.65348 J0.39499
G3 X64.47392 Y-83.23189 I24.31535 J8.14827
G3 X66.90054 Y-83.733 I1.44874 J0.88947
G3 X77.92696 Y-58.92354 I-15.1954 J21.60856
G3 X75.97944 Y-57.44953 I-1.68747 J-0.20599
G2 X68.37098 Y-56.86428 I-2.55637 J16.51511
G3 X66.63226 Y-57.30581 I-0.51392 J-1.62046
G0 Z3.0
G0 X38.57029 Y-51.41857
G0 Z1.0
G1 F300.0 Z-2.0
G3 F800.0 X38.51528 Y-50.52009 I-1.66378 J0.34905
G2 X39.93678 Y-35.25947 I17.70655 J6.04718
G3 X39.9457 Y-35.2435 I-1.47961 J0.83711
G2 X41.27454 Y-32.90784 I89.40053 J-49.31716
G3 X39.27606 Y-30.43322 I-1.46641 J0.86003
G3 X23.7133 Y-42.42191 I9.26923 J-28.12808
G3 X20.90429 Y-53.82201 I10.61867 J-8.66258
G3 X21.25837 Y-54.56386 I1.66574 J0.33959
G3 X33.26845 Y-56.31223 I6.96872 J5.74562
G3 X33.34612 Y-56.25675 I-0.94889 J1.41053
G3 X38.05736 Y-52.32074 I-38.91426 J51.3663
G3 X38.57029 Y-51.41857 I-1.15085 J1.25122
G1 F300.0 Z-4.0
G3 F800.0 X38.51528 Y-50.52009 I-1.66378 J0.34905
G2 X39.93678 Y-35.25947 I17.70655 J6.04718
G3 X39.9457 Y-35.2435 I-1.47961 J0.83711
G2 X41.27454 Y-32.90784 I89.40053 J-49.31716
G3 X39.27606 Y-30.43322 I-1.46641 J0.86003
G3 X23.7133 Y-42.42191 I9.26923 J-28.12808
G3 X20.90429 Y-53.82201 I10.61867 J-8.66258
G3 X21.25837 Y-54.56386 I1.66574 J0.33959
G3 X33.26845 Y-56.31223 I6.96872 J5.74562
G3 X33.34612 Y-56.25675 I-0.94889 J1.41053
G3 X38.05736 Y-52.32074 I-38.91426 J51.3663
G3 X38.57029 Y-51.41857 I-1.15085 J1.25122
G1 F300.0 Z-6.0
G3 F800.0 X38.51528 Y-50.52009 I-1.66378 J0.34905
G2 X39.93678 Y-35.25947 I17.70655 J6.04718
G3 X39.9457 Y-35.2435 I-1.47961 J0.83711
G2 X41.27454 Y-32.90784 I89.40053 J-49.31716
G3 X39.27606 Y-30.43322 I-1.46641 J0.86003
G3 X23.7133 Y-42.42191 I9.26923 J-28.12808
G3 X20.90429 Y-53.82201 I10.61867 J-8.66258
G3 X21.25837 Y-54.56386 I1.66574 J0.33959
G3 X33.26845 Y-56.31223 I6.96872 J5.74562
G3 X33.34612 Y-56.25675 I-0.94889 J1.41053
G3 X38.05736 Y-52.32074 I-38.91426 J51.3663
G3 X38.57029 Y-51.41857 I-1.15085 J1.25122
G0 Z3.0
G0 X14.27378 Y-30.9378
G0 Z1.0
G1 F300.0 Z-2.0
G3 F800.0 X8.23512 Y-39.59889 I44.16049 J-37.22512
G3 X-2.83164 Y-39.37707 I-7.14389 J-80.23902
G3 X-4.07355 Y-40.0096 I0.08279 J-1.69798
G3 X-9.75648 Y-51.26894 I23.57971 J-18.96523
G3 X-9.81017 Y-51.79124 I1.64395 J-0.43291
G3 X-8.67417 Y-59.34027 I39.45638 J2.07751
G3 X-16.84448 Y-62.81688 I27.82848 J-76.73791
G3 X-16.91365 Y-62.85286 I0.74972 J-1.52575
G2 X-19.94743 Y-60.70465 I-0.9953 J1.81071
G2 X-13.78192 Y-42.43862 I85.01842 J-18.52356
G3 X-15.6222 Y-40.04648 I-1.54057 J0.71877
G1 X-37.22308 Y-43.91528
G3 X-38.24974 Y-44.52529 I0.29971 J-1.67337
G2 X-53.74112 Y-63.81548 I-11670.85922 J9356.6561
G2 X-59.93011 Y-62.60565 I-2.74176 J2.40935
G2 X-51.82927 Y-49.70423 I190.48062 J-110.60927
G3 X-51.81173 Y-49.67779 I-1.40759 J0.95325
G3 X-50.84275 Y-47.88568 I-10.56161 J6.86855
G3 X-52.9164 Y-45.58145 I-1.55589 J0.68499
G2 X-61.4833 Y-45.0896 I-3.64338 J11.3942
G2 X-61.94076 Y-39.54348 I4.6529 J3.17571
G3 X-61.80178 Y-39.08055 I-1.54218 J0.71533
G2 X-58.4097 Y-35.37411 I4.45119 J-0.66827
G3 X-49.88154 Y-34.33693 I1.62406 J22.22602
G2 X-36.21241 Y-30.80119 I85.35328 J-301.78452
G3 X-35.26325 Y-30.19524 I-0.38857 J1.655
G2 X-12.40156 Y-3.08314 I392.99586 J-308.19034
G3 X-8.14235 Y5.72166 I-6.34528 J8.50202
G3 X-8.3564 Y6.50021 I-1.69931 J-0.04852
G3 X-15.74176 Y9.78616 I-5.88068 J-3.27467
G3 X-15.77317 Y9.77864 I0.38003 J-1.65698
G3 X-54.7554 Y-4.40512 I48.1213 J-192.91573
G3 X-54.70424 Y-7.48538 I0.74475 J-1.52819
G2 X-54.76126 Y-8.49995 I-0.22184 J-0.49642
G3 X-55.00143 Y-8.59706 I0.51532 J-1.62002
G3 X-74.37714 Y-18.38711 I656.61264 J-1323.58561
G2 X-77.34324 Y-16.87201 I-0.88539 J1.92757
G2 X-75.33153 Y-4.70847 I18.94618 J3.11465
G3 X-74.34927 Y-4.17041 I-0.28001 J1.67678
G2 X-62.31124 Y6.77562 I61.18547 J-55.19695
G3 X-7.62814 Y60.52776 I-153.29351 J210.63966
G3 X-7.54458 Y60.64912 I-1.35716 J1.02378
G2 X3.43169 Y77.53507 I507.67752 J-317.99234
G2 X4.65394 Y76.37831 I-0.43219 J-1.68076
G3 X4.92372 Y75.85956 I1.62065 J0.5133
G3 X40.27107 Y39.44742 I171.02686 J130.66264
G3 X40.28771 Y39.43408 I1.07168 J1.31966
G3 X89.04548 Y15.70476 I78.29932 J98.92826
G3 X89.05044 Y15.70357 I0.39806 J1.65274
G3 X139.61147 Y31.96328 I11.85475 J49.87848
G2 X138.00296 Y13.43465 I-155.2648 J4.14477
G2 X130.63357 Y10.15583 I-13.90487 J21.33119
G3 X130.59782 Y10.14592 I0.43633 J-1.64305
G2 X81.79007 Y10.22277 I-24.27173 J83.96528
G3 X81.78499 Y10.22425 I-0.47723 J-1.63164
G2 X16.16472 Y50.11577 I40.74996 J140.94976
G2 X5.34818 Y62.51166 I142.47202 J135.2369
G3 X2.77624 Y62.60576 I-1.32659 J-1.06309
G3 X-39.4498 Y16.19012 I2178.4108 J-2024.1963
G1 X-39.73746 Y15.90246
G3 X-37.95485 Y13.10257 I1.20208 J-1.20208
G2 X-9.28266 Y18.16873 I28.77998 J-79.21283
G2 X0.3046 Y4.25308 I-0.04608 J-10.29217
G2 X-22.34079 Y-24.73325 I-140.95347 J86.78005
G3 X-20.85597 Y-27.60067 I1.21506 J-1.18896
G1 X-2.8015 Y-24.69905
G3 X-1.63039 Y-23.92275 I-0.26975 J1.67846
G2 X22.9626 Y9.36565 I228.37299 J-142.98994
G3 X23.33779 Y10.11531 I-1.2857 J1.11219
G2 X25.30077 Y11.72172 I1.99519 J-0.4355
G2 X23.75497 Y2.82169 I-9.29271 J-2.97026
G3 X23.7404 Y2.80237 I1.34993 J-1.03329
G2 X5.25277 Y-21.66237 I-1527.70954 J1135.249
G3 X6.89196 Y-24.37307 I1.34799 J-1.03582
G2 X19.54267 Y-25.46278 I4.26117 J-24.50837
G3 X14.27378 Y-30.9378 I38.8916 J-42.70014
G1 F300.0 Z-4.0
G3 F800.0 X8.23512 Y-39.59889 I44.16049 J-37.22512
G3 X-2.83164 Y-39.37707 I-7.14389 J-80.23902
G3 X-4.07355 Y-40.0096 I0.08279 J-1.69798
G3 X-9.75648 Y-51.26894 I23.57971 J-18.96523
G3 X-9.81017 Y-51.79124 I1.64395 J-0.43291
G3 X-8.67417 Y-59.34027 I39.45638 J2.07751
G3 X-16.84448 Y-62.81688 I27.82848 J-76.73791
G3 X-16.91365 Y-62.85286 I0.74972 J-1.52575
G2 X-19.94743 Y-60.70465 I-0.9953 J1.81071
G2 X-13.78192 Y-42.43862 I85.01842 J-18.52356
G3 X-15.6222 Y-40.04648 I-1.54057 J0.71877
G1 X-37.22308 Y-43.91528
G3 X-38.24974 Y-44.52529 I0.29971 J-1.67337
G2 X-53.74112 Y-63.81548 I-11670.85922 J9356.6561
G2 X-59.93011 Y-62.60565 I-2.74176 J2.40935
G2 X-51.82927 Y-49.70423 I190.48062 J-110.60927
G3 X-51.81173 Y-49.67779 I-1.40759 J0.95325
G3 X-50.84275 Y-47.88568 I-10.56161 J6.86855
G3 X-52.9164 Y-45.58145 I-1.55589 J0.68499
G2 X-61.4833 Y-45.0896 I-3.64338 J11.3942
G2 X-61.94076 Y-39.54348 I4.6529 J3.17571
G3 X-61.80178 Y-39.08055 I-1.54218 J0.71533
G2 X-58.4097 Y-35.37411 I4.45119 J-0.66827
G3 X-49.88154 Y-34.33693 I1.62406 J22.22602
G2 X-36.21241 Y-30.80119 I85.35328 J-301.78452
G3 X-35.26325 Y-30.19524 I-0.38857 J1.655
G2 X-12.40156 Y-3.08314 I392.99586 J-308.19034
G3 X-8.14235 Y5.72166 I-6.34528 J8.50202
G3 X-8.3564 Y6.50021 I-1.69931 J-0.04852
G3 X-15.74176 Y9.78616 I-5.88068 J-3.27467
G3 X-15.77317 Y9.77864 I0.38003 J-1.65698
G3 X-54.7554 Y-4.40512 I48.1213 J-192.91573
G3 X-54.70424 Y-7.48538 I0.74475 J-1.52819
G2 X-54.76126 Y-8.49995 I-0.22184 J-0.49642
G3 X-55.00143 Y-8.59706 I0.51532 J-1.62002
G3 X-74.37714 Y-18.38711 I656.61264 J-1323.58561
G2 X-77.34324 Y-16.87201 I-0.88539 J1.92757
G2 X-75.33153 Y-4.70847 I18.94618 J3.11465
G3 X-74.34927 Y-4.17041 I-0.28001 J1.67678
G2 X-62.31124 Y6.77562 I61.18547 J-55.19695
G3 X-7.62814 Y60.52776 I-153.29351 J210.63966
G3 X-7.54458 Y60.64912 I-1.35716 J1.02378
G2 X3.43169 Y77.53507 I507.67752 J-317.99234
G2 X4.65394 Y76.37831 I-0.43219 J-1.68076
G3 X4.92372 Y75.85956 I1.62065 J0.5133
G3 X40.27107 Y39.44742 I171.02686 J130.66264
G3 X40.28771 Y39.43408 I1.07168 J1.31966
G3 X89.04548 Y15.70476 I78.29932 J98.92826
G3 X89.05044 Y15.70357 I0.39806 J1.65274
G3 X139.61147 Y31.96328 I11.85475 J49.87848
G2 X138.00296 Y13.43465 I-155.2648 J4.14477
G2 X130.63357 Y10.15583 I-13.90487 J21.33119
G3 X130.59782 Y10.14592 I0.43633 J-1.64305
G2 X81.79007 Y10.22277 I-24.27173 J83.96528
G3 X81.78499 Y10.22425 I-0.47723 J-1.63164
G2 X16.16472 Y50.11577 I40.74996 J140.94976
G2 X5.34818 Y62.51166 I142.47202 J135.2369
G3 X2.77624 Y62.60576 I-1.32659 J-1.06309
G3 X-39.4498 Y16.19012 I2178.4108 J-2024.1963
G1 X-39.73746 Y15.90246
G3 X-37.95485 Y13.10257 I1.20208 J-1.20208
G2 X-9.28266 Y18.16873 I28.77998 J-79.21283
G2 X0.3046 Y4.25308 I-0.04608 J-10.29217
G2 X-22.34079 Y-24.73325 I-140.95347 J86.78005
G3 X-20.85597 Y-27.60067 I1.21506 J-1.18896
G1 X-2.8015 Y-24.69905
G3 X-1.63039 Y-23.92275 I-0.26975 J1.67846
G2 X22.9626 Y9.36565 I228.37299 J-142.98994
G3 X23.33779 Y10.11531 I-1.2857 J1.11219
G2 X25.30077 Y11.72172 I1.99519 J-0.4355
G2 X23.75497 Y2.82169 I-9.29271 J-2.97026
G3 X23.7404 Y2.80237 I1.34993 J-1.03329
G2 X5.25277 Y-21.66237 I-1527.70954 J1135.249
G3 X6.89196 Y-24.37307 I1.34799 J-1.03582
G2 X19.54267 Y-25.46278 I4.26117 J-24.50837
G3 X14.27378 Y-30.9378 I38.8916 J-42.70014
G1 F300.0 Z-6.0
G3 F800.0 X8.23512 Y-39.59889 I44.16049 J-37.22512
G3 X-2.83164 Y-39.37707 I-7.14389 J-80.23902
G3 X-4.07355 Y-40.0096 I0.08279 J-1.69798
G3 X-9.75648 Y-51.26894 I23.57971 J-18.96523
G3 X-9.81017 Y-51.79124 I1.64395 J-0.43291
G3 X-8.67417 Y-59.34027 I39.45638 J2.07751
G3 X-16.84448 Y-62.81688 I27.82848 J-76.73791
G3 X-16.91365 Y-62.85286 I0.74972 J-1.52575
G2 X-19.94743 Y-60.70465 I-0.9953 J1.81071
G2 X-13.78192 Y-42.43862 I85.01842 J-18.52356
G3 X-15.6222 Y-40.04648 I-1.54057 J0.71877
G1 X-37.22308 Y-43.91528
G3 X-38.24974 Y-44.52529 I0.29971 J-1.67337
G2 X-53.74112 Y-63.81548 I-11670.85922 J9356.6561
G2 X-59.93011 Y-62.60565 I-2.74176 J2.40935
G2 X-51.82927 Y-49.70423 I190.48062 J-110.60927
G3 X-51.81173 Y-49.67779 I-1.40759 J0.95325
G3 X-50.84275 Y-47.88568 I-10.56161 J6.86855
G3 X-52.9164 Y-45.58145 I-1.55589 J0.68499
G2 X-61.4833 Y-45.0896 I-3.64338 J11.3942
G2 X-61.94076 Y-39.54348 I4.6529 J3.17571
G3 X-61.80178 Y-39.08055 I-1.54218 J0.71533
G2 X-58.4097 Y-35.37411 I4.45119 J-0.66827
G3 X-49.88154 Y-34.33693 I1.62406 J22.22602
G2 X-36.21241 Y-30.80119 I85.35328 J-301.78452
G3 X-35.26325 Y-30.19524 I-0.38857 J1.655
G2 X-12.40156 Y-3.08314 I392.99586 J-308.19034
G3 X-8.14235 Y5.72166 I-6.34528 J8.50202
G3 X-8.3564 Y6.50021 I-1.69931 J-0.04852
G3 X-15.74176 Y9.78616 I-5.88068 J-3.27467
G3 X-15.77317 Y9.77864 I0.38003 J-1.65698
G3 X-54.7554 Y-4.40512 I48.1213 J-192.91573
G3 X-54.70424 Y-7.48538 I0.74475 J-1.52819
G2 X-54.76126 Y-8.49995 I-0.22184 J-0.49642
G3 X-55.00143 Y-8.59706 I0.51532 J-1.62002
G3 X-74.37714 Y-18.38711 I656.61264 J-1323.58561
G2 X-77.34324 Y-16.87201 I-0.88539 J1.92757
G2 X-75.33153 Y-4.70847 I18.94618 J3.11465
G3 X-74.34927 Y-4.17041 I-0.28001 J1.67678
G2 X-62.31124 Y6.77562 I61.18547 J-55.19695
G3 X-7.62814 Y60.52776 I-153.29351 J210.63966
G3 X-7.54458 Y60.64912 I-1.35716 J1.02378
G2 X3.43169 Y77.53507 I507.67752 J-317.99234
G2 X4.65394 Y76.37831 I-0.43219 J-1.68076
G3 X4.92372 Y75.85956 I1.62065 J0.5133
G3 X40.27107 Y39.44742 I171.02686 J130.66264
G3 X40.28771 Y39.43408 I1.07168 J1.31966
G3 X89.04548 Y15.70476 I78.29932 J98.92826
G3 X89.05044 Y15.70357 I0.39806 J1.65274
G3 X139.61147 Y31.96328 I11.85475 J49.87848
G2 X138.00296 Y13.43465 I-155.2648 J4.14477
G2 X130.63357 Y10.15583 I-13.90487 J21.33119
G3 X130.59782 Y10.14592 I0.43633 J-1.64305
G2 X81.79007 Y10.22277 I-24.27173 J83.96528
G3 X81.78499 Y10.22425 I-0.47723 J-1.63164
G2 X16.16472 Y50.11577 I40.74996 J140.94976
G2 X5.34818 Y62.51166 I142.47202 J135.2369
G3 X2.77624 Y62.60576 I-1.32659 J-1.06309
G3 X-39.4498 Y16.19012 I2178.4108 J-2024.1963
G1 X-39.73746 Y15.90246
G3 X-37.95485 Y13.10257 I1.20208 J-1.20208
G2 X-9.28266 Y18.16873 I28.77998 J-79.21283
G2 X0.3046 Y4.25308 I-0.04608 J-10.29217
G2 X-22.34079 Y-24.73325 I-140.95347 J86.78005
G3 X-20.85597 Y-27.60067 I1.21506 J-1.18896
G1 X-2.8015 Y-24.69905
G3 X-1.63039 Y-23.92275 I-0.26975 J1.67846
G2 X22.9626 Y9.36565 I228.37299 J-142.98994
G3 X23.33779 Y10.11531 I-1.2857 J1.11219
G2 X25.30077 Y11.72172 I1.99519 J-0.4355
G2 X23.75497 Y2.82169 I-9.29271 J-2.97026
G3 X23.7404 Y2.80237 I1.34993 J-1.03329
G2 X5.25277 Y-21.66237 I-1527.70954 J1135.249
G3 X6.89196 Y-24.37307 I1.34799 J-1.03582
G2 X19.54267 Y-25.46278 I4.26117 J-24.50837
G3 X14.27378 Y-30.9378 I38.8916 J-42.70014
( TascheGasthofHofsgrund3 )
S1000
G0 Z3.0
G0 X-139.8469 Y70.42107
G0 Z1.0
G1 F300.0 Z-2.0
G2 F800.0 X-139.57328 Y70.64869 I1.06672 J-1.004
G3 X-136.05286 Y69.76451 I8.0585 J24.63486
G2 X-139.8469 Y70.42107 I0.02852 J11.4553
G0 Z3.0
G0 X-117.5369 Y70.41373
G0 Z1.0
G1 F300.0 Z-2.0
G3 F800.0 X-116.20317 Y70.56853 I-21.01218 J186.86307
G3 X-117.24074 Y69.76478 I666.69411 J-861.71821
G3 X-117.5369 Y70.41373 I-2.76631 J-0.87038
G0 Z3.0
G0 X-143.06207 Y48.27862
G0 Z1.0
G1 F300.0 Z-2.0
G3 F800.0 X-142.58519 Y46.76802 I2.89877 J0.08453
G2 X-145.67433 Y46.56762 I-10.3278 J135.28954
G2 X-143.06207 Y48.27862 I123.59502 J-185.84802
G1 F300.0 X-141.86258 Y48.3136
G3 F800.0 X-139.85118 Y46.69205 I1.69928 J0.04955
G2 X-119.03088 Y49.9799 I69.05884 J-369.74862
G2 X-112.56349 Y50.38322 I7.42314 J-66.97879
G2 X-112.5835 Y50.24302 I-0.35519 J-0.02083
G2 X-116.35785 Y49.3536 I-4.94437 J12.52883
G3 X-116.52602 Y49.33043 I0.14767 J-1.69357
G2 X-141.519 Y45.64942 I-57.75135 J305.42716
G2 X-146.96375 Y45.30373 I-11.394 J136.40814
G3 X-147.9652 Y44.92202 I0.07389 J-1.69839
G2 X-151.93926 Y43.14188 I-5.28364 J6.46944
G2 X-151.85535 Y43.77833 I0.41349 J0.26924
G2 X-139.74065 Y51.7906 I129.77603 J-183.05873
G3 X-139.58529 Y51.89864 I-0.8914 J1.44755
G2 X-122.61066 Y64.98667 I1015.09144 J-1298.98007
G1 X-122.6106 Y64.98671
G1 X-122.61071 Y64.98662
G1 X-122.61066 Y64.98667
G2 X-119.08177 Y67.46827 I34.96394 J-45.96955
G3 X-120.40277 Y70.5477 I-0.92528 J1.42614
G2 X-134.52324 Y68.64819 I-16.41176 J68.56707
G3 X-134.6523 Y68.63907 I0.05525 J-1.6991
G2 X-141.4212 Y69.77291 I-1.37205 J12.58074
G2 X-139.99665 Y71.78811 I2.64103 J-0.35584
G3 X-139.91911 Y71.83048 I-0.77602 J1.51254
G2 X-139.46439 Y71.87729 I0.2793 J-0.48106
G3 X-129.26173 Y70.66703 I7.94961 J23.40625
G3 X-115.81583 Y71.82422 I-9.28736 J186.60977
G3 X-115.09739 Y72.08546 I-0.20684 J1.68737
G2 X-113.07596 Y71.65393 I0.79515 J-1.22556
G2 X-113.4592 Y71.14866 I-0.77533 J0.19011
G3 X-113.66168 Y71.01458 I0.83496 J-1.48082
G3 X-132.46756 Y56.19535 I664.15262 J-862.16426
G2 X-141.16473 Y49.73689 I-370.00839 J489.17937
G3 X-141.86258 Y48.3136 I1.00143 J-1.37373
G1 F300.0 X-143.06207 Y48.27862
G1 Z-4.0
G3 F800.0 X-142.58519 Y46.76802 I2.89877 J0.08453
G2 X-145.67433 Y46.56762 I-10.3278 J135.28954
G2 X-143.06207 Y48.27862 I123.59502 J-185.84802
G0 Z3.0
G0 X-138.41771 Y70.01729
G0 Z-1.0
G1 F300.0 Z-4.0
G2 F800.0 X-139.8469 Y70.42107 I2.39336 J11.20252
G2 X-139.57328 Y70.64869 I1.06672 J-1.004
G3 X-136.05286 Y69.76451 I8.0585 J24.63486
G2 X-138.41771 Y70.01729 I0.02852 J11.4553
G0 Z3.0
G0 X-117.5369 Y70.41373
G0 Z-1.0
G1 F300.0 Z-4.0
G3 F800.0 X-116.20317 Y70.56853 I-21.01218 J186.86307
G3 X-117.24074 Y69.76478 I666.69411 J-861.71821
G3 X-117.5369 Y70.41373 I-2.76631 J-0.87038
G1 F300.0 X-117.67099 Y71.60622
G3 F800.0 X-115.81583 Y71.82422 I-20.87809 J185.67059
G3 X-115.09739 Y72.08546 I-0.20684 J1.68737
G2 X-113.07596 Y71.65393 I0.79515 J-1.22556
G2 X-113.4592 Y71.14866 I-0.77533 J0.19011
G3 X-113.66168 Y71.01458 I0.83496 J-1.48082
G3 X-132.46756 Y56.19535 I664.15262 J-862.16426
G2 X-141.16473 Y49.73689 I-370.00839 J489.17937
G3 X-139.85118 Y46.69205 I1.00143 J-1.37373
G2 X-119.03088 Y49.9799 I69.05884 J-369.74862
G2 X-112.56349 Y50.38322 I7.42314 J-66.97879
G2 X-112.5835 Y50.24302 I-0.35519 J-0.02083
G2 X-116.35785 Y49.3536 I-4.94437 J12.52883
G3 X-116.52602 Y49.33043 I0.14767 J-1.69357
G2 X-141.519 Y45.64942 I-57.75135 J305.42716
G2 X-146.96375 Y45.30373 I-11.394 J136.40814
G3 X-147.9652 Y44.92202 I0.07389 J-1.69839
G2 X-151.93926 Y43.14188 I-5.28364 J6.46944
G2 X-151.85535 Y43.77833 I0.41349 J0.26924
G2 X-139.74065 Y51.7906 I129.77603 J-183.05873
G3 X-139.58529 Y51.89864 I-0.8914 J1.44755
G2 X-122.61066 Y64.98667 I1015.09144 J-1298.98007
G1 X-122.6106 Y64.98671
G1 X-122.61071 Y64.98662
G1 X-122.61066 Y64.98667
G2 X-119.08177 Y67.46827 I34.96394 J-45.96955
G3 X-120.40277 Y70.5477 I-0.92528 J1.42614
G2 X-134.52324 Y68.64819 I-16.41176 J68.56707
G3 X-134.6523 Y68.63907 I0.05525 J-1.6991
G2 X-141.4212 Y69.77291 I-1.37205 J12.58074
G2 X-139.99665 Y71.78811 I2.64103 J-0.35584
G3 X-139.91911 Y71.83048 I-0.77602 J1.51254
G2 X-139.46439 Y71.87729 I0.2793 J-0.48106
G3 X-129.26173 Y70.66703 I7.94961 J23.40625
G3 X-117.67099 Y71.60622 I-9.28736 J186.60977
G0 Z3.0
G0 X-107.46888 Y45.58883
G0 Z1.0
G1 F300.0 Z-2.0
G3 F800.0 X-107.18759 Y45.00487 I4.19013 J1.65864
G3 X-106.85602 Y44.53993 I2.51541 J1.44315
G3 X-106.73839 Y44.41218 I2.50926 J2.19243
G2 X-107.45581 Y44.37195 I-0.91763 J9.94574
G3 X-107.54977 Y44.36854 I0.05813 J-2.89942
G2 X-107.6957 Y44.52068 I-0.0073 J0.13905
G2 X-107.46888 Y45.58883 I12.99196 J-2.20058
G1 F300.0 X-108.63137 Y45.88651
G2 F800.0 X-106.95665 Y49.84103 I13.92764 J-3.56641
G3 X-106.87843 Y49.98327 I-1.44884 J0.88931
G3 X-103.083 Y58.42811 I-127.57661 J62.41312
G3 X-102.98413 Y58.76336 I-1.57248 J0.64598
G2 X-100.96042 Y61.21962 I3.23174 J-0.60083
G3 X-100.63499 Y61.39099 I-0.62476 J1.58104
G2 X-100.26737 Y61.45904 I0.26207 J-0.38879
G2 X-101.46071 Y57.61066 I-10.47943 J1.14034
G3 X-106.20197 Y48.79263 I63.59812 J-39.87894
G3 X-106.14673 Y45.60204 I2.92321 J-1.54517
G3 X-105.95236 Y45.32949 I1.47455 J0.84599
G3 X-104.25107 Y44.60237 I1.60561 J1.40287
G3 X-103.88541 Y44.6591 I-0.07629 J1.69829
G3 X-95.58513 Y49.21913 I-5.19204 J19.28487
G3 X-95.58369 Y49.22046 I-1.14848 J1.25339
G3 X-92.1855 Y52.58116 I-43.75019 J47.63669
G2 X-102.68504 Y44.33491 I-24.59668 J20.51036
G3 X-102.69114 Y44.33191 I0.7483 J-1.52645
G2 X-107.43175 Y43.17219 I-4.96488 J10.02602
G3 X-107.48683 Y43.17019 I0.03408 J-1.69966
G2 X-108.88254 Y44.69913 I-0.07024 J1.3374
G2 X-108.63137 Y45.88651 I14.17881 J-2.37903
G1 F300.0 X-107.46888 Y45.58883
G1 Z-4.0
G3 F800.0 X-107.18759 Y45.00487 I4.19013 J1.65864
G3 X-106.85602 Y44.53993 I2.51541 J1.44315
G3 X-106.73839 Y44.41218 I2.50926 J2.19243
G2 X-107.45581 Y44.37195 I-0.91763 J9.94574
G3 X-107.54977 Y44.36854 I0.05813 J-2.89942
G2 X-107.6957 Y44.52068 I-0.0073 J0.13905
G2 X-107.46888 Y45.58883 I12.99196 J-2.20058
G1 F300.0 X-108.63137 Y45.88651
G2 F800.0 X-106.95665 Y49.84103 I13.92764 J-3.56641
G3 X-106.87843 Y49.98327 I-1.44884 J0.88931
G3 X-103.083 Y58.42811 I-127.57661 J62.41312
G3 X-102.98413 Y58.76336 I-1.57248 J0.64598
G2 X-100.96042 Y61.21962 I3.23174 J-0.60083
G3 X-100.63499 Y61.39099 I-0.62476 J1.58104
G2 X-100.26737 Y61.45904 I0.26207 J-0.38879
G2 X-101.46071 Y57.61066 I-10.47943 J1.14034
G3 X-106.20197 Y48.79263 I63.59812 J-39.87894
G3 X-106.14673 Y45.60204 I2.92321 J-1.54517
G3 X-105.95236 Y45.32949 I1.47455 J0.84599
G3 X-104.25107 Y44.60237 I1.60561 J1.40287
G3 X-103.88541 Y44.6591 I-0.07629 J1.69829
G3 X-95.58513 Y49.21913 I-5.19204 J19.28487
G3 X-95.58369 Y49.22046 I-1.14848 J1.25339
G3 X-92.1855 Y52.58116 I-43.75019 J47.63669
G2 X-102.68504 Y44.33491 I-24.59668 J20.51036
G3 X-102.69114 Y44.33191 I0.7483 J-1.52645
G2 X-107.43175 Y43.17219 I-4.96488 J10.02602
G3 X-107.48683 Y43.17019 I0.03408 J-1.69966
G2 X-108.88254 Y44.69913 I-0.07024 J1.3374
G2 X-108.63137 Y45.88651 I14.17881 J-2.37903
G0 Z3.0
G0 X-87.23992 Y49.1115
G0 Z1.0
G1 F300.0 Z-2.0
G2 F800.0 X-87.25902 Y49.32118 I1.77085 J0.26697
G3 X-86.39142 Y48.16173 I3.27792 J1.54849
G2 X-86.89966 Y48.30116 I0.27808 J2.00961
G2 X-87.23992 Y49.1115 I1.43059 J1.07731
G0 Z3.0
G0 X-87.81432 Y55.13778
G0 Z1.0
G1 F300.0 Z-2.0
G3 F800.0 X-88.14484 Y55.38807 I-1.91148 J-2.18088
G3 X-87.67566 Y55.97401 I-51.18904 J41.46908
G3 X-87.81432 Y55.13778 I17.20112 J-3.28173
G1 F300.0 X-86.62608 Y54.9702
G2 F800.0 X-84.11278 Y61.63987 I16.15153 J-2.27791
G3 X-83.51028 Y62.91816 I-6.54209 J3.86468
G3 X-86.92722 Y58.95333 I14.11065 J-15.61556
G2 X-86.96658 Y58.89666 I-1.41576 J0.94107
G2 X-90.46496 Y54.4878 I-52.36731 J37.96049
G2 X-88.06294 Y52.6035 I0.73916 J-1.5309
G3 X-88.40323 Y50.03002 I16.30499 J-3.46527
G2 X-88.42223 Y49.85188 I-1.69757 J0.09095
G3 X-87.64978 Y47.33158 I2.95315 J-0.47341
G3 X-84.3497 Y47.46682 I1.53643 J2.83976
G2 X-84.05154 Y47.62163 I0.92859 J-1.42398
G3 X-78.78204 Y50.0746 I-19.33873 J48.43018
G2 X-83.60367 Y48.4874 I-10.95562 J25.16412
G2 X-83.9895 Y48.44441 I-0.37994 J1.657
G2 X-86.18398 Y49.85515 I0.00841 J2.42525
G2 X-86.20071 Y49.89267 I1.54412 J0.71113
G2 X-86.785 Y52.86541 I6.56884 J2.83489
G2 X-86.62608 Y54.9702 I16.31045 J-0.17313
G1 F300.0 X-87.81432 Y55.13778
G1 Z-4.0
G3 F800.0 X-88.14484 Y55.38807 I-1.91148 J-2.18088
G3 X-87.67566 Y55.97401 I-51.18904 J41.46908
G3 X-87.81432 Y55.13778 I17.20112 J-3.28173
G0 Z3.0
G0 X-87.25902 Y49.32118
G0 Z-1.0
G1 F300.0 Z-4.0
G3 F800.0 X-86.39142 Y48.16173 I3.27792 J1.54849
G2 X-86.89966 Y48.30116 I0.27808 J2.00961
G2 X-87.25902 Y49.32118 I1.43059 J1.07731
G1 F300.0 X-88.4584 Y49.28279
G3 F800.0 X-87.64978 Y47.33158 I2.98933 J0.09569
G3 X-84.3497 Y47.46682 I1.53643 J2.83976
G2 X-84.05154 Y47.62163 I0.92859 J-1.42398
G3 X-78.78204 Y50.0746 I-19.33873 J48.43018
G2 X-83.60367 Y48.4874 I-10.95562 J25.16412
G2 X-83.9895 Y48.44441 I-0.37994 J1.657
G2 X-86.18398 Y49.85515 I0.00841 J2.42525
G2 X-86.20071 Y49.89267 I1.54412 J0.71113
G2 X-86.785 Y52.86541 I6.56884 J2.83489
G2 X-84.11278 Y61.63987 I16.31045 J-0.17313
G3 X-83.51028 Y62.91816 I-6.54209 J3.86468
G3 X-86.92722 Y58.95333 I14.11065 J-15.61556
G2 X-86.96658 Y58.89666 I-1.41576 J0.94107
G2 X-90.46496 Y54.4878 I-52.36731 J37.96049
G2 X-88.06294 Y52.6035 I0.73916 J-1.5309
G3 X-88.40323 Y50.03002 I16.30499 J-3.46527
G2 X-88.42223 Y49.85188 I-1.69757 J0.09095
G3 X-88.4584 Y49.28279 I2.95315 J-0.47341
G0 Z3.0
G0 X-70.53037 Y44.88963
G0 Z1.0
G1 F300.0 Z-2.0
G2 F800.0 X-70.37955 Y45.29768 I1.86138 J-0.45612
G3 X-70.29112 Y45.48983 I-2.58844 J1.30766
G2 X-69.8723 Y46.48712 I181.48725 J-75.62955
G3 X-69.19985 Y45.9705 I2.084 J2.01666
G2 X-70.47775 Y44.68884 I-65.19782 J63.72859
G3 X-70.57956 Y44.58355 I2.0332 J-2.06788
G2 X-70.53037 Y44.88963 I1.91057 J-0.15003
G0 Z3.0
G0 X-67.28401 Y55.69014
G0 Z1.0
G1 F300.0 Z-2.0
G3 F800.0 X-67.46723 Y55.93134 I-2.39775 J-1.63119
G2 X-66.97084 Y56.28273 I2359.00999 J-3331.98138
G3 X-67.28401 Y55.69014 I1781.88109 J-942.05351
G0 Z3.0
G0 X-52.03869 Y59.35683
G0 Z1.0
G1 F300.0 Z-2.0
G2 F800.0 X-51.20731 Y59.54414 I1.73334 J-5.75482
G3 X-51.45075 Y58.76821 I163.95556 J-51.86472
G3 X-52.03869 Y59.35683 I-2.39237 J-1.80169
G0 Z3.0
G0 X-52.97154 Y48.15138
G0 Z1.0
G1 F300.0 Z-2.0
G3 F800.0 X-52.41413 Y47.68344 I2.12855 J1.96958
G2 X-53.41483 Y46.91088 I-11.13889 J13.39397
G3 X-52.97154 Y48.15138 I-50.0864 J18.5976
G0 Z3.0
G0 X-37.8239 Y48.18157
G0 Z1.0
G1 F300.0 Z-2.0
G3 F800.0 X-37.01334 Y47.15613 I3.62688 J2.03379
G2 X-37.54402 Y47.14214 I-0.32371 J2.2074
G2 X-37.8239 Y48.18157 I1.97313 J1.08869
G0 Z3.0
G0 X-36.64645 Y58.61637
G0 Z1.0
G1 F300.0 Z-2.0
G3 F800.0 X-37.30425 Y59.32982 I-2.43091 J-1.58135
G2 X-36.40015 Y59.92564 I16.64691 J-24.27647
G2 X-36.64645 Y58.61637 I-8.70579 J0.95994
G1 F300.0 X-35.48742 Y58.30547
G3 F800.0 X-35.15065 Y61.14058 I-9.61851 J2.58011
G3 X-36.68923 Y61.19338 I-0.7963 J-0.76058
G2 X-36.93208 Y61.00881 I-1.14595 J1.25571
G3 X-43.99337 Y54.90234 I16.27473 J-25.95545
G2 X-44.00229 Y54.89194 I-1.29493 J1.10143
G2 X-49.65926 Y48.90081 I-71.12742 J61.49386
G2 X-52.46708 Y49.61865 I-1.18373 J1.22016
G2 X-52.46793 Y50.85023 I1.99541 J0.61716
G2 X-49.99839 Y59.38661 I165.21617 J-43.17081
G3 X-50.90781 Y60.78699 I-1.15421 J0.24592
G3 X-55.25427 Y58.84559 I0.60245 J-7.18498
G2 X-55.31138 Y58.79408 I-1.16684 J1.23632
G3 X-66.48029 Y47.4179 I62.514 J-72.54589
G2 X-69.29405 Y49.29291 I-1.30801 J1.08587
G2 X-62.97898 Y61.24504 I1784.2043 J-935.06369
G3 X-62.8308 Y62.08833 I-1.51226 J0.70039
G3 X-63.2763 Y61.97259 I0.06984 J-1.18416
G2 X-63.31815 Y61.9531 I-0.73856 J1.53119
G3 X-65.79561 Y59.05787 I1.83035 J-4.07383
G2 X-66.45374 Y58.11853 I-1.63974 J0.44863
G3 X-69.79164 Y55.75539 I2357.9965 J-3334.16857
G2 X-68.14056 Y53.34152 I0.10988 J-1.69645
G3 X-71.39879 Y45.95142 I179.33669 J-83.48124
G2 X-71.45063 Y45.83878 I-1.5692 J0.65392
G3 X-71.49906 Y43.12854 I2.78163 J-1.40527
G3 X-69.75621 Y43.70242 I0.41699 J1.66703
G2 X-69.63642 Y43.83317 I1.31166 J-1.08145
G3 X-64.94213 Y48.80356 I-64.76125 J65.86592
G2 X-54.8753 Y58.3909 I57.59382 J-50.39537
G2 X-53.39739 Y58.70521 I1.05575 J-1.33244
G2 X-52.11499 Y57.4516 I-0.44573 J-1.73869
G2 X-52.12225 Y56.13126 I-1.9484 J-0.64948
G2 X-54.78865 Y46.6719 I-51.37897 J9.37722
G2 X-54.82824 Y46.578 I-1.58558 J0.61313
G3 X-54.78399 Y45.1764 I1.43485 J-0.6562
G3 X-53.61783 Y45.32893 I0.41259 J1.37973
G3 X-49.7801 Y48.54627 I-9.93519 J15.74848
G2 X-49.77486 Y48.55201 I1.25743 J-1.14406
G2 X-40.25155 Y58.26438 I152.87523 J-140.3744
G2 X-37.40142 Y57.31999 I1.17418 J-1.22935
G2 X-37.45247 Y56.36479 I-2.14324 J-0.36442
G3 X-39.00789 Y48.56843 I86.62715 J-21.33604
G3 X-38.2549 Y46.05757 I3.43701 J-0.3376
G3 X-36.04023 Y46.18704 I0.91786 J3.30596
G2 X-35.97726 Y46.2113 I0.64255 J-1.57389
G3 X-28.46118 Y50.01863 I-11.90122 J32.81673
G2 X-32.43162 Y47.8417 I-40.03646 J68.31213
G2 X-37.13914 Y50.52322 I-1.7654 J2.37366
G2 X-35.86135 Y57.17613 I25.46287 J-1.44139
G2 X-35.83231 Y57.25616 I1.61211 J-0.53954
G3 X-35.48742 Y58.30547 I-9.27362 J3.62942
G1 F300.0 X-36.64645 Y58.61637
G1 Z-4.0
G3 F800.0 X-37.30425 Y59.32982 I-2.43091 J-1.58135
G2 X-36.40015 Y59.92564 I16.64691 J-24.27647
G2 X-36.64645 Y58.61637 I-8.70579 J0.95994
G0 Z3.0
G0 X-37.8239 Y48.18157
G0 Z-1.0
G1 F300.0 Z-4.0
G3 F800.0 X-37.01334 Y47.15613 I3.62688 J2.03379
G2 X-37.54402 Y47.14214 I-0.32371 J2.2074
G2 X-37.8239 Y48.18157 I1.97313 J1.08869
G0 Z3.0
G0 X-52.41413 Y47.68344
G0 Z-1.0
G1 F300.0 Z-4.0
G2 F800.0 X-53.41483 Y46.91088 I-11.13889 J13.39397
G3 X-52.97154 Y48.15138 I-50.0864 J18.5976
G3 X-52.41413 Y47.68344 I2.12855 J1.96958
G0 Z3.0
G0 X-51.45075 Y58.76821
G0 Z-1.0
G1 F300.0 Z-4.0
G3 F800.0 X-52.03869 Y59.35683 I-2.39237 J-1.80169
G2 X-51.20731 Y59.54414 I1.73334 J-5.75482
G3 X-51.45075 Y58.76821 I163.95556 J-51.86472
G0 Z3.0
G0 X-66.97084 Y56.28273
G0 Z-1.0
G1 F300.0 Z-4.0
G3 F800.0 X-67.28401 Y55.69014 I1781.88109 J-942.05351
G3 X-67.46723 Y55.93134 I-2.39775 J-1.63119
G2 X-66.97084 Y56.28273 I2359.00999 J-3331.98138
G0 Z3.0
G0 X-69.8723 Y46.48712
G0 Z-1.0
G1 F300.0 Z-4.0
G3 F800.0 X-69.19985 Y45.9705 I2.084 J2.01666
G2 X-70.47775 Y44.68884 I-65.19782 J63.72859
G3 X-70.57956 Y44.58355 I2.0332 J-2.06788
G2 X-70.37955 Y45.29768 I1.91057 J-0.15003
G3 X-70.29112 Y45.48983 I-2.58844 J1.30766
G2 X-69.8723 Y46.48712 I181.48725 J-75.62955
G1 F300.0 X-70.97742 Y46.95479
G3 F800.0 X-71.39879 Y45.95142 I182.17355 J-77.09451
G2 X-71.45063 Y45.83878 I-1.5692 J0.65392
G3 X-71.49906 Y43.12854 I2.78163 J-1.40527
G3 X-69.75621 Y43.70242 I0.41699 J1.66703
G2 X-69.63642 Y43.83317 I1.31166 J-1.08145
G3 X-64.94213 Y48.80356 I-64.76125 J65.86592
G2 X-54.8753 Y58.3909 I57.59382 J-50.39537
G2 X-53.39739 Y58.70521 I1.05575 J-1.33244
G2 X-52.11499 Y57.4516 I-0.44573 J-1.73869
G2 X-52.12225 Y56.13126 I-1.9484 J-0.64948
G2 X-54.78865 Y46.6719 I-51.37897 J9.37722
G2 X-54.82824 Y46.578 I-1.58558 J0.61313
G3 X-54.78399 Y45.1764 I1.43485 J-0.6562
G3 X-53.61783 Y45.32893 I0.41259 J1.37973
G3 X-49.7801 Y48.54627 I-9.93519 J15.74848
G2 X-49.77486 Y48.55201 I1.25743 J-1.14406
G2 X-40.25155 Y58.26438 I152.87523 J-140.3744
G2 X-37.40142 Y57.31999 I1.17418 J-1.22935
G2 X-37.45247 Y56.36479 I-2.14324 J-0.36442
G3 X-39.00789 Y48.56843 I86.62715 J-21.33604
G3 X-38.2549 Y46.05757 I3.43701 J-0.3376
G3 X-36.04023 Y46.18704 I0.91786 J3.30596
G2 X-35.97726 Y46.2113 I0.64255 J-1.57389
G3 X-28.46118 Y50.01863 I-11.90122 J32.81673
G2 X-32.43162 Y47.8417 I-40.03646 J68.31213
G2 X-37.13914 Y50.52322 I-1.7654 J2.37366
G2 X-35.86135 Y57.17613 I25.46287 J-1.44139
G2 X-35.83231 Y57.25616 I1.61211 J-0.53954
G3 X-35.15065 Y61.14058 I-9.27362 J3.62942
G3 X-36.68923 Y61.19338 I-0.7963 J-0.76058
G2 X-36.93208 Y61.00881 I-1.14595 J1.25571
G3 X-43.99337 Y54.90234 I16.27473 J-25.95545
G2 X-44.00229 Y54.89194 I-1.29493 J1.10143
G2 X-49.65926 Y48.90081 I-71.12742 J61.49386
G2 X-52.46708 Y49.61865 I-1.18373 J1.22016
G2 X-52.46793 Y50.85023 I1.99541 J0.61716
G2 X-49.99839 Y59.38661 I165.21617 J-43.17081
G3 X-50.90781 Y60.78699 I-1.15421 J0.24592
G3 X-55.25427 Y58.84559 I0.60245 J-7.18498
G2 X-55.31138 Y58.79408 I-1.16684 J1.23632
G3 X-66.48029 Y47.4179 I62.514 J-72.54589
G2 X-69.29405 Y49.29291 I-1.30801 J1.08587
G2 X-62.97898 Y61.24504 I1784.2043 J-935.06369
G3 X-62.8308 Y62.08833 I-1.51226 J0.70039
G3 X-63.2763 Y61.97259 I0.06984 J-1.18416
G2 X-63.31815 Y61.9531 I-0.73856 J1.53119
G3 X-65.79561 Y59.05787 I1.83035 J-4.07383
G2 X-66.45374 Y58.11853 I-1.63974 J0.44863
G3 X-69.79164 Y55.75539 I2357.9965 J-3334.16857
G2 X-68.14056 Y53.34152 I0.10988 J-1.69645
G3 X-70.97742 Y46.95479 I179.33669 J-83.48124
G0 Z3.0
G0 X-30.28821 Y102.99572
G0 Z1.0
G1 F300.0 Z-2.0
G3 F800.0 X-22.73889 Y103.42912 I3.5096 J4.83375
G3 X-22.22222 Y105.01806 I-1.14967 J1.2523
G2 X-22.64276 Y110.00844 I21.33989 J4.31121
G3 X-22.64208 Y110.0388 I-1.69917 J0.05303
G2 X-22.40471 Y112.22793 I11.6453 J-0.15531
G3 X-23.35422 Y114.11215 I-1.6652 J0.34221
G3 X-29.94604 Y112.29257 I-2.22421 J-4.79224
G3 X-30.89669 Y103.62805 I5.50017 J-4.98787
G3 X-30.47038 Y103.13338 I1.47695 J0.84179
G3 X-30.28821 Y102.99572 I3.69177 J4.69609
G0 Z3.0
G0 X-22.00615 Y103.36403
G0 Z1.0
G1 F300.0 Z-2.0
G3 F800.0 X-21.91896 Y103.49836 I-1.88241 J1.31739
G3 X-21.85405 Y103.3018 I16.00464 J5.17638
G3 X-22.00615 Y103.36403 I-0.94641 J-2.09626
G1 F300.0 X-22.21336 Y102.80095
G3 F800.0 X-23.78311 Y102.59277 I-0.5871 J-1.5954
G2 X-31.25826 Y102.96446 I-3.50106 J4.94248
G2 X-25.25422 Y114.76936 I5.99534 J4.38003
G2 X-21.40081 Y113.43013 I-0.43892 J-7.47632
G3 X-21.33996 Y113.3895 I0.97433 J1.39308
G3 X-21.58671 Y112.85737 I1.39577 J-0.97048
G3 X-20.45954 Y101.49457 I15.67239 J-4.18264
G2 X-21.53143 Y102.33673 I1.82057 J3.42043
G3 X-22.21336 Y102.80095 I-1.26903 J-1.13118
G1 F300.0 X-22.00615 Y103.36403
G1 Z-4.0
G3 F800.0 X-21.91896 Y103.49836 I-1.88241 J1.31739
G3 X-21.85405 Y103.3018 I16.00464 J5.17638
G3 X-22.00615 Y103.36403 I-0.94641 J-2.09626
G1 F300.0 X-22.21336 Y102.80095
G3 F800.0 X-23.78311 Y102.59277 I-0.5871 J-1.5954
G2 X-31.25826 Y102.96446 I-3.50106 J4.94248
G2 X-25.25422 Y114.76936 I5.99534 J4.38003
G2 X-21.40081 Y113.43013 I-0.43892 J-7.47632
G3 X-21.33996 Y113.3895 I0.97433 J1.39308
G3 X-21.58671 Y112.85737 I1.39577 J-0.97048
G3 X-20.45954 Y101.49457 I15.67239 J-4.18264
G2 X-21.53143 Y102.33673 I1.82057 J3.42043
G3 X-22.21336 Y102.80095 I-1.26903 J-1.13118
G1 F300.0 X-22.76337 Y103.40677
G3 F800.0 X-22.73889 Y103.42912 I-4.01524 J4.4227
G3 X-22.22222 Y105.01806 I-1.14967 J1.2523
G2 X-22.64276 Y110.00844 I21.33989 J4.31121
G3 X-22.64208 Y110.0388 I-1.69917 J0.05303
G2 X-22.40471 Y112.22793 I11.6453 J-0.15531
G3 X-23.35422 Y114.11215 I-1.6652 J0.34221
G3 X-29.94604 Y112.29257 I-2.22421 J-4.79224
G3 X-30.89669 Y103.62805 I5.50017 J-4.98787
G3 X-30.47038 Y103.13338 I1.47695 J0.84179
G3 X-22.76337 Y103.40677 I3.69177 J4.69609
G0 Z3.0
G0 X-15.47837 Y102.6715
G0 Z1.0
G1 F300.0 Z-2.0
G2 F800.0 X-15.056 Y102.69456 I0.24964 J-0.69294
G3 X-8.06679 Y102.4374 I3.7556 J6.96522
G3 X-7.49063 Y102.85985 I-0.69468 J1.55159
G3 X-8.93286 Y107.63723 I-2.18953 J1.94539
G2 X-13.56094 Y109.93924 I19.30003 J44.60513
G3 X-13.56379 Y109.94084 I-0.83697 J-1.47969
G2 X-12.91657 Y114.54325 I1.22447 J2.17452
G3 X-12.89096 Y114.54955 I-0.39323 J1.65389
G2 X-6.57905 Y115.05294 I4.62787 J-18.20435
G3 X-6.41219 Y115.04616 I0.15241 J1.69315
G2 X-6.02609 Y114.62721 I0.00327 J-0.38437
G3 X-6.01638 Y114.23732 I1.69311 J-0.1529
G2 X-6.04026 Y113.6908 I-1.48412 J-0.20895
G3 X-7.32463 Y114.6864 I-1.55703 J-0.6824
G3 X-12.09014 Y114.47736 I-1.87985 J-11.56926
G3 X-12.51841 Y109.812 I0.41652 J-2.39057
G2 X-7.12055 Y106.93153 I-22.88137 J-49.37649
G3 X-7.06285 Y106.89797 I0.88339 J1.45245
G2 X-7.19445 Y102.39297 I-1.23264 J-2.21841
G2 X-14.3696 Y102.01065 I-4.05634 J8.60653
G3 X-14.81631 Y102.10098 I-0.55725 J-1.60607
G2 X-15.47837 Y102.6715 I0.04719 J0.72416
G1 F300.0 Z-4.0
G2 F800.0 X-15.056 Y102.69456 I0.24964 J-0.69294
G3 X-8.06679 Y102.4374 I3.7556 J6.96522
G3 X-7.49063 Y102.85985 I-0.69468 J1.55159
G3 X-8.93286 Y107.63723 I-2.18953 J1.94539
G2 X-13.56094 Y109.93924 I19.30003 J44.60513
G3 X-13.56379 Y109.94084 I-0.83697 J-1.47969
G2 X-12.91657 Y114.54325 I1.22447 J2.17452
G3 X-12.89096 Y114.54955 I-0.39323 J1.65389
G2 X-6.57905 Y115.05294 I4.62787 J-18.20435
G3 X-6.41219 Y115.04616 I0.15241 J1.69315
G2 X-6.02609 Y114.62721 I0.00327 J-0.38437
G3 X-6.01638 Y114.23732 I1.69311 J-0.1529
G2 X-6.04026 Y113.6908 I-1.48412 J-0.20895
G3 X-7.32463 Y114.6864 I-1.55703 J-0.6824
G3 X-12.09014 Y114.47736 I-1.87985 J-11.56926
G3 X-12.51841 Y109.812 I0.41652 J-2.39057
G2 X-7.12055 Y106.93153 I-22.88137 J-49.37649
G3 X-7.06285 Y106.89797 I0.88339 J1.45245
G2 X-7.19445 Y102.39297 I-1.23264 J-2.21841
G2 X-14.3696 Y102.01065 I-4.05634 J8.60653
G3 X-14.81631 Y102.10098 I-0.55725 J-1.60607
G2 X-15.47837 Y102.6715 I0.04719 J0.72416
G0 Z3.0
G0 X3.23151 Y114.74456
G0 Z1.0
G1 F300.0 Z-2.0
G3 F800.0 X4.19667 Y115.81858 I-1.14168 J1.99664
G3 X5.20448 Y114.76649 I2.07932 J0.98307
G3 X4.26009 Y113.70493 I1.16219 J-1.98477
G3 X3.23151 Y114.74456 I-2.06447 J-1.01389
G1 F300.0 X2.93368 Y115.26542
G3 F800.0 X3.78765 Y116.82722 I-0.84385 J1.47577
G2 X3.65446 Y119.85363 I227.6217 J11.53367
G2 X4.26179 Y120.03608 I0.33738 J-0.02102
G2 X4.58244 Y116.94952 I-7.8378 J-2.37416
G3 X6.5723 Y115.12767 I1.69356 J-0.14788
G2 X9.58754 Y115.09775 I1.42775 J-8.06592
G2 X9.39352 Y114.55542 I-0.20093 J-0.23399
G3 X6.12932 Y114.46507 I-1.23185 J-14.50447
G3 X4.6778 Y112.58749 I0.23735 J-1.68335
G2 X4.9045 Y102.19898 I-55.76862 J-6.41374
G3 X4.91588 Y101.8485 I1.69573 J-0.12037
G2 X4.08107 Y101.68715 I-0.42186 J-0.05763
G3 X3.89168 Y112.80668 I-108.91994 J3.70624
G3 X2.15503 Y114.39056 I-1.69606 J-0.11564
G2 X-0.74498 Y114.69323 I-0.27296 J11.42886
G2 X-0.53621 Y115.22343 I0.2054 J0.22533
G2 X1.92203 Y115.0495 I-1.85069 J-43.61401
G3 X2.93368 Y115.26542 I0.1678 J1.6917
G1 F300.0 X3.23151 Y114.74456
G1 Z-4.0
G3 F800.0 X4.19667 Y115.81858 I-1.14168 J1.99664
G3 X5.20448 Y114.76649 I2.07932 J0.98307
G3 X4.26009 Y113.70493 I1.16219 J-1.98477
G3 X3.23151 Y114.74456 I-2.06447 J-1.01389
G1 F300.0 X2.93368 Y115.26542
G3 F800.0 X3.78765 Y116.82722 I-0.84385 J1.47577
G2 X3.65446 Y119.85363 I227.6217 J11.53367
G2 X4.26179 Y120.03608 I0.33738 J-0.02102
G2 X4.58244 Y116.94952 I-7.8378 J-2.37416
G3 X6.5723 Y115.12767 I1.69356 J-0.14788
G2 X9.58754 Y115.09775 I1.42775 J-8.06592
G2 X9.39352 Y114.55542 I-0.20093 J-0.23399
G3 X6.12932 Y114.46507 I-1.23185 J-14.50447
G3 X4.6778 Y112.58749 I0.23735 J-1.68335
G2 X4.9045 Y102.19898 I-55.76862 J-6.41374
G3 X4.91588 Y101.8485 I1.69573 J-0.12037
G2 X4.08107 Y101.68715 I-0.42186 J-0.05763
G3 X3.89168 Y112.80668 I-108.91994 J3.70624
G3 X2.15503 Y114.39056 I-1.69606 J-0.11564
G2 X-0.74498 Y114.69323 I-0.27296 J11.42886
G2 X-0.53621 Y115.22343 I0.2054 J0.22533
G2 X1.92203 Y115.0495 I-1.85069 J-43.61401
G3 X2.93368 Y115.26542 I0.1678 J1.6917
G0 Z3.0
G0 X16.56113 Y111.85308
G0 Z1.0
G1 F300.0 Z-2.0
G3 F800.0 X16.67764 Y111.80624 I1.13991 J2.66657
G3 X16.55952 Y111.64738 I11.78727 J-8.88737
G3 X16.56113 Y111.85308 I-226.86553 J1.87983
G1 F300.0 X17.03282 Y112.95649
G3 F800.0 X18.92567 Y113.34055 I0.66822 J1.56316
G2 X24.15622 Y114.80132 I3.85616 J-3.71282
G2 X25.80932 Y111.92033 I-1.58352 J-2.82339
G3 X25.81332 Y111.76973 I1.69973 J-0.03025
G3 X26.8561 Y101.66832 I158.23756 J11.23056
G2 X26.09253 Y101.66993 I-0.38159 J0.09505
G3 X26.0908 Y101.67695 I-1.65131 J-0.40394
G2 X25.25957 Y110.07014 I28.23453 J7.03397
G3 X19.87572 Y113.41465 I-2.97988 J1.20873
G3 X16.29668 Y108.90802 I8.58919 J-10.49579
G3 X16.13919 Y107.91576 I1.52526 J-0.75073
G2 X15.68636 Y102.1268 I-13.13222 J-1.88494
G2 X14.98831 Y102.4286 I-0.34818 J0.15284
G3 X15.12236 Y103.01542 I-1.56411 J0.666
G3 X15.17221 Y122.90905 I-225.42836 J10.51178
G2 X15.91281 Y123.00332 I0.38379 J-0.05886
G2 X16.00338 Y114.60878 I-66.23815 J-4.91244
G3 X17.03282 Y112.95649 I1.69766 J-0.08912
G1 F300.0 X16.56113 Y111.85308
G1 Z-4.0
G3 F800.0 X16.67764 Y111.80624 I1.13991 J2.66657
G3 X16.55952 Y111.64738 I11.78727 J-8.88737
G3 X16.56113 Y111.85308 I-226.86553 J1.87983
G1 F300.0 X17.03282 Y112.95649
G3 F800.0 X18.92567 Y113.34055 I0.66822 J1.56316
G2 X24.15622 Y114.80132 I3.85616 J-3.71282
G2 X25.80932 Y111.92033 I-1.58352 J-2.82339
G3 X25.81332 Y111.76973 I1.69973 J-0.03025
G3 X26.8561 Y101.66832 I158.23756 J11.23056
G2 X26.09253 Y101.66993 I-0.38159 J0.09505
G3 X26.0908 Y101.67695 I-1.65131 J-0.40394
G2 X25.25957 Y110.07014 I28.23453 J7.03397
G3 X19.87572 Y113.41465 I-2.97988 J1.20873
G3 X16.29668 Y108.90802 I8.58919 J-10.49579
G3 X16.13919 Y107.91576 I1.52526 J-0.75073
G2 X15.68636 Y102.1268 I-13.13222 J-1.88494
G2 X14.98831 Y102.4286 I-0.34818 J0.15284
G3 X15.12236 Y103.01542 I-1.56411 J0.666
G3 X15.17221 Y122.90905 I-225.42836 J10.51178
G2 X15.91281 Y123.00332 I0.38379 J-0.05886
G2 X16.00338 Y114.60878 I-66.23815 J-4.91244
G3 X17.03282 Y112.95649 I1.69766 J-0.08912
G0 Z3.0
G0 X31.96396 Y109.73716
G0 Z1.0
G1 F300.0 Z-2.0
G2 F800.0 X40.27799 Y114.26979 I6.11087 J-1.31757
G2 X39.66416 Y101.98041 I-4.72579 J-5.92398
G2 X37.35717 Y101.49973 I-2.25317 J5.03755
G2 X31.89869 Y107.28954 I0.21199 J5.66783
G3 X31.88293 Y107.55989 I-1.69961 J0.03656
G2 X31.96396 Y109.73716 I6.1919 J0.8597
G1 F300.0 X32.85062 Y109.50312
G3 F800.0 X32.67774 Y107.29134 I5.98852 J-1.58075
G3 X42.06678 Y105.37069 I4.83464 J-0.27537
G3 X41.26392 Y112.6462 I-7.50806 J2.85352
G3 X40.95069 Y113.00135 I-1.41917 J-0.93592
G3 X38.34042 Y114.06968 I-2.91791 J-3.40637
G3 X37.99103 Y114.05767 I-0.1166 J-1.696
G3 X32.85062 Y109.50312 I0.84812 J-6.1353
G1 F300.0 Z-4.0
G3 F800.0 X32.67774 Y107.29134 I5.98852 J-1.58075
G3 X42.06678 Y105.37069 I4.83464 J-0.27537
G3 X41.26392 Y112.6462 I-7.50806 J2.85352
G3 X40.95069 Y113.00135 I-1.41917 J-0.93592
G3 X38.34042 Y114.06968 I-2.91791 J-3.40637
G3 X37.99103 Y114.05767 I-0.1166 J-1.696
G3 X32.85062 Y109.50312 I0.84812 J-6.1353
G1 F300.0 X31.9538 Y109.68912
G2 F800.0 X40.27799 Y114.26979 I6.12103 J-1.26953
G2 X39.66416 Y101.98041 I-4.72579 J-5.92398
G2 X37.35717 Y101.49973 I-2.25317 J5.03755
G2 X31.89869 Y107.28954 I0.21199 J5.66783
G3 X31.88293 Y107.55989 I-1.69961 J0.03656
G2 X31.9538 Y109.68912 I6.1919 J0.8597
G0 Z3.0
G0 X51.64992 Y114.09599
G0 Z1.0
G1 F300.0 Z-2.0
G3 F800.0 X52.5486 Y115.07071 I-1.16987 J1.98025
G3 X53.16501 Y114.37249 I1.99671 J1.14155
G3 X52.30649 Y113.41621 I1.21407 J-1.95347
G3 X51.64992 Y114.09599 I-1.94734 J-1.22388
G1 F300.0 X51.34474 Y114.61258
G3 F800.0 X52.17962 Y116.11447 I-0.86469 J1.46367
G2 X53.79297 Y121.67222 I9.63308 J0.21667
G2 X58.59745 Y123.1023 I3.98741 J-4.61049
G3 X58.81651 Y123.08698 I0.22787 J1.68466
G2 X58.95137 Y122.75499 I-0.001 J-0.1938
G3 X56.21886 Y122.28817 I3.87637 J-30.92092
G3 X55.38581 Y121.83737 I0.36053 J-1.66133
G3 X52.84961 Y116.333 I6.02864 J-6.11423
G3 X55.10081 Y114.60557 I1.69571 J-0.12074
G2 X58.55474 Y114.46934 I1.55254 J-4.49046
G2 X58.38174 Y114.3075 I-0.17347 J0.01204
G3 X58.30692 Y114.30565 I0.00455 J-1.69999
G3 X54.2987 Y114.11712 I313.14281 J-6700.13373
G3 X52.67987 Y112.3673 I0.08038 J-1.6981
G2 X52.64398 Y102.1372 I-150.67777 J-4.58656
G3 X52.65202 Y101.89668 I1.69881 J-0.06364
G2 X52.16566 Y99.88927 I-3.06322 J-0.32046
G2 X51.67136 Y100.2798 I-0.14133 J0.3292
G3 X51.68419 Y100.367 I-1.67491 J0.29102
G3 X52.05632 Y112.29051 I-66.63528 J8.04721
G3 X49.79131 Y113.79469 I-1.69716 J-0.09818
G2 X48.02497 Y113.88158 I-0.7774 J2.19367
G2 X48.1693 Y114.1524 I0.18893 J0.07318
G2 X50.4858 Y114.37625 I2.35885 J-12.31213
G3 X51.34474 Y114.61258 I-0.00574 J1.69999
G1 F300.0 X51.64992 Y114.09599
G1 Z-4.0
G3 F800.0 X52.5486 Y115.07071 I-1.16987 J1.98025
G3 X53.16501 Y114.37249 I1.99671 J1.14155
G3 X52.30649 Y113.41621 I1.21407 J-1.95347
G3 X51.64992 Y114.09599 I-1.94734 J-1.22388
G1 F300.0 X51.34474 Y114.61258
G3 F800.0 X52.17962 Y116.11447 I-0.86469 J1.46367
G2 X53.79297 Y121.67222 I9.63308 J0.21667
G2 X58.59745 Y123.1023 I3.98741 J-4.61049
G3 X58.81651 Y123.08698 I0.22787 J1.68466
G2 X58.95137 Y122.75499 I-0.001 J-0.1938
G3 X56.21886 Y122.28817 I3.87637 J-30.92092
G3 X55.38581 Y121.83737 I0.36053 J-1.66133
G3 X52.84961 Y116.333 I6.02864 J-6.11423
G3 X55.10081 Y114.60557 I1.69571 J-0.12074
G2 X58.55474 Y114.46934 I1.55254 J-4.49046
G2 X58.38174 Y114.3075 I-0.17347 J0.01204
G3 X58.30692 Y114.30565 I0.00455 J-1.69999
G3 X54.2987 Y114.11712 I313.14281 J-6700.13373
G3 X52.67987 Y112.3673 I0.08038 J-1.6981
G2 X52.64398 Y102.1372 I-150.67777 J-4.58656
G3 X52.65202 Y101.89668 I1.69881 J-0.06364
G2 X52.16566 Y99.88927 I-3.06322 J-0.32046
G2 X51.67136 Y100.2798 I-0.14133 J0.3292
G3 X51.68419 Y100.367 I-1.67491 J0.29102
G3 X52.05632 Y112.29051 I-66.63528 J8.04721
G3 X49.79131 Y113.79469 I-1.69716 J-0.09818
G2 X48.02497 Y113.88158 I-0.7774 J2.19367
G2 X48.1693 Y114.1524 I0.18893 J0.07318
G2 X50.4858 Y114.37625 I2.35885 J-12.31213
G3 X51.34474 Y114.61258 I-0.00574 J1.69999
G0 Z3.0
G0 X-37.81568 Y111.0385
G0 Z1.0
G1 F300.0 Z-2.0
G3 F800.0 X-38.31117 Y109.93462 I1.77667 J-1.46063
G2 X-38.46933 Y109.14725 I-9.33753 J1.46609
G3 X-39.45334 Y111.01088 I-2.29989 J-0.02276
G2 X-37.81568 Y111.0385 I1.25411 J-25.797
G1 F300.0 X-37.80677 Y111.63844
G2 F800.0 X-37.3197 Y111.62671 I-0.39246 J-26.42455
G3 X-37.19489 Y111.62714 I0.05658 J1.69906
G2 X-36.98656 Y110.9893 I0.01399 J-0.34837
G3 X-37.71843 Y109.84156 I0.94756 J-1.41143
G2 X-50.35568 Y101.72013 I-9.93027 J1.55916
G2 X-53.55311 Y105.09127 I1.25839 J4.39546
G2 X-47.70746 Y121.38353 I17.49957 J2.91601
G3 X-47.65575 Y121.43048 I-1.11673 J1.28177
G2 X-42.83211 Y122.47441 I3.27347 J-3.45942
G3 X-42.54961 Y122.40355 I0.55332 J1.60743
G2 X-39.05563 Y120.6271 I-1.02223 J-6.33481
G2 X-39.2812 Y120.28972 I-0.22876 J-0.09115
G3 X-44.17586 Y122.00157 I-5.78325 J-8.68244
G3 X-45.13552 Y121.79972 I-0.1448 J-1.69382
G3 X-52.93856 Y106.21751 I7.3259 J-13.41342
G3 X-48.97372 Y102.15293 I4.28273 J0.21158
G3 X-39.13253 Y108.66488 I1.15138 J8.95221
G3 X-40.87181 Y110.82139 I-1.63669 J0.45961
G3 X-47.53906 Y109.2536 I1.21755 J-20.13835
G3 X-47.68527 Y109.18311 I0.66439 J-1.5648
G2 X-48.18372 Y109.68266 I-0.17543 J0.32341
G2 X-37.80677 Y111.63844 I9.98449 J-24.46877
G1 F300.0 X-37.81568 Y111.0385
G1 Z-4.0
G3 F800.0 X-38.31117 Y109.93462 I1.77667 J-1.46063
G2 X-38.46933 Y109.14725 I-9.33753 J1.46609
G3 X-39.45334 Y111.01088 I-2.29989 J-0.02276
G2 X-37.81568 Y111.0385 I1.25411 J-25.797
G1 F300.0 X-37.80677 Y111.63844
G2 F800.0 X-37.3197 Y111.62671 I-0.39246 J-26.42455
G3 X-37.19489 Y111.62714 I0.05658 J1.69906
G2 X-36.98656 Y110.9893 I0.01399 J-0.34837
G3 X-37.71843 Y109.84156 I0.94756 J-1.41143
G2 X-50.35568 Y101.72013 I-9.93027 J1.55916
G2 X-53.55311 Y105.09127 I1.25839 J4.39546
G2 X-47.70746 Y121.38353 I17.49957 J2.91601
G3 X-47.65575 Y121.43048 I-1.11673 J1.28177
G2 X-42.83211 Y122.47441 I3.27347 J-3.45942
G3 X-42.54961 Y122.40355 I0.55332 J1.60743
G2 X-39.05563 Y120.6271 I-1.02223 J-6.33481
G2 X-39.2812 Y120.28972 I-0.22876 J-0.09115
G3 X-44.17586 Y122.00157 I-5.78325 J-8.68244
G3 X-45.13552 Y121.79972 I-0.1448 J-1.69382
G3 X-52.93856 Y106.21751 I7.3259 J-13.41342
G3 X-48.97372 Y102.15293 I4.28273 J0.21158
G3 X-39.13253 Y108.66488 I1.15138 J8.95221
G3 X-40.87181 Y110.82139 I-1.63669 J0.45961
G3 X-47.53906 Y109.2536 I1.21755 J-20.13835
G3 X-47.68527 Y109.18311 I0.66439 J-1.5648
G2 X-48.18372 Y109.68266 I-0.17543 J0.32341
G2 X-37.80677 Y111.63844 I9.98449 J-24.46877
G0 Z3.0
G0 X-30.58752 Y-105.85096
G0 Z1.0
G1 F300.0 Z-2.0
G3 F800.0 X-29.97112 Y-106.54918 I1.99671 J1.14155
G3 X-30.82963 Y-107.50546 I1.21407 J-1.95347
G3 X-31.4862 Y-106.82567 I-1.94734 J-1.22388
G3 X-30.58752 Y-105.85096 I-1.16987 J1.98025
G1 F300.0 X-31.12714 Y-105.58864
G3 F800.0 X-30.9565 Y-104.80719 I-1.52893 J0.74322
G2 X-29.34315 Y-99.24944 I9.63308 J0.21667
G2 X-24.53867 Y-97.81936 I3.98741 J-4.61049
G3 X-24.31962 Y-97.83468 I0.22787 J1.68466
G2 X-24.18475 Y-98.16667 I-0.001 J-0.1938
G3 X-26.91727 Y-98.63349 I3.87637 J-30.92092
G3 X-27.75032 Y-99.0843 I0.36053 J-1.66133
G3 X-30.28652 Y-104.58866 I6.02864 J-6.11423
G3 X-28.03531 Y-106.31609 I1.69571 J-0.12074
G2 X-24.58138 Y-106.45232 I1.55254 J-4.49046
G2 X-24.75438 Y-106.61417 I-0.17347 J0.01204
G3 X-24.8292 Y-106.61601 I0.00455 J-1.69999
G3 X-28.83743 Y-106.80455 I313.14281 J-6700.13373
G3 X-30.45626 Y-108.55437 I0.08038 J-1.6981
G2 X-30.49214 Y-118.78446 I-150.67777 J-4.58656
G3 X-30.48411 Y-119.02498 I1.69881 J-0.06364
G2 X-30.97046 Y-121.03239 I-3.06322 J-0.32046
G2 X-31.46477 Y-120.64186 I-0.14133 J0.3292
G3 X-31.45193 Y-120.55466 I-1.67491 J0.29102
G3 X-31.07981 Y-108.63115 I-66.63528 J8.04721
G3 X-33.34482 Y-107.12697 I-1.69716 J-0.09818
G2 X-35.11116 Y-107.04008 I-0.7774 J2.19367
G2 X-34.96682 Y-106.76927 I0.18893 J0.07318
G2 X-32.65033 Y-106.54541 I2.35885 J-12.31213
G3 X-31.12714 Y-105.58864 I-0.00574 J1.69999
G1 F300.0 X-30.58752 Y-105.85096
G1 Z-4.0
G3 F800.0 X-29.97112 Y-106.54918 I1.99671 J1.14155
G3 X-30.82963 Y-107.50546 I1.21407 J-1.95347
G3 X-31.4862 Y-106.82567 I-1.94734 J-1.22388
G3 X-30.58752 Y-105.85096 I-1.16987 J1.98025
G1 F300.0 X-31.12714 Y-105.58864
G3 F800.0 X-30.9565 Y-104.80719 I-1.52893 J0.74322
G2 X-29.34315 Y-99.24944 I9.63308 J0.21667
G2 X-24.53867 Y-97.81936 I3.98741 J-4.61049
G3 X-24.31962 Y-97.83468 I0.22787 J1.68466
G2 X-24.18475 Y-98.16667 I-0.001 J-0.1938
G3 X-26.91727 Y-98.63349 I3.87637 J-30.92092
G3 X-27.75032 Y-99.0843 I0.36053 J-1.66133
G3 X-30.28652 Y-104.58866 I6.02864 J-6.11423
G3 X-28.03531 Y-106.31609 I1.69571 J-0.12074
G2 X-24.58138 Y-106.45232 I1.55254 J-4.49046
G2 X-24.75438 Y-106.61417 I-0.17347 J0.01204
G3 X-24.8292 Y-106.61601 I0.00455 J-1.69999
G3 X-28.83743 Y-106.80455 I313.14281 J-6700.13373
G3 X-30.45626 Y-108.55437 I0.08038 J-1.6981
G2 X-30.49214 Y-118.78446 I-150.67777 J-4.58656
G3 X-30.48411 Y-119.02498 I1.69881 J-0.06364
G2 X-30.97046 Y-121.03239 I-3.06322 J-0.32046
G2 X-31.46477 Y-120.64186 I-0.14133 J0.3292
G3 X-31.45193 Y-120.55466 I-1.67491 J0.29102
G3 X-31.07981 Y-108.63115 I-66.63528 J8.04721
G3 X-33.34482 Y-107.12697 I-1.69716 J-0.09818
G2 X-35.11116 Y-107.04008 I-0.7774 J2.19367
G2 X-34.96682 Y-106.76927 I0.18893 J0.07318
G2 X-32.65033 Y-106.54541 I2.35885 J-12.31213
G3 X-31.12714 Y-105.58864 I-0.00574 J1.69999
G0 Z3.0
G0 X-40.60857 Y-109.61426
G0 Z1.0
G1 F300.0 Z-2.0
G2 F800.0 X-43.47197 Y-118.94126 I-6.97535 J-2.96159
G2 X-45.77896 Y-119.42193 I-2.25317 J5.03755
G2 X-51.23744 Y-113.63212 I0.21199 J5.66783
G3 X-51.2532 Y-113.36177 I-1.69961 J0.03656
G2 X-42.85814 Y-106.65187 I6.1919 J0.8597
G2 X-40.60857 Y-109.61426 I-4.72579 J-5.92398
G1 F300.0 X-41.0865 Y-109.79917
G3 F800.0 X-41.87221 Y-108.27547 I-7.4909 J-2.89828
G3 X-42.18544 Y-107.92031 I-1.41917 J-0.93592
G3 X-44.79571 Y-106.85199 I-2.91791 J-3.40637
G3 X-45.1451 Y-106.864 I-0.1166 J-1.696
G3 X-50.45839 Y-113.63032 I0.84812 J-6.1353
G3 X-41.06934 Y-115.55098 I4.83464 J-0.27537
G3 X-41.0865 Y-109.79917 I-7.50806 J2.85352
G1 F300.0 Z-4.0
G3 F800.0 X-41.87221 Y-108.27547 I-7.4909 J-2.89828
G3 X-42.18544 Y-107.92031 I-1.41917 J-0.93592
G3 X-44.79571 Y-106.85199 I-2.91791 J-3.40637
G3 X-45.1451 Y-106.864 I-0.1166 J-1.696
G3 X-50.45839 Y-113.63032 I0.84812 J-6.1353
G3 X-41.06934 Y-115.55098 I4.83464 J-0.27537
G3 X-41.0865 Y-109.79917 I-7.50806 J2.85352
G1 F300.0 X-40.61554 Y-109.59791
G2 F800.0 X-43.47197 Y-118.94126 I-6.96839 J-2.97794
G2 X-45.77896 Y-119.42193 I-2.25317 J5.03755
G2 X-51.23744 Y-113.63212 I0.21199 J5.66783
G3 X-51.2532 Y-113.36177 I-1.69961 J0.03656
G2 X-42.85814 Y-106.65187 I6.1919 J0.8597
G2 X-40.61554 Y-109.59791 I-4.72579 J-5.92398
G0 Z3.0
G0 X-57.62762 Y-109.25097
G0 Z1.0
G1 F300.0 Z-2.0
G3 F800.0 X-57.63233 Y-109.49451 I114.88156 J-2.34282
G3 X-58.36823 Y-108.81245 I-1.89377 J-1.30524
G3 X-57.59773 Y-108.07871 I-1.15787 J1.98729
G3 X-57.62762 Y-109.25097 I114.85167 J-3.51508
G0 Z3.0
G0 X-72.32448 Y-110.61084
G0 Z1.0
G1 F300.0 Z-2.0
G3 F800.0 X-72.94851 Y-111.12732 I1.13153 J-2.00241
G3 X-72.91115 Y-110.13741 I-403.58785 J15.72722
G3 X-72.32448 Y-110.61084 I1.71821 J1.52897
G1 F300.0 X-72.0293 Y-110.08847
G3 F800.0 X-70.82359 Y-110.26782 I0.83635 J1.48004
G2 X-59.3829 Y-108.51912 I18.68447 J-83.94177
G3 X-57.82971 Y-106.71431 I-0.1432 J1.69396
G2 X-57.43395 Y-100.3325 I25.15053 J1.64347
G3 X-57.41857 Y-100.23775 I-1.66969 J0.3196
G2 X-56.5387 Y-98.56025 I2.73469 J-0.36489
G2 X-56.32155 Y-98.84602 I-0.00454 J-0.22883
G3 X-56.36477 Y-99.08284 I1.64656 J-0.42288
G3 X-56.81929 Y-118.87621 I113.61871 J-12.51096
G2 X-57.66451 Y-118.8195 I-0.41831 J0.09251
G2 X-57.82681 Y-110.84915 I80.48168 J5.62572
G3 X-59.69074 Y-109.10774 I-1.69928 J0.0494
G3 X-71.54968 Y-110.95109 I10.16414 J-104.45723
G3 X-72.88872 Y-112.49343 I0.35673 J-1.66215
G3 X-73.25463 Y-119.44569 I193.39222 J-13.6643
G3 X-73.25539 Y-119.47511 I1.69898 J-0.05885
G2 X-73.96373 Y-119.51365 I-0.35555 J0.00616
G3 X-73.25611 Y-98.74978 I-402.57263 J24.11356
G2 X-72.54586 Y-98.73651 I0.35545 J-0.01066
G2 X-72.89064 Y-108.51994 I-290.40404 J5.33655
G3 X-72.0293 Y-110.08847 I1.6977 J-0.0885
G1 F300.0 X-72.32448 Y-110.61084
G1 Z-4.0
G3 F800.0 X-72.94851 Y-111.12732 I1.13153 J-2.00241
G3 X-72.91115 Y-110.13741 I-403.58785 J15.72722
G3 X-72.32448 Y-110.61084 I1.71821 J1.52897
G0 Z3.0
G0 X-58.36823 Y-108.81245
G0 Z-1.0
G1 F300.0 Z-4.0
G3 F800.0 X-57.59773 Y-108.07871 I-1.15787 J1.98729
G3 X-57.63233 Y-109.49451 I114.85167 J-3.51508
G3 X-58.36823 Y-108.81245 I-1.89377 J-1.30524
G1 F300.0 X-58.67028 Y-109.33088
G3 F800.0 X-59.69074 Y-109.10774 I-0.85582 J-1.46887
G3 X-71.54968 Y-110.95109 I10.16414 J-104.45723
G3 X-72.88872 Y-112.49343 I0.35673 J-1.66215
G3 X-73.25463 Y-119.44569 I193.39222 J-13.6643
G3 X-73.25539 Y-119.47511 I1.69898 J-0.05885
G2 X-73.96373 Y-119.51365 I-0.35555 J0.00616
G3 X-73.25611 Y-98.74978 I-402.57263 J24.11356
G2 X-72.54586 Y-98.73651 I0.35545 J-0.01066
G2 X-72.89064 Y-108.51994 I-290.40404 J5.33655
G3 X-70.82359 Y-110.26782 I1.6977 J-0.0885
G2 X-59.3829 Y-108.51912 I18.68447 J-83.94177
G3 X-57.82971 Y-106.71431 I-0.1432 J1.69396
G2 X-57.43395 Y-100.3325 I25.15053 J1.64347
G3 X-57.41857 Y-100.23775 I-1.66969 J0.3196
G2 X-56.5387 Y-98.56025 I2.73469 J-0.36489
G2 X-56.32155 Y-98.84602 I-0.00454 J-0.22883
G3 X-56.36477 Y-99.08284 I1.64656 J-0.42288
G3 X-56.81929 Y-118.87621 I113.61871 J-12.51096
G2 X-57.66451 Y-118.8195 I-0.41831 J0.09251
G2 X-57.82681 Y-110.84915 I80.48168 J5.62572
G3 X-58.67028 Y-109.33088 I-1.69928 J0.0494
G0 Z3.0
G0 X-18.43373 Y-108.83694
G0 Z1.0
G1 F300.0 Z-2.0
G2 F800.0 X-16.51561 Y-106.37841 I2.49538 J0.03063
G3 X-16.49 Y-106.37211 I-0.39323 J1.65389
G2 X-10.17809 Y-105.86872 I4.62787 J-18.20435
G3 X-10.01123 Y-105.87551 I0.15241 J1.69315
G2 X-9.62513 Y-106.29445 I0.00327 J-0.38437
G3 X-9.61542 Y-106.68435 I1.69311 J-0.1529
G2 X-9.63929 Y-107.23086 I-1.48412 J-0.20895
G3 X-10.92367 Y-106.23526 I-1.55703 J-0.6824
G3 X-15.68918 Y-106.44431 I-1.87985 J-11.56926
G3 X-16.11745 Y-111.10967 I0.41652 J-2.39057
G2 X-10.71959 Y-113.99013 I-22.88137 J-49.37649
G3 X-10.66188 Y-114.0237 I0.88339 J1.45245
G2 X-10.79349 Y-118.5287 I-1.23264 J-2.21841
G2 X-17.96863 Y-118.91101 I-4.05634 J8.60653
G3 X-18.41535 Y-118.82068 I-0.55725 J-1.60607
G2 X-19.07741 Y-118.25016 I0.04719 J0.72416
G2 X-18.65504 Y-118.22711 I0.24964 J-0.69294
G3 X-11.66583 Y-118.48426 I3.7556 J6.96522
G3 X-11.08967 Y-118.06181 I-0.69468 J1.55159
G3 X-12.53189 Y-113.28444 I-2.18953 J1.94539
G2 X-17.15998 Y-110.98243 I19.30003 J44.60513
G3 X-17.16283 Y-110.98082 I-0.83697 J-1.47969
G2 X-18.43373 Y-108.83694 I1.22447 J2.17452
G1 F300.0 Z-4.0
G2 F800.0 X-16.51561 Y-106.37841 I2.49538 J0.03063
G3 X-16.49 Y-106.37211 I-0.39323 J1.65389
G2 X-10.17809 Y-105.86872 I4.62787 J-18.20435
G3 X-10.01123 Y-105.87551 I0.15241 J1.69315
G2 X-9.62513 Y-106.29445 I0.00327 J-0.38437
G3 X-9.61542 Y-106.68435 I1.69311 J-0.1529
G2 X-9.63929 Y-107.23086 I-1.48412 J-0.20895
G3 X-10.92367 Y-106.23526 I-1.55703 J-0.6824
G3 X-15.68918 Y-106.44431 I-1.87985 J-11.56926
G3 X-16.11745 Y-111.10967 I0.41652 J-2.39057
G2 X-10.71959 Y-113.99013 I-22.88137 J-49.37649
G3 X-10.66188 Y-114.0237 I0.88339 J1.45245
G2 X-10.79349 Y-118.5287 I-1.23264 J-2.21841
G2 X-17.96863 Y-118.91101 I-4.05634 J8.60653
G3 X-18.41535 Y-118.82068 I-0.55725 J-1.60607
G2 X-19.07741 Y-118.25016 I0.04719 J0.72416
G2 X-18.65504 Y-118.22711 I0.24964 J-0.69294
G3 X-11.66583 Y-118.48426 I3.7556 J6.96522
G3 X-11.08967 Y-118.06181 I-0.69468 J1.55159
G3 X-12.53189 Y-113.28444 I-2.18953 J1.94539
G2 X-17.15998 Y-110.98243 I19.30003 J44.60513
G3 X-17.16283 Y-110.98082 I-0.83697 J-1.47969
G2 X-18.43373 Y-108.83694 I1.22447 J2.17452
G0 Z3.0
G0 X5.14747 Y-117.24877
G0 Z1.0
G1 F300.0 Z-2.0
G3 F800.0 X6.32316 Y-115.22701 I-6.15081 J4.92954
G3 X6.06198 Y-117.82365 I8124.62938 J-818.52312
G3 X5.14747 Y-117.24877 I-1.64709 J-1.60534
G1 F300.0 X4.68115 Y-116.87504
G3 F800.0 X6.16274 Y-113.62924 I-5.68449 J4.55581
G3 X6.16386 Y-113.62305 I-1.67229 J0.30571
G3 X6.84415 Y-109.00014 I-74.18636 J13.27857
G3 X6.00497 Y-107.3324 I-1.68875 J0.19524
G3 X3.29355 Y-106.50449 I-3.14827 J-5.45669
G3 X3.1672 Y-106.50042 I-0.11789 J-1.69591
G3 X-3.77863 Y-113.63515 I0.03479 J-6.98219
G3 X1.18262 Y-119.10426 I4.31331 J-1.07206
G2 X-4.51132 Y-114.11876 I-0.87543 J4.74445
G3 X-4.51165 Y-113.94256 I-1.69788 J0.08494
G2 X6.50876 Y-107.58416 I7.12353 J0.38297
G3 X7.34873 Y-107.85789 I0.92863 J1.42395
G2 X7.66773 Y-108.23351 I-0.01767 J-0.33827
G3 X7.34968 Y-111.03549 I545.99113 J-63.39514
G3 X7.34797 Y-111.05161 I1.68964 J-0.1874
G3 X6.22718 Y-122.19491 I8123.60458 J-822.69853
G2 X1.44514 Y-126.93289 I-5.27742 J0.54425
G3 X1.25282 Y-126.96211 I0.15873 J-1.69257
G2 X-4.51487 Y-126.40083 I-1.99245 J9.44077
G2 X-4.46631 Y-126.26332 I0.06173 J0.05553
G3 X-0.2958 Y-126.77182 I16.98906 J121.97869
G3 X-0.26213 Y-126.77501 I0.17694 J1.69077
G3 X5.77932 Y-121.94949 I0.47376 J5.60151
G3 X6.11252 Y-119.51867 I-14.36535 J3.20735
G3 X3.68846 Y-117.89201 I-1.69763 J0.08969
G3 X4.68115 Y-116.87504 I-4.6918 J5.57278
G1 F300.0 X5.14747 Y-117.24877
G1 Z-4.0
G3 F800.0 X6.32316 Y-115.22701 I-6.15081 J4.92954
G3 X6.06198 Y-117.82365 I8124.62938 J-818.52312
G3 X5.14747 Y-117.24877 I-1.64709 J-1.60534
G1 F300.0 X4.68115 Y-116.87504
G3 F800.0 X6.16274 Y-113.62924 I-5.68449 J4.55581
G3 X6.16386 Y-113.62305 I-1.67229 J0.30571
G3 X6.84415 Y-109.00014 I-74.18636 J13.27857
G3 X6.00497 Y-107.3324 I-1.68875 J0.19524
G3 X3.29355 Y-106.50449 I-3.14827 J-5.45669
G3 X3.1672 Y-106.50042 I-0.11789 J-1.69591
G3 X-3.77863 Y-113.63515 I0.03479 J-6.98219
G3 X1.18262 Y-119.10426 I4.31331 J-1.07206
G2 X-4.51132 Y-114.11876 I-0.87543 J4.74445
G3 X-4.51165 Y-113.94256 I-1.69788 J0.08494
G2 X6.50876 Y-107.58416 I7.12353 J0.38297
G3 X7.34873 Y-107.85789 I0.92863 J1.42395
G2 X7.66773 Y-108.23351 I-0.01767 J-0.33827
G3 X7.34968 Y-111.03549 I545.99113 J-63.39514
G3 X7.34797 Y-111.05161 I1.68964 J-0.1874
G3 X6.22718 Y-122.19491 I8123.60458 J-822.69853
G2 X1.44514 Y-126.93289 I-5.27742 J0.54425
G3 X1.25282 Y-126.96211 I0.15873 J-1.69257
G2 X-4.51487 Y-126.40083 I-1.99245 J9.44077
G2 X-4.46631 Y-126.26332 I0.06173 J0.05553
G3 X-0.2958 Y-126.77182 I16.98906 J121.97869
G3 X-0.26213 Y-126.77501 I0.17694 J1.69077
G3 X5.77932 Y-121.94949 I0.47376 J5.60151
G3 X6.11252 Y-119.51867 I-14.36535 J3.20735
G3 X3.68846 Y-117.89201 I-1.69763 J0.08969
G3 X4.68115 Y-116.87504 I-4.6918 J5.57278
G0 Z3.0
G0 X13.4676 Y-109.96675
G0 Z1.0
G1 F300.0 Z-2.0
G2 F800.0 X13.50248 Y-107.87505 I334.8698 J-4.53905
G3 X14.55978 Y-108.51241 I1.67251 J1.57884
G3 X13.4676 Y-109.96675 I6.21866 J-5.80739
G1 F300.0 X12.86765 Y-109.95861
G2 F800.0 X12.93016 Y-106.59323 I335.46975 J-4.54718
G3 X12.92959 Y-106.49365 I-1.69953 J0.04009
G2 X13.48267 Y-106.45762 I0.27708 J0.0097
G3 X16.34199 Y-107.53239 I1.69232 J0.1614
G2 X21.73994 Y-106.13866 I3.96271 J-4.1976
G2 X22.45257 Y-108.08959 I-1.48603 J-1.64842
G3 X22.43985 Y-108.42472 I1.68414 J-0.23171
G2 X22.42858 Y-109.17981 I-4.97674 J-0.30335
G3 X22.43818 Y-109.57071 I1.69301 J-0.15402
G2 X21.89196 Y-109.96896 I-0.37937 J-0.05338
G2 X21.74002 Y-108.21886 I6.93694 J1.48388
G3 X19.83936 Y-106.46708 I-1.6988 J0.0638
G3 X13.64071 Y-110.91394 I0.93908 J-7.85272
G3 X13.47499 Y-111.64942 I1.53428 J-0.7321
G1 X13.49011 Y-119.25101
G3 X13.49145 Y-119.31538 I1.7 J0.00338
G2 X12.86883 I-0.31131 J-0.01242
G3 X12.87001 Y-119.22373 I-1.69865 J0.06775
G2 X12.86765 Y-109.95861 I335.46739 J4.71793
G1 F300.0 X13.4676 Y-109.96675
G1 Z-4.0
G2 F800.0 X13.50248 Y-107.87505 I334.8698 J-4.53905
G3 X14.55978 Y-108.51241 I1.67251 J1.57884
G3 X13.4676 Y-109.96675 I6.21866 J-5.80739
G1 F300.0 X12.86765 Y-109.95861
G2 F800.0 X12.93016 Y-106.59323 I335.46975 J-4.54718
G3 X12.92959 Y-106.49365 I-1.69953 J0.04009
G2 X13.48267 Y-106.45762 I0.27708 J0.0097
G3 X16.34199 Y-107.53239 I1.69232 J0.1614
G2 X21.73994 Y-106.13866 I3.96271 J-4.1976
G2 X22.45257 Y-108.08959 I-1.48603 J-1.64842
G3 X22.43985 Y-108.42472 I1.68414 J-0.23171
G2 X22.42858 Y-109.17981 I-4.97674 J-0.30335
G3 X22.43818 Y-109.57071 I1.69301 J-0.15402
G2 X21.89196 Y-109.96896 I-0.37937 J-0.05338
G2 X21.74002 Y-108.21886 I6.93694 J1.48388
G3 X19.83936 Y-106.46708 I-1.6988 J0.0638
G3 X13.64071 Y-110.91394 I0.93908 J-7.85272
G3 X13.47499 Y-111.64942 I1.53428 J-0.7321
G1 X13.49011 Y-119.25101
G3 X13.49145 Y-119.31538 I1.7 J0.00338
G2 X12.86883 I-0.31131 J-0.01242
G3 X12.87001 Y-119.22373 I-1.69865 J0.06775
G2 X12.86765 Y-109.95861 I335.46739 J4.71793
G0 Z3.0
G0 X36.90819 Y-118.31363
G0 Z1.0
G1 F300.0 Z-2.0
G3 F800.0 X37.34772 Y-117.82852 I-1.46733 J1.77114
G3 X37.373 Y-118.66768 I207.14856 J5.82171
G3 X36.90819 Y-118.31363 I-1.61479 J-1.63782
G1 F300.0 X36.52541 Y-117.8516
G3 F800.0 X37.13953 Y-116.47551 I-1.08455 J1.3091
G2 X37.37461 Y-106.17575 I82.75971 J3.26371
G2 X38.14833 Y-106.15766 I0.38825 J-0.05007
G3 X37.8668 Y-111.46688 I72.58925 J-6.51133
G3 X37.86657 Y-111.49067 I1.69977 J-0.02804
G3 X37.99923 Y-119.42778 I206.62971 J-0.51614
G2 X37.2697 Y-119.52741 I-0.38237 J0.07908
G3 X35.0255 Y-118.77152 I-1.51148 J-0.77809
G2 X28.99684 Y-118.6388 I-2.88292 J6.03555
G2 X27.86255 Y-116.85109 I1.35433 J2.11302
G3 X27.84307 Y-116.73404 I-1.68566 J-0.22034
G2 X27.71474 Y-106.12472 I27.86504 J5.64251
G3 X27.71826 Y-106.10413 I-1.67386 J0.29699
G2 X28.47451 Y-106.03109 I0.38782 J-0.0639
G3 X28.67227 Y-117.04257 I27.55965 J-5.01256
G3 X29.7599 Y-118.27905 I1.66056 J0.36407
G3 X36.09815 Y-118.11028 I2.9518 J8.24617
G3 X36.52541 Y-117.8516 I-0.6573 J1.56779
G1 F300.0 X36.90819 Y-118.31363
G1 Z-4.0
G3 F800.0 X37.34772 Y-117.82852 I-1.46733 J1.77114
G3 X37.373 Y-118.66768 I207.14856 J5.82171
G3 X36.90819 Y-118.31363 I-1.61479 J-1.63782
G1 F300.0 X36.52541 Y-117.8516
G3 F800.0 X37.13953 Y-116.47551 I-1.08455 J1.3091
G2 X37.37461 Y-106.17575 I82.75971 J3.26371
G2 X38.14833 Y-106.15766 I0.38825 J-0.05007
G3 X37.8668 Y-111.46688 I72.58925 J-6.51133
G3 X37.86657 Y-111.49067 I1.69977 J-0.02804
G3 X37.99923 Y-119.42778 I206.62971 J-0.51614
G2 X37.2697 Y-119.52741 I-0.38237 J0.07908
G3 X35.0255 Y-118.77152 I-1.51148 J-0.77809
G2 X28.99684 Y-118.6388 I-2.88292 J6.03555
G2 X27.86255 Y-116.85109 I1.35433 J2.11302
G3 X27.84307 Y-116.73404 I-1.68566 J-0.22034
G2 X27.71474 Y-106.12472 I27.86504 J5.64251
G3 X27.71826 Y-106.10413 I-1.67386 J0.29699
G2 X28.47451 Y-106.03109 I0.38782 J-0.0639
G3 X28.67227 Y-117.04257 I27.55965 J-5.01256
G3 X29.7599 Y-118.27905 I1.66056 J0.36407
G3 X36.09815 Y-118.11028 I2.9518 J8.24617
G3 X36.52541 Y-117.8516 I-0.6573 J1.56779
G0 Z3.0
G0 X45.18987 Y-109.0847
G0 Z1.0
G1 F300.0 Z-2.0
G2 F800.0 X45.20398 Y-108.87361 I108.06885 J-7.12137
G3 X45.29744 Y-108.91705 I1.269 J2.60761
G3 X45.18987 Y-109.0847 I7.40984 J-4.87269
G1 F300.0 X46.20706 Y-109.72135
G3 F800.0 X45.56396 Y-111.00089 I6.50022 J-4.06839
G3 X45.55622 Y-111.02109 I1.58359 J-0.61826
G3 X44.56927 Y-119.03159 I16.09594 J-6.04919
G2 X43.7901 Y-118.9616 I-0.38583 J0.07672
G3 X43.78982 Y-118.94815 I-1.69975 J-0.02911
G2 X44.02792 Y-108.48648 I109.4689 J2.74208
G3 X44.02998 Y-108.28078 I-1.69577 J0.11984
G2 X43.92998 Y-105.77816 I118.13674 J5.97383
G2 X44.76644 Y-105.92929 I0.4123 J-0.10838
G3 X44.76485 Y-106.25367 I1.69143 J-0.17047
G1 X44.77996 Y-106.41991
G3 X47.81721 Y-107.30669 I1.69302 J0.15391
G2 X52.61169 Y-106.07711 I3.18784 J-2.46801
G2 X53.96567 Y-108.81093 I-2.15939 J-2.77168
G3 X53.96593 Y-108.82768 I1.6999 J0.01832
G3 X54.71093 Y-119.27192 I103.53771 J2.13678
G2 X54.24768 Y-119.605 I-0.48915 J0.19162
G3 X54.15029 Y-119.61262 I0.0838 J-1.69793
G2 X53.96082 Y-119.44527 I-0.01825 J0.17027
G3 X53.94344 Y-119.23012 I-1.69975 J-0.02905
G2 X53.46339 Y-109.6291 I50.57819 J7.34141
G3 X51.38611 Y-106.35392 I-2.46873 J0.73056
G3 X50.67769 Y-106.39478 I-0.25848 J-1.68023
G3 X46.20706 Y-109.72135 I2.02958 J-7.39496
G1 F300.0 X45.18987 Y-109.0847
G1 Z-4.0
G2 F800.0 X45.20398 Y-108.87361 I108.06885 J-7.12137
G3 X45.29744 Y-108.91705 I1.269 J2.60761
G3 X45.18987 Y-109.0847 I7.40984 J-4.87269
G1 F300.0 X46.20706 Y-109.72135
G3 F800.0 X45.56396 Y-111.00089 I6.50022 J-4.06839
G3 X45.55622 Y-111.02109 I1.58359 J-0.61826
G3 X44.56927 Y-119.03159 I16.09594 J-6.04919
G2 X43.7901 Y-118.9616 I-0.38583 J0.07672
G3 X43.78982 Y-118.94815 I-1.69975 J-0.02911
G2 X44.02792 Y-108.48648 I109.4689 J2.74208
G3 X44.02998 Y-108.28078 I-1.69577 J0.11984
G2 X43.92998 Y-105.77816 I118.13674 J5.97383
G2 X44.76644 Y-105.92929 I0.4123 J-0.10838
G3 X44.76485 Y-106.25367 I1.69143 J-0.17047
G1 X44.77996 Y-106.41991
G3 X47.81721 Y-107.30669 I1.69302 J0.15391
G2 X52.61169 Y-106.07711 I3.18784 J-2.46801
G2 X53.96567 Y-108.81093 I-2.15939 J-2.77168
G3 X53.96593 Y-108.82768 I1.6999 J0.01832
G3 X54.71093 Y-119.27192 I103.53771 J2.13678
G2 X54.24768 Y-119.605 I-0.48915 J0.19162
G3 X54.15029 Y-119.61262 I0.0838 J-1.69793
G2 X53.96082 Y-119.44527 I-0.01825 J0.17027
G3 X53.94344 Y-119.23012 I-1.69975 J-0.02905
G2 X53.46339 Y-109.6291 I50.57819 J7.34141
G3 X51.38611 Y-106.35392 I-2.46873 J0.73056
G3 X50.67769 Y-106.39478 I-0.25848 J-1.68023
G3 X46.20706 Y-109.72135 I2.02958 J-7.39496
G0 Z3.0
G0 X59.95379 Y-111.82212
G0 Z1.0
G1 F300.0 Z-2.0
G3 F800.0 X70.74345 Y-116.3536 I5.96365 J-0.91136
G3 X71.08345 Y-115.31678 I-1.35992 J1.02011
G2 Y-109.81903 I279.65001 J2.74888
G3 X70.84904 Y-108.94077 I-1.69992 J0.01671
G3 X60.29571 Y-110.54446 I-4.95579 J-2.91342
G3 X59.95379 Y-111.82212 I5.62173 J-2.18903
G0 Z3.0
G0 X70.27649 Y-107.26473
G0 Z1.0
G1 F300.0 Z-2.0
G3 F800.0 X71.15405 Y-106.81224 I-0.59071 J2.22285
G3 X71.12157 Y-108.25689 I102.07121 J-3.01727
G3 X70.27649 Y-107.26473 I-5.22832 J-3.59729
G0 Z3.0
G0 X71.33102 Y-116.55261
G0 Z1.0
G1 F300.0 Z-2.0
G3 F800.0 X71.41904 Y-117.7749 I101.89423 J6.7231
G3 X70.59608 Y-117.43174 I-1.27988 J-1.91099
G3 X71.2215 Y-116.7122 I-4.67865 J4.69825
G3 X71.33102 Y-116.55261 I-1.83797 J1.37871
G1 F300.0 X71.92972 Y-116.51311
G3 F800.0 X72.10501 Y-118.78225 I101.29554 J6.68359
G2 X71.61943 Y-118.84996 I-0.25614 J0.06186
G3 X69.1555 Y-118.29938 I-1.48028 J-0.83593
G2 X59.52202 Y-113.18122 I-3.53159 J4.97801
G3 X59.5163 Y-112.99749 I-1.69955 J0.03904
G2 X67.72902 Y-105.96501 I6.63214 J0.56656
G2 X68.68707 Y-106.41759 I-0.71947 J-2.76335
G3 X71.38513 Y-105.0888 I0.99871 J1.37571
G2 X71.84511 Y-98.10011 I91.85667 J-2.53628
G3 X71.84917 Y-98.05549 I-1.69084 J0.17621
G2 X72.3965 Y-98.03895 I0.27456 J-0.02132
G3 X71.92972 Y-116.51311 I100.82876 J-11.79056
G1 F300.0 X71.33102 Y-116.55261
G1 Z-4.0
G3 F800.0 X71.41904 Y-117.7749 I101.89423 J6.7231
G3 X70.59608 Y-117.43174 I-1.27988 J-1.91099
G3 X71.2215 Y-116.7122 I-4.67865 J4.69825
G3 X71.33102 Y-116.55261 I-1.83797 J1.37871
G0 Z3.0
G0 X71.12157 Y-108.25689
G0 Z-1.0
G1 F300.0 Z-4.0
G3 F800.0 X70.27649 Y-107.26473 I-5.22832 J-3.59729
G3 X71.15405 Y-106.81224 I-0.59071 J2.22285
G3 X71.12157 Y-108.25689 I102.07121 J-3.01727
G1 F300.0 X71.7215 Y-108.26613
G3 F800.0 X72.10501 Y-118.78225 I101.50375 J-1.56338
G2 X71.61943 Y-118.84996 I-0.25614 J0.06186
G3 X69.1555 Y-118.29938 I-1.48028 J-0.83593
G2 X59.52202 Y-113.18122 I-3.53159 J4.97801
G3 X59.5163 Y-112.99749 I-1.69955 J0.03904
G2 X67.72902 Y-105.96501 I6.63214 J0.56656
G2 X68.68707 Y-106.41759 I-0.71947 J-2.76335
G3 X71.38513 Y-105.0888 I0.99871 J1.37571
G2 X71.84511 Y-98.10011 I91.85667 J-2.53628
G3 X71.84917 Y-98.05549 I-1.69084 J0.17621
G2 X72.3965 Y-98.03895 I0.27456 J-0.02132
G3 X71.7215 Y-108.26613 I100.82876 J-11.79056
G1 F300.0 X70.78866 Y-108.84042
G3 F800.0 X60.29571 Y-110.54446 I-4.89541 J-3.01377
G3 X70.74345 Y-116.3536 I5.62173 J-2.18903
G3 X71.08345 Y-115.31678 I-1.35992 J1.02011
G2 Y-109.81903 I279.65001 J2.74888
G3 X70.84904 Y-108.94077 I-1.69992 J0.01671
G3 X70.78866 Y-108.84042 I-4.95579 J-2.91342
( ProfilAlles1.5 )
G0 Z3.0
( T15 : 1.5 )
T15 M6
M3 S1000
G0 X-55.42048 Y-99.18682
G0 Z1.0
G1 F300.0 Z-2.0
G3 F800.0 X-55.86509 Y-118.91114 I112.67442 J-12.40698
G2 X-58.61187 Y-118.89047 I-1.37251 J0.12743
G2 X-58.77641 Y-110.82154 I81.42904 J5.69669
G3 X-59.59873 Y-110.05327 I-0.74968 J0.0218
G3 X-71.35033 Y-111.87994 I10.07213 J-103.51169
G3 X-71.94108 Y-112.56038 I0.15738 J-0.7333
G3 X-72.3052 Y-119.47858 I192.44458 J-13.59734
G3 X-72.30553 Y-119.49156 I0.74955 J-0.02597
G2 X-74.91566 Y-119.51729 I-1.30541 J0.0226
G3 X-74.20602 Y-98.73484 I-401.62071 J24.1172
G2 X-71.5955 Y-98.72601 I1.30536 J-0.02561
G2 X-71.94193 Y-108.56939 I-291.3544 J5.32605
G3 X-71.02999 Y-109.34052 I0.74898 J-0.03904
G2 X-59.46292 Y-107.57249 I18.89087 J-84.86907
G3 X-58.77769 Y-106.77625 I-0.06318 J0.74733
G2 X-58.36701 Y-100.15391 I26.09851 J1.70542
G3 X-58.36023 Y-100.1121 I-0.73663 J0.141
G2 X-56.99084 Y-97.69849 I3.67635 J-0.49054
G2 X-55.40141 Y-99.08234 I0.44761 J-1.0906
G3 X-55.42048 Y-99.18682 I0.72642 J-0.18657
G1 F300.0 Z-4.0
G3 F800.0 X-55.86509 Y-118.91114 I112.67442 J-12.40698
G2 X-58.61187 Y-118.89047 I-1.37251 J0.12743
G2 X-58.77641 Y-110.82154 I81.42904 J5.69669
G3 X-59.59873 Y-110.05327 I-0.74968 J0.0218
G3 X-71.35033 Y-111.87994 I10.07213 J-103.51169
G3 X-71.94108 Y-112.56038 I0.15738 J-0.7333
G3 X-72.3052 Y-119.47858 I192.44458 J-13.59734
G3 X-72.30553 Y-119.49156 I0.74955 J-0.02597
G2 X-74.91566 Y-119.51729 I-1.30541 J0.0226
G3 X-74.20602 Y-98.73484 I-401.62071 J24.1172
G2 X-71.5955 Y-98.72601 I1.30536 J-0.02561
G2 X-71.94193 Y-108.56939 I-291.3544 J5.32605
G3 X-71.02999 Y-109.34052 I0.74898 J-0.03904
G2 X-59.46292 Y-107.57249 I18.89087 J-84.86907
G3 X-58.77769 Y-106.77625 I-0.06318 J0.74733
G2 X-58.36701 Y-100.15391 I26.09851 J1.70542
G3 X-58.36023 Y-100.1121 I-0.73663 J0.141
G2 X-56.99084 Y-97.69849 I3.67635 J-0.49054
G2 X-55.40141 Y-99.08234 I0.44761 J-1.0906
G3 X-55.42048 Y-99.18682 I0.72642 J-0.18657
G1 F300.0 Z-6.0
G3 F800.0 X-55.86509 Y-118.91114 I112.67442 J-12.40698
G2 X-58.61187 Y-118.89047 I-1.37251 J0.12743
G2 X-58.77641 Y-110.82154 I81.42904 J5.69669
G3 X-59.59873 Y-110.05327 I-0.74968 J0.0218
G3 X-71.35033 Y-111.87994 I10.07213 J-103.51169
G3 X-71.94108 Y-112.56038 I0.15738 J-0.7333
G3 X-72.3052 Y-119.47858 I192.44458 J-13.59734
G3 X-72.30553 Y-119.49156 I0.74955 J-0.02597
G2 X-74.91566 Y-119.51729 I-1.30541 J0.0226
G3 X-74.20602 Y-98.73484 I-401.62071 J24.1172
G2 X-71.5955 Y-98.72601 I1.30536 J-0.02561
G2 X-71.94193 Y-108.56939 I-291.3544 J5.32605
G3 X-71.02999 Y-109.34052 I0.74898 J-0.03904
G2 X-59.46292 Y-107.57249 I18.89087 J-84.86907
G3 X-58.77769 Y-106.77625 I-0.06318 J0.74733
G2 X-58.36701 Y-100.15391 I26.09851 J1.70542
G3 X-58.36023 Y-100.1121 I-0.73663 J0.141
G2 X-56.99084 Y-97.69849 I3.67635 J-0.49054
G2 X-55.40141 Y-99.08234 I0.44761 J-1.0906
G3 X-55.42048 Y-99.18682 I0.72642 J-0.18657
G0 Z3.0
G0 X-49.48323 Y-106.81831
G0 Z1.0
G1 F300.0 Z-2.0
G2 F800.0 X-42.38291 Y-105.81739 I4.42193 J-5.68377
G2 X-43.01715 Y-119.77807 I-5.20102 J-6.75846
G2 X-45.80136 Y-120.37174 I-2.70799 J5.87436
G2 X-52.18722 Y-113.61169 I0.2344 J6.61764
G3 X-52.19417 Y-113.49242 I-0.74983 J0.01613
G2 X-49.48323 Y-106.81831 I7.13288 J0.99034
G1 F300.0 Z-4.0
G2 F800.0 X-42.38291 Y-105.81739 I4.42193 J-5.68377
G2 X-43.01715 Y-119.77807 I-5.20102 J-6.75846
G2 X-45.80136 Y-120.37174 I-2.70799 J5.87436
G2 X-52.18722 Y-113.61169 I0.2344 J6.61764
G3 X-52.19417 Y-113.49242 I-0.74983 J0.01613
G2 X-49.48323 Y-106.81831 I7.13288 J0.99034
G1 F300.0 Z-6.0
G2 F800.0 X-42.38291 Y-105.81739 I4.42193 J-5.68377
G2 X-43.01715 Y-119.77807 I-5.20102 J-6.75846
G2 X-45.80136 Y-120.37174 I-2.70799 J5.87436
G2 X-52.18722 Y-113.61169 I0.2344 J6.61764
G3 X-52.19417 Y-113.49242 I-0.74983 J0.01613
