( Made using CamBam - http://www.cambam.co.uk )
( Zum-Hof-Elipse 12/2/2017 11:21:08 AM )
( T6 : 6.0 )
G21 G90 G64 G40
G0 Z3.0
( T6 : 6.0 )
T6 M6
( GravierenOben )
G17
M3 S1000
G0 X195.36092 Y0.20686
G0 Z1.0
G1 F300.0 Z-4.0
G1 F800.0 X195.09335 Y7.61739
G1 X194.29136 Y15.00762
G1 X192.95715 Y22.35727
G1 X191.09439 Y29.64621
G1 X188.70816 Y36.85447
G1 X185.80503 Y43.96227
G1 X182.39294 Y50.95014
G1 X178.48124 Y57.79893
G1 X174.08066 Y64.48986
G1 X169.20326 Y71.0046
G1 X163.86241 Y77.32528
G1 X158.07274 Y83.43459
G1 X151.85013 Y89.31578
G1 X145.21163 Y94.95273
G1 X138.17544 Y100.32998
G1 X130.76084 Y105.4328
G1 X122.98816 Y110.24721
G1 X114.87869 Y114.76001
G1 X106.45468 Y118.95882
G1 X97.7392 Y122.83214
G1 X88.75615 Y126.36935
G1 X79.53014 Y129.56076
G1 X70.08647 Y132.39762
G1 X60.45102 Y134.87216
G1 X50.6502 Y136.97759
G1 X40.71087 Y138.70813
G1 X30.66028 Y140.05906
G1 X20.52597 Y141.02666
G1 X10.33573 Y141.60828
G1 X0.11747 Y141.80233
G1 X-10.10078 Y141.60828
G1 X-20.29102 Y141.02666
G1 X-30.42533 Y140.05906
G1 X-40.47592 Y138.70813
G1 X-50.41525 Y136.97759
G1 X-60.21607 Y134.87216
G1 X-69.85152 Y132.39762
G1 X-79.29519 Y129.56076
G1 X-88.5212 Y126.36935
G1 X-97.50425 Y122.83214
G1 X-106.21973 Y118.95882
G1 X-114.64375 Y114.76001
G1 X-122.75321 Y110.24721
G1 X-130.52589 Y105.4328
G1 X-137.94049 Y100.32998
G1 X-144.97669 Y94.95273
G1 X-151.61518 Y89.31578
G1 X-157.8378 Y83.43459
G1 X-163.62746 Y77.32528
G1 X-168.96831 Y71.0046
G1 X-173.84571 Y64.48986
G1 X-178.24629 Y57.79893
G1 X-182.15799 Y50.95014
G1 X-185.57008 Y43.96227
G1 X-188.47322 Y36.85447
G1 X-190.85944 Y29.64621
G1 X-192.72221 Y22.35727
G1 X-194.05641 Y15.00762
G1 X-194.8584 Y7.61739
G1 X-195.12598 Y0.20686
G1 F300.0 Z-8.0
G1 F800.0 X-194.8584 Y7.61739
G1 X-194.05641 Y15.00762
G1 X-192.72221 Y22.35727
G1 X-190.85944 Y29.64621
G1 X-188.47322 Y36.85447
G1 X-185.57008 Y43.96227
G1 X-182.15799 Y50.95014
G1 X-178.24629 Y57.79893
G1 X-173.84571 Y64.48986
G1 X-168.96831 Y71.0046
G1 X-163.62746 Y77.32528
G1 X-157.8378 Y83.43459
G1 X-151.61518 Y89.31578
G1 X-144.97669 Y94.95273
G1 X-137.94049 Y100.32998
G1 X-130.52589 Y105.4328
G1 X-122.75321 Y110.24721
G1 X-114.64375 Y114.76001
G1 X-106.21973 Y118.95882
G1 X-97.50425 Y122.83214
G1 X-88.5212 Y126.36935
G1 X-79.29519 Y129.56076
G1 X-69.85152 Y132.39762
G1 X-60.21607 Y134.87216
G1 X-50.41525 Y136.97759
G1 X-40.47592 Y138.70813
G1 X-30.42533 Y140.05906
G1 X-20.29102 Y141.02666
G1 X-10.10078 Y141.60828
G1 X0.11747 Y141.80233
G1 X10.33573 Y141.60828
G1 X20.52597 Y141.02666
G1 X30.66028 Y140.05906
G1 X40.71087 Y138.70813
G1 X50.6502 Y136.97759
G1 X60.45102 Y134.87216
G1 X70.08647 Y132.39762
G1 X79.53014 Y129.56076
G1 X88.75615 Y126.36935
G1 X97.7392 Y122.83214
G1 X106.45468 Y118.95882
G1 X114.87869 Y114.76001
G1 X122.98816 Y110.24721
G1 X130.76084 Y105.4328
G1 X138.17544 Y100.32998
G1 X145.21163 Y94.95273
G1 X151.85013 Y89.31578
G1 X158.07274 Y83.43459
G1 X163.86241 Y77.32528
G1 X169.20326 Y71.0046
G1 X174.08066 Y64.48986
G1 X178.48124 Y57.79893
G1 X182.39294 Y50.95014
G1 X185.80503 Y43.96227
G1 X188.70816 Y36.85447
G1 X191.09439 Y29.64621
G1 X192.95715 Y22.35727
G1 X194.29136 Y15.00762
G1 X195.09335 Y7.61739
G1 X195.36092 Y0.20686
G1 F300.0 Z-12.0
G1 F800.0 X195.09335 Y7.61739
G1 X194.29136 Y15.00762
G1 X192.95715 Y22.35727
G1 X191.09439 Y29.64621
G1 X188.70816 Y36.85447
G1 X185.80503 Y43.96227
G1 X182.39294 Y50.95014
G1 X178.48124 Y57.79893
G1 X174.08066 Y64.48986
G1 X169.20326 Y71.0046
G1 X163.86241 Y77.32528
G1 X158.07274 Y83.43459
G1 X151.85013 Y89.31578
G1 X145.21163 Y94.95273
G1 X138.17544 Y100.32998
G1 X130.76084 Y105.4328
G1 X122.98816 Y110.24721
G1 X114.87869 Y114.76001
G1 X106.45468 Y118.95882
G1 X97.7392 Y122.83214
G1 X88.75615 Y126.36935
G1 X79.53014 Y129.56076
G1 X70.08647 Y132.39762
G1 X60.45102 Y134.87216
G1 X50.6502 Y136.97759
G1 X40.71087 Y138.70813
G1 X30.66028 Y140.05906
G1 X20.52597 Y141.02666
G1 X10.33573 Y141.60828
G1 X0.11747 Y141.80233
G1 X-10.10078 Y141.60828
G1 X-20.29102 Y141.02666
G1 X-30.42533 Y140.05906
G1 X-40.47592 Y138.70813
G1 X-50.41525 Y136.97759
G1 X-60.21607 Y134.87216
G1 X-69.85152 Y132.39762
G1 X-79.29519 Y129.56076
G1 X-88.5212 Y126.36935
G1 X-97.50425 Y122.83214
G1 X-106.21973 Y118.95882
G1 X-114.64375 Y114.76001
G1 X-122.75321 Y110.24721
G1 X-130.52589 Y105.4328
G1 X-137.94049 Y100.32998
G1 X-144.97669 Y94.95273
G1 X-151.61518 Y89.31578
G1 X-157.8378 Y83.43459
G1 X-163.62746 Y77.32528
G1 X-168.96831 Y71.0046
G1 X-173.84571 Y64.48986
G1 X-178.24629 Y57.79893
G1 X-182.15799 Y50.95014
G1 X-185.57008 Y43.96227
G1 X-188.47322 Y36.85447
G1 X-190.85944 Y29.64621
G1 X-192.72221 Y22.35727
G1 X-194.05641 Y15.00762
G1 X-194.8584 Y7.61739
G1 X-195.12598 Y0.20686
G1 F300.0 Z-16.0
G1 F800.0 X-194.8584 Y7.61739
G1 X-194.05641 Y15.00762
G1 X-192.72221 Y22.35727
G1 X-190.85944 Y29.64621
G1 X-188.47322 Y36.85447
G1 X-185.57008 Y43.96227
G1 X-182.15799 Y50.95014
G1 X-178.24629 Y57.79893
G1 X-173.84571 Y64.48986
G1 X-168.96831 Y71.0046
G1 X-163.62746 Y77.32528
G1 X-157.8378 Y83.43459
G1 X-151.61518 Y89.31578
G1 X-144.97669 Y94.95273
G1 X-137.94049 Y100.32998
G1 X-130.52589 Y105.4328
G1 X-122.75321 Y110.24721
G1 X-114.64375 Y114.76001
G1 X-106.21973 Y118.95882
G1 X-97.50425 Y122.83214
G1 X-88.5212 Y126.36935
G1 X-79.29519 Y129.56076
G1 X-69.85152 Y132.39762
G1 X-60.21607 Y134.87216
G1 X-50.41525 Y136.97759
G1 X-40.47592 Y138.70813
G1 X-30.42533 Y140.05906
G1 X-20.29102 Y141.02666
G1 X-10.10078 Y141.60828
G1 X0.11747 Y141.80233
G1 X10.33573 Y141.60828
G1 X20.52597 Y141.02666
G1 X30.66028 Y140.05906
G1 X40.71087 Y138.70813
G1 X50.6502 Y136.97759
G1 X60.45102 Y134.87216
G1 X70.08647 Y132.39762
G1 X79.53014 Y129.56076
G1 X88.75615 Y126.36935
G1 X97.7392 Y122.83214
G1 X106.45468 Y118.95882
G1 X114.87869 Y114.76001
G1 X122.98816 Y110.24721
G1 X130.76084 Y105.4328
G1 X138.17544 Y100.32998
G1 X145.21163 Y94.95273
G1 X151.85013 Y89.31578
G1 X158.07274 Y83.43459
G1 X163.86241 Y77.32528
G1 X169.20326 Y71.0046
G1 X174.08066 Y64.48986
G1 X178.48124 Y57.79893
G1 X182.39294 Y50.95014
G1 X185.80503 Y43.96227
G1 X188.70816 Y36.85447
G1 X191.09439 Y29.64621
G1 X192.95715 Y22.35727
G1 X194.29136 Y15.00762
G1 X195.09335 Y7.61739
G1 X195.36092 Y0.20686
G1 F300.0 Z-20.0
G1 F800.0 X195.09335 Y7.61739
G1 X194.29136 Y15.00762
G1 X192.95715 Y22.35727
G1 X191.09439 Y29.64621
G1 X188.70816 Y36.85447
G1 X185.80503 Y43.96227
G1 X182.39294 Y50.95014
G1 X178.48124 Y57.79893
G1 X174.08066 Y64.48986
G1 X169.20326 Y71.0046
G1 X163.86241 Y77.32528
G1 X158.07274 Y83.43459
G1 X151.85013 Y89.31578
G1 X145.21163 Y94.95273
G1 X138.17544 Y100.32998
G1 X130.76084 Y105.4328
G1 X122.98816 Y110.24721
G1 X114.87869 Y114.76001
G1 X106.45468 Y118.95882
G1 X97.7392 Y122.83214
G1 X88.75615 Y126.36935
G1 X79.53014 Y129.56076
G1 X70.08647 Y132.39762
G1 X60.45102 Y134.87216
G1 X50.6502 Y136.97759
G1 X40.71087 Y138.70813
G1 X30.66028 Y140.05906
G1 X20.52597 Y141.02666
G1 X10.33573 Y141.60828
G1 X0.11747 Y141.80233
G1 X-10.10078 Y141.60828
G1 X-20.29102 Y141.02666
G1 X-30.42533 Y140.05906
G1 X-40.47592 Y138.70813
G1 X-50.41525 Y136.97759
G1 X-60.21607 Y134.87216
G1 X-69.85152 Y132.39762
G1 X-79.29519 Y129.56076
G1 X-88.5212 Y126.36935
G1 X-97.50425 Y122.83214
G1 X-106.21973 Y118.95882
G1 X-114.64375 Y114.76001
G1 X-122.75321 Y110.24721
G1 X-130.52589 Y105.4328
G1 X-137.94049 Y100.32998
G1 X-144.97669 Y94.95273
G1 X-151.61518 Y89.31578
G1 X-157.8378 Y83.43459
G1 X-163.62746 Y77.32528
G1 X-168.96831 Y71.0046
G1 X-173.84571 Y64.48986
G1 X-178.24629 Y57.79893
G1 X-182.15799 Y50.95014
G1 X-185.57008 Y43.96227
G1 X-188.47322 Y36.85447
G1 X-190.85944 Y29.64621
G1 X-192.72221 Y22.35727
G1 X-194.05641 Y15.00762
G1 X-194.8584 Y7.61739
G1 X-195.12598 Y0.20686
G1 F300.0 Z-24.0
G1 F800.0 X-194.8584 Y7.61739
G1 X-194.05641 Y15.00762
G1 X-192.72221 Y22.35727
G1 X-190.85944 Y29.64621
G1 X-188.47322 Y36.85447
G1 X-185.57008 Y43.96227
G1 X-182.15799 Y50.95014
G1 X-178.24629 Y57.79893
G1 X-173.84571 Y64.48986
G1 X-168.96831 Y71.0046
G1 X-163.62746 Y77.32528
G1 X-157.8378 Y83.43459
G1 X-151.61518 Y89.31578
G1 X-144.97669 Y94.95273
G1 X-137.94049 Y100.32998
G1 X-130.52589 Y105.4328
G1 X-122.75321 Y110.24721
G1 X-114.64375 Y114.76001
G1 X-106.21973 Y118.95882
G1 X-97.50425 Y122.83214
G1 X-88.5212 Y126.36935
G1 X-79.29519 Y129.56076
G1 X-69.85152 Y132.39762
G1 X-60.21607 Y134.87216
G1 X-50.41525 Y136.97759
G1 X-40.47592 Y138.70813
G1 X-30.42533 Y140.05906
G1 X-20.29102 Y141.02666
G1 X-10.10078 Y141.60828
G1 X0.11747 Y141.80233
G1 X10.33573 Y141.60828
G1 X20.52597 Y141.02666
G1 X30.66028 Y140.05906
G1 X40.71087 Y138.70813
G1 X50.6502 Y136.97759
G1 X60.45102 Y134.87216
G1 X70.08647 Y132.39762
G1 X79.53014 Y129.56076
G1 X88.75615 Y126.36935
G1 X97.7392 Y122.83214
G1 X106.45468 Y118.95882
G1 X114.87869 Y114.76001
G1 X122.98816 Y110.24721
G1 X130.76084 Y105.4328
G1 X138.17544 Y100.32998
G1 X145.21163 Y94.95273
G1 X151.85013 Y89.31578
G1 X158.07274 Y83.43459
G1 X163.86241 Y77.32528
G1 X169.20326 Y71.0046
G1 X174.08066 Y64.48986
G1 X178.48124 Y57.79893
G1 X182.39294 Y50.95014
G1 X185.80503 Y43.96227
G1 X188.70816 Y36.85447
G1 X191.09439 Y29.64621
G1 X192.95715 Y22.35727
G1 X194.29136 Y15.00762
G1 X195.09335 Y7.61739
G1 X195.36092 Y0.20686
G1 F300.0 Z-28.0
G1 F800.0 X195.09335 Y7.61739
G1 X194.29136 Y15.00762
G1 X192.95715 Y22.35727
G1 X191.09439 Y29.64621
G1 X188.70816 Y36.85447
G1 X185.80503 Y43.96227
G1 X182.39294 Y50.95014
G1 X178.48124 Y57.79893
G1 X174.08066 Y64.48986
G1 X169.20326 Y71.0046
G1 X163.86241 Y77.32528
G1 X158.07274 Y83.43459
G1 X151.85013 Y89.31578
G1 X145.21163 Y94.95273
G1 X138.17544 Y100.32998
G1 X130.76084 Y105.4328
G1 X122.98816 Y110.24721
G1 X114.87869 Y114.76001
G1 X106.45468 Y118.95882
G1 X97.7392 Y122.83214
G1 X88.75615 Y126.36935
G1 X79.53014 Y129.56076
G1 X70.08647 Y132.39762
G1 X60.45102 Y134.87216
G1 X50.6502 Y136.97759
G1 X40.71087 Y138.70813
G1 X30.66028 Y140.05906
G1 X20.52597 Y141.02666
G1 X10.33573 Y141.60828
G1 X0.11747 Y141.80233
G1 X-10.10078 Y141.60828
G1 X-20.29102 Y141.02666
G1 X-30.42533 Y140.05906
G1 X-40.47592 Y138.70813
G1 X-50.41525 Y136.97759
G1 X-60.21607 Y134.87216
G1 X-69.85152 Y132.39762
G1 X-79.29519 Y129.56076
G1 X-88.5212 Y126.36935
G1 X-97.50425 Y122.83214
G1 X-106.21973 Y118.95882
G1 X-114.64375 Y114.76001
G1 X-122.75321 Y110.24721
G1 X-130.52589 Y105.4328
G1 X-137.94049 Y100.32998
G1 X-144.97669 Y94.95273
G1 X-151.61518 Y89.31578
G1 X-157.8378 Y83.43459
G1 X-163.62746 Y77.32528
G1 X-168.96831 Y71.0046
G1 X-173.84571 Y64.48986
G1 X-178.24629 Y57.79893
G1 X-182.15799 Y50.95014
G1 X-185.57008 Y43.96227
G1 X-188.47322 Y36.85447
G1 X-190.85944 Y29.64621
G1 X-192.72221 Y22.35727
G1 X-194.05641 Y15.00762
G1 X-194.8584 Y7.61739
G1 X-195.12598 Y0.20686
G0 Z3.0
M5
M30
