; generated by PrusaSlicer 2.4.2+win64 on 2022-06-27 at 17:20:07 UTC

; 

; external perimeters extrusion width = 0.45mm
; perimeters extrusion width = 0.45mm
; infill extrusion width = 0.45mm
; solid infill extrusion width = 0.45mm
; top infill extrusion width = 0.40mm
; first layer extrusion width = 0.42mm

M73 P0 R18
M107
;TYPE:Custom
M862.3 P "MK2S" ; printer model check
M862.1 P0.4 ; nozzle diameter check
M115 U3.2.3 ; tell printer latest fw version
G90 ; use absolute coordinates
M83 ; extruder relative mode
M204 S2000 T1500 ; MK2 firmware only supports the old M204 format
M104 S215 ; set extruder temp
M140 S60 ; set bed temp
M190 S60 ; wait for bed temp
M109 S215 ; wait for extruder temp
G28 W ; home all without mesh bed level
G80 ; mesh bed leveling
G1 Y-3.0 F1000.0 ; go outside print area
G92 E0.0
G1 X60.0 E9.0  F1000.0 ; intro line
G1 X100.0 E12.5 F1000.0 ; intro line
G92 E0.0
G21 ; set units to millimeters
G90 ; use absolute coordinates
M83 ; use relative distances for extrusion
M900 K0.05 ; Filament gcode LA 1.5
M900 K30 ; Filament gcode LA 1.0
M107
;LAYER_CHANGE
;Z:0.2
;HEIGHT:0.2
;BEFORE_LAYER_CHANGE
G92 E0.0
;0.2


G1 E-.8 F2100
G1 Z.4 F10800
;AFTER_LAYER_CHANGE
;0.2
G1 X118.059 Y95.576
G1 Z.2
G1 E.8 F2100
M204 S1000
;TYPE:Skirt/Brim
;WIDTH:0.42
G1 F1200
G1 X119.115 Y94.552 E.04612
G1 X120.453 Y94.215 E.04328
G1 X129.62 Y94.277 E.28741
G1 X131.105 Y94.679 E.04827
G1 X132.067 Y95.67 E.04328
G1 X136.632 Y103.701 E.28964
G1 X136.991 Y105.127 E.04612
G1 X136.613 Y106.455 E.04328
G1 X131.941 Y114.424 E.28964
G1 X130.885 Y115.448 E.04612
G1 X129.547 Y115.785 E.04328
G1 X120.309 Y115.723 E.28964
G1 X118.895 Y115.321 E.04612
G1 X117.933 Y114.33 E.04328
G1 X113.368 Y106.299 E.28964
G1 X113.009 Y104.873 E.04612
G1 X113.387 Y103.545 E.04328
G1 X118.029 Y95.628 E.28776
G1 X118.354 Y95.819 F10800
G1 F1200
G1 X118.384 Y95.767 E.00188
G1 X119.383 Y94.837 E.04278
G1 X120.451 Y94.592 E.03435
G1 X129.617 Y94.654 E.28741
G1 X130.993 Y95.054 E.04492
M73 P1 R18
G1 X131.739 Y95.856 E.03435
G1 X136.304 Y103.887 E.28964
G1 X136.609 Y105.217 E.04278
G1 X136.288 Y106.264 E.03435
G1 X131.616 Y114.233 E.28964
G1 X130.617 Y115.163 E.04278
G1 X129.549 Y115.408 E.03435
G1 X120.312 Y115.346 E.28964
G1 X119.007 Y114.946 E.04278
G1 X118.261 Y114.144 E.03435
G1 X113.696 Y106.113 E.28964
G1 X113.391 Y104.783 E.04278
G1 X113.712 Y103.736 E.03435
G1 X118.324 Y95.87 E.28588
; printing object Nut.stl id:0 copy 0
;WIPE_START
G1 F8640
G1 X118.384 Y95.767 E-.02771
G1 X119.383 Y94.837 E-.31505
G1 X120.451 Y94.592 E-.25294
G1 X121.162 Y94.597 E-.1643
;WIPE_END
G1 E-.04 F2100
G1 Z.6 F10800
G1 X120.884 Y97.759
G1 Z.2
G1 E.8 F2100
;TYPE:Perimeter
G1 F1200
G1 X129.213 Y97.815 E.26114
G1 X133.329 Y105.056 E.26114
G1 X129.116 Y112.241 E.26114
G1 X127.64 Y112.231 E.04628
G1 X127.734 Y104.832 E.23201
G1 X127.678 Y104.426 E.01283
G1 X127.56 Y104.023 E.01318
G1 X127.285 Y103.486 E.0189
G1 X126.891 Y103.016 E.01924
G1 X126.402 Y102.645 E.01924
G1 X125.843 Y102.392 E.01924
G1 X125.241 Y102.27 E.01924
G1 X124.628 Y102.284 E.01924
G1 X124.033 Y102.435 E.01924
G1 X123.486 Y102.715 E.01924
G1 X123.016 Y103.109 E.01925
G1 X122.645 Y103.598 E.01924
G1 X122.396 Y104.147 E.0189
G1 X122.297 Y104.555 E.01318
G1 X122.264 Y104.938 E.01203
G1 X122.166 Y112.194 E.22755
G1 X120.787 Y112.185 E.04324
G1 X116.671 Y104.944 E.26114
G1 X120.854 Y97.811 E.25926
G1 X120.669 Y97.381 F10800
;TYPE:External perimeter
G1 F1200
G1 X129.433 Y97.44 E.27479
G1 X133.764 Y105.059 E.27479
G1 X129.331 Y112.619 E.27479
G1 X127.258 Y112.605 E.065
G1 X127.356 Y104.855 E.24302
G1 X127.308 Y104.506 E.01106
G1 X127.208 Y104.163 E.01119
G1 X126.969 Y103.696 E.01646
G1 X126.629 Y103.291 E.01658
G1 X126.208 Y102.971 E.01658
G1 X125.726 Y102.753 E.01658
G1 X125.208 Y102.648 E.01658
G1 X124.679 Y102.66 E.01658
G1 X124.167 Y102.79 E.01658
G1 X123.696 Y103.031 E.01658
G1 X123.291 Y103.371 E.01658
G1 X122.971 Y103.792 E.01658
G1 X122.755 Y104.27 E.01646
G1 X122.671 Y104.617 E.01119
G1 X122.64 Y104.957 E.0107
G1 X122.538 Y112.574 E.23885
G1 X120.567 Y112.56 E.06181
G1 X116.236 Y104.941 E.27479
G1 X120.638 Y97.433 E.27291
G1 X121.014 Y97.583 F10800
;WIPE_START
G1 F8640
G1 X123.93 Y97.435 E-.76
;WIPE_END
G1 E-.04 F2100
G1 Z.6 F10800
G1 X130.166 Y99.721
G1 Z.2
G1 E.8 F2100
;TYPE:Solid infill
;WIDTH:0.421677
G1 F1200
G1 X128.538 Y98.093 E.07248
G1 X127.999 Y98.09 E.01698
G1 X130.419 Y100.51 E.10778
G1 X131.125 Y101.751 E.04497
G1 X127.46 Y98.086 E.16322
M73 P2 R18
G1 X126.921 Y98.083 E.01698
G1 X131.83 Y102.992 E.21867
G1 X132.536 Y104.233 E.04497
G1 X126.381 Y98.079 E.27411
G1 X125.842 Y98.075 E.01698
G1 X132.935 Y105.168 E.3159
G1 X132.737 Y105.506 E.01233
G1 X125.303 Y98.072 E.3311
G1 X124.764 Y98.068 E.01698
G1 X132.539 Y105.843 E.3463
G1 X132.341 Y106.181 E.01233
G1 X124.224 Y98.065 E.3615
G1 X123.685 Y98.061 E.01698
G1 X132.143 Y106.519 E.3767
G1 X131.945 Y106.856 E.01233
G1 X123.146 Y98.057 E.3919
G1 X122.607 Y98.054 E.01698
G1 X131.747 Y107.194 E.4071
G1 X131.549 Y107.532 E.01233
G1 X127.707 Y103.689 E.17114
G1 X127.522 Y103.329 E.01273
G1 X127.087 Y102.81 E.02134
G1 X126.548 Y102.4 E.02134
G1 X126.31 Y102.293 E.00821
G1 X122.067 Y98.05 E.18897
G1 X121.528 Y98.046 E.01698
G1 X125.519 Y102.038 E.17776
G1 X125.266 Y101.986 E.00812
G1 X124.94 Y101.994 E.01028
G1 X121.025 Y98.079 E.17439
G1 X120.827 Y98.416 E.01233
G1 X124.449 Y102.038 E.16131
G1 X124.021 Y102.147 E.01388
G1 X120.629 Y98.754 E.1511
G1 X120.431 Y99.092 E.01233
G1 X123.652 Y102.313 E.14346
G1 X123.303 Y102.5 E.01246
G1 X120.233 Y99.429 E.13675
G1 X120.035 Y99.767 E.01233
G1 X123.012 Y102.744 E.13258
G1 X122.81 Y102.913 E.00828
G1 X122.739 Y103.007 E.00371
G1 X119.837 Y100.105 E.12925
G1 X119.639 Y100.442 E.01233
G1 X122.508 Y103.311 E.12777
G1 X122.4 Y103.452 E.00558
G1 X122.311 Y103.65 E.00684
G1 X119.441 Y100.78 E.12783
G1 X119.243 Y101.118 E.01233
G1 X122.144 Y104.019 E.12922
G1 X122.033 Y104.444 E.01383
G1 X119.045 Y101.455 E.13311
G1 X118.847 Y101.793 E.01233
G1 X121.981 Y104.927 E.13958
G1 X121.974 Y105.455 E.01665
G1 X118.649 Y102.131 E.14809
G1 X118.451 Y102.468 E.01233
G1 X121.967 Y105.984 E.15659
G1 X121.96 Y106.513 E.01665
G1 X118.253 Y102.806 E.16509
G1 X118.055 Y103.144 E.01233
G1 X121.953 Y107.041 E.17359
G1 X121.945 Y107.57 E.01665
G1 X117.857 Y103.481 E.1821
G1 X117.659 Y103.819 E.01233
G1 X121.938 Y108.098 E.1906
G1 X121.931 Y108.627 E.01665
G1 X117.461 Y104.157 E.1991
M73 P3 R18
G1 X117.263 Y104.494 E.01233
G1 X121.924 Y109.155 E.2076
G1 X121.917 Y109.684 E.01665
G1 X117.065 Y104.832 E.2161
G1 X116.998 Y104.946 E.00418
G1 X117.464 Y105.767 E.02972
G1 X121.91 Y110.213 E.198
G1 X121.903 Y110.741 E.01665
G1 X118.17 Y107.008 E.16626
G1 X118.876 Y108.249 E.04497
G1 X121.896 Y111.27 E.13452
G1 X121.889 Y111.798 E.01665
G1 X119.581 Y109.491 E.10278
G1 X120.287 Y110.732 E.04497
G1 X121.632 Y112.077 E.05993
;WIPE_START
G1 F8640
G1 X120.287 Y110.732 E-.4394
G1 X119.601 Y109.525 E-.3206
;WIPE_END
G1 E-.04 F2100
G1 Z.6 F10800
G1 X127.749 Y104.268
G1 Z.2
G1 E.8 F2100
G1 F1200
G1 X131.351 Y107.869 E.16041
G1 X131.153 Y108.207 E.01233
G1 X128.014 Y105.068 E.13983
G1 X128.007 Y105.596 E.01666
G1 X130.955 Y108.545 E.13131
G1 X130.757 Y108.882 E.01233
G1 X128 Y106.125 E.12279
G1 X127.993 Y106.654 E.01666
G1 X130.559 Y109.22 E.11427
G1 X130.361 Y109.558 E.01233
G1 X127.987 Y107.183 E.10575
G1 X127.98 Y107.712 E.01666
G1 X130.163 Y109.895 E.09724
G1 X129.965 Y110.233 E.01233
G1 X127.973 Y108.241 E.08872
G1 X127.967 Y108.77 E.01666
M73 P3 R17
G1 X129.767 Y110.571 E.0802
G1 X129.569 Y110.908 E.01233
G1 X127.96 Y109.299 E.07168
G1 X127.953 Y109.828 E.01666
G1 X129.371 Y111.246 E.06316
G1 X129.173 Y111.584 E.01233
G1 X127.947 Y110.357 E.05464
G1 X127.94 Y110.886 E.01666
G1 X128.975 Y111.921 E.04612
G1 X128.955 Y111.957 E.00129
G1 X128.472 Y111.954 E.01521
G1 X127.933 Y111.415 E.02399
G1 X127.926 Y111.944 E.01666
G1 X128.103 Y112.121 E.00788
; stop printing object Nut.stl id:0 copy 0
M106 S255
;LAYER_CHANGE
;Z:0.4
;HEIGHT:0.2
;BEFORE_LAYER_CHANGE
G92 E0.0
;0.4


;WIPE_START
G1 F8640
G1 X127.926 Y111.944 E-.05776
G1 X127.933 Y111.415 E-.12215
G1 X128.472 Y111.954 E-.17588
G1 X128.955 Y111.957 E-.11149
G1 X128.975 Y111.921 E-.00946
G1 X128.108 Y111.054 E-.28328
;WIPE_END
G1 E-.04 F2100
G1 Z.6 F10800
;AFTER_LAYER_CHANGE
;0.4
M104 S210 ; set temperature
G1 X128.076 Y115.775
G1 Z.4
G1 E.8 F2100
;TYPE:Skirt/Brim
;WIDTH:0.42
G1 F2496
G1 X120.309 Y115.723 E.24353
G1 X118.895 Y115.321 E.04612
G1 X117.933 Y114.33 E.04328
G1 X113.368 Y106.299 E.28964
G1 X113.009 Y104.873 E.04612
G1 X113.387 Y103.545 E.04328
G1 X118.059 Y95.576 E.28964
G1 X119.115 Y94.552 E.04612
G1 X120.453 Y94.215 E.04328
G1 X129.62 Y94.277 E.28741
G1 X131.105 Y94.679 E.04827
G1 X132.067 Y95.67 E.04328
G1 X136.632 Y103.701 E.28964
G1 X136.991 Y105.127 E.04612
G1 X136.613 Y106.455 E.04328
G1 X131.941 Y114.424 E.28964
G1 X130.885 Y115.448 E.04612
G1 X129.547 Y115.785 E.04328
G1 X128.136 Y115.775 E.04423
G1 X128.139 Y115.398 F10800
G1 F2496
G1 X120.312 Y115.346 E.24541
G1 X119.007 Y114.946 E.04278
G1 X118.261 Y114.144 E.03435
G1 X113.696 Y106.113 E.28964
G1 X113.391 Y104.783 E.04278
G1 X113.712 Y103.736 E.03435
G1 X118.384 Y95.767 E.28964
G1 X119.383 Y94.837 E.04278
G1 X120.451 Y94.592 E.03435
G1 X129.617 Y94.654 E.28741
G1 X130.993 Y95.054 E.04492
G1 X131.739 Y95.856 E.03435
G1 X136.304 Y103.887 E.28964
G1 X136.609 Y105.217 E.04278
G1 X136.288 Y106.264 E.03435
G1 X131.616 Y114.233 E.28964
G1 X130.617 Y115.163 E.04278
G1 X129.549 Y115.408 E.03435
G1 X128.199 Y115.399 E.04234
; printing object Nut.stl id:0 copy 0
;WIPE_START
G1 F8640
G1 X124.907 Y115.377 E-.76
;WIPE_END
G1 E-.04 F2100
G1 Z.8 F10800
G1 X127.483 Y112.385
G1 Z.4
G1 E.8 F2100
M204 S800
;TYPE:Perimeter
;WIDTH:0.45
G1 F2496
G1 X127.582 Y105.011 E.24962
G1 X127.56 Y104.649 E.01227
G1 X127.477 Y104.26 E.01348
G1 X127.257 Y103.737 E.0192
G1 X126.919 Y103.267 E.0196
G1 X126.485 Y102.883 E.0196
G1 X125.977 Y102.606 E.0196
G1 X125.42 Y102.448 E.0196
G1 X124.841 Y102.419 E.0196
G1 X124.271 Y102.519 E.0196
G1 X123.748 Y102.739 E.0192
G1 X123.416 Y102.958 E.01347
G1 X123.121 Y103.225 E.01347
G1 X122.778 Y103.677 E.0192
G1 X122.539 Y104.205 E.0196
G1 X122.426 Y104.76 E.01919
G1 X122.32 Y112.35 E.25693
G1 X120.697 Y112.339 E.05493
G1 X116.492 Y104.943 E.28798
G1 X120.796 Y97.604 E.28798
G1 X129.303 Y97.661 E.28798
G1 X133.508 Y105.057 E.28798
G1 X129.204 Y112.396 E.28798
M73 P4 R17
G1 X127.543 Y112.385 E.05623
M204 S1000
G1 X127.071 Y112.789 F10800
M204 S800
;TYPE:External perimeter
G1 F2400
G1 X127.175 Y105.021 E.26297
G1 X127.155 Y104.705 E.01072
G1 X127.086 Y104.382 E.01115
G1 X126.899 Y103.937 E.01635
G1 X126.615 Y103.541 E.0165
G1 X126.25 Y103.218 E.0165
G1 X125.822 Y102.985 E.0165
G1 X125.353 Y102.852 E.0165
G1 X124.866 Y102.828 E.0165
G1 X124.386 Y102.912 E.0165
G1 X123.941 Y103.099 E.01635
G1 X123.666 Y103.281 E.01115
G1 X123.422 Y103.502 E.01115
G1 X123.13 Y103.887 E.01635
G1 X122.929 Y104.331 E.0165
G1 X122.833 Y104.804 E.01635
G1 X122.721 Y112.76 E.26932
G1 X120.459 Y112.745 E.07656
G1 X116.022 Y104.94 E.30389
G1 X120.563 Y97.195 E.30389
G1 X129.541 Y97.255 E.30389
G1 X133.978 Y105.06 E.30389
G1 X129.437 Y112.805 E.30389
G1 X127.131 Y112.789 E.07805
M204 S1000
G1 X127.171 Y112.402 F10800
;WIPE_START
G1 F8640
G1 X127.15 Y109.498 E-.76
;WIPE_END
G1 E-.04 F2100
G1 Z.8 F10800
G1 X122.212 Y111.308
G1 Z.4
G1 E.8 F2100
M204 S2000
;TYPE:Solid infill
;WIDTH:0.457772
G1 F2496
G1 X121.481 Y112.039 E.03568
G1 X120.898 Y112.035 E.0201
G1 X122.035 Y110.899 E.05545
G1 X122.043 Y110.304 E.02053
G1 X120.671 Y111.676 E.06694
G1 X120.458 Y111.302 E.01484
G1 X122.051 Y109.709 E.07772
G1 X122.06 Y109.113 E.02053
G1 X120.246 Y110.928 E.0885
G1 X120.033 Y110.554 E.01484
G1 X122.068 Y108.518 E.09928
G1 X122.077 Y107.923 E.02053
G1 X119.82 Y110.18 E.11007
G1 X119.608 Y109.806 E.01484
G1 X122.085 Y107.328 E.12085
G1 X122.093 Y106.733 E.02053
G1 X119.395 Y109.431 E.13163
G1 X119.182 Y109.057 E.01484
G1 X122.102 Y106.138 E.14241
G1 X122.11 Y105.543 E.02053
G1 X118.97 Y108.683 E.15319
G1 X118.757 Y108.309 E.01484
G1 X122.304 Y104.762 E.17304
M204 S1000
;WIPE_START
G1 F8640
G1 X119.977 Y107.09 E-.76
;WIPE_END
G1 E-.04 F2100
G1 Z.8 F10800
G1 X130.337 Y110.224
G1 Z.4
G1 E.8 F2100
M204 S2000
G1 F2496
G1 X128.474 Y112.086 E.09085
G1 X127.892 Y112.082 E.0201
G1 X130.655 Y109.319 E.13481
G1 X131.486 Y107.901 E.05671
G1 X127.799 Y111.588 E.17986
G1 X127.807 Y110.993 E.02051
G1 X132.318 Y106.482 E.22004
G1 X133.149 Y105.064 E.05671
G1 X127.815 Y110.398 E.26021
G1 X127.823 Y109.804 E.02051
G1 X132.944 Y104.683 E.2498
G1 X132.731 Y104.309 E.01484
G1 X127.831 Y109.209 E.23903
G1 X127.839 Y108.614 E.02051
G1 X132.519 Y103.935 E.22827
G1 X132.306 Y103.561 E.01484
G1 X127.847 Y108.02 E.21751
G1 X127.855 Y107.425 E.02051
G1 X132.093 Y103.187 E.20675
G1 X131.881 Y102.813 E.01484
G1 X127.863 Y106.83 E.19599
G1 X127.871 Y106.236 E.02051
G1 X131.668 Y102.439 E.18523
G1 X131.455 Y102.065 E.01484
G1 X127.879 Y105.641 E.17447
G1 X127.887 Y105.046 E.02051
G1 X131.243 Y101.691 E.1637
G1 X131.03 Y101.317 E.01484
G1 X127.841 Y104.505 E.15556
G1 X127.769 Y104.168 E.0119
G1 X127.717 Y104.043 E.00466
G1 X130.817 Y100.943 E.15127
G1 X130.605 Y100.568 E.01484
G1 X127.543 Y103.63 E.14937
G1 X127.305 Y103.281 E.01457
G1 X130.392 Y100.194 E.15059
G1 X130.18 Y99.82 E.01484
G1 X127.037 Y102.963 E.15331
G1 X126.725 Y102.688 E.01434
G1 X129.967 Y99.446 E.15813
G1 X129.754 Y99.072 E.01484
G1 X126.36 Y102.467 E.16559
G1 X126.093 Y102.321 E.01049
G1 X125.957 Y102.283 E.00487
G1 X129.542 Y98.698 E.17487
G1 X129.329 Y98.324 E.01484
G1 X125.5 Y102.154 E.18681
G1 X124.948 Y102.119 E.01907
G1 X129.102 Y97.965 E.20264
G1 X128.519 Y97.961 E.0201
G1 X124.271 Y102.209 E.20723
G1 X124.184 Y102.224 E.00304
G1 X123.603 Y102.468 E.02174
G1 X123.229 Y102.717 E.01551
G1 X122.895 Y103.018 E.01551
G1 X122.514 Y103.52 E.02174
G1 X122.247 Y104.11 E.02235
G1 X122.216 Y104.264 E.00542
G1 X118.545 Y107.935 E.17909
G1 X118.332 Y107.561 E.01484
G1 X127.936 Y97.957 E.46853
G1 X127.353 Y97.953 E.0201
G1 X118.119 Y107.187 E.45047
G1 X117.907 Y106.813 E.01484
G1 X126.771 Y97.949 E.43241
G1 X126.188 Y97.945 E.0201
G1 X117.694 Y106.439 E.41436
G1 X117.481 Y106.065 E.01484
G1 X125.605 Y97.941 E.3963
G1 X125.022 Y97.937 E.0201
G1 X117.269 Y105.691 E.37824
G1 X117.056 Y105.317 E.01484
G1 X124.439 Y97.933 E.36019
G1 X123.857 Y97.93 E.0201
G1 X116.851 Y104.936 E.34177
G1 X117.682 Y103.517 E.05671
M73 P5 R17
G1 X123.274 Y97.926 E.27278
G1 X122.691 Y97.922 E.0201
G1 X118.514 Y102.099 E.20378
G1 X119.345 Y100.681 E.05671
G1 X122.108 Y97.918 E.13479
G1 X121.526 Y97.914 E.0201
G1 X119.663 Y99.776 E.09084
M204 S1000
; stop printing object Nut.stl id:0 copy 0
;LAYER_CHANGE
;Z:0.6
;HEIGHT:0.2
;BEFORE_LAYER_CHANGE
G92 E0.0
;0.6


;WIPE_START
G1 F8640
G1 X121.526 Y97.914 E-.60805
G1 X122.108 Y97.918 E-.13457
G1 X122.055 Y97.971 E-.01738
;WIPE_END
G1 E-.04 F2100
G1 Z.8 F10800
;AFTER_LAYER_CHANGE
;0.6
G1 X122.08 Y94.226
G1 Z.6
G1 E.8 F2100
;TYPE:Skirt/Brim
;WIDTH:0.42
G1 F2494
G1 X129.62 Y94.277 E.2364
G1 X131.105 Y94.679 E.04827
G1 X132.067 Y95.67 E.04328
G1 X136.632 Y103.701 E.28964
G1 X136.991 Y105.127 E.04612
G1 X136.613 Y106.455 E.04328
G1 X131.941 Y114.424 E.28964
G1 X130.885 Y115.448 E.04612
G1 X129.547 Y115.785 E.04328
G1 X120.309 Y115.723 E.28964
G1 X118.895 Y115.321 E.04612
G1 X117.933 Y114.33 E.04328
G1 X113.368 Y106.299 E.28964
G1 X113.009 Y104.873 E.04612
G1 X113.387 Y103.545 E.04328
G1 X118.059 Y95.576 E.28964
G1 X119.115 Y94.552 E.04612
G1 X120.453 Y94.215 E.04328
G1 X122.02 Y94.226 E.04913
G1 X122.018 Y94.603 F10800
G1 F2494
G1 X129.617 Y94.654 E.23828
G1 X130.993 Y95.054 E.04492
G1 X131.739 Y95.856 E.03435
G1 X136.304 Y103.887 E.28964
G1 X136.609 Y105.217 E.04278
G1 X136.288 Y106.264 E.03435
G1 X131.616 Y114.233 E.28964
G1 X130.617 Y115.163 E.04278
G1 X129.549 Y115.408 E.03435
G1 X120.312 Y115.346 E.28964
G1 X119.007 Y114.946 E.04278
G1 X118.261 Y114.144 E.03435
G1 X113.696 Y106.113 E.28964
G1 X113.391 Y104.783 E.04278
G1 X113.712 Y103.736 E.03435
G1 X118.384 Y95.767 E.28964
G1 X119.383 Y94.837 E.04278
