; generated by Slic3r 1.31.6-prusa3d-win64 on 2017-02-28 at 15:21:34

; external perimeters extrusion width = 0.45mm
; perimeters extrusion width = 0.45mm
; infill extrusion width = 0.45mm
; solid infill extrusion width = 0.45mm
; top infill extrusion width = 0.45mm

M115 U3.0.9 ; tell printer latest fw version
M83  ; extruder relative mode
M104 S255 ; set extruder temp
M140 S100 ; set bed temp
M190 S100 ; wait for bed temp
M109 S255 ; wait for extruder temp
G28 W ; home all without mesh bed level
G80 ; mesh bed leveling
G1 Y-3.0 F1000.0 ; go outside pritn area
G1 X60.0 E9.0  F1000.0 ; intro line
G1 X100.0 E12.5  F1000.0 ; intro line
G21 ; set units to millimeters
G90 ; use absolute coordinates
M83 ; use relative distances for extrusion
G1 E-0.80000 F2100.00000
G1 Z0.150 F7200.000
G1 X93.399 Y84.237 F7200.000
G1 E0.80000 F2100.00000
M204 S1000
G1 F2100
G1 X93.533 Y83.529 E0.01743
G1 X93.685 Y83.012 E0.01303
G1 X93.803 Y82.694 E0.00819
G1 X94.027 Y82.204 E0.01303
G1 X94.189 Y81.907 E0.00819
G1 X94.481 Y81.454 E0.01303
G1 X94.684 Y81.183 E0.00819
G1 X95.036 Y80.776 E0.01303
G1 X95.276 Y80.536 E0.00819
G1 X95.683 Y80.184 E0.01303
G1 X95.954 Y79.981 E0.00819
G1 X96.407 Y79.689 E0.01303
G1 X96.704 Y79.527 E0.00819
G1 X97.194 Y79.303 E0.01303
G1 X97.512 Y79.185 E0.00819
G1 X98.029 Y79.033 E0.01303
G1 X98.838 Y78.887 E0.01989
G1 X99.433 Y78.860 E0.01440
G1 X101.780 Y78.851 E0.05676
G1 X150.803 Y78.864 E1.18563
G1 X151.263 Y78.899 E0.01115
G1 X151.640 Y78.961 E0.00925
G1 X151.971 Y79.033 E0.00819
G1 X152.488 Y79.185 E0.01303
G1 X152.806 Y79.303 E0.00819
G1 X153.295 Y79.527 E0.01303
G1 X153.593 Y79.689 E0.00819
G1 X154.046 Y79.980 E0.01302
G1 X154.317 Y80.184 E0.00820
G1 X154.724 Y80.536 E0.01303
G1 X154.964 Y80.776 E0.00819
G1 X155.316 Y81.183 E0.01303
G1 X155.519 Y81.454 E0.00819
G1 X155.811 Y81.907 E0.01303
G1 X155.973 Y82.204 E0.00819
G1 X156.197 Y82.695 E0.01303
G1 X156.315 Y83.012 E0.00819
G1 X156.467 Y83.529 E0.01302
G1 X156.539 Y83.860 E0.00819
G1 X156.601 Y84.237 E0.00925
G1 X156.636 Y84.697 E0.01114
G1 X156.636 Y125.304 E0.98208
G1 X156.601 Y125.763 E0.01114
G1 X156.539 Y126.140 E0.00925
G1 X156.467 Y126.471 E0.00819
G1 X156.315 Y126.988 E0.01303
G1 X156.197 Y127.305 E0.00819
G1 X155.973 Y127.796 E0.01303
G1 X155.811 Y128.093 E0.00819
G1 X155.520 Y128.546 E0.01302
G1 X155.316 Y128.817 E0.00820
G1 X154.964 Y129.224 E0.01303
G1 X154.724 Y129.464 E0.00819
G1 X154.317 Y129.816 E0.01303
G1 X154.046 Y130.019 E0.00819
G1 X153.593 Y130.311 E0.01302
G1 X153.295 Y130.473 E0.00820
G1 X152.806 Y130.697 E0.01303
G1 X152.488 Y130.815 E0.00819
G1 X151.972 Y130.967 E0.01302
G1 X151.640 Y131.039 E0.00820
G1 X151.263 Y131.101 E0.00925
G1 X150.803 Y131.136 E0.01115
G1 X99.197 Y131.136 E1.24811
G1 X98.737 Y131.101 E0.01115
G1 X98.360 Y131.039 E0.00924
G1 X98.029 Y130.967 E0.00820
G1 X97.512 Y130.815 E0.01303
G1 X97.194 Y130.697 E0.00819
G1 X96.704 Y130.473 E0.01303
G1 X96.407 Y130.311 E0.00819
G1 X95.954 Y130.019 E0.01303
G1 X95.683 Y129.816 E0.00819
G1 X95.276 Y129.464 E0.01303
G1 X95.036 Y129.224 E0.00819
G1 X94.684 Y128.817 E0.01303
G1 X94.481 Y128.546 E0.00819
G1 X94.190 Y128.093 E0.01302
G1 X94.027 Y127.796 E0.00820
G1 X93.803 Y127.306 E0.01302
G1 X93.685 Y126.988 E0.00819
G1 X93.533 Y126.471 E0.01303
G1 X93.461 Y126.140 E0.00819
G1 X93.399 Y125.763 E0.00925
G1 X93.364 Y125.303 E0.01115
G1 X93.351 Y87.235 E0.92067
G1 X93.360 Y84.933 E0.05568
G1 X93.392 Y84.297 E0.01541
G1 X93.784 Y84.281 F7200.000
G1 F2100
G1 X93.912 Y83.611 E0.01648
G1 X94.048 Y83.147 E0.01169
G1 X94.167 Y82.830 E0.00819
G1 X94.367 Y82.390 E0.01169
G1 X94.530 Y82.093 E0.00819
G1 X94.791 Y81.686 E0.01169
G1 X94.994 Y81.415 E0.00819
G1 X95.311 Y81.050 E0.01169
G1 X95.550 Y80.811 E0.00819
G1 X95.915 Y80.494 E0.01169
G1 X96.186 Y80.291 E0.00819
G1 X96.593 Y80.030 E0.01169
G1 X96.890 Y79.867 E0.00819
G1 X97.330 Y79.667 E0.01169
G1 X97.647 Y79.548 E0.00819
G1 X98.111 Y79.412 E0.01169
G1 X98.882 Y79.273 E0.01894
G1 X99.440 Y79.248 E0.01351
G1 X101.780 Y79.239 E0.05660
G1 X150.797 Y79.252 E1.18546
G1 X151.219 Y79.284 E0.01025
G1 X151.558 Y79.340 E0.00830
G1 X151.889 Y79.412 E0.00819
G1 X152.353 Y79.548 E0.01169
G1 X152.670 Y79.667 E0.00819
G1 X153.110 Y79.867 E0.01169
G1 X153.407 Y80.030 E0.00819
G1 X153.813 Y80.291 E0.01168
G1 X154.085 Y80.494 E0.00820
G1 X154.450 Y80.811 E0.01169
G1 X154.689 Y81.050 E0.00819
G1 X155.006 Y81.415 E0.01169
G1 X155.209 Y81.686 E0.00819
G1 X155.470 Y82.093 E0.01169
G1 X155.633 Y82.390 E0.00819
G1 X155.833 Y82.830 E0.01169
G1 X155.952 Y83.147 E0.00819
G1 X156.088 Y83.611 E0.01169
G1 X156.160 Y83.942 E0.00819
G1 X156.216 Y84.281 E0.00830
G1 X156.248 Y84.703 E0.01025
G1 X156.248 Y125.297 E0.98174
G1 X156.216 Y125.719 E0.01025
G1 X156.160 Y126.058 E0.00830
G1 X156.088 Y126.389 E0.00819
G1 X155.952 Y126.853 E0.01169
G1 X155.833 Y127.170 E0.00819
G1 X155.633 Y127.610 E0.01169
G1 X155.470 Y127.907 E0.00819
G1 X155.209 Y128.313 E0.01169
G1 X155.006 Y128.585 E0.00819
G1 X154.689 Y128.950 E0.01169
G1 X154.450 Y129.189 E0.00819
G1 X154.058 Y129.526 E0.01248
G1 X153.814 Y129.709 E0.00740
G1 X153.407 Y129.970 E0.01169
G1 X153.110 Y130.133 E0.00819
G1 X152.670 Y130.333 E0.01169
G1 X152.353 Y130.452 E0.00819
G1 X151.889 Y130.588 E0.01169
G1 X151.558 Y130.660 E0.00820
G1 X151.219 Y130.716 E0.00830
G1 X150.797 Y130.748 E0.01026
G1 X99.203 Y130.748 E1.24778
G1 X98.781 Y130.716 E0.01026
G1 X98.442 Y130.660 E0.00829
G1 X98.111 Y130.588 E0.00820
G1 X97.647 Y130.452 E0.01169
G1 X97.330 Y130.333 E0.00819
G1 X96.890 Y130.133 E0.01169
G1 X96.593 Y129.970 E0.00819
G1 X96.186 Y129.709 E0.01169
G1 X95.915 Y129.506 E0.00819
G1 X95.550 Y129.189 E0.01169
G1 X95.311 Y128.950 E0.00819
G1 X94.994 Y128.585 E0.01169
G1 X94.791 Y128.314 E0.00819
G1 X94.530 Y127.907 E0.01168
G1 X94.367 Y127.610 E0.00820
G1 X94.167 Y127.170 E0.01169
G1 X94.048 Y126.853 E0.00819
G1 X93.912 Y126.389 E0.01169
G1 X93.840 Y126.058 E0.00819
G1 X93.784 Y125.719 E0.00830
G1 X93.752 Y125.297 E0.01026
G1 X93.739 Y87.235 E0.92051
G1 X93.748 Y84.940 E0.05552
G1 X93.777 Y84.340 E0.01452
G1 F5760
G1 X93.840 Y83.942 E-0.13955
G1 F5760
G1 X93.847 Y83.910 E-0.01135
G1 F5760
G1 X93.847 Y83.910 E-0.00005
G1 F5760
G1 X93.912 Y83.611 E-0.10595
G1 F5760
G1 X94.048 Y83.147 E-0.16737
G1 F5760
G1 X94.060 Y83.117 E-0.01135
G1 F5760
G1 X94.060 Y83.117 E-0.00005
G1 F5760
G1 X94.167 Y82.830 E-0.10596
G1 F5760
G1 X94.367 Y82.390 E-0.16740
G1 F5760
G1 X94.383 Y82.362 E-0.01135
G1 F5760
G1 X94.383 Y82.362 E-0.00001
G1 F5760
G1 X94.438 Y82.261 E-0.03962
G1 E-0.04000 F2100.00000
G1 X98.171 Y84.610 F7200.000
G1 E0.80000 F2100.00000
G1 F1680
G1 X98.237 Y84.430 E0.00463
G1 X98.350 Y84.230 E0.00557
G1 X98.453 Y84.093 E0.00414
G1 X98.588 Y83.957 E0.00463
G1 X98.774 Y83.822 E0.00557
G1 X98.924 Y83.740 E0.00414
G1 X99.110 Y83.671 E0.00478
G1 X99.291 Y83.631 E0.00448
G1 X99.523 Y83.620 E0.00562
G1 X150.477 Y83.620 E1.23232
G1 X150.709 Y83.631 E0.00562
G1 X150.890 Y83.671 E0.00448
G1 X151.076 Y83.740 E0.00478
G1 X151.249 Y83.834 E0.00478
G1 X151.407 Y83.953 E0.00478
G1 X151.547 Y84.093 E0.00478
G1 X151.666 Y84.251 E0.00478
G1 X151.760 Y84.424 E0.00478
G1 X151.825 Y84.599 E0.00450
G1 X151.875 Y84.858 E0.00638
G1 X151.875 Y125.142 E0.97427
G1 X151.825 Y125.401 E0.00638
G1 X151.760 Y125.576 E0.00450
G1 X151.666 Y125.749 E0.00478
G1 X151.547 Y125.907 E0.00478
G1 X151.412 Y126.043 E0.00463
G1 X151.226 Y126.178 E0.00557
G1 X151.076 Y126.260 E0.00414
G1 X150.890 Y126.329 E0.00478
G1 X150.709 Y126.369 E0.00448
G1 X150.477 Y126.380 E0.00562
G1 X99.523 Y126.380 E1.23232
G1 X99.291 Y126.369 E0.00562
G1 X99.110 Y126.329 E0.00448
G1 X98.924 Y126.260 E0.00478
G1 X98.751 Y126.166 E0.00478
G1 X98.593 Y126.047 E0.00478
G1 X98.457 Y125.912 E0.00463
G1 X98.322 Y125.726 E0.00557
G1 X98.240 Y125.576 E0.00414
G1 X98.171 Y125.390 E0.00478
G1 X98.131 Y125.209 E0.00448
G1 X98.120 Y124.977 E0.00562
G1 X98.120 Y85.023 E0.96629
G1 X98.131 Y84.791 E0.00562
G1 X98.158 Y84.668 E0.00303
G1 X97.779 Y84.586 F7200.000
G1 F1680
G1 X97.885 Y84.266 E0.00814
G1 X98.025 Y84.018 E0.00691
G1 X98.159 Y83.838 E0.00542
G1 X98.335 Y83.662 E0.00603
G1 X98.566 Y83.493 E0.00691
G1 X98.763 Y83.386 E0.00542
G1 X99.000 Y83.298 E0.00612
G1 X99.240 Y83.245 E0.00594
G1 X99.514 Y83.233 E0.00663
G1 X150.486 Y83.233 E1.23276
G1 X150.760 Y83.245 E0.00663
G1 X151.000 Y83.298 E0.00594
G1 X151.237 Y83.386 E0.00612
G1 X151.459 Y83.507 E0.00612
G1 X151.662 Y83.659 E0.00612
G1 X151.841 Y83.838 E0.00612
G1 X151.993 Y84.041 E0.00612
G1 X152.114 Y84.263 E0.00612
G1 X152.200 Y84.494 E0.00595
G1 X152.263 Y84.821 E0.00806
G1 X152.263 Y125.179 E0.97607
G1 X152.200 Y125.506 E0.00806
G1 X152.114 Y125.737 E0.00595
G1 X151.993 Y125.959 E0.00612
G1 X151.841 Y126.162 E0.00612
G1 X151.665 Y126.338 E0.00603
G1 X151.434 Y126.507 E0.00691
G1 X151.237 Y126.614 E0.00542
G1 X151.000 Y126.702 E0.00612
G1 X150.760 Y126.755 E0.00594
G1 X150.486 Y126.767 E0.00663
G1 X99.514 Y126.767 E1.23276
G1 X99.240 Y126.755 E0.00663
G1 X99.000 Y126.702 E0.00594
G1 X98.763 Y126.614 E0.00612
G1 X98.541 Y126.493 E0.00612
G1 X98.338 Y126.341 E0.00612
G1 X98.162 Y126.165 E0.00603
G1 X97.993 Y125.934 E0.00691
G1 X97.886 Y125.737 E0.00542
G1 X97.798 Y125.500 E0.00612
G1 X97.745 Y125.260 E0.00594
G1 X97.733 Y124.986 E0.00663
G1 X97.733 Y85.014 E0.96672
G1 X97.766 Y84.644 E0.00897
G1 X97.387 Y84.562 F7200.000
G1 F1050
G1 X97.424 Y84.391 E0.00424
G1 X97.532 Y84.103 E0.00743
G1 X97.699 Y83.805 E0.00825
G1 X97.865 Y83.583 E0.00670
G1 X98.082 Y83.366 E0.00743
G1 X98.358 Y83.165 E0.00825
G1 X98.601 Y83.032 E0.00670
G1 X98.891 Y82.924 E0.00746
G1 X99.190 Y82.859 E0.00740
G1 X99.505 Y82.845 E0.00763
G1 X150.495 Y82.845 E1.23319
G1 X150.810 Y82.859 E0.00763
G1 X151.109 Y82.924 E0.00740
G1 X151.399 Y83.032 E0.00746
G1 X151.669 Y83.180 E0.00746
G1 X151.917 Y83.365 E0.00746
G1 X152.135 Y83.583 E0.00746
G1 X152.320 Y83.831 E0.00746
G1 X152.468 Y84.101 E0.00746
G1 X152.575 Y84.388 E0.00740
G1 X152.651 Y84.784 E0.00974
G1 X152.651 Y125.216 E0.97786
G1 X152.575 Y125.612 E0.00974
G1 X152.468 Y125.899 E0.00740
G1 X152.320 Y126.169 E0.00746
G1 X152.135 Y126.417 E0.00746
G1 X151.918 Y126.634 E0.00743
G1 X151.642 Y126.835 E0.00825
G1 X151.399 Y126.968 E0.00670
G1 X151.109 Y127.076 E0.00746
G1 X150.810 Y127.141 E0.00740
G1 X150.495 Y127.155 E0.00763
G1 X99.505 Y127.155 E1.23319
G1 X99.190 Y127.141 E0.00763
G1 X98.891 Y127.076 E0.00740
G1 X98.601 Y126.968 E0.00746
G1 X98.331 Y126.820 E0.00746
G1 X98.083 Y126.635 E0.00746
G1 X97.866 Y126.418 E0.00743
G1 X97.665 Y126.142 E0.00825
G1 X97.532 Y125.899 E0.00670
G1 X97.424 Y125.609 E0.00746
G1 X97.359 Y125.310 E0.00740
G1 X97.345 Y124.995 E0.00763
G1 X97.345 Y85.005 E0.96716
G1 X97.374 Y84.621 E0.00932
G1 X97.552 Y84.502 F7200.000
G1 F5760
G1 X97.424 Y84.391 E-0.08156
G1 F5760
G1 X97.532 Y84.103 E-0.10644
G1 F5760
G1 X97.699 Y83.805 E-0.11814
G1 F5760
G1 X97.865 Y83.583 E-0.09601
G1 F5760
G1 X98.082 Y83.366 E-0.10644
G1 F5760
G1 X98.358 Y83.165 E-0.11814
G1 F5760
G1 X98.601 Y83.032 E-0.09601
G1 F5760
G1 X98.702 Y82.995 E-0.03727
G1 E-0.04000 F2100.00000
G1 X99.184 Y126.227 F7200.000
G1 E0.80000 F2100.00000
G1 F1680
G1 X98.676 Y125.718 E0.01744
G1 X98.568 Y125.570 E0.00446
G1 X98.450 Y125.308 E0.00696
G1 X98.421 Y125.171 E0.00340
G1 X98.411 Y124.903 E0.00651
G1 X99.597 Y126.089 E0.04068
G1 X100.147 Y126.089 E0.01335
G1 X98.411 Y124.353 E0.05956
G1 X98.411 Y123.803 E0.01335
G1 X100.697 Y126.089 E0.07844
G1 X101.247 Y126.089 E0.01335
G1 X98.411 Y123.253 E0.09731
G1 X98.411 Y122.702 E0.01335
G1 X101.798 Y126.089 E0.11619
G1 X102.348 Y126.089 E0.01335
G1 X98.411 Y122.152 E0.13507
G1 X98.411 Y121.602 E0.01335
G1 X102.898 Y126.089 E0.15395
G1 X103.448 Y126.089 E0.01335
G1 X98.411 Y121.052 E0.17283
G1 X98.411 Y120.502 E0.01335
G1 X103.998 Y126.089 E0.19171
G1 X104.549 Y126.089 E0.01335
G1 X98.411 Y119.951 E0.21058
G1 X98.411 Y119.401 E0.01335
G1 X105.099 Y126.089 E0.22946
G1 X105.649 Y126.089 E0.01335
G1 X98.411 Y118.851 E0.24834
G1 X98.411 Y118.301 E0.01335
G1 X106.199 Y126.089 E0.26722
G1 X106.749 Y126.089 E0.01335
G1 X98.411 Y117.751 E0.28610
G1 X98.411 Y117.200 E0.01335
G1 X107.300 Y126.089 E0.30498
G1 X107.850 Y126.089 E0.01335
G1 X98.411 Y116.650 E0.32386
G1 X98.411 Y116.100 E0.01335
G1 X108.400 Y126.089 E0.34273
G1 X108.950 Y126.089 E0.01335
G1 X98.411 Y115.550 E0.36161
G1 X98.411 Y115.000 E0.01335
G1 X109.500 Y126.089 E0.38049
G1 X110.051 Y126.089 E0.01335
G1 X98.411 Y114.449 E0.39937
G1 X98.411 Y113.899 E0.01335
G1 X110.601 Y126.089 E0.41825
G1 X111.151 Y126.089 E0.01335
G1 X98.411 Y113.349 E0.43713
G1 X98.411 Y112.799 E0.01335
G1 X111.701 Y126.089 E0.45601
G1 X112.251 Y126.089 E0.01335
G1 X98.411 Y112.249 E0.47488
G1 X98.411 Y111.698 E0.01335
G1 X112.802 Y126.089 E0.49376
G1 X113.352 Y126.089 E0.01335
G1 X98.411 Y111.148 E0.51264
G1 X98.411 Y110.598 E0.01335
G1 X113.902 Y126.089 E0.53152
G1 X114.452 Y126.089 E0.01335
G1 X98.411 Y110.048 E0.55040
G1 X98.411 Y109.498 E0.01335
G1 X115.002 Y126.089 E0.56928
G1 X115.553 Y126.089 E0.01335
G1 X98.411 Y108.947 E0.58816
G1 X98.411 Y108.397 E0.01335
G1 X116.103 Y126.089 E0.60703
G1 X116.653 Y126.089 E0.01335
G1 X98.411 Y107.847 E0.62591
G1 X98.411 Y107.297 E0.01335
G1 X117.203 Y126.089 E0.64479
G1 X117.753 Y126.089 E0.01335
G1 X98.411 Y106.747 E0.66367
G1 X98.411 Y106.196 E0.01335
G1 X118.304 Y126.089 E0.68255
G1 X118.854 Y126.089 E0.01335
G1 X98.411 Y105.646 E0.70143
G1 X98.411 Y105.096 E0.01335
G1 X119.404 Y126.089 E0.72031
G1 X119.954 Y126.089 E0.01335
G1 X98.411 Y104.546 E0.73918
G1 X98.411 Y103.996 E0.01335
G1 X120.504 Y126.089 E0.75806
G1 X121.055 Y126.089 E0.01335
G1 X98.411 Y103.445 E0.77694
G1 X98.411 Y102.895 E0.01335
G1 X121.605 Y126.089 E0.79582
G1 X122.155 Y126.089 E0.01335
G1 X98.411 Y102.345 E0.81470
G1 X98.411 Y101.795 E0.01335
G1 X122.705 Y126.089 E0.83358
G1 X123.255 Y126.089 E0.01335
G1 X98.411 Y101.245 E0.85246
G1 X98.411 Y100.694 E0.01335
G1 X123.806 Y126.089 E0.87133
G1 X124.356 Y126.089 E0.01335
G1 X98.411 Y100.144 E0.89021
G1 X98.411 Y99.594 E0.01335
G1 X124.906 Y126.089 E0.90909
G1 X125.456 Y126.089 E0.01335
G1 X98.411 Y99.044 E0.92797
G1 X98.411 Y98.494 E0.01335
G1 X126.006 Y126.089 E0.94685
G1 X126.557 Y126.089 E0.01335
G1 X98.411 Y97.943 E0.96573
G1 X98.411 Y97.393 E0.01335
G1 X127.107 Y126.089 E0.98460
G1 X127.657 Y126.089 E0.01335
G1 X98.411 Y96.843 E1.00348
G1 X98.411 Y96.293 E0.01335
G1 X128.207 Y126.089 E1.02236
G1 X128.757 Y126.089 E0.01335
G1 X98.411 Y95.743 E1.04124
G1 X98.411 Y95.192 E0.01335
G1 X129.308 Y126.089 E1.06012
G1 X129.858 Y126.089 E0.01335
G1 X98.411 Y94.642 E1.07900
G1 X98.411 Y94.092 E0.01335
G1 X130.408 Y126.089 E1.09788
G1 X130.958 Y126.089 E0.01335
G1 X98.411 Y93.542 E1.11675
G1 X98.411 Y92.992 E0.01335
G1 X131.508 Y126.089 E1.13563
G1 X132.059 Y126.089 E0.01335
G1 X98.411 Y92.441 E1.15451
G1 X98.411 Y91.891 E0.01335
G1 X132.609 Y126.089 E1.17339
G1 X133.159 Y126.089 E0.01335
G1 X98.411 Y91.341 E1.19227
G1 X98.411 Y90.791 E0.01335
G1 X133.709 Y126.089 E1.21115
G1 X134.259 Y126.089 E0.01335
G1 X98.411 Y90.241 E1.23003
G1 X98.411 Y89.690 E0.01335
G1 X134.810 Y126.089 E1.24890
G1 X135.360 Y126.089 E0.01335
G1 X98.411 Y89.140 E1.26778
G1 X98.411 Y88.590 E0.01335
G1 X135.910 Y126.089 E1.28666
G1 X136.460 Y126.089 E0.01335
G1 X98.411 Y88.040 E1.30554
G1 X98.411 Y87.490 E0.01335
G1 X137.010 Y126.089 E1.32442
G1 X137.561 Y126.089 E0.01335
G1 X98.411 Y86.939 E1.34330
G1 X98.411 Y86.389 E0.01335
G1 X138.111 Y126.089 E1.36218
G1 X138.661 Y126.089 E0.01335
G1 X98.411 Y85.839 E1.38105
G1 X98.411 Y85.289 E0.01335
G1 X139.211 Y126.089 E1.39993
G1 X139.761 Y126.089 E0.01335
