; generated by Slic3r 1.31.6-prusa3d-win64 on 2017-02-28 at 13:44:39

; external perimeters extrusion width = 0.45mm
; perimeters extrusion width = 0.45mm
; infill extrusion width = 0.45mm
; solid infill extrusion width = 0.45mm
; top infill extrusion width = 0.45mm

M115 U3.0.9 ; tell printer latest fw version
M83  ; extruder relative mode
M104 S255 ; set extruder temp
M140 S100 ; set bed temp
M190 S100 ; wait for bed temp
M109 S255 ; wait for extruder temp
G28 W ; home all without mesh bed level
G80 ; mesh bed leveling
G1 Y-3.0 F1000.0 ; go outside pritn area
G1 X60.0 E9.0  F1000.0 ; intro line
G1 X100.0 E12.5  F1000.0 ; intro line
G21 ; set units to millimeters
G90 ; use absolute coordinates
M83 ; use relative distances for extrusion
G1 E-0.80000 F2100.00000
G1 Z0.200 F7200.000
G1 X94.227 Y80.786 F7200.000
G1 E0.80000 F2100.00000
M204 S1000
G1 F2100
G1 X94.578 Y80.381 E0.01679
G1 X94.881 Y80.078 E0.01342
G1 X95.286 Y79.727 E0.01680
G1 X95.628 Y79.471 E0.01342
G1 X96.079 Y79.181 E0.01679
G1 X96.455 Y78.976 E0.01342
G1 X96.942 Y78.754 E0.01680
G1 X97.343 Y78.604 E0.01342
G1 X97.857 Y78.453 E0.01679
G1 X98.275 Y78.362 E0.01342
G1 X98.805 Y78.286 E0.01679
G1 X99.500 Y78.246 E0.02182
G1 X150.500 Y78.246 E1.59907
G1 X151.195 Y78.286 E0.02182
G1 X151.725 Y78.362 E0.01679
G1 X152.144 Y78.453 E0.01343
G1 X152.657 Y78.604 E0.01678
G1 X153.058 Y78.754 E0.01343
G1 X153.545 Y78.976 E0.01679
G1 X153.921 Y79.181 E0.01342
G1 X154.372 Y79.471 E0.01679
G1 X154.714 Y79.727 E0.01342
G1 X155.119 Y80.078 E0.01679
G1 X155.412 Y80.371 E0.01297
G1 X155.773 Y80.786 E0.01724
G1 X156.029 Y81.128 E0.01342
G1 X156.319 Y81.579 E0.01679
G1 X156.524 Y81.955 E0.01344
G1 X156.746 Y82.442 E0.01678
G1 X156.896 Y82.843 E0.01342
G1 X157.047 Y83.357 E0.01679
G1 X157.138 Y83.775 E0.01343
G1 X157.214 Y84.305 E0.01679
G1 X157.254 Y85.000 E0.02182
G1 X157.254 Y125.000 E1.25417
G1 X157.214 Y125.695 E0.02182
G1 X157.138 Y126.225 E0.01679
G1 X157.047 Y126.643 E0.01342
G1 X156.896 Y127.157 E0.01679
G1 X156.746 Y127.558 E0.01343
G1 X156.524 Y128.045 E0.01679
G1 X156.319 Y128.421 E0.01342
G1 X156.029 Y128.872 E0.01679
G1 X155.773 Y129.214 E0.01342
G1 X155.422 Y129.619 E0.01680
G1 X155.119 Y129.922 E0.01342
G1 X154.714 Y130.273 E0.01680
G1 X154.372 Y130.529 E0.01342
G1 X153.921 Y130.819 E0.01679
G1 X153.545 Y131.024 E0.01342
G1 X153.058 Y131.246 E0.01680
G1 X152.657 Y131.396 E0.01342
G1 X152.143 Y131.547 E0.01679
G1 X151.725 Y131.638 E0.01342
G1 X151.195 Y131.714 E0.01680
G1 X150.500 Y131.754 E0.02182
G1 X99.500 Y131.754 E1.59907
G1 X98.805 Y131.714 E0.02182
G1 X98.275 Y131.638 E0.01680
G1 X97.857 Y131.547 E0.01342
G1 X97.343 Y131.396 E0.01679
G1 X96.941 Y131.246 E0.01343
G1 X96.455 Y131.024 E0.01678
G1 X96.091 Y130.826 E0.01297
G1 X95.628 Y130.529 E0.01724
G1 X95.285 Y130.272 E0.01343
G1 X94.881 Y129.922 E0.01679
G1 X94.578 Y129.619 E0.01342
G1 X94.227 Y129.214 E0.01679
G1 X93.971 Y128.871 E0.01343
G1 X93.681 Y128.421 E0.01678
G1 X93.476 Y128.045 E0.01342
G1 X93.254 Y127.558 E0.01679
G1 X93.109 Y127.171 E0.01297
G1 X92.953 Y126.643 E0.01724
G1 X92.862 Y126.225 E0.01342
G1 X92.786 Y125.695 E0.01679
G1 X92.746 Y125.000 E0.02182
G1 X92.746 Y85.000 E1.25417
G1 X92.786 Y84.305 E0.02183
G1 X92.862 Y83.775 E0.01678
G1 X92.953 Y83.357 E0.01343
G1 X93.104 Y82.843 E0.01679
G1 X93.254 Y82.442 E0.01342
G1 X93.476 Y81.955 E0.01680
G1 X93.681 Y81.579 E0.01342
G1 X93.971 Y81.128 E0.01679
G1 X94.192 Y80.834 E0.01154
G1 X94.529 Y81.012 F7200.000
G1 F2100
G1 X94.845 Y80.647 E0.01510
G1 X95.147 Y80.345 E0.01342
G1 X95.512 Y80.029 E0.01511
G1 X95.854 Y79.773 E0.01342
G1 X96.260 Y79.512 E0.01510
G1 X96.635 Y79.307 E0.01342
G1 X97.074 Y79.107 E0.01511
G1 X97.475 Y78.957 E0.01342
G1 X97.937 Y78.822 E0.01511
G1 X98.355 Y78.731 E0.01342
G1 X98.832 Y78.662 E0.01511
G1 X99.500 Y78.623 E0.02098
G1 X150.500 Y78.623 E1.59907
G1 X151.168 Y78.662 E0.02098
G1 X151.645 Y78.731 E0.01511
G1 X152.063 Y78.822 E0.01343
G1 X152.525 Y78.957 E0.01510
G1 X152.927 Y79.107 E0.01343
G1 X153.365 Y79.307 E0.01510
G1 X153.740 Y79.512 E0.01342
G1 X154.146 Y79.773 E0.01511
G1 X154.488 Y80.029 E0.01342
G1 X154.853 Y80.345 E0.01511
G1 X155.145 Y80.637 E0.01297
G1 X155.471 Y81.012 E0.01556
G1 X155.727 Y81.354 E0.01342
G1 X155.988 Y81.760 E0.01511
G1 X156.193 Y82.136 E0.01343
G1 X156.393 Y82.574 E0.01509
G1 X156.543 Y82.975 E0.01342
G1 X156.678 Y83.437 E0.01511
G1 X156.769 Y83.855 E0.01343
G1 X156.838 Y84.332 E0.01510
G1 X156.877 Y85.000 E0.02098
G1 X156.877 Y125.000 E1.25417
G1 X156.838 Y125.668 E0.02098
G1 X156.769 Y126.145 E0.01511
G1 X156.678 Y126.563 E0.01342
G1 X156.543 Y127.025 E0.01511
G1 X156.393 Y127.427 E0.01343
G1 X156.193 Y127.865 E0.01510
G1 X155.988 Y128.240 E0.01342
G1 X155.727 Y128.646 E0.01511
G1 X155.471 Y128.988 E0.01342
G1 X155.155 Y129.353 E0.01511
G1 X154.853 Y129.655 E0.01342
G1 X154.488 Y129.971 E0.01511
G1 X154.146 Y130.227 E0.01342
G1 X153.740 Y130.488 E0.01510
G1 X153.365 Y130.693 E0.01342
G1 X152.926 Y130.893 E0.01511
G1 X152.525 Y131.043 E0.01342
G1 X152.063 Y131.178 E0.01511
G1 X151.645 Y131.269 E0.01342
G1 X151.168 Y131.338 E0.01511
G1 X150.500 Y131.377 E0.02098
G1 X99.500 Y131.377 E1.59907
G1 X98.832 Y131.338 E0.02098
G1 X98.355 Y131.269 E0.01511
G1 X97.937 Y131.178 E0.01342
G1 X97.475 Y131.043 E0.01511
G1 X97.073 Y130.893 E0.01343
G1 X96.635 Y130.693 E0.01510
G1 X96.272 Y130.495 E0.01297
G1 X95.854 Y130.227 E0.01555
G1 X95.511 Y129.971 E0.01343
G1 X95.147 Y129.655 E0.01510
G1 X94.845 Y129.353 E0.01342
G1 X94.529 Y128.988 E0.01511
G1 X94.273 Y128.645 E0.01343
G1 X94.012 Y128.240 E0.01510
G1 X93.807 Y127.865 E0.01342
G1 X93.607 Y127.426 E0.01511
G1 X93.462 Y127.039 E0.01297
G1 X93.322 Y126.563 E0.01555
G1 X93.231 Y126.145 E0.01342
G1 X93.162 Y125.668 E0.01511
G1 X93.123 Y125.000 E0.02098
G1 X93.123 Y85.000 E1.25417
G1 X93.162 Y84.332 E0.02099
G1 X93.231 Y83.855 E0.01510
G1 X93.322 Y83.437 E0.01343
G1 X93.457 Y82.975 E0.01510
G1 X93.607 Y82.574 E0.01342
G1 X93.807 Y82.135 E0.01511
G1 X94.012 Y81.760 E0.01342
G1 X94.273 Y81.354 E0.01510
G1 X94.493 Y81.060 E0.01154
G1 F5760
G1 X94.845 Y80.647 E-0.18758
G1 F5760
G1 X95.147 Y80.345 E-0.14825
G1 F5760
G1 X95.512 Y80.029 E-0.16689
G1 F5760
G1 X95.843 Y79.781 E-0.14331
G1 F5760
G1 X95.843 Y79.781 E-0.00004
G1 F5760
G1 X95.854 Y79.773 E-0.00494
G1 F5760
G1 X96.119 Y79.603 E-0.10899
G1 E-0.04000 F2100.00000
G1 X98.170 Y83.462 F7200.000
G1 E0.80000 F2100.00000
G1 F1680
G1 X98.401 Y83.289 E0.00903
G1 X98.655 Y83.150 E0.00910
G1 X98.927 Y83.049 E0.00910
G1 X99.211 Y82.987 E0.00910
G1 X99.534 Y82.964 E0.01018
G1 X150.466 Y82.964 E1.59691
G1 X150.777 Y82.986 E0.00980
G1 X151.075 Y83.050 E0.00954
G1 X151.345 Y83.150 E0.00903
G1 X151.599 Y83.289 E0.00910
G1 X151.832 Y83.463 E0.00910
G1 X152.037 Y83.668 E0.00910
G1 X152.211 Y83.901 E0.00910
G1 X152.344 Y84.145 E0.00872
G1 X152.451 Y84.429 E0.00954
G1 X152.513 Y84.711 E0.00903
G1 X152.536 Y85.034 E0.01018
G1 X152.536 Y124.966 E1.25201
G1 X152.513 Y125.289 E0.01018
G1 X152.451 Y125.573 E0.00910
G1 X152.350 Y125.845 E0.00910
G1 X152.211 Y126.099 E0.00910
G1 X152.037 Y126.332 E0.00910
G1 X151.832 Y126.537 E0.00910
G1 X151.599 Y126.711 E0.00910
G1 X151.345 Y126.850 E0.00910
G1 X151.073 Y126.951 E0.00910
G1 X150.789 Y127.013 E0.00910
G1 X150.466 Y127.036 E0.01018
G1 X99.534 Y127.036 E1.59691
G1 X99.211 Y127.013 E0.01018
G1 X98.927 Y126.951 E0.00910
G1 X98.655 Y126.850 E0.00910
G1 X98.401 Y126.711 E0.00910
G1 X98.178 Y126.544 E0.00872
G1 X97.962 Y126.330 E0.00954
G1 X97.789 Y126.099 E0.00903
G1 X97.650 Y125.845 E0.00910
G1 X97.549 Y125.573 E0.00910
G1 X97.487 Y125.289 E0.00910
G1 X97.464 Y124.966 E0.01018
G1 X97.464 Y85.034 E1.25201
G1 X97.487 Y84.711 E0.01018
G1 X97.549 Y84.427 E0.00910
G1 X97.650 Y84.155 E0.00910
G1 X97.789 Y83.901 E0.00910
G1 X97.956 Y83.678 E0.00872
G1 X98.128 Y83.505 E0.00766
G1 X97.922 Y83.177 F7200.000
G1 F1680
G1 X98.196 Y82.971 E0.01075
G1 X98.498 Y82.806 E0.01079
G1 X98.821 Y82.686 E0.01079
G1 X99.157 Y82.613 E0.01079
G1 X99.521 Y82.587 E0.01145
G1 X150.479 Y82.587 E1.59775
G1 X150.830 Y82.612 E0.01104
G1 X151.181 Y82.687 E0.01123
G1 X151.502 Y82.806 E0.01075
G1 X151.804 Y82.971 E0.01079
G1 X152.079 Y83.178 E0.01079
G1 X152.322 Y83.421 E0.01079
G1 X152.529 Y83.696 E0.01079
G1 X152.687 Y83.987 E0.01038
G1 X152.814 Y84.322 E0.01123
G1 X152.887 Y84.657 E0.01075
G1 X152.913 Y85.021 E0.01145
G1 X152.913 Y124.979 E1.25286
G1 X152.887 Y125.343 E0.01145
G1 X152.814 Y125.679 E0.01079
G1 X152.694 Y126.002 E0.01079
G1 X152.529 Y126.304 E0.01079
G1 X152.322 Y126.579 E0.01079
G1 X152.079 Y126.822 E0.01079
G1 X151.804 Y127.029 E0.01079
G1 X151.502 Y127.194 E0.01079
G1 X151.179 Y127.314 E0.01079
G1 X150.843 Y127.387 E0.01079
G1 X150.479 Y127.413 E0.01145
G1 X99.521 Y127.413 E1.59775
G1 X99.157 Y127.387 E0.01145
G1 X98.821 Y127.314 E0.01079
G1 X98.498 Y127.194 E0.01079
G1 X98.196 Y127.029 E0.01079
G1 X97.931 Y126.830 E0.01038
G1 X97.677 Y126.578 E0.01123
G1 X97.471 Y126.304 E0.01075
G1 X97.306 Y126.002 E0.01079
G1 X97.186 Y125.679 E0.01079
G1 X97.113 Y125.343 E0.01079
G1 X97.087 Y124.979 E0.01145
G1 X97.087 Y85.021 E1.25286
G1 X97.113 Y84.657 E0.01145
G1 X97.186 Y84.321 E0.01079
G1 X97.306 Y83.998 E0.01079
G1 X97.471 Y83.696 E0.01079
G1 X97.670 Y83.431 E0.01038
G1 X97.880 Y83.219 E0.00935
G1 X97.674 Y82.892 F7200.000
G1 F1050
G1 X97.992 Y82.653 E0.01246
G1 X98.341 Y82.463 E0.01248
G1 X98.714 Y82.324 E0.01248
G1 X99.103 Y82.239 E0.01248
G1 X99.507 Y82.210 E0.01271
G1 X150.492 Y82.210 E1.59860
G1 X150.883 Y82.238 E0.01228
G1 X151.286 Y82.324 E0.01292
G1 X151.659 Y82.463 E0.01246
G1 X152.008 Y82.653 E0.01248
G1 X152.327 Y82.892 E0.01248
G1 X152.608 Y83.173 E0.01248
G1 X152.847 Y83.492 E0.01248
G1 X153.031 Y83.829 E0.01205
G1 X153.177 Y84.215 E0.01292
G1 X153.261 Y84.603 E0.01246
G1 X153.290 Y85.007 E0.01271
G1 X153.290 Y124.992 E1.25370
G1 X153.261 Y125.397 E0.01271
G1 X153.176 Y125.786 E0.01248
G1 X153.037 Y126.159 E0.01248
G1 X152.847 Y126.508 E0.01248
G1 X152.608 Y126.827 E0.01248
G1 X152.327 Y127.108 E0.01248
G1 X152.008 Y127.347 E0.01248
G1 X151.659 Y127.537 E0.01248
G1 X151.286 Y127.676 E0.01248
G1 X150.897 Y127.761 E0.01248
G1 X150.493 Y127.790 E0.01271
G1 X99.507 Y127.790 E1.59860
G1 X99.103 Y127.761 E0.01271
G1 X98.714 Y127.676 E0.01248
G1 X98.341 Y127.537 E0.01248
G1 X97.992 Y127.347 E0.01248
G1 X97.684 Y127.116 E0.01205
G1 X97.392 Y126.826 E0.01292
G1 X97.153 Y126.508 E0.01246
G1 X96.963 Y126.159 E0.01248
G1 X96.824 Y125.786 E0.01248
G1 X96.739 Y125.397 E0.01248
G1 X96.710 Y124.993 E0.01271
G1 X96.710 Y85.007 E1.25370
G1 X96.739 Y84.603 E0.01271
G1 X96.824 Y84.214 E0.01248
G1 X96.963 Y83.841 E0.01248
G1 X97.153 Y83.492 E0.01248
G1 X97.384 Y83.184 E0.01205
G1 X97.631 Y82.934 E0.01104
G1 X98.049 Y83.022 F7200.000
G1 F5760
G1 X97.992 Y82.653 E-0.15826
G1 F5760
G1 X98.341 Y82.463 E-0.13785
G1 F5760
G1 X98.714 Y82.324 E-0.13785
G1 F5760
G1 X99.103 Y82.239 E-0.13785
G1 F5760
G1 X99.507 Y82.210 E-0.14045
G1 F5760
G1 X99.645 Y82.210 E-0.04774
G1 E-0.04000 F2100.00000
G1 X98.826 Y126.793 F7200.000
G1 E0.80000 F2100.00000
G1 F1680
G1 X98.172 Y126.139 E0.02914
G1 X98.028 Y125.946 E0.00758
G1 X97.908 Y125.727 E0.00787
G1 X97.821 Y125.493 E0.00787
G1 X97.764 Y125.195 E0.00957
G1 X99.305 Y126.736 E0.06868
G1 X99.858 Y126.753 E0.01744
G1 X97.747 Y124.642 E0.09409
G1 X97.747 Y124.106 E0.01689
G1 X100.394 Y126.753 E0.11798
G1 X100.930 Y126.753 E0.01689
G1 X97.747 Y123.570 E0.14186
G1 X97.747 Y123.034 E0.01689
G1 X101.466 Y126.753 E0.16574
G1 X102.002 Y126.753 E0.01689
G1 X97.747 Y122.498 E0.18963
G1 X97.747 Y121.962 E0.01689
G1 X102.538 Y126.753 E0.21351
G1 X103.074 Y126.753 E0.01689
G1 X97.747 Y121.426 E0.23739
G1 X97.747 Y120.890 E0.01689
G1 X103.610 Y126.753 E0.26128
G1 X104.146 Y126.753 E0.01689
G1 X97.747 Y120.354 E0.28516
G1 X97.747 Y119.818 E0.01689
G1 X104.682 Y126.753 E0.30904
G1 X105.218 Y126.753 E0.01689
G1 X97.747 Y119.282 E0.33293
G1 X97.747 Y118.746 E0.01689
G1 X105.754 Y126.753 E0.35681
G1 X106.290 Y126.753 E0.01689
G1 X97.747 Y118.210 E0.38070
G1 X97.747 Y117.674 E0.01689
G1 X106.826 Y126.753 E0.40458
G1 X107.362 Y126.753 E0.01689
G1 X97.747 Y117.138 E0.42846
G1 X97.747 Y116.603 E0.01689
G1 X107.897 Y126.753 E0.45235
G1 X108.433 Y126.753 E0.01689
G1 X97.747 Y116.067 E0.47623
G1 X97.747 Y115.531 E0.01689
G1 X108.969 Y126.753 E0.50011
G1 X109.505 Y126.753 E0.01689
G1 X97.747 Y114.995 E0.52400
G1 X97.747 Y114.459 E0.01689
G1 X110.041 Y126.753 E0.54788
G1 X110.577 Y126.753 E0.01689
G1 X97.747 Y113.923 E0.57176
G1 X97.747 Y113.387 E0.01689
G1 X111.113 Y126.753 E0.59565
G1 X111.649 Y126.753 E0.01689
G1 X97.747 Y112.851 E0.61953
G1 X97.747 Y112.315 E0.01689
G1 X112.185 Y126.753 E0.64341
G1 X112.721 Y126.753 E0.01689
G1 X97.747 Y111.779 E0.66730
G1 X97.747 Y111.243 E0.01689
G1 X113.257 Y126.753 E0.69118
G1 X113.793 Y126.753 E0.01689
G1 X97.747 Y110.707 E0.71507
G1 X97.747 Y110.171 E0.01689
G1 X114.329 Y126.753 E0.73895
G1 X114.865 Y126.753 E0.01689
G1 X97.747 Y109.635 E0.76283
G1 X97.747 Y109.099 E0.01689
G1 X115.401 Y126.753 E0.78672
G1 X115.937 Y126.753 E0.01689
G1 X97.747 Y108.563 E0.81060
G1 X97.747 Y108.027 E0.01689
G1 X116.473 Y126.753 E0.83448
G1 X117.008 Y126.753 E0.01689
G1 X97.747 Y107.492 E0.85837
G1 X97.747 Y106.956 E0.01689
G1 X117.544 Y126.753 E0.88225
G1 X118.080 Y126.753 E0.01689
G1 X97.747 Y106.420 E0.90613
G1 X97.747 Y105.884 E0.01689
G1 X118.616 Y126.753 E0.93002
G1 X119.152 Y126.753 E0.01689
G1 X97.747 Y105.348 E0.95390
G1 X97.747 Y104.812 E0.01689
G1 X119.688 Y126.753 E0.97778
G1 X120.224 Y126.753 E0.01689
G1 X97.747 Y104.276 E1.00167
G1 X97.747 Y103.740 E0.01689
G1 X120.760 Y126.753 E1.02555
G1 X121.296 Y126.753 E0.01689
G1 X97.747 Y103.204 E1.04944
G1 X97.747 Y102.668 E0.01689
G1 X121.832 Y126.753 E1.07332
G1 X122.368 Y126.753 E0.01689
G1 X97.747 Y102.132 E1.09720
G1 X97.747 Y101.596 E0.01689
G1 X122.904 Y126.753 E1.12109
G1 X123.440 Y126.753 E0.01689
G1 X97.747 Y101.060 E1.14497
G1 X97.747 Y100.524 E0.01689
G1 X123.976 Y126.753 E1.16885
G1 X124.512 Y126.753 E0.01689
G1 X97.747 Y99.988 E1.19274
G1 X97.747 Y99.452 E0.01689
G1 X125.048 Y126.753 E1.21662
G1 X125.584 Y126.753 E0.01689
G1 X97.747 Y98.916 E1.24050
G1 X97.747 Y98.380 E0.01689
G1 X126.120 Y126.753 E1.26439
G1 X126.655 Y126.753 E0.01689
G1 X97.747 Y97.845 E1.28827
G1 X97.747 Y97.309 E0.01689
G1 X127.191 Y126.753 E1.31215
G1 X127.727 Y126.753 E0.01689
G1 X97.747 Y96.773 E1.33604
G1 X97.747 Y96.237 E0.01689
G1 X128.263 Y126.753 E1.35992
G1 X128.799 Y126.753 E0.01689
G1 X97.747 Y95.701 E1.38380
G1 X97.747 Y95.165 E0.01689
G1 X129.335 Y126.753 E1.40769
G1 X129.871 Y126.753 E0.01689
G1 X97.747 Y94.629 E1.43157
G1 X97.747 Y94.093 E0.01689
G1 X130.407 Y126.753 E1.45546
G1 X130.943 Y126.753 E0.01689
G1 X97.747 Y93.557 E1.47934
G1 X97.747 Y93.021 E0.01689
G1 X131.479 Y126.753 E1.50322
G1 X132.015 Y126.753 E0.01689
G1 X97.747 Y92.485 E1.52711
G1 X97.747 Y91.949 E0.01689
G1 X132.551 Y126.753 E1.55099
G1 X133.087 Y126.753 E0.01689
G1 X97.747 Y91.413 E1.57487
G1 X97.747 Y90.877 E0.01689
G1 X133.623 Y126.753 E1.59876
G1 X134.159 Y126.753 E0.01689
G1 X97.747 Y90.341 E1.62264
G1 X97.747 Y89.805 E0.01689
G1 X134.695 Y126.753 E1.64652
G1 X135.231 Y126.753 E0.01689
G1 X97.747 Y89.269 E1.67041
G1 X97.747 Y88.734 E0.01689
G1 X135.766 Y126.753 E1.69429
G1 X136.302 Y126.753 E0.01689
G1 X97.747 Y88.198 E1.71817
G1 X97.747 Y87.662 E0.01689
G1 X136.838 Y126.753 E1.74206
G1 X137.374 Y126.753 E0.01689
G1 X97.747 Y87.126 E1.76594
G1 X97.747 Y86.590 E0.01689
G1 X137.910 Y126.753 E1.78983
G1 X138.446 Y126.753 E0.01689
G1 X97.747 Y86.054 E1.81371
G1 X97.747 Y85.518 E0.01689
G1 X138.982 Y126.753 E1.83759
G1 X139.518 Y126.753 E0.01689
G1 X97.751 Y84.986 E1.86129
G1 X97.768 Y84.751 E0.00743
G1 X97.819 Y84.518 E0.00752
G1 X140.054 Y126.753 E1.88216
G1 X140.590 Y126.753 E0.01689
G1 X97.979 Y84.143 E1.89888
G1 X98.203 Y83.830 E0.01210
G1 X141.126 Y126.753 E1.91279
G1 X141.662 Y126.753 E0.01689
G1 X98.487 Y83.578 E1.92404
G1 X98.831 Y83.387 E0.01242
G1 X142.198 Y126.753 E1.93257
G1 X142.734 Y126.753 E0.01689
G1 X99.249 Y83.268 E1.93784
G1 X99.764 Y83.247 E0.01623
G1 X143.270 Y126.753 E1.93879
G1 X143.806 Y126.753 E0.01689
