; generated by Slic3r 1.33.8-prusa3d-win64 on 2017-03-06 at 18:25:21

; external perimeters extrusion width = 0.45mm
; perimeters extrusion width = 0.45mm
; infill extrusion width = 0.45mm
; solid infill extrusion width = 0.45mm
; top infill extrusion width = 0.45mm

M107
M115 U3.0.9 ; tell printer latest fw version
M83  ; extruder relative mode
M104 S215 ; set extruder temp
M140 S55 ; set bed temp
M190 S55 ; wait for bed temp
M109 S215 ; wait for extruder temp
G28 W ; home all without mesh bed level
G80 ; mesh bed leveling
G1 Y-3.0 F1000.0 ; go outside pritn area
G1 X60.0 E9.0  F1000.0 ; intro line
G1 X100.0 E12.5  F1000.0 ; intro line
G21 ; set units to millimeters
G90 ; use absolute coordinates
M83 ; use relative distances for extrusion
G1 E-0.80000 F2100.00000
G1 Z0.200 F7200.000
G1 X99.483 Y82.680 F7200.000
G1 E0.80000 F2100.00000
M204 S1000
G1 F2100
G1 X99.611 Y82.373 E0.01042
G1 X99.746 Y82.130 E0.00871
G1 X99.948 Y81.852 E0.01079
G1 X100.140 Y81.641 E0.00895
G1 X100.398 Y81.419 E0.01066
G1 X100.627 Y81.261 E0.00871
G1 X100.935 Y81.097 E0.01095
G1 X101.222 Y80.985 E0.00967
G1 X101.570 Y80.881 E0.01136
G1 X101.875 Y80.821 E0.00977
G1 X102.485 Y80.762 E0.01921
G1 X103.624 Y80.797 E0.03571
G1 X104.479 Y80.885 E0.02697
G1 X104.944 Y80.955 E0.01473
G1 X118.269 Y83.634 E0.42614
G1 X150.433 Y90.315 E1.03003
G1 X150.998 Y90.466 E0.01833
G1 X151.579 Y90.687 E0.01950
G1 X151.897 Y90.844 E0.01110
G1 X152.216 Y91.036 E0.01170
G1 X152.647 Y91.373 E0.01713
G1 X152.839 Y91.569 E0.00859
G1 X153.089 Y91.877 E0.01246
G1 X153.295 Y92.218 E0.01247
G1 X153.410 Y92.454 E0.00824
G1 X153.537 Y92.814 E0.01197
G1 X153.602 Y93.072 E0.00836
G1 X153.651 Y93.424 E0.01114
G1 X153.665 Y93.797 E0.01170
G1 X153.652 Y94.136 E0.01065
G1 X152.547 Y107.267 E0.41315
G1 X148.992 Y125.743 E0.58993
G1 X148.895 Y126.092 E0.01136
G1 X148.755 Y126.412 E0.01094
G1 X148.588 Y126.693 E0.01026
G1 X148.374 Y126.960 E0.01073
G1 X147.983 Y127.314 E0.01653
G1 X147.607 Y127.552 E0.01395
G1 X147.171 Y127.721 E0.01467
G1 X146.710 Y127.802 E0.01467
G1 X127.154 Y128.896 E0.61412
G1 X121.574 Y128.956 E0.17499
G1 X101.964 Y127.807 E0.61590
G1 X101.585 Y127.744 E0.01205
G1 X101.217 Y127.620 E0.01217
G1 X100.875 Y127.437 E0.01217
G1 X100.567 Y127.202 E0.01217
G1 X100.284 Y126.898 E0.01300
G1 X100.058 Y126.546 E0.01312
G1 X99.897 Y126.164 E0.01300
G1 X99.805 Y125.756 E0.01312
G1 X96.408 Y96.745 E0.91581
G1 X96.342 Y95.950 E0.02504
G1 X96.345 Y95.126 E0.02581
G1 X96.378 Y94.760 E0.01154
G1 X96.423 Y94.513 E0.00788
G1 X99.464 Y82.737 E0.38134
G1 F5760
G1 X99.611 Y82.373 E-0.13580
G1 F5760
G1 X99.746 Y82.130 E-0.09625
G1 F5760
G1 X99.948 Y81.852 E-0.11918
G1 F5760
G1 X100.140 Y81.641 E-0.09889
G1 F5760
G1 X100.398 Y81.419 E-0.11777
G1 F5760
G1 X100.627 Y81.261 E-0.09625
G1 F5760
G1 X100.871 Y81.131 E-0.09587
G1 E-0.04000 F2100.00000
G1 X119.983 Y94.619 F7200.000
G1 E0.80000 F2100.00000
G1 F1050
G1 X122.012 Y93.736 E0.06938
G1 X122.188 Y93.953 E0.00875
G1 X122.362 Y94.060 E0.00642
G1 X122.812 Y94.205 E0.01483
G1 X123.660 Y94.395 E0.02724
G1 X126.464 Y102.517 E0.26940
G1 X126.714 Y103.043 E0.01827
G1 X126.846 Y103.218 E0.00687
G1 X127.022 Y103.339 E0.00668
G1 X127.135 Y103.389 E0.00390
G1 X127.473 Y103.486 E0.01103
G1 X128.250 Y103.594 E0.02457
G1 X130.006 Y103.597 E0.05507
G1 X130.306 Y103.555 E0.00951
G1 X130.457 Y103.509 E0.00493
G1 X130.636 Y103.407 E0.00646
G1 X130.713 Y103.306 E0.00399
G1 X130.899 Y102.901 E0.01399
G1 X130.996 Y102.581 E0.01048
G1 X132.296 Y96.690 E0.18913
G1 X134.820 Y97.294 E0.08140
G1 X135.775 Y102.861 E0.17711
G1 X135.032 Y102.846 E0.02332
G1 X135.048 Y112.574 E0.30501
G1 X113.854 Y112.562 E0.66452
G1 X113.832 Y102.718 E0.30865
G1 X113.298 Y102.718 E0.01674
G1 X113.298 Y100.585 E0.06687
G1 X119.834 Y101.729 E0.20803
G1 X120.058 Y101.761 E0.00711
G1 X120.423 Y101.775 E0.01146
G1 X120.505 Y101.753 E0.00267
G1 X120.567 Y101.606 E0.00498
G1 X120.615 Y101.159 E0.01409
G1 X120.616 Y100.855 E0.00954
G1 X120.578 Y100.271 E0.01835
G1 X120.439 Y99.445 E0.02627
G1 X120.313 Y99.036 E0.01341
G1 X120.191 Y98.812 E0.00802
G1 X120.151 Y98.771 E0.00178
G1 X119.956 Y98.667 E0.00692
G1 X119.620 Y98.574 E0.01095
G1 X119.144 Y98.483 E0.01519
G1 X114.312 Y97.663 E0.15366
G1 X112.381 Y97.269 E0.06179
G1 X112.383 Y96.844 E0.01333
G1 X114.779 Y96.364 E0.07662
G1 X115.114 Y96.267 E0.01094
G1 X115.146 Y96.042 E0.00714
G1 X115.137 Y95.866 E0.00553
G1 X114.841 Y94.438 E0.04573
G1 X115.780 Y94.551 E0.02966
G1 X118.679 Y95.093 E0.09247
G1 X119.249 Y95.170 E0.01804
G1 X119.658 Y95.198 E0.01285
G1 X119.898 Y95.178 E0.00755
G1 X119.974 Y94.679 E0.01583
G1 X119.942 Y94.221 F7200.000
G1 F5760
G1 X121.966 Y93.758 E-0.76000
G1 E-0.04000 F2100.00000
G1 X126.869 Y95.067 F7200.000
G1 E0.80000 F2100.00000
G1 F840
G1 X129.395 Y95.541 E0.08058
G1 X128.931 Y101.273 E0.18031
G1 X128.490 Y101.308 E0.01387
G1 X127.622 Y97.760 E0.11451
G1 X126.885 Y95.124 E0.08581
G1 X126.884 Y94.667 F7200.000
G1 F5760
G1 X129.050 Y95.484 E-0.76000
G1 E-0.04000 F2100.00000
G1 X115.480 Y115.857 F7200.000
G1 E0.80000 F2100.00000
G1 F1680
G1 X132.685 Y115.857 E0.53946
G1 X133.143 Y117.253 E0.04608
G1 X124.273 Y123.767 E0.34504
G1 X115.032 Y117.274 E0.35413
G1 X115.462 Y115.914 E0.04470
G1 X115.756 Y116.234 F7200.000
G1 F840
G1 X132.412 Y116.234 E0.52223
G1 X132.700 Y117.111 E0.02894
G1 X124.268 Y123.303 E0.32798
G1 X115.475 Y117.124 E0.33697
G1 X115.738 Y116.291 E0.02738
G1 X116.033 Y116.611 F7200.000
G1 F840
G1 X132.139 Y116.611 E0.50500
G1 X132.256 Y116.969 E0.01181
G1 X124.264 Y122.839 E0.31092
G1 X115.918 Y116.974 E0.31982
G1 X116.015 Y116.668 E0.01006
G1 X115.911 Y116.230 F7200.000
G1 F5760
G1 X118.209 Y116.661 E-0.76000
G1 E-0.04000 F2100.00000
G1 X105.651 Y97.952 F7200.000
G1 E0.80000 F2100.00000
G1 F840
G1 X108.946 Y98.486 E0.10466
G1 X109.106 Y98.082 E0.01362
G1 X111.033 Y98.352 E0.06101
G1 X111.253 Y99.321 E0.03117
G1 X111.935 Y99.607 E0.02317
G1 X112.045 Y103.471 E0.12121
G1 X105.648 Y103.468 E0.20056
G1 X105.651 Y98.012 E0.17105
G1 X106.028 Y98.396 F7200.000
G1 F840
G1 X109.185 Y98.907 E0.10028
G1 X109.347 Y98.497 E0.01383
G1 X110.723 Y98.689 E0.04355
G1 X110.928 Y99.583 E0.02876
G1 X111.565 Y99.861 E0.02177
G1 X111.657 Y103.094 E0.10142
G1 X106.025 Y103.091 E0.17656
G1 X106.028 Y98.456 E0.14534
G1 X106.405 Y98.839 F7200.000
G1 F840
G1 X109.220 Y99.295 E0.08941
G1 X109.440 Y99.282 E0.00693
G1 X109.589 Y98.911 E0.01252
G1 X110.413 Y99.027 E0.02609
G1 X110.570 Y99.715 E0.02214
G1 X110.638 Y99.835 E0.00433
G1 X110.766 Y99.934 E0.00509
G1 X111.195 Y100.114 E0.01458
G1 X111.269 Y102.717 E0.08163
G1 X106.403 Y102.714 E0.15257
G1 X106.405 Y98.899 E0.11963
G1 X106.328 Y98.446 F7200.000
G1 F5760
G1 X108.578 Y99.204 E-0.76000
G1 E-0.04000 F2100.00000
G1 X141.239 Y95.260 F7200.000
G1 E0.80000 F2100.00000
G1 F840
G1 X142.935 Y95.076 E0.05348
G1 X144.588 Y100.808 E0.18706
G1 X145.116 Y102.498 E0.05551
G1 X145.777 Y104.346 E0.06154
G1 X143.516 Y105.241 E0.07625
G1 X142.891 Y103.468 E0.05893
G1 X142.535 Y103.470 E0.01117
G1 X142.146 Y105.166 E0.05458
G1 X139.888 Y104.189 E0.07716
G1 X140.438 Y101.705 E0.07975
G1 X140.900 Y99.411 E0.07336
G1 X141.041 Y98.365 E0.03310
G1 X141.235 Y95.320 E0.09568
G1 X141.595 Y95.601 F7200.000
G1 F840
G1 X142.660 Y95.485 E0.03359
G1 X144.227 Y100.917 E0.17725
G1 X144.758 Y102.618 E0.05589
G1 X145.299 Y104.130 E0.05034
G1 X143.741 Y104.746 E0.05253
G1 X143.158 Y103.090 E0.05505
G1 X142.234 Y103.094 E0.02896
G1 X141.880 Y104.640 E0.04975
G1 X140.323 Y103.966 E0.05318
G1 X140.807 Y101.783 E0.07011
G1 X141.272 Y99.474 E0.07386
G1 X141.416 Y98.402 E0.03390
G1 X141.591 Y95.660 E0.08614
G1 X141.951 Y95.941 F7200.000
G1 F840
G1 X142.386 Y95.894 E0.01371
G1 X143.865 Y101.025 E0.16744
G1 X144.401 Y102.738 E0.05626
G1 X144.821 Y103.913 E0.03914
G1 X143.966 Y104.251 E0.02882
G1 X143.424 Y102.712 E0.05117
G1 X141.933 Y102.718 E0.04675
G1 X141.613 Y104.114 E0.04491
G1 X140.759 Y103.744 E0.02920
G1 X141.176 Y101.861 E0.06046
G1 X141.644 Y99.536 E0.07436
G1 X141.792 Y98.439 E0.03470
G1 X141.947 Y96.001 E0.07661
G1 X141.934 Y95.542 F7200.000
G1 F5760
G1 X142.386 Y95.894 E-0.15630
G1 F5760
G1 X142.869 Y97.569 E-0.60370
G1 E-0.04000 F2100.00000
G1 X113.889 Y93.563 F7200.000
G1 E0.80000 F2100.00000
G1 F1680
G1 X114.329 Y95.685 E0.06796
G1 X112.410 Y96.070 E0.06139
G1 X112.120 Y93.032 E0.09569
G1 X110.999 Y92.783 E0.03600
G1 X110.847 Y92.734 E0.00501
G1 X110.779 Y92.511 E0.00730
G1 X110.690 Y91.963 E0.01741
G1 X110.665 Y91.266 E0.02185
G1 X111.915 Y91.304 E0.03923
G1 X111.540 Y87.125 E0.13156
G1 X111.545 Y86.950 E0.00547
G1 X111.703 Y86.772 E0.00749
G1 X112.159 Y86.374 E0.01897
G1 X112.547 Y86.120 E0.01453
G1 X112.776 Y86.053 E0.00747
G1 X112.914 Y86.050 E0.00434
G1 X113.190 Y86.068 E0.00869
G1 X113.848 Y86.164 E0.02082
G1 X117.344 Y86.855 E0.11176
G1 X118.636 Y87.145 E0.04152
G1 X118.712 Y87.307 E0.00561
G1 X118.785 Y87.592 E0.00922
G1 X118.843 Y88.188 E0.01877
G1 X118.838 Y88.407 E0.00688
G1 X116.756 Y87.990 E0.06657
G1 X113.427 Y87.401 E0.10601
G1 X113.909 Y91.995 E0.14483
G1 X118.917 Y92.879 E0.15947
G1 X119.224 Y93.582 E0.02404
G1 X122.369 Y92.659 E0.10275
G1 X122.409 Y91.665 E0.03120
G1 X123.556 Y91.696 E0.03595
G1 X122.711 Y88.494 E0.10382
G1 X122.983 Y88.433 E0.00876
G1 X123.582 Y88.373 E0.01887
G1 X124.296 Y88.377 E0.02238
G1 X124.458 Y88.397 E0.00513
G1 X124.546 Y88.617 E0.00744
G1 X124.686 Y89.096 E0.01563
G1 X125.503 Y92.471 E0.10888
G1 X127.656 Y92.934 E0.06904
G1 X127.786 Y93.229 E0.01014
G1 X128.209 Y94.551 E0.04351
G1 X125.814 Y94.101 E0.07641
G1 X126.892 Y97.951 E0.12536
G1 X127.910 Y102.109 E0.13421
G1 X129.631 Y101.975 E0.05413
G1 X130.159 Y95.442 E0.20551
G1 X130.177 Y95.440 E0.00057
G1 X130.689 Y90.867 E0.14429
G1 X130.842 Y89.744 E0.03554
G1 X131.122 Y89.749 E0.00878
G1 X131.761 Y89.838 E0.02023
G1 X132.277 Y89.962 E0.01664
G1 X132.494 Y90.042 E0.00725
G1 X132.445 Y90.323 E0.00893
G1 X132.414 Y91.563 E0.03891
G1 X131.928 Y94.621 E0.09708
G1 X135.314 Y95.541 E0.11001
G1 X134.940 Y92.623 E0.09223
G1 X134.854 Y91.541 E0.03403
G1 X134.849 Y90.837 E0.02208
G1 X135.143 Y90.826 E0.00922
G1 X135.786 Y90.842 E0.02016
G1 X136.095 Y90.870 E0.00973
G1 X136.448 Y90.931 E0.01122
G1 X136.517 Y91.202 E0.00878
G1 X137.632 Y101.445 E0.32303
G1 X139.417 Y101.476 E0.05598
G1 X140.268 Y95.673 E0.18389
G1 X140.898 Y92.131 E0.11281
G1 X141.376 Y92.057 E0.01516
G1 X141.618 Y92.054 E0.00759
G1 X142.137 Y92.104 E0.01636
G1 X142.569 Y92.203 E0.01389
G1 X142.818 Y92.304 E0.00841
G1 X142.915 Y92.491 E0.00663
G1 X143.166 Y93.145 E0.02194
G1 X146.771 Y103.348 E0.33929
G1 X148.516 Y102.969 E0.05597
G1 X148.247 Y99.810 E0.09944
G1 X148.197 Y97.963 E0.05792
G1 X148.278 Y93.463 E0.14113
G1 X148.458 Y93.450 E0.00564
G1 X149.093 Y93.475 E0.01993
G1 X149.384 Y93.514 E0.00922
G1 X149.993 Y93.654 E0.01957
G1 X150.312 Y93.788 E0.01087
G1 X150.317 Y93.912 E0.00390
G1 X149.224 Y106.879 E0.40799
G1 X148.801 Y106.942 E0.01342
G1 X147.787 Y106.949 E0.03179
G1 X147.579 Y106.937 E0.00653
G1 X147.007 Y106.847 E0.01815
G1 X146.852 Y106.727 E0.00614
G1 X146.748 Y106.595 E0.00528
G1 X146.135 Y105.592 E0.03686
G1 X143.984 Y106.732 E0.07631
G1 X144.777 Y108.019 E0.04739
G1 X145.110 Y108.429 E0.01656
G1 X145.373 Y108.671 E0.01120
G1 X145.717 Y108.910 E0.01315
G1 X145.723 Y124.468 E0.48781
G1 X135.778 Y124.465 E0.31180
G1 X135.769 Y116.902 E0.23710
G1 X126.054 Y124.037 E0.37792
G1 X126.070 Y125.567 E0.04798
G1 X124.644 Y125.582 E0.04471
G1 X124.290 Y125.333 E0.01359
G1 X123.940 Y125.589 E0.01359
G1 X122.514 Y125.604 E0.04472
G1 X122.498 Y124.074 E0.04799
G1 X113.065 Y117.445 E0.36149
G1 X113.051 Y124.471 E0.22029
G1 X103.125 Y124.474 E0.31122
G1 X103.125 Y103.467 E0.65866
G1 X103.732 Y103.467 E0.01904
G1 X103.735 Y97.621 E0.18331
G1 X100.003 Y96.955 E0.11887
G1 X99.841 Y96.909 E0.00529
G1 X99.796 Y96.765 E0.00471
G1 X99.697 Y96.089 E0.02143
G1 X99.677 Y95.559 E0.01662
G1 X99.678 Y95.514 E0.00142
G1 X99.809 Y95.536 E0.00416
G1 X104.016 Y96.397 E0.13464
G1 X104.336 Y93.995 E0.07600
G1 X103.890 Y94.037 E0.01406
G1 X102.809 Y85.273 E0.27689
G1 X102.688 Y84.106 E0.03678
G1 X103.367 Y84.129 E0.02132
G1 X104.060 Y84.201 E0.02185
G1 X104.709 Y84.319 E0.02068
G1 X104.746 Y84.531 E0.00674
G1 X105.227 Y89.840 E0.16716
G1 X105.542 Y92.859 E0.09516
G1 X105.665 Y93.778 E0.02906
G1 X105.670 Y93.928 E0.00473
G1 X105.303 Y94.087 E0.01254
G1 X105.728 Y96.757 E0.08477
G1 X108.058 Y97.115 E0.07390
G1 X108.580 Y97.213 E0.01667
G1 X108.705 Y97.794 E0.01863
G1 X110.862 Y98.106 E0.06835
G1 X110.904 Y97.742 E0.01149
G1 X111.624 Y97.838 E0.02277
G1 X111.624 Y97.884 E0.00147
G1 X114.173 Y98.405 E0.08159
G1 X119.010 Y99.225 E0.15380
G1 X119.623 Y99.358 E0.01968
G1 X119.703 Y99.619 E0.00857
G1 X119.828 Y100.359 E0.02352
G1 X119.861 Y100.968 E0.01915
G1 X112.544 Y99.687 E0.23292
G1 X112.544 Y103.472 E0.11865
G1 X113.079 Y103.472 E0.01679
G1 X113.101 Y113.316 E0.30865
G1 X135.802 Y113.328 E0.71176
G1 X135.793 Y103.616 E0.30452
G1 X136.673 Y103.634 E0.02760
G1 X135.480 Y96.676 E0.22137
G1 X131.724 Y95.778 E0.12106
G1 X130.266 Y102.390 E0.21228
G1 X130.121 Y102.811 E0.01395
G1 X129.954 Y102.843 E0.00534
G1 X128.288 Y102.840 E0.05225
G1 X128.025 Y102.813 E0.00830
G1 X127.640 Y102.750 E0.01222
G1 X127.389 Y102.676 E0.00820
G1 X127.163 Y102.231 E0.01565
G1 X124.236 Y93.751 E0.28129
G1 X123.011 Y93.477 E0.03936
G1 X122.689 Y93.373 E0.01060
G1 X122.236 Y92.816 E0.02251
G1 X119.300 Y94.094 E0.10037
G1 X119.252 Y94.409 E0.01000
G1 X118.799 Y94.348 E0.01435
G1 X115.894 Y93.805 E0.09264
G1 X113.949 Y93.570 E0.06145
G1 F5760
G1 X114.329 Y95.685 E-0.74440
G1 F5760
G1 X114.285 Y95.694 E-0.01560
G1 E-0.04000 F2100.00000
G1 X105.721 Y94.317 F7200.000
G1 E0.80000 F2100.00000
G1 F1680
G1 X106.057 Y96.426 E0.06696
G1 X108.121 Y96.743 E0.06548
G1 X108.859 Y96.882 E0.02354
G1 X108.922 Y97.010 E0.00447
G1 X109.018 Y97.458 E0.01439
G1 X110.532 Y97.677 E0.04796
G1 X110.574 Y97.317 E0.01136
G1 X112.003 Y97.508 E0.04521
G1 X112.003 Y97.577 E0.00217
G1 X114.243 Y98.034 E0.07169
G1 X119.534 Y98.942 E0.16832
G1 X119.816 Y99.020 E0.00917
G1 X119.899 Y99.064 E0.00297
G1 X119.964 Y99.183 E0.00424
G1 X120.071 Y99.532 E0.01144
G1 X120.203 Y100.315 E0.02489
G1 X120.239 Y100.867 E0.01734
G1 X120.238 Y101.138 E0.00852
G1 X120.211 Y101.389 E0.00791
G1 X119.892 Y101.357 E0.01004
G1 X112.921 Y100.136 E0.22190
G1 X112.921 Y103.095 E0.09276
G1 X113.456 Y103.095 E0.01676
G1 X113.478 Y112.939 E0.30865
G1 X135.425 Y112.951 E0.68814
G1 X135.412 Y103.231 E0.30477
G1 X136.224 Y103.248 E0.02546
G1 X135.150 Y96.985 E0.19924
G1 X132.010 Y96.234 E0.10123
G1 X130.631 Y102.485 E0.20070
G1 X130.543 Y102.775 E0.00949
G1 X130.393 Y103.103 E0.01131
G1 X130.370 Y103.134 E0.00121
G1 X130.225 Y103.186 E0.00483
G1 X129.980 Y103.220 E0.00775
G1 X128.269 Y103.217 E0.05366
G1 X127.557 Y103.118 E0.02254
G1 X127.264 Y103.033 E0.00955
G1 X127.110 Y102.942 E0.00563
G1 X127.038 Y102.847 E0.00372
G1 X126.814 Y102.374 E0.01642
G1 X123.948 Y94.073 E0.27534
G1 X122.912 Y93.841 E0.03330
G1 X122.506 Y93.710 E0.01335
G1 X122.454 Y93.682 E0.00185
G1 X122.124 Y93.276 E0.01642
G1 X119.642 Y94.357 E0.08487
G1 X119.572 Y94.814 E0.01451
G1 X118.739 Y94.721 E0.02629
G1 X115.837 Y94.178 E0.09255
G1 X114.365 Y94.000 E0.04649
G1 X114.765 Y95.980 E0.06332
G1 X112.074 Y96.522 E0.08608
G1 X111.771 Y93.340 E0.10019
G1 X110.900 Y93.147 E0.02798
G1 X110.660 Y93.069 E0.00790
G1 X110.540 Y92.990 E0.00451
G1 X110.411 Y92.597 E0.01298
G1 X110.315 Y92.007 E0.01873
G1 X110.290 Y91.673 E0.01051
G1 X110.287 Y91.231 E0.01387
G1 X110.319 Y90.879 E0.01108
G1 X111.502 Y90.914 E0.03708
G1 X111.162 Y87.136 E0.11893
G1 X111.170 Y86.861 E0.00864
G1 X111.231 Y86.735 E0.00439
G1 X111.438 Y86.503 E0.00973
G1 X111.928 Y86.076 E0.02038
G1 X112.253 Y85.851 E0.01242
G1 X112.487 Y85.735 E0.00818
G1 X112.726 Y85.677 E0.00771
G1 X112.923 Y85.672 E0.00617
G1 X113.230 Y85.693 E0.00967
G1 X113.911 Y85.792 E0.02158
G1 X117.421 Y86.486 E0.11217
G1 X118.767 Y86.778 E0.04317
G1 X118.821 Y86.803 E0.00190
G1 X118.958 Y86.942 E0.00608
G1 X119.068 Y87.180 E0.00822
G1 X119.155 Y87.516 E0.01089
G1 X119.221 Y88.178 E0.02088
G1 X119.211 Y88.580 E0.01260
