; generated by Slic3r 1.33.8-prusa3d-win64 on 2017-03-31 at 10:47:43

; external perimeters extrusion width = 0.45mm
; perimeters extrusion width = 0.45mm
; infill extrusion width = 0.45mm
; solid infill extrusion width = 0.45mm
; top infill extrusion width = 0.45mm

M107
M115 U3.0.10 ; tell printer latest fw version
M83  ; extruder relative mode
M104 S215 ; set extruder temp
M140 S55 ; set bed temp
M190 S55 ; wait for bed temp
M109 S215 ; wait for extruder temp
G28 W ; home all without mesh bed level
G80 ; mesh bed leveling
G1 Y-3.0 F1000.0 ; go outside pritn area
G1 X60.0 E9.0  F1000.0 ; intro line
G1 X100.0 E12.5  F1000.0 ; intro line
G21 ; set units to millimeters
G90 ; use absolute coordinates
M83 ; use relative distances for extrusion
G1 E-0.80000 F2100.00000
G1 Z0.200 F7200.000
G1 X99.831 Y83.379 F7200.000
G1 E0.80000 F2100.00000
M204 S1000
G1 F2100
G1 X99.941 Y82.999 E0.01241
G1 X100.115 Y82.639 E0.01253
G1 X100.347 Y82.314 E0.01253
G1 X100.627 Y82.034 E0.01241
G1 X100.950 Y81.805 E0.01241
G1 X101.309 Y81.631 E0.01253
G1 X101.689 Y81.521 E0.01241
G1 X102.086 Y81.475 E0.01253
G1 X146.552 Y81.480 E1.39421
G1 X146.883 Y81.506 E0.01038
G1 X147.206 Y81.577 E0.01038
G1 X147.516 Y81.693 E0.01038
G1 X147.807 Y81.851 E0.01038
G1 X148.244 Y82.195 E0.01744
G1 X148.570 Y82.570 E0.01558
G1 X148.705 Y82.782 E0.00788
G1 X148.826 Y83.023 E0.00845
G1 X148.980 Y83.494 E0.01553
G1 X152.537 Y101.949 E0.58931
G1 X153.658 Y115.255 E0.41867
G1 X153.653 Y115.838 E0.01826
G1 X153.576 Y116.337 E0.01583
G1 X153.401 Y116.856 E0.01720
G1 X153.153 Y117.316 E0.01637
G1 X152.988 Y117.544 E0.00883
G1 X152.720 Y117.846 E0.01267
G1 X152.410 Y118.114 E0.01282
G1 X152.179 Y118.276 E0.00883
G1 X151.860 Y118.464 E0.01163
G1 X151.447 Y118.661 E0.01434
G1 X150.974 Y118.830 E0.01574
G1 X150.480 Y118.963 E0.01605
G1 X118.013 Y125.707 E1.03970
G1 X105.364 Y128.256 E0.40459
G1 X104.506 Y128.400 E0.02726
G1 X103.441 Y128.503 E0.03356
G1 X102.622 Y128.526 E0.02569
G1 X102.205 Y128.511 E0.01305
G1 X101.657 Y128.428 E0.01739
G1 X101.225 Y128.304 E0.01409
G1 X100.920 Y128.185 E0.01026
G1 X100.587 Y128.002 E0.01193
G1 X100.179 Y127.685 E0.01619
G1 X99.862 Y127.326 E0.01499
G1 X99.633 Y126.959 E0.01360
G1 X99.450 Y126.506 E0.01531
G1 X96.427 Y114.793 E0.37930
G1 X96.358 Y114.359 E0.01378
G1 X96.335 Y113.769 E0.01849
G1 X96.345 Y113.258 E0.01603
G1 X96.408 Y112.545 E0.02244
G1 X99.820 Y83.438 E0.91890
G1 F5760
G1 X99.941 Y82.999 E-0.15774
G1 F5760
G1 X100.115 Y82.639 E-0.13836
G1 F5760
G1 X100.347 Y82.314 E-0.13836
G1 F5760
G1 X100.627 Y82.034 E-0.13704
G1 F5760
G1 X100.950 Y81.805 E-0.13704
G1 F5760
G1 X101.083 Y81.740 E-0.05145
G1 E-0.04000 F2100.00000
G1 X103.894 Y115.239 F7200.000
G1 E0.80000 F2100.00000
G1 F840
G1 X105.032 Y115.332 E0.03581
G1 X105.666 Y115.443 E0.02019
G1 X105.526 Y116.575 E0.03578
G1 X105.227 Y119.448 E0.09057
G1 X104.745 Y124.770 E0.16753
G1 X104.714 Y124.975 E0.00652
G1 X104.688 Y124.983 E0.00085
G1 X104.067 Y125.087 E0.01976
G1 X103.375 Y125.159 E0.02181
G1 X102.679 Y125.176 E0.02182
G1 X103.885 Y115.298 E0.31202
G1 X103.570 Y114.834 F7200.000
G1 F840
G1 X105.080 Y114.957 E0.04750
G1 X106.036 Y115.137 E0.03049
G1 X106.045 Y115.450 E0.00981
G1 X105.901 Y116.618 E0.03691
G1 X105.602 Y119.485 E0.09037
G1 X105.120 Y124.815 E0.16779
G1 X105.075 Y125.114 E0.00950
G1 X105.014 Y125.284 E0.00564
G1 X104.770 Y125.351 E0.00792
G1 X104.118 Y125.461 E0.02075
G1 X103.399 Y125.535 E0.02264
G1 X102.483 Y125.558 E0.02874
G1 X102.302 Y125.531 E0.00575
G1 X102.302 Y125.146 E0.01209
G1 X103.562 Y114.893 E0.32387
G1 X103.247 Y114.429 F7200.000
G1 F840
G1 X105.128 Y114.583 E0.05918
G1 X105.953 Y114.728 E0.02624
G1 X106.313 Y114.817 E0.01164
G1 X106.377 Y114.865 E0.00253
G1 X106.410 Y115.026 E0.00515
G1 X106.423 Y115.467 E0.01383
G1 X106.275 Y116.661 E0.03771
G1 X105.977 Y119.521 E0.09018
G1 X105.494 Y124.860 E0.16806
G1 X105.444 Y125.193 E0.01059
G1 X105.383 Y125.413 E0.00716
G1 X105.321 Y125.525 E0.00400
G1 X105.222 Y125.603 E0.00393
G1 X104.852 Y125.720 E0.01217
G1 X104.168 Y125.835 E0.02174
G1 X103.423 Y125.912 E0.02348
G1 X102.459 Y125.936 E0.03024
G1 X102.196 Y125.897 E0.00834
G1 X102.019 Y125.842 E0.00583
G1 X101.932 Y125.769 E0.00354
G1 X101.925 Y125.122 E0.02029
G1 X103.106 Y115.425 E0.30630
G1 X103.238 Y114.489 E0.02965
G1 X103.573 Y114.661 F7200.000
G1 F5760
G1 X105.128 Y114.583 E-0.65533
G1 F5760
G1 X105.426 Y114.635 E-0.10467
G1 E-0.04000 F2100.00000
G1 X105.456 Y116.219 F7200.000
G1 E0.80000 F2100.00000
G1 F1680
G1 X104.836 Y115.599 E0.02765
G1 X104.252 Y115.552 E0.01847
G1 X105.245 Y116.545 E0.04427
G1 X105.194 Y117.030 E0.01540
G1 X104.094 Y115.930 E0.04906
G1 X104.036 Y116.408 E0.01518
G1 X105.144 Y117.516 E0.04941
G1 X105.093 Y118.002 E0.01540
G1 X103.977 Y116.886 E0.04976
G1 X103.919 Y117.364 E0.01518
G1 X105.043 Y118.487 E0.05010
G1 X104.992 Y118.973 E0.01540
G1 X103.861 Y117.841 E0.05045
G1 X103.802 Y118.319 E0.01518
G1 X104.942 Y119.459 E0.05082
G1 X104.896 Y119.950 E0.01554
G1 X103.744 Y118.797 E0.05139
G1 X103.685 Y119.275 E0.01518
G1 X104.851 Y120.441 E0.05197
G1 X104.805 Y120.931 E0.01554
G1 X103.627 Y119.753 E0.05254
G1 X103.569 Y120.231 E0.01518
G1 X104.760 Y121.422 E0.05312
G1 X104.714 Y121.913 E0.01554
G1 X103.510 Y120.709 E0.05369
G1 X103.452 Y121.187 E0.01518
G1 X104.669 Y122.404 E0.05427
G1 X104.623 Y122.894 E0.01554
G1 X103.393 Y121.665 E0.05484
G1 X103.335 Y122.142 E0.01518
G1 X104.578 Y123.385 E0.05541
G1 X104.532 Y123.876 E0.01554
G1 X103.277 Y122.620 E0.05599
G1 X103.218 Y123.098 E0.01518
G1 X104.487 Y124.367 E0.05656
G1 X104.453 Y124.734 E0.01162
G1 X104.337 Y124.754 E0.00369
G1 X103.160 Y123.576 E0.05250
G1 X103.102 Y124.054 E0.01518
G1 X103.871 Y124.823 E0.03430
G1 X103.385 Y124.874 E0.01540
G1 X102.891 Y124.379 E0.02203
G1 F5760
G1 X103.385 Y124.874 E-0.24199
G1 F5760
G1 X103.871 Y124.823 E-0.16921
G1 F5760
G1 X103.159 Y124.111 E-0.34880
G1 E-0.04000 F2100.00000
G1 X99.686 Y113.767 F7200.000
G1 E0.80000 F2100.00000
G1 F840
G1 X99.683 Y113.434 E0.01043
G1 X99.726 Y112.938 E0.01564
G1 X99.791 Y112.550 E0.01232
G1 X99.841 Y112.380 E0.00555
G1 X100.006 Y112.332 E0.00540
G1 X101.230 Y112.105 E0.03902
G1 X107.456 Y111.039 E0.19806
G1 X108.655 Y110.849 E0.03808
G1 X108.595 Y111.314 E0.01471
G1 X108.556 Y112.080 E0.02404
G1 X105.696 Y112.548 E0.09084
G1 X102.372 Y113.238 E0.10645
G1 X99.745 Y113.755 E0.08396
G1 X99.340 Y114.195 F7200.000
G1 F840
G1 X99.312 Y114.075 E0.00386
G1 X99.305 Y113.420 E0.02054
G1 X99.352 Y112.890 E0.01667
G1 X99.423 Y112.466 E0.01348
G1 X99.499 Y112.204 E0.00856
G1 X99.587 Y112.061 E0.00526
G1 X99.919 Y111.965 E0.01084
G1 X101.164 Y111.734 E0.03968
G1 X107.395 Y110.667 E0.19821
G1 X109.094 Y110.398 E0.05395
G1 X108.971 Y111.348 E0.03005
G1 X108.923 Y112.269 E0.02891
G1 X108.859 Y112.407 E0.00477
G1 X108.120 Y112.545 E0.02358
G1 X105.764 Y112.919 E0.07477
G1 X102.447 Y113.608 E0.10623
G1 X99.542 Y114.180 E0.09284
G1 X99.400 Y114.190 E0.00447
G1 X99.207 Y114.583 F7200.000
G1 F840
G1 X99.136 Y114.569 E0.00229
G1 X99.091 Y114.535 E0.00176
G1 X98.992 Y114.366 E0.00614
G1 X98.935 Y114.120 E0.00791
G1 X98.928 Y113.405 E0.02242
G1 X98.978 Y112.842 E0.01771
G1 X99.054 Y112.382 E0.01464
G1 X99.148 Y112.061 E0.01049
G1 X99.257 Y111.857 E0.00723
G1 X99.372 Y111.743 E0.00509
G1 X99.448 Y111.709 E0.00260
G1 X99.832 Y111.597 E0.01255
G1 X101.097 Y111.363 E0.04035
G1 X107.333 Y110.295 E0.19837
G1 X109.233 Y109.994 E0.06031
G1 X109.444 Y110.010 E0.00663
G1 X109.505 Y110.163 E0.00516
G1 X109.347 Y111.382 E0.03854
G1 X109.299 Y112.317 E0.02936
G1 X109.281 Y112.405 E0.00280
G1 X109.150 Y112.669 E0.00925
G1 X108.990 Y112.766 E0.00586
G1 X108.184 Y112.917 E0.02571
G1 X105.832 Y113.290 E0.07466
G1 X102.522 Y113.977 E0.10601
G1 X99.592 Y114.554 E0.09361
G1 X99.267 Y114.578 E0.01022
G1 X99.175 Y114.517 F7200.000
G1 F5760
G1 X99.136 Y114.569 E-0.04565
G1 F5760
G1 X99.091 Y114.535 E-0.01940
G1 F5760
G1 X98.992 Y114.366 E-0.06787
G1 F5760
G1 X98.935 Y114.120 E-0.08740
G1 F5760
G1 X98.928 Y113.405 E-0.24768
G1 F5760
G1 X98.978 Y112.842 E-0.19561
G1 F5760
G1 X99.023 Y112.568 E-0.09639
G1 E-0.04000 F2100.00000
G1 X99.847 Y112.902 F7200.000
G1 E0.80000 F2100.00000
G1 F1680
G1 X100.302 Y113.357 E0.02065
G1 X100.758 Y113.268 E0.01490
G1 X100.094 Y112.604 E0.03013
G1 X100.554 Y112.518 E0.01502
G1 X101.214 Y113.178 E0.02993
G1 X101.670 Y113.088 E0.01490
G1 X101.014 Y112.433 E0.02973
G1 X101.477 Y112.350 E0.01508
G1 X102.126 Y112.998 E0.02942
G1 X102.579 Y112.906 E0.01485
G1 X101.943 Y112.270 E0.02886
G1 X102.409 Y112.190 E0.01516
G1 X103.031 Y112.812 E0.02822
G1 X103.483 Y112.719 E0.01480
G1 X102.875 Y112.111 E0.02759
G1 X103.340 Y112.031 E0.01516
G1 X103.934 Y112.625 E0.02695
G1 X104.386 Y112.531 E0.01480
G1 X103.806 Y111.951 E0.02632
G1 X104.272 Y111.871 E0.01516
G1 X104.838 Y112.437 E0.02569
G1 X105.290 Y112.344 E0.01480
G1 X104.738 Y111.791 E0.02505
G1 X105.204 Y111.712 E0.01516
G1 X105.745 Y112.253 E0.02458
G1 X106.214 Y112.177 E0.01524
G1 X105.669 Y111.632 E0.02472
G1 X106.135 Y111.552 E0.01516
G1 X106.683 Y112.100 E0.02486
G1 X107.152 Y112.023 E0.01524
G1 X106.601 Y111.472 E0.02500
G1 X107.067 Y111.392 E0.01516
G1 X107.621 Y111.946 E0.02513
G1 X108.090 Y111.870 E0.01524
G1 X107.533 Y111.313 E0.02525
G1 X108.004 Y111.238 E0.01530
G1 X108.462 Y111.697 E0.02079
G1 F5760
G1 X108.004 Y111.238 E-0.22443
G1 F5760
G1 X107.533 Y111.313 E-0.16517
G1 F5760
G1 X108.090 Y111.870 E-0.27267
G1 F5760
G1 X107.811 Y111.915 E-0.09772
G1 E-0.04000 F2100.00000
G1 X113.889 Y115.726 F7200.000
G1 E0.80000 F2100.00000
G1 F1680
G1 X115.897 Y115.483 E0.06341
G1 X118.061 Y115.068 E0.06909
G1 X119.202 Y114.886 E0.03623
G1 X119.167 Y115.298 E0.01295
G1 X119.042 Y115.956 E0.02102
G1 X118.900 Y116.412 E0.01495
G1 X113.909 Y117.294 E0.15894
G1 X113.427 Y121.888 E0.14483
G1 X116.753 Y121.299 E0.10591
G1 X118.838 Y120.881 E0.06668
G1 X118.843 Y121.101 E0.00688
G1 X118.811 Y121.521 E0.01322
G1 X118.749 Y121.860 E0.01081
G1 X118.675 Y122.070 E0.00698
G1 X118.621 Y122.158 E0.00322
G1 X118.009 Y122.297 E0.01968
G1 X114.058 Y123.086 E0.12631
G1 X113.516 Y123.179 E0.01726
G1 X112.900 Y123.239 E0.01940
G1 X112.776 Y123.236 E0.00389
G1 X112.608 Y123.195 E0.00542
G1 X112.452 Y123.116 E0.00547
G1 X112.151 Y122.909 E0.01145
G1 X111.853 Y122.659 E0.01218
G1 X111.543 Y122.332 E0.01414
G1 X111.546 Y122.063 E0.00842
G1 X111.916 Y117.985 E0.12840
G1 X110.665 Y118.022 E0.03926
G1 X110.690 Y117.326 E0.02185
G1 X110.779 Y116.778 E0.01741
G1 X110.847 Y116.555 E0.00730
G1 X110.999 Y116.505 E0.00501
G1 X112.120 Y116.257 E0.03600
G1 X112.410 Y113.219 E0.09569
G1 X114.329 Y113.603 E0.06139
G1 X113.901 Y115.667 E0.06608
G1 X114.365 Y115.288 F7200.000
G1 F1680
G1 X115.838 Y115.110 E0.04654
G1 X117.995 Y114.697 E0.06884
G1 X119.035 Y114.525 E0.03306
G1 X119.575 Y114.474 E0.01700
G1 X119.592 Y114.755 E0.00882
G1 X119.541 Y115.349 E0.01870
G1 X119.410 Y116.041 E0.02206
G1 X119.334 Y116.322 E0.00912
G1 X119.179 Y116.749 E0.01426
G1 X118.306 Y116.889 E0.02773
G1 X114.254 Y117.615 E0.12906
G1 X113.854 Y121.429 E0.12025
G1 X116.683 Y120.928 E0.09008
G1 X118.964 Y120.472 E0.07294
G1 X119.173 Y120.464 E0.00656
G1 X119.211 Y120.708 E0.00776
G1 X119.221 Y121.110 E0.01260
G1 X119.186 Y121.570 E0.01445
G1 X119.114 Y121.957 E0.01236
G1 X119.018 Y122.233 E0.00914
G1 X118.916 Y122.399 E0.00610
G1 X118.821 Y122.485 E0.00403
G1 X118.764 Y122.512 E0.00199
G1 X118.088 Y122.666 E0.02175
G1 X114.127 Y123.456 E0.12663
G1 X113.566 Y123.553 E0.01786
G1 X112.914 Y123.616 E0.02054
G1 X112.726 Y123.612 E0.00589
G1 X112.487 Y123.553 E0.00771
G1 X112.382 Y123.508 E0.00361
G1 X111.923 Y123.209 E0.01718
G1 X111.595 Y122.935 E0.01341
G1 X111.226 Y122.546 E0.01679
G1 X111.176 Y122.443 E0.00360
G1 X111.169 Y122.042 E0.01257
G1 X111.502 Y118.375 E0.11545
G1 X110.319 Y118.410 E0.03710
G1 X110.287 Y118.058 E0.01108
G1 X110.290 Y117.616 E0.01387
G1 X110.315 Y117.281 E0.01051
G1 X110.411 Y116.692 E0.01873
G1 X110.524 Y116.324 E0.01207
G1 X110.660 Y116.219 E0.00539
G1 X110.900 Y116.141 E0.00790
G1 X111.771 Y115.948 E0.02798
G1 X112.074 Y112.767 E0.10019
G1 X114.765 Y113.309 E0.08608
G1 X114.377 Y115.229 E0.06144
G1 F5760
G1 X115.838 Y115.110 E-0.50783
G1 F5760
G1 X116.553 Y114.973 E-0.25217
G1 E-0.04000 F2100.00000
G1 X111.023 Y111.527 F7200.000
G1 E0.80000 F2100.00000
G1 F840
G1 X111.059 Y111.138 E0.01226
G1 X111.205 Y110.158 E0.03106
G1 X111.247 Y109.975 E0.00588
G1 X111.357 Y109.931 E0.00374
G1 X113.675 Y109.404 E0.07451
G1 X119.861 Y108.320 E0.19694
G1 X119.828 Y108.930 E0.01915
G1 X119.703 Y109.670 E0.02352
G1 X119.622 Y109.934 E0.00867
G1 X119.269 Y110.015 E0.01136
G1 X114.328 Y110.855 E0.15713
G1 X111.624 Y111.403 E0.08652
G1 X111.624 Y111.453 E0.00158
G1 X111.082 Y111.520 E0.01712
G1 X110.607 Y111.958 F7200.000
G1 F840
G1 X110.685 Y111.092 E0.02726
G1 X110.835 Y110.089 E0.03182
G1 X110.916 Y109.728 E0.01158
G1 X110.939 Y109.692 E0.00136
G1 X111.245 Y109.570 E0.01033
G1 X113.600 Y109.034 E0.07573
G1 X119.892 Y107.932 E0.20029
G1 X120.211 Y107.899 E0.01004
G1 X120.238 Y108.150 E0.00791
G1 X120.239 Y108.422 E0.00852
G1 X120.203 Y108.974 E0.01734
G1 X120.071 Y109.757 E0.02489
G1 X119.964 Y110.105 E0.01144
G1 X119.893 Y110.236 E0.00466
G1 X119.764 Y110.288 E0.00435
G1 X119.343 Y110.385 E0.01355
G1 X114.397 Y111.225 E0.15728
G1 X112.003 Y111.711 E0.07662
G1 X112.003 Y111.787 E0.00238
G1 X110.667 Y111.951 E0.04221
G1 F5760
G1 X110.685 Y111.092 E-0.29742
G1 F5760
G1 X110.835 Y110.089 E-0.35145
G1 F5760
G1 X110.905 Y109.776 E-0.11113
G1 E-0.04000 F2100.00000
G1 X112.381 Y112.019 F7200.000
G1 E0.80000 F2100.00000
G1 F1050
G1 X112.383 Y112.444 E0.01334
G1 X114.779 Y112.924 E0.07662
G1 X115.114 Y113.021 E0.01094
G1 X115.146 Y113.247 E0.00714
G1 X115.137 Y113.423 E0.00553
G1 X114.841 Y114.851 E0.04573
G1 X115.780 Y114.737 E0.02967
G1 X117.928 Y114.325 E0.06858
G1 X118.984 Y114.151 E0.03355
G1 X119.474 Y114.099 E0.01545
G1 X119.797 Y114.094 E0.01013
G1 X119.901 Y114.115 E0.00333
G1 X119.961 Y114.504 E0.01235
G1 X119.969 Y114.765 E0.00819
G1 X119.915 Y115.401 E0.01999
G1 X119.778 Y116.125 E0.02311
G1 X119.694 Y116.435 E0.01008
G1 X119.520 Y116.915 E0.01602
G1 X119.417 Y117.063 E0.00565
G1 X119.302 Y117.111 E0.00390
G1 X118.369 Y117.261 E0.02964
G1 X114.599 Y117.936 E0.12007
G1 X114.281 Y120.971 E0.09566
G1 X116.613 Y120.558 E0.07424
G1 X118.919 Y120.096 E0.07376
G1 X119.398 Y120.092 E0.01500
G1 X119.445 Y120.121 E0.00172
G1 X119.497 Y120.210 E0.00324
G1 X119.532 Y120.321 E0.00365
G1 X119.587 Y120.675 E0.01123
G1 X119.598 Y121.120 E0.01397
G1 X119.560 Y121.619 E0.01568
G1 X119.480 Y122.054 E0.01390
G1 X119.360 Y122.395 E0.01131
G1 X119.210 Y122.641 E0.00904
G1 X119.033 Y122.803 E0.00753
G1 X118.886 Y122.871 E0.00505
G1 X118.166 Y123.034 E0.02315
G1 X114.196 Y123.827 E0.12694
G1 X113.616 Y123.927 E0.01846
G1 X112.928 Y123.993 E0.02167
G1 X112.676 Y123.988 E0.00789
G1 X112.367 Y123.912 E0.00999
G1 X112.055 Y123.759 E0.01090
G1 X111.694 Y123.509 E0.01377
G1 X111.336 Y123.210 E0.01464
G1 X110.929 Y122.781 E0.01854
G1 X110.807 Y122.539 E0.00849
G1 X110.785 Y122.341 E0.00623
G1 X110.793 Y122.020 E0.01007
G1 X111.088 Y118.764 E0.10251
G1 X110.213 Y118.790 E0.02744
G1 X110.011 Y118.773 E0.00635
G1 X109.950 Y118.516 E0.00829
G1 X109.910 Y118.074 E0.01390
G1 X109.913 Y117.600 E0.01485
G1 X109.941 Y117.237 E0.01143
G1 X110.043 Y116.606 E0.02004
G1 X110.175 Y116.173 E0.01419
G1 X110.292 Y116.010 E0.00629
G1 X110.495 Y115.877 E0.00761
G1 X110.800 Y115.777 E0.01006
G1 X111.421 Y115.639 E0.01996
G1 X111.750 Y112.198 E0.10839
G1 X110.314 Y112.374 E0.04534
G1 X110.243 Y112.362 E0.00227
