; generated by Slic3r 1.33.8-prusa3d-win64 on 2017-03-05 at 20:58:43

; external perimeters extrusion width = 0.45mm
; perimeters extrusion width = 0.45mm
; infill extrusion width = 0.45mm
; solid infill extrusion width = 0.45mm
; top infill extrusion width = 0.45mm

M107
M115 U3.0.9 ; tell printer latest fw version
M83  ; extruder relative mode
M104 S215 ; set extruder temp
M140 S55 ; set bed temp
M190 S55 ; wait for bed temp
M109 S215 ; wait for extruder temp
G28 W ; home all without mesh bed level
G80 ; mesh bed leveling
G1 Y-3.0 F1000.0 ; go outside pritn area
G1 X60.0 E9.0  F1000.0 ; intro line
G1 X100.0 E12.5  F1000.0 ; intro line
G21 ; set units to millimeters
G90 ; use absolute coordinates
M83 ; use relative distances for extrusion
G1 E-0.80000 F2100.00000
G1 Z0.200 F7200.000
G1 X99.483 Y82.057 F7200.000
G1 E0.80000 F2100.00000
M204 S1000
G1 F2100
G1 X99.611 Y81.750 E0.01042
G1 X99.746 Y81.507 E0.00871
G1 X99.948 Y81.229 E0.01079
G1 X100.140 Y81.017 E0.00895
G1 X100.398 Y80.796 E0.01066
G1 X100.627 Y80.638 E0.00871
G1 X100.935 Y80.473 E0.01095
G1 X101.222 Y80.362 E0.00967
G1 X101.570 Y80.258 E0.01136
G1 X101.875 Y80.197 E0.00977
G1 X102.485 Y80.139 E0.01921
G1 X103.624 Y80.174 E0.03571
G1 X104.479 Y80.262 E0.02697
G1 X104.944 Y80.331 E0.01473
G1 X118.269 Y83.010 E0.42614
G1 X150.433 Y89.692 E1.03003
G1 X150.998 Y89.843 E0.01833
G1 X151.579 Y90.063 E0.01950
G1 X151.897 Y90.221 E0.01110
G1 X152.216 Y90.413 E0.01170
G1 X152.647 Y90.750 E0.01713
G1 X152.839 Y90.945 E0.00859
G1 X153.089 Y91.254 E0.01246
G1 X153.295 Y91.594 E0.01247
G1 X153.410 Y91.830 E0.00824
G1 X153.537 Y92.190 E0.01197
G1 X153.602 Y92.449 E0.00836
G1 X153.651 Y92.801 E0.01114
G1 X153.665 Y93.174 E0.01170
G1 X153.652 Y93.513 E0.01065
G1 X152.547 Y106.643 E0.41315
G1 X148.992 Y125.119 E0.58993
G1 X148.895 Y125.469 E0.01136
G1 X148.755 Y125.789 E0.01094
G1 X148.588 Y126.070 E0.01026
G1 X148.374 Y126.337 E0.01073
G1 X148.013 Y126.668 E0.01534
G1 X147.681 Y126.889 E0.01253
G1 X147.295 Y127.060 E0.01324
G1 X146.881 Y127.160 E0.01336
G1 X124.982 Y129.844 E0.69177
G1 X124.704 Y129.861 E0.00871
G1 X123.876 Y129.845 E0.02596
G1 X101.840 Y127.170 E0.69600
G1 X101.494 Y127.096 E0.01110
G1 X101.159 Y126.971 E0.01122
G1 X100.850 Y126.798 E0.01110
G1 X100.567 Y126.579 E0.01122
G1 X100.283 Y126.272 E0.01312
G1 X100.058 Y125.924 E0.01300
G1 X99.897 Y125.542 E0.01300
G1 X99.805 Y125.133 E0.01312
G1 X96.408 Y96.126 E0.91573
G1 X96.342 Y95.330 E0.02504
G1 X96.345 Y94.503 E0.02593
G1 X96.378 Y94.136 E0.01154
G1 X96.423 Y93.889 E0.00788
G1 X99.464 Y82.113 E0.38134
G1 F5760
G1 X99.611 Y81.750 E-0.13580
G1 F5760
G1 X99.746 Y81.507 E-0.09625
G1 F5760
G1 X99.948 Y81.229 E-0.11918
G1 F5760
G1 X100.140 Y81.017 E-0.09889
G1 F5760
G1 X100.398 Y80.796 E-0.11777
G1 F5760
G1 X100.627 Y80.638 E-0.09625
G1 F5760
G1 X100.871 Y80.508 E-0.09587
G1 E-0.04000 F2100.00000
G1 X107.078 Y117.494 F7200.000
G1 E0.80000 F2100.00000
G1 F840
G1 X111.393 Y117.494 E0.13528
G1 X111.393 Y119.374 E0.05898
G1 X107.078 Y119.374 E0.13528
G1 X107.078 Y118.831 E0.01705
G1 X106.906 Y119.101 E0.01005
G1 X106.762 Y119.218 E0.00581
G1 X106.605 Y119.308 E0.00567
G1 X106.311 Y119.366 E0.00939
G1 X112.040 Y121.728 E0.19428
G1 X105.641 Y124.348 E0.21682
G1 X105.641 Y122.042 E0.07231
G1 X106.803 Y121.701 E0.03797
G1 X105.641 Y121.325 E0.03830
G1 X105.641 Y119.119 E0.06918
G1 X105.495 Y118.946 E0.00708
G1 X105.406 Y118.788 E0.00569
G1 X105.360 Y118.612 E0.00569
G1 X105.338 Y118.430 E0.00575
G1 X105.360 Y118.248 E0.00575
G1 X105.406 Y118.072 E0.00569
G1 X105.495 Y117.914 E0.00569
G1 X105.606 Y117.770 E0.00571
G1 X105.744 Y117.655 E0.00562
G1 X105.899 Y117.561 E0.00568
G1 X106.086 Y117.509 E0.00608
G1 X106.250 Y117.488 E0.00520
G1 X106.431 Y117.507 E0.00568
G1 X106.605 Y117.553 E0.00565
G1 X106.762 Y117.643 E0.00567
G1 X106.906 Y117.759 E0.00581
G1 X107.078 Y118.029 E0.01005
G1 X107.078 Y117.554 E0.01492
G1 X107.154 Y117.101 F7200.000
G1 F5760
G1 X109.272 Y117.523 E-0.76000
G1 E-0.04000 F2100.00000
G1 X106.028 Y97.772 F7200.000
G1 E0.80000 F2100.00000
G1 F840
G1 X109.185 Y98.284 E0.10028
G1 X109.347 Y97.874 E0.01383
G1 X110.723 Y98.066 E0.04355
G1 X110.928 Y98.960 E0.02876
G1 X111.565 Y99.237 E0.02177
G1 X111.657 Y102.471 E0.10142
G1 X106.025 Y102.468 E0.17656
G1 X106.028 Y97.832 E0.14534
G1 X106.405 Y98.215 F7200.000
G1 F840
G1 X109.220 Y98.671 E0.08941
G1 X109.440 Y98.659 E0.00693
G1 X109.589 Y98.288 E0.01252
G1 X110.413 Y98.403 E0.02609
G1 X110.570 Y99.092 E0.02214
G1 X110.638 Y99.212 E0.00433
G1 X110.766 Y99.311 E0.00509
G1 X111.195 Y99.491 E0.01458
G1 X111.269 Y102.093 E0.08163
G1 X106.403 Y102.091 E0.15257
G1 X106.405 Y98.275 E0.11963
G1 X106.328 Y97.823 F7200.000
G1 F5760
G1 X108.578 Y98.581 E-0.76000
G1 E-0.04000 F2100.00000
G1 X123.019 Y121.961 F7200.000
G1 E0.80000 F2100.00000
G1 F840
G1 X123.505 Y121.706 E0.01721
G1 X124.115 Y121.541 E0.01978
G1 X124.721 Y121.541 E0.01901
G1 X125.299 Y121.684 E0.01868
G1 X125.827 Y121.961 E0.01868
G1 X126.238 Y122.325 E0.01721
G1 X126.608 Y122.836 E0.01978
G1 X126.823 Y123.403 E0.01901
G1 X126.894 Y123.995 E0.01868
G1 X126.823 Y124.586 E0.01868
G1 X126.611 Y125.143 E0.01868
G1 X126.273 Y125.633 E0.01868
G1 X125.827 Y126.028 E0.01868
G1 X125.299 Y126.305 E0.01868
G1 X124.721 Y126.448 E0.01868
G1 X124.125 Y126.448 E0.01868
G1 X123.547 Y126.305 E0.01868
G1 X123.019 Y126.028 E0.01868
G1 X122.573 Y125.633 E0.01868
G1 X122.235 Y125.143 E0.01868
G1 X122.024 Y124.586 E0.01868
G1 X121.958 Y124.041 E0.01721
G1 X122.020 Y123.413 E0.01978
G1 X122.235 Y122.846 E0.01901
G1 X122.573 Y122.356 E0.01868
G1 X122.974 Y122.001 E0.01680
G1 X123.235 Y122.273 F7200.000
G1 F840
G1 X123.644 Y122.059 E0.01447
G1 X124.165 Y121.918 E0.01691
G1 X124.675 Y121.918 E0.01601
G1 X125.165 Y122.039 E0.01581
G1 X125.611 Y122.273 E0.01581
G1 X125.957 Y122.579 E0.01447
G1 X126.273 Y123.017 E0.01691
G1 X126.454 Y123.494 E0.01601
G1 X126.515 Y123.995 E0.01581
G1 X126.454 Y124.495 E0.01581
G1 X126.275 Y124.966 E0.01581
G1 X125.989 Y125.381 E0.01581
G1 X125.611 Y125.716 E0.01581
G1 X125.165 Y125.950 E0.01581
G1 X124.675 Y126.071 E0.01581
G1 X124.171 Y126.071 E0.01581
G1 X123.682 Y125.950 E0.01581
G1 X123.235 Y125.716 E0.01581
G1 X122.858 Y125.381 E0.01581
G1 X122.571 Y124.966 E0.01581
G1 X122.393 Y124.495 E0.01581
G1 X122.337 Y124.037 E0.01447
G1 X122.390 Y123.500 E0.01691
G1 X122.571 Y123.023 E0.01601
G1 X122.858 Y122.608 E0.01581
G1 X123.190 Y122.313 E0.01393
G1 X123.451 Y122.586 F7200.000
G1 F840
G1 X123.782 Y122.412 E0.01173
G1 X124.214 Y122.295 E0.01404
G1 X124.629 Y122.295 E0.01301
G1 X125.030 Y122.394 E0.01294
G1 X125.395 Y122.586 E0.01294
G1 X125.675 Y122.834 E0.01173
G1 X125.938 Y123.197 E0.01404
G1 X126.085 Y123.585 E0.01301
G1 X126.135 Y123.995 E0.01294
G1 X126.085 Y124.404 E0.01294
G1 X125.939 Y124.790 E0.01294
G1 X125.704 Y125.130 E0.01294
G1 X125.395 Y125.403 E0.01294
G1 X125.030 Y125.595 E0.01294
G1 X124.629 Y125.694 E0.01294
G1 X124.217 Y125.694 E0.01294
G1 X123.816 Y125.595 E0.01294
G1 X123.451 Y125.403 E0.01294
G1 X123.142 Y125.130 E0.01294
G1 X122.908 Y124.790 E0.01294
G1 X122.761 Y124.404 E0.01294
G1 X122.716 Y124.033 E0.01173
G1 X122.760 Y123.587 E0.01404
G1 X122.908 Y123.199 E0.01301
G1 X123.142 Y122.860 E0.01294
G1 X123.406 Y122.626 E0.01106
G1 X123.421 Y122.213 F7200.000
G1 F5760
G1 X123.782 Y122.412 E-0.14984
G1 F5760
G1 X124.214 Y122.295 E-0.15510
G1 F5760
G1 X124.629 Y122.295 E-0.14371
G1 F5760
G1 X125.030 Y122.394 E-0.14291
G1 F5760
G1 X125.395 Y122.586 E-0.14291
G1 F5760
G1 X125.451 Y122.635 E-0.02553
G1 E-0.04000 F2100.00000
G1 X115.957 Y115.234 F7200.000
G1 E0.80000 F2100.00000
G1 F1680
G1 X132.889 Y115.234 E0.53088
G1 X133.352 Y116.620 E0.04582
G1 X126.179 Y122.006 E0.28124
G1 X125.281 Y121.611 E0.03075
G1 X124.945 Y121.515 E0.01097
G1 X124.598 Y121.467 E0.01097
G1 X124.248 Y121.467 E0.01097
G1 X123.902 Y121.515 E0.01097
G1 X123.565 Y121.611 E0.01097
G1 X122.667 Y122.006 E0.03075
G1 X115.495 Y116.620 E0.28124
G1 X115.938 Y115.291 E0.04394
G1 X116.229 Y115.611 F7200.000
G1 F840
G1 X132.617 Y115.611 E0.51385
G1 X132.908 Y116.481 E0.02878
G1 X126.129 Y121.572 E0.26580
G1 X125.409 Y121.255 E0.02465
G1 X125.022 Y121.145 E0.01261
G1 X124.624 Y121.090 E0.01261
G1 X124.222 Y121.090 E0.01261
G1 X123.824 Y121.145 E0.01261
G1 X123.437 Y121.255 E0.01261
G1 X122.717 Y121.572 E0.02465
G1 X115.938 Y116.481 E0.26580
G1 X116.210 Y115.668 E0.02690
G1 X116.501 Y115.988 F7200.000
G1 F840
G1 X132.346 Y115.988 E0.49681
G1 X132.464 Y116.343 E0.01174
G1 X126.079 Y121.138 E0.25037
G1 X125.537 Y120.900 E0.01855
G1 X125.100 Y120.776 E0.01425
G1 X124.650 Y120.713 E0.01425
G1 X124.196 Y120.713 E0.01425
G1 X123.746 Y120.776 E0.01425
G1 X123.309 Y120.900 E0.01425
G1 X122.767 Y121.138 E0.01855
G1 X116.382 Y116.343 E0.25037
G1 X116.482 Y116.045 E0.00986
G1 X116.385 Y115.605 F7200.000
G1 F5760
G1 X118.676 Y116.037 E-0.76000
G1 E-0.04000 F2100.00000
G1 X141.239 Y94.637 F7200.000
G1 E0.80000 F2100.00000
G1 F840
G1 X142.935 Y94.453 E0.05348
G1 X144.588 Y100.185 E0.18706
G1 X145.116 Y101.875 E0.05551
G1 X145.777 Y103.723 E0.06154
G1 X143.516 Y104.618 E0.07625
G1 X142.891 Y102.845 E0.05893
G1 X142.535 Y102.846 E0.01117
G1 X142.146 Y104.543 E0.05458
G1 X139.888 Y103.565 E0.07716
G1 X140.438 Y101.082 E0.07975
G1 X140.900 Y98.788 E0.07336
G1 X141.041 Y97.742 E0.03310
G1 X141.235 Y94.696 E0.09568
G1 X141.595 Y94.977 F7200.000
G1 F840
G1 X142.660 Y94.862 E0.03359
G1 X144.227 Y100.294 E0.17725
G1 X144.758 Y101.995 E0.05589
G1 X145.299 Y103.506 E0.05034
G1 X143.741 Y104.123 E0.05253
G1 X143.158 Y102.467 E0.05505
G1 X142.234 Y102.470 E0.02896
G1 X141.880 Y104.017 E0.04975
G1 X140.323 Y103.343 E0.05318
G1 X140.807 Y101.160 E0.07011
G1 X141.272 Y98.851 E0.07386
G1 X141.416 Y97.779 E0.03390
G1 X141.591 Y95.037 E0.08614
G1 X141.951 Y95.318 F7200.000
G1 F840
G1 X142.386 Y95.271 E0.01371
G1 X143.865 Y100.402 E0.16744
G1 X144.401 Y102.115 E0.05626
G1 X144.821 Y103.290 E0.03914
G1 X143.966 Y103.628 E0.02882
G1 X143.424 Y102.089 E0.05117
G1 X141.933 Y102.094 E0.04675
G1 X141.613 Y103.491 E0.04491
G1 X140.759 Y103.121 E0.02920
G1 X141.176 Y101.238 E0.06046
G1 X141.644 Y98.913 E0.07436
G1 X141.792 Y97.816 E0.03470
G1 X141.947 Y95.378 E0.07661
G1 X141.934 Y94.918 F7200.000
G1 F5760
G1 X142.386 Y95.271 E-0.15630
G1 F5760
G1 X142.869 Y96.946 E-0.60370
G1 E-0.04000 F2100.00000
G1 X113.889 Y92.940 F7200.000
G1 E0.80000 F2100.00000
G1 F1680
G1 X114.329 Y95.062 E0.06796
G1 X112.410 Y95.446 E0.06139
G1 X112.120 Y92.408 E0.09569
G1 X110.999 Y92.160 E0.03600
G1 X110.847 Y92.110 E0.00501
G1 X110.779 Y91.888 E0.00730
G1 X110.690 Y91.339 E0.01741
G1 X110.665 Y90.643 E0.02185
G1 X111.915 Y90.680 E0.03923
G1 X111.540 Y86.501 E0.13156
G1 X111.545 Y86.327 E0.00547
G1 X111.703 Y86.149 E0.00749
G1 X112.159 Y85.751 E0.01897
G1 X112.547 Y85.497 E0.01453
G1 X112.776 Y85.429 E0.00747
G1 X112.914 Y85.426 E0.00434
G1 X113.190 Y85.445 E0.00869
G1 X113.848 Y85.540 E0.02082
G1 X117.344 Y86.231 E0.11176
G1 X118.636 Y86.522 E0.04152
G1 X118.712 Y86.684 E0.00561
G1 X118.785 Y86.969 E0.00922
G1 X118.843 Y87.565 E0.01877
G1 X118.838 Y87.784 E0.00688
G1 X116.756 Y87.367 E0.06657
G1 X113.427 Y86.777 E0.10601
G1 X113.909 Y91.371 E0.14483
G1 X118.917 Y92.256 E0.15947
G1 X119.224 Y92.959 E0.02404
G1 X122.369 Y92.036 E0.10275
G1 X122.409 Y91.042 E0.03120
G1 X123.556 Y91.072 E0.03595
G1 X122.711 Y87.871 E0.10382
G1 X122.983 Y87.809 E0.00876
G1 X123.582 Y87.750 E0.01887
G1 X124.296 Y87.754 E0.02238
G1 X124.458 Y87.773 E0.00513
G1 X124.546 Y87.994 E0.00744
G1 X124.686 Y88.472 E0.01563
G1 X125.503 Y91.847 E0.10888
G1 X127.656 Y92.310 E0.06904
G1 X127.786 Y92.606 E0.01014
G1 X128.209 Y93.928 E0.04351
G1 X125.814 Y93.478 E0.07641
G1 X126.892 Y97.328 E0.12536
G1 X127.910 Y101.486 E0.13421
G1 X129.631 Y101.352 E0.05413
G1 X130.159 Y94.819 E0.20551
G1 X130.177 Y94.817 E0.00057
G1 X130.689 Y90.243 E0.14429
G1 X130.842 Y89.120 E0.03554
G1 X131.122 Y89.126 E0.00878
G1 X131.761 Y89.215 E0.02023
G1 X132.277 Y89.339 E0.01664
G1 X132.494 Y89.419 E0.00725
G1 X132.445 Y89.700 E0.00893
G1 X132.414 Y90.940 E0.03891
G1 X131.928 Y93.998 E0.09708
G1 X135.314 Y94.918 E0.11001
G1 X134.940 Y92.000 E0.09223
G1 X134.854 Y90.918 E0.03403
G1 X134.849 Y90.214 E0.02208
G1 X135.143 Y90.203 E0.00922
G1 X135.786 Y90.219 E0.02016
G1 X136.095 Y90.247 E0.00973
G1 X136.448 Y90.308 E0.01122
G1 X136.517 Y90.579 E0.00878
G1 X137.632 Y100.821 E0.32303
G1 X139.417 Y100.852 E0.05598
G1 X140.268 Y95.049 E0.18389
G1 X140.898 Y91.507 E0.11281
G1 X141.376 Y91.434 E0.01516
G1 X141.618 Y91.430 E0.00759
G1 X142.137 Y91.481 E0.01636
G1 X142.569 Y91.580 E0.01389
G1 X142.818 Y91.681 E0.00841
G1 X142.915 Y91.868 E0.00663
G1 X143.166 Y92.522 E0.02194
G1 X146.771 Y102.724 E0.33929
G1 X148.516 Y102.346 E0.05597
G1 X148.247 Y99.186 E0.09944
G1 X148.197 Y97.340 E0.05792
G1 X148.278 Y92.839 E0.14113
G1 X148.458 Y92.827 E0.00564
G1 X149.093 Y92.852 E0.01993
G1 X149.384 Y92.891 E0.00922
G1 X149.993 Y93.031 E0.01957
G1 X150.312 Y93.165 E0.01087
G1 X150.317 Y93.289 E0.00390
G1 X149.224 Y106.256 E0.40799
G1 X148.801 Y106.319 E0.01342
G1 X147.787 Y106.326 E0.03179
G1 X147.579 Y106.314 E0.00653
G1 X147.007 Y106.224 E0.01815
G1 X146.852 Y106.104 E0.00614
G1 X146.748 Y105.972 E0.00528
G1 X146.135 Y104.969 E0.03686
G1 X143.984 Y106.109 E0.07631
G1 X144.777 Y107.395 E0.04739
G1 X145.110 Y107.805 E0.01656
G1 X145.373 Y108.048 E0.01120
G1 X145.717 Y108.287 E0.01314
G1 X145.723 Y123.845 E0.48781
G1 X135.778 Y123.841 E0.31180
G1 X135.769 Y116.144 E0.24133
G1 X126.827 Y122.860 E0.35065
G1 X126.953 Y123.875 E0.03209
G1 X126.942 Y124.265 E0.01223
G1 X126.870 Y124.648 E0.01223
G1 X126.741 Y125.016 E0.01223
G1 X126.557 Y125.360 E0.01223
G1 X126.322 Y125.671 E0.01223
G1 X126.042 Y125.943 E0.01223
G1 X125.724 Y126.168 E0.01223
G1 X125.375 Y126.342 E0.01223
G1 X125.003 Y126.460 E0.01223
G1 X124.618 Y126.520 E0.01223
G1 X124.228 Y126.520 E0.01223
G1 X123.843 Y126.460 E0.01223
G1 X123.471 Y126.342 E0.01223
G1 X123.122 Y126.168 E0.01223
G1 X122.843 Y125.970 E0.01075
G1 X122.520 Y125.666 E0.01390
G1 X122.290 Y125.360 E0.01201
G1 X122.105 Y125.016 E0.01223
G1 X121.976 Y124.648 E0.01223
G1 X121.913 Y124.311 E0.01075
G1 X121.894 Y123.869 E0.01390
G1 X122.020 Y122.860 E0.03187
G1 X113.066 Y116.136 E0.35109
G1 X113.055 Y121.331 E0.16288
G1 X110.140 Y120.129 E0.09887
G1 X112.147 Y120.129 E0.06291
G1 X112.137 Y111.338 E0.27561
G1 X112.185 Y111.055 E0.00901
G1 X112.236 Y109.583 E0.04618
G1 X111.799 Y109.583 E0.01369
G1 X111.932 Y109.377 E0.00770
G1 X112.113 Y108.880 E0.01660
G1 X112.235 Y108.044 E0.02648
G1 X112.116 Y107.223 E0.02600
G1 X112.007 Y106.892 E0.01093
G1 X111.852 Y106.579 E0.01094
G1 X111.684 Y106.351 E0.00888
G1 X112.147 Y106.351 E0.01450
G1 X112.147 Y102.967 E0.10612
G1 X109.963 Y102.956 E0.06846
G1 X110.007 Y102.847 E0.00368
G1 X112.045 Y102.848 E0.06387
G1 X111.935 Y98.984 E0.12121
G1 X111.253 Y98.698 E0.02317
G1 X111.033 Y97.728 E0.03117
G1 X109.106 Y97.459 E0.06101
G1 X108.946 Y97.863 E0.01362
G1 X105.651 Y97.329 E0.10466
G1 X105.648 Y102.845 E0.17293
G1 X106.319 Y102.845 E0.02105
G1 X106.237 Y103.697 E0.02683
G1 X106.288 Y104.208 E0.01612
G1 X106.421 Y104.732 E0.01694
G1 X106.692 Y105.205 E0.01709
G1 X107.050 Y105.645 E0.01780
G1 X107.260 Y105.787 E0.00795
G1 X107.106 Y105.909 E0.00616
G1 X106.622 Y106.552 E0.02525
G1 X106.465 Y106.862 E0.01088
G1 X106.353 Y107.191 E0.01090
G1 X106.232 Y108.001 E0.02566
G1 X106.343 Y108.829 E0.02620
G1 X106.448 Y109.162 E0.01095
G1 X106.598 Y109.480 E0.01103
G1 X106.691 Y109.610 E0.00502
G1 X106.379 Y109.610 E0.00980
G1 X106.379 Y110.267 E0.02058
G1 X104.886 Y110.267 E0.04679
G1 X104.886 Y113.656 E0.10627
G1 X106.324 Y113.656 E0.04507
G1 X106.324 Y114.419 E0.02393
G1 X104.886 Y114.419 E0.04507
G1 X104.886 Y117.469 E0.09562
G1 X104.702 Y117.786 E0.01149
G1 X104.617 Y118.106 E0.01040
G1 X104.579 Y118.430 E0.01022
G1 X104.617 Y118.754 E0.01022
G1 X104.702 Y119.074 E0.01040
G1 X104.886 Y119.391 E0.01149
G1 X104.886 Y123.850 E0.13980
G1 X103.125 Y123.850 E0.05524
G1 X103.125 Y102.843 E0.65866
G1 X103.732 Y102.844 E0.01904
G1 X103.735 Y96.997 E0.18331
G1 X100.003 Y96.332 E0.11887
