; generated by Slic3r 1.33.8-prusa3d-win64 on 2017-03-31 at 09:55:47

; external perimeters extrusion width = 0.45mm
; perimeters extrusion width = 0.45mm
; infill extrusion width = 0.45mm
; solid infill extrusion width = 0.45mm
; top infill extrusion width = 0.45mm

M107
M115 U3.0.10 ; tell printer latest fw version
M83  ; extruder relative mode
M104 S215 ; set extruder temp
M140 S55 ; set bed temp
M190 S55 ; wait for bed temp
M109 S215 ; wait for extruder temp
G28 W ; home all without mesh bed level
G80 ; mesh bed leveling
G1 Y-3.0 F1000.0 ; go outside pritn area
G1 X60.0 E9.0  F1000.0 ; intro line
G1 X100.0 E12.5  F1000.0 ; intro line
G21 ; set units to millimeters
G90 ; use absolute coordinates
M83 ; use relative distances for extrusion
G1 E-0.80000 F2100.00000
G1 Z0.200 F7200.000
G1 X99.483 Y83.391 F7200.000
G1 E0.80000 F2100.00000
M204 S1000
G1 F2100
G1 X99.611 Y83.085 E0.01042
G1 X99.746 Y82.842 E0.00871
G1 X99.948 Y82.563 E0.01079
G1 X100.140 Y82.352 E0.00895
G1 X100.398 Y82.131 E0.01066
G1 X100.627 Y81.973 E0.00871
G1 X100.935 Y81.808 E0.01095
G1 X101.222 Y81.696 E0.00967
G1 X101.570 Y81.593 E0.01136
G1 X101.875 Y81.532 E0.00977
G1 X102.485 Y81.474 E0.01921
G1 X103.624 Y81.509 E0.03571
G1 X104.479 Y81.597 E0.02697
G1 X104.944 Y81.666 E0.01473
G1 X118.269 Y84.345 E0.42614
G1 X150.433 Y91.026 E1.03003
G1 X150.998 Y91.178 E0.01833
G1 X151.579 Y91.398 E0.01950
G1 X151.897 Y91.556 E0.01110
G1 X152.216 Y91.748 E0.01170
G1 X152.647 Y92.085 E0.01713
G1 X152.839 Y92.280 E0.00859
G1 X153.089 Y92.589 E0.01246
G1 X153.295 Y92.929 E0.01247
G1 X153.410 Y93.165 E0.00824
G1 X153.537 Y93.525 E0.01197
G1 X153.602 Y93.784 E0.00836
G1 X153.651 Y94.136 E0.01114
G1 X153.665 Y94.508 E0.01170
G1 X153.652 Y94.848 E0.01065
G1 X152.547 Y107.978 E0.41315
G1 X148.992 Y126.454 E0.58993
G1 X148.895 Y126.803 E0.01136
G1 X148.755 Y127.123 E0.01094
G1 X148.588 Y127.404 E0.01026
G1 X148.374 Y127.672 E0.01073
G1 X148.196 Y127.849 E0.00788
G1 X147.953 Y128.049 E0.00986
G1 X147.750 Y128.184 E0.00764
G1 X147.532 Y128.300 E0.00776
G1 X147.295 Y128.395 E0.00800
G1 X147.049 Y128.463 E0.00800
G1 X146.798 Y128.505 E0.00800
G1 X146.543 Y128.520 E0.00800
G1 X102.130 Y128.526 E1.39253
G1 X101.706 Y128.483 E0.01336
G1 X101.294 Y128.363 E0.01348
G1 X100.909 Y128.170 E0.01348
G1 X100.566 Y127.912 E0.01348
G1 X100.284 Y127.608 E0.01300
G1 X100.059 Y127.260 E0.01300
G1 X99.898 Y126.878 E0.01300
G1 X99.805 Y126.470 E0.01312
G1 X96.408 Y97.461 E0.91577
G1 X96.342 Y96.661 E0.02515
G1 X96.345 Y95.838 E0.02581
G1 X96.378 Y95.471 E0.01154
G1 X96.423 Y95.224 E0.00788
G1 X99.464 Y83.448 E0.38134
G1 F5760
G1 X99.611 Y83.085 E-0.13580
G1 F5760
G1 X99.746 Y82.842 E-0.09625
G1 F5760
G1 X99.948 Y82.563 E-0.11918
G1 F5760
G1 X100.140 Y82.352 E-0.09889
G1 F5760
G1 X100.398 Y82.131 E-0.11777
G1 F5760
G1 X100.627 Y81.973 E-0.09625
G1 F5760
G1 X100.871 Y81.842 E-0.09587
G1 E-0.04000 F2100.00000
G1 X119.983 Y95.331 F7200.000
G1 E0.80000 F2100.00000
G1 F1050
G1 X122.012 Y94.448 E0.06938
G1 X122.188 Y94.664 E0.00875
G1 X122.362 Y94.772 E0.00642
G1 X122.812 Y94.916 E0.01483
G1 X123.660 Y95.106 E0.02724
G1 X126.464 Y103.228 E0.26940
G1 X126.714 Y103.755 E0.01827
G1 X126.846 Y103.930 E0.00687
G1 X127.022 Y104.050 E0.00668
G1 X127.135 Y104.100 E0.00390
G1 X127.473 Y104.198 E0.01103
G1 X128.250 Y104.305 E0.02457
G1 X130.006 Y104.308 E0.05507
G1 X130.306 Y104.266 E0.00951
G1 X130.457 Y104.221 E0.00493
G1 X130.636 Y104.119 E0.00646
G1 X130.713 Y104.017 E0.00399
G1 X130.899 Y103.612 E0.01399
G1 X130.996 Y103.292 E0.01048
G1 X132.296 Y97.402 E0.18913
G1 X134.820 Y98.005 E0.08140
G1 X135.775 Y103.573 E0.17711
G1 X135.032 Y103.557 E0.02332
G1 X135.048 Y113.285 E0.30501
G1 X113.854 Y113.273 E0.66452
G1 X113.832 Y103.430 E0.30865
G1 X113.298 Y103.429 E0.01674
G1 X113.298 Y101.296 E0.06687
G1 X119.834 Y102.440 E0.20803
G1 X120.058 Y102.472 E0.00711
G1 X120.423 Y102.486 E0.01146
G1 X120.505 Y102.464 E0.00267
G1 X120.567 Y102.317 E0.00498
G1 X120.615 Y101.871 E0.01409
G1 X120.616 Y101.567 E0.00954
G1 X120.578 Y100.982 E0.01835
G1 X120.439 Y100.156 E0.02627
G1 X120.313 Y99.748 E0.01341
G1 X120.191 Y99.523 E0.00802
G1 X120.151 Y99.483 E0.00178
G1 X119.956 Y99.379 E0.00692
G1 X119.620 Y99.286 E0.01095
G1 X119.144 Y99.195 E0.01519
G1 X114.312 Y98.375 E0.15366
G1 X112.381 Y97.981 E0.06179
G1 X112.383 Y97.556 E0.01333
G1 X114.779 Y97.076 E0.07662
G1 X115.114 Y96.979 E0.01094
G1 X115.146 Y96.753 E0.00714
G1 X115.137 Y96.577 E0.00553
G1 X114.841 Y95.149 E0.04573
G1 X115.780 Y95.263 E0.02966
G1 X118.679 Y95.804 E0.09247
G1 X119.249 Y95.881 E0.01804
G1 X119.658 Y95.909 E0.01285
G1 X119.898 Y95.889 E0.00755
G1 X119.974 Y95.390 E0.01583
G1 X119.942 Y94.933 F7200.000
G1 F5760
G1 X121.966 Y94.469 E-0.76000
G1 E-0.04000 F2100.00000
G1 X126.869 Y95.778 F7200.000
G1 E0.80000 F2100.00000
G1 F840
G1 X129.395 Y96.252 E0.08058
G1 X128.931 Y101.985 E0.18031
G1 X128.490 Y102.019 E0.01387
G1 X127.622 Y98.472 E0.11451
G1 X126.885 Y95.836 E0.08581
G1 X126.884 Y95.378 F7200.000
G1 F5760
G1 X129.050 Y96.195 E-0.76000
G1 E-0.04000 F2100.00000
G1 X141.239 Y95.971 F7200.000
G1 E0.80000 F2100.00000
G1 F840
G1 X142.935 Y95.788 E0.05348
G1 X144.588 Y101.520 E0.18706
G1 X145.116 Y103.210 E0.05551
G1 X145.777 Y105.058 E0.06154
G1 X143.516 Y105.952 E0.07625
G1 X142.891 Y104.180 E0.05893
G1 X142.535 Y104.181 E0.01117
G1 X142.146 Y105.878 E0.05458
G1 X139.888 Y104.900 E0.07716
G1 X140.438 Y102.417 E0.07975
G1 X140.900 Y100.123 E0.07336
G1 X141.041 Y99.076 E0.03310
G1 X141.235 Y96.031 E0.09568
G1 X141.595 Y96.312 F7200.000
G1 F840
G1 X142.660 Y96.197 E0.03359
G1 X144.227 Y101.628 E0.17725
G1 X144.758 Y103.329 E0.05589
G1 X145.299 Y104.841 E0.05034
G1 X143.741 Y105.458 E0.05253
G1 X143.158 Y103.802 E0.05505
G1 X142.234 Y103.805 E0.02896
G1 X141.880 Y105.352 E0.04975
G1 X140.323 Y104.678 E0.05318
G1 X140.807 Y102.495 E0.07011
G1 X141.272 Y100.185 E0.07386
G1 X141.416 Y99.114 E0.03390
G1 X141.591 Y96.372 E0.08614
G1 X141.951 Y96.653 F7200.000
G1 F840
G1 X142.386 Y96.606 E0.01371
G1 X143.865 Y101.737 E0.16744
G1 X144.401 Y103.449 E0.05626
G1 X144.821 Y104.625 E0.03914
G1 X143.966 Y104.963 E0.02882
G1 X143.424 Y103.424 E0.05117
G1 X141.933 Y103.429 E0.04675
G1 X141.613 Y104.825 E0.04491
G1 X140.759 Y104.455 E0.02920
G1 X141.176 Y102.573 E0.06046
G1 X141.644 Y100.248 E0.07436
G1 X141.792 Y99.151 E0.03470
G1 X141.947 Y96.713 E0.07661
G1 X141.934 Y96.253 F7200.000
G1 F5760
G1 X142.386 Y96.606 E-0.15630
G1 F5760
G1 X142.869 Y98.280 E-0.60370
G1 E-0.04000 F2100.00000
G1 X105.651 Y98.664 F7200.000
G1 E0.80000 F2100.00000
G1 F840
G1 X108.946 Y99.198 E0.10466
G1 X109.106 Y98.794 E0.01362
G1 X111.033 Y99.063 E0.06101
G1 X111.253 Y100.032 E0.03117
G1 X111.935 Y100.318 E0.02317
G1 X112.045 Y104.183 E0.12121
G1 X105.648 Y104.179 E0.20056
G1 X105.651 Y98.724 E0.17105
G1 X106.028 Y99.107 F7200.000
G1 F840
G1 X109.185 Y99.618 E0.10028
G1 X109.347 Y99.208 E0.01383
G1 X110.723 Y99.400 E0.04355
G1 X110.928 Y100.295 E0.02876
G1 X111.565 Y100.572 E0.02177
G1 X111.657 Y103.805 E0.10142
G1 X106.025 Y103.802 E0.17656
G1 X106.028 Y99.167 E0.14534
G1 X106.405 Y99.550 F7200.000
G1 F840
G1 X109.220 Y100.006 E0.08941
G1 X109.440 Y99.993 E0.00693
G1 X109.589 Y99.623 E0.01252
G1 X110.413 Y99.738 E0.02609
G1 X110.570 Y100.427 E0.02214
G1 X110.638 Y100.547 E0.00433
G1 X110.766 Y100.646 E0.00509
G1 X111.195 Y100.826 E0.01458
G1 X111.269 Y103.428 E0.08163
G1 X106.403 Y103.426 E0.15257
G1 X106.405 Y99.610 E0.11963
G1 X106.328 Y99.157 F7200.000
G1 F5760
G1 X108.578 Y99.916 E-0.76000
G1 E-0.04000 F2100.00000
G1 X113.889 Y94.274 F7200.000
G1 E0.80000 F2100.00000
G1 F1680
G1 X114.329 Y96.397 E0.06796
G1 X112.410 Y96.781 E0.06139
G1 X112.120 Y93.743 E0.09569
G1 X110.999 Y93.495 E0.03600
G1 X110.847 Y93.445 E0.00501
G1 X110.779 Y93.222 E0.00730
G1 X110.690 Y92.674 E0.01741
G1 X110.665 Y91.978 E0.02185
G1 X111.915 Y92.015 E0.03923
G1 X111.540 Y87.836 E0.13156
G1 X111.545 Y87.662 E0.00547
G1 X111.703 Y87.483 E0.00749
G1 X112.159 Y87.086 E0.01897
G1 X112.547 Y86.831 E0.01453
G1 X112.776 Y86.764 E0.00747
G1 X112.914 Y86.761 E0.00434
G1 X113.190 Y86.780 E0.00869
G1 X113.848 Y86.875 E0.02082
G1 X117.344 Y87.566 E0.11176
G1 X118.636 Y87.856 E0.04152
G1 X118.712 Y88.019 E0.00561
G1 X118.785 Y88.303 E0.00922
G1 X118.843 Y88.899 E0.01877
G1 X118.838 Y89.119 E0.00688
G1 X116.756 Y88.702 E0.06657
G1 X113.427 Y88.112 E0.10601
G1 X113.909 Y92.706 E0.14483
G1 X118.917 Y93.591 E0.15947
G1 X119.224 Y94.293 E0.02404
G1 X122.369 Y93.371 E0.10275
G1 X122.409 Y92.377 E0.03120
G1 X123.556 Y92.407 E0.03595
G1 X122.711 Y89.206 E0.10382
G1 X122.983 Y89.144 E0.00876
G1 X123.582 Y89.085 E0.01887
G1 X124.296 Y89.089 E0.02238
G1 X124.458 Y89.108 E0.00513
G1 X124.546 Y89.329 E0.00744
G1 X124.686 Y89.807 E0.01563
G1 X125.503 Y93.182 E0.10888
G1 X127.656 Y93.645 E0.06904
G1 X127.786 Y93.941 E0.01014
G1 X128.209 Y95.262 E0.04351
G1 X125.814 Y94.812 E0.07641
G1 X126.892 Y98.663 E0.12536
G1 X127.910 Y102.821 E0.13421
G1 X129.631 Y102.687 E0.05413
G1 X130.159 Y96.153 E0.20551
G1 X130.177 Y96.152 E0.00057
G1 X130.689 Y91.578 E0.14429
G1 X130.842 Y90.455 E0.03554
G1 X131.122 Y90.461 E0.00878
G1 X131.761 Y90.549 E0.02023
G1 X132.277 Y90.674 E0.01664
G1 X132.494 Y90.754 E0.00725
G1 X132.445 Y91.034 E0.00893
G1 X132.414 Y92.275 E0.03891
G1 X131.928 Y95.333 E0.09708
G1 X135.314 Y96.252 E0.11001
G1 X134.940 Y93.335 E0.09223
G1 X134.854 Y92.253 E0.03403
G1 X134.849 Y91.548 E0.02208
G1 X135.143 Y91.537 E0.00922
G1 X135.786 Y91.554 E0.02016
G1 X136.095 Y91.581 E0.00973
G1 X136.448 Y91.642 E0.01122
G1 X136.517 Y91.914 E0.00878
G1 X137.632 Y102.156 E0.32303
G1 X139.417 Y102.187 E0.05598
G1 X140.268 Y96.384 E0.18389
G1 X140.898 Y92.842 E0.11281
G1 X141.376 Y92.769 E0.01516
G1 X141.633 Y92.765 E0.00806
G1 X141.871 Y92.781 E0.00749
G1 X142.369 Y92.861 E0.01580
G1 X142.813 Y93.007 E0.01467
G1 X142.915 Y93.203 E0.00694
G1 X143.166 Y93.856 E0.02194
G1 X146.771 Y104.059 E0.33929
G1 X148.516 Y103.681 E0.05597
G1 X148.247 Y100.521 E0.09944
G1 X148.197 Y98.674 E0.05792
G1 X148.278 Y94.174 E0.14113
G1 X148.458 Y94.162 E0.00564
G1 X149.093 Y94.186 E0.01993
G1 X149.384 Y94.225 E0.00922
G1 X149.993 Y94.366 E0.01957
G1 X150.312 Y94.500 E0.01087
G1 X150.317 Y94.624 E0.00390
G1 X149.224 Y107.590 E0.40799
G1 X148.801 Y107.654 E0.01342
G1 X147.787 Y107.661 E0.03179
G1 X147.579 Y107.649 E0.00653
G1 X147.007 Y107.558 E0.01815
G1 X146.852 Y107.439 E0.00614
G1 X146.748 Y107.306 E0.00528
G1 X146.135 Y106.303 E0.03686
G1 X143.984 Y107.443 E0.07631
G1 X144.777 Y108.730 E0.04739
G1 X145.110 Y109.140 E0.01656
G1 X145.373 Y109.383 E0.01120
G1 X145.717 Y109.621 E0.01315
G1 X145.723 Y125.179 E0.48781
G1 X135.778 Y125.176 E0.31180
G1 X135.769 Y116.568 E0.26987
G1 X125.453 Y116.568 E0.32346
G1 X125.453 Y118.250 E0.05273
G1 X123.381 Y118.250 E0.06496
G1 X123.381 Y116.568 E0.05273
G1 X113.066 Y116.568 E0.32342
G1 X113.050 Y125.182 E0.27009
G1 X103.125 Y125.185 E0.31121
G1 X103.125 Y104.178 E0.65866
G1 X103.732 Y104.178 E0.01904
G1 X103.735 Y98.332 E0.18331
G1 X100.003 Y97.667 E0.11887
G1 X99.841 Y97.620 E0.00529
G1 X99.796 Y97.476 E0.00471
G1 X99.697 Y96.800 E0.02143
G1 X99.677 Y96.270 E0.01662
G1 X99.678 Y96.225 E0.00142
G1 X99.809 Y96.247 E0.00416
G1 X104.016 Y97.109 E0.13464
G1 X104.336 Y94.706 E0.07600
G1 X103.890 Y94.749 E0.01406
G1 X102.809 Y85.984 E0.27689
G1 X102.688 Y84.817 E0.03678
G1 X103.367 Y84.840 E0.02132
G1 X104.060 Y84.912 E0.02185
G1 X104.709 Y85.030 E0.02068
G1 X104.746 Y85.242 E0.00674
G1 X105.227 Y90.552 E0.16716
G1 X105.542 Y93.570 E0.09516
G1 X105.665 Y94.489 E0.02906
G1 X105.670 Y94.640 E0.00473
G1 X105.303 Y94.798 E0.01254
G1 X105.728 Y97.468 E0.08477
G1 X108.058 Y97.827 E0.07390
G1 X108.580 Y97.925 E0.01667
G1 X108.705 Y98.506 E0.01863
G1 X110.862 Y98.817 E0.06835
G1 X110.904 Y98.453 E0.01149
G1 X111.624 Y98.549 E0.02277
G1 X111.624 Y98.596 E0.00147
G1 X114.173 Y99.116 E0.08159
G1 X119.010 Y99.937 E0.15380
G1 X119.623 Y100.069 E0.01968
G1 X119.703 Y100.330 E0.00857
G1 X119.828 Y101.070 E0.02352
G1 X119.861 Y101.680 E0.01915
G1 X112.544 Y100.399 E0.23292
G1 X112.544 Y104.183 E0.11865
G1 X113.079 Y104.183 E0.01679
G1 X113.101 Y114.027 E0.30865
G1 X135.802 Y114.039 E0.71176
G1 X135.793 Y104.327 E0.30452
G1 X136.673 Y104.346 E0.02760
G1 X135.480 Y97.387 E0.22137
G1 X131.724 Y96.490 E0.12106
G1 X130.266 Y103.101 E0.21228
G1 X130.121 Y103.522 E0.01395
G1 X129.954 Y103.554 E0.00534
G1 X128.288 Y103.551 E0.05225
G1 X128.025 Y103.525 E0.00830
G1 X127.640 Y103.461 E0.01222
G1 X127.389 Y103.388 E0.00820
G1 X127.163 Y102.943 E0.01565
G1 X124.236 Y94.462 E0.28129
G1 X123.011 Y94.188 E0.03936
G1 X122.689 Y94.084 E0.01060
G1 X122.236 Y93.528 E0.02251
G1 X119.300 Y94.805 E0.10037
G1 X119.252 Y95.121 E0.01000
G1 X118.799 Y95.060 E0.01435
G1 X115.894 Y94.517 E0.09264
G1 X113.949 Y94.282 E0.06145
G1 F5760
G1 X114.329 Y96.397 E-0.74440
G1 F5760
G1 X114.285 Y96.406 E-0.01560
G1 E-0.04000 F2100.00000
G1 X105.721 Y95.028 F7200.000
G1 E0.80000 F2100.00000
G1 F1680
G1 X106.057 Y97.137 E0.06696
G1 X108.121 Y97.455 E0.06548
G1 X108.859 Y97.593 E0.02354
G1 X108.922 Y97.721 E0.00447
G1 X109.018 Y98.170 E0.01439
G1 X110.532 Y98.389 E0.04796
G1 X110.574 Y98.029 E0.01136
G1 X112.003 Y98.219 E0.04521
G1 X112.003 Y98.288 E0.00217
G1 X114.243 Y98.746 E0.07169
G1 X119.534 Y99.653 E0.16832
G1 X119.816 Y99.731 E0.00917
G1 X119.899 Y99.776 E0.00297
G1 X119.964 Y99.895 E0.00424
G1 X120.071 Y100.243 E0.01144
G1 X120.203 Y101.026 E0.02489
G1 X120.239 Y101.578 E0.01734
G1 X120.238 Y101.850 E0.00852
G1 X120.211 Y102.101 E0.00791
G1 X119.892 Y102.068 E0.01004
G1 X112.921 Y100.848 E0.22190
G1 X112.921 Y103.806 E0.09276
G1 X113.456 Y103.806 E0.01676
G1 X113.478 Y113.650 E0.30865
G1 X135.425 Y113.662 E0.68814
G1 X135.412 Y103.942 E0.30477
G1 X136.224 Y103.959 E0.02546
G1 X135.150 Y97.696 E0.19924
G1 X132.010 Y96.946 E0.10123
G1 X130.631 Y103.197 E0.20070
G1 X130.543 Y103.486 E0.00949
G1 X130.393 Y103.814 E0.01131
G1 X130.370 Y103.845 E0.00121
G1 X130.225 Y103.897 E0.00483
G1 X129.980 Y103.931 E0.00775
G1 X128.269 Y103.928 E0.05366
G1 X127.557 Y103.829 E0.02254
G1 X127.264 Y103.745 E0.00955
G1 X127.110 Y103.653 E0.00563
G1 X127.038 Y103.559 E0.00372
G1 X126.814 Y103.085 E0.01642
G1 X123.948 Y94.784 E0.27534
G1 X122.912 Y94.552 E0.03330
G1 X122.506 Y94.422 E0.01335
G1 X122.454 Y94.394 E0.00185
G1 X122.124 Y93.988 E0.01642
G1 X119.642 Y95.068 E0.08487
G1 X119.572 Y95.526 E0.01451
G1 X118.739 Y95.432 E0.02629
G1 X115.837 Y94.890 E0.09255
G1 X114.365 Y94.712 E0.04649
G1 X114.765 Y96.691 E0.06332
G1 X112.074 Y97.233 E0.08608
G1 X111.771 Y94.052 E0.10019
G1 X110.900 Y93.859 E0.02798
G1 X110.660 Y93.781 E0.00790
G1 X110.540 Y93.701 E0.00451
G1 X110.411 Y93.308 E0.01298
G1 X110.315 Y92.719 E0.01873
G1 X110.290 Y92.384 E0.01051
G1 X110.287 Y91.942 E0.01387
G1 X110.319 Y91.590 E0.01108
G1 X111.502 Y91.625 E0.03708
G1 X111.162 Y87.848 E0.11893
G1 X111.170 Y87.572 E0.00864
G1 X111.231 Y87.446 E0.00439
G1 X111.438 Y87.215 E0.00973
G1 X111.928 Y86.788 E0.02038
G1 X112.253 Y86.562 E0.01242
G1 X112.487 Y86.447 E0.00818
G1 X112.726 Y86.388 E0.00771
G1 X112.923 Y86.384 E0.00617
G1 X113.230 Y86.404 E0.00967
G1 X113.911 Y86.503 E0.02158
G1 X117.421 Y87.197 E0.11217
G1 X118.767 Y87.489 E0.04317
G1 X118.821 Y87.515 E0.00190
G1 X118.958 Y87.653 E0.00608
G1 X119.068 Y87.891 E0.00822
G1 X119.155 Y88.227 E0.01089
G1 X119.221 Y88.890 E0.02088
G1 X119.211 Y89.292 E0.01260
G1 X119.173 Y89.536 E0.00776
G1 X118.964 Y89.528 E0.00656
G1 X116.686 Y89.072 E0.07283
G1 X113.854 Y88.571 E0.09018
G1 X114.254 Y92.385 E0.12025
G1 X118.306 Y93.111 E0.12906
