; generated by PrusaSlicer 2.2.0+win64 on 2020-11-26 at 07:45:05 UTC

; 

; external perimeters extrusion width = 0.45mm
; perimeters extrusion width = 0.45mm
; infill extrusion width = 0.45mm
; solid infill extrusion width = 0.45mm
; top infill extrusion width = 0.40mm
; first layer extrusion width = 0.42mm

M73 P0 R133
M201 X9000 Y9000 Z500 E10000 ; sets maximum accelerations, mm/sec^2
M203 X500 Y500 Z12 E120 ; sets maximum feedrates, mm/sec
M204 P2000 R1500 T2000 ; sets acceleration (P, T) and retract acceleration (R), mm/sec^2
M205 X10.00 Y10.00 Z0.20 E2.50 ; sets the jerk limits, mm/sec
M205 S0 T0 ; sets the minimum extruding and travel feed rate, mm/sec
M107
M862.3 P "MK2S" ; printer model check
M862.1 P0.4 ; nozzle diameter check
M115 U3.2.3 ; tell printer latest fw version
G90 ; use absolute coordinates
M83 ; extruder relative mode
M204 S2000 T1500 ; MK2 firmware only supports the old M204 format
M104 S265 ; set extruder temp
M140 S100 ; set bed temp
M190 S100 ; wait for bed temp
M109 S265 ; wait for extruder temp
G28 W ; home all without mesh bed level
G80 ; mesh bed leveling
G1 Y-3.0 F1000.0 ; go outside print area
G92 E0.0
G1 X60.0 E9.0  F1000.0 ; intro line
M73 P0 R133
G1 X100.0 E12.5 F1000.0 ; intro line
G92 E0.0
G21 ; set units to millimeters
G90 ; use absolute coordinates
M83 ; use relative distances for extrusion
M900 K0.04 ; Filament gcode LA 1.5
M900 K20 ; Filament gcode LA 1.0
;BEFORE_LAYER_CHANGE
G92 E0.0
;0.2


G1 E-0.80000 F2100.00000
G1 Z0.600 F10800.000
;AFTER_LAYER_CHANGE
;0.2
G1 X97.181 Y64.264
G1 Z0.200
G1 E0.80000 F2100.00000
M204 S1000
G1 F1200.000
G1 X97.755 Y63.502 E0.02989
G1 X98.481 Y63.063 E0.02661
G1 X99.312 Y62.907 E0.02649
G1 X177.332 Y62.907 E2.44628
G1 X178.234 Y63.086 E0.02884
G1 X179.003 Y63.597 E0.02896
G1 X179.518 Y64.360 E0.02884
G1 X179.705 Y65.260 E0.02884
G1 X179.705 Y95.314 E0.94233
G1 X178.876 Y132.557 E1.16799
G1 X178.815 Y133.040 E0.01526
G1 X178.655 Y133.503 E0.01538
G1 X178.403 Y133.924 E0.01538
G1 X178.073 Y134.282 E0.01526
G1 X177.347 Y134.721 E0.02661
G1 X176.517 Y134.877 E0.02649
G1 X98.492 Y134.877 E2.44640
G1 X97.994 Y134.822 E0.01574
G1 X97.517 Y134.664 E0.01574
G1 X97.085 Y134.410 E0.01574
G1 X96.718 Y134.073 E0.01562
G1 X96.284 Y133.361 E0.02614
G1 X96.123 Y132.543 E0.02614
G1 X96.123 Y102.466 E0.94305
G1 X96.953 Y65.185 E1.16919
G1 X97.167 Y64.322 E0.02789
G1 F8640.000
G1 X97.755 Y63.502 E-0.23294
G1 X98.481 Y63.063 E-0.19595
G1 X99.312 Y62.907 E-0.19509
G1 X99.901 Y62.907 E-0.13602
G1 E-0.04000 F2100.00000
G1 Z0.800 F10800.000
G1 X131.713 Y114.159
G1 Z0.200
G1 E0.80000 F2100.00000
G1 F1200.000
G1 X137.500 Y110.818 E0.20952
G1 X143.287 Y114.159 E0.20952
G1 X143.287 Y120.841 E0.20952
G1 X137.500 Y124.182 E0.20952
G1 X131.713 Y120.841 E0.20952
G1 X131.713 Y114.219 E0.20764
G1 X132.090 Y114.377 F10800.000
G1 F1200.000
G1 X137.500 Y111.253 E0.19587
G1 X142.910 Y114.377 E0.19587
G1 X142.910 Y120.623 E0.19587
G1 X137.500 Y123.747 E0.19587
G1 X132.090 Y120.623 E0.19587
G1 X132.090 Y114.437 E0.19399
G1 X131.890 Y114.030 F10800.000
G1 F8640.000
G1 X134.927 Y112.767 E-0.76000
G1 E-0.04000 F2100.00000
G1 Z0.800 F10800.000
G1 X153.526 Y117.142
G1 Z0.200
G1 E0.80000 F2100.00000
G1 F1200.000
G1 X153.654 Y116.438 E0.02243
G1 X153.905 Y115.769 E0.02243
G1 X154.272 Y115.155 E0.02243
G1 X154.742 Y114.616 E0.02243
G1 X155.302 Y114.170 E0.02243
G1 X155.932 Y113.831 E0.02243
G1 X156.612 Y113.610 E0.02243
G1 X157.285 Y113.519 E0.02131
G1 X158.033 Y113.545 E0.02345
G1 X158.733 Y113.705 E0.02252
G1 X159.391 Y113.986 E0.02243
G1 X159.988 Y114.380 E0.02243
G1 X160.505 Y114.875 E0.02243
G1 X160.925 Y115.453 E0.02243
G1 X161.236 Y116.098 E0.02243
G1 X161.426 Y116.788 E0.02243
G1 X161.490 Y117.500 E0.02243
G1 X161.426 Y118.212 E0.02243
G1 X161.236 Y118.902 E0.02243
G1 X160.925 Y119.547 E0.02243
G1 X160.505 Y120.125 E0.02243
G1 X159.988 Y120.620 E0.02243
G1 X159.391 Y121.014 E0.02243
G1 X158.733 Y121.295 E0.02243
G1 X158.036 Y121.454 E0.02243
G1 X157.321 Y121.486 E0.02243
G1 X156.648 Y121.395 E0.02131
G1 X155.934 Y121.170 E0.02345
G1 X155.302 Y120.830 E0.02252
G1 X154.742 Y120.384 E0.02243
G1 X154.272 Y119.845 E0.02243
G1 X153.905 Y119.231 E0.02243
G1 X153.654 Y118.562 E0.02243
G1 X153.526 Y117.858 E0.02243
G1 X153.526 Y117.202 E0.02055
G1 X153.903 Y117.202 F10800.000
G1 F1200.000
G1 X154.018 Y116.539 E0.02111
G1 X154.246 Y115.933 E0.02030
G1 X154.578 Y115.377 E0.02030
G1 X155.004 Y114.890 E0.02030
G1 X155.510 Y114.486 E0.02030
G1 X156.081 Y114.179 E0.02030
G1 X156.696 Y113.979 E0.02030
G1 X157.304 Y113.897 E0.01923
G1 X157.984 Y113.921 E0.02132
G1 X158.616 Y114.065 E0.02033
G1 X159.211 Y114.320 E0.02030
G1 X159.752 Y114.676 E0.02030
G1 X160.220 Y115.124 E0.02030
G1 X160.600 Y115.648 E0.02030
G1 X160.881 Y116.231 E0.02030
G1 X161.054 Y116.855 E0.02030
G1 X161.112 Y117.500 E0.02030
G1 X161.054 Y118.145 E0.02030
G1 X160.881 Y118.769 E0.02030
G1 X160.600 Y119.352 E0.02030
G1 X160.220 Y119.876 E0.02030
G1 X159.752 Y120.324 E0.02030
G1 X159.211 Y120.680 E0.02030
G1 X158.616 Y120.935 E0.02030
G1 X157.985 Y121.079 E0.02030
G1 X157.338 Y121.108 E0.02030
G1 X156.730 Y121.026 E0.01923
G1 X156.081 Y120.821 E0.02132
G1 X155.510 Y120.514 E0.02033
G1 X155.004 Y120.110 E0.02030
G1 X154.578 Y119.623 E0.02030
G1 X154.246 Y119.067 E0.02030
G1 X154.018 Y118.461 E0.02030
G1 X153.903 Y117.824 E0.02030
G1 X153.903 Y117.262 E0.01760
G1 X153.575 Y116.974 F10800.000
G1 F8640.000
G1 X154.018 Y116.539 E-0.16910
G1 X154.246 Y115.933 E-0.14951
G1 X154.578 Y115.377 E-0.14951
G1 X155.004 Y114.890 E-0.14951
G1 X155.486 Y114.505 E-0.14238
G1 E-0.04000 F2100.00000
G1 Z0.800 F10800.000
G1 X169.500 Y110.818
G1 Z0.200
G1 E0.80000 F2100.00000
G1 F1200.000
G1 X175.287 Y114.159 E0.20952
G1 X175.287 Y120.841 E0.20952
G1 X169.500 Y124.182 E0.20952
G1 X163.713 Y120.841 E0.20952
G1 X163.713 Y114.159 E0.20952
G1 X169.448 Y110.848 E0.20764
G1 X169.500 Y111.253 F10800.000
G1 F1200.000
G1 X174.910 Y114.377 E0.19587
G1 X174.910 Y120.623 E0.19587
G1 X169.500 Y123.747 E0.19587
G1 X164.090 Y120.623 E0.19587
G1 X164.090 Y114.377 E0.19587
G1 X169.448 Y111.283 E0.19399
G1 X169.700 Y110.907 F10800.000
G1 F8640.000
G1 X172.312 Y112.905 E-0.76000
G1 E-0.04000 F2100.00000
G1 Z0.800 F10800.000
G1 X121.426 Y116.788
G1 Z0.200
G1 E0.80000 F2100.00000
G1 F1200.000
G1 X121.490 Y117.500 E0.02243
G1 X121.426 Y118.212 E0.02243
G1 X121.236 Y118.902 E0.02243
G1 X120.925 Y119.547 E0.02243
G1 X120.505 Y120.125 E0.02243
G1 X119.988 Y120.620 E0.02243
G1 X119.391 Y121.014 E0.02243
G1 X118.733 Y121.295 E0.02243
G1 X118.036 Y121.454 E0.02243
G1 X117.321 Y121.486 E0.02243
G1 X116.648 Y121.395 E0.02131
G1 X115.934 Y121.170 E0.02345
G1 X115.302 Y120.830 E0.02252
G1 X114.742 Y120.384 E0.02243
G1 X114.272 Y119.845 E0.02243
G1 X113.905 Y119.231 E0.02243
G1 X113.654 Y118.562 E0.02243
G1 X113.526 Y117.858 E0.02243
G1 X113.526 Y117.142 E0.02243
G1 X113.654 Y116.438 E0.02243
G1 X113.905 Y115.769 E0.02243
G1 X114.272 Y115.155 E0.02243
G1 X114.742 Y114.616 E0.02243
G1 X115.302 Y114.170 E0.02243
G1 X115.932 Y113.831 E0.02243
G1 X116.612 Y113.610 E0.02243
G1 X117.285 Y113.519 E0.02131
G1 X118.033 Y113.545 E0.02345
G1 X118.733 Y113.705 E0.02252
G1 X119.391 Y113.986 E0.02243
G1 X119.988 Y114.380 E0.02243
G1 X120.505 Y114.875 E0.02243
G1 X120.925 Y115.453 E0.02243
G1 X121.236 Y116.098 E0.02243
G1 X121.410 Y116.730 E0.02055
G1 X121.047 Y116.830 F10800.000
G1 F1200.000
G1 X121.112 Y117.500 E0.02111
G1 X121.054 Y118.145 E0.02030
G1 X120.881 Y118.769 E0.02030
G1 X120.600 Y119.352 E0.02030
G1 X120.220 Y119.876 E0.02030
G1 X119.752 Y120.324 E0.02030
G1 X119.211 Y120.680 E0.02030
G1 X118.616 Y120.935 E0.02030
G1 X117.985 Y121.079 E0.02030
G1 X117.338 Y121.108 E0.02030
G1 X116.730 Y121.026 E0.01923
G1 X116.081 Y120.821 E0.02132
G1 X115.510 Y120.514 E0.02033
G1 X115.004 Y120.110 E0.02030
G1 X114.578 Y119.623 E0.02030
G1 X114.246 Y119.067 E0.02030
G1 X114.018 Y118.461 E0.02030
G1 X113.903 Y117.824 E0.02030
G1 X113.903 Y117.176 E0.02030
G1 X114.018 Y116.539 E0.02030
G1 X114.246 Y115.933 E0.02030
G1 X114.578 Y115.377 E0.02030
G1 X115.004 Y114.890 E0.02030
G1 X115.510 Y114.486 E0.02030
G1 X116.081 Y114.179 E0.02030
G1 X116.696 Y113.979 E0.02030
G1 X117.304 Y113.897 E0.01923
G1 X117.984 Y113.921 E0.02132
G1 X118.616 Y114.065 E0.02033
G1 X119.211 Y114.320 E0.02030
G1 X119.752 Y114.676 E0.02030
G1 X120.220 Y115.124 E0.02030
G1 X120.600 Y115.648 E0.02030
G1 X120.881 Y116.231 E0.02030
G1 X121.031 Y116.772 E0.01760
G1 X121.424 Y116.963 F10800.000
G1 F8640.000
G1 X121.112 Y117.500 E-0.16910
G1 X121.054 Y118.145 E-0.14951
G1 X120.881 Y118.769 E-0.14951
G1 X120.600 Y119.352 E-0.14951
G1 X120.238 Y119.851 E-0.14238
G1 E-0.04000 F2100.00000
G1 Z0.800 F10800.000
G1 X105.500 Y110.818
G1 Z0.200
G1 E0.80000 F2100.00000
G1 F1200.000
G1 X111.287 Y114.159 E0.20952
G1 X111.287 Y120.841 E0.20952
G1 X105.500 Y124.182 E0.20952
G1 X99.713 Y120.841 E0.20952
G1 X99.713 Y114.159 E0.20952
G1 X105.448 Y110.848 E0.20764
G1 X105.500 Y111.253 F10800.000
G1 F1200.000
G1 X110.910 Y114.377 E0.19587
G1 X110.910 Y120.623 E0.19587
G1 X105.500 Y123.747 E0.19587
G1 X100.090 Y120.623 E0.19587
G1 X100.090 Y114.377 E0.19587
G1 X105.448 Y111.283 E0.19399
G1 X105.700 Y110.907 F10800.000
G1 F8640.000
G1 X108.312 Y112.905 E-0.76000
G1 E-0.04000 F2100.00000
G1 Z0.800 F10800.000
G1 X99.287 Y103.287
G1 Z0.200
G1 E0.80000 F2100.00000
G1 F1200.000
G1 X175.713 Y103.287 E2.39628
G1 X175.713 Y131.713 E0.89127
G1 X99.287 Y131.713 E2.39628
G1 X99.287 Y103.347 E0.88939
G1 X98.910 Y102.910 F10800.000
G1 F1200.000
G1 X176.090 Y102.910 E2.41992
G1 X176.090 Y132.090 E0.91492
G1 X98.910 Y132.090 E2.41992
G1 X98.910 Y102.970 E0.91304
M73 P0 R132
G1 X99.307 Y102.958 F10800.000
G1 F8640.000
G1 X102.201 Y102.967 E-0.76000
G1 E-0.04000 F2100.00000
G1 Z0.800 F10800.000
G1 X99.400 Y113.689
G1 Z0.200
G1 E0.80000 F2100.00000
G1 F1200.000
G1 X99.605 Y113.894 E0.00914
G1 X99.945 Y113.698 E0.01235
G1 X99.570 Y113.323 E0.01671
G1 X99.570 Y112.787 E0.01688
G1 X100.285 Y113.502 E0.03184
G1 X100.624 Y113.306 E0.01235
G1 X99.570 Y112.252 E0.04698
G1 X99.570 Y111.716 E0.01688
G1 X100.964 Y113.110 E0.06211
G1 X101.304 Y112.914 E0.01235
G1 X99.570 Y111.180 E0.07724
G1 X99.570 Y110.644 E0.01688
G1 X101.643 Y112.718 E0.09237
G1 X101.983 Y112.522 E0.01235
G1 X99.570 Y110.109 E0.10750
G1 X99.570 Y109.573 E0.01688
G1 X102.323 Y112.326 E0.12263
G1 X102.662 Y112.129 E0.01235
G1 X99.570 Y109.037 E0.13777
G1 X99.570 Y108.501 E0.01688
G1 X103.002 Y111.933 E0.15290
G1 X103.342 Y111.737 E0.01235
G1 X99.570 Y107.965 E0.16803
G1 X99.570 Y107.430 E0.01688
G1 X103.681 Y111.541 E0.18316
G1 X104.021 Y111.345 E0.01235
G1 X99.570 Y106.894 E0.19829
G1 X99.570 Y106.358 E0.01688
G1 X104.361 Y111.149 E0.21342
G1 X104.700 Y110.953 E0.01235
G1 X99.570 Y105.822 E0.22856
G1 X99.570 Y105.287 E0.01688
G1 X105.040 Y110.757 E0.24369
G1 X105.380 Y110.561 E0.01235
G1 X99.570 Y104.751 E0.25882
G1 X99.570 Y104.215 E0.01688
G1 X106.318 Y110.964 E0.30064
G1 X107.586 Y111.695 E0.04611
G1 X99.570 Y103.679 E0.35711
G1 X99.570 Y103.570 E0.00345
G1 X99.996 Y103.570 E0.01343
G1 X108.854 Y112.427 E0.39459
G1 X110.121 Y113.159 E0.04611
G1 X100.532 Y103.570 E0.42720
G1 X101.068 Y103.570 E0.01688
G1 X113.511 Y116.013 E0.55434
G1 X113.660 Y115.627 E0.01305
G1 X101.603 Y103.570 E0.53712
G1 X102.139 Y103.570 E0.01688
G1 X113.861 Y115.291 E0.52218
G1 X114.066 Y114.961 E0.01226
G1 X102.675 Y103.570 E0.50745
G1 X103.211 Y103.570 E0.01688
G1 X114.316 Y114.675 E0.49471
G1 X114.569 Y114.392 E0.01195
G1 X103.747 Y103.570 E0.48213
G1 X104.282 Y103.570 E0.01688
G1 X114.867 Y114.155 E0.47155
G1 X115.169 Y113.920 E0.01203
G1 X104.818 Y103.570 E0.46111
G1 X105.354 Y103.570 E0.01688
G1 X115.517 Y113.733 E0.45276
G1 X115.872 Y113.553 E0.01256
G1 X105.890 Y103.570 E0.44473
G1 X106.425 Y103.570 E0.01688
G1 X116.277 Y113.421 E0.43887
G1 X116.549 Y113.333 E0.00901
G1 X116.703 Y113.312 E0.00491
G1 X106.961 Y103.570 E0.43401
G1 X107.497 Y103.570 E0.01688
G1 X117.175 Y113.248 E0.43116
G1 X117.271 Y113.235 E0.00306
G1 X117.714 Y113.251 E0.01394
G1 X108.033 Y103.570 E0.43128
G1 X108.568 Y103.570 E0.01688
G1 X118.319 Y113.320 E0.43438
G1 X118.821 Y113.435 E0.01621
G1 X119.080 Y113.546 E0.00889
G1 X109.104 Y103.570 E0.44442
G1 X109.640 Y103.570 E0.01688
G1 X137.500 Y131.430 E1.24115
G1 X138.036 Y131.430 E0.01688
G1 X110.176 Y103.570 E1.24115
G1 X110.712 Y103.570 E0.01688
G1 X138.572 Y131.430 E1.24115
G1 X139.108 Y131.430 E0.01688
G1 X111.247 Y103.570 E1.24115
G1 X111.783 Y103.570 E0.01688
G1 X139.643 Y131.430 E1.24115
G1 X140.179 Y131.430 E0.01688
G1 X112.319 Y103.570 E1.24115
G1 X112.855 Y103.570 E0.01688
G1 X140.715 Y131.430 E1.24115
G1 X141.251 Y131.430 E0.01688
G1 X113.390 Y103.570 E1.24115
G1 X113.926 Y103.570 E0.01688
G1 X141.956 Y131.600 E1.24871
G1 F8640.000
G1 X139.629 Y129.272 E-0.76000
G1 E-0.04000 F2100.00000
G1 Z0.800 F10800.000
G1 X137.134 Y131.600
G1 Z0.200
G1 E0.80000 F2100.00000
G1 F1200.000
G1 X121.473 Y115.939 E0.69769
G1 X121.694 Y116.696 E0.02484
G1 X136.429 Y131.430 E0.65641
G1 X135.893 Y131.430 E0.01688
G1 X121.756 Y117.293 E0.62981
G1 X121.774 Y117.500 E0.00656
G1 X121.746 Y117.818 E0.01007
G1 X135.357 Y131.430 E0.60639
G1 X134.821 Y131.430 E0.01688
G1 X121.694 Y118.303 E0.58479
G1 X121.579 Y118.723 E0.01372
G1 X134.286 Y131.430 E0.56609
G1 X133.750 Y131.430 E0.01688
G1 X121.443 Y119.123 E0.54825
G1 X121.269 Y119.485 E0.01264
G1 X133.214 Y131.430 E0.53214
G1 X132.678 Y131.430 E0.01688
G1 X121.073 Y119.825 E0.51701
G1 X120.847 Y120.135 E0.01208
G1 X132.143 Y131.430 E0.50319
G1 X131.607 Y131.430 E0.01688
G1 X120.601 Y120.425 E0.49029
G1 X120.327 Y120.686 E0.01194
G1 X131.071 Y131.430 E0.47862
G1 X130.535 Y131.430 E0.01688
G1 X120.034 Y120.928 E0.46784
G1 X119.711 Y121.141 E0.01218
G1 X130.000 Y131.430 E0.45835
G1 X129.464 Y131.430 E0.01688
G1 X119.366 Y121.332 E0.44986
G1 X118.990 Y121.493 E0.01286
G1 X128.928 Y131.430 E0.44271
G1 X128.392 Y131.430 E0.01688
G1 X118.582 Y121.620 E0.43705
G1 X118.145 Y121.719 E0.01409
G1 X127.856 Y131.430 E0.43262
G1 X127.321 Y131.430 E0.01688
G1 X117.645 Y121.755 E0.43103
G1 X117.308 Y121.770 E0.01063
G1 X117.096 Y121.741 E0.00675
G1 X126.785 Y131.430 E0.43164
G1 X126.249 Y131.430 E0.01688
G1 X116.448 Y121.629 E0.43665
G1 X115.824 Y121.432 E0.02060
G1 X115.589 Y121.306 E0.00839
G1 X125.713 Y131.430 E0.45102
G1 X125.178 Y131.430 E0.01688
G1 X111.570 Y117.822 E0.60621
G1 X111.570 Y118.358 E0.01688
G1 X124.642 Y131.430 E0.58234
G1 X124.106 Y131.430 E0.01688
G1 X111.570 Y118.894 E0.55848
G1 X111.570 Y119.430 E0.01688
G1 X123.570 Y131.430 E0.53461
M73 P1 R131
G1 X123.035 Y131.430 E0.01688
G1 X111.570 Y119.965 E0.51074
G1 X111.570 Y120.501 E0.01688
G1 X122.499 Y131.430 E0.48687
G1 X121.963 Y131.430 E0.01688
G1 X111.549 Y121.016 E0.46392
G1 X111.210 Y121.212 E0.01235
G1 X121.427 Y131.430 E0.45519
G1 X120.891 Y131.430 E0.01688
G1 X110.870 Y121.409 E0.44645
G1 X110.530 Y121.605 E0.01235
G1 X120.356 Y131.430 E0.43772
G1 X119.820 Y131.430 E0.01688
G1 X110.191 Y121.801 E0.42898
G1 X109.851 Y121.997 E0.01235
G1 X119.284 Y131.430 E0.42024
G1 X118.748 Y131.430 E0.01688
G1 X109.511 Y122.193 E0.41151
G1 X109.172 Y122.389 E0.01235
G1 X118.213 Y131.430 E0.40277
G1 X117.677 Y131.430 E0.01688
G1 X108.832 Y122.585 E0.39403
G1 X108.492 Y122.781 E0.01235
G1 X117.141 Y131.430 E0.38530
G1 X116.605 Y131.430 E0.01688
G1 X108.153 Y122.977 E0.37656
G1 X107.813 Y123.174 E0.01235
G1 X116.070 Y131.430 E0.36783
G1 X115.534 Y131.430 E0.01688
G1 X107.473 Y123.370 E0.35909
G1 X107.134 Y123.566 E0.01235
G1 X114.998 Y131.430 E0.35035
G1 X114.462 Y131.430 E0.01688
G1 X106.794 Y123.762 E0.34162
G1 X106.454 Y123.958 E0.01235
G1 X113.927 Y131.430 E0.33288
G1 X113.391 Y131.430 E0.01688
G1 X106.115 Y124.154 E0.32414
G1 X105.775 Y124.350 E0.01235
G1 X112.855 Y131.430 E0.31541
G1 X112.319 Y131.430 E0.01688
G1 X105.259 Y124.370 E0.31454
G1 X103.991 Y123.638 E0.04611
G1 X111.783 Y131.430 E0.34715
G1 X111.248 Y131.430 E0.01688
G1 X102.723 Y122.906 E0.37975
G1 X101.456 Y122.174 E0.04611
G1 X110.712 Y131.430 E0.41236
G1 X110.176 Y131.430 E0.01688
G1 X100.188 Y121.442 E0.44496
G1 X99.570 Y121.085 E0.02249
