; generated by PrusaSlicer 2.2.0+win64 on 2020-11-26 at 07:47:08 UTC

; 

; external perimeters extrusion width = 0.45mm
; perimeters extrusion width = 0.45mm
; infill extrusion width = 0.45mm
; solid infill extrusion width = 0.45mm
; top infill extrusion width = 0.40mm
; first layer extrusion width = 0.42mm

M73 P0 R263
M201 X9000 Y9000 Z500 E10000 ; sets maximum accelerations, mm/sec^2
M203 X500 Y500 Z12 E120 ; sets maximum feedrates, mm/sec
M204 P2000 R1500 T2000 ; sets acceleration (P, T) and retract acceleration (R), mm/sec^2
M205 X10.00 Y10.00 Z0.20 E2.50 ; sets the jerk limits, mm/sec
M205 S0 T0 ; sets the minimum extruding and travel feed rate, mm/sec
M107
M862.3 P "MK2S" ; printer model check
M862.1 P0.4 ; nozzle diameter check
M115 U3.2.3 ; tell printer latest fw version
G90 ; use absolute coordinates
M83 ; extruder relative mode
M204 S2000 T1500 ; MK2 firmware only supports the old M204 format
M104 S265 ; set extruder temp
M140 S100 ; set bed temp
M190 S100 ; wait for bed temp
M109 S265 ; wait for extruder temp
G28 W ; home all without mesh bed level
G80 ; mesh bed leveling
G1 Y-3.0 F1000.0 ; go outside print area
G92 E0.0
G1 X60.0 E9.0  F1000.0 ; intro line
M73 P0 R263
G1 X100.0 E12.5 F1000.0 ; intro line
G92 E0.0
G21 ; set units to millimeters
G90 ; use absolute coordinates
M83 ; use relative distances for extrusion
M900 K0.04 ; Filament gcode LA 1.5
M900 K20 ; Filament gcode LA 1.0
;BEFORE_LAYER_CHANGE
G92 E0.0
;0.2


G1 E-0.80000 F2100.00000
G1 Z0.600 F10800.000
;AFTER_LAYER_CHANGE
;0.2
G1 X72.044 Y72.893
G1 Z0.200
G1 E0.80000 F2100.00000
M204 S1000
G1 F1200.000
G1 X72.442 Y72.195 E0.02520
G1 X72.811 Y71.833 E0.01621
G1 X73.247 Y71.562 E0.01609
G1 X73.730 Y71.390 E0.01609
G1 X74.240 Y71.326 E0.01609
G1 X124.283 Y71.326 E1.56906
G1 X188.214 Y75.875 E2.00958
G1 X189.037 Y76.095 E0.02673
G1 X189.730 Y76.591 E0.02673
G1 X190.220 Y77.339 E0.02802
G1 X190.399 Y78.218 E0.02813
G1 X190.399 Y137.248 E1.85085
G1 X190.209 Y138.175 E0.02966
G1 X189.673 Y138.954 E0.02966
G1 X188.929 Y139.441 E0.02790
G1 X188.054 Y139.621 E0.02802
G1 X137.931 Y139.619 E1.57157
G1 X74.087 Y135.072 E2.00684
G1 X73.264 Y134.852 E0.02673
G1 X72.571 Y134.356 E0.02673
G1 X72.077 Y133.598 E0.02837
G1 X71.902 Y132.706 E0.02849
G1 X71.902 Y73.684 E1.85061
G1 X72.033 Y72.952 E0.02332
G1 F8640.000
G1 X72.442 Y72.195 E-0.19868
G1 X72.811 Y71.833 E-0.11938
G1 X73.247 Y71.562 E-0.11850
G1 X73.730 Y71.390 E-0.11850
G1 X74.240 Y71.326 E-0.11850
G1 X74.614 Y71.326 E-0.08644
G1 E-0.04000 F2100.00000
G1 Z0.800 F10800.000
G1 X138.809 Y79.031
G1 Z0.200
G1 E0.80000 F2100.00000
G1 F1200.000
G1 X187.235 Y79.031 E1.51836
G1 X187.235 Y136.457 E1.80055
G1 X178.809 Y136.457 E0.26419
G1 X178.809 Y87.457 E1.53636
G1 X147.235 Y87.457 E0.98999
G1 X147.235 Y136.457 E1.53636
G1 X138.809 Y136.457 E0.26419
G1 X138.809 Y79.091 E1.79867
G1 F8640.000
G1 X142.100 Y79.087 E-0.76000
G1 E-0.04000 F2100.00000
G1 Z0.800 F10800.000
G1 X178.432 Y87.834
G1 Z0.200
G1 E0.80000 F2100.00000
G1 F1200.000
G1 X147.612 Y87.834 E0.96634
G1 X147.612 Y136.834 E1.53636
G1 X138.432 Y136.834 E0.28783
G1 X138.432 Y78.654 E1.82419
G1 X187.612 Y78.654 E1.54200
G1 X187.612 Y136.834 E1.82419
G1 X178.432 Y136.834 E0.28783
G1 X178.432 Y87.894 E1.53448
G1 X178.407 Y87.435 F10800.000
G1 X178.494 Y87.344
G1 F1200.000
G1 X170.464 Y79.314 E0.35748
G1 X169.928 Y79.314 E0.01685
G1 X177.789 Y87.174 E0.34993
G1 X177.253 Y87.174 E0.01685
G1 X169.393 Y79.314 E0.34993
G1 X168.858 Y79.314 E0.01685
G1 X176.718 Y87.174 E0.34993
G1 X176.182 Y87.174 E0.01685
G1 X168.322 Y79.314 E0.34993
G1 X167.787 Y79.314 E0.01685
G1 X175.647 Y87.174 E0.34993
G1 X175.112 Y87.174 E0.01685
G1 X167.251 Y79.314 E0.34993
G1 X166.716 Y79.314 E0.01685
G1 X174.576 Y87.174 E0.34993
G1 X174.041 Y87.174 E0.01685
G1 X166.181 Y79.314 E0.34993
G1 X165.645 Y79.314 E0.01685
G1 X173.505 Y87.174 E0.34993
G1 X172.970 Y87.174 E0.01685
G1 X165.110 Y79.314 E0.34993
M73 P0 R262
G1 X164.574 Y79.314 E0.01685
G1 X172.435 Y87.174 E0.34993
G1 X171.899 Y87.174 E0.01685
G1 X164.039 Y79.314 E0.34993
G1 X163.504 Y79.314 E0.01685
G1 X171.364 Y87.174 E0.34993
G1 X170.828 Y87.174 E0.01685
G1 X162.968 Y79.314 E0.34993
G1 X162.433 Y79.314 E0.01685
G1 X170.293 Y87.174 E0.34993
G1 X169.758 Y87.174 E0.01685
G1 X161.897 Y79.314 E0.34993
G1 X161.362 Y79.314 E0.01685
G1 X169.222 Y87.174 E0.34993
G1 X168.687 Y87.174 E0.01685
G1 X160.827 Y79.314 E0.34993
G1 X160.291 Y79.314 E0.01685
G1 X168.151 Y87.174 E0.34993
G1 X167.616 Y87.174 E0.01685
G1 X159.756 Y79.314 E0.34993
G1 X159.220 Y79.314 E0.01685
G1 X167.081 Y87.174 E0.34993
G1 X166.545 Y87.174 E0.01685
G1 X158.685 Y79.314 E0.34993
G1 X158.150 Y79.314 E0.01685
G1 X166.010 Y87.174 E0.34993
G1 X165.474 Y87.174 E0.01685
G1 X157.614 Y79.314 E0.34993
G1 X157.079 Y79.314 E0.01685
G1 X164.939 Y87.174 E0.34993
G1 X164.404 Y87.174 E0.01685
G1 X156.543 Y79.314 E0.34993
G1 X156.008 Y79.314 E0.01685
G1 X163.868 Y87.174 E0.34993
G1 X163.333 Y87.174 E0.01685
G1 X155.473 Y79.314 E0.34993
G1 X154.937 Y79.314 E0.01685
G1 X162.797 Y87.174 E0.34993
G1 X162.262 Y87.174 E0.01685
G1 X154.402 Y79.314 E0.34993
G1 X153.866 Y79.314 E0.01685
G1 X161.727 Y87.174 E0.34993
G1 X161.191 Y87.174 E0.01685
G1 X153.331 Y79.314 E0.34993
G1 X152.796 Y79.314 E0.01685
G1 X160.656 Y87.174 E0.34993
G1 X160.120 Y87.174 E0.01685
G1 X152.260 Y79.314 E0.34993
G1 X151.725 Y79.314 E0.01685
G1 X159.585 Y87.174 E0.34993
G1 X159.050 Y87.174 E0.01685
G1 X151.189 Y79.314 E0.34993
G1 X150.654 Y79.314 E0.01685
G1 X158.514 Y87.174 E0.34993
G1 X157.979 Y87.174 E0.01685
G1 X150.119 Y79.314 E0.34993
G1 X149.583 Y79.314 E0.01685
G1 X157.443 Y87.174 E0.34993
G1 X156.908 Y87.174 E0.01685
G1 X149.048 Y79.314 E0.34993
G1 X148.512 Y79.314 E0.01685
G1 X156.373 Y87.174 E0.34993
G1 X155.837 Y87.174 E0.01685
G1 X147.977 Y79.314 E0.34993
G1 X147.441 Y79.314 E0.01685
G1 X155.302 Y87.174 E0.34993
G1 X154.766 Y87.174 E0.01685
G1 X146.906 Y79.314 E0.34993
G1 X146.371 Y79.314 E0.01685
G1 X154.231 Y87.174 E0.34993
G1 X153.696 Y87.174 E0.01685
G1 X145.835 Y79.314 E0.34993
G1 X145.300 Y79.314 E0.01685
G1 X153.160 Y87.174 E0.34993
G1 X152.625 Y87.174 E0.01685
G1 X144.764 Y79.314 E0.34993
G1 X144.229 Y79.314 E0.01685
G1 X152.089 Y87.174 E0.34993
G1 X151.554 Y87.174 E0.01685
G1 X143.694 Y79.314 E0.34993
G1 X143.158 Y79.314 E0.01685
G1 X151.018 Y87.174 E0.34993
G1 X150.483 Y87.174 E0.01685
G1 X142.623 Y79.314 E0.34993
G1 X142.087 Y79.314 E0.01685
G1 X149.948 Y87.174 E0.34993
G1 X149.412 Y87.174 E0.01685
G1 X141.552 Y79.314 E0.34993
G1 X141.017 Y79.314 E0.01685
G1 X148.877 Y87.174 E0.34993
G1 X148.341 Y87.174 E0.01685
G1 X140.481 Y79.314 E0.34993
G1 X139.946 Y79.314 E0.01685
G1 X147.806 Y87.174 E0.34993
G1 X147.271 Y87.174 E0.01685
G1 X139.410 Y79.314 E0.34993
G1 X139.092 Y79.314 E0.01003
G1 X139.092 Y79.531 E0.00683
G1 X146.952 Y87.391 E0.34993
G1 X146.952 Y87.926 E0.01685
G1 X139.092 Y80.066 E0.34993
G1 X139.092 Y80.602 E0.01685
G1 X146.952 Y88.462 E0.34993
G1 X146.952 Y88.997 E0.01685
G1 X139.092 Y81.137 E0.34993
G1 X139.092 Y81.672 E0.01685
G1 X146.952 Y89.533 E0.34993
G1 X146.952 Y90.068 E0.01685
G1 X139.092 Y82.208 E0.34993
G1 X139.092 Y82.743 E0.01685
G1 X146.952 Y90.604 E0.34993
G1 X146.952 Y91.139 E0.01685
G1 X139.092 Y83.279 E0.34993
G1 X139.092 Y83.814 E0.01685
G1 X146.952 Y91.674 E0.34993
G1 X146.952 Y92.210 E0.01685
G1 X139.092 Y84.349 E0.34993
G1 X139.092 Y84.885 E0.01685
G1 X146.952 Y92.745 E0.34993
G1 X146.952 Y93.281 E0.01685
G1 X139.092 Y85.420 E0.34993
G1 X139.092 Y85.956 E0.01685
G1 X146.952 Y93.816 E0.34993
G1 X146.952 Y94.351 E0.01685
G1 X139.092 Y86.491 E0.34993
G1 X139.092 Y87.027 E0.01685
G1 X146.952 Y94.887 E0.34993
G1 X146.952 Y95.422 E0.01685
G1 X139.092 Y87.562 E0.34993
G1 X139.092 Y88.097 E0.01685
G1 X146.952 Y95.958 E0.34993
G1 X146.952 Y96.493 E0.01685
G1 X139.092 Y88.633 E0.34993
G1 X139.092 Y89.168 E0.01685
G1 X146.952 Y97.028 E0.34993
G1 X146.952 Y97.564 E0.01685
G1 X139.092 Y89.704 E0.34993
G1 X139.092 Y90.239 E0.01685
G1 X146.952 Y98.099 E0.34993
G1 X146.952 Y98.635 E0.01685
G1 X139.092 Y90.774 E0.34993
G1 X139.092 Y91.310 E0.01685
G1 X146.952 Y99.170 E0.34993
G1 X146.952 Y99.705 E0.01685
G1 X139.092 Y91.845 E0.34993
G1 X139.092 Y92.381 E0.01685
G1 X146.952 Y100.241 E0.34993
G1 X146.952 Y100.776 E0.01685
G1 X139.092 Y92.916 E0.34993
G1 X139.092 Y93.451 E0.01685
G1 X146.952 Y101.312 E0.34993
G1 X146.952 Y101.847 E0.01685
G1 X139.092 Y93.987 E0.34993
G1 X139.092 Y94.522 E0.01685
G1 X146.952 Y102.382 E0.34993
G1 X146.952 Y102.918 E0.01685
G1 X139.092 Y95.058 E0.34993
G1 X139.092 Y95.593 E0.01685
G1 X146.952 Y103.453 E0.34993
G1 X146.952 Y103.989 E0.01685
G1 X139.092 Y96.128 E0.34993
G1 X139.092 Y96.664 E0.01685
G1 X146.952 Y104.524 E0.34993
G1 X146.952 Y105.059 E0.01685
G1 X139.092 Y97.199 E0.34993
G1 X139.092 Y97.735 E0.01685
G1 X146.952 Y105.595 E0.34993
G1 X146.952 Y106.130 E0.01685
G1 X139.092 Y98.270 E0.34993
G1 X139.092 Y98.805 E0.01685
G1 X146.952 Y106.666 E0.34993
G1 X146.952 Y107.201 E0.01685
G1 X139.092 Y99.341 E0.34993
G1 X139.092 Y99.876 E0.01685
G1 X146.952 Y107.736 E0.34993
G1 X146.952 Y108.272 E0.01685
G1 X139.092 Y100.412 E0.34993
G1 X139.092 Y100.947 E0.01685
G1 X146.952 Y108.807 E0.34993
G1 X146.952 Y109.343 E0.01685
G1 X139.092 Y101.482 E0.34993
G1 X139.092 Y102.018 E0.01685
G1 X146.952 Y109.878 E0.34993
G1 X146.952 Y110.413 E0.01685
G1 X139.092 Y102.553 E0.34993
G1 X139.092 Y103.089 E0.01685
G1 X146.952 Y110.949 E0.34993
G1 X146.952 Y111.484 E0.01685
G1 X139.092 Y103.624 E0.34993
G1 X139.092 Y104.159 E0.01685
G1 X146.952 Y112.020 E0.34993
G1 X146.952 Y112.555 E0.01685
G1 X139.092 Y104.695 E0.34993
G1 X139.092 Y105.230 E0.01685
G1 X146.952 Y113.090 E0.34993
G1 X146.952 Y113.626 E0.01685
G1 X139.092 Y105.766 E0.34993
G1 X139.092 Y106.301 E0.01685
G1 X146.952 Y114.161 E0.34993
G1 X146.952 Y114.697 E0.01685
G1 X139.092 Y106.836 E0.34993
G1 X139.092 Y107.372 E0.01685
G1 X146.952 Y115.232 E0.34993
G1 X146.952 Y115.768 E0.01685
G1 X139.092 Y107.907 E0.34993
M73 P0 R261
G1 X139.092 Y108.443 E0.01685
G1 X146.952 Y116.303 E0.34993
G1 X146.952 Y116.838 E0.01685
G1 X139.092 Y108.978 E0.34993
G1 X139.092 Y109.513 E0.01685
G1 X146.952 Y117.374 E0.34993
G1 X146.952 Y117.909 E0.01685
G1 X139.092 Y110.049 E0.34993
G1 X139.092 Y110.584 E0.01685
G1 X146.952 Y118.445 E0.34993
G1 X146.952 Y118.980 E0.01685
G1 X139.092 Y111.120 E0.34993
G1 X139.092 Y111.655 E0.01685
G1 X146.952 Y119.515 E0.34993
G1 X146.952 Y120.051 E0.01685
G1 X139.092 Y112.191 E0.34993
G1 X139.092 Y112.726 E0.01685
G1 X146.952 Y120.586 E0.34993
G1 X146.952 Y121.122 E0.01685
G1 X139.092 Y113.261 E0.34993
G1 X139.092 Y113.797 E0.01685
G1 X146.952 Y121.657 E0.34993
G1 X146.952 Y122.192 E0.01685
G1 X139.092 Y114.332 E0.34993
G1 X139.092 Y114.868 E0.01685
G1 X146.952 Y122.728 E0.34993
G1 X146.952 Y123.263 E0.01685
G1 X139.092 Y115.403 E0.34993
G1 X139.092 Y115.938 E0.01685
G1 X146.952 Y123.799 E0.34993
G1 X146.952 Y124.334 E0.01685
G1 X139.092 Y116.474 E0.34993
G1 X139.092 Y117.009 E0.01685
G1 X146.952 Y124.869 E0.34993
G1 X146.952 Y125.405 E0.01685
G1 X139.092 Y117.545 E0.34993
G1 X139.092 Y118.080 E0.01685
G1 X146.952 Y125.940 E0.34993
G1 X146.952 Y126.476 E0.01685
G1 X139.092 Y118.615 E0.34993
G1 X139.092 Y119.151 E0.01685
G1 X146.952 Y127.011 E0.34993
G1 X146.952 Y127.546 E0.01685
G1 X139.092 Y119.686 E0.34993
G1 X139.092 Y120.222 E0.01685
G1 X146.952 Y128.082 E0.34993
G1 X146.952 Y128.617 E0.01685
G1 X139.092 Y120.757 E0.34993
G1 X139.092 Y121.292 E0.01685
G1 X146.952 Y129.153 E0.34993
G1 X146.952 Y129.688 E0.01685
G1 X139.092 Y121.828 E0.34993
G1 X139.092 Y122.363 E0.01685
G1 X146.952 Y130.223 E0.34993
G1 X146.952 Y130.759 E0.01685
G1 X139.092 Y122.899 E0.34993
G1 X139.092 Y123.434 E0.01685
G1 X146.952 Y131.294 E0.34993
G1 X146.952 Y131.830 E0.01685
G1 X139.092 Y123.969 E0.34993
G1 X139.092 Y124.505 E0.01685
G1 X146.952 Y132.365 E0.34993
G1 X146.952 Y132.900 E0.01685
G1 X139.092 Y125.040 E0.34993
G1 X139.092 Y125.576 E0.01685
G1 X146.952 Y133.436 E0.34993
G1 X146.952 Y133.971 E0.01685
G1 X139.092 Y126.111 E0.34993
G1 X139.092 Y126.646 E0.01685
G1 X146.952 Y134.507 E0.34993
G1 X146.952 Y135.042 E0.01685
G1 X139.092 Y127.182 E0.34993
G1 X139.092 Y127.717 E0.01685
G1 X146.952 Y135.577 E0.34993
G1 X146.952 Y136.113 E0.01685
G1 X139.092 Y128.253 E0.34993
G1 X139.092 Y128.788 E0.01685
G1 X146.478 Y136.174 E0.32883
G1 X145.943 Y136.174 E0.01685
G1 X139.092 Y129.323 E0.30499
G1 X139.092 Y129.859 E0.01685
G1 X145.407 Y136.174 E0.28116
G1 X144.872 Y136.174 E0.01685
G1 X139.092 Y130.394 E0.25732
G1 X139.092 Y130.930 E0.01685
G1 X144.336 Y136.174 E0.23348
G1 X143.801 Y136.174 E0.01685
G1 X139.092 Y131.465 E0.20965
G1 X139.092 Y132.000 E0.01685
G1 X143.266 Y136.174 E0.18581
G1 X142.730 Y136.174 E0.01685
G1 X139.092 Y132.536 E0.16198
G1 X139.092 Y133.071 E0.01685
G1 X142.195 Y136.174 E0.13814
G1 X141.659 Y136.174 E0.01685
G1 X139.092 Y133.607 E0.11431
G1 X139.092 Y134.142 E0.01685
G1 X141.124 Y136.174 E0.09047
G1 X140.589 Y136.174 E0.01685
G1 X139.092 Y134.677 E0.06663
G1 X139.092 Y135.213 E0.01685
G1 X140.053 Y136.174 E0.04280
G1 X139.518 Y136.174 E0.01685
G1 X138.922 Y135.579 E0.02652
G1 F8640.000
G1 X139.518 Y136.174 E-0.19451
G1 X140.053 Y136.174 E-0.12363
G1 X139.092 Y135.213 E-0.31393
G1 X139.092 Y134.677 E-0.12363
G1 X139.105 Y134.691 E-0.00431
G1 E-0.04000 F2100.00000
G1 Z0.800 F10800.000
G1 X178.922 Y135.959
G1 Z0.200
G1 E0.80000 F2100.00000
G1 F1200.000
G1 X179.138 Y136.174 E0.00960
G1 X179.673 Y136.174 E0.01685
G1 X179.092 Y135.593 E0.02588
G1 X179.092 Y135.058 E0.01685
G1 X180.209 Y136.174 E0.04971
G1 X180.744 Y136.174 E0.01685
G1 X179.092 Y134.522 E0.07355
G1 X179.092 Y133.987 E0.01685
G1 X181.279 Y136.174 E0.09739
G1 X181.815 Y136.174 E0.01685
G1 X179.092 Y133.451 E0.12122
G1 X179.092 Y132.916 E0.01685
G1 X182.350 Y136.174 E0.14506
G1 X182.886 Y136.174 E0.01685
G1 X179.092 Y132.381 E0.16889
G1 X179.092 Y131.845 E0.01685
G1 X183.421 Y136.174 E0.19273
G1 X183.956 Y136.174 E0.01685
G1 X179.092 Y131.310 E0.21656
G1 X179.092 Y130.774 E0.01685
G1 X184.492 Y136.174 E0.24040
G1 X185.027 Y136.174 E0.01685
G1 X179.092 Y130.239 E0.26423
G1 X179.092 Y129.704 E0.01685
G1 X185.563 Y136.174 E0.28807
G1 X186.098 Y136.174 E0.01685
G1 X179.092 Y129.168 E0.31191
G1 X179.092 Y128.633 E0.01685
G1 X186.633 Y136.174 E0.33574
G1 X186.952 Y136.174 E0.01003
G1 X186.952 Y135.958 E0.00682
G1 X179.092 Y128.097 E0.34993
G1 X179.092 Y127.562 E0.01685
G1 X186.952 Y135.422 E0.34993
G1 X186.952 Y134.887 E0.01685
G1 X179.092 Y127.027 E0.34993
G1 X179.092 Y126.491 E0.01685
G1 X186.952 Y134.351 E0.34993
G1 X186.952 Y133.816 E0.01685
G1 X179.092 Y125.956 E0.34993
G1 X179.092 Y125.420 E0.01685
G1 X186.952 Y133.281 E0.34993
G1 X186.952 Y132.745 E0.01685
G1 X179.092 Y124.885 E0.34993
G1 X179.092 Y124.349 E0.01685
G1 X186.952 Y132.210 E0.34993
G1 X186.952 Y131.674 E0.01685
G1 X179.092 Y123.814 E0.34993
G1 X179.092 Y123.279 E0.01685
G1 X186.952 Y131.139 E0.34993
G1 X186.952 Y130.604 E0.01685
G1 X179.092 Y122.743 E0.34993
G1 X179.092 Y122.208 E0.01685
G1 X186.952 Y130.068 E0.34993
G1 X186.952 Y129.533 E0.01685
G1 X179.092 Y121.672 E0.34993
G1 X179.092 Y121.137 E0.01685
G1 X186.952 Y128.997 E0.34993
G1 X186.952 Y128.462 E0.01685
G1 X179.092 Y120.602 E0.34993
G1 X179.092 Y120.066 E0.01685
G1 X186.952 Y127.926 E0.34993
G1 X186.952 Y127.391 E0.01685
G1 X179.092 Y119.531 E0.34993
G1 X179.092 Y118.995 E0.01685
G1 X186.952 Y126.856 E0.34993
G1 X186.952 Y126.320 E0.01685
G1 X179.092 Y118.460 E0.34993
G1 X179.092 Y117.925 E0.01685
G1 X186.952 Y125.785 E0.34993
G1 X186.952 Y125.249 E0.01685
G1 X179.092 Y117.389 E0.34993
G1 X179.092 Y116.854 E0.01685
G1 X186.952 Y124.714 E0.34993
G1 X186.952 Y124.179 E0.01685
G1 X179.092 Y116.318 E0.34993
G1 X179.092 Y115.783 E0.01685
G1 X186.952 Y123.643 E0.34993
G1 X186.952 Y123.108 E0.01685
G1 X179.092 Y115.248 E0.34993
G1 X179.092 Y114.712 E0.01685
G1 X186.952 Y122.572 E0.34993
G1 X186.952 Y122.037 E0.01685
G1 X179.092 Y114.177 E0.34993
G1 X179.092 Y113.641 E0.01685
G1 X186.952 Y121.502 E0.34993
G1 X186.952 Y120.966 E0.01685
G1 X179.092 Y113.106 E0.34993
G1 X179.092 Y112.571 E0.01685
