; generated by PrusaSlicer 2.2.0+win64 on 2020-11-26 at 14:14:20 UTC

; 

; external perimeters extrusion width = 0.45mm
; perimeters extrusion width = 0.45mm
; infill extrusion width = 0.45mm
; solid infill extrusion width = 0.45mm
; top infill extrusion width = 0.40mm
; first layer extrusion width = 0.42mm

M73 P0 R267
M201 X9000 Y9000 Z500 E10000 ; sets maximum accelerations, mm/sec^2
M203 X500 Y500 Z12 E120 ; sets maximum feedrates, mm/sec
M204 P2000 R1500 T2000 ; sets acceleration (P, T) and retract acceleration (R), mm/sec^2
M205 X10.00 Y10.00 Z0.20 E2.50 ; sets the jerk limits, mm/sec
M205 S0 T0 ; sets the minimum extruding and travel feed rate, mm/sec
M107
M862.3 P "MK2S" ; printer model check
M862.1 P0.4 ; nozzle diameter check
M115 U3.2.3 ; tell printer latest fw version
G90 ; use absolute coordinates
M83 ; extruder relative mode
M204 S2000 T1500 ; MK2 firmware only supports the old M204 format
M104 S265 ; set extruder temp
M140 S100 ; set bed temp
M190 S100 ; wait for bed temp
M109 S265 ; wait for extruder temp
G28 W ; home all without mesh bed level
G80 ; mesh bed leveling
G1 Y-3.0 F1000.0 ; go outside print area
G92 E0.0
G1 X60.0 E9.0  F1000.0 ; intro line
M73 P0 R267
G1 X100.0 E12.5 F1000.0 ; intro line
G92 E0.0
G21 ; set units to millimeters
G90 ; use absolute coordinates
M83 ; use relative distances for extrusion
M900 K0.04 ; Filament gcode LA 1.5
M900 K20 ; Filament gcode LA 1.0
;BEFORE_LAYER_CHANGE
G92 E0.0
;0.2


G1 E-0.80000 F2100.00000
G1 Z0.600 F10800.000
;AFTER_LAYER_CHANGE
;0.2
G1 X60.889 Y82.598
G1 Z0.200
G1 E0.80000 F2100.00000
M204 S1000
G1 F1200.000
G1 X61.411 Y82.231 E0.02000
G1 X61.938 Y82.033 E0.01763
G1 X62.496 Y81.965 E0.01763
G1 X181.209 Y81.864 E3.72217
G1 X182.111 Y82.044 E0.02884
G1 X182.875 Y82.549 E0.02872
G1 X183.391 Y83.306 E0.02872
G1 X183.582 Y84.202 E0.02872
G1 X183.582 Y143.291 E1.85268
G1 X183.484 Y143.918 E0.01989
G1 X183.224 Y144.496 E0.01989
G1 X182.818 Y144.988 E0.02000
G1 X182.299 Y145.352 E0.01989
G1 X181.772 Y145.550 E0.01763
G1 X181.214 Y145.619 E0.01763
G1 X62.486 Y145.719 E3.72265
G1 X61.850 Y145.627 E0.02012
G1 X61.263 Y145.369 E0.02012
G1 X60.763 Y144.960 E0.02024
G1 X60.394 Y144.435 E0.02012
G1 X60.196 Y143.909 E0.01763
G1 X60.128 Y143.351 E0.01763
G1 X60.128 Y84.304 E1.85137
G1 X60.224 Y83.673 E0.02000
G1 X60.484 Y83.091 E0.02000
G1 X60.851 Y82.644 E0.01812
G1 F8640.000
G1 X61.411 Y82.231 E-0.16071
G1 X61.938 Y82.033 E-0.12986
G1 X62.496 Y81.965 E-0.12986
G1 X63.966 Y81.964 E-0.33957
G1 E-0.04000 F2100.00000
G1 Z0.800 F10800.000
G1 X63.292 Y85.129
G1 Z0.200
G1 E0.80000 F2100.00000
G1 F1200.000
G1 X111.717 Y85.129 E1.51836
G1 X111.717 Y142.555 E1.80055
G1 X103.292 Y142.555 E0.26419
G1 X103.292 Y93.555 E1.53636
G1 X71.717 Y93.555 E0.98999
G1 X71.717 Y142.555 E1.53636
G1 X63.292 Y142.555 E0.26419
G1 X63.292 Y85.189 E1.79867
G1 F8640.000
G1 X66.583 Y85.185 E-0.76000
G1 E-0.04000 F2100.00000
G1 Z0.800 F10800.000
G1 X102.915 Y93.932
G1 Z0.200
G1 E0.80000 F2100.00000
G1 F1200.000
G1 X72.095 Y93.932 E0.96634
G1 X72.095 Y142.932 E1.53636
G1 X62.915 Y142.932 E0.28783
G1 X62.915 Y84.752 E1.82419
G1 X112.095 Y84.752 E1.54200
G1 X112.095 Y142.932 E1.82419
G1 X102.915 Y142.932 E0.28783
G1 X102.915 Y93.992 E1.53448
G1 X102.890 Y93.533 F10800.000
G1 X102.976 Y93.442
G1 F1200.000
G1 X94.946 Y85.412 E0.35748
G1 X94.411 Y85.412 E0.01685
G1 X102.271 Y93.272 E0.34993
G1 X101.736 Y93.272 E0.01685
G1 X93.876 Y85.412 E0.34993
G1 X93.340 Y85.412 E0.01685
G1 X101.200 Y93.272 E0.34993
G1 X100.665 Y93.272 E0.01685
G1 X92.805 Y85.412 E0.34993
G1 X92.269 Y85.412 E0.01685
G1 X100.130 Y93.272 E0.34993
G1 X99.594 Y93.272 E0.01685
G1 X91.734 Y85.412 E0.34993
G1 X91.199 Y85.412 E0.01685
G1 X99.059 Y93.272 E0.34993
G1 X98.523 Y93.272 E0.01685
G1 X90.663 Y85.412 E0.34993
G1 X90.128 Y85.412 E0.01685
G1 X97.988 Y93.272 E0.34993
G1 X97.453 Y93.272 E0.01685
G1 X89.592 Y85.412 E0.34993
M73 P0 R266
G1 X89.057 Y85.412 E0.01685
G1 X96.917 Y93.272 E0.34993
G1 X96.382 Y93.272 E0.01685
G1 X88.522 Y85.412 E0.34993
G1 X87.986 Y85.412 E0.01685
G1 X95.846 Y93.272 E0.34993
G1 X95.311 Y93.272 E0.01685
G1 X87.451 Y85.412 E0.34993
G1 X86.915 Y85.412 E0.01685
G1 X94.776 Y93.272 E0.34993
G1 X94.240 Y93.272 E0.01685
G1 X86.380 Y85.412 E0.34993
G1 X85.845 Y85.412 E0.01685
G1 X93.705 Y93.272 E0.34993
G1 X93.169 Y93.272 E0.01685
G1 X85.309 Y85.412 E0.34993
G1 X84.774 Y85.412 E0.01685
G1 X92.634 Y93.272 E0.34993
G1 X92.099 Y93.272 E0.01685
G1 X84.238 Y85.412 E0.34993
G1 X83.703 Y85.412 E0.01685
G1 X91.563 Y93.272 E0.34993
G1 X91.028 Y93.272 E0.01685
G1 X83.168 Y85.412 E0.34993
G1 X82.632 Y85.412 E0.01685
G1 X90.492 Y93.272 E0.34993
G1 X89.957 Y93.272 E0.01685
G1 X82.097 Y85.412 E0.34993
G1 X81.561 Y85.412 E0.01685
G1 X89.422 Y93.272 E0.34993
G1 X88.886 Y93.272 E0.01685
G1 X81.026 Y85.412 E0.34993
G1 X80.491 Y85.412 E0.01685
G1 X88.351 Y93.272 E0.34993
G1 X87.815 Y93.272 E0.01685
G1 X79.955 Y85.412 E0.34993
G1 X79.420 Y85.412 E0.01685
G1 X87.280 Y93.272 E0.34993
G1 X86.745 Y93.272 E0.01685
G1 X78.884 Y85.412 E0.34993
G1 X78.349 Y85.412 E0.01685
G1 X86.209 Y93.272 E0.34993
G1 X85.674 Y93.272 E0.01685
G1 X77.814 Y85.412 E0.34993
G1 X77.278 Y85.412 E0.01685
G1 X85.138 Y93.272 E0.34993
G1 X84.603 Y93.272 E0.01685
G1 X76.743 Y85.412 E0.34993
G1 X76.207 Y85.412 E0.01685
G1 X84.068 Y93.272 E0.34993
G1 X83.532 Y93.272 E0.01685
G1 X75.672 Y85.412 E0.34993
G1 X75.137 Y85.412 E0.01685
G1 X82.997 Y93.272 E0.34993
G1 X82.461 Y93.272 E0.01685
G1 X74.601 Y85.412 E0.34993
G1 X74.066 Y85.412 E0.01685
G1 X81.926 Y93.272 E0.34993
G1 X81.391 Y93.272 E0.01685
G1 X73.530 Y85.412 E0.34993
G1 X72.995 Y85.412 E0.01685
G1 X80.855 Y93.272 E0.34993
G1 X80.320 Y93.272 E0.01685
G1 X72.459 Y85.412 E0.34993
G1 X71.924 Y85.412 E0.01685
G1 X79.784 Y93.272 E0.34993
G1 X79.249 Y93.272 E0.01685
G1 X71.389 Y85.412 E0.34993
G1 X70.853 Y85.412 E0.01685
G1 X78.714 Y93.272 E0.34993
G1 X78.178 Y93.272 E0.01685
G1 X70.318 Y85.412 E0.34993
G1 X69.782 Y85.412 E0.01685
G1 X77.643 Y93.272 E0.34993
G1 X77.107 Y93.272 E0.01685
G1 X69.247 Y85.412 E0.34993
G1 X68.712 Y85.412 E0.01685
G1 X76.572 Y93.272 E0.34993
G1 X76.036 Y93.272 E0.01685
G1 X68.176 Y85.412 E0.34993
G1 X67.641 Y85.412 E0.01685
G1 X75.501 Y93.272 E0.34993
G1 X74.966 Y93.272 E0.01685
G1 X67.105 Y85.412 E0.34993
G1 X66.570 Y85.412 E0.01685
G1 X74.430 Y93.272 E0.34993
G1 X73.895 Y93.272 E0.01685
G1 X66.035 Y85.412 E0.34993
G1 X65.499 Y85.412 E0.01685
G1 X73.359 Y93.272 E0.34993
G1 X72.824 Y93.272 E0.01685
G1 X64.964 Y85.412 E0.34993
G1 X64.428 Y85.412 E0.01685
G1 X72.289 Y93.272 E0.34993
G1 X71.753 Y93.272 E0.01685
G1 X63.893 Y85.412 E0.34993
G1 X63.574 Y85.412 E0.01003
G1 X63.574 Y85.629 E0.00683
G1 X71.435 Y93.489 E0.34993
G1 X71.435 Y94.024 E0.01685
G1 X63.574 Y86.164 E0.34993
G1 X63.574 Y86.699 E0.01685
G1 X71.435 Y94.560 E0.34993
G1 X71.435 Y95.095 E0.01685
G1 X63.574 Y87.235 E0.34993
G1 X63.574 Y87.770 E0.01685
G1 X71.435 Y95.631 E0.34993
G1 X71.435 Y96.166 E0.01685
G1 X63.574 Y88.306 E0.34993
G1 X63.574 Y88.841 E0.01685
G1 X71.435 Y96.701 E0.34993
G1 X71.435 Y97.237 E0.01685
G1 X63.574 Y89.376 E0.34993
G1 X63.574 Y89.912 E0.01685
G1 X71.435 Y97.772 E0.34993
G1 X71.435 Y98.308 E0.01685
G1 X63.574 Y90.447 E0.34993
G1 X63.574 Y90.983 E0.01685
G1 X71.435 Y98.843 E0.34993
G1 X71.435 Y99.378 E0.01685
G1 X63.574 Y91.518 E0.34993
G1 X63.574 Y92.053 E0.01685
G1 X71.435 Y99.914 E0.34993
G1 X71.435 Y100.449 E0.01685
G1 X63.574 Y92.589 E0.34993
G1 X63.574 Y93.124 E0.01685
G1 X71.435 Y100.985 E0.34993
G1 X71.435 Y101.520 E0.01685
G1 X63.574 Y93.660 E0.34993
G1 X63.574 Y94.195 E0.01685
G1 X71.435 Y102.055 E0.34993
G1 X71.435 Y102.591 E0.01685
G1 X63.574 Y94.731 E0.34993
G1 X63.574 Y95.266 E0.01685
G1 X71.435 Y103.126 E0.34993
G1 X71.435 Y103.662 E0.01685
G1 X63.574 Y95.801 E0.34993
G1 X63.574 Y96.337 E0.01685
G1 X71.435 Y104.197 E0.34993
G1 X71.435 Y104.732 E0.01685
G1 X63.574 Y96.872 E0.34993
G1 X63.574 Y97.408 E0.01685
G1 X71.435 Y105.268 E0.34993
G1 X71.435 Y105.803 E0.01685
G1 X63.574 Y97.943 E0.34993
G1 X63.574 Y98.478 E0.01685
G1 X71.435 Y106.339 E0.34993
G1 X71.435 Y106.874 E0.01685
G1 X63.574 Y99.014 E0.34993
G1 X63.574 Y99.549 E0.01685
G1 X71.435 Y107.409 E0.34993
G1 X71.435 Y107.945 E0.01685
G1 X63.574 Y100.085 E0.34993
G1 X63.574 Y100.620 E0.01685
G1 X71.435 Y108.480 E0.34993
G1 X71.435 Y109.016 E0.01685
G1 X63.574 Y101.155 E0.34993
G1 X63.574 Y101.691 E0.01685
G1 X71.435 Y109.551 E0.34993
G1 X71.435 Y110.086 E0.01685
G1 X63.574 Y102.226 E0.34993
G1 X63.574 Y102.762 E0.01685
G1 X71.435 Y110.622 E0.34993
G1 X71.435 Y111.157 E0.01685
G1 X63.574 Y103.297 E0.34993
G1 X63.574 Y103.832 E0.01685
G1 X71.435 Y111.693 E0.34993
G1 X71.435 Y112.228 E0.01685
G1 X63.574 Y104.368 E0.34993
G1 X63.574 Y104.903 E0.01685
G1 X71.435 Y112.763 E0.34993
G1 X71.435 Y113.299 E0.01685
G1 X63.574 Y105.439 E0.34993
G1 X63.574 Y105.974 E0.01685
G1 X71.435 Y113.834 E0.34993
G1 X71.435 Y114.370 E0.01685
G1 X63.574 Y106.509 E0.34993
G1 X63.574 Y107.045 E0.01685
G1 X71.435 Y114.905 E0.34993
G1 X71.435 Y115.440 E0.01685
G1 X63.574 Y107.580 E0.34993
G1 X63.574 Y108.116 E0.01685
G1 X71.435 Y115.976 E0.34993
G1 X71.435 Y116.511 E0.01685
G1 X63.574 Y108.651 E0.34993
G1 X63.574 Y109.186 E0.01685
G1 X71.435 Y117.047 E0.34993
G1 X71.435 Y117.582 E0.01685
G1 X63.574 Y109.722 E0.34993
G1 X63.574 Y110.257 E0.01685
G1 X71.435 Y118.117 E0.34993
G1 X71.435 Y118.653 E0.01685
G1 X63.574 Y110.793 E0.34993
G1 X63.574 Y111.328 E0.01685
G1 X71.435 Y119.188 E0.34993
G1 X71.435 Y119.724 E0.01685
G1 X63.574 Y111.863 E0.34993
G1 X63.574 Y112.399 E0.01685
G1 X71.435 Y120.259 E0.34993
G1 X71.435 Y120.795 E0.01685
G1 X63.574 Y112.934 E0.34993
G1 X63.574 Y113.470 E0.01685
G1 X71.435 Y121.330 E0.34993
G1 X71.435 Y121.865 E0.01685
G1 X63.574 Y114.005 E0.34993
M73 P0 R265
G1 X63.574 Y114.540 E0.01685
G1 X71.435 Y122.401 E0.34993
G1 X71.435 Y122.936 E0.01685
G1 X63.574 Y115.076 E0.34993
G1 X63.574 Y115.611 E0.01685
G1 X71.435 Y123.472 E0.34993
G1 X71.435 Y124.007 E0.01685
G1 X63.574 Y116.147 E0.34993
G1 X63.574 Y116.682 E0.01685
G1 X71.435 Y124.542 E0.34993
G1 X71.435 Y125.078 E0.01685
G1 X63.574 Y117.217 E0.34993
G1 X63.574 Y117.753 E0.01685
G1 X71.435 Y125.613 E0.34993
G1 X71.435 Y126.149 E0.01685
G1 X63.574 Y118.288 E0.34993
G1 X63.574 Y118.824 E0.01685
G1 X71.435 Y126.684 E0.34993
G1 X71.435 Y127.219 E0.01685
G1 X63.574 Y119.359 E0.34993
G1 X63.574 Y119.895 E0.01685
G1 X71.435 Y127.755 E0.34993
G1 X71.435 Y128.290 E0.01685
G1 X63.574 Y120.430 E0.34993
G1 X63.574 Y120.965 E0.01685
G1 X71.435 Y128.826 E0.34993
G1 X71.435 Y129.361 E0.01685
G1 X63.574 Y121.501 E0.34993
G1 X63.574 Y122.036 E0.01685
G1 X71.435 Y129.896 E0.34993
G1 X71.435 Y130.432 E0.01685
G1 X63.574 Y122.572 E0.34993
G1 X63.574 Y123.107 E0.01685
G1 X71.435 Y130.967 E0.34993
G1 X71.435 Y131.503 E0.01685
G1 X63.574 Y123.642 E0.34993
G1 X63.574 Y124.178 E0.01685
G1 X71.435 Y132.038 E0.34993
G1 X71.435 Y132.573 E0.01685
G1 X63.574 Y124.713 E0.34993
G1 X63.574 Y125.249 E0.01685
G1 X71.435 Y133.109 E0.34993
G1 X71.435 Y133.644 E0.01685
G1 X63.574 Y125.784 E0.34993
G1 X63.574 Y126.319 E0.01685
G1 X71.435 Y134.180 E0.34993
G1 X71.435 Y134.715 E0.01685
G1 X63.574 Y126.855 E0.34993
G1 X63.574 Y127.390 E0.01685
G1 X71.435 Y135.250 E0.34993
G1 X71.435 Y135.786 E0.01685
G1 X63.574 Y127.926 E0.34993
G1 X63.574 Y128.461 E0.01685
G1 X71.435 Y136.321 E0.34993
G1 X71.435 Y136.857 E0.01685
G1 X63.574 Y128.996 E0.34993
G1 X63.574 Y129.532 E0.01685
G1 X71.435 Y137.392 E0.34993
G1 X71.435 Y137.927 E0.01685
G1 X63.574 Y130.067 E0.34993
G1 X63.574 Y130.603 E0.01685
G1 X71.435 Y138.463 E0.34993
G1 X71.435 Y138.998 E0.01685
G1 X63.574 Y131.138 E0.34993
G1 X63.574 Y131.673 E0.01685
G1 X71.435 Y139.534 E0.34993
G1 X71.435 Y140.069 E0.01685
G1 X63.574 Y132.209 E0.34993
G1 X63.574 Y132.744 E0.01685
G1 X71.435 Y140.604 E0.34993
G1 X71.435 Y141.140 E0.01685
G1 X63.574 Y133.280 E0.34993
G1 X63.574 Y133.815 E0.01685
G1 X71.435 Y141.675 E0.34993
G1 X71.435 Y142.211 E0.01685
G1 X63.574 Y134.350 E0.34993
G1 X63.574 Y134.886 E0.01685
G1 X70.961 Y142.272 E0.32883
G1 X70.425 Y142.272 E0.01685
G1 X63.574 Y135.421 E0.30499
G1 X63.574 Y135.957 E0.01685
G1 X69.890 Y142.272 E0.28116
G1 X69.354 Y142.272 E0.01685
G1 X63.574 Y136.492 E0.25732
G1 X63.574 Y137.027 E0.01685
G1 X68.819 Y142.272 E0.23348
G1 X68.284 Y142.272 E0.01685
G1 X63.574 Y137.563 E0.20965
G1 X63.574 Y138.098 E0.01685
G1 X67.748 Y142.272 E0.18581
G1 X67.213 Y142.272 E0.01685
G1 X63.574 Y138.634 E0.16198
G1 X63.574 Y139.169 E0.01685
G1 X66.677 Y142.272 E0.13814
G1 X66.142 Y142.272 E0.01685
G1 X63.574 Y139.704 E0.11431
G1 X63.574 Y140.240 E0.01685
G1 X65.607 Y142.272 E0.09047
G1 X65.071 Y142.272 E0.01685
G1 X63.574 Y140.775 E0.06663
G1 X63.574 Y141.311 E0.01685
G1 X64.536 Y142.272 E0.04280
G1 X64.000 Y142.272 E0.01685
G1 X63.405 Y141.676 E0.02652
G1 F8640.000
G1 X64.000 Y142.272 E-0.19451
G1 X64.536 Y142.272 E-0.12363
G1 X63.574 Y141.311 E-0.31393
G1 X63.574 Y140.775 E-0.12363
G1 X63.588 Y140.788 E-0.00431
G1 E-0.04000 F2100.00000
G1 Z0.800 F10800.000
G1 X103.405 Y142.056
G1 Z0.200
G1 E0.80000 F2100.00000
G1 F1200.000
G1 X103.620 Y142.272 E0.00960
G1 X104.156 Y142.272 E0.01685
G1 X103.574 Y141.691 E0.02588
G1 X103.574 Y141.155 E0.01685
G1 X104.691 Y142.272 E0.04971
G1 X105.227 Y142.272 E0.01685
G1 X103.574 Y140.620 E0.07355
G1 X103.574 Y140.085 E0.01685
G1 X105.762 Y142.272 E0.09739
G1 X106.297 Y142.272 E0.01685
G1 X103.574 Y139.549 E0.12122
G1 X103.574 Y139.014 E0.01685
G1 X106.833 Y142.272 E0.14506
G1 X107.368 Y142.272 E0.01685
G1 X103.574 Y138.478 E0.16889
G1 X103.574 Y137.943 E0.01685
G1 X107.904 Y142.272 E0.19273
G1 X108.439 Y142.272 E0.01685
G1 X103.574 Y137.408 E0.21656
G1 X103.574 Y136.872 E0.01685
G1 X108.974 Y142.272 E0.24040
G1 X109.510 Y142.272 E0.01685
G1 X103.574 Y136.337 E0.26423
G1 X103.574 Y135.801 E0.01685
G1 X110.045 Y142.272 E0.28807
G1 X110.581 Y142.272 E0.01685
G1 X103.574 Y135.266 E0.31191
G1 X103.574 Y134.731 E0.01685
G1 X111.116 Y142.272 E0.33574
G1 X111.435 Y142.272 E0.01003
G1 X111.435 Y142.055 E0.00682
G1 X103.574 Y134.195 E0.34993
G1 X103.574 Y133.660 E0.01685
G1 X111.435 Y141.520 E0.34993
G1 X111.435 Y140.985 E0.01685
G1 X103.574 Y133.124 E0.34993
G1 X103.574 Y132.589 E0.01685
G1 X111.435 Y140.449 E0.34993
G1 X111.435 Y139.914 E0.01685
G1 X103.574 Y132.053 E0.34993
G1 X103.574 Y131.518 E0.01685
G1 X111.435 Y139.378 E0.34993
G1 X111.435 Y138.843 E0.01685
G1 X103.574 Y130.983 E0.34993
G1 X103.574 Y130.447 E0.01685
G1 X111.435 Y138.308 E0.34993
G1 X111.435 Y137.772 E0.01685
G1 X103.574 Y129.912 E0.34993
G1 X103.574 Y129.376 E0.01685
G1 X111.435 Y137.237 E0.34993
G1 X111.435 Y136.701 E0.01685
G1 X103.574 Y128.841 E0.34993
G1 X103.574 Y128.306 E0.01685
G1 X111.435 Y136.166 E0.34993
G1 X111.435 Y135.631 E0.01685
G1 X103.574 Y127.770 E0.34993
G1 X103.574 Y127.235 E0.01685
G1 X111.435 Y135.095 E0.34993
G1 X111.435 Y134.560 E0.01685
G1 X103.574 Y126.699 E0.34993
G1 X103.574 Y126.164 E0.01685
G1 X111.435 Y134.024 E0.34993
G1 X111.435 Y133.489 E0.01685
G1 X103.574 Y125.629 E0.34993
G1 X103.574 Y125.093 E0.01685
G1 X111.435 Y132.953 E0.34993
G1 X111.435 Y132.418 E0.01685
G1 X103.574 Y124.558 E0.34993
G1 X103.574 Y124.022 E0.01685
G1 X111.435 Y131.883 E0.34993
G1 X111.435 Y131.347 E0.01685
G1 X103.574 Y123.487 E0.34993
G1 X103.574 Y122.952 E0.01685
G1 X111.435 Y130.812 E0.34993
G1 X111.435 Y130.276 E0.01685
G1 X103.574 Y122.416 E0.34993
G1 X103.574 Y121.881 E0.01685
G1 X111.435 Y129.741 E0.34993
G1 X111.435 Y129.206 E0.01685
G1 X103.574 Y121.345 E0.34993
G1 X103.574 Y120.810 E0.01685
G1 X111.435 Y128.670 E0.34993
G1 X111.435 Y128.135 E0.01685
G1 X103.574 Y120.275 E0.34993
G1 X103.574 Y119.739 E0.01685
G1 X111.435 Y127.599 E0.34993
G1 X111.435 Y127.064 E0.01685
G1 X103.574 Y119.204 E0.34993
G1 X103.574 Y118.668 E0.01685
G1 X111.435 Y126.529 E0.34993
G1 X111.435 Y125.993 E0.01685
G1 X103.574 Y118.133 E0.34993
G1 X103.574 Y117.598 E0.01685
G1 X111.435 Y125.458 E0.34993
G1 X111.435 Y124.922 E0.01685
G1 X103.574 Y117.062 E0.34993
G1 X103.574 Y116.527 E0.01685
G1 X111.435 Y124.387 E0.34993
G1 X111.435 Y123.852 E0.01685
G1 X103.574 Y115.991 E0.34993
