( Made using CamBam - http://www.cambam.co.uk )
( Auszeit 3/28/2020 3:22:37 PM )
( T6 : 6.0 )
G21 G90 G64 G40
G0 Z4.0
( T6 : 6.0 )
T6 M6
( Auszeit-Text )
G17
M3 S1000
G0 X-187.07926 Y-41.04353
G0 Z1.0
G1 F300.0 Z-1.0
G2 F800.0 X-190.85805 Y-48.50421 I-612.60815 J305.59474
G3 X-190.95388 Y-48.70021 I4.80234 J-2.46932
G2 X-191.12239 Y-48.80224 I-0.16015 J0.07433
G3 X-191.50365 Y-48.79765 I-0.25559 J-5.39395
G2 X-191.95415 Y-48.68277 I-0.02007 J0.86205
G2 X-189.63782 Y-43.64983 I67.51118 J-28.02145
G3 X-189.60195 Y-43.57775 I-4.81633 J2.44192
G2 X-185.58727 Y-36.06189 I105.56223 J-51.5571
G3 X-185.55625 Y-36.00786 I-4.66767 J2.71531
G2 X-185.3031 Y-35.86425 I0.24652 J-0.13963
G3 X-185.05114 Y-35.86426 I0.12629 J5.39852
G2 X-184.66156 Y-35.94721 I0.02007 J-0.86205
G2 X-187.06143 Y-41.0081 I-93.96442 J41.45847
G3 X-187.07926 Y-41.04353 I4.81431 J-2.44591
G1 F300.0 X-184.93164 Y-42.11485
G2 F800.0 X-188.72368 Y-49.60169 I-614.75576 J306.66606
G3 X-188.77692 Y-49.71058 I2.66796 J-1.37185
G2 X-191.23598 Y-51.19955 I-2.33711 J1.0847
G3 X-191.4478 Y-51.197 I-0.142 J-2.99664
G2 X-193.73709 Y-50.33216 I-0.07592 J3.2614
G3 X-193.87582 Y-50.2117 I-2.03542 J-2.20388
G2 X-194.56665 Y-48.94983 I1.20948 J1.48218
G2 X-194.2688 Y-47.99832 I4.55852 J-0.90459
G3 X-194.24538 Y-47.94307 I-2.75035 J1.19815
G2 X-191.77841 Y-42.56453 I69.8024 J-28.76115
G3 X-191.75848 Y-42.52449 I-2.67574 J1.35662
G2 X-187.66179 Y-34.85509 I107.71877 J-52.61037
G3 X-187.64456 Y-34.82507 I-2.59315 J1.5085
G2 X-185.24697 Y-33.4649 I2.33483 J-1.32242
G3 X-185.10699 Y-33.46491 I0.07016 J2.99918
G2 X-182.8177 Y-34.32976 I0.07592 J-3.2614
G3 X-182.71128 Y-34.42347 I2.03542 J2.20388
G2 X-181.99823 Y-35.69515 I-1.32582 J-1.57916
G2 X-182.33311 Y-36.6163 I-5.3479 J1.42272
G3 X-182.36313 Y-36.6826 I2.71762 J-1.27064
G2 X-184.92174 Y-42.09517 I-96.26284 J42.19386
G3 X-184.93164 Y-42.11485 I2.67461 J-1.35884
G1 F300.0 X-187.07926 Y-41.04353
G1 Z-2.0
G2 F800.0 X-190.85805 Y-48.50421 I-612.60815 J305.59474
G3 X-190.95388 Y-48.70021 I4.80234 J-2.46932
G2 X-191.12239 Y-48.80224 I-0.16015 J0.07433
G3 X-191.50365 Y-48.79765 I-0.25559 J-5.39395
G2 X-191.95415 Y-48.68277 I-0.02007 J0.86205
G2 X-189.63782 Y-43.64983 I67.51118 J-28.02145
G3 X-189.60195 Y-43.57775 I-4.81633 J2.44192
G2 X-185.58727 Y-36.06189 I105.56223 J-51.5571
G3 X-185.55625 Y-36.00786 I-4.66767 J2.71531
G2 X-185.3031 Y-35.86425 I0.24652 J-0.13963
G3 X-185.05114 Y-35.86426 I0.12629 J5.39852
G2 X-184.66156 Y-35.94721 I0.02007 J-0.86205
G2 X-187.06143 Y-41.0081 I-93.96442 J41.45847
G3 X-187.07926 Y-41.04353 I4.81431 J-2.44591
G1 F300.0 X-184.93164 Y-42.11485
G2 F800.0 X-188.72368 Y-49.60169 I-614.75576 J306.66606
G3 X-188.77692 Y-49.71058 I2.66796 J-1.37185
G2 X-191.23598 Y-51.19955 I-2.33711 J1.0847
G3 X-191.4478 Y-51.197 I-0.142 J-2.99664
G2 X-193.73709 Y-50.33216 I-0.07592 J3.2614
G3 X-193.87582 Y-50.2117 I-2.03542 J-2.20388
G2 X-194.56665 Y-48.94983 I1.20948 J1.48218
G2 X-194.2688 Y-47.99832 I4.55852 J-0.90459
G3 X-194.24538 Y-47.94307 I-2.75035 J1.19815
G2 X-191.77841 Y-42.56453 I69.8024 J-28.76115
G3 X-191.75848 Y-42.52449 I-2.67574 J1.35662
G2 X-187.66179 Y-34.85509 I107.71877 J-52.61037
G3 X-187.64456 Y-34.82507 I-2.59315 J1.5085
G2 X-185.24697 Y-33.4649 I2.33483 J-1.32242
G3 X-185.10699 Y-33.46491 I0.07016 J2.99918
G2 X-182.8177 Y-34.32976 I0.07592 J-3.2614
G3 X-182.71128 Y-34.42347 I2.03542 J2.20388
G2 X-181.99823 Y-35.69515 I-1.32582 J-1.57916
G2 X-182.33311 Y-36.6163 I-5.3479 J1.42272
G3 X-182.36313 Y-36.6826 I2.71762 J-1.27064
G2 X-184.92174 Y-42.09517 I-96.26284 J42.19386
G3 X-184.93164 Y-42.11485 I2.67461 J-1.35884
G1 F300.0 X-187.07926 Y-41.04353
G1 Z-3.0
G2 F800.0 X-190.85805 Y-48.50421 I-612.60815 J305.59474
G3 X-190.95388 Y-48.70021 I4.80234 J-2.46932
G2 X-191.12239 Y-48.80224 I-0.16015 J0.07433
G3 X-191.50365 Y-48.79765 I-0.25559 J-5.39395
G2 X-191.95415 Y-48.68277 I-0.02007 J0.86205
G2 X-189.63782 Y-43.64983 I67.51118 J-28.02145
G3 X-189.60195 Y-43.57775 I-4.81633 J2.44192
G2 X-185.58727 Y-36.06189 I105.56223 J-51.5571
G3 X-185.55625 Y-36.00786 I-4.66767 J2.71531
G2 X-185.3031 Y-35.86425 I0.24652 J-0.13963
G3 X-185.05114 Y-35.86426 I0.12629 J5.39852
G2 X-184.66156 Y-35.94721 I0.02007 J-0.86205
G2 X-187.06143 Y-41.0081 I-93.96442 J41.45847
G3 X-187.07926 Y-41.04353 I4.81431 J-2.44591
G1 F300.0 X-184.93164 Y-42.11485
G2 F800.0 X-188.72368 Y-49.60169 I-614.75576 J306.66606
G3 X-188.77692 Y-49.71058 I2.66796 J-1.37185
G2 X-191.23598 Y-51.19955 I-2.33711 J1.0847
G3 X-191.4478 Y-51.197 I-0.142 J-2.99664
G2 X-193.73709 Y-50.33216 I-0.07592 J3.2614
G3 X-193.87582 Y-50.2117 I-2.03542 J-2.20388
G2 X-194.56665 Y-48.94983 I1.20948 J1.48218
G2 X-194.2688 Y-47.99832 I4.55852 J-0.90459
G3 X-194.24538 Y-47.94307 I-2.75035 J1.19815
G2 X-191.77841 Y-42.56453 I69.8024 J-28.76115
G3 X-191.75848 Y-42.52449 I-2.67574 J1.35662
G2 X-187.66179 Y-34.85509 I107.71877 J-52.61037
G3 X-187.64456 Y-34.82507 I-2.59315 J1.5085
G2 X-185.24697 Y-33.4649 I2.33483 J-1.32242
G3 X-185.10699 Y-33.46491 I0.07016 J2.99918
G2 X-182.8177 Y-34.32976 I0.07592 J-3.2614
G3 X-182.71128 Y-34.42347 I2.03542 J2.20388
G2 X-181.99823 Y-35.69515 I-1.32582 J-1.57916
G2 X-182.33311 Y-36.6163 I-5.3479 J1.42272
G3 X-182.36313 Y-36.6826 I2.71762 J-1.27064
G2 X-184.92174 Y-42.09517 I-96.26284 J42.19386
G3 X-184.93164 Y-42.11485 I2.67461 J-1.35884
G1 F300.0 X-187.07926 Y-41.04353
G1 Z-4.0
G2 F800.0 X-190.85805 Y-48.50421 I-612.60815 J305.59474
G3 X-190.95388 Y-48.70021 I4.80234 J-2.46932
G2 X-191.12239 Y-48.80224 I-0.16015 J0.07433
G3 X-191.50365 Y-48.79765 I-0.25559 J-5.39395
G2 X-191.95415 Y-48.68277 I-0.02007 J0.86205
G2 X-189.63782 Y-43.64983 I67.51118 J-28.02145
G3 X-189.60195 Y-43.57775 I-4.81633 J2.44192
G2 X-185.58727 Y-36.06189 I105.56223 J-51.5571
G3 X-185.55625 Y-36.00786 I-4.66767 J2.71531
G2 X-185.3031 Y-35.86425 I0.24652 J-0.13963
G3 X-185.05114 Y-35.86426 I0.12629 J5.39852
G2 X-184.66156 Y-35.94721 I0.02007 J-0.86205
G2 X-187.06143 Y-41.0081 I-93.96442 J41.45847
G3 X-187.07926 Y-41.04353 I4.81431 J-2.44591
G1 F300.0 X-184.93164 Y-42.11485
G2 F800.0 X-188.72368 Y-49.60169 I-614.75576 J306.66606
G3 X-188.77692 Y-49.71058 I2.66796 J-1.37185
G2 X-191.23598 Y-51.19955 I-2.33711 J1.0847
G3 X-191.4478 Y-51.197 I-0.142 J-2.99664
G2 X-193.73709 Y-50.33216 I-0.07592 J3.2614
G3 X-193.87582 Y-50.2117 I-2.03542 J-2.20388
G2 X-194.56665 Y-48.94983 I1.20948 J1.48218
G2 X-194.2688 Y-47.99832 I4.55852 J-0.90459
G3 X-194.24538 Y-47.94307 I-2.75035 J1.19815
G2 X-191.77841 Y-42.56453 I69.8024 J-28.76115
G3 X-191.75848 Y-42.52449 I-2.67574 J1.35662
G2 X-187.66179 Y-34.85509 I107.71877 J-52.61037
G3 X-187.64456 Y-34.82507 I-2.59315 J1.5085
G2 X-185.24697 Y-33.4649 I2.33483 J-1.32242
G3 X-185.10699 Y-33.46491 I0.07016 J2.99918
G2 X-182.8177 Y-34.32976 I0.07592 J-3.2614
G3 X-182.71128 Y-34.42347 I2.03542 J2.20388
G2 X-181.99823 Y-35.69515 I-1.32582 J-1.57916
G2 X-182.33311 Y-36.6163 I-5.3479 J1.42272
G3 X-182.36313 Y-36.6826 I2.71762 J-1.27064
G2 X-184.92174 Y-42.09517 I-96.26284 J42.19386
G3 X-184.93164 Y-42.11485 I2.67461 J-1.35884
G1 F300.0 X-187.07926 Y-41.04353
G1 Z-5.0
G2 F800.0 X-190.85805 Y-48.50421 I-612.60815 J305.59474
G3 X-190.95388 Y-48.70021 I4.80234 J-2.46932
G2 X-191.12239 Y-48.80224 I-0.16015 J0.07433
G3 X-191.50365 Y-48.79765 I-0.25559 J-5.39395
G2 X-191.95415 Y-48.68277 I-0.02007 J0.86205
G2 X-189.63782 Y-43.64983 I67.51118 J-28.02145
G3 X-189.60195 Y-43.57775 I-4.81633 J2.44192
G2 X-185.58727 Y-36.06189 I105.56223 J-51.5571
G3 X-185.55625 Y-36.00786 I-4.66767 J2.71531
G2 X-185.3031 Y-35.86425 I0.24652 J-0.13963
G3 X-185.05114 Y-35.86426 I0.12629 J5.39852
G2 X-184.66156 Y-35.94721 I0.02007 J-0.86205
G2 X-187.06143 Y-41.0081 I-93.96442 J41.45847
G3 X-187.07926 Y-41.04353 I4.81431 J-2.44591
G1 F300.0 X-184.93164 Y-42.11485
G2 F800.0 X-188.72368 Y-49.60169 I-614.75576 J306.66606
G3 X-188.77692 Y-49.71058 I2.66796 J-1.37185
G2 X-191.23598 Y-51.19955 I-2.33711 J1.0847
G3 X-191.4478 Y-51.197 I-0.142 J-2.99664
G2 X-193.73709 Y-50.33216 I-0.07592 J3.2614
G3 X-193.87582 Y-50.2117 I-2.03542 J-2.20388
G2 X-194.56665 Y-48.94983 I1.20948 J1.48218
G2 X-194.2688 Y-47.99832 I4.55852 J-0.90459
G3 X-194.24538 Y-47.94307 I-2.75035 J1.19815
G2 X-191.77841 Y-42.56453 I69.8024 J-28.76115
G3 X-191.75848 Y-42.52449 I-2.67574 J1.35662
G2 X-187.66179 Y-34.85509 I107.71877 J-52.61037
G3 X-187.64456 Y-34.82507 I-2.59315 J1.5085
G2 X-185.24697 Y-33.4649 I2.33483 J-1.32242
G3 X-185.10699 Y-33.46491 I0.07016 J2.99918
G2 X-182.8177 Y-34.32976 I0.07592 J-3.2614
G3 X-182.71128 Y-34.42347 I2.03542 J2.20388
G2 X-181.99823 Y-35.69515 I-1.32582 J-1.57916
G2 X-182.33311 Y-36.6163 I-5.3479 J1.42272
G3 X-182.36313 Y-36.6826 I2.71762 J-1.27064
G2 X-184.92174 Y-42.09517 I-96.26284 J42.19386
G3 X-184.93164 Y-42.11485 I2.67461 J-1.35884
G1 F300.0 X-187.07926 Y-41.04353
G1 Z-5.5
G2 F800.0 X-190.85805 Y-48.50421 I-612.60815 J305.59474
G3 X-190.95388 Y-48.70021 I4.80234 J-2.46932
G2 X-191.12239 Y-48.80224 I-0.16015 J0.07433
G3 X-191.50365 Y-48.79765 I-0.25559 J-5.39395
G2 X-191.95415 Y-48.68277 I-0.02007 J0.86205
G2 X-189.63782 Y-43.64983 I67.51118 J-28.02145
G3 X-189.60195 Y-43.57775 I-4.81633 J2.44192
G2 X-185.58727 Y-36.06189 I105.56223 J-51.5571
G3 X-185.55625 Y-36.00786 I-4.66767 J2.71531
G2 X-185.3031 Y-35.86425 I0.24652 J-0.13963
G3 X-185.05114 Y-35.86426 I0.12629 J5.39852
G2 X-184.66156 Y-35.94721 I0.02007 J-0.86205
G2 X-187.06143 Y-41.0081 I-93.96442 J41.45847
G3 X-187.07926 Y-41.04353 I4.81431 J-2.44591
G1 F300.0 X-184.93164 Y-42.11485
G2 F800.0 X-188.72368 Y-49.60169 I-614.75576 J306.66606
G3 X-188.77692 Y-49.71058 I2.66796 J-1.37185
G2 X-191.23598 Y-51.19955 I-2.33711 J1.0847
G3 X-191.4478 Y-51.197 I-0.142 J-2.99664
G2 X-193.73709 Y-50.33216 I-0.07592 J3.2614
G3 X-193.87582 Y-50.2117 I-2.03542 J-2.20388
G2 X-194.56665 Y-48.94983 I1.20948 J1.48218
G2 X-194.2688 Y-47.99832 I4.55852 J-0.90459
G3 X-194.24538 Y-47.94307 I-2.75035 J1.19815
G2 X-191.77841 Y-42.56453 I69.8024 J-28.76115
G3 X-191.75848 Y-42.52449 I-2.67574 J1.35662
G2 X-187.66179 Y-34.85509 I107.71877 J-52.61037
G3 X-187.64456 Y-34.82507 I-2.59315 J1.5085
G2 X-185.24697 Y-33.4649 I2.33483 J-1.32242
G3 X-185.10699 Y-33.46491 I0.07016 J2.99918
G2 X-182.8177 Y-34.32976 I0.07592 J-3.2614
G3 X-182.71128 Y-34.42347 I2.03542 J2.20388
G2 X-181.99823 Y-35.69515 I-1.32582 J-1.57916
G2 X-182.33311 Y-36.6163 I-5.3479 J1.42272
G3 X-182.36313 Y-36.6826 I2.71762 J-1.27064
G2 X-184.92174 Y-42.09517 I-96.26284 J42.19386
G3 X-184.93164 Y-42.11485 I2.67461 J-1.35884
G0 Z4.0
G0 X-204.19281 Y-35.94721
G0 Z1.0
G1 F300.0 Z-1.0
G2 F800.0 X-206.59268 Y-41.0081 I-93.96442 J41.45847
G3 X-206.61051 Y-41.04353 I4.81431 J-2.44591
G2 X-210.3893 Y-48.50421 I-612.60815 J305.59474
G3 X-210.48513 Y-48.70021 I4.80234 J-2.46932
G2 X-210.65364 Y-48.80224 I-0.16015 J0.07433
G3 X-211.0349 Y-48.79765 I-0.25559 J-5.39395
G2 X-211.4854 Y-48.68277 I-0.02007 J0.86205
G2 X-209.16907 Y-43.64983 I67.51118 J-28.02145
G3 X-209.1332 Y-43.57775 I-4.81633 J2.44192
G2 X-205.11852 Y-36.06189 I105.56223 J-51.5571
G3 X-205.0875 Y-36.00786 I-4.66767 J2.71531
G2 X-204.83435 Y-35.86425 I0.24652 J-0.13963
G3 X-204.58239 Y-35.86426 I0.12629 J5.39852
G2 X-204.19281 Y-35.94721 I0.02007 J-0.86205
G1 F300.0 X-203.16434 Y-33.77875
G2 F800.0 X-202.34895 Y-34.32976 I-1.39798 J-2.94757
G3 X-202.24253 Y-34.42347 I2.03542 J2.20388
G2 X-201.52948 Y-35.69515 I-1.32582 J-1.57916
G2 X-201.86436 Y-36.6163 I-5.3479 J1.42272
G3 X-201.89438 Y-36.6826 I2.71762 J-1.27064
G2 X-204.45299 Y-42.09517 I-96.26284 J42.19386
G3 X-204.46289 Y-42.11485 I2.67461 J-1.35884
G2 X-208.25493 Y-49.60169 I-614.75576 J306.66606
G3 X-208.30817 Y-49.71058 I2.66796 J-1.37185
G2 X-210.76723 Y-51.19955 I-2.33711 J1.0847
G3 X-210.97905 Y-51.197 I-0.142 J-2.99664
G2 X-213.26834 Y-50.33216 I-0.07592 J3.2614
G3 X-213.40707 Y-50.2117 I-2.03542 J-2.20388
G2 X-214.0979 Y-48.94983 I1.20948 J1.48218
G2 X-213.80005 Y-47.99832 I4.55852 J-0.90459
G3 X-213.77663 Y-47.94307 I-2.75035 J1.19815
G2 X-211.30966 Y-42.56453 I69.8024 J-28.76115
G3 X-211.28973 Y-42.52449 I-2.67574 J1.35662
G2 X-207.19304 Y-34.85509 I107.71877 J-52.61037
G3 X-207.17581 Y-34.82507 I-2.59315 J1.5085
G2 X-204.77822 Y-33.4649 I2.33483 J-1.32242
G3 X-204.63824 Y-33.46491 I0.07016 J2.99918
G2 X-203.16434 Y-33.77875 I0.07592 J-3.2614
G1 F300.0 X-204.19281 Y-35.94721
G1 Z-2.0
G2 F800.0 X-206.59268 Y-41.0081 I-93.96442 J41.45847
G3 X-206.61051 Y-41.04353 I4.81431 J-2.44591
G2 X-210.3893 Y-48.50421 I-612.60815 J305.59474
G3 X-210.48513 Y-48.70021 I4.80234 J-2.46932
G2 X-210.65364 Y-48.80224 I-0.16015 J0.07433
G3 X-211.0349 Y-48.79765 I-0.25559 J-5.39395
G2 X-211.4854 Y-48.68277 I-0.02007 J0.86205
G2 X-209.16907 Y-43.64983 I67.51118 J-28.02145
G3 X-209.1332 Y-43.57775 I-4.81633 J2.44192
G2 X-205.11852 Y-36.06189 I105.56223 J-51.5571
G3 X-205.0875 Y-36.00786 I-4.66767 J2.71531
G2 X-204.83435 Y-35.86425 I0.24652 J-0.13963
G3 X-204.58239 Y-35.86426 I0.12629 J5.39852
G2 X-204.19281 Y-35.94721 I0.02007 J-0.86205
G1 F300.0 X-203.16434 Y-33.77875
G2 F800.0 X-202.34895 Y-34.32976 I-1.39798 J-2.94757
G3 X-202.24253 Y-34.42347 I2.03542 J2.20388
G2 X-201.52948 Y-35.69515 I-1.32582 J-1.57916
G2 X-201.86436 Y-36.6163 I-5.3479 J1.42272
G3 X-201.89438 Y-36.6826 I2.71762 J-1.27064
G2 X-204.45299 Y-42.09517 I-96.26284 J42.19386
G3 X-204.46289 Y-42.11485 I2.67461 J-1.35884
G2 X-208.25493 Y-49.60169 I-614.75576 J306.66606
G3 X-208.30817 Y-49.71058 I2.66796 J-1.37185
G2 X-210.76723 Y-51.19955 I-2.33711 J1.0847
G3 X-210.97905 Y-51.197 I-0.142 J-2.99664
G2 X-213.26834 Y-50.33216 I-0.07592 J3.2614
G3 X-213.40707 Y-50.2117 I-2.03542 J-2.20388
G2 X-214.0979 Y-48.94983 I1.20948 J1.48218
G2 X-213.80005 Y-47.99832 I4.55852 J-0.90459
G3 X-213.77663 Y-47.94307 I-2.75035 J1.19815
G2 X-211.30966 Y-42.56453 I69.8024 J-28.76115
G3 X-211.28973 Y-42.52449 I-2.67574 J1.35662
G2 X-207.19304 Y-34.85509 I107.71877 J-52.61037
G3 X-207.17581 Y-34.82507 I-2.59315 J1.5085
G2 X-204.77822 Y-33.4649 I2.33483 J-1.32242
G3 X-204.63824 Y-33.46491 I0.07016 J2.99918
G2 X-203.16434 Y-33.77875 I0.07592 J-3.2614
G1 F300.0 X-204.19281 Y-35.94721
G1 Z-3.0
G2 F800.0 X-206.59268 Y-41.0081 I-93.96442 J41.45847
G3 X-206.61051 Y-41.04353 I4.81431 J-2.44591
G2 X-210.3893 Y-48.50421 I-612.60815 J305.59474
G3 X-210.48513 Y-48.70021 I4.80234 J-2.46932
G2 X-210.65364 Y-48.80224 I-0.16015 J0.07433
G3 X-211.0349 Y-48.79765 I-0.25559 J-5.39395
G2 X-211.4854 Y-48.68277 I-0.02007 J0.86205
G2 X-209.16907 Y-43.64983 I67.51118 J-28.02145
G3 X-209.1332 Y-43.57775 I-4.81633 J2.44192
G2 X-205.11852 Y-36.06189 I105.56223 J-51.5571
G3 X-205.0875 Y-36.00786 I-4.66767 J2.71531
G2 X-204.83435 Y-35.86425 I0.24652 J-0.13963
G3 X-204.58239 Y-35.86426 I0.12629 J5.39852
G2 X-204.19281 Y-35.94721 I0.02007 J-0.86205
G1 F300.0 X-203.16434 Y-33.77875
G2 F800.0 X-202.34895 Y-34.32976 I-1.39798 J-2.94757
G3 X-202.24253 Y-34.42347 I2.03542 J2.20388
G2 X-201.52948 Y-35.69515 I-1.32582 J-1.57916
G2 X-201.86436 Y-36.6163 I-5.3479 J1.42272
G3 X-201.89438 Y-36.6826 I2.71762 J-1.27064
G2 X-204.45299 Y-42.09517 I-96.26284 J42.19386
G3 X-204.46289 Y-42.11485 I2.67461 J-1.35884
G2 X-208.25493 Y-49.60169 I-614.75576 J306.66606
G3 X-208.30817 Y-49.71058 I2.66796 J-1.37185
G2 X-210.76723 Y-51.19955 I-2.33711 J1.0847
G3 X-210.97905 Y-51.197 I-0.142 J-2.99664
G2 X-213.26834 Y-50.33216 I-0.07592 J3.2614
G3 X-213.40707 Y-50.2117 I-2.03542 J-2.20388
G2 X-214.0979 Y-48.94983 I1.20948 J1.48218
G2 X-213.80005 Y-47.99832 I4.55852 J-0.90459
G3 X-213.77663 Y-47.94307 I-2.75035 J1.19815
G2 X-211.30966 Y-42.56453 I69.8024 J-28.76115
G3 X-211.28973 Y-42.52449 I-2.67574 J1.35662
G2 X-207.19304 Y-34.85509 I107.71877 J-52.61037
G3 X-207.17581 Y-34.82507 I-2.59315 J1.5085
G2 X-204.77822 Y-33.4649 I2.33483 J-1.32242
G3 X-204.63824 Y-33.46491 I0.07016 J2.99918
G2 X-203.16434 Y-33.77875 I0.07592 J-3.2614
G1 F300.0 X-204.19281 Y-35.94721
G1 Z-4.0
G2 F800.0 X-206.59268 Y-41.0081 I-93.96442 J41.45847
G3 X-206.61051 Y-41.04353 I4.81431 J-2.44591
G2 X-210.3893 Y-48.50421 I-612.60815 J305.59474
G3 X-210.48513 Y-48.70021 I4.80234 J-2.46932
G2 X-210.65364 Y-48.80224 I-0.16015 J0.07433
G3 X-211.0349 Y-48.79765 I-0.25559 J-5.39395
G2 X-211.4854 Y-48.68277 I-0.02007 J0.86205
G2 X-209.16907 Y-43.64983 I67.51118 J-28.02145
G3 X-209.1332 Y-43.57775 I-4.81633 J2.44192
G2 X-205.11852 Y-36.06189 I105.56223 J-51.5571
G3 X-205.0875 Y-36.00786 I-4.66767 J2.71531
G2 X-204.83435 Y-35.86425 I0.24652 J-0.13963
G3 X-204.58239 Y-35.86426 I0.12629 J5.39852
G2 X-204.19281 Y-35.94721 I0.02007 J-0.86205
G1 F300.0 X-203.16434 Y-33.77875
G2 F800.0 X-202.34895 Y-34.32976 I-1.39798 J-2.94757
G3 X-202.24253 Y-34.42347 I2.03542 J2.20388
G2 X-201.52948 Y-35.69515 I-1.32582 J-1.57916
G2 X-201.86436 Y-36.6163 I-5.3479 J1.42272
G3 X-201.89438 Y-36.6826 I2.71762 J-1.27064
G2 X-204.45299 Y-42.09517 I-96.26284 J42.19386
G3 X-204.46289 Y-42.11485 I2.67461 J-1.35884
G2 X-208.25493 Y-49.60169 I-614.75576 J306.66606
G3 X-208.30817 Y-49.71058 I2.66796 J-1.37185
G2 X-210.76723 Y-51.19955 I-2.33711 J1.0847
G3 X-210.97905 Y-51.197 I-0.142 J-2.99664
G2 X-213.26834 Y-50.33216 I-0.07592 J3.2614
G3 X-213.40707 Y-50.2117 I-2.03542 J-2.20388
G2 X-214.0979 Y-48.94983 I1.20948 J1.48218
G2 X-213.80005 Y-47.99832 I4.55852 J-0.90459
G3 X-213.77663 Y-47.94307 I-2.75035 J1.19815
G2 X-211.30966 Y-42.56453 I69.8024 J-28.76115
G3 X-211.28973 Y-42.52449 I-2.67574 J1.35662
G2 X-207.19304 Y-34.85509 I107.71877 J-52.61037
G3 X-207.17581 Y-34.82507 I-2.59315 J1.5085
G2 X-204.77822 Y-33.4649 I2.33483 J-1.32242
G3 X-204.63824 Y-33.46491 I0.07016 J2.99918
G2 X-203.16434 Y-33.77875 I0.07592 J-3.2614
G1 F300.0 X-204.19281 Y-35.94721
G1 Z-5.0
G2 F800.0 X-206.59268 Y-41.0081 I-93.96442 J41.45847
G3 X-206.61051 Y-41.04353 I4.81431 J-2.44591
G2 X-210.3893 Y-48.50421 I-612.60815 J305.59474
G3 X-210.48513 Y-48.70021 I4.80234 J-2.46932
G2 X-210.65364 Y-48.80224 I-0.16015 J0.07433
G3 X-211.0349 Y-48.79765 I-0.25559 J-5.39395
G2 X-211.4854 Y-48.68277 I-0.02007 J0.86205
G2 X-209.16907 Y-43.64983 I67.51118 J-28.02145
G3 X-209.1332 Y-43.57775 I-4.81633 J2.44192
G2 X-205.11852 Y-36.06189 I105.56223 J-51.5571
G3 X-205.0875 Y-36.00786 I-4.66767 J2.71531
G2 X-204.83435 Y-35.86425 I0.24652 J-0.13963
G3 X-204.58239 Y-35.86426 I0.12629 J5.39852
G2 X-204.19281 Y-35.94721 I0.02007 J-0.86205
G1 F300.0 X-203.16434 Y-33.77875
G2 F800.0 X-202.34895 Y-34.32976 I-1.39798 J-2.94757
G3 X-202.24253 Y-34.42347 I2.03542 J2.20388
G2 X-201.52948 Y-35.69515 I-1.32582 J-1.57916
G2 X-201.86436 Y-36.6163 I-5.3479 J1.42272
G3 X-201.89438 Y-36.6826 I2.71762 J-1.27064
G2 X-204.45299 Y-42.09517 I-96.26284 J42.19386
G3 X-204.46289 Y-42.11485 I2.67461 J-1.35884
G2 X-208.25493 Y-49.60169 I-614.75576 J306.66606
G3 X-208.30817 Y-49.71058 I2.66796 J-1.37185
G2 X-210.76723 Y-51.19955 I-2.33711 J1.0847
G3 X-210.97905 Y-51.197 I-0.142 J-2.99664
G2 X-213.26834 Y-50.33216 I-0.07592 J3.2614
G3 X-213.40707 Y-50.2117 I-2.03542 J-2.20388
G2 X-214.0979 Y-48.94983 I1.20948 J1.48218
G2 X-213.80005 Y-47.99832 I4.55852 J-0.90459
G3 X-213.77663 Y-47.94307 I-2.75035 J1.19815
G2 X-211.30966 Y-42.56453 I69.8024 J-28.76115
G3 X-211.28973 Y-42.52449 I-2.67574 J1.35662
G2 X-207.19304 Y-34.85509 I107.71877 J-52.61037
G3 X-207.17581 Y-34.82507 I-2.59315 J1.5085
G2 X-204.77822 Y-33.4649 I2.33483 J-1.32242
G3 X-204.63824 Y-33.46491 I0.07016 J2.99918
G2 X-203.16434 Y-33.77875 I0.07592 J-3.2614
G1 F300.0 X-204.19281 Y-35.94721
G1 Z-5.5
G2 F800.0 X-206.59268 Y-41.0081 I-93.96442 J41.45847
G3 X-206.61051 Y-41.04353 I4.81431 J-2.44591
G2 X-210.3893 Y-48.50421 I-612.60815 J305.59474
G3 X-210.48513 Y-48.70021 I4.80234 J-2.46932
G2 X-210.65364 Y-48.80224 I-0.16015 J0.07433
G3 X-211.0349 Y-48.79765 I-0.25559 J-5.39395
G2 X-211.4854 Y-48.68277 I-0.02007 J0.86205
G2 X-209.16907 Y-43.64983 I67.51118 J-28.02145
G3 X-209.1332 Y-43.57775 I-4.81633 J2.44192
G2 X-205.11852 Y-36.06189 I105.56223 J-51.5571
G3 X-205.0875 Y-36.00786 I-4.66767 J2.71531
G2 X-204.83435 Y-35.86425 I0.24652 J-0.13963
G3 X-204.58239 Y-35.86426 I0.12629 J5.39852
G2 X-204.19281 Y-35.94721 I0.02007 J-0.86205
G1 F300.0 X-203.16434 Y-33.77875
G2 F800.0 X-202.34895 Y-34.32976 I-1.39798 J-2.94757
G3 X-202.24253 Y-34.42347 I2.03542 J2.20388
G2 X-201.52948 Y-35.69515 I-1.32582 J-1.57916
G2 X-201.86436 Y-36.6163 I-5.3479 J1.42272
G3 X-201.89438 Y-36.6826 I2.71762 J-1.27064
G2 X-204.45299 Y-42.09517 I-96.26284 J42.19386
G3 X-204.46289 Y-42.11485 I2.67461 J-1.35884
G2 X-208.25493 Y-49.60169 I-614.75576 J306.66606
G3 X-208.30817 Y-49.71058 I2.66796 J-1.37185
G2 X-210.76723 Y-51.19955 I-2.33711 J1.0847
G3 X-210.97905 Y-51.197 I-0.142 J-2.99664
G2 X-213.26834 Y-50.33216 I-0.07592 J3.2614
G3 X-213.40707 Y-50.2117 I-2.03542 J-2.20388
G2 X-214.0979 Y-48.94983 I1.20948 J1.48218
G2 X-213.80005 Y-47.99832 I4.55852 J-0.90459
G3 X-213.77663 Y-47.94307 I-2.75035 J1.19815
G2 X-211.30966 Y-42.56453 I69.8024 J-28.76115
G3 X-211.28973 Y-42.52449 I-2.67574 J1.35662
G2 X-207.19304 Y-34.85509 I107.71877 J-52.61037
G3 X-207.17581 Y-34.82507 I-2.59315 J1.5085
G2 X-204.77822 Y-33.4649 I2.33483 J-1.32242
G3 X-204.63824 Y-33.46491 I0.07016 J2.99918
G2 X-203.16434 Y-33.77875 I0.07592 J-3.2614
G0 Z4.0
G0 X-153.68073 Y-11.3054
G0 Z1.0
G1 F300.0 Z-1.0
G2 F800.0 X-152.08543 Y-8.59121 I422.08362 J-246.25923
G3 X-151.06773 Y-10.86754 I7.53362 J2.00244
G3 X-152.88298 Y-11.13784 I18.58518 J-131.04118
G3 X-153.68073 Y-11.3054 I1.20227 J-7.70679
G0 Z4.0
G0 X-124.3655 Y-9.62484
G0 Z1.0
G1 F300.0 Z-1.0
G3 F800.0 X-123.74714 Y-8.52349 I-6.46561 J4.35443
G3 X-123.34475 Y-10.27831 I1368.97865 J312.98926
G3 X-124.3655 Y-9.62484 I-4.70315 J-6.22257
G0 Z4.0
G0 X-131.0193 Y19.70142
G0 Z1.0
G1 F300.0 Z-1.0
G3 F800.0 X-132.22486 Y20.04081 I-3.03446 J-8.46792
G2 X-131.64835 Y20.84185 I204.74479 J-146.74921
G2 X-131.32743 Y21.28244 I67.16173 J-48.58255
G3 X-131.0193 Y19.70142 I1356.55993 J263.55916
G1 F300.0 X-131.42411 Y18.57176
G3 F800.0 X-134.42211 Y19.01999 I-2.62965 J-7.33826
G2 X-132.62079 Y21.54495 I206.94203 J-145.72839
G2 X-130.65923 Y24.14886 I68.13418 J-49.28566
G3 X-129.3547 Y17.45314 I1355.89173 J260.69273
G3 X-131.42411 Y18.57176 I-4.69906 J-6.21965
G1 F300.0 X-132.23373 Y16.31244
G3 F800.0 X-138.71193 Y13.95556 I-1.82003 J-5.07894
G2 X-149.19092 Y-3.83436 I-2561.99555 J1497.13943
G3 X-143.58431 Y-11.89651 I4.63912 J-2.75441
G2 X-137.46087 Y-11.19669 I8.31503 J-45.61658
G3 X-137.41896 Y-11.19454 I-0.255 J5.38917
G3 X-130.28898 Y-10.6383 I-8.63267 J156.63007
G3 X-125.52807 Y-4.27743 I-0.54213 J5.36789
G3 X-128.76672 Y12.3084 I-1073.53639 J-201.01633
G3 X-132.23373 Y16.31244 I-5.28704 J-1.07491
G1 F300.0 X-133.04173 Y14.05764
G3 F800.0 X-136.64393 Y12.7471 I-1.01203 J-2.82415
G2 X-147.13139 Y-5.05718 I-2564.06355 J1498.34789
G3 X-144.01383 Y-9.54014 I2.57958 J-1.53159
G2 X-137.57408 Y-8.80417 I8.74456 J-47.97295
G3 X-137.55078 Y-8.80297 I-0.14179 J2.99665
G3 X-130.52965 Y-8.25523 I-8.50086 J154.2385
G3 X-127.88235 Y-4.71827 I-0.30145 J2.98482
G3 X-131.11391 Y11.8312 I-1071.18211 J-200.5755
G3 X-133.04173 Y14.05764 I-2.93986 J-0.5977
G0 Z4.0
G0 X-138.2929 Y17.65358
G0 Z1.0
G1 F300.0 Z-1.0
G2 F800.0 X-134.56568 Y22.95115 I210.81283 J-144.36198
G2 X-131.1026 Y27.42314 I70.07907 J-50.69186
G2 X-129.70368 Y28.98473 I21.15853 J-17.54705
G2 X-128.78333 Y27.116 I-4.11637 J-3.18832
G3 X-125.72349 Y11.5299 I1354.01584 J257.72559
G3 X-125.71146 Y11.4721 I5.29277 J1.07078
G3 X-118.40794 Y-20.83006 I1370.94297 J292.99367
G3 X-118.27755 Y-21.28666 I5.25262 J1.25301
G3 X-115.62175 Y-28.16547 I75.53519 J25.2109
G2 X-114.668 Y-30.74024 I-27.59015 J-11.68405
G3 X-114.63425 Y-30.84245 I5.14438 J1.64174
G2 X-114.30783 Y-32.46575 I-6.02524 J-2.05605
G2 X-114.5445 Y-32.93583 I-0.67125 J0.04334
G3 X-114.78405 Y-33.15118 I3.48879 J-4.12169
G2 X-115.2148 Y-33.41045 I-0.79437 J0.8323
G2 X-116.81262 Y-31.28575 I6.93503 J6.87845
G3 X-116.85658 Y-31.20835 I-4.71733 J-2.62808
G2 X-118.64332 Y-27.64993 I29.00862 J16.79347
G3 X-118.65636 Y-27.61983 I-4.96122 J-2.1322
G2 X-122.79473 Y-15.25022 I67.13971 J29.33925
G3 X-128.7183 Y-11.14266 I-5.25318 J-1.25066
G2 X-140.17113 Y-12.18382 I-21.11804 J168.78728
G3 X-140.18435 Y-12.18459 I0.30683 J-5.39128
G3 X-152.51305 Y-13.50916 I7.70179 J-129.72413
G3 X-156.61976 Y-16.66156 I0.83234 J-5.33547
G2 X-164.2033 Y-32.36148 I-235.97589 J104.302
G2 X-164.80964 Y-32.99529 I-1.86516 J1.17737
G2 X-165.35463 Y-33.12321 I-0.52482 J1.01106
G3 X-165.46479 Y-33.12238 I-0.09562 J-5.39915
G2 X-166.7316 Y-32.64893 I-0.00517 J1.91768
G3 X-166.84233 Y-32.55479 I-3.55263 J-4.06679
G2 X-167.01702 Y-32.28014 I0.33668 J0.40702
G2 X-166.85227 Y-31.69613 I3.45248 J-0.65872
G3 X-166.83381 Y-31.64657 I-5.05119 J1.90931
G2 X-163.91277 Y-24.69814 I76.34886 J-28.00795
G3 X-163.89314 Y-24.65644 I-4.87569 J2.32114
G2 X-160.46756 Y-17.53601 I283.67946 J-132.09175
G3 X-160.03681 Y-13.94236 I-4.8362 J2.40232
G2 X-159.69357 Y-13.83849 I2.75265 J-8.47703
G3 X-156.48118 Y-11.34706 I-1.4598 J5.19894
G2 X-141.21931 Y13.28443 I424.88407 J-246.21758
G3 X-141.20664 Y13.30368 I-4.50437 J2.97836
G2 X-138.2929 Y17.65358 I213.72657 J-140.01209
G1 F300.0 X-140.27311 Y19.00959
G2 F800.0 X-136.51057 Y24.35735 I212.79303 J-145.718
G2 X-132.95054 Y28.95452 I72.02396 J-52.09806
G2 X-131.099 Y30.98896 I23.00648 J-19.07842
G2 X-130.2352 Y31.74929 I6.46464 J-6.47354
G3 X-130.21762 Y31.763 I-1.83661 J2.3721
G2 X-128.08764 Y30.79656 I-0.25103 J-3.38367
G2 X-126.4395 Y27.63749 I-5.73241 J-5.00015
G3 X-123.37114 Y12.00581 I1351.67201 J257.2041
G3 X-123.36446 Y11.97369 I2.94043 J0.59488
G3 X-116.07344 Y-20.27317 I1368.59597 J292.49208
G3 X-116.00101 Y-20.52684 I2.91812 J0.69612
G3 X-113.41857 Y-27.21348 I73.25864 J24.45107
G2 X-112.3816 Y-30.01058 I-29.79332 J-12.63604
G3 X-112.36286 Y-30.06736 I2.85799 J0.91208
G2 X-111.90644 Y-32.41514 I-8.29664 J-2.83114
G2 X-112.99393 Y-34.76769 I-3.07264 J-0.00727
G3 X-113.12701 Y-34.88733 I1.93822 J-2.28983
G2 X-115.64103 Y-35.86887 I-2.45141 J2.56846
G2 X-116.60519 Y-35.40593 I0.2141 J1.6814
G3 X-116.63148 Y-35.38082 I-2.08544 J-2.1566
G2 X-118.90921 Y-32.45378 I8.35171 J8.84882
G3 X-118.93364 Y-32.41078 I-2.62074 J-1.46004
G2 X-120.84831 Y-28.59757 I31.08567 J17.9959
G3 X-120.85555 Y-28.58085 I-2.75623 J-1.18456
G2 X-125.12947 Y-15.80607 I69.3389 J30.30027
G3 X-128.42035 Y-13.52409 I-2.91843 J-0.69481
G2 X-140.03477 Y-14.57995 I-21.416 J171.16871
G3 X-140.04211 Y-14.58037 I0.17046 J-2.99515
G3 X-152.14313 Y-15.88048 I7.55956 J-127.32835
G3 X-154.42463 Y-17.63181 I0.46241 J-2.96415
G2 X-162.11504 Y-33.54689 I-238.17102 J105.27226
G2 X-163.5553 Y-35.04368 I-3.95343 J2.36278
G2 X-165.39712 Y-35.52283 I-1.77916 J3.05944
G3 X-165.45833 Y-35.52237 I-0.05312 J-2.99953
G2 X-168.31054 Y-34.45639 I-0.01163 J4.31767
G3 X-168.37207 Y-34.40409 I-1.97369 J-2.25933
G2 X-169.43335 Y-32.20304 I1.86641 J2.25632
G2 X-169.09724 Y-30.84754 I5.86881 J-0.73582
G3 X-169.08699 Y-30.82001 I-2.80622 J1.06073
G2 X-166.07975 Y-23.66652 I78.60203 J-28.83451
G3 X-166.06884 Y-23.64336 I-2.70871 J1.28952
G2 X-162.61698 Y-16.46831 I285.85516 J-133.10484
G3 X-162.6059 Y-13.82161 I-2.68678 J1.33462
G2 X-162.89227 Y-12.70102 I2.58629 J1.25782
G2 X-162.13652 Y-12.19934 I1.86001 J-1.9819
G3 X-162.08281 Y-12.17482 I-1.21883 J2.74125
G2 X-160.34237 Y-11.52785 I4.79865 J-10.24457
G3 X-158.55771 Y-10.14372 I-0.811 J2.8883
G2 X-143.22126 Y14.60815 I426.9606 J-247.42091
G3 X-143.21422 Y14.61884 I-2.50243 J1.65465
G2 X-140.27311 Y19.00959 I215.73414 J-141.32725
G0 Z4.0
G0 X-132.22486 Y20.04081
G0 Z0.0
G1 F300.0 Z-2.0
G2 F800.0 X-131.64835 Y20.84185 I204.74479 J-146.74921
G2 X-131.32743 Y21.28244 I67.16173 J-48.58255
G3 X-131.0193 Y19.70142 I1356.55993 J263.55916
G3 X-132.22486 Y20.04081 I-3.03446 J-8.46792
G1 F300.0 X-133.20021 Y20.73988
G2 F800.0 X-132.62079 Y21.54495 I205.72013 J-147.44828
G2 X-130.65923 Y24.14886 I68.13418 J-49.28566
G3 X-129.3547 Y17.45314 I1355.89173 J260.69273
G3 X-134.42211 Y19.01999 I-4.69906 J-6.21965
G2 X-133.20021 Y20.73988 I206.94203 J-145.72839
G0 Z4.0
G0 X-123.74714 Y-8.52349
G0 Z0.0
G1 F300.0 Z-2.0
G3 F800.0 X-123.34475 Y-10.27831 I1368.97865 J312.98926
G3 X-124.3655 Y-9.62484 I-4.70315 J-6.22257
G3 X-123.74714 Y-8.52349 I-6.46561 J4.35443
G0 Z4.0
G0 X-151.06773 Y-10.86754
G0 Z0.0
G1 F300.0 Z-2.0
G3 F800.0 X-152.88298 Y-11.13784 I18.58518 J-131.04118
G3 X-153.68073 Y-11.3054 I1.20227 J-7.70679
G2 X-152.08543 Y-8.59121 I422.08362 J-246.25923
G3 X-151.06773 Y-10.86754 I7.53362 J2.00244
G1 F300.0 X-149.0616 Y-9.55019
G3 F800.0 X-143.58431 Y-11.89651 I4.50979 J2.96141
G2 X-137.46087 Y-11.19669 I8.31503 J-45.61658
G3 X-137.41896 Y-11.19454 I-0.255 J5.38917
G3 X-130.28898 Y-10.6383 I-8.63267 J156.63007
G3 X-125.52807 Y-4.27743 I-0.54213 J5.36789
G3 X-128.76672 Y12.3084 I-1073.53639 J-201.01633
G3 X-138.71193 Y13.95556 I-5.28704 J-1.07491
G2 X-149.19092 Y-3.83436 I-2561.99555 J1497.13943
G3 X-149.0616 Y-9.55019 I4.63912 J-2.75441
G1 F300.0 X-147.05948 Y-8.23546
G3 F800.0 X-144.01383 Y-9.54014 I2.50767 J1.64669
G2 X-137.57408 Y-8.80417 I8.74456 J-47.97295
G3 X-137.55078 Y-8.80297 I-0.14179 J2.99665
G3 X-130.52965 Y-8.25523 I-8.50086 J154.2385
G3 X-127.88235 Y-4.71827 I-0.30145 J2.98482
G3 X-131.11391 Y11.8312 I-1071.18211 J-200.5755
G3 X-136.64393 Y12.7471 I-2.93986 J-0.5977
G2 X-147.13139 Y-5.05718 I-2564.06355 J1498.34789
G3 X-147.05948 Y-8.23546 I2.57958 J-1.53159
G0 Z4.0
G0 X-146.57022 Y-12.72201
G0 Z0.0
G1 F300.0 Z-2.0
G3 F800.0 X-152.51305 Y-13.50916 I14.08767 J-129.18671
G3 X-156.61976 Y-16.66156 I0.83234 J-5.33547
G2 X-164.2033 Y-32.36148 I-235.97589 J104.302
G2 X-164.80964 Y-32.99529 I-1.86516 J1.17737
G2 X-165.35463 Y-33.12321 I-0.52482 J1.01106
G3 X-165.46479 Y-33.12238 I-0.09562 J-5.39915
G2 X-166.7316 Y-32.64893 I-0.00517 J1.91768
G3 X-166.84233 Y-32.55479 I-3.55263 J-4.06679
G2 X-167.01702 Y-32.28014 I0.33668 J0.40702
G2 X-166.85227 Y-31.69613 I3.45248 J-0.65872
G3 X-166.83381 Y-31.64657 I-5.05119 J1.90931
G2 X-163.91277 Y-24.69814 I76.34886 J-28.00795
G3 X-163.89314 Y-24.65644 I-4.87569 J2.32114
G2 X-160.46756 Y-17.53601 I283.67946 J-132.09175
G3 X-160.03681 Y-13.94236 I-4.8362 J2.40232
G2 X-159.69357 Y-13.83849 I2.75265 J-8.47703
G3 X-156.48118 Y-11.34706 I-1.4598 J5.19894
G2 X-141.21931 Y13.28443 I424.88407 J-246.21758
G3 X-141.20664 Y13.30368 I-4.50437 J2.97836
G2 X-134.56568 Y22.95115 I213.72657 J-140.01209
G2 X-131.1026 Y27.42314 I70.07907 J-50.69186
G2 X-129.70368 Y28.98473 I21.15853 J-17.54705
G2 X-128.78333 Y27.116 I-4.11637 J-3.18832
G3 X-125.72349 Y11.5299 I1354.01584 J257.72559
G3 X-125.71146 Y11.4721 I5.29277 J1.07078
G3 X-118.40794 Y-20.83006 I1370.94297 J292.99367
G3 X-118.27755 Y-21.28666 I5.25262 J1.25301
G3 X-115.62175 Y-28.16547 I75.53519 J25.2109
G2 X-114.668 Y-30.74024 I-27.59015 J-11.68405
G3 X-114.63425 Y-30.84245 I5.14438 J1.64174
G2 X-114.30783 Y-32.46575 I-6.02524 J-2.05605
G2 X-114.5445 Y-32.93583 I-0.67125 J0.04334
G3 X-114.78405 Y-33.15118 I3.48879 J-4.12169
G2 X-115.2148 Y-33.41045 I-0.79437 J0.8323
G2 X-116.81262 Y-31.28575 I6.93503 J6.87845
G3 X-116.85658 Y-31.20835 I-4.71733 J-2.62808
G2 X-118.64332 Y-27.64993 I29.00862 J16.79347
G3 X-118.65636 Y-27.61983 I-4.96122 J-2.1322
G2 X-122.79473 Y-15.25022 I67.13971 J29.33925
G3 X-128.7183 Y-11.14266 I-5.25318 J-1.25066
G2 X-140.17113 Y-12.18382 I-21.11804 J168.78728
G3 X-140.18435 Y-12.18459 I0.30683 J-5.39128
G3 X-146.57022 Y-12.72201 I7.70179 J-129.72413
G1 F300.0 X-146.31005 Y-15.10787
G3 F800.0 X-152.14313 Y-15.88048 I13.8275 J-126.80085
G3 X-154.42463 Y-17.63181 I0.46241 J-2.96415
G2 X-162.11504 Y-33.54689 I-238.17102 J105.27226
G2 X-163.5553 Y-35.04368 I-3.95343 J2.36278
G2 X-165.39712 Y-35.52283 I-1.77916 J3.05944
G3 X-165.45833 Y-35.52237 I-0.05312 J-2.99953
G2 X-168.31054 Y-34.45639 I-0.01163 J4.31767
G3 X-168.37207 Y-34.40409 I-1.97369 J-2.25933
G2 X-169.43335 Y-32.20304 I1.86641 J2.25632
G2 X-169.09724 Y-30.84754 I5.86881 J-0.73582
G3 X-169.08699 Y-30.82001 I-2.80622 J1.06073
G2 X-166.07975 Y-23.66652 I78.60203 J-28.83451
G3 X-166.06884 Y-23.64336 I-2.70871 J1.28952
G2 X-162.61698 Y-16.46831 I285.85516 J-133.10484
G3 X-162.6059 Y-13.82161 I-2.68678 J1.33462
G2 X-162.89227 Y-12.70102 I2.58629 J1.25782
G2 X-162.13652 Y-12.19934 I1.86001 J-1.9819
G3 X-162.08281 Y-12.17482 I-1.21883 J2.74125
G2 X-160.34237 Y-11.52785 I4.79865 J-10.24457
G3 X-158.55771 Y-10.14372 I-0.811 J2.8883
G2 X-143.22126 Y14.60815 I426.9606 J-247.42091
G3 X-143.21422 Y14.61884 I-2.50243 J1.65465
G2 X-136.51057 Y24.35735 I215.73414 J-141.32725
G2 X-132.95054 Y28.95452 I72.02396 J-52.09806
G2 X-131.099 Y30.98896 I23.00648 J-19.07842
G2 X-130.2352 Y31.74929 I6.46464 J-6.47354
G3 X-130.21762 Y31.763 I-1.83661 J2.3721
G2 X-128.08764 Y30.79656 I-0.25103 J-3.38367
G2 X-126.4395 Y27.63749 I-5.73241 J-5.00015
G3 X-123.37114 Y12.00581 I1351.67201 J257.2041
G3 X-123.36446 Y11.97369 I2.94043 J0.59488
G3 X-116.07344 Y-20.27317 I1368.59597 J292.49208
G3 X-116.00101 Y-20.52684 I2.91812 J0.69612
G3 X-113.41857 Y-27.21348 I73.25864 J24.45107
G2 X-112.3816 Y-30.01058 I-29.79332 J-12.63604
G3 X-112.36286 Y-30.06736 I2.85799 J0.91208
G2 X-111.90644 Y-32.41514 I-8.29664 J-2.83114
G2 X-112.99393 Y-34.76769 I-3.07264 J-0.00727
G3 X-113.12701 Y-34.88733 I1.93822 J-2.28983
G2 X-115.64103 Y-35.86887 I-2.45141 J2.56846
G2 X-116.60519 Y-35.40593 I0.2141 J1.6814
G3 X-116.63148 Y-35.38082 I-2.08544 J-2.1566
G2 X-118.90921 Y-32.45378 I8.35171 J8.84882
G3 X-118.93364 Y-32.41078 I-2.62074 J-1.46004
G2 X-120.84831 Y-28.59757 I31.08567 J17.9959
G3 X-120.85555 Y-28.58085 I-2.75623 J-1.18456
G2 X-125.12947 Y-15.80607 I69.3389 J30.30027
G3 X-128.42035 Y-13.52409 I-2.91843 J-0.69481
G2 X-140.03477 Y-14.57995 I-21.416 J171.16871
G3 X-140.04211 Y-14.58037 I0.17046 J-2.99515
G3 X-146.31005 Y-15.10787 I7.55956 J-127.32835
G0 Z4.0
G0 X-151.06773 Y-10.86754
G0 Z-1.0
G1 F300.0 Z-3.0
G3 F800.0 X-152.88298 Y-11.13784 I18.58518 J-131.04118
G3 X-153.68073 Y-11.3054 I1.20227 J-7.70679
G2 X-152.08543 Y-8.59121 I422.08362 J-246.25923
G3 X-151.06773 Y-10.86754 I7.53362 J2.00244
G0 Z4.0
G0 X-124.3655 Y-9.62484
G0 Z-1.0
G1 F300.0 Z-3.0
G3 F800.0 X-123.74714 Y-8.52349 I-6.46561 J4.35443
G3 X-123.34475 Y-10.27831 I1368.97865 J312.98926
G3 X-124.3655 Y-9.62484 I-4.70315 J-6.22257
G0 Z4.0
G0 X-131.0193 Y19.70142
G0 Z-1.0
G1 F300.0 Z-3.0
G3 F800.0 X-132.22486 Y20.04081 I-3.03446 J-8.46792
G2 X-131.64835 Y20.84185 I204.74479 J-146.74921
G2 X-131.32743 Y21.28244 I67.16173 J-48.58255
G3 X-131.0193 Y19.70142 I1356.55993 J263.55916
G1 F300.0 X-131.42411 Y18.57176
G3 F800.0 X-134.42211 Y19.01999 I-2.62965 J-7.33826
G2 X-132.62079 Y21.54495 I206.94203 J-145.72839
G2 X-130.65923 Y24.14886 I68.13418 J-49.28566
G3 X-129.3547 Y17.45314 I1355.89173 J260.69273
G3 X-131.42411 Y18.57176 I-4.69906 J-6.21965
G1 F300.0 X-132.23373 Y16.31244
G3 F800.0 X-138.71193 Y13.95556 I-1.82003 J-5.07894
G2 X-149.19092 Y-3.83436 I-2561.99555 J1497.13943
G3 X-143.58431 Y-11.89651 I4.63912 J-2.75441
G2 X-137.46087 Y-11.19669 I8.31503 J-45.61658
G3 X-137.41896 Y-11.19454 I-0.255 J5.38917
G3 X-130.28898 Y-10.6383 I-8.63267 J156.63007
G3 X-125.52807 Y-4.27743 I-0.54213 J5.36789
G3 X-128.76672 Y12.3084 I-1073.53639 J-201.01633
G3 X-132.23373 Y16.31244 I-5.28704 J-1.07491
G1 F300.0 X-133.04173 Y14.05764
G3 F800.0 X-136.64393 Y12.7471 I-1.01203 J-2.82415
G2 X-147.13139 Y-5.05718 I-2564.06355 J1498.34789
G3 X-144.01383 Y-9.54014 I2.57958 J-1.53159
G2 X-137.57408 Y-8.80417 I8.74456 J-47.97295
G3 X-137.55078 Y-8.80297 I-0.14179 J2.99665
G3 X-130.52965 Y-8.25523 I-8.50086 J154.2385
G3 X-127.88235 Y-4.71827 I-0.30145 J2.98482
G3 X-131.11391 Y11.8312 I-1071.18211 J-200.5755
G3 X-133.04173 Y14.05764 I-2.93986 J-0.5977
G0 Z4.0
G0 X-138.2929 Y17.65358
G0 Z-1.0
G1 F300.0 Z-3.0
G2 F800.0 X-134.56568 Y22.95115 I210.81283 J-144.36198
G2 X-131.1026 Y27.42314 I70.07907 J-50.69186
G2 X-129.70368 Y28.98473 I21.15853 J-17.54705
G2 X-128.78333 Y27.116 I-4.11637 J-3.18832
G3 X-125.72349 Y11.5299 I1354.01584 J257.72559
G3 X-125.71146 Y11.4721 I5.29277 J1.07078
G3 X-118.40794 Y-20.83006 I1370.94297 J292.99367
G3 X-118.27755 Y-21.28666 I5.25262 J1.25301
G3 X-115.62175 Y-28.16547 I75.53519 J25.2109
G2 X-114.668 Y-30.74024 I-27.59015 J-11.68405
G3 X-114.63425 Y-30.84245 I5.14438 J1.64174
G2 X-114.30783 Y-32.46575 I-6.02524 J-2.05605
G2 X-114.5445 Y-32.93583 I-0.67125 J0.04334
G3 X-114.78405 Y-33.15118 I3.48879 J-4.12169
G2 X-115.2148 Y-33.41045 I-0.79437 J0.8323
G2 X-116.81262 Y-31.28575 I6.93503 J6.87845
G3 X-116.85658 Y-31.20835 I-4.71733 J-2.62808
G2 X-118.64332 Y-27.64993 I29.00862 J16.79347
G3 X-118.65636 Y-27.61983 I-4.96122 J-2.1322
G2 X-122.79473 Y-15.25022 I67.13971 J29.33925
G3 X-128.7183 Y-11.14266 I-5.25318 J-1.25066
G2 X-140.17113 Y-12.18382 I-21.11804 J168.78728
G3 X-140.18435 Y-12.18459 I0.30683 J-5.39128
G3 X-152.51305 Y-13.50916 I7.70179 J-129.72413
G3 X-156.61976 Y-16.66156 I0.83234 J-5.33547
G2 X-164.2033 Y-32.36148 I-235.97589 J104.302
G2 X-164.80964 Y-32.99529 I-1.86516 J1.17737
G2 X-165.35463 Y-33.12321 I-0.52482 J1.01106
G3 X-165.46479 Y-33.12238 I-0.09562 J-5.39915
G2 X-166.7316 Y-32.64893 I-0.00517 J1.91768
G3 X-166.84233 Y-32.55479 I-3.55263 J-4.06679
G2 X-167.01702 Y-32.28014 I0.33668 J0.40702
G2 X-166.85227 Y-31.69613 I3.45248 J-0.65872
G3 X-166.83381 Y-31.64657 I-5.05119 J1.90931
G2 X-163.91277 Y-24.69814 I76.34886 J-28.00795
G3 X-163.89314 Y-24.65644 I-4.87569 J2.32114
G2 X-160.46756 Y-17.53601 I283.67946 J-132.09175
G3 X-160.03681 Y-13.94236 I-4.8362 J2.40232
G2 X-159.69357 Y-13.83849 I2.75265 J-8.47703
G3 X-156.48118 Y-11.34706 I-1.4598 J5.19894
G2 X-141.21931 Y13.28443 I424.88407 J-246.21758
G3 X-141.20664 Y13.30368 I-4.50437 J2.97836
G2 X-138.2929 Y17.65358 I213.72657 J-140.01209
G1 F300.0 X-140.27311 Y19.00959
G2 F800.0 X-136.51057 Y24.35735 I212.79303 J-145.718
G2 X-132.95054 Y28.95452 I72.02396 J-52.09806
G2 X-131.099 Y30.98896 I23.00648 J-19.07842
G2 X-130.2352 Y31.74929 I6.46464 J-6.47354
G3 X-130.21762 Y31.763 I-1.83661 J2.3721
G2 X-128.08764 Y30.79656 I-0.25103 J-3.38367
G2 X-126.4395 Y27.63749 I-5.73241 J-5.00015
G3 X-123.37114 Y12.00581 I1351.67201 J257.2041
G3 X-123.36446 Y11.97369 I2.94043 J0.59488
G3 X-116.07344 Y-20.27317 I1368.59597 J292.49208
G3 X-116.00101 Y-20.52684 I2.91812 J0.69612
G3 X-113.41857 Y-27.21348 I73.25864 J24.45107
G2 X-112.3816 Y-30.01058 I-29.79332 J-12.63604
G3 X-112.36286 Y-30.06736 I2.85799 J0.91208
G2 X-111.90644 Y-32.41514 I-8.29664 J-2.83114
G2 X-112.99393 Y-34.76769 I-3.07264 J-0.00727
G3 X-113.12701 Y-34.88733 I1.93822 J-2.28983
G2 X-115.64103 Y-35.86887 I-2.45141 J2.56846
G2 X-116.60519 Y-35.40593 I0.2141 J1.6814
G3 X-116.63148 Y-35.38082 I-2.08544 J-2.1566
G2 X-118.90921 Y-32.45378 I8.35171 J8.84882
G3 X-118.93364 Y-32.41078 I-2.62074 J-1.46004
G2 X-120.84831 Y-28.59757 I31.08567 J17.9959
G3 X-120.85555 Y-28.58085 I-2.75623 J-1.18456
G2 X-125.12947 Y-15.80607 I69.3389 J30.30027
G3 X-128.42035 Y-13.52409 I-2.91843 J-0.69481
G2 X-140.03477 Y-14.57995 I-21.416 J171.16871
G3 X-140.04211 Y-14.58037 I0.17046 J-2.99515
G3 X-152.14313 Y-15.88048 I7.55956 J-127.32835
G3 X-154.42463 Y-17.63181 I0.46241 J-2.96415
G2 X-162.11504 Y-33.54689 I-238.17102 J105.27226
G2 X-163.5553 Y-35.04368 I-3.95343 J2.36278
G2 X-165.39712 Y-35.52283 I-1.77916 J3.05944
G3 X-165.45833 Y-35.52237 I-0.05312 J-2.99953
G2 X-168.31054 Y-34.45639 I-0.01163 J4.31767
G3 X-168.37207 Y-34.40409 I-1.97369 J-2.25933
G2 X-169.43335 Y-32.20304 I1.86641 J2.25632
G2 X-169.09724 Y-30.84754 I5.86881 J-0.73582
G3 X-169.08699 Y-30.82001 I-2.80622 J1.06073
G2 X-166.07975 Y-23.66652 I78.60203 J-28.83451
G3 X-166.06884 Y-23.64336 I-2.70871 J1.28952
G2 X-162.61698 Y-16.46831 I285.85516 J-133.10484
G3 X-162.6059 Y-13.82161 I-2.68678 J1.33462
G2 X-162.89227 Y-12.70102 I2.58629 J1.25782
G2 X-162.13652 Y-12.19934 I1.86001 J-1.9819
G3 X-162.08281 Y-12.17482 I-1.21883 J2.74125
G2 X-160.34237 Y-11.52785 I4.79865 J-10.24457
G3 X-158.55771 Y-10.14372 I-0.811 J2.8883
G2 X-143.22126 Y14.60815 I426.9606 J-247.42091
G3 X-143.21422 Y14.61884 I-2.50243 J1.65465
G2 X-140.27311 Y19.00959 I215.73414 J-141.32725
G0 Z4.0
G0 X-132.22486 Y20.04081
G0 Z-2.0
G1 F300.0 Z-4.0
G2 F800.0 X-131.64835 Y20.84185 I204.74479 J-146.74921
G2 X-131.32743 Y21.28244 I67.16173 J-48.58255
G3 X-131.0193 Y19.70142 I1356.55993 J263.55916
G3 X-132.22486 Y20.04081 I-3.03446 J-8.46792
G1 F300.0 X-133.20021 Y20.73988
G2 F800.0 X-132.62079 Y21.54495 I205.72013 J-147.44828
G2 X-130.65923 Y24.14886 I68.13418 J-49.28566
G3 X-129.3547 Y17.45314 I1355.89173 J260.69273
G3 X-134.42211 Y19.01999 I-4.69906 J-6.21965
G2 X-133.20021 Y20.73988 I206.94203 J-145.72839
G0 Z4.0
G0 X-123.74714 Y-8.52349
G0 Z-2.0
G1 F300.0 Z-4.0
G3 F800.0 X-123.34475 Y-10.27831 I1368.97865 J312.98926
G3 X-124.3655 Y-9.62484 I-4.70315 J-6.22257
G3 X-123.74714 Y-8.52349 I-6.46561 J4.35443
G0 Z4.0
G0 X-151.06773 Y-10.86754
G0 Z-2.0
G1 F300.0 Z-4.0
G3 F800.0 X-152.88298 Y-11.13784 I18.58518 J-131.04118
G3 X-153.68073 Y-11.3054 I1.20227 J-7.70679
G2 X-152.08543 Y-8.59121 I422.08362 J-246.25923
G3 X-151.06773 Y-10.86754 I7.53362 J2.00244
G1 F300.0 X-149.0616 Y-9.55019
G3 F800.0 X-143.58431 Y-11.89651 I4.50979 J2.96141
G2 X-137.46087 Y-11.19669 I8.31503 J-45.61658
G3 X-137.41896 Y-11.19454 I-0.255 J5.38917
G3 X-130.28898 Y-10.6383 I-8.63267 J156.63007
G3 X-125.52807 Y-4.27743 I-0.54213 J5.36789
G3 X-128.76672 Y12.3084 I-1073.53639 J-201.01633
G3 X-138.71193 Y13.95556 I-5.28704 J-1.07491
G2 X-149.19092 Y-3.83436 I-2561.99555 J1497.13943
G3 X-149.0616 Y-9.55019 I4.63912 J-2.75441
G1 F300.0 X-147.05948 Y-8.23546
G3 F800.0 X-144.01383 Y-9.54014 I2.50767 J1.64669
G2 X-137.57408 Y-8.80417 I8.74456 J-47.97295
G3 X-137.55078 Y-8.80297 I-0.14179 J2.99665
G3 X-130.52965 Y-8.25523 I-8.50086 J154.2385
G3 X-127.88235 Y-4.71827 I-0.30145 J2.98482
G3 X-131.11391 Y11.8312 I-1071.18211 J-200.5755
G3 X-136.64393 Y12.7471 I-2.93986 J-0.5977
G2 X-147.13139 Y-5.05718 I-2564.06355 J1498.34789
G3 X-147.05948 Y-8.23546 I2.57958 J-1.53159
G0 Z4.0
G0 X-146.57022 Y-12.72201
G0 Z-2.0
G1 F300.0 Z-4.0
G3 F800.0 X-152.51305 Y-13.50916 I14.08767 J-129.18671
G3 X-156.61976 Y-16.66156 I0.83234 J-5.33547
G2 X-164.2033 Y-32.36148 I-235.97589 J104.302
G2 X-164.80964 Y-32.99529 I-1.86516 J1.17737
G2 X-165.35463 Y-33.12321 I-0.52482 J1.01106
G3 X-165.46479 Y-33.12238 I-0.09562 J-5.39915
G2 X-166.7316 Y-32.64893 I-0.00517 J1.91768
G3 X-166.84233 Y-32.55479 I-3.55263 J-4.06679
G2 X-167.01702 Y-32.28014 I0.33668 J0.40702
G2 X-166.85227 Y-31.69613 I3.45248 J-0.65872
G3 X-166.83381 Y-31.64657 I-5.05119 J1.90931
G2 X-163.91277 Y-24.69814 I76.34886 J-28.00795
G3 X-163.89314 Y-24.65644 I-4.87569 J2.32114
G2 X-160.46756 Y-17.53601 I283.67946 J-132.09175
G3 X-160.03681 Y-13.94236 I-4.8362 J2.40232
G2 X-159.69357 Y-13.83849 I2.75265 J-8.47703
G3 X-156.48118 Y-11.34706 I-1.4598 J5.19894
G2 X-141.21931 Y13.28443 I424.88407 J-246.21758
G3 X-141.20664 Y13.30368 I-4.50437 J2.97836
G2 X-134.56568 Y22.95115 I213.72657 J-140.01209
G2 X-131.1026 Y27.42314 I70.07907 J-50.69186
G2 X-129.70368 Y28.98473 I21.15853 J-17.54705
G2 X-128.78333 Y27.116 I-4.11637 J-3.18832
G3 X-125.72349 Y11.5299 I1354.01584 J257.72559
G3 X-125.71146 Y11.4721 I5.29277 J1.07078
G3 X-118.40794 Y-20.83006 I1370.94297 J292.99367
G3 X-118.27755 Y-21.28666 I5.25262 J1.25301
G3 X-115.62175 Y-28.16547 I75.53519 J25.2109
G2 X-114.668 Y-30.74024 I-27.59015 J-11.68405
G3 X-114.63425 Y-30.84245 I5.14438 J1.64174
G2 X-114.30783 Y-32.46575 I-6.02524 J-2.05605
G2 X-114.5445 Y-32.93583 I-0.67125 J0.04334
G3 X-114.78405 Y-33.15118 I3.48879 J-4.12169
G2 X-115.2148 Y-33.41045 I-0.79437 J0.8323
G2 X-116.81262 Y-31.28575 I6.93503 J6.87845
G3 X-116.85658 Y-31.20835 I-4.71733 J-2.62808
G2 X-118.64332 Y-27.64993 I29.00862 J16.79347
G3 X-118.65636 Y-27.61983 I-4.96122 J-2.1322
G2 X-122.79473 Y-15.25022 I67.13971 J29.33925
G3 X-128.7183 Y-11.14266 I-5.25318 J-1.25066
G2 X-140.17113 Y-12.18382 I-21.11804 J168.78728
G3 X-140.18435 Y-12.18459 I0.30683 J-5.39128
G3 X-146.57022 Y-12.72201 I7.70179 J-129.72413
G1 F300.0 X-146.31005 Y-15.10787
G3 F800.0 X-152.14313 Y-15.88048 I13.8275 J-126.80085
G3 X-154.42463 Y-17.63181 I0.46241 J-2.96415
G2 X-162.11504 Y-33.54689 I-238.17102 J105.27226
G2 X-163.5553 Y-35.04368 I-3.95343 J2.36278
G2 X-165.39712 Y-35.52283 I-1.77916 J3.05944
G3 X-165.45833 Y-35.52237 I-0.05312 J-2.99953
G2 X-168.31054 Y-34.45639 I-0.01163 J4.31767
G3 X-168.37207 Y-34.40409 I-1.97369 J-2.25933
G2 X-169.43335 Y-32.20304 I1.86641 J2.25632
G2 X-169.09724 Y-30.84754 I5.86881 J-0.73582
G3 X-169.08699 Y-30.82001 I-2.80622 J1.06073
G2 X-166.07975 Y-23.66652 I78.60203 J-28.83451
G3 X-166.06884 Y-23.64336 I-2.70871 J1.28952
G2 X-162.61698 Y-16.46831 I285.85516 J-133.10484
G3 X-162.6059 Y-13.82161 I-2.68678 J1.33462
G2 X-162.89227 Y-12.70102 I2.58629 J1.25782
G2 X-162.13652 Y-12.19934 I1.86001 J-1.9819
G3 X-162.08281 Y-12.17482 I-1.21883 J2.74125
G2 X-160.34237 Y-11.52785 I4.79865 J-10.24457
G3 X-158.55771 Y-10.14372 I-0.811 J2.8883
G2 X-143.22126 Y14.60815 I426.9606 J-247.42091
G3 X-143.21422 Y14.61884 I-2.50243 J1.65465
G2 X-136.51057 Y24.35735 I215.73414 J-141.32725
G2 X-132.95054 Y28.95452 I72.02396 J-52.09806
G2 X-131.099 Y30.98896 I23.00648 J-19.07842
G2 X-130.2352 Y31.74929 I6.46464 J-6.47354
G3 X-130.21762 Y31.763 I-1.83661 J2.3721
G2 X-128.08764 Y30.79656 I-0.25103 J-3.38367
G2 X-126.4395 Y27.63749 I-5.73241 J-5.00015
G3 X-123.37114 Y12.00581 I1351.67201 J257.2041
G3 X-123.36446 Y11.97369 I2.94043 J0.59488
G3 X-116.07344 Y-20.27317 I1368.59597 J292.49208
G3 X-116.00101 Y-20.52684 I2.91812 J0.69612
G3 X-113.41857 Y-27.21348 I73.25864 J24.45107
G2 X-112.3816 Y-30.01058 I-29.79332 J-12.63604
G3 X-112.36286 Y-30.06736 I2.85799 J0.91208
G2 X-111.90644 Y-32.41514 I-8.29664 J-2.83114
G2 X-112.99393 Y-34.76769 I-3.07264 J-0.00727
G3 X-113.12701 Y-34.88733 I1.93822 J-2.28983
G2 X-115.64103 Y-35.86887 I-2.45141 J2.56846
G2 X-116.60519 Y-35.40593 I0.2141 J1.6814
G3 X-116.63148 Y-35.38082 I-2.08544 J-2.1566
G2 X-118.90921 Y-32.45378 I8.35171 J8.84882
G3 X-118.93364 Y-32.41078 I-2.62074 J-1.46004
G2 X-120.84831 Y-28.59757 I31.08567 J17.9959
G3 X-120.85555 Y-28.58085 I-2.75623 J-1.18456
G2 X-125.12947 Y-15.80607 I69.3389 J30.30027
G3 X-128.42035 Y-13.52409 I-2.91843 J-0.69481
G2 X-140.03477 Y-14.57995 I-21.416 J171.16871
G3 X-140.04211 Y-14.58037 I0.17046 J-2.99515
G3 X-146.31005 Y-15.10787 I7.55956 J-127.32835
G0 Z4.0
G0 X-151.06773 Y-10.86754
G0 Z-3.0
G1 F300.0 Z-5.0
G3 F800.0 X-152.88298 Y-11.13784 I18.58518 J-131.04118
G3 X-153.68073 Y-11.3054 I1.20227 J-7.70679
G2 X-152.08543 Y-8.59121 I422.08362 J-246.25923
G3 X-151.06773 Y-10.86754 I7.53362 J2.00244
G0 Z4.0
G0 X-124.3655 Y-9.62484
G0 Z-3.0
G1 F300.0 Z-5.0
G3 F800.0 X-123.74714 Y-8.52349 I-6.46561 J4.35443
G3 X-123.34475 Y-10.27831 I1368.97865 J312.98926
G3 X-124.3655 Y-9.62484 I-4.70315 J-6.22257
G0 Z4.0
G0 X-131.0193 Y19.70142
G0 Z-3.0
G1 F300.0 Z-5.0
G3 F800.0 X-132.22486 Y20.04081 I-3.03446 J-8.46792
G2 X-131.64835 Y20.84185 I204.74479 J-146.74921
G2 X-131.32743 Y21.28244 I67.16173 J-48.58255
G3 X-131.0193 Y19.70142 I1356.55993 J263.55916
G1 F300.0 X-131.42411 Y18.57176
G3 F800.0 X-134.42211 Y19.01999 I-2.62965 J-7.33826
G2 X-132.62079 Y21.54495 I206.94203 J-145.72839
G2 X-130.65923 Y24.14886 I68.13418 J-49.28566
G3 X-129.3547 Y17.45314 I1355.89173 J260.69273
G3 X-131.42411 Y18.57176 I-4.69906 J-6.21965
G1 F300.0 X-132.23373 Y16.31244
G3 F800.0 X-138.71193 Y13.95556 I-1.82003 J-5.07894
G2 X-149.19092 Y-3.83436 I-2561.99555 J1497.13943
G3 X-143.58431 Y-11.89651 I4.63912 J-2.75441
G2 X-137.46087 Y-11.19669 I8.31503 J-45.61658
G3 X-137.41896 Y-11.19454 I-0.255 J5.38917
G3 X-130.28898 Y-10.6383 I-8.63267 J156.63007
G3 X-125.52807 Y-4.27743 I-0.54213 J5.36789
G3 X-128.76672 Y12.3084 I-1073.53639 J-201.01633
G3 X-132.23373 Y16.31244 I-5.28704 J-1.07491
G1 F300.0 X-133.04173 Y14.05764
G3 F800.0 X-136.64393 Y12.7471 I-1.01203 J-2.82415
G2 X-147.13139 Y-5.05718 I-2564.06355 J1498.34789
G3 X-144.01383 Y-9.54014 I2.57958 J-1.53159
G2 X-137.57408 Y-8.80417 I8.74456 J-47.97295
G3 X-137.55078 Y-8.80297 I-0.14179 J2.99665
G3 X-130.52965 Y-8.25523 I-8.50086 J154.2385
G3 X-127.88235 Y-4.71827 I-0.30145 J2.98482
G3 X-131.11391 Y11.8312 I-1071.18211 J-200.5755
G3 X-133.04173 Y14.05764 I-2.93986 J-0.5977
G0 Z4.0
G0 X-138.2929 Y17.65358
G0 Z-3.0
G1 F300.0 Z-5.0
G2 F800.0 X-134.56568 Y22.95115 I210.81283 J-144.36198
G2 X-131.1026 Y27.42314 I70.07907 J-50.69186
G2 X-129.70368 Y28.98473 I21.15853 J-17.54705
G2 X-128.78333 Y27.116 I-4.11637 J-3.18832
G3 X-125.72349 Y11.5299 I1354.01584 J257.72559
G3 X-125.71146 Y11.4721 I5.29277 J1.07078
G3 X-118.40794 Y-20.83006 I1370.94297 J292.99367
G3 X-118.27755 Y-21.28666 I5.25262 J1.25301
G3 X-115.62175 Y-28.16547 I75.53519 J25.2109
G2 X-114.668 Y-30.74024 I-27.59015 J-11.68405
G3 X-114.63425 Y-30.84245 I5.14438 J1.64174
G2 X-114.30783 Y-32.46575 I-6.02524 J-2.05605
G2 X-114.5445 Y-32.93583 I-0.67125 J0.04334
G3 X-114.78405 Y-33.15118 I3.48879 J-4.12169
G2 X-115.2148 Y-33.41045 I-0.79437 J0.8323
G2 X-116.81262 Y-31.28575 I6.93503 J6.87845
G3 X-116.85658 Y-31.20835 I-4.71733 J-2.62808
G2 X-118.64332 Y-27.64993 I29.00862 J16.79347
G3 X-118.65636 Y-27.61983 I-4.96122 J-2.1322
G2 X-122.79473 Y-15.25022 I67.13971 J29.33925
G3 X-128.7183 Y-11.14266 I-5.25318 J-1.25066
G2 X-140.17113 Y-12.18382 I-21.11804 J168.78728
G3 X-140.18435 Y-12.18459 I0.30683 J-5.39128
G3 X-152.51305 Y-13.50916 I7.70179 J-129.72413
G3 X-156.61976 Y-16.66156 I0.83234 J-5.33547
G2 X-164.2033 Y-32.36148 I-235.97589 J104.302
G2 X-164.80964 Y-32.99529 I-1.86516 J1.17737
G2 X-165.35463 Y-33.12321 I-0.52482 J1.01106
G3 X-165.46479 Y-33.12238 I-0.09562 J-5.39915
G2 X-166.7316 Y-32.64893 I-0.00517 J1.91768
G3 X-166.84233 Y-32.55479 I-3.55263 J-4.06679
G2 X-167.01702 Y-32.28014 I0.33668 J0.40702
G2 X-166.85227 Y-31.69613 I3.45248 J-0.65872
G3 X-166.83381 Y-31.64657 I-5.05119 J1.90931
G2 X-163.91277 Y-24.69814 I76.34886 J-28.00795
G3 X-163.89314 Y-24.65644 I-4.87569 J2.32114
G2 X-160.46756 Y-17.53601 I283.67946 J-132.09175
G3 X-160.03681 Y-13.94236 I-4.8362 J2.40232
G2 X-159.69357 Y-13.83849 I2.75265 J-8.47703
G3 X-156.48118 Y-11.34706 I-1.4598 J5.19894
G2 X-141.21931 Y13.28443 I424.88407 J-246.21758
G3 X-141.20664 Y13.30368 I-4.50437 J2.97836
G2 X-138.2929 Y17.65358 I213.72657 J-140.01209
G1 F300.0 X-140.27311 Y19.00959
G2 F800.0 X-136.51057 Y24.35735 I212.79303 J-145.718
G2 X-132.95054 Y28.95452 I72.02396 J-52.09806
G2 X-131.099 Y30.98896 I23.00648 J-19.07842
G2 X-130.2352 Y31.74929 I6.46464 J-6.47354
G3 X-130.21762 Y31.763 I-1.83661 J2.3721
G2 X-128.08764 Y30.79656 I-0.25103 J-3.38367
G2 X-126.4395 Y27.63749 I-5.73241 J-5.00015
G3 X-123.37114 Y12.00581 I1351.67201 J257.2041
G3 X-123.36446 Y11.97369 I2.94043 J0.59488
G3 X-116.07344 Y-20.27317 I1368.59597 J292.49208
G3 X-116.00101 Y-20.52684 I2.91812 J0.69612
G3 X-113.41857 Y-27.21348 I73.25864 J24.45107
G2 X-112.3816 Y-30.01058 I-29.79332 J-12.63604
G3 X-112.36286 Y-30.06736 I2.85799 J0.91208
G2 X-111.90644 Y-32.41514 I-8.29664 J-2.83114
G2 X-112.99393 Y-34.76769 I-3.07264 J-0.00727
G3 X-113.12701 Y-34.88733 I1.93822 J-2.28983
G2 X-115.64103 Y-35.86887 I-2.45141 J2.56846
G2 X-116.60519 Y-35.40593 I0.2141 J1.6814
G3 X-116.63148 Y-35.38082 I-2.08544 J-2.1566
G2 X-118.90921 Y-32.45378 I8.35171 J8.84882
G3 X-118.93364 Y-32.41078 I-2.62074 J-1.46004
G2 X-120.84831 Y-28.59757 I31.08567 J17.9959
G3 X-120.85555 Y-28.58085 I-2.75623 J-1.18456
G2 X-125.12947 Y-15.80607 I69.3389 J30.30027
G3 X-128.42035 Y-13.52409 I-2.91843 J-0.69481
G2 X-140.03477 Y-14.57995 I-21.416 J171.16871
G3 X-140.04211 Y-14.58037 I0.17046 J-2.99515
G3 X-152.14313 Y-15.88048 I7.55956 J-127.32835
G3 X-154.42463 Y-17.63181 I0.46241 J-2.96415
G2 X-162.11504 Y-33.54689 I-238.17102 J105.27226
G2 X-163.5553 Y-35.04368 I-3.95343 J2.36278
G2 X-165.39712 Y-35.52283 I-1.77916 J3.05944
G3 X-165.45833 Y-35.52237 I-0.05312 J-2.99953
G2 X-168.31054 Y-34.45639 I-0.01163 J4.31767
G3 X-168.37207 Y-34.40409 I-1.97369 J-2.25933
G2 X-169.43335 Y-32.20304 I1.86641 J2.25632
G2 X-169.09724 Y-30.84754 I5.86881 J-0.73582
G3 X-169.08699 Y-30.82001 I-2.80622 J1.06073
G2 X-166.07975 Y-23.66652 I78.60203 J-28.83451
G3 X-166.06884 Y-23.64336 I-2.70871 J1.28952
G2 X-162.61698 Y-16.46831 I285.85516 J-133.10484
G3 X-162.6059 Y-13.82161 I-2.68678 J1.33462
G2 X-162.89227 Y-12.70102 I2.58629 J1.25782
G2 X-162.13652 Y-12.19934 I1.86001 J-1.9819
G3 X-162.08281 Y-12.17482 I-1.21883 J2.74125
G2 X-160.34237 Y-11.52785 I4.79865 J-10.24457
G3 X-158.55771 Y-10.14372 I-0.811 J2.8883
G2 X-143.22126 Y14.60815 I426.9606 J-247.42091
G3 X-143.21422 Y14.61884 I-2.50243 J1.65465
G2 X-140.27311 Y19.00959 I215.73414 J-141.32725
G0 Z4.0
G0 X-132.22486 Y20.04081
G0 Z-4.0
G1 F300.0 Z-5.5
G2 F800.0 X-131.64835 Y20.84185 I204.74479 J-146.74921
G2 X-131.32743 Y21.28244 I67.16173 J-48.58255
G3 X-131.0193 Y19.70142 I1356.55993 J263.55916
G3 X-132.22486 Y20.04081 I-3.03446 J-8.46792
G1 F300.0 X-133.20021 Y20.73988
G2 F800.0 X-132.62079 Y21.54495 I205.72013 J-147.44828
G2 X-130.65923 Y24.14886 I68.13418 J-49.28566
G3 X-129.3547 Y17.45314 I1355.89173 J260.69273
G3 X-134.42211 Y19.01999 I-4.69906 J-6.21965
G2 X-133.20021 Y20.73988 I206.94203 J-145.72839
G0 Z4.0
G0 X-123.74714 Y-8.52349
G0 Z-4.0
G1 F300.0 Z-5.5
G3 F800.0 X-123.34475 Y-10.27831 I1368.97865 J312.98926
G3 X-124.3655 Y-9.62484 I-4.70315 J-6.22257
G3 X-123.74714 Y-8.52349 I-6.46561 J4.35443
G0 Z4.0
G0 X-151.06773 Y-10.86754
G0 Z-4.0
G1 F300.0 Z-5.5
G3 F800.0 X-152.88298 Y-11.13784 I18.58518 J-131.04118
G3 X-153.68073 Y-11.3054 I1.20227 J-7.70679
G2 X-152.08543 Y-8.59121 I422.08362 J-246.25923
G3 X-151.06773 Y-10.86754 I7.53362 J2.00244
G1 F300.0 X-149.0616 Y-9.55019
G3 F800.0 X-143.58431 Y-11.89651 I4.50979 J2.96141
G2 X-137.46087 Y-11.19669 I8.31503 J-45.61658
G3 X-137.41896 Y-11.19454 I-0.255 J5.38917
G3 X-130.28898 Y-10.6383 I-8.63267 J156.63007
G3 X-125.52807 Y-4.27743 I-0.54213 J5.36789
G3 X-128.76672 Y12.3084 I-1073.53639 J-201.01633
G3 X-138.71193 Y13.95556 I-5.28704 J-1.07491
G2 X-149.19092 Y-3.83436 I-2561.99555 J1497.13943
G3 X-149.0616 Y-9.55019 I4.63912 J-2.75441
G1 F300.0 X-147.05948 Y-8.23546
G3 F800.0 X-144.01383 Y-9.54014 I2.50767 J1.64669
G2 X-137.57408 Y-8.80417 I8.74456 J-47.97295
G3 X-137.55078 Y-8.80297 I-0.14179 J2.99665
G3 X-130.52965 Y-8.25523 I-8.50086 J154.2385
G3 X-127.88235 Y-4.71827 I-0.30145 J2.98482
G3 X-131.11391 Y11.8312 I-1071.18211 J-200.5755
G3 X-136.64393 Y12.7471 I-2.93986 J-0.5977
G2 X-147.13139 Y-5.05718 I-2564.06355 J1498.34789
G3 X-147.05948 Y-8.23546 I2.57958 J-1.53159
G0 Z4.0
G0 X-146.57022 Y-12.72201
G0 Z-3.5
G1 F300.0 Z-5.5
G3 F800.0 X-152.51305 Y-13.50916 I14.08767 J-129.18671
G3 X-156.61976 Y-16.66156 I0.83234 J-5.33547
G2 X-164.2033 Y-32.36148 I-235.97589 J104.302
G2 X-164.80964 Y-32.99529 I-1.86516 J1.17737
G2 X-165.35463 Y-33.12321 I-0.52482 J1.01106
G3 X-165.46479 Y-33.12238 I-0.09562 J-5.39915
G2 X-166.7316 Y-32.64893 I-0.00517 J1.91768
G3 X-166.84233 Y-32.55479 I-3.55263 J-4.06679
G2 X-167.01702 Y-32.28014 I0.33668 J0.40702
G2 X-166.85227 Y-31.69613 I3.45248 J-0.65872
G3 X-166.83381 Y-31.64657 I-5.05119 J1.90931
G2 X-163.91277 Y-24.69814 I76.34886 J-28.00795
G3 X-163.89314 Y-24.65644 I-4.87569 J2.32114
G2 X-160.46756 Y-17.53601 I283.67946 J-132.09175
G3 X-160.03681 Y-13.94236 I-4.8362 J2.40232
G2 X-159.69357 Y-13.83849 I2.75265 J-8.47703
G3 X-156.48118 Y-11.34706 I-1.4598 J5.19894
G2 X-141.21931 Y13.28443 I424.88407 J-246.21758
G3 X-141.20664 Y13.30368 I-4.50437 J2.97836
G2 X-134.56568 Y22.95115 I213.72657 J-140.01209
G2 X-131.1026 Y27.42314 I70.07907 J-50.69186
G2 X-129.70368 Y28.98473 I21.15853 J-17.54705
G2 X-128.78333 Y27.116 I-4.11637 J-3.18832
G3 X-125.72349 Y11.5299 I1354.01584 J257.72559
G3 X-125.71146 Y11.4721 I5.29277 J1.07078
G3 X-118.40794 Y-20.83006 I1370.94297 J292.99367
G3 X-118.27755 Y-21.28666 I5.25262 J1.25301
G3 X-115.62175 Y-28.16547 I75.53519 J25.2109
G2 X-114.668 Y-30.74024 I-27.59015 J-11.68405
G3 X-114.63425 Y-30.84245 I5.14438 J1.64174
G2 X-114.30783 Y-32.46575 I-6.02524 J-2.05605
G2 X-114.5445 Y-32.93583 I-0.67125 J0.04334
G3 X-114.78405 Y-33.15118 I3.48879 J-4.12169
G2 X-115.2148 Y-33.41045 I-0.79437 J0.8323
G2 X-116.81262 Y-31.28575 I6.93503 J6.87845
G3 X-116.85658 Y-31.20835 I-4.71733 J-2.62808
G2 X-118.64332 Y-27.64993 I29.00862 J16.79347
G3 X-118.65636 Y-27.61983 I-4.96122 J-2.1322
G2 X-122.79473 Y-15.25022 I67.13971 J29.33925
G3 X-128.7183 Y-11.14266 I-5.25318 J-1.25066
G2 X-140.17113 Y-12.18382 I-21.11804 J168.78728
G3 X-140.18435 Y-12.18459 I0.30683 J-5.39128
G3 X-146.57022 Y-12.72201 I7.70179 J-129.72413
G1 F300.0 X-146.31005 Y-15.10787
G3 F800.0 X-152.14313 Y-15.88048 I13.8275 J-126.80085
G3 X-154.42463 Y-17.63181 I0.46241 J-2.96415
G2 X-162.11504 Y-33.54689 I-238.17102 J105.27226
G2 X-163.5553 Y-35.04368 I-3.95343 J2.36278
G2 X-165.39712 Y-35.52283 I-1.77916 J3.05944
G3 X-165.45833 Y-35.52237 I-0.05312 J-2.99953
G2 X-168.31054 Y-34.45639 I-0.01163 J4.31767
G3 X-168.37207 Y-34.40409 I-1.97369 J-2.25933
G2 X-169.43335 Y-32.20304 I1.86641 J2.25632
G2 X-169.09724 Y-30.84754 I5.86881 J-0.73582
G3 X-169.08699 Y-30.82001 I-2.80622 J1.06073
G2 X-166.07975 Y-23.66652 I78.60203 J-28.83451
G3 X-166.06884 Y-23.64336 I-2.70871 J1.28952
G2 X-162.61698 Y-16.46831 I285.85516 J-133.10484
G3 X-162.6059 Y-13.82161 I-2.68678 J1.33462
G2 X-162.89227 Y-12.70102 I2.58629 J1.25782
G2 X-162.13652 Y-12.19934 I1.86001 J-1.9819
G3 X-162.08281 Y-12.17482 I-1.21883 J2.74125
G2 X-160.34237 Y-11.52785 I4.79865 J-10.24457
G3 X-158.55771 Y-10.14372 I-0.811 J2.8883
G2 X-143.22126 Y14.60815 I426.9606 J-247.42091
G3 X-143.21422 Y14.61884 I-2.50243 J1.65465
G2 X-136.51057 Y24.35735 I215.73414 J-141.32725
G2 X-132.95054 Y28.95452 I72.02396 J-52.09806
G2 X-131.099 Y30.98896 I23.00648 J-19.07842
G2 X-130.2352 Y31.74929 I6.46464 J-6.47354
G3 X-130.21762 Y31.763 I-1.83661 J2.3721
G2 X-128.08764 Y30.79656 I-0.25103 J-3.38367
G2 X-126.4395 Y27.63749 I-5.73241 J-5.00015
G3 X-123.37114 Y12.00581 I1351.67201 J257.2041
G3 X-123.36446 Y11.97369 I2.94043 J0.59488
G3 X-116.07344 Y-20.27317 I1368.59597 J292.49208
G3 X-116.00101 Y-20.52684 I2.91812 J0.69612
G3 X-113.41857 Y-27.21348 I73.25864 J24.45107
G2 X-112.3816 Y-30.01058 I-29.79332 J-12.63604
G3 X-112.36286 Y-30.06736 I2.85799 J0.91208
G2 X-111.90644 Y-32.41514 I-8.29664 J-2.83114
G2 X-112.99393 Y-34.76769 I-3.07264 J-0.00727
G3 X-113.12701 Y-34.88733 I1.93822 J-2.28983
G2 X-115.64103 Y-35.86887 I-2.45141 J2.56846
G2 X-116.60519 Y-35.40593 I0.2141 J1.6814
G3 X-116.63148 Y-35.38082 I-2.08544 J-2.1566
G2 X-118.90921 Y-32.45378 I8.35171 J8.84882
G3 X-118.93364 Y-32.41078 I-2.62074 J-1.46004
G2 X-120.84831 Y-28.59757 I31.08567 J17.9959
G3 X-120.85555 Y-28.58085 I-2.75623 J-1.18456
G2 X-125.12947 Y-15.80607 I69.3389 J30.30027
G3 X-128.42035 Y-13.52409 I-2.91843 J-0.69481
G2 X-140.03477 Y-14.57995 I-21.416 J171.16871
G3 X-140.04211 Y-14.58037 I0.17046 J-2.99515
G3 X-146.31005 Y-15.10787 I7.55956 J-127.32835
G0 Z4.0
G0 X-63.95195 Y-31.15591
G0 Z1.0
G1 F300.0 Z-1.0
G3 F800.0 X-63.6212 Y-30.82417 I-5.35571 J5.67065
G3 X-63.59004 Y-31.41265 I57.40555 J2.74434
G3 X-63.95195 Y-31.15591 I-4.69224 J-6.2308
G1 F300.0 X-65.28436 Y-33.15208
G3 F800.0 X-70.14842 Y-32.57616 I-2.99792 J-4.49138
G2 X-81.21205 Y-34.53839 I-11.00657 J29.88717
G3 X-81.26149 Y-34.53853 I-0.00968 J-5.39999
G2 X-86.08858 Y-34.02923 I-0.15921 J21.62126
G2 X-90.08902 Y-32.44162 I2.92158 J13.19566
G2 X-93.8869 Y-26.57658 I4.30129 J6.94745
G3 X-93.9115 Y-26.41186 I-5.35241 J-0.71532
G2 X-95.74317 Y-5.57097 I135.86648 J22.442
G2 X-94.37485 Y7.82677 I77.35578 J-1.13166
G3 X-94.32087 Y8.16788 I-5.30391 J1.01415
G2 X-94.0581 Y8.81635 I1.35006 J-0.16959
G2 X-93.35745 Y8.96527 I0.63075 J-1.24489
G3 X-92.96885 Y8.95979 I0.27049 J5.39322
G2 X-91.88296 Y8.55395 I0.03422 J-1.56409
G3 X-91.75835 Y8.44425 I3.62998 J3.9979
G2 X-91.6493 Y8.21812 I-0.2021 J-0.23682
G2 X-92.30125 Y2.30882 I-45.84325 J2.06711
G3 X-92.31097 Y2.252 I5.3178 J-0.93861
G3 X-93.06419 Y-5.3878 I57.63382 J-9.53924
G3 X-93.06698 Y-5.53638 I5.39714 J-0.17558
G3 X-92.61099 Y-17.94939 I148.9167 J-0.74447
G3 X-92.60887 Y-17.97551 I5.3834 J0.42312
G3 X-91.04519 Y-27.30367 I56.98508 J4.75728
G3 X-88.01208 Y-30.90484 I5.23362 J1.33013
G3 X-84.86153 Y-32.02066 I8.59295 J19.25668
G3 X-84.59836 Y-32.08394 I1.3937 J5.21705
G3 X-81.25209 Y-32.44767 I3.43861 J16.06053
G3 X-81.14846 Y-32.44726 I0.03036 J5.39991
G3 X-67.98615 Y-30.72105 I-0.77261 J56.93558
G3 X-63.90767 Y-25.4789 I-1.32152 J5.2358
G3 X-63.95678 Y-16.88498 I-947.02984 J-1.1145
G3 X-63.95748 Y-16.83714 I-5.39972 J-0.05536
G2 X-64.05421 Y-8.71184 I563.68291 J10.77374
G3 X-64.05432 Y-8.69416 I-5.39994 J-0.02537
G2 X-63.16222 Y7.92717 I135.20513 J1.07783
G3 X-63.16091 Y7.9386 I-5.3642 J0.62078
G2 X-62.93869 Y8.81732 I3.35528 J-0.38105
G2 X-62.04387 Y8.96081 I0.82395 J-2.27645
G3 X-61.76844 Y8.95977 I0.15807 J5.39769
G2 X-60.5312 Y8.50652 I0.0393 J-1.80801
G3 X-60.43412 Y8.42272 I3.57705 J4.04533
G3 X-60.44299 Y8.28303 I5.38427 J-0.41188
G1 X-60.87679 Y-0.31234
G3 X-60.87775 Y-0.33206 I5.39314 J-0.27219
G2 X-61.36508 Y-8.80934 I-398.1342 J18.63478
G3 X-61.37757 Y-9.18929 I5.38749 J-0.36733
G3 X-61.32861 Y-19.08077 I1894.29438 J4.43183
G3 X-61.32856 Y-19.0866 I5.39985 J0.04083
G2 X-61.27993 Y-28.91003 I-1331.38557 J-11.50286
G3 X-61.27919 Y-28.99274 I5.4 J0.00681
G3 X-61.11678 Y-32.40334 I55.06354 J0.91291
G3 X-61.10265 Y-32.5553 I5.38333 J0.42394
G2 X-60.93683 Y-35.12553 I-30.18951 J-3.23817
G3 X-60.93633 Y-35.14649 I5.39869 J0.11879
G2 X-61.04542 Y-35.3913 I-0.31113 J-0.00805
G3 X-61.19508 Y-35.52388 I3.50534 J-4.10763
G2 X-62.22209 Y-35.90771 I-0.986 J1.07234
G3 X-62.59618 Y-35.91014 I-0.15199 J-5.39786
G2 X-63.35138 Y-35.44204 I-0.03255 J0.79072
G3 X-65.28436 Y-33.15208 I-4.9309 J-2.20142
G1 F300.0 X-66.61677 Y-35.14825
G3 F800.0 X-69.31902 Y-34.82829 I-1.66551 J-2.49521
G2 X-81.21635 Y-36.93838 I-11.83597 J32.1393
G3 X-81.24382 Y-36.93846 I-0.00538 J-3.0
G2 X-86.60704 Y-36.37256 I-0.17688 J24.0212
G2 X-91.33497 Y-34.49294 I3.44005 J15.53899
G2 X-96.26575 Y-26.8945 I5.54724 J8.99877
G3 X-96.27941 Y-26.80299 I-2.97356 J-0.3974
G2 X-98.14337 Y-5.56747 I138.23439 J22.83313
G2 X-96.73214 Y8.2775 I79.75598 J-1.13516
G3 X-96.70215 Y8.46701 I-2.94662 J0.56342
G2 X-95.61237 Y10.67501 I3.73135 J-0.46871
G2 X-93.23723 Y11.36226 I2.18501 J-3.10355
G3 X-93.02134 Y11.35921 I0.15027 J2.99623
G2 X-90.26964 Y10.3308 I0.08672 J-3.96352
G3 X-90.20041 Y10.26985 I2.01666 J2.22106
G2 X-89.24955 Y8.15912 I-1.76004 J-2.06242
G2 X-89.93778 Y1.89166 I-48.243 J2.12611
G3 X-89.94318 Y1.86009 I2.95433 J-0.52145
G3 X-90.66546 Y-5.46584 I55.26603 J-9.14733
G3 X-90.66701 Y-5.54838 I2.99841 J-0.09754
G3 X-90.21837 Y-17.76134 I146.51673 J-0.73247
G3 X-90.21719 Y-17.77585 I2.99078 J0.23507
G3 X-88.71914 Y-26.7125 I54.5934 J4.55761
G3 X-87.03408 Y-28.71315 I2.90757 J0.73896
G3 X-84.2421 Y-29.70197 I7.61494 J17.06499
G3 X-84.0959 Y-29.73713 I0.77428 J2.89836
G3 X-81.2386 Y-30.04771 I2.93615 J13.71372
G3 X-81.18102 Y-30.04748 I0.01687 J2.99995
G3 X-68.57349 Y-28.39403 I-0.74005 J54.5358
G3 X-66.30767 Y-25.48172 I-0.73418 J2.90878
G3 X-66.35665 Y-16.90958 I-944.62984 J-1.11167
G3 X-66.35704 Y-16.883 I-2.99984 J-0.03075
G2 X-66.45419 Y-8.72312 I566.08247 J10.8196
G3 X-66.45425 Y-8.71329 I-2.99997 J-0.01409
G2 X-65.54631 Y8.20307 I137.60505 J1.09697
G3 X-65.54558 Y8.20942 I-2.98011 J0.34488
G2 X-65.14125 Y9.77185 I5.73995 J-0.65188
G3 X-65.13226 Y9.79376 I-2.77086 J1.14992
G2 X-64.12129 Y10.92443 I2.08315 J-0.8453
G2 X-61.97361 Y11.35978 I2.00655 J-4.38355
G3 X-61.8206 Y11.3592 I0.08782 J2.99871
G2 X-58.9414 Y10.30445 I0.09145 J-4.20744
G3 X-58.88337 Y10.25444 I1.98725 J2.24741
G2 X-58.0407 Y8.245 I-1.53133 J-1.82358
G3 X-58.04604 Y8.16205 I2.99085 J-0.23416
G1 X-58.47984 Y-0.43332
G3 X-58.48038 Y-0.44427 I2.99619 J-0.15122
G2 X-58.97064 Y-8.97259 I-400.53158 J18.74699
G3 X-58.97758 Y-9.18368 I2.99305 J-0.20407
G3 X-58.92868 Y-19.06263 I1891.89439 J4.42622
G3 X-58.92865 Y-19.06586 I2.99991 J0.02268
G2 X-58.87993 Y-28.90701 I-1333.78548 J-11.52359
G3 X-58.87952 Y-28.95295 I3.0 J0.00378
G3 X-58.72419 Y-32.21492 I52.66387 J0.87312
G3 X-58.71634 Y-32.29934 I2.99074 J0.23552
G2 X-58.53741 Y-35.07274 I-32.57582 J-3.49413
G3 X-58.53713 Y-35.08438 I2.99927 J0.066
G2 X-59.4875 Y-37.21691 I-2.71033 J-0.07017
G3 X-59.57064 Y-37.29057 I1.94741 J-2.28202
G2 X-62.28964 Y-38.30676 I-2.61044 J2.83903
G3 X-62.49747 Y-38.30811 I-0.08444 J-2.99881
G2 X-65.54289 Y-36.42045 I-0.13127 J3.18869
G3 X-66.61677 Y-35.14825 I-2.73939 J-1.22301
G0 Z4.0
G0 X-63.95195 Y-31.15591
G0 Z0.0
G1 F300.0 Z-2.0
G3 F800.0 X-63.6212 Y-30.82417 I-5.35571 J5.67065
G3 X-63.59004 Y-31.41265 I57.40555 J2.74434
G3 X-63.95195 Y-31.15591 I-4.69224 J-6.2308
G1 F300.0 X-65.28436 Y-33.15208
G3 F800.0 X-70.14842 Y-32.57616 I-2.99792 J-4.49138
G2 X-81.21205 Y-34.53839 I-11.00657 J29.88717
G3 X-81.26149 Y-34.53853 I-0.00968 J-5.39999
G2 X-86.08858 Y-34.02923 I-0.15921 J21.62126
G2 X-90.08902 Y-32.44162 I2.92158 J13.19566
G2 X-93.8869 Y-26.57658 I4.30129 J6.94745
G3 X-93.9115 Y-26.41186 I-5.35241 J-0.71532
G2 X-95.74317 Y-5.57097 I135.86648 J22.442
G2 X-94.37485 Y7.82677 I77.35578 J-1.13166
G3 X-94.32087 Y8.16788 I-5.30391 J1.01415
G2 X-94.0581 Y8.81635 I1.35006 J-0.16959
G2 X-93.35745 Y8.96527 I0.63075 J-1.24489
G3 X-92.96885 Y8.95979 I0.27049 J5.39322
G2 X-91.88296 Y8.55395 I0.03422 J-1.56409
G3 X-91.75835 Y8.44425 I3.62998 J3.9979
G2 X-91.6493 Y8.21812 I-0.2021 J-0.23682
G2 X-92.30125 Y2.30882 I-45.84325 J2.06711
G3 X-92.31097 Y2.252 I5.3178 J-0.93861
G3 X-93.06419 Y-5.3878 I57.63382 J-9.53924
G3 X-93.06698 Y-5.53638 I5.39714 J-0.17558
G3 X-92.61099 Y-17.94939 I148.9167 J-0.74447
G3 X-92.60887 Y-17.97551 I5.3834 J0.42312
G3 X-91.04519 Y-27.30367 I56.98508 J4.75728
G3 X-88.01208 Y-30.90484 I5.23362 J1.33013
G3 X-84.86153 Y-32.02066 I8.59295 J19.25668
G3 X-84.59836 Y-32.08394 I1.3937 J5.21705
G3 X-81.25209 Y-32.44767 I3.43861 J16.06053
G3 X-81.14846 Y-32.44726 I0.03036 J5.39991
G3 X-67.98615 Y-30.72105 I-0.77261 J56.93558
G3 X-63.90767 Y-25.4789 I-1.32152 J5.2358
G3 X-63.95678 Y-16.88498 I-947.02984 J-1.1145
G3 X-63.95748 Y-16.83714 I-5.39972 J-0.05536
G2 X-64.05421 Y-8.71184 I563.68291 J10.77374
G3 X-64.05432 Y-8.69416 I-5.39994 J-0.02537
G2 X-63.16222 Y7.92717 I135.20513 J1.07783
G3 X-63.16091 Y7.9386 I-5.3642 J0.62078
G2 X-62.93869 Y8.81732 I3.35528 J-0.38105
G2 X-62.04387 Y8.96081 I0.82395 J-2.27645
G3 X-61.76844 Y8.95977 I0.15807 J5.39769
G2 X-60.5312 Y8.50652 I0.0393 J-1.80801
G3 X-60.43412 Y8.42272 I3.57705 J4.04533
G3 X-60.44299 Y8.28303 I5.38427 J-0.41188
G1 X-60.87679 Y-0.31234
G3 X-60.87775 Y-0.33206 I5.39314 J-0.27219
G2 X-61.36508 Y-8.80934 I-398.1342 J18.63478
G3 X-61.37757 Y-9.18929 I5.38749 J-0.36733
G3 X-61.32861 Y-19.08077 I1894.29438 J4.43183
G3 X-61.32856 Y-19.0866 I5.39985 J0.04083
G2 X-61.27993 Y-28.91003 I-1331.38557 J-11.50286
G3 X-61.27919 Y-28.99274 I5.4 J0.00681
G3 X-61.11678 Y-32.40334 I55.06354 J0.91291
G3 X-61.10265 Y-32.5553 I5.38333 J0.42394
G2 X-60.93683 Y-35.12553 I-30.18951 J-3.23817
G3 X-60.93633 Y-35.14649 I5.39869 J0.11879
G2 X-61.04542 Y-35.3913 I-0.31113 J-0.00805
G3 X-61.19508 Y-35.52388 I3.50534 J-4.10763
G2 X-62.22209 Y-35.90771 I-0.986 J1.07234
G3 X-62.59618 Y-35.91014 I-0.15199 J-5.39786
G2 X-63.35138 Y-35.44204 I-0.03255 J0.79072
G3 X-65.28436 Y-33.15208 I-4.9309 J-2.20142
G1 F300.0 X-66.61677 Y-35.14825
G3 F800.0 X-69.31902 Y-34.82829 I-1.66551 J-2.49521
G2 X-81.21635 Y-36.93838 I-11.83597 J32.1393
G3 X-81.24382 Y-36.93846 I-0.00538 J-3.0
G2 X-86.60704 Y-36.37256 I-0.17688 J24.0212
G2 X-91.33497 Y-34.49294 I3.44005 J15.53899
G2 X-96.26575 Y-26.8945 I5.54724 J8.99877
G3 X-96.27941 Y-26.80299 I-2.97356 J-0.3974
G2 X-98.14337 Y-5.56747 I138.23439 J22.83313
G2 X-96.73214 Y8.2775 I79.75598 J-1.13516
G3 X-96.70215 Y8.46701 I-2.94662 J0.56342
G2 X-95.61237 Y10.67501 I3.73135 J-0.46871
G2 X-93.23723 Y11.36226 I2.18501 J-3.10355
G3 X-93.02134 Y11.35921 I0.15027 J2.99623
G2 X-90.26964 Y10.3308 I0.08672 J-3.96352
G3 X-90.20041 Y10.26985 I2.01666 J2.22106
G2 X-89.24955 Y8.15912 I-1.76004 J-2.06242
G2 X-89.93778 Y1.89166 I-48.243 J2.12611
G3 X-89.94318 Y1.86009 I2.95433 J-0.52145
G3 X-90.66546 Y-5.46584 I55.26603 J-9.14733
G3 X-90.66701 Y-5.54838 I2.99841 J-0.09754
G3 X-90.21837 Y-17.76134 I146.51673 J-0.73247
G3 X-90.21719 Y-17.77585 I2.99078 J0.23507
G3 X-88.71914 Y-26.7125 I54.5934 J4.55761
G3 X-87.03408 Y-28.71315 I2.90757 J0.73896
G3 X-84.2421 Y-29.70197 I7.61494 J17.06499
G3 X-84.0959 Y-29.73713 I0.77428 J2.89836
G3 X-81.2386 Y-30.04771 I2.93615 J13.71372
G3 X-81.18102 Y-30.04748 I0.01687 J2.99995
G3 X-68.57349 Y-28.39403 I-0.74005 J54.5358
G3 X-66.30767 Y-25.48172 I-0.73418 J2.90878
G3 X-66.35665 Y-16.90958 I-944.62984 J-1.11167
G3 X-66.35704 Y-16.883 I-2.99984 J-0.03075
G2 X-66.45419 Y-8.72312 I566.08247 J10.8196
G3 X-66.45425 Y-8.71329 I-2.99997 J-0.01409
G2 X-65.54631 Y8.20307 I137.60505 J1.09697
G3 X-65.54558 Y8.20942 I-2.98011 J0.34488
G2 X-65.14125 Y9.77185 I5.73995 J-0.65188
G3 X-65.13226 Y9.79376 I-2.77086 J1.14992
G2 X-64.12129 Y10.92443 I2.08315 J-0.8453
G2 X-61.97361 Y11.35978 I2.00655 J-4.38355
G3 X-61.8206 Y11.3592 I0.08782 J2.99871
G2 X-58.9414 Y10.30445 I0.09145 J-4.20744
G3 X-58.88337 Y10.25444 I1.98725 J2.24741
G2 X-58.0407 Y8.245 I-1.53133 J-1.82358
G3 X-58.04604 Y8.16205 I2.99085 J-0.23416
G1 X-58.47984 Y-0.43332
G3 X-58.48038 Y-0.44427 I2.99619 J-0.15122
G2 X-58.97064 Y-8.97259 I-400.53158 J18.74699
G3 X-58.97758 Y-9.18368 I2.99305 J-0.20407
G3 X-58.92868 Y-19.06263 I1891.89439 J4.42622
G3 X-58.92865 Y-19.06586 I2.99991 J0.02268
G2 X-58.87993 Y-28.90701 I-1333.78548 J-11.52359
G3 X-58.87952 Y-28.95295 I3.0 J0.00378
G3 X-58.72419 Y-32.21492 I52.66387 J0.87312
G3 X-58.71634 Y-32.29934 I2.99074 J0.23552
G2 X-58.53741 Y-35.07274 I-32.57582 J-3.49413
G3 X-58.53713 Y-35.08438 I2.99927 J0.066
G2 X-59.4875 Y-37.21691 I-2.71033 J-0.07017
G3 X-59.57064 Y-37.29057 I1.94741 J-2.28202
G2 X-62.28964 Y-38.30676 I-2.61044 J2.83903
G3 X-62.49747 Y-38.30811 I-0.08444 J-2.99881
G2 X-65.54289 Y-36.42045 I-0.13127 J3.18869
G3 X-66.61677 Y-35.14825 I-2.73939 J-1.22301
G0 Z4.0
G0 X-63.95195 Y-31.15591
G0 Z-1.0
G1 F300.0 Z-3.0
G3 F800.0 X-63.6212 Y-30.82417 I-5.35571 J5.67065
G3 X-63.59004 Y-31.41265 I57.40555 J2.74434
G3 X-63.95195 Y-31.15591 I-4.69224 J-6.2308
G1 F300.0 X-65.28436 Y-33.15208
G3 F800.0 X-70.14842 Y-32.57616 I-2.99792 J-4.49138
G2 X-81.21205 Y-34.53839 I-11.00657 J29.88717
G3 X-81.26149 Y-34.53853 I-0.00968 J-5.39999
G2 X-86.08858 Y-34.02923 I-0.15921 J21.62126
G2 X-90.08902 Y-32.44162 I2.92158 J13.19566
G2 X-93.8869 Y-26.57658 I4.30129 J6.94745
G3 X-93.9115 Y-26.41186 I-5.35241 J-0.71532
G2 X-95.74317 Y-5.57097 I135.86648 J22.442
G2 X-94.37485 Y7.82677 I77.35578 J-1.13166
G3 X-94.32087 Y8.16788 I-5.30391 J1.01415
G2 X-94.0581 Y8.81635 I1.35006 J-0.16959
G2 X-93.35745 Y8.96527 I0.63075 J-1.24489
G3 X-92.96885 Y8.95979 I0.27049 J5.39322
G2 X-91.88296 Y8.55395 I0.03422 J-1.56409
G3 X-91.75835 Y8.44425 I3.62998 J3.9979
G2 X-91.6493 Y8.21812 I-0.2021 J-0.23682
G2 X-92.30125 Y2.30882 I-45.84325 J2.06711
G3 X-92.31097 Y2.252 I5.3178 J-0.93861
G3 X-93.06419 Y-5.3878 I57.63382 J-9.53924
G3 X-93.06698 Y-5.53638 I5.39714 J-0.17558
G3 X-92.61099 Y-17.94939 I148.9167 J-0.74447
G3 X-92.60887 Y-17.97551 I5.3834 J0.42312
G3 X-91.04519 Y-27.30367 I56.98508 J4.75728
G3 X-88.01208 Y-30.90484 I5.23362 J1.33013
G3 X-84.86153 Y-32.02066 I8.59295 J19.25668
G3 X-84.59836 Y-32.08394 I1.3937 J5.21705
G3 X-81.25209 Y-32.44767 I3.43861 J16.06053
G3 X-81.14846 Y-32.44726 I0.03036 J5.39991
G3 X-67.98615 Y-30.72105 I-0.77261 J56.93558
G3 X-63.90767 Y-25.4789 I-1.32152 J5.2358
G3 X-63.95678 Y-16.88498 I-947.02984 J-1.1145
G3 X-63.95748 Y-16.83714 I-5.39972 J-0.05536
G2 X-64.05421 Y-8.71184 I563.68291 J10.77374
G3 X-64.05432 Y-8.69416 I-5.39994 J-0.02537
G2 X-63.16222 Y7.92717 I135.20513 J1.07783
G3 X-63.16091 Y7.9386 I-5.3642 J0.62078
G2 X-62.93869 Y8.81732 I3.35528 J-0.38105
G2 X-62.04387 Y8.96081 I0.82395 J-2.27645
G3 X-61.76844 Y8.95977 I0.15807 J5.39769
G2 X-60.5312 Y8.50652 I0.0393 J-1.80801
G3 X-60.43412 Y8.42272 I3.57705 J4.04533
G3 X-60.44299 Y8.28303 I5.38427 J-0.41188
G1 X-60.87679 Y-0.31234
G3 X-60.87775 Y-0.33206 I5.39314 J-0.27219
G2 X-61.36508 Y-8.80934 I-398.1342 J18.63478
G3 X-61.37757 Y-9.18929 I5.38749 J-0.36733
G3 X-61.32861 Y-19.08077 I1894.29438 J4.43183
G3 X-61.32856 Y-19.0866 I5.39985 J0.04083
G2 X-61.27993 Y-28.91003 I-1331.38557 J-11.50286
G3 X-61.27919 Y-28.99274 I5.4 J0.00681
G3 X-61.11678 Y-32.40334 I55.06354 J0.91291
G3 X-61.10265 Y-32.5553 I5.38333 J0.42394
G2 X-60.93683 Y-35.12553 I-30.18951 J-3.23817
G3 X-60.93633 Y-35.14649 I5.39869 J0.11879
G2 X-61.04542 Y-35.3913 I-0.31113 J-0.00805
G3 X-61.19508 Y-35.52388 I3.50534 J-4.10763
G2 X-62.22209 Y-35.90771 I-0.986 J1.07234
G3 X-62.59618 Y-35.91014 I-0.15199 J-5.39786
G2 X-63.35138 Y-35.44204 I-0.03255 J0.79072
G3 X-65.28436 Y-33.15208 I-4.9309 J-2.20142
G1 F300.0 X-66.61677 Y-35.14825
G3 F800.0 X-69.31902 Y-34.82829 I-1.66551 J-2.49521
G2 X-81.21635 Y-36.93838 I-11.83597 J32.1393
G3 X-81.24382 Y-36.93846 I-0.00538 J-3.0
G2 X-86.60704 Y-36.37256 I-0.17688 J24.0212
G2 X-91.33497 Y-34.49294 I3.44005 J15.53899
G2 X-96.26575 Y-26.8945 I5.54724 J8.99877
G3 X-96.27941 Y-26.80299 I-2.97356 J-0.3974
G2 X-98.14337 Y-5.56747 I138.23439 J22.83313
G2 X-96.73214 Y8.2775 I79.75598 J-1.13516
G3 X-96.70215 Y8.46701 I-2.94662 J0.56342
G2 X-95.61237 Y10.67501 I3.73135 J-0.46871
G2 X-93.23723 Y11.36226 I2.18501 J-3.10355
G3 X-93.02134 Y11.35921 I0.15027 J2.99623
G2 X-90.26964 Y10.3308 I0.08672 J-3.96352
G3 X-90.20041 Y10.26985 I2.01666 J2.22106
G2 X-89.24955 Y8.15912 I-1.76004 J-2.06242
G2 X-89.93778 Y1.89166 I-48.243 J2.12611
G3 X-89.94318 Y1.86009 I2.95433 J-0.52145
G3 X-90.66546 Y-5.46584 I55.26603 J-9.14733
G3 X-90.66701 Y-5.54838 I2.99841 J-0.09754
G3 X-90.21837 Y-17.76134 I146.51673 J-0.73247
G3 X-90.21719 Y-17.77585 I2.99078 J0.23507
G3 X-88.71914 Y-26.7125 I54.5934 J4.55761
G3 X-87.03408 Y-28.71315 I2.90757 J0.73896
G3 X-84.2421 Y-29.70197 I7.61494 J17.06499
G3 X-84.0959 Y-29.73713 I0.77428 J2.89836
G3 X-81.2386 Y-30.04771 I2.93615 J13.71372
G3 X-81.18102 Y-30.04748 I0.01687 J2.99995
G3 X-68.57349 Y-28.39403 I-0.74005 J54.5358
G3 X-66.30767 Y-25.48172 I-0.73418 J2.90878
G3 X-66.35665 Y-16.90958 I-944.62984 J-1.11167
G3 X-66.35704 Y-16.883 I-2.99984 J-0.03075
G2 X-66.45419 Y-8.72312 I566.08247 J10.8196
G3 X-66.45425 Y-8.71329 I-2.99997 J-0.01409
G2 X-65.54631 Y8.20307 I137.60505 J1.09697
G3 X-65.54558 Y8.20942 I-2.98011 J0.34488
G2 X-65.14125 Y9.77185 I5.73995 J-0.65188
G3 X-65.13226 Y9.79376 I-2.77086 J1.14992
G2 X-64.12129 Y10.92443 I2.08315 J-0.8453
G2 X-61.97361 Y11.35978 I2.00655 J-4.38355
G3 X-61.8206 Y11.3592 I0.08782 J2.99871
G2 X-58.9414 Y10.30445 I0.09145 J-4.20744
G3 X-58.88337 Y10.25444 I1.98725 J2.24741
G2 X-58.0407 Y8.245 I-1.53133 J-1.82358
G3 X-58.04604 Y8.16205 I2.99085 J-0.23416
G1 X-58.47984 Y-0.43332
G3 X-58.48038 Y-0.44427 I2.99619 J-0.15122
G2 X-58.97064 Y-8.97259 I-400.53158 J18.74699
G3 X-58.97758 Y-9.18368 I2.99305 J-0.20407
G3 X-58.92868 Y-19.06263 I1891.89439 J4.42622
G3 X-58.92865 Y-19.06586 I2.99991 J0.02268
G2 X-58.87993 Y-28.90701 I-1333.78548 J-11.52359
G3 X-58.87952 Y-28.95295 I3.0 J0.00378
G3 X-58.72419 Y-32.21492 I52.66387 J0.87312
G3 X-58.71634 Y-32.29934 I2.99074 J0.23552
G2 X-58.53741 Y-35.07274 I-32.57582 J-3.49413
G3 X-58.53713 Y-35.08438 I2.99927 J0.066
G2 X-59.4875 Y-37.21691 I-2.71033 J-0.07017
G3 X-59.57064 Y-37.29057 I1.94741 J-2.28202
G2 X-62.28964 Y-38.30676 I-2.61044 J2.83903
G3 X-62.49747 Y-38.30811 I-0.08444 J-2.99881
G2 X-65.54289 Y-36.42045 I-0.13127 J3.18869
G3 X-66.61677 Y-35.14825 I-2.73939 J-1.22301
G0 Z4.0
G0 X-63.95195 Y-31.15591
G0 Z-2.0
G1 F300.0 Z-4.0
G3 F800.0 X-63.6212 Y-30.82417 I-5.35571 J5.67065
G3 X-63.59004 Y-31.41265 I57.40555 J2.74434
G3 X-63.95195 Y-31.15591 I-4.69224 J-6.2308
G1 F300.0 X-65.28436 Y-33.15208
G3 F800.0 X-70.14842 Y-32.57616 I-2.99792 J-4.49138
G2 X-81.21205 Y-34.53839 I-11.00657 J29.88717
G3 X-81.26149 Y-34.53853 I-0.00968 J-5.39999
G2 X-86.08858 Y-34.02923 I-0.15921 J21.62126
G2 X-90.08902 Y-32.44162 I2.92158 J13.19566
G2 X-93.8869 Y-26.57658 I4.30129 J6.94745
G3 X-93.9115 Y-26.41186 I-5.35241 J-0.71532
G2 X-95.74317 Y-5.57097 I135.86648 J22.442
G2 X-94.37485 Y7.82677 I77.35578 J-1.13166
G3 X-94.32087 Y8.16788 I-5.30391 J1.01415
G2 X-94.0581 Y8.81635 I1.35006 J-0.16959
G2 X-93.35745 Y8.96527 I0.63075 J-1.24489
G3 X-92.96885 Y8.95979 I0.27049 J5.39322
G2 X-91.88296 Y8.55395 I0.03422 J-1.56409
G3 X-91.75835 Y8.44425 I3.62998 J3.9979
G2 X-91.6493 Y8.21812 I-0.2021 J-0.23682
G2 X-92.30125 Y2.30882 I-45.84325 J2.06711
G3 X-92.31097 Y2.252 I5.3178 J-0.93861
G3 X-93.06419 Y-5.3878 I57.63382 J-9.53924
G3 X-93.06698 Y-5.53638 I5.39714 J-0.17558
G3 X-92.61099 Y-17.94939 I148.9167 J-0.74447
G3 X-92.60887 Y-17.97551 I5.3834 J0.42312
G3 X-91.04519 Y-27.30367 I56.98508 J4.75728
G3 X-88.01208 Y-30.90484 I5.23362 J1.33013
G3 X-84.86153 Y-32.02066 I8.59295 J19.25668
G3 X-84.59836 Y-32.08394 I1.3937 J5.21705
G3 X-81.25209 Y-32.44767 I3.43861 J16.06053
G3 X-81.14846 Y-32.44726 I0.03036 J5.39991
G3 X-67.98615 Y-30.72105 I-0.77261 J56.93558
G3 X-63.90767 Y-25.4789 I-1.32152 J5.2358
G3 X-63.95678 Y-16.88498 I-947.02984 J-1.1145
G3 X-63.95748 Y-16.83714 I-5.39972 J-0.05536
G2 X-64.05421 Y-8.71184 I563.68291 J10.77374
G3 X-64.05432 Y-8.69416 I-5.39994 J-0.02537
G2 X-63.16222 Y7.92717 I135.20513 J1.07783
G3 X-63.16091 Y7.9386 I-5.3642 J0.62078
G2 X-62.93869 Y8.81732 I3.35528 J-0.38105
G2 X-62.04387 Y8.96081 I0.82395 J-2.27645
G3 X-61.76844 Y8.95977 I0.15807 J5.39769
G2 X-60.5312 Y8.50652 I0.0393 J-1.80801
G3 X-60.43412 Y8.42272 I3.57705 J4.04533
G3 X-60.44299 Y8.28303 I5.38427 J-0.41188
G1 X-60.87679 Y-0.31234
G3 X-60.87775 Y-0.33206 I5.39314 J-0.27219
G2 X-61.36508 Y-8.80934 I-398.1342 J18.63478
G3 X-61.37757 Y-9.18929 I5.38749 J-0.36733
G3 X-61.32861 Y-19.08077 I1894.29438 J4.43183
G3 X-61.32856 Y-19.0866 I5.39985 J0.04083
G2 X-61.27993 Y-28.91003 I-1331.38557 J-11.50286
G3 X-61.27919 Y-28.99274 I5.4 J0.00681
G3 X-61.11678 Y-32.40334 I55.06354 J0.91291
G3 X-61.10265 Y-32.5553 I5.38333 J0.42394
G2 X-60.93683 Y-35.12553 I-30.18951 J-3.23817
G3 X-60.93633 Y-35.14649 I5.39869 J0.11879
G2 X-61.04542 Y-35.3913 I-0.31113 J-0.00805
G3 X-61.19508 Y-35.52388 I3.50534 J-4.10763
G2 X-62.22209 Y-35.90771 I-0.986 J1.07234
G3 X-62.59618 Y-35.91014 I-0.15199 J-5.39786
G2 X-63.35138 Y-35.44204 I-0.03255 J0.79072
G3 X-65.28436 Y-33.15208 I-4.9309 J-2.20142
G1 F300.0 X-66.61677 Y-35.14825
G3 F800.0 X-69.31902 Y-34.82829 I-1.66551 J-2.49521
G2 X-81.21635 Y-36.93838 I-11.83597 J32.1393
G3 X-81.24382 Y-36.93846 I-0.00538 J-3.0
G2 X-86.60704 Y-36.37256 I-0.17688 J24.0212
G2 X-91.33497 Y-34.49294 I3.44005 J15.53899
G2 X-96.26575 Y-26.8945 I5.54724 J8.99877
G3 X-96.27941 Y-26.80299 I-2.97356 J-0.3974
G2 X-98.14337 Y-5.56747 I138.23439 J22.83313
G2 X-96.73214 Y8.2775 I79.75598 J-1.13516
G3 X-96.70215 Y8.46701 I-2.94662 J0.56342
G2 X-95.61237 Y10.67501 I3.73135 J-0.46871
G2 X-93.23723 Y11.36226 I2.18501 J-3.10355
G3 X-93.02134 Y11.35921 I0.15027 J2.99623
G2 X-90.26964 Y10.3308 I0.08672 J-3.96352
G3 X-90.20041 Y10.26985 I2.01666 J2.22106
G2 X-89.24955 Y8.15912 I-1.76004 J-2.06242
G2 X-89.93778 Y1.89166 I-48.243 J2.12611
G3 X-89.94318 Y1.86009 I2.95433 J-0.52145
G3 X-90.66546 Y-5.46584 I55.26603 J-9.14733
G3 X-90.66701 Y-5.54838 I2.99841 J-0.09754
G3 X-90.21837 Y-17.76134 I146.51673 J-0.73247
G3 X-90.21719 Y-17.77585 I2.99078 J0.23507
G3 X-88.71914 Y-26.7125 I54.5934 J4.55761
G3 X-87.03408 Y-28.71315 I2.90757 J0.73896
G3 X-84.2421 Y-29.70197 I7.61494 J17.06499
G3 X-84.0959 Y-29.73713 I0.77428 J2.89836
G3 X-81.2386 Y-30.04771 I2.93615 J13.71372
G3 X-81.18102 Y-30.04748 I0.01687 J2.99995
G3 X-68.57349 Y-28.39403 I-0.74005 J54.5358
G3 X-66.30767 Y-25.48172 I-0.73418 J2.90878
G3 X-66.35665 Y-16.90958 I-944.62984 J-1.11167
G3 X-66.35704 Y-16.883 I-2.99984 J-0.03075
G2 X-66.45419 Y-8.72312 I566.08247 J10.8196
G3 X-66.45425 Y-8.71329 I-2.99997 J-0.01409
G2 X-65.54631 Y8.20307 I137.60505 J1.09697
G3 X-65.54558 Y8.20942 I-2.98011 J0.34488
G2 X-65.14125 Y9.77185 I5.73995 J-0.65188
G3 X-65.13226 Y9.79376 I-2.77086 J1.14992
G2 X-64.12129 Y10.92443 I2.08315 J-0.8453
G2 X-61.97361 Y11.35978 I2.00655 J-4.38355
G3 X-61.8206 Y11.3592 I0.08782 J2.99871
G2 X-58.9414 Y10.30445 I0.09145 J-4.20744
G3 X-58.88337 Y10.25444 I1.98725 J2.24741
G2 X-58.0407 Y8.245 I-1.53133 J-1.82358
G3 X-58.04604 Y8.16205 I2.99085 J-0.23416
G1 X-58.47984 Y-0.43332
G3 X-58.48038 Y-0.44427 I2.99619 J-0.15122
G2 X-58.97064 Y-8.97259 I-400.53158 J18.74699
G3 X-58.97758 Y-9.18368 I2.99305 J-0.20407
G3 X-58.92868 Y-19.06263 I1891.89439 J4.42622
G3 X-58.92865 Y-19.06586 I2.99991 J0.02268
G2 X-58.87993 Y-28.90701 I-1333.78548 J-11.52359
G3 X-58.87952 Y-28.95295 I3.0 J0.00378
G3 X-58.72419 Y-32.21492 I52.66387 J0.87312
G3 X-58.71634 Y-32.29934 I2.99074 J0.23552
G2 X-58.53741 Y-35.07274 I-32.57582 J-3.49413
G3 X-58.53713 Y-35.08438 I2.99927 J0.066
G2 X-59.4875 Y-37.21691 I-2.71033 J-0.07017
G3 X-59.57064 Y-37.29057 I1.94741 J-2.28202
G2 X-62.28964 Y-38.30676 I-2.61044 J2.83903
G3 X-62.49747 Y-38.30811 I-0.08444 J-2.99881
G2 X-65.54289 Y-36.42045 I-0.13127 J3.18869
G3 X-66.61677 Y-35.14825 I-2.73939 J-1.22301
G0 Z4.0
G0 X-63.95195 Y-31.15591
G0 Z-3.0
G1 F300.0 Z-5.0
G3 F800.0 X-63.6212 Y-30.82417 I-5.35571 J5.67065
G3 X-63.59004 Y-31.41265 I57.40555 J2.74434
G3 X-63.95195 Y-31.15591 I-4.69224 J-6.2308
G1 F300.0 X-65.28436 Y-33.15208
G3 F800.0 X-70.14842 Y-32.57616 I-2.99792 J-4.49138
G2 X-81.21205 Y-34.53839 I-11.00657 J29.88717
G3 X-81.26149 Y-34.53853 I-0.00968 J-5.39999
G2 X-86.08858 Y-34.02923 I-0.15921 J21.62126
G2 X-90.08902 Y-32.44162 I2.92158 J13.19566
G2 X-93.8869 Y-26.57658 I4.30129 J6.94745
G3 X-93.9115 Y-26.41186 I-5.35241 J-0.71532
G2 X-95.74317 Y-5.57097 I135.86648 J22.442
G2 X-94.37485 Y7.82677 I77.35578 J-1.13166
G3 X-94.32087 Y8.16788 I-5.30391 J1.01415
G2 X-94.0581 Y8.81635 I1.35006 J-0.16959
G2 X-93.35745 Y8.96527 I0.63075 J-1.24489
G3 X-92.96885 Y8.95979 I0.27049 J5.39322
G2 X-91.88296 Y8.55395 I0.03422 J-1.56409
G3 X-91.75835 Y8.44425 I3.62998 J3.9979
G2 X-91.6493 Y8.21812 I-0.2021 J-0.23682
G2 X-92.30125 Y2.30882 I-45.84325 J2.06711
G3 X-92.31097 Y2.252 I5.3178 J-0.93861
G3 X-93.06419 Y-5.3878 I57.63382 J-9.53924
G3 X-93.06698 Y-5.53638 I5.39714 J-0.17558
G3 X-92.61099 Y-17.94939 I148.9167 J-0.74447
G3 X-92.60887 Y-17.97551 I5.3834 J0.42312
G3 X-91.04519 Y-27.30367 I56.98508 J4.75728
G3 X-88.01208 Y-30.90484 I5.23362 J1.33013
G3 X-84.86153 Y-32.02066 I8.59295 J19.25668
G3 X-84.59836 Y-32.08394 I1.3937 J5.21705
G3 X-81.25209 Y-32.44767 I3.43861 J16.06053
G3 X-81.14846 Y-32.44726 I0.03036 J5.39991
G3 X-67.98615 Y-30.72105 I-0.77261 J56.93558
G3 X-63.90767 Y-25.4789 I-1.32152 J5.2358
G3 X-63.95678 Y-16.88498 I-947.02984 J-1.1145
G3 X-63.95748 Y-16.83714 I-5.39972 J-0.05536
G2 X-64.05421 Y-8.71184 I563.68291 J10.77374
G3 X-64.05432 Y-8.69416 I-5.39994 J-0.02537
G2 X-63.16222 Y7.92717 I135.20513 J1.07783
G3 X-63.16091 Y7.9386 I-5.3642 J0.62078
G2 X-62.93869 Y8.81732 I3.35528 J-0.38105
G2 X-62.04387 Y8.96081 I0.82395 J-2.27645
G3 X-61.76844 Y8.95977 I0.15807 J5.39769
G2 X-60.5312 Y8.50652 I0.0393 J-1.80801
G3 X-60.43412 Y8.42272 I3.57705 J4.04533
G3 X-60.44299 Y8.28303 I5.38427 J-0.41188
G1 X-60.87679 Y-0.31234
G3 X-60.87775 Y-0.33206 I5.39314 J-0.27219
G2 X-61.36508 Y-8.80934 I-398.1342 J18.63478
G3 X-61.37757 Y-9.18929 I5.38749 J-0.36733
G3 X-61.32861 Y-19.08077 I1894.29438 J4.43183
G3 X-61.32856 Y-19.0866 I5.39985 J0.04083
G2 X-61.27993 Y-28.91003 I-1331.38557 J-11.50286
G3 X-61.27919 Y-28.99274 I5.4 J0.00681
G3 X-61.11678 Y-32.40334 I55.06354 J0.91291
G3 X-61.10265 Y-32.5553 I5.38333 J0.42394
G2 X-60.93683 Y-35.12553 I-30.18951 J-3.23817
G3 X-60.93633 Y-35.14649 I5.39869 J0.11879
G2 X-61.04542 Y-35.3913 I-0.31113 J-0.00805
G3 X-61.19508 Y-35.52388 I3.50534 J-4.10763
G2 X-62.22209 Y-35.90771 I-0.986 J1.07234
G3 X-62.59618 Y-35.91014 I-0.15199 J-5.39786
G2 X-63.35138 Y-35.44204 I-0.03255 J0.79072
G3 X-65.28436 Y-33.15208 I-4.9309 J-2.20142
G1 F300.0 X-66.61677 Y-35.14825
G3 F800.0 X-69.31902 Y-34.82829 I-1.66551 J-2.49521
G2 X-81.21635 Y-36.93838 I-11.83597 J32.1393
G3 X-81.24382 Y-36.93846 I-0.00538 J-3.0
G2 X-86.60704 Y-36.37256 I-0.17688 J24.0212
G2 X-91.33497 Y-34.49294 I3.44005 J15.53899
G2 X-96.26575 Y-26.8945 I5.54724 J8.99877
G3 X-96.27941 Y-26.80299 I-2.97356 J-0.3974
G2 X-98.14337 Y-5.56747 I138.23439 J22.83313
G2 X-96.73214 Y8.2775 I79.75598 J-1.13516
G3 X-96.70215 Y8.46701 I-2.94662 J0.56342
G2 X-95.61237 Y10.67501 I3.73135 J-0.46871
G2 X-93.23723 Y11.36226 I2.18501 J-3.10355
G3 X-93.02134 Y11.35921 I0.15027 J2.99623
G2 X-90.26964 Y10.3308 I0.08672 J-3.96352
G3 X-90.20041 Y10.26985 I2.01666 J2.22106
G2 X-89.24955 Y8.15912 I-1.76004 J-2.06242
G2 X-89.93778 Y1.89166 I-48.243 J2.12611
G3 X-89.94318 Y1.86009 I2.95433 J-0.52145
G3 X-90.66546 Y-5.46584 I55.26603 J-9.14733
G3 X-90.66701 Y-5.54838 I2.99841 J-0.09754
G3 X-90.21837 Y-17.76134 I146.51673 J-0.73247
G3 X-90.21719 Y-17.77585 I2.99078 J0.23507
G3 X-88.71914 Y-26.7125 I54.5934 J4.55761
G3 X-87.03408 Y-28.71315 I2.90757 J0.73896
G3 X-84.2421 Y-29.70197 I7.61494 J17.06499
G3 X-84.0959 Y-29.73713 I0.77428 J2.89836
G3 X-81.2386 Y-30.04771 I2.93615 J13.71372
G3 X-81.18102 Y-30.04748 I0.01687 J2.99995
G3 X-68.57349 Y-28.39403 I-0.74005 J54.5358
G3 X-66.30767 Y-25.48172 I-0.73418 J2.90878
G3 X-66.35665 Y-16.90958 I-944.62984 J-1.11167
G3 X-66.35704 Y-16.883 I-2.99984 J-0.03075
G2 X-66.45419 Y-8.72312 I566.08247 J10.8196
G3 X-66.45425 Y-8.71329 I-2.99997 J-0.01409
G2 X-65.54631 Y8.20307 I137.60505 J1.09697
G3 X-65.54558 Y8.20942 I-2.98011 J0.34488
G2 X-65.14125 Y9.77185 I5.73995 J-0.65188
G3 X-65.13226 Y9.79376 I-2.77086 J1.14992
G2 X-64.12129 Y10.92443 I2.08315 J-0.8453
G2 X-61.97361 Y11.35978 I2.00655 J-4.38355
G3 X-61.8206 Y11.3592 I0.08782 J2.99871
G2 X-58.9414 Y10.30445 I0.09145 J-4.20744
G3 X-58.88337 Y10.25444 I1.98725 J2.24741
G2 X-58.0407 Y8.245 I-1.53133 J-1.82358
G3 X-58.04604 Y8.16205 I2.99085 J-0.23416
G1 X-58.47984 Y-0.43332
G3 X-58.48038 Y-0.44427 I2.99619 J-0.15122
G2 X-58.97064 Y-8.97259 I-400.53158 J18.74699
G3 X-58.97758 Y-9.18368 I2.99305 J-0.20407
G3 X-58.92868 Y-19.06263 I1891.89439 J4.42622
G3 X-58.92865 Y-19.06586 I2.99991 J0.02268
G2 X-58.87993 Y-28.90701 I-1333.78548 J-11.52359
G3 X-58.87952 Y-28.95295 I3.0 J0.00378
G3 X-58.72419 Y-32.21492 I52.66387 J0.87312
G3 X-58.71634 Y-32.29934 I2.99074 J0.23552
G2 X-58.53741 Y-35.07274 I-32.57582 J-3.49413
G3 X-58.53713 Y-35.08438 I2.99927 J0.066
G2 X-59.4875 Y-37.21691 I-2.71033 J-0.07017
G3 X-59.57064 Y-37.29057 I1.94741 J-2.28202
G2 X-62.28964 Y-38.30676 I-2.61044 J2.83903
G3 X-62.49747 Y-38.30811 I-0.08444 J-2.99881
G2 X-65.54289 Y-36.42045 I-0.13127 J3.18869
G3 X-66.61677 Y-35.14825 I-2.73939 J-1.22301
G0 Z4.0
G0 X-63.95195 Y-31.15591
G0 Z-4.0
G1 F300.0 Z-5.5
G3 F800.0 X-63.6212 Y-30.82417 I-5.35571 J5.67065
G3 X-63.59004 Y-31.41265 I57.40555 J2.74434
G3 X-63.95195 Y-31.15591 I-4.69224 J-6.2308
G1 F300.0 X-65.28436 Y-33.15208
G3 F800.0 X-70.14842 Y-32.57616 I-2.99792 J-4.49138
G2 X-81.21205 Y-34.53839 I-11.00657 J29.88717
G3 X-81.26149 Y-34.53853 I-0.00968 J-5.39999
G2 X-86.08858 Y-34.02923 I-0.15921 J21.62126
G2 X-90.08902 Y-32.44162 I2.92158 J13.19566
G2 X-93.8869 Y-26.57658 I4.30129 J6.94745
G3 X-93.9115 Y-26.41186 I-5.35241 J-0.71532
G2 X-95.74317 Y-5.57097 I135.86648 J22.442
G2 X-94.37485 Y7.82677 I77.35578 J-1.13166
G3 X-94.32087 Y8.16788 I-5.30391 J1.01415
G2 X-94.0581 Y8.81635 I1.35006 J-0.16959
G2 X-93.35745 Y8.96527 I0.63075 J-1.24489
G3 X-92.96885 Y8.95979 I0.27049 J5.39322
G2 X-91.88296 Y8.55395 I0.03422 J-1.56409
G3 X-91.75835 Y8.44425 I3.62998 J3.9979
G2 X-91.6493 Y8.21812 I-0.2021 J-0.23682
G2 X-92.30125 Y2.30882 I-45.84325 J2.06711
G3 X-92.31097 Y2.252 I5.3178 J-0.93861
G3 X-93.06419 Y-5.3878 I57.63382 J-9.53924
G3 X-93.06698 Y-5.53638 I5.39714 J-0.17558
G3 X-92.61099 Y-17.94939 I148.9167 J-0.74447
G3 X-92.60887 Y-17.97551 I5.3834 J0.42312
G3 X-91.04519 Y-27.30367 I56.98508 J4.75728
G3 X-88.01208 Y-30.90484 I5.23362 J1.33013
G3 X-84.86153 Y-32.02066 I8.59295 J19.25668
G3 X-84.59836 Y-32.08394 I1.3937 J5.21705
G3 X-81.25209 Y-32.44767 I3.43861 J16.06053
G3 X-81.14846 Y-32.44726 I0.03036 J5.39991
G3 X-67.98615 Y-30.72105 I-0.77261 J56.93558
G3 X-63.90767 Y-25.4789 I-1.32152 J5.2358
G3 X-63.95678 Y-16.88498 I-947.02984 J-1.1145
G3 X-63.95748 Y-16.83714 I-5.39972 J-0.05536
G2 X-64.05421 Y-8.71184 I563.68291 J10.77374
G3 X-64.05432 Y-8.69416 I-5.39994 J-0.02537
G2 X-63.16222 Y7.92717 I135.20513 J1.07783
G3 X-63.16091 Y7.9386 I-5.3642 J0.62078
G2 X-62.93869 Y8.81732 I3.35528 J-0.38105
G2 X-62.04387 Y8.96081 I0.82395 J-2.27645
G3 X-61.76844 Y8.95977 I0.15807 J5.39769
G2 X-60.5312 Y8.50652 I0.0393 J-1.80801
G3 X-60.43412 Y8.42272 I3.57705 J4.04533
G3 X-60.44299 Y8.28303 I5.38427 J-0.41188
G1 X-60.87679 Y-0.31234
G3 X-60.87775 Y-0.33206 I5.39314 J-0.27219
G2 X-61.36508 Y-8.80934 I-398.1342 J18.63478
G3 X-61.37757 Y-9.18929 I5.38749 J-0.36733
G3 X-61.32861 Y-19.08077 I1894.29438 J4.43183
G3 X-61.32856 Y-19.0866 I5.39985 J0.04083
G2 X-61.27993 Y-28.91003 I-1331.38557 J-11.50286
G3 X-61.27919 Y-28.99274 I5.4 J0.00681
G3 X-61.11678 Y-32.40334 I55.06354 J0.91291
G3 X-61.10265 Y-32.5553 I5.38333 J0.42394
G2 X-60.93683 Y-35.12553 I-30.18951 J-3.23817
G3 X-60.93633 Y-35.14649 I5.39869 J0.11879
G2 X-61.04542 Y-35.3913 I-0.31113 J-0.00805
G3 X-61.19508 Y-35.52388 I3.50534 J-4.10763
G2 X-62.22209 Y-35.90771 I-0.986 J1.07234
G3 X-62.59618 Y-35.91014 I-0.15199 J-5.39786
G2 X-63.35138 Y-35.44204 I-0.03255 J0.79072
G3 X-65.28436 Y-33.15208 I-4.9309 J-2.20142
G1 F300.0 X-66.61677 Y-35.14825
G3 F800.0 X-69.31902 Y-34.82829 I-1.66551 J-2.49521
G2 X-81.21635 Y-36.93838 I-11.83597 J32.1393
G3 X-81.24382 Y-36.93846 I-0.00538 J-3.0
G2 X-86.60704 Y-36.37256 I-0.17688 J24.0212
G2 X-91.33497 Y-34.49294 I3.44005 J15.53899
G2 X-96.26575 Y-26.8945 I5.54724 J8.99877
G3 X-96.27941 Y-26.80299 I-2.97356 J-0.3974
G2 X-98.14337 Y-5.56747 I138.23439 J22.83313
G2 X-96.73214 Y8.2775 I79.75598 J-1.13516
G3 X-96.70215 Y8.46701 I-2.94662 J0.56342
G2 X-95.61237 Y10.67501 I3.73135 J-0.46871
G2 X-93.23723 Y11.36226 I2.18501 J-3.10355
G3 X-93.02134 Y11.35921 I0.15027 J2.99623
G2 X-90.26964 Y10.3308 I0.08672 J-3.96352
G3 X-90.20041 Y10.26985 I2.01666 J2.22106
G2 X-89.24955 Y8.15912 I-1.76004 J-2.06242
G2 X-89.93778 Y1.89166 I-48.243 J2.12611
G3 X-89.94318 Y1.86009 I2.95433 J-0.52145
G3 X-90.66546 Y-5.46584 I55.26603 J-9.14733
G3 X-90.66701 Y-5.54838 I2.99841 J-0.09754
G3 X-90.21837 Y-17.76134 I146.51673 J-0.73247
G3 X-90.21719 Y-17.77585 I2.99078 J0.23507
G3 X-88.71914 Y-26.7125 I54.5934 J4.55761
G3 X-87.03408 Y-28.71315 I2.90757 J0.73896
G3 X-84.2421 Y-29.70197 I7.61494 J17.06499
G3 X-84.0959 Y-29.73713 I0.77428 J2.89836
G3 X-81.2386 Y-30.04771 I2.93615 J13.71372
G3 X-81.18102 Y-30.04748 I0.01687 J2.99995
G3 X-68.57349 Y-28.39403 I-0.74005 J54.5358
G3 X-66.30767 Y-25.48172 I-0.73418 J2.90878
G3 X-66.35665 Y-16.90958 I-944.62984 J-1.11167
G3 X-66.35704 Y-16.883 I-2.99984 J-0.03075
G2 X-66.45419 Y-8.72312 I566.08247 J10.8196
G3 X-66.45425 Y-8.71329 I-2.99997 J-0.01409
G2 X-65.54631 Y8.20307 I137.60505 J1.09697
G3 X-65.54558 Y8.20942 I-2.98011 J0.34488
G2 X-65.14125 Y9.77185 I5.73995 J-0.65188
G3 X-65.13226 Y9.79376 I-2.77086 J1.14992
G2 X-64.12129 Y10.92443 I2.08315 J-0.8453
G2 X-61.97361 Y11.35978 I2.00655 J-4.38355
G3 X-61.8206 Y11.3592 I0.08782 J2.99871
G2 X-58.9414 Y10.30445 I0.09145 J-4.20744
G3 X-58.88337 Y10.25444 I1.98725 J2.24741
G2 X-58.0407 Y8.245 I-1.53133 J-1.82358
G3 X-58.04604 Y8.16205 I2.99085 J-0.23416
G1 X-58.47984 Y-0.43332
G3 X-58.48038 Y-0.44427 I2.99619 J-0.15122
G2 X-58.97064 Y-8.97259 I-400.53158 J18.74699
G3 X-58.97758 Y-9.18368 I2.99305 J-0.20407
G3 X-58.92868 Y-19.06263 I1891.89439 J4.42622
G3 X-58.92865 Y-19.06586 I2.99991 J0.02268
G2 X-58.87993 Y-28.90701 I-1333.78548 J-11.52359
G3 X-58.87952 Y-28.95295 I3.0 J0.00378
G3 X-58.72419 Y-32.21492 I52.66387 J0.87312
G3 X-58.71634 Y-32.29934 I2.99074 J0.23552
G2 X-58.53741 Y-35.07274 I-32.57582 J-3.49413
G3 X-58.53713 Y-35.08438 I2.99927 J0.066
G2 X-59.4875 Y-37.21691 I-2.71033 J-0.07017
G3 X-59.57064 Y-37.29057 I1.94741 J-2.28202
G2 X-62.28964 Y-38.30676 I-2.61044 J2.83903
G3 X-62.49747 Y-38.30811 I-0.08444 J-2.99881
G2 X-65.54289 Y-36.42045 I-0.13127 J3.18869
G3 X-66.61677 Y-35.14825 I-2.73939 J-1.22301
G0 Z4.0
G0 X-15.28018 Y-29.28294
G0 Z1.0
G1 F300.0 Z-1.0
G3 F800.0 X-13.78348 Y-24.3608 I-8.03448 J5.1317
G3 X-13.81353 Y-23.57016 I-6.59841 J0.14508
G3 X-14.44249 Y-20.96434 I-9.63664 J-0.94713
G2 X-14.22213 Y-21.26515 I-10.94242 J-8.24682
G2 X-13.30995 Y-24.14757 I-4.16981 J-2.90515
G3 X-13.30855 Y-24.25698 I6.59993 J0.02951
G2 X-14.31682 Y-28.09426 I-7.22707 J-0.15214
G2 X-15.28018 Y-29.28294 I-7.47501 J5.07335
G0 Z4.0
G0 X-14.26446 Y7.70525
G0 Z1.0
G1 F300.0 Z-1.0
G3 F800.0 X-14.28499 Y7.72035 I-3.92016 J-5.30965
G2 X-14.26592 Y7.71383 I-1.34541 J-3.97069
G2 X-14.26446 Y7.70525 I-2.12386 J-0.36356
G1 F300.0 X-14.97722 Y6.73986
G3 F800.0 X-17.2607 Y7.71598 I-3.2074 J-4.34426
G3 X-22.16811 Y8.13743 I-4.89018 J-28.15988
G3 X-29.02242 Y7.78566 I-0.48407 J-57.52237
G3 X-33.21642 Y6.90582 I2.44809 J-22.10557
G3 X-33.21841 Y6.9052 I1.61269 J-5.15357
G3 X-36.18201 Y5.45157 I3.25181 J-10.37752
G3 X-39.35371 Y-0.32445 I4.06624 J-5.99166
G3 X-39.33845 Y-0.92151 I5.39761 J-0.16081
G3 X-37.54262 Y-5.11718 I7.15387 J0.57984
G3 X-35.02671 Y-7.3226 I9.60829 J8.42323
G3 X-34.98615 Y-7.34941 I2.99732 J4.49178
G3 X-29.07715 Y-10.54346 I21.94988 J33.54435
G2 X-22.63708 Y-13.64339 I-74.65255 J-163.32954
G3 X-22.57834 Y-13.67267 I2.43845 J4.81809
G2 X-16.84839 Y-16.99644 I-21.08764 J-42.95464
G2 X-13.24112 Y-20.57403 I-8.53652 J-12.21472
G2 X-12.10996 Y-24.14221 I-5.15082 J-3.59626
G3 X-12.10882 Y-24.23172 I5.39995 J0.02414
G2 X-13.30344 Y-28.73787 I-8.4268 J-0.1774
G2 X-17.03333 Y-32.08143 I-8.48839 J5.71696
G3 X-17.08965 Y-32.11144 I2.51082 J-4.78077
G2 X-23.09434 Y-34.27369 I-10.1666 J18.81442
G3 X-23.09921 Y-34.27466 I1.05091 J-5.29675
G2 X-29.96482 Y-34.92913 I-6.638 J33.29633
G3 X-30.0646 Y-34.92938 I-0.0362 J-5.39988
G2 X-40.03455 Y-33.24721 I-0.33443 J28.40404
G3 X-40.11422 Y-33.21918 I-1.83172 J-5.07984
G2 X-43.29193 Y-31.39986 I3.1528 J9.19164
G2 X-43.70651 Y-30.78637 I0.9716 J1.10339
G2 X-43.53654 Y-30.78539 I0.10326 J-3.19638
G2 X-41.45362 Y-31.09146 I-0.33562 J-9.52468
G3 X-41.38229 Y-31.10965 I1.37033 J5.22324
G2 X-38.61649 Y-31.91876 I-8.32254 J-33.58119
G1 X-38.61575 Y-31.91901
G3 X-34.9864 Y-32.97847 I14.39297 J42.55923
G3 X-30.51107 Y-33.61701 I5.11361 J19.83732
G3 X-30.42567 Y-33.61899 I0.16825 J5.39738
G3 X-23.78005 Y-33.07029 I0.52428 J34.16861
G3 X-19.34581 Y-31.47893 I-2.53892 J14.04816
G3 X-14.98319 Y-24.33443 I-3.96884 J7.3277
G3 X-15.00778 Y-23.68754 I-5.3987 J0.1187
G3 X-17.84198 Y-18.15249 I-8.44239 J-0.82975
G3 X-21.634 Y-15.45705 I-12.61622 J-13.73381
G3 X-25.10578 Y-13.74933 I-19.64532 J-35.55568
G2 X-31.49872 Y-10.82796 I97.13588 J221.02196
G3 X-31.56792 Y-10.79571 I-2.31565 J-4.8783
G2 X-37.21767 Y-7.77057 I21.32514 J46.61516
G2 X-40.56616 Y-4.37275 I7.02429 J10.27115
G2 X-41.64217 Y-0.57138 I6.00402 J3.75246
G3 X-41.64232 Y-0.47986 I-5.39987 J0.0373
G2 X-41.23581 Y2.36913 I9.5171 J0.09556
G2 X-39.22405 Y5.34692 I6.03437 J-1.90828
G2 X-35.08292 Y7.52808 I7.92348 J-10.02171
G2 X-27.06988 Y8.95877 I10.53252 J-35.83569
G3 X-27.00234 Y8.96376 I-0.36425 J5.3877
G2 X-18.1106 Y9.30034 I8.43036 J-105.09205
G3 X-18.04798 Y9.30043 I0.02363 J5.39995
G2 X-15.10757 Y9.11824 I0.15403 J-21.33322
G3 X-15.01677 Y9.10706 I0.70529 J5.35374
G2 X-13.31597 Y8.62016 I-0.61363 J-5.35741
G2 X-13.26353 Y8.56722 I-0.0999 J-0.15141
G2 X-13.03607 Y7.26661 I-3.12624 J-1.21695
G3 X-13.03612 Y6.99928 I5.39832 J-0.13467
G2 X-13.21625 Y4.5111 I-12.89704 J-0.31691
G3 X-14.97722 Y6.73986 I-4.96837 J-2.1155
G1 F300.0 X-16.40273 Y4.80908
G3 F800.0 X-17.67133 Y5.35137 I-1.78189 J-2.41348
G3 X-22.17736 Y5.73742 I-4.47955 J-25.79527
G3 X-28.75746 Y5.40033 I-0.47482 J-55.12237
G3 X-32.49967 Y4.61535 I2.18313 J-19.72024
G3 X-32.50078 Y4.615 I0.89594 J-2.86309
G3 X-34.82272 Y3.47354 I2.53417 J-8.08732
G3 X-36.95477 Y-0.39592 I2.70695 J-4.01362
G3 X-36.9463 Y-0.72762 I2.99867 J-0.08934
G3 X-35.74473 Y-3.52729 I4.76172 J0.38595
G3 X-33.69457 Y-5.32626 I7.81041 J6.83334
G3 X-33.67203 Y-5.34115 I1.66518 J2.49543
G3 X-28.09841 Y-8.352 I20.63576 J31.53609
G2 X-21.55333 Y-11.50202 I-75.63128 J-165.52101
G3 X-21.52069 Y-11.51829 I1.35469 J2.67672
G2 X-15.48876 Y-15.01863 I-22.14529 J-45.10903
G2 X-11.27954 Y-19.19117 I-9.89614 J-14.19253
G2 X-9.70998 Y-24.13148 I-7.1124 J-4.97913
G3 X-9.70935 Y-24.18121 I2.99997 J0.01341
G2 X-11.27753 Y-30.02587 I-10.82627 J-0.22791
G2 X-15.91741 Y-34.20622 I-10.5143 J7.00496
G3 X-15.9487 Y-34.22289 I1.3949 J-2.65599
G2 X-22.62727 Y-36.6278 I-11.30755 J20.92588
G3 X-22.62997 Y-36.62834 I0.58384 J-2.94264
G2 X-29.98091 Y-37.32907 I-7.10723 J35.65001
G3 X-30.03635 Y-37.32921 I-0.02011 J-2.99993
G2 X-40.84864 Y-35.50492 I-0.36269 J30.80388
G3 X-40.89291 Y-35.48934 I-1.01762 J-2.82214
G2 X-44.86469 Y-33.21274 I3.93149 J11.46181
G2 X-46.1905 Y-30.28179 I2.54436 J2.91628
G3 X-46.19105 Y-30.21192 I-2.99998 J0.01138
G2 X-46.02663 Y-29.21111 I2.79627 J0.05453
G2 X-45.50542 Y-28.71778 I0.83676 J-0.36205
G2 X-43.46781 Y-28.38634 I1.90217 J-5.26497
G2 X-40.84458 Y-28.77002 I-0.40435 J-11.92374
G3 X-40.80495 Y-28.78013 I0.7613 J2.9018
G2 X-37.84729 Y-29.64536 I-8.89988 J-35.91071
G1 X-37.84688 Y-29.6455
G3 X-34.39913 Y-30.65139 I13.6241 J40.28572
G3 X-30.4363 Y-31.21817 I4.52635 J17.51024
G3 X-30.38885 Y-31.21928 I0.09347 J2.99854
G3 X-24.20838 Y-30.70882 I0.48746 J31.76889
G3 X-20.50296 Y-29.37623 I-2.11059 J11.68669
G3 X-17.38261 Y-24.28167 I-2.81169 J5.22499
G3 X-17.39627 Y-23.92229 I-2.99928 J0.06595
G3 X-19.44641 Y-19.93759 I-6.0539 J-0.595
G3 X-22.78195 Y-17.56477 I-11.01179 J-11.94871
G3 X-26.06629 Y-15.94875 I-18.49738 J-33.44796
G2 X-32.52789 Y-12.9961 I98.09639 J223.22139
G3 X-32.56634 Y-12.97818 I-1.28647 J-2.71016
G2 X-38.52568 Y-9.78348 I22.32356 J48.79763
G2 X-42.5839 Y-5.67257 I8.33231 J12.28405
G2 X-44.04211 Y-0.5548 I8.02176 J5.05228
G3 X-44.04219 Y-0.50396 I-2.99993 J0.02072
G2 X-43.52884 Y3.07778 I11.91698 J0.11966
G2 X-40.73045 Y7.2154 I8.3274 J-2.61694
G2 X-35.77615 Y9.82584 I9.42987 J-11.89019
G2 X-27.23177 Y11.3533 I11.22575 J-38.13346
G3 X-27.19425 Y11.35607 I-0.20236 J2.99317
G2 X-18.10009 Y11.70032 I8.62227 J-107.48437
G3 X-18.0653 Y11.70037 I0.01313 J2.99997
G2 X-14.7941 Y11.49768 I0.17136 J-23.73315
G3 X-14.74366 Y11.49147 I0.39183 J2.9743
G2 X-12.21293 Y10.75273 I-0.88674 J-7.74182
G2 X-11.07372 Y9.55407 I-1.20294 J-2.28398
G2 X-10.63681 Y7.20675 I-5.31605 J-2.2038
G3 X-10.63684 Y7.05824 I2.99907 J-0.07482
G2 X-11.18144 Y2.6197 I-15.29631 J-0.37586
G2 X-11.80522 Y1.50083 I-2.67732 J0.75931
G2 X-12.28022 Y1.3414 I-0.45246 J0.56074
G3 X-12.49525 Y1.34042 I-0.09385 J-2.99853
G2 X-14.49047 Y1.79528 I-0.15807 J3.91004
G2 X-15.24072 Y2.97307 I1.12763 J1.54615
G3 X-16.40273 Y4.80908 I-2.9439 J-0.57747
G1 F300.0 X-14.26446 Y7.70525
G1 Z-2.0
G3 F800.0 X-14.28499 Y7.72035 I-3.92016 J-5.30965
G2 X-14.26592 Y7.71383 I-1.34541 J-3.97069
G2 X-14.26446 Y7.70525 I-2.12386 J-0.36356
G0 Z4.0
G0 X-14.44249 Y-20.96434
G0 Z0.0
G1 F300.0 Z-2.0
G2 F800.0 X-14.22213 Y-21.26515 I-10.94242 J-8.24682
G2 X-13.30995 Y-24.14757 I-4.16981 J-2.90515
G3 X-13.30855 Y-24.25698 I6.59993 J0.02951
G2 X-14.31682 Y-28.09426 I-7.22707 J-0.15214
G2 X-15.28018 Y-29.28294 I-7.47501 J5.07335
G3 X-13.78348 Y-24.3608 I-8.03448 J5.1317
G3 X-13.81353 Y-23.57016 I-6.59841 J0.14508
G3 X-14.44249 Y-20.96434 I-9.63664 J-0.94713
G1 F300.0 X-13.48417 Y-20.24209
G2 F800.0 X-13.24112 Y-20.57403 I-11.90073 J-8.96906
G2 X-12.10996 Y-24.14221 I-5.15082 J-3.59626
G3 X-12.10882 Y-24.23172 I5.39995 J0.02414
G2 X-13.30344 Y-28.73787 I-8.4268 J-0.1774
G2 X-17.03333 Y-32.08143 I-8.48839 J5.71696
G3 X-17.08965 Y-32.11144 I2.51082 J-4.78077
G2 X-23.09434 Y-34.27369 I-10.1666 J18.81442
G3 X-23.09921 Y-34.27466 I1.05091 J-5.29675
G2 X-29.96482 Y-34.92913 I-6.638 J33.29633
G3 X-30.0646 Y-34.92938 I-0.0362 J-5.39988
G2 X-40.03455 Y-33.24721 I-0.33443 J28.40404
G3 X-40.11422 Y-33.21918 I-1.83172 J-5.07984
G2 X-43.29193 Y-31.39986 I3.1528 J9.19164
G2 X-43.70651 Y-30.78637 I0.9716 J1.10339
G2 X-43.53654 Y-30.78539 I0.10326 J-3.19638
G2 X-41.45362 Y-31.09146 I-0.33562 J-9.52468
G3 X-41.38229 Y-31.10965 I1.37033 J5.22324
G2 X-38.61649 Y-31.91876 I-8.32254 J-33.58119
G1 X-38.61575 Y-31.91901
G3 X-34.9864 Y-32.97847 I14.39297 J42.55923
G3 X-30.51107 Y-33.61701 I5.11361 J19.83732
G3 X-30.42567 Y-33.61899 I0.16825 J5.39738
G3 X-23.78005 Y-33.07029 I0.52428 J34.16861
G3 X-19.34581 Y-31.47893 I-2.53892 J14.04816
