( Made using CamBam - http://www.cambam.co.uk )
( Willkommen 3/28/2020 5:40:48 PM )
( T6 : 6.0 )
G21 G90 G64 G40
G0 Z4.0
( T6 : 6.0 )
T6 M6
( Willkommen-Text )
G17
M3 S1000
G0 X-3.25629 Y-25.37022
G0 Z1.0
G1 F300.0 Z-1.0
G2 F800.0 X-9.41978 Y-26.66101 I-5.94058 J13.00547
G3 X-9.51321 I-0.04677 J-2.99964
G2 X-19.01188 Y-22.86751 I-0.20643 J13.27189
G3 X-19.04942 Y-22.83134 I-2.10018 J-2.14225
G2 X-22.49886 Y-17.71094 I9.73179 J10.27806
G2 X-23.71556 Y-11.37032 I17.65123 J6.67411
G3 X-23.71825 Y-11.28573 I-2.99953 J-0.05302
G2 X-19.8809 Y1.20943 I19.36645 J0.88925
G3 X-19.85491 Y1.24474 I-2.40304 J1.79594
G2 X-14.20879 Y5.96137 I12.15013 J-8.8068
G2 X-6.84448 Y7.47651 I7.06995 J-15.70871
G3 X-6.74544 Y7.47645 I0.05126 J2.99956
G2 X-1.57562 Y6.33483 I0.18236 J-11.45074
G2 X2.41048 Y2.87385 I-5.20617 J-10.02199
G3 X2.43139 Y2.84492 I2.44182 J1.74285
G2 X4.96028 Y-2.3929 I-12.96672 J-9.48991
G2 X5.73425 Y-8.43062 I-21.62486 J-5.84053
G3 X5.73423 Y-8.48187 I2.99988 J-0.02641
G2 X4.79653 Y-15.23714 I-23.40547 J-0.1938
G2 X1.80084 Y-21.14873 I-17.85734 J5.33437
G3 X1.77814 Y-21.17913 I2.39227 J-1.81026
G2 X-3.11644 Y-25.30542 I-11.05579 J8.14819
G2 X-3.25629 Y-25.37022 I-6.08043 J12.94067
G1 F300.0 X-4.298 Y-23.11304
G3 F800.0 X-1.05529 Y-20.91772 I-5.06387 J10.9724
G3 X2.08745 Y-16.25759 I-8.79732 J9.32261
G3 X2.10025 Y-16.2244 I-3.90783 J1.52597
G3 X3.11198 Y-11.17896 I-14.56032 J5.54385
G3 X3.06435 Y-7.11572 I-36.3552 J1.60578
G3 X2.59241 Y-3.78707 I-22.74645 J-1.52725
G3 X-0.13843 Y1.90988 I-12.28771 J-2.38714
G3 X-0.29726 Y2.08719 I-3.20297 J-2.70937
G3 X-7.28417 Y5.00442 I-6.7914 J-6.44011
G3 X-13.51254 Y3.3654 I-0.18261 J-11.95965
G3 X-13.61436 Y3.3038 I2.12048 J-3.61984
G3 X-17.96184 Y-1.11955 I7.03235 J-11.25987
G3 X-20.76674 Y-11.4398 I16.31826 J-9.97637
G3 X-20.03567 Y-16.3226 I15.65827 J-0.15171
G3 X-20.029 Y-16.34345 I3.99914 J1.2675
G3 X-16.99516 Y-21.17942 I11.06056 J3.56922
G3 X-9.47897 Y-24.22462 I7.47835 J7.65975
G3 X-4.298 Y-23.11304 I0.1171 J12.08398
G1 F300.0 X-4.79883 Y-22.02784
G3 F800.0 X-1.87621 Y-20.04905 I-4.56304 J9.88719
G3 X0.97412 Y-15.82285 I-7.9764 J8.45394
G3 X0.98328 Y-15.79911 I-2.7945 J1.09122
G3 X1.91762 Y-11.13355 I-13.44334 J5.11856
G3 X1.87186 Y-7.19611 I-35.16083 J1.56037
G3 X1.4217 Y-4.0282 I-21.55396 J-1.44686
G3 X-1.05095 Y1.13799 I-11.11701 J-2.14601
G3 X-1.16453 Y1.26478 I-2.29045 J-1.93748
G3 X-7.28064 Y3.80901 I-5.92413 J-5.6177
G3 X-12.90842 Y2.33412 I-0.18614 J-10.76424
G3 X-12.98123 Y2.29007 I1.51636 J-2.58856
G3 X-16.93968 Y-1.73899 I6.39922 J-10.24614
G3 X-19.57143 Y-11.43491 I15.29609 J-9.35693
G3 X-18.89633 Y-15.96149 I14.46296 J-0.15661
G3 X-18.89156 Y-15.9764 I2.8598 J0.90639
G3 X-16.16493 Y-20.31962 I9.92312 J3.20217
G3 X-9.47532 Y-23.0294 I6.64811 J6.79995
G3 X-4.79883 Y-22.02784 I0.11345 J10.88876
G1 F300.0 X-3.77103 Y-24.28606
G3 F800.0 X-3.64087 Y-24.22596 I-5.42585 J11.92131
G3 X0.81215 Y-20.46719 I-5.63678 J11.19502
G2 X0.84393 Y-20.42463 I3.38097 J-2.4918
G3 X3.64569 Y-14.89719 I-13.90474 J10.52185
G3 X4.53427 Y-8.49181 I-21.31693 J6.22152
G2 X4.53429 Y-8.42006 I4.19986 J0.03478
G3 X3.80242 Y-2.70814 I-21.19888 J0.18662
G3 X1.46302 Y2.13621 I-14.33775 J-3.93685
G2 X1.43375 Y2.17671 I3.38927 J2.48049
G3 X-2.11363 Y5.26205 I-8.21553 J-5.86386
G3 X-6.72633 Y6.27661 I-4.44945 J-9.23633
G2 X-6.86498 Y6.27669 I-0.06688 J4.19947
G3 X-13.70237 Y4.87335 I-0.27386 J-16.02403
G3 X-18.8833 Y0.54048 I5.99759 J-12.43542
G2 X-18.91969 Y0.49105 I-3.40064 J2.46489
G3 X-22.51951 Y-11.23069 I14.56789 J-10.88753
G2 X-22.51574 Y-11.34911 I-4.19558 J-0.19265
G3 X-21.37887 Y-17.28005 I17.66811 J0.31229
G3 X-18.22437 Y-21.95998 I12.06123 J4.72676
G2 X-18.17181 Y-22.01061 I-2.8877 J-3.04979
G3 X-9.53187 Y-25.46115 I8.45217 J8.6215
G2 X-9.40107 I0.06532 J-4.19949
G3 X-3.77103 Y-24.28606 I0.2042 J13.0964
G1 F300.0 X-3.27393 Y-25.37826
G1 Z-2.0
G2 F800.0 X-9.41978 Y-26.66101 I-5.92295 J13.01351
G3 X-9.51321 I-0.04677 J-2.99964
G2 X-19.01188 Y-22.86751 I-0.20643 J13.27189
G3 X-19.04942 Y-22.83134 I-2.10018 J-2.14225
G2 X-22.49886 Y-17.71094 I9.73179 J10.27806
G2 X-23.71556 Y-11.37032 I17.65123 J6.67411
G3 X-23.71825 Y-11.28573 I-2.99953 J-0.05302
G2 X-19.8809 Y1.20943 I19.36645 J0.88925
G3 X-19.85491 Y1.24474 I-2.40304 J1.79594
G2 X-14.20879 Y5.96137 I12.15013 J-8.8068
G2 X-6.84448 Y7.47651 I7.06995 J-15.70871
G3 X-6.74544 Y7.47645 I0.05126 J2.99956
G2 X-1.57562 Y6.33483 I0.18236 J-11.45074
G2 X2.41048 Y2.87385 I-5.20617 J-10.02199
G3 X2.43139 Y2.84492 I2.44182 J1.74285
G2 X4.96028 Y-2.3929 I-12.96672 J-9.48991
G2 X5.73425 Y-8.43062 I-21.62486 J-5.84053
G3 X5.73423 Y-8.48187 I2.99988 J-0.02641
G2 X4.79653 Y-15.23714 I-23.40547 J-0.1938
G2 X1.80084 Y-21.14873 I-17.85734 J5.33437
G3 X1.77814 Y-21.17913 I2.39227 J-1.81026
G2 X-3.11644 Y-25.30542 I-11.05579 J8.14819
G2 X-3.27393 Y-25.37826 I-6.08043 J12.94067
G1 F300.0 X-4.3126 Y-23.11977
G3 F800.0 X-1.05529 Y-20.91772 I-5.04927 J10.97912
G3 X2.08745 Y-16.25759 I-8.79732 J9.32261
G3 X2.10025 Y-16.2244 I-3.90783 J1.52597
G3 X3.11198 Y-11.17896 I-14.56032 J5.54385
G3 X3.06435 Y-7.11572 I-36.3552 J1.60578
G3 X2.59241 Y-3.78707 I-22.74645 J-1.52725
G3 X-0.13843 Y1.90988 I-12.28771 J-2.38714
G3 X-0.29726 Y2.08719 I-3.20297 J-2.70937
G3 X-7.28417 Y5.00442 I-6.7914 J-6.44011
G3 X-13.51254 Y3.3654 I-0.18261 J-11.95965
G3 X-13.61436 Y3.3038 I2.12048 J-3.61984
G3 X-17.96184 Y-1.11955 I7.03235 J-11.25987
G3 X-20.76674 Y-11.4398 I16.31826 J-9.97637
G3 X-20.03567 Y-16.3226 I15.65827 J-0.15171
G3 X-20.029 Y-16.34345 I3.99914 J1.2675
G3 X-16.99516 Y-21.17942 I11.06056 J3.56922
G3 X-9.47897 Y-24.22462 I7.47835 J7.65975
G3 X-4.3126 Y-23.11977 I0.1171 J12.08398
G1 F300.0 X-4.81199 Y-22.0339
G3 F800.0 X-1.87621 Y-20.04905 I-4.54988 J9.89325
G3 X0.97412 Y-15.82285 I-7.9764 J8.45394
G3 X0.98328 Y-15.79911 I-2.7945 J1.09122
G3 X1.91762 Y-11.13355 I-13.44334 J5.11856
G3 X1.87186 Y-7.19611 I-35.16083 J1.56037
G3 X1.4217 Y-4.0282 I-21.55396 J-1.44686
G3 X-1.05095 Y1.13799 I-11.11701 J-2.14601
G3 X-1.16453 Y1.26478 I-2.29045 J-1.93748
G3 X-7.28064 Y3.80901 I-5.92413 J-5.6177
G3 X-12.90842 Y2.33412 I-0.18614 J-10.76424
G3 X-12.98123 Y2.29007 I1.51636 J-2.58856
G3 X-16.93968 Y-1.73899 I6.39922 J-10.24614
G3 X-19.57143 Y-11.43491 I15.29609 J-9.35693
G3 X-18.89633 Y-15.96149 I14.46296 J-0.15661
G3 X-18.89156 Y-15.9764 I2.8598 J0.90639
G3 X-16.16493 Y-20.31962 I9.92312 J3.20217
G3 X-9.47532 Y-23.0294 I6.64811 J6.79995
G3 X-4.81199 Y-22.0339 I0.11345 J10.88876
G1 F300.0 X-3.7873 Y-24.29345
G3 F800.0 X-3.64087 Y-24.22596 I-5.40958 J11.9287
G3 X0.81215 Y-20.46719 I-5.63678 J11.19502
G2 X0.84393 Y-20.42463 I3.38097 J-2.4918
G3 X3.64569 Y-14.89719 I-13.90474 J10.52185
G3 X4.53427 Y-8.49181 I-21.31693 J6.22152
G2 X4.53429 Y-8.42006 I4.19986 J0.03478
G3 X3.80242 Y-2.70814 I-21.19888 J0.18662
G3 X1.46302 Y2.13621 I-14.33775 J-3.93685
G2 X1.43375 Y2.17671 I3.38927 J2.48049
G3 X-2.11363 Y5.26205 I-8.21553 J-5.86386
G3 X-6.72633 Y6.27661 I-4.44945 J-9.23633
G2 X-6.86498 Y6.27669 I-0.06688 J4.19947
G3 X-13.70237 Y4.87335 I-0.27386 J-16.02403
G3 X-18.8833 Y0.54048 I5.99759 J-12.43542
G2 X-18.91969 Y0.49105 I-3.40064 J2.46489
G3 X-22.51951 Y-11.23069 I14.56789 J-10.88753
G2 X-22.51574 Y-11.34911 I-4.19558 J-0.19265
G3 X-21.37887 Y-17.28005 I17.66811 J0.31229
G3 X-18.22437 Y-21.95998 I12.06123 J4.72676
G2 X-18.17181 Y-22.01061 I-2.8877 J-3.04979
G3 X-9.53187 Y-25.46115 I8.45217 J8.6215
G2 X-9.40107 I0.06532 J-4.19949
G3 X-3.7873 Y-24.29345 I0.2042 J13.0964
G1 F300.0 X-3.29169 Y-25.38633
G1 Z-3.0
G2 F800.0 X-9.41978 Y-26.66101 I-5.90519 J13.02157
G3 X-9.51321 I-0.04677 J-2.99964
G2 X-19.01188 Y-22.86751 I-0.20643 J13.27189
G3 X-19.04942 Y-22.83134 I-2.10018 J-2.14225
G2 X-22.49886 Y-17.71094 I9.73179 J10.27806
G2 X-23.71556 Y-11.37032 I17.65123 J6.67411
G3 X-23.71825 Y-11.28573 I-2.99953 J-0.05302
G2 X-19.8809 Y1.20943 I19.36645 J0.88925
G3 X-19.85491 Y1.24474 I-2.40304 J1.79594
G2 X-14.20879 Y5.96137 I12.15013 J-8.8068
G2 X-6.84448 Y7.47651 I7.06995 J-15.70871
G3 X-6.74544 Y7.47645 I0.05126 J2.99956
G2 X-1.57562 Y6.33483 I0.18236 J-11.45074
G2 X2.41048 Y2.87385 I-5.20617 J-10.02199
G3 X2.43139 Y2.84492 I2.44182 J1.74285
G2 X4.96028 Y-2.3929 I-12.96672 J-9.48991
G2 X5.73425 Y-8.43062 I-21.62486 J-5.84053
G3 X5.73423 Y-8.48187 I2.99988 J-0.02641
G2 X4.79653 Y-15.23714 I-23.40547 J-0.1938
G2 X1.80084 Y-21.14873 I-17.85734 J5.33437
G3 X1.77814 Y-21.17913 I2.39227 J-1.81026
G2 X-3.11644 Y-25.30542 I-11.05579 J8.14819
G2 X-3.29169 Y-25.38633 I-6.08043 J12.94067
G1 F300.0 X-4.3273 Y-23.12652
G3 F800.0 X-1.05529 Y-20.91772 I-5.03457 J10.98588
G3 X2.08745 Y-16.25759 I-8.79732 J9.32261
G3 X2.10025 Y-16.2244 I-3.90783 J1.52597
G3 X3.11198 Y-11.17896 I-14.56032 J5.54385
G3 X3.06435 Y-7.11572 I-36.3552 J1.60578
G3 X2.59241 Y-3.78707 I-22.74645 J-1.52725
G3 X-0.13843 Y1.90988 I-12.28771 J-2.38714
G3 X-0.29726 Y2.08719 I-3.20297 J-2.70937
G3 X-7.28417 Y5.00442 I-6.7914 J-6.44011
G3 X-13.51254 Y3.3654 I-0.18261 J-11.95965
G3 X-13.61436 Y3.3038 I2.12048 J-3.61984
G3 X-17.96184 Y-1.11955 I7.03235 J-11.25987
G3 X-20.76674 Y-11.4398 I16.31826 J-9.97637
G3 X-20.03567 Y-16.3226 I15.65827 J-0.15171
G3 X-20.029 Y-16.34345 I3.99914 J1.2675
G3 X-16.99516 Y-21.17942 I11.06056 J3.56922
G3 X-9.47897 Y-24.22462 I7.47835 J7.65975
G3 X-4.3273 Y-23.12652 I0.1171 J12.08398
G1 F300.0 X-4.82524 Y-22.03998
G3 F800.0 X-1.87621 Y-20.04905 I-4.53663 J9.89934
G3 X0.97412 Y-15.82285 I-7.9764 J8.45394
G3 X0.98328 Y-15.79911 I-2.7945 J1.09122
G3 X1.91762 Y-11.13355 I-13.44334 J5.11856
G3 X1.87186 Y-7.19611 I-35.16083 J1.56037
G3 X1.4217 Y-4.0282 I-21.55396 J-1.44686
G3 X-1.05095 Y1.13799 I-11.11701 J-2.14601
G3 X-1.16453 Y1.26478 I-2.29045 J-1.93748
G3 X-7.28064 Y3.80901 I-5.92413 J-5.6177
G3 X-12.90842 Y2.33412 I-0.18614 J-10.76424
G3 X-12.98123 Y2.29007 I1.51636 J-2.58856
G3 X-16.93968 Y-1.73899 I6.39922 J-10.24614
G3 X-19.57143 Y-11.43491 I15.29609 J-9.35693
G3 X-18.89633 Y-15.96149 I14.46296 J-0.15661
G3 X-18.89156 Y-15.9764 I2.8598 J0.90639
G3 X-16.16493 Y-20.31962 I9.92312 J3.20217
G3 X-9.47532 Y-23.0294 I6.64811 J6.79995
G3 X-4.82524 Y-22.03998 I0.11345 J10.88876
G1 F300.0 X-3.80368 Y-24.30087
G3 F800.0 X-3.64087 Y-24.22596 I-5.3932 J11.93612
G3 X0.81215 Y-20.46719 I-5.63678 J11.19502
G2 X0.84393 Y-20.42463 I3.38097 J-2.4918
G3 X3.64569 Y-14.89719 I-13.90474 J10.52185
G3 X4.53427 Y-8.49181 I-21.31693 J6.22152
G2 X4.53429 Y-8.42006 I4.19986 J0.03478
G3 X3.80242 Y-2.70814 I-21.19888 J0.18662
G3 X1.46302 Y2.13621 I-14.33775 J-3.93685
G2 X1.43375 Y2.17671 I3.38927 J2.48049
G3 X-2.11363 Y5.26205 I-8.21553 J-5.86386
G3 X-6.72633 Y6.27661 I-4.44945 J-9.23633
G2 X-6.86498 Y6.27669 I-0.06688 J4.19947
G3 X-13.70237 Y4.87335 I-0.27386 J-16.02403
G3 X-18.8833 Y0.54048 I5.99759 J-12.43542
G2 X-18.91969 Y0.49105 I-3.40064 J2.46489
G3 X-22.51951 Y-11.23069 I14.56789 J-10.88753
G2 X-22.51574 Y-11.34911 I-4.19558 J-0.19265
G3 X-21.37887 Y-17.28005 I17.66811 J0.31229
G3 X-18.22437 Y-21.95998 I12.06123 J4.72676
G2 X-18.17181 Y-22.01061 I-2.8877 J-3.04979
G3 X-9.53187 Y-25.46115 I8.45217 J8.6215
G2 X-9.40107 I0.06532 J-4.19949
G3 X-3.80368 Y-24.30087 I0.2042 J13.0964
G1 F300.0 X-3.30957 Y-25.39442
G1 Z-4.0
G2 F800.0 X-9.41978 Y-26.66101 I-5.8873 J13.02967
G3 X-9.51321 I-0.04677 J-2.99964
G2 X-19.01188 Y-22.86751 I-0.20643 J13.27189
G3 X-19.04942 Y-22.83134 I-2.10018 J-2.14225
G2 X-22.49886 Y-17.71094 I9.73179 J10.27806
G2 X-23.71556 Y-11.37032 I17.65123 J6.67411
G3 X-23.71825 Y-11.28573 I-2.99953 J-0.05302
G2 X-19.8809 Y1.20943 I19.36645 J0.88925
G3 X-19.85491 Y1.24474 I-2.40304 J1.79594
G2 X-14.20879 Y5.96137 I12.15013 J-8.8068
G2 X-6.84448 Y7.47651 I7.06995 J-15.70871
G3 X-6.74544 Y7.47645 I0.05126 J2.99956
G2 X-1.57562 Y6.33483 I0.18236 J-11.45074
G2 X2.41048 Y2.87385 I-5.20617 J-10.02199
G3 X2.43139 Y2.84492 I2.44182 J1.74285
G2 X4.96028 Y-2.3929 I-12.96672 J-9.48991
G2 X5.73425 Y-8.43062 I-21.62486 J-5.84053
G3 X5.73423 Y-8.48187 I2.99988 J-0.02641
G2 X4.79653 Y-15.23714 I-23.40547 J-0.1938
G2 X1.80084 Y-21.14873 I-17.85734 J5.33437
G3 X1.77814 Y-21.17913 I2.39227 J-1.81026
G2 X-3.11644 Y-25.30542 I-11.05579 J8.14819
G2 X-3.30957 Y-25.39442 I-6.08043 J12.94067
G1 F300.0 X-4.34211 Y-23.13329
G3 F800.0 X-1.05529 Y-20.91772 I-5.01976 J10.99265
G3 X2.08745 Y-16.25759 I-8.79732 J9.32261
G3 X2.10025 Y-16.2244 I-3.90783 J1.52597
G3 X3.11198 Y-11.17896 I-14.56032 J5.54385
G3 X3.06435 Y-7.11572 I-36.3552 J1.60578
G3 X2.59241 Y-3.78707 I-22.74645 J-1.52725
G3 X-0.13843 Y1.90988 I-12.28771 J-2.38714
G3 X-0.29726 Y2.08719 I-3.20297 J-2.70937
G3 X-7.28417 Y5.00442 I-6.7914 J-6.44011
G3 X-13.51254 Y3.3654 I-0.18261 J-11.95965
G3 X-13.61436 Y3.3038 I2.12048 J-3.61984
G3 X-17.96184 Y-1.11955 I7.03235 J-11.25987
G3 X-20.76674 Y-11.4398 I16.31826 J-9.97637
G3 X-20.03567 Y-16.3226 I15.65827 J-0.15171
G3 X-20.029 Y-16.34345 I3.99914 J1.2675
G3 X-16.99516 Y-21.17942 I11.06056 J3.56922
G3 X-9.47897 Y-24.22462 I7.47835 J7.65975
G3 X-4.34211 Y-23.13329 I0.1171 J12.08398
G1 F300.0 X-4.83858 Y-22.04608
G3 F800.0 X-1.87621 Y-20.04905 I-4.52329 J9.90544
G3 X0.97412 Y-15.82285 I-7.9764 J8.45394
G3 X0.98328 Y-15.79911 I-2.7945 J1.09122
G3 X1.91762 Y-11.13355 I-13.44334 J5.11856
G3 X1.87186 Y-7.19611 I-35.16083 J1.56037
G3 X1.4217 Y-4.0282 I-21.55396 J-1.44686
G3 X-1.05095 Y1.13799 I-11.11701 J-2.14601
G3 X-1.16453 Y1.26478 I-2.29045 J-1.93748
G3 X-7.28064 Y3.80901 I-5.92413 J-5.6177
G3 X-12.90842 Y2.33412 I-0.18614 J-10.76424
G3 X-12.98123 Y2.29007 I1.51636 J-2.58856
G3 X-16.93968 Y-1.73899 I6.39922 J-10.24614
G3 X-19.57143 Y-11.43491 I15.29609 J-9.35693
G3 X-18.89633 Y-15.96149 I14.46296 J-0.15661
G3 X-18.89156 Y-15.9764 I2.8598 J0.90639
G3 X-16.16493 Y-20.31962 I9.92312 J3.20217
G3 X-9.47532 Y-23.0294 I6.64811 J6.79995
G3 X-4.83858 Y-22.04608 I0.11345 J10.88876
G1 F300.0 X-3.82018 Y-24.30831
G3 F800.0 X-3.64087 Y-24.22596 I-5.37669 J11.94356
G3 X0.81215 Y-20.46719 I-5.63678 J11.19502
G2 X0.84393 Y-20.42463 I3.38097 J-2.4918
G3 X3.64569 Y-14.89719 I-13.90474 J10.52185
G3 X4.53427 Y-8.49181 I-21.31693 J6.22152
G2 X4.53429 Y-8.42006 I4.19986 J0.03478
G3 X3.80242 Y-2.70814 I-21.19888 J0.18662
G3 X1.46302 Y2.13621 I-14.33775 J-3.93685
G2 X1.43375 Y2.17671 I3.38927 J2.48049
G3 X-2.11363 Y5.26205 I-8.21553 J-5.86386
G3 X-6.72633 Y6.27661 I-4.44945 J-9.23633
G2 X-6.86498 Y6.27669 I-0.06688 J4.19947
G3 X-13.70237 Y4.87335 I-0.27386 J-16.02403
G3 X-18.8833 Y0.54048 I5.99759 J-12.43542
G2 X-18.91969 Y0.49105 I-3.40064 J2.46489
G3 X-22.51951 Y-11.23069 I14.56789 J-10.88753
G2 X-22.51574 Y-11.34911 I-4.19558 J-0.19265
G3 X-21.37887 Y-17.28005 I17.66811 J0.31229
G3 X-18.22437 Y-21.95998 I12.06123 J4.72676
G2 X-18.17181 Y-22.01061 I-2.8877 J-3.04979
G3 X-9.53187 Y-25.46115 I8.45217 J8.6215
G2 X-9.40107 I0.06532 J-4.19949
G3 X-3.82018 Y-24.30831 I0.2042 J13.0964
G1 F300.0 X-3.32758 Y-25.40255
G1 Z-5.0
G2 F800.0 X-9.41978 Y-26.66101 I-5.86929 J13.03779
G3 X-9.51321 I-0.04677 J-2.99964
G2 X-19.01188 Y-22.86751 I-0.20643 J13.27189
G3 X-19.04942 Y-22.83134 I-2.10018 J-2.14225
G2 X-22.49886 Y-17.71094 I9.73179 J10.27806
G2 X-23.71556 Y-11.37032 I17.65123 J6.67411
G3 X-23.71825 Y-11.28573 I-2.99953 J-0.05302
G2 X-19.8809 Y1.20943 I19.36645 J0.88925
G3 X-19.85491 Y1.24474 I-2.40304 J1.79594
G2 X-14.20879 Y5.96137 I12.15013 J-8.8068
G2 X-6.84448 Y7.47651 I7.06995 J-15.70871
G3 X-6.74544 Y7.47645 I0.05126 J2.99956
G2 X-1.57562 Y6.33483 I0.18236 J-11.45074
G2 X2.41048 Y2.87385 I-5.20617 J-10.02199
G3 X2.43139 Y2.84492 I2.44182 J1.74285
G2 X4.96028 Y-2.3929 I-12.96672 J-9.48991
G2 X5.73425 Y-8.43062 I-21.62486 J-5.84053
G3 X5.73423 Y-8.48187 I2.99988 J-0.02641
G2 X4.79653 Y-15.23714 I-23.40547 J-0.1938
G2 X1.80084 Y-21.14873 I-17.85734 J5.33437
G3 X1.77814 Y-21.17913 I2.39227 J-1.81026
G2 X-3.11644 Y-25.30542 I-11.05579 J8.14819
G2 X-3.32758 Y-25.40255 I-6.08043 J12.94067
G1 F300.0 X-4.35702 Y-23.14009
G3 F800.0 X-1.05529 Y-20.91772 I-5.00485 J10.99945
G3 X2.08745 Y-16.25759 I-8.79732 J9.32261
G3 X2.10025 Y-16.2244 I-3.90783 J1.52597
G3 X3.11198 Y-11.17896 I-14.56032 J5.54385
G3 X3.06435 Y-7.11572 I-36.3552 J1.60578
G3 X2.59241 Y-3.78707 I-22.74645 J-1.52725
G3 X-0.13843 Y1.90988 I-12.28771 J-2.38714
G3 X-0.29726 Y2.08719 I-3.20297 J-2.70937
G3 X-7.28417 Y5.00442 I-6.7914 J-6.44011
G3 X-13.51254 Y3.3654 I-0.18261 J-11.95965
G3 X-13.61436 Y3.3038 I2.12048 J-3.61984
G3 X-17.96184 Y-1.11955 I7.03235 J-11.25987
G3 X-20.76674 Y-11.4398 I16.31826 J-9.97637
G3 X-20.03567 Y-16.3226 I15.65827 J-0.15171
G3 X-20.029 Y-16.34345 I3.99914 J1.2675
G3 X-16.99516 Y-21.17942 I11.06056 J3.56922
G3 X-9.47897 Y-24.22462 I7.47835 J7.65975
G3 X-4.35702 Y-23.14009 I0.1171 J12.08398
G1 F300.0 X-4.85202 Y-22.05221
G3 F800.0 X-1.87621 Y-20.04905 I-4.50985 J9.91157
G3 X0.97412 Y-15.82285 I-7.9764 J8.45394
G3 X0.98328 Y-15.79911 I-2.7945 J1.09122
G3 X1.91762 Y-11.13355 I-13.44334 J5.11856
G3 X1.87186 Y-7.19611 I-35.16083 J1.56037
G3 X1.4217 Y-4.0282 I-21.55396 J-1.44686
G3 X-1.05095 Y1.13799 I-11.11701 J-2.14601
G3 X-1.16453 Y1.26478 I-2.29045 J-1.93748
G3 X-7.28064 Y3.80901 I-5.92413 J-5.6177
G3 X-12.90842 Y2.33412 I-0.18614 J-10.76424
G3 X-12.98123 Y2.29007 I1.51636 J-2.58856
G3 X-16.93968 Y-1.73899 I6.39922 J-10.24614
G3 X-19.57143 Y-11.43491 I15.29609 J-9.35693
G3 X-18.89633 Y-15.96149 I14.46296 J-0.15661
G3 X-18.89156 Y-15.9764 I2.8598 J0.90639
G3 X-16.16493 Y-20.31962 I9.92312 J3.20217
G3 X-9.47532 Y-23.0294 I6.64811 J6.79995
G3 X-4.85202 Y-22.05221 I0.11345 J10.88876
G1 F300.0 X-3.8368 Y-24.31578
G3 F800.0 X-3.64087 Y-24.22596 I-5.36008 J11.95103
G3 X0.81215 Y-20.46719 I-5.63678 J11.19502
G2 X0.84393 Y-20.42463 I3.38097 J-2.4918
G3 X3.64569 Y-14.89719 I-13.90474 J10.52185
G3 X4.53427 Y-8.49181 I-21.31693 J6.22152
G2 X4.53429 Y-8.42006 I4.19986 J0.03478
G3 X3.80242 Y-2.70814 I-21.19888 J0.18662
G3 X1.46302 Y2.13621 I-14.33775 J-3.93685
G2 X1.43375 Y2.17671 I3.38927 J2.48049
G3 X-2.11363 Y5.26205 I-8.21553 J-5.86386
G3 X-6.72633 Y6.27661 I-4.44945 J-9.23633
G2 X-6.86498 Y6.27669 I-0.06688 J4.19947
G3 X-13.70237 Y4.87335 I-0.27386 J-16.02403
G3 X-18.8833 Y0.54048 I5.99759 J-12.43542
G2 X-18.91969 Y0.49105 I-3.40064 J2.46489
G3 X-22.51951 Y-11.23069 I14.56789 J-10.88753
G2 X-22.51574 Y-11.34911 I-4.19558 J-0.19265
G3 X-21.37887 Y-17.28005 I17.66811 J0.31229
G3 X-18.22437 Y-21.95998 I12.06123 J4.72676
G2 X-18.17181 Y-22.01061 I-2.8877 J-3.04979
G3 X-9.53187 Y-25.46115 I8.45217 J8.6215
G2 X-9.40107 I0.06532 J-4.19949
G3 X-3.8368 Y-24.31578 I0.2042 J13.0964
G0 Z4.0
G0 X21.01335 Y-2.22592
G0 Z1.0
G1 F300.0 Z-1.0
G3 F800.0 X20.96693 Y-1.1251 I-151.96604 J-5.85676
G2 X20.94972 Y-0.73413 I141.39912 J6.41996
G3 X21.84414 Y-1.18732 I3.42162 J5.6438
G3 X21.01335 Y-2.22592 I36.90915 J-30.37603
G1 F300.0 X19.81424 Y-2.27213
G3 F800.0 X19.76817 Y-1.17977 I-150.76693 J-5.81054
G2 X19.65303 Y2.28335 I142.59787 J6.47463
G3 X24.03281 Y-0.47971 I4.71831 J2.62632
G3 X21.32543 Y-3.79898 I34.72048 J-31.08364
G2 X20.96192 Y-4.24729 I-6.37414 J4.79701
G3 X19.9128 Y-6.07477 I4.0686 J-3.55056
G3 X19.81424 Y-2.27213 I-150.8655 J-2.0079
G0 Z4.0
G0 X39.04622 Y3.49061
G0 Z1.0
G1 F300.0 Z-1.0
G3 F800.0 X41.98973 Y1.75359 I4.07511 J3.54308
G3 X41.11081 Y1.07598 I20.59362 J-27.62076
G3 X39.89493 Y-0.28849 I3.36551 J-4.22295
G3 X39.43211 Y2.4168 I-19.60519 J-1.9618
G3 X39.04622 Y3.49061 I-5.24632 J-1.2791
G1 F300.0 X40.85739 Y5.06531
G3 F800.0 X45.12058 Y4.79694 I2.26395 J1.96838
G2 X49.08615 Y7.17904 I8.22773 J-9.20518
G2 X53.89858 Y7.98888 I4.69133 J-13.1742
G3 X53.95176 Y7.98889 I0.02598 J2.99989
G2 X56.33773 Y7.67648 I0.07858 J-8.66713
G2 X59.01579 Y6.03117 I-1.54324 J-5.5141
G2 X60.7983 Y2.96138 I-6.99114 J-6.11191
G2 X61.22578 Y0.94251 I-16.84252 J-4.62095
G3 X61.22977 Y0.91681 I2.96652 J0.44697
G2 X62.26232 Y-6.43801 I-195.74535 J-31.23085
G3 X62.28028 Y-6.56371 I2.97816 J0.36135
G2 X63.69298 Y-16.32201 I-252.06456 J-41.47256
G3 X63.69412 Y-16.33103 I2.97679 J0.37245
G2 X64.8932 Y-26.16335 I-799.31889 J-102.46859
G2 X64.54911 Y-26.97269 I-0.94369 J-0.0766
G3 X64.47548 Y-27.03493 I1.89987 J-2.32175
G2 X62.79712 Y-27.64978 I-1.63942 J1.87701
G3 X62.59886 Y-27.65324 I-0.04688 J-2.99963
G2 X61.34837 Y-27.30698 I-0.10388 J2.05602
G2 X60.78354 Y-26.105 I1.55714 J1.46542
G3 X60.76855 Y-25.9996 I-2.97714 J-0.36961
G2 X59.43857 Y-15.54051 I160.0613 J25.66756
G3 X58.21608 Y-4.72414 I-254.34299 J-23.26904
G3 X58.21254 Y-4.69862 I-2.97316 J-0.40037
G3 X57.47171 Y-0.9016 I-38.12665 J-5.468
G1 X57.47166 Y-0.90142
G3 X56.7519 Y1.27199 I-14.48014 J-3.58946
G3 X56.75088 Y1.27443 I-2.76713 J-1.15888
G3 X55.99012 Y2.63919 I-6.50047 J-2.72914
G3 X53.00644 Y4.41658 I-3.37802 J-2.27763
G3 X52.41325 Y4.41534 I-0.29037 J-2.98591
G3 X50.50092 Y3.91267 I0.64258 J-6.3335
G3 X47.41187 Y2.36784 I11.58438 J-27.02498
G3 X42.60659 Y-0.80089 I15.17147 J-28.23501
G3 X41.47652 Y-3.18147 I1.86973 J-2.34608
G3 X41.81742 Y-9.4508 I73.32601 J0.8433
G3 X42.48933 Y-15.53933 I176.18161 J16.36151
G3 X42.49 Y-15.54453 I2.97575 J0.38064
G2 X43.15615 Y-21.43842 I-179.06592 J-23.2231
G3 X43.15782 Y-21.45525 I2.98615 J0.28792
G2 X43.49076 Y-27.21178 I-65.23087 J-6.66072
G3 X43.49148 Y-27.24804 I2.99971 J0.04137
G2 X42.98287 Y-28.48697 I-1.65866 J-0.04294
G3 X42.9819 Y-28.48791 I2.07938 J-2.16244
G2 X41.53658 Y-29.04268 I-1.37915 J1.43295
G3 X41.33692 I-0.09981 J-2.99834
G2 X39.89167 Y-28.48793 I-0.06619 J1.98756
G3 X39.89068 Y-28.48698 I-2.08039 J-2.16148
G2 X39.38205 Y-27.24803 I1.1501 J1.19603
G3 X39.38287 Y-27.13686 I-2.999 J0.07762
G3 X39.0652 Y-20.76648 I-82.5442 J-0.9231
G3 X38.44888 Y-14.56829 I-207.27636 J-17.48078
G2 X37.87373 Y-8.51897 I211.93631 J23.20237
G3 X37.87266 Y-8.50613 I-2.99027 J-0.24136
G2 X37.589 Y-2.61495 I80.03364 J6.8061
G3 X37.10041 Y1.84831 I-17.29926 J0.36465
G3 X32.6482 Y3.7137 I-2.91462 J-0.71061
G3 X27.3865 Y-0.4201 I13.45459 J-22.54119
G3 X23.24843 Y-5.23499 I31.36678 J-31.14325
G2 X22.77018 Y-5.82532 I-8.29714 J6.23302
G3 X22.03122 Y-7.73294 I2.26033 J-1.97253
G3 X21.88407 Y-19.3906 I646.31974 J-13.98789
G2 X21.814 Y-22.05123 I-69.54701 J0.50043
G3 X21.7377 Y-24.72315 I72.3307 J-3.40246
G3 X21.73889 Y-24.84301 I2.99985 J-0.03027
G2 X21.46813 Y-25.36607 I-0.60565 J-0.01809
G3 X21.4248 Y-25.39535 I1.65809 J-2.50014
G2 X19.60006 Y-25.92987 I-1.72408 J2.50377
G3 X19.40526 Y-25.92974 I-0.09933 J-2.99836
G2 X18.51705 Y-25.7261 I-0.057 J1.79022
G2 X18.10245 Y-25.17603 I0.71077 J0.96702
G3 X18.10051 Y-25.17083 I-2.81314 J-1.04223
G2 X17.64386 Y-23.10502 I7.14913 J2.66371
G3 X17.6394 Y-23.05387 I-2.99077 J-0.23511
G2 X17.52022 Y-20.41174 I26.08414 J2.50033
G3 X17.52026 Y-20.39551 I-2.99996 J0.01623
G1 Y-6.77246
G3 X17.52014 Y-6.74544 I-3.0 J0.0
G3 X17.37066 Y-1.2891 I-148.47284 J-1.33723
G2 X17.22717 Y3.9846 I144.99538 J6.58396
G3 X17.22699 Y4.00009 I-2.99988 J-0.02708
G2 X18.15459 Y8.66707 I11.39089 J0.16165
G3 X18.18264 Y8.73446 I-2.75542 J1.18644
G2 X19.00666 Y9.99585 I3.58176 J-1.43999
G2 X19.40291 Y10.14951 I0.39154 J-0.42193
G3 X19.40429 Y10.1495 I0.02458 J2.9999
G2 X20.89354 Y9.49423 I-0.0159 J-2.05611
G3 X21.09692 Y9.29549 I2.19606 J2.04385
G2 X21.67603 Y8.25409 I-1.19738 J-1.34756
G3 X21.38007 Y5.13844 I84.62442 J-9.61028
G3 X26.6709 Y2.98301 I2.99126 J-0.22877
G2 X30.70444 Y6.75486 I17.45952 J-14.62823
G2 X32.84372 Y7.91935 I5.91463 J-8.31849
G3 X32.84523 Y7.91995 I-1.10965 J2.78723
G2 X34.87176 Y8.31848 I2.0766 J-5.20782
G3 X34.91131 Y8.31909 I-0.02679 J2.99988
G2 X38.27499 Y7.62315 I0.1694 J-7.65805
G2 X40.5419 Y5.50186 I-2.51826 J-4.96303
G3 X40.85739 Y5.06531 I2.57944 J1.53183
G1 F300.0 X39.04622 Y3.49061
G1 Z-2.0
G3 F800.0 X41.98973 Y1.75359 I4.07511 J3.54308
G3 X41.11081 Y1.07598 I20.59362 J-27.62076
G3 X39.89493 Y-0.28849 I3.36551 J-4.22295
G3 X39.43211 Y2.4168 I-19.60519 J-1.9618
G3 X39.04622 Y3.49061 I-5.24632 J-1.2791
G0 Z4.0
G0 X21.84414 Y-1.18732
G0 Z0.0
G1 F300.0 Z-2.0
G3 F800.0 X21.01335 Y-2.22592 I36.90915 J-30.37603
G3 X20.96693 Y-1.1251 I-151.96604 J-5.85676
G2 X20.94972 Y-0.73413 I141.39912 J6.41996
G3 X21.84414 Y-1.18732 I3.42162 J5.6438
G1 F300.0 X22.30363 Y-0.07878
G3 F800.0 X24.03281 Y-0.47971 I2.06771 J4.98845
G3 X21.32543 Y-3.79898 I34.72048 J-31.08364
G2 X20.96192 Y-4.24729 I-6.37414 J4.79701
G3 X19.9128 Y-6.07477 I4.0686 J-3.55056
G3 X19.76817 Y-1.17977 I-150.8655 J-2.0079
G2 X19.65303 Y2.28335 I142.59787 J6.47463
G3 X22.30363 Y-0.07878 I4.71831 J2.62632
G1 F300.0 X23.22261 Y2.13831
G3 F800.0 X26.6709 Y2.98301 I1.14873 J2.77136
G2 X30.70444 Y6.75486 I17.45952 J-14.62823
G2 X32.84372 Y7.91935 I5.91463 J-8.31849
G3 X32.84523 Y7.91995 I-1.10965 J2.78723
G2 X34.87176 Y8.31848 I2.0766 J-5.20782
G3 X34.91131 Y8.31909 I-0.02679 J2.99988
G2 X38.27499 Y7.62315 I0.1694 J-7.65805
G2 X40.5419 Y5.50186 I-2.51826 J-4.96303
G3 X45.12058 Y4.79694 I2.57944 J1.53183
G2 X49.08615 Y7.17904 I8.22773 J-9.20518
G2 X53.89858 Y7.98888 I4.69133 J-13.1742
G3 X53.95176 Y7.98889 I0.02598 J2.99989
G2 X56.33773 Y7.67648 I0.07858 J-8.66713
G2 X59.01579 Y6.03117 I-1.54324 J-5.5141
G2 X60.7983 Y2.96138 I-6.99114 J-6.11191
G2 X61.22578 Y0.94251 I-16.84252 J-4.62095
G3 X61.22977 Y0.91681 I2.96652 J0.44697
G2 X62.26232 Y-6.43801 I-195.74535 J-31.23085
G3 X62.28028 Y-6.56371 I2.97816 J0.36135
G2 X63.69298 Y-16.32201 I-252.06456 J-41.47256
G3 X63.69412 Y-16.33103 I2.97679 J0.37245
G2 X64.8932 Y-26.16335 I-799.31889 J-102.46859
G2 X64.54911 Y-26.97269 I-0.94369 J-0.0766
G3 X64.47548 Y-27.03493 I1.89987 J-2.32175
G2 X62.79712 Y-27.64978 I-1.63942 J1.87701
G3 X62.59886 Y-27.65324 I-0.04688 J-2.99963
G2 X61.34837 Y-27.30698 I-0.10388 J2.05602
G2 X60.78354 Y-26.105 I1.55714 J1.46542
G3 X60.76855 Y-25.9996 I-2.97714 J-0.36961
G2 X59.43857 Y-15.54051 I160.0613 J25.66756
G3 X58.21608 Y-4.72414 I-254.34299 J-23.26904
G3 X58.21254 Y-4.69862 I-2.97316 J-0.40037
G3 X57.47171 Y-0.9016 I-38.12665 J-5.468
G1 X57.47166 Y-0.90142
G3 X56.7519 Y1.27199 I-14.48014 J-3.58946
G3 X56.75088 Y1.27443 I-2.76713 J-1.15888
G3 X55.99012 Y2.63919 I-6.50047 J-2.72914
G3 X53.00644 Y4.41658 I-3.37802 J-2.27763
G3 X52.41325 Y4.41534 I-0.29037 J-2.98591
G3 X50.50092 Y3.91267 I0.64258 J-6.3335
G3 X47.41187 Y2.36784 I11.58438 J-27.02498
G3 X42.60659 Y-0.80089 I15.17147 J-28.23501
G3 X41.47652 Y-3.18147 I1.86973 J-2.34608
G3 X41.81742 Y-9.4508 I73.32601 J0.8433
G3 X42.48933 Y-15.53933 I176.18161 J16.36151
G3 X42.49 Y-15.54453 I2.97575 J0.38064
G2 X43.15615 Y-21.43842 I-179.06592 J-23.2231
G3 X43.15782 Y-21.45525 I2.98615 J0.28792
G2 X43.49076 Y-27.21178 I-65.23087 J-6.66072
G3 X43.49148 Y-27.24804 I2.99971 J0.04137
G2 X42.98287 Y-28.48697 I-1.65866 J-0.04294
G3 X42.9819 Y-28.48791 I2.07938 J-2.16244
G2 X41.53658 Y-29.04268 I-1.37915 J1.43295
G3 X41.33692 I-0.09981 J-2.99834
G2 X39.89167 Y-28.48793 I-0.06619 J1.98756
G3 X39.89068 Y-28.48698 I-2.08039 J-2.16148
G2 X39.38205 Y-27.24803 I1.1501 J1.19603
G3 X39.38287 Y-27.13686 I-2.999 J0.07762
G3 X39.0652 Y-20.76648 I-82.5442 J-0.9231
G3 X38.44888 Y-14.56829 I-207.27636 J-17.48078
G2 X37.87373 Y-8.51897 I211.93631 J23.20237
G3 X37.87266 Y-8.50613 I-2.99027 J-0.24136
G2 X37.589 Y-2.61495 I80.03364 J6.8061
G3 X37.10041 Y1.84831 I-17.29926 J0.36465
G3 X32.6482 Y3.7137 I-2.91462 J-0.71061
G3 X27.3865 Y-0.4201 I13.45459 J-22.54119
G3 X23.24843 Y-5.23499 I31.36678 J-31.14325
G2 X22.77018 Y-5.82532 I-8.29714 J6.23302
G3 X22.03122 Y-7.73294 I2.26033 J-1.97253
G3 X21.88407 Y-19.3906 I646.31974 J-13.98789
G2 X21.814 Y-22.05123 I-69.54701 J0.50043
G3 X21.7377 Y-24.72315 I72.3307 J-3.40246
G3 X21.73889 Y-24.84301 I2.99985 J-0.03027
G2 X21.46813 Y-25.36607 I-0.60565 J-0.01809
G3 X21.4248 Y-25.39535 I1.65809 J-2.50014
G2 X19.60006 Y-25.92987 I-1.72408 J2.50377
G3 X19.40526 Y-25.92974 I-0.09933 J-2.99836
G2 X18.51705 Y-25.7261 I-0.057 J1.79022
G2 X18.10245 Y-25.17603 I0.71077 J0.96702
G3 X18.10051 Y-25.17083 I-2.81314 J-1.04223
G2 X17.64386 Y-23.10502 I7.14913 J2.66371
G3 X17.6394 Y-23.05387 I-2.99077 J-0.23511
G2 X17.52022 Y-20.41174 I26.08414 J2.50033
G3 X17.52026 Y-20.39551 I-2.99996 J0.01623
G1 Y-6.77246
G3 X17.52014 Y-6.74544 I-3.0 J0.0
G3 X17.37066 Y-1.2891 I-148.47284 J-1.33723
G2 X17.22717 Y3.9846 I144.99538 J6.58396
G3 X17.22699 Y4.00009 I-2.99988 J-0.02708
G2 X18.15459 Y8.66707 I11.39089 J0.16165
G3 X18.18264 Y8.73446 I-2.75542 J1.18644
G2 X19.00666 Y9.99585 I3.58176 J-1.43999
G2 X19.40291 Y10.14951 I0.39154 J-0.42193
G3 X19.40429 Y10.1495 I0.02458 J2.9999
G2 X20.89354 Y9.49423 I-0.0159 J-2.05611
G3 X21.09692 Y9.29549 I2.19606 J2.04385
G2 X21.67603 Y8.25409 I-1.19738 J-1.34756
G3 X21.38007 Y5.13844 I84.62442 J-9.61028
G3 X23.22261 Y2.13831 I2.99126 J-0.22877
G1 F300.0 X21.84414 Y-1.18732
G1 Z-3.0
G3 F800.0 X21.01335 Y-2.22592 I36.90915 J-30.37603
G3 X20.96693 Y-1.1251 I-151.96604 J-5.85676
G2 X20.94972 Y-0.73413 I141.39912 J6.41996
G3 X21.84414 Y-1.18732 I3.42162 J5.6438
G1 F300.0 X22.30363 Y-0.07878
G3 F800.0 X24.03281 Y-0.47971 I2.06771 J4.98845
G3 X21.32543 Y-3.79898 I34.72048 J-31.08364
G2 X20.96192 Y-4.24729 I-6.37414 J4.79701
G3 X19.9128 Y-6.07477 I4.0686 J-3.55056
G3 X19.76817 Y-1.17977 I-150.8655 J-2.0079
G2 X19.65303 Y2.28335 I142.59787 J6.47463
G3 X22.30363 Y-0.07878 I4.71831 J2.62632
G0 Z4.0
G0 X39.04622 Y3.49061
G0 Z-1.0
G1 F300.0 Z-3.0
G3 F800.0 X41.98973 Y1.75359 I4.07511 J3.54308
G3 X41.11081 Y1.07598 I20.59362 J-27.62076
G3 X39.89493 Y-0.28849 I3.36551 J-4.22295
G3 X39.43211 Y2.4168 I-19.60519 J-1.9618
G3 X39.04622 Y3.49061 I-5.24632 J-1.2791
G1 F300.0 X40.85739 Y5.06531
G3 F800.0 X45.12058 Y4.79694 I2.26395 J1.96838
G2 X49.08615 Y7.17904 I8.22773 J-9.20518
G2 X53.89858 Y7.98888 I4.69133 J-13.1742
G3 X53.95176 Y7.98889 I0.02598 J2.99989
G2 X56.33773 Y7.67648 I0.07858 J-8.66713
G2 X59.01579 Y6.03117 I-1.54324 J-5.5141
G2 X60.7983 Y2.96138 I-6.99114 J-6.11191
G2 X61.22578 Y0.94251 I-16.84252 J-4.62095
G3 X61.22977 Y0.91681 I2.96652 J0.44697
G2 X62.26232 Y-6.43801 I-195.74535 J-31.23085
G3 X62.28028 Y-6.56371 I2.97816 J0.36135
G2 X63.69298 Y-16.32201 I-252.06456 J-41.47256
G3 X63.69412 Y-16.33103 I2.97679 J0.37245
G2 X64.8932 Y-26.16335 I-799.31889 J-102.46859
G2 X64.54911 Y-26.97269 I-0.94369 J-0.0766
G3 X64.47548 Y-27.03493 I1.89987 J-2.32175
G2 X62.79712 Y-27.64978 I-1.63942 J1.87701
G3 X62.59886 Y-27.65324 I-0.04688 J-2.99963
G2 X61.34837 Y-27.30698 I-0.10388 J2.05602
G2 X60.78354 Y-26.105 I1.55714 J1.46542
G3 X60.76855 Y-25.9996 I-2.97714 J-0.36961
G2 X59.43857 Y-15.54051 I160.0613 J25.66756
G3 X58.21608 Y-4.72414 I-254.34299 J-23.26904
G3 X58.21254 Y-4.69862 I-2.97316 J-0.40037
G3 X57.47171 Y-0.9016 I-38.12665 J-5.468
G1 X57.47166 Y-0.90142
G3 X56.7519 Y1.27199 I-14.48014 J-3.58946
G3 X56.75088 Y1.27443 I-2.76713 J-1.15888
G3 X55.99012 Y2.63919 I-6.50047 J-2.72914
G3 X53.00644 Y4.41658 I-3.37802 J-2.27763
G3 X52.41325 Y4.41534 I-0.29037 J-2.98591
G3 X50.50092 Y3.91267 I0.64258 J-6.3335
G3 X47.41187 Y2.36784 I11.58438 J-27.02498
G3 X42.60659 Y-0.80089 I15.17147 J-28.23501
G3 X41.47652 Y-3.18147 I1.86973 J-2.34608
G3 X41.81742 Y-9.4508 I73.32601 J0.8433
G3 X42.48933 Y-15.53933 I176.18161 J16.36151
G3 X42.49 Y-15.54453 I2.97575 J0.38064
G2 X43.15615 Y-21.43842 I-179.06592 J-23.2231
G3 X43.15782 Y-21.45525 I2.98615 J0.28792
G2 X43.49076 Y-27.21178 I-65.23087 J-6.66072
G3 X43.49148 Y-27.24804 I2.99971 J0.04137
G2 X42.98287 Y-28.48697 I-1.65866 J-0.04294
G3 X42.9819 Y-28.48791 I2.07938 J-2.16244
G2 X41.53658 Y-29.04268 I-1.37915 J1.43295
G3 X41.33692 I-0.09981 J-2.99834
G2 X39.89167 Y-28.48793 I-0.06619 J1.98756
G3 X39.89068 Y-28.48698 I-2.08039 J-2.16148
G2 X39.38205 Y-27.24803 I1.1501 J1.19603
G3 X39.38287 Y-27.13686 I-2.999 J0.07762
G3 X39.0652 Y-20.76648 I-82.5442 J-0.9231
G3 X38.44888 Y-14.56829 I-207.27636 J-17.48078
G2 X37.87373 Y-8.51897 I211.93631 J23.20237
G3 X37.87266 Y-8.50613 I-2.99027 J-0.24136
G2 X37.589 Y-2.61495 I80.03364 J6.8061
G3 X37.10041 Y1.84831 I-17.29926 J0.36465
G3 X32.6482 Y3.7137 I-2.91462 J-0.71061
G3 X27.3865 Y-0.4201 I13.45459 J-22.54119
G3 X23.24843 Y-5.23499 I31.36678 J-31.14325
G2 X22.77018 Y-5.82532 I-8.29714 J6.23302
G3 X22.03122 Y-7.73294 I2.26033 J-1.97253
G3 X21.88407 Y-19.3906 I646.31974 J-13.98789
G2 X21.814 Y-22.05123 I-69.54701 J0.50043
G3 X21.7377 Y-24.72315 I72.3307 J-3.40246
G3 X21.73889 Y-24.84301 I2.99985 J-0.03027
G2 X21.46813 Y-25.36607 I-0.60565 J-0.01809
G3 X21.4248 Y-25.39535 I1.65809 J-2.50014
G2 X19.60006 Y-25.92987 I-1.72408 J2.50377
G3 X19.40526 Y-25.92974 I-0.09933 J-2.99836
G2 X18.51705 Y-25.7261 I-0.057 J1.79022
G2 X18.10245 Y-25.17603 I0.71077 J0.96702
G3 X18.10051 Y-25.17083 I-2.81314 J-1.04223
G2 X17.64386 Y-23.10502 I7.14913 J2.66371
G3 X17.6394 Y-23.05387 I-2.99077 J-0.23511
G2 X17.52022 Y-20.41174 I26.08414 J2.50033
G3 X17.52026 Y-20.39551 I-2.99996 J0.01623
G1 Y-6.77246
G3 X17.52014 Y-6.74544 I-3.0 J0.0
G3 X17.37066 Y-1.2891 I-148.47284 J-1.33723
G2 X17.22717 Y3.9846 I144.99538 J6.58396
G3 X17.22699 Y4.00009 I-2.99988 J-0.02708
G2 X18.15459 Y8.66707 I11.39089 J0.16165
G3 X18.18264 Y8.73446 I-2.75542 J1.18644
G2 X19.00666 Y9.99585 I3.58176 J-1.43999
G2 X19.40291 Y10.14951 I0.39154 J-0.42193
G3 X19.40429 Y10.1495 I0.02458 J2.9999
G2 X20.89354 Y9.49423 I-0.0159 J-2.05611
G3 X21.09692 Y9.29549 I2.19606 J2.04385
G2 X21.67603 Y8.25409 I-1.19738 J-1.34756
G3 X21.38007 Y5.13844 I84.62442 J-9.61028
G3 X26.6709 Y2.98301 I2.99126 J-0.22877
G2 X30.70444 Y6.75486 I17.45952 J-14.62823
G2 X32.84372 Y7.91935 I5.91463 J-8.31849
G3 X32.84523 Y7.91995 I-1.10965 J2.78723
G2 X34.87176 Y8.31848 I2.0766 J-5.20782
G3 X34.91131 Y8.31909 I-0.02679 J2.99988
G2 X38.27499 Y7.62315 I0.1694 J-7.65805
G2 X40.5419 Y5.50186 I-2.51826 J-4.96303
G3 X40.85739 Y5.06531 I2.57944 J1.53183
G1 F300.0 X39.04622 Y3.49061
G1 Z-4.0
G3 F800.0 X41.98973 Y1.75359 I4.07511 J3.54308
G3 X41.11081 Y1.07598 I20.59362 J-27.62076
G3 X39.89493 Y-0.28849 I3.36551 J-4.22295
G3 X39.43211 Y2.4168 I-19.60519 J-1.9618
G3 X39.04622 Y3.49061 I-5.24632 J-1.2791
G0 Z4.0
G0 X21.84414 Y-1.18732
G0 Z-2.0
G1 F300.0 Z-4.0
G3 F800.0 X21.01335 Y-2.22592 I36.90915 J-30.37603
G3 X20.96693 Y-1.1251 I-151.96604 J-5.85676
G2 X20.94972 Y-0.73413 I141.39912 J6.41996
G3 X21.84414 Y-1.18732 I3.42162 J5.6438
G1 F300.0 X22.30363 Y-0.07878
G3 F800.0 X24.03281 Y-0.47971 I2.06771 J4.98845
G3 X21.32543 Y-3.79898 I34.72048 J-31.08364
G2 X20.96192 Y-4.24729 I-6.37414 J4.79701
G3 X19.9128 Y-6.07477 I4.0686 J-3.55056
G3 X19.76817 Y-1.17977 I-150.8655 J-2.0079
G2 X19.65303 Y2.28335 I142.59787 J6.47463
G3 X22.30363 Y-0.07878 I4.71831 J2.62632
G1 F300.0 X23.22261 Y2.13831
G3 F800.0 X26.6709 Y2.98301 I1.14873 J2.77136
G2 X30.70444 Y6.75486 I17.45952 J-14.62823
G2 X32.84372 Y7.91935 I5.91463 J-8.31849
G3 X32.84523 Y7.91995 I-1.10965 J2.78723
G2 X34.87176 Y8.31848 I2.0766 J-5.20782
G3 X34.91131 Y8.31909 I-0.02679 J2.99988
G2 X38.27499 Y7.62315 I0.1694 J-7.65805
G2 X40.5419 Y5.50186 I-2.51826 J-4.96303
G3 X45.12058 Y4.79694 I2.57944 J1.53183
G2 X49.08615 Y7.17904 I8.22773 J-9.20518
G2 X53.89858 Y7.98888 I4.69133 J-13.1742
G3 X53.95176 Y7.98889 I0.02598 J2.99989
G2 X56.33773 Y7.67648 I0.07858 J-8.66713
G2 X59.01579 Y6.03117 I-1.54324 J-5.5141
G2 X60.7983 Y2.96138 I-6.99114 J-6.11191
G2 X61.22578 Y0.94251 I-16.84252 J-4.62095
G3 X61.22977 Y0.91681 I2.96652 J0.44697
G2 X62.26232 Y-6.43801 I-195.74535 J-31.23085
G3 X62.28028 Y-6.56371 I2.97816 J0.36135
G2 X63.69298 Y-16.32201 I-252.06456 J-41.47256
G3 X63.69412 Y-16.33103 I2.97679 J0.37245
G2 X64.8932 Y-26.16335 I-799.31889 J-102.46859
G2 X64.54911 Y-26.97269 I-0.94369 J-0.0766
G3 X64.47548 Y-27.03493 I1.89987 J-2.32175
G2 X62.79712 Y-27.64978 I-1.63942 J1.87701
G3 X62.59886 Y-27.65324 I-0.04688 J-2.99963
G2 X61.34837 Y-27.30698 I-0.10388 J2.05602
G2 X60.78354 Y-26.105 I1.55714 J1.46542
G3 X60.76855 Y-25.9996 I-2.97714 J-0.36961
G2 X59.43857 Y-15.54051 I160.0613 J25.66756
G3 X58.21608 Y-4.72414 I-254.34299 J-23.26904
G3 X58.21254 Y-4.69862 I-2.97316 J-0.40037
G3 X57.47171 Y-0.9016 I-38.12665 J-5.468
G1 X57.47166 Y-0.90142
G3 X56.7519 Y1.27199 I-14.48014 J-3.58946
G3 X56.75088 Y1.27443 I-2.76713 J-1.15888
G3 X55.99012 Y2.63919 I-6.50047 J-2.72914
G3 X53.00644 Y4.41658 I-3.37802 J-2.27763
G3 X52.41325 Y4.41534 I-0.29037 J-2.98591
G3 X50.50092 Y3.91267 I0.64258 J-6.3335
G3 X47.41187 Y2.36784 I11.58438 J-27.02498
G3 X42.60659 Y-0.80089 I15.17147 J-28.23501
G3 X41.47652 Y-3.18147 I1.86973 J-2.34608
G3 X41.81742 Y-9.4508 I73.32601 J0.8433
G3 X42.48933 Y-15.53933 I176.18161 J16.36151
G3 X42.49 Y-15.54453 I2.97575 J0.38064
G2 X43.15615 Y-21.43842 I-179.06592 J-23.2231
G3 X43.15782 Y-21.45525 I2.98615 J0.28792
G2 X43.49076 Y-27.21178 I-65.23087 J-6.66072
G3 X43.49148 Y-27.24804 I2.99971 J0.04137
G2 X42.98287 Y-28.48697 I-1.65866 J-0.04294
G3 X42.9819 Y-28.48791 I2.07938 J-2.16244
G2 X41.53658 Y-29.04268 I-1.37915 J1.43295
G3 X41.33692 I-0.09981 J-2.99834
G2 X39.89167 Y-28.48793 I-0.06619 J1.98756
G3 X39.89068 Y-28.48698 I-2.08039 J-2.16148
G2 X39.38205 Y-27.24803 I1.1501 J1.19603
G3 X39.38287 Y-27.13686 I-2.999 J0.07762
G3 X39.0652 Y-20.76648 I-82.5442 J-0.9231
G3 X38.44888 Y-14.56829 I-207.27636 J-17.48078
G2 X37.87373 Y-8.51897 I211.93631 J23.20237
G3 X37.87266 Y-8.50613 I-2.99027 J-0.24136
G2 X37.589 Y-2.61495 I80.03364 J6.8061
G3 X37.10041 Y1.84831 I-17.29926 J0.36465
G3 X32.6482 Y3.7137 I-2.91462 J-0.71061
G3 X27.3865 Y-0.4201 I13.45459 J-22.54119
G3 X23.24843 Y-5.23499 I31.36678 J-31.14325
G2 X22.77018 Y-5.82532 I-8.29714 J6.23302
G3 X22.03122 Y-7.73294 I2.26033 J-1.97253
G3 X21.88407 Y-19.3906 I646.31974 J-13.98789
G2 X21.814 Y-22.05123 I-69.54701 J0.50043
G3 X21.7377 Y-24.72315 I72.3307 J-3.40246
G3 X21.73889 Y-24.84301 I2.99985 J-0.03027
G2 X21.46813 Y-25.36607 I-0.60565 J-0.01809
G3 X21.4248 Y-25.39535 I1.65809 J-2.50014
G2 X19.60006 Y-25.92987 I-1.72408 J2.50377
G3 X19.40526 Y-25.92974 I-0.09933 J-2.99836
G2 X18.51705 Y-25.7261 I-0.057 J1.79022
G2 X18.10245 Y-25.17603 I0.71077 J0.96702
G3 X18.10051 Y-25.17083 I-2.81314 J-1.04223
G2 X17.64386 Y-23.10502 I7.14913 J2.66371
G3 X17.6394 Y-23.05387 I-2.99077 J-0.23511
G2 X17.52022 Y-20.41174 I26.08414 J2.50033
G3 X17.52026 Y-20.39551 I-2.99996 J0.01623
G1 Y-6.77246
G3 X17.52014 Y-6.74544 I-3.0 J0.0
G3 X17.37066 Y-1.2891 I-148.47284 J-1.33723
G2 X17.22717 Y3.9846 I144.99538 J6.58396
G3 X17.22699 Y4.00009 I-2.99988 J-0.02708
G2 X18.15459 Y8.66707 I11.39089 J0.16165
G3 X18.18264 Y8.73446 I-2.75542 J1.18644
G2 X19.00666 Y9.99585 I3.58176 J-1.43999
G2 X19.40291 Y10.14951 I0.39154 J-0.42193
G3 X19.40429 Y10.1495 I0.02458 J2.9999
G2 X20.89354 Y9.49423 I-0.0159 J-2.05611
G3 X21.09692 Y9.29549 I2.19606 J2.04385
G2 X21.67603 Y8.25409 I-1.19738 J-1.34756
G3 X21.38007 Y5.13844 I84.62442 J-9.61028
G3 X23.22261 Y2.13831 I2.99126 J-0.22877
G1 F300.0 X21.84414 Y-1.18732
G1 Z-5.0
G3 F800.0 X21.01335 Y-2.22592 I36.90915 J-30.37603
G3 X20.96693 Y-1.1251 I-151.96604 J-5.85676
G2 X20.94972 Y-0.73413 I141.39912 J6.41996
G3 X21.84414 Y-1.18732 I3.42162 J5.6438
G1 F300.0 X22.30363 Y-0.07878
G3 F800.0 X24.03281 Y-0.47971 I2.06771 J4.98845
G3 X21.32543 Y-3.79898 I34.72048 J-31.08364
G2 X20.96192 Y-4.24729 I-6.37414 J4.79701
G3 X19.9128 Y-6.07477 I4.0686 J-3.55056
G3 X19.76817 Y-1.17977 I-150.8655 J-2.0079
G2 X19.65303 Y2.28335 I142.59787 J6.47463
G3 X22.30363 Y-0.07878 I4.71831 J2.62632
G0 Z4.0
G0 X39.04622 Y3.49061
G0 Z-3.0
G1 F300.0 Z-5.0
G3 F800.0 X41.98973 Y1.75359 I4.07511 J3.54308
G3 X41.11081 Y1.07598 I20.59362 J-27.62076
G3 X39.89493 Y-0.28849 I3.36551 J-4.22295
G3 X39.43211 Y2.4168 I-19.60519 J-1.9618
G3 X39.04622 Y3.49061 I-5.24632 J-1.2791
G1 F300.0 X40.85739 Y5.06531
G3 F800.0 X45.12058 Y4.79694 I2.26395 J1.96838
G2 X49.08615 Y7.17904 I8.22773 J-9.20518
G2 X53.89858 Y7.98888 I4.69133 J-13.1742
G3 X53.95176 Y7.98889 I0.02598 J2.99989
G2 X56.33773 Y7.67648 I0.07858 J-8.66713
G2 X59.01579 Y6.03117 I-1.54324 J-5.5141
G2 X60.7983 Y2.96138 I-6.99114 J-6.11191
G2 X61.22578 Y0.94251 I-16.84252 J-4.62095
G3 X61.22977 Y0.91681 I2.96652 J0.44697
G2 X62.26232 Y-6.43801 I-195.74535 J-31.23085
G3 X62.28028 Y-6.56371 I2.97816 J0.36135
G2 X63.69298 Y-16.32201 I-252.06456 J-41.47256
G3 X63.69412 Y-16.33103 I2.97679 J0.37245
G2 X64.8932 Y-26.16335 I-799.31889 J-102.46859
G2 X64.54911 Y-26.97269 I-0.94369 J-0.0766
G3 X64.47548 Y-27.03493 I1.89987 J-2.32175
G2 X62.79712 Y-27.64978 I-1.63942 J1.87701
G3 X62.59886 Y-27.65324 I-0.04688 J-2.99963
G2 X61.34837 Y-27.30698 I-0.10388 J2.05602
G2 X60.78354 Y-26.105 I1.55714 J1.46542
G3 X60.76855 Y-25.9996 I-2.97714 J-0.36961
G2 X59.43857 Y-15.54051 I160.0613 J25.66756
G3 X58.21608 Y-4.72414 I-254.34299 J-23.26904
G3 X58.21254 Y-4.69862 I-2.97316 J-0.40037
G3 X57.47171 Y-0.9016 I-38.12665 J-5.468
G1 X57.47166 Y-0.90142
G3 X56.7519 Y1.27199 I-14.48014 J-3.58946
G3 X56.75088 Y1.27443 I-2.76713 J-1.15888
G3 X55.99012 Y2.63919 I-6.50047 J-2.72914
G3 X53.00644 Y4.41658 I-3.37802 J-2.27763
G3 X52.41325 Y4.41534 I-0.29037 J-2.98591
G3 X50.50092 Y3.91267 I0.64258 J-6.3335
G3 X47.41187 Y2.36784 I11.58438 J-27.02498
G3 X42.60659 Y-0.80089 I15.17147 J-28.23501
G3 X41.47652 Y-3.18147 I1.86973 J-2.34608
G3 X41.81742 Y-9.4508 I73.32601 J0.8433
G3 X42.48933 Y-15.53933 I176.18161 J16.36151
G3 X42.49 Y-15.54453 I2.97575 J0.38064
G2 X43.15615 Y-21.43842 I-179.06592 J-23.2231
G3 X43.15782 Y-21.45525 I2.98615 J0.28792
G2 X43.49076 Y-27.21178 I-65.23087 J-6.66072
G3 X43.49148 Y-27.24804 I2.99971 J0.04137
G2 X42.98287 Y-28.48697 I-1.65866 J-0.04294
G3 X42.9819 Y-28.48791 I2.07938 J-2.16244
G2 X41.53658 Y-29.04268 I-1.37915 J1.43295
G3 X41.33692 I-0.09981 J-2.99834
G2 X39.89167 Y-28.48793 I-0.06619 J1.98756
G3 X39.89068 Y-28.48698 I-2.08039 J-2.16148
G2 X39.38205 Y-27.24803 I1.1501 J1.19603
G3 X39.38287 Y-27.13686 I-2.999 J0.07762
G3 X39.0652 Y-20.76648 I-82.5442 J-0.9231
G3 X38.44888 Y-14.56829 I-207.27636 J-17.48078
G2 X37.87373 Y-8.51897 I211.93631 J23.20237
G3 X37.87266 Y-8.50613 I-2.99027 J-0.24136
G2 X37.589 Y-2.61495 I80.03364 J6.8061
G3 X37.10041 Y1.84831 I-17.29926 J0.36465
G3 X32.6482 Y3.7137 I-2.91462 J-0.71061
G3 X27.3865 Y-0.4201 I13.45459 J-22.54119
G3 X23.24843 Y-5.23499 I31.36678 J-31.14325
G2 X22.77018 Y-5.82532 I-8.29714 J6.23302
G3 X22.03122 Y-7.73294 I2.26033 J-1.97253
G3 X21.88407 Y-19.3906 I646.31974 J-13.98789
G2 X21.814 Y-22.05123 I-69.54701 J0.50043
G3 X21.7377 Y-24.72315 I72.3307 J-3.40246
G3 X21.73889 Y-24.84301 I2.99985 J-0.03027
G2 X21.46813 Y-25.36607 I-0.60565 J-0.01809
G3 X21.4248 Y-25.39535 I1.65809 J-2.50014
G2 X19.60006 Y-25.92987 I-1.72408 J2.50377
G3 X19.40526 Y-25.92974 I-0.09933 J-2.99836
G2 X18.51705 Y-25.7261 I-0.057 J1.79022
G2 X18.10245 Y-25.17603 I0.71077 J0.96702
G3 X18.10051 Y-25.17083 I-2.81314 J-1.04223
G2 X17.64386 Y-23.10502 I7.14913 J2.66371
G3 X17.6394 Y-23.05387 I-2.99077 J-0.23511
G2 X17.52022 Y-20.41174 I26.08414 J2.50033
G3 X17.52026 Y-20.39551 I-2.99996 J0.01623
G1 Y-6.77246
G3 X17.52014 Y-6.74544 I-3.0 J0.0
G3 X17.37066 Y-1.2891 I-148.47284 J-1.33723
G2 X17.22717 Y3.9846 I144.99538 J6.58396
G3 X17.22699 Y4.00009 I-2.99988 J-0.02708
G2 X18.15459 Y8.66707 I11.39089 J0.16165
G3 X18.18264 Y8.73446 I-2.75542 J1.18644
G2 X19.00666 Y9.99585 I3.58176 J-1.43999
G2 X19.40291 Y10.14951 I0.39154 J-0.42193
G3 X19.40429 Y10.1495 I0.02458 J2.9999
G2 X20.89354 Y9.49423 I-0.0159 J-2.05611
G3 X21.09692 Y9.29549 I2.19606 J2.04385
G2 X21.67603 Y8.25409 I-1.19738 J-1.34756
G3 X21.38007 Y5.13844 I84.62442 J-9.61028
G3 X26.6709 Y2.98301 I2.99126 J-0.22877
G2 X30.70444 Y6.75486 I17.45952 J-14.62823
G2 X32.84372 Y7.91935 I5.91463 J-8.31849
G3 X32.84523 Y7.91995 I-1.10965 J2.78723
G2 X34.87176 Y8.31848 I2.0766 J-5.20782
G3 X34.91131 Y8.31909 I-0.02679 J2.99988
G2 X38.27499 Y7.62315 I0.1694 J-7.65805
G2 X40.5419 Y5.50186 I-2.51826 J-4.96303
G3 X40.85739 Y5.06531 I2.57944 J1.53183
G0 Z4.0
G0 X79.21388 Y-0.73413
G0 Z1.0
G1 F300.0 Z-1.0
G3 F800.0 X80.1083 Y-1.18732 I3.42162 J5.6438
G3 X79.27751 Y-2.22592 I36.90915 J-30.37603
G3 X79.23109 Y-1.1251 I-151.96604 J-5.85676
G2 X79.21388 Y-0.73413 I141.39912 J6.41996
G1 F300.0 X78.01497 Y-0.78525
G2 F800.0 X77.91719 Y2.28335 I142.61524 J6.08011
G3 X82.29697 Y-0.47971 I4.71831 J2.62632
G3 X79.58959 Y-3.79898 I34.72048 J-31.08364
G2 X79.22608 Y-4.24729 I-6.37414 J4.79701
G3 X78.17696 Y-6.07477 I4.0686 J-3.55056
G3 X78.03233 Y-1.17977 I-150.8655 J-2.0079
G2 X78.01497 Y-0.78525 I142.59787 J6.47463
G0 Z4.0
G0 X97.31038 Y3.49061
G0 Z1.0
G1 F300.0 Z-1.0
G3 F800.0 X100.25389 Y1.75359 I4.07511 J3.54308
G3 X99.37497 Y1.07598 I20.59362 J-27.62076
G3 X98.15909 Y-0.28849 I3.36551 J-4.22295
G3 X97.69627 Y2.4168 I-19.60519 J-1.9618
G3 X97.31038 Y3.49061 I-5.24632 J-1.2791
G1 F300.0 X95.15019 Y2.44487
G3 F800.0 X90.91236 Y3.7137 I-2.70024 J-1.30717
G3 X85.65066 Y-0.4201 I13.45459 J-22.54119
G3 X81.5126 Y-5.23499 I31.36678 J-31.14325
G2 X81.03434 Y-5.82532 I-8.29714 J6.23302
G3 X80.29538 Y-7.73294 I2.26033 J-1.97253
G3 X80.14823 Y-19.3906 I646.31974 J-13.98789
G2 X80.07816 Y-22.05123 I-69.54701 J0.50043
G3 X80.00186 Y-24.72315 I72.3307 J-3.40246
G3 X80.00305 Y-24.84301 I2.99985 J-0.03027
G2 X79.73229 Y-25.36607 I-0.60565 J-0.01809
G3 X79.68896 Y-25.39535 I1.65809 J-2.50014
G2 X77.86422 Y-25.92987 I-1.72408 J2.50377
G3 X77.66942 Y-25.92974 I-0.09933 J-2.99836
G2 X76.78121 Y-25.7261 I-0.057 J1.79022
G2 X76.36661 Y-25.17603 I0.71077 J0.96702
G3 X76.36467 Y-25.17083 I-2.81314 J-1.04223
G2 X75.90802 Y-23.10502 I7.14913 J2.66371
G3 X75.90356 Y-23.05387 I-2.99077 J-0.23511
G2 X75.78438 Y-20.41174 I26.08414 J2.50033
G3 X75.78442 Y-20.39551 I-2.99996 J0.01623
G1 Y-6.77246
G3 X75.7843 Y-6.74544 I-3.0 J0.0
G3 X75.63482 Y-1.2891 I-148.47284 J-1.33723
G2 X75.49133 Y3.9846 I144.99538 J6.58396
G3 X75.49115 Y4.00009 I-2.99988 J-0.02708
G2 X76.41875 Y8.66707 I11.39089 J0.16165
G3 X76.4468 Y8.73446 I-2.75542 J1.18644
G2 X77.27082 Y9.99585 I3.58176 J-1.43999
G2 X77.66708 Y10.14951 I0.39154 J-0.42193
G3 X77.66845 Y10.1495 I0.02458 J2.9999
G2 X79.1577 Y9.49423 I-0.0159 J-2.05611
G3 X79.36108 Y9.29549 I2.19606 J2.04385
G2 X79.94019 Y8.25409 I-1.19738 J-1.34756
G3 X79.64423 Y5.13844 I84.62442 J-9.61028
G3 X84.93506 Y2.98301 I2.99126 J-0.22877
G2 X88.9686 Y6.75486 I17.45952 J-14.62823
G2 X91.10789 Y7.91935 I5.91463 J-8.31849
G3 X91.10939 Y7.91995 I-1.10965 J2.78723
G2 X93.13592 Y8.31848 I2.0766 J-5.20782
G3 X93.17547 Y8.31909 I-0.02679 J2.99988
G2 X96.53915 Y7.62315 I0.1694 J-7.65805
G2 X98.80606 Y5.50186 I-2.51826 J-4.96303
G3 X103.38474 Y4.79694 I2.57944 J1.53183
G2 X107.35031 Y7.17904 I8.22773 J-9.20518
G2 X112.16274 Y7.98888 I4.69133 J-13.1742
G3 X112.21592 Y7.98889 I0.02598 J2.99989
G2 X114.60189 Y7.67648 I0.07858 J-8.66713
G2 X117.27995 Y6.03117 I-1.54324 J-5.5141
G2 X119.06246 Y2.96138 I-6.99114 J-6.11191
G2 X119.48994 Y0.94251 I-16.84252 J-4.62095
G3 X119.49393 Y0.91681 I2.96652 J0.44697
G2 X120.52648 Y-6.43801 I-195.74535 J-31.23085
G3 X120.54444 Y-6.56371 I2.97816 J0.36135
G2 X121.95714 Y-16.32201 I-252.06456 J-41.47256
G3 X121.95828 Y-16.33103 I2.97679 J0.37245
G2 X123.15736 Y-26.16335 I-799.31889 J-102.46859
G2 X122.81327 Y-26.97269 I-0.94369 J-0.0766
G3 X122.73964 Y-27.03493 I1.89987 J-2.32175
G2 X121.06128 Y-27.64978 I-1.63942 J1.87701
G3 X120.86302 Y-27.65324 I-0.04688 J-2.99963
G2 X119.61253 Y-27.30698 I-0.10388 J2.05602
G2 X119.0477 Y-26.105 I1.55714 J1.46542
G3 X119.03271 Y-25.9996 I-2.97714 J-0.36961
G2 X117.70273 Y-15.54051 I160.0613 J25.66756
G3 X116.48024 Y-4.72414 I-254.34299 J-23.26904
G3 X116.4767 Y-4.69862 I-2.97316 J-0.40037
G3 X115.73587 Y-0.9016 I-38.12665 J-5.468
G1 X115.73582 Y-0.90142
G3 X115.01606 Y1.27199 I-14.48014 J-3.58946
G3 X115.01504 Y1.27443 I-2.76713 J-1.15888
G3 X114.25428 Y2.63919 I-6.50047 J-2.72914
G3 X111.2706 Y4.41658 I-3.37802 J-2.27763
G3 X110.67741 Y4.41534 I-0.29037 J-2.98591
G3 X108.76508 Y3.91267 I0.64258 J-6.3335
G3 X105.67603 Y2.36784 I11.58438 J-27.02498
G3 X100.87075 Y-0.80089 I15.17147 J-28.23501
G3 X99.74068 Y-3.18147 I1.86973 J-2.34608
G3 X100.08158 Y-9.4508 I73.32601 J0.8433
G3 X100.75349 Y-15.53933 I176.18161 J16.36151
G3 X100.75416 Y-15.54453 I2.97575 J0.38064
G2 X101.42031 Y-21.43842 I-179.06592 J-23.2231
G3 X101.42198 Y-21.45525 I2.98615 J0.28792
G2 X101.75492 Y-27.21178 I-65.23087 J-6.66072
G3 X101.75564 Y-27.24804 I2.99971 J0.04137
G2 X101.24703 Y-28.48697 I-1.65866 J-0.04294
G3 X101.24606 Y-28.48791 I2.07938 J-2.16244
G2 X99.80074 Y-29.04268 I-1.37915 J1.43295
G3 X99.60108 I-0.09981 J-2.99834
G2 X98.15583 Y-28.48793 I-0.06619 J1.98756
G3 X98.15484 Y-28.48698 I-2.08039 J-2.16148
G2 X97.64621 Y-27.24803 I1.1501 J1.19603
G3 X97.64703 Y-27.13686 I-2.999 J0.07762
G3 X97.32936 Y-20.76648 I-82.5442 J-0.9231
G3 X96.71304 Y-14.56829 I-207.27636 J-17.48078
G2 X96.13789 Y-8.51897 I211.93631 J23.20237
G3 X96.13682 Y-8.50613 I-2.99027 J-0.24136
G2 X95.85316 Y-2.61495 I80.03364 J6.8061
G3 X95.36457 Y1.84831 I-17.29926 J0.36465
G3 X95.15019 Y2.44487 I-2.91462 J-0.71061
G1 F300.0 X97.31038 Y3.49061
G1 Z-2.0
G3 F800.0 X100.25389 Y1.75359 I4.07511 J3.54308
G3 X99.37497 Y1.07598 I20.59362 J-27.62076
G3 X98.15909 Y-0.28849 I3.36551 J-4.22295
G3 X97.69627 Y2.4168 I-19.60519 J-1.9618
G3 X97.31038 Y3.49061 I-5.24632 J-1.2791
G0 Z4.0
G0 X80.1083 Y-1.18732
G0 Z0.0
G1 F300.0 Z-2.0
G3 F800.0 X79.27751 Y-2.22592 I36.90915 J-30.37603
G3 X79.23109 Y-1.1251 I-151.96604 J-5.85676
G2 X79.21388 Y-0.73413 I141.39912 J6.41996
G3 X80.1083 Y-1.18732 I3.42162 J5.6438
G1 F300.0 X80.56779 Y-0.07878
G3 F800.0 X82.29697 Y-0.47971 I2.06771 J4.98845
G3 X79.58959 Y-3.79898 I34.72048 J-31.08364
G2 X79.22608 Y-4.24729 I-6.37414 J4.79701
G3 X78.17696 Y-6.07477 I4.0686 J-3.55056
G3 X78.03233 Y-1.17977 I-150.8655 J-2.0079
G2 X77.91719 Y2.28335 I142.59787 J6.47463
G3 X80.56779 Y-0.07878 I4.71831 J2.62632
G1 F300.0 X81.48677 Y2.13831
G3 F800.0 X84.93506 Y2.98301 I1.14873 J2.77136
G2 X88.9686 Y6.75486 I17.45952 J-14.62823
G2 X91.10789 Y7.91935 I5.91463 J-8.31849
G3 X91.10939 Y7.91995 I-1.10965 J2.78723
G2 X93.13592 Y8.31848 I2.0766 J-5.20782
G3 X93.17547 Y8.31909 I-0.02679 J2.99988
G2 X96.53915 Y7.62315 I0.1694 J-7.65805
G2 X98.80606 Y5.50186 I-2.51826 J-4.96303
G3 X103.38474 Y4.79694 I2.57944 J1.53183
G2 X107.35031 Y7.17904 I8.22773 J-9.20518
G2 X112.16274 Y7.98888 I4.69133 J-13.1742
G3 X112.21592 Y7.98889 I0.02598 J2.99989
G2 X114.60189 Y7.67648 I0.07858 J-8.66713
G2 X117.27995 Y6.03117 I-1.54324 J-5.5141
G2 X119.06246 Y2.96138 I-6.99114 J-6.11191
G2 X119.48994 Y0.94251 I-16.84252 J-4.62095
G3 X119.49393 Y0.91681 I2.96652 J0.44697
G2 X120.52648 Y-6.43801 I-195.74535 J-31.23085
G3 X120.54444 Y-6.56371 I2.97816 J0.36135
G2 X121.95714 Y-16.32201 I-252.06456 J-41.47256
G3 X121.95828 Y-16.33103 I2.97679 J0.37245
G2 X123.15736 Y-26.16335 I-799.31889 J-102.46859
G2 X122.81327 Y-26.97269 I-0.94369 J-0.0766
G3 X122.73964 Y-27.03493 I1.89987 J-2.32175
G2 X121.06128 Y-27.64978 I-1.63942 J1.87701
G3 X120.86302 Y-27.65324 I-0.04688 J-2.99963
G2 X119.61253 Y-27.30698 I-0.10388 J2.05602
G2 X119.0477 Y-26.105 I1.55714 J1.46542
G3 X119.03271 Y-25.9996 I-2.97714 J-0.36961
G2 X117.70273 Y-15.54051 I160.0613 J25.66756
G3 X116.48024 Y-4.72414 I-254.34299 J-23.26904
G3 X116.4767 Y-4.69862 I-2.97316 J-0.40037
G3 X115.73587 Y-0.9016 I-38.12665 J-5.468
G1 X115.73582 Y-0.90142
G3 X115.01606 Y1.27199 I-14.48014 J-3.58946
G3 X115.01504 Y1.27443 I-2.76713 J-1.15888
G3 X114.25428 Y2.63919 I-6.50047 J-2.72914
G3 X111.2706 Y4.41658 I-3.37802 J-2.27763
G3 X110.67741 Y4.41534 I-0.29037 J-2.98591
G3 X108.76508 Y3.91267 I0.64258 J-6.3335
G3 X105.67603 Y2.36784 I11.58438 J-27.02498
G3 X100.87075 Y-0.80089 I15.17147 J-28.23501
G3 X99.74068 Y-3.18147 I1.86973 J-2.34608
G3 X100.08158 Y-9.4508 I73.32601 J0.8433
G3 X100.75349 Y-15.53933 I176.18161 J16.36151
G3 X100.75416 Y-15.54453 I2.97575 J0.38064
G2 X101.42031 Y-21.43842 I-179.06592 J-23.2231
G3 X101.42198 Y-21.45525 I2.98615 J0.28792
G2 X101.75492 Y-27.21178 I-65.23087 J-6.66072
G3 X101.75564 Y-27.24804 I2.99971 J0.04137
G2 X101.24703 Y-28.48697 I-1.65866 J-0.04294
G3 X101.24606 Y-28.48791 I2.07938 J-2.16244
G2 X99.80074 Y-29.04268 I-1.37915 J1.43295
G3 X99.60108 I-0.09981 J-2.99834
G2 X98.15583 Y-28.48793 I-0.06619 J1.98756
G3 X98.15484 Y-28.48698 I-2.08039 J-2.16148
G2 X97.64621 Y-27.24803 I1.1501 J1.19603
G3 X97.64703 Y-27.13686 I-2.999 J0.07762
G3 X97.32936 Y-20.76648 I-82.5442 J-0.9231
G3 X96.71304 Y-14.56829 I-207.27636 J-17.48078
G2 X96.13789 Y-8.51897 I211.93631 J23.20237
G3 X96.13682 Y-8.50613 I-2.99027 J-0.24136
G2 X95.85316 Y-2.61495 I80.03364 J6.8061
G3 X95.36457 Y1.84831 I-17.29926 J0.36465
G3 X90.91236 Y3.7137 I-2.91462 J-0.71061
G3 X85.65066 Y-0.4201 I13.45459 J-22.54119
G3 X81.5126 Y-5.23499 I31.36678 J-31.14325
G2 X81.03434 Y-5.82532 I-8.29714 J6.23302
G3 X80.29538 Y-7.73294 I2.26033 J-1.97253
G3 X80.14823 Y-19.3906 I646.31974 J-13.98789
G2 X80.07816 Y-22.05123 I-69.54701 J0.50043
G3 X80.00186 Y-24.72315 I72.3307 J-3.40246
G3 X80.00305 Y-24.84301 I2.99985 J-0.03027
G2 X79.73229 Y-25.36607 I-0.60565 J-0.01809
G3 X79.68896 Y-25.39535 I1.65809 J-2.50014
G2 X77.86422 Y-25.92987 I-1.72408 J2.50377
G3 X77.66942 Y-25.92974 I-0.09933 J-2.99836
G2 X76.78121 Y-25.7261 I-0.057 J1.79022
G2 X76.36661 Y-25.17603 I0.71077 J0.96702
G3 X76.36467 Y-25.17083 I-2.81314 J-1.04223
G2 X75.90802 Y-23.10502 I7.14913 J2.66371
G3 X75.90356 Y-23.05387 I-2.99077 J-0.23511
G2 X75.78438 Y-20.41174 I26.08414 J2.50033
G3 X75.78442 Y-20.39551 I-2.99996 J0.01623
G1 Y-6.77246
G3 X75.7843 Y-6.74544 I-3.0 J0.0
G3 X75.63482 Y-1.2891 I-148.47284 J-1.33723
G2 X75.49133 Y3.9846 I144.99538 J6.58396
G3 X75.49115 Y4.00009 I-2.99988 J-0.02708
G2 X76.41875 Y8.66707 I11.39089 J0.16165
G3 X76.4468 Y8.73446 I-2.75542 J1.18644
G2 X77.27082 Y9.99585 I3.58176 J-1.43999
G2 X77.66708 Y10.14951 I0.39154 J-0.42193
G3 X77.66845 Y10.1495 I0.02458 J2.9999
G2 X79.1577 Y9.49423 I-0.0159 J-2.05611
G3 X79.36108 Y9.29549 I2.19606 J2.04385
G2 X79.94019 Y8.25409 I-1.19738 J-1.34756
G3 X79.64423 Y5.13844 I84.62442 J-9.61028
G3 X81.48677 Y2.13831 I2.99126 J-0.22877
G1 F300.0 X80.1083 Y-1.18732
G1 Z-3.0
G3 F800.0 X79.27751 Y-2.22592 I36.90915 J-30.37603
G3 X79.23109 Y-1.1251 I-151.96604 J-5.85676
G2 X79.21388 Y-0.73413 I141.39912 J6.41996
G3 X80.1083 Y-1.18732 I3.42162 J5.6438
G1 F300.0 X80.56779 Y-0.07878
G3 F800.0 X82.29697 Y-0.47971 I2.06771 J4.98845
G3 X79.58959 Y-3.79898 I34.72048 J-31.08364
G2 X79.22608 Y-4.24729 I-6.37414 J4.79701
G3 X78.17696 Y-6.07477 I4.0686 J-3.55056
G3 X78.03233 Y-1.17977 I-150.8655 J-2.0079
G2 X77.91719 Y2.28335 I142.59787 J6.47463
G3 X80.56779 Y-0.07878 I4.71831 J2.62632
G0 Z4.0
G0 X97.31038 Y3.49061
G0 Z-1.0
G1 F300.0 Z-3.0
G3 F800.0 X100.25389 Y1.75359 I4.07511 J3.54308
G3 X99.37497 Y1.07598 I20.59362 J-27.62076
G3 X98.15909 Y-0.28849 I3.36551 J-4.22295
G3 X97.69627 Y2.4168 I-19.60519 J-1.9618
G3 X97.31038 Y3.49061 I-5.24632 J-1.2791
G1 F300.0 X95.15019 Y2.44487
G3 F800.0 X90.91236 Y3.7137 I-2.70024 J-1.30717
G3 X85.65066 Y-0.4201 I13.45459 J-22.54119
G3 X81.5126 Y-5.23499 I31.36678 J-31.14325
G2 X81.03434 Y-5.82532 I-8.29714 J6.23302
G3 X80.29538 Y-7.73294 I2.26033 J-1.97253
G3 X80.14823 Y-19.3906 I646.31974 J-13.98789
G2 X80.07816 Y-22.05123 I-69.54701 J0.50043
G3 X80.00186 Y-24.72315 I72.3307 J-3.40246
G3 X80.00305 Y-24.84301 I2.99985 J-0.03027
G2 X79.73229 Y-25.36607 I-0.60565 J-0.01809
G3 X79.68896 Y-25.39535 I1.65809 J-2.50014
G2 X77.86422 Y-25.92987 I-1.72408 J2.50377
G3 X77.66942 Y-25.92974 I-0.09933 J-2.99836
G2 X76.78121 Y-25.7261 I-0.057 J1.79022
G2 X76.36661 Y-25.17603 I0.71077 J0.96702
G3 X76.36467 Y-25.17083 I-2.81314 J-1.04223
G2 X75.90802 Y-23.10502 I7.14913 J2.66371
G3 X75.90356 Y-23.05387 I-2.99077 J-0.23511
G2 X75.78438 Y-20.41174 I26.08414 J2.50033
G3 X75.78442 Y-20.39551 I-2.99996 J0.01623
G1 Y-6.77246
G3 X75.7843 Y-6.74544 I-3.0 J0.0
G3 X75.63482 Y-1.2891 I-148.47284 J-1.33723
G2 X75.49133 Y3.9846 I144.99538 J6.58396
G3 X75.49115 Y4.00009 I-2.99988 J-0.02708
G2 X76.41875 Y8.66707 I11.39089 J0.16165
G3 X76.4468 Y8.73446 I-2.75542 J1.18644
G2 X77.27082 Y9.99585 I3.58176 J-1.43999
G2 X77.66708 Y10.14951 I0.39154 J-0.42193
G3 X77.66845 Y10.1495 I0.02458 J2.9999
G2 X79.1577 Y9.49423 I-0.0159 J-2.05611
G3 X79.36108 Y9.29549 I2.19606 J2.04385
G2 X79.94019 Y8.25409 I-1.19738 J-1.34756
G3 X79.64423 Y5.13844 I84.62442 J-9.61028
G3 X84.93506 Y2.98301 I2.99126 J-0.22877
G2 X88.9686 Y6.75486 I17.45952 J-14.62823
G2 X91.10789 Y7.91935 I5.91463 J-8.31849
G3 X91.10939 Y7.91995 I-1.10965 J2.78723
G2 X93.13592 Y8.31848 I2.0766 J-5.20782
G3 X93.17547 Y8.31909 I-0.02679 J2.99988
G2 X96.53915 Y7.62315 I0.1694 J-7.65805
G2 X98.80606 Y5.50186 I-2.51826 J-4.96303
G3 X103.38474 Y4.79694 I2.57944 J1.53183
G2 X107.35031 Y7.17904 I8.22773 J-9.20518
G2 X112.16274 Y7.98888 I4.69133 J-13.1742
G3 X112.21592 Y7.98889 I0.02598 J2.99989
G2 X114.60189 Y7.67648 I0.07858 J-8.66713
G2 X117.27995 Y6.03117 I-1.54324 J-5.5141
G2 X119.06246 Y2.96138 I-6.99114 J-6.11191
G2 X119.48994 Y0.94251 I-16.84252 J-4.62095
G3 X119.49393 Y0.91681 I2.96652 J0.44697
G2 X120.52648 Y-6.43801 I-195.74535 J-31.23085
G3 X120.54444 Y-6.56371 I2.97816 J0.36135
G2 X121.95714 Y-16.32201 I-252.06456 J-41.47256
G3 X121.95828 Y-16.33103 I2.97679 J0.37245
G2 X123.15736 Y-26.16335 I-799.31889 J-102.46859
G2 X122.81327 Y-26.97269 I-0.94369 J-0.0766
G3 X122.73964 Y-27.03493 I1.89987 J-2.32175
G2 X121.06128 Y-27.64978 I-1.63942 J1.87701
G3 X120.86302 Y-27.65324 I-0.04688 J-2.99963
G2 X119.61253 Y-27.30698 I-0.10388 J2.05602
G2 X119.0477 Y-26.105 I1.55714 J1.46542
G3 X119.03271 Y-25.9996 I-2.97714 J-0.36961
G2 X117.70273 Y-15.54051 I160.0613 J25.66756
G3 X116.48024 Y-4.72414 I-254.34299 J-23.26904
G3 X116.4767 Y-4.69862 I-2.97316 J-0.40037
G3 X115.73587 Y-0.9016 I-38.12665 J-5.468
G1 X115.73582 Y-0.90142
G3 X115.01606 Y1.27199 I-14.48014 J-3.58946
G3 X115.01504 Y1.27443 I-2.76713 J-1.15888
G3 X114.25428 Y2.63919 I-6.50047 J-2.72914
G3 X111.2706 Y4.41658 I-3.37802 J-2.27763
G3 X110.67741 Y4.41534 I-0.29037 J-2.98591
G3 X108.76508 Y3.91267 I0.64258 J-6.3335
G3 X105.67603 Y2.36784 I11.58438 J-27.02498
G3 X100.87075 Y-0.80089 I15.17147 J-28.23501
G3 X99.74068 Y-3.18147 I1.86973 J-2.34608
G3 X100.08158 Y-9.4508 I73.32601 J0.8433
G3 X100.75349 Y-15.53933 I176.18161 J16.36151
G3 X100.75416 Y-15.54453 I2.97575 J0.38064
G2 X101.42031 Y-21.43842 I-179.06592 J-23.2231
G3 X101.42198 Y-21.45525 I2.98615 J0.28792
G2 X101.75492 Y-27.21178 I-65.23087 J-6.66072
G3 X101.75564 Y-27.24804 I2.99971 J0.04137
G2 X101.24703 Y-28.48697 I-1.65866 J-0.04294
G3 X101.24606 Y-28.48791 I2.07938 J-2.16244
G2 X99.80074 Y-29.04268 I-1.37915 J1.43295
G3 X99.60108 I-0.09981 J-2.99834
G2 X98.15583 Y-28.48793 I-0.06619 J1.98756
G3 X98.15484 Y-28.48698 I-2.08039 J-2.16148
G2 X97.64621 Y-27.24803 I1.1501 J1.19603
G3 X97.64703 Y-27.13686 I-2.999 J0.07762
G3 X97.32936 Y-20.76648 I-82.5442 J-0.9231
G3 X96.71304 Y-14.56829 I-207.27636 J-17.48078
G2 X96.13789 Y-8.51897 I211.93631 J23.20237
G3 X96.13682 Y-8.50613 I-2.99027 J-0.24136
G2 X95.85316 Y-2.61495 I80.03364 J6.8061
G3 X95.36457 Y1.84831 I-17.29926 J0.36465
G3 X95.15019 Y2.44487 I-2.91462 J-0.71061
G1 F300.0 X97.31038 Y3.49061
G1 Z-4.0
G3 F800.0 X100.25389 Y1.75359 I4.07511 J3.54308
G3 X99.37497 Y1.07598 I20.59362 J-27.62076
G3 X98.15909 Y-0.28849 I3.36551 J-4.22295
G3 X97.69627 Y2.4168 I-19.60519 J-1.9618
G3 X97.31038 Y3.49061 I-5.24632 J-1.2791
G0 Z4.0
G0 X80.1083 Y-1.18732
G0 Z-2.0
G1 F300.0 Z-4.0
G3 F800.0 X79.27751 Y-2.22592 I36.90915 J-30.37603
G3 X79.23109 Y-1.1251 I-151.96604 J-5.85676
G2 X79.21388 Y-0.73413 I141.39912 J6.41996
G3 X80.1083 Y-1.18732 I3.42162 J5.6438
G1 F300.0 X80.56779 Y-0.07878
G3 F800.0 X82.29697 Y-0.47971 I2.06771 J4.98845
G3 X79.58959 Y-3.79898 I34.72048 J-31.08364
G2 X79.22608 Y-4.24729 I-6.37414 J4.79701
G3 X78.17696 Y-6.07477 I4.0686 J-3.55056
G3 X78.03233 Y-1.17977 I-150.8655 J-2.0079
G2 X77.91719 Y2.28335 I142.59787 J6.47463
G3 X80.56779 Y-0.07878 I4.71831 J2.62632
G1 F300.0 X81.48677 Y2.13831
G3 F800.0 X84.93506 Y2.98301 I1.14873 J2.77136
G2 X88.9686 Y6.75486 I17.45952 J-14.62823
G2 X91.10789 Y7.91935 I5.91463 J-8.31849
G3 X91.10939 Y7.91995 I-1.10965 J2.78723
G2 X93.13592 Y8.31848 I2.0766 J-5.20782
G3 X93.17547 Y8.31909 I-0.02679 J2.99988
G2 X96.53915 Y7.62315 I0.1694 J-7.65805
G2 X98.80606 Y5.50186 I-2.51826 J-4.96303
G3 X103.38474 Y4.79694 I2.57944 J1.53183
G2 X107.35031 Y7.17904 I8.22773 J-9.20518
G2 X112.16274 Y7.98888 I4.69133 J-13.1742
G3 X112.21592 Y7.98889 I0.02598 J2.99989
G2 X114.60189 Y7.67648 I0.07858 J-8.66713
G2 X117.27995 Y6.03117 I-1.54324 J-5.5141
G2 X119.06246 Y2.96138 I-6.99114 J-6.11191
G2 X119.48994 Y0.94251 I-16.84252 J-4.62095
G3 X119.49393 Y0.91681 I2.96652 J0.44697
G2 X120.52648 Y-6.43801 I-195.74535 J-31.23085
G3 X120.54444 Y-6.56371 I2.97816 J0.36135
G2 X121.95714 Y-16.32201 I-252.06456 J-41.47256
G3 X121.95828 Y-16.33103 I2.97679 J0.37245
G2 X123.15736 Y-26.16335 I-799.31889 J-102.46859
G2 X122.81327 Y-26.97269 I-0.94369 J-0.0766
G3 X122.73964 Y-27.03493 I1.89987 J-2.32175
G2 X121.06128 Y-27.64978 I-1.63942 J1.87701
G3 X120.86302 Y-27.65324 I-0.04688 J-2.99963
G2 X119.61253 Y-27.30698 I-0.10388 J2.05602
G2 X119.0477 Y-26.105 I1.55714 J1.46542
G3 X119.03271 Y-25.9996 I-2.97714 J-0.36961
G2 X117.70273 Y-15.54051 I160.0613 J25.66756
G3 X116.48024 Y-4.72414 I-254.34299 J-23.26904
G3 X116.4767 Y-4.69862 I-2.97316 J-0.40037
G3 X115.73587 Y-0.9016 I-38.12665 J-5.468
G1 X115.73582 Y-0.90142
G3 X115.01606 Y1.27199 I-14.48014 J-3.58946
G3 X115.01504 Y1.27443 I-2.76713 J-1.15888
G3 X114.25428 Y2.63919 I-6.50047 J-2.72914
G3 X111.2706 Y4.41658 I-3.37802 J-2.27763
G3 X110.67741 Y4.41534 I-0.29037 J-2.98591
G3 X108.76508 Y3.91267 I0.64258 J-6.3335
G3 X105.67603 Y2.36784 I11.58438 J-27.02498
G3 X100.87075 Y-0.80089 I15.17147 J-28.23501
G3 X99.74068 Y-3.18147 I1.86973 J-2.34608
G3 X100.08158 Y-9.4508 I73.32601 J0.8433
G3 X100.75349 Y-15.53933 I176.18161 J16.36151
G3 X100.75416 Y-15.54453 I2.97575 J0.38064
G2 X101.42031 Y-21.43842 I-179.06592 J-23.2231
G3 X101.42198 Y-21.45525 I2.98615 J0.28792
G2 X101.75492 Y-27.21178 I-65.23087 J-6.66072
G3 X101.75564 Y-27.24804 I2.99971 J0.04137
G2 X101.24703 Y-28.48697 I-1.65866 J-0.04294
G3 X101.24606 Y-28.48791 I2.07938 J-2.16244
G2 X99.80074 Y-29.04268 I-1.37915 J1.43295
G3 X99.60108 I-0.09981 J-2.99834
G2 X98.15583 Y-28.48793 I-0.06619 J1.98756
G3 X98.15484 Y-28.48698 I-2.08039 J-2.16148
G2 X97.64621 Y-27.24803 I1.1501 J1.19603
G3 X97.64703 Y-27.13686 I-2.999 J0.07762
G3 X97.32936 Y-20.76648 I-82.5442 J-0.9231
G3 X96.71304 Y-14.56829 I-207.27636 J-17.48078
G2 X96.13789 Y-8.51897 I211.93631 J23.20237
G3 X96.13682 Y-8.50613 I-2.99027 J-0.24136
G2 X95.85316 Y-2.61495 I80.03364 J6.8061
G3 X95.36457 Y1.84831 I-17.29926 J0.36465
G3 X90.91236 Y3.7137 I-2.91462 J-0.71061
G3 X85.65066 Y-0.4201 I13.45459 J-22.54119
G3 X81.5126 Y-5.23499 I31.36678 J-31.14325
G2 X81.03434 Y-5.82532 I-8.29714 J6.23302
G3 X80.29538 Y-7.73294 I2.26033 J-1.97253
G3 X80.14823 Y-19.3906 I646.31974 J-13.98789
G2 X80.07816 Y-22.05123 I-69.54701 J0.50043
G3 X80.00186 Y-24.72315 I72.3307 J-3.40246
G3 X80.00305 Y-24.84301 I2.99985 J-0.03027
G2 X79.73229 Y-25.36607 I-0.60565 J-0.01809
G3 X79.68896 Y-25.39535 I1.65809 J-2.50014
G2 X77.86422 Y-25.92987 I-1.72408 J2.50377
G3 X77.66942 Y-25.92974 I-0.09933 J-2.99836
G2 X76.78121 Y-25.7261 I-0.057 J1.79022
G2 X76.36661 Y-25.17603 I0.71077 J0.96702
G3 X76.36467 Y-25.17083 I-2.81314 J-1.04223
G2 X75.90802 Y-23.10502 I7.14913 J2.66371
G3 X75.90356 Y-23.05387 I-2.99077 J-0.23511
G2 X75.78438 Y-20.41174 I26.08414 J2.50033
G3 X75.78442 Y-20.39551 I-2.99996 J0.01623
G1 Y-6.77246
G3 X75.7843 Y-6.74544 I-3.0 J0.0
G3 X75.63482 Y-1.2891 I-148.47284 J-1.33723
G2 X75.49133 Y3.9846 I144.99538 J6.58396
G3 X75.49115 Y4.00009 I-2.99988 J-0.02708
G2 X76.41875 Y8.66707 I11.39089 J0.16165
G3 X76.4468 Y8.73446 I-2.75542 J1.18644
G2 X77.27082 Y9.99585 I3.58176 J-1.43999
G2 X77.66708 Y10.14951 I0.39154 J-0.42193
G3 X77.66845 Y10.1495 I0.02458 J2.9999
G2 X79.1577 Y9.49423 I-0.0159 J-2.05611
G3 X79.36108 Y9.29549 I2.19606 J2.04385
G2 X79.94019 Y8.25409 I-1.19738 J-1.34756
G3 X79.64423 Y5.13844 I84.62442 J-9.61028
G3 X81.48677 Y2.13831 I2.99126 J-0.22877
G1 F300.0 X80.1083 Y-1.18732
G1 Z-5.0
G3 F800.0 X79.27751 Y-2.22592 I36.90915 J-30.37603
G3 X79.23109 Y-1.1251 I-151.96604 J-5.85676
G2 X79.21388 Y-0.73413 I141.39912 J6.41996
G3 X80.1083 Y-1.18732 I3.42162 J5.6438
G1 F300.0 X80.56779 Y-0.07878
G3 F800.0 X82.29697 Y-0.47971 I2.06771 J4.98845
G3 X79.58959 Y-3.79898 I34.72048 J-31.08364
G2 X79.22608 Y-4.24729 I-6.37414 J4.79701
G3 X78.17696 Y-6.07477 I4.0686 J-3.55056
G3 X78.03233 Y-1.17977 I-150.8655 J-2.0079
G2 X77.91719 Y2.28335 I142.59787 J6.47463
G3 X80.56779 Y-0.07878 I4.71831 J2.62632
G0 Z4.0
G0 X97.31038 Y3.49061
G0 Z-3.0
G1 F300.0 Z-5.0
G3 F800.0 X100.25389 Y1.75359 I4.07511 J3.54308
G3 X99.37497 Y1.07598 I20.59362 J-27.62076
G3 X98.15909 Y-0.28849 I3.36551 J-4.22295
G3 X97.69627 Y2.4168 I-19.60519 J-1.9618
G3 X97.31038 Y3.49061 I-5.24632 J-1.2791
G1 F300.0 X95.15019 Y2.44487
G3 F800.0 X90.91236 Y3.7137 I-2.70024 J-1.30717
G3 X85.65066 Y-0.4201 I13.45459 J-22.54119
G3 X81.5126 Y-5.23499 I31.36678 J-31.14325
G2 X81.03434 Y-5.82532 I-8.29714 J6.23302
G3 X80.29538 Y-7.73294 I2.26033 J-1.97253
G3 X80.14823 Y-19.3906 I646.31974 J-13.98789
G2 X80.07816 Y-22.05123 I-69.54701 J0.50043
G3 X80.00186 Y-24.72315 I72.3307 J-3.40246
G3 X80.00305 Y-24.84301 I2.99985 J-0.03027
G2 X79.73229 Y-25.36607 I-0.60565 J-0.01809
G3 X79.68896 Y-25.39535 I1.65809 J-2.50014
G2 X77.86422 Y-25.92987 I-1.72408 J2.50377
G3 X77.66942 Y-25.92974 I-0.09933 J-2.99836
G2 X76.78121 Y-25.7261 I-0.057 J1.79022
G2 X76.36661 Y-25.17603 I0.71077 J0.96702
G3 X76.36467 Y-25.17083 I-2.81314 J-1.04223
G2 X75.90802 Y-23.10502 I7.14913 J2.66371
G3 X75.90356 Y-23.05387 I-2.99077 J-0.23511
G2 X75.78438 Y-20.41174 I26.08414 J2.50033
G3 X75.78442 Y-20.39551 I-2.99996 J0.01623
G1 Y-6.77246
G3 X75.7843 Y-6.74544 I-3.0 J0.0
G3 X75.63482 Y-1.2891 I-148.47284 J-1.33723
G2 X75.49133 Y3.9846 I144.99538 J6.58396
G3 X75.49115 Y4.00009 I-2.99988 J-0.02708
G2 X76.41875 Y8.66707 I11.39089 J0.16165
G3 X76.4468 Y8.73446 I-2.75542 J1.18644
G2 X77.27082 Y9.99585 I3.58176 J-1.43999
G2 X77.66708 Y10.14951 I0.39154 J-0.42193
G3 X77.66845 Y10.1495 I0.02458 J2.9999
G2 X79.1577 Y9.49423 I-0.0159 J-2.05611
G3 X79.36108 Y9.29549 I2.19606 J2.04385
G2 X79.94019 Y8.25409 I-1.19738 J-1.34756
G3 X79.64423 Y5.13844 I84.62442 J-9.61028
G3 X84.93506 Y2.98301 I2.99126 J-0.22877
G2 X88.9686 Y6.75486 I17.45952 J-14.62823
G2 X91.10789 Y7.91935 I5.91463 J-8.31849
G3 X91.10939 Y7.91995 I-1.10965 J2.78723
G2 X93.13592 Y8.31848 I2.0766 J-5.20782
G3 X93.17547 Y8.31909 I-0.02679 J2.99988
G2 X96.53915 Y7.62315 I0.1694 J-7.65805
G2 X98.80606 Y5.50186 I-2.51826 J-4.96303
G3 X103.38474 Y4.79694 I2.57944 J1.53183
G2 X107.35031 Y7.17904 I8.22773 J-9.20518
G2 X112.16274 Y7.98888 I4.69133 J-13.1742
G3 X112.21592 Y7.98889 I0.02598 J2.99989
G2 X114.60189 Y7.67648 I0.07858 J-8.66713
G2 X117.27995 Y6.03117 I-1.54324 J-5.5141
G2 X119.06246 Y2.96138 I-6.99114 J-6.11191
G2 X119.48994 Y0.94251 I-16.84252 J-4.62095
G3 X119.49393 Y0.91681 I2.96652 J0.44697
G2 X120.52648 Y-6.43801 I-195.74535 J-31.23085
G3 X120.54444 Y-6.56371 I2.97816 J0.36135
G2 X121.95714 Y-16.32201 I-252.06456 J-41.47256
G3 X121.95828 Y-16.33103 I2.97679 J0.37245
G2 X123.15736 Y-26.16335 I-799.31889 J-102.46859
G2 X122.81327 Y-26.97269 I-0.94369 J-0.0766
G3 X122.73964 Y-27.03493 I1.89987 J-2.32175
G2 X121.06128 Y-27.64978 I-1.63942 J1.87701
G3 X120.86302 Y-27.65324 I-0.04688 J-2.99963
G2 X119.61253 Y-27.30698 I-0.10388 J2.05602
G2 X119.0477 Y-26.105 I1.55714 J1.46542
G3 X119.03271 Y-25.9996 I-2.97714 J-0.36961
G2 X117.70273 Y-15.54051 I160.0613 J25.66756
G3 X116.48024 Y-4.72414 I-254.34299 J-23.26904
G3 X116.4767 Y-4.69862 I-2.97316 J-0.40037
G3 X115.73587 Y-0.9016 I-38.12665 J-5.468
G1 X115.73582 Y-0.90142
G3 X115.01606 Y1.27199 I-14.48014 J-3.58946
G3 X115.01504 Y1.27443 I-2.76713 J-1.15888
G3 X114.25428 Y2.63919 I-6.50047 J-2.72914
G3 X111.2706 Y4.41658 I-3.37802 J-2.27763
G3 X110.67741 Y4.41534 I-0.29037 J-2.98591
G3 X108.76508 Y3.91267 I0.64258 J-6.3335
G3 X105.67603 Y2.36784 I11.58438 J-27.02498
G3 X100.87075 Y-0.80089 I15.17147 J-28.23501
G3 X99.74068 Y-3.18147 I1.86973 J-2.34608
G3 X100.08158 Y-9.4508 I73.32601 J0.8433
G3 X100.75349 Y-15.53933 I176.18161 J16.36151
G3 X100.75416 Y-15.54453 I2.97575 J0.38064
G2 X101.42031 Y-21.43842 I-179.06592 J-23.2231
G3 X101.42198 Y-21.45525 I2.98615 J0.28792
G2 X101.75492 Y-27.21178 I-65.23087 J-6.66072
G3 X101.75564 Y-27.24804 I2.99971 J0.04137
G2 X101.24703 Y-28.48697 I-1.65866 J-0.04294
G3 X101.24606 Y-28.48791 I2.07938 J-2.16244
G2 X99.80074 Y-29.04268 I-1.37915 J1.43295
G3 X99.60108 I-0.09981 J-2.99834
G2 X98.15583 Y-28.48793 I-0.06619 J1.98756
G3 X98.15484 Y-28.48698 I-2.08039 J-2.16148
G2 X97.64621 Y-27.24803 I1.1501 J1.19603
G3 X97.64703 Y-27.13686 I-2.999 J0.07762
G3 X97.32936 Y-20.76648 I-82.5442 J-0.9231
G3 X96.71304 Y-14.56829 I-207.27636 J-17.48078
G2 X96.13789 Y-8.51897 I211.93631 J23.20237
G3 X96.13682 Y-8.50613 I-2.99027 J-0.24136
G2 X95.85316 Y-2.61495 I80.03364 J6.8061
G3 X95.36457 Y1.84831 I-17.29926 J0.36465
G3 X95.15019 Y2.44487 I-2.91462 J-0.71061
G0 Z4.0
G0 X134.83979 Y-10.38218
G0 Z1.0
G1 F300.0 Z-1.0
G3 F800.0 X136.83819 Y-12.0365 I4.33867 J3.20688
G3 X134.96586 Y-14.30756 I3.0727 J-4.44056
G2 X134.79982 Y-12.10314 I11.79045 J1.99655
G3 X134.80043 Y-11.96244 I-5.39918 J0.09387
G2 X134.83979 Y-10.38218 I23.54302 J0.2042
G1 F300.0 X132.4439 Y-10.2419
G2 F800.0 X133.40641 Y-4.60071 I25.89956 J-1.51634
G2 X136.6608 Y1.85071 I19.14656 J-5.61184
G3 X136.68164 Y1.8785 I-2.38956 J1.81384
G2 X141.99392 Y6.31791 I11.84726 J-8.77856
G2 X148.83577 Y7.76942 I6.59458 J-14.2337
G3 X148.9017 Y7.7691 I0.04729 J2.99963
G2 X153.79223 Y7.37637 I0.17679 J-28.44449
G3 X153.80169 Y7.37479 I0.49714 J2.95852
G2 X158.18318 Y6.00663 I-2.68546 J-16.29996
G3 X158.22026 Y5.98939 I1.28337 J2.71163
G2 X161.06858 Y3.66601 I-3.01728 J-6.60662
G2 X161.99722 Y0.36828 I-4.88907 J-3.15638
G3 X161.99636 Y0.30628 I2.99911 J-0.07287
G2 X161.22166 Y-2.0743 I-4.09053 J0.01482
G2 X158.85185 Y-4.33361 I-7.59951 J5.59867
G2 X155.17335 Y-6.36403 I-17.19795 J26.80993
G3 X155.13909 Y-6.38036 I1.27334 J-2.71636
G2 X151.04137 Y-8.27572 I-55.36804 J114.32754
G3 X151.03907 Y-8.27673 I1.21083 J-2.74479
G1 X138.69776 Y-13.73327
G3 X137.70709 Y-18.51255 I1.21313 J-2.74378
G3 X143.1053 Y-22.14238 I10.34337 J9.55348
G3 X143.13825 Y-22.15452 I1.05364 J2.80889
G3 X149.88627 Y-23.28579 I6.46381 J17.86505
G3 X154.80335 Y-22.7693 I0.1232 J22.49111
G3 X154.80424 Y-22.76911 I-0.63943 J2.93106
G3 X159.69628 Y-20.86291 I-3.59572 J16.45852
G3 X159.7296 Y-20.84318 I-1.51147 J2.59142
G2 X161.68539 Y-19.84702 I8.09872 J-13.48239
G3 X161.74304 Y-19.82184 I-1.17173 J2.76171
G2 X163.14385 Y-19.4766 I1.64587 J-3.66362
G2 X163.78869 Y-19.55885 I-0.01425 J-2.68081
G2 X163.86608 Y-20.06451 I-1.28341 J-0.45516
G3 X163.86444 Y-20.1253 I2.99794 J-0.11127
G2 X162.88077 Y-22.19996 I-2.77831 J0.04676
G3 X162.84773 Y-22.22832 I1.93757 J-2.29038
G2 X159.62464 Y-24.20569 I-7.49918 J8.60813
G3 X159.56951 Y-24.2286 I1.12365 J-2.78162
G2 X149.88724 Y-26.18461 I-9.55726 J22.36681
G3 X149.84293 Y-26.18471 I-0.01542 J-2.99996
G2 X143.12334 Y-25.36434 I-0.24938 J25.88745
G2 X137.33831 Y-22.59883 I4.24069 J16.30435
G3 X137.32426 Y-22.5885 I-1.78533 J-2.41093
G2 X133.59224 Y-18.04407 I6.97171 J9.53003
G2 X132.40018 Y-12.06143 I13.16406 J5.73306
G3 X132.40052 Y-11.98326 I-2.99955 J0.05215
G2 X132.4439 Y-10.2419 I25.94293 J0.22501
G0 Z4.0
G0 X136.4482 Y-8.41853
G0 Z1.0
G1 F300.0 Z-1.0
G3 F800.0 X140.37232 Y-9.92751 I2.73027 J1.24324
G2 X148.59969 Y-6.3806 I793.8152 J-1830.0084
G3 X148.62019 Y-6.37173 I-1.18148 J2.75756
G3 X156.87403 Y-2.03367 I-26.08703 J59.65575
G3 X156.73521 Y3.14504 I-1.58228 J2.5488
G3 X152.71433 Y4.56905 I-6.37796 J-11.6203
G3 X148.89877 Y4.90691 I-3.69936 J-20.06422
G3 X140.98773 Y1.8052 I-0.17212 J-11.20059
G3 X140.97211 Y1.79017 I2.07257 J-2.16897
G3 X138.04289 Y-2.13612 I10.70599 J-11.04307
G3 X136.3166 Y-6.27545 I21.94985 J-11.5837
G3 X136.4482 Y-8.41853 I2.86187 J-0.89984
G1 F300.0 Z-2.0
G3 F800.0 X140.37232 Y-9.92751 I2.73027 J1.24324
G2 X148.59969 Y-6.3806 I793.8152 J-1830.0084
G3 X148.62019 Y-6.37173 I-1.18148 J2.75756
G3 X156.87403 Y-2.03367 I-26.08703 J59.65575
G3 X156.73521 Y3.14504 I-1.58228 J2.5488
G3 X152.71433 Y4.56905 I-6.37796 J-11.6203
G3 X148.89877 Y4.90691 I-3.69936 J-20.06422
G3 X140.98773 Y1.8052 I-0.17212 J-11.20059
G3 X140.97211 Y1.79017 I2.07257 J-2.16897
G3 X138.04289 Y-2.13612 I10.70599 J-11.04307
G3 X136.3166 Y-6.27545 I21.94985 J-11.5837
G3 X136.4482 Y-8.41853 I2.86187 J-0.89984
G1 F300.0 X134.83979 Y-10.38218
G3 F800.0 X136.83819 Y-12.0365 I4.33867 J3.20688
G3 X134.96586 Y-14.30756 I3.0727 J-4.44056
G2 X134.79982 Y-12.10314 I11.79045 J1.99655
G3 X134.80043 Y-11.96244 I-5.39918 J0.09387
G2 X134.83979 Y-10.38218 I23.54302 J0.2042
G1 F300.0 X132.4439 Y-10.2419
G2 F800.0 X133.40641 Y-4.60071 I25.89956 J-1.51634
G2 X136.6608 Y1.85071 I19.14656 J-5.61184
G3 X136.68164 Y1.8785 I-2.38956 J1.81384
G2 X141.99392 Y6.31791 I11.84726 J-8.77856
G2 X148.83577 Y7.76942 I6.59458 J-14.2337
G3 X148.9017 Y7.7691 I0.04729 J2.99963
G2 X153.79223 Y7.37637 I0.17679 J-28.44449
G3 X153.80169 Y7.37479 I0.49714 J2.95852
G2 X158.18318 Y6.00663 I-2.68546 J-16.29996
G3 X158.22026 Y5.98939 I1.28337 J2.71163
G2 X161.06858 Y3.66601 I-3.01728 J-6.60662
G2 X161.99722 Y0.36828 I-4.88907 J-3.15638
G3 X161.99636 Y0.30628 I2.99911 J-0.07287
G2 X161.22166 Y-2.0743 I-4.09053 J0.01482
G2 X158.85185 Y-4.33361 I-7.59951 J5.59867
G2 X155.17335 Y-6.36403 I-17.19795 J26.80993
G3 X155.13909 Y-6.38036 I1.27334 J-2.71636
G2 X151.04137 Y-8.27572 I-55.36804 J114.32754
G3 X151.03907 Y-8.27673 I1.21083 J-2.74479
G1 X138.69776 Y-13.73327
G3 X137.70709 Y-18.51255 I1.21313 J-2.74378
G3 X143.1053 Y-22.14238 I10.34337 J9.55348
G3 X143.13825 Y-22.15452 I1.05364 J2.80889
G3 X149.88627 Y-23.28579 I6.46381 J17.86505
G3 X154.80335 Y-22.7693 I0.1232 J22.49111
G3 X154.80424 Y-22.76911 I-0.63943 J2.93106
G3 X159.69628 Y-20.86291 I-3.59572 J16.45852
G3 X159.7296 Y-20.84318 I-1.51147 J2.59142
G2 X161.68539 Y-19.84702 I8.09872 J-13.48239
G3 X161.74304 Y-19.82184 I-1.17173 J2.76171
G2 X163.14385 Y-19.4766 I1.64587 J-3.66362
G2 X163.78869 Y-19.55885 I-0.01425 J-2.68081
G2 X163.86608 Y-20.06451 I-1.28341 J-0.45516
G3 X163.86444 Y-20.1253 I2.99794 J-0.11127
G2 X162.88077 Y-22.19996 I-2.77831 J0.04676
G3 X162.84773 Y-22.22832 I1.93757 J-2.29038
G2 X159.62464 Y-24.20569 I-7.49918 J8.60813
G3 X159.56951 Y-24.2286 I1.12365 J-2.78162
G2 X149.88724 Y-26.18461 I-9.55726 J22.36681
G3 X149.84293 Y-26.18471 I-0.01542 J-2.99996
G2 X143.12334 Y-25.36434 I-0.24938 J25.88745
G2 X137.33831 Y-22.59883 I4.24069 J16.30435
G3 X137.32426 Y-22.5885 I-1.78533 J-2.41093
G2 X133.59224 Y-18.04407 I6.97171 J9.53003
G2 X132.40018 Y-12.06143 I13.16406 J5.73306
G3 X132.40052 Y-11.98326 I-2.99955 J0.05215
G2 X132.4439 Y-10.2419 I25.94293 J0.22501
G1 F300.0 X134.83979 Y-10.38218
G1 Z-3.0
G3 F800.0 X136.83819 Y-12.0365 I4.33867 J3.20688
G3 X134.96586 Y-14.30756 I3.0727 J-4.44056
G2 X134.79982 Y-12.10314 I11.79045 J1.99655
G3 X134.80043 Y-11.96244 I-5.39918 J0.09387
G2 X134.83979 Y-10.38218 I23.54302 J0.2042
G1 F300.0 X132.4439 Y-10.2419
G2 F800.0 X133.40641 Y-4.60071 I25.89956 J-1.51634
G2 X136.6608 Y1.85071 I19.14656 J-5.61184
G3 X136.68164 Y1.8785 I-2.38956 J1.81384
G2 X141.99392 Y6.31791 I11.84726 J-8.77856
G2 X148.83577 Y7.76942 I6.59458 J-14.2337
G3 X148.9017 Y7.7691 I0.04729 J2.99963
G2 X153.79223 Y7.37637 I0.17679 J-28.44449
G3 X153.80169 Y7.37479 I0.49714 J2.95852
G2 X158.18318 Y6.00663 I-2.68546 J-16.29996
G3 X158.22026 Y5.98939 I1.28337 J2.71163
G2 X161.06858 Y3.66601 I-3.01728 J-6.60662
G2 X161.99722 Y0.36828 I-4.88907 J-3.15638
G3 X161.99636 Y0.30628 I2.99911 J-0.07287
G2 X161.22166 Y-2.0743 I-4.09053 J0.01482
G2 X158.85185 Y-4.33361 I-7.59951 J5.59867
G2 X155.17335 Y-6.36403 I-17.19795 J26.80993
G3 X155.13909 Y-6.38036 I1.27334 J-2.71636
G2 X151.04137 Y-8.27572 I-55.36804 J114.32754
G3 X151.03907 Y-8.27673 I1.21083 J-2.74479
G1 X138.69776 Y-13.73327
G3 X137.70709 Y-18.51255 I1.21313 J-2.74378
G3 X143.1053 Y-22.14238 I10.34337 J9.55348
G3 X143.13825 Y-22.15452 I1.05364 J2.80889
G3 X149.88627 Y-23.28579 I6.46381 J17.86505
G3 X154.80335 Y-22.7693 I0.1232 J22.49111
G3 X154.80424 Y-22.76911 I-0.63943 J2.93106
G3 X159.69628 Y-20.86291 I-3.59572 J16.45852
G3 X159.7296 Y-20.84318 I-1.51147 J2.59142
G2 X161.68539 Y-19.84702 I8.09872 J-13.48239
G3 X161.74304 Y-19.82184 I-1.17173 J2.76171
G2 X163.14385 Y-19.4766 I1.64587 J-3.66362
G2 X163.78869 Y-19.55885 I-0.01425 J-2.68081
G2 X163.86608 Y-20.06451 I-1.28341 J-0.45516
G3 X163.86444 Y-20.1253 I2.99794 J-0.11127
G2 X162.88077 Y-22.19996 I-2.77831 J0.04676
G3 X162.84773 Y-22.22832 I1.93757 J-2.29038
G2 X159.62464 Y-24.20569 I-7.49918 J8.60813
G3 X159.56951 Y-24.2286 I1.12365 J-2.78162
G2 X149.88724 Y-26.18461 I-9.55726 J22.36681
G3 X149.84293 Y-26.18471 I-0.01542 J-2.99996
G2 X143.12334 Y-25.36434 I-0.24938 J25.88745
G2 X137.33831 Y-22.59883 I4.24069 J16.30435
G3 X137.32426 Y-22.5885 I-1.78533 J-2.41093
G2 X133.59224 Y-18.04407 I6.97171 J9.53003
G2 X132.40018 Y-12.06143 I13.16406 J5.73306
G3 X132.40052 Y-11.98326 I-2.99955 J0.05215
G2 X132.4439 Y-10.2419 I25.94293 J0.22501
G0 Z4.0
G0 X136.4482 Y-8.41853
G0 Z-1.0
G1 F300.0 Z-3.0
G3 F800.0 X140.37232 Y-9.92751 I2.73027 J1.24324
G2 X148.59969 Y-6.3806 I793.8152 J-1830.0084
G3 X148.62019 Y-6.37173 I-1.18148 J2.75756
G3 X156.87403 Y-2.03367 I-26.08703 J59.65575
G3 X156.73521 Y3.14504 I-1.58228 J2.5488
G3 X152.71433 Y4.56905 I-6.37796 J-11.6203
G3 X148.89877 Y4.90691 I-3.69936 J-20.06422
G3 X140.98773 Y1.8052 I-0.17212 J-11.20059
G3 X140.97211 Y1.79017 I2.07257 J-2.16897
G3 X138.04289 Y-2.13612 I10.70599 J-11.04307
G3 X136.3166 Y-6.27545 I21.94985 J-11.5837
G3 X136.4482 Y-8.41853 I2.86187 J-0.89984
G1 F300.0 Z-4.0
G3 F800.0 X140.37232 Y-9.92751 I2.73027 J1.24324
G2 X148.59969 Y-6.3806 I793.8152 J-1830.0084
G3 X148.62019 Y-6.37173 I-1.18148 J2.75756
G3 X156.87403 Y-2.03367 I-26.08703 J59.65575
G3 X156.73521 Y3.14504 I-1.58228 J2.5488
G3 X152.71433 Y4.56905 I-6.37796 J-11.6203
G3 X148.89877 Y4.90691 I-3.69936 J-20.06422
G3 X140.98773 Y1.8052 I-0.17212 J-11.20059
G3 X140.97211 Y1.79017 I2.07257 J-2.16897
G3 X138.04289 Y-2.13612 I10.70599 J-11.04307
G3 X136.3166 Y-6.27545 I21.94985 J-11.5837
G3 X136.4482 Y-8.41853 I2.86187 J-0.89984
G1 F300.0 X134.83979 Y-10.38218
G3 F800.0 X136.83819 Y-12.0365 I4.33867 J3.20688
G3 X134.96586 Y-14.30756 I3.0727 J-4.44056
G2 X134.79982 Y-12.10314 I11.79045 J1.99655
G3 X134.80043 Y-11.96244 I-5.39918 J0.09387
G2 X134.83979 Y-10.38218 I23.54302 J0.2042
G1 F300.0 X132.4439 Y-10.2419
G2 F800.0 X133.40641 Y-4.60071 I25.89956 J-1.51634
G2 X136.6608 Y1.85071 I19.14656 J-5.61184
G3 X136.68164 Y1.8785 I-2.38956 J1.81384
G2 X141.99392 Y6.31791 I11.84726 J-8.77856
G2 X148.83577 Y7.76942 I6.59458 J-14.2337
G3 X148.9017 Y7.7691 I0.04729 J2.99963
G2 X153.79223 Y7.37637 I0.17679 J-28.44449
G3 X153.80169 Y7.37479 I0.49714 J2.95852
G2 X158.18318 Y6.00663 I-2.68546 J-16.29996
G3 X158.22026 Y5.98939 I1.28337 J2.71163
G2 X161.06858 Y3.66601 I-3.01728 J-6.60662
G2 X161.99722 Y0.36828 I-4.88907 J-3.15638
G3 X161.99636 Y0.30628 I2.99911 J-0.07287
G2 X161.22166 Y-2.0743 I-4.09053 J0.01482
G2 X158.85185 Y-4.33361 I-7.59951 J5.59867
G2 X155.17335 Y-6.36403 I-17.19795 J26.80993
G3 X155.13909 Y-6.38036 I1.27334 J-2.71636
G2 X151.04137 Y-8.27572 I-55.36804 J114.32754
G3 X151.03907 Y-8.27673 I1.21083 J-2.74479
G1 X138.69776 Y-13.73327
G3 X137.70709 Y-18.51255 I1.21313 J-2.74378
G3 X143.1053 Y-22.14238 I10.34337 J9.55348
G3 X143.13825 Y-22.15452 I1.05364 J2.80889
G3 X149.88627 Y-23.28579 I6.46381 J17.86505
G3 X154.80335 Y-22.7693 I0.1232 J22.49111
G3 X154.80424 Y-22.76911 I-0.63943 J2.93106
G3 X159.69628 Y-20.86291 I-3.59572 J16.45852
G3 X159.7296 Y-20.84318 I-1.51147 J2.59142
G2 X161.68539 Y-19.84702 I8.09872 J-13.48239
G3 X161.74304 Y-19.82184 I-1.17173 J2.76171
G2 X163.14385 Y-19.4766 I1.64587 J-3.66362
G2 X163.78869 Y-19.55885 I-0.01425 J-2.68081
G2 X163.86608 Y-20.06451 I-1.28341 J-0.45516
G3 X163.86444 Y-20.1253 I2.99794 J-0.11127
G2 X162.88077 Y-22.19996 I-2.77831 J0.04676
G3 X162.84773 Y-22.22832 I1.93757 J-2.29038
G2 X159.62464 Y-24.20569 I-7.49918 J8.60813
G3 X159.56951 Y-24.2286 I1.12365 J-2.78162
G2 X149.88724 Y-26.18461 I-9.55726 J22.36681
G3 X149.84293 Y-26.18471 I-0.01542 J-2.99996
G2 X143.12334 Y-25.36434 I-0.24938 J25.88745
G2 X137.33831 Y-22.59883 I4.24069 J16.30435
G3 X137.32426 Y-22.5885 I-1.78533 J-2.41093
G2 X133.59224 Y-18.04407 I6.97171 J9.53003
G2 X132.40018 Y-12.06143 I13.16406 J5.73306
G3 X132.40052 Y-11.98326 I-2.99955 J0.05215
G2 X132.4439 Y-10.2419 I25.94293 J0.22501
G1 F300.0 X134.83979 Y-10.38218
G1 Z-5.0
G3 F800.0 X136.83819 Y-12.0365 I4.33867 J3.20688
G3 X134.96586 Y-14.30756 I3.0727 J-4.44056
G2 X134.79982 Y-12.10314 I11.79045 J1.99655
G3 X134.80043 Y-11.96244 I-5.39918 J0.09387
G2 X134.83979 Y-10.38218 I23.54302 J0.2042
G1 F300.0 X132.4439 Y-10.2419
G2 F800.0 X133.40641 Y-4.60071 I25.89956 J-1.51634
G2 X136.6608 Y1.85071 I19.14656 J-5.61184
G3 X136.68164 Y1.8785 I-2.38956 J1.81384
G2 X141.99392 Y6.31791 I11.84726 J-8.77856
G2 X148.83577 Y7.76942 I6.59458 J-14.2337
G3 X148.9017 Y7.7691 I0.04729 J2.99963
G2 X153.79223 Y7.37637 I0.17679 J-28.44449
G3 X153.80169 Y7.37479 I0.49714 J2.95852
G2 X158.18318 Y6.00663 I-2.68546 J-16.29996
G3 X158.22026 Y5.98939 I1.28337 J2.71163
G2 X161.06858 Y3.66601 I-3.01728 J-6.60662
G2 X161.99722 Y0.36828 I-4.88907 J-3.15638
G3 X161.99636 Y0.30628 I2.99911 J-0.07287
G2 X161.22166 Y-2.0743 I-4.09053 J0.01482
G2 X158.85185 Y-4.33361 I-7.59951 J5.59867
G2 X155.17335 Y-6.36403 I-17.19795 J26.80993
G3 X155.13909 Y-6.38036 I1.27334 J-2.71636
G2 X151.04137 Y-8.27572 I-55.36804 J114.32754
G3 X151.03907 Y-8.27673 I1.21083 J-2.74479
G1 X138.69776 Y-13.73327
G3 X137.70709 Y-18.51255 I1.21313 J-2.74378
G3 X143.1053 Y-22.14238 I10.34337 J9.55348
G3 X143.13825 Y-22.15452 I1.05364 J2.80889
G3 X149.88627 Y-23.28579 I6.46381 J17.86505
G3 X154.80335 Y-22.7693 I0.1232 J22.49111
G3 X154.80424 Y-22.76911 I-0.63943 J2.93106
G3 X159.69628 Y-20.86291 I-3.59572 J16.45852
G3 X159.7296 Y-20.84318 I-1.51147 J2.59142
G2 X161.68539 Y-19.84702 I8.09872 J-13.48239
G3 X161.74304 Y-19.82184 I-1.17173 J2.76171
G2 X163.14385 Y-19.4766 I1.64587 J-3.66362
G2 X163.78869 Y-19.55885 I-0.01425 J-2.68081
G2 X163.86608 Y-20.06451 I-1.28341 J-0.45516
G3 X163.86444 Y-20.1253 I2.99794 J-0.11127
G2 X162.88077 Y-22.19996 I-2.77831 J0.04676
G3 X162.84773 Y-22.22832 I1.93757 J-2.29038
G2 X159.62464 Y-24.20569 I-7.49918 J8.60813
G3 X159.56951 Y-24.2286 I1.12365 J-2.78162
G2 X149.88724 Y-26.18461 I-9.55726 J22.36681
G3 X149.84293 Y-26.18471 I-0.01542 J-2.99996
G2 X143.12334 Y-25.36434 I-0.24938 J25.88745
G2 X137.33831 Y-22.59883 I4.24069 J16.30435
G3 X137.32426 Y-22.5885 I-1.78533 J-2.41093
G2 X133.59224 Y-18.04407 I6.97171 J9.53003
G2 X132.40018 Y-12.06143 I13.16406 J5.73306
G3 X132.40052 Y-11.98326 I-2.99955 J0.05215
G2 X132.4439 Y-10.2419 I25.94293 J0.22501
G0 Z4.0
G0 X136.4482 Y-8.41853
G0 Z-3.0
G1 F300.0 Z-5.0
G3 F800.0 X140.37232 Y-9.92751 I2.73027 J1.24324
G2 X148.59969 Y-6.3806 I793.8152 J-1830.0084
G3 X148.62019 Y-6.37173 I-1.18148 J2.75756
G3 X156.87403 Y-2.03367 I-26.08703 J59.65575
G3 X156.73521 Y3.14504 I-1.58228 J2.5488
G3 X152.71433 Y4.56905 I-6.37796 J-11.6203
G3 X148.89877 Y4.90691 I-3.69936 J-20.06422
G3 X140.98773 Y1.8052 I-0.17212 J-11.20059
G3 X140.97211 Y1.79017 I2.07257 J-2.16897
G3 X138.04289 Y-2.13612 I10.70599 J-11.04307
G3 X136.3166 Y-6.27545 I21.94985 J-11.5837
G3 X136.4482 Y-8.41853 I2.86187 J-0.89984
G0 Z4.0
G0 X179.56239 Y-4.08186
G0 Z1.0
G1 F300.0 Z-1.0
G3 F800.0 X179.7219 Y0.70435 I-143.9152 J7.19216
G3 X181.68874 Y-0.09594 I3.4385 J5.63354
G3 X179.56239 Y-4.08186 I27.54343 J-17.25361
G1 F300.0 X178.36389 Y-4.02197
G3 F800.0 X178.5256 Y0.94604 I-142.7167 J7.13226
G3 X178.52555 Y1.1131 I-5.39938 J0.08179
G3 X178.43113 Y3.73135 I-64.67883 J-1.02149
G3 X183.86173 Y0.98363 I4.72927 J2.60654
G3 X180.59097 Y-4.72234 I25.37044 J-18.33318
G3 X178.42757 Y-10.80515 I39.46197 J-17.46108
G3 X178.24187 Y-11.9876 I5.2089 J-1.42385
G2 X177.9909 Y-14.811 I-32.23573 J1.44254
G3 X177.97593 Y-14.93405 I5.3526 J-0.7139
G3 X177.7606 Y-18.73405 I35.68607 J-3.92825
G2 X177.61665 Y-20.75913 I-25.38545 J0.78689
G2 X177.50199 Y-18.86183 I30.4894 J2.7947
G2 X177.99277 Y-9.40614 I132.04759 J-2.11312
G1 Y-9.4061
G3 X178.36389 Y-4.02197 I-142.34558 J12.5164
G1 F300.0 X175.96688 Y-3.90217
G3 F800.0 X176.12588 Y0.98239 I-140.31969 J7.01247
G3 X176.12585 Y1.07521 I-2.99966 J0.04544
G3 X175.97392 Y4.54896 I-62.27913 J-0.98359
G2 X175.86964 Y7.69374 I76.07442 J4.09679
G3 X175.86871 Y7.73963 I-2.99977 J-0.03749
G2 X176.35394 Y8.87991 I1.4854 J0.0413
G3 X176.37959 Y8.90353 I-2.01923 J2.21872
G2 X177.92577 Y9.49108 I1.49427 J-1.60405
G3 X178.05135 Y9.49073 I0.07105 J2.99916
G2 X179.05456 Y9.32421 I0.05087 J-2.79868
G2 X179.67414 Y8.70291 I-0.46803 J-1.08633
G2 X180.1254 Y6.64209 I-5.35177 J-2.2517
G3 X180.1361 Y6.46912 I2.99838 J0.09863
G1 X180.17272 Y6.06628
G3 X185.31793 Y4.25341 I2.98768 J0.27161
G2 X189.65643 Y7.52553 I12.54272 J-12.1181
G2 X194.45316 Y8.72122 I4.84344 J-9.21102
G3 X194.52679 Y8.72246 I-0.01347 J2.99997
G2 X198.65766 Y7.75404 I0.2402 J-8.26992
G2 X201.23128 Y4.77463 I-3.38021 J-5.52108
G2 X202.45129 Y-0.08534 I-15.96616 J-6.59113
G3 X202.45582 Y-0.12739 I2.9849 J0.30067
G2 X202.75567 Y-5.65548 I-45.6299 J-5.24719
G3 X202.75562 Y-5.67383 I2.99994 J-0.01835
G1 Y-8.23833
G3 X202.71907 Y-10.63357 I143.44266 J-3.38672
G3 X202.71993 Y-10.72927 I2.99993 J-0.02073
G3 X203.53824 Y-18.56169 I49.81166 J1.24525
G3 X203.54319 Y-18.58774 I2.94979 J0.54655
G2 X204.29465 Y-25.41502 I-40.94866 J-7.96211
G2 X203.81869 Y-26.51818 I-1.44325 J-0.03157
G3 X203.7983 Y-26.53676 I2.01017 J-2.22693
G2 X202.28781 Y-27.10129 I-1.45019 J1.57718
G3 X202.16741 Y-27.10031 I-0.08444 J-2.99881
G2 X201.12805 Y-26.97054 I-0.04623 J3.8569
G3 X201.09689 Y-26.96242 I-0.77243 J-2.89885
G2 X200.56667 Y-26.61458 I0.24113 J0.9456
G2 X200.17552 Y-25.41508 I2.36014 J1.43316
G3 X200.15921 Y-25.26681 I-2.98924 J-0.25387
G1 X199.13381 Y-17.68624
G3 X199.13161 Y-17.6703 I-2.97293 J-0.40213
G2 X198.61169 Y-10.52268 I52.84055 J7.4364
G2 X198.71596 Y-7.43164 I83.58622 J-1.27229
G3 X198.86683 Y-4.07366 I-67.95089 J4.73543
G2 X198.93196 Y-2.94231 I27.17364 J-0.99678
G3 X198.93284 Y-2.93083 I-2.9908 J0.23479
G3 X199.01408 Y-1.03296 I-29.85813 J2.22872
G3 X198.73581 Y1.51318 I-10.00227 J0.19514
G3 X198.73531 Y1.51527 I-2.91599 J-0.705
G3 X197.71392 Y3.56732 I-5.01637 J-1.21662
G3 X197.6531 Y3.63932 I-2.32186 J-1.89973
G3 X194.43233 Y5.05214 I-3.1099 J-2.71198
G3 X194.41652 Y5.05167 I0.08061 J-2.99892
G3 X189.09079 Y3.05722 I0.2852 J-8.86937
G3 X185.93588 Y-0.24511 I10.44998 J-13.14167
G3 X182.78637 Y-5.69199 I23.29629 J-17.10444
G3 X180.74264 Y-11.43798 I37.26657 J-16.49143
G3 X180.63947 Y-12.09489 I2.89383 J-0.79103
G2 X180.36984 Y-15.12829 I-34.63333 J1.54983
G3 X180.36152 Y-15.19665 I2.97367 J-0.39661
G3 X180.16049 Y-18.77421 I33.30048 J-3.66565
G2 X179.93023 Y-21.61138 I-27.78534 J0.82706
G3 X179.92335 Y-21.66708 I2.97382 J-0.39545
G3 X179.68533 Y-25.07882 I38.76619 J-4.41879
G3 X179.68577 Y-25.2494 I2.999 J-0.07743
G2 X179.15818 Y-26.52881 I-1.68792 J-0.05244
G3 X179.13912 Y-26.54699 I2.0613 J-2.17969
G2 X177.6938 Y-27.10176 I-1.37915 J1.43295
G3 X177.49414 I-0.09981 J-2.99834
G2 X176.05277 Y-26.55074 I-0.06619 J1.98756
G2 X175.539 Y-25.2806 I1.1899 J1.22029
G3 X175.53929 Y-25.11569 I-2.99872 J0.08773
G3 X175.30124 Y-21.70358 I-38.93587 J-1.00203
G1 X175.30123 Y-21.70345
G1 X175.30126 Y-21.7037
G1 X175.30124 Y-21.70358
G2 X175.10145 Y-18.87703 I32.8048 J3.73916
G2 X175.60199 Y-9.1959 I134.44813 J-2.09792
G1 Y-9.19588
G3 X175.96688 Y-3.90217 I-139.95481 J12.30618
G1 F300.0 X179.56239 Y-4.08186
G1 Z-2.0
G3 F800.0 X179.7219 Y0.70435 I-143.9152 J7.19216
G3 X181.68874 Y-0.09594 I3.4385 J5.63354
G3 X179.56239 Y-4.08186 I27.54343 J-17.25361
G1 F300.0 X178.36389 Y-4.02197
G3 F800.0 X178.5256 Y0.94604 I-142.7167 J7.13226
G3 X178.52555 Y1.1131 I-5.39938 J0.08179
G3 X178.43113 Y3.73135 I-64.67883 J-1.02149
G3 X183.86173 Y0.98363 I4.72927 J2.60654
G3 X180.59097 Y-4.72234 I25.37044 J-18.33318
G3 X178.42757 Y-10.80515 I39.46197 J-17.46108
G3 X178.24187 Y-11.9876 I5.2089 J-1.42385
G2 X177.9909 Y-14.811 I-32.23573 J1.44254
G3 X177.97593 Y-14.93405 I5.3526 J-0.7139
G3 X177.7606 Y-18.73405 I35.68607 J-3.92825
G2 X177.61665 Y-20.75913 I-25.38545 J0.78689
G2 X177.50199 Y-18.86183 I30.4894 J2.7947
G2 X177.99277 Y-9.40614 I132.04759 J-2.11312
G1 Y-9.4061
G3 X178.36389 Y-4.02197 I-142.34558 J12.5164
G1 F300.0 X175.96688 Y-3.90217
G3 F800.0 X176.12588 Y0.98239 I-140.31969 J7.01247
G3 X176.12585 Y1.07521 I-2.99966 J0.04544
G3 X175.97392 Y4.54896 I-62.27913 J-0.98359
G2 X175.86964 Y7.69374 I76.07442 J4.09679
G3 X175.86871 Y7.73963 I-2.99977 J-0.03749
G2 X176.35394 Y8.87991 I1.4854 J0.0413
G3 X176.37959 Y8.90353 I-2.01923 J2.21872
G2 X177.92577 Y9.49108 I1.49427 J-1.60405
G3 X178.05135 Y9.49073 I0.07105 J2.99916
G2 X179.05456 Y9.32421 I0.05087 J-2.79868
G2 X179.67414 Y8.70291 I-0.46803 J-1.08633
G2 X180.1254 Y6.64209 I-5.35177 J-2.2517
G3 X180.1361 Y6.46912 I2.99838 J0.09863
G1 X180.17272 Y6.06628
G3 X185.31793 Y4.25341 I2.98768 J0.27161
G2 X189.65643 Y7.52553 I12.54272 J-12.1181
G2 X194.45316 Y8.72122 I4.84344 J-9.21102
G3 X194.52679 Y8.72246 I-0.01347 J2.99997
G2 X198.65766 Y7.75404 I0.2402 J-8.26992
G2 X201.23128 Y4.77463 I-3.38021 J-5.52108
G2 X202.45129 Y-0.08534 I-15.96616 J-6.59113
G3 X202.45582 Y-0.12739 I2.9849 J0.30067
G2 X202.75567 Y-5.65548 I-45.6299 J-5.24719
G3 X202.75562 Y-5.67383 I2.99994 J-0.01835
G1 Y-8.23833
G3 X202.71907 Y-10.63357 I143.44266 J-3.38672
G3 X202.71993 Y-10.72927 I2.99993 J-0.02073
G3 X203.53824 Y-18.56169 I49.81166 J1.24525
G3 X203.54319 Y-18.58774 I2.94979 J0.54655
G2 X204.29465 Y-25.41502 I-40.94866 J-7.96211
G2 X203.81869 Y-26.51818 I-1.44325 J-0.03157
G3 X203.7983 Y-26.53676 I2.01017 J-2.22693
G2 X202.28781 Y-27.10129 I-1.45019 J1.57718
G3 X202.16741 Y-27.10031 I-0.08444 J-2.99881
G2 X201.12805 Y-26.97054 I-0.04623 J3.8569
G3 X201.09689 Y-26.96242 I-0.77243 J-2.89885
G2 X200.56667 Y-26.61458 I0.24113 J0.9456
G2 X200.17552 Y-25.41508 I2.36014 J1.43316
G3 X200.15921 Y-25.26681 I-2.98924 J-0.25387
G1 X199.13381 Y-17.68624
G3 X199.13161 Y-17.6703 I-2.97293 J-0.40213
G2 X198.61169 Y-10.52268 I52.84055 J7.4364
G2 X198.71596 Y-7.43164 I83.58622 J-1.27229
G3 X198.86683 Y-4.07366 I-67.95089 J4.73543
G2 X198.93196 Y-2.94231 I27.17364 J-0.99678
G3 X198.93284 Y-2.93083 I-2.9908 J0.23479
G3 X199.01408 Y-1.03296 I-29.85813 J2.22872
G3 X198.73581 Y1.51318 I-10.00227 J0.19514
G3 X198.73531 Y1.51527 I-2.91599 J-0.705
G3 X197.71392 Y3.56732 I-5.01637 J-1.21662
G3 X197.6531 Y3.63932 I-2.32186 J-1.89973
G3 X194.43233 Y5.05214 I-3.1099 J-2.71198
G3 X194.41652 Y5.05167 I0.08061 J-2.99892
G3 X189.09079 Y3.05722 I0.2852 J-8.86937
G3 X185.93588 Y-0.24511 I10.44998 J-13.14167
G3 X182.78637 Y-5.69199 I23.29629 J-17.10444
G3 X180.74264 Y-11.43798 I37.26657 J-16.49143
G3 X180.63947 Y-12.09489 I2.89383 J-0.79103
G2 X180.36984 Y-15.12829 I-34.63333 J1.54983
G3 X180.36152 Y-15.19665 I2.97367 J-0.39661
G3 X180.16049 Y-18.77421 I33.30048 J-3.66565
G2 X179.93023 Y-21.61138 I-27.78534 J0.82706
G3 X179.92335 Y-21.66708 I2.97382 J-0.39545
G3 X179.68533 Y-25.07882 I38.76619 J-4.41879
G3 X179.68577 Y-25.2494 I2.999 J-0.07743
G2 X179.15818 Y-26.52881 I-1.68792 J-0.05244
G3 X179.13912 Y-26.54699 I2.0613 J-2.17969
G2 X177.6938 Y-27.10176 I-1.37915 J1.43295
G3 X177.49414 I-0.09981 J-2.99834
G2 X176.05277 Y-26.55074 I-0.06619 J1.98756
G2 X175.539 Y-25.2806 I1.1899 J1.22029
G3 X175.53929 Y-25.11569 I-2.99872 J0.08773
G3 X175.30124 Y-21.70358 I-38.93587 J-1.00203
G1 X175.30123 Y-21.70345
G1 X175.30126 Y-21.7037
G1 X175.30124 Y-21.70358
G2 X175.10145 Y-18.87703 I32.8048 J3.73916
G2 X175.60199 Y-9.1959 I134.44813 J-2.09792
G1 Y-9.19588
G3 X175.96688 Y-3.90217 I-139.95481 J12.30618
G1 F300.0 X179.56239 Y-4.08186
G1 Z-3.0
G3 F800.0 X179.7219 Y0.70435 I-143.9152 J7.19216
G3 X181.68874 Y-0.09594 I3.4385 J5.63354
G3 X179.56239 Y-4.08186 I27.54343 J-17.25361
G1 F300.0 X178.36389 Y-4.02197
G3 F800.0 X178.5256 Y0.94604 I-142.7167 J7.13226
G3 X178.52555 Y1.1131 I-5.39938 J0.08179
G3 X178.43113 Y3.73135 I-64.67883 J-1.02149
G3 X183.86173 Y0.98363 I4.72927 J2.60654
G3 X180.59097 Y-4.72234 I25.37044 J-18.33318
G3 X178.42757 Y-10.80515 I39.46197 J-17.46108
G3 X178.24187 Y-11.9876 I5.2089 J-1.42385
G2 X177.9909 Y-14.811 I-32.23573 J1.44254
G3 X177.97593 Y-14.93405 I5.3526 J-0.7139
G3 X177.7606 Y-18.73405 I35.68607 J-3.92825
G2 X177.61665 Y-20.75913 I-25.38545 J0.78689
G2 X177.50199 Y-18.86183 I30.4894 J2.7947
G2 X177.99277 Y-9.40614 I132.04759 J-2.11312
G1 Y-9.4061
G3 X178.36389 Y-4.02197 I-142.34558 J12.5164
G1 F300.0 X175.96688 Y-3.90217
G3 F800.0 X176.12588 Y0.98239 I-140.31969 J7.01247
G3 X176.12585 Y1.07521 I-2.99966 J0.04544
G3 X175.97392 Y4.54896 I-62.27913 J-0.98359
G2 X175.86964 Y7.69374 I76.07442 J4.09679
G3 X175.86871 Y7.73963 I-2.99977 J-0.03749
G2 X176.35394 Y8.87991 I1.4854 J0.0413
G3 X176.37959 Y8.90353 I-2.01923 J2.21872
G2 X177.92577 Y9.49108 I1.49427 J-1.60405
G3 X178.05135 Y9.49073 I0.07105 J2.99916
G2 X179.05456 Y9.32421 I0.05087 J-2.79868
G2 X179.67414 Y8.70291 I-0.46803 J-1.08633
G2 X180.1254 Y6.64209 I-5.35177 J-2.2517
G3 X180.1361 Y6.46912 I2.99838 J0.09863
G1 X180.17272 Y6.06628
G3 X185.31793 Y4.25341 I2.98768 J0.27161
G2 X189.65643 Y7.52553 I12.54272 J-12.1181
G2 X194.45316 Y8.72122 I4.84344 J-9.21102
G3 X194.52679 Y8.72246 I-0.01347 J2.99997
G2 X198.65766 Y7.75404 I0.2402 J-8.26992
G2 X201.23128 Y4.77463 I-3.38021 J-5.52108
G2 X202.45129 Y-0.08534 I-15.96616 J-6.59113
G3 X202.45582 Y-0.12739 I2.9849 J0.30067
G2 X202.75567 Y-5.65548 I-45.6299 J-5.24719
G3 X202.75562 Y-5.67383 I2.99994 J-0.01835
G1 Y-8.23833
G3 X202.71907 Y-10.63357 I143.44266 J-3.38672
G3 X202.71993 Y-10.72927 I2.99993 J-0.02073
G3 X203.53824 Y-18.56169 I49.81166 J1.24525
G3 X203.54319 Y-18.58774 I2.94979 J0.54655
G2 X204.29465 Y-25.41502 I-40.94866 J-7.96211
G2 X203.81869 Y-26.51818 I-1.44325 J-0.03157
G3 X203.7983 Y-26.53676 I2.01017 J-2.22693
G2 X202.28781 Y-27.10129 I-1.45019 J1.57718
G3 X202.16741 Y-27.10031 I-0.08444 J-2.99881
G2 X201.12805 Y-26.97054 I-0.04623 J3.8569
G3 X201.09689 Y-26.96242 I-0.77243 J-2.89885
G2 X200.56667 Y-26.61458 I0.24113 J0.9456
G2 X200.17552 Y-25.41508 I2.36014 J1.43316
G3 X200.15921 Y-25.26681 I-2.98924 J-0.25387
G1 X199.13381 Y-17.68624
G3 X199.13161 Y-17.6703 I-2.97293 J-0.40213
G2 X198.61169 Y-10.52268 I52.84055 J7.4364
G2 X198.71596 Y-7.43164 I83.58622 J-1.27229
G3 X198.86683 Y-4.07366 I-67.95089 J4.73543
G2 X198.93196 Y-2.94231 I27.17364 J-0.99678
G3 X198.93284 Y-2.93083 I-2.9908 J0.23479
G3 X199.01408 Y-1.03296 I-29.85813 J2.22872
G3 X198.73581 Y1.51318 I-10.00227 J0.19514
G3 X198.73531 Y1.51527 I-2.91599 J-0.705
G3 X197.71392 Y3.56732 I-5.01637 J-1.21662
G3 X197.6531 Y3.63932 I-2.32186 J-1.89973
G3 X194.43233 Y5.05214 I-3.1099 J-2.71198
G3 X194.41652 Y5.05167 I0.08061 J-2.99892
G3 X189.09079 Y3.05722 I0.2852 J-8.86937
G3 X185.93588 Y-0.24511 I10.44998 J-13.14167
G3 X182.78637 Y-5.69199 I23.29629 J-17.10444
G3 X180.74264 Y-11.43798 I37.26657 J-16.49143
G3 X180.63947 Y-12.09489 I2.89383 J-0.79103
G2 X180.36984 Y-15.12829 I-34.63333 J1.54983
G3 X180.36152 Y-15.19665 I2.97367 J-0.39661
G3 X180.16049 Y-18.77421 I33.30048 J-3.66565
G2 X179.93023 Y-21.61138 I-27.78534 J0.82706
G3 X179.92335 Y-21.66708 I2.97382 J-0.39545
G3 X179.68533 Y-25.07882 I38.76619 J-4.41879
G3 X179.68577 Y-25.2494 I2.999 J-0.07743
G2 X179.15818 Y-26.52881 I-1.68792 J-0.05244
G3 X179.13912 Y-26.54699 I2.0613 J-2.17969
G2 X177.6938 Y-27.10176 I-1.37915 J1.43295
G3 X177.49414 I-0.09981 J-2.99834
G2 X176.05277 Y-26.55074 I-0.06619 J1.98756
G2 X175.539 Y-25.2806 I1.1899 J1.22029
G3 X175.53929 Y-25.11569 I-2.99872 J0.08773
G3 X175.30124 Y-21.70358 I-38.93587 J-1.00203
G1 X175.30123 Y-21.70345
G1 X175.30126 Y-21.7037
G1 X175.30124 Y-21.70358
G2 X175.10145 Y-18.87703 I32.8048 J3.73916
G2 X175.60199 Y-9.1959 I134.44813 J-2.09792
G1 Y-9.19588
G3 X175.96688 Y-3.90217 I-139.95481 J12.30618
G1 F300.0 X179.56239 Y-4.08186
G1 Z-4.0
G3 F800.0 X179.7219 Y0.70435 I-143.9152 J7.19216
G3 X181.68874 Y-0.09594 I3.4385 J5.63354
G3 X179.56239 Y-4.08186 I27.54343 J-17.25361
G1 F300.0 X178.36389 Y-4.02197
G3 F800.0 X178.5256 Y0.94604 I-142.7167 J7.13226
G3 X178.52555 Y1.1131 I-5.39938 J0.08179
G3 X178.43113 Y3.73135 I-64.67883 J-1.02149
G3 X183.86173 Y0.98363 I4.72927 J2.60654
G3 X180.59097 Y-4.72234 I25.37044 J-18.33318
G3 X178.42757 Y-10.80515 I39.46197 J-17.46108
G3 X178.24187 Y-11.9876 I5.2089 J-1.42385
G2 X177.9909 Y-14.811 I-32.23573 J1.44254
G3 X177.97593 Y-14.93405 I5.3526 J-0.7139
G3 X177.7606 Y-18.73405 I35.68607 J-3.92825
G2 X177.61665 Y-20.75913 I-25.38545 J0.78689
G2 X177.50199 Y-18.86183 I30.4894 J2.7947
G2 X177.99277 Y-9.40614 I132.04759 J-2.11312
G1 Y-9.4061
G3 X178.36389 Y-4.02197 I-142.34558 J12.5164
G1 F300.0 X175.96688 Y-3.90217
G3 F800.0 X176.12588 Y0.98239 I-140.31969 J7.01247
G3 X176.12585 Y1.07521 I-2.99966 J0.04544
G3 X175.97392 Y4.54896 I-62.27913 J-0.98359
G2 X175.86964 Y7.69374 I76.07442 J4.09679
G3 X175.86871 Y7.73963 I-2.99977 J-0.03749
G2 X176.35394 Y8.87991 I1.4854 J0.0413
G3 X176.37959 Y8.90353 I-2.01923 J2.21872
G2 X177.92577 Y9.49108 I1.49427 J-1.60405
G3 X178.05135 Y9.49073 I0.07105 J2.99916
G2 X179.05456 Y9.32421 I0.05087 J-2.79868
G2 X179.67414 Y8.70291 I-0.46803 J-1.08633
G2 X180.1254 Y6.64209 I-5.35177 J-2.2517
G3 X180.1361 Y6.46912 I2.99838 J0.09863
G1 X180.17272 Y6.06628
G3 X185.31793 Y4.25341 I2.98768 J0.27161
G2 X189.65643 Y7.52553 I12.54272 J-12.1181
G2 X194.45316 Y8.72122 I4.84344 J-9.21102
G3 X194.52679 Y8.72246 I-0.01347 J2.99997
G2 X198.65766 Y7.75404 I0.2402 J-8.26992
G2 X201.23128 Y4.77463 I-3.38021 J-5.52108
G2 X202.45129 Y-0.08534 I-15.96616 J-6.59113
G3 X202.45582 Y-0.12739 I2.9849 J0.30067
G2 X202.75567 Y-5.65548 I-45.6299 J-5.24719
G3 X202.75562 Y-5.67383 I2.99994 J-0.01835
G1 Y-8.23833
G3 X202.71907 Y-10.63357 I143.44266 J-3.38672
G3 X202.71993 Y-10.72927 I2.99993 J-0.02073
G3 X203.53824 Y-18.56169 I49.81166 J1.24525
G3 X203.54319 Y-18.58774 I2.94979 J0.54655
G2 X204.29465 Y-25.41502 I-40.94866 J-7.96211
G2 X203.81869 Y-26.51818 I-1.44325 J-0.03157
G3 X203.7983 Y-26.53676 I2.01017 J-2.22693
G2 X202.28781 Y-27.10129 I-1.45019 J1.57718
G3 X202.16741 Y-27.10031 I-0.08444 J-2.99881
G2 X201.12805 Y-26.97054 I-0.04623 J3.8569
G3 X201.09689 Y-26.96242 I-0.77243 J-2.89885
G2 X200.56667 Y-26.61458 I0.24113 J0.9456
G2 X200.17552 Y-25.41508 I2.36014 J1.43316
G3 X200.15921 Y-25.26681 I-2.98924 J-0.25387
G1 X199.13381 Y-17.68624
G3 X199.13161 Y-17.6703 I-2.97293 J-0.40213
G2 X198.61169 Y-10.52268 I52.84055 J7.4364
G2 X198.71596 Y-7.43164 I83.58622 J-1.27229
G3 X198.86683 Y-4.07366 I-67.95089 J4.73543
G2 X198.93196 Y-2.94231 I27.17364 J-0.99678
G3 X198.93284 Y-2.93083 I-2.9908 J0.23479
G3 X199.01408 Y-1.03296 I-29.85813 J2.22872
G3 X198.73581 Y1.51318 I-10.00227 J0.19514
G3 X198.73531 Y1.51527 I-2.91599 J-0.705
G3 X197.71392 Y3.56732 I-5.01637 J-1.21662
G3 X197.6531 Y3.63932 I-2.32186 J-1.89973
G3 X194.43233 Y5.05214 I-3.1099 J-2.71198
G3 X194.41652 Y5.05167 I0.08061 J-2.99892
G3 X189.09079 Y3.05722 I0.2852 J-8.86937
G3 X185.93588 Y-0.24511 I10.44998 J-13.14167
G3 X182.78637 Y-5.69199 I23.29629 J-17.10444
G3 X180.74264 Y-11.43798 I37.26657 J-16.49143
G3 X180.63947 Y-12.09489 I2.89383 J-0.79103
G2 X180.36984 Y-15.12829 I-34.63333 J1.54983
G3 X180.36152 Y-15.19665 I2.97367 J-0.39661
G3 X180.16049 Y-18.77421 I33.30048 J-3.66565
G2 X179.93023 Y-21.61138 I-27.78534 J0.82706
G3 X179.92335 Y-21.66708 I2.97382 J-0.39545
G3 X179.68533 Y-25.07882 I38.76619 J-4.41879
G3 X179.68577 Y-25.2494 I2.999 J-0.07743
G2 X179.15818 Y-26.52881 I-1.68792 J-0.05244
G3 X179.13912 Y-26.54699 I2.0613 J-2.17969
G2 X177.6938 Y-27.10176 I-1.37915 J1.43295
G3 X177.49414 I-0.09981 J-2.99834
G2 X176.05277 Y-26.55074 I-0.06619 J1.98756
G2 X175.539 Y-25.2806 I1.1899 J1.22029
G3 X175.53929 Y-25.11569 I-2.99872 J0.08773
G3 X175.30124 Y-21.70358 I-38.93587 J-1.00203
G1 X175.30123 Y-21.70345
G1 X175.30126 Y-21.7037
G1 X175.30124 Y-21.70358
G2 X175.10145 Y-18.87703 I32.8048 J3.73916
G2 X175.60199 Y-9.1959 I134.44813 J-2.09792
G1 Y-9.19588
G3 X175.96688 Y-3.90217 I-139.95481 J12.30618
G1 F300.0 X179.56239 Y-4.08186
G1 Z-5.0
G3 F800.0 X179.7219 Y0.70435 I-143.9152 J7.19216
G3 X181.68874 Y-0.09594 I3.4385 J5.63354
G3 X179.56239 Y-4.08186 I27.54343 J-17.25361
G1 F300.0 X178.36389 Y-4.02197
G3 F800.0 X178.5256 Y0.94604 I-142.7167 J7.13226
G3 X178.52555 Y1.1131 I-5.39938 J0.08179
G3 X178.43113 Y3.73135 I-64.67883 J-1.02149
G3 X183.86173 Y0.98363 I4.72927 J2.60654
G3 X180.59097 Y-4.72234 I25.37044 J-18.33318
G3 X178.42757 Y-10.80515 I39.46197 J-17.46108
G3 X178.24187 Y-11.9876 I5.2089 J-1.42385
G2 X177.9909 Y-14.811 I-32.23573 J1.44254
G3 X177.97593 Y-14.93405 I5.3526 J-0.7139
