( Made using CamBam - http://www.cambam.co.uk )
( Willkommen 3/28/2020 2:30:29 PM )
( T6 : 6.0 )
G21 G90 G64 G40
G0 Z4.0
( T6 : 6.0 )
T6 M6
( Willkommen-Text )
G17
M3 S1000
G0 X-118.03892 Y-12.30598
G0 Z1.0
G1 F300.0 Z-0.8
G2 F800.0 X-117.90287 Y-12.28552 I0.1301 J-0.40265
G3 X-117.73556 Y-12.28528 I0.07594 J5.39947
G2 X-117.62208 Y-12.30598 I0.00498 J-0.29416
G2 X-117.73553 Y-12.32667 I-0.10847 J0.27339
G3 X-117.90287 Y-12.32643 I-0.0914 J-5.39923
G2 X-118.03892 Y-12.30598 I-0.00595 J0.42311
G1 F300.0 X-118.77684 Y-14.58972
G2 F800.0 X-119.83986 Y-13.96275 I0.86802 J2.6864
G3 X-119.92164 Y-13.88885 I-2.05201 J-2.18844
G2 X-120.6133 Y-12.34365 I1.32364 J1.51988
G3 Y-12.26827 I-2.99976 J0.03768
G2 X-119.92166 Y-10.72312 I2.01519 J0.02533
G3 X-119.83986 Y-10.6492 I-1.97021 J2.26236
G2 X-117.86912 Y-9.88576 I1.93104 J-2.05943
G3 X-117.77617 Y-9.88562 I0.04219 J2.9997
G2 X-115.87017 Y-10.63069 I0.04559 J-2.69382
G3 X-115.76884 Y-10.7231 I2.07157 J2.16993
G2 X-115.07718 Y-12.2683 I-1.32364 J-1.51988
G3 Y-12.34368 I2.99976 J-0.03768
G2 X-115.76882 Y-13.88883 I-2.01519 J-0.02533
G3 X-115.87019 Y-13.98127 I1.97021 J-2.26236
G2 X-117.77615 Y-14.72633 I-1.86036 J1.94868
G3 X-117.86912 Y-14.72619 I-0.05078 J-2.99957
G2 X-118.77684 Y-14.58972 I-0.0397 J2.82287
G1 F300.0 X-118.03892 Y-12.30598
G1 Z-1.6
G2 F800.0 X-117.90287 Y-12.28552 I0.1301 J-0.40265
G3 X-117.73556 Y-12.28528 I0.07594 J5.39947
G2 X-117.62208 Y-12.30598 I0.00498 J-0.29416
G2 X-117.73553 Y-12.32667 I-0.10847 J0.27339
G3 X-117.90287 Y-12.32643 I-0.0914 J-5.39923
G2 X-118.03892 Y-12.30598 I-0.00595 J0.42311
G1 F300.0 X-118.77684 Y-14.58972
G2 F800.0 X-119.83986 Y-13.96275 I0.86802 J2.6864
G3 X-119.92164 Y-13.88885 I-2.05201 J-2.18844
G2 X-120.6133 Y-12.34365 I1.32364 J1.51988
G3 Y-12.26827 I-2.99976 J0.03768
G2 X-119.92166 Y-10.72312 I2.01519 J0.02533
G3 X-119.83986 Y-10.6492 I-1.97021 J2.26236
G2 X-117.86912 Y-9.88576 I1.93104 J-2.05943
G3 X-117.77617 Y-9.88562 I0.04219 J2.9997
G2 X-115.87017 Y-10.63069 I0.04559 J-2.69382
G3 X-115.76884 Y-10.7231 I2.07157 J2.16993
G2 X-115.07718 Y-12.2683 I-1.32364 J-1.51988
G3 Y-12.34368 I2.99976 J-0.03768
G2 X-115.76882 Y-13.88883 I-2.01519 J-0.02533
G3 X-115.87019 Y-13.98127 I1.97021 J-2.26236
G2 X-117.77615 Y-14.72633 I-1.86036 J1.94868
G3 X-117.86912 Y-14.72619 I-0.05078 J-2.99957
G2 X-118.77684 Y-14.58972 I-0.0397 J2.82287
G1 F300.0 X-118.03892 Y-12.30598
G1 Z-2.4
G2 F800.0 X-117.90287 Y-12.28552 I0.1301 J-0.40265
G3 X-117.73556 Y-12.28528 I0.07594 J5.39947
G2 X-117.62208 Y-12.30598 I0.00498 J-0.29416
G2 X-117.73553 Y-12.32667 I-0.10847 J0.27339
G3 X-117.90287 Y-12.32643 I-0.0914 J-5.39923
G2 X-118.03892 Y-12.30598 I-0.00595 J0.42311
G1 F300.0 X-118.77684 Y-14.58972
G2 F800.0 X-119.83986 Y-13.96275 I0.86802 J2.6864
G3 X-119.92164 Y-13.88885 I-2.05201 J-2.18844
G2 X-120.6133 Y-12.34365 I1.32364 J1.51988
G3 Y-12.26827 I-2.99976 J0.03768
G2 X-119.92166 Y-10.72312 I2.01519 J0.02533
G3 X-119.83986 Y-10.6492 I-1.97021 J2.26236
G2 X-117.86912 Y-9.88576 I1.93104 J-2.05943
G3 X-117.77617 Y-9.88562 I0.04219 J2.9997
G2 X-115.87017 Y-10.63069 I0.04559 J-2.69382
G3 X-115.76884 Y-10.7231 I2.07157 J2.16993
G2 X-115.07718 Y-12.2683 I-1.32364 J-1.51988
G3 Y-12.34368 I2.99976 J-0.03768
G2 X-115.76882 Y-13.88883 I-2.01519 J-0.02533
G3 X-115.87019 Y-13.98127 I1.97021 J-2.26236
G2 X-117.77615 Y-14.72633 I-1.86036 J1.94868
G3 X-117.86912 Y-14.72619 I-0.05078 J-2.99957
G2 X-118.77684 Y-14.58972 I-0.0397 J2.82287
G1 F300.0 X-118.03892 Y-12.30598
G1 Z-3.2
G2 F800.0 X-117.90287 Y-12.28552 I0.1301 J-0.40265
G3 X-117.73556 Y-12.28528 I0.07594 J5.39947
G2 X-117.62208 Y-12.30598 I0.00498 J-0.29416
G2 X-117.73553 Y-12.32667 I-0.10847 J0.27339
G3 X-117.90287 Y-12.32643 I-0.0914 J-5.39923
G2 X-118.03892 Y-12.30598 I-0.00595 J0.42311
G1 F300.0 X-118.77684 Y-14.58972
G2 F800.0 X-119.83986 Y-13.96275 I0.86802 J2.6864
G3 X-119.92164 Y-13.88885 I-2.05201 J-2.18844
G2 X-120.6133 Y-12.34365 I1.32364 J1.51988
G3 Y-12.26827 I-2.99976 J0.03768
G2 X-119.92166 Y-10.72312 I2.01519 J0.02533
G3 X-119.83986 Y-10.6492 I-1.97021 J2.26236
G2 X-117.86912 Y-9.88576 I1.93104 J-2.05943
G3 X-117.77617 Y-9.88562 I0.04219 J2.9997
G2 X-115.87017 Y-10.63069 I0.04559 J-2.69382
G3 X-115.76884 Y-10.7231 I2.07157 J2.16993
G2 X-115.07718 Y-12.2683 I-1.32364 J-1.51988
G3 Y-12.34368 I2.99976 J-0.03768
G2 X-115.76882 Y-13.88883 I-2.01519 J-0.02533
G3 X-115.87019 Y-13.98127 I1.97021 J-2.26236
G2 X-117.77615 Y-14.72633 I-1.86036 J1.94868
G3 X-117.86912 Y-14.72619 I-0.05078 J-2.99957
G2 X-118.77684 Y-14.58972 I-0.0397 J2.82287
G1 F300.0 X-118.03892 Y-12.30598
G1 Z-4.0
G2 F800.0 X-117.90287 Y-12.28552 I0.1301 J-0.40265
G3 X-117.73556 Y-12.28528 I0.07594 J5.39947
G2 X-117.62208 Y-12.30598 I0.00498 J-0.29416
G2 X-117.73553 Y-12.32667 I-0.10847 J0.27339
G3 X-117.90287 Y-12.32643 I-0.0914 J-5.39923
G2 X-118.03892 Y-12.30598 I-0.00595 J0.42311
G1 F300.0 X-118.77684 Y-14.58972
G2 F800.0 X-119.83986 Y-13.96275 I0.86802 J2.6864
G3 X-119.92164 Y-13.88885 I-2.05201 J-2.18844
G2 X-120.6133 Y-12.34365 I1.32364 J1.51988
G3 Y-12.26827 I-2.99976 J0.03768
G2 X-119.92166 Y-10.72312 I2.01519 J0.02533
G3 X-119.83986 Y-10.6492 I-1.97021 J2.26236
G2 X-117.86912 Y-9.88576 I1.93104 J-2.05943
G3 X-117.77617 Y-9.88562 I0.04219 J2.9997
G2 X-115.87017 Y-10.63069 I0.04559 J-2.69382
G3 X-115.76884 Y-10.7231 I2.07157 J2.16993
G2 X-115.07718 Y-12.2683 I-1.32364 J-1.51988
G3 Y-12.34368 I2.99976 J-0.03768
G2 X-115.76882 Y-13.88883 I-2.01519 J-0.02533
G3 X-115.87019 Y-13.98127 I1.97021 J-2.26236
G2 X-117.77615 Y-14.72633 I-1.86036 J1.94868
G3 X-117.86912 Y-14.72619 I-0.05078 J-2.99957
G2 X-118.77684 Y-14.58972 I-0.0397 J2.82287
G1 F300.0 X-118.03892 Y-12.30598
G1 Z-4.8
G2 F800.0 X-117.90287 Y-12.28552 I0.1301 J-0.40265
G3 X-117.73556 Y-12.28528 I0.07594 J5.39947
G2 X-117.62208 Y-12.30598 I0.00498 J-0.29416
G2 X-117.73553 Y-12.32667 I-0.10847 J0.27339
G3 X-117.90287 Y-12.32643 I-0.0914 J-5.39923
G2 X-118.03892 Y-12.30598 I-0.00595 J0.42311
G1 F300.0 X-118.77684 Y-14.58972
G2 F800.0 X-119.83986 Y-13.96275 I0.86802 J2.6864
G3 X-119.92164 Y-13.88885 I-2.05201 J-2.18844
G2 X-120.6133 Y-12.34365 I1.32364 J1.51988
G3 Y-12.26827 I-2.99976 J0.03768
G2 X-119.92166 Y-10.72312 I2.01519 J0.02533
G3 X-119.83986 Y-10.6492 I-1.97021 J2.26236
G2 X-117.86912 Y-9.88576 I1.93104 J-2.05943
G3 X-117.77617 Y-9.88562 I0.04219 J2.9997
G2 X-115.87017 Y-10.63069 I0.04559 J-2.69382
G3 X-115.76884 Y-10.7231 I2.07157 J2.16993
G2 X-115.07718 Y-12.2683 I-1.32364 J-1.51988
G3 Y-12.34368 I2.99976 J-0.03768
G2 X-115.76882 Y-13.88883 I-2.01519 J-0.02533
G3 X-115.87019 Y-13.98127 I1.97021 J-2.26236
G2 X-117.77615 Y-14.72633 I-1.86036 J1.94868
G3 X-117.86912 Y-14.72619 I-0.05078 J-2.99957
G2 X-118.77684 Y-14.58972 I-0.0397 J2.82287
G1 F300.0 X-118.03892 Y-12.30598
G1 Z-5.6
G2 F800.0 X-117.90287 Y-12.28552 I0.1301 J-0.40265
G3 X-117.73556 Y-12.28528 I0.07594 J5.39947
G2 X-117.62208 Y-12.30598 I0.00498 J-0.29416
G2 X-117.73553 Y-12.32667 I-0.10847 J0.27339
G3 X-117.90287 Y-12.32643 I-0.0914 J-5.39923
G2 X-118.03892 Y-12.30598 I-0.00595 J0.42311
G1 F300.0 X-118.77684 Y-14.58972
G2 F800.0 X-119.83986 Y-13.96275 I0.86802 J2.6864
G3 X-119.92164 Y-13.88885 I-2.05201 J-2.18844
G2 X-120.6133 Y-12.34365 I1.32364 J1.51988
G3 Y-12.26827 I-2.99976 J0.03768
G2 X-119.92166 Y-10.72312 I2.01519 J0.02533
G3 X-119.83986 Y-10.6492 I-1.97021 J2.26236
G2 X-117.86912 Y-9.88576 I1.93104 J-2.05943
G3 X-117.77617 Y-9.88562 I0.04219 J2.9997
G2 X-115.87017 Y-10.63069 I0.04559 J-2.69382
G3 X-115.76884 Y-10.7231 I2.07157 J2.16993
G2 X-115.07718 Y-12.2683 I-1.32364 J-1.51988
G3 Y-12.34368 I2.99976 J-0.03768
G2 X-115.76882 Y-13.88883 I-2.01519 J-0.02533
G3 X-115.87019 Y-13.98127 I1.97021 J-2.26236
G2 X-117.77615 Y-14.72633 I-1.86036 J1.94868
G3 X-117.86912 Y-14.72619 I-0.05078 J-2.99957
G2 X-118.77684 Y-14.58972 I-0.0397 J2.82287
G1 F300.0 X-118.03892 Y-12.30598
G1 Z-6.4
G2 F800.0 X-117.90287 Y-12.28552 I0.1301 J-0.40265
G3 X-117.73556 Y-12.28528 I0.07594 J5.39947
G2 X-117.62208 Y-12.30598 I0.00498 J-0.29416
G2 X-117.73553 Y-12.32667 I-0.10847 J0.27339
G3 X-117.90287 Y-12.32643 I-0.0914 J-5.39923
G2 X-118.03892 Y-12.30598 I-0.00595 J0.42311
G1 F300.0 X-118.77684 Y-14.58972
G2 F800.0 X-119.83986 Y-13.96275 I0.86802 J2.6864
G3 X-119.92164 Y-13.88885 I-2.05201 J-2.18844
G2 X-120.6133 Y-12.34365 I1.32364 J1.51988
G3 Y-12.26827 I-2.99976 J0.03768
G2 X-119.92166 Y-10.72312 I2.01519 J0.02533
G3 X-119.83986 Y-10.6492 I-1.97021 J2.26236
G2 X-117.86912 Y-9.88576 I1.93104 J-2.05943
G3 X-117.77617 Y-9.88562 I0.04219 J2.9997
G2 X-115.87017 Y-10.63069 I0.04559 J-2.69382
G3 X-115.76884 Y-10.7231 I2.07157 J2.16993
G2 X-115.07718 Y-12.2683 I-1.32364 J-1.51988
G3 Y-12.34368 I2.99976 J-0.03768
G2 X-115.76882 Y-13.88883 I-2.01519 J-0.02533
G3 X-115.87019 Y-13.98127 I1.97021 J-2.26236
G2 X-117.77615 Y-14.72633 I-1.86036 J1.94868
G3 X-117.86912 Y-14.72619 I-0.05078 J-2.99957
G2 X-118.77684 Y-14.58972 I-0.0397 J2.82287
G1 F300.0 X-118.03892 Y-12.30598
G1 Z-7.2
G2 F800.0 X-117.90287 Y-12.28552 I0.1301 J-0.40265
G3 X-117.73556 Y-12.28528 I0.07594 J5.39947
G2 X-117.62208 Y-12.30598 I0.00498 J-0.29416
G2 X-117.73553 Y-12.32667 I-0.10847 J0.27339
G3 X-117.90287 Y-12.32643 I-0.0914 J-5.39923
G2 X-118.03892 Y-12.30598 I-0.00595 J0.42311
G1 F300.0 X-118.77684 Y-14.58972
G2 F800.0 X-119.83986 Y-13.96275 I0.86802 J2.6864
G3 X-119.92164 Y-13.88885 I-2.05201 J-2.18844
G2 X-120.6133 Y-12.34365 I1.32364 J1.51988
G3 Y-12.26827 I-2.99976 J0.03768
G2 X-119.92166 Y-10.72312 I2.01519 J0.02533
G3 X-119.83986 Y-10.6492 I-1.97021 J2.26236
G2 X-117.86912 Y-9.88576 I1.93104 J-2.05943
G3 X-117.77617 Y-9.88562 I0.04219 J2.9997
G2 X-115.87017 Y-10.63069 I0.04559 J-2.69382
G3 X-115.76884 Y-10.7231 I2.07157 J2.16993
G2 X-115.07718 Y-12.2683 I-1.32364 J-1.51988
G3 Y-12.34368 I2.99976 J-0.03768
G2 X-115.76882 Y-13.88883 I-2.01519 J-0.02533
G3 X-115.87019 Y-13.98127 I1.97021 J-2.26236
G2 X-117.77615 Y-14.72633 I-1.86036 J1.94868
G3 X-117.86912 Y-14.72619 I-0.05078 J-2.99957
G2 X-118.77684 Y-14.58972 I-0.0397 J2.82287
G1 F300.0 X-118.03892 Y-12.30598
G1 Z-8.0
G2 F800.0 X-117.90287 Y-12.28552 I0.1301 J-0.40265
G3 X-117.73556 Y-12.28528 I0.07594 J5.39947
G2 X-117.62208 Y-12.30598 I0.00498 J-0.29416
G2 X-117.73553 Y-12.32667 I-0.10847 J0.27339
G3 X-117.90287 Y-12.32643 I-0.0914 J-5.39923
G2 X-118.03892 Y-12.30598 I-0.00595 J0.42311
G1 F300.0 X-118.77684 Y-14.58972
G2 F800.0 X-119.83986 Y-13.96275 I0.86802 J2.6864
G3 X-119.92164 Y-13.88885 I-2.05201 J-2.18844
G2 X-120.6133 Y-12.34365 I1.32364 J1.51988
G3 Y-12.26827 I-2.99976 J0.03768
G2 X-119.92166 Y-10.72312 I2.01519 J0.02533
G3 X-119.83986 Y-10.6492 I-1.97021 J2.26236
G2 X-117.86912 Y-9.88576 I1.93104 J-2.05943
G3 X-117.77617 Y-9.88562 I0.04219 J2.9997
G2 X-115.87017 Y-10.63069 I0.04559 J-2.69382
G3 X-115.76884 Y-10.7231 I2.07157 J2.16993
G2 X-115.07718 Y-12.2683 I-1.32364 J-1.51988
G3 Y-12.34368 I2.99976 J-0.03768
G2 X-115.76882 Y-13.88883 I-2.01519 J-0.02533
G3 X-115.87019 Y-13.98127 I1.97021 J-2.26236
G2 X-117.77615 Y-14.72633 I-1.86036 J1.94868
G3 X-117.86912 Y-14.72619 I-0.05078 J-2.99957
G2 X-118.77684 Y-14.58972 I-0.0397 J2.82287
G1 F300.0 X-118.03892 Y-12.30598
G1 Z-8.8
G2 F800.0 X-117.90287 Y-12.28552 I0.1301 J-0.40265
G3 X-117.73556 Y-12.28528 I0.07594 J5.39947
G2 X-117.62208 Y-12.30598 I0.00498 J-0.29416
G2 X-117.73553 Y-12.32667 I-0.10847 J0.27339
G3 X-117.90287 Y-12.32643 I-0.0914 J-5.39923
G2 X-118.03892 Y-12.30598 I-0.00595 J0.42311
G1 F300.0 X-118.77684 Y-14.58972
G2 F800.0 X-119.83986 Y-13.96275 I0.86802 J2.6864
G3 X-119.92164 Y-13.88885 I-2.05201 J-2.18844
G2 X-120.6133 Y-12.34365 I1.32364 J1.51988
G3 Y-12.26827 I-2.99976 J0.03768
G2 X-119.92166 Y-10.72312 I2.01519 J0.02533
G3 X-119.83986 Y-10.6492 I-1.97021 J2.26236
G2 X-117.86912 Y-9.88576 I1.93104 J-2.05943
G3 X-117.77617 Y-9.88562 I0.04219 J2.9997
G2 X-115.87017 Y-10.63069 I0.04559 J-2.69382
G3 X-115.76884 Y-10.7231 I2.07157 J2.16993
G2 X-115.07718 Y-12.2683 I-1.32364 J-1.51988
G3 Y-12.34368 I2.99976 J-0.03768
G2 X-115.76882 Y-13.88883 I-2.01519 J-0.02533
G3 X-115.87019 Y-13.98127 I1.97021 J-2.26236
G2 X-117.77615 Y-14.72633 I-1.86036 J1.94868
G3 X-117.86912 Y-14.72619 I-0.05078 J-2.99957
G2 X-118.77684 Y-14.58972 I-0.0397 J2.82287
G1 F300.0 X-118.03892 Y-12.30598
G1 Z-9.6
G2 F800.0 X-117.90287 Y-12.28552 I0.1301 J-0.40265
G3 X-117.73556 Y-12.28528 I0.07594 J5.39947
G2 X-117.62208 Y-12.30598 I0.00498 J-0.29416
G2 X-117.73553 Y-12.32667 I-0.10847 J0.27339
G3 X-117.90287 Y-12.32643 I-0.0914 J-5.39923
G2 X-118.03892 Y-12.30598 I-0.00595 J0.42311
G1 F300.0 X-118.77684 Y-14.58972
G2 F800.0 X-119.83986 Y-13.96275 I0.86802 J2.6864
G3 X-119.92164 Y-13.88885 I-2.05201 J-2.18844
G2 X-120.6133 Y-12.34365 I1.32364 J1.51988
G3 Y-12.26827 I-2.99976 J0.03768
G2 X-119.92166 Y-10.72312 I2.01519 J0.02533
G3 X-119.83986 Y-10.6492 I-1.97021 J2.26236
G2 X-117.86912 Y-9.88576 I1.93104 J-2.05943
G3 X-117.77617 Y-9.88562 I0.04219 J2.9997
G2 X-115.87017 Y-10.63069 I0.04559 J-2.69382
G3 X-115.76884 Y-10.7231 I2.07157 J2.16993
G2 X-115.07718 Y-12.2683 I-1.32364 J-1.51988
G3 Y-12.34368 I2.99976 J-0.03768
G2 X-115.76882 Y-13.88883 I-2.01519 J-0.02533
G3 X-115.87019 Y-13.98127 I1.97021 J-2.26236
G2 X-117.77615 Y-14.72633 I-1.86036 J1.94868
G3 X-117.86912 Y-14.72619 I-0.05078 J-2.99957
G2 X-118.77684 Y-14.58972 I-0.0397 J2.82287
G1 F300.0 X-118.03892 Y-12.30598
G1 Z-10.0
G2 F800.0 X-117.90287 Y-12.28552 I0.1301 J-0.40265
G3 X-117.73556 Y-12.28528 I0.07594 J5.39947
G2 X-117.62208 Y-12.30598 I0.00498 J-0.29416
G2 X-117.73553 Y-12.32667 I-0.10847 J0.27339
G3 X-117.90287 Y-12.32643 I-0.0914 J-5.39923
G2 X-118.03892 Y-12.30598 I-0.00595 J0.42311
G1 F300.0 X-118.77684 Y-14.58972
G2 F800.0 X-119.83986 Y-13.96275 I0.86802 J2.6864
G3 X-119.92164 Y-13.88885 I-2.05201 J-2.18844
G2 X-120.6133 Y-12.34365 I1.32364 J1.51988
G3 Y-12.26827 I-2.99976 J0.03768
G2 X-119.92166 Y-10.72312 I2.01519 J0.02533
G3 X-119.83986 Y-10.6492 I-1.97021 J2.26236
G2 X-117.86912 Y-9.88576 I1.93104 J-2.05943
G3 X-117.77617 Y-9.88562 I0.04219 J2.9997
G2 X-115.87017 Y-10.63069 I0.04559 J-2.69382
G3 X-115.76884 Y-10.7231 I2.07157 J2.16993
G2 X-115.07718 Y-12.2683 I-1.32364 J-1.51988
G3 Y-12.34368 I2.99976 J-0.03768
G2 X-115.76882 Y-13.88883 I-2.01519 J-0.02533
G3 X-115.87019 Y-13.98127 I1.97021 J-2.26236
G2 X-117.77615 Y-14.72633 I-1.86036 J1.94868
G3 X-117.86912 Y-14.72619 I-0.05078 J-2.99957
G2 X-118.77684 Y-14.58972 I-0.0397 J2.82287
G0 Z4.0
G0 X-118.86408 Y-27.5628
G0 Z1.0
G1 F300.0 Z-0.8
G2 F800.0 X-118.32248 Y-27.78322 I-0.0053 J-0.78864
G3 X-118.30002 Y-27.80468 I2.91254 J3.02607
G2 X-118.17945 Y-28.09836 I-0.26646 J-0.28097
G3 X-118.18153 Y-28.19633 I4.19774 J-0.1378
G2 X-118.53444 Y-36.06631 I-111.50347 J1.0572
G1 Y-36.06641
G1 X-118.53443 Y-36.0662
G1 X-118.53444 Y-36.06631
G3 X-118.91395 Y-44.52954 I119.36328 J-9.59269
G3 X-118.91405 Y-44.59629 I4.19981 J-0.03961
G3 X-118.80282 Y-51.38137 I341.58111 J2.20624
G3 X-118.80172 Y-51.41725 I4.19854 J0.11055
G2 X-118.65762 Y-58.0096 I-253.13964 J-8.83086
G3 X-118.65599 Y-58.09534 I4.19984 J0.03712
G2 X-118.78325 Y-58.44523 I-0.5041 J-0.01475
G2 X-119.36733 Y-58.64556 I-0.55437 J0.6647
G3 X-119.65566 I-0.14417 J-4.19752
G2 X-120.23974 Y-58.44524 I-0.02971 J0.86507
G2 X-120.36701 Y-58.0953 I0.37692 J0.33519
G3 X-120.36536 Y-57.93653 I-4.1982 J0.12283
G3 X-120.51362 Y-51.14214 I-256.28252 J-2.19352
G2 X-120.62142 Y-44.57545 I337.43034 J8.82352
G2 X-120.26884 Y-36.739 I111.50314 J-1.09074
G1 X-120.26883 Y-36.7389
G1 X-120.26885 Y-36.73911
G1 X-120.26884 Y-36.739
G3 X-119.88932 Y-28.27576 I-119.36328 J9.59269
G3 X-119.8914 Y-28.0983 I-4.19981 J0.03961
G2 X-119.77087 Y-27.80471 I0.38689 J0.0127
G3 X-119.74841 Y-27.78326 I-2.89004 J3.04757
G2 X-119.17516 Y-27.56322 I0.54701 J-0.56835
G3 X-118.89563 I0.13973 J4.19767
G2 X-118.86408 Y-27.5628 I0.02625 J-0.78822
G1 F300.0 X-118.85601 Y-26.36283
G2 F800.0 X-117.49032 Y-26.91863 I-0.01337 J-1.98862
G3 X-117.47428 Y-26.93395 I2.08039 J2.16148
G2 X-116.9801 Y-28.13773 I-1.09219 J-1.1517
G3 X-116.98158 Y-28.20771 I2.99838 J-0.09843
G2 X-117.33829 Y-36.1624 I-112.70341 J1.06858
G1 X-117.3383 Y-36.16248
G1 X-117.33828 Y-36.16233
G1 X-117.33829 Y-36.1624
G3 X-117.714 Y-44.54086 I118.16714 J-9.49659
G3 X-117.71407 Y-44.58854 I2.99987 J-0.0283
G3 X-117.60323 Y-51.34979 I340.38113 J2.19848
G3 X-117.60245 Y-51.37541 I2.99896 J0.07897
G2 X-117.45767 Y-57.99899 I-254.33891 J-8.87269
G3 X-117.4565 Y-58.06024 I2.99988 J0.02651
G2 X-117.95308 Y-59.31334 I-1.70358 J-0.04985
G2 X-119.40852 Y-59.84485 I-1.38454 J1.53281
G3 X-119.61447 I-0.10298 J-2.99823
G2 X-121.06991 Y-59.31334 I-0.0709 J2.06437
G2 X-121.56649 Y-58.06021 I1.20709 J1.20329
G3 X-121.56532 Y-57.9468 I-2.99872 J0.08773
G3 X-121.71307 Y-51.17888 I-255.08256 J-2.18325
G2 X-121.82146 Y-44.57361 I338.62979 J8.86026
G2 X-121.46498 Y-36.6429 I112.70318 J-1.09258
G1 Y-36.64283
G1 X-121.46499 Y-36.64298
G1 X-121.46498 Y-36.6429
G3 X-121.08927 Y-28.26445 I-118.16714 J9.49659
G3 X-121.09075 Y-28.13769 I-2.99987 J0.0283
G2 X-120.5966 Y-26.93398 I1.58624 J0.05209
G3 X-120.58056 Y-26.91865 I-2.06431 J2.17683
G2 X-119.13524 Y-26.36388 I1.37915 J-1.43295
G3 X-118.93557 I0.09981 J2.99834
G2 X-118.85601 Y-26.36283 I0.06619 J-1.98756
G1 F300.0 X-118.86408 Y-27.5628
G1 Z-1.6
G2 F800.0 X-118.32248 Y-27.78322 I-0.0053 J-0.78864
G3 X-118.30002 Y-27.80468 I2.91254 J3.02607
G2 X-118.17945 Y-28.09836 I-0.26646 J-0.28097
G3 X-118.18153 Y-28.19633 I4.19774 J-0.1378
G2 X-118.53444 Y-36.06631 I-111.50347 J1.0572
G1 Y-36.06641
G1 X-118.53443 Y-36.0662
G1 X-118.53444 Y-36.06631
G3 X-118.91395 Y-44.52954 I119.36328 J-9.59269
G3 X-118.91405 Y-44.59629 I4.19981 J-0.03961
G3 X-118.80282 Y-51.38137 I341.58111 J2.20624
G3 X-118.80172 Y-51.41725 I4.19854 J0.11055
G2 X-118.65762 Y-58.0096 I-253.13964 J-8.83086
G3 X-118.65599 Y-58.09534 I4.19984 J0.03712
G2 X-118.78325 Y-58.44523 I-0.5041 J-0.01475
G2 X-119.36733 Y-58.64556 I-0.55437 J0.6647
G3 X-119.65566 I-0.14417 J-4.19752
G2 X-120.23974 Y-58.44524 I-0.02971 J0.86507
G2 X-120.36701 Y-58.0953 I0.37692 J0.33519
G3 X-120.36536 Y-57.93653 I-4.1982 J0.12283
G3 X-120.51362 Y-51.14214 I-256.28252 J-2.19352
G2 X-120.62142 Y-44.57545 I337.43034 J8.82352
G2 X-120.26884 Y-36.739 I111.50314 J-1.09074
G1 X-120.26883 Y-36.7389
G1 X-120.26885 Y-36.73911
G1 X-120.26884 Y-36.739
G3 X-119.88932 Y-28.27576 I-119.36328 J9.59269
G3 X-119.8914 Y-28.0983 I-4.19981 J0.03961
G2 X-119.77087 Y-27.80471 I0.38689 J0.0127
G3 X-119.74841 Y-27.78326 I-2.89004 J3.04757
G2 X-119.17516 Y-27.56322 I0.54701 J-0.56835
G3 X-118.89563 I0.13973 J4.19767
G2 X-118.86408 Y-27.5628 I0.02625 J-0.78822
G1 F300.0 X-118.85601 Y-26.36283
G2 F800.0 X-117.49032 Y-26.91863 I-0.01337 J-1.98862
G3 X-117.47428 Y-26.93395 I2.08039 J2.16148
G2 X-116.9801 Y-28.13773 I-1.09219 J-1.1517
G3 X-116.98158 Y-28.20771 I2.99838 J-0.09843
G2 X-117.33829 Y-36.1624 I-112.70341 J1.06858
G1 X-117.3383 Y-36.16248
G1 X-117.33828 Y-36.16233
G1 X-117.33829 Y-36.1624
G3 X-117.714 Y-44.54086 I118.16714 J-9.49659
G3 X-117.71407 Y-44.58854 I2.99987 J-0.0283
G3 X-117.60323 Y-51.34979 I340.38113 J2.19848
G3 X-117.60245 Y-51.37541 I2.99896 J0.07897
G2 X-117.45767 Y-57.99899 I-254.33891 J-8.87269
G3 X-117.4565 Y-58.06024 I2.99988 J0.02651
G2 X-117.95308 Y-59.31334 I-1.70358 J-0.04985
G2 X-119.40852 Y-59.84485 I-1.38454 J1.53281
G3 X-119.61447 I-0.10298 J-2.99823
G2 X-121.06991 Y-59.31334 I-0.0709 J2.06437
G2 X-121.56649 Y-58.06021 I1.20709 J1.20329
G3 X-121.56532 Y-57.9468 I-2.99872 J0.08773
G3 X-121.71307 Y-51.17888 I-255.08256 J-2.18325
G2 X-121.82146 Y-44.57361 I338.62979 J8.86026
G2 X-121.46498 Y-36.6429 I112.70318 J-1.09258
G1 Y-36.64283
G1 X-121.46499 Y-36.64298
G1 X-121.46498 Y-36.6429
G3 X-121.08927 Y-28.26445 I-118.16714 J9.49659
G3 X-121.09075 Y-28.13769 I-2.99987 J0.0283
G2 X-120.5966 Y-26.93398 I1.58624 J0.05209
G3 X-120.58056 Y-26.91865 I-2.06431 J2.17683
G2 X-119.13524 Y-26.36388 I1.37915 J-1.43295
G3 X-118.93557 I0.09981 J2.99834
G2 X-118.85601 Y-26.36283 I0.06619 J-1.98756
G1 F300.0 X-118.86408 Y-27.5628
G1 Z-2.4
G2 F800.0 X-118.32248 Y-27.78322 I-0.0053 J-0.78864
G3 X-118.30002 Y-27.80468 I2.91254 J3.02607
G2 X-118.17945 Y-28.09836 I-0.26646 J-0.28097
G3 X-118.18153 Y-28.19633 I4.19774 J-0.1378
G2 X-118.53444 Y-36.06631 I-111.50347 J1.0572
G1 Y-36.06641
G1 X-118.53443 Y-36.0662
G1 X-118.53444 Y-36.06631
G3 X-118.91395 Y-44.52954 I119.36328 J-9.59269
G3 X-118.91405 Y-44.59629 I4.19981 J-0.03961
G3 X-118.80282 Y-51.38137 I341.58111 J2.20624
G3 X-118.80172 Y-51.41725 I4.19854 J0.11055
G2 X-118.65762 Y-58.0096 I-253.13964 J-8.83086
G3 X-118.65599 Y-58.09534 I4.19984 J0.03712
G2 X-118.78325 Y-58.44523 I-0.5041 J-0.01475
G2 X-119.36733 Y-58.64556 I-0.55437 J0.6647
G3 X-119.65566 I-0.14417 J-4.19752
G2 X-120.23974 Y-58.44524 I-0.02971 J0.86507
G2 X-120.36701 Y-58.0953 I0.37692 J0.33519
G3 X-120.36536 Y-57.93653 I-4.1982 J0.12283
G3 X-120.51362 Y-51.14214 I-256.28252 J-2.19352
G2 X-120.62142 Y-44.57545 I337.43034 J8.82352
G2 X-120.26884 Y-36.739 I111.50314 J-1.09074
G1 X-120.26883 Y-36.7389
G1 X-120.26885 Y-36.73911
G1 X-120.26884 Y-36.739
G3 X-119.88932 Y-28.27576 I-119.36328 J9.59269
G3 X-119.8914 Y-28.0983 I-4.19981 J0.03961
G2 X-119.77087 Y-27.80471 I0.38689 J0.0127
G3 X-119.74841 Y-27.78326 I-2.89004 J3.04757
G2 X-119.17516 Y-27.56322 I0.54701 J-0.56835
G3 X-118.89563 I0.13973 J4.19767
G2 X-118.86408 Y-27.5628 I0.02625 J-0.78822
G1 F300.0 X-118.85601 Y-26.36283
G2 F800.0 X-117.49032 Y-26.91863 I-0.01337 J-1.98862
G3 X-117.47428 Y-26.93395 I2.08039 J2.16148
G2 X-116.9801 Y-28.13773 I-1.09219 J-1.1517
G3 X-116.98158 Y-28.20771 I2.99838 J-0.09843
G2 X-117.33829 Y-36.1624 I-112.70341 J1.06858
G1 X-117.3383 Y-36.16248
G1 X-117.33828 Y-36.16233
G1 X-117.33829 Y-36.1624
G3 X-117.714 Y-44.54086 I118.16714 J-9.49659
G3 X-117.71407 Y-44.58854 I2.99987 J-0.0283
G3 X-117.60323 Y-51.34979 I340.38113 J2.19848
G3 X-117.60245 Y-51.37541 I2.99896 J0.07897
G2 X-117.45767 Y-57.99899 I-254.33891 J-8.87269
G3 X-117.4565 Y-58.06024 I2.99988 J0.02651
G2 X-117.95308 Y-59.31334 I-1.70358 J-0.04985
G2 X-119.40852 Y-59.84485 I-1.38454 J1.53281
G3 X-119.61447 I-0.10298 J-2.99823
G2 X-121.06991 Y-59.31334 I-0.0709 J2.06437
G2 X-121.56649 Y-58.06021 I1.20709 J1.20329
G3 X-121.56532 Y-57.9468 I-2.99872 J0.08773
G3 X-121.71307 Y-51.17888 I-255.08256 J-2.18325
G2 X-121.82146 Y-44.57361 I338.62979 J8.86026
G2 X-121.46498 Y-36.6429 I112.70318 J-1.09258
G1 Y-36.64283
G1 X-121.46499 Y-36.64298
G1 X-121.46498 Y-36.6429
G3 X-121.08927 Y-28.26445 I-118.16714 J9.49659
G3 X-121.09075 Y-28.13769 I-2.99987 J0.0283
G2 X-120.5966 Y-26.93398 I1.58624 J0.05209
G3 X-120.58056 Y-26.91865 I-2.06431 J2.17683
G2 X-119.13524 Y-26.36388 I1.37915 J-1.43295
G3 X-118.93557 I0.09981 J2.99834
G2 X-118.85601 Y-26.36283 I0.06619 J-1.98756
G1 F300.0 X-118.86408 Y-27.5628
G1 Z-3.2
G2 F800.0 X-118.32248 Y-27.78322 I-0.0053 J-0.78864
G3 X-118.30002 Y-27.80468 I2.91254 J3.02607
G2 X-118.17945 Y-28.09836 I-0.26646 J-0.28097
G3 X-118.18153 Y-28.19633 I4.19774 J-0.1378
G2 X-118.53444 Y-36.06631 I-111.50347 J1.0572
G1 Y-36.06641
G1 X-118.53443 Y-36.0662
G1 X-118.53444 Y-36.06631
G3 X-118.91395 Y-44.52954 I119.36328 J-9.59269
G3 X-118.91405 Y-44.59629 I4.19981 J-0.03961
G3 X-118.80282 Y-51.38137 I341.58111 J2.20624
G3 X-118.80172 Y-51.41725 I4.19854 J0.11055
G2 X-118.65762 Y-58.0096 I-253.13964 J-8.83086
G3 X-118.65599 Y-58.09534 I4.19984 J0.03712
G2 X-118.78325 Y-58.44523 I-0.5041 J-0.01475
G2 X-119.36733 Y-58.64556 I-0.55437 J0.6647
G3 X-119.65566 I-0.14417 J-4.19752
G2 X-120.23974 Y-58.44524 I-0.02971 J0.86507
G2 X-120.36701 Y-58.0953 I0.37692 J0.33519
G3 X-120.36536 Y-57.93653 I-4.1982 J0.12283
G3 X-120.51362 Y-51.14214 I-256.28252 J-2.19352
G2 X-120.62142 Y-44.57545 I337.43034 J8.82352
G2 X-120.26884 Y-36.739 I111.50314 J-1.09074
G1 X-120.26883 Y-36.7389
G1 X-120.26885 Y-36.73911
G1 X-120.26884 Y-36.739
G3 X-119.88932 Y-28.27576 I-119.36328 J9.59269
G3 X-119.8914 Y-28.0983 I-4.19981 J0.03961
G2 X-119.77087 Y-27.80471 I0.38689 J0.0127
G3 X-119.74841 Y-27.78326 I-2.89004 J3.04757
G2 X-119.17516 Y-27.56322 I0.54701 J-0.56835
G3 X-118.89563 I0.13973 J4.19767
G2 X-118.86408 Y-27.5628 I0.02625 J-0.78822
G1 F300.0 X-118.85601 Y-26.36283
G2 F800.0 X-117.49032 Y-26.91863 I-0.01337 J-1.98862
G3 X-117.47428 Y-26.93395 I2.08039 J2.16148
G2 X-116.9801 Y-28.13773 I-1.09219 J-1.1517
G3 X-116.98158 Y-28.20771 I2.99838 J-0.09843
G2 X-117.33829 Y-36.1624 I-112.70341 J1.06858
G1 X-117.3383 Y-36.16248
G1 X-117.33828 Y-36.16233
G1 X-117.33829 Y-36.1624
G3 X-117.714 Y-44.54086 I118.16714 J-9.49659
G3 X-117.71407 Y-44.58854 I2.99987 J-0.0283
G3 X-117.60323 Y-51.34979 I340.38113 J2.19848
G3 X-117.60245 Y-51.37541 I2.99896 J0.07897
G2 X-117.45767 Y-57.99899 I-254.33891 J-8.87269
G3 X-117.4565 Y-58.06024 I2.99988 J0.02651
G2 X-117.95308 Y-59.31334 I-1.70358 J-0.04985
G2 X-119.40852 Y-59.84485 I-1.38454 J1.53281
G3 X-119.61447 I-0.10298 J-2.99823
G2 X-121.06991 Y-59.31334 I-0.0709 J2.06437
G2 X-121.56649 Y-58.06021 I1.20709 J1.20329
G3 X-121.56532 Y-57.9468 I-2.99872 J0.08773
G3 X-121.71307 Y-51.17888 I-255.08256 J-2.18325
G2 X-121.82146 Y-44.57361 I338.62979 J8.86026
G2 X-121.46498 Y-36.6429 I112.70318 J-1.09258
G1 Y-36.64283
G1 X-121.46499 Y-36.64298
G1 X-121.46498 Y-36.6429
G3 X-121.08927 Y-28.26445 I-118.16714 J9.49659
G3 X-121.09075 Y-28.13769 I-2.99987 J0.0283
G2 X-120.5966 Y-26.93398 I1.58624 J0.05209
G3 X-120.58056 Y-26.91865 I-2.06431 J2.17683
G2 X-119.13524 Y-26.36388 I1.37915 J-1.43295
G3 X-118.93557 I0.09981 J2.99834
G2 X-118.85601 Y-26.36283 I0.06619 J-1.98756
G1 F300.0 X-118.86408 Y-27.5628
G1 Z-4.0
G2 F800.0 X-118.32248 Y-27.78322 I-0.0053 J-0.78864
G3 X-118.30002 Y-27.80468 I2.91254 J3.02607
G2 X-118.17945 Y-28.09836 I-0.26646 J-0.28097
G3 X-118.18153 Y-28.19633 I4.19774 J-0.1378
G2 X-118.53444 Y-36.06631 I-111.50347 J1.0572
G1 Y-36.06641
G1 X-118.53443 Y-36.0662
G1 X-118.53444 Y-36.06631
G3 X-118.91395 Y-44.52954 I119.36328 J-9.59269
G3 X-118.91405 Y-44.59629 I4.19981 J-0.03961
G3 X-118.80282 Y-51.38137 I341.58111 J2.20624
G3 X-118.80172 Y-51.41725 I4.19854 J0.11055
G2 X-118.65762 Y-58.0096 I-253.13964 J-8.83086
G3 X-118.65599 Y-58.09534 I4.19984 J0.03712
G2 X-118.78325 Y-58.44523 I-0.5041 J-0.01475
G2 X-119.36733 Y-58.64556 I-0.55437 J0.6647
G3 X-119.65566 I-0.14417 J-4.19752
G2 X-120.23974 Y-58.44524 I-0.02971 J0.86507
G2 X-120.36701 Y-58.0953 I0.37692 J0.33519
G3 X-120.36536 Y-57.93653 I-4.1982 J0.12283
G3 X-120.51362 Y-51.14214 I-256.28252 J-2.19352
G2 X-120.62142 Y-44.57545 I337.43034 J8.82352
G2 X-120.26884 Y-36.739 I111.50314 J-1.09074
G1 X-120.26883 Y-36.7389
G1 X-120.26885 Y-36.73911
G1 X-120.26884 Y-36.739
G3 X-119.88932 Y-28.27576 I-119.36328 J9.59269
G3 X-119.8914 Y-28.0983 I-4.19981 J0.03961
G2 X-119.77087 Y-27.80471 I0.38689 J0.0127
G3 X-119.74841 Y-27.78326 I-2.89004 J3.04757
G2 X-119.17516 Y-27.56322 I0.54701 J-0.56835
G3 X-118.89563 I0.13973 J4.19767
G2 X-118.86408 Y-27.5628 I0.02625 J-0.78822
G1 F300.0 X-118.85601 Y-26.36283
G2 F800.0 X-117.49032 Y-26.91863 I-0.01337 J-1.98862
G3 X-117.47428 Y-26.93395 I2.08039 J2.16148
G2 X-116.9801 Y-28.13773 I-1.09219 J-1.1517
G3 X-116.98158 Y-28.20771 I2.99838 J-0.09843
G2 X-117.33829 Y-36.1624 I-112.70341 J1.06858
G1 X-117.3383 Y-36.16248
G1 X-117.33828 Y-36.16233
G1 X-117.33829 Y-36.1624
G3 X-117.714 Y-44.54086 I118.16714 J-9.49659
G3 X-117.71407 Y-44.58854 I2.99987 J-0.0283
G3 X-117.60323 Y-51.34979 I340.38113 J2.19848
G3 X-117.60245 Y-51.37541 I2.99896 J0.07897
G2 X-117.45767 Y-57.99899 I-254.33891 J-8.87269
G3 X-117.4565 Y-58.06024 I2.99988 J0.02651
G2 X-117.95308 Y-59.31334 I-1.70358 J-0.04985
G2 X-119.40852 Y-59.84485 I-1.38454 J1.53281
G3 X-119.61447 I-0.10298 J-2.99823
G2 X-121.06991 Y-59.31334 I-0.0709 J2.06437
G2 X-121.56649 Y-58.06021 I1.20709 J1.20329
G3 X-121.56532 Y-57.9468 I-2.99872 J0.08773
G3 X-121.71307 Y-51.17888 I-255.08256 J-2.18325
G2 X-121.82146 Y-44.57361 I338.62979 J8.86026
G2 X-121.46498 Y-36.6429 I112.70318 J-1.09258
G1 Y-36.64283
G1 X-121.46499 Y-36.64298
G1 X-121.46498 Y-36.6429
G3 X-121.08927 Y-28.26445 I-118.16714 J9.49659
G3 X-121.09075 Y-28.13769 I-2.99987 J0.0283
G2 X-120.5966 Y-26.93398 I1.58624 J0.05209
G3 X-120.58056 Y-26.91865 I-2.06431 J2.17683
G2 X-119.13524 Y-26.36388 I1.37915 J-1.43295
G3 X-118.93557 I0.09981 J2.99834
G2 X-118.85601 Y-26.36283 I0.06619 J-1.98756
G1 F300.0 X-118.86408 Y-27.5628
G1 Z-4.8
G2 F800.0 X-118.32248 Y-27.78322 I-0.0053 J-0.78864
G3 X-118.30002 Y-27.80468 I2.91254 J3.02607
G2 X-118.17945 Y-28.09836 I-0.26646 J-0.28097
G3 X-118.18153 Y-28.19633 I4.19774 J-0.1378
G2 X-118.53444 Y-36.06631 I-111.50347 J1.0572
G1 Y-36.06641
G1 X-118.53443 Y-36.0662
G1 X-118.53444 Y-36.06631
G3 X-118.91395 Y-44.52954 I119.36328 J-9.59269
G3 X-118.91405 Y-44.59629 I4.19981 J-0.03961
G3 X-118.80282 Y-51.38137 I341.58111 J2.20624
G3 X-118.80172 Y-51.41725 I4.19854 J0.11055
G2 X-118.65762 Y-58.0096 I-253.13964 J-8.83086
G3 X-118.65599 Y-58.09534 I4.19984 J0.03712
G2 X-118.78325 Y-58.44523 I-0.5041 J-0.01475
G2 X-119.36733 Y-58.64556 I-0.55437 J0.6647
G3 X-119.65566 I-0.14417 J-4.19752
G2 X-120.23974 Y-58.44524 I-0.02971 J0.86507
G2 X-120.36701 Y-58.0953 I0.37692 J0.33519
G3 X-120.36536 Y-57.93653 I-4.1982 J0.12283
G3 X-120.51362 Y-51.14214 I-256.28252 J-2.19352
G2 X-120.62142 Y-44.57545 I337.43034 J8.82352
G2 X-120.26884 Y-36.739 I111.50314 J-1.09074
G1 X-120.26883 Y-36.7389
G1 X-120.26885 Y-36.73911
G1 X-120.26884 Y-36.739
G3 X-119.88932 Y-28.27576 I-119.36328 J9.59269
G3 X-119.8914 Y-28.0983 I-4.19981 J0.03961
G2 X-119.77087 Y-27.80471 I0.38689 J0.0127
G3 X-119.74841 Y-27.78326 I-2.89004 J3.04757
G2 X-119.17516 Y-27.56322 I0.54701 J-0.56835
G3 X-118.89563 I0.13973 J4.19767
G2 X-118.86408 Y-27.5628 I0.02625 J-0.78822
G1 F300.0 X-118.85601 Y-26.36283
G2 F800.0 X-117.49032 Y-26.91863 I-0.01337 J-1.98862
G3 X-117.47428 Y-26.93395 I2.08039 J2.16148
G2 X-116.9801 Y-28.13773 I-1.09219 J-1.1517
G3 X-116.98158 Y-28.20771 I2.99838 J-0.09843
G2 X-117.33829 Y-36.1624 I-112.70341 J1.06858
G1 X-117.3383 Y-36.16248
G1 X-117.33828 Y-36.16233
G1 X-117.33829 Y-36.1624
G3 X-117.714 Y-44.54086 I118.16714 J-9.49659
G3 X-117.71407 Y-44.58854 I2.99987 J-0.0283
G3 X-117.60323 Y-51.34979 I340.38113 J2.19848
G3 X-117.60245 Y-51.37541 I2.99896 J0.07897
G2 X-117.45767 Y-57.99899 I-254.33891 J-8.87269
G3 X-117.4565 Y-58.06024 I2.99988 J0.02651
G2 X-117.95308 Y-59.31334 I-1.70358 J-0.04985
G2 X-119.40852 Y-59.84485 I-1.38454 J1.53281
G3 X-119.61447 I-0.10298 J-2.99823
G2 X-121.06991 Y-59.31334 I-0.0709 J2.06437
G2 X-121.56649 Y-58.06021 I1.20709 J1.20329
G3 X-121.56532 Y-57.9468 I-2.99872 J0.08773
G3 X-121.71307 Y-51.17888 I-255.08256 J-2.18325
G2 X-121.82146 Y-44.57361 I338.62979 J8.86026
G2 X-121.46498 Y-36.6429 I112.70318 J-1.09258
G1 Y-36.64283
G1 X-121.46499 Y-36.64298
G1 X-121.46498 Y-36.6429
G3 X-121.08927 Y-28.26445 I-118.16714 J9.49659
G3 X-121.09075 Y-28.13769 I-2.99987 J0.0283
G2 X-120.5966 Y-26.93398 I1.58624 J0.05209
G3 X-120.58056 Y-26.91865 I-2.06431 J2.17683
G2 X-119.13524 Y-26.36388 I1.37915 J-1.43295
G3 X-118.93557 I0.09981 J2.99834
G2 X-118.85601 Y-26.36283 I0.06619 J-1.98756
G1 F300.0 X-118.86408 Y-27.5628
G1 Z-5.6
G2 F800.0 X-118.32248 Y-27.78322 I-0.0053 J-0.78864
G3 X-118.30002 Y-27.80468 I2.91254 J3.02607
G2 X-118.17945 Y-28.09836 I-0.26646 J-0.28097
G3 X-118.18153 Y-28.19633 I4.19774 J-0.1378
G2 X-118.53444 Y-36.06631 I-111.50347 J1.0572
G1 Y-36.06641
G1 X-118.53443 Y-36.0662
G1 X-118.53444 Y-36.06631
G3 X-118.91395 Y-44.52954 I119.36328 J-9.59269
G3 X-118.91405 Y-44.59629 I4.19981 J-0.03961
G3 X-118.80282 Y-51.38137 I341.58111 J2.20624
G3 X-118.80172 Y-51.41725 I4.19854 J0.11055
G2 X-118.65762 Y-58.0096 I-253.13964 J-8.83086
G3 X-118.65599 Y-58.09534 I4.19984 J0.03712
G2 X-118.78325 Y-58.44523 I-0.5041 J-0.01475
G2 X-119.36733 Y-58.64556 I-0.55437 J0.6647
G3 X-119.65566 I-0.14417 J-4.19752
G2 X-120.23974 Y-58.44524 I-0.02971 J0.86507
G2 X-120.36701 Y-58.0953 I0.37692 J0.33519
G3 X-120.36536 Y-57.93653 I-4.1982 J0.12283
G3 X-120.51362 Y-51.14214 I-256.28252 J-2.19352
G2 X-120.62142 Y-44.57545 I337.43034 J8.82352
G2 X-120.26884 Y-36.739 I111.50314 J-1.09074
G1 X-120.26883 Y-36.7389
G1 X-120.26885 Y-36.73911
G1 X-120.26884 Y-36.739
G3 X-119.88932 Y-28.27576 I-119.36328 J9.59269
G3 X-119.8914 Y-28.0983 I-4.19981 J0.03961
G2 X-119.77087 Y-27.80471 I0.38689 J0.0127
G3 X-119.74841 Y-27.78326 I-2.89004 J3.04757
G2 X-119.17516 Y-27.56322 I0.54701 J-0.56835
G3 X-118.89563 I0.13973 J4.19767
G2 X-118.86408 Y-27.5628 I0.02625 J-0.78822
G1 F300.0 X-118.85601 Y-26.36283
G2 F800.0 X-117.49032 Y-26.91863 I-0.01337 J-1.98862
G3 X-117.47428 Y-26.93395 I2.08039 J2.16148
G2 X-116.9801 Y-28.13773 I-1.09219 J-1.1517
G3 X-116.98158 Y-28.20771 I2.99838 J-0.09843
G2 X-117.33829 Y-36.1624 I-112.70341 J1.06858
G1 X-117.3383 Y-36.16248
G1 X-117.33828 Y-36.16233
G1 X-117.33829 Y-36.1624
G3 X-117.714 Y-44.54086 I118.16714 J-9.49659
G3 X-117.71407 Y-44.58854 I2.99987 J-0.0283
G3 X-117.60323 Y-51.34979 I340.38113 J2.19848
G3 X-117.60245 Y-51.37541 I2.99896 J0.07897
G2 X-117.45767 Y-57.99899 I-254.33891 J-8.87269
G3 X-117.4565 Y-58.06024 I2.99988 J0.02651
G2 X-117.95308 Y-59.31334 I-1.70358 J-0.04985
G2 X-119.40852 Y-59.84485 I-1.38454 J1.53281
G3 X-119.61447 I-0.10298 J-2.99823
G2 X-121.06991 Y-59.31334 I-0.0709 J2.06437
G2 X-121.56649 Y-58.06021 I1.20709 J1.20329
G3 X-121.56532 Y-57.9468 I-2.99872 J0.08773
G3 X-121.71307 Y-51.17888 I-255.08256 J-2.18325
G2 X-121.82146 Y-44.57361 I338.62979 J8.86026
G2 X-121.46498 Y-36.6429 I112.70318 J-1.09258
G1 Y-36.64283
G1 X-121.46499 Y-36.64298
G1 X-121.46498 Y-36.6429
G3 X-121.08927 Y-28.26445 I-118.16714 J9.49659
G3 X-121.09075 Y-28.13769 I-2.99987 J0.0283
G2 X-120.5966 Y-26.93398 I1.58624 J0.05209
G3 X-120.58056 Y-26.91865 I-2.06431 J2.17683
G2 X-119.13524 Y-26.36388 I1.37915 J-1.43295
G3 X-118.93557 I0.09981 J2.99834
G2 X-118.85601 Y-26.36283 I0.06619 J-1.98756
G1 F300.0 X-118.86408 Y-27.5628
G1 Z-6.4
G2 F800.0 X-118.32248 Y-27.78322 I-0.0053 J-0.78864
G3 X-118.30002 Y-27.80468 I2.91254 J3.02607
G2 X-118.17945 Y-28.09836 I-0.26646 J-0.28097
G3 X-118.18153 Y-28.19633 I4.19774 J-0.1378
G2 X-118.53444 Y-36.06631 I-111.50347 J1.0572
G1 Y-36.06641
G1 X-118.53443 Y-36.0662
G1 X-118.53444 Y-36.06631
G3 X-118.91395 Y-44.52954 I119.36328 J-9.59269
G3 X-118.91405 Y-44.59629 I4.19981 J-0.03961
G3 X-118.80282 Y-51.38137 I341.58111 J2.20624
G3 X-118.80172 Y-51.41725 I4.19854 J0.11055
G2 X-118.65762 Y-58.0096 I-253.13964 J-8.83086
G3 X-118.65599 Y-58.09534 I4.19984 J0.03712
G2 X-118.78325 Y-58.44523 I-0.5041 J-0.01475
G2 X-119.36733 Y-58.64556 I-0.55437 J0.6647
G3 X-119.65566 I-0.14417 J-4.19752
G2 X-120.23974 Y-58.44524 I-0.02971 J0.86507
G2 X-120.36701 Y-58.0953 I0.37692 J0.33519
G3 X-120.36536 Y-57.93653 I-4.1982 J0.12283
G3 X-120.51362 Y-51.14214 I-256.28252 J-2.19352
G2 X-120.62142 Y-44.57545 I337.43034 J8.82352
G2 X-120.26884 Y-36.739 I111.50314 J-1.09074
G1 X-120.26883 Y-36.7389
G1 X-120.26885 Y-36.73911
G1 X-120.26884 Y-36.739
G3 X-119.88932 Y-28.27576 I-119.36328 J9.59269
G3 X-119.8914 Y-28.0983 I-4.19981 J0.03961
G2 X-119.77087 Y-27.80471 I0.38689 J0.0127
G3 X-119.74841 Y-27.78326 I-2.89004 J3.04757
G2 X-119.17516 Y-27.56322 I0.54701 J-0.56835
G3 X-118.89563 I0.13973 J4.19767
G2 X-118.86408 Y-27.5628 I0.02625 J-0.78822
G1 F300.0 X-118.85601 Y-26.36283
G2 F800.0 X-117.49032 Y-26.91863 I-0.01337 J-1.98862
G3 X-117.47428 Y-26.93395 I2.08039 J2.16148
G2 X-116.9801 Y-28.13773 I-1.09219 J-1.1517
G3 X-116.98158 Y-28.20771 I2.99838 J-0.09843
G2 X-117.33829 Y-36.1624 I-112.70341 J1.06858
G1 X-117.3383 Y-36.16248
G1 X-117.33828 Y-36.16233
G1 X-117.33829 Y-36.1624
G3 X-117.714 Y-44.54086 I118.16714 J-9.49659
G3 X-117.71407 Y-44.58854 I2.99987 J-0.0283
G3 X-117.60323 Y-51.34979 I340.38113 J2.19848
G3 X-117.60245 Y-51.37541 I2.99896 J0.07897
G2 X-117.45767 Y-57.99899 I-254.33891 J-8.87269
G3 X-117.4565 Y-58.06024 I2.99988 J0.02651
G2 X-117.95308 Y-59.31334 I-1.70358 J-0.04985
G2 X-119.40852 Y-59.84485 I-1.38454 J1.53281
G3 X-119.61447 I-0.10298 J-2.99823
G2 X-121.06991 Y-59.31334 I-0.0709 J2.06437
G2 X-121.56649 Y-58.06021 I1.20709 J1.20329
G3 X-121.56532 Y-57.9468 I-2.99872 J0.08773
G3 X-121.71307 Y-51.17888 I-255.08256 J-2.18325
G2 X-121.82146 Y-44.57361 I338.62979 J8.86026
G2 X-121.46498 Y-36.6429 I112.70318 J-1.09258
G1 Y-36.64283
G1 X-121.46499 Y-36.64298
G1 X-121.46498 Y-36.6429
G3 X-121.08927 Y-28.26445 I-118.16714 J9.49659
G3 X-121.09075 Y-28.13769 I-2.99987 J0.0283
G2 X-120.5966 Y-26.93398 I1.58624 J0.05209
G3 X-120.58056 Y-26.91865 I-2.06431 J2.17683
G2 X-119.13524 Y-26.36388 I1.37915 J-1.43295
G3 X-118.93557 I0.09981 J2.99834
G2 X-118.85601 Y-26.36283 I0.06619 J-1.98756
G1 F300.0 X-118.86408 Y-27.5628
G1 Z-7.2
G2 F800.0 X-118.32248 Y-27.78322 I-0.0053 J-0.78864
G3 X-118.30002 Y-27.80468 I2.91254 J3.02607
G2 X-118.17945 Y-28.09836 I-0.26646 J-0.28097
G3 X-118.18153 Y-28.19633 I4.19774 J-0.1378
G2 X-118.53444 Y-36.06631 I-111.50347 J1.0572
G1 Y-36.06641
G1 X-118.53443 Y-36.0662
G1 X-118.53444 Y-36.06631
G3 X-118.91395 Y-44.52954 I119.36328 J-9.59269
G3 X-118.91405 Y-44.59629 I4.19981 J-0.03961
G3 X-118.80282 Y-51.38137 I341.58111 J2.20624
G3 X-118.80172 Y-51.41725 I4.19854 J0.11055
G2 X-118.65762 Y-58.0096 I-253.13964 J-8.83086
G3 X-118.65599 Y-58.09534 I4.19984 J0.03712
G2 X-118.78325 Y-58.44523 I-0.5041 J-0.01475
G2 X-119.36733 Y-58.64556 I-0.55437 J0.6647
G3 X-119.65566 I-0.14417 J-4.19752
G2 X-120.23974 Y-58.44524 I-0.02971 J0.86507
G2 X-120.36701 Y-58.0953 I0.37692 J0.33519
G3 X-120.36536 Y-57.93653 I-4.1982 J0.12283
G3 X-120.51362 Y-51.14214 I-256.28252 J-2.19352
G2 X-120.62142 Y-44.57545 I337.43034 J8.82352
G2 X-120.26884 Y-36.739 I111.50314 J-1.09074
G1 X-120.26883 Y-36.7389
G1 X-120.26885 Y-36.73911
G1 X-120.26884 Y-36.739
G3 X-119.88932 Y-28.27576 I-119.36328 J9.59269
G3 X-119.8914 Y-28.0983 I-4.19981 J0.03961
G2 X-119.77087 Y-27.80471 I0.38689 J0.0127
G3 X-119.74841 Y-27.78326 I-2.89004 J3.04757
G2 X-119.17516 Y-27.56322 I0.54701 J-0.56835
G3 X-118.89563 I0.13973 J4.19767
G2 X-118.86408 Y-27.5628 I0.02625 J-0.78822
G1 F300.0 X-118.85601 Y-26.36283
G2 F800.0 X-117.49032 Y-26.91863 I-0.01337 J-1.98862
G3 X-117.47428 Y-26.93395 I2.08039 J2.16148
G2 X-116.9801 Y-28.13773 I-1.09219 J-1.1517
G3 X-116.98158 Y-28.20771 I2.99838 J-0.09843
G2 X-117.33829 Y-36.1624 I-112.70341 J1.06858
G1 X-117.3383 Y-36.16248
G1 X-117.33828 Y-36.16233
G1 X-117.33829 Y-36.1624
G3 X-117.714 Y-44.54086 I118.16714 J-9.49659
G3 X-117.71407 Y-44.58854 I2.99987 J-0.0283
G3 X-117.60323 Y-51.34979 I340.38113 J2.19848
G3 X-117.60245 Y-51.37541 I2.99896 J0.07897
G2 X-117.45767 Y-57.99899 I-254.33891 J-8.87269
G3 X-117.4565 Y-58.06024 I2.99988 J0.02651
G2 X-117.95308 Y-59.31334 I-1.70358 J-0.04985
G2 X-119.40852 Y-59.84485 I-1.38454 J1.53281
G3 X-119.61447 I-0.10298 J-2.99823
G2 X-121.06991 Y-59.31334 I-0.0709 J2.06437
G2 X-121.56649 Y-58.06021 I1.20709 J1.20329
G3 X-121.56532 Y-57.9468 I-2.99872 J0.08773
G3 X-121.71307 Y-51.17888 I-255.08256 J-2.18325
G2 X-121.82146 Y-44.57361 I338.62979 J8.86026
G2 X-121.46498 Y-36.6429 I112.70318 J-1.09258
G1 Y-36.64283
G1 X-121.46499 Y-36.64298
G1 X-121.46498 Y-36.6429
G3 X-121.08927 Y-28.26445 I-118.16714 J9.49659
G3 X-121.09075 Y-28.13769 I-2.99987 J0.0283
G2 X-120.5966 Y-26.93398 I1.58624 J0.05209
G3 X-120.58056 Y-26.91865 I-2.06431 J2.17683
G2 X-119.13524 Y-26.36388 I1.37915 J-1.43295
G3 X-118.93557 I0.09981 J2.99834
G2 X-118.85601 Y-26.36283 I0.06619 J-1.98756
G1 F300.0 X-118.86408 Y-27.5628
G1 Z-8.0
G2 F800.0 X-118.32248 Y-27.78322 I-0.0053 J-0.78864
G3 X-118.30002 Y-27.80468 I2.91254 J3.02607
G2 X-118.17945 Y-28.09836 I-0.26646 J-0.28097
G3 X-118.18153 Y-28.19633 I4.19774 J-0.1378
G2 X-118.53444 Y-36.06631 I-111.50347 J1.0572
G1 Y-36.06641
G1 X-118.53443 Y-36.0662
G1 X-118.53444 Y-36.06631
G3 X-118.91395 Y-44.52954 I119.36328 J-9.59269
G3 X-118.91405 Y-44.59629 I4.19981 J-0.03961
G3 X-118.80282 Y-51.38137 I341.58111 J2.20624
G3 X-118.80172 Y-51.41725 I4.19854 J0.11055
G2 X-118.65762 Y-58.0096 I-253.13964 J-8.83086
G3 X-118.65599 Y-58.09534 I4.19984 J0.03712
G2 X-118.78325 Y-58.44523 I-0.5041 J-0.01475
G2 X-119.36733 Y-58.64556 I-0.55437 J0.6647
G3 X-119.65566 I-0.14417 J-4.19752
G2 X-120.23974 Y-58.44524 I-0.02971 J0.86507
G2 X-120.36701 Y-58.0953 I0.37692 J0.33519
G3 X-120.36536 Y-57.93653 I-4.1982 J0.12283
G3 X-120.51362 Y-51.14214 I-256.28252 J-2.19352
G2 X-120.62142 Y-44.57545 I337.43034 J8.82352
G2 X-120.26884 Y-36.739 I111.50314 J-1.09074
G1 X-120.26883 Y-36.7389
G1 X-120.26885 Y-36.73911
G1 X-120.26884 Y-36.739
G3 X-119.88932 Y-28.27576 I-119.36328 J9.59269
G3 X-119.8914 Y-28.0983 I-4.19981 J0.03961
G2 X-119.77087 Y-27.80471 I0.38689 J0.0127
G3 X-119.74841 Y-27.78326 I-2.89004 J3.04757
G2 X-119.17516 Y-27.56322 I0.54701 J-0.56835
G3 X-118.89563 I0.13973 J4.19767
G2 X-118.86408 Y-27.5628 I0.02625 J-0.78822
G1 F300.0 X-118.85601 Y-26.36283
G2 F800.0 X-117.49032 Y-26.91863 I-0.01337 J-1.98862
G3 X-117.47428 Y-26.93395 I2.08039 J2.16148
G2 X-116.9801 Y-28.13773 I-1.09219 J-1.1517
G3 X-116.98158 Y-28.20771 I2.99838 J-0.09843
G2 X-117.33829 Y-36.1624 I-112.70341 J1.06858
G1 X-117.3383 Y-36.16248
G1 X-117.33828 Y-36.16233
G1 X-117.33829 Y-36.1624
G3 X-117.714 Y-44.54086 I118.16714 J-9.49659
G3 X-117.71407 Y-44.58854 I2.99987 J-0.0283
G3 X-117.60323 Y-51.34979 I340.38113 J2.19848
G3 X-117.60245 Y-51.37541 I2.99896 J0.07897
G2 X-117.45767 Y-57.99899 I-254.33891 J-8.87269
G3 X-117.4565 Y-58.06024 I2.99988 J0.02651
G2 X-117.95308 Y-59.31334 I-1.70358 J-0.04985
G2 X-119.40852 Y-59.84485 I-1.38454 J1.53281
G3 X-119.61447 I-0.10298 J-2.99823
G2 X-121.06991 Y-59.31334 I-0.0709 J2.06437
G2 X-121.56649 Y-58.06021 I1.20709 J1.20329
G3 X-121.56532 Y-57.9468 I-2.99872 J0.08773
G3 X-121.71307 Y-51.17888 I-255.08256 J-2.18325
G2 X-121.82146 Y-44.57361 I338.62979 J8.86026
G2 X-121.46498 Y-36.6429 I112.70318 J-1.09258
G1 Y-36.64283
G1 X-121.46499 Y-36.64298
G1 X-121.46498 Y-36.6429
G3 X-121.08927 Y-28.26445 I-118.16714 J9.49659
G3 X-121.09075 Y-28.13769 I-2.99987 J0.0283
G2 X-120.5966 Y-26.93398 I1.58624 J0.05209
G3 X-120.58056 Y-26.91865 I-2.06431 J2.17683
G2 X-119.13524 Y-26.36388 I1.37915 J-1.43295
G3 X-118.93557 I0.09981 J2.99834
G2 X-118.85601 Y-26.36283 I0.06619 J-1.98756
G1 F300.0 X-118.86408 Y-27.5628
G1 Z-8.8
G2 F800.0 X-118.32248 Y-27.78322 I-0.0053 J-0.78864
G3 X-118.30002 Y-27.80468 I2.91254 J3.02607
G2 X-118.17945 Y-28.09836 I-0.26646 J-0.28097
G3 X-118.18153 Y-28.19633 I4.19774 J-0.1378
G2 X-118.53444 Y-36.06631 I-111.50347 J1.0572
G1 Y-36.06641
G1 X-118.53443 Y-36.0662
G1 X-118.53444 Y-36.06631
G3 X-118.91395 Y-44.52954 I119.36328 J-9.59269
G3 X-118.91405 Y-44.59629 I4.19981 J-0.03961
G3 X-118.80282 Y-51.38137 I341.58111 J2.20624
G3 X-118.80172 Y-51.41725 I4.19854 J0.11055
G2 X-118.65762 Y-58.0096 I-253.13964 J-8.83086
G3 X-118.65599 Y-58.09534 I4.19984 J0.03712
G2 X-118.78325 Y-58.44523 I-0.5041 J-0.01475
G2 X-119.36733 Y-58.64556 I-0.55437 J0.6647
G3 X-119.65566 I-0.14417 J-4.19752
G2 X-120.23974 Y-58.44524 I-0.02971 J0.86507
G2 X-120.36701 Y-58.0953 I0.37692 J0.33519
G3 X-120.36536 Y-57.93653 I-4.1982 J0.12283
G3 X-120.51362 Y-51.14214 I-256.28252 J-2.19352
G2 X-120.62142 Y-44.57545 I337.43034 J8.82352
G2 X-120.26884 Y-36.739 I111.50314 J-1.09074
G1 X-120.26883 Y-36.7389
G1 X-120.26885 Y-36.73911
G1 X-120.26884 Y-36.739
G3 X-119.88932 Y-28.27576 I-119.36328 J9.59269
G3 X-119.8914 Y-28.0983 I-4.19981 J0.03961
G2 X-119.77087 Y-27.80471 I0.38689 J0.0127
G3 X-119.74841 Y-27.78326 I-2.89004 J3.04757
G2 X-119.17516 Y-27.56322 I0.54701 J-0.56835
G3 X-118.89563 I0.13973 J4.19767
G2 X-118.86408 Y-27.5628 I0.02625 J-0.78822
G1 F300.0 X-118.85601 Y-26.36283
G2 F800.0 X-117.49032 Y-26.91863 I-0.01337 J-1.98862
G3 X-117.47428 Y-26.93395 I2.08039 J2.16148
G2 X-116.9801 Y-28.13773 I-1.09219 J-1.1517
G3 X-116.98158 Y-28.20771 I2.99838 J-0.09843
G2 X-117.33829 Y-36.1624 I-112.70341 J1.06858
G1 X-117.3383 Y-36.16248
G1 X-117.33828 Y-36.16233
G1 X-117.33829 Y-36.1624
G3 X-117.714 Y-44.54086 I118.16714 J-9.49659
G3 X-117.71407 Y-44.58854 I2.99987 J-0.0283
G3 X-117.60323 Y-51.34979 I340.38113 J2.19848
G3 X-117.60245 Y-51.37541 I2.99896 J0.07897
G2 X-117.45767 Y-57.99899 I-254.33891 J-8.87269
G3 X-117.4565 Y-58.06024 I2.99988 J0.02651
G2 X-117.95308 Y-59.31334 I-1.70358 J-0.04985
G2 X-119.40852 Y-59.84485 I-1.38454 J1.53281
G3 X-119.61447 I-0.10298 J-2.99823
G2 X-121.06991 Y-59.31334 I-0.0709 J2.06437
G2 X-121.56649 Y-58.06021 I1.20709 J1.20329
G3 X-121.56532 Y-57.9468 I-2.99872 J0.08773
G3 X-121.71307 Y-51.17888 I-255.08256 J-2.18325
G2 X-121.82146 Y-44.57361 I338.62979 J8.86026
G2 X-121.46498 Y-36.6429 I112.70318 J-1.09258
G1 Y-36.64283
G1 X-121.46499 Y-36.64298
G1 X-121.46498 Y-36.6429
G3 X-121.08927 Y-28.26445 I-118.16714 J9.49659
G3 X-121.09075 Y-28.13769 I-2.99987 J0.0283
G2 X-120.5966 Y-26.93398 I1.58624 J0.05209
G3 X-120.58056 Y-26.91865 I-2.06431 J2.17683
G2 X-119.13524 Y-26.36388 I1.37915 J-1.43295
G3 X-118.93557 I0.09981 J2.99834
G2 X-118.85601 Y-26.36283 I0.06619 J-1.98756
G1 F300.0 X-118.86408 Y-27.5628
G1 Z-9.6
G2 F800.0 X-118.32248 Y-27.78322 I-0.0053 J-0.78864
G3 X-118.30002 Y-27.80468 I2.91254 J3.02607
G2 X-118.17945 Y-28.09836 I-0.26646 J-0.28097
G3 X-118.18153 Y-28.19633 I4.19774 J-0.1378
G2 X-118.53444 Y-36.06631 I-111.50347 J1.0572
G1 Y-36.06641
G1 X-118.53443 Y-36.0662
G1 X-118.53444 Y-36.06631
G3 X-118.91395 Y-44.52954 I119.36328 J-9.59269
G3 X-118.91405 Y-44.59629 I4.19981 J-0.03961
G3 X-118.80282 Y-51.38137 I341.58111 J2.20624
G3 X-118.80172 Y-51.41725 I4.19854 J0.11055
G2 X-118.65762 Y-58.0096 I-253.13964 J-8.83086
G3 X-118.65599 Y-58.09534 I4.19984 J0.03712
G2 X-118.78325 Y-58.44523 I-0.5041 J-0.01475
G2 X-119.36733 Y-58.64556 I-0.55437 J0.6647
G3 X-119.65566 I-0.14417 J-4.19752
G2 X-120.23974 Y-58.44524 I-0.02971 J0.86507
G2 X-120.36701 Y-58.0953 I0.37692 J0.33519
G3 X-120.36536 Y-57.93653 I-4.1982 J0.12283
G3 X-120.51362 Y-51.14214 I-256.28252 J-2.19352
G2 X-120.62142 Y-44.57545 I337.43034 J8.82352
G2 X-120.26884 Y-36.739 I111.50314 J-1.09074
G1 X-120.26883 Y-36.7389
G1 X-120.26885 Y-36.73911
G1 X-120.26884 Y-36.739
G3 X-119.88932 Y-28.27576 I-119.36328 J9.59269
G3 X-119.8914 Y-28.0983 I-4.19981 J0.03961
G2 X-119.77087 Y-27.80471 I0.38689 J0.0127
G3 X-119.74841 Y-27.78326 I-2.89004 J3.04757
G2 X-119.17516 Y-27.56322 I0.54701 J-0.56835
G3 X-118.89563 I0.13973 J4.19767
G2 X-118.86408 Y-27.5628 I0.02625 J-0.78822
G1 F300.0 X-118.85601 Y-26.36283
G2 F800.0 X-117.49032 Y-26.91863 I-0.01337 J-1.98862
G3 X-117.47428 Y-26.93395 I2.08039 J2.16148
G2 X-116.9801 Y-28.13773 I-1.09219 J-1.1517
G3 X-116.98158 Y-28.20771 I2.99838 J-0.09843
G2 X-117.33829 Y-36.1624 I-112.70341 J1.06858
G1 X-117.3383 Y-36.16248
G1 X-117.33828 Y-36.16233
G1 X-117.33829 Y-36.1624
G3 X-117.714 Y-44.54086 I118.16714 J-9.49659
G3 X-117.71407 Y-44.58854 I2.99987 J-0.0283
G3 X-117.60323 Y-51.34979 I340.38113 J2.19848
G3 X-117.60245 Y-51.37541 I2.99896 J0.07897
G2 X-117.45767 Y-57.99899 I-254.33891 J-8.87269
G3 X-117.4565 Y-58.06024 I2.99988 J0.02651
G2 X-117.95308 Y-59.31334 I-1.70358 J-0.04985
G2 X-119.40852 Y-59.84485 I-1.38454 J1.53281
G3 X-119.61447 I-0.10298 J-2.99823
G2 X-121.06991 Y-59.31334 I-0.0709 J2.06437
G2 X-121.56649 Y-58.06021 I1.20709 J1.20329
G3 X-121.56532 Y-57.9468 I-2.99872 J0.08773
G3 X-121.71307 Y-51.17888 I-255.08256 J-2.18325
G2 X-121.82146 Y-44.57361 I338.62979 J8.86026
G2 X-121.46498 Y-36.6429 I112.70318 J-1.09258
G1 Y-36.64283
G1 X-121.46499 Y-36.64298
G1 X-121.46498 Y-36.6429
G3 X-121.08927 Y-28.26445 I-118.16714 J9.49659
G3 X-121.09075 Y-28.13769 I-2.99987 J0.0283
G2 X-120.5966 Y-26.93398 I1.58624 J0.05209
G3 X-120.58056 Y-26.91865 I-2.06431 J2.17683
G2 X-119.13524 Y-26.36388 I1.37915 J-1.43295
G3 X-118.93557 I0.09981 J2.99834
G2 X-118.85601 Y-26.36283 I0.06619 J-1.98756
G1 F300.0 X-118.86408 Y-27.5628
G1 Z-10.0
G2 F800.0 X-118.32248 Y-27.78322 I-0.0053 J-0.78864
G3 X-118.30002 Y-27.80468 I2.91254 J3.02607
G2 X-118.17945 Y-28.09836 I-0.26646 J-0.28097
G3 X-118.18153 Y-28.19633 I4.19774 J-0.1378
G2 X-118.53444 Y-36.06631 I-111.50347 J1.0572
G1 Y-36.06641
G1 X-118.53443 Y-36.0662
G1 X-118.53444 Y-36.06631
G3 X-118.91395 Y-44.52954 I119.36328 J-9.59269
G3 X-118.91405 Y-44.59629 I4.19981 J-0.03961
G3 X-118.80282 Y-51.38137 I341.58111 J2.20624
G3 X-118.80172 Y-51.41725 I4.19854 J0.11055
G2 X-118.65762 Y-58.0096 I-253.13964 J-8.83086
G3 X-118.65599 Y-58.09534 I4.19984 J0.03712
G2 X-118.78325 Y-58.44523 I-0.5041 J-0.01475
G2 X-119.36733 Y-58.64556 I-0.55437 J0.6647
G3 X-119.65566 I-0.14417 J-4.19752
G2 X-120.23974 Y-58.44524 I-0.02971 J0.86507
G2 X-120.36701 Y-58.0953 I0.37692 J0.33519
G3 X-120.36536 Y-57.93653 I-4.1982 J0.12283
G3 X-120.51362 Y-51.14214 I-256.28252 J-2.19352
G2 X-120.62142 Y-44.57545 I337.43034 J8.82352
G2 X-120.26884 Y-36.739 I111.50314 J-1.09074
G1 X-120.26883 Y-36.7389
G1 X-120.26885 Y-36.73911
G1 X-120.26884 Y-36.739
G3 X-119.88932 Y-28.27576 I-119.36328 J9.59269
G3 X-119.8914 Y-28.0983 I-4.19981 J0.03961
G2 X-119.77087 Y-27.80471 I0.38689 J0.0127
G3 X-119.74841 Y-27.78326 I-2.89004 J3.04757
G2 X-119.17516 Y-27.56322 I0.54701 J-0.56835
G3 X-118.89563 I0.13973 J4.19767
G2 X-118.86408 Y-27.5628 I0.02625 J-0.78822
G1 F300.0 X-118.85601 Y-26.36283
G2 F800.0 X-117.49032 Y-26.91863 I-0.01337 J-1.98862
G3 X-117.47428 Y-26.93395 I2.08039 J2.16148
G2 X-116.9801 Y-28.13773 I-1.09219 J-1.1517
G3 X-116.98158 Y-28.20771 I2.99838 J-0.09843
G2 X-117.33829 Y-36.1624 I-112.70341 J1.06858
G1 X-117.3383 Y-36.16248
G1 X-117.33828 Y-36.16233
G1 X-117.33829 Y-36.1624
G3 X-117.714 Y-44.54086 I118.16714 J-9.49659
G3 X-117.71407 Y-44.58854 I2.99987 J-0.0283
G3 X-117.60323 Y-51.34979 I340.38113 J2.19848
G3 X-117.60245 Y-51.37541 I2.99896 J0.07897
G2 X-117.45767 Y-57.99899 I-254.33891 J-8.87269
G3 X-117.4565 Y-58.06024 I2.99988 J0.02651
G2 X-117.95308 Y-59.31334 I-1.70358 J-0.04985
G2 X-119.40852 Y-59.84485 I-1.38454 J1.53281
G3 X-119.61447 I-0.10298 J-2.99823
G2 X-121.06991 Y-59.31334 I-0.0709 J2.06437
G2 X-121.56649 Y-58.06021 I1.20709 J1.20329
G3 X-121.56532 Y-57.9468 I-2.99872 J0.08773
G3 X-121.71307 Y-51.17888 I-255.08256 J-2.18325
G2 X-121.82146 Y-44.57361 I338.62979 J8.86026
G2 X-121.46498 Y-36.6429 I112.70318 J-1.09258
G1 Y-36.64283
G1 X-121.46499 Y-36.64298
G1 X-121.46498 Y-36.6429
G3 X-121.08927 Y-28.26445 I-118.16714 J9.49659
G3 X-121.09075 Y-28.13769 I-2.99987 J0.0283
G2 X-120.5966 Y-26.93398 I1.58624 J0.05209
G3 X-120.58056 Y-26.91865 I-2.06431 J2.17683
G2 X-119.13524 Y-26.36388 I1.37915 J-1.43295
G3 X-118.93557 I0.09981 J2.99834
G2 X-118.85601 Y-26.36283 I0.06619 J-1.98756
G0 Z4.0
G0 X-99.78416
G0 Z1.0
G1 F300.0 Z-0.8
G1 F800.0 Y-7.69172
G3 X-99.78578 Y-7.57495 I-4.2 J0.0
G2 X-99.72447 Y-7.4134 I0.22686 J0.00631
G2 X-98.95058 Y-7.16558 I0.73627 J-0.96698
G3 X-98.66983 Y-7.16489 I0.13 J4.19799
G2 X-98.13435 Y-7.35647 I0.02755 J-0.76711
G2 X-98.0731 Y-7.51705 I-0.15614 J-0.15153
G3 X-98.07673 Y-7.69172 I4.19637 J-0.17467
G1 Y-56.36115
G3 X-98.07662 Y-56.39188 I4.2 J0.0
G2 X-98.20438 Y-58.07843 I-10.20995 J-0.07471
G3 X-98.2261 Y-58.23255 I4.14733 J-0.66303
G2 X-98.54927 Y-59.09395 I-1.94115 J0.23695
G2 X-98.71183 Y-59.12485 I-0.14444 J0.31677
G3 X-99.07024 Y-59.12149 I-0.21861 J-4.19431
G2 X-99.62473 Y-58.91887 I-0.02625 J0.78822
G2 X-99.78681 Y-58.48802 I0.43514 J0.4096
G3 X-99.78416 Y-58.33869 I-4.19734 J0.14933
G1 Y-26.36283
G1 F300.0 X-100.98416
G1 F800.0 Y-7.69172
G3 X-100.98532 Y-7.60831 I-3.0 J0.0
G2 X-100.50808 Y-6.50314 I1.42639 J0.03967
G2 X-98.91344 Y-5.96616 I1.51988 J-1.87724
G3 X-98.7129 Y-5.96566 I0.09286 J2.99856
G2 X-97.31373 Y-6.48064 I0.07062 J-1.96634
G2 X-96.87414 Y-7.56696 I-0.97676 J-1.02736
G3 X-96.87673 Y-7.69172 I2.9974 J-0.12476
G1 Y-56.36115
G3 X-96.87665 Y-56.3831 I3.0 J0.0
G2 X-97.01942 Y-58.26786 I-11.40992 J-0.08349
G3 X-97.03494 Y-58.37795 I2.96238 J-0.4736
G2 X-97.70341 Y-59.96717 I-3.13231 J0.38235
G2 X-98.77429 Y-60.32323 I-0.9903 J1.18999
G3 X-99.0303 Y-60.32082 I-0.15615 J-2.99593
G2 X-100.46292 Y-59.77813 I-0.06619 J1.98756
G2 X-100.98605 Y-58.44536 I1.27333 J1.26886
G3 X-100.98416 Y-58.33869 I-2.9981 J0.10667
G1 Y-26.36283
G1 F300.0 X-99.78416
G1 Z-1.6
G1 F800.0 Y-7.69172
G3 X-99.78578 Y-7.57495 I-4.2 J0.0
G2 X-99.72447 Y-7.4134 I0.22686 J0.00631
G2 X-98.95058 Y-7.16558 I0.73627 J-0.96698
G3 X-98.66983 Y-7.16489 I0.13 J4.19799
G2 X-98.13435 Y-7.35647 I0.02755 J-0.76711
G2 X-98.0731 Y-7.51705 I-0.15614 J-0.15153
G3 X-98.07673 Y-7.69172 I4.19637 J-0.17467
G1 Y-56.36115
G3 X-98.07662 Y-56.39188 I4.2 J0.0
G2 X-98.20438 Y-58.07843 I-10.20995 J-0.07471
G3 X-98.2261 Y-58.23255 I4.14733 J-0.66303
G2 X-98.54927 Y-59.09395 I-1.94115 J0.23695
G2 X-98.71183 Y-59.12485 I-0.14444 J0.31677
G3 X-99.07024 Y-59.12149 I-0.21861 J-4.19431
G2 X-99.62473 Y-58.91887 I-0.02625 J0.78822
G2 X-99.78681 Y-58.48802 I0.43514 J0.4096
G3 X-99.78416 Y-58.33869 I-4.19734 J0.14933
G1 Y-26.36283
G1 F300.0 X-100.98416
G1 F800.0 Y-7.69172
G3 X-100.98532 Y-7.60831 I-3.0 J0.0
G2 X-100.50808 Y-6.50314 I1.42639 J0.03967
G2 X-98.91344 Y-5.96616 I1.51988 J-1.87724
G3 X-98.7129 Y-5.96566 I0.09286 J2.99856
G2 X-97.31373 Y-6.48064 I0.07062 J-1.96634
G2 X-96.87414 Y-7.56696 I-0.97676 J-1.02736
G3 X-96.87673 Y-7.69172 I2.9974 J-0.12476
G1 Y-56.36115
G3 X-96.87665 Y-56.3831 I3.0 J0.0
G2 X-97.01942 Y-58.26786 I-11.40992 J-0.08349
G3 X-97.03494 Y-58.37795 I2.96238 J-0.4736
G2 X-97.70341 Y-59.96717 I-3.13231 J0.38235
G2 X-98.77429 Y-60.32323 I-0.9903 J1.18999
G3 X-99.0303 Y-60.32082 I-0.15615 J-2.99593
G2 X-100.46292 Y-59.77813 I-0.06619 J1.98756
G2 X-100.98605 Y-58.44536 I1.27333 J1.26886
G3 X-100.98416 Y-58.33869 I-2.9981 J0.10667
G1 Y-26.36283
G1 F300.0 X-99.78416
G1 Z-2.4
G1 F800.0 Y-7.69172
G3 X-99.78578 Y-7.57495 I-4.2 J0.0
G2 X-99.72447 Y-7.4134 I0.22686 J0.00631
G2 X-98.95058 Y-7.16558 I0.73627 J-0.96698
G3 X-98.66983 Y-7.16489 I0.13 J4.19799
G2 X-98.13435 Y-7.35647 I0.02755 J-0.76711
G2 X-98.0731 Y-7.51705 I-0.15614 J-0.15153
G3 X-98.07673 Y-7.69172 I4.19637 J-0.17467
G1 Y-56.36115
G3 X-98.07662 Y-56.39188 I4.2 J0.0
G2 X-98.20438 Y-58.07843 I-10.20995 J-0.07471
G3 X-98.2261 Y-58.23255 I4.14733 J-0.66303
G2 X-98.54927 Y-59.09395 I-1.94115 J0.23695
G2 X-98.71183 Y-59.12485 I-0.14444 J0.31677
G3 X-99.07024 Y-59.12149 I-0.21861 J-4.19431
G2 X-99.62473 Y-58.91887 I-0.02625 J0.78822
G2 X-99.78681 Y-58.48802 I0.43514 J0.4096
G3 X-99.78416 Y-58.33869 I-4.19734 J0.14933
G1 Y-26.36283
G1 F300.0 X-100.98416
G1 F800.0 Y-7.69172
G3 X-100.98532 Y-7.60831 I-3.0 J0.0
G2 X-100.50808 Y-6.50314 I1.42639 J0.03967
G2 X-98.91344 Y-5.96616 I1.51988 J-1.87724
G3 X-98.7129 Y-5.96566 I0.09286 J2.99856
G2 X-97.31373 Y-6.48064 I0.07062 J-1.96634
G2 X-96.87414 Y-7.56696 I-0.97676 J-1.02736
G3 X-96.87673 Y-7.69172 I2.9974 J-0.12476
G1 Y-56.36115
G3 X-96.87665 Y-56.3831 I3.0 J0.0
G2 X-97.01942 Y-58.26786 I-11.40992 J-0.08349
G3 X-97.03494 Y-58.37795 I2.96238 J-0.4736
G2 X-97.70341 Y-59.96717 I-3.13231 J0.38235
G2 X-98.77429 Y-60.32323 I-0.9903 J1.18999
G3 X-99.0303 Y-60.32082 I-0.15615 J-2.99593
G2 X-100.46292 Y-59.77813 I-0.06619 J1.98756
G2 X-100.98605 Y-58.44536 I1.27333 J1.26886
G3 X-100.98416 Y-58.33869 I-2.9981 J0.10667
G1 Y-26.36283
G1 F300.0 X-99.78416
G1 Z-3.2
G1 F800.0 Y-7.69172
G3 X-99.78578 Y-7.57495 I-4.2 J0.0
G2 X-99.72447 Y-7.4134 I0.22686 J0.00631
G2 X-98.95058 Y-7.16558 I0.73627 J-0.96698
G3 X-98.66983 Y-7.16489 I0.13 J4.19799
G2 X-98.13435 Y-7.35647 I0.02755 J-0.76711
G2 X-98.0731 Y-7.51705 I-0.15614 J-0.15153
G3 X-98.07673 Y-7.69172 I4.19637 J-0.17467
G1 Y-56.36115
G3 X-98.07662 Y-56.39188 I4.2 J0.0
G2 X-98.20438 Y-58.07843 I-10.20995 J-0.07471
G3 X-98.2261 Y-58.23255 I4.14733 J-0.66303
G2 X-98.54927 Y-59.09395 I-1.94115 J0.23695
G2 X-98.71183 Y-59.12485 I-0.14444 J0.31677
G3 X-99.07024 Y-59.12149 I-0.21861 J-4.19431
G2 X-99.62473 Y-58.91887 I-0.02625 J0.78822
G2 X-99.78681 Y-58.48802 I0.43514 J0.4096
G3 X-99.78416 Y-58.33869 I-4.19734 J0.14933
G1 Y-26.36283
G1 F300.0 X-100.98416
G1 F800.0 Y-7.69172
G3 X-100.98532 Y-7.60831 I-3.0 J0.0
G2 X-100.50808 Y-6.50314 I1.42639 J0.03967
G2 X-98.91344 Y-5.96616 I1.51988 J-1.87724
G3 X-98.7129 Y-5.96566 I0.09286 J2.99856
G2 X-97.31373 Y-6.48064 I0.07062 J-1.96634
G2 X-96.87414 Y-7.56696 I-0.97676 J-1.02736
G3 X-96.87673 Y-7.69172 I2.9974 J-0.12476
G1 Y-56.36115
G3 X-96.87665 Y-56.3831 I3.0 J0.0
G2 X-97.01942 Y-58.26786 I-11.40992 J-0.08349
G3 X-97.03494 Y-58.37795 I2.96238 J-0.4736
G2 X-97.70341 Y-59.96717 I-3.13231 J0.38235
G2 X-98.77429 Y-60.32323 I-0.9903 J1.18999
G3 X-99.0303 Y-60.32082 I-0.15615 J-2.99593
G2 X-100.46292 Y-59.77813 I-0.06619 J1.98756
G2 X-100.98605 Y-58.44536 I1.27333 J1.26886
G3 X-100.98416 Y-58.33869 I-2.9981 J0.10667
G1 Y-26.36283
G1 F300.0 X-99.78416
G1 Z-4.0
G1 F800.0 Y-7.69172
G3 X-99.78578 Y-7.57495 I-4.2 J0.0
G2 X-99.72447 Y-7.4134 I0.22686 J0.00631
G2 X-98.95058 Y-7.16558 I0.73627 J-0.96698
G3 X-98.66983 Y-7.16489 I0.13 J4.19799
G2 X-98.13435 Y-7.35647 I0.02755 J-0.76711
G2 X-98.0731 Y-7.51705 I-0.15614 J-0.15153
G3 X-98.07673 Y-7.69172 I4.19637 J-0.17467
G1 Y-56.36115
G3 X-98.07662 Y-56.39188 I4.2 J0.0
G2 X-98.20438 Y-58.07843 I-10.20995 J-0.07471
G3 X-98.2261 Y-58.23255 I4.14733 J-0.66303
G2 X-98.54927 Y-59.09395 I-1.94115 J0.23695
G2 X-98.71183 Y-59.12485 I-0.14444 J0.31677
G3 X-99.07024 Y-59.12149 I-0.21861 J-4.19431
G2 X-99.62473 Y-58.91887 I-0.02625 J0.78822
G2 X-99.78681 Y-58.48802 I0.43514 J0.4096
G3 X-99.78416 Y-58.33869 I-4.19734 J0.14933
G1 Y-26.36283
G1 F300.0 X-100.98416
G1 F800.0 Y-7.69172
G3 X-100.98532 Y-7.60831 I-3.0 J0.0
G2 X-100.50808 Y-6.50314 I1.42639 J0.03967
G2 X-98.91344 Y-5.96616 I1.51988 J-1.87724
G3 X-98.7129 Y-5.96566 I0.09286 J2.99856
G2 X-97.31373 Y-6.48064 I0.07062 J-1.96634
G2 X-96.87414 Y-7.56696 I-0.97676 J-1.02736
G3 X-96.87673 Y-7.69172 I2.9974 J-0.12476
G1 Y-56.36115
G3 X-96.87665 Y-56.3831 I3.0 J0.0
G2 X-97.01942 Y-58.26786 I-11.40992 J-0.08349
G3 X-97.03494 Y-58.37795 I2.96238 J-0.4736
G2 X-97.70341 Y-59.96717 I-3.13231 J0.38235
G2 X-98.77429 Y-60.32323 I-0.9903 J1.18999
G3 X-99.0303 Y-60.32082 I-0.15615 J-2.99593
G2 X-100.46292 Y-59.77813 I-0.06619 J1.98756
G2 X-100.98605 Y-58.44536 I1.27333 J1.26886
G3 X-100.98416 Y-58.33869 I-2.9981 J0.10667
G1 Y-26.36283
G1 F300.0 X-99.78416
G1 Z-4.8
G1 F800.0 Y-7.69172
G3 X-99.78578 Y-7.57495 I-4.2 J0.0
G2 X-99.72447 Y-7.4134 I0.22686 J0.00631
G2 X-98.95058 Y-7.16558 I0.73627 J-0.96698
G3 X-98.66983 Y-7.16489 I0.13 J4.19799
G2 X-98.13435 Y-7.35647 I0.02755 J-0.76711
G2 X-98.0731 Y-7.51705 I-0.15614 J-0.15153
G3 X-98.07673 Y-7.69172 I4.19637 J-0.17467
G1 Y-56.36115
G3 X-98.07662 Y-56.39188 I4.2 J0.0
G2 X-98.20438 Y-58.07843 I-10.20995 J-0.07471
G3 X-98.2261 Y-58.23255 I4.14733 J-0.66303
G2 X-98.54927 Y-59.09395 I-1.94115 J0.23695
G2 X-98.71183 Y-59.12485 I-0.14444 J0.31677
G3 X-99.07024 Y-59.12149 I-0.21861 J-4.19431
G2 X-99.62473 Y-58.91887 I-0.02625 J0.78822
G2 X-99.78681 Y-58.48802 I0.43514 J0.4096
G3 X-99.78416 Y-58.33869 I-4.19734 J0.14933
G1 Y-26.36283
G1 F300.0 X-100.98416
G1 F800.0 Y-7.69172
G3 X-100.98532 Y-7.60831 I-3.0 J0.0
G2 X-100.50808 Y-6.50314 I1.42639 J0.03967
G2 X-98.91344 Y-5.96616 I1.51988 J-1.87724
G3 X-98.7129 Y-5.96566 I0.09286 J2.99856
G2 X-97.31373 Y-6.48064 I0.07062 J-1.96634
G2 X-96.87414 Y-7.56696 I-0.97676 J-1.02736
G3 X-96.87673 Y-7.69172 I2.9974 J-0.12476
G1 Y-56.36115
G3 X-96.87665 Y-56.3831 I3.0 J0.0
G2 X-97.01942 Y-58.26786 I-11.40992 J-0.08349
G3 X-97.03494 Y-58.37795 I2.96238 J-0.4736
G2 X-97.70341 Y-59.96717 I-3.13231 J0.38235
G2 X-98.77429 Y-60.32323 I-0.9903 J1.18999
G3 X-99.0303 Y-60.32082 I-0.15615 J-2.99593
G2 X-100.46292 Y-59.77813 I-0.06619 J1.98756
G2 X-100.98605 Y-58.44536 I1.27333 J1.26886
G3 X-100.98416 Y-58.33869 I-2.9981 J0.10667
G1 Y-26.36283
G1 F300.0 X-99.78416
G1 Z-5.6
G1 F800.0 Y-7.69172
G3 X-99.78578 Y-7.57495 I-4.2 J0.0
G2 X-99.72447 Y-7.4134 I0.22686 J0.00631
G2 X-98.95058 Y-7.16558 I0.73627 J-0.96698
G3 X-98.66983 Y-7.16489 I0.13 J4.19799
G2 X-98.13435 Y-7.35647 I0.02755 J-0.76711
G2 X-98.0731 Y-7.51705 I-0.15614 J-0.15153
G3 X-98.07673 Y-7.69172 I4.19637 J-0.17467
G1 Y-56.36115
G3 X-98.07662 Y-56.39188 I4.2 J0.0
G2 X-98.20438 Y-58.07843 I-10.20995 J-0.07471
G3 X-98.2261 Y-58.23255 I4.14733 J-0.66303
G2 X-98.54927 Y-59.09395 I-1.94115 J0.23695
G2 X-98.71183 Y-59.12485 I-0.14444 J0.31677
G3 X-99.07024 Y-59.12149 I-0.21861 J-4.19431
G2 X-99.62473 Y-58.91887 I-0.02625 J0.78822
G2 X-99.78681 Y-58.48802 I0.43514 J0.4096
G3 X-99.78416 Y-58.33869 I-4.19734 J0.14933
G1 Y-26.36283
G1 F300.0 X-100.98416
G1 F800.0 Y-7.69172
G3 X-100.98532 Y-7.60831 I-3.0 J0.0
G2 X-100.50808 Y-6.50314 I1.42639 J0.03967
G2 X-98.91344 Y-5.96616 I1.51988 J-1.87724
G3 X-98.7129 Y-5.96566 I0.09286 J2.99856
G2 X-97.31373 Y-6.48064 I0.07062 J-1.96634
G2 X-96.87414 Y-7.56696 I-0.97676 J-1.02736
G3 X-96.87673 Y-7.69172 I2.9974 J-0.12476
G1 Y-56.36115
G3 X-96.87665 Y-56.3831 I3.0 J0.0
G2 X-97.01942 Y-58.26786 I-11.40992 J-0.08349
G3 X-97.03494 Y-58.37795 I2.96238 J-0.4736
G2 X-97.70341 Y-59.96717 I-3.13231 J0.38235
G2 X-98.77429 Y-60.32323 I-0.9903 J1.18999
G3 X-99.0303 Y-60.32082 I-0.15615 J-2.99593
G2 X-100.46292 Y-59.77813 I-0.06619 J1.98756
G2 X-100.98605 Y-58.44536 I1.27333 J1.26886
G3 X-100.98416 Y-58.33869 I-2.9981 J0.10667
G1 Y-26.36283
G1 F300.0 X-99.78416
G1 Z-6.4
G1 F800.0 Y-7.69172
G3 X-99.78578 Y-7.57495 I-4.2 J0.0
G2 X-99.72447 Y-7.4134 I0.22686 J0.00631
G2 X-98.95058 Y-7.16558 I0.73627 J-0.96698
G3 X-98.66983 Y-7.16489 I0.13 J4.19799
G2 X-98.13435 Y-7.35647 I0.02755 J-0.76711
G2 X-98.0731 Y-7.51705 I-0.15614 J-0.15153
G3 X-98.07673 Y-7.69172 I4.19637 J-0.17467
G1 Y-56.36115
G3 X-98.07662 Y-56.39188 I4.2 J0.0
G2 X-98.20438 Y-58.07843 I-10.20995 J-0.07471
G3 X-98.2261 Y-58.23255 I4.14733 J-0.66303
G2 X-98.54927 Y-59.09395 I-1.94115 J0.23695
G2 X-98.71183 Y-59.12485 I-0.14444 J0.31677
G3 X-99.07024 Y-59.12149 I-0.21861 J-4.19431
G2 X-99.62473 Y-58.91887 I-0.02625 J0.78822
G2 X-99.78681 Y-58.48802 I0.43514 J0.4096
G3 X-99.78416 Y-58.33869 I-4.19734 J0.14933
G1 Y-26.36283
G1 F300.0 X-100.98416
G1 F800.0 Y-7.69172
G3 X-100.98532 Y-7.60831 I-3.0 J0.0
G2 X-100.50808 Y-6.50314 I1.42639 J0.03967
G2 X-98.91344 Y-5.96616 I1.51988 J-1.87724
G3 X-98.7129 Y-5.96566 I0.09286 J2.99856
G2 X-97.31373 Y-6.48064 I0.07062 J-1.96634
G2 X-96.87414 Y-7.56696 I-0.97676 J-1.02736
G3 X-96.87673 Y-7.69172 I2.9974 J-0.12476
G1 Y-56.36115
G3 X-96.87665 Y-56.3831 I3.0 J0.0
G2 X-97.01942 Y-58.26786 I-11.40992 J-0.08349
G3 X-97.03494 Y-58.37795 I2.96238 J-0.4736
G2 X-97.70341 Y-59.96717 I-3.13231 J0.38235
G2 X-98.77429 Y-60.32323 I-0.9903 J1.18999
G3 X-99.0303 Y-60.32082 I-0.15615 J-2.99593
G2 X-100.46292 Y-59.77813 I-0.06619 J1.98756
G2 X-100.98605 Y-58.44536 I1.27333 J1.26886
G3 X-100.98416 Y-58.33869 I-2.9981 J0.10667
G1 Y-26.36283
G1 F300.0 X-99.78416
G1 Z-7.2
G1 F800.0 Y-7.69172
G3 X-99.78578 Y-7.57495 I-4.2 J0.0
G2 X-99.72447 Y-7.4134 I0.22686 J0.00631
G2 X-98.95058 Y-7.16558 I0.73627 J-0.96698
G3 X-98.66983 Y-7.16489 I0.13 J4.19799
G2 X-98.13435 Y-7.35647 I0.02755 J-0.76711
G2 X-98.0731 Y-7.51705 I-0.15614 J-0.15153
G3 X-98.07673 Y-7.69172 I4.19637 J-0.17467
G1 Y-56.36115
G3 X-98.07662 Y-56.39188 I4.2 J0.0
G2 X-98.20438 Y-58.07843 I-10.20995 J-0.07471
G3 X-98.2261 Y-58.23255 I4.14733 J-0.66303
G2 X-98.54927 Y-59.09395 I-1.94115 J0.23695
G2 X-98.71183 Y-59.12485 I-0.14444 J0.31677
G3 X-99.07024 Y-59.12149 I-0.21861 J-4.19431
G2 X-99.62473 Y-58.91887 I-0.02625 J0.78822
G2 X-99.78681 Y-58.48802 I0.43514 J0.4096
G3 X-99.78416 Y-58.33869 I-4.19734 J0.14933
G1 Y-26.36283
G1 F300.0 X-100.98416
G1 F800.0 Y-7.69172
G3 X-100.98532 Y-7.60831 I-3.0 J0.0
G2 X-100.50808 Y-6.50314 I1.42639 J0.03967
G2 X-98.91344 Y-5.96616 I1.51988 J-1.87724
G3 X-98.7129 Y-5.96566 I0.09286 J2.99856
G2 X-97.31373 Y-6.48064 I0.07062 J-1.96634
G2 X-96.87414 Y-7.56696 I-0.97676 J-1.02736
G3 X-96.87673 Y-7.69172 I2.9974 J-0.12476
G1 Y-56.36115
G3 X-96.87665 Y-56.3831 I3.0 J0.0
G2 X-97.01942 Y-58.26786 I-11.40992 J-0.08349
G3 X-97.03494 Y-58.37795 I2.96238 J-0.4736
G2 X-97.70341 Y-59.96717 I-3.13231 J0.38235
G2 X-98.77429 Y-60.32323 I-0.9903 J1.18999
G3 X-99.0303 Y-60.32082 I-0.15615 J-2.99593
G2 X-100.46292 Y-59.77813 I-0.06619 J1.98756
G2 X-100.98605 Y-58.44536 I1.27333 J1.26886
G3 X-100.98416 Y-58.33869 I-2.9981 J0.10667
G1 Y-26.36283
G1 F300.0 X-99.78416
G1 Z-8.0
G1 F800.0 Y-7.69172
G3 X-99.78578 Y-7.57495 I-4.2 J0.0
G2 X-99.72447 Y-7.4134 I0.22686 J0.00631
G2 X-98.95058 Y-7.16558 I0.73627 J-0.96698
G3 X-98.66983 Y-7.16489 I0.13 J4.19799
G2 X-98.13435 Y-7.35647 I0.02755 J-0.76711
G2 X-98.0731 Y-7.51705 I-0.15614 J-0.15153
G3 X-98.07673 Y-7.69172 I4.19637 J-0.17467
G1 Y-56.36115
G3 X-98.07662 Y-56.39188 I4.2 J0.0
G2 X-98.20438 Y-58.07843 I-10.20995 J-0.07471
G3 X-98.2261 Y-58.23255 I4.14733 J-0.66303
G2 X-98.54927 Y-59.09395 I-1.94115 J0.23695
G2 X-98.71183 Y-59.12485 I-0.14444 J0.31677
G3 X-99.07024 Y-59.12149 I-0.21861 J-4.19431
G2 X-99.62473 Y-58.91887 I-0.02625 J0.78822
G2 X-99.78681 Y-58.48802 I0.43514 J0.4096
G3 X-99.78416 Y-58.33869 I-4.19734 J0.14933
G1 Y-26.36283
G1 F300.0 X-100.98416
G1 F800.0 Y-7.69172
G3 X-100.98532 Y-7.60831 I-3.0 J0.0
G2 X-100.50808 Y-6.50314 I1.42639 J0.03967
G2 X-98.91344 Y-5.96616 I1.51988 J-1.87724
G3 X-98.7129 Y-5.96566 I0.09286 J2.99856
G2 X-97.31373 Y-6.48064 I0.07062 J-1.96634
G2 X-96.87414 Y-7.56696 I-0.97676 J-1.02736
G3 X-96.87673 Y-7.69172 I2.9974 J-0.12476
G1 Y-56.36115
G3 X-96.87665 Y-56.3831 I3.0 J0.0
G2 X-97.01942 Y-58.26786 I-11.40992 J-0.08349
G3 X-97.03494 Y-58.37795 I2.96238 J-0.4736
G2 X-97.70341 Y-59.96717 I-3.13231 J0.38235
G2 X-98.77429 Y-60.32323 I-0.9903 J1.18999
G3 X-99.0303 Y-60.32082 I-0.15615 J-2.99593
G2 X-100.46292 Y-59.77813 I-0.06619 J1.98756
G2 X-100.98605 Y-58.44536 I1.27333 J1.26886
G3 X-100.98416 Y-58.33869 I-2.9981 J0.10667
G1 Y-26.36283
G1 F300.0 X-99.78416
G1 Z-8.8
G1 F800.0 Y-7.69172
G3 X-99.78578 Y-7.57495 I-4.2 J0.0
G2 X-99.72447 Y-7.4134 I0.22686 J0.00631
G2 X-98.95058 Y-7.16558 I0.73627 J-0.96698
G3 X-98.66983 Y-7.16489 I0.13 J4.19799
G2 X-98.13435 Y-7.35647 I0.02755 J-0.76711
G2 X-98.0731 Y-7.51705 I-0.15614 J-0.15153
G3 X-98.07673 Y-7.69172 I4.19637 J-0.17467
G1 Y-56.36115
G3 X-98.07662 Y-56.39188 I4.2 J0.0
G2 X-98.20438 Y-58.07843 I-10.20995 J-0.07471
G3 X-98.2261 Y-58.23255 I4.14733 J-0.66303
G2 X-98.54927 Y-59.09395 I-1.94115 J0.23695
G2 X-98.71183 Y-59.12485 I-0.14444 J0.31677
G3 X-99.07024 Y-59.12149 I-0.21861 J-4.19431
G2 X-99.62473 Y-58.91887 I-0.02625 J0.78822
G2 X-99.78681 Y-58.48802 I0.43514 J0.4096
G3 X-99.78416 Y-58.33869 I-4.19734 J0.14933
G1 Y-26.36283
G1 F300.0 X-100.98416
G1 F800.0 Y-7.69172
G3 X-100.98532 Y-7.60831 I-3.0 J0.0
G2 X-100.50808 Y-6.50314 I1.42639 J0.03967
G2 X-98.91344 Y-5.96616 I1.51988 J-1.87724
G3 X-98.7129 Y-5.96566 I0.09286 J2.99856
G2 X-97.31373 Y-6.48064 I0.07062 J-1.96634
G2 X-96.87414 Y-7.56696 I-0.97676 J-1.02736
G3 X-96.87673 Y-7.69172 I2.9974 J-0.12476
G1 Y-56.36115
G3 X-96.87665 Y-56.3831 I3.0 J0.0
G2 X-97.01942 Y-58.26786 I-11.40992 J-0.08349
G3 X-97.03494 Y-58.37795 I2.96238 J-0.4736
G2 X-97.70341 Y-59.96717 I-3.13231 J0.38235
G2 X-98.77429 Y-60.32323 I-0.9903 J1.18999
G3 X-99.0303 Y-60.32082 I-0.15615 J-2.99593
G2 X-100.46292 Y-59.77813 I-0.06619 J1.98756
G2 X-100.98605 Y-58.44536 I1.27333 J1.26886
G3 X-100.98416 Y-58.33869 I-2.9981 J0.10667
G1 Y-26.36283
G1 F300.0 X-99.78416
G1 Z-9.6
G1 F800.0 Y-7.69172
G3 X-99.78578 Y-7.57495 I-4.2 J0.0
G2 X-99.72447 Y-7.4134 I0.22686 J0.00631
G2 X-98.95058 Y-7.16558 I0.73627 J-0.96698
G3 X-98.66983 Y-7.16489 I0.13 J4.19799
G2 X-98.13435 Y-7.35647 I0.02755 J-0.76711
G2 X-98.0731 Y-7.51705 I-0.15614 J-0.15153
G3 X-98.07673 Y-7.69172 I4.19637 J-0.17467
G1 Y-56.36115
G3 X-98.07662 Y-56.39188 I4.2 J0.0
G2 X-98.20438 Y-58.07843 I-10.20995 J-0.07471
G3 X-98.2261 Y-58.23255 I4.14733 J-0.66303
G2 X-98.54927 Y-59.09395 I-1.94115 J0.23695
G2 X-98.71183 Y-59.12485 I-0.14444 J0.31677
G3 X-99.07024 Y-59.12149 I-0.21861 J-4.19431
G2 X-99.62473 Y-58.91887 I-0.02625 J0.78822
G2 X-99.78681 Y-58.48802 I0.43514 J0.4096
G3 X-99.78416 Y-58.33869 I-4.19734 J0.14933
G1 Y-26.36283
G1 F300.0 X-100.98416
G1 F800.0 Y-7.69172
G3 X-100.98532 Y-7.60831 I-3.0 J0.0
G2 X-100.50808 Y-6.50314 I1.42639 J0.03967
G2 X-98.91344 Y-5.96616 I1.51988 J-1.87724
G3 X-98.7129 Y-5.96566 I0.09286 J2.99856
G2 X-97.31373 Y-6.48064 I0.07062 J-1.96634
G2 X-96.87414 Y-7.56696 I-0.97676 J-1.02736
G3 X-96.87673 Y-7.69172 I2.9974 J-0.12476
G1 Y-56.36115
G3 X-96.87665 Y-56.3831 I3.0 J0.0
G2 X-97.01942 Y-58.26786 I-11.40992 J-0.08349
G3 X-97.03494 Y-58.37795 I2.96238 J-0.4736
G2 X-97.70341 Y-59.96717 I-3.13231 J0.38235
G2 X-98.77429 Y-60.32323 I-0.9903 J1.18999
G3 X-99.0303 Y-60.32082 I-0.15615 J-2.99593
G2 X-100.46292 Y-59.77813 I-0.06619 J1.98756
G2 X-100.98605 Y-58.44536 I1.27333 J1.26886
G3 X-100.98416 Y-58.33869 I-2.9981 J0.10667
G1 Y-26.36283
G1 F300.0 X-99.78416
G1 Z-10.0
G1 F800.0 Y-7.69172
G3 X-99.78578 Y-7.57495 I-4.2 J0.0
G2 X-99.72447 Y-7.4134 I0.22686 J0.00631
G2 X-98.95058 Y-7.16558 I0.73627 J-0.96698
G3 X-98.66983 Y-7.16489 I0.13 J4.19799
G2 X-98.13435 Y-7.35647 I0.02755 J-0.76711
G2 X-98.0731 Y-7.51705 I-0.15614 J-0.15153
G3 X-98.07673 Y-7.69172 I4.19637 J-0.17467
G1 Y-56.36115
G3 X-98.07662 Y-56.39188 I4.2 J0.0
G2 X-98.20438 Y-58.07843 I-10.20995 J-0.07471
G3 X-98.2261 Y-58.23255 I4.14733 J-0.66303
G2 X-98.54927 Y-59.09395 I-1.94115 J0.23695
G2 X-98.71183 Y-59.12485 I-0.14444 J0.31677
G3 X-99.07024 Y-59.12149 I-0.21861 J-4.19431
G2 X-99.62473 Y-58.91887 I-0.02625 J0.78822
G2 X-99.78681 Y-58.48802 I0.43514 J0.4096
G3 X-99.78416 Y-58.33869 I-4.19734 J0.14933
G1 Y-26.36283
G1 F300.0 X-100.98416
G1 F800.0 Y-7.69172
G3 X-100.98532 Y-7.60831 I-3.0 J0.0
G2 X-100.50808 Y-6.50314 I1.42639 J0.03967
G2 X-98.91344 Y-5.96616 I1.51988 J-1.87724
G3 X-98.7129 Y-5.96566 I0.09286 J2.99856
G2 X-97.31373 Y-6.48064 I0.07062 J-1.96634
G2 X-96.87414 Y-7.56696 I-0.97676 J-1.02736
G3 X-96.87673 Y-7.69172 I2.9974 J-0.12476
G1 Y-56.36115
G3 X-96.87665 Y-56.3831 I3.0 J0.0
G2 X-97.01942 Y-58.26786 I-11.40992 J-0.08349
G3 X-97.03494 Y-58.37795 I2.96238 J-0.4736
G2 X-97.70341 Y-59.96717 I-3.13231 J0.38235
G2 X-98.77429 Y-60.32323 I-0.9903 J1.18999
G3 X-99.0303 Y-60.32082 I-0.15615 J-2.99593
G2 X-100.46292 Y-59.77813 I-0.06619 J1.98756
G2 X-100.98605 Y-58.44536 I1.27333 J1.26886
G3 X-100.98416 Y-58.33869 I-2.9981 J0.10667
G1 Y-26.36283
G0 Z4.0
G0 X-79.23972
G0 Z1.0
G1 F300.0 Z-0.8
G1 F800.0 Y-7.69172
G3 X-79.24135 Y-7.57495 I-4.2 J0.0
G2 X-79.18004 Y-7.4134 I0.22686 J0.00631
G2 X-78.40615 Y-7.16558 I0.73627 J-0.96698
G3 X-78.12539 Y-7.16489 I0.13 J4.19799
G2 X-77.58992 Y-7.35647 I0.02755 J-0.76711
G2 X-77.52867 Y-7.51705 I-0.15614 J-0.15153
G3 X-77.5323 Y-7.69172 I4.19637 J-0.17467
G1 Y-56.36115
G3 X-77.53219 Y-56.39188 I4.2 J0.0
G2 X-77.65994 Y-58.07843 I-10.20995 J-0.07471
G3 X-77.68166 Y-58.23255 I4.14733 J-0.66303
G2 X-78.00484 Y-59.09395 I-1.94115 J0.23695
G2 X-78.1674 Y-59.12485 I-0.14444 J0.31677
G3 X-78.5258 Y-59.12149 I-0.21861 J-4.19431
G2 X-79.0803 Y-58.91887 I-0.02625 J0.78822
G2 X-79.24238 Y-58.48802 I0.43514 J0.4096
G3 X-79.23972 Y-58.33869 I-4.19734 J0.14933
G1 Y-26.36283
G1 F300.0 X-80.43972
G1 F800.0 Y-7.69172
G3 X-80.44088 Y-7.60831 I-3.0 J0.0
G2 X-79.96364 Y-6.50314 I1.42639 J0.03967
G2 X-78.369 Y-5.96616 I1.51988 J-1.87724
G3 X-78.16847 Y-5.96566 I0.09286 J2.99856
G2 X-76.7693 Y-6.48064 I0.07062 J-1.96634
G2 X-76.3297 Y-7.56696 I-0.97676 J-1.02736
G3 X-76.3323 Y-7.69172 I2.9974 J-0.12476
G1 Y-56.36115
G3 X-76.33222 Y-56.3831 I3.0 J0.0
G2 X-76.47499 Y-58.26786 I-11.40992 J-0.08349
G3 X-76.4905 Y-58.37795 I2.96238 J-0.4736
G2 X-77.15898 Y-59.96717 I-3.13231 J0.38235
G2 X-78.22986 Y-60.32323 I-0.9903 J1.18999
G3 X-78.48586 Y-60.32082 I-0.15615 J-2.99593
G2 X-79.91848 Y-59.77813 I-0.06619 J1.98756
G2 X-80.44162 Y-58.44536 I1.27333 J1.26886
G3 X-80.43972 Y-58.33869 I-2.9981 J0.10667
G1 Y-26.36283
G1 F300.0 X-79.23972
G1 Z-1.6
G1 F800.0 Y-7.69172
G3 X-79.24135 Y-7.57495 I-4.2 J0.0
G2 X-79.18004 Y-7.4134 I0.22686 J0.00631
G2 X-78.40615 Y-7.16558 I0.73627 J-0.96698
G3 X-78.12539 Y-7.16489 I0.13 J4.19799
G2 X-77.58992 Y-7.35647 I0.02755 J-0.76711
G2 X-77.52867 Y-7.51705 I-0.15614 J-0.15153
G3 X-77.5323 Y-7.69172 I4.19637 J-0.17467
G1 Y-56.36115
G3 X-77.53219 Y-56.39188 I4.2 J0.0
G2 X-77.65994 Y-58.07843 I-10.20995 J-0.07471
G3 X-77.68166 Y-58.23255 I4.14733 J-0.66303
G2 X-78.00484 Y-59.09395 I-1.94115 J0.23695
G2 X-78.1674 Y-59.12485 I-0.14444 J0.31677
G3 X-78.5258 Y-59.12149 I-0.21861 J-4.19431
G2 X-79.0803 Y-58.91887 I-0.02625 J0.78822
G2 X-79.24238 Y-58.48802 I0.43514 J0.4096
G3 X-79.23972 Y-58.33869 I-4.19734 J0.14933
G1 Y-26.36283
G1 F300.0 X-80.43972
G1 F800.0 Y-7.69172
G3 X-80.44088 Y-7.60831 I-3.0 J0.0
G2 X-79.96364 Y-6.50314 I1.42639 J0.03967
G2 X-78.369 Y-5.96616 I1.51988 J-1.87724
G3 X-78.16847 Y-5.96566 I0.09286 J2.99856
G2 X-76.7693 Y-6.48064 I0.07062 J-1.96634
G2 X-76.3297 Y-7.56696 I-0.97676 J-1.02736
G3 X-76.3323 Y-7.69172 I2.9974 J-0.12476
G1 Y-56.36115
G3 X-76.33222 Y-56.3831 I3.0 J0.0
G2 X-76.47499 Y-58.26786 I-11.40992 J-0.08349
G3 X-76.4905 Y-58.37795 I2.96238 J-0.4736
G2 X-77.15898 Y-59.96717 I-3.13231 J0.38235
G2 X-78.22986 Y-60.32323 I-0.9903 J1.18999
G3 X-78.48586 Y-60.32082 I-0.15615 J-2.99593
G2 X-79.91848 Y-59.77813 I-0.06619 J1.98756
G2 X-80.44162 Y-58.44536 I1.27333 J1.26886
G3 X-80.43972 Y-58.33869 I-2.9981 J0.10667
G1 Y-26.36283
G1 F300.0 X-79.23972
G1 Z-2.4
G1 F800.0 Y-7.69172
G3 X-79.24135 Y-7.57495 I-4.2 J0.0
G2 X-79.18004 Y-7.4134 I0.22686 J0.00631
G2 X-78.40615 Y-7.16558 I0.73627 J-0.96698
G3 X-78.12539 Y-7.16489 I0.13 J4.19799
G2 X-77.58992 Y-7.35647 I0.02755 J-0.76711
G2 X-77.52867 Y-7.51705 I-0.15614 J-0.15153
G3 X-77.5323 Y-7.69172 I4.19637 J-0.17467
G1 Y-56.36115
G3 X-77.53219 Y-56.39188 I4.2 J0.0
G2 X-77.65994 Y-58.07843 I-10.20995 J-0.07471
G3 X-77.68166 Y-58.23255 I4.14733 J-0.66303
G2 X-78.00484 Y-59.09395 I-1.94115 J0.23695
G2 X-78.1674 Y-59.12485 I-0.14444 J0.31677
G3 X-78.5258 Y-59.12149 I-0.21861 J-4.19431
G2 X-79.0803 Y-58.91887 I-0.02625 J0.78822
G2 X-79.24238 Y-58.48802 I0.43514 J0.4096
G3 X-79.23972 Y-58.33869 I-4.19734 J0.14933
G1 Y-26.36283
G1 F300.0 X-80.43972
G1 F800.0 Y-7.69172
G3 X-80.44088 Y-7.60831 I-3.0 J0.0
G2 X-79.96364 Y-6.50314 I1.42639 J0.03967
G2 X-78.369 Y-5.96616 I1.51988 J-1.87724
G3 X-78.16847 Y-5.96566 I0.09286 J2.99856
G2 X-76.7693 Y-6.48064 I0.07062 J-1.96634
G2 X-76.3297 Y-7.56696 I-0.97676 J-1.02736
G3 X-76.3323 Y-7.69172 I2.9974 J-0.12476
G1 Y-56.36115
G3 X-76.33222 Y-56.3831 I3.0 J0.0
G2 X-76.47499 Y-58.26786 I-11.40992 J-0.08349
G3 X-76.4905 Y-58.37795 I2.96238 J-0.4736
G2 X-77.15898 Y-59.96717 I-3.13231 J0.38235
G2 X-78.22986 Y-60.32323 I-0.9903 J1.18999
G3 X-78.48586 Y-60.32082 I-0.15615 J-2.99593
G2 X-79.91848 Y-59.77813 I-0.06619 J1.98756
G2 X-80.44162 Y-58.44536 I1.27333 J1.26886
G3 X-80.43972 Y-58.33869 I-2.9981 J0.10667
G1 Y-26.36283
G1 F300.0 X-79.23972
G1 Z-3.2
G1 F800.0 Y-7.69172
G3 X-79.24135 Y-7.57495 I-4.2 J0.0
G2 X-79.18004 Y-7.4134 I0.22686 J0.00631
G2 X-78.40615 Y-7.16558 I0.73627 J-0.96698
G3 X-78.12539 Y-7.16489 I0.13 J4.19799
G2 X-77.58992 Y-7.35647 I0.02755 J-0.76711
G2 X-77.52867 Y-7.51705 I-0.15614 J-0.15153
G3 X-77.5323 Y-7.69172 I4.19637 J-0.17467
G1 Y-56.36115
G3 X-77.53219 Y-56.39188 I4.2 J0.0
G2 X-77.65994 Y-58.07843 I-10.20995 J-0.07471
G3 X-77.68166 Y-58.23255 I4.14733 J-0.66303
G2 X-78.00484 Y-59.09395 I-1.94115 J0.23695
G2 X-78.1674 Y-59.12485 I-0.14444 J0.31677
G3 X-78.5258 Y-59.12149 I-0.21861 J-4.19431
G2 X-79.0803 Y-58.91887 I-0.02625 J0.78822
G2 X-79.24238 Y-58.48802 I0.43514 J0.4096
G3 X-79.23972 Y-58.33869 I-4.19734 J0.14933
G1 Y-26.36283
G1 F300.0 X-80.43972
G1 F800.0 Y-7.69172
G3 X-80.44088 Y-7.60831 I-3.0 J0.0
G2 X-79.96364 Y-6.50314 I1.42639 J0.03967
G2 X-78.369 Y-5.96616 I1.51988 J-1.87724
G3 X-78.16847 Y-5.96566 I0.09286 J2.99856
G2 X-76.7693 Y-6.48064 I0.07062 J-1.96634
G2 X-76.3297 Y-7.56696 I-0.97676 J-1.02736
G3 X-76.3323 Y-7.69172 I2.9974 J-0.12476
G1 Y-56.36115
G3 X-76.33222 Y-56.3831 I3.0 J0.0
G2 X-76.47499 Y-58.26786 I-11.40992 J-0.08349
G3 X-76.4905 Y-58.37795 I2.96238 J-0.4736
G2 X-77.15898 Y-59.96717 I-3.13231 J0.38235
G2 X-78.22986 Y-60.32323 I-0.9903 J1.18999
G3 X-78.48586 Y-60.32082 I-0.15615 J-2.99593
G2 X-79.91848 Y-59.77813 I-0.06619 J1.98756
G2 X-80.44162 Y-58.44536 I1.27333 J1.26886
G3 X-80.43972 Y-58.33869 I-2.9981 J0.10667
G1 Y-26.36283
G1 F300.0 X-79.23972
G1 Z-4.0
G1 F800.0 Y-7.69172
G3 X-79.24135 Y-7.57495 I-4.2 J0.0
G2 X-79.18004 Y-7.4134 I0.22686 J0.00631
G2 X-78.40615 Y-7.16558 I0.73627 J-0.96698
G3 X-78.12539 Y-7.16489 I0.13 J4.19799
G2 X-77.58992 Y-7.35647 I0.02755 J-0.76711
G2 X-77.52867 Y-7.51705 I-0.15614 J-0.15153
G3 X-77.5323 Y-7.69172 I4.19637 J-0.17467
G1 Y-56.36115
G3 X-77.53219 Y-56.39188 I4.2 J0.0
G2 X-77.65994 Y-58.07843 I-10.20995 J-0.07471
G3 X-77.68166 Y-58.23255 I4.14733 J-0.66303
G2 X-78.00484 Y-59.09395 I-1.94115 J0.23695
G2 X-78.1674 Y-59.12485 I-0.14444 J0.31677
G3 X-78.5258 Y-59.12149 I-0.21861 J-4.19431
G2 X-79.0803 Y-58.91887 I-0.02625 J0.78822
G2 X-79.24238 Y-58.48802 I0.43514 J0.4096
G3 X-79.23972 Y-58.33869 I-4.19734 J0.14933
G1 Y-26.36283
G1 F300.0 X-80.43972
G1 F800.0 Y-7.69172
G3 X-80.44088 Y-7.60831 I-3.0 J0.0
G2 X-79.96364 Y-6.50314 I1.42639 J0.03967
G2 X-78.369 Y-5.96616 I1.51988 J-1.87724
G3 X-78.16847 Y-5.96566 I0.09286 J2.99856
G2 X-76.7693 Y-6.48064 I0.07062 J-1.96634
G2 X-76.3297 Y-7.56696 I-0.97676 J-1.02736
G3 X-76.3323 Y-7.69172 I2.9974 J-0.12476
G1 Y-56.36115
G3 X-76.33222 Y-56.3831 I3.0 J0.0
G2 X-76.47499 Y-58.26786 I-11.40992 J-0.08349
G3 X-76.4905 Y-58.37795 I2.96238 J-0.4736
G2 X-77.15898 Y-59.96717 I-3.13231 J0.38235
G2 X-78.22986 Y-60.32323 I-0.9903 J1.18999
G3 X-78.48586 Y-60.32082 I-0.15615 J-2.99593
G2 X-79.91848 Y-59.77813 I-0.06619 J1.98756
G2 X-80.44162 Y-58.44536 I1.27333 J1.26886
G3 X-80.43972 Y-58.33869 I-2.9981 J0.10667
G1 Y-26.36283
G1 F300.0 X-79.23972
G1 Z-4.8
G1 F800.0 Y-7.69172
G3 X-79.24135 Y-7.57495 I-4.2 J0.0
G2 X-79.18004 Y-7.4134 I0.22686 J0.00631
G2 X-78.40615 Y-7.16558 I0.73627 J-0.96698
G3 X-78.12539 Y-7.16489 I0.13 J4.19799
G2 X-77.58992 Y-7.35647 I0.02755 J-0.76711
G2 X-77.52867 Y-7.51705 I-0.15614 J-0.15153
G3 X-77.5323 Y-7.69172 I4.19637 J-0.17467
G1 Y-56.36115
G3 X-77.53219 Y-56.39188 I4.2 J0.0
G2 X-77.65994 Y-58.07843 I-10.20995 J-0.07471
G3 X-77.68166 Y-58.23255 I4.14733 J-0.66303
G2 X-78.00484 Y-59.09395 I-1.94115 J0.23695
G2 X-78.1674 Y-59.12485 I-0.14444 J0.31677
G3 X-78.5258 Y-59.12149 I-0.21861 J-4.19431
G2 X-79.0803 Y-58.91887 I-0.02625 J0.78822
G2 X-79.24238 Y-58.48802 I0.43514 J0.4096
G3 X-79.23972 Y-58.33869 I-4.19734 J0.14933
G1 Y-26.36283
G1 F300.0 X-80.43972
G1 F800.0 Y-7.69172
G3 X-80.44088 Y-7.60831 I-3.0 J0.0
G2 X-79.96364 Y-6.50314 I1.42639 J0.03967
G2 X-78.369 Y-5.96616 I1.51988 J-1.87724
G3 X-78.16847 Y-5.96566 I0.09286 J2.99856
G2 X-76.7693 Y-6.48064 I0.07062 J-1.96634
G2 X-76.3297 Y-7.56696 I-0.97676 J-1.02736
G3 X-76.3323 Y-7.69172 I2.9974 J-0.12476
G1 Y-56.36115
G3 X-76.33222 Y-56.3831 I3.0 J0.0
G2 X-76.47499 Y-58.26786 I-11.40992 J-0.08349
G3 X-76.4905 Y-58.37795 I2.96238 J-0.4736
G2 X-77.15898 Y-59.96717 I-3.13231 J0.38235
G2 X-78.22986 Y-60.32323 I-0.9903 J1.18999
G3 X-78.48586 Y-60.32082 I-0.15615 J-2.99593
G2 X-79.91848 Y-59.77813 I-0.06619 J1.98756
G2 X-80.44162 Y-58.44536 I1.27333 J1.26886
G3 X-80.43972 Y-58.33869 I-2.9981 J0.10667
G1 Y-26.36283
G1 F300.0 X-79.23972
G1 Z-5.6
G1 F800.0 Y-7.69172
G3 X-79.24135 Y-7.57495 I-4.2 J0.0
G2 X-79.18004 Y-7.4134 I0.22686 J0.00631
G2 X-78.40615 Y-7.16558 I0.73627 J-0.96698
G3 X-78.12539 Y-7.16489 I0.13 J4.19799
G2 X-77.58992 Y-7.35647 I0.02755 J-0.76711
G2 X-77.52867 Y-7.51705 I-0.15614 J-0.15153
G3 X-77.5323 Y-7.69172 I4.19637 J-0.17467
G1 Y-56.36115
G3 X-77.53219 Y-56.39188 I4.2 J0.0
G2 X-77.65994 Y-58.07843 I-10.20995 J-0.07471
G3 X-77.68166 Y-58.23255 I4.14733 J-0.66303
G2 X-78.00484 Y-59.09395 I-1.94115 J0.23695
G2 X-78.1674 Y-59.12485 I-0.14444 J0.31677
G3 X-78.5258 Y-59.12149 I-0.21861 J-4.19431
G2 X-79.0803 Y-58.91887 I-0.02625 J0.78822
G2 X-79.24238 Y-58.48802 I0.43514 J0.4096
G3 X-79.23972 Y-58.33869 I-4.19734 J0.14933
G1 Y-26.36283
G1 F300.0 X-80.43972
G1 F800.0 Y-7.69172
G3 X-80.44088 Y-7.60831 I-3.0 J0.0
G2 X-79.96364 Y-6.50314 I1.42639 J0.03967
G2 X-78.369 Y-5.96616 I1.51988 J-1.87724
G3 X-78.16847 Y-5.96566 I0.09286 J2.99856
G2 X-76.7693 Y-6.48064 I0.07062 J-1.96634
G2 X-76.3297 Y-7.56696 I-0.97676 J-1.02736
G3 X-76.3323 Y-7.69172 I2.9974 J-0.12476
G1 Y-56.36115
G3 X-76.33222 Y-56.3831 I3.0 J0.0
G2 X-76.47499 Y-58.26786 I-11.40992 J-0.08349
G3 X-76.4905 Y-58.37795 I2.96238 J-0.4736
G2 X-77.15898 Y-59.96717 I-3.13231 J0.38235
G2 X-78.22986 Y-60.32323 I-0.9903 J1.18999
G3 X-78.48586 Y-60.32082 I-0.15615 J-2.99593
G2 X-79.91848 Y-59.77813 I-0.06619 J1.98756
G2 X-80.44162 Y-58.44536 I1.27333 J1.26886
G3 X-80.43972 Y-58.33869 I-2.9981 J0.10667
G1 Y-26.36283
G1 F300.0 X-79.23972
G1 Z-6.4
G1 F800.0 Y-7.69172
G3 X-79.24135 Y-7.57495 I-4.2 J0.0
G2 X-79.18004 Y-7.4134 I0.22686 J0.00631
G2 X-78.40615 Y-7.16558 I0.73627 J-0.96698
G3 X-78.12539 Y-7.16489 I0.13 J4.19799
G2 X-77.58992 Y-7.35647 I0.02755 J-0.76711
G2 X-77.52867 Y-7.51705 I-0.15614 J-0.15153
G3 X-77.5323 Y-7.69172 I4.19637 J-0.17467
G1 Y-56.36115
G3 X-77.53219 Y-56.39188 I4.2 J0.0
G2 X-77.65994 Y-58.07843 I-10.20995 J-0.07471
G3 X-77.68166 Y-58.23255 I4.14733 J-0.66303
G2 X-78.00484 Y-59.09395 I-1.94115 J0.23695
G2 X-78.1674 Y-59.12485 I-0.14444 J0.31677
G3 X-78.5258 Y-59.12149 I-0.21861 J-4.19431
G2 X-79.0803 Y-58.91887 I-0.02625 J0.78822
G2 X-79.24238 Y-58.48802 I0.43514 J0.4096
G3 X-79.23972 Y-58.33869 I-4.19734 J0.14933
G1 Y-26.36283
G1 F300.0 X-80.43972
G1 F800.0 Y-7.69172
G3 X-80.44088 Y-7.60831 I-3.0 J0.0
G2 X-79.96364 Y-6.50314 I1.42639 J0.03967
G2 X-78.369 Y-5.96616 I1.51988 J-1.87724
G3 X-78.16847 Y-5.96566 I0.09286 J2.99856
G2 X-76.7693 Y-6.48064 I0.07062 J-1.96634
G2 X-76.3297 Y-7.56696 I-0.97676 J-1.02736
G3 X-76.3323 Y-7.69172 I2.9974 J-0.12476
G1 Y-56.36115
G3 X-76.33222 Y-56.3831 I3.0 J0.0
G2 X-76.47499 Y-58.26786 I-11.40992 J-0.08349
G3 X-76.4905 Y-58.37795 I2.96238 J-0.4736
G2 X-77.15898 Y-59.96717 I-3.13231 J0.38235
G2 X-78.22986 Y-60.32323 I-0.9903 J1.18999
G3 X-78.48586 Y-60.32082 I-0.15615 J-2.99593
G2 X-79.91848 Y-59.77813 I-0.06619 J1.98756
G2 X-80.44162 Y-58.44536 I1.27333 J1.26886
G3 X-80.43972 Y-58.33869 I-2.9981 J0.10667
G1 Y-26.36283
G1 F300.0 X-79.23972
G1 Z-7.2
G1 F800.0 Y-7.69172
G3 X-79.24135 Y-7.57495 I-4.2 J0.0
G2 X-79.18004 Y-7.4134 I0.22686 J0.00631
G2 X-78.40615 Y-7.16558 I0.73627 J-0.96698
G3 X-78.12539 Y-7.16489 I0.13 J4.19799
G2 X-77.58992 Y-7.35647 I0.02755 J-0.76711
G2 X-77.52867 Y-7.51705 I-0.15614 J-0.15153
G3 X-77.5323 Y-7.69172 I4.19637 J-0.17467
G1 Y-56.36115
G3 X-77.53219 Y-56.39188 I4.2 J0.0
G2 X-77.65994 Y-58.07843 I-10.20995 J-0.07471
G3 X-77.68166 Y-58.23255 I4.14733 J-0.66303
G2 X-78.00484 Y-59.09395 I-1.94115 J0.23695
G2 X-78.1674 Y-59.12485 I-0.14444 J0.31677
G3 X-78.5258 Y-59.12149 I-0.21861 J-4.19431
G2 X-79.0803 Y-58.91887 I-0.02625 J0.78822
G2 X-79.24238 Y-58.48802 I0.43514 J0.4096
G3 X-79.23972 Y-58.33869 I-4.19734 J0.14933
G1 Y-26.36283
G1 F300.0 X-80.43972
G1 F800.0 Y-7.69172
G3 X-80.44088 Y-7.60831 I-3.0 J0.0
G2 X-79.96364 Y-6.50314 I1.42639 J0.03967
G2 X-78.369 Y-5.96616 I1.51988 J-1.87724
G3 X-78.16847 Y-5.96566 I0.09286 J2.99856
G2 X-76.7693 Y-6.48064 I0.07062 J-1.96634
G2 X-76.3297 Y-7.56696 I-0.97676 J-1.02736
G3 X-76.3323 Y-7.69172 I2.9974 J-0.12476
G1 Y-56.36115
G3 X-76.33222 Y-56.3831 I3.0 J0.0
G2 X-76.47499 Y-58.26786 I-11.40992 J-0.08349
G3 X-76.4905 Y-58.37795 I2.96238 J-0.4736
G2 X-77.15898 Y-59.96717 I-3.13231 J0.38235
G2 X-78.22986 Y-60.32323 I-0.9903 J1.18999
G3 X-78.48586 Y-60.32082 I-0.15615 J-2.99593
G2 X-79.91848 Y-59.77813 I-0.06619 J1.98756
G2 X-80.44162 Y-58.44536 I1.27333 J1.26886
G3 X-80.43972 Y-58.33869 I-2.9981 J0.10667
G1 Y-26.36283
G1 F300.0 X-79.23972
G1 Z-8.0
G1 F800.0 Y-7.69172
G3 X-79.24135 Y-7.57495 I-4.2 J0.0
G2 X-79.18004 Y-7.4134 I0.22686 J0.00631
G2 X-78.40615 Y-7.16558 I0.73627 J-0.96698
G3 X-78.12539 Y-7.16489 I0.13 J4.19799
G2 X-77.58992 Y-7.35647 I0.02755 J-0.76711
G2 X-77.52867 Y-7.51705 I-0.15614 J-0.15153
G3 X-77.5323 Y-7.69172 I4.19637 J-0.17467
G1 Y-56.36115
G3 X-77.53219 Y-56.39188 I4.2 J0.0
G2 X-77.65994 Y-58.07843 I-10.20995 J-0.07471
G3 X-77.68166 Y-58.23255 I4.14733 J-0.66303
G2 X-78.00484 Y-59.09395 I-1.94115 J0.23695
G2 X-78.1674 Y-59.12485 I-0.14444 J0.31677
G3 X-78.5258 Y-59.12149 I-0.21861 J-4.19431
G2 X-79.0803 Y-58.91887 I-0.02625 J0.78822
G2 X-79.24238 Y-58.48802 I0.43514 J0.4096
G3 X-79.23972 Y-58.33869 I-4.19734 J0.14933
G1 Y-26.36283
G1 F300.0 X-80.43972
G1 F800.0 Y-7.69172
G3 X-80.44088 Y-7.60831 I-3.0 J0.0
G2 X-79.96364 Y-6.50314 I1.42639 J0.03967
G2 X-78.369 Y-5.96616 I1.51988 J-1.87724
G3 X-78.16847 Y-5.96566 I0.09286 J2.99856
G2 X-76.7693 Y-6.48064 I0.07062 J-1.96634
G2 X-76.3297 Y-7.56696 I-0.97676 J-1.02736
G3 X-76.3323 Y-7.69172 I2.9974 J-0.12476
G1 Y-56.36115
G3 X-76.33222 Y-56.3831 I3.0 J0.0
G2 X-76.47499 Y-58.26786 I-11.40992 J-0.08349
G3 X-76.4905 Y-58.37795 I2.96238 J-0.4736
G2 X-77.15898 Y-59.96717 I-3.13231 J0.38235
G2 X-78.22986 Y-60.32323 I-0.9903 J1.18999
G3 X-78.48586 Y-60.32082 I-0.15615 J-2.99593
G2 X-79.91848 Y-59.77813 I-0.06619 J1.98756
G2 X-80.44162 Y-58.44536 I1.27333 J1.26886
G3 X-80.43972 Y-58.33869 I-2.9981 J0.10667
G1 Y-26.36283
G1 F300.0 X-79.23972
G1 Z-8.8
G1 F800.0 Y-7.69172
G3 X-79.24135 Y-7.57495 I-4.2 J0.0
G2 X-79.18004 Y-7.4134 I0.22686 J0.00631
G2 X-78.40615 Y-7.16558 I0.73627 J-0.96698
G3 X-78.12539 Y-7.16489 I0.13 J4.19799
G2 X-77.58992 Y-7.35647 I0.02755 J-0.76711
G2 X-77.52867 Y-7.51705 I-0.15614 J-0.15153
G3 X-77.5323 Y-7.69172 I4.19637 J-0.17467
G1 Y-56.36115
G3 X-77.53219 Y-56.39188 I4.2 J0.0
G2 X-77.65994 Y-58.07843 I-10.20995 J-0.07471
G3 X-77.68166 Y-58.23255 I4.14733 J-0.66303
G2 X-78.00484 Y-59.09395 I-1.94115 J0.23695
G2 X-78.1674 Y-59.12485 I-0.14444 J0.31677
G3 X-78.5258 Y-59.12149 I-0.21861 J-4.19431
G2 X-79.0803 Y-58.91887 I-0.02625 J0.78822
G2 X-79.24238 Y-58.48802 I0.43514 J0.4096
G3 X-79.23972 Y-58.33869 I-4.19734 J0.14933
G1 Y-26.36283
G1 F300.0 X-80.43972
G1 F800.0 Y-7.69172
G3 X-80.44088 Y-7.60831 I-3.0 J0.0
G2 X-79.96364 Y-6.50314 I1.42639 J0.03967
G2 X-78.369 Y-5.96616 I1.51988 J-1.87724
G3 X-78.16847 Y-5.96566 I0.09286 J2.99856
G2 X-76.7693 Y-6.48064 I0.07062 J-1.96634
G2 X-76.3297 Y-7.56696 I-0.97676 J-1.02736
G3 X-76.3323 Y-7.69172 I2.9974 J-0.12476
G1 Y-56.36115
G3 X-76.33222 Y-56.3831 I3.0 J0.0
G2 X-76.47499 Y-58.26786 I-11.40992 J-0.08349
G3 X-76.4905 Y-58.37795 I2.96238 J-0.4736
G2 X-77.15898 Y-59.96717 I-3.13231 J0.38235
G2 X-78.22986 Y-60.32323 I-0.9903 J1.18999
G3 X-78.48586 Y-60.32082 I-0.15615 J-2.99593
G2 X-79.91848 Y-59.77813 I-0.06619 J1.98756
G2 X-80.44162 Y-58.44536 I1.27333 J1.26886
G3 X-80.43972 Y-58.33869 I-2.9981 J0.10667
G1 Y-26.36283
G1 F300.0 X-79.23972
G1 Z-9.6
G1 F800.0 Y-7.69172
G3 X-79.24135 Y-7.57495 I-4.2 J0.0
G2 X-79.18004 Y-7.4134 I0.22686 J0.00631
G2 X-78.40615 Y-7.16558 I0.73627 J-0.96698
G3 X-78.12539 Y-7.16489 I0.13 J4.19799
G2 X-77.58992 Y-7.35647 I0.02755 J-0.76711
G2 X-77.52867 Y-7.51705 I-0.15614 J-0.15153
G3 X-77.5323 Y-7.69172 I4.19637 J-0.17467
G1 Y-56.36115
G3 X-77.53219 Y-56.39188 I4.2 J0.0
G2 X-77.65994 Y-58.07843 I-10.20995 J-0.07471
G3 X-77.68166 Y-58.23255 I4.14733 J-0.66303
G2 X-78.00484 Y-59.09395 I-1.94115 J0.23695
G2 X-78.1674 Y-59.12485 I-0.14444 J0.31677
G3 X-78.5258 Y-59.12149 I-0.21861 J-4.19431
G2 X-79.0803 Y-58.91887 I-0.02625 J0.78822
G2 X-79.24238 Y-58.48802 I0.43514 J0.4096
G3 X-79.23972 Y-58.33869 I-4.19734 J0.14933
G1 Y-26.36283
G1 F300.0 X-80.43972
G1 F800.0 Y-7.69172
G3 X-80.44088 Y-7.60831 I-3.0 J0.0
G2 X-79.96364 Y-6.50314 I1.42639 J0.03967
G2 X-78.369 Y-5.96616 I1.51988 J-1.87724
G3 X-78.16847 Y-5.96566 I0.09286 J2.99856
G2 X-76.7693 Y-6.48064 I0.07062 J-1.96634
G2 X-76.3297 Y-7.56696 I-0.97676 J-1.02736
G3 X-76.3323 Y-7.69172 I2.9974 J-0.12476
G1 Y-56.36115
G3 X-76.33222 Y-56.3831 I3.0 J0.0
G2 X-76.47499 Y-58.26786 I-11.40992 J-0.08349
G3 X-76.4905 Y-58.37795 I2.96238 J-0.4736
G2 X-77.15898 Y-59.96717 I-3.13231 J0.38235
G2 X-78.22986 Y-60.32323 I-0.9903 J1.18999
G3 X-78.48586 Y-60.32082 I-0.15615 J-2.99593
G2 X-79.91848 Y-59.77813 I-0.06619 J1.98756
G2 X-80.44162 Y-58.44536 I1.27333 J1.26886
G3 X-80.43972 Y-58.33869 I-2.9981 J0.10667
G1 Y-26.36283
G1 F300.0 X-79.23972
G1 Z-10.0
G1 F800.0 Y-7.69172
G3 X-79.24135 Y-7.57495 I-4.2 J0.0
G2 X-79.18004 Y-7.4134 I0.22686 J0.00631
G2 X-78.40615 Y-7.16558 I0.73627 J-0.96698
G3 X-78.12539 Y-7.16489 I0.13 J4.19799
G2 X-77.58992 Y-7.35647 I0.02755 J-0.76711
G2 X-77.52867 Y-7.51705 I-0.15614 J-0.15153
G3 X-77.5323 Y-7.69172 I4.19637 J-0.17467
G1 Y-56.36115
G3 X-77.53219 Y-56.39188 I4.2 J0.0
G2 X-77.65994 Y-58.07843 I-10.20995 J-0.07471
G3 X-77.68166 Y-58.23255 I4.14733 J-0.66303
G2 X-78.00484 Y-59.09395 I-1.94115 J0.23695
G2 X-78.1674 Y-59.12485 I-0.14444 J0.31677
G3 X-78.5258 Y-59.12149 I-0.21861 J-4.19431
G2 X-79.0803 Y-58.91887 I-0.02625 J0.78822
G2 X-79.24238 Y-58.48802 I0.43514 J0.4096
G3 X-79.23972 Y-58.33869 I-4.19734 J0.14933
G1 Y-26.36283
G1 F300.0 X-80.43972
G1 F800.0 Y-7.69172
G3 X-80.44088 Y-7.60831 I-3.0 J0.0
G2 X-79.96364 Y-6.50314 I1.42639 J0.03967
G2 X-78.369 Y-5.96616 I1.51988 J-1.87724
G3 X-78.16847 Y-5.96566 I0.09286 J2.99856
G2 X-76.7693 Y-6.48064 I0.07062 J-1.96634
G2 X-76.3297 Y-7.56696 I-0.97676 J-1.02736
G3 X-76.3323 Y-7.69172 I2.9974 J-0.12476
G1 Y-56.36115
G3 X-76.33222 Y-56.3831 I3.0 J0.0
G2 X-76.47499 Y-58.26786 I-11.40992 J-0.08349
G3 X-76.4905 Y-58.37795 I2.96238 J-0.4736
G2 X-77.15898 Y-59.96717 I-3.13231 J0.38235
G2 X-78.22986 Y-60.32323 I-0.9903 J1.18999
G3 X-78.48586 Y-60.32082 I-0.15615 J-2.99593
G2 X-79.91848 Y-59.77813 I-0.06619 J1.98756
G2 X-80.44162 Y-58.44536 I1.27333 J1.26886
G3 X-80.43972 Y-58.33869 I-2.9981 J0.10667
G1 Y-26.36283
G0 Z4.0
G0 X-56.96735 Y-41.61923
G0 Z1.0
G1 F300.0 Z-0.8
G3 F800.0 X-56.13902 Y-42.06249 I3.5203 J5.58278
G2 X-57.00252 Y-42.61205 I-31.5139 J48.56283
G3 X-56.96735 Y-41.61923 I-139.24538 J5.42977
G1 F300.0 X-56.32729 Y-40.60418
G3 F800.0 X-53.08271 Y-41.42414 I2.88025 J4.56773
G2 X-56.61315 Y-43.78273 I-34.57021 J47.92448
G3 X-58.34746 Y-45.50241 I2.83651 J-4.59502
G3 X-58.11871 Y-39.64847 I-137.90043 J8.32013
G3 X-58.11785 Y-39.56061 I-5.39914 J0.0964
G2 X-58.116 Y-38.74954 I571.72488 J-0.9041
G3 X-56.32729 Y-40.60418 I4.66895 J2.7131
G0 Z4.0
G0 X-49.38851 Y-39.70029
G0 Z1.0
G1 F300.0 Z-0.8
G3 F800.0 X-46.26459 Y-37.07343 I-77.19363 J94.97105
G3 X-46.30372 Y-40.37059 I5.12223 J-1.7096
G3 X-49.38851 Y-39.70029 I-2.63893 J-4.71127
G1 F300.0 X-49.19035 Y-42.0921
G3 F800.0 X-50.74336 Y-42.68238 I0.2477 J-2.98976
G2 X-55.35247 Y-45.82496 I-36.90957 J49.18272
G3 X-56.76856 Y-48.15774 I1.57584 J-2.55279
G3 X-57.14284 Y-58.11371 I138.70375 J-10.19945
G3 X-57.14156 Y-58.20672 I3.0 J-0.00525
G2 X-57.65531 Y-59.47681 I-1.70358 J-0.04985
G2 X-59.09675 Y-60.02785 I-1.37527 J1.43668
G3 X-59.25532 Y-60.02677 I-0.09981 J-2.99834
G2 X-60.37902 Y-59.84086 I-0.06111 J3.1197
G2 X-61.00031 Y-59.18561 I0.44893 J1.04782
G2 X-61.36114 Y-56.95159 I5.75396 J2.07552
G3 X-61.36053 Y-56.92264 I-2.99899 J0.07774
G2 X-60.9669 Y-48.47123 I139.71676 J-2.27257
G3 X-60.51833 Y-39.60562 I-135.281 J11.28895
G3 X-60.51785 Y-39.55681 I-2.99952 J0.05355
G2 X-60.37232 Y-27.50668 I574.12487 J-0.9079
G3 X-60.18826 Y-15.35174 I-464.93771 J13.11913
G3 X-60.18834 Y-15.32275 I-2.99999 J0.00622
G3 X-60.38115 Y-11.40293 I-47.23109 J-0.35854
G2 X-60.51791 Y-7.89223 I53.87224 J3.85659
G3 X-60.51946 Y-7.81298 I-2.99994 J-0.01921
G2 X-60.02531 Y-6.60927 I1.58624 J0.05209
G3 X-60.00927 Y-6.59395 I-2.06431 J2.17683
G2 X-58.56395 Y-6.03918 I1.37915 J-1.43295
G3 X-58.36429 I0.09981 J2.99834
G2 X-56.91903 Y-6.59392 I0.06619 J-1.98756
G3 X-56.90299 Y-6.60925 I2.08039 J2.16148
G2 X-56.40881 Y-7.81302 I-1.09219 J-1.1517
G3 X-56.41033 Y-7.93483 I2.99838 J-0.09843
G3 X-56.21564 Y-11.98454 I50.38513 J0.39283
G3 X-56.21559 Y-11.98511 I2.98832 J0.26451
G2 X-56.04425 Y-15.53511 I-43.99343 J-3.90236
G2 X-56.26155 Y-25.73592 I-286.60175 J1.00231
G3 X-56.44701 Y-36.05103 I225.66987 J-9.21674
G3 X-51.57156 Y-38.37793 I2.99996 J0.01459
G3 X-43.61902 Y-31.41133 I-75.01057 J93.64869
G3 X-36.16514 Y-24.16906 I-252.39057 J267.22184
G3 X-36.08986 Y-24.09104 I-2.12077 J2.12187
G2 X-34.60921 Y-23.43585 I1.50515 J-1.40083
G2 X-33.12357 Y-24.0547 I-0.0045 J-2.10347
G3 X-32.98845 Y-24.18218 I2.12525 J2.11738
G2 X-32.42511 Y-25.36571 I-1.11322 J-1.25571
G2 X-32.96993 Y-26.55106 I-1.86586 J0.13971
G3 X-33.07486 Y-26.66112 I2.1181 J-2.12454
G2 X-43.11661 Y-36.5242 I-89.73386 J81.31609
G3 X-43.51232 Y-40.6224 I1.97426 J-2.25883
G1 X-35.90489 Y-50.42428
G2 X-32.80103 Y-54.85654 I-56.17846 J-42.644
G2 X-31.53668 Y-57.05896 I-21.42532 J-13.7638
G2 X-31.10864 Y-58.04495 I-8.22124 J-4.15498
G3 X-31.08765 Y-58.10051 I2.81688 J1.03207
G2 X-30.99612 Y-58.4923 I-1.32946 J-0.51718
G2 X-31.4919 Y-59.48401 I-1.33559 J0.0479
G3 X-31.6439 Y-59.61545 I1.88518 J-2.33369
G2 X-33.26051 Y-60.24593 I-1.61005 J1.74051
G3 X-33.30905 Y-60.24619 I-0.00831 J-2.99999
G2 X-34.93427 Y-59.21688 I-0.0236 J1.76046
G3 X-35.05527 Y-58.98018 I-2.72908 J-1.24584
G3 X-40.70467 Y-50.7142 I-52.72041 J-29.96827
G2 X-46.57941 Y-43.23385 I1783.753 J1406.93195
G3 X-49.19035 Y-42.0921 I-2.36324 J-1.848
G1 F300.0 X-49.38851 Y-39.70029
G1 Z-1.6
G3 F800.0 X-46.26459 Y-37.07343 I-77.19363 J94.97105
G3 X-46.30372 Y-40.37059 I5.12223 J-1.7096
G3 X-49.38851 Y-39.70029 I-2.63893 J-4.71127
G0 Z4.0
G0 X-56.13902 Y-42.06249
G0 Z0.2
G1 F300.0 Z-1.6
G2 F800.0 X-57.00252 Y-42.61205 I-31.5139 J48.56283
G3 X-56.96735 Y-41.61923 I-139.24538 J5.42977
G3 X-56.13902 Y-42.06249 I3.5203 J5.58278
G1 F300.0 X-55.48579 Y-43.06912
G2 F800.0 X-56.61315 Y-43.78273 I-32.16713 J49.56945
G3 X-58.34746 Y-45.50241 I2.83651 J-4.59502
G3 X-58.11871 Y-39.64847 I-137.90043 J8.32013
G3 X-58.11785 Y-39.56061 I-5.39914 J0.0964
G2 X-58.116 Y-38.74954 I571.72488 J-0.9041
G3 X-53.08271 Y-41.42414 I4.66895 J2.7131
G2 X-55.48579 Y-43.06912 I-34.57021 J47.92448
G1 F300.0 X-54.17934 Y-45.08236
G2 F800.0 X-55.35247 Y-45.82496 I-33.47358 J51.5827
G3 X-56.76856 Y-48.15774 I1.57584 J-2.55279
G3 X-57.14284 Y-58.11371 I138.70375 J-10.19945
G3 X-57.14156 Y-58.20672 I3.0 J-0.00525
G2 X-57.65531 Y-59.47681 I-1.70358 J-0.04985
G2 X-59.09675 Y-60.02785 I-1.37527 J1.43668
G3 X-59.25532 Y-60.02677 I-0.09981 J-2.99834
G2 X-60.37902 Y-59.84086 I-0.06111 J3.1197
G2 X-61.00031 Y-59.18561 I0.44893 J1.04782
G2 X-61.36114 Y-56.95159 I5.75396 J2.07552
G3 X-61.36053 Y-56.92264 I-2.99899 J0.07774
G2 X-60.9669 Y-48.47123 I139.71676 J-2.27257
G3 X-60.51833 Y-39.60562 I-135.281 J11.28895
G3 X-60.51785 Y-39.55681 I-2.99952 J0.05355
G2 X-60.37232 Y-27.50668 I574.12487 J-0.9079
G3 X-60.18826 Y-15.35174 I-464.93771 J13.11913
G3 X-60.18834 Y-15.32275 I-2.99999 J0.00622
G3 X-60.38115 Y-11.40293 I-47.23109 J-0.35854
G2 X-60.51791 Y-7.89223 I53.87224 J3.85659
G3 X-60.51946 Y-7.81298 I-2.99994 J-0.01921
G2 X-60.02531 Y-6.60927 I1.58624 J0.05209
G3 X-60.00927 Y-6.59395 I-2.06431 J2.17683
G2 X-58.56395 Y-6.03918 I1.37915 J-1.43295
G3 X-58.36429 I0.09981 J2.99834
G2 X-56.91903 Y-6.59392 I0.06619 J-1.98756
G3 X-56.90299 Y-6.60925 I2.08039 J2.16148
G2 X-56.40881 Y-7.81302 I-1.09219 J-1.1517
G3 X-56.41033 Y-7.93483 I2.99838 J-0.09843
G3 X-56.21564 Y-11.98454 I50.38513 J0.39283
G3 X-56.21559 Y-11.98511 I2.98832 J0.26451
G2 X-56.04425 Y-15.53511 I-43.99343 J-3.90236
G2 X-56.26155 Y-25.73592 I-286.60175 J1.00231
G3 X-56.44701 Y-36.05103 I225.66987 J-9.21674
G3 X-51.57156 Y-38.37793 I2.99996 J0.01459
G3 X-43.61902 Y-31.41133 I-75.01057 J93.64869
G3 X-36.16514 Y-24.16906 I-252.39057 J267.22184
G3 X-36.08986 Y-24.09104 I-2.12077 J2.12187
G2 X-34.60921 Y-23.43585 I1.50515 J-1.40083
G2 X-33.12357 Y-24.0547 I-0.0045 J-2.10347
G3 X-32.98845 Y-24.18218 I2.12525 J2.11738
G2 X-32.42511 Y-25.36571 I-1.11322 J-1.25571
G2 X-32.96993 Y-26.55106 I-1.86586 J0.13971
G3 X-33.07486 Y-26.66112 I2.1181 J-2.12454
G2 X-43.11661 Y-36.5242 I-89.73386 J81.31609
G3 X-43.51232 Y-40.6224 I1.97426 J-2.25883
G1 X-35.90489 Y-50.42428
G2 X-32.80103 Y-54.85654 I-56.17846 J-42.644
G2 X-31.53668 Y-57.05896 I-21.42532 J-13.7638
G2 X-31.10864 Y-58.04495 I-8.22124 J-4.15498
G3 X-31.08765 Y-58.10051 I2.81688 J1.03207
G2 X-30.99612 Y-58.4923 I-1.32946 J-0.51718
G2 X-31.4919 Y-59.48401 I-1.33559 J0.0479
G3 X-31.6439 Y-59.61545 I1.88518 J-2.33369
G2 X-33.26051 Y-60.24593 I-1.61005 J1.74051
G3 X-33.30905 Y-60.24619 I-0.00831 J-2.99999
G2 X-34.93427 Y-59.21688 I-0.0236 J1.76046
G3 X-35.05527 Y-58.98018 I-2.72908 J-1.24584
G3 X-40.70467 Y-50.7142 I-52.72041 J-29.96827
G2 X-46.57941 Y-43.23385 I1783.753 J1406.93195
G3 X-50.74336 Y-42.68238 I-2.36324 J-1.848
G2 X-54.17934 Y-45.08236 I-36.90957 J49.18272
G1 F300.0 X-56.13902 Y-42.06249
G1 Z-2.4
G2 F800.0 X-57.00252 Y-42.61205 I-31.5139 J48.56283
G3 X-56.96735 Y-41.61923 I-139.24538 J5.42977
G3 X-56.13902 Y-42.06249 I3.5203 J5.58278
G1 F300.0 X-55.48579 Y-43.06912
G2 F800.0 X-56.61315 Y-43.78273 I-32.16713 J49.56945
G3 X-58.34746 Y-45.50241 I2.83651 J-4.59502
G3 X-58.11871 Y-39.64847 I-137.90043 J8.32013
G3 X-58.11785 Y-39.56061 I-5.39914 J0.0964
G2 X-58.116 Y-38.74954 I571.72488 J-0.9041
G3 X-53.08271 Y-41.42414 I4.66895 J2.7131
G2 X-55.48579 Y-43.06912 I-34.57021 J47.92448
G0 Z4.0
G0 X-49.38851 Y-39.70029
G0 Z-0.6
G1 F300.0 Z-2.4
G3 F800.0 X-46.26459 Y-37.07343 I-77.19363 J94.97105
G3 X-46.30372 Y-40.37059 I5.12223 J-1.7096
G3 X-49.38851 Y-39.70029 I-2.63893 J-4.71127
G1 F300.0 X-49.19035 Y-42.0921
G3 F800.0 X-50.74336 Y-42.68238 I0.2477 J-2.98976
G2 X-55.35247 Y-45.82496 I-36.90957 J49.18272
G3 X-56.76856 Y-48.15774 I1.57584 J-2.55279
G3 X-57.14284 Y-58.11371 I138.70375 J-10.19945
G3 X-57.14156 Y-58.20672 I3.0 J-0.00525
G2 X-57.65531 Y-59.47681 I-1.70358 J-0.04985
G2 X-59.09675 Y-60.02785 I-1.37527 J1.43668
G3 X-59.25532 Y-60.02677 I-0.09981 J-2.99834
G2 X-60.37902 Y-59.84086 I-0.06111 J3.1197
G2 X-61.00031 Y-59.18561 I0.44893 J1.04782
G2 X-61.36114 Y-56.95159 I5.75396 J2.07552
G3 X-61.36053 Y-56.92264 I-2.99899 J0.07774
G2 X-60.9669 Y-48.47123 I139.71676 J-2.27257
G3 X-60.51833 Y-39.60562 I-135.281 J11.28895
G3 X-60.51785 Y-39.55681 I-2.99952 J0.05355
G2 X-60.37232 Y-27.50668 I574.12487 J-0.9079
G3 X-60.18826 Y-15.35174 I-464.93771 J13.11913
G3 X-60.18834 Y-15.32275 I-2.99999 J0.00622
G3 X-60.38115 Y-11.40293 I-47.23109 J-0.35854
G2 X-60.51791 Y-7.89223 I53.87224 J3.85659
G3 X-60.51946 Y-7.81298 I-2.99994 J-0.01921
G2 X-60.02531 Y-6.60927 I1.58624 J0.05209
G3 X-60.00927 Y-6.59395 I-2.06431 J2.17683
G2 X-58.56395 Y-6.03918 I1.37915 J-1.43295
G3 X-58.36429 I0.09981 J2.99834
G2 X-56.91903 Y-6.59392 I0.06619 J-1.98756
G3 X-56.90299 Y-6.60925 I2.08039 J2.16148
G2 X-56.40881 Y-7.81302 I-1.09219 J-1.1517
G3 X-56.41033 Y-7.93483 I2.99838 J-0.09843
G3 X-56.21564 Y-11.98454 I50.38513 J0.39283
G3 X-56.21559 Y-11.98511 I2.98832 J0.26451
G2 X-56.04425 Y-15.53511 I-43.99343 J-3.90236
G2 X-56.26155 Y-25.73592 I-286.60175 J1.00231
G3 X-56.44701 Y-36.05103 I225.66987 J-9.21674
G3 X-51.57156 Y-38.37793 I2.99996 J0.01459
G3 X-43.61902 Y-31.41133 I-75.01057 J93.64869
G3 X-36.16514 Y-24.16906 I-252.39057 J267.22184
G3 X-36.08986 Y-24.09104 I-2.12077 J2.12187
G2 X-34.60921 Y-23.43585 I1.50515 J-1.40083
G2 X-33.12357 Y-24.0547 I-0.0045 J-2.10347
G3 X-32.98845 Y-24.18218 I2.12525 J2.11738
G2 X-32.42511 Y-25.36571 I-1.11322 J-1.25571
G2 X-32.96993 Y-26.55106 I-1.86586 J0.13971
G3 X-33.07486 Y-26.66112 I2.1181 J-2.12454
G2 X-43.11661 Y-36.5242 I-89.73386 J81.31609
G3 X-43.51232 Y-40.6224 I1.97426 J-2.25883
G1 X-35.90489 Y-50.42428
G2 X-32.80103 Y-54.85654 I-56.17846 J-42.644
G2 X-31.53668 Y-57.05896 I-21.42532 J-13.7638
G2 X-31.10864 Y-58.04495 I-8.22124 J-4.15498
G3 X-31.08765 Y-58.10051 I2.81688 J1.03207
G2 X-30.99612 Y-58.4923 I-1.32946 J-0.51718
G2 X-31.4919 Y-59.48401 I-1.33559 J0.0479
G3 X-31.6439 Y-59.61545 I1.88518 J-2.33369
G2 X-33.26051 Y-60.24593 I-1.61005 J1.74051
G3 X-33.30905 Y-60.24619 I-0.00831 J-2.99999
G2 X-34.93427 Y-59.21688 I-0.0236 J1.76046
G3 X-35.05527 Y-58.98018 I-2.72908 J-1.24584
G3 X-40.70467 Y-50.7142 I-52.72041 J-29.96827
G2 X-46.57941 Y-43.23385 I1783.753 J1406.93195
G3 X-49.19035 Y-42.0921 I-2.36324 J-1.848
G1 F300.0 X-49.38851 Y-39.70029
G1 Z-3.2
G3 F800.0 X-46.26459 Y-37.07343 I-77.19363 J94.97105
G3 X-46.30372 Y-40.37059 I5.12223 J-1.7096
G3 X-49.38851 Y-39.70029 I-2.63893 J-4.71127
G0 Z4.0
G0 X-56.13902 Y-42.06249
G0 Z-1.4
G1 F300.0 Z-3.2
G2 F800.0 X-57.00252 Y-42.61205 I-31.5139 J48.56283
G3 X-56.96735 Y-41.61923 I-139.24538 J5.42977
G3 X-56.13902 Y-42.06249 I3.5203 J5.58278
G1 F300.0 X-55.48579 Y-43.06912
G2 F800.0 X-56.61315 Y-43.78273 I-32.16713 J49.56945
G3 X-58.34746 Y-45.50241 I2.83651 J-4.59502
G3 X-58.11871 Y-39.64847 I-137.90043 J8.32013
G3 X-58.11785 Y-39.56061 I-5.39914 J0.0964
