( Made using CamBam - http://www.cambam.co.uk )
( Brender 12/24/2018 9:02:35 AM )
( T12 : 1.2 )
G21 G90 G64 G40
G0 Z3.0
( T12 : 1.2 )
T12 M6
( Tasche1 )
G17
M3 S1000
G0 X-20.48103 Y-2.11272
G0 Z1.0
G1 F300.0 Z-1.2
G2 F800.0 X-20.66065 Y-2.95316 I-1.87459 J-0.03877
G2 X-21.12425 Y-3.52138 I-1.47335 J0.72885
G3 X-21.13133 Y-3.52694 I0.66343 J-0.85221
G2 X-21.926 Y-3.94928 I-1.5493 J1.95635
G3 X-21.2606 Y-3.24153 I-1.14645 J1.74451
G3 X-21.25049 Y-3.22346 I-0.93655 J0.53591
G3 X-20.95401 Y-2.03989 I-2.12106 J1.16025
G3 X-21.01662 Y-1.43418 I-2.82058 J0.01451
G3 X-21.24777 Y-0.83136 I-2.008 J-0.42423
G2 X-21.15437 Y-0.87626 I-0.85942 J-1.90765
G2 X-20.7617 Y-1.17604 I-0.66346 J-1.27608
G3 X-20.76113 Y-1.17666 I0.79306 J0.73311
G2 X-20.55858 Y-1.52716 I-0.67183 J-0.62202
G2 X-20.48117 Y-2.07691 I-1.75142 J-0.52692
G3 X-20.48103 Y-2.11272 I1.07992 J-0.01348
G0 Z3.0
G0 X-22.53602 Y0.14715
G0 Z1.0
G1 F300.0 Z-1.2
G3 F800.0 X-22.65632 Y0.1801 I-0.87622 J-2.9624
G3 X-22.55131 Y0.23879 I-0.87748 J1.69353
G3 X-22.53602 Y0.14715 I1.07193 J0.13176
G0 Z3.0
G0 X-21.39853 Y2.52454
G0 Z1.0
G1 F300.0 Z-1.2
G3 F800.0 X-21.62346 Y3.18473 I-2.40859 J-0.45224
G3 X-21.68481 Y3.30194 I-1.86076 J-0.89911
G2 X-21.50981 Y3.10755 I-0.3634 J-0.50309
G2 X-21.39776 Y2.63195 I-0.87089 J-0.45619
G3 X-21.39784 Y2.58426 I1.31974 J-0.02606
G2 X-21.39853 Y2.52454 I-1.06891 J-0.01753
G1 F300.0 X-21.15871 Y2.51507
G2 F800.0 X-21.36388 Y1.86153 I-1.30803 J0.05167
G3 X-21.36679 Y1.85696 I0.90989 J-0.58181
G2 X-21.64903 Y1.55623 I-0.92377 J0.58417
G3 X-21.59683 Y2.11414 I-2.42786 J0.50852
G3 X-21.83847 Y3.07805 I-2.21028 J-0.04184
G3 X-22.50265 Y3.82606 I-1.64576 J-0.79243
G2 X-22.40127 Y3.81265 I-0.86435 J-6.92641
G3 X-22.39938 Y3.81239 I0.14942 J1.06961
G2 X-21.67808 Y3.57649 I-0.29107 J-2.11072
G3 X-21.65649 Y3.56515 I0.51315 J0.9503
G2 X-21.29929 Y3.22285 I-0.39171 J-0.7663
G2 X-21.1578 Y2.62722 I-1.08142 J-0.57149
G3 X-21.15787 Y2.58819 I1.07979 J-0.02132
G2 X-21.15871 Y2.51507 I-1.30887 J-0.02146
G0 Z3.0
G0 X-26.20052 Y3.65113
G0 Z1.0
G1 F300.0 Z-1.2
G3 F800.0 X-26.22286 Y3.5991 I1.20063 J-0.54621
G1 Y3.65113
G1 X-26.20052
G0 Z3.0
G0 X-26.22286 Y0.45742
G0 Z1.0
G1 F300.0 Z-1.2
G3 F800.0 X-25.98995 Y0.08002 I1.22297 J0.49418
G3 X-26.22286 Y-0.29738 I0.99006 J-0.87158
G1 Y0.45742
G0 Z3.0
G0 Y-3.83555
G0 Z1.0
G1 F300.0 Z-1.2
G3 F800.0 X-26.20052 Y-3.88758 I1.22297 J0.49418
G1 X-26.22286
G1 Y-3.83555
G1 F300.0 X-26.00034 Y-3.74563
G3 F800.0 X-25.73894 Y-4.12758 I1.00045 J0.40426
G1 X-26.46286
G1 Y3.89113
G1 X-25.73894
G3 X-26.07893 Y3.10492 I0.73905 J-0.78621
G1 Y0.9516
G3 X-25.63603 Y0.08002 I1.07904 J0.0
G3 X-26.07893 Y-0.79156 I0.63614 J-0.87158
G1 Y-3.34137
G3 X-26.00034 Y-3.74563 I1.07904 J0.0
G0 Z3.0
G0 Y-4.60758
G0 Z1.0
G1 F300.0 Z-1.2
G1 F800.0 X-26.94286
G1 Y4.37113
G1 X-23.94716
G3 X-23.94591 I0.0 J0.6
G2 X-23.12162 Y4.35576 I0.04123 J-19.89151
G3 X-23.11803 Y4.35563 I0.02362 J0.59953
G2 X-22.33486 Y4.28804 I-0.24898 J-7.45598
G3 X-22.33381 Y4.28789 I0.08301 J0.59423
G2 X-21.45001 Y3.99885 I-0.35664 J-2.58622
G3 X-21.43802 Y3.99255 I0.28508 J0.52795
G2 X-20.87807 Y3.4531 I-0.61018 J-1.1937
G2 X-20.6779 Y2.61774 I-1.50263 J-0.80174
G3 X-20.67793 Y2.59606 I0.59988 J-0.01184
G2 X-20.95949 Y1.60295 I-1.78881 J-0.02933
G3 X-20.9611 Y1.60041 I0.50549 J-0.32323
G2 X-21.70336 Y0.98186 I-1.32946 J0.84072
G3 X-22.07938 Y0.42523 I0.22398 J-0.55663
G1 Y0.37055
G3 X-21.59812 Y-0.21759 I0.6 J0.0
G2 X-20.93439 Y-0.44963 I-0.50907 J-2.52143
G2 X-20.40923 Y-0.85021 I-0.88344 J-1.70271
G3 X-20.40891 Y-0.85056 I0.44059 J0.40728
G2 X-20.09951 Y-1.38693 I-1.02405 J-0.94812
G2 X-20.00121 Y-2.0829 I-2.21048 J-0.66715
G3 X-20.00113 Y-2.1028 I0.59995 J-0.00749
G2 X-20.22853 Y-3.16218 I-2.35449 J-0.04869
G2 X-20.8294 Y-3.90014 I-1.90547 J0.93787
G3 X-20.83333 Y-3.90323 I0.36857 J-0.47345
G2 X-21.88321 Y-4.43727 I-1.8473 J2.33264
G2 X-22.64332 Y-4.57109 I-1.15052 J4.30953
G3 X-22.64593 Y-4.57132 I0.05252 J-0.5977
G2 X-23.46644 Y-4.60758 I-0.78904 J8.55299
G3 X-23.46864 I-0.0022 J-0.6
G1 X-26.00034
G0 Z3.0
G0 X-25.37186 Y-3.81215
G0 Z1.0
G1 F300.0 Z-1.2
G3 F800.0 X-24.99989 Y-3.94137 I0.37197 J0.47078
G1 X-24.86433
G3 X-23.46811 Y-3.92753 I0.1953 J50.73186
G3 X-23.45461 Y-3.92706 I-0.0142 J0.59983
G3 X-22.47031 Y-3.69627 I-0.12746 J2.75804
G3 X-21.67639 Y-3.00362 I-0.60214 J1.4915
G3 X-21.67076 Y-2.99357 I-0.52077 J0.29799
G3 X-21.43306 Y-2.041 I-1.70078 J0.93036
G3 X-21.48517 Y-1.53388 I-2.34152 J0.01562
G3 X-21.73125 Y-0.96264 I-1.53945 J-0.32453
G3 X-21.74817 Y-0.93941 I-0.49325 J-0.34162
G3 X-22.61633 Y-0.32933 I-1.40436 J-1.0757
G3 X-23.43639 Y-0.20514 I-0.79592 J-2.48592
G3 X-24.52912 Y-0.19156 I-0.98582 J-35.37091
G1 X-24.99989
G3 X-25.59989 Y-0.79156 I0.0 J-0.6
G1 Y-3.34137
G3 X-25.37186 Y-3.81215 I0.6 J0.0
G0 Z3.0
G0 X-25.0466 Y0.35342
G0 Z1.0
G1 F300.0 Z-1.2
G3 F800.0 X-24.99989 Y0.3516 I0.04671 J0.59818
G1 X-24.68022
G3 X-23.74143 Y0.36565 I0.12373 J23.11153
G3 X-23.72367 Y0.36654 I-0.02116 J0.59963
G3 X-22.96951 Y0.56151 I-0.13512 J2.07865
G3 X-22.25446 Y1.23852 I-0.5643 J1.31212
G3 X-22.24176 Y1.26581 I-0.53742 J0.2668
G3 X-22.07578 Y2.10484 I-1.83512 J0.79895
G3 X-22.26768 Y2.86521 I-1.73133 J-0.03254
G3 X-22.96323 Y3.52838 I-1.21655 J-0.5796
G3 X-22.97071 Y3.53146 I-0.23197 J-0.55334
G3 X-23.78737 Y3.69124 I-0.82314 J-2.04025
G3 X-24.82336 Y3.70492 I-0.91536 J-30.08799
G1 X-24.99989
G3 X-25.59989 Y3.10492 I0.0 J-0.6
G1 Y0.9516
G3 X-25.0466 Y0.35342 I0.6 J0.0
G0 Z3.0
G0 X-16.99508
G0 Z1.0
G1 F300.0 Z-1.2
G1 F800.0 Y1.38918
G1 X-16.76251
G1 Y1.36859
G3 X-16.48948 Y0.65082 I1.08 J0.0
G3 X-16.76251 Y-0.06695 I0.80697 J-0.71777
G1 Y-4.12758
G1 X-16.99508
G1 Y0.35342
G1 F300.0 X-17.47508
G1 F800.0 Y1.86918
G1 X-16.28251
G1 Y1.36859
G3 X-15.28235 Y0.92152 I0.6 J0.0
G2 X-14.86375 Y1.27035 I5.1416 J-5.74435
G3 X-14.8548 Y1.27743 I-0.36758 J0.47422
G2 X-14.39342 Y1.59684 I2.41868 J-3.00073
G3 X-14.39283 Y1.5972 I-0.30471 J0.51687
G2 X-13.91897 Y1.8072 I1.13281 J-1.91648
G3 X-13.89899 Y1.81378 I-0.1776 J0.57311
G2 X-13.52079 Y1.89256 I0.48991 J-1.40475
G1 Y0.878
G3 X-14.09229 Y0.90218 I-0.54529 J-6.12204
G3 X-14.09517 Y0.90216 I0.00256 J-0.59999
G3 X-15.03844 Y0.77225 I0.03384 J-3.7351
G3 X-15.8983 Y0.4929 I2.16504 J-8.12714
G3 X-16.28251 Y-0.06695 I0.21579 J-0.55985
G1 Y-4.60758
G1 X-17.47508
G1 Y0.35342
G0 Z3.0
G0 X-11.42893 Y-0.68052
G0 Z1.0
G1 F300.0 Z-1.2
G2 F800.0 X-11.29681 Y-0.13962 I3.91269 J-0.6691
G2 X-11.20029 Y0.10857 I2.44773 J-0.80907
G3 X-11.25063 Y-0.33164 I3.21927 J-0.59116
G3 X-10.97258 Y-1.10569 I1.07789 J-0.04976
G3 X-11.24512 Y-1.86506 I0.80668 J-0.7181
G3 X-10.91029 Y-3.19423 I3.3078 J0.12651
G3 X-10.8968 Y-3.22083 I0.96997 J0.47493
G3 X-10.65853 Y-3.59513 I2.34312 J1.22862
G2 X-10.69433 Y-3.56473 I1.77776 J2.12949
G2 X-11.29098 Y-2.66715 I1.47774 J1.62941
G2 X-11.48544 Y-1.43007 I3.48152 J1.1811
G3 X-11.48541 Y-1.39994 I-1.07987 J0.01644
G2 X-11.42893 Y-0.68052 I3.96917 J0.05032
G0 Z3.0
G0 X-6.26477 Y-0.74379
G0 Z1.0
G1 F300.0 Z-1.2
G3 F800.0 X-6.20224 Y-0.36415 I-1.01637 J0.36238
G3 X-6.31658 Y0.49056 I-3.69307 J-0.05906
G3 X-6.40086 Y0.76035 I-2.4138 J-0.60596
G2 X-6.1495 Y0.19753 I-1.70002 J-1.09679
G3 X-6.14934 Y0.19694 I1.0417 J0.28505
G2 X-6.00508 Y-0.74379 I-3.98201 J-1.09205
G1 X-6.26477
G1 F300.0 Y-1.22379
G1 F800.0 X-10.16591
G3 X-10.76547 Y-1.84672 I0.0 J-0.6
G3 X-10.47919 Y-2.98315 I2.82816 J0.10816
G3 X-10.4717 Y-2.99793 I0.53887 J0.26385
G3 X-9.77199 Y-3.78274 I1.91802 J1.00571
G3 X-9.7696 Y-3.78436 I0.33753 J0.49606
G3 X-8.84595 Y-4.18021 I1.50357 J2.23281
G3 X-8.83893 Y-4.18171 I0.12926 J0.58591
G3 X-7.81922 Y-4.28316 I0.98657 J4.74073
G3 X-6.87188 Y-4.18027 I0.00124 J4.40095
G3 X-6.86556 Y-4.17884 I-0.12899 J0.58597
G3 X-6.02105 Y-3.89744 I-1.06735 J4.61114
G3 X-5.65946 Y-3.72214 I-2.08751 J4.76653
G1 Y-4.37135
G3 X-5.81908 Y-4.43717 I12.07192 J-29.50285
G2 X-6.39626 Y-4.60899 I-1.61543 J4.37124
G3 X-6.41449 Y-4.61345 I0.13368 J-0.58492
G2 X-7.14643 Y-4.75612 I-1.48839 J5.68717
G3 X-7.14863 Y-4.75641 I0.07721 J-0.59501
G2 X-8.06785 Y-4.81269 I-0.85201 J6.3812
G3 X-8.08154 Y-4.8127 I-0.00626 J-0.59997
G2 X-9.68689 Y-4.61823 I-0.07553 J6.09969
G3 X-9.68844 Y-4.61783 I-0.15047 J-0.58083
G2 X-11.01246 Y-3.9242 I0.80767 J3.15218
G2 X-11.74462 Y-2.82405 I1.79588 J1.98888
G2 X-11.96539 Y-1.42277 I3.93516 J1.33801
G3 X-11.96537 Y-1.40603 I-0.59993 J0.00913
G2 X-11.75328 Y0.00883 I4.44913 J0.0564
G2 X-11.05341 Y1.17079 I2.90421 J-0.95752
G2 X-9.90462 Y1.89299 I2.04654 J-1.98059
G2 X-8.47224 Y2.1085 I1.36945 J-4.23421
G3 X-8.45484 I0.00848 J0.59994
G2 X-7.20997 Y1.93627 I0.06151 J-4.14054
G2 X-6.25001 Y1.34876 I-0.63392 J-2.11377
G2 X-5.68652 Y0.32422 I-1.85086 J-1.6852
G3 X-5.68643 Y0.32389 I0.57872 J0.15836
G2 X-5.52269 Y-0.9547 I-4.44492 J-1.219
G3 X-5.52274 Y-0.96246 I0.59995 J-0.00776
G1 Y-1.22379
G1 X-6.26477
G1 F300.0 X-6.81918 Y-0.76428
G3 F800.0 X-6.68122 Y-0.37181 I-0.46196 J0.38288
G3 X-6.78098 Y0.373 I-3.21409 J-0.0514
G3 X-7.17106 Y1.15237 I-1.94941 J-0.4884
G3 X-7.17629 Y1.15872 I-0.46555 J-0.3785
G3 X-7.90819 Y1.6568 I-1.24221 J-1.03855
G3 X-7.91101 Y1.65773 I-0.1891 J-0.56942
G3 X-8.6491 Y1.7704 I-0.70903 J-2.17083
G3 X-9.43128 Y1.64599 I-0.02419 J-2.36889
G3 X-9.4362 Y1.64431 I0.19197 J-0.56846
G3 X-10.17707 Y1.16661 I0.61268 J-1.76358
G3 X-10.18269 Y1.16062 I0.435 J-0.41325
G3 X-10.62561 Y0.41902 I1.53812 J-1.4217
G3 X-10.62613 Y0.41748 I0.56749 J-0.19482
G3 X-10.7721 Y-0.35374 I2.64511 J-0.90007
G3 X-10.17274 Y-0.98141 I0.59936 J-0.02767
G1 X-7.28114
G3 X-6.81918 Y-0.76428 I0.0 J0.6
G0 Z3.0
G0 X-2.61227
G0 Z1.0
G1 F300.0 Z-1.2
G1 F800.0 Y1.38918
G1 X-2.35441
G3 X-2.12733 Y0.92768 I1.05471 J0.23234
G3 X-2.37969 Y0.23383 I0.82763 J-0.69385
G1 Y-4.12758
G1 X-2.61227
G1 Y-0.76428
G0 Z3.0
G0 X0.91761 Y1.59619
G0 Z1.0
G1 F300.0 Z-1.2
G2 F800.0 X1.0665 Y1.60117 I0.12948 J-1.64455
G3 X1.09692 Y1.60124 I0.01271 J1.07993
G2 X1.6882 Y1.50323 I0.02734 J-1.66771
G2 X2.04237 Y1.25059 I-0.31357 J-0.81414
G2 X2.3218 Y0.67454 I-1.11579 J-0.89705
G3 X2.3233 Y0.66811 I1.0525 J0.24216
G2 X2.41921 Y-0.19791 I-3.48488 J-0.82425
G3 X2.41913 Y-0.21051 I1.07993 J-0.0126
G1 Y-4.12758
G1 X2.17288
G1 Y-1.40011
G3 X2.12853 Y-0.39164 I-11.41465 J0.00317
G3 X2.07746 Y0.04116 I-4.67484 J-0.33225
G3 X1.90808 Y0.63132 I-2.43673 J-0.37994
G3 X1.90421 Y0.64026 I-0.99293 J-0.42483
G3 X1.03046 Y1.54762 I-1.66742 J-0.73129
G3 X0.98766 Y1.56721 I-0.47078 J-0.97199
G3 X0.91761 Y1.59619 I-0.99551 J-2.3065
G1 F300.0 X0.74078 Y1.14995
G3 F800.0 X-0.07566 Y1.29174 I-0.74864 J-1.88925
G3 X-0.86689 Y1.14459 I0.02467 J-2.33349
G3 X-0.87322 Y1.14219 I0.20978 J-0.56213
G3 X-1.65112 Y0.72014 I1.2423 J-3.21763
G3 X-1.89969 Y0.23383 I0.35143 J-0.48631
G1 Y-4.60758
G1 X-3.09227
G1 Y1.86918
G1 X-1.89969
G1 Y1.62152
G3 X-0.90621 Y1.16857 I0.6 J0.0
G2 X0.11342 Y1.8657 I3.51305 J-4.04396
G2 X1.07215 Y2.08114 I0.93367 J-1.91406
G3 X1.08905 Y2.08117 I0.00706 J0.59996
G2 X1.85539 Y1.9532 I0.03521 J-2.14764
G2 X2.41327 Y1.5553 I-0.48076 J-1.2641
G2 X2.78958 Y0.78217 I-1.48669 J-1.20177
G3 X2.79041 Y0.7786 I0.58472 J0.13453
G2 X2.89917 Y-0.20351 I-3.95199 J-0.93473
G3 X2.89913 Y-0.21051 I0.59996 J-0.007
G1 Y-4.60758
G1 X1.69288
G1 Y-1.40005
G3 X1.65002 Y-0.42973 I-10.93465 J0.00311
G3 X1.60352 Y-0.03494 I-4.19634 J-0.29416
G3 X1.46678 Y0.4425 I-1.96279 J-0.30385
G3 X1.46463 Y0.44747 I-0.55163 J-0.23602
G3 X0.82123 Y1.11562 I-1.22784 J-0.5385
G3 X0.79745 Y1.1265 I-0.26154 J-0.53999
G3 X0.74078 Y1.14995 I-0.8053 J-1.8658
G0 Z3.0
G0 X5.94443 Y-0.2382
G0 Z1.0
G1 F300.0 Z-1.2
G2 F800.0 X6.00703 Y-0.02603 I4.07849 J-1.088
G2 X6.53145 Y0.91136 I2.85803 J-0.98352
G2 X7.17759 Y1.41265 I1.47561 J-1.23495
G3 X7.19358 Y1.42045 I-0.46556 J0.9745
G2 X7.24545 Y1.44522 I0.76783 J-1.54138
G3 X6.72217 Y0.9082 I1.48034 J-1.96589
G3 X6.71189 Y0.89352 I0.87852 J-0.62652
G3 X6.20047 Y-0.30656 I2.70377 J-1.86123
G3 X6.09095 Y-1.40039 I5.00617 J-1.05363
G3 X6.16228 Y-2.396 I6.34312 J-0.04595
G3 X6.59059 Y-3.60241 I3.09376 J0.41915
G3 X6.62066 Y-3.64898 I0.92124 J0.56183
G3 X7.37765 Y-4.33214 I1.7889 J1.22126
G2 X6.88988 Y-4.18987 I0.1477 J1.41372
G2 X6.38191 Y-3.72592 I0.71831 J1.29653
G3 X6.3791 Y-3.72181 I-0.89352 J-0.60665
G2 X5.93755 Y-2.70482 I2.40259 J1.64749
G3 X5.93689 Y-2.70187 I-1.0544 J-0.23374
G2 X5.80272 Y-1.43755 I5.39536 J1.21186
G3 X5.80257 Y-1.40671 I-1.07995 J0.01025
G2 X5.94443 Y-0.2382 I4.22035 J0.08051
G0 Z3.0
G0 X10.64093 Y1.41917
G0 Z1.0
G1 F300.0 Z-1.2
G3 F800.0 X10.93656 Y2.16156 I-0.78438 J0.7424
G1 Y4.34914
G1 X11.16913
G1 Y-4.12758
G1 X10.89958
G3 X10.71107 Y-3.74732 I-1.04302 J-0.2802
G3 X10.9356 Y-3.08844 I-0.85452 J0.65888
G1 Y0.67816
G3 X10.64093 Y1.41917 I-1.07904 J0.0
G1 F300.0 X10.29271 Y1.0902
G3 F800.0 X10.10754 Y1.22315 I-0.43615 J-0.41203
G3 X9.50932 Y1.41028 I-1.02382 J-2.22311
G3 X8.91311 Y1.48309 I-0.66512 J-2.96918
G3 X8.91078 Y1.48314 I-0.01359 J-0.59985
G3 X7.94507 Y1.30087 I-0.04522 J-2.40993
G3 X7.93471 Y1.29648 I0.22913 J-0.55452
G3 X7.11219 Y0.63006 I0.79107 J-1.81716
G3 X7.10648 Y0.62189 I0.4885 J-0.34838
G3 X6.66947 Y-0.40411 I2.30918 J-1.5896
G3 X6.57001 Y-1.40023 I4.53717 J-0.95608
G3 X6.63649 Y-2.32806 I5.86406 J-0.04612
G3 X6.99958 Y-3.35299 I2.61955 J0.35121
G3 X7.01629 Y-3.37888 I0.51225 J0.3124
G3 X7.78539 Y-3.99498 I1.39326 J0.95116
G3 X7.79336 Y-3.99809 I0.222 J0.55742
G3 X8.6411 Y-4.1464 I0.80628 J2.11169
G3 X9.38017 Y-4.02131 I-0.02101 J2.37012
G2 X8.97178 Y-4.33172 I-6.70616 J8.39919
G3 X8.95854 Y-4.34158 I0.35157 J-0.48621
G2 X8.53682 Y-4.60868 I-1.70781 J2.22994
G2 X8.09889 Y-4.76705 I-1.01276 J2.11589
G2 X7.5755 Y-4.81956 I-0.48905 J2.23986
G3 X7.55664 Y-4.81957 I-0.00898 J-0.59993
G2 X6.66616 Y-4.61464 I-0.03129 J1.90116
G2 X5.98479 Y-3.99555 I0.94203 J1.7213
G3 X5.98323 Y-3.99326 I-0.4964 J-0.33703
G2 X5.46893 Y-2.8087 I2.79846 J1.91894
G3 X5.46856 Y-2.80707 I-0.58578 J-0.12986
G2 X5.32274 Y-1.433 I5.86369 J1.31705
G3 X5.32266 Y-1.41586 I-0.59997 J0.00569
G2 X5.55171 Y0.12596 I4.70026 J0.08967
G2 X6.16207 Y1.2179 I3.31335 J-1.13551
G2 X6.97067 Y1.84576 I1.84499 J-1.54149
G3 X6.97955 Y1.85009 I-0.25864 J0.54139
G2 X7.96803 Y2.0811 I0.98185 J-1.97102
G3 X7.98508 Y2.08129 I0.00181 J0.6
G2 X8.7738 Y1.97886 I0.06563 J-2.58247
G2 X9.57343 Y1.63256 I-1.68829 J-4.99482
G3 X10.45656 Y2.16156 I0.28312 J0.529
G1 Y4.82914
G1 X11.64913
G1 Y-4.60758
G1 X10.45656
G1 Y-4.40777
G3 X9.8586 Y-3.80778 I-0.6 J0.0
G3 X10.22995 Y-3.5581 I-1.37631 J2.44792
G3 X10.45656 Y-3.08844 I-0.37339 J0.46966
G1 Y0.67816
G3 X10.29271 Y1.0902 I-0.6 J0.0
G0 Z3.0
G0 X14.76219 Y-0.22728
G0 Z1.0
G1 F300.0 Z-1.2
G2 F800.0 X14.78913 Y-0.13962 I3.80752 J-1.12235
G2 X14.88565 Y0.10857 I2.44773 J-0.80907
G3 X14.8353 Y-0.33164 I3.21927 J-0.59116
G3 X15.11336 Y-1.10569 I1.07789 J-0.04976
G3 X14.84082 Y-1.86506 I0.80668 J-0.7181
G3 X15.17565 Y-3.19423 I3.3078 J0.12651
G3 X15.18913 Y-3.22083 I0.96997 J0.47493
G3 X15.42741 Y-3.59513 I2.34312 J1.22862
G2 X15.39161 Y-3.56473 I1.77776 J2.12949
G2 X14.79496 Y-2.66715 I1.47774 J1.62941
G2 X14.60049 Y-1.43007 I3.48152 J1.1811
G3 X14.60053 Y-1.39994 I-1.07987 J0.01644
G2 X14.76219 Y-0.22728 I3.96917 J0.05032
G0 Z3.0
G0 X19.68508 Y0.76035
G0 Z1.0
G1 F300.0 Z-1.2
G2 F800.0 X19.93644 Y0.19753 I-1.70002 J-1.09679
G3 X19.9366 Y0.19694 I1.0417 J0.28505
G2 X20.08086 Y-0.74379 I-3.98201 J-1.09205
G1 X19.82117
G3 X19.8837 Y-0.36415 I-1.01637 J0.36238
G3 X19.76935 Y0.49056 I-3.69307 J-0.05906
G3 X19.68508 Y0.76035 I-2.4138 J-0.60596
G1 F300.0 X20.08842 Y1.02057
G2 F800.0 X20.39942 Y0.32422 I-2.10336 J-1.35701
G3 X20.39951 Y0.32389 I0.57872 J0.15836
G2 X20.56325 Y-0.9547 I-4.44492 J-1.219
G3 X20.5632 Y-0.96246 I0.59995 J-0.00776
G1 Y-1.22379
G1 X15.92003
G3 X15.32047 Y-1.84672 I0.0 J-0.6
G3 X15.60675 Y-2.98315 I2.82816 J0.10816
G3 X15.61424 Y-2.99793 I0.53887 J0.26385
G3 X16.31395 Y-3.78274 I1.91802 J1.00571
G3 X16.31634 Y-3.78436 I0.33753 J0.49606
G3 X17.23999 Y-4.18021 I1.50357 J2.23281
G3 X17.24701 Y-4.18171 I0.12926 J0.58591
G3 X18.26672 Y-4.28316 I0.98657 J4.74073
G3 X19.21406 Y-4.18027 I0.00124 J4.40095
G3 X19.22038 Y-4.17884 I-0.12899 J0.58597
G3 X20.06489 Y-3.89744 I-1.06735 J4.61114
G3 X20.42648 Y-3.72214 I-2.08751 J4.76653
G1 Y-4.37135
G3 X20.26686 Y-4.43717 I12.07192 J-29.50285
G2 X19.68968 Y-4.60899 I-1.61543 J4.37124
G3 X19.67144 Y-4.61345 I0.13368 J-0.58492
G2 X18.93951 Y-4.75612 I-1.48839 J5.68717
G3 X18.9373 Y-4.75641 I0.07721 J-0.59501
G2 X18.01809 Y-4.81269 I-0.85201 J6.3812
G3 X18.0044 Y-4.8127 I-0.00626 J-0.59997
G2 X16.39904 Y-4.61823 I-0.07553 J6.09969
G3 X16.3975 Y-4.61783 I-0.15047 J-0.58083
G2 X15.07347 Y-3.9242 I0.80767 J3.15218
G2 X14.34132 Y-2.82405 I1.79588 J1.98888
G2 X14.12055 Y-1.42277 I3.93516 J1.33801
G3 X14.12057 Y-1.40603 I-0.59993 J0.00913
G2 X14.33266 Y0.00883 I4.44913 J0.0564
G2 X15.03253 Y1.17079 I2.90421 J-0.95752
G2 X16.18131 Y1.89299 I2.04654 J-1.98059
G2 X17.6137 Y2.1085 I1.36945 J-4.23421
G3 X17.63109 I0.00848 J0.59994
G2 X18.87597 Y1.93627 I0.06151 J-4.14054
G2 X19.83592 Y1.34876 I-0.63392 J-2.11377
G2 X20.08842 Y1.02057 I-1.85086 J-1.6852
G0 Z3.0
G0 X19.21128 Y0.65597
G0 Z1.0
G1 F300.0 Z-1.2
G3 F800.0 X18.91488 Y1.15237 I-1.85573 J-0.77137
G3 X18.90965 Y1.15872 I-0.46555 J-0.3785
G3 X18.17775 Y1.6568 I-1.24221 J-1.03855
G3 X18.17493 Y1.65773 I-0.1891 J-0.56942
G3 X17.43683 Y1.7704 I-0.70903 J-2.17083
G3 X16.65466 Y1.64599 I-0.02419 J-2.36889
G3 X16.64973 Y1.64431 I0.19197 J-0.56846
G3 X15.90886 Y1.16661 I0.61268 J-1.76358
G3 X15.90325 Y1.16062 I0.435 J-0.41325
G3 X15.46033 Y0.41902 I1.53812 J-1.4217
G3 X15.4598 Y0.41748 I0.56749 J-0.19482
G3 X15.31383 Y-0.35374 I2.64511 J-0.90007
G3 X15.9132 Y-0.98141 I0.59936 J-0.02767
G1 X18.8048
G3 X19.40472 Y-0.37181 I0.0 J0.6
G3 X19.30496 Y0.373 I-3.21409 J-0.0514
G3 X19.21128 Y0.65597 I-1.94941 J-0.4884
G0 Z3.0
G0 X23.47367
G0 Z1.0
G1 F300.0 Z-1.2
G1 F800.0 Y1.38918
G1 X23.70624
G1 Y1.36859
G3 X23.97927 Y0.65082 I1.08 J0.0
G3 X23.70624 Y-0.06695 I0.80697 J-0.71777
G1 Y-4.12758
G1 X23.47367
G1 Y0.65597
G1 F300.0 X22.99367
G1 F800.0 Y1.86918
G1 X24.18624
G1 Y1.36859
G3 X25.1864 Y0.92152 I0.6 J0.0
G2 X25.605 Y1.27035 I5.1416 J-5.74435
G3 X25.61395 Y1.27743 I-0.36758 J0.47422
G2 X26.07533 Y1.59684 I2.41868 J-3.00073
G3 X26.07592 Y1.5972 I-0.30471 J0.51687
G2 X26.54978 Y1.8072 I1.13281 J-1.91648
G3 X26.56976 Y1.81378 I-0.1776 J0.57311
G2 X26.94796 Y1.89256 I0.48991 J-1.40475
G1 Y0.878
G3 X26.37646 Y0.90218 I-0.54529 J-6.12204
G3 X26.37358 Y0.90216 I0.00256 J-0.59999
G3 X25.43031 Y0.77225 I0.03384 J-3.7351
G3 X24.57045 Y0.4929 I2.16504 J-8.12714
G3 X24.18624 Y-0.06695 I0.21579 J-0.55985
G1 Y-4.60758
G1 X22.99367
G1 Y0.65597
G0 Z3.0
M5
M30
