( Made using CamBam - http://www.cambam.co.uk )
( Buhl-Rees 12/24/2018 9:01:37 AM )
( T12 : 1.2 )
G21 G90 G64 G40
G0 Z3.0
( T12 : 1.2 )
T12 M6
( Tasche1 )
G17
M3 S1000
G0 X-9.06231 Y6.65345
G0 Z1.0
G1 F300.0 Z-1.2
G2 F800.0 X-9.24193 Y5.81301 I-1.87459 J-0.03877
G2 X-9.70554 Y5.24479 I-1.47335 J0.72885
G3 X-9.71261 Y5.23923 I0.66343 J-0.85221
G2 X-10.50728 Y4.81689 I-1.5493 J1.95635
G3 X-9.84189 Y5.52463 I-1.14645 J1.74451
G3 X-9.83177 Y5.54271 I-0.93655 J0.53591
G3 X-9.53529 Y6.72628 I-2.12106 J1.16025
G3 X-9.5979 Y7.33199 I-2.82058 J0.01451
G3 X-9.82905 Y7.93481 I-2.008 J-0.42423
G2 X-9.73565 Y7.88991 I-0.85942 J-1.90765
G2 X-9.34298 Y7.59013 I-0.66346 J-1.27608
G3 X-9.34241 Y7.58951 I0.79306 J0.73311
G2 X-9.13986 Y7.23901 I-0.67183 J-0.62202
G2 X-9.06245 Y6.68926 I-1.75142 J-0.52692
G3 X-9.06231 Y6.65345 I1.07992 J-0.01348
G0 Z3.0
G0 X-11.11731 Y8.91332
G0 Z1.0
G1 F300.0 Z-1.2
G3 F800.0 X-11.2376 Y8.94627 I-0.87622 J-2.9624
G3 X-11.1326 Y9.00495 I-0.87748 J1.69353
G3 X-11.11731 Y8.91332 I1.07193 J0.13176
G0 Z3.0
G0 X-9.97981 Y11.29071
G0 Z1.0
G1 F300.0 Z-1.2
G3 F800.0 X-10.20475 Y11.9509 I-2.40859 J-0.45224
G3 X-10.26609 Y12.06811 I-1.86076 J-0.89911
G2 X-10.09109 Y11.87372 I-0.3634 J-0.50309
G2 X-9.97904 Y11.39812 I-0.87089 J-0.45619
G3 X-9.97912 Y11.35043 I1.31974 J-0.02606
G2 X-9.97981 Y11.29071 I-1.06891 J-0.01753
G1 F300.0 X-9.74 Y11.28124
G2 F800.0 X-9.94516 Y10.6277 I-1.30803 J0.05167
G3 X-9.94807 Y10.62313 I0.90989 J-0.58181
G2 X-10.23031 Y10.3224 I-0.92377 J0.58417
G3 X-10.17812 Y10.88031 I-2.42786 J0.50852
G3 X-10.41975 Y11.84421 I-2.21028 J-0.04184
G3 X-11.08393 Y12.59223 I-1.64576 J-0.79243
G2 X-10.98255 Y12.57882 I-0.86435 J-6.92641
G3 X-10.98066 Y12.57856 I0.14942 J1.06961
G2 X-10.25936 Y12.34266 I-0.29107 J-2.11072
G3 X-10.23777 Y12.33132 I0.51315 J0.9503
G2 X-9.88057 Y11.98902 I-0.39171 J-0.7663
G2 X-9.73909 Y11.39339 I-1.08142 J-0.57149
G3 X-9.73915 Y11.35436 I1.07979 J-0.02132
G2 X-9.74 Y11.28124 I-1.30887 J-0.02146
G0 Z3.0
G0 X-14.7818 Y12.4173
G0 Z1.0
G1 F300.0 Z-1.2
G3 F800.0 X-14.80414 Y12.36527 I1.20063 J-0.54621
G1 Y12.4173
G1 X-14.7818
G0 Z3.0
G0 X-14.80414 Y9.22359
G0 Z1.0
G1 F300.0 Z-1.2
G3 F800.0 X-14.57123 Y8.84619 I1.22297 J0.49418
G3 X-14.80414 Y8.46879 I0.99006 J-0.87158
G1 Y9.22359
G0 Z3.0
G0 Y4.93062
G0 Z1.0
G1 F300.0 Z-1.2
G3 F800.0 X-14.7818 Y4.87859 I1.22297 J0.49418
G1 X-14.80414
G1 Y4.93062
G1 F300.0 X-15.04414
G1 F800.0 Y12.6573
G1 X-14.32022
G3 X-14.66021 Y11.87109 I0.73905 J-0.78621
G1 Y9.71777
G3 X-14.21731 Y8.84619 I1.07904 J0.0
G3 X-14.66021 Y7.97461 I0.63614 J-0.87158
G1 Y5.4248
G3 X-14.32022 Y4.63859 I1.07904 J0.0
G1 X-15.04414
G1 Y4.93062
G1 F300.0 X-15.52414
G1 F800.0 Y13.1373
G1 X-12.52844
G3 X-12.52719 I0.0 J0.6
G2 X-11.7029 Y13.12193 I0.04123 J-19.89151
G3 X-11.69931 Y13.1218 I0.02362 J0.59953
G2 X-10.91614 Y13.05421 I-0.24898 J-7.45598
G3 X-10.91509 Y13.05406 I0.08301 J0.59423
G2 X-10.03129 Y12.76502 I-0.35664 J-2.58622
G3 X-10.0193 Y12.75872 I0.28508 J0.52795
G2 X-9.45936 Y12.21927 I-0.61018 J-1.1937
G2 X-9.25918 Y11.38391 I-1.50263 J-0.80174
G3 X-9.25922 Y11.36223 I0.59988 J-0.01184
G2 X-9.54077 Y10.36912 I-1.78881 J-0.02933
G3 X-9.54238 Y10.36658 I0.50549 J-0.32323
G2 X-10.28464 Y9.74803 I-1.32946 J0.84072
G3 X-10.66066 Y9.1914 I0.22398 J-0.55663
G1 Y9.13672
G3 X-10.17941 Y8.54858 I0.6 J0.0
G2 X-9.51567 Y8.31654 I-0.50907 J-2.52143
G2 X-8.99051 Y7.91596 I-0.88344 J-1.70271
G3 X-8.99019 Y7.91561 I0.44059 J0.40728
G2 X-8.68079 Y7.37924 I-1.02405 J-0.94812
G2 X-8.58249 Y6.68327 I-2.21048 J-0.66715
G3 X-8.58241 Y6.66337 I0.59995 J-0.00749
G2 X-8.80981 Y5.60399 I-2.35449 J-0.04869
G2 X-9.41068 Y4.86603 I-1.90547 J0.93787
G3 X-9.41461 Y4.86294 I0.36857 J-0.47345
G2 X-10.4645 Y4.3289 I-1.8473 J2.33264
G2 X-11.22461 Y4.19508 I-1.15052 J4.30953
G3 X-11.22721 Y4.19485 I0.05252 J-0.5977
G2 X-12.04772 Y4.15859 I-0.78904 J8.55299
G3 X-12.04992 I-0.0022 J-0.6
G1 X-15.52414
G1 Y4.93062
G0 Z3.0
G0 X-14.16266 Y5.2769
G0 Z1.0
G1 F300.0 Z-1.2
G3 F800.0 X-13.58117 Y4.8248 I0.58149 J0.1479
G1 X-13.44561
G3 X-12.04939 Y4.83864 I0.1953 J50.73186
G3 X-12.03589 Y4.83911 I-0.0142 J0.59983
G3 X-11.05159 Y5.0699 I-0.12746 J2.75804
G3 X-10.25767 Y5.76255 I-0.60214 J1.4915
G3 X-10.25205 Y5.7726 I-0.52077 J0.29799
G3 X-10.01434 Y6.72517 I-1.70078 J0.93036
G3 X-10.06645 Y7.23229 I-2.34152 J0.01562
G3 X-10.31253 Y7.80353 I-1.53945 J-0.32453
G3 X-10.32946 Y7.82676 I-0.49325 J-0.34162
G3 X-11.19761 Y8.43684 I-1.40436 J-1.0757
G3 X-12.01767 Y8.56103 I-0.79592 J-2.48592
G3 X-13.1104 Y8.57461 I-0.98582 J-35.37091
G1 X-13.58117
G3 X-14.18117 Y7.97461 I0.0 J-0.6
G1 Y5.4248
G3 X-14.16266 Y5.2769 I0.6 J0.0
G0 Z3.0
G0 X-13.65907 Y9.12285
G0 Z1.0
G1 F300.0 Z-1.2
G3 F800.0 X-13.58117 Y9.11777 I0.0779 J0.59492
G1 X-13.2615
G3 X-12.32271 Y9.13182 I0.12373 J23.11153
G3 X-12.30495 Y9.13271 I-0.02116 J0.59963
G3 X-11.55079 Y9.32768 I-0.13512 J2.07865
G3 X-10.83574 Y10.00469 I-0.5643 J1.31212
G3 X-10.82304 Y10.03198 I-0.53742 J0.2668
G3 X-10.65707 Y10.87101 I-1.83512 J0.79895
G3 X-10.84896 Y11.63138 I-1.73133 J-0.03254
G3 X-11.54451 Y12.29455 I-1.21655 J-0.5796
G3 X-11.55199 Y12.29763 I-0.23197 J-0.55334
G3 X-12.36865 Y12.45741 I-0.82314 J-2.04025
G3 X-13.40465 Y12.47109 I-0.91536 J-30.08799
G1 X-13.58117
G3 X-14.18117 Y11.87109 I0.0 J-0.6
G1 Y9.71777
G3 X-13.65907 Y9.12285 I0.6 J0.0
G0 Z3.0
G0 X-5.63789
G0 Z1.0
G1 F300.0 Z-1.2
G1 F800.0 Y10.15535
G1 X-5.39164
G1 Y7.43083
G3 X-5.36221 Y6.38993 I15.36152 J-0.08654
G3 X-5.36163 Y6.38114 I1.07791 J0.0671
G3 X-5.13105 Y5.40644 I3.09794 J0.21822
G3 X-5.12161 Y5.38443 I0.99715 J0.41485
G3 X-4.31181 Y4.50852 I1.68445 J0.74503
G3 X-4.28318 Y4.49363 I0.51287 J0.95046
G3 X-4.14012 Y4.4284 I0.94796 J1.8898
G2 X-4.27113 Y4.42634 I-0.09088 J1.61198
G3 X-4.31413 Y4.42656 I-0.02684 J-1.07967
G2 X-4.89805 Y4.52262 I-0.025 J1.67071
G2 X-5.26524 Y4.77123 I0.34027 J0.89804
G2 X-5.53923 Y5.33263 I1.05018 J0.86008
G3 X-5.54123 Y5.34135 I-1.05353 J-0.23764
G2 X-5.63797 Y6.22521 I3.58253 J0.83933
G3 X-5.63789 Y6.23828 I-1.07992 J0.01307
G1 Y9.12285
G0 Z3.0
G0 X-0.83906
G0 Z1.0
G1 F300.0 Z-1.2
G1 F800.0 Y10.15535
G1 X-0.60648
G1 Y4.63859
G1 X-0.86435
G3 X-1.09143 Y5.10009 I-1.05471 J-0.23234
G3 X-0.83906 Y5.79394 I-0.82763 J0.69385
G1 Y9.12285
G1 F300.0 X-1.31906
G1 F800.0 Y10.63535
G1 X-0.12648
G1 Y4.15859
G1 X-1.31906
G1 Y4.40625
G3 X-2.31 Y4.8614 I-0.6 J0.0
G2 X-3.33563 Y4.14687 I-4.03247 J4.69479
G2 X-4.28306 Y3.94649 I-0.89537 J1.89351
G3 X-4.30695 Y3.94661 I-0.01491 J-0.59981
G2 X-5.0632 Y4.07191 I-0.03219 J2.15065
G2 X-5.62819 Y4.45691 I0.50543 J1.34876
G2 X-6.00746 Y5.22702 I1.41313 J1.1744
G3 X-6.00858 Y5.23186 I-0.5853 J-0.13202
G2 X-6.11793 Y6.23102 I4.04987 J0.94882
G3 X-6.11789 Y6.23828 I-0.59996 J0.00726
G1 Y10.63535
G1 X-4.91164
G1 Y7.42947
G3 X-4.88314 Y6.41975 I14.88152 J-0.08518
G3 X-4.88281 Y6.41487 I0.59884 J0.03728
G3 X-4.68788 Y5.59082 I2.61913 J0.1845
G3 X-4.68263 Y5.57859 I0.55397 J0.23047
G3 X-4.08387 Y4.93095 I1.24547 J0.55087
G3 X-4.06797 Y4.92267 I0.28493 J0.52803
G3 X-3.57433 Y4.76678 I0.73274 J1.46076
G3 X-3.15205 Y4.73595 I0.40322 J2.61544
G3 X-3.13413 Y4.73635 I-0.00432 J0.59998
G3 X-2.35376 Y4.89607 I-0.08994 J2.42563
G3 X-1.56854 Y5.30698 I-1.04676 J2.95602
G3 X-1.31906 Y5.79394 I-0.35052 J0.48697
G1 Y9.12285
G0 Z3.0
G0 X3.38555
G0 Z1.0
G1 F300.0 Z-1.2
G1 F800.0 Y13.11531
G1 X3.61813
G1 Y10.38769
G3 X3.87049 Y9.69384 I1.08 J0.0
G3 X3.61813 Y9.0 I0.82763 J-0.69385
G1 Y4.63859
G1 X3.38555
G1 Y9.12285
G0 Z3.0
G0 X6.91543 Y10.36236
G0 Z1.0
G1 F300.0 Z-1.2
G2 F800.0 X7.06432 Y10.36734 I0.12948 J-1.64455
G3 X7.09474 Y10.36741 I0.01271 J1.07993
G2 X7.68602 Y10.2694 I0.02734 J-1.66771
G2 X8.04019 Y10.01675 I-0.31357 J-0.81414
G2 X8.31962 Y9.44071 I-1.11579 J-0.89705
G3 X8.32112 Y9.43428 I1.0525 J0.24216
G2 X8.41703 Y8.56826 I-3.48488 J-0.82425
G3 X8.41695 Y8.55566 I1.07993 J-0.0126
G1 Y4.63859
G1 X8.1707
G1 Y7.36605
G3 X8.12635 Y8.37453 I-11.41465 J0.00317
G3 X8.07528 Y8.80732 I-4.67484 J-0.33225
G3 X7.9059 Y9.39749 I-2.43673 J-0.37994
G3 X7.90203 Y9.40643 I-0.99293 J-0.42483
G3 X7.02828 Y10.31378 I-1.66742 J-0.73129
G3 X6.98548 Y10.33338 I-0.47078 J-0.97199
G3 X6.91543 Y10.36236 I-0.99551 J-2.3065
G1 F300.0 X6.87776 Y10.84088
G2 F800.0 X7.06997 Y10.8473 I0.16715 J-2.12307
G3 X7.08687 Y10.84734 I0.00706 J0.59996
G2 X7.85321 Y10.71937 I0.03521 J-2.14764
G2 X8.41109 Y10.32147 I-0.48076 J-1.2641
G2 X8.7874 Y9.54834 I-1.48669 J-1.20177
G3 X8.78823 Y9.54477 I0.58472 J0.13453
G2 X8.89699 Y8.56266 I-3.95199 J-0.93473
G3 X8.89695 Y8.55566 I0.59996 J-0.007
G1 Y4.15859
G1 X7.6907
G1 Y7.36612
G3 X7.64784 Y8.33644 I-10.93465 J0.00311
G3 X7.60134 Y8.73123 I-4.19634 J-0.29416
G3 X7.4646 Y9.20867 I-1.96279 J-0.30385
G3 X7.46245 Y9.21364 I-0.55163 J-0.23602
G3 X6.81905 Y9.88179 I-1.22784 J-0.5385
G3 X6.79527 Y9.89267 I-0.26154 J-0.53999
G3 X5.92216 Y10.05791 I-0.8053 J-1.8658
G3 X5.13093 Y9.91076 I0.02467 J-2.33349
G3 X5.1246 Y9.90836 I0.20978 J-0.56213
G3 X4.3467 Y9.48631 I1.2423 J-3.21763
G3 X4.09813 Y9.0 I0.35143 J-0.48631
G1 Y4.15859
G1 X2.90555
G1 Y13.59531
G1 X4.09813
G1 Y10.38769
G3 X5.09161 Y9.93474 I0.6 J0.0
G2 X6.11124 Y10.63187 I3.51305 J-4.04396
G2 X6.87776 Y10.84088 I0.93367 J-1.91406
G0 Z3.0
G0 X12.34746
G0 Z1.0
G1 F300.0 Z-1.2
G1 F800.0 Y13.11531
G1 X12.58004
G1 Y4.63859
G1 X12.34746
G1 Y10.84088
G1 F300.0 X11.86746
G1 F800.0 Y13.59531
G1 X13.06004
G1 Y4.15859
G1 X11.86746
G1 Y10.84088
G0 Z3.0
G0 X11.51558 Y-7.16892
G0 Z1.0
G1 F300.0 Z-1.2
G3 F800.0 X11.40437 Y-7.71963 I1.40141 J-0.56959
G3 X11.95946 Y-8.97164 I1.58937 J-0.04439
G3 X12.03696 Y-9.03213 I0.70253 J0.82027
G3 X12.71145 Y-9.36313 I1.35658 J1.91162
G3 X12.76237 Y-9.3795 I1.82536 J5.59047
G2 X12.18283 Y-9.23237 I1.10178 J5.5548
G3 X12.17383 Y-9.22962 I-0.32064 J-1.0313
G2 X11.65508 Y-9.00781 I0.73266 J2.43101
G3 X11.65347 Y-9.0069 I-0.5323 J-0.93971
G2 X11.33349 Y-8.74713 I0.60482 J1.072
G2 X11.1906 Y-8.46343 I0.65082 J0.50561
G2 X11.1306 Y-7.99878 I1.63015 J0.4467
G3 X11.13065 Y-7.9823 I-1.07994 J0.01147
G2 X11.23868 Y-7.52679 I0.99493 J0.00461
G2 X11.51558 Y-7.16892 I1.24437 J-0.67676
G0 Z3.0
G0 X13.97607 Y-9.66357
G0 Z1.0
G1 F300.0 Z-1.2
G2 F800.0 X14.57145 Y-9.81234 I-0.69264 J-4.03759
G3 X14.58822 Y-9.81774 I0.33957 J1.02523
G2 X15.04563 Y-10.02073 I-0.65674 J-2.09683
G3 X15.04632 Y-10.02113 I0.54763 J0.93086
G2 X15.33084 Y-10.26287 I-0.5484 J-0.93375
G2 X15.45828 Y-10.50639 I-0.5083 J-0.42111
G2 X15.51272 Y-10.92834 I-1.47514 J-0.40483
G3 X15.51266 Y-10.94086 I1.07993 J-0.01209
G2 X15.38272 Y-11.47213 I-1.14912 J-0.00046
G2 X15.14902 Y-11.78564 I-1.10721 J0.58148
G3 X15.23915 Y-11.27624 I-1.45457 J0.52004
G3 X14.65918 Y-10.01079 I-1.55897 J0.05114
G3 X14.58555 Y-9.9564 I-0.67786 J-0.84078
G3 X13.97607 Y-9.66357 I-1.30157 J-1.92829
G1 F300.0 X14.05723 Y-9.19048
G2 F800.0 X14.72237 Y-9.35668 I-0.77379 J-4.51068
G3 X14.73168 Y-9.35968 I0.18865 J0.56957
G2 X15.28902 Y-9.60701 I-0.80021 J-2.55489
G3 X15.2894 Y-9.60723 I0.30424 J0.51715
G2 X15.70025 Y-9.95638 I-0.79148 J-1.34764
G2 X15.92089 Y-10.37838 I-0.87771 J-0.7276
G2 X15.99269 Y-10.93372 I-1.93775 J-0.53285
G3 X15.99266 Y-10.94067 I0.59996 J-0.00672
G2 X15.80806 Y-11.69458 I-1.62912 J-0.00065
G2 X15.27532 Y-12.30323 I-1.53255 J0.80393
G3 X15.27179 Y-12.30575 I0.34663 J-0.48974
G2 X14.2993 Y-12.77539 I-1.8279 J2.54337
G2 X12.878 Y-12.95186 I-1.32893 J4.89134
G3 X12.86402 Y-12.95177 I-0.01093 J-0.5999
G2 X11.39967 Y-12.78352 I-0.03147 J6.18286
G3 X11.39475 Y-12.78237 I-0.13905 J-0.58367
G2 X10.61649 Y-12.54222 I1.23364 J5.37894
G1 Y-11.9078
G3 X10.97133 Y-12.07769 I1.95087 J3.6192
G3 X11.80714 Y-12.3807 I2.26081 J4.93197
G3 X11.81916 Y-12.38384 I0.15759 J0.57893
G3 X12.87739 Y-12.51117 I1.03457 J4.13702
G3 X13.98192 Y-12.31503 I0.04793 J2.93818
G3 X14.4871 Y-11.97625 I-0.45966 J1.23147
G3 X14.50144 Y-11.96018 I-0.44041 J0.40748
G3 X14.75919 Y-11.26672 I-0.80699 J0.69458
G3 X14.35792 Y-10.38447 I-1.07901 J0.04163
G3 X14.31701 Y-10.35425 I-0.37659 J-0.4671
G3 X13.82932 Y-10.12061 I-1.03303 J-1.53044
G3 X13.42976 Y-10.00809 I-1.48459 J-4.50609
G3 X12.70861 Y-9.85805 I-2.75204 J-11.41975
G2 X12.04032 Y-9.69073 I1.15553 J6.03335
G3 X12.03532 Y-9.6892 I-0.17814 J-0.57295
G2 X11.4185 Y-9.42546 I0.87117 J2.89059
G3 X11.41761 Y-9.42495 I-0.29572 J-0.52206
G2 X10.96365 Y-9.05334 I0.84068 J1.49005
G2 X10.72798 Y-8.59142 I1.02065 J0.81182
G2 X10.65063 Y-7.99368 I2.09278 J0.57469
G3 X10.65066 Y-7.98453 I-0.59997 J0.00637
G2 X10.81391 Y-7.30317 I1.47493 J0.00684
G2 X11.33833 Y-6.6915 I1.66913 J-0.90038
G2 X12.27423 Y-6.23285 I1.76291 J-2.41313
G2 X13.62511 Y-6.05113 I1.29178 J-4.49089
G3 X13.63772 Y-6.05115 I0.00759 J0.59995
G2 X14.98008 Y-6.19962 I0.04785 J-5.71018
G3 X14.98839 Y-6.20149 I0.13602 J0.58438
G2 X15.6577 Y-6.39777 I-1.04943 J-4.81773
G1 Y-6.98476
G3 X15.40964 Y-6.86198 I-2.5615 J-4.86338
G3 X15.40095 Y-6.85804 I-0.25253 J-0.54427
G3 X14.61715 Y-6.59646 I-1.74429 J-3.92165
G3 X13.72899 Y-6.49179 I-0.88936 J-3.726
G3 X12.59226 Y-6.72294 I-0.06227 J-2.60438
G3 X12.58485 Y-6.72636 I0.24746 J-0.54659
G3 X12.14737 Y-7.0499 I0.58739 J-1.25178
G3 X12.14159 Y-7.05638 I0.44471 J-0.40278
G3 X11.88429 Y-7.72931 I0.7754 J-0.68213
G3 X12.2717 Y-8.60708 I1.10944 J-0.03472
G3 X12.31475 Y-8.64068 I0.39029 J0.45571
G3 X12.85563 Y-8.90527 I1.07879 J1.52017
G3 X13.29538 Y-9.02898 I1.68118 J5.13261
G3 X14.02832 Y-9.18549 I3.42204 J14.23048
G3 X14.03944 Y-9.18746 I0.11024 J0.58979
G2 X14.05723 Y-9.19048 I-0.75601 J-4.51369
G0 Z3.0
G0 X8.21637 Y-8.87606
G0 Z1.0
G1 F300.0 Z-1.2
G1 F800.0 X7.95668
G3 X8.01922 Y-8.49642 I-1.01637 J0.36238
G3 X7.90487 Y-7.6417 I-3.69307 J-0.05906
G3 X7.8206 Y-7.37192 I-2.4138 J-0.60596
G2 X8.07196 Y-7.93474 I-1.70002 J-1.09679
G3 X8.07212 Y-7.93532 I1.0417 J0.28505
G2 X8.21637 Y-8.87606 I-3.98201 J-1.09205
G0 Z3.0
G0 X3.24887 Y-9.23795
G0 Z1.0
G1 F300.0 Z-1.2
G3 F800.0 X2.97634 Y-9.99733 I0.80668 J-0.7181
G3 X3.31116 Y-11.3265 I3.3078 J0.12651
G3 X3.32465 Y-11.3531 I0.96997 J0.47493
G3 X3.56293 Y-11.7274 I2.34312 J1.22862
G2 X3.52712 Y-11.697 I1.77776 J2.12949
G2 X2.93047 Y-10.79942 I1.47774 J1.62941
G2 X2.73601 Y-9.56234 I3.48152 J1.1811
G3 X2.73605 Y-9.53221 I-1.07987 J0.01644
G2 X2.92464 Y-8.27189 I3.96917 J0.05032
G2 X3.02116 Y-8.0237 I2.44773 J-0.80907
G3 X2.97082 Y-8.46391 I3.21927 J-0.59116
G3 X3.24887 Y-9.23795 I1.07789 J-0.04976
G1 F300.0 X3.60739 Y-9.55711
G3 F800.0 X3.45599 Y-9.97899 I0.44815 J-0.39895
G3 X3.74226 Y-11.11542 I2.82816 J0.10816
G3 X3.74975 Y-11.1302 I0.53887 J0.26385
G3 X4.44947 Y-11.91501 I1.91802 J1.00571
G3 X4.45186 Y-11.91663 I0.33753 J0.49606
G3 X5.37551 Y-12.31248 I1.50357 J2.23281
G3 X5.38252 Y-12.31398 I0.12926 J0.58591
G3 X6.40224 Y-12.41543 I0.98657 J4.74073
G3 X7.34957 Y-12.31254 I0.00124 J4.40095
G3 X7.35589 Y-12.31111 I-0.12899 J0.58597
G3 X8.2004 Y-12.02971 I-1.06735 J4.61114
G3 X8.56199 Y-11.85441 I-2.08751 J4.76653
G1 Y-12.50362
G3 X8.40237 Y-12.56943 I12.07192 J-29.50285
G2 X7.82519 Y-12.74126 I-1.61543 J4.37124
G3 X7.80696 Y-12.74572 I0.13368 J-0.58492
G2 X7.07502 Y-12.88839 I-1.48839 J5.68717
G3 X7.07282 Y-12.88868 I0.07721 J-0.59501
G2 X6.15361 Y-12.94496 I-0.85201 J6.3812
G3 X6.13992 Y-12.94497 I-0.00626 J-0.59997
G2 X4.53456 Y-12.75049 I-0.07553 J6.09969
G3 X4.53301 Y-12.7501 I-0.15047 J-0.58083
G2 X3.20899 Y-12.05646 I0.80767 J3.15218
G2 X2.47683 Y-10.95632 I1.79588 J1.98888
G2 X2.25606 Y-9.55504 I3.93516 J1.33801
G3 X2.25609 Y-9.5383 I-0.59993 J0.00913
G2 X2.46817 Y-8.12344 I4.44913 J0.0564
G2 X3.16805 Y-6.96148 I2.90421 J-0.95752
G2 X4.31683 Y-6.23928 I2.04654 J-1.98059
G2 X5.74921 Y-6.02377 I1.36945 J-4.23421
G3 X5.76661 Y-6.02376 I0.00848 J0.59994
G2 X7.01149 Y-6.19599 I0.06151 J-4.14054
G2 X7.97144 Y-6.78351 I-0.63392 J-2.11377
G2 X8.53494 Y-7.80805 I-1.85086 J-1.6852
G3 X8.53503 Y-7.80837 I0.57872 J0.15836
G2 X8.69876 Y-9.08697 I-4.44492 J-1.219
G3 X8.69871 Y-9.09473 I0.59995 J-0.00776
G1 Y-9.35606
G1 X4.05555
G3 X3.60739 Y-9.55711 I0.0 J-0.6
G1 F300.0 X3.81499 Y-9.06628
G3 F800.0 X4.04871 Y-9.11367 I0.23372 J0.55261
G1 X6.94031
G3 X7.54024 Y-8.50408 I0.0 J0.6
G3 X7.44048 Y-7.75926 I-3.21409 J-0.0514
G3 X7.05039 Y-6.9799 I-1.94941 J-0.4884
G3 X7.04516 Y-6.97355 I-0.46555 J-0.3785
G3 X6.31326 Y-6.47546 I-1.24221 J-1.03855
G3 X6.31045 Y-6.47454 I-0.1891 J-0.56942
G3 X5.57235 Y-6.36186 I-0.70903 J-2.17083
G3 X4.79017 Y-6.48627 I-0.02419 J-2.36889
G3 X4.78525 Y-6.48796 I0.19197 J-0.56846
G3 X4.04438 Y-6.96566 I0.61268 J-1.76358
G3 X4.03877 Y-6.97165 I0.435 J-0.41325
G3 X3.59585 Y-7.71325 I1.53812 J-1.4217
G3 X3.59532 Y-7.71479 I0.56749 J-0.19482
G3 X3.44935 Y-8.486 I2.64511 J-0.90007
G3 X3.81499 Y-9.06628 I0.59936 J-0.02767
G0 Z3.0
G0 X-0.09613 Y-8.87606
G0 Z1.0
G1 F300.0 Z-1.2
G1 F800.0 X-0.35582
G3 X-0.29328 Y-8.49642 I-1.01637 J0.36238
G3 X-0.40763 Y-7.6417 I-3.69307 J-0.05906
G3 X-0.4919 Y-7.37192 I-2.4138 J-0.60596
G2 X-0.24054 Y-7.93474 I-1.70002 J-1.09679
G3 X-0.24038 Y-7.93532 I1.0417 J0.28505
G2 X-0.09613 Y-8.87606 I-3.98201 J-1.09205
G0 Z3.0
G0 X-5.06363 Y-9.23795
G0 Z1.0
G1 F300.0 Z-1.2
G3 F800.0 X-5.33616 Y-9.99733 I0.80668 J-0.7181
G3 X-5.00134 Y-11.3265 I3.3078 J0.12651
G3 X-4.98785 Y-11.3531 I0.96997 J0.47493
G3 X-4.74957 Y-11.7274 I2.34312 J1.22862
G2 X-4.78538 Y-11.697 I1.77776 J2.12949
G2 X-5.38203 Y-10.79942 I1.47774 J1.62941
G2 X-5.57649 Y-9.56234 I3.48152 J1.1811
G3 X-5.57645 Y-9.53221 I-1.07987 J0.01644
G2 X-5.38786 Y-8.27189 I3.96917 J0.05032
G2 X-5.29134 Y-8.0237 I2.44773 J-0.80907
G3 X-5.34168 Y-8.46391 I3.21927 J-0.59116
G3 X-5.06363 Y-9.23795 I1.07789 J-0.04976
G1 F300.0 X-4.70511 Y-9.55711
G3 F800.0 X-4.85651 Y-9.97899 I0.44815 J-0.39895
G3 X-4.57024 Y-11.11542 I2.82816 J0.10816
G3 X-4.56275 Y-11.1302 I0.53887 J0.26385
G3 X-3.86303 Y-11.91501 I1.91802 J1.00571
G3 X-3.86064 Y-11.91663 I0.33753 J0.49606
G3 X-2.93699 Y-12.31248 I1.50357 J2.23281
G3 X-2.92998 Y-12.31398 I0.12926 J0.58591
G3 X-1.91026 Y-12.41543 I0.98657 J4.74073
G3 X-0.96293 Y-12.31254 I0.00124 J4.40095
G3 X-0.95661 Y-12.31111 I-0.12899 J0.58597
G3 X-0.1121 Y-12.02971 I-1.06735 J4.61114
G3 X0.24949 Y-11.85441 I-2.08751 J4.76653
G1 Y-12.50362
G3 X0.08987 Y-12.56943 I12.07192 J-29.50285
G2 X-0.48731 Y-12.74126 I-1.61543 J4.37124
G3 X-0.50554 Y-12.74572 I0.13368 J-0.58492
G2 X-1.23748 Y-12.88839 I-1.48839 J5.68717
G3 X-1.23968 Y-12.88868 I0.07721 J-0.59501
G2 X-2.15889 Y-12.94496 I-0.85201 J6.3812
G3 X-2.17258 Y-12.94497 I-0.00626 J-0.59997
G2 X-3.77794 Y-12.75049 I-0.07553 J6.09969
G3 X-3.77949 Y-12.7501 I-0.15047 J-0.58083
G2 X-5.10351 Y-12.05646 I0.80767 J3.15218
G2 X-5.83567 Y-10.95632 I1.79588 J1.98888
G2 X-6.05644 Y-9.55504 I3.93516 J1.33801
G3 X-6.05641 Y-9.5383 I-0.59993 J0.00913
G2 X-5.84433 Y-8.12344 I4.44913 J0.0564
G2 X-5.14445 Y-6.96148 I2.90421 J-0.95752
G2 X-3.99567 Y-6.23928 I2.04654 J-1.98059
G2 X-2.56329 Y-6.02377 I1.36945 J-4.23421
G3 X-2.54589 Y-6.02376 I0.00848 J0.59994
G2 X-1.30101 Y-6.19599 I0.06151 J-4.14054
G2 X-0.34106 Y-6.78351 I-0.63392 J-2.11377
G2 X0.22244 Y-7.80805 I-1.85086 J-1.6852
G3 X0.22253 Y-7.80837 I0.57872 J0.15836
G2 X0.38626 Y-9.08697 I-4.44492 J-1.219
G3 X0.38621 Y-9.09473 I0.59995 J-0.00776
G1 Y-9.35606
G1 X-4.25695
G3 X-4.70511 Y-9.55711 I0.0 J-0.6
G1 F300.0 X-4.49751 Y-9.06628
G3 F800.0 X-4.26379 Y-9.11367 I0.23372 J0.55261
G1 X-1.37219
G3 X-0.77226 Y-8.50408 I0.0 J0.6
G3 X-0.87202 Y-7.75926 I-3.21409 J-0.0514
G3 X-1.26211 Y-6.9799 I-1.94941 J-0.4884
G3 X-1.26734 Y-6.97355 I-0.46555 J-0.3785
G3 X-1.99924 Y-6.47546 I-1.24221 J-1.03855
G3 X-2.00205 Y-6.47454 I-0.1891 J-0.56942
G3 X-2.74015 Y-6.36186 I-0.70903 J-2.17083
G3 X-3.52233 Y-6.48627 I-0.02419 J-2.36889
G3 X-3.52725 Y-6.48796 I0.19197 J-0.56846
G3 X-4.26812 Y-6.96566 I0.61268 J-1.76358
G3 X-4.27373 Y-6.97165 I0.435 J-0.41325
G3 X-4.71665 Y-7.71325 I1.53812 J-1.4217
G3 X-4.71718 Y-7.71479 I0.56749 J-0.19482
G3 X-4.86315 Y-8.486 I2.64511 J-0.90007
G3 X-4.49751 Y-9.06628 I0.59936 J-0.02767
G0 Z3.0
G0 X-9.52127 Y-5.96447
G0 Z1.0
G1 F300.0 Z-1.2
G3 F800.0 X-9.74273 Y-5.145 I-2.6549 J-0.27785
G2 X-9.6585 Y-5.26906 I-1.05821 J-0.80907
G2 X-9.56343 Y-5.51834 I-0.70745 J-0.41258
G3 X-9.56288 Y-5.52103 I1.29349 J0.26321
G2 X-9.52125 Y-5.94671 I-1.99261 J-0.40978
G3 X-9.52127 Y-5.96447 I1.31996 J-0.01032
G1 F300.0 X-9.75996 Y-5.98945
G3 F800.0 X-10.0182 Y-5.12645 I-2.4162 J-0.25287
G3 X-10.02813 Y-5.10771 I-0.95848 J-0.49562
G3 X-10.77885 Y-4.32833 I-1.78455 J-0.9677
G2 X-10.72304 Y-4.33702 I-1.16101 J-7.64531
G2 X-9.96598 Y-4.62207 I-0.31883 J-1.99462
G3 X-9.96502 Y-4.62267 I0.57524 J0.91406
G2 X-9.45194 Y-5.14687 I-0.83592 J-1.3314
G2 X-9.32825 Y-5.47048 I-0.91401 J-0.53477
G3 X-9.3278 Y-5.47268 I1.05831 J0.21535
G2 X-9.28126 Y-5.94859 I-2.22769 J-0.45812
G3 X-9.28124 Y-5.96721 I1.07997 J-0.00845
G2 X-9.36455 Y-6.69454 I-2.97189 J-0.02801
G1 X-9.36458 Y-6.69466
G2 X-9.60327 Y-7.22504 I-1.53277 J0.37089
G2 X-10.17257 Y-7.78584 I-2.11808 J1.58083
G3 X-9.96249 Y-7.41201 I-1.84413 J1.28228
G3 X-9.94859 Y-7.37912 I-0.98685 J0.43642
G3 X-9.74697 Y-6.2736 I-2.5861 J1.04279
G3 X-9.75996 Y-5.98945 I-2.4292 J0.03129
G0 Z3.0
G0 X-11.45458 Y-8.95468
G0 Z1.0
G1 F300.0 Z-1.2
G3 F800.0 X-11.45585 Y-9.01708 I1.31872 J-0.05802
G1 X-11.49509 Y-8.96545
G3 X-11.45458 Y-8.95468 I-0.67235 J2.61191
G1 F300.0 X-11.51802 Y-8.72322
G3 F800.0 X-11.12466 Y-8.57834 I-0.64943 J2.36968
G3 X-10.98271 Y-9.68295 I0.9888 J-0.43436
G1 X-8.94318 Y-12.25985
G1 X-9.29257
G1 X-11.80533 Y-8.95389
G3 X-11.94502 Y-8.80257 I-0.85982 J-0.65353
G3 X-11.78866 Y-8.78117 I-0.83939 J6.71716
G3 X-11.77506 Y-8.77906 I-0.15872 J1.0673
G3 X-11.51802 Y-8.72322 I-0.39239 J2.42553
G0 Z3.0
G0 X-14.53093 Y-8.69072
G0 Z1.0
G1 F300.0 Z-1.2
G3 F800.0 X-14.80414 Y-9.11069 I0.94976 J-0.91671
G1 Y-8.26957
G3 X-14.53093 Y-8.69072 I1.22297 J0.49418
G0 Z3.0
G0 X-14.80414 Y-4.54
G0 Z1.0
G1 F300.0 Z-1.2
G1 F800.0 Y-4.48114
G1 X-14.77867
G3 X-14.80414 Y-4.54 I1.1975 J-0.55305
G1 F300.0 X-15.04414
G1 F800.0 Y-4.24114
G1 X-14.31288
G3 X-14.66021 Y-5.03418 I0.73171 J-0.79305
G1 Y-7.77539
G3 X-14.15238 Y-8.69084 I1.07904 J0.0
G3 X-14.66117 Y-9.60742 I0.57121 J-0.91658
G1 Y-12.25985
G1 X-15.04414
G1 Y-4.54
G1 F300.0 X-15.52414
G1 F800.0 Y-3.76114
G1 X-12.02941
G3 X-12.02332 Y-3.7611 I0.0 J0.6
G2 X-10.64739 Y-3.86302 I0.08346 J-8.21254
G2 X-9.71032 Y-4.21582 I-0.39447 J-2.46862
G3 X-9.70978 Y-4.21616 I0.31958 J0.50781
G2 X-9.03887 Y-4.90238 I-1.09116 J-1.73791
G2 X-8.85789 Y-5.37477 I-1.32708 J-0.77926
G3 X-8.85764 Y-5.37599 I0.58795 J0.11964
G2 X-8.80127 Y-5.95234 I-2.69785 J-0.55481
G3 X-8.80126 Y-5.96269 I0.59998 J-0.00469
G2 X-8.89803 Y-6.80748 I-3.45187 J-0.03254
G1 X-8.89805 Y-6.80755
G2 X-9.214 Y-7.50598 I-1.99931 J0.48378
G2 X-10.39138 Y-8.46983 I-2.50734 J1.86177
G3 X-10.60633 Y-9.38506 I0.25552 J-0.54287
G1 X-7.95112 Y-12.73985
G1 X-9.53064
G1 X-12.18747 Y-9.24435
G3 X-12.66516 Y-9.00742 I-0.47768 J-0.36307
G1 X-13.58117
G3 X-14.18117 Y-9.60742 I0.0 J-0.6
G1 Y-12.73985
G1 X-15.52414
G1 Y-4.54
G0 Z3.0
G0 X-14.16266 Y-4.88629
G0 Z1.0
G1 F300.0 Z-1.2
G3 F800.0 X-14.18117 Y-5.03418 I0.58149 J-0.1479
G1 Y-7.77539
G3 X-13.58117 Y-8.37539 I0.6 J0.0
G1 X-12.85308
G3 X-11.85912 Y-8.30734 I0.06867 J6.28999
G3 X-11.85156 Y-8.30617 I-0.08826 J0.59347
G3 X-10.94399 Y-7.90779 I-0.31588 J1.95264
G3 X-10.4006 Y-7.21826 I-1.07271 J1.40423
G3 X-10.39287 Y-7.19997 I-0.54874 J0.24267
G3 X-10.2261 Y-6.27584 I-2.14182 J0.86364
G3 X-10.44371 Y-5.34648 I-1.95007 J0.03352
G3 X-10.44924 Y-5.33606 I-0.53296 J-0.27559
G3 X-11.23568 Y-4.63573 I-1.36344 J-0.73935
G3 X-11.94566 Y-4.46358 I-0.90528 J-2.18344
G3 X-11.94635 Y-4.46352 I-0.04957 J-0.59795
G3 X-12.72869 Y-4.43418 I-0.72375 J-8.85381
G1 X-13.58117
G3 X-14.16266 Y-4.88629 I0.0 J-0.6
G0 Z3.0
M5
M30
