( Made using CamBam - http://www.cambam.co.uk )
( Verweilzeit 4/6/2019 10:48:53 AM )
( T3 : 3.0 )
G21 G90 G64 G40
G0 Z3.0
( T3 : 3.0 )
T3 M6
( Ferien )
G17
M3 S1000
G0 X-137.22588 Y65.55051
G0 Z1.0
G1 F300.0 Z-1.5
G3 F800.0 X-137.97688 Y64.74688 I5.26896 J-5.67666
G3 X-140.11209 Y61.04021 I10.03494 J-8.24891
G3 X-141.23867 Y57.16317 I22.78454 J-8.72286
G3 X-139.12434 Y55.51062 I1.47011 J-0.29793
G1 X-131.62922 Y59.07507
G3 X-131.62208 Y59.07849 I-0.64422 J1.35462
G3 X-128.29311 Y60.8171 I-25.39705 J52.68467
G3 X-125.03693 Y62.99424 I-11.00891 J19.98877
G3 X-124.96196 Y65.27163 I-0.93768 J1.1708
G3 X-128.31884 Y67.14641 I-5.65035 J-6.17448
G3 X-128.32097 Y67.14702 I-0.41103 J-1.44258
G3 X-131.8566 Y67.61829 I-3.39761 J-11.99153
G3 X-137.22588 Y65.55051 I-0.10031 J-7.74444
G0 Z3.0
G0 X-141.16219 Y54.55551
G0 Z1.0
G1 F300.0 Z-1.5
G3 F800.0 X-141.03661 Y54.48425 I1.39363 J2.30973
G3 X-141.15308 Y54.3859 I1.6831 J-2.11121
G2 X-141.16219 Y54.55551 I9.51938 J0.59618
G1 F300.0 X-142.36098 Y54.50184
G2 F800.0 X-142.37031 Y55.15632 I10.72728 J0.48024
G3 X-142.37017 Y55.19355 I-1.4998 J0.02434
G2 X-141.72606 Y60.36419 I19.71627 J0.16936
G2 X-139.57127 Y64.95625 I13.75799 J-3.65424
G3 X-139.55799 Y64.97525 I-1.22268 J0.86895
G2 X-136.22363 Y67.99509 I8.04565 J-5.53287
G2 X-131.88175 Y69.01288 I4.19927 J-8.14393
G3 X-131.84783 Y69.01273 I0.02335 J1.49982
G2 X-128.72879 Y68.75052 I0.12149 J-17.23637
G3 X-128.72267 Y68.74945 I0.26086 J1.47714
G2 X-125.93046 Y67.81274 I-1.64067 J-9.52055
G3 X-125.9171 Y67.80592 I0.68827 J1.33277
G2 X-124.16916 Y66.24138 I-2.02707 J-4.02337
G2 X-123.59236 Y64.0049 I-3.66199 J-2.13707
G3 X-123.59273 Y63.98169 I1.49959 J-0.03517
G2 X-124.14611 Y62.29126 I-2.92989 J0.02336
G2 X-125.69445 Y60.76732 I-5.33484 J3.8717
G2 X-128.05372 Y59.41964 I-11.79258 J17.90539
G3 X-128.07085 Y59.41112 I0.65998 J-1.347
G2 X-130.66199 Y58.15112 I-41.31874 J81.67628
G3 X-130.66963 Y58.14753 I0.63465 J-1.35912
G1 X-139.9958 Y53.72858
G3 X-140.60799 Y51.55068 I0.64228 J-1.35553
G3 X-136.64504 Y47.98687 I8.73103 J5.7236
G3 X-136.60561 Y47.96736 I0.68508 J1.33442
G3 X-131.16819 Y46.79622 I5.18809 J10.8794
G3 X-131.15875 Y46.79644 I-0.03103 J1.49968
G3 X-126.83435 Y47.48757 I-0.45054 J16.69347
G3 X-124.59172 Y48.31449 I-3.47516 J12.87931
G3 X-122.3232 Y50.14376 I-2.30568 J5.18057
G3 X-122.24917 Y50.25487 I-1.21 J0.88651
G2 X-121.80024 Y50.79957 I2.07607 J-1.2537
G3 X-121.77984 Y50.81837 I-1.00638 J1.1123
G2 X-121.72204 Y50.84753 I0.07835 J-0.08344
G2 X-121.332 Y50.66395 I-0.03605 J-0.58274
G3 X-121.21774 Y50.55423 I1.09469 J1.0255
G2 X-121.05372 Y50.19919 I-0.30955 J-0.35842
G2 X-121.28504 Y49.32028 I-1.81033 J0.00656
G2 X-122.55945 Y48.0021 I-3.62607 J2.23054
G3 X-122.57948 Y47.98859 I0.8286 J-1.25037
G2 X-124.52212 Y46.91263 I-6.58535 J9.59807
G3 X-124.55506 Y46.89783 I0.59829 J-1.37552
G2 X-131.21789 Y45.37684 I-6.90094 J14.87616
G2 X-135.50976 Y45.92854 I-0.16283 J15.70313
G2 X-139.19677 Y47.80629 I2.73491 J9.92871
G2 X-141.61905 Y51.03265 I5.13395 J6.37694
G2 X-142.36098 Y54.50184 I9.98535 J3.94943
G1 F300.0 X-141.16219 Y54.55551
G1 Z-3.0
G3 F800.0 X-141.03661 Y54.48425 I1.39363 J2.30973
G3 X-141.15308 Y54.3859 I1.6831 J-2.11121
G2 X-141.16219 Y54.55551 I9.51938 J0.59618
G1 F300.0 X-142.36098 Y54.50184
G2 F800.0 X-142.37031 Y55.15632 I10.72728 J0.48024
G3 X-142.37017 Y55.19355 I-1.4998 J0.02434
G2 X-141.72606 Y60.36419 I19.71627 J0.16936
G2 X-139.57127 Y64.95625 I13.75799 J-3.65424
G3 X-139.55799 Y64.97525 I-1.22268 J0.86895
G2 X-136.22363 Y67.99509 I8.04565 J-5.53287
G2 X-131.88175 Y69.01288 I4.19927 J-8.14393
G3 X-131.84783 Y69.01273 I0.02335 J1.49982
G2 X-128.72879 Y68.75052 I0.12149 J-17.23637
G3 X-128.72267 Y68.74945 I0.26086 J1.47714
G2 X-125.93046 Y67.81274 I-1.64067 J-9.52055
G3 X-125.9171 Y67.80592 I0.68827 J1.33277
G2 X-124.16916 Y66.24138 I-2.02707 J-4.02337
G2 X-123.59236 Y64.0049 I-3.66199 J-2.13707
G3 X-123.59273 Y63.98169 I1.49959 J-0.03517
G2 X-124.14611 Y62.29126 I-2.92989 J0.02336
G2 X-125.69445 Y60.76732 I-5.33484 J3.8717
G2 X-128.05372 Y59.41964 I-11.79258 J17.90539
G3 X-128.07085 Y59.41112 I0.65998 J-1.347
G2 X-130.66199 Y58.15112 I-41.31874 J81.67628
G3 X-130.66963 Y58.14753 I0.63465 J-1.35912
G1 X-139.9958 Y53.72858
G3 X-140.60799 Y51.55068 I0.64228 J-1.35553
G3 X-136.64504 Y47.98687 I8.73103 J5.7236
G3 X-136.60561 Y47.96736 I0.68508 J1.33442
G3 X-131.16819 Y46.79622 I5.18809 J10.8794
G3 X-131.15875 Y46.79644 I-0.03103 J1.49968
G3 X-126.83435 Y47.48757 I-0.45054 J16.69347
G3 X-124.59172 Y48.31449 I-3.47516 J12.87931
G3 X-122.3232 Y50.14376 I-2.30568 J5.18057
G3 X-122.24917 Y50.25487 I-1.21 J0.88651
G2 X-121.80024 Y50.79957 I2.07607 J-1.2537
G3 X-121.77984 Y50.81837 I-1.00638 J1.1123
G2 X-121.72204 Y50.84753 I0.07835 J-0.08344
G2 X-121.332 Y50.66395 I-0.03605 J-0.58274
G3 X-121.21774 Y50.55423 I1.09469 J1.0255
G2 X-121.05372 Y50.19919 I-0.30955 J-0.35842
G2 X-121.28504 Y49.32028 I-1.81033 J0.00656
G2 X-122.55945 Y48.0021 I-3.62607 J2.23054
G3 X-122.57948 Y47.98859 I0.8286 J-1.25037
G2 X-124.52212 Y46.91263 I-6.58535 J9.59807
G3 X-124.55506 Y46.89783 I0.59829 J-1.37552
G2 X-131.21789 Y45.37684 I-6.90094 J14.87616
G2 X-135.50976 Y45.92854 I-0.16283 J15.70313
G2 X-139.19677 Y47.80629 I2.73491 J9.92871
G2 X-141.61905 Y51.03265 I5.13395 J6.37694
G2 X-142.36098 Y54.50184 I9.98535 J3.94943
G1 F300.0 X-140.87705 Y55.85467
G3 F800.0 X-139.12434 Y55.51062 I1.1085 J1.01056
G1 X-131.62922 Y59.07507
G3 X-131.62208 Y59.07849 I-0.64422 J1.35462
G3 X-128.29311 Y60.8171 I-25.39705 J52.68467
G3 X-125.03693 Y62.99424 I-11.00891 J19.98877
G3 X-124.96196 Y65.27163 I-0.93768 J1.1708
G3 X-128.31884 Y67.14641 I-5.65035 J-6.17448
G3 X-128.32097 Y67.14702 I-0.41103 J-1.44258
G3 X-131.8566 Y67.61829 I-3.39761 J-11.99153
G3 X-137.97688 Y64.74688 I-0.10031 J-7.74444
G3 X-140.11209 Y61.04021 I10.03494 J-8.24891
G3 X-141.23867 Y57.16317 I22.78454 J-8.72286
G3 X-140.87705 Y55.85467 I1.47011 J-0.29793
G0 Z3.0
G0 X-167.71619 Y64.31297
G0 Z1.0
G1 F300.0 Z-1.5
G3 F800.0 X-167.72975 Y64.30938 I20.01805 J-75.70432
G3 X-169.16595 Y63.36246 I0.69069 J-2.61016
G3 X-169.13428 Y65.3242 I-828.08918 J14.3493
G3 X-167.71619 Y64.31297 I2.19287 J1.57522
G0 Z3.0
G0 X-169.11778 Y78.97549
G0 Z1.0
G1 F300.0 Z-1.5
G2 F800.0 X-169.12291 Y79.91355 I386.22944 J2.57912
G3 X-168.39738 Y79.68807 I1.15611 J2.43996
G3 X-169.11778 Y78.97549 I1.5048 J-2.24178
G1 F300.0 X-168.1288 Y78.29585
G3 F800.0 X-168.39256 Y77.45323 I1.23622 J-0.84956
G1 X-168.44139 Y66.90636
G3 X-166.55311 Y65.45054 I1.49998 J-0.00694
G2 X-163.14225 Y66.24711 I13.9872 J-52.19179
G3 X-163.12513 Y66.25063 I-0.2936 J1.47098
G2 X-159.84096 Y66.64448 I3.84132 J-18.14156
G2 X-152.23886 Y66.21425 I-0.17116 J-70.40314
G3 X-152.14805 Y66.20694 I0.16562 J1.49083
G2 X-151.46087 Y65.94216 I-0.05875 J-1.17654
G2 X-151.27576 Y65.3025 I-0.81109 J-0.58134
G3 X-151.27768 Y65.17111 I1.49744 J-0.08766
G2 X-151.5595 Y64.4319 I-1.03147 J-0.03009
G2 X-152.20636 Y64.17531 I-0.6245 J0.63068
G3 X-152.21367 Y64.17547 I-0.03778 J-1.49952
G2 X-155.91054 Y64.38875 I1.00828 J49.62309
G1 X-155.91055
G3 X-159.83084 Y64.61492 I-4.99032 J-52.40994
G3 X-159.91659 Y64.61422 I-0.03049 J-1.49969
G3 X-161.96027 Y64.38439 I0.50461 J-13.68861
G3 X-167.42278 Y63.14931 I14.26213 J-75.77574
G3 X-168.53893 Y61.71884 I0.38372 J-1.45009
G1 X-168.75866 Y44.92196
G3 X-168.75824 Y44.86169 I1.49987 J-0.01962
G2 X-169.02041 Y44.18754 I-0.93281 J-0.02529
G3 X-169.04657 Y44.1598 I1.07802 J-1.04301
G2 X-169.63413 Y43.91153 I-0.5662 J0.5206
G3 X-169.71036 Y43.91171 I-0.04165 J-1.49942
G2 X-170.34444 Y44.17591 I-0.01951 J0.84618
G3 X-170.35558 Y44.18755 I-1.08915 J-1.03138
G2 X-170.61774 Y44.86167 I0.67059 J0.64882
G3 X-170.6172 Y44.89611 I-1.49945 J0.04067
G2 X-170.44662 Y59.29971 I936.78472 J-3.89176
G3 X-170.25099 Y73.77704 I-826.80851 J18.41205
G3 X-170.251 Y73.7925 I-1.49998 J0.00714
G3 X-170.30002 Y77.03414 I-169.33857 J-0.93963
G2 X-170.32423 Y80.25892 I387.41168 J4.52047
G3 X-170.32482 Y80.29629 I-1.49999 J-0.00502
G2 X-170.05611 Y81.05015 I1.10426 J0.03121
G2 X-169.45573 Y81.29375 I0.57455 J-0.55438
G3 X-169.38685 Y81.29311 I0.04851 J1.49922
G2 X-168.82094 Y81.12046 I0.01318 J-0.97058
G3 X-167.69922 Y80.87757 I0.85415 J1.23306
G2 X-162.3642 Y81.64314 I13.05863 J-72.03037
G3 X-162.34715 Y81.64505 I-0.15826 J1.49163
G2 X-158.28069 Y81.9032 I4.43251 J-37.66522
G2 X-152.19874 Y81.13792 I-0.51939 J-28.67844
G3 X-152.16961 Y81.13134 I0.34522 J1.45973
G2 X-149.59911 Y80.34456 I-3.34789 J-15.53038
G2 X-148.61774 Y79.79285 I-1.63006 J-4.04818
G2 X-148.44652 Y79.61744 I-0.54932 J-0.70748
G2 X-148.71771 Y78.91335 I-1.1206 J0.02734
G3 X-148.76866 Y78.85086 I1.13665 J-0.97878
G2 X-149.31959 Y78.58 I-0.55111 J0.42521
G2 X-149.68598 Y78.65846 I0.02473 J1.01012
G3 X-149.76804 Y78.69011 I-0.58062 J-1.38307
G3 X-154.05567 Y79.66602 I-6.36732 J-18.06803
G3 X-158.28197 Y79.89842 I-4.04847 J-35.07806
G3 X-158.28947 Y79.89836 I0.00755 J-1.49998
G3 X-162.22765 Y79.64476 I0.3651 J-36.37511
G3 X-167.16663 Y78.92104 I6.98908 J-64.91097
G3 X-168.1288 Y78.29585 I0.27406 J-1.47475
G1 F300.0 X-169.11778 Y78.97549
G1 Z-3.0
G2 F800.0 X-169.12291 Y79.91355 I386.22944 J2.57912
G3 X-168.39738 Y79.68807 I1.15611 J2.43996
G3 X-169.11778 Y78.97549 I1.5048 J-2.24178
G0 Z3.0
G0 X-169.13428 Y65.3242
G0 Z-0.5
G1 F300.0 Z-3.0
G3 F800.0 X-167.71619 Y64.31297 I2.19287 J1.57522
G3 X-167.72975 Y64.30938 I20.01805 J-75.70432
G3 X-169.16595 Y63.36246 I0.69069 J-2.61016
G3 X-169.13428 Y65.3242 I-828.08918 J14.3493
G1 F300.0 X-168.15967 Y66.02429
G3 F800.0 X-166.55311 Y65.45054 I1.21826 J0.87512
G2 X-163.14225 Y66.24711 I13.9872 J-52.19179
G3 X-163.12513 Y66.25063 I-0.2936 J1.47098
G2 X-159.84096 Y66.64448 I3.84132 J-18.14156
G2 X-152.23886 Y66.21425 I-0.17116 J-70.40314
G3 X-152.14805 Y66.20694 I0.16562 J1.49083
G2 X-151.46087 Y65.94216 I-0.05875 J-1.17654
G2 X-151.27576 Y65.3025 I-0.81109 J-0.58134
G3 X-151.27768 Y65.17111 I1.49744 J-0.08766
G2 X-151.5595 Y64.4319 I-1.03147 J-0.03009
G2 X-152.20636 Y64.17531 I-0.6245 J0.63068
G3 X-152.21367 Y64.17547 I-0.03778 J-1.49952
G2 X-155.91054 Y64.38875 I1.00828 J49.62309
G1 X-155.91055
G3 X-159.83084 Y64.61492 I-4.99032 J-52.40994
G3 X-159.91659 Y64.61422 I-0.03049 J-1.49969
G3 X-161.96027 Y64.38439 I0.50461 J-13.68861
G3 X-167.42278 Y63.14931 I14.26213 J-75.77574
G3 X-168.53893 Y61.71884 I0.38372 J-1.45009
G1 X-168.75866 Y44.92196
G3 X-168.75824 Y44.86169 I1.49987 J-0.01962
G2 X-169.02041 Y44.18754 I-0.93281 J-0.02529
G3 X-169.04657 Y44.1598 I1.07802 J-1.04301
G2 X-169.63413 Y43.91153 I-0.5662 J0.5206
G3 X-169.71036 Y43.91171 I-0.04165 J-1.49942
G2 X-170.34444 Y44.17591 I-0.01951 J0.84618
G3 X-170.35558 Y44.18755 I-1.08915 J-1.03138
G2 X-170.61774 Y44.86167 I0.67059 J0.64882
G3 X-170.6172 Y44.89611 I-1.49945 J0.04067
G2 X-170.44662 Y59.29971 I936.78472 J-3.89176
G3 X-170.25099 Y73.77704 I-826.80851 J18.41205
G3 X-170.251 Y73.7925 I-1.49998 J0.00714
G3 X-170.30002 Y77.03414 I-169.33857 J-0.93963
G2 X-170.32423 Y80.25892 I387.41168 J4.52047
G3 X-170.32482 Y80.29629 I-1.49999 J-0.00502
G2 X-170.05611 Y81.05015 I1.10426 J0.03121
G2 X-169.45573 Y81.29375 I0.57455 J-0.55438
G3 X-169.38685 Y81.29311 I0.04851 J1.49922
G2 X-168.82094 Y81.12046 I0.01318 J-0.97058
G3 X-167.69922 Y80.87757 I0.85415 J1.23306
G2 X-162.3642 Y81.64314 I13.05863 J-72.03037
G3 X-162.34715 Y81.64505 I-0.15826 J1.49163
G2 X-158.28069 Y81.9032 I4.43251 J-37.66522
G2 X-152.19874 Y81.13792 I-0.51939 J-28.67844
G3 X-152.16961 Y81.13134 I0.34522 J1.45973
G2 X-149.59911 Y80.34456 I-3.34789 J-15.53038
G2 X-148.61774 Y79.79285 I-1.63006 J-4.04818
G2 X-148.44652 Y79.61744 I-0.54932 J-0.70748
G2 X-148.71771 Y78.91335 I-1.1206 J0.02734
G3 X-148.76866 Y78.85086 I1.13665 J-0.97878
G2 X-149.31959 Y78.58 I-0.55111 J0.42521
G2 X-149.68598 Y78.65846 I0.02473 J1.01012
G3 X-149.76804 Y78.69011 I-0.58062 J-1.38307
G3 X-154.05567 Y79.66602 I-6.36732 J-18.06803
G3 X-158.28197 Y79.89842 I-4.04847 J-35.07806
G3 X-158.28947 Y79.89836 I0.00755 J-1.49998
G3 X-162.22765 Y79.64476 I0.3651 J-36.37511
G3 X-167.16663 Y78.92104 I6.98908 J-64.91097
G3 X-168.39256 Y77.45323 I0.27406 J-1.47475
G1 X-168.44139 Y66.90636
G3 X-168.15967 Y66.02429 I1.49998 J-0.00694
G0 Z3.0
G0 X-112.48681 Y64.3655
G0 Z1.0
G1 F300.0 Z-1.5
G3 F800.0 X-111.23839 Y63.613 I1.9663 J1.85032
G3 X-111.39105 Y63.40355 I9.9724 J-7.42864
G3 X-112.50801 Y61.62413 I14.23128 J-10.1734
G1 Y62.95904
G2 X-112.48681 Y64.3655 I89.87286 J-0.65146
G1 F300.0 X-111.6129 Y65.18787
G3 F800.0 X-109.46694 Y65.14811 I1.09239 J1.02795
G2 X-105.14559 Y68.15373 I10.86239 J-11.00817
G2 X-100.12449 Y69.23243 I4.9859 J-10.98283
G3 X-100.08921 Y69.23274 I0.00438 J1.49999
G2 X-99.08494 Y69.02891 I0.04819 J-2.33855
G2 X-98.43905 Y68.44963 I-0.73991 J-1.47471
G2 X-97.8546 Y66.83702 I-3.76688 J-2.27743
G3 X-97.85112 Y66.81534 I1.48279 J0.22655
G2 X-97.68939 Y64.76429 I-11.60062 J-1.94662
G3 X-97.68943 Y64.7421 I1.49994 J-0.01332
G2 X-97.71298 Y63.09371 I-40.80137 J-0.24148
G3 X-97.71372 Y63.06328 I1.49911 J-0.05172
G2 X-98.04859 Y61.73426 I-2.97215 J0.04219
G2 X-98.56265 Y61.48737 I-0.47796 J0.33655
G3 X-98.68277 Y61.48998 I-0.09263 J-1.49714
G2 X-99.05091 Y61.54718 I-0.0199 J1.08533
G2 X-99.13107 Y61.62613 I0.05715 J0.1382
G2 X-99.25545 Y62.36583 I1.81837 J0.68607
G3 X-99.2552 Y62.43824 I-1.49943 J0.0414
G3 X-99.32986 Y64.19149 I-40.10528 J-0.82948
G1 X-99.40232 Y66.22053
G3 X-101.06955 Y67.65753 I-1.49904 J-0.05354
G3 X-104.58403 Y66.90469 I2.04551 J-18.12859
G3 X-107.95434 Y65.21161 I3.61767 J-11.40263
G3 X-107.97366 Y65.19747 I0.87622 J-1.21747
G3 X-110.4144 Y62.7063 I6.70768 J-9.01311
G3 X-112.06345 Y59.81521 I13.25463 J-9.47614
G3 X-112.1914 Y59.20351 I1.37204 J-0.60622
G1 X-112.14257 Y45.8246
G3 X-112.14244 Y45.81003 I1.49999 J0.00547
G2 X-112.21279 Y45.23684 I-2.13763 J-0.02858
G3 X-112.22013 Y45.20777 I1.45051 J-0.38212
G2 X-112.36526 Y44.99454 I-0.35583 J0.08617
G2 X-113.00476 Y44.86326 I-0.58912 J1.24651
G3 X-113.08687 Y44.86401 I-0.05481 J-1.499
G2 X-113.47822 Y44.92481 I-0.02102 J1.15459
G2 X-113.57931 Y45.02331 I0.06898 J0.17192
G2 X-113.70858 Y45.78852 I1.87179 J0.70975
G3 X-113.70801 Y45.83008 I-1.49942 J0.04156
G1 Y62.96337
G2 X-113.66042 Y65.32339 I91.07286 J-0.65579
G3 X-113.58602 Y67.78696 I-62.56505 J3.12245
G3 X-113.5884 Y67.88866 I-1.49992 J0.01578
G2 X-113.41743 Y68.65397 I1.43087 J0.0821
G2 X-113.05343 Y68.77304 I0.3254 J-0.37883
G3 X-112.89089 Y68.76928 I0.11593 J1.49551
G2 X-112.60663 Y68.69422 I0.01602 J-0.51518
G2 X-112.19415 Y67.89608 I-1.05681 J-1.05181
G3 X-112.18333 Y67.83981 I1.47813 J0.2552
G2 X-112.02046 Y66.22755 I-7.31962 J-1.55376
G3 X-111.6129 Y65.18787 I1.49995 J-0.01173
G1 F300.0 X-112.48681 Y64.3655
G1 Z-3.0
G3 F800.0 X-111.23839 Y63.613 I1.9663 J1.85032
G3 X-111.39105 Y63.40355 I9.9724 J-7.42864
G3 X-112.50801 Y61.62413 I14.23128 J-10.1734
G1 Y62.95904
G2 X-112.48681 Y64.3655 I89.87286 J-0.65146
G1 F300.0 X-111.6129 Y65.18787
G3 F800.0 X-109.46694 Y65.14811 I1.09239 J1.02795
G2 X-105.14559 Y68.15373 I10.86239 J-11.00817
G2 X-100.12449 Y69.23243 I4.9859 J-10.98283
G3 X-100.08921 Y69.23274 I0.00438 J1.49999
G2 X-99.08494 Y69.02891 I0.04819 J-2.33855
G2 X-98.43905 Y68.44963 I-0.73991 J-1.47471
G2 X-97.8546 Y66.83702 I-3.76688 J-2.27743
G3 X-97.85112 Y66.81534 I1.48279 J0.22655
G2 X-97.68939 Y64.76429 I-11.60062 J-1.94662
G3 X-97.68943 Y64.7421 I1.49994 J-0.01332
G2 X-97.71298 Y63.09371 I-40.80137 J-0.24148
G3 X-97.71372 Y63.06328 I1.49911 J-0.05172
G2 X-98.04859 Y61.73426 I-2.97215 J0.04219
G2 X-98.56265 Y61.48737 I-0.47796 J0.33655
G3 X-98.68277 Y61.48998 I-0.09263 J-1.49714
G2 X-99.05091 Y61.54718 I-0.0199 J1.08533
G2 X-99.13107 Y61.62613 I0.05715 J0.1382
G2 X-99.25545 Y62.36583 I1.81837 J0.68607
G3 X-99.2552 Y62.43824 I-1.49943 J0.0414
G3 X-99.32986 Y64.19149 I-40.10528 J-0.82948
G1 X-99.40232 Y66.22053
G3 X-101.06955 Y67.65753 I-1.49904 J-0.05354
G3 X-104.58403 Y66.90469 I2.04551 J-18.12859
G3 X-107.95434 Y65.21161 I3.61767 J-11.40263
G3 X-107.97366 Y65.19747 I0.87622 J-1.21747
G3 X-110.4144 Y62.7063 I6.70768 J-9.01311
G3 X-112.06345 Y59.81521 I13.25463 J-9.47614
G3 X-112.1914 Y59.20351 I1.37204 J-0.60622
G1 X-112.14257 Y45.8246
G3 X-112.14244 Y45.81003 I1.49999 J0.00547
G2 X-112.21279 Y45.23684 I-2.13763 J-0.02858
G3 X-112.22013 Y45.20777 I1.45051 J-0.38212
G2 X-112.36526 Y44.99454 I-0.35583 J0.08617
G2 X-113.00476 Y44.86326 I-0.58912 J1.24651
G3 X-113.08687 Y44.86401 I-0.05481 J-1.499
G2 X-113.47822 Y44.92481 I-0.02102 J1.15459
G2 X-113.57931 Y45.02331 I0.06898 J0.17192
G2 X-113.70858 Y45.78852 I1.87179 J0.70975
G3 X-113.70801 Y45.83008 I-1.49942 J0.04156
G1 Y62.96337
G2 X-113.66042 Y65.32339 I91.07286 J-0.65579
G3 X-113.58602 Y67.78696 I-62.56505 J3.12245
G3 X-113.5884 Y67.88866 I-1.49992 J0.01578
G2 X-113.41743 Y68.65397 I1.43087 J0.0821
G2 X-113.05343 Y68.77304 I0.3254 J-0.37883
G3 X-112.89089 Y68.76928 I0.11593 J1.49551
G2 X-112.60663 Y68.69422 I0.01602 J-0.51518
G2 X-112.19415 Y67.89608 I-1.05681 J-1.05181
G3 X-112.18333 Y67.83981 I1.47813 J0.2552
G2 X-112.02046 Y66.22755 I-7.31962 J-1.55376
G3 X-111.6129 Y65.18787 I1.49995 J-0.01173
G0 Z3.0
G0 X-87.72084 Y64.01912
G0 Z1.0
G1 F300.0 Z-1.5
G3 F800.0 X-87.61981 Y67.5155 I-87.38133 J4.27451
G3 X-87.62148 Y67.6201 I-2.09992 J0.01868
G2 X-87.55103 Y67.85211 I0.36765 J0.01505
G2 X-87.39385 Y67.90106 I0.1492 J-0.20222
G3 X-87.25025 Y67.90141 I0.0667 J2.09894
G2 X-87.12173 Y67.85036 I0.00628 J-0.17148
G2 X-87.03291 Y67.61759 I-0.22762 J-0.22019
G3 X-87.03449 Y67.55283 I2.09834 J-0.08342
G2 X-87.27258 Y61.95722 I-83.24789 J0.73933
G3 X-87.52277 Y56.10231 I85.99532 J-6.60754
G3 X-87.52282 Y56.07161 I2.09992 J-0.01833
G3 X-87.44882 Y51.63184 I206.09308 J1.21438
G3 X-87.44819 Y51.61217 I2.09921 J0.05761
G2 X-87.35189 Y47.3028 I-148.86895 J-5.48244
G3 X-87.35049 Y47.24105 I2.09993 J0.01654
G2 X-87.42245 Y47.02153 I-0.33293 J-0.01242
G2 X-87.55909 Y46.97619 I-0.12834 J0.15821
G3 X-87.71128 Y46.97687 I-0.08545 J-2.09826
G2 X-87.872 Y47.02851 I-0.00798 J0.25106
G2 X-87.93857 Y47.24106 I0.26639 J0.20013
G3 X-87.93717 Y47.33538 I-2.09854 J0.07827
G3 X-88.03583 Y51.75718 I-150.74397 J-1.15155
G2 X-88.10795 Y56.08077 I200.23459 J5.50238
G2 X-87.87003 Y61.63616 I82.26409 J-0.74043
G3 X-87.86995 Y61.63709 I-2.09384 J0.16071
G3 X-87.72084 Y64.01912 I-87.23222 J6.65654
G1 F300.0 X-88.32012 Y64.04843
G3 F800.0 X-88.21979 Y67.52084 I-86.78205 J4.2452
G3 X-88.22098 Y67.59555 I-1.49994 J0.01334
G2 X-87.98209 Y68.2728 I0.96715 J0.0396
G2 X-87.37479 Y68.50076 I0.58026 J-0.62291
G3 X-87.27222 Y68.50101 I0.04765 J1.49924
G2 X-86.69219 Y68.26929 I0.02825 J-0.77108
G2 X-86.43339 Y67.59376 I-0.65716 J-0.63911
G3 X-86.43451 Y67.5475 I1.49882 J-0.05958
G2 X-86.67433 Y61.91141 I-83.84787 J0.74465
G3 X-86.92279 Y56.09707 I85.39708 J-6.56173
G3 X-86.92283 Y56.07515 I1.49994 J-0.01309
G3 X-86.84904 Y51.6483 I205.49309 J1.21085
G3 X-86.84859 Y51.63425 I1.49944 J0.04115
G2 X-86.75191 Y47.30752 I-149.46855 J-5.50452
G3 X-86.75091 Y47.26342 I1.49995 J0.01181
G2 X-86.99123 Y46.60281 I-0.93251 J-0.03479
G2 X-87.5835 Y46.37669 I-0.55957 J0.57693
G3 X-87.69221 Y46.37717 I-0.06103 J-1.49876
G2 X-88.30225 Y46.60773 I-0.02705 J0.85076
G2 X-88.53815 Y47.26343 I0.69664 J0.62091
G3 X-88.53715 Y47.33079 I-1.49896 J0.05591
G3 X-88.63553 Y51.73784 I-150.14398 J-1.14696
G2 X-88.70797 Y56.0817 I200.83429 J5.52171
G2 X-88.46827 Y61.68208 I82.86411 J-0.74136
G3 X-88.46822 Y61.68274 I-1.4956 J0.11479
G3 X-88.32012 Y64.04843 I-86.63396 J6.61088
G1 F300.0 X-87.72084 Y64.01912
G1 Z-3.0
G3 F800.0 X-87.61981 Y67.5155 I-87.38133 J4.27451
G3 X-87.62148 Y67.6201 I-2.09992 J0.01868
G2 X-87.55103 Y67.85211 I0.36765 J0.01505
G2 X-87.39385 Y67.90106 I0.1492 J-0.20222
G3 X-87.25025 Y67.90141 I0.0667 J2.09894
G2 X-87.12173 Y67.85036 I0.00628 J-0.17148
G2 X-87.03291 Y67.61759 I-0.22762 J-0.22019
G3 X-87.03449 Y67.55283 I2.09834 J-0.08342
G2 X-87.27258 Y61.95722 I-83.24789 J0.73933
G3 X-87.52277 Y56.10231 I85.99532 J-6.60754
G3 X-87.52282 Y56.07161 I2.09992 J-0.01833
G3 X-87.44882 Y51.63184 I206.09308 J1.21438
G3 X-87.44819 Y51.61217 I2.09921 J0.05761
G2 X-87.35189 Y47.3028 I-148.86895 J-5.48244
G3 X-87.35049 Y47.24105 I2.09993 J0.01654
G2 X-87.42245 Y47.02153 I-0.33293 J-0.01242
G2 X-87.55909 Y46.97619 I-0.12834 J0.15821
G3 X-87.71128 Y46.97687 I-0.08545 J-2.09826
G2 X-87.872 Y47.02851 I-0.00798 J0.25106
G2 X-87.93857 Y47.24106 I0.26639 J0.20013
G3 X-87.93717 Y47.33538 I-2.09854 J0.07827
G3 X-88.03583 Y51.75718 I-150.74397 J-1.15155
G2 X-88.10795 Y56.08077 I200.23459 J5.50238
G2 X-87.87003 Y61.63616 I82.26409 J-0.74043
G3 X-87.86995 Y61.63709 I-2.09384 J0.16071
G3 X-87.72084 Y64.01912 I-87.23222 J6.65654
G1 F300.0 X-88.32012 Y64.04843
G3 F800.0 X-88.21979 Y67.52084 I-86.78205 J4.2452
G3 X-88.22098 Y67.59555 I-1.49994 J0.01334
G2 X-87.98209 Y68.2728 I0.96715 J0.0396
G2 X-87.37479 Y68.50076 I0.58026 J-0.62291
G3 X-87.27222 Y68.50101 I0.04765 J1.49924
G2 X-86.69219 Y68.26929 I0.02825 J-0.77108
G2 X-86.43339 Y67.59376 I-0.65716 J-0.63911
G3 X-86.43451 Y67.5475 I1.49882 J-0.05958
G2 X-86.67433 Y61.91141 I-83.84787 J0.74465
G3 X-86.92279 Y56.09707 I85.39708 J-6.56173
G3 X-86.92283 Y56.07515 I1.49994 J-0.01309
G3 X-86.84904 Y51.6483 I205.49309 J1.21085
G3 X-86.84859 Y51.63425 I1.49944 J0.04115
G2 X-86.75191 Y47.30752 I-149.46855 J-5.50452
G3 X-86.75091 Y47.26342 I1.49995 J0.01181
G2 X-86.99123 Y46.60281 I-0.93251 J-0.03479
G2 X-87.5835 Y46.37669 I-0.55957 J0.57693
G3 X-87.69221 Y46.37717 I-0.06103 J-1.49876
G2 X-88.30225 Y46.60773 I-0.02705 J0.85076
G2 X-88.53815 Y47.26343 I0.69664 J0.62091
G3 X-88.53715 Y47.33079 I-1.49896 J0.05591
G3 X-88.63553 Y51.73784 I-150.14398 J-1.14696
G2 X-88.70797 Y56.0817 I200.83429 J5.52171
G2 X-88.46827 Y61.68208 I82.86411 J-0.74136
G3 X-88.46822 Y61.68274 I-1.4956 J0.11479
G3 X-88.32012 Y64.04843 I-86.63396 J6.61088
G0 Z3.0
G0 X-75.12025 Y59.79694
G0 Z1.0
G1 F300.0 Z-1.5
G3 F800.0 X-75.80898 Y57.16317 I23.22239 J-7.4796
G3 X-73.69465 Y55.51062 I1.47011 J-0.29793
G1 X-66.19953 Y59.07507
G3 X-66.19239 Y59.07849 I-0.64422 J1.35462
G3 X-62.86343 Y60.8171 I-25.39705 J52.68467
G3 X-59.60725 Y62.99424 I-11.00891 J19.98877
G3 X-59.53227 Y65.27163 I-0.93768 J1.1708
G3 X-62.88915 Y67.14641 I-5.65035 J-6.17448
G3 X-62.89128 Y67.14702 I-0.41103 J-1.44258
G3 X-66.42691 Y67.61829 I-3.39761 J-11.99153
G3 X-72.54719 Y64.74688 I-0.10031 J-7.74444
G3 X-74.6824 Y61.04021 I10.03494 J-8.24891
G3 X-75.12025 Y59.79694 I22.78454 J-8.72286
G0 Z3.0
G0 X-75.7325 Y54.55551
G0 Z1.0
G1 F300.0 Z-1.5
G3 F800.0 X-75.60692 Y54.48425 I1.39363 J2.30973
G3 X-75.72339 Y54.3859 I1.6831 J-2.11121
G2 X-75.7325 Y54.55551 I9.51938 J0.59618
G1 F300.0 X-76.9313 Y54.50184
G2 F800.0 X-76.94063 Y55.15632 I10.72728 J0.48024
G3 X-76.94049 Y55.19355 I-1.4998 J0.02434
G2 X-76.29637 Y60.36419 I19.71627 J0.16936
G2 X-74.14158 Y64.95625 I13.75799 J-3.65424
G3 X-74.1283 Y64.97525 I-1.22268 J0.86895
G2 X-70.79394 Y67.99509 I8.04565 J-5.53287
G2 X-66.45206 Y69.01288 I4.19927 J-8.14393
G3 X-66.41814 Y69.01273 I0.02335 J1.49982
G2 X-63.2991 Y68.75052 I0.12149 J-17.23637
G3 X-63.29298 Y68.74945 I0.26086 J1.47714
G2 X-60.50077 Y67.81274 I-1.64067 J-9.52055
G3 X-60.48741 Y67.80592 I0.68827 J1.33277
G2 X-58.73948 Y66.24138 I-2.02707 J-4.02337
G2 X-58.16267 Y64.0049 I-3.66199 J-2.13707
G3 X-58.16304 Y63.98169 I1.49959 J-0.03517
G2 X-58.71643 Y62.29126 I-2.92989 J0.02336
G2 X-60.26477 Y60.76732 I-5.33484 J3.8717
G2 X-62.62403 Y59.41964 I-11.79258 J17.90539
G3 X-62.64116 Y59.41112 I0.65998 J-1.347
G2 X-65.23231 Y58.15112 I-41.31874 J81.67628
G3 X-65.23994 Y58.14753 I0.63465 J-1.35912
G1 X-74.56611 Y53.72858
G3 X-75.1783 Y51.55068 I0.64228 J-1.35553
G3 X-71.21535 Y47.98687 I8.73103 J5.7236
G3 X-71.17593 Y47.96736 I0.68508 J1.33442
G3 X-65.7385 Y46.79622 I5.18809 J10.8794
G3 X-65.72906 Y46.79644 I-0.03103 J1.49968
G3 X-61.40467 Y47.48757 I-0.45054 J16.69347
G3 X-59.16203 Y48.31449 I-3.47516 J12.87931
G3 X-56.89351 Y50.14376 I-2.30568 J5.18057
G3 X-56.81948 Y50.25487 I-1.21 J0.88651
G2 X-56.37055 Y50.79957 I2.07607 J-1.2537
G3 X-56.35015 Y50.81837 I-1.00638 J1.1123
G2 X-56.29235 Y50.84753 I0.07835 J-0.08344
G2 X-55.90231 Y50.66395 I-0.03605 J-0.58274
G3 X-55.78806 Y50.55423 I1.09469 J1.0255
G2 X-55.62403 Y50.19919 I-0.30955 J-0.35842
G2 X-55.85535 Y49.32028 I-1.81033 J0.00656
G2 X-57.12976 Y48.0021 I-3.62607 J2.23054
G3 X-57.14979 Y47.98859 I0.8286 J-1.25037
G2 X-59.09243 Y46.91263 I-6.58535 J9.59807
G3 X-59.12537 Y46.89783 I0.59829 J-1.37552
G2 X-65.7882 Y45.37684 I-6.90094 J14.87616
G2 X-70.08008 Y45.92854 I-0.16283 J15.70313
G2 X-73.76708 Y47.80629 I2.73491 J9.92871
G2 X-76.18937 Y51.03265 I5.13395 J6.37694
G2 X-76.9313 Y54.50184 I9.98535 J3.94943
G1 F300.0 X-75.7325 Y54.55551
G1 Z-3.0
G3 F800.0 X-75.60692 Y54.48425 I1.39363 J2.30973
G3 X-75.72339 Y54.3859 I1.6831 J-2.11121
G2 X-75.7325 Y54.55551 I9.51938 J0.59618
G1 F300.0 X-76.9313 Y54.50184
G2 F800.0 X-76.94063 Y55.15632 I10.72728 J0.48024
G3 X-76.94049 Y55.19355 I-1.4998 J0.02434
G2 X-76.29637 Y60.36419 I19.71627 J0.16936
G2 X-74.14158 Y64.95625 I13.75799 J-3.65424
G3 X-74.1283 Y64.97525 I-1.22268 J0.86895
G2 X-70.79394 Y67.99509 I8.04565 J-5.53287
G2 X-66.45206 Y69.01288 I4.19927 J-8.14393
G3 X-66.41814 Y69.01273 I0.02335 J1.49982
G2 X-63.2991 Y68.75052 I0.12149 J-17.23637
G3 X-63.29298 Y68.74945 I0.26086 J1.47714
G2 X-60.50077 Y67.81274 I-1.64067 J-9.52055
G3 X-60.48741 Y67.80592 I0.68827 J1.33277
G2 X-58.73948 Y66.24138 I-2.02707 J-4.02337
G2 X-58.16267 Y64.0049 I-3.66199 J-2.13707
G3 X-58.16304 Y63.98169 I1.49959 J-0.03517
G2 X-58.71643 Y62.29126 I-2.92989 J0.02336
G2 X-60.26477 Y60.76732 I-5.33484 J3.8717
G2 X-62.62403 Y59.41964 I-11.79258 J17.90539
G3 X-62.64116 Y59.41112 I0.65998 J-1.347
G2 X-65.23231 Y58.15112 I-41.31874 J81.67628
G3 X-65.23994 Y58.14753 I0.63465 J-1.35912
G1 X-74.56611 Y53.72858
G3 X-75.1783 Y51.55068 I0.64228 J-1.35553
G3 X-71.21535 Y47.98687 I8.73103 J5.7236
G3 X-71.17593 Y47.96736 I0.68508 J1.33442
G3 X-65.7385 Y46.79622 I5.18809 J10.8794
G3 X-65.72906 Y46.79644 I-0.03103 J1.49968
G3 X-61.40467 Y47.48757 I-0.45054 J16.69347
G3 X-59.16203 Y48.31449 I-3.47516 J12.87931
G3 X-56.89351 Y50.14376 I-2.30568 J5.18057
G3 X-56.81948 Y50.25487 I-1.21 J0.88651
G2 X-56.37055 Y50.79957 I2.07607 J-1.2537
G3 X-56.35015 Y50.81837 I-1.00638 J1.1123
G2 X-56.29235 Y50.84753 I0.07835 J-0.08344
G2 X-55.90231 Y50.66395 I-0.03605 J-0.58274
G3 X-55.78806 Y50.55423 I1.09469 J1.0255
G2 X-55.62403 Y50.19919 I-0.30955 J-0.35842
G2 X-55.85535 Y49.32028 I-1.81033 J0.00656
G2 X-57.12976 Y48.0021 I-3.62607 J2.23054
G3 X-57.14979 Y47.98859 I0.8286 J-1.25037
G2 X-59.09243 Y46.91263 I-6.58535 J9.59807
G3 X-59.12537 Y46.89783 I0.59829 J-1.37552
G2 X-65.7882 Y45.37684 I-6.90094 J14.87616
G2 X-70.08008 Y45.92854 I-0.16283 J15.70313
G2 X-73.76708 Y47.80629 I2.73491 J9.92871
G2 X-76.18937 Y51.03265 I5.13395 J6.37694
G2 X-76.9313 Y54.50184 I9.98535 J3.94943
G1 F300.0 X-75.44736 Y55.85467
G3 F800.0 X-73.69465 Y55.51062 I1.1085 J1.01056
G1 X-66.19953 Y59.07507
G3 X-66.19239 Y59.07849 I-0.64422 J1.35462
G3 X-62.86343 Y60.8171 I-25.39705 J52.68467
G3 X-59.60725 Y62.99424 I-11.00891 J19.98877
G3 X-59.53227 Y65.27163 I-0.93768 J1.1708
G3 X-62.88915 Y67.14641 I-5.65035 J-6.17448
G3 X-62.89128 Y67.14702 I-0.41103 J-1.44258
G3 X-66.42691 Y67.61829 I-3.39761 J-11.99153
G3 X-72.54719 Y64.74688 I-0.10031 J-7.74444
G3 X-74.6824 Y61.04021 I10.03494 J-8.24891
G3 X-75.80898 Y57.16317 I22.78454 J-8.72286
G3 X-75.44736 Y55.85467 I1.47011 J-0.29793
G0 Z3.0
G0 X-86.4672 Y78.61071
G0 Z1.0
G1 F300.0 Z-1.5
G2 F800.0 X-86.47995 Y78.60788 I-0.01232 J0.02544
G3 X-86.55251 Y78.60802 I-0.04153 J-2.69968
G2 X-86.63167 Y78.64046 I-0.00126 J0.10977
G3 X-86.70252 Y78.70926 I-1.91618 J-1.90217
G3 Y78.77121 I-2.69982 J0.03097
G3 X-86.63168 Y78.84001 I-1.84533 J1.97098
G2 X-86.5525 Y78.87244 I0.07791 J-0.07734
G3 X-86.47996 Y78.87258 I0.03102 J2.69982
G2 X-86.4592 Y78.86398 I0.00044 J-0.02829
G3 X-86.36486 Y78.77121 I1.93967 J1.87821
G3 Y78.70926 I2.69982 J-0.03097
G3 X-86.45921 Y78.61648 I1.84533 J-1.97098
G2 X-86.4672 Y78.61071 I-0.02031 J0.01966
G1 F300.0 X-85.94418 Y77.53068
G2 F800.0 X-86.49841 Y77.40803 I-0.53533 J1.10547
G3 X-86.53872 Y77.4081 I-0.02307 J-1.49982
G2 X-87.48331 Y77.79504 I-0.01505 J1.30969
G3 X-87.5245 Y77.83498 I-1.06454 J-1.05676
G2 X-87.90247 Y78.72052 I0.81174 J0.86991
G3 Y78.75993 I-1.49987 J0.01971
G2 X-87.52449 Y79.6455 I1.18977 J0.01562
G3 X-87.48331 Y79.68542 I-1.02337 J1.09669
G2 X-86.53872 Y80.07236 I0.92955 J-0.92276
G3 X-86.49842 Y80.07244 I0.01723 J1.4999
G2 X-85.59713 Y79.69874 I0.01889 J-1.22815
G3 X-85.54289 Y79.64549 I1.07759 J1.04345
G2 X-85.16491 Y78.75994 I-0.81174 J-0.86991
G3 Y78.72054 I1.49987 J-0.01971
G2 X-85.5429 Y77.83497 I-1.18977 J-0.01562
G3 X-85.59713 Y77.78173 I1.02337 J-1.09669
G2 X-85.94418 Y77.53068 I-0.88239 J0.85442
G1 F300.0 X-86.4672 Y78.61071
G1 Z-3.0
G2 F800.0 X-86.47995 Y78.60788 I-0.01232 J0.02544
G3 X-86.55251 Y78.60802 I-0.04153 J-2.69968
G2 X-86.63167 Y78.64046 I-0.00126 J0.10977
G3 X-86.70252 Y78.70926 I-1.91618 J-1.90217
G3 Y78.77121 I-2.69982 J0.03097
G3 X-86.63168 Y78.84001 I-1.84533 J1.97098
G2 X-86.5525 Y78.87244 I0.07791 J-0.07734
G3 X-86.47996 Y78.87258 I0.03102 J2.69982
G2 X-86.4592 Y78.86398 I0.00044 J-0.02829
G3 X-86.36486 Y78.77121 I1.93967 J1.87821
G3 Y78.70926 I2.69982 J-0.03097
G3 X-86.45921 Y78.61648 I1.84533 J-1.97098
G2 X-86.4672 Y78.61071 I-0.02031 J0.01966
G1 F300.0 X-85.94418 Y77.53068
G2 F800.0 X-86.49841 Y77.40803 I-0.53533 J1.10547
G3 X-86.53872 Y77.4081 I-0.02307 J-1.49982
G2 X-87.48331 Y77.79504 I-0.01505 J1.30969
G3 X-87.5245 Y77.83498 I-1.06454 J-1.05676
G2 X-87.90247 Y78.72052 I0.81174 J0.86991
G3 Y78.75993 I-1.49987 J0.01971
G2 X-87.52449 Y79.6455 I1.18977 J0.01562
G3 X-87.48331 Y79.68542 I-1.02337 J1.09669
G2 X-86.53872 Y80.07236 I0.92955 J-0.92276
G3 X-86.49842 Y80.07244 I0.01723 J1.4999
G2 X-85.59713 Y79.69874 I0.01889 J-1.22815
G3 X-85.54289 Y79.64549 I1.07759 J1.04345
G2 X-85.16491 Y78.75994 I-0.81174 J-0.86991
G3 Y78.72054 I1.49987 J-0.01971
G2 X-85.5429 Y77.83497 I-1.18977 J-0.01562
G3 X-85.59713 Y77.78173 I1.02337 J-1.09669
G2 X-85.94418 Y77.53068 I-0.88239 J0.85442
G0 Z3.0
G0 X-46.18373 Y62.70724
G0 Z1.0
G1 F300.0 Z-1.5
G3 F800.0 X-45.66659 Y62.48993 I1.53236 J2.92265
G3 X-46.23728 Y61.40825 I19.23551 J-10.84002
G3 X-46.18373 Y62.70724 I-97.87985 J4.68561
G1 F300.0 X-45.90512 Y63.23863
G3 F800.0 X-44.71011 Y62.93052 I1.25375 J2.39126
G3 X-46.02198 Y60.4574 I18.27904 J-11.28062
G3 X-47.08224 Y57.76197 I27.00251 J-12.17788
G3 X-46.74923 Y63.93018 I-97.03489 J8.33189
G3 X-45.90512 Y63.23863 I2.09786 J1.6997
G1 F300.0 X-45.3479 Y64.30141
G3 F800.0 X-43.43624 Y64.75041 I0.69653 J1.32848
G2 X-40.15753 Y68.14115 I13.48976 J-9.7635
G2 X-38.24358 Y69.21396 I4.92325 J-6.53966
G2 X-36.22318 Y69.59864 I2.04034 J-5.21806
G3 X-36.18454 Y69.59928 I-0.00534 J1.49999
G2 X-33.7368 Y68.98269 I0.13573 J-4.62808
G2 X-32.17041 Y67.08322 I-2.31332 J-3.50325
G3 X-32.16632 Y67.07341 I1.38623 J0.57303
G2 X-31.38432 Y64.13478 I-10.11255 J-4.2644
G3 X-31.38188 Y64.11576 I1.48902 J0.1812
G2 X-31.13672 Y60.85707 I-27.56358 J-3.71228
G1 Y58.41138
G1 X-31.16105 Y56.14894
G3 X-31.16071 Y56.09723 I1.49991 J-0.01613
G3 X-30.62656 Y50.62853 I37.33195 J0.88594
G3 X-30.62407 Y50.6145 I1.47812 J0.25526
G2 X-30.11085 Y45.64559 I-31.70106 J-5.78524
G3 X-30.11018 Y45.625 I1.49952 J0.038
G2 X-30.34856 Y45.04139 I-0.7608 J-0.02974
G3 X-30.3775 Y45.01334 I1.02923 J-1.09119
G2 X-31.00509 Y44.76584 I-0.60055 J0.60337
G3 X-31.14102 Y44.764 I-0.04765 J-1.49924
G2 X-31.65296 Y44.92639 I-0.04416 J0.74895
G2 X-31.92407 Y45.65895 I1.09433 J0.82144
G3 X-31.93301 Y45.75176 I-1.49683 J-0.09743
G1 X-32.61621 Y51.09537
G2 X-32.94624 Y56.2482 I43.41397 J5.36756
G2 X-32.87549 Y58.48785 I62.90629 J-0.86638
G3 X-32.77564 Y60.8661 I-50.21833 J3.29949
G3 X-32.77553 Y60.87336 I-1.49975 J0.02746
G3 X-33.00944 Y64.05064 I-18.34146 J0.24693
G3 X-33.61158 Y65.94677 I-6.62708 J-1.06081
G3 X-33.61877 Y65.96123 I-1.34657 J-0.66087
G3 X-34.52311 Y67.0802 I-3.04279 J-1.53422
G3 X-34.54998 Y67.10136 I-0.9413 J-1.16788
G3 X-36.24674 Y67.66688 I-1.6636 J-2.16319
G3 X-36.25609 Y67.66674 I0.01823 J-1.49989
G3 X-40.10713 Y66.35424 I0.12257 J-6.66562
G3 X-42.65595 Y63.81615 I7.11628 J-9.6952
G3 X-44.92778 Y59.96471 I16.22488 J-12.16625
G3 X-46.41458 Y55.8487 I25.90832 J-11.68519
G3 X-46.46606 Y55.53904 I1.44583 J-0.39948
G2 X-46.6771 Y53.24104 I-36.38165 J2.18248
G3 X-46.67742 Y53.2384 I1.48862 J-0.1844
G3 X-46.83496 Y50.69161 I21.22896 J-2.5914
G3 X-46.83455 Y50.6532 I1.5 J-0.00313
G3 X-46.67947 Y48.32711 I27.07721 J0.63693
G1 Y48.32709
G2 X-46.54158 Y46.25869 I-23.93225 J-2.63428
G3 X-46.54081 Y46.23435 I1.49959 J0.03525
G2 X-46.7996 Y45.55886 I-0.91592 J-0.03642
G2 X-47.37968 Y45.32712 I-0.55184 J0.53946
G3 X-47.49557 Y45.32688 I-0.05489 J-1.499
G2 X-48.08513 Y45.55036 I-0.03269 J0.80317
G2 X-48.3284 Y46.23258 I0.72388 J0.64261
G3 X-48.32771 Y46.33516 I-1.49874 J0.06137
G3 X-48.50849 Y48.66842 I-23.47832 J-0.64541
G2 X-48.64427 Y50.69566 I23.93369 J2.62119
G2 X-48.30834 Y57.51682 I98.80999 J-1.44731
G3 X-47.9367 Y64.6057 I-95.80879 J8.57703
G3 X-47.93668 Y64.65056 I-1.49982 J0.02321
G3 X-48.03691 Y67.03958 I-43.48471 J-0.62771
G2 X-48.10751 Y69.28369 I54.14175 J2.82651
G3 X-48.10843 Y69.32251 I-1.49991 J-0.01611
G2 X-47.87623 Y69.903 I0.77108 J0.02825
G3 X-47.87533 Y69.90388 I-1.0476 J1.07356
G2 X-47.2245 Y70.16054 I0.63035 J-0.64489
G3 X-47.11133 Y70.16224 I0.03407 J1.49961
G2 X-46.59218 Y69.88824 I0.03019 J-0.57163
G2 X-46.224 Y68.44336 I-3.0889 J-1.55644
G1 X-46.15087 Y65.59143
G3 X-45.3479 Y64.30141 I1.49951 J0.03845
G1 F300.0 X-46.18373 Y62.70724
G1 Z-3.0
G3 F800.0 X-45.66659 Y62.48993 I1.53236 J2.92265
G3 X-46.23728 Y61.40825 I19.23551 J-10.84002
G3 X-46.18373 Y62.70724 I-97.87985 J4.68561
G1 F300.0 X-45.90512 Y63.23863
G3 F800.0 X-44.71011 Y62.93052 I1.25375 J2.39126
G3 X-46.02198 Y60.4574 I18.27904 J-11.28062
G3 X-47.08224 Y57.76197 I27.00251 J-12.17788
G3 X-46.74923 Y63.93018 I-97.03489 J8.33189
G3 X-45.90512 Y63.23863 I2.09786 J1.6997
G1 F300.0 X-45.3479 Y64.30141
G3 F800.0 X-43.43624 Y64.75041 I0.69653 J1.32848
G2 X-40.15753 Y68.14115 I13.48976 J-9.7635
G2 X-38.24358 Y69.21396 I4.92325 J-6.53966
G2 X-36.22318 Y69.59864 I2.04034 J-5.21806
G3 X-36.18454 Y69.59928 I-0.00534 J1.49999
G2 X-33.7368 Y68.98269 I0.13573 J-4.62808
G2 X-32.17041 Y67.08322 I-2.31332 J-3.50325
G3 X-32.16632 Y67.07341 I1.38623 J0.57303
G2 X-31.38432 Y64.13478 I-10.11255 J-4.2644
G3 X-31.38188 Y64.11576 I1.48902 J0.1812
G2 X-31.13672 Y60.85707 I-27.56358 J-3.71228
G1 Y58.41138
G1 X-31.16105 Y56.14894
G3 X-31.16071 Y56.09723 I1.49991 J-0.01613
G3 X-30.62656 Y50.62853 I37.33195 J0.88594
G3 X-30.62407 Y50.6145 I1.47812 J0.25526
G2 X-30.11085 Y45.64559 I-31.70106 J-5.78524
G3 X-30.11018 Y45.625 I1.49952 J0.038
G2 X-30.34856 Y45.04139 I-0.7608 J-0.02974
G3 X-30.3775 Y45.01334 I1.02923 J-1.09119
G2 X-31.00509 Y44.76584 I-0.60055 J0.60337
G3 X-31.14102 Y44.764 I-0.04765 J-1.49924
G2 X-31.65296 Y44.92639 I-0.04416 J0.74895
G2 X-31.92407 Y45.65895 I1.09433 J0.82144
G3 X-31.93301 Y45.75176 I-1.49683 J-0.09743
G1 X-32.61621 Y51.09537
G2 X-32.94624 Y56.2482 I43.41397 J5.36756
G2 X-32.87549 Y58.48785 I62.90629 J-0.86638
G3 X-32.77564 Y60.8661 I-50.21833 J3.29949
G3 X-32.77553 Y60.87336 I-1.49975 J0.02746
G3 X-33.00944 Y64.05064 I-18.34146 J0.24693
G3 X-33.61158 Y65.94677 I-6.62708 J-1.06081
G3 X-33.61877 Y65.96123 I-1.34657 J-0.66087
G3 X-34.52311 Y67.0802 I-3.04279 J-1.53422
G3 X-34.54998 Y67.10136 I-0.9413 J-1.16788
G3 X-36.24674 Y67.66688 I-1.6636 J-2.16319
G3 X-36.25609 Y67.66674 I0.01823 J-1.49989
G3 X-40.10713 Y66.35424 I0.12257 J-6.66562
G3 X-42.65595 Y63.81615 I7.11628 J-9.6952
G3 X-44.92778 Y59.96471 I16.22488 J-12.16625
G3 X-46.41458 Y55.8487 I25.90832 J-11.68519
G3 X-46.46606 Y55.53904 I1.44583 J-0.39948
G2 X-46.6771 Y53.24104 I-36.38165 J2.18248
G3 X-46.67742 Y53.2384 I1.48862 J-0.1844
G3 X-46.83496 Y50.69161 I21.22896 J-2.5914
G3 X-46.83455 Y50.6532 I1.5 J-0.00313
G3 X-46.67947 Y48.32711 I27.07721 J0.63693
G1 Y48.32709
G2 X-46.54158 Y46.25869 I-23.93225 J-2.63428
G3 X-46.54081 Y46.23435 I1.49959 J0.03525
G2 X-46.7996 Y45.55886 I-0.91592 J-0.03642
G2 X-47.37968 Y45.32712 I-0.55184 J0.53946
G3 X-47.49557 Y45.32688 I-0.05489 J-1.499
G2 X-48.08513 Y45.55036 I-0.03269 J0.80317
G2 X-48.3284 Y46.23258 I0.72388 J0.64261
G3 X-48.32771 Y46.33516 I-1.49874 J0.06137
G3 X-48.50849 Y48.66842 I-23.47832 J-0.64541
G2 X-48.64427 Y50.69566 I23.93369 J2.62119
G2 X-48.30834 Y57.51682 I98.80999 J-1.44731
G3 X-47.9367 Y64.6057 I-95.80879 J8.57703
G3 X-47.93668 Y64.65056 I-1.49982 J0.02321
G3 X-48.03691 Y67.03958 I-43.48471 J-0.62771
G2 X-48.10751 Y69.28369 I54.14175 J2.82651
G3 X-48.10843 Y69.32251 I-1.49991 J-0.01611
G2 X-47.87623 Y69.903 I0.77108 J0.02825
G3 X-47.87533 Y69.90388 I-1.0476 J1.07356
G2 X-47.2245 Y70.16054 I0.63035 J-0.64489
G3 X-47.11133 Y70.16224 I0.03407 J1.49961
G2 X-46.59218 Y69.88824 I0.03019 J-0.57163
G2 X-46.224 Y68.44336 I-3.0889 J-1.55644
G1 X-46.15087 Y65.59143
G3 X-45.3479 Y64.30141 I1.49951 J0.03845
( Verw )
S1000
G0 Z3.0
G0 X-204.98938 Y-53.52584
G0 Z1.0
G1 F300.0 Z-2.0
G3 F800.0 X-204.00153 Y-54.09429 I3.32141 J4.62935
G3 X-204.91478 Y-54.88247 I3.24664 J-4.68501
G2 X-204.98938 Y-53.52584 I21.14348 J1.84304
G1 F300.0 X-205.58922 Y-53.53959
G2 F800.0 X-205.59208 Y-52.6853 I21.81793 J0.50016
G3 X-205.59159 Y-52.55873 I-5.09933 J0.08276
G2 X-205.59309 Y-52.14901 I41.57586 J0.35713
G3 X-202.44171 Y-53.93502 I3.92513 J3.25252
G1 X-202.93864 Y-54.17048
G3 X-205.31844 Y-56.50246 I2.18376 J-4.60882
G2 X-205.58922 Y-53.53959 I21.54715 J3.46303
G0 Z3.0
G0 X-203.40851 Y-50.95744
G0 Z1.0
G1 F300.0 Z-2.0
G3 F800.0 X-200.50941 Y-51.33263 I1.74055 J2.06096
G1 X-184.02015 Y-43.49083
G3 X-184.00731 Y-43.48468 I-1.15856 J2.43614
G3 X-176.71525 Y-39.67616 I-55.61192 J115.36364
G3 X-169.63497 Y-34.94248 I-23.92635 J43.44907
G3 X-169.50013 Y-30.84683 I-1.68631 J2.10556
G3 X-176.64367 Y-26.85724 I-12.02409 J-13.13944
G3 X-176.64749 Y-26.85615 I-0.7392 J-2.59434
G3 X-184.26225 Y-25.8422 I-7.31053 J-25.80178
G3 X-197.25948 Y-31.93763 I-0.2201 J-16.43533
G3 X-201.86026 Y-39.92454 I21.61006 J-17.76682
G3 X-204.31182 Y-48.36068 I49.5625 J-18.97729
G3 X-203.40851 Y-50.95744 I2.64385 J-0.5358
G1 F300.0 X-202.6358 Y-50.04248
G3 F800.0 X-201.02375 Y-50.2511 I0.96783 J1.146
G1 X-184.5345 Y-42.4093
G3 X-184.52736 Y-42.40589 I-0.64422 J1.35462
G3 X-177.2982 Y-38.63 I-55.09187 J114.28484
G3 X-170.38361 Y-34.00771 I-23.34339 J42.40292
G3 X-170.30864 Y-31.73033 I-0.93768 J1.1708
G3 X-176.97183 Y-28.009 I-11.21558 J-12.25594
G3 X-176.97396 Y-28.00839 I-0.41103 J-1.44258
G3 X-184.26359 Y-27.0399 I-6.98406 J-24.64953
G3 X-196.33142 Y-32.69458 I-0.21876 J-15.23763
G3 X-200.74 Y-40.34797 I20.682 J-17.00987
G3 X-203.13808 Y-48.59855 I48.44224 J-18.55386
G3 X-202.6358 Y-50.04248 I1.47011 J-0.29793
G0 Z3.0
G0 X-204.18278 Y-51.87424
G0 Z1.0
G1 F300.0 Z-2.0
G2 F800.0 X-205.48791 Y-48.12234 I2.51481 J2.97775
G2 X-202.98274 Y-39.50021 I53.19016 J-10.7795
G2 X-198.18935 Y-31.17911 I27.33332 J-10.20424
G2 X-184.26112 Y-24.64212 I13.707 J-11.09842
G2 X-176.32037 Y-25.7016 I0.3031 J-28.01581
G2 X-176.31484 Y-25.70317 I-1.0625 J-3.74998
G2 X-168.69001 Y-29.96156 I-5.20938 J-18.2831
G2 X-168.88483 Y-35.87911 I-2.63128 J-2.87535
G2 X-176.13108 Y-40.72439 I-31.75676 J39.65203
G2 X-183.48623 Y-44.56564 I-63.48815 J112.60334
G2 X-183.50478 Y-44.57452 I-1.69248 J3.51095
G1 X-199.99404 Y-52.41632
G2 X-204.18278 Y-51.87424 I-1.67393 J3.51984
G0 Z3.0
G0 X-206.79171 Y-51.85298
G0 Z1.0
G1 F300.0 Z-2.0
G2 F800.0 X-205.39434 Y-41.35189 I42.77597 J-0.34863
G2 X-200.74487 Y-31.44383 I29.68745 J-7.88622
G3 X-200.71034 Y-31.39444 I-3.17896 J2.25926
G2 X-193.58685 Y-24.94032 I17.20605 J-11.83234
G2 X-184.32633 Y-22.7716 I8.95611 J-17.38714
G3 X-184.23814 Y-22.77197 I0.0607 J3.89953
G2 X-177.48483 Y-23.33972 I0.26304 J-37.32002
G3 X-177.46892 Y-23.3425 I0.67823 J3.84057
G2 X-171.49947 Y-25.34509 I-3.50757 J-20.35393
G3 X-171.46474 Y-25.36281 I1.78951 J3.46521
G2 X-167.86012 Y-28.58409 I-4.18958 J-8.31557
G2 X-166.68018 Y-33.17516 I-7.54557 J-4.38643
G3 X-166.68113 Y-33.23551 I3.89893 J-0.09144
G2 X-167.78474 Y-36.60755 I-5.84578 J0.04661
G2 X-171.04242 Y-39.81572 I-11.25051 J8.16607
G2 X-176.15932 Y-42.73798 I-25.6062 J38.89567
G3 X-176.20386 Y-42.76016 I1.71596 J-3.50221
G2 X-181.8874 Y-45.52389 I-90.63037 J179.15242
G3 X-181.90724 Y-45.53323 I1.65009 J-3.53372
G1 X-202.42482 Y-55.25491
G3 X-204.01652 Y-60.91745 I1.66993 J-3.52439
G3 X-195.07027 Y-68.96265 I19.71006 J12.92087
G3 X-194.96776 Y-69.01339 I1.7812 J3.46948
G3 X-182.73475 Y-71.64819 I11.67206 J24.47625
G3 X-182.71021 Y-71.6476 I-0.08068 J3.89917
G3 X-173.04876 Y-70.10455 I-1.00737 J37.32542
G3 X-168.02828 Y-68.25331 I-7.80932 J28.9117
G3 X-162.80419 Y-64.03832 I-5.32315 J11.94243
G3 X-162.6117 Y-63.74945 I-3.146 J2.30492
G2 X-161.82496 Y-62.76929 I4.05374 J-2.44798
G2 X-161.54541 Y-62.94951 I-0.21998 J-0.64817
G3 X-161.24836 Y-63.23479 I2.8462 J2.6663
G2 X-161.09534 Y-63.56339 I-0.28884 J-0.33443
G2 X-161.5218 Y-65.19159 I-3.38271 J0.01604
G2 X-164.13938 Y-67.89524 I-7.4598 J4.60338
G3 X-164.19146 Y-67.93036 I2.15435 J-3.25097
G2 X-168.36512 Y-70.24201 I-14.14831 J20.62101
G3 X-168.45076 Y-70.28049 I1.55555 J-3.57635
G2 X-182.86397 Y-73.571 I-14.92958 J32.18326
G2 X-192.14008 Y-72.37854 I-0.35077 J33.94692
G2 X-200.03483 Y-68.35796 I5.85825 J21.26449
G2 X-205.18315 Y-61.50235 I10.91948 J13.56106
G2 X-206.79192 Y-52.66582 I21.41186 J8.46292
G3 X-206.79155 Y-52.56904 I-3.89949 J0.06329
G2 X-206.79171 Y-51.85298 I42.77581 J0.36744
G1 F300.0 X-207.99167 Y-51.8432
G2 F800.0 X-206.55462 Y-41.04568 I43.97593 J-0.35841
G2 X-201.72301 Y-30.74867 I30.84773 J-8.19244
G3 X-201.69911 Y-30.71448 I-2.20082 J1.5641
G2 X-194.15143 Y-23.8813 I18.19481 J-12.5123
G2 X-184.30765 Y-21.57174 I9.52069 J-18.44616
G3 X-184.2466 Y-21.572 I0.04202 J2.69967
G2 X-177.27614 Y-22.15801 I0.2715 J-38.51999
G3 X-177.26513 Y-22.15993 I0.46954 J2.65886
G2 X-170.94885 Y-24.27887 I-3.71136 J-21.5365
G3 X-170.92481 Y-24.29114 I1.23889 J2.39899
G2 X-166.83853 Y-27.95382 I-4.72951 J-9.38724
G2 X-165.48051 Y-33.2033 I-8.56716 J-5.0167
G3 X-165.48116 Y-33.24508 I2.69926 J-0.06331
G2 X-166.81248 Y-37.31091 I-7.04574 J0.05617
G2 X-170.36759 Y-40.80815 I-12.22277 J8.86943
G2 X-175.63134 Y-43.81558 I-26.28103 J39.8881
G3 X-175.66217 Y-43.83094 I1.18797 J-2.42461
G2 X-181.37968 Y-46.61119 I-91.17206 J180.2232
G3 X-181.39341 Y-46.61766 I1.14237 J-2.44642
G1 X-201.91099 Y-56.33933
G3 X-203.01294 Y-60.25956 I1.15611 J-2.43996
G3 X-194.5222 Y-67.89511 I18.70648 J12.26298
G3 X-194.45124 Y-67.93024 I1.23314 J2.40195
G3 X-182.75958 Y-70.44845 I11.15554 J23.39311
G3 X-182.74259 Y-70.44804 I-0.05585 J2.69942
G3 X-173.37668 Y-68.95012 I-0.975 J36.12586
G3 X-168.52949 Y-67.16289 I-7.4814 J27.75726
G3 X-163.77219 Y-63.32911 I-4.82193 J10.85202
G3 X-163.63893 Y-63.12913 I-2.178 J1.59572
G2 X-162.54022 Y-61.79603 I5.08097 J-3.0683
G3 X-162.5035 Y-61.76218 I-1.81148 J2.00214
G2 X-161.98634 Y-61.53389 I0.58308 J-0.62096
G2 X-160.66966 Y-62.1291 I-0.05861 J-1.88357
G3 X-160.46401 Y-62.32661 I1.97044 J1.8459
G2 X-159.89532 Y-63.56097 I-1.07319 J-1.24262
G2 X-160.48696 Y-65.79963 I-4.58273 J0.01363
G2 X-163.4765 Y-68.89553 I-8.49463 J5.21142
G3 X-163.51256 Y-68.91985 I1.49147 J-2.25067
G2 X-167.88649 Y-71.34243 I-14.82721 J21.6105
G3 X-167.94578 Y-71.36907 I1.07692 J-2.47593
G2 X-182.84904 Y-74.77091 I-15.43456 J33.27183
G2 X-192.45718 Y-73.53588 I-0.3657 J35.14683
G2 X-200.78525 Y-69.29438 I6.17535 J22.42184
G2 X-206.29498 Y-61.95397 I11.6699 J14.49748
G2 X-207.99176 Y-52.64635 I22.52369 J8.91454
G3 X-207.99151 Y-52.57935 I-2.69964 J0.04381
G2 X-207.99167 Y-51.8432 I43.97577 J0.37774
G1 F300.0 X-209.19163 Y-51.83342
G2 F800.0 X-207.71489 Y-40.73947 I45.17589 J-0.36819
G2 X-202.70115 Y-30.05352 I32.008 J-8.49865
G3 X-202.68787 Y-30.03452 I-1.22268 J0.86895
G2 X-194.71603 Y-22.82231 I19.18358 J-13.19226
G2 X-184.28897 Y-20.37189 I10.08529 J-19.50516
G3 X-184.25505 Y-20.37203 I0.02335 J1.49982
G2 X-177.06746 Y-20.97629 I0.27996 J-39.71996
G3 X-177.06134 Y-20.97736 I0.26086 J1.47714
G2 X-170.39823 Y-23.21265 I-3.91515 J-22.71906
G3 X-170.38488 Y-23.21947 I0.68827 J1.33277
G2 X-165.81706 Y-27.32352 I-5.26944 J-10.45891
G2 X-164.28084 Y-33.23143 I-9.58863 J-5.647
G3 X-164.2812 Y-33.25464 I1.49959 J-0.03517
G2 X-165.84027 Y-38.01434 I-8.2457 J0.06574
G2 X-169.69315 Y-41.80083 I-13.19498 J9.57286
G2 X-175.10335 Y-44.89319 I-26.95546 J40.88079
G3 X-175.12048 Y-44.90172 I0.65998 J-1.347
G2 X-180.87196 Y-47.69849 I-91.71375 J181.29399
G3 X-180.87959 Y-47.70208 I0.63465 J-1.35912
G1 X-201.39716 Y-57.42376
G3 X-202.00936 Y-59.60167 I0.64228 J-1.35553
G3 X-193.97414 Y-66.82758 I17.7029 J11.60508
G3 X-193.93472 Y-66.8471 I0.68508 J1.33442
G3 X-182.7844 Y-69.2487 I10.63901 J22.30996
G3 X-182.77496 Y-69.24848 I-0.03103 J1.49968
G3 X-173.70454 Y-67.79566 I-0.94262 J34.92629
G3 X-169.0303 Y-66.07228 I-7.15354 J26.6028
G3 X-164.74019 Y-62.61991 I-4.32113 J9.76141
G3 X-164.66616 Y-62.5088 I-1.21 J0.88651
G2 X-163.34533 Y-60.90619 I6.1082 J-3.68863
G3 X-163.32492 Y-60.88739 I-1.00638 J1.1123
G2 X-162.00789 Y-60.3332 I1.4045 J-1.49576
G2 X-159.79391 Y-61.3087 I-0.03706 J-3.08426
G3 X-159.67966 Y-61.41843 I1.09469 J1.0255
G2 X-158.69532 Y-63.56012 I-1.85754 J-2.1508
G2 X-159.45301 Y-66.40902 I-5.78273 J0.01278
G2 X-162.81363 Y-69.89583 I-9.52858 J5.82081
G3 X-162.83366 Y-69.90934 I0.8286 J-1.25037
G2 X-167.40786 Y-72.44284 I-15.50611 J22.59999
G3 X-167.4408 Y-72.45764 I0.59829 J-1.37552
G2 X-182.8341 Y-75.97082 I-15.93954 J34.36041
G2 X-192.77426 Y-74.69323 I-0.38063 J36.34674
G2 X-201.53565 Y-70.23081 I6.49243 J23.57919
G2 X-207.40683 Y-62.40552 I12.4203 J15.43391
G2 X-209.1916 Y-52.62688 I23.63554 J9.36609
G3 X-209.19146 Y-52.58965 I-1.4998 J0.02434
G2 X-209.19163 Y-51.83342 I45.17572 J0.38805
G0 Z3.0
G0 X-204.98938 Y-53.52584
G0 Z-1.0
G1 F300.0 Z-4.0
G3 F800.0 X-204.00153 Y-54.09429 I3.32141 J4.62935
G3 X-204.91478 Y-54.88247 I3.24664 J-4.68501
G2 X-204.98938 Y-53.52584 I21.14348 J1.84304
G1 F300.0 X-205.58922 Y-53.53959
G2 F800.0 X-205.59208 Y-52.6853 I21.81793 J0.50016
G3 X-205.59159 Y-52.55873 I-5.09933 J0.08276
G2 X-205.59309 Y-52.14901 I41.57586 J0.35713
G3 X-202.44171 Y-53.93502 I3.92513 J3.25252
G1 X-202.93864 Y-54.17048
G3 X-205.31844 Y-56.50246 I2.18376 J-4.60882
G2 X-205.58922 Y-53.53959 I21.54715 J3.46303
G0 Z3.0
G0 X-203.40851 Y-50.95744
G0 Z-1.0
G1 F300.0 Z-4.0
G3 F800.0 X-200.50941 Y-51.33263 I1.74055 J2.06096
G1 X-184.02015 Y-43.49083
G3 X-184.00731 Y-43.48468 I-1.15856 J2.43614
G3 X-176.71525 Y-39.67616 I-55.61192 J115.36364
G3 X-169.63497 Y-34.94248 I-23.92635 J43.44907
G3 X-169.50013 Y-30.84683 I-1.68631 J2.10556
G3 X-176.64367 Y-26.85724 I-12.02409 J-13.13944
G3 X-176.64749 Y-26.85615 I-0.7392 J-2.59434
G3 X-184.26225 Y-25.8422 I-7.31053 J-25.80178
G3 X-197.25948 Y-31.93763 I-0.2201 J-16.43533
G3 X-201.86026 Y-39.92454 I21.61006 J-17.76682
G3 X-204.31182 Y-48.36068 I49.5625 J-18.97729
G3 X-203.40851 Y-50.95744 I2.64385 J-0.5358
G1 F300.0 X-202.6358 Y-50.04248
G3 F800.0 X-201.02375 Y-50.2511 I0.96783 J1.146
G1 X-184.5345 Y-42.4093
G3 X-184.52736 Y-42.40589 I-0.64422 J1.35462
G3 X-177.2982 Y-38.63 I-55.09187 J114.28484
G3 X-170.38361 Y-34.00771 I-23.34339 J42.40292
G3 X-170.30864 Y-31.73033 I-0.93768 J1.1708
G3 X-176.97183 Y-28.009 I-11.21558 J-12.25594
G3 X-176.97396 Y-28.00839 I-0.41103 J-1.44258
G3 X-184.26359 Y-27.0399 I-6.98406 J-24.64953
G3 X-196.33142 Y-32.69458 I-0.21876 J-15.23763
G3 X-200.74 Y-40.34797 I20.682 J-17.00987
G3 X-203.13808 Y-48.59855 I48.44224 J-18.55386
G3 X-202.6358 Y-50.04248 I1.47011 J-0.29793
G0 Z3.0
G0 X-204.18278 Y-51.87424
G0 Z-1.0
G1 F300.0 Z-4.0
G2 F800.0 X-205.48791 Y-48.12234 I2.51481 J2.97775
G2 X-202.98274 Y-39.50021 I53.19016 J-10.7795
G2 X-198.18935 Y-31.17911 I27.33332 J-10.20424
G2 X-184.26112 Y-24.64212 I13.707 J-11.09842
G2 X-176.32037 Y-25.7016 I0.3031 J-28.01581
G2 X-176.31484 Y-25.70317 I-1.0625 J-3.74998
G2 X-168.69001 Y-29.96156 I-5.20938 J-18.2831
G2 X-168.88483 Y-35.87911 I-2.63128 J-2.87535
G2 X-176.13108 Y-40.72439 I-31.75676 J39.65203
G2 X-183.48623 Y-44.56564 I-63.48815 J112.60334
G2 X-183.50478 Y-44.57452 I-1.69248 J3.51095
G1 X-199.99404 Y-52.41632
G2 X-204.18278 Y-51.87424 I-1.67393 J3.51984
G0 Z3.0
G0 X-206.79171 Y-51.85298
G0 Z-1.0
G1 F300.0 Z-4.0
G2 F800.0 X-205.39434 Y-41.35189 I42.77597 J-0.34863
G2 X-200.74487 Y-31.44383 I29.68745 J-7.88622
G3 X-200.71034 Y-31.39444 I-3.17896 J2.25926
G2 X-193.58685 Y-24.94032 I17.20605 J-11.83234
G2 X-184.32633 Y-22.7716 I8.95611 J-17.38714
G3 X-184.23814 Y-22.77197 I0.0607 J3.89953
G2 X-177.48483 Y-23.33972 I0.26304 J-37.32002
G3 X-177.46892 Y-23.3425 I0.67823 J3.84057
G2 X-171.49947 Y-25.34509 I-3.50757 J-20.35393
G3 X-171.46474 Y-25.36281 I1.78951 J3.46521
G2 X-167.86012 Y-28.58409 I-4.18958 J-8.31557
G2 X-166.68018 Y-33.17516 I-7.54557 J-4.38643
G3 X-166.68113 Y-33.23551 I3.89893 J-0.09144
G2 X-167.78474 Y-36.60755 I-5.84578 J0.04661
G2 X-171.04242 Y-39.81572 I-11.25051 J8.16607
G2 X-176.15932 Y-42.73798 I-25.6062 J38.89567
G3 X-176.20386 Y-42.76016 I1.71596 J-3.50221
G2 X-181.8874 Y-45.52389 I-90.63037 J179.15242
G3 X-181.90724 Y-45.53323 I1.65009 J-3.53372
G1 X-202.42482 Y-55.25491
G3 X-204.01652 Y-60.91745 I1.66993 J-3.52439
G3 X-195.07027 Y-68.96265 I19.71006 J12.92087
G3 X-194.96776 Y-69.01339 I1.7812 J3.46948
G3 X-182.73475 Y-71.64819 I11.67206 J24.47625
G3 X-182.71021 Y-71.6476 I-0.08068 J3.89917
G3 X-173.04876 Y-70.10455 I-1.00737 J37.32542
G3 X-168.02828 Y-68.25331 I-7.80932 J28.9117
G3 X-162.80419 Y-64.03832 I-5.32315 J11.94243
G3 X-162.6117 Y-63.74945 I-3.146 J2.30492
G2 X-161.82496 Y-62.76929 I4.05374 J-2.44798
G2 X-161.54541 Y-62.94951 I-0.21998 J-0.64817
G3 X-161.24836 Y-63.23479 I2.8462 J2.6663
G2 X-161.09534 Y-63.56339 I-0.28884 J-0.33443
G2 X-161.5218 Y-65.19159 I-3.38271 J0.01604
G2 X-164.13938 Y-67.89524 I-7.4598 J4.60338
G3 X-164.19146 Y-67.93036 I2.15435 J-3.25097
G2 X-168.36512 Y-70.24201 I-14.14831 J20.62101
G3 X-168.45076 Y-70.28049 I1.55555 J-3.57635
G2 X-182.86397 Y-73.571 I-14.92958 J32.18326
G2 X-192.14008 Y-72.37854 I-0.35077 J33.94692
G2 X-200.03483 Y-68.35796 I5.85825 J21.26449
G2 X-205.18315 Y-61.50235 I10.91948 J13.56106
G2 X-206.79192 Y-52.66582 I21.41186 J8.46292
G3 X-206.79155 Y-52.56904 I-3.89949 J0.06329
G2 X-206.79171 Y-51.85298 I42.77581 J0.36744
G1 F300.0 X-207.99167 Y-51.8432
G2 F800.0 X-206.55462 Y-41.04568 I43.97593 J-0.35841
G2 X-201.72301 Y-30.74867 I30.84773 J-8.19244
G3 X-201.69911 Y-30.71448 I-2.20082 J1.5641
G2 X-194.15143 Y-23.8813 I18.19481 J-12.5123
G2 X-184.30765 Y-21.57174 I9.52069 J-18.44616
G3 X-184.2466 Y-21.572 I0.04202 J2.69967
G2 X-177.27614 Y-22.15801 I0.2715 J-38.51999
G3 X-177.26513 Y-22.15993 I0.46954 J2.65886
G2 X-170.94885 Y-24.27887 I-3.71136 J-21.5365
G3 X-170.92481 Y-24.29114 I1.23889 J2.39899
G2 X-166.83853 Y-27.95382 I-4.72951 J-9.38724
G2 X-165.48051 Y-33.2033 I-8.56716 J-5.0167
G3 X-165.48116 Y-33.24508 I2.69926 J-0.06331
G2 X-166.81248 Y-37.31091 I-7.04574 J0.05617
G2 X-170.36759 Y-40.80815 I-12.22277 J8.86943
G2 X-175.63134 Y-43.81558 I-26.28103 J39.8881
G3 X-175.66217 Y-43.83094 I1.18797 J-2.42461
G2 X-181.37968 Y-46.61119 I-91.17206 J180.2232
G3 X-181.39341 Y-46.61766 I1.14237 J-2.44642
G1 X-201.91099 Y-56.33933
G3 X-203.01294 Y-60.25956 I1.15611 J-2.43996
G3 X-194.5222 Y-67.89511 I18.70648 J12.26298
G3 X-194.45124 Y-67.93024 I1.23314 J2.40195
G3 X-182.75958 Y-70.44845 I11.15554 J23.39311
G3 X-182.74259 Y-70.44804 I-0.05585 J2.69942
G3 X-173.37668 Y-68.95012 I-0.975 J36.12586
G3 X-168.52949 Y-67.16289 I-7.4814 J27.75726
G3 X-163.77219 Y-63.32911 I-4.82193 J10.85202
G3 X-163.63893 Y-63.12913 I-2.178 J1.59572
G2 X-162.54022 Y-61.79603 I5.08097 J-3.0683
G3 X-162.5035 Y-61.76218 I-1.81148 J2.00214
G2 X-161.98634 Y-61.53389 I0.58308 J-0.62096
G2 X-160.66966 Y-62.1291 I-0.05861 J-1.88357
G3 X-160.46401 Y-62.32661 I1.97044 J1.8459
G2 X-159.89532 Y-63.56097 I-1.07319 J-1.24262
G2 X-160.48696 Y-65.79963 I-4.58273 J0.01363
G2 X-163.4765 Y-68.89553 I-8.49463 J5.21142
G3 X-163.51256 Y-68.91985 I1.49147 J-2.25067
G2 X-167.88649 Y-71.34243 I-14.82721 J21.6105
G3 X-167.94578 Y-71.36907 I1.07692 J-2.47593
G2 X-182.84904 Y-74.77091 I-15.43456 J33.27183
G2 X-192.45718 Y-73.53588 I-0.3657 J35.14683
G2 X-200.78525 Y-69.29438 I6.17535 J22.42184
G2 X-206.29498 Y-61.95397 I11.6699 J14.49748
G2 X-207.99176 Y-52.64635 I22.52369 J8.91454
G3 X-207.99151 Y-52.57935 I-2.69964 J0.04381
G2 X-207.99167 Y-51.8432 I43.97577 J0.37774
G1 F300.0 X-209.19163 Y-51.83342
G2 F800.0 X-207.71489 Y-40.73947 I45.17589 J-0.36819
G2 X-202.70115 Y-30.05352 I32.008 J-8.49865
G3 X-202.68787 Y-30.03452 I-1.22268 J0.86895
G2 X-194.71603 Y-22.82231 I19.18358 J-13.19226
G2 X-184.28897 Y-20.37189 I10.08529 J-19.50516
G3 X-184.25505 Y-20.37203 I0.02335 J1.49982
G2 X-177.06746 Y-20.97629 I0.27996 J-39.71996
G3 X-177.06134 Y-20.97736 I0.26086 J1.47714
G2 X-170.39823 Y-23.21265 I-3.91515 J-22.71906
G3 X-170.38488 Y-23.21947 I0.68827 J1.33277
G2 X-165.81706 Y-27.32352 I-5.26944 J-10.45891
G2 X-164.28084 Y-33.23143 I-9.58863 J-5.647
G3 X-164.2812 Y-33.25464 I1.49959 J-0.03517
G2 X-165.84027 Y-38.01434 I-8.2457 J0.06574
G2 X-169.69315 Y-41.80083 I-13.19498 J9.57286
G2 X-175.10335 Y-44.89319 I-26.95546 J40.88079
G3 X-175.12048 Y-44.90172 I0.65998 J-1.347
G2 X-180.87196 Y-47.69849 I-91.71375 J181.29399
G3 X-180.87959 Y-47.70208 I0.63465 J-1.35912
G1 X-201.39716 Y-57.42376
G3 X-202.00936 Y-59.60167 I0.64228 J-1.35553
G3 X-193.97414 Y-66.82758 I17.7029 J11.60508
G3 X-193.93472 Y-66.8471 I0.68508 J1.33442
G3 X-182.7844 Y-69.2487 I10.63901 J22.30996
G3 X-182.77496 Y-69.24848 I-0.03103 J1.49968
G3 X-173.70454 Y-67.79566 I-0.94262 J34.92629
G3 X-169.0303 Y-66.07228 I-7.15354 J26.6028
G3 X-164.74019 Y-62.61991 I-4.32113 J9.76141
G3 X-164.66616 Y-62.5088 I-1.21 J0.88651
G2 X-163.34533 Y-60.90619 I6.1082 J-3.68863
G3 X-163.32492 Y-60.88739 I-1.00638 J1.1123
G2 X-162.00789 Y-60.3332 I1.4045 J-1.49576
G2 X-159.79391 Y-61.3087 I-0.03706 J-3.08426
G3 X-159.67966 Y-61.41843 I1.09469 J1.0255
G2 X-158.69532 Y-63.56012 I-1.85754 J-2.1508
G2 X-159.45301 Y-66.40902 I-5.78273 J0.01278
G2 X-162.81363 Y-69.89583 I-9.52858 J5.82081
G3 X-162.83366 Y-69.90934 I0.8286 J-1.25037
G2 X-167.40786 Y-72.44284 I-15.50611 J22.59999
G3 X-167.4408 Y-72.45764 I0.59829 J-1.37552
G2 X-182.8341 Y-75.97082 I-15.93954 J34.36041
G2 X-192.77426 Y-74.69323 I-0.38063 J36.34674
G2 X-201.53565 Y-70.23081 I6.49243 J23.57919
G2 X-207.40683 Y-62.40552 I12.4203 J15.43391
G2 X-209.1916 Y-52.62688 I23.63554 J9.36609
G3 X-209.19146 Y-52.58965 I-1.4998 J0.02434
G2 X-209.19163 Y-51.83342 I45.17572 J0.38805
G0 Z3.0
G0 X-250.62575 Y-67.22873
G0 Z1.0
G1 F300.0 Z-2.0
G2 F800.0 X-251.47365 Y-69.0696 I-100.39403 J45.12595
G2 X-252.17105 Y-67.17429 I265.49979 J98.76989
G3 X-250.62575 Y-67.22873 I1.03531 J7.4282
G1 F300.0 X-249.53123 Y-67.72071
G2 F800.0 X-251.61356 Y-72.09601 I-101.48855 J45.61792
G2 X-254.12134 Y-65.29372 I265.6397 J101.7963
G3 X-248.56008 Y-65.49552 I2.9856 J5.54763
G2 X-249.53123 Y-67.72071 I-102.4597 J43.39274
G1 F300.0 X-248.43672 Y-68.21268
G2 F800.0 X-251.10118 Y-73.73302 I-102.58306 J46.1099
G3 X-251.12972 Y-73.78908 I4.53087 J-2.3412
G2 X-251.42586 Y-74.19692 I-1.38453 J0.69391
G3 X-251.55839 Y-74.1992 I0.02156 J-5.09995
G2 X-251.92545 Y-74.11325 I-0.02213 J0.73223
G2 X-252.40746 Y-73.37744 I1.30346 J1.37963
G3 X-252.44789 Y-73.26917 I-4.79762 J-1.72998
G2 X-260.19605 Y-50.38285 I266.47403 J102.96947
G3 X-260.20195 Y-50.36279 I-4.89551 J-1.42967
G2 X-266.7143 Y-26.8391 I644.43922 J191.07118
G3 X-266.75157 Y-26.70221 I-4.93902 J-1.27125
G1 X-270.99415 Y-11.93375
G2 X-272.85822 Y-4.90091 I176.58251 J50.56714
G2 X-273.60219 Y-1.48298 I70.84837 J17.21135
G3 X-273.61636 Y-1.41215 I-5.0079 J-0.96485
G2 X-273.96716 Y1.41584 I17.2249 J3.57241
G2 X-273.95828 Y1.43248 I0.02696 J-0.0037
G3 X-273.84628 Y1.53507 I-3.3884 J3.81166
G2 X-273.68993 Y1.59538 I0.15188 J-0.16094
G3 X-273.47604 Y1.59554 I0.10302 J5.09896
G2 X-273.30242 Y1.18558 I-1.15729 J-0.73187
G1 X-271.3244 Y-8.11643
G3 X-271.24404 Y-8.44148 I4.98846 J1.06077
G1 X-266.10656 Y-26.63673
G3 X-255.97737 Y-61.34879 I490.37199 J124.25964
G3 X-246.36046 Y-61.53682 I4.84163 J1.60269
G1 X-246.0382 Y-60.67745
G3 X-246.02905 Y-60.65287 I-4.77528 J1.79073
G1 X-231.63452 Y-21.65873
G3 X-231.60069 Y-21.56422 I-4.78442 J1.76615
G1 X-227.06001 Y-8.47639
G2 X-224.53096 Y-2.7799 I54.32399 J-20.70839
G3 X-224.51459 Y-2.74751 I-4.54363 J2.31633
G2 X-221.39639 Y2.08173 I23.62333 J-11.83207
G3 X-221.25637 Y2.26217 I-3.9581 J3.21613
G2 X-221.14325 Y2.33949 I0.1681 J-0.12452
G2 X-221.07643 Y2.29766 I-0.04536 J-0.14675
G3 X-220.7567 Y1.98453 I3.72486 J3.48359
G2 X-220.73361 Y1.94355 I-0.04893 J-0.05456
G2 X-220.8613 Y1.59608 I-0.69987 J0.05999
G3 X-220.94589 Y1.47354 I4.15427 J-2.95838
G3 X-226.89371 Y-10.00986 I48.20539 J-32.24995
G3 X-226.94996 Y-10.1639 I4.76188 J-1.82607
G1 X-231.01496 Y-21.87753
G1 X-245.44518 Y-60.87668
G3 X-245.44927 Y-60.88776 I4.78307 J-1.7698
G2 X-248.43672 Y-68.21268 I-105.57051 J38.78497
G1 F300.0 X-247.3422 Y-68.70465
G2 F800.0 X-250.03509 Y-74.28389 I-103.67758 J46.60187
G3 X-250.05691 Y-74.32676 I3.46478 J-1.79033
G2 X-250.80439 Y-75.2473 I-2.45733 J1.23159
G2 X-251.33658 Y-75.39746 I-0.51554 J0.80899
G3 X-251.52213 Y-75.39866 I-0.06771 J-3.89941
G2 X-252.64474 Y-75.08012 I-0.05839 J1.93168
G2 X-253.53631 Y-73.7845 I2.02275 J2.3465
G3 X-253.56723 Y-73.7017 I-3.66877 J-1.32293
G2 X-261.34794 Y-50.71924 I267.59337 J103.40199
G3 X-261.35245 Y-50.7039 I-3.74363 J-1.09328
G2 X-267.87642 Y-27.13822 I645.58972 J191.41229
G3 X-267.90492 Y-27.03354 I-3.7769 J-0.97213
G1 X-272.14764 Y-12.26459
G2 X-274.02417 Y-5.18476 I177.736 J50.89799
G2 X-274.78052 Y-1.71001 I72.01432 J17.4952
G3 X-274.79136 Y-1.65584 I-3.82957 J-0.73783
G2 X-275.16727 Y1.39361 I18.3999 J3.8161
G2 X-274.75555 Y2.32934 I1.22707 J0.01853
G3 X-274.6699 Y2.40779 I-2.59113 J2.9148
G2 X-273.66569 Y2.79513 I0.97551 J-1.03366
G3 X-273.42726 Y2.79761 I0.07878 J3.8992
G2 X-272.73621 Y2.59636 I0.04623 J-1.12835
G2 X-272.13159 Y1.44894 I-1.89711 J-1.73269
G1 X-270.15065 Y-7.86684
G3 X-270.0892 Y-8.11541 I3.81471 J0.81117
G1 X-264.94731 Y-26.32627
G3 X-254.83816 Y-60.97168 I489.21273 J123.94917
G3 X-247.48406 Y-61.11548 I3.70242 J1.22559
G1 X-247.16179 Y-60.2561
G3 X-247.1548 Y-60.2373 I-3.65168 J1.36938
G1 X-232.76027 Y-21.24316
G3 X-232.73439 Y-21.17089 I-3.65868 J1.35059
G1 X-228.1878 Y-8.066
G2 X-225.60005 Y-2.23488 I55.45178 J-21.11878
G3 X-225.58753 Y-2.21011 I-3.47454 J1.77131
G2 X-222.32771 Y2.83846 I24.69627 J-12.36946
G3 X-222.22063 Y2.97645 I-3.02678 J2.45939
G2 X-221.14586 Y3.54567 I1.13236 J-0.83879
G2 X-220.19999 Y3.11733 I-0.04275 J-1.35292
G3 X-219.95549 Y2.87788 I2.84842 J2.66392
G2 X-219.53235 Y1.93316 I-0.85014 J-0.9479
G2 X-219.88383 Y0.89999 I-1.90113 J0.07039
G3 X-219.94852 Y0.80629 I3.1768 J-2.26229
G3 X-225.77327 Y-10.43953 I47.20801 J-31.5827
G3 X-225.81628 Y-10.55732 I3.64143 J-1.39641
G1 X-229.88529 Y-22.2825
G1 X-244.31975 Y-61.29311
G3 X-244.32288 Y-61.30157 I3.65764 J-1.35338
G2 X-247.3422 Y-68.70465 I-106.6969 J39.19879
G1 F300.0 X-246.24769 Y-69.19662
G2 F800.0 X-248.96901 Y-74.83476 I-104.77209 J47.09384
G3 X-248.98411 Y-74.86444 I2.39869 J-1.23946
G2 X-250.10157 Y-76.22105 I-3.53013 J1.76927
G2 X-251.35742 Y-76.59728 I-1.21836 J1.78274
G3 X-251.48588 Y-76.59811 I-0.04688 J-2.69959
G2 X-253.37177 Y-76.03688 I-0.09465 J3.13114
G2 X-254.66516 Y-74.19155 I2.74978 J3.30326
G3 X-254.68657 Y-74.13423 I-2.53992 J-0.91587
G2 X-262.49982 Y-51.05563 I268.71271 J103.83452
G3 X-262.50295 Y-51.04501 I-2.59174 J-0.75689
G2 X-269.03854 Y-27.43734 I646.74021 J191.7534
G3 X-269.05828 Y-27.36487 I-2.61478 J-0.67301
G1 X-273.30113 Y-12.59544
G2 X-275.19011 Y-5.46861 I178.88949 J51.22883
G2 X-275.95885 Y-1.93703 I73.18027 J17.77905
G3 X-275.96635 Y-1.89953 I-2.65124 J-0.5108
G2 X-276.3668 Y1.3577 I19.57489 J4.0598
G2 X-275.55282 Y3.2262 I2.4266 J0.05444
G3 X-275.49353 Y3.28051 I-1.79386 J2.01794
G2 X-273.64145 Y3.99489 I1.79913 J-1.90638
G3 X-273.47639 Y3.9966 I0.05454 J2.69945
G2 X-271.93431 Y3.4948 I0.09535 J-2.32734
G2 X-270.96012 Y1.70931 I-2.69901 J-2.63113
G1 X-268.97689 Y-7.61725
G3 X-268.93435 Y-7.78933 I2.64095 J0.56158
G1 X-263.78804 Y-26.01582
G3 X-253.69896 Y-60.59458 I488.05347 J123.63873
G3 X-248.60765 Y-60.69413 I2.56322 J0.84848
G1 X-248.28539 Y-59.83475
G3 X-248.28055 Y-59.82174 I-2.52809 J0.94803
G1 X-233.88602 Y-20.8276
G3 X-233.8681 Y-20.77756 I-2.53293 J0.93502
G1 X-229.31565 Y-7.65579
G2 X-226.66914 Y-1.68987 I56.57963 J-21.529
G3 X-226.66048 Y-1.67272 I-2.40545 J1.22629
G2 X-223.25903 Y3.5952 I25.76922 J-12.90686
G3 X-223.1849 Y3.69073 I-2.09546 J1.70265
G2 X-221.15164 Y4.74607 I2.09663 J-1.55307
G2 X-219.32355 Y3.937 I-0.03696 J-2.55333
G3 X-219.15428 Y3.77122 I1.97199 J1.84425
G2 X-218.33241 Y1.91141 I-1.65135 J-1.84125
G2 X-218.90635 Y0.2039 I-3.10107 J0.09213
G3 X-218.95114 Y0.13903 I2.19932 J-1.5662
G3 X-224.65283 Y-10.86919 I46.21063 J-30.91544
G3 X-224.68261 Y-10.95074 I2.52099 J-0.96674
G1 X-228.75562 Y-22.68746
G1 X-243.19433 Y-61.70953
G3 X-243.19649 Y-61.71539 I2.53222 J-0.93695
G2 X-246.24769 Y-69.19662 I-107.82329 J39.61261
G1 F300.0 X-245.15317 Y-69.68859
G2 F800.0 X-247.90292 Y-75.38563 I-105.86661 J47.58581
G3 X-247.91131 Y-75.40212 I1.33261 J-0.68859
G2 X-249.39468 Y-77.19118 I-4.60293 J2.30695
G2 X-251.37825 Y-77.7971 I-1.92524 J2.75287
G3 X-251.44962 Y-77.79756 I-0.02604 J-1.49977
G2 X-254.10069 Y-76.99116 I-0.13091 J4.33059
G2 X-255.79401 Y-74.5986 I3.4787 J4.25754
G3 X-255.8059 Y-74.56676 I-1.41107 J-0.50882
G2 X-263.65171 Y-51.39203 I269.83205 J104.26705
G3 X-263.65344 Y-51.38613 I-1.43986 J-0.42049
G2 X-270.20067 Y-27.73646 I647.89071 J192.09452
G3 X-270.21163 Y-27.69619 I-1.45265 J-0.3739
G1 X-274.45462 Y-12.92628
G2 X-276.35606 Y-5.75247 I180.04298 J51.55968
G2 X-277.13718 Y-2.16406 I74.34621 J18.06291
G3 X-277.14135 Y-2.14322 I-1.47291 J-0.28378
G2 X-277.56622 Y1.31924 I20.74989 J4.30349
G2 X-276.35009 Y4.12306 I3.62602 J0.0929
G3 X-276.31715 Y4.15324 I-0.99659 J1.12108
G2 X-273.61721 Y5.19464 I2.62275 J-2.7791
G3 X-273.52551 Y5.19559 I0.0303 J1.49969
G2 X-271.12723 Y4.38519 I0.14448 J-3.52634
G2 X-269.78831 Y1.96805 I-3.5061 J-3.52152
G1 X-267.80313 Y-7.36765
G3 X-267.7795 Y-7.46326 I1.4672 J0.31199
G1 X-262.62878 Y-25.70539
G3 X-252.55975 Y-60.21747 I486.8942 J123.3283
G3 X-249.73125 Y-60.27278 I1.42401 J0.47138
G1 X-249.40898 Y-59.4134
G3 X-249.40629 Y-59.40617 I-1.40449 J0.52669
G1 X-235.01176 Y-20.41203
G3 X-235.00181 Y-20.38424 I-1.40718 J0.51946
G1 X-230.44355 Y-7.24573
G2 X-227.73823 Y-1.14485 I57.70753 J-21.93905
G3 X-227.73342 Y-1.13532 I-1.33636 J0.68127
G2 X-224.19035 Y4.35193 I26.84216 J-13.44426
G3 X-224.14916 Y4.405 I-1.16415 J0.94592
G2 X-221.15757 Y5.94621 I3.06089 J-2.26735
G2 X-218.44711 Y4.75666 I-0.03103 J-3.75347
G3 X-218.35307 Y4.66457 I1.09555 J1.02459
G2 X-217.13257 Y1.88886 I-2.45256 J-2.73459
G2 X-217.92888 Y-0.49219 I-4.30091 J0.11468
G3 X-217.95376 Y-0.52823 I1.22184 J-0.87011
G3 X-223.53239 Y-11.29886 I45.21325 J-30.24818
G3 X-223.54893 Y-11.34416 I1.40055 J-0.53708
G1 X-227.62595 Y-23.09243
G1 X-242.0689 Y-62.12595
G3 X-242.0701 Y-62.12921 I1.40679 J-0.52053
G2 X-245.15317 Y-69.68859 I-108.94968 J40.02643
G0 Z3.0
G0 X-250.62575 Y-67.22873
G0 Z-1.0
G1 F300.0 Z-4.0
G2 F800.0 X-251.47365 Y-69.0696 I-100.39403 J45.12595
G2 X-252.17105 Y-67.17429 I265.49979 J98.76989
G3 X-250.62575 Y-67.22873 I1.03531 J7.4282
G1 F300.0 X-249.53123 Y-67.72071
G2 F800.0 X-251.61356 Y-72.09601 I-101.48855 J45.61792
G2 X-254.12134 Y-65.29372 I265.6397 J101.7963
G3 X-248.56008 Y-65.49552 I2.9856 J5.54763
G2 X-249.53123 Y-67.72071 I-102.4597 J43.39274
G1 F300.0 X-248.43672 Y-68.21268
G2 F800.0 X-251.10118 Y-73.73302 I-102.58306 J46.1099
G3 X-251.12972 Y-73.78908 I4.53087 J-2.3412
G2 X-251.42586 Y-74.19692 I-1.38453 J0.69391
G3 X-251.55839 Y-74.1992 I0.02156 J-5.09995
G2 X-251.92545 Y-74.11325 I-0.02213 J0.73223
G2 X-252.40746 Y-73.37744 I1.30346 J1.37963
G3 X-252.44789 Y-73.26917 I-4.79762 J-1.72998
G2 X-260.19605 Y-50.38285 I266.47403 J102.96947
G3 X-260.20195 Y-50.36279 I-4.89551 J-1.42967
G2 X-266.7143 Y-26.8391 I644.43922 J191.07118
G3 X-266.75157 Y-26.70221 I-4.93902 J-1.27125
G1 X-270.99415 Y-11.93375
G2 X-272.85822 Y-4.90091 I176.58251 J50.56714
G2 X-273.60219 Y-1.48298 I70.84837 J17.21135
G3 X-273.61636 Y-1.41215 I-5.0079 J-0.96485
G2 X-273.96716 Y1.41584 I17.2249 J3.57241
G2 X-273.95828 Y1.43248 I0.02696 J-0.0037
G3 X-273.84628 Y1.53507 I-3.3884 J3.81166
G2 X-273.68993 Y1.59538 I0.15188 J-0.16094
G3 X-273.47604 Y1.59554 I0.10302 J5.09896
G2 X-273.30242 Y1.18558 I-1.15729 J-0.73187
G1 X-271.3244 Y-8.11643
G3 X-271.24404 Y-8.44148 I4.98846 J1.06077
G1 X-266.10656 Y-26.63673
G3 X-255.97737 Y-61.34879 I490.37199 J124.25964
G3 X-246.36046 Y-61.53682 I4.84163 J1.60269
G1 X-246.0382 Y-60.67745
G3 X-246.02905 Y-60.65287 I-4.77528 J1.79073
G1 X-231.63452 Y-21.65873
G3 X-231.60069 Y-21.56422 I-4.78442 J1.76615
G1 X-227.06001 Y-8.47639
G2 X-224.53096 Y-2.7799 I54.32399 J-20.70839
G3 X-224.51459 Y-2.74751 I-4.54363 J2.31633
G2 X-221.39639 Y2.08173 I23.62333 J-11.83207
G3 X-221.25637 Y2.26217 I-3.9581 J3.21613
G2 X-221.14325 Y2.33949 I0.1681 J-0.12452
G2 X-221.07643 Y2.29766 I-0.04536 J-0.14675
G3 X-220.7567 Y1.98453 I3.72486 J3.48359
G2 X-220.73361 Y1.94355 I-0.04893 J-0.05456
G2 X-220.8613 Y1.59608 I-0.69987 J0.05999
G3 X-220.94589 Y1.47354 I4.15427 J-2.95838
G3 X-226.89371 Y-10.00986 I48.20539 J-32.24995
G3 X-226.94996 Y-10.1639 I4.76188 J-1.82607
G1 X-231.01496 Y-21.87753
G1 X-245.44518 Y-60.87668
G3 X-245.44927 Y-60.88776 I4.78307 J-1.7698
G2 X-248.43672 Y-68.21268 I-105.57051 J38.78497
G1 F300.0 X-247.3422 Y-68.70465
G2 F800.0 X-250.03509 Y-74.28389 I-103.67758 J46.60187
G3 X-250.05691 Y-74.32676 I3.46478 J-1.79033
G2 X-250.80439 Y-75.2473 I-2.45733 J1.23159
G2 X-251.33658 Y-75.39746 I-0.51554 J0.80899
G3 X-251.52213 Y-75.39866 I-0.06771 J-3.89941
G2 X-252.64474 Y-75.08012 I-0.05839 J1.93168
G2 X-253.53631 Y-73.7845 I2.02275 J2.3465
G3 X-253.56723 Y-73.7017 I-3.66877 J-1.32293
G2 X-261.34794 Y-50.71924 I267.59337 J103.40199
G3 X-261.35245 Y-50.7039 I-3.74363 J-1.09328
G2 X-267.87642 Y-27.13822 I645.58972 J191.41229
G3 X-267.90492 Y-27.03354 I-3.7769 J-0.97213
G1 X-272.14764 Y-12.26459
G2 X-274.02417 Y-5.18476 I177.736 J50.89799
G2 X-274.78052 Y-1.71001 I72.01432 J17.4952
G3 X-274.79136 Y-1.65584 I-3.82957 J-0.73783
G2 X-275.16727 Y1.39361 I18.3999 J3.8161
G2 X-274.75555 Y2.32934 I1.22707 J0.01853
G3 X-274.6699 Y2.40779 I-2.59113 J2.9148
G2 X-273.66569 Y2.79513 I0.97551 J-1.03366
G3 X-273.42726 Y2.79761 I0.07878 J3.8992
G2 X-272.73621 Y2.59636 I0.04623 J-1.12835
G2 X-272.13159 Y1.44894 I-1.89711 J-1.73269
G1 X-270.15065 Y-7.86684
G3 X-270.0892 Y-8.11541 I3.81471 J0.81117
G1 X-264.94731 Y-26.32627
G3 X-254.83816 Y-60.97168 I489.21273 J123.94917
G3 X-247.48406 Y-61.11548 I3.70242 J1.22559
G1 X-247.16179 Y-60.2561
G3 X-247.1548 Y-60.2373 I-3.65168 J1.36938
G1 X-232.76027 Y-21.24316
G3 X-232.73439 Y-21.17089 I-3.65868 J1.35059
G1 X-228.1878 Y-8.066
G2 X-225.60005 Y-2.23488 I55.45178 J-21.11878
G3 X-225.58753 Y-2.21011 I-3.47454 J1.77131
G2 X-222.32771 Y2.83846 I24.69627 J-12.36946
G3 X-222.22063 Y2.97645 I-3.02678 J2.45939
G2 X-221.14586 Y3.54567 I1.13236 J-0.83879
G2 X-220.19999 Y3.11733 I-0.04275 J-1.35292
G3 X-219.95549 Y2.87788 I2.84842 J2.66392
G2 X-219.53235 Y1.93316 I-0.85014 J-0.9479
G2 X-219.88383 Y0.89999 I-1.90113 J0.07039
G3 X-219.94852 Y0.80629 I3.1768 J-2.26229
G3 X-225.77327 Y-10.43953 I47.20801 J-31.5827
G3 X-225.81628 Y-10.55732 I3.64143 J-1.39641
G1 X-229.88529 Y-22.2825
G1 X-244.31975 Y-61.29311
G3 X-244.32288 Y-61.30157 I3.65764 J-1.35338
G2 X-247.3422 Y-68.70465 I-106.6969 J39.19879
G1 F300.0 X-246.24769 Y-69.19662
G2 F800.0 X-248.96901 Y-74.83476 I-104.77209 J47.09384
G3 X-248.98411 Y-74.86444 I2.39869 J-1.23946
G2 X-250.10157 Y-76.22105 I-3.53013 J1.76927
G2 X-251.35742 Y-76.59728 I-1.21836 J1.78274
G3 X-251.48588 Y-76.59811 I-0.04688 J-2.69959
G2 X-253.37177 Y-76.03688 I-0.09465 J3.13114
G2 X-254.66516 Y-74.19155 I2.74978 J3.30326
G3 X-254.68657 Y-74.13423 I-2.53992 J-0.91587
G2 X-262.49982 Y-51.05563 I268.71271 J103.83452
G3 X-262.50295 Y-51.04501 I-2.59174 J-0.75689
G2 X-269.03854 Y-27.43734 I646.74021 J191.7534
G3 X-269.05828 Y-27.36487 I-2.61478 J-0.67301
G1 X-273.30113 Y-12.59544
G2 X-275.19011 Y-5.46861 I178.88949 J51.22883
G2 X-275.95885 Y-1.93703 I73.18027 J17.77905
G3 X-275.96635 Y-1.89953 I-2.65124 J-0.5108
G2 X-276.3668 Y1.3577 I19.57489 J4.0598
G2 X-275.55282 Y3.2262 I2.4266 J0.05444
G3 X-275.49353 Y3.28051 I-1.79386 J2.01794
G2 X-273.64145 Y3.99489 I1.79913 J-1.90638
G3 X-273.47639 Y3.9966 I0.05454 J2.69945
G2 X-271.93431 Y3.4948 I0.09535 J-2.32734
G2 X-270.96012 Y1.70931 I-2.69901 J-2.63113
G1 X-268.97689 Y-7.61725
G3 X-268.93435 Y-7.78933 I2.64095 J0.56158
G1 X-263.78804 Y-26.01582
G3 X-253.69896 Y-60.59458 I488.05347 J123.63873
G3 X-248.60765 Y-60.69413 I2.56322 J0.84848
G1 X-248.28539 Y-59.83475
G3 X-248.28055 Y-59.82174 I-2.52809 J0.94803
G1 X-233.88602 Y-20.8276
G3 X-233.8681 Y-20.77756 I-2.53293 J0.93502
G1 X-229.31565 Y-7.65579
G2 X-226.66914 Y-1.68987 I56.57963 J-21.529
G3 X-226.66048 Y-1.67272 I-2.40545 J1.22629
G2 X-223.25903 Y3.5952 I25.76922 J-12.90686
G3 X-223.1849 Y3.69073 I-2.09546 J1.70265
G2 X-221.15164 Y4.74607 I2.09663 J-1.55307
G2 X-219.32355 Y3.937 I-0.03696 J-2.55333
G3 X-219.15428 Y3.77122 I1.97199 J1.84425
G2 X-218.33241 Y1.91141 I-1.65135 J-1.84125
G2 X-218.90635 Y0.2039 I-3.10107 J0.09213
G3 X-218.95114 Y0.13903 I2.19932 J-1.5662
G3 X-224.65283 Y-10.86919 I46.21063 J-30.91544
G3 X-224.68261 Y-10.95074 I2.52099 J-0.96674
G1 X-228.75562 Y-22.68746
G1 X-243.19433 Y-61.70953
G3 X-243.19649 Y-61.71539 I2.53222 J-0.93695
G2 X-246.24769 Y-69.19662 I-107.82329 J39.61261
G1 F300.0 X-245.15317 Y-69.68859
G2 F800.0 X-247.90292 Y-75.38563 I-105.86661 J47.58581
G3 X-247.91131 Y-75.40212 I1.33261 J-0.68859
G2 X-249.39468 Y-77.19118 I-4.60293 J2.30695
G2 X-251.37825 Y-77.7971 I-1.92524 J2.75287
G3 X-251.44962 Y-77.79756 I-0.02604 J-1.49977
G2 X-254.10069 Y-76.99116 I-0.13091 J4.33059
G2 X-255.79401 Y-74.5986 I3.4787 J4.25754
G3 X-255.8059 Y-74.56676 I-1.41107 J-0.50882
G2 X-263.65171 Y-51.39203 I269.83205 J104.26705
G3 X-263.65344 Y-51.38613 I-1.43986 J-0.42049
G2 X-270.20067 Y-27.73646 I647.89071 J192.09452
G3 X-270.21163 Y-27.69619 I-1.45265 J-0.3739
G1 X-274.45462 Y-12.92628
G2 X-276.35606 Y-5.75247 I180.04298 J51.55968
G2 X-277.13718 Y-2.16406 I74.34621 J18.06291
G3 X-277.14135 Y-2.14322 I-1.47291 J-0.28378
G2 X-277.56622 Y1.31924 I20.74989 J4.30349
G2 X-276.35009 Y4.12306 I3.62602 J0.0929
G3 X-276.31715 Y4.15324 I-0.99659 J1.12108
G2 X-273.61721 Y5.19464 I2.62275 J-2.7791
G3 X-273.52551 Y5.19559 I0.0303 J1.49969
G2 X-271.12723 Y4.38519 I0.14448 J-3.52634
G2 X-269.78831 Y1.96805 I-3.5061 J-3.52152
G1 X-267.80313 Y-7.36765
G3 X-267.7795 Y-7.46326 I1.4672 J0.31199
G1 X-262.62878 Y-25.70539
G3 X-252.55975 Y-60.21747 I486.8942 J123.3283
G3 X-249.73125 Y-60.27278 I1.42401 J0.47138
G1 X-249.40898 Y-59.4134
G3 X-249.40629 Y-59.40617 I-1.40449 J0.52669
G1 X-235.01176 Y-20.41203
G3 X-235.00181 Y-20.38424 I-1.40718 J0.51946
G1 X-230.44355 Y-7.24573
G2 X-227.73823 Y-1.14485 I57.70753 J-21.93905
G3 X-227.73342 Y-1.13532 I-1.33636 J0.68127
G2 X-224.19035 Y4.35193 I26.84216 J-13.44426
G3 X-224.14916 Y4.405 I-1.16415 J0.94592
G2 X-221.15757 Y5.94621 I3.06089 J-2.26735
G2 X-218.44711 Y4.75666 I-0.03103 J-3.75347
G3 X-218.35307 Y4.66457 I1.09555 J1.02459
G2 X-217.13257 Y1.88886 I-2.45256 J-2.73459
G2 X-217.92888 Y-0.49219 I-4.30091 J0.11468
G3 X-217.95376 Y-0.52823 I1.22184 J-0.87011
G3 X-223.53239 Y-11.29886 I45.21325 J-30.24818
G3 X-223.54893 Y-11.34416 I1.40055 J-0.53708
G1 X-227.62595 Y-23.09243
G1 X-242.0689 Y-62.12595
G3 X-242.0701 Y-62.12921 I1.40679 J-0.52053
G2 X-245.15317 Y-69.68859 I-108.94968 J40.02643
G0 Z3.0
G0 X-140.7304 Y-34.98405
G0 Z1.0
G1 F300.0 Z-2.0
G2 F800.0 X-140.72286 Y-34.32903 I196.75594 J-1.93927
G3 X-140.40178 Y-34.49987 I3.40059 J6.00383
G3 X-140.7304 Y-34.98405 I32.47313 J-22.39379
G1 F300.0 X-140.23147 Y-35.31731
G3 F800.0 X-141.33477 Y-37.06837 I32.30282 J-21.57635
G1 Y-35.49142
G2 X-141.30496 Y-33.2066 I197.3603 J-1.4319
G3 X-139.48663 Y-34.24174 I3.9827 J4.88141
G3 X-139.53045 Y-34.30302 I22.52432 J-16.15266
G3 X-140.23147 Y-35.31731 I31.6018 J-22.59065
G1 F300.0 X-139.23359 Y-35.98383
G3 F800.0 X-142.36318 Y-41.67907 I31.30495 J-20.90983
G3 X-142.53477 Y-42.1222 I4.66494 J-2.06116
G1 Y-35.48708
G2 X-142.43156 Y-30.36312 I198.5603 J-1.43625
G3 X-142.37195 Y-29.03979 I-139.44162 J6.94398
G3 X-137.33918 Y-33.42517 I5.04969 J0.71459
G3 X-138.5538 Y-35.00027 I20.37687 J-16.96923
G3 X-139.23359 Y-35.98383 I30.62516 J-21.89339
G0 Z3.0
G0 X-114.89785 Y-23.4913
G0 Z1.0
G1 F300.0 Z-2.0
G2 F800.0 X-114.45629 Y-23.48865 I0.36938 J-24.73272
G3 X-114.33634 Y-23.48759 I0.01488 J5.09998
G2 X-112.93829 Y-23.7622 I0.06893 J-3.34518
G2 X-112.26789 Y-24.36789 I-0.85354 J-1.61857
G2 X-111.29169 Y-26.91341 I-6.76229 J-4.05328
G3 X-114.89785 Y-23.4913 I-4.86847 J-1.51921
G0 Z3.0
G0 X-111.05435 Y-28.50428
G0 Z1.0
G1 F300.0 Z-2.0
G2 F800.0 X-110.89374 Y-31.50257 I-23.91664 J-2.78452
G3 X-110.89386 Y-31.57804 I5.0998 J-0.04528
G2 X-110.89542 Y-32.83823 I-87.96305 J-0.52061
G3 X-110.9049 Y-32.68877 I-89.8748 J-5.6225
G1 X-111.05435 Y-28.50428
G1 F300.0 X-109.8624 Y-28.36551
G2 F800.0 X-109.69379 Y-31.51323 I-25.10859 J-2.9233
G3 X-109.69388 Y-31.57093 I3.89985 J-0.03462
G2 X-109.74534 Y-35.17314 I-89.16302 J-0.52771
G3 X-109.74726 Y-35.25226 I3.89768 J-0.13448
G2 X-110.39548 Y-37.86725 I-5.93879 J0.0843
G2 X-110.97792 Y-38.12893 I-0.54007 J0.42306
G3 X-111.29024 Y-38.12214 I-0.24083 J-3.89256
G2 X-111.75409 Y-38.0697 I-0.03278 J1.78782
G2 X-111.93938 Y-36.81173 I3.48898 J1.15653
G3 X-111.93872 Y-36.62346 I-3.89851 J0.10763
G3 X-112.10352 Y-32.74871 I-88.8315 J-1.83727
G1 X-112.26264 Y-28.29342
G3 X-116.59743 Y-24.55721 I-3.89752 J-0.1392
G3 X-124.44416 Y-26.23801 I4.56739 J-40.4791
G3 X-132.02719 Y-30.04746 I8.14104 J-25.65746
G3 X-132.07742 Y-30.08422 I2.27817 J-3.16543
G3 X-137.57715 Y-35.69752 I15.11511 J-20.31018
G3 X-141.26555 Y-42.16405 I29.64851 J-21.19614
G3 X-141.59822 Y-43.75447 I3.5673 J-1.57618
G1 X-141.49079 Y-73.18806
G3 X-141.49047 Y-73.22596 I3.89997 J0.01423
G2 X-141.62548 Y-74.3261 I-4.10284 J-0.05485
G3 X-141.64459 Y-74.40168 I3.77133 J-0.99352
G2 X-141.6975 Y-74.4971 I-0.19969 J0.04836
G2 X-142.76569 Y-74.70124 I-0.97927 J2.22741
G3 X-142.97919 Y-74.69928 I-0.14251 J-3.8974
G2 X-143.52895 Y-74.63017 I-0.03532 J1.94019
G2 X-143.73626 Y-73.28189 I3.59527 J1.24289
G3 X-143.73477 Y-73.17383 I-3.8985 J0.10806
G1 Y-35.48274
G2 X-143.63057 Y-30.31342 I199.7603 J-1.44058
G3 X-143.46643 Y-24.875 I-138.24261 J6.89427
G3 X-143.47261 Y-24.61059 I-3.89978 J0.04102
G2 X-143.22621 Y-23.36126 I2.54889 J0.14624
G2 X-142.94108 Y-23.29751 I0.24659 J-0.43342
G3 X-142.51847 Y-23.3073 I0.30143 J3.88833
G2 X-142.2795 Y-23.35555 I0.01659 J-0.53368
G2 X-141.59554 Y-24.73069 I-1.9572 J-1.83114
G3 X-141.56739 Y-24.877 I3.84314 J0.66351
G2 X-141.22215 Y-28.2947 I-15.51624 J-3.29368
G3 X-134.58299 Y-31.10123 I3.89988 J-0.03049
G2 X-125.24654 Y-24.60683 I23.47583 J-23.79089
G2 X-114.45279 Y-22.28866 I10.71808 J-23.61719
G3 X-114.36106 Y-22.28784 I0.01138 J3.89998
G2 X-112.42149 Y-22.67853 I0.09365 J-4.54493
G2 X-111.25174 Y-23.72915 I-1.37034 J-2.70223
G2 X-110.05038 Y-27.04917 I-7.77844 J-4.69202
G3 X-110.04134 Y-27.10554 I3.85526 J0.58904
G2 X-109.8624 Y-28.36551 I-24.92964 J-4.18326
G1 F300.0 X-108.67045 Y-28.22673
G2 F800.0 X-108.49384 Y-31.52388 I-26.30054 J-3.06207
G3 X-108.4939 Y-31.56383 I2.69989 J-0.02397
G2 X-108.54605 Y-35.21452 I-90.363 J-0.53482
G3 X-108.54738 Y-35.26929 I2.69839 J-0.0931
G2 X-109.36898 Y-38.49444 I-7.13867 J0.10134
G2 X-111.05202 Y-39.32664 I-1.56657 J1.05024
G3 X-111.26824 Y-39.32194 I-0.16673 J-2.69485
G2 X-112.2965 Y-39.15942 I-0.05477 J2.98762
G2 X-112.82303 Y-38.64449 I0.33308 J0.86725
G2 X-113.13892 Y-36.77862 I4.55793 J1.73131
G3 X-113.13847 Y-36.64827 I-2.69897 J0.07451
G3 X-113.30214 Y-32.80877 I-87.63175 J-1.81245
G1 X-113.46188 Y-28.33625
G3 X-116.46289 Y-25.74964 I-2.69828 J-0.09637
G3 X-124.07985 Y-27.38137 I4.43284 J-39.28667
G3 X-131.32622 Y-31.02144 I7.77673 J-24.51409
G3 X-131.36099 Y-31.04689 I1.57719 J-2.19145
G3 X-136.6005 Y-36.39477 I14.39868 J-19.34751
G3 X-140.16791 Y-42.64903 I28.67186 J-20.49889
G3 X-140.39822 Y-43.75009 I2.46967 J-1.0912
G1 X-140.2908 Y-73.18368
G3 X-140.29058 Y-73.20992 I2.69998 J0.00985
G2 X-140.46507 Y-74.6318 I-5.30273 J-0.07089
G3 X-140.4783 Y-74.68412 I2.61092 J-0.68782
G2 X-141.0822 Y-75.53424 I-1.36598 J0.33081
G2 X-142.80954 Y-75.90044 I-1.59457 J3.26455
G3 X-142.95735 Y-75.89908 I-0.09866 J-2.6982
G2 X-144.03463 Y-75.72931 I-0.05717 J3.14
G2 X-144.60876 Y-75.17168 I0.35715 J0.9421
G2 X-144.9358 Y-73.24864 I4.67508 J1.78439
G3 X-144.93477 Y-73.17383 I-2.69896 J0.07481
G1 Y-35.47842
G2 X-144.82958 Y-30.26364 I200.9603 J-1.4449
G3 X-144.66636 Y-24.86238 I-137.0436 J6.84449
G3 X-144.67064 Y-24.67932 I-2.69985 J0.0284
G2 X-144.17267 Y-22.58552 I3.74692 J0.21498
G2 X-142.84833 Y-22.1011 I1.19305 J-1.20916
G3 X-142.55575 Y-22.10788 I0.20868 J2.69192
G2 X-141.53465 Y-22.40188 I0.05388 J-1.7331
G2 X-140.41303 Y-24.52653 I-2.70206 J-2.78481
G3 X-140.39355 Y-24.62783 I2.66064 J0.45935
G2 X-140.02218 Y-28.30408 I-16.69008 J-3.54286
G3 X-135.42585 Y-30.24707 I2.69992 J-0.02111
G2 X-125.74835 Y-23.51677 I24.31869 J-24.64505
G2 X-114.44929 Y-21.08866 I11.21988 J-24.70725
G3 X-114.38578 Y-21.0881 I0.00788 J2.69999
G2 X-111.90687 Y-21.59415 I0.11838 J-5.74468
G2 X-110.23413 Y-23.0929 I-1.88495 J-3.78661
G2 X-108.86414 Y-26.86793 I-8.79605 J-5.32827
G3 X-108.85789 Y-26.90695 I2.66903 J0.40779
G2 X-108.67045 Y-28.22673 I-26.1131 J-4.38185
G1 F300.0 X-107.4785 Y-28.08796
G2 F800.0 X-107.29389 Y-31.53453 I-27.49249 J-3.20084
G3 X-107.29392 Y-31.55673 I1.49994 J-0.01332
G2 X-107.34676 Y-35.2559 I-91.56298 J-0.54192
G3 X-107.34751 Y-35.28633 I1.49911 J-0.05172
G2 X-108.33451 Y-39.10499 I-8.33855 J0.11837
G2 X-111.12612 Y-40.52435 I-2.60104 J1.66079
G3 X-111.24625 Y-40.52174 I-0.09263 J-1.49714
G2 X-112.70478 Y-40.28794 I-0.07677 J4.18742
G2 X-113.94012 Y-39.08295 I0.74136 J1.99577
G2 X-114.33846 Y-36.7455 I5.67502 J2.16978
G3 X-114.33821 Y-36.67308 I-1.49943 J0.0414
G3 X-114.50076 Y-32.86894 I-86.43201 J-1.78764
G1 X-114.66111 Y-28.37908
G3 X-116.32834 Y-26.94208 I-1.49904 J-0.05354
G3 X-123.71556 Y-28.52474 I4.2983 J-38.09424
G3 X-130.62524 Y-31.99542 I7.41244 J-23.37072
G3 X-130.64456 Y-32.00956 I0.87622 J-1.21747
G3 X-135.62385 Y-37.09201 I13.68225 J-18.38484
G3 X-139.07028 Y-43.13401 I27.6952 J-19.80165
G3 X-139.19823 Y-43.74571 I1.37204 J-0.60622
G1 X-139.09081 Y-73.1793
G3 X-139.09069 Y-73.19388 I1.49999 J0.00547
G2 X-139.30467 Y-74.9375 I-6.50262 J-0.08693
G3 X-139.31201 Y-74.96657 I1.45051 J-0.38212
G2 X-140.49699 Y-76.5834 I-2.53226 J0.61325
G2 X-142.85339 Y-77.09963 I-2.17979 J4.31371
G3 X-142.93551 Y-77.09888 I-0.05481 J-1.499
G2 X-144.44025 Y-76.85876 I-0.07901 J4.3398
G2 X-145.72492 Y-75.61253 I0.76277 J2.07156
G2 X-146.13534 Y-73.21539 I5.79123 J2.22525
G3 X-146.13477 Y-73.17383 I-1.49942 J0.04156
G1 Y-35.47412
G2 X-146.02859 Y-30.21379 I202.1603 J-1.44921
G3 X-145.86629 Y-24.84976 I-135.84459 J6.79464
G3 X-145.86867 Y-24.74806 I-1.49992 J0.01578
G2 X-145.13398 Y-21.85536 I4.94495 J0.28372
G2 X-142.75558 Y-20.90469 I2.15436 J-1.93932
G3 X-142.59304 Y-20.90846 I0.11593 J1.49551
G2 X-140.77177 Y-21.47144 I0.09116 J-2.93252
G2 X-139.23053 Y-24.32238 I-3.46494 J-3.71525
G3 X-139.2197 Y-24.37865 I1.47813 J0.2552
G2 X-138.82222 Y-28.31347 I-17.86393 J-3.79203
G3 X-136.2687 Y-29.3929 I1.49995 J-0.01173
G2 X-126.25019 Y-22.42672 I25.16154 J-25.49922
G2 X-114.44578 Y-19.88867 I11.72172 J-25.7973
G3 X-114.4105 Y-19.88835 I0.00438 J1.49999
G2 X-111.39314 Y-20.50948 I0.1431 J-6.94442
G2 X-109.21582 Y-22.45788 I-2.39868 J-4.87128
G2 X-107.67791 Y-26.68668 I-9.81436 J-5.96329
G3 X-107.67443 Y-26.70837 I1.48279 J0.22655
G2 X-107.4785 Y-28.08796 I-27.29655 J-4.58044
G0 Z3.0
G0 X-111.05435 Y-28.50428
G0 Z-1.0
G1 F300.0 Z-4.0
G2 F800.0 X-110.89374 Y-31.50257 I-23.91664 J-2.78452
G3 X-110.89386 Y-31.57804 I5.0998 J-0.04528
G2 X-110.89542 Y-32.83823 I-87.96305 J-0.52061
G3 X-110.9049 Y-32.68877 I-89.8748 J-5.6225
G1 X-111.05435 Y-28.50428
G1 F300.0 X-111.29169 Y-26.91341
G3 F800.0 X-114.89785 Y-23.4913 I-4.86847 J-1.51921
G2 X-114.45629 Y-23.48865 I0.36938 J-24.73272
G3 X-114.33634 Y-23.48759 I0.01488 J5.09998
G2 X-112.93829 Y-23.7622 I0.06893 J-3.34518
G2 X-112.26789 Y-24.36789 I-0.85354 J-1.61857
G2 X-111.29169 Y-26.91341 I-6.76229 J-4.05328
G0 Z3.0
G0 X-140.40178 Y-34.49987
G0 Z-1.0
G1 F300.0 Z-4.0
G3 F800.0 X-140.7304 Y-34.98405 I32.47313 J-22.39379
G2 X-140.72286 Y-34.32903 I196.75594 J-1.93927
G3 X-140.40178 Y-34.49987 I3.40059 J6.00383
G1 F300.0 X-140.13399 Y-33.96294
G3 F800.0 X-139.48663 Y-34.24174 I2.81173 J5.63775
G3 X-139.53045 Y-34.30302 I22.52432 J-16.15266
G3 X-141.33477 Y-37.06837 I31.6018 J-22.59065
G1 Y-35.49142
G2 X-141.30496 Y-33.2066 I197.3603 J-1.4319
G3 X-140.13399 Y-33.96294 I3.9827 J4.88141
G1 F300.0 X-139.59843 Y-32.88909
G3 F800.0 X-137.33918 Y-33.42517 I2.27616 J4.56389
G3 X-138.5538 Y-35.00027 I20.37687 J-16.96923
G3 X-142.36318 Y-41.67907 I30.62516 J-21.89339
G3 X-142.53477 Y-42.1222 I4.66494 J-2.06116
G1 Y-35.48708
G2 X-142.43156 Y-30.36312 I198.5603 J-1.43625
G3 X-142.37195 Y-29.03979 I-139.44162 J6.94398
G3 X-139.59843 Y-32.88909 I5.04969 J0.71459
G1 F300.0 X-139.06286 Y-31.81523
G3 F800.0 X-134.58299 Y-31.10123 I1.74059 J3.49003
G2 X-125.24654 Y-24.60683 I23.47583 J-23.79089
G2 X-114.45279 Y-22.28866 I10.71808 J-23.61719
G3 X-114.36106 Y-22.28784 I0.01138 J3.89998
G2 X-112.42149 Y-22.67853 I0.09365 J-4.54493
G2 X-111.25174 Y-23.72915 I-1.37034 J-2.70223
G2 X-110.05038 Y-27.04917 I-7.77844 J-4.69202
G3 X-110.04134 Y-27.10554 I3.85526 J0.58904
G2 X-109.69379 Y-31.51323 I-24.92964 J-4.18326
G3 X-109.69388 Y-31.57093 I3.89985 J-0.03462
G2 X-109.74534 Y-35.17314 I-89.16302 J-0.52771
G3 X-109.74726 Y-35.25226 I3.89768 J-0.13448
G2 X-110.39548 Y-37.86725 I-5.93879 J0.0843
G2 X-110.97792 Y-38.12893 I-0.54007 J0.42306
G3 X-111.29024 Y-38.12214 I-0.24083 J-3.89256
G2 X-111.75409 Y-38.0697 I-0.03278 J1.78782
G2 X-111.93938 Y-36.81173 I3.48898 J1.15653
G3 X-111.93872 Y-36.62346 I-3.89851 J0.10763
G3 X-112.10352 Y-32.74871 I-88.8315 J-1.83727
G1 X-112.26264 Y-28.29342
G3 X-116.59743 Y-24.55721 I-3.89752 J-0.1392
G3 X-124.44416 Y-26.23801 I4.56739 J-40.4791
G3 X-132.02719 Y-30.04746 I8.14104 J-25.65746
G3 X-132.07742 Y-30.08422 I2.27817 J-3.16543
G3 X-137.57715 Y-35.69752 I15.11511 J-20.31018
G3 X-141.26555 Y-42.16405 I29.64851 J-21.19614
G3 X-141.59822 Y-43.75447 I3.5673 J-1.57618
G1 X-141.49079 Y-73.18806
G3 X-141.49047 Y-73.22596 I3.89997 J0.01423
G2 X-141.62548 Y-74.3261 I-4.10284 J-0.05485
G3 X-141.64459 Y-74.40168 I3.77133 J-0.99352
G2 X-141.6975 Y-74.4971 I-0.19969 J0.04836
G2 X-142.76569 Y-74.70124 I-0.97927 J2.22741
G3 X-142.97919 Y-74.69928 I-0.14251 J-3.8974
G2 X-143.52895 Y-74.63017 I-0.03532 J1.94019
G2 X-143.73626 Y-73.28189 I3.59527 J1.24289
G3 X-143.73477 Y-73.17383 I-3.8985 J0.10806
G1 Y-35.48274
G2 X-143.63057 Y-30.31342 I199.7603 J-1.44058
G3 X-143.46643 Y-24.875 I-138.24261 J6.89427
G3 X-143.47261 Y-24.61059 I-3.89978 J0.04102
G2 X-143.22621 Y-23.36126 I2.54889 J0.14624
G2 X-142.94108 Y-23.29751 I0.24659 J-0.43342
G3 X-142.51847 Y-23.3073 I0.30143 J3.88833
G2 X-142.2795 Y-23.35555 I0.01659 J-0.53368
G2 X-141.59554 Y-24.73069 I-1.9572 J-1.83114
G3 X-141.56739 Y-24.877 I3.84314 J0.66351
G2 X-141.22215 Y-28.2947 I-15.51624 J-3.29368
G3 X-139.06286 Y-31.81523 I3.89988 J-0.03049
G1 F300.0 X-138.52729 Y-30.74137
G3 F800.0 X-135.42585 Y-30.24707 I1.20503 J2.41618
G2 X-125.74835 Y-23.51677 I24.31869 J-24.64505
G2 X-114.44929 Y-21.08866 I11.21988 J-24.70725
G3 X-114.38578 Y-21.0881 I0.00788 J2.69999
G2 X-111.90687 Y-21.59415 I0.11838 J-5.74468
G2 X-110.23413 Y-23.0929 I-1.88495 J-3.78661
G2 X-108.86414 Y-26.86793 I-8.79605 J-5.32827
G3 X-108.85789 Y-26.90695 I2.66903 J0.40779
G2 X-108.49384 Y-31.52388 I-26.1131 J-4.38185
G3 X-108.4939 Y-31.56383 I2.69989 J-0.02397
G2 X-108.54605 Y-35.21452 I-90.363 J-0.53482
G3 X-108.54738 Y-35.26929 I2.69839 J-0.0931
G2 X-109.36898 Y-38.49444 I-7.13867 J0.10134
G2 X-111.05202 Y-39.32664 I-1.56657 J1.05024
G3 X-111.26824 Y-39.32194 I-0.16673 J-2.69485
G2 X-112.2965 Y-39.15942 I-0.05477 J2.98762
G2 X-112.82303 Y-38.64449 I0.33308 J0.86725
G2 X-113.13892 Y-36.77862 I4.55793 J1.73131
G3 X-113.13847 Y-36.64827 I-2.69897 J0.07451
G3 X-113.30214 Y-32.80877 I-87.63175 J-1.81245
G1 X-113.46188 Y-28.33625
G3 X-116.46289 Y-25.74964 I-2.69828 J-0.09637
G3 X-124.07985 Y-27.38137 I4.43284 J-39.28667
G3 X-131.32622 Y-31.02144 I7.77673 J-24.51409
G3 X-131.36099 Y-31.04689 I1.57719 J-2.19145
G3 X-136.6005 Y-36.39477 I14.39868 J-19.34751
G3 X-140.16791 Y-42.64903 I28.67186 J-20.49889
G3 X-140.39822 Y-43.75009 I2.46967 J-1.0912
G1 X-140.2908 Y-73.18368
G3 X-140.29058 Y-73.20992 I2.69998 J0.00985
G2 X-140.46507 Y-74.6318 I-5.30273 J-0.07089
G3 X-140.4783 Y-74.68412 I2.61092 J-0.68782
G2 X-141.0822 Y-75.53424 I-1.36598 J0.33081
G2 X-142.80954 Y-75.90044 I-1.59457 J3.26455
G3 X-142.95735 Y-75.89908 I-0.09866 J-2.6982
G2 X-144.03463 Y-75.72931 I-0.05717 J3.14
G2 X-144.60876 Y-75.17168 I0.35715 J0.9421
G2 X-144.9358 Y-73.24864 I4.67508 J1.78439
G3 X-144.93477 Y-73.17383 I-2.69896 J0.07481
G1 Y-35.47842
G2 X-144.82958 Y-30.26364 I200.9603 J-1.4449
G3 X-144.66636 Y-24.86238 I-137.0436 J6.84449
G3 X-144.67064 Y-24.67932 I-2.69985 J0.0284
G2 X-144.17267 Y-22.58552 I3.74692 J0.21498
G2 X-142.84833 Y-22.1011 I1.19305 J-1.20916
G3 X-142.55575 Y-22.10788 I0.20868 J2.69192
G2 X-141.53465 Y-22.40188 I0.05388 J-1.7331
G2 X-140.41303 Y-24.52653 I-2.70206 J-2.78481
G3 X-140.39355 Y-24.62783 I2.66064 J0.45935
G2 X-140.02218 Y-28.30408 I-16.69008 J-3.54286
G3 X-138.52729 Y-30.74137 I2.69992 J-0.02111
G1 F300.0 X-137.99172 Y-29.66752
G3 F800.0 X-136.2687 Y-29.3929 I0.66946 J1.34232
G2 X-126.25019 Y-22.42672 I25.16154 J-25.49922
G2 X-114.44578 Y-19.88867 I11.72172 J-25.7973
G3 X-114.4105 Y-19.88835 I0.00438 J1.49999
G2 X-111.39314 Y-20.50948 I0.1431 J-6.94442
G2 X-109.21582 Y-22.45788 I-2.39868 J-4.87128
G2 X-107.67791 Y-26.68668 I-9.81436 J-5.96329
G3 X-107.67443 Y-26.70837 I1.48279 J0.22655
G2 X-107.29389 Y-31.53453 I-27.29655 J-4.58044
G3 X-107.29392 Y-31.55673 I1.49994 J-0.01332
G2 X-107.34676 Y-35.2559 I-91.56298 J-0.54192
G3 X-107.34751 Y-35.28633 I1.49911 J-0.05172
G2 X-108.33451 Y-39.10499 I-8.33855 J0.11837
G2 X-111.12612 Y-40.52435 I-2.60104 J1.66079
G3 X-111.24625 Y-40.52174 I-0.09263 J-1.49714
G2 X-112.70478 Y-40.28794 I-0.07677 J4.18742
G2 X-113.94012 Y-39.08295 I0.74136 J1.99577
G2 X-114.33846 Y-36.7455 I5.67502 J2.16978
G3 X-114.33821 Y-36.67308 I-1.49943 J0.0414
G3 X-114.50076 Y-32.86894 I-86.43201 J-1.78764
G1 X-114.66111 Y-28.37908
G3 X-116.32834 Y-26.94208 I-1.49904 J-0.05354
G3 X-123.71556 Y-28.52474 I4.2983 J-38.09424
G3 X-130.62524 Y-31.99542 I7.41244 J-23.37072
G3 X-130.64456 Y-32.00956 I0.87622 J-1.21747
G3 X-135.62385 Y-37.09201 I13.68225 J-18.38484
G3 X-139.07028 Y-43.13401 I27.6952 J-19.80165
G3 X-139.19823 Y-43.74571 I1.37204 J-0.60622
G1 X-139.09081 Y-73.1793
G3 X-139.09069 Y-73.19388 I1.49999 J0.00547
G2 X-139.30467 Y-74.9375 I-6.50262 J-0.08693
G3 X-139.31201 Y-74.96657 I1.45051 J-0.38212
G2 X-140.49699 Y-76.5834 I-2.53226 J0.61325
G2 X-142.85339 Y-77.09963 I-2.17979 J4.31371
G3 X-142.93551 Y-77.09888 I-0.05481 J-1.499
G2 X-144.44025 Y-76.85876 I-0.07901 J4.3398
G2 X-145.72492 Y-75.61253 I0.76277 J2.07156
G2 X-146.13534 Y-73.21539 I5.79123 J2.22525
G3 X-146.13477 Y-73.17383 I-1.49942 J0.04156
G1 Y-35.47412
G2 X-146.02859 Y-30.21379 I202.1603 J-1.44921
G3 X-145.86629 Y-24.84976 I-135.84459 J6.79464
G3 X-145.86867 Y-24.74806 I-1.49992 J0.01578
G2 X-145.13398 Y-21.85536 I4.94495 J0.28372
G2 X-142.75558 Y-20.90469 I2.15436 J-1.93932
G3 X-142.59304 Y-20.90846 I0.11593 J1.49551
G2 X-140.77177 Y-21.47144 I0.09116 J-2.93252
G2 X-139.23053 Y-24.32238 I-3.46494 J-3.71525
G3 X-139.2197 Y-24.37865 I1.47813 J0.2552
G2 X-138.82222 Y-28.31347 I-17.86393 J-3.79203
G3 X-137.99172 Y-29.66752 I1.49995 J-0.01173
G0 Z3.0
G0 X-92.96302 Y-26.76157
G0 Z1.0
G1 F300.0 Z-2.0
G2 F800.0 X-93.06678 Y-24.26258 I54.39028 J3.5101
G2 X-92.83506 Y-24.18607 I0.225 J-0.2923
G3 X-92.78224 Y-24.18676 I0.09287 J5.09915
G2 X-92.71962 Y-24.40906 I-1.03046 J-0.41023
G3 X-92.68873 Y-24.57266 I5.02626 J0.86414
G2 X-91.64796 Y-31.80854 I-59.654 J-12.27316
G3 X-91.63908 Y-31.90444 I5.08253 J0.42182
G1 X-90.83342 Y-39.79995
G3 X-90.8163 Y-39.94667 I5.07365 J0.51772
G1 X-89.11222 Y-52.91499
G2 X-91.12065 Y-39.81874 I257.35852 J46.17052
G3 X-91.14374 Y-39.65812 I-5.05903 J-0.64512
G1 X-92.43098 Y-31.61289
G2 X-92.96302 Y-26.76157 I53.85824 J8.36141
G0 Z3.0
G0 X-64.63685 Y-32.74904
G0 Z1.0
G1 F300.0 Z-2.0
G3 F800.0 X-64.6184 Y-32.6878 I-680.63946 J205.09167
G2 X-64.6066 Y-32.74916 I-371.64043 J-71.4974
G3 X-64.63685 Y-32.74904 I-0.04477 J-7.49987
G1 F300.0 X-64.63917 Y-33.94904
G3 F800.0 X-66.32222 Y-34.17463 I-0.0122 J-6.29999
G3 X-64.38711 Y-27.70219 I-678.95408 J206.51726
G2 X-63.12137 Y-34.13763 I-371.87171 J-76.483
G3 X-64.63917 Y-33.94904 I-1.53 J-6.11139
G1 F300.0 X-64.64149 Y-35.14903
G3 F800.0 X-68.36921 Y-36.75795 I-0.00987 J-5.09999
G3 X-65.34271 Y-26.69648 I-676.90709 J209.10058
G3 X-65.30667 Y-26.56706 I-4.89459 J1.43281
G2 X-64.25894 Y-24.44747 I5.7346 J-1.51591
G2 X-63.3173 Y-26.94771 I-7.00569 J-4.06593
G3 X-63.30763 Y-26.99555 I5.00382 J0.98579
G2 X-61.51556 Y-36.227 I-372.95119 J-77.18964
G3 X-64.64149 Y-35.14903 I-3.13581 J-4.02203
G0 Z3.0
G0 X-38.70438 Y-38.52002
G0 Z1.0
G1 F300.0 Z-2.0
G1 F800.0 X-35.35377 Y-24.36436
G2 X-35.16185 Y-24.47434 I-0.12161 J-0.43467
G3 X-35.1532 Y-24.48268 I3.54271 J3.66868
G2 X-35.42777 Y-25.64795 I-26.10223 J5.53558
G3 X-35.44586 Y-25.71979 I4.93656 J-1.28076
G2 X-38.70438 Y-38.52002 I-644.68049 J157.29976
G0 Z3.0
G0 X-49.02423 Y-71.10428
G0 Z1.0
G1 F300.0 Z-2.0
G2 F800.0 X-50.62695 Y-73.64084 I-28.76014 J16.39744
G3 X-50.83054 Y-73.9571 I4.18359 J-2.91678
G2 X-51.30391 Y-74.25203 I-0.52095 J0.30879
G2 X-51.58908 Y-74.07721 I0.08858 J0.46451
G3 X-51.72998 Y-73.90345 I-4.03094 J-3.12434
G2 X-52.91848 Y-72.10126 I6.86473 J5.82013
G3 X-52.92021 Y-72.0978 I-4.56354 J-2.27686
G2 X-53.50006 Y-70.85637 I23.06197 J11.52803
G3 X-49.02423 Y-71.10428 I2.49127 J4.45012
G0 Z3.0
G0 X-82.83002 Y-69.6939
G0 Z1.0
G1 F300.0 Z-2.0
G1 F800.0 X-83.13202 Y-70.51448
G3 X-83.24581 Y-70.85295 I5.91229 J-2.17595
G2 X-83.35178 Y-71.01469 I-0.33 J0.10062
G3 X-83.35516 Y-71.01758 I4.09103 J-4.79098
G2 X-83.9194 Y-69.55675 I35.85461 J14.68809
G3 X-82.83002 Y-69.6939 I1.32858 J6.15832
G1 F300.0 X-82.78445 Y-68.49476
G3 F800.0 X-81.02011 Y-68.25054 I0.19363 J5.09632
G1 X-82.00587 Y-70.92894
G3 X-82.09798 Y-71.20295 I4.78614 J-1.76149
G2 X-82.57253 Y-71.92726 I-1.47783 J0.45062
G3 X-83.67026 Y-73.24321 I3.31179 J-3.87841
G2 X-84.00951 Y-72.54271 I6.91158 J3.77978
G3 X-84.03887 Y-72.47496 I-4.69423 J-1.99355
G2 X-85.8702 Y-67.44231 I36.53832 J16.14547
G3 X-85.87888 Y-67.41268 I-4.89868 J-1.41878
G2 X-85.92456 Y-67.258 I93.27334 J27.62741
G3 X-82.78445 Y-68.49476 I3.33374 J3.85956
G1 F300.0 X-82.73889 Y-67.29563
G3 F800.0 X-78.91639 Y-64.70556 I0.14807 J3.89719
G3 X-66.49438 Y-26.35935 I-666.35991 J237.04819
G3 X-66.46682 Y-26.26038 I-3.74293 J1.09568
G2 X-65.17201 Y-23.66708 I6.89475 J-1.82259
G2 X-64.13054 Y-23.20113 I1.01736 J-0.87706
G3 X-64.05959 Y-23.20176 I0.07 J3.89937
G2 X-63.37011 Y-23.59569 I0.0002 J-0.8
G3 X-63.33512 Y-23.65391 I3.36023 J1.9796
G2 X-62.13993 Y-26.71576 I-7.92951 J-4.85949
G3 X-62.13254 Y-26.75234 I3.82645 J0.75384
G2 X-58.67695 Y-45.89068 I-374.12629 J-77.43285
G3 X-54.82677 Y-67.20187 I400.756 J61.39898
G3 X-47.24209 Y-67.41717 I3.81798 J0.79562
G1 X-43.32119 Y-52.80779
G3 X-43.29275 Y-52.69517 I-3.7667 J1.01092
G1 X-36.36404 Y-23.42271
G3 X-36.33545 Y-23.29195 I-3.79514 J0.8983
G2 X-36.32344 Y-23.25667 I0.1409 J-0.02828
G2 X-35.69976 Y-23.14477 I0.56381 J-1.34855
G3 X-35.49462 Y-23.14778 I0.15972 J3.89673
G2 X-34.32827 Y-23.61113 I0.01923 J-1.65125
G3 X-34.14997 Y-23.77297 I2.70913 J2.80546
G2 X-33.87619 Y-24.22203 I-0.54726 J-0.64165
G2 X-34.26623 Y-25.9493 I-27.37924 J5.27492
G3 X-34.28006 Y-26.00425 I3.77502 J-0.97941
G2 X-45.16524 Y-65.33271 I-645.84629 J157.58421
G2 X-49.64257 Y-74.32714 I-32.61913 J10.62587
G3 X-49.79826 Y-74.56899 I3.19922 J-2.23048
G2 X-51.36307 Y-75.45386 I-1.55322 J0.92068
G2 X-52.53754 Y-74.81235 I0.14774 J1.66634
G3 X-52.64528 Y-74.67947 I-3.08249 J-2.3892
G2 X-53.99225 Y-72.63699 I7.78004 J6.59615
G3 X-53.99358 Y-72.63435 I-3.48977 J-1.74113
G2 X-55.63967 Y-68.53134 I24.13534 J12.06458
G3 X-55.64559 Y-68.51232 I-3.72637 J-1.15074
G2 X-56.86785 Y-63.95686 I52.95479 J16.64978
G2 X-59.01348 Y-51.70842 I151.32456 J32.82055
G3 X-59.02092 Y-51.65565 I-3.86543 J-0.51815
G1 X-60.79338 Y-39.67811
G3 X-68.23506 Y-38.71047 I-3.85799 J-0.57091
G1 X-72.63936 Y-48.96926
G3 X-72.71566 Y-49.16079 I3.58369 J-1.53855
G1 X-80.87972 Y-71.34341
G3 X-80.95016 Y-71.55294 I3.65999 J-1.34702
G2 X-81.79329 Y-72.83982 I-2.62565 J0.80062
G3 X-82.78878 Y-74.14344 I2.53254 J-2.96584
G2 X-83.89773 Y-75.07028 I-1.55352 J0.73194
G2 X-85.11404 Y-73.01178 I7.13906 J5.60685
G3 X-85.13649 Y-72.95997 I-3.5897 J-1.52448
G2 X-87.02283 Y-67.77614 I37.63593 J16.63048
G3 X-87.02947 Y-67.75348 I-3.74605 J-1.08495
G2 X-88.50713 Y-62.16794 I94.42393 J27.96821
G2 X-92.31102 Y-39.97054 I256.75343 J55.42347
G3 X-92.32867 Y-39.8477 I-3.86867 J-0.49333
G1 X-93.61634 Y-31.79974
G2 X-94.26759 Y-24.22847 I55.0436 J8.54827
G3 X-94.26877 Y-24.17922 I-3.8994 J-0.0684
G2 X-93.96564 Y-23.45799 I0.94193 J0.02843
G3 X-93.9226 Y-23.4177 I-2.64373 J2.86717
G2 X-92.81321 Y-22.98627 I1.08082 J-1.13718
G3 X-92.56073 Y-22.98269 I0.07102 J3.89935
G2 X-92.02808 Y-23.13167 I0.04099 J-0.88012
G2 X-91.53697 Y-24.20574 I-1.78462 J-1.46532
G3 X-91.51335 Y-24.33084 I3.84361 J0.66081
G2 X-90.45207 Y-31.70929 I-60.82938 J-12.51498
G3 X-90.44528 Y-31.78262 I3.88664 J0.32257
G1 X-89.63962 Y-39.67813
G3 X-89.62653 Y-39.79033 I3.87985 J0.3959
G1 X-86.45758 Y-63.90654
G3 X-82.73889 Y-67.29563 I3.86676 J0.5081
G1 F300.0 X-82.69333 Y-66.09649
G3 F800.0 X-80.04699 Y-64.30337 I0.10251 J2.69805
G3 X-67.64605 Y-26.02222 I-665.22932 J236.646
G3 X-67.62697 Y-25.9537 I-2.59126 J0.75855
G2 X-66.09996 Y-22.90592 I8.0549 J-2.12926
G2 X-64.10901 Y-22.00132 I1.94531 J-1.63822
G3 X-64.05988 Y-22.00176 I0.04846 J2.69957
G2 X-62.33619 Y-22.98658 I0.00049 J-2.0
G3 X-62.31197 Y-23.02689 I2.32632 J1.37049
G2 X-60.96256 Y-26.4838 I-8.95267 J-5.48651
G3 X-60.95744 Y-26.50913 I2.64908 J0.52189
G2 X-57.49089 Y-45.70827 I-375.30138 J-77.67606
G3 X-53.65201 Y-66.95706 I399.56995 J61.21657
G3 X-48.40107 Y-67.10612 I2.64322 J0.55081
G1 X-44.48017 Y-52.49674
G3 X-44.46049 Y-52.41877 I-2.60772 J0.69987
G1 X-37.53178 Y-23.14631
G3 X-37.51198 Y-23.05579 I-2.6274 J0.6219
G2 X-37.02379 Y-22.26292 I1.31743 J-0.26445
G2 X-35.65062 Y-21.94578 I1.26416 J-2.3423
G3 X-35.50859 Y-21.94786 I0.11058 J2.69773
G2 X-33.49469 Y-22.74791 I0.03321 J-2.85117
G3 X-33.37125 Y-22.85995 I1.87555 J1.94224
G2 X-32.66045 Y-24.2512 I-1.32598 J-1.55466
G2 X-33.10468 Y-26.25066 I-28.59498 J5.30409
G3 X-33.11426 Y-26.2887 I2.61347 J-0.67805
G2 X-44.02159 Y-65.69622 I-647.01209 J157.86866
G2 X-48.6582 Y-75.01344 I-33.76277 J10.98938
G3 X-48.76598 Y-75.18087 I2.21484 J-1.54418
G2 X-51.41961 Y-76.65313 I-2.5855 J1.53257
G2 X-53.486 Y-75.54749 I0.20427 J2.8656
G3 X-53.56059 Y-75.4555 I-2.13403 J-1.65406
G2 X-55.06603 Y-73.17273 I8.69534 J7.37218
G3 X-55.06694 Y-73.17089 I-2.41599 J-1.2054
G2 X-56.78624 Y-68.88541 I25.2087 J12.60113
G3 X-56.79034 Y-68.87224 I-2.57979 J-0.79667
G2 X-58.03982 Y-64.21475 I54.09954 J17.00971
G2 X-60.20284 Y-51.86785 I152.49653 J33.07844
G3 X-60.20799 Y-51.83132 I-2.67606 J-0.35872
G1 X-61.98045 Y-39.85378
G3 X-67.13239 Y-39.18387 I-2.67091 J-0.39525
G1 X-71.53668 Y-49.44266
G3 X-71.5895 Y-49.57526 I2.48102 J-1.06515
G1 X-79.75357 Y-71.75788
G3 X-79.80233 Y-71.90294 I2.53384 J-0.93255
G2 X-81.01404 Y-73.75239 I-3.77348 J1.15061
G3 X-81.70323 Y-74.6549 I1.7533 J-2.05328
G2 X-84.33323 Y-76.3288 I-2.63907 J1.24339
G2 X-84.47991 Y-76.2484 I0.02684 J0.22298
G3 X-84.52565 Y-76.1942 I-2.08618 J-1.71402
G2 X-86.21856 Y-73.48085 I7.76698 J6.73077
G3 X-86.2341 Y-73.44498 I-2.48518 J-1.05541
G2 X-88.17546 Y-68.10997 I38.73355 J17.11549
G3 X-88.18006 Y-68.09428 I-2.59342 J-0.75112
G2 X-89.67801 Y-62.43091 I95.57452 J28.30901
G2 X-93.50138 Y-40.12233 I257.92431 J55.68644
G3 X-93.5136 Y-40.03729 I-2.67831 J-0.34154
G1 X-94.8017 Y-31.98663
G2 X-95.46741 Y-24.24952 I56.22897 J8.73515
G3 X-95.46822 Y-24.21542 I-2.69958 J-0.04736
G2 X-94.7791 Y-22.57579 I2.14138 J0.06463
G3 X-94.7493 Y-22.54789 I-1.83028 J1.98497
G2 X-92.79136 Y-21.78647 I1.90752 J-2.00699
G3 X-92.61656 Y-21.78399 I0.04917 J2.69955
G2 X-91.2023 Y-22.25184 I0.09683 J-2.07882
G2 X-90.35432 Y-24.00241 I-2.6104 J-2.34516
G3 X-90.33797 Y-24.08902 I2.66096 J0.45749
G2 X-89.25618 Y-31.61003 I-62.00476 J-12.7568
G3 X-89.25148 Y-31.66081 I2.69075 J0.22332
G1 X-88.44582 Y-39.55631
G3 X-88.43675 Y-39.63399 I2.68605 J0.27409
G1 X-85.26781 Y-63.7502
G3 X-82.69333 Y-66.09649 I2.67699 J0.35176
G1 F300.0 X-82.64777 Y-64.89736
G3 F800.0 X-81.17758 Y-63.90118 I0.05695 J1.49892
G3 X-68.79772 Y-25.68509 I-664.09872 J236.24381
G3 X-68.78712 Y-25.64702 I-1.43959 J0.42141
G2 X-67.02989 Y-22.14732 I9.21505 J-2.43594
G2 X-64.08747 Y-20.80152 I2.87524 J-2.39682
G3 X-64.06018 Y-20.80176 I0.02692 J1.49976
G2 X-61.30227 Y-22.37747 I0.00079 J-3.2
G3 X-61.28882 Y-22.39986 I1.2924 J0.76139
G2 X-59.78519 Y-26.25185 I-9.97582 J-6.11353
G3 X-59.78235 Y-26.26593 I1.47171 J0.28994
G2 X-56.30484 Y-45.52586 I-376.47648 J-77.91927
G3 X-52.47724 Y-66.71226 I398.38389 J61.03416
G3 X-49.56006 Y-66.79506 I1.46845 J0.30601
G1 X-45.63916 Y-52.18569
G3 X-45.62822 Y-52.14237 I-1.44873 J0.38881
G1 X-38.69951 Y-22.86991
G3 X-38.68852 Y-22.81962 I-1.45967 J0.3455
G2 X-37.67714 Y-21.25326 I2.49396 J-0.50062
