( Made using CamBam - http://www.cambam.co.uk )
( Verweilzeit 4/6/2019 11:59:22 AM )
( T3 : 3.0 )
G21 G90 G64 G40
G0 Z3.0
( T3 : 3.0 )
T3 M6
( eilzeit )
G17
M3 S1000
G0 X-15.63727 Y-54.09429
G0 Z1.0
G1 F300.0 Z-2.0
G3 F800.0 X-16.55052 Y-54.88247 I3.24664 J-4.68501
G2 X-16.62512 Y-53.52584 I21.14348 J1.84304
G3 X-15.63727 Y-54.09429 I3.32141 J4.62935
G1 F300.0 X-15.29552 Y-54.58745
G3 F800.0 X-16.95418 Y-56.50246 I2.90489 J-4.19185
G2 X-17.22782 Y-52.6853 I21.54715 J3.46303
G3 X-17.22734 Y-52.55873 I-5.09933 J0.08276
G2 X-17.22884 Y-52.14901 I41.57586 J0.35713
G3 X-14.07745 Y-53.93502 I3.92513 J3.25252
G1 X-14.57438 Y-54.17048
G3 X-15.29552 Y-54.58745 I2.18376 J-4.60882
G0 Z3.0
G0 X-14.19485 Y-51.44264
G0 Z1.0
G1 F300.0 Z-2.0
G3 F800.0 X-12.14515 Y-51.33263 I0.89114 J2.54616
G1 X4.3441 Y-43.49083
G3 X4.35694 Y-43.48468 I-1.15856 J2.43614
G3 X11.64901 Y-39.67616 I-55.61192 J115.36364
G3 X18.72928 Y-34.94248 I-23.92635 J43.44907
G3 X18.86412 Y-30.84683 I-1.68631 J2.10556
G3 X11.72059 Y-26.85724 I-12.02409 J-13.13944
G3 X11.71676 Y-26.85615 I-0.7392 J-2.59434
G3 X4.102 Y-25.8422 I-7.31053 J-25.80178
G3 X-8.89522 Y-31.93763 I-0.2201 J-16.43533
G3 X-13.496 Y-39.92454 I21.61006 J-17.76682
G3 X-15.94756 Y-48.36068 I49.5625 J-18.97729
G3 X-14.19485 Y-51.44264 I2.64385 J-0.5358
G1 F300.0 X-13.79923 Y-50.31227
G3 F800.0 X-12.6595 Y-50.2511 I0.49552 J1.41579
G1 X3.82976 Y-42.4093
G3 X3.8369 Y-42.40589 I-0.64422 J1.35462
G3 X11.06606 Y-38.63 I-55.09187 J114.28484
G3 X17.98064 Y-34.00771 I-23.34339 J42.40292
G3 X18.05562 Y-31.73033 I-0.93768 J1.1708
G3 X11.39242 Y-28.009 I-11.21558 J-12.25594
G3 X11.39029 Y-28.00839 I-0.41103 J-1.44258
G3 X4.10067 Y-27.0399 I-6.98406 J-24.64953
G3 X-7.96716 Y-32.69458 I-0.21876 J-15.23763
G3 X-12.37574 Y-40.34797 I20.682 J-17.00987
G3 X-14.77383 Y-48.59855 I48.44224 J-18.55386
G3 X-13.79923 Y-50.31227 I1.47011 J-0.29793
G0 Z3.0
G0 X-14.59127 Y-52.57527
G0 Z1.0
G1 F300.0 Z-2.0
G2 F800.0 X-17.12366 Y-48.12234 I1.28756 J3.67879
G2 X-14.61848 Y-39.50021 I53.19016 J-10.7795
G2 X-9.82509 Y-31.17911 I27.33332 J-10.20424
G2 X4.10313 Y-24.64212 I13.707 J-11.09842
G2 X12.04389 Y-25.7016 I0.3031 J-28.01581
G2 X12.04942 Y-25.70317 I-1.0625 J-3.74998
G2 X19.67425 Y-29.96156 I-5.20938 J-18.2831
G2 X19.47942 Y-35.87911 I-2.63128 J-2.87535
G2 X12.23317 Y-40.72439 I-31.75676 J39.65203
G2 X4.87803 Y-44.56564 I-63.48815 J112.60334
G2 X4.85948 Y-44.57452 I-1.69248 J3.51095
G1 X-11.62978 Y-52.41632
G2 X-14.59127 Y-52.57527 I-1.67393 J3.51984
G0 Z3.0
G0 X-13.45708 Y-54.96897
G0 Z1.0
G1 F300.0 Z-2.0
G1 F800.0 X-14.06056 Y-55.25491
G3 X-15.65226 Y-60.91745 I1.66993 J-3.52439
G3 X-6.70601 Y-68.96265 I19.71006 J12.92087
G3 X-6.6035 Y-69.01339 I1.7812 J3.46948
G3 X5.6295 Y-71.64819 I11.67206 J24.47625
G3 X5.65405 Y-71.6476 I-0.08068 J3.89917
G3 X15.3155 Y-70.10455 I-1.00737 J37.32542
G3 X20.33598 Y-68.25331 I-7.80932 J28.9117
G3 X25.56006 Y-64.03832 I-5.32315 J11.94243
G3 X25.75256 Y-63.74945 I-3.146 J2.30492
G2 X26.53929 Y-62.76929 I4.05374 J-2.44798
G2 X26.81884 Y-62.94951 I-0.21998 J-0.64817
G3 X27.1159 Y-63.23479 I2.8462 J2.6663
G2 X27.26892 Y-63.56339 I-0.28884 J-0.33443
G2 X26.84246 Y-65.19159 I-3.38271 J0.01604
G2 X24.22488 Y-67.89524 I-7.4598 J4.60338
G3 X24.1728 Y-67.93036 I2.15435 J-3.25097
G2 X19.99914 Y-70.24201 I-14.14831 J20.62101
G3 X19.9135 Y-70.28049 I1.55555 J-3.57635
G2 X5.50029 Y-73.571 I-14.92958 J32.18326
G2 X-3.77582 Y-72.37854 I-0.35077 J33.94692
G2 X-11.67058 Y-68.35796 I5.85825 J21.26449
G2 X-16.8189 Y-61.50235 I10.91948 J13.56106
G2 X-18.42766 Y-52.66582 I21.41186 J8.46292
G3 X-18.42729 Y-52.56904 I-3.89949 J0.06329
G2 X-17.03009 Y-41.35189 I42.77581 J0.36744
G2 X-12.38062 Y-31.44383 I29.68745 J-7.88622
G3 X-12.34608 Y-31.39444 I-3.17896 J2.25926
G2 X-5.22259 Y-24.94032 I17.20605 J-11.83234
G2 X4.03793 Y-22.7716 I8.95611 J-17.38714
G3 X4.12612 Y-22.77197 I0.0607 J3.89953
G2 X10.87943 Y-23.33972 I0.26304 J-37.32002
G3 X10.89533 Y-23.3425 I0.67823 J3.84057
G2 X16.86479 Y-25.34509 I-3.50757 J-20.35393
G3 X16.89952 Y-25.36281 I1.78951 J3.46521
G2 X20.50414 Y-28.58409 I-4.18958 J-8.31557
G2 X21.68408 Y-33.17516 I-7.54557 J-4.38643
G3 X21.68313 Y-33.23551 I3.89893 J-0.09144
G2 X20.57952 Y-36.60755 I-5.84578 J0.04661
G2 X17.32184 Y-39.81572 I-11.25051 J8.16607
G2 X12.20493 Y-42.73798 I-25.6062 J38.89567
G3 X12.1604 Y-42.76016 I1.71596 J-3.50221
G2 X6.47686 Y-45.52389 I-90.63037 J179.15242
G3 X6.45702 Y-45.53323 I1.65009 J-3.53372
G1 X-13.45708 Y-54.96897
G1 F300.0 X-12.94326 Y-56.05339
G1 F800.0 X-13.54673 Y-56.33933
G3 X-14.64868 Y-60.25956 I1.15611 J-2.43996
G3 X-6.15795 Y-67.89511 I18.70648 J12.26298
G3 X-6.08698 Y-67.93024 I1.23314 J2.40195
G3 X5.60468 Y-70.44845 I11.15554 J23.39311
G3 X5.62167 Y-70.44804 I-0.05585 J2.69942
G3 X14.98758 Y-68.95012 I-0.975 J36.12586
G3 X19.83477 Y-67.16289 I-7.4814 J27.75726
G3 X24.59206 Y-63.32911 I-4.82193 J10.85202
G3 X24.72533 Y-63.12913 I-2.178 J1.59572
G2 X25.82403 Y-61.79603 I5.08097 J-3.0683
G3 X25.86076 Y-61.76218 I-1.81148 J2.00214
G2 X26.37792 Y-61.53389 I0.58308 J-0.62096
G2 X27.6946 Y-62.1291 I-0.05861 J-1.88357
G3 X27.90025 Y-62.32661 I1.97044 J1.8459
G2 X28.46894 Y-63.56097 I-1.07319 J-1.24262
G2 X27.8773 Y-65.79963 I-4.58273 J0.01363
G2 X24.88776 Y-68.89553 I-8.49463 J5.21142
G3 X24.8517 Y-68.91985 I1.49147 J-2.25067
G2 X20.47777 Y-71.34243 I-14.82721 J21.6105
G3 X20.41848 Y-71.36907 I1.07692 J-2.47593
G2 X5.51522 Y-74.77091 I-15.43456 J33.27183
G2 X-4.09292 Y-73.53588 I-0.3657 J35.14683
G2 X-12.42099 Y-69.29438 I6.17535 J22.42184
G2 X-17.93072 Y-61.95397 I11.6699 J14.49748
G2 X-19.6275 Y-52.64635 I22.52369 J8.91454
G3 X-19.62725 Y-52.57935 I-2.69964 J0.04381
G2 X-18.19036 Y-41.04568 I43.97577 J0.37774
G2 X-13.35876 Y-30.74867 I30.84773 J-8.19244
G3 X-13.33485 Y-30.71448 I-2.20082 J1.5641
G2 X-5.78717 Y-23.8813 I18.19481 J-12.5123
G2 X4.05661 Y-21.57174 I9.52069 J-18.44616
G3 X4.11766 Y-21.572 I0.04202 J2.69967
G2 X11.08811 Y-22.15801 I0.2715 J-38.51999
G3 X11.09913 Y-22.15993 I0.46954 J2.65886
G2 X17.41541 Y-24.27887 I-3.71136 J-21.5365
G3 X17.43945 Y-24.29114 I1.23889 J2.39899
G2 X21.52573 Y-27.95382 I-4.72951 J-9.38724
G2 X22.88375 Y-33.2033 I-8.56716 J-5.0167
G3 X22.88309 Y-33.24508 I2.69926 J-0.06331
G2 X21.55178 Y-37.31091 I-7.04574 J0.05617
G2 X17.99667 Y-40.80815 I-12.22277 J8.86943
G2 X12.73292 Y-43.81558 I-26.28103 J39.8881
G3 X12.70209 Y-43.83094 I1.18797 J-2.42461
G2 X6.98458 Y-46.61119 I-91.17206 J180.2232
G3 X6.97085 Y-46.61766 I1.14237 J-2.44642
G1 X-12.94326 Y-56.05339
G1 F300.0 X-12.42943 Y-57.13782
G1 F800.0 X-13.03291 Y-57.42376
G3 X-13.6451 Y-59.60167 I0.64228 J-1.35553
G3 X-5.60988 Y-66.82758 I17.7029 J11.60508
G3 X-5.57046 Y-66.8471 I0.68508 J1.33442
G3 X5.57986 Y-69.2487 I10.63901 J22.30996
G3 X5.5893 Y-69.24848 I-0.03103 J1.49968
G3 X14.65972 Y-67.79566 I-0.94262 J34.92629
G3 X19.33396 Y-66.07228 I-7.15354 J26.6028
G3 X23.62406 Y-62.61991 I-4.32113 J9.76141
G3 X23.6981 Y-62.5088 I-1.21 J0.88651
G2 X25.01893 Y-60.90619 I6.1082 J-3.68863
G3 X25.03933 Y-60.88739 I-1.00638 J1.1123
G2 X26.35637 Y-60.3332 I1.4045 J-1.49576
G2 X28.57035 Y-61.3087 I-0.03706 J-3.08426
G3 X28.6846 Y-61.41843 I1.09469 J1.0255
G2 X29.66894 Y-63.56012 I-1.85754 J-2.1508
G2 X28.91124 Y-66.40902 I-5.78273 J0.01278
G2 X25.55063 Y-69.89583 I-9.52858 J5.82081
G3 X25.5306 Y-69.90934 I0.8286 J-1.25037
G2 X20.9564 Y-72.44284 I-15.50611 J22.59999
G3 X20.92346 Y-72.45764 I0.59829 J-1.37552
G2 X5.53016 Y-75.97082 I-15.93954 J34.36041
G2 X-4.41 Y-74.69323 I-0.38063 J36.34674
G2 X-13.17139 Y-70.23081 I6.49243 J23.57919
G2 X-19.04258 Y-62.40552 I12.4203 J15.43391
G2 X-20.82735 Y-52.62688 I23.63554 J9.36609
G3 X-20.8272 Y-52.58965 I-1.4998 J0.02434
G2 X-19.35063 Y-40.73947 I45.17572 J0.38805
G2 X-14.3369 Y-30.05352 I32.008 J-8.49865
G3 X-14.32361 Y-30.03452 I-1.22268 J0.86895
G2 X-6.35177 Y-22.82231 I19.18358 J-13.19226
G2 X4.07529 Y-20.37189 I10.08529 J-19.50516
G3 X4.1092 Y-20.37203 I0.02335 J1.49982
G2 X11.2968 Y-20.97629 I0.27996 J-39.71996
G3 X11.30292 Y-20.97736 I0.26086 J1.47714
G2 X17.96602 Y-23.21265 I-3.91515 J-22.71906
G3 X17.97938 Y-23.21947 I0.68827 J1.33277
G2 X22.5472 Y-27.32352 I-5.26944 J-10.45891
G2 X24.08342 Y-33.23143 I-9.58863 J-5.647
G3 X24.08306 Y-33.25464 I1.49959 J-0.03517
G2 X22.52399 Y-38.01434 I-8.2457 J0.06574
G2 X18.6711 Y-41.80083 I-13.19498 J9.57286
G2 X13.26091 Y-44.89319 I-26.95546 J40.88079
G3 X13.24378 Y-44.90172 I0.65998 J-1.347
G2 X7.4923 Y-47.69849 I-91.71375 J181.29399
G3 X7.48467 Y-47.70208 I0.63465 J-1.35912
G1 X-12.42943 Y-57.13782
G0 Z3.0
G0 X-15.63727 Y-54.09429
G0 Z-1.0
G1 F300.0 Z-4.0
G3 F800.0 X-16.55052 Y-54.88247 I3.24664 J-4.68501
G2 X-16.62512 Y-53.52584 I21.14348 J1.84304
G3 X-15.63727 Y-54.09429 I3.32141 J4.62935
G1 F300.0 X-15.29552 Y-54.58745
G3 F800.0 X-16.95418 Y-56.50246 I2.90489 J-4.19185
G2 X-17.22782 Y-52.6853 I21.54715 J3.46303
G3 X-17.22734 Y-52.55873 I-5.09933 J0.08276
G2 X-17.22884 Y-52.14901 I41.57586 J0.35713
G3 X-14.07745 Y-53.93502 I3.92513 J3.25252
G1 X-14.57438 Y-54.17048
G3 X-15.29552 Y-54.58745 I2.18376 J-4.60882
G0 Z3.0
G0 X-14.19485 Y-51.44264
G0 Z-1.0
G1 F300.0 Z-4.0
G3 F800.0 X-12.14515 Y-51.33263 I0.89114 J2.54616
G1 X4.3441 Y-43.49083
G3 X4.35694 Y-43.48468 I-1.15856 J2.43614
G3 X11.64901 Y-39.67616 I-55.61192 J115.36364
G3 X18.72928 Y-34.94248 I-23.92635 J43.44907
G3 X18.86412 Y-30.84683 I-1.68631 J2.10556
G3 X11.72059 Y-26.85724 I-12.02409 J-13.13944
G3 X11.71676 Y-26.85615 I-0.7392 J-2.59434
G3 X4.102 Y-25.8422 I-7.31053 J-25.80178
G3 X-8.89522 Y-31.93763 I-0.2201 J-16.43533
G3 X-13.496 Y-39.92454 I21.61006 J-17.76682
G3 X-15.94756 Y-48.36068 I49.5625 J-18.97729
G3 X-14.19485 Y-51.44264 I2.64385 J-0.5358
G1 F300.0 X-13.79923 Y-50.31227
G3 F800.0 X-12.6595 Y-50.2511 I0.49552 J1.41579
G1 X3.82976 Y-42.4093
G3 X3.8369 Y-42.40589 I-0.64422 J1.35462
G3 X11.06606 Y-38.63 I-55.09187 J114.28484
G3 X17.98064 Y-34.00771 I-23.34339 J42.40292
G3 X18.05562 Y-31.73033 I-0.93768 J1.1708
G3 X11.39242 Y-28.009 I-11.21558 J-12.25594
G3 X11.39029 Y-28.00839 I-0.41103 J-1.44258
G3 X4.10067 Y-27.0399 I-6.98406 J-24.64953
G3 X-7.96716 Y-32.69458 I-0.21876 J-15.23763
G3 X-12.37574 Y-40.34797 I20.682 J-17.00987
G3 X-14.77383 Y-48.59855 I48.44224 J-18.55386
G3 X-13.79923 Y-50.31227 I1.47011 J-0.29793
G0 Z3.0
G0 X-14.59127 Y-52.57527
G0 Z-1.0
G1 F300.0 Z-4.0
G2 F800.0 X-17.12366 Y-48.12234 I1.28756 J3.67879
G2 X-14.61848 Y-39.50021 I53.19016 J-10.7795
G2 X-9.82509 Y-31.17911 I27.33332 J-10.20424
G2 X4.10313 Y-24.64212 I13.707 J-11.09842
G2 X12.04389 Y-25.7016 I0.3031 J-28.01581
G2 X12.04942 Y-25.70317 I-1.0625 J-3.74998
G2 X19.67425 Y-29.96156 I-5.20938 J-18.2831
G2 X19.47942 Y-35.87911 I-2.63128 J-2.87535
G2 X12.23317 Y-40.72439 I-31.75676 J39.65203
G2 X4.87803 Y-44.56564 I-63.48815 J112.60334
G2 X4.85948 Y-44.57452 I-1.69248 J3.51095
G1 X-11.62978 Y-52.41632
G2 X-14.59127 Y-52.57527 I-1.67393 J3.51984
G0 Z3.0
G0 X-13.45708 Y-54.96897
G0 Z-1.0
G1 F300.0 Z-4.0
G1 F800.0 X-14.06056 Y-55.25491
G3 X-15.65226 Y-60.91745 I1.66993 J-3.52439
G3 X-6.70601 Y-68.96265 I19.71006 J12.92087
G3 X-6.6035 Y-69.01339 I1.7812 J3.46948
G3 X5.6295 Y-71.64819 I11.67206 J24.47625
G3 X5.65405 Y-71.6476 I-0.08068 J3.89917
G3 X15.3155 Y-70.10455 I-1.00737 J37.32542
G3 X20.33598 Y-68.25331 I-7.80932 J28.9117
G3 X25.56006 Y-64.03832 I-5.32315 J11.94243
G3 X25.75256 Y-63.74945 I-3.146 J2.30492
G2 X26.53929 Y-62.76929 I4.05374 J-2.44798
G2 X26.81884 Y-62.94951 I-0.21998 J-0.64817
G3 X27.1159 Y-63.23479 I2.8462 J2.6663
G2 X27.26892 Y-63.56339 I-0.28884 J-0.33443
G2 X26.84246 Y-65.19159 I-3.38271 J0.01604
G2 X24.22488 Y-67.89524 I-7.4598 J4.60338
G3 X24.1728 Y-67.93036 I2.15435 J-3.25097
G2 X19.99914 Y-70.24201 I-14.14831 J20.62101
G3 X19.9135 Y-70.28049 I1.55555 J-3.57635
G2 X5.50029 Y-73.571 I-14.92958 J32.18326
G2 X-3.77582 Y-72.37854 I-0.35077 J33.94692
G2 X-11.67058 Y-68.35796 I5.85825 J21.26449
G2 X-16.8189 Y-61.50235 I10.91948 J13.56106
G2 X-18.42766 Y-52.66582 I21.41186 J8.46292
G3 X-18.42729 Y-52.56904 I-3.89949 J0.06329
G2 X-17.03009 Y-41.35189 I42.77581 J0.36744
G2 X-12.38062 Y-31.44383 I29.68745 J-7.88622
G3 X-12.34608 Y-31.39444 I-3.17896 J2.25926
G2 X-5.22259 Y-24.94032 I17.20605 J-11.83234
G2 X4.03793 Y-22.7716 I8.95611 J-17.38714
G3 X4.12612 Y-22.77197 I0.0607 J3.89953
G2 X10.87943 Y-23.33972 I0.26304 J-37.32002
G3 X10.89533 Y-23.3425 I0.67823 J3.84057
G2 X16.86479 Y-25.34509 I-3.50757 J-20.35393
G3 X16.89952 Y-25.36281 I1.78951 J3.46521
G2 X20.50414 Y-28.58409 I-4.18958 J-8.31557
G2 X21.68408 Y-33.17516 I-7.54557 J-4.38643
G3 X21.68313 Y-33.23551 I3.89893 J-0.09144
G2 X20.57952 Y-36.60755 I-5.84578 J0.04661
G2 X17.32184 Y-39.81572 I-11.25051 J8.16607
G2 X12.20493 Y-42.73798 I-25.6062 J38.89567
G3 X12.1604 Y-42.76016 I1.71596 J-3.50221
G2 X6.47686 Y-45.52389 I-90.63037 J179.15242
G3 X6.45702 Y-45.53323 I1.65009 J-3.53372
G1 X-13.45708 Y-54.96897
G1 F300.0 X-12.94326 Y-56.05339
G1 F800.0 X-13.54673 Y-56.33933
G3 X-14.64868 Y-60.25956 I1.15611 J-2.43996
G3 X-6.15795 Y-67.89511 I18.70648 J12.26298
G3 X-6.08698 Y-67.93024 I1.23314 J2.40195
G3 X5.60468 Y-70.44845 I11.15554 J23.39311
G3 X5.62167 Y-70.44804 I-0.05585 J2.69942
G3 X14.98758 Y-68.95012 I-0.975 J36.12586
G3 X19.83477 Y-67.16289 I-7.4814 J27.75726
G3 X24.59206 Y-63.32911 I-4.82193 J10.85202
G3 X24.72533 Y-63.12913 I-2.178 J1.59572
G2 X25.82403 Y-61.79603 I5.08097 J-3.0683
G3 X25.86076 Y-61.76218 I-1.81148 J2.00214
G2 X26.37792 Y-61.53389 I0.58308 J-0.62096
G2 X27.6946 Y-62.1291 I-0.05861 J-1.88357
G3 X27.90025 Y-62.32661 I1.97044 J1.8459
G2 X28.46894 Y-63.56097 I-1.07319 J-1.24262
G2 X27.8773 Y-65.79963 I-4.58273 J0.01363
G2 X24.88776 Y-68.89553 I-8.49463 J5.21142
G3 X24.8517 Y-68.91985 I1.49147 J-2.25067
G2 X20.47777 Y-71.34243 I-14.82721 J21.6105
G3 X20.41848 Y-71.36907 I1.07692 J-2.47593
G2 X5.51522 Y-74.77091 I-15.43456 J33.27183
G2 X-4.09292 Y-73.53588 I-0.3657 J35.14683
G2 X-12.42099 Y-69.29438 I6.17535 J22.42184
G2 X-17.93072 Y-61.95397 I11.6699 J14.49748
G2 X-19.6275 Y-52.64635 I22.52369 J8.91454
G3 X-19.62725 Y-52.57935 I-2.69964 J0.04381
G2 X-18.19036 Y-41.04568 I43.97577 J0.37774
G2 X-13.35876 Y-30.74867 I30.84773 J-8.19244
G3 X-13.33485 Y-30.71448 I-2.20082 J1.5641
G2 X-5.78717 Y-23.8813 I18.19481 J-12.5123
G2 X4.05661 Y-21.57174 I9.52069 J-18.44616
G3 X4.11766 Y-21.572 I0.04202 J2.69967
G2 X11.08811 Y-22.15801 I0.2715 J-38.51999
G3 X11.09913 Y-22.15993 I0.46954 J2.65886
G2 X17.41541 Y-24.27887 I-3.71136 J-21.5365
G3 X17.43945 Y-24.29114 I1.23889 J2.39899
G2 X21.52573 Y-27.95382 I-4.72951 J-9.38724
G2 X22.88375 Y-33.2033 I-8.56716 J-5.0167
G3 X22.88309 Y-33.24508 I2.69926 J-0.06331
G2 X21.55178 Y-37.31091 I-7.04574 J0.05617
G2 X17.99667 Y-40.80815 I-12.22277 J8.86943
G2 X12.73292 Y-43.81558 I-26.28103 J39.8881
G3 X12.70209 Y-43.83094 I1.18797 J-2.42461
G2 X6.98458 Y-46.61119 I-91.17206 J180.2232
G3 X6.97085 Y-46.61766 I1.14237 J-2.44642
G1 X-12.94326 Y-56.05339
G1 F300.0 X-12.42943 Y-57.13782
G1 F800.0 X-13.03291 Y-57.42376
G3 X-13.6451 Y-59.60167 I0.64228 J-1.35553
G3 X-5.60988 Y-66.82758 I17.7029 J11.60508
G3 X-5.57046 Y-66.8471 I0.68508 J1.33442
G3 X5.57986 Y-69.2487 I10.63901 J22.30996
G3 X5.5893 Y-69.24848 I-0.03103 J1.49968
G3 X14.65972 Y-67.79566 I-0.94262 J34.92629
G3 X19.33396 Y-66.07228 I-7.15354 J26.6028
G3 X23.62406 Y-62.61991 I-4.32113 J9.76141
G3 X23.6981 Y-62.5088 I-1.21 J0.88651
G2 X25.01893 Y-60.90619 I6.1082 J-3.68863
G3 X25.03933 Y-60.88739 I-1.00638 J1.1123
G2 X26.35637 Y-60.3332 I1.4045 J-1.49576
G2 X28.57035 Y-61.3087 I-0.03706 J-3.08426
G3 X28.6846 Y-61.41843 I1.09469 J1.0255
G2 X29.66894 Y-63.56012 I-1.85754 J-2.1508
G2 X28.91124 Y-66.40902 I-5.78273 J0.01278
G2 X25.55063 Y-69.89583 I-9.52858 J5.82081
G3 X25.5306 Y-69.90934 I0.8286 J-1.25037
G2 X20.9564 Y-72.44284 I-15.50611 J22.59999
G3 X20.92346 Y-72.45764 I0.59829 J-1.37552
G2 X5.53016 Y-75.97082 I-15.93954 J34.36041
G2 X-4.41 Y-74.69323 I-0.38063 J36.34674
G2 X-13.17139 Y-70.23081 I6.49243 J23.57919
G2 X-19.04258 Y-62.40552 I12.4203 J15.43391
G2 X-20.82735 Y-52.62688 I23.63554 J9.36609
G3 X-20.8272 Y-52.58965 I-1.4998 J0.02434
G2 X-19.35063 Y-40.73947 I45.17572 J0.38805
G2 X-14.3369 Y-30.05352 I32.008 J-8.49865
G3 X-14.32361 Y-30.03452 I-1.22268 J0.86895
G2 X-6.35177 Y-22.82231 I19.18358 J-13.19226
G2 X4.07529 Y-20.37189 I10.08529 J-19.50516
G3 X4.1092 Y-20.37203 I0.02335 J1.49982
G2 X11.2968 Y-20.97629 I0.27996 J-39.71996
G3 X11.30292 Y-20.97736 I0.26086 J1.47714
G2 X17.96602 Y-23.21265 I-3.91515 J-22.71906
G3 X17.97938 Y-23.21947 I0.68827 J1.33277
G2 X22.5472 Y-27.32352 I-5.26944 J-10.45891
G2 X24.08342 Y-33.23143 I-9.58863 J-5.647
G3 X24.08306 Y-33.25464 I1.49959 J-0.03517
G2 X22.52399 Y-38.01434 I-8.2457 J0.06574
G2 X18.6711 Y-41.80083 I-13.19498 J9.57286
G2 X13.26091 Y-44.89319 I-26.95546 J40.88079
G3 X13.24378 Y-44.90172 I0.65998 J-1.347
G2 X7.4923 Y-47.69849 I-91.71375 J181.29399
G3 X7.48467 Y-47.70208 I0.63465 J-1.35912
G1 X-12.42943 Y-57.13782
G0 Z3.0
G0 X48.04327 Y-56.03747
G0 Z1.0
G1 F300.0 Z-2.0
G2 F800.0 X47.97806 Y-50.62305 I440.12954 J8.00849
G2 X48.50008 Y-38.43717 I180.50099 J-1.6282
G3 X48.50026 Y-38.43492 I-5.08504 J0.3903
G3 X49.05195 Y-25.47017 I-192.38948 J14.6809
G3 X49.04788 Y-25.21614 I-5.0998 J0.04536
G2 X49.06475 Y-25.09776 I0.32924 J0.01348
G3 X49.35041 Y-25.09822 I0.15107 J5.09776
G2 X49.38352 Y-25.22223 I-0.18345 J-0.11539
G3 X49.37969 Y-25.37951 I5.09598 J-0.20258
G2 X48.85727 Y-37.65746 I-182.66538 J1.62225
G3 X48.30547 Y-50.57073 I189.66831 J-14.57324
G3 X48.30536 Y-50.64529 I5.09981 J-0.0445
G3 X48.46833 Y-60.42312 I453.88476 J2.67447
G3 X48.46986 Y-60.4709 I5.09808 J0.13992
G2 X48.68141 Y-69.93762 I-327.03202 J-12.0437
G3 X48.68479 Y-70.08758 I5.09984 J0.04016
G2 X48.67392 Y-70.17095 I-0.25277 J-0.00943
G3 X48.36124 I-0.15634 J-5.0976
G2 X48.35036 Y-70.08755 I0.24196 J0.07397
G3 X48.35376 Y-69.8585 I-5.09646 J0.19009
G3 X48.13647 Y-60.11874 I-332.11671 J-2.53707
G2 X48.04327 Y-56.03747 I440.03635 J12.08976
G1 F300.0 X46.84347 Y-56.05931
G2 F800.0 X46.77803 Y-50.62119 I441.32934 J8.03033
G2 X47.3036 Y-38.34534 I181.70103 J-1.63006
G3 X47.30373 Y-38.34361 I-3.88856 J0.29846
G3 X47.85199 Y-25.45949 I-191.19296 J14.5896
G3 X47.84888 Y-25.26524 I-3.89985 J0.03469
G2 X48.2062 Y-24.21861 I1.52823 J0.06258
G2 X49.09194 Y-23.89803 I0.84531 J-0.95165
G3 X49.35863 Y-23.89738 I0.12388 J3.89803
G2 X50.18313 Y-24.22645 I0.04019 J-1.09678
G2 X50.58257 Y-25.26989 I-1.01617 J-0.98717
G3 X50.57965 Y-25.39017 I3.89692 J-0.15491
G2 X50.05377 Y-37.74909 I-183.86533 J1.63291
G3 X49.50542 Y-50.5812 I188.47182 J-14.48162
G3 X49.50534 Y-50.63821 I3.89985 J-0.03403
G3 X49.66787 Y-60.3902 I452.68478 J2.6674
G3 X49.66905 Y-60.42673 I3.89853 J0.10699
G2 X49.88137 Y-69.92817 I-328.23121 J-12.08787
G3 X49.88396 Y-70.04284 I3.89988 J0.03071
G2 X49.52311 Y-71.05648 I-1.45194 J-0.05416
G2 X48.67626 Y-71.37178 I-0.79932 J0.85192
G3 X48.39362 Y-71.37053 I-0.15868 J-3.89677
G2 X47.50086 Y-71.0436 I-0.04045 J1.27198
G2 X47.1512 Y-70.04282 I1.10235 J0.94662
G3 X47.15379 Y-69.86767 I-3.89729 J0.14536
G3 X46.93708 Y-60.15741 I-330.91675 J-2.5279
G2 X46.84347 Y-56.05931 I441.23574 J12.12843
G1 F300.0 X45.64367 Y-56.08114
G2 F800.0 X45.578 Y-50.61934 I442.52914 J8.05216
G2 X46.10712 Y-38.2535 I182.90106 J-1.63191
G3 X46.10721 Y-38.25231 I-2.69208 J0.20663
G3 X46.65204 Y-25.44882 I-189.99644 J14.49829
G3 X46.64989 Y-25.31434 I-2.69989 J0.02401
G2 X47.34361 Y-23.38192 I2.72723 J0.11167
G2 X49.13006 Y-22.69864 I1.7079 J-1.78834
G3 X49.31469 Y-22.69819 I0.08576 J2.69864
G2 X51.04232 Y-23.38871 I0.08413 J-2.29597
G2 X51.78162 Y-25.31756 I-1.87536 J-1.8249
G3 X51.7796 Y-25.40083 I2.69787 J-0.10725
G2 X51.25027 Y-37.84071 I-185.06528 J1.64357
G3 X50.70538 Y-50.59167 I187.27532 J-14.38999
G3 X50.70532 Y-50.63114 I2.6999 J-0.02356
G3 X50.86742 Y-60.35728 I451.4848 J2.66033
G3 X50.86824 Y-60.38257 I2.69898 J0.07407
G2 X51.08133 Y-69.91872 I-329.4304 J-12.13203
G3 X51.08313 Y-69.99811 I2.69992 J0.02126
G2 X50.38677 Y-71.89063 I-2.65111 J-0.0989
G2 X48.62744 Y-72.57079 I-1.66298 J1.68607
G3 X48.43176 Y-72.56992 I-0.10986 J-2.69776
G2 X46.64032 Y-71.8818 I-0.07859 J2.47137
G2 X45.95203 Y-69.9981 I1.96288 J1.78482
G3 X45.95383 Y-69.87684 I-2.69812 J0.10064
G3 X45.73769 Y-60.1961 I-329.71678 J-2.51873
G2 X45.64367 Y-56.08114 I442.43513 J12.16712
G1 F300.0 X44.44387 Y-56.10297
G2 F800.0 X44.37797 Y-50.6175 I443.72894 J8.07399
G2 X44.91064 Y-38.16167 I184.10109 J-1.63375
G3 X44.91069 Y-38.16101 I-1.4956 J0.11479
G3 X45.45209 Y-25.43815 I-188.79992 J14.40699
G3 X45.45089 Y-25.36343 I-1.49994 J0.01334
G2 X46.48086 Y-22.54696 I3.92622 J0.16077
G2 X49.16817 Y-21.49924 I2.57065 J-2.62329
G3 X49.27075 Y-21.49899 I0.04765 J1.49924
G2 X51.90155 Y-22.55102 I0.12807 J-3.49517
G2 X52.98068 Y-25.36522 I-2.73458 J-2.6626
G3 X52.97955 Y-25.41148 I1.49882 J-0.05958
G2 X52.44676 Y-37.93234 I-186.26524 J1.65422
G3 X51.90533 Y-50.60214 I186.07882 J-14.29836
G3 X51.9053 Y-50.62407 I1.49994 J-0.01309
G3 X52.06697 Y-60.32435 I450.28482 J2.65326
G3 X52.06742 Y-60.33841 I1.49944 J0.04115
G2 X52.2813 Y-69.90927 I-330.62959 J-12.17619
G3 X52.28229 Y-69.95338 I1.49995 J0.01181
G2 X51.25084 Y-72.7237 I-3.85027 J-0.14363
G2 X48.57861 Y-73.7698 I-2.52704 J2.51913
G3 X48.4699 Y-73.76931 I-0.06103 J-1.49876
G2 X45.77978 Y-72.71882 I-0.11673 J3.67077
G2 X44.75286 Y-69.95337 I2.82342 J2.62184
G3 X44.75386 Y-69.886 I-1.49896 J0.05591
G3 X44.5383 Y-60.2348 I-328.51682 J-2.50957
G2 X44.44387 Y-56.10297 I443.63451 J12.20582
G0 Z3.0
G0 X48.04327 Y-56.03747
G0 Z-1.0
G1 F300.0 Z-4.0
G2 F800.0 X47.97806 Y-50.62305 I440.12954 J8.00849
G2 X48.50008 Y-38.43717 I180.50099 J-1.6282
G3 X48.50026 Y-38.43492 I-5.08504 J0.3903
G3 X49.05195 Y-25.47017 I-192.38948 J14.6809
G3 X49.04788 Y-25.21614 I-5.0998 J0.04536
G2 X49.06475 Y-25.09776 I0.32924 J0.01348
G3 X49.35041 Y-25.09822 I0.15107 J5.09776
G2 X49.38352 Y-25.22223 I-0.18345 J-0.11539
G3 X49.37969 Y-25.37951 I5.09598 J-0.20258
G2 X48.85727 Y-37.65746 I-182.66538 J1.62225
G3 X48.30547 Y-50.57073 I189.66831 J-14.57324
G3 X48.30536 Y-50.64529 I5.09981 J-0.0445
G3 X48.46833 Y-60.42312 I453.88476 J2.67447
G3 X48.46986 Y-60.4709 I5.09808 J0.13992
G2 X48.68141 Y-69.93762 I-327.03202 J-12.0437
G3 X48.68479 Y-70.08758 I5.09984 J0.04016
G2 X48.67392 Y-70.17095 I-0.25277 J-0.00943
G3 X48.36124 I-0.15634 J-5.0976
G2 X48.35036 Y-70.08755 I0.24196 J0.07397
G3 X48.35376 Y-69.8585 I-5.09646 J0.19009
G3 X48.13647 Y-60.11874 I-332.11671 J-2.53707
G2 X48.04327 Y-56.03747 I440.03635 J12.08976
G1 F300.0 X46.84347 Y-56.05931
G2 F800.0 X46.77803 Y-50.62119 I441.32934 J8.03033
G2 X47.3036 Y-38.34534 I181.70103 J-1.63006
G3 X47.30373 Y-38.34361 I-3.88856 J0.29846
G3 X47.85199 Y-25.45949 I-191.19296 J14.5896
G3 X47.84888 Y-25.26524 I-3.89985 J0.03469
G2 X48.2062 Y-24.21861 I1.52823 J0.06258
G2 X49.09194 Y-23.89803 I0.84531 J-0.95165
G3 X49.35863 Y-23.89738 I0.12388 J3.89803
G2 X50.18313 Y-24.22645 I0.04019 J-1.09678
G2 X50.58257 Y-25.26989 I-1.01617 J-0.98717
G3 X50.57965 Y-25.39017 I3.89692 J-0.15491
G2 X50.05377 Y-37.74909 I-183.86533 J1.63291
G3 X49.50542 Y-50.5812 I188.47182 J-14.48162
G3 X49.50534 Y-50.63821 I3.89985 J-0.03403
G3 X49.66787 Y-60.3902 I452.68478 J2.6674
G3 X49.66905 Y-60.42673 I3.89853 J0.10699
G2 X49.88137 Y-69.92817 I-328.23121 J-12.08787
G3 X49.88396 Y-70.04284 I3.89988 J0.03071
G2 X49.52311 Y-71.05648 I-1.45194 J-0.05416
G2 X48.67626 Y-71.37178 I-0.79932 J0.85192
G3 X48.39362 Y-71.37053 I-0.15868 J-3.89677
G2 X47.50086 Y-71.0436 I-0.04045 J1.27198
G2 X47.1512 Y-70.04282 I1.10235 J0.94662
G3 X47.15379 Y-69.86767 I-3.89729 J0.14536
G3 X46.93708 Y-60.15741 I-330.91675 J-2.5279
G2 X46.84347 Y-56.05931 I441.23574 J12.12843
G1 F300.0 X45.64367 Y-56.08114
G2 F800.0 X45.578 Y-50.61934 I442.52914 J8.05216
G2 X46.10712 Y-38.2535 I182.90106 J-1.63191
G3 X46.10721 Y-38.25231 I-2.69208 J0.20663
G3 X46.65204 Y-25.44882 I-189.99644 J14.49829
G3 X46.64989 Y-25.31434 I-2.69989 J0.02401
G2 X47.34361 Y-23.38192 I2.72723 J0.11167
G2 X49.13006 Y-22.69864 I1.7079 J-1.78834
G3 X49.31469 Y-22.69819 I0.08576 J2.69864
G2 X51.04232 Y-23.38871 I0.08413 J-2.29597
G2 X51.78162 Y-25.31756 I-1.87536 J-1.8249
G3 X51.7796 Y-25.40083 I2.69787 J-0.10725
G2 X51.25027 Y-37.84071 I-185.06528 J1.64357
G3 X50.70538 Y-50.59167 I187.27532 J-14.38999
G3 X50.70532 Y-50.63114 I2.6999 J-0.02356
G3 X50.86742 Y-60.35728 I451.4848 J2.66033
G3 X50.86824 Y-60.38257 I2.69898 J0.07407
G2 X51.08133 Y-69.91872 I-329.4304 J-12.13203
G3 X51.08313 Y-69.99811 I2.69992 J0.02126
G2 X50.38677 Y-71.89063 I-2.65111 J-0.0989
G2 X48.62744 Y-72.57079 I-1.66298 J1.68607
G3 X48.43176 Y-72.56992 I-0.10986 J-2.69776
G2 X46.64032 Y-71.8818 I-0.07859 J2.47137
G2 X45.95203 Y-69.9981 I1.96288 J1.78482
G3 X45.95383 Y-69.87684 I-2.69812 J0.10064
G3 X45.73769 Y-60.1961 I-329.71678 J-2.51873
G2 X45.64367 Y-56.08114 I442.43513 J12.16712
G1 F300.0 X44.44387 Y-56.10297
G2 F800.0 X44.37797 Y-50.6175 I443.72894 J8.07399
G2 X44.91064 Y-38.16167 I184.10109 J-1.63375
G3 X44.91069 Y-38.16101 I-1.4956 J0.11479
G3 X45.45209 Y-25.43815 I-188.79992 J14.40699
G3 X45.45089 Y-25.36343 I-1.49994 J0.01334
G2 X46.48086 Y-22.54696 I3.92622 J0.16077
G2 X49.16817 Y-21.49924 I2.57065 J-2.62329
G3 X49.27075 Y-21.49899 I0.04765 J1.49924
G2 X51.90155 Y-22.55102 I0.12807 J-3.49517
G2 X52.98068 Y-25.36522 I-2.73458 J-2.6626
G3 X52.97955 Y-25.41148 I1.49882 J-0.05958
G2 X52.44676 Y-37.93234 I-186.26524 J1.65422
G3 X51.90533 Y-50.60214 I186.07882 J-14.29836
G3 X51.9053 Y-50.62407 I1.49994 J-0.01309
G3 X52.06697 Y-60.32435 I450.28482 J2.65326
G3 X52.06742 Y-60.33841 I1.49944 J0.04115
G2 X52.2813 Y-69.90927 I-330.62959 J-12.17619
G3 X52.28229 Y-69.95338 I1.49995 J0.01181
G2 X51.25084 Y-72.7237 I-3.85027 J-0.14363
G2 X48.57861 Y-73.7698 I-2.52704 J2.51913
G3 X48.4699 Y-73.76931 I-0.06103 J-1.49876
G2 X45.77978 Y-72.71882 I-0.11673 J3.67077
G2 X44.75286 Y-69.95337 I2.82342 J2.62184
G3 X44.75386 Y-69.886 I-1.49896 J0.05591
G3 X44.5383 Y-60.2348 I-328.51682 J-2.50957
G2 X44.44387 Y-56.10297 I443.63451 J12.20582
G0 Z3.0
G0 X78.9039 Y-57.48083
G0 Z1.0
G1 F300.0 Z-2.0
G2 F800.0 X79.12392 Y-52.58847 I491.49711 J-19.65218
G1 X79.12396 Y-52.58763
G3 X79.7208 Y-32.8376 I-504.89351 J25.14181
G3 X79.72109 Y-32.79233 I-5.09971 J0.0544
G2 X79.98794 Y-13.52568 I798.81869 J-1.4288
G1 Y-13.52552
G3 X80.2582 Y6.04091 I-810.56246 J20.98069
G3 X80.25775 Y6.11751 I-5.09999 J0.0089
G2 X80.26251 Y6.32339 I2.83057 J0.03758
G3 X80.49407 Y6.32141 I0.15936 J5.09751
G2 X80.64273 Y6.31907 I0.03517 J-2.48423
G2 X80.64234 Y6.22697 I-1.50961 J-0.03964
G3 X80.63927 Y6.05932 I5.09692 J-0.17716
G2 X80.37241 Y-13.26175 I-808.86729 J1.50959
G3 X80.10229 Y-32.70165 I806.9276 J-20.93416
G1 X79.29881 Y-59.32369
G3 X79.29683 Y-59.41844 I5.09768 J-0.15385
G2 X78.87518 Y-71.64615 I-267.36919 J3.0985
G3 X78.87295 Y-71.68804 I5.09162 J-0.29232
G2 X78.7659 Y-72.20996 I-1.7437 J0.08573
G3 X78.62644 Y-72.21015 I-0.06277 J-5.09961
G2 X78.54159 Y-72.20975 I-0.03244 J2.15736
G2 X78.53668 Y-71.99933 I1.86299 J0.14876
G3 X78.53916 Y-71.88546 I-5.09722 J0.16827
G2 X78.9039 Y-57.48083 I491.86185 J-5.24755
G1 F300.0 X77.70486 Y-57.43289
G2 F800.0 X77.92542 Y-52.52859 I492.69615 J-19.70012
G1 X77.92545 Y-52.52795
G3 X78.52087 Y-32.8248 I-503.69499 J25.08212
G3 X78.52109 Y-32.79018 I-3.89978 J0.0416
G2 X78.78834 Y-13.49459 I800.01869 J-1.43095
G1 Y-13.49447
G3 X79.0582 Y6.043 I-809.36286 J20.94964
G3 X79.05786 Y6.10158 I-3.89999 J0.0068
G2 X79.19031 Y7.18126 I4.03046 J0.05351
G3 X79.20934 Y7.25657 I-3.7715 J0.99287
G2 X79.24693 Y7.32798 I0.16039 J-0.03883
G2 X80.27929 Y7.52351 I0.94581 J-2.17059
G3 X80.47709 Y7.52129 I0.14258 J3.89739
G2 X81.51524 Y7.38728 I0.05216 J-3.68411
G3 X81.57204 Y7.37196 I1.04367 J3.75776
G2 X81.6265 Y7.34142 I-0.03129 J-0.11964
G2 X81.84161 Y6.18528 I-2.49339 J-1.062
G3 X81.83926 Y6.05708 I3.89765 J-0.13548
G2 X81.57201 Y-13.29276 I-810.06729 J1.51183
G3 X81.30225 Y-32.72086 I805.728 J-20.90314
G1 X80.49826 Y-59.35989
G3 X80.49675 Y-59.43235 I3.89822 J-0.11765
G2 X80.07321 Y-71.71493 I-268.56911 J3.11241
G3 X80.0715 Y-71.74697 I3.89359 J-0.22354
G2 X79.59054 Y-73.22091 I-2.94226 J0.14465
G2 X78.94267 Y-73.41693 I-0.58811 J0.7751
G3 X78.64448 Y-73.41001 I-0.23954 J-3.89264
G2 X77.64995 Y-73.27494 I-0.05049 J3.35723
G3 X77.61393 Y-73.26458 I-1.09654 J-3.74267
G2 X77.5704 Y-73.23815 I0.02594 J0.09181
G2 X77.33733 Y-71.95973 I2.83418 J1.17716
G3 X77.33923 Y-71.87266 I-3.89788 J0.12868
G2 X77.70486 Y-57.43289 I493.06178 J-5.26035
G1 F300.0 X76.50582 Y-57.38494
G2 F800.0 X76.72691 Y-52.46871 I493.89519 J-19.74806
G1 X76.72693 Y-52.46827
G3 X77.32094 Y-32.812 I-502.49648 J25.02244
G3 X77.32109 Y-32.78803 I-2.69985 J0.0288
G2 X77.58874 Y-13.4635 I801.21869 J-1.43309
G1 Y-13.46342
G3 X77.8582 Y6.0451 I-808.16326 J20.91859
G3 X77.85797 Y6.08565 I-2.7 J0.00471
G2 X78.02985 Y7.48676 I5.23036 J0.06944
G3 X78.04302 Y7.53889 I-2.61104 J0.68737
G2 X78.62793 Y8.36362 I1.32671 J-0.32115
G2 X80.32316 Y8.7227 I1.5648 J-3.20623
G3 X80.4601 Y8.72117 I0.09871 J2.6982
G2 X81.83637 Y8.54351 I0.06915 J-4.88399
G3 X81.87569 Y8.53291 I0.72254 J2.60152
G2 X82.67784 Y7.9299 I-0.33495 J-1.28059
G2 X83.04089 Y6.1436 I-3.54473 J-1.65047
G3 X83.03926 Y6.05484 I2.69837 J-0.09379
G2 X82.7716 Y-13.32378 I-811.26728 J1.51407
G3 X82.50222 Y-32.74006 I804.5284 J-20.87213
G1 X81.69771 Y-59.39609
G3 X81.69667 Y-59.44625 I2.69877 J-0.08145
G2 X81.27124 Y-71.78372 I-269.76903 J3.12631
G3 X81.27005 Y-71.80589 I2.69556 J-0.15476
G2 X80.49028 Y-74.02949 I-4.14081 J0.20358
G2 X78.86896 Y-74.61467 I-1.48786 J1.58368
G3 X78.66253 Y-74.60988 I-0.16584 J-2.6949
G2 X77.31256 Y-74.42653 I-0.06853 J4.55709
G3 X77.28762 Y-74.41936 I-0.75914 J-2.59108
G2 X76.50368 Y-73.79497 I0.35226 J1.24659
G2 X76.13798 Y-71.92014 I3.9009 J1.73398
G3 X76.1393 Y-71.85986 I-2.69853 J0.08909
G2 X76.50582 Y-57.38494 I494.26171 J-5.27315
G1 F300.0 X75.30678 Y-57.337
G2 F800.0 X75.5284 Y-52.40883 I495.09423 J-19.79601
G1 X75.52842 Y-52.40859
G3 X76.12101 Y-32.7992 I-501.29796 J24.96276
G3 X76.12109 Y-32.78589 I-1.49991 J0.016
G2 X76.38914 Y-13.43242 I802.41869 J-1.43524
G1 X76.38915 Y-13.43237
G3 X76.6582 Y6.04719 I-806.96367 J20.88754
G3 X76.65807 Y6.06972 I-1.5 J0.00262
G2 X76.86939 Y7.79226 I6.43025 J0.08537
G3 X76.87671 Y7.82122 I-1.45058 J0.38187
G2 X78.04234 Y9.41259 I2.49302 J-0.60348
G2 X80.36704 Y9.9219 I2.15039 J-4.25521
G3 X80.44311 Y9.92105 I0.05484 J1.499
G2 X82.1575 Y9.69974 I0.08614 J-6.08387
G3 X82.17935 Y9.69385 I0.40141 J1.44529
G2 X83.7421 Y8.48639 I-0.6386 J-2.44153
G2 X84.24016 Y6.10191 I-4.60899 J-2.20696
G3 X84.23926 Y6.0526 I1.49909 J-0.05211
G2 X83.9712 Y-13.35479 I-812.46728 J1.51631
G3 X83.70219 Y-32.75924 I803.32881 J-20.84112
G1 X82.89717 Y-59.43229
G3 X82.89659 Y-59.46016 I1.49932 J-0.04525
G2 X82.46926 Y-71.8525 I-270.96895 J3.14022
G3 X82.46861 Y-71.86482 I1.49753 J-0.08598
G2 X81.39808 Y-74.8202 I-5.33936 J0.2625
G2 X78.79526 Y-75.8124 I-2.39565 J2.3744
G3 X78.68057 Y-75.80974 I-0.09213 J-1.49717
G2 X76.97516 Y-75.57813 I-0.08657 J5.75696
G3 X76.9613 Y-75.57414 I-0.42175 J-1.43949
G2 X75.42542 Y-74.32309 I0.67857 J2.40137
G2 X74.93864 Y-71.88055 I4.97916 J2.2621
G3 X74.93937 Y-71.84706 I-1.49918 J0.04949
G2 X75.30678 Y-57.337 I495.46164 J-5.28595
G0 Z3.0
G0 X78.9039 Y-57.48083
G0 Z-1.0
G1 F300.0 Z-4.0
G2 F800.0 X79.12392 Y-52.58847 I491.49711 J-19.65218
G1 X79.12396 Y-52.58763
G3 X79.7208 Y-32.8376 I-504.89351 J25.14181
G3 X79.72109 Y-32.79233 I-5.09971 J0.0544
G2 X79.98794 Y-13.52568 I798.81869 J-1.4288
G1 Y-13.52552
G3 X80.2582 Y6.04091 I-810.56246 J20.98069
G3 X80.25775 Y6.11751 I-5.09999 J0.0089
G2 X80.26251 Y6.32339 I2.83057 J0.03758
G3 X80.49407 Y6.32141 I0.15936 J5.09751
G2 X80.64273 Y6.31907 I0.03517 J-2.48423
G2 X80.64234 Y6.22697 I-1.50961 J-0.03964
G3 X80.63927 Y6.05932 I5.09692 J-0.17716
G2 X80.37241 Y-13.26175 I-808.86729 J1.50959
G3 X80.10229 Y-32.70165 I806.9276 J-20.93416
G1 X79.29881 Y-59.32369
G3 X79.29683 Y-59.41844 I5.09768 J-0.15385
G2 X78.87518 Y-71.64615 I-267.36919 J3.0985
G3 X78.87295 Y-71.68804 I5.09162 J-0.29232
G2 X78.7659 Y-72.20996 I-1.7437 J0.08573
G3 X78.62644 Y-72.21015 I-0.06277 J-5.09961
G2 X78.54159 Y-72.20975 I-0.03244 J2.15736
G2 X78.53668 Y-71.99933 I1.86299 J0.14876
G3 X78.53916 Y-71.88546 I-5.09722 J0.16827
G2 X78.9039 Y-57.48083 I491.86185 J-5.24755
G1 F300.0 X77.70486 Y-57.43289
G2 F800.0 X77.92542 Y-52.52859 I492.69615 J-19.70012
G1 X77.92545 Y-52.52795
G3 X78.52087 Y-32.8248 I-503.69499 J25.08212
G3 X78.52109 Y-32.79018 I-3.89978 J0.0416
G2 X78.78834 Y-13.49459 I800.01869 J-1.43095
G1 Y-13.49447
G3 X79.0582 Y6.043 I-809.36286 J20.94964
G3 X79.05786 Y6.10158 I-3.89999 J0.0068
G2 X79.19031 Y7.18126 I4.03046 J0.05351
G3 X79.20934 Y7.25657 I-3.7715 J0.99287
G2 X79.24693 Y7.32798 I0.16039 J-0.03883
G2 X80.27929 Y7.52351 I0.94581 J-2.17059
G3 X80.47709 Y7.52129 I0.14258 J3.89739
G2 X81.51524 Y7.38728 I0.05216 J-3.68411
G3 X81.57204 Y7.37196 I1.04367 J3.75776
G2 X81.6265 Y7.34142 I-0.03129 J-0.11964
G2 X81.84161 Y6.18528 I-2.49339 J-1.062
G3 X81.83926 Y6.05708 I3.89765 J-0.13548
G2 X81.57201 Y-13.29276 I-810.06729 J1.51183
G3 X81.30225 Y-32.72086 I805.728 J-20.90314
G1 X80.49826 Y-59.35989
G3 X80.49675 Y-59.43235 I3.89822 J-0.11765
G2 X80.07321 Y-71.71493 I-268.56911 J3.11241
G3 X80.0715 Y-71.74697 I3.89359 J-0.22354
G2 X79.59054 Y-73.22091 I-2.94226 J0.14465
G2 X78.94267 Y-73.41693 I-0.58811 J0.7751
G3 X78.64448 Y-73.41001 I-0.23954 J-3.89264
G2 X77.64995 Y-73.27494 I-0.05049 J3.35723
G3 X77.61393 Y-73.26458 I-1.09654 J-3.74267
G2 X77.5704 Y-73.23815 I0.02594 J0.09181
G2 X77.33733 Y-71.95973 I2.83418 J1.17716
G3 X77.33923 Y-71.87266 I-3.89788 J0.12868
G2 X77.70486 Y-57.43289 I493.06178 J-5.26035
G1 F300.0 X76.50582 Y-57.38494
G2 F800.0 X76.72691 Y-52.46871 I493.89519 J-19.74806
G1 X76.72693 Y-52.46827
G3 X77.32094 Y-32.812 I-502.49648 J25.02244
G3 X77.32109 Y-32.78803 I-2.69985 J0.0288
G2 X77.58874 Y-13.4635 I801.21869 J-1.43309
G1 Y-13.46342
G3 X77.8582 Y6.0451 I-808.16326 J20.91859
G3 X77.85797 Y6.08565 I-2.7 J0.00471
G2 X78.02985 Y7.48676 I5.23036 J0.06944
G3 X78.04302 Y7.53889 I-2.61104 J0.68737
G2 X78.62793 Y8.36362 I1.32671 J-0.32115
G2 X80.32316 Y8.7227 I1.5648 J-3.20623
G3 X80.4601 Y8.72117 I0.09871 J2.6982
G2 X81.83637 Y8.54351 I0.06915 J-4.88399
G3 X81.87569 Y8.53291 I0.72254 J2.60152
G2 X82.67784 Y7.9299 I-0.33495 J-1.28059
G2 X83.04089 Y6.1436 I-3.54473 J-1.65047
G3 X83.03926 Y6.05484 I2.69837 J-0.09379
G2 X82.7716 Y-13.32378 I-811.26728 J1.51407
G3 X82.50222 Y-32.74006 I804.5284 J-20.87213
G1 X81.69771 Y-59.39609
G3 X81.69667 Y-59.44625 I2.69877 J-0.08145
G2 X81.27124 Y-71.78372 I-269.76903 J3.12631
G3 X81.27005 Y-71.80589 I2.69556 J-0.15476
G2 X80.49028 Y-74.02949 I-4.14081 J0.20358
G2 X78.86896 Y-74.61467 I-1.48786 J1.58368
G3 X78.66253 Y-74.60988 I-0.16584 J-2.6949
G2 X77.31256 Y-74.42653 I-0.06853 J4.55709
G3 X77.28762 Y-74.41936 I-0.75914 J-2.59108
G2 X76.50368 Y-73.79497 I0.35226 J1.24659
G2 X76.13798 Y-71.92014 I3.9009 J1.73398
G3 X76.1393 Y-71.85986 I-2.69853 J0.08909
G2 X76.50582 Y-57.38494 I494.26171 J-5.27315
G1 F300.0 X75.30678 Y-57.337
G2 F800.0 X75.5284 Y-52.40883 I495.09423 J-19.79601
G1 X75.52842 Y-52.40859
G3 X76.12101 Y-32.7992 I-501.29796 J24.96276
G3 X76.12109 Y-32.78589 I-1.49991 J0.016
G2 X76.38914 Y-13.43242 I802.41869 J-1.43524
G1 X76.38915 Y-13.43237
G3 X76.6582 Y6.04719 I-806.96367 J20.88754
G3 X76.65807 Y6.06972 I-1.5 J0.00262
G2 X76.86939 Y7.79226 I6.43025 J0.08537
G3 X76.87671 Y7.82122 I-1.45058 J0.38187
G2 X78.04234 Y9.41259 I2.49302 J-0.60348
G2 X80.36704 Y9.9219 I2.15039 J-4.25521
G3 X80.44311 Y9.92105 I0.05484 J1.499
G2 X82.1575 Y9.69974 I0.08614 J-6.08387
G3 X82.17935 Y9.69385 I0.40141 J1.44529
G2 X83.7421 Y8.48639 I-0.6386 J-2.44153
G2 X84.24016 Y6.10191 I-4.60899 J-2.20696
G3 X84.23926 Y6.0526 I1.49909 J-0.05211
G2 X83.9712 Y-13.35479 I-812.46728 J1.51631
G3 X83.70219 Y-32.75924 I803.32881 J-20.84112
G1 X82.89717 Y-59.43229
G3 X82.89659 Y-59.46016 I1.49932 J-0.04525
G2 X82.46926 Y-71.8525 I-270.96895 J3.14022
G3 X82.46861 Y-71.86482 I1.49753 J-0.08598
G2 X81.39808 Y-74.8202 I-5.33936 J0.2625
G2 X78.79526 Y-75.8124 I-2.39565 J2.3744
G3 X78.68057 Y-75.80974 I-0.09213 J-1.49717
G2 X76.97516 Y-75.57813 I-0.08657 J5.75696
G3 X76.9613 Y-75.57414 I-0.42175 J-1.43949
G2 X75.42542 Y-74.32309 I0.67857 J2.40137
G2 X74.93864 Y-71.88055 I4.97916 J2.2621
G3 X74.93937 Y-71.84706 I-1.49918 J0.04949
G2 X75.30678 Y-57.337 I495.46164 J-5.28595
G0 Z3.0
G0 X113.1902 Y-70.43046
G0 Z1.0
G1 F300.0 Z-2.0
G3 F800.0 X114.27935 Y-69.29788 I-81.29717 J79.2694
G3 X114.78623 Y-70.21509 I6.80171 J3.16019
G3 X113.1902 Y-70.43046 I15.61614 J-121.74386
G1 F300.0 X113.35848 Y-71.61861
G3 F800.0 X109.71235 Y-72.19161 I17.04389 J-120.34034
G3 X114.83266 Y-66.94242 I-77.81932 J81.03055
G3 X117.24128 Y-71.13231 I6.24839 J0.80472
G3 X113.35848 Y-71.61861 I13.16109 J-120.82664
G1 F300.0 X113.52676 Y-72.80675
G3 F800.0 X106.98309 Y-73.9184 I16.87561 J-119.1522
G3 X106.96466 Y-73.9221 I0.9925 J-5.00249
G2 X106.14316 Y-74.02785 I-1.14893 J5.68118
G2 X106.85984 Y-73.21897 I3.79654 J-2.64186
G3 X106.90585 Y-73.1774 I-3.39597 J3.80491
G3 X116.04499 Y-63.76995 I-75.01282 J82.01634
G3 X116.04781 Y-63.76669 I-3.86134 J3.33168
G3 X119.70156 Y-59.39353 I-143.55794 J123.6547
G2 X116.98207 Y-63.10317 I-397.39222 J288.47067
G3 X121.33792 Y-71.23122 I4.09899 J-3.03452
G2 X130.80129 Y-70.96969 I10.47693 J-207.75649
G2 X136.06867 Y-71.66088 I-1.60824 J-32.67238
G1 X136.06885 Y-71.66092
G3 X143.13931 Y-72.5752 I9.02144 J41.96954
G3 X143.51365 Y-72.57848 I0.23178 J5.09473
G3 X143.55054 Y-72.61633 I3.67092 J3.54039
G2 X143.59176 Y-72.72232 I-0.1024 J-0.10083
G3 X143.5925 Y-73.1079 I5.09672 J-0.18296
G2 X143.55849 Y-73.2333 I-0.21645 J-0.00861
G2 X138.21258 Y-72.53834 I1.52971 J32.67615
G1 X138.2124 Y-72.5383
G3 X131.14194 Y-71.62402 I-9.02144 J-41.96954
G3 X130.93263 Y-71.6188 I-0.23178 J-5.09473
G3 X113.52676 Y-72.80675 I-0.53026 J-120.34015
G0 Z3.0
G0 X140.56179 Y-26.35596
G0 Z1.0
G1 F300.0 Z-2.0
G3 F800.0 X140.45508 Y-26.16618 I-6.59011 J-3.58057
G2 X140.7192 Y-26.15353 I8.04219 J-165.10616
G2 X140.56179 Y-26.35596 I-11.25233 J8.58778
G1 F300.0 X141.50237 Y-27.10115
G2 F800.0 X141.19217 Y-27.4801 I-12.0355 J9.5354
G3 X141.09021 Y-27.60384 I4.81076 J-4.06775
G3 X140.16215 Y-28.7669 I195.44125 J-156.90326
G3 X138.01001 Y-25.10104 I-6.19048 J-1.16962
G2 X142.9777 Y-24.86195 I10.48727 J-166.17131
G2 X141.50237 Y-27.10115 I-13.51083 J7.2962
G1 F300.0 X142.44294 Y-27.84634
G2 F800.0 X142.1085 Y-28.25491 I-12.97607 J10.2806
G3 X142.02597 Y-28.35508 I3.89443 J-3.29294
G3 X136.64509 Y-35.30496 I194.50549 J-156.15202
G3 X138.32085 Y-32.60011 I-261.79657 J164.06496
G3 X133.63414 Y-24.84771 I-4.34917 J2.66359
G2 X123.5693 Y-25.2661 I-13.50462 J203.59612
G2 X108.0329 Y-24.08714 I0.29742 J106.87827
G3 X107.7535 Y-24.05314 I-0.75555 J-5.04372
G2 X107.59286 Y-24.02079 I0.07285 J0.77683
G3 X107.59434 Y-23.64676 I-5.09578 J0.20731
G2 X107.66994 Y-23.38577 I0.43875 J0.01435
G2 X114.87365 Y-23.98089 I-2.30265 J-71.76979
G3 X114.93017 Y-23.98812 I0.67518 J5.05511
G3 X123.479 Y-24.61503 I10.74546 J87.92805
G3 X123.68492 Y-24.61598 I0.12647 J5.09843
G3 X134.93243 Y-24.11977 I-3.07627 J197.44862
G3 X134.97376 Y-24.11659 I-0.36993 J5.08657
G2 X144.78907 Y-23.61144 I13.52351 J-167.15575
G2 X144.29009 Y-24.93776 I-6.21726 J1.582
G3 X144.27429 Y-24.96908 I4.54583 J-2.31202
G2 X142.44294 Y-27.84634 I-14.80743 J7.40333
G1 F300.0 X143.38352 Y-28.59154
G2 F800.0 X143.02484 Y-29.02972 I-13.91665 J11.02579
G3 X142.96172 Y-29.10632 I2.97809 J-2.51813
G3 X130.52143 Y-46.0206 I193.56973 J-155.40078
G2 X117.94654 Y-63.81718 I-408.21209 J275.09774
G3 X121.27748 Y-70.03275 I3.13452 J-2.32052
G2 X130.82764 Y-69.76955 I10.53737 J-208.95497
G2 X136.3209 Y-70.48768 I-1.63459 J-33.87252
G1 X136.32103 Y-70.48771
G3 X143.19385 Y-71.37644 I8.76926 J40.79633
G3 X143.52344 Y-71.37749 I0.17725 J3.89597
G2 X144.34748 Y-71.71407 I0.04199 J-1.07421
G3 X144.40561 Y-71.77439 I2.83709 J2.67599
G2 X144.79099 Y-72.76537 I-0.95747 J-0.94277
G3 X144.79156 Y-73.06022 I3.89749 J-0.13991
G2 X144.40005 Y-74.0954 I-1.4155 J-0.05628
G2 X143.53598 Y-74.43354 I-0.82274 J0.82932
G2 X137.96035 Y-73.71154 I1.55222 J33.87639
G1 X137.96022 Y-73.71151
G3 X131.0874 Y-72.82278 I-8.76926 J-40.79633
G3 X130.92734 Y-72.81879 I-0.17725 J-3.89597
G3 X107.21662 Y-75.09546 I-0.52498 J-119.14016
G3 X107.20252 Y-75.09829 I0.75897 J-3.82544
G2 X105.92652 Y-75.23623 I-1.38679 J6.85737
G3 X105.76289 Y-75.24226 I0.06176 J-3.89951
G2 X104.69496 Y-75.04247 I-0.1306 J2.25599
G2 X104.66671 Y-74.871 I0.33554 J0.14333
G3 X104.67816 Y-74.60576 I-3.88839 J0.30069
G2 X104.93115 Y-73.69513 I1.82513 J-0.01659
G2 X106.06079 Y-72.3237 I5.00856 J-2.97459
G3 X106.09597 Y-72.29191 I-2.59692 J2.90964
G3 X115.13644 Y-62.98603 I-74.20294 J81.13085
G3 X115.1386 Y-62.98353 I-2.95279 J2.54775
G3 X126.88237 Y-47.85721 I-142.64872 J122.87154
G3 X137.29752 Y-31.97339 I-252.03385 J176.6172
G3 X133.71356 Y-26.04507 I-3.32584 J2.03686
G2 X123.57776 Y-26.46613 I-13.58404 J204.79349
G2 X107.85512 Y-25.27389 I0.28896 J108.07829
G3 X107.64147 Y-25.24789 I-0.57778 J-3.85696
G2 X106.60518 Y-24.83518 I0.18488 J1.97159
G2 X106.39129 Y-24.02582 I1.14411 J0.73531
G3 X106.39499 Y-23.68599 I-3.89421 J0.21235
G2 X106.8241 Y-22.5258 I1.63811 J0.05358
G3 X106.88669 Y-22.45574 I-2.87683 J2.63322
G2 X107.50377 Y-22.18011 I0.60621 J-0.52861
G2 X115.03251 Y-22.79145 I-2.13648 J-72.97545
G3 X115.07574 Y-22.79698 I0.51631 J3.86567
G3 X123.50876 Y-23.4154 I10.59989 J86.73692
G3 X123.66622 Y-23.41613 I0.09671 J3.8988
G3 X134.84539 Y-22.92293 I-3.05757 J196.24877
G3 X134.877 Y-22.9205 I-0.28289 J3.88973
G2 X145.58674 Y-22.39551 I13.62028 J-168.35185
G3 X145.72346 Y-22.39076 I-0.06721 J3.89942
G2 X146.17705 Y-22.42217 I0.09812 J-1.87392
G2 X145.3597 Y-25.48176 I-7.60524 J0.39274
G3 X145.34762 Y-25.50571 I3.47622 J-1.76801
G2 X143.38352 Y-28.59154 I-15.88075 J7.93997
G1 F300.0 X144.3241 Y-29.33673
G2 F800.0 X143.94118 Y-29.80453 I-14.85723 J11.77098
G3 X143.89748 Y-29.85756 I2.06175 J-1.74332
G3 X131.51693 Y-46.69065 I192.63398 J-154.64955
G2 X118.911 Y-64.53118 I-409.2076 J275.76779
G3 X121.21704 Y-68.83427 I2.17005 J-1.60651
G2 X130.85352 Y-68.56942 I10.59781 J-210.15345
G2 X136.57312 Y-69.31449 I-1.66047 J-35.07265
G1 X136.57321 Y-69.31451
G3 X143.24839 Y-70.17768 I8.51707 J39.62313
G3 X143.47656 Y-70.17841 I0.12271 J2.69721
G2 X145.22043 Y-70.89069 I0.08887 J-2.2733
G3 X145.26067 Y-70.93245 I1.96414 J1.85261
G2 X145.99021 Y-72.80841 I-1.81253 J-1.78471
G3 X145.99061 Y-73.01254 I2.69826 J-0.09686
G2 X145.2567 Y-74.93581 I-2.61455 J-0.10396
G2 X143.48625 Y-75.63252 I-1.67939 J1.66972
G2 X137.70813 Y-74.88473 I1.60195 J35.07537
G1 X137.70804 Y-74.88471
G3 X131.03286 Y-74.02154 I-8.51707 J-39.62313
G3 X130.92205 Y-74.01878 I-0.12271 J-2.69721
G3 X107.45015 Y-76.27252 I-0.51969 J-117.94017
G3 X107.44039 Y-76.27447 I0.52544 J-2.64838
G2 X105.94552 Y-76.43608 I-1.62466 J8.03356
G3 X105.83224 Y-76.44025 I0.04276 J-2.69966
G2 X103.8999 Y-75.98106 I-0.19995 J3.45399
G2 X103.47028 Y-74.77848 I1.1306 J1.08193
G3 X103.47821 Y-74.59486 I-2.69196 J0.20817
G2 X103.89853 Y-73.08381 I3.02508 J-0.0275
G2 X105.26174 Y-71.42843 I6.04117 J-3.5859
G3 X105.28609 Y-71.40642 I-1.79787 J2.01437
G3 X114.22789 Y-62.2021 I-73.39307 J80.24536
G3 X114.22938 Y-62.20038 I-2.04424 J1.76383
G3 X125.89897 Y-47.16951 I-141.73951 J122.08839
G3 X136.27418 Y-31.34666 I-251.05045 J175.9295
G3 X133.79298 Y-27.24244 I-2.3025 J1.41014
G2 X123.58625 Y-27.66616 I-13.66346 J205.99086
G2 X107.67734 Y-26.46065 I0.28047 J109.27832
G3 X107.52943 Y-26.44265 I-0.4 J-2.67021
G2 X105.71629 Y-25.65571 I0.29692 J3.16635
G2 X105.19307 Y-23.96049 I2.033 J1.55583
G3 X105.19563 Y-23.72521 I-2.69599 J0.14701
G2 X105.93892 Y-21.71557 I2.83746 J0.0928
G3 X105.98225 Y-21.66708 I-1.99165 J1.823
G2 X107.53153 Y-20.98041 I1.51065 J-1.31728
G2 X115.19138 Y-21.60202 I-2.16423 J-74.17516
G3 X115.2213 Y-21.60584 I0.35745 J2.67623
G3 X123.53852 Y-22.21577 I10.45433 J85.54578
G3 X123.64753 Y-22.21627 I0.06695 J2.69917
G3 X134.75835 Y-21.72609 I-3.03888 J195.04892
G3 X134.78023 Y-21.72441 I-0.19585 J2.69289
G2 X145.56606 Y-21.19569 I13.71705 J-169.54794
G3 X145.66071 Y-21.1924 I-0.04653 J2.6996
G2 X147.20193 Y-21.51524 I0.16086 J-3.07228
G2 X147.39321 Y-22.04499 I-0.49009 J-0.47637
G3 X147.38548 Y-22.20277 I2.69175 J-0.21087
G2 X146.4293 Y-26.02577 I-8.81367 J0.17334
G3 X146.42094 Y-26.04235 I2.40662 J-1.22401
G2 X144.3241 Y-29.33673 I-16.95407 J8.4766
G1 F300.0 X145.26468 Y-30.08193
G2 F800.0 X144.85751 Y-30.57934 I-15.79781 J12.51618
G3 X144.83323 Y-30.6088 I1.14542 J-0.96851
G3 X132.51245 Y-47.36069 I191.69822 J-153.89831
G2 X119.87547 Y-65.24519 I-410.20311 J276.43783
G3 X121.1566 Y-67.63579 I1.20558 J-0.89251
G2 X130.87895 Y-67.36929 I10.65825 J-211.35193
G2 X136.82534 Y-68.1413 I-1.6859 J-36.27278
G1 X136.8254 Y-68.14131
G3 X143.30292 Y-68.97892 I8.26489 J38.44993
G3 X143.42969 Y-68.97932 I0.06817 J1.49845
G2 X146.09338 Y-70.06731 I0.13574 J-3.47238
G3 X146.11574 Y-70.09051 I1.09119 J1.02923
G2 X147.18944 Y-72.85146 I-2.6676 J-2.62665
G3 X147.18966 Y-72.96487 I1.49903 J-0.05381
G2 X146.11351 Y-75.776 I-3.8136 J-0.15163
G2 X143.43539 Y-76.83145 I-2.5362 J2.50991
G2 X137.45591 Y-76.05792 I1.6528 J36.2743
G1 X137.45585 Y-76.05791
G3 X130.97833 Y-75.2203 I-8.26489 J-38.44993
G3 X130.91677 Y-75.21876 I-0.06817 J-1.49845
G3 X107.68368 Y-77.44958 I-0.5144 J-116.74019
G3 X107.67825 Y-77.45066 I0.29191 J-1.47132
G2 X105.96453 Y-77.63593 I-1.86253 J9.20975
G3 X105.90159 Y-77.63825 I0.02375 J-1.49981
G2 X103.16293 Y-76.93793 I-0.2693 J4.65198
G2 X102.27386 Y-74.68596 I1.86757 J2.0388
G3 X102.27826 Y-74.58395 I-1.49554 J0.11565
G2 X102.866 Y-72.47236 I4.22503 J-0.03841
G2 X104.46268 Y-70.53315 I7.07371 J-4.19735
G3 X104.47622 Y-70.52093 I-0.99882 J1.11909
G3 X113.31934 Y-61.41818 I-72.58319 J79.35987
G3 X113.32017 Y-61.41722 I-1.13569 J0.97991
G3 X124.91557 Y-46.4818 I-140.8303 J121.30523
G3 X135.25085 Y-30.71993 I-250.06706 J175.2418
G3 X133.8724 Y-28.43981 I-1.27917 J0.78341
G2 X123.59477 Y-28.86618 I-13.74289 J207.18823
G2 X107.49957 Y-27.64741 I0.27195 J110.47835
G3 X107.41739 Y-27.63741 I-0.22222 J-1.48345
G2 X104.83608 Y-26.47705 I0.40896 J4.36111
G2 X103.99485 Y-23.89515 I2.91322 J2.37717
G3 X103.99627 Y-23.76444 I-1.49777 J0.08167
G2 X105.05374 Y-20.90535 I4.03682 J0.13203
G3 X105.07781 Y-20.87841 I-1.10647 J1.01278
G2 X107.56126 Y-19.78077 I2.41509 J-2.10595
G2 X115.35025 Y-20.41258 I-2.19396 J-75.3748
G3 X115.36687 Y-20.4147 I0.19858 J1.4868
G3 X123.56827 Y-21.01614 I10.30876 J84.35464
G3 X123.62884 Y-21.01642 I0.0372 J1.49954
G3 X134.6713 Y-20.52925 I-3.02018 J193.84906
G3 X134.68346 Y-20.52832 I-0.1088 J1.49605
G2 X145.54538 Y-19.99587 I13.81382 J-170.74403
G3 X145.59796 Y-19.99404 I-0.02585 J1.49978
G2 X147.88819 Y-20.52069 I0.22361 J-4.27064
G2 X148.58954 Y-22.13871 I-1.17635 J-1.47092
G3 X148.58525 Y-22.22637 I1.49542 J-0.11715
G2 X147.49891 Y-26.56977 I-10.01344 J0.19693
G3 X147.49427 Y-26.57898 I1.33701 J-0.68
G2 X145.26468 Y-30.08193 I-18.0274 J9.01323
G0 Z3.0
G0 X140.56179 Y-26.35596
G0 Z-1.0
G1 F300.0 Z-4.0
G3 F800.0 X140.45508 Y-26.16618 I-6.59011 J-3.58057
G2 X140.7192 Y-26.15353 I8.04219 J-165.10616
G2 X140.56179 Y-26.35596 I-11.25233 J8.58778
G1 F300.0 X141.50237 Y-27.10115
G2 F800.0 X141.19217 Y-27.4801 I-12.0355 J9.5354
G3 X141.09021 Y-27.60384 I4.81076 J-4.06775
G3 X140.16215 Y-28.7669 I195.44125 J-156.90326
G3 X138.01001 Y-25.10104 I-6.19048 J-1.16962
G2 X142.9777 Y-24.86195 I10.48727 J-166.17131
G2 X141.50237 Y-27.10115 I-13.51083 J7.2962
G1 F300.0 X142.44294 Y-27.84634
G2 F800.0 X142.1085 Y-28.25491 I-12.97607 J10.2806
G3 X142.02597 Y-28.35508 I3.89443 J-3.29294
G3 X136.64509 Y-35.30496 I194.50549 J-156.15202
G3 X138.32085 Y-32.60011 I-261.79657 J164.06496
G3 X133.63414 Y-24.84771 I-4.34917 J2.66359
G2 X123.5693 Y-25.2661 I-13.50462 J203.59612
G2 X108.0329 Y-24.08714 I0.29742 J106.87827
G3 X107.7535 Y-24.05314 I-0.75555 J-5.04372
G2 X107.59286 Y-24.02079 I0.07285 J0.77683
G3 X107.59434 Y-23.64676 I-5.09578 J0.20731
G2 X107.66994 Y-23.38577 I0.43875 J0.01435
G2 X114.87365 Y-23.98089 I-2.30265 J-71.76979
G3 X114.93017 Y-23.98812 I0.67518 J5.05511
G3 X123.479 Y-24.61503 I10.74546 J87.92805
G3 X123.68492 Y-24.61598 I0.12647 J5.09843
G3 X134.93243 Y-24.11977 I-3.07627 J197.44862
G3 X134.97376 Y-24.11659 I-0.36993 J5.08657
G2 X144.78907 Y-23.61144 I13.52351 J-167.15575
G2 X144.29009 Y-24.93776 I-6.21726 J1.582
G3 X144.27429 Y-24.96908 I4.54583 J-2.31202
G2 X142.44294 Y-27.84634 I-14.80743 J7.40333
G0 Z3.0
G0 X114.27935 Y-69.29788
G0 Z-1.0
G1 F300.0 Z-4.0
G3 F800.0 X114.78623 Y-70.21509 I6.80171 J3.16019
G3 X113.1902 Y-70.43046 I15.61614 J-121.74386
G3 X114.27935 Y-69.29788 I-81.29717 J79.2694
G1 F300.0 X115.36762 Y-68.79225
G3 F800.0 X117.24128 Y-71.13231 I5.71343 J2.65456
G3 X109.71235 Y-72.19161 I13.16109 J-120.82664
G3 X114.83266 Y-66.94242 I-77.81932 J81.03055
G3 X115.36762 Y-68.79225 I6.24839 J0.80472
G1 F300.0 X116.45589 Y-68.28662
G3 F800.0 X121.33792 Y-71.23122 I4.62516 J2.14893
G2 X130.80129 Y-70.96969 I10.47693 J-207.75649
G2 X136.06867 Y-71.66088 I-1.60824 J-32.67238
G1 X136.06885 Y-71.66092
G3 X143.13931 Y-72.5752 I9.02144 J41.96954
G3 X143.51365 Y-72.57848 I0.23178 J5.09473
G3 X143.55054 Y-72.61633 I3.67092 J3.54039
G2 X143.59176 Y-72.72232 I-0.1024 J-0.10083
G3 X143.5925 Y-73.1079 I5.09672 J-0.18296
G2 X143.55849 Y-73.2333 I-0.21645 J-0.00861
G2 X138.21258 Y-72.53834 I1.52971 J32.67615
G1 X138.2124 Y-72.5383
G3 X131.14194 Y-71.62402 I-9.02144 J-41.96954
G3 X130.93263 Y-71.6188 I-0.23178 J-5.09473
G3 X106.98309 Y-73.9184 I-0.53026 J-120.34015
G3 X106.96466 Y-73.9221 I0.9925 J-5.00249
G2 X106.14316 Y-74.02785 I-1.14893 J5.68118
G2 X106.85984 Y-73.21897 I3.79654 J-2.64186
G3 X106.90585 Y-73.1774 I-3.39597 J3.80491
G3 X116.04499 Y-63.76995 I-75.01282 J82.01634
G3 X116.04781 Y-63.76669 I-3.86134 J3.33168
G3 X119.70156 Y-59.39353 I-143.55794 J123.6547
G2 X116.98207 Y-63.10317 I-397.39222 J288.47067
G3 X116.45589 Y-68.28662 I4.09899 J-3.03452
G1 F300.0 X117.54417 Y-67.78099
G3 F800.0 X121.27748 Y-70.03275 I3.53689 J1.6433
G2 X130.82764 Y-69.76955 I10.53737 J-208.95497
G2 X136.3209 Y-70.48768 I-1.63459 J-33.87252
G1 X136.32103 Y-70.48771
G3 X143.19385 Y-71.37644 I8.76926 J40.79633
G3 X143.52344 Y-71.37749 I0.17725 J3.89597
G2 X144.34748 Y-71.71407 I0.04199 J-1.07421
G3 X144.40561 Y-71.77439 I2.83709 J2.67599
G2 X144.79099 Y-72.76537 I-0.95747 J-0.94277
G3 X144.79156 Y-73.06022 I3.89749 J-0.13991
G2 X144.40005 Y-74.0954 I-1.4155 J-0.05628
G2 X143.53598 Y-74.43354 I-0.82274 J0.82932
G2 X137.96035 Y-73.71154 I1.55222 J33.87639
G1 X137.96022 Y-73.71151
G3 X131.0874 Y-72.82278 I-8.76926 J-40.79633
G3 X130.92734 Y-72.81879 I-0.17725 J-3.89597
G3 X107.21662 Y-75.09546 I-0.52498 J-119.14016
G3 X107.20252 Y-75.09829 I0.75897 J-3.82544
G2 X105.92652 Y-75.23623 I-1.38679 J6.85737
G3 X105.76289 Y-75.24226 I0.06176 J-3.89951
G2 X104.69496 Y-75.04247 I-0.1306 J2.25599
G2 X104.66671 Y-74.871 I0.33554 J0.14333
G3 X104.67816 Y-74.60576 I-3.88839 J0.30069
G2 X104.93115 Y-73.69513 I1.82513 J-0.01659
G2 X106.06079 Y-72.3237 I5.00856 J-2.97459
G3 X106.09597 Y-72.29191 I-2.59692 J2.90964
G3 X115.13644 Y-62.98603 I-74.20294 J81.13085
G3 X115.1386 Y-62.98353 I-2.95279 J2.54775
G3 X126.88237 Y-47.85721 I-142.64872 J122.87154
G3 X137.29752 Y-31.97339 I-252.03385 J176.6172
G3 X133.71356 Y-26.04507 I-3.32584 J2.03686
G2 X123.57776 Y-26.46613 I-13.58404 J204.79349
G2 X107.85512 Y-25.27389 I0.28896 J108.07829
G3 X107.64147 Y-25.24789 I-0.57778 J-3.85696
G2 X106.60518 Y-24.83518 I0.18488 J1.97159
G2 X106.39129 Y-24.02582 I1.14411 J0.73531
G3 X106.39499 Y-23.68599 I-3.89421 J0.21235
G2 X106.8241 Y-22.5258 I1.63811 J0.05358
G3 X106.88669 Y-22.45574 I-2.87683 J2.63322
G2 X107.50377 Y-22.18011 I0.60621 J-0.52861
G2 X115.03251 Y-22.79145 I-2.13648 J-72.97545
G3 X115.07574 Y-22.79698 I0.51631 J3.86567
G3 X123.50876 Y-23.4154 I10.59989 J86.73692
G3 X123.66622 Y-23.41613 I0.09671 J3.8988
G3 X134.84539 Y-22.92293 I-3.05757 J196.24877
G3 X134.877 Y-22.9205 I-0.28289 J3.88973
G2 X145.58674 Y-22.39551 I13.62028 J-168.35185
G3 X145.72346 Y-22.39076 I-0.06721 J3.89942
G2 X146.17705 Y-22.42217 I0.09812 J-1.87392
G2 X145.3597 Y-25.48176 I-7.60524 J0.39274
G3 X145.34762 Y-25.50571 I3.47622 J-1.76801
G2 X143.02484 Y-29.02972 I-15.88075 J7.93997
G3 X142.96172 Y-29.10632 I2.97809 J-2.51813
G3 X130.52143 Y-46.0206 I193.56973 J-155.40078
G2 X117.94654 Y-63.81718 I-408.21209 J275.09774
G3 X117.54417 Y-67.78099 I3.13452 J-2.32052
G1 F300.0 X118.63244 Y-67.27536
G3 F800.0 X121.21704 Y-68.83427 I2.44861 J1.13767
G2 X130.85352 Y-68.56942 I10.59781 J-210.15345
G2 X136.57312 Y-69.31449 I-1.66047 J-35.07265
G1 X136.57321 Y-69.31451
G3 X143.24839 Y-70.17768 I8.51707 J39.62313
G3 X143.47656 Y-70.17841 I0.12271 J2.69721
G2 X145.22043 Y-70.89069 I0.08887 J-2.2733
G3 X145.26067 Y-70.93245 I1.96414 J1.85261
G2 X145.99021 Y-72.80841 I-1.81253 J-1.78471
G3 X145.99061 Y-73.01254 I2.69826 J-0.09686
G2 X145.2567 Y-74.93581 I-2.61455 J-0.10396
G2 X143.48625 Y-75.63252 I-1.67939 J1.66972
G2 X137.70813 Y-74.88473 I1.60195 J35.07537
G1 X137.70804 Y-74.88471
G3 X131.03286 Y-74.02154 I-8.51707 J-39.62313
G3 X130.92205 Y-74.01878 I-0.12271 J-2.69721
G3 X107.45015 Y-76.27252 I-0.51969 J-117.94017
G3 X107.44039 Y-76.27447 I0.52544 J-2.64838
G2 X105.94552 Y-76.43608 I-1.62466 J8.03356
G3 X105.83224 Y-76.44025 I0.04276 J-2.69966
G2 X103.8999 Y-75.98106 I-0.19995 J3.45399
G2 X103.47028 Y-74.77848 I1.1306 J1.08193
G3 X103.47821 Y-74.59486 I-2.69196 J0.20817
G2 X103.89853 Y-73.08381 I3.02508 J-0.0275
G2 X105.26174 Y-71.42843 I6.04117 J-3.5859
G3 X105.28609 Y-71.40642 I-1.79787 J2.01437
G3 X114.22789 Y-62.2021 I-73.39307 J80.24536
G3 X114.22938 Y-62.20038 I-2.04424 J1.76383
G3 X125.89897 Y-47.16951 I-141.73951 J122.08839
G3 X136.27418 Y-31.34666 I-251.05045 J175.9295
G3 X133.79298 Y-27.24244 I-2.3025 J1.41014
G2 X123.58625 Y-27.66616 I-13.66346 J205.99086
G2 X107.67734 Y-26.46065 I0.28047 J109.27832
G3 X107.52943 Y-26.44265 I-0.4 J-2.67021
G2 X105.71629 Y-25.65571 I0.29692 J3.16635
G2 X105.19307 Y-23.96049 I2.033 J1.55583
G3 X105.19563 Y-23.72521 I-2.69599 J0.14701
G2 X105.93892 Y-21.71557 I2.83746 J0.0928
G3 X105.98225 Y-21.66708 I-1.99165 J1.823
G2 X107.53153 Y-20.98041 I1.51065 J-1.31728
G2 X115.19138 Y-21.60202 I-2.16423 J-74.17516
G3 X115.2213 Y-21.60584 I0.35745 J2.67623
G3 X123.53852 Y-22.21577 I10.45433 J85.54578
G3 X123.64753 Y-22.21627 I0.06695 J2.69917
G3 X134.75835 Y-21.72609 I-3.03888 J195.04892
G3 X134.78023 Y-21.72441 I-0.19585 J2.69289
G2 X145.56606 Y-21.19569 I13.71705 J-169.54794
G3 X145.66071 Y-21.1924 I-0.04653 J2.6996
G2 X147.20193 Y-21.51524 I0.16086 J-3.07228
G2 X147.39321 Y-22.04499 I-0.49009 J-0.47637
G3 X147.38548 Y-22.20277 I2.69175 J-0.21087
G2 X146.4293 Y-26.02577 I-8.81367 J0.17334
G3 X146.42094 Y-26.04235 I2.40662 J-1.22401
G2 X143.94118 Y-29.80453 I-16.95407 J8.4766
G3 X143.89748 Y-29.85756 I2.06175 J-1.74332
G3 X131.51693 Y-46.69065 I192.63398 J-154.64955
G2 X118.911 Y-64.53118 I-409.2076 J275.76779
G3 X118.63244 Y-67.27536 I2.17005 J-1.60651
G1 F300.0 X119.72071 Y-66.76973
G3 F800.0 X121.1566 Y-67.63579 I1.36034 J0.63204
G2 X130.87895 Y-67.36929 I10.65825 J-211.35193
G2 X136.82534 Y-68.1413 I-1.6859 J-36.27278
G1 X136.8254 Y-68.14131
G3 X143.30292 Y-68.97892 I8.26489 J38.44993
G3 X143.42969 Y-68.97932 I0.06817 J1.49845
G2 X146.09338 Y-70.06731 I0.13574 J-3.47238
G3 X146.11574 Y-70.09051 I1.09119 J1.02923
G2 X147.18944 Y-72.85146 I-2.6676 J-2.62665
G3 X147.18966 Y-72.96487 I1.49903 J-0.05381
G2 X146.11351 Y-75.776 I-3.8136 J-0.15163
G2 X143.43539 Y-76.83145 I-2.5362 J2.50991
G2 X137.45591 Y-76.05792 I1.6528 J36.2743
G1 X137.45585 Y-76.05791
G3 X130.97833 Y-75.2203 I-8.26489 J-38.44993
G3 X130.91677 Y-75.21876 I-0.06817 J-1.49845
G3 X107.68368 Y-77.44958 I-0.5144 J-116.74019
G3 X107.67825 Y-77.45066 I0.29191 J-1.47132
G2 X105.96453 Y-77.63593 I-1.86253 J9.20975
G3 X105.90159 Y-77.63825 I0.02375 J-1.49981
G2 X103.16293 Y-76.93793 I-0.2693 J4.65198
G2 X102.27386 Y-74.68596 I1.86757 J2.0388
G3 X102.27826 Y-74.58395 I-1.49554 J0.11565
G2 X102.866 Y-72.47236 I4.22503 J-0.03841
G2 X104.46268 Y-70.53315 I7.07371 J-4.19735
G3 X104.47622 Y-70.52093 I-0.99882 J1.11909
G3 X113.31934 Y-61.41818 I-72.58319 J79.35987
G3 X113.32017 Y-61.41722 I-1.13569 J0.97991
G3 X124.91557 Y-46.4818 I-140.8303 J121.30523
G3 X135.25085 Y-30.71993 I-250.06706 J175.2418
G3 X133.8724 Y-28.43981 I-1.27917 J0.78341
G2 X123.59477 Y-28.86618 I-13.74289 J207.18823
G2 X107.49957 Y-27.64741 I0.27195 J110.47835
G3 X107.41739 Y-27.63741 I-0.22222 J-1.48345
G2 X104.83608 Y-26.47705 I0.40896 J4.36111
G2 X103.99485 Y-23.89515 I2.91322 J2.37717
G3 X103.99627 Y-23.76444 I-1.49777 J0.08167
G2 X105.05374 Y-20.90535 I4.03682 J0.13203
G3 X105.07781 Y-20.87841 I-1.10647 J1.01278
G2 X107.56126 Y-19.78077 I2.41509 J-2.10595
G2 X115.35025 Y-20.41258 I-2.19396 J-75.3748
G3 X115.36687 Y-20.4147 I0.19858 J1.4868
G3 X123.56827 Y-21.01614 I10.30876 J84.35464
G3 X123.62884 Y-21.01642 I0.0372 J1.49954
G3 X134.6713 Y-20.52925 I-3.02018 J193.84906
G3 X134.68346 Y-20.52832 I-0.1088 J1.49605
G2 X145.54538 Y-19.99587 I13.81382 J-170.74403
G3 X145.59796 Y-19.99404 I-0.02585 J1.49978
G2 X147.88819 Y-20.52069 I0.22361 J-4.27064
G2 X148.58954 Y-22.13871 I-1.17635 J-1.47092
G3 X148.58525 Y-22.22637 I1.49542 J-0.11715
G2 X147.49891 Y-26.56977 I-10.01344 J0.19693
G3 X147.49427 Y-26.57898 I1.33701 J-0.68
G2 X144.85751 Y-30.57934 I-18.0274 J9.01323
G3 X144.83323 Y-30.6088 I1.14542 J-0.96851
G3 X132.51245 Y-47.36069 I191.69822 J-153.89831
G2 X119.87547 Y-65.24519 I-410.20311 J276.43783
G3 X119.72071 Y-66.76973 I1.20558 J-0.89251
G0 Z3.0
G0 X163.86452 Y-54.88247
G0 Z1.0
G1 F300.0 Z-2.0
G2 F800.0 X163.78992 Y-53.52584 I21.14348 J1.84304
G3 X164.77777 Y-54.09429 I3.32141 J4.62935
G3 X163.86452 Y-54.88247 I3.24664 J-4.68501
G1 F300.0 X164.3024 Y-55.29266
G3 F800.0 X163.46086 Y-56.50246 I3.72201 J-3.48664
G2 X163.18722 Y-52.6853 I21.54715 J3.46303
G3 X163.1877 Y-52.55873 I-5.09933 J0.08276
G2 X163.1862 Y-52.14901 I41.57586 J0.35713
G3 X166.33759 Y-53.93502 I3.92513 J3.25252
G1 X165.84066 Y-54.17048
G3 X164.3024 Y-55.29266 I2.18376 J-4.60882
G0 Z3.0
G0 X166.02665 Y-51.36641
G0 Z1.0
G1 F300.0 Z-2.0
G3 F800.0 X168.26988 Y-51.33263 I1.08468 J2.46992
G1 X184.75914 Y-43.49083
G3 X184.77198 Y-43.48468 I-1.15856 J2.43614
G3 X192.06405 Y-39.67616 I-55.61192 J115.36364
G3 X199.14432 Y-34.94248 I-23.92635 J43.44907
G3 X199.27916 Y-30.84683 I-1.68631 J2.10556
G3 X192.13563 Y-26.85724 I-12.02409 J-13.13944
G3 X192.1318 Y-26.85615 I-0.7392 J-2.59434
G3 X184.51704 Y-25.8422 I-7.31053 J-25.80178
G3 X171.51982 Y-31.93763 I-0.2201 J-16.43533
G3 X166.91904 Y-39.92454 I21.61006 J-17.76682
G3 X164.46747 Y-48.36068 I49.5625 J-18.97729
G3 X166.02665 Y-51.36641 I2.64385 J-0.5358
G1 F300.0 X166.50819 Y-50.26988
G3 F800.0 X167.75554 Y-50.2511 I0.60314 J1.3734
G1 X184.2448 Y-42.4093
G3 X184.25194 Y-42.40589 I-0.64422 J1.35462
G3 X191.48109 Y-38.63 I-55.09187 J114.28484
G3 X198.39568 Y-34.00771 I-23.34339 J42.40292
G3 X198.47066 Y-31.73033 I-0.93768 J1.1708
G3 X191.80746 Y-28.009 I-11.21558 J-12.25594
G3 X191.80533 Y-28.00839 I-0.41103 J-1.44258
G3 X184.51571 Y-27.0399 I-6.98406 J-24.64953
G3 X172.44788 Y-32.69458 I-0.21876 J-15.23763
G3 X168.0393 Y-40.34797 I20.682 J-17.00987
G3 X165.64121 Y-48.59855 I48.44224 J-18.55386
G3 X166.50819 Y-50.26988 I1.47011 J-0.29793
G0 Z3.0
G0 X165.54414 Y-52.46512
G0 Z1.0
G1 F300.0 Z-2.0
G2 F800.0 X163.29138 Y-48.12234 I1.56719 J3.56864
G2 X165.79656 Y-39.50021 I53.19016 J-10.7795
G2 X170.58995 Y-31.17911 I27.33332 J-10.20424
G2 X184.51817 Y-24.64212 I13.707 J-11.09842
G2 X192.45893 Y-25.7016 I0.3031 J-28.01581
G2 X192.46446 Y-25.70317 I-1.0625 J-3.74998
G2 X200.08929 Y-29.96156 I-5.20938 J-18.2831
G2 X199.89446 Y-35.87911 I-2.63128 J-2.87535
G2 X192.64821 Y-40.72439 I-31.75676 J39.65203
G2 X185.29307 Y-44.56564 I-63.48815 J112.60334
G2 X185.27451 Y-44.57452 I-1.69248 J3.51095
G1 X168.78526 Y-52.41632
G2 X165.54414 Y-52.46512 I-1.67393 J3.51984
G0 Z3.0
G0 X166.77221 Y-55.05698
G0 Z1.0
G1 F300.0 Z-2.0
G1 F800.0 X166.35448 Y-55.25491
G3 X164.76278 Y-60.91745 I1.66993 J-3.52439
G3 X173.70903 Y-68.96265 I19.71006 J12.92087
G3 X173.81154 Y-69.01339 I1.7812 J3.46948
G3 X186.04454 Y-71.64819 I11.67206 J24.47625
G3 X186.06909 Y-71.6476 I-0.08068 J3.89917
G3 X195.73054 Y-70.10455 I-1.00737 J37.32542
G3 X200.75102 Y-68.25331 I-7.80932 J28.9117
G3 X205.9751 Y-64.03832 I-5.32315 J11.94243
G3 X206.16759 Y-63.74945 I-3.146 J2.30492
G2 X206.95433 Y-62.76929 I4.05374 J-2.44798
G2 X207.23388 Y-62.94951 I-0.21998 J-0.64817
G3 X207.53093 Y-63.23479 I2.8462 J2.6663
G2 X207.68396 Y-63.56339 I-0.28884 J-0.33443
G2 X207.2575 Y-65.19159 I-3.38271 J0.01604
G2 X204.63992 Y-67.89524 I-7.4598 J4.60338
G3 X204.58784 Y-67.93036 I2.15435 J-3.25097
G2 X200.41418 Y-70.24201 I-14.14831 J20.62101
G3 X200.32854 Y-70.28049 I1.55555 J-3.57635
G2 X185.91533 Y-73.571 I-14.92958 J32.18326
G2 X176.63922 Y-72.37854 I-0.35077 J33.94692
G2 X168.74446 Y-68.35796 I5.85825 J21.26449
G2 X163.59614 Y-61.50235 I10.91948 J13.56106
G2 X161.98738 Y-52.66582 I21.41186 J8.46292
G3 X161.98775 Y-52.56904 I-3.89949 J0.06329
G2 X163.38495 Y-41.35189 I42.77581 J0.36744
G2 X168.03442 Y-31.44383 I29.68745 J-7.88622
G3 X168.06895 Y-31.39444 I-3.17896 J2.25926
G2 X175.19244 Y-24.94032 I17.20605 J-11.83234
G2 X184.45297 Y-22.7716 I8.95611 J-17.38714
G3 X184.54116 Y-22.77197 I0.0607 J3.89953
G2 X191.29447 Y-23.33972 I0.26304 J-37.32002
G3 X191.31037 Y-23.3425 I0.67823 J3.84057
G2 X197.27983 Y-25.34509 I-3.50757 J-20.35393
G3 X197.31456 Y-25.36281 I1.78951 J3.46521
G2 X200.91918 Y-28.58409 I-4.18958 J-8.31557
G2 X202.09912 Y-33.17516 I-7.54557 J-4.38643
G3 X202.09817 Y-33.23551 I3.89893 J-0.09144
G2 X200.99456 Y-36.60755 I-5.84578 J0.04661
G2 X197.73688 Y-39.81572 I-11.25051 J8.16607
G2 X192.61997 Y-42.73798 I-25.6062 J38.89567
G3 X192.57544 Y-42.76016 I1.71596 J-3.50221
G2 X186.8919 Y-45.52389 I-90.63037 J179.15242
G3 X186.87206 Y-45.53323 I1.65009 J-3.53372
G1 X166.77221 Y-55.05698
G1 F300.0 X167.28604 Y-56.1414
G1 F800.0 X166.86831 Y-56.33933
G3 X165.76636 Y-60.25956 I1.15611 J-2.43996
G3 X174.25709 Y-67.89511 I18.70648 J12.26298
G3 X174.32806 Y-67.93024 I1.23314 J2.40195
G3 X186.01972 Y-70.44845 I11.15554 J23.39311
G3 X186.03671 Y-70.44804 I-0.05585 J2.69942
G3 X195.40261 Y-68.95012 I-0.975 J36.12586
G3 X200.2498 Y-67.16289 I-7.4814 J27.75726
G3 X205.0071 Y-63.32911 I-4.82193 J10.85202
G3 X205.14037 Y-63.12913 I-2.178 J1.59572
G2 X206.23907 Y-61.79603 I5.08097 J-3.0683
G3 X206.27579 Y-61.76218 I-1.81148 J2.00214
G2 X206.79296 Y-61.53389 I0.58308 J-0.62096
G2 X208.10963 Y-62.1291 I-0.05861 J-1.88357
G3 X208.31529 Y-62.32661 I1.97044 J1.8459
G2 X208.88397 Y-63.56097 I-1.07319 J-1.24262
G2 X208.29233 Y-65.79963 I-4.58273 J0.01363
G2 X205.3028 Y-68.89553 I-8.49463 J5.21142
G3 X205.26674 Y-68.91985 I1.49147 J-2.25067
G2 X200.89281 Y-71.34243 I-14.82721 J21.6105
G3 X200.83352 Y-71.36907 I1.07692 J-2.47593
G2 X185.93026 Y-74.77091 I-15.43456 J33.27183
G2 X176.32212 Y-73.53588 I-0.3657 J35.14683
G2 X167.99405 Y-69.29438 I6.17535 J22.42184
G2 X162.48431 Y-61.95397 I11.6699 J14.49748
G2 X160.78754 Y-52.64635 I22.52369 J8.91454
G3 X160.78779 Y-52.57935 I-2.69964 J0.04381
G2 X162.22468 Y-41.04568 I43.97577 J0.37774
G2 X167.05628 Y-30.74867 I30.84773 J-8.19244
G3 X167.08019 Y-30.71448 I-2.20082 J1.5641
G2 X174.62787 Y-23.8813 I18.19481 J-12.5123
G2 X184.47165 Y-21.57174 I9.52069 J-18.44616
G3 X184.5327 Y-21.572 I0.04202 J2.69967
G2 X191.50315 Y-22.15801 I0.2715 J-38.51999
G3 X191.51416 Y-22.15993 I0.46954 J2.65886
G2 X197.83045 Y-24.27887 I-3.71136 J-21.5365
G3 X197.85449 Y-24.29114 I1.23889 J2.39899
G2 X201.94076 Y-27.95382 I-4.72951 J-9.38724
G2 X203.29879 Y-33.2033 I-8.56716 J-5.0167
G3 X203.29813 Y-33.24508 I2.69926 J-0.06331
G2 X201.96682 Y-37.31091 I-7.04574 J0.05617
G2 X198.41171 Y-40.80815 I-12.22277 J8.86943
G2 X193.14796 Y-43.81558 I-26.28103 J39.8881
G3 X193.11713 Y-43.83094 I1.18797 J-2.42461
G2 X187.39962 Y-46.61119 I-91.17206 J180.2232
G3 X187.38588 Y-46.61766 I1.14237 J-2.44642
G1 X167.28604 Y-56.1414
G1 F300.0 X167.79986 Y-57.22583
G1 F800.0 X167.38213 Y-57.42376
G3 X166.76994 Y-59.60167 I0.64228 J-1.35553
G3 X174.80516 Y-66.82758 I17.7029 J11.60508
G3 X174.84458 Y-66.8471 I0.68508 J1.33442
G3 X185.9949 Y-69.2487 I10.63901 J22.30996
G3 X186.00434 Y-69.24848 I-0.03103 J1.49968
G3 X195.07476 Y-67.79566 I-0.94262 J34.92629
G3 X199.749 Y-66.07228 I-7.15354 J26.6028
G3 X204.0391 Y-62.61991 I-4.32113 J9.76141
G3 X204.11314 Y-62.5088 I-1.21 J0.88651
G2 X205.43397 Y-60.90619 I6.1082 J-3.68863
G3 X205.45437 Y-60.88739 I-1.00638 J1.1123
G2 X206.77141 Y-60.3332 I1.4045 J-1.49576
G2 X208.98539 Y-61.3087 I-0.03706 J-3.08426
G3 X209.09964 Y-61.41843 I1.09469 J1.0255
G2 X210.08398 Y-63.56012 I-1.85754 J-2.1508
G2 X209.32628 Y-66.40902 I-5.78273 J0.01278
G2 X205.96567 Y-69.89583 I-9.52858 J5.82081
G3 X205.94564 Y-69.90934 I0.8286 J-1.25037
G2 X201.37144 Y-72.44284 I-15.50611 J22.59999
G3 X201.3385 Y-72.45764 I0.59829 J-1.37552
G2 X185.9452 Y-75.97082 I-15.93954 J34.36041
G2 X176.00504 Y-74.69323 I-0.38063 J36.34674
G2 X167.24365 Y-70.23081 I6.49243 J23.57919
G2 X161.37246 Y-62.40552 I12.4203 J15.43391
G2 X159.58769 Y-52.62688 I23.63554 J9.36609
G3 X159.58784 Y-52.58965 I-1.4998 J0.02434
G2 X161.0644 Y-40.73947 I45.17572 J0.38805
G2 X166.07814 Y-30.05352 I32.008 J-8.49865
G3 X166.09142 Y-30.03452 I-1.22268 J0.86895
G2 X174.06327 Y-22.82231 I19.18358 J-13.19226
G2 X184.49033 Y-20.37189 I10.08529 J-19.50516
G3 X184.52424 Y-20.37203 I0.02335 J1.49982
G2 X191.71184 Y-20.97629 I0.27996 J-39.71996
G3 X191.71796 Y-20.97736 I0.26086 J1.47714
G2 X198.38106 Y-23.21265 I-3.91515 J-22.71906
G3 X198.39442 Y-23.21947 I0.68827 J1.33277
G2 X202.96223 Y-27.32352 I-5.26944 J-10.45891
G2 X204.49846 Y-33.23143 I-9.58863 J-5.647
G3 X204.49809 Y-33.25464 I1.49959 J-0.03517
G2 X202.93903 Y-38.01434 I-8.2457 J0.06574
G2 X199.08614 Y-41.80083 I-13.19498 J9.57286
G2 X193.67595 Y-44.89319 I-26.95546 J40.88079
G3 X193.65882 Y-44.90172 I0.65998 J-1.347
G2 X187.90734 Y-47.69849 I-91.71375 J181.29399
G3 X187.89971 Y-47.70208 I0.63465 J-1.35912
G1 X167.79986 Y-57.22583
G0 Z3.0
G0 X164.77777 Y-54.09429
G0 Z-1.0
G1 F300.0 Z-4.0
G3 F800.0 X163.86452 Y-54.88247 I3.24664 J-4.68501
G2 X163.78992 Y-53.52584 I21.14348 J1.84304
G3 X164.77777 Y-54.09429 I3.32141 J4.62935
G1 F300.0 X165.11952 Y-54.58745
G3 F800.0 X163.46086 Y-56.50246 I2.90489 J-4.19185
G2 X163.18722 Y-52.6853 I21.54715 J3.46303
G3 X163.1877 Y-52.55873 I-5.09933 J0.08276
G2 X163.1862 Y-52.14901 I41.57586 J0.35713
G3 X166.33759 Y-53.93502 I3.92513 J3.25252
G1 X165.84066 Y-54.17048
G3 X165.11952 Y-54.58745 I2.18376 J-4.60882
G0 Z3.0
G0 X166.22019 Y-51.44264
G0 Z-1.0
G1 F300.0 Z-4.0
G3 F800.0 X168.26988 Y-51.33263 I0.89114 J2.54616
G1 X184.75914 Y-43.49083
G3 X184.77198 Y-43.48468 I-1.15856 J2.43614
G3 X192.06405 Y-39.67616 I-55.61192 J115.36364
G3 X199.14432 Y-34.94248 I-23.92635 J43.44907
G3 X199.27916 Y-30.84683 I-1.68631 J2.10556
G3 X192.13563 Y-26.85724 I-12.02409 J-13.13944
G3 X192.1318 Y-26.85615 I-0.7392 J-2.59434
G3 X184.51704 Y-25.8422 I-7.31053 J-25.80178
G3 X171.51982 Y-31.93763 I-0.2201 J-16.43533
G3 X166.91904 Y-39.92454 I21.61006 J-17.76682
G3 X164.46747 Y-48.36068 I49.5625 J-18.97729
G3 X166.22019 Y-51.44264 I2.64385 J-0.5358
G1 F300.0 X166.61581 Y-50.31227
G3 F800.0 X167.75554 Y-50.2511 I0.49552 J1.41579
G1 X184.2448 Y-42.4093
G3 X184.25194 Y-42.40589 I-0.64422 J1.35462
G3 X191.48109 Y-38.63 I-55.09187 J114.28484
G3 X198.39568 Y-34.00771 I-23.34339 J42.40292
G3 X198.47066 Y-31.73033 I-0.93768 J1.1708
G3 X191.80746 Y-28.009 I-11.21558 J-12.25594
G3 X191.80533 Y-28.00839 I-0.41103 J-1.44258
G3 X184.51571 Y-27.0399 I-6.98406 J-24.64953
G3 X172.44788 Y-32.69458 I-0.21876 J-15.23763
G3 X168.0393 Y-40.34797 I20.682 J-17.00987
G3 X165.64121 Y-48.59855 I48.44224 J-18.55386
G3 X166.61581 Y-50.31227 I1.47011 J-0.29793
G0 Z3.0
G0 X165.82377 Y-52.57527
G0 Z-1.0
G1 F300.0 Z-4.0
G2 F800.0 X163.29138 Y-48.12234 I1.28756 J3.67879
G2 X165.79656 Y-39.50021 I53.19016 J-10.7795
G2 X170.58995 Y-31.17911 I27.33332 J-10.20424
G2 X184.51817 Y-24.64212 I13.707 J-11.09842
G2 X192.45893 Y-25.7016 I0.3031 J-28.01581
G2 X192.46446 Y-25.70317 I-1.0625 J-3.74998
G2 X200.08929 Y-29.96156 I-5.20938 J-18.2831
G2 X199.89446 Y-35.87911 I-2.63128 J-2.87535
G2 X192.64821 Y-40.72439 I-31.75676 J39.65203
G2 X185.29307 Y-44.56564 I-63.48815 J112.60334
G2 X185.27451 Y-44.57452 I-1.69248 J3.51095
G1 X168.78526 Y-52.41632
G2 X165.82377 Y-52.57527 I-1.67393 J3.51984
G0 Z3.0
G0 X166.95796 Y-54.96897
G0 Z-1.0
G1 F300.0 Z-4.0
G1 F800.0 X166.35448 Y-55.25491
G3 X164.76278 Y-60.91745 I1.66993 J-3.52439
G3 X173.70903 Y-68.96265 I19.71006 J12.92087
G3 X173.81154 Y-69.01339 I1.7812 J3.46948
G3 X186.04454 Y-71.64819 I11.67206 J24.47625
G3 X186.06909 Y-71.6476 I-0.08068 J3.89917
G3 X195.73054 Y-70.10455 I-1.00737 J37.32542
G3 X200.75102 Y-68.25331 I-7.80932 J28.9117
G3 X205.9751 Y-64.03832 I-5.32315 J11.94243
G3 X206.16759 Y-63.74945 I-3.146 J2.30492
G2 X206.95433 Y-62.76929 I4.05374 J-2.44798
G2 X207.23388 Y-62.94951 I-0.21998 J-0.64817
G3 X207.53093 Y-63.23479 I2.8462 J2.6663
G2 X207.68396 Y-63.56339 I-0.28884 J-0.33443
G2 X207.2575 Y-65.19159 I-3.38271 J0.01604
G2 X204.63992 Y-67.89524 I-7.4598 J4.60338
G3 X204.58784 Y-67.93036 I2.15435 J-3.25097
G2 X200.41418 Y-70.24201 I-14.14831 J20.62101
G3 X200.32854 Y-70.28049 I1.55555 J-3.57635
G2 X185.91533 Y-73.571 I-14.92958 J32.18326
G2 X176.63922 Y-72.37854 I-0.35077 J33.94692
G2 X168.74446 Y-68.35796 I5.85825 J21.26449
G2 X163.59614 Y-61.50235 I10.91948 J13.56106
G2 X161.98738 Y-52.66582 I21.41186 J8.46292
G3 X161.98775 Y-52.56904 I-3.89949 J0.06329
G2 X163.38495 Y-41.35189 I42.77581 J0.36744
G2 X168.03442 Y-31.44383 I29.68745 J-7.88622
G3 X168.06895 Y-31.39444 I-3.17896 J2.25926
G2 X175.19244 Y-24.94032 I17.20605 J-11.83234
G2 X184.45297 Y-22.7716 I8.95611 J-17.38714
G3 X184.54116 Y-22.77197 I0.0607 J3.89953
G2 X191.29447 Y-23.33972 I0.26304 J-37.32002
G3 X191.31037 Y-23.3425 I0.67823 J3.84057
G2 X197.27983 Y-25.34509 I-3.50757 J-20.35393
G3 X197.31456 Y-25.36281 I1.78951 J3.46521
G2 X200.91918 Y-28.58409 I-4.18958 J-8.31557
G2 X202.09912 Y-33.17516 I-7.54557 J-4.38643
G3 X202.09817 Y-33.23551 I3.89893 J-0.09144
G2 X200.99456 Y-36.60755 I-5.84578 J0.04661
G2 X197.73688 Y-39.81572 I-11.25051 J8.16607
G2 X192.61997 Y-42.73798 I-25.6062 J38.89567
G3 X192.57544 Y-42.76016 I1.71596 J-3.50221
G2 X186.8919 Y-45.52389 I-90.63037 J179.15242
G3 X186.87206 Y-45.53323 I1.65009 J-3.53372
G1 X166.95796 Y-54.96897
G1 F300.0 X167.47178 Y-56.05339
G1 F800.0 X166.86831 Y-56.33933
G3 X165.76636 Y-60.25956 I1.15611 J-2.43996
G3 X174.25709 Y-67.89511 I18.70648 J12.26298
G3 X174.32806 Y-67.93024 I1.23314 J2.40195
G3 X186.01972 Y-70.44845 I11.15554 J23.39311
G3 X186.03671 Y-70.44804 I-0.05585 J2.69942
G3 X195.40261 Y-68.95012 I-0.975 J36.12586
G3 X200.2498 Y-67.16289 I-7.4814 J27.75726
G3 X205.0071 Y-63.32911 I-4.82193 J10.85202
G3 X205.14037 Y-63.12913 I-2.178 J1.59572
G2 X206.23907 Y-61.79603 I5.08097 J-3.0683
G3 X206.27579 Y-61.76218 I-1.81148 J2.00214
G2 X206.79296 Y-61.53389 I0.58308 J-0.62096
G2 X208.10963 Y-62.1291 I-0.05861 J-1.88357
G3 X208.31529 Y-62.32661 I1.97044 J1.8459
G2 X208.88397 Y-63.56097 I-1.07319 J-1.24262
G2 X208.29233 Y-65.79963 I-4.58273 J0.01363
G2 X205.3028 Y-68.89553 I-8.49463 J5.21142
G3 X205.26674 Y-68.91985 I1.49147 J-2.25067
G2 X200.89281 Y-71.34243 I-14.82721 J21.6105
G3 X200.83352 Y-71.36907 I1.07692 J-2.47593
G2 X185.93026 Y-74.77091 I-15.43456 J33.27183
G2 X176.32212 Y-73.53588 I-0.3657 J35.14683
G2 X167.99405 Y-69.29438 I6.17535 J22.42184
G2 X162.48431 Y-61.95397 I11.6699 J14.49748
G2 X160.78754 Y-52.64635 I22.52369 J8.91454
G3 X160.78779 Y-52.57935 I-2.69964 J0.04381
G2 X162.22468 Y-41.04568 I43.97577 J0.37774
G2 X167.05628 Y-30.74867 I30.84773 J-8.19244
G3 X167.08019 Y-30.71448 I-2.20082 J1.5641
G2 X174.62787 Y-23.8813 I18.19481 J-12.5123
G2 X184.47165 Y-21.57174 I9.52069 J-18.44616
G3 X184.5327 Y-21.572 I0.04202 J2.69967
G2 X191.50315 Y-22.15801 I0.2715 J-38.51999
G3 X191.51416 Y-22.15993 I0.46954 J2.65886
G2 X197.83045 Y-24.27887 I-3.71136 J-21.5365
G3 X197.85449 Y-24.29114 I1.23889 J2.39899
G2 X201.94076 Y-27.95382 I-4.72951 J-9.38724
G2 X203.29879 Y-33.2033 I-8.56716 J-5.0167
G3 X203.29813 Y-33.24508 I2.69926 J-0.06331
G2 X201.96682 Y-37.31091 I-7.04574 J0.05617
G2 X198.41171 Y-40.80815 I-12.22277 J8.86943
G2 X193.14796 Y-43.81558 I-26.28103 J39.8881
G3 X193.11713 Y-43.83094 I1.18797 J-2.42461
G2 X187.39962 Y-46.61119 I-91.17206 J180.2232
G3 X187.38588 Y-46.61766 I1.14237 J-2.44642
G1 X167.47178 Y-56.05339
G1 F300.0 X167.98561 Y-57.13782
G1 F800.0 X167.38213 Y-57.42376
G3 X166.76994 Y-59.60167 I0.64228 J-1.35553
G3 X174.80516 Y-66.82758 I17.7029 J11.60508
G3 X174.84458 Y-66.8471 I0.68508 J1.33442
G3 X185.9949 Y-69.2487 I10.63901 J22.30996
G3 X186.00434 Y-69.24848 I-0.03103 J1.49968
G3 X195.07476 Y-67.79566 I-0.94262 J34.92629
G3 X199.749 Y-66.07228 I-7.15354 J26.6028
G3 X204.0391 Y-62.61991 I-4.32113 J9.76141
G3 X204.11314 Y-62.5088 I-1.21 J0.88651
G2 X205.43397 Y-60.90619 I6.1082 J-3.68863
G3 X205.45437 Y-60.88739 I-1.00638 J1.1123
G2 X206.77141 Y-60.3332 I1.4045 J-1.49576
G2 X208.98539 Y-61.3087 I-0.03706 J-3.08426
G3 X209.09964 Y-61.41843 I1.09469 J1.0255
G2 X210.08398 Y-63.56012 I-1.85754 J-2.1508
G2 X209.32628 Y-66.40902 I-5.78273 J0.01278
G2 X205.96567 Y-69.89583 I-9.52858 J5.82081
G3 X205.94564 Y-69.90934 I0.8286 J-1.25037
G2 X201.37144 Y-72.44284 I-15.50611 J22.59999
G3 X201.3385 Y-72.45764 I0.59829 J-1.37552
G2 X185.9452 Y-75.97082 I-15.93954 J34.36041
G2 X176.00504 Y-74.69323 I-0.38063 J36.34674
G2 X167.24365 Y-70.23081 I6.49243 J23.57919
G2 X161.37246 Y-62.40552 I12.4203 J15.43391
G2 X159.58769 Y-52.62688 I23.63554 J9.36609
G3 X159.58784 Y-52.58965 I-1.4998 J0.02434
G2 X161.0644 Y-40.73947 I45.17572 J0.38805
G2 X166.07814 Y-30.05352 I32.008 J-8.49865
G3 X166.09142 Y-30.03452 I-1.22268 J0.86895
G2 X174.06327 Y-22.82231 I19.18358 J-13.19226
G2 X184.49033 Y-20.37189 I10.08529 J-19.50516
G3 X184.52424 Y-20.37203 I0.02335 J1.49982
G2 X191.71184 Y-20.97629 I0.27996 J-39.71996
G3 X191.71796 Y-20.97736 I0.26086 J1.47714
G2 X198.38106 Y-23.21265 I-3.91515 J-22.71906
G3 X198.39442 Y-23.21947 I0.68827 J1.33277
G2 X202.96223 Y-27.32352 I-5.26944 J-10.45891
G2 X204.49846 Y-33.23143 I-9.58863 J-5.647
G3 X204.49809 Y-33.25464 I1.49959 J-0.03517
G2 X202.93903 Y-38.01434 I-8.2457 J0.06574
G2 X199.08614 Y-41.80083 I-13.19498 J9.57286
G2 X193.67595 Y-44.89319 I-26.95546 J40.88079
G3 X193.65882 Y-44.90172 I0.65998 J-1.347
G2 X187.90734 Y-47.69849 I-91.71375 J181.29399
G3 X187.89971 Y-47.70208 I0.63465 J-1.35912
G1 X167.98561 Y-57.13782
G0 Z3.0
G0 X228.45831 Y-56.03747
G0 Z1.0
G1 F300.0 Z-2.0
G2 F800.0 X228.3931 Y-50.62305 I440.12954 J8.00849
G2 X228.91512 Y-38.43717 I180.50099 J-1.6282
G3 X228.91529 Y-38.43492 I-5.08504 J0.3903
G3 X229.46699 Y-25.47017 I-192.38948 J14.6809
G3 X229.46292 Y-25.21614 I-5.0998 J0.04536
G2 X229.47978 Y-25.09776 I0.32924 J0.01348
G3 X229.76545 Y-25.09822 I0.15107 J5.09776
G2 X229.79856 Y-25.22223 I-0.18345 J-0.11539
G3 X229.79473 Y-25.37951 I5.09598 J-0.20258
G2 X229.27231 Y-37.65746 I-182.66538 J1.62225
G3 X228.72051 Y-50.57073 I189.66831 J-14.57324
G3 X228.7204 Y-50.64529 I5.09981 J-0.0445
G3 X228.88336 Y-60.42312 I453.88476 J2.67447
G3 X228.8849 Y-60.4709 I5.09808 J0.13992
G2 X229.09645 Y-69.93762 I-327.03202 J-12.0437
G3 X229.09983 Y-70.08758 I5.09984 J0.04016
G2 X229.08896 Y-70.17095 I-0.25277 J-0.00943
G3 X228.77628 I-0.15634 J-5.0976
G2 X228.7654 Y-70.08755 I0.24196 J0.07397
G3 X228.7688 Y-69.8585 I-5.09646 J0.19009
G3 X228.55151 Y-60.11874 I-332.11671 J-2.53707
G2 X228.45831 Y-56.03747 I440.03635 J12.08976
G1 F300.0 X227.25851 Y-56.05931
G2 F800.0 X227.19307 Y-50.62119 I441.32934 J8.03033
G2 X227.71864 Y-38.34534 I181.70103 J-1.63006
G3 X227.71877 Y-38.34361 I-3.88856 J0.29846
G3 X228.26703 Y-25.45949 I-191.19296 J14.5896
G3 X228.26392 Y-25.26524 I-3.89985 J0.03469
G2 X228.62124 Y-24.21861 I1.52823 J0.06258
G2 X229.50698 Y-23.89803 I0.84531 J-0.95165
G3 X229.77367 Y-23.89738 I0.12388 J3.89803
G2 X230.59817 Y-24.22645 I0.04019 J-1.09678
G2 X230.99761 Y-25.26989 I-1.01617 J-0.98717
G3 X230.99469 Y-25.39017 I3.89692 J-0.15491
G2 X230.46881 Y-37.74909 I-183.86533 J1.63291
G3 X229.92046 Y-50.5812 I188.47182 J-14.48162
G3 X229.92038 Y-50.63821 I3.89985 J-0.03403
G3 X230.08291 Y-60.3902 I452.68478 J2.6674
G3 X230.08409 Y-60.42673 I3.89853 J0.10699
G2 X230.29641 Y-69.92817 I-328.23121 J-12.08787
G3 X230.299 Y-70.04284 I3.89988 J0.03071
G2 X229.93815 Y-71.05648 I-1.45194 J-0.05416
G2 X229.0913 Y-71.37178 I-0.79932 J0.85192
G3 X228.80866 Y-71.37053 I-0.15868 J-3.89677
G2 X227.91589 Y-71.0436 I-0.04045 J1.27198
G2 X227.56624 Y-70.04282 I1.10235 J0.94662
G3 X227.56883 Y-69.86767 I-3.89729 J0.14536
G3 X227.35212 Y-60.15741 I-330.91675 J-2.5279
G2 X227.25851 Y-56.05931 I441.23574 J12.12843
G1 F300.0 X226.05871 Y-56.08114
G2 F800.0 X225.99304 Y-50.61934 I442.52914 J8.05216
G2 X226.52216 Y-38.2535 I182.90106 J-1.63191
G3 X226.52225 Y-38.25231 I-2.69208 J0.20663
G3 X227.06708 Y-25.44882 I-189.99644 J14.49829
G3 X227.06493 Y-25.31434 I-2.69989 J0.02401
G2 X227.75865 Y-23.38192 I2.72723 J0.11167
G2 X229.5451 Y-22.69864 I1.7079 J-1.78834
G3 X229.72973 Y-22.69819 I0.08576 J2.69864
G2 X231.45736 Y-23.38871 I0.08413 J-2.29597
G2 X232.19666 Y-25.31756 I-1.87536 J-1.8249
G3 X232.19464 Y-25.40083 I2.69787 J-0.10725
G2 X231.6653 Y-37.84071 I-185.06528 J1.64357
G3 X231.12042 Y-50.59167 I187.27532 J-14.38999
G3 X231.12036 Y-50.63114 I2.6999 J-0.02356
G3 X231.28246 Y-60.35728 I451.4848 J2.66033
G3 X231.28327 Y-60.38257 I2.69898 J0.07407
G2 X231.49637 Y-69.91872 I-329.4304 J-12.13203
G3 X231.49817 Y-69.99811 I2.69992 J0.02126
G2 X230.80181 Y-71.89063 I-2.65111 J-0.0989
G2 X229.04248 Y-72.57079 I-1.66298 J1.68607
G3 X228.8468 Y-72.56992 I-0.10986 J-2.69776
G2 X227.05536 Y-71.8818 I-0.07859 J2.47137
G2 X226.36707 Y-69.9981 I1.96288 J1.78482
G3 X226.36887 Y-69.87684 I-2.69812 J0.10064
G3 X226.15273 Y-60.1961 I-329.71678 J-2.51873
G2 X226.05871 Y-56.08114 I442.43513 J12.16712
G1 F300.0 X224.85891 Y-56.10297
G2 F800.0 X224.79301 Y-50.6175 I443.72894 J8.07399
G2 X225.32568 Y-38.16167 I184.10109 J-1.63375
G3 X225.32573 Y-38.16101 I-1.4956 J0.11479
G3 X225.86713 Y-25.43815 I-188.79992 J14.40699
G3 X225.86593 Y-25.36343 I-1.49994 J0.01334
G2 X226.89589 Y-22.54696 I3.92622 J0.16077
G2 X229.58321 Y-21.49924 I2.57065 J-2.62329
G3 X229.68579 Y-21.49899 I0.04765 J1.49924
G2 X232.31659 Y-22.55102 I0.12807 J-3.49517
G2 X233.39572 Y-25.36522 I-2.73458 J-2.6626
G3 X233.39459 Y-25.41148 I1.49882 J-0.05958
G2 X232.8618 Y-37.93234 I-186.26524 J1.65422
G3 X232.32037 Y-50.60214 I186.07882 J-14.29836
G3 X232.32034 Y-50.62407 I1.49994 J-0.01309
G3 X232.48201 Y-60.32435 I450.28482 J2.65326
G3 X232.48246 Y-60.33841 I1.49944 J0.04115
G2 X232.69634 Y-69.90927 I-330.62959 J-12.17619
G3 X232.69733 Y-69.95338 I1.49995 J0.01181
G2 X231.66587 Y-72.7237 I-3.85027 J-0.14363
G2 X228.99365 Y-73.7698 I-2.52704 J2.51913
G3 X228.88494 Y-73.76931 I-0.06103 J-1.49876
G2 X226.19482 Y-72.71882 I-0.11673 J3.67077
G2 X225.1679 Y-69.95337 I2.82342 J2.62184
G3 X225.1689 Y-69.886 I-1.49896 J0.05591
G3 X224.95334 Y-60.2348 I-328.51682 J-2.50957
G2 X224.85891 Y-56.10297 I443.63451 J12.20582
G0 Z3.0
G0 X228.45831 Y-56.03747
G0 Z-1.0
G1 F300.0 Z-4.0
G2 F800.0 X228.3931 Y-50.62305 I440.12954 J8.00849
G2 X228.91512 Y-38.43717 I180.50099 J-1.6282
G3 X228.91529 Y-38.43492 I-5.08504 J0.3903
G3 X229.46699 Y-25.47017 I-192.38948 J14.6809
G3 X229.46292 Y-25.21614 I-5.0998 J0.04536
G2 X229.47978 Y-25.09776 I0.32924 J0.01348
G3 X229.76545 Y-25.09822 I0.15107 J5.09776
G2 X229.79856 Y-25.22223 I-0.18345 J-0.11539
G3 X229.79473 Y-25.37951 I5.09598 J-0.20258
G2 X229.27231 Y-37.65746 I-182.66538 J1.62225
G3 X228.72051 Y-50.57073 I189.66831 J-14.57324
G3 X228.7204 Y-50.64529 I5.09981 J-0.0445
G3 X228.88336 Y-60.42312 I453.88476 J2.67447
G3 X228.8849 Y-60.4709 I5.09808 J0.13992
G2 X229.09645 Y-69.93762 I-327.03202 J-12.0437
G3 X229.09983 Y-70.08758 I5.09984 J0.04016
G2 X229.08896 Y-70.17095 I-0.25277 J-0.00943
G3 X228.77628 I-0.15634 J-5.0976
G2 X228.7654 Y-70.08755 I0.24196 J0.07397
G3 X228.7688 Y-69.8585 I-5.09646 J0.19009
G3 X228.55151 Y-60.11874 I-332.11671 J-2.53707
G2 X228.45831 Y-56.03747 I440.03635 J12.08976
G1 F300.0 X227.25851 Y-56.05931
G2 F800.0 X227.19307 Y-50.62119 I441.32934 J8.03033
G2 X227.71864 Y-38.34534 I181.70103 J-1.63006
G3 X227.71877 Y-38.34361 I-3.88856 J0.29846
G3 X228.26703 Y-25.45949 I-191.19296 J14.5896
G3 X228.26392 Y-25.26524 I-3.89985 J0.03469
G2 X228.62124 Y-24.21861 I1.52823 J0.06258
G2 X229.50698 Y-23.89803 I0.84531 J-0.95165
G3 X229.77367 Y-23.89738 I0.12388 J3.89803
G2 X230.59817 Y-24.22645 I0.04019 J-1.09678
G2 X230.99761 Y-25.26989 I-1.01617 J-0.98717
G3 X230.99469 Y-25.39017 I3.89692 J-0.15491
G2 X230.46881 Y-37.74909 I-183.86533 J1.63291
G3 X229.92046 Y-50.5812 I188.47182 J-14.48162
G3 X229.92038 Y-50.63821 I3.89985 J-0.03403
G3 X230.08291 Y-60.3902 I452.68478 J2.6674
G3 X230.08409 Y-60.42673 I3.89853 J0.10699
G2 X230.29641 Y-69.92817 I-328.23121 J-12.08787
G3 X230.299 Y-70.04284 I3.89988 J0.03071
G2 X229.93815 Y-71.05648 I-1.45194 J-0.05416
G2 X229.0913 Y-71.37178 I-0.79932 J0.85192
G3 X228.80866 Y-71.37053 I-0.15868 J-3.89677
G2 X227.91589 Y-71.0436 I-0.04045 J1.27198
G2 X227.56624 Y-70.04282 I1.10235 J0.94662
G3 X227.56883 Y-69.86767 I-3.89729 J0.14536
G3 X227.35212 Y-60.15741 I-330.91675 J-2.5279
G2 X227.25851 Y-56.05931 I441.23574 J12.12843
G1 F300.0 X226.05871 Y-56.08114
G2 F800.0 X225.99304 Y-50.61934 I442.52914 J8.05216
G2 X226.52216 Y-38.2535 I182.90106 J-1.63191
G3 X226.52225 Y-38.25231 I-2.69208 J0.20663
G3 X227.06708 Y-25.44882 I-189.99644 J14.49829
G3 X227.06493 Y-25.31434 I-2.69989 J0.02401
G2 X227.75865 Y-23.38192 I2.72723 J0.11167
G2 X229.5451 Y-22.69864 I1.7079 J-1.78834
G3 X229.72973 Y-22.69819 I0.08576 J2.69864
G2 X231.45736 Y-23.38871 I0.08413 J-2.29597
G2 X232.19666 Y-25.31756 I-1.87536 J-1.8249
G3 X232.19464 Y-25.40083 I2.69787 J-0.10725
G2 X231.6653 Y-37.84071 I-185.06528 J1.64357
G3 X231.12042 Y-50.59167 I187.27532 J-14.38999
G3 X231.12036 Y-50.63114 I2.6999 J-0.02356
G3 X231.28246 Y-60.35728 I451.4848 J2.66033
G3 X231.28327 Y-60.38257 I2.69898 J0.07407
G2 X231.49637 Y-69.91872 I-329.4304 J-12.13203
G3 X231.49817 Y-69.99811 I2.69992 J0.02126
G2 X230.80181 Y-71.89063 I-2.65111 J-0.0989
G2 X229.04248 Y-72.57079 I-1.66298 J1.68607
G3 X228.8468 Y-72.56992 I-0.10986 J-2.69776
G2 X227.05536 Y-71.8818 I-0.07859 J2.47137
G2 X226.36707 Y-69.9981 I1.96288 J1.78482
G3 X226.36887 Y-69.87684 I-2.69812 J0.10064
G3 X226.15273 Y-60.1961 I-329.71678 J-2.51873
G2 X226.05871 Y-56.08114 I442.43513 J12.16712
G1 F300.0 X224.85891 Y-56.10297
G2 F800.0 X224.79301 Y-50.6175 I443.72894 J8.07399
G2 X225.32568 Y-38.16167 I184.10109 J-1.63375
G3 X225.32573 Y-38.16101 I-1.4956 J0.11479
G3 X225.86713 Y-25.43815 I-188.79992 J14.40699
G3 X225.86593 Y-25.36343 I-1.49994 J0.01334
G2 X226.89589 Y-22.54696 I3.92622 J0.16077
G2 X229.58321 Y-21.49924 I2.57065 J-2.62329
G3 X229.68579 Y-21.49899 I0.04765 J1.49924
G2 X232.31659 Y-22.55102 I0.12807 J-3.49517
G2 X233.39572 Y-25.36522 I-2.73458 J-2.6626
G3 X233.39459 Y-25.41148 I1.49882 J-0.05958
G2 X232.8618 Y-37.93234 I-186.26524 J1.65422
G3 X232.32037 Y-50.60214 I186.07882 J-14.29836
G3 X232.32034 Y-50.62407 I1.49994 J-0.01309
G3 X232.48201 Y-60.32435 I450.28482 J2.65326
G3 X232.48246 Y-60.33841 I1.49944 J0.04115
G2 X232.69634 Y-69.90927 I-330.62959 J-12.17619
G3 X232.69733 Y-69.95338 I1.49995 J0.01181
G2 X231.66587 Y-72.7237 I-3.85027 J-0.14363
G2 X228.99365 Y-73.7698 I-2.52704 J2.51913
G3 X228.88494 Y-73.76931 I-0.06103 J-1.49876
G2 X226.19482 Y-72.71882 I-0.11673 J3.67077
G2 X225.1679 Y-69.95337 I2.82342 J2.62184
G3 X225.1689 Y-69.886 I-1.49896 J0.05591
G3 X224.95334 Y-60.2348 I-328.51682 J-2.50957
G2 X224.85891 Y-56.10297 I443.63451 J12.20582
G0 Z3.0
G0 X268.86432 Y-24.43175
G0 Z1.0
G1 F300.0 Z-2.0
G3 F800.0 X269.72198 Y-23.57499 I-4.42877 J5.29112
G3 X270.79753 Y-24.5878 I5.24091 J4.48808
G3 X269.94967 Y-25.45388 I4.48763 J-5.2413
G3 X268.86432 Y-24.43175 I-5.24556 J-4.48264
G1 F300.0 X268.50256 Y-24.91042
G3 F800.0 X267.81445 Y-24.45786 I-3.79846 J-5.0261
G3 X269.71688 Y-22.57538 I-3.3789 J5.31724
G3 X271.83683 Y-24.55662 I5.24601 J3.48846
G3 X269.95991 Y-26.46284 I3.44833 J-5.27248
G3 X268.50256 Y-24.91042 I-5.25581 J-3.47369
G1 F300.0 X267.77905 Y-25.86777
G3 F800.0 X264.97858 Y-24.84391 I-3.07494 J-4.06875
G2 X253.2844 Y-23.94841 I13.9773 J259.33099
G3 X253.19236 Y-23.94011 I-0.50412 J-5.07502
G2 X253.0953 Y-23.92485 I0.05292 J0.65284
G3 X253.09727 Y-23.53934 I-5.0953 J0.2188
G2 X253.1367 Y-23.34264 I0.43875 J0.01435
G1 X264.02404 Y-24.224
G3 X269.53531 Y-19.09102 I0.41151 J5.08337
G3 X269.2587 Y-11.54353 I-140.36225 J-1.36521
G2 X269.05211 Y-5.13876 I170.76739 J8.71401
G3 X269.07466 Y-5.11685 I-3.54235 J3.66903
G2 X269.10788 Y-5.0911 I0.12857 J-0.13153
G2 X269.87632 Y-8.2312 I-8.90639 J-3.84362
G3 X269.87641 Y-8.23237 I5.08657 J0.36988
G2 X270.02444 Y-12.54147 I-55.89502 J-4.07737
G1 X269.91963 Y-15.58108
G3 X269.91726 Y-15.67459 I5.09697 J-0.17576
G1 X269.86355 Y-19.00467
G3 X275.66034 Y-24.139 I5.09934 J-0.08225
G2 X282.81774 Y-23.32723 I20.31276 J-147.13923
G2 X286.02906 Y-23.39902 I-0.00952 J-72.2841
G3 X286.14243 Y-23.40282 I0.22725 J5.09493
G2 X288.07469 Y-23.59525 I-0.28208 J-12.62968
G2 X288.0741 Y-23.63288 I-0.9612 J-0.00359
G3 X288.07339 Y-23.97278 I5.0968 J-0.18059
G2 X288.03301 Y-24.13983 I-0.32389 J-0.01012
G3 X287.94006 Y-24.13839 I-0.12579 J-5.09845
G2 X285.60111 Y-24.04499 I0.22516 J34.97288
G3 X282.62066 Y-23.92353 I-3.2403 J-42.88358
G3 X282.20104 Y-23.93828 I-0.03082 J-5.09991
G3 X274.55637 Y-24.78144 I8.74223 J-114.34031
G3 X270.18779 Y-29.99298 I0.72879 J-5.04766
G1 X271.20753 Y-61.71215
G1 X271.26051 Y-64.04348
G1 X271.31407 Y-66.77479
G3 X271.3171 Y-66.87716 I5.09902 J0.09998
G2 X270.80827 Y-72.49008 I-21.70512 J-0.86187
G2 X270.56009 Y-73.1878 I-3.00162 J0.67469
G2 X270.71238 Y-67.64808 I173.99773 J-2.01157
G1 X270.7124 Y-67.64776
G3 X270.8781 Y-61.351 I-184.69607 J8.01098
G3 X270.87533 Y-61.12916 I-5.09978 J0.04729
G1 X269.80111 Y-29.76197
G3 X267.77905 Y-25.86777 I-5.09701 J-0.17456
G1 F300.0 X267.05553 Y-26.82513
G3 F800.0 X264.914 Y-26.04218 I-2.35143 J-3.1114
G2 X253.16578 Y-25.14254 I14.04188 J260.52926
G3 X253.0954 Y-25.13619 I-0.38551 J-3.8809
G2 X252.10895 Y-24.75346 I0.14989 J1.84892
G2 X251.89402 Y-23.92203 I1.19759 J0.75308
G3 X251.89792 Y-23.57857 I-3.89402 J0.21598
G2 X252.32175 Y-22.42417 I1.63811 J0.05358
G2 X252.9781 Y-22.12588 I0.68834 J-0.64332
G1 X264.12086 Y-23.02791
G3 X268.33536 Y-19.10269 I0.31468 J3.88728
G3 X268.06065 Y-11.61224 I-139.1623 J-1.35354
G2 X267.8518 Y-5.12382 I171.96545 J8.78272
G3 X267.85037 Y-5.05813 I-3.89965 J-0.05196
G2 X268.1535 Y-4.3369 I0.94193 J0.02843
G3 X268.23586 Y-4.25871 I-2.64373 J2.86717
G2 X269.23466 Y-3.86481 I0.96736 J-0.98968
G3 X269.37405 Y-3.86549 I0.08858 J3.89899
G2 X270.08382 Y-4.33015 I0.00989 J-0.75929
G3 X270.12707 Y-4.42904 I3.59448 J1.51318
G2 X271.07316 Y-8.14417 I-9.92557 J-4.50567
G3 X271.07323 Y-8.14507 I3.88973 J0.28285
G2 X271.22436 Y-12.56473 I-57.09184 J-4.16467
G1 X271.11892 Y-15.62243
G3 X271.11711 Y-15.69394 I3.89768 J-0.1344
G1 X271.0634 Y-19.02402
G3 X275.49623 Y-22.95027 I3.89949 J-0.0629
G2 X282.76446 Y-22.12724 I20.47687 J-148.32796
G2 X286.08253 Y-22.20022 I0.04376 J-73.48409
G3 X286.16922 Y-22.20312 I0.17378 J3.89613
G2 X288.86156 Y-22.52917 I-0.30887 J-13.82938
G2 X289.07129 Y-22.6835 I-0.20723 J-0.50128
G2 X289.27334 Y-23.67538 I-1.9578 J-0.91535
G3 X289.2728 Y-23.9353 I3.89755 J-0.1381
G2 X288.86364 Y-25.02281 I-1.5233 J-0.04761
G2 X288.04995 Y-25.34089 I-0.77352 J0.77896
G3 X287.93233 Y-25.33836 I-0.14272 J-3.89739
G2 X285.51189 Y-25.24167 I0.23288 J36.17286
G3 X282.61341 Y-25.12351 I-3.15108 J-41.6869
G3 X282.29253 Y-25.13479 I-0.02356 J-3.89993
G3 X274.72785 Y-25.96913 I8.65074 J-113.1438
G3 X271.38717 Y-29.95442 I0.55731 J-3.85997
G1 X272.40709 Y-61.67923
G1 X272.46024 Y-64.01808
G1 X272.51384 Y-66.75126
G3 X272.51616 Y-66.82955 I3.89925 J0.07646
G2 X271.97914 Y-72.75287 I-22.90418 J-0.90949
G2 X271.19583 Y-74.42346 I-4.17249 J0.93748
G2 X270.89131 Y-74.53928 I-0.29168 J0.30863
G3 X270.72212 Y-74.53784 I-0.11788 J-3.89822
G2 X269.59824 Y-74.12039 I-0.02188 J1.66274
G3 X269.56127 Y-74.08809 I-2.58456 J-2.92062
G2 X269.3553 Y-73.62644 I0.38821 J0.44998
G3 X269.35589 Y-73.58572 I-3.89925 J0.07664
G2 X269.51351 Y-67.596 I175.20193 J-1.61364
G1 X269.51352 Y-67.59576
G3 X269.67815 Y-61.33987 I-183.4972 J7.95898
G3 X269.67604 Y-61.17023 I-3.89983 J0.03616
G1 X268.60182 Y-29.80304
G3 X267.05553 Y-26.82513 I-3.89771 J-0.13348
G1 F300.0 X266.33201 Y-27.78248
G3 F800.0 X264.84941 Y-27.24044 I-1.62791 J-2.15404
G2 X253.04716 Y-26.33666 I14.10647 J261.72752
G3 X252.99844 Y-26.33227 I-0.26689 J-2.68678
G2 X251.21618 Y-25.57106 I0.24685 J3.04499
G2 X250.69586 Y-23.85558 I2.09035 J1.57068
G3 X250.69856 Y-23.61779 I-2.69586 J0.14952
G2 X251.43841 Y-21.61192 I2.83746 J0.0928
G2 X253.02018 Y-20.92536 I1.57167 J-1.45558
G1 X264.21769 Y-21.83182
G3 X267.13542 Y-19.11437 I0.21786 J2.6912
G3 X266.8626 Y-11.681 I-137.96236 J-1.34187
G2 X266.65191 Y-5.13981 I173.1635 J8.85148
G3 X266.65092 Y-5.09433 I-2.69976 J-0.03598
G2 X267.34004 Y-3.45469 I2.14138 J0.06463
G3 X267.39706 Y-3.40056 I-1.83028 J1.98497
G2 X269.26192 Y-2.66512 I1.80616 J-1.84783
G3 X269.35842 Y-2.66559 I0.06133 J2.6993
G2 X271.18981 Y-3.86456 I0.02553 J-1.95919
G3 X271.21975 Y-3.93302 I2.48849 J1.04758
G2 X272.27 Y-8.05714 I-11.01826 J-5.00169
G3 X272.27005 Y-8.05776 I2.69289 J0.19582
G2 X272.42426 Y-12.58818 I-58.28866 J-4.25197
G1 X272.31821 Y-15.66379
G3 X272.31695 Y-15.71329 I2.6984 J-0.09305
G1 X272.26324 Y-19.04337
G3 X275.33213 Y-21.76155 I2.69965 J-0.04354
G2 X282.71097 Y-20.92729 I20.64097 J-149.51669
G2 X286.136 Y-21.00141 I0.09725 J-74.68404
G3 X286.19602 Y-21.00342 I0.12031 J2.69732
G2 X289.19659 Y-21.37455 I-0.33567 J-15.02908
G2 X290.10259 Y-22.06164 I-0.54225 J-1.65589
G2 X290.47259 Y-23.71787 I-2.9891 J-1.53721
G3 X290.47222 Y-23.89782 I2.69831 J-0.09561
G2 X289.7259 Y-25.85754 I-2.72272 J-0.08509
G2 X288.00603 Y-26.54009 I-1.63579 J1.61369
G3 X287.92461 Y-26.53834 I-0.09881 J-2.69819
G2 X285.42264 Y-26.43835 I0.24061 J37.37283
G3 X282.60616 Y-26.32349 I-3.06183 J-40.49022
G3 X282.38401 Y-26.33129 I-0.01631 J-2.69995
G3 X274.89933 Y-27.15681 I8.55926 J-111.94729
G3 X272.58655 Y-29.91586 I0.38583 J-2.67229
G1 X273.60665 Y-61.64632
G1 X273.65998 Y-63.99269
G1 X273.7136 Y-66.72774
G3 X273.71521 Y-66.78193 I2.69948 J0.05293
G2 X273.15002 Y-73.01562 I-24.10323 J-0.9571
G2 X272.10416 Y-75.21003 I-5.34337 J1.20024
G2 X270.85504 Y-75.73873 I-1.20001 J1.09521
G3 X270.73791 Y-75.73773 I-0.08161 J-2.69877
G2 X268.80299 Y-75.01905 I-0.03767 J2.86263
G3 X268.77739 Y-74.99669 I-1.78931 J-2.02197
G2 X268.15553 Y-73.60286 I1.17209 J1.35857
G3 X268.15594 Y-73.57467 I-2.69948 J0.05306
G2 X268.31464 Y-67.54393 I176.40188 J-1.62469
G1 X268.31465 Y-67.54376
G3 X268.4782 Y-61.32875 I-182.29833 J7.90698
G3 X268.47674 Y-61.2113 I-2.69988 J0.02504
G1 X267.40252 Y-29.84411
G3 X266.33201 Y-27.78248 I-2.69842 J-0.09241
G1 F300.0 X265.6085 Y-28.73983
G3 F800.0 X264.78483 Y-28.4387 I-0.9044 J-1.19669
G2 X252.92855 Y-27.53078 I14.17105 J262.92578
G3 X252.90148 Y-27.52834 I-0.14827 J-1.49265
G2 X250.33143 Y-26.38797 I0.34381 J4.24107
G2 X249.4977 Y-23.78912 I2.97511 J2.38759
G3 X249.4992 Y-23.65702 I-1.4977 J0.08307
G2 X250.5548 Y-20.79998 I4.03682 J0.13203
G2 X253.07654 Y-19.72599 I2.45528 J-2.26752
G1 X264.31451 Y-20.63573
G3 X265.93548 Y-19.12604 I0.12103 J1.49511
G3 X265.66455 Y-11.74982 I-136.76242 J-1.33019
G2 X265.45202 Y-5.15579 I174.36155 J8.9203
G3 X265.45147 Y-5.13053 I-1.49987 J-0.01999
G2 X266.52659 Y-2.57249 I3.34084 J0.10083
G3 X266.55826 Y-2.54241 I-1.01682 J1.10276
G2 X269.28917 Y-1.46543 I2.64496 J-2.70597
G3 X269.34279 Y-1.46569 I0.03407 J1.49961
G2 X272.29581 Y-3.39897 I0.04116 J-3.15909
G3 X272.31244 Y-3.437 I1.38249 J0.58199
G2 X273.46684 Y-7.97011 I-12.11094 J-5.49771
G3 X273.46687 Y-7.97046 I1.49605 J0.10879
G2 X273.62416 Y-12.61181 I-59.48548 J-4.33928
G1 X273.51749 Y-15.70514
G3 X273.5168 Y-15.73265 I1.49911 J-0.05169
G1 X273.46309 Y-19.06272
G3 X275.16802 Y-20.57282 I1.4998 J-0.02419
G2 X282.65726 Y-19.72738 I20.80508 J-150.70541
G2 X286.18947 Y-19.8026 I0.15096 J-75.88395
G3 X286.22281 Y-19.80372 I0.06684 J1.49851
G2 X289.51109 Y-20.21552 I-0.36246 J-16.22878
G2 X291.13959 Y-21.45522 I-0.85676 J-2.81493
G2 X291.67184 Y-23.76036 I-4.0261 J-2.14363
G3 X291.67163 Y-23.86033 I1.49906 J-0.05312
G2 X290.58855 Y-26.69177 I-3.92213 J-0.12257
G2 X287.96212 Y-27.73929 I-2.49843 J2.44792
G3 X287.91688 Y-27.73831 I-0.05489 J-1.499
G2 X285.33335 Y-27.63502 I0.24833 J38.57281
G3 X282.59891 Y-27.52346 I-2.97254 J-39.29355
G3 X282.47549 Y-27.5278 I-0.00906 J-1.49997
G3 X275.07081 Y-28.3445 I8.46778 J-110.75078
G3 X273.78593 Y-29.8773 I0.21435 J-1.48461
G1 X274.80621 Y-61.61341
G1 X274.85971 Y-63.96729
G1 X274.91337 Y-66.70421
G3 X274.91427 Y-66.73432 I1.49971 J0.02941
G2 X274.32091 Y-73.27836 I-25.30229 J-1.00471
G2 X273.02158 Y-75.98435 I-6.51426 J1.46297
G2 X270.81877 Y-76.93819 I-2.11743 J1.86953
G3 X270.7537 Y-76.93763 I-0.04534 J-1.49931
G2 X268.00773 Y-75.9177 I-0.05346 J4.06253
G3 X267.99352 Y-75.90528 I-0.99406 J-1.12332
G2 X266.95577 Y-73.57928 I1.95596 J2.26716
G3 X266.95599 Y-73.56362 I-1.49971 J0.02948
G2 X267.11577 Y-67.49185 I177.60183 J-1.63575
G1 X267.11578 Y-67.49176
G3 X267.27826 Y-61.31762 I-181.09946 J7.85498
G3 X267.27744 Y-61.25237 I-1.49994 J0.01391
G1 X266.20322 Y-29.88518
G3 X265.6085 Y-28.73983 I-1.49912 J-0.05134
G0 Z3.0
G0 X268.86432 Y-24.43175
G0 Z-1.0
G1 F300.0 Z-4.0
G3 F800.0 X269.72198 Y-23.57499 I-4.42877 J5.29112
G3 X270.79753 Y-24.5878 I5.24091 J4.48808
G3 X269.94967 Y-25.45388 I4.48763 J-5.2413
G3 X268.86432 Y-24.43175 I-5.24556 J-4.48264
G1 F300.0 X268.50256 Y-24.91042
G3 F800.0 X267.81445 Y-24.45786 I-3.79846 J-5.0261
G3 X269.71688 Y-22.57538 I-3.3789 J5.31724
G3 X271.83683 Y-24.55662 I5.24601 J3.48846
G3 X269.95991 Y-26.46284 I3.44833 J-5.27248
G3 X268.50256 Y-24.91042 I-5.25581 J-3.47369
G1 F300.0 X267.77905 Y-25.86777
G3 F800.0 X264.97858 Y-24.84391 I-3.07494 J-4.06875
G2 X253.2844 Y-23.94841 I13.9773 J259.33099
G3 X253.19236 Y-23.94011 I-0.50412 J-5.07502
G2 X253.0953 Y-23.92485 I0.05292 J0.65284
G3 X253.09727 Y-23.53934 I-5.0953 J0.2188
G2 X253.1367 Y-23.34264 I0.43875 J0.01435
G1 X264.02404 Y-24.224
G3 X269.53531 Y-19.09102 I0.41151 J5.08337
G3 X269.2587 Y-11.54353 I-140.36225 J-1.36521
G2 X269.05211 Y-5.13876 I170.76739 J8.71401
G3 X269.07466 Y-5.11685 I-3.54235 J3.66903
G2 X269.10788 Y-5.0911 I0.12857 J-0.13153
G2 X269.87632 Y-8.2312 I-8.90639 J-3.84362
G3 X269.87641 Y-8.23237 I5.08657 J0.36988
G2 X270.02444 Y-12.54147 I-55.89502 J-4.07737
G1 X269.91963 Y-15.58108
G3 X269.91726 Y-15.67459 I5.09697 J-0.17576
G1 X269.86355 Y-19.00467
G3 X275.66034 Y-24.139 I5.09934 J-0.08225
G2 X282.81774 Y-23.32723 I20.31276 J-147.13923
G2 X286.02906 Y-23.39902 I-0.00952 J-72.2841
G3 X286.14243 Y-23.40282 I0.22725 J5.09493
G2 X288.07469 Y-23.59525 I-0.28208 J-12.62968
G2 X288.0741 Y-23.63288 I-0.9612 J-0.00359
G3 X288.07339 Y-23.97278 I5.0968 J-0.18059
G2 X288.03301 Y-24.13983 I-0.32389 J-0.01012
G3 X287.94006 Y-24.13839 I-0.12579 J-5.09845
G2 X285.60111 Y-24.04499 I0.22516 J34.97288
G3 X282.62066 Y-23.92353 I-3.2403 J-42.88358
G3 X282.20104 Y-23.93828 I-0.03082 J-5.09991
G3 X274.55637 Y-24.78144 I8.74223 J-114.34031
G3 X270.18779 Y-29.99298 I0.72879 J-5.04766
G1 X271.20753 Y-61.71215
G1 X271.26051 Y-64.04348
G1 X271.31407 Y-66.77479
G3 X271.3171 Y-66.87716 I5.09902 J0.09998
G2 X270.80827 Y-72.49008 I-21.70512 J-0.86187
G2 X270.56009 Y-73.1878 I-3.00162 J0.67469
G2 X270.71238 Y-67.64808 I173.99773 J-2.01157
G1 X270.7124 Y-67.64776
G3 X270.8781 Y-61.351 I-184.69607 J8.01098
G3 X270.87533 Y-61.12916 I-5.09978 J0.04729
G1 X269.80111 Y-29.76197
G3 X267.77905 Y-25.86777 I-5.09701 J-0.17456
G1 F300.0 X267.05553 Y-26.82513
G3 F800.0 X264.914 Y-26.04218 I-2.35143 J-3.1114
G2 X253.16578 Y-25.14254 I14.04188 J260.52926
G3 X253.0954 Y-25.13619 I-0.38551 J-3.8809
G2 X252.10895 Y-24.75346 I0.14989 J1.84892
G2 X251.89402 Y-23.92203 I1.19759 J0.75308
G3 X251.89792 Y-23.57857 I-3.89402 J0.21598
G2 X252.32175 Y-22.42417 I1.63811 J0.05358
G2 X252.9781 Y-22.12588 I0.68834 J-0.64332
G1 X264.12086 Y-23.02791
G3 X268.33536 Y-19.10269 I0.31468 J3.88728
G3 X268.06065 Y-11.61224 I-139.1623 J-1.35354
G2 X267.8518 Y-5.12382 I171.96545 J8.78272
G3 X267.85037 Y-5.05813 I-3.89965 J-0.05196
G2 X268.1535 Y-4.3369 I0.94193 J0.02843
G3 X268.23586 Y-4.25871 I-2.64373 J2.86717
G2 X269.23466 Y-3.86481 I0.96736 J-0.98968
G3 X269.37405 Y-3.86549 I0.08858 J3.89899
G2 X270.08382 Y-4.33015 I0.00989 J-0.75929
G3 X270.12707 Y-4.42904 I3.59448 J1.51318
G2 X271.07316 Y-8.14417 I-9.92557 J-4.50567
G3 X271.07323 Y-8.14507 I3.88973 J0.28285
G2 X271.22436 Y-12.56473 I-57.09184 J-4.16467
G1 X271.11892 Y-15.62243
G3 X271.11711 Y-15.69394 I3.89768 J-0.1344
G1 X271.0634 Y-19.02402
G3 X275.49623 Y-22.95027 I3.89949 J-0.0629
G2 X282.76446 Y-22.12724 I20.47687 J-148.32796
G2 X286.08253 Y-22.20022 I0.04376 J-73.48409
G3 X286.16922 Y-22.20312 I0.17378 J3.89613
G2 X288.86156 Y-22.52917 I-0.30887 J-13.82938
G2 X289.07129 Y-22.6835 I-0.20723 J-0.50128
G2 X289.27334 Y-23.67538 I-1.9578 J-0.91535
G3 X289.2728 Y-23.9353 I3.89755 J-0.1381
G2 X288.86364 Y-25.02281 I-1.5233 J-0.04761
G2 X288.04995 Y-25.34089 I-0.77352 J0.77896
G3 X287.93233 Y-25.33836 I-0.14272 J-3.89739
G2 X285.51189 Y-25.24167 I0.23288 J36.17286
G3 X282.61341 Y-25.12351 I-3.15108 J-41.6869
G3 X282.29253 Y-25.13479 I-0.02356 J-3.89993
G3 X274.72785 Y-25.96913 I8.65074 J-113.1438
G3 X271.38717 Y-29.95442 I0.55731 J-3.85997
G1 X272.40709 Y-61.67923
G1 X272.46024 Y-64.01808
G1 X272.51384 Y-66.75126
G3 X272.51616 Y-66.82955 I3.89925 J0.07646
G2 X271.97914 Y-72.75287 I-22.90418 J-0.90949
G2 X271.19583 Y-74.42346 I-4.17249 J0.93748
G2 X270.89131 Y-74.53928 I-0.29168 J0.30863
G3 X270.72212 Y-74.53784 I-0.11788 J-3.89822
G2 X269.59824 Y-74.12039 I-0.02188 J1.66274
G3 X269.56127 Y-74.08809 I-2.58456 J-2.92062
G2 X269.3553 Y-73.62644 I0.38821 J0.44998
G3 X269.35589 Y-73.58572 I-3.89925 J0.07664
G2 X269.51351 Y-67.596 I175.20193 J-1.61364
G1 X269.51352 Y-67.59576
G3 X269.67815 Y-61.33987 I-183.4972 J7.95898
G3 X269.67604 Y-61.17023 I-3.89983 J0.03616
G1 X268.60182 Y-29.80304
G3 X267.05553 Y-26.82513 I-3.89771 J-0.13348
G1 F300.0 X266.33201 Y-27.78248
G3 F800.0 X264.84941 Y-27.24044 I-1.62791 J-2.15404
G2 X253.04716 Y-26.33666 I14.10647 J261.72752
G3 X252.99844 Y-26.33227 I-0.26689 J-2.68678
G2 X251.21618 Y-25.57106 I0.24685 J3.04499
G2 X250.69586 Y-23.85558 I2.09035 J1.57068
G3 X250.69856 Y-23.61779 I-2.69586 J0.14952
G2 X251.43841 Y-21.61192 I2.83746 J0.0928
G2 X253.02018 Y-20.92536 I1.57167 J-1.45558
G1 X264.21769 Y-21.83182
G3 X267.13542 Y-19.11437 I0.21786 J2.6912
G3 X266.8626 Y-11.681 I-137.96236 J-1.34187
G2 X266.65191 Y-5.13981 I173.1635 J8.85148
G3 X266.65092 Y-5.09433 I-2.69976 J-0.03598
G2 X267.34004 Y-3.45469 I2.14138 J0.06463
G3 X267.39706 Y-3.40056 I-1.83028 J1.98497
G2 X269.26192 Y-2.66512 I1.80616 J-1.84783
G3 X269.35842 Y-2.66559 I0.06133 J2.6993
G2 X271.18981 Y-3.86456 I0.02553 J-1.95919
G3 X271.21975 Y-3.93302 I2.48849 J1.04758
G2 X272.27 Y-8.05714 I-11.01826 J-5.00169
G3 X272.27005 Y-8.05776 I2.69289 J0.19582
G2 X272.42426 Y-12.58818 I-58.28866 J-4.25197
G1 X272.31821 Y-15.66379
G3 X272.31695 Y-15.71329 I2.6984 J-0.09305
G1 X272.26324 Y-19.04337
G3 X275.33213 Y-21.76155 I2.69965 J-0.04354
G2 X282.71097 Y-20.92729 I20.64097 J-149.51669
G2 X286.136 Y-21.00141 I0.09725 J-74.68404
G3 X286.19602 Y-21.00342 I0.12031 J2.69732
G2 X289.19659 Y-21.37455 I-0.33567 J-15.02908
G2 X290.10259 Y-22.06164 I-0.54225 J-1.65589
G2 X290.47259 Y-23.71787 I-2.9891 J-1.53721
G3 X290.47222 Y-23.89782 I2.69831 J-0.09561
G2 X289.7259 Y-25.85754 I-2.72272 J-0.08509
G2 X288.00603 Y-26.54009 I-1.63579 J1.61369
G3 X287.92461 Y-26.53834 I-0.09881 J-2.69819
G2 X285.42264 Y-26.43835 I0.24061 J37.37283
G3 X282.60616 Y-26.32349 I-3.06183 J-40.49022
G3 X282.38401 Y-26.33129 I-0.01631 J-2.69995
G3 X274.89933 Y-27.15681 I8.55926 J-111.94729
G3 X272.58655 Y-29.91586 I0.38583 J-2.67229
G1 X273.60665 Y-61.64632
G1 X273.65998 Y-63.99269
G1 X273.7136 Y-66.72774
G3 X273.71521 Y-66.78193 I2.69948 J0.05293
G2 X273.15002 Y-73.01562 I-24.10323 J-0.9571
