( Made using CamBam - http://www.cambam.co.uk )
( Verweilzeit 4/6/2019 10:49:03 AM )
( T3 : 3.0 )
( T4 : 4.0 )
G21 G90 G64 G40
G0 Z3.0
( T3 : 3.0 )
T3 M6
( wohnung )
G17
M3 S1000
G0 X12.30988 Y62.96498
G0 Z1.0
G1 F300.0 Z-1.5
G2 F800.0 X13.24195 Y64.50032 I12.11947 J-6.30688
G3 X13.26275 Y64.53078 I-1.22828 J0.86101
G2 X16.81225 Y67.75632 I8.18754 J-5.44411
G2 X21.50851 Y68.81762 I4.5164 J-9.06394
G3 X21.56696 Y68.81772 I0.02664 J1.49976
G2 X25.09402 Y67.88959 I0.14064 J-6.63133
G2 X27.60847 Y65.14489 I-4.06034 J-6.24383
G3 X27.6165 Y65.13001 I1.32415 J0.70472
G2 X28.9962 Y61.33667 I-11.73254 J-6.4149
G2 X29.36166 Y57.18984 I-18.76431 J-3.74324
G3 X29.36135 Y57.16698 I1.49967 J-0.03164
G2 X28.7275 Y52.72436 I-16.56497 J0.09691
G2 X26.81086 Y48.78015 I-12.42034 J3.59771
G3 X26.79644 Y48.75972 I1.21844 J-0.87487
G2 X23.73888 Y45.99454 I-7.4466 J5.16097
G2 X19.7755 Y45.0594 I-3.83794 J7.39978
G3 X19.73812 Y45.0595 I-0.02257 J-1.49983
G2 X13.79449 Y47.60971 I-0.07916 J8.01686
G3 X13.77092 Y47.63442 I-1.09722 J-1.02279
G2 X11.50776 Y51.27574 I7.12715 J6.95362
G2 X10.73022 Y55.67162 I13.49493 J4.65367
G3 X10.72962 Y55.69487 I-1.49976 J-0.02709
G2 X11.27049 Y60.33271 I15.64886 J0.52548
G2 X12.30988 Y62.96498 I13.15886 J-3.67461
G1 F300.0 X13.4826 Y62.37655
G3 F800.0 X11.94223 Y55.63963 I12.97814 J-6.51195
G3 X12.44786 Y52.08745 I11.85076 J-0.12521
G3 X12.45027 Y52.07953 I2.00799 J0.60654
G3 X14.44732 Y48.68286 I8.11679 J2.4868
G3 X19.74613 Y46.39358 I5.28399 J4.95342
G3 X25.62292 Y48.87997 I0.06929 J8.02458
G3 X27.73478 Y52.17951 I-6.40273 J6.42366
G3 X27.73983 Y52.19343 I-1.96923 J0.72254
G3 X28.41691 Y55.82138 I-10.89499 J3.91046
G3 X28.36231 Y58.96989 I-27.33713 J1.10064
G3 X27.97179 Y61.52064 I-16.60974 J-1.23764
G1 X27.97177 Y61.52074
G3 X27.28217 Y63.53677 I-10.38389 J-2.42595
G3 X24.90382 Y66.40313 I-6.23624 J-2.75458
G3 X24.8297 Y66.45174 I-1.18699 J-1.72944
G3 X21.22185 Y67.45934 I-3.51151 J-5.61043
G3 X16.81353 Y66.23505 I-0.1527 J-7.99883
G3 X16.75978 Y66.20012 I1.11578 J-1.77622
G3 X13.79349 Y62.96239 I5.19925 J-7.741
G3 X13.4826 Y62.37655 I12.66724 J-7.09778
G1 F300.0 X14.01673 Y62.10854
G3 F800.0 X12.53988 Y55.64108 I12.444 J-6.24394
G3 X13.01993 Y52.26025 I11.25311 J-0.12666
G3 X13.02165 Y52.25459 I1.43592 J0.43374
G3 X14.88074 Y49.0943 I7.54541 J2.31174
G3 X19.74809 Y46.99119 I4.85057 J4.54198
G3 X25.19566 Y49.29786 I0.06733 J7.42697
G3 X27.17375 Y52.38536 I-5.97547 J6.00577
G3 X27.17736 Y52.39531 I-1.4082 J0.51669
G3 X27.8196 Y55.84065 I-10.33252 J3.70858
G3 X27.76637 Y58.92532 I-26.73982 J1.08136
G3 X27.38986 Y61.38471 I-16.01381 J-1.19308
G1 X27.38984 Y61.38479
G3 X26.73716 Y63.29159 I-9.80196 J-2.29
G3 X24.56565 Y65.91042 I-5.69123 J-2.5094
G3 X24.51265 Y65.94518 I-0.84882 J-1.23673
G3 X21.22054 Y66.86165 I-3.19446 J-5.10387
G3 X17.13142 Y65.72901 I-0.15139 J-7.40113
G3 X17.09297 Y65.70403 I0.7979 J-1.27018
G3 X14.31582 Y62.67204 I4.86605 J-7.24491
G3 X14.01673 Y62.10854 I12.14491 J-6.80743
G1 F300.0 X12.85663 Y62.7158
G3 F800.0 X11.84891 Y60.17322 I11.57272 J-6.0577
G3 X11.32929 Y55.71501 I14.52957 J-3.95287
G2 X11.33013 Y55.68246 I-2.09882 J-0.07048
G3 X12.07429 Y51.47335 I13.67256 J0.24696
G3 X14.20038 Y48.05343 I8.82377 J3.1147
G2 X14.23338 Y48.01882 I-1.50311 J-1.46651
G3 X19.7322 Y45.65947 I5.42558 J5.05753
G2 X19.78453 Y45.65933 I0.02073 J-2.0999
G3 X23.45538 Y46.5234 I0.1164 J7.73498
G3 X26.3033 Y49.1015 I-4.10553 J7.39728
G2 X26.32348 Y49.13009 I1.72599 J-1.19622
G3 X28.15083 Y52.89005 I-10.01632 J7.19198
G3 X28.76136 Y57.17049 I-15.35445 J4.37384
G2 X28.7618 Y57.2025 I2.09996 J-0.01229
G3 X28.40782 Y61.21917 I-18.5299 J0.39094
G3 X27.09005 Y64.84216 I-12.52386 J-2.50406
G2 X27.07881 Y64.863 I1.84257 J1.00744
G3 X24.77719 Y67.3799 I-6.04513 J-3.21725
G3 X21.57968 Y68.21785 I-3.0696 J-5.19351
G2 X21.49786 Y68.21771 I-0.04453 J2.09953
G3 X17.08762 Y67.22317 I-0.16921 J-9.52534
G3 X13.76238 Y64.19857 I4.36267 J-8.1365
G2 X13.73326 Y64.15592 I-1.74871 J1.16276
G3 X12.85663 Y62.7158 I10.69609 J-7.49782
G1 F300.0 X12.32505 Y62.99405
G1 Z-3.0
G2 F800.0 X13.24195 Y64.50032 I12.1043 J-6.33595
G3 X13.26275 Y64.53078 I-1.22828 J0.86101
G2 X16.81225 Y67.75632 I8.18754 J-5.44411
G2 X21.50851 Y68.81762 I4.5164 J-9.06394
G3 X21.56696 Y68.81772 I0.02664 J1.49976
G2 X25.09402 Y67.88959 I0.14064 J-6.63133
G2 X27.60847 Y65.14489 I-4.06034 J-6.24383
G3 X27.6165 Y65.13001 I1.32415 J0.70472
G2 X28.9962 Y61.33667 I-11.73254 J-6.4149
G2 X29.36166 Y57.18984 I-18.76431 J-3.74324
G3 X29.36135 Y57.16698 I1.49967 J-0.03164
G2 X28.7275 Y52.72436 I-16.56497 J0.09691
G2 X26.81086 Y48.78015 I-12.42034 J3.59771
G3 X26.79644 Y48.75972 I1.21844 J-0.87487
G2 X23.73888 Y45.99454 I-7.4466 J5.16097
G2 X19.7755 Y45.0594 I-3.83794 J7.39978
G3 X19.73812 Y45.0595 I-0.02257 J-1.49983
G2 X13.79449 Y47.60971 I-0.07916 J8.01686
G3 X13.77092 Y47.63442 I-1.09722 J-1.02279
G2 X11.50776 Y51.27574 I7.12715 J6.95362
G2 X10.73022 Y55.67162 I13.49493 J4.65367
G3 X10.72962 Y55.69487 I-1.49976 J-0.02709
G2 X11.27049 Y60.33271 I15.64886 J0.52548
G2 X12.32505 Y62.99405 I13.15886 J-3.67461
G1 F300.0 X13.49611 Y62.40341
G3 F800.0 X11.94223 Y55.63963 I12.96462 J-6.53881
G3 X12.44786 Y52.08745 I11.85076 J-0.12521
G3 X12.45027 Y52.07953 I2.00799 J0.60654
G3 X14.44732 Y48.68286 I8.11679 J2.4868
G3 X19.74613 Y46.39358 I5.28399 J4.95342
G3 X25.62292 Y48.87997 I0.06929 J8.02458
G3 X27.73478 Y52.17951 I-6.40273 J6.42366
G3 X27.73983 Y52.19343 I-1.96923 J0.72254
G3 X28.41691 Y55.82138 I-10.89499 J3.91046
G3 X28.36231 Y58.96989 I-27.33713 J1.10064
G3 X27.97179 Y61.52064 I-16.60974 J-1.23764
G1 X27.97177 Y61.52074
G3 X27.28217 Y63.53677 I-10.38389 J-2.42595
G3 X24.90382 Y66.40313 I-6.23624 J-2.75458
G3 X24.8297 Y66.45174 I-1.18699 J-1.72944
G3 X21.22185 Y67.45934 I-3.51151 J-5.61043
G3 X16.81353 Y66.23505 I-0.1527 J-7.99883
G3 X16.75978 Y66.20012 I1.11578 J-1.77622
G3 X13.79349 Y62.96239 I5.19925 J-7.741
G3 X13.49611 Y62.40341 I12.66724 J-7.09778
G1 F300.0 X14.02969 Y62.1343
G3 F800.0 X12.53988 Y55.64108 I12.43105 J-6.2697
G3 X13.01993 Y52.26025 I11.25311 J-0.12666
G3 X13.02165 Y52.25459 I1.43592 J0.43374
G3 X14.88074 Y49.0943 I7.54541 J2.31174
G3 X19.74809 Y46.99119 I4.85057 J4.54198
G3 X25.19566 Y49.29786 I0.06733 J7.42697
G3 X27.17375 Y52.38536 I-5.97547 J6.00577
G3 X27.17736 Y52.39531 I-1.4082 J0.51669
G3 X27.8196 Y55.84065 I-10.33252 J3.70858
G3 X27.76637 Y58.92532 I-26.73982 J1.08136
G3 X27.38986 Y61.38471 I-16.01381 J-1.19308
G1 X27.38984 Y61.38479
G3 X26.73716 Y63.29159 I-9.80196 J-2.29
G3 X24.56565 Y65.91042 I-5.69123 J-2.5094
G3 X24.51265 Y65.94518 I-0.84882 J-1.23673
G3 X21.22054 Y66.86165 I-3.19446 J-5.10387
G3 X17.13142 Y65.72901 I-0.15139 J-7.40113
G3 X17.09297 Y65.70403 I0.7979 J-1.27018
G3 X14.31582 Y62.67204 I4.86605 J-7.24491
G3 X14.02969 Y62.1343 I12.14491 J-6.80743
G1 F300.0 X12.87152 Y62.74416
G3 F800.0 X11.84891 Y60.17322 I11.55783 J-6.08607
G3 X11.32929 Y55.71501 I14.52957 J-3.95287
G2 X11.33013 Y55.68246 I-2.09882 J-0.07048
G3 X12.07429 Y51.47335 I13.67256 J0.24696
G3 X14.20038 Y48.05343 I8.82377 J3.1147
G2 X14.23338 Y48.01882 I-1.50311 J-1.46651
G3 X19.7322 Y45.65947 I5.42558 J5.05753
G2 X19.78453 Y45.65933 I0.02073 J-2.0999
G3 X23.45538 Y46.5234 I0.1164 J7.73498
G3 X26.3033 Y49.1015 I-4.10553 J7.39728
G2 X26.32348 Y49.13009 I1.72599 J-1.19622
G3 X28.15083 Y52.89005 I-10.01632 J7.19198
G3 X28.76136 Y57.17049 I-15.35445 J4.37384
G2 X28.7618 Y57.2025 I2.09996 J-0.01229
G3 X28.40782 Y61.21917 I-18.5299 J0.39094
G3 X27.09005 Y64.84216 I-12.52386 J-2.50406
G2 X27.07881 Y64.863 I1.84257 J1.00744
G3 X24.77719 Y67.3799 I-6.04513 J-3.21725
G3 X21.57968 Y68.21785 I-3.0696 J-5.19351
G2 X21.49786 Y68.21771 I-0.04453 J2.09953
G3 X17.08762 Y67.22317 I-0.16921 J-9.52534
G3 X13.76238 Y64.19857 I4.36267 J-8.1365
G2 X13.73326 Y64.15592 I-1.74871 J1.16276
G3 X12.87152 Y62.74416 I10.69609 J-7.49782
G0 Z3.0
G0 X-9.75713 Y64.09235
G0 Z1.0
G1 F300.0 Z-1.5
G3 F800.0 X-10.05131 Y64.09288 I-0.15302 J-3.29645
G3 X-9.87226 Y64.68816 I-309.23382 J93.33559
G2 X-9.75713 Y64.09235 I-168.95038 J-32.95416
G1 F300.0 X-9.78496 Y63.49299
G3 F800.0 X-10.91889 Y63.30039 I-0.1252 J-2.6971
G3 X-9.85796 Y66.84888 I-308.36624 J94.12808
G3 X-9.83888 Y66.91739 I-2.59126 J0.75855
G2 X-9.77138 Y67.13051 I2.2375 J-0.59147
G2 X-9.67838 Y66.76815 I-3.14481 J-1.00024
G3 X-9.67326 Y66.74282 I2.64908 J0.52189
G2 X-9.00443 Y63.33945 I-169.14937 J-35.00882
G3 X-9.78496 Y63.49299 I-0.90573 J-2.54355
G0 Z3.0
G0 X-17.93826 Y47.57639
G0 Z1.0
G1 F300.0 Z-1.5
G1 F800.0 X-18.15689 Y46.98236
G3 X-18.20565 Y46.8373 I2.53384 J-0.93255
G2 X-18.30408 Y46.68706 I-0.30652 J0.09346
G3 X-18.47242 Y46.53044 I1.7533 J-2.05328
G2 X-18.92691 Y47.71489 I16.35809 J6.95615
G3 X-17.93826 Y47.57639 I0.86245 J2.55855
G0 Z3.0
G0 X-4.09604 Y46.23414
G0 Z1.0
G1 F300.0 Z-1.5
G3 F800.0 X-3.59739 Y46.20856 I0.38705 J2.67211
G2 X-3.83527 Y45.85536 I-12.28231 J8.01561
G2 X-4.09604 Y46.23414 I2.91881 J2.28859
G1 F300.0 X-5.12474 Y45.61625
G2 F800.0 X-5.30914 Y45.95234 I4.20827 J2.5277
G3 X-5.30965 Y45.95336 I-1.34222 J-0.66966
G2 X-6.07451 Y47.85983 I11.21455 J5.60584
G3 X-6.07679 Y47.86715 I-1.43322 J-0.44259
G2 X-6.63855 Y49.961 I24.33053 J7.64988
G2 X-7.61779 Y55.55085 I69.05025 J14.97704
G3 X-7.62065 Y55.57114 I-1.4867 J-0.19929
G1 X-8.42632 Y61.01548
G3 X-11.2885 Y61.38765 I-1.48384 J-0.21958
G1 X-13.29045 Y56.72456
G3 X-13.3198 Y56.6509 I1.37834 J-0.59175
G1 X-17.03074 Y46.56789
G3 X-17.05783 Y46.4873 I1.40769 J-0.51808
G2 X-17.52484 Y45.7745 I-1.45435 J0.44346
G3 X-17.90772 Y45.2731 I0.97406 J-1.14071
G2 X-18.76942 Y44.67267 I-0.95286 J0.44894
G2 X-19.4624 Y45.79713 I3.35595 J2.84395
G3 X-19.47103 Y45.81706 I-1.38066 J-0.58634
G2 X-20.34097 Y48.2077 I17.3567 J7.66954
G3 X-20.34352 Y48.21642 I-1.44079 J-0.41729
G2 X-21.01979 Y50.77299 I43.18147 J12.79028
G2 X-22.75326 Y60.88798 I116.97221 J25.25225
G3 X-22.76005 Y60.93523 I-1.48795 J-0.18974
G1 X-23.34545 Y64.59401
G2 X-23.64476 Y68.07318 I25.28922 J3.92805
G3 X-23.64521 Y68.09213 I-1.49977 J-0.02631
G2 X-23.4197 Y68.62869 I0.70075 J0.02115
G3 X-23.40315 Y68.64419 I-1.01682 J1.10276
G2 X-22.70603 Y68.91529 I0.67917 J-0.71458
G3 X-22.60892 Y68.91666 I0.02732 J1.49975
G2 X-22.16722 Y68.77786 I0.03132 J-0.67249
G2 X-21.8621 Y68.13451 I-0.99808 J-0.8674
G3 X-21.85302 Y68.08639 I1.47831 J0.25416
G2 X-21.36595 Y64.70015 I-27.91685 J-5.74359
G3 X-21.36334 Y64.67195 I1.49486 J0.12406
G1 X-20.99713 Y61.08308
G3 X-20.9921 Y61.03993 I1.49225 J0.15227
G1 X-19.55167 Y50.07801
G3 X-16.65121 Y49.7707 I1.48722 J0.19542
G3 X-11.00963 Y67.18601 I-302.63392 J107.65777
G3 X-10.99903 Y67.22407 I-1.43959 J0.42141
G2 X-10.35753 Y68.50636 I3.39765 J-0.89815
G2 X-9.66852 Y68.81762 I0.67316 J-0.57188
G3 X-9.64123 Y68.81738 I0.02692 J1.49976
G2 X-9.09278 Y68.50403 I0.00016 J-0.63636
G3 X-9.07933 Y68.48164 I1.2924 J0.76139
G2 X-8.50101 Y67.0001 I-3.83686 J-2.35136
G3 X-8.49817 Y66.98603 I1.47171 J0.28994
G2 X-6.92495 Y58.27296 I-170.32447 J-35.25202
G3 X-5.17744 Y48.60024 I181.89226 J27.86717
G3 X-2.26025 Y48.51744 I1.46845 J0.30601
G1 X-0.47803 Y55.15806
G3 X-0.46709 Y55.20138 I-1.44873 J0.38881
G1 X2.68232 Y68.50704
G3 X2.69332 Y68.55733 I-1.45967 J0.3455
G2 X2.79976 Y68.7431 I0.33144 J-0.06653
G2 X3.26083 Y68.84306 I0.42269 J-0.83638
G3 X3.33974 Y68.8419 I0.06143 J1.49874
G2 X4.06252 Y68.55477 I0.01192 J-1.02328
G3 X4.1311 Y68.49252 I1.04197 J1.07902
G2 X4.35582 Y68.07889 I-0.42574 J-0.49916
G2 X4.16526 Y67.22728 I-12.72237 J2.3997
G3 X4.15994 Y67.20615 I1.45193 J-0.3767
G2 X-0.79291 Y49.3116 I-293.83145 J71.69383
G2 X-2.86426 Y45.14987 I-15.08679 J4.91256
G3 X-2.92414 Y45.05685 I1.23047 J-0.85788
G2 X-3.88291 Y44.52111 I-0.94062 J0.55756
G2 X-4.61943 Y44.91822 I0.08004 J1.03002
G3 X-4.66087 Y44.96933 I-1.18557 J-0.91892
G2 X-5.12474 Y45.61625 I3.7444 J3.17462
G1 F300.0 X-4.09604 Y46.23414
G1 Z-3.0
G3 F800.0 X-3.59739 Y46.20856 I0.38705 J2.67211
G2 X-3.83527 Y45.85536 I-12.28231 J8.01561
G2 X-4.09604 Y46.23414 I2.91881 J2.28859
G0 Z3.0
G0 X-17.93826 Y47.57639
G0 Z-0.5
G1 F300.0 Z-3.0
G1 F800.0 X-18.15689 Y46.98236
G3 X-18.20565 Y46.8373 I2.53384 J-0.93255
G2 X-18.30408 Y46.68706 I-0.30652 J0.09346
G3 X-18.47242 Y46.53044 I1.7533 J-2.05328
G2 X-18.92691 Y47.71489 I16.35809 J6.95615
G3 X-17.93826 Y47.57639 I0.86245 J2.55855
G0 Z3.0
G0 X-10.05131 Y64.09288
G0 Z-0.5
G1 F300.0 Z-3.0
G3 F800.0 X-9.87226 Y64.68816 I-309.23382 J93.33559
G2 X-9.75713 Y64.09235 I-168.95038 J-32.95416
G3 X-10.05131 Y64.09288 I-0.15302 J-3.29645
G1 F300.0 X-10.62571 Y64.26625
G3 F800.0 X-9.85796 Y66.84888 I-308.65941 J93.16222
G3 X-9.83888 Y66.91739 I-2.59126 J0.75855
G2 X-9.77138 Y67.13051 I2.2375 J-0.59147
G2 X-9.67838 Y66.76815 I-3.14481 J-1.00024
G3 X-9.67326 Y66.74282 I2.64908 J0.52189
G2 X-9.00443 Y63.33945 I-169.14937 J-35.00882
G3 X-10.91889 Y63.30039 I-0.90573 J-2.54355
G3 X-10.62571 Y64.26625 I-308.36624 J94.12808
G1 F300.0 X-11.77452 Y64.61299
G3 F800.0 X-11.00963 Y67.18601 I-307.5106 J92.81547
G3 X-10.99903 Y67.22407 I-1.43959 J0.42141
G2 X-10.35753 Y68.50636 I3.39765 J-0.89815
G2 X-9.66852 Y68.81762 I0.67316 J-0.57188
G3 X-9.64123 Y68.81738 I0.02692 J1.49976
G2 X-9.09278 Y68.50403 I0.00016 J-0.63636
G3 X-9.07933 Y68.48164 I1.2924 J0.76139
G2 X-8.50101 Y67.0001 I-3.83686 J-2.35136
G3 X-8.49817 Y66.98603 I1.47171 J0.28994
G2 X-6.92495 Y58.27296 I-170.32447 J-35.25202
G3 X-5.17744 Y48.60024 I181.89226 J27.86717
G3 X-2.26025 Y48.51744 I1.46845 J0.30601
G1 X-0.47803 Y55.15806
G3 X-0.46709 Y55.20138 I-1.44873 J0.38881
G1 X2.68232 Y68.50704
G3 X2.69332 Y68.55733 I-1.45967 J0.3455
G2 X2.79976 Y68.7431 I0.33144 J-0.06653
G2 X3.26083 Y68.84306 I0.42269 J-0.83638
G3 X3.33974 Y68.8419 I0.06143 J1.49874
G2 X4.06252 Y68.55477 I0.01192 J-1.02328
G3 X4.1311 Y68.49252 I1.04197 J1.07902
G2 X4.35582 Y68.07889 I-0.42574 J-0.49916
G2 X4.16526 Y67.22728 I-12.72237 J2.3997
G3 X4.15994 Y67.20615 I1.45193 J-0.3767
G2 X-0.79291 Y49.3116 I-293.83145 J71.69383
G2 X-2.86426 Y45.14987 I-15.08679 J4.91256
G3 X-2.92414 Y45.05685 I1.23047 J-0.85788
G2 X-3.88291 Y44.52111 I-0.94062 J0.55756
G2 X-4.61943 Y44.91822 I0.08004 J1.03002
G3 X-4.66087 Y44.96933 I-1.18557 J-0.91892
G2 X-5.30914 Y45.95234 I3.7444 J3.17462
G3 X-5.30965 Y45.95336 I-1.34222 J-0.66966
G2 X-6.07451 Y47.85983 I11.21455 J5.60584
G3 X-6.07679 Y47.86715 I-1.43322 J-0.44259
G2 X-6.63855 Y49.961 I24.33053 J7.64988
G2 X-7.61779 Y55.55085 I69.05025 J14.97704
G3 X-7.62065 Y55.57114 I-1.4867 J-0.19929
G1 X-8.42632 Y61.01548
G3 X-11.2885 Y61.38765 I-1.48384 J-0.21958
G1 X-13.29045 Y56.72456
G3 X-13.3198 Y56.6509 I1.37834 J-0.59175
G1 X-17.03074 Y46.56789
G3 X-17.05783 Y46.4873 I1.40769 J-0.51808
G2 X-17.52484 Y45.7745 I-1.45435 J0.44346
G3 X-17.90772 Y45.2731 I0.97406 J-1.14071
G2 X-18.76942 Y44.67267 I-0.95286 J0.44894
G2 X-19.4624 Y45.79713 I3.35595 J2.84395
G3 X-19.47103 Y45.81706 I-1.38066 J-0.58634
G2 X-20.34097 Y48.2077 I17.3567 J7.66954
G3 X-20.34352 Y48.21642 I-1.44079 J-0.41729
G2 X-21.01979 Y50.77299 I43.18147 J12.79028
G2 X-22.75326 Y60.88798 I116.97221 J25.25225
G3 X-22.76005 Y60.93523 I-1.48795 J-0.18974
G1 X-23.34545 Y64.59401
G2 X-23.64476 Y68.07318 I25.28922 J3.92805
G3 X-23.64521 Y68.09213 I-1.49977 J-0.02631
G2 X-23.4197 Y68.62869 I0.70075 J0.02115
G3 X-23.40315 Y68.64419 I-1.01682 J1.10276
G2 X-22.70603 Y68.91529 I0.67917 J-0.71458
G3 X-22.60892 Y68.91666 I0.02732 J1.49975
G2 X-22.16722 Y68.77786 I0.03132 J-0.67249
G2 X-21.8621 Y68.13451 I-0.99808 J-0.8674
G3 X-21.85302 Y68.08639 I1.47831 J0.25416
G2 X-21.36595 Y64.70015 I-27.91685 J-5.74359
G3 X-21.36334 Y64.67195 I1.49486 J0.12406
G1 X-20.99713 Y61.08308
G3 X-20.9921 Y61.03993 I1.49225 J0.15227
G1 X-19.55167 Y50.07801
G3 X-16.65121 Y49.7707 I1.48722 J0.19542
G3 X-11.77452 Y64.61299 I-302.63392 J107.65777
G0 Z3.0
G0 X40.92732 Y61.84181
G0 Z1.0
G1 F300.0 Z-1.5
G3 F800.0 X41.32464 Y61.69211 I1.35979 J3.00682
G3 X41.1985 Y61.47639 I20.85269 J-12.3384
G3 X40.92393 Y61.00991 I62.59158 J-37.15502
G1 X40.92732 Y61.84181
G1 F300.0 X41.17456 Y62.38851
G3 F800.0 X42.31172 Y62.14874 I1.11255 J2.46013
G3 X41.71625 Y61.17316 I19.86561 J-12.79503
G3 X40.31451 Y58.70257 I62.07383 J-36.85179
G1 X40.33199 Y62.98651
G3 X41.17456 Y62.38851 I1.95512 J1.86213
G1 F300.0 X41.66902 Y63.4819
G3 F800.0 X43.49414 Y63.95808 I0.61808 J1.36674
G2 X45.26753 Y65.98944 I13.23768 J-9.76686
G3 X45.26908 Y65.99094 I-1.04533 J1.07578
G2 X47.32197 Y67.56074 I7.55479 J-7.75249
G3 X47.32941 Y67.56516 I-0.7624 J1.2918
G2 X51.41851 Y68.69531 I4.09197 J-6.84287
G3 X51.45231 Y68.69571 I-0.00054 J1.5
G2 X54.02705 Y68.25539 I0.15647 J-6.83308
G2 X55.67673 Y66.82364 I-1.22475 J-3.07743
G2 X56.14125 Y65.67666 I-4.53288 J-2.50333
G3 X56.14178 Y65.67471 I1.44763 J0.39291
G2 X56.54338 Y63.54711 I-13.09936 J-3.57433
G3 X56.5442 Y63.53961 I1.49146 J0.15982
G2 X56.70575 Y61.26368 I-27.71528 J-3.11094
G3 X56.70639 Y61.24582 I1.49933 J0.04491
G1 X56.9017 Y56.58274
G3 X56.90728 Y56.50194 I1.49869 J0.06277
G1 X57.39556 Y51.42381
G3 X57.39834 Y51.39733 I1.49311 J0.14357
G3 X58.25282 Y46.22021 I52.19501 J5.95564
G3 X58.26466 Y46.16983 I1.46593 J0.31787
G2 X58.31684 Y45.79388 I-1.67397 J-0.42394
G2 X58.09814 Y45.30046 I-0.63826 J-0.01228
G3 X58.05061 Y45.25718 I0.98585 J-1.13053
G2 X57.35349 Y44.98608 I-0.67917 J0.71458
G3 X57.26788 Y44.9852 I-0.02732 J-1.49975
G2 X56.83814 Y45.11644 I-0.02653 J0.6823
G2 X56.51149 Y45.70314 I0.91876 J0.89582
G3 X56.51075 Y45.7061 I-1.45583 J-0.36134
G2 X55.52098 Y51.19697 I40.43368 J10.12312
G3 X55.51692 Y51.22997 I-1.49071 J-0.1667
G2 X55.09094 Y56.84732 I48.29531 J6.48722
G2 X55.13771 Y58.69171 I56.96397 J-0.52163
G3 X55.21267 Y60.67199 I-41.04899 J2.5455
G3 X54.8695 Y63.77544 I-11.93014 J0.25149
G3 X54.86905 Y63.77728 I-1.45653 J-0.3585
G3 X53.9043 Y65.67694 I-4.58885 J-1.13564
G3 X53.87085 Y65.71553 I-1.14995 J-0.96312
G3 X51.40156 Y66.78811 I-2.40474 J-2.15752
G3 X47.61449 Y65.82505 I-0.00141 J-7.92195
G3 X47.5996 Y65.81684 I0.7168 J-1.31765
G3 X44.72884 Y63.44695 I5.05608 J-9.04837
G3 X44.70767 Y63.42125 I1.14714 J-0.96648
G3 X42.75179 Y60.56678 I17.46965 J-14.06754
G3 X41.13408 Y57.69244 I61.03829 J-36.24541
G3 X40.95801 Y56.98328 I1.32393 J-0.70513
G2 X40.86555 Y51.51602 I-139.52141 J-0.37481
G2 X40.69615 Y48.83144 I-51.79726 J1.92088
G2 X40.53886 Y47.55149 I-19.86084 J1.79101
G3 X40.53421 Y47.51937 I1.48211 J-0.231
G2 X40.28547 Y46.5378 I-4.36534 J0.58392
G2 X39.93659 Y46.0658 I-1.19289 J0.51678
G2 X39.58821 Y45.96247 I-0.33438 J0.48845
G3 X39.53898 Y45.96283 I-0.03548 J-1.49958
G2 X38.81843 Y46.24304 I-0.00956 J1.04195
G3 X38.76832 Y46.28776 I-1.02351 J-1.09656
G2 X38.53908 Y46.74926 I0.42574 J0.49916
G2 X38.68066 Y47.40599 I3.04984 J-0.31389
G3 X38.7285 Y47.58575 I-1.42285 J0.47487
G3 X38.95866 Y49.59733 I-11.81519 J2.37082
G3 X39.02599 Y51.41153 I-62.21385 J3.21728
G3 X39.02606 Y51.41491 I-1.49962 J0.03378
G1 X39.0993 Y55.02819
G3 X39.0996 Y55.05247 I-1.49969 J0.0304
G1 X39.17266 Y72.95335
G3 X39.3434 Y77.04774 I-101.65231 J6.28975
G3 X39.34373 Y77.07186 I-1.49965 J0.03233
G3 X39.06937 Y79.72395 I-12.30361 J0.06743
G2 X38.87988 Y81.73969 I10.36677 J1.99131
G3 X38.8792 Y81.78842 I-1.5 J0.00347
G2 X39.10471 Y82.32498 I0.70075 J0.02115
G3 X39.13639 Y82.35505 I-1.01682 J1.10276
G2 X39.78722 Y82.61172 I0.63035 J-0.64489
G3 X39.90149 Y82.61347 I0.03407 J1.49961
G2 X40.396 Y82.46174 I0.0402 J-0.75067
G2 X40.67394 Y81.7997 I-0.97647 J-0.79932
G3 X40.68709 Y81.70662 I1.4911 J0.16319
G2 X41.05565 Y77.6834 I-24.80087 J-4.30045
G2 X40.88769 Y72.43744 I-86.07055 J0.13002
G3 X40.88702 Y72.42596 I1.49707 J-0.09369
G3 X40.76276 Y66.9833 I84.93303 J-4.66186
G3 X40.76279 Y66.98003 I1.49994 J0.01377
G1 X40.78721 Y64.83159
G3 X41.66902 Y63.4819 I1.4999 J0.01704
G1 F300.0 X40.92732 Y61.84181
G1 Z-3.0
G3 F800.0 X41.32464 Y61.69211 I1.35979 J3.00682
G3 X41.1985 Y61.47639 I20.85269 J-12.3384
G3 X40.92393 Y61.00991 I62.59158 J-37.15502
G1 X40.92732 Y61.84181
G1 F300.0 X41.17456 Y62.38851
G3 F800.0 X42.31172 Y62.14874 I1.11255 J2.46013
G3 X41.71625 Y61.17316 I19.86561 J-12.79503
G3 X40.31451 Y58.70257 I62.07383 J-36.85179
G1 X40.33199 Y62.98651
G3 X41.17456 Y62.38851 I1.95512 J1.86213
G1 F300.0 X41.66902 Y63.4819
G3 F800.0 X43.49414 Y63.95808 I0.61808 J1.36674
G2 X45.26753 Y65.98944 I13.23768 J-9.76686
G3 X45.26908 Y65.99094 I-1.04533 J1.07578
G2 X47.32197 Y67.56074 I7.55479 J-7.75249
G3 X47.32941 Y67.56516 I-0.7624 J1.2918
G2 X51.41851 Y68.69531 I4.09197 J-6.84287
G3 X51.45231 Y68.69571 I-0.00054 J1.5
G2 X54.02705 Y68.25539 I0.15647 J-6.83308
G2 X55.67673 Y66.82364 I-1.22475 J-3.07743
G2 X56.14125 Y65.67666 I-4.53288 J-2.50333
G3 X56.14178 Y65.67471 I1.44763 J0.39291
G2 X56.54338 Y63.54711 I-13.09936 J-3.57433
G3 X56.5442 Y63.53961 I1.49146 J0.15982
G2 X56.70575 Y61.26368 I-27.71528 J-3.11094
G3 X56.70639 Y61.24582 I1.49933 J0.04491
G1 X56.9017 Y56.58274
G3 X56.90728 Y56.50194 I1.49869 J0.06277
G1 X57.39556 Y51.42381
G3 X57.39834 Y51.39733 I1.49311 J0.14357
G3 X58.25282 Y46.22021 I52.19501 J5.95564
G3 X58.26466 Y46.16983 I1.46593 J0.31787
G2 X58.31684 Y45.79388 I-1.67397 J-0.42394
G2 X58.09814 Y45.30046 I-0.63826 J-0.01228
G3 X58.05061 Y45.25718 I0.98585 J-1.13053
G2 X57.35349 Y44.98608 I-0.67917 J0.71458
G3 X57.26788 Y44.9852 I-0.02732 J-1.49975
G2 X56.83814 Y45.11644 I-0.02653 J0.6823
G2 X56.51149 Y45.70314 I0.91876 J0.89582
G3 X56.51075 Y45.7061 I-1.45583 J-0.36134
G2 X55.52098 Y51.19697 I40.43368 J10.12312
G3 X55.51692 Y51.22997 I-1.49071 J-0.1667
G2 X55.09094 Y56.84732 I48.29531 J6.48722
G2 X55.13771 Y58.69171 I56.96397 J-0.52163
G3 X55.21267 Y60.67199 I-41.04899 J2.5455
G3 X54.8695 Y63.77544 I-11.93014 J0.25149
G3 X54.86905 Y63.77728 I-1.45653 J-0.3585
G3 X53.9043 Y65.67694 I-4.58885 J-1.13564
G3 X53.87085 Y65.71553 I-1.14995 J-0.96312
G3 X51.40156 Y66.78811 I-2.40474 J-2.15752
G3 X47.61449 Y65.82505 I-0.00141 J-7.92195
G3 X47.5996 Y65.81684 I0.7168 J-1.31765
G3 X44.72884 Y63.44695 I5.05608 J-9.04837
G3 X44.70767 Y63.42125 I1.14714 J-0.96648
G3 X42.75179 Y60.56678 I17.46965 J-14.06754
G3 X41.13408 Y57.69244 I61.03829 J-36.24541
G3 X40.95801 Y56.98328 I1.32393 J-0.70513
G2 X40.86555 Y51.51602 I-139.52141 J-0.37481
G2 X40.69615 Y48.83144 I-51.79726 J1.92088
G2 X40.53886 Y47.55149 I-19.86084 J1.79101
G3 X40.53421 Y47.51937 I1.48211 J-0.231
G2 X40.28547 Y46.5378 I-4.36534 J0.58392
G2 X39.93659 Y46.0658 I-1.19289 J0.51678
G2 X39.58821 Y45.96247 I-0.33438 J0.48845
G3 X39.53898 Y45.96283 I-0.03548 J-1.49958
G2 X38.81843 Y46.24304 I-0.00956 J1.04195
G3 X38.76832 Y46.28776 I-1.02351 J-1.09656
G2 X38.53908 Y46.74926 I0.42574 J0.49916
G2 X38.68066 Y47.40599 I3.04984 J-0.31389
G3 X38.7285 Y47.58575 I-1.42285 J0.47487
G3 X38.95866 Y49.59733 I-11.81519 J2.37082
G3 X39.02599 Y51.41153 I-62.21385 J3.21728
G3 X39.02606 Y51.41491 I-1.49962 J0.03378
G1 X39.0993 Y55.02819
G3 X39.0996 Y55.05247 I-1.49969 J0.0304
G1 X39.17266 Y72.95335
G3 X39.3434 Y77.04774 I-101.65231 J6.28975
G3 X39.34373 Y77.07186 I-1.49965 J0.03233
G3 X39.06937 Y79.72395 I-12.30361 J0.06743
G2 X38.87988 Y81.73969 I10.36677 J1.99131
G3 X38.8792 Y81.78842 I-1.5 J0.00347
G2 X39.10471 Y82.32498 I0.70075 J0.02115
G3 X39.13639 Y82.35505 I-1.01682 J1.10276
G2 X39.78722 Y82.61172 I0.63035 J-0.64489
G3 X39.90149 Y82.61347 I0.03407 J1.49961
G2 X40.396 Y82.46174 I0.0402 J-0.75067
G2 X40.67394 Y81.7997 I-0.97647 J-0.79932
G3 X40.68709 Y81.70662 I1.4911 J0.16319
G2 X41.05565 Y77.6834 I-24.80087 J-4.30045
G2 X40.88769 Y72.43744 I-86.07055 J0.13002
G3 X40.88702 Y72.42596 I1.49707 J-0.09369
G3 X40.76276 Y66.9833 I84.93303 J-4.66186
G3 X40.76279 Y66.98003 I1.49994 J0.01377
G1 X40.78721 Y64.83159
G3 X41.66902 Y63.4819 I1.4999 J0.01704
G0 Z3.0
G0 X69.35887 Y62.45213
G0 Z1.0
G1 F300.0 Z-1.5
G3 F800.0 X69.36803 Y62.70724 I-97.92425 J3.64173
G3 X69.88517 Y62.48993 I1.53236 J2.92265
G3 X69.31448 Y61.40825 I19.23551 J-10.84002
G3 X69.35887 Y62.45213 I-97.87985 J4.68561
G1 F300.0 X68.75929 Y62.47443
G3 F800.0 X68.80253 Y63.93018 I-97.32466 J3.61943
G3 X70.84165 Y62.93052 I2.09786 J1.6997
G3 X69.52978 Y60.4574 I18.27904 J-11.28062
G3 X68.46952 Y57.76197 I27.00251 J-12.17788
G3 X68.75929 Y62.47443 I-97.03489 J8.33189
G1 F300.0 X67.56012 Y62.51903
G3 F800.0 X67.61505 Y64.6057 I-96.12549 J3.57483
G3 X67.61508 Y64.65056 I-1.49982 J0.02321
G3 X67.51485 Y67.03958 I-43.48471 J-0.62771
G2 X67.44425 Y69.28369 I54.14175 J2.82651
G3 X67.44333 Y69.32251 I-1.49991 J-0.01611
G2 X67.67553 Y69.903 I0.77108 J0.02825
G3 X67.67643 Y69.90388 I-1.0476 J1.07356
G2 X68.32726 Y70.16054 I0.63035 J-0.64489
G3 X68.44043 Y70.16224 I0.03407 J1.49961
G2 X68.95958 Y69.88824 I0.03019 J-0.57163
G2 X69.32776 Y68.44336 I-3.0889 J-1.55644
G1 X69.40088 Y65.59143
G3 X72.11552 Y64.75041 I1.49951 J0.03845
G2 X75.39423 Y68.14115 I13.48976 J-9.7635
G2 X77.30818 Y69.21396 I4.92325 J-6.53966
G2 X79.32858 Y69.59864 I2.04034 J-5.21806
G3 X79.36721 Y69.59928 I-0.00534 J1.49999
G2 X81.81496 Y68.98269 I0.13573 J-4.62808
G2 X83.38135 Y67.08322 I-2.31332 J-3.50325
G3 X83.38544 Y67.07341 I1.38623 J0.57303
G2 X84.16744 Y64.13478 I-10.11255 J-4.2644
G3 X84.16988 Y64.11576 I1.48902 J0.1812
G2 X84.41504 Y60.85707 I-27.56358 J-3.71228
G1 Y58.41138
G1 X84.39071 Y56.14894
G3 X84.39105 Y56.09723 I1.49991 J-0.01613
G3 X84.9252 Y50.62853 I37.33195 J0.88594
G3 X84.92769 Y50.6145 I1.47812 J0.25526
G2 X85.44091 Y45.64559 I-31.70106 J-5.78524
G3 X85.44157 Y45.625 I1.49952 J0.038
G2 X85.2032 Y45.04139 I-0.7608 J-0.02974
G3 X85.17426 Y45.01334 I1.02923 J-1.09119
G2 X84.54667 Y44.76584 I-0.60055 J0.60337
G3 X84.41074 Y44.764 I-0.04765 J-1.49924
G2 X83.8988 Y44.92639 I-0.04416 J0.74895
G2 X83.62769 Y45.65895 I1.09433 J0.82144
G3 X83.61875 Y45.75176 I-1.49683 J-0.09743
G1 X82.93555 Y51.09537
G2 X82.60552 Y56.2482 I43.41397 J5.36756
G2 X82.67627 Y58.48785 I62.90629 J-0.86638
G3 X82.77612 Y60.8661 I-50.21833 J3.29949
G3 X82.77623 Y60.87336 I-1.49975 J0.02746
G3 X82.54232 Y64.05064 I-18.34146 J0.24693
G3 X81.94018 Y65.94677 I-6.62708 J-1.06081
G3 X81.93299 Y65.96123 I-1.34657 J-0.66087
G3 X81.02865 Y67.0802 I-3.04279 J-1.53422
G3 X81.00178 Y67.10136 I-0.9413 J-1.16788
G3 X79.30501 Y67.66688 I-1.6636 J-2.16319
G3 X79.29566 Y67.66674 I0.01823 J-1.49989
G3 X75.44463 Y66.35424 I0.12257 J-6.66562
G3 X72.89581 Y63.81615 I7.11628 J-9.6952
G3 X70.62397 Y59.96471 I16.22488 J-12.16625
G3 X69.13718 Y55.8487 I25.90832 J-11.68519
G3 X69.0857 Y55.53904 I1.44583 J-0.39948
G2 X68.87466 Y53.24104 I-36.38165 J2.18248
G3 X68.87433 Y53.2384 I1.48862 J-0.1844
G3 X68.7168 Y50.69161 I21.22896 J-2.5914
G3 X68.71721 Y50.6532 I1.5 J-0.00313
G3 X68.87228 Y48.32711 I27.07721 J0.63693
G1 X68.87229 Y48.32709
G2 X69.01018 Y46.25869 I-23.93225 J-2.63428
G3 X69.01095 Y46.23435 I1.49959 J0.03525
G2 X68.75216 Y45.55886 I-0.91592 J-0.03642
G2 X68.17208 Y45.32712 I-0.55184 J0.53946
G3 X68.05619 Y45.32688 I-0.05489 J-1.499
G2 X67.46662 Y45.55036 I-0.03269 J0.80317
G2 X67.22335 Y46.23258 I0.72388 J0.64261
G3 X67.22404 Y46.33516 I-1.49874 J0.06137
G3 X67.04327 Y48.66842 I-23.47832 J-0.64541
G2 X66.90749 Y50.69566 I23.93369 J2.62119
G2 X67.24341 Y57.51682 I98.80999 J-1.44731
G3 X67.56012 Y62.51903 I-95.80879 J8.57703
G1 F300.0 X69.35887 Y62.45213
G1 Z-3.0
G3 F800.0 X69.36803 Y62.70724 I-97.92425 J3.64173
G3 X69.88517 Y62.48993 I1.53236 J2.92265
G3 X69.31448 Y61.40825 I19.23551 J-10.84002
G3 X69.35887 Y62.45213 I-97.87985 J4.68561
G1 F300.0 X68.75929 Y62.47443
G3 F800.0 X68.80253 Y63.93018 I-97.32466 J3.61943
G3 X70.84165 Y62.93052 I2.09786 J1.6997
G3 X69.52978 Y60.4574 I18.27904 J-11.28062
G3 X68.46952 Y57.76197 I27.00251 J-12.17788
G3 X68.75929 Y62.47443 I-97.03489 J8.33189
G1 F300.0 X67.56012 Y62.51903
G3 F800.0 X67.61505 Y64.6057 I-96.12549 J3.57483
G3 X67.61508 Y64.65056 I-1.49982 J0.02321
G3 X67.51485 Y67.03958 I-43.48471 J-0.62771
G2 X67.44425 Y69.28369 I54.14175 J2.82651
G3 X67.44333 Y69.32251 I-1.49991 J-0.01611
G2 X67.67553 Y69.903 I0.77108 J0.02825
G3 X67.67643 Y69.90388 I-1.0476 J1.07356
G2 X68.32726 Y70.16054 I0.63035 J-0.64489
G3 X68.44043 Y70.16224 I0.03407 J1.49961
G2 X68.95958 Y69.88824 I0.03019 J-0.57163
G2 X69.32776 Y68.44336 I-3.0889 J-1.55644
G1 X69.40088 Y65.59143
G3 X72.11552 Y64.75041 I1.49951 J0.03845
G2 X75.39423 Y68.14115 I13.48976 J-9.7635
G2 X77.30818 Y69.21396 I4.92325 J-6.53966
G2 X79.32858 Y69.59864 I2.04034 J-5.21806
G3 X79.36721 Y69.59928 I-0.00534 J1.49999
G2 X81.81496 Y68.98269 I0.13573 J-4.62808
G2 X83.38135 Y67.08322 I-2.31332 J-3.50325
G3 X83.38544 Y67.07341 I1.38623 J0.57303
G2 X84.16744 Y64.13478 I-10.11255 J-4.2644
G3 X84.16988 Y64.11576 I1.48902 J0.1812
G2 X84.41504 Y60.85707 I-27.56358 J-3.71228
G1 Y58.41138
G1 X84.39071 Y56.14894
G3 X84.39105 Y56.09723 I1.49991 J-0.01613
G3 X84.9252 Y50.62853 I37.33195 J0.88594
G3 X84.92769 Y50.6145 I1.47812 J0.25526
G2 X85.44091 Y45.64559 I-31.70106 J-5.78524
G3 X85.44157 Y45.625 I1.49952 J0.038
G2 X85.2032 Y45.04139 I-0.7608 J-0.02974
G3 X85.17426 Y45.01334 I1.02923 J-1.09119
G2 X84.54667 Y44.76584 I-0.60055 J0.60337
G3 X84.41074 Y44.764 I-0.04765 J-1.49924
G2 X83.8988 Y44.92639 I-0.04416 J0.74895
G2 X83.62769 Y45.65895 I1.09433 J0.82144
G3 X83.61875 Y45.75176 I-1.49683 J-0.09743
G1 X82.93555 Y51.09537
G2 X82.60552 Y56.2482 I43.41397 J5.36756
G2 X82.67627 Y58.48785 I62.90629 J-0.86638
G3 X82.77612 Y60.8661 I-50.21833 J3.29949
G3 X82.77623 Y60.87336 I-1.49975 J0.02746
G3 X82.54232 Y64.05064 I-18.34146 J0.24693
G3 X81.94018 Y65.94677 I-6.62708 J-1.06081
G3 X81.93299 Y65.96123 I-1.34657 J-0.66087
G3 X81.02865 Y67.0802 I-3.04279 J-1.53422
G3 X81.00178 Y67.10136 I-0.9413 J-1.16788
G3 X79.30501 Y67.66688 I-1.6636 J-2.16319
G3 X79.29566 Y67.66674 I0.01823 J-1.49989
G3 X75.44463 Y66.35424 I0.12257 J-6.66562
G3 X72.89581 Y63.81615 I7.11628 J-9.6952
G3 X70.62397 Y59.96471 I16.22488 J-12.16625
G3 X69.13718 Y55.8487 I25.90832 J-11.68519
G3 X69.0857 Y55.53904 I1.44583 J-0.39948
G2 X68.87466 Y53.24104 I-36.38165 J2.18248
G3 X68.87433 Y53.2384 I1.48862 J-0.1844
G3 X68.7168 Y50.69161 I21.22896 J-2.5914
G3 X68.71721 Y50.6532 I1.5 J-0.00313
G3 X68.87228 Y48.32711 I27.07721 J0.63693
G1 X68.87229 Y48.32709
G2 X69.01018 Y46.25869 I-23.93225 J-2.63428
G3 X69.01095 Y46.23435 I1.49959 J0.03525
G2 X68.75216 Y45.55886 I-0.91592 J-0.03642
G2 X68.17208 Y45.32712 I-0.55184 J0.53946
G3 X68.05619 Y45.32688 I-0.05489 J-1.499
G2 X67.46662 Y45.55036 I-0.03269 J0.80317
G2 X67.22335 Y46.23258 I0.72388 J0.64261
G3 X67.22404 Y46.33516 I-1.49874 J0.06137
G3 X67.04327 Y48.66842 I-23.47832 J-0.64541
G2 X66.90749 Y50.69566 I23.93369 J2.62119
G2 X67.24341 Y57.51682 I98.80999 J-1.44731
G3 X67.56012 Y62.51903 I-95.80879 J8.57703
G0 Z3.0
G0 X108.74195 Y47.6185
G0 Z1.0
G1 F300.0 Z-1.5
G3 F800.0 X109.23107 Y48.08837 I-1.61109 J2.16665
G3 X109.27751 Y47.15256 I31.32227 J1.08533
G3 X108.74195 Y47.6185 I-2.02458 J-1.78635
G1 F300.0 X108.08016 Y46.61748
G3 F800.0 X106.58228 Y46.70794 I-0.82723 J-1.25127
G2 X100.25103 Y45.27901 I-6.06578 J12.13544
G3 X100.20892 Y45.27924 I-0.02935 J-1.49971
G2 X97.81341 Y45.54933 I-0.0851 J10.00374
G2 X95.75824 Y46.44182 I1.48118 J6.22325
G2 X93.65606 Y49.92464 I2.71051 J4.01186
G3 X93.64726 Y49.99098 I-1.49102 J-0.1639
G2 X92.713 Y61.28276 I78.3083 J12.16368
G2 X93.42131 Y68.63411 I44.49845 J-0.57771
G3 X93.43608 Y68.73523 I-1.476 J0.26726
G2 X93.708 Y69.38166 I1.23033 J-0.13712
G2 X94.18478 Y69.52752 I0.43809 J-0.57986
G3 X94.30531 Y69.52594 I0.07987 J1.49787
G2 X94.97945 Y69.26377 I0.02529 J-0.93281
G3 X94.99945 Y69.24478 I1.04301 J1.07802
G2 X95.23148 Y68.6882 I-0.49838 J-0.53443
G2 X94.88408 Y65.28701 I-28.02846 J1.1445
G3 X94.88138 Y65.26996 I1.48017 J-0.24307
G3 X94.52314 Y61.32928 I32.30049 J-4.92303
G3 X94.52249 Y61.29331 I1.49932 J-0.0451
G3 X94.7957 Y54.18321 I79.98349 J-0.48691
G3 X95.64983 Y49.24293 I26.13429 J1.9744
G3 X96.3712 Y48.32578 I1.44685 J0.39575
G3 X98.2279 Y47.52597 I4.99287 J9.03559
G3 X98.26993 Y47.51325 I0.45569 J1.42911
G3 X100.21509 Y47.23537 I1.97666 J6.88962
G3 X100.23755 Y47.23544 I0.00659 J1.49999
G3 X107.56123 Y48.34822 I-0.28035 J26.50152
G3 X108.63084 Y49.79255 I-0.43037 J1.43694
G1 X108.60643 Y54.7486
G3 X108.60637 Y54.75667 I-1.49998 J-0.00739
G1 X108.55756 Y59.4907
G2 X109.01266 Y68.47037 I77.72856 J0.56198
G3 X109.01816 Y68.53303 I-1.49118 J0.16244
G2 X109.27937 Y69.22148 I1.25913 J-0.08395
G2 X109.80235 Y69.38145 I0.4772 J-0.62523
G3 X109.93031 Y69.37946 I0.0873 J1.49746
G2 X110.60445 Y69.11729 I0.02529 J-0.93281
G3 X110.61671 Y69.10557 I1.04301 J1.07802
G2 X110.81108 Y68.60164 I-0.43104 J-0.45571
G3 X110.80834 Y68.55768 I1.49556 J-0.11531
G1 X110.36889 Y59.32916
G3 X110.36719 Y59.25454 I1.4983 J-0.07135
G3 X110.39164 Y53.97376 I1079.92604 J2.35921
G3 X110.39165 Y53.97222 I1.49996 J0.01061
G2 X110.41602 Y48.70921 I-757.02464 J-6.1363
G3 X110.41621 Y48.6867 I1.5 J0.00173
G3 X110.49329 Y46.96529 I30.13714 J0.48699
G3 X110.4964 Y46.92903 I1.49597 J0.1099
G2 X110.58727 Y45.40696 I-19.98993 J-1.95718
G3 X110.58782 Y45.38731 I1.49965 J0.03249
G2 X110.35589 Y44.82749 I-0.73029 J-0.0254
G3 X110.33041 Y44.80315 I1.02301 J-1.09702
G2 X109.67958 Y44.54649 I-0.63035 J0.64489
G3 X109.58505 Y44.54566 I-0.03407 J-1.49961
G2 X109.13516 Y44.72094 I-0.02431 J0.60261
G2 X108.72883 Y45.63404 I1.66912 J1.28973
G3 X108.08016 Y46.61748 I-1.4759 J-0.26783
G1 F300.0 X108.74195 Y47.6185
G1 Z-3.0
G3 F800.0 X109.23107 Y48.08837 I-1.61109 J2.16665
G3 X109.27751 Y47.15256 I31.32227 J1.08533
G3 X108.74195 Y47.6185 I-2.02458 J-1.78635
G1 F300.0 X108.08016 Y46.61748
G3 F800.0 X106.58228 Y46.70794 I-0.82723 J-1.25127
G2 X100.25103 Y45.27901 I-6.06578 J12.13544
G3 X100.20892 Y45.27924 I-0.02935 J-1.49971
G2 X97.81341 Y45.54933 I-0.0851 J10.00374
G2 X95.75824 Y46.44182 I1.48118 J6.22325
G2 X93.65606 Y49.92464 I2.71051 J4.01186
G3 X93.64726 Y49.99098 I-1.49102 J-0.1639
G2 X92.713 Y61.28276 I78.3083 J12.16368
G2 X93.42131 Y68.63411 I44.49845 J-0.57771
G3 X93.43608 Y68.73523 I-1.476 J0.26726
G2 X93.708 Y69.38166 I1.23033 J-0.13712
G2 X94.18478 Y69.52752 I0.43809 J-0.57986
G3 X94.30531 Y69.52594 I0.07987 J1.49787
G2 X94.97945 Y69.26377 I0.02529 J-0.93281
G3 X94.99945 Y69.24478 I1.04301 J1.07802
G2 X95.23148 Y68.6882 I-0.49838 J-0.53443
G2 X94.88408 Y65.28701 I-28.02846 J1.1445
G3 X94.88138 Y65.26996 I1.48017 J-0.24307
G3 X94.52314 Y61.32928 I32.30049 J-4.92303
G3 X94.52249 Y61.29331 I1.49932 J-0.0451
G3 X94.7957 Y54.18321 I79.98349 J-0.48691
G3 X95.64983 Y49.24293 I26.13429 J1.9744
G3 X96.3712 Y48.32578 I1.44685 J0.39575
G3 X98.2279 Y47.52597 I4.99287 J9.03559
G3 X98.26993 Y47.51325 I0.45569 J1.42911
G3 X100.21509 Y47.23537 I1.97666 J6.88962
G3 X100.23755 Y47.23544 I0.00659 J1.49999
G3 X107.56123 Y48.34822 I-0.28035 J26.50152
G3 X108.63084 Y49.79255 I-0.43037 J1.43694
G1 X108.60643 Y54.7486
G3 X108.60637 Y54.75667 I-1.49998 J-0.00739
G1 X108.55756 Y59.4907
G2 X109.01266 Y68.47037 I77.72856 J0.56198
G3 X109.01816 Y68.53303 I-1.49118 J0.16244
G2 X109.27937 Y69.22148 I1.25913 J-0.08395
G2 X109.80235 Y69.38145 I0.4772 J-0.62523
G3 X109.93031 Y69.37946 I0.0873 J1.49746
G2 X110.60445 Y69.11729 I0.02529 J-0.93281
G3 X110.61671 Y69.10557 I1.04301 J1.07802
G2 X110.81108 Y68.60164 I-0.43104 J-0.45571
G3 X110.80834 Y68.55768 I1.49556 J-0.11531
G1 X110.36889 Y59.32916
G3 X110.36719 Y59.25454 I1.4983 J-0.07135
G3 X110.39164 Y53.97376 I1079.92604 J2.35921
G3 X110.39165 Y53.97222 I1.49996 J0.01061
G2 X110.41602 Y48.70921 I-757.02464 J-6.1363
G3 X110.41621 Y48.6867 I1.5 J0.00173
G3 X110.49329 Y46.96529 I30.13714 J0.48699
G3 X110.4964 Y46.92903 I1.49597 J0.1099
G2 X110.58727 Y45.40696 I-19.98993 J-1.95718
G3 X110.58782 Y45.38731 I1.49965 J0.03249
G2 X110.35589 Y44.82749 I-0.73029 J-0.0254
G3 X110.33041 Y44.80315 I1.02301 J-1.09702
G2 X109.67958 Y44.54649 I-0.63035 J0.64489
G3 X109.58505 Y44.54566 I-0.03407 J-1.49961
G2 X109.13516 Y44.72094 I-0.02431 J0.60261
G2 X108.72883 Y45.63404 I1.66912 J1.28973
G3 X108.08016 Y46.61748 I-1.4759 J-0.26783
G0 Z3.0
G0 X121.48733 Y61.40825
G0 Z1.0
G1 F300.0 Z-1.5
G3 F800.0 X121.54088 Y62.70724 I-97.87985 J4.68561
G3 X122.05802 Y62.48993 I1.53236 J2.92265
G3 X121.48733 Y61.40825 I19.23551 J-10.84002
G1 F300.0 X120.88802 Y61.43694
G3 F800.0 X120.97538 Y63.93018 I-97.28054 J4.65692
G3 X123.0145 Y62.93052 I2.09786 J1.6997
G3 X121.70263 Y60.4574 I18.27904 J-11.28062
G3 X120.64237 Y57.76197 I27.00251 J-12.17788
G3 X120.88802 Y61.43694 I-97.03489 J8.33189
G1 F300.0 X119.68939 Y61.49432
G3 F800.0 X119.78791 Y64.6057 I-96.08191 J4.59954
G3 X119.78793 Y64.65056 I-1.49982 J0.02321
G3 X119.6877 Y67.03958 I-43.48471 J-0.62771
G2 X119.6171 Y69.28369 I54.14175 J2.82651
G3 X119.61618 Y69.32251 I-1.49991 J-0.01611
G2 X119.84838 Y69.903 I0.77108 J0.02825
G3 X119.84928 Y69.90388 I-1.0476 J1.07356
G2 X120.50011 Y70.16054 I0.63035 J-0.64489
G3 X120.61328 Y70.16224 I0.03407 J1.49961
G2 X121.13243 Y69.88824 I0.03019 J-0.57163
G2 X121.50061 Y68.44336 I-3.0889 J-1.55644
G1 X121.57374 Y65.59143
G3 X124.28837 Y64.75041 I1.49951 J0.03845
G2 X127.56708 Y68.14115 I13.48976 J-9.7635
G2 X129.48103 Y69.21396 I4.92325 J-6.53966
G2 X131.50143 Y69.59864 I2.04034 J-5.21806
G3 X131.54007 Y69.59928 I-0.00534 J1.49999
G2 X133.98781 Y68.98269 I0.13573 J-4.62808
G2 X135.5542 Y67.08322 I-2.31332 J-3.50325
G3 X135.55829 Y67.07341 I1.38623 J0.57303
G2 X136.34029 Y64.13478 I-10.11255 J-4.2644
G3 X136.34273 Y64.11576 I1.48902 J0.1812
G2 X136.58789 Y60.85707 I-27.56358 J-3.71228
G1 Y58.41138
G1 X136.56356 Y56.14894
G3 X136.5639 Y56.09723 I1.49991 J-0.01613
G3 X137.09805 Y50.62853 I37.33195 J0.88594
G3 X137.10054 Y50.6145 I1.47812 J0.25526
G2 X137.61376 Y45.64559 I-31.70106 J-5.78524
G3 X137.61443 Y45.625 I1.49952 J0.038
G2 X137.37605 Y45.04139 I-0.7608 J-0.02974
G3 X137.34711 Y45.01334 I1.02923 J-1.09119
G2 X136.71952 Y44.76584 I-0.60055 J0.60337
G3 X136.58359 Y44.764 I-0.04765 J-1.49924
G2 X136.07165 Y44.92639 I-0.04416 J0.74895
G2 X135.80054 Y45.65895 I1.09433 J0.82144
G3 X135.7916 Y45.75176 I-1.49683 J-0.09743
G1 X135.1084 Y51.09537
G2 X134.77837 Y56.2482 I43.41397 J5.36756
G2 X134.84912 Y58.48785 I62.90629 J-0.86638
G3 X134.94897 Y60.8661 I-50.21833 J3.29949
G3 X134.94908 Y60.87336 I-1.49975 J0.02746
G3 X134.71517 Y64.05064 I-18.34146 J0.24693
G3 X134.11303 Y65.94677 I-6.62708 J-1.06081
G3 X134.10584 Y65.96123 I-1.34657 J-0.66087
G3 X133.2015 Y67.0802 I-3.04279 J-1.53422
G3 X133.17463 Y67.10136 I-0.9413 J-1.16788
G3 X131.47787 Y67.66688 I-1.6636 J-2.16319
G3 X131.46852 Y67.66674 I0.01823 J-1.49989
G3 X127.61748 Y66.35424 I0.12257 J-6.66562
G3 X125.06866 Y63.81615 I7.11628 J-9.6952
G3 X122.79683 Y59.96471 I16.22488 J-12.16625
G3 X121.31003 Y55.8487 I25.90832 J-11.68519
G3 X121.25855 Y55.53904 I1.44583 J-0.39948
G2 X121.04751 Y53.24104 I-36.38165 J2.18248
G3 X121.04719 Y53.2384 I1.48862 J-0.1844
G3 X120.88965 Y50.69161 I21.22896 J-2.5914
G3 X120.89006 Y50.6532 I1.5 J-0.00313
G3 X121.04514 Y48.32711 I27.07721 J0.63693
G1 Y48.32709
G2 X121.18303 Y46.25869 I-23.93225 J-2.63428
G3 X121.1838 Y46.23435 I1.49959 J0.03525
G2 X120.92501 Y45.55886 I-0.91592 J-0.03642
G2 X120.34493 Y45.32712 I-0.55184 J0.53946
G3 X120.22904 Y45.32688 I-0.05489 J-1.499
G2 X119.63948 Y45.55036 I-0.03269 J0.80317
G2 X119.39621 Y46.23258 I0.72388 J0.64261
G3 X119.39689 Y46.33516 I-1.49874 J0.06137
G3 X119.21612 Y48.66842 I-23.47832 J-0.64541
G2 X119.08034 Y50.69566 I23.93369 J2.62119
G2 X119.41627 Y57.51682 I98.80999 J-1.44731
G3 X119.68939 Y61.49432 I-95.80879 J8.57703
G1 F300.0 X121.48733 Y61.40825
G1 Z-3.0
G3 F800.0 X121.54088 Y62.70724 I-97.87985 J4.68561
G3 X122.05802 Y62.48993 I1.53236 J2.92265
G3 X121.48733 Y61.40825 I19.23551 J-10.84002
G1 F300.0 X120.88802 Y61.43694
G3 F800.0 X120.97538 Y63.93018 I-97.28054 J4.65692
G3 X123.0145 Y62.93052 I2.09786 J1.6997
G3 X121.70263 Y60.4574 I18.27904 J-11.28062
G3 X120.64237 Y57.76197 I27.00251 J-12.17788
G3 X120.88802 Y61.43694 I-97.03489 J8.33189
G1 F300.0 X119.68939 Y61.49432
G3 F800.0 X119.78791 Y64.6057 I-96.08191 J4.59954
G3 X119.78793 Y64.65056 I-1.49982 J0.02321
G3 X119.6877 Y67.03958 I-43.48471 J-0.62771
G2 X119.6171 Y69.28369 I54.14175 J2.82651
G3 X119.61618 Y69.32251 I-1.49991 J-0.01611
G2 X119.84838 Y69.903 I0.77108 J0.02825
G3 X119.84928 Y69.90388 I-1.0476 J1.07356
G2 X120.50011 Y70.16054 I0.63035 J-0.64489
G3 X120.61328 Y70.16224 I0.03407 J1.49961
G2 X121.13243 Y69.88824 I0.03019 J-0.57163
G2 X121.50061 Y68.44336 I-3.0889 J-1.55644
G1 X121.57374 Y65.59143
G3 X124.28837 Y64.75041 I1.49951 J0.03845
G2 X127.56708 Y68.14115 I13.48976 J-9.7635
G2 X129.48103 Y69.21396 I4.92325 J-6.53966
G2 X131.50143 Y69.59864 I2.04034 J-5.21806
G3 X131.54007 Y69.59928 I-0.00534 J1.49999
G2 X133.98781 Y68.98269 I0.13573 J-4.62808
G2 X135.5542 Y67.08322 I-2.31332 J-3.50325
G3 X135.55829 Y67.07341 I1.38623 J0.57303
G2 X136.34029 Y64.13478 I-10.11255 J-4.2644
G3 X136.34273 Y64.11576 I1.48902 J0.1812
G2 X136.58789 Y60.85707 I-27.56358 J-3.71228
G1 Y58.41138
G1 X136.56356 Y56.14894
G3 X136.5639 Y56.09723 I1.49991 J-0.01613
G3 X137.09805 Y50.62853 I37.33195 J0.88594
G3 X137.10054 Y50.6145 I1.47812 J0.25526
G2 X137.61376 Y45.64559 I-31.70106 J-5.78524
G3 X137.61443 Y45.625 I1.49952 J0.038
G2 X137.37605 Y45.04139 I-0.7608 J-0.02974
G3 X137.34711 Y45.01334 I1.02923 J-1.09119
G2 X136.71952 Y44.76584 I-0.60055 J0.60337
G3 X136.58359 Y44.764 I-0.04765 J-1.49924
G2 X136.07165 Y44.92639 I-0.04416 J0.74895
G2 X135.80054 Y45.65895 I1.09433 J0.82144
G3 X135.7916 Y45.75176 I-1.49683 J-0.09743
G1 X135.1084 Y51.09537
G2 X134.77837 Y56.2482 I43.41397 J5.36756
G2 X134.84912 Y58.48785 I62.90629 J-0.86638
G3 X134.94897 Y60.8661 I-50.21833 J3.29949
G3 X134.94908 Y60.87336 I-1.49975 J0.02746
G3 X134.71517 Y64.05064 I-18.34146 J0.24693
G3 X134.11303 Y65.94677 I-6.62708 J-1.06081
G3 X134.10584 Y65.96123 I-1.34657 J-0.66087
G3 X133.2015 Y67.0802 I-3.04279 J-1.53422
G3 X133.17463 Y67.10136 I-0.9413 J-1.16788
G3 X131.47787 Y67.66688 I-1.6636 J-2.16319
G3 X131.46852 Y67.66674 I0.01823 J-1.49989
G3 X127.61748 Y66.35424 I0.12257 J-6.66562
G3 X125.06866 Y63.81615 I7.11628 J-9.6952
G3 X122.79683 Y59.96471 I16.22488 J-12.16625
G3 X121.31003 Y55.8487 I25.90832 J-11.68519
G3 X121.25855 Y55.53904 I1.44583 J-0.39948
G2 X121.04751 Y53.24104 I-36.38165 J2.18248
G3 X121.04719 Y53.2384 I1.48862 J-0.1844
G3 X120.88965 Y50.69161 I21.22896 J-2.5914
G3 X120.89006 Y50.6532 I1.5 J-0.00313
G3 X121.04514 Y48.32711 I27.07721 J0.63693
G1 Y48.32709
G2 X121.18303 Y46.25869 I-23.93225 J-2.63428
G3 X121.1838 Y46.23435 I1.49959 J0.03525
G2 X120.92501 Y45.55886 I-0.91592 J-0.03642
G2 X120.34493 Y45.32712 I-0.55184 J0.53946
G3 X120.22904 Y45.32688 I-0.05489 J-1.499
G2 X119.63948 Y45.55036 I-0.03269 J0.80317
G2 X119.39621 Y46.23258 I0.72388 J0.64261
G3 X119.39689 Y46.33516 I-1.49874 J0.06137
G3 X119.21612 Y48.66842 I-23.47832 J-0.64541
G2 X119.08034 Y50.69566 I23.93369 J2.62119
G2 X119.41627 Y57.51682 I98.80999 J-1.44731
G3 X119.68939 Y61.49432 I-95.80879 J8.57703
G0 Z3.0
G0 X145.5751 Y57.84743
G0 Z1.0
G1 F300.0 Z-1.5
G3 F800.0 X145.42571 Y55.57165 I15.18869 J-2.13984
G3 X145.71086 Y52.52168 I14.96127 J-0.13954
G3 X147.04599 Y49.37992 I7.82136 J1.46922
G3 X147.06535 Y49.35332 I1.22256 J0.8691
G3 X149.50119 Y47.47215 I4.57392 J3.40497
G3 X149.52232 Y47.46379 I0.56244 J1.39056
G3 X152.32334 Y46.96703 I2.66688 J6.89207
G3 X155.84269 Y48.09052 I-0.11006 J6.41871
G3 X158.24219 Y50.29913 I-6.24753 J9.19527
G3 X159.97821 Y52.93777 I-10.88783 J9.05372
G3 X160.9573 Y56.09737 I-8.67428 J4.41947
G3 X161.59029 Y60.27334 I-68.26248 J12.48324
G3 X162.0654 Y64.45136 I-190.31867 J23.75845
G3 X161.50282 Y65.78173 I-1.49216 J0.15313
G3 X159.05243 Y67.13978 I-5.37196 J-6.80319
G3 X159.04143 Y67.14366 I-0.50556 J-1.41224
G3 X156.3853 Y67.59376 I-2.65397 J-7.59939
G3 X151.83929 Y66.7462 I-0.18129 J-11.64289
G3 X151.81593 Y66.73652 I0.56226 J-1.39064
G3 X148.01447 Y63.81925 I3.73004 J-8.79603
G3 X145.99121 Y59.83624 I9.11885 J-7.1375
G3 X145.9897 Y59.83085 I1.44327 J-0.40861
G3 X145.5751 Y57.84743 I14.7741 J-4.12326
G0 Z3.0
G0 X160.66143 Y51.68553
G0 Z1.0
G1 F300.0 Z-1.5
G3 F800.0 X161.04558 Y52.39467 I-13.30707 J7.66731
G3 X161.33214 Y53.00271 I-9.74165 J4.96258
G1 X161.21657 Y51.3145
G3 X160.66143 Y51.68553 I-1.76638 J-2.04203
G1 F300.0 X160.1231 Y50.61306
G3 F800.0 X158.12587 Y49.97684 I-0.67291 J-1.3406
G2 X156.94097 Y48.20216 I-9.44775 J5.02506
G3 X156.94031 Y48.20136 I1.15824 J-0.95315
G2 X155.46359 Y46.855 I-5.39192 J4.43093
G2 X152.17621 Y45.88943 I-3.18854 J4.7768
G3 X152.13109 Y45.88952 I-0.02582 J-1.49978
G2 X148.78004 Y46.4992 I-0.11432 J8.88597
G2 X146.05643 Y48.40348 I2.87839 J7.01671
G2 X144.24434 Y51.5084 I6.34143 J5.78223
G2 X143.68935 Y55.21229 I11.18366 J3.56926
G3 X143.68934 Y55.2477 I-1.4999 J0.0172
G2 X144.46891 Y60.44699 I16.39995 J0.19911
G2 X147.06717 Y64.82287 I11.17227 J-3.6744
G3 X147.06831 Y64.82409 I-1.09353 J1.02674
G2 X151.3549 Y67.64898 I8.03429 J-7.52675
G2 X156.59708 Y68.50015 I5.02783 J-14.39714
G3 X156.65547 Y68.50046 I0.02108 J1.49985
G2 X159.93576 Y67.99669 I0.23404 J-9.40758
G2 X161.54989 Y66.78442 I-1.10882 J-3.15711
G3 X162.7521 Y66.15636 I1.22062 J0.87183
G2 X163.37475 Y66.04786 I-0.0243 J-1.98028
G3 X163.375 Y66.04778 I0.49 J1.41771
G2 X163.7075 Y65.75354 I-0.18982 J-0.5495
G2 X163.88348 Y64.79575 I-2.14186 J-0.8886
G1 Y64.79574
G1 Y64.79576
G1 Y64.79575
G2 X163.3972 Y60.39604 I-27.60662 J0.82453
G3 X163.39282 Y60.37227 I1.47292 J-0.28373
G3 X162.72018 Y55.68876 I73.87149 J-12.99926
G3 X162.71444 Y55.6249 I1.49075 J-0.1663
G1 X162.15292 Y47.42177
G3 X162.14995 Y47.35952 I1.4965 J-0.10244
G2 X161.88467 Y43.4626 I-47.4236 J1.27089
G3 X161.88399 Y43.4563 I1.49107 J-0.1634
G2 X161.19867 Y39.72089 I-24.70288 J2.60155
G2 X160.04624 Y36.86257 I-12.22321 J3.26675
G3 X160.04518 Y36.86065 I1.31251 J-0.72617
G2 X158.2187 Y34.69058 I-6.38511 J3.52046
G2 X154.77357 Y33.14934 I-5.2581 J7.13234
G3 X154.762 Y33.14687 I0.3069 J-1.46827
G2 X150.67721 Y32.73038 I-3.8885 J17.89762
G3 X150.63975 Y32.73032 I-0.01608 J-1.49991
G2 X145.47846 Y33.14692 I-0.38985 J27.34989
G3 X145.46785 Y33.14876 I-0.26166 J-1.477
G2 X143.96776 Y33.68686 I0.76064 J4.48053
G3 X143.94004 Y33.70237 I-0.74618 J-1.30124
G2 X143.64062 Y34.20742 I0.27524 J0.50445
G3 X143.63722 Y34.31002 I-1.5 J0.00157
G2 X143.75232 Y34.7808 I0.79951 J0.05398
G2 X144.15824 Y34.88562 I0.35917 J-0.55252
G3 X144.17369 Y34.8846 I0.10641 J1.49622
G2 X146.86584 Y34.50321 I-1.03089 J-16.9693
G3 X146.89566 Y34.49683 I0.32849 J1.46359
G3 X151.74693 Y34.07591 I4.26533 J20.99233
G3 X156.56809 Y35.52755 I0.09064 J8.43073
G3 X156.62802 Y35.57036 I-0.84161 J1.24165
G3 X159.61113 Y39.59458 I-5.29801 J7.04514
G3 X160.3144 Y42.06159 I-14.21426 J5.38579
G3 X160.79887 Y45.68695 I-29.55257 J5.79433
G3 X160.95013 Y49.25855 I-53.93781 J4.07327
G3 X160.1231 Y50.61306 I-1.49994 J0.01391
G1 F300.0 X160.66143 Y51.68553
G1 Z-3.0
G3 F800.0 X161.04558 Y52.39467 I-13.30707 J7.66731
G3 X161.33214 Y53.00271 I-9.74165 J4.96258
G1 X161.21657 Y51.3145
G3 X160.66143 Y51.68553 I-1.76638 J-2.04203
G1 F300.0 X160.1231 Y50.61306
G3 F800.0 X158.12587 Y49.97684 I-0.67291 J-1.3406
G2 X156.94097 Y48.20216 I-9.44775 J5.02506
G3 X156.94031 Y48.20136 I1.15824 J-0.95315
G2 X155.46359 Y46.855 I-5.39192 J4.43093
G2 X152.17621 Y45.88943 I-3.18854 J4.7768
G3 X152.13109 Y45.88952 I-0.02582 J-1.49978
G2 X148.78004 Y46.4992 I-0.11432 J8.88597
G2 X146.05643 Y48.40348 I2.87839 J7.01671
G2 X144.24434 Y51.5084 I6.34143 J5.78223
G2 X143.68935 Y55.21229 I11.18366 J3.56926
G3 X143.68934 Y55.2477 I-1.4999 J0.0172
G2 X144.46891 Y60.44699 I16.39995 J0.19911
G2 X147.06717 Y64.82287 I11.17227 J-3.6744
G3 X147.06831 Y64.82409 I-1.09353 J1.02674
G2 X151.3549 Y67.64898 I8.03429 J-7.52675
G2 X156.59708 Y68.50015 I5.02783 J-14.39714
G3 X156.65547 Y68.50046 I0.02108 J1.49985
G2 X159.93576 Y67.99669 I0.23404 J-9.40758
G2 X161.54989 Y66.78442 I-1.10882 J-3.15711
G3 X162.7521 Y66.15636 I1.22062 J0.87183
G2 X163.37475 Y66.04786 I-0.0243 J-1.98028
G3 X163.375 Y66.04778 I0.49 J1.41771
G2 X163.7075 Y65.75354 I-0.18982 J-0.5495
G2 X163.88348 Y64.79575 I-2.14186 J-0.8886
G1 Y64.79574
G1 Y64.79576
G1 Y64.79575
G2 X163.3972 Y60.39604 I-27.60662 J0.82453
G3 X163.39282 Y60.37227 I1.47292 J-0.28373
G3 X162.72018 Y55.68876 I73.87149 J-12.99926
G3 X162.71444 Y55.6249 I1.49075 J-0.1663
G1 X162.15292 Y47.42177
G3 X162.14995 Y47.35952 I1.4965 J-0.10244
G2 X161.88467 Y43.4626 I-47.4236 J1.27089
G3 X161.88399 Y43.4563 I1.49107 J-0.1634
G2 X161.19867 Y39.72089 I-24.70288 J2.60155
G2 X160.04624 Y36.86257 I-12.22321 J3.26675
G3 X160.04518 Y36.86065 I1.31251 J-0.72617
G2 X158.2187 Y34.69058 I-6.38511 J3.52046
G2 X154.77357 Y33.14934 I-5.2581 J7.13234
G3 X154.762 Y33.14687 I0.3069 J-1.46827
G2 X150.67721 Y32.73038 I-3.8885 J17.89762
G3 X150.63975 Y32.73032 I-0.01608 J-1.49991
G2 X145.47846 Y33.14692 I-0.38985 J27.34989
G3 X145.46785 Y33.14876 I-0.26166 J-1.477
G2 X143.96776 Y33.68686 I0.76064 J4.48053
G3 X143.94004 Y33.70237 I-0.74618 J-1.30124
G2 X143.64062 Y34.20742 I0.27524 J0.50445
G3 X143.63722 Y34.31002 I-1.5 J0.00157
G2 X143.75232 Y34.7808 I0.79951 J0.05398
G2 X144.15824 Y34.88562 I0.35917 J-0.55252
G3 X144.17369 Y34.8846 I0.10641 J1.49622
G2 X146.86584 Y34.50321 I-1.03089 J-16.9693
G3 X146.89566 Y34.49683 I0.32849 J1.46359
G3 X151.74693 Y34.07591 I4.26533 J20.99233
G3 X156.56809 Y35.52755 I0.09064 J8.43073
G3 X156.62802 Y35.57036 I-0.84161 J1.24165
G3 X159.61113 Y39.59458 I-5.29801 J7.04514
G3 X160.3144 Y42.06159 I-14.21426 J5.38579
G3 X160.79887 Y45.68695 I-29.55257 J5.79433
G3 X160.95013 Y49.25855 I-53.93781 J4.07327
G3 X160.1231 Y50.61306 I-1.49994 J0.01391
G1 F300.0 X159.03958 Y51.3547
G3 F800.0 X159.97821 Y52.93777 I-11.68522 J7.99815
G3 X160.9573 Y56.09737 I-8.67428 J4.41947
G3 X161.59029 Y60.27334 I-68.26248 J12.48324
G3 X162.0654 Y64.45136 I-190.31867 J23.75845
G3 X161.50282 Y65.78173 I-1.49216 J0.15313
G3 X159.05243 Y67.13978 I-5.37196 J-6.80319
G3 X159.04143 Y67.14366 I-0.50556 J-1.41224
G3 X156.3853 Y67.59376 I-2.65397 J-7.59939
G3 X151.83929 Y66.7462 I-0.18129 J-11.64289
G3 X151.81593 Y66.73652 I0.56226 J-1.39064
G3 X148.01447 Y63.81925 I3.73004 J-8.79603
G3 X145.99121 Y59.83624 I9.11885 J-7.1375
G3 X145.9897 Y59.83085 I1.44327 J-0.40861
G3 X145.42571 Y55.57165 I14.7741 J-4.12326
G3 X145.71086 Y52.52168 I14.96127 J-0.13954
G3 X147.04599 Y49.37992 I7.82136 J1.46922
G3 X147.06535 Y49.35332 I1.22256 J0.8691
G3 X149.50119 Y47.47215 I4.57392 J3.40497
G3 X149.52232 Y47.46379 I0.56244 J1.39056
G3 X152.32334 Y46.96703 I2.66688 J6.89207
G3 X155.84269 Y48.09052 I-0.11006 J6.41871
G3 X158.24219 Y50.29913 I-6.24753 J9.19527
G3 X159.03958 Y51.3547 I-10.88783 J9.05372
( eilzeit )
G0 Z3.0
( T4 : 4.0 )
T4 M6
M3 S1000
G0 X-16.20275 Y-54.14598
G0 Z1.0
G1 F300.0 Z-2.0
G3 F800.0 X-16.29707 Y-54.22521 I3.81213 J-4.63332
G2 X-16.30437 Y-54.08856 I20.89003 J1.18578
G3 X-16.20275 Y-54.14598 I3.00066 J5.19207
G1 F300.0 X-15.81601 Y-53.44567
G3 F800.0 X-14.39875 Y-53.9766 I2.5123 J4.54919
G1 X-14.6172 Y-54.08011
G3 X-16.90083 Y-56.19124 I2.22658 J-4.69919
G2 X-17.12783 Y-52.68692 I21.4938 J3.15181
G3 X-17.12734 Y-52.55787 I-5.19932 J0.08438
G2 X-17.12832 Y-52.41488 I41.47586 J0.35627
G3 X-15.81601 Y-53.44567 I3.82461 J3.51839
G1 F300.0 X-15.04252 Y-52.04506
G3 F800.0 X-11.75897 Y-52.14467 I1.73881 J3.14857
G1 X4.73029 Y-44.30288
G3 X4.74741 Y-44.29468 I-1.54474 J3.24819
G3 X12.08674 Y-40.46163 I-56.00238 J116.17364
G3 X19.29139 Y-35.64433 I-24.36408 J44.23455
G3 X19.47118 Y-30.18347 I-2.24842 J2.80741
G3 X11.96699 Y-25.99246 I-12.63114 J-13.8028
G3 X11.96189 Y-25.99101 I-0.9856 J-3.45913
G3 X4.10287 Y-24.94294 I-7.55566 J-26.66692
G3 X-9.59201 Y-31.36925 I-0.22096 J-17.33459
G3 X-14.33711 Y-39.60658 I22.30684 J-18.3352
G3 X-16.82885 Y-48.18208 I50.40362 J-19.29525
G3 X-15.04252 Y-52.04506 I3.52514 J-0.7144
G1 F300.0 X-14.27057 Y-50.64725
G3 F800.0 X-12.44476 Y-50.70264 I0.96686 J1.75076
G1 X4.0445 Y-42.86084
G3 X4.05402 Y-42.85628 I-0.85895 J1.80616
G3 X11.30944 Y-39.06677 I-55.30899 J114.73524
G3 X18.2932 Y-34.39798 I-23.58677 J42.83969
G3 X18.39317 Y-31.36147 I-1.25023 J1.56106
G3 X11.52943 Y-27.52814 I-11.55314 J-12.6248
G3 X11.5266 Y-27.52733 I-0.54805 J-1.92345
G3 X4.10125 Y-26.53986 I-7.12036 J-25.1306
G3 X-8.35463 Y-32.37856 I-0.21935 J-15.73767
G3 X-12.84345 Y-40.1712 I21.06947 J-17.32589
G3 X-15.26386 Y-48.49924 I48.90996 J-18.73064
G3 X-14.27057 Y-50.64725 I1.96015 J-0.39724
G0 Z3.0
G0 X-18.69402 Y-50.46921
G0 Z1.0
G1 F300.0 Z-2.0
G2 F800.0 X-17.32015 Y-41.27534 I43.04254 J-1.73239
G2 X-12.62515 Y-31.27004 I29.97752 J-7.96278
G3 X-12.59328 Y-31.22445 I-2.93442 J2.08547
G2 X-5.36374 Y-24.67557 I17.45324 J-12.00233
G2 X4.0426 Y-22.47163 I9.09725 J-17.6519
G3 X4.12401 Y-22.47198 I0.05603 J3.59956
G2 X10.9316 Y-23.04429 I0.26516 J-37.62002
G3 X10.94628 Y-23.04685 I0.62605 J3.54515
G2 X17.00244 Y-25.07854 I-3.55852 J-20.64957
G3 X17.0345 Y-25.09489 I1.65185 J3.19865
G2 X20.75955 Y-28.42653 I-4.32456 J-8.58349
G2 X21.984 Y-33.18219 I-7.80098 J-4.54399
G3 X21.98312 Y-33.2379 I3.59901 J-0.08441
G2 X20.82259 Y-36.78338 I-6.14577 J0.049
G2 X17.49059 Y-40.0638 I-11.49358 J8.3419
G2 X12.33693 Y-43.00738 I-25.77495 J39.14375
G3 X12.29582 Y-43.02785 I1.58396 J-3.23281
G2 X6.60379 Y-45.79572 I-90.7658 J179.42012
G3 X6.58548 Y-45.80433 I1.52316 J-3.2619
G1 X-13.9321 Y-55.52601
G3 X-15.40137 Y-60.75298 I1.54148 J-3.25328
G3 X-6.56899 Y-68.69576 I19.45916 J12.7564
G3 X-6.47437 Y-68.7426 I1.64419 J3.2026
G3 X5.6233 Y-71.34825 I11.54293 J24.20547
G3 X5.64595 Y-71.34771 I-0.07447 J3.59923
G3 X15.23351 Y-69.81595 I-0.99928 J37.02553
G3 X20.21064 Y-67.98072 I-7.72734 J28.62309
G3 X25.31806 Y-63.86102 I-5.19781 J11.66985
G3 X25.49575 Y-63.59437 I-2.904 J2.12762
G2 X26.42786 Y-62.46341 I4.31055 J-2.60306
G3 X26.45143 Y-62.44189 I-2.4153 J2.66951
G2 X27.03778 Y-62.74441 I-0.13212 J-0.97558
G3 X27.31198 Y-63.00774 I2.62726 J2.4612
G2 X27.56892 Y-63.56241 I-0.48492 J-0.56148
G2 X27.10129 Y-65.34343 I-3.68271 J0.01507
G2 X24.3906 Y-68.14531 I-7.71862 J4.75522
G3 X24.34252 Y-68.17773 I1.98863 J-3.00089
G2 X20.1188 Y-70.51711 I-14.31804 J20.86838
G3 X20.03974 Y-70.55264 I1.43589 J-3.30125
G2 X5.50402 Y-73.87097 I-15.05582 J32.4554
G2 X-3.8551 Y-72.66787 I-0.3545 J34.2469
G2 X-11.85818 Y-68.59206 I5.93753 J21.55383
G2 X-17.09685 Y-61.61526 I11.10709 J13.79516
G2 X-18.72762 Y-52.66096 I21.68982 J8.57583
G3 X-18.72728 Y-52.57162 I-3.59953 J0.05842
G2 X-18.69402 Y-50.46921 I43.0758 J0.37001
G1 F300.0 X-20.29273 Y-50.40487
G2 F800.0 X-18.86719 Y-40.86705 I44.64125 J-1.79674
G2 X-13.92934 Y-30.34316 I31.52455 J-8.37106
G3 X-13.91163 Y-30.31784 I-1.63023 J1.15859
G2 X-6.11652 Y-23.26355 I18.77159 J-12.90894
G2 X4.0675 Y-20.87183 I9.85003 J-19.06391
G3 X4.11273 Y-20.87202 I0.03113 J1.99976
G2 X11.20985 Y-21.46867 I0.27643 J-39.21998
G3 X11.218 Y-21.4701 I0.34781 J1.96953
G2 X17.7366 Y-23.65691 I-3.83024 J-22.22633
G3 X17.75441 Y-23.666 I0.9177 J1.77703
G2 X22.12159 Y-27.58615 I-5.04447 J-10.01238
G2 X23.58356 Y-33.21971 I-9.16303 J-5.38437
G3 X23.58307 Y-33.25066 I1.99945 J-0.04689
G2 X22.11891 Y-37.72124 I-7.74572 J0.06176
G2 X18.39013 Y-41.38719 I-12.7899 J9.27976
G2 X13.04091 Y-44.44419 I-26.67449 J40.46714
G3 X13.01807 Y-44.45556 I0.87998 J-1.79601
G2 X7.28075 Y-47.24545 I-91.48805 J180.84783
G3 X7.27058 Y-47.25024 I0.8462 J-1.81217
G1 X-13.247 Y-56.97192
G3 X-14.06326 Y-59.87579 I0.85638 J-1.80738
G3 X-5.83824 Y-67.27239 I18.12105 J11.8792
G3 X-5.78568 Y-67.29841 I0.91344 J1.77922
G3 X5.5902 Y-69.7486 I10.85423 J22.76127
G3 X5.60279 Y-69.7483 I-0.04137 J1.99957
G3 X14.79632 Y-68.27669 I-0.95611 J35.42611
G3 X19.54257 Y-66.52673 I-7.29014 J27.08383
G3 X24.0274 Y-62.91541 I-4.52974 J10.21586
G3 X24.12611 Y-62.76727 I-1.61333 J1.18201
G2 X25.35439 Y-61.27696 I5.68019 J-3.43016
G3 X25.38159 Y-61.25188 I-1.34184 J1.48306
G2 X26.36438 Y-60.83337 I1.06224 J-1.13126
G2 X28.20545 Y-61.65054 I-0.04507 J-2.58409
G3 X28.35779 Y-61.79684 I1.45959 J1.36733
G2 X29.16894 Y-63.5604 I-1.53073 J-1.77239
G2 X28.48051 Y-66.15499 I-5.28273 J0.01306
G2 X25.27443 Y-69.47904 I-9.09785 J5.56678
G3 X25.24773 Y-69.49705 I1.10479 J-1.66716
G2 X20.75697 Y-71.98433 I-15.22324 J22.1877
G3 X20.71305 Y-72.00407 I0.79772 J-1.83403
G2 X5.52393 Y-75.47085 I-15.72913 J33.90683
G2 X-4.27789 Y-74.21101 I-0.37441 J35.84678
G2 X-12.85873 Y-69.84063 I6.36031 J23.09696
G2 X-18.5793 Y-62.21738 I12.10763 J15.04373
G2 X-20.32741 Y-52.63499 I23.17227 J9.17795
G3 X-20.32722 Y-52.58536 I-1.99974 J0.03245
G2 X-20.29273 Y-50.40487 I44.67574 J0.38376
G0 Z3.0
G0 X-16.30437 Y-54.08856
G0 Z-1.0
G1 F300.0 Z-4.0
G3 F800.0 X-16.20275 Y-54.14598 I3.00066 J5.19207
G3 X-16.29707 Y-54.22521 I3.81213 J-4.63332
G2 X-16.30437 Y-54.08856 I20.89003 J1.18578
G1 F300.0 X-17.10337 Y-54.12867
G2 F800.0 X-17.12783 Y-52.68692 I21.69633 J1.08924
G3 X-17.12734 Y-52.55787 I-5.19932 J0.08438
G2 X-17.12832 Y-52.41488 I41.47586 J0.35627
G3 X-14.39875 Y-53.9766 I3.82461 J3.51839
G1 X-14.6172 Y-54.08011
G3 X-16.90083 Y-56.19124 I2.22658 J-4.69919
G2 X-17.10337 Y-54.12867 I21.4938 J3.15181
G0 Z3.0
G0 X-15.41722 Y-51.80682
G0 Z-1.0
G1 F300.0 Z-4.0
G3 F800.0 X-11.75897 Y-52.14467 I2.11351 J2.91033
G1 X4.73029 Y-44.30288
G3 X4.74741 Y-44.29468 I-1.54474 J3.24819
G3 X12.08674 Y-40.46163 I-56.00238 J116.17364
G3 X19.29139 Y-35.64433 I-24.36408 J44.23455
G3 X19.47118 Y-30.18347 I-2.24842 J2.80741
G3 X11.96699 Y-25.99246 I-12.63114 J-13.8028
G3 X11.96189 Y-25.99101 I-0.9856 J-3.45913
G3 X4.10287 Y-24.94294 I-7.55566 J-26.66692
G3 X-9.59201 Y-31.36925 I-0.22096 J-17.33459
G3 X-14.33711 Y-39.60658 I22.30684 J-18.3352
G3 X-16.82885 Y-48.18208 I50.40362 J-19.29525
G3 X-15.41722 Y-51.80682 I3.52514 J-0.7144
G1 F300.0 X-14.47893 Y-50.51478
G3 F800.0 X-12.44476 Y-50.70264 I1.17522 J1.61829
G1 X4.0445 Y-42.86084
G3 X4.05402 Y-42.85628 I-0.85895 J1.80616
G3 X11.30944 Y-39.06677 I-55.30899 J114.73524
G3 X18.2932 Y-34.39798 I-23.58677 J42.83969
G3 X18.39317 Y-31.36147 I-1.25023 J1.56106
G3 X11.52943 Y-27.52814 I-11.55314 J-12.6248
G3 X11.5266 Y-27.52733 I-0.54805 J-1.92345
G3 X4.10125 Y-26.53986 I-7.12036 J-25.1306
G3 X-8.35463 Y-32.37856 I-0.21935 J-15.73767
G3 X-12.84345 Y-40.1712 I21.06947 J-17.32589
G3 X-15.26386 Y-48.49924 I48.90996 J-18.73064
G3 X-14.47893 Y-50.51478 I1.96015 J-0.39724
G0 Z3.0
G0 X-18.68828 Y-50.3319
G0 Z-1.0
G1 F300.0 Z-4.0
G2 F800.0 X-17.32015 Y-41.27534 I43.03679 J-1.8697
G2 X-12.62515 Y-31.27004 I29.97752 J-7.96278
G3 X-12.59328 Y-31.22445 I-2.93442 J2.08547
G2 X-5.36374 Y-24.67557 I17.45324 J-12.00233
G2 X4.0426 Y-22.47163 I9.09725 J-17.6519
G3 X4.12401 Y-22.47198 I0.05603 J3.59956
G2 X10.9316 Y-23.04429 I0.26516 J-37.62002
G3 X10.94628 Y-23.04685 I0.62605 J3.54515
G2 X17.00244 Y-25.07854 I-3.55852 J-20.64957
G3 X17.0345 Y-25.09489 I1.65185 J3.19865
G2 X20.75955 Y-28.42653 I-4.32456 J-8.58349
G2 X21.984 Y-33.18219 I-7.80098 J-4.54399
G3 X21.98312 Y-33.2379 I3.59901 J-0.08441
G2 X20.82259 Y-36.78338 I-6.14577 J0.049
G2 X17.49059 Y-40.0638 I-11.49358 J8.3419
G2 X12.33693 Y-43.00738 I-25.77495 J39.14375
G3 X12.29582 Y-43.02785 I1.58396 J-3.23281
G2 X6.60379 Y-45.79572 I-90.7658 J179.42012
G3 X6.58548 Y-45.80433 I1.52316 J-3.2619
G1 X-13.9321 Y-55.52601
G3 X-15.40137 Y-60.75298 I1.54148 J-3.25328
G3 X-6.56899 Y-68.69576 I19.45916 J12.7564
G3 X-6.47437 Y-68.7426 I1.64419 J3.2026
G3 X5.6233 Y-71.34825 I11.54293 J24.20547
G3 X5.64595 Y-71.34771 I-0.07447 J3.59923
G3 X15.23351 Y-69.81595 I-0.99928 J37.02553
G3 X20.21064 Y-67.98072 I-7.72734 J28.62309
G3 X25.31806 Y-63.86102 I-5.19781 J11.66985
G3 X25.49575 Y-63.59437 I-2.904 J2.12762
G2 X26.42786 Y-62.46341 I4.31055 J-2.60306
G3 X26.45143 Y-62.44189 I-2.4153 J2.66951
G2 X27.03778 Y-62.74441 I-0.13212 J-0.97558
G3 X27.31198 Y-63.00774 I2.62726 J2.4612
G2 X27.56892 Y-63.56241 I-0.48492 J-0.56148
G2 X27.10129 Y-65.34343 I-3.68271 J0.01507
G2 X24.3906 Y-68.14531 I-7.71862 J4.75522
G3 X24.34252 Y-68.17773 I1.98863 J-3.00089
G2 X20.1188 Y-70.51711 I-14.31804 J20.86838
G3 X20.03974 Y-70.55264 I1.43589 J-3.30125
G2 X5.50402 Y-73.87097 I-15.05582 J32.4554
G2 X-3.8551 Y-72.66787 I-0.3545 J34.2469
G2 X-11.85818 Y-68.59206 I5.93753 J21.55383
G2 X-17.09685 Y-61.61526 I11.10709 J13.79516
G2 X-18.72762 Y-52.66096 I21.68982 J8.57583
G3 X-18.72728 Y-52.57162 I-3.59953 J0.05842
G2 X-18.68828 Y-50.3319 I43.0758 J0.37001
G1 F300.0 X-20.28677 Y-50.26246
G2 F800.0 X-18.86719 Y-40.86705 I44.63529 J-1.93914
G2 X-13.92934 Y-30.34316 I31.52455 J-8.37106
G3 X-13.91163 Y-30.31784 I-1.63023 J1.15859
G2 X-6.11652 Y-23.26355 I18.77159 J-12.90894
G2 X4.0675 Y-20.87183 I9.85003 J-19.06391
G3 X4.11273 Y-20.87202 I0.03113 J1.99976
G2 X11.20985 Y-21.46867 I0.27643 J-39.21998
G3 X11.218 Y-21.4701 I0.34781 J1.96953
G2 X17.7366 Y-23.65691 I-3.83024 J-22.22633
G3 X17.75441 Y-23.666 I0.9177 J1.77703
G2 X22.12159 Y-27.58615 I-5.04447 J-10.01238
G2 X23.58356 Y-33.21971 I-9.16303 J-5.38437
G3 X23.58307 Y-33.25066 I1.99945 J-0.04689
G2 X22.11891 Y-37.72124 I-7.74572 J0.06176
G2 X18.39013 Y-41.38719 I-12.7899 J9.27976
G2 X13.04091 Y-44.44419 I-26.67449 J40.46714
G3 X13.01807 Y-44.45556 I0.87998 J-1.79601
G2 X7.28075 Y-47.24545 I-91.48805 J180.84783
G3 X7.27058 Y-47.25024 I0.8462 J-1.81217
G1 X-13.247 Y-56.97192
G3 X-14.06326 Y-59.87579 I0.85638 J-1.80738
G3 X-5.83824 Y-67.27239 I18.12105 J11.8792
G3 X-5.78568 Y-67.29841 I0.91344 J1.77922
G3 X5.5902 Y-69.7486 I10.85423 J22.76127
G3 X5.60279 Y-69.7483 I-0.04137 J1.99957
G3 X14.79632 Y-68.27669 I-0.95611 J35.42611
G3 X19.54257 Y-66.52673 I-7.29014 J27.08383
G3 X24.0274 Y-62.91541 I-4.52974 J10.21586
G3 X24.12611 Y-62.76727 I-1.61333 J1.18201
G2 X25.35439 Y-61.27696 I5.68019 J-3.43016
G3 X25.38159 Y-61.25188 I-1.34184 J1.48306
G2 X26.36438 Y-60.83337 I1.06224 J-1.13126
G2 X28.20545 Y-61.65054 I-0.04507 J-2.58409
G3 X28.35779 Y-61.79684 I1.45959 J1.36733
G2 X29.16894 Y-63.5604 I-1.53073 J-1.77239
G2 X28.48051 Y-66.15499 I-5.28273 J0.01306
G2 X25.27443 Y-69.47904 I-9.09785 J5.56678
G3 X25.24773 Y-69.49705 I1.10479 J-1.66716
G2 X20.75697 Y-71.98433 I-15.22324 J22.1877
G3 X20.71305 Y-72.00407 I0.79772 J-1.83403
G2 X5.52393 Y-75.47085 I-15.72913 J33.90683
G2 X-4.27789 Y-74.21101 I-0.37441 J35.84678
G2 X-12.85873 Y-69.84063 I6.36031 J23.09696
G2 X-18.5793 Y-62.21738 I12.10763 J15.04373
G2 X-20.32741 Y-52.63499 I23.17227 J9.17795
G3 X-20.32722 Y-52.58536 I-1.99974 J0.03245
G2 X-20.28677 Y-50.26246 I44.67574 J0.38376
G0 Z3.0
G0 X48.07807 Y-50.62321
G0 Z1.0
G1 F300.0 Z-2.0
G2 F800.0 X48.59979 Y-38.44482 I180.40099 J-1.62804
G3 X48.59997 Y-38.44253 I-5.18475 J0.39795
G3 X49.15194 Y-25.47106 I-192.48919 J14.68851
G3 X49.14779 Y-25.21205 I-5.19979 J0.04625
G2 X49.14762 Y-25.19955 I0.22932 J0.00939
G3 X49.28284 Y-25.19957 I0.0682 J5.19955
G2 X49.2836 Y-25.21825 I-0.11587 J-0.01405
G3 X49.2797 Y-25.37863 I5.1959 J-0.20655
G2 X48.75756 Y-37.64983 I-182.56538 J1.62137
G3 X48.20547 Y-50.56986 I189.76802 J-14.58087
G3 X48.20536 Y-50.64587 I5.1998 J-0.04538
G3 X48.36836 Y-60.42586 I453.98476 J2.67506
G3 X48.36993 Y-60.47458 I5.19804 J0.14266
G2 X48.58141 Y-69.93841 I-326.93209 J-12.04002
G3 X48.58408 Y-70.06898 I5.19984 J0.04095
G3 X48.45108 I-0.0665 J-5.19957
G3 X48.45375 Y-69.85774 I-5.19717 J0.17152
G3 X48.23642 Y-60.11552 I-332.21671 J-2.53783
G2 X48.07807 Y-50.62321 I439.9364 J12.08654
G1 F300.0 X46.47809 Y-50.63264
G1 F800.0 X46.47802 Y-50.62072
G2 X47.00448 Y-38.32238 I182.00103 J-1.63053
G3 X47.0046 Y-38.32079 I-3.58944 J0.2755
G3 X47.55201 Y-25.45682 I-190.89383 J14.56677
G3 X47.54913 Y-25.27752 I-3.59986 J0.03202
G2 X47.99059 Y-24.00907 I1.82798 J0.07485
G2 X49.10147 Y-23.59818 I1.06092 J-1.16118
G3 X49.34765 Y-23.59759 I0.11435 J3.59818
G2 X50.39792 Y-24.01701 I0.05117 J-1.39658
G2 X50.88233 Y-25.28181 I-1.23096 J-1.19661
G3 X50.87963 Y-25.39283 I3.59716 J-0.143
G2 X50.35289 Y-37.77199 I-184.16532 J1.63557
G3 X49.80541 Y-50.58382 I188.17269 J-14.45871
G3 X49.80534 Y-50.63645 I3.59986 J-0.03141
G3 X49.96776 Y-60.38197 I452.38479 J2.66563
G3 X49.96885 Y-60.41569 I3.59864 J0.09876
G2 X50.18136 Y-69.92581 I-328.53101 J-12.09891
G3 X50.18375 Y-70.03166 I3.59989 J0.02835
G2 X49.73894 Y-71.26525 I-1.75173 J-0.06535
G2 X48.66406 Y-71.67154 I-1.01514 J1.06069
G3 X48.40316 Y-71.67037 I-0.14648 J-3.59702
G2 X47.28572 Y-71.2534 I-0.04998 J1.57183
G2 X46.8514 Y-70.03164 I1.31748 J1.15642
G3 X46.8538 Y-69.86996 I-3.5975 J0.13418
G3 X46.63723 Y-60.16708 I-330.61676 J-2.52561
G2 X46.47809 Y-50.63264 I441.53558 J12.1381
G1 F300.0 X44.87812 Y-50.64207
G2 F800.0 X44.87798 Y-50.61826 I443.29469 J2.61309
G2 X45.40917 Y-38.19993 I183.60107 J-1.63299
G3 X45.40924 Y-38.19905 I-1.99413 J0.15306
G3 X45.95207 Y-25.44259 I-189.29847 J14.44503
G3 X45.95047 Y-25.34298 I-1.99992 J0.01779
G2 X46.84035 Y-22.89477 I3.42664 J0.14031
G2 X49.15229 Y-21.99899 I2.21116 J-2.27548
G3 X49.28906 Y-21.99866 I0.06353 J1.99899
G2 X51.54354 Y-22.90006 I0.10976 J-2.9955
G2 X52.48107 Y-25.34536 I-2.37657 J-2.31356
G3 X52.47957 Y-25.40704 I1.99842 J-0.07944
G2 X51.94822 Y-37.89416 I-185.76526 J1.64978
G3 X51.40535 Y-50.59778 I186.57736 J-14.33654
G3 X51.40531 Y-50.62702 I1.99992 J-0.01745
G3 X51.56716 Y-60.33807 I450.78482 J2.6562
G3 X51.56776 Y-60.35681 I1.99925 J0.05487
G2 X51.78131 Y-69.91321 I-330.12992 J-12.15779
G3 X51.78264 Y-69.97202 I1.99994 J0.01575
G2 X50.89079 Y-72.37664 I-3.35062 J-0.12499
G2 X48.59895 Y-73.27021 I-2.167 J2.17208
G3 X48.45401 Y-73.26957 I-0.08138 J-1.99834
G2 X46.13834 Y-72.37012 I-0.10084 J3.17102
G2 X45.25252 Y-69.97201 I2.46486 J2.27314
G3 X45.25385 Y-69.88218 I-1.99861 J0.07454
G3 X45.03804 Y-60.21867 I-329.0168 J-2.51339
G2 X44.87812 Y-50.64207 I443.13477 J12.18969
G0 Z3.0
G0 X48.07807 Y-50.62321
G0 Z-1.0
G1 F300.0 Z-4.0
G2 F800.0 X48.59979 Y-38.44482 I180.40099 J-1.62804
G3 X48.59997 Y-38.44253 I-5.18475 J0.39795
G3 X49.15194 Y-25.47106 I-192.48919 J14.68851
G3 X49.14779 Y-25.21205 I-5.19979 J0.04625
G2 X49.14762 Y-25.19955 I0.22932 J0.00939
G3 X49.28284 Y-25.19957 I0.0682 J5.19955
G2 X49.2836 Y-25.21825 I-0.11587 J-0.01405
G3 X49.2797 Y-25.37863 I5.1959 J-0.20655
G2 X48.75756 Y-37.64983 I-182.56538 J1.62137
G3 X48.20547 Y-50.56986 I189.76802 J-14.58087
G3 X48.20536 Y-50.64587 I5.1998 J-0.04538
G3 X48.36836 Y-60.42586 I453.98476 J2.67506
G3 X48.36993 Y-60.47458 I5.19804 J0.14266
G2 X48.58141 Y-69.93841 I-326.93209 J-12.04002
G3 X48.58408 Y-70.06898 I5.19984 J0.04095
G3 X48.45108 I-0.0665 J-5.19957
G3 X48.45375 Y-69.85774 I-5.19717 J0.17152
G3 X48.23642 Y-60.11552 I-332.21671 J-2.53783
G2 X48.07807 Y-50.62321 I439.9364 J12.08654
G1 F300.0 X46.47809 Y-50.63264
G1 F800.0 X46.47802 Y-50.62072
G2 X47.00448 Y-38.32238 I182.00103 J-1.63053
G3 X47.0046 Y-38.32079 I-3.58944 J0.2755
G3 X47.55201 Y-25.45682 I-190.89383 J14.56677
G3 X47.54913 Y-25.27752 I-3.59986 J0.03202
G2 X47.99059 Y-24.00907 I1.82798 J0.07485
G2 X49.10147 Y-23.59818 I1.06092 J-1.16118
G3 X49.34765 Y-23.59759 I0.11435 J3.59818
G2 X50.39792 Y-24.01701 I0.05117 J-1.39658
G2 X50.88233 Y-25.28181 I-1.23096 J-1.19661
G3 X50.87963 Y-25.39283 I3.59716 J-0.143
G2 X50.35289 Y-37.77199 I-184.16532 J1.63557
G3 X49.80541 Y-50.58382 I188.17269 J-14.45871
G3 X49.80534 Y-50.63645 I3.59986 J-0.03141
G3 X49.96776 Y-60.38197 I452.38479 J2.66563
G3 X49.96885 Y-60.41569 I3.59864 J0.09876
G2 X50.18136 Y-69.92581 I-328.53101 J-12.09891
G3 X50.18375 Y-70.03166 I3.59989 J0.02835
G2 X49.73894 Y-71.26525 I-1.75173 J-0.06535
G2 X48.66406 Y-71.67154 I-1.01514 J1.06069
G3 X48.40316 Y-71.67037 I-0.14648 J-3.59702
G2 X47.28572 Y-71.2534 I-0.04998 J1.57183
G2 X46.8514 Y-70.03164 I1.31748 J1.15642
G3 X46.8538 Y-69.86996 I-3.5975 J0.13418
G3 X46.63723 Y-60.16708 I-330.61676 J-2.52561
G2 X46.47809 Y-50.63264 I441.53558 J12.1381
G1 F300.0 X44.87812 Y-50.64207
G2 F800.0 X44.87798 Y-50.61826 I443.29469 J2.61309
G2 X45.40917 Y-38.19993 I183.60107 J-1.63299
G3 X45.40924 Y-38.19905 I-1.99413 J0.15306
G3 X45.95207 Y-25.44259 I-189.29847 J14.44503
G3 X45.95047 Y-25.34298 I-1.99992 J0.01779
G2 X46.84035 Y-22.89477 I3.42664 J0.14031
G2 X49.15229 Y-21.99899 I2.21116 J-2.27548
G3 X49.28906 Y-21.99866 I0.06353 J1.99899
G2 X51.54354 Y-22.90006 I0.10976 J-2.9955
G2 X52.48107 Y-25.34536 I-2.37657 J-2.31356
G3 X52.47957 Y-25.40704 I1.99842 J-0.07944
G2 X51.94822 Y-37.89416 I-185.76526 J1.64978
G3 X51.40535 Y-50.59778 I186.57736 J-14.33654
G3 X51.40531 Y-50.62702 I1.99992 J-0.01745
G3 X51.56716 Y-60.33807 I450.78482 J2.6562
G3 X51.56776 Y-60.35681 I1.99925 J0.05487
G2 X51.78131 Y-69.91321 I-330.12992 J-12.15779
G3 X51.78264 Y-69.97202 I1.99994 J0.01575
G2 X50.89079 Y-72.37664 I-3.35062 J-0.12499
G2 X48.59895 Y-73.27021 I-2.167 J2.17208
G3 X48.45401 Y-73.26957 I-0.08138 J-1.99834
G2 X46.13834 Y-72.37012 I-0.10084 J3.17102
G2 X45.25252 Y-69.97201 I2.46486 J2.27314
G3 X45.25385 Y-69.88218 I-1.99861 J0.07454
G3 X45.03804 Y-60.21867 I-329.0168 J-2.51339
G2 X44.87812 Y-50.64207 I443.13477 J12.18969
G0 Z3.0
G0 X79.23658 Y-52.33546
G0 Z1.0
G1 F300.0 Z-2.0
G3 F800.0 X79.8208 Y-32.83867 I-505.00612 J24.88963
G3 X79.82109 Y-32.7925 I-5.1997 J0.05546
G2 X80.0879 Y-13.52827 I798.71869 J-1.42862
G1 X80.08791 Y-13.52811
G3 X80.3582 Y6.04073 I-810.66243 J20.98328
G3 X80.35774 Y6.11884 I-5.19999 J0.00907
G2 X80.35831 Y6.22129 I2.73058 J0.03625
G3 X80.49549 Y6.22142 I0.06357 J5.19961
G2 X80.5421 Y6.22162 I0.03376 J-2.38424
G3 X80.53927 Y6.05951 I5.19716 J-0.17182
G2 X80.27244 Y-13.25917 I-808.76729 J1.5094
G3 X80.00229 Y-32.70005 I807.02757 J-20.93674
G1 X79.19885 Y-59.32067
G3 X79.19683 Y-59.41728 I5.19763 J-0.15687
G2 X78.77535 Y-71.64042 I-267.2692 J3.09734
G3 X78.77307 Y-71.68313 I5.19145 J-0.29806
G2 X78.69493 Y-72.10958 I-1.64383 J0.08082
G3 X78.63634 Y-72.11 I0.00819 J-5.19999
G2 X78.63662 Y-72.00263 I1.76824 J0.04901
G3 X78.63916 Y-71.88653 I-5.19717 J0.17157
G2 X79.2238 Y-52.59346 I491.76185 J-5.24648
G1 X79.22384 Y-52.5926
G3 X79.23658 Y-52.33546 I-504.99338 J25.14678
G1 F300.0 X77.63852 Y-52.2567
G3 F800.0 X78.22089 Y-32.8216 I-503.40806 J24.81087
G3 X78.22109 Y-32.78964 I-3.5998 J0.0384
G2 X78.48844 Y-13.48682 I800.31869 J-1.43148
G1 Y-13.48671
G3 X78.7582 Y6.04353 I-809.06296 J20.94188
G3 X78.75789 Y6.0976 I-3.59999 J0.00628
G2 X78.9002 Y7.25764 I4.33044 J0.0575
G3 X78.91776 Y7.32715 I-3.48139 J0.91649
G2 X79.08138 Y7.58258 I0.45197 J-0.10941
G2 X80.29026 Y7.82331 I1.11135 J-2.42519
G3 X80.47284 Y7.82126 I0.13161 J3.59759
G2 X81.59553 Y7.67634 I0.05641 J-3.98408
G3 X81.64795 Y7.6622 I0.96339 J3.4687
G2 X81.88501 Y7.49926 I-0.10721 J-0.40988
G2 X82.14143 Y6.17486 I-2.75189 J-1.21983
G3 X82.13926 Y6.05652 I3.59783 J-0.12506
G2 X81.87191 Y-13.30052 I-810.36729 J1.51239
G3 X81.60225 Y-32.72566 I805.4281 J-20.89539
G1 X80.79812 Y-59.36894
G3 X80.79673 Y-59.43582 I3.59836 J-0.1086
G2 X80.37272 Y-71.73213 I-268.86909 J3.11588
G3 X80.37114 Y-71.7617 I3.59408 J-0.20635
G2 X79.81387 Y-73.42662 I-3.2419 J0.15938
G2 X78.92424 Y-73.71637 I-0.81144 J0.98082
G3 X78.64899 Y-73.70998 I-0.22111 J-3.5932
G2 X77.56561 Y-73.56284 I-0.055 J3.6572
G3 X77.53235 Y-73.55327 I-1.01219 J-3.45477
G2 X77.3077 Y-73.38726 I0.10752 J0.38051
G2 X77.03749 Y-71.94984 I3.09688 J1.32627
G3 X77.03925 Y-71.86946 I-3.59804 J0.11878
G2 X77.62579 Y-52.51362 I493.36176 J-5.26355
G1 X77.62582 Y-52.51303
G3 X77.63852 Y-52.2567 I-503.39536 J25.0672
G1 F300.0 X76.04046 Y-52.17793
G3 F800.0 X76.62098 Y-32.80453 I-501.81 J24.73211
G3 X76.62109 Y-32.78678 I-1.99989 J0.02133
G2 X76.88898 Y-13.44537 I801.91869 J-1.43435
G1 Y-13.44531
G3 X77.1582 Y6.04632 I-807.4635 J20.90048
G3 X77.15803 Y6.07636 I-2.0 J0.00349
G2 X77.35292 Y7.66497 I5.93029 J0.07874
G3 X77.36267 Y7.70358 I-1.9341 J0.50916
G2 X78.28529 Y8.9751 I2.00706 J-0.48584
G2 X80.34876 Y9.42224 I1.90744 J-3.81772
G3 X80.45019 Y9.4211 I0.07312 J1.99866
G2 X82.0237 Y9.21798 I0.07906 J-5.58392
G3 X82.05283 Y9.21013 I0.53522 J1.92706
G2 X83.29827 Y8.25549 I-0.51208 J-1.95781
G2 X83.74046 Y6.11928 I-4.16515 J-1.97606
G3 X83.73926 Y6.05354 I1.99879 J-0.06948
G2 X83.47137 Y-13.34187 I-811.96728 J1.51538
G3 X83.2022 Y-32.75125 I803.82864 J-20.85404
G1 X82.39739 Y-59.4172
G3 X82.39662 Y-59.45436 I1.99909 J-0.06033
G2 X81.97008 Y-71.82384 I-270.46898 J3.13442
G3 X81.96921 Y-71.84027 I1.99671 J-0.11464
G2 X81.01938 Y-74.49173 I-4.83997 J0.23795
G2 X78.82597 Y-75.31335 I-2.01695 J2.04593
G3 X78.67305 Y-75.3098 I-0.12284 J-1.99622
G2 X77.11574 Y-75.0983 I-0.07906 J5.25701
G3 X77.09727 Y-75.09298 I-0.56233 J-1.91932
G2 X75.87504 Y-74.1039 I0.54261 J1.92022
G2 X75.43836 Y-71.89704 I4.52954 J2.04291
G3 X75.43934 Y-71.85239 I-1.99891 J0.06599
G2 X76.02778 Y-52.43378 I494.96167 J-5.28062
G1 X76.0278 Y-52.43345
G3 X76.04046 Y-52.17793 I-501.79734 J24.98763
G0 Z3.0
G0 X79.23658 Y-52.33546
G0 Z-1.0
G1 F300.0 Z-4.0
G3 F800.0 X79.8208 Y-32.83867 I-505.00612 J24.88963
G3 X79.82109 Y-32.7925 I-5.1997 J0.05546
G2 X80.0879 Y-13.52827 I798.71869 J-1.42862
G1 X80.08791 Y-13.52811
G3 X80.3582 Y6.04073 I-810.66243 J20.98328
G3 X80.35774 Y6.11884 I-5.19999 J0.00907
G2 X80.35831 Y6.22129 I2.73058 J0.03625
G3 X80.49549 Y6.22142 I0.06357 J5.19961
G2 X80.5421 Y6.22162 I0.03376 J-2.38424
G3 X80.53927 Y6.05951 I5.19716 J-0.17182
G2 X80.27244 Y-13.25917 I-808.76729 J1.5094
G3 X80.00229 Y-32.70005 I807.02757 J-20.93674
G1 X79.19885 Y-59.32067
G3 X79.19683 Y-59.41728 I5.19763 J-0.15687
G2 X78.77535 Y-71.64042 I-267.2692 J3.09734
G3 X78.77307 Y-71.68313 I5.19145 J-0.29806
G2 X78.69493 Y-72.10958 I-1.64383 J0.08082
G3 X78.63634 Y-72.11 I0.00819 J-5.19999
G2 X78.63662 Y-72.00263 I1.76824 J0.04901
G3 X78.63916 Y-71.88653 I-5.19717 J0.17157
G2 X79.2238 Y-52.59346 I491.76185 J-5.24648
G1 X79.22384 Y-52.5926
G3 X79.23658 Y-52.33546 I-504.99338 J25.14678
G1 F300.0 X77.63852 Y-52.2567
G3 F800.0 X78.22089 Y-32.8216 I-503.40806 J24.81087
G3 X78.22109 Y-32.78964 I-3.5998 J0.0384
G2 X78.48844 Y-13.48682 I800.31869 J-1.43148
G1 Y-13.48671
G3 X78.7582 Y6.04353 I-809.06296 J20.94188
G3 X78.75789 Y6.0976 I-3.59999 J0.00628
G2 X78.9002 Y7.25764 I4.33044 J0.0575
G3 X78.91776 Y7.32715 I-3.48139 J0.91649
G2 X79.08138 Y7.58258 I0.45197 J-0.10941
G2 X80.29026 Y7.82331 I1.11135 J-2.42519
G3 X80.47284 Y7.82126 I0.13161 J3.59759
G2 X81.59553 Y7.67634 I0.05641 J-3.98408
G3 X81.64795 Y7.6622 I0.96339 J3.4687
G2 X81.88501 Y7.49926 I-0.10721 J-0.40988
G2 X82.14143 Y6.17486 I-2.75189 J-1.21983
G3 X82.13926 Y6.05652 I3.59783 J-0.12506
G2 X81.87191 Y-13.30052 I-810.36729 J1.51239
G3 X81.60225 Y-32.72566 I805.4281 J-20.89539
G1 X80.79812 Y-59.36894
G3 X80.79673 Y-59.43582 I3.59836 J-0.1086
G2 X80.37272 Y-71.73213 I-268.86909 J3.11588
G3 X80.37114 Y-71.7617 I3.59408 J-0.20635
G2 X79.81387 Y-73.42662 I-3.2419 J0.15938
G2 X78.92424 Y-73.71637 I-0.81144 J0.98082
G3 X78.64899 Y-73.70998 I-0.22111 J-3.5932
G2 X77.56561 Y-73.56284 I-0.055 J3.6572
G3 X77.53235 Y-73.55327 I-1.01219 J-3.45477
G2 X77.3077 Y-73.38726 I0.10752 J0.38051
G2 X77.03749 Y-71.94984 I3.09688 J1.32627
G3 X77.03925 Y-71.86946 I-3.59804 J0.11878
G2 X77.62579 Y-52.51362 I493.36176 J-5.26355
G1 X77.62582 Y-52.51303
G3 X77.63852 Y-52.2567 I-503.39536 J25.0672
G1 F300.0 X76.04046 Y-52.17793
G3 F800.0 X76.62098 Y-32.80453 I-501.81 J24.73211
G3 X76.62109 Y-32.78678 I-1.99989 J0.02133
G2 X76.88898 Y-13.44537 I801.91869 J-1.43435
G1 Y-13.44531
G3 X77.1582 Y6.04632 I-807.4635 J20.90048
G3 X77.15803 Y6.07636 I-2.0 J0.00349
G2 X77.35292 Y7.66497 I5.93029 J0.07874
G3 X77.36267 Y7.70358 I-1.9341 J0.50916
G2 X78.28529 Y8.9751 I2.00706 J-0.48584
G2 X80.34876 Y9.42224 I1.90744 J-3.81772
G3 X80.45019 Y9.4211 I0.07312 J1.99866
G2 X82.0237 Y9.21798 I0.07906 J-5.58392
G3 X82.05283 Y9.21013 I0.53522 J1.92706
G2 X83.29827 Y8.25549 I-0.51208 J-1.95781
G2 X83.74046 Y6.11928 I-4.16515 J-1.97606
G3 X83.73926 Y6.05354 I1.99879 J-0.06948
G2 X83.47137 Y-13.34187 I-811.96728 J1.51538
G3 X83.2022 Y-32.75125 I803.82864 J-20.85404
G1 X82.39739 Y-59.4172
G3 X82.39662 Y-59.45436 I1.99909 J-0.06033
G2 X81.97008 Y-71.82384 I-270.46898 J3.13442
G3 X81.96921 Y-71.84027 I1.99671 J-0.11464
G2 X81.01938 Y-74.49173 I-4.83997 J0.23795
G2 X78.82597 Y-75.31335 I-2.01695 J2.04593
G3 X78.67305 Y-75.3098 I-0.12284 J-1.99622
G2 X77.11574 Y-75.0983 I-0.07906 J5.25701
G3 X77.09727 Y-75.09298 I-0.56233 J-1.91932
G2 X75.87504 Y-74.1039 I0.54261 J1.92022
G2 X75.43836 Y-71.89704 I4.52954 J2.04291
G3 X75.43934 Y-71.85239 I-1.99891 J0.06599
G2 X76.02778 Y-52.43378 I494.96167 J-5.28062
G1 X76.0278 Y-52.43345
G3 X76.04046 Y-52.17793 I-501.79734 J24.98763
G0 Z3.0
G0 X113.4655 Y-70.29083
G0 Z1.0
G1 F300.0 Z-2.0
G3 F800.0 X114.25166 Y-69.47226 I-81.57247 J79.12976
G3 X114.61779 Y-70.13598 I6.8294 J3.33457
G3 X113.4655 Y-70.29083 I15.78457 J-121.82297
G1 F300.0 X113.5758 Y-71.08319
G3 F800.0 X111.20335 Y-71.43724 I16.82656 J-120.87576
G3 X114.5403 Y-67.9974 I-79.31032 J80.27618
G3 X116.09309 Y-70.75941 I6.54076 J1.8597
G3 X113.5758 Y-71.08319 I14.30927 J-121.19954
G1 F300.0 X113.7964 Y-72.66791
G3 F800.0 X106.96363 Y-73.82032 I16.60596 J-119.29104
G3 X106.94483 Y-73.82408 I1.01196 J-5.10058
G2 X106.35194 Y-73.91181 I-1.12911 J5.58316
G2 X106.92643 Y-73.29358 I3.58777 J-2.7579
G3 X106.97334 Y-73.2512 I-3.46256 J3.87952
G3 X116.12071 Y-63.83528 I-75.08031 J82.09013
G3 X116.12357 Y-63.83195 I-3.93705 J3.39701
G3 X117.60681 Y-62.0888 I-143.6337 J123.71996
G2 X116.9017 Y-63.04367 I-395.29747 J291.16595
G3 X121.34295 Y-71.3311 I4.17936 J-3.09402
G2 X130.79907 Y-71.0697 I10.4719 J-207.65662
G2 X136.04765 Y-71.75864 I-1.60602 J-32.57237
G1 X136.04783 Y-71.75868
G3 X143.13477 Y-72.6751 I9.04245 J42.0673
G3 X143.4724 Y-72.67948 I0.23633 J5.19463
G3 X143.47929 Y-72.68649 I3.71217 J3.6414
G2 X143.49182 Y-72.71873 I-0.03114 J-0.03067
G3 X143.49258 Y-73.11187 I5.19665 J-0.18654
G2 X143.49189 Y-73.12999 I-0.11652 J-0.00463
G2 X138.2336 Y-72.44058 I1.59631 J32.57284
G1 X138.23342 Y-72.44054
G3 X131.14648 Y-71.52412 I-9.04245 J-42.0673
G3 X130.93307 Y-71.5188 I-0.23633 J-5.19463
G3 X113.7964 Y-72.66791 I-0.5307 J-120.44015
G0 Z3.0
G0 X140.38702 Y-27.68187
G0 Z1.0
G1 F300.0 Z-2.0
G3 F800.0 X139.15379 Y-25.5336 I-6.41534 J-2.25465
G2 X142.09183 Y-25.39406 I9.34349 J-165.73875
G2 X140.81036 Y-27.15727 I-12.62496 J7.82832
G3 X140.70031 Y-27.29083 I5.19257 J-4.39059
G3 X140.38702 Y-27.68187 I195.83115 J-157.21628
G1 F300.0 X141.63669 Y-28.68103
G3 F800.0 X137.90912 Y-33.46108 I194.89477 J-155.82607
G3 X138.40613 Y-32.65234 I-263.0606 J162.22107
G3 X133.62752 Y-24.74793 I-4.43445 J2.71582
G2 X123.5686 Y-25.1661 I-13.498 J203.49634
G2 X108.04771 Y-23.98824 I0.29813 J106.77826
G3 X107.76284 Y-23.95357 I-0.77037 J-5.14262
G2 X107.69544 Y-23.94383 I0.06351 J0.67727
G3 X107.69429 Y-23.64349 I-5.19837 J0.13035
G2 X107.72657 Y-23.48767 I0.3388 J0.01108
G2 X114.86041 Y-24.08001 I-2.35927 J-71.6679
G3 X114.91804 Y-24.08738 I0.68842 J5.15423
G3 X123.47652 Y-24.715 I10.75759 J88.02732
G3 X123.68648 Y-24.71597 I0.12895 J5.1984
G3 X134.93968 Y-24.21951 I-3.07782 J197.54861
G3 X134.98183 Y-24.21627 I-0.37718 J5.1863
G2 X144.65826 Y-23.71441 I13.51545 J-167.05608
G2 X144.20095 Y-24.89243 I-6.08645 J1.68497
G3 X144.18485 Y-24.92436 I4.63497 J-2.35735
G2 X142.03214 Y-28.19034 I-14.71798 J7.35861
G3 X141.94799 Y-28.29248 I3.97079 J-3.35751
G3 X141.63669 Y-28.68103 I194.58347 J-156.21463
G1 F300.0 X142.88636 Y-29.68019
G3 F800.0 X130.7703 Y-46.18811 I193.6451 J-154.82691
G2 X118.18765 Y-63.99568 I-408.46096 J275.26525
G3 X121.26237 Y-69.73313 I2.8934 J-2.14202
G2 X130.83415 Y-69.46952 I10.55248 J-209.25459
G2 X136.38395 Y-70.19439 I-1.6411 J-34.17255
G1 X136.38408 Y-70.19441
G3 X143.20748 Y-71.07675 I8.70621 J40.50303
G3 X143.51172 Y-71.07772 I0.16361 J3.59628
G2 X144.56571 Y-71.50823 I0.05371 J-1.37399
G3 X144.61937 Y-71.56391 I2.61886 J2.47014
G2 X145.09079 Y-72.77613 I-1.17123 J-1.15325
G3 X145.09132 Y-73.0483 I3.59768 J-0.12915
G2 X144.61418 Y-74.30555 I-1.71526 J-0.0682
G2 X143.52372 Y-74.7333 I-1.03687 J1.03946
G2 X137.8973 Y-74.00483 I1.56448 J34.17615
G1 X137.89717 Y-74.00481
G3 X131.07377 Y-73.12247 I-8.70621 J-40.50303
G3 X130.92602 Y-73.11878 I-0.16361 J-3.59628
G3 X107.275 Y-75.38973 I-0.52365 J-118.84017
G3 X107.26199 Y-75.39233 I0.70059 J-3.53117
G2 X105.93127 Y-75.53619 I-1.44626 J7.15142
G3 X105.78023 Y-75.54176 I0.05701 J-3.59955
G2 X104.48004 Y-75.27203 I-0.14793 J2.55549
G2 X104.3676 Y-74.84787 I0.55045 J0.3729
G3 X104.37817 Y-74.60304 I-3.58928 J0.27756
G2 X104.67298 Y-73.54232 I2.12512 J-0.01932
G2 X105.86103 Y-72.09988 I5.26672 J-3.12739
G3 X105.8935 Y-72.07054 I-2.39716 J2.68582
G3 X114.90931 Y-62.79005 I-74.00047 J80.90948
G3 X114.91129 Y-62.78774 I-2.72565 J2.35177
G3 X126.63652 Y-47.68528 I-142.42142 J122.67576
G3 X137.04168 Y-31.81671 I-251.788 J176.44528
G3 X133.73341 Y-26.34442 I-3.07 J1.88018
G2 X123.57988 Y-26.76614 I-13.6039 J205.09283
G2 X107.81068 Y-25.57058 I0.28684 J108.3783
G3 X107.61346 Y-25.54658 I-0.53333 J-3.56027
G2 X106.38124 Y-25.04015 I0.21289 J2.27028
G2 X106.09173 Y-24.00949 I1.36805 J0.94028
G3 X106.09515 Y-23.69579 I-3.59466 J0.19601
G2 X106.6028 Y-22.32324 I1.93795 J0.06338
G3 X106.66058 Y-22.25858 I-2.65554 J2.43066
G2 X107.51037 Y-21.88018 I0.83232 J-0.72578
G2 X115.07223 Y-22.49409 I-2.14308 J-73.27539
G3 X115.11213 Y-22.4992 I0.4766 J3.56831
G3 X123.5162 Y-23.11549 I10.5635 J86.43913
G3 X123.66155 Y-23.11616 I0.08927 J3.59889
G3 X134.82363 Y-22.62372 I-3.0529 J195.94881
G3 X134.8528 Y-22.62148 I-0.26113 J3.59052
G2 X145.58157 Y-22.09556 I13.64447 J-168.65087
G3 X145.70777 Y-22.09117 I-0.06204 J3.59947
G2 X146.48552 Y-22.19193 I0.1138 J-2.17351
G2 X145.6271 Y-25.61776 I-7.91371 J0.1625
G3 X145.61595 Y-25.63987 I3.20882 J-1.63201
G2 X143.25392 Y-29.22342 I-16.14908 J8.07412
G3 X143.19566 Y-29.29413 I2.74901 J-2.32443
G3 X142.88636 Y-29.68019 I193.3358 J-155.21298
G1 F300.0 X144.13603 Y-30.67936
G3 F800.0 X132.09765 Y-47.08151 I192.39543 J-153.82775
G2 X119.47361 Y-64.94769 I-409.78831 J276.15865
G3 X121.18178 Y-68.13516 I1.60745 J-1.19001
G2 X130.86841 Y-67.86934 I10.63306 J-210.85256
G2 X136.72025 Y-68.63013 I-1.67535 J-35.77273
G1 X136.72032 Y-68.63014
G3 X143.2802 Y-69.4784 I8.36997 J38.93876
G3 X143.44922 Y-69.47894 I0.09089 J1.99793
G2 X145.72965 Y-70.41039 I0.11621 J-2.97276
G3 X145.75946 Y-70.44132 I1.45492 J1.3723
G2 X146.68976 Y-72.83353 I-2.31132 J-2.27584
G3 X146.69006 Y-72.98473 I1.99871 J-0.07175
G2 X145.7565 Y-75.42593 I-3.314 J-0.13177
G2 X143.45667 Y-76.3319 I-2.17919 J2.15984
G2 X137.561 Y-75.56909 I1.63153 J35.77475
G1 X137.56093 Y-75.56908
G3 X131.00105 Y-74.72082 I-8.36997 J-38.93876
G3 X130.91897 Y-74.71877 I-0.09089 J-1.99793
G3 X107.58637 Y-76.95914 I-0.5166 J-117.24018
G3 X107.57914 Y-76.96058 I0.38921 J-1.96176
G2 X105.95661 Y-77.13599 I-1.76342 J8.71967
G3 X105.8727 Y-77.13908 I0.03167 J-1.99975
G2 X103.46782 Y-76.53855 I-0.2404 J4.15282
G2 X102.77237 Y-74.72451 I1.56267 J1.63942
G3 X102.77824 Y-74.58849 I-1.99405 J0.1542
G2 X103.29621 Y-72.72714 I3.72505 J-0.03386
G2 X104.79562 Y-70.90618 I6.64349 J-3.94257
G3 X104.81366 Y-70.88988 I-1.33175 J1.49212
G3 X113.69791 Y-61.74481 I-72.92064 J79.72882
G3 X113.69901 Y-61.74353 I-1.51425 J1.30654
G3 X125.32532 Y-46.76835 I-141.20914 J121.63155
G3 X135.67724 Y-30.98107 I-250.4768 J175.52834
G3 X133.83931 Y-27.94091 I-1.70556 J1.04455
G2 X123.59122 Y-28.36617 I-13.70979 J206.68933
G2 X107.57364 Y-27.15293 I0.2755 J109.97834
G3 X107.46407 Y-27.1396 I-0.2963 J-1.97793
G2 X105.20235 Y-26.13478 I0.36228 J3.86329
G2 X104.4941 Y-23.92237 I2.54694 J2.0349
G3 X104.496 Y-23.7481 I-1.99703 J0.1089
G2 X105.42256 Y-21.24295 I3.53709 J0.11569
G3 X105.45466 Y-21.20702 I-1.4753 J1.35037
G2 X107.54873 Y-20.28062 I2.03824 J-1.77734
G2 X115.28405 Y-20.90818 I-2.18143 J-74.87495
G3 X115.30622 Y-20.91101 I0.26478 J1.9824
G3 X123.55587 Y-21.51599 I10.36941 J84.85095
G3 X123.63663 Y-21.51636 I0.0496 J1.99938
G3 X134.70757 Y-21.02793 I-3.02797 J194.349
G3 X134.72378 Y-21.02669 I-0.14507 J1.99473
G2 X145.554 Y-20.4958 I13.7735 J-170.24566
G3 X145.62411 Y-20.49336 I-0.03446 J1.9997
G2 X147.60734 Y-20.93708 I0.19747 J-3.77132
G2 X148.09107 Y-22.09966 I-0.8955 J-1.05453
G3 X148.08535 Y-22.21653 I1.99389 J-0.1562
G2 X147.05324 Y-26.3431 I-9.51354 J0.1871
G3 X147.04705 Y-26.35538 I1.78268 J-0.90667
G2 X144.4757 Y-30.2565 I-17.58018 J8.78964
G3 X144.44334 Y-30.29579 I1.52723 J-1.29135
G3 X144.13603 Y-30.67936 I192.08812 J-154.21132
G0 Z3.0
G0 X140.38702 Y-27.68187
G0 Z-1.0
G1 F300.0 Z-4.0
G3 F800.0 X139.15379 Y-25.5336 I-6.41534 J-2.25465
G2 X142.09183 Y-25.39406 I9.34349 J-165.73875
G2 X140.81036 Y-27.15727 I-12.62496 J7.82832
G3 X140.70031 Y-27.29083 I5.19257 J-4.39059
G3 X140.38702 Y-27.68187 I195.83115 J-157.21628
G1 F300.0 X141.63669 Y-28.68103
G3 F800.0 X137.90912 Y-33.46108 I194.89477 J-155.82607
G3 X138.40613 Y-32.65234 I-263.0606 J162.22107
G3 X133.62752 Y-24.74793 I-4.43445 J2.71582
G2 X123.5686 Y-25.1661 I-13.498 J203.49634
G2 X108.04771 Y-23.98824 I0.29813 J106.77826
G3 X107.76284 Y-23.95357 I-0.77037 J-5.14262
G2 X107.69544 Y-23.94383 I0.06351 J0.67727
G3 X107.69429 Y-23.64349 I-5.19837 J0.13035
G2 X107.72657 Y-23.48767 I0.3388 J0.01108
G2 X114.86041 Y-24.08001 I-2.35927 J-71.6679
G3 X114.91804 Y-24.08738 I0.68842 J5.15423
G3 X123.47652 Y-24.715 I10.75759 J88.02732
G3 X123.68648 Y-24.71597 I0.12895 J5.1984
G3 X134.93968 Y-24.21951 I-3.07782 J197.54861
G3 X134.98183 Y-24.21627 I-0.37718 J5.1863
G2 X144.65826 Y-23.71441 I13.51545 J-167.05608
G2 X144.20095 Y-24.89243 I-6.08645 J1.68497
G3 X144.18485 Y-24.92436 I4.63497 J-2.35735
G2 X142.03214 Y-28.19034 I-14.71798 J7.35861
G3 X141.94799 Y-28.29248 I3.97079 J-3.35751
G3 X141.63669 Y-28.68103 I194.58347 J-156.21463
G0 Z3.0
G0 X114.25166 Y-69.47226
G0 Z-1.0
G1 F300.0 Z-4.0
G3 F800.0 X114.61779 Y-70.13598 I6.8294 J3.33457
G3 X113.4655 Y-70.29083 I15.78457 J-121.82297
G3 X114.25166 Y-69.47226 I-81.57247 J79.12976
G1 F300.0 X113.67191 Y-68.921
G3 F800.0 X114.5403 Y-67.9974 I-81.77888 J77.75994
G3 X116.09309 Y-70.75941 I6.54076 J1.8597
G3 X111.20335 Y-71.43724 I14.30927 J-121.19954
G3 X113.67191 Y-68.921 I-79.31032 J80.27618
G1 F300.0 X112.5124 Y-67.81848
G3 F800.0 X116.12071 Y-63.83528 I-80.61937 J76.65742
G3 X116.12357 Y-63.83195 I-3.93705 J3.39701
G3 X117.60681 Y-62.0888 I-143.6337 J123.71996
G2 X116.9017 Y-63.04367 I-395.29747 J291.16595
G3 X121.34295 Y-71.3311 I4.17936 J-3.09402
G2 X130.79907 Y-71.0697 I10.4719 J-207.65662
G2 X136.04765 Y-71.75864 I-1.60602 J-32.57237
G1 X136.04783 Y-71.75868
G3 X143.13477 Y-72.6751 I9.04245 J42.0673
G3 X143.4724 Y-72.67948 I0.23633 J5.19463
G3 X143.47929 Y-72.68649 I3.71217 J3.6414
G2 X143.49182 Y-72.71873 I-0.03114 J-0.03067
G3 X143.49258 Y-73.11187 I5.19665 J-0.18654
G2 X143.49189 Y-73.12999 I-0.11652 J-0.00463
G2 X138.2336 Y-72.44058 I1.59631 J32.57284
G1 X138.23342 Y-72.44054
G3 X131.14648 Y-71.52412 I-9.04245 J-42.0673
G3 X130.93307 Y-71.5188 I-0.23633 J-5.19463
G3 X106.96363 Y-73.82032 I-0.5307 J-120.44015
G3 X106.94483 Y-73.82408 I1.01196 J-5.10058
G2 X106.35194 Y-73.91181 I-1.12911 J5.58316
G2 X106.92643 Y-73.29358 I3.58777 J-2.7579
G3 X106.97334 Y-73.2512 I-3.46256 J3.87952
G3 X112.5124 Y-67.81848 I-75.08031 J82.09013
G1 F300.0 X111.3529 Y-66.71596
G3 F800.0 X114.90931 Y-62.79005 I-79.45987 J75.5549
G3 X114.91129 Y-62.78774 I-2.72565 J2.35177
G3 X126.63652 Y-47.68528 I-142.42142 J122.67576
G3 X137.04168 Y-31.81671 I-251.788 J176.44528
G3 X133.73341 Y-26.34442 I-3.07 J1.88018
G2 X123.57988 Y-26.76614 I-13.6039 J205.09283
G2 X107.81068 Y-25.57058 I0.28684 J108.3783
G3 X107.61346 Y-25.54658 I-0.53333 J-3.56027
G2 X106.38124 Y-25.04015 I0.21289 J2.27028
G2 X106.09173 Y-24.00949 I1.36805 J0.94028
G3 X106.09515 Y-23.69579 I-3.59466 J0.19601
G2 X106.6028 Y-22.32324 I1.93795 J0.06338
G3 X106.66058 Y-22.25858 I-2.65554 J2.43066
G2 X107.51037 Y-21.88018 I0.83232 J-0.72578
G2 X115.07223 Y-22.49409 I-2.14308 J-73.27539
G3 X115.11213 Y-22.4992 I0.4766 J3.56831
G3 X123.5162 Y-23.11549 I10.5635 J86.43913
G3 X123.66155 Y-23.11616 I0.08927 J3.59889
G3 X134.82363 Y-22.62372 I-3.0529 J195.94881
G3 X134.8528 Y-22.62148 I-0.26113 J3.59052
G2 X145.58157 Y-22.09556 I13.64447 J-168.65087
G3 X145.70777 Y-22.09117 I-0.06204 J3.59947
G2 X146.48552 Y-22.19193 I0.1138 J-2.17351
G2 X145.6271 Y-25.61776 I-7.91371 J0.1625
G3 X145.61595 Y-25.63987 I3.20882 J-1.63201
G2 X143.25392 Y-29.22342 I-16.14908 J8.07412
G3 X143.19566 Y-29.29413 I2.74901 J-2.32443
G3 X130.7703 Y-46.18811 I193.3358 J-155.21298
G2 X118.18765 Y-63.99568 I-408.46096 J275.26525
G3 X121.26237 Y-69.73313 I2.8934 J-2.14202
G2 X130.83415 Y-69.46952 I10.55248 J-209.25459
G2 X136.38395 Y-70.19439 I-1.6411 J-34.17255
G1 X136.38408 Y-70.19441
G3 X143.20748 Y-71.07675 I8.70621 J40.50303
G3 X143.51172 Y-71.07772 I0.16361 J3.59628
G2 X144.56571 Y-71.50823 I0.05371 J-1.37399
G3 X144.61937 Y-71.56391 I2.61886 J2.47014
G2 X145.09079 Y-72.77613 I-1.17123 J-1.15325
G3 X145.09132 Y-73.0483 I3.59768 J-0.12915
G2 X144.61418 Y-74.30555 I-1.71526 J-0.0682
G2 X143.52372 Y-74.7333 I-1.03687 J1.03946
G2 X137.8973 Y-74.00483 I1.56448 J34.17615
G1 X137.89717 Y-74.00481
G3 X131.07377 Y-73.12247 I-8.70621 J-40.50303
G3 X130.92602 Y-73.11878 I-0.16361 J-3.59628
G3 X107.275 Y-75.38973 I-0.52365 J-118.84017
G3 X107.26199 Y-75.39233 I0.70059 J-3.53117
G2 X105.93127 Y-75.53619 I-1.44626 J7.15142
G3 X105.78023 Y-75.54176 I0.05701 J-3.59955
G2 X104.48004 Y-75.27203 I-0.14793 J2.55549
G2 X104.3676 Y-74.84787 I0.55045 J0.3729
G3 X104.37817 Y-74.60304 I-3.58928 J0.27756
G2 X104.67298 Y-73.54232 I2.12512 J-0.01932
G2 X105.86103 Y-72.09988 I5.26672 J-3.12739
G3 X105.8935 Y-72.07054 I-2.39716 J2.68582
G3 X111.3529 Y-66.71596 I-74.00047 J80.90948
G1 F300.0 X110.1934 Y-65.61344
G3 F800.0 X113.69791 Y-61.74481 I-78.30037 J74.45238
G3 X113.69901 Y-61.74353 I-1.51425 J1.30654
G3 X125.32532 Y-46.76835 I-141.20914 J121.63155
G3 X135.67724 Y-30.98107 I-250.4768 J175.52834
G3 X133.83931 Y-27.94091 I-1.70556 J1.04455
G2 X123.59122 Y-28.36617 I-13.70979 J206.68933
G2 X107.57364 Y-27.15293 I0.2755 J109.97834
G3 X107.46407 Y-27.1396 I-0.2963 J-1.97793
G2 X105.20235 Y-26.13478 I0.36228 J3.86329
G2 X104.4941 Y-23.92237 I2.54694 J2.0349
G3 X104.496 Y-23.7481 I-1.99703 J0.1089
G2 X105.42256 Y-21.24295 I3.53709 J0.11569
G3 X105.45466 Y-21.20702 I-1.4753 J1.35037
G2 X107.54873 Y-20.28062 I2.03824 J-1.77734
G2 X115.28405 Y-20.90818 I-2.18143 J-74.87495
G3 X115.30622 Y-20.91101 I0.26478 J1.9824
G3 X123.55587 Y-21.51599 I10.36941 J84.85095
G3 X123.63663 Y-21.51636 I0.0496 J1.99938
G3 X134.70757 Y-21.02793 I-3.02797 J194.349
G3 X134.72378 Y-21.02669 I-0.14507 J1.99473
G2 X145.554 Y-20.4958 I13.7735 J-170.24566
G3 X145.62411 Y-20.49336 I-0.03446 J1.9997
G2 X147.60734 Y-20.93708 I0.19747 J-3.77132
G2 X148.09107 Y-22.09966 I-0.8955 J-1.05453
G3 X148.08535 Y-22.21653 I1.99389 J-0.1562
G2 X147.05324 Y-26.3431 I-9.51354 J0.1871
G3 X147.04705 Y-26.35538 I1.78268 J-0.90667
G2 X144.4757 Y-30.2565 I-17.58018 J8.78964
G3 X144.44334 Y-30.29579 I1.52723 J-1.29135
G3 X132.09765 Y-47.08151 I192.08812 J-154.21132
G2 X119.47361 Y-64.94769 I-409.78831 J276.15865
G3 X121.18178 Y-68.13516 I1.60745 J-1.19001
G2 X130.86841 Y-67.86934 I10.63306 J-210.85256
G2 X136.72025 Y-68.63013 I-1.67535 J-35.77273
G1 X136.72032 Y-68.63014
G3 X143.2802 Y-69.4784 I8.36997 J38.93876
G3 X143.44922 Y-69.47894 I0.09089 J1.99793
G2 X145.72965 Y-70.41039 I0.11621 J-2.97276
G3 X145.75946 Y-70.44132 I1.45492 J1.3723
G2 X146.68976 Y-72.83353 I-2.31132 J-2.27584
G3 X146.69006 Y-72.98473 I1.99871 J-0.07175
G2 X145.7565 Y-75.42593 I-3.314 J-0.13177
G2 X143.45667 Y-76.3319 I-2.17919 J2.15984
G2 X137.561 Y-75.56909 I1.63153 J35.77475
G1 X137.56093 Y-75.56908
G3 X131.00105 Y-74.72082 I-8.36997 J-38.93876
G3 X130.91897 Y-74.71877 I-0.09089 J-1.99793
G3 X107.58637 Y-76.95914 I-0.5166 J-117.24018
G3 X107.57914 Y-76.96058 I0.38921 J-1.96176
G2 X105.95661 Y-77.13599 I-1.76342 J8.71967
G3 X105.8727 Y-77.13908 I0.03167 J-1.99975
G2 X103.46782 Y-76.53855 I-0.2404 J4.15282
G2 X102.77237 Y-74.72451 I1.56267 J1.63942
G3 X102.77824 Y-74.58849 I-1.99405 J0.1542
G2 X103.29621 Y-72.72714 I3.72505 J-0.03386
G2 X104.79562 Y-70.90618 I6.64349 J-3.94257
G3 X104.81366 Y-70.88988 I-1.33175 J1.49212
G3 X110.1934 Y-65.61344 I-72.92064 J79.72882
G0 Z3.0
G0 X164.11797 Y-54.22521
G0 Z1.0
G1 F300.0 Z-2.0
G2 F800.0 X164.11066 Y-54.08856 I20.89003 J1.18578
G3 X164.21228 Y-54.14598 I3.00066 J5.19207
G3 X164.11797 Y-54.22521 I3.81213 J-4.63332
G1 F300.0 X164.63883 Y-54.83242
G3 F800.0 X163.5142 Y-56.19124 I3.38558 J-3.94688
G2 X163.28721 Y-52.68692 I21.4938 J3.15181
G3 X163.2877 Y-52.55787 I-5.19932 J0.08438
G2 X163.28672 Y-52.41488 I41.47586 J0.35627
G3 X166.01629 Y-53.9766 I3.82461 J3.51839
G1 X165.79784 Y-54.08011
G3 X164.63883 Y-54.83242 I2.22658 J-4.69919
G0 Z3.0
G0 X165.72833 Y-52.21677
G0 Z1.0
G1 F300.0 Z-2.0
G3 F800.0 X168.65607 Y-52.14467 I1.383 J3.32028
G1 X185.14533 Y-44.30288
G3 X185.16245 Y-44.29468 I-1.54474 J3.24819
G3 X192.50178 Y-40.46163 I-56.00238 J116.17364
G3 X199.70643 Y-35.64433 I-24.36408 J44.23455
G3 X199.88621 Y-30.18347 I-2.24842 J2.80741
G3 X192.38203 Y-25.99246 I-12.63114 J-13.8028
G3 X192.37693 Y-25.99101 I-0.9856 J-3.45913
G3 X184.51791 Y-24.94294 I-7.55566 J-26.66692
G3 X170.82303 Y-31.36925 I-0.22096 J-17.33459
G3 X166.07792 Y-39.60658 I22.30684 J-18.3352
G3 X163.58619 Y-48.18208 I50.40362 J-19.29525
G3 X165.72833 Y-52.21677 I3.52514 J-0.7144
G1 F300.0 X166.34231 Y-50.74273
G3 F800.0 X167.97028 Y-50.70264 I0.76902 J1.84624
G1 X184.45954 Y-42.86084
G3 X184.46906 Y-42.85628 I-0.85895 J1.80616
G3 X191.72447 Y-39.06677 I-55.30899 J114.73524
G3 X198.70824 Y-34.39798 I-23.58677 J42.83969
G3 X198.80821 Y-31.36147 I-1.25023 J1.56106
G3 X191.94447 Y-27.52814 I-11.55314 J-12.6248
G3 X191.94164 Y-27.52733 I-0.54805 J-1.92345
G3 X184.51629 Y-26.53986 I-7.12036 J-25.1306
G3 X172.06041 Y-32.37856 I-0.21935 J-15.73767
G3 X167.57159 Y-40.1712 I21.06947 J-17.32589
G3 X165.15118 Y-48.49924 I48.90996 J-18.73064
G3 X166.34231 Y-50.74273 I1.96015 J-0.39724
G0 Z3.0
G0 X168.21898 Y-54.70344
G0 Z1.0
G1 F300.0 Z-2.0
G1 F800.0 X166.48294 Y-55.52601
G3 X165.01367 Y-60.75298 I1.54148 J-3.25328
G3 X173.84605 Y-68.69576 I19.45916 J12.7564
G3 X173.94067 Y-68.7426 I1.64419 J3.2026
G3 X186.03834 Y-71.34825 I11.54293 J24.20547
G3 X186.06099 Y-71.34771 I-0.07447 J3.59923
G3 X195.64855 Y-69.81595 I-0.99928 J37.02553
G3 X200.62568 Y-67.98072 I-7.72734 J28.62309
G3 X205.7331 Y-63.86102 I-5.19781 J11.66985
G3 X205.91079 Y-63.59437 I-2.904 J2.12762
G2 X206.8429 Y-62.46341 I4.31055 J-2.60306
G3 X206.86647 Y-62.44189 I-2.4153 J2.66951
G2 X207.45282 Y-62.74441 I-0.13212 J-0.97558
G3 X207.72702 Y-63.00774 I2.62726 J2.4612
G2 X207.98396 Y-63.56241 I-0.48492 J-0.56148
G2 X207.51632 Y-65.34343 I-3.68271 J0.01507
G2 X204.80564 Y-68.14531 I-7.71862 J4.75522
G3 X204.75756 Y-68.17773 I1.98863 J-3.00089
G2 X200.53384 Y-70.51711 I-14.31804 J20.86838
G3 X200.45478 Y-70.55264 I1.43589 J-3.30125
G2 X185.91906 Y-73.87097 I-15.05582 J32.4554
G2 X176.55994 Y-72.66787 I-0.3545 J34.2469
G2 X168.55686 Y-68.59206 I5.93753 J21.55383
G2 X163.31819 Y-61.61526 I11.10709 J13.79516
G2 X161.68742 Y-52.66096 I21.68982 J8.57583
G3 X161.68776 Y-52.57162 I-3.59953 J0.05842
G2 X163.09489 Y-41.27534 I43.0758 J0.37001
G2 X167.78989 Y-31.27004 I29.97752 J-7.96278
G3 X167.82176 Y-31.22445 I-2.93442 J2.08547
G2 X175.0513 Y-24.67557 I17.45324 J-12.00233
G2 X184.45764 Y-22.47163 I9.09725 J-17.6519
G3 X184.53904 Y-22.47198 I0.05603 J3.59956
G2 X191.34664 Y-23.04429 I0.26516 J-37.62002
G3 X191.36132 Y-23.04685 I0.62605 J3.54515
G2 X197.41748 Y-25.07854 I-3.55852 J-20.64957
G3 X197.44954 Y-25.09489 I1.65185 J3.19865
G2 X201.17459 Y-28.42653 I-4.32456 J-8.58349
G2 X202.39904 Y-33.18219 I-7.80098 J-4.54399
G3 X202.39816 Y-33.2379 I3.59901 J-0.08441
G2 X201.23763 Y-36.78338 I-6.14577 J0.049
G2 X197.90563 Y-40.0638 I-11.49358 J8.3419
G2 X192.75197 Y-43.00738 I-25.77495 J39.14375
G3 X192.71086 Y-43.02785 I1.58396 J-3.23281
G2 X187.01883 Y-45.79572 I-90.7658 J179.42012
G3 X187.00052 Y-45.80433 I1.52316 J-3.2619
G1 X168.21898 Y-54.70344
G1 F300.0 X168.90408 Y-56.14934
G1 F800.0 X167.16804 Y-56.97192
G3 X166.35178 Y-59.87579 I0.85638 J-1.80738
G3 X174.5768 Y-67.27239 I18.12105 J11.8792
G3 X174.62936 Y-67.29841 I0.91344 J1.77922
G3 X186.00524 Y-69.7486 I10.85423 J22.76127
G3 X186.01783 Y-69.7483 I-0.04137 J1.99957
G3 X195.21136 Y-68.27669 I-0.95611 J35.42611
G3 X199.95761 Y-66.52673 I-7.29014 J27.08383
G3 X204.44244 Y-62.91541 I-4.52974 J10.21586
G3 X204.54115 Y-62.76727 I-1.61333 J1.18201
G2 X205.76943 Y-61.27696 I5.68019 J-3.43016
G3 X205.79663 Y-61.25188 I-1.34184 J1.48306
G2 X206.77942 Y-60.83337 I1.06224 J-1.13126
G2 X208.62049 Y-61.65054 I-0.04507 J-2.58409
G3 X208.77282 Y-61.79684 I1.45959 J1.36733
G2 X209.58398 Y-63.5604 I-1.53073 J-1.77239
G2 X208.89555 Y-66.15499 I-5.28273 J0.01306
G2 X205.68947 Y-69.47904 I-9.09785 J5.56678
G3 X205.66276 Y-69.49705 I1.10479 J-1.66716
G2 X201.17201 Y-71.98433 I-15.22324 J22.1877
G3 X201.12809 Y-72.00407 I0.79772 J-1.83403
G2 X185.93897 Y-75.47085 I-15.72913 J33.90683
G2 X176.13715 Y-74.21101 I-0.37441 J35.84678
G2 X167.55631 Y-69.84063 I6.36031 J23.09696
G2 X161.83574 Y-62.21738 I12.10763 J15.04373
G2 X160.08763 Y-52.63499 I23.17227 J9.17795
G3 X160.08782 Y-52.58536 I-1.99974 J0.03245
G2 X161.54785 Y-40.86705 I44.67574 J0.38376
G2 X166.4857 Y-30.34316 I31.52455 J-8.37106
G3 X166.50341 Y-30.31784 I-1.63023 J1.15859
G2 X174.29852 Y-23.26355 I18.77159 J-12.90894
G2 X184.48254 Y-20.87183 I9.85003 J-19.06391
G3 X184.52777 Y-20.87202 I0.03113 J1.99976
G2 X191.62489 Y-21.46867 I0.27643 J-39.21998
G3 X191.63304 Y-21.4701 I0.34781 J1.96953
G2 X198.15164 Y-23.65691 I-3.83024 J-22.22633
G3 X198.16945 Y-23.666 I0.9177 J1.77703
G2 X202.53663 Y-27.58615 I-5.04447 J-10.01238
G2 X203.9986 Y-33.21971 I-9.16303 J-5.38437
G3 X203.99811 Y-33.25066 I1.99945 J-0.04689
G2 X202.53395 Y-37.72124 I-7.74572 J0.06176
G2 X198.80517 Y-41.38719 I-12.7899 J9.27976
G2 X193.45595 Y-44.44419 I-26.67449 J40.46714
G3 X193.43311 Y-44.45556 I0.87998 J-1.79601
G2 X187.69579 Y-47.24545 I-91.48805 J180.84783
G3 X187.68562 Y-47.25024 I0.8462 J-1.81217
G1 X168.90408 Y-56.14934
G0 Z3.0
G0 X164.21228 Y-54.14598
G0 Z-1.0
G1 F300.0 Z-4.0
G3 F800.0 X164.11797 Y-54.22521 I3.81213 J-4.63332
G2 X164.11066 Y-54.08856 I20.89003 J1.18578
G3 X164.21228 Y-54.14598 I3.00066 J5.19207
G1 F300.0 X164.72057 Y-54.76375
G3 F800.0 X163.5142 Y-56.19124 I3.30385 J-4.01555
G2 X163.28721 Y-52.68692 I21.4938 J3.15181
G3 X163.2877 Y-52.55787 I-5.19932 J0.08438
G2 X163.28672 Y-52.41488 I41.47586 J0.35627
G3 X166.01629 Y-53.9766 I3.82461 J3.51839
G1 X165.79784 Y-54.08011
G3 X164.72057 Y-54.76375 I2.22658 J-4.69919
G1 F300.0 X165.75408 Y-52.22738
G3 F800.0 X168.65607 Y-52.14467 I1.35725 J3.33089
G1 X185.14533 Y-44.30288
G3 X185.16245 Y-44.29468 I-1.54474 J3.24819
G3 X192.50178 Y-40.46163 I-56.00238 J116.17364
G3 X199.70643 Y-35.64433 I-24.36408 J44.23455
G3 X199.88621 Y-30.18347 I-2.24842 J2.80741
G3 X192.38203 Y-25.99246 I-12.63114 J-13.8028
G3 X192.37693 Y-25.99101 I-0.9856 J-3.45913
G3 X184.51791 Y-24.94294 I-7.55566 J-26.66692
G3 X170.82303 Y-31.36925 I-0.22096 J-17.33459
G3 X166.07792 Y-39.60658 I22.30684 J-18.3352
G3 X163.58619 Y-48.18208 I50.40362 J-19.29525
G3 X165.75408 Y-52.22738 I3.52514 J-0.7144
G1 F300.0 X166.35663 Y-50.74863
G3 F800.0 X167.97028 Y-50.70264 I0.7547 J1.85214
G1 X184.45954 Y-42.86084
G3 X184.46906 Y-42.85628 I-0.85895 J1.80616
G3 X191.72447 Y-39.06677 I-55.30899 J114.73524
G3 X198.70824 Y-34.39798 I-23.58677 J42.83969
G3 X198.80821 Y-31.36147 I-1.25023 J1.56106
G3 X191.94447 Y-27.52814 I-11.55314 J-12.6248
G3 X191.94164 Y-27.52733 I-0.54805 J-1.92345
G3 X184.51629 Y-26.53986 I-7.12036 J-25.1306
G3 X172.06041 Y-32.37856 I-0.21935 J-15.73767
G3 X167.57159 Y-40.1712 I21.06947 J-17.32589
G3 X165.15118 Y-48.49924 I48.90996 J-18.73064
G3 X166.35663 Y-50.74863 I1.96015 J-0.39724
G0 Z3.0
G0 X168.22839 Y-54.69898
G0 Z-1.0
G1 F300.0 Z-4.0
G1 F800.0 X166.48294 Y-55.52601
G3 X165.01367 Y-60.75298 I1.54148 J-3.25328
G3 X173.84605 Y-68.69576 I19.45916 J12.7564
G3 X173.94067 Y-68.7426 I1.64419 J3.2026
G3 X186.03834 Y-71.34825 I11.54293 J24.20547
G3 X186.06099 Y-71.34771 I-0.07447 J3.59923
G3 X195.64855 Y-69.81595 I-0.99928 J37.02553
G3 X200.62568 Y-67.98072 I-7.72734 J28.62309
G3 X205.7331 Y-63.86102 I-5.19781 J11.66985
G3 X205.91079 Y-63.59437 I-2.904 J2.12762
G2 X206.8429 Y-62.46341 I4.31055 J-2.60306
G3 X206.86647 Y-62.44189 I-2.4153 J2.66951
G2 X207.45282 Y-62.74441 I-0.13212 J-0.97558
G3 X207.72702 Y-63.00774 I2.62726 J2.4612
G2 X207.98396 Y-63.56241 I-0.48492 J-0.56148
G2 X207.51632 Y-65.34343 I-3.68271 J0.01507
G2 X204.80564 Y-68.14531 I-7.71862 J4.75522
G3 X204.75756 Y-68.17773 I1.98863 J-3.00089
G2 X200.53384 Y-70.51711 I-14.31804 J20.86838
G3 X200.45478 Y-70.55264 I1.43589 J-3.30125
G2 X185.91906 Y-73.87097 I-15.05582 J32.4554
G2 X176.55994 Y-72.66787 I-0.3545 J34.2469
G2 X168.55686 Y-68.59206 I5.93753 J21.55383
G2 X163.31819 Y-61.61526 I11.10709 J13.79516
G2 X161.68742 Y-52.66096 I21.68982 J8.57583
G3 X161.68776 Y-52.57162 I-3.59953 J0.05842
G2 X163.09489 Y-41.27534 I43.0758 J0.37001
G2 X167.78989 Y-31.27004 I29.97752 J-7.96278
G3 X167.82176 Y-31.22445 I-2.93442 J2.08547
G2 X175.0513 Y-24.67557 I17.45324 J-12.00233
G2 X184.45764 Y-22.47163 I9.09725 J-17.6519
G3 X184.53904 Y-22.47198 I0.05603 J3.59956
