; generated by Slic3r 1.33.8-prusa3d-win64 on 2017-03-10 at 19:25:22

; external perimeters extrusion width = 0.45mm
; perimeters extrusion width = 0.45mm
; infill extrusion width = 0.45mm
; solid infill extrusion width = 0.45mm
; top infill extrusion width = 0.45mm

M107
M115 U3.0.9 ; tell printer latest fw version
M83  ; extruder relative mode
M104 S215 ; set extruder temp
M140 S55 ; set bed temp
M190 S55 ; wait for bed temp
M109 S215 ; wait for extruder temp
G28 W ; home all without mesh bed level
G80 ; mesh bed leveling
G1 Y-3.0 F1000.0 ; go outside pritn area
G1 X60.0 E9.0  F1000.0 ; intro line
G1 X100.0 E12.5  F1000.0 ; intro line
G21 ; set units to millimeters
G90 ; use absolute coordinates
M83 ; use relative distances for extrusion
G1 E-0.80000 F2100.00000
G1 Z0.200 F7200.000
G1 X85.191 Y98.242 F7200.000
G1 E0.80000 F2100.00000
M204 S1000
G1 F2100
G1 X86.094 Y97.345 E0.03989
G1 X104.371 Y81.358 E0.76134
G1 X105.927 Y80.086 E0.06302
G1 X107.531 Y78.937 E0.06188
G1 X109.322 Y77.820 E0.06617
G1 X111.147 Y76.846 E0.06486
G1 X113.082 Y75.976 E0.06653
G1 X114.930 Y75.283 E0.06188
G1 X116.818 Y74.710 E0.06188
G1 X118.817 Y74.239 E0.06438
G1 X120.906 Y73.891 E0.06641
G1 X122.950 Y73.690 E0.06438
G1 X125.002 Y73.623 E0.06438
G1 X127.123 Y73.696 E0.06653
G1 X129.165 Y73.902 E0.06435
G1 X131.109 Y74.223 E0.06178
G1 X133.032 Y74.669 E0.06188
G1 X135.064 Y75.281 E0.06653
G1 X136.919 Y75.976 E0.06211
G1 X138.850 Y76.845 E0.06641
G1 X140.662 Y77.811 E0.06438
G1 X142.407 Y78.894 E0.06438
G1 X144.122 Y80.124 E0.06617
G1 X145.654 Y81.380 E0.06211
G1 X163.900 Y97.340 E0.76008
G1 X164.786 Y98.216 E0.03906
G1 X165.543 Y99.172 E0.03823
G1 X166.133 Y100.129 E0.03524
G1 X166.652 Y101.235 E0.03833
G1 X166.751 Y101.495 E0.00871
G1 X167.081 Y102.562 E0.03500
G1 X167.303 Y103.772 E0.03858
G1 X167.377 Y104.992 E0.03834
G1 X167.308 Y106.175 E0.03715
G1 X167.105 Y107.323 E0.03655
G1 X167.045 Y107.571 E0.00800
G1 X166.706 Y108.635 E0.03500
G1 X166.255 Y109.639 E0.03452
G1 X166.134 Y109.868 E0.00812
G1 X165.552 Y110.816 E0.03488
G1 X164.862 Y111.694 E0.03500
G1 X164.692 Y111.884 E0.00800
G1 X163.906 Y112.655 E0.03452
G1 X145.647 Y128.627 E0.76063
G1 X144.073 Y129.914 E0.06374
G1 X142.422 Y131.096 E0.06367
G1 X140.661 Y132.189 E0.06498
G1 X138.785 Y133.186 E0.06662
G1 X136.989 Y133.996 E0.06178
G1 X135.138 Y134.693 E0.06200
G1 X133.105 Y135.312 E0.06665
G1 X131.037 Y135.790 E0.06653
G1 X129.090 Y136.109 E0.06188
G1 X127.122 Y136.304 E0.06200
G1 X125.001 Y136.377 E0.06653
G1 X122.881 Y136.304 E0.06653
G1 X120.909 Y136.109 E0.06212
G1 X118.887 Y135.776 E0.06426
G1 X116.895 Y135.312 E0.06414
G1 X114.929 Y134.717 E0.06438
G1 X113.014 Y133.998 E0.06414
G1 X111.146 Y133.153 E0.06426
G1 X109.338 Y132.189 E0.06426
G1 X107.619 Y131.123 E0.06343
G1 X105.929 Y129.916 E0.06510
G1 X104.354 Y128.628 E0.06379
G1 X86.097 Y112.658 E0.76056
G1 X85.303 Y111.878 E0.03488
G1 X84.537 Y110.935 E0.03809
G1 X84.381 Y110.714 E0.00847
G1 X83.800 Y109.752 E0.03524
G1 X83.301 Y108.652 E0.03787
G1 X82.957 Y107.574 E0.03548
G1 X82.894 Y107.319 E0.00824
G1 X82.697 Y106.224 E0.03488
G1 X82.623 Y105.027 E0.03763
G1 X82.686 Y103.889 E0.03572
G1 X82.719 Y103.625 E0.00836
G1 X82.926 Y102.536 E0.03476
G1 X83.289 Y101.380 E0.03799
G1 X83.750 Y100.351 E0.03536
G1 X83.871 Y100.122 E0.00812
G1 X84.453 Y99.178 E0.03476
G1 X85.153 Y98.288 E0.03551
G1 F5760
G1 X86.094 Y97.345 E-0.46137
G1 F5760
G1 X86.743 Y96.777 E-0.29863
G1 E-0.04000 F2100.00000
G1 X125.000 Y80.072 F7200.000
G1 E0.80000 F2100.00000
G1 F1680
G1 X125.542 Y81.010 E0.03399
G1 X127.711 Y81.189 E0.06825
G1 X129.312 Y81.398 E0.05063
G1 X129.210 Y81.220 E0.00642
G1 X133.819 Y82.654 E0.15133
G1 X133.788 Y82.707 E0.00193
G1 X134.651 Y83.065 E0.02931
G1 X135.600 Y83.507 E0.03281
G1 X137.403 Y84.446 E0.06373
G1 X137.083 Y85.000 E0.02006
G1 X137.106 Y85.040 E0.00144
G1 X137.600 Y84.579 E0.02117
G1 X139.366 Y85.819 E0.06765
G1 X139.912 Y86.243 E0.02169
G1 X139.941 Y86.193 E0.00182
G1 X141.607 Y87.722 E0.07090
G1 X142.368 Y88.488 E0.03387
G1 X142.898 Y89.071 E0.02470
G1 X142.941 Y88.996 E0.00272
G1 X144.500 Y91.070 E0.08133
G1 X145.150 Y92.029 E0.03633
G1 X145.489 Y92.584 E0.02038
G1 X145.560 Y92.461 E0.00445
G1 X146.905 Y95.280 E0.09792
G1 X147.406 Y96.498 E0.04130
G1 X147.572 Y96.976 E0.01586
G1 X147.712 Y96.733 E0.00878
G1 X148.567 Y100.652 E0.12576
G1 X148.799 Y102.185 E0.04861
G1 X148.979 Y104.286 E0.06610
G1 X148.335 Y104.488 E0.02117
G1 X148.630 Y105.000 E0.01853
G1 X148.335 Y105.512 E0.01853
G1 X148.979 Y105.714 E0.02117
G1 X148.799 Y107.815 E0.06610
G1 X148.567 Y109.348 E0.04861
G1 X147.712 Y113.267 E0.12576
G1 X147.572 Y113.024 E0.00878
G1 X147.406 Y113.502 E0.01586
G1 X146.905 Y114.720 E0.04130
G1 X145.560 Y117.539 E0.09792
G1 X145.488 Y117.414 E0.00452
G1 X145.087 Y118.065 E0.02397
G1 X144.500 Y118.930 E0.03278
G1 X142.941 Y121.004 E0.08133
G1 X142.898 Y120.929 E0.00272
G1 X142.368 Y121.512 E0.02470
G1 X141.607 Y122.278 E0.03387
G1 X139.941 Y123.807 E0.07090
G1 X139.912 Y123.757 E0.00182
G1 X139.366 Y124.181 E0.02169
G1 X137.595 Y125.424 E0.06784
G1 X137.105 Y124.961 E0.02113
G1 X136.481 Y126.043 E0.03917
G1 X135.405 Y126.588 E0.03782
G1 X134.552 Y126.978 E0.02941
G1 X133.788 Y127.293 E0.02590
G1 X133.819 Y127.346 E0.00193
G1 X129.210 Y128.780 E0.15133
G1 X129.311 Y128.605 E0.00632
G1 X127.638 Y128.818 E0.05288
G1 X125.542 Y128.989 E0.06592
G1 X125.000 Y129.928 E0.03401
G1 X124.458 Y128.990 E0.03399
G1 X122.289 Y128.811 E0.06825
G1 X120.687 Y128.602 E0.05063
G1 X120.790 Y128.780 E0.00642
G1 X116.181 Y127.346 E0.15133
G1 X116.212 Y127.293 E0.00193
G1 X115.349 Y126.935 E0.02931
G1 X114.400 Y126.493 E0.03281
G1 X112.597 Y125.554 E0.06373
G1 X112.917 Y125.000 E0.02006
G1 X112.894 Y124.960 E0.00144
G1 X112.411 Y125.411 E0.02070
G1 X111.274 Y124.644 E0.04299
G1 X110.088 Y123.757 E0.04645
G1 X110.059 Y123.807 E0.00182
G1 X108.393 Y122.278 E0.07091
G1 X107.632 Y121.512 E0.03387
G1 X107.102 Y120.929 E0.02470
G1 X107.059 Y121.004 E0.00272
G1 X105.500 Y118.930 E0.08133
G1 X104.850 Y117.971 E0.03633
G1 X104.511 Y117.416 E0.02038
G1 X104.440 Y117.539 E0.00445
G1 X103.095 Y114.720 E0.09792
G1 X102.594 Y113.502 E0.04130
G1 X102.428 Y113.024 E0.01586
G1 X102.346 Y113.166 E0.00513
G1 X102.375 Y113.260 E0.00310
G1 X102.460 Y113.863 E0.01910
G1 X102.349 Y114.468 E0.01926
G1 X102.162 Y115.003 E0.01776
G1 X101.856 Y115.469 E0.01749
G1 X101.539 Y115.835 E0.01519
G1 X98.413 Y118.961 E0.13861
G1 X94.296 Y114.844 E0.18256
G1 X93.977 Y114.483 E0.01512
G1 X93.665 Y114.024 E0.01740
G1 X93.463 Y113.497 E0.01770
G1 X93.334 Y112.906 E0.01895
G1 X93.379 Y112.315 E0.01859
G1 X93.514 Y111.760 E0.01791
G1 X93.793 Y111.264 E0.01787
G1 X94.153 Y110.809 E0.01817
G1 X94.627 Y110.462 E0.01841
G1 X94.900 Y110.305 E0.00989
G1 X95.244 Y110.165 E0.01163
G1 X95.638 Y110.104 E0.01249
G1 X96.861 Y107.141 E0.10051
G1 X101.631 Y111.911 E0.21151
G1 X101.908 Y112.244 E0.01358
G1 X102.148 Y112.624 E0.01408
G1 X101.433 Y109.348 E0.10513
G1 X101.201 Y107.815 E0.04861
G1 X101.021 Y105.714 E0.06610
G1 X101.665 Y105.512 E0.02117
G1 X101.370 Y105.000 E0.01853
G1 X101.665 Y104.488 E0.01853
G1 X101.021 Y104.286 E0.02117
G1 X101.201 Y102.182 E0.06619
G1 X101.465 Y100.504 E0.05327
G1 X102.288 Y96.733 E0.12101
G1 X102.428 Y96.976 E0.00878
G1 X102.595 Y96.496 E0.01594
G1 X103.151 Y95.163 E0.04526
G1 X104.440 Y92.461 E0.09388
G1 X104.511 Y92.584 E0.00445
G1 X104.851 Y92.027 E0.02045
G1 X105.568 Y90.979 E0.03981
G1 X107.059 Y88.996 E0.07778
G1 X107.102 Y89.071 E0.00272
G1 X107.632 Y88.488 E0.02470
G1 X108.393 Y87.722 E0.03387
G1 X110.059 Y86.193 E0.07090
G1 X110.088 Y86.243 E0.00182
G1 X111.274 Y85.356 E0.04645
G1 X112.411 Y84.589 E0.04299
G1 X112.894 Y85.040 E0.02070
G1 X113.519 Y83.957 E0.03919
G1 X114.597 Y83.412 E0.03787
G1 X115.533 Y82.987 E0.03223
G1 X116.212 Y82.707 E0.02303
G1 X116.186 Y82.663 E0.00160
G1 X118.070 Y82.060 E0.06202
G1 X120.112 Y81.462 E0.06670
G1 X120.105 Y81.450 E0.00041
G1 X120.760 Y81.272 E0.02128
G1 X120.696 Y81.383 E0.00402
G1 X123.022 Y81.117 E0.07339
G1 X124.451 Y81.022 E0.04493
G1 X124.970 Y80.124 E0.03252
G1 X125.000 Y80.826 F7200.000
G1 F1680
G1 X125.314 Y81.370 E0.01970
G1 X127.671 Y81.565 E0.07416
G1 X129.273 Y81.773 E0.05064
G1 X129.259 Y81.797 E0.00086
G1 X130.075 Y81.965 E0.02613
G1 X130.019 Y81.867 E0.00356
G1 X133.256 Y82.874 E0.10631
G1 X133.246 Y82.891 E0.00063
G1 X134.499 Y83.410 E0.04253
G1 X135.433 Y83.846 E0.03230
G1 X136.879 Y84.599 E0.05112
G1 X136.648 Y85.000 E0.01453
G1 X137.016 Y85.639 E0.02313
G1 X137.633 Y85.063 E0.02645
G1 X139.142 Y86.122 E0.05778
G1 X140.023 Y86.806 E0.03496
G1 X140.033 Y86.789 E0.00062
G1 X141.345 Y87.994 E0.05589
G1 X142.095 Y88.748 E0.03334
G1 X142.966 Y89.707 E0.04063
G1 X142.983 Y89.679 E0.00103
G1 X144.193 Y91.289 E0.06316
G1 X144.833 Y92.233 E0.03576
G1 X145.498 Y93.322 E0.04002
G1 X145.528 Y93.270 E0.00189
G1 X146.560 Y95.433 E0.07513
G1 X147.053 Y96.632 E0.04065
G1 X147.487 Y97.877 E0.04136
G1 X147.551 Y97.766 E0.00404
G1 X148.196 Y100.721 E0.09483
G1 X148.424 Y102.230 E0.04785
G1 X148.577 Y104.017 E0.05624
G1 X147.773 Y104.269 E0.02643
G1 X148.195 Y105.000 E0.02645
G1 X147.773 Y105.731 E0.02645
G1 X148.577 Y105.983 E0.02643
G1 X148.424 Y107.770 E0.05624
G1 X148.196 Y109.279 E0.04785
G1 X147.551 Y112.234 E0.09483
G1 X147.487 Y112.123 E0.00404
G1 X147.053 Y113.368 E0.04136
G1 X146.560 Y114.567 E0.04065
G1 X145.528 Y116.730 E0.07513
G1 X145.498 Y116.678 E0.00187
G1 X144.770 Y117.860 E0.04353
G1 X144.193 Y118.711 E0.03223
G1 X142.983 Y120.321 E0.06316
G1 X142.966 Y120.293 E0.00103
G1 X142.095 Y121.252 E0.04063
G1 X141.345 Y122.006 E0.03334
G1 X140.033 Y123.211 E0.05589
G1 X140.023 Y123.194 E0.00062
G1 X139.142 Y123.878 E0.03496
G1 X137.630 Y124.939 E0.05790
G1 X137.018 Y124.359 E0.02645
G1 X136.210 Y125.757 E0.05063
G1 X135.241 Y126.248 E0.03407
G1 X134.402 Y126.633 E0.02895
G1 X133.246 Y127.108 E0.03919
G1 X133.256 Y127.126 E0.00065
G1 X130.019 Y128.133 E0.10631
G1 X130.075 Y128.035 E0.00356
G1 X129.259 Y128.203 E0.02613
G1 X129.274 Y128.229 E0.00094
G1 X127.599 Y128.443 E0.05297
G1 X125.315 Y128.629 E0.07185
G1 X125.000 Y129.174 E0.01973
G1 X124.686 Y128.630 E0.01970
G1 X122.329 Y128.435 E0.07416
G1 X120.727 Y128.227 E0.05064
G1 X120.741 Y128.203 E0.00086
G1 X119.925 Y128.035 E0.02613
G1 X119.981 Y128.133 E0.00356
G1 X116.744 Y127.126 E0.10631
G1 X116.754 Y127.109 E0.00063
G1 X115.501 Y126.590 E0.04253
G1 X114.567 Y126.154 E0.03230
G1 X113.121 Y125.401 E0.05112
G1 X113.352 Y125.000 E0.01453
G1 X112.984 Y124.361 E0.02313
G1 X112.373 Y124.930 E0.02617
G1 X111.490 Y124.335 E0.03339
G1 X110.855 Y123.875 E0.02459
G1 X109.977 Y123.194 E0.03483
G1 X109.967 Y123.211 E0.00062
G1 X108.655 Y122.006 E0.05589
G1 X107.905 Y121.252 E0.03334
G1 X107.034 Y120.293 E0.04063
G1 X107.017 Y120.321 E0.00103
G1 X105.807 Y118.711 E0.06316
G1 X105.167 Y117.767 E0.03576
G1 X104.502 Y116.678 E0.04002
G1 X104.472 Y116.730 E0.00189
G1 X103.440 Y114.567 E0.07513
G1 X102.947 Y113.368 E0.04065
G1 X102.513 Y112.123 E0.04136
G1 X102.449 Y112.234 E0.00404
G1 X101.804 Y109.279 E0.09483
G1 X101.576 Y107.770 E0.04785
G1 X101.423 Y105.983 E0.05624
G1 X102.227 Y105.731 E0.02643
G1 X101.805 Y105.000 E0.02645
G1 X102.227 Y104.269 E0.02645
G1 X101.423 Y104.017 E0.02643
G1 X101.576 Y102.228 E0.05630
G1 X101.836 Y100.574 E0.05251
G1 X102.449 Y97.766 E0.09011
G1 X102.513 Y97.877 E0.00404
G1 X102.948 Y96.630 E0.04141
G1 X103.495 Y95.317 E0.04461
G1 X104.472 Y93.270 E0.07112
G1 X104.502 Y93.322 E0.00189
G1 X105.167 Y92.232 E0.04006
G1 X105.875 Y91.199 E0.03924
G1 X107.017 Y89.679 E0.05963
G1 X107.034 Y89.707 E0.00103
G1 X107.905 Y88.748 E0.04063
G1 X108.655 Y87.994 E0.03334
G1 X109.967 Y86.789 E0.05589
G1 X109.977 Y86.806 E0.00062
G1 X110.855 Y86.125 E0.03483
G1 X111.490 Y85.665 E0.02459
G1 X112.373 Y85.070 E0.03339
G1 X112.984 Y85.639 E0.02617
G1 X113.790 Y84.243 E0.05054
G1 X114.760 Y83.752 E0.03410
G1 X115.683 Y83.333 E0.03177
G1 X116.754 Y82.892 E0.03633
G1 X116.747 Y82.879 E0.00045
G1 X118.181 Y82.420 E0.04721
G1 X119.963 Y81.898 E0.05823
G1 X119.924 Y81.965 E0.00242
G1 X120.742 Y81.798 E0.02615
G1 X120.719 Y81.760 E0.00140
G1 X123.056 Y81.493 E0.07372
G1 X124.677 Y81.385 E0.05096
G1 X124.970 Y80.878 E0.01836
G1 F5760
G1 X125.314 Y81.370 E-0.20802
G1 F5760
G1 X126.902 Y81.501 E-0.55198
G1 E-0.04000 F2100.00000
G1 X125.000 Y121.580 F7200.000
G1 E0.80000 F2100.00000
G1 F840
G1 X126.975 Y125.000 E0.12382
G1 X125.000 Y128.420 E0.12382
G1 X123.025 Y125.000 E0.12382
G1 X124.970 Y121.632 E0.12194
G1 X125.257 Y121.274 F7200.000
G1 F5760
G1 X126.092 Y123.518 E-0.76000
G1 E-0.04000 F2100.00000
G1 X122.691 Y125.580 F7200.000
G1 E0.80000 F2100.00000
G1 F840
G1 X124.210 Y128.212 E0.09531
G1 X122.368 Y128.060 E0.05795
G1 X121.336 Y127.926 E0.03264
G1 X122.661 Y125.632 E0.08306
G1 X122.961 Y125.285 F7200.000
G1 F5760
G1 X123.790 Y127.513 E-0.76000
G1 E-0.04000 F2100.00000
G1 X120.381 Y121.580 F7200.000
G1 E0.80000 F2100.00000
G1 F840
G1 X122.356 Y125.000 E0.12382
G1 X120.730 Y127.816 E0.10196
G1 X119.938 Y127.653 E0.02535
G1 X118.407 Y125.000 E0.09604
G1 X120.351 Y121.632 E0.12194
G1 X120.646 Y121.280 F7200.000
G1 F5760
G1 X121.473 Y123.518 E-0.76000
G1 E-0.04000 F2100.00000
G1 X118.072 Y125.580 F7200.000
G1 E0.80000 F2100.00000
G1 F840
G1 X119.173 Y127.487 E0.06903
G1 X117.306 Y126.906 E0.06129
G1 X118.042 Y125.632 E0.04613
G1 X118.272 Y125.234 F7200.000
G1 F5760
G1 X119.173 Y127.487 E-0.75238
G1 F5760
G1 X119.152 Y127.480 E-0.00762
G1 E-0.04000 F2100.00000
G1 X115.762 Y121.580 F7200.000
G1 E0.80000 F2100.00000
G1 F840
G1 X117.737 Y125.000 E0.12382
G1 X116.755 Y126.701 E0.06159
G1 X115.652 Y126.245 E0.03741
G1 X114.734 Y125.816 E0.03178
G1 X113.644 Y125.249 E0.03852
G1 X115.732 Y121.632 E0.13095
G1 X116.043 Y121.295 F7200.000
G1 F5760
G1 X116.855 Y123.518 E-0.76000
G1 E-0.04000 F2100.00000
G1 X111.144 Y121.580 F7200.000
G1 E0.80000 F2100.00000
G1 F840
G1 X112.638 Y124.168 E0.09370
G1 X112.335 Y124.450 E0.01296
G1 X111.706 Y124.026 E0.02379
G1 X111.081 Y123.573 E0.02420
G1 X110.329 Y122.990 E0.02983
G1 X111.114 Y121.632 E0.04918
G1 X111.404 Y121.276 F7200.000
G1 F5760
G1 X112.244 Y123.513 E-0.76000
G1 E-0.04000 F2100.00000
G1 X113.453 Y117.580 F7200.000
G1 E0.80000 F2100.00000
G1 F840
G1 X115.428 Y121.000 E0.12382
G1 X113.453 Y124.420 E0.12382
G1 X111.478 Y121.000 E0.12382
G1 X113.423 Y117.632 E0.12194
G1 X113.710 Y117.274 F7200.000
G1 F5760
G1 X114.545 Y119.518 E-0.76000
G1 E-0.04000 F2100.00000
G1 X108.834 Y117.580 F7200.000
G1 E0.80000 F2100.00000
G1 F840
G1 X110.809 Y121.000 E0.12382
G1 X109.876 Y122.616 E0.05849
G1 X108.916 Y121.734 E0.04087
G1 X108.178 Y120.992 E0.03280
G1 X107.375 Y120.108 E0.03746
G1 X108.804 Y117.632 E0.08963
G1 X109.110 Y117.290 F7200.000
G1 F5760
G1 X109.926 Y119.518 E-0.76000
G1 E-0.04000 F2100.00000
G1 X111.144 Y113.580 F7200.000
G1 E0.80000 F2100.00000
G1 F840
G1 X113.118 Y117.000 E0.12382
G1 X111.144 Y120.420 E0.12382
G1 X109.169 Y117.000 E0.12382
G1 X111.114 Y113.632 E0.12194
G1 X111.401 Y113.274 F7200.000
G1 F5760
G1 X112.236 Y115.518 E-0.76000
G1 E-0.04000 F2100.00000
G1 X106.525 Y113.580 F7200.000
G1 E0.80000 F2100.00000
G1 F840
G1 X108.499 Y117.000 E0.12382
G1 X106.976 Y119.639 E0.09553
G1 X106.114 Y118.492 E0.04499
G1 X105.484 Y117.563 E0.03518
G1 X104.837 Y116.503 E0.03893
G1 X106.495 Y113.632 E0.10394
G1 X106.807 Y113.297 F7200.000
G1 F5760
G1 X107.617 Y115.518 E-0.76000
G1 E-0.04000 F2100.00000
G1 X108.834 Y109.580 F7200.000
G1 E0.80000 F2100.00000
G1 F840
G1 X110.809 Y113.000 E0.12382
G1 X108.834 Y116.420 E0.12382
G1 X106.860 Y113.000 E0.12382
