( Made using CamBam - http://www.cambam.co.uk )
( Caren_und_Jonas 7/21/2021 11:17:21 AM )
( T2 : 2.0 )
( T6 : 6.0 )
G21 G90 G64 G40
G0 Z3.0
( T6 : 6.0 )
T6 M6
( Tasche6mm )
G17
M3 S1000
G0 X-23.28268 Y25.59853
G0 Z1.0
G1 F300.0 Z-2.5
G3 F800.0 X-29.06318 Y26.18316 I-5.15978 J-22.14747
G3 X-41.22537 Y23.13774 I0.15772 J-26.438
G3 X-41.2384 Y23.13084 I1.49115 J-2.83134
G3 X-46.40951 Y19.82448 I18.15827 J-34.0963
G3 X-46.86638 Y21.02259 I-17.47029 J-5.97571
G3 X-46.86949 Y21.02995 I-2.9486 J-1.2433
G3 X-52.58745 Y26.64048 I-9.6191 J-4.0843
G3 X-52.65315 Y26.66608 I-1.19458 J-2.96867
G3 X-57.50239 Y27.51692 I-4.67492 J-12.39987
G3 X-66.02612 Y24.25828 I-0.2215 J-12.19783
G3 X-69.59693 Y15.875 I7.40134 J-8.10468
G3 X-69.40234 Y10.05143 I140.44215 J1.77764
G3 X-69.39873 Y9.99421 I3.19531 J0.17318
G2 X-69.15352 Y4.44698 I-99.30553 J-7.16873
G2 X-70.0295 Y-12.53708 I-235.0966 J3.61086
G1 Y-12.53709
G1 Y-12.53706
G1 Y-12.53708
G3 X-70.9301 Y-30.03457 I240.54352 J-21.15283
G3 X-70.9294 Y-30.1656 I3.19963 J-0.04844
G3 X-70.52902 Y-35.9044 I65.60797 J1.69393
G1 X-70.52899 Y-35.90467
G2 X-70.16979 Y-41.00376 I-58.73032 J-6.69939
G3 X-66.7203 Y-49.39252 I11.35184 J-0.23568
G3 X-66.71224 Y-49.4003 I2.22713 J2.2978
G3 X-58.20896 Y-52.70813 I8.21546 J8.53569
G3 X-49.71584 Y-49.41003 I0.28768 J11.84379
G3 X-46.18463 Y-40.93784 I-7.79312 J8.22018
G2 X-45.82876 Y-35.86984 I59.20792 J-1.611
G3 X-45.36183 Y-30.04683 I-56.09289 J7.4281
G3 X-45.36055 Y-29.96041 I-3.19871 J0.09078
G2 X-45.06627 Y-24.6288 I49.66944 J-0.06758
G3 X-44.55587 Y-19.03851 I-67.89499 J9.01737
G2 X-41.52593 Y-10.59543 I59.94239 J-16.74608
G3 X-41.5239 Y-10.59081 I-2.9262 J1.29512
G2 X-36.96827 Y-2.71525 I38.15441 J-16.81508
G3 X-36.9525 Y-2.6936 I-2.57861 J1.89493
G2 X-33.02948 Y1.40988 I16.7846 J-12.11944
G3 X-32.98654 Y1.44453 I-1.988 J2.50756
G2 X-29.64664 Y2.94507 I4.43095 J-5.3952
G2 X-29.47955 Y1.02488 I-8.77148 J-1.73061
G3 X-29.4801 Y0.99079 I3.19928 J-0.06785
G2 X-29.59791 Y-1.78225 I-43.49565 J0.45888
G3 X-29.73213 Y-4.13345 I55.36281 J-4.33985
G3 X-29.73355 Y-4.1845 I3.19795 J-0.11459
G2 X-29.98026 Y-9.67375 I-109.64558 J2.17773
G3 X-29.98367 Y-9.72946 I3.19217 J-0.22372
G3 X-30.17816 Y-15.49931 I153.08814 J-8.04848
G3 X-30.17848 Y-15.56243 I3.19965 J-0.04756
G3 X-29.19635 Y-29.12391 I100.89166 J0.49034
G1 X-27.43007 Y-42.18173
G3 X-25.39734 Y-48.10112 I13.13131 J1.2006
G3 X-25.32805 Y-48.20464 I2.6934 J1.72788
G3 X-19.56344 Y-52.20331 I8.27538 J5.77549
G3 X-15.5775 Y-52.70723 I3.86825 J14.5814
G3 X-7.11335 Y-49.52363 I0.27566 J12.11063
G3 X-3.53042 Y-41.17766 I-7.31612 J8.08288
G3 X-3.53066 Y-41.16826 I-3.19907 J-0.07722
G3 X-4.98205 Y-27.96296 I-80.67739 J-2.18481
G2 X-6.2587 Y-15.7715 I76.6649 J14.19065
G2 X-6.19642 Y-11.75114 I240.29714 J-1.71192
G3 X-6.19551 Y-11.6748 I-3.19909 J0.07633
G1 Y-7.17766
G3 X-6.7676 Y3.38335 I-88.01146 J0.52838
G3 X-9.48553 Y14.17764 I-38.14476 J-3.86527
G3 X-9.49683 Y14.20459 I-2.95685 J-1.22354
G3 X-17.47429 Y23.36892 I-18.06082 J-7.66747
G3 X-17.59194 Y23.43605 I-1.6445 J-2.74511
G3 X-23.28268 Y25.59853 I-10.85052 J-19.98499
G0 Z3.0
G0 X-77.64973 Y8.96008
G0 Z1.0
G1 F300.0 Z-2.5
G3 F800.0 X-79.89643 Y13.73108 I-17.67769 J-5.41007
G3 X-79.96765 Y13.83455 I-2.67102 J-1.76229
G3 X-88.2803 Y20.67988 I-17.05242 J-12.23775
G3 X-98.07838 Y23.73707 I-15.82348 J-33.48351
G3 X-107.95966 Y24.53315 I-9.55748 J-56.90775
G3 X-123.51235 Y21.20907 I-0.52551 J-35.58718
G3 X-123.57332 Y21.17988 I1.3511 J-2.90078
G3 X-135.86176 Y10.93864 I14.98484 J-30.47331
G3 X-142.86614 Y-2.96048 I34.24834 J-25.97373
G3 X-142.87055 Y-2.97568 I3.07115 J-0.89892
G3 X-144.94436 Y-18.13589 I51.29396 J-14.73862
G3 X-142.15132 Y-32.02946 I33.28339 J-0.53653
G3 X-142.12447 Y-32.08908 I2.93108 J1.28403
G3 X-132.97701 Y-43.26075 I26.19893 J12.12107
G3 X-120.06741 Y-49.42905 I22.36942 J30.22343
G3 X-120.0624 Y-49.43035 I0.80507 J3.09707
G3 X-106.25353 Y-51.12 I13.31931 J51.58177
G3 X-86.17971 Y-47.06628 I0.23619 J50.55957
G3 X-78.2683 Y-42.21071 I-10.58803 J26.12462
G3 X-73.60864 Y-32.39035 I-8.55431 J10.07459
G3 X-74.83694 Y-27.0199 I-10.7541 J0.36607
G3 X-74.92294 Y-26.86659 I-2.83286 J-1.48825
G3 X-80.03909 Y-23.10181 I-7.03846 J-4.20623
G3 X-83.45096 Y-22.69383 I-3.24151 J-12.63771
G3 X-83.56128 Y-22.69717 I0.04178 J-3.19973
G3 X-89.09455 Y-24.0147 I0.73015 J-15.3443
G3 X-93.48058 Y-26.24951 I13.95841 J-32.81628
G2 X-99.50364 Y-28.59325 I-10.46323 J17.97781
G2 X-106.23814 Y-29.2952 I-6.51852 J29.88247
G3 X-106.3147 Y-29.29557 I-0.0226 J-3.19992
G2 X-115.05648 Y-27.84209 I-0.41363 J24.52715
G2 X-117.45106 Y-26.70626 I5.6387 J14.97969
G1 X-100.84198 Y-19.36278
G3 X-93.48757 Y-15.96145 I-92.26011 J209.1379
G3 X-86.12288 Y-11.89148 I-27.01758 J57.58708
G3 X-86.08527 Y-11.86694 I-1.72966 J2.69227
G3 X-79.80944 Y-5.89019 I-13.67492 J20.64252
G3 X-79.79778 Y-5.87423 I-2.57832 J1.89532
G3 X-76.8451 Y3.13371 I-12.53736 J9.09747
G3 X-77.64973 Y8.96008 I-18.48232 J0.41631
G0 Z3.0
G0 X-77.37459 Y-14.03005
G0 Z1.0
G1 F300.0 Z-2.5
G3 F800.0 X-77.54591 Y-16.3249 I247.88861 J-19.65986
G3 X-78.29937 Y-16.11999 I-4.41549 J-14.74792
G3 X-79.41743 Y-15.86958 I-4.98124 J-19.61953
G3 X-77.37459 Y-14.03005 I-20.34276 J24.64516
G1 F300.0 X-74.9821 Y-14.21979
G3 F800.0 X-75.36527 Y-19.87666 I245.49613 J-19.47012
G3 X-78.88002 Y-18.44871 I-6.59613 J-11.19616
G3 X-83.51358 Y-17.89904 I-4.40058 J-17.29081
G3 X-83.7892 Y-17.90739 I0.1044 J-7.99452
G3 X-87.98393 Y-18.55436 I0.95807 J-20.13408
G3 X-83.53099 Y-15.92584 I-32.52122 J60.17999
G3 X-83.43701 Y-15.86453 I-4.32154 J6.72662
G3 X-75.94582 Y-8.73033 I-16.32317 J24.64011
G3 X-75.9167 Y-8.69046 I-6.44194 J4.73546
G3 X-74.36157 Y-6.18166 I-16.41845 J11.9137
G2 X-74.80626 Y-12.11704 I-229.88855 J14.23951
G1 X-74.80627 Y-12.11707
G1 X-74.80626 Y-12.11701
G1 Y-12.11704
G3 X-74.9821 Y-14.21979 I245.32029 J-21.57287
G0 Z3.0
G0 X-80.0932 Y-78.09668
G0 Z1.0
G1 F300.0 Z-2.5
G3 F800.0 X-75.04161 Y-80.6 I21.59641 J37.23207
G1 X-89.35603
G3 X-80.0932 Y-78.09668 I-16.66131 J80.03957
G0 Z3.0
G0 X-41.37642 Y-80.6
G0 Z1.0
G1 F300.0 Z-2.5
G3 F800.0 X-37.08768 Y-78.52886 I-16.54487 J39.73566
G3 X-34.4 Y-79.89462 I20.03501 J36.09971
G1 Y-80.6
G1 X-41.37642
G0 Z3.0
G0 X-149.04285 Y-75.8
G0 Z1.0
G1 F300.0 Z-2.5
G1 F800.0 X-161.0943
G3 X-160.49013 Y-75.23376 I-32.41293 J35.18957
G3 X-156.31838 Y-70.71764 I-32.41472 J34.12788
G3 X-154.31775 Y-72.24749 I40.39283 J50.74963
G3 X-149.04285 Y-75.8 I43.71016 J59.21018
G1 F300.0 X-147.78946 Y-73.75329
G3 F800.0 X-139.29113 Y-78.2 I37.18187 J60.71597
G1 X-167.97208
G3 X-162.14469 Y-73.49524 I-25.53515 J37.58957
G3 X-156.70783 Y-67.27903 I-30.76017 J32.38936
G3 X-152.89477 Y-70.31485 I40.78228 J47.31102
G3 X-147.78946 Y-73.75329 I42.28718 J57.27753
G1 F300.0 X-146.53607 Y-71.70658
G3 F800.0 X-127.91559 Y-79.62088 I35.92848 J58.66926
G3 X-127.86172 Y-79.63484 I8.65325 J33.2889
G3 X-123.68981 Y-80.6 I21.11864 J81.78625
G1 X-177.58586
G3 X-163.79924 Y-71.75672 I-15.92137 J39.98957
G3 X-157.14985 Y-63.64896 I-29.10562 J30.65084
G3 X-151.47179 Y-68.3822 I41.22431 J43.68095
G3 X-146.53607 Y-71.70658 I40.8642 J55.34488
G0 Z3.0
G0 X-277.91629 Y-78.2
G0 Z1.0
G1 F300.0 Z-2.5
G1 F800.0 X-294.59765
G3 X-288.88153 Y-75.86028 I-28.81954 J78.56068
G3 X-288.78928 Y-75.81833 I-15.18578 J33.51535
G3 X-285.05259 Y-74.02363 I-43.97275 J96.34206
G3 X-277.91629 Y-78.2 I34.3421 J50.49632
G1 F300.0 X-276.84709 Y-76.05133
G3 F800.0 X-267.40764 Y-79.76875 I26.1366 J52.52401
G3 X-267.38016 Y-79.77689 I9.78907 J32.97277
G3 X-264.37307 Y-80.6 I21.49367 J72.61935
G1 X-316.21925
G3 X-289.87204 Y-73.67421 I-7.19794 J80.96068
G3 X-289.7858 Y-73.63499 I-14.19527 J31.32928
G3 X-284.86367 Y-71.22903 I-42.97622 J94.15872
G3 X-276.84709 Y-76.05133 I34.15319 J47.70171
G0 Z3.0
G0 X-311.43386 Y-0.03917
G0 Z1.0
G1 F300.0 Z-2.5
G2 F800.0 X-307.28615 Y5.43005 I45.24989 J-30.00896
G3 X-307.21512 Y5.51275 I-16.95311 J14.63342
G3 X-304.19923 Y3.70628 I17.25031 J25.37858
G3 X-307.6937 Y2.08799 I11.76182 J-29.97998
G3 X-311.43386 Y-0.03917 I25.818 J-49.74739
G1 F300.0 X-310.16817 Y-2.07829
G3 F800.0 X-311.96907 Y-3.24667 I28.29247 J-45.58111
G3 X-312.19385 Y-3.40122 I11.21614 J-16.55313
G2 X-317.87479 Y-7.1587 I-78.56275 J112.60613
G2 X-316.55256 Y-4.01972 I24.98446 J-8.6762
G2 X-309.10294 Y6.99826 I50.36859 J-26.02842
G3 X-308.86168 Y7.28309 I-15.13632 J13.06522
G2 X-307.57594 Y8.76149 I33.65424 J-27.97022
G3 X-306.99001 Y8.30253 I12.62084 J15.50878
G3 X-296.17628 Y3.29551 I17.02521 J22.5888
G3 X-306.57226 Y-0.03397 I3.73888 J-29.56921
G3 X-310.16817 Y-2.07829 I24.69656 J-47.62543
G1 F300.0 X-308.90247 Y-4.11741
G3 F800.0 X-310.62281 Y-5.23353 I27.02677 J-43.54199
G3 X-310.82061 Y-5.36953 I9.86988 J-14.56628
G2 X-318.97108 Y-10.6446 I-79.93598 J114.57443
G2 X-321.265 Y-11.46425 I-4.63099 J9.3407
G2 X-320.69586 Y-8.14968 I16.92999 J-1.20087
G2 X-318.69225 Y-2.93252 I27.80553 J-7.68522
G2 X-310.91974 Y8.56646 I52.50828 J-27.11561
G3 X-310.70744 Y8.81711 I-13.31952 J11.49702
G2 X-307.7184 Y12.08156 I35.49999 J-29.50424
G3 X-306.07057 Y10.63072 I19.84197 J20.8748
G3 X-305.54548 Y10.21912 I11.11547 J13.63955
G3 X-290.0026 Y5.00511 I15.58067 J20.67221
G3 X-289.35352 Y4.99732 I0.63193 J25.60656
G3 X-290.84872 Y0.99673 I48.44176 J-20.38453
G3 X-293.5135 Y1.09439 I-2.29114 J-26.11215
G3 X-294.74302 Y1.03379 I0.25081 J-17.59341
G3 X-305.45051 Y-2.15578 I2.30562 J-27.30749
G3 X-308.90247 Y-4.11741 I23.57481 J-45.50362
G1 F300.0 X-307.63678 Y-6.15653
G3 F800.0 X-309.27655 Y-7.22038 I25.76108 J-41.50287
G3 X-309.44737 Y-7.33783 I8.52362 J-12.57943
G2 X-317.81576 Y-12.75014 I-81.30922 J116.54273
G2 X-323.05318 Y-14.11782 I-5.78632 J11.44624
G3 X-323.27608 Y-13.87918 I-11.21537 J-10.25229
G2 X-323.70952 Y-12.76887 I1.13433 J1.08257
G3 X-323.70732 Y-12.57258 I-15.19282 J0.26887
G2 X-323.00925 Y-7.51074 I19.3723 J-0.09254
G2 X-320.83178 Y-1.84503 I30.11892 J-8.32416
G2 X-312.73653 Y10.13466 I54.64781 J-28.20311
G3 X-312.55319 Y10.35112 I-11.50273 J9.92881
G2 X-308.06975 Y15.06405 I37.34574 J-31.03825
G3 X-307.94879 Y15.17645 I-10.28313 J11.18711
G2 X-307.64274 Y15.45572 I9.78147 J-10.41195
G3 X-304.55441 Y12.49117 I19.76631 J17.50064
G3 X-304.10094 Y12.13571 I9.59931 J11.77911
G3 X-289.97123 Y7.40509 I14.13614 J18.75562
G3 X-285.41951 Y7.73604 I0.60056 J23.20658
G3 X-289.14703 Y-1.64009 I44.50775 J-23.12325
G3 X-293.47929 Y-1.30537 I-3.99283 J-23.47533
G3 X-294.5411 Y-1.3577 I0.2166 J-15.19366
G3 X-304.3284 Y-4.27741 I2.1037 J-24.916
G3 X-307.63678 Y-6.15653 I22.4527 J-43.382
G1 F300.0 X-306.37108 Y-8.19565
G3 F800.0 X-307.93029 Y-9.20723 I24.49538 J-39.46375
G3 X-308.07413 Y-9.30613 I7.17736 J-10.59257
G2 X-316.65414 Y-14.85187 I-82.68246 J118.51103
G2 X-323.29079 Y-16.52639 I-6.94793 J13.54797
G2 X-324.68905 Y-15.88777 I0.02046 J1.89485
G3 X-325.01228 Y-15.53617 I-9.57951 J-8.48235
G2 X-326.10915 Y-12.7264 I2.87053 J2.73956
G3 X-326.10729 Y-12.56112 I-12.7932 J0.2264
G2 X-325.32263 Y-6.87178 I21.77228 J-0.104
G2 X-322.97117 Y-0.75729 I32.4323 J-8.96312
G2 X-314.55332 Y11.70286 I56.78721 J-29.29085
G3 X-314.39894 Y11.88513 I-9.68593 J8.36061
G2 X-309.69391 Y16.83099 I39.1915 J-32.57227
G3 X-309.59206 Y16.92564 I-8.65897 J9.42016
G2 X-307.23591 Y18.77088 I11.42474 J-12.16114
G3 X-303.03825 Y14.35162 I19.35948 J14.18548
G3 X-302.6564 Y14.0523 I8.08315 J9.91866
G3 X-289.93984 Y9.8051 I12.6916 J16.83903
G3 X-280.02494 Y12.01343 I0.56917 J20.80657
G3 X-287.40663 Y-4.48476 I39.11318 J-27.40064
G3 X-293.44508 Y-3.70512 I-5.73324 J-20.63066
G3 X-294.33919 Y-3.74919 I0.18239 J-12.7939
G3 X-303.20583 Y-6.39881 I1.90178 J-22.52451
G3 X-306.37108 Y-8.19565 I21.33013 J-41.2606
G0 Z3.0
G0 X-360.3709 Y-75.53655
G0 Z1.0
G1 F300.0 Z-2.5
G2 F800.0 X-366.93448 Y-71.06754 I2.3709 J10.53655
G3 X-360.3709 Y-75.53655 I43.23457 J56.44371
G1 F300.0 X-360.89777 Y-77.878
G2 F800.0 X-371.2 Y-65.0 I2.89777 J12.878
G1 Y-64.25593
G3 X-349.73209 Y-78.2 I47.50009 J49.63209
G1 X-358.0
G2 X-360.89777 Y-77.878 I0.0 J13.2
G1 F300.0 X-361.42463 Y-80.21946
G2 F800.0 X-373.6 Y-65.0 I3.42463 J15.21946
G1 Y-58.31803
G3 X-372.35518 Y-59.66016 I50.33142 J45.43362
G3 X-330.2384 Y-80.6 I48.65527 J45.03633
G1 X-358.0
G2 X-361.42463 Y-80.21946 I0.0 J15.6
G1 F300.0 X-361.9515 Y-82.56091
G2 F800.0 X-376.0 Y-65.0 I3.9515 J17.56091
G1 Y-51.57757
G3 X-370.60571 Y-58.0171 I52.73142 J38.69316
G3 X-322.80977 Y-78.517 I46.9058 J43.39327
G3 X-290.86255 Y-71.48814 I-0.60741 J78.87768
G3 X-290.78232 Y-71.45166 I-13.20477 J29.14322
G3 X-284.65702 Y-68.40138 I-41.9797 J91.97539
G3 X-266.72458 Y-77.468 I33.94653 J44.87407
G3 X-266.69903 Y-77.47558 I9.10602 J30.67203
G3 X-244.80067 Y-80.4829 I20.81253 J70.31804
G3 X-244.01465 Y-80.4616 I-0.47374 J31.99169
G3 X-230.52599 Y-78.30565 I-2.26308 J57.43256
G3 X-220.35415 Y-80.41177 I12.78989 J36.15444
G3 X-218.53633 Y-80.48431 I2.18423 J31.92056
G3 X-207.27617 Y-79.02894 I0.46592 J40.6825
G3 X-194.06503 Y-81.24909 I13.33612 J38.94048
G3 X-165.4538 Y-70.0182 I0.5578 J40.63866
G3 X-157.66531 Y-59.75145 I-27.45106 J28.91231
G3 X-150.04882 Y-66.44954 I41.73977 J39.78344
G3 X-127.31179 Y-77.29808 I39.44122 J53.41223
G3 X-127.26168 Y-77.31106 I8.04945 J30.9661
G3 X-106.18755 Y-79.91556 I20.5186 J79.46247
G3 X-79.81698 Y-75.46575 I0.17021 J79.35513
G3 X-58.20878 Y-81.50581 I21.32019 J34.60114
G3 X-37.08474 Y-75.75918 I0.28749 J40.64147
G3 X-32.0 Y-78.32835 I20.03207 J33.33002
G1 Y-83.0
G1 X-358.0
G2 X-361.9515 Y-82.56091 I0.0 J18.0
G1 F300.0 X-362.47837 Y-84.90237
G2 F800.0 X-378.4 Y-65.0 I4.47837 J19.90237
G1 Y-43.38208
G3 X-368.85622 Y-56.37404 I55.13142 J30.49767
G3 X-322.83574 Y-76.11713 I45.15632 J41.75021
G3 X-291.85305 Y-69.30207 I-0.58144 J76.47781
G3 X-291.77885 Y-69.26833 I-12.21426 J26.95715
G3 X-284.43002 Y-65.53585 I-40.98318 J89.79206
G3 X-266.04153 Y-75.16725 I33.71953 J42.00854
G3 X-266.01789 Y-75.17426 I8.42296 J28.37128
G3 X-244.83621 Y-78.08317 I20.1314 J68.01672
G3 X-244.10914 Y-78.06346 I-0.43821 J29.59196
G3 X-230.44272 Y-75.78075 I-2.16859 J55.03442
G3 X-220.19031 Y-78.01737 I12.70663 J33.62954
G3 X-218.50884 Y-78.08447 I2.02038 J29.52616
G3 X-207.19895 Y-76.51101 I0.43844 J38.28265
G3 X-194.04491 Y-78.84914 I13.25891 J36.42256
G3 X-167.10835 Y-68.27967 I0.53769 J38.23871
G3 X-158.2914 Y-55.45104 I-25.79651 J27.17379
G3 X-148.62585 Y-64.51688 I42.36586 J35.48304
G3 X-126.70799 Y-74.97527 I38.01826 J51.47956
G3 X-126.66164 Y-74.98728 I7.44565 J28.64329
G3 X-106.1931 Y-77.51555 I19.91856 J77.13869
G3 X-79.51967 Y-72.80996 I0.17576 J76.95512
G3 X-58.20879 Y-79.10574 I21.02289 J31.94535
G3 X-37.07947 Y-72.92843 I0.2875 J38.24141
G3 X-29.6 Y-76.69055 I20.0268 J30.49928
G1 Y-85.4
G1 X-358.0
G2 X-362.47837 Y-84.90237 I0.0 J20.4
G1 F300.0 X-363.00523 Y-87.24382
G2 F800.0 X-380.8 Y-65.0 I5.00523 J22.24382
G1 Y-31.93841
G3 X-367.10673 Y-54.73098 I57.53142 J19.054
G3 X-322.86174 Y-73.71726 I43.40682 J40.10715
G3 X-292.84356 Y-67.11601 I-0.55544 J74.07794
G3 X-292.77537 Y-67.085 I-11.22375 J24.77108
G3 X-284.17949 Y-62.62649 I-39.98665 J87.60873
G3 X-265.35848 Y-72.86651 I33.469 J39.09917
G3 X-265.33675 Y-72.87295 I7.73991 J26.07053
G3 X-244.87174 Y-75.68343 I19.45026 J65.71541
G3 X-244.20364 Y-75.66532 I-0.40267 J27.19222
G3 X-230.34893 Y-73.24013 I-2.07409 J52.63629
G3 X-220.02646 Y-75.62297 I12.61283 J31.08892
G3 X-218.48136 Y-75.68463 I1.85654 J27.13176
G3 X-207.11961 Y-73.97527 I0.41095 J35.88281
G3 X-206.93059 Y-74.04893 I12.44295 J31.65242
G3 X-206.60343 Y-74.17288 I9.79843 J25.36867
G3 X-194.02479 Y-76.44918 I12.66339 J34.08443
G3 X-168.7629 Y-66.54115 I0.51757 J35.83875
G3 X-159.10713 Y-50.46004 I-24.14196 J25.43526
G3 X-147.20289 Y-62.58421 I43.18158 J30.49203
G3 X-126.10419 Y-72.65247 I36.5953 J49.5469
G3 X-126.0616 Y-72.6635 I6.84185 J26.32049
G3 X-106.19864 Y-75.11553 I19.31852 J74.81492
G3 X-79.19735 Y-70.12467 I0.1813 J74.5551
G3 X-58.20881 Y-76.70567 I20.70056 J29.26006
G3 X-37.07115 Y-70.01834 I0.28752 J35.84133
G3 X-27.2 Y-74.97042 I20.01848 J27.58918
G1 Y-87.8
G1 X-358.0
G2 X-363.00523 Y-87.24382 I0.0 J22.8
G0 Z3.0
G0 X-366.4 Y61.74427
G0 Z1.0
G1 F300.0 Z-2.5
G1 F800.0 Y65.0
G2 X-358.0 Y73.4 I8.4 J0.0
G1 X-353.94494
G3 X-366.4 Y61.74427 I67.13741 J-84.22409
G1 F300.0 X-364.62649 Y60.12728
G3 F800.0 X-368.13312 Y56.07909 I77.81896 J-70.95137
G3 X-368.8 Y55.29072 I99.66518 J-84.98171
G1 Y65.0
G2 X-358.0 Y75.8 I10.8 J0.0
G1 X-346.69204
G3 X-364.62649 Y60.12728 I59.88451 J-86.62409
G1 F300.0 X-362.85298 Y58.51029
G3 F800.0 X-366.29313 Y54.53803 I76.04545 J-69.33437
G3 X-371.2 Y48.41641 I97.82519 J-83.44065
G1 Y65.0
G2 X-358.0 Y78.2 I13.2 J0.0
G1 X-338.12282
G3 X-344.27429 Y74.5418 I35.21302 J-66.21387
G3 X-344.66727 Y74.2783 I20.29491 J-30.69207
G3 X-362.85298 Y58.51029 I57.85974 J-85.10239
G1 F300.0 X-361.07948 Y56.89329
G3 F800.0 X-364.4531 Y52.997 I74.27195 J-67.71738
G3 X-373.6 Y40.86806 I95.98516 J-81.89962
G1 Y65.0
G2 X-358.0 Y80.6 I15.6 J0.0
G1 X-326.61961
G3 X-342.95054 Y72.53989 I23.70981 J-68.61387
G3 X-343.31788 Y72.29357 I18.97116 J-28.69015
G3 X-361.07948 Y56.89329 I56.51035 J-83.11766
G1 F300.0 X-359.30597 Y55.2763
G3 F800.0 X-362.61303 Y51.45601 I72.49844 J-66.10039
G3 X-376.0 Y32.39717 I94.14509 J-80.35863
G1 Y65.0
G2 X-358.0 Y83.0 I18.0 J0.0
G1 X-297.59323
G3 X-302.89153 Y81.66496 I7.41373 J-40.60332
G3 X-305.8727 Y81.70207 I-2.63159 J-91.64203
G3 X-325.60135 Y78.41208 I0.17511 J-61.84719
G3 X-325.68629 Y78.38307 I10.2967 J-30.29308
G3 X-341.62678 Y70.53797 I22.77649 J-66.39694
G3 X-341.9685 Y70.30884 I17.6474 J-26.68824
G3 X-359.30597 Y55.2763 I55.16097 J-81.13293
G0 Z3.0
G0 X-213.72164 Y66.2
G0 Z1.0
G1 F300.0 Z-2.5
G1 F800.0 X-213.15572
G3 X-213.41969 Y66.10386 I19.23623 J-53.2252
G3 X-213.72164 Y66.2 I-29.78402 J-93.0198
G0 Z3.0
G0 X-136.60532
G0 Z1.0
G1 F300.0 Z-2.5
G1 F800.0 X-133.44561
G3 X-135.19654 Y65.61221 I24.96045 J-77.25403
G3 X-136.60532 Y66.2 I-24.63678 J-57.06544
G1 F300.0 X-137.5022 Y63.97388
G3 F800.0 X-160.47537 Y68.29986 I-22.33112 J-55.42712
G3 X-180.98925 Y65.8195 I0.13007 J-87.14646
G3 X-193.36277 Y67.16659 I-12.07015 J-53.36776
G3 X-213.36239 Y63.56169 I-0.55672 J-54.19179
G3 X-218.10507 Y64.99034 I-29.84131 J-90.47764
G3 X-236.86503 Y67.65997 I-19.8066 J-71.93494
G3 X-241.29476 Y67.60808 I-1.23198 J-83.93259
G3 X-241.79188 Y68.6 I-51.23318 J-25.05579
G1 X-72.88157
G3 X-83.01401 Y64.60418 I15.15768 J-53.28091
G3 X-90.98394 Y66.34571 I-21.08977 J-77.40781
G3 X-107.78786 Y67.72915 I-16.65192 J-99.51639
G3 X-135.29223 Y63.03144 I-0.6973 J-78.78318
G3 X-137.5022 Y63.97388 I-24.54109 J-54.48467
G1 F300.0 X-138.39909 Y61.74777
G3 F800.0 X-160.46065 Y65.89988 I-21.43423 J-53.201
G3 X-180.97106 Y63.35168 I0.11534 J-84.74648
G3 X-193.36844 Y64.76652 I-12.08835 J-50.89994
G3 X-213.29613 Y61.00845 I-0.55105 J-51.79172
G3 X-218.73976 Y62.67578 I-29.90758 J-87.92439
G3 X-236.89948 Y65.26021 I-19.17191 J-69.62039
G3 X-242.78169 Y65.13433 I-1.19754 J-81.53284
G3 X-245.88712 Y71.0 I-49.74626 J-22.58204
G1 X-44.0
G1 Y66.64413
G3 X-57.41042 Y68.3132 I-13.32806 J-52.37792
G3 X-82.74238 Y62.03685 I-0.31347 J-52.99411
G3 X-91.37821 Y63.97831 I-21.3614 J-74.84048
G3 X-107.7967 Y65.32913 I-16.25765 J-97.14899
G3 X-135.39393 Y60.43569 I-0.68847 J-76.38316
G3 X-135.67127 Y60.56568 I-18.81079 J-39.77099
G3 X-138.39909 Y61.74777 I-24.16206 J-52.01892
G1 F300.0 X-139.29597 Y59.52165
G3 F800.0 X-160.44585 Y63.49989 I-20.53735 J-50.97488
G3 X-180.95814 Y60.87834 I0.10055 J-82.3465
G3 X-193.37413 Y62.36644 I-12.10127 J-48.4266
G3 X-213.21976 Y58.44271 I-0.54536 J-49.39164
G3 X-219.37446 Y60.36123 I-29.98395 J-85.35866
G3 X-236.93392 Y62.86046 I-18.53721 J-67.30583
G3 X-244.30707 Y62.62499 I-1.16309 J-79.13308
G3 X-250.3784 Y73.4 I-48.22087 J-20.0727
G1 X-41.6
G1 Y63.46018
G3 X-57.41569 Y65.91319 I-15.72806 J-49.19396
G3 X-82.46148 Y59.45422 I-0.3082 J-50.5941
G3 X-91.77248 Y61.61092 I-21.6423 J-72.25785
G3 X-107.80558 Y62.92911 I-15.86338 J-94.7816
G3 X-135.50767 Y57.82087 I-0.67959 J-73.98314
G3 X-136.68229 Y58.38903 I-18.69705 J-37.15617
G3 X-139.29597 Y59.52165 I-23.15103 J-49.84226
G1 F300.0 X-140.19285 Y57.29553
G3 F800.0 X-160.43097 Y61.09991 I-19.64047 J-48.74876
G3 X-180.95116 Y58.39879 I0.08566 J-79.94652
G3 X-193.37981 Y59.96635 I-12.10824 J-45.94705
G3 X-213.1319 Y55.8628 I-0.53968 J-46.99155
G3 X-220.00917 Y58.04668 I-30.0718 J-82.77874
G3 X-236.96836 Y60.46071 I-17.9025 J-64.99128
G3 X-245.87798 Y60.07353 I-1.12865 J-76.73333
G3 X-255.07595 Y75.42417 I-46.64997 J-17.52124
G3 X-255.41011 Y75.8 I-29.45784 J-25.85535
G1 X-39.2
G1 Y61.32426
G3 X-41.49072 Y60.89722 I10.29454 J-61.5791
G3 X-57.42097 Y63.51318 I-15.83734 J-46.63101
G3 X-82.16994 Y56.85405 I-0.30292 J-48.19408
G3 X-92.16674 Y59.24352 I-21.93384 J-69.65768
G3 X-107.81451 Y60.52909 I-15.46912 J-92.4142
G3 X-135.63697 Y55.18321 I-0.67066 J-71.58312
G3 X-135.93586 Y55.34196 I-23.77728 J-44.40707
G3 X-137.69332 Y56.21237 I-18.26885 J-34.67727
G3 X-140.19285 Y57.29553 I-22.14 J-47.66561
G1 F300.0 X-141.08974 Y55.06941
G3 F800.0 X-160.41598 Y58.69992 I-18.74358 J-46.52265
G3 X-180.95093 Y55.91219 I0.07068 J-77.54653
G3 X-193.3855 Y57.56625 I-12.10848 J-43.46045
G3 X-213.03094 Y53.26668 I-0.53399 J-44.59145
G3 X-220.64389 Y55.73213 I-30.17277 J-80.18262
G3 X-237.0028 Y58.06096 I-17.26778 J-62.67673
G3 X-247.50354 Y57.4715 I-1.09421 J-74.33358
G3 X-256.87971 Y73.841 I-45.02441 J-14.91921
G3 X-258.68016 Y75.75043 I-27.65408 J-24.27218
G3 X-261.37467 Y78.2 I-31.00306 J-31.39637
G1 X-36.8
G1 Y59.2575
G3 X-41.64744 Y58.41103 I7.89454 J-59.51234
G3 X-57.42625 Y61.11316 I-15.68062 J-44.14481
G3 X-81.86611 Y54.2336 I-0.29764 J-45.79407
G3 X-92.56099 Y56.87613 I-22.23768 J-67.03723
G3 X-107.82349 Y58.12907 I-15.07487 J-90.04681
G3 X-135.77825 Y52.52133 I-0.66168 J-69.1831
G3 X-137.0545 Y53.2186 I-23.63599 J-41.74518
G3 X-138.70434 Y54.03572 I-17.15021 J-32.55391
G3 X-141.08974 Y55.06941 I-21.12898 J-45.48895
G1 F300.0 X-141.98662 Y52.8433
G3 F800.0 X-160.40089 Y56.29993 I-17.8467 J-44.29653
G3 X-180.95841 Y53.41753 I0.05559 J-75.14654
G3 X-193.3912 Y55.16614 I-12.101 J-40.96579
G3 X-212.91487 Y50.6519 I-0.52829 J-42.19134
G3 X-221.27862 Y53.41758 I-30.28884 J-77.56785
G3 X-237.03724 Y55.6612 I-16.63304 J-60.36218
G3 X-249.19584 Y54.80772 I-1.05978 J-71.93382
G3 X-258.68347 Y72.25782 I-43.33211 J-12.25543
G3 X-260.36649 Y74.04271 I-25.85032 J-22.68901
G3 X-269.01637 Y80.6 I-29.31674 J-29.68865
G1 X-34.4
G1 Y57.11632
G3 X-41.80875 Y55.91584 I5.49454 J-57.37116
G3 X-57.43154 Y58.71315 I-15.51931 J-41.64963
G3 X-81.54794 Y51.58952 I-0.29235 J-43.39405
G3 X-92.95524 Y54.50873 I-22.55584 J-64.39315
G3 X-107.83253 Y55.72904 I-14.68062 J-87.67941
G3 X-135.93127 Y49.83206 I-0.65264 J-66.78307
G3 X-138.17314 Y51.09524 I-23.48297 J-39.05591
G3 X-139.71537 Y51.85906 I-16.03158 J-30.43055
G3 X-141.98662 Y52.8433 I-20.11795 J-43.3123
G1 F300.0 X-142.88351 Y50.61718
G3 F800.0 X-160.38568 Y53.89994 I-16.94981 J-42.07041
G3 X-180.97474 Y50.91361 I0.04037 J-72.74655
G3 X-193.39691 Y52.76602 I-12.08467 J-38.46187
G3 X-212.78126 Y48.01546 I-0.52258 J-39.79122
G3 X-221.91337 Y51.10304 I-30.42245 J-74.9314
G3 X-237.07167 Y53.26145 I-15.9983 J-58.04764
G3 X-250.9714 Y52.06689 I-1.02534 J-69.53407
G3 X-260.48723 Y70.67465 I-41.55655 J-9.5146
G3 X-262.05281 Y72.33499 I-24.04655 J-21.10583
G3 X-282.4125 Y83.0 I-27.63041 J-27.98093
G1 X-32.0
G1 Y54.89208
G3 X-41.97735 Y53.40971 I3.09454 J-55.14692
G3 X-42.49493 Y53.60999 I-11.80467 J-29.7379
G3 X-57.43683 Y56.31313 I-14.83314 J-39.34377
G3 X-81.2129 Y48.9176 I-0.28706 J-40.99403
G3 X-93.34948 Y52.14133 I-22.89088 J-61.72123
G3 X-107.84163 Y53.32902 I-14.28638 J-85.31201
G3 X-135.6702 Y47.31175 I-0.64353 J-64.38305
G3 X-136.09639 Y47.10941 I13.50895 J-29.00347
G3 X-139.29178 Y48.97189 I-23.31786 J-36.33326
G3 X-140.72639 Y49.68241 I-14.91294 J-28.30719
G3 X-142.88351 Y50.61718 I-19.10693 J-41.13564
G1 F300.0 X-143.78039 Y48.39106
G3 F800.0 X-160.37033 Y51.49995 I-16.05293 J-39.84429
G3 X-181.00135 Y48.39896 I0.02502 J-70.34656
G3 X-193.40263 Y50.36588 I-12.05806 J-35.94722
G3 X-212.62708 Y45.35359 I-0.51686 J-37.39108
G3 X-222.54813 Y48.7885 I-30.57663 J-72.26953
G3 X-237.1061 Y50.8617 I-15.36354 J-55.7331
G3 X-252.85168 Y49.22775 I-0.99091 J-67.13432
G3 X-252.88376 Y49.40355 I-91.98273 J-16.69475
G3 X-262.291 Y69.09148 I-39.64419 J-6.85126
G3 X-263.73914 Y70.62727 I-22.24279 J-19.52266
G3 X-290.42759 Y81.27049 I-25.94408 J-26.27321
G3 X-302.54271 Y79.25297 I0.24809 J-38.87381
G3 X-305.86473 Y79.30208 I-2.98042 J-89.23004
G3 X-324.82898 Y76.13976 I0.16714 J-59.4472
G3 X-324.90755 Y76.11293 I9.52433 J-28.02076
G3 X-340.30303 Y68.53605 I21.99775 J-64.1268
G3 X-340.61911 Y68.32411 I16.32365 J-24.68632
G3 X-360.77292 Y49.91506 I53.81158 J-79.1482
G3 X-377.86341 Y23.6813 I92.30498 J-78.81768
G3 X-378.4 Y22.54656 I76.40763 J-36.82568
G1 Y65.0
G2 X-358.0 Y85.4 I20.4 J0.0
G1 X-29.6
G1 Y52.57427
G3 X-42.15748 Y50.88987 I0.69454 J-52.82911
G3 X-42.73399 Y51.12754 I-14.33112 J-33.94421
G3 X-43.34159 Y51.36429 I-11.04803 J-27.45572
G3 X-57.44214 Y53.9131 I-13.98648 J-37.09807
G3 X-80.85773 Y46.2125 I-0.28176 J-38.59401
G3 X-93.74371 Y49.77393 I-23.24605 J-59.01613
G3 X-107.85081 Y50.92899 I-13.89215 J-82.94461
G3 X-134.65688 Y45.13617 I-0.63436 J-61.98302
G3 X-135.22077 Y44.86624 I12.49562 J-26.82788
G3 X-136.26582 Y44.33971 I26.63229 J-54.15967
G3 X-140.41041 Y46.84853 I-23.14843 J-33.56356
G3 X-141.73742 Y47.50575 I-13.7943 J-26.18383
G3 X-143.78039 Y48.39106 I-18.0959 J-38.95899
G1 F300.0 X-144.67727 Y46.16494
G3 F800.0 X-160.35482 Y49.09995 I-15.15605 J-37.61818
G3 X-181.03996 Y45.87175 I0.00951 J-67.94656
G3 X-193.40836 Y47.96572 I-12.01944 J-33.42001
G3 X-212.43843 Y42.6678 I-0.51113 J-34.99091
G3 X-213.00273 Y42.90391 I-21.15276 J-49.76322
G3 X-223.18291 Y46.47397 I-30.20098 J-69.81985
G3 X-237.14053 Y48.46194 I-14.72876 J-53.41857
G3 X-254.79217 Y46.27936 I-0.95648 J-64.73456
G3 X-255.24661 Y48.98274 I-90.04223 J-13.74637
G3 X-264.09476 Y67.5083 I-37.28134 J-6.43045
G3 X-265.42546 Y68.91955 I-20.43903 J-17.93948
G3 X-290.39573 Y78.87064 I-24.25776 J-24.56549
G3 X-302.18577 Y76.83861 I0.21622 J-36.47396
G3 X-305.85677 Y76.90209 I-3.33736 J-86.81568
G3 X-324.05661 Y73.86743 I0.15917 J-57.04722
G3 X-324.12881 Y73.84278 I8.75197 J-25.74844
G3 X-338.97928 Y66.53413 I21.21901 J-61.85665
G3 X-339.26973 Y66.33938 I14.9999 J-22.6844
G3 X-358.93277 Y48.37416 I52.46219 J-77.16347
G3 X-375.70087 Y22.64042 I90.46483 J-77.27678
G3 X-380.8 Y9.15764 I74.24509 J-35.7848
G1 Y65.0
G2 X-358.0 Y87.8 I22.8 J0.0
G1 X-27.2
G1 Y50.17032
G3 X-29.45751 Y50.17581 I-1.24246 J-46.71926
G3 X-42.34736 Y48.35453 I0.55205 J-50.43065
G3 X-43.62992 Y48.90104 I-14.14124 J-31.40887
G3 X-44.18824 Y49.11859 I-10.1521 J-25.22922
G3 X-57.44745 Y51.51308 I-13.13982 J-34.85237
G3 X-80.47824 Y43.46728 I-0.27644 J-36.19398
G3 X-94.13792 Y47.40653 I-23.62554 J-56.27091
G3 X-107.86006 Y48.52895 I-13.49794 J-80.5772
G3 X-133.64356 Y42.96058 I-0.6251 J-59.58298
G3 X-134.16172 Y42.71254 I11.4823 J-24.6523
G3 X-136.45417 Y41.52108 I25.57324 J-52.00598
G3 X-141.52905 Y44.72517 I-22.96008 J-30.74494
G3 X-142.74845 Y45.3291 I-12.67566 J-24.06048
G3 X-144.67727 Y46.16494 I-17.08488 J-36.78233
G1 F300.0 X-145.57416 Y43.93883
G3 F800.0 X-160.33912 Y46.69995 I-14.25916 J-35.39206
G3 X-181.09278 Y43.32971 I-0.00619 J-65.54656
G3 X-193.41411 Y45.56553 I-11.96663 J-30.87797
G3 X-212.21711 Y39.94902 I-0.50538 J-32.59073
G3 X-213.93605 Y40.69272 I-21.37409 J-47.04443
G3 X-223.81771 Y44.15944 I-29.26765 J-67.60866
G3 X-237.17496 Y46.06219 I-14.09396 J-51.10404
G3 X-256.79271 Y43.19964 I-0.92205 J-62.33481
G3 X-257.60951 Y48.56216 I-88.04169 J-10.66664
G3 X-265.89852 Y65.92513 I-34.91844 J-6.00987
G3 X-267.11179 Y67.21183 I-18.63527 J-16.35631
G3 X-290.36383 Y76.47079 I-22.57143 J-22.85777
G3 X-301.81948 Y74.42151 I0.18432 J-34.0741
G3 X-305.84882 Y74.5021 I-3.70364 J-84.39858
G3 X-323.28425 Y71.59511 I0.15122 J-54.64723
G3 X-323.35007 Y71.57263 I7.9796 J-23.47611
G3 X-337.65552 Y64.53221 I20.44027 J-59.5865
G3 X-337.92034 Y64.35465 I13.67614 J-20.68248
G3 X-357.09257 Y46.8333 I51.11281 J-75.17874
G3 X-373.53833 Y21.59954 I88.62464 J-75.73592
G3 X-381.46929 Y-12.21068 I72.08255 J-34.74392
G1 X-381.46934 Y-12.21471
G3 X-365.35723 Y-53.08792 I58.20076 J-0.6697
G3 X-322.88777 Y-71.31739 I41.65732 J38.46409
G3 X-293.83406 Y-64.92994 I-0.52941 J71.67807
G3 X-293.77189 Y-64.90166 I-10.23325 J22.58501
G3 X-283.90144 Y-59.66587 I-38.99013 J85.42539
G3 X-264.67542 Y-70.56576 I33.19096 J36.13855
G3 X-264.65562 Y-70.57163 I7.05686 J23.76979
G3 X-244.90728 Y-73.28369 I18.76912 J63.41409
G3 X-244.29814 Y-73.26718 I-0.36713 J24.79248
G3 X-230.24236 Y-70.68045 I-1.97959 J50.23815
G3 X-219.86262 Y-73.22857 I12.50626 J28.52924
G3 X-218.45387 Y-73.28478 I1.6927 J24.73735
G3 X-207.03623 Y-71.41674 I0.38347 J33.48297
G3 X-206.06587 Y-71.81012 I12.35957 J29.09389
G3 X-205.76758 Y-71.92313 I8.93371 J23.12987
G3 X-194.00466 Y-74.04922 I11.82754 J31.83468
G3 X-170.41745 Y-64.80262 I0.49744 J33.43879
G3 X-160.35564 Y-43.89291 I-22.48741 J23.69674
G3 X-145.77994 Y-60.65154 I44.4301 J23.9249
G3 X-125.5004 Y-70.32966 I35.17235 J47.61422
G3 X-125.46156 Y-70.33972 I6.23805 J23.99768
G3 X-106.20417 Y-72.71551 I18.71848 J72.49114
G3 X-78.84494 Y-67.40391 I0.18683 J72.15508
G3 X-58.20882 Y-74.30559 I20.34816 J26.5393
G3 X-37.05875 Y-67.00156 I0.28754 J33.44125
G3 X-25.0239 Y-73.09682 I20.00608 J24.5724
G3 X-24.8 Y-73.15495 I9.32871 J35.47491
G1 Y-90.2
G1 X-358.0
G2 X-383.2 Y-65.0 I0.0 J25.2
G1 Y65.0
G2 X-358.0 Y90.2 I25.2 J0.0
G1 X-24.8
G1 Y47.63696
G3 X-29.4183 Y47.77609 I-3.64246 J-44.1859
G3 X-42.54892 Y45.80045 I0.51284 J-48.03094
G3 X-44.52586 Y46.67454 I-13.93967 J-28.85479
G3 X-45.0349 Y46.87289 I-9.25617 J-23.00272
G3 X-57.45277 Y49.11304 I-12.29316 J-32.60667
G3 X-80.06885 Y40.67274 I-0.27112 J-33.79395
G3 X-94.53213 Y45.03912 I-24.03493 J-53.47637
G3 X-107.86941 Y46.12892 I-13.10373 J-78.2098
G3 X-132.63023 Y40.78499 I-0.61576 J-57.18295
G3 X-133.10267 Y40.55884 I10.46898 J-22.47671
G3 X-136.66629 Y38.64227 I24.51419 J-49.85228
G3 X-142.64769 Y42.60181 I-22.74796 J-27.86612
G3 X-143.75947 Y43.15244 I-11.55702 J-21.93712
G3 X-145.57416 Y43.93883 I-16.07385 J-34.60568
G1 F300.0 X-146.47104 Y41.71271
G3 F800.0 X-160.32322 Y44.29995 I-13.36228 J-33.16594
G3 X-181.16257 Y40.76991 I-0.02209 J-63.14656
G3 X-193.41987 Y43.16532 I-11.89684 J-28.31817
G3 X-211.9703 Y37.17986 I-0.49962 J-30.19051
G3 X-214.86924 Y38.48146 I-21.62089 J-44.27527
G3 X-224.45252 Y41.84491 I-28.33447 J-65.39741
G3 X-237.20938 Y43.66244 I-13.45914 J-48.78952
G3 X-258.86871 Y39.95491 I-0.88763 J-59.93506
G3 X-259.97246 Y48.14186 I-85.9657 J-7.42192
G3 X-267.70228 Y64.34195 I-32.55549 J-5.58957
G3 X-268.79812 Y65.50411 I-16.83151 J-14.77313
G3 X-290.33189 Y74.07092 I-20.8851 J-21.15005
G3 X-301.44234 Y72.00123 I0.15238 J-31.67424
G3 X-305.84087 Y72.10212 I-4.08079 J-81.9783
G3 X-322.51188 Y69.32279 I0.14328 J-52.24724
G3 X-322.57133 Y69.30249 I7.20723 J-21.20379
G3 X-336.33177 Y62.5303 I19.66153 J-57.31636
G3 X-336.57095 Y62.36992 I12.35239 J-18.68056
G3 X-355.25233 Y45.29249 I49.76342 J-73.19401
G3 X-371.3758 Y20.55865 I86.78439 J-74.19511
G3 X-379.06946 Y-12.23868 I69.92002 J-33.70303
G1 X-379.0695 Y-12.24232
G3 X-363.60771 Y-51.44487 I55.80092 J-0.64209
G3 X-322.91385 Y-68.91751 I39.9078 J36.82104
G3 X-294.82457 Y-62.74387 I-0.50334 J69.27819
G3 X-294.76842 Y-62.71833 I-9.24274 J20.39894
G3 X-283.59083 Y-56.64458 I-37.99361 J83.24206
G3 X-263.99237 Y-68.26501 I32.88034 J33.11726
G3 X-263.97448 Y-68.27032 I6.3738 J21.46904
G3 X-244.94282 Y-70.88396 I18.08799 J61.11278
G3 X-244.39263 Y-70.86904 I-0.3316 J22.39274
G3 X-230.47975 Y-68.22465 I-1.8851 J47.84001
G3 X-230.11131 Y-68.10151 I-32.6052 J98.16612
G3 X-219.69878 Y-70.83416 I12.37521 J25.9503
G3 X-218.42639 Y-70.88494 I1.52886 J22.34295
G3 X-206.94978 Y-68.82972 I0.35598 J31.08312
G3 X-205.20115 Y-69.57132 I12.27312 J26.50687
G3 X-204.93174 Y-69.67339 I8.06899 J20.89106
G3 X-193.98452 Y-71.64925 I10.99169 J29.58493
G3 X-172.072 Y-63.06409 I0.4773 J31.03882
G3 X-162.64041 Y-40.62174 I-20.83286 J21.95821
G1 X-162.65941 Y-31.0666
G3 X-159.73344 Y-39.73173 I50.99843 J12.39418
G3 X-159.54552 Y-40.14903 I20.5132 J8.9863
G3 X-144.35701 Y-58.71885 I43.61998 J20.18102
G3 X-124.8966 Y-68.00685 I33.74941 J45.68154
G3 X-124.86152 Y-68.01594 I5.63425 J21.67487
G3 X-106.2097 Y-70.31548 I18.11844 J70.16736
G3 X-78.80061 Y-64.78701 I0.19236 J69.75505
G3 X-78.45232 Y-64.64267 I-17.96713 J43.84535
G3 X-58.20884 Y-71.90549 I19.95553 J23.77805
G3 X-37.0406 Y-63.8346 I0.28755 J31.04116
G3 X-24.41684 Y-70.77486 I19.98793 J21.40544
G3 X-22.4 Y-71.24082 I8.72165 J33.15295
G1 Y-92.6
G1 X-358.0
G2 X-385.6 Y-65.0 I0.0 J27.6
G1 Y65.0
G2 X-358.0 Y92.6 I27.6 J0.0
G1 X-22.4
G1 Y44.94923
G3 X-29.37906 Y45.37637 I-6.04246 J-41.49817
G3 X-42.76487 Y43.2233 I0.4736 J-45.63122
G3 X-45.42179 Y44.44804 I-13.72372 J-26.27764
G3 X-45.88156 Y44.62719 I-8.36024 J-20.77622
G3 X-57.45811 Y46.71301 I-11.4465 J-30.36097
G3 X-79.03065 Y38.37707 I-0.26578 J-31.39391
G3 X-79.6217 Y37.81951 I20.40587 J-22.22347
G3 X-80.17691 Y38.08099 I-17.39837 J-36.22271
G3 X-94.92632 Y42.67171 I-23.92687 J-50.88462
G3 X-107.87884 Y43.72888 I-12.70954 J-75.84239
G3 X-131.61691 Y38.60941 I-0.60632 J-54.78291
G3 X-132.04362 Y38.40515 I9.45566 J-20.30112
G3 X-136.90842 Y35.68744 I23.45514 J-47.69858
G3 X-143.76633 Y40.47845 I-22.50582 J-24.91129
G3 X-144.7705 Y40.97579 I-10.43839 J-19.81376
G3 X-146.47104 Y41.71271 I-15.06282 J-32.42902
G1 F300.0 X-147.36793 Y39.48659
G3 F800.0 X-160.30706 Y41.89994 I-12.46539 J-30.93982
G3 X-181.25295 Y38.1886 I-0.03824 J-60.74655
G3 X-193.42566 Y40.76506 I-11.80645 J-25.73686
G3 X-211.69073 Y34.34594 I-0.49383 J-27.79026
G3 X-215.80227 Y36.27013 I-21.90046 J-41.44135
G3 X-225.08736 Y39.5304 I-27.40143 J-63.18607
G3 X-237.2438 Y41.26268 I-12.8243 J-46.475
G3 X-261.04258 Y36.49612 I-0.85321 J-57.5353
G3 X-262.33547 Y47.72187 I-83.79182 J-3.96312
G3 X-269.50605 Y62.75878 I-30.19247 J-5.16958
G3 X-270.48444 Y63.7964 I-15.02774 J-13.18996
G3 X-290.2999 Y71.67104 I-19.19878 J-19.44233
G3 X-301.05246 Y69.57721 I0.12039 J-29.27436
G3 X-305.83294 Y69.70213 I-4.47067 J-79.55428
G3 X-321.73951 Y67.05047 I0.13535 J-49.84726
G3 X-321.79259 Y67.03234 I6.43486 J-18.93147
G3 X-335.00801 Y60.52838 I18.88279 J-55.04621
G3 X-335.22157 Y60.38519 I11.02864 J-16.67865
G3 X-353.41203 Y43.75174 I48.41404 J-71.20927
G3 X-369.21326 Y19.51776 I84.94409 J-72.65436
G3 X-376.66962 Y-12.26669 I67.75749 J-32.66214
G1 X-376.66966 Y-12.26994
G3 X-361.85818 Y-49.80182 I53.40108 J-0.61447
G3 X-322.93996 Y-66.51764 I38.15827 J35.17799
G3 X-295.81508 Y-60.5578 I-0.47723 J66.87832
G3 X-295.76494 Y-60.535 I-8.25224 J18.21287
G3 X-283.23424 Y-53.54583 I-36.99708 J81.05873
G3 X-283.14033 Y-53.65089 I35.00969 J31.2007
G3 X-282.70407 Y-54.12201 I14.8874 J13.34816
G3 X-263.30931 Y-65.96427 I31.99359 J30.5947
G3 X-263.29334 Y-65.969 I5.69075 J19.16829
G3 X-244.97835 Y-68.48422 I17.40685 J58.81146
G3 X-244.48713 Y-68.47091 I-0.29606 J19.99301
G3 X-231.25414 Y-65.95294 I-1.7906 J45.44187
G3 X-229.93779 Y-65.50592 I-31.83081 J95.8944
G3 X-219.53494 Y-68.43976 I12.2017 J23.35471
G3 X-218.3989 Y-68.4851 I1.36502 J19.94855
G3 X-206.85932 Y-66.20542 I0.3285 J28.68328
G3 X-204.33643 Y-67.33251 I12.18266 J23.88257
G3 X-204.09589 Y-67.42364 I7.20427 J18.65225
G3 X-193.96437 Y-69.24927 I10.15584 J27.33519
G3 X-173.72654 Y-61.32556 I0.45715 J28.63884
G3 X-165.04037 Y-40.64367 I-19.17832 J20.21968
G1 X-165.06602 Y-27.74255
G3 X-165.03934 Y-27.75008 I7.0858 J25.07679
G3 X-160.73937 Y-28.65287 I8.53111 J29.94157
G3 X-157.53512 Y-38.7687 I49.07839 J9.98045
G3 X-157.36735 Y-39.14128 I18.31488 J8.02328
G3 X-142.93408 Y-56.78616 I41.4418 J19.17327
G3 X-124.2928 Y-65.68405 I32.32649 J43.74885
G3 X-124.26148 Y-65.69216 I5.03045 J19.35207
G3 X-106.21522 Y-67.91546 I17.5184 J67.84358
G3 X-79.72382 Y-62.57164 I0.19788 J67.35503
G3 X-78.01249 Y-61.8292 I-17.04393 J41.62997
G3 X-58.20885 Y-69.50538 I19.5157 J20.96458
G3 X-38.12173 Y-61.56142 I0.28757 J28.64104
G3 X-37.01159 Y-60.44403 I-19.38724 J20.37157
G3 X-23.80981 Y-68.4529 I19.95892 J18.01487
G3 X-20.0 Y-69.21092 I8.11462 J30.83099
G1 Y-95.0
G1 X-358.0
G2 X-388.0 Y-65.0 I0.0 J30.0
G1 Y65.0
G2 X-358.0 Y95.0 I30.0 J0.0
G1 X-20.0
G1 Y42.07492
G3 X-29.33978 Y42.97665 I-8.44246 J-38.62386
G3 X-42.99885 Y40.61724 I0.43432 J-43.23149
G3 X-46.31772 Y42.22154 I-13.48974 J-23.67158
G3 X-46.72822 Y42.38149 I-7.46431 J-18.54972
G3 X-57.46347 Y44.31296 I-10.59984 J-28.11527
G3 X-77.40464 Y36.61183 I-0.26042 J-28.99387
G3 X-79.13281 Y34.87906 I18.77986 J-20.45823
G3 X-81.19049 Y35.9055 I-17.88726 J-33.28226
G3 X-95.3205 Y40.3043 I-22.91329 J-48.70913
G3 X-107.88839 Y41.32883 I-12.31536 J-73.47498
G3 X-130.60359 Y36.43382 I-0.59678 J-52.38286
G3 X-130.98456 Y36.25145 I8.44233 J-18.12554
G3 X-137.18954 Y32.63389 I22.39609 J-45.54488
G3 X-144.88497 Y38.3551 I-22.22471 J-21.85774
G3 X-145.78152 Y38.79913 I-9.31975 J-17.6904
G3 X-147.36793 Y39.48659 I-14.0518 J-30.25237
G1 F300.0 X-148.26481 Y37.26047
G3 F800.0 X-160.29062 Y39.49993 I-11.56851 J-28.71371
G3 X-181.36873 Y35.58075 I-0.05468 J-58.34654
G3 X-193.43147 Y38.36476 I-11.69068 J-23.12901
G3 X-211.36768 Y31.42606 I-0.48802 J-25.38996
G3 X-216.73513 Y34.05871 I-22.22351 J-38.52147
G3 X-225.72223 Y37.21589 I-26.46858 J-60.97465
G3 X-237.27822 Y38.86293 I-12.18944 J-44.16049
G3 X-263.34919 Y32.74704 I-0.8188 J-55.13555
G3 X-264.69855 Y47.30225 I-81.48521 J-0.21404
G3 X-271.30981 Y61.1756 I-27.82939 J-4.74996
G3 X-272.17077 Y62.08868 I-13.22398 J-11.60678
G3 X-290.26784 Y69.27114 I-17.51245 J-17.73461
G3 X-300.64747 Y67.14877 I0.08834 J-26.87446
G3 X-305.82503 Y67.30214 I-4.87566 J-77.12584
G3 X-320.96714 Y64.77815 I0.12743 J-47.44727
G3 X-321.01385 Y64.7622 I5.66249 J-16.65915
G3 X-333.68426 Y58.52646 I18.10405 J-52.77607
G3 X-333.87218 Y58.40046 I9.70488 J-14.67673
G3 X-351.57167 Y42.21104 I47.06465 J-69.22454
G3 X-367.05074 Y18.47686 I83.10373 J-71.11366
G3 X-374.26978 Y-12.29469 I65.59496 J-31.62124
G1 X-374.26982 Y-12.29755
G3 X-360.10863 Y-48.15878 I51.00124 J-0.58686
G3 X-322.96612 Y-64.11776 I36.40872 J33.53494
G3 X-296.80558 Y-58.37173 I-0.45107 J64.47844
G3 X-296.76147 Y-58.35167 I-7.26173 J16.0268
G3 X-282.80782 Y-50.34196 I-36.00056 J78.8754
G3 X-281.35341 Y-52.04873 I34.58327 J27.99682
G3 X-280.96952 Y-52.4633 I13.10048 J11.74599
G3 X-262.62626 Y-63.66352 I30.25903 J28.93599
G3 X-262.61221 Y-63.66768 I5.0077 J16.86754
G3 X-245.01389 Y-66.08448 I16.72571 J56.51014
G3 X-244.58163 Y-66.07277 I-0.26053 J17.59327
G3 X-232.0288 Y-63.68131 I-1.6961 J43.04373
G3 X-229.72399 Y-62.88501 I-31.05615 J93.62278
G3 X-229.49219 Y-63.01716 I26.06259 J45.44626
G3 X-229.3465 Y-63.09882 I8.67542 J15.30778
G3 X-219.3711 Y-66.04536 I11.6104 J20.94761
G3 X-218.37142 Y-66.08526 I1.20118 J17.55415
G3 X-206.76342 Y-63.53074 I0.30101 J26.28344
G3 X-203.47171 Y-65.0937 I12.08676 J21.20789
G3 X-203.26004 Y-65.1739 I6.33955 J16.41344
G3 X-193.94421 Y-66.84928 I9.32 J25.08544
G3 X-175.38108 Y-59.58702 I0.43699 J26.23885
G3 X-167.44033 Y-40.66636 I-17.52377 J18.48114
G1 X-167.4728 Y-24.33656
G3 X-164.38545 Y-25.44087 I9.49258 J21.6708
G3 X-158.70403 Y-26.4577 I7.87723 J27.63236
G3 X-155.33681 Y-37.80568 I47.04306 J7.78528
G3 X-155.18917 Y-38.13354 I16.11657 J7.06026
G3 X-141.51117 Y-54.85346 I39.26363 J18.16553
G3 X-123.689 Y-63.36124 I30.90358 J41.81614
G3 X-123.66144 Y-63.36838 I4.42666 J17.02926
G3 X-106.22073 Y-65.51543 I16.91836 J65.5198
G3 X-80.6469 Y-60.3562 I0.20339 J64.955
G3 X-77.52737 Y-58.93107 I-16.12084 J39.41454
G3 X-76.73906 Y-59.72917 I18.70942 J17.69163
G3 X-76.69477 Y-59.77195 I12.24589 J12.63444
G3 X-58.20887 Y-67.10525 I18.19798 J18.90733
G3 X-39.77851 Y-59.82503 I0.28758 J26.24091
G3 X-36.96941 Y-56.67421 I-17.73045 J18.63518
G3 X-23.20281 Y-66.13092 I19.91674 J14.24505
G3 X-17.6 Y-67.04129 I7.50762 J28.50901
G1 Y-97.4
G1 X-358.0
G2 X-390.4 Y-65.0 I0.0 J32.4
G1 Y65.0
G2 X-358.0 Y97.4 I32.4 J0.0
G1 X-17.6
G1 Y38.96876
G3 X-29.30047 Y40.57692 I-10.84246 J-35.5177
G3 X-43.25595 Y37.9741 I0.39501 J-40.83176
G3 X-47.21365 Y39.99504 I-13.23264 J-21.02845
G3 X-47.57488 Y40.13579 I-6.56837 J-16.32322
G3 X-57.46886 Y41.91291 I-9.75318 J-25.86958
G3 X-75.77863 Y34.84657 I-0.25504 J-26.59381
G3 X-78.59306 Y31.80446 I17.15385 J-18.69297
G3 X-82.204 Y33.72998 I-18.42701 J-30.20766
G3 X-95.71467 Y37.93689 I-21.89978 J-46.53361
G3 X-107.89805 Y38.92878 I-11.92119 J-71.10757
G3 X-129.59026 Y34.25823 I-0.58711 J-49.98281
G3 X-129.92551 Y34.09775 I7.42901 J-15.94995
G3 X-137.52318 Y29.44734 I21.33703 J-43.39119
G3 X-146.0036 Y36.23174 I-21.89107 J-18.67119
G3 X-146.79255 Y36.62248 I-8.20111 J-15.56704
G3 X-148.26481 Y37.26047 I-13.04077 J-28.07571
G1 F300.0 X-149.16169 Y35.03436
G3 F800.0 X-160.27384 Y37.09991 I-10.67163 J-26.48759
G3 X-181.51646 Y32.93949 I-0.07147 J-55.94652
G3 X-193.43733 Y35.96439 I-11.54295 J-20.48775
G3 X-210.58235 Y28.82103 I-0.48216 J-22.98959
G3 X-210.98109 Y28.38507 I11.01106 J-10.47142
G3 X-217.66779 Y31.84719 I-22.6101 J-35.48048
G3 X-226.35713 Y34.90139 I-25.53592 J-58.76314
G3 X-237.31263 Y36.46318 I-11.55454 J-41.84599
G3 X-265.96314 Y28.50638 I-0.78439 J-52.7358
G3 X-265.75282 Y31.74696 I-24.76097 J3.23415
G3 X-267.06172 Y46.88306 I-79.08158 J0.78603
G3 X-273.11357 Y59.59243 I-25.46623 J-4.33077
G3 X-273.8571 Y60.38096 I-11.42022 J-10.02361
G3 X-290.2357 Y66.87122 I-15.82613 J-16.0269
G3 X-300.22432 Y64.71501 I0.05619 J-24.47454
G3 X-305.81712 Y64.90215 I-5.29881 J-74.69208
G3 X-320.19477 Y62.50582 I0.11953 J-45.04728
G3 X-320.23511 Y62.49205 I4.89012 J-14.38683
G3 X-332.36051 Y56.52454 I17.32531 J-50.50592
G3 X-332.52279 Y56.41573 I8.38113 J-12.67481
G3 X-349.73125 Y40.67041 I45.71526 J-67.23981
G3 X-364.88821 Y17.43595 I81.26331 J-69.57303
G3 X-371.86995 Y-12.32269 I63.43243 J-30.58033
G1 X-371.86998 Y-12.32516
G3 X-358.35906 Y-46.51574 I48.6014 J-0.55924
G3 X-322.99233 Y-61.71789 I34.65916 J31.8919
G3 X-297.79609 Y-56.18566 I-0.42486 J62.07857
G3 X-297.75799 Y-56.16833 I-6.27122 J13.84073
G3 X-282.32488 Y-47.02662 I-35.00404 J76.69206
G3 X-279.5665 Y-50.44656 I34.10033 J24.68148
G3 X-279.23497 Y-50.80459 I11.31357 J10.14383
G3 X-261.94321 Y-61.36277 I28.52448 J27.27727
G3 X-261.93107 Y-61.36637 I4.32464 J14.5668
G3 X-245.04942 Y-63.68475 I16.04458 J54.20883
G3 X-244.67612 Y-63.67463 I-0.22499 J15.19353
G3 X-232.80376 Y-61.40978 I-1.60161 J40.64559
G3 X-229.48432 Y-60.24167 I-30.28119 J91.35124
G3 X-228.30885 Y-60.92917 I25.82293 J42.80292
G3 X-228.18303 Y-60.99969 I7.49209 J13.21978
G3 X-219.20726 Y-63.65096 I10.44694 J18.84848
G3 X-218.34394 Y-63.68541 I1.03733 J15.15975
G3 X-206.65989 Y-60.78517 I0.27353 J23.8836
G3 X-202.60699 Y-62.85489 I11.98322 J18.46232
G3 X-202.42419 Y-62.92415 I5.47483 J14.17464
G3 X-193.92403 Y-64.44927 I8.48415 J22.83569
G3 X-177.03562 Y-57.84848 I0.41681 J23.83884
G3 X-169.84029 Y-40.6899 I-15.86924 J16.7426
G1 X-169.88087 Y-20.28125
G3 X-163.73161 Y-23.13164 I11.90065 J17.61549
G3 X-156.6124 Y-24.14152 I7.22338 J25.32313
G3 X-153.13849 Y-36.84265 I44.95143 J5.4691
G3 X-153.011 Y-37.12579 I13.91826 J6.09723
G3 X-140.08827 Y-52.92074 I37.08545 J17.15778
G3 X-123.0852 Y-61.03844 I29.48068 J39.88343
G3 X-123.0614 Y-61.0446 I3.82286 J14.70646
G3 X-106.22623 Y-63.1154 I16.31832 J63.19602
G3 X-81.56985 Y-58.1407 I0.20889 J62.55497
G3 X-76.97893 Y-55.91519 I-15.19789 J37.19904
G3 X-75.06871 Y-58.00582 I18.16098 J14.67575
G3 X-75.03046 Y-58.04276 I10.57554 J10.91109
G3 X-58.20889 Y-64.70509 I16.53367 J17.17815
G3 X-41.4353 Y-58.08863 I0.2876 J23.84075
G3 X-36.89401 Y-52.09651 I-16.07366 J16.89878
G3 X-35.49357 Y-54.57809 I22.59525 J11.11538
G3 X-35.16454 Y-55.06965 I12.78963 J8.20484
G3 X-22.59584 Y-63.80894 I18.11187 J12.64049
G3 X-15.66248 Y-64.70287 I6.90065 J26.18703
G3 X-15.2 Y-64.70535 I0.36064 J24.10627
G1 Y-99.8
G1 X-358.0
G2 X-392.8 Y-65.0 I0.0 J34.8
G1 Y65.0
G2 X-358.0 Y99.8 I34.8 J0.0
G1 X-15.2
G1 Y35.56354
G3 X-29.26111 Y38.17719 I-13.24246 J-32.11248
G3 X-43.54352 Y35.2821 I0.35565 J-38.43203
G3 X-48.10958 Y37.76853 I-12.94507 J-18.33644
G3 X-48.42154 Y37.89009 I-5.67244 J-14.09672
G3 X-57.47427 Y39.51284 I-8.90652 J-23.62388
G3 X-74.15263 Y33.08131 I-0.24962 J-24.19375
G3 X-77.97713 Y28.52891 I15.52785 J-16.92771
G3 X-83.21741 Y31.55442 I-19.04294 J-26.93211
G3 X-96.10881 Y35.56947 I-20.88637 J-44.35805
G3 X-107.90786 Y36.52873 I-11.52705 J-68.74015
G3 X-128.57694 Y32.08265 I-0.57731 J-47.58276
G3 X-128.86646 Y31.94406 I6.41569 J-13.77436
G3 X-137.93128 Y26.07219 I20.27798 J-41.23749
G3 X-147.12224 Y34.10838 I-21.48296 J-15.29604
G3 X-147.80357 Y34.44582 I-7.08247 J-13.44369
G3 X-149.16169 Y35.03436 I-12.02975 J-25.89906
G1 F300.0 X-150.05858 Y32.80824
G3 F800.0 X-160.25664 Y34.69988 I-9.77474 J-24.26147
G3 X-181.70545 Y30.25511 I-0.08867 J-53.54649
G3 X-193.44324 Y33.56394 I-11.35396 J-17.80337
G3 X-208.84322 Y27.16712 I-0.47625 J-20.58914
G3 X-209.22774 Y26.74426 I9.27193 J-8.81751
G3 X-210.48378 Y25.15271 I16.11585 J-14.01
G3 X-218.60021 Y29.63556 I-23.10741 J-32.24813
G3 X-226.99206 Y32.58689 I-24.6035 J-56.55151
G3 X-237.34703 Y34.06342 I-10.91961 J-39.53149
G3 X-270.08753 Y22.5975 I-0.74999 J-50.33604
G3 X-268.15283 Y31.75837 I-20.63657 J9.14302
G3 X-269.42498 Y46.46439 I-76.68158 J0.77463
G3 X-274.91733 Y58.00925 I-23.10296 J-3.9121
G3 X-275.54342 Y58.67324 I-9.61646 J-8.44043
G3 X-290.20344 Y64.47127 I-14.1398 J-14.31918
G3 X-299.77899 Y62.27476 I0.02394 J-22.07459
G3 X-305.80923 Y62.50217 I-5.74413 J-72.25183
G3 X-319.4224 Y60.2335 I0.11164 J-42.64729
G3 X-319.45637 Y60.2219 I4.11775 J-12.11451
G3 X-331.03675 Y54.52263 I16.54657 J-48.23577
G3 X-331.17341 Y54.43099 I7.05737 J-10.67289
G3 X-347.89077 Y39.12984 I44.36588 J-65.25508
G3 X-362.72569 Y16.39504 I79.42283 J-68.03246
G3 X-369.47011 Y-12.3507 I61.26991 J-29.53942
G1 X-369.47013 Y-12.35278
G3 X-356.60947 Y-44.8727 I46.20156 J-0.53163
G3 X-323.0186 Y-59.31801 I32.90957 J30.24887
G3 X-298.78659 Y-53.99959 I-0.39858 J59.67869
G3 X-298.75451 Y-53.985 I-5.28072 J11.65466
G3 X-281.76962 Y-43.56868 I-34.00751 J74.50873
G3 X-277.77958 Y-48.8444 I33.54507 J21.22354
G3 X-277.50041 Y-49.14588 I9.52665 J8.54167
G3 X-261.26015 Y-59.06202 I26.78993 J25.61856
G3 X-261.24993 Y-59.06505 I3.64159 J12.26605
G3 X-245.08496 Y-61.28501 I15.36344 J51.90751
G3 X-244.77062 Y-61.27649 I-0.18945 J12.7938
G3 X-233.57906 Y-59.13835 I-1.50711 J38.24745
G3 X-229.22774 Y-57.57711 I-29.50589 J89.07982
G3 X-227.12552 Y-58.84117 I25.56635 J40.13836
G3 X-227.01957 Y-58.90056 I6.30875 J11.13179
G3 X-219.04342 Y-61.25656 I9.28348 J16.74935
G3 X-218.31645 Y-61.28557 I0.87349 J12.76535
G3 X-206.54497 Y-57.93402 I0.24605 J21.48375
G3 X-201.74227 Y-60.61609 I11.86831 J15.61117
G3 X-201.58834 Y-60.6744 I4.61011 J11.93583
G3 X-193.90383 Y-62.04925 I7.6483 J20.58595
G3 X-178.69016 Y-56.10994 I0.3966 J21.43882
G3 X-172.24025 Y-40.71446 I-14.2147 J15.00405
G1 X-172.29148 Y-14.94734
G3 X-163.07781 Y-20.82241 I14.31126 J12.28159
G3 X-156.49698 Y-21.74172 I6.56959 J23.0139
G3 X-154.43742 Y-21.69239 I0.51182 J21.64657
G3 X-150.94018 Y-35.87963 I42.77644 J3.01997
G3 X-150.83282 Y-36.11805 I11.71994 J5.13421
G3 X-138.6654 Y-50.98801 I34.90727 J16.15004
G3 X-122.4814 Y-58.71563 I28.0578 J37.9507
G3 X-122.46136 Y-58.72082 I3.21906 J12.38365
G3 X-106.23172 Y-60.71537 I15.71828 J60.87224
G3 X-82.49264 Y-55.92513 I0.21438 J60.15494
G3 X-76.33773 Y-52.72588 I-14.27511 J34.98347
G3 X-73.39836 Y-56.28247 I17.51978 J11.48644
G3 X-73.36615 Y-56.31358 I8.90519 J9.18775
G3 X-58.2089 Y-62.30489 I14.86936 J15.44897
G3 X-43.09208 Y-56.35223 I0.28761 J21.44056
G3 X-36.82813 Y-44.35963 I-14.41688 J15.16238
G3 X-33.47351 Y-53.28218 I22.52937 J3.3785
G3 X-33.19645 Y-53.6961 I10.76958 J6.90893
G3 X-21.98891 Y-61.48694 I16.14378 J11.26694
G3 X-15.64592 Y-62.30284 I6.29373 J23.86503
G3 X-12.8 Y-62.16092 I0.34408 J21.70624
G1 Y-102.2
G1 X-358.0
G2 X-395.2 Y-65.0 I0.0 J37.2
G1 Y65.0
G2 X-358.0 Y102.2 I37.2 J0.0
G1 X-12.8
G1 Y31.7499
G3 X-13.01364 Y31.86855 I-6.3188 J-11.12609
G3 X-29.22169 Y35.77744 I-15.42882 J-28.41749
G3 X-43.87276 Y32.52328 I0.31623 J-36.03229
G3 X-49.00551 Y35.54203 I-12.61583 J-15.57763
G3 X-49.2682 Y35.64439 I-4.77651 J-11.87022
G3 X-57.47972 Y37.11276 I-8.05986 J-21.37818
G3 X-72.52663 Y31.31605 I-0.24417 J-21.79367
G3 X-77.23455 Y24.91932 I13.90186 J-15.16245
G3 X-84.23072 Y29.3788 I-19.78552 J-23.32252
G3 X-96.50294 Y33.20206 I-19.87306 J-42.18243
G3 X-107.91781 Y34.12867 I-11.13292 J-66.37273
G3 X-127.56362 Y29.90706 I-0.56735 J-45.1827
G3 X-127.80741 Y29.79036 I5.40236 J-11.59878
G3 X-138.45344 Y22.40821 I19.21893 J-39.08379
G3 X-148.24088 Y31.98502 I-20.96081 J-11.63207
G3 X-148.8146 Y32.26917 I-5.96383 J-11.32033
G3 X-150.05858 Y32.80824 I-11.01872 J-23.7224
G1 F300.0 X-150.95546 Y30.58212
G3 F800.0 X-160.23893 Y32.29984 I-8.87786 J-22.03535
G3 X-181.94949 Y27.51318 I-0.10637 J-51.14645
G3 X-193.44922 Y31.16337 I-11.10991 J-15.06144
G3 X-207.10408 Y25.51322 I-0.47027 J-18.18857
G3 X-207.41648 Y25.16967 I7.53279 J-7.16361
G3 X-209.86611 Y21.59748 I14.30458 J-12.43541
G3 X-211.17147 Y22.67967 I-14.27393 J-15.88913
G3 X-211.25304 Y22.74137 I-6.31165 J-8.25974
G3 X-219.53237 Y27.4238 I-22.33815 J-29.83678
G3 X-227.62703 Y30.27241 I-23.67134 J-54.33975
G3 X-237.38142 Y31.66367 I-10.28463 J-37.21701
G3 X-271.75665 Y17.86576 I-0.71559 J-47.93629
G3 X-285.60467 Y-7.65991 I30.84488 J-33.25297
G3 X-293.41087 Y-6.10488 I-7.5352 J-17.45551
G3 X-294.13727 Y-6.14068 I0.14818 J-10.39414
G3 X-302.08268 Y-8.51992 I1.69987 J-20.13302
G3 X-306.58403 Y-11.19408 I20.20698 J-39.13948
G3 X-306.70089 Y-11.27443 I5.8311 J-8.60572
G2 X-315.48781 Y-16.95073 I-84.0557 J120.47933
G2 X-323.27298 Y-18.9265 I-8.11426 J15.64683
G2 X-326.48588 Y-17.47881 I0.00265 J4.29496
G3 X-326.74849 Y-17.19316 I-7.78267 J-6.89131
G2 X-328.50877 Y-12.68393 I4.60673 J4.39655
G3 X-328.50726 Y-12.54965 I-10.39357 J0.18393
G2 X-327.63601 Y-6.23283 I24.17225 J-0.11546
G2 X-325.11046 Y0.33066 I34.74568 J-9.60207
G2 X-316.37012 Y13.27107 I58.92649 J-30.37879
G3 X-316.24469 Y13.41915 I-7.86914 J6.79241
G2 X-311.31808 Y18.59793 I41.03725 J-34.10628
G3 X-311.23533 Y18.67483 I-7.0348 J7.65322
G2 X-306.72375 Y21.82491 I13.06801 J-13.91033
G2 X-306.45584 Y21.93905 I1.24667 J-2.55463
G3 X-301.52209 Y16.21206 I18.57941 J11.01731
G3 X-301.21187 Y15.96889 I6.56699 J8.05821
G3 X-289.90843 Y12.20517 I11.24706 J14.92244
G3 X-274.3053 Y20.02286 I0.53775 J18.4065
G3 X-270.55284 Y31.76928 I-16.41881 J11.71766
G3 X-271.78837 Y46.04636 I-74.28156 J0.76372
G3 X-276.72109 Y56.42608 I-20.73958 J-3.49407
G3 X-277.22975 Y56.96552 I-7.81269 J-6.85726
G3 X-290.17103 Y62.07128 I-12.45347 J-12.61146
G3 X-299.30573 Y59.8266 I-0.00848 J-19.6746
G3 X-299.94477 Y59.88036 I-3.74241 J-40.65868
G3 X-305.80137 Y60.10218 I-5.57835 J-69.85743
G3 X-318.65003 Y57.96118 I0.10377 J-40.24731
G3 X-318.67763 Y57.95176 I3.34539 J-9.84218
G3 X-329.713 Y52.52071 I15.76783 J-45.96563
G3 X-329.82402 Y52.44626 I5.73362 J-8.67097
G3 X-346.05021 Y37.58935 I43.01649 J-63.27035
G3 X-360.56317 Y15.35411 I77.58227 J-66.49197
G3 X-367.07027 Y-12.3787 I59.10739 J-28.49849
G1 X-367.07029 Y-12.38039
G3 X-354.85986 Y-43.22967 I43.80171 J-0.50401
G3 X-323.04494 Y-56.91813 I31.15995 J28.60584
G3 X-299.7771 Y-51.81352 I-0.37224 J57.27881
G3 X-299.75104 Y-51.80167 I-4.29021 J9.46859
G3 X-281.1184 Y-39.92149 I-33.01099 J72.3254
G3 X-275.99266 Y-47.24224 I32.89385 J17.57635
G3 X-275.76586 Y-47.48717 I7.73973 J6.9395
G3 X-260.5771 Y-56.76128 I25.05537 J23.95985
G3 X-260.5688 Y-56.76374 I2.95853 J9.9653
G3 X-245.1205 Y-58.88527 I14.6823 J49.6062
G3 X-244.86512 Y-58.87835 I-0.15392 J10.39406
G3 X-234.35475 Y-56.86705 I-1.41261 J35.84931
G3 X-228.95171 Y-54.88816 I-28.7302 J86.80852
G3 X-225.94218 Y-56.75318 I25.29031 J37.44941
G3 X-225.85611 Y-56.80142 I5.12542 J9.0438
G3 X-218.87957 Y-58.86216 I8.12001 J14.65021
G3 X-218.28897 Y-58.88573 I0.70965 J10.37095
G3 X-206.41164 Y-54.91197 I0.21856 J19.08391
G3 X-200.87755 Y-58.37728 I11.73498 J12.58912
G3 X-200.75249 Y-58.42466 I3.74539 J9.69702
G3 X-193.88359 Y-59.6492 I6.81245 J18.3362
G3 X-180.34468 Y-54.37138 I0.37637 J19.03877
G3 X-174.6402 Y-40.7402 I-12.56018 J13.26549
G1 X-174.69811 Y-11.61435
G2 X-172.97672 Y-9.4272 I13.25033 J-8.65761
G3 X-172.78019 Y-9.85961 I19.02533 J8.38574
G3 X-172.60008 Y-10.22534 I9.41393 J4.40886
G3 X-162.42409 Y-18.51315 I14.61986 J7.55959
G3 X-156.46909 Y-19.34169 I5.91586 J20.70464
G3 X-152.14286 Y-18.96047 I0.48393 J19.24654
G3 X-148.74187 Y-34.9166 I40.48189 J0.28805
G3 X-148.65464 Y-35.1103 I9.52163 J4.17118
G3 X-137.24254 Y-49.05527 I32.7291 J15.14229
G3 X-121.8776 Y-56.39283 I26.63495 J36.01795
G3 X-121.86132 Y-56.39704 I2.61526 J10.06085
G3 X-106.2372 Y-58.31533 I15.11824 J58.54846
G3 X-83.41524 Y-53.70948 I0.21986 J57.7549
G3 X-75.54607 Y-49.25526 I-13.35251 J32.76782
G3 X-71.72801 Y-54.55912 I16.72813 J8.01582
G3 X-71.70184 Y-54.5844 I7.23484 J7.4644
G3 X-58.20892 Y-59.90465 I13.20505 J13.71978
G3 X-44.74886 Y-54.61583 I0.28763 J19.04031
G3 X-38.98778 Y-40.98308 I-12.7601 J13.42598
G2 X-38.68651 Y-36.74374 I52.01107 J-1.56576
G3 X-38.16953 Y-30.25094 I-63.23514 J8.302
G3 X-38.16536 Y-29.9702 I-10.39102 J0.29488
G2 X-37.9221 Y-25.48835 I42.47425 J-0.05779
G3 X-37.41686 Y-20.24525 I-75.03916 J9.87692
G2 X-37.27297 Y-19.76441 I52.80338 J-15.53934
G3 X-36.32411 Y-30.10688 I107.98615 J4.69232
G1 X-34.57894 Y-43.00865
G3 X-31.45346 Y-51.98627 I20.28018 J2.02752
G3 X-31.22837 Y-52.32255 I8.74952 J5.61302
G3 X-21.38206 Y-59.16493 I14.1757 J9.89339
G3 X-15.62922 Y-59.90279 I5.68687 J21.54302
G3 X-10.4 Y-59.27301 I0.32737 J19.30619
G1 Y-104.6
G1 X-358.0
G2 X-397.6 Y-65.0 I0.0 J39.6
G1 Y65.0
G2 X-358.0 Y104.6 I39.6 J0.0
G1 X-10.4
G1 Y27.14594
G3 X-13.77663 Y29.54129 I-17.15765 J-20.60881
G3 X-14.15879 Y29.75937 I-5.34216 J-8.91748
G3 X-29.1822 Y33.37769 I-14.28367 J-26.30831
G3 X-44.26186 Y29.66848 I0.27674 J-33.63253
G3 X-49.90145 Y33.31553 I-12.22674 J-12.72282
G3 X-50.11486 Y33.39869 I-3.88058 J-9.64372
G3 X-57.48523 Y34.71266 I-7.2132 J-19.13248
G3 X-70.90065 Y29.55076 I-0.23866 J-19.39357
G3 X-76.23509 Y20.6322 I12.27588 J-13.39716
G3 X-85.2439 Y27.20312 I-20.78498 J-19.0354
G3 X-96.89704 Y30.83463 I-18.85988 J-40.00675
G3 X-107.92794 Y31.7286 I-10.73882 J-64.00531
G3 X-126.55029 Y27.73147 I-0.55722 J-42.78263
G3 X-126.74836 Y27.63666 I4.38904 J-9.42319
G3 X-139.17462 Y18.2402 I18.15988 J-36.9301
G3 X-149.35952 Y29.86167 I-20.23963 J-7.46406
G3 X-149.82562 Y30.09251 I-4.84519 J-9.19697
G3 X-150.95546 Y30.58212 I-10.0077 J-21.54575
G1 F300.0 X-151.85235 Y28.356
G3 F800.0 X-160.2206 Y29.89979 I-7.98097 J-19.80924
G3 X-182.28061 Y24.68579 I-0.1247 J-48.7464
G3 X-182.7139 Y25.06809 I-5.50291 J-5.80011
G3 X-193.4553 Y28.76263 I-10.34551 J-12.61635
G3 X-205.36494 Y23.85931 I-0.46419 J-15.78783
G3 X-205.60521 Y23.59508 I5.79365 J-5.5097
G3 X-209.05457 Y17.19202 I12.49332 J-10.86082
G3 X-212.62867 Y20.7727 I-15.08547 J-11.48366
G3 X-212.69141 Y20.82015 I-4.85444 J-6.35276
G3 X-220.46421 Y25.21189 I-20.89978 J-27.91557
G3 X-228.26205 Y27.95794 I-22.73949 J-52.12784
G3 X-237.41581 Y29.26391 I-9.64962 J-34.90254
G3 X-270.09768 Y16.13104 I-0.6812 J-45.53654
G3 X-283.68735 Y-11.45437 I29.18592 J-31.51825
G3 X-293.37666 Y-8.50464 I-9.45251 J-13.66105
G3 X-293.93535 Y-8.53217 I0.11397 J-7.99439
G3 X-300.95881 Y-10.64068 I1.49795 J-17.74153
G3 X-305.23777 Y-13.18094 I19.0831 J-37.01873
G3 X-305.32765 Y-13.24273 I4.48484 J-6.61887
G2 X-314.31779 Y-19.04734 I-85.42894 J122.44764
G2 X-323.24948 Y-21.32647 I-9.28428 J17.74344
G2 X-328.28271 Y-19.06984 I-0.02085 J6.69493
G3 X-328.48469 Y-18.85014 I-5.98584 J-5.30027
G2 X-330.9084 Y-12.64147 I6.34293 J6.05353
G3 X-330.90723 Y-12.53819 I-7.99395 J0.14147
G2 X-329.94939 Y-5.59386 I26.57222 J-0.12693
G2 X-327.24966 Y1.41878 I37.05906 J-10.24104
G2 X-318.18691 Y14.83927 I61.06569 J-31.46692
G3 X-318.09044 Y14.95316 I-6.05235 J5.22421
G2 X-312.94224 Y20.36488 I42.883 J-35.6403
G3 X-312.8786 Y20.42402 I-5.41064 J5.88628
G2 X-307.78947 Y23.97534 I14.71128 J-15.65951
G2 X-305.65209 Y24.50995 I2.31239 J-4.70506
G2 X-305.11777 Y24.5071 I0.0549 J-39.79342
G3 X-300.00593 Y18.07251 I17.24134 J8.44926
G3 X-299.76733 Y17.88548 I5.05083 J6.19777
G3 X-289.87698 Y14.60532 I9.80253 J13.00585
G3 X-276.26386 Y21.40999 I0.5063 J16.00635
G3 X-272.95286 Y31.77957 I-14.46024 J10.33054
G3 X-274.1519 Y45.62909 I-71.88154 J0.75342
G3 X-278.52486 Y54.8429 I-18.37604 J-3.0768
G3 X-278.91607 Y55.2578 I-6.00893 J-5.27408
G3 X-290.13838 Y59.67124 I-10.76715 J-10.90374
G3 X-298.80533 Y57.36354 I-0.04112 J-17.27455
G3 X-300.13147 Y57.48763 I-4.2428 J-38.19562
G3 X-305.79352 Y57.70219 I-5.39165 J-67.4647
G3 X-317.87766 Y55.68886 I0.09593 J-37.84732
G3 X-317.89889 Y55.68161 I2.57302 J-7.56986
G3 X-328.38924 Y50.51879 I14.98909 J-43.69548
G3 X-328.47463 Y50.46153 I4.40987 J-6.66906
G3 X-344.20957 Y36.04893 I41.6671 J-61.28562
G3 X-358.40066 Y14.31318 I75.74164 J-64.95155
G3 X-364.67044 Y-12.40671 I56.94488 J-27.45756
G1 X-364.67045 Y-12.40801
G3 X-353.11021 Y-41.58665 I41.40187 J-0.4764
G3 X-323.07136 Y-54.51825 I29.4103 J26.96282
G3 X-300.76761 Y-49.62745 I-0.34582 J54.87893
G3 X-300.74756 Y-49.61834 I-3.29971 J7.28252
G3 X-282.54868 Y-37.98657 I-32.01447 J70.14207
G3 X-280.37182 Y-35.91827 I-10.14425 J12.85642
G3 X-274.20575 Y-45.64007 I32.14726 J13.57313
G3 X-274.03131 Y-45.82846 I5.95282 J5.33734
G3 X-259.89405 Y-54.46053 I23.32082 J22.30114
G3 X-259.88766 Y-54.46242 I2.27548 J7.66456
G3 X-245.15603 Y-56.48553 I14.00117 J47.30488
G3 X-244.95961 Y-56.48021 I-0.11838 J7.99432
G3 X-235.13089 Y-54.59589 I-1.31812 J33.45117
G3 X-228.65312 Y-52.17092 I-27.95406 J84.53736
G3 X-224.75885 Y-54.66519 I24.99173 J34.73217
G3 X-224.69265 Y-54.70229 I3.94208 J6.9558
G3 X-218.71573 Y-56.46776 I6.95655 J12.55108
G3 X-218.26148 Y-56.48589 I0.54581 J7.97655
G3 X-207.12067 Y-52.39142 I0.19108 J16.68407
G3 X-206.22422 Y-51.59938 I-9.33482 J11.46878
G3 X-205.9838 Y-51.88813 I12.78881 J10.40331
G3 X-200.01283 Y-56.13847 I11.30714 J9.56528
G3 X-199.91665 Y-56.17491 I2.88067 J7.45821
G3 X-193.86331 Y-57.24911 I5.9766 J16.08646
G3 X-181.9992 Y-52.63281 I0.35608 J16.63868
G3 X-177.04015 Y-40.76737 I-10.90566 J11.52693
G1 X-177.09947 Y-10.92936
G2 X-172.16913 Y-5.53044 I15.6517 J-9.34261
G2 X-171.84014 Y-5.312 I11.51723 J-16.98889
G3 X-170.60675 Y-8.84171 I17.88875 J4.27055
G3 X-170.46822 Y-9.12301 I7.24048 J3.39096
G3 X-161.77046 Y-16.20386 I12.488 J6.45725
G3 X-156.44098 Y-16.94161 I5.26223 J18.39535
G3 X-149.70754 Y-15.73492 I0.45582 J16.84646
G3 X-149.73983 Y-18.11688 I58.13095 J-1.97937
G3 X-146.54355 Y-33.95358 I38.07886 J-0.55554
G3 X-146.47647 Y-34.10256 I7.32332 J3.20816
G3 X-135.81972 Y-47.1225 I30.55092 J14.13455
G3 X-121.2738 Y-54.07002 I25.21212 J34.08518
G3 X-121.26128 Y-54.07326 I2.01146 J7.73804
G3 X-106.24266 Y-55.91529 I14.51819 J56.22468
G3 X-84.33762 Y-51.49373 I0.22532 J55.35486
G3 X-75.14205 Y-45.84681 I-12.43013 J30.55207
G3 X-74.46429 Y-45.23918 I-11.68056 J13.71068
G3 X-70.05766 Y-52.83577 I15.64634 J3.99974
G3 X-70.03753 Y-52.85521 I5.56449 J5.74105
G3 X-58.20893 Y-57.50434 I11.54075 J11.9906
G3 X-46.40564 Y-52.87942 I0.28764 J16.64
G3 X-41.38822 Y-40.96263 I-11.10333 J11.68956
G2 X-41.06896 Y-36.45317 I54.41152 J-1.58621
G3 X-40.56856 Y-30.18286 I-60.85269 J8.01143
G3 X-40.56535 Y-29.96693 I-7.99198 J0.2268
G2 X-40.30523 Y-25.20284 I44.87425 J-0.06105
G3 X-39.79655 Y-19.83279 I-72.65604 J9.59141
G2 X-37.14102 Y-12.53617 I55.18308 J-15.9518
G3 X-37.13593 Y-12.52464 I-7.31112 J3.23586
G2 X-34.67087 Y-7.86497 I33.76645 J-14.88125
G2 X-34.76372 Y-9.33851 I-104.70825 J5.85819
G3 X-34.77226 Y-9.4777 I7.97564 J-0.55895
G3 X-34.97283 Y-15.42804 I157.87672 J-8.30024
G3 X-34.97362 Y-15.58573 I7.99432 J-0.11884
G3 X-33.94659 Y-29.77908 I105.6868 J0.51364
G1 X-32.19483 Y-42.72963
G3 X-29.43341 Y-50.69035 I17.89606 J1.7485
G3 X-29.26028 Y-50.949 I6.72947 J4.31711
G3 X-20.77529 Y-56.84289 I12.20761 J8.51984
G3 X-15.61231 Y-57.50272 I5.0801 J19.22098
G3 X-8.0 Y-55.84771 I0.31046 J16.90612
G1 Y-107.0
G1 X-358.0
G2 X-400.0 Y-65.0 I0.0 J42.0
G1 Y65.0
G2 X-358.0 Y107.0 I42.0 J0.0
G1 X-8.0
G1 Y21.15385
G3 X-15.01001 Y27.48246 I-19.55765 J-14.61672
G3 X-15.30394 Y27.65019 I-4.10879 J-6.85865
G3 X-29.14262 Y30.97793 I-13.13852 J-24.19913
G3 X-43.45986 Y27.38049 I0.23716 J-31.23277
G3 X-43.49241 Y27.36325 I3.72564 J-7.0741
G3 X-44.74612 Y26.66879 I20.41229 J-38.32872
G3 X-50.79738 Y31.08903 I-11.74247 J-9.72313
G3 X-50.96152 Y31.15299 I-2.98465 J-7.41722
G3 X-57.49082 Y32.31253 I-6.36654 J-16.88678
G3 X-69.27469 Y27.78546 I-0.23307 J-16.99344
G3 X-74.39139 Y15.7863 I10.64991 J-11.63186
G3 X-74.34811 Y13.64604 I145.23661 J1.86634
G3 X-75.8939 Y16.37186 I-20.97932 J-10.09602
G3 X-76.07185 Y16.63038 I-6.67355 J-4.40307
G3 X-86.25693 Y25.02736 I-20.94822 J-15.03359
G3 X-97.29111 Y28.4672 I-17.84686 J-37.83099
G3 X-107.93828 Y29.32853 I-10.34475 J-61.63788
G3 X-125.53697 Y25.55589 I-0.54689 J-40.38256
G3 X-125.68931 Y25.48297 I3.37572 J-7.2476
G3 X-139.69772 Y13.81612 I17.10083 J-34.7764
G3 X-140.23185 Y13.09716 I38.0843 J-28.85121
G3 X-140.97142 Y16.01357 I-35.59794 J-7.47528
G3 X-150.47816 Y27.73831 I-18.44283 J-5.23743
G3 X-150.83665 Y27.91586 I-3.72656 J-7.07361
G3 X-151.85235 Y28.356 I-8.99667 J-19.36909
G1 F300.0 X-152.74923 Y26.12989
G3 F800.0 X-160.20148 Y27.49973 I-7.08409 J-17.58312
G3 X-182.78868 Y21.70334 I-0.14382 J-46.34634
G3 X-183.8643 Y22.87893 I-11.4669 J-9.41198
G3 X-184.2357 Y23.21225 I-3.91922 J-3.99324
G3 X-193.46155 Y26.36162 I-8.82371 J-10.76051
G3 X-203.6258 Y22.20541 I-0.45794 J-13.38682
G3 X-203.79395 Y22.0205 I4.05451 J-3.8558
G3 X-207.26184 Y12.38871 I10.68205 J-9.28624
G2 X-207.38461 Y6.74253 I-207.35519 J1.68414
G3 X-207.51497 Y0.74498 I210.33906 J-7.5719
G3 X-207.51512 Y0.70313 I5.59504 J-0.04185
G1 Y-31.32013
G2 X-209.76898 Y-26.2543 I225.73989 J103.46907
G2 X-210.90031 Y-19.20549 I32.8114 J8.88139
G3 X-210.90573 Y-19.11788 I-5.58706 J-0.30165
G2 X-211.17828 Y-10.80877 I112.59826 J7.85249
G3 X-211.1783 Y-10.75899 I-5.59515 J0.02264
G2 X-210.8797 Y-2.35959 I104.08244 J0.50483
G2 X-210.23276 Y2.02614 I38.46345 J-3.43321
G3 X-208.38558 Y8.44393 I-9.72461 J6.27368
G3 X-210.37255 Y14.90935 I-11.86072 J-0.10704
G3 X-210.3812 Y14.9223 I-4.65767 J-3.10038
G3 X-214.08588 Y18.86573 I-13.75884 J-9.21394
G3 X-214.12979 Y18.89894 I-3.39724 J-4.44579
G3 X-221.39569 Y22.99981 I-19.46141 J-25.99435
G3 X-228.89713 Y25.64348 I-21.80802 J-49.91575
G3 X-237.45018 Y26.86416 I-9.01454 J-32.58809
G3 X-268.43874 Y14.39626 I-0.64683 J-43.13678
G3 X-281.46569 Y-15.79712 I27.52697 J-29.78347
G3 X-281.46755 Y-16.91676 I56.01503 J-0.65262
G3 X-282.74931 Y-15.41847 I-11.26237 J-8.33742
G3 X-293.34245 Y-10.90439 I-10.39055 J-9.69695
G3 X-293.73343 Y-10.92366 I0.07976 J-5.59463
G3 X-299.83396 Y-12.76095 I1.29603 J-15.35004
G3 X-303.89151 Y-15.16779 I17.95825 J-34.89845
G3 X-303.95441 Y-15.21104 I3.13858 J-4.63202
G2 X-313.14481 Y-21.14216 I-86.80218 J124.41594
G2 X-323.22378 Y-23.72638 I-10.45727 J19.83826
G2 X-330.07954 Y-20.66088 I-0.04655 J9.09485
G3 X-330.22089 Y-20.50713 I-4.18901 J-3.70924
G2 X-333.30802 Y-12.599 I8.07914 J7.71052
G3 X-333.30721 Y-12.52673 I-5.59432 J0.099
G2 X-332.26277 Y-4.95489 I28.9722 J-0.13839
G2 X-329.38877 Y2.50706 I39.37244 J-10.88001
G2 X-320.00371 Y16.40747 I63.2048 J-32.55519
G3 X-319.9362 Y16.48718 I-4.23555 J3.656
G2 X-314.56641 Y22.13182 I44.72875 J-37.17431
G3 X-314.52187 Y22.17321 I-3.78647 J4.11933
G2 X-308.85673 Y26.125 I16.35455 J-17.4087
G2 X-305.69076 Y26.90988 I3.37965 J-6.85472
G2 X-303.55993 Y26.86077 I0.09357 J-42.19335
G2 X-303.35931 Y26.43465 I-7.43839 J-3.76234
G3 X-298.48977 Y19.93295 I15.48288 J6.52171
G3 X-298.3228 Y19.80207 I3.53467 J4.33732
G3 X-289.84547 Y17.0056 I8.35799 J11.08926
G3 X-278.22248 Y22.79705 I0.47479 J13.60607
G3 X-275.3529 Y31.78909 I-12.50163 J8.94348
G3 X-276.51562 Y45.21281 I-69.48151 J0.7439
G3 X-280.32862 Y53.25973 I-16.01232 J-2.66052
G3 X-280.6024 Y53.55008 I-4.20517 J-3.69091
G3 X-290.10539 Y57.2711 I-9.08082 J-9.19602
G3 X-298.26787 Y54.87996 I-0.07412 J-14.87442
G3 X-300.31811 Y55.09489 I-4.78027 J-35.71203
G3 X-305.7857 Y55.3022 I-5.20501 J-65.07196
G3 X-317.1053 Y53.41654 I0.0881 J-35.44733
G3 X-317.12015 Y53.41146 I1.80065 J-5.29754
G3 X-327.06549 Y48.51687 I14.21035 J-41.42533
G3 X-327.12525 Y48.4768 I3.08611 J-4.66714
G3 X-342.36885 Y34.50861 I40.31772 J-59.30089
G3 X-356.23815 Y13.27224 I73.90092 J-63.41123
G3 X-362.2706 Y-12.43471 I54.78237 J-26.41662
G1 X-362.27061 Y-12.43562
G3 X-351.36053 Y-39.94364 I39.00203 J-0.44879
G3 X-323.09788 Y-52.11837 I27.66062 J25.31981
G3 X-301.75811 Y-47.44138 I-0.31931 J52.47905
G3 X-301.74408 Y-47.435 I-2.3092 J5.09646
G3 X-284.07297 Y-36.13206 I-31.01794 J67.95873
G3 X-279.72197 Y-30.3359 I-8.61995 J11.00191
G3 X-272.41883 Y-44.03791 I31.49741 J7.99077
G3 X-272.29675 Y-44.16974 I4.1659 J3.73518
G3 X-259.21099 Y-52.15978 I21.58627 J20.64243
G3 X-259.20652 Y-52.16111 I1.59243 J5.36381
G3 X-245.19157 Y-54.0858 I13.32003 J45.00357
G3 X-245.05411 Y-54.08207 I-0.08285 J5.59459
G3 X-235.90754 Y-52.3249 I-1.22362 J31.05303
G3 X-228.32812 Y-49.42054 I-27.17741 J82.26636
G3 X-223.57551 Y-52.57719 I24.66672 J31.98179
G3 X-223.52918 Y-52.60316 I2.75875 J4.86781
G3 X-218.55189 Y-54.07336 I5.79309 J10.45195
G3 X-218.234 Y-54.08604 I0.38197 J5.58215
G3 X-208.66598 Y-50.55461 I0.16359 J14.28423
G3 X-205.99924 Y-47.56479 I-7.78951 J9.63198
G3 X-204.15423 Y-50.33485 I12.56383 J6.36872
G3 X-199.14811 Y-53.89966 I9.47757 J8.012
G3 X-199.0808 Y-53.92517 I2.01595 J5.21941
G3 X-193.84296 Y-54.84896 I5.14075 J13.83671
G3 X-183.6537 Y-50.89422 I0.33573 J14.23853
G3 X-179.4401 Y-40.79631 I-9.25116 J9.78834
G1 X-179.50074 Y-10.29175
G2 X-173.54856 Y-3.56612 I18.05297 J-9.98021
G2 X-169.93448 Y-1.5579 I12.89666 J-18.95321
G3 X-168.4333 Y-7.82381 I15.9831 J0.51644
G3 X-168.33635 Y-8.02067 I5.06703 J2.37306
G3 X-161.11698 Y-13.89453 I10.35613 J5.35491
G3 X-156.41255 Y-14.54145 I4.60875 J16.08602
G3 X-147.9499 Y-12.10818 I0.4274 J14.4463
G3 X-147.63367 Y-11.88033 I-3.11078 J4.65074
G3 X-146.97537 Y-11.33697 I-8.47891 J10.94286
G3 X-147.33971 Y-18.12623 I55.39878 J-6.37733
G3 X-144.34524 Y-32.99055 I35.67873 J-0.54619
G3 X-144.29829 Y-33.09481 I5.125 J2.24513
G3 X-134.39692 Y-45.18971 I28.37275 J13.1268
G3 X-120.67 Y-51.74721 I23.78933 J32.15239
G3 X-120.66124 Y-51.74948 I1.40766 J5.41523
G3 X-106.24811 Y-53.51524 I13.91815 J53.9009
G3 X-85.25974 Y-49.27786 I0.23077 J52.95481
G3 X-76.70692 Y-44.0271 I-11.508 J28.3362
G3 X-72.67529 Y-38.73732 I-10.11569 J11.89097
G2 X-72.5656 Y-41.01466 I-56.58402 J-3.86673
G3 X-68.38731 Y-51.11243 I13.74765 J-0.22478
G3 X-68.37322 Y-51.12603 I3.89414 J4.0177
G3 X-58.20895 Y-55.10392 I9.87644 J10.26142
G3 X-48.0624 Y-51.14299 I0.28766 J14.23958
G3 X-43.78877 Y-40.94722 I-9.44656 J9.95314
G2 X-43.4513 Y-36.16167 I56.81206 J-1.60162
G3 X-42.9676 Y-30.11478 I-58.47035 J7.71993
G3 X-42.96535 Y-29.96367 I-5.59295 J0.15872
G2 X-42.68821 Y-24.91612 I47.27425 J-0.06432
G3 X-42.17782 Y-19.43032 I-70.27306 J9.30469
G2 X-39.33567 Y-11.56483 I57.56434 J-16.35427
G3 X-39.33211 Y-11.55676 I-5.11646 J2.26452
G2 X-35.03818 Y-4.13361 I35.96263 J-15.84913
G3 X-35.01061 Y-4.09576 I-4.5087 J3.31329
G2 X-31.93377 Y-0.78698 I14.84271 J-10.71728
G2 X-31.98615 Y-1.59979 I-41.04197 J2.23665
G3 X-32.12579 Y-4.04768 I57.75106 J-4.52231
G3 X-32.12828 Y-4.13694 I5.59161 J-0.20037
G2 X-32.3696 Y-9.50629 I-107.25085 J2.13016
G3 X-32.37557 Y-9.6037 I5.58151 J-0.39117
G3 X-32.5731 Y-15.46371 I155.48003 J-8.17423
G3 X-32.57365 Y-15.57407 I5.59458 J-0.08317
G3 X-31.56909 Y-29.4512 I103.28683 J0.50198
G1 X-29.81031 Y-42.45357
G3 X-27.41335 Y-49.39444 I15.51155 J1.47244
G3 X-27.2922 Y-49.57545 I4.70942 J3.0212
G3 X-20.16865 Y-54.52081 I10.23953 J7.14629
G3 X-15.59511 Y-55.1026 I4.47346 J16.8989
G3 X-5.6 Y-51.38476 I0.29327 J14.50601
G1 Y-109.4
G1 X-358.0
G2 X-402.4 Y-65.0 I0.0 J44.4
G1 Y65.0
G2 X-358.0 Y109.4 I44.4 J0.0
G1 X-5.6
G1 Y10.19059
G3 X-7.27233 Y15.09346 I-39.31236 J-10.67252
G3 X-7.29209 Y15.14059 I-5.17005 J-2.13936
G3 X-16.24338 Y25.42363 I-20.26557 J-8.60346
G3 X-16.44908 Y25.54101 I-2.87541 J-4.79982
G3 X-29.10294 Y28.57816 I-11.99338 J-22.08995
G3 X-42.3415 Y25.25699 I0.19748 J-28.833
G3 X-42.36428 Y25.24493 I2.60728 J-4.95059
G3 X-45.41129 Y23.4495 I19.28415 J-36.21039
G3 X-51.69331 Y28.86253 I-11.0773 J-6.50384
G3 X-51.80818 Y28.90729 I-2.08872 J-5.19072
G3 X-57.49652 Y29.91236 I-5.51989 J-14.64108
G3 X-67.64876 Y26.02013 I-0.22737 J-14.59327
G3 X-71.99175 Y15.83013 I9.02398 J-9.86653
G3 X-71.79403 Y9.9218 I142.83697 J1.82251
G3 X-71.78771 Y9.82175 I5.587 J0.30281
G2 X-71.54902 Y4.44574 I-96.91655 J-6.99628
G2 X-72.41549 Y-12.32727 I-232.7011 J3.61211
G1 Y-12.32729
G1 Y-12.32725
G1 Y-12.32727
G3 X-73.20209 Y-25.11272 I242.92952 J-21.36264
G3 X-79.46039 Y-20.77752 I-8.75931 J-5.9601
G3 X-83.48224 Y-20.29883 I-3.82022 J-14.962
G3 X-83.67512 Y-20.30468 I0.07306 J-5.59472
G3 X-90.05129 Y-21.81879 I0.844 J-17.73679
G3 X-94.69846 Y-24.18698 I14.91515 J-35.01219
G2 X-100.01452 Y-26.25317 I-9.24535 J15.91529
G2 X-106.22123 Y-26.90006 I-6.00764 J27.54238
G3 X-106.35509 Y-26.90071 I-0.03951 J-5.59506
G2 X-111.0233 Y-26.48318 I-0.37324 J22.13229
G1 X-99.87433 Y-21.55382
G3 X-92.45687 Y-18.12359 I-93.22776 J211.32893
G3 X-84.82824 Y-13.90664 I-28.04828 J59.74923
G3 X-84.76247 Y-13.86374 I-3.0243 J4.70743
G3 X-77.87956 Y-7.30884 I-14.99772 J22.63932
G3 X-77.85918 Y-7.28093 I-4.5082 J3.31397
G3 X-74.45007 Y3.0997 I-14.47596 J10.50418
G3 X-77.89717 Y15.05015 I-20.87736 J0.45032
G3 X-78.0217 Y15.23107 I-4.67028 J-3.08136
G3 X-87.26975 Y22.85151 I-18.99837 J-13.63427
G3 X-97.68516 Y26.09977 I-16.83403 J-35.65514
G3 X-107.94884 Y26.92845 I-9.9507 J-59.27045
G3 X-124.52365 Y23.3803 I-0.53632 J-37.98248
G3 X-124.63026 Y23.32927 I2.36239 J-5.07202
G3 X-137.77784 Y12.37591 I16.04178 J-32.6227
G3 X-141.85687 Y5.93377 I36.16443 J-27.411
G3 X-143.27594 Y15.34315 I-33.97292 J-0.31189
G3 X-151.5968 Y25.61495 I-16.13831 J-4.567
G3 X-151.84768 Y25.7392 I-2.60792 J-4.95026
G3 X-152.74923 Y26.12989 I-7.98564 J-17.19244
G0 Z3.0
G0 Y111.8
G0 Z1.0
G1 F300.0 Z-2.5
G1 F800.0 X-3.2
G1 Y-111.8
G1 X-358.0
G2 X-404.8 Y-65.0 I0.0 J46.8
G1 Y65.0
G2 X-358.0 Y111.8 I46.8 J0.0
G1 X-152.74923
G0 Z3.0
G0 X-136.60532 Y66.2
G0 Z-1.5
G1 F300.0 Z-5.0
G1 F800.0 X-133.44561
G3 X-135.19654 Y65.61221 I24.96045 J-77.25403
G3 X-136.60532 Y66.2 I-24.63678 J-57.06544
G0 Z3.0
G0 X-213.15572
G0 Z-1.5
G1 F300.0 Z-5.0
G3 F800.0 X-213.41969 Y66.10386 I19.23623 J-53.2252
G3 X-213.72164 Y66.2 I-29.78402 J-93.0198
G1 X-213.15572
G1 F300.0 X-212.33997 Y63.94289
G3 F800.0 X-213.36239 Y63.56169 I18.42048 J-50.96808
G3 X-218.10507 Y64.99034 I-29.84131 J-90.47764
G3 X-236.86503 Y67.65997 I-19.8066 J-71.93494
G3 X-241.29476 Y67.60808 I-1.23198 J-83.93259
G3 X-241.79188 Y68.6 I-51.23318 J-25.05579
G1 X-72.88157
G3 X-83.01401 Y64.60418 I15.15768 J-53.28091
G3 X-90.98394 Y66.34571 I-21.08977 J-77.40781
G3 X-107.78786 Y67.72915 I-16.65192 J-99.51639
G3 X-135.29223 Y63.03144 I-0.6973 J-78.78318
G3 X-160.47537 Y68.29986 I-24.54109 J-54.48467
G3 X-180.98925 Y65.8195 I0.13007 J-87.14646
G3 X-193.36277 Y67.16659 I-12.07015 J-53.36776
G3 X-212.33997 Y63.94289 I-0.55672 J-54.19179
G1 F300.0 X-211.52422 Y61.68578
G3 F800.0 X-213.29613 Y61.00845 I17.60473 J-48.71097
G3 X-218.73976 Y62.67578 I-29.90758 J-87.92439
G3 X-236.89948 Y65.26021 I-19.17191 J-69.62039
G3 X-242.78169 Y65.13433 I-1.19754 J-81.53284
G3 X-245.88712 Y71.0 I-49.74626 J-22.58204
G1 X-44.0
G1 Y66.64413
G3 X-57.41042 Y68.3132 I-13.32806 J-52.37792
G3 X-82.74238 Y62.03685 I-0.31347 J-52.99411
G3 X-91.37821 Y63.97831 I-21.3614 J-74.84048
G3 X-107.7967 Y65.32913 I-16.25765 J-97.14899
G3 X-135.39393 Y60.43569 I-0.68847 J-76.38316
G3 X-135.67127 Y60.56568 I-18.81079 J-39.77099
G3 X-160.46065 Y65.89988 I-24.16206 J-52.01892
G3 X-180.97106 Y63.35168 I0.11534 J-84.74648
G3 X-193.36844 Y64.76652 I-12.08835 J-50.89994
G3 X-211.52422 Y61.68578 I-0.55105 J-51.79172
G1 F300.0 X-210.70848 Y59.42866
G3 F800.0 X-213.21976 Y58.44271 I16.78899 J-46.45386
G3 X-219.37446 Y60.36123 I-29.98395 J-85.35866
G3 X-236.93392 Y62.86046 I-18.53721 J-67.30583
G3 X-244.30707 Y62.62499 I-1.16309 J-79.13308
G3 X-250.3784 Y73.4 I-48.22087 J-20.0727
G1 X-41.6
G1 Y63.46018
G3 X-57.41569 Y65.91319 I-15.72806 J-49.19396
G3 X-82.46148 Y59.45422 I-0.3082 J-50.5941
G3 X-91.77248 Y61.61092 I-21.6423 J-72.25785
G3 X-107.80558 Y62.92911 I-15.86338 J-94.7816
G3 X-135.50767 Y57.82087 I-0.67959 J-73.98314
G3 X-136.68229 Y58.38903 I-18.69705 J-37.15617
G3 X-160.44585 Y63.49989 I-23.15103 J-49.84226
G3 X-180.95814 Y60.87834 I0.10055 J-82.3465
G3 X-193.37413 Y62.36644 I-12.10127 J-48.4266
G3 X-210.70848 Y59.42866 I-0.54536 J-49.39164
G1 F300.0 X-209.89273 Y57.17155
G3 F800.0 X-213.1319 Y55.8628 I15.97324 J-44.19675
G3 X-220.00917 Y58.04668 I-30.0718 J-82.77874
G3 X-236.96836 Y60.46071 I-17.9025 J-64.99128
G3 X-245.87798 Y60.07353 I-1.12865 J-76.73333
G3 X-255.07595 Y75.42417 I-46.64997 J-17.52124
G3 X-255.41011 Y75.8 I-29.45784 J-25.85535
G1 X-39.2
G1 Y61.32426
G3 X-41.49072 Y60.89722 I10.29454 J-61.5791
G3 X-57.42097 Y63.51318 I-15.83734 J-46.63101
G3 X-82.16994 Y56.85405 I-0.30292 J-48.19408
G3 X-92.16674 Y59.24352 I-21.93384 J-69.65768
G3 X-107.81451 Y60.52909 I-15.46912 J-92.4142
G3 X-135.63697 Y55.18321 I-0.67066 J-71.58312
G3 X-135.93586 Y55.34196 I-23.77728 J-44.40707
G3 X-137.69332 Y56.21237 I-18.26885 J-34.67727
G3 X-160.43097 Y61.09991 I-22.14 J-47.66561
G3 X-180.95116 Y58.39879 I0.08566 J-79.94652
G3 X-193.37981 Y59.96635 I-12.10824 J-45.94705
G3 X-209.89273 Y57.17155 I-0.53968 J-46.99155
G1 F300.0 X-209.07698 Y54.91444
G3 F800.0 X-213.03094 Y53.26668 I15.15749 J-41.93964
G3 X-220.64389 Y55.73213 I-30.17277 J-80.18262
G3 X-237.0028 Y58.06096 I-17.26778 J-62.67673
G3 X-247.50354 Y57.4715 I-1.09421 J-74.33358
G3 X-256.87971 Y73.841 I-45.02441 J-14.91921
G3 X-258.68016 Y75.75043 I-27.65408 J-24.27218
G3 X-261.37467 Y78.2 I-31.00306 J-31.39637
G1 X-36.8
G1 Y59.2575
G3 X-41.64744 Y58.41103 I7.89454 J-59.51234
G3 X-57.42625 Y61.11316 I-15.68062 J-44.14481
G3 X-81.86611 Y54.2336 I-0.29764 J-45.79407
G3 X-92.56099 Y56.87613 I-22.23768 J-67.03723
G3 X-107.82349 Y58.12907 I-15.07487 J-90.04681
G3 X-135.77825 Y52.52133 I-0.66168 J-69.1831
G3 X-137.0545 Y53.2186 I-23.63599 J-41.74518
G3 X-138.70434 Y54.03572 I-17.15021 J-32.55391
G3 X-160.41598 Y58.69992 I-21.12898 J-45.48895
G3 X-180.95093 Y55.91219 I0.07068 J-77.54653
G3 X-193.3855 Y57.56625 I-12.10848 J-43.46045
G3 X-209.07698 Y54.91444 I-0.53399 J-44.59145
G1 F300.0 X-208.26123 Y52.65733
G3 F800.0 X-212.91487 Y50.6519 I14.34174 J-39.68252
G3 X-221.27862 Y53.41758 I-30.28884 J-77.56785
G3 X-237.03724 Y55.6612 I-16.63304 J-60.36218
G3 X-249.19584 Y54.80772 I-1.05978 J-71.93382
G3 X-258.68347 Y72.25782 I-43.33211 J-12.25543
G3 X-260.36649 Y74.04271 I-25.85032 J-22.68901
G3 X-269.01637 Y80.6 I-29.31674 J-29.68865
G1 X-34.4
G1 Y57.11632
G3 X-41.80875 Y55.91584 I5.49454 J-57.37116
G3 X-57.43154 Y58.71315 I-15.51931 J-41.64963
G3 X-81.54794 Y51.58952 I-0.29235 J-43.39405
G3 X-92.95524 Y54.50873 I-22.55584 J-64.39315
G3 X-107.83253 Y55.72904 I-14.68062 J-87.67941
G3 X-135.93127 Y49.83206 I-0.65264 J-66.78307
G3 X-138.17314 Y51.09524 I-23.48297 J-39.05591
G3 X-139.71537 Y51.85906 I-16.03158 J-30.43055
G3 X-160.40089 Y56.29993 I-20.11795 J-43.3123
G3 X-180.95841 Y53.41753 I0.05559 J-75.14654
G3 X-193.3912 Y55.16614 I-12.101 J-40.96579
G3 X-208.26123 Y52.65733 I-0.52829 J-42.19134
G1 F300.0 X-207.44549 Y50.40021
G3 F800.0 X-212.78126 Y48.01546 I13.526 J-37.42541
G3 X-221.91337 Y51.10304 I-30.42245 J-74.9314
G3 X-237.07167 Y53.26145 I-15.9983 J-58.04764
G3 X-250.9714 Y52.06689 I-1.02534 J-69.53407
G3 X-260.48723 Y70.67465 I-41.55655 J-9.5146
G3 X-262.05281 Y72.33499 I-24.04655 J-21.10583
G3 X-282.4125 Y83.0 I-27.63041 J-27.98093
G1 X-32.0
G1 Y54.89208
G3 X-41.97735 Y53.40971 I3.09454 J-55.14692
G3 X-42.49493 Y53.60999 I-11.80467 J-29.7379
G3 X-57.43683 Y56.31313 I-14.83314 J-39.34377
G3 X-81.2129 Y48.9176 I-0.28706 J-40.99403
G3 X-93.34948 Y52.14133 I-22.89088 J-61.72123
G3 X-107.84163 Y53.32902 I-14.28638 J-85.31201
G3 X-135.6702 Y47.31175 I-0.64353 J-64.38305
G3 X-136.09639 Y47.10941 I13.50895 J-29.00347
G3 X-139.29178 Y48.97189 I-23.31786 J-36.33326
G3 X-140.72639 Y49.68241 I-14.91294 J-28.30719
G3 X-160.38568 Y53.89994 I-19.10693 J-41.13564
G3 X-180.97474 Y50.91361 I0.04037 J-72.74655
G3 X-193.39691 Y52.76602 I-12.08467 J-38.46187
G3 X-207.44549 Y50.40021 I-0.52258 J-39.79122
G0 Z3.0
G0 X-304.19923 Y3.70628
G0 Z-1.5
G1 F300.0 Z-5.0
G3 F800.0 X-307.6937 Y2.08799 I11.76182 J-29.97998
G3 X-311.43386 Y-0.03917 I25.818 J-49.74739
G2 X-307.28615 Y5.43005 I45.24989 J-30.00896
G3 X-307.21512 Y5.51275 I-16.95311 J14.63342
G3 X-304.19923 Y3.70628 I17.25031 J25.37858
G1 F300.0 X-303.08594 Y5.83245
G3 F800.0 X-296.17628 Y3.29551 I13.12113 J25.05888
G3 X-306.57226 Y-0.03397 I3.73888 J-29.56921
G3 X-311.96907 Y-3.24667 I24.69656 J-47.62543
G3 X-312.19385 Y-3.40122 I11.21614 J-16.55313
G2 X-317.87479 Y-7.1587 I-78.56275 J112.60613
G2 X-316.55256 Y-4.01972 I24.98446 J-8.6762
G2 X-309.10294 Y6.99826 I50.36859 J-26.02842
G3 X-308.86168 Y7.28309 I-15.13632 J13.06522
G2 X-307.57594 Y8.76149 I33.65424 J-27.97022
G3 X-306.99001 Y8.30253 I12.62084 J15.50878
G3 X-303.08594 Y5.83245 I17.02521 J22.5888
G1 F300.0 X-301.97265 Y7.95862
G3 F800.0 X-290.0026 Y5.00511 I12.00785 J22.93271
G3 X-289.35352 Y4.99732 I0.63193 J25.60656
G3 X-290.84872 Y0.99673 I48.44176 J-20.38453
G3 X-293.5135 Y1.09439 I-2.29114 J-26.11215
G3 X-294.74302 Y1.03379 I0.25081 J-17.59341
G3 X-305.45051 Y-2.15578 I2.30562 J-27.30749
G3 X-310.62281 Y-5.23353 I23.57481 J-45.50362
G3 X-310.82061 Y-5.36953 I9.86988 J-14.56628
G2 X-318.97108 Y-10.6446 I-79.93598 J114.57443
G2 X-321.265 Y-11.46425 I-4.63099 J9.3407
G2 X-320.69586 Y-8.14968 I16.92999 J-1.20087
G2 X-318.69225 Y-2.93252 I27.80553 J-7.68522
G2 X-310.91974 Y8.56646 I52.50828 J-27.11561
G3 X-310.70744 Y8.81711 I-13.31952 J11.49702
G2 X-307.7184 Y12.08156 I35.49999 J-29.50424
G3 X-306.07057 Y10.63072 I19.84197 J20.8748
G3 X-305.54548 Y10.21912 I11.11547 J13.63955
G3 X-301.97265 Y7.95862 I15.58067 J20.67221
G1 F300.0 X-300.85936 Y10.08479
G3 F800.0 X-289.97123 Y7.40509 I10.89456 J20.80654
G3 X-285.41951 Y7.73604 I0.60056 J23.20658
G3 X-289.14703 Y-1.64009 I44.50775 J-23.12325
G3 X-293.47929 Y-1.30537 I-3.99283 J-23.47533
G3 X-294.5411 Y-1.3577 I0.2166 J-15.19366
G3 X-304.3284 Y-4.27741 I2.1037 J-24.916
G3 X-309.27655 Y-7.22038 I22.4527 J-43.382
G3 X-309.44737 Y-7.33783 I8.52362 J-12.57943
G2 X-317.81576 Y-12.75014 I-81.30922 J116.54273
G2 X-323.05318 Y-14.11782 I-5.78632 J11.44624
G3 X-323.27608 Y-13.87918 I-11.21537 J-10.25229
G2 X-323.70952 Y-12.76887 I1.13433 J1.08257
G3 X-323.70732 Y-12.57258 I-15.19282 J0.26887
G2 X-323.00925 Y-7.51074 I19.3723 J-0.09254
G2 X-320.83178 Y-1.84503 I30.11892 J-8.32416
G2 X-312.73653 Y10.13466 I54.64781 J-28.20311
G3 X-312.55319 Y10.35112 I-11.50273 J9.92881
G2 X-308.06975 Y15.06405 I37.34574 J-31.03825
G3 X-307.94879 Y15.17645 I-10.28313 J11.18711
G2 X-307.64274 Y15.45572 I9.78147 J-10.41195
G3 X-304.55441 Y12.49117 I19.76631 J17.50064
G3 X-304.10094 Y12.13571 I9.59931 J11.77911
G3 X-300.85936 Y10.08479 I14.13614 J18.75562
G1 F300.0 X-299.74608 Y12.21095
G3 F800.0 X-289.93984 Y9.8051 I9.78127 J18.68038
G3 X-280.02494 Y12.01343 I0.56917 J20.80657
G3 X-287.40663 Y-4.48476 I39.11318 J-27.40064
G3 X-293.44508 Y-3.70512 I-5.73324 J-20.63066
G3 X-294.33919 Y-3.74919 I0.18239 J-12.7939
G3 X-303.20583 Y-6.39881 I1.90178 J-22.52451
G3 X-307.93029 Y-9.20723 I21.33013 J-41.2606
G3 X-308.07413 Y-9.30613 I7.17736 J-10.59257
G2 X-316.65414 Y-14.85187 I-82.68246 J118.51103
G2 X-323.29079 Y-16.52639 I-6.94793 J13.54797
G2 X-324.68905 Y-15.88777 I0.02046 J1.89485
G3 X-325.01228 Y-15.53617 I-9.57951 J-8.48235
G2 X-326.10915 Y-12.7264 I2.87053 J2.73956
G3 X-326.10729 Y-12.56112 I-12.7932 J0.2264
G2 X-325.32263 Y-6.87178 I21.77228 J-0.104
G2 X-322.97117 Y-0.75729 I32.4323 J-8.96312
G2 X-314.55332 Y11.70286 I56.78721 J-29.29085
G3 X-314.39894 Y11.88513 I-9.68593 J8.36061
G2 X-309.69391 Y16.83099 I39.1915 J-32.57227
G3 X-309.59206 Y16.92564 I-8.65897 J9.42016
G2 X-307.23591 Y18.77088 I11.42474 J-12.16114
G3 X-303.03825 Y14.35162 I19.35948 J14.18548
G3 X-302.6564 Y14.0523 I8.08315 J9.91866
G3 X-299.74608 Y12.21095 I12.6916 J16.83903
G0 Z3.0
G0 X-353.94494 Y73.4
G0 Z-1.5
G1 F300.0 Z-5.0
G3 F800.0 X-366.4 Y61.74427 I67.13741 J-84.22409
G1 Y65.0
G2 X-358.0 Y73.4 I8.4 J0.0
G1 X-353.94494
G1 F300.0 X-352.44896 Y71.52329
G3 F800.0 X-368.13312 Y56.07909 I65.64143 J-82.34738
G3 X-368.8 Y55.29072 I99.66518 J-84.98171
G1 Y65.0
G2 X-358.0 Y75.8 I10.8 J0.0
G1 X-346.69204
G3 X-352.44896 Y71.52329 I59.88451 J-86.62409
G1 F300.0 X-350.95298 Y69.64658
G3 F800.0 X-366.29313 Y54.53803 I64.14545 J-80.47067
G3 X-371.2 Y48.41641 I97.82519 J-83.44065
G1 Y65.0
G2 X-358.0 Y78.2 I13.2 J0.0
G1 X-338.12282
G3 X-344.27429 Y74.5418 I35.21302 J-66.21387
G3 X-344.66727 Y74.2783 I20.29491 J-30.69207
G3 X-350.95298 Y69.64658 I57.85974 J-85.10239
G1 F300.0 X-349.457 Y67.76987
G3 F800.0 X-364.4531 Y52.997 I62.64947 J-78.59395
G3 X-373.6 Y40.86806 I95.98516 J-81.89962
G1 Y65.0
G2 X-358.0 Y80.6 I15.6 J0.0
G1 X-326.61961
G3 X-342.95054 Y72.53989 I23.70981 J-68.61387
G3 X-343.31788 Y72.29357 I18.97116 J-28.69015
G3 X-349.457 Y67.76987 I56.51035 J-83.11766
G1 F300.0 X-347.96102 Y65.89316
G3 F800.0 X-362.61303 Y51.45601 I61.15349 J-76.71724
G3 X-376.0 Y32.39717 I94.14509 J-80.35863
G1 Y65.0
G2 X-358.0 Y83.0 I18.0 J0.0
G1 X-297.59323
G3 X-302.89153 Y81.66496 I7.41373 J-40.60332
G3 X-305.8727 Y81.70207 I-2.63159 J-91.64203
G3 X-325.60135 Y78.41208 I0.17511 J-61.84719
G3 X-325.68629 Y78.38307 I10.2967 J-30.29308
G3 X-341.62678 Y70.53797 I22.77649 J-66.39694
G3 X-341.9685 Y70.30884 I17.6474 J-26.68824
G3 X-347.96102 Y65.89316 I55.16097 J-81.13293
G1 F300.0 X-346.46504 Y64.01644
G3 F800.0 X-360.77292 Y49.91506 I59.65751 J-74.84053
G3 X-377.86341 Y23.6813 I92.30498 J-78.81768
G3 X-378.4 Y22.54656 I76.40763 J-36.82568
G1 Y65.0
G2 X-358.0 Y85.4 I20.4 J0.0
G1 X-29.6
G1 Y52.57427
G3 X-42.15748 Y50.88987 I0.69454 J-52.82911
G3 X-42.73399 Y51.12754 I-14.33112 J-33.94421
G3 X-43.34159 Y51.36429 I-11.04803 J-27.45572
G3 X-57.44214 Y53.9131 I-13.98648 J-37.09807
G3 X-80.85773 Y46.2125 I-0.28176 J-38.59401
G3 X-93.74371 Y49.77393 I-23.24605 J-59.01613
G3 X-107.85081 Y50.92899 I-13.89215 J-82.94461
G3 X-134.65688 Y45.13617 I-0.63436 J-61.98302
G3 X-135.22077 Y44.86624 I12.49562 J-26.82788
G3 X-136.26582 Y44.33971 I26.63229 J-54.15967
G3 X-140.41041 Y46.84853 I-23.14843 J-33.56356
G3 X-141.73742 Y47.50575 I-13.7943 J-26.18383
G3 X-160.37033 Y51.49995 I-18.0959 J-38.95899
G3 X-181.00135 Y48.39896 I0.02502 J-70.34656
G3 X-193.40263 Y50.36588 I-12.05806 J-35.94722
G3 X-212.62708 Y45.35359 I-0.51686 J-37.39108
G3 X-222.54813 Y48.7885 I-30.57663 J-72.26953
G3 X-237.1061 Y50.8617 I-15.36354 J-55.7331
G3 X-252.85168 Y49.22775 I-0.99091 J-67.13432
G3 X-252.88376 Y49.40355 I-91.98273 J-16.69475
G3 X-262.291 Y69.09148 I-39.64419 J-6.85126
G3 X-263.73914 Y70.62727 I-22.24279 J-19.52266
G3 X-290.42759 Y81.27049 I-25.94408 J-26.27321
G3 X-302.54271 Y79.25297 I0.24809 J-38.87381
G3 X-305.86473 Y79.30208 I-2.98042 J-89.23004
G3 X-324.82898 Y76.13976 I0.16714 J-59.4472
G3 X-324.90755 Y76.11293 I9.52433 J-28.02076
G3 X-340.30303 Y68.53605 I21.99775 J-64.1268
G3 X-340.61911 Y68.32411 I16.32365 J-24.68632
G3 X-346.46504 Y64.01644 I53.81158 J-79.1482
G1 F300.0 X-344.96906 Y62.13973
G3 F800.0 X-358.93277 Y48.37416 I58.16153 J-72.96382
G3 X-375.70087 Y22.64042 I90.46483 J-77.27678
G3 X-380.8 Y9.15764 I74.24509 J-35.7848
G1 Y65.0
G2 X-358.0 Y87.8 I22.8 J0.0
G1 X-27.2
G1 Y50.17032
G3 X-29.45751 Y50.17581 I-1.24246 J-46.71926
G3 X-42.34736 Y48.35453 I0.55205 J-50.43065
G3 X-43.62992 Y48.90104 I-14.14124 J-31.40887
G3 X-44.18824 Y49.11859 I-10.1521 J-25.22922
G3 X-57.44745 Y51.51308 I-13.13982 J-34.85237
G3 X-80.47824 Y43.46728 I-0.27644 J-36.19398
G3 X-94.13792 Y47.40653 I-23.62554 J-56.27091
G3 X-107.86006 Y48.52895 I-13.49794 J-80.5772
G3 X-133.64356 Y42.96058 I-0.6251 J-59.58298
G3 X-134.16172 Y42.71254 I11.4823 J-24.6523
G3 X-136.45417 Y41.52108 I25.57324 J-52.00598
G3 X-141.52905 Y44.72517 I-22.96008 J-30.74494
G3 X-142.74845 Y45.3291 I-12.67566 J-24.06048
G3 X-160.35482 Y49.09995 I-17.08488 J-36.78233
G3 X-181.03996 Y45.87175 I0.00951 J-67.94656
G3 X-193.40836 Y47.96572 I-12.01944 J-33.42001
G3 X-212.43843 Y42.6678 I-0.51113 J-34.99091
G3 X-213.00273 Y42.90391 I-21.15276 J-49.76322
G3 X-223.18291 Y46.47397 I-30.20098 J-69.81985
G3 X-237.14053 Y48.46194 I-14.72876 J-53.41857
G3 X-254.79217 Y46.27936 I-0.95648 J-64.73456
G3 X-255.24661 Y48.98274 I-90.04223 J-13.74637
G3 X-264.09476 Y67.5083 I-37.28134 J-6.43045
G3 X-265.42546 Y68.91955 I-20.43903 J-17.93948
G3 X-290.39573 Y78.87064 I-24.25776 J-24.56549
G3 X-302.18577 Y76.83861 I0.21622 J-36.47396
G3 X-305.85677 Y76.90209 I-3.33736 J-86.81568
G3 X-324.05661 Y73.86743 I0.15917 J-57.04722
G3 X-324.12881 Y73.84278 I8.75197 J-25.74844
G3 X-338.97928 Y66.53413 I21.21901 J-61.85665
G3 X-339.26973 Y66.33938 I14.9999 J-22.6844
G3 X-344.96906 Y62.13973 I52.46219 J-77.16347
G0 Z3.0
G0 X-366.93448 Y-71.06754
G0 Z-1.5
G1 F300.0 Z-5.0
G3 F800.0 X-360.3709 Y-75.53655 I43.23457 J56.44371
G2 X-366.93448 Y-71.06754 I2.3709 J10.53655
G1 F300.0 X-368.91992 Y-72.41588
G2 F800.0 X-371.2 Y-65.0 I10.91992 J7.41588
G1 Y-64.25593
G3 X-349.73209 Y-78.2 I47.50009 J49.63209
G1 X-358.0
G2 X-368.91992 Y-72.41588 I0.0 J13.2
G1 F300.0 X-370.90536 Y-73.76423
G2 F800.0 X-373.6 Y-65.0 I12.90536 J8.76423
G1 Y-58.31803
G3 X-372.35518 Y-59.66016 I50.33142 J45.43362
G3 X-330.2384 Y-80.6 I48.65527 J45.03633
G1 X-358.0
G2 X-370.90536 Y-73.76423 I0.0 J15.6
G0 Z3.0
G0 X-294.59765 Y-78.2
G0 Z-1.5
G1 F300.0 Z-5.0
G3 F800.0 X-288.88153 Y-75.86028 I-28.81954 J78.56068
G3 X-288.78928 Y-75.81833 I-15.18578 J33.51535
G3 X-285.05259 Y-74.02363 I-43.97275 J96.34206
G3 X-277.91629 Y-78.2 I34.3421 J50.49632
G1 X-294.59765
G1 F300.0 Y-80.6
G1 F800.0 X-316.21925
G3 X-289.87204 Y-73.67421 I-7.19794 J80.96068
G3 X-289.7858 Y-73.63499 I-14.19527 J31.32928
G3 X-284.86367 Y-71.22903 I-42.97622 J94.15872
G3 X-267.40764 Y-79.76875 I34.15319 J47.70171
G3 X-267.38016 Y-79.77689 I9.78907 J32.97277
G3 X-264.37307 Y-80.6 I21.49367 J72.61935
G1 X-294.59765
G0 Z3.0
G0 X-161.0943 Y-75.8
G0 Z-1.5
G1 F300.0 Z-5.0
G3 F800.0 X-160.49013 Y-75.23376 I-32.41293 J35.18957
G3 X-156.31838 Y-70.71764 I-32.41472 J34.12788
G3 X-154.31775 Y-72.24749 I40.39283 J50.74963
G3 X-149.04285 Y-75.8 I43.71016 J59.21018
G1 X-161.0943
G1 F300.0 X-162.72028 Y-74.03473
G3 F800.0 X-162.14469 Y-73.49524 I-30.78694 J33.4243
G3 X-156.70783 Y-67.27903 I-30.76017 J32.38936
G3 X-152.89477 Y-70.31485 I40.78228 J47.31102
G3 X-139.29113 Y-78.2 I42.28718 J57.27753
G1 X-167.97208
G3 X-162.72028 Y-74.03473 I-25.53515 J37.58957
G1 F300.0 X-164.34626 Y-72.26946
G3 F800.0 X-163.79924 Y-71.75672 I-29.16096 J31.65903
G3 X-157.14985 Y-63.64896 I-29.10562 J30.65084
G3 X-151.47179 Y-68.3822 I41.22431 J43.68095
G3 X-127.91559 Y-79.62088 I40.8642 J55.34488
G3 X-127.86172 Y-79.63484 I8.65325 J33.2889
G3 X-123.68981 Y-80.6 I21.11864 J81.78625
G1 X-177.58586
G3 X-164.34626 Y-72.26946 I-15.92137 J39.98957
G0 Z3.0
G0 X-89.35603 Y-80.6
G0 Z-1.5
G1 F300.0 Z-5.0
G3 F800.0 X-80.0932 Y-78.09668 I-16.66131 J80.03957
G3 X-75.04161 Y-80.6 I21.59641 J37.23207
G1 X-89.35603
G0 Z3.0
G0 X-41.37642
G0 Z-1.5
G1 F300.0 Z-5.0
G3 F800.0 X-37.08768 Y-78.52886 I-16.54487 J39.73566
G3 X-34.4 Y-79.89462 I20.03501 J36.09971
G1 Y-80.6
G1 X-41.37642
G1 F300.0 Y-83.0
G1 F800.0 X-358.0
G2 X-376.0 Y-65.0 I0.0 J18.0
G1 Y-51.57757
G3 X-370.60571 Y-58.0171 I52.73142 J38.69316
G3 X-322.80977 Y-78.517 I46.9058 J43.39327
G3 X-290.86255 Y-71.48814 I-0.60741 J78.87768
G3 X-290.78232 Y-71.45166 I-13.20477 J29.14322
G3 X-284.65702 Y-68.40138 I-41.9797 J91.97539
G3 X-266.72458 Y-77.468 I33.94653 J44.87407
G3 X-266.69903 Y-77.47558 I9.10602 J30.67203
G3 X-244.80067 Y-80.4829 I20.81253 J70.31804
G3 X-244.01465 Y-80.4616 I-0.47374 J31.99169
G3 X-230.52599 Y-78.30565 I-2.26308 J57.43256
G3 X-220.35415 Y-80.41177 I12.78989 J36.15444
G3 X-218.53633 Y-80.48431 I2.18423 J31.92056
G3 X-207.27617 Y-79.02894 I0.46592 J40.6825
G3 X-194.06503 Y-81.24909 I13.33612 J38.94048
G3 X-165.4538 Y-70.0182 I0.5578 J40.63866
G3 X-157.66531 Y-59.75145 I-27.45106 J28.91231
G3 X-150.04882 Y-66.44954 I41.73977 J39.78344
G3 X-127.31179 Y-77.29808 I39.44122 J53.41223
G3 X-127.26168 Y-77.31106 I8.04945 J30.9661
G3 X-106.18755 Y-79.91556 I20.5186 J79.46247
G3 X-79.81698 Y-75.46575 I0.17021 J79.35513
G3 X-58.20878 Y-81.50581 I21.32019 J34.60114
G3 X-37.08474 Y-75.75918 I0.28749 J40.64147
G3 X-32.0 Y-78.32835 I20.03207 J33.33002
G1 Y-83.0
G1 X-41.37642
G1 F300.0 Y-85.4
G1 F800.0 X-358.0
G2 X-378.4 Y-65.0 I0.0 J20.4
G1 Y-43.38208
G3 X-368.85622 Y-56.37404 I55.13142 J30.49767
G3 X-322.83574 Y-76.11713 I45.15632 J41.75021
G3 X-291.85305 Y-69.30207 I-0.58144 J76.47781
G3 X-291.77885 Y-69.26833 I-12.21426 J26.95715
G3 X-284.43002 Y-65.53585 I-40.98318 J89.79206
G3 X-266.04153 Y-75.16725 I33.71953 J42.00854
G3 X-266.01789 Y-75.17426 I8.42296 J28.37128
G3 X-244.83621 Y-78.08317 I20.1314 J68.01672
G3 X-244.10914 Y-78.06346 I-0.43821 J29.59196
G3 X-230.44272 Y-75.78075 I-2.16859 J55.03442
G3 X-220.19031 Y-78.01737 I12.70663 J33.62954
G3 X-218.50884 Y-78.08447 I2.02038 J29.52616
G3 X-207.19895 Y-76.51101 I0.43844 J38.28265
G3 X-194.04491 Y-78.84914 I13.25891 J36.42256
G3 X-167.10835 Y-68.27967 I0.53769 J38.23871
G3 X-158.2914 Y-55.45104 I-25.79651 J27.17379
G3 X-148.62585 Y-64.51688 I42.36586 J35.48304
G3 X-126.70799 Y-74.97527 I38.01826 J51.47956
G3 X-126.66164 Y-74.98728 I7.44565 J28.64329
G3 X-106.1931 Y-77.51555 I19.91856 J77.13869
G3 X-79.51967 Y-72.80996 I0.17576 J76.95512
G3 X-58.20879 Y-79.10574 I21.02289 J31.94535
G3 X-37.07947 Y-72.92843 I0.2875 J38.24141
G3 X-29.6 Y-76.69055 I20.0268 J30.49928
G1 Y-85.4
G1 X-41.37642
G1 F300.0 Y-87.8
G1 F800.0 X-358.0
G2 X-380.8 Y-65.0 I0.0 J22.8
G1 Y-31.93841
G3 X-367.10673 Y-54.73098 I57.53142 J19.054
G3 X-322.86174 Y-73.71726 I43.40682 J40.10715
G3 X-292.84356 Y-67.11601 I-0.55544 J74.07794
G3 X-292.77537 Y-67.085 I-11.22375 J24.77108
G3 X-284.17949 Y-62.62649 I-39.98665 J87.60873
G3 X-265.35848 Y-72.86651 I33.469 J39.09917
G3 X-265.33675 Y-72.87295 I7.73991 J26.07053
G3 X-244.87174 Y-75.68343 I19.45026 J65.71541
G3 X-244.20364 Y-75.66532 I-0.40267 J27.19222
G3 X-230.34893 Y-73.24013 I-2.07409 J52.63629
G3 X-220.02646 Y-75.62297 I12.61283 J31.08892
G3 X-218.48136 Y-75.68463 I1.85654 J27.13176
G3 X-207.11961 Y-73.97527 I0.41095 J35.88281
G3 X-206.93059 Y-74.04893 I12.44295 J31.65242
G3 X-206.60343 Y-74.17288 I9.79843 J25.36867
G3 X-194.02479 Y-76.44918 I12.66339 J34.08443
G3 X-168.7629 Y-66.54115 I0.51757 J35.83875
G3 X-159.10713 Y-50.46004 I-24.14196 J25.43526
G3 X-147.20289 Y-62.58421 I43.18158 J30.49203
G3 X-126.10419 Y-72.65247 I36.5953 J49.5469
G3 X-126.0616 Y-72.6635 I6.84185 J26.32049
G3 X-106.19864 Y-75.11553 I19.31852 J74.81492
G3 X-79.19735 Y-70.12467 I0.1813 J74.5551
G3 X-58.20881 Y-76.70567 I20.70056 J29.26006
G3 X-37.07115 Y-70.01834 I0.28752 J35.84133
G3 X-27.2 Y-74.97042 I20.01848 J27.58918
G1 Y-87.8
G1 X-41.37642
G1 F300.0 Y-90.2
G1 F800.0 X-358.0
G2 X-383.2 Y-65.0 I0.0 J25.2
G1 Y65.0
G2 X-358.0 Y90.2 I25.2 J0.0
G1 X-24.8
G1 Y47.63696
G3 X-29.4183 Y47.77609 I-3.64246 J-44.1859
G3 X-42.54892 Y45.80045 I0.51284 J-48.03094
G3 X-44.52586 Y46.67454 I-13.93967 J-28.85479
G3 X-45.0349 Y46.87289 I-9.25617 J-23.00272
G3 X-57.45277 Y49.11304 I-12.29316 J-32.60667
G3 X-80.06885 Y40.67274 I-0.27112 J-33.79395
G3 X-94.53213 Y45.03912 I-24.03493 J-53.47637
G3 X-107.86941 Y46.12892 I-13.10373 J-78.2098
G3 X-132.63023 Y40.78499 I-0.61576 J-57.18295
G3 X-133.10267 Y40.55884 I10.46898 J-22.47671
G3 X-136.66629 Y38.64227 I24.51419 J-49.85228
G3 X-142.64769 Y42.60181 I-22.74796 J-27.86612
G3 X-143.75947 Y43.15244 I-11.55702 J-21.93712
G3 X-160.33912 Y46.69995 I-16.07385 J-34.60568
G3 X-181.09278 Y43.32971 I-0.00619 J-65.54656
G3 X-193.41411 Y45.56553 I-11.96663 J-30.87797
G3 X-212.21711 Y39.94902 I-0.50538 J-32.59073
G3 X-213.93605 Y40.69272 I-21.37409 J-47.04443
G3 X-223.81771 Y44.15944 I-29.26765 J-67.60866
G3 X-237.17496 Y46.06219 I-14.09396 J-51.10404
G3 X-256.79271 Y43.19964 I-0.92205 J-62.33481
G3 X-257.60951 Y48.56216 I-88.04169 J-10.66664
G3 X-265.89852 Y65.92513 I-34.91844 J-6.00987
G3 X-267.11179 Y67.21183 I-18.63527 J-16.35631
G3 X-290.36383 Y76.47079 I-22.57143 J-22.85777
G3 X-301.81948 Y74.42151 I0.18432 J-34.0741
G3 X-305.84882 Y74.5021 I-3.70364 J-84.39858
G3 X-323.28425 Y71.59511 I0.15122 J-54.64723
G3 X-323.35007 Y71.57263 I7.9796 J-23.47611
G3 X-337.65552 Y64.53221 I20.44027 J-59.5865
G3 X-337.92034 Y64.35465 I13.67614 J-20.68248
G3 X-357.09257 Y46.8333 I51.11281 J-75.17874
G3 X-373.53833 Y21.59954 I88.62464 J-75.73592
G3 X-381.46929 Y-12.21068 I72.08255 J-34.74392
G1 X-381.46934 Y-12.21471
G3 X-365.35723 Y-53.08792 I58.20076 J-0.6697
G3 X-322.88777 Y-71.31739 I41.65732 J38.46409
G3 X-293.83406 Y-64.92994 I-0.52941 J71.67807
G3 X-293.77189 Y-64.90166 I-10.23325 J22.58501
G3 X-283.90144 Y-59.66587 I-38.99013 J85.42539
G3 X-264.67542 Y-70.56576 I33.19096 J36.13855
G3 X-264.65562 Y-70.57163 I7.05686 J23.76979
G3 X-244.90728 Y-73.28369 I18.76912 J63.41409
G3 X-244.29814 Y-73.26718 I-0.36713 J24.79248
G3 X-230.24236 Y-70.68045 I-1.97959 J50.23815
G3 X-219.86262 Y-73.22857 I12.50626 J28.52924
G3 X-218.45387 Y-73.28478 I1.6927 J24.73735
G3 X-207.03623 Y-71.41674 I0.38347 J33.48297
G3 X-206.06587 Y-71.81012 I12.35957 J29.09389
G3 X-205.76758 Y-71.92313 I8.93371 J23.12987
G3 X-194.00466 Y-74.04922 I11.82754 J31.83468
G3 X-170.41745 Y-64.80262 I0.49744 J33.43879
G3 X-160.35564 Y-43.89291 I-22.48741 J23.69674
G3 X-145.77994 Y-60.65154 I44.4301 J23.9249
G3 X-125.5004 Y-70.32966 I35.17235 J47.61422
G3 X-125.46156 Y-70.33972 I6.23805 J23.99768
G3 X-106.20417 Y-72.71551 I18.71848 J72.49114
G3 X-78.84494 Y-67.40391 I0.18683 J72.15508
G3 X-58.20882 Y-74.30559 I20.34816 J26.5393
G3 X-37.05875 Y-67.00156 I0.28754 J33.44125
G3 X-25.0239 Y-73.09682 I20.00608 J24.5724
G3 X-24.8 Y-73.15495 I9.32871 J35.47491
G1 Y-90.2
G1 X-41.37642
G1 F300.0 Y-92.6
G1 F800.0 X-358.0
G2 X-385.6 Y-65.0 I0.0 J27.6
G1 Y65.0
G2 X-358.0 Y92.6 I27.6 J0.0
G1 X-22.4
G1 Y44.94923
G3 X-29.37906 Y45.37637 I-6.04246 J-41.49817
G3 X-42.76487 Y43.2233 I0.4736 J-45.63122
G3 X-45.42179 Y44.44804 I-13.72372 J-26.27764
G3 X-45.88156 Y44.62719 I-8.36024 J-20.77622
G3 X-57.45811 Y46.71301 I-11.4465 J-30.36097
G3 X-79.03065 Y38.37707 I-0.26578 J-31.39391
G3 X-79.6217 Y37.81951 I20.40587 J-22.22347
G3 X-80.17691 Y38.08099 I-17.39837 J-36.22271
G3 X-94.92632 Y42.67171 I-23.92687 J-50.88462
G3 X-107.87884 Y43.72888 I-12.70954 J-75.84239
G3 X-131.61691 Y38.60941 I-0.60632 J-54.78291
G3 X-132.04362 Y38.40515 I9.45566 J-20.30112
G3 X-136.90842 Y35.68744 I23.45514 J-47.69858
G3 X-143.76633 Y40.47845 I-22.50582 J-24.91129
G3 X-144.7705 Y40.97579 I-10.43839 J-19.81376
G3 X-160.32322 Y44.29995 I-15.06282 J-32.42902
G3 X-181.16257 Y40.76991 I-0.02209 J-63.14656
G3 X-193.41987 Y43.16532 I-11.89684 J-28.31817
G3 X-211.9703 Y37.17986 I-0.49962 J-30.19051
G3 X-214.86924 Y38.48146 I-21.62089 J-44.27527
G3 X-224.45252 Y41.84491 I-28.33447 J-65.39741
G3 X-237.20938 Y43.66244 I-13.45914 J-48.78952
G3 X-258.86871 Y39.95491 I-0.88763 J-59.93506
G3 X-259.97246 Y48.14186 I-85.9657 J-7.42192
G3 X-267.70228 Y64.34195 I-32.55549 J-5.58957
G3 X-268.79812 Y65.50411 I-16.83151 J-14.77313
G3 X-290.33189 Y74.07092 I-20.8851 J-21.15005
G3 X-301.44234 Y72.00123 I0.15238 J-31.67424
G3 X-305.84087 Y72.10212 I-4.08079 J-81.9783
G3 X-322.51188 Y69.32279 I0.14328 J-52.24724
G3 X-322.57133 Y69.30249 I7.20723 J-21.20379
G3 X-336.33177 Y62.5303 I19.66153 J-57.31636
G3 X-336.57095 Y62.36992 I12.35239 J-18.68056
G3 X-355.25233 Y45.29249 I49.76342 J-73.19401
G3 X-371.3758 Y20.55865 I86.78439 J-74.19511
G3 X-379.06946 Y-12.23868 I69.92002 J-33.70303
G1 X-379.0695 Y-12.24232
G3 X-363.60771 Y-51.44487 I55.80092 J-0.64209
G3 X-322.91385 Y-68.91751 I39.9078 J36.82104
G3 X-294.82457 Y-62.74387 I-0.50334 J69.27819
G3 X-294.76842 Y-62.71833 I-9.24274 J20.39894
G3 X-283.59083 Y-56.64458 I-37.99361 J83.24206
G3 X-263.99237 Y-68.26501 I32.88034 J33.11726
G3 X-263.97448 Y-68.27032 I6.3738 J21.46904
G3 X-244.94282 Y-70.88396 I18.08799 J61.11278
G3 X-244.39263 Y-70.86904 I-0.3316 J22.39274
G3 X-230.47975 Y-68.22465 I-1.8851 J47.84001
G3 X-230.11131 Y-68.10151 I-32.6052 J98.16612
G3 X-219.69878 Y-70.83416 I12.37521 J25.9503
G3 X-218.42639 Y-70.88494 I1.52886 J22.34295
G3 X-206.94978 Y-68.82972 I0.35598 J31.08312
G3 X-205.20115 Y-69.57132 I12.27312 J26.50687
G3 X-204.93174 Y-69.67339 I8.06899 J20.89106
G3 X-193.98452 Y-71.64925 I10.99169 J29.58493
G3 X-172.072 Y-63.06409 I0.4773 J31.03882
G3 X-162.64041 Y-40.62174 I-20.83286 J21.95821
G1 X-162.65941 Y-31.0666
G3 X-159.73344 Y-39.73173 I50.99843 J12.39418
G3 X-159.54552 Y-40.14903 I20.5132 J8.9863
G3 X-144.35701 Y-58.71885 I43.61998 J20.18102
G3 X-124.8966 Y-68.00685 I33.74941 J45.68154
G3 X-124.86152 Y-68.01594 I5.63425 J21.67487
G3 X-106.2097 Y-70.31548 I18.11844 J70.16736
G3 X-78.80061 Y-64.78701 I0.19236 J69.75505
G3 X-78.45232 Y-64.64267 I-17.96713 J43.84535
G3 X-58.20884 Y-71.90549 I19.95553 J23.77805
G3 X-37.0406 Y-63.8346 I0.28755 J31.04116
G3 X-24.41684 Y-70.77486 I19.98793 J21.40544
G3 X-22.4 Y-71.24082 I8.72165 J33.15295
G1 Y-92.6
G1 X-41.37642
G1 F300.0 Y-95.0
G1 F800.0 X-358.0
G2 X-388.0 Y-65.0 I0.0 J30.0
G1 Y65.0
G2 X-358.0 Y95.0 I30.0 J0.0
G1 X-20.0
G1 Y42.07492
G3 X-29.33978 Y42.97665 I-8.44246 J-38.62386
G3 X-42.99885 Y40.61724 I0.43432 J-43.23149
G3 X-46.31772 Y42.22154 I-13.48974 J-23.67158
G3 X-46.72822 Y42.38149 I-7.46431 J-18.54972
G3 X-57.46347 Y44.31296 I-10.59984 J-28.11527
G3 X-77.40464 Y36.61183 I-0.26042 J-28.99387
G3 X-79.13281 Y34.87906 I18.77986 J-20.45823
G3 X-81.19049 Y35.9055 I-17.88726 J-33.28226
G3 X-95.3205 Y40.3043 I-22.91329 J-48.70913
G3 X-107.88839 Y41.32883 I-12.31536 J-73.47498
G3 X-130.60359 Y36.43382 I-0.59678 J-52.38286
G3 X-130.98456 Y36.25145 I8.44233 J-18.12554
G3 X-137.18954 Y32.63389 I22.39609 J-45.54488
G3 X-144.88497 Y38.3551 I-22.22471 J-21.85774
G3 X-145.78152 Y38.79913 I-9.31975 J-17.6904
G3 X-160.30706 Y41.89994 I-14.0518 J-30.25237
G3 X-181.25295 Y38.1886 I-0.03824 J-60.74655
G3 X-193.42566 Y40.76506 I-11.80645 J-25.73686
G3 X-211.69073 Y34.34594 I-0.49383 J-27.79026
G3 X-215.80227 Y36.27013 I-21.90046 J-41.44135
G3 X-225.08736 Y39.5304 I-27.40143 J-63.18607
G3 X-237.2438 Y41.26268 I-12.8243 J-46.475
G3 X-261.04258 Y36.49612 I-0.85321 J-57.5353
G3 X-262.33547 Y47.72187 I-83.79182 J-3.96312
G3 X-269.50605 Y62.75878 I-30.19247 J-5.16958
G3 X-270.48444 Y63.7964 I-15.02774 J-13.18996
G3 X-290.2999 Y71.67104 I-19.19878 J-19.44233
G3 X-301.05246 Y69.57721 I0.12039 J-29.27436
G3 X-305.83294 Y69.70213 I-4.47067 J-79.55428
G3 X-321.73951 Y67.05047 I0.13535 J-49.84726
G3 X-321.79259 Y67.03234 I6.43486 J-18.93147
G3 X-335.00801 Y60.52838 I18.88279 J-55.04621
G3 X-335.22157 Y60.38519 I11.02864 J-16.67865
G3 X-353.41203 Y43.75174 I48.41404 J-71.20927
G3 X-369.21326 Y19.51776 I84.94409 J-72.65436
G3 X-376.66962 Y-12.26669 I67.75749 J-32.66214
G1 X-376.66966 Y-12.26994
G3 X-361.85818 Y-49.80182 I53.40108 J-0.61447
G3 X-322.93996 Y-66.51764 I38.15827 J35.17799
G3 X-295.81508 Y-60.5578 I-0.47723 J66.87832
G3 X-295.76494 Y-60.535 I-8.25224 J18.21287
G3 X-283.23424 Y-53.54583 I-36.99708 J81.05873
G3 X-283.14033 Y-53.65089 I35.00969 J31.2007
G3 X-282.70407 Y-54.12201 I14.8874 J13.34816
G3 X-263.30931 Y-65.96427 I31.99359 J30.5947
G3 X-263.29334 Y-65.969 I5.69075 J19.16829
G3 X-244.97835 Y-68.48422 I17.40685 J58.81146
G3 X-244.48713 Y-68.47091 I-0.29606 J19.99301
G3 X-231.25414 Y-65.95294 I-1.7906 J45.44187
G3 X-229.93779 Y-65.50592 I-31.83081 J95.8944
G3 X-219.53494 Y-68.43976 I12.2017 J23.35471
G3 X-218.3989 Y-68.4851 I1.36502 J19.94855
G3 X-206.85932 Y-66.20542 I0.3285 J28.68328
G3 X-204.33643 Y-67.33251 I12.18266 J23.88257
G3 X-204.09589 Y-67.42364 I7.20427 J18.65225
G3 X-193.96437 Y-69.24927 I10.15584 J27.33519
G3 X-173.72654 Y-61.32556 I0.45715 J28.63884
G3 X-165.04037 Y-40.64367 I-19.17832 J20.21968
G1 X-165.06602 Y-27.74255
G3 X-165.03934 Y-27.75008 I7.0858 J25.07679
G3 X-160.73937 Y-28.65287 I8.53111 J29.94157
G3 X-157.53512 Y-38.7687 I49.07839 J9.98045
G3 X-157.36735 Y-39.14128 I18.31488 J8.02328
G3 X-142.93408 Y-56.78616 I41.4418 J19.17327
G3 X-124.2928 Y-65.68405 I32.32649 J43.74885
G3 X-124.26148 Y-65.69216 I5.03045 J19.35207
G3 X-106.21522 Y-67.91546 I17.5184 J67.84358
G3 X-79.72382 Y-62.57164 I0.19788 J67.35503
G3 X-78.01249 Y-61.8292 I-17.04393 J41.62997
G3 X-58.20885 Y-69.50538 I19.5157 J20.96458
