( Made using CamBam - http://www.cambam.co.uk )
( Caren_und_Jonas 7/21/2021 11:17:00 AM )
( T2 : 2.0 )
( T6 : 6.0 )
G21 G90 G64 G40
G0 Z3.0
( T6 : 6.0 )
T6 M6
( Tasche6mm )
G17
M3 S1000
G0 X-18.0 Y83.0
G0 Z1.0
G1 F300.0 Z-2.5
G1 F800.0 X16.88347
G3 X9.84658 Y82.65842 I10.18828 J-282.54256
G3 X9.82841 Y82.65731 I1.94932 J-31.93576
G2 X-0.22731 Y82.27527 I-13.13456 J213.18972
G2 X-5.19502 Y82.37552 I1.92044 J218.29916
G3 X-12.42631 Y82.58773 I-9.35041 J-195.31005
G3 X-18.0 Y82.37812 I-0.87815 J-50.85872
G1 Y83.0
G0 Z3.0
G0 X-27.6 Y13.32794
G0 Z1.0
G1 F300.0 Z-2.5
G3 F800.0 X-21.07021 Y11.38709 I12.24035 J29.22664
G2 X-21.18493 Y7.5593 I-553.87981 J14.6832
G3 X-27.6 Y8.91934 I-10.24397 J-32.50959
G1 Y13.32794
G1 F300.0 X-30.0
G1 F800.0 Y17.19026
G3 X-18.61875 Y13.45017 I14.64035 J25.36431
G2 X-18.90844 Y4.12688 I-556.33128 J12.62012
G3 X-21.77352 Y5.22811 I-11.05696 J-24.48914
G3 X-21.78159 Y5.23069 I-6.09605 J-19.04327
G3 X-30.0 Y6.70284 I-9.64731 J-30.18098
G1 Y13.32794
G1 F300.0 X-32.4
G1 F800.0 Y21.75793
G3 X-16.17221 Y15.68054 I17.04035 J20.79664
G2 X-16.67547 Y0.18373 I-558.77781 J10.38975
G3 X-22.50522 Y2.94237 I-13.28993 J-20.546
G3 X-22.51232 Y2.94464 I-5.36435 J-16.75753
G3 X-31.41606 Y4.33507 I-8.91658 J-27.89493
G3 X-32.4 Y4.3394 I-0.61245 J-27.37484
G1 Y13.32794
G1 F300.0 X-34.8
G1 F800.0 Y27.70771
G3 X-31.46085 Y24.10652 I18.71009 J13.99996
G3 X-31.45219 Y24.09896 I9.99503 J11.44524
G3 X-15.14261 Y18.06922 I16.09254 J18.45561
G2 X-13.73311 Y18.03769 I-4.24978 J-221.50013
G2 X-14.51443 Y-4.60365 I-561.21692 J8.0326
G3 X-23.23692 Y0.65663 I-15.45098 J-15.75861
G3 X-23.24305 Y0.65859 I-4.63265 J-14.47179
G3 X-31.44347 Y1.93507 I-8.18585 J-25.60888
G3 X-34.8 Y1.78771 I-0.58504 J-24.97483
G1 Y13.32794
G0 Z3.0
G0 X36.80867 Y15.61021
G0 Z1.0
G1 F300.0 Z-2.5
G3 F800.0 X36.81248 Y15.76779 I-471.02137 J11.47379
G3 X36.92635 Y15.78864 I-4.63815 J25.65065
G3 X36.80867 Y15.61021 I47.02126 J-31.14254
G1 F300.0 X34.40938 Y15.66866
G3 F800.0 X34.45767 Y17.86223 I-468.62209 J11.41534
G3 X43.85067 Y20.83272 I-2.28335 J23.55621
G3 X40.62841 Y16.88502 I34.28511 J-31.27364
G3 X34.04035 Y5.26567 I43.31919 J-32.23892
G3 X34.40938 Y15.66866 I-468.25306 J21.81834
G0 Z3.0
G0 X80.93355 Y67.21888
G0 Z1.0
G1 F300.0 Z-2.5
G3 F800.0 X80.17669 Y68.6 I-47.72545 J-25.25576
G1 X109.98464
G3 X99.6513 Y64.50058 I15.15768 J-53.28091
G3 X80.93355 Y67.21888 I-19.53658 J-68.72266
G0 Z3.0
G0 X140.83878 Y68.6
G0 Z1.0
G1 F300.0 Z-2.5
G1 F800.0 X143.57522
G3 X141.82374 Y68.31295 I10.38554 J-68.85484
G3 X140.83878 Y68.6 I-16.28559 J-54.04673
G0 Z3.0
G0 X186.78039 Y65.0
G0 Z1.0
G1 F300.0 Z-2.5
G1 F800.0 X187.66251
G3 X187.162 Y64.79787 I32.53149 J-81.27262
G3 X186.78039 Y65.0 I-32.73825 J-61.34681
G1 F300.0 Y66.2
G1 F800.0 X194.63732
G3 X187.09288 Y63.47193 I25.55668 J-82.47262
G3 X187.02974 Y63.50626 I-23.34546 J-42.84811
G3 X181.48569 Y66.2 I-32.60599 J-60.0552
G1 X186.78039
G0 Z3.0
G0 X244.56937
G0 Z1.0
G1 F300.0 Z-2.5
G1 F800.0 X254.61187
G3 X249.7836 Y64.38542 I23.04832 J-68.65812
G3 X244.56937 Y66.2 I-34.6963 J-91.30136
G1 F300.0 X243.84494 Y63.91195
G3 F800.0 X240.18594 Y64.99034 I-28.75763 J-90.82789
G3 X221.42598 Y67.65997 I-19.8066 J-71.93494
G3 X186.94492 Y60.80329 I-1.23198 J-83.93259
G3 X185.8846 Y61.39708 I-23.1975 J-40.17948
G3 X164.57964 Y68.6 I-31.46085 J-57.94602
G1 X280.06068
G3 X279.24306 Y68.53734 I14.1467 J-189.94767
G3 X257.59499 Y64.62788 I7.19237 J-101.71812
G3 X257.08312 Y64.47374 I13.1218 J-44.50093
G3 X249.82725 Y61.79619 I20.57708 J-66.93185
G3 X243.84494 Y63.91195 I-34.73994 J-88.71214
G1 F300.0 X243.1205 Y61.62389
G3 F800.0 X239.55125 Y62.67578 I-28.03319 J-88.53983
G3 X221.39154 Y65.26021 I-19.17191 J-69.62039
G3 X186.78059 Y58.1087 I-1.19754 J-81.53284
G3 X186.35684 Y58.36492 I-31.47203 J-51.57158
G3 X184.73945 Y59.2879 I-22.60943 J-37.74111
G3 X153.13475 Y66.97376 I-30.3157 J-55.83684
G3 X141.6775 Y65.84727 I0.826 J-67.2286
G3 X125.45579 Y68.3132 I-16.13936 J-51.58105
G3 X99.91403 Y61.92389 I-0.31347 J-52.99411
G3 X79.77785 Y64.82275 I-19.7993 J-66.14598
G3 X79.46279 Y64.82476 I-0.66112 J-79.05148
G3 X75.85796 Y71.0 I-46.25469 J-22.86164
G1 X304.0
G2 X309.99381 Y65.27257 I0.0 J-6.0
G3 X305.05975 Y66.09181 I-11.96238 J-56.77891
G3 X294.81028 Y66.72511 I-9.97093 J-78.11531
G3 X279.42195 Y66.14399 I-0.60291 J-188.07277
G3 X258.27378 Y62.32587 I7.01348 J-99.32478
G3 X257.78838 Y62.1797 I12.44302 J-42.19892
G3 X249.87599 Y59.19393 I19.87182 J-64.63782
G3 X243.1205 Y61.62389 I-34.78868 J-86.10987
G1 F300.0 X242.39606 Y59.33584
G3 F800.0 X238.91655 Y60.36123 I-27.30875 J-86.25178
G3 X221.3571 Y62.86046 I-18.53721 J-67.30583
G3 X186.60546 Y55.38774 I-1.16309 J-79.13308
G3 X185.12347 Y56.30609 I-31.2969 J-48.85061
G3 X183.59431 Y57.17872 I-21.37605 J-35.68228
G3 X153.17385 Y64.57406 I-29.17056 J-53.72766
G3 X141.52823 Y63.37564 I0.78691 J-64.8289
G3 X125.45052 Y65.91319 I-15.99008 J-49.10942
G3 X100.18426 Y59.32992 I-0.3082 J-50.5941
G3 X79.77369 Y62.4227 I-20.06953 J-63.55201
G3 X77.95073 Y62.41665 I-0.65696 J-76.65143
G3 X71.04951 Y73.4 I-44.74263 J-20.45353
G1 X304.0
G2 X312.4 Y65.0 I0.0 J-8.4
G1 Y62.23123
G3 X304.76247 Y63.71028 I-14.36857 J-53.73756
G3 X294.81072 Y64.32509 I-9.67366 J-75.73378
G3 X279.60078 Y63.75064 I-0.60334 J-185.67276
G3 X258.95256 Y60.02386 I6.83464 J-96.93143
G3 X258.49365 Y59.88567 I11.76423 J-39.89691
G3 X249.93041 Y56.57715 I19.16655 J-62.34378
G3 X242.39606 Y59.33584 I-34.8431 J-83.49309
G1 F300.0 X241.67163 Y57.04778
G3 F800.0 X238.28184 Y58.04668 I-26.58432 J-83.96373
G3 X221.32266 Y60.46071 I-17.9025 J-64.99128
G3 X186.42001 Y52.63743 I-1.12865 J-76.73333
G3 X183.89009 Y54.24726 I-31.11146 J-46.10031
G3 X182.44916 Y55.06954 I-20.14268 J-33.62345
G3 X153.21295 Y62.17435 I-28.02541 J-51.61848
G3 X141.37549 Y60.89722 I0.7478 J-62.42919
G3 X125.44524 Y63.51318 I-15.83734 J-46.63101
G3 X100.46316 Y56.71596 I-0.30292 J-48.19408
G3 X79.76957 Y60.02264 I-20.34844 J-60.93805
G3 X76.39854 Y59.97575 I-0.65283 J-74.25137
G3 X65.53355 Y75.8 I-43.19044 J-18.01263
G1 X304.0
G2 X314.8 Y65.0 I0.0 J-10.8
G1 Y59.00856
G3 X304.46524 Y61.32874 I-16.76857 J-50.51489
G3 X294.81123 Y61.92508 I-9.37643 J-73.35225
G3 X279.77956 Y61.35729 I-0.60385 J-183.27275
G3 X259.63135 Y57.72185 I6.65587 J-94.53808
G3 X259.19891 Y57.59163 I11.08545 J-37.5949
G3 X249.99183 Y53.94448 I18.46129 J-60.04974
G3 X249.95652 Y53.95909 I-25.292 J-61.03989
G3 X241.67163 Y57.04778 I-34.86921 J-80.87503
G1 F300.0 X240.94719 Y54.75973
G3 F800.0 X237.64712 Y55.73213 I-25.85988 J-81.67567
G3 X221.28822 Y58.06096 I-17.26778 J-62.67673
G3 X186.22264 Y49.8532 I-1.09421 J-74.33358
G3 X182.65672 Y52.18843 I-30.91409 J-43.31608
G3 X181.30402 Y52.96036 I-18.9093 J-31.56462
G3 X153.25207 Y59.77465 I-26.88027 J-49.5093
G3 X141.21877 Y58.41103 I0.70868 J-60.02949
G3 X125.43996 Y61.11316 I-15.68062 J-44.14481
G3 X100.75218 Y54.07869 I-0.29764 J-45.79407
G3 X79.76548 Y57.62259 I-20.63746 J-58.30078
G3 X74.79835 Y57.49563 I-0.64875 J-71.85132
G3 X58.85759 Y78.2 I-41.59025 J-15.53251
G1 X304.0
G2 X317.2 Y65.0 I0.0 J-13.2
G1 Y55.56578
G3 X304.16805 Y58.9472 I-19.16857 J-47.07211
G3 X294.81182 Y59.52506 I-9.07924 J-70.97071
G3 X279.95828 Y58.96393 I-0.60444 J-180.87273
G3 X260.31013 Y55.41984 I6.47715 J-92.14472
G3 X259.90417 Y55.29759 I10.40667 J-35.29289
G3 X250.07601 Y51.30164 I17.75603 J-57.75571
G3 X249.0227 Y51.74814 I-25.37619 J-58.39705
G3 X240.94719 Y54.75973 I-33.93539 J-78.66409
G1 F300.0 X240.22275 Y52.47167
G3 F800.0 X237.01239 Y53.41758 I-25.13545 J-79.38762
G3 X221.25378 Y55.6612 I-16.63304 J-60.36218
G3 X186.01136 Y47.02939 I-1.05978 J-71.93382
G3 X181.42334 Y50.1296 I-30.7028 J-40.49227
G3 X180.15887 Y50.85118 I-17.67592 J-29.50579
G3 X153.2912 Y57.37494 I-25.73512 J-47.40012
G3 X141.05746 Y55.91584 I0.66955 J-57.62978
G3 X125.43467 Y58.71315 I-15.51931 J-41.64963
G3 X101.05312 Y51.41396 I-0.29235 J-43.39405
G3 X79.76145 Y55.22252 I-20.93839 J-55.63605
G3 X73.13984 Y54.96786 I-0.64472 J-69.45125
G3 X52.91438 Y79.04856 I-39.93174 J-13.00475
G3 X52.68853 Y79.16749 I-16.13965 J-30.37337
G3 X49.72959 Y80.6 I-25.23565 J-48.35383
G1 X304.0
G2 X319.6 Y65.0 I0.0 J-15.6
G1 Y51.85031
G3 X319.43427 Y51.93252 I-15.36758 J-30.77121
G3 X303.87091 Y56.56566 I-21.40284 J-43.43886
G3 X294.8125 Y57.12505 I-8.7821 J-68.58916
G3 X280.13692 Y56.57057 I-0.60512 J-178.47271
G3 X260.98891 Y53.11783 I6.2985 J-89.75135
G3 X260.60943 Y53.00356 I9.72788 J-32.99088
G3 X250.16221 Y48.63578 I17.05076 J-55.46167
G3 X248.08895 Y49.53715 I-25.46238 J-55.73119
G3 X240.22275 Y52.47167 I-33.00164 J-76.4531
G1 F300.0 X239.49832 Y50.18362
G3 F800.0 X236.37764 Y51.10304 I-24.41101 J-77.09956
G3 X221.21934 Y53.26145 I-15.9983 J-58.04764
G3 X185.78365 Y44.15888 I-1.02534 J-69.53407
G3 X180.18996 Y48.07077 I-30.4751 J-37.62175
G3 X179.01373 Y48.742 I-16.44255 J-27.44696
G3 X153.33035 Y54.97523 I-24.58998 J-45.29094
G3 X140.88886 Y53.40971 I0.6304 J-55.23008
G3 X140.37128 Y53.60999 I-11.80467 J-29.7379
G3 X125.42938 Y56.31313 I-14.83314 J-39.34377
G3 X101.36826 Y48.7165 I-0.28706 J-40.99403
G3 X79.75747 Y52.82245 I-21.25353 J-52.93859
G3 X71.40905 Y52.38105 I-0.64074 J-67.05118
G3 X51.7882 Y76.92919 I-38.20095 J-10.41794
G3 X51.57811 Y77.03983 I-15.01347 J-28.254
G3 X32.0508 Y82.75348 I-24.12523 J-46.22617
G3 X29.08143 Y83.0 I-8.04683 J-78.9175
G1 X304.0
G2 X322.0 Y65.0 I0.0 J-18.0
G1 Y47.73237
G3 X318.88159 Y49.52369 I-21.08969 J-33.10389
G3 X318.37353 Y49.77966 I-14.64917 J-28.44459
G3 X303.57383 Y54.1841 I-20.3421 J-41.28599
G3 X294.81327 Y54.72503 I-8.48502 J-66.20761
G3 X280.3155 Y54.1772 I-0.6059 J-176.0727
G3 X261.6677 Y50.81582 I6.11992 J-87.35798
G3 X261.3147 Y50.70952 I9.0491 J-30.68887
G3 X250.25074 Y45.94327 I16.3455 J-53.16763
G3 X247.1553 Y47.32612 I-25.55092 J-53.03869
G3 X239.49832 Y50.18362 I-32.06799 J-74.24207
G1 F300.0 X238.77388 Y47.89557
G3 F800.0 X235.74288 Y48.7885 I-23.68657 J-74.81151
G3 X221.18491 Y50.8617 I-15.36354 J-55.7331
G3 X185.53633 Y41.23254 I-0.99091 J-67.13432
G3 X178.95659 Y46.01194 I-30.22777 J-34.69542
G3 X177.86858 Y46.63282 I-15.20917 J-25.38813
G3 X153.36951 Y52.57552 I-23.44483 J-43.18176
G3 X140.70873 Y50.88987 I0.59124 J-52.83036
G3 X140.13222 Y51.12754 I-14.33112 J-33.94421
G3 X139.52463 Y51.36429 I-11.04803 J-27.45572
G3 X125.42408 Y53.9131 I-13.98648 J-37.09807
G3 X101.70056 Y45.9795 I-0.28176 J-38.59401
G3 X79.75355 Y50.42238 I-21.58583 J-50.20159
G3 X69.58649 Y49.71926 I-0.63682 J-64.65111
G3 X50.66202 Y74.80982 I-36.37839 J-7.75614
G3 X50.46769 Y74.91216 I-13.88729 J-26.13463
G3 X31.82332 Y80.36423 I-23.01481 J-44.0985
G3 X23.66103 Y80.7619 I-7.81934 J-76.52825
G3 X23.40596 Y80.75966 I0.13194 J-29.59491
G3 X9.9928 Y80.26288 I3.66579 J-280.30222
G3 X9.976 Y80.26185 I1.80309 J-29.54022
G2 X-0.22057 Y79.87512 I-13.28214 J215.58517
G2 X-5.29038 Y79.97734 I1.9137 J220.69931
G3 X-12.4601 Y80.18796 I-9.25504 J-192.91187
G3 X-20.4 Y79.6731 I-0.84436 J-48.45895
G1 Y85.4
G1 X304.0
G2 X324.4 Y65.0 I0.0 J-20.4
G1 Y43.02271
G3 X317.78274 Y47.39003 I-23.48969 J-28.39422
G3 X317.31279 Y47.62679 I-13.55032 J-26.31092
G3 X303.27682 Y51.80254 I-19.28136 J-39.13313
G3 X294.81415 Y52.32501 I-8.188 J-63.82604
G3 X280.49401 Y51.78382 I-0.60677 J-173.67268
G3 X262.34648 Y48.51381 I5.94142 J-84.9646
G3 X262.01996 Y48.41548 I8.37031 J-28.38686
G3 X250.342 Y43.21963 I15.64024 J-50.8736
G3 X246.22174 Y45.11504 I-25.64218 J-50.31504
G3 X238.77388 Y47.89557 I-31.13443 J-72.03099
G1 F300.0 X238.04945 Y45.60751
G3 F800.0 X235.10811 Y46.47397 I-22.96214 J-72.52346
G3 X221.15048 Y48.46194 I-14.72876 J-53.41857
G3 X185.26518 Y38.23844 I-0.95648 J-64.73456
G3 X177.72321 Y43.95311 I-29.95662 J-31.70131
G3 X176.72344 Y44.52364 I-13.9758 J-23.3293
G3 X153.4087 Y50.17581 I-22.29969 J-41.07258
G3 X140.51885 Y48.35453 I0.55205 J-50.43065
G3 X139.23629 Y48.90104 I-14.14124 J-31.40887
G3 X138.67797 Y49.11859 I-10.1521 J-25.22922
G3 X125.41876 Y51.51308 I-13.13982 J-34.85237
G3 X102.05393 Y43.19394 I-0.27644 J-36.19398
G3 X79.7497 Y48.0223 I-21.93921 J-47.41603
G3 X67.6436 Y46.95916 I-0.63296 J-62.25103
G3 X49.53584 Y72.69045 I-34.4355 J-4.99604
G3 X49.35727 Y72.78449 I-12.76111 J-24.01526
G3 X31.59597 Y77.97496 I-21.90439 J-41.97083
G3 X23.67173 Y78.36192 I-7.59199 J-74.13898
G3 X23.43734 Y78.35987 I0.12124 J-27.19493
G3 X10.13902 Y77.86734 I3.6344 J-277.90242
G3 X10.12358 Y77.86639 I1.65687 J-27.14468
G2 X-0.21383 Y77.47497 I-13.42972 J217.98063
G2 X-5.38598 Y77.57916 I1.90696 J223.09946
G3 X-12.49404 Y77.78818 I-9.15945 J-190.51369
G3 X-22.8 Y76.80605 I-0.81042 J-46.05918
G1 Y87.8
G1 X304.0
G2 X326.8 Y65.0 I0.0 J-22.8
G1 Y37.35724
G3 X316.68389 Y45.25636 I-25.88969 J-22.72876
G3 X316.25204 Y45.47393 I-12.45147 J-24.17726
G3 X302.97988 Y49.42096 I-18.22062 J-36.98026
G3 X294.81514 Y49.92499 I-7.89106 J-61.44447
G3 X280.67243 Y49.39043 I-0.60776 J-171.27266
G3 X263.02527 Y46.2118 I5.76299 J-82.57122
G3 X262.72522 Y46.12145 I7.69153 J-26.08485
G3 X250.43648 Y40.45921 I14.93497 J-48.57956
G3 X245.28829 Y42.90391 I-25.73666 J-47.55462
G3 X238.04945 Y45.60751 I-30.20098 J-69.81985
G1 F300.0 X237.32501 Y43.31946
G3 F800.0 X234.47331 Y44.15944 I-22.2377 J-70.2354
G3 X221.11605 Y46.06219 I-14.09396 J-51.10404
G3 X184.96455 Y35.16049 I-0.92205 J-62.33481
G3 X176.48984 Y41.89428 I-29.65599 J-28.62336
G3 X175.57829 Y42.41446 I-12.74242 J-21.27046
G3 X153.44791 Y47.77609 I-21.15454 J-38.9634
G3 X140.31729 Y45.80045 I0.51284 J-48.03094
G3 X138.34036 Y46.67454 I-13.93967 J-28.85479
G3 X137.83131 Y46.87289 I-9.25617 J-23.00272
G3 X125.41344 Y49.11304 I-12.29316 J-32.60667
G3 X102.43143 Y40.34548 I-0.27112 J-33.79395
G3 X101.95523 Y40.58396 I-11.34053 J-22.04982
G3 X79.74592 Y45.62221 I-21.84051 J-44.80605
G3 X65.53592 Y44.06443 I-0.62918 J-59.85094
G3 X48.40966 Y70.57108 I-32.32781 J-2.10131
G3 X48.24685 Y70.65683 I-11.63493 J-21.8959
G3 X31.36878 Y75.58567 I-20.79397 J-39.84316
G3 X23.68243 Y75.96195 I-7.36481 J-71.74969
G3 X23.46873 Y75.96007 I0.11054 J-24.79495
G3 X10.28524 Y75.4718 I3.60302 J-275.50263
G3 X10.27116 Y75.47093 I1.51065 J-24.74914
G2 X-0.2071 Y75.07483 I-13.57731 J220.37609
G2 X-5.4818 Y75.181 I1.90023 J225.4996
G3 X-12.52814 Y75.38841 I-9.06362 J-188.11553
G3 X-25.2 Y73.7438 I-0.77632 J-43.6594
G1 Y90.2
G1 X304.0
G2 X329.2 Y65.0 I0.0 J-25.2
G1 Y29.69371
G3 X315.58504 Y43.1227 I-28.28969 J-15.06523
G3 X315.1913 Y43.32106 I-11.35261 J-22.0436
G3 X302.68302 Y47.03937 I-17.15988 J-34.8274
G3 X294.81624 Y47.52497 I-7.59421 J-59.06288
G3 X280.85077 Y46.99704 I-0.60886 J-168.87264
G3 X263.70405 Y43.90979 I5.58465 J-80.17783
G3 X263.43049 Y43.82741 I7.01275 J-23.78284
G3 X250.53481 Y37.65482 I14.22971 J-46.28552
G3 X244.35496 Y40.69272 I-25.83499 J-44.75023
G3 X237.32501 Y43.31946 I-29.26765 J-67.60866
G0 Z3.0
G0 X251.9238 Y-12.87531
G0 Z1.0
G1 F300.0 Z-2.5
G3 F800.0 X258.03213 Y-19.29418 I27.17575 J19.74517
G3 X254.31874 Y-20.27578 I3.6346 J-21.26428
G3 X254.29322 Y-20.28507 I3.54077 J-9.77359
G3 X252.38435 Y-21.13223 I5.31088 J-14.54093
G2 X252.18373 Y-18.94672 I28.94909 J3.75932
G3 X252.17366 Y-18.78395 I-10.38008 J-0.56043
G2 X251.9238 Y-12.87531 I107.80989 J7.51855
G1 F300.0 X249.52407 Y-12.91107
G2 F800.0 X249.51271 Y-10.81848 I110.45949 J1.64567
G3 X249.51268 Y-10.74735 I-7.99513 J0.03234
G2 X249.8032 Y-2.55746 I101.68247 J0.49319
G1 X249.8033 Y-2.55627
G3 X252.96011 Y-10.14753 I23.61686 J5.36901
G3 X253.03266 Y-10.25997 I6.75416 J4.27837
G3 X261.68189 Y-19.00559 I26.06689 J17.12983
G3 X261.92541 Y-19.16317 I4.46459 J6.63254
G3 X266.7013 Y-21.91312 I43.10992 J69.34757
G3 X262.22061 Y-21.39391 I-5.38416 J-26.87087
G3 X262.16469 Y-21.39226 I-0.26358 J-7.99085
G3 X255.13622 Y-22.53227 I-0.49796 J-19.1662
G3 X255.11659 Y-22.53941 I2.72329 J-7.51711
G3 X250.7303 Y-25.21592 I4.48751 J-12.28658
G2 X249.78722 Y-19.07611 I30.60314 J7.84301
G3 X249.77947 Y-18.95092 I-7.98357 J-0.43104
G2 X249.52407 Y-12.91107 I110.20408 J7.68552
G0 Z3.0
G0 X256.12524 Y-79.84397
G0 Z1.0
G1 F300.0 Z-2.5
G3 F800.0 X258.79075 Y-80.6 I22.70696 J74.98015
G1 X254.07123
G3 X256.12524 Y-79.84397 I-13.85062 J40.79818
G0 Z3.0
G0 X300.54987 Y-80.6
G0 Z1.0
G1 F300.0 Z-2.5
G3 F800.0 X315.65762 Y-74.65077 I-17.63205 J66.93299
G3 X316.67118 Y-74.09952 I-25.63605 J48.3427
G2 X304.0 Y-80.6 I-12.67118 J9.09952
G1 X300.54987
G0 Z3.0
G0 X329.2 Y-8.04397
G0 Z1.0
G1 F300.0 Z-2.5
G3 F800.0 X328.77849 Y-7.32022 I-34.75858 J-19.7583
G3 X329.2 Y-6.5111 I-28.44394 J15.33205
G1 Y-8.04397
G1 F300.0 X331.6
G1 F800.0 Y-22.17766
G3 X325.98684 Y-7.37477 I-37.15858 J-5.62461
G3 X329.13081 Y-0.08524 I-25.65228 J15.3866
G3 X329.15983 Y0.01891 I-21.55913 J6.0621
G3 X330.81984 Y12.94504 I-44.52198 J12.2873
G3 X328.16235 Y26.30865 I-33.7756 J0.22943
G3 X327.96054 Y26.77211 I-20.63265 J-8.70853
G3 X314.48618 Y40.98903 I-27.05024 J-12.14363
G3 X314.13056 Y41.1682 I-10.25376 J-19.90993
G3 X302.38626 Y44.65777 I-16.09913 J-32.67453
G3 X294.81747 Y45.12495 I-7.29745 J-56.68128
G3 X281.02903 Y44.60364 I-0.6101 J-166.47262
G3 X264.38284 Y41.60778 I5.4064 J-77.78443
G3 X264.13575 Y41.53337 I6.33396 J-21.48083
G3 X250.63781 Y34.79711 I13.52445 J-43.99149
G3 X243.42177 Y38.48146 I-25.93798 J-41.89253
G3 X233.83849 Y41.84491 I-28.33447 J-65.39741
G3 X221.08163 Y43.66244 I-13.45914 J-48.78952
G3 X184.62657 Y31.97628 I-0.88763 J-59.93506
G3 X175.25646 Y39.83544 I-29.31802 J-25.43916
G3 X174.43315 Y40.30528 I-11.50904 J-19.21163
G3 X153.48715 Y45.37637 I-20.0094 J-36.85422
G3 X140.10134 Y43.2233 I0.4736 J-45.63122
G3 X137.44442 Y44.44804 I-13.72372 J-26.27764
G3 X136.98465 Y44.62719 I-8.36024 J-20.77622
G3 X125.4081 Y46.71301 I-11.4465 J-30.36097
G3 X103.83556 Y38.37707 I-0.26578 J-31.39391
G3 X102.82759 Y37.40754 I20.40587 J-22.22347
G3 X101.35522 Y38.20015 I-23.09196 J-41.13193
G3 X100.90364 Y38.42661 I-10.26432 J-19.90449
G3 X79.74223 Y43.22211 I-20.78892 J-42.6487
G3 X63.19179 Y40.97441 I-0.62549 J-57.45084
G3 X63.19837 Y41.37505 I-31.09365 J0.7109
G3 X47.28348 Y68.45172 I-29.99027 J0.58807
G3 X47.13643 Y68.52916 I-10.50875 J-19.77653
G3 X31.14178 Y73.19636 I-19.68355 J-37.7155
G3 X23.69313 Y73.56197 I-7.1378 J-69.36038
G3 X23.50011 Y73.56028 I0.09984 J-22.39498
G3 X10.43147 Y73.07625 I3.57163 J-273.10283
G3 X10.41875 Y73.07547 I1.36443 J-22.3536
G2 X-0.20037 Y72.67469 I-13.72489 J222.77155
G2 X-5.57785 Y72.78284 I1.8935 J227.89974
G3 X-12.56242 Y72.98864 I-8.96757 J-185.71737
G3 X-25.19913 Y71.24388 I-0.74204 J-41.25963
G3 X-27.6 Y70.42464 I8.45139 J-28.69556
G1 Y92.6
G1 X304.0
G2 X331.6 Y65.0 I0.0 J-27.6
G1 Y-8.04397
G0 Z3.0
G0 X193.91795 Y-80.6
G0 Z1.0
G1 F300.0 Z-2.5
G1 F800.0 X184.15938
G3 X187.9438 Y-78.81106 I-16.59502 J40.0034
G3 X190.88338 Y-79.76875 I19.63673 J55.28375
G3 X190.91085 Y-79.77689 I9.78907 J32.97277
G3 X193.91795 Y-80.6 I21.49367 J72.61935
G0 Z3.0
G0 X150.07895
G0 Z1.0
G1 F300.0 Z-2.5
G1 F800.0 X141.48979
G3 X145.77853 Y-78.52886 I-16.54487 J39.73566
G3 X150.07895 Y-80.6 I20.03501 J36.09971
G0 Z3.0
G0 X107.8246
G0 Z1.0
G1 F300.0 Z-2.5
G1 F800.0 X93.46819
G3 X101.83194 Y-77.53468 I-17.91872 J61.83443
G3 X107.8246 Y-80.6 I22.53748 J36.67007
G0 Z3.0
G0 X36.04843 Y-75.8
G0 Z1.0
G1 F300.0 Z-2.5
G1 F800.0 X34.7515
G3 X35.28565 Y-75.25934 I-40.94861 J40.98962
G3 X36.04843 Y-75.8 I39.35769 J54.71821
G1 F300.0 X37.42267 Y-73.8324
G3 F800.0 X44.63014 Y-78.2 I37.22067 J53.29127
G1 X28.47176
G3 X35.00129 Y-72.05661 I-34.66887 J43.38962
G3 X37.42267 Y-73.8324 I39.64206 J51.51549
G1 F300.0 X38.79692 Y-71.8648
G3 F800.0 X56.97933 Y-80.6 I35.84642 J51.32367
G1 X20.64668
G3 X23.7392 Y-78.70542 I-24.4509 J43.38247
G3 X24.73962 Y-78.01548 I-19.02392 J28.6552
G3 X34.69731 Y-68.74279 I-30.93673 J43.20511
G3 X38.79692 Y-71.8648 I39.94603 J48.20166
G1 F300.0 X40.17117 Y-69.8972
G3 F800.0 X75.07744 Y-80.74216 I34.47218 J49.35607
G3 X102.01722 Y-74.80822 I0.47203 J61.97659
G3 X124.65743 Y-81.50581 I22.3522 J33.94361
G3 X145.78147 Y-75.75918 I0.28749 J40.64147
G3 X156.02107 Y-80.06268 I20.03207 J33.33002
G3 X167.08978 Y-81.50281 I11.14996 J42.44077
G3 X187.74362 Y-76.18229 I0.47458 J40.90622
G3 X191.56643 Y-77.468 I19.83691 J52.65497
G3 X191.59199 Y-77.47558 I9.10602 J30.67203
G3 X213.49034 Y-80.4829 I20.81253 J70.31804
G3 X214.27637 Y-80.4616 I-0.47374 J31.99169
G3 X227.76503 Y-78.30565 I-2.26308 J57.43256
G3 X237.93687 Y-80.41177 I12.78989 J36.15444
G3 X239.75469 Y-80.48431 I2.18423 J31.92056
G3 X256.01233 Y-77.29721 I0.46592 J40.6825
G3 X279.42618 Y-80.80452 I22.81987 J72.43338
G3 X295.93617 Y-79.20294 I0.2664 J83.1518
G3 X314.52782 Y-72.53332 I-13.01835 J65.53593
G3 X321.76529 Y-67.89733 I-24.50625 J46.22525
G2 X304.0 Y-83.0 I-17.76529 J2.89733
G1 X8.46681
G3 X22.41177 Y-76.70594 I-12.27103 J45.78247
G3 X23.34238 Y-76.06415 I-17.69648 J26.65572
G3 X34.36847 Y-65.28805 I-29.53949 J41.25377
G3 X40.17117 Y-69.8972 I40.27488 J44.74692
G1 F300.0 X41.54541 Y-67.9296
G3 F800.0 X75.07792 Y-78.34209 I33.09793 J47.38847
G3 X101.00714 Y-72.63106 I0.47155 J59.57653
G3 X101.57619 Y-72.35465 I-12.64594 J26.75735
G3 X102.21098 Y-72.03303 I-26.16673 J52.43435
G3 X124.65742 Y-79.10574 I22.15844 J31.16842
G3 X145.78674 Y-72.92843 I0.2875 J38.24141
G3 X156.62816 Y-77.74073 I20.0268 J30.49928
G3 X167.10593 Y-79.10284 I10.54286 J40.11882
G3 X187.53119 Y-73.5248 I0.45843 J38.50624
G3 X192.24949 Y-75.16725 I20.04934 J49.99748
G3 X192.27312 Y-75.17426 I8.42296 J28.37128
G3 X213.45481 Y-78.08317 I20.1314 J68.01672
G3 X214.18187 Y-78.06346 I-0.43821 J29.59196
G3 X227.84829 Y-75.78075 I-2.16859 J55.03442
G3 X238.10071 Y-78.01737 I12.70663 J33.62954
G3 X239.78217 Y-78.08447 I2.02038 J29.52616
G3 X255.8858 Y-74.73541 I0.43844 J38.28265
G3 X279.42063 Y-78.40449 I22.9464 J69.87158
G3 X295.46795 Y-76.84905 I0.27195 J80.75177
G3 X313.39805 Y-70.41586 I-12.55013 J63.18205
G3 X324.4 Y-62.5031 I-23.37648 J44.10779
G1 Y-65.0
G2 X304.0 Y-85.4 I-20.4 J0.0
G1 X-20.4
G1 Y-80.12407
G3 X-4.47406 Y-82.21099 I16.3824 J63.20787
G3 X21.08433 Y-74.70646 I0.66984 J44.99346
G3 X21.94514 Y-74.11281 I-16.36905 J24.65624
G3 X34.00458 Y-61.65235 I-28.14225 J39.30243
G3 X34.36332 Y-61.99785 I41.33558 J42.55999
G3 X41.54541 Y-67.9296 I40.28002 J41.45673
G1 F300.0 X42.91966 Y-65.962
G3 F800.0 X75.07839 Y-75.94202 I31.72368 J45.42088
G3 X99.98163 Y-70.4612 I0.47108 J57.17645
G3 X100.50453 Y-70.20719 I-11.62043 J24.58749
G3 X102.42375 Y-69.20278 I-25.09507 J50.2869
G3 X124.6574 Y-76.70567 I21.94568 J28.33816
G3 X145.79506 Y-70.01834 I0.28752 J35.84133
G3 X157.23524 Y-75.41878 I20.01848 J27.58918
G3 X167.12212 Y-76.70286 I9.93578 J37.79687
G3 X187.30391 Y-70.83247 I0.44225 J36.10626
G3 X192.93254 Y-72.86651 I20.27663 J47.30516
G3 X192.95426 Y-72.87295 I7.73991 J26.07053
G3 X213.41927 Y-75.68343 I19.45026 J65.71541
G3 X214.08738 Y-75.66532 I-0.40267 J27.19222
G3 X227.94209 Y-73.24013 I-2.07409 J52.63629
G3 X238.26455 Y-75.62297 I12.61283 J31.08892
G3 X239.80966 Y-75.68463 I1.85654 J27.13176
G3 X255.74331 Y-72.15596 I0.41095 J35.88281
G3 X279.41506 Y-76.00445 I23.08889 J67.29214
G3 X294.99973 Y-74.49517 I0.27752 J78.35174
G3 X312.26831 Y-68.29838 I-12.08191 J60.82816
G3 X326.8 Y-56.39877 I-22.24674 J41.99031
G1 Y-65.0
G2 X304.0 Y-87.8 I-22.8 J0.0
G1 X-22.8
G1 Y-76.94267
G3 X-4.44777 Y-79.81112 I18.7824 J60.02647
G3 X19.7569 Y-72.70698 I0.64355 J42.59359
G3 X20.5479 Y-72.16147 I-15.04161 J22.65676
G3 X33.58302 Y-57.78735 I-26.745 J37.3511
G3 X36.02838 Y-60.26936 I41.75714 J38.69499
G3 X42.91966 Y-65.962 I38.61497 J39.72823
G1 F300.0 X44.29391 Y-63.99441
G3 F800.0 X75.07885 Y-73.54194 I30.34944 J43.45328
G3 X98.95612 Y-68.29133 I0.47062 J54.77637
G3 X99.43287 Y-68.05974 I-10.59492 J22.41762
G3 X102.66476 Y-66.30649 I-24.02341 J48.13945
G3 X124.65739 Y-74.30559 I21.70466 J25.44188
G3 X145.80746 Y-67.00156 I0.28754 J33.44125
G3 X157.84231 Y-73.09682 I20.00608 J24.5724
G3 X167.13833 Y-74.30288 I9.32871 J35.47491
G3 X187.05829 Y-68.09717 I0.42603 J33.70628
G3 X193.61559 Y-70.56576 I20.52225 J44.56986
G3 X193.6354 Y-70.57163 I7.05686 J23.76979
G3 X213.38373 Y-73.28369 I18.76912 J63.41409
G3 X213.99288 Y-73.26718 I-0.36713 J24.79248
G3 X228.04866 Y-70.68045 I-1.97959 J50.23815
G3 X238.42839 Y-73.22857 I12.50626 J28.52924
G3 X239.83714 Y-73.28478 I1.6927 J24.73735
G3 X255.58088 Y-69.55611 I0.38347 J33.48297
G3 X255.67984 Y-69.59071 I14.72021 J41.93943
G3 X279.40947 Y-73.60442 I23.15237 J64.72689
G3 X294.53152 Y-72.14128 I0.28311 J75.9517
G3 X311.1386 Y-66.18088 I-11.6137 J58.47428
G3 X327.67143 Y-51.17286 I-21.11703 J39.8728
G3 X328.12024 Y-50.46771 I-20.6903 J13.66432
G3 X329.2 Y-48.60251 I-36.4656 J22.35496
G1 Y-65.0
G2 X304.0 Y-90.2 I-25.2 J0.0
G1 X-25.2
G1 Y-73.58279
G3 X-25.15395 Y-73.60006 I25.51836 J67.9465
G3 X-25.08794 Y-73.6247 I8.70195 J23.21805
G3 X-4.42138 Y-77.41124 I21.07034 J56.70849
G3 X18.42946 Y-70.70751 I0.61716 J40.19371
G3 X19.15065 Y-70.21013 I-13.71418 J20.65728
G3 X32.85134 Y-54.06838 I-25.34776 J35.39976
G3 X33.0976 Y-53.57463 I-52.6274 J26.55644
G3 X37.69344 Y-58.54087 I42.24255 J34.48226
G3 X44.29391 Y-63.99441 I36.9499 J37.99974
G1 F300.0 X45.66816 Y-62.02681
G3 F800.0 X75.07929 Y-71.14185 I28.97519 J41.48568
G3 X97.93061 Y-66.12146 I0.47018 J52.37628
G3 X98.36121 Y-65.91229 I-9.5694 J20.24775
G3 X102.94205 Y-63.3254 I-22.95175 J45.992
G3 X124.65737 Y-71.90549 I21.42737 J22.46079
G3 X145.82561 Y-63.8346 I0.28755 J31.04116
G3 X158.44937 Y-70.77486 I19.98793 J21.40544
G3 X167.15459 Y-71.90289 I8.72165 J33.15295
G3 X186.78959 Y-65.30777 I0.40977 J31.30629
G3 X194.29865 Y-68.26501 I20.79094 J41.78046
G3 X194.31654 Y-68.27032 I6.3738 J21.46904
G3 X213.3482 Y-70.88396 I18.08799 J61.11278
G3 X213.89838 Y-70.86904 I-0.3316 J22.39274
G3 X227.81126 Y-68.22465 I-1.8851 J47.84001
G3 X228.17971 Y-68.10151 I-32.6052 J98.16612
G3 X238.59223 Y-70.83416 I12.37521 J25.9503
G3 X239.86463 Y-70.88494 I1.52886 J22.34295
G3 X255.39288 Y-66.93279 I0.35598 J31.08312
G3 X256.4787 Y-67.32755 I14.90822 J39.31611
G3 X279.40385 Y-71.20438 I22.3535 J62.46372
G3 X294.0633 Y-69.7874 I0.28873 J73.55166
G3 X310.00894 Y-64.06335 I-11.14548 J56.12039
G3 X325.66876 Y-49.85025 I-19.98737 J37.75528
G3 X326.07413 Y-49.21335 I-18.68762 J12.34171
G3 X331.6 Y-33.96977 I-34.41948 J21.1006
G1 Y-65.0
G2 X304.0 Y-92.6 I-27.6 J0.0
G1 X-27.6
G1 Y-70.02458
G3 X-24.31166 Y-71.35272 I27.91836 J64.3883
G3 X-24.25204 Y-71.37497 I7.85966 J20.97071
G3 X-4.3949 Y-75.01136 I20.23444 J54.45877
G3 X17.10203 Y-68.70803 I0.59067 J37.79383
G3 X17.75341 Y-68.2588 I-12.38674 J18.6578
G3 X30.70372 Y-52.99701 I-23.95052 J33.44842
G3 X32.57214 Y-48.89798 I-50.47978 J25.48507
G3 X39.35852 Y-56.81238 I42.76802 J29.80562
G3 X45.66816 Y-62.02681 I35.28483 J36.27125
G1 F300.0 X47.0424 Y-60.05921
G3 F800.0 X75.07972 Y-68.74175 I27.60094 J39.51808
G3 X96.90509 Y-63.9516 I0.46975 J49.97618
G3 X97.28955 Y-63.76484 I-8.54389 J18.07789
G3 X103.26977 Y-60.23017 I-21.88009 J43.84455
G3 X104.4568 Y-61.45252 I20.7785 J18.99073
G3 X104.50713 Y-61.50113 I13.91624 J14.35779
G3 X124.65736 Y-69.50538 I19.86229 J20.63652
G3 X144.74448 Y-61.56142 I0.28757 J28.64104
G3 X145.85463 Y-60.44403 I-19.38724 J20.37157
G3 X159.0564 Y-68.4529 I19.95892 J18.01487
G3 X167.1709 Y-69.50289 I8.11462 J30.83099
G3 X186.4911 Y-62.44853 I0.39346 J28.90629
G3 X194.9817 Y-65.96427 I21.08943 J38.92122
G3 X194.99767 Y-65.969 I5.69075 J19.16829
G3 X213.31266 Y-68.48422 I17.40685 J58.81146
G3 X213.80389 Y-68.47091 I-0.29606 J19.99301
G3 X227.03688 Y-65.95294 I-1.7906 J45.44187
G3 X228.35322 Y-65.50592 I-31.83081 J95.8944
G3 X238.75608 Y-68.43976 I12.2017 J23.35471
G3 X239.89211 Y-68.4851 I1.36502 J19.94855
G3 X255.18953 Y-64.2716 I0.3285 J28.68328
G3 X257.27747 Y-65.06434 I15.11157 J36.65491
G3 X279.39821 Y-68.80433 I21.55473 J60.20052
G3 X293.59509 Y-67.43351 I0.29437 J71.15162
G3 X308.87932 Y-61.9458 I-10.67727 J53.76651
G3 X323.66608 Y-48.52764 I-18.85775 J35.63773
G3 X324.02801 Y-47.959 I-16.68495 J11.0191
G3 X329.62176 Y-27.47542 I-32.37336 J19.84625
G3 X323.24422 Y-7.59925 I-35.18034 J-0.32686
G3 X323.18109 Y-7.50977 I-16.36973 J-11.48215
G3 X323.11467 Y-7.41642 I-37.83052 J-26.84562
G3 X326.82041 Y0.56441 I-22.78012 J15.42825
G3 X326.84631 Y0.65739 I-19.24873 J5.41245
G3 X328.41971 Y12.93672 I-42.20847 J11.64881
G3 X325.95123 Y25.37539 I-31.37547 J0.23775
G3 X325.77105 Y25.78919 I-18.42154 J-7.77528
G3 X313.38733 Y38.85537 I-24.86075 J-11.1607
G3 X313.06982 Y39.01533 I-9.15491 J-17.77627
G3 X302.08963 Y42.27615 I-15.03839 J-30.52167
G3 X294.81884 Y42.72493 I-7.00081 J-54.29966
G3 X281.20718 Y42.21023 I-0.61147 J-164.0726
G3 X265.06162 Y39.30577 I5.22825 J-75.39102
G3 X264.84101 Y39.23934 I5.65518 J-19.17882
G3 X250.74657 Y31.87358 I12.81918 J-41.69745
G3 X242.48874 Y36.27013 I-26.04675 J-38.969
G3 X233.20365 Y39.5304 I-27.40143 J-63.18607
G3 X221.04721 Y41.26268 I-12.8243 J-46.475
G3 X184.23979 Y28.65325 I-0.85321 J-57.5353
G3 X174.02308 Y37.77661 I-28.93123 J-22.11612
G3 X173.288 Y38.1961 I-10.27567 J-17.1528
G3 X153.52643 Y42.97665 I-18.86425 J-34.74504
G3 X139.86736 Y40.61724 I0.43432 J-43.23149
G3 X136.54849 Y42.22154 I-13.48974 J-23.67158
G3 X136.13799 Y42.38149 I-7.46431 J-18.54972
G3 X125.40274 Y44.31296 I-10.59984 J-28.11527
G3 X105.46157 Y36.61183 I-0.26042 J-28.99387
G3 X103.27175 Y34.36059 I18.77986 J-20.45823
G3 X100.25523 Y36.06707 I-23.53612 J-38.08499
G3 X99.85205 Y36.26926 I-9.16433 J-17.77141
G3 X79.73864 Y40.822 I-19.73733 J-40.49135
G3 X60.50542 Y37.58429 I-0.6219 J-55.05073
G3 X60.7986 Y41.41056 I-28.40728 J4.10102
G3 X46.1573 Y66.33235 I-27.5905 J0.55256
G3 X46.02601 Y66.40149 I-9.38258 J-17.65716
G3 X30.91498 Y70.80702 I-18.57313 J-35.58783
G3 X23.70383 Y71.16199 I-6.911 J-66.97104
G3 X23.53149 Y71.16048 I0.08914 J-19.995
G3 X10.57769 Y70.68071 I3.54025 J-270.70304
G3 X10.56633 Y70.68002 I1.21821 J-19.95806
G2 X-0.19364 Y70.27455 I-13.87247 J225.16701
G2 X-5.67413 Y70.38469 I1.88677 J230.29988
G3 X-12.5969 Y70.58887 I-8.87129 J-183.31922
G3 X-24.51425 Y68.94366 I-0.70756 J-38.85986
G3 X-30.0 Y66.66077 I7.76651 J-26.39534
G1 Y95.0
G1 X304.0
G2 X334.0 Y65.0 I0.0 J-30.0
G1 Y-65.0
G2 X304.0 Y-95.0 I-30.0 J0.0
G1 X-30.0
G1 Y-66.25789
G3 X-23.46937 Y-69.10538 I30.31836 J60.6216
G3 X-23.41614 Y-69.12524 I7.01738 J18.72337
G3 X-4.36829 Y-72.61148 I19.39854 J52.20904
G3 X15.77459 Y-66.70855 I0.56406 J35.39395
G3 X16.35617 Y-66.30746 I-11.05931 J16.65832
G3 X28.55605 Y-51.92572 I-22.55328 J31.49709
G3 X31.97727 Y-43.43733 I-48.33211 J24.41378
G3 X41.02359 Y-55.0839 I43.36288 J24.34497
G3 X47.0424 Y-60.05921 I33.61975 J34.54277
G1 F300.0 X48.41665 Y-58.09161
G3 F800.0 X75.08012 Y-66.34165 I26.2267 J37.55048
G3 X95.87958 Y-61.78173 I0.46935 J47.57608
G3 X96.21789 Y-61.61739 I-7.51838 J15.90802
G3 X103.66715 Y-56.97622 I-20.80843 J41.6971
G3 X106.12715 Y-59.72917 I20.38112 J15.73678
G3 X106.17144 Y-59.77195 I12.24589 J12.63444
G3 X124.65734 Y-67.10525 I18.19798 J18.90733
G3 X143.0877 Y-59.82503 I0.28758 J26.24091
G3 X145.8968 Y-56.67421 I-17.73045 J18.63518
G3 X159.6634 Y-66.13092 I19.91674 J14.24505
G3 X167.18727 Y-67.10289 I7.50762 J28.50901
G3 X185.44885 Y-60.16368 I0.37709 J26.50629
G3 X186.15466 Y-59.4972 I-17.01211 J18.72292
G3 X195.66475 Y-63.66352 I21.42587 J35.96988
G3 X195.67881 Y-63.66768 I5.0077 J16.86754
G3 X213.27713 Y-66.08448 I16.72571 J56.51014
G3 X213.70939 Y-66.07277 I-0.26053 J17.59327
G3 X226.26222 Y-63.68131 I-1.6961 J43.04373
G3 X228.56703 Y-62.88501 I-31.05615 J93.62278
G3 X228.79883 Y-63.01716 I26.06259 J45.44626
G3 X228.94452 Y-63.09882 I8.67542 J15.30778
G3 X238.91992 Y-66.04536 I11.6104 J20.94761
G3 X239.9196 Y-66.08526 I1.20118 J17.55415
G3 X254.96628 Y-61.5613 I0.30101 J26.28344
G3 X258.07611 Y-62.8011 I15.33481 J33.94461
G3 X279.39254 Y-66.40429 I20.75609 J57.93727
G3 X293.12689 Y-65.07963 I0.30004 J68.75157
G3 X307.74975 Y-59.82822 I-10.20907 J51.41262
G3 X321.66341 Y-47.20503 I-17.72819 J33.52014
G3 X321.98189 Y-46.70464 I-14.68227 J9.69649
G3 X327.22195 Y-27.50669 I-30.32725 J18.59189
G3 X321.27938 Y-8.97744 I-32.78053 J-0.29558
G3 X321.22383 Y-8.8987 I-14.40489 J-10.10396
G3 X320.13695 Y-7.43251 I-35.87326 J-25.45669
G3 X324.51001 Y1.21406 I-19.80239 J15.44434
G3 X324.5328 Y1.29588 I-16.93832 J4.7628
G3 X326.01957 Y12.92868 I-39.89496 J11.01032
G3 X323.74012 Y24.44214 I-28.97533 J0.24578
G3 X323.58157 Y24.80626 I-16.21042 J-6.84202
G3 X312.28848 Y36.7217 I-22.67126 J-10.17778
G3 X312.00908 Y36.86247 I-8.05606 J-15.6426
G3 X301.79312 Y39.89452 I-13.97765 J-28.36881
G3 X294.82037 Y40.32491 I-6.70431 J-51.91802
G3 X281.38523 Y39.81682 I-0.61299 J-161.67258
G3 X265.7404 Y37.00376 I5.0502 J-72.9976
G3 X265.54628 Y36.9453 I4.97639 J-16.87681
G3 X252.00463 Y29.80902 I12.11392 J-39.40341
G3 X251.83773 Y29.67465 I10.95043 J-13.77241
G3 X250.87465 Y28.85827 I20.75133 J-25.45645
G3 X241.55588 Y34.05871 I-26.17482 J-35.95368
G3 X232.56878 Y37.21589 I-26.46858 J-60.97465
G3 X221.0128 Y38.86293 I-12.18944 J-44.16049
G3 X183.78652 Y25.14108 I-0.8188 J-55.13555
G3 X172.78971 Y35.71778 I-28.47796 J-18.60395
G3 X172.14286 Y36.08692 I-9.04229 J-15.09397
G3 X153.56574 Y40.57692 I-17.71911 J-32.63586
G3 X139.61026 Y37.9741 I0.39501 J-40.83176
G3 X135.65256 Y39.99504 I-13.23264 J-21.02845
G3 X135.29133 Y40.13579 I-6.56837 J-16.32322
G3 X125.39735 Y41.91291 I-9.75318 J-25.86958
G3 X107.08758 Y34.84657 I-0.25504 J-26.59381
G3 X103.78449 Y31.1601 I17.15385 J-18.69297
G3 X99.15525 Y33.93399 I-24.04885 J-34.8845
G3 X98.80046 Y34.11191 I-8.06435 J-15.63833
G3 X79.73516 Y38.42188 I-18.68574 J-38.334
G3 X57.41683 Y33.74609 I-0.61843 J-52.65061
G3 X57.13074 Y33.61359 I7.25135 J-16.0315
G3 X58.39883 Y41.44608 I-25.03259 J8.07172
G3 X45.03112 Y64.21298 I-25.19073 J0.51703
G3 X44.91559 Y64.27382 I-8.2564 J-15.53779
G3 X30.68841 Y68.41765 I-17.46271 J-33.46016
G3 X23.71453 Y68.76202 I-6.68444 J-64.58167
G3 X23.56288 Y68.76069 I0.07844 J-17.59503
G3 X10.72391 Y68.28517 I3.50887 J-268.30324
G3 X10.71391 Y68.28456 I1.07199 J-17.56251
G2 X-0.18692 Y67.87442 I-14.02006 J227.56246
G2 X-5.77065 Y67.98655 I1.88005 J232.70001
G3 X-12.63161 Y68.18911 I-8.77478 J-180.92108
G3 X-23.82946 Y66.64341 I-0.67286 J-36.4601
G3 X-32.4 Y62.18836 I7.08172 J-24.0951
G1 Y97.4
G1 X304.0
G2 X336.4 Y65.0 I0.0 J-32.4
G1 Y-65.0
G2 X304.0 Y-97.4 I-32.4 J0.0
G1 X-32.4
G1 Y-62.2411
G3 X-22.62709 Y-66.85803 I32.71836 J56.60481
G3 X-22.58025 Y-66.87551 I6.17509 J16.47602
G3 X-4.34153 Y-70.2116 I18.56264 J49.95931
G3 X14.44716 Y-64.70907 I0.53731 J32.99407
G3 X14.95893 Y-64.35612 I-9.73187 J14.65885
G3 X26.40833 Y-50.85453 I-21.15604 J29.54575
G3 X29.79261 Y-42.37199 I-46.18439 J23.34258
G3 X29.81634 Y-42.29213 I-16.85413 J5.05265
G3 X31.35975 Y-36.57949 I-125.29598 J36.91648
G3 X42.68868 Y-53.35542 I43.98041 J17.48713
G3 X48.41665 Y-58.09161 I31.95466 J32.81429
G1 F300.0 X49.7909 Y-56.12401
G3 F800.0 X75.0805 Y-63.94153 I24.85245 J35.58288
G3 X94.85407 Y-59.61186 I0.46897 J45.17596
G3 X95.14623 Y-59.46994 I-6.49287 J13.73815
G3 X104.1681 Y-53.48598 I-19.73677 J39.54964
G3 X107.7975 Y-58.00582 I19.88016 J12.24654
G3 X107.83575 Y-58.04276 I10.57554 J10.91109
G3 X124.65733 Y-64.70509 I16.53367 J17.17815
G3 X141.43091 Y-58.08863 I0.2876 J23.84075
G3 X145.9722 Y-52.09651 I-16.07366 J16.89878
G3 X147.37265 Y-54.57809 I22.59525 J11.11538
G3 X147.70167 Y-55.06965 I12.78963 J8.20484
G3 X160.27037 Y-63.80894 I18.11187 J12.64049
G3 X167.20373 Y-64.70287 I6.90065 J26.18703
G3 X183.83228 Y-58.38978 I0.36064 J24.10627
G3 X185.75976 Y-56.41424 I-15.39554 J16.94902
G3 X196.34781 Y-61.36277 I21.82077 J32.88692
G3 X196.35995 Y-61.36637 I4.32464 J14.5668
G3 X213.24159 Y-63.68475 I16.04458 J54.20883
G3 X213.61489 Y-63.67463 I-0.22499 J15.19353
G3 X225.48726 Y-61.40978 I-1.60161 J40.64559
G3 X228.80669 Y-60.24167 I-30.28119 J91.35124
G3 X229.98216 Y-60.92917 I25.82293 J42.80292
G3 X230.10798 Y-60.99969 I7.49209 J13.21978
G3 X239.08376 Y-63.65096 I10.44694 J18.84848
G3 X239.94708 Y-63.68541 I1.03733 J15.15975
G3 X254.71643 Y-58.78529 I0.27353 J23.8836
G3 X258.87462 Y-60.5378 I15.58467 J31.16861
G3 X279.38683 Y-64.00424 I19.95758 J55.67397
G3 X292.65868 Y-62.72574 I0.30575 J66.35152
G3 X306.62026 Y-57.7106 I-9.74087 J49.05873
G3 X319.66073 Y-45.88242 I-16.59869 J31.40253
G3 X319.93578 Y-45.45028 I-12.6796 J8.37388
G3 X324.82213 Y-27.53794 I-28.28113 J17.33754
G3 X319.31454 Y-10.35563 I-30.38071 J-0.26433
G3 X319.26656 Y-10.28763 I-12.44005 J-8.72578
G3 X317.01935 Y-7.39913 I-33.916 J-24.06777
G3 X322.19961 Y1.86371 I-16.6848 J15.41096
G3 X322.21929 Y1.93437 I-14.62792 J4.11315
G3 X323.61941 Y12.921 I-37.58145 J10.37183
G3 X321.529 Y23.50888 I-26.57517 J0.25347
G3 X321.39208 Y23.82334 I-13.99931 J-5.90876
G3 X311.18963 Y34.58804 I-20.48177 J-9.19485
G3 X310.94833 Y34.70961 I-6.9572 J-13.50894
G3 X301.49679 Y37.51285 I-12.91691 J-26.21594
G3 X294.82206 Y37.92489 I-6.40797 J-49.53636
G3 X281.56317 Y37.42339 I-0.61468 J-159.27255
G3 X266.41919 Y34.70175 I4.87226 J-70.60417
G3 X266.25154 Y34.65126 I4.29761 J-14.5748
G3 X253.49828 Y27.93045 I11.40866 J-37.10938
G3 X253.35415 Y27.81441 I9.45678 J-11.89384
G3 X251.02001 Y25.70166 I19.23492 J-23.59621
G3 X250.03396 Y26.49362 I-16.86903 J-19.99331
G3 X249.91473 Y26.58381 I-9.22606 J-12.07368
G3 X240.62323 Y31.84719 I-25.2149 J-33.67922
G3 X231.93389 Y34.90139 I-25.53592 J-58.76314
G3 X220.97839 Y36.46318 I-11.55454 J-41.84599
G3 X183.23709 Y21.35538 I-0.78439 J-52.7358
G3 X171.55633 Y33.65895 I-27.92854 J-14.81825
G3 X170.99771 Y33.97774 I-7.80892 J-13.03514
G3 X153.6051 Y38.17719 I-16.57396 J-30.52667
G3 X139.32269 Y35.2821 I0.35565 J-38.43203
G3 X134.75663 Y37.76853 I-12.94507 J-18.33644
G3 X134.44467 Y37.89009 I-5.67244 J-14.09672
G3 X125.39194 Y39.51284 I-8.90652 J-23.62388
G3 X108.71358 Y33.08131 I-0.24962 J-24.19375
G3 X104.40024 Y27.72896 I15.52785 J-16.92771
G3 X98.05527 Y31.80091 I-24.66461 J-31.45335
G3 X97.74887 Y31.95456 I-6.96436 J-13.50525
G3 X79.73182 Y36.02175 I-17.63415 J-36.17665
G3 X58.40592 Y31.55938 I-0.61508 J-50.25048
G3 X58.11136 Y31.42234 I6.26226 J-13.84479
G3 X51.24728 Y27.38127 I20.02442 J-41.86325
G3 X55.99905 Y41.48164 I-19.14913 J14.30404
G3 X43.90494 Y62.09361 I-22.79095 J0.48148
G3 X43.80517 Y62.14616 I-7.13022 J-13.41842
G3 X30.46213 Y66.02825 I-16.35229 J-31.3325
G3 X23.72523 Y66.36204 I-6.45815 J-62.19227
G3 X23.59426 Y66.36089 I0.06774 J-15.19505
G3 X10.87013 Y65.88963 I3.47748 J-265.90345
G3 X10.8615 Y65.8891 I0.92577 J-15.16697
G2 X-0.1802 Y65.47429 I-14.16764 J229.95792
G2 X-5.86739 Y65.58842 I1.87332 J235.10014
G3 X-12.66656 Y65.78934 I-8.67804 J-178.52295
G3 X-23.1448 Y64.34313 I-0.63791 J-34.06033
G3 X-34.8 Y56.33426 I6.39706 J-21.79481
G1 Y99.8
G1 X304.0
G2 X338.8 Y65.0 I0.0 J-34.8
G1 Y-65.0
G2 X304.0 Y-99.8 I-34.8 J0.0
G1 X-34.8
G1 Y-57.9166
G3 X-21.7848 Y-64.61069 I35.11836 J52.28031
G3 X-21.74435 Y-64.62579 I5.3328 J14.22868
G3 X-4.31461 Y-67.81172 I17.72674 J47.70958
G3 X13.11972 Y-62.70959 I0.51039 J30.59419
G3 X13.56169 Y-62.40479 I-8.40444 J12.65937
G3 X24.26055 Y-49.78344 I-19.7588 J27.59441
G3 X27.49369 Y-41.6828 I-44.03661 J22.2715
G3 X27.51419 Y-41.61384 I-14.55521 J4.36346
G3 X30.96676 Y-26.63584 I-122.99382 J36.23819
G3 X33.43029 Y-35.28418 I52.1214 J10.17202
G3 X33.48311 Y-35.42154 I14.20893 J5.38519
G3 X44.35378 Y-51.62695 I41.85705 J16.32918
G3 X49.7909 Y-56.12401 I30.28956 J31.08582
G0 Z3.0
G0 X55.28788 Y-48.25361
G0 Z1.0
G1 F300.0 Z-2.5
G3 F800.0 X75.08171 Y-54.34089 I19.35546 J27.71248
G3 X90.75201 Y-50.93239 I0.46776 J35.57532
G3 X90.8596 Y-50.88013 I-2.39081 J5.05868
G3 X103.24168 Y-40.47719 I-15.45013 J30.95984
G3 X109.56555 Y-28.63915 I-34.38968 J25.97905
G3 X109.54118 Y-29.99831 I243.81469 J-5.05076
G3 X109.54241 Y-30.22742 I5.59456 J-0.0847
G3 X109.9574 Y-36.17566 I68.00237 J1.75576
G1 X109.95745 Y-36.17613
G2 X110.30061 Y-41.01466 I-56.35055 J-6.42793
G3 X114.4789 Y-51.11243 I13.74765 J-0.22478
G3 X114.49299 Y-51.12603 I3.89414 J4.0177
G3 X124.65726 Y-55.10392 I9.87644 J10.26142
G3 X134.80381 Y-51.14299 I0.28766 J14.23958
G3 X139.07744 Y-40.94722 I-9.44656 J9.95314
G2 X139.41491 Y-36.16167 I56.81206 J-1.60162
G3 X139.89861 Y-30.11478 I-58.47035 J7.71993
G3 X139.90086 Y-29.96367 I-5.59295 J0.15872
G2 X140.17801 Y-24.91612 I47.27425 J-0.06432
G3 X140.68839 Y-19.43032 I-70.27306 J9.30469
G2 X143.53054 Y-11.56483 I57.56434 J-16.35427
G3 X143.5341 Y-11.55676 I-5.11646 J2.26452
G2 X147.82803 Y-4.13361 I35.96263 J-15.84913
G3 X147.8556 Y-4.09576 I-4.5087 J3.31329
G2 X150.93244 Y-0.78698 I14.84271 J-10.71728
G2 X150.88006 Y-1.59979 I-41.04197 J2.23665
G3 X150.74042 Y-4.04768 I57.75106 J-4.52231
G3 X150.73793 Y-4.13694 I5.59161 J-0.20037
G2 X150.49662 Y-9.50629 I-107.25085 J2.13016
G3 X150.49064 Y-9.6037 I5.58151 J-0.39117
G3 X150.29311 Y-15.46371 I155.48003 J-8.17423
G3 X150.29256 Y-15.57407 I5.59458 J-0.08317
G3 X151.29712 Y-29.4512 I103.28683 J0.50198
G1 X153.0559 Y-42.45357
G3 X155.45286 Y-49.39444 I15.51155 J1.47244
G3 X155.57401 Y-49.57545 I4.70942 J3.0212
G3 X162.69756 Y-54.52081 I10.23953 J7.14629
G3 X167.2711 Y-55.1026 I4.47346 J16.8989
G3 X177.36611 Y-51.29408 I0.29327 J14.50601
G3 X181.73029 Y-41.11986 I-8.92937 J9.85332
G3 X181.72987 Y-41.10342 I-5.59357 J-0.13503
G3 X181.58733 Y-37.99373 I-83.07171 J-2.24965
G3 X185.87219 Y-44.03791 I28.47913 J15.64859
G3 X185.99426 Y-44.16974 I4.1659 J3.73518
G3 X199.08002 Y-52.15978 I21.58627 J20.64243
G3 X199.08449 Y-52.16111 I1.59243 J5.36381
G3 X213.09945 Y-54.0858 I13.32003 J45.00357
G3 X213.2369 Y-54.08207 I-0.08285 J5.59459
G3 X222.38347 Y-52.3249 I-1.22362 J31.05303
G3 X229.9629 Y-49.42054 I-27.17741 J82.26636
G3 X234.7155 Y-52.57719 I24.66672 J31.98179
G3 X234.76183 Y-52.60316 I2.75875 J4.86781
G3 X239.73912 Y-54.07336 I5.79309 J10.45195
G3 X240.05702 Y-54.08604 I0.38197 J5.58215
G3 X249.62504 Y-50.55461 I0.16359 J14.28423
G3 X253.10045 Y-46.0756 I-7.78951 J9.63198
G3 X253.80236 Y-46.72786 I10.23407 J10.30931
G3 X253.8219 Y-46.74477 I3.67153 J4.2221
G3 X262.0667 Y-51.48387 I16.4792 J19.12809
G3 X279.36358 Y-54.40399 I16.7655 J46.62004
G3 X290.78593 Y-53.31018 I0.329 J56.75127
G3 X302.10321 Y-49.23959 I-7.86811 J39.64317
G3 X311.65004 Y-40.59198 I-12.08164 J22.93152
G3 X311.75131 Y-40.43286 I-4.6689 J3.08344
G3 X315.22281 Y-27.66249 I-20.09667 J12.32011
G3 X311.45518 Y-15.86838 I-20.78139 J-0.13979
G3 X311.43751 Y-15.84334 I-4.5807 J-3.21302
G3 X303.61933 Y-8.0975 I-26.08695 J-18.51205
G3 X303.56291 Y-8.05875 I-3.1955 J-4.59293
G3 X294.58939 Y-2.84639 I-41.97774 J-61.93764
G3 X285.73673 Y1.41268 I-111.08705 J-219.56941
G3 X285.64449 Y1.45381 I-2.32462 J-5.08944
G2 X285.55072 Y1.49476 I15.7593 J36.21873
G2 X289.45609 Y1.58276 I3.3524 J-62.07608
G3 X289.51495 Y1.58254 I0.04977 J5.59498
G2 X290.85803 Y1.54795 I0.03986 J-24.54051
G3 X294.38325 Y-2.04125 I10.12122 J6.41503
G3 X294.69982 Y-2.23521 I3.07986 J4.67126
G3 X302.30441 Y-4.13213 I7.20181 J12.67993
G3 X309.55325 Y-1.30895 I0.11155 J10.43128
G3 X309.73712 Y-1.12832 I-3.82813 J4.08065
G3 X312.958 Y4.46231 I-9.40257 J9.14015
G3 X312.96525 Y4.48833 I-5.38632 J1.51455
G3 X314.01833 Y12.8961 I-28.32741 J7.81787
G3 X312.68454 Y19.77585 I-16.97409 J0.27836
G3 X312.63412 Y19.89164 I-5.15485 J-2.17573
G3 X306.79421 Y26.05338 I-11.72382 J-5.26316
G3 X306.70537 Y26.09815 I-2.56179 J-4.97428
G3 X300.31396 Y27.98584 I-8.67394 J-17.60448
G3 X294.83084 Y28.32477 I-5.22515 J-40.00935
G3 X282.27364 Y27.84957 I-0.62346 J-149.67244
G3 X269.13432 Y25.49371 I4.16178 J-61.03035
G3 X269.07259 Y25.47512 I1.58247 J-5.36675
G3 X259.47287 Y20.41618 I8.58761 J-27.93323
G3 X259.4198 Y20.37345 I3.48219 J-4.37957
G3 X252.69711 Y10.4417 I13.16927 J-16.15525
G3 X252.68473 Y10.40158 I5.33995 J-1.67068
G3 X251.60094 Y2.91553 I23.90344 J-7.28206
G3 X254.98758 Y-8.86325 I21.81922 J-0.10279
G3 X255.03835 Y-8.94193 I4.7267 J2.99409
G3 X263.02207 Y-17.01463 I24.0612 J15.81179
G3 X263.19249 Y-17.12491 I3.12441 J4.64159
G3 X272.02815 Y-21.87039 I41.84284 J67.30931
G3 X280.65337 Y-25.81094 I139.96192 J294.94393
G3 X280.67831 Y-25.82182 I2.25093 J5.12246
G2 X283.56393 Y-27.21224 I-15.99049 J-36.87561
G2 X279.03729 Y-27.47254 I-4.0848 J31.54585
G2 X275.99357 Y-27.03082 I0.47903 J14.00816
G3 X275.92381 Y-27.01318 I-1.40625 J-5.4156
G2 X272.19227 Y-25.9254 I10.93752 J44.46458
G3 X267.62425 Y-24.58752 I-18.45761 J-54.55358
G3 X262.14149 Y-23.79261 I-6.30711 J-24.19647
G3 X262.10235 Y-23.79145 I-0.18446 J-5.59216
G3 X255.9537 Y-24.78876 I-0.43563 J-16.76701
G3 X255.93996 Y-24.79375 I1.90581 J-5.26062
G3 X250.12902 Y-29.89703 I3.66414 J-10.03224
G2 X248.52203 Y-26.2543 I226.38677 J102.04598
G2 X247.39071 Y-19.20549 I32.8114 J8.88139
G3 X247.38529 Y-19.11788 I-5.58706 J-0.30165
G2 X247.11273 Y-10.80877 I112.59826 J7.85249
G3 X247.11271 Y-10.75899 I-5.59515 J0.02264
G2 X247.41131 Y-2.35959 I104.08244 J0.50483
G2 X248.05826 Y2.02614 I38.46345 J-3.43321
G3 X249.90544 Y8.44393 I-9.72461 J6.27368
G3 X247.91847 Y14.90935 I-11.86072 J-0.10704
G3 X247.90982 Y14.9223 I-4.65767 J-3.10038
G3 X244.20514 Y18.86573 I-13.75884 J-9.21394
G3 X244.16123 Y18.89894 I-3.39724 J-4.44579
G3 X236.89533 Y22.99981 I-19.46141 J-25.99435
G3 X229.39389 Y25.64348 I-21.80802 J-49.91575
G3 X220.84083 Y26.86416 I-9.01454 J-32.58809
G3 X189.85228 Y14.39626 I-0.64683 J-43.13678
G3 X178.96652 Y-2.37757 I27.52697 J-29.78347
G3 X178.47999 Y3.64074 I-90.30728 J-4.27172
G3 X175.59388 Y15.09346 I-40.52614 J-4.12267
G3 X175.57412 Y15.14059 I-5.17005 J-2.13936
G3 X166.62283 Y25.42363 I-20.26557 J-8.60346
G3 X166.41713 Y25.54101 I-2.87541 J-4.79982
G3 X153.76327 Y28.57816 I-11.99338 J-22.08995
G3 X140.52471 Y25.25699 I0.19748 J-28.833
G3 X140.50193 Y25.24493 I2.60728 J-4.95059
G3 X137.45492 Y23.4495 I19.28415 J-36.21039
G3 X131.1729 Y28.86253 I-11.0773 J-6.50384
G3 X131.05803 Y28.90729 I-2.08872 J-5.19072
G3 X125.36969 Y29.91236 I-5.51989 J-14.64108
G3 X115.21745 Y26.02013 I-0.22737 J-14.59327
G3 X110.87446 Y15.83013 I9.02398 J-9.86653
G3 X111.07218 Y9.9218 I142.83697 J1.82251
G3 X111.0785 Y9.82175 I5.587 J0.30281
G2 X111.31719 Y4.44574 I-96.91655 J-6.99628
G2 X111.1551 Y-1.34747 I-232.7011 J3.61211
G3 X110.50728 Y1.34498 I-48.54965 J-10.25715
G3 X110.50218 Y1.3637 I-5.40131 J-1.46017
G3 X104.43594 Y13.94688 I-37.27269 J-10.21502
G3 X93.65533 Y23.26859 I-24.7003 J-17.67128
G3 X93.54251 Y23.32516 I-2.56443 J-4.97292
G3 X79.72031 Y26.42103 I-13.42779 J-27.54725
G3 X62.36228 Y22.81254 I-0.60358 J-40.64976
G3 X62.25381 Y22.76208 I2.3059 J-5.09795
G3 X48.35914 Y11.19302 I15.88196 J-33.20299
G3 X39.59171 Y-17.31164 I35.58847 J-26.54692
G3 X42.40718 Y-31.88193 I43.49644 J0.84782
G3 X42.42663 Y-31.93251 I5.23204 J1.98294
G3 X51.01432 Y-44.71312 I32.91352 J12.84015
G3 X55.28788 Y-48.25361 I23.62902 J24.17199
G1 F300.0 X56.65938 Y-46.28995
G3 F800.0 X75.0819 Y-51.94547 I17.98396 J25.74882
G3 X89.72855 Y-48.76687 I0.46757 J33.1799
G3 X89.79008 Y-48.73698 I-1.36735 J2.89316
G3 X101.32269 Y-39.0438 I-14.38062 J28.81668
G3 X107.85828 Y-26.13192 I-32.47069 J24.54566
G3 X107.86315 Y-26.11544 I-3.06651 J0.9146
G3 X109.82999 Y-11.99301 I-47.00257 J13.74427
G3 X108.19508 Y0.71991 I-47.22455 J0.38838
G3 X108.19216 Y0.73062 I-3.08911 J-0.8351
G3 X102.49483 Y12.54359 I-34.96268 J-9.58193
G3 X92.55755 Y21.13977 I-22.75919 J-16.26799
G3 X92.49302 Y21.17213 I-1.46665 J-2.84411
G3 X79.71812 Y24.02559 I-12.3783 J-25.39422
G3 X63.34939 Y20.6302 I-0.60138 J-38.25432
G3 X63.28736 Y20.60134 I1.31879 J-2.91561
G3 X50.28807 Y9.773 I14.84842 J-31.04226
G3 X41.98589 Y-17.2355 I33.65954 J-25.1269
G3 X44.64692 Y-31.03307 I41.10226 J0.77167
G3 X44.65804 Y-31.062 I2.9923 J1.13408
G3 X52.67618 Y-42.98814 I30.68211 J11.96964
G3 X56.65938 Y-46.28995 I21.96716 J22.44701
G0 Z3.0
G0 X112.72573 Y-42.08802
G0 Z1.0
G1 F300.0 Z-2.5
G3 F800.0 X116.14591 Y-49.39252 I11.32254 J0.84858
G3 X116.15397 Y-49.4003 I2.22713 J2.2978
G3 X124.65725 Y-52.70813 I8.21546 J8.53569
G3 X133.15037 Y-49.41003 I0.28768 J11.84379
G3 X136.68158 Y-40.93784 I-7.79312 J8.22018
G2 X137.03745 Y-35.86984 I59.20792 J-1.611
G3 X137.50438 Y-30.04683 I-56.09289 J7.4281
G3 X137.50566 Y-29.96041 I-3.19871 J0.09078
G2 X137.79994 Y-24.6288 I49.66944 J-0.06758
G3 X138.31034 Y-19.03851 I-67.89499 J9.01737
G2 X141.34028 Y-10.59543 I59.94239 J-16.74608
G3 X141.34231 Y-10.59081 I-2.9262 J1.29512
G2 X145.89794 Y-2.71525 I38.15441 J-16.81508
G3 X145.91371 Y-2.6936 I-2.57861 J1.89493
G2 X149.83673 Y1.40988 I16.7846 J-12.11944
G3 X149.87967 Y1.44453 I-1.988 J2.50756
G2 X153.21957 Y2.94507 I4.43095 J-5.3952
G2 X153.38666 Y1.02488 I-8.77148 J-1.73061
G3 X153.38612 Y0.99079 I3.19928 J-0.06785
G2 X153.2683 Y-1.78225 I-43.49565 J0.45888
G3 X153.13408 Y-4.13345 I55.36281 J-4.33985
G3 X153.13266 Y-4.1845 I3.19795 J-0.11459
G2 X152.88595 Y-9.67375 I-109.64558 J2.17773
G3 X152.88254 Y-9.72946 I3.19217 J-0.22372
G3 X152.68805 Y-15.49931 I153.08814 J-8.04848
G3 X152.68773 Y-15.56243 I3.19965 J-0.04756
G3 X153.66986 Y-29.12391 I100.89166 J0.49034
G1 X155.43614 Y-42.18173
G3 X157.46887 Y-48.10112 I13.13131 J1.2006
G3 X157.53816 Y-48.20464 I2.6934 J1.72788
G3 X163.30277 Y-52.20331 I8.27538 J5.77549
G3 X167.28871 Y-52.70723 I3.86825 J14.5814
G3 X175.75286 Y-49.52363 I0.27566 J12.11063
G3 X179.33579 Y-41.17766 I-7.31612 J8.08288
G3 X179.33555 Y-41.16826 I-3.19907 J-0.07722
G3 X177.88416 Y-27.96296 I-80.67739 J-2.18481
G2 X176.60751 Y-15.7715 I76.6649 J14.19065
G2 X176.66979 Y-11.75114 I240.29714 J-1.71192
G3 X176.6707 Y-11.6748 I-3.19909 J0.07633
G1 Y-7.17766
G3 X176.09861 Y3.38335 I-88.01146 J0.52838
G3 X173.38068 Y14.17764 I-38.14476 J-3.86527
G3 X173.36938 Y14.20459 I-2.95685 J-1.22354
G3 X165.39192 Y23.36892 I-18.06082 J-7.66747
G3 X165.27428 Y23.43605 I-1.6445 J-2.74511
G3 X153.80303 Y26.18316 I-10.85052 J-19.98499
G3 X141.64084 Y23.13774 I0.15772 J-26.438
G3 X141.62781 Y23.13084 I1.49115 J-2.83134
G3 X136.4567 Y19.82448 I18.15827 J-34.0963
G3 X135.99983 Y21.02259 I-17.47029 J-5.97571
G3 X135.99672 Y21.02995 I-2.9486 J-1.2433
G3 X130.27876 Y26.64048 I-9.6191 J-4.0843
G3 X130.21306 Y26.66608 I-1.19458 J-2.96867
G3 X125.36382 Y27.51692 I-4.67492 J-12.39987
G3 X116.84009 Y24.25828 I-0.2215 J-12.19783
G3 X113.26928 Y15.875 I7.40134 J-8.10468
G3 X113.46387 Y10.05143 I140.44215 J1.77764
G3 X113.46749 Y9.99421 I3.19531 J0.17318
G2 X113.71269 Y4.44698 I-99.30553 J-7.16873
G2 X112.83671 Y-12.53708 I-235.0966 J3.61086
G1 Y-12.53709
G1 X112.83672 Y-12.53706
G1 X112.83671 Y-12.53708
G3 X111.93611 Y-30.03457 I240.54352 J-21.15283
G3 X111.93681 Y-30.1656 I3.19963 J-0.04844
G3 X112.33719 Y-35.9044 I65.60797 J1.69393
G1 X112.33722 Y-35.90467
G2 X112.69642 Y-41.00376 I-58.73032 J-6.69939
G3 X112.72573 Y-42.08802 I11.35184 J-0.23568
G0 Z3.0
G0 X180.39806 Y-27.64347
G0 Z1.0
G1 F300.0 Z-2.5
G3 F800.0 X180.83778 Y-29.53507 I52.4423 J11.19372
G3 X187.65553 Y-42.43895 I29.22869 J7.18993
G3 X187.72535 Y-42.51435 I2.38256 J2.13622
G3 X199.76171 Y-49.86364 I19.85518 J18.98703
G3 X199.76427 Y-49.86439 I0.91074 J3.06766
G3 X213.06398 Y-51.69086 I12.64025 J42.70685
G3 X213.1426 Y-51.68873 I-0.04738 J3.19965
G3 X221.60777 Y-50.05863 I-1.12931 J28.65969
G3 X230.31849 Y-46.63649 I-26.40171 J80.0001
G3 X235.89647 Y-50.49338 I24.31113 J29.19774
G3 X235.92297 Y-50.50823 I1.57778 J2.78399
G3 X239.90264 Y-51.68375 I4.63195 J8.35702
G3 X240.08445 Y-51.691 I0.21846 J3.19253
G3 X248.08318 Y-48.72096 I0.13616 J11.88918
G3 X251.82652 Y-40.75774 I-6.24766 J7.79833
G3 X251.77064 Y-40.21288 I-3.19956 J-0.05281
G3 X251.09871 Y-38.00341 I-10.58703 J-2.01278
G3 X250.44346 Y-36.41782 I-51.91434 J-20.52569
G3 X250.44181 Y-36.41401 I-2.93829 J-1.26747
G3 X249.05825 Y-33.31541 I-136.55086 J-59.11307
G3 X249.05453 Y-33.30735 I-2.90689 J-1.33791
G2 X246.25594 Y-27.04812 I227.46126 J105.45629
G2 X244.99899 Y-19.33462 I35.07749 J9.67521
G3 X244.99589 Y-19.28452 I-3.19535 J-0.17252
G2 X244.71755 Y-10.79908 I114.98766 J8.01912
G3 X244.71754 Y-10.77061 I-3.19997 J0.01295
G2 X245.02419 Y-2.16242 I106.47762 J0.51645
G2 X245.81269 Y2.98096 I40.85057 J-3.63038
G3 X247.51037 Y8.4182 I-7.47904 J5.31885
G3 X245.9246 Y13.58213 I-9.46566 J-0.08132
G3 X245.91966 Y13.58954 I-2.66381 J-1.77317
G3 X242.75084 Y16.96257 I-11.76868 J-7.88119
G3 X242.72573 Y16.98156 I-1.94294 J-2.54263
G3 X235.96614 Y20.79193 I-18.02591 J-24.07697
G3 X228.76002 Y23.33367 I-20.87884 J-47.70788
G3 X220.80654 Y24.4692 I-8.38068 J-30.27828
G3 X191.50788 Y12.66486 I-0.61253 J-40.74183
G3 X179.22067 Y-15.79886 I25.87137 J-28.05207
G3 X180.39806 Y-27.64347 I53.61969 J-0.65088
G0 Z3.0
G0 X251.25245 Y-34.54474
G0 Z1.0
G1 F300.0 Z-2.5
G3 F800.0 X251.20326 Y-35.75711 I10.68528 J-1.04075
G3 X255.37407 Y-44.92046 I12.13126 J-0.00918
G3 X255.38525 Y-44.93013 I2.09982 J2.4147
G3 X262.86241 Y-49.22464 I14.91585 J17.31345
G3 X279.35765 Y-52.00871 I15.96979 J44.36082
G3 X290.31869 Y-50.96099 I0.33493 J54.356
G3 X300.97655 Y-47.12588 I-7.40088 J37.29399
G3 X309.65137 Y-39.27202 I-10.95498 J20.81781
G3 X309.70929 Y-39.18101 I-2.67023 J1.76348
G3 X312.82776 Y-27.69336 I-18.05464 J11.06826
G3 X309.49427 Y-17.24382 I-18.38634 J-0.10891
G3 X309.48417 Y-17.2295 I-2.61979 J-1.83759
G3 X302.2514 Y-10.06365 I-24.1336 J-17.1259
G3 X302.21913 Y-10.04149 I-1.82757 J-2.62678
G3 X293.52051 Y-4.98991 I-40.63396 J-59.95491
G3 X284.7416 Y-0.76601 I-110.01817 J-217.42589
G3 X284.68885 Y-0.74249 I-1.32949 J-2.91075
G2 X278.47794 Y2.60818 I16.71494 J38.41503
G2 X278.17149 Y2.82694 I3.55838 J5.30879
G2 X278.22242 Y2.84329 I1.22287 J-3.72184
G2 X281.74865 Y3.58278 I5.58191 J-17.84006
G3 X281.75123 Y3.58306 I-0.35191 J3.18059
G2 X289.4774 Y3.97786 I7.15188 J-64.16438
G3 X289.51106 Y3.97774 I0.02846 J3.19987
G2 X292.32569 Y3.83487 I0.04375 J-26.9357
G3 X295.70169 Y-0.04157 I8.65356 J4.1281
G3 X295.88274 Y-0.1525 I1.76143 J2.67158
G3 X302.28506 Y-1.73646 I6.01889 J10.59722
G3 X307.9145 Y0.4379 I0.1309 J8.03561
G3 X308.01966 Y0.54121 I-2.18938 J2.3338
G3 X310.65222 Y5.11066 I-7.68511 J7.47062
G3 X310.65637 Y5.12554 I-3.08054 J0.8662
G3 X311.62269 Y12.89243 I-26.01852 J7.18066
G3 X310.47785 Y18.84446 I-14.57845 J0.28203
G3 X310.44901 Y18.91068 I-2.94815 J-1.24434
G3 X305.69756 Y23.92399 I-9.53871 J-4.2822
G3 X305.64674 Y23.94959 I-1.46514 J-2.84489
G3 X300.01984 Y25.60871 I-7.61532 J-15.45592
G3 X294.83365 Y25.92954 I-4.93103 J-37.63222
G3 X282.45053 Y25.46086 I-0.62627 J-147.27721
G3 X269.81175 Y23.1963 I3.9849 J-58.64165
G3 X269.77645 Y23.18567 I0.90505 J-3.06935
G3 X260.96353 Y18.54137 I7.88375 J-25.64378
G3 X260.93317 Y18.51693 I1.99153 J-2.50476
G3 X254.98305 Y9.72651 I11.65589 J-14.29873
G3 X254.97596 Y9.70357 I3.05402 J-0.9555
G3 X253.9962 Y2.91961 I21.61221 J-6.58405
G3 X257.01099 Y-7.58153 I19.42397 J-0.10687
G3 X257.04002 Y-7.62653 I2.70329 J1.71238
G3 X264.35957 Y-15.02766 I22.05953 J14.49639
G3 X264.45704 Y-15.09073 I1.78691 J2.65461
G3 X273.04031 Y-19.69949 I40.57829 J65.27512
G3 X281.61695 Y-23.61811 I138.94977 J292.77303
G3 X281.63121 Y-23.62433 I1.28735 J2.92963
G2 X285.31987 Y-25.44016 I-16.94339 J-39.0731
G3 X285.36246 Y-25.46333 I1.55024 J2.79942
G2 X288.2932 Y-27.55234 I-6.60717 J-12.36975
G3 X288.39065 Y-27.63911 I2.1764 J2.34591
G2 X288.62347 Y-27.97289 I-0.52493 J-0.61425
G2 X288.32812 Y-28.32016 I-0.58157 J0.19539
G3 X288.24447 Y-28.36589 I1.49292 J-2.83041
G2 X285.61627 Y-29.31573 I-4.10818 J7.25623
G3 X285.6106 Y-29.31676 I0.56796 J-3.14919
G2 X278.98024 Y-29.86717 I-6.13146 J33.65037
G2 X275.39159 Y-29.34914 I0.53608 J16.40279
G3 X275.35169 Y-29.33905 I-0.80426 J-3.09728
G2 X271.42479 Y-28.19431 I11.50964 J46.79045
G3 X267.03313 Y-26.90868 I-17.69012 J-52.28467
G3 X262.06253 Y-26.18651 I-5.71599 J-21.87531
G3 X262.04014 Y-26.18585 I-0.1055 J-3.19826
G3 X256.76954 Y-27.04073 I-0.37342 J-14.37261
G3 X256.76168 Y-27.04359 I1.08997 J-3.00865
G3 X251.90916 Y-31.75466 I2.84242 J-7.78241
G3 X251.88469 Y-31.81791 I2.97201 J-1.18624
G3 X251.25245 Y-34.54474 I10.05304 J-3.76759
G0 Z3.0
G0 X253.71124 Y-49.73395
G0 Z1.0
G1 F300.0 Z-2.5
G2 F800.0 X251.17034 Y-52.39142 I-11.87571 J8.81131
G2 X240.02953 Y-56.48589 I-10.94973 J12.5896
G2 X239.57528 Y-56.46776 I0.09156 J7.99468
G2 X233.59837 Y-54.70229 I0.97964 J14.31655
G2 X233.53217 Y-54.66519 I3.87588 J6.99291
G2 X229.63789 Y-52.17092 I21.09745 J37.22644
G2 X223.16013 Y-54.59589 I-34.43183 J82.11238
G2 X213.3314 Y-56.48021 I-11.14684 J31.56686
G2 X213.13498 Y-56.48553 I-0.3148 J7.989
G2 X198.40336 Y-54.46242 I-0.73046 J49.32799
G2 X198.39697 Y-54.46053 I2.26909 J7.66645
G2 X184.25971 Y-45.82846 I9.18356 J30.93321
G2 X184.08527 Y-45.64007 I5.77838 J5.52572
G2 X183.68179 Y-45.18207 I25.98119 J23.29494
G2 X178.98262 Y-53.06803 I-15.24506 J3.74132
G2 X167.2539 Y-57.50272 I-11.41826 J12.47143
G2 X162.09093 Y-56.84289 I-0.08288 J19.88081
G2 X153.60593 Y-50.949 I3.72262 J14.41373
G2 X153.43281 Y-50.69035 I6.55635 J4.57576
G2 X150.67138 Y-42.72963 I15.13464 J9.70922
G1 X148.91962 Y-29.77908
G2 X147.89259 Y-15.58573 I104.65977 J14.70699
G2 X147.89338 Y-15.42804 I7.99511 J0.03886
G2 X148.09395 Y-9.4777 I158.0773 J-2.3499
G2 X148.10249 Y-9.33851 I7.98417 J-0.41976
G3 X148.19534 Y-7.86497 I-104.6154 J7.33173
G3 X145.73028 Y-12.52464 I31.30139 J-19.54092
G2 X145.72519 Y-12.53617 I-7.31621 J3.22433
G3 X143.06966 Y-19.83279 I52.52755 J-23.24842
G2 X142.56098 Y-25.20284 I-73.16471 J4.22136
G3 X142.30086 Y-29.96693 I44.61412 J-4.82514
G2 X142.29765 Y-30.18286 I-7.99519 J0.01088
G2 X141.79725 Y-36.45317 I-61.35309 J1.74112
G3 X141.47799 Y-40.96263 I54.09226 J-6.09567
G2 X136.46058 Y-52.87942 I-16.12074 J-0.22722
G2 X124.65728 Y-57.50434 I-11.51565 J12.01508
G2 X112.82868 Y-52.85521 I-0.28786 J16.63972
G2 X112.80855 Y-52.83577 I5.54437 J5.76049
G2 X107.90011 Y-41.0314 I11.23971 J11.59633
G3 X107.73767 Y-38.12234 I-54.29321 J-1.57266
G2 X105.16446 Y-41.91353 I-38.88568 J23.6242
G2 X91.93126 Y-53.02759 I-29.755 J21.99324
G2 X91.77753 Y-53.10226 I-3.57005 J7.15388
G2 X75.08147 Y-56.74108 I-16.22806 J34.33669
G2 X49.34916 Y-46.44156 I-0.43813 J36.19995
G2 X40.19075 Y-32.80477 I25.991 J27.3492
G2 X40.16296 Y-32.73249 I7.44847 J2.90578
G2 X37.19275 Y-17.38796 I42.9252 J16.26867
G2 X46.42639 Y12.61595 I46.75485 J2.03406
G2 X61.2182 Y24.92714 I31.70938 J-23.05686
G2 X61.37319 Y24.99925 I3.44997 J-7.21255
G2 X79.72284 Y28.82125 I17.74355 J-39.22798
G2 X94.5941 Y25.48251 I0.39189 J-33.04334
G2 X94.75531 Y25.40167 I-3.5032 J-7.18685
G2 X106.38087 Y15.35307 I-15.01968 J-29.12606
G2 X108.57193 Y12.02398 I-33.15139 J-24.20438
G2 X108.47482 Y15.7863 I145.1395 J5.62866
G2 X113.59152 Y27.78546 I15.76661 J0.3673
G2 X125.37539 Y32.31253 I11.5508 J-12.46637
G2 X131.90469 Y31.15299 I0.16275 J-18.04632
G2 X132.06883 Y31.08903 I-2.8205 J-7.48117
G2 X138.12009 Y26.66879 I-5.69122 J-14.14337
G2 X139.3738 Y27.36325 I21.66599 J-37.63425
G2 X139.40635 Y27.38049 I3.75819 J-7.05686
G2 X153.72359 Y30.97793 I14.5544 J-27.63533
G2 X167.56228 Y27.65019 I0.70016 J-27.52687
G2 X167.8562 Y27.48246 I-3.81486 J-7.02638
G2 X177.78329 Y16.07846 I-12.54765 J-20.94534
G2 X177.81151 Y16.01111 I-7.35946 J-3.12435
G2 X180.49795 Y6.63521 I-39.85766 J-16.49304
G2 X188.19333 Y16.13104 I36.88131 J-22.02242
G2 X220.87521 Y29.26391 I32.00067 J-32.40366
G2 X230.02896 Y27.95794 I-0.49586 J-36.20852
G2 X237.8268 Y25.21189 I-14.94165 J-54.87388
G2 X245.5996 Y20.82015 I-13.12698 J-32.30731
G2 X245.66234 Y20.7727 I-4.7917 J-6.40022
G2 X249.90397 Y16.25773 I-11.51137 J-15.06434
G2 X249.91632 Y16.23922 I-6.64317 J-4.44876
G2 X251.31088 Y13.57052 I-11.87161 J-7.90234
G2 X257.90338 Y22.23369 I21.27819 J-9.35231
G2 X257.97922 Y22.29475 I5.05167 J-6.19708
G2 X268.36733 Y27.76915 I19.68098 J-24.75286
G2 X268.45554 Y27.79572 I2.34947 J-7.6422
G2 X282.09624 Y30.24304 I17.97989 J-60.9765
G2 X294.82829 Y30.7248 I12.11114 J-151.59071
G2 X300.60917 Y30.36767 I0.26052 J-42.74831
G2 X307.76611 Y28.25101 I-2.57774 J-21.874
G2 X307.89307 Y28.18705 I-3.53369 J-7.17191
G2 X314.82361 Y20.87457 I-6.98276 J-13.55856
G2 X314.89566 Y20.70911 I-7.29392 J-3.27445
G2 X316.41869 Y12.90111 I-17.85142 J-7.53464
G2 X315.27876 Y3.84984 I-31.78084 J-0.5949
G2 X315.2684 Y3.81266 I-7.70708 J2.12702
G2 X311.45802 Y-2.80119 I-14.93385 J4.19917
G2 X311.19529 Y-3.0593 I-5.73289 J5.57289
G2 X305.14856 Y-6.23839 I-8.77932 J9.35845
G2 X313.39478 Y-14.45442 I-19.798 J-28.117
G2 X313.42002 Y-14.49019 I-6.52029 J-4.62699
G2 X317.62265 Y-27.63145 I-18.9786 J-13.31208
G2 X313.79743 Y-41.68722 I-25.96801 J-0.4813
G2 X313.65271 Y-41.91459 I-6.81629 J4.17868
G2 X303.23229 Y-51.35745 I-23.63114 J15.60652
G2 X291.25411 Y-55.66407 I-20.31447 J37.69044
G2 X279.36947 Y-56.80406 I-11.56153 J58.01135
G2 X261.26905 Y-53.74749 I-0.53727 J51.94024
G2 X253.71124 Y-49.73395 I9.03205 J26.13081
G1 F300.0 X254.12493 Y-52.93856
G2 F800.0 X252.71587 Y-54.2279 I-12.28941 J12.01592
G2 X240.00205 Y-58.88573 I-12.49526 J14.42608
G2 X239.41144 Y-58.86216 I0.11904 J10.39452
G2 X232.43491 Y-56.80142 I1.14348 J16.71095
G2 X232.34883 Y-56.75318 I5.03934 J9.09204
G2 X229.33931 Y-54.88816 I22.28079 J39.31443
G2 X223.93626 Y-56.86705 I-34.13324 J84.82962
G2 X213.4259 Y-58.87835 I-11.92298 J33.83801
G2 X213.17052 Y-58.88527 I-0.4093 J10.38714
G2 X197.72222 Y-56.76374 I-0.766 J51.72773
G2 X197.71392 Y-56.76128 I2.95023 J9.96776
G2 X184.63378 Y-49.51371 I9.86661 J33.23396
G2 X180.59916 Y-54.84196 I-16.19704 J8.07296
G2 X167.23699 Y-59.90279 I-13.0348 J14.24536
G2 X161.48416 Y-59.16493 I-0.06597 J22.28088
G2 X151.63784 Y-52.32255 I4.32939 J16.73577
G2 X151.41275 Y-51.98627 I8.52443 J5.94931
G2 X148.28727 Y-43.00865 I17.1547 J11.00513
G1 X146.5421 Y-30.10688
G2 X145.59324 Y-19.76441 I107.03729 J15.03479
G3 X145.44935 Y-20.24525 I52.6595 J-16.02018
G2 X144.94411 Y-25.48835 I-75.54441 J4.63382
G3 X144.70085 Y-29.9702 I42.231 J-4.53963
G2 X144.69668 Y-30.25094 I-10.39519 J0.01414
G2 X144.1797 Y-36.74374 I-63.75212 J1.8092
G3 X143.87843 Y-40.98308 I51.70981 J-5.8051
G2 X138.11735 Y-54.61583 I-18.52118 J-0.20677
G2 X124.65729 Y-59.90465 I-13.17243 J13.75149
G2 X111.16437 Y-54.5844 I-0.28787 J19.04004
G2 X111.1382 Y-54.55912 I7.20868 J7.48967
G2 X105.86675 Y-44.91589 I12.91006 J13.31968
G2 X93.00292 Y-55.17504 I-30.45729 J24.9956
G2 X92.80304 Y-55.27213 I-4.64171 J9.30133
G2 X75.08118 Y-59.14125 I-17.25357 J36.50656
G2 X47.68402 Y-48.17001 I-0.43784 J38.60012
G2 X37.95487 Y-33.67702 I27.65614 J29.07765
G2 X37.91873 Y-33.58306 I9.68435 J3.77804
G2 X34.79381 Y-17.46429 I45.16942 J17.11923
G2 X44.4937 Y14.03893 I49.1538 J2.11039
G2 X60.18259 Y27.09221 I33.64208 J-24.47984
G2 X60.3841 Y27.18596 I4.48559 J-9.37762
G2 X79.72562 Y31.22144 I18.73264 J-41.41469
G2 X95.64569 Y27.63986 I0.3891 J-35.44352
G2 X95.8553 Y27.53475 I-4.55479 J-9.3442
G2 X106.34121 Y19.27823 I-16.11966 J-31.25914
G2 X111.96556 Y29.55076 I17.90022 J-3.12463
G2 X125.38098 Y34.71266 I13.17676 J-14.23167
G2 X132.75135 Y33.39869 I0.15717 J-20.44645
G2 X132.96476 Y33.31553 I-3.66716 J-9.72687
G2 X138.60436 Y29.66848 I-6.58715 J-16.36987
G2 X153.68401 Y33.37769 I15.3564 J-29.92332
G2 X168.70742 Y29.75937 I0.73974 J-29.92663
G2 X169.08958 Y29.54129 I-4.96001 J-9.13556
G2 X179.99245 Y17.01633 I-13.78102 J-23.00417
G2 X180.02915 Y16.92877 I-9.56862 J-4.06222
G2 X181.6022 Y12.49054 I-42.0753 J-17.4107
G2 X186.53437 Y17.86576 I35.77706 J-27.87775
G2 X220.90959 Y31.66367 I33.65963 J-34.13838
G2 X230.66398 Y30.27241 I-0.53025 J-38.60827
G2 X238.75865 Y27.4238 I-15.57667 J-57.18835
G2 X247.03798 Y22.74137 I-14.05882 J-34.51922
G2 X247.11955 Y22.67967 I-6.23008 J-8.32144
G2 X251.27478 Y18.47491 I-12.96857 J-16.97132
G2 X256.38697 Y24.09393 I21.31429 J-14.2567
G2 X256.48557 Y24.17332 I6.56809 J-8.05732
G2 X267.66207 Y30.06319 I21.17463 J-26.63143
G2 X267.77676 Y30.09773 I3.05473 J-9.93624
G2 X281.91868 Y32.6365 I18.65867 J-63.27851
G2 X294.826 Y33.12483 I12.28869 J-153.98417
G2 X300.90476 Y32.74944 I0.26282 J-45.14834
G2 X308.82685 Y30.40388 I-2.87333 J-24.25577
G2 X308.99192 Y30.32071 I-4.59443 J-9.32477
G2 X317.0131 Y21.85749 I-8.08161 J-15.69223
G2 X317.10677 Y21.64237 I-9.4834 J-4.25737
G2 X318.81897 Y12.90707 I-20.06253 J-8.4679
G2 X317.59227 Y3.21135 I-34.18113 J-0.60087
G2 X317.5788 Y3.16301 I-10.02059 J2.76551
G2 X313.17892 Y-4.47406 I-17.24425 J4.84882
G2 X312.83732 Y-4.80965 I-7.45379 J7.24577
G2 X309.90709 Y-6.96332 I-10.42136 J11.1088
G2 X315.35204 Y-13.06549 I-24.55652 J-27.39207
G2 X315.38486 Y-13.11201 I-8.47755 J-6.01592
G2 X320.02248 Y-27.60033 I-20.94344 J-14.69027
G2 X315.84355 Y-42.94157 I-28.36784 J-0.51242
G2 X315.65538 Y-43.2372 I-8.86241 J5.43303
G2 X304.36151 Y-53.47522 I-25.63382 J16.92913
G2 X291.72229 Y-58.01796 I-21.44369 J39.80822
G2 X279.3753 Y-59.20413 I-12.02971 J60.36525
G2 X260.47113 Y-56.01101 I-0.5431 J54.3403
G2 X254.12493 Y-52.93856 I9.82997 J28.39432
G1 F300.0 X254.43455 Y-55.92053
G2 F800.0 X254.26154 Y-56.06418 I-12.59902 J14.99789
G2 X239.97456 Y-61.28557 I-14.04093 J16.26237
G2 X239.2476 Y-61.25656 I0.14653 J12.79436
G2 X231.27144 Y-58.90056 I1.30732 J19.10535
G2 X231.1655 Y-58.84117 I6.20281 J11.19117
G2 X229.06328 Y-57.57711 I23.46412 J41.40243
G2 X224.71196 Y-59.13835 I-33.85721 J87.51857
G2 X213.5204 Y-61.27649 I-12.69867 J36.10932
G2 X213.20606 Y-61.28501 I-0.50379 J12.78528
G2 X197.04108 Y-59.06505 I-0.80153 J54.12747
G2 X197.03086 Y-59.06202 I3.63137 J12.26908
G2 X185.27339 Y-53.13141 I10.54967 J35.53471
G2 X182.21572 Y-56.61587 I-16.83666 J11.69066
G2 X167.22029 Y-62.30284 I-14.65135 J16.01928
G2 X160.8773 Y-61.48694 I-0.04927 J24.68093
G2 X149.66976 Y-53.6961 I4.93624 J19.05779
G2 X149.3927 Y-53.28218 I10.49252 J7.32286
G2 X146.03808 Y-44.35963 I19.17475 J12.30104
G2 X139.77413 Y-56.35223 I-20.68083 J3.16978
G2 X124.65731 Y-62.30489 I-14.82921 J15.4879
G2 X109.50006 Y-56.31358 I-0.28789 J21.44028
G2 X109.46785 Y-56.28247 I8.87299 J9.21885
G2 X104.84093 Y-49.60361 I14.58041 J15.04303
G2 X94.07458 Y-57.32249 I-29.43146 J29.68332
G2 X93.82855 Y-57.442 I-5.71337 J11.44878
G2 X75.08086 Y-61.54139 I-18.27908 J38.67643
G2 X46.01889 Y-49.89848 I-0.43751 J41.00027
G2 X35.71899 Y-34.54928 I29.32126 J30.80612
G2 X35.67451 Y-34.43362 I11.92023 J4.65029
G2 X32.39489 Y-17.54064 I47.41365 J17.96979
G2 X42.56104 Y15.46195 I51.55272 J2.18674
G2 X59.14697 Y29.25727 I35.57474 J-25.90287
G2 X59.39501 Y29.37267 I5.5212 J-11.54268
G2 X79.72863 Y33.6216 I19.72173 J-43.6014
G2 X96.69728 Y29.79721 I0.3861 J-37.84369
G2 X96.95528 Y29.66783 I-5.60638 J-11.50155
G2 X105.18904 Y23.91038 I-17.21965 J-33.39223
G2 X110.33958 Y31.31605 I19.05239 J-7.75678
G2 X125.38649 Y37.11276 I14.80274 J-15.99695
G2 X133.59801 Y35.64439 I0.15166 J-22.84655
G2 X133.8607 Y35.54203 I-4.51382 J-11.97257
G2 X138.99345 Y32.52328 I-7.48308 J-18.59638
G2 X153.64452 Y35.77744 I14.9673 J-32.77812
G2 X169.85257 Y31.86855 I0.77923 J-32.32638
G2 X170.32295 Y31.60012 I-6.10515 J-11.24474
G2 X182.20161 Y17.95419 I-15.0144 J-25.063
G2 X182.24679 Y17.84642 I-11.77778 J-5.00009
G2 X182.49698 Y17.2297 I-44.29294 J-18.32835
G2 X184.87538 Y19.60042 I34.88227 J-32.61691
G2 X220.94399 Y34.06342 I35.31862 J-35.87304
G2 X231.29895 Y32.58689 I-0.56464 J-41.00802
G2 X239.6908 Y29.63556 I-16.21165 J-59.50284
G2 X248.47635 Y24.66259 I-14.99098 J-36.73097
G2 X248.57676 Y24.58665 I-7.66845 J-10.24265
G2 X251.15566 Y22.30154 I-14.42578 J-18.87829
G2 X254.87056 Y25.95417 I21.43341 J-18.08333
G2 X254.99192 Y26.05188 I8.0845 J-9.91756
G2 X266.9568 Y32.35723 I22.66827 J-28.51
G2 X267.09797 Y32.39974 I3.75999 J-12.23027
G2 X281.74099 Y35.02995 I19.33745 J-65.58052
G2 X294.82393 Y35.52486 I12.46638 J-156.37762
G2 X301.20065 Y35.13116 I0.26489 J-47.54836
G2 X309.88759 Y32.55674 I-3.16922 J-26.6375
G2 X310.09077 Y32.45438 I-5.65517 J-11.47764
G2 X319.20259 Y22.84041 I-9.18047 J-17.82589
G2 X319.31789 Y22.57562 I-11.67289 J-5.2403
G2 X321.21921 Y12.91376 I-22.27365 J-9.40115
G2 X319.90578 Y2.57286 I-36.58137 J-0.60755
G2 X319.88921 Y2.51336 I-12.3341 J3.404
G2 X314.89982 Y-6.14693 I-19.55465 J5.49847
G2 X314.47935 Y-6.56 I-9.1747 J8.91864
G2 X313.67292 Y-7.27155 I-12.06339 J12.85915
G2 X317.3093 Y-11.67656 I-28.32236 J-27.08384
G2 X317.3497 Y-11.73382 I-10.43482 J-7.40485
G2 X322.42231 Y-27.56916 I-22.90828 J-16.06846
G2 X317.88966 Y-44.19593 I-30.76767 J-0.54359
G2 X317.65806 Y-44.55981 I-10.90853 J6.68739
G2 X305.49084 Y-55.59294 I-27.63649 J18.25174
G2 X292.19049 Y-60.37185 I-22.57302 J41.92593
G2 X279.38109 Y-61.60418 I-12.49791 J62.71913
G2 X259.67297 Y-58.27444 I-0.54889 J56.74036
G2 X254.43455 Y-55.92053 I10.62813 J30.65775
G0 Z3.0
G0 Y-102.2
G0 Z1.0
G1 F300.0 Z-2.5
G1 F800.0 X-37.2
G1 Y-53.27491
G3 X-34.76853 Y-55.02145 I29.1504 J38.01638
G3 X-20.94251 Y-62.36335 I35.08689 J49.38516
G3 X-20.90845 Y-62.37606 I4.49051 J11.98134
G3 X-4.28748 Y-65.41184 I16.89085 J45.45986
G3 X11.79228 Y-60.71011 I0.48326 J28.19431
G3 X12.16445 Y-60.45345 I-7.077 J10.65989
G3 X22.1127 Y-48.71249 I-18.36155 J25.64308
G3 X25.19477 Y-40.99361 I-41.88876 J21.20055
G3 X25.21203 Y-40.93555 I-12.2563 J3.67428
G3 X29.12734 Y-22.81376 I-120.69167 J35.5599
G3 X31.01994 Y-5.33864 I-240.97124 J34.93792
G3 X31.02199 Y-5.30975 I-12.76225 J0.91765
G3 X32.09687 Y20.15196 I-465.23469 J32.39375
G3 X48.03005 Y27.24576 I0.07746 J21.26647
G3 X53.59926 Y41.51723 I-15.93191 J14.43955
G3 X42.77877 Y59.97424 I-20.39116 J0.44589
G3 X42.69475 Y60.01849 I-6.00404 J-11.29906
G3 X30.23616 Y63.6388 I-15.24187 J-29.20483
G3 X23.73593 Y63.96207 I-6.23218 J-59.80283
G3 X23.62565 Y63.9611 I0.05704 J-12.79507
G3 X11.01635 Y63.49409 I3.4461 J-263.50365
G3 X11.00908 Y63.49364 I0.77955 J-12.77143
G2 X-0.17348 Y63.07416 I-14.31522 J232.35338
G2 X-5.96436 Y63.1903 I1.86661 J237.50027
G3 X-12.70179 Y63.38958 I-8.58106 J-176.12483
G3 X-22.46028 Y62.0428 I-0.60267 J-31.66057
G3 X-34.81841 Y51.82834 I5.71254 J-19.49448
G3 X-35.08256 Y51.28252 I11.38206 J-5.84515
G3 X-37.05584 Y42.00659 I20.00809 J-9.10422
G3 X-29.88219 Y25.91423 I20.96593 J-0.29891
G3 X-29.8749 Y25.90787 I8.41637 J9.63753
G3 X-15.13118 Y20.46944 I14.51525 J16.64671
G2 X-11.30451 Y20.36389 I-4.26121 J-223.90035
G2 X-12.21219 Y-6.40985 I-563.64551 J5.7064
G2 X-12.52075 Y-11.2751 I-1001.90182 J61.0995
G3 X-23.96862 Y-1.62911 I-17.44465 J-9.08717
G3 X-23.97379 Y-1.62746 I-3.90095 J-12.18605
G3 X-31.47098 Y-0.46496 I-7.45511 J-23.32283
G3 X-37.2 Y-1.05822 I-0.55753 J-22.5748
G1 Y102.2
G1 X304.0
G2 X341.2 Y65.0 I0.0 J-37.2
G1 Y-65.0
G2 X304.0 Y-102.2 I-37.2 J0.0
G1 X254.43455
G1 F300.0 Y-104.6
G1 F800.0 X-39.6
G1 Y-48.05143
G3 X-33.40407 Y-53.0468 I31.5504 J32.7929
G3 X-20.10023 Y-60.116 I33.72242 J47.41051
G3 X-20.07255 Y-60.12633 I3.64823 J9.73399
G3 X-4.2601 Y-63.01195 I16.05495 J43.21013
G3 X10.46485 Y-58.71063 I0.45588 J25.79442
G3 X10.7672 Y-58.50211 I-5.74957 J8.66041
G3 X19.96476 Y-47.6417 I-16.96431 J23.69174
G3 X22.89586 Y-40.30443 I-39.74082 J20.12976
G3 X22.90988 Y-40.25725 I-9.95738 J2.98509
G3 X26.75132 Y-22.47527 I-118.38951 J34.8816
G3 X28.62612 Y-5.16651 I-238.59522 J34.59944
G3 X28.62778 Y-5.14304 I-10.36843 J0.74553
G3 X29.72701 Y22.6294 I-462.84049 J32.22705
G3 X31.75749 Y22.55643 I3.42633 J67.05361
G3 X46.2462 Y28.85135 I0.41684 J18.86201
G3 X51.19946 Y41.55288 I-14.14805 J12.83396
G3 X41.65259 Y57.85488 I-17.99136 J0.41024
G3 X41.58433 Y57.89082 I-4.87786 J-9.17969
G3 X30.01057 Y61.24931 I-14.13145 J-27.07716
G3 X23.74663 Y61.56209 I-6.0066 J-57.41333
G3 X23.65703 Y61.5613 I0.04634 J-10.3951
G3 X11.16257 Y61.09855 I3.41471 J-261.10386
G3 X11.15667 Y61.09818 I0.63333 J-10.37589
G2 X-0.16676 Y60.67403 I-14.46281 J234.74884
G2 X-6.06157 Y60.79219 I1.85989 J239.9004
G3 X-12.73734 Y60.98982 I-8.48385 J-173.72672
G3 X-21.77597 Y59.7424 I-0.56712 J-29.26081
G3 X-32.68347 Y50.73196 I5.02823 J-17.19408
G3 X-32.89807 Y50.28853 I9.24713 J-4.74877
G3 X-34.65569 Y41.99881 I17.82361 J-8.11022
G3 X-28.30353 Y27.72195 I18.56578 J-0.29114
G3 X-28.2976 Y27.71678 I6.83771 J7.82981
G3 X-15.12187 Y22.8697 I12.93795 J14.8378
G2 X-8.88586 Y22.66601 I-4.27052 J-226.3006
G2 X-9.8164 Y-6.55204 I-566.06416 J3.40428
G2 X-10.89148 Y-22.17898 I-1004.29761 J61.2417
G2 X-12.32378 Y-21.05961 I10.05284 J14.33918
G3 X-14.11918 Y-13.49972 I-23.46633 J-1.5799
G3 X-14.21906 Y-13.27064 I-9.57818 J-4.03963
G3 X-24.70032 Y-3.91485 I-15.74635 J-7.09162
G3 X-24.70452 Y-3.91351 I-3.16924 J-9.90031
G3 X-31.49862 Y-2.86503 I-6.72438 J-21.03678
G3 X-39.6 Y-4.3322 I-0.52989 J-20.17473
G1 Y104.6
G1 X304.0
G2 X343.6 Y65.0 I0.0 J-39.6
G1 Y-65.0
G2 X304.0 Y-104.6 I-39.6 J0.0
G1 X254.43455
G1 F300.0 Y-107.0
G1 F800.0 X-42.0
G1 Y-41.81984
G3 X-32.03974 Y-51.07202 I33.9504 J26.56131
G3 X-19.25794 Y-57.86866 I32.3581 J45.43573
G3 X-19.23665 Y-57.8766 I2.80594 J7.48665
G3 X-4.23242 Y-60.61206 I15.21905 J40.9604
G3 X9.13741 Y-56.71115 I0.4282 J23.39453
G3 X9.36996 Y-56.55078 I-4.42213 J6.66093
G3 X17.81672 Y-46.57111 I-15.56707 J21.7404
G3 X20.59694 Y-39.61524 I-37.59278 J19.05916
G3 X20.60772 Y-39.57896 I-7.65846 J2.29591
G3 X24.3753 Y-22.13681 I-116.08736 J34.20331
G3 X26.2323 Y-4.99439 I-236.2192 J34.26098
G3 X26.23358 Y-4.97634 I-7.97461 J0.5734
G3 X27.34458 Y25.2082 I-460.44629 J32.06034
G2 X27.47865 Y25.19354 I-3.65343 J-34.03536
G3 X27.68839 Y25.17298 I0.88463 J7.94611
G3 X31.80899 Y24.95588 I5.46495 J64.51002
G3 X44.46233 Y30.45695 I0.36534 J16.46256
G3 X48.79964 Y41.5886 I-12.36419 J11.22836
G3 X40.52641 Y55.73551 I-15.59154 J0.37452
G3 X40.47391 Y55.76316 I-3.75168 J-7.06032
G3 X29.78544 Y58.85976 I-13.02103 J-24.9495
G3 X23.75733 Y59.16211 I-5.78146 J-55.02378
G3 X23.68842 Y59.16151 I0.03564 J-7.99512
G3 X11.30879 Y58.703 I3.38333 J-258.70406
G3 X11.30425 Y58.70273 I0.48711 J-7.98035
G2 X-0.16004 Y58.27391 I-14.61039 J237.1443
G2 X-6.15902 Y58.39409 I1.85317 J242.30052
G3 X-12.77326 Y58.59006 I-8.38641 J-171.32862
G3 X-21.09193 Y57.44192 I-0.5312 J-26.86105
G3 X-30.54854 Y49.63558 I4.34419 J-14.8936
G3 X-30.71359 Y49.29453 I7.11219 J-3.6524
G3 X-32.25549 Y41.99094 I15.63913 J-7.11622
G3 X-26.72487 Y29.52966 I16.16558 J-0.28326
G3 X-26.72031 Y29.52568 I5.25905 J6.0221
G3 X-15.11502 Y25.26999 I11.36066 J13.02889
G2 X-8.02525 Y25.02737 I-4.27737 J-228.7009
G3 X-8.01196 Y25.02672 I0.39732 J7.98532
G3 X-6.4767 Y24.96441 I4.93067 J102.53343
G2 X-7.42062 Y-6.69424 I-568.47332 J1.10588
G2 X-8.7955 Y-26.14513 I-1006.6934 J61.38389
G2 X-11.81284 Y-24.45489 I9.12202 J19.82255
G3 X-11.84243 Y-24.43517 I-4.44791 J-6.64375
G2 X-14.08763 Y-22.70431 I11.0038 J16.59536
G3 X-14.16773 Y-22.63388 I-5.31981 J-5.96848
G2 X-14.67731 Y-22.10934 I2.81579 J3.24527
G3 X-16.33055 Y-14.43237 I-21.1128 J-0.53017
G3 X-16.40737 Y-14.25619 I-7.36681 J-3.10698
G3 X-25.43203 Y-6.20059 I-13.55803 J-6.10608
G3 X-25.43525 Y-6.19956 I-2.43754 J-7.61457
G3 X-31.52645 Y-5.26516 I-5.99365 J-18.75073
G3 X-41.23406 Y-7.8264 I-0.50206 J-17.7746
G3 X-41.71008 Y-8.13811 I4.1391 J-6.8404
G3 X-42.0 Y-8.34808 I9.01016 J-12.74604
G1 Y107.0
G1 X304.0
G2 X346.0 Y65.0 I0.0 J-42.0
G1 Y-65.0
G2 X304.0 Y-107.0 I-42.0 J0.0
G1 X254.43455
G1 F300.0 Y-109.4
G1 F800.0 X-44.4
G1 Y-32.84847
G3 X-41.35315 Y-38.66438 I25.51311 J9.6598
G3 X-41.31826 Y-38.71444 I4.60779 J3.17404
G3 X-30.67559 Y-49.09709 I33.26867 J23.45591
G3 X-18.41565 Y-55.62132 I30.99394 J43.46081
G3 X-18.40076 Y-55.62688 I1.96365 J5.23931
G3 X-4.20435 Y-58.21216 I14.38315 J38.71067
G3 X7.80998 Y-54.71168 I0.40013 J20.99463
G3 X7.97272 Y-54.59944 I-3.09469 J4.66145
G3 X15.66855 Y-45.50075 I-14.16983 J19.78906
G3 X18.29802 Y-38.92606 I-35.44461 J17.98881
G3 X18.30557 Y-38.90066 I-5.35954 J1.60672
G3 X21.99927 Y-21.79838 I-113.7852 J33.52502
G3 X23.83848 Y-4.82227 I-233.84317 J33.92255
G3 X23.83938 Y-4.80963 I-5.58079 J0.40128
G3 X24.94786 Y27.78216 I-458.05209 J31.89364
G2 X27.7442 Y27.5788 I-1.25671 J-36.60932
G3 X27.89098 Y27.56442 I0.61908 J5.56085
G3 X31.86058 Y27.35532 I5.26236 J62.11859
G3 X42.67845 Y32.06253 I0.31374 J14.06311
G3 X46.39979 Y41.62443 I-10.58031 J9.62278
G3 X39.40023 Y53.61614 I-13.19169 J0.33869
G3 X39.36349 Y53.63549 I-2.6255 J-4.94095
G3 X29.56084 Y56.47014 I-11.91061 J-22.82183
G3 X23.76802 Y56.76214 I-5.55687 J-52.63416
G3 X23.7198 Y56.76171 I0.02494 J-5.59514
G3 X11.45501 Y56.30746 I3.35194 J-256.30427
G3 X11.45183 Y56.30727 I0.34089 J-5.58481
G2 X-0.15333 Y55.87379 I-14.75797 J239.53975
G2 X-6.2567 Y55.99599 I1.84646 J244.70064
G3 X-12.80961 Y56.19031 I-8.28872 J-168.93052
G3 X-20.40828 Y55.14131 I-0.49485 J-24.4613
G3 X-28.4136 Y48.53921 I3.66054 J-12.59299
G3 X-28.52911 Y48.30053 I4.97725 J-2.55602
G3 X-29.85522 Y41.98291 I13.45464 J-6.12222
G3 X-25.14621 Y31.33737 I13.76531 J-0.27524
G3 X-25.14302 Y31.33459 I3.68039 J4.21438
G3 X-15.11114 Y27.67034 I9.78337 J11.21998
G2 X-7.90598 Y27.42441 I-4.28125 J-231.10124
G3 X-7.89668 Y27.42395 I0.27805 J5.58829
G3 X-4.07698 Y27.31318 I4.81539 J100.1362
G2 X-5.02483 Y-6.83644 I-570.87305 J-1.24289
G2 X-6.40875 Y-26.40618 I-1009.08918 J61.52609
G2 X-6.89554 Y-29.39298 I-24.76518 J2.50318
G2 X-8.45685 Y-28.89465 I2.98872 J12.05887
G3 X-8.47321 Y-28.88824 I-2.04917 J-5.20645
G2 X-13.14801 Y-26.44921 I8.79973 J22.56566
G3 X-13.16872 Y-26.43541 I-3.11273 J-4.64943
G2 X-15.68454 Y-24.49594 I12.33008 J18.5956
G3 X-15.74059 Y-24.44664 I-3.72291 J-4.17686
G2 X-17.07208 Y-22.87056 I4.38865 J5.05804
G3 X-18.54192 Y-15.36503 I-18.71803 J0.23105
G3 X-18.59568 Y-15.24173 I-5.15544 J-2.17433
G3 X-26.16373 Y-8.48633 I-11.36972 J-5.12054
G3 X-26.16599 Y-8.48561 I-1.70584 J-5.32882
G3 X-31.55454 Y-7.66538 I-5.26291 J-16.46468
G3 X-39.99158 Y-9.87975 I-0.47397 J-15.37438
G3 X-40.32471 Y-10.09789 I2.89662 J-4.78705
G3 X-44.4 Y-14.75316 I7.62479 J-10.78626
G1 Y109.4
G1 X304.0
G2 X348.4 Y65.0 I0.0 J-44.4
G1 Y-65.0
G2 X304.0 Y-109.4 I-44.4 J0.0
G1 X254.43455
G1 F300.0 Y-111.8
G1 F800.0 X-46.8
G1 Y111.8
G1 X304.0
G2 X350.8 Y65.0 I0.0 J-46.8
G1 Y-65.0
G2 X304.0 Y-111.8 I-46.8 J0.0
G1 X254.43455
G0 Z3.0
G0 X213.83985 Y-21.66863
G0 Z1.0
G1 F300.0 Z-2.5
G2 F800.0 X212.26382 Y-21.78402 I-1.51379 J9.85514
G3 X212.2396 Y-21.78389 I-0.07241 J-11.59977
G2 X212.01418 Y-20.95472 I4.32439 J1.62091
G3 X211.98871 Y-20.81354 I-11.42826 J-1.98871
G2 X211.60336 Y-16.42071 I22.34188 J4.17317
G3 X211.60363 Y-16.22895 I-11.59946 J0.11211
G2 X212.34845 Y-12.38003 I9.96371 J0.06841
G2 X212.95548 Y-11.18296 I10.88472 J-4.76707
G3 X213.4817 Y-18.10149 I142.07818 J7.32724
G3 X213.83985 Y-21.66863 I366.04015 J34.94938
G1 F300.0 X214.02204 Y-22.85471
G2 F800.0 X212.25633 Y-22.98399 I-1.69597 J11.04123
G3 X211.99271 Y-22.98569 I-0.06492 J-10.3998
G2 X211.44699 Y-22.93202 I-0.04483 J2.34584
G2 X210.83194 Y-21.16045 I5.11701 J2.76905
G3 X210.80911 Y-21.03388 I-10.24602 J-1.78298
G2 X210.40342 Y-16.40911 I23.52148 J4.3935
G3 X210.40366 Y-16.23719 I-10.39951 J0.10052
G2 X211.24359 Y-11.91156 I11.16368 J0.07665
G2 X213.89876 Y-7.98033 I11.98958 J-5.23554
G3 X214.02326 Y-7.85135 I-7.42024 J7.28697
G3 X214.67598 Y-17.98437 I141.01039 J3.99564
G3 X215.14849 Y-22.62177 I364.84588 J34.83227
G2 X214.02204 Y-22.85471 I-2.82243 J10.80828
G1 F300.0 X214.38641 Y-25.22689
G2 F800.0 X212.24135 Y-25.38394 I-2.06035 J13.41341
G3 X212.03856 Y-25.38525 I-0.04994 J-7.99984
G2 X210.21929 Y-25.06014 I-0.09068 J4.74541
G2 X209.64312 Y-24.59471 I0.70094 J1.45705
G2 X208.46748 Y-21.57191 I6.92087 J4.43173
G3 X208.44991 Y-21.47454 I-7.88156 J-1.37152
G2 X208.00353 Y-16.38591 I25.88067 J4.83417
G3 X208.00372 Y-16.25367 I-7.99963 J0.07732
G2 X209.03402 Y-10.97437 I13.56362 J0.09312
G2 X212.1864 Y-6.29872 I14.19915 J-6.17273
G3 X212.45346 Y-6.01314 I-5.70788 J5.60536
G2 X216.45419 Y-3.04136 I9.16633 J-8.16123
G3 X216.3791 Y-5.5891 I56.47431 J-2.93957
G3 X216.37966 Y-5.75405 I7.99981 J-0.05543
G3 X217.06453 Y-17.75012 I138.654 J1.89834
G3 X217.74193 Y-24.2328 I362.45733 J34.59801
G2 X216.84823 Y-24.60858 I-6.50153 J14.21162
G2 X214.38641 Y-25.22689 I-4.52217 J12.7951
G1 F300.0 X214.75079 Y-27.59907
G2 F800.0 X212.22636 Y-27.7839 I-2.42473 J15.78559
G3 X212.08442 Y-27.78481 I-0.03496 J-5.59989
G2 X209.27138 Y-27.26597 I-0.13653 J7.14497
G2 X207.67149 Y-25.96552 I1.64885 J3.66287
G2 X206.10301 Y-21.98337 I8.8925 J5.80254
G3 X206.09071 Y-21.91521 I-5.51709 J-0.96007
G2 X205.60364 Y-16.36272 I28.23987 J5.27483
G3 X205.60377 Y-16.27015 I-5.59974 J0.05412
G2 X206.82457 Y-10.03697 I15.96356 J0.1096
G2 X210.47403 Y-4.61711 I16.40861 J-7.11013
G3 X210.66097 Y-4.41721 I-3.99552 J3.92375
G2 X219.15188 Y0.28963 I10.95881 J-9.75716
G3 X219.07426 Y-0.3307 I112.53316 J-14.39721
G3 X219.06223 Y-0.43746 I5.55856 J-0.68004
G3 X218.77904 Y-5.60573 I53.86627 J-5.54347
G3 X218.77943 Y-5.72119 I5.59987 J-0.0388
G3 X219.45307 Y-17.51584 I136.25422 J1.86548
G3 X220.31618 Y-25.59827 I360.06878 J34.36373
G2 X217.67899 Y-26.86042 I-9.07578 J15.57709
G2 X214.75079 Y-27.59907 I-5.35293 J15.04693
G1 F300.0 X215.11516 Y-29.97125
G2 F800.0 X212.21138 Y-30.18385 I-2.7891 J18.15777
G3 X212.13027 Y-30.18437 I-0.01998 J-3.19994
G2 X208.33099 Y-29.4744 I-0.18238 J9.54453
G2 X205.69264 Y-27.32447 I2.58924 J5.8713
G2 X203.73854 Y-22.39482 I10.87136 J7.16149
G3 X203.73152 Y-22.35588 I-3.15262 J-0.54861
G2 X203.20376 Y-16.33952 I30.59907 J5.7155
G3 X203.20383 Y-16.28662 I-3.19985 J0.03093
G2 X204.6152 Y-9.09944 I18.36351 J0.12608
G2 X208.76167 Y-2.93551 I18.61798 J-8.04766
G3 X208.86849 Y-2.82127 I-2.28315 J2.24215
G2 X221.52267 Y2.89838 I12.7513 J-11.3531
G2 X221.93489 Y2.83625 I-0.12553 J-2.23122
G3 X221.45649 Y-0.62215 I109.75016 J-16.94383
G3 X221.44962 Y-0.68315 I3.17632 J-0.38859
G3 X221.17898 Y-5.62236 I51.47888 J-5.29778
G3 X221.17921 Y-5.68834 I3.19992 J-0.02217
G3 X221.84161 Y-17.28152 I133.85445 J1.83262
G3 X222.87918 Y-26.80955 I357.68024 J34.12941
G2 X218.50998 Y-29.11212 I-11.63878 J16.78837
G2 X215.11516 Y-29.97125 I-6.18391 J17.29863
G0 Z3.0
G0 X213.83985 Y-21.66863
G0 Z-1.5
G1 F300.0 Z-5.0
G2 F800.0 X212.26382 Y-21.78402 I-1.51379 J9.85514
G3 X212.2396 Y-21.78389 I-0.07241 J-11.59977
G2 X212.01418 Y-20.95472 I4.32439 J1.62091
G3 X211.98871 Y-20.81354 I-11.42826 J-1.98871
G2 X211.60336 Y-16.42071 I22.34188 J4.17317
G3 X211.60363 Y-16.22895 I-11.59946 J0.11211
G2 X212.34845 Y-12.38003 I9.96371 J0.06841
G2 X212.95548 Y-11.18296 I10.88472 J-4.76707
G3 X213.4817 Y-18.10149 I142.07818 J7.32724
G3 X213.83985 Y-21.66863 I366.04015 J34.94938
G1 F300.0 X214.02204 Y-22.85471
G2 F800.0 X212.25633 Y-22.98399 I-1.69597 J11.04123
G3 X211.99271 Y-22.98569 I-0.06492 J-10.3998
G2 X211.44699 Y-22.93202 I-0.04483 J2.34584
G2 X210.83194 Y-21.16045 I5.11701 J2.76905
G3 X210.80911 Y-21.03388 I-10.24602 J-1.78298
G2 X210.40342 Y-16.40911 I23.52148 J4.3935
G3 X210.40366 Y-16.23719 I-10.39951 J0.10052
G2 X211.24359 Y-11.91156 I11.16368 J0.07665
G2 X213.89876 Y-7.98033 I11.98958 J-5.23554
G3 X214.02326 Y-7.85135 I-7.42024 J7.28697
G3 X214.67598 Y-17.98437 I141.01039 J3.99564
G3 X215.14849 Y-22.62177 I364.84588 J34.83227
G2 X214.02204 Y-22.85471 I-2.82243 J10.80828
G1 F300.0 X214.38641 Y-25.22689
G2 F800.0 X212.24135 Y-25.38394 I-2.06035 J13.41341
G3 X212.03856 Y-25.38525 I-0.04994 J-7.99984
G2 X210.21929 Y-25.06014 I-0.09068 J4.74541
G2 X209.64312 Y-24.59471 I0.70094 J1.45705
G2 X208.46748 Y-21.57191 I6.92087 J4.43173
G3 X208.44991 Y-21.47454 I-7.88156 J-1.37152
G2 X208.00353 Y-16.38591 I25.88067 J4.83417
G3 X208.00372 Y-16.25367 I-7.99963 J0.07732
G2 X209.03402 Y-10.97437 I13.56362 J0.09312
G2 X212.1864 Y-6.29872 I14.19915 J-6.17273
G3 X212.45346 Y-6.01314 I-5.70788 J5.60536
G2 X216.45419 Y-3.04136 I9.16633 J-8.16123
G3 X216.3791 Y-5.5891 I56.47431 J-2.93957
G3 X216.37966 Y-5.75405 I7.99981 J-0.05543
G3 X217.06453 Y-17.75012 I138.654 J1.89834
G3 X217.74193 Y-24.2328 I362.45733 J34.59801
G2 X216.84823 Y-24.60858 I-6.50153 J14.21162
G2 X214.38641 Y-25.22689 I-4.52217 J12.7951
G1 F300.0 X214.75079 Y-27.59907
G2 F800.0 X212.22636 Y-27.7839 I-2.42473 J15.78559
G3 X212.08442 Y-27.78481 I-0.03496 J-5.59989
G2 X209.27138 Y-27.26597 I-0.13653 J7.14497
G2 X207.67149 Y-25.96552 I1.64885 J3.66287
G2 X206.10301 Y-21.98337 I8.8925 J5.80254
G3 X206.09071 Y-21.91521 I-5.51709 J-0.96007
G2 X205.60364 Y-16.36272 I28.23987 J5.27483
G3 X205.60377 Y-16.27015 I-5.59974 J0.05412
G2 X206.82457 Y-10.03697 I15.96356 J0.1096
G2 X210.47403 Y-4.61711 I16.40861 J-7.11013
G3 X210.66097 Y-4.41721 I-3.99552 J3.92375
G2 X219.15188 Y0.28963 I10.95881 J-9.75716
G3 X219.07426 Y-0.3307 I112.53316 J-14.39721
G3 X219.06223 Y-0.43746 I5.55856 J-0.68004
G3 X218.77904 Y-5.60573 I53.86627 J-5.54347
G3 X218.77943 Y-5.72119 I5.59987 J-0.0388
G3 X219.45307 Y-17.51584 I136.25422 J1.86548
G3 X220.31618 Y-25.59827 I360.06878 J34.36373
G2 X217.67899 Y-26.86042 I-9.07578 J15.57709
G2 X214.75079 Y-27.59907 I-5.35293 J15.04693
G1 F300.0 X215.11516 Y-29.97125
G2 F800.0 X212.21138 Y-30.18385 I-2.7891 J18.15777
G3 X212.13027 Y-30.18437 I-0.01998 J-3.19994
G2 X208.33099 Y-29.4744 I-0.18238 J9.54453
G2 X205.69264 Y-27.32447 I2.58924 J5.8713
G2 X203.73854 Y-22.39482 I10.87136 J7.16149
G3 X203.73152 Y-22.35588 I-3.15262 J-0.54861
G2 X203.20376 Y-16.33952 I30.59907 J5.7155
G3 X203.20383 Y-16.28662 I-3.19985 J0.03093
G2 X204.6152 Y-9.09944 I18.36351 J0.12608
G2 X208.76167 Y-2.93551 I18.61798 J-8.04766
G3 X208.86849 Y-2.82127 I-2.28315 J2.24215
G2 X221.52267 Y2.89838 I12.7513 J-11.3531
G2 X221.93489 Y2.83625 I-0.12553 J-2.23122
G3 X221.45649 Y-0.62215 I109.75016 J-16.94383
G3 X221.44962 Y-0.68315 I3.17632 J-0.38859
G3 X221.17898 Y-5.62236 I51.47888 J-5.29778
G3 X221.17921 Y-5.68834 I3.19992 J-0.02217
G3 X221.84161 Y-17.28152 I133.85445 J1.83262
G3 X222.87918 Y-26.80955 I357.68024 J34.12941
G2 X218.50998 Y-29.11212 I-11.63878 J16.78837
G2 X215.11516 Y-29.97125 I-6.18391 J17.29863
G0 Z3.0
G0 X76.7944 Y-16.51753
G0 Z1.0
G1 F300.0 Z-2.5
G2 F800.0 X76.39642 Y-18.25153 I-6.90112 J0.67123
G2 X75.8854 Y-18.99311 I-1.98356 J0.82
G3 X75.86509 Y-19.01231 I8.78159 J-9.31256
G2 X75.76514 Y-19.09387 I-0.6016 J0.63519
G2 X75.5662 Y-17.32157 I6.8709 J1.66857
G3 X75.5645 Y-16.8531 I-12.79862 J0.18778
G2 X76.77865 Y-11.05593 I13.07734 J0.28684
G2 X76.8311 Y-15.86013 I-42.9095 J-2.87092
G3 X76.82387 Y-16.05334 I12.78706 J-0.57542
G2 X76.7944 Y-16.51753 I-6.9306 J0.20704
G1 F300.0 X79.18312 Y-16.74987
G2 F800.0 X78.63337 Y-19.12173 I-9.28985 J0.90357
G2 X77.53195 Y-20.73921 I-4.22051 J1.6902
G3 X77.51544 Y-20.75481 I7.13504 J-7.56645
G2 X75.22003 Y-21.6517 I-2.25196 J2.3777
G3 X75.00174 Y-21.65109 I-0.138 J-10.39908
G2 X74.37536 Y-21.39756 I-0.00682 J0.88367
G3 X74.24282 Y-21.26954 I-7.29138 J-7.41592
G2 X73.59806 Y-20.25499 I1.7026 J1.79419
G2 X73.16646 Y-17.28636 I9.03798 J2.82969
G3 X73.16508 Y-16.90573 I-10.39888 J0.15257
G2 X75.4432 Y-8.47668 I15.47677 J0.33947
G3 X75.50038 Y-8.38226 I-8.86703 J5.43469
G2 X77.11729 Y-6.68339 I4.58152 J-2.74159
G2 X78.33436 Y-6.33575 I1.43102 J-2.70568
G2 X78.641 Y-7.2892 I-3.64882 J-1.69955
G3 X78.70545 Y-7.60408 I10.21978 J1.92773
G2 X79.17038 Y-10.8524 I-21.33036 J-4.7104
G3 X79.17082 Y-10.85899 I10.37668 J0.69609
G2 X79.22868 Y-15.96802 I-45.30167 J-3.06786
G3 X79.2228 Y-16.125 I10.38949 J-0.46752
G2 X79.18312 Y-16.74987 I-9.32953 J0.2787
G1 F300.0 X81.57185 Y-16.98221
G2 F800.0 X80.87176 Y-19.98784 I-11.67858 J1.13591
G2 X79.1785 Y-22.48532 I-6.4589 J2.55631
G3 X79.1658 Y-22.49732 I5.48849 J-5.82035
G2 X75.18818 Y-24.05149 I-3.90232 J4.1202
G3 X75.02027 Y-24.05102 I-0.10615 J-7.9993
G2 X72.69273 Y-23.10892 I-0.02535 J3.2836
G3 X72.59078 Y-23.01045 I-5.60875 J-5.70455
G2 X71.31319 Y-20.98961 I3.35464 J3.5351
G2 X70.76672 Y-17.25115 I11.32285 J3.56431
G3 X70.76565 Y-16.95836 I-7.99914 J0.11736
G2 X73.39696 Y-7.22252 I17.87619 J0.3921
G3 X73.44095 Y-7.14989 I-6.82079 J4.18053
G2 X75.88188 Y-4.62351 I6.64096 J-3.97396
G2 X78.68718 Y-3.93003 I2.66643 J-4.76556
G3 X79.17044 Y-3.92772 I0.20345 J7.99741
G2 X79.78299 Y-4.12385 I0.03327 J-0.95067
G2 X80.99941 Y-6.84434 I-5.09745 J-3.91145
G3 X81.04899 Y-7.08656 I7.86137 J1.48287
G2 X81.56499 Y-10.69177 I-23.6739 J-5.22793
G3 X81.56534 Y-10.69684 I7.98206 J0.53546
G2 X81.62625 Y-16.07591 I-47.69619 J-3.23002
G3 X81.62173 Y-16.19667 I7.99191 J-0.35963
G2 X81.57185 Y-16.98221 I-11.72846 J0.35037
G1 F300.0 X83.96058 Y-17.21455
G2 F800.0 X83.11064 Y-20.85255 I-14.0673 J1.36825
G2 X80.82505 Y-24.23142 I-8.69777 J3.42102
G3 X80.81616 Y-24.23982 I3.84194 J-4.07424
G2 X75.15634 Y-26.45127 I-5.55268 J5.86271
G3 X75.0388 Y-26.45095 I-0.07431 J-5.59951
G2 X71.01011 Y-24.82029 I-0.04388 J5.68353
G3 X70.93874 Y-24.75136 I-3.92613 J-3.99319
G2 X69.02769 Y-21.72212 I5.00668 J5.27601
G2 X68.36698 Y-17.21594 I13.60836 J4.29683
G3 X68.36623 Y-17.01099 I-5.5994 J0.08215
G2 X71.35072 Y-5.96836 I20.27561 J0.44473
G3 X71.38152 Y-5.91752 I-4.77455 J2.92637
G2 X74.64209 Y-2.56751 I8.70039 J-5.20633
G2 X78.74821 Y-1.53081 I3.90622 J-6.82156
G3 X79.0865 Y-1.52919 I0.14241 J5.59819
G2 X81.53732 Y-2.47315 I0.11722 J-3.3492
G2 X83.35782 Y-6.39948 I-6.85178 J-5.56215
G3 X83.39253 Y-6.56903 I5.50296 J1.03801
G2 X83.95961 Y-10.53113 I-26.01743 J-5.74545
G3 X83.95985 Y-10.53468 I5.58744 J0.37482
G2 X84.02383 Y-16.1838 I-50.0907 J-3.39217
G3 X84.02066 Y-16.26833 I5.59434 J-0.25174
G2 X83.96058 Y-17.21455 I-14.12739 J0.42203
G1 F300.0 X86.34931 Y-17.44689
G2 F800.0 X85.34974 Y-21.71661 I-16.45603 J1.60059
G2 X82.4716 Y-25.97752 I-10.93688 J4.28508
G3 X82.46652 Y-25.98233 I2.1954 J-2.32814
G2 X75.12449 Y-28.85106 I-7.20303 J7.60521
G3 X75.05732 Y-28.85088 I-0.04246 J-3.19972
G2 X69.32748 Y-26.53166 I-0.06241 J8.08345
G3 X69.2867 Y-26.49226 I-2.2435 J-2.28182
G2 X66.74193 Y-22.45383 I6.65872 J7.01692
G2 X65.96723 Y-17.18073 I15.89411 J5.02853
G3 X65.96681 Y-17.06362 I-3.19966 J0.04694
G2 X69.30449 Y-4.7142 I22.67503 J0.49736
G3 X69.32208 Y-4.68515 I-2.72832 J1.67221
G2 X73.40072 Y-0.51289 I10.75982 J-6.4387
G2 X78.80925 Y0.86842 I5.14758 J-8.87618
G3 X79.00255 Y0.86934 I0.08138 J3.19897
G2 X83.31698 Y-0.85869 I0.20116 J-5.74773
G2 X85.71623 Y-5.95462 I-8.63145 J-7.17661
G3 X85.73606 Y-6.0515 I3.14455 J0.59315
G2 X86.35423 Y-10.37049 I-28.36097 J-6.26298
G3 X86.35437 Y-10.37252 I3.19282 J0.21418
G2 X86.4214 Y-16.29169 I-52.48522 J-3.55433
G3 X86.41959 Y-16.33999 I3.19676 J-0.14385
G2 X86.34931 Y-17.44689 I-16.52632 J0.4937
G0 Z3.0
G0 X76.7944 Y-16.51753
G0 Z-1.5
G1 F300.0 Z-5.0
G2 F800.0 X76.39642 Y-18.25153 I-6.90112 J0.67123
G2 X75.8854 Y-18.99311 I-1.98356 J0.82
G3 X75.86509 Y-19.01231 I8.78159 J-9.31256
G2 X75.76514 Y-19.09387 I-0.6016 J0.63519
G2 X75.5662 Y-17.32157 I6.8709 J1.66857
G3 X75.5645 Y-16.8531 I-12.79862 J0.18778
G2 X76.77865 Y-11.05593 I13.07734 J0.28684
G2 X76.8311 Y-15.86013 I-42.9095 J-2.87092
G3 X76.82387 Y-16.05334 I12.78706 J-0.57542
G2 X76.7944 Y-16.51753 I-6.9306 J0.20704
G1 F300.0 X79.18312 Y-16.74987
G2 F800.0 X78.63337 Y-19.12173 I-9.28985 J0.90357
G2 X77.53195 Y-20.73921 I-4.22051 J1.6902
G3 X77.51544 Y-20.75481 I7.13504 J-7.56645
G2 X75.22003 Y-21.6517 I-2.25196 J2.3777
G3 X75.00174 Y-21.65109 I-0.138 J-10.39908
G2 X74.37536 Y-21.39756 I-0.00682 J0.88367
G3 X74.24282 Y-21.26954 I-7.29138 J-7.41592
G2 X73.59806 Y-20.25499 I1.7026 J1.79419
G2 X73.16646 Y-17.28636 I9.03798 J2.82969
G3 X73.16508 Y-16.90573 I-10.39888 J0.15257
G2 X75.4432 Y-8.47668 I15.47677 J0.33947
G3 X75.50038 Y-8.38226 I-8.86703 J5.43469
G2 X77.11729 Y-6.68339 I4.58152 J-2.74159
G2 X78.33436 Y-6.33575 I1.43102 J-2.70568
G2 X78.641 Y-7.2892 I-3.64882 J-1.69955
G3 X78.70545 Y-7.60408 I10.21978 J1.92773
G2 X79.17038 Y-10.8524 I-21.33036 J-4.7104
G3 X79.17082 Y-10.85899 I10.37668 J0.69609
G2 X79.22868 Y-15.96802 I-45.30167 J-3.06786
G3 X79.2228 Y-16.125 I10.38949 J-0.46752
G2 X79.18312 Y-16.74987 I-9.32953 J0.2787
G1 F300.0 X81.57185 Y-16.98221
G2 F800.0 X80.87176 Y-19.98784 I-11.67858 J1.13591
G2 X79.1785 Y-22.48532 I-6.4589 J2.55631
G3 X79.1658 Y-22.49732 I5.48849 J-5.82035
G2 X75.18818 Y-24.05149 I-3.90232 J4.1202
G3 X75.02027 Y-24.05102 I-0.10615 J-7.9993
G2 X72.69273 Y-23.10892 I-0.02535 J3.2836
G3 X72.59078 Y-23.01045 I-5.60875 J-5.70455
G2 X71.31319 Y-20.98961 I3.35464 J3.5351
G2 X70.76672 Y-17.25115 I11.32285 J3.56431
G3 X70.76565 Y-16.95836 I-7.99914 J0.11736
G2 X73.39696 Y-7.22252 I17.87619 J0.3921
G3 X73.44095 Y-7.14989 I-6.82079 J4.18053
G2 X75.88188 Y-4.62351 I6.64096 J-3.97396
G2 X78.68718 Y-3.93003 I2.66643 J-4.76556
G3 X79.17044 Y-3.92772 I0.20345 J7.99741
G2 X79.78299 Y-4.12385 I0.03327 J-0.95067
G2 X80.99941 Y-6.84434 I-5.09745 J-3.91145
G3 X81.04899 Y-7.08656 I7.86137 J1.48287
G2 X81.56499 Y-10.69177 I-23.6739 J-5.22793
G3 X81.56534 Y-10.69684 I7.98206 J0.53546
G2 X81.62625 Y-16.07591 I-47.69619 J-3.23002
G3 X81.62173 Y-16.19667 I7.99191 J-0.35963
G2 X81.57185 Y-16.98221 I-11.72846 J0.35037
G1 F300.0 X83.96058 Y-17.21455
G2 F800.0 X83.11064 Y-20.85255 I-14.0673 J1.36825
G2 X80.82505 Y-24.23142 I-8.69777 J3.42102
G3 X80.81616 Y-24.23982 I3.84194 J-4.07424
G2 X75.15634 Y-26.45127 I-5.55268 J5.86271
G3 X75.0388 Y-26.45095 I-0.07431 J-5.59951
G2 X71.01011 Y-24.82029 I-0.04388 J5.68353
G3 X70.93874 Y-24.75136 I-3.92613 J-3.99319
G2 X69.02769 Y-21.72212 I5.00668 J5.27601
G2 X68.36698 Y-17.21594 I13.60836 J4.29683
G3 X68.36623 Y-17.01099 I-5.5994 J0.08215
G2 X71.35072 Y-5.96836 I20.27561 J0.44473
G3 X71.38152 Y-5.91752 I-4.77455 J2.92637
G2 X74.64209 Y-2.56751 I8.70039 J-5.20633
G2 X78.74821 Y-1.53081 I3.90622 J-6.82156
G3 X79.0865 Y-1.52919 I0.14241 J5.59819
G2 X81.53732 Y-2.47315 I0.11722 J-3.3492
G2 X83.35782 Y-6.39948 I-6.85178 J-5.56215
G3 X83.39253 Y-6.56903 I5.50296 J1.03801
G2 X83.95961 Y-10.53113 I-26.01743 J-5.74545
G3 X83.95985 Y-10.53468 I5.58744 J0.37482
G2 X84.02383 Y-16.1838 I-50.0907 J-3.39217
G3 X84.02066 Y-16.26833 I5.59434 J-0.25174
G2 X83.96058 Y-17.21455 I-14.12739 J0.42203
G1 F300.0 X86.34931 Y-17.44689
G2 F800.0 X85.34974 Y-21.71661 I-16.45603 J1.60059
G2 X82.4716 Y-25.97752 I-10.93688 J4.28508
G3 X82.46652 Y-25.98233 I2.1954 J-2.32814
G2 X75.12449 Y-28.85106 I-7.20303 J7.60521
G3 X75.05732 Y-28.85088 I-0.04246 J-3.19972
G2 X69.32748 Y-26.53166 I-0.06241 J8.08345
G3 X69.2867 Y-26.49226 I-2.2435 J-2.28182
G2 X66.74193 Y-22.45383 I6.65872 J7.01692
G2 X65.96723 Y-17.18073 I15.89411 J5.02853
G3 X65.96681 Y-17.06362 I-3.19966 J0.04694
G2 X69.30449 Y-4.7142 I22.67503 J0.49736
G3 X69.32208 Y-4.68515 I-2.72832 J1.67221
G2 X73.40072 Y-0.51289 I10.75982 J-6.4387
G2 X78.80925 Y0.86842 I5.14758 J-8.87618
G3 X79.00255 Y0.86934 I0.08138 J3.19897
G2 X83.31698 Y-0.85869 I0.20116 J-5.74773
G2 X85.71623 Y-5.95462 I-8.63145 J-7.17661
G3 X85.73606 Y-6.0515 I3.14455 J0.59315
G2 X86.35423 Y-10.37049 I-28.36097 J-6.26298
G3 X86.35437 Y-10.37252 I3.19282 J0.21418
G2 X86.4214 Y-16.29169 I-52.48522 J-3.55433
G3 X86.41959 Y-16.33999 I3.19676 J-0.14385
G2 X86.34931 Y-17.44689 I-16.52632 J0.4937
G0 Z3.0
G0 X20.91008 Y-10.95745
G0 Z1.0
G1 F300.0 Z-2.5
G3 F800.0 X21.44945 Y-4.65049 I-232.75398 J23.08161
G3 X21.44996 Y-4.64326 I-3.19176 J0.2295
G3 X22.54958 Y28.89944 I-455.66267 J31.72726
G3 X22.5495 Y28.91315 I-3.19997 J-0.01272
G2 X22.54603 Y30.19355 I115.41572 J0.95336
G1 X24.33825
G2 X28.00922 Y29.9593 I-0.6471 J-39.02072
G3 X28.09316 Y29.95107 I0.35407 J3.18035
G3 X31.9122 Y29.74997 I5.06018 J59.73194
G3 X40.89812 Y33.66491 I0.26213 J11.66847
G3 X44.00469 Y41.66038 I-8.79998 J8.02041
G3 X38.2763 Y51.50101 I-10.79659 J0.30274
G3 X38.25529 Y51.51208 I-1.50157 J-2.82582
G3 X29.33736 Y54.08522 I-10.80241 J-20.69842
G3 X23.7787 Y54.36696 I-5.33339 J-50.24924
G3 X23.75112 Y54.36672 I0.01427 J-3.19997
G3 X11.60094 Y53.91671 I3.32062 J-253.90927
G3 X11.59912 Y53.9166 I0.19496 J-3.19406
G2 X-0.14664 Y53.47847 I-14.90526 J241.93042
G2 X-6.35442 Y53.6027 I1.83977 J247.09596
G3 X-12.84639 Y53.79536 I-8.191 J-166.53723
G3 X-19.72658 Y52.84512 I-0.45807 J-22.06635
G3 X-26.28293 Y47.44502 I2.97884 J-10.2968
G3 X-26.34899 Y47.30852 I2.84658 J-1.46184
G3 X-27.45964 Y41.97466 I11.27453 J-5.13021
G3 X-23.5707 Y33.14147 I11.36973 J-0.26698
G3 X-23.56888 Y33.13988 I2.10488 J2.41029
G3 X-15.11091 Y30.06594 I8.20923 J9.41469
G2 X-7.78695 Y29.81665 I-4.28148 J-233.49684
G3 X-7.78163 Y29.81639 I0.15902 J3.19605
G3 X-1.71522 Y29.71297 I4.70034 J97.74376
G2 X-1.68709 Y28.83449 I-108.38991 J-3.91046
G2 X-2.63383 Y-6.97836 I-573.26293 J-2.7642
G2 X-4.02318 Y-26.62216 I-1011.48018 J61.66801
G2 X-5.11434 Y-31.99341 I-27.15074 J2.71916
G2 X-5.15178 Y-32.10064 I-2.44205 J0.79241
G2 X-9.33406 Y-31.12343 I1.24496 J14.76653
G3 X-9.34341 Y-31.11977 I-1.17196 J-2.97767
G2 X-14.48051 Y-28.43954 I9.66994 J24.79719
G3 X-14.49236 Y-28.43165 I-1.78023 J-2.65909
G2 X-17.27825 Y-26.28397 I13.65372 J20.59184
G3 X-17.3103 Y-26.25578 I-2.1292 J-2.38883
G2 X-19.18349 Y-24.00672 I5.95836 J6.86718
G2 X-19.47047 Y-23.02793 I1.89479 J1.08702
G3 X-20.74887 Y-16.29582 I-16.31964 J0.38841
G3 X-20.77961 Y-16.2253 I-2.94849 J-1.24354
G3 X-26.89397 Y-10.7675 I-9.18579 J-4.13697
G3 X-26.89526 Y-10.76709 I-0.9756 J-3.04765
G3 X-31.58298 Y-10.06092 I-4.53364 J-14.1832
G3 X-38.75159 Y-11.929 I-0.44553 J-12.97884
G3 X-38.94212 Y-12.05376 I1.65663 J-2.7378
G3 X-43.29876 Y-18.73811 I6.24219 J-8.8304
G3 X-43.77228 Y-23.1802 I18.74102 J-4.24404
G3 X-39.38064 Y-37.30563 I24.88539 J-0.00847
G3 X-39.36069 Y-37.33426 I2.63528 J1.81529
G3 X-29.31435 Y-47.12595 I31.3111 J22.07573
G3 X-17.57505 Y-53.37847 I29.63271 J41.48967
G3 X-17.56653 Y-53.38165 I1.12305 J2.99646
G3 X-4.17585 Y-55.81706 I13.54893 J36.46544
G3 X6.4852 Y-52.7162 I0.37163 J18.59953
G3 X6.57827 Y-52.65201 I-1.76991 J2.66597
G3 X13.52451 Y-44.43284 I-12.77538 J17.84163
G3 X16.0037 Y-38.23825 I-33.30057 J16.9209
G3 X16.00802 Y-38.22373 I-3.06522 J0.91891
G3 X19.62799 Y-21.46066 I-111.48765 J32.84808
G3 X20.91008 Y-10.95745 I-231.47189 J33.58483
G1 F300.0 Z-5.0
G3 F800.0 X21.44945 Y-4.65049 I-232.75398 J23.08161
G3 X21.44996 Y-4.64326 I-3.19176 J0.2295
G3 X22.54958 Y28.89944 I-455.66267 J31.72726
G3 X22.5495 Y28.91315 I-3.19997 J-0.01272
G2 X22.54603 Y30.19355 I115.41572 J0.95336
G1 X24.33825
G2 X28.00922 Y29.9593 I-0.6471 J-39.02072
G3 X28.09316 Y29.95107 I0.35407 J3.18035
G3 X31.9122 Y29.74997 I5.06018 J59.73194
G3 X40.89812 Y33.66491 I0.26213 J11.66847
G3 X44.00469 Y41.66038 I-8.79998 J8.02041
G3 X38.2763 Y51.50101 I-10.79659 J0.30274
G3 X38.25529 Y51.51208 I-1.50157 J-2.82582
G3 X29.33736 Y54.08522 I-10.80241 J-20.69842
G3 X23.7787 Y54.36696 I-5.33339 J-50.24924
G3 X23.75112 Y54.36672 I0.01427 J-3.19997
G3 X11.60094 Y53.91671 I3.32062 J-253.90927
G3 X11.59912 Y53.9166 I0.19496 J-3.19406
G2 X-0.14664 Y53.47847 I-14.90526 J241.93042
G2 X-6.35442 Y53.6027 I1.83977 J247.09596
G3 X-12.84639 Y53.79536 I-8.191 J-166.53723
G3 X-19.72658 Y52.84512 I-0.45807 J-22.06635
G3 X-26.28293 Y47.44502 I2.97884 J-10.2968
G3 X-26.34899 Y47.30852 I2.84658 J-1.46184
G3 X-27.45964 Y41.97466 I11.27453 J-5.13021
G3 X-23.5707 Y33.14147 I11.36973 J-0.26698
G3 X-23.56888 Y33.13988 I2.10488 J2.41029
G3 X-15.11091 Y30.06594 I8.20923 J9.41469
G2 X-7.78695 Y29.81665 I-4.28148 J-233.49684
G3 X-7.78163 Y29.81639 I0.15902 J3.19605
G3 X-1.71522 Y29.71297 I4.70034 J97.74376
G2 X-1.68709 Y28.83449 I-108.38991 J-3.91046
G2 X-2.63383 Y-6.97836 I-573.26293 J-2.7642
G2 X-4.02318 Y-26.62216 I-1011.48018 J61.66801
G2 X-5.11434 Y-31.99341 I-27.15074 J2.71916
G2 X-5.15178 Y-32.10064 I-2.44205 J0.79241
G2 X-9.33406 Y-31.12343 I1.24496 J14.76653
G3 X-9.34341 Y-31.11977 I-1.17196 J-2.97767
G2 X-14.48051 Y-28.43954 I9.66994 J24.79719
G3 X-14.49236 Y-28.43165 I-1.78023 J-2.65909
G2 X-17.27825 Y-26.28397 I13.65372 J20.59184
G3 X-17.3103 Y-26.25578 I-2.1292 J-2.38883
G2 X-19.18349 Y-24.00672 I5.95836 J6.86718
G2 X-19.47047 Y-23.02793 I1.89479 J1.08702
G3 X-20.74887 Y-16.29582 I-16.31964 J0.38841
G3 X-20.77961 Y-16.2253 I-2.94849 J-1.24354
G3 X-26.89397 Y-10.7675 I-9.18579 J-4.13697
G3 X-26.89526 Y-10.76709 I-0.9756 J-3.04765
G3 X-31.58298 Y-10.06092 I-4.53364 J-14.1832
G3 X-38.75159 Y-11.929 I-0.44553 J-12.97884
G3 X-38.94212 Y-12.05376 I1.65663 J-2.7378
G3 X-43.29876 Y-18.73811 I6.24219 J-8.8304
G3 X-43.77228 Y-23.1802 I18.74102 J-4.24404
G3 X-39.38064 Y-37.30563 I24.88539 J-0.00847
G3 X-39.36069 Y-37.33426 I2.63528 J1.81529
G3 X-29.31435 Y-47.12595 I31.3111 J22.07573
G3 X-17.57505 Y-53.37847 I29.63271 J41.48967
G3 X-17.56653 Y-53.38165 I1.12305 J2.99646
G3 X-4.17585 Y-55.81706 I13.54893 J36.46544
G3 X6.4852 Y-52.7162 I0.37163 J18.59953
G3 X6.57827 Y-52.65201 I-1.76991 J2.66597
G3 X13.52451 Y-44.43284 I-12.77538 J17.84163
G3 X16.0037 Y-38.23825 I-33.30057 J16.9209
G3 X16.00802 Y-38.22373 I-3.06522 J0.91891
G3 X19.62799 Y-21.46066 I-111.48765 J32.84808
G3 X20.91008 Y-10.95745 I-231.47189 J33.58483
G0 Z3.0
G0 X36.80867 Y15.61021
G0 Z-1.5
G1 F300.0 Z-5.0
G3 F800.0 X36.81248 Y15.76779 I-471.02137 J11.47379
G3 X36.92635 Y15.78864 I-4.63815 J25.65065
G3 X36.80867 Y15.61021 I47.02126 J-31.14254
G1 F300.0 X34.40938 Y15.66866
G3 F800.0 X34.45767 Y17.86223 I-468.62209 J11.41534
G3 X43.85067 Y20.83272 I-2.28335 J23.55621
G3 X40.62841 Y16.88502 I34.28511 J-31.27364
G3 X34.04035 Y5.26567 I43.31919 J-32.23892
G3 X34.40938 Y15.66866 I-468.25306 J21.81834
G0 Z3.0
G0 X-21.07021 Y11.38709
G0 Z-1.5
G1 F300.0 Z-5.0
G2 F800.0 X-21.18493 Y7.5593 I-553.87981 J14.6832
G3 X-27.6 Y8.91934 I-10.24397 J-32.50959
G1 Y13.32794
G3 X-21.07021 Y11.38709 I12.24035 J29.22664
G1 F300.0 X-18.67106 Y11.32349
G2 F800.0 X-18.90844 Y4.12688 I-556.27897 J14.7468
G3 X-21.77352 Y5.22811 I-11.05696 J-24.48914
G3 X-21.78159 Y5.23069 I-6.09605 J-19.04327
G3 X-30.0 Y6.70284 I-9.64731 J-30.18098
G1 Y17.19026
G3 X-18.61875 Y13.45017 I14.64035 J25.36431
G2 X-18.67106 Y11.32349 I-556.33128 J12.62012
