( Made using CamBam - http://www.cambam.co.uk )
( Caren_und_Jonas 7/21/2021 11:17:37 AM )
( T2 : 2.0 )
( T4 : 4.0 )
( T6 : 6.0 )
G21 G90 G64 G40
G0 Z3.0
( T6 : 6.0 )
T6 M6
( Vertiefung-Datum )
G17
M3 S1000
G0 X-36.80944 Y59.78094
G0 Z1.0
G1 F300.0 Z-2.0
G1 F800.0 Y62.02797
G1 X23.81921
G1 Y59.78094
G1 X-36.80944
G1 F300.0 Y58.58094
G1 F800.0 X-38.00944
G1 Y63.22797
G1 X25.01921
G1 Y58.58094
G1 X-36.80944
G1 F300.0 Y56.18094
G1 F800.0 X-40.40944
G1 Y65.62797
G1 X27.41921
G1 Y56.18094
G1 X-36.80944
G1 F300.0 Y53.78094
G1 F800.0 X-42.80944
G1 Y68.02797
G1 X29.81921
G1 Y53.78094
G1 X-36.80944
G1 F300.0 Y51.38094
G1 F800.0 X-45.20944
G1 Y70.42797
G1 X32.21921
G1 Y51.38094
G1 X-36.80944
G1 F300.0 Y48.98094
G1 F800.0 X-47.60944
G1 Y72.82797
G1 X34.61921
G1 Y48.98094
G1 X-36.80944
G1 F300.0 Y46.58094
G1 F800.0 X-50.00944
G1 Y75.22797
G1 X37.01921
G1 Y46.58094
G1 X-36.80944
G0 Z3.0
G0 Y-69.19425
G0 Z1.0
G1 F300.0 Z-2.0
G1 F800.0 X23.81921
G1 Y-71.44128
G1 X-36.80944
G1 Y-69.19425
G1 F300.0 Y-67.99425
G1 F800.0 X25.01921
G1 Y-72.64128
G1 X-38.00944
G1 Y-67.99425
G1 X-36.80944
G1 F300.0 Y-65.59425
G1 F800.0 X27.41921
G1 Y-75.04128
G1 X-40.40944
G1 Y-65.59425
G1 X-36.80944
G1 F300.0 Y-63.19425
G1 F800.0 X29.81921
G1 Y-77.44128
G1 X-42.80944
G1 Y-63.19425
G1 X-36.80944
G1 F300.0 Y-60.79425
G1 F800.0 X32.21921
G1 Y-79.84128
G1 X-45.20944
G1 Y-60.79425
G1 X-36.80944
G1 F300.0 Y-58.39425
G1 F800.0 X34.61921
G1 Y-82.24128
G1 X-47.60944
G1 Y-58.39425
G1 X-36.80944
G1 F300.0 Y-55.99425
G1 F800.0 X37.01921
G1 Y-84.64128
G1 X-50.00944
G1 Y-55.99425
G1 X-36.80944
( Tasche6mm )
S1000
G0 Z3.0
G0 X124.4 Y-49.4
G0 Z1.0
G1 F300.0 Z-2.5
G1 F800.0 X118.6278
G3 X124.4 Y-33.90636 I-97.64126 J45.19858
G1 Y-49.4
G0 Z3.0
G0 X120.8 Y44.80517
G0 Z1.0
G1 F300.0 Z-2.5
G3 F800.0 X120.30538 Y45.8 I-99.81346 J-49.00659
G1 X120.8
G1 Y44.80517
G1 F300.0 X122.0
G1 F800.0 Y39.33277
G3 X118.33827 Y47.0 I-101.01346 J-43.53418
G1 X122.0
G1 Y44.80517
G1 F300.0 X124.4
G1 F800.0 Y25.50353
G3 X114.27971 Y49.4 I-103.41346 J-29.70494
G1 X124.4
G1 Y44.80517
G1 F300.0 X126.8
G1 F800.0 Y-51.8
G1 X114.79701
G3 X126.18174 Y-4.20142 I-93.81047 J47.59858
G3 X110.03637 Y51.8 I-105.1952 J0.0
G1 X126.8
G1 Y44.80517
G1 F300.0 X129.2
G1 F800.0 Y-54.2
G1 X110.80299
G3 X123.78174 Y-4.20142 I-89.81645 J49.99858
G3 X105.58044 Y54.2 I-102.7952 J0.0
G1 X129.2
G1 Y44.80517
G1 F300.0 X131.6
G1 F800.0 Y-56.6
G1 X106.62289
G3 X121.38174 Y-4.20142 I-85.63635 J52.39858
G3 X100.87637 Y56.6 I-100.3952 J0.0
G1 X131.6
G1 Y44.80517
G1 F300.0 X134.0
G1 F800.0 Y-59.0
G1 X102.228
G3 X118.98174 Y-4.20142 I-81.24146 J54.79858
G3 X95.8774 Y59.0 I-97.9952 J0.0
G1 X134.0
G1 Y44.80517
G1 F300.0 X136.4
G1 F800.0 Y-61.4
G1 X97.58135
G3 X116.58174 Y-4.20142 I-76.59481 J57.19858
G3 X90.51996 Y61.4 I-95.5952 J0.0
G1 X136.4
G1 Y44.80517
G1 F300.0 X138.8
G1 F800.0 Y-63.8
G1 X92.63397
G3 X114.18174 Y-4.20142 I-71.64743 J59.59858
G3 X85.23778 Y63.30505 I-93.1952 J0.0
G3 X85.11217 Y63.8 I-51.45545 J-12.79507
G1 X138.8
G1 Y44.80517
G1 F300.0 X141.2
G1 F800.0 Y-66.2
G1 X87.31861
G3 X111.78174 Y-4.20142 I-66.33207 J61.99858
G3 X83.07202 Y62.04934 I-90.7952 J0.0
G3 X81.91187 Y66.2 I-49.28968 J-11.53936
G1 X141.2
G1 Y44.80517
G1 F300.0 X143.6
G1 F800.0 Y-68.6
G1 X81.53845
G3 X109.38174 Y-4.20142 I-60.55191 J64.39858
G3 X80.8949 Y60.79627 I-88.3952 J0.0
G3 X78.48304 Y68.6 I-47.11257 J-10.2863
G1 X143.6
G1 Y44.80517
G1 F300.0 X146.0
G1 F800.0 Y-71.0
G1 X75.14486
G3 X106.98174 Y-4.20142 I-54.15832 J66.79858
G3 X78.70494 Y59.54622 I-85.9952 J0.0
G3 X74.76835 Y71.0 I-44.92261 J-9.03624
G1 X146.0
G1 Y44.80517
G1 F300.0 X148.4
G1 F800.0 Y-73.4
G1 X68.61896
G3 X68.54181 Y-72.95208 I-42.42355 J-7.07652
G3 X104.58174 Y-4.20142 I-47.55527 J68.75066
G3 X76.50035 Y58.29958 I-83.5952 J0.0
G3 X70.68157 Y73.4 I-42.71802 J-7.7896
G1 X148.4
G1 Y44.80517
G1 F300.0 X150.8
G1 F800.0 Y-75.8
G1 X66.53495
G3 X65.87978 Y-71.85685 I-40.33953 J-4.67652
G3 X102.18174 Y-4.20142 I-44.89324 J67.65543
G3 X74.27897 Y57.05687 I-81.1952 J0.0
G3 X66.08177 Y75.8 I-40.49663 J-6.54689
G1 X150.8
G1 Y44.80517
G1 F300.0 X153.2
G1 F800.0 Y-78.2
G1 X64.33724
G3 X63.15067 Y-70.7662 I-38.14182 J-2.27652
G3 X99.78174 Y-4.20142 I-42.16413 J66.56478
G3 X72.03817 Y55.81871 I-78.7952 J0.0
G3 X62.18403 Y76.68315 I-38.25584 J-5.30873
G3 X61.84752 Y78.2 I-44.87136 J-9.15882
G1 X153.2
G1 Y44.80517
G1 F300.0 X155.6
G1 F800.0 Y-80.6
G1 X62.0053
G3 X62.00509 Y-80.43272 I-35.82906 J0.03811
G3 X60.33916 Y-69.68117 I-35.80968 J-0.0438
G3 X97.38174 Y-4.20142 I-39.35262 J65.47975
G3 X69.77471 Y54.58584 I-76.3952 J0.0
G3 X59.96176 Y75.54398 I-35.99238 J-4.07586
G3 X58.69246 Y80.6 I-42.64909 J-8.01965
G1 X155.6
G1 Y44.80517
G1 F300.0 X158.0
G1 F800.0 Y-83.0
G1 X59.51629
G3 X59.60509 Y-80.43851 I-33.34005 J2.43811
G3 X57.42413 Y-68.60322 I-33.40968 J-0.03801
G3 X94.98174 Y-4.20142 I-36.43759 J64.4018
G3 X67.48453 Y53.35922 I-73.9952 J0.0
G3 X57.72937 Y74.39503 I-33.7022 J-2.84924
G3 X56.34205 Y80.0712 I-40.4167 J-6.8707
G3 X56.32938 Y80.11052 I-30.45996 J-9.79203
G3 X55.26119 Y83.0 I-35.10077 J-11.33396
G1 X158.0
G1 Y44.80517
G1 F300.0 X160.4
G1 F800.0 Y-85.4
G1 X56.82582
G3 X57.2051 Y-80.44431 I-30.64958 J4.83811
G3 X54.41842 Y-67.62881 I-31.00969 J-0.03221
G3 X54.4255 Y-67.50788 I-65.98423 J3.92294
G3 X92.58174 Y-4.20142 I-33.43896 J63.30647
G3 X65.16244 Y52.14006 I-71.5952 J0.0
G3 X55.95886 Y72.77139 I-31.38011 J-1.63008
G3 X55.48394 Y73.23813 I-22.26138 J-22.17656
G3 X54.05721 Y79.33668 I-38.17126 J-5.7138
G3 X54.04549 Y79.37306 I-28.17512 J-9.05752
G3 X51.44276 Y85.4 I-32.81689 J-10.5965
G1 X160.4
G1 Y44.80517
G1 F300.0 X162.8
G1 F800.0 Y-87.8
G1 X53.87523
G3 X54.8051 Y-80.4501 I-27.69899 J7.23811
G3 X51.98399 Y-68.08845 I-28.60969 J-0.02642
G3 X52.09323 Y-66.01039 I-63.5498 J4.38257
G3 X90.18174 Y-4.20142 I-31.10669 J61.80898
G3 X62.80172 Y50.92994 I-69.1952 J0.0
G3 X54.2618 Y71.07433 I-29.01938 J-0.41997
G3 X53.22303 Y72.067 I-20.56432 J-20.4795
G3 X51.77237 Y78.60217 I-35.91036 J-4.54267
G3 X51.7616 Y78.6356 I-25.89028 J-8.32301
G3 X47.06604 Y87.8 I-30.533 J-9.85903
G1 X162.8
G1 Y44.80517
G1 F300.0 X165.2
G1 F800.0 Y-90.2
G1 X50.57033
G3 X52.40511 Y-80.4559 I-24.39409 J9.63811
G3 X49.54204 Y-68.56503 I-26.20969 J-0.02062
G3 X49.72984 Y-64.49587 I-61.10785 J4.85916
G3 X87.78174 Y-4.20142 I-28.7433 J60.29446
G3 X60.39511 Y49.72968 I-66.7952 J0.0
G3 X60.40474 Y50.53624 I-26.63041 J0.72126
G3 X52.56474 Y69.37727 I-26.62241 J-0.02626
G3 X50.94252 Y70.87689 I-18.86726 J-18.78244
G3 X49.48753 Y77.86766 I-33.62984 J-3.35257
G3 X49.47771 Y77.89813 I-23.60544 J-7.5885
G3 X41.77736 Y90.2 I-28.24911 J-9.12157
G1 X165.2
G1 Y44.80517
G1 F300.0 X167.6
G1 F800.0 Y-92.6
G1 X46.74099
G3 X50.00511 Y-80.46169 I-20.56476 J12.03811
G3 X47.09294 Y-69.06621 I-23.8097 J-0.01483
G3 X47.13149 Y-68.59713 I-118.65675 J9.98631
G3 X47.33133 Y-64.35691 I-58.6973 J4.89126
G3 X47.33035 Y-63.78465 I-22.39383 J0.24754
G3 X47.31227 Y-62.96959 I-53.08057 J-0.76973
G3 X85.38174 Y-4.20142 I-26.32572 J58.76817
G3 X57.92966 Y48.54276 I-64.3952 J0.0
G3 X58.00475 Y50.53122 I-24.16495 J1.90818
G3 X50.86768 Y67.6802 I-24.22241 J-0.02124
G3 X48.63636 Y69.66197 I-17.1702 J-17.08538
G3 X47.20269 Y77.13314 I-31.32368 J-2.13764
G3 X47.19382 Y77.16067 I-21.3206 J-6.85398
G3 X37.64058 Y90.5741 I-25.96522 J-8.38411
G3 X37.28054 Y90.8396 I-13.47062 J-17.89099
G3 X34.51324 Y92.6 I-16.32956 J-22.61437
G1 X167.6
G1 Y44.80517
G0 Z3.0
G0 X0.48496 Y41.39689
G0 Z1.0
G1 F300.0 Z-2.5
G3 F800.0 X-4.01106 Y39.0957 I20.50158 J-45.5983
G3 X-7.01346 Y37.21742 I24.9976 J-43.29711
G3 X-12.7598 Y40.56793 I-28.0 J-41.41884
G3 X-6.93492 Y42.91024 I-0.56977 J9.83073
G3 X-4.08801 Y41.88462 I6.39785 J13.29512
G3 X-4.08266 Y41.8833 I1.9242 J7.7602
G3 X-0.07148 Y41.39522 I4.00785 J16.21122
G3 X0.48496 Y41.39689 I0.22955 J16.29267
G0 Z3.0
G0 X-31.48415 Y57.4638
G0 Z1.0
G1 F300.0 Z-2.5
G3 F800.0 X-31.77664 Y57.29276 I3.35306 J-6.06993
G3 X-33.4705 Y58.20077 I-4.93431 J-7.17084
G3 X-32.12007 Y59.578 I-11.61037 J12.73512
G3 X-32.03607 Y59.67612 I-4.20805 J3.68762
G3 X-31.359 Y60.55869 I-10.13644 J8.47725
G3 X-31.48415 Y57.4638 I54.7778 J-3.76501
G1 F300.0 X-29.08912 Y57.43456
G2 F800.0 X-28.96056 Y60.52132 I52.50792 J-0.64088
G2 X-28.71871 Y63.5956 I135.71914 J-9.13053
G3 X-28.63551 Y64.59557 I-116.52423 J10.19757
G2 X-31.25036 Y65.95914 I0.75597 J4.63862
G2 X-31.51804 Y66.25167 I3.3362 J3.3215
G2 X-31.9116 Y64.72421 I-12.14044 J2.31362
G2 X-31.92091 Y64.69618 I-3.04153 J0.99454
G2 X-33.87342 Y61.21272 I-10.25161 J3.45719
G2 X-33.92146 Y61.1566 I-2.45471 J2.05291
G2 X-36.29205 Y58.98083 I-11.15941 J9.77928
G2 X-38.61247 Y57.40417 I-18.3398 J24.49548
G3 X-39.85147 Y56.60425 I25.55103 J-40.93524
G2 X-37.95985 Y56.65268 I3.68355 J-106.90937
G2 X-37.9235 Y56.65308 I0.0536 J-3.19955
G2 X-34.54402 Y56.04743 I0.05092 J-9.44736
G2 X-32.67501 Y54.9715 I-2.16693 J-5.92551
G2 X-31.82291 Y54.03499 I-2.85256 J-3.45138
G2 X-29.68629 Y55.65842 I3.69182 J-2.64112
G2 X-29.03535 Y55.86373 I2.53115 J-6.89066
G2 X-29.08999 Y57.21729 I33.21831 J2.01872
G2 X-29.09047 Y57.31289 I3.19936 J0.06396
G2 X-29.08912 Y57.43456 I52.50927 J-0.5192
G0 Z3.0
G0 X-119.60736 Y54.2
G0 Z1.0
G1 F300.0 Z-2.5
G3 F800.0 X-125.2 Y45.12648 I84.5939 J-58.40142
G1 Y54.2
G1 X-119.60736
G1 F300.0 Y56.6
G1 F800.0 X-114.90328
G3 X-127.6 Y34.61776 I79.88982 J-60.80142
G1 Y56.6
G1 X-119.60736
G1 F300.0 Y59.0
G1 F800.0 X-109.90431
G3 X-130.0 Y19.89456 I74.89086 J-63.20142
G1 Y59.0
G1 X-119.60736
G0 Z3.0
G0 X-125.2 Y-53.52931
G0 Z1.0
G1 F300.0 Z-2.5
G3 F800.0 X-124.82991 Y-54.2 I90.18654 J49.32789
G1 X-125.2
G1 Y-53.52931
G1 F300.0 X-127.6
G1 F800.0 Y-43.02059
G3 X-120.64981 Y-56.6 I92.58654 J38.81918
G1 X-127.6
G1 Y-53.52931
G1 F300.0 X-130.0
G1 F800.0 Y-28.2974
G3 X-116.25492 Y-59.0 I94.98654 J24.09598
G1 X-130.0
G1 Y-53.52931
G1 F300.0 X-132.4
G1 F800.0 Y61.4
G1 X-104.54688
G3 X-111.60826 Y-61.4 I69.53342 J-65.60142
G1 X-132.4
G1 Y-53.52931
G1 F300.0 X-134.8
G1 F800.0 Y63.8
G1 X-99.82178
G3 X-99.71896 Y62.86977 I52.06161 J5.28393
G3 X-106.66089 Y-63.8 I64.7055 J-67.07118
G1 X-134.8
G1 Y-53.52931
G1 F300.0 X-137.2
G1 F800.0 Y66.2
G1 X-97.60588
G3 X-97.18028 Y61.97301 I49.84571 J2.88393
G3 X-101.34553 Y-66.2 I62.16682 J-66.17443
G1 X-137.2
G1 Y-53.52931
G1 F300.0 X-139.6
G1 F800.0 Y68.6
G1 X-95.28678
G3 X-94.68037 Y61.50059 I47.5266 J0.48393
G3 X-94.76054 Y60.94455 I56.14981 J-8.37931
G3 X-95.56537 Y-68.6 I59.74708 J-65.14597
G1 X-139.6
G1 Y-53.52931
G1 F300.0 X-142.0
G1 F800.0 Y71.0
G1 X-92.84921
G3 X-92.85948 Y70.72257 I45.60389 J-1.82791
G3 X-92.25018 Y61.51611 I45.09931 J-1.63864
G3 X-92.49541 Y59.75951 I53.71962 J-8.39483
G3 X-89.17178 Y-71.0 I57.48195 J-63.96093
G1 X-142.0
G1 Y-53.52931
G1 F300.0 X-144.4
G1 F800.0 Y73.4
G1 X-90.27863
G3 X-90.46096 Y70.63823 I43.03332 J-4.22791
G3 X-89.81684 Y61.53344 I42.70079 J-1.5543
G3 X-90.21518 Y58.57539 I51.28628 J-8.41216
G3 X-82.22126 Y-73.19114 I55.20172 J-62.77681
G3 X-82.24382 Y-73.4 I51.65945 J-5.68759
G1 X-144.4
G1 Y-53.52931
G1 F300.0 X-146.8
G1 F800.0 Y75.8
G1 X-87.54442
G3 X-88.06244 Y70.55389 I40.29911 J-6.62791
G3 X-87.37983 Y61.5529 I40.30227 J-1.46996
G3 X-87.91782 Y57.39232 I48.84927 J-8.43162
G3 X-79.6569 Y-72.02194 I52.90436 J-61.59374
G3 X-80.03771 Y-75.8 I49.09509 J-6.85678
G1 X-146.8
G1 Y-53.52931
G1 F300.0 X-149.2
G1 F800.0 Y78.2
G1 X-84.61067
G3 X-85.66392 Y70.46955 I37.36535 J-9.02791
G3 X-84.9385 Y61.57485 I37.90375 J-1.38562
G3 X-85.6009 Y56.21046 I46.40794 J-8.45358
G3 X-77.04512 Y-70.84992 I50.58744 J-60.41187
G3 X-77.72853 Y-78.2 I46.48331 J-8.0288
G1 X-149.2
G1 Y-53.52931
G1 F300.0 X-151.6
G1 F800.0 Y80.6
G1 X-81.42603
G3 X-83.2654 Y70.38521 I34.18071 J-11.42791
G3 X-82.49203 Y61.59978 I35.50523 J-1.30128
G3 X-83.26145 Y55.02997 I43.96147 J-8.4785
G3 X-74.71018 Y-69.47313 I48.248 J-59.23139
G3 X-74.52328 Y-70.40022 I34.91876 J6.55706
G3 X-75.33277 Y-79.11878 I43.96147 J-8.4785
G3 X-75.30756 Y-80.6 I47.37194 J0.0653
G1 X-151.6
G1 Y-53.52931
G1 F300.0 X-154.0
G1 F800.0 Y83.0
G1 X-77.91244
G3 X-80.86688 Y70.30087 I30.66713 J-13.82791
G3 X-80.0394 Y61.62827 I33.10671 J-1.21693
G3 X-80.89587 Y53.85109 I41.50884 J-8.50699
G3 X-72.53118 Y-67.98002 I45.88241 J-58.05251
G3 X-72.07065 Y-70.37173 I32.73975 J5.06395
G3 X-72.93277 Y-79.11069 I41.50884 J-8.50699
G3 X-72.84152 Y-81.9175 I44.97195 J0.05721
G3 X-72.75961 Y-83.0 I35.99329 J2.17931
G1 X-154.0
G1 Y-53.52931
G1 F300.0 X-156.4
G1 F800.0 Y85.4
G1 X-73.94034
G3 X-78.46836 Y70.21652 I26.69502 J-16.22791
G3 X-77.57925 Y61.66111 I30.70819 J-1.13259
G3 X-78.50153 Y52.89742 I39.04869 J-8.53983
G3 X-78.50068 Y52.67331 I42.57196 J0.04911
G3 X-70.81106 Y-66.20468 I43.48722 J-56.87472
G3 X-70.31193 Y-66.49018 I35.7976 J62.00326
G3 X-69.6105 Y-70.33889 I30.52051 J3.57412
G3 X-70.53278 Y-79.10258 I39.04869 J-8.53983
G3 X-70.44614 Y-81.76857 I42.57196 J0.04911
G3 X-70.02783 Y-85.4 I33.59791 J2.03038
G1 X-156.4
G1 Y-53.52931
G1 F300.0 X-158.8
G1 F800.0 Y87.8
G1 X-69.26294
G3 X-76.06984 Y70.13217 I22.01763 J-18.62791
G3 X-75.10982 Y61.6993 I28.30967 J-1.04824
G3 X-76.10154 Y52.90553 I36.57926 J-8.57803
G3 X-76.07527 Y51.49332 I40.17197 J0.041
G3 X-69.61106 Y-64.12622 I41.06181 J-55.69474
G3 X-68.04342 Y-65.00436 I34.5976 J59.9248
G3 X-67.14107 Y-70.3007 I28.25199 J2.08829
G3 X-68.13279 Y-79.09447 I36.57926 J-8.57803
G3 X-68.05076 Y-81.61967 I40.17197 J0.041
G3 X-67.04997 Y-87.8 I31.20253 J1.88148
G1 X-158.8
G1 Y-53.52931
G1 F300.0 X-161.2
G1 F800.0 Y90.2
G1 X-63.3897
G3 X-65.03951 Y88.72885 I33.25491 J-38.95419
G3 X-73.67132 Y70.04782 I17.7942 J-19.55676
G3 X-72.62874 Y61.74425 I25.91115 J-0.96389
G3 X-73.70155 Y52.91365 I34.09818 J-8.62297
G3 X-73.62413 Y50.5292 I37.77197 J0.03287
G3 X-73.61035 Y50.31353 I28.80715 J1.73262
G3 X-68.41106 Y-62.04776 I38.59689 J-54.51494
G3 X-65.71337 Y-63.52354 I33.3976 J57.84634
G3 X-64.65999 Y-70.25575 I25.92195 J0.60747
G3 X-65.7328 Y-79.08635 I34.09818 J-8.62297
G3 X-65.65538 Y-81.4708 I37.77197 J0.03287
G3 X-64.60337 Y-87.64427 I28.80715 J1.73262
G3 X-63.73595 Y-90.2 I25.31492 J7.16682
G1 X-161.2
G1 Y-53.52931
G1 F300.0 X-163.6
G1 F800.0 Y92.6
G1 X-55.82438
G3 X-56.49057 Y92.21874 I14.64751 J-26.36661
G3 X-60.93048 Y89.1253 I17.94678 J-30.49136
G3 X-63.4142 Y86.96291 I30.79569 J-37.87948
G3 X-71.2728 Y69.96346 I16.16889 J-17.79082
G3 X-70.1327 Y61.79783 I23.51262 J-0.87953
G3 X-71.30155 Y52.92178 I31.60214 J-8.67656
G3 X-71.22874 Y50.67801 I35.37198 J0.02474
G3 X-71.09119 Y49.13843 I26.41176 J1.5838
G3 X-67.21106 Y-59.9693 I36.07773 J-53.33985
G3 X-63.30451 Y-62.04913 I32.1976 J55.76788
G3 X-62.16395 Y-70.20217 I23.51309 J-0.86694
G3 X-63.3328 Y-79.07822 I31.60214 J-8.67656
G3 X-63.25999 Y-81.32199 I35.37198 J0.02474
G3 X-62.29465 Y-86.98865 I26.41176 J1.5838
G3 X-59.8973 Y-92.6 I23.00621 J6.5112
G1 X-163.6
G1 Y-53.52931
G1 F300.0 X-166.0
G1 F800.0 Y95.0
G1 X170.0
G1 Y-95.0
G1 X42.01122
G3 X47.60511 Y-80.46748 I-15.83498 J14.43811
G3 X44.63711 Y-69.6009 I-21.4097 J-0.00904
G3 X44.73947 Y-68.40155 I-116.20091 J10.521
G3 X44.93148 Y-64.33038 I-56.30528 J4.69567
G3 X44.9306 Y-63.81945 I-19.99398 J0.22101
G3 X44.85262 Y-61.64963 I-50.68083 J-0.73493
G3 X44.87699 Y-61.40851 I-29.51426 J3.10424
G3 X82.98174 Y-4.20142 I-23.89045 J57.20709
G3 X55.38703 Y47.37388 I-61.9952 J0.0
G3 X55.60475 Y50.52619 I-21.62233 J3.07706
G3 X49.17062 Y65.98314 I-21.82242 J-0.01621
G3 X46.29557 Y68.41353 I-15.47314 J-15.38831
G3 X44.91785 Y76.39863 I-28.9829 J-0.8892
G3 X44.90994 Y76.42321 I-19.03576 J-6.11947
G3 X36.19699 Y88.6568 I-23.68133 J-7.64665
G3 X35.87553 Y88.89384 I-12.02703 J-15.97368
G3 X27.51262 Y92.86014 I-14.92456 J-20.66861
G3 X27.42324 Y92.88373 I-5.1464 J-19.32156
G3 X19.61265 Y93.83936 I-7.45126 J-28.50406
G3 X10.77297 Y92.34451 I0.05521 J-27.21029
G3 X0.51379 Y94.29315 I-10.16865 J-25.55529
G3 X-12.13605 Y91.33141 I-0.21552 J-27.57461
G3 X-23.98422 Y94.33377 I-10.85119 J-17.94254
G3 X-32.06364 Y92.47442 I0.99873 J-22.82314
G3 X-41.4511 Y93.99406 I-9.06022 J-26.21384
G3 X-55.27262 Y90.15074 I0.27422 J-27.76066
G3 X-59.4142 Y87.26495 I16.72883 J-28.42336
G3 X-61.78917 Y85.1967 I29.27941 J-36.01913
G3 X-68.87427 Y69.8791 I14.54385 J-16.02461
G3 X-67.61698 Y61.8628 I21.1141 J-0.79517
G3 X-68.90156 Y52.92994 I29.08642 J-8.74152
G3 X-68.83335 Y50.82677 I32.97199 J0.01658
G3 X-68.49161 Y47.97729 I24.01637 J1.43504
G3 X-66.01106 Y-57.89083 I33.47816 J-52.17871
G3 X-60.79993 Y-60.57927 I30.9976 J53.68942
G3 X-60.90552 Y-62.1209 I21.52336 J-2.24864
G3 X-59.64823 Y-70.1372 I21.1141 J-0.79517
G3 X-60.93281 Y-79.07006 I29.08642 J-8.74152
G3 X-60.8646 Y-81.17323 I32.97199 J0.01658
G3 X-59.98594 Y-86.33304 I24.01637 J1.43504
G3 X-55.15569 Y-95.0 I20.69749 J5.85559
G1 X-166.0
G1 Y-53.52931
G1 F300.0 X-168.4
G1 F800.0 Y97.4
G1 X172.4
G1 Y-97.4
G1 X35.05455
G3 X39.46881 Y-94.17856 I-8.91097 J16.84557
G3 X45.20512 Y-80.47328 I-13.29257 J13.61667
G3 X42.17246 Y-70.1759 I-19.0097 J-0.00324
G3 X42.34745 Y-68.20593 I-113.73626 J11.096
G3 X42.53163 Y-64.30386 I-53.91326 J4.50005
G3 X42.53085 Y-63.85425 I-17.59413 J0.19448
G3 X42.44489 Y-61.59074 I-48.28108 J-0.70013
G3 X42.5891 Y-59.74345 I-27.10653 J3.04535
G3 X80.58174 Y-4.20142 I-21.60256 J55.54203
G3 X52.74093 Y46.22919 I-59.5952 J0.0
G3 X53.20475 Y50.52116 I-18.97623 J4.22174
G3 X47.47356 Y64.28608 I-19.42242 J-0.01119
G3 X43.90746 Y67.11714 I-13.77608 J-13.69125
G3 X43.90806 Y67.27658 I-24.51374 J0.17159
G3 X42.63301 Y75.66412 I-26.59539 J0.24775
G3 X42.62605 Y75.68575 I-16.75092 J-5.38496
G3 X34.7534 Y86.7395 I-21.39744 J-6.90918
G3 X34.47053 Y86.94809 I-10.58344 J-14.05638
G3 X26.8949 Y90.541 I-13.51955 J-18.72286
G3 X26.81625 Y90.56175 I-4.52869 J-17.00241
G3 X19.6297 Y91.43939 I-6.84427 J-26.18208
G3 X10.71434 Y89.76752 I0.03816 J-24.81032
G3 X0.50836 Y91.89312 I-10.11002 J-22.9783
G3 X-12.25432 Y88.54137 I-0.21009 J-25.17457
G3 X-23.87469 Y91.93627 I-10.73291 J-15.15249
G3 X-31.95996 Y89.88061 I0.8892 J-20.42564
G3 X-41.42509 Y91.5942 I-9.1639 J-23.62003
G3 X-54.05466 Y88.08275 I0.24821 J-25.3608
G3 X-57.8979 Y85.40462 I15.51087 J-26.35537
G3 X-60.16448 Y83.43015 I27.7631 J-34.1588
G3 X-66.47575 Y69.79473 I12.91916 J-14.25806
G3 X-65.07315 Y61.93978 I18.71558 J-0.7108
G3 X-65.28532 Y61.28143 I23.67253 J-7.99281
G3 X-65.31158 Y61.19514 I16.82002 J-5.16506
G3 X-66.50156 Y52.93811 I26.78102 J-8.07386
G3 X-66.43795 Y50.97545 I30.57199 J0.00841
G3 X-65.78524 Y46.8347 I21.62097 J1.28636
G3 X-64.81106 Y-55.81237 I30.77178 J-51.03612
G3 X-58.15631 Y-59.1195 I29.7976 J51.61096
G3 X-58.507 Y-62.20527 I18.87975 J-3.70841
G3 X-57.1044 Y-70.06022 I18.71558 J-0.7108
G3 X-57.31657 Y-70.71857 I23.67253 J-7.99281
G3 X-57.34283 Y-70.80486 I16.82002 J-5.16506
G3 X-58.53281 Y-79.06189 I26.78102 J-8.07386
G3 X-58.4692 Y-81.02455 I30.57199 J0.00841
G3 X-57.67721 Y-85.67744 I21.62097 J1.28636
G3 X-51.2823 Y-95.35475 I18.38877 J5.19999
G3 X-50.37885 Y-96.03635 I11.04322 J13.69812
G3 X-48.12999 Y-97.4 I10.97953 J15.57064
G1 X-168.4
G1 Y-53.52931
G0 Z3.0
G0 X-23.96908 Y-52.96146
G0 Z1.0
G1 F300.0 Z-2.5
G3 F800.0 X-23.49332 Y-52.85125 I-11.04438 J48.76004
G3 X-23.79692 Y-53.08641 I9.38534 J-12.43021
G3 X-23.96908 Y-52.96146 I-7.97881 J-10.81218
G0 Z3.0
G0 X-7.16434 Y-48.58254
G0 Z1.0
G1 F300.0 Z-2.5
G3 F800.0 X-7.01346 Y-48.4875 I-27.84912 J44.38112
G3 X-6.13133 Y-49.03308 I28.0 J44.28608
G3 X-7.16434 Y-48.58254 I-7.67059 J-16.1777
G1 F300.0 X-3.94015 Y-50.28739
G3 F800.0 X-3.78454 Y-50.37122 I24.92669 J46.08597
G3 X-3.80174 Y-50.38184 I12.27199 J-19.9014
G3 X-3.94015 Y-50.28739 I-10.31215 J-14.96343
G1 F300.0 X-2.79837 Y-48.17639
G3 F800.0 X2.04851 Y-50.47096 I23.78491 J43.97497
G3 X-2.15151 Y-52.18916 I3.80586 J-15.29564
G3 X-3.8921 Y-53.33315 I10.63897 J-18.08346
G3 X-6.30241 Y-51.64283 I-10.22179 J-12.01212
G3 X-6.49295 Y-51.53762 I-3.95967 J-6.94581
G3 X-13.91957 Y-49.70715 I-7.30897 J-13.67316
G3 X-14.30752 Y-49.70729 I-0.18841 J-15.57431
G3 X-7.01346 Y-45.62025 I-20.70594 J45.50587
G3 X-4.01106 Y-47.49853 I28.0 J41.41884
G3 X-2.79837 Y-48.17639 I24.9976 J43.29711
G0 Z3.0
G0 X15.67225 Y-71.44131
G0 Z1.0
G1 F300.0 Z-2.5
G3 F800.0 X15.5471 Y-74.5362 I54.7778 J-3.76501
G3 X15.25461 Y-74.70724 I3.35306 J-6.06993
G3 X13.56075 Y-73.79923 I-4.93431 J-7.17084
G3 X14.91118 Y-72.422 I-11.61037 J12.73512
G3 X14.99518 Y-72.32388 I-4.20805 J3.68762
G3 X15.67225 Y-71.44131 I-10.13644 J8.47725
G1 F300.0 X18.06181 Y-71.60555
G2 F800.0 X18.07069 Y-71.47868 I52.38823 J-3.60077
G2 X18.31254 Y-68.4044 I135.71914 J-9.13053
G3 X18.39574 Y-67.40443 I-116.52423 J10.19757
G2 X15.78089 Y-66.04086 I0.75597 J4.63862
G2 X15.51321 Y-65.74833 I3.3362 J3.3215
G2 X15.11965 Y-67.27579 I-12.14044 J2.31362
G2 X15.11034 Y-67.30382 I-3.04153 J0.99454
G2 X13.15783 Y-70.78728 I-10.25161 J3.45719
G2 X13.10979 Y-70.8434 I-2.45471 J2.05291
G2 X10.7392 Y-73.01917 I-11.15941 J9.77928
G2 X8.41878 Y-74.59583 I-18.3398 J24.49548
G3 X7.17978 Y-75.39575 I25.55103 J-40.93524
G2 X9.0714 Y-75.34732 I3.68355 J-106.90937
G2 X9.10775 Y-75.34692 I0.0536 J-3.19955
G2 X12.48723 Y-75.95257 I0.05092 J-9.44736
G2 X14.35624 Y-77.0285 I-2.16693 J-5.92551
G2 X15.20834 Y-77.96501 I-2.85256 J-3.45138
G2 X17.34496 Y-76.34158 I3.69182 J-2.64112
G2 X17.9959 Y-76.13627 I2.53115 J-6.89066
G2 X17.94126 Y-74.78271 I33.21831 J2.01872
G2 X17.94078 Y-74.68711 I3.19936 J0.06396
G2 X18.06181 Y-71.60555 I52.50927 J-0.5192
G0 Z3.0
G0 X29.8857 Y-72.58624
G0 Z1.0
G1 F300.0 Z-2.5
G2 F800.0 X29.88979 Y-72.5374 I30.67428 J-2.54418
G3 X29.89183 Y-72.51267 I-5.57531 J0.47137
G2 X30.12561 Y-70.02029 I91.64625 J-7.33915
G1 X30.12562 Y-70.0202
G1 X30.1256 Y-70.02039
G1 X30.12561 Y-70.02029
G3 X30.38743 Y-67.227 I-101.68941 J10.9404
G3 X30.53236 Y-64.17122 I-41.95324 J3.52112
G3 X30.53211 Y-64.02825 I-5.59486 J0.06184
G3 X30.46141 Y-62.23014 I-36.28234 J-0.52614
G2 X30.42476 Y-61.06081 I35.26644 J1.6908
G2 X30.45773 Y-60.73464 I3.63595 J-0.20282
G3 X30.46024 Y-60.71735 I-5.53585 J0.81277
G3 X30.60643 Y-59.06954 I-15.12187 J2.17197
G3 X29.48873 Y-54.94847 I-7.0217 J0.30771
G3 X29.06895 Y-54.38067 I-4.70006 J-3.03574
G3 X23.70528 Y-52.05125 I-5.02494 J-4.23045
G3 X19.55951 Y-53.33456 I0.34048 J-8.43812
G3 X17.52943 Y-54.93162 I6.12062 J-9.86888
G2 X15.63973 Y-56.42888 I-21.57403 J25.2877
G3 X15.54007 Y-56.50384 I3.3134 J-4.50862
G3 X15.50512 Y-56.53084 I7.86059 J-10.21113
G3 X13.46171 Y-54.75009 I-8.21835 J-7.36775
G3 X5.73623 Y-52.40511 I-7.55432 J-10.98933
G3 X-0.9335 Y-54.25712 I0.11815 J-13.3615
G3 X-3.28445 Y-55.8965 I9.42095 J-16.0155
G3 X-4.05059 Y-56.5386 I20.18091 J-24.85769
G3 X-7.49102 Y-53.72783 I-10.06329 J-8.80667
G3 X-7.62437 Y-53.65419 I-2.77105 J-4.86082
G3 X-13.92498 Y-52.10728 I-6.17756 J-11.55658
G3 X-23.59189 Y-56.13553 I-0.183 J-13.17418
G3 X-23.75968 Y-56.31123 I11.3578 J-11.01471
G3 X-25.60079 Y-54.75009 I-8.01604 J-7.58736
G3 X-33.32627 Y-52.40511 I-7.55432 J-10.98933
G3 X-39.996 Y-54.25712 I0.11815 J-13.3615
G3 X-42.34695 Y-55.8965 I9.42095 J-16.0155
G3 X-44.08366 Y-57.41341 I20.18091 J-24.85769
G3 X-46.5143 Y-62.62754 I4.80709 J-5.4145
G3 X-43.55457 Y-68.49451 I6.72288 J-0.28853
G3 X-43.09317 Y-68.77438 I3.12905 J4.63846
G3 X-42.70069 Y-68.97298 I3.6762 J6.77778
G3 X-42.98467 Y-69.26082 I11.43761 J-11.56826
G3 X-43.13329 Y-69.42142 I4.03154 J-3.87981
G3 X-45.84525 Y-74.24116 I9.70142 J-8.63162
G3 X-45.8536 Y-74.2686 I5.3487 J-1.64247
G3 X-46.53278 Y-79.02036 I15.29179 J-4.61012
G3 X-46.49202 Y-80.28371 I18.57196 J-0.03311
G3 X-46.13342 Y-82.40006 I9.64379 J0.54552
G3 X-43.75078 Y-86.01257 I6.84497 J1.92261
G3 X-43.46349 Y-86.22932 I3.5117 J4.35594
G3 X-39.73658 Y-87.51007 I4.06417 J5.76361
G3 X-38.57749 Y-87.63719 I1.52045 J8.51536
G3 X-38.17759 Y-87.63961 I0.23374 J5.59032
G3 X-35.7508 Y-87.42891 I-0.63597 J21.40567
G2 X-34.60711 Y-87.32835 I1.50221 J-10.53117
G3 X-31.96735 Y-87.22418 I-0.75604 J52.65969
G1 X-31.96697 Y-87.22416
G2 X-30.4828 Y-87.1548 I2.67953 J-41.42645
G3 X-28.13927 Y-87.61289 I3.01834 J9.21782
G3 X-27.84634 Y-87.62562 I0.38927 J5.58164
G3 X-22.66552 Y-85.43824 I0.11962 J6.94578
G3 X-17.91665 Y-87.78592 I7.7222 J9.64361
G3 X-17.91291 Y-87.78684 I1.34659 J5.43074
G3 X-14.46104 Y-88.20476 I3.43185 J13.88136
G3 X-8.16286 Y-86.80291 I0.21286 J13.89266
G3 X-8.02461 Y-86.73317 I-2.45054 J5.03002
G3 X-5.61989 Y-85.10945 I-5.959 J11.4178
G3 X-4.68828 Y-86.01257 I5.39394 J4.632
G3 X-4.40099 Y-86.22932 I3.5117 J4.35594
G3 X-0.67408 Y-87.51007 I4.06417 J5.76361
G3 X0.48501 Y-87.63719 I1.52045 J8.51536
G3 X0.88491 Y-87.63961 I0.23374 J5.59032
G3 X3.3117 Y-87.42891 I-0.63597 J21.40567
G2 X4.45539 Y-87.32835 I1.50221 J-10.53117
G3 X7.09515 Y-87.22418 I-0.75604 J52.65969
G1 X7.09553 Y-87.22416
G2 X8.5797 Y-87.1548 I2.67953 J-41.42645
G3 X10.92323 Y-87.61289 I3.01834 J9.21782
G3 X11.21616 Y-87.62562 I0.38927 J5.58164
G3 X15.1422 Y-86.49097 I0.11962 J6.94578
G3 X16.69887 Y-87.2025 I3.5553 J5.71962
G3 X16.90169 Y-87.26136 I1.66051 J5.34312
G3 X18.81532 Y-87.56448 I2.37494 J8.80121
G3 X19.88502 Y-87.59524 I1.02968 J17.18978
G1 X22.95612 Y-87.61075
G3 X22.98438 Y-87.61083 I0.02826 J5.59513
G1 X26.03409
G3 X31.08224 Y-85.59569 I0.1095 J7.05639
G3 X33.20507 Y-80.50223 I-4.906 J5.0338
G3 X31.11758 Y-75.4857 I-7.00965 J0.02571
G3 X29.7881 Y-74.44048 I-4.97756 J-4.96306
G2 X29.8857 Y-72.58624 I30.77188 J-0.68995
G1 F300.0 X27.4987 Y-72.38826
G2 F800.0 X27.5031 Y-72.33561 I33.06128 J-2.74217
G3 X27.50427 Y-72.32147 I-3.18862 J0.26958
G2 X27.74415 Y-69.76412 I94.0338 J-7.53035
G1 Y-69.76407
G1 X27.74414 Y-69.76418
G1 X27.74415 Y-69.76412
G3 X28.00022 Y-67.03139 I-99.30795 J10.68423
G3 X28.1373 Y-64.14474 I-39.56603 J3.32552
G3 X28.13716 Y-64.06298 I-3.1998 J0.03537
G3 X28.06993 Y-62.36485 I-33.88739 J-0.49141
G2 X28.02878 Y-61.021 I37.65793 J1.82552
G2 X28.08793 Y-60.38671 I6.03192 J-0.24263
G3 X28.08937 Y-60.37682 I-3.16606 J0.46484
G3 X28.21305 Y-58.97532 I-12.751 J1.83144
G3 X27.47672 Y-56.24801 I-4.62832 J0.21349
G3 X27.23665 Y-55.92328 I-2.68805 J-1.7362
G3 X23.81573 Y-54.44396 I-3.19263 J-2.68785
G3 X20.82706 Y-55.36688 I0.23003 J-6.04541
G3 X19.15419 Y-56.69375 I4.85307 J-7.83656
G2 X17.05813 Y-58.35893 I-23.19879 J27.04983
G3 X17.00113 Y-58.40181 I1.89499 J-2.57857
G3 X16.08453 Y-59.19588 I6.39952 J-8.31316
G3 X15.14007 Y-60.34258 I4.39293 J-4.58039
G3 X14.70751 Y-59.47001 I-7.03826 J-2.94559
G3 X14.67133 Y-59.409 I-2.77049 J-1.60137
G3 X12.11335 Y-56.72975 I-7.38456 J-4.4896
G3 X5.76219 Y-54.80017 I-6.20596 J-9.00967
G3 X0.28211 Y-56.32092 I0.09219 J-10.96643
G3 X-1.77081 Y-57.75281 I8.20535 J-13.9517
G3 X-3.4079 Y-59.18422 I18.66727 J-23.00137
G3 X-4.34426 Y-60.29444 I3.19383 J-3.64369
G3 X-4.83505 Y-59.4795 I-12.94661 J-7.24169
G3 X-8.67725 Y-55.80865 I-9.27883 J-5.86577
G3 X-8.75352 Y-55.76654 I-1.58482 J-2.77999
G3 X-13.93036 Y-54.50267 I-5.04841 J-9.44424
G3 X-21.87009 Y-57.80059 I-0.17762 J-10.77879
G3 X-23.55808 Y-59.93666 I9.63601 J-9.34965
G3 X-23.87591 Y-60.4563 I13.8706 J-8.84065
G3 X-24.35499 Y-59.47001 I-7.08478 J-2.83188
G3 X-24.39117 Y-59.409 I-2.77049 J-1.60137
G3 X-26.94915 Y-56.72975 I-7.38456 J-4.4896
G3 X-33.30031 Y-54.80017 I-6.20596 J-9.00967
G3 X-38.78039 Y-56.32092 I0.09219 J-10.96643
G3 X-40.83331 Y-57.75281 I8.20535 J-13.9517
G3 X-42.4704 Y-59.18422 I18.66727 J-23.00137
G3 X-44.12049 Y-62.71221 I3.19383 J-3.64369
G3 X-42.21509 Y-66.50888 I4.32907 J-0.20386
G3 X-41.9512 Y-66.66894 I1.78956 J2.65282
G3 X-39.15446 Y-67.30547 I2.53423 J4.67234
G3 X-39.07904 Y-67.30085 I-0.15804 J3.19609
G3 X-37.09741 Y-66.67071 I-0.32596 J4.45604
G3 X-36.24628 Y-66.08568 I-3.59793 J6.14608
G1 X-34.15421 Y-64.44714
G2 X-33.30645 Y-64.20107 I0.91129 J-1.55618
G2 X-33.06613 Y-64.24592 I-0.07528 J-1.06965
G2 X-33.42297 Y-64.82226 I-1.7687 J0.69643
G2 X-34.41392 Y-65.69921 I-5.51718 J5.23603
G3 X-34.45069 Y-65.72685 I1.90421 J-2.57177
G2 X-35.85913 Y-66.74258 I-19.56081 J25.63918
G3 X-39.76982 Y-69.58285 I40.24554 J-59.5254
G3 X-41.25884 Y-70.92169 I8.50673 J-10.95839
G3 X-41.34384 Y-71.01354 I2.30572 J-2.21894
G3 X-43.55557 Y-74.94427 I7.91197 J-7.0395
G3 X-43.56035 Y-74.95996 I3.05902 J-0.93936
G3 X-44.13756 Y-79.0118 I12.99854 J-3.91876
G3 X-44.10127 Y-80.13717 I16.17674 J-0.04168
G3 X-43.82913 Y-81.74637 I7.25304 J0.39898
G3 X-42.24749 Y-84.14788 I4.54069 J1.26892
G3 X-42.08318 Y-84.27184 I2.00841 J2.49125
G3 X-39.47094 Y-85.12238 I2.68386 J3.80613
G3 X-38.47743 Y-85.24408 I1.2548 J6.12768
G3 X-38.24872 Y-85.24546 I0.13368 J3.19721
G3 X-36.09137 Y-85.05804 I-0.56484 J19.01152
G2 X-34.66323 Y-84.9337 I1.84278 J-12.90203
G3 X-32.12179 Y-84.83397 I-0.69992 J50.26504
G1 X-32.12158 Y-84.83395
G2 X-30.10763 Y-84.75005 I2.83413 J-43.81665
G2 X-30.03594 Y-84.77273 I-0.12549 J-0.52141
G3 X-29.94697 Y-84.80638 I1.17656 J2.97585
G3 X-27.97263 Y-85.2235 I2.48251 J6.8694
G3 X-27.8051 Y-85.23078 I0.22263 J3.19225
G3 X-24.30819 Y-83.68496 I0.07837 J4.55093
G3 X-23.17815 Y-81.43323 I-3.59494 J3.21356
G3 X-21.58334 Y-83.21703 I9.50783 J6.89568
G3 X-21.55032 Y-83.24672 I2.15592 J2.36474
G3 X-17.3402 Y-85.46112 I6.607 J7.45208
G3 X-17.33806 Y-85.46165 I0.77014 J3.10594
G3 X-14.44434 Y-85.80952 I2.857 J11.55617
G3 X-9.21189 Y-84.64965 I0.19616 J11.49742
G3 X-9.13282 Y-84.60977 I-1.40151 J2.87676
G3 X-5.03889 Y-80.78419 I-4.85079 J9.2944
G3 X-4.98606 Y-80.69792 I-12.50966 J7.72117
G3 X-4.76663 Y-81.74637 I7.20033 J0.95973
G3 X-3.18499 Y-84.14788 I4.54069 J1.26892
G3 X-3.02068 Y-84.27184 I2.00841 J2.49125
G3 X-0.40844 Y-85.12238 I2.68386 J3.80613
G3 X0.58507 Y-85.24408 I1.2548 J6.12768
G3 X0.81378 Y-85.24546 I0.13368 J3.19721
G3 X2.97113 Y-85.05804 I-0.56484 J19.01152
G2 X4.39927 Y-84.9337 I1.84278 J-12.90203
G3 X6.94071 Y-84.83397 I-0.69992 J50.26504
G1 X6.94092 Y-84.83395
G2 X8.95487 Y-84.75005 I2.83413 J-43.81665
G2 X9.02656 Y-84.77273 I-0.12549 J-0.52141
G3 X9.11553 Y-84.80638 I1.17656 J2.97585
G3 X11.08987 Y-85.2235 I2.48251 J6.8694
G3 X11.2574 Y-85.23078 I0.22263 J3.19225
G3 X14.75431 Y-83.68496 I0.07837 J4.55093
G3 X15.11807 Y-83.22444 I-3.59494 J3.21356
G3 X17.4097 Y-84.91521 I3.57943 J2.45309
G3 X17.5257 Y-84.94887 I0.94968 J3.05583
G3 X18.94711 Y-85.17287 I1.75093 J6.48872
G3 X19.88795 Y-85.20003 I0.89789 J14.79817
G1 X22.96821 Y-85.21558
G3 X22.98438 Y-85.21563 I0.01616 J3.19996
G1 X26.05459
G3 X29.40828 Y-83.88255 I0.08899 J4.66119
G3 X30.80981 Y-80.508 I-3.23205 J3.32065
G3 X29.42853 Y-77.18402 I-4.61439 J0.03148
G3 X27.44309 Y-76.00187 I-3.28851 J-3.26475
G2 X27.38771 Y-74.71965 I20.63078 J1.53326
G2 X27.4987 Y-72.38826 I33.17227 J-0.41077
G0 Z3.0
G0 X5.99637 Y-64.24592
G0 Z1.0
G1 F300.0 Z-2.5
G3 F800.0 X5.75605 Y-64.20107 I-0.3156 J-1.0248
G3 X4.90829 Y-64.44714 I0.06353 J-1.80225
G1 X2.81622 Y-66.08568
G2 X1.96509 Y-66.67071 I-4.44906 J5.56106
G2 X-0.01654 Y-67.30085 I-2.3076 J3.8259
G2 X-0.09196 Y-67.30547 I-0.23346 J3.19147
G2 X-2.41235 Y-66.89743 I-0.26252 J5.30887
G2 X-2.34678 Y-68.59166 I-18.81165 J-1.57639
G2 X-2.4218 Y-71.17466 I-35.0188 J-0.27553
G2 X-2.28134 Y-71.01354 I8.05244 J-6.87838
G2 X-2.19634 Y-70.92169 I2.39071 J-2.12708
G2 X-0.70732 Y-69.58285 I9.99575 J-9.61955
G2 X3.20337 Y-66.74258 I44.15623 J-56.68513
G3 X4.61181 Y-65.72685 I-18.15237 J26.65491
G2 X4.64858 Y-65.69921 I1.94098 J-2.54413
G3 X5.63953 Y-64.82226 I-4.52623 J6.11298
G3 X5.99637 Y-64.24592 I-1.41187 J1.27278
G0 Z3.0
G0 X-26.18532 Y-71.10264
G0 Z1.0
G1 F300.0 Z-2.5
G2 F800.0 X-28.3233 Y-73.01917 I-10.9268 J10.03852
G2 X-30.64372 Y-74.59583 I-18.3398 J24.49548
G3 X-31.88272 Y-75.39575 I25.55103 J-40.93524
G2 X-29.9911 Y-75.34732 I3.68355 J-106.90937
G2 X-29.95475 Y-75.34692 I0.0536 J-3.19955
G2 X-26.57527 Y-75.95257 I0.05092 J-9.44736
G2 X-25.40582 Y-76.5231 I-2.16693 J-5.92551
G2 X-25.83604 Y-74.50693 I17.92708 J4.87932
G2 X-26.18532 Y-71.10264 I29.69654 J4.76698
G0 Z3.0
G0 X-28.78688 Y-51.38757
G0 Z1.0
G1 F300.0 Z-2.5
G3 F800.0 X-7.01346 Y-42.68912 I-6.22658 J47.18615
G3 X-2.81106 Y-45.42007 I28.0 J38.4877
G3 X68.58174 Y-4.20142 I23.7976 J41.21865
G3 X-2.81106 Y37.01724 I-47.5952 J0.0
G3 X-7.01346 Y34.28628 I23.7976 J-41.21865
G3 X-58.81106 Y37.01724 I-28.0 J-38.4877
G3 Y-45.42007 I23.7976 J-41.21865
G3 X-28.78688 Y-51.38757 I23.7976 J41.21865
G1 F300.0 X-29.10023 Y-49.01295
G3 F800.0 X-7.01346 Y-39.68437 I-5.91323 J44.81154
G3 X-1.61346 Y-43.34576 I28.0 J35.48295
G3 X66.18654 Y-4.20142 I22.6 J39.14435
G3 X-1.61346 Y34.94293 I-45.2 J0.0
G3 X-7.01346 Y31.28154 I22.6 J-39.14435
G3 X-57.61346 Y34.94293 I-28.0 J-35.48295
G3 Y-43.34576 I22.6 J-39.14435
G3 X-29.10023 Y-49.01295 I22.6 J39.14435
G0 Z3.0
G0 X-14.56153 Y43.0427
G0 Z1.0
G1 F300.0 Z-2.5
G3 F800.0 X-13.34813 Y42.95146 I1.16465 J7.37432
G3 X-8.06984 Y45.12642 I0.01857 J7.44721
G3 X-7.37058 Y45.9129 I-5.1967 J5.32452
G3 X-3.5104 Y44.21408 I6.83351 J10.29246
G3 X-3.50666 Y44.21316 I1.34659 J5.43074
G3 X-0.05479 Y43.79524 I3.43185 J13.88136
G3 X6.24339 Y45.19709 I0.21286 J13.89266
G3 X6.38164 Y45.26683 I-2.45054 J5.03002
G3 X9.37021 Y47.42089 I-5.959 J11.4178
G3 X11.05958 Y45.98647 I7.86041 J7.54545
G3 X15.51783 Y44.01355 I7.4111 J10.72341
G3 X19.56162 Y43.56088 I3.93477 J16.86159
G3 X23.92654 Y44.10418 I0.11117 J16.91263
G3 X23.9357 Y44.10656 I-1.40724 J5.41534
G3 X27.77056 Y45.78835 I-3.38197 J12.92475
G3 X28.34043 Y45.15289 I5.83392 J4.65851
G3 X33.68312 Y42.95146 I5.29395 J5.26414
G3 X38.96141 Y45.12642 I0.01857 J7.44721
G3 X41.20474 Y50.49604 I-5.1967 J5.32452
G3 X38.98818 Y55.80068 I-7.42241 J0.01394
G3 X33.68356 Y58.01724 I-5.2907 J-5.20586
G3 X33.02541 Y57.99208 I-0.04513 J-7.44002
G3 X32.82282 Y59.20669 I-16.20437 J-2.07857
G3 X31.19161 Y63.20413 I-11.32862 J-2.29125
G3 X31.64061 Y64.71534 I-8.62585 J3.38515
G3 X31.90798 Y67.33449 I-12.24689 J2.57338
G3 X31.20882 Y71.99156 I-14.59531 J0.18984
G3 X31.2066 Y71.99843 I-5.32672 J-1.71239
G3 X27.53545 Y77.15299 I-9.978 J-3.22187
G3 X27.4455 Y77.21932 I-3.36549 J-4.46987
G3 X23.80632 Y78.94528 I-6.49452 J-8.99409
G3 X23.78131 Y78.95188 I-1.4401 J-5.4067
G3 X19.71357 Y79.43934 I-3.80933 J-14.57221
G3 X11.02206 Y76.08186 I-0.04571 J-12.81027
G3 X10.36807 Y75.44719 I8.0769 J-8.97702
G3 X6.91523 Y78.27217 I-10.07571 J-8.79246
G3 X6.78188 Y78.34581 I-2.77105 J-4.86082
G3 X0.48127 Y79.89272 I-6.17756 J-11.55658
G3 X-9.18564 Y75.86447 I-0.183 J-13.17418
G3 X-11.17181 Y73.35045 I11.3578 J-11.01471
G3 X-13.52189 Y67.95139 I15.89058 J-10.12777
G3 X-13.52651 Y67.93344 I5.41616 J-1.40408
G3 X-14.20467 Y62.43887 I21.08425 J-5.39142
G3 X-13.92429 Y57.99837 I32.47142 J-0.17881
G3 X-16.73869 Y57.2226 I0.53147 J-7.42115
G3 X-17.24315 Y57.55952 I-4.15254 J-5.67136
G2 X-17.14146 Y59.4626 I30.77188 J-0.68995
G3 X-17.13942 Y59.48733 I-5.57531 J0.47137
G2 X-16.90564 Y61.97971 I91.64625 J-7.33915
G1 X-16.90563 Y61.9798
G1 X-16.90565 Y61.97961
G1 X-16.90564 Y61.97971
G3 X-16.64382 Y64.773 I-101.68941 J10.9404
G3 X-16.49889 Y67.82878 I-41.95324 J3.52112
G3 X-16.49914 Y67.97175 I-5.59486 J0.06184
G3 X-16.56984 Y69.76986 I-36.28234 J-0.52614
G2 X-16.60649 Y70.93919 I35.26644 J1.6908
G2 X-16.57352 Y71.26536 I3.63595 J-0.20282
G3 X-16.57101 Y71.28265 I-5.53585 J0.81277
G3 X-16.42482 Y72.93046 I-15.12187 J2.17197
G3 X-17.54252 Y77.05153 I-7.0217 J0.30771
G3 X-17.9623 Y77.61933 I-4.70006 J-3.03574
G3 X-23.32597 Y79.94875 I-5.02494 J-4.23045
G3 X-27.47174 Y78.66544 I0.34048 J-8.43812
G3 X-29.50182 Y77.06838 I6.12062 J-9.86888
G2 X-31.39152 Y75.57112 I-21.57403 J25.2877
G3 X-31.49118 Y75.49616 I3.3134 J-4.50862
G3 X-31.52613 Y75.46916 I7.86059 J-10.21113
G3 X-33.56954 Y77.24991 I-8.21835 J-7.36775
G3 X-41.29502 Y79.59489 I-7.55432 J-10.98933
G3 X-47.96475 Y77.74288 I0.11815 J-13.3615
G3 X-50.3157 Y76.1035 I9.42095 J-16.0155
G3 X-52.05241 Y74.58659 I20.18091 J-24.85769
G3 X-54.48305 Y69.37246 I4.80709 J-5.4145
G3 X-51.52332 Y63.50549 I6.72288 J-0.28853
G3 X-51.06192 Y63.22562 I3.12905 J4.63846
G3 X-50.66944 Y63.02702 I3.6762 J6.77778
G3 X-50.95342 Y62.73918 I11.43761 J-11.56826
G3 X-51.10204 Y62.57858 I4.03154 J-3.87981
G3 X-53.814 Y57.75884 I9.70142 J-8.63162
G3 X-53.82235 Y57.7314 I5.3487 J-1.64247
G3 X-54.50153 Y52.97964 I15.29179 J-4.61012
G3 X-54.46077 Y51.71629 I18.57196 J-0.03311
G3 X-54.10217 Y49.59994 I9.64379 J0.54552
G3 X-51.71953 Y45.98743 I6.84497 J1.92261
G3 X-51.43224 Y45.77068 I3.5117 J4.35594
G3 X-47.70533 Y44.48993 I4.06417 J5.76361
G3 X-46.54624 Y44.36281 I1.52045 J8.51536
G3 X-46.14634 Y44.36039 I0.23374 J5.59032
G3 X-43.71955 Y44.57109 I-0.63597 J21.40567
G2 X-42.57586 Y44.67165 I1.50221 J-10.53117
G3 X-39.9361 Y44.77582 I-0.75604 J52.65969
G1 X-39.93572 Y44.77584
G2 X-38.45155 Y44.8452 I2.67953 J-41.42645
G3 X-36.10802 Y44.38711 I3.01834 J9.21782
G3 X-35.81509 Y44.37438 I0.38927 J5.58164
G3 X-31.88905 Y45.50903 I0.11962 J6.94578
G3 X-30.33238 Y44.7975 I3.5553 J5.71962
G3 X-30.12956 Y44.73864 I1.66051 J5.34312
G3 X-28.21593 Y44.43552 I2.37494 J8.80121
G3 X-27.14623 Y44.40476 I1.02968 J17.18978
G1 X-24.07513 Y44.38925
G3 X-24.04688 Y44.38918 I0.02826 J5.59513
G1 X-20.99716
G3 X-18.37305 Y44.85153 I0.1095 J7.05639
G3 X-14.56153 Y43.0427 I4.97617 J5.56549
G1 F300.0 X-14.18787 Y45.40858
G3 F800.0 X-13.35296 Y45.34669 I0.791 J5.00844
G3 X-9.75221 Y46.83138 I0.0234 J5.05197
G3 X-8.25162 Y49.90115 I-3.51434 J3.61956
G3 X-7.17709 Y48.78297 I8.98755 J7.5613
G3 X-7.14407 Y48.75328 I2.15592 J2.36474
G3 X-2.93395 Y46.53888 I6.607 J7.45208
G3 X-2.93181 Y46.53835 I0.77014 J3.10594
G3 X-0.03809 Y46.19048 I2.857 J11.55617
G3 X5.19436 Y47.35035 I0.19616 J11.49742
G3 X5.27343 Y47.39023 I-1.40151 J2.87676
G3 X9.36736 Y51.21581 I-4.85079 J9.2944
G3 X9.49991 Y51.43481 I-12.50966 J7.72117
G3 X9.53532 Y51.35577 I8.8172 J3.90231
G3 X9.56361 Y51.29507 I2.91447 J1.32132
G3 X12.41873 Y47.95871 I7.66701 J3.67128
G3 X16.06127 Y46.34629 I6.05196 J8.75117
G3 X19.56197 Y45.95614 I3.39134 J14.52886
G3 X23.32413 Y46.42238 I0.11083 J14.51737
G3 X23.32937 Y46.42375 I-0.80482 J3.09714
G3 X27.11924 Y48.24959 I-2.77564 J10.60757
G3 X27.12156 Y48.25133 I-1.91612 J2.56291
G3 X28.59836 Y49.64155 I-5.42425 J7.24154
G3 X30.03409 Y46.84657 I5.00611 J0.80531
G3 X33.67829 Y45.34669 I3.60029 J3.57045
G3 X37.27904 Y46.83138 I0.0234 J5.05197
G3 X38.80952 Y50.49103 I-3.51434 J3.61956
G3 X37.29443 Y54.10694 I-5.02719 J0.01895
G3 X33.67854 Y55.62202 I-3.59696 J-3.51211
G3 X30.71066 Y54.68572 I-0.04011 J-5.0448
G3 X30.76268 Y55.82254 I-9.77948 J1.0171
G3 X30.47595 Y58.72794 I-13.94164 J0.09098
G3 X29.13839 Y61.9675 I-8.98175 J-1.8125
G3 X29.05975 Y62.08109 I-2.66964 J-1.76437
G3 X28.37534 Y62.92036 I-7.7057 J-5.58511
G3 X29.29573 Y65.20372 I-5.80957 J3.66892
G3 X29.5127 Y67.34552 I-9.902 J2.08501
G3 X28.92855 Y71.25851 I-12.20003 J0.17881
G3 X28.92728 Y71.26245 I-3.04645 J-0.97935
G3 X26.09475 Y75.23952 I-7.69867 J-2.48588
G3 X26.0433 Y75.27746 I-1.92479 J-2.5564
G3 X23.18984 Y76.63078 I-5.09233 J-7.05222
G3 X23.17553 Y76.63455 I-0.82362 J-3.09219
G3 X19.72964 Y77.04403 I-3.20355 J-12.25488
G3 X12.63135 Y74.3078 I-0.06178 J-10.41497
G3 X10.32958 Y71.20491 I6.46761 J-7.20296
G3 X9.5712 Y72.5205 I-13.21421 J-6.74104
G3 X5.729 Y76.19135 I-9.27883 J-5.86577
G3 X5.65273 Y76.23346 I-1.58482 J-2.77999
G3 X0.47589 Y77.49733 I-5.04841 J-9.44424
G3 X-7.46384 Y74.19941 I-0.17762 J-10.77879
G3 X-9.15183 Y72.06334 I9.63601 J-9.34965
G3 X-11.20333 Y67.35032 I13.8706 J-8.84065
G3 X-11.20598 Y67.34006 I3.0976 J-0.80302
G3 X-11.80943 Y62.43808 I18.76372 J-4.79804
G3 X-11.42979 Y57.49307 I30.07619 J-0.17802
G3 X-10.85304 Y54.96735 I18.3573 J2.86315
G3 X-13.35271 Y55.62202 I-2.48073 J-4.37253
G3 X-17.0062 Y54.09788 I-0.04011 J-5.0448
G3 X-17.60272 Y54.81598 I-3.82963 J-2.5744
G3 X-19.58816 Y55.99813 I-3.28851 J-3.26475
G2 X-19.64354 Y57.28035 I20.63078 J1.53326
G2 X-19.52815 Y59.66439 I33.17227 J-0.41077
G3 X-19.52698 Y59.67853 I-3.18862 J0.26958
G2 X-19.2871 Y62.23588 I94.0338 J-7.53035
G1 Y62.23593
G1 X-19.28711 Y62.23582
G1 X-19.2871 Y62.23588
G3 X-19.03103 Y64.96861 I-99.30795 J10.68423
G3 X-18.89395 Y67.85526 I-39.56603 J3.32552
G3 X-18.89409 Y67.93702 I-3.1998 J0.03537
G3 X-18.96132 Y69.63515 I-33.88739 J-0.49141
G2 X-19.00247 Y70.979 I37.65793 J1.82552
G2 X-18.94332 Y71.61329 I6.03192 J-0.24263
G3 X-18.94188 Y71.62318 I-3.16606 J0.46484
G3 X-18.8182 Y73.02468 I-12.751 J1.83144
G3 X-19.55453 Y75.75199 I-4.62832 J0.21349
G3 X-19.7946 Y76.07672 I-2.68805 J-1.7362
G3 X-23.21552 Y77.55604 I-3.19263 J-2.68785
G3 X-26.20419 Y76.63312 I0.23003 J-6.04541
G3 X-27.87706 Y75.30625 I4.85307 J-7.83656
G2 X-29.97312 Y73.64107 I-23.19879 J27.04983
G3 X-30.03012 Y73.59819 I1.89499 J-2.57857
G3 X-30.94672 Y72.80412 I6.39952 J-8.31316
G3 X-31.89118 Y71.65742 I4.39293 J-4.58039
G3 X-32.32374 Y72.52999 I-7.03826 J-2.94559
G3 X-32.35992 Y72.591 I-2.77049 J-1.60137
G3 X-34.9179 Y75.27025 I-7.38456 J-4.4896
G3 X-41.26906 Y77.19983 I-6.20596 J-9.00967
G3 X-46.74914 Y75.67908 I0.09219 J-10.96643
G3 X-48.80206 Y74.24719 I8.20535 J-13.9517
G3 X-50.43915 Y72.81578 I18.66727 J-23.00137
G3 X-52.08924 Y69.28779 I3.19383 J-3.64369
G3 X-50.18384 Y65.49112 I4.32907 J-0.20386
G3 X-49.91995 Y65.33106 I1.78956 J2.65282
G3 X-47.12321 Y64.69453 I2.53423 J4.67234
G3 X-47.04779 Y64.69915 I-0.15804 J3.19609
G3 X-45.06616 Y65.32929 I-0.32596 J4.45604
G3 X-44.21503 Y65.91432 I-3.59793 J6.14608
G1 X-42.12296 Y67.55286
G2 X-41.2752 Y67.79893 I0.91129 J-1.55618
G2 X-41.03488 Y67.75408 I-0.07528 J-1.06965
G2 X-41.39172 Y67.17774 I-1.7687 J0.69643
G2 X-42.38267 Y66.30079 I-5.51718 J5.23603
G3 X-42.41944 Y66.27315 I1.90421 J-2.57177
G2 X-43.82788 Y65.25742 I-19.56081 J25.63918
G3 X-47.73857 Y62.41715 I40.24554 J-59.5254
G3 X-49.22759 Y61.07831 I8.50673 J-10.95839
G3 X-49.31259 Y60.98646 I2.30572 J-2.21894
G3 X-51.52432 Y57.05573 I7.91197 J-7.0395
G3 X-51.5291 Y57.04004 I3.05902 J-0.93936
G3 X-52.10631 Y52.9882 I12.99854 J-3.91876
G3 X-52.07002 Y51.86283 I16.17674 J-0.04168
G3 X-51.79788 Y50.25363 I7.25304 J0.39898
G3 X-50.21624 Y47.85212 I4.54069 J1.26892
G3 X-50.05193 Y47.72816 I2.00841 J2.49125
G3 X-47.43969 Y46.87762 I2.68386 J3.80613
G3 X-46.44618 Y46.75592 I1.2548 J6.12768
G3 X-46.21747 Y46.75454 I0.13368 J3.19721
G3 X-44.06012 Y46.94196 I-0.56484 J19.01152
G2 X-42.63198 Y47.0663 I1.84278 J-12.90203
G3 X-40.09054 Y47.16603 I-0.69992 J50.26504
G1 X-40.09033 Y47.16605
G2 X-38.07638 Y47.24995 I2.83413 J-43.81665
G2 X-38.00469 Y47.22727 I-0.12549 J-0.52141
G3 X-37.91572 Y47.19362 I1.17656 J2.97585
G3 X-35.94138 Y46.7765 I2.48251 J6.8694
G3 X-35.77385 Y46.76922 I0.22263 J3.19225
G3 X-32.27694 Y48.31504 I0.07837 J4.55093
G3 X-31.91318 Y48.77556 I-3.59494 J3.21356
G3 X-29.62155 Y47.08479 I3.57943 J2.45309
G3 X-29.50555 Y47.05113 I0.94968 J3.05583
G3 X-28.08414 Y46.82713 I1.75093 J6.48872
G3 X-27.1433 Y46.79997 I0.89789 J14.79817
G1 X-24.06304 Y46.78442
G3 X-24.04688 Y46.78438 I0.01616 J3.19996
G1 X-20.97666
G3 X-17.82758 Y47.9284 I0.08899 J4.66119
G3 X-16.99716 Y46.84657 I4.4008 J2.51846
G3 X-14.18787 Y45.40858 I3.60029 J3.57045
G0 Z3.0
G0 X-14.01808 Y73.23378
G0 Z1.0
G1 F300.0 Z-2.5
G2 F800.0 X-13.19584 Y74.64015 I18.73685 J-10.0111
G2 X-10.91085 Y77.5329 I15.368 J-9.79039
G2 X0.48668 Y82.29285 I11.20912 J-10.81436
G2 X7.9133 Y80.46238 I0.11764 J-15.50363
G2 X8.10384 Y80.35717 I-3.76912 J-7.05103
G2 X10.44568 Y78.72478 I-7.81148 J-13.70243
G2 X19.69711 Y81.83939 I9.22218 J-12.09571
G2 X24.3883 Y81.27386 I0.27487 J-17.45972
G2 X24.42404 Y81.26442 I-2.02208 J-7.73527
G2 X28.8505 Y79.16507 I-3.47306 J-13.03919
G2 X28.97904 Y79.07029 I-4.68054 J-6.48196
G2 X33.49049 Y72.7359 I-7.75044 J-10.29373
G2 X33.49366 Y72.72607 I-7.6084 J-2.45673
G2 X34.30802 Y67.32315 I-16.18098 J-5.20174
G2 X33.99017 Y64.22585 I-14.9143 J-0.03442
G2 X33.81081 Y63.48255 I-11.4244 J2.36343
G2 X35.02897 Y60.32659 I-12.31661 J-6.56711
G2 X40.68527 Y57.49778 I-1.33149 J-9.73176
G2 X43.60475 Y50.50106 I-6.90294 J-6.9878
G2 X40.64713 Y43.41807 I-9.84005 J-0.05013
G2 X39.31955 Y42.31117 I-6.94544 J6.9806
G2 X70.98174 Y-4.20142 I-18.33301 J-46.51259
G2 X31.15766 Y-53.15107 I-49.9952 J0.0
G2 X31.50477 Y-53.64632 I-6.36899 J-4.83314
G2 X33.00464 Y-59.16283 I-7.92005 J-5.11551
G2 X32.83586 Y-61.05857 I-17.66627 J0.61745
G2 X32.83227 Y-61.08327 I-7.91398 J1.13669
G3 X32.82622 Y-61.13087 I1.22843 J-0.18036
G3 X32.85776 Y-62.09645 I32.90163 J0.59153
G2 X32.93186 Y-63.99345 I-38.60799 J-2.45793
G2 X32.93221 Y-64.19775 I-7.99436 J-0.11593
G2 X32.77942 Y-67.42291 I-44.49802 J0.49187
G2 X32.51184 Y-70.27698 I-104.34322 J8.34301
G1 X32.51183 Y-70.27712
G1 X32.51186 Y-70.27685
G1 X32.51184 Y-70.27698
G3 X32.28417 Y-72.70425 I89.02623 J-9.57484
G2 X32.28126 Y-72.73958 I-7.96969 J0.63822
G3 X32.24205 Y-73.26038 I28.27872 J-2.39084
G2 X32.81 Y-73.78401 I-6.10203 J-7.18838
G2 X35.60509 Y-80.49644 I-6.61459 J-6.69251
G2 X32.75956 Y-87.31227 I-9.42886 J-0.06545
G2 X26.01683 Y-90.01083 I-6.61597 J6.75783
G1 X22.98438
G2 X22.944 Y-90.01072 I0.0 J7.9952
G1 X19.88146 Y-89.99526
G2 X18.68255 Y-89.96082 I-0.03646 J19.62055
G2 X16.27643 Y-89.57848 I0.59408 J11.50067
G2 X15.98661 Y-89.49437 I2.08294 J7.7191
G2 X15.17772 Y-89.20054 I2.7109 J8.72303
G2 X11.17483 Y-90.02526 I-3.84195 J8.5207
G2 X10.75625 Y-90.00708 I0.13767 J7.99401
G2 X8.26036 Y-89.56693 I0.84179 J12.0701
G3 X7.25044 Y-89.61915 I1.51469 J-39.08367
G1 X7.2499 Y-89.61919
G2 X4.5148 Y-89.72774 I-3.55055 J54.95052
G3 X3.65259 Y-89.80457 I0.2991 J-8.23234
G2 X0.95618 Y-90.03855 I-3.40364 J23.57063
G2 X0.38475 Y-90.0351 I-0.23743 J7.99167
G2 X-0.94523 Y-89.89853 I0.46161 J11.04039
G2 X-5.77106 Y-88.19987 I0.60842 J9.43282
G2 X-6.91417 Y-88.86083 I-8.21255 J12.88451
G2 X-7.11173 Y-88.96048 I-3.69923 J7.08794
G2 X-14.47773 Y-90.60478 I-7.13645 J14.64838
G2 X-18.48891 Y-90.1167 I-0.00334 J16.69929
G2 X-18.49426 Y-90.11538 I1.91886 J7.76152
G2 X-22.53022 Y-88.44895 I3.55094 J14.32074
G2 X-27.88767 Y-90.02526 I-5.19651 J7.76911
G2 X-28.30625 Y-90.00708 I0.13767 J7.99401
G2 X-30.80214 Y-89.56693 I0.84179 J12.0701
G3 X-31.81206 Y-89.61915 I1.51469 J-39.08367
G1 X-31.8126 Y-89.61919
G2 X-34.5477 Y-89.72774 I-3.55055 J54.95052
G3 X-35.40991 Y-89.80457 I0.2991 J-8.23234
G2 X-38.10632 Y-90.03855 I-3.40364 J23.57063
G2 X-38.67775 Y-90.0351 I-0.23743 J7.99167
G2 X-40.00773 Y-89.89853 I0.46161 J11.04039
G2 X-44.84656 Y-88.19073 I0.60842 J9.43282
G2 X-45.25709 Y-87.88101 I4.60747 J6.5341
G2 X-48.44223 Y-83.05536 I5.96864 J7.40356
G2 X-48.8875 Y-80.43127 I11.594 J3.31717
G2 X-48.9328 Y-79.02881 I20.92668 J1.37779
G2 X-48.15144 Y-73.57585 I18.37099 J0.15008
G2 X-48.13951 Y-73.53664 I7.65489 J-2.30777
G2 X-46.1792 Y-69.43804 I14.70765 J-4.5164
G2 X-48.91286 Y-62.54296 I6.38778 J6.52198
G2 X-45.70341 Y-55.64216 I9.6363 J-0.28495
G2 X-43.86352 Y-54.03638 I23.53736 J-25.11203
G2 X-43.20713 Y-53.52062 I13.28848 J-16.23624
G2 X-60.01106 Y-47.49853 I8.19367 J49.3192
G2 Y39.0957 I24.9976 J43.29711
G2 X-51.45727 Y43.01215 I24.9976 J-43.29711
G2 X-52.81531 Y43.80927 I4.0892 J8.52213
G2 X-53.22584 Y44.11899 I4.60747 J6.5341
G2 X-56.41098 Y48.94464 I5.96864 J7.40356
G2 X-56.85625 Y51.56873 I11.594 J3.31717
G2 X-56.90155 Y52.97119 I20.92668 J1.37779
G2 X-56.12019 Y58.42415 I18.37099 J0.15008
G2 X-56.10826 Y58.46336 I7.65489 J-2.30777
G2 X-54.14795 Y62.56196 I14.70765 J-4.5164
G2 X-56.88161 Y69.45704 I6.38778 J6.52198
G2 X-53.67216 Y76.35784 I9.6363 J-0.28495
G2 X-51.83227 Y77.96362 I23.53736 J-25.11203
G2 X-49.18276 Y79.81084 I13.28848 J-16.23624
G2 X-41.32104 Y81.99475 I8.00589 J-13.57745
G2 X-32.21833 Y79.23342 I0.19718 J-15.73417
G2 X-31.38396 Y78.62122 I-7.52615 J-11.13202
G3 X-31.12076 Y78.84207 I-19.69189 J23.73486
G2 X-28.74162 Y80.70197 I9.76964 J-10.04551
G2 X-23.43603 Y82.34625 I5.75612 J-9.19134
G2 X-16.12632 Y79.16502 I0.4488 J-8.95738
G2 X-15.52648 Y78.35368 I-6.11626 J-5.14923
G2 X-14.01808 Y73.23378 I-7.92005 J-5.11551
G0 Z3.0
G0 X-13.01001 Y78.80514
G0 Z1.0
G1 F300.0 Z-2.5
G2 F800.0 X-12.63603 Y79.20136 I15.18217 J-13.95538
G2 X0.49209 Y84.69295 I12.9343 J-12.48282
G2 X9.04471 Y82.57896 I0.11223 J-17.90372
G2 X9.29246 Y82.44216 I-4.90053 J-9.1676
G2 X10.51924 Y81.67657 I-9.00009 J-15.78743
G2 X19.68044 Y84.23941 I9.14862 J-15.0475
G2 X24.99529 Y83.59583 I0.29154 J-19.85974
G2 X25.04175 Y83.58357 I-2.62907 J-10.05725
G2 X30.25551 Y81.11083 I-4.09078 J-15.35834
G2 X30.42263 Y80.98759 I-6.08555 J-8.42771
G2 X35.77438 Y73.47336 I-9.19403 J-12.21103
G2 X35.7785 Y73.46058 I-9.89228 J-3.1942
G2 X36.70805 Y67.31165 I-18.46582 J-5.93625
G2 X36.34676 Y63.77007 I-17.31432 J-0.02292
G2 X36.90978 Y62.38757 I-14.85255 J-6.85463
G2 X42.38235 Y59.19486 I-3.2123 J-11.79275
G2 X46.00475 Y50.50609 I-8.60002 J-8.68489
G2 X43.54379 Y43.08946 I-12.24005 J-0.05515
G2 X73.38174 Y-4.20142 I-22.55725 J-47.29088
G2 X34.71758 Y-54.76539 I-52.3952 J0.0
G2 X35.40286 Y-59.25556 I-11.13286 J-3.99644
G2 X35.22966 Y-61.27021 I-20.06449 J0.71017
G3 X35.25419 Y-61.96408 I30.49819 J0.73087
G2 X35.33161 Y-63.95865 I-41.00442 J-2.59031
G2 X35.33206 Y-64.22427 I-10.39411 J-0.15073
G2 X35.17142 Y-67.61875 I-46.89788 J0.5184
G2 X34.89808 Y-70.53366 I-106.73522 J8.53886
G1 X34.89805 Y-70.53385
G1 X34.89809 Y-70.53349
G1 X34.89808 Y-70.53366
G3 X34.72549 Y-72.30909 I86.64 J-9.31816
G2 X38.00511 Y-80.49065 I-8.53008 J-8.16743
G2 X34.43687 Y-89.02884 I-11.82887 J-0.07124
G2 X26.00165 Y-92.41083 I-8.29329 J8.47441
G1 X22.98438
G2 X22.93187 Y-92.41069 I0.0 J10.3952
G1 X19.87739 Y-92.39527
G2 X18.54938 Y-92.35714 I-0.03239 J22.02056
G2 X15.65118 Y-91.8956 I0.72725 J13.89699
G2 X15.27435 Y-91.78625 I2.7082 J10.03623
G2 X15.21501 Y-91.76763 I3.42315 J11.0149
G2 X11.13351 Y-92.42491 I-3.87923 J11.08779
G2 X10.58928 Y-92.40126 I0.17899 J10.39366
G2 X7.9923 Y-91.9809 I1.00876 J14.46428
G3 X7.40535 Y-92.01415 I1.78275 J-36.6697
G1 X7.40465 Y-92.01419
G2 X4.57864 Y-92.12705 I-3.7053 J57.34553
G3 X3.993 Y-92.18031 I0.23527 J-5.83302
G2 X1.02746 Y-92.43749 I-3.74406 J25.94637
G2 X0.28449 Y-92.433 I-0.30871 J10.39062
G2 X-1.21851 Y-92.2853 I0.56187 J13.43829
G2 X-5.79753 Y-90.98525 I0.88169 J11.81958
G2 X-5.80374 Y-90.98849 I-8.18609 J15.66988
G2 X-6.06059 Y-91.11805 I-4.80966 J9.2156
G2 X-14.49438 Y-93.00477 I-8.18759 J16.80595
G2 X-19.06492 Y-92.44655 I0.01332 J19.09929
G2 X-19.07186 Y-92.44483 I2.49486 J10.09138
G2 X-22.49515 Y-91.19736 I4.12854 J16.6502
G2 X-27.92899 Y-92.42491 I-5.23158 J10.51752
G2 X-28.47322 Y-92.40126 I0.17899 J10.39366
G2 X-31.0702 Y-91.9809 I1.00876 J14.46428
G3 X-31.65715 Y-92.01415 I1.78275 J-36.6697
G1 X-31.65785 Y-92.01419
G2 X-34.48386 Y-92.12705 I-3.7053 J57.34553
G3 X-35.0695 Y-92.18031 I0.23527 J-5.83302
G2 X-38.03504 Y-92.43749 I-3.74406 J25.94637
G2 X-38.77801 Y-92.433 I-0.30871 J10.39062
G2 X-40.28101 Y-92.2853 I0.56187 J13.43829
G2 X-46.22963 Y-90.15213 I0.88169 J11.81958
G2 X-46.76339 Y-89.74944 I5.99054 J8.4955
G2 X-50.751 Y-83.7108 I7.47494 J9.27199
G2 X-51.28295 Y-80.57925 I13.90277 J3.97261
G2 X-51.3328 Y-79.03716 I23.32213 J1.52578
G2 X-50.44929 Y-72.8831 I20.771 J0.15844
G2 X-50.43378 Y-72.83212 I9.95274 J-3.00052
G2 X-49.12512 Y-69.68376 I17.00191 J-5.22092
G2 X-51.31141 Y-62.45848 I9.33369 J6.76769
G2 X-48.32005 Y-54.87874 I12.03484 J-0.36943
G2 X-61.21106 Y-49.57699 I13.30659 J50.67733
G2 Y41.17416 I26.1976 J45.37557
G2 X-56.23941 Y43.70178 I26.1976 J-45.37557
G2 X-58.71975 Y48.2892 I8.98221 J7.82077
G2 X-59.2517 Y51.42075 I13.90277 J3.97261
G2 X-59.30155 Y52.96284 I23.32213 J1.52578
G2 X-58.41804 Y59.1169 I20.771 J0.15844
G2 X-58.40253 Y59.16788 I9.95274 J-3.00052
G2 X-57.09387 Y62.31624 I17.00191 J-5.22092
G2 X-59.28016 Y69.54152 I9.33369 J6.76769
G2 X-55.29378 Y78.12732 I12.03484 J-0.36943
G2 X-53.34876 Y79.8238 I25.15898 J-26.8815
G2 X-50.40075 Y81.87881 I14.80496 J-18.09643
G2 X-41.34705 Y84.39462 I9.22388 J-15.64541
G2 X-31.54498 Y81.65987 I0.22319 J-18.13403
G2 X-30.01139 Y82.73856 I10.19386 J-12.86331
G2 X-23.54584 Y84.74376 I7.0259 J-11.22793
G2 X-14.29034 Y80.71072 I0.55861 J-11.35488
G2 X-13.51044 Y79.65583 I-7.95224 J-6.69493
G2 X-13.01001 Y78.80514 I-9.93608 J-6.41765
G1 F300.0 X-12.63316 Y82.46456
G2 F800.0 X0.49751 Y87.09302 I12.93143 J-15.74602
G2 X10.17612 Y84.69554 I0.10681 J-20.30379
G2 X10.48107 Y84.52715 I-6.03195 J-11.28418
G2 X10.59258 Y84.46312 I-10.18871 J-17.87242
G2 X19.66362 Y86.63942 I9.07528 J-17.83405
G2 X25.60227 Y85.9178 I0.30837 J-22.25975
G2 X25.65947 Y85.90271 I-3.23606 J-12.37922
G2 X31.66052 Y83.05658 I-4.70849 J-17.67748
G2 X31.86622 Y82.9049 I-7.49055 J-10.37346
G2 X38.05827 Y74.21082 I-10.63762 J-14.12833
G2 X38.06334 Y74.19509 I-12.17617 J-3.93166
G2 X39.10806 Y67.30003 I-20.75066 J-6.67076
G2 X38.87553 Y64.26974 I-19.71433 J-0.0113
G2 X44.07943 Y60.89194 I-5.17805 J-13.67491
G2 X48.40475 Y50.51111 I-10.29709 J-10.38196
G2 X46.93613 Y44.05967 I-14.64005 J-0.06017
G2 X75.78174 Y-4.20142 I-25.94959 J-48.26109
G2 X37.61774 Y-56.41173 I-54.7952 J0.0
G2 X37.80109 Y-59.34796 I-14.03302 J-2.3501
G2 X37.63396 Y-61.39579 I-22.46273 J0.80257
G3 X37.65069 Y-61.83305 I28.0939 J0.85645
G2 X37.73135 Y-63.92385 I-43.40092 J-2.72133
G2 X37.73192 Y-64.2508 I-12.79385 J-0.18553
G2 X37.56343 Y-67.81453 I-49.29773 J0.54492
G2 X37.28431 Y-70.79034 I-109.12723 J8.73464
G1 X37.28428 Y-70.79058
G1 X37.28433 Y-70.79014
G1 X37.28431 Y-70.79034
G3 X37.21098 Y-71.50028 I84.25376 J-9.06147
G2 X40.40511 Y-80.48486 I-11.01557 J-8.97624
G2 X36.11418 Y-90.74541 I-14.22887 J-0.07703
G2 X25.98795 Y-94.81083 I-9.9706 J10.19098
G1 X22.98438
G2 X22.91975 Y-94.81066 I0.0 J12.7952
G1 X19.87289 Y-94.79527
G2 X18.41595 Y-94.75344 I-0.02789 J24.42057
G2 X15.2553 Y-94.27284 I0.86068 J16.29329
G2 X11.09218 Y-94.82455 I-3.91953 J13.59299
G2 X10.4223 Y-94.79545 I0.22032 J12.7933
G2 X7.7669 Y-94.3964 I1.17574 J16.85847
G3 X7.56026 Y-94.40914 I2.00815 J-34.2542
G1 X7.5594 Y-94.4092
G2 X4.64963 Y-94.52623 I-3.86005 J59.74054
G3 X4.33273 Y-94.55615 I0.16428 J-3.43384
G2 X1.09873 Y-94.83643 I-4.08378 J28.32221
G2 X0.18423 Y-94.83091 I-0.37998 J12.78956
G2 X-1.49288 Y-94.67117 I0.66213 J15.8362
G2 X-5.78677 Y-93.63498 I1.15606 J14.20546
G2 X-14.51101 Y-95.40476 I-8.46141 J19.32288
G2 X-19.64092 Y-94.77641 I0.02995 J21.49927
G2 X-19.64947 Y-94.77429 I3.07086 J12.42123
G2 X-22.50518 Y-93.82776 I4.70615 J18.97965
G2 X-27.97032 Y-94.82455 I-5.22155 J13.14791
G2 X-28.6402 Y-94.79545 I0.22032 J12.7933
G2 X-31.2956 Y-94.3964 I1.17574 J16.85847
G3 X-31.50224 Y-94.40914 I2.00815 J-34.2542
G1 X-31.5031 Y-94.4092
G2 X-34.41287 Y-94.52623 I-3.86005 J59.74054
G3 X-34.72977 Y-94.55615 I0.16428 J-3.43384
G2 X-37.96377 Y-94.83643 I-4.08378 J28.32221
G2 X-38.87827 Y-94.83091 I-0.37998 J12.78956
G2 X-40.55538 Y-94.67117 I0.66213 J15.8362
G2 X-47.6127 Y-92.11354 I1.15606 J14.20546
G2 X-48.2697 Y-91.61788 I7.37362 J10.45691
G2 X-53.05975 Y-84.36631 I8.98125 J11.14043
G2 X-53.67838 Y-80.72752 I16.21152 J4.62812
G2 X-53.73281 Y-79.04545 I25.71756 J1.67404
G2 X-52.74714 Y-72.19036 I23.171 J0.16672
G2 X-52.72804 Y-72.1276 I12.25059 J-3.69327
G2 X-51.87389 Y-69.84664 I19.29618 J-5.92543
G2 X-53.70994 Y-62.37405 I12.08247 J6.93058
G2 X-52.13365 Y-56.25344 I14.43337 J-0.45386
G2 X-62.41106 Y-51.65545 I17.12019 J52.05202
G2 Y43.25262 I27.3976 J47.45404
G2 X-59.81417 Y44.66001 I27.3976 J-47.45404
G2 X-61.0285 Y47.63369 I12.55697 J6.86254
G2 X-61.64713 Y51.27248 I16.21152 J4.62812
G2 X-61.70156 Y52.95455 I25.71756 J1.67404
G2 X-60.71589 Y59.80964 I23.171 J0.16672
G2 X-60.69679 Y59.8724 I12.25059 J-3.69327
G2 X-59.84264 Y62.15336 I19.29618 J-5.92543
G2 X-61.67869 Y69.62595 I12.08247 J6.93058
G2 X-56.9166 Y79.89564 I14.43337 J-0.45386
G2 X-54.86518 Y81.68404 I26.7818 J-28.64983
G2 X-51.61873 Y83.94679 I16.32139 J-19.95666
G2 X-41.37306 Y86.79448 I10.44186 J-17.71339
G2 X-31.70099 Y84.50647 I0.2492 J-20.5339
G2 X-31.2811 Y84.77519 I10.34987 J-15.70991
G2 X-23.65552 Y87.14126 I8.29561 J-13.26455
G2 X-12.63316 Y82.46456 I0.66829 J-13.75239
G1 F300.0 X-12.41068 Y85.61837
G2 F800.0 X0.50294 Y89.49307 I12.70895 J-18.89983
G2 X10.65535 Y87.14732 I0.10139 J-22.70385
G2 X19.64669 Y89.03941 I9.01251 J-20.51825
G2 X26.20926 Y88.23978 I0.32529 J-24.65974
G2 X26.27719 Y88.22185 I-3.84304 J-14.70119
G2 X33.06552 Y85.00234 I-5.32621 J-19.99662
G2 X33.30981 Y84.8222 I-8.89556 J-12.31922
G2 X40.34216 Y74.94828 I-12.08121 J-16.04564
G2 X40.34817 Y74.92961 I-14.46006 J-4.66912
G2 X41.50806 Y67.28833 I-23.0355 J-7.40528
G2 X41.45427 Y65.74723 I-22.11434 J0.0004
G2 X45.77649 Y62.58901 I-7.75679 J-15.1524
G2 X50.80475 Y50.51614 I-11.99416 J-12.07903
G2 X49.94907 Y45.11859 I-17.04005 J-0.0652
G2 X78.18174 Y-4.20142 I-28.96253 J-49.32001
G2 X40.19891 Y-58.07326 I-57.1952 J0.0
G2 X40.19933 Y-59.44015 I-16.61418 J-0.68857
G2 X40.03898 Y-61.50307 I-24.86096 J0.89477
G3 X40.04727 Y-61.70342 I25.68888 J0.96374
G2 X40.1311 Y-63.88905 I-45.7975 J-2.85096
G2 X40.13177 Y-64.27733 I-15.1936 J-0.22033
G2 X39.95544 Y-68.01026 I-51.69758 J0.57145
G2 X39.69665 Y-70.80187 I-111.51924 J8.93036
G2 X42.80512 Y-80.47907 I-13.50123 J-9.67465
G2 X37.79149 Y-92.46199 I-16.62888 J-0.08282
G2 X25.97536 Y-97.21083 I-11.64791 J11.90755
G1 X22.98438
G2 X22.90763 Y-97.21063 I0.0 J15.1952
G1 X19.86803 Y-97.19528
G2 X18.28235 Y-97.14973 I-0.02303 J26.82058
G2 X15.29127 Y-96.74692 I0.99428 J18.68958
G2 X11.05086 Y-97.2242 I-3.9555 J16.06708
G2 X10.25533 Y-97.18963 I0.26164 J15.19295
G2 X7.57722 Y-96.8129 I1.34271 J19.25265
G2 X4.73753 Y-96.92512 I-3.87787 J62.14424
G3 X4.67093 Y-96.9322 I0.07638 J-1.03495
G2 X1.17 Y-97.23537 I-4.42199 J30.69826
G2 X0.08398 Y-97.22881 I-0.45125 J15.1885
G2 X-1.76789 Y-97.05653 I0.76239 J18.2341
G2 X-5.74749 Y-96.21461 I1.43108 J16.59082
G2 X-14.52763 Y-97.80473 I-8.50069 J21.90251
G2 X-20.21692 Y-97.10626 I0.04657 J23.89925
G2 X-20.22708 Y-97.10375 I3.64687 J14.75108
G2 X-22.54019 Y-96.39279 I5.28375 J21.30911
G2 X-28.01164 Y-97.2242 I-5.18654 J15.71295
G2 X-28.80717 Y-97.18963 I0.26164 J15.19295
G2 X-31.48528 Y-96.8129 I1.34271 J19.25265
G2 X-34.32497 Y-96.92512 I-3.87787 J62.14424
G3 X-34.39157 Y-96.9322 I0.07638 J-1.03495
G2 X-37.8925 Y-97.23537 I-4.42199 J30.69826
G2 X-38.97852 Y-97.22881 I-0.45125 J15.1885
G2 X-40.83039 Y-97.05653 I0.76239 J18.2341
G2 X-48.99577 Y-94.07494 I1.43108 J16.59082
G2 X-49.776 Y-93.48631 I8.75669 J12.41831
G2 X-55.36849 Y-85.02186 I10.48755 J13.00886
G2 X-56.0738 Y-80.87596 I18.52025 J5.28367
G2 X-56.13281 Y-79.05369 I28.11298 J1.82249
G2 X-55.04498 Y-71.49761 I25.571 J0.17496
G2 X-55.02231 Y-71.42308 I14.54843 J-4.38602
G2 X-54.52001 Y-69.9664 I21.59044 J-6.62995
G2 X-56.10847 Y-62.28965 I14.72859 J7.05033
G2 X-55.3092 Y-57.67453 I16.8319 J-0.53826
G2 X-63.61106 Y-53.73391 I20.29574 J53.47311
G2 Y45.33108 I28.5976 J49.5325
G2 X-62.92711 Y45.71971 I28.5976 J-49.5325
G2 X-63.33724 Y46.97814 I15.66992 J5.80284
G2 X-64.04255 Y51.12404 I18.52025 J5.28367
G2 X-64.10156 Y52.94631 I28.11298 J1.82249
G2 X-63.01373 Y60.50239 I25.571 J0.17496
G2 X-62.99106 Y60.57692 I14.54843 J-4.38602
G2 X-62.48876 Y62.0336 I21.59044 J-6.62995
G2 X-64.07722 Y69.71035 I14.72859 J7.05033
G2 X-58.54024 Y81.66318 I16.8319 J-0.53826
G2 X-56.38156 Y83.54431 I28.40544 J-30.41737
G2 X-52.8367 Y86.01477 I17.83776 J-21.81693
G2 X-41.39907 Y89.19434 I11.65983 J-19.78137
G2 X-31.84082 Y87.23337 I0.27521 J-22.93376
G2 X-23.76513 Y89.53877 I8.85533 J-15.72274
G2 X-12.41068 Y85.61837 I0.77789 J-16.14989
G0 Z3.0
G0 Y99.8
G0 Z1.0
G1 F300.0 Z-2.5
G1 F800.0 X174.8
G1 Y-99.8
G1 X-170.8
G1 Y99.8
G1 X-12.41068
G1 F300.0 Y102.2
G1 F800.0 X177.2
G1 Y-102.2
G1 X-173.2
G1 Y102.2
G1 X-12.41068
G1 F300.0 Y104.6
G1 F800.0 X179.6
G1 Y-104.6
G1 X-175.6
G1 Y104.6
G1 X-12.41068
G1 F300.0 Y107.0
G1 F800.0 X182.0
G1 Y-107.0
G1 X-178.0
G1 Y107.0
G1 X-12.41068
G1 F300.0 Y109.4
G1 F800.0 X184.4
G1 Y-109.4
G1 X-180.4
G1 Y109.4
G1 X-12.41068
G1 F300.0 Y111.8
G1 F800.0 X186.8
G1 Y-111.8
G1 X-182.8
G1 Y111.8
G1 X-12.41068
G0 Z3.0
G0 X0.10763 Y63.86446
G0 Z1.0
G1 F300.0 Z-2.5
G2 F800.0 X0.13458 Y62.87608 I-13.77681 J-0.87016
G3 X0.13444 Y62.8003 I5.59979 J-0.04796
G2 X0.06766 Y61.06567 I-19.98174 J-0.09928
G2 X0.02173 Y62.64669 I21.72539 J1.42235
G3 X0.02098 Y62.78746 I-5.59985 J0.04081
G2 X0.10763 Y63.86446 I5.51309 J0.09843
G1 F300.0 X2.50286 Y64.01575
G2 F800.0 X2.53449 Y62.85553 I-16.17204 J-1.02145
G3 X2.53441 Y62.81223 I3.19988 J-0.0274
G2 X2.35388 Y59.86181 I-22.38171 J-0.1112
G3 X2.3521 Y59.84761 I3.17415 J-0.40593
G2 X1.73307 Y57.28194 I-11.51121 J1.41984
G2 X1.29724 Y56.38637 I-4.93035 J1.8455
G3 X1.29386 Y56.38081 I2.73201 J-1.66616
G2 X0.87901 Y55.87623 I-1.96576 J1.19337
G2 X0.06623 Y55.58958 I-0.78187 J0.92131
G3 X-0.08704 Y55.58983 I-0.08185 J-3.19895
G2 X-0.76649 Y55.75874 I-0.02972 J1.33145
G2 X-1.33447 Y56.41796 I1.05601 J1.48414
G3 X-1.35523 Y56.45813 I-2.85303 J-1.44921
G2 X-1.82987 Y57.65943 I5.31073 J2.79272
G3 X-1.83289 Y57.67032 I-3.0854 J-0.84872
G2 X-2.15337 Y59.19414 I11.60392 J3.23611
G2 X-2.37821 Y62.66418 I23.94642 J3.29387
G3 X-2.37863 Y62.74462 I-3.19992 J0.02332
G2 X-1.36615 Y66.76116 I7.91271 J0.14127
G3 X-1.34713 Y66.79552 I-2.7901 J1.56696
G2 X-0.43993 Y67.8393 I2.83126 J-1.54468
G2 X0.40534 Y68.08161 I0.82262 J-1.27413
G3 X0.52118 Y68.08197 I0.04779 J3.19964
G2 X1.25575 Y67.92927 I0.03557 J-1.67206
G2 X1.65937 Y67.53033 I-0.57108 J-0.98143
G3 X1.68175 Y67.49346 I2.74688 J1.64155
G2 X2.05083 Y66.69464 I-3.147 J-1.93869
G3 X2.05367 Y66.68592 I3.04403 J0.98685
G2 X2.32948 Y65.56743 I-7.34532 J-2.40458
G2 X2.50286 Y64.01575 I-15.99866 J-2.57313
G1 F300.0 X0.10763 Y63.86446
G1 Z-5.0
G2 F800.0 X0.13458 Y62.87608 I-13.77681 J-0.87016
G3 X0.13444 Y62.8003 I5.59979 J-0.04796
G2 X0.06766 Y61.06567 I-19.98174 J-0.09928
G2 X0.02173 Y62.64669 I21.72539 J1.42235
G3 X0.02098 Y62.78746 I-5.59985 J0.04081
G2 X0.10763 Y63.86446 I5.51309 J0.09843
G1 F300.0 X2.50286 Y64.01575
G2 F800.0 X2.53449 Y62.85553 I-16.17204 J-1.02145
G3 X2.53441 Y62.81223 I3.19988 J-0.0274
G2 X2.35388 Y59.86181 I-22.38171 J-0.1112
G3 X2.3521 Y59.84761 I3.17415 J-0.40593
G2 X1.73307 Y57.28194 I-11.51121 J1.41984
G2 X1.29724 Y56.38637 I-4.93035 J1.8455
G3 X1.29386 Y56.38081 I2.73201 J-1.66616
G2 X0.87901 Y55.87623 I-1.96576 J1.19337
G2 X0.06623 Y55.58958 I-0.78187 J0.92131
G3 X-0.08704 Y55.58983 I-0.08185 J-3.19895
G2 X-0.76649 Y55.75874 I-0.02972 J1.33145
G2 X-1.33447 Y56.41796 I1.05601 J1.48414
G3 X-1.35523 Y56.45813 I-2.85303 J-1.44921
G2 X-1.82987 Y57.65943 I5.31073 J2.79272
G3 X-1.83289 Y57.67032 I-3.0854 J-0.84872
G2 X-2.15337 Y59.19414 I11.60392 J3.23611
G2 X-2.37821 Y62.66418 I23.94642 J3.29387
G3 X-2.37863 Y62.74462 I-3.19992 J0.02332
G2 X-1.36615 Y66.76116 I7.91271 J0.14127
G3 X-1.34713 Y66.79552 I-2.7901 J1.56696
G2 X-0.43993 Y67.8393 I2.83126 J-1.54468
G2 X0.40534 Y68.08161 I0.82262 J-1.27413
G3 X0.52118 Y68.08197 I0.04779 J3.19964
G2 X1.25575 Y67.92927 I0.03557 J-1.67206
G2 X1.65937 Y67.53033 I-0.57108 J-0.98143
G3 X1.68175 Y67.49346 I2.74688 J1.64155
G2 X2.05083 Y66.69464 I-3.147 J-1.93869
G3 X2.05367 Y66.68592 I3.04403 J0.98685
G2 X2.32948 Y65.56743 I-7.34532 J-2.40458
G2 X2.50286 Y64.01575 I-15.99866 J-2.57313
G0 Z3.0
G0 X0.48496 Y41.39689
G0 Z-1.5
G1 F300.0 Z-5.0
G3 F800.0 X-4.01106 Y39.0957 I20.50158 J-45.5983
G3 X-7.01346 Y37.21742 I24.9976 J-43.29711
G3 X-12.7598 Y40.56793 I-28.0 J-41.41884
G3 X-6.93492 Y42.91024 I-0.56977 J9.83073
G3 X-4.08801 Y41.88462 I6.39785 J13.29512
G3 X-4.08266 Y41.8833 I1.9242 J7.7602
G3 X-0.07148 Y41.39522 I4.00785 J16.21122
G3 X0.48496 Y41.39689 I0.22955 J16.29267
G0 Z3.0
G0 X-31.48415 Y57.4638
G0 Z-1.5
G1 F300.0 Z-5.0
G3 F800.0 X-31.77664 Y57.29276 I3.35306 J-6.06993
G3 X-33.4705 Y58.20077 I-4.93431 J-7.17084
G3 X-32.12007 Y59.578 I-11.61037 J12.73512
G3 X-32.03607 Y59.67612 I-4.20805 J3.68762
G3 X-31.359 Y60.55869 I-10.13644 J8.47725
G3 X-31.48415 Y57.4638 I54.7778 J-3.76501
G1 F300.0 X-29.08912 Y57.43456
G2 F800.0 X-28.96056 Y60.52132 I52.50792 J-0.64088
G2 X-28.71871 Y63.5956 I135.71914 J-9.13053
G3 X-28.63551 Y64.59557 I-116.52423 J10.19757
G2 X-31.25036 Y65.95914 I0.75597 J4.63862
G2 X-31.51804 Y66.25167 I3.3362 J3.3215
G2 X-31.9116 Y64.72421 I-12.14044 J2.31362
G2 X-31.92091 Y64.69618 I-3.04153 J0.99454
G2 X-33.87342 Y61.21272 I-10.25161 J3.45719
G2 X-33.92146 Y61.1566 I-2.45471 J2.05291
G2 X-36.29205 Y58.98083 I-11.15941 J9.77928
G2 X-38.61247 Y57.40417 I-18.3398 J24.49548
G3 X-39.85147 Y56.60425 I25.55103 J-40.93524
G2 X-37.95985 Y56.65268 I3.68355 J-106.90937
G2 X-37.9235 Y56.65308 I0.0536 J-3.19955
G2 X-34.54402 Y56.04743 I0.05092 J-9.44736
G2 X-32.67501 Y54.9715 I-2.16693 J-5.92551
G2 X-31.82291 Y54.03499 I-2.85256 J-3.45138
G2 X-29.68629 Y55.65842 I3.69182 J-2.64112
G2 X-29.03535 Y55.86373 I2.53115 J-6.89066
G2 X-29.08999 Y57.21729 I33.21831 J2.01872
G2 X-29.09047 Y57.31289 I3.19936 J0.06396
G2 X-29.08912 Y57.43456 I52.50927 J-0.5192
G0 Z3.0
G0 X-119.60736 Y54.2
G0 Z-1.5
G1 F300.0 Z-5.0
G3 F800.0 X-125.2 Y45.12648 I84.5939 J-58.40142
G1 Y54.2
G1 X-119.60736
G1 F300.0 Y56.6
G1 F800.0 X-114.90328
G3 X-127.6 Y34.61776 I79.88982 J-60.80142
G1 Y56.6
G1 X-119.60736
G1 F300.0 Y59.0
G1 F800.0 X-109.90431
G3 X-130.0 Y19.89456 I74.89086 J-63.20142
G1 Y59.0
G1 X-119.60736
G0 Z3.0
G0 X-125.2 Y-53.52931
G0 Z-1.5
G1 F300.0 Z-5.0
G3 F800.0 X-124.82991 Y-54.2 I90.18654 J49.32789
G1 X-125.2
G1 Y-53.52931
G1 F300.0 X-127.6
G1 F800.0 Y-43.02059
G3 X-120.64981 Y-56.6 I92.58654 J38.81918
G1 X-127.6
G1 Y-53.52931
G1 F300.0 X-130.0
G1 F800.0 Y-28.2974
G3 X-116.25492 Y-59.0 I94.98654 J24.09598
G1 X-130.0
G1 Y-53.52931
G1 F300.0 X-132.4
G1 F800.0 Y61.4
G1 X-104.54688
G3 X-111.60826 Y-61.4 I69.53342 J-65.60142
G1 X-132.4
G1 Y-53.52931
G1 F300.0 X-134.8
G1 F800.0 Y63.8
G1 X-99.82178
G3 X-99.71896 Y62.86977 I52.06161 J5.28393
G3 X-106.66089 Y-63.8 I64.7055 J-67.07118
G1 X-134.8
G1 Y-53.52931
G1 F300.0 X-137.2
G1 F800.0 Y66.2
G1 X-97.60588
G3 X-97.18028 Y61.97301 I49.84571 J2.88393
G3 X-101.34553 Y-66.2 I62.16682 J-66.17443
G1 X-137.2
G1 Y-53.52931
G1 F300.0 X-139.6
G1 F800.0 Y68.6
G1 X-95.28678
G3 X-94.68037 Y61.50059 I47.5266 J0.48393
G3 X-94.76054 Y60.94455 I56.14981 J-8.37931
G3 X-95.56537 Y-68.6 I59.74708 J-65.14597
G1 X-139.6
G1 Y-53.52931
G1 F300.0 X-142.0
G1 F800.0 Y71.0
G1 X-92.84921
G3 X-92.85948 Y70.72257 I45.60389 J-1.82791
G3 X-92.25018 Y61.51611 I45.09931 J-1.63864
G3 X-92.49541 Y59.75951 I53.71962 J-8.39483
G3 X-89.17178 Y-71.0 I57.48195 J-63.96093
G1 X-142.0
G1 Y-53.52931
G1 F300.0 X-144.4
G1 F800.0 Y73.4
G1 X-90.27863
G3 X-90.46096 Y70.63823 I43.03332 J-4.22791
G3 X-89.81684 Y61.53344 I42.70079 J-1.5543
G3 X-90.21518 Y58.57539 I51.28628 J-8.41216
G3 X-82.22126 Y-73.19114 I55.20172 J-62.77681
G3 X-82.24382 Y-73.4 I51.65945 J-5.68759
G1 X-144.4
G1 Y-53.52931
G1 F300.0 X-146.8
G1 F800.0 Y75.8
G1 X-87.54442
G3 X-88.06244 Y70.55389 I40.29911 J-6.62791
G3 X-87.37983 Y61.5529 I40.30227 J-1.46996
G3 X-87.91782 Y57.39232 I48.84927 J-8.43162
G3 X-79.6569 Y-72.02194 I52.90436 J-61.59374
G3 X-80.03771 Y-75.8 I49.09509 J-6.85678
G1 X-146.8
G1 Y-53.52931
G1 F300.0 X-149.2
G1 F800.0 Y78.2
G1 X-84.61067
G3 X-85.66392 Y70.46955 I37.36535 J-9.02791
G3 X-84.9385 Y61.57485 I37.90375 J-1.38562
G3 X-85.6009 Y56.21046 I46.40794 J-8.45358
G3 X-77.04512 Y-70.84992 I50.58744 J-60.41187
G3 X-77.72853 Y-78.2 I46.48331 J-8.0288
G1 X-149.2
G1 Y-53.52931
G1 F300.0 X-151.6
G1 F800.0 Y80.6
G1 X-81.42603
G3 X-83.2654 Y70.38521 I34.18071 J-11.42791
G3 X-82.49203 Y61.59978 I35.50523 J-1.30128
G3 X-83.26145 Y55.02997 I43.96147 J-8.4785
G3 X-74.71018 Y-69.47313 I48.248 J-59.23139
G3 X-74.52328 Y-70.40022 I34.91876 J6.55706
G3 X-75.33277 Y-79.11878 I43.96147 J-8.4785
G3 X-75.30756 Y-80.6 I47.37194 J0.0653
G1 X-151.6
G1 Y-53.52931
G1 F300.0 X-154.0
G1 F800.0 Y83.0
G1 X-77.91244
G3 X-80.86688 Y70.30087 I30.66713 J-13.82791
G3 X-80.0394 Y61.62827 I33.10671 J-1.21693
G3 X-80.89587 Y53.85109 I41.50884 J-8.50699
G3 X-72.53118 Y-67.98002 I45.88241 J-58.05251
G3 X-72.07065 Y-70.37173 I32.73975 J5.06395
G3 X-72.93277 Y-79.11069 I41.50884 J-8.50699
G3 X-72.84152 Y-81.9175 I44.97195 J0.05721
G3 X-72.75961 Y-83.0 I35.99329 J2.17931
G1 X-154.0
G1 Y-53.52931
G1 F300.0 X-156.4
G1 F800.0 Y85.4
G1 X-73.94034
G3 X-78.46836 Y70.21652 I26.69502 J-16.22791
G3 X-77.57925 Y61.66111 I30.70819 J-1.13259
G3 X-78.50153 Y52.89742 I39.04869 J-8.53983
G3 X-78.50068 Y52.67331 I42.57196 J0.04911
G3 X-70.81106 Y-66.20468 I43.48722 J-56.87472
G3 X-70.31193 Y-66.49018 I35.7976 J62.00326
G3 X-69.6105 Y-70.33889 I30.52051 J3.57412
G3 X-70.53278 Y-79.10258 I39.04869 J-8.53983
G3 X-70.44614 Y-81.76857 I42.57196 J0.04911
G3 X-70.02783 Y-85.4 I33.59791 J2.03038
G1 X-156.4
G1 Y-53.52931
G1 F300.0 X-158.8
G1 F800.0 Y87.8
G1 X-69.26294
G3 X-76.06984 Y70.13217 I22.01763 J-18.62791
G3 X-75.10982 Y61.6993 I28.30967 J-1.04824
G3 X-76.10154 Y52.90553 I36.57926 J-8.57803
G3 X-76.07527 Y51.49332 I40.17197 J0.041
G3 X-69.61106 Y-64.12622 I41.06181 J-55.69474
G3 X-68.04342 Y-65.00436 I34.5976 J59.9248
G3 X-67.14107 Y-70.3007 I28.25199 J2.08829
G3 X-68.13279 Y-79.09447 I36.57926 J-8.57803
G3 X-68.05076 Y-81.61967 I40.17197 J0.041
G3 X-67.04997 Y-87.8 I31.20253 J1.88148
G1 X-158.8
G1 Y-53.52931
G1 F300.0 X-161.2
G1 F800.0 Y90.2
G1 X-63.3897
G3 X-65.03951 Y88.72885 I33.25491 J-38.95419
G3 X-73.67132 Y70.04782 I17.7942 J-19.55676
G3 X-72.62874 Y61.74425 I25.91115 J-0.96389
G3 X-73.70155 Y52.91365 I34.09818 J-8.62297
G3 X-73.62413 Y50.5292 I37.77197 J0.03287
G3 X-73.61035 Y50.31353 I28.80715 J1.73262
G3 X-68.41106 Y-62.04776 I38.59689 J-54.51494
G3 X-65.71337 Y-63.52354 I33.3976 J57.84634
G3 X-64.65999 Y-70.25575 I25.92195 J0.60747
G3 X-65.7328 Y-79.08635 I34.09818 J-8.62297
G3 X-65.65538 Y-81.4708 I37.77197 J0.03287
G3 X-64.60337 Y-87.64427 I28.80715 J1.73262
G3 X-63.73595 Y-90.2 I25.31492 J7.16682
G1 X-161.2
G1 Y-53.52931
G1 F300.0 X-163.6
G1 F800.0 Y92.6
G1 X-55.82438
G3 X-56.49057 Y92.21874 I14.64751 J-26.36661
G3 X-60.93048 Y89.1253 I17.94678 J-30.49136
G3 X-63.4142 Y86.96291 I30.79569 J-37.87948
G3 X-71.2728 Y69.96346 I16.16889 J-17.79082
G3 X-70.1327 Y61.79783 I23.51262 J-0.87953
G3 X-71.30155 Y52.92178 I31.60214 J-8.67656
G3 X-71.22874 Y50.67801 I35.37198 J0.02474
G3 X-71.09119 Y49.13843 I26.41176 J1.5838
G3 X-67.21106 Y-59.9693 I36.07773 J-53.33985
G3 X-63.30451 Y-62.04913 I32.1976 J55.76788
G3 X-62.16395 Y-70.20217 I23.51309 J-0.86694
G3 X-63.3328 Y-79.07822 I31.60214 J-8.67656
G3 X-63.25999 Y-81.32199 I35.37198 J0.02474
G3 X-62.29465 Y-86.98865 I26.41176 J1.5838
G3 X-59.8973 Y-92.6 I23.00621 J6.5112
G1 X-163.6
G1 Y-53.52931
G0 Z3.0
G0 X-23.96908 Y-52.96146
G0 Z-1.5
G1 F300.0 Z-5.0
G3 F800.0 X-23.49332 Y-52.85125 I-11.04438 J48.76004
G3 X-23.79692 Y-53.08641 I9.38534 J-12.43021
G3 X-23.96908 Y-52.96146 I-7.97881 J-10.81218
G0 Z3.0
G0 X-7.16434 Y-48.58254
G0 Z-1.5
G1 F300.0 Z-5.0
G3 F800.0 X-7.01346 Y-48.4875 I-27.84912 J44.38112
G3 X-6.13133 Y-49.03308 I28.0 J44.28608
G3 X-7.16434 Y-48.58254 I-7.67059 J-16.1777
G1 F300.0 X-3.94015 Y-50.28739
G3 F800.0 X-3.78454 Y-50.37122 I24.92669 J46.08597
G3 X-3.80174 Y-50.38184 I12.27199 J-19.9014
G3 X-3.94015 Y-50.28739 I-10.31215 J-14.96343
G1 F300.0 X-2.79837 Y-48.17639
G3 F800.0 X2.04851 Y-50.47096 I23.78491 J43.97497
G3 X-2.15151 Y-52.18916 I3.80586 J-15.29564
G3 X-3.8921 Y-53.33315 I10.63897 J-18.08346
G3 X-6.30241 Y-51.64283 I-10.22179 J-12.01212
G3 X-6.49295 Y-51.53762 I-3.95967 J-6.94581
G3 X-13.91957 Y-49.70715 I-7.30897 J-13.67316
G3 X-14.30752 Y-49.70729 I-0.18841 J-15.57431
G3 X-7.01346 Y-45.62025 I-20.70594 J45.50587
G3 X-4.01106 Y-47.49853 I28.0 J41.41884
G3 X-2.79837 Y-48.17639 I24.9976 J43.29711
G0 Z3.0
G0 X15.67225 Y-71.44131
G0 Z-1.5
G1 F300.0 Z-5.0
G3 F800.0 X15.5471 Y-74.5362 I54.7778 J-3.76501
G3 X15.25461 Y-74.70724 I3.35306 J-6.06993
G3 X13.56075 Y-73.79923 I-4.93431 J-7.17084
G3 X14.91118 Y-72.422 I-11.61037 J12.73512
G3 X14.99518 Y-72.32388 I-4.20805 J3.68762
G3 X15.67225 Y-71.44131 I-10.13644 J8.47725
G1 F300.0 X18.06181 Y-71.60555
G2 F800.0 X18.07069 Y-71.47868 I52.38823 J-3.60077
G2 X18.31254 Y-68.4044 I135.71914 J-9.13053
G3 X18.39574 Y-67.40443 I-116.52423 J10.19757
G2 X15.78089 Y-66.04086 I0.75597 J4.63862
G2 X15.51321 Y-65.74833 I3.3362 J3.3215
G2 X15.11965 Y-67.27579 I-12.14044 J2.31362
G2 X15.11034 Y-67.30382 I-3.04153 J0.99454
G2 X13.15783 Y-70.78728 I-10.25161 J3.45719
G2 X13.10979 Y-70.8434 I-2.45471 J2.05291
G2 X10.7392 Y-73.01917 I-11.15941 J9.77928
G2 X8.41878 Y-74.59583 I-18.3398 J24.49548
G3 X7.17978 Y-75.39575 I25.55103 J-40.93524
G2 X9.0714 Y-75.34732 I3.68355 J-106.90937
G2 X9.10775 Y-75.34692 I0.0536 J-3.19955
G2 X12.48723 Y-75.95257 I0.05092 J-9.44736
G2 X14.35624 Y-77.0285 I-2.16693 J-5.92551
G2 X15.20834 Y-77.96501 I-2.85256 J-3.45138
G2 X17.34496 Y-76.34158 I3.69182 J-2.64112
G2 X17.9959 Y-76.13627 I2.53115 J-6.89066
G2 X17.94126 Y-74.78271 I33.21831 J2.01872
G2 X17.94078 Y-74.68711 I3.19936 J0.06396
G2 X18.06181 Y-71.60555 I52.50927 J-0.5192
G0 Z3.0
G0 X118.6278 Y-49.4
G0 Z-1.5
G1 F300.0 Z-5.0
G3 F800.0 X124.4 Y-33.90636 I-97.64126 J45.19858
G1 Y-49.4
G1 X118.6278
G0 Z3.0
G0 X120.8 Y44.80517
G0 Z-1.5
G1 F300.0 Z-5.0
G3 F800.0 X120.30538 Y45.8 I-99.81346 J-49.00659
G1 X120.8
G1 Y44.80517
G1 F300.0 X122.0
G1 F800.0 Y39.33277
G3 X118.33827 Y47.0 I-101.01346 J-43.53418
G1 X122.0
G1 Y44.80517
G1 F300.0 X124.4
G1 F800.0 Y25.50353
G3 X114.27971 Y49.4 I-103.41346 J-29.70494
G1 X124.4
G1 Y44.80517
G1 F300.0 X126.8
G1 F800.0 Y-51.8
G1 X114.79701
G3 X126.18174 Y-4.20142 I-93.81047 J47.59858
G3 X110.03637 Y51.8 I-105.1952 J0.0
G1 X126.8
G1 Y44.80517
G1 F300.0 X129.2
G1 F800.0 Y-54.2
G1 X110.80299
G3 X123.78174 Y-4.20142 I-89.81645 J49.99858
G3 X105.58044 Y54.2 I-102.7952 J0.0
G1 X129.2
G1 Y44.80517
G1 F300.0 X131.6
G1 F800.0 Y-56.6
G1 X106.62289
G3 X121.38174 Y-4.20142 I-85.63635 J52.39858
G3 X100.87637 Y56.6 I-100.3952 J0.0
G1 X131.6
G1 Y44.80517
G1 F300.0 X134.0
G1 F800.0 Y-59.0
G1 X102.228
G3 X118.98174 Y-4.20142 I-81.24146 J54.79858
G3 X95.8774 Y59.0 I-97.9952 J0.0
G1 X134.0
G1 Y44.80517
G1 F300.0 X136.4
G1 F800.0 Y-61.4
G1 X97.58135
G3 X116.58174 Y-4.20142 I-76.59481 J57.19858
G3 X90.51996 Y61.4 I-95.5952 J0.0
G1 X136.4
G1 Y44.80517
G1 F300.0 X138.8
G1 F800.0 Y-63.8
G1 X92.63397
G3 X114.18174 Y-4.20142 I-71.64743 J59.59858
G3 X85.23778 Y63.30505 I-93.1952 J0.0
G3 X85.11217 Y63.8 I-51.45545 J-12.79507
G1 X138.8
G1 Y44.80517
G1 F300.0 X141.2
G1 F800.0 Y-66.2
G1 X87.31861
G3 X111.78174 Y-4.20142 I-66.33207 J61.99858
G3 X83.07202 Y62.04934 I-90.7952 J0.0
G3 X81.91187 Y66.2 I-49.28968 J-11.53936
G1 X141.2
G1 Y44.80517
G1 F300.0 X143.6
G1 F800.0 Y-68.6
G1 X81.53845
G3 X109.38174 Y-4.20142 I-60.55191 J64.39858
G3 X80.8949 Y60.79627 I-88.3952 J0.0
G3 X78.48304 Y68.6 I-47.11257 J-10.2863
G1 X143.6
G1 Y44.80517
G1 F300.0 X146.0
G1 F800.0 Y-71.0
G1 X75.14486
G3 X106.98174 Y-4.20142 I-54.15832 J66.79858
G3 X78.70494 Y59.54622 I-85.9952 J0.0
G3 X74.76835 Y71.0 I-44.92261 J-9.03624
G1 X146.0
G1 Y44.80517
G1 F300.0 X148.4
G1 F800.0 Y-73.4
G1 X68.61896
G3 X68.54181 Y-72.95208 I-42.42355 J-7.07652
G3 X104.58174 Y-4.20142 I-47.55527 J68.75066
G3 X76.50035 Y58.29958 I-83.5952 J0.0
G3 X70.68157 Y73.4 I-42.71802 J-7.7896
G1 X148.4
G1 Y44.80517
G1 F300.0 X150.8
G1 F800.0 Y-75.8
G1 X66.53495
G3 X65.87978 Y-71.85685 I-40.33953 J-4.67652
G3 X102.18174 Y-4.20142 I-44.89324 J67.65543
G3 X74.27897 Y57.05687 I-81.1952 J0.0
G3 X66.08177 Y75.8 I-40.49663 J-6.54689
G1 X150.8
G1 Y44.80517
G1 F300.0 X153.2
G1 F800.0 Y-78.2
G1 X64.33724
G3 X63.15067 Y-70.7662 I-38.14182 J-2.27652
G3 X99.78174 Y-4.20142 I-42.16413 J66.56478
G3 X72.03817 Y55.81871 I-78.7952 J0.0
G3 X62.18403 Y76.68315 I-38.25584 J-5.30873
G3 X61.84752 Y78.2 I-44.87136 J-9.15882
G1 X153.2
G1 Y44.80517
G1 F300.0 X155.6
G1 F800.0 Y-80.6
G1 X62.0053
G3 X62.00509 Y-80.43272 I-35.82906 J0.03811
G3 X60.33916 Y-69.68117 I-35.80968 J-0.0438
G3 X97.38174 Y-4.20142 I-39.35262 J65.47975
G3 X69.77471 Y54.58584 I-76.3952 J0.0
G3 X59.96176 Y75.54398 I-35.99238 J-4.07586
G3 X58.69246 Y80.6 I-42.64909 J-8.01965
G1 X155.6
G1 Y44.80517
G1 F300.0 X158.0
G1 F800.0 Y-83.0
G1 X59.51629
G3 X59.60509 Y-80.43851 I-33.34005 J2.43811
G3 X57.42413 Y-68.60322 I-33.40968 J-0.03801
G3 X94.98174 Y-4.20142 I-36.43759 J64.4018
G3 X67.48453 Y53.35922 I-73.9952 J0.0
G3 X57.72937 Y74.39503 I-33.7022 J-2.84924
G3 X56.34205 Y80.0712 I-40.4167 J-6.8707
G3 X56.32938 Y80.11052 I-30.45996 J-9.79203
G3 X55.26119 Y83.0 I-35.10077 J-11.33396
G1 X158.0
G1 Y44.80517
G1 F300.0 X160.4
G1 F800.0 Y-85.4
G1 X56.82582
G3 X57.2051 Y-80.44431 I-30.64958 J4.83811
G3 X54.41842 Y-67.62881 I-31.00969 J-0.03221
G3 X54.4255 Y-67.50788 I-65.98423 J3.92294
G3 X92.58174 Y-4.20142 I-33.43896 J63.30647
G3 X65.16244 Y52.14006 I-71.5952 J0.0
G3 X55.95886 Y72.77139 I-31.38011 J-1.63008
G3 X55.48394 Y73.23813 I-22.26138 J-22.17656
G3 X54.05721 Y79.33668 I-38.17126 J-5.7138
G3 X54.04549 Y79.37306 I-28.17512 J-9.05752
G3 X51.44276 Y85.4 I-32.81689 J-10.5965
G1 X160.4
G1 Y44.80517
G1 F300.0 X162.8
G1 F800.0 Y-87.8
G1 X53.87523
G3 X54.8051 Y-80.4501 I-27.69899 J7.23811
G3 X51.98399 Y-68.08845 I-28.60969 J-0.02642
G3 X52.09323 Y-66.01039 I-63.5498 J4.38257
G3 X90.18174 Y-4.20142 I-31.10669 J61.80898
G3 X62.80172 Y50.92994 I-69.1952 J0.0
G3 X54.2618 Y71.07433 I-29.01938 J-0.41997
G3 X53.22303 Y72.067 I-20.56432 J-20.4795
G3 X51.77237 Y78.60217 I-35.91036 J-4.54267
G3 X51.7616 Y78.6356 I-25.89028 J-8.32301
G3 X47.06604 Y87.8 I-30.533 J-9.85903
G1 X162.8
G1 Y44.80517
G1 F300.0 X165.2
G1 F800.0 Y-90.2
G1 X50.57033
G3 X52.40511 Y-80.4559 I-24.39409 J9.63811
G3 X49.54204 Y-68.56503 I-26.20969 J-0.02062
G3 X49.72984 Y-64.49587 I-61.10785 J4.85916
G3 X87.78174 Y-4.20142 I-28.7433 J60.29446
G3 X60.39511 Y49.72968 I-66.7952 J0.0
G3 X60.40474 Y50.53624 I-26.63041 J0.72126
G3 X52.56474 Y69.37727 I-26.62241 J-0.02626
G3 X50.94252 Y70.87689 I-18.86726 J-18.78244
G3 X49.48753 Y77.86766 I-33.62984 J-3.35257
G3 X49.47771 Y77.89813 I-23.60544 J-7.5885
G3 X41.77736 Y90.2 I-28.24911 J-9.12157
G1 X165.2
G1 Y44.80517
G1 F300.0 X167.6
G1 F800.0 Y-92.6
G1 X46.74099
G3 X50.00511 Y-80.46169 I-20.56476 J12.03811
G3 X47.09294 Y-69.06621 I-23.8097 J-0.01483
G3 X47.13149 Y-68.59713 I-118.65675 J9.98631
G3 X47.33133 Y-64.35691 I-58.6973 J4.89126
G3 X47.33035 Y-63.78465 I-22.39383 J0.24754
G3 X47.31227 Y-62.96959 I-53.08057 J-0.76973
G3 X85.38174 Y-4.20142 I-26.32572 J58.76817
G3 X57.92966 Y48.54276 I-64.3952 J0.0
G3 X58.00475 Y50.53122 I-24.16495 J1.90818
G3 X50.86768 Y67.6802 I-24.22241 J-0.02124
G3 X48.63636 Y69.66197 I-17.1702 J-17.08538
G3 X47.20269 Y77.13314 I-31.32368 J-2.13764
G3 X47.19382 Y77.16067 I-21.3206 J-6.85398
G3 X37.64058 Y90.5741 I-25.96522 J-8.38411
G3 X37.28054 Y90.8396 I-13.47062 J-17.89099
G3 X34.51324 Y92.6 I-16.32956 J-22.61437
G1 X167.6
G1 Y44.80517
G1 F300.0 X170.0
G1 F800.0 Y-95.0
G1 X42.01122
G3 X47.60511 Y-80.46748 I-15.83498 J14.43811
G3 X44.63711 Y-69.6009 I-21.4097 J-0.00904
G3 X44.73947 Y-68.40155 I-116.20091 J10.521
G3 X44.93148 Y-64.33038 I-56.30528 J4.69567
G3 X44.9306 Y-63.81945 I-19.99398 J0.22101
G3 X44.85262 Y-61.64963 I-50.68083 J-0.73493
G3 X44.87699 Y-61.40851 I-29.51426 J3.10424
G3 X82.98174 Y-4.20142 I-23.89045 J57.20709
G3 X55.38703 Y47.37388 I-61.9952 J0.0
G3 X55.60475 Y50.52619 I-21.62233 J3.07706
G3 X49.17062 Y65.98314 I-21.82242 J-0.01621
G3 X46.29557 Y68.41353 I-15.47314 J-15.38831
G3 X44.91785 Y76.39863 I-28.9829 J-0.8892
G3 X44.90994 Y76.42321 I-19.03576 J-6.11947
G3 X36.19699 Y88.6568 I-23.68133 J-7.64665
G3 X35.87553 Y88.89384 I-12.02703 J-15.97368
G3 X27.51262 Y92.86014 I-14.92456 J-20.66861
G3 X27.42324 Y92.88373 I-5.1464 J-19.32156
G3 X19.61265 Y93.83936 I-7.45126 J-28.50406
G3 X10.77297 Y92.34451 I0.05521 J-27.21029
G3 X0.51379 Y94.29315 I-10.16865 J-25.55529
G3 X-12.13605 Y91.33141 I-0.21552 J-27.57461
G3 X-23.98422 Y94.33377 I-10.85119 J-17.94254
G3 X-32.06364 Y92.47442 I0.99873 J-22.82314
G3 X-41.4511 Y93.99406 I-9.06022 J-26.21384
G3 X-55.27262 Y90.15074 I0.27422 J-27.76066
G3 X-59.4142 Y87.26495 I16.72883 J-28.42336
G3 X-61.78917 Y85.1967 I29.27941 J-36.01913
G3 X-68.87427 Y69.8791 I14.54385 J-16.02461
G3 X-67.61698 Y61.8628 I21.1141 J-0.79517
G3 X-68.90156 Y52.92994 I29.08642 J-8.74152
G3 X-68.83335 Y50.82677 I32.97199 J0.01658
G3 X-68.49161 Y47.97729 I24.01637 J1.43504
G3 X-66.01106 Y-57.89083 I33.47816 J-52.17871
G3 X-60.79993 Y-60.57927 I30.9976 J53.68942
G3 X-60.90552 Y-62.1209 I21.52336 J-2.24864
G3 X-59.64823 Y-70.1372 I21.1141 J-0.79517
G3 X-60.93281 Y-79.07006 I29.08642 J-8.74152
G3 X-60.8646 Y-81.17323 I32.97199 J0.01658
G3 X-59.98594 Y-86.33304 I24.01637 J1.43504
G3 X-55.15569 Y-95.0 I20.69749 J5.85559
G1 X-166.0
G1 Y95.0
G1 X170.0
G1 Y44.80517
G1 F300.0 X172.4
G1 F800.0 Y-97.4
G1 X35.05455
G3 X39.46881 Y-94.17856 I-8.91097 J16.84557
G3 X45.20512 Y-80.47328 I-13.29257 J13.61667
G3 X42.17246 Y-70.1759 I-19.0097 J-0.00324
G3 X42.34745 Y-68.20593 I-113.73626 J11.096
G3 X42.53163 Y-64.30386 I-53.91326 J4.50005
G3 X42.53085 Y-63.85425 I-17.59413 J0.19448
G3 X42.44489 Y-61.59074 I-48.28108 J-0.70013
G3 X42.5891 Y-59.74345 I-27.10653 J3.04535
G3 X80.58174 Y-4.20142 I-21.60256 J55.54203
G3 X52.74093 Y46.22919 I-59.5952 J0.0
G3 X53.20475 Y50.52116 I-18.97623 J4.22174
G3 X47.47356 Y64.28608 I-19.42242 J-0.01119
G3 X43.90746 Y67.11714 I-13.77608 J-13.69125
G3 X43.90806 Y67.27658 I-24.51374 J0.17159
G3 X42.63301 Y75.66412 I-26.59539 J0.24775
G3 X42.62605 Y75.68575 I-16.75092 J-5.38496
G3 X34.7534 Y86.7395 I-21.39744 J-6.90918
G3 X34.47053 Y86.94809 I-10.58344 J-14.05638
G3 X26.8949 Y90.541 I-13.51955 J-18.72286
G3 X26.81625 Y90.56175 I-4.52869 J-17.00241
G3 X19.6297 Y91.43939 I-6.84427 J-26.18208
G3 X10.71434 Y89.76752 I0.03816 J-24.81032
G3 X0.50836 Y91.89312 I-10.11002 J-22.9783
G3 X-12.25432 Y88.54137 I-0.21009 J-25.17457
G3 X-23.87469 Y91.93627 I-10.73291 J-15.15249
G3 X-31.95996 Y89.88061 I0.8892 J-20.42564
G3 X-41.42509 Y91.5942 I-9.1639 J-23.62003
G3 X-54.05466 Y88.08275 I0.24821 J-25.3608
G3 X-57.8979 Y85.40462 I15.51087 J-26.35537
G3 X-60.16448 Y83.43015 I27.7631 J-34.1588
G3 X-66.47575 Y69.79473 I12.91916 J-14.25806
G3 X-65.07315 Y61.93978 I18.71558 J-0.7108
G3 X-65.28532 Y61.28143 I23.67253 J-7.99281
G3 X-65.31158 Y61.19514 I16.82002 J-5.16506
G3 X-66.50156 Y52.93811 I26.78102 J-8.07386
G3 X-66.43795 Y50.97545 I30.57199 J0.00841
G3 X-65.78524 Y46.8347 I21.62097 J1.28636
G3 X-64.81106 Y-55.81237 I30.77178 J-51.03612
G3 X-58.15631 Y-59.1195 I29.7976 J51.61096
G3 X-58.507 Y-62.20527 I18.87975 J-3.70841
G3 X-57.1044 Y-70.06022 I18.71558 J-0.7108
G3 X-57.31657 Y-70.71857 I23.67253 J-7.99281
G3 X-57.34283 Y-70.80486 I16.82002 J-5.16506
G3 X-58.53281 Y-79.06189 I26.78102 J-8.07386
G3 X-58.4692 Y-81.02455 I30.57199 J0.00841
G3 X-57.67721 Y-85.67744 I21.62097 J1.28636
G3 X-51.2823 Y-95.35475 I18.38877 J5.19999
G3 X-50.37885 Y-96.03635 I11.04322 J13.69812
G3 X-48.12999 Y-97.4 I10.97953 J15.57064
G1 X-168.4
G1 Y97.4
G1 X172.4
G1 Y44.80517
G0 Z3.0
G0 X66.26899 Y10.45473
G0 Z-1.5
G1 F300.0 Z-5.0
G3 F800.0 X-2.81106 Y37.01724 I-45.28245 J-14.65615
G3 X-7.01346 Y34.28628 I23.7976 J-41.21865
G3 X-58.81106 Y37.01724 I-28.0 J-38.4877
G3 Y-45.42007 I23.7976 J-41.21865
G3 X-7.01346 Y-42.68912 I23.7976 J41.21865
G3 X-2.81106 Y-45.42007 I28.0 J38.4877
G3 X68.58174 Y-4.20142 I23.7976 J41.21865
G3 X66.26899 Y10.45473 I-47.5952 J0.0
G1 F300.0 X63.99018 Y9.71717
G3 F800.0 X-1.61346 Y34.94293 I-43.00364 J-13.91859
G3 X-7.01346 Y31.28154 I22.6 J-39.14435
G3 X-57.61346 Y34.94293 I-28.0 J-35.48295
G3 Y-43.34576 I22.6 J-39.14435
G3 X-7.01346 Y-39.68437 I22.6 J39.14435
G3 X-1.61346 Y-43.34576 I28.0 J35.48295
G3 X66.18654 Y-4.20142 I22.6 J39.14435
G3 X63.99018 Y9.71717 I-45.2 J0.0
G0 Z3.0
G0 X38.14907 Y44.42523
G0 Z-1.5
G1 F300.0 Z-5.0
G3 F800.0 X38.96141 Y45.12642 I-4.44739 J5.97344
G3 X41.20474 Y50.49604 I-5.1967 J5.32452
G3 X38.98818 Y55.80068 I-7.42241 J0.01394
G3 X33.68356 Y58.01724 I-5.2907 J-5.20586
G3 X33.02541 Y57.99208 I-0.04513 J-7.44002
G3 X32.82282 Y59.20669 I-16.20437 J-2.07857
G3 X31.19161 Y63.20413 I-11.32862 J-2.29125
G3 X31.64061 Y64.71534 I-8.62585 J3.38515
G3 X31.90798 Y67.33449 I-12.24689 J2.57338
G3 X31.20882 Y71.99156 I-14.59531 J0.18984
G3 X31.2066 Y71.99843 I-5.32672 J-1.71239
G3 X27.53545 Y77.15299 I-9.978 J-3.22187
G3 X27.4455 Y77.21932 I-3.36549 J-4.46987
G3 X23.80632 Y78.94528 I-6.49452 J-8.99409
G3 X23.78131 Y78.95188 I-1.4401 J-5.4067
G3 X19.71357 Y79.43934 I-3.80933 J-14.57221
G3 X11.02206 Y76.08186 I-0.04571 J-12.81027
G3 X10.36807 Y75.44719 I8.0769 J-8.97702
G3 X6.91523 Y78.27217 I-10.07571 J-8.79246
G3 X6.78188 Y78.34581 I-2.77105 J-4.86082
G3 X0.48127 Y79.89272 I-6.17756 J-11.55658
G3 X-9.18564 Y75.86447 I-0.183 J-13.17418
G3 X-11.17181 Y73.35045 I11.3578 J-11.01471
G3 X-13.52189 Y67.95139 I15.89058 J-10.12777
G3 X-13.52651 Y67.93344 I5.41616 J-1.40408
G3 X-14.20467 Y62.43887 I21.08425 J-5.39142
G3 X-13.92429 Y57.99837 I32.47142 J-0.17881
G3 X-16.73869 Y57.2226 I0.53147 J-7.42115
G3 X-17.24315 Y57.55952 I-4.15254 J-5.67136
G2 X-17.14146 Y59.4626 I30.77188 J-0.68995
G3 X-17.13942 Y59.48733 I-5.57531 J0.47137
G2 X-16.90564 Y61.97971 I91.64625 J-7.33915
G1 X-16.90563 Y61.9798
G1 X-16.90565 Y61.97961
G1 X-16.90564 Y61.97971
G3 X-16.64382 Y64.773 I-101.68941 J10.9404
G3 X-16.49889 Y67.82878 I-41.95324 J3.52112
G3 X-16.49914 Y67.97175 I-5.59486 J0.06184
G3 X-16.56984 Y69.76986 I-36.28234 J-0.52614
G2 X-16.60649 Y70.93919 I35.26644 J1.6908
G2 X-16.57352 Y71.26536 I3.63595 J-0.20282
G3 X-16.57101 Y71.28265 I-5.53585 J0.81277
G3 X-16.42482 Y72.93046 I-15.12187 J2.17197
G3 X-17.54252 Y77.05153 I-7.0217 J0.30771
G3 X-17.9623 Y77.61933 I-4.70006 J-3.03574
G3 X-23.32597 Y79.94875 I-5.02494 J-4.23045
G3 X-27.47174 Y78.66544 I0.34048 J-8.43812
G3 X-29.50182 Y77.06838 I6.12062 J-9.86888
G2 X-31.39152 Y75.57112 I-21.57403 J25.2877
G3 X-31.49118 Y75.49616 I3.3134 J-4.50862
G3 X-31.52613 Y75.46916 I7.86059 J-10.21113
G3 X-33.56954 Y77.24991 I-8.21835 J-7.36775
G3 X-41.29502 Y79.59489 I-7.55432 J-10.98933
G3 X-47.96475 Y77.74288 I0.11815 J-13.3615
G3 X-50.3157 Y76.1035 I9.42095 J-16.0155
G3 X-52.05241 Y74.58659 I20.18091 J-24.85769
G3 X-54.48305 Y69.37246 I4.80709 J-5.4145
G3 X-51.52332 Y63.50549 I6.72288 J-0.28853
G3 X-51.06192 Y63.22562 I3.12905 J4.63846
G3 X-50.66944 Y63.02702 I3.6762 J6.77778
G3 X-50.95342 Y62.73918 I11.43761 J-11.56826
G3 X-51.10204 Y62.57858 I4.03154 J-3.87981
G3 X-53.814 Y57.75884 I9.70142 J-8.63162
G3 X-53.82235 Y57.7314 I5.3487 J-1.64247
G3 X-54.50153 Y52.97964 I15.29179 J-4.61012
G3 X-54.46077 Y51.71629 I18.57196 J-0.03311
G3 X-54.10217 Y49.59994 I9.64379 J0.54552
G3 X-51.71953 Y45.98743 I6.84497 J1.92261
G3 X-51.43224 Y45.77068 I3.5117 J4.35594
G3 X-47.70533 Y44.48993 I4.06417 J5.76361
G3 X-46.54624 Y44.36281 I1.52045 J8.51536
G3 X-46.14634 Y44.36039 I0.23374 J5.59032
G3 X-43.71955 Y44.57109 I-0.63597 J21.40567
G2 X-42.57586 Y44.67165 I1.50221 J-10.53117
G3 X-39.9361 Y44.77582 I-0.75604 J52.65969
G1 X-39.93572 Y44.77584
G2 X-38.45155 Y44.8452 I2.67953 J-41.42645
G3 X-36.10802 Y44.38711 I3.01834 J9.21782
G3 X-35.81509 Y44.37438 I0.38927 J5.58164
G3 X-31.88905 Y45.50903 I0.11962 J6.94578
G3 X-30.33238 Y44.7975 I3.5553 J5.71962
G3 X-30.12956 Y44.73864 I1.66051 J5.34312
G3 X-28.21593 Y44.43552 I2.37494 J8.80121
G3 X-27.14623 Y44.40476 I1.02968 J17.18978
G1 X-24.07513 Y44.38925
G3 X-24.04688 Y44.38918 I0.02826 J5.59513
G1 X-20.99716
G3 X-18.37305 Y44.85153 I0.1095 J7.05639
G3 X-13.34813 Y42.95146 I4.97617 J5.56549
G3 X-8.06984 Y45.12642 I0.01857 J7.44721
G3 X-7.37058 Y45.9129 I-5.1967 J5.32452
G3 X-3.5104 Y44.21408 I6.83351 J10.29246
G3 X-3.50666 Y44.21316 I1.34659 J5.43074
G3 X-0.05479 Y43.79524 I3.43185 J13.88136
G3 X6.24339 Y45.19709 I0.21286 J13.89266
G3 X6.38164 Y45.26683 I-2.45054 J5.03002
G3 X9.37021 Y47.42089 I-5.959 J11.4178
G3 X11.05958 Y45.98647 I7.86041 J7.54545
G3 X15.51783 Y44.01355 I7.4111 J10.72341
G3 X19.56162 Y43.56088 I3.93477 J16.86159
G3 X23.92654 Y44.10418 I0.11117 J16.91263
G3 X23.9357 Y44.10656 I-1.40724 J5.41534
G3 X27.77056 Y45.78835 I-3.38197 J12.92475
G3 X28.34043 Y45.15289 I5.83392 J4.65851
G3 X33.68312 Y42.95146 I5.29395 J5.26414
G3 X38.14907 Y44.42523 I0.01857 J7.44721
G1 F300.0 X36.71869 Y46.34642
G3 F800.0 X37.27904 Y46.83138 I-3.01701 J4.05224
G3 X38.80952 Y50.49103 I-3.51434 J3.61956
G3 X37.29443 Y54.10694 I-5.02719 J0.01895
G3 X33.67854 Y55.62202 I-3.59696 J-3.51211
G3 X30.71066 Y54.68572 I-0.04011 J-5.0448
G3 X30.76268 Y55.82254 I-9.77948 J1.0171
G3 X30.47595 Y58.72794 I-13.94164 J0.09098
G3 X29.13839 Y61.9675 I-8.98175 J-1.8125
G3 X29.05975 Y62.08109 I-2.66964 J-1.76437
G3 X28.37534 Y62.92036 I-7.7057 J-5.58511
G3 X29.29573 Y65.20372 I-5.80957 J3.66892
G3 X29.5127 Y67.34552 I-9.902 J2.08501
G3 X28.92855 Y71.25851 I-12.20003 J0.17881
G3 X28.92728 Y71.26245 I-3.04645 J-0.97935
G3 X26.09475 Y75.23952 I-7.69867 J-2.48588
G3 X26.0433 Y75.27746 I-1.92479 J-2.5564
G3 X23.18984 Y76.63078 I-5.09233 J-7.05222
G3 X23.17553 Y76.63455 I-0.82362 J-3.09219
G3 X19.72964 Y77.04403 I-3.20355 J-12.25488
G3 X12.63135 Y74.3078 I-0.06178 J-10.41497
G3 X10.32958 Y71.20491 I6.46761 J-7.20296
G3 X9.5712 Y72.5205 I-13.21421 J-6.74104
G3 X5.729 Y76.19135 I-9.27883 J-5.86577
G3 X5.65273 Y76.23346 I-1.58482 J-2.77999
G3 X0.47589 Y77.49733 I-5.04841 J-9.44424
G3 X-7.46384 Y74.19941 I-0.17762 J-10.77879
G3 X-9.15183 Y72.06334 I9.63601 J-9.34965
G3 X-11.20333 Y67.35032 I13.8706 J-8.84065
G3 X-11.20598 Y67.34006 I3.0976 J-0.80302
G3 X-11.80943 Y62.43808 I18.76372 J-4.79804
G3 X-11.42979 Y57.49307 I30.07619 J-0.17802
G3 X-10.85304 Y54.96735 I18.3573 J2.86315
G3 X-13.35271 Y55.62202 I-2.48073 J-4.37253
G3 X-17.0062 Y54.09788 I-0.04011 J-5.0448
G3 X-17.60272 Y54.81598 I-3.82963 J-2.5744
G3 X-19.58816 Y55.99813 I-3.28851 J-3.26475
G2 X-19.64354 Y57.28035 I20.63078 J1.53326
G2 X-19.52815 Y59.66439 I33.17227 J-0.41077
G3 X-19.52698 Y59.67853 I-3.18862 J0.26958
G2 X-19.2871 Y62.23588 I94.0338 J-7.53035
G1 Y62.23593
G1 X-19.28711 Y62.23582
G1 X-19.2871 Y62.23588
G3 X-19.03103 Y64.96861 I-99.30795 J10.68423
G3 X-18.89395 Y67.85526 I-39.56603 J3.32552
G3 X-18.89409 Y67.93702 I-3.1998 J0.03537
G3 X-18.96132 Y69.63515 I-33.88739 J-0.49141
G2 X-19.00247 Y70.979 I37.65793 J1.82552
G2 X-18.94332 Y71.61329 I6.03192 J-0.24263
G3 X-18.94188 Y71.62318 I-3.16606 J0.46484
G3 X-18.8182 Y73.02468 I-12.751 J1.83144
G3 X-19.55453 Y75.75199 I-4.62832 J0.21349
G3 X-19.7946 Y76.07672 I-2.68805 J-1.7362
G3 X-23.21552 Y77.55604 I-3.19263 J-2.68785
G3 X-26.20419 Y76.63312 I0.23003 J-6.04541
G3 X-27.87706 Y75.30625 I4.85307 J-7.83656
G2 X-29.97312 Y73.64107 I-23.19879 J27.04983
G3 X-30.03012 Y73.59819 I1.89499 J-2.57857
G3 X-30.94672 Y72.80412 I6.39952 J-8.31316
G3 X-31.89118 Y71.65742 I4.39293 J-4.58039
G3 X-32.32374 Y72.52999 I-7.03826 J-2.94559
G3 X-32.35992 Y72.591 I-2.77049 J-1.60137
G3 X-34.9179 Y75.27025 I-7.38456 J-4.4896
G3 X-41.26906 Y77.19983 I-6.20596 J-9.00967
G3 X-46.74914 Y75.67908 I0.09219 J-10.96643
G3 X-48.80206 Y74.24719 I8.20535 J-13.9517
G3 X-50.43915 Y72.81578 I18.66727 J-23.00137
G3 X-52.08924 Y69.28779 I3.19383 J-3.64369
G3 X-50.18384 Y65.49112 I4.32907 J-0.20386
G3 X-49.91995 Y65.33106 I1.78956 J2.65282
G3 X-47.12321 Y64.69453 I2.53423 J4.67234
G3 X-47.04779 Y64.69915 I-0.15804 J3.19609
G3 X-45.06616 Y65.32929 I-0.32596 J4.45604
G3 X-44.21503 Y65.91432 I-3.59793 J6.14608
G1 X-42.12296 Y67.55286
G2 X-41.2752 Y67.79893 I0.91129 J-1.55618
G2 X-41.03488 Y67.75408 I-0.07528 J-1.06965
G2 X-41.39172 Y67.17774 I-1.7687 J0.69643
G2 X-42.38267 Y66.30079 I-5.51718 J5.23603
G3 X-42.41944 Y66.27315 I1.90421 J-2.57177
G2 X-43.82788 Y65.25742 I-19.56081 J25.63918
G3 X-47.73857 Y62.41715 I40.24554 J-59.5254
G3 X-49.22759 Y61.07831 I8.50673 J-10.95839
G3 X-49.31259 Y60.98646 I2.30572 J-2.21894
G3 X-51.52432 Y57.05573 I7.91197 J-7.0395
G3 X-51.5291 Y57.04004 I3.05902 J-0.93936
G3 X-52.10631 Y52.9882 I12.99854 J-3.91876
G3 X-52.07002 Y51.86283 I16.17674 J-0.04168
G3 X-51.79788 Y50.25363 I7.25304 J0.39898
G3 X-50.21624 Y47.85212 I4.54069 J1.26892
G3 X-50.05193 Y47.72816 I2.00841 J2.49125
G3 X-47.43969 Y46.87762 I2.68386 J3.80613
G3 X-46.44618 Y46.75592 I1.2548 J6.12768
G3 X-46.21747 Y46.75454 I0.13368 J3.19721
G3 X-44.06012 Y46.94196 I-0.56484 J19.01152
G2 X-42.63198 Y47.0663 I1.84278 J-12.90203
G3 X-40.09054 Y47.16603 I-0.69992 J50.26504
G1 X-40.09033 Y47.16605
G2 X-38.07638 Y47.24995 I2.83413 J-43.81665
G2 X-38.00469 Y47.22727 I-0.12549 J-0.52141
G3 X-37.91572 Y47.19362 I1.17656 J2.97585
G3 X-35.94138 Y46.7765 I2.48251 J6.8694
G3 X-35.77385 Y46.76922 I0.22263 J3.19225
G3 X-32.27694 Y48.31504 I0.07837 J4.55093
G3 X-31.91318 Y48.77556 I-3.59494 J3.21356
G3 X-29.62155 Y47.08479 I3.57943 J2.45309
G3 X-29.50555 Y47.05113 I0.94968 J3.05583
G3 X-28.08414 Y46.82713 I1.75093 J6.48872
G3 X-27.1433 Y46.79997 I0.89789 J14.79817
G1 X-24.06304 Y46.78442
G3 X-24.04688 Y46.78438 I0.01616 J3.19996
G1 X-20.97666
G3 X-17.82758 Y47.9284 I0.08899 J4.66119
G3 X-16.99716 Y46.84657 I4.4008 J2.51846
G3 X-13.35296 Y45.34669 I3.60029 J3.57045
G3 X-9.75221 Y46.83138 I0.0234 J5.05197
G3 X-8.25162 Y49.90115 I-3.51434 J3.61956
G3 X-7.17709 Y48.78297 I8.98755 J7.5613
G3 X-7.14407 Y48.75328 I2.15592 J2.36474
G3 X-2.93395 Y46.53888 I6.607 J7.45208
G3 X-2.93181 Y46.53835 I0.77014 J3.10594
G3 X-0.03809 Y46.19048 I2.857 J11.55617
G3 X5.19436 Y47.35035 I0.19616 J11.49742
G3 X5.27343 Y47.39023 I-1.40151 J2.87676
G3 X9.36736 Y51.21581 I-4.85079 J9.2944
G3 X9.49991 Y51.43481 I-12.50966 J7.72117
G3 X9.53532 Y51.35577 I8.8172 J3.90231
G3 X9.56361 Y51.29507 I2.91447 J1.32132
G3 X12.41873 Y47.95871 I7.66701 J3.67128
G3 X16.06127 Y46.34629 I6.05196 J8.75117
G3 X19.56197 Y45.95614 I3.39134 J14.52886
G3 X23.32413 Y46.42238 I0.11083 J14.51737
G3 X23.32937 Y46.42375 I-0.80482 J3.09714
G3 X27.11924 Y48.24959 I-2.77564 J10.60757
G3 X27.12156 Y48.25133 I-1.91612 J2.56291
G3 X28.59836 Y49.64155 I-5.42425 J7.24154
G3 X30.03409 Y46.84657 I5.00611 J0.80531
G3 X33.67829 Y45.34669 I3.60029 J3.57045
G3 X36.71869 Y46.34642 I0.0234 J5.05197
G0 Z3.0
G0 X24.83152 Y-52.08989
G0 Z-1.5
G1 F300.0 Z-5.0
G3 F800.0 X23.70528 Y-52.05125 I-0.7875 J-6.52124
G3 X19.55951 Y-53.33456 I0.34048 J-8.43812
G3 X17.52943 Y-54.93162 I6.12062 J-9.86888
G2 X15.63973 Y-56.42888 I-21.57403 J25.2877
G3 X15.54007 Y-56.50384 I3.3134 J-4.50862
G3 X15.50512 Y-56.53084 I7.86059 J-10.21113
G3 X13.46171 Y-54.75009 I-8.21835 J-7.36775
G3 X5.73623 Y-52.40511 I-7.55432 J-10.98933
G3 X-0.9335 Y-54.25712 I0.11815 J-13.3615
G3 X-3.28445 Y-55.8965 I9.42095 J-16.0155
G3 X-4.05059 Y-56.5386 I20.18091 J-24.85769
G3 X-7.49102 Y-53.72783 I-10.06329 J-8.80667
G3 X-7.62437 Y-53.65419 I-2.77105 J-4.86082
G3 X-13.92498 Y-52.10728 I-6.17756 J-11.55658
G3 X-23.59189 Y-56.13553 I-0.183 J-13.17418
G3 X-23.75968 Y-56.31123 I11.3578 J-11.01471
G3 X-25.60079 Y-54.75009 I-8.01604 J-7.58736
G3 X-33.32627 Y-52.40511 I-7.55432 J-10.98933
G3 X-39.996 Y-54.25712 I0.11815 J-13.3615
G3 X-42.34695 Y-55.8965 I9.42095 J-16.0155
G3 X-44.08366 Y-57.41341 I20.18091 J-24.85769
G3 X-46.5143 Y-62.62754 I4.80709 J-5.4145
G3 X-43.55457 Y-68.49451 I6.72288 J-0.28853
G3 X-43.09317 Y-68.77438 I3.12905 J4.63846
G3 X-42.70069 Y-68.97298 I3.6762 J6.77778
G3 X-42.98467 Y-69.26082 I11.43761 J-11.56826
G3 X-43.13329 Y-69.42142 I4.03154 J-3.87981
G3 X-45.84525 Y-74.24116 I9.70142 J-8.63162
G3 X-45.8536 Y-74.2686 I5.3487 J-1.64247
G3 X-46.53278 Y-79.02036 I15.29179 J-4.61012
G3 X-46.49202 Y-80.28371 I18.57196 J-0.03311
G3 X-46.13342 Y-82.40006 I9.64379 J0.54552
G3 X-43.75078 Y-86.01257 I6.84497 J1.92261
G3 X-43.46349 Y-86.22932 I3.5117 J4.35594
G3 X-39.73658 Y-87.51007 I4.06417 J5.76361
G3 X-38.57749 Y-87.63719 I1.52045 J8.51536
G3 X-38.17759 Y-87.63961 I0.23374 J5.59032
G3 X-35.7508 Y-87.42891 I-0.63597 J21.40567
G2 X-34.60711 Y-87.32835 I1.50221 J-10.53117
G3 X-31.96735 Y-87.22418 I-0.75604 J52.65969
G1 X-31.96697 Y-87.22416
G2 X-30.4828 Y-87.1548 I2.67953 J-41.42645
G3 X-28.13927 Y-87.61289 I3.01834 J9.21782
G3 X-27.84634 Y-87.62562 I0.38927 J5.58164
G3 X-22.66552 Y-85.43824 I0.11962 J6.94578
G3 X-17.91665 Y-87.78592 I7.7222 J9.64361
G3 X-17.91291 Y-87.78684 I1.34659 J5.43074
G3 X-14.46104 Y-88.20476 I3.43185 J13.88136
G3 X-8.16286 Y-86.80291 I0.21286 J13.89266
G3 X-8.02461 Y-86.73317 I-2.45054 J5.03002
G3 X-5.61989 Y-85.10945 I-5.959 J11.4178
G3 X-4.68828 Y-86.01257 I5.39394 J4.632
G3 X-4.40099 Y-86.22932 I3.5117 J4.35594
G3 X-0.67408 Y-87.51007 I4.06417 J5.76361
G3 X0.48501 Y-87.63719 I1.52045 J8.51536
G3 X0.88491 Y-87.63961 I0.23374 J5.59032
G3 X3.3117 Y-87.42891 I-0.63597 J21.40567
G2 X4.45539 Y-87.32835 I1.50221 J-10.53117
G3 X7.09515 Y-87.22418 I-0.75604 J52.65969
G1 X7.09553 Y-87.22416
G2 X8.5797 Y-87.1548 I2.67953 J-41.42645
G3 X10.92323 Y-87.61289 I3.01834 J9.21782
G3 X11.21616 Y-87.62562 I0.38927 J5.58164
G3 X15.1422 Y-86.49097 I0.11962 J6.94578
G3 X16.69887 Y-87.2025 I3.5553 J5.71962
G3 X16.90169 Y-87.26136 I1.66051 J5.34312
G3 X18.81532 Y-87.56448 I2.37494 J8.80121
G3 X19.88502 Y-87.59524 I1.02968 J17.18978
G1 X22.95612 Y-87.61075
G3 X22.98438 Y-87.61083 I0.02826 J5.59513
G1 X26.03409
G3 X31.08224 Y-85.59569 I0.1095 J7.05639
G3 X33.20507 Y-80.50223 I-4.906 J5.0338
G3 X31.11758 Y-75.4857 I-7.00965 J0.02571
G3 X29.7881 Y-74.44048 I-4.97756 J-4.96306
G2 X29.88979 Y-72.5374 I30.77188 J-0.68995
G3 X29.89183 Y-72.51267 I-5.57531 J0.47137
G2 X30.12561 Y-70.02029 I91.64625 J-7.33915
G1 X30.12562 Y-70.0202
G1 X30.1256 Y-70.02039
G1 X30.12561 Y-70.02029
G3 X30.38743 Y-67.227 I-101.68941 J10.9404
G3 X30.53236 Y-64.17122 I-41.95324 J3.52112
G3 X30.53211 Y-64.02825 I-5.59486 J0.06184
G3 X30.46141 Y-62.23014 I-36.28234 J-0.52614
G2 X30.42476 Y-61.06081 I35.26644 J1.6908
G2 X30.45773 Y-60.73464 I3.63595 J-0.20282
G3 X30.46024 Y-60.71735 I-5.53585 J0.81277
G3 X30.60643 Y-59.06954 I-15.12187 J2.17197
G3 X29.48873 Y-54.94847 I-7.0217 J0.30771
G3 X29.06895 Y-54.38067 I-4.70006 J-3.03574
G3 X24.83152 Y-52.08989 I-5.02494 J-4.23045
G1 F300.0 X24.54436 Y-54.46781
G3 F800.0 X23.81573 Y-54.44396 I-0.50035 J-4.14331
G3 X20.82706 Y-55.36688 I0.23003 J-6.04541
G3 X19.15419 Y-56.69375 I4.85307 J-7.83656
G2 X17.05813 Y-58.35893 I-23.19879 J27.04983
G3 X17.00113 Y-58.40181 I1.89499 J-2.57857
G3 X16.08453 Y-59.19588 I6.39952 J-8.31316
G3 X15.14007 Y-60.34258 I4.39293 J-4.58039
G3 X14.70751 Y-59.47001 I-7.03826 J-2.94559
G3 X14.67133 Y-59.409 I-2.77049 J-1.60137
G3 X12.11335 Y-56.72975 I-7.38456 J-4.4896
G3 X5.76219 Y-54.80017 I-6.20596 J-9.00967
G3 X0.28211 Y-56.32092 I0.09219 J-10.96643
G3 X-1.77081 Y-57.75281 I8.20535 J-13.9517
G3 X-3.4079 Y-59.18422 I18.66727 J-23.00137
G3 X-4.34426 Y-60.29444 I3.19383 J-3.64369
G3 X-4.83505 Y-59.4795 I-12.94661 J-7.24169
G3 X-8.67725 Y-55.80865 I-9.27883 J-5.86577
G3 X-8.75352 Y-55.76654 I-1.58482 J-2.77999
G3 X-13.93036 Y-54.50267 I-5.04841 J-9.44424
G3 X-21.87009 Y-57.80059 I-0.17762 J-10.77879
G3 X-23.55808 Y-59.93666 I9.63601 J-9.34965
G3 X-23.87591 Y-60.4563 I13.8706 J-8.84065
G3 X-24.35499 Y-59.47001 I-7.08478 J-2.83188
G3 X-24.39117 Y-59.409 I-2.77049 J-1.60137
G3 X-26.94915 Y-56.72975 I-7.38456 J-4.4896
G3 X-33.30031 Y-54.80017 I-6.20596 J-9.00967
G3 X-38.78039 Y-56.32092 I0.09219 J-10.96643
G3 X-40.83331 Y-57.75281 I8.20535 J-13.9517
G3 X-42.4704 Y-59.18422 I18.66727 J-23.00137
G3 X-44.12049 Y-62.71221 I3.19383 J-3.64369
G3 X-42.21509 Y-66.50888 I4.32907 J-0.20386
G3 X-41.9512 Y-66.66894 I1.78956 J2.65282
G3 X-39.15446 Y-67.30547 I2.53423 J4.67234
G3 X-39.07904 Y-67.30085 I-0.15804 J3.19609
G3 X-37.09741 Y-66.67071 I-0.32596 J4.45604
G3 X-36.24628 Y-66.08568 I-3.59793 J6.14608
G1 X-34.15421 Y-64.44714
G2 X-33.30645 Y-64.20107 I0.91129 J-1.55618
G2 X-33.06613 Y-64.24592 I-0.07528 J-1.06965
G2 X-33.42297 Y-64.82226 I-1.7687 J0.69643
G2 X-34.41392 Y-65.69921 I-5.51718 J5.23603
G3 X-34.45069 Y-65.72685 I1.90421 J-2.57177
G2 X-35.85913 Y-66.74258 I-19.56081 J25.63918
G3 X-39.76982 Y-69.58285 I40.24554 J-59.5254
G3 X-41.25884 Y-70.92169 I8.50673 J-10.95839
G3 X-41.34384 Y-71.01354 I2.30572 J-2.21894
G3 X-43.55557 Y-74.94427 I7.91197 J-7.0395
G3 X-43.56035 Y-74.95996 I3.05902 J-0.93936
G3 X-44.13756 Y-79.0118 I12.99854 J-3.91876
G3 X-44.10127 Y-80.13717 I16.17674 J-0.04168
G3 X-43.82913 Y-81.74637 I7.25304 J0.39898
G3 X-42.24749 Y-84.14788 I4.54069 J1.26892
G3 X-42.08318 Y-84.27184 I2.00841 J2.49125
G3 X-39.47094 Y-85.12238 I2.68386 J3.80613
G3 X-38.47743 Y-85.24408 I1.2548 J6.12768
G3 X-38.24872 Y-85.24546 I0.13368 J3.19721
G3 X-36.09137 Y-85.05804 I-0.56484 J19.01152
G2 X-34.66323 Y-84.9337 I1.84278 J-12.90203
G3 X-32.12179 Y-84.83397 I-0.69992 J50.26504
G1 X-32.12158 Y-84.83395
G2 X-30.10763 Y-84.75005 I2.83413 J-43.81665
G2 X-30.03594 Y-84.77273 I-0.12549 J-0.52141
G3 X-29.94697 Y-84.80638 I1.17656 J2.97585
G3 X-27.97263 Y-85.2235 I2.48251 J6.8694
G3 X-27.8051 Y-85.23078 I0.22263 J3.19225
G3 X-24.30819 Y-83.68496 I0.07837 J4.55093
G3 X-23.17815 Y-81.43323 I-3.59494 J3.21356
G3 X-21.58334 Y-83.21703 I9.50783 J6.89568
G3 X-21.55032 Y-83.24672 I2.15592 J2.36474
G3 X-17.3402 Y-85.46112 I6.607 J7.45208
G3 X-17.33806 Y-85.46165 I0.77014 J3.10594
G3 X-14.44434 Y-85.80952 I2.857 J11.55617
G3 X-9.21189 Y-84.64965 I0.19616 J11.49742
G3 X-9.13282 Y-84.60977 I-1.40151 J2.87676
G3 X-5.03889 Y-80.78419 I-4.85079 J9.2944
G3 X-4.98606 Y-80.69792 I-12.50966 J7.72117
G3 X-4.76663 Y-81.74637 I7.20033 J0.95973
G3 X-3.18499 Y-84.14788 I4.54069 J1.26892
G3 X-3.02068 Y-84.27184 I2.00841 J2.49125
G3 X-0.40844 Y-85.12238 I2.68386 J3.80613
G3 X0.58507 Y-85.24408 I1.2548 J6.12768
G3 X0.81378 Y-85.24546 I0.13368 J3.19721
