; generated by PrusaSlicer 2.4.2+win64 on 2022-04-29 at 05:30:59 UTC

; 

; external perimeters extrusion width = 0.45mm
; perimeters extrusion width = 0.45mm
; infill extrusion width = 0.45mm
; solid infill extrusion width = 0.45mm
; top infill extrusion width = 0.40mm
; first layer extrusion width = 0.42mm

M73 P0 R110
M107
;TYPE:Custom
M862.3 P "MK2S" ; printer model check
M862.1 P0.4 ; nozzle diameter check
M115 U3.2.3 ; tell printer latest fw version
G90 ; use absolute coordinates
M83 ; extruder relative mode
M204 S2000 T1500 ; MK2 firmware only supports the old M204 format
M104 S215 ; set extruder temp
M140 S60 ; set bed temp
M190 S60 ; wait for bed temp
M109 S215 ; wait for extruder temp
G28 W ; home all without mesh bed level
G80 ; mesh bed leveling
G1 Y-3.0 F1000.0 ; go outside print area
G92 E0.0
G1 X60.0 E9.0  F1000.0 ; intro line
G1 X100.0 E12.5 F1000.0 ; intro line
G92 E0.0
G21 ; set units to millimeters
G90 ; use absolute coordinates
M83 ; use relative distances for extrusion
M900 K0.05 ; Filament gcode LA 1.5
M900 K30 ; Filament gcode LA 1.0
M107
;LAYER_CHANGE
;Z:0.2
;HEIGHT:0.2
;BEFORE_LAYER_CHANGE
G92 E0.0
;0.2


G1 E-.8 F2100
G1 Z.4 F10800
;AFTER_LAYER_CHANGE
;0.2
G1 X91.68 Y99.32
G1 Z.2
G1 E.8 F2100
M204 S1000
;TYPE:Skirt/Brim
;WIDTH:0.42
G1 F1200
G1 X124.252 Y69.253 E1.38986
G1 X125.864 Y68.623 E.05428
G1 X158.089 Y68.625 E1.01038
G1 X160.807 Y68.733 E.08529
G1 X163.509 Y69.044 E.0853
G1 X166.181 Y69.556 E.08529
G1 X168.82 Y70.271 E.08573
G1 X171.372 Y71.172 E.08485
G1 X173.703 Y72.188 E.07972
G1 X176.111 Y73.454 E.08529
G1 X178.418 Y74.895 E.08529
G1 X180.61 Y76.505 E.08529
G1 X182.676 Y78.274 E.08529
G1 X184.605 Y80.193 E.08529
G1 X186.384 Y82.251 E.08529
G1 X188.005 Y84.436 E.08529
G1 X189.458 Y86.735 E.08529
G1 X190.735 Y89.137 E.08529
G1 X191.828 Y91.628 E.08529
G1 X192.733 Y94.193 E.08529
G1 X193.444 Y96.819 E.08529
G1 X193.982 Y99.666 E.09086
G1 X194.28 Y102.37 E.08529
G1 X194.375 Y105.089 E.08529
G1 X194.267 Y107.807 E.08529
G1 X193.956 Y110.509 E.08529
G1 X193.444 Y113.181 E.08529
G1 X192.733 Y115.807 E.08529
G1 X191.828 Y118.372 E.0853
G1 X190.735 Y120.863 E.08529
G1 X189.458 Y123.265 E.0853
G1 X188.005 Y125.564 E.08529
G1 X186.384 Y127.749 E.08529
G1 X184.605 Y129.807 E.08529
G1 X182.807 Y131.605 E.07972
G1 X180.749 Y133.384 E.08529
G1 X178.564 Y135.005 E.08529
G1 X176.265 Y136.458 E.08529
G1 X173.863 Y137.735 E.08529
G1 X171.14 Y138.917 E.09307
G1 X168.637 Y139.786 E.08308
G1 X166.008 Y140.483 E.08529
G1 X163.334 Y140.982 E.08529
G1 X160.63 Y141.28 E.08529
G1 X158 Y141.377 E.08251
G1 X60.864 Y141.377 E3.04562
G1 X59.557 Y140.985 E.04278
G1 X58.681 Y139.94 E.04278
G1 X58.487 Y139 E.03008
G1 X58.487 Y131 E.25083
G1 X59.252 Y129.253 E.05979
G1 X91.636 Y99.361 E1.38183
; printing object Haken-6cm.stl id:0 copy 0
;WIPE_START
G1 F8640
M73 P0 R109
G1 X94.054 Y97.128 E-.76
;WIPE_END
G1 E-.04 F2100
G1 Z.6 F10800
G1 X62.829 Y131.787
G1 Z.2
G1 E.8 F2100
;TYPE:Perimeter
G1 F1200
G1 X158.017 Y131.787 E2.98454
G1 X160.272 Y131.691 E.07077
G1 X162.527 Y131.402 E.07129
G1 X164.75 Y130.923 E.07129
G1 X166.924 Y130.258 E.0713
G1 X169.053 Y129.4 E.07194
G1 X171.064 Y128.386 E.07064
G1 X173 Y127.194 E.07129
G1 X174.829 Y125.842 E.0713
G1 X176.55 Y124.324 E.07194
G1 X178.109 Y122.698 E.07064
G1 X179.537 Y120.929 E.07129
G1 X180.811 Y119.045 E.07129
G1 X181.92 Y117.06 E.0713
G1 X182.863 Y114.968 E.07194
G1 X183.614 Y112.844 E.07064
G1 X184.187 Y110.644 E.07129
G1 X184.571 Y108.403 E.07129
G1 X184.764 Y106.137 E.07129
G1 X184.764 Y103.863 E.07129
G1 X184.571 Y101.597 E.07129
G1 X184.187 Y99.356 E.07129
G1 X183.614 Y97.156 E.07129
G1 X182.856 Y95.012 E.07129
G1 X181.92 Y92.94 E.07129
G1 X180.811 Y90.955 E.07129
G1 X179.537 Y89.071 E.07129
G1 X178.109 Y87.302 E.07129
G1 X176.536 Y85.66 E.07129
G1 X174.829 Y84.158 E.07129
G1 X173 Y82.806 E.07129
G1 X171.064 Y81.614 E.07129
G1 X169.034 Y80.59 E.07129
G1 X166.924 Y79.742 E.07129
G1 X164.75 Y79.077 E.07129
G1 X162.527 Y78.598 E.07129
G1 X160.272 Y78.309 E.07129
G1 X158.017 Y78.213 E.07077
G1 X127.829 Y78.213 E.94651
G1 X127.829 Y71.787 E.20148
G1 X157.996 Y71.787 E.94585
G1 X160.482 Y71.881 E.07801
G1 X162.95 Y72.159 E.07787
G1 X165.39 Y72.62 E.07787
G1 X167.79 Y73.263 E.07787
G1 X170.134 Y74.083 E.07788
G1 X172.41 Y75.077 E.07788
G1 X174.606 Y76.237 E.07787
G1 X176.709 Y77.559 E.07787
G1 X178.708 Y79.034 E.07787
G1 X180.59 Y80.654 E.07787
G1 X182.346 Y82.41 E.07787
G1 X183.966 Y84.292 E.07788
G1 X185.441 Y86.291 E.07787
G1 X186.763 Y88.394 E.07788
G1 X187.923 Y90.59 E.07787
G1 X188.917 Y92.866 E.07787
G1 X189.737 Y95.21 E.07788
G1 X190.38 Y97.61 E.07787
G1 X190.841 Y100.05 E.07787
G1 X191.12 Y102.518 E.07788
G1 X191.212 Y105 E.07787
G1 X191.12 Y107.482 E.07787
G1 X190.841 Y109.95 E.07788
G1 X190.38 Y112.39 E.07787
G1 X189.737 Y114.79 E.07787
G1 X188.917 Y117.134 E.07788
G1 X187.923 Y119.41 E.07787
G1 X186.763 Y121.606 E.07787
G1 X185.441 Y123.709 E.07788
G1 X183.966 Y125.708 E.07787
G1 X182.346 Y127.59 E.07787
G1 X180.59 Y129.346 E.07788
G1 X178.708 Y130.966 E.07787
G1 X176.709 Y132.441 E.07787
G1 X174.606 Y133.763 E.07787
G1 X172.41 Y134.923 E.07787
G1 X170.134 Y135.917 E.07787
G1 X167.79 Y136.737 E.07787
G1 X165.39 Y137.38 E.07787
G1 X162.95 Y137.841 E.07787
G1 X160.482 Y138.119 E.07787
G1 X157.985 Y138.213 E.07834
G1 X62.829 Y138.213 E2.98355
G1 X62.829 Y131.847 E.1996
G1 X62.452 Y131.41 F10800
;TYPE:External perimeter
G1 F1200
G1 X158.009 Y131.41 E2.99611
G1 X160.24 Y131.315 E.07002
G1 X162.463 Y131.03 E.07029
G1 X164.655 Y130.558 E.07029
G1 X166.798 Y129.902 E.07029
G1 X168.897 Y129.056 E.07094
G1 X170.88 Y128.057 E.06964
G1 X172.789 Y126.881 E.07029
G1 X174.592 Y125.548 E.07029
G1 X176.289 Y124.052 E.07094
G1 X177.826 Y122.449 E.06964
G1 X179.234 Y120.704 E.07029
G1 X180.489 Y118.847 E.07029
G1 X181.583 Y116.89 E.07029
G1 X182.513 Y114.828 E.07094
G1 X183.253 Y112.734 E.06964
G1 X183.818 Y110.564 E.07029
G1 X184.196 Y108.355 E.07029
G1 X184.387 Y106.121 E.07029
G1 X184.387 Y103.879 E.07029
G1 X184.196 Y101.645 E.07029
G1 X183.818 Y99.436 E.07029
G1 X183.253 Y97.266 E.07029
G1 X182.506 Y95.153 E.07029
G1 X181.583 Y93.11 E.07029
G1 X180.489 Y91.153 E.07029
G1 X179.234 Y89.296 E.07029
G1 X177.826 Y87.551 E.07029
G1 X176.274 Y85.933 E.07029
G1 X174.592 Y84.452 E.07029
G1 X172.789 Y83.119 E.07029
G1 X170.88 Y81.943 E.07029
G1 X168.878 Y80.934 E.07029
G1 X166.798 Y80.098 E.07029
G1 X164.655 Y79.442 E.07029
G1 X162.463 Y78.97 E.07029
G1 X160.24 Y78.685 E.07029
G1 X158.009 Y78.59 E.07002
G1 X127.452 Y78.59 E.95808
G1 X127.452 Y71.41 E.22512
G1 X158.003 Y71.41 E.95789
G1 X160.51 Y71.504 E.07868
G1 X163.006 Y71.785 E.07876
G1 X165.474 Y72.252 E.07876
G1 X167.901 Y72.903 E.07876
G1 X170.272 Y73.732 E.07876
G1 X172.574 Y74.737 E.07876
G1 X174.795 Y75.91 E.07876
G1 X176.922 Y77.247 E.07876
G1 X178.943 Y78.738 E.07876
G1 X180.847 Y80.377 E.07876
G1 X182.623 Y82.153 E.07876
G1 X184.262 Y84.057 E.07876
G1 X185.753 Y86.078 E.07876
G1 X187.09 Y88.205 E.07876
G1 X188.263 Y90.426 E.07876
G1 X189.268 Y92.728 E.07876
G1 X190.097 Y95.099 E.07876
G1 X190.748 Y97.526 E.07876
G1 X191.215 Y99.994 E.07876
G1 X191.496 Y102.49 E.07876
G1 X191.59 Y105 E.07876
G1 X191.496 Y107.51 E.07876
G1 X191.215 Y110.006 E.07876
G1 X190.748 Y112.474 E.07876
G1 X190.097 Y114.901 E.07876
G1 X189.268 Y117.272 E.07876
G1 X188.263 Y119.574 E.07876
G1 X187.09 Y121.795 E.07876
G1 X185.753 Y123.922 E.07876
G1 X184.261 Y125.943 E.07876
G1 X182.623 Y127.847 E.07876
G1 X180.847 Y129.623 E.07876
G1 X178.943 Y131.262 E.07876
G1 X176.922 Y132.753 E.07876
G1 X174.795 Y134.09 E.07876
G1 X172.574 Y135.263 E.07876
G1 X170.272 Y136.268 E.07876
G1 X167.901 Y137.097 E.07876
G1 X165.474 Y137.748 E.07876
G1 X163.006 Y138.215 E.07876
G1 X160.51 Y138.496 E.07876
G1 X157.992 Y138.59 E.079
G1 X62.452 Y138.59 E2.9956
G1 X62.452 Y131.47 E.22324
M73 P1 R109
G1 X62.852 Y131.42 F10800
;WIPE_START
G1 F8640
G1 X65.743 Y131.468 E-.76
;WIPE_END
G1 E-.04 F2100
G1 Z.6 F10800
G1 X183.746 Y84.209
G1 Z.2
G1 E.8 F2100
;TYPE:Solid infill
;WIDTH:0.420184
G1 F1200
G1 X180.396 Y80.86 E.1486
G1 X178.531 Y79.255 E.07719
G1 X177.487 Y78.484 E.0407
G1 X184.516 Y85.513 E.31181
G1 X185.208 Y86.45 E.03655
G1 X185.694 Y87.225 E.02871
G1 X175.775 Y77.306 E.44006
G1 X174.366 Y76.43 E.05204
G1 X186.57 Y88.634 E.54141
G1 X187.168 Y89.766 E.04015
G1 X173.234 Y75.832 E.61814
G1 X172.133 Y75.264 E.03887
G1 X187.736 Y90.867 E.69219
G1 X188.149 Y91.813 E.03239
G1 X171.187 Y74.851 E.7525
G1 X170.24 Y74.438 E.03239
G1 X188.562 Y92.76 E.81281
G1 X188.653 Y92.97 E.00717
G1 X188.877 Y93.609 E.02124
G1 X169.391 Y74.123 E.86443
G1 X168.571 Y73.836 E.02728
G1 X189.164 Y94.429 E.91358
G1 X189.451 Y95.25 E.02728
G1 X167.75 Y73.549 E.96273
G1 X167.016 Y73.349 E.02386
M73 P1 R108
G1 X189.651 Y95.984 E1.00416
G1 X189.847 Y96.713 E.02367
G1 X166.287 Y73.153 E1.04516
G1 X165.559 Y72.958 E.02367
G1 X190.042 Y97.441 E1.08615
G1 X190.189 Y98.122 E.02184
G1 X164.878 Y72.811 E1.12286
G1 X164.22 Y72.687 E.02101
G1 X190.313 Y98.78 E1.15758
G1 X190.438 Y99.438 E.02101
G1 X179.187 Y88.187 E.49912
G1 X178.321 Y87.115 E.04323
G1 X176.731 Y85.456 E.07208
G1 X175.006 Y83.938 E.07208
G1 X174.743 Y83.743 E.01028
G1 X163.562 Y72.562 E.49602
G1 X162.904 Y72.438 E.021
G1 X172.844 Y82.378 E.44095
G1 X171.455 Y81.523 E.05115
G1 X162.303 Y72.37 E.40603
G1 X161.702 Y72.303 E.01898
G1 X170.322 Y80.923 E.38244
G1 X169.246 Y80.381 E.0378
G1 X161.101 Y72.235 E.36138
G1 X160.499 Y72.167 E.01898
G1 X168.338 Y80.006 E.34775
G1 X167.446 Y79.647 E.03015
G1 X159.942 Y72.143 E.33291
G1 X159.388 Y72.123 E.0174
G1 X166.618 Y79.353 E.32076
G1 X165.849 Y79.117 E.02523
G1 X158.833 Y72.102 E.31124
G1 X158.279 Y72.081 E.0174
G1 X165.08 Y78.882 E.30171
G1 X164.821 Y78.803 E.00849
G1 X164.37 Y78.705 E.01448
G1 X157.735 Y72.07 E.29436
G1 X157.201 Y72.07 E.01674
G1 X163.69 Y78.559 E.28785
G1 X163.01 Y78.412 E.02182
G1 X156.668 Y72.07 E.28135
G1 X156.134 Y72.07 E.01674
G1 X162.354 Y78.29 E.27594
G1 X161.742 Y78.212 E.01935
G1 X155.601 Y72.07 E.27247
G1 X155.067 Y72.07 E.01674
G1 X161.13 Y78.134 E.26899
G1 X160.519 Y78.055 E.01935
G1 X154.534 Y72.07 E.26551
G1 X154 Y72.07 E.01674
G1 X159.941 Y78.012 E.26358
G1 X159.384 Y77.988 E.01749
G1 X153.467 Y72.07 E.26253
G1 X152.933 Y72.07 E.01674
G1 X158.827 Y77.964 E.26148
G1 X158.27 Y77.941 E.01749
G1 X152.399 Y72.07 E.26043
G1 X151.866 Y72.07 E.01674
G1 X157.726 Y77.93 E.25997
G1 X157.192 Y77.93 E.01674
G1 X151.332 Y72.07 E.25997
G1 X150.799 Y72.07 E.01674
G1 X156.659 Y77.93 E.25997
G1 X156.125 Y77.93 E.01674
G1 X150.265 Y72.07 E.25997
G1 X149.732 Y72.07 E.01674
G1 X155.592 Y77.93 E.25997
G1 X155.058 Y77.93 E.01674
G1 X149.198 Y72.07 E.25997
G1 X148.665 Y72.07 E.01674
G1 X154.525 Y77.93 E.25997
G1 X153.991 Y77.93 E.01674
G1 X148.131 Y72.07 E.25997
G1 X147.598 Y72.07 E.01674
G1 X153.458 Y77.93 E.25997
G1 X152.924 Y77.93 E.01674
G1 X147.064 Y72.07 E.25997
G1 X146.531 Y72.07 E.01674
G1 X152.391 Y77.93 E.25997
G1 X151.857 Y77.93 E.01674
G1 X145.997 Y72.07 E.25997
G1 X145.463 Y72.07 E.01674
G1 X151.323 Y77.93 E.25997
G1 X150.79 Y77.93 E.01674
G1 X144.93 Y72.07 E.25997
G1 X144.396 Y72.07 E.01674
G1 X150.256 Y77.93 E.25997
G1 X149.723 Y77.93 E.01674
G1 X143.863 Y72.07 E.25997
G1 X143.329 Y72.07 E.01674
G1 X149.189 Y77.93 E.25997
G1 X148.656 Y77.93 E.01674
G1 X142.796 Y72.07 E.25997
G1 X142.262 Y72.07 E.01674
G1 X148.122 Y77.93 E.25997
G1 X147.589 Y77.93 E.01674
G1 X141.729 Y72.07 E.25997
G1 X141.195 Y72.07 E.01674
G1 X147.055 Y77.93 E.25997
G1 X146.522 Y77.93 E.01674
G1 X140.662 Y72.07 E.25997
G1 X140.128 Y72.07 E.01674
G1 X145.988 Y77.93 E.25997
G1 X145.455 Y77.93 E.01674
G1 X139.595 Y72.07 E.25997
G1 X139.061 Y72.07 E.01674
G1 X144.921 Y77.93 E.25997
G1 X144.388 Y77.93 E.01674
G1 X138.527 Y72.07 E.25997
G1 X137.994 Y72.07 E.01674
G1 X143.854 Y77.93 E.25997
G1 X143.32 Y77.93 E.01674
G1 X137.46 Y72.07 E.25997
G1 X136.927 Y72.07 E.01674
G1 X142.787 Y77.93 E.25997
G1 X142.253 Y77.93 E.01674
G1 X136.393 Y72.07 E.25997
G1 X135.86 Y72.07 E.01674
G1 X141.72 Y77.93 E.25998
G1 X141.186 Y77.93 E.01674
G1 X135.326 Y72.07 E.25998
G1 X134.793 Y72.07 E.01674
G1 X140.653 Y77.93 E.25998
G1 X140.119 Y77.93 E.01674
G1 X134.259 Y72.07 E.25998
G1 X133.726 Y72.07 E.01674
G1 X139.586 Y77.93 E.25998
G1 X139.052 Y77.93 E.01674
G1 X133.192 Y72.07 E.25998
G1 X132.659 Y72.07 E.01674
G1 X138.519 Y77.93 E.25998
G1 X137.985 Y77.93 E.01674
G1 X132.125 Y72.07 E.25998
G1 X131.591 Y72.07 E.01674
G1 X137.452 Y77.93 E.25998
G1 X136.918 Y77.93 E.01674
G1 X131.058 Y72.07 E.25998
G1 X130.524 Y72.07 E.01674
G1 X136.385 Y77.93 E.25998
G1 X135.851 Y77.93 E.01674
G1 X129.991 Y72.07 E.25998
G1 X129.457 Y72.07 E.01674
G1 X135.318 Y77.93 E.25998
G1 X134.784 Y77.93 E.01674
G1 X128.924 Y72.07 E.25998
G1 X128.39 Y72.07 E.01674
G1 X134.25 Y77.93 E.25998
G1 X133.717 Y77.93 E.01674
G1 X128.112 Y72.325 E.24866
G1 X128.112 Y72.859 E.01674
G1 X133.183 Y77.93 E.22499
G1 X132.65 Y77.93 E.01674
G1 X128.112 Y73.392 E.20132
G1 X128.112 Y73.926 E.01674
G1 X132.116 Y77.93 E.17765
G1 X131.583 Y77.93 E.01674
G1 X128.112 Y74.459 E.15398
G1 X128.112 Y74.993 E.01674
G1 X131.049 Y77.93 E.13031
G1 X130.516 Y77.93 E.01674
G1 X128.112 Y75.526 E.10664
G1 X128.112 Y76.06 E.01674
G1 X129.982 Y77.93 E.08297
G1 X129.449 Y77.93 E.01674
G1 X128.112 Y76.593 E.0593
G1 X128.112 Y77.127 E.01674
G1 X128.915 Y77.93 E.03563
G1 X128.382 Y77.93 E.01674
G1 X127.942 Y77.491 E.01949
;WIPE_START
G1 F8640
G1 X128.382 Y77.93 E-.14347
G1 X128.915 Y77.93 E-.12319
G1 X128.112 Y77.127 E-.26228
G1 X128.112 Y76.593 E-.12319
G1 X128.442 Y76.924 E-.10786
;WIPE_END
G1 E-.04 F2100
G1 Z.6 F10800
G1 X179.958 Y89.492
G1 Z.2
G1 E.8 F2100
G1 F1200
G1 X190.562 Y100.096 E.47042
G1 X190.63 Y100.697 E.01898
G1 X181.447 Y91.514 E.40739
G1 X182.122 Y92.723 E.04344
G1 X190.697 Y101.298 E.38043
G1 X190.765 Y101.899 E.01898
G1 X182.58 Y93.714 E.36314
G1 X183.02 Y94.688 E.03352
G1 X190.833 Y102.501 E.34662
G1 X190.857 Y103.058 E.0175
G1 X183.345 Y95.546 E.33326
G1 X183.636 Y96.371 E.02745
M73 P2 R108
G1 X190.877 Y103.612 E.32125
G1 X190.898 Y104.167 E.0174
G1 X183.912 Y97.181 E.30992
G1 X184.1 Y97.902 E.02338
G1 X190.919 Y104.721 E.30251
G1 X190.92 Y105.255 E.01676
G1 X184.288 Y98.623 E.29421
G1 X184.471 Y99.34 E.02319
G1 X190.901 Y105.77 E.28526
G1 X190.881 Y106.284 E.01614
G1 X184.581 Y99.983 E.2795
G1 X184.691 Y100.627 E.0205
G1 X190.862 Y106.798 E.27375
G1 X190.843 Y107.312 E.01614
G1 X184.802 Y101.271 E.268
G1 X184.852 Y101.562 E.00923
G1 X184.879 Y101.882 E.01009
G1 X190.799 Y107.802 E.26263
G1 X190.745 Y108.281 E.01514
G1 X184.928 Y102.465 E.25803
G1 X184.978 Y103.048 E.01836
G1 X190.691 Y108.761 E.25343
G1 X190.637 Y109.24 E.01514
G1 X185.028 Y103.631 E.24884
G1 X185.046 Y104.184 E.01733
G1 X190.583 Y109.72 E.24561
G1 X190.51 Y110.181 E.01463
G1 X185.046 Y104.717 E.24238
G1 X185.046 Y105.251 E.01674
G1 X190.425 Y110.629 E.23861
G1 X190.34 Y111.078 E.01432
G1 X185.046 Y105.784 E.23485
G1 X185.033 Y106.305 E.01633
G1 X190.255 Y111.527 E.23167
G1 X190.17 Y111.975 E.01432
G1 X184.991 Y106.796 E.22976
G1 X184.95 Y107.288 E.01548
G1 X190.08 Y112.418 E.22758
G1 X189.967 Y112.839 E.01367
G1 X184.908 Y107.78 E.22444
G1 X184.866 Y108.271 E.01548
G1 X189.854 Y113.259 E.22129
G1 X189.741 Y113.68 E.01367
G1 X184.8 Y108.739 E.21921
G1 X184.722 Y109.194 E.0145
G1 X189.629 Y114.101 E.21767
G1 X189.516 Y114.522 E.01367
G1 X184.644 Y109.65 E.21614
G1 X184.566 Y110.105 E.0145
G1 X189.389 Y114.928 E.21396
G1 X189.25 Y115.324 E.01314
M73 P2 R107
G1 X184.488 Y110.561 E.21129
G1 X184.388 Y110.994 E.01395
G1 X189.112 Y115.719 E.2096
G1 X188.974 Y116.114 E.01314
G1 X184.277 Y111.417 E.20835
G1 X184.167 Y111.841 E.01372
G1 X188.835 Y116.509 E.20711
G1 X188.697 Y116.904 E.01314
G1 X184.057 Y112.264 E.20586
G1 X183.947 Y112.687 E.01372
G1 X188.543 Y117.283 E.2039
G1 X188.381 Y117.655 E.01271
G1 X183.824 Y113.098 E.20216
G1 X183.684 Y113.492 E.01312
G1 X188.219 Y118.026 E.20115
G1 X188.056 Y118.398 E.01271
G1 X183.545 Y113.887 E.20014
G1 X183.406 Y114.281 E.01312
G1 X187.894 Y118.769 E.19913
G1 X187.732 Y119.141 E.01271
G1 X183.267 Y114.675 E.19812
G1 X183.127 Y115.069 E.01312
