; generated by PrusaSlicer 2.5.0+win64 on 2023-02-11 at 08:08:03 UTC

; 

; external perimeters extrusion width = 0.45mm
; perimeters extrusion width = 0.45mm
; infill extrusion width = 0.45mm
; solid infill extrusion width = 0.45mm
; top infill extrusion width = 0.40mm
; first layer extrusion width = 0.42mm

M73 P0 R102
M107
;TYPE:Custom
M862.3 P "MK2S" ; printer model check
M862.1 P0.4 ; nozzle diameter check
M115 U3.2.3 ; tell printer latest fw version
G90 ; use absolute coordinates
M83 ; extruder relative mode
M204 S2000 T1500 ; MK2 firmware only supports the old M204 format
M104 S215 ; set extruder temp
M140 S60 ; set bed temp
M190 S60 ; wait for bed temp
M109 S215 ; wait for extruder temp
G28 W ; home all without mesh bed level
G80 ; mesh bed leveling
G1 Y-3.0 F1000.0 ; go outside print area
G92 E0.0
G1 X60.0 E9.0  F1000.0 ; intro line
G1 X100.0 E12.5 F1000.0 ; intro line
G92 E0.0
G21 ; set units to millimeters
G90 ; use absolute coordinates
M83 ; use relative distances for extrusion
M900 K0.05 ; Filament gcode LA 1.5
M900 K30 ; Filament gcode LA 1.0
M107
;LAYER_CHANGE
;Z:0.2
;HEIGHT:0.2
;BEFORE_LAYER_CHANGE
G92 E0.0
;0.2


G1 E-.8 F2100
G1 Z.4 F10800
;AFTER_LAYER_CHANGE
;0.2
G1 X60.111 Y115.274
G1 Z.2
G1 E.8 F2100
M204 S1000
;TYPE:Skirt/Brim
;WIDTH:0.42
G1 F1200
G1 X132.757 Y77.392 E2.56887
G1 X133.856 Y77.123 E.03548
G1 X176.1 Y77.125 E1.32451
G1 X178.598 Y77.247 E.07843
G1 X180.866 Y77.554 E.07174
G1 X183.306 Y78.101 E.07842
G1 X185.688 Y78.865 E.07842
G1 X187.992 Y79.84 E.07842
G1 X190.199 Y81.016 E.07842
G1 X192.291 Y82.386 E.07842
G1 X194.253 Y83.938 E.07842
G1 X196.067 Y85.66 E.07842
G1 X197.72 Y87.537 E.07842
G1 X199.322 Y89.744 E.0855
G1 X200.59 Y91.885 E.07802
G1 X201.667 Y94.142 E.07842
G1 X202.537 Y96.488 E.07843
G1 X203.193 Y98.901 E.07842
G1 X203.63 Y101.364 E.07843
G1 X203.845 Y103.856 E.07842
G1 X203.835 Y106.357 E.07842
G1 X203.601 Y108.847 E.07843
G1 X203.145 Y111.307 E.07842
G1 X202.471 Y113.715 E.07842
G1 X201.583 Y116.053 E.07842
G1 X200.59 Y118.115 E.07174
G1 X199.316 Y120.267 E.07842
G1 X197.853 Y122.296 E.07842
G1 X196.058 Y124.349 E.0855
G1 X194.253 Y126.062 E.07803
G1 X192.291 Y127.614 E.07842
G1 X190.199 Y128.984 E.07842
G1 X187.992 Y130.16 E.07843
G1 X185.627 Y131.154 E.08041
G1 X183.306 Y131.899 E.07643
G1 X181.075 Y132.408 E.07174
G1 X178.598 Y132.753 E.07842
G1 X175.993 Y132.877 E.08177
G1 X51.396 Y132.877 E3.90667
G1 X50.089 Y132.485 E.04278
G1 X49.212 Y131.44 E.04278
G1 X49.019 Y130.5 E.03008
G1 X49.019 Y122.5 E.25083
G1 X49.41 Y121.193 E.04278
G1 X50.297 Y120.392 E.03745
G1 X60.058 Y115.302 E.34517
; printing object Haken-35mm.stl id:0 copy 0
;WIPE_START
G1 F8640
G1 X62.976 Y113.78 E-.76
;WIPE_END
G1 E-.04 F2100
G1 Z.6 F10800
G1 X53.331 Y123.287
G1 Z.2
G1 E.8 F2100
;TYPE:Perimeter
;WIDTH:0.419999
G1 F1200
G1 X175.904 Y123.287 E3.84317
G1 X177.746 Y123.193 E.05783
G1 X178.001 Y123.176 E.00802
G1 X179.954 Y122.852 E.06208
G1 X181.861 Y122.32 E.06208
G1 X183.699 Y121.584 E.06208
G1 X185.395 Y120.685 E.06016
G1 X187.084 Y119.539 E.064
G1 X188.591 Y118.255 E.06208
G1 X189.95 Y116.815 E.06208
G1 X191.146 Y115.237 E.06208
G1 X192.164 Y113.539 E.06208
G1 X192.992 Y111.74 E.06208
G1 X193.622 Y109.863 E.06208
G1 X194.034 Y107.989 E.06017
G1 X194.251 Y106.021 E.06208
G1 X194.255 Y104.041 E.06208
G1 X194.034 Y102.011 E.064
G1 X193.605 Y100.078 E.06208
G1 X192.97 Y98.203 E.06208
G1 X192.136 Y96.409 E.06203
G1 X191.112 Y94.712 E.06214
G1 X189.911 Y93.138 E.06208
G1 X188.547 Y91.703 E.06208
G1 X187.035 Y90.424 E.06208
G1 X185.447 Y89.347 E.06017
G1 X183.644 Y88.391 E.064
G1 X181.803 Y87.661 E.06208
G1 X179.894 Y87.134 E.06208
G1 X178.001 Y86.824 E.06017
G1 X176.03 Y86.714 E.06189
G1 X135.792 Y86.713 E1.26163
G1 X135.792 Y80.287 E.20148
G1 X175.984 Y80.287 E1.26019
G1 X178.208 Y80.387 E.06982
G1 X180.406 Y80.685 E.06953
G1 X182.568 Y81.178 E.06953
G1 X184.677 Y81.864 E.06952
G1 X186.715 Y82.735 E.06952
G1 X188.668 Y83.786 E.06953
G1 X190.519 Y85.007 E.06952
G1 X192.252 Y86.39 E.06952
G1 X193.855 Y87.922 E.06952
G1 X195.314 Y89.592 E.06953
G1 X196.617 Y91.386 E.06953
G1 X197.755 Y93.29 E.06953
G1 X198.717 Y95.288 E.06952
G1 X199.496 Y97.364 E.06953
G1 X200.086 Y99.501 E.06953
G1 X200.482 Y101.683 E.06952
G1 X200.681 Y103.891 E.06953
G1 X200.681 Y106.109 E.06952
G1 X200.482 Y108.317 E.06953
G1 X200.086 Y110.499 E.06952
G1 X199.496 Y112.636 E.06953
G1 X198.717 Y114.712 E.06953
G1 X197.755 Y116.71 E.06952
G1 X196.617 Y118.614 E.06953
G1 X195.314 Y120.408 E.06953
G1 X193.855 Y122.078 E.06953
G1 X192.252 Y123.61 E.06952
G1 X190.519 Y124.993 E.06952
G1 X188.668 Y126.214 E.06952
G1 X186.715 Y127.265 E.06953
G1 X184.677 Y128.136 E.06952
G1 X182.568 Y128.822 E.06952
G1 X180.406 Y129.315 E.06953
G1 X178.208 Y129.613 E.06953
G1 X175.976 Y129.713 E.07008
G1 X53.331 Y129.713 E3.84543
G1 X53.331 Y123.347 E.1996
G1 X52.954 Y122.91 F10800
;TYPE:External perimeter
G1 F1200
G1 X175.904 Y122.91 E3.85499
G1 X177.725 Y122.817 E.05719
M73 P0 R101
G1 X177.94 Y122.804 E.00674
G1 X179.853 Y122.489 E.0608
G1 X181.722 Y121.969 E.0608
G1 X183.523 Y121.25 E.0608
G1 X185.234 Y120.342 E.06073
G1 X186.84 Y119.252 E.06088
G1 X188.317 Y117.996 E.0608
G1 X189.65 Y116.587 E.0608
G1 X190.823 Y115.042 E.0608
G1 X191.821 Y113.383 E.06071
G1 X192.635 Y111.62 E.0609
G1 X193.253 Y109.782 E.0608
G1 X193.666 Y107.908 E.06017
G1 X193.878 Y105.96 E.06144
G1 X193.878 Y104.041 E.06017
G1 X193.666 Y102.092 E.06144
G1 X193.248 Y100.199 E.0608
G1 X192.628 Y98.361 E.0608
G1 X191.813 Y96.602 E.06079
G1 X190.812 Y94.941 E.06082
G1 X189.637 Y93.398 E.0608
G1 X188.303 Y91.99 E.0608
G1 X186.824 Y90.736 E.0608
G1 X185.236 Y89.659 E.06017
G1 X183.504 Y88.741 E.06144
G1 X181.702 Y88.024 E.0608
G1 X179.833 Y87.506 E.0608
G1 X177.94 Y87.196 E.06017
G1 X176.01 Y87.09 E.06061
G1 X135.415 Y87.09 E1.27281
G1 X135.415 Y79.91 E.22512
G1 X175.992 Y79.91 E1.27227
G1 X178.242 Y80.011 E.07062
M73 P1 R101
G1 X180.473 Y80.314 E.07059
G1 X182.668 Y80.815 E.07059
G1 X184.809 Y81.51 E.07059
G1 X186.879 Y82.395 E.07059
G1 X188.862 Y83.462 E.07059
G1 X190.741 Y84.702 E.07059
G1 X192.501 Y86.106 E.07059
G1 X194.128 Y87.662 E.07059
G1 X195.609 Y89.357 E.07059
G1 X196.932 Y91.178 E.07059
G1 X198.087 Y93.111 E.07059
G1 X199.064 Y95.139 E.07059
G1 X199.855 Y97.247 E.07059
G1 X200.454 Y99.417 E.07059
G1 X200.856 Y101.632 E.07059
G1 X201.058 Y103.874 E.07059
G1 X201.058 Y106.126 E.07059
G1 X200.856 Y108.368 E.07059
G1 X200.454 Y110.583 E.07059
G1 X199.855 Y112.753 E.07059
G1 X199.064 Y114.861 E.07059
G1 X198.087 Y116.889 E.07059
G1 X196.932 Y118.822 E.07059
G1 X195.609 Y120.643 E.07059
G1 X194.128 Y122.338 E.07059
G1 X192.501 Y123.894 E.07059
G1 X190.741 Y125.298 E.07059
G1 X188.862 Y126.538 E.07059
G1 X186.879 Y127.605 E.07059
G1 X184.809 Y128.49 E.07059
G1 X182.668 Y129.185 E.07059
G1 X180.473 Y129.686 E.07059
G1 X178.242 Y129.989 E.07059
G1 X175.984 Y130.09 E.07088
G1 X52.954 Y130.09 E3.85752
G1 X52.954 Y122.97 E.22324
G1 X53.354 Y122.918 F10800
;WIPE_START
G1 F8640
G1 X56.245 Y122.968 E-.76
;WIPE_END
G1 E-.04 F2100
G1 Z.6 F10800
G1 X195.306 Y89.773
G1 Z.2
G1 E.8 F2100
;TYPE:Solid infill
;WIDTH:0.420304
G1 F1200
G1 X193.648 Y88.116 E.07355
G1 X192.066 Y86.603 E.0687
G1 X190.352 Y85.236 E.06878
G1 X190.008 Y85.009 E.01296
G1 X195.957 Y90.958 E.26401
G1 X196.381 Y91.542 E.02265
G1 X196.936 Y92.471 E.03396
G1 X188.46 Y83.995 E.37615
G1 X187.305 Y83.373 E.04118
G1 X197.645 Y93.714 E.45888
G1 X198.141 Y94.743 E.03586
G1 X186.235 Y82.837 E.52835
G1 X185.303 Y82.439 E.03181
G1 X198.573 Y95.709 E.5889
G1 X198.894 Y96.563 E.02863
G1 X184.402 Y82.072 E.6431
G1 X183.611 Y81.815 E.02608
G1 X199.214 Y97.418 E.69241
G1 X199.422 Y98.159 E.02417
G1 X182.821 Y81.558 E.73673
G1 X182.492 Y81.451 E.01084
G1 X182.088 Y81.359 E.01301
G1 X199.626 Y98.897 E.77827
G1 X199.821 Y99.626 E.02369
G1 X181.397 Y81.201 E.81763
G1 X180.705 Y81.043 E.02226
G1 X199.939 Y100.278 E.85357
G1 X200.058 Y100.93 E.02079
G1 X180.05 Y80.922 E.88788
G1 X179.433 Y80.839 E.01955
G1 X200.176 Y101.582 E.92053
G1 X200.243 Y102.182 E.01896
G1 X178.816 Y80.755 E.95089
G1 X178.198 Y80.671 E.01955
G1 X200.296 Y102.769 E.98062
G1 X200.348 Y103.355 E.01848
G1 X190.705 Y93.712 E.42795
G1 X190.14 Y92.97 E.02926
G1 X188.767 Y91.52 E.06266
G1 X187.167 Y90.174 E.06562
G1 X177.638 Y80.645 E.42286
G1 X177.079 Y80.62 E.01755
G1 X185.53 Y89.071 E.37504
G1 X184.393 Y88.467 E.0404
G1 X176.52 Y80.595 E.34938
G1 X175.962 Y80.57 E.01753
G1 X183.371 Y87.979 E.32877
G1 X182.487 Y87.629 E.02982
G1 X175.429 Y80.57 E.31324
G1 X174.895 Y80.57 E.01675
G1 X181.65 Y87.325 E.29978
G1 X180.914 Y87.123 E.02397
G1 X174.361 Y80.57 E.29078
G1 X173.827 Y80.57 E.01675
G1 X180.177 Y86.92 E.28179
G1 X179.945 Y86.856 E.00755
G1 X179.508 Y86.785 E.0139
G1 X173.294 Y80.57 E.27577
G1 X172.76 Y80.57 E.01675
G1 X178.87 Y86.68 E.27114
G1 X178.232 Y86.575 E.02029
G1 X172.226 Y80.57 E.2665
G1 X171.693 Y80.57 E.01675
G1 X177.642 Y86.52 E.26403
G1 X177.077 Y86.489 E.01776
G1 X171.159 Y80.57 E.26264
G1 X170.625 Y80.57 E.01675
G1 X176.512 Y86.457 E.26125
G1 X175.953 Y86.431 E.01758
G1 X170.092 Y80.57 E.2601
G1 X169.558 Y80.57 E.01675
G1 X175.419 Y86.431 E.2601
G1 X174.885 Y86.431 E.01675
G1 X169.024 Y80.57 E.2601
G1 X168.49 Y80.57 E.01675
G1 X174.351 Y86.431 E.2601
G1 X173.818 Y86.431 E.01675
G1 X167.957 Y80.57 E.2601
G1 X167.423 Y80.57 E.01675
G1 X173.284 Y86.431 E.2601
G1 X172.75 Y86.431 E.01675
G1 X166.889 Y80.57 E.2601
G1 X166.356 Y80.57 E.01675
G1 X172.217 Y86.431 E.26009
G1 X171.683 Y86.431 E.01675
G1 X165.822 Y80.57 E.26009
G1 X165.288 Y80.57 E.01675
G1 X171.149 Y86.431 E.26009
G1 X170.615 Y86.431 E.01675
G1 X164.754 Y80.57 E.26009
G1 X164.221 Y80.57 E.01675
G1 X170.082 Y86.431 E.26009
G1 X169.548 Y86.431 E.01675
G1 X163.687 Y80.57 E.26009
G1 X163.153 Y80.57 E.01675
G1 X169.014 Y86.431 E.26009
G1 X168.481 Y86.431 E.01675
G1 X162.62 Y80.57 E.26009
G1 X162.086 Y80.57 E.01675
G1 X167.947 Y86.431 E.26009
G1 X167.413 Y86.431 E.01675
G1 X161.552 Y80.57 E.26009
G1 X161.019 Y80.57 E.01675
G1 X166.879 Y86.431 E.26009
G1 X166.346 Y86.431 E.01675
G1 X160.485 Y80.57 E.26009
G1 X159.951 Y80.57 E.01675
G1 X165.812 Y86.431 E.26009
G1 X165.278 Y86.431 E.01675
G1 X159.417 Y80.57 E.26009
G1 X158.884 Y80.57 E.01675
G1 X164.745 Y86.431 E.26009
G1 X164.211 Y86.431 E.01675
G1 X158.35 Y80.57 E.26009
G1 X157.816 Y80.57 E.01675
M73 P1 R100
G1 X163.677 Y86.431 E.26009
G1 X163.143 Y86.431 E.01675
G1 X157.283 Y80.57 E.26009
G1 X156.749 Y80.57 E.01675
G1 X162.61 Y86.431 E.26009
G1 X162.076 Y86.431 E.01675
G1 X156.215 Y80.57 E.26009
G1 X155.681 Y80.57 E.01675
G1 X161.542 Y86.431 E.26009
G1 X161.009 Y86.431 E.01675
G1 X155.148 Y80.57 E.26009
G1 X154.614 Y80.57 E.01675
G1 X160.475 Y86.431 E.26009
G1 X159.941 Y86.431 E.01675
G1 X154.08 Y80.57 E.26008
G1 X153.547 Y80.57 E.01675
G1 X159.407 Y86.431 E.26008
G1 X158.874 Y86.431 E.01675
G1 X153.013 Y80.57 E.26008
G1 X152.479 Y80.57 E.01675
G1 X158.34 Y86.431 E.26008
G1 X157.806 Y86.431 E.01675
G1 X151.946 Y80.57 E.26008
G1 X151.412 Y80.57 E.01675
G1 X157.272 Y86.431 E.26008
G1 X156.739 Y86.431 E.01675
G1 X150.878 Y80.57 E.26008
G1 X150.344 Y80.57 E.01675
G1 X156.205 Y86.431 E.26008
G1 X155.671 Y86.431 E.01675
G1 X149.811 Y80.57 E.26008
G1 X149.277 Y80.57 E.01675
G1 X155.138 Y86.431 E.26008
G1 X154.604 Y86.431 E.01675
G1 X148.743 Y80.57 E.26008
G1 X148.21 Y80.57 E.01675
G1 X154.07 Y86.431 E.26008
G1 X153.536 Y86.431 E.01675
G1 X147.676 Y80.57 E.26008
G1 X147.142 Y80.57 E.01675
G1 X153.003 Y86.431 E.26008
G1 X152.469 Y86.431 E.01675
G1 X146.608 Y80.57 E.26008
G1 X146.075 Y80.57 E.01675
G1 X151.935 Y86.431 E.26008
G1 X151.402 Y86.431 E.01675
G1 X145.541 Y80.57 E.26008
G1 X145.007 Y80.57 E.01675
G1 X150.868 Y86.431 E.26008
G1 X150.334 Y86.431 E.01675
G1 X144.474 Y80.57 E.26008
G1 X143.94 Y80.57 E.01675
G1 X149.8 Y86.431 E.26008
G1 X149.267 Y86.43 E.01675
G1 X143.406 Y80.57 E.26008
G1 X142.873 Y80.57 E.01675
M73 P2 R100
G1 X148.733 Y86.43 E.26008
G1 X148.199 Y86.43 E.01675
G1 X142.339 Y80.57 E.26007
G1 X141.805 Y80.57 E.01675
G1 X147.666 Y86.43 E.26007
G1 X147.132 Y86.43 E.01675
G1 X141.271 Y80.57 E.26007
G1 X140.738 Y80.57 E.01675
G1 X146.598 Y86.43 E.26007
G1 X146.064 Y86.43 E.01675
G1 X140.204 Y80.57 E.26007
G1 X139.67 Y80.57 E.01675
G1 X145.531 Y86.43 E.26007
G1 X144.997 Y86.43 E.01675
G1 X139.137 Y80.57 E.26007
G1 X138.603 Y80.57 E.01675
G1 X144.463 Y86.43 E.26007
G1 X143.93 Y86.43 E.01675
G1 X138.069 Y80.57 E.26007
G1 X137.535 Y80.57 E.01675
G1 X143.396 Y86.43 E.26007
G1 X142.862 Y86.43 E.01675
G1 X137.002 Y80.57 E.26007
G1 X136.468 Y80.57 E.01675
G1 X142.328 Y86.43 E.26007
G1 X141.795 Y86.43 E.01675
G1 X136.075 Y80.71 E.25384
G1 X136.075 Y81.244 E.01675
G1 X141.261 Y86.43 E.23015
G1 X140.727 Y86.43 E.01675
G1 X136.075 Y81.778 E.20647
G1 X136.075 Y82.311 E.01675
G1 X140.194 Y86.43 E.18278
G1 X139.66 Y86.43 E.01675
G1 X136.075 Y82.845 E.1591
G1 X136.075 Y83.379 E.01675
G1 X139.126 Y86.43 E.13541
G1 X138.592 Y86.43 E.01675
G1 X136.075 Y83.913 E.11173
G1 X136.075 Y84.446 E.01675
G1 X138.059 Y86.43 E.08804
G1 X137.525 Y86.43 E.01675
G1 X136.075 Y84.98 E.06436
G1 X136.075 Y85.514 E.01675
G1 X136.991 Y86.43 E.04067
G1 X136.458 Y86.43 E.01675
G1 X135.905 Y85.878 E.02452
;WIPE_START
G1 F8640
G1 X136.458 Y86.43 E-.18041
G1 X136.991 Y86.43 E-.12324
G1 X136.075 Y85.514 E-.29928
G1 X136.075 Y84.98 E-.12323
G1 X136.178 Y85.084 E-.03384
;WIPE_END
G1 E-.04 F2100
G1 Z.6 F10800
G1 X191.355 Y94.895
G1 Z.2
G1 E.8 F2100
G1 F1200
G1 X200.398 Y103.938 E.40131
G1 X200.398 Y104.472 E.01675
G1 X192.546 Y96.62 E.34844
G1 X193.006 Y97.614 E.03438
G1 X200.398 Y105.006 E.32801
G1 X200.398 Y105.539 E.01675
G1 X193.378 Y98.519 E.31153
G1 X193.648 Y99.324 E.02663
G1 X200.398 Y106.073 E.29952
G1 X200.356 Y106.565 E.01548
G1 X193.905 Y100.114 E.28626
G1 X194.056 Y100.799 E.02201
G1 X200.311 Y107.054 E.2776
G1 X200.267 Y107.544 E.01543
G1 X194.207 Y101.484 E.26894
G1 X194.311 Y101.956 E.01516
G1 X194.332 Y102.142 E.00588
G1 X200.223 Y108.034 E.26146
G1 X200.16 Y108.504 E.0149
G1 X194.397 Y102.741 E.25578
G1 X194.462 Y103.339 E.0189
G1 X200.078 Y108.956 E.24925
G1 X199.996 Y109.408 E.01441
G1 X194.527 Y103.938 E.24272
G1 X194.537 Y104.482 E.01706
G1 X199.914 Y109.859 E.23865
G1 X199.832 Y110.311 E.01441
G1 X194.536 Y105.015 E.23504
G1 X194.535 Y105.548 E.01672
G1 X199.726 Y110.739 E.23037
G1 X199.611 Y111.157 E.01362
G1 X194.53 Y106.076 E.22549
G1 X194.476 Y106.556 E.01517
G1 X199.495 Y111.575 E.22273
G1 X199.38 Y111.993 E.01362
G1 X194.423 Y107.037 E.21998
G1 X194.37 Y107.517 E.01517
G1 X199.265 Y112.412 E.21722
G1 X199.227 Y112.549 E.00447
G1 X199.129 Y112.81 E.00874
G1 X194.317 Y107.997 E.21356
G1 X194.224 Y108.439 E.01415
G1 X198.983 Y113.198 E.21119
G1 X198.838 Y113.586 E.01301
G1 X194.128 Y108.876 E.20901
G1 X194.031 Y109.313 E.01405
G1 X198.692 Y113.974 E.20683
G1 X198.546 Y114.362 E.01301
G1 X193.935 Y109.75 E.20464
G1 X193.819 Y110.169 E.01361
G1 X198.39 Y114.739 E.20284
G1 X198.216 Y115.1 E.01255
G1 X193.685 Y110.568 E.2011
G1 X193.55 Y110.967 E.01322
G1 X198.043 Y115.46 E.19937
G1 X197.87 Y115.82 E.01255
G1 X193.416 Y111.367 E.19763
G1 X193.282 Y111.766 E.01322
G1 X197.696 Y116.18 E.1959
G1 X197.523 Y116.54 E.01255
G1 X193.121 Y112.139 E.19534
G1 X192.952 Y112.503 E.01261
G1 X197.326 Y116.877 E.19409
G1 X197.126 Y117.211 E.01221
G1 X192.783 Y112.868 E.19273
G1 X192.614 Y113.233 E.01261
G1 X196.926 Y117.545 E.19137
G1 X196.727 Y117.879 E.01221
G1 X192.445 Y113.598 E.19001
G1 X192.255 Y113.941 E.01232
G1 X196.527 Y118.214 E.18959
G1 X196.321 Y118.541 E.01214
G1 X192.054 Y114.274 E.18934
G1 X191.853 Y114.607 E.0122
G1 X196.096 Y118.85 E.18829
G1 X195.872 Y119.159 E.01199
G1 X191.652 Y114.94 E.18724
G1 X191.452 Y115.273 E.0122
G1 X195.647 Y119.468 E.18619
G1 X195.422 Y119.777 E.01199
G1 X191.236 Y115.591 E.18579
G1 X191.005 Y115.894 E.01195
G1 X195.198 Y120.086 E.18606
G1 X194.96 Y120.383 E.01191
G1 X190.775 Y116.197 E.18576
G1 X190.544 Y116.5 E.01195
G1 X194.712 Y120.668 E.18495
G1 X194.463 Y120.952 E.01187
G1 X190.313 Y116.803 E.18415
G1 X190.075 Y117.099 E.01191
G1 X194.214 Y121.237 E.18366
G1 X193.965 Y121.522 E.01187
G1 X189.816 Y117.373 E.18414
