; generated by PrusaSlicer 2.4.0+win64 on 2022-03-14 at 18:40:22 UTC

; 

; external perimeters extrusion width = 0.45mm
; perimeters extrusion width = 0.45mm
; infill extrusion width = 0.45mm
; solid infill extrusion width = 0.45mm
; top infill extrusion width = 0.40mm
; first layer extrusion width = 0.42mm

M73 P0 R134
M201 X9000 Y9000 Z500 E10000 ; sets maximum accelerations, mm/sec^2
M203 X500 Y500 Z12 E120 ; sets maximum feedrates, mm/sec
M204 P2000 R1500 T2000 ; sets acceleration (P, T) and retract acceleration (R), mm/sec^2
M205 X10.00 Y10.00 Z0.20 E2.50 ; sets the jerk limits, mm/sec
M205 S0 T0 ; sets the minimum extruding and travel feed rate, mm/sec
M107
;TYPE:Custom
M862.3 P "MK2S" ; printer model check
M862.1 P0.4 ; nozzle diameter check
M115 U3.2.3 ; tell printer latest fw version
G90 ; use absolute coordinates
M83 ; extruder relative mode
M204 S2000 T1500 ; MK2 firmware only supports the old M204 format
M104 S215 ; set extruder temp
M140 S60 ; set bed temp
M190 S60 ; wait for bed temp
M109 S215 ; wait for extruder temp
G28 W ; home all without mesh bed level
G80 ; mesh bed leveling
G1 Y-3.0 F1000.0 ; go outside print area
G92 E0.0
G1 X60.0 E9.0  F1000.0 ; intro line
G1 X100.0 E12.5 F1000.0 ; intro line
G92 E0.0
G21 ; set units to millimeters
G90 ; use absolute coordinates
M83 ; use relative distances for extrusion
M900 K0.05 ; Filament gcode LA 1.5
M900 K30 ; Filament gcode LA 1.0
M107
;LAYER_CHANGE
;Z:0.2
;HEIGHT:0.2
;BEFORE_LAYER_CHANGE
G92 E0.0
;0.2


G1 E-.8 F2100
G1 Z.4 F10800
;AFTER_LAYER_CHANGE
;0.2
G1 X70.211 Y83.883
G1 Z.2
G1 E.8 F2100
M204 S1000
;TYPE:Skirt/Brim
;WIDTH:0.42
G1 F1200
G1 X72.039 Y82.419 E.07343
G1 X73.794 Y81.279 E.06564
G1 X75.875 Y80.204 E.07343
G1 X78.14 Y79.323 E.0762
G1 X174.32 Y46.443 E3.18701
G1 X175.089 Y46.315 E.02444
G1 X183.089 Y46.315 E.25083
G1 X184.396 Y46.707 E.04278
G1 X185.273 Y47.752 E.04278
G1 X185.466 Y48.692 E.03008
G1 X185.466 Y184.494 E4.25797
G1 X185.075 Y185.801 E.04278
G1 X184.029 Y186.677 E.04278
G1 X183.089 Y186.871 E.03008
G1 X175.089 Y186.871 E.25083
G1 X173.966 Y186.589 E.0363
G1 X63.966 Y127.644 E3.91295
G1 X62.999 Y126.681 E.04278
G1 X62.712 Y125.549 E.03664
G1 X62.712 Y100.593 E.78247
G1 X62.825 Y98.378 E.06954
G1 X63.178 Y96.063 E.07343
G1 X63.87 Y93.507 E.08303
G1 X64.7 Y91.379 E.07161
G1 X65.775 Y89.298 E.07343
G1 X67.061 Y87.341 E.07343
G1 X68.545 Y85.53 E.07343
G1 X70.168 Y83.925 E.07155
; printing object Vorhang-Haken.stl id:0 copy 0
;WIPE_START
G1 F8640
G1 X72.039 Y82.419 E-.55454
G1 X72.785 Y81.934 E-.20546
;WIPE_END
G1 E-.04 F2100
G1 Z.6 F10800
G1 X65.876 Y123.348
G1 Z.2
G1 E.8 F2100
;TYPE:Perimeter
G1 F1200
G1 X65.876 Y100.614 E.71283
G1 X65.982 Y98.585 E.0637
G1 X66.297 Y96.599 E.06305
G1 X66.818 Y94.656 E.06305
G1 X67.538 Y92.779 E.06305
G1 X68.451 Y90.987 E.06305
G1 X69.546 Y89.301 E.06305
M73 P0 R133
G1 X70.812 Y87.738 E.06305
G1 X72.234 Y86.316 E.06305
G1 X73.797 Y85.05 E.06305
G1 X75.483 Y83.955 E.06305
G1 X77.275 Y83.042 E.06305
G1 X79.152 Y82.321 E.06305
G1 X81.095 Y81.801 E.06305
G1 X83.081 Y81.486 E.06305
G1 X85.11 Y81.38 E.0637
G1 X169.128 Y81.38 E2.63433
G1 X170.414 Y81.253 E.04052
G1 X171.688 Y80.867 E.04174
G1 X172.862 Y80.239 E.04174
G1 X173.891 Y79.395 E.04174
G1 X174.735 Y78.366 E.04174
G1 X175.363 Y77.192 E.04174
G1 X175.749 Y75.918 E.04174
G1 X175.876 Y74.632 E.04052
G1 X175.876 Y50.493 E.75686
G1 X182.302 Y50.493 E.20148
G1 X182.302 Y182.693 E4.14507
G1 X175.876 Y182.693 E.20148
G1 X175.876 Y93.609 E2.79317
G1 X175.749 Y92.323 E.04052
G1 X175.363 Y91.049 E.04174
G1 X174.735 Y89.875 E.04174
G1 X173.891 Y88.846 E.04174
G1 X172.862 Y88.001 E.04174
G1 X171.688 Y87.374 E.04174
G1 X170.414 Y86.987 E.04174
G1 X169.128 Y86.861 E.04052
G1 X85.063 Y86.861 E2.63578
G1 X83.42 Y86.969 E.05164
G1 X81.779 Y87.295 E.05245
G1 X80.195 Y87.833 E.05245
G1 X78.695 Y88.572 E.05245
G1 X77.304 Y89.502 E.05245
G1 X76.046 Y90.605 E.05245
G1 X74.943 Y91.863 E.05245
G1 X74.014 Y93.253 E.05245
G1 X73.274 Y94.754 E.05245
G1 X72.736 Y96.338 E.05245
G1 X72.41 Y97.979 E.05245
G1 X72.302 Y99.622 E.05164
G1 X72.302 Y123.748 E.75646
G1 X65.876 Y123.748 E.20148
G1 X65.876 Y123.408 E.01066
G1 X65.499 Y124.125 F10800
;TYPE:External perimeter
G1 F1200
G1 X65.499 Y100.604 E.7375
G1 X65.607 Y98.545 E.06463
G1 X65.928 Y96.52 E.06429
G1 X66.458 Y94.54 E.06429
G1 X67.193 Y92.625 E.06429
G1 X68.124 Y90.798 E.06429
G1 X69.241 Y89.079 E.06429
G1 X70.531 Y87.485 E.06429
G1 X71.981 Y86.035 E.06429
G1 X73.575 Y84.745 E.06429
G1 X75.294 Y83.628 E.06429
G1 X77.121 Y82.697 E.06429
G1 X79.036 Y81.962 E.06429
G1 X81.016 Y81.432 E.06429
G1 X83.041 Y81.111 E.06429
G1 X85.1 Y81.003 E.06463
G1 X169.109 Y81.003 E2.63406
G1 X170.34 Y80.882 E.03878
G1 X171.543 Y80.517 E.03941
G1 X172.651 Y79.924 E.03941
G1 X173.623 Y79.127 E.03941
G1 X174.42 Y78.155 E.03941
G1 X175.013 Y77.047 E.03941
G1 X175.378 Y75.844 E.03941
G1 X175.499 Y74.613 E.03878
G1 X175.499 Y50.116 E.76811
G1 X182.679 Y50.116 E.22512
G1 X182.679 Y183.071 E4.16871
G1 X175.499 Y183.071 E.22512
G1 X175.499 Y93.628 E2.80442
G1 X175.378 Y92.397 E.03878
G1 X175.013 Y91.194 E.03941
G1 X174.42 Y90.086 E.03941
G1 X173.623 Y89.114 E.03941
G1 X172.651 Y88.317 E.03941
G1 X171.543 Y87.724 E.03941
G1 X170.34 Y87.359 E.03941
G1 X169.109 Y87.238 E.03878
G1 X85.076 Y87.238 E2.63481
G1 X83.469 Y87.343 E.05048
M73 P1 R133
G1 X81.877 Y87.66 E.0509
G1 X80.34 Y88.182 E.0509
G1 X78.884 Y88.9 E.0509
G1 X77.534 Y89.802 E.0509
G1 X76.313 Y90.872 E.0509
G1 X75.243 Y92.093 E.0509
G1 X74.341 Y93.442 E.0509
G1 X73.623 Y94.898 E.0509
G1 X73.101 Y96.436 E.0509
G1 X72.784 Y98.028 E.0509
G1 X72.679 Y99.634 E.05048
G1 X72.679 Y124.125 E.7679
G1 X65.559 Y124.125 E.22324
G1 X65.537 Y123.727 F10800
;WIPE_START
G1 F8640
G1 X65.551 Y120.834 E-.76
;WIPE_END
G1 E-.04 F2100
G1 Z.6 F10800
G1 X182.189 Y51.37
G1 Z.2
G1 E.8 F2100
;TYPE:Solid infill
;WIDTH:0.421051
G1 F1200
G1 X181.594 Y50.775 E.02645
G1 X181.059 Y50.775 E.01681
G1 X182.019 Y51.735 E.04268
G1 X182.019 Y52.27 E.01681
G1 X180.525 Y50.775 E.06646
G1 X179.99 Y50.775 E.01681
G1 X182.019 Y52.805 E.09024
G1 X182.019 Y53.34 E.01681
G1 X179.455 Y50.775 E.11402
G1 X178.92 Y50.775 E.01681
G1 X182.019 Y53.874 E.13779
G1 X182.019 Y54.409 E.01681
G1 X178.386 Y50.775 E.16157
G1 X177.851 Y50.775 E.01681
G1 X182.019 Y54.944 E.18535
G1 X182.019 Y55.479 E.01681
G1 X177.316 Y50.775 E.20913
G1 X176.781 Y50.775 E.01681
G1 X182.019 Y56.013 E.23291
G1 X182.019 Y56.548 E.01681
G1 X176.246 Y50.775 E.25669
G1 X176.159 Y50.775 E.00275
G1 X176.159 Y51.223 E.01406
G1 X182.019 Y57.083 E.26058
G1 X182.019 Y57.618 E.01681
G1 X176.159 Y51.757 E.26058
G1 X176.159 Y52.292 E.01681
G1 X182.019 Y58.152 E.26058
G1 X182.019 Y58.687 E.01681
G1 X176.159 Y52.827 E.26058
G1 X176.159 Y53.362 E.01681
G1 X182.019 Y59.222 E.26058
G1 X182.019 Y59.757 E.01681
G1 X176.159 Y53.896 E.26058
M73 P1 R132
G1 X176.159 Y54.431 E.01681
G1 X182.019 Y60.291 E.26058
G1 X182.019 Y60.826 E.01681
G1 X176.159 Y54.966 E.26058
G1 X176.159 Y55.501 E.01681
G1 X182.019 Y61.361 E.26058
G1 X182.019 Y61.896 E.01681
G1 X176.159 Y56.035 E.26058
G1 X176.159 Y56.57 E.01681
G1 X182.019 Y62.43 E.26058
G1 X182.019 Y62.965 E.01681
G1 X176.159 Y57.105 E.26058
G1 X176.159 Y57.64 E.01681
G1 X182.019 Y63.5 E.26058
G1 X182.019 Y64.035 E.01681
G1 X176.159 Y58.174 E.26058
G1 X176.159 Y58.709 E.01681
G1 X182.019 Y64.569 E.26058
G1 X182.019 Y65.104 E.01681
G1 X176.159 Y59.244 E.26058
G1 X176.159 Y59.779 E.01681
G1 X182.019 Y65.639 E.26058
G1 X182.019 Y66.174 E.01681
G1 X176.159 Y60.313 E.26058
G1 X176.159 Y60.848 E.01681
G1 X182.019 Y66.708 E.26058
G1 X182.019 Y67.243 E.01681
G1 X176.159 Y61.383 E.26058
G1 X176.159 Y61.918 E.01681
G1 X182.019 Y67.778 E.26058
G1 X182.019 Y68.313 E.01681
G1 X176.159 Y62.453 E.26058
G1 X176.159 Y62.987 E.01681
G1 X182.019 Y68.848 E.26058
G1 X182.019 Y69.382 E.01681
G1 X176.159 Y63.522 E.26058
G1 X176.159 Y64.057 E.01681
G1 X182.019 Y69.917 E.26058
G1 X182.019 Y70.452 E.01681
G1 X176.159 Y64.592 E.26058
G1 X176.159 Y65.126 E.01681
G1 X182.019 Y70.987 E.26058
G1 X182.019 Y71.521 E.01681
G1 X176.159 Y65.661 E.26058
G1 X176.159 Y66.196 E.01681
G1 X182.019 Y72.056 E.26058
G1 X182.019 Y72.591 E.01681
G1 X176.159 Y66.731 E.26058
G1 X176.159 Y67.265 E.01681
G1 X182.019 Y73.126 E.26058
G1 X182.019 Y73.66 E.01681
G1 X176.159 Y67.8 E.26058
G1 X176.159 Y68.335 E.01681
G1 X182.019 Y74.195 E.26058
G1 X182.019 Y74.73 E.01681
G1 X176.159 Y68.87 E.26058
G1 X176.159 Y69.404 E.01681
G1 X182.019 Y75.265 E.26058
G1 X182.019 Y75.799 E.01681
G1 X176.159 Y69.939 E.26058
G1 X176.159 Y70.474 E.01681
G1 X182.019 Y76.334 E.26058
G1 X182.019 Y76.869 E.01681
G1 X176.159 Y71.009 E.26058
G1 X176.159 Y71.543 E.01681
G1 X182.019 Y77.404 E.26058
G1 X182.019 Y77.938 E.01681
G1 X176.159 Y72.078 E.26058
G1 X176.159 Y72.613 E.01681
G1 X182.019 Y78.473 E.26058
G1 X182.019 Y79.008 E.01681
G1 X176.159 Y73.148 E.26058
G1 X176.159 Y73.682 E.01681
G1 X182.019 Y79.543 E.26058
G1 X182.019 Y80.077 E.01681
G1 X176.159 Y74.217 E.26058
G1 X176.149 Y74.742 E.01652
G1 X182.019 Y80.612 E.261
G1 X182.019 Y81.147 E.01681
G1 X176.101 Y75.229 E.26313
G1 X176.054 Y75.716 E.01538
G1 X182.019 Y81.682 E.26527
G1 X182.019 Y82.216 E.01681
G1 X175.969 Y76.167 E.269
G1 X175.845 Y76.577 E.01348
G1 X182.019 Y82.751 E.27454
G1 X182.019 Y83.286 E.01681
G1 X175.721 Y76.987 E.28007
G1 X175.626 Y77.301 E.01029
G1 X175.581 Y77.383 E.00294
G1 X182.019 Y83.821 E.28626
G1 X182.019 Y84.356 E.01681
G1 X175.395 Y77.732 E.29454
G1 X175.209 Y78.08 E.01242
G1 X182.019 Y84.89 E.30282
G1 X182.019 Y85.425 E.01681
G1 X175.023 Y78.428 E.3111
G1 X174.972 Y78.524 E.00339
G1 X174.797 Y78.737 E.00868
G1 X182.019 Y85.96 E.32116
G1 X182.019 Y86.495 E.01681
G1 X174.556 Y79.031 E.33187
G1 X174.314 Y79.325 E.01195
G1 X182.019 Y87.029 E.34259
G1 X182.019 Y87.564 E.01681
G1 X174.069 Y79.614 E.35349
G1 X173.776 Y79.855 E.01195
G1 X182.019 Y88.099 E.36655
G1 X182.019 Y88.634 E.01681
G1 X173.482 Y80.096 E.37961
G1 X173.188 Y80.337 E.01195
G1 X182.019 Y89.168 E.39267
G1 X182.019 Y89.703 E.01681
G1 X172.871 Y80.555 E.40677
G1 X172.523 Y80.741 E.01242
G1 X182.019 Y90.238 E.42226
G1 X182.019 Y90.773 E.01681
G1 X172.174 Y80.928 E.43776
G1 X171.826 Y81.114 E.01242
G1 X182.019 Y91.307 E.45325
G1 X182.019 Y91.842 E.01681
G1 X171.421 Y81.244 E.47127
G1 X171.01 Y81.368 E.01348
G1 X182.019 Y92.377 E.48951
G1 X182.019 Y92.912 E.01681
G1 X170.6 Y81.492 E.50776
G1 X170.469 Y81.532 E.00429
G1 X170.138 Y81.565 E.01048
G1 X182.019 Y93.446 E.52832
G1 X182.019 Y93.981 E.01681
G1 X169.651 Y81.613 E.54996
G1 X169.164 Y81.661 E.01538
G1 X182.019 Y94.516 E.57161
G1 X182.019 Y95.051 E.01681
G1 X168.631 Y81.663 E.59529
G1 X168.097 Y81.663 E.01681
G1 X182.019 Y95.585 E.61907
G1 X182.019 Y96.12 E.01681
G1 X167.562 Y81.663 E.64285
G1 X167.027 Y81.663 E.01681
G1 X182.019 Y96.655 E.66663
G1 X182.019 Y97.19 E.01681
G1 X175.46 Y90.63 E.29166
G1 X175.626 Y90.94 E.01105
G1 X175.796 Y91.501 E.01842
G1 X182.019 Y97.724 E.27673
G1 X182.019 Y98.259 E.01681
G1 X176.028 Y92.268 E.26639
G1 X176.087 Y92.861 E.01874
G1 X182.019 Y98.794 E.26379
G1 X182.019 Y99.329 E.01681
G1 X176.145 Y93.455 E.26119
G1 X176.159 Y94.003 E.01725
G1 X182.019 Y99.863 E.26058
G1 X182.019 Y100.398 E.01681
G1 X176.159 Y94.538 E.26058
G1 X176.159 Y95.073 E.01681
G1 X182.019 Y100.933 E.26058
G1 X182.019 Y101.468 E.01681
G1 X176.159 Y95.608 E.26058
G1 X176.159 Y96.142 E.01681
G1 X182.019 Y102.003 E.26058
G1 X182.019 Y102.537 E.01681
G1 X176.159 Y96.677 E.26058
G1 X176.159 Y97.212 E.01681
G1 X182.019 Y103.072 E.26058
G1 X182.019 Y103.607 E.01681
G1 X176.159 Y97.747 E.26058
G1 X176.159 Y98.281 E.01681
G1 X182.019 Y104.142 E.26058
G1 X182.019 Y104.676 E.01681
G1 X176.159 Y98.816 E.26058
G1 X176.159 Y99.351 E.01681
G1 X182.019 Y105.211 E.26058
G1 X182.019 Y105.746 E.01681
G1 X176.159 Y99.886 E.26058
G1 X176.159 Y100.42 E.01681
G1 X182.019 Y106.281 E.26058
G1 X182.019 Y106.815 E.01681
G1 X176.159 Y100.955 E.26058
G1 X176.159 Y101.49 E.01681
G1 X182.019 Y107.35 E.26058
G1 X182.019 Y107.885 E.01681
G1 X176.159 Y102.025 E.26058
G1 X176.159 Y102.559 E.01681
G1 X182.019 Y108.42 E.26058
G1 X182.019 Y108.954 E.01681
G1 X176.159 Y103.094 E.26058
G1 X176.159 Y103.629 E.01681
G1 X182.019 Y109.489 E.26058
G1 X182.019 Y110.024 E.01681
G1 X176.159 Y104.164 E.26058
G1 X176.159 Y104.698 E.01681
G1 X182.019 Y110.559 E.26058
G1 X182.019 Y111.093 E.01681
G1 X176.159 Y105.233 E.26058
G1 X176.159 Y105.768 E.01681
G1 X182.019 Y111.628 E.26058
G1 X182.019 Y112.163 E.01681
G1 X176.159 Y106.303 E.26058
G1 X176.159 Y106.837 E.01681
G1 X182.019 Y112.698 E.26058
G1 X182.019 Y113.232 E.01681
G1 X176.159 Y107.372 E.26058
G1 X176.159 Y107.907 E.01681
G1 X182.019 Y113.767 E.26058
G1 X182.019 Y114.302 E.01681
G1 X176.159 Y108.442 E.26058
G1 X176.159 Y108.976 E.01681
G1 X182.019 Y114.837 E.26058
G1 X182.019 Y115.371 E.01681
G1 X176.159 Y109.511 E.26058
G1 X176.159 Y110.046 E.01681
G1 X182.019 Y115.906 E.26058
G1 X182.019 Y116.441 E.01681
G1 X176.159 Y110.581 E.26058
G1 X176.159 Y111.115 E.01681
G1 X182.019 Y116.976 E.26058
G1 X182.019 Y117.511 E.01681
G1 X176.159 Y111.65 E.26058
G1 X176.159 Y112.185 E.01681
G1 X182.019 Y118.045 E.26058
G1 X182.019 Y118.58 E.01681
G1 X176.159 Y112.72 E.26058
G1 X176.159 Y113.255 E.01681
G1 X182.019 Y119.115 E.26058
G1 X182.019 Y119.65 E.01681
G1 X176.159 Y113.789 E.26058
G1 X176.159 Y114.324 E.01681
G1 X182.019 Y120.184 E.26058
G1 X182.019 Y120.719 E.01681
G1 X176.159 Y114.859 E.26058
G1 X176.159 Y115.394 E.01681
G1 X182.019 Y121.254 E.26058
G1 X182.019 Y121.789 E.01681
G1 X176.159 Y115.928 E.26058
G1 X176.159 Y116.463 E.01681
G1 X182.019 Y122.323 E.26058
G1 X182.019 Y122.858 E.01681
M73 P1 R131
G1 X176.159 Y116.998 E.26058
G1 X176.159 Y117.533 E.01681
G1 X182.019 Y123.393 E.26058
G1 X182.019 Y123.928 E.01681
G1 X176.159 Y118.067 E.26058
G1 X176.159 Y118.602 E.01681
G1 X182.019 Y124.462 E.26058
G1 X182.019 Y124.997 E.01681
G1 X176.159 Y119.137 E.26058
G1 X176.159 Y119.672 E.01681
G1 X182.019 Y125.532 E.26058
G1 X182.019 Y126.067 E.01681
G1 X176.159 Y120.206 E.26058
G1 X176.159 Y120.741 E.01681
G1 X182.019 Y126.601 E.26058
G1 X182.019 Y127.136 E.01681
G1 X176.159 Y121.276 E.26058
G1 X176.159 Y121.811 E.01681
G1 X182.019 Y127.671 E.26058
G1 X182.019 Y128.206 E.01681
G1 X176.159 Y122.345 E.26058
G1 X176.159 Y122.88 E.01681
G1 X182.019 Y128.74 E.26058
G1 X182.019 Y129.275 E.01681
G1 X176.159 Y123.415 E.26058
G1 X176.159 Y123.95 E.01681
G1 X182.019 Y129.81 E.26058
G1 X182.019 Y130.345 E.01681
G1 X176.159 Y124.484 E.26058
G1 X176.159 Y125.019 E.01681
G1 X182.019 Y130.879 E.26058
G1 X182.019 Y131.414 E.01681
G1 X176.159 Y125.554 E.26058
G1 X176.159 Y126.089 E.01681
G1 X182.019 Y131.949 E.26058
G1 X182.019 Y132.484 E.01681
G1 X176.159 Y126.623 E.26058
G1 X176.159 Y127.158 E.01681
G1 X182.019 Y133.018 E.26058
G1 X182.019 Y133.553 E.01681
G1 X176.159 Y127.693 E.26058
G1 X176.159 Y128.228 E.01681
G1 X182.019 Y134.088 E.26058
G1 X182.019 Y134.623 E.01681
G1 X176.159 Y128.763 E.26058
M73 P2 R131
G1 X176.159 Y129.297 E.01681
G1 X182.019 Y135.158 E.26058
G1 X182.019 Y135.692 E.01681
G1 X176.159 Y129.832 E.26058
G1 X176.159 Y130.367 E.01681
G1 X182.019 Y136.227 E.26058
G1 X182.019 Y136.762 E.01681
G1 X176.159 Y130.902 E.26058
G1 X176.159 Y131.436 E.01681
G1 X182.019 Y137.297 E.26058
G1 X182.019 Y137.831 E.01681
G1 X176.159 Y131.971 E.26058
G1 X176.159 Y132.506 E.01681
G1 X182.019 Y138.366 E.26058
G1 X182.019 Y138.901 E.01681
G1 X176.159 Y133.041 E.26058
G1 X176.159 Y133.575 E.01681
G1 X182.019 Y139.436 E.26058
G1 X182.019 Y139.97 E.01681
G1 X176.159 Y134.11 E.26058
G1 X176.159 Y134.645 E.01681
G1 X182.019 Y140.505 E.26058
G1 X182.019 Y141.04 E.01681
G1 X176.159 Y135.18 E.26058
G1 X176.159 Y135.714 E.01681
G1 X182.019 Y141.575 E.26058
G1 X182.019 Y142.109 E.01681
G1 X176.159 Y136.249 E.26058
G1 X176.159 Y136.784 E.01681
G1 X182.019 Y142.644 E.26058
G1 X182.019 Y143.179 E.01681
G1 X176.159 Y137.319 E.26058
G1 X176.159 Y137.853 E.01681
G1 X182.019 Y143.714 E.26058
G1 X182.019 Y144.248 E.01681
G1 X176.159 Y138.388 E.26058
G1 X176.159 Y138.923 E.01681
G1 X182.019 Y144.783 E.26058
G1 X182.019 Y145.318 E.01681
