( Made using CamBam - http://www.cambam.co.uk )
( LedCircle 12/30/2014 5:29:40 PM )
( T3 : 3.0 )
( T5 : 5.0 )
G21 G90 G64 G40
G0 Z3.0
( T5 : 5.0 )
T5 M6
( Bohren1 )
G17
M3 S1000
G0 X130.0 Y0.0
G98
G81 X130.0 Y0.0 Z-8.0 R3.0 F300.0
G81 X129.5993 Y-10.1997 Z-8.0
G81 X128.3995 Y-20.3365 Z-8.0
G81 X126.4081 Y-30.3479 Z-8.0
G81 X123.6373 Y-40.1722 Z-8.0
G81 X120.1043 Y-49.7488 Z-8.0
G81 X115.8308 Y-59.0188 Z-8.0
G81 X110.8432 Y-67.9248 Z-8.0
G81 X105.1722 Y-76.4121 Z-8.0
G81 X98.8528 Y-84.4282 Z-8.0
G81 X91.9239 Y-91.9239 Z-8.0
G81 X84.4282 Y-98.8528 Z-8.0
G81 X76.4121 Y-105.1722 Z-8.0
G81 X67.9248 Y-110.8432 Z-8.0
G81 X59.0188 Y-115.8308 Z-8.0
G81 X49.7488 Y-120.1043 Z-8.0
G81 X40.1722 Y-123.6373 Z-8.0
G81 X30.3479 Y-126.4081 Z-8.0
G81 X20.3365 Y-128.3995 Z-8.0
G81 X10.1997 Y-129.5993 Z-8.0
G81 X0.0 Y-130.0 Z-8.0
G81 X-10.1997 Y-129.5993 Z-8.0
G81 X-20.3365 Y-128.3995 Z-8.0
G81 X-30.3479 Y-126.4081 Z-8.0
G81 X-40.1722 Y-123.6373 Z-8.0
G81 X-49.7488 Y-120.1043 Z-8.0
G81 X-59.0188 Y-115.8308 Z-8.0
G81 X-67.9248 Y-110.8432 Z-8.0
G81 X-76.4121 Y-105.1722 Z-8.0
G81 X-84.4282 Y-98.8528 Z-8.0
G81 X-91.9239 Y-91.9239 Z-8.0
G81 X-98.8528 Y-84.4282 Z-8.0
G81 X-105.1722 Y-76.4121 Z-8.0
G81 X-110.8432 Y-67.9248 Z-8.0
G81 X-115.8308 Y-59.0188 Z-8.0
G81 X-120.1043 Y-49.7488 Z-8.0
G81 X-123.6373 Y-40.1722 Z-8.0
G81 X-126.4081 Y-30.3479 Z-8.0
G81 X-128.3995 Y-20.3365 Z-8.0
G81 X-129.5993 Y-10.1997 Z-8.0
G81 X-130.0 Y0.0 Z-8.0
G81 X-129.5993 Y10.1997 Z-8.0
G81 X-128.3995 Y20.3365 Z-8.0
G81 X-126.4081 Y30.3479 Z-8.0
G81 X-123.6373 Y40.1722 Z-8.0
G81 X-120.1043 Y49.7488 Z-8.0
G81 X-115.8308 Y59.0188 Z-8.0
G81 X-110.8432 Y67.9248 Z-8.0
G81 X-105.1722 Y76.4121 Z-8.0
G81 X-98.8528 Y84.4282 Z-8.0
G81 X-91.9239 Y91.9239 Z-8.0
G81 X-84.4282 Y98.8528 Z-8.0
G81 X-76.4121 Y105.1722 Z-8.0
G81 X-67.9248 Y110.8432 Z-8.0
G81 X-59.0188 Y115.8308 Z-8.0
G81 X-49.7488 Y120.1043 Z-8.0
G81 X-40.1722 Y123.6373 Z-8.0
G81 X-30.3479 Y126.4081 Z-8.0
G81 X-20.3365 Y128.3995 Z-8.0
G81 X-10.1997 Y129.5993 Z-8.0
G81 X0.0 Y130.0 Z-8.0
G81 X10.1997 Y129.5993 Z-8.0
G81 X20.3365 Y128.3995 Z-8.0
G81 X30.3479 Y126.4081 Z-8.0
G81 X40.1722 Y123.6373 Z-8.0
G81 X49.7488 Y120.1043 Z-8.0
G81 X59.0188 Y115.8308 Z-8.0
G81 X67.9248 Y110.8432 Z-8.0
G81 X76.4121 Y105.1722 Z-8.0
G81 X84.4282 Y98.8528 Z-8.0
G81 X91.9239 Y91.9239 Z-8.0
G81 X98.8528 Y84.4282 Z-8.0
G81 X105.1722 Y76.4121 Z-8.0
G81 X110.8432 Y67.9248 Z-8.0
G81 X115.8308 Y59.0188 Z-8.0
G81 X120.1043 Y49.7488 Z-8.0
G81 X123.6373 Y40.1722 Z-8.0
G81 X126.4081 Y30.3479 Z-8.0
G81 X128.3995 Y20.3365 Z-8.0
G81 X129.5993 Y10.1997 Z-8.0
G80
G0 Z3.0
M5
M30
