; generated by PrusaSlicer 2.2.0+win64 on 2021-10-15 at 07:46:54 UTC

; 

; external perimeters extrusion width = 0.45mm
; perimeters extrusion width = 0.45mm
; infill extrusion width = 0.45mm
; solid infill extrusion width = 0.45mm
; top infill extrusion width = 0.40mm
; support material extrusion width = 0.35mm
; first layer extrusion width = 0.42mm

M73 P0 R107
M201 X9000 Y9000 Z500 E10000 ; sets maximum accelerations, mm/sec^2
M203 X500 Y500 Z12 E120 ; sets maximum feedrates, mm/sec
M204 P2000 R1500 T2000 ; sets acceleration (P, T) and retract acceleration (R), mm/sec^2
M205 X10.00 Y10.00 Z0.20 E2.50 ; sets the jerk limits, mm/sec
M205 S0 T0 ; sets the minimum extruding and travel feed rate, mm/sec
M107
M862.3 P "MK2S" ; printer model check
M862.1 P0.4 ; nozzle diameter check
M115 U3.2.3 ; tell printer latest fw version
G90 ; use absolute coordinates
M83 ; extruder relative mode
M204 S2000 T1500 ; MK2 firmware only supports the old M204 format
M104 S255 ; set extruder temp
M140 S100 ; set bed temp
M190 S100 ; wait for bed temp
M109 S255 ; wait for extruder temp
G28 W ; home all without mesh bed level
G80 ; mesh bed leveling
G1 Y-3.0 F1000.0 ; go outside print area
G92 E0.0
G1 X60.0 E9.0  F1000.0 ; intro line
M73 P0 R107
G1 X100.0 E12.5 F1000.0 ; intro line
G92 E0.0
G21 ; set units to millimeters
G90 ; use absolute coordinates
M83 ; use relative distances for extrusion
M900 K0.04 ; Filament gcode LA 1.5
M900 K20 ; Filament gcode LA 1.0
;BEFORE_LAYER_CHANGE
G92 E0.0
;0.2


G1 E-0.80000 F2100.00000
G1 Z0.400 F10800.000
;AFTER_LAYER_CHANGE
;0.2
G1 X82.798 Y73.251
G1 Z0.200
G1 E0.80000 F2100.00000
M204 S1000
G1 F1200.000
G1 X83.071 Y72.662 E0.02036
G1 X83.444 Y72.215 E0.01823
G1 X83.913 Y71.873 E0.01823
G1 X84.452 Y71.654 E0.01823
G1 X85.027 Y71.572 E0.01823
G1 X142.390 Y71.572 E1.79857
G1 X159.196 Y71.752 E0.52697
G1 X159.846 Y71.906 E0.02095
G1 X160.428 Y72.235 E0.02095
G1 X160.895 Y72.713 E0.02095
G1 X161.211 Y73.305 E0.02107
G1 X161.352 Y74.009 E0.02249
G1 X163.071 Y112.849 E1.21902
G1 X163.071 Y125.998 E0.41227
G1 X162.967 Y126.635 E0.02024
G1 X162.693 Y127.224 E0.02036
G1 X162.253 Y127.732 E0.02107
G1 X148.998 Y139.123 E0.54798
G1 X148.487 Y139.451 E0.01906
G1 X147.909 Y139.639 E0.01906
G1 X146.366 Y139.850 E0.04882
G1 X99.996 Y139.680 E1.45392
G1 X99.331 Y139.580 E0.02107
G1 X98.724 Y139.301 E0.02095
G1 X85.198 Y127.705 E0.55864
G1 X84.741 Y127.147 E0.02260
G1 X84.473 Y126.482 E0.02249
G1 X82.694 Y87.032 E1.23816
G1 X82.694 Y73.888 E0.41214
G1 X82.788 Y73.310 E0.01836
; printing object Cable-Holder_Leon.stl id:1 copy 0
G1 F8640.000
G1 X83.071 Y72.662 E-0.16331
G1 X83.444 Y72.215 E-0.13423
G1 X83.913 Y71.873 E-0.13423
G1 X84.452 Y71.654 E-0.13423
G1 X85.027 Y71.572 E-0.13423
G1 X85.286 Y71.572 E-0.05978
G1 E-0.04000 F2100.00000
G1 Z0.600 F10800.000
G1 X85.070 Y73.949
G1 Z0.200
G1 E0.80000 F2100.00000
G1 F1200.000
G1 X85.070 Y86.970 E0.40826
G1 X85.824 Y86.970 E0.02365
G1 X85.824 Y74.119 E0.40294
G1 X86.578 Y74.119 E0.02365
G1 X86.578 Y86.970 E0.40294
G1 X87.333 Y86.970 E0.02365
G1 X87.333 Y74.119 E0.40294
G1 X88.087 Y74.119 E0.02365
G1 X88.087 Y86.970 E0.40294
G1 X88.841 Y86.970 E0.02365
G1 X88.841 Y74.119 E0.40294
G1 X89.595 Y74.119 E0.02365
G1 X89.595 Y86.970 E0.40294
G1 X90.349 Y86.970 E0.02365
G1 X90.349 Y74.119 E0.40294
G1 X91.103 Y74.119 E0.02365
G1 X91.103 Y86.970 E0.40294
G1 X91.858 Y86.970 E0.02365
G1 X91.858 Y74.119 E0.40294
G1 X92.612 Y74.119 E0.02365
G1 X92.612 Y86.970 E0.40294
G1 X93.366 Y86.970 E0.02365
G1 X93.366 Y74.119 E0.40294
G1 X94.120 Y74.119 E0.02365
G1 X94.120 Y86.970 E0.40294
G1 X94.874 Y86.970 E0.02365
G1 X94.874 Y74.119 E0.40294
G1 X95.628 Y74.119 E0.02365
G1 X95.628 Y86.970 E0.40294
G1 X95.988 Y86.970 E0.01128
G1 X95.988 Y98.505 E0.36168
G1 X96.382 Y98.505 E0.01236
G1 X96.382 Y74.119 E0.76462
G1 X97.137 Y74.119 E0.02365
G1 X97.137 Y76.741 E0.08224
G1 X97.891 Y76.741 E0.02365
G1 X97.891 Y74.119 E0.08224
G1 X98.645 Y74.119 E0.02365
G1 X98.645 Y76.741 E0.08224
G1 X99.295 Y76.741 E0.02039
G1 X99.295 Y76.904 E0.00509
G1 X99.399 Y76.904 E0.00326
G1 X99.399 Y74.119 E0.08733
G1 X100.153 Y74.119 E0.02365
G1 X100.153 Y76.904 E0.08733
G1 X100.907 Y76.904 E0.02365
G1 X100.907 Y74.119 E0.08733
G1 X101.662 Y74.119 E0.02365
G1 X101.662 Y77.074 E0.09265
G1 F8640.000
G1 X101.662 Y74.119 E-0.68229
G1 X101.325 Y74.119 E-0.07771
G1 E-0.04000 F2100.00000
G1 Z0.600 F10800.000
G1 X96.670 Y79.529
G1 Z0.200
G1 E0.80000 F2100.00000
G1 F1200.000
G1 X96.670 Y77.084 E0.06244
G1 X97.177 Y77.084 E0.01295
G1 X97.177 Y79.529 E0.06244
G1 F8640.000
G1 X97.177 Y77.084 E-0.56463
G1 X96.670 Y77.084 E-0.11709
G1 X96.670 Y77.423 E-0.07828
G1 E-0.04000 F2100.00000
G1 Z0.600 F10800.000
G1 X98.698 Y84.143
G1 Z0.200
G1 E0.80000 F2100.00000
G1 F1200.000
G1 X98.698 Y83.696 E0.01142
G1 X98.191 Y83.696 E0.01295
G1 X98.191 Y84.005 E0.00789
G1 X97.684 Y84.005 E0.01295
G1 X97.684 Y83.555 E0.01149
G1 X97.604 Y83.474 E0.00291
G1 X97.604 Y81.698 E0.04536
G1 X97.177 Y81.698 E0.01089
G1 X97.177 Y84.005 E0.05891
G1 X96.670 Y84.005 E0.01295
G1 X96.670 Y81.560 E0.06244
G1 X97.137 Y81.525 F10800.000
G1 F1200.000
G1 X97.137 Y79.733 E0.05621
G1 X97.891 Y79.733 E0.02365
G1 X97.891 Y83.518 E0.11867
G1 X97.137 Y84.177 F10800.000
G1 F1200.000
G1 X97.137 Y98.505 E0.44924
G1 X97.891 Y98.505 E0.02365
G1 X97.891 Y84.347 E0.44392
G1 X98.645 Y84.347 E0.02365
G1 X98.645 Y98.505 E0.44392
G1 X99.399 Y98.505 E0.02365
G1 X99.399 Y83.731 E0.46323
G1 X100.153 Y83.731 E0.02365
G1 X100.153 Y98.505 E0.46323
G1 X100.907 Y98.505 E0.02365
G1 X100.907 Y83.731 E0.46323
G1 X101.662 Y83.731 E0.02365
G1 X101.662 Y98.505 E0.46323
G1 X102.416 Y98.505 E0.02365
G1 X102.416 Y83.731 E0.46323
G1 X103.170 Y83.731 E0.02365
G1 X103.170 Y98.505 E0.46323
G1 X103.924 Y98.505 E0.02365
G1 X103.924 Y83.731 E0.46323
G1 X104.678 Y83.731 E0.02365
G1 X104.678 Y98.505 E0.46323
G1 X105.432 Y98.505 E0.02365
G1 X105.432 Y83.731 E0.46323
G1 X106.187 Y83.731 E0.02365
G1 X106.187 Y98.505 E0.46323
G1 X106.941 Y98.505 E0.02365
G1 X106.941 Y83.731 E0.46323
G1 X107.695 Y83.731 E0.02365
G1 X107.695 Y98.505 E0.46323
G1 X108.449 Y98.505 E0.02365
G1 X108.449 Y83.731 E0.46323
G1 X109.203 Y83.731 E0.02365
G1 X109.203 Y98.505 E0.46323
G1 X109.957 Y98.505 E0.02365
G1 X109.957 Y83.731 E0.46323
G1 X110.712 Y83.731 E0.02365
G1 X110.712 Y98.505 E0.46323
G1 X111.466 Y98.505 E0.02365
G1 X111.466 Y83.731 E0.46323
G1 X112.220 Y83.731 E0.02365
G1 X112.220 Y98.505 E0.46323
G1 X112.974 Y98.505 E0.02365
G1 X112.974 Y83.731 E0.46323
G1 X113.728 Y83.731 E0.02365
G1 X113.728 Y98.505 E0.46323
G1 X114.482 Y98.505 E0.02365
G1 X114.482 Y83.731 E0.46323
G1 X115.236 Y83.731 E0.02365
G1 X115.236 Y98.505 E0.46323
G1 X115.991 Y98.505 E0.02365
G1 X115.991 Y83.731 E0.46323
G1 X116.745 Y83.731 E0.02365
G1 X116.745 Y98.505 E0.46323
G1 X117.499 Y98.505 E0.02365
G1 X117.499 Y83.731 E0.46323
G1 X118.253 Y83.731 E0.02365
G1 X118.253 Y98.505 E0.46323
G1 X119.007 Y98.505 E0.02365
G1 X119.007 Y83.731 E0.46323
G1 X119.761 Y83.731 E0.02365
G1 X119.761 Y98.505 E0.46323
G1 X120.516 Y98.505 E0.02365
G1 X120.516 Y83.731 E0.46323
G1 X121.270 Y83.731 E0.02365
G1 X121.270 Y98.505 E0.46323
G1 X122.024 Y98.505 E0.02365
G1 X122.024 Y83.731 E0.46323
G1 X122.778 Y83.731 E0.02365
G1 X122.778 Y98.505 E0.46323
M73 P0 R106
G1 X123.532 Y98.505 E0.02365
G1 X123.532 Y83.731 E0.46323
G1 X124.286 Y83.731 E0.02365
G1 X124.286 Y98.505 E0.46323
G1 X125.041 Y98.505 E0.02365
G1 X125.041 Y83.731 E0.46323
G1 X125.795 Y83.731 E0.02365
G1 X125.795 Y98.505 E0.46323
G1 X126.549 Y98.505 E0.02365
G1 X126.549 Y83.731 E0.46323
G1 X127.303 Y83.731 E0.02365
G1 X127.303 Y98.505 E0.46323
G1 X128.057 Y98.505 E0.02365
G1 X128.057 Y83.731 E0.46323
G1 X128.811 Y83.731 E0.02365
G1 X128.811 Y98.505 E0.46323
G1 X129.565 Y98.505 E0.02365
G1 X129.565 Y83.731 E0.46323
G1 X130.320 Y83.731 E0.02365
G1 X130.320 Y98.505 E0.46323
G1 X131.074 Y98.505 E0.02365
G1 X131.074 Y83.731 E0.46323
G1 X131.828 Y83.731 E0.02365
G1 X131.828 Y98.505 E0.46323
G1 X132.582 Y98.505 E0.02365
G1 X132.582 Y83.731 E0.46323
G1 X133.336 Y83.731 E0.02365
G1 X133.336 Y98.505 E0.46323
G1 X134.090 Y98.505 E0.02365
G1 X134.090 Y83.731 E0.46323
G1 X134.845 Y83.731 E0.02365
G1 X134.845 Y98.505 E0.46323
G1 X135.599 Y98.505 E0.02365
G1 X135.599 Y83.731 E0.46323
G1 X136.353 Y83.731 E0.02365
G1 X136.353 Y98.505 E0.46323
G1 X137.107 Y98.505 E0.02365
G1 X137.107 Y83.731 E0.46323
G1 X137.861 Y83.731 E0.02365
G1 X137.861 Y98.505 E0.46323
G1 X138.615 Y98.505 E0.02365
G1 X138.615 Y83.731 E0.46323
G1 X139.370 Y83.731 E0.02365
G1 X139.370 Y98.505 E0.46323
G1 X140.124 Y98.505 E0.02365
G1 X140.124 Y83.731 E0.46323
G1 X140.878 Y83.731 E0.02365
G1 X140.878 Y98.505 E0.46323
G1 X141.632 Y98.505 E0.02365
G1 X141.632 Y83.731 E0.46323
G1 X142.386 Y83.731 E0.02365
G1 X142.386 Y98.505 E0.46323
G1 X143.140 Y98.505 E0.02365
G1 X143.140 Y83.731 E0.46323
G1 X143.895 Y83.731 E0.02365
G1 X143.895 Y98.505 E0.46323
G1 X144.649 Y98.505 E0.02365
G1 X144.649 Y83.731 E0.46323
G1 X144.753 Y83.731 E0.00326
G1 X144.753 Y84.347 E0.01931
G1 X145.403 Y84.347 E0.02039
G1 X145.403 Y98.505 E0.44392
G1 X146.157 Y98.505 E0.02365
G1 X146.157 Y84.347 E0.44392
G1 X146.911 Y84.347 E0.02365
G1 X146.911 Y98.505 E0.44392
G1 X147.665 Y98.505 E0.02365
G1 X147.665 Y74.119 E0.76462
G1 X148.419 Y74.119 E0.02365
G1 X148.419 Y86.970 E0.40294
G1 X149.174 Y86.970 E0.02365
G1 X149.174 Y74.119 E0.40294
G1 X149.928 Y74.119 E0.02365
G1 X149.928 Y86.970 E0.40294
G1 X150.682 Y86.970 E0.02365
G1 X150.682 Y74.119 E0.40294
G1 X151.436 Y74.119 E0.02365
G1 X151.436 Y86.970 E0.40294
G1 X152.190 Y86.970 E0.02365
G1 X152.190 Y74.119 E0.40294
G1 X152.944 Y74.119 E0.02365
G1 X152.944 Y86.970 E0.40294
G1 X153.699 Y86.970 E0.02365
G1 X153.699 Y74.119 E0.40294
G1 X154.453 Y74.119 E0.02365
G1 X154.453 Y86.970 E0.40294
G1 X155.207 Y86.970 E0.02365
G1 X155.207 Y74.119 E0.40294
G1 X155.961 Y74.119 E0.02365
G1 X155.961 Y86.970 E0.40294
G1 X156.715 Y86.970 E0.02365
G1 X156.715 Y74.119 E0.40294
G1 X157.469 Y74.119 E0.02365
G1 X157.469 Y86.970 E0.40294
G1 X158.224 Y86.970 E0.02365
G1 X158.224 Y74.119 E0.40294
G1 X158.978 Y74.119 E0.02365
G1 X158.978 Y87.139 E0.40826
G1 F8640.000
G1 X158.978 Y83.848 E-0.76000
G1 E-0.04000 F2100.00000
G1 Z0.600 F10800.000
G1 X147.378 Y84.143
G1 Z0.200
G1 E0.80000 F2100.00000
G1 F1200.000
G1 X147.378 Y81.698 E0.06244
G1 X146.871 Y81.698 E0.01295
G1 X146.871 Y84.005 E0.05891
G1 X146.364 Y84.005 E0.01295
G1 X146.364 Y83.555 E0.01149
G1 X146.222 Y83.696 E0.00510
G1 X145.857 Y83.696 E0.00934
G1 X145.857 Y84.005 E0.00789
G1 X145.350 Y84.005 E0.01295
G1 X145.350 Y83.558 E0.01142
G1 X146.157 Y83.518 F10800.000
G1 F1200.000
G1 X146.157 Y79.733 E0.11867
G1 X146.911 Y79.733 E0.02365
G1 X146.911 Y81.525 E0.05621
G1 F8640.000
G1 X146.911 Y79.733 E-0.41391
G1 X146.157 Y79.733 E-0.17414
G1 X146.157 Y80.477 E-0.17195
G1 E-0.04000 F2100.00000
G1 Z0.600 F10800.000
G1 X146.871 Y79.529
G1 Z0.200
G1 E0.80000 F2100.00000
G1 F1200.000
G1 X146.871 Y77.084 E0.06244
G1 X147.378 Y77.084 E0.01295
G1 X147.378 Y79.529 E0.06244
G1 X146.911 Y76.911 F10800.000
G1 F1200.000
G1 X146.911 Y74.119 E0.08756
G1 X146.157 Y74.119 E0.02365
G1 X146.157 Y76.741 E0.08224
G1 X145.403 Y76.741 E0.02365
G1 X145.403 Y74.119 E0.08224
G1 X144.649 Y74.119 E0.02365
G1 X144.649 Y76.904 E0.08733
G1 X143.895 Y76.904 E0.02365
G1 X143.895 Y74.119 E0.08733
G1 X143.140 Y74.119 E0.02365
G1 X143.140 Y76.904 E0.08733
G1 X142.386 Y76.904 E0.02365
G1 X142.386 Y73.949 E0.09265
G1 F8640.000
G1 X142.386 Y76.904 E-0.68229
G1 X142.723 Y76.904 E-0.07771
G1 E-0.04000 F2100.00000
G1 Z0.600 F10800.000
G1 X144.830 Y78.104
G1 Z0.200
G1 E0.80000 F2100.00000
G1 F1200.000
G1 X144.830 Y82.530 E0.13877
G1 X99.218 Y82.530 E1.43014
G1 X99.218 Y78.104 E0.13877
G1 X144.770 Y78.104 E1.42826
G1 X145.207 Y77.727 F10800.000
G1 F1200.000
G1 X145.207 Y82.907 E0.16242
G1 X98.841 Y82.907 E1.45378
G1 X98.841 Y77.727 E0.16242
G1 X145.147 Y77.727 E1.45190
G1 X145.020 Y78.081 F10800.000
G1 F8640.000
G1 X145.185 Y81.019 E-0.76000
G1 E-0.04000 F2100.00000
G1 Z0.600 F10800.000
G1 X99.331 Y81.654
G1 Z0.200
G1 E0.80000 F2100.00000
G1 F1200.000
G1 X99.924 Y82.248 E0.02635
G1 X100.458 Y82.248 E0.01677
G1 X99.501 Y81.290 E0.04253
G1 X99.501 Y80.756 E0.01677
G1 X100.992 Y82.248 E0.06624
G1 X101.526 Y82.248 E0.01677
G1 X99.501 Y80.222 E0.08995
G1 X99.501 Y79.688 E0.01677
G1 X102.060 Y82.248 E0.11366
G1 X102.594 Y82.248 E0.01677
G1 X99.501 Y79.154 E0.13737
G1 X99.501 Y78.620 E0.01677
G1 X103.128 Y82.248 E0.16108
G1 X103.662 Y82.248 E0.01677
G1 X99.802 Y78.387 E0.17140
G1 X100.336 Y78.387 E0.01677
G1 X104.196 Y82.248 E0.17140
G1 X104.730 Y82.248 E0.01677
G1 X100.870 Y78.387 E0.17140
G1 X101.404 Y78.387 E0.01677
G1 X105.264 Y82.248 E0.17140
G1 X105.798 Y82.248 E0.01677
G1 X101.938 Y78.387 E0.17140
G1 X102.472 Y78.387 E0.01677
G1 X106.332 Y82.248 E0.17140
G1 X106.866 Y82.248 E0.01677
G1 X103.006 Y78.387 E0.17140
G1 X103.540 Y78.387 E0.01677
G1 X107.400 Y82.248 E0.17140
G1 X107.934 Y82.248 E0.01677
G1 X104.074 Y78.387 E0.17140
G1 X104.608 Y78.387 E0.01677
G1 X108.468 Y82.248 E0.17140
G1 X109.002 Y82.248 E0.01677
G1 X105.142 Y78.387 E0.17140
G1 X105.676 Y78.387 E0.01677
G1 X109.536 Y82.248 E0.17140
G1 X110.070 Y82.248 E0.01677
G1 X106.210 Y78.387 E0.17140
G1 X106.744 Y78.387 E0.01677
G1 X110.604 Y82.248 E0.17140
G1 X111.138 Y82.248 E0.01677
G1 X107.278 Y78.387 E0.17140
G1 X107.812 Y78.387 E0.01677
G1 X111.672 Y82.248 E0.17140
G1 X112.206 Y82.248 E0.01677
G1 X108.346 Y78.387 E0.17140
G1 X108.880 Y78.387 E0.01677
G1 X112.740 Y82.248 E0.17140
G1 X113.274 Y82.248 E0.01677
G1 X109.414 Y78.387 E0.17140
G1 X109.948 Y78.387 E0.01677
G1 X113.808 Y82.248 E0.17140
G1 X114.342 Y82.248 E0.01677
G1 X110.482 Y78.387 E0.17140
G1 X111.016 Y78.387 E0.01677
G1 X114.876 Y82.248 E0.17140
G1 X115.410 Y82.248 E0.01677
G1 X111.550 Y78.387 E0.17140
G1 X112.084 Y78.387 E0.01677
G1 X115.944 Y82.248 E0.17140
G1 X116.478 Y82.248 E0.01677
G1 X112.618 Y78.387 E0.17140
M73 P1 R105
G1 X113.152 Y78.387 E0.01677
G1 X117.012 Y82.248 E0.17140
G1 X117.546 Y82.248 E0.01677
G1 X113.686 Y78.387 E0.17140
G1 X114.220 Y78.387 E0.01677
G1 X118.080 Y82.248 E0.17140
G1 X118.614 Y82.248 E0.01677
G1 X114.754 Y78.387 E0.17140
G1 X115.288 Y78.387 E0.01677
G1 X119.148 Y82.248 E0.17140
G1 X119.682 Y82.248 E0.01677
G1 X115.822 Y78.387 E0.17140
G1 X116.356 Y78.387 E0.01677
G1 X120.216 Y82.248 E0.17140
G1 X120.750 Y82.248 E0.01677
G1 X116.890 Y78.387 E0.17140
G1 X117.424 Y78.387 E0.01677
G1 X121.284 Y82.248 E0.17140
G1 X121.818 Y82.248 E0.01677
G1 X117.958 Y78.387 E0.17140
G1 X118.492 Y78.387 E0.01677
G1 X122.352 Y82.248 E0.17140
G1 X122.886 Y82.248 E0.01677
G1 X119.026 Y78.387 E0.17140
G1 X119.560 Y78.387 E0.01677
G1 X123.420 Y82.248 E0.17140
G1 X123.954 Y82.248 E0.01677
G1 X120.094 Y78.387 E0.17140
G1 X120.628 Y78.387 E0.01677
G1 X124.488 Y82.248 E0.17140
G1 X125.022 Y82.248 E0.01677
G1 X121.162 Y78.387 E0.17140
G1 X121.696 Y78.387 E0.01677
G1 X125.556 Y82.248 E0.17140
G1 X126.090 Y82.248 E0.01677
G1 X122.230 Y78.387 E0.17140
G1 X122.764 Y78.387 E0.01677
G1 X126.624 Y82.248 E0.17140
G1 X127.158 Y82.248 E0.01677
G1 X123.298 Y78.387 E0.17140
G1 X123.832 Y78.387 E0.01677
G1 X127.692 Y82.248 E0.17140
G1 X128.226 Y82.248 E0.01677
G1 X124.366 Y78.387 E0.17140
G1 X124.900 Y78.387 E0.01677
G1 X128.760 Y82.248 E0.17140
G1 X129.294 Y82.248 E0.01677
G1 X125.434 Y78.387 E0.17140
G1 X125.968 Y78.387 E0.01677
G1 X129.828 Y82.248 E0.17140
G1 X130.362 Y82.248 E0.01677
G1 X126.502 Y78.387 E0.17140
G1 X127.036 Y78.387 E0.01677
G1 X130.896 Y82.248 E0.17140
G1 X131.430 Y82.248 E0.01677
G1 X127.570 Y78.387 E0.17140
G1 X128.104 Y78.387 E0.01677
G1 X131.964 Y82.248 E0.17140
G1 X132.498 Y82.248 E0.01677
G1 X128.638 Y78.387 E0.17140
G1 X129.172 Y78.387 E0.01677
G1 X133.032 Y82.248 E0.17140
G1 X133.566 Y82.248 E0.01677
G1 X129.706 Y78.387 E0.17140
G1 X130.239 Y78.387 E0.01677
G1 X134.100 Y82.248 E0.17140
G1 X134.634 Y82.248 E0.01677
G1 X130.773 Y78.387 E0.17140
G1 X131.307 Y78.387 E0.01677
G1 X135.168 Y82.248 E0.17140
G1 X135.702 Y82.248 E0.01677
G1 X131.841 Y78.387 E0.17140
G1 X132.375 Y78.387 E0.01677
G1 X136.236 Y82.248 E0.17140
