; generated by PrusaSlicer 2.2.0+win64 on 2021-10-13 at 10:06:06 UTC

; 

; external perimeters extrusion width = 0.45mm
; perimeters extrusion width = 0.45mm
; infill extrusion width = 0.45mm
; solid infill extrusion width = 0.45mm
; top infill extrusion width = 0.40mm
; first layer extrusion width = 0.42mm

M73 P0 R78
M201 X9000 Y9000 Z500 E10000 ; sets maximum accelerations, mm/sec^2
M203 X500 Y500 Z12 E120 ; sets maximum feedrates, mm/sec
M204 P2000 R1500 T2000 ; sets acceleration (P, T) and retract acceleration (R), mm/sec^2
M205 X10.00 Y10.00 Z0.20 E2.50 ; sets the jerk limits, mm/sec
M205 S0 T0 ; sets the minimum extruding and travel feed rate, mm/sec
M107
M862.3 P "MK2S" ; printer model check
M862.1 P0.4 ; nozzle diameter check
M115 U3.2.3 ; tell printer latest fw version
G90 ; use absolute coordinates
M83 ; extruder relative mode
M204 S2000 T1500 ; MK2 firmware only supports the old M204 format
M104 S255 ; set extruder temp
M140 S100 ; set bed temp
M190 S100 ; wait for bed temp
M109 S255 ; wait for extruder temp
G28 W ; home all without mesh bed level
G80 ; mesh bed leveling
G1 Y-3.0 F1000.0 ; go outside print area
G92 E0.0
G1 X60.0 E9.0  F1000.0 ; intro line
M73 P0 R78
G1 X100.0 E12.5 F1000.0 ; intro line
G92 E0.0
G21 ; set units to millimeters
G90 ; use absolute coordinates
M83 ; use relative distances for extrusion
M900 K0.04 ; Filament gcode LA 1.5
M900 K20 ; Filament gcode LA 1.0
;BEFORE_LAYER_CHANGE
G92 E0.0
;0.2


G1 E-0.80000 F2100.00000
G1 Z0.400 F10800.000
;AFTER_LAYER_CHANGE
;0.2
G1 X120.198 Y56.458
G1 Z0.200
G1 E0.80000 F2100.00000
M204 S1000
G1 F1200.000
G1 X129.204 Y56.423 E0.28238
G1 X130.382 Y56.560 E0.03718
G1 X131.555 Y56.991 E0.03919
G1 X132.321 Y57.472 E0.02838
G1 X132.775 Y57.858 E0.01867
G1 X133.555 Y58.801 E0.03836
G1 X140.864 Y73.353 E0.51059
G1 X141.121 Y73.995 E0.02169
G1 X141.330 Y74.915 E0.02957
G1 X141.350 Y134.930 E1.88175
G1 X141.218 Y135.666 E0.02344
G1 X140.869 Y136.636 E0.03231
G1 X133.844 Y150.688 E0.49260
G1 X133.257 Y151.616 E0.03442
G1 X132.518 Y152.372 E0.03314
G1 X131.352 Y153.106 E0.04321
G1 X130.455 Y153.421 E0.02980
G1 X129.749 Y153.547 E0.02250
G1 X120.270 Y153.550 E0.29722
G1 X119.112 Y153.294 E0.03718
G1 X118.055 Y152.790 E0.03670
G1 X117.142 Y152.063 E0.03658
G1 X116.421 Y151.161 E0.03623
G1 X109.136 Y136.647 E0.50916
G1 X108.878 Y136.001 E0.02181
G1 X108.668 Y135.070 E0.02993
G1 X108.650 Y75.070 E1.88127
G1 X108.785 Y74.323 E0.02380
G1 X109.149 Y73.326 E0.03325
G1 X116.170 Y59.285 E0.49224
G1 X116.699 Y58.442 E0.03121
G1 X117.222 Y57.860 E0.02451
G1 X117.951 Y57.280 E0.02922
G1 X118.564 Y56.931 E0.02213
G1 X119.215 Y56.674 E0.02193
G1 X120.139 Y56.471 E0.02967
; printing object cable_holder.stl id:0 copy 0
G1 F8640.000
G1 X123.431 Y56.454 E-0.76000
G1 E-0.04000 F2100.00000
G1 Z0.600 F10800.000
G1 X124.711 Y141.326
G1 Z0.200
G1 E0.80000 F2100.00000
G1 F1200.000
G1 X125.074 Y141.314 E0.01139
G1 X125.478 Y141.351 E0.01272
G1 X125.856 Y141.441 E0.01218
G1 X126.216 Y141.580 E0.01210
G1 X126.535 Y141.754 E0.01140
G1 X126.863 Y141.992 E0.01272
G1 X127.143 Y142.262 E0.01218
G1 X127.368 Y142.547 E0.01140
G1 X127.577 Y142.895 E0.01272
G1 X127.729 Y143.252 E0.01218
G1 X127.831 Y143.625 E0.01210
G1 X127.882 Y144.007 E0.01210
G1 X127.882 Y144.393 E0.01210
G1 X127.831 Y144.775 E0.01210
G1 X127.729 Y145.148 E0.01210
G1 X127.578 Y145.503 E0.01210
G1 X127.382 Y145.835 E0.01210
G1 X127.143 Y146.138 E0.01210
G1 X126.865 Y146.406 E0.01210
G1 X126.554 Y146.635 E0.01210
G1 X126.216 Y146.820 E0.01210
G1 X125.856 Y146.959 E0.01210
G1 X125.480 Y147.049 E0.01210
G1 X125.097 Y147.087 E0.01210
G1 X124.711 Y147.074 E0.01210
G1 X124.330 Y147.010 E0.01210
G1 X123.962 Y146.896 E0.01210
G1 X123.612 Y146.733 E0.01210
G1 X123.286 Y146.526 E0.01210
G1 X122.992 Y146.277 E0.01210
G1 X122.733 Y145.990 E0.01210
G1 X122.514 Y145.672 E0.01210
G1 X122.340 Y145.328 E0.01210
G1 X122.214 Y144.963 E0.01210
G1 X122.137 Y144.585 E0.01210
G1 X122.111 Y144.200 E0.01210
G1 X122.137 Y143.815 E0.01210
G1 X122.214 Y143.437 E0.01210
G1 X122.340 Y143.072 E0.01210
G1 X122.514 Y142.728 E0.01210
G1 X122.733 Y142.410 E0.01210
G1 X122.992 Y142.123 E0.01210
G1 X123.286 Y141.874 E0.01210
G1 X123.612 Y141.667 E0.01210
G1 X123.962 Y141.504 E0.01210
G1 X124.330 Y141.390 E0.01210
G1 X124.652 Y141.336 E0.01022
G1 X124.714 Y141.707 F10800.000
G1 F1200.000
G1 X125.063 Y141.691 E0.01094
G1 X125.417 Y141.724 E0.01114
G1 X125.744 Y141.802 E0.01054
G1 X126.057 Y141.922 E0.01052
G1 X126.333 Y142.074 E0.00986
G1 X126.621 Y142.282 E0.01114
G1 X126.862 Y142.516 E0.01054
G1 X127.057 Y142.763 E0.00986
G1 X127.241 Y143.067 E0.01114
G1 X127.372 Y143.376 E0.01054
G1 X127.461 Y143.700 E0.01052
G1 X127.505 Y144.032 E0.01052
G1 X127.505 Y144.368 E0.01052
G1 X127.461 Y144.700 E0.01052
G1 X127.372 Y145.024 E0.01052
G1 X127.241 Y145.332 E0.01052
G1 X127.070 Y145.621 E0.01052
G1 X126.862 Y145.884 E0.01052
G1 X126.621 Y146.117 E0.01052
G1 X126.351 Y146.316 E0.01052
G1 X126.057 Y146.478 E0.01052
G1 X125.744 Y146.598 E0.01052
G1 X125.418 Y146.676 E0.01052
G1 X125.084 Y146.710 E0.01052
G1 X124.749 Y146.698 E0.01052
G1 X124.418 Y146.643 E0.01052
G1 X124.098 Y146.543 E0.01052
G1 X123.793 Y146.402 E0.01052
G1 X123.511 Y146.221 E0.01052
G1 X123.254 Y146.005 E0.01052
G1 X123.029 Y145.756 E0.01052
G1 X122.840 Y145.480 E0.01052
G1 X122.688 Y145.180 E0.01052
G1 X122.578 Y144.863 E0.01052
G1 X122.511 Y144.535 E0.01052
G1 X122.489 Y144.200 E0.01052
G1 X122.511 Y143.865 E0.01052
G1 X122.578 Y143.537 E0.01052
G1 X122.688 Y143.220 E0.01052
G1 X122.840 Y142.920 E0.01052
G1 X123.029 Y142.644 E0.01052
G1 X123.254 Y142.395 E0.01052
G1 X123.511 Y142.179 E0.01052
G1 X123.793 Y141.998 E0.01052
G1 X124.098 Y141.857 E0.01052
G1 X124.418 Y141.757 E0.01052
G1 X124.655 Y141.717 E0.00755
G1 X124.855 Y141.388 F10800.000
G1 F8640.000
G1 X125.063 Y141.691 E-0.09435
G1 X125.417 Y141.724 E-0.08205
G1 X125.744 Y141.802 E-0.07765
G1 X126.057 Y141.922 E-0.07745
G1 X126.333 Y142.074 E-0.07262
G1 X126.621 Y142.282 E-0.08205
G1 X126.862 Y142.516 E-0.07765
G1 X127.057 Y142.763 E-0.07262
G1 X127.241 Y143.067 E-0.08204
G1 X127.311 Y143.232 E-0.04154
G1 E-0.04000 F2100.00000
G1 Z0.600 F10800.000
G1 X125.097 Y68.687
G1 Z0.200
G1 E0.80000 F2100.00000
G1 F1200.000
G1 X124.711 Y68.674 E0.01210
G1 X124.352 Y68.614 E0.01140
G1 X123.964 Y68.497 E0.01272
G1 X123.612 Y68.333 E0.01218
G1 X123.286 Y68.126 E0.01210
G1 X122.992 Y67.877 E0.01210
G1 X122.733 Y67.590 E0.01210
G1 X122.514 Y67.272 E0.01210
G1 X122.340 Y66.928 E0.01210
G1 X122.214 Y66.563 E0.01210
G1 X122.137 Y66.185 E0.01210
G1 X122.111 Y65.800 E0.01210
G1 X122.137 Y65.415 E0.01210
G1 X122.209 Y65.059 E0.01140
G1 X122.339 Y64.674 E0.01272
G1 X122.514 Y64.328 E0.01218
G1 X122.733 Y64.010 E0.01210
G1 X122.992 Y63.723 E0.01210
G1 X123.286 Y63.474 E0.01210
G1 X123.593 Y63.279 E0.01140
G1 X123.959 Y63.105 E0.01272
G1 X124.330 Y62.990 E0.01218
G1 X124.711 Y62.926 E0.01210
G1 X125.074 Y62.914 E0.01140
G1 X125.478 Y62.951 E0.01272
G1 X125.856 Y63.041 E0.01218
G1 X126.216 Y63.180 E0.01210
G1 X126.535 Y63.354 E0.01139
G1 X126.863 Y63.592 E0.01272
G1 X127.143 Y63.862 E0.01218
G1 X127.382 Y64.165 E0.01210
G1 X127.578 Y64.497 E0.01210
G1 X127.729 Y64.852 E0.01210
G1 X127.831 Y65.225 E0.01210
G1 X127.882 Y65.607 E0.01210
G1 X127.882 Y65.993 E0.01210
G1 X127.831 Y66.375 E0.01210
G1 X127.729 Y66.748 E0.01210
G1 X127.578 Y67.103 E0.01210
G1 X127.382 Y67.435 E0.01210
G1 X127.143 Y67.738 E0.01210
G1 X126.865 Y68.006 E0.01210
G1 X126.554 Y68.235 E0.01210
G1 X126.216 Y68.420 E0.01210
G1 X125.856 Y68.559 E0.01210
G1 X125.481 Y68.649 E0.01210
G1 X125.156 Y68.681 E0.01022
G1 X125.118 Y68.306 F10800.000
G1 F1200.000
G1 X124.749 Y68.298 E0.01160
G1 X124.439 Y68.246 E0.00986
G1 X124.098 Y68.143 E0.01114
G1 X123.793 Y68.002 E0.01054
G1 X123.511 Y67.821 E0.01052
G1 X123.254 Y67.605 E0.01052
G1 X123.029 Y67.356 E0.01052
G1 X122.840 Y67.080 E0.01052
G1 X122.688 Y66.780 E0.01052
G1 X122.578 Y66.463 E0.01052
G1 X122.511 Y66.135 E0.01052
G1 X122.489 Y65.800 E0.01052
G1 X122.511 Y65.465 E0.01052
G1 X122.574 Y65.157 E0.00986
G1 X122.688 Y64.821 E0.01114
G1 X122.840 Y64.520 E0.01054
G1 X123.029 Y64.244 E0.01052
G1 X123.254 Y63.995 E0.01052
G1 X123.511 Y63.779 E0.01052
G1 X123.776 Y63.609 E0.00986
G1 X124.097 Y63.457 E0.01114
G1 X124.418 Y63.357 E0.01054
G1 X124.749 Y63.302 E0.01052
G1 X125.063 Y63.291 E0.00986
G1 X125.417 Y63.324 E0.01114
G1 X125.744 Y63.402 E0.01054
G1 X126.057 Y63.522 E0.01052
G1 X126.333 Y63.674 E0.00986
G1 X126.620 Y63.882 E0.01114
G1 X126.862 Y64.116 E0.01054
G1 X127.070 Y64.379 E0.01052
G1 X127.241 Y64.668 E0.01052
G1 X127.372 Y64.976 E0.01052
G1 X127.461 Y65.300 E0.01052
G1 X127.505 Y65.632 E0.01052
G1 X127.505 Y65.968 E0.01052
G1 X127.461 Y66.300 E0.01052
G1 X127.372 Y66.624 E0.01052
G1 X127.241 Y66.932 E0.01052
G1 X127.070 Y67.221 E0.01052
G1 X126.862 Y67.484 E0.01052
G1 X126.621 Y67.717 E0.01052
G1 X126.351 Y67.916 E0.01052
G1 X126.057 Y68.078 E0.01052
G1 X125.744 Y68.198 E0.01052
G1 X125.418 Y68.276 E0.01052
G1 X125.178 Y68.300 E0.00755
G1 X124.947 Y68.634 F10800.000
G1 F8640.000
G1 X124.749 Y68.298 E-0.09918
G1 X124.439 Y68.246 E-0.07262
G1 X124.098 Y68.143 E-0.08205
G1 X123.793 Y68.002 E-0.07765
G1 X123.511 Y67.821 E-0.07745
G1 X123.254 Y67.605 E-0.07745
G1 X123.029 Y67.356 E-0.07745
G1 X122.840 Y67.080 E-0.07745
G1 X122.688 Y66.780 E-0.07745
G1 X122.630 Y66.611 E-0.04126
G1 E-0.04000 F2100.00000
G1 Z0.600 F10800.000
G1 X131.234 Y70.402
G1 Z0.200
G1 E0.80000 F2100.00000
G1 F1200.000
G1 X131.302 Y70.798 E0.01262
G1 X131.413 Y71.185 E0.01262
G1 X131.567 Y71.557 E0.01262
G1 X131.762 Y71.909 E0.01262
G1 X131.995 Y72.237 E0.01262
G1 X132.263 Y72.537 E0.01262
G1 X132.563 Y72.805 E0.01262
G1 X132.891 Y73.038 E0.01262
G1 X133.225 Y73.223 E0.01198
G1 X133.613 Y73.386 E0.01320
G1 X134.002 Y73.498 E0.01267
G1 X134.398 Y73.566 E0.01262
G1 X134.778 Y73.587 E0.01192
G1 X136.425 Y73.601 E0.05165
G1 X136.648 Y73.639 E0.00707
G1 X136.864 Y73.701 E0.00707
G1 X137.073 Y73.788 E0.00707
G1 X137.270 Y73.897 E0.00707
G1 X137.454 Y74.027 E0.00707
G1 X137.622 Y74.178 E0.00707
G1 X137.773 Y74.346 E0.00707
G1 X137.903 Y74.530 E0.00707
G1 X138.012 Y74.727 E0.00707
G1 X138.099 Y74.936 E0.00707
G1 X138.161 Y75.152 E0.00707
G1 X138.199 Y75.375 E0.00707
G1 X138.213 Y75.622 E0.00777
G1 X138.213 Y134.378 E1.84225
G1 X138.199 Y134.625 E0.00777
G1 X138.161 Y134.848 E0.00707
G1 X138.099 Y135.064 E0.00707
G1 X138.012 Y135.273 E0.00707
G1 X137.903 Y135.470 E0.00707
G1 X137.773 Y135.654 E0.00707
G1 X137.622 Y135.822 E0.00707
G1 X137.454 Y135.973 E0.00707
G1 X137.270 Y136.103 E0.00707
G1 X137.073 Y136.212 E0.00707
G1 X136.864 Y136.299 E0.00707
G1 X136.648 Y136.361 E0.00707
G1 X136.425 Y136.399 E0.00707
G1 X134.778 Y136.413 E0.05165
G1 X134.398 Y136.434 E0.01192
G1 X134.002 Y136.502 E0.01262
G1 X133.615 Y136.613 E0.01262
G1 X133.243 Y136.767 E0.01262
G1 X132.891 Y136.962 E0.01262
G1 X132.563 Y137.195 E0.01262
G1 X132.263 Y137.463 E0.01262
G1 X131.995 Y137.763 E0.01262
G1 X131.762 Y138.091 E0.01262
G1 X131.567 Y138.443 E0.01262
G1 X131.413 Y138.815 E0.01262
G1 X131.302 Y139.202 E0.01262
G1 X131.234 Y139.598 E0.01262
G1 X131.213 Y139.978 E0.01192
G1 X131.213 Y148.378 E0.26338
G1 X131.199 Y148.625 E0.00777
G1 X131.161 Y148.848 E0.00707
G1 X131.099 Y149.064 E0.00707
G1 X131.012 Y149.273 E0.00707
G1 X130.903 Y149.470 E0.00707
G1 X130.773 Y149.654 E0.00707
G1 X130.622 Y149.822 E0.00707
G1 X130.454 Y149.973 E0.00707
G1 X130.270 Y150.103 E0.00707
G1 X130.073 Y150.212 E0.00707
G1 X129.864 Y150.299 E0.00707
G1 X129.648 Y150.361 E0.00707
G1 X129.425 Y150.399 E0.00707
G1 X129.178 Y150.413 E0.00777
G1 X120.822 Y150.413 E0.26199
G1 X120.575 Y150.399 E0.00777
G1 X120.352 Y150.361 E0.00707
G1 X120.136 Y150.299 E0.00707
G1 X119.927 Y150.212 E0.00707
G1 X119.730 Y150.103 E0.00707
G1 X119.546 Y149.973 E0.00707
G1 X119.378 Y149.822 E0.00707
G1 X119.227 Y149.654 E0.00707
G1 X119.097 Y149.470 E0.00707
G1 X118.988 Y149.273 E0.00707
G1 X118.901 Y149.064 E0.00707
G1 X118.839 Y148.848 E0.00707
G1 X118.801 Y148.625 E0.00707
G1 X118.787 Y148.378 E0.00777
G1 X118.787 Y139.978 E0.26338
G1 X118.766 Y139.598 E0.01192
G1 X118.698 Y139.202 E0.01262
G1 X118.587 Y138.815 E0.01262
G1 X118.433 Y138.443 E0.01262
G1 X118.238 Y138.091 E0.01262
G1 X118.005 Y137.763 E0.01262
G1 X117.737 Y137.463 E0.01262
G1 X117.437 Y137.195 E0.01262
G1 X117.109 Y136.962 E0.01262
G1 X116.757 Y136.767 E0.01262
G1 X116.385 Y136.613 E0.01262
G1 X115.998 Y136.502 E0.01262
G1 X115.602 Y136.434 E0.01262
G1 X115.222 Y136.413 E0.01192
G1 X113.575 Y136.399 E0.05165
G1 X113.352 Y136.361 E0.00707
G1 X113.136 Y136.299 E0.00707
G1 X112.927 Y136.212 E0.00707
G1 X112.730 Y136.103 E0.00707
G1 X112.546 Y135.973 E0.00707
G1 X112.378 Y135.822 E0.00707
G1 X112.227 Y135.654 E0.00707
G1 X112.097 Y135.470 E0.00707
G1 X111.988 Y135.273 E0.00707
G1 X111.901 Y135.064 E0.00707
G1 X111.839 Y134.848 E0.00707
G1 X111.801 Y134.625 E0.00707
G1 X111.787 Y134.378 E0.00777
G1 X111.787 Y75.622 E1.84225
G1 X111.801 Y75.375 E0.00777
G1 X111.839 Y75.152 E0.00707
G1 X111.901 Y74.936 E0.00707
G1 X111.988 Y74.727 E0.00707
G1 X112.097 Y74.530 E0.00707
G1 X112.227 Y74.346 E0.00707
G1 X112.378 Y74.178 E0.00707
G1 X112.546 Y74.027 E0.00707
G1 X112.730 Y73.897 E0.00707
G1 X112.927 Y73.788 E0.00707
G1 X113.136 Y73.701 E0.00707
G1 X113.352 Y73.639 E0.00707
G1 X113.575 Y73.601 E0.00707
G1 X115.222 Y73.587 E0.05165
G1 X115.602 Y73.566 E0.01192
G1 X115.998 Y73.498 E0.01262
G1 X116.385 Y73.387 E0.01262
G1 X116.757 Y73.233 E0.01262
G1 X117.109 Y73.038 E0.01262
G1 X117.437 Y72.805 E0.01262
G1 X117.737 Y72.537 E0.01262
G1 X118.005 Y72.237 E0.01262
G1 X118.238 Y71.909 E0.01262
G1 X118.433 Y71.557 E0.01262
G1 X118.587 Y71.185 E0.01262
G1 X118.698 Y70.798 E0.01262
G1 X118.766 Y70.402 E0.01262
G1 X118.787 Y70.022 E0.01192
G1 X118.787 Y61.622 E0.26338
G1 X118.801 Y61.375 E0.00777
G1 X118.839 Y61.152 E0.00707
G1 X118.901 Y60.936 E0.00707
G1 X118.988 Y60.727 E0.00707
G1 X119.097 Y60.530 E0.00707
G1 X119.227 Y60.346 E0.00707
G1 X119.378 Y60.178 E0.00707
G1 X119.546 Y60.027 E0.00707
G1 X119.730 Y59.897 E0.00707
G1 X119.927 Y59.788 E0.00707
G1 X120.136 Y59.701 E0.00707
G1 X120.352 Y59.639 E0.00707
G1 X120.575 Y59.601 E0.00707
G1 X120.822 Y59.587 E0.00777
G1 X129.178 Y59.587 E0.26199
G1 X129.425 Y59.601 E0.00777
G1 X129.648 Y59.639 E0.00707
G1 X129.864 Y59.701 E0.00707
G1 X130.073 Y59.788 E0.00707
G1 X130.270 Y59.897 E0.00707
G1 X130.454 Y60.027 E0.00707
G1 X130.622 Y60.178 E0.00707
G1 X130.773 Y60.346 E0.00707
G1 X130.903 Y60.530 E0.00707
G1 X131.012 Y60.727 E0.00707
G1 X131.099 Y60.936 E0.00707
G1 X131.161 Y61.152 E0.00707
G1 X131.199 Y61.375 E0.00707
G1 X131.213 Y61.622 E0.00777
G1 X131.213 Y70.022 E0.26338
G1 X131.231 Y70.342 E0.01004
G1 X131.607 Y70.321 F10800.000
G1 F1200.000
G1 X131.670 Y70.714 E0.01250
G1 X131.770 Y71.060 E0.01129
G1 X131.907 Y71.393 E0.01129
G1 X132.081 Y71.708 E0.01129
G1 X132.290 Y72.002 E0.01129
G1 X132.530 Y72.270 E0.01129
G1 X132.798 Y72.510 E0.01129
G1 X133.092 Y72.719 E0.01129
G1 X133.390 Y72.883 E0.01068
G1 X133.739 Y73.030 E0.01187
G1 X134.086 Y73.130 E0.01131
G1 X134.441 Y73.190 E0.01129
G1 X134.788 Y73.210 E0.01093
G1 X136.188 Y73.210 E0.04390
G1 X136.468 Y73.226 E0.00876
G1 X136.732 Y73.271 E0.00840
G1 X136.989 Y73.345 E0.00840
G1 X137.237 Y73.447 E0.00840
G1 X137.471 Y73.577 E0.00840
G1 X137.690 Y73.732 E0.00840
G1 X137.890 Y73.910 E0.00840
G1 X138.068 Y74.110 E0.00840
G1 X138.223 Y74.329 E0.00840
G1 X138.353 Y74.563 E0.00840
G1 X138.455 Y74.811 E0.00840
G1 X138.529 Y75.068 E0.00840
G1 X138.574 Y75.332 E0.00840
G1 X138.590 Y75.612 E0.00876
G1 X138.590 Y134.388 E1.84291
G1 X138.574 Y134.668 E0.00876
G1 X138.529 Y134.932 E0.00840
G1 X138.455 Y135.189 E0.00840
G1 X138.353 Y135.437 E0.00840
G1 X138.223 Y135.671 E0.00840
G1 X138.068 Y135.890 E0.00840
G1 X137.890 Y136.090 E0.00840
G1 X137.690 Y136.268 E0.00840
G1 X137.471 Y136.423 E0.00840
G1 X137.237 Y136.553 E0.00840
G1 X136.989 Y136.655 E0.00840
G1 X136.732 Y136.729 E0.00840
G1 X136.468 Y136.774 E0.00840
G1 X136.188 Y136.790 E0.00876
G1 X134.788 Y136.790 E0.04390
G1 X134.441 Y136.810 E0.01093
