; generated by PrusaSlicer 2.2.0+win64 on 2021-10-13 at 08:44:27 UTC

; 

; external perimeters extrusion width = 0.45mm
; perimeters extrusion width = 0.45mm
; infill extrusion width = 0.45mm
; solid infill extrusion width = 0.45mm
; top infill extrusion width = 0.40mm
; first layer extrusion width = 0.42mm

M73 P0 R42
M201 X9000 Y9000 Z500 E10000 ; sets maximum accelerations, mm/sec^2
M203 X500 Y500 Z12 E120 ; sets maximum feedrates, mm/sec
M204 P2000 R1500 T2000 ; sets acceleration (P, T) and retract acceleration (R), mm/sec^2
M205 X10.00 Y10.00 Z0.20 E2.50 ; sets the jerk limits, mm/sec
M205 S0 T0 ; sets the minimum extruding and travel feed rate, mm/sec
M107
M862.3 P "MK2S" ; printer model check
M862.1 P0.4 ; nozzle diameter check
M115 U3.2.3 ; tell printer latest fw version
G90 ; use absolute coordinates
M83 ; extruder relative mode
M204 S2000 T1500 ; MK2 firmware only supports the old M204 format
M104 S255 ; set extruder temp
M140 S100 ; set bed temp
M190 S100 ; wait for bed temp
M109 S255 ; wait for extruder temp
G28 W ; home all without mesh bed level
G80 ; mesh bed leveling
G1 Y-3.0 F1000.0 ; go outside print area
G92 E0.0
G1 X60.0 E9.0  F1000.0 ; intro line
M73 P0 R42
G1 X100.0 E12.5 F1000.0 ; intro line
G92 E0.0
G21 ; set units to millimeters
G90 ; use absolute coordinates
M83 ; use relative distances for extrusion
M900 K0.04 ; Filament gcode LA 1.5
M900 K20 ; Filament gcode LA 1.0
;BEFORE_LAYER_CHANGE
G92 E0.0
;0.2


G1 E-0.80000 F2100.00000
G1 Z0.400 F10800.000
;AFTER_LAYER_CHANGE
;0.2
G1 X121.453 Y69.658
G1 Z0.200
G1 E0.80000 F2100.00000
M204 S1000
G1 F1200.000
G1 X128.004 Y69.623 E0.20539
G1 X129.007 Y69.741 E0.03168
G1 X130.000 Y70.108 E0.03319
G1 X131.004 Y70.818 E0.03856
G1 X131.660 Y71.601 E0.03203
G1 X136.943 Y82.100 E0.36851
G1 X137.163 Y82.652 E0.01864
G1 X137.332 Y83.382 E0.02348
G1 X137.355 Y126.441 E1.35009
G1 X137.239 Y127.085 E0.02051
G1 X136.952 Y127.882 E0.02657
G1 X131.923 Y137.941 E0.35261
G1 X131.434 Y138.714 E0.02868
G1 X130.817 Y139.349 E0.02776
G1 X129.812 Y139.983 E0.03724
G1 X129.077 Y140.241 E0.02442
G1 X128.486 Y140.350 E0.01885
G1 X121.559 Y140.355 E0.21719
G1 X120.580 Y140.140 E0.03145
G1 X119.691 Y139.718 E0.03085
G1 X118.916 Y139.106 E0.03097
G1 X118.310 Y138.354 E0.03026
G1 X113.055 Y127.897 E0.36697
G1 X112.836 Y127.344 E0.01864
G1 X112.665 Y126.599 E0.02396
G1 X112.645 Y83.559 E1.34950
G1 X112.765 Y82.901 E0.02099
G1 X113.070 Y82.074 E0.02764
G1 X118.095 Y72.025 E0.35226
G1 X118.529 Y71.334 E0.02559
G1 X118.988 Y70.826 E0.02146
G1 X119.585 Y70.350 E0.02396
G1 X120.108 Y70.053 E0.01885
G1 X120.670 Y69.831 E0.01896
G1 X121.395 Y69.671 E0.02327
; printing object cable_holder.stl id:0 copy 0
G1 F8640.000
G1 X124.686 Y69.647 E-0.76000
G1 E-0.04000 F2100.00000
G1 Z0.600 F10800.000
G1 X124.771 Y130.723
G1 Z0.200
G1 E0.80000 F2100.00000
G1 F1200.000
G1 X125.053 Y130.713 E0.00886
G1 X125.378 Y130.742 E0.01021
G1 X125.678 Y130.814 E0.00969
G1 X125.963 Y130.924 E0.00959
G1 X126.232 Y131.071 E0.00959
G1 X126.478 Y131.252 E0.00959
G1 X126.698 Y131.465 E0.00959
G1 X126.873 Y131.686 E0.00886
G1 X127.042 Y131.965 E0.01021
G1 X127.162 Y132.249 E0.00969
G1 X127.243 Y132.544 E0.00959
G1 X127.284 Y132.847 E0.00959
G1 X127.284 Y133.153 E0.00959
G1 X127.243 Y133.456 E0.00959
G1 X127.162 Y133.751 E0.00959
G1 X127.043 Y134.032 E0.00959
G1 X126.887 Y134.295 E0.00959
G1 X126.698 Y134.535 E0.00959
G1 X126.478 Y134.748 E0.00959
G1 X126.232 Y134.929 E0.00959
G1 X125.963 Y135.076 E0.00959
G1 X125.678 Y135.186 E0.00959
G1 X125.381 Y135.257 E0.00959
G1 X125.076 Y135.288 E0.00959
G1 X124.771 Y135.277 E0.00959
G1 X124.469 Y135.226 E0.00959
G1 X124.177 Y135.136 E0.00959
G1 X123.900 Y135.007 E0.00959
G1 X123.642 Y134.843 E0.00959
G1 X123.409 Y134.645 E0.00959
G1 X123.204 Y134.419 E0.00959
G1 X123.044 Y134.186 E0.00886
G1 X122.894 Y133.897 E0.01021
G1 X122.792 Y133.605 E0.00969
G1 X122.732 Y133.305 E0.00959
G1 X122.711 Y133.000 E0.00959
G1 X122.732 Y132.695 E0.00959
G1 X122.792 Y132.395 E0.00959
G1 X122.893 Y132.106 E0.00959
G1 X123.031 Y131.834 E0.00959
G1 X123.204 Y131.581 E0.00959
G1 X123.409 Y131.355 E0.00959
G1 X123.642 Y131.157 E0.00959
G1 X123.880 Y131.005 E0.00886
G1 X124.174 Y130.865 E0.01021
G1 X124.469 Y130.774 E0.00969
G1 X124.712 Y130.733 E0.00771
G1 X124.774 Y131.104 F10800.000
G1 F1200.000
G1 X125.043 Y131.091 E0.00842
G1 X125.317 Y131.115 E0.00863
G1 X125.566 Y131.175 E0.00804
G1 X125.804 Y131.267 E0.00800
G1 X126.028 Y131.389 E0.00800
G1 X126.234 Y131.541 E0.00800
G1 X126.417 Y131.718 E0.00800
G1 X126.562 Y131.902 E0.00734
G1 X126.705 Y132.137 E0.00863
G1 X126.805 Y132.373 E0.00804
G1 X126.873 Y132.619 E0.00800
G1 X126.907 Y132.872 E0.00800
G1 X126.907 Y133.128 E0.00800
G1 X126.873 Y133.381 E0.00800
G1 X126.805 Y133.627 E0.00800
G1 X126.706 Y133.862 E0.00800
G1 X126.575 Y134.081 E0.00800
G1 X126.417 Y134.282 E0.00800
G1 X126.234 Y134.459 E0.00800
G1 X126.028 Y134.611 E0.00800
G1 X125.804 Y134.733 E0.00800
G1 X125.566 Y134.825 E0.00800
G1 X125.318 Y134.884 E0.00800
G1 X125.064 Y134.910 E0.00800
G1 X124.809 Y134.901 E0.00800
G1 X124.557 Y134.859 E0.00800
G1 X124.313 Y134.783 E0.00800
G1 X124.082 Y134.676 E0.00800
G1 X123.866 Y134.538 E0.00800
G1 X123.672 Y134.374 E0.00800
G1 X123.500 Y134.184 E0.00800
G1 X123.368 Y133.991 E0.00734
G1 X123.241 Y133.747 E0.00863
G1 X123.157 Y133.505 E0.00804
G1 X123.106 Y133.255 E0.00800
G1 X123.089 Y133.000 E0.00800
G1 X123.106 Y132.745 E0.00800
G1 X123.157 Y132.495 E0.00800
G1 X123.241 Y132.254 E0.00800
G1 X123.356 Y132.026 E0.00800
G1 X123.500 Y131.816 E0.00800
G1 X123.672 Y131.626 E0.00800
G1 X123.866 Y131.462 E0.00800
G1 X124.064 Y131.336 E0.00734
G1 X124.312 Y131.217 E0.00863
G1 X124.557 Y131.141 E0.00804
G1 X124.715 Y131.114 E0.00503
G1 X124.882 Y130.858 F10800.000
G1 F8640.000
G1 X125.043 Y131.091 E-0.07579
G1 X125.317 Y131.115 E-0.06354
G1 X125.566 Y131.175 E-0.05921
G1 X125.804 Y131.267 E-0.05894
G1 X126.028 Y131.389 E-0.05894
G1 X126.234 Y131.541 E-0.05894
G1 X126.417 Y131.718 E-0.05894
G1 X126.562 Y131.902 E-0.05405
G1 X126.705 Y132.137 E-0.06354
G1 X126.805 Y132.373 E-0.05921
G1 X126.873 Y132.619 E-0.05894
G1 X126.907 Y132.872 E-0.05894
G1 X126.907 Y133.007 E-0.03102
G1 E-0.04000 F2100.00000
G1 Z0.600 F10800.000
G1 X125.080 Y79.288
G1 Z0.200
G1 E0.80000 F2100.00000
G1 F1200.000
G1 X124.771 Y79.277 E0.00969
G1 X124.469 Y79.226 E0.00959
G1 X124.177 Y79.136 E0.00959
G1 X123.900 Y79.007 E0.00959
G1 X123.642 Y78.843 E0.00959
G1 X123.409 Y78.645 E0.00959
G1 X123.204 Y78.419 E0.00959
G1 X123.044 Y78.186 E0.00886
G1 X122.894 Y77.897 E0.01021
G1 X122.792 Y77.605 E0.00969
G1 X122.732 Y77.305 E0.00959
G1 X122.711 Y77.000 E0.00959
G1 X122.732 Y76.695 E0.00959
G1 X122.792 Y76.395 E0.00959
G1 X122.893 Y76.106 E0.00959
G1 X123.031 Y75.834 E0.00959
G1 X123.204 Y75.581 E0.00959
G1 X123.409 Y75.355 E0.00959
G1 X123.642 Y75.157 E0.00959
G1 X123.880 Y75.005 E0.00886
G1 X124.174 Y74.865 E0.01021
G1 X124.469 Y74.774 E0.00969
G1 X124.771 Y74.723 E0.00959
G1 X125.053 Y74.713 E0.00886
G1 X125.378 Y74.742 E0.01021
G1 X125.678 Y74.814 E0.00969
G1 X125.963 Y74.924 E0.00959
G1 X126.232 Y75.071 E0.00959
G1 X126.478 Y75.252 E0.00959
G1 X126.698 Y75.465 E0.00959
G1 X126.887 Y75.705 E0.00959
G1 X127.043 Y75.968 E0.00959
G1 X127.162 Y76.249 E0.00959
G1 X127.243 Y76.544 E0.00959
G1 X127.284 Y76.847 E0.00959
G1 X127.284 Y77.153 E0.00959
G1 X127.243 Y77.456 E0.00959
G1 X127.162 Y77.751 E0.00959
G1 X127.043 Y78.032 E0.00959
G1 X126.887 Y78.295 E0.00959
G1 X126.698 Y78.535 E0.00959
G1 X126.478 Y78.748 E0.00959
G1 X126.232 Y78.929 E0.00959
G1 X125.963 Y79.076 E0.00959
G1 X125.678 Y79.186 E0.00959
G1 X125.403 Y79.252 E0.00886
G1 X125.139 Y79.281 E0.00833
G1 X125.098 Y78.906 F10800.000
G1 F1200.000
G1 X124.809 Y78.901 E0.00906
G1 X124.557 Y78.859 E0.00800
G1 X124.313 Y78.783 E0.00800
G1 X124.082 Y78.676 E0.00800
G1 X123.866 Y78.538 E0.00800
G1 X123.672 Y78.374 E0.00800
G1 X123.500 Y78.184 E0.00800
G1 X123.368 Y77.991 E0.00734
G1 X123.241 Y77.747 E0.00863
G1 X123.157 Y77.505 E0.00804
G1 X123.106 Y77.255 E0.00800
G1 X123.089 Y77.000 E0.00800
G1 X123.106 Y76.745 E0.00800
G1 X123.157 Y76.495 E0.00800
G1 X123.241 Y76.254 E0.00800
G1 X123.356 Y76.026 E0.00800
G1 X123.500 Y75.816 E0.00800
G1 X123.672 Y75.626 E0.00800
G1 X123.866 Y75.462 E0.00800
G1 X124.064 Y75.336 E0.00734
G1 X124.312 Y75.217 E0.00863
G1 X124.557 Y75.141 E0.00804
G1 X124.809 Y75.099 E0.00800
G1 X125.043 Y75.091 E0.00734
G1 X125.317 Y75.115 E0.00863
G1 X125.566 Y75.175 E0.00804
G1 X125.804 Y75.267 E0.00800
G1 X126.028 Y75.389 E0.00800
G1 X126.234 Y75.541 E0.00800
G1 X126.417 Y75.718 E0.00800
G1 X126.575 Y75.919 E0.00800
G1 X126.706 Y76.138 E0.00800
G1 X126.805 Y76.373 E0.00800
G1 X126.873 Y76.619 E0.00800
G1 X126.907 Y76.872 E0.00800
G1 X126.907 Y77.128 E0.00800
G1 X126.873 Y77.381 E0.00800
G1 X126.805 Y77.627 E0.00800
G1 X126.706 Y77.862 E0.00800
G1 X126.575 Y78.081 E0.00800
G1 X126.417 Y78.282 E0.00800
G1 X126.234 Y78.459 E0.00800
G1 X126.028 Y78.611 E0.00800
G1 X125.804 Y78.733 E0.00800
G1 X125.566 Y78.825 E0.00800
G1 X125.338 Y78.879 E0.00734
G1 X125.157 Y78.900 E0.00572
G1 X124.965 Y79.163 F10800.000
G1 F8640.000
G1 X124.809 Y78.901 E-0.08045
G1 X124.557 Y78.859 E-0.05894
G1 X124.313 Y78.783 E-0.05894
G1 X124.082 Y78.676 E-0.05894
G1 X123.866 Y78.538 E-0.05894
G1 X123.672 Y78.374 E-0.05894
G1 X123.500 Y78.184 E-0.05894
G1 X123.368 Y77.991 E-0.05405
G1 X123.241 Y77.747 E-0.06354
G1 X123.157 Y77.505 E-0.05921
G1 X123.106 Y77.255 E-0.05894
G1 X123.089 Y77.000 E-0.05894
G1 X123.098 Y76.865 E-0.03122
G1 E-0.04000 F2100.00000
G1 Z0.600 F10800.000
G1 X129.084 Y73.460
G1 Z0.200
G1 E0.80000 F2100.00000
G1 F1200.000
G1 X129.179 Y73.731 E0.00900
G1 X129.213 Y74.038 E0.00970
G1 X129.213 Y80.022 E0.18762
G1 X129.229 Y80.312 E0.00911
G1 X129.282 Y80.620 E0.00980
G1 X129.368 Y80.921 E0.00980
G1 X129.488 Y81.210 E0.00980
G1 X129.639 Y81.483 E0.00980
G1 X129.820 Y81.738 E0.00980
G1 X130.028 Y81.972 E0.00980
G1 X130.262 Y82.180 E0.00980
G1 X130.517 Y82.361 E0.00980
G1 X130.772 Y82.502 E0.00914
G1 X131.077 Y82.631 E0.01039
G1 X131.380 Y82.718 E0.00988
G1 X131.699 Y82.773 E0.01016
G1 X133.130 Y82.798 E0.04488
G1 X133.399 Y82.859 E0.00865
G1 X133.643 Y82.976 E0.00849
G1 X133.855 Y83.145 E0.00849
G1 X134.024 Y83.357 E0.00849
G1 X134.141 Y83.601 E0.00849
G1 X134.201 Y83.865 E0.00849
G1 X134.201 Y126.135 E1.32537
G1 X134.141 Y126.399 E0.00849
G1 X134.024 Y126.643 E0.00849
G1 X133.855 Y126.855 E0.00849
G1 X133.643 Y127.024 E0.00849
G1 X133.399 Y127.141 E0.00849
G1 X133.130 Y127.202 E0.00865
G1 X131.699 Y127.227 E0.04488
G1 X131.380 Y127.282 E0.01016
G1 X131.079 Y127.368 E0.00980
G1 X130.790 Y127.488 E0.00980
G1 X130.517 Y127.639 E0.00980
G1 X130.262 Y127.820 E0.00980
G1 X130.028 Y128.028 E0.00980
G1 X129.820 Y128.262 E0.00980
G1 X129.639 Y128.517 E0.00980
G1 X129.488 Y128.790 E0.00980
G1 X129.368 Y129.079 E0.00980
G1 X129.282 Y129.380 E0.00980
G1 X129.229 Y129.688 E0.00980
G1 X129.213 Y129.977 E0.00909
G1 X129.201 Y136.135 E0.19306
G1 X129.137 Y136.415 E0.00903
G1 X129.098 Y136.510 E0.00322
G1 X128.945 Y136.754 E0.00901
G1 X128.754 Y136.945 E0.00849
G1 X128.510 Y137.098 E0.00901
G1 X128.415 Y137.137 E0.00322
G1 X128.119 Y137.205 E0.00953
G1 X127.978 Y137.213 E0.00442
G1 X121.865 Y137.201 E0.19168
G1 X121.585 Y137.137 E0.00903
G1 X121.490 Y137.098 E0.00322
G1 X121.232 Y136.936 E0.00953
G1 X121.156 Y136.868 E0.00322
G1 X120.966 Y136.630 E0.00953
G1 X120.916 Y136.540 E0.00322
G1 X120.821 Y136.269 E0.00900
G1 X120.787 Y135.962 E0.00970
G1 X120.787 Y129.978 E0.18762
G1 X120.771 Y129.688 E0.00911
G1 X120.718 Y129.380 E0.00980
G1 X120.632 Y129.079 E0.00980
G1 X120.512 Y128.790 E0.00980
G1 X120.361 Y128.517 E0.00980
G1 X120.180 Y128.262 E0.00980
G1 X119.972 Y128.028 E0.00980
G1 X119.738 Y127.820 E0.00980
G1 X119.483 Y127.639 E0.00980
G1 X119.228 Y127.498 E0.00914
G1 X118.923 Y127.369 E0.01039
G1 X118.620 Y127.282 E0.00988
G1 X118.301 Y127.227 E0.01016
G1 X116.870 Y127.202 E0.04488
G1 X116.601 Y127.141 E0.00865
G1 X116.357 Y127.024 E0.00849
G1 X116.145 Y126.855 E0.00849
G1 X115.976 Y126.643 E0.00849
G1 X115.859 Y126.399 E0.00849
G1 X115.799 Y126.135 E0.00849
G1 X115.799 Y83.865 E1.32537
G1 X115.859 Y83.601 E0.00849
G1 X115.976 Y83.357 E0.00849
G1 X116.145 Y83.145 E0.00849
G1 X116.357 Y82.976 E0.00849
G1 X116.601 Y82.859 E0.00849
G1 X116.870 Y82.798 E0.00865
G1 X118.301 Y82.773 E0.04488
G1 X118.620 Y82.718 E0.01016
G1 X118.921 Y82.632 E0.00980
G1 X119.210 Y82.512 E0.00980
G1 X119.483 Y82.361 E0.00980
G1 X119.738 Y82.180 E0.00980
G1 X119.972 Y81.972 E0.00980
G1 X120.180 Y81.738 E0.00980
G1 X120.361 Y81.483 E0.00980
G1 X120.512 Y81.210 E0.00980
G1 X120.632 Y80.921 E0.00980
G1 X120.718 Y80.620 E0.00980
G1 X120.771 Y80.312 E0.00980
G1 X120.787 Y80.023 E0.00909
G1 X120.799 Y73.865 E0.19306
G1 X120.859 Y73.601 E0.00851
G1 X120.976 Y73.357 E0.00849
G1 X121.156 Y73.132 E0.00901
G1 X121.232 Y73.064 E0.00322
G1 X121.490 Y72.902 E0.00953
G1 X121.585 Y72.863 E0.00322
G1 X121.881 Y72.795 E0.00953
G1 X122.022 Y72.787 E0.00442
G1 X128.135 Y72.799 E0.19168
G1 X128.415 Y72.863 E0.00903
G1 X128.510 Y72.902 E0.00322
G1 X128.768 Y73.064 E0.00953
G1 X128.844 Y73.132 E0.00322
G1 X129.055 Y73.407 E0.01086
G1 X129.385 Y73.225 F10800.000
G1 F1200.000
G1 X129.549 Y73.646 E0.01418
G1 X129.590 Y74.017 E0.01170
G1 X129.590 Y80.012 E0.18794
G1 X129.605 Y80.270 E0.00811
G1 X129.650 Y80.536 E0.00848
G1 X129.725 Y80.796 E0.00848
G1 X129.828 Y81.046 E0.00848
G1 X129.959 Y81.283 E0.00848
G1 X130.115 Y81.503 E0.00848
G1 X130.295 Y81.705 E0.00848
G1 X130.497 Y81.885 E0.00848
G1 X130.717 Y82.041 E0.00848
G1 X130.937 Y82.162 E0.00786
G1 X131.203 Y82.275 E0.00906
G1 X131.464 Y82.350 E0.00850
G1 X131.734 Y82.396 E0.00860
G1 X133.176 Y82.421 E0.04522
G1 X133.525 Y82.501 E0.01121
G1 X133.845 Y82.655 E0.01115
G1 X134.123 Y82.877 E0.01115
G1 X134.345 Y83.155 E0.01115
G1 X134.499 Y83.475 E0.01115
G1 X134.578 Y83.822 E0.01115
G1 X134.578 Y126.178 E1.32803
G1 X134.499 Y126.525 E0.01115
G1 X134.345 Y126.845 E0.01115
G1 X134.123 Y127.123 E0.01115
G1 X133.845 Y127.345 E0.01115
G1 X133.525 Y127.499 E0.01115
G1 X133.176 Y127.579 E0.01121
G1 X131.734 Y127.604 E0.04522
G1 X131.464 Y127.650 E0.00860
G1 X131.204 Y127.725 E0.00848
G1 X130.954 Y127.828 E0.00848
G1 X130.717 Y127.959 E0.00848
G1 X130.497 Y128.115 E0.00848
G1 X130.295 Y128.295 E0.00848
G1 X130.115 Y128.497 E0.00848
G1 X129.959 Y128.717 E0.00848
G1 X129.828 Y128.954 E0.00848
G1 X129.725 Y129.204 E0.00848
G1 X129.650 Y129.464 E0.00848
G1 X129.605 Y129.730 E0.00848
G1 X129.590 Y129.988 E0.00811
G1 X129.578 Y136.178 E0.19406
G1 X129.498 Y136.530 E0.01134
G1 X129.434 Y136.684 E0.00522
G1 X129.242 Y136.990 E0.01134
G1 X128.990 Y137.242 E0.01115
G1 X128.684 Y137.434 E0.01134
G1 X128.530 Y137.498 E0.00522
G1 X128.172 Y137.580 E0.01153
G1 X127.989 Y137.590 E0.00576
G1 X121.822 Y137.578 E0.19334
G1 X121.470 Y137.498 E0.01134
G1 X121.316 Y137.434 E0.00522
G1 X121.005 Y137.239 E0.01153
G1 X120.881 Y137.128 E0.00522
G1 X120.651 Y136.840 E0.01153
G1 X120.571 Y136.695 E0.00522
G1 X120.451 Y136.354 E0.01134
G1 X120.410 Y135.983 E0.01170
G1 X120.410 Y129.988 E0.18794
G1 X120.395 Y129.730 E0.00811
G1 X120.350 Y129.464 E0.00848
G1 X120.275 Y129.204 E0.00848
G1 X120.172 Y128.954 E0.00848
G1 X120.041 Y128.717 E0.00848
G1 X119.885 Y128.497 E0.00848
G1 X119.705 Y128.295 E0.00848
G1 X119.503 Y128.115 E0.00848
G1 X119.283 Y127.959 E0.00848
G1 X119.063 Y127.838 E0.00786
G1 X118.797 Y127.725 E0.00906
G1 X118.536 Y127.650 E0.00850
G1 X118.266 Y127.604 E0.00860
G1 X116.824 Y127.579 E0.04522
G1 X116.475 Y127.499 E0.01121
G1 X116.155 Y127.345 E0.01115
G1 X115.877 Y127.123 E0.01115
G1 X115.655 Y126.845 E0.01115
G1 X115.501 Y126.525 E0.01115
G1 X115.422 Y126.178 E0.01115
G1 X115.422 Y83.822 E1.32803
G1 X115.501 Y83.475 E0.01115
G1 X115.655 Y83.155 E0.01115
G1 X115.877 Y82.877 E0.01115
G1 X116.155 Y82.655 E0.01115
G1 X116.475 Y82.501 E0.01115
G1 X116.824 Y82.421 E0.01121
G1 X118.266 Y82.396 E0.04522
G1 X118.536 Y82.350 E0.00860
G1 X118.796 Y82.275 E0.00848
G1 X119.046 Y82.172 E0.00848
G1 X119.283 Y82.041 E0.00848
G1 X119.503 Y81.885 E0.00848
