; generated by PrusaSlicer 2.2.0+win64 on 2021-10-13 at 12:15:21 UTC

; 

; external perimeters extrusion width = 0.45mm
; perimeters extrusion width = 0.45mm
; infill extrusion width = 0.45mm
; solid infill extrusion width = 0.45mm
; top infill extrusion width = 0.40mm
; support material extrusion width = 0.35mm
; first layer extrusion width = 0.42mm

M73 P0 R62
M201 X9000 Y9000 Z500 E10000 ; sets maximum accelerations, mm/sec^2
M203 X500 Y500 Z12 E120 ; sets maximum feedrates, mm/sec
M204 P2000 R1500 T2000 ; sets acceleration (P, T) and retract acceleration (R), mm/sec^2
M205 X10.00 Y10.00 Z0.20 E2.50 ; sets the jerk limits, mm/sec
M205 S0 T0 ; sets the minimum extruding and travel feed rate, mm/sec
M107
M862.3 P "MK2S" ; printer model check
M862.1 P0.4 ; nozzle diameter check
M115 U3.2.3 ; tell printer latest fw version
G90 ; use absolute coordinates
M83 ; extruder relative mode
M204 S2000 T1500 ; MK2 firmware only supports the old M204 format
M104 S255 ; set extruder temp
M140 S100 ; set bed temp
M190 S100 ; wait for bed temp
M109 S255 ; wait for extruder temp
G28 W ; home all without mesh bed level
G80 ; mesh bed leveling
G1 Y-3.0 F1000.0 ; go outside print area
G92 E0.0
G1 X60.0 E9.0  F1000.0 ; intro line
M73 P0 R62
G1 X100.0 E12.5 F1000.0 ; intro line
G92 E0.0
G21 ; set units to millimeters
G90 ; use absolute coordinates
M83 ; use relative distances for extrusion
M900 K0.04 ; Filament gcode LA 1.5
M900 K20 ; Filament gcode LA 1.0
;BEFORE_LAYER_CHANGE
G92 E0.0
;0.2


G1 E-0.80000 F2100.00000
G1 Z0.400 F10800.000
;AFTER_LAYER_CHANGE
;0.2
G1 X86.238 Y91.094
G1 Z0.200
G1 E0.80000 F2100.00000
M204 S1000
G1 F1200.000
G1 X86.774 Y90.629 E0.02225
G1 X87.428 Y90.342 E0.02237
G1 X88.041 Y90.260 E0.01941
G1 X145.366 Y90.260 E1.79738
G1 X162.214 Y90.444 E0.52828
G1 X162.934 Y90.641 E0.02343
G1 X163.558 Y91.053 E0.02343
G1 X164.023 Y91.638 E0.02343
G1 X164.284 Y92.338 E0.02343
G1 X164.331 Y105.858 E0.42392
G1 X164.268 Y106.371 E0.01621
G1 X164.097 Y106.855 E0.01609
G1 X163.651 Y107.492 E0.02437
G1 X152.307 Y118.889 E0.50419
G1 X151.820 Y119.258 E0.01917
G1 X151.257 Y119.489 E0.01906
G1 X150.644 Y119.570 E0.01941
G1 X98.495 Y119.524 E1.63509
G1 X97.821 Y119.278 E0.02249
G1 X97.252 Y118.842 E0.02249
G1 X86.291 Y107.261 E0.49995
G1 X85.962 Y106.801 E0.01775
G1 X85.751 Y106.275 E0.01775
G1 X85.669 Y105.669 E0.01917
G1 X85.682 Y92.390 E0.41636
G1 X85.862 Y91.700 E0.02237
G1 X86.207 Y91.145 E0.02049
; printing object Cable Holder.stl id:0 copy 0
G1 F8640.000
G1 X86.774 Y90.629 E-0.17713
G1 X87.428 Y90.342 E-0.16472
G1 X88.041 Y90.260 E-0.14295
G1 X89.233 Y90.260 E-0.27519
G1 E-0.04000 F2100.00000
G1 Z0.600 F10800.000
G1 X88.046 Y92.637
G1 Z0.200
G1 E0.80000 F2100.00000
G1 F1200.000
G1 X88.046 Y105.658 E0.40826
G1 X88.800 Y105.658 E0.02365
G1 X88.800 Y92.807 E0.40294
G1 X89.555 Y92.807 E0.02365
G1 X89.555 Y105.658 E0.40294
G1 X90.309 Y105.658 E0.02365
G1 X90.309 Y92.807 E0.40294
G1 X91.063 Y92.807 E0.02365
G1 X91.063 Y105.658 E0.40294
G1 X91.817 Y105.658 E0.02365
G1 X91.817 Y92.807 E0.40294
G1 X92.571 Y92.807 E0.02365
G1 X92.571 Y105.658 E0.40294
G1 X93.325 Y105.658 E0.02365
G1 X93.325 Y92.807 E0.40294
G1 X94.079 Y92.807 E0.02365
G1 X94.079 Y105.658 E0.40294
G1 X94.834 Y105.658 E0.02365
G1 X94.834 Y92.807 E0.40294
G1 X95.588 Y92.807 E0.02365
G1 X95.588 Y105.658 E0.40294
G1 X96.342 Y105.658 E0.02365
G1 X96.342 Y92.807 E0.40294
G1 X97.096 Y92.807 E0.02365
G1 X97.096 Y105.658 E0.40294
G1 X97.850 Y105.658 E0.02365
G1 X97.850 Y92.807 E0.40294
G1 X98.604 Y92.807 E0.02365
G1 X98.604 Y105.658 E0.40294
G1 X98.964 Y105.658 E0.01128
G1 X98.964 Y117.193 E0.36168
G1 X99.359 Y117.193 E0.01236
G1 X99.359 Y92.807 E0.76462
G1 X100.113 Y92.807 E0.02365
G1 X100.113 Y95.430 E0.08224
G1 X100.867 Y95.430 E0.02365
G1 X100.867 Y92.807 E0.08224
G1 X101.621 Y92.807 E0.02365
G1 X101.621 Y95.430 E0.08224
G1 X102.271 Y95.430 E0.02039
G1 X102.271 Y95.592 E0.00509
G1 X102.375 Y95.592 E0.00326
G1 X102.375 Y92.807 E0.08733
G1 X103.129 Y92.807 E0.02365
G1 X103.129 Y95.592 E0.08733
G1 X103.884 Y95.592 E0.02365
G1 X103.884 Y92.807 E0.08733
G1 X104.638 Y92.807 E0.02365
G1 X104.638 Y95.762 E0.09265
G1 F8640.000
G1 X104.638 Y92.807 E-0.68229
G1 X104.301 Y92.807 E-0.07771
G1 E-0.04000 F2100.00000
G1 Z0.600 F10800.000
G1 X99.646 Y98.217
G1 Z0.200
G1 E0.80000 F2100.00000
G1 F1200.000
G1 X99.646 Y95.772 E0.06244
G1 X100.153 Y95.772 E0.01295
G1 X100.153 Y98.217 E0.06244
G1 F8640.000
G1 X100.153 Y95.772 E-0.56463
G1 X99.646 Y95.772 E-0.11709
G1 X99.646 Y96.111 E-0.07828
G1 E-0.04000 F2100.00000
G1 Z0.600 F10800.000
G1 X101.674 Y102.831
G1 Z0.200
G1 E0.80000 F2100.00000
G1 F1200.000
G1 X101.674 Y102.384 E0.01142
G1 X101.167 Y102.384 E0.01295
G1 X101.167 Y102.693 E0.00789
G1 X100.660 Y102.693 E0.01295
G1 X100.660 Y102.243 E0.01149
G1 X100.580 Y102.162 E0.00291
G1 X100.580 Y100.386 E0.04536
G1 X100.153 Y100.386 E0.01089
G1 X100.153 Y102.693 E0.05891
G1 X99.646 Y102.693 E0.01295
G1 X99.646 Y100.248 E0.06244
G1 X100.113 Y100.213 F10800.000
G1 F1200.000
G1 X100.113 Y98.421 E0.05621
G1 X100.867 Y98.421 E0.02365
G1 X100.867 Y102.206 E0.11867
G1 X100.113 Y102.865 F10800.000
G1 F1200.000
G1 X100.113 Y117.193 E0.44924
G1 X100.867 Y117.193 E0.02365
G1 X100.867 Y103.035 E0.44392
G1 X101.621 Y103.035 E0.02365
G1 X101.621 Y117.193 E0.44392
G1 X102.375 Y117.193 E0.02365
G1 X102.375 Y102.419 E0.46323
G1 X103.129 Y102.419 E0.02365
G1 X103.129 Y117.193 E0.46323
G1 X103.884 Y117.193 E0.02365
G1 X103.884 Y102.419 E0.46323
G1 X104.638 Y102.419 E0.02365
G1 X104.638 Y117.193 E0.46323
G1 X105.392 Y117.193 E0.02365
G1 X105.392 Y102.419 E0.46323
G1 X106.146 Y102.419 E0.02365
G1 X106.146 Y117.193 E0.46323
G1 X106.900 Y117.193 E0.02365
G1 X106.900 Y102.419 E0.46323
G1 X107.654 Y102.419 E0.02365
G1 X107.654 Y117.193 E0.46323
G1 X108.409 Y117.193 E0.02365
G1 X108.409 Y102.419 E0.46323
G1 X109.163 Y102.419 E0.02365
G1 X109.163 Y117.193 E0.46323
G1 X109.917 Y117.193 E0.02365
G1 X109.917 Y102.419 E0.46323
G1 X110.671 Y102.419 E0.02365
G1 X110.671 Y117.193 E0.46323
G1 X111.425 Y117.193 E0.02365
G1 X111.425 Y102.419 E0.46323
G1 X112.179 Y102.419 E0.02365
G1 X112.179 Y117.193 E0.46323
G1 X112.933 Y117.193 E0.02365
G1 X112.933 Y102.419 E0.46323
G1 X113.688 Y102.419 E0.02365
G1 X113.688 Y117.193 E0.46323
G1 X114.442 Y117.193 E0.02365
G1 X114.442 Y102.419 E0.46323
G1 X115.196 Y102.419 E0.02365
G1 X115.196 Y117.193 E0.46323
G1 X115.950 Y117.193 E0.02365
G1 X115.950 Y102.419 E0.46323
G1 X116.704 Y102.419 E0.02365
G1 X116.704 Y117.193 E0.46323
G1 X117.458 Y117.193 E0.02365
G1 X117.458 Y102.419 E0.46323
G1 X118.213 Y102.419 E0.02365
G1 X118.213 Y117.193 E0.46323
G1 X118.967 Y117.193 E0.02365
G1 X118.967 Y102.419 E0.46323
G1 X119.721 Y102.419 E0.02365
G1 X119.721 Y117.193 E0.46323
G1 X120.475 Y117.193 E0.02365
G1 X120.475 Y102.419 E0.46323
G1 X121.229 Y102.419 E0.02365
G1 X121.229 Y117.193 E0.46323
G1 X121.983 Y117.193 E0.02365
G1 X121.983 Y102.419 E0.46323
G1 X122.738 Y102.419 E0.02365
G1 X122.738 Y117.193 E0.46323
G1 X123.492 Y117.193 E0.02365
G1 X123.492 Y102.419 E0.46323
G1 X124.246 Y102.419 E0.02365
G1 X124.246 Y117.193 E0.46323
G1 X125.000 Y117.193 E0.02365
G1 X125.000 Y102.419 E0.46323
G1 X125.754 Y102.419 E0.02365
G1 X125.754 Y117.193 E0.46323
G1 X126.508 Y117.193 E0.02365
G1 X126.508 Y102.419 E0.46323
G1 X127.262 Y102.419 E0.02365
G1 X127.262 Y117.193 E0.46323
G1 X128.017 Y117.193 E0.02365
G1 X128.017 Y102.419 E0.46323
G1 X128.771 Y102.419 E0.02365
G1 X128.771 Y117.193 E0.46323
G1 X129.525 Y117.193 E0.02365
G1 X129.525 Y102.419 E0.46323
M73 P1 R61
G1 X130.279 Y102.419 E0.02365
G1 X130.279 Y117.193 E0.46323
G1 X131.033 Y117.193 E0.02365
G1 X131.033 Y102.419 E0.46323
G1 X131.787 Y102.419 E0.02365
G1 X131.787 Y117.193 E0.46323
G1 X132.542 Y117.193 E0.02365
G1 X132.542 Y102.419 E0.46323
G1 X133.296 Y102.419 E0.02365
G1 X133.296 Y117.193 E0.46323
G1 X134.050 Y117.193 E0.02365
G1 X134.050 Y102.419 E0.46323
G1 X134.804 Y102.419 E0.02365
G1 X134.804 Y117.193 E0.46323
G1 X135.558 Y117.193 E0.02365
G1 X135.558 Y102.419 E0.46323
G1 X136.312 Y102.419 E0.02365
G1 X136.312 Y117.193 E0.46323
G1 X137.067 Y117.193 E0.02365
G1 X137.067 Y102.419 E0.46323
G1 X137.821 Y102.419 E0.02365
G1 X137.821 Y117.193 E0.46323
G1 X138.575 Y117.193 E0.02365
G1 X138.575 Y102.419 E0.46323
G1 X139.329 Y102.419 E0.02365
G1 X139.329 Y117.193 E0.46323
G1 X140.083 Y117.193 E0.02365
G1 X140.083 Y102.419 E0.46323
G1 X140.837 Y102.419 E0.02365
G1 X140.837 Y117.193 E0.46323
G1 X141.591 Y117.193 E0.02365
G1 X141.591 Y102.419 E0.46323
G1 X142.346 Y102.419 E0.02365
G1 X142.346 Y117.193 E0.46323
G1 X143.100 Y117.193 E0.02365
G1 X143.100 Y102.419 E0.46323
G1 X143.854 Y102.419 E0.02365
G1 X143.854 Y117.193 E0.46323
G1 X144.608 Y117.193 E0.02365
G1 X144.608 Y102.419 E0.46323
G1 X145.362 Y102.419 E0.02365
G1 X145.362 Y117.193 E0.46323
G1 X146.116 Y117.193 E0.02365
G1 X146.116 Y102.419 E0.46323
G1 X146.871 Y102.419 E0.02365
G1 X146.871 Y117.193 E0.46323
G1 X147.625 Y117.193 E0.02365
G1 X147.625 Y102.419 E0.46323
G1 X147.729 Y102.419 E0.00326
G1 X147.729 Y103.035 E0.01931
G1 X148.379 Y103.035 E0.02039
G1 X148.379 Y117.193 E0.44392
G1 X149.133 Y117.193 E0.02365
G1 X149.133 Y103.035 E0.44392
G1 X149.887 Y103.035 E0.02365
G1 X149.887 Y117.193 E0.44392
G1 X150.641 Y117.193 E0.02365
G1 X150.641 Y92.807 E0.76462
G1 X151.396 Y92.807 E0.02365
G1 X151.396 Y105.658 E0.40294
G1 X152.150 Y105.658 E0.02365
G1 X152.150 Y92.807 E0.40294
G1 X152.904 Y92.807 E0.02365
G1 X152.904 Y105.658 E0.40294
G1 X153.658 Y105.658 E0.02365
G1 X153.658 Y92.807 E0.40294
G1 X154.412 Y92.807 E0.02365
G1 X154.412 Y105.658 E0.40294
G1 X155.166 Y105.658 E0.02365
G1 X155.166 Y92.807 E0.40294
G1 X155.921 Y92.807 E0.02365
G1 X155.921 Y105.658 E0.40294
G1 X156.675 Y105.658 E0.02365
G1 X156.675 Y92.807 E0.40294
G1 X157.429 Y92.807 E0.02365
G1 X157.429 Y105.658 E0.40294
G1 X158.183 Y105.658 E0.02365
G1 X158.183 Y92.807 E0.40294
G1 X158.937 Y92.807 E0.02365
G1 X158.937 Y105.658 E0.40294
G1 X159.691 Y105.658 E0.02365
G1 X159.691 Y92.807 E0.40294
G1 X160.445 Y92.807 E0.02365
G1 X160.445 Y105.658 E0.40294
G1 X161.200 Y105.658 E0.02365
G1 X161.200 Y92.807 E0.40294
G1 X161.954 Y92.807 E0.02365
G1 X161.954 Y105.828 E0.40826
G1 F8640.000
G1 X161.954 Y102.536 E-0.76000
G1 E-0.04000 F2100.00000
G1 Z0.600 F10800.000
G1 X150.354 Y102.831
G1 Z0.200
G1 E0.80000 F2100.00000
G1 F1200.000
G1 X150.354 Y100.386 E0.06244
G1 X149.847 Y100.386 E0.01295
G1 X149.847 Y102.693 E0.05891
G1 X149.340 Y102.693 E0.01295
G1 X149.340 Y102.243 E0.01149
G1 X149.199 Y102.384 E0.00510
G1 X148.833 Y102.384 E0.00934
G1 X148.833 Y102.693 E0.00789
G1 X148.326 Y102.693 E0.01295
G1 X148.326 Y102.246 E0.01142
G1 X149.133 Y102.206 F10800.000
G1 F1200.000
G1 X149.133 Y98.421 E0.11867
G1 X149.887 Y98.421 E0.02365
G1 X149.887 Y100.213 E0.05621
G1 F8640.000
G1 X149.887 Y98.421 E-0.41391
G1 X149.133 Y98.421 E-0.17414
G1 X149.133 Y99.166 E-0.17195
G1 E-0.04000 F2100.00000
G1 Z0.600 F10800.000
G1 X149.847 Y98.217
G1 Z0.200
G1 E0.80000 F2100.00000
G1 F1200.000
G1 X149.847 Y95.772 E0.06244
G1 X150.354 Y95.772 E0.01295
G1 X150.354 Y98.217 E0.06244
G1 X149.887 Y95.599 F10800.000
G1 F1200.000
G1 X149.887 Y92.807 E0.08756
G1 X149.133 Y92.807 E0.02365
G1 X149.133 Y95.430 E0.08224
G1 X148.379 Y95.430 E0.02365
G1 X148.379 Y92.807 E0.08224
G1 X147.625 Y92.807 E0.02365
G1 X147.625 Y95.592 E0.08733
G1 X146.871 Y95.592 E0.02365
G1 X146.871 Y92.807 E0.08733
G1 X146.116 Y92.807 E0.02365
G1 X146.116 Y95.592 E0.08733
G1 X145.362 Y95.592 E0.02365
G1 X145.362 Y92.637 E0.09265
G1 F8640.000
G1 X145.362 Y95.592 E-0.68229
G1 X145.699 Y95.592 E-0.07771
G1 E-0.04000 F2100.00000
G1 Z0.600 F10800.000
G1 X147.806 Y96.793
G1 Z0.200
G1 E0.80000 F2100.00000
G1 F1200.000
G1 X147.806 Y101.218 E0.13877
G1 X102.194 Y101.218 E1.43014
G1 X102.194 Y96.793 E0.13877
G1 X147.746 Y96.793 E1.42826
G1 X148.183 Y96.415 F10800.000
G1 F1200.000
G1 X148.183 Y101.595 E0.16242
G1 X101.817 Y101.595 E1.45378
G1 X101.817 Y96.415 E0.16242
G1 X148.123 Y96.415 E1.45190
G1 X147.996 Y96.769 F10800.000
G1 F8640.000
G1 X148.161 Y99.707 E-0.76000
G1 E-0.04000 F2100.00000
G1 Z0.600 F10800.000
G1 X102.307 Y100.342
G1 Z0.200
G1 E0.80000 F2100.00000
G1 F1200.000
G1 X102.901 Y100.936 E0.02635
G1 X103.435 Y100.936 E0.01677
G1 X102.477 Y99.978 E0.04253
G1 X102.477 Y99.444 E0.01677
G1 X103.969 Y100.936 E0.06624
G1 X104.503 Y100.936 E0.01677
G1 X102.477 Y98.910 E0.08995
G1 X102.477 Y98.376 E0.01677
G1 X105.037 Y100.936 E0.11366
G1 X105.571 Y100.936 E0.01677
G1 X102.477 Y97.842 E0.13737
G1 X102.477 Y97.308 E0.01677
G1 X106.104 Y100.936 E0.16108
G1 X106.638 Y100.936 E0.01677
G1 X102.778 Y97.075 E0.17140
G1 X103.312 Y97.075 E0.01677
G1 X107.172 Y100.936 E0.17140
G1 X107.706 Y100.936 E0.01677
G1 X103.846 Y97.075 E0.17140
G1 X104.380 Y97.075 E0.01677
G1 X108.240 Y100.936 E0.17140
G1 X108.774 Y100.936 E0.01677
G1 X104.914 Y97.075 E0.17140
G1 X105.448 Y97.075 E0.01677
G1 X109.308 Y100.936 E0.17140
G1 X109.842 Y100.936 E0.01677
G1 X105.982 Y97.075 E0.17140
G1 X106.516 Y97.075 E0.01677
G1 X110.376 Y100.936 E0.17140
G1 X110.910 Y100.936 E0.01677
G1 X107.050 Y97.075 E0.17140
G1 X107.584 Y97.075 E0.01677
G1 X111.444 Y100.936 E0.17140
G1 X111.978 Y100.936 E0.01677
G1 X108.118 Y97.075 E0.17140
G1 X108.652 Y97.075 E0.01677
G1 X112.512 Y100.936 E0.17140
G1 X113.046 Y100.936 E0.01677
G1 X109.186 Y97.075 E0.17140
G1 X109.720 Y97.075 E0.01677
G1 X113.580 Y100.936 E0.17140
G1 X114.114 Y100.936 E0.01677
G1 X110.254 Y97.075 E0.17140
G1 X110.788 Y97.075 E0.01677
G1 X114.648 Y100.936 E0.17140
G1 X115.182 Y100.936 E0.01677
G1 X111.322 Y97.075 E0.17140
G1 X111.856 Y97.075 E0.01677
G1 X115.716 Y100.936 E0.17140
G1 X116.250 Y100.936 E0.01677
G1 X112.390 Y97.075 E0.17140
G1 X112.924 Y97.075 E0.01677
G1 X116.784 Y100.936 E0.17140
G1 X117.318 Y100.936 E0.01677
G1 X113.458 Y97.075 E0.17140
G1 X113.992 Y97.075 E0.01677
G1 X117.852 Y100.936 E0.17140
G1 X118.386 Y100.936 E0.01677
G1 X114.526 Y97.075 E0.17140
G1 X115.060 Y97.075 E0.01677
G1 X118.920 Y100.936 E0.17140
G1 X119.454 Y100.936 E0.01677
G1 X115.594 Y97.075 E0.17140
G1 X116.128 Y97.075 E0.01677
G1 X119.988 Y100.936 E0.17140
G1 X120.522 Y100.936 E0.01677
G1 X116.662 Y97.075 E0.17140
G1 X117.196 Y97.075 E0.01677
G1 X121.056 Y100.936 E0.17140
G1 X121.590 Y100.936 E0.01677
G1 X117.730 Y97.075 E0.17140
G1 X118.264 Y97.075 E0.01677
G1 X122.124 Y100.936 E0.17140
G1 X122.658 Y100.936 E0.01677
G1 X118.798 Y97.075 E0.17140
G1 X119.332 Y97.075 E0.01677
G1 X123.192 Y100.936 E0.17140
G1 X123.726 Y100.936 E0.01677
G1 X119.866 Y97.075 E0.17140
G1 X120.400 Y97.075 E0.01677
G1 X124.260 Y100.936 E0.17140
G1 X124.794 Y100.936 E0.01677
G1 X120.934 Y97.075 E0.17140
G1 X121.468 Y97.075 E0.01677
G1 X125.328 Y100.936 E0.17140
G1 X125.862 Y100.936 E0.01677
G1 X122.002 Y97.075 E0.17140
M73 P3 R60
G1 X122.536 Y97.075 E0.01677
G1 X126.396 Y100.936 E0.17140
G1 X126.930 Y100.936 E0.01677
G1 X123.070 Y97.075 E0.17140
G1 X123.604 Y97.075 E0.01677
G1 X127.464 Y100.936 E0.17140
G1 X127.998 Y100.936 E0.01677
G1 X124.138 Y97.075 E0.17140
G1 X124.672 Y97.075 E0.01677
G1 X128.532 Y100.936 E0.17140
G1 X129.066 Y100.936 E0.01677
G1 X125.206 Y97.075 E0.17140
G1 X125.740 Y97.075 E0.01677
G1 X129.600 Y100.936 E0.17140
G1 X130.134 Y100.936 E0.01677
G1 X126.274 Y97.075 E0.17140
G1 X126.808 Y97.075 E0.01677
G1 X130.668 Y100.936 E0.17140
G1 X131.202 Y100.936 E0.01677
G1 X127.342 Y97.075 E0.17140
G1 X127.876 Y97.075 E0.01677
G1 X131.736 Y100.936 E0.17140
G1 X132.270 Y100.936 E0.01677
G1 X128.410 Y97.075 E0.17140
G1 X128.944 Y97.075 E0.01677
G1 X132.804 Y100.936 E0.17140
G1 X133.338 Y100.936 E0.01677
G1 X129.478 Y97.075 E0.17140
G1 X130.012 Y97.075 E0.01677
G1 X133.872 Y100.936 E0.17140
G1 X134.406 Y100.936 E0.01677
G1 X130.546 Y97.075 E0.17140
G1 X131.080 Y97.075 E0.01677
G1 X134.940 Y100.936 E0.17140
G1 X135.474 Y100.936 E0.01677
G1 X131.614 Y97.075 E0.17140
G1 X132.148 Y97.075 E0.01677
G1 X136.008 Y100.936 E0.17140
G1 X136.542 Y100.936 E0.01677
G1 X132.682 Y97.075 E0.17140
G1 X133.216 Y97.075 E0.01677
G1 X137.076 Y100.936 E0.17140
G1 X137.610 Y100.936 E0.01677
G1 X133.750 Y97.075 E0.17140
G1 X134.284 Y97.075 E0.01677
