; generated by PrusaSlicer 2.2.0+win64 on 2021-10-13 at 13:06:48 UTC

; 

; external perimeters extrusion width = 0.45mm
; perimeters extrusion width = 0.45mm
; infill extrusion width = 0.45mm
; solid infill extrusion width = 0.45mm
; top infill extrusion width = 0.40mm
; support material extrusion width = 0.35mm
; first layer extrusion width = 0.42mm

M73 P0 R116
M201 X9000 Y9000 Z500 E10000 ; sets maximum accelerations, mm/sec^2
M203 X500 Y500 Z12 E120 ; sets maximum feedrates, mm/sec
M204 P2000 R1500 T2000 ; sets acceleration (P, T) and retract acceleration (R), mm/sec^2
M205 X10.00 Y10.00 Z0.20 E2.50 ; sets the jerk limits, mm/sec
M205 S0 T0 ; sets the minimum extruding and travel feed rate, mm/sec
M107
M862.3 P "MK2S" ; printer model check
M862.1 P0.4 ; nozzle diameter check
M115 U3.2.3 ; tell printer latest fw version
G90 ; use absolute coordinates
M83 ; extruder relative mode
M204 S2000 T1500 ; MK2 firmware only supports the old M204 format
M104 S255 ; set extruder temp
M140 S100 ; set bed temp
M190 S100 ; wait for bed temp
M109 S255 ; wait for extruder temp
G28 W ; home all without mesh bed level
G80 ; mesh bed leveling
G1 Y-3.0 F1000.0 ; go outside print area
G92 E0.0
G1 X60.0 E9.0  F1000.0 ; intro line
M73 P0 R116
G1 X100.0 E12.5 F1000.0 ; intro line
G92 E0.0
G21 ; set units to millimeters
G90 ; use absolute coordinates
M83 ; use relative distances for extrusion
M900 K0.04 ; Filament gcode LA 1.5
M900 K20 ; Filament gcode LA 1.0
;BEFORE_LAYER_CHANGE
G92 E0.0
;0.2


G1 E-0.80000 F2100.00000
G1 Z0.400 F10800.000
;AFTER_LAYER_CHANGE
;0.2
G1 X44.234 Y120.125
G1 Z0.200
G1 E0.80000 F2100.00000
M204 S1000
G1 F1200.000
G1 X44.191 Y104.289 E0.49654
G1 X44.310 Y103.597 E0.02201
G1 X44.624 Y102.973 E0.02190
G1 X44.989 Y102.565 E0.01716
G1 X45.434 Y102.253 E0.01704
G1 X62.592 Y93.071 E0.61017
G1 X63.535 Y92.721 E0.03154
G1 X64.297 Y92.636 E0.02405
G1 X185.704 Y92.636 E3.80661
G1 X186.597 Y92.751 E0.02825
G1 X187.404 Y93.070 E0.02718
G1 X204.584 Y102.263 E0.61095
G1 X205.049 Y102.599 E0.01799
G1 X205.419 Y103.037 E0.01799
G1 X205.702 Y103.634 E0.02071
G1 X205.809 Y104.286 E0.02071
G1 X205.808 Y119.758 E0.48509
G1 X205.721 Y120.313 E0.01763
G1 X205.504 Y120.836 E0.01775
G1 X205.169 Y121.293 E0.01775
G1 X204.736 Y121.658 E0.01775
G1 X204.113 Y121.947 E0.02154
G1 X203.437 Y122.047 E0.02142
G1 X46.545 Y122.047 E4.91926
G1 X45.750 Y121.902 E0.02532
G1 X45.047 Y121.497 E0.02543
G1 X44.523 Y120.883 E0.02532
G1 X44.256 Y120.181 E0.02355
; printing object CableHolderLong.stl id:0 copy 0
G1 F8640.000
G1 X44.242 Y116.890 E-0.76000
G1 E-0.04000 F2100.00000
G1 Z0.600 F10800.000
G1 X46.567 Y119.670
G1 Z0.200
G1 E0.80000 F2100.00000
G1 F1200.000
G1 X46.567 Y104.342 E0.48059
G1 X47.322 Y104.342 E0.02365
G1 X47.322 Y119.500 E0.47527
G1 X48.076 Y119.500 E0.02365
G1 X48.076 Y104.342 E0.47527
G1 X48.830 Y104.342 E0.02365
G1 X48.830 Y119.500 E0.47527
G1 X49.584 Y119.500 E0.02365
G1 X49.584 Y104.342 E0.47527
G1 X50.338 Y104.342 E0.02365
G1 X50.338 Y119.500 E0.47527
G1 X51.092 Y119.500 E0.02365
G1 X51.092 Y104.342 E0.47527
G1 X51.847 Y104.342 E0.02365
G1 X51.847 Y119.500 E0.47527
G1 X52.601 Y119.500 E0.02365
G1 X52.601 Y104.342 E0.47527
G1 X53.355 Y104.342 E0.02365
G1 X53.355 Y119.500 E0.47527
G1 X54.109 Y119.500 E0.02365
G1 X54.109 Y104.342 E0.47527
G1 X54.863 Y104.342 E0.02365
G1 X54.863 Y119.500 E0.47527
G1 X55.617 Y119.500 E0.02365
G1 X55.617 Y104.342 E0.47527
G1 X56.372 Y104.342 E0.02365
G1 X56.372 Y119.500 E0.47527
G1 X57.126 Y119.500 E0.02365
G1 X57.126 Y104.342 E0.47527
G1 X57.880 Y104.342 E0.02365
G1 X57.880 Y119.500 E0.47527
G1 X58.634 Y119.500 E0.02365
G1 X58.634 Y104.342 E0.47527
G1 X59.388 Y104.342 E0.02365
G1 X59.388 Y119.500 E0.47527
G1 X60.142 Y119.500 E0.02365
G1 X60.142 Y104.342 E0.47527
G1 X60.896 Y104.342 E0.02365
G1 X60.896 Y106.965 E0.08224
G1 X61.651 Y106.965 E0.02365
G1 X61.651 Y104.342 E0.08224
G1 X62.405 Y104.342 E0.02365
G1 X62.405 Y107.135 E0.08756
G1 F8640.000
G1 X62.405 Y104.342 E-0.64480
G1 X61.906 Y104.342 E-0.11520
G1 E-0.04000 F2100.00000
G1 Z0.600 F10800.000
G1 X62.122 Y108.746
G1 Z0.200
G1 E0.80000 F2100.00000
G1 F1200.000
G1 X62.122 Y107.307 E0.03675
G1 X61.615 Y107.307 E0.01295
G1 X61.615 Y108.608 E0.03322
G1 X61.108 Y108.608 E0.01295
G1 X61.108 Y107.307 E0.03322
G1 X60.601 Y107.307 E0.01295
G1 X60.601 Y116.535 E0.23564
G1 X61.108 Y116.535 E0.01295
G1 X61.108 Y115.365 E0.02988
G1 X61.615 Y115.365 E0.01295
G1 X61.615 Y116.535 E0.02988
G1 X62.122 Y116.535 E0.01295
G1 X62.122 Y115.365 E0.02988
G1 X62.629 Y115.365 E0.01295
G1 X62.629 Y116.674 E0.03341
G1 X60.896 Y116.708 F10800.000
G1 F1200.000
G1 X60.896 Y119.500 E0.08756
G1 X61.651 Y119.500 E0.02365
G1 X61.651 Y116.877 E0.08224
G1 X62.405 Y116.877 E0.02365
G1 X62.405 Y119.500 E0.08224
G1 X63.159 Y119.500 E0.02365
G1 X63.159 Y115.400 E0.12856
G1 X63.913 Y115.400 E0.02365
G1 X63.913 Y119.500 E0.12856
G1 X64.667 Y119.500 E0.02365
G1 X64.667 Y115.400 E0.12856
G1 X65.421 Y115.400 E0.02365
G1 X65.421 Y119.670 E0.13388
G1 F8640.000
G1 X65.421 Y116.379 E-0.76000
G1 E-0.04000 F2100.00000
G1 Z0.600 F10800.000
G1 X189.104 Y119.670
G1 Z0.200
G1 E0.80000 F2100.00000
G1 F1200.000
G1 X189.104 Y116.877 E0.08756
G1 X188.349 Y116.877 E0.02365
G1 X188.349 Y119.500 E0.08224
G1 X187.595 Y119.500 E0.02365
G1 X187.595 Y116.877 E0.08224
G1 X186.949 Y116.877 E0.02026
G1 X186.949 Y115.400 E0.04632
G1 X186.841 Y115.400 E0.00339
G1 X186.841 Y119.500 E0.12856
G1 X186.087 Y119.500 E0.02365
G1 X186.087 Y115.400 E0.12856
G1 X185.333 Y115.400 E0.02365
G1 X185.333 Y119.500 E0.12856
G1 X184.579 Y119.500 E0.02365
G1 X184.579 Y115.230 E0.13388
G1 F8640.000
G1 X184.579 Y118.522 E-0.76000
G1 E-0.04000 F2100.00000
G1 Z0.600 F10800.000
G1 X187.371 Y116.674
G1 Z0.200
G1 E0.80000 F2100.00000
G1 F1200.000
G1 X187.371 Y115.365 E0.03341
G1 X187.878 Y115.365 E0.01295
G1 X187.878 Y116.535 E0.02988
G1 X188.385 Y116.535 E0.01295
G1 X188.385 Y115.365 E0.02988
G1 X188.892 Y115.365 E0.01295
G1 X188.892 Y116.674 E0.03341
G1 X189.399 Y116.674 F10800.000
G1 F1200.000
G1 X189.399 Y107.307 E0.23916
G1 X188.892 Y107.307 E0.01295
G1 X188.892 Y108.608 E0.03322
G1 X188.385 Y108.608 E0.01295
G1 X188.385 Y107.307 E0.03322
G1 X187.878 Y107.307 E0.01295
G1 X187.878 Y108.746 E0.03675
G1 X187.595 Y107.135 F10800.000
G1 F1200.000
G1 X187.595 Y104.342 E0.08756
G1 X188.349 Y104.342 E0.02365
G1 X188.349 Y106.965 E0.08224
G1 X189.104 Y106.965 E0.02365
G1 X189.104 Y104.342 E0.08224
G1 X189.858 Y104.342 E0.02365
G1 X189.858 Y119.500 E0.47527
G1 X190.612 Y119.500 E0.02365
G1 X190.612 Y104.342 E0.47527
G1 X191.366 Y104.342 E0.02365
G1 X191.366 Y119.500 E0.47527
G1 X192.120 Y119.500 E0.02365
G1 X192.120 Y104.342 E0.47527
G1 X192.874 Y104.342 E0.02365
G1 X192.874 Y119.500 E0.47527
G1 X193.628 Y119.500 E0.02365
G1 X193.628 Y104.342 E0.47527
G1 X194.383 Y104.342 E0.02365
G1 X194.383 Y119.500 E0.47527
G1 X195.137 Y119.500 E0.02365
G1 X195.137 Y104.342 E0.47527
G1 X195.891 Y104.342 E0.02365
G1 X195.891 Y119.500 E0.47527
G1 X196.645 Y119.500 E0.02365
G1 X196.645 Y104.342 E0.47527
G1 X197.399 Y104.342 E0.02365
G1 X197.399 Y119.500 E0.47527
G1 X198.153 Y119.500 E0.02365
G1 X198.153 Y104.342 E0.47527
G1 X198.908 Y104.342 E0.02365
G1 X198.908 Y119.500 E0.47527
G1 X199.662 Y119.500 E0.02365
G1 X199.662 Y104.342 E0.47527
G1 X200.416 Y104.342 E0.02365
G1 X200.416 Y119.500 E0.47527
G1 X201.170 Y119.500 E0.02365
G1 X201.170 Y104.342 E0.47527
G1 X201.924 Y104.342 E0.02365
G1 X201.924 Y119.500 E0.47527
G1 X202.678 Y119.500 E0.02365
G1 X202.678 Y104.342 E0.47527
M73 P0 R115
G1 X203.433 Y104.342 E0.02365
G1 X203.433 Y119.670 E0.48059
G1 F8640.000
G1 X203.433 Y116.379 E-0.76000
G1 E-0.04000 F2100.00000
G1 Z0.600 F10800.000
G1 X187.478 Y114.200
G1 Z0.200
G1 E0.80000 F2100.00000
G1 F1200.000
G1 X62.522 Y114.200 E3.91791
G1 X62.522 Y109.774 E0.13877
G1 X63.787 Y109.774 E0.03967
G1 X63.787 Y96.438 E0.41812
G1 X63.815 Y96.230 E0.00659
G1 X63.875 Y96.084 E0.00496
G1 X63.971 Y95.958 E0.00496
G1 X64.097 Y95.862 E0.00496
G1 X64.195 Y95.821 E0.00332
G1 X64.300 Y95.807 E0.00332
G1 X64.405 Y95.821 E0.00332
G1 X64.503 Y95.862 E0.00332
G1 X64.587 Y95.926 E0.00332
G1 X64.652 Y96.010 E0.00332
G1 X64.692 Y96.108 E0.00332
G1 X64.713 Y96.264 E0.00492
G1 X64.702 Y98.844 E0.08090
G1 X64.417 Y99.595 E0.02519
G1 X64.263 Y100.283 E0.02211
G1 X64.213 Y100.958 E0.02120
G1 X64.213 Y104.028 E0.09627
G1 X64.313 Y104.983 E0.03011
G1 X64.623 Y105.937 E0.03146
G1 X65.143 Y106.824 E0.03222
G1 X65.794 Y107.547 E0.03052
G1 X66.604 Y108.136 E0.03141
G1 X67.519 Y108.544 E0.03141
G1 X68.499 Y108.752 E0.03141
G1 X69.501 Y108.752 E0.03141
G1 X70.481 Y108.544 E0.03141
G1 X71.396 Y108.136 E0.03141
G1 X72.206 Y107.547 E0.03141
G1 X72.876 Y106.803 E0.03141
G1 X73.377 Y105.935 E0.03141
G1 X73.687 Y104.983 E0.03141
G1 X73.787 Y104.028 E0.03011
G1 X73.787 Y100.958 E0.09627
G1 X73.737 Y100.283 E0.02120
G1 X73.583 Y99.595 E0.02211
G1 X73.298 Y98.843 E0.02523
G1 X73.287 Y96.264 E0.08086
G1 X73.308 Y96.108 E0.00492
G1 X73.348 Y96.010 E0.00332
G1 X73.413 Y95.926 E0.00332
G1 X73.497 Y95.862 E0.00332
G1 X73.595 Y95.821 E0.00332
G1 X73.700 Y95.807 E0.00332
G1 X73.805 Y95.821 E0.00332
G1 X73.903 Y95.862 E0.00332
G1 X74.029 Y95.958 E0.00496
G1 X74.125 Y96.084 E0.00496
G1 X74.185 Y96.230 E0.00496
G1 X74.213 Y96.438 E0.00659
G1 X74.213 Y109.774 E0.41812
G1 X79.787 Y109.774 E0.17477
G1 X79.787 Y96.438 E0.41812
G1 X79.815 Y96.230 E0.00659
G1 X79.875 Y96.084 E0.00496
G1 X79.971 Y95.958 E0.00496
G1 X80.097 Y95.862 E0.00496
G1 X80.195 Y95.821 E0.00332
G1 X80.300 Y95.807 E0.00332
G1 X80.405 Y95.821 E0.00332
G1 X80.503 Y95.862 E0.00332
G1 X80.587 Y95.926 E0.00332
G1 X80.652 Y96.010 E0.00332
G1 X80.692 Y96.108 E0.00332
G1 X80.713 Y96.264 E0.00492
G1 X80.702 Y98.844 E0.08090
G1 X80.417 Y99.595 E0.02519
G1 X80.263 Y100.283 E0.02211
G1 X80.213 Y100.958 E0.02120
G1 X80.213 Y104.028 E0.09627
G1 X80.313 Y104.983 E0.03011
G1 X80.623 Y105.937 E0.03146
G1 X81.143 Y106.824 E0.03222
G1 X81.794 Y107.547 E0.03052
G1 X82.604 Y108.136 E0.03141
G1 X83.519 Y108.544 E0.03141
G1 X84.499 Y108.752 E0.03141
G1 X85.501 Y108.752 E0.03141
G1 X86.481 Y108.544 E0.03141
G1 X87.396 Y108.136 E0.03141
G1 X88.206 Y107.547 E0.03141
G1 X88.876 Y106.803 E0.03141
G1 X89.377 Y105.935 E0.03141
G1 X89.687 Y104.983 E0.03141
G1 X89.787 Y104.028 E0.03011
G1 X89.787 Y100.958 E0.09627
G1 X89.737 Y100.283 E0.02120
G1 X89.583 Y99.595 E0.02211
G1 X89.298 Y98.843 E0.02523
G1 X89.287 Y96.264 E0.08086
G1 X89.308 Y96.108 E0.00492
G1 X89.348 Y96.010 E0.00332
G1 X89.413 Y95.926 E0.00332
G1 X89.497 Y95.862 E0.00332
G1 X89.595 Y95.821 E0.00332
G1 X89.700 Y95.807 E0.00332
G1 X89.805 Y95.821 E0.00332
G1 X89.903 Y95.862 E0.00332
G1 X90.029 Y95.958 E0.00496
G1 X90.125 Y96.084 E0.00496
G1 X90.185 Y96.230 E0.00496
G1 X90.213 Y96.438 E0.00659
G1 X90.213 Y109.774 E0.41812
G1 X95.787 Y109.774 E0.17477
G1 X95.787 Y96.438 E0.41812
G1 X95.815 Y96.230 E0.00659
G1 X95.875 Y96.084 E0.00496
G1 X95.971 Y95.958 E0.00496
G1 X96.097 Y95.862 E0.00496
G1 X96.195 Y95.821 E0.00332
G1 X96.300 Y95.807 E0.00332
G1 X96.405 Y95.821 E0.00332
G1 X96.503 Y95.862 E0.00332
G1 X96.587 Y95.926 E0.00332
G1 X96.652 Y96.010 E0.00332
G1 X96.692 Y96.108 E0.00332
G1 X96.713 Y96.264 E0.00492
G1 X96.702 Y98.844 E0.08090
G1 X96.417 Y99.595 E0.02519
G1 X96.263 Y100.283 E0.02211
G1 X96.213 Y100.958 E0.02120
G1 X96.213 Y104.028 E0.09627
G1 X96.313 Y104.983 E0.03011
G1 X96.623 Y105.935 E0.03141
G1 X97.125 Y106.804 E0.03146
G1 X97.817 Y107.564 E0.03222
G1 X98.604 Y108.136 E0.03052
G1 X99.519 Y108.544 E0.03141
G1 X100.499 Y108.752 E0.03141
G1 X101.501 Y108.752 E0.03141
G1 X102.481 Y108.544 E0.03141
G1 X103.396 Y108.136 E0.03141
G1 X104.206 Y107.547 E0.03141
G1 X104.876 Y106.803 E0.03141
G1 X105.377 Y105.935 E0.03141
G1 X105.687 Y104.983 E0.03141
G1 X105.787 Y104.028 E0.03011
G1 X105.787 Y100.958 E0.09627
G1 X105.737 Y100.283 E0.02120
G1 X105.583 Y99.595 E0.02211
G1 X105.298 Y98.843 E0.02523
G1 X105.287 Y96.264 E0.08086
G1 X105.308 Y96.108 E0.00492
G1 X105.348 Y96.010 E0.00332
G1 X105.413 Y95.926 E0.00332
G1 X105.497 Y95.862 E0.00332
G1 X105.595 Y95.821 E0.00332
G1 X105.700 Y95.807 E0.00332
G1 X105.805 Y95.821 E0.00332
G1 X105.903 Y95.862 E0.00332
G1 X106.029 Y95.958 E0.00496
G1 X106.125 Y96.084 E0.00496
G1 X106.185 Y96.230 E0.00496
G1 X106.213 Y96.438 E0.00659
G1 X106.213 Y109.774 E0.41812
G1 X111.787 Y109.774 E0.17477
G1 X111.787 Y96.438 E0.41812
G1 X111.815 Y96.230 E0.00659
G1 X111.875 Y96.084 E0.00496
G1 X111.971 Y95.958 E0.00496
G1 X112.097 Y95.862 E0.00496
G1 X112.195 Y95.821 E0.00332
G1 X112.300 Y95.807 E0.00332
G1 X112.405 Y95.821 E0.00332
G1 X112.503 Y95.862 E0.00332
G1 X112.587 Y95.926 E0.00332
G1 X112.652 Y96.010 E0.00332
G1 X112.692 Y96.108 E0.00332
G1 X112.713 Y96.264 E0.00492
G1 X112.702 Y98.844 E0.08090
G1 X112.417 Y99.595 E0.02519
G1 X112.263 Y100.283 E0.02211
G1 X112.213 Y100.958 E0.02120
G1 X112.213 Y104.028 E0.09627
G1 X112.313 Y104.983 E0.03011
G1 X112.623 Y105.937 E0.03146
G1 X113.143 Y106.824 E0.03222
G1 X113.794 Y107.547 E0.03052
G1 X114.604 Y108.136 E0.03141
G1 X115.519 Y108.544 E0.03141
G1 X116.499 Y108.752 E0.03141
G1 X117.501 Y108.752 E0.03141
G1 X118.481 Y108.544 E0.03141
G1 X119.396 Y108.136 E0.03141
G1 X120.206 Y107.547 E0.03141
G1 X120.876 Y106.803 E0.03141
G1 X121.377 Y105.935 E0.03141
G1 X121.687 Y104.983 E0.03141
G1 X121.787 Y104.028 E0.03011
G1 X121.787 Y100.958 E0.09627
G1 X121.737 Y100.283 E0.02120
G1 X121.583 Y99.595 E0.02211
G1 X121.298 Y98.843 E0.02523
G1 X121.287 Y96.264 E0.08086
G1 X121.308 Y96.108 E0.00492
G1 X121.348 Y96.010 E0.00332
G1 X121.413 Y95.926 E0.00332
G1 X121.497 Y95.862 E0.00332
G1 X121.595 Y95.821 E0.00332
G1 X121.700 Y95.807 E0.00332
G1 X121.805 Y95.821 E0.00332
G1 X121.903 Y95.862 E0.00332
G1 X122.029 Y95.958 E0.00496
G1 X122.125 Y96.084 E0.00496
G1 X122.185 Y96.230 E0.00496
G1 X122.213 Y96.438 E0.00659
G1 X122.213 Y109.774 E0.41812
G1 X127.787 Y109.774 E0.17477
G1 X127.787 Y96.438 E0.41812
G1 X127.815 Y96.230 E0.00659
G1 X127.875 Y96.084 E0.00496
G1 X127.971 Y95.958 E0.00496
G1 X128.097 Y95.862 E0.00496
G1 X128.195 Y95.821 E0.00332
G1 X128.300 Y95.807 E0.00332
G1 X128.405 Y95.821 E0.00332
G1 X128.503 Y95.862 E0.00332
G1 X128.587 Y95.926 E0.00332
G1 X128.652 Y96.010 E0.00332
G1 X128.692 Y96.108 E0.00332
G1 X128.713 Y96.264 E0.00492
G1 X128.702 Y98.844 E0.08090
G1 X128.417 Y99.595 E0.02519
G1 X128.263 Y100.283 E0.02211
G1 X128.213 Y100.958 E0.02120
G1 X128.213 Y104.028 E0.09627
G1 X128.313 Y104.983 E0.03011
G1 X128.623 Y105.937 E0.03146
G1 X129.143 Y106.824 E0.03222
G1 X129.794 Y107.547 E0.03052
G1 X130.604 Y108.136 E0.03141
G1 X131.519 Y108.544 E0.03141
G1 X132.499 Y108.752 E0.03141
G1 X133.501 Y108.752 E0.03141
G1 X134.481 Y108.544 E0.03141
G1 X135.396 Y108.136 E0.03141
G1 X136.206 Y107.547 E0.03141
G1 X136.876 Y106.803 E0.03141
G1 X137.377 Y105.935 E0.03141
G1 X137.687 Y104.983 E0.03141
G1 X137.787 Y104.028 E0.03011
G1 X137.787 Y100.958 E0.09627
G1 X137.737 Y100.283 E0.02120
G1 X137.583 Y99.595 E0.02211
G1 X137.298 Y98.843 E0.02523
G1 X137.287 Y96.264 E0.08086
G1 X137.308 Y96.108 E0.00492
G1 X137.348 Y96.010 E0.00332
G1 X137.413 Y95.926 E0.00332
G1 X137.497 Y95.862 E0.00332
G1 X137.595 Y95.821 E0.00332
G1 X137.700 Y95.807 E0.00332
G1 X137.805 Y95.821 E0.00332
G1 X137.903 Y95.862 E0.00332
G1 X138.029 Y95.958 E0.00496
G1 X138.125 Y96.084 E0.00496
G1 X138.185 Y96.230 E0.00496
G1 X138.213 Y96.438 E0.00659
G1 X138.213 Y109.774 E0.41812
G1 X143.787 Y109.774 E0.17477
G1 X143.787 Y96.438 E0.41812
G1 X143.815 Y96.230 E0.00659
G1 X143.875 Y96.084 E0.00496
G1 X143.971 Y95.958 E0.00496
G1 X144.097 Y95.862 E0.00496
G1 X144.195 Y95.821 E0.00332
G1 X144.300 Y95.807 E0.00332
G1 X144.405 Y95.821 E0.00332
G1 X144.503 Y95.862 E0.00332
G1 X144.587 Y95.926 E0.00332
G1 X144.652 Y96.010 E0.00332
G1 X144.692 Y96.108 E0.00332
G1 X144.713 Y96.264 E0.00492
G1 X144.702 Y98.844 E0.08090
G1 X144.417 Y99.595 E0.02519
G1 X144.263 Y100.283 E0.02211
G1 X144.213 Y100.958 E0.02120
G1 X144.213 Y104.028 E0.09627
G1 X144.313 Y104.983 E0.03011
G1 X144.623 Y105.935 E0.03141
G1 X145.124 Y106.803 E0.03141
G1 X145.794 Y107.547 E0.03141
G1 X146.604 Y108.136 E0.03141
