; generated by PrusaSlicer 2.2.0+win64 on 2021-10-13 at 10:46:16 UTC

; 

; external perimeters extrusion width = 0.45mm
; perimeters extrusion width = 0.45mm
; infill extrusion width = 0.45mm
; solid infill extrusion width = 0.45mm
; top infill extrusion width = 0.40mm
; first layer extrusion width = 0.42mm

M73 P0 R53
M201 X9000 Y9000 Z500 E10000 ; sets maximum accelerations, mm/sec^2
M203 X500 Y500 Z12 E120 ; sets maximum feedrates, mm/sec
M204 P2000 R1500 T2000 ; sets acceleration (P, T) and retract acceleration (R), mm/sec^2
M205 X10.00 Y10.00 Z0.20 E2.50 ; sets the jerk limits, mm/sec
M205 S0 T0 ; sets the minimum extruding and travel feed rate, mm/sec
M107
M862.3 P "MK2S" ; printer model check
M862.1 P0.4 ; nozzle diameter check
M115 U3.2.3 ; tell printer latest fw version
G90 ; use absolute coordinates
M83 ; extruder relative mode
M204 S2000 T1500 ; MK2 firmware only supports the old M204 format
M104 S255 ; set extruder temp
M140 S100 ; set bed temp
M190 S100 ; wait for bed temp
M109 S255 ; wait for extruder temp
G28 W ; home all without mesh bed level
G80 ; mesh bed leveling
G1 Y-3.0 F1000.0 ; go outside print area
G92 E0.0
G1 X60.0 E9.0  F1000.0 ; intro line
M73 P0 R53
G1 X100.0 E12.5 F1000.0 ; intro line
G92 E0.0
G21 ; set units to millimeters
G90 ; use absolute coordinates
M83 ; use relative distances for extrusion
M900 K0.04 ; Filament gcode LA 1.5
M900 K20 ; Filament gcode LA 1.0
;BEFORE_LAYER_CHANGE
G92 E0.0
;0.2


G1 E-0.80000 F2100.00000
G1 Z0.400 F10800.000
;AFTER_LAYER_CHANGE
;0.2
G1 X118.406 Y69.503
G1 Z0.200
G1 E0.80000 F2100.00000
M204 S1000
G1 F1200.000
G1 X118.973 Y68.840 E0.02737
G1 X119.555 Y68.370 E0.02345
G1 X120.175 Y68.024 E0.02226
G1 X121.292 Y67.683 E0.03661
G1 X121.980 Y67.623 E0.02166
G1 X128.004 Y67.623 E0.18887
G1 X128.920 Y67.721 E0.02889
G1 X129.881 Y68.053 E0.03187
G1 X130.440 Y68.366 E0.02011
G1 X130.960 Y68.780 E0.02083
G1 X131.626 Y69.548 E0.03188
G1 X136.986 Y80.195 E0.37374
G1 X137.311 Y81.246 E0.03449
G1 X137.377 Y81.995 E0.02357
G1 X137.369 Y128.198 E1.44865
G1 X137.274 Y128.942 E0.02353
G1 X136.983 Y129.809 E0.02868
G1 X131.951 Y139.872 E0.35277
G1 X131.592 Y140.500 E0.02266
G1 X131.016 Y141.171 E0.02773
G1 X130.442 Y141.632 E0.02309
G1 X129.822 Y141.977 E0.02226
G1 X128.697 Y142.319 E0.03685
G1 X128.016 Y142.377 E0.02143
G1 X121.802 Y142.369 E0.19484
G1 X121.151 Y142.294 E0.02056
G1 X120.541 Y142.121 E0.01987
G1 X119.725 Y141.736 E0.02830
G1 X118.944 Y141.133 E0.03093
G1 X118.361 Y140.433 E0.02857
G1 X113.014 Y129.805 E0.37303
G1 X112.688 Y128.746 E0.03473
G1 X112.623 Y128.005 E0.02333
G1 X112.631 Y81.802 E1.44865
G1 X112.726 Y81.058 E0.02353
G1 X113.017 Y80.190 E0.02868
G1 X118.047 Y70.131 E0.35265
G1 X118.376 Y69.555 E0.02078
; printing object Cable Holder.stl id:0 copy 0
G1 F8640.000
G1 X118.973 Y68.840 E-0.21522
G1 X119.555 Y68.370 E-0.17271
G1 X120.175 Y68.024 E-0.16391
G1 X121.037 Y67.761 E-0.20816
G1 E-0.04000 F2100.00000
G1 Z0.600 F10800.000
G1 X124.568 Y132.495
G1 Z0.200
G1 E0.80000 F2100.00000
G1 F1200.000
G1 X125.120 Y132.463 E0.01734
G1 X125.736 Y132.567 E0.01958
G1 X126.280 Y132.804 E0.01862
G1 X126.752 Y133.159 E0.01850
G1 X127.129 Y133.611 E0.01846
G1 X127.377 Y134.106 E0.01734
G1 X127.526 Y134.712 E0.01958
G1 X127.523 Y135.306 E0.01862
G1 X127.385 Y135.880 E0.01850
G1 X127.118 Y136.405 E0.01846
G1 X126.763 Y136.828 E0.01734
G1 X126.265 Y137.205 E0.01958
G1 X125.719 Y137.438 E0.01862
G1 X125.137 Y137.538 E0.01850
G1 X124.548 Y137.501 E0.01850
G1 X123.983 Y137.329 E0.01850
G1 X123.475 Y137.033 E0.01846
G1 X123.072 Y136.653 E0.01734
G1 X122.725 Y136.134 E0.01958
G1 X122.524 Y135.576 E0.01862
G1 X122.458 Y134.989 E0.01850
G1 X122.529 Y134.404 E0.01846
G1 X122.718 Y133.885 E0.01734
G1 X123.057 Y133.360 E0.01958
G1 X123.491 Y132.955 E0.01862
G1 X124.003 Y132.662 E0.01850
G1 X124.511 Y132.512 E0.01658
G1 X124.617 Y132.874 F10800.000
G1 F1200.000
G1 X125.100 Y132.842 E0.01516
G1 X125.628 Y132.931 E0.01679
G1 X126.089 Y133.132 E0.01578
G1 X126.490 Y133.434 E0.01574
G1 X126.811 Y133.819 E0.01573
G1 X127.021 Y134.237 E0.01465
G1 X127.148 Y134.757 E0.01679
G1 X127.146 Y135.260 E0.01578
G1 X127.028 Y135.748 E0.01574
G1 X126.801 Y136.195 E0.01573
G1 X126.501 Y136.553 E0.01465
G1 X126.074 Y136.877 E0.01679
G1 X125.611 Y137.074 E0.01578
G1 X125.116 Y137.159 E0.01574
G1 X124.615 Y137.128 E0.01574
G1 X124.135 Y136.982 E0.01574
G1 X123.702 Y136.729 E0.01573
G1 X123.362 Y136.408 E0.01465
G1 X123.064 Y135.963 E0.01679
G1 X122.894 Y135.490 E0.01578
G1 X122.838 Y134.991 E0.01574
G1 X122.898 Y134.493 E0.01573
G1 X123.058 Y134.054 E0.01465
G1 X123.349 Y133.604 E0.01679
G1 X123.716 Y133.260 E0.01578
G1 X124.152 Y133.011 E0.01574
G1 X124.560 Y132.891 E0.01332
G1 X124.752 Y132.498 F10800.000
G1 F8640.000
G1 X125.100 Y132.842 E-0.12522
G1 X125.628 Y132.931 E-0.12363
G1 X126.089 Y133.132 E-0.11621
G1 X126.490 Y133.434 E-0.11591
G1 X126.811 Y133.819 E-0.11581
G1 X127.021 Y134.237 E-0.10790
G1 X127.078 Y134.470 E-0.05532
G1 E-0.04000 F2100.00000
G1 Z0.600 F10800.000
G1 X125.137 Y77.538
G1 Z0.200
G1 E0.80000 F2100.00000
G1 F1200.000
G1 X124.548 Y77.501 E0.01850
G1 X123.983 Y77.329 E0.01850
G1 X123.475 Y77.033 E0.01846
G1 X123.072 Y76.653 E0.01734
G1 X122.725 Y76.134 E0.01958
G1 X122.524 Y75.576 E0.01862
G1 X122.458 Y74.989 E0.01850
G1 X122.529 Y74.404 E0.01846
G1 X122.718 Y73.885 E0.01734
G1 X123.057 Y73.360 E0.01958
G1 X123.491 Y72.955 E0.01862
G1 X124.003 Y72.662 E0.01850
G1 X124.568 Y72.495 E0.01846
G1 X125.120 Y72.463 E0.01734
G1 X125.736 Y72.567 E0.01958
G1 X126.280 Y72.804 E0.01862
G1 X126.752 Y73.159 E0.01850
G1 X127.129 Y73.611 E0.01846
G1 X127.377 Y74.106 E0.01734
G1 X127.526 Y74.712 E0.01958
G1 X127.523 Y75.306 E0.01862
G1 X127.385 Y75.880 E0.01850
G1 X127.118 Y76.405 E0.01846
G1 X126.763 Y76.828 E0.01734
G1 X126.265 Y77.205 E0.01958
G1 X125.719 Y77.438 E0.01862
G1 X125.196 Y77.528 E0.01662
G1 X125.132 Y77.156 F10800.000
G1 F1200.000
G1 X124.615 Y77.128 E0.01623
G1 X124.135 Y76.982 E0.01574
G1 X123.702 Y76.729 E0.01573
G1 X123.362 Y76.408 E0.01465
G1 X123.064 Y75.963 E0.01679
G1 X122.894 Y75.490 E0.01578
G1 X122.838 Y74.991 E0.01574
G1 X122.898 Y74.493 E0.01573
G1 X123.058 Y74.054 E0.01465
G1 X123.349 Y73.604 E0.01679
G1 X123.716 Y73.260 E0.01578
G1 X124.152 Y73.011 E0.01574
G1 X124.633 Y72.869 E0.01573
G1 X125.100 Y72.842 E0.01465
G1 X125.628 Y72.931 E0.01679
G1 X126.089 Y73.132 E0.01578
G1 X126.490 Y73.434 E0.01574
G1 X126.811 Y73.819 E0.01573
G1 X127.021 Y74.237 E0.01465
G1 X127.148 Y74.757 E0.01679
G1 X127.146 Y75.260 E0.01578
G1 X127.028 Y75.748 E0.01574
G1 X126.801 Y76.195 E0.01573
G1 X126.501 Y76.553 E0.01465
G1 X126.074 Y76.877 E0.01679
G1 X125.611 Y77.074 E0.01578
G1 X125.191 Y77.146 E0.01336
G1 X124.953 Y77.514 F10800.000
G1 F8640.000
G1 X124.615 Y77.128 E-0.13303
G1 X124.135 Y76.982 E-0.11591
G1 X123.702 Y76.729 E-0.11581
G1 X123.362 Y76.408 E-0.10789
G1 X123.064 Y75.963 E-0.12363
G1 X122.894 Y75.490 E-0.11621
G1 X122.871 Y75.285 E-0.04751
G1 E-0.04000 F2100.00000
G1 Z0.600 F10800.000
G1 X129.213 Y80.787
G1 Z0.200
G1 E0.80000 F2100.00000
G1 F1200.000
G1 X132.961 Y80.787 E0.11753
G1 X133.236 Y80.814 E0.00865
G1 X133.463 Y80.883 E0.00743
G1 X133.672 Y80.995 E0.00743
G1 X133.855 Y81.145 E0.00743
G1 X134.005 Y81.328 E0.00743
G1 X134.117 Y81.537 E0.00743
G1 X134.186 Y81.764 E0.00743
G1 X134.213 Y82.039 E0.00865
G1 X134.213 Y127.961 E1.43987
G1 X134.186 Y128.236 E0.00865
G1 X134.117 Y128.463 E0.00743
G1 X134.005 Y128.672 E0.00743
G1 X133.855 Y128.855 E0.00743
G1 X133.672 Y129.005 E0.00743
G1 X133.463 Y129.117 E0.00743
G1 X133.236 Y129.186 E0.00743
G1 X132.961 Y129.213 E0.00865
G1 X129.213 Y129.213 E0.11753
G1 X129.213 Y137.961 E0.27430
G1 X129.186 Y138.236 E0.00865
G1 X129.117 Y138.463 E0.00743
G1 X129.005 Y138.672 E0.00743
G1 X128.855 Y138.855 E0.00743
G1 X128.672 Y139.005 E0.00743
G1 X128.463 Y139.117 E0.00743
G1 X128.236 Y139.186 E0.00743
G1 X127.961 Y139.213 E0.00865
G1 X122.039 Y139.213 E0.18570
G1 X121.764 Y139.186 E0.00865
G1 X121.537 Y139.117 E0.00743
G1 X121.328 Y139.005 E0.00743
G1 X121.145 Y138.855 E0.00743
G1 X120.995 Y138.672 E0.00743
G1 X120.883 Y138.463 E0.00743
G1 X120.814 Y138.236 E0.00743
G1 X120.787 Y137.961 E0.00865
G1 X120.787 Y129.213 E0.27430
G1 X117.039 Y129.213 E0.11753
G1 X116.764 Y129.186 E0.00865
G1 X116.537 Y129.117 E0.00743
G1 X116.328 Y129.005 E0.00743
G1 X116.145 Y128.855 E0.00743
G1 X115.995 Y128.672 E0.00743
G1 X115.883 Y128.463 E0.00743
G1 X115.814 Y128.236 E0.00743
G1 X115.787 Y127.961 E0.00865
G1 X115.787 Y82.039 E1.43987
G1 X115.814 Y81.764 E0.00865
G1 X115.883 Y81.537 E0.00743
G1 X115.995 Y81.328 E0.00743
G1 X116.145 Y81.145 E0.00743
G1 X116.328 Y80.995 E0.00743
G1 X116.537 Y80.883 E0.00743
G1 X116.764 Y80.814 E0.00743
G1 X117.039 Y80.787 E0.00865
G1 X120.787 Y80.787 E0.11753
G1 X120.787 Y72.039 E0.27430
G1 X120.814 Y71.764 E0.00865
G1 X120.883 Y71.537 E0.00743
G1 X120.995 Y71.328 E0.00743
G1 X121.145 Y71.145 E0.00743
G1 X121.328 Y70.995 E0.00743
G1 X121.537 Y70.883 E0.00743
G1 X121.764 Y70.814 E0.00743
G1 X122.039 Y70.787 E0.00865
G1 X127.961 Y70.787 E0.18570
G1 X128.236 Y70.814 E0.00865
G1 X128.463 Y70.883 E0.00743
G1 X128.672 Y70.995 E0.00743
G1 X128.855 Y71.145 E0.00743
G1 X129.005 Y71.328 E0.00743
G1 X129.117 Y71.537 E0.00743
G1 X129.186 Y71.764 E0.00743
G1 X129.213 Y72.039 E0.00865
G1 X129.213 Y80.727 E0.27242
G1 X129.590 Y80.410 F10800.000
G1 F1200.000
G1 X132.980 Y80.410 E0.10629
G1 X133.310 Y80.442 E0.01040
G1 X133.608 Y80.533 E0.00976
G1 X133.882 Y80.680 E0.00976
G1 X134.123 Y80.877 E0.00976
G1 X134.320 Y81.118 E0.00976
G1 X134.467 Y81.392 E0.00976
G1 X134.558 Y81.690 E0.00976
G1 X134.590 Y82.020 E0.01040
G1 X134.590 Y127.980 E1.44103
G1 X134.558 Y128.310 E0.01040
G1 X134.467 Y128.608 E0.00976
G1 X134.320 Y128.882 E0.00976
G1 X134.123 Y129.123 E0.00976
G1 X133.882 Y129.320 E0.00976
G1 X133.608 Y129.467 E0.00976
G1 X133.310 Y129.558 E0.00976
G1 X132.980 Y129.590 E0.01040
G1 X129.590 Y129.590 E0.10629
G1 X129.590 Y137.980 E0.26306
G1 X129.558 Y138.310 E0.01040
G1 X129.467 Y138.608 E0.00976
G1 X129.320 Y138.882 E0.00976
G1 X129.123 Y139.123 E0.00976
G1 X128.882 Y139.320 E0.00976
G1 X128.608 Y139.467 E0.00976
G1 X128.310 Y139.558 E0.00976
G1 X127.980 Y139.590 E0.01040
G1 X122.020 Y139.590 E0.18686
G1 X121.690 Y139.558 E0.01040
G1 X121.392 Y139.467 E0.00976
G1 X121.118 Y139.320 E0.00976
G1 X120.877 Y139.123 E0.00976
G1 X120.680 Y138.882 E0.00976
G1 X120.533 Y138.608 E0.00976
G1 X120.442 Y138.310 E0.00976
G1 X120.410 Y137.980 E0.01040
G1 X120.410 Y129.590 E0.26306
G1 X117.020 Y129.590 E0.10629
G1 X116.690 Y129.558 E0.01040
G1 X116.392 Y129.467 E0.00976
G1 X116.118 Y129.320 E0.00976
G1 X115.877 Y129.123 E0.00976
G1 X115.680 Y128.882 E0.00976
G1 X115.533 Y128.608 E0.00976
G1 X115.442 Y128.310 E0.00976
G1 X115.410 Y127.980 E0.01040
G1 X115.410 Y82.020 E1.44103
G1 X115.442 Y81.690 E0.01040
G1 X115.533 Y81.392 E0.00976
G1 X115.680 Y81.118 E0.00976
G1 X115.877 Y80.877 E0.00976
G1 X116.118 Y80.680 E0.00976
G1 X116.392 Y80.533 E0.00976
G1 X116.690 Y80.442 E0.00976
G1 X117.020 Y80.410 E0.01040
G1 X120.410 Y80.410 E0.10629
G1 X120.410 Y72.020 E0.26306
G1 X120.442 Y71.690 E0.01040
G1 X120.533 Y71.392 E0.00976
G1 X120.680 Y71.118 E0.00976
G1 X120.877 Y70.877 E0.00976
G1 X121.118 Y70.680 E0.00976
G1 X121.392 Y70.533 E0.00976
G1 X121.690 Y70.442 E0.00976
G1 X122.020 Y70.410 E0.01040
G1 X127.980 Y70.410 E0.18686
G1 X128.310 Y70.442 E0.01040
G1 X128.608 Y70.533 E0.00976
G1 X128.882 Y70.680 E0.00976
G1 X129.123 Y70.877 E0.00976
G1 X129.320 Y71.118 E0.00976
G1 X129.467 Y71.392 E0.00976
G1 X129.558 Y71.690 E0.00976
G1 X129.590 Y72.020 E0.01040
G1 X129.590 Y80.350 E0.26118
G1 X129.590 Y80.810 F10800.000
G1 X129.100 Y80.381
G1 F1200.000
G1 X126.241 Y77.523 E0.12759
G1 X126.408 Y77.452 E0.00571
G1 X126.578 Y77.323 E0.00675
G1 X128.930 Y79.675 E0.10498
G1 X128.930 Y79.138 E0.01694
G1 X126.884 Y77.091 E0.09134
G1 X126.959 Y77.035 E0.00297
G1 X127.144 Y76.814 E0.00907
G1 X128.930 Y78.601 E0.07975
G1 X128.930 Y78.064 E0.01694
G1 X127.380 Y76.514 E0.06920
G1 X127.561 Y76.158 E0.01260
G1 X128.930 Y77.527 E0.06113
G1 X128.930 Y76.991 E0.01694
G1 X127.704 Y75.764 E0.05475
G1 X127.806 Y75.330 E0.01409
G1 X128.930 Y76.454 E0.05018
G1 X128.930 Y75.917 E0.01694
G1 X127.808 Y74.795 E0.05008
G1 X127.809 Y74.679 E0.00368
G1 X127.672 Y74.122 E0.01808
G1 X129.100 Y75.550 E0.06372
G1 F8640.000
G1 X127.672 Y74.122 E-0.46618
G1 X127.809 Y74.679 E-0.13225
G1 X127.808 Y74.795 E-0.02691
G1 X128.221 Y75.207 E-0.13465
G1 E-0.04000 F2100.00000
G1 Z0.600 F10800.000
G1 X129.066 Y71.758
G1 Z0.200
G1 E0.80000 F2100.00000
G1 F1200.000
G1 X128.651 Y71.343 E0.01852
G1 X128.514 Y71.231 E0.00560
G1 X128.354 Y71.145 E0.00572
G1 X128.180 Y71.093 E0.00572
G1 X127.841 Y71.070 E0.01075
G1 X128.930 Y72.159 E0.04863
G1 X128.930 Y72.696 E0.01694
G1 X127.304 Y71.070 E0.07259
G1 X126.767 Y71.070 E0.01694
G1 X128.930 Y73.233 E0.09655
G1 X128.930 Y73.770 E0.01694
G1 X126.230 Y71.070 E0.12051
G1 X125.693 Y71.070 E0.01694
G1 X128.930 Y74.307 E0.14447
G1 X128.930 Y74.843 E0.01694
G1 X125.157 Y71.070 E0.16843
G1 X124.620 Y71.070 E0.01694
G1 X125.864 Y72.314 E0.05553
G1 X125.204 Y72.190 E0.02120
G1 X124.083 Y71.070 E0.05002
G1 X123.546 Y71.070 E0.01694
G1 X124.682 Y72.206 E0.05069
G1 X124.519 Y72.215 E0.00514
G1 X124.238 Y72.298 E0.00927
G1 X123.009 Y71.070 E0.05482
G1 X122.473 Y71.070 E0.01694
G1 X123.835 Y72.432 E0.06081
G1 X123.493 Y72.628 E0.01242
G1 X121.946 Y71.080 E0.06906
G1 X121.820 Y71.093 E0.00402
G1 X121.646 Y71.145 E0.00572
G1 X121.534 Y71.205 E0.00400
G1 X123.184 Y72.855 E0.07363
G1 X122.907 Y73.114 E0.01199
G1 X121.252 Y71.460 E0.07383
G1 X121.145 Y71.646 E0.00677
G1 X121.091 Y71.836 E0.00623
G1 X122.679 Y73.424 E0.07089
G1 X122.469 Y73.750 E0.01225
G1 X121.070 Y72.351 E0.06244
G1 X121.070 Y72.888 E0.01694
G1 X122.324 Y74.142 E0.05597
G1 X122.252 Y74.338 E0.00660
G1 X122.223 Y74.578 E0.00763
G1 X121.070 Y73.425 E0.05148
G1 X121.070 Y73.962 E0.01694
G1 X122.183 Y75.075 E0.04970
G1 X122.267 Y75.695 E0.01975
G1 X121.070 Y74.498 E0.05343
G1 X121.070 Y75.035 E0.01694
G1 X133.930 Y87.895 E0.57402
G1 X133.930 Y87.359 E0.01694
G1 X124.290 Y77.718 E0.43029
G1 X124.497 Y77.781 E0.00684
G1 X124.916 Y77.808 E0.01324
G1 X133.930 Y86.822 E0.40235
G1 X133.930 Y86.285 E0.01694
G1 X125.421 Y77.776 E0.37979
G1 X125.799 Y77.711 E0.01210
G1 X125.865 Y77.683 E0.00226
G1 X133.930 Y85.748 E0.35999
G1 X133.930 Y85.211 E0.01694
G1 X129.789 Y81.070 E0.18486
G1 X130.325 Y81.070 E0.01694
G1 X133.930 Y84.675 E0.16090
G1 X133.930 Y84.138 E0.01694
G1 X130.862 Y81.070 E0.13694
G1 X131.399 Y81.070 E0.01694
G1 X133.930 Y83.601 E0.11298
G1 X133.930 Y83.064 E0.01694
G1 X131.936 Y81.070 E0.08902
G1 X132.473 Y81.070 E0.01694
G1 X133.930 Y82.527 E0.06506
G1 X133.923 Y81.984 E0.01716
G1 X132.840 Y80.900 E0.04837
G1 F8640.000
G1 X133.923 Y81.984 E-0.35385
G1 X133.930 Y82.527 E-0.12552
G1 X133.071 Y81.668 E-0.28063
G1 E-0.04000 F2100.00000
G1 Z0.600 F10800.000
G1 X134.100 Y88.602
G1 Z0.200
G1 E0.80000 F2100.00000
G1 F1200.000
G1 X121.070 Y75.572 E0.58159
G1 X121.070 Y76.109 E0.01694
G1 X133.930 Y88.969 E0.57402
G1 X133.930 Y89.506 E0.01694
G1 X121.070 Y76.646 E0.57402
G1 X121.070 Y77.182 E0.01694
G1 X133.930 Y90.043 E0.57402
G1 X133.930 Y90.579 E0.01694
G1 X121.070 Y77.719 E0.57402
G1 X121.070 Y78.256 E0.01694
G1 X133.930 Y91.116 E0.57402
G1 X133.930 Y91.653 E0.01694
G1 X121.070 Y78.793 E0.57402
G1 X121.070 Y79.330 E0.01694
G1 X133.930 Y92.190 E0.57402
G1 X133.930 Y92.727 E0.01694
G1 X121.070 Y79.866 E0.57402
G1 X121.070 Y80.403 E0.01694
G1 X133.930 Y93.263 E0.57402
G1 X133.930 Y93.800 E0.01694
G1 X121.070 Y80.940 E0.57402
G1 X121.070 Y81.070 E0.00410
G1 X120.663 Y81.070 E0.01284
G1 X133.930 Y94.337 E0.59218
G1 X133.930 Y94.874 E0.01694
G1 X120.126 Y81.070 E0.61614
G1 X119.589 Y81.070 E0.01694
G1 X133.930 Y95.411 E0.64010
G1 X133.930 Y95.947 E0.01694
G1 X119.053 Y81.070 E0.66406
G1 X118.516 Y81.070 E0.01694
G1 X133.930 Y96.484 E0.68802
M73 P2 R52
G1 X133.930 Y97.021 E0.01694
G1 X117.979 Y81.070 E0.71198
G1 X117.442 Y81.070 E0.01694
G1 X133.930 Y97.558 E0.73594
G1 X133.930 Y98.095 E0.01694
