; generated by Slic3r Prusa Edition 1.40.1+win64 on 2018-11-24 at 22:48:13

; 

; external perimeters extrusion width = 0.45mm
; perimeters extrusion width = 0.45mm
; infill extrusion width = 0.45mm
; solid infill extrusion width = 0.45mm
; top infill extrusion width = 0.40mm
; first layer extrusion width = 0.42mm

M107
M115 U3.1.0 ; tell printer latest fw version
M201 X9000 Y9000 Z500 E10000 ; sets maximum accelerations, mm/sec^2
M203 X500 Y500 Z12 E120 ; sets maximum feedrates, mm/sec
M204 S1500 T1500 ; sets acceleration (S) and retract acceleration (T)
M205 X10 Y10 Z0.2 E2.5 ; sets the jerk limits, mm/sec
M205 S0 T0 ; sets the minimum extruding and travel feed rate, mm/sec
M83  ; extruder relative mode
M104 S215 ; set extruder temp
M140 S60 ; set bed temp
M190 S60 ; wait for bed temp
M109 S215 ; wait for extruder temp
G28 W ; home all without mesh bed level
G80 ; mesh bed leveling
G1 Y-3.0 F1000.0 ; go outside print area
G92 E0.0
G1 X60.0 E9.0  F1000.0 ; intro line
G1 X100.0 E12.5  F1000.0 ; intro line
G92 E0.0
M900 K30; Filament gcode
G21 ; set units to millimeters
G90 ; use absolute coordinates
M83 ; use relative distances for extrusion
;BEFORE_LAYER_CHANGE
G92 E0.0
;0.2


G1 E-0.80000 F2100.00000
G1 Z0.600 F10800.000
;AFTER_LAYER_CHANGE
;0.2
G1 X90.973 Y41.930
G1 Z0.200
G1 E0.80000 F2100.00000
M204 S1000
G1 F1800
G1 X91.944 Y41.015 E0.04182
G1 X92.748 Y40.526 E0.02951
G1 X93.625 Y40.204 E0.02930
G1 X94.900 Y40.014 E0.04041
G1 X155.004 Y40.011 E1.88451
G1 X156.122 Y40.135 E0.03529
G1 X157.073 Y40.448 E0.03138
G1 X158.043 Y41.006 E0.03509
G1 X158.420 Y41.309 E0.01518
G1 X159.086 Y42.003 E0.03016
G1 X159.688 Y42.977 E0.03590
G1 X160.054 Y44.029 E0.03491
G1 X160.187 Y45.114 E0.03427
G1 X160.189 Y165.207 E3.76544
G1 X160.057 Y166.358 E0.03631
G1 X159.680 Y167.441 E0.03596
G1 X159.027 Y168.471 E0.03822
G1 X158.053 Y169.387 E0.04194
G1 X157.252 Y169.874 E0.02939
G1 X156.368 Y170.198 E0.02952
G1 X155.082 Y170.387 E0.04078
G1 X94.982 Y170.388 E1.88439
G1 X93.841 Y170.257 E0.03599
G1 X92.759 Y169.880 E0.03593
G1 X91.727 Y169.225 E0.03832
G1 X90.809 Y168.247 E0.04207
G1 X90.324 Y167.449 E0.02927
G1 X89.999 Y166.561 E0.02965
G1 X89.812 Y165.246 E0.04165
G1 X89.811 Y45.193 E3.76418
G1 X89.942 Y44.045 E0.03620
G1 X90.320 Y42.959 E0.03606
G1 X90.941 Y41.980 E0.03634
G1 F8640
G1 X91.944 Y41.015 E-0.32144
G1 X92.748 Y40.526 E-0.21731
G1 X93.625 Y40.204 E-0.21579
G1 X93.649 Y40.201 E-0.00546
G1 E-0.04000 F2100.00000
G1 Z0.800 F10800.000
G1 X99.000 Y150.908
G1 Z0.200
G1 E0.80000 F2100.00000
G1 F1800
G1 X99.541 Y150.979 E0.01712
G1 X100.046 Y151.188 E0.01712
G1 X100.479 Y151.521 E0.01712
G1 X100.812 Y151.954 E0.01712
G1 X100.967 Y152.329 E0.01273
G1 X101.021 Y152.459 E0.00440
G1 X101.092 Y153.000 E0.01712
G1 X101.021 Y153.541 E0.01712
G1 X100.812 Y154.046 E0.01712
G1 X100.479 Y154.479 E0.01712
G1 X100.046 Y154.812 E0.01712
G1 X99.671 Y154.967 E0.01273
G1 X99.541 Y155.021 E0.00440
G1 X99.000 Y155.092 E0.01712
G1 X98.459 Y155.021 E0.01712
G1 X97.954 Y154.812 E0.01712
G1 X97.521 Y154.479 E0.01712
G1 X97.188 Y154.046 E0.01712
G1 X96.979 Y153.541 E0.01712
G1 X96.908 Y153.000 E0.01712
G1 X96.979 Y152.459 E0.01712
G1 X97.188 Y151.954 E0.01712
G1 X97.521 Y151.521 E0.01712
G1 X97.954 Y151.188 E0.01712
G1 X98.459 Y150.979 E0.01712
G1 X98.941 Y150.916 E0.01524
G1 X98.990 Y151.290 F10800.000
G1 F1800
G1 X99.443 Y151.347 E0.01433
G1 X99.856 Y151.518 E0.01401
G1 X100.210 Y151.790 E0.01401
G1 X100.482 Y152.144 E0.01401
G1 X100.619 Y152.473 E0.01117
G1 X100.653 Y152.557 E0.00284
G1 X100.712 Y153.000 E0.01401
G1 X100.653 Y153.443 E0.01401
G1 X100.482 Y153.856 E0.01401
G1 X100.210 Y154.210 E0.01401
G1 X99.856 Y154.482 E0.01401
G1 X99.527 Y154.619 E0.01117
G1 X99.443 Y154.653 E0.00284
G1 X99.000 Y154.712 E0.01401
G1 X98.557 Y154.653 E0.01401
G1 X98.144 Y154.482 E0.01401
G1 X97.790 Y154.210 E0.01401
G1 X97.518 Y153.856 E0.01401
G1 X97.381 Y153.527 E0.01117
G1 X97.347 Y153.443 E0.00284
G1 X97.288 Y153.000 E0.01401
G1 X97.347 Y152.557 E0.01401
G1 X97.518 Y152.144 E0.01401
G1 X97.790 Y151.790 E0.01401
G1 X98.144 Y151.518 E0.01401
G1 X98.557 Y151.347 E0.01401
G1 X98.930 Y151.297 E0.01181
G1 X99.188 Y150.942 F10800.000
G1 F8640
G1 X99.443 Y151.347 E-0.11895
G1 X99.856 Y151.518 E-0.10318
G1 X100.210 Y151.790 E-0.10318
G1 X100.482 Y152.144 E-0.10318
G1 X100.619 Y152.473 E-0.08228
G1 X100.653 Y152.557 E-0.02091
G1 X100.712 Y153.000 E-0.10318
G1 X100.653 Y153.443 E-0.10318
G1 X100.617 Y153.531 E-0.02195
G1 E-0.04000 F2100.00000
G1 Z0.800 F10800.000
G1 X148.908 Y153.000
G1 Z0.200
G1 E0.80000 F2100.00000
G1 F1800
G1 X148.979 Y152.459 E0.01712
G1 X149.188 Y151.954 E0.01712
G1 X149.521 Y151.521 E0.01712
G1 X149.954 Y151.188 E0.01712
G1 X150.459 Y150.979 E0.01712
G1 X151.000 Y150.908 E0.01712
G1 X151.541 Y150.979 E0.01712
G1 X152.046 Y151.188 E0.01712
G1 X152.479 Y151.521 E0.01712
G1 X152.812 Y151.954 E0.01712
G1 X153.021 Y152.459 E0.01712
G1 X153.092 Y153.000 E0.01712
G1 X153.021 Y153.541 E0.01712
G1 X152.865 Y153.917 E0.01273
G1 X152.812 Y154.046 E0.00440
G1 X152.479 Y154.479 E0.01712
G1 X152.046 Y154.812 E0.01712
G1 X151.671 Y154.967 E0.01273
G1 X151.541 Y155.021 E0.00440
G1 X151.000 Y155.092 E0.01712
G1 X150.459 Y155.021 E0.01712
G1 X149.954 Y154.812 E0.01712
G1 X149.521 Y154.479 E0.01712
G1 X149.188 Y154.046 E0.01712
G1 X148.979 Y153.541 E0.01712
G1 X148.916 Y153.059 E0.01524
G1 X149.290 Y153.010 F10800.000
G1 F1800
G1 X149.347 Y152.557 E0.01433
G1 X149.518 Y152.144 E0.01401
G1 X149.790 Y151.790 E0.01401
G1 X150.144 Y151.518 E0.01401
G1 X150.557 Y151.347 E0.01401
G1 X151.000 Y151.288 E0.01401
G1 X151.443 Y151.347 E0.01401
G1 X151.856 Y151.518 E0.01401
G1 X152.210 Y151.790 E0.01401
G1 X152.482 Y152.144 E0.01401
G1 X152.653 Y152.557 E0.01401
G1 X152.712 Y153.000 E0.01401
G1 X152.653 Y153.443 E0.01401
G1 X152.517 Y153.772 E0.01117
G1 X152.482 Y153.856 E0.00284
G1 X152.210 Y154.210 E0.01401
G1 X151.856 Y154.482 E0.01401
G1 X151.527 Y154.619 E0.01117
G1 X151.443 Y154.653 E0.00284
G1 X151.000 Y154.712 E0.01401
G1 X150.557 Y154.653 E0.01401
G1 X150.144 Y154.482 E0.01401
G1 X149.790 Y154.210 E0.01401
G1 X149.518 Y153.856 E0.01401
G1 X149.347 Y153.443 E0.01401
G1 X149.297 Y153.070 E0.01181
G1 X148.942 Y152.812 F10800.000
G1 F8640
G1 X149.347 Y152.557 E-0.11895
G1 X149.518 Y152.144 E-0.10318
G1 X149.790 Y151.790 E-0.10318
G1 X150.144 Y151.518 E-0.10319
G1 X150.557 Y151.347 E-0.10318
G1 X151.000 Y151.288 E-0.10318
G1 X151.443 Y151.347 E-0.10318
G1 X151.531 Y151.383 E-0.02194
G1 E-0.04000 F2100.00000
G1 Z0.800 F10800.000
G1 X151.000 Y65.092
G1 Z0.200
G1 E0.80000 F2100.00000
G1 F1800
G1 X150.459 Y65.021 E0.01712
G1 X149.954 Y64.812 E0.01712
G1 X149.521 Y64.479 E0.01712
G1 X149.188 Y64.046 E0.01712
G1 X148.979 Y63.541 E0.01712
G1 X148.908 Y63.000 E0.01712
G1 X148.979 Y62.459 E0.01712
G1 X149.188 Y61.954 E0.01712
G1 X149.521 Y61.521 E0.01712
G1 X149.954 Y61.188 E0.01712
G1 X150.459 Y60.979 E0.01712
G1 X151.000 Y60.908 E0.01712
G1 X151.541 Y60.979 E0.01712
G1 X152.046 Y61.188 E0.01712
G1 X152.479 Y61.521 E0.01712
G1 X152.812 Y61.954 E0.01712
G1 X153.021 Y62.459 E0.01712
G1 X153.092 Y63.000 E0.01712
G1 X153.021 Y63.541 E0.01712
G1 X152.812 Y64.046 E0.01712
G1 X152.479 Y64.479 E0.01712
G1 X152.046 Y64.812 E0.01712
G1 X151.541 Y65.021 E0.01712
G1 X151.059 Y65.084 E0.01524
G1 X151.010 Y64.710 F10800.000
G1 F1800
G1 X150.557 Y64.653 E0.01433
G1 X150.144 Y64.482 E0.01401
G1 X149.790 Y64.210 E0.01401
G1 X149.518 Y63.856 E0.01401
G1 X149.347 Y63.443 E0.01401
G1 X149.288 Y63.000 E0.01401
G1 X149.347 Y62.557 E0.01401
G1 X149.518 Y62.144 E0.01401
G1 X149.790 Y61.790 E0.01401
G1 X150.144 Y61.518 E0.01401
G1 X150.557 Y61.347 E0.01401
G1 X151.000 Y61.288 E0.01401
G1 X151.443 Y61.347 E0.01401
G1 X151.856 Y61.518 E0.01401
G1 X152.210 Y61.790 E0.01401
G1 X152.482 Y62.144 E0.01401
G1 X152.653 Y62.557 E0.01401
G1 X152.712 Y63.000 E0.01401
G1 X152.653 Y63.443 E0.01401
G1 X152.482 Y63.856 E0.01401
G1 X152.210 Y64.210 E0.01401
G1 X151.856 Y64.482 E0.01401
G1 X151.443 Y64.653 E0.01401
G1 X151.070 Y64.703 E0.01181
G1 X150.812 Y65.058 F10800.000
G1 F8640
G1 X150.557 Y64.653 E-0.11895
G1 X150.144 Y64.482 E-0.10318
G1 X149.790 Y64.210 E-0.10318
G1 X149.518 Y63.856 E-0.10318
G1 X149.347 Y63.443 E-0.10318
G1 X149.288 Y63.000 E-0.10318
G1 X149.347 Y62.557 E-0.10318
G1 X149.383 Y62.469 E-0.02194
G1 E-0.04000 F2100.00000
G1 Z0.800 F10800.000
G1 X153.671 Y58.904
G1 Z0.200
G1 E0.80000 F2100.00000
G1 F1800
G1 X153.038 Y58.987 E0.02000
G1 X128.962 Y58.987 E0.75492
G1 X128.329 Y58.904 E0.02000
G1 X127.704 Y58.645 E0.02122
G1 X127.167 Y58.233 E0.02122
G1 X126.755 Y57.696 E0.02122
G1 X126.496 Y57.071 E0.02122
G1 X126.413 Y56.438 E0.02000
G1 X126.413 Y46.362 E0.31596
G1 X126.496 Y45.729 E0.02000
G1 X126.736 Y45.150 E0.01967
G1 X127.162 Y44.571 E0.02254
G1 X127.704 Y44.155 E0.02140
G1 X128.329 Y43.896 E0.02122
G1 X128.962 Y43.813 E0.02000
G1 X153.038 Y43.813 E0.75492
G1 X153.671 Y43.896 E0.02000
G1 X154.296 Y44.155 E0.02122
G1 X154.833 Y44.567 E0.02122
G1 X155.245 Y45.104 E0.02122
G1 X155.504 Y45.729 E0.02122
G1 X155.587 Y46.362 E0.02000
G1 X155.587 Y56.438 E0.31596
G1 X155.504 Y57.071 E0.02000
G1 X155.245 Y57.696 E0.02122
G1 X154.833 Y58.233 E0.02122
G1 X154.296 Y58.645 E0.02122
G1 X153.726 Y58.881 E0.01934
G1 X153.582 Y58.532 F10800.000
G1 F1800
G1 X153.014 Y58.610 E0.01798
G1 X128.986 Y58.610 E0.75337
G1 X128.428 Y58.536 E0.01767
G1 X127.894 Y58.315 E0.01810
G1 X127.436 Y57.964 E0.01810
G1 X127.085 Y57.506 E0.01810
G1 X126.864 Y56.972 E0.01810
G1 X126.790 Y56.414 E0.01767
G1 X126.790 Y46.386 E0.31441
G1 X126.864 Y45.828 E0.01767
G1 X127.067 Y45.336 E0.01667
G1 X127.434 Y44.837 E0.01943
G1 X127.894 Y44.485 E0.01817
G1 X128.428 Y44.264 E0.01810
G1 X128.986 Y44.190 E0.01767
G1 X153.014 Y44.190 E0.75337
G1 X153.572 Y44.264 E0.01767
G1 X154.106 Y44.485 E0.01810
G1 X154.564 Y44.836 E0.01810
G1 X154.915 Y45.294 E0.01810
G1 X155.136 Y45.828 E0.01810
G1 X155.210 Y46.386 E0.01767
G1 X155.210 Y56.414 E0.31441
G1 X155.136 Y56.972 E0.01767
G1 X154.915 Y57.506 E0.01810
G1 X154.564 Y57.964 E0.01810
G1 X154.106 Y58.315 E0.01810
G1 X153.637 Y58.510 E0.01590
G1 X153.480 Y58.919 F10800.000
G1 F8640
G1 X153.014 Y58.610 E-0.14587
G1 X150.354 Y58.610 E-0.61413
G1 E-0.04000 F2100.00000
G1 Z0.800 F10800.000
G1 X122.504 Y57.071
G1 Z0.200
G1 E0.80000 F2100.00000
G1 F1800
G1 X122.245 Y57.696 E0.02122
G1 X121.833 Y58.233 E0.02122
G1 X121.296 Y58.645 E0.02122
G1 X120.671 Y58.904 E0.02122
G1 X120.038 Y58.987 E0.02000
G1 X109.962 Y58.987 E0.31596
G1 X109.329 Y58.904 E0.02000
G1 X108.750 Y58.664 E0.01967
G1 X108.171 Y58.238 E0.02254
G1 X107.755 Y57.696 E0.02140
G1 X107.515 Y57.117 E0.01967
G1 X107.413 Y56.444 E0.02132
G1 X107.413 Y46.362 E0.31614
G1 X107.496 Y45.729 E0.02000
G1 X107.755 Y45.104 E0.02122
G1 X108.167 Y44.567 E0.02122
G1 X108.704 Y44.155 E0.02122
G1 X109.329 Y43.896 E0.02122
G1 X109.962 Y43.813 E0.02000
G1 X120.038 Y43.813 E0.31596
G1 X120.671 Y43.896 E0.02000
G1 X121.296 Y44.155 E0.02122
G1 X121.833 Y44.567 E0.02122
G1 X122.245 Y45.104 E0.02122
G1 X122.504 Y45.729 E0.02122
G1 X122.587 Y46.362 E0.02000
G1 X122.587 Y56.438 E0.31596
G1 X122.512 Y57.011 E0.01812
G1 X122.138 Y56.962 F10800.000
G1 F1800
G1 X121.915 Y57.506 E0.01842
G1 X121.564 Y57.964 E0.01810
G1 X121.106 Y58.315 E0.01810
G1 X120.572 Y58.536 E0.01810
G1 X120.014 Y58.610 E0.01767
G1 X109.986 Y58.610 E0.31441
G1 X109.428 Y58.536 E0.01767
G1 X108.936 Y58.333 E0.01667
G1 X108.437 Y57.966 E0.01943
G1 X108.085 Y57.506 E0.01817
G1 X107.881 Y57.015 E0.01667
G1 X107.790 Y56.416 E0.01899
G1 X107.790 Y46.386 E0.31447
G1 X107.864 Y45.828 E0.01767
G1 X108.085 Y45.294 E0.01810
G1 X108.436 Y44.836 E0.01810
G1 X108.894 Y44.485 E0.01810
G1 X109.428 Y44.264 E0.01810
G1 X109.986 Y44.190 E0.01767
G1 X120.014 Y44.190 E0.31441
G1 X120.572 Y44.264 E0.01767
G1 X121.106 Y44.485 E0.01810
G1 X121.564 Y44.836 E0.01810
G1 X121.915 Y45.294 E0.01810
G1 X122.136 Y45.828 E0.01810
G1 X122.210 Y46.386 E0.01767
G1 X122.210 Y56.414 E0.31441
G1 X122.146 Y56.903 E0.01546
G1 X122.421 Y57.245 F10800.000
G1 F8640
G1 X121.915 Y57.506 E-0.14907
G1 X121.564 Y57.964 E-0.13332
G1 X121.106 Y58.315 E-0.13332
G1 X120.572 Y58.536 E-0.13332
G1 X120.014 Y58.610 E-0.13012
G1 X119.664 Y58.610 E-0.08084
G1 E-0.04000 F2100.00000
G1 Z0.800 F10800.000
G1 X101.021 Y62.459
G1 Z0.200
G1 E0.80000 F2100.00000
G1 F1800
G1 X101.092 Y63.000 E0.01712
G1 X101.021 Y63.541 E0.01712
G1 X100.812 Y64.046 E0.01712
G1 X100.479 Y64.479 E0.01712
G1 X100.046 Y64.812 E0.01712
G1 X99.541 Y65.021 E0.01712
G1 X99.000 Y65.092 E0.01712
G1 X98.459 Y65.021 E0.01712
G1 X97.954 Y64.812 E0.01712
G1 X97.521 Y64.479 E0.01712
G1 X97.188 Y64.046 E0.01712
G1 X96.979 Y63.541 E0.01712
G1 X96.908 Y63.000 E0.01712
G1 X96.979 Y62.459 E0.01712
G1 X97.188 Y61.954 E0.01712
G1 X97.521 Y61.521 E0.01712
G1 X97.954 Y61.188 E0.01712
G1 X98.459 Y60.979 E0.01712
G1 X99.000 Y60.908 E0.01712
G1 X99.541 Y60.979 E0.01712
G1 X100.046 Y61.188 E0.01712
G1 X100.479 Y61.521 E0.01712
G1 X100.812 Y61.954 E0.01712
G1 X100.998 Y62.403 E0.01524
G1 X100.650 Y62.547 F10800.000
G1 F1800
G1 X100.712 Y63.000 E0.01433
G1 X100.653 Y63.443 E0.01401
G1 X100.482 Y63.856 E0.01401
G1 X100.210 Y64.210 E0.01401
G1 X99.856 Y64.482 E0.01401
G1 X99.443 Y64.653 E0.01401
G1 X99.000 Y64.712 E0.01401
G1 X98.557 Y64.653 E0.01401
G1 X98.144 Y64.482 E0.01401
G1 X97.790 Y64.210 E0.01401
G1 X97.518 Y63.856 E0.01401
G1 X97.347 Y63.443 E0.01401
G1 X97.288 Y63.000 E0.01401
G1 X97.347 Y62.557 E0.01401
G1 X97.518 Y62.144 E0.01401
G1 X97.790 Y61.790 E0.01401
G1 X98.144 Y61.518 E0.01401
G1 X98.557 Y61.347 E0.01401
G1 X99.000 Y61.288 E0.01401
G1 X99.443 Y61.347 E0.01401
G1 X99.856 Y61.518 E0.01401
G1 X100.210 Y61.790 E0.01401
G1 X100.482 Y62.144 E0.01401
G1 X100.627 Y62.492 E0.01181
G1 X101.036 Y62.649 F10800.000
G1 F8640
G1 X100.712 Y63.000 E-0.11895
G1 X100.653 Y63.443 E-0.10318
G1 X100.482 Y63.856 E-0.10318
G1 X100.210 Y64.210 E-0.10318
G1 X99.856 Y64.482 E-0.10318
G1 X99.443 Y64.653 E-0.10318
G1 X99.000 Y64.712 E-0.10318
G1 X98.906 Y64.699 E-0.02195
G1 E-0.04000 F2100.00000
G1 Z0.800 F10800.000
G1 X92.651 Y44.666
G1 Z0.200
G1 E0.80000 F2100.00000
G1 F1800
G1 X92.829 Y44.156 E0.01693
G1 X93.116 Y43.699 E0.01691
G1 X93.502 Y43.314 E0.01708
G1 X93.955 Y43.029 E0.01679
G1 X94.460 Y42.852 E0.01679
G1 X95.033 Y42.787 E0.01809
G1 X154.968 Y42.787 E1.87922
G1 X155.534 Y42.851 E0.01786
G1 X156.044 Y43.029 E0.01694
G1 X156.502 Y43.316 E0.01693
G1 X156.883 Y43.698 E0.01693
G1 X157.171 Y44.155 E0.01693
G1 X157.349 Y44.665 E0.01693
G1 X157.413 Y45.233 E0.01793
G1 X157.413 Y165.167 E3.76045
G1 X157.349 Y165.734 E0.01790
G1 X157.171 Y166.244 E0.01693
G1 X156.884 Y166.701 E0.01691
G1 X156.498 Y167.086 E0.01708
G1 X156.045 Y167.371 E0.01679
G1 X155.540 Y167.548 E0.01679
G1 X154.967 Y167.613 E0.01809
G1 X95.033 Y167.613 E1.87918
G1 X94.466 Y167.549 E0.01790
G1 X93.956 Y167.371 E0.01693
G1 X93.499 Y167.084 E0.01691
G1 X93.114 Y166.698 E0.01708
G1 X92.829 Y166.245 E0.01679
G1 X92.652 Y165.740 E0.01679
G1 X92.587 Y165.167 E0.01809
G1 X92.587 Y45.233 E3.76044
G1 X92.644 Y44.725 E0.01602
G1 F8640
G1 X92.829 Y44.156 E-0.13825
G1 X93.116 Y43.699 E-0.12455
G1 X93.502 Y43.314 E-0.12582
G1 X93.955 Y43.029 E-0.12361
G1 X94.460 Y42.852 E-0.12361
G1 X94.994 Y42.792 E-0.12415
G1 E-0.04000 F2100.00000
G1 Z0.800 F10800.000
G1 X92.819 Y43.462
G1 Z0.200
G1 E0.80000 F2100.00000
G1 F1800
G1 X93.265 Y43.017 E0.01975
G1 X93.790 Y42.687 E0.01944
G1 X94.375 Y42.483 E0.01944
G1 X95.012 Y42.410 E0.02009
G1 X154.989 Y42.410 E1.88055
G1 X155.619 Y42.481 E0.01985
G1 X156.209 Y42.687 E0.01960
G1 X156.738 Y43.019 E0.01960
G1 X157.180 Y43.461 E0.01960
G1 X157.513 Y43.990 E0.01960
G1 X157.719 Y44.580 E0.01960
G1 X157.790 Y45.212 E0.01993
G1 X157.790 Y165.188 E3.76178
G1 X157.719 Y165.819 E0.01989
G1 X157.513 Y166.409 E0.01960
G1 X157.181 Y166.938 E0.01959
G1 X156.735 Y167.383 E0.01975
G1 X156.210 Y167.713 E0.01944
G1 X155.625 Y167.917 E0.01944
G1 X154.988 Y167.990 E0.02009
G1 X95.012 Y167.990 E1.88051
G1 X94.381 Y167.919 E0.01989
G1 X93.791 Y167.713 E0.01960
G1 X93.262 Y167.381 E0.01959
G1 X92.817 Y166.935 E0.01975
