; generated by Slic3r Prusa Edition 1.40.1+win64 on 2018-11-24 at 23:41:42

; 

; external perimeters extrusion width = 0.45mm
; perimeters extrusion width = 0.45mm
; infill extrusion width = 0.45mm
; solid infill extrusion width = 0.45mm
; top infill extrusion width = 0.40mm
; first layer extrusion width = 0.42mm

M107
M115 U3.1.0 ; tell printer latest fw version
M201 X9000 Y9000 Z500 E10000 ; sets maximum accelerations, mm/sec^2
M203 X500 Y500 Z12 E120 ; sets maximum feedrates, mm/sec
M204 S1500 T1500 ; sets acceleration (S) and retract acceleration (T)
M205 X10 Y10 Z0.2 E2.5 ; sets the jerk limits, mm/sec
M205 S0 T0 ; sets the minimum extruding and travel feed rate, mm/sec
M83  ; extruder relative mode
M104 S215 ; set extruder temp
M140 S60 ; set bed temp
M190 S60 ; wait for bed temp
M109 S215 ; wait for extruder temp
G28 W ; home all without mesh bed level
G80 ; mesh bed leveling
G1 Y-3.0 F1000.0 ; go outside print area
G92 E0.0
G1 X60.0 E9.0  F1000.0 ; intro line
G1 X100.0 E12.5  F1000.0 ; intro line
G92 E0.0
M900 K30; Filament gcode
G21 ; set units to millimeters
G90 ; use absolute coordinates
M83 ; use relative distances for extrusion
;BEFORE_LAYER_CHANGE
G92 E0.0
;0.2


G1 E-0.80000 F2100.00000
G1 Z0.600 F10800.000
;AFTER_LAYER_CHANGE
;0.2
G1 X90.975 Y41.726
G1 Z0.200
G1 E0.80000 F2100.00000
M204 S1000
G1 F1800
G1 X91.946 Y40.814 E0.04175
G1 X92.748 Y40.326 E0.02946
G1 X93.630 Y40.002 E0.02946
G1 X94.901 Y39.814 E0.04027
G1 X155.004 Y39.811 E1.88449
G1 X156.122 Y39.934 E0.03527
G1 X157.073 Y40.249 E0.03140
G1 X158.407 Y41.096 E0.04955
G1 X159.085 Y41.802 E0.03071
G1 X159.687 Y42.775 E0.03586
G1 X160.056 Y43.834 E0.03518
G1 X160.187 Y44.919 E0.03426
G1 X160.189 Y165.011 E3.76540
G1 X160.058 Y166.157 E0.03618
G1 X159.677 Y167.247 E0.03620
G1 X159.022 Y168.277 E0.03825
G1 X158.051 Y169.188 E0.04175
G1 X157.252 Y169.674 E0.02934
G1 X156.366 Y169.999 E0.02957
G1 X155.081 Y170.187 E0.04072
G1 X94.982 Y170.188 E1.88437
G1 X93.843 Y170.058 E0.03595
G1 X92.753 Y169.677 E0.03620
G1 X91.723 Y169.022 E0.03825
G1 X90.806 Y168.042 E0.04208
G1 X90.324 Y167.249 E0.02912
G1 X89.998 Y166.356 E0.02980
G1 X89.812 Y165.041 E0.04164
G1 X89.811 Y44.989 E3.76414
G1 X89.941 Y43.846 E0.03607
G1 X90.323 Y42.753 E0.03632
G1 X90.943 Y41.777 E0.03625
G1 F8640
G1 X91.946 Y40.814 E-0.32088
G1 X92.748 Y40.326 E-0.21695
G1 X93.630 Y40.002 E-0.21694
G1 X93.653 Y39.999 E-0.00523
G1 E-0.04000 F2100.00000
G1 Z0.800 F10800.000
G1 X93.116 Y43.498
G1 Z0.200
G1 E0.80000 F2100.00000
G1 F1800
G1 X93.498 Y43.116 E0.01692
G1 X93.912 Y42.856 E0.01532
G1 X94.469 Y42.651 E0.01863
G1 X95.033 Y42.587 E0.01780
G1 X154.967 Y42.587 E1.87919
G1 X155.486 Y42.645 E0.01636
G1 X156.050 Y42.832 E0.01863
G1 X156.502 Y43.116 E0.01676
G1 X156.884 Y43.498 E0.01692
G1 X157.171 Y43.955 E0.01692
G1 X157.349 Y44.464 E0.01692
G1 X157.413 Y45.033 E0.01796
G1 X157.413 Y164.967 E3.76045
G1 X157.349 Y165.536 E0.01796
G1 X157.171 Y166.045 E0.01691
G1 X156.884 Y166.502 E0.01692
G1 X156.502 Y166.884 E0.01692
G1 X156.045 Y167.171 E0.01692
G1 X155.536 Y167.349 E0.01692
G1 X154.967 Y167.413 E0.01796
G1 X95.033 Y167.413 E1.87919
G1 X94.464 Y167.349 E0.01796
G1 X93.955 Y167.171 E0.01692
G1 X93.498 Y166.884 E0.01692
G1 X93.116 Y166.502 E0.01692
G1 X92.829 Y166.045 E0.01692
G1 X92.651 Y165.536 E0.01692
G1 X92.587 Y164.967 E0.01796
G1 X92.587 Y45.033 E3.76045
G1 X92.651 Y44.464 E0.01796
G1 X92.829 Y43.955 E0.01692
G1 X93.084 Y43.549 E0.01503
G1 F8640
G1 X93.498 Y43.116 E-0.13811
G1 X93.912 Y42.856 E-0.11282
G1 X94.469 Y42.651 E-0.13719
G1 X95.033 Y42.587 E-0.13105
G1 X96.076 Y42.587 E-0.24082
G1 E-0.04000 F2100.00000
G1 Z0.800 F10800.000
G1 X94.381 Y42.281
G1 Z0.200
G1 E0.80000 F2100.00000
G1 F1800
G1 X95.012 Y42.210 E0.01989
G1 X154.988 Y42.210 E1.88052
G1 X155.567 Y42.275 E0.01825
G1 X156.212 Y42.488 E0.02129
G1 X156.739 Y42.820 E0.01952
G1 X157.180 Y43.261 E0.01958
G1 X157.513 Y43.790 E0.01958
G1 X157.719 Y44.379 E0.01958
G1 X157.790 Y45.012 E0.01995
G1 X157.790 Y164.988 E3.76178
G1 X157.719 Y165.621 E0.01995
G1 X157.513 Y166.210 E0.01958
G1 X157.180 Y166.739 E0.01958
G1 X156.739 Y167.180 E0.01958
G1 X156.210 Y167.513 E0.01958
G1 X155.621 Y167.719 E0.01958
G1 X154.988 Y167.790 E0.01995
G1 X95.012 Y167.790 E1.88052
G1 X94.379 Y167.719 E0.01995
G1 X93.790 Y167.513 E0.01958
G1 X93.261 Y167.180 E0.01958
G1 X92.820 Y166.739 E0.01958
G1 X92.487 Y166.210 E0.01958
G1 X92.281 Y165.621 E0.01958
G1 X92.210 Y164.988 E0.01995
G1 X92.210 Y45.012 E3.76178
G1 X92.281 Y44.379 E0.01995
G1 X92.487 Y43.790 E0.01958
G1 X92.820 Y43.261 E0.01958
G1 X93.261 Y42.820 E0.01958
G1 X93.744 Y42.516 E0.01788
G1 X94.325 Y42.302 E0.01941
G1 X94.653 Y42.574 F10800.000
G1 F8640
G1 X95.012 Y42.210 E-0.16000
G1 X97.610 Y42.210 E-0.60000
G1 E-0.04000 F2100.00000
G1 Z0.800 F10800.000
G1 X157.111 Y44.125
G1 Z0.200
G1 E0.80000 F2100.00000
G1 F1800
G1 X156.323 Y43.338 E0.03500
G1 X155.928 Y43.090 E0.01465
G1 X155.368 Y42.917 E0.01844
G1 X157.083 Y44.632 E0.07624
G1 X157.130 Y45.049 E0.01317
G1 X157.130 Y45.214 E0.00518
G1 X154.786 Y42.870 E0.10415
G1 X154.252 Y42.870 E0.01679
G1 X157.130 Y45.748 E0.12790
G1 X157.130 Y46.283 E0.01679
G1 X153.717 Y42.870 E0.15164
G1 X153.183 Y42.870 E0.01679
G1 X157.130 Y46.817 E0.17539
G1 X157.130 Y47.351 E0.01679
G1 X152.649 Y42.870 E0.19914
G1 X152.114 Y42.870 E0.01679
G1 X157.130 Y47.886 E0.22288
G1 X157.130 Y48.420 E0.01679
G1 X151.580 Y42.870 E0.24663
G1 X151.045 Y42.870 E0.01679
G1 X157.130 Y48.955 E0.27038
G1 X157.130 Y49.489 E0.01679
G1 X150.511 Y42.870 E0.29412
G1 X149.977 Y42.870 E0.01679
G1 X157.130 Y50.023 E0.31787
G1 X157.130 Y50.558 E0.01679
G1 X149.442 Y42.870 E0.34161
G1 X148.908 Y42.870 E0.01679
G1 X157.130 Y51.092 E0.36536
G1 X157.130 Y51.627 E0.01679
G1 X148.373 Y42.870 E0.38911
G1 X147.839 Y42.870 E0.01679
G1 X157.130 Y52.161 E0.41285
G1 X157.130 Y52.695 E0.01679
G1 X147.305 Y42.870 E0.43660
G1 X146.770 Y42.870 E0.01679
G1 X157.130 Y53.230 E0.46034
G1 X157.130 Y53.764 E0.01679
G1 X146.236 Y42.870 E0.48409
G1 X145.701 Y42.870 E0.01679
G1 X157.130 Y54.299 E0.50784
G1 X157.130 Y54.833 E0.01679
G1 X145.167 Y42.870 E0.53158
G1 X144.633 Y42.870 E0.01679
G1 X157.130 Y55.367 E0.55533
G1 X157.130 Y55.902 E0.01679
G1 X144.098 Y42.870 E0.57907
G1 X143.564 Y42.870 E0.01679
G1 X157.130 Y56.436 E0.60282
G1 X157.130 Y56.971 E0.01679
G1 X143.029 Y42.870 E0.62657
G1 X142.495 Y42.870 E0.01679
G1 X157.130 Y57.505 E0.65031
G1 X157.130 Y58.039 E0.01679
G1 X141.961 Y42.870 E0.67406
G1 X141.426 Y42.870 E0.01679
G1 X157.130 Y58.574 E0.69781
G1 X157.130 Y59.108 E0.01679
G1 X140.892 Y42.870 E0.72155
G1 X140.357 Y42.870 E0.01679
G1 X157.130 Y59.643 E0.74530
G1 X157.130 Y60.177 E0.01679
G1 X139.823 Y42.870 E0.76904
G1 X139.289 Y42.870 E0.01679
G1 X157.130 Y60.711 E0.79279
G1 X157.130 Y61.246 E0.01679
G1 X138.754 Y42.870 E0.81654
G1 X138.220 Y42.870 E0.01679
G1 X157.130 Y61.780 E0.84028
G1 X157.130 Y62.314 E0.01679
G1 X137.686 Y42.870 E0.86403
G1 X137.151 Y42.870 E0.01679
G1 X157.130 Y62.849 E0.88777
G1 X157.130 Y63.383 E0.01679
G1 X136.617 Y42.870 E0.91152
G1 X136.082 Y42.870 E0.01679
G1 X157.130 Y63.918 E0.93527
G1 X157.130 Y64.452 E0.01679
G1 X135.548 Y42.870 E0.95901
G1 X135.014 Y42.870 E0.01679
G1 X157.130 Y64.986 E0.98276
G1 X157.130 Y65.521 E0.01679
G1 X134.479 Y42.870 E1.00651
G1 X133.945 Y42.870 E0.01679
G1 X157.130 Y66.055 E1.03025
G1 X157.130 Y66.590 E0.01679
G1 X133.410 Y42.870 E1.05400
G1 X132.876 Y42.870 E0.01679
G1 X157.130 Y67.124 E1.07774
G1 X157.130 Y67.658 E0.01679
G1 X132.342 Y42.870 E1.10149
G1 X131.807 Y42.870 E0.01679
G1 X157.130 Y68.193 E1.12524
G1 X157.130 Y68.727 E0.01679
G1 X131.273 Y42.870 E1.14898
G1 X130.738 Y42.870 E0.01679
G1 X157.130 Y69.262 E1.17273
G1 X157.130 Y69.796 E0.01679
G1 X130.204 Y42.870 E1.19647
G1 X129.670 Y42.870 E0.01679
G1 X157.130 Y70.330 E1.22022
G1 X157.130 Y70.865 E0.01679
G1 X129.135 Y42.870 E1.24397
G1 X128.601 Y42.870 E0.01679
G1 X157.130 Y71.399 E1.26771
G1 X157.130 Y71.934 E0.01679
G1 X128.066 Y42.870 E1.29146
G1 X127.532 Y42.870 E0.01679
G1 X157.130 Y72.468 E1.31520
G1 X157.130 Y73.002 E0.01679
G1 X126.998 Y42.870 E1.33895
G1 X126.463 Y42.870 E0.01679
G1 X157.130 Y73.537 E1.36270
G1 X157.130 Y74.071 E0.01679
G1 X125.929 Y42.870 E1.38644
G1 X125.394 Y42.870 E0.01679
G1 X157.130 Y74.606 E1.41019
G1 X157.130 Y75.140 E0.01679
G1 X124.860 Y42.870 E1.43394
G1 X124.326 Y42.870 E0.01679
G1 X157.130 Y75.674 E1.45768
G1 X157.130 Y76.209 E0.01679
G1 X123.791 Y42.870 E1.48143
G1 X123.257 Y42.870 E0.01679
G1 X157.130 Y76.743 E1.50517
G1 X157.130 Y77.278 E0.01679
G1 X122.722 Y42.870 E1.52892
G1 X122.188 Y42.870 E0.01679
G1 X157.130 Y77.812 E1.55267
G1 X157.130 Y78.346 E0.01679
G1 X121.654 Y42.870 E1.57641
G1 X121.119 Y42.870 E0.01679
G1 X157.130 Y78.881 E1.60016
G1 X157.130 Y79.415 E0.01679
G1 X120.585 Y42.870 E1.62390
G1 X120.050 Y42.870 E0.01679
G1 X157.130 Y79.950 E1.64765
G1 X157.130 Y80.484 E0.01679
G1 X119.516 Y42.870 E1.67140
G1 X118.982 Y42.870 E0.01679
G1 X157.130 Y81.018 E1.69514
G1 X157.130 Y81.553 E0.01679
G1 X118.447 Y42.870 E1.71889
G1 X117.913 Y42.870 E0.01679
G1 X157.130 Y82.087 E1.74263
G1 X157.130 Y82.622 E0.01679
G1 X117.378 Y42.870 E1.76638
G1 X116.844 Y42.870 E0.01679
G1 X157.130 Y83.156 E1.79013
G1 X157.130 Y83.690 E0.01679
G1 X116.310 Y42.870 E1.81387
G1 X115.775 Y42.870 E0.01679
G1 X157.130 Y84.225 E1.83762
G1 X157.130 Y84.759 E0.01679
G1 X115.241 Y42.870 E1.86137
G1 X114.706 Y42.870 E0.01679
G1 X157.130 Y85.294 E1.88511
G1 X157.130 Y85.828 E0.01679
G1 X114.172 Y42.870 E1.90886
G1 X113.638 Y42.870 E0.01679
G1 X157.130 Y86.362 E1.93260
G1 X157.130 Y86.897 E0.01679
G1 X113.103 Y42.870 E1.95635
G1 X112.569 Y42.870 E0.01679
G1 X157.130 Y87.431 E1.98010
G1 X157.130 Y87.966 E0.01679
G1 X112.034 Y42.870 E2.00384
G1 X111.500 Y42.870 E0.01679
G1 X157.130 Y88.500 E2.02759
G1 X157.130 Y89.034 E0.01679
G1 X110.966 Y42.870 E2.05133
G1 X110.431 Y42.870 E0.01679
G1 X157.130 Y89.569 E2.07508
G1 X157.130 Y90.103 E0.01679
G1 X109.897 Y42.870 E2.09883
G1 X109.362 Y42.870 E0.01679
G1 X157.130 Y90.638 E2.12257
G1 X157.130 Y91.172 E0.01679
G1 X108.828 Y42.870 E2.14632
G1 X108.294 Y42.870 E0.01679
G1 X157.130 Y91.706 E2.17007
G1 X157.130 Y92.241 E0.01679
G1 X107.759 Y42.870 E2.19381
G1 X107.225 Y42.870 E0.01679
G1 X157.130 Y92.775 E2.21756
G1 X157.130 Y93.310 E0.01679
G1 X106.690 Y42.870 E2.24130
G1 X106.156 Y42.870 E0.01679
G1 X157.130 Y93.844 E2.26505
G1 X157.130 Y94.378 E0.01679
G1 X105.622 Y42.870 E2.28880
G1 X105.087 Y42.870 E0.01679
G1 X157.130 Y94.913 E2.31254
G1 X157.130 Y95.447 E0.01679
G1 X104.553 Y42.870 E2.33629
G1 X104.018 Y42.870 E0.01679
G1 X157.130 Y95.982 E2.36003
G1 X157.130 Y96.516 E0.01679
G1 X103.484 Y42.870 E2.38378
G1 X102.950 Y42.870 E0.01679
G1 X157.130 Y97.050 E2.40753
G1 X157.130 Y97.585 E0.01679
G1 X102.415 Y42.870 E2.43127
G1 X101.881 Y42.870 E0.01679
G1 X157.130 Y98.119 E2.45502
G1 X157.130 Y98.654 E0.01679
G1 X101.346 Y42.870 E2.47876
G1 X100.812 Y42.870 E0.01679
G1 X157.130 Y99.188 E2.50251
G1 X157.130 Y99.722 E0.01679
G1 X100.278 Y42.870 E2.52626
G1 X99.743 Y42.870 E0.01679
G1 X157.130 Y100.257 E2.55000
G1 X157.130 Y100.791 E0.01679
G1 X99.209 Y42.870 E2.57375
G1 X98.674 Y42.870 E0.01679
G1 X157.130 Y101.326 E2.59750
G1 X157.130 Y101.860 E0.01679
G1 X98.140 Y42.870 E2.62124
G1 X97.606 Y42.870 E0.01679
G1 X157.130 Y102.394 E2.64499
G1 X157.130 Y102.929 E0.01679
G1 X97.071 Y42.870 E2.66873
G1 X96.537 Y42.870 E0.01679
G1 X157.130 Y103.463 E2.69248
G1 X157.130 Y103.997 E0.01679
G1 X96.003 Y42.870 E2.71623
G1 X95.468 Y42.870 E0.01679
G1 X157.130 Y104.532 E2.73997
G1 X157.130 Y105.066 E0.01679
G1 X94.945 Y42.882 E2.76320
G1 X94.535 Y42.928 E0.01298
G1 X94.478 Y42.949 E0.00190
G1 X157.130 Y105.601 E2.78396
G1 X157.130 Y106.135 E0.01679
G1 X94.088 Y43.093 E2.80130
G1 X93.752 Y43.291 E0.01226
G1 X157.130 Y106.669 E2.81625
G1 X157.130 Y107.204 E0.01679
G1 X93.470 Y43.544 E2.82875
G1 X93.339 Y43.675 E0.00584
G1 X93.234 Y43.842 E0.00619
G1 X157.130 Y107.738 E2.83924
G1 X157.130 Y108.273 E0.01679
G1 X93.047 Y44.189 E2.84756
G1 X92.929 Y44.527 E0.01125
G1 X92.921 Y44.598 E0.00223
G1 X157.130 Y108.807 E2.85317
G1 X157.130 Y109.341 E0.01679
G1 X92.870 Y45.081 E2.85543
G1 X92.870 Y45.616 E0.01679
G1 X157.130 Y109.876 E2.85543
G1 X157.130 Y110.410 E0.01679
G1 X92.870 Y46.150 E2.85543
G1 X92.870 Y46.684 E0.01679
G1 X157.130 Y110.945 E2.85543
G1 X157.130 Y111.479 E0.01679
G1 X92.870 Y47.219 E2.85543
G1 X92.870 Y47.753 E0.01679
G1 X157.130 Y112.013 E2.85543
G1 X157.130 Y112.548 E0.01679
G1 X92.870 Y48.288 E2.85543
G1 X92.870 Y48.822 E0.01679
G1 X157.130 Y113.082 E2.85543
G1 X157.130 Y113.617 E0.01679
G1 X92.870 Y49.356 E2.85543
G1 X92.870 Y49.891 E0.01679
G1 X157.130 Y114.151 E2.85543
G1 X157.130 Y114.685 E0.01679
G1 X92.870 Y50.425 E2.85543
G1 X92.870 Y50.960 E0.01679
G1 X157.130 Y115.220 E2.85543
G1 X157.130 Y115.754 E0.01679
G1 X92.870 Y51.494 E2.85543
G1 X92.870 Y52.028 E0.01679
G1 X157.130 Y116.289 E2.85543
G1 X157.130 Y116.823 E0.01679
G1 X92.870 Y52.563 E2.85543
G1 X92.870 Y53.097 E0.01679
G1 X157.130 Y117.357 E2.85543
G1 X157.130 Y117.892 E0.01679
G1 X92.870 Y53.632 E2.85543
G1 X92.870 Y54.166 E0.01679
G1 X157.130 Y118.426 E2.85543
G1 X157.130 Y118.961 E0.01679
G1 X92.870 Y54.700 E2.85543
G1 X92.870 Y55.235 E0.01679
G1 X157.130 Y119.495 E2.85543
G1 X157.130 Y120.029 E0.01679
G1 X92.870 Y55.769 E2.85543
G1 X92.870 Y56.304 E0.01679
G1 X157.130 Y120.564 E2.85543
G1 X157.130 Y121.098 E0.01679
G1 X92.870 Y56.838 E2.85543
G1 X92.870 Y57.372 E0.01679
G1 X157.130 Y121.633 E2.85543
G1 X157.130 Y122.167 E0.01679
G1 X92.870 Y57.907 E2.85543
G1 X92.870 Y58.441 E0.01679
G1 X157.130 Y122.701 E2.85543
G1 X157.130 Y123.236 E0.01679
G1 X92.870 Y58.976 E2.85543
G1 X92.870 Y59.510 E0.01679
G1 X157.130 Y123.770 E2.85543
G1 X157.130 Y124.305 E0.01679
G1 X92.870 Y60.044 E2.85543
G1 X92.870 Y60.579 E0.01679
G1 X157.130 Y124.839 E2.85543
G1 X157.130 Y125.373 E0.01679
G1 X92.870 Y61.113 E2.85543
G1 X92.870 Y61.648 E0.01679
G1 X157.130 Y125.908 E2.85543
G1 X157.130 Y126.442 E0.01679
G1 X92.870 Y62.182 E2.85543
G1 X92.870 Y62.716 E0.01679
G1 X157.130 Y126.977 E2.85543
G1 X157.130 Y127.511 E0.01679
G1 X92.870 Y63.251 E2.85543
G1 X92.870 Y63.785 E0.01679
G1 X157.130 Y128.045 E2.85543
G1 X157.130 Y128.580 E0.01679
G1 X92.870 Y64.319 E2.85543
G1 X92.870 Y64.854 E0.01679
G1 X157.130 Y129.114 E2.85543
G1 X157.130 Y129.649 E0.01679
G1 X92.870 Y65.388 E2.85543
G1 X92.870 Y65.923 E0.01679
G1 X157.130 Y130.183 E2.85543
G1 X157.130 Y130.717 E0.01679
G1 X92.870 Y66.457 E2.85543
G1 X92.870 Y66.991 E0.01679
G1 X157.130 Y131.252 E2.85543
G1 X157.130 Y131.786 E0.01679
G1 X92.870 Y67.526 E2.85543
G1 X92.870 Y68.060 E0.01679
G1 X157.130 Y132.321 E2.85543
G1 X157.130 Y132.855 E0.01679
G1 X92.870 Y68.595 E2.85543
G1 X92.870 Y69.129 E0.01679
G1 X157.130 Y133.389 E2.85543
G1 X157.130 Y133.924 E0.01679
G1 X92.870 Y69.663 E2.85543
G1 X92.870 Y70.198 E0.01679
G1 X157.130 Y134.458 E2.85543
G1 X157.130 Y134.993 E0.01679
G1 X92.870 Y70.732 E2.85543
G1 X92.870 Y71.267 E0.01679
G1 X157.130 Y135.527 E2.85543
G1 X157.130 Y136.061 E0.01679
G1 X92.870 Y71.801 E2.85543
G1 X92.870 Y72.335 E0.01679
G1 X157.130 Y136.596 E2.85543
G1 X157.130 Y137.130 E0.01679
G1 X92.870 Y72.870 E2.85543
G1 X92.870 Y73.404 E0.01679
G1 X157.130 Y137.665 E2.85543
G1 X157.130 Y138.199 E0.01679
G1 X92.870 Y73.939 E2.85543
G1 X92.870 Y74.473 E0.01679
G1 X157.130 Y138.733 E2.85543
G1 X157.130 Y139.268 E0.01679
G1 X92.870 Y75.007 E2.85543
G1 X92.870 Y75.542 E0.01679
G1 X157.130 Y139.802 E2.85543
G1 X157.130 Y140.337 E0.01679
G1 X92.870 Y76.076 E2.85543
G1 X92.870 Y76.611 E0.01679
G1 X157.130 Y140.871 E2.85543
G1 X157.130 Y141.405 E0.01679
G1 X92.870 Y77.145 E2.85543
G1 X92.870 Y77.679 E0.01679
G1 X157.130 Y141.940 E2.85543
G1 X157.130 Y142.474 E0.01679
G1 X92.870 Y78.214 E2.85543
G1 X92.870 Y78.748 E0.01679
G1 X157.130 Y143.008 E2.85543
G1 X157.130 Y143.543 E0.01679
G1 X92.870 Y79.283 E2.85543
G1 X92.870 Y79.817 E0.01679
G1 X157.130 Y144.077 E2.85543
G1 X157.130 Y144.612 E0.01679
G1 X92.870 Y80.351 E2.85543
G1 X92.870 Y80.886 E0.01679
G1 X157.130 Y145.146 E2.85543
G1 X157.130 Y145.680 E0.01679
