( Made using CamBam - http://www.cambam.co.uk )
( svr_brett 12/9/2017 1:24:46 PM )
( T3 : 3.0 )
( T6 : 6.0 )
G21 G90 G64 G40
G0 Z3.0
( T6 : 6.0 )
T6 M6
( Glasloecher )
G17
M3 S1000
G0 X31.80187 Y221.3539
G0 Z1.0
G1 F300.0 Z-4.0
G2 F800.0 X31.47553 Y221.16549 I-0.21756 J0.0
G2 Y221.54232 I0.10878 J0.18841
G2 X31.80187 Y221.3539 I0.10878 J-0.18841
G1 F300.0 X34.20187
G2 F800.0 X30.27553 Y219.08703 I-2.61756 J0.0
G2 Y223.62078 I1.30878 J2.26687
G2 X34.20187 Y221.3539 I1.30878 J-2.26687
G1 F300.0 X36.60187
G2 F800.0 X29.07553 Y217.00857 I-5.01756 J0.0
G2 Y225.69924 I2.50878 J4.34533
G2 X36.60187 Y221.3539 I2.50878 J-4.34533
G1 F300.0 X39.00187
G2 F800.0 X27.87553 Y214.93011 I-7.41756 J0.0
G2 Y227.7777 I3.70878 J6.4238
G2 X39.00187 Y221.3539 I3.70878 J-6.4238
G1 F300.0 X41.40187
G2 F800.0 X26.67553 Y212.85165 I-9.81756 J0.0
G2 Y229.85616 I4.90878 J8.50226
G2 X41.40187 Y221.3539 I4.90878 J-8.50226
G1 F300.0 X43.80187
G2 F800.0 X25.47553 Y210.77319 I-12.21756 J0.0
G2 Y231.93462 I6.10878 J10.58072
G2 X43.80187 Y221.3539 I6.10878 J-10.58072
G1 F300.0 X46.20187
G2 F800.0 X24.27553 Y208.69473 I-14.61756 J0.0
G2 Y234.01308 I7.30878 J12.65918
G2 X46.20187 Y221.3539 I7.30878 J-12.65918
G1 F300.0 X48.60187
G2 F800.0 X23.07553 Y206.61626 I-17.01756 J0.0
G2 Y236.09154 I8.50878 J14.73764
G2 X48.60187 Y221.3539 I8.50878 J-14.73764
G1 F300.0 X51.00187
G2 F800.0 X21.87553 Y204.5378 I-19.41756 J0.0
G2 Y238.17 I9.70878 J16.8161
G2 X51.00187 Y221.3539 I9.70878 J-16.8161
G0 Z3.0
G0 X31.80187
G0 Z-3.0
G1 F300.0 Z-8.0
G2 F800.0 X31.47553 Y221.16549 I-0.21756 J0.0
G2 Y221.54232 I0.10878 J0.18841
G2 X31.80187 Y221.3539 I0.10878 J-0.18841
G1 F300.0 X34.20187
G2 F800.0 X30.27553 Y219.08703 I-2.61756 J0.0
G2 Y223.62078 I1.30878 J2.26687
G2 X34.20187 Y221.3539 I1.30878 J-2.26687
G1 F300.0 X36.60187
G2 F800.0 X29.07553 Y217.00857 I-5.01756 J0.0
G2 Y225.69924 I2.50878 J4.34533
G2 X36.60187 Y221.3539 I2.50878 J-4.34533
G1 F300.0 X39.00187
G2 F800.0 X27.87553 Y214.93011 I-7.41756 J0.0
G2 Y227.7777 I3.70878 J6.4238
G2 X39.00187 Y221.3539 I3.70878 J-6.4238
G1 F300.0 X41.40187
G2 F800.0 X26.67553 Y212.85165 I-9.81756 J0.0
G2 Y229.85616 I4.90878 J8.50226
G2 X41.40187 Y221.3539 I4.90878 J-8.50226
G1 F300.0 X43.80187
G2 F800.0 X25.47553 Y210.77319 I-12.21756 J0.0
G2 Y231.93462 I6.10878 J10.58072
G2 X43.80187 Y221.3539 I6.10878 J-10.58072
G1 F300.0 X46.20187
G2 F800.0 X24.27553 Y208.69473 I-14.61756 J0.0
G2 Y234.01308 I7.30878 J12.65918
G2 X46.20187 Y221.3539 I7.30878 J-12.65918
G1 F300.0 X48.60187
G2 F800.0 X23.07553 Y206.61626 I-17.01756 J0.0
G2 Y236.09154 I8.50878 J14.73764
G2 X48.60187 Y221.3539 I8.50878 J-14.73764
G1 F300.0 X51.00187
G2 F800.0 X21.87553 Y204.5378 I-19.41756 J0.0
G2 Y238.17 I9.70878 J16.8161
G2 X51.00187 Y221.3539 I9.70878 J-16.8161
G0 Z3.0
G0 X31.80187
G0 Z-7.0
G1 F300.0 Z-12.0
G2 F800.0 X31.47553 Y221.16549 I-0.21756 J0.0
G2 Y221.54232 I0.10878 J0.18841
G2 X31.80187 Y221.3539 I0.10878 J-0.18841
G1 F300.0 X34.20187
G2 F800.0 X30.27553 Y219.08703 I-2.61756 J0.0
G2 Y223.62078 I1.30878 J2.26687
G2 X34.20187 Y221.3539 I1.30878 J-2.26687
G1 F300.0 X36.60187
G2 F800.0 X29.07553 Y217.00857 I-5.01756 J0.0
G2 Y225.69924 I2.50878 J4.34533
G2 X36.60187 Y221.3539 I2.50878 J-4.34533
G1 F300.0 X39.00187
G2 F800.0 X27.87553 Y214.93011 I-7.41756 J0.0
G2 Y227.7777 I3.70878 J6.4238
G2 X39.00187 Y221.3539 I3.70878 J-6.4238
G1 F300.0 X41.40187
G2 F800.0 X26.67553 Y212.85165 I-9.81756 J0.0
G2 Y229.85616 I4.90878 J8.50226
G2 X41.40187 Y221.3539 I4.90878 J-8.50226
G1 F300.0 X43.80187
G2 F800.0 X25.47553 Y210.77319 I-12.21756 J0.0
G2 Y231.93462 I6.10878 J10.58072
G2 X43.80187 Y221.3539 I6.10878 J-10.58072
G1 F300.0 X46.20187
G2 F800.0 X24.27553 Y208.69473 I-14.61756 J0.0
G2 Y234.01308 I7.30878 J12.65918
G2 X46.20187 Y221.3539 I7.30878 J-12.65918
G1 F300.0 X48.60187
G2 F800.0 X23.07553 Y206.61626 I-17.01756 J0.0
G2 Y236.09154 I8.50878 J14.73764
G2 X48.60187 Y221.3539 I8.50878 J-14.73764
G1 F300.0 X51.00187
G2 F800.0 X21.87553 Y204.5378 I-19.41756 J0.0
G2 Y238.17 I9.70878 J16.8161
G2 X51.00187 Y221.3539 I9.70878 J-16.8161
G0 Z3.0
G0 X97.0144
G0 Z1.0
G1 F300.0 Z-4.0
G2 F800.0 X97.12318 Y221.54232 I0.21756 J0.0
G2 X97.44952 Y221.3539 I0.10878 J-0.18841
G2 X97.12318 Y221.16549 I-0.21756 J0.0
G2 X97.0144 Y221.3539 I0.10878 J0.18841
G1 F300.0 X94.6144
G2 F800.0 X95.92318 Y223.62078 I2.61756 J0.0
G2 X99.84952 Y221.3539 I1.30878 J-2.26687
G2 X95.92318 Y219.08703 I-2.61756 J0.0
G2 X94.6144 Y221.3539 I1.30878 J2.26687
G1 F300.0 X92.2144
G2 F800.0 X94.72318 Y225.69924 I5.01756 J0.0
G2 X102.24952 Y221.3539 I2.50878 J-4.34533
G2 X94.72318 Y217.00857 I-5.01756 J0.0
G2 X92.2144 Y221.3539 I2.50878 J4.34533
G1 F300.0 X89.8144
G2 F800.0 X93.52318 Y227.7777 I7.41756 J0.0
G2 X104.64952 Y221.3539 I3.70878 J-6.4238
G2 X93.52318 Y214.93011 I-7.41756 J0.0
G2 X89.8144 Y221.3539 I3.70878 J6.4238
G1 F300.0 X87.4144
G2 F800.0 X92.32318 Y229.85616 I9.81756 J0.0
G2 X107.04952 Y221.3539 I4.90878 J-8.50226
G2 X92.32318 Y212.85165 I-9.81756 J0.0
G2 X87.4144 Y221.3539 I4.90878 J8.50226
G1 F300.0 X85.0144
G2 F800.0 X91.12318 Y231.93462 I12.21756 J0.0
G2 X109.44952 Y221.3539 I6.10878 J-10.58072
G2 X91.12318 Y210.77319 I-12.21756 J0.0
G2 X85.0144 Y221.3539 I6.10878 J10.58072
G1 F300.0 X82.6144
G2 F800.0 X89.92318 Y234.01308 I14.61756 J0.0
G2 X111.84952 Y221.3539 I7.30878 J-12.65918
G2 X89.92318 Y208.69473 I-14.61756 J0.0
G2 X82.6144 Y221.3539 I7.30878 J12.65918
G1 F300.0 X80.2144
G2 F800.0 X88.72318 Y236.09154 I17.01756 J0.0
G2 X114.24952 Y221.3539 I8.50878 J-14.73764
G2 X88.72318 Y206.61626 I-17.01756 J0.0
G2 X80.2144 Y221.3539 I8.50878 J14.73764
G1 F300.0 X77.8144
G2 F800.0 X87.52318 Y238.17 I19.41756 J0.0
G2 X116.64952 Y221.3539 I9.70878 J-16.8161
G2 X87.52318 Y204.5378 I-19.41756 J0.0
G2 X77.8144 Y221.3539 I9.70878 J16.8161
G0 Z3.0
G0 X97.0144
G0 Z-3.0
G1 F300.0 Z-8.0
G2 F800.0 X97.12318 Y221.54232 I0.21756 J0.0
G2 X97.44952 Y221.3539 I0.10878 J-0.18841
G2 X97.12318 Y221.16549 I-0.21756 J0.0
G2 X97.0144 Y221.3539 I0.10878 J0.18841
G1 F300.0 X94.6144
G2 F800.0 X95.92318 Y223.62078 I2.61756 J0.0
G2 X99.84952 Y221.3539 I1.30878 J-2.26687
G2 X95.92318 Y219.08703 I-2.61756 J0.0
G2 X94.6144 Y221.3539 I1.30878 J2.26687
G1 F300.0 X92.2144
G2 F800.0 X94.72318 Y225.69924 I5.01756 J0.0
G2 X102.24952 Y221.3539 I2.50878 J-4.34533
G2 X94.72318 Y217.00857 I-5.01756 J0.0
G2 X92.2144 Y221.3539 I2.50878 J4.34533
G1 F300.0 X89.8144
G2 F800.0 X93.52318 Y227.7777 I7.41756 J0.0
G2 X104.64952 Y221.3539 I3.70878 J-6.4238
G2 X93.52318 Y214.93011 I-7.41756 J0.0
G2 X89.8144 Y221.3539 I3.70878 J6.4238
G1 F300.0 X87.4144
G2 F800.0 X92.32318 Y229.85616 I9.81756 J0.0
G2 X107.04952 Y221.3539 I4.90878 J-8.50226
G2 X92.32318 Y212.85165 I-9.81756 J0.0
G2 X87.4144 Y221.3539 I4.90878 J8.50226
G1 F300.0 X85.0144
G2 F800.0 X91.12318 Y231.93462 I12.21756 J0.0
G2 X109.44952 Y221.3539 I6.10878 J-10.58072
G2 X91.12318 Y210.77319 I-12.21756 J0.0
G2 X85.0144 Y221.3539 I6.10878 J10.58072
G1 F300.0 X82.6144
G2 F800.0 X89.92318 Y234.01308 I14.61756 J0.0
G2 X111.84952 Y221.3539 I7.30878 J-12.65918
G2 X89.92318 Y208.69473 I-14.61756 J0.0
G2 X82.6144 Y221.3539 I7.30878 J12.65918
G1 F300.0 X80.2144
G2 F800.0 X88.72318 Y236.09154 I17.01756 J0.0
G2 X114.24952 Y221.3539 I8.50878 J-14.73764
G2 X88.72318 Y206.61626 I-17.01756 J0.0
G2 X80.2144 Y221.3539 I8.50878 J14.73764
G1 F300.0 X77.8144
G2 F800.0 X87.52318 Y238.17 I19.41756 J0.0
G2 X116.64952 Y221.3539 I9.70878 J-16.8161
G2 X87.52318 Y204.5378 I-19.41756 J0.0
G2 X77.8144 Y221.3539 I9.70878 J16.8161
G0 Z3.0
G0 X97.0144
G0 Z-7.0
G1 F300.0 Z-12.0
G2 F800.0 X97.12318 Y221.54232 I0.21756 J0.0
G2 X97.44952 Y221.3539 I0.10878 J-0.18841
G2 X97.12318 Y221.16549 I-0.21756 J0.0
G2 X97.0144 Y221.3539 I0.10878 J0.18841
G1 F300.0 X94.6144
G2 F800.0 X95.92318 Y223.62078 I2.61756 J0.0
G2 X99.84952 Y221.3539 I1.30878 J-2.26687
G2 X95.92318 Y219.08703 I-2.61756 J0.0
G2 X94.6144 Y221.3539 I1.30878 J2.26687
G1 F300.0 X92.2144
G2 F800.0 X94.72318 Y225.69924 I5.01756 J0.0
G2 X102.24952 Y221.3539 I2.50878 J-4.34533
G2 X94.72318 Y217.00857 I-5.01756 J0.0
G2 X92.2144 Y221.3539 I2.50878 J4.34533
G1 F300.0 X89.8144
G2 F800.0 X93.52318 Y227.7777 I7.41756 J0.0
G2 X104.64952 Y221.3539 I3.70878 J-6.4238
G2 X93.52318 Y214.93011 I-7.41756 J0.0
G2 X89.8144 Y221.3539 I3.70878 J6.4238
G1 F300.0 X87.4144
G2 F800.0 X92.32318 Y229.85616 I9.81756 J0.0
G2 X107.04952 Y221.3539 I4.90878 J-8.50226
G2 X92.32318 Y212.85165 I-9.81756 J0.0
G2 X87.4144 Y221.3539 I4.90878 J8.50226
G1 F300.0 X85.0144
G2 F800.0 X91.12318 Y231.93462 I12.21756 J0.0
G2 X109.44952 Y221.3539 I6.10878 J-10.58072
G2 X91.12318 Y210.77319 I-12.21756 J0.0
G2 X85.0144 Y221.3539 I6.10878 J10.58072
G1 F300.0 X82.6144
G2 F800.0 X89.92318 Y234.01308 I14.61756 J0.0
G2 X111.84952 Y221.3539 I7.30878 J-12.65918
G2 X89.92318 Y208.69473 I-14.61756 J0.0
G2 X82.6144 Y221.3539 I7.30878 J12.65918
G1 F300.0 X80.2144
G2 F800.0 X88.72318 Y236.09154 I17.01756 J0.0
G2 X114.24952 Y221.3539 I8.50878 J-14.73764
G2 X88.72318 Y206.61626 I-17.01756 J0.0
G2 X80.2144 Y221.3539 I8.50878 J14.73764
G1 F300.0 X77.8144
G2 F800.0 X87.52318 Y238.17 I19.41756 J0.0
G2 X116.64952 Y221.3539 I9.70878 J-16.8161
G2 X87.52318 Y204.5378 I-19.41756 J0.0
G2 X77.8144 Y221.3539 I9.70878 J16.8161
G0 Z3.0
G0 X31.72912 Y159.79114
G0 Z1.0
G1 F300.0 Z-4.0
G2 F800.0 X31.8163 Y159.61697 I-0.13038 J-0.17417
G2 X31.48996 Y159.42856 I-0.21756 J0.0
G2 Y159.80538 I0.10878 J0.18841
G2 X31.72912 Y159.79114 I0.10878 J-0.18841
G1 F300.0 X33.16739 Y161.71243
G2 F800.0 X34.2163 Y159.61697 I-1.56864 J-2.09547
G2 X30.28996 Y157.3501 I-2.61756 J0.0
G2 Y161.88384 I1.30878 J2.26687
G2 X33.16739 Y161.71243 I1.30878 J-2.26687
G1 F300.0 X34.60565 Y163.63373
G2 F800.0 X36.6163 Y159.61697 I-3.00691 J-4.01676
G2 X29.08996 Y155.27163 I-5.01756 J0.0
G2 Y163.9623 I2.50878 J4.34533
G2 X34.60565 Y163.63373 I2.50878 J-4.34533
G1 F300.0 X36.04392 Y165.55503
G2 F800.0 X39.0163 Y159.61697 I-4.44518 J-5.93806
G2 X27.88996 Y153.19317 I-7.41756 J0.0
G2 Y166.04076 I3.70878 J6.4238
G2 X36.04392 Y165.55503 I3.70878 J-6.4238
G1 F300.0 X37.48219 Y167.47633
G2 F800.0 X41.4163 Y159.61697 I-5.88344 J-7.85936
G2 X26.68996 Y151.11471 I-9.81756 J0.0
G2 Y168.11923 I4.90878 J8.50226
G2 X37.48219 Y167.47633 I4.90878 J-8.50226
G1 F300.0 X38.92045 Y169.39763
G2 F800.0 X43.8163 Y159.61697 I-7.32171 J-9.78066
G2 X25.48996 Y149.03625 I-12.21756 J0.0
G2 Y170.19769 I6.10878 J10.58072
G2 X38.92045 Y169.39763 I6.10878 J-10.58072
G1 F300.0 X40.35872 Y171.31893
G2 F800.0 X46.2163 Y159.61697 I-8.75997 J-11.70196
G2 X24.28996 Y146.95779 I-14.61756 J0.0
G2 Y172.27615 I7.30878 J12.65918
G2 X40.35872 Y171.31893 I7.30878 J-12.65918
G1 F300.0 X41.79698 Y173.24023
G2 F800.0 X48.6163 Y159.61697 I-10.19824 J-13.62326
G2 X23.08996 Y144.87933 I-17.01756 J0.0
G2 Y174.35461 I8.50878 J14.73764
G2 X41.79698 Y173.24023 I8.50878 J-14.73764
G1 F300.0 X43.23525 Y175.16153
G2 F800.0 X51.0163 Y159.61697 I-11.6365 J-15.54456
G2 X21.88996 Y142.80087 I-19.41756 J0.0
G2 Y176.43307 I9.70878 J16.8161
G2 X43.23525 Y175.16153 I9.70878 J-16.8161
G0 Z3.0
G0 X31.72912 Y159.79114
G0 Z-3.0
G1 F300.0 Z-8.0
G2 F800.0 X31.8163 Y159.61697 I-0.13038 J-0.17417
G2 X31.48996 Y159.42856 I-0.21756 J0.0
G2 Y159.80538 I0.10878 J0.18841
G2 X31.72912 Y159.79114 I0.10878 J-0.18841
G1 F300.0 X33.16739 Y161.71243
G2 F800.0 X34.2163 Y159.61697 I-1.56864 J-2.09547
G2 X30.28996 Y157.3501 I-2.61756 J0.0
G2 Y161.88384 I1.30878 J2.26687
G2 X33.16739 Y161.71243 I1.30878 J-2.26687
G1 F300.0 X34.60565 Y163.63373
G2 F800.0 X36.6163 Y159.61697 I-3.00691 J-4.01676
G2 X29.08996 Y155.27163 I-5.01756 J0.0
G2 Y163.9623 I2.50878 J4.34533
G2 X34.60565 Y163.63373 I2.50878 J-4.34533
G1 F300.0 X36.04392 Y165.55503
G2 F800.0 X39.0163 Y159.61697 I-4.44518 J-5.93806
G2 X27.88996 Y153.19317 I-7.41756 J0.0
G2 Y166.04076 I3.70878 J6.4238
G2 X36.04392 Y165.55503 I3.70878 J-6.4238
G1 F300.0 X37.48219 Y167.47633
G2 F800.0 X41.4163 Y159.61697 I-5.88344 J-7.85936
G2 X26.68996 Y151.11471 I-9.81756 J0.0
G2 Y168.11923 I4.90878 J8.50226
G2 X37.48219 Y167.47633 I4.90878 J-8.50226
G1 F300.0 X38.92045 Y169.39763
G2 F800.0 X43.8163 Y159.61697 I-7.32171 J-9.78066
G2 X25.48996 Y149.03625 I-12.21756 J0.0
G2 Y170.19769 I6.10878 J10.58072
G2 X38.92045 Y169.39763 I6.10878 J-10.58072
G1 F300.0 X40.35872 Y171.31893
G2 F800.0 X46.2163 Y159.61697 I-8.75997 J-11.70196
G2 X24.28996 Y146.95779 I-14.61756 J0.0
G2 Y172.27615 I7.30878 J12.65918
G2 X40.35872 Y171.31893 I7.30878 J-12.65918
G1 F300.0 X41.79698 Y173.24023
G2 F800.0 X48.6163 Y159.61697 I-10.19824 J-13.62326
G2 X23.08996 Y144.87933 I-17.01756 J0.0
G2 Y174.35461 I8.50878 J14.73764
G2 X41.79698 Y173.24023 I8.50878 J-14.73764
G1 F300.0 X43.23525 Y175.16153
G2 F800.0 X51.0163 Y159.61697 I-11.6365 J-15.54456
G2 X21.88996 Y142.80087 I-19.41756 J0.0
G2 Y176.43307 I9.70878 J16.8161
G2 X43.23525 Y175.16153 I9.70878 J-16.8161
G0 Z3.0
G0 X31.72912 Y159.79114
G0 Z-7.0
G1 F300.0 Z-12.0
G2 F800.0 X31.8163 Y159.61697 I-0.13038 J-0.17417
G2 X31.48996 Y159.42856 I-0.21756 J0.0
G2 Y159.80538 I0.10878 J0.18841
G2 X31.72912 Y159.79114 I0.10878 J-0.18841
G1 F300.0 X33.16739 Y161.71243
G2 F800.0 X34.2163 Y159.61697 I-1.56864 J-2.09547
G2 X30.28996 Y157.3501 I-2.61756 J0.0
G2 Y161.88384 I1.30878 J2.26687
G2 X33.16739 Y161.71243 I1.30878 J-2.26687
G1 F300.0 X34.60565 Y163.63373
G2 F800.0 X36.6163 Y159.61697 I-3.00691 J-4.01676
G2 X29.08996 Y155.27163 I-5.01756 J0.0
G2 Y163.9623 I2.50878 J4.34533
G2 X34.60565 Y163.63373 I2.50878 J-4.34533
G1 F300.0 X36.04392 Y165.55503
G2 F800.0 X39.0163 Y159.61697 I-4.44518 J-5.93806
G2 X27.88996 Y153.19317 I-7.41756 J0.0
G2 Y166.04076 I3.70878 J6.4238
G2 X36.04392 Y165.55503 I3.70878 J-6.4238
G1 F300.0 X37.48219 Y167.47633
G2 F800.0 X41.4163 Y159.61697 I-5.88344 J-7.85936
G2 X26.68996 Y151.11471 I-9.81756 J0.0
G2 Y168.11923 I4.90878 J8.50226
G2 X37.48219 Y167.47633 I4.90878 J-8.50226
G1 F300.0 X38.92045 Y169.39763
G2 F800.0 X43.8163 Y159.61697 I-7.32171 J-9.78066
G2 X25.48996 Y149.03625 I-12.21756 J0.0
G2 Y170.19769 I6.10878 J10.58072
G2 X38.92045 Y169.39763 I6.10878 J-10.58072
G1 F300.0 X40.35872 Y171.31893
G2 F800.0 X46.2163 Y159.61697 I-8.75997 J-11.70196
G2 X24.28996 Y146.95779 I-14.61756 J0.0
G2 Y172.27615 I7.30878 J12.65918
G2 X40.35872 Y171.31893 I7.30878 J-12.65918
G1 F300.0 X41.79698 Y173.24023
G2 F800.0 X48.6163 Y159.61697 I-10.19824 J-13.62326
G2 X23.08996 Y144.87933 I-17.01756 J0.0
G2 Y174.35461 I8.50878 J14.73764
G2 X41.79698 Y173.24023 I8.50878 J-14.73764
G1 F300.0 X43.23525 Y175.16153
G2 F800.0 X51.0163 Y159.61697 I-11.6365 J-15.54456
G2 X21.88996 Y142.80087 I-19.41756 J0.0
G2 Y176.43307 I9.70878 J16.8161
G2 X43.23525 Y175.16153 I9.70878 J-16.8161
G0 Z3.0
G0 X31.52568 Y96.71971
G0 Z1.0
G1 F300.0 Z-4.0
G2 F800.0 X31.71112 Y96.50453 I-0.03212 J-0.21518
G2 X31.38478 Y96.31612 I-0.21756 J0.0
G2 Y96.69294 I0.10878 J0.18841
G2 X31.52568 Y96.71971 I0.10878 J-0.18841
G1 F300.0 X31.88002 Y99.0934
G2 F800.0 X34.11112 Y96.50453 I-0.38646 J-2.58887
G2 X30.18478 Y94.23766 I-2.61756 J0.0
G2 Y98.7714 I1.30878 J2.26687
G2 X31.88002 Y99.0934 I1.30878 J-2.26687
G1 F300.0 X32.23436 Y101.4671
G2 F800.0 X36.51112 Y96.50453 I-0.7408 J-4.96257
G2 X28.98478 Y92.15919 I-5.01756 J0.0
G2 Y100.84986 I2.50878 J4.34533
G2 X32.23436 Y101.4671 I2.50878 J-4.34533
G1 F300.0 X32.5887 Y103.8408
G2 F800.0 X38.91112 Y96.50453 I-1.09514 J-7.33627
G2 X27.78478 Y90.08073 I-7.41756 J0.0
G2 Y102.92832 I3.70878 J6.4238
G2 X32.5887 Y103.8408 I3.70878 J-6.4238
G1 F300.0 X32.94303 Y106.2145
G2 F800.0 X41.31112 Y96.50453 I-1.44948 J-9.70997
G2 X26.58478 Y88.00227 I-9.81756 J0.0
G2 Y105.00679 I4.90878 J8.50226
G2 X32.94303 Y106.2145 I4.90878 J-8.50226
G1 F300.0 X33.29737 Y108.5882
G2 F800.0 X43.71112 Y96.50453 I-1.80381 J-12.08367
G2 X25.38478 Y85.92381 I-12.21756 J0.0
G2 Y107.08525 I6.10878 J10.58072
G2 X33.29737 Y108.5882 I6.10878 J-10.58072
G1 F300.0 X33.65171 Y110.9619
G2 F800.0 X46.11112 Y96.50453 I-2.15815 J-14.45737
G2 X24.18478 Y83.84535 I-14.61756 J0.0
G2 Y109.16371 I7.30878 J12.65918
G2 X33.65171 Y110.9619 I7.30878 J-12.65918
G1 F300.0 X34.00605 Y113.33559
G2 F800.0 X48.51112 Y96.50453 I-2.51249 J-16.83106
G2 X22.98478 Y81.76689 I-17.01756 J0.0
G2 Y111.24217 I8.50878 J14.73764
G2 X34.00605 Y113.33559 I8.50878 J-14.73764
G1 F300.0 X34.36039 Y115.70929
G2 F800.0 X50.91112 Y96.50453 I-2.86683 J-19.20476
G2 X21.78478 Y79.68843 I-19.41756 J0.0
G2 Y113.32063 I9.70878 J16.8161
G2 X34.36039 Y115.70929 I9.70878 J-16.8161
G0 Z3.0
G0 X31.52568 Y96.71971
G0 Z-3.0
G1 F300.0 Z-8.0
G2 F800.0 X31.71112 Y96.50453 I-0.03212 J-0.21518
G2 X31.38478 Y96.31612 I-0.21756 J0.0
G2 Y96.69294 I0.10878 J0.18841
G2 X31.52568 Y96.71971 I0.10878 J-0.18841
G1 F300.0 X31.88002 Y99.0934
G2 F800.0 X34.11112 Y96.50453 I-0.38646 J-2.58887
G2 X30.18478 Y94.23766 I-2.61756 J0.0
G2 Y98.7714 I1.30878 J2.26687
G2 X31.88002 Y99.0934 I1.30878 J-2.26687
G1 F300.0 X32.23436 Y101.4671
G2 F800.0 X36.51112 Y96.50453 I-0.7408 J-4.96257
G2 X28.98478 Y92.15919 I-5.01756 J0.0
G2 Y100.84986 I2.50878 J4.34533
G2 X32.23436 Y101.4671 I2.50878 J-4.34533
G1 F300.0 X32.5887 Y103.8408
G2 F800.0 X38.91112 Y96.50453 I-1.09514 J-7.33627
G2 X27.78478 Y90.08073 I-7.41756 J0.0
G2 Y102.92832 I3.70878 J6.4238
G2 X32.5887 Y103.8408 I3.70878 J-6.4238
G1 F300.0 X32.94303 Y106.2145
G2 F800.0 X41.31112 Y96.50453 I-1.44948 J-9.70997
G2 X26.58478 Y88.00227 I-9.81756 J0.0
G2 Y105.00679 I4.90878 J8.50226
G2 X32.94303 Y106.2145 I4.90878 J-8.50226
G1 F300.0 X33.29737 Y108.5882
G2 F800.0 X43.71112 Y96.50453 I-1.80381 J-12.08367
G2 X25.38478 Y85.92381 I-12.21756 J0.0
G2 Y107.08525 I6.10878 J10.58072
G2 X33.29737 Y108.5882 I6.10878 J-10.58072
G1 F300.0 X33.65171 Y110.9619
G2 F800.0 X46.11112 Y96.50453 I-2.15815 J-14.45737
G2 X24.18478 Y83.84535 I-14.61756 J0.0
G2 Y109.16371 I7.30878 J12.65918
G2 X33.65171 Y110.9619 I7.30878 J-12.65918
G1 F300.0 X34.00605 Y113.33559
G2 F800.0 X48.51112 Y96.50453 I-2.51249 J-16.83106
G2 X22.98478 Y81.76689 I-17.01756 J0.0
G2 Y111.24217 I8.50878 J14.73764
G2 X34.00605 Y113.33559 I8.50878 J-14.73764
G1 F300.0 X34.36039 Y115.70929
G2 F800.0 X50.91112 Y96.50453 I-2.86683 J-19.20476
G2 X21.78478 Y79.68843 I-19.41756 J0.0
G2 Y113.32063 I9.70878 J16.8161
G2 X34.36039 Y115.70929 I9.70878 J-16.8161
G0 Z3.0
G0 X31.52568 Y96.71971
G0 Z-7.0
G1 F300.0 Z-12.0
G2 F800.0 X31.71112 Y96.50453 I-0.03212 J-0.21518
G2 X31.38478 Y96.31612 I-0.21756 J0.0
G2 Y96.69294 I0.10878 J0.18841
G2 X31.52568 Y96.71971 I0.10878 J-0.18841
G1 F300.0 X31.88002 Y99.0934
G2 F800.0 X34.11112 Y96.50453 I-0.38646 J-2.58887
G2 X30.18478 Y94.23766 I-2.61756 J0.0
G2 Y98.7714 I1.30878 J2.26687
G2 X31.88002 Y99.0934 I1.30878 J-2.26687
G1 F300.0 X32.23436 Y101.4671
G2 F800.0 X36.51112 Y96.50453 I-0.7408 J-4.96257
G2 X28.98478 Y92.15919 I-5.01756 J0.0
G2 Y100.84986 I2.50878 J4.34533
G2 X32.23436 Y101.4671 I2.50878 J-4.34533
G1 F300.0 X32.5887 Y103.8408
G2 F800.0 X38.91112 Y96.50453 I-1.09514 J-7.33627
G2 X27.78478 Y90.08073 I-7.41756 J0.0
G2 Y102.92832 I3.70878 J6.4238
G2 X32.5887 Y103.8408 I3.70878 J-6.4238
G1 F300.0 X32.94303 Y106.2145
G2 F800.0 X41.31112 Y96.50453 I-1.44948 J-9.70997
G2 X26.58478 Y88.00227 I-9.81756 J0.0
G2 Y105.00679 I4.90878 J8.50226
G2 X32.94303 Y106.2145 I4.90878 J-8.50226
G1 F300.0 X33.29737 Y108.5882
G2 F800.0 X43.71112 Y96.50453 I-1.80381 J-12.08367
G2 X25.38478 Y85.92381 I-12.21756 J0.0
G2 Y107.08525 I6.10878 J10.58072
G2 X33.29737 Y108.5882 I6.10878 J-10.58072
G1 F300.0 X33.65171 Y110.9619
G2 F800.0 X46.11112 Y96.50453 I-2.15815 J-14.45737
G2 X24.18478 Y83.84535 I-14.61756 J0.0
G2 Y109.16371 I7.30878 J12.65918
G2 X33.65171 Y110.9619 I7.30878 J-12.65918
G1 F300.0 X34.00605 Y113.33559
G2 F800.0 X48.51112 Y96.50453 I-2.51249 J-16.83106
G2 X22.98478 Y81.76689 I-17.01756 J0.0
G2 Y111.24217 I8.50878 J14.73764
G2 X34.00605 Y113.33559 I8.50878 J-14.73764
G1 F300.0 X34.36039 Y115.70929
G2 F800.0 X50.91112 Y96.50453 I-2.86683 J-19.20476
G2 X21.78478 Y79.68843 I-19.41756 J0.0
G2 Y113.32063 I9.70878 J16.8161
G2 X34.36039 Y115.70929 I9.70878 J-16.8161
G0 Z3.0
G0 X32.88294 Y33.09708
G0 Z1.0
G1 F300.0 Z-4.0
G2 F800.0 X33.09661 Y32.87955 I-0.00389 J-0.21753
G2 X32.77027 Y32.69114 I-0.21756 J0.0
G2 Y33.06797 I0.10878 J0.18841
G2 X32.88294 Y33.09708 I0.10878 J-0.18841
G1 F300.0 X32.92585 Y35.4967
G2 F800.0 X35.49661 Y32.87955 I-0.04681 J-2.61714
G2 X31.57027 Y30.61268 I-2.61756 J0.0
G2 Y35.14643 I1.30878 J2.26687
G2 X32.92585 Y35.4967 I1.30878 J-2.26687
G1 F300.0 X32.96877 Y37.89631
G2 F800.0 X37.89661 Y32.87955 I-0.08972 J-5.01676
G2 X30.37027 Y28.53422 I-5.01756 J0.0
G2 Y37.22489 I2.50878 J4.34533
G2 X32.96877 Y37.89631 I2.50878 J-4.34533
G1 F300.0 X33.01168 Y40.29593
G2 F800.0 X40.29661 Y32.87955 I-0.13264 J-7.41637
G2 X29.17027 Y26.45576 I-7.41756 J0.0
G2 Y39.30335 I3.70878 J6.4238
G2 X33.01168 Y40.29593 I3.70878 J-6.4238
G1 F300.0 X33.0546 Y42.69554
G2 F800.0 X42.69661 Y32.87955 I-0.17555 J-9.81599
G2 X27.97027 Y24.3773 I-9.81756 J0.0
G2 Y41.38181 I4.90878 J8.50226
G2 X33.0546 Y42.69554 I4.90878 J-8.50226
G1 F300.0 X33.09751 Y45.09516
G2 F800.0 X45.09661 Y32.87955 I-0.21847 J-12.21561
G2 X26.77027 Y22.29884 I-12.21756 J0.0
G2 Y43.46027 I6.10878 J10.58072
G2 X33.09751 Y45.09516 I6.10878 J-10.58072
G1 F300.0 X33.14043 Y47.49478
G2 F800.0 X47.49661 Y32.87955 I-0.26138 J-14.61522
G2 X25.57027 Y20.22038 I-14.61756 J0.0
G2 Y45.53873 I7.30878 J12.65918
G2 X33.14043 Y47.49478 I7.30878 J-12.65918
G1 F300.0 X33.18334 Y49.89439
G2 F800.0 X49.89661 Y32.87955 I-0.3043 J-17.01484
G2 X24.37027 Y18.14191 I-17.01756 J0.0
G2 Y47.61719 I8.50878 J14.73764
G2 X33.18334 Y49.89439 I8.50878 J-14.73764
G1 F300.0 X33.22626 Y52.29401
G2 F800.0 X52.29661 Y32.87955 I-0.34721 J-19.41446
G2 X23.17027 Y16.06345 I-19.41756 J0.0
G2 Y49.69565 I9.70878 J16.8161
G2 X33.22626 Y52.29401 I9.70878 J-16.8161
G0 Z3.0
G0 X32.88294 Y33.09708
G0 Z-3.0
G1 F300.0 Z-8.0
G2 F800.0 X33.09661 Y32.87955 I-0.00389 J-0.21753
G2 X32.77027 Y32.69114 I-0.21756 J0.0
G2 Y33.06797 I0.10878 J0.18841
G2 X32.88294 Y33.09708 I0.10878 J-0.18841
G1 F300.0 X32.92585 Y35.4967
G2 F800.0 X35.49661 Y32.87955 I-0.04681 J-2.61714
G2 X31.57027 Y30.61268 I-2.61756 J0.0
G2 Y35.14643 I1.30878 J2.26687
G2 X32.92585 Y35.4967 I1.30878 J-2.26687
G1 F300.0 X32.96877 Y37.89631
G2 F800.0 X37.89661 Y32.87955 I-0.08972 J-5.01676
G2 X30.37027 Y28.53422 I-5.01756 J0.0
G2 Y37.22489 I2.50878 J4.34533
G2 X32.96877 Y37.89631 I2.50878 J-4.34533
G1 F300.0 X33.01168 Y40.29593
G2 F800.0 X40.29661 Y32.87955 I-0.13264 J-7.41637
G2 X29.17027 Y26.45576 I-7.41756 J0.0
G2 Y39.30335 I3.70878 J6.4238
G2 X33.01168 Y40.29593 I3.70878 J-6.4238
G1 F300.0 X33.0546 Y42.69554
G2 F800.0 X42.69661 Y32.87955 I-0.17555 J-9.81599
G2 X27.97027 Y24.3773 I-9.81756 J0.0
G2 Y41.38181 I4.90878 J8.50226
G2 X33.0546 Y42.69554 I4.90878 J-8.50226
G1 F300.0 X33.09751 Y45.09516
G2 F800.0 X45.09661 Y32.87955 I-0.21847 J-12.21561
G2 X26.77027 Y22.29884 I-12.21756 J0.0
G2 Y43.46027 I6.10878 J10.58072
G2 X33.09751 Y45.09516 I6.10878 J-10.58072
G1 F300.0 X33.14043 Y47.49478
G2 F800.0 X47.49661 Y32.87955 I-0.26138 J-14.61522
G2 X25.57027 Y20.22038 I-14.61756 J0.0
G2 Y45.53873 I7.30878 J12.65918
G2 X33.14043 Y47.49478 I7.30878 J-12.65918
G1 F300.0 X33.18334 Y49.89439
G2 F800.0 X49.89661 Y32.87955 I-0.3043 J-17.01484
G2 X24.37027 Y18.14191 I-17.01756 J0.0
G2 Y47.61719 I8.50878 J14.73764
G2 X33.18334 Y49.89439 I8.50878 J-14.73764
G1 F300.0 X33.22626 Y52.29401
G2 F800.0 X52.29661 Y32.87955 I-0.34721 J-19.41446
G2 X23.17027 Y16.06345 I-19.41756 J0.0
G2 Y49.69565 I9.70878 J16.8161
G2 X33.22626 Y52.29401 I9.70878 J-16.8161
G0 Z3.0
G0 X32.88294 Y33.09708
G0 Z-7.0
G1 F300.0 Z-12.0
G2 F800.0 X33.09661 Y32.87955 I-0.00389 J-0.21753
G2 X32.77027 Y32.69114 I-0.21756 J0.0
G2 Y33.06797 I0.10878 J0.18841
G2 X32.88294 Y33.09708 I0.10878 J-0.18841
G1 F300.0 X32.92585 Y35.4967
G2 F800.0 X35.49661 Y32.87955 I-0.04681 J-2.61714
G2 X31.57027 Y30.61268 I-2.61756 J0.0
G2 Y35.14643 I1.30878 J2.26687
G2 X32.92585 Y35.4967 I1.30878 J-2.26687
G1 F300.0 X32.96877 Y37.89631
G2 F800.0 X37.89661 Y32.87955 I-0.08972 J-5.01676
G2 X30.37027 Y28.53422 I-5.01756 J0.0
G2 Y37.22489 I2.50878 J4.34533
G2 X32.96877 Y37.89631 I2.50878 J-4.34533
G1 F300.0 X33.01168 Y40.29593
G2 F800.0 X40.29661 Y32.87955 I-0.13264 J-7.41637
G2 X29.17027 Y26.45576 I-7.41756 J0.0
G2 Y39.30335 I3.70878 J6.4238
G2 X33.01168 Y40.29593 I3.70878 J-6.4238
G1 F300.0 X33.0546 Y42.69554
G2 F800.0 X42.69661 Y32.87955 I-0.17555 J-9.81599
G2 X27.97027 Y24.3773 I-9.81756 J0.0
G2 Y41.38181 I4.90878 J8.50226
G2 X33.0546 Y42.69554 I4.90878 J-8.50226
G1 F300.0 X33.09751 Y45.09516
G2 F800.0 X45.09661 Y32.87955 I-0.21847 J-12.21561
G2 X26.77027 Y22.29884 I-12.21756 J0.0
G2 Y43.46027 I6.10878 J10.58072
G2 X33.09751 Y45.09516 I6.10878 J-10.58072
G1 F300.0 X33.14043 Y47.49478
G2 F800.0 X47.49661 Y32.87955 I-0.26138 J-14.61522
G2 X25.57027 Y20.22038 I-14.61756 J0.0
G2 Y45.53873 I7.30878 J12.65918
G2 X33.14043 Y47.49478 I7.30878 J-12.65918
G1 F300.0 X33.18334 Y49.89439
G2 F800.0 X49.89661 Y32.87955 I-0.3043 J-17.01484
G2 X24.37027 Y18.14191 I-17.01756 J0.0
G2 Y47.61719 I8.50878 J14.73764
G2 X33.18334 Y49.89439 I8.50878 J-14.73764
G1 F300.0 X33.22626 Y52.29401
G2 F800.0 X52.29661 Y32.87955 I-0.34721 J-19.41446
G2 X23.17027 Y16.06345 I-19.41756 J0.0
G2 Y49.69565 I9.70878 J16.8161
G2 X33.22626 Y52.29401 I9.70878 J-16.8161
G0 Z3.0
G0 X98.31815 Y32.94155
G0 Z1.0
G1 F300.0 Z-4.0
G2 F800.0 X98.41791 Y33.06797 I0.20854 J-0.062
G2 X98.74425 Y32.87955 I0.10878 J-0.18841
G2 X98.41791 Y32.69114 I-0.21756 J0.0
G2 X98.31815 Y32.94155 I0.10878 J0.18841
G1 F300.0 X96.01767 Y33.62551
G2 F800.0 X97.21791 Y35.14643 I2.50902 J-0.74596
G2 X101.14425 Y32.87955 I1.30878 J-2.26687
G2 X97.21791 Y30.61268 I-2.61756 J0.0
G2 X96.01767 Y33.62551 I1.30878 J2.26687
G1 F300.0 X93.71719 Y34.30946
G2 F800.0 X96.01791 Y37.22489 I4.8095 J-1.42991
G2 X103.54425 Y32.87955 I2.50878 J-4.34533
G2 X96.01791 Y28.53422 I-5.01756 J0.0
G2 X93.71719 Y34.30946 I2.50878 J4.34533
G1 F300.0 X91.41671 Y34.99342
G2 F800.0 X94.81791 Y39.30335 I7.10998 J-2.11387
G2 X105.94425 Y32.87955 I3.70878 J-6.4238
G2 X94.81791 Y26.45576 I-7.41756 J0.0
G2 X91.41671 Y34.99342 I3.70878 J6.4238
G1 F300.0 X89.11623 Y35.67737
G2 F800.0 X93.61791 Y41.38181 I9.41046 J-2.79782
G2 X108.34425 Y32.87955 I4.90878 J-8.50226
G2 X93.61791 Y24.3773 I-9.81756 J0.0
G2 X89.11623 Y35.67737 I4.90878 J8.50226
G1 F300.0 X86.81575 Y36.36133
G2 F800.0 X92.41791 Y43.46027 I11.71094 J-3.48178
G2 X110.74425 Y32.87955 I6.10878 J-10.58072
G2 X92.41791 Y22.29884 I-12.21756 J0.0
G2 X86.81575 Y36.36133 I6.10878 J10.58072
G1 F300.0 X84.51527 Y37.04528
G2 F800.0 X91.21791 Y45.53873 I14.01141 J-4.16573
G2 X113.14425 Y32.87955 I7.30878 J-12.65918
G2 X91.21791 Y20.22038 I-14.61756 J0.0
G2 X84.51527 Y37.04528 I7.30878 J12.65918
G1 F300.0 X82.21479 Y37.72924
G2 F800.0 X90.01791 Y47.61719 I16.31189 J-4.84969
G2 X115.54425 Y32.87955 I8.50878 J-14.73764
G2 X90.01791 Y18.14191 I-17.01756 J0.0
G2 X82.21479 Y37.72924 I8.50878 J14.73764
G1 F300.0 X79.91431 Y38.41319
G2 F800.0 X88.81791 Y49.69565 I18.61237 J-5.53364
G2 X117.94425 Y32.87955 I9.70878 J-16.8161
G2 X88.81791 Y16.06345 I-19.41756 J0.0
G2 X79.91431 Y38.41319 I9.70878 J16.8161
G0 Z3.0
G0 X98.31815 Y32.94155
G0 Z-3.0
G1 F300.0 Z-8.0
G2 F800.0 X98.41791 Y33.06797 I0.20854 J-0.062
G2 X98.74425 Y32.87955 I0.10878 J-0.18841
G2 X98.41791 Y32.69114 I-0.21756 J0.0
G2 X98.31815 Y32.94155 I0.10878 J0.18841
G1 F300.0 X96.01767 Y33.62551
G2 F800.0 X97.21791 Y35.14643 I2.50902 J-0.74596
G2 X101.14425 Y32.87955 I1.30878 J-2.26687
G2 X97.21791 Y30.61268 I-2.61756 J0.0
G2 X96.01767 Y33.62551 I1.30878 J2.26687
G1 F300.0 X93.71719 Y34.30946
G2 F800.0 X96.01791 Y37.22489 I4.8095 J-1.42991
G2 X103.54425 Y32.87955 I2.50878 J-4.34533
G2 X96.01791 Y28.53422 I-5.01756 J0.0
G2 X93.71719 Y34.30946 I2.50878 J4.34533
G1 F300.0 X91.41671 Y34.99342
G2 F800.0 X94.81791 Y39.30335 I7.10998 J-2.11387
G2 X105.94425 Y32.87955 I3.70878 J-6.4238
G2 X94.81791 Y26.45576 I-7.41756 J0.0
G2 X91.41671 Y34.99342 I3.70878 J6.4238
G1 F300.0 X89.11623 Y35.67737
G2 F800.0 X93.61791 Y41.38181 I9.41046 J-2.79782
G2 X108.34425 Y32.87955 I4.90878 J-8.50226
G2 X93.61791 Y24.3773 I-9.81756 J0.0
G2 X89.11623 Y35.67737 I4.90878 J8.50226
G1 F300.0 X86.81575 Y36.36133
G2 F800.0 X92.41791 Y43.46027 I11.71094 J-3.48178
G2 X110.74425 Y32.87955 I6.10878 J-10.58072
G2 X92.41791 Y22.29884 I-12.21756 J0.0
G2 X86.81575 Y36.36133 I6.10878 J10.58072
G1 F300.0 X84.51527 Y37.04528
G2 F800.0 X91.21791 Y45.53873 I14.01141 J-4.16573
G2 X113.14425 Y32.87955 I7.30878 J-12.65918
G2 X91.21791 Y20.22038 I-14.61756 J0.0
G2 X84.51527 Y37.04528 I7.30878 J12.65918
G1 F300.0 X82.21479 Y37.72924
G2 F800.0 X90.01791 Y47.61719 I16.31189 J-4.84969
G2 X115.54425 Y32.87955 I8.50878 J-14.73764
G2 X90.01791 Y18.14191 I-17.01756 J0.0
G2 X82.21479 Y37.72924 I8.50878 J14.73764
G1 F300.0 X79.91431 Y38.41319
G2 F800.0 X88.81791 Y49.69565 I18.61237 J-5.53364
G2 X117.94425 Y32.87955 I9.70878 J-16.8161
G2 X88.81791 Y16.06345 I-19.41756 J0.0
G2 X79.91431 Y38.41319 I9.70878 J16.8161
G0 Z3.0
G0 X98.31815 Y32.94155
G0 Z-7.0
G1 F300.0 Z-12.0
G2 F800.0 X98.41791 Y33.06797 I0.20854 J-0.062
G2 X98.74425 Y32.87955 I0.10878 J-0.18841
G2 X98.41791 Y32.69114 I-0.21756 J0.0
G2 X98.31815 Y32.94155 I0.10878 J0.18841
G1 F300.0 X96.01767 Y33.62551
G2 F800.0 X97.21791 Y35.14643 I2.50902 J-0.74596
G2 X101.14425 Y32.87955 I1.30878 J-2.26687
G2 X97.21791 Y30.61268 I-2.61756 J0.0
G2 X96.01767 Y33.62551 I1.30878 J2.26687
G1 F300.0 X93.71719 Y34.30946
G2 F800.0 X96.01791 Y37.22489 I4.8095 J-1.42991
G2 X103.54425 Y32.87955 I2.50878 J-4.34533
G2 X96.01791 Y28.53422 I-5.01756 J0.0
G2 X93.71719 Y34.30946 I2.50878 J4.34533
G1 F300.0 X91.41671 Y34.99342
G2 F800.0 X94.81791 Y39.30335 I7.10998 J-2.11387
G2 X105.94425 Y32.87955 I3.70878 J-6.4238
G2 X94.81791 Y26.45576 I-7.41756 J0.0
G2 X91.41671 Y34.99342 I3.70878 J6.4238
G1 F300.0 X89.11623 Y35.67737
G2 F800.0 X93.61791 Y41.38181 I9.41046 J-2.79782
G2 X108.34425 Y32.87955 I4.90878 J-8.50226
G2 X93.61791 Y24.3773 I-9.81756 J0.0
G2 X89.11623 Y35.67737 I4.90878 J8.50226
G1 F300.0 X86.81575 Y36.36133
G2 F800.0 X92.41791 Y43.46027 I11.71094 J-3.48178
G2 X110.74425 Y32.87955 I6.10878 J-10.58072
G2 X92.41791 Y22.29884 I-12.21756 J0.0
G2 X86.81575 Y36.36133 I6.10878 J10.58072
G1 F300.0 X84.51527 Y37.04528
G2 F800.0 X91.21791 Y45.53873 I14.01141 J-4.16573
G2 X113.14425 Y32.87955 I7.30878 J-12.65918
G2 X91.21791 Y20.22038 I-14.61756 J0.0
G2 X84.51527 Y37.04528 I7.30878 J12.65918
G1 F300.0 X82.21479 Y37.72924
G2 F800.0 X90.01791 Y47.61719 I16.31189 J-4.84969
G2 X115.54425 Y32.87955 I8.50878 J-14.73764
G2 X90.01791 Y18.14191 I-17.01756 J0.0
G2 X82.21479 Y37.72924 I8.50878 J14.73764
G1 F300.0 X79.91431 Y38.41319
G2 F800.0 X88.81791 Y49.69565 I18.61237 J-5.53364
G2 X117.94425 Y32.87955 I9.70878 J-16.8161
G2 X88.81791 Y16.06345 I-19.41756 J0.0
G2 X79.91431 Y38.41319 I9.70878 J16.8161
G0 Z3.0
G0 X163.42223 Y32.8939
G0 Z1.0
G1 F300.0 Z-4.0
G2 F800.0 X163.53054 Y33.06797 I0.21709 J-0.01435
G2 X163.85688 Y32.87955 I0.10878 J-0.18841
G2 X163.53054 Y32.69114 I-0.21756 J0.0
G2 X163.42223 Y32.8939 I0.10878 J0.18841
G1 F300.0 X161.02746 Y33.05218
G2 F800.0 X162.33054 Y35.14643 I2.61186 J-0.17263
G2 X166.25688 Y32.87955 I1.30878 J-2.26687
G2 X162.33054 Y30.61268 I-2.61756 J0.0
G2 X161.02746 Y33.05218 I1.30878 J2.26687
G1 F300.0 X158.63268 Y33.21046
G2 F800.0 X161.13054 Y37.22489 I5.00664 J-0.3309
G2 X168.65688 Y32.87955 I2.50878 J-4.34533
G2 X161.13054 Y28.53422 I-5.01756 J0.0
G2 X158.63268 Y33.21046 I2.50878 J4.34533
G1 F300.0 X156.23791 Y33.36874
G2 F800.0 X159.93054 Y39.30335 I7.40141 J-0.48918
G2 X171.05688 Y32.87955 I3.70878 J-6.4238
G2 X159.93054 Y26.45576 I-7.41756 J0.0
G2 X156.23791 Y33.36874 I3.70878 J6.4238
G1 F300.0 X153.84313 Y33.52701
G2 F800.0 X158.73054 Y41.38181 I9.79619 J-0.64746
G2 X173.45688 Y32.87955 I4.90878 J-8.50226
G2 X158.73054 Y24.3773 I-9.81756 J0.0
G2 X153.84313 Y33.52701 I4.90878 J8.50226
G1 F300.0 X151.44836 Y33.68529
G2 F800.0 X157.53054 Y43.46027 I12.19096 J-0.80574
G2 X175.85688 Y32.87955 I6.10878 J-10.58072
G2 X157.53054 Y22.29884 I-12.21756 J0.0
G2 X151.44836 Y33.68529 I6.10878 J10.58072
G1 F300.0 X149.05358 Y33.84357
G2 F800.0 X156.33054 Y45.53873 I14.58574 J-0.96402
G2 X178.25688 Y32.87955 I7.30878 J-12.65918
G2 X156.33054 Y20.22038 I-14.61756 J0.0
G2 X149.05358 Y33.84357 I7.30878 J12.65918
G1 F300.0 X146.65881 Y34.00185
G2 F800.0 X155.13054 Y47.61719 I16.98051 J-1.12229
G2 X180.65688 Y32.87955 I8.50878 J-14.73764
G2 X155.13054 Y18.14191 I-17.01756 J0.0
G2 X146.65881 Y34.00185 I8.50878 J14.73764
G1 F300.0 X144.26403 Y34.16013
G2 F800.0 X153.93054 Y49.69565 I19.37529 J-1.28057
G2 X183.05688 Y32.87955 I9.70878 J-16.8161
G2 X153.93054 Y16.06345 I-19.41756 J0.0
G2 X144.26403 Y34.16013 I9.70878 J16.8161
G0 Z3.0
G0 X163.42223 Y32.8939
G0 Z-3.0
G1 F300.0 Z-8.0
G2 F800.0 X163.53054 Y33.06797 I0.21709 J-0.01435
G2 X163.85688 Y32.87955 I0.10878 J-0.18841
G2 X163.53054 Y32.69114 I-0.21756 J0.0
G2 X163.42223 Y32.8939 I0.10878 J0.18841
G1 F300.0 X161.02746 Y33.05218
G2 F800.0 X162.33054 Y35.14643 I2.61186 J-0.17263
G2 X166.25688 Y32.87955 I1.30878 J-2.26687
G2 X162.33054 Y30.61268 I-2.61756 J0.0
G2 X161.02746 Y33.05218 I1.30878 J2.26687
G1 F300.0 X158.63268 Y33.21046
G2 F800.0 X161.13054 Y37.22489 I5.00664 J-0.3309
G2 X168.65688 Y32.87955 I2.50878 J-4.34533
G2 X161.13054 Y28.53422 I-5.01756 J0.0
G2 X158.63268 Y33.21046 I2.50878 J4.34533
G1 F300.0 X156.23791 Y33.36874
G2 F800.0 X159.93054 Y39.30335 I7.40141 J-0.48918
G2 X171.05688 Y32.87955 I3.70878 J-6.4238
G2 X159.93054 Y26.45576 I-7.41756 J0.0
G2 X156.23791 Y33.36874 I3.70878 J6.4238
G1 F300.0 X153.84313 Y33.52701
G2 F800.0 X158.73054 Y41.38181 I9.79619 J-0.64746
G2 X173.45688 Y32.87955 I4.90878 J-8.50226
G2 X158.73054 Y24.3773 I-9.81756 J0.0
G2 X153.84313 Y33.52701 I4.90878 J8.50226
G1 F300.0 X151.44836 Y33.68529
G2 F800.0 X157.53054 Y43.46027 I12.19096 J-0.80574
G2 X175.85688 Y32.87955 I6.10878 J-10.58072
G2 X157.53054 Y22.29884 I-12.21756 J0.0
G2 X151.44836 Y33.68529 I6.10878 J10.58072
G1 F300.0 X149.05358 Y33.84357
G2 F800.0 X156.33054 Y45.53873 I14.58574 J-0.96402
G2 X178.25688 Y32.87955 I7.30878 J-12.65918
G2 X156.33054 Y20.22038 I-14.61756 J0.0
G2 X149.05358 Y33.84357 I7.30878 J12.65918
G1 F300.0 X146.65881 Y34.00185
G2 F800.0 X155.13054 Y47.61719 I16.98051 J-1.12229
G2 X180.65688 Y32.87955 I8.50878 J-14.73764
G2 X155.13054 Y18.14191 I-17.01756 J0.0
G2 X146.65881 Y34.00185 I8.50878 J14.73764
G1 F300.0 X144.26403 Y34.16013
G2 F800.0 X153.93054 Y49.69565 I19.37529 J-1.28057
G2 X183.05688 Y32.87955 I9.70878 J-16.8161
G2 X153.93054 Y16.06345 I-19.41756 J0.0
G2 X144.26403 Y34.16013 I9.70878 J16.8161
G0 Z3.0
G0 X163.42223 Y32.8939
G0 Z-7.0
G1 F300.0 Z-12.0
G2 F800.0 X163.53054 Y33.06797 I0.21709 J-0.01435
G2 X163.85688 Y32.87955 I0.10878 J-0.18841
G2 X163.53054 Y32.69114 I-0.21756 J0.0
G2 X163.42223 Y32.8939 I0.10878 J0.18841
G1 F300.0 X161.02746 Y33.05218
G2 F800.0 X162.33054 Y35.14643 I2.61186 J-0.17263
G2 X166.25688 Y32.87955 I1.30878 J-2.26687
G2 X162.33054 Y30.61268 I-2.61756 J0.0
G2 X161.02746 Y33.05218 I1.30878 J2.26687
G1 F300.0 X158.63268 Y33.21046
G2 F800.0 X161.13054 Y37.22489 I5.00664 J-0.3309
G2 X168.65688 Y32.87955 I2.50878 J-4.34533
G2 X161.13054 Y28.53422 I-5.01756 J0.0
G2 X158.63268 Y33.21046 I2.50878 J4.34533
G1 F300.0 X156.23791 Y33.36874
G2 F800.0 X159.93054 Y39.30335 I7.40141 J-0.48918
G2 X171.05688 Y32.87955 I3.70878 J-6.4238
G2 X159.93054 Y26.45576 I-7.41756 J0.0
G2 X156.23791 Y33.36874 I3.70878 J6.4238
G1 F300.0 X153.84313 Y33.52701
G2 F800.0 X158.73054 Y41.38181 I9.79619 J-0.64746
G2 X173.45688 Y32.87955 I4.90878 J-8.50226
G2 X158.73054 Y24.3773 I-9.81756 J0.0
G2 X153.84313 Y33.52701 I4.90878 J8.50226
G1 F300.0 X151.44836 Y33.68529
G2 F800.0 X157.53054 Y43.46027 I12.19096 J-0.80574
G2 X175.85688 Y32.87955 I6.10878 J-10.58072
G2 X157.53054 Y22.29884 I-12.21756 J0.0
G2 X151.44836 Y33.68529 I6.10878 J10.58072
G1 F300.0 X149.05358 Y33.84357
G2 F800.0 X156.33054 Y45.53873 I14.58574 J-0.96402
G2 X178.25688 Y32.87955 I7.30878 J-12.65918
G2 X156.33054 Y20.22038 I-14.61756 J0.0
G2 X149.05358 Y33.84357 I7.30878 J12.65918
G1 F300.0 X146.65881 Y34.00185
G2 F800.0 X155.13054 Y47.61719 I16.98051 J-1.12229
G2 X180.65688 Y32.87955 I8.50878 J-14.73764
G2 X155.13054 Y18.14191 I-17.01756 J0.0
G2 X146.65881 Y34.00185 I8.50878 J14.73764
G1 F300.0 X144.26403 Y34.16013
G2 F800.0 X153.93054 Y49.69565 I19.37529 J-1.28057
G2 X183.05688 Y32.87955 I9.70878 J-16.8161
G2 X153.93054 Y16.06345 I-19.41756 J0.0
G2 X144.26403 Y34.16013 I9.70878 J16.8161
G0 Z3.0
G0 X216.72088 Y62.54718
G0 Z1.0
G1 F300.0 Z-4.0
G2 F800.0 X216.81467 Y62.81495 I0.20257 J0.07936
G2 X217.14101 Y62.62654 I0.10878 J-0.18841
G2 X216.81467 Y62.43812 I-0.21756 J0.0
G2 X216.72088 Y62.54718 I0.10878 J0.18841
G1 F300.0 X214.48626 Y61.6717
G2 F800.0 X215.61467 Y64.89341 I2.43719 J0.95484
G2 X219.54101 Y62.62654 I1.30878 J-2.26687
G2 X215.61467 Y60.35966 I-2.61756 J0.0
G2 X214.48626 Y61.6717 I1.30878 J2.26687
G1 F300.0 X212.25163 Y60.79622
G2 F800.0 X214.41467 Y66.97187 I4.67181 J1.83032
G2 X221.94101 Y62.62654 I2.50878 J-4.34533
G2 X214.41467 Y58.2812 I-5.01756 J0.0
G2 X212.25163 Y60.79622 I2.50878 J4.34533
G1 F300.0 X210.01701 Y59.92074
G2 F800.0 X213.21467 Y69.05033 I6.90644 J2.70579
G2 X224.34101 Y62.62654 I3.70878 J-6.4238
G2 X213.21467 Y56.20274 I-7.41756 J0.0
G2 X210.01701 Y59.92074 I3.70878 J6.4238
G1 F300.0 X207.78239 Y59.04526
G2 F800.0 X212.01467 Y71.12879 I9.14106 J3.58127
G2 X226.74101 Y62.62654 I4.90878 J-8.50226
G2 X212.01467 Y54.12428 I-9.81756 J0.0
G2 X207.78239 Y59.04526 I4.90878 J8.50226
G1 F300.0 X205.54777 Y58.16979
G2 F800.0 X210.81467 Y73.20725 I11.37568 J4.45675
G2 X229.14101 Y62.62654 I6.10878 J-10.58072
G2 X210.81467 Y52.04582 I-12.21756 J0.0
G2 X205.54777 Y58.16979 I6.10878 J10.58072
G1 F300.0 X203.31314 Y57.29431
G2 F800.0 X209.61467 Y75.28572 I13.61031 J5.33223
G2 X231.54101 Y62.62654 I7.30878 J-12.65918
G2 X209.61467 Y49.96736 I-14.61756 J0.0
G2 X203.31314 Y57.29431 I7.30878 J12.65918
G1 F300.0 X201.07852 Y56.41883
G2 F800.0 X208.41467 Y77.36418 I15.84493 J6.20771
G2 X233.94101 Y62.62654 I8.50878 J-14.73764
G2 X208.41467 Y47.8889 I-17.01756 J0.0
G2 X201.07852 Y56.41883 I8.50878 J14.73764
G1 F300.0 X198.8439 Y55.54335
G2 F800.0 X207.21467 Y79.44264 I18.07955 J7.08318
G2 X236.34101 Y62.62654 I9.70878 J-16.8161
G2 X207.21467 Y45.81044 I-19.41756 J0.0
G2 X198.8439 Y55.54335 I9.70878 J16.8161
G0 Z3.0
G0 X216.72088 Y62.54718
G0 Z-3.0
G1 F300.0 Z-8.0
G2 F800.0 X216.81467 Y62.81495 I0.20257 J0.07936
G2 X217.14101 Y62.62654 I0.10878 J-0.18841
G2 X216.81467 Y62.43812 I-0.21756 J0.0
G2 X216.72088 Y62.54718 I0.10878 J0.18841
G1 F300.0 X214.48626 Y61.6717
G2 F800.0 X215.61467 Y64.89341 I2.43719 J0.95484
G2 X219.54101 Y62.62654 I1.30878 J-2.26687
G2 X215.61467 Y60.35966 I-2.61756 J0.0
G2 X214.48626 Y61.6717 I1.30878 J2.26687
G1 F300.0 X212.25163 Y60.79622
G2 F800.0 X214.41467 Y66.97187 I4.67181 J1.83032
G2 X221.94101 Y62.62654 I2.50878 J-4.34533
G2 X214.41467 Y58.2812 I-5.01756 J0.0
G2 X212.25163 Y60.79622 I2.50878 J4.34533
G1 F300.0 X210.01701 Y59.92074
G2 F800.0 X213.21467 Y69.05033 I6.90644 J2.70579
G2 X224.34101 Y62.62654 I3.70878 J-6.4238
G2 X213.21467 Y56.20274 I-7.41756 J0.0
G2 X210.01701 Y59.92074 I3.70878 J6.4238
G1 F300.0 X207.78239 Y59.04526
G2 F800.0 X212.01467 Y71.12879 I9.14106 J3.58127
G2 X226.74101 Y62.62654 I4.90878 J-8.50226
G2 X212.01467 Y54.12428 I-9.81756 J0.0
G2 X207.78239 Y59.04526 I4.90878 J8.50226
G1 F300.0 X205.54777 Y58.16979
G2 F800.0 X210.81467 Y73.20725 I11.37568 J4.45675
G2 X229.14101 Y62.62654 I6.10878 J-10.58072
G2 X210.81467 Y52.04582 I-12.21756 J0.0
G2 X205.54777 Y58.16979 I6.10878 J10.58072
G1 F300.0 X203.31314 Y57.29431
G2 F800.0 X209.61467 Y75.28572 I13.61031 J5.33223
G2 X231.54101 Y62.62654 I7.30878 J-12.65918
G2 X209.61467 Y49.96736 I-14.61756 J0.0
G2 X203.31314 Y57.29431 I7.30878 J12.65918
G1 F300.0 X201.07852 Y56.41883
G2 F800.0 X208.41467 Y77.36418 I15.84493 J6.20771
G2 X233.94101 Y62.62654 I8.50878 J-14.73764
G2 X208.41467 Y47.8889 I-17.01756 J0.0
G2 X201.07852 Y56.41883 I8.50878 J14.73764
G1 F300.0 X198.8439 Y55.54335
G2 F800.0 X207.21467 Y79.44264 I18.07955 J7.08318
G2 X236.34101 Y62.62654 I9.70878 J-16.8161
G2 X207.21467 Y45.81044 I-19.41756 J0.0
G2 X198.8439 Y55.54335 I9.70878 J16.8161
G0 Z3.0
G0 X216.72088 Y62.54718
G0 Z-7.0
G1 F300.0 Z-12.0
G2 F800.0 X216.81467 Y62.81495 I0.20257 J0.07936
G2 X217.14101 Y62.62654 I0.10878 J-0.18841
G2 X216.81467 Y62.43812 I-0.21756 J0.0
G2 X216.72088 Y62.54718 I0.10878 J0.18841
G1 F300.0 X214.48626 Y61.6717
G2 F800.0 X215.61467 Y64.89341 I2.43719 J0.95484
G2 X219.54101 Y62.62654 I1.30878 J-2.26687
G2 X215.61467 Y60.35966 I-2.61756 J0.0
G2 X214.48626 Y61.6717 I1.30878 J2.26687
G1 F300.0 X212.25163 Y60.79622
G2 F800.0 X214.41467 Y66.97187 I4.67181 J1.83032
G2 X221.94101 Y62.62654 I2.50878 J-4.34533
G2 X214.41467 Y58.2812 I-5.01756 J0.0
G2 X212.25163 Y60.79622 I2.50878 J4.34533
G1 F300.0 X210.01701 Y59.92074
G2 F800.0 X213.21467 Y69.05033 I6.90644 J2.70579
G2 X224.34101 Y62.62654 I3.70878 J-6.4238
G2 X213.21467 Y56.20274 I-7.41756 J0.0
G2 X210.01701 Y59.92074 I3.70878 J6.4238
G1 F300.0 X207.78239 Y59.04526
G2 F800.0 X212.01467 Y71.12879 I9.14106 J3.58127
G2 X226.74101 Y62.62654 I4.90878 J-8.50226
G2 X212.01467 Y54.12428 I-9.81756 J0.0
G2 X207.78239 Y59.04526 I4.90878 J8.50226
G1 F300.0 X205.54777 Y58.16979
G2 F800.0 X210.81467 Y73.20725 I11.37568 J4.45675
G2 X229.14101 Y62.62654 I6.10878 J-10.58072
G2 X210.81467 Y52.04582 I-12.21756 J0.0
G2 X205.54777 Y58.16979 I6.10878 J10.58072
G1 F300.0 X203.31314 Y57.29431
G2 F800.0 X209.61467 Y75.28572 I13.61031 J5.33223
G2 X231.54101 Y62.62654 I7.30878 J-12.65918
G2 X209.61467 Y49.96736 I-14.61756 J0.0
G2 X203.31314 Y57.29431 I7.30878 J12.65918
G1 F300.0 X201.07852 Y56.41883
G2 F800.0 X208.41467 Y77.36418 I15.84493 J6.20771
G2 X233.94101 Y62.62654 I8.50878 J-14.73764
G2 X208.41467 Y47.8889 I-17.01756 J0.0
G2 X201.07852 Y56.41883 I8.50878 J14.73764
G1 F300.0 X198.8439 Y55.54335
G2 F800.0 X207.21467 Y79.44264 I18.07955 J7.08318
G2 X236.34101 Y62.62654 I9.70878 J-16.8161
G2 X207.21467 Y45.81044 I-19.41756 J0.0
G2 X198.8439 Y55.54335 I9.70878 J16.8161
G0 Z3.0
G0 X216.11714 Y189.52659
G0 Z1.0
G1 F300.0 Z-4.0
G2 F800.0 X216.03618 Y189.55395 I0.02782 J0.21577
G2 Y189.93078 I0.10878 J0.18841
G2 X216.36252 Y189.74237 I0.10878 J-0.18841
G2 X216.11714 Y189.52659 I-0.21756 J0.0
G1 F300.0 X215.81027 Y187.14629
G2 F800.0 X214.83618 Y187.47549 I0.33469 J2.59607
G2 Y192.00924 I1.30878 J2.26687
G2 X218.76252 Y189.74237 I1.30878 J-2.26687
G2 X215.81027 Y187.14629 I-2.61756 J0.0
G1 F300.0 X215.5034 Y184.76599
G2 F800.0 X213.63618 Y185.39703 I0.64156 J4.97638
G2 Y194.0877 I2.50878 J4.34533
G2 X221.16252 Y189.74237 I2.50878 J-4.34533
G2 X215.5034 Y184.76599 I-5.01756 J0.0
G1 F300.0 X215.19653 Y182.38569
G2 F800.0 X212.43618 Y183.31857 I0.94843 J7.35668
G2 Y196.16616 I3.70878 J6.4238
G2 X223.56252 Y189.74237 I3.70878 J-6.4238
G2 X215.19653 Y182.38569 I-7.41756 J0.0
G1 F300.0 X214.88966 Y180.00539
G2 F800.0 X211.23618 Y181.24011 I1.2553 J9.73698
G2 Y198.24462 I4.90878 J8.50226
G2 X225.96252 Y189.74237 I4.90878 J-8.50226
G2 X214.88966 Y180.00539 I-9.81756 J0.0
G1 F300.0 X214.58279 Y177.62509
G2 F800.0 X210.03618 Y179.16165 I1.56217 J12.11728
G2 Y200.32308 I6.10878 J10.58072
G2 X228.36252 Y189.74237 I6.10878 J-10.58072
G2 X214.58279 Y177.62509 I-12.21756 J0.0
G1 F300.0 X214.27592 Y175.24479
G2 F800.0 X208.83618 Y177.08319 I1.86904 J14.49758
G2 Y202.40154 I7.30878 J12.65918
G2 X230.76252 Y189.74237 I7.30878 J-12.65918
G2 X214.27592 Y175.24479 I-14.61756 J0.0
G1 F300.0 X213.96905 Y172.86449
G2 F800.0 X207.63618 Y175.00473 I2.17591 J16.87788
G2 Y204.48 I8.50878 J14.73764
G2 X233.16252 Y189.74237 I8.50878 J-14.73764
G2 X213.96905 Y172.86449 I-17.01756 J0.0
G1 F300.0 X213.66218 Y170.48419
G2 F800.0 X206.43618 Y172.92627 I2.48278 J19.25818
G2 Y206.55847 I9.70878 J16.8161
G2 X235.56252 Y189.74237 I9.70878 J-16.8161
G2 X213.66218 Y170.48419 I-19.41756 J0.0
G0 Z3.0
G0 X216.11714 Y189.52659
G0 Z-3.0
G1 F300.0 Z-8.0
G2 F800.0 X216.03618 Y189.55395 I0.02782 J0.21577
G2 Y189.93078 I0.10878 J0.18841
G2 X216.36252 Y189.74237 I0.10878 J-0.18841
G2 X216.11714 Y189.52659 I-0.21756 J0.0
G1 F300.0 X215.81027 Y187.14629
G2 F800.0 X214.83618 Y187.47549 I0.33469 J2.59607
G2 Y192.00924 I1.30878 J2.26687
G2 X218.76252 Y189.74237 I1.30878 J-2.26687
G2 X215.81027 Y187.14629 I-2.61756 J0.0
G1 F300.0 X215.5034 Y184.76599
G2 F800.0 X213.63618 Y185.39703 I0.64156 J4.97638
G2 Y194.0877 I2.50878 J4.34533
G2 X221.16252 Y189.74237 I2.50878 J-4.34533
G2 X215.5034 Y184.76599 I-5.01756 J0.0
G1 F300.0 X215.19653 Y182.38569
G2 F800.0 X212.43618 Y183.31857 I0.94843 J7.35668
G2 Y196.16616 I3.70878 J6.4238
G2 X223.56252 Y189.74237 I3.70878 J-6.4238
G2 X215.19653 Y182.38569 I-7.41756 J0.0
G1 F300.0 X214.88966 Y180.00539
G2 F800.0 X211.23618 Y181.24011 I1.2553 J9.73698
G2 Y198.24462 I4.90878 J8.50226
G2 X225.96252 Y189.74237 I4.90878 J-8.50226
G2 X214.88966 Y180.00539 I-9.81756 J0.0
G1 F300.0 X214.58279 Y177.62509
G2 F800.0 X210.03618 Y179.16165 I1.56217 J12.11728
G2 Y200.32308 I6.10878 J10.58072
G2 X228.36252 Y189.74237 I6.10878 J-10.58072
G2 X214.58279 Y177.62509 I-12.21756 J0.0
G1 F300.0 X214.27592 Y175.24479
G2 F800.0 X208.83618 Y177.08319 I1.86904 J14.49758
G2 Y202.40154 I7.30878 J12.65918
G2 X230.76252 Y189.74237 I7.30878 J-12.65918
G2 X214.27592 Y175.24479 I-14.61756 J0.0
G1 F300.0 X213.96905 Y172.86449
G2 F800.0 X207.63618 Y175.00473 I2.17591 J16.87788
G2 Y204.48 I8.50878 J14.73764
G2 X233.16252 Y189.74237 I8.50878 J-14.73764
G2 X213.96905 Y172.86449 I-17.01756 J0.0
G1 F300.0 X213.66218 Y170.48419
G2 F800.0 X206.43618 Y172.92627 I2.48278 J19.25818
G2 Y206.55847 I9.70878 J16.8161
G2 X235.56252 Y189.74237 I9.70878 J-16.8161
G2 X213.66218 Y170.48419 I-19.41756 J0.0
G0 Z3.0
G0 X216.11714 Y189.52659
G0 Z-7.0
G1 F300.0 Z-12.0
G2 F800.0 X216.03618 Y189.55395 I0.02782 J0.21577
G2 Y189.93078 I0.10878 J0.18841
G2 X216.36252 Y189.74237 I0.10878 J-0.18841
G2 X216.11714 Y189.52659 I-0.21756 J0.0
G1 F300.0 X215.81027 Y187.14629
G2 F800.0 X214.83618 Y187.47549 I0.33469 J2.59607
G2 Y192.00924 I1.30878 J2.26687
G2 X218.76252 Y189.74237 I1.30878 J-2.26687
G2 X215.81027 Y187.14629 I-2.61756 J0.0
G1 F300.0 X215.5034 Y184.76599
G2 F800.0 X213.63618 Y185.39703 I0.64156 J4.97638
G2 Y194.0877 I2.50878 J4.34533
G2 X221.16252 Y189.74237 I2.50878 J-4.34533
G2 X215.5034 Y184.76599 I-5.01756 J0.0
G1 F300.0 X215.19653 Y182.38569
G2 F800.0 X212.43618 Y183.31857 I0.94843 J7.35668
G2 Y196.16616 I3.70878 J6.4238
G2 X223.56252 Y189.74237 I3.70878 J-6.4238
G2 X215.19653 Y182.38569 I-7.41756 J0.0
G1 F300.0 X214.88966 Y180.00539
G2 F800.0 X211.23618 Y181.24011 I1.2553 J9.73698
G2 Y198.24462 I4.90878 J8.50226
G2 X225.96252 Y189.74237 I4.90878 J-8.50226
G2 X214.88966 Y180.00539 I-9.81756 J0.0
G1 F300.0 X214.58279 Y177.62509
G2 F800.0 X210.03618 Y179.16165 I1.56217 J12.11728
G2 Y200.32308 I6.10878 J10.58072
G2 X228.36252 Y189.74237 I6.10878 J-10.58072
G2 X214.58279 Y177.62509 I-12.21756 J0.0
G1 F300.0 X214.27592 Y175.24479
G2 F800.0 X208.83618 Y177.08319 I1.86904 J14.49758
G2 Y202.40154 I7.30878 J12.65918
G2 X230.76252 Y189.74237 I7.30878 J-12.65918
G2 X214.27592 Y175.24479 I-14.61756 J0.0
G1 F300.0 X213.96905 Y172.86449
G2 F800.0 X207.63618 Y175.00473 I2.17591 J16.87788
G2 Y204.48 I8.50878 J14.73764
G2 X233.16252 Y189.74237 I8.50878 J-14.73764
G2 X213.96905 Y172.86449 I-17.01756 J0.0
G1 F300.0 X213.66218 Y170.48419
G2 F800.0 X206.43618 Y172.92627 I2.48278 J19.25818
G2 Y206.55847 I9.70878 J16.8161
G2 X235.56252 Y189.74237 I9.70878 J-16.8161
G2 X213.66218 Y170.48419 I-19.41756 J0.0
G0 Z3.0
G0 X162.4991 Y221.20074
G0 Z1.0
G1 F300.0 Z-4.0
G2 F800.0 X162.23581 Y221.16549 I-0.15451 J0.15316
G2 Y221.54232 I0.10878 J0.18841
G2 X162.56215 Y221.3539 I0.10878 J-0.18841
G2 X162.4991 Y221.20074 I-0.21756 J0.0
G1 F300.0 X164.20358 Y219.51114
G2 F800.0 X161.03581 Y219.08703 I-1.85899 J1.84276
G2 Y223.62078 I1.30878 J2.26687
G2 X164.96215 Y221.3539 I1.30878 J-2.26687
G2 X164.20358 Y219.51114 I-2.61756 J0.0
G1 F300.0 X165.90805 Y217.82154
G2 F800.0 X159.83581 Y217.00857 I-3.56347 J3.53237
G2 Y225.69924 I2.50878 J4.34533
G2 X167.36215 Y221.3539 I2.50878 J-4.34533
G2 X165.90805 Y217.82154 I-5.01756 J0.0
G1 F300.0 X167.61253 Y216.13194
G2 F800.0 X158.63581 Y214.93011 I-5.26794 J5.22197
G2 Y227.7777 I3.70878 J6.4238
G2 X169.76215 Y221.3539 I3.70878 J-6.4238
G2 X167.61253 Y216.13194 I-7.41756 J0.0
G1 F300.0 X169.31701 Y214.44233
G2 F800.0 X157.43581 Y212.85165 I-6.97242 J6.91157
G2 Y229.85616 I4.90878 J8.50226
G2 X172.16215 Y221.3539 I4.90878 J-8.50226
G2 X169.31701 Y214.44233 I-9.81756 J0.0
G1 F300.0 X171.02149 Y212.75273
G2 F800.0 X156.23581 Y210.77319 I-8.6769 J8.60117
G2 Y231.93462 I6.10878 J10.58072
G2 X174.56215 Y221.3539 I6.10878 J-10.58072
G2 X171.02149 Y212.75273 I-12.21756 J0.0
G1 F300.0 X172.72596 Y211.06313
G2 F800.0 X155.03581 Y208.69473 I-10.38138 J10.29077
G2 Y234.01308 I7.30878 J12.65918
G2 X176.96215 Y221.3539 I7.30878 J-12.65918
G2 X172.72596 Y211.06313 I-14.61756 J0.0
G1 F300.0 X174.43044 Y209.37353
G2 F800.0 X153.83581 Y206.61626 I-12.08586 J11.98038
G2 Y236.09154 I8.50878 J14.73764
G2 X179.36215 Y221.3539 I8.50878 J-14.73764
G2 X174.43044 Y209.37353 I-17.01756 J0.0
G1 F300.0 X176.13492 Y207.68392
G2 F800.0 X152.63581 Y204.5378 I-13.79033 J13.66998
G2 Y238.17 I9.70878 J16.8161
G2 X181.76215 Y221.3539 I9.70878 J-16.8161
G2 X176.13492 Y207.68392 I-19.41756 J0.0
G0 Z3.0
G0 X162.4991 Y221.20074
G0 Z-3.0
G1 F300.0 Z-8.0
G2 F800.0 X162.23581 Y221.16549 I-0.15451 J0.15316
G2 Y221.54232 I0.10878 J0.18841
G2 X162.56215 Y221.3539 I0.10878 J-0.18841
G2 X162.4991 Y221.20074 I-0.21756 J0.0
G1 F300.0 X164.20358 Y219.51114
G2 F800.0 X161.03581 Y219.08703 I-1.85899 J1.84276
G2 Y223.62078 I1.30878 J2.26687
G2 X164.96215 Y221.3539 I1.30878 J-2.26687
G2 X164.20358 Y219.51114 I-2.61756 J0.0
G1 F300.0 X165.90805 Y217.82154
G2 F800.0 X159.83581 Y217.00857 I-3.56347 J3.53237
G2 Y225.69924 I2.50878 J4.34533
G2 X167.36215 Y221.3539 I2.50878 J-4.34533
G2 X165.90805 Y217.82154 I-5.01756 J0.0
G1 F300.0 X167.61253 Y216.13194
G2 F800.0 X158.63581 Y214.93011 I-5.26794 J5.22197
G2 Y227.7777 I3.70878 J6.4238
G2 X169.76215 Y221.3539 I3.70878 J-6.4238
G2 X167.61253 Y216.13194 I-7.41756 J0.0
G1 F300.0 X169.31701 Y214.44233
G2 F800.0 X157.43581 Y212.85165 I-6.97242 J6.91157
G2 Y229.85616 I4.90878 J8.50226
G2 X172.16215 Y221.3539 I4.90878 J-8.50226
G2 X169.31701 Y214.44233 I-9.81756 J0.0
G1 F300.0 X171.02149 Y212.75273
G2 F800.0 X156.23581 Y210.77319 I-8.6769 J8.60117
G2 Y231.93462 I6.10878 J10.58072
G2 X174.56215 Y221.3539 I6.10878 J-10.58072
G2 X171.02149 Y212.75273 I-12.21756 J0.0
G1 F300.0 X172.72596 Y211.06313
G2 F800.0 X155.03581 Y208.69473 I-10.38138 J10.29077
G2 Y234.01308 I7.30878 J12.65918
G2 X176.96215 Y221.3539 I7.30878 J-12.65918
G2 X172.72596 Y211.06313 I-14.61756 J0.0
G1 F300.0 X174.43044 Y209.37353
G2 F800.0 X153.83581 Y206.61626 I-12.08586 J11.98038
G2 Y236.09154 I8.50878 J14.73764
G2 X179.36215 Y221.3539 I8.50878 J-14.73764
G2 X174.43044 Y209.37353 I-17.01756 J0.0
G1 F300.0 X176.13492 Y207.68392
G2 F800.0 X152.63581 Y204.5378 I-13.79033 J13.66998
G2 Y238.17 I9.70878 J16.8161
G2 X181.76215 Y221.3539 I9.70878 J-16.8161
G2 X176.13492 Y207.68392 I-19.41756 J0.0
G0 Z3.0
G0 X162.4991 Y221.20074
G0 Z-7.0
G1 F300.0 Z-12.0
G2 F800.0 X162.23581 Y221.16549 I-0.15451 J0.15316
G2 Y221.54232 I0.10878 J0.18841
G2 X162.56215 Y221.3539 I0.10878 J-0.18841
G2 X162.4991 Y221.20074 I-0.21756 J0.0
G1 F300.0 X164.20358 Y219.51114
G2 F800.0 X161.03581 Y219.08703 I-1.85899 J1.84276
G2 Y223.62078 I1.30878 J2.26687
G2 X164.96215 Y221.3539 I1.30878 J-2.26687
G2 X164.20358 Y219.51114 I-2.61756 J0.0
G1 F300.0 X165.90805 Y217.82154
G2 F800.0 X159.83581 Y217.00857 I-3.56347 J3.53237
G2 Y225.69924 I2.50878 J4.34533
G2 X167.36215 Y221.3539 I2.50878 J-4.34533
G2 X165.90805 Y217.82154 I-5.01756 J0.0
G1 F300.0 X167.61253 Y216.13194
G2 F800.0 X158.63581 Y214.93011 I-5.26794 J5.22197
G2 Y227.7777 I3.70878 J6.4238
G2 X169.76215 Y221.3539 I3.70878 J-6.4238
G2 X167.61253 Y216.13194 I-7.41756 J0.0
G1 F300.0 X169.31701 Y214.44233
G2 F800.0 X157.43581 Y212.85165 I-6.97242 J6.91157
G2 Y229.85616 I4.90878 J8.50226
G2 X172.16215 Y221.3539 I4.90878 J-8.50226
G2 X169.31701 Y214.44233 I-9.81756 J0.0
G1 F300.0 X171.02149 Y212.75273
G2 F800.0 X156.23581 Y210.77319 I-8.6769 J8.60117
G2 Y231.93462 I6.10878 J10.58072
G2 X174.56215 Y221.3539 I6.10878 J-10.58072
G2 X171.02149 Y212.75273 I-12.21756 J0.0
G1 F300.0 X172.72596 Y211.06313
G2 F800.0 X155.03581 Y208.69473 I-10.38138 J10.29077
G2 Y234.01308 I7.30878 J12.65918
G2 X176.96215 Y221.3539 I7.30878 J-12.65918
G2 X172.72596 Y211.06313 I-14.61756 J0.0
G1 F300.0 X174.43044 Y209.37353
G2 F800.0 X153.83581 Y206.61626 I-12.08586 J11.98038
G2 Y236.09154 I8.50878 J14.73764
G2 X179.36215 Y221.3539 I8.50878 J-14.73764
G2 X174.43044 Y209.37353 I-17.01756 J0.0
G1 F300.0 X176.13492 Y207.68392
G2 F800.0 X152.63581 Y204.5378 I-13.79033 J13.66998
G2 Y238.17 I9.70878 J16.8161
G2 X181.76215 Y221.3539 I9.70878 J-16.8161
G2 X176.13492 Y207.68392 I-19.41756 J0.0
( Wappen_Tasche )
S1000
G0 Z3.0
G0 X67.11087 Y69.06243
G0 Z1.0
G1 F300.0 Z-3.0
G3 F800.0 X67.16616 Y69.00709 I2.14998 J2.09227
G1 X67.11087
G1 Y69.06243
G1 F300.0 Z-5.0
G3 F800.0 X67.16616 Y69.00709 I2.14998 J2.09227
G1 X67.11087
G1 Y69.06243
G0 Z3.0
G0 X85.24521 Y176.39042
G0 Z1.0
G1 F300.0 Z-3.0
G1 F800.0 X83.19816 Y178.37329
G1 X89.30551
G3 X85.24521 Y176.39042 I10.76854 J-27.19932
G0 Z3.0
G0 X141.80894 Y163.97329
G0 Z1.0
G1 F300.0 Z-3.0
G1 F800.0 X142.01055
G3 X141.8747 Y163.89518 I21.69088 J-37.8831
G3 X141.83908 Y163.87459 I21.82672 J-37.805
G3 X141.80894 Y163.97329 I-41.76503 J-12.70063
G1 F300.0 Y166.37329
G1 F800.0 X149.94394
G1 X149.94395
G1 X149.94393
G1 X149.94394
G2 X153.94718 Y166.17387 I-0.00006 J-40.2831
G3 X143.0747 Y161.81672 I9.75425 J-40.08368
G3 X140.35054 Y160.09876 I20.62673 J-35.72654
G3 X138.42543 Y166.37329 I-40.27649 J-8.92479
G1 X141.80894
G1 F300.0 Y168.77329
G1 F800.0 X149.94394
G1 X149.94395
G1 X149.94393
G1 X149.94394
G2 X168.1712 Y164.68567 I-0.00007 J-42.6831
G3 X144.2747 Y159.73826 I-4.46977 J-38.59549
G3 X138.65222 Y155.79082 I19.42673 J-33.64807
G3 X134.71297 Y168.77329 I-38.57817 J-4.61685
G1 X141.80894
G1 F300.0 Y171.17329
G1 F800.0 X149.94394
G1 X149.94395
G1 X149.94393
G1 X149.94394
G2 X182.39521 Y157.3855 I-0.00007 J-45.0831
G3 X145.4747 Y157.6598 I-18.69378 J-31.29531
G3 X136.51884 Y150.3793 I18.22673 J-31.56961
G3 X130.55161 Y171.17329 I-36.44479 J0.79467
G1 X141.80894
G1 F300.0 Y173.57329
G1 F800.0 X149.94394
G1 X149.94395
G1 X149.94394
G2 X196.61923 Y134.81118 I-0.00007 J-47.4831
G3 X146.6747 Y155.58134 I-32.9178 J-8.72099
G3 X131.79294 Y137.98496 I17.02673 J-29.49115
G1 X131.56254 Y138.20814
G3 X125.72377 Y173.57329 I-31.48849 J12.96583
G1 X141.80894
G0 Z3.0
G0 X182.39521 Y94.79488
G0 Z1.0
G1 F300.0 Z-3.0
G2 F800.0 X181.13125 Y93.5351 I-32.45134 J31.29531
G1 X180.77358 Y93.88156
G3 X182.39521 Y94.79488 I-17.07215 J32.20863
G1 F300.0 X184.12276 Y93.12887
G2 F800.0 X181.08149 Y90.24198 I-34.17889 J32.96132
G1 X176.60643 Y94.57672
G3 X196.61923 Y117.36919 I-12.905 J31.51347
G2 X184.12276 Y93.12887 I-46.67536 J8.72099
G1 F300.0 X185.85031 Y91.46286
G2 F800.0 X180.95793 Y87.02035 I-35.90644 J34.62732
G1 X172.12351 Y95.57774
G3 X195.35488 Y126.09019 I-8.42208 J30.51245
G3 X147.8747 Y153.50288 I-31.65345 J0.0
G3 X132.93623 Y133.5362 I15.82673 J-27.41269
G1 X128.69181 Y137.64752
G3 X119.74471 Y175.97329 I-28.61776 J13.52644
G1 X149.94395
G1 X149.94394
G1 X149.94395
G2 X185.85031 Y91.46286 I-0.00007 J-49.8831
G1 F300.0 X187.57786 Y89.79686
G2 F800.0 X180.76982 Y83.86124 I-37.63398 J36.29333
G1 X167.16219 Y97.04217
G3 X192.95488 Y126.09019 I-3.46076 J29.04802
G3 X149.0747 Y151.42442 I-29.25345 J0.0
G3 X134.55792 Y128.62404 I14.62673 J-25.33423
G1 X125.75 Y137.15577
G3 X110.84259 Y178.37329 I-25.67595 J14.0182
G1 X149.94395
G1 X149.94394
G1 X149.94395
G2 X187.57786 Y89.79686 I-0.00007 J-52.2831
G1 F300.0 X189.30541 Y88.13085
G2 F800.0 X180.42158 Y80.68808 I-39.36153 J37.95934
G3 X179.68832 Y81.56751 I-4.487 J-2.99583
G1 X161.33966 Y99.3408
G3 X190.55488 Y126.09019 I2.36177 J26.74939
G3 X150.2747 Y149.34596 I-26.85345 J0.0
G3 X137.04083 Y122.87767 I13.42673 J-23.25577
G1 X122.72275 Y136.74677
G3 X84.93283 Y173.35169 I-22.6487 J14.4272
G1 X77.27097 Y180.77329
G1 X149.94395
G2 X189.30541 Y88.13085 I-0.00008 J-54.6831
G1 F300.0 X191.03295 Y86.46484
G2 F800.0 X178.81246 Y76.84504 I-41.08908 J39.62534
G3 X178.02184 Y79.84709 I-2.87789 J0.84721
G1 X152.97292 Y104.11054
G3 X188.15968 Y126.09019 I10.72851 J21.97965
G3 X151.4723 Y147.27165 I-24.45825 J0.0
G3 X142.07462 Y114.66709 I12.22913 J-21.18147
G1 X119.59651 Y136.44034
G3 X84.72613 Y170.21727 I-19.52246 J14.73363
G1 X71.35069 Y183.17329
G1 X149.94395
G2 X191.03295 Y86.46484 I-0.00008 J-57.0831
G0 Z3.0
G0 X67.17102 Y183.17329
G0 Z1.0
G1 F300.0 Z-3.0
G3 F800.0 X67.11087 Y183.11321 I2.08983 J-2.15235
G1 Y183.17329
G1 X67.17102
G1 F300.0 Z-5.0
G3 F800.0 X67.11087 Y183.11321 I2.08983 J-2.15235
G1 Y183.17329
G1 X67.17102
G0 Z3.0
G0 X83.19816 Y178.37329
G0 Z-2.0
G1 F300.0 Z-5.0
G1 F800.0 X89.30551
G3 X85.24521 Y176.39042 I10.76854 J-27.19932
G1 X83.19816 Y178.37329
G0 Z3.0
G0 X141.80894 Y163.97329
G0 Z-2.0
G1 F300.0 Z-5.0
G1 F800.0 X142.01055
G3 X141.8747 Y163.89518 I21.69088 J-37.8831
G3 X141.83908 Y163.87459 I21.82672 J-37.805
G3 X141.80894 Y163.97329 I-41.76503 J-12.70063
G1 F300.0 Y166.37329
G1 F800.0 X149.94394
G1 X149.94395
G1 X149.94393
G1 X149.94394
G2 X153.94718 Y166.17387 I-0.00006 J-40.2831
G3 X143.0747 Y161.81672 I9.75425 J-40.08368
G3 X140.35054 Y160.09876 I20.62673 J-35.72654
G3 X138.42543 Y166.37329 I-40.27649 J-8.92479
G1 X141.80894
G1 F300.0 Y168.77329
G1 F800.0 X149.94394
G1 X149.94395
G1 X149.94393
G1 X149.94394
G2 X168.1712 Y164.68567 I-0.00007 J-42.6831
G3 X144.2747 Y159.73826 I-4.46977 J-38.59549
G3 X138.65222 Y155.79082 I19.42673 J-33.64807
G3 X134.71297 Y168.77329 I-38.57817 J-4.61685
G1 X141.80894
G1 F300.0 Y171.17329
G1 F800.0 X149.94394
G1 X149.94395
G1 X149.94393
G1 X149.94394
G2 X182.39521 Y157.3855 I-0.00007 J-45.0831
G3 X145.4747 Y157.6598 I-18.69378 J-31.29531
G3 X136.51884 Y150.3793 I18.22673 J-31.56961
G3 X130.55161 Y171.17329 I-36.44479 J0.79467
G1 X141.80894
G1 F300.0 Y173.57329
G1 F800.0 X149.94394
G1 X149.94395
G1 X149.94394
G2 X196.61923 Y134.81118 I-0.00007 J-47.4831
G3 X146.6747 Y155.58134 I-32.9178 J-8.72099
G3 X131.79294 Y137.98496 I17.02673 J-29.49115
G1 X131.56254 Y138.20814
G3 X125.72377 Y173.57329 I-31.48849 J12.96583
G1 X141.80894
G0 Z3.0
G0 X182.39521 Y94.79488
G0 Z-2.0
G1 F300.0 Z-5.0
G2 F800.0 X181.13125 Y93.5351 I-32.45134 J31.29531
G1 X180.77358 Y93.88156
G3 X182.39521 Y94.79488 I-17.07215 J32.20863
G1 F300.0 X184.12276 Y93.12887
G2 F800.0 X181.08149 Y90.24198 I-34.17889 J32.96132
G1 X176.60643 Y94.57672
G3 X196.61923 Y117.36919 I-12.905 J31.51347
G2 X184.12276 Y93.12887 I-46.67536 J8.72099
G1 F300.0 X185.85031 Y91.46286
G2 F800.0 X180.95793 Y87.02035 I-35.90644 J34.62732
G1 X172.12351 Y95.57774
G3 X195.35488 Y126.09019 I-8.42208 J30.51245
G3 X147.8747 Y153.50288 I-31.65345 J0.0
G3 X132.93623 Y133.5362 I15.82673 J-27.41269
G1 X128.69181 Y137.64752
G3 X119.74471 Y175.97329 I-28.61776 J13.52644
G1 X149.94395
G1 X149.94394
G1 X149.94395
G2 X185.85031 Y91.46286 I-0.00007 J-49.8831
G1 F300.0 X187.57786 Y89.79686
G2 F800.0 X180.76982 Y83.86124 I-37.63398 J36.29333
G1 X167.16219 Y97.04217
G3 X192.95488 Y126.09019 I-3.46076 J29.04802
G3 X149.0747 Y151.42442 I-29.25345 J0.0
G3 X134.55792 Y128.62404 I14.62673 J-25.33423
G1 X125.75 Y137.15577
G3 X110.84259 Y178.37329 I-25.67595 J14.0182
G1 X149.94395
G1 X149.94394
G1 X149.94395
G2 X187.57786 Y89.79686 I-0.00007 J-52.2831
G1 F300.0 X189.30541 Y88.13085
G2 F800.0 X180.42158 Y80.68808 I-39.36153 J37.95934
G3 X179.68832 Y81.56751 I-4.487 J-2.99583
G1 X161.33966 Y99.3408
G3 X190.55488 Y126.09019 I2.36177 J26.74939
G3 X150.2747 Y149.34596 I-26.85345 J0.0
G3 X137.04083 Y122.87767 I13.42673 J-23.25577
G1 X122.72275 Y136.74677
G3 X84.93283 Y173.35169 I-22.6487 J14.4272
G1 X77.27097 Y180.77329
G1 X149.94395
G2 X189.30541 Y88.13085 I-0.00008 J-54.6831
G1 F300.0 X191.03295 Y86.46484
G2 F800.0 X178.81246 Y76.84504 I-41.08908 J39.62534
G3 X178.02184 Y79.84709 I-2.87789 J0.84721
G1 X152.97292 Y104.11054
G3 X188.15968 Y126.09019 I10.72851 J21.97965
G3 X151.4723 Y147.27165 I-24.45825 J0.0
G3 X142.07462 Y114.66709 I12.22913 J-21.18147
G1 X119.59651 Y136.44034
G3 X84.72613 Y170.21727 I-19.52246 J14.73363
G1 X71.35069 Y183.17329
G1 X149.94395
G2 X191.03295 Y86.46484 I-0.00008 J-57.0831
( Wappen_Kreise_innen )
S1000
G0 Z3.0
G0 X108.90093 Y151.81252
G0 Z1.0
G1 F300.0 Z-3.0
G1 F800.0 X100.43115 Y160.0167
G2 X108.90093 Y151.81252 I-0.3571 J-8.84273
G1 F300.0 X110.0978 Y151.8991
G2 F800.0 X109.91921 Y149.1555 I-10.02375 J-0.72513
G1 X97.74305 Y160.94984
G2 X110.0978 Y151.8991 I2.331 J-9.77588
G1 F300.0 X112.49154 Y152.07227
G2 F800.0 X110.84034 Y144.92193 I-12.41749 J-0.8983
G1 X93.48229 Y161.73568
G2 X112.49154 Y152.07227 I6.59176 J-10.56171
G1 F300.0 X108.90093 Y151.81252
G1 Z-5.0
G1 F800.0 X100.43115 Y160.0167
G2 X108.90093 Y151.81252 I-0.3571 J-8.84273
G1 F300.0 X110.0978 Y151.8991
G2 F800.0 X109.91921 Y149.1555 I-10.02375 J-0.72513
G1 X97.74305 Y160.94984
G2 X110.0978 Y151.8991 I2.331 J-9.77588
G1 F300.0 X112.49154 Y152.07227
G2 F800.0 X110.84034 Y144.92193 I-12.41749 J-0.8983
G1 X93.48229 Y161.73568
G2 X112.49154 Y152.07227 I6.59176 J-10.56171
G0 Z3.0
G0 X163.30018 Y126.29377
G0 Z1.0
G1 F300.0 Z-3.0
G2 F800.0 X163.47646 Y126.47985 I0.40125 J-0.20358
G2 X164.15137 Y126.09019 I0.22497 J-0.38966
G2 X163.47646 Y125.70053 I-0.44994 J0.0
G2 X163.30018 Y126.29377 I0.22497 J0.38966
G1 F300.0 X161.1599 Y127.37967
G2 F800.0 X162.27646 Y128.55831 I2.54153 J-1.28948
G2 X166.55137 Y126.09019 I1.42497 J-2.46812
G2 X162.27646 Y123.62207 I-2.84994 J0.0
G2 X161.1599 Y127.37967 I1.42497 J2.46812
G1 F300.0 X159.01961 Y128.46557
G2 F800.0 X161.07646 Y130.63677 I4.68182 J-2.37539
G2 X168.95137 Y126.09019 I2.62497 J-4.54658
G2 X161.07646 Y121.5436 I-5.24994 J0.0
G2 X159.01961 Y128.46557 I2.62497 J4.54658
G1 F300.0 X156.87933 Y129.55148
G2 F800.0 X159.87646 Y132.71523 I6.8221 J-3.46129
G2 X171.35137 Y126.09019 I3.82497 J-6.62504
G2 X159.87646 Y119.46514 I-7.64994 J0.0
G2 X156.87933 Y129.55148 I3.82497 J6.62504
G1 F300.0 X154.73905 Y130.63738
G2 F800.0 X158.67646 Y134.79369 I8.96238 J-4.5472
G2 X173.75137 Y126.09019 I5.02497 J-8.7035
G2 X158.67646 Y117.38668 I-10.04994 J0.0
G2 X154.73905 Y130.63738 I5.02497 J8.7035
G1 F300.0 X152.59876 Y131.72329
G2 F800.0 X157.47646 Y136.87215 I11.10267 J-5.6331
G2 X176.15137 Y126.09019 I6.22497 J-10.78196
G2 X157.47646 Y115.30822 I-12.44994 J0.0
G2 X152.59876 Y131.72329 I6.22497 J10.78196
G0 Z3.0
G0 X163.30018 Y126.29377
G0 Z-2.0
G1 F300.0 Z-5.0
G2 F800.0 X163.47646 Y126.47985 I0.40125 J-0.20358
G2 X164.15137 Y126.09019 I0.22497 J-0.38966
G2 X163.47646 Y125.70053 I-0.44994 J0.0
G2 X163.30018 Y126.29377 I0.22497 J0.38966
G1 F300.0 X161.1599 Y127.37967
G2 F800.0 X162.27646 Y128.55831 I2.54153 J-1.28948
G2 X166.55137 Y126.09019 I1.42497 J-2.46812
G2 X162.27646 Y123.62207 I-2.84994 J0.0
G2 X161.1599 Y127.37967 I1.42497 J2.46812
G1 F300.0 X159.01961 Y128.46557
G2 F800.0 X161.07646 Y130.63677 I4.68182 J-2.37539
G2 X168.95137 Y126.09019 I2.62497 J-4.54658
G2 X161.07646 Y121.5436 I-5.24994 J0.0
G2 X159.01961 Y128.46557 I2.62497 J4.54658
G1 F300.0 X156.87933 Y129.55148
G2 F800.0 X159.87646 Y132.71523 I6.8221 J-3.46129
G2 X171.35137 Y126.09019 I3.82497 J-6.62504
G2 X159.87646 Y119.46514 I-7.64994 J0.0
G2 X156.87933 Y129.55148 I3.82497 J6.62504
G1 F300.0 X154.73905 Y130.63738
G2 F800.0 X158.67646 Y134.79369 I8.96238 J-4.5472
G2 X173.75137 Y126.09019 I5.02497 J-8.7035
G2 X158.67646 Y117.38668 I-10.04994 J0.0
G2 X154.73905 Y130.63738 I5.02497 J8.7035
G1 F300.0 X152.59876 Y131.72329
G2 F800.0 X157.47646 Y136.87215 I11.10267 J-5.6331
G2 X176.15137 Y126.09019 I6.22497 J-10.78196
G2 X157.47646 Y115.30822 I-12.44994 J0.0
G2 X152.59876 Y131.72329 I6.22497 J10.78196
( Bohrung )
S1000
G0 Z3.0
G0 X351.8 Y126.0
G0 Z1.0
G1 F300.0 Z-4.0
G2 F800.0 X350.6 Y125.30718 I-0.8 J0.0
G2 Y126.69282 I0.4 J0.69282
G2 X351.8 Y126.0 I0.4 J-0.69282
G1 F300.0 X353.0
G2 F800.0 X350.0 Y124.26795 I-2.0 J0.0
G2 Y127.73205 I1.0 J1.73205
G2 X353.0 Y126.0 I1.0 J-1.73205
G1 F300.0 X351.8
G1 Z-8.0
G2 F800.0 X350.6 Y125.30718 I-0.8 J0.0
G2 Y126.69282 I0.4 J0.69282
G2 X351.8 Y126.0 I0.4 J-0.69282
G1 F300.0 X353.0
G2 F800.0 X350.0 Y124.26795 I-2.0 J0.0
G2 Y127.73205 I1.0 J1.73205
G2 X353.0 Y126.0 I1.0 J-1.73205
G1 F300.0 X351.8
G1 Z-12.0
G2 F800.0 X350.6 Y125.30718 I-0.8 J0.0
G2 Y126.69282 I0.4 J0.69282
G2 X351.8 Y126.0 I0.4 J-0.69282
G1 F300.0 X353.0
G2 F800.0 X350.0 Y124.26795 I-2.0 J0.0
G2 Y127.73205 I1.0 J1.73205
G2 X353.0 Y126.0 I1.0 J-1.73205
G1 F300.0 X351.8
G1 Z-16.0
G2 F800.0 X350.6 Y125.30718 I-0.8 J0.0
G2 Y126.69282 I0.4 J0.69282
G2 X351.8 Y126.0 I0.4 J-0.69282
G1 F300.0 X353.0
G2 F800.0 X350.0 Y124.26795 I-2.0 J0.0
G2 Y127.73205 I1.0 J1.73205
G2 X353.0 Y126.0 I1.0 J-1.73205
G1 F300.0 X351.8
G1 Z-20.0
G2 F800.0 X350.6 Y125.30718 I-0.8 J0.0
G2 Y126.69282 I0.4 J0.69282
G2 X351.8 Y126.0 I0.4 J-0.69282
G1 F300.0 X353.0
G2 F800.0 X350.0 Y124.26795 I-2.0 J0.0
G2 Y127.73205 I1.0 J1.73205
G2 X353.0 Y126.0 I1.0 J-1.73205
G1 F300.0 X351.8
G1 Z-24.0
G2 F800.0 X350.6 Y125.30718 I-0.8 J0.0
G2 Y126.69282 I0.4 J0.69282
G2 X351.8 Y126.0 I0.4 J-0.69282
G1 F300.0 X353.0
G2 F800.0 X350.0 Y124.26795 I-2.0 J0.0
G2 Y127.73205 I1.0 J1.73205
G2 X353.0 Y126.0 I1.0 J-1.73205
G1 F300.0 X351.8
G1 Z-28.0
G2 F800.0 X350.6 Y125.30718 I-0.8 J0.0
G2 Y126.69282 I0.4 J0.69282
G2 X351.8 Y126.0 I0.4 J-0.69282
G1 F300.0 X353.0
G2 F800.0 X350.0 Y124.26795 I-2.0 J0.0
G2 Y127.73205 I1.0 J1.73205
G2 X353.0 Y126.0 I1.0 J-1.73205
( Rand )
S1000
G0 Z3.0
G0 X14.31823 Y-2.99124
G0 Z1.0
G1 F300.0 Z-4.0
G2 F800.0 X-2.94677 Y12.43736 I1.45545 J19.00297
G2 X-3.0 Y13.0 I2.94677 J0.56264
G1 Y238.93936
G2 X14.16093 Y255.00052 I15.53817 J0.59646
G1 X156.48512 Y255.4503
G2 X212.94893 Y246.84597 I3.26124 J-168.16597
G2 X213.17875 Y246.75872 I-0.94893 J-2.84597
G2 X240.89383 Y224.35678 I-25.6936 J-60.13259
G2 X257.10382 Y150.68002 I-77.991 J-55.78078
G3 X260.23193 Y147.93245 I2.58149 J-0.21543
G2 X260.86496 Y148.0 I0.63304 J-2.93245
G1 X355.0
G2 X355.12214 Y147.99751 I0.0 J-3.0
G2 Y103.00249 I-0.91668 J-22.49751
G2 X355.0 Y103.0 I-0.12214 J2.99751
G1 X260.86496
G2 X260.7103 Y103.00399 I0.0 J3.0
G3 X257.20971 Y100.96284 I-0.19076 J-3.69521
G2 X241.03107 Y28.30205 I-107.96775 J-14.09148
G2 X223.49904 Y10.40137 I-40.78506 J22.4093
G2 X223.21338 Y10.25633 I-1.49904 J2.59863
G2 X156.48258 Y-2.99961 I-62.96397 J142.37212
G1 X14.54734 Y-3.0
G2 X14.31823 Y-2.99124 I-0.00001 J3.0
G1 F300.0 Z-8.0
G2 F800.0 X-2.94677 Y12.43736 I1.45545 J19.00297
G2 X-3.0 Y13.0 I2.94677 J0.56264
G1 Y238.93936
G2 X14.16093 Y255.00052 I15.53817 J0.59646
G1 X156.48512 Y255.4503
G2 X212.94893 Y246.84597 I3.26124 J-168.16597
G2 X213.17875 Y246.75872 I-0.94893 J-2.84597
G2 X240.89383 Y224.35678 I-25.6936 J-60.13259
G2 X257.10382 Y150.68002 I-77.991 J-55.78078
G3 X260.23193 Y147.93245 I2.58149 J-0.21543
G2 X260.86496 Y148.0 I0.63304 J-2.93245
G1 X355.0
G2 X355.12214 Y147.99751 I0.0 J-3.0
G2 Y103.00249 I-0.91668 J-22.49751
G2 X355.0 Y103.0 I-0.12214 J2.99751
G1 X260.86496
G2 X260.7103 Y103.00399 I0.0 J3.0
G3 X257.20971 Y100.96284 I-0.19076 J-3.69521
G2 X241.03107 Y28.30205 I-107.96775 J-14.09148
G2 X223.49904 Y10.40137 I-40.78506 J22.4093
G2 X223.21338 Y10.25633 I-1.49904 J2.59863
G2 X156.48258 Y-2.99961 I-62.96397 J142.37212
G1 X14.54734 Y-3.0
G2 X14.31823 Y-2.99124 I-0.00001 J3.0
G1 F300.0 Z-12.0
G2 F800.0 X-2.94677 Y12.43736 I1.45545 J19.00297
G2 X-3.0 Y13.0 I2.94677 J0.56264
G1 Y238.93936
G2 X14.16093 Y255.00052 I15.53817 J0.59646
G1 X156.48512 Y255.4503
G2 X212.94893 Y246.84597 I3.26124 J-168.16597
G2 X213.17875 Y246.75872 I-0.94893 J-2.84597
G2 X240.89383 Y224.35678 I-25.6936 J-60.13259
G2 X257.10382 Y150.68002 I-77.991 J-55.78078
G3 X260.23193 Y147.93245 I2.58149 J-0.21543
G2 X260.86496 Y148.0 I0.63304 J-2.93245
G1 X355.0
G2 X355.12214 Y147.99751 I0.0 J-3.0
G2 Y103.00249 I-0.91668 J-22.49751
G2 X355.0 Y103.0 I-0.12214 J2.99751
G1 X260.86496
G2 X260.7103 Y103.00399 I0.0 J3.0
G3 X257.20971 Y100.96284 I-0.19076 J-3.69521
G2 X241.03107 Y28.30205 I-107.96775 J-14.09148
G2 X223.49904 Y10.40137 I-40.78506 J22.4093
G2 X223.21338 Y10.25633 I-1.49904 J2.59863
G2 X156.48258 Y-2.99961 I-62.96397 J142.37212
G1 X14.54734 Y-3.0
G2 X14.31823 Y-2.99124 I-0.00001 J3.0
G1 F300.0 Z-16.0
G2 F800.0 X-2.94677 Y12.43736 I1.45545 J19.00297
G2 X-3.0 Y13.0 I2.94677 J0.56264
G1 Y238.93936
G2 X14.16093 Y255.00052 I15.53817 J0.59646
G1 X156.48512 Y255.4503
G2 X212.94893 Y246.84597 I3.26124 J-168.16597
G2 X213.17875 Y246.75872 I-0.94893 J-2.84597
G2 X240.89383 Y224.35678 I-25.6936 J-60.13259
G2 X257.10382 Y150.68002 I-77.991 J-55.78078
G3 X260.23193 Y147.93245 I2.58149 J-0.21543
G2 X260.86496 Y148.0 I0.63304 J-2.93245
G1 X355.0
G2 X355.12214 Y147.99751 I0.0 J-3.0
G2 Y103.00249 I-0.91668 J-22.49751
G2 X355.0 Y103.0 I-0.12214 J2.99751
G1 X260.86496
G2 X260.7103 Y103.00399 I0.0 J3.0
G3 X257.20971 Y100.96284 I-0.19076 J-3.69521
G2 X241.03107 Y28.30205 I-107.96775 J-14.09148
G2 X223.49904 Y10.40137 I-40.78506 J22.4093
G2 X223.21338 Y10.25633 I-1.49904 J2.59863
G2 X156.48258 Y-2.99961 I-62.96397 J142.37212
G1 X14.54734 Y-3.0
G2 X14.31823 Y-2.99124 I-0.00001 J3.0
G1 F300.0 Z-20.0
G2 F800.0 X-2.94677 Y12.43736 I1.45545 J19.00297
G2 X-3.0 Y13.0 I2.94677 J0.56264
G1 Y238.93936
G2 X14.16093 Y255.00052 I15.53817 J0.59646
G1 X156.48512 Y255.4503
G2 X212.94893 Y246.84597 I3.26124 J-168.16597
G2 X213.17875 Y246.75872 I-0.94893 J-2.84597
G2 X240.89383 Y224.35678 I-25.6936 J-60.13259
G2 X257.10382 Y150.68002 I-77.991 J-55.78078
G3 X260.23193 Y147.93245 I2.58149 J-0.21543
G2 X260.86496 Y148.0 I0.63304 J-2.93245
G1 X355.0
G2 X355.12214 Y147.99751 I0.0 J-3.0
G2 Y103.00249 I-0.91668 J-22.49751
G2 X355.0 Y103.0 I-0.12214 J2.99751
G1 X260.86496
G2 X260.7103 Y103.00399 I0.0 J3.0
G3 X257.20971 Y100.96284 I-0.19076 J-3.69521
G2 X241.03107 Y28.30205 I-107.96775 J-14.09148
G2 X223.49904 Y10.40137 I-40.78506 J22.4093
G2 X223.21338 Y10.25633 I-1.49904 J2.59863
G2 X156.48258 Y-2.99961 I-62.96397 J142.37212
G1 X14.54734 Y-3.0
G2 X14.31823 Y-2.99124 I-0.00001 J3.0
G1 F300.0 Z-24.0
G2 F800.0 X-2.94677 Y12.43736 I1.45545 J19.00297
G2 X-3.0 Y13.0 I2.94677 J0.56264
G1 Y238.93936
G2 X14.16093 Y255.00052 I15.53817 J0.59646
G1 X156.48512 Y255.4503
G2 X212.94893 Y246.84597 I3.26124 J-168.16597
G2 X213.17875 Y246.75872 I-0.94893 J-2.84597
G2 X240.89383 Y224.35678 I-25.6936 J-60.13259
G2 X257.10382 Y150.68002 I-77.991 J-55.78078
G3 X260.23193 Y147.93245 I2.58149 J-0.21543
G2 X260.86496 Y148.0 I0.63304 J-2.93245
G1 X355.0
G2 X355.12214 Y147.99751 I0.0 J-3.0
G2 Y103.00249 I-0.91668 J-22.49751
G2 X355.0 Y103.0 I-0.12214 J2.99751
G1 X260.86496
G2 X260.7103 Y103.00399 I0.0 J3.0
G3 X257.20971 Y100.96284 I-0.19076 J-3.69521
G2 X241.03107 Y28.30205 I-107.96775 J-14.09148
G2 X223.49904 Y10.40137 I-40.78506 J22.4093
G2 X223.21338 Y10.25633 I-1.49904 J2.59863
G2 X156.48258 Y-2.99961 I-62.96397 J142.37212
G1 X14.54734 Y-3.0
G2 X14.31823 Y-2.99124 I-0.00001 J3.0
G1 F300.0 Z-28.0
G2 F800.0 X-2.94677 Y12.43736 I1.45545 J19.00297
G2 X-3.0 Y13.0 I2.94677 J0.56264
G1 Y81.37437
G1 Y82.87437 Z-25.0
G1 Y88.87437
G1 Y90.37437 Z-28.0
G1 Y238.93936
G2 X14.16093 Y255.00052 I15.53817 J0.59646
G1 X27.2449 Y255.04187
G1 X28.74489 Y255.04661 Z-25.0
G1 X34.74486 Y255.06557
G1 X36.24485 Y255.07031 Z-28.0
G1 X156.48512 Y255.4503
G2 X212.94893 Y246.84597 I3.26124 J-168.16597
G2 X213.17875 Y246.75872 I-0.94893 J-2.84597
G2 X219.87495 Y243.43274 I-25.6936 J-60.13259
G2 X221.17153 Y242.67359 Z-25.0 I-32.3898 J-56.8066
G2 X226.16692 Y239.35003 I-33.68638 J-56.04746
G2 X227.36804 Y238.4474 Z-28.0 I-38.68177 J-52.7239
G2 X240.89383 Y224.35678 I-39.88289 J-51.82127
G2 X257.10382 Y150.68002 I-77.991 J-55.78078
G3 X260.23193 Y147.93245 I2.58149 J-0.21543
G2 X260.86496 Y148.0 I0.63304 J-2.93245
G1 X340.08156
G1 X341.58156 Z-25.0
G1 X347.58156
G1 X349.08156 Z-28.0
G1 X355.0
G2 X355.12214 Y147.99751 I0.0 J-3.0
G2 Y103.00249 I-0.91668 J-22.49751
G2 X355.0 Y103.0 I-0.12214 J2.99751
G1 X260.86496
G2 X260.7103 Y103.00399 I0.0 J3.0
G3 X257.20971 Y100.96284 I-0.19076 J-3.69521
G2 X258.12353 Y86.23347 I-107.96775 J-14.09148
G2 X258.1044 Y84.7327 Z-25.0 I-108.88158 J0.63788
G2 X257.82131 Y78.73939 I-108.86245 J2.13865
G2 X257.6989 Y77.2435 Z-28.0 I-108.57936 J8.13197
G2 X241.03107 Y28.30205 I-108.45695 J9.62786
G2 X223.49904 Y10.40137 I-40.78506 J22.4093
G2 X223.21338 Y10.25633 I-1.49904 J2.59863
G2 X156.48258 Y-2.99961 I-62.96397 J142.37212
G1 X114.79706 Y-2.99972
G1 X113.29706 Y-2.99973 Z-25.0
G1 X107.29706 Y-2.99974
G1 X105.79706 Y-2.99975 Z-28.0
G1 X14.54734 Y-3.0
G2 X14.31823 Y-2.99124 I-0.00001 J3.0
( Profil_Wappen3 )
G0 Z3.0
( T3 : 3.0 )
T3 M6
M3 S1000
G0 X186.65968 Y126.09019
G0 Z1.0
G1 F300.0 Z-3.0
G3 F800.0 X152.2223 Y145.97261 I-22.95825 J0.0
G3 Y106.20776 I11.47913 J-19.88243
G3 X186.65968 Y126.09019 I11.47912 J19.88243
G0 Z3.0
G0 X158.32486 Y96.83809
G0 Z1.0
G1 F300.0 Z-3.0
G1 F800.0 X117.57288 Y136.31219
G3 X84.66249 Y168.19058 I-17.49882 J14.86178
G1 X70.30449 Y182.09836
G3 X67.76085 Y181.02094 I-1.04363 J-1.07742
G1 Y71.1547
G3 X69.26085 Y69.6547 I1.5 J0.0
G1 X149.94395
G3 X176.64428 Y76.37076 I0.0 J56.4328
G3 X176.97821 Y78.76967 I-0.7097 J1.32149
G1 X158.32486 Y96.83809
G1 F300.0 Z-5.0
G1 F800.0 X117.57288 Y136.31219
G3 X84.66249 Y168.19058 I-17.49882 J14.86178
G1 X70.30449 Y182.09836
G3 X67.76085 Y181.02094 I-1.04363 J-1.07742
G1 Y71.1547
G3 X69.26085 Y69.6547 I1.5 J0.0
G1 X149.94395
G3 X176.64428 Y76.37076 I0.0 J56.4328
G3 X176.97821 Y78.76967 I-0.7097 J1.32149
G1 X158.32486 Y96.83809
G0 Z3.0
G0 X159.5512 Y103.51018
G0 Z-1.0
G1 F300.0 Z-5.0
G3 F800.0 X186.65968 Y126.09019 I4.15023 J22.58001
G3 X152.2223 Y145.97261 I-22.95825 J0.0
G3 Y106.20776 I11.47913 J-19.88243
G3 X159.5512 Y103.51018 I11.47912 J19.88243
( Profil_Ringe_innen_3 )
S1000
G0 Z3.0
G0 X86.84151 Y161.90324
G0 Z1.0
G1 F300.0 Z-3.0
G3 F800.0 X111.21933 Y138.28986 I13.23254 J-10.72928
G1 X113.26364 Y136.30965
G2 X84.7972 Y163.88345 I-13.18958 J14.86431
G1 X86.84151 Y161.90324
G1 F300.0 Z-5.0
G3 F800.0 X111.21933 Y138.28986 I13.23254 J-10.72928
G1 X113.26364 Y136.30965
G2 X84.7972 Y163.88345 I-13.18958 J14.86431
G1 X86.84151 Y161.90324
G0 Z3.0
G0 X91.15583 Y161.90086
G0 Z1.0
G1 F300.0 Z-3.0
G2 F800.0 X111.07954 Y142.60191 I8.91822 J-10.72689
G1 X91.15583 Y161.90086
G1 F300.0 Z-5.0
G2 F800.0 X111.07954 Y142.60191 I8.91822 J-10.72689
G1 X91.15583 Y161.90086
( Profil_Wappenrand )
S1000
G0 Z3.0
G0 X65.61087 Y184.67329
G0 Z1.0
G1 F300.0 Z-3.0
G1 F800.0 X149.94395
G2 Y67.50709 I-0.00008 J-58.5831
G1 X65.61087
G1 Y184.67329
G1 F300.0 Z-5.0
G1 F800.0 X149.94395
G2 Y67.50709 I-0.00008 J-58.5831
G1 X65.61087
G1 Y184.67329
( TascheRing )
S1000
G0 Z3.0
G0 X119.71395 Y101.64479
G0 Z1.0
G1 F300.0 Z-3.0
G2 F800.0 X89.77658 Y84.36044 I-19.95825 J0.0
G2 Y118.92914 I9.97912 J17.28435
G2 X119.71395 Y101.64479 I9.97913 J-17.28435
G1 F300.0 X117.90324
G3 F800.0 X90.68193 Y117.36102 I-18.14754 J0.0
G3 Y85.92856 I9.07377 J-15.71623
G3 X117.90324 Y101.64479 I9.07377 J15.71623
G1 F300.0 X116.70564
G3 F800.0 X91.28073 Y116.32387 I-16.94994 J0.0
G3 Y86.96571 I8.47497 J-14.67908
G3 X116.70564 Y101.64479 I8.47497 J14.67908
G1 F300.0 X118.51395
G3 F800.0 X90.37658 Y117.88991 I-18.75825 J0.0
G3 Y85.39967 I9.37912 J-16.24512
G3 X118.51395 Y101.64479 I9.37913 J16.24512
G1 F300.0 X119.71395
G1 Z-5.0
G2 F800.0 X89.77658 Y84.36044 I-19.95825 J0.0
G2 Y118.92914 I9.97912 J17.28435
G2 X119.71395 Y101.64479 I9.97913 J-17.28435
G1 F300.0 X117.90324
G3 F800.0 X90.68193 Y117.36102 I-18.14754 J0.0
G3 Y85.92856 I9.07377 J-15.71623
G3 X117.90324 Y101.64479 I9.07377 J15.71623
G1 F300.0 X116.70564
G3 F800.0 X91.28073 Y116.32387 I-16.94994 J0.0
G3 Y86.96571 I8.47497 J-14.67908
G3 X116.70564 Y101.64479 I8.47497 J14.67908
G1 F300.0 X118.51395
G3 F800.0 X90.37658 Y117.88991 I-18.75825 J0.0
G3 Y85.39967 I9.37912 J-16.24512
G3 X118.51395 Y101.64479 I9.37913 J16.24512
G0 Z3.0
M5
M30
