( Made using CamBam - http://www.cambam.co.uk )
( svr_brett 12/9/2017 9:44:55 AM )
( T3 : 3.0 )
( T6 : 6.0 )
( T15 : 1.5 )
G21 G90 G64 G40
G0 Z3.0
( T6 : 6.0 )
T6 M6
( Glasloecher )
G17
M3 S1000
G0 X28.10321 Y224.68089
G0 Z1.0
G1 F300.0 Z-4.0
G2 F800.0 X27.60259 Y224.39186 I-0.33375 J0.0
G2 Y224.96993 I0.16688 J0.28904
G2 X28.10321 Y224.68089 I0.16687 J-0.28904
G1 F300.0 X29.30321
G2 F800.0 X27.00259 Y223.35263 I-1.53375 J0.0
G2 Y226.00916 I0.76688 J1.32827
G2 X29.30321 Y224.68089 I0.76687 J-1.32827
G1 F300.0 X31.70321
G2 F800.0 X25.80259 Y221.27417 I-3.93375 J0.0
G2 Y228.08762 I1.96688 J3.40673
G2 X31.70321 Y224.68089 I1.96687 J-3.40673
G1 F300.0 X34.10321
G2 F800.0 X24.60259 Y219.1957 I-6.33375 J0.0
G2 Y230.16608 I3.16688 J5.48519
G2 X34.10321 Y224.68089 I3.16687 J-5.48519
G1 F300.0 X36.50321
G2 F800.0 X23.40259 Y217.11724 I-8.73375 J0.0
G2 Y232.24454 I4.36688 J7.56365
G2 X36.50321 Y224.68089 I4.36687 J-7.56365
G1 F300.0 X38.90321
G2 F800.0 X22.20259 Y215.03878 I-11.13375 J0.0
G2 Y234.323 I5.56688 J9.64211
G2 X38.90321 Y224.68089 I5.56687 J-9.64211
G1 F300.0 X41.30321
G2 F800.0 X21.00259 Y212.96032 I-13.53375 J0.0
G2 Y236.40146 I6.76688 J11.72057
G2 X41.30321 Y224.68089 I6.76687 J-11.72057
G1 F300.0 X43.70321
G2 F800.0 X19.80259 Y210.88186 I-15.93375 J0.0
G2 Y238.47993 I7.96688 J13.79903
G2 X43.70321 Y224.68089 I7.96687 J-13.79903
G0 Z3.0
G0 X28.10321
G0 Z-3.0
G1 F300.0 Z-8.0
G2 F800.0 X27.60259 Y224.39186 I-0.33375 J0.0
G2 Y224.96993 I0.16688 J0.28904
G2 X28.10321 Y224.68089 I0.16687 J-0.28904
G1 F300.0 X29.30321
G2 F800.0 X27.00259 Y223.35263 I-1.53375 J0.0
G2 Y226.00916 I0.76688 J1.32827
G2 X29.30321 Y224.68089 I0.76687 J-1.32827
G1 F300.0 X31.70321
G2 F800.0 X25.80259 Y221.27417 I-3.93375 J0.0
G2 Y228.08762 I1.96688 J3.40673
G2 X31.70321 Y224.68089 I1.96687 J-3.40673
G1 F300.0 X34.10321
G2 F800.0 X24.60259 Y219.1957 I-6.33375 J0.0
G2 Y230.16608 I3.16688 J5.48519
G2 X34.10321 Y224.68089 I3.16687 J-5.48519
G1 F300.0 X36.50321
G2 F800.0 X23.40259 Y217.11724 I-8.73375 J0.0
G2 Y232.24454 I4.36688 J7.56365
G2 X36.50321 Y224.68089 I4.36687 J-7.56365
G1 F300.0 X38.90321
G2 F800.0 X22.20259 Y215.03878 I-11.13375 J0.0
G2 Y234.323 I5.56688 J9.64211
G2 X38.90321 Y224.68089 I5.56687 J-9.64211
G1 F300.0 X41.30321
G2 F800.0 X21.00259 Y212.96032 I-13.53375 J0.0
G2 Y236.40146 I6.76688 J11.72057
G2 X41.30321 Y224.68089 I6.76687 J-11.72057
G1 F300.0 X43.70321
G2 F800.0 X19.80259 Y210.88186 I-15.93375 J0.0
G2 Y238.47993 I7.96688 J13.79903
G2 X43.70321 Y224.68089 I7.96687 J-13.79903
G0 Z3.0
G0 X84.23696
G0 Z1.0
G1 F300.0 Z-4.0
G2 F800.0 X84.40384 Y224.96993 I0.33375 J0.0
G2 X84.90446 Y224.68089 I0.16687 J-0.28904
G2 X84.40384 Y224.39186 I-0.33375 J0.0
G2 X84.23696 Y224.68089 I0.16688 J0.28904
G1 F300.0 X83.03696
G2 F800.0 X83.80384 Y226.00916 I1.53375 J0.0
G2 X86.10446 Y224.68089 I0.76687 J-1.32827
G2 X83.80384 Y223.35263 I-1.53375 J0.0
G2 X83.03696 Y224.68089 I0.76688 J1.32827
G1 F300.0 X80.63696
G2 F800.0 X82.60384 Y228.08762 I3.93375 J0.0
G2 X88.50446 Y224.68089 I1.96687 J-3.40673
G2 X82.60384 Y221.27417 I-3.93375 J0.0
G2 X80.63696 Y224.68089 I1.96688 J3.40673
G1 F300.0 X78.23696
G2 F800.0 X81.40384 Y230.16608 I6.33375 J0.0
G2 X90.90446 Y224.68089 I3.16687 J-5.48519
G2 X81.40384 Y219.1957 I-6.33375 J0.0
G2 X78.23696 Y224.68089 I3.16688 J5.48519
G1 F300.0 X75.83696
G2 F800.0 X80.20384 Y232.24454 I8.73375 J0.0
G2 X93.30446 Y224.68089 I4.36687 J-7.56365
G2 X80.20384 Y217.11724 I-8.73375 J0.0
G2 X75.83696 Y224.68089 I4.36688 J7.56365
G1 F300.0 X73.43696
G2 F800.0 X79.00384 Y234.323 I11.13375 J0.0
G2 X95.70446 Y224.68089 I5.56687 J-9.64211
G2 X79.00384 Y215.03878 I-11.13375 J0.0
G2 X73.43696 Y224.68089 I5.56688 J9.64211
G1 F300.0 X71.03696
G2 F800.0 X77.80384 Y236.40146 I13.53375 J0.0
G2 X98.10446 Y224.68089 I6.76687 J-11.72057
G2 X77.80384 Y212.96032 I-13.53375 J0.0
G2 X71.03696 Y224.68089 I6.76688 J11.72057
G1 F300.0 X68.63696
G2 F800.0 X76.60384 Y238.47993 I15.93375 J0.0
G2 X100.50446 Y224.68089 I7.96687 J-13.79903
G2 X76.60384 Y210.88186 I-15.93375 J0.0
G2 X68.63696 Y224.68089 I7.96688 J13.79903
G0 Z3.0
G0 X84.23696
G0 Z-3.0
G1 F300.0 Z-8.0
G2 F800.0 X84.40384 Y224.96993 I0.33375 J0.0
G2 X84.90446 Y224.68089 I0.16687 J-0.28904
G2 X84.40384 Y224.39186 I-0.33375 J0.0
G2 X84.23696 Y224.68089 I0.16688 J0.28904
G1 F300.0 X83.03696
G2 F800.0 X83.80384 Y226.00916 I1.53375 J0.0
G2 X86.10446 Y224.68089 I0.76687 J-1.32827
G2 X83.80384 Y223.35263 I-1.53375 J0.0
G2 X83.03696 Y224.68089 I0.76688 J1.32827
G1 F300.0 X80.63696
G2 F800.0 X82.60384 Y228.08762 I3.93375 J0.0
G2 X88.50446 Y224.68089 I1.96687 J-3.40673
G2 X82.60384 Y221.27417 I-3.93375 J0.0
G2 X80.63696 Y224.68089 I1.96688 J3.40673
G1 F300.0 X78.23696
G2 F800.0 X81.40384 Y230.16608 I6.33375 J0.0
G2 X90.90446 Y224.68089 I3.16687 J-5.48519
G2 X81.40384 Y219.1957 I-6.33375 J0.0
G2 X78.23696 Y224.68089 I3.16688 J5.48519
G1 F300.0 X75.83696
G2 F800.0 X80.20384 Y232.24454 I8.73375 J0.0
G2 X93.30446 Y224.68089 I4.36687 J-7.56365
G2 X80.20384 Y217.11724 I-8.73375 J0.0
G2 X75.83696 Y224.68089 I4.36688 J7.56365
G1 F300.0 X73.43696
G2 F800.0 X79.00384 Y234.323 I11.13375 J0.0
G2 X95.70446 Y224.68089 I5.56687 J-9.64211
G2 X79.00384 Y215.03878 I-11.13375 J0.0
G2 X73.43696 Y224.68089 I5.56688 J9.64211
G1 F300.0 X71.03696
G2 F800.0 X77.80384 Y236.40146 I13.53375 J0.0
G2 X98.10446 Y224.68089 I6.76687 J-11.72057
G2 X77.80384 Y212.96032 I-13.53375 J0.0
G2 X71.03696 Y224.68089 I6.76688 J11.72057
G1 F300.0 X68.63696
G2 F800.0 X76.60384 Y238.47993 I15.93375 J0.0
G2 X100.50446 Y224.68089 I7.96687 J-13.79903
G2 X76.60384 Y210.88186 I-15.93375 J0.0
G2 X68.63696 Y224.68089 I7.96688 J13.79903
G0 Z3.0
G0 X141.03821
G0 Z1.0
G1 F300.0 Z-4.0
G2 F800.0 X141.20509 Y224.96993 I0.33375 J0.0
G2 X141.70571 Y224.68089 I0.16687 J-0.28904
G2 X141.20509 Y224.39186 I-0.33375 J0.0
G2 X141.03821 Y224.68089 I0.16688 J0.28904
G1 F300.0 X139.83821
G2 F800.0 X140.60509 Y226.00916 I1.53375 J0.0
G2 X142.90571 Y224.68089 I0.76687 J-1.32827
G2 X140.60509 Y223.35263 I-1.53375 J0.0
G2 X139.83821 Y224.68089 I0.76688 J1.32827
G1 F300.0 X137.43821
G2 F800.0 X139.40509 Y228.08762 I3.93375 J0.0
G2 X145.30571 Y224.68089 I1.96687 J-3.40673
G2 X139.40509 Y221.27417 I-3.93375 J0.0
G2 X137.43821 Y224.68089 I1.96688 J3.40673
G1 F300.0 X135.03821
G2 F800.0 X138.20509 Y230.16608 I6.33375 J0.0
G2 X147.70571 Y224.68089 I3.16687 J-5.48519
G2 X138.20509 Y219.1957 I-6.33375 J0.0
G2 X135.03821 Y224.68089 I3.16688 J5.48519
G1 F300.0 X132.63821
G2 F800.0 X137.00509 Y232.24454 I8.73375 J0.0
G2 X150.10571 Y224.68089 I4.36687 J-7.56365
G2 X137.00509 Y217.11724 I-8.73375 J0.0
G2 X132.63821 Y224.68089 I4.36688 J7.56365
G1 F300.0 X130.23821
G2 F800.0 X135.80509 Y234.323 I11.13375 J0.0
G2 X152.50571 Y224.68089 I5.56687 J-9.64211
G2 X135.80509 Y215.03878 I-11.13375 J0.0
G2 X130.23821 Y224.68089 I5.56688 J9.64211
G1 F300.0 X127.83821
G2 F800.0 X134.60509 Y236.40146 I13.53375 J0.0
G2 X154.90571 Y224.68089 I6.76687 J-11.72057
G2 X134.60509 Y212.96032 I-13.53375 J0.0
G2 X127.83821 Y224.68089 I6.76688 J11.72057
G1 F300.0 X125.43821
G2 F800.0 X133.40509 Y238.47993 I15.93375 J0.0
G2 X157.30571 Y224.68089 I7.96687 J-13.79903
G2 X133.40509 Y210.88186 I-15.93375 J0.0
G2 X125.43821 Y224.68089 I7.96688 J13.79903
G0 Z3.0
G0 X141.03821
G0 Z-3.0
G1 F300.0 Z-8.0
G2 F800.0 X141.20509 Y224.96993 I0.33375 J0.0
G2 X141.70571 Y224.68089 I0.16687 J-0.28904
G2 X141.20509 Y224.39186 I-0.33375 J0.0
G2 X141.03821 Y224.68089 I0.16688 J0.28904
G1 F300.0 X139.83821
G2 F800.0 X140.60509 Y226.00916 I1.53375 J0.0
G2 X142.90571 Y224.68089 I0.76687 J-1.32827
G2 X140.60509 Y223.35263 I-1.53375 J0.0
G2 X139.83821 Y224.68089 I0.76688 J1.32827
G1 F300.0 X137.43821
G2 F800.0 X139.40509 Y228.08762 I3.93375 J0.0
G2 X145.30571 Y224.68089 I1.96687 J-3.40673
G2 X139.40509 Y221.27417 I-3.93375 J0.0
G2 X137.43821 Y224.68089 I1.96688 J3.40673
G1 F300.0 X135.03821
G2 F800.0 X138.20509 Y230.16608 I6.33375 J0.0
G2 X147.70571 Y224.68089 I3.16687 J-5.48519
G2 X138.20509 Y219.1957 I-6.33375 J0.0
G2 X135.03821 Y224.68089 I3.16688 J5.48519
G1 F300.0 X132.63821
G2 F800.0 X137.00509 Y232.24454 I8.73375 J0.0
G2 X150.10571 Y224.68089 I4.36687 J-7.56365
G2 X137.00509 Y217.11724 I-8.73375 J0.0
G2 X132.63821 Y224.68089 I4.36688 J7.56365
G1 F300.0 X130.23821
G2 F800.0 X135.80509 Y234.323 I11.13375 J0.0
G2 X152.50571 Y224.68089 I5.56687 J-9.64211
G2 X135.80509 Y215.03878 I-11.13375 J0.0
G2 X130.23821 Y224.68089 I5.56688 J9.64211
G1 F300.0 X127.83821
G2 F800.0 X134.60509 Y236.40146 I13.53375 J0.0
G2 X154.90571 Y224.68089 I6.76687 J-11.72057
G2 X134.60509 Y212.96032 I-13.53375 J0.0
G2 X127.83821 Y224.68089 I6.76688 J11.72057
G1 F300.0 X125.43821
G2 F800.0 X133.40509 Y238.47993 I15.93375 J0.0
G2 X157.30571 Y224.68089 I7.96687 J-13.79903
G2 X133.40509 Y210.88186 I-15.93375 J0.0
G2 X125.43821 Y224.68089 I7.96688 J13.79903
G0 Z3.0
G0 X201.63464 Y213.61266
G0 Z1.0
G1 F300.0 Z-4.0
G2 F800.0 X201.79804 Y213.85371 I0.33028 J-0.04798
G2 X202.29867 Y213.56468 I0.16687 J-0.28904
G2 X201.79804 Y213.27564 I-0.33375 J0.0
G2 X201.63464 Y213.61266 I0.16688 J0.28904
G1 F300.0 X200.4471 Y213.78516
G2 F800.0 X201.19804 Y214.89294 I1.51782 J-0.22048
G2 X203.49867 Y213.56468 I0.76687 J-1.32827
G2 X201.19804 Y212.23641 I-1.53375 J0.0
G2 X200.4471 Y213.78516 I0.76688 J1.32827
G1 F300.0 X198.07202 Y214.13016
G2 F800.0 X199.99804 Y216.97141 I3.89289 J-0.56548
G2 X205.89867 Y213.56468 I1.96687 J-3.40673
G2 X199.99804 Y210.15795 I-3.93375 J0.0
G2 X198.07202 Y214.13016 I1.96688 J3.40673
G1 F300.0 X195.69695 Y214.47516
G2 F800.0 X198.79804 Y219.04987 I6.26797 J-0.91048
G2 X208.29867 Y213.56468 I3.16687 J-5.48519
G2 X198.79804 Y208.07949 I-6.33375 J0.0
G2 X195.69695 Y214.47516 I3.16688 J5.48519
G1 F300.0 X193.32188 Y214.82016
G2 F800.0 X197.59804 Y221.12833 I8.64304 J-1.25548
G2 X210.69867 Y213.56468 I4.36687 J-7.56365
G2 X197.59804 Y206.00103 I-8.73375 J0.0
G2 X193.32188 Y214.82016 I4.36688 J7.56365
G1 F300.0 X190.9468 Y215.16516
G2 F800.0 X196.39804 Y223.20679 I11.01811 J-1.60048
G2 X213.09867 Y213.56468 I5.56687 J-9.64211
G2 X196.39804 Y203.92257 I-11.13375 J0.0
G2 X190.9468 Y215.16516 I5.56688 J9.64211
G1 F300.0 X188.57173 Y215.51016
G2 F800.0 X195.19804 Y225.28525 I13.39319 J-1.94548
G2 X215.49867 Y213.56468 I6.76687 J-11.72057
G2 X195.19804 Y201.84411 I-13.53375 J0.0
G2 X188.57173 Y215.51016 I6.76688 J11.72057
G1 F300.0 X186.19666 Y215.85516
G2 F800.0 X193.99804 Y227.36371 I15.76826 J-2.29049
G2 X217.89867 Y213.56468 I7.96687 J-13.79903
G2 X193.99804 Y199.76565 I-15.93375 J0.0
G2 X186.19666 Y215.85516 I7.96688 J13.79903
G0 Z3.0
G0 X201.63464 Y213.61266
G0 Z-3.0
G1 F300.0 Z-8.0
G2 F800.0 X201.79804 Y213.85371 I0.33028 J-0.04798
G2 X202.29867 Y213.56468 I0.16687 J-0.28904
G2 X201.79804 Y213.27564 I-0.33375 J0.0
G2 X201.63464 Y213.61266 I0.16688 J0.28904
G1 F300.0 X200.4471 Y213.78516
G2 F800.0 X201.19804 Y214.89294 I1.51782 J-0.22048
G2 X203.49867 Y213.56468 I0.76687 J-1.32827
G2 X201.19804 Y212.23641 I-1.53375 J0.0
G2 X200.4471 Y213.78516 I0.76688 J1.32827
G1 F300.0 X198.07202 Y214.13016
G2 F800.0 X199.99804 Y216.97141 I3.89289 J-0.56548
G2 X205.89867 Y213.56468 I1.96687 J-3.40673
G2 X199.99804 Y210.15795 I-3.93375 J0.0
G2 X198.07202 Y214.13016 I1.96688 J3.40673
G1 F300.0 X195.69695 Y214.47516
G2 F800.0 X198.79804 Y219.04987 I6.26797 J-0.91048
G2 X208.29867 Y213.56468 I3.16687 J-5.48519
G2 X198.79804 Y208.07949 I-6.33375 J0.0
G2 X195.69695 Y214.47516 I3.16688 J5.48519
G1 F300.0 X193.32188 Y214.82016
G2 F800.0 X197.59804 Y221.12833 I8.64304 J-1.25548
G2 X210.69867 Y213.56468 I4.36687 J-7.56365
G2 X197.59804 Y206.00103 I-8.73375 J0.0
G2 X193.32188 Y214.82016 I4.36688 J7.56365
G1 F300.0 X190.9468 Y215.16516
G2 F800.0 X196.39804 Y223.20679 I11.01811 J-1.60048
G2 X213.09867 Y213.56468 I5.56687 J-9.64211
G2 X196.39804 Y203.92257 I-11.13375 J0.0
G2 X190.9468 Y215.16516 I5.56688 J9.64211
G1 F300.0 X188.57173 Y215.51016
G2 F800.0 X195.19804 Y225.28525 I13.39319 J-1.94548
G2 X215.49867 Y213.56468 I6.76687 J-11.72057
G2 X195.19804 Y201.84411 I-13.53375 J0.0
G2 X188.57173 Y215.51016 I6.76688 J11.72057
G1 F300.0 X186.19666 Y215.85516
G2 F800.0 X193.99804 Y227.36371 I15.76826 J-2.29049
G2 X217.89867 Y213.56468 I7.96687 J-13.79903
G2 X193.99804 Y199.76565 I-15.93375 J0.0
G2 X186.19666 Y215.85516 I7.96688 J13.79903
G0 Z3.0
G0 X28.08363 Y159.15655
G0 Z1.0
G1 F300.0 Z-4.0
G2 F800.0 X28.10321 Y159.04389 I-0.31416 J-0.11266
G2 X27.60259 Y158.75486 I-0.33375 J0.0
G2 Y159.33293 I0.16688 J0.28904
G2 X28.08363 Y159.15655 I0.16687 J-0.28904
G1 F300.0 X29.2132 Y159.56161
G2 F800.0 X29.30321 Y159.04389 I-1.44373 J-0.51772
G2 X27.00259 Y157.71563 I-1.53375 J0.0
G2 Y160.37216 I0.76688 J1.32827
G2 X29.2132 Y159.56161 I0.76687 J-1.32827
G1 F300.0 X31.47233 Y160.37173
G2 F800.0 X31.70321 Y159.04389 I-3.70287 J-1.32783
G2 X25.80259 Y155.63717 I-3.93375 J0.0
G2 Y162.45062 I1.96688 J3.40673
G2 X31.47233 Y160.37173 I1.96687 J-3.40673
G1 F300.0 X33.73147 Y161.18184
G2 F800.0 X34.10321 Y159.04389 I-5.96201 J-2.13795
G2 X24.60259 Y153.5587 I-6.33375 J0.0
G2 Y164.52908 I3.16688 J5.48519
G2 X33.73147 Y161.18184 I3.16687 J-5.48519
G1 F300.0 X35.99061 Y161.99196
G2 F800.0 X36.50321 Y159.04389 I-8.22115 J-2.94807
G2 X23.40259 Y151.48024 I-8.73375 J0.0
G2 Y166.60754 I4.36688 J7.56365
G2 X35.99061 Y161.99196 I4.36687 J-7.56365
G1 F300.0 X38.24975 Y162.80208
G2 F800.0 X38.90321 Y159.04389 I-10.48029 J-3.75818
G2 X22.20259 Y149.40178 I-11.13375 J0.0
G2 Y168.686 I5.56688 J9.64211
G2 X38.24975 Y162.80208 I5.56687 J-9.64211
G1 F300.0 X40.50889 Y163.61219
G2 F800.0 X41.30321 Y159.04389 I-12.73943 J-4.5683
G2 X21.00259 Y147.32332 I-13.53375 J0.0
G2 Y170.76446 I6.76688 J11.72057
G2 X40.50889 Y163.61219 I6.76687 J-11.72057
G1 F300.0 X42.76803 Y164.42231
G2 F800.0 X43.70321 Y159.04389 I-14.99857 J-5.37842
G2 X19.80259 Y145.24486 I-15.93375 J0.0
G2 Y172.84293 I7.96688 J13.79903
G2 X42.76803 Y164.42231 I7.96687 J-13.79903
G0 Z3.0
G0 X28.08363 Y159.15655
G0 Z-3.0
G1 F300.0 Z-8.0
G2 F800.0 X28.10321 Y159.04389 I-0.31416 J-0.11266
G2 X27.60259 Y158.75486 I-0.33375 J0.0
G2 Y159.33293 I0.16688 J0.28904
G2 X28.08363 Y159.15655 I0.16687 J-0.28904
G1 F300.0 X29.2132 Y159.56161
G2 F800.0 X29.30321 Y159.04389 I-1.44373 J-0.51772
G2 X27.00259 Y157.71563 I-1.53375 J0.0
G2 Y160.37216 I0.76688 J1.32827
G2 X29.2132 Y159.56161 I0.76687 J-1.32827
G1 F300.0 X31.47233 Y160.37173
G2 F800.0 X31.70321 Y159.04389 I-3.70287 J-1.32783
G2 X25.80259 Y155.63717 I-3.93375 J0.0
G2 Y162.45062 I1.96688 J3.40673
G2 X31.47233 Y160.37173 I1.96687 J-3.40673
G1 F300.0 X33.73147 Y161.18184
G2 F800.0 X34.10321 Y159.04389 I-5.96201 J-2.13795
G2 X24.60259 Y153.5587 I-6.33375 J0.0
G2 Y164.52908 I3.16688 J5.48519
G2 X33.73147 Y161.18184 I3.16687 J-5.48519
G1 F300.0 X35.99061 Y161.99196
G2 F800.0 X36.50321 Y159.04389 I-8.22115 J-2.94807
G2 X23.40259 Y151.48024 I-8.73375 J0.0
G2 Y166.60754 I4.36688 J7.56365
G2 X35.99061 Y161.99196 I4.36687 J-7.56365
G1 F300.0 X38.24975 Y162.80208
G2 F800.0 X38.90321 Y159.04389 I-10.48029 J-3.75818
G2 X22.20259 Y149.40178 I-11.13375 J0.0
G2 Y168.686 I5.56688 J9.64211
G2 X38.24975 Y162.80208 I5.56687 J-9.64211
G1 F300.0 X40.50889 Y163.61219
G2 F800.0 X41.30321 Y159.04389 I-12.73943 J-4.5683
G2 X21.00259 Y147.32332 I-13.53375 J0.0
G2 Y170.76446 I6.76688 J11.72057
G2 X40.50889 Y163.61219 I6.76687 J-11.72057
G1 F300.0 X42.76803 Y164.42231
G2 F800.0 X43.70321 Y159.04389 I-14.99857 J-5.37842
G2 X19.80259 Y145.24486 I-15.93375 J0.0
G2 Y172.84293 I7.96688 J13.79903
G2 X42.76803 Y164.42231 I7.96687 J-13.79903
G0 Z3.0
G0 X27.83843 Y93.73344
G0 Z1.0
G1 F300.0 Z-4.0
G2 F800.0 X28.10321 Y93.40689 I-0.06897 J-0.32655
G2 X27.60259 Y93.11786 I-0.33375 J0.0
G2 Y93.69593 I0.16688 J0.28904
G2 X27.83843 Y93.73344 I0.16687 J-0.28904
G1 F300.0 X28.0864 Y94.90754
G2 F800.0 X29.30321 Y93.40689 I-0.31694 J-1.50065
G2 X27.00259 Y92.07863 I-1.53375 J0.0
G2 Y94.73516 I0.76688 J1.32827
G2 X28.0864 Y94.90754 I0.76687 J-1.32827
G1 F300.0 X28.58235 Y97.25574
G2 F800.0 X31.70321 Y93.40689 I-0.81288 J-3.84885
G2 X25.80259 Y90.00017 I-3.93375 J0.0
G2 Y96.81362 I1.96688 J3.40673
G2 X28.58235 Y97.25574 I1.96687 J-3.40673
G1 F300.0 X29.07829 Y99.60394
G2 F800.0 X34.10321 Y93.40689 I-1.30883 J-6.19704
G2 X24.60259 Y87.9217 I-6.33375 J0.0
G2 Y98.89208 I3.16688 J5.48519
G2 X29.07829 Y99.60394 I3.16687 J-5.48519
G1 F300.0 X29.57423 Y101.95214
G2 F800.0 X36.50321 Y93.40689 I-1.80477 J-8.54524
G2 X23.40259 Y85.84324 I-8.73375 J0.0
G2 Y100.97054 I4.36688 J7.56365
G2 X29.57423 Y101.95214 I4.36687 J-7.56365
G1 F300.0 X30.07018 Y104.30034
G2 F800.0 X38.90321 Y93.40689 I-2.30071 J-10.89344
G2 X22.20259 Y83.76478 I-11.13375 J0.0
G2 Y103.049 I5.56688 J9.64211
G2 X30.07018 Y104.30034 I5.56687 J-9.64211
G1 F300.0 X30.56612 Y106.64854
G2 F800.0 X41.30321 Y93.40689 I-2.79666 J-13.24164
G2 X21.00259 Y81.68632 I-13.53375 J0.0
G2 Y105.12746 I6.76688 J11.72057
G2 X30.56612 Y106.64854 I6.76687 J-11.72057
G1 F300.0 X31.06206 Y108.99674
G2 F800.0 X43.70321 Y93.40689 I-3.2926 J-15.58984
G2 X19.80259 Y79.60786 I-15.93375 J0.0
G2 Y107.20593 I7.96688 J13.79903
G2 X31.06206 Y108.99674 I7.96687 J-13.79903
G0 Z3.0
G0 X27.83843 Y93.73344
G0 Z-3.0
G1 F300.0 Z-8.0
G2 F800.0 X28.10321 Y93.40689 I-0.06897 J-0.32655
G2 X27.60259 Y93.11786 I-0.33375 J0.0
G2 Y93.69593 I0.16688 J0.28904
G2 X27.83843 Y93.73344 I0.16687 J-0.28904
G1 F300.0 X28.0864 Y94.90754
G2 F800.0 X29.30321 Y93.40689 I-0.31694 J-1.50065
G2 X27.00259 Y92.07863 I-1.53375 J0.0
G2 Y94.73516 I0.76688 J1.32827
G2 X28.0864 Y94.90754 I0.76687 J-1.32827
G1 F300.0 X28.58235 Y97.25574
G2 F800.0 X31.70321 Y93.40689 I-0.81288 J-3.84885
G2 X25.80259 Y90.00017 I-3.93375 J0.0
G2 Y96.81362 I1.96688 J3.40673
G2 X28.58235 Y97.25574 I1.96687 J-3.40673
G1 F300.0 X29.07829 Y99.60394
G2 F800.0 X34.10321 Y93.40689 I-1.30883 J-6.19704
G2 X24.60259 Y87.9217 I-6.33375 J0.0
G2 Y98.89208 I3.16688 J5.48519
G2 X29.07829 Y99.60394 I3.16687 J-5.48519
G1 F300.0 X29.57423 Y101.95214
G2 F800.0 X36.50321 Y93.40689 I-1.80477 J-8.54524
G2 X23.40259 Y85.84324 I-8.73375 J0.0
G2 Y100.97054 I4.36688 J7.56365
G2 X29.57423 Y101.95214 I4.36687 J-7.56365
G1 F300.0 X30.07018 Y104.30034
G2 F800.0 X38.90321 Y93.40689 I-2.30071 J-10.89344
G2 X22.20259 Y83.76478 I-11.13375 J0.0
G2 Y103.049 I5.56688 J9.64211
G2 X30.07018 Y104.30034 I5.56687 J-9.64211
G1 F300.0 X30.56612 Y106.64854
G2 F800.0 X41.30321 Y93.40689 I-2.79666 J-13.24164
G2 X21.00259 Y81.68632 I-13.53375 J0.0
G2 Y105.12746 I6.76688 J11.72057
G2 X30.56612 Y106.64854 I6.76687 J-11.72057
G1 F300.0 X31.06206 Y108.99674
G2 F800.0 X43.70321 Y93.40689 I-3.2926 J-15.58984
G2 X19.80259 Y79.60786 I-15.93375 J0.0
G2 Y107.20593 I7.96688 J13.79903
G2 X31.06206 Y108.99674 I7.96687 J-13.79903
G0 Z3.0
G0 X27.78298 Y28.10337
G0 Z1.0
G1 F300.0 Z-4.0
G2 F800.0 X28.10321 Y27.76989 I-0.01352 J-0.33348
G2 X27.60259 Y27.48086 I-0.33375 J0.0
G2 Y28.05893 I0.16688 J0.28904
G2 X27.78298 Y28.10337 I0.16687 J-0.28904
G1 F300.0 X27.83159 Y29.30238
G2 F800.0 X29.30321 Y27.76989 I-0.06212 J-1.53249
G2 X27.00259 Y26.44163 I-1.53375 J0.0
G2 Y29.09816 I0.76688 J1.32827
G2 X27.83159 Y29.30238 I0.76687 J-1.32827
G1 F300.0 X27.92879 Y31.70042
G2 F800.0 X31.70321 Y27.76989 I-0.15933 J-3.93052
G2 X25.80259 Y24.36317 I-3.93375 J0.0
G2 Y31.17662 I1.96688 J3.40673
G2 X27.92879 Y31.70042 I1.96687 J-3.40673
G1 F300.0 X28.026 Y34.09845
G2 F800.0 X34.10321 Y27.76989 I-0.25653 J-6.32855
G2 X24.60259 Y22.2847 I-6.33375 J0.0
G2 Y33.25508 I3.16688 J5.48519
G2 X28.026 Y34.09845 I3.16687 J-5.48519
G1 F300.0 X28.1232 Y36.49648
G2 F800.0 X36.50321 Y27.76989 I-0.35374 J-8.72658
G2 X23.40259 Y20.20624 I-8.73375 J0.0
G2 Y35.33354 I4.36688 J7.56365
G2 X28.1232 Y36.49648 I4.36687 J-7.56365
G1 F300.0 X28.22041 Y38.89451
G2 F800.0 X38.90321 Y27.76989 I-0.45095 J-11.12461
G2 X22.20259 Y18.12778 I-11.13375 J0.0
G2 Y37.412 I5.56688 J9.64211
G2 X28.22041 Y38.89451 I5.56687 J-9.64211
G1 F300.0 X28.31762 Y41.29254
G2 F800.0 X41.30321 Y27.76989 I-0.54815 J-13.52264
G2 X21.00259 Y16.04932 I-13.53375 J0.0
G2 Y39.49046 I6.76688 J11.72057
G2 X28.31762 Y41.29254 I6.76687 J-11.72057
G1 F300.0 X28.41482 Y43.69057
G2 F800.0 X43.70321 Y27.76989 I-0.64536 J-15.92068
G2 X19.80259 Y13.97086 I-15.93375 J0.0
G2 Y41.56893 I7.96688 J13.79903
G2 X28.41482 Y43.69057 I7.96687 J-13.79903
G0 Z3.0
G0 X27.78298 Y28.10337
G0 Z-3.0
G1 F300.0 Z-8.0
G2 F800.0 X28.10321 Y27.76989 I-0.01352 J-0.33348
G2 X27.60259 Y27.48086 I-0.33375 J0.0
G2 Y28.05893 I0.16688 J0.28904
G2 X27.78298 Y28.10337 I0.16687 J-0.28904
G1 F300.0 X27.83159 Y29.30238
G2 F800.0 X29.30321 Y27.76989 I-0.06212 J-1.53249
G2 X27.00259 Y26.44163 I-1.53375 J0.0
G2 Y29.09816 I0.76688 J1.32827
G2 X27.83159 Y29.30238 I0.76687 J-1.32827
G1 F300.0 X27.92879 Y31.70042
G2 F800.0 X31.70321 Y27.76989 I-0.15933 J-3.93052
G2 X25.80259 Y24.36317 I-3.93375 J0.0
G2 Y31.17662 I1.96688 J3.40673
G2 X27.92879 Y31.70042 I1.96687 J-3.40673
G1 F300.0 X28.026 Y34.09845
G2 F800.0 X34.10321 Y27.76989 I-0.25653 J-6.32855
G2 X24.60259 Y22.2847 I-6.33375 J0.0
G2 Y33.25508 I3.16688 J5.48519
G2 X28.026 Y34.09845 I3.16687 J-5.48519
G1 F300.0 X28.1232 Y36.49648
G2 F800.0 X36.50321 Y27.76989 I-0.35374 J-8.72658
G2 X23.40259 Y20.20624 I-8.73375 J0.0
G2 Y35.33354 I4.36688 J7.56365
G2 X28.1232 Y36.49648 I4.36687 J-7.56365
G1 F300.0 X28.22041 Y38.89451
G2 F800.0 X38.90321 Y27.76989 I-0.45095 J-11.12461
G2 X22.20259 Y18.12778 I-11.13375 J0.0
G2 Y37.412 I5.56688 J9.64211
G2 X28.22041 Y38.89451 I5.56687 J-9.64211
G1 F300.0 X28.31762 Y41.29254
G2 F800.0 X41.30321 Y27.76989 I-0.54815 J-13.52264
G2 X21.00259 Y16.04932 I-13.53375 J0.0
G2 Y39.49046 I6.76688 J11.72057
G2 X28.31762 Y41.29254 I6.76687 J-11.72057
G1 F300.0 X28.41482 Y43.69057
G2 F800.0 X43.70321 Y27.76989 I-0.64536 J-15.92068
G2 X19.80259 Y13.97086 I-15.93375 J0.0
G2 Y41.56893 I7.96688 J13.79903
G2 X28.41482 Y43.69057 I7.96687 J-13.79903
G0 Z3.0
G0 X84.24962 Y27.86093
G0 Z1.0
G1 F300.0 Z-4.0
G2 F800.0 X84.40384 Y28.05893 I0.3211 J-0.09103
G2 X84.90446 Y27.76989 I0.16687 J-0.28904
G2 X84.40384 Y27.48086 I-0.33375 J0.0
G2 X84.24962 Y27.86093 I0.16688 J0.28904
G1 F300.0 X83.09512 Y28.18824
G2 F800.0 X83.80384 Y29.09816 I1.47559 J-0.41834
G2 X86.10446 Y27.76989 I0.76687 J-1.32827
G2 X83.80384 Y26.44163 I-1.53375 J0.0
G2 X83.09512 Y28.18824 I0.76688 J1.32827
G1 F300.0 X80.78612 Y28.84286
G2 F800.0 X82.60384 Y31.17662 I3.78459 J-1.07296
G2 X88.50446 Y27.76989 I1.96687 J-3.40673
G2 X82.60384 Y24.36317 I-3.93375 J0.0
G2 X80.78612 Y28.84286 I1.96688 J3.40673
G1 F300.0 X78.47712 Y29.49748
G2 F800.0 X81.40384 Y33.25508 I6.09359 J-1.72758
G2 X90.90446 Y27.76989 I3.16687 J-5.48519
G2 X81.40384 Y22.2847 I-6.33375 J0.0
G2 X78.47712 Y29.49748 I3.16688 J5.48519
G1 F300.0 X76.16813 Y30.1521
G2 F800.0 X80.20384 Y35.33354 I8.40259 J-2.38221
G2 X93.30446 Y27.76989 I4.36687 J-7.56365
G2 X80.20384 Y20.20624 I-8.73375 J0.0
G2 X76.16813 Y30.1521 I4.36688 J7.56365
G1 F300.0 X73.85913 Y30.80672
G2 F800.0 X79.00384 Y37.412 I10.71159 J-3.03683
G2 X95.70446 Y27.76989 I5.56687 J-9.64211
G2 X79.00384 Y18.12778 I-11.13375 J0.0
G2 X73.85913 Y30.80672 I5.56688 J9.64211
G1 F300.0 X71.55013 Y31.46134
G2 F800.0 X77.80384 Y39.49046 I13.02058 J-3.69145
G2 X98.10446 Y27.76989 I6.76687 J-11.72057
G2 X77.80384 Y16.04932 I-13.53375 J0.0
G2 X71.55013 Y31.46134 I6.76688 J11.72057
G1 F300.0 X69.24113 Y32.11596
G2 F800.0 X76.60384 Y41.56893 I15.32958 J-4.34607
G2 X100.50446 Y27.76989 I7.96687 J-13.79903
G2 X76.60384 Y13.97086 I-15.93375 J0.0
G2 X69.24113 Y32.11596 I7.96687 J13.79903
G0 Z3.0
G0 X84.24962 Y27.86093
G0 Z-3.0
G1 F300.0 Z-8.0
G2 F800.0 X84.40384 Y28.05893 I0.3211 J-0.09103
G2 X84.90446 Y27.76989 I0.16687 J-0.28904
G2 X84.40384 Y27.48086 I-0.33375 J0.0
G2 X84.24962 Y27.86093 I0.16688 J0.28904
G1 F300.0 X83.09512 Y28.18824
G2 F800.0 X83.80384 Y29.09816 I1.47559 J-0.41834
G2 X86.10446 Y27.76989 I0.76687 J-1.32827
G2 X83.80384 Y26.44163 I-1.53375 J0.0
G2 X83.09512 Y28.18824 I0.76688 J1.32827
G1 F300.0 X80.78612 Y28.84286
G2 F800.0 X82.60384 Y31.17662 I3.78459 J-1.07296
G2 X88.50446 Y27.76989 I1.96687 J-3.40673
G2 X82.60384 Y24.36317 I-3.93375 J0.0
G2 X80.78612 Y28.84286 I1.96688 J3.40673
G1 F300.0 X78.47712 Y29.49748
G2 F800.0 X81.40384 Y33.25508 I6.09359 J-1.72758
G2 X90.90446 Y27.76989 I3.16687 J-5.48519
G2 X81.40384 Y22.2847 I-6.33375 J0.0
G2 X78.47712 Y29.49748 I3.16688 J5.48519
G1 F300.0 X76.16813 Y30.1521
G2 F800.0 X80.20384 Y35.33354 I8.40259 J-2.38221
G2 X93.30446 Y27.76989 I4.36687 J-7.56365
G2 X80.20384 Y20.20624 I-8.73375 J0.0
G2 X76.16813 Y30.1521 I4.36688 J7.56365
G1 F300.0 X73.85913 Y30.80672
G2 F800.0 X79.00384 Y37.412 I10.71159 J-3.03683
G2 X95.70446 Y27.76989 I5.56687 J-9.64211
G2 X79.00384 Y18.12778 I-11.13375 J0.0
G2 X73.85913 Y30.80672 I5.56688 J9.64211
G1 F300.0 X71.55013 Y31.46134
G2 F800.0 X77.80384 Y39.49046 I13.02058 J-3.69145
G2 X98.10446 Y27.76989 I6.76687 J-11.72057
G2 X77.80384 Y16.04932 I-13.53375 J0.0
G2 X71.55013 Y31.46134 I6.76688 J11.72057
G1 F300.0 X69.24113 Y32.11596
G2 F800.0 X76.60384 Y41.56893 I15.32958 J-4.34607
G2 X100.50446 Y27.76989 I7.96687 J-13.79903
G2 X76.60384 Y13.97086 I-15.93375 J0.0
G2 X69.24113 Y32.11596 I7.96687 J13.79903
G0 Z3.0
G0 X141.03882 Y27.78997
G0 Z1.0
G1 F300.0 Z-4.0
G2 F800.0 X141.20509 Y28.05893 I0.33315 J-0.02007
G2 X141.70571 Y27.76989 I0.16688 J-0.28904
G2 X141.20509 Y27.48086 I-0.33375 J0.0
G2 X141.03882 Y27.78997 I0.16688 J0.28904
G1 F300.0 X139.84099 Y27.86214
G2 F800.0 X140.60509 Y29.09816 I1.53097 J-0.09225
G2 X142.90571 Y27.76989 I0.76688 J-1.32827
G2 X140.60509 Y26.44163 I-1.53375 J0.0
G2 X139.84099 Y27.86214 I0.76687 J1.32827
G1 F300.0 X137.44534 Y28.00648
G2 F800.0 X139.40509 Y31.17662 I3.92663 J-0.23659
G2 X145.30571 Y27.76989 I1.96688 J-3.40673
G2 X139.40509 Y24.36317 I-3.93375 J0.0
G2 X137.44534 Y28.00648 I1.96687 J3.40673
G1 F300.0 X135.04968 Y28.15083
G2 F800.0 X138.20509 Y33.25508 I6.32228 J-0.38093
G2 X147.70571 Y27.76989 I3.16688 J-5.48519
G2 X138.20509 Y22.2847 I-6.33375 J0.0
G2 X135.04968 Y28.15083 I3.16688 J5.48519
G1 F300.0 X132.65402 Y28.29517
G2 F800.0 X137.00509 Y35.33354 I8.71794 J-0.52528
G2 X150.10571 Y27.76989 I4.36688 J-7.56365
G2 X137.00509 Y20.20624 I-8.73375 J0.0
G2 X132.65402 Y28.29517 I4.36687 J7.56365
G1 F300.0 X130.25837 Y28.43952
G2 F800.0 X135.80509 Y37.412 I11.1136 J-0.66962
G2 X152.50571 Y27.76989 I5.56688 J-9.64211
G2 X135.80509 Y18.12778 I-11.13375 J0.0
G2 X130.25837 Y28.43952 I5.56687 J9.64211
G1 F300.0 X127.86271 Y28.58386
G2 F800.0 X134.60509 Y39.49046 I13.50925 J-0.81397
G2 X154.90571 Y27.76989 I6.76688 J-11.72057
G2 X134.60509 Y16.04932 I-13.53375 J0.0
G2 X127.86271 Y28.58386 I6.76687 J11.72057
G1 F300.0 X125.46706 Y28.7282
G2 F800.0 X133.40509 Y41.56893 I15.90491 J-0.95831
G2 X157.30571 Y27.76989 I7.96688 J-13.79903
G2 X133.40509 Y13.97086 I-15.93375 J0.0
G2 X125.46706 Y28.7282 I7.96687 J13.79903
G0 Z3.0
G0 X141.03882 Y27.78997
G0 Z-3.0
G1 F300.0 Z-8.0
G2 F800.0 X141.20509 Y28.05893 I0.33315 J-0.02007
G2 X141.70571 Y27.76989 I0.16688 J-0.28904
G2 X141.20509 Y27.48086 I-0.33375 J0.0
G2 X141.03882 Y27.78997 I0.16688 J0.28904
G1 F300.0 X139.84099 Y27.86214
G2 F800.0 X140.60509 Y29.09816 I1.53097 J-0.09225
G2 X142.90571 Y27.76989 I0.76688 J-1.32827
G2 X140.60509 Y26.44163 I-1.53375 J0.0
G2 X139.84099 Y27.86214 I0.76687 J1.32827
G1 F300.0 X137.44534 Y28.00648
G2 F800.0 X139.40509 Y31.17662 I3.92663 J-0.23659
G2 X145.30571 Y27.76989 I1.96688 J-3.40673
G2 X139.40509 Y24.36317 I-3.93375 J0.0
G2 X137.44534 Y28.00648 I1.96687 J3.40673
G1 F300.0 X135.04968 Y28.15083
G2 F800.0 X138.20509 Y33.25508 I6.32228 J-0.38093
G2 X147.70571 Y27.76989 I3.16688 J-5.48519
G2 X138.20509 Y22.2847 I-6.33375 J0.0
G2 X135.04968 Y28.15083 I3.16688 J5.48519
G1 F300.0 X132.65402 Y28.29517
G2 F800.0 X137.00509 Y35.33354 I8.71794 J-0.52528
G2 X150.10571 Y27.76989 I4.36688 J-7.56365
G2 X137.00509 Y20.20624 I-8.73375 J0.0
G2 X132.65402 Y28.29517 I4.36687 J7.56365
G1 F300.0 X130.25837 Y28.43952
G2 F800.0 X135.80509 Y37.412 I11.1136 J-0.66962
G2 X152.50571 Y27.76989 I5.56688 J-9.64211
G2 X135.80509 Y18.12778 I-11.13375 J0.0
G2 X130.25837 Y28.43952 I5.56687 J9.64211
G1 F300.0 X127.86271 Y28.58386
G2 F800.0 X134.60509 Y39.49046 I13.50925 J-0.81397
G2 X154.90571 Y27.76989 I6.76688 J-11.72057
G2 X134.60509 Y16.04932 I-13.53375 J0.0
G2 X127.86271 Y28.58386 I6.76687 J11.72057
G1 F300.0 X125.46706 Y28.7282
G2 F800.0 X133.40509 Y41.56893 I15.90491 J-0.95831
G2 X157.30571 Y27.76989 I7.96688 J-13.79903
G2 X133.40509 Y13.97086 I-15.93375 J0.0
G2 X125.46706 Y28.7282 I7.96687 J13.79903
G0 Z3.0
G0 X201.63407 Y38.84218
G0 Z1.0
G1 F300.0 Z-4.0
G2 F800.0 X201.79804 Y39.17514 I0.33085 J0.04393
G2 X202.29867 Y38.88611 I0.16687 J-0.28904
G2 X201.79804 Y38.59707 I-0.33375 J0.0
G2 X201.63407 Y38.84218 I0.16688 J0.28904
G1 F300.0 X200.44451 Y38.68422
G2 F800.0 X201.19804 Y40.21437 I1.5204 J0.20189
G2 X203.49867 Y38.88611 I0.76687 J-1.32827
G2 X201.19804 Y37.55784 I-1.53375 J0.0
G2 X200.44451 Y38.68422 I0.76687 J1.32827
G1 F300.0 X198.0654 Y38.3683
G2 F800.0 X199.99804 Y42.29284 I3.89952 J0.5178
G2 X205.89867 Y38.88611 I1.96688 J-3.40673
G2 X199.99804 Y35.47938 I-3.93375 J0.0
G2 X198.0654 Y38.3683 I1.96687 J3.40673
G1 F300.0 X195.68628 Y38.05239
G2 F800.0 X198.79804 Y44.3713 I6.27864 J0.83372
G2 X208.29867 Y38.88611 I3.16687 J-5.48519
G2 X198.79804 Y33.40092 I-6.33375 J0.0
G2 X195.68628 Y38.05239 I3.16688 J5.48519
G1 F300.0 X193.30716 Y37.73647
G2 F800.0 X197.59804 Y46.44976 I8.65776 J1.14964
G2 X210.69867 Y38.88611 I4.36687 J-7.56365
G2 X197.59804 Y31.32246 I-8.73375 J0.0
G2 X193.30716 Y37.73647 I4.36687 J7.56365
G1 F300.0 X190.92805 Y37.42056
G2 F800.0 X196.39804 Y48.52822 I11.03687 J1.46555
G2 X213.09867 Y38.88611 I5.56687 J-9.64211
G2 X196.39804 Y29.244 I-11.13375 J0.0
G2 X190.92805 Y37.42056 I5.56687 J9.64211
G1 F300.0 X188.54893 Y37.10464
G2 F800.0 X195.19804 Y50.60668 I13.41599 J1.78147
G2 X215.49867 Y38.88611 I6.76688 J-11.72057
G2 X195.19804 Y27.16554 I-13.53375 J0.0
G2 X188.54893 Y37.10464 I6.76688 J11.72057
G1 F300.0 X186.16981 Y36.78873
G2 F800.0 X193.99804 Y52.68514 I15.79511 J2.09738
G2 X217.89867 Y38.88611 I7.96687 J-13.79903
G2 X193.99804 Y25.08708 I-15.93375 J0.0
G2 X186.16981 Y36.78873 I7.96687 J13.79903
G0 Z3.0
G0 X201.63407 Y38.84218
G0 Z-3.0
G1 F300.0 Z-8.0
G2 F800.0 X201.79804 Y39.17514 I0.33085 J0.04393
G2 X202.29867 Y38.88611 I0.16687 J-0.28904
G2 X201.79804 Y38.59707 I-0.33375 J0.0
G2 X201.63407 Y38.84218 I0.16688 J0.28904
G1 F300.0 X200.44451 Y38.68422
G2 F800.0 X201.19804 Y40.21437 I1.5204 J0.20189
G2 X203.49867 Y38.88611 I0.76687 J-1.32827
G2 X201.19804 Y37.55784 I-1.53375 J0.0
G2 X200.44451 Y38.68422 I0.76687 J1.32827
G1 F300.0 X198.0654 Y38.3683
G2 F800.0 X199.99804 Y42.29284 I3.89952 J0.5178
G2 X205.89867 Y38.88611 I1.96688 J-3.40673
G2 X199.99804 Y35.47938 I-3.93375 J0.0
G2 X198.0654 Y38.3683 I1.96687 J3.40673
G1 F300.0 X195.68628 Y38.05239
G2 F800.0 X198.79804 Y44.3713 I6.27864 J0.83372
G2 X208.29867 Y38.88611 I3.16687 J-5.48519
G2 X198.79804 Y33.40092 I-6.33375 J0.0
G2 X195.68628 Y38.05239 I3.16688 J5.48519
G1 F300.0 X193.30716 Y37.73647
G2 F800.0 X197.59804 Y46.44976 I8.65776 J1.14964
G2 X210.69867 Y38.88611 I4.36687 J-7.56365
G2 X197.59804 Y31.32246 I-8.73375 J0.0
G2 X193.30716 Y37.73647 I4.36687 J7.56365
G1 F300.0 X190.92805 Y37.42056
G2 F800.0 X196.39804 Y48.52822 I11.03687 J1.46555
G2 X213.09867 Y38.88611 I5.56687 J-9.64211
G2 X196.39804 Y29.244 I-11.13375 J0.0
G2 X190.92805 Y37.42056 I5.56687 J9.64211
G1 F300.0 X188.54893 Y37.10464
G2 F800.0 X195.19804 Y50.60668 I13.41599 J1.78147
G2 X215.49867 Y38.88611 I6.76688 J-11.72057
G2 X195.19804 Y27.16554 I-13.53375 J0.0
G2 X188.54893 Y37.10464 I6.76688 J11.72057
G1 F300.0 X186.16981 Y36.78873
G2 F800.0 X193.99804 Y52.68514 I15.79511 J2.09738
G2 X217.89867 Y38.88611 I7.96687 J-13.79903
G2 X193.99804 Y25.08708 I-15.93375 J0.0
G2 X186.16981 Y36.78873 I7.96687 J13.79903
( Wappen_Tasche )
S1000
G0 Z3.0
G0 X59.47644 Y192.97391
G0 Z1.0
G1 F300.0 Z-3.0
G3 F800.0 X58.59776 Y190.85259 I2.12132 J-2.12132
G1 Y61.59819
G3 X63.68503 Y59.44336 I3.0 J0.0
G1 X79.76283 Y75.01699
G3 X120.10888 Y114.09789 I18.08576 J21.69528
G1 X150.06549 Y143.11513
G3 X158.58182 Y101.76451 I22.63884 J-16.88974
G3 X200.94932 Y126.22539 I14.1225 J24.46089
G3 X158.58182 Y150.68628 I-28.245 J0.0
G3 X156.54418 Y149.39067 I14.1225 J-24.46089
G1 X189.18353 Y181.00652
G3 X188.51567 Y185.80433 I-2.08727 J2.15484
G3 X156.51906 Y193.85259 I-31.99661 J-59.57856
G1 X61.59776
G3 X59.47644 Y192.97391 I0.0 J-3.0
G0 Z3.0
G0 X80.56206 Y65.77389
G0 Z1.0
G1 F300.0 Z-3.0
G3 F800.0 X80.62394 Y65.73939 I17.28652 J30.93839
G1 X80.52645
G1 X80.56206 Y65.77389
G0 Z3.0
G0 X146.51866 Y81.33939
G0 Z1.0
G1 F300.0 Z-3.0
G3 F800.0 X146.79676 Y82.24926 I-48.67008 J15.37288
G3 X147.18422 Y82.02328 I25.90757 J43.97613
G3 X148.40722 Y81.33939 I25.5201 J44.20211
G1 X146.51866
G1 F300.0 X145.37439 Y81.70082
G3 F800.0 X146.06678 Y84.10073 I-47.5258 J15.01145
G3 X147.78422 Y83.06251 I26.63754 J42.12466
G3 X153.72733 Y80.13939 I24.9201 J43.16288
G1 X144.85268
G3 X145.37439 Y81.70082 I-47.0041 J16.57288
G1 F300.0 X143.08584 Y82.42368
G3 F800.0 X144.49715 Y88.08187 I-45.23725 J14.28859
G3 X148.98422 Y85.14097 I28.20717 J38.14352
G3 X167.71073 Y79.04874 I23.7201 J41.08442
G2 X156.51904 Y77.73939 I-11.19177 J47.17665
G1 X156.51903
G1 X156.51906
G1 X156.51904
G1 X141.32964
G3 X143.08584 Y82.42368 I-43.48106 J18.97288
G1 F300.0 X140.79728 Y83.14654
G3 F800.0 X142.70351 Y92.63118 I-42.9487 J13.56573
G3 X150.18422 Y87.21944 I30.00081 J33.59421
G3 X181.93487 Y82.14119 I22.5201 J39.00596
G2 X156.51904 Y75.33939 I-25.41591 J44.0842
G1 X156.51903
G1 X156.51906
G1 X156.51904
G1 X137.49477
G3 X140.79728 Y83.14654 I-39.64618 J21.37288
G1 F300.0 X138.50873 Y83.8694
G3 F800.0 X140.45824 Y98.32599 I-40.66014 J12.84287
G3 X151.38422 Y89.2979 I32.24608 J27.8994
G3 X196.15902 Y90.61551 I21.3201 J36.9275
G2 X156.51905 Y72.93939 I-39.64005 J35.60989
G1 X156.51903
G1 X156.51906
G1 X156.51905
G1 X133.24684
G3 X138.50873 Y83.8694 I-35.39826 J23.77288
G1 F300.0 X136.22018 Y84.59226
G3 F800.0 X135.5772 Y110.70605 I-38.37159 J12.12001
G3 X152.58422 Y91.37636 I37.12713 J15.51935
G3 X210.38316 Y112.09815 I20.1201 J34.84904
G2 X156.51905 Y70.53939 I-53.8642 J14.12724
G1 X156.51904
G1 X156.51906
G1 X156.51905
G1 X128.41415
G3 X136.22018 Y84.59226 I-30.56557 J26.17288
G0 Z3.0
G0 X192.3754 Y164.05706
G0 Z1.0
G1 F300.0 Z-3.0
G1 F800.0 X193.21073 Y164.8662
G2 X196.15902 Y161.83528 I-36.69177 J-38.64081
G3 X192.3754 Y164.05706 I-23.45469 J-35.60989
G1 F300.0 X191.26822 Y161.92771
G3 F800.0 X188.20613 Y163.35985 I-18.56389 J-35.70232
G1 X193.15993 Y168.15831
G2 X210.38316 Y140.35263 I-36.64097 J-41.93292
G3 X191.26822 Y161.92771 I-37.67884 J-14.12724
G1 F300.0 X190.16103 Y159.79836
G3 F800.0 X183.77574 Y162.40971 I-17.45671 J-33.57297
G1 X193.04589 Y171.38917
G2 X156.51905 Y68.13939 I-36.52693 J-45.16378
G1 X156.51904
G1 X156.51906
G1 X156.51905
G1 X122.65728
G3 X132.24176 Y112.49171 I-24.80869 J28.57288
G1 X136.18575 Y116.31203
G3 X153.78422 Y93.45482 I36.51857 J9.91336
G3 X210.54452 Y126.22539 I18.9201 J32.77057
G3 X190.16103 Y159.79836 I-37.8402 J0.0
G1 F300.0 X189.05385 Y157.66901
G3 F800.0 X178.97987 Y161.10555 I-16.34952 J-31.44361
G1 X192.87549 Y174.56543
G2 X156.51905 Y65.73939 I-36.35653 J-48.34004
G1 X156.51904
G1 X156.51906
G1 X156.51905
G1 X115.07323
G3 X129.32184 Y113.00467 I-17.22464 J30.97288
G1 X137.64199 Y121.06393
G3 X154.98422 Y95.53328 I35.06233 J5.16147
G3 X208.14452 Y126.22539 I17.7201 J30.69211
G3 X189.05385 Y157.66901 I-35.4402 J0.0
G1 F300.0 X187.94666 Y155.53965
G3 F800.0 X173.61783 Y159.25296 I-15.24234 J-29.31426
G1 X192.51981 Y177.56223
G3 X192.65257 Y177.69394 I-5.42355 J5.59913
G2 X156.51905 Y63.33939 I-36.1336 J-51.46855
G1 X156.51906
G1 X156.51905
G1 X74.59927
G1 X80.21002 Y68.7742
G3 X126.33426 Y113.45209 I17.63857 J27.93807
G1 X139.66442 Y126.36425
G3 X156.18422 Y97.61174 I33.03991 J-0.13886
G3 X205.74452 Y126.22539 I16.5201 J28.61365
G3 X187.94666 Y155.53965 I-33.0402 J0.0
G1 F300.0 X186.83948 Y153.4103
G3 F800.0 X167.18654 Y156.36467 I-14.13515 J-27.18491
G1 X190.85 Y179.2861
G3 X192.04051 Y181.00205 I-3.75374 J3.87526
G2 X156.51905 Y60.93939 I-35.52154 J-54.77665
G1 X156.51906
G1 X156.51905
G1 X68.67209
G1 X79.93799 Y71.85202
G3 X123.26666 Y113.82201 I17.9106 J24.86025
G1 X142.75607 Y132.70028
G3 X157.38422 Y99.6902 I29.94825 J-6.47489
G3 X203.34452 Y126.22539 I15.3201 J26.53519
G3 X186.83948 Y153.4103 I-30.6402 J0.0
G0 Z3.0
G0 X206.91507 Y171.40977
G0 Z1.0
G1 F300.0 Z-3.0
G2 F800.0 X156.51906 Y58.53939 I-50.3961 J-45.18437
G1 X156.51905
G1 X156.51906
G1 X58.53896
G1 Y193.91139
G1 X156.51906
G1 X156.51905
G1 X156.51906
G2 X206.91507 Y171.40977 I-0.00009 J-67.686
G0 Z3.0
G0 X196.15902 Y161.83528
G0 Z-2.0
G1 F300.0 Z-5.0
G3 F800.0 X192.3754 Y164.05706 I-23.45469 J-35.60989
G1 X193.21073 Y164.8662
G2 X196.15902 Y161.83528 I-36.69177 J-38.64081
G1 F300.0 X194.83887 Y159.83098
G3 F800.0 X188.20613 Y163.35985 I-22.13455 J-33.60559
G1 X193.15993 Y168.15831
G2 X210.38316 Y140.35263 I-36.64097 J-41.93292
G3 X194.83887 Y159.83098 I-37.67884 J-14.12724
G0 Z3.0
G0 X148.40722 Y81.33939
G0 Z-2.0
G1 F300.0 Z-5.0
G1 F800.0 X146.51866
G3 X146.79676 Y82.24926 I-48.67008 J15.37288
G3 X147.18422 Y82.02328 I25.90757 J43.97613
G3 X148.40722 Y81.33939 I25.5201 J44.20211
G1 F300.0 Y80.13939
G1 F800.0 X144.85268
G3 X146.06678 Y84.10073 I-47.0041 J16.57288
G3 X147.78422 Y83.06251 I26.63754 J42.12466
G3 X153.72733 Y80.13939 I24.9201 J43.16288
G1 X148.40722
G1 F300.0 Y77.73939
G1 F800.0 X141.32964
G3 X144.49715 Y88.08187 I-43.48106 J18.97288
G3 X148.98422 Y85.14097 I28.20717 J38.14352
G3 X167.71073 Y79.04874 I23.7201 J41.08442
G2 X156.51904 Y77.73939 I-11.19177 J47.17665
G1 X156.51903
G1 X156.51906
G1 X156.51904
G1 X148.40722
G1 F300.0 Y75.33939
G1 F800.0 X137.49477
G3 X142.70351 Y92.63118 I-39.64618 J21.37288
G3 X150.18422 Y87.21944 I30.00081 J33.59421
G3 X181.93487 Y82.14119 I22.5201 J39.00596
G2 X156.51904 Y75.33939 I-25.41591 J44.0842
G1 X156.51903
G1 X156.51906
G1 X156.51904
G1 X148.40722
G1 F300.0 Y72.93939
G1 F800.0 X133.24684
G3 X140.45824 Y98.32599 I-35.39826 J23.77288
G3 X151.38422 Y89.2979 I32.24608 J27.8994
G3 X196.15902 Y90.61551 I21.3201 J36.9275
G2 X156.51905 Y72.93939 I-39.64005 J35.60989
G1 X156.51903
G1 X156.51906
G1 X156.51905
G1 X148.40722
G1 F300.0 Y70.53939
G1 F800.0 X128.41415
G3 X135.5772 Y110.70605 I-30.56557 J26.17288
G3 X152.58422 Y91.37636 I37.12713 J15.51935
G3 X210.38316 Y112.09815 I20.1201 J34.84904
G2 X156.51905 Y70.53939 I-53.8642 J14.12724
G1 X156.51904
G1 X156.51906
G1 X156.51905
G1 X148.40722
G1 F300.0 Y68.13939
G1 F800.0 X122.65728
G3 X132.24176 Y112.49171 I-24.80869 J28.57288
G1 X136.18575 Y116.31203
G3 X153.78422 Y93.45482 I36.51857 J9.91336
G3 X210.54452 Y126.22539 I18.9201 J32.77057
G3 X183.77574 Y162.40971 I-37.8402 J0.0
G1 X193.04589 Y171.38917
G2 X156.51905 Y68.13939 I-36.52693 J-45.16378
G1 X156.51904
G1 X156.51906
G1 X156.51905
G1 X148.40722
G1 F300.0 Y65.73939
G1 F800.0 X115.07323
G3 X129.32184 Y113.00467 I-17.22464 J30.97288
G1 X137.64199 Y121.06393
G3 X154.98422 Y95.53328 I35.06233 J5.16147
G3 X208.14452 Y126.22539 I17.7201 J30.69211
G3 X178.97987 Y161.10555 I-35.4402 J0.0
G1 X192.87549 Y174.56543
G2 X156.51905 Y65.73939 I-36.35653 J-48.34004
G1 X156.51904
G1 X156.51906
G1 X156.51905
G1 X148.40722
G0 Z3.0
G0 X80.62394
G0 Z-2.0
G1 F300.0 Z-5.0
G1 F800.0 X80.52645
G1 X80.56206 Y65.77389
G3 X80.62394 Y65.73939 I17.28652 J30.93839
G1 F300.0 X81.79039 Y67.83687
G3 F800.0 X126.33426 Y113.45209 I16.0582 J28.87541
G1 X139.66442 Y126.36425
G3 X156.18422 Y97.61174 I33.03991 J-0.13886
G3 X205.74452 Y126.22539 I16.5201 J28.61365
G3 X173.61783 Y159.25296 I-33.0402 J0.0
G1 X192.51981 Y177.56223
G3 X192.65257 Y177.69394 I-5.42355 J5.59913
G2 X156.51905 Y63.33939 I-36.1336 J-51.46855
G1 X156.51906
G1 X156.51905
G1 X74.59927
G1 X80.21002 Y68.7742
G3 X81.79039 Y67.83687 I17.63857 J27.93807
G1 F300.0 X82.95684 Y69.93434
G3 F800.0 X123.26666 Y113.82201 I14.89175 J26.77793
G1 X142.75607 Y132.70028
G3 X157.38422 Y99.6902 I29.94825 J-6.47489
G3 X203.34452 Y126.22539 I15.3201 J26.53519
G3 X167.18654 Y156.36467 I-30.6402 J0.0
G1 X190.85 Y179.2861
G3 X192.04051 Y181.00205 I-3.75374 J3.87526
G2 X156.51905 Y60.93939 I-35.52154 J-54.77665
G1 X156.51906
G1 X156.51905
G1 X68.67209
G1 X79.93799 Y71.85202
G3 X82.95684 Y69.93434 I17.9106 J24.86025
G0 Z3.0
G0 Y58.53939
G0 Z-1.0
G1 F300.0 Z-5.0
G1 F800.0 X58.53896
G1 Y193.91139
G1 X156.51906
G1 X156.51905
G1 X156.51906
G2 Y58.53939 I-0.00009 J-67.686
G1 X156.51905
G1 X156.51906
G1 X82.95684
G0 Z3.0
G0 X87.58331 Y70.3987
G0 Z-1.0
G1 F300.0 Z-5.0
G3 F800.0 X120.10888 Y114.09789 I10.26527 J26.31357
G1 X150.06549 Y143.11513
G3 X158.58182 Y101.76451 I22.63884 J-16.88974
G3 X200.94932 Y126.22539 I14.1225 J24.46089
G3 X158.58182 Y150.68628 I-28.245 J0.0
G3 X156.54418 Y149.39067 I14.1225 J-24.46089
G1 X189.18353 Y181.00652
G3 X188.51567 Y185.80433 I-2.08727 J2.15484
G3 X156.51906 Y193.85259 I-31.99661 J-59.57856
G1 X61.59776
G3 X58.59776 Y190.85259 I0.0 J-3.0
G1 Y61.59819
G3 X63.68503 Y59.44336 I3.0 J0.0
G1 X79.76283 Y75.01699
G3 X87.58331 Y70.3987 I18.08576 J21.69528
( Wappen_Kreise_innen )
S1000
G0 Z3.0
G0 X173.48072 Y126.22539
G0 Z1.0
G1 F300.0 Z-3.0
G2 F800.0 X172.31612 Y125.55301 I-0.7764 J0.0
G2 Y126.89778 I0.3882 J0.67238
G2 X173.48072 Y126.22539 I0.3882 J-0.67238
G1 F300.0 X175.88072
G2 F800.0 X171.11612 Y123.47455 I-3.1764 J0.0
G2 Y128.97624 I1.5882 J2.75084
G2 X175.88072 Y126.22539 I1.5882 J-2.75084
G1 F300.0 X178.28072
G2 F800.0 X169.91612 Y121.39609 I-5.5764 J0.0
G2 Y131.0547 I2.7882 J4.8293
G2 X178.28072 Y126.22539 I2.7882 J-4.8293
G1 F300.0 X180.68072
G2 F800.0 X168.71612 Y119.31763 I-7.9764 J0.0
G2 Y133.13316 I3.9882 J6.90777
G2 X180.68072 Y126.22539 I3.9882 J-6.90777
G1 F300.0 X183.08072
G2 F800.0 X167.51612 Y117.23917 I-10.3764 J0.0
G2 Y135.21162 I5.1882 J8.98623
G2 X183.08072 Y126.22539 I5.1882 J-8.98623
G1 F300.0 X185.48072
G2 F800.0 X166.31612 Y115.16071 I-12.7764 J0.0
G2 Y137.29008 I6.3882 J11.06469
G2 X185.48072 Y126.22539 I6.3882 J-11.06469
G1 F300.0 X187.88072
G2 F800.0 X165.11612 Y113.08225 I-15.1764 J0.0
G2 Y139.36854 I7.5882 J13.14315
G2 X187.88072 Y126.22539 I7.5882 J-13.14315
G0 Z3.0
G0 X173.48072
G0 Z-2.0
G1 F300.0 Z-5.0
G2 F800.0 X172.31612 Y125.55301 I-0.7764 J0.0
G2 Y126.89778 I0.3882 J0.67238
G2 X173.48072 Y126.22539 I0.3882 J-0.67238
G1 F300.0 X175.88072
G2 F800.0 X171.11612 Y123.47455 I-3.1764 J0.0
G2 Y128.97624 I1.5882 J2.75084
G2 X175.88072 Y126.22539 I1.5882 J-2.75084
G1 F300.0 X178.28072
G2 F800.0 X169.91612 Y121.39609 I-5.5764 J0.0
G2 Y131.0547 I2.7882 J4.8293
G2 X178.28072 Y126.22539 I2.7882 J-4.8293
G1 F300.0 X180.68072
G2 F800.0 X168.71612 Y119.31763 I-7.9764 J0.0
G2 Y133.13316 I3.9882 J6.90777
G2 X180.68072 Y126.22539 I3.9882 J-6.90777
G1 F300.0 X183.08072
G2 F800.0 X167.51612 Y117.23917 I-10.3764 J0.0
G2 Y135.21162 I5.1882 J8.98623
G2 X183.08072 Y126.22539 I5.1882 J-8.98623
G1 F300.0 X185.48072
G2 F800.0 X166.31612 Y115.16071 I-12.7764 J0.0
G2 Y137.29008 I6.3882 J11.06469
G2 X185.48072 Y126.22539 I6.3882 J-11.06469
G1 F300.0 X187.88072
G2 F800.0 X165.11612 Y113.08225 I-15.1764 J0.0
G2 Y139.36854 I7.5882 J13.14315
G2 X187.88072 Y126.22539 I7.5882 J-13.14315
G0 Z3.0
G0 X105.39655 Y91.4936
G0 Z1.0
G1 F300.0 Z-3.0
G2 F800.0 X102.82422 Y89.00193 I-7.54796 J5.21868
G1 X105.39655 Y91.4936
G1 F300.0 X104.56164 Y92.35553
G1 F800.0 X108.19082 Y95.87091
G2 X98.36014 Y86.34849 I-10.34223 J0.84137
G1 X104.56164 Y92.35553
G1 F300.0 X102.89183 Y94.0794
G1 F800.0 X109.92271 Y100.88982
G2 X93.28862 Y84.77732 I-12.07413 J-4.17754
G1 X102.89183 Y94.0794
G1 F300.0 X101.22202 Y95.80327
G1 F800.0 X110.62164 Y104.90814
G2 X89.25007 Y84.20673 I-12.77305 J-8.19587
G1 X101.22202 Y95.80327
G0 Z3.0
G0 X105.39655 Y91.4936
G0 Z-2.0
G1 F300.0 Z-5.0
G2 F800.0 X102.82422 Y89.00193 I-7.54796 J5.21868
G1 X105.39655 Y91.4936
G1 F300.0 X104.56164 Y92.35553
G1 F800.0 X108.19082 Y95.87091
G2 X98.36014 Y86.34849 I-10.34223 J0.84137
G1 X104.56164 Y92.35553
G1 F300.0 X102.89183 Y94.0794
G1 F800.0 X109.92271 Y100.88982
G2 X93.28862 Y84.77732 I-12.07413 J-4.17754
G1 X102.89183 Y94.0794
G1 F300.0 X101.22202 Y95.80327
G1 F800.0 X110.62164 Y104.90814
G2 X89.25007 Y84.20673 I-12.77305 J-8.19587
G1 X101.22202 Y95.80327
( Wappen_Ringe )
S1000
G0 Z3.0
G0 X119.71906 Y154.9819
G0 Z1.0
G1 F300.0 Z-3.0
G2 F800.0 X86.35156 Y135.71716 I-22.245 J0.0
G2 Y174.24663 I11.1225 J19.26474
G2 X119.71906 Y154.9819 I11.1225 J-19.26474
G1 F300.0 X118.65046
G3 F800.0 X86.88586 Y173.3212 I-21.1764 J0.0
G3 Y136.6426 I10.5882 J-18.3393
G3 X118.65046 Y154.9819 I10.5882 J18.3393
G1 F300.0 Z-5.0
G3 F800.0 X86.88586 Y173.3212 I-21.1764 J0.0
G3 Y136.6426 I10.5882 J-18.3393
G3 X118.65046 Y154.9819 I10.5882 J18.3393
G1 F300.0 X119.71906
G2 F800.0 X86.35156 Y135.71716 I-22.245 J0.0
G2 Y174.24663 I11.1225 J19.26474
G2 X119.71906 Y154.9819 I11.1225 J-19.26474
G0 Z3.0
G0 X105.62991 Y117.4441
G0 Z1.0
G1 F300.0 Z-3.0
G2 F800.0 X111.52026 Y114.13189 I-7.78132 J-20.73183
G1 X110.89174 Y113.52308
G3 X80.6309 Y84.21115 I-13.04315 J-16.8108
G1 X80.00238 Y83.60233
G2 X105.62991 Y117.4441 I17.84621 J13.10994
G1 F300.0 Z-5.0
G2 F800.0 X111.52026 Y114.13189 I-7.78132 J-20.73183
G1 X110.89174 Y113.52308
G3 X80.6309 Y84.21115 I-13.04315 J-16.8108
G1 X80.00238 Y83.60233
G2 X105.62991 Y117.4441 I17.84621 J13.10994
( Rand )
S1000
G0 Z3.0
G0 X14.31823 Y-2.99124
G0 Z1.0
G1 F300.0 Z-4.0
G2 F800.0 X-2.94677 Y12.43736 I1.45545 J19.00297
G2 X-3.0 Y13.0 I2.94677 J0.56264
G1 Y238.93936
G2 X14.16093 Y255.00052 I15.53817 J0.59646
G1 X156.48512 Y255.4503
G2 X212.94893 Y246.84597 I3.26124 J-168.16597
G2 X213.17875 Y246.75872 I-0.94893 J-2.84597
G2 X240.8991 Y224.34933 I-25.6936 J-60.13259
G2 X241.37894 Y223.26147 I-2.45049 J-1.73064
G1 X257.06329 Y151.75913
G3 X261.87258 Y143.95164 I13.5768 J2.97813
G1 X336.59996
G2 X336.7221 Y143.94916 I0.0 J-3.0
G2 Y108.50163 I-0.72217 J-17.72376
G2 X336.59996 Y108.49914 I-0.12214 J2.99751
G1 X261.87258
G3 X257.06329 Y100.69166 I8.76752 J-10.78562
G1 X241.37894 Y29.18931
G2 X241.08109 Y28.39334 I-2.93033 J0.64278
G2 X223.49904 Y10.40137 I-40.83508 J22.31801
G2 X223.21338 Y10.25633 I-1.49904 J2.59863
G2 X156.48258 Y-2.99961 I-62.96397 J142.37212
G1 X14.54734 Y-3.0
G2 X14.31823 Y-2.99124 I-0.00001 J3.0
G1 F300.0 Z-8.0
G2 F800.0 X-2.94677 Y12.43736 I1.45545 J19.00297
G2 X-3.0 Y13.0 I2.94677 J0.56264
G1 Y238.93936
G2 X14.16093 Y255.00052 I15.53817 J0.59646
G1 X156.48512 Y255.4503
G2 X212.94893 Y246.84597 I3.26124 J-168.16597
G2 X213.17875 Y246.75872 I-0.94893 J-2.84597
G2 X240.8991 Y224.34933 I-25.6936 J-60.13259
G2 X241.37894 Y223.26147 I-2.45049 J-1.73064
G1 X257.06329 Y151.75913
G3 X261.87258 Y143.95164 I13.5768 J2.97813
G1 X336.59996
G2 X336.7221 Y143.94916 I0.0 J-3.0
G2 Y108.50163 I-0.72217 J-17.72376
G2 X336.59996 Y108.49914 I-0.12214 J2.99751
G1 X261.87258
G3 X257.06329 Y100.69166 I8.76752 J-10.78562
G1 X241.37894 Y29.18931
G2 X241.08109 Y28.39334 I-2.93033 J0.64278
G2 X223.49904 Y10.40137 I-40.83508 J22.31801
G2 X223.21338 Y10.25633 I-1.49904 J2.59863
G2 X156.48258 Y-2.99961 I-62.96397 J142.37212
G1 X14.54734 Y-3.0
G2 X14.31823 Y-2.99124 I-0.00001 J3.0
G1 F300.0 Z-12.0
G2 F800.0 X-2.94677 Y12.43736 I1.45545 J19.00297
G2 X-3.0 Y13.0 I2.94677 J0.56264
G1 Y238.93936
G2 X14.16093 Y255.00052 I15.53817 J0.59646
G1 X156.48512 Y255.4503
G2 X212.94893 Y246.84597 I3.26124 J-168.16597
G2 X213.17875 Y246.75872 I-0.94893 J-2.84597
G2 X240.8991 Y224.34933 I-25.6936 J-60.13259
G2 X241.37894 Y223.26147 I-2.45049 J-1.73064
G1 X257.06329 Y151.75913
G3 X261.87258 Y143.95164 I13.5768 J2.97813
G1 X336.59996
G2 X336.7221 Y143.94916 I0.0 J-3.0
G2 Y108.50163 I-0.72217 J-17.72376
G2 X336.59996 Y108.49914 I-0.12214 J2.99751
G1 X261.87258
G3 X257.06329 Y100.69166 I8.76752 J-10.78562
G1 X241.37894 Y29.18931
G2 X241.08109 Y28.39334 I-2.93033 J0.64278
G2 X223.49904 Y10.40137 I-40.83508 J22.31801
G2 X223.21338 Y10.25633 I-1.49904 J2.59863
G2 X156.48258 Y-2.99961 I-62.96397 J142.37212
G1 X14.54734 Y-3.0
G2 X14.31823 Y-2.99124 I-0.00001 J3.0
G1 F300.0 Z-16.0
G2 F800.0 X-2.94677 Y12.43736 I1.45545 J19.00297
G2 X-3.0 Y13.0 I2.94677 J0.56264
G1 Y238.93936
G2 X14.16093 Y255.00052 I15.53817 J0.59646
G1 X156.48512 Y255.4503
G2 X212.94893 Y246.84597 I3.26124 J-168.16597
G2 X213.17875 Y246.75872 I-0.94893 J-2.84597
G2 X240.8991 Y224.34933 I-25.6936 J-60.13259
G2 X241.37894 Y223.26147 I-2.45049 J-1.73064
G1 X257.06329 Y151.75913
G3 X261.87258 Y143.95164 I13.5768 J2.97813
G1 X336.59996
G2 X336.7221 Y143.94916 I0.0 J-3.0
G2 Y108.50163 I-0.72217 J-17.72376
G2 X336.59996 Y108.49914 I-0.12214 J2.99751
G1 X261.87258
G3 X257.06329 Y100.69166 I8.76752 J-10.78562
G1 X241.37894 Y29.18931
G2 X241.08109 Y28.39334 I-2.93033 J0.64278
G2 X223.49904 Y10.40137 I-40.83508 J22.31801
G2 X223.21338 Y10.25633 I-1.49904 J2.59863
G2 X156.48258 Y-2.99961 I-62.96397 J142.37212
G1 X14.54734 Y-3.0
G2 X14.31823 Y-2.99124 I-0.00001 J3.0
G1 F300.0 Z-20.0
G2 F800.0 X-2.94677 Y12.43736 I1.45545 J19.00297
G2 X-3.0 Y13.0 I2.94677 J0.56264
G1 Y77.24997
G1 Y78.74997 Z-19.0
G1 Y84.74997
G1 Y86.24997 Z-20.0
G1 Y238.93936
G2 X14.16093 Y255.00052 I15.53817 J0.59646
G1 X14.87176 Y255.00277
G1 X16.37175 Y255.00751 Z-19.0
G1 X22.37172 Y255.02647
G1 X23.87172 Y255.03121 Z-20.0
G1 X156.48512 Y255.4503
G2 X199.63992 Y250.68241 I3.26124 J-168.16597
G2 X201.09588 Y250.32005 Z-19.0 I-39.89356 J-163.39809
G2 X206.88451 Y248.74152 I-41.34951 J-163.03573
G2 X208.32286 Y248.31462 Z-20.0 I-47.13814 J-161.45719
G2 X212.94893 Y246.84597 I-48.5765 J-161.03029
G2 X213.17875 Y246.75872 I-0.94893 J-2.84597
G2 X240.8991 Y224.34933 I-25.6936 J-60.13259
G2 X241.37894 Y223.26147 I-2.45049 J-1.73064
G1 X257.06329 Y151.75913
G3 X261.87258 Y143.95164 I13.5768 J2.97813
G1 X311.40148
G1 X312.90148 Z-19.0
G1 X318.90148
G1 X320.40148 Z-20.0
G1 X336.59996
G2 X336.7221 Y143.94916 I0.0 J-3.0
G2 Y108.50163 I-0.72217 J-17.72376
G2 X336.59996 Y108.49914 I-0.12214 J2.99751
G1 X261.87258
G3 X257.06329 Y100.69166 I8.76752 J-10.78562
G1 X251.52747 Y75.45476
G1 X251.20608 Y73.9896 Z-19.0
G1 X249.92052 Y68.12894
G1 X249.59913 Y66.66377 Z-20.0
G1 X241.37894 Y29.18931
G2 X241.08109 Y28.39334 I-2.93033 J0.64278
G2 X223.49904 Y10.40137 I-40.83508 J22.31801
G2 X223.21338 Y10.25633 I-1.49904 J2.59863
G2 X156.48258 Y-2.99961 I-62.96397 J142.37212
G1 X110.67266 Y-2.99973
G1 X109.17266 Y-2.99974 Z-19.0
G1 X103.17266 Y-2.99975
G1 X101.67266 Y-2.99976 Z-20.0
G1 X14.54734 Y-3.0
G2 X14.31823 Y-2.99124 I-0.00001 J3.0
G1 F300.0 Z-22.0
G2 F800.0 X-2.94677 Y12.43736 I1.45545 J19.00297
G2 X-3.0 Y13.0 I2.94677 J0.56264
G1 Y77.24997
G1 Y78.74997 Z-19.0
G1 Y84.74997
G1 Y86.24997 Z-22.0
G1 Y238.93936
G2 X14.16093 Y255.00052 I15.53817 J0.59646
G1 X14.87176 Y255.00277
G1 X16.37175 Y255.00751 Z-19.0
G1 X22.37172 Y255.02647
G1 X23.87172 Y255.03121 Z-22.0
G1 X156.48512 Y255.4503
G2 X199.63992 Y250.68241 I3.26124 J-168.16597
G2 X201.09588 Y250.32005 Z-19.0 I-39.89356 J-163.39809
G2 X206.88451 Y248.74152 I-41.34951 J-163.03573
G2 X208.32286 Y248.31462 Z-22.0 I-47.13814 J-161.45719
G2 X212.94893 Y246.84597 I-48.5765 J-161.03029
G2 X213.17875 Y246.75872 I-0.94893 J-2.84597
G2 X240.8991 Y224.34933 I-25.6936 J-60.13259
G2 X241.37894 Y223.26147 I-2.45049 J-1.73064
G1 X257.06329 Y151.75913
G3 X261.87258 Y143.95164 I13.5768 J2.97813
G1 X311.40148
G1 X312.90148 Z-19.0
G1 X318.90148
G1 X320.40148 Z-22.0
G1 X336.59996
G2 X336.7221 Y143.94916 I0.0 J-3.0
G2 Y108.50163 I-0.72217 J-17.72376
G2 X336.59996 Y108.49914 I-0.12214 J2.99751
G1 X261.87258
G3 X257.06329 Y100.69166 I8.76752 J-10.78562
G1 X251.52747 Y75.45476
G1 X251.20608 Y73.9896 Z-19.0
G1 X249.92052 Y68.12894
G1 X249.59913 Y66.66377 Z-22.0
G1 X241.37894 Y29.18931
G2 X241.08109 Y28.39334 I-2.93033 J0.64278
G2 X223.49904 Y10.40137 I-40.83508 J22.31801
G2 X223.21338 Y10.25633 I-1.49904 J2.59863
G2 X156.48258 Y-2.99961 I-62.96397 J142.37212
G1 X110.67266 Y-2.99973
G1 X109.17266 Y-2.99974 Z-19.0
G1 X103.17266 Y-2.99975
G1 X101.67266 Y-2.99976 Z-22.0
G1 X14.54734 Y-3.0
G2 X14.31823 Y-2.99124 I-0.00001 J3.0
( Profil_Wappen3 )
G0 Z3.0
( T3 : 3.0 )
T3 M6
M3 S1000
G0 X79.71209 Y77.05617
G0 Z1.0
G1 F300.0 Z-3.0
G3 F800.0 X118.07235 Y114.21354 I18.1365 J19.65611
G1 X188.1399 Y182.08394
G3 X187.80596 Y184.48284 I-1.04363 J1.07742
G3 X156.51906 Y192.35259 I-31.28691 J-58.25708
G1 X61.59776
G3 X60.09776 Y190.85259 I0.0 J-1.5
G1 Y61.59819
G3 X62.6414 Y60.52077 I1.5 J0.0
G1 X79.71209 Y77.05617
G1 F300.0 Z-5.0
G3 F800.0 X118.07235 Y114.21354 I18.1365 J19.65611
G1 X188.1399 Y182.08394
G3 X187.80596 Y184.48284 I-1.04363 J1.07742
G3 X156.51906 Y192.35259 I-31.28691 J-58.25708
G1 X61.59776
G3 X60.09776 Y190.85259 I0.0 J-1.5
G1 Y61.59819
G3 X62.6414 Y60.52077 I1.5 J0.0
G1 X79.71209 Y77.05617
G0 Z3.0
G0 X149.0609 Y113.72404
G0 Z1.0
G1 F300.0 Z-3.0
G3 F800.0 X159.33182 Y103.06354 I23.64342 J12.50135
G3 X199.44932 Y126.22539 I13.3725 J23.16185
G3 X159.33182 Y149.38724 I-26.745 J0.0
G3 X149.0609 Y113.72404 I13.3725 J-23.16185
G1 F300.0 Z-5.0
G3 F800.0 X159.33182 Y103.06354 I23.64342 J12.50135
G3 X199.44932 Y126.22539 I13.3725 J23.16185
G3 X159.33182 Y149.38724 I-26.745 J0.0
G3 X149.0609 Y113.72404 I13.3725 J-23.16185
( Profil_Ringe_innen_3 )
S1000
G0 Z3.0
G0 X110.82197 Y107.19052
G0 Z1.0
G1 F300.0 Z-3.0
G2 F800.0 X86.96247 Y84.07919 I-12.97338 J-10.47824
G1 X110.82197 Y107.19052
G1 F300.0 Z-5.0
G2 F800.0 X86.96247 Y84.07919 I-12.97338 J-10.47824
G1 X110.82197 Y107.19052
G0 Z3.0
G0 X110.96971 Y111.51028
G0 Z1.0
G1 F300.0 Z-3.0
G3 F800.0 X82.6402 Y84.06911 I-13.12112 J-14.798
G1 X79.85616 Y81.37238
G2 X113.75374 Y114.20701 I17.99242 J15.3399
G1 X110.96971 Y111.51028
G1 F300.0 Z-5.0
G3 F800.0 X82.6402 Y84.06911 I-13.12112 J-14.798
G1 X79.85616 Y81.37238
G2 X113.75374 Y114.20701 I17.99242 J15.3399
G1 X110.96971 Y111.51028
( Profil_Wappen15 )
G0 Z3.0
( T15 : 1.5 )
T15 M6
M3 S1000
G0 X79.70652 Y78.09494
G0 Z1.0
G1 F300.0 Z-3.0
G3 F800.0 X117.03429 Y114.2522 I18.14207 J18.61734
G1 X187.61808 Y182.62265
G3 X187.45111 Y183.8221 I-0.52182 J0.53871
G3 X156.51906 Y191.60259 I-30.93206 J-57.59633
G1 X61.59776
G3 X60.84776 Y190.85259 I0.0 J-0.75
G1 Y61.59819
G3 X62.11958 Y61.05948 I0.75 J0.0
G1 X79.70652 Y78.09494
G1 F300.0 Z-5.0
G3 F800.0 X117.03429 Y114.2522 I18.14207 J18.61734
G1 X187.61808 Y182.62265
G3 X187.45111 Y183.8221 I-0.52182 J0.53871
G3 X156.51906 Y191.60259 I-30.93206 J-57.59633
G1 X61.59776
G3 X60.84776 Y190.85259 I0.0 J-0.75
G1 Y61.59819
G3 X62.11958 Y61.05948 I0.75 J0.0
G1 X79.70652 Y78.09494
G0 Z3.0
G0 X149.61796 Y114.27718
G0 Z1.0
G1 F300.0 Z-3.0
G3 F800.0 X159.70682 Y103.71306 I23.08637 J11.94821
G3 X198.69932 Y126.22539 I12.9975 J22.51233
G3 X159.70682 Y148.73772 I-25.995 J0.0
G3 X149.61796 Y114.27718 I12.9975 J-22.51233
G1 F300.0 Z-5.0
G3 F800.0 X159.70682 Y103.71306 I23.08637 J11.94821
G3 X198.69932 Y126.22539 I12.9975 J22.51233
G3 X159.70682 Y148.73772 I-25.995 J0.0
G3 X149.61796 Y114.27718 I12.9975 J-22.51233
( Profil_Ringe_innen_15 )
S1000
G0 Z3.0
G0 X110.87582 Y108.28684
G0 Z1.0
G1 F300.0 Z-3.0
G2 F800.0 X85.86499 Y84.06029 I-13.02723 J-11.57457
G1 X110.87582 Y108.28684
G1 F300.0 Z-5.0
G2 F800.0 X85.86499 Y84.06029 I-13.02723 J-11.57457
G1 X110.87582 Y108.28684
G0 Z3.0
G0 X110.98311 Y110.4791
G0 Z1.0
G1 F300.0 Z-3.0
G3 F800.0 X83.67043 Y84.02287 I-13.13453 J-13.76682
G1 X79.81334 Y80.28674
G2 X114.84019 Y114.21523 I18.03524 J16.42554
G1 X110.98311 Y110.4791
G1 F300.0 Z-5.0
G3 F800.0 X83.67043 Y84.02287 I-13.13453 J-13.76682
G1 X79.81334 Y80.28674
G2 X114.84019 Y114.21523 I18.03524 J16.42554
G1 X110.98311 Y110.4791
( Profil_Wappenrand )
S1000
G0 Z3.0
G0 X56.28896 Y196.16139
G0 Z1.0
G1 F300.0 Z-3.0
G1 F800.0 X156.51906
G2 Y56.28939 I-0.00009 J-69.936
G1 X56.28896
G1 Y196.16139
G1 F300.0 Z-5.0
G1 F800.0 X156.51906
G2 Y56.28939 I-0.00009 J-69.936
G1 X56.28896
G1 Y196.16139
( Bohren1 )
G0 Z3.0
( T6 : 6.0 )
T6 M6
M3 S1000
G0 X331.0 Y126.0
G0 Z3.0
G0 X332.0 Y126.0
G0 Z1.0
G1 F300.0 Z0.0
G2 F800.0 X330.5 Y125.13397 Z-0.66667 I-1.0 J0.0
G2 Y126.86603 Z-1.33333 I0.5 J0.86603
G2 X332.0 Y126.0 Z-2.0 I0.5 J-0.86603
G2 X330.5 Y125.13397 Z-2.66667 I-1.0 J0.0
G2 Y126.86603 Z-3.33333 I0.5 J0.86603
G2 X332.0 Y126.0 Z-4.0 I0.5 J-0.86603
G2 X330.5 Y125.13397 Z-4.66667 I-1.0 J0.0
G2 Y126.86603 Z-5.33333 I0.5 J0.86603
G2 X332.0 Y126.0 Z-6.0 I0.5 J-0.86603
G2 X330.5 Y125.13397 Z-6.66667 I-1.0 J0.0
G2 Y126.86603 Z-7.33333 I0.5 J0.86603
G2 X332.0 Y126.0 Z-8.0 I0.5 J-0.86603
G2 X330.5 Y125.13397 Z-8.66667 I-1.0 J0.0
G2 Y126.86603 Z-9.33333 I0.5 J0.86603
G2 X332.0 Y126.0 Z-10.0 I0.5 J-0.86603
G2 X330.5 Y125.13397 Z-10.66667 I-1.0 J0.0
G2 Y126.86603 Z-11.33333 I0.5 J0.86603
G2 X332.0 Y126.0 Z-12.0 I0.5 J-0.86603
G2 X330.5 Y125.13397 Z-12.66667 I-1.0 J0.0
G2 Y126.86603 Z-13.33333 I0.5 J0.86603
G2 X332.0 Y126.0 Z-14.0 I0.5 J-0.86603
G2 X330.5 Y125.13397 Z-14.66667 I-1.0 J0.0
G2 Y126.86603 Z-15.33333 I0.5 J0.86603
G2 X332.0 Y126.0 Z-16.0 I0.5 J-0.86603
G2 X330.5 Y125.13397 Z-16.66667 I-1.0 J0.0
G2 Y126.86603 Z-17.33333 I0.5 J0.86603
G2 X332.0 Y126.0 Z-18.0 I0.5 J-0.86603
G2 X330.5 Y125.13397 Z-18.66667 I-1.0 J0.0
G2 Y126.86603 Z-19.33333 I0.5 J0.86603
G2 X332.0 Y126.0 Z-20.0 I0.5 J-0.86603
G2 X330.5 Y125.13397 Z-20.66667 I-1.0 J0.0
G2 Y126.86603 Z-21.33333 I0.5 J0.86603
G2 X332.0 Y126.0 Z-22.0 I0.5 J-0.86603
G2 X330.5 Y125.13397 I-1.0 J0.0
G2 Y126.86603 I0.5 J0.86603
G2 X332.0 Y126.0 I0.5 J-0.86603
G0 Z3.0
M5
M30
