; generated by PrusaSlicer 2.5.0+win64 on 2023-05-26 at 10:58:12 UTC

; 

; external perimeters extrusion width = 0.45mm
; perimeters extrusion width = 0.45mm
; infill extrusion width = 0.45mm
; solid infill extrusion width = 0.45mm
; top infill extrusion width = 0.40mm
; first layer extrusion width = 0.42mm

M73 P0 R53
M107
;TYPE:Custom
M862.3 P "MK2S" ; printer model check
M862.1 P0.4 ; nozzle diameter check
M115 U3.2.3 ; tell printer latest fw version
G90 ; use absolute coordinates
M83 ; extruder relative mode
M204 S2000 T1500 ; MK2 firmware only supports the old M204 format
M104 S215 ; set extruder temp
M140 S60 ; set bed temp
M190 S60 ; wait for bed temp
M109 S215 ; wait for extruder temp
G28 W ; home all without mesh bed level
G80 ; mesh bed leveling
G1 Y-3.0 F1000.0 ; go outside print area
G92 E0.0
G1 X60.0 E9.0  F1000.0 ; intro line
G1 X100.0 E12.5 F1000.0 ; intro line
G92 E0.0
G21 ; set units to millimeters
G90 ; use absolute coordinates
M83 ; use relative distances for extrusion
M900 K0.05 ; Filament gcode LA 1.5
M900 K30 ; Filament gcode LA 1.0
M107
;LAYER_CHANGE
;Z:0.2
;HEIGHT:0.2
;BEFORE_LAYER_CHANGE
G92 E0.0
;0.2


G1 E-.8 F2100
G1 Z.4 F10800
;AFTER_LAYER_CHANGE
;0.2
G1 X104.034 Y92.787
G1 Z.2
G1 E.8 F2100
M204 S1000
;TYPE:Skirt/Brim
;WIDTH:0.42
G1 F1200
G1 X104.995 Y92.114 E.03682
G1 X106.037 Y91.734 E.03477
G1 X107 Y91.623 E.03038
G1 X145 Y91.623 E1.19146
G1 X146.307 Y92.015 E.04278
G1 X147.183 Y93.06 E.04278
G1 X147.377 Y94 E.03008
G1 X147.377 Y116 E.68979
G1 X146.985 Y117.307 E.04278
G1 X145.94 Y118.183 E.04278
G1 X145 Y118.377 E.03008
G1 X106.793 Y118.368 E1.19796
G1 X105.701 Y118.175 E.03477
G1 X104.637 Y117.679 E.03681
G1 X103.787 Y116.966 E.03477
G1 X103.114 Y116.005 E.03681
G1 X102.734 Y114.962 E.03477
G1 X102.623 Y114 E.03038
G1 X102.632 Y95.793 E.57087
G1 X102.825 Y94.701 E.03477
G1 X103.321 Y93.637 E.03682
G1 X103.995 Y92.833 E.03289
; printing object IR-Halter.stl id:0 copy 0
;WIPE_START
G1 F8640
G1 X104.995 Y92.114 E-.28455
G1 X106.037 Y91.734 E-.25603
G1 X106.981 Y91.625 E-.21942
;WIPE_END
G1 E-.04 F2100
G1 Z.6 F10800
G1 X106.222 Y95.073
G1 Z.2
G1 E.8 F2100
;TYPE:Perimeter
;WIDTH:0.419999
G1 F1200
G1 X106.586 Y94.863 E.01317
G1 X107.034 Y94.787 E.01425
G1 X144.213 Y94.787 E1.16571
G1 X144.213 Y115.213 E.64044
G1 X107.091 Y115.213 E1.16392
G1 X106.79 Y115.192 E.00947
G1 X106.395 Y115.048 E.01318
G1 X106.073 Y114.778 E.01317
G1 X105.863 Y114.414 E.01317
G1 X105.787 Y113.966 E.01425
G1 X105.787 Y96.091 E.56044
G1 X105.808 Y95.79 E.00947
G1 X105.952 Y95.395 E.01318
G1 X106.184 Y95.119 E.01129
G1 X106.457 Y94.507 F10800
;TYPE:External perimeter
G1 F1200
G1 X107.018 Y94.41 E.01786
G1 X144.59 Y94.41 E1.17805
G1 X144.59 Y115.59 E.66408
G1 X107.091 Y115.59 E1.17574
G1 X106.724 Y115.564 E.01154
G1 X106.206 Y115.376 E.0173
G1 X105.783 Y115.021 E.0173
G1 X105.507 Y114.543 E.0173
G1 X105.41 Y113.982 E.01786
G1 X105.41 Y96.091 E.56095
G1 X105.436 Y95.724 E.01154
G1 X105.624 Y95.206 E.0173
G1 X105.979 Y94.783 E.0173
G1 X106.405 Y94.537 E.01542
G1 X106.763 Y94.765 F10800
;WIPE_START
G1 F8640
G1 X107.018 Y94.41 E-.14459
G1 X109.683 Y94.41 E-.61541
;WIPE_END
G1 E-.04 F2100
G1 Z.6 F10800
G1 X122.13 Y105.224
G1 Z.2
G1 E.8 F2100
;TYPE:Perimeter
G1 F1200
G1 X122.122 Y104.786 E.01375
G1 X122.21 Y104.261 E.0167
G1 X122.394 Y103.76 E.0167
G1 X122.666 Y103.303 E.0167
G1 X123.017 Y102.903 E.0167
G1 X123.437 Y102.574 E.0167
G1 X123.909 Y102.328 E.0167
G1 X124.418 Y102.173 E.0167
G1 X124.922 Y102.117 E.01587
G1 X125.473 Y102.153 E.01732
G1 X125.994 Y102.29 E.01689
G1 X126.475 Y102.519 E.0167
G1 X126.905 Y102.832 E.0167
G1 X127.271 Y103.219 E.0167
G1 X127.56 Y103.667 E.0167
G1 X127.761 Y104.16 E.0167
G1 X127.868 Y104.682 E.0167
G1 X127.878 Y105.214 E.0167
G1 X127.79 Y105.739 E.0167
G1 X127.606 Y106.24 E.0167
G1 X127.334 Y106.697 E.0167
G1 X127 Y107.078 E.01587
G1 X126.568 Y107.422 E.01732
G1 X126.091 Y107.672 E.01689
G1 X125.582 Y107.827 E.0167
G1 X125.052 Y107.886 E.0167
G1 X124.521 Y107.846 E.0167
G1 X124.006 Y107.71 E.0167
G1 X123.525 Y107.481 E.0167
G1 X123.095 Y107.168 E.0167
G1 X122.729 Y106.781 E.0167
G1 X122.44 Y106.333 E.0167
G1 X122.239 Y105.84 E.0167
G1 X122.131 Y105.284 E.01775
G1 X122.499 Y105.214 F10800
;TYPE:External perimeter
G1 F1200
G1 X122.502 Y104.751 E.01452
G1 X122.59 Y104.296 E.01452
G1 X122.761 Y103.866 E.01452
G1 X123.007 Y103.473 E.01452
G1 X123.322 Y103.133 E.01452
G1 X123.693 Y102.857 E.01452
G1 X124.109 Y102.653 E.01452
G1 X124.556 Y102.529 E.01452
G1 X124.989 Y102.492 E.01363
G1 X125.478 Y102.536 E.0154
G1 X125.923 Y102.666 E.01453
G1 X126.336 Y102.875 E.01452
G1 X126.704 Y103.157 E.01452
G1 X127.014 Y103.501 E.01452
G1 X127.255 Y103.897 E.01452
G1 X127.419 Y104.33 E.01452
G1 X127.501 Y104.786 E.01452
G1 X127.475 Y105.373 E.01843
G1 X127.41 Y105.704 E.01057
G1 X127.239 Y106.134 E.01452
G1 X126.993 Y106.527 E.01452
G1 X126.698 Y106.846 E.01363
G1 X126.307 Y107.143 E.0154
G1 X125.891 Y107.347 E.01453
G1 X125.444 Y107.471 E.01452
G1 X124.983 Y107.51 E.01452
G1 X124.522 Y107.464 E.01452
G1 X124.077 Y107.334 E.01452
G1 X123.664 Y107.125 E.01452
G1 X123.296 Y106.843 E.01452
G1 X122.986 Y106.499 E.01452
G1 X122.761 Y106.134 E.01344
G1 X122.581 Y105.67 E.01561
G1 X122.51 Y105.273 E.01264
G1 X122.136 Y105.045 F10800
;WIPE_START
G1 F8640
G1 X122.502 Y104.751 E-.1206
G1 X122.59 Y104.296 E-.10696
G1 X122.761 Y103.866 E-.10696
G1 X123.007 Y103.473 E-.10696
G1 X123.322 Y103.133 E-.10696
G1 X123.693 Y102.857 E-.10696
G1 X124.1 Y102.658 E-.10459
;WIPE_END
G1 E-.04 F2100
G1 Z.6 F10800
G1 X113.87 Y105.26
G1 Z.2
G1 E.8 F2100
;TYPE:Perimeter
G1 F1200
G1 X113.761 Y105.84 E.01851
G1 X113.56 Y106.333 E.0167
G1 X113.271 Y106.781 E.0167
G1 X112.928 Y107.144 E.01569
G1 X112.475 Y107.481 E.0177
G1 X111.994 Y107.71 E.0167
G1 X111.479 Y107.846 E.0167
G1 X110.948 Y107.886 E.0167
G1 X110.437 Y107.832 E.01611
G1 X109.909 Y107.672 E.01729
G1 X109.437 Y107.426 E.0167
G1 X109.017 Y107.097 E.0167
G1 X108.666 Y106.697 E.0167
G1 X108.394 Y106.24 E.0167
G1 X108.21 Y105.739 E.0167
G1 X108.122 Y105.214 E.0167
G1 X108.132 Y104.682 E.0167
G1 X108.239 Y104.16 E.0167
G1 X108.44 Y103.667 E.0167
G1 X108.729 Y103.219 E.0167
G1 X109.095 Y102.832 E.0167
G1 X109.525 Y102.519 E.0167
G1 X110.006 Y102.29 E.0167
G1 X110.521 Y102.154 E.0167
G1 X111.02 Y102.116 E.01568
G1 X111.581 Y102.173 E.0177
G1 X112.091 Y102.328 E.0167
G1 X112.563 Y102.574 E.0167
G1 X112.983 Y102.903 E.0167
G1 X113.33 Y103.297 E.01648
G1 X113.606 Y103.76 E.01692
G1 X113.79 Y104.261 E.0167
G1 X113.878 Y104.786 E.0167
G1 X113.871 Y105.2 E.01298
G1 X113.498 Y105.249 F10800
;TYPE:External perimeter
G1 F1200
G1 X113.41 Y105.704 E.01452
G1 X113.239 Y106.134 E.01452
G1 X112.993 Y106.527 E.01452
G1 X112.698 Y106.846 E.01363
G1 X112.307 Y107.143 E.0154
G1 X111.891 Y107.347 E.01453
G1 X111.444 Y107.471 E.01452
G1 X110.983 Y107.51 E.01452
G1 X110.522 Y107.464 E.01452
G1 X110.077 Y107.334 E.01452
G1 X109.664 Y107.125 E.01452
G1 X109.296 Y106.843 E.01452
G1 X108.986 Y106.499 E.01452
G1 X108.745 Y106.103 E.01452
G1 X108.581 Y105.67 E.01452
G1 X108.499 Y105.214 E.01452
G1 X108.502 Y104.751 E.01452
G1 X108.59 Y104.296 E.01452
G1 X108.761 Y103.866 E.01452
G1 X109.007 Y103.473 E.01452
G1 X109.322 Y103.133 E.01452
G1 X109.693 Y102.857 E.01452
G1 X110.109 Y102.653 E.01452
G1 X110.556 Y102.529 E.01452
G1 X110.989 Y102.492 E.01363
G1 X111.478 Y102.536 E.0154
G1 X111.923 Y102.666 E.01453
G1 X112.336 Y102.875 E.01452
G1 X112.704 Y103.157 E.01452
G1 X113.014 Y103.501 E.01452
G1 X113.255 Y103.897 E.01452
G1 X113.419 Y104.33 E.01452
G1 X113.501 Y104.786 E.01452
G1 X113.498 Y105.189 E.01264
G1 X113.823 Y105.482 F10800
;WIPE_START
G1 F8640
G1 X113.41 Y105.704 E-.12061
G1 X113.239 Y106.134 E-.10696
G1 X112.993 Y106.527 E-.10696
G1 X112.698 Y106.846 E-.10041
G1 X112.307 Y107.143 E-.11338
G1 X111.891 Y107.347 E-.10699
G1 X111.454 Y107.468 E-.10469
;WIPE_END
G1 E-.04 F2100
G1 Z.6 F10800
G1 X143.335 Y94.9
G1 Z.2
G1 E.8 F2100
;TYPE:Solid infill
;WIDTH:0.421409
G1 F1200
G1 X143.93 Y95.496 E.02651
G1 X143.93 Y96.031 E.01685
G1 X142.969 Y95.07 E.04278
G1 X142.434 Y95.07 E.01685
G1 X143.93 Y96.566 E.0666
G1 X143.93 Y97.102 E.01685
G1 X141.898 Y95.07 E.09042
G1 X141.363 Y95.07 E.01685
G1 X143.93 Y97.637 E.11425
G1 X143.93 Y98.172 E.01685
G1 X140.828 Y95.07 E.13807
G1 X140.293 Y95.07 E.01685
G1 X143.93 Y98.707 E.16189
M73 P1 R53
G1 X143.93 Y99.243 E.01685
G1 X139.757 Y95.07 E.18572
G1 X139.222 Y95.07 E.01685
G1 X143.93 Y99.778 E.20954
G1 X143.93 Y100.313 E.01685
G1 X138.687 Y95.07 E.23336
G1 X138.152 Y95.07 E.01685
G1 X143.93 Y100.848 E.25719
G1 X143.93 Y101.384 E.01685
G1 X137.616 Y95.07 E.28101
G1 X137.081 Y95.07 E.01685
G1 X143.93 Y101.919 E.30483
G1 X143.93 Y102.454 E.01685
G1 X136.546 Y95.07 E.32866
G1 X136.011 Y95.07 E.01685
G1 X143.93 Y102.989 E.35248
G1 X143.93 Y103.525 E.01685
G1 X135.475 Y95.07 E.3763
G1 X134.94 Y95.07 E.01685
G1 X143.93 Y104.06 E.40013
G1 X143.93 Y104.595 E.01685
M73 P1 R52
G1 X134.405 Y95.07 E.42395
G1 X133.869 Y95.07 E.01685
G1 X143.93 Y105.131 E.44777
G1 X143.93 Y105.666 E.01685
G1 X133.334 Y95.07 E.4716
G1 X132.799 Y95.07 E.01685
G1 X143.93 Y106.201 E.49542
G1 X143.93 Y106.736 E.01685
G1 X132.264 Y95.07 E.51924
G1 X131.728 Y95.07 E.01685
G1 X143.93 Y107.272 E.54307
G1 X143.93 Y107.807 E.01685
G1 X131.193 Y95.07 E.56689
G1 X130.658 Y95.07 E.01685
G1 X143.93 Y108.342 E.59071
G1 X143.93 Y108.877 E.01685
G1 X130.123 Y95.07 E.61454
G1 X129.587 Y95.07 E.01685
G1 X143.93 Y109.413 E.63836
G1 X143.93 Y109.948 E.01685
G1 X129.052 Y95.07 E.66218
G1 X128.517 Y95.07 E.01685
G1 X143.93 Y110.483 E.68601
G1 X143.93 Y111.018 E.01685
G1 X127.982 Y95.07 E.70983
G1 X127.446 Y95.07 E.01685
G1 X143.93 Y111.554 E.73365
G1 X143.93 Y112.089 E.01685
G1 X126.911 Y95.07 E.75748
G1 X126.376 Y95.07 E.01685
G1 X143.93 Y112.624 E.7813
G1 X143.93 Y113.159 E.01685
G1 X125.841 Y95.07 E.80512
G1 X125.305 Y95.07 E.01685
G1 X143.93 Y113.695 E.82894
G1 X143.93 Y114.23 E.01685
G1 X124.77 Y95.07 E.85277
G1 X124.235 Y95.07 E.01685
G1 X143.93 Y114.765 E.87659
G1 X143.93 Y114.93 E.00519
G1 X143.56 Y114.93 E.01166
G1 X123.699 Y95.07 E.88393
G1 X123.164 Y95.07 E.01685
G1 X143.024 Y114.93 E.88393
G1 X142.489 Y114.93 E.01685
G1 X122.629 Y95.07 E.88393
G1 X122.094 Y95.07 E.01685
G1 X141.954 Y114.93 E.88393
G1 X141.419 Y114.93 E.01685
M73 P2 R52
G1 X121.558 Y95.07 E.88393
G1 X121.023 Y95.07 E.01685
G1 X140.883 Y114.93 E.88393
G1 X140.348 Y114.93 E.01685
G1 X120.488 Y95.07 E.88393
G1 X119.953 Y95.07 E.01685
G1 X139.813 Y114.93 E.88393
G1 X139.278 Y114.93 E.01685
G1 X119.417 Y95.07 E.88393
G1 X118.882 Y95.07 E.01685
G1 X125.747 Y101.935 E.30554
G1 X125.503 Y101.872 E.00793
G1 X125.125 Y101.848 E.01191
G1 X118.347 Y95.07 E.3017
G1 X117.812 Y95.07 E.01685
G1 X124.605 Y101.864 E.30237
G1 X124.426 Y101.881 E.00568
G1 X124.161 Y101.954 E.00865
G1 X117.276 Y95.07 E.30641
G1 X116.741 Y95.07 E.01685
G1 X123.765 Y102.094 E.31262
G1 X123.401 Y102.265 E.01266
G1 X116.206 Y95.07 E.32024
G1 X115.67 Y95.07 E.01685
G1 X123.089 Y102.488 E.33017
G1 X122.919 Y102.611 E.00659
G1 X122.8 Y102.735 E.00541
G1 X115.135 Y95.07 E.34115
G1 X114.6 Y95.07 E.01685
G1 X122.539 Y103.009 E.35334
G1 X122.325 Y103.33 E.01215
G1 X114.065 Y95.07 E.36764
G1 X113.529 Y95.07 E.01685
G1 X122.129 Y103.67 E.38275
G1 X121.98 Y104.055 E.01302
G1 X112.994 Y95.07 E.39991
G1 X112.459 Y95.07 E.01685
G1 X121.882 Y104.493 E.41941
G1 X121.842 Y104.706 E.00683
G1 X121.841 Y104.987 E.00882
G1 X111.924 Y95.07 E.44138
G1 X111.388 Y95.07 E.01685
G1 X122.109 Y105.79 E.47714
;WIPE_START
G1 F8640
G1 X119.781 Y103.463 E-.76
;WIPE_END
G1 E-.04 F2100
G1 Z.6 F10800
G1 X127.82 Y104.008
G1 Z.2
G1 E.8 F2100
G1 F1200
G1 X138.742 Y114.93 E.48613
G1 X138.207 Y114.93 E.01685
G1 X128.16 Y104.883 E.44716
G1 X128.158 Y105.294 E.01292
G1 X128.137 Y105.395 E.00326
G1 X137.672 Y114.93 E.42437
G1 X137.137 Y114.93 E.01685
G1 X128.047 Y105.84 E.40456
G1 X128.028 Y105.936 E.00306
G1 X127.904 Y106.233 E.01014
G1 X136.601 Y114.93 E.38707
G1 X136.066 Y114.93 E.01685
G1 X127.73 Y106.595 E.37099
G1 X127.516 Y106.915 E.01215
G1 X135.531 Y114.93 E.35671
G1 X134.995 Y114.93 E.01685
G1 X127.267 Y107.202 E.34397
G1 X127.205 Y107.273 E.00297
G1 X126.982 Y107.452 E.009
G1 X134.46 Y114.93 E.33282
G1 X133.925 Y114.93 E.01685
G1 X126.677 Y107.682 E.3226
G1 X126.327 Y107.867 E.01246
G1 X133.39 Y114.93 E.31436
G1 X132.854 Y114.93 E.01685
G1 X125.935 Y108.011 E.30796
G1 X125.513 Y108.124 E.01375
G1 X132.319 Y114.93 E.30291
G1 X131.784 Y114.93 E.01685
G1 X125.023 Y108.169 E.30091
G1 X124.428 Y108.11 E.01881
G1 X131.249 Y114.93 E.30356
G1 X130.713 Y114.93 E.01685
G1 X123.625 Y107.842 E.31547
G1 X123.271 Y107.656 E.01259
G1 X122.813 Y107.293 E.0184
G1 X122.434 Y106.861 E.01808
G1 X122.139 Y106.356 E.0184
G1 X110.853 Y95.07 E.50231
G1 X110.318 Y95.07 E.01685
G1 X130.178 Y114.93 E.88393
G1 X129.643 Y114.93 E.01685
G1 X109.783 Y95.07 E.88393
G1 X109.247 Y95.07 E.01685
G1 X129.108 Y114.93 E.88393
G1 X128.572 Y114.93 E.01685
G1 X108.712 Y95.07 E.88393
G1 X108.177 Y95.07 E.01685
M73 P3 R51
G1 X128.037 Y114.93 E.88393
G1 X127.502 Y114.93 E.01685
G1 X107.642 Y95.07 E.88393
G1 X107.106 Y95.07 E.01685
G1 X126.967 Y114.93 E.88393
G1 X126.431 Y114.93 E.01685
G1 X106.648 Y95.146 E.88052
G1 X106.537 Y95.198 E.00384
G1 X106.331 Y95.365 E.00835
G1 X125.896 Y114.93 E.8708
G1 X125.361 Y114.93 E.01685
G1 X106.126 Y95.696 E.85607
G1 X106.088 Y95.839 E.00467
G1 X106.07 Y96.175 E.01057
G1 X111.859 Y101.964 E.25766
G1 X111.503 Y101.872 E.01157
G1 X111.214 Y101.854 E.00911
G1 X106.07 Y96.71 E.22895
G1 X106.07 Y97.245 E.01685
G1 X110.681 Y101.856 E.20523
G1 X110.426 Y101.881 E.00808
G1 X110.226 Y101.936 E.00652
G1 X106.07 Y97.78 E.18498
G1 X106.07 Y98.316 E.01685
G1 X109.822 Y102.067 E.16698
G1 X109.458 Y102.239 E.01266
G1 X106.07 Y98.851 E.15078
G1 X106.07 Y99.386 E.01685
G1 X109.137 Y102.453 E.13651
G1 X108.919 Y102.611 E.00847
G1 X108.841 Y102.692 E.00356
G1 X106.07 Y99.921 E.12332
G1 X106.07 Y100.457 E.01685
G1 X108.579 Y102.966 E.11169
G1 X108.515 Y103.034 E.00293
G1 X108.356 Y103.278 E.00918
G1 X106.07 Y100.992 E.10175
G1 X106.07 Y101.527 E.01685
G1 X108.158 Y103.615 E.09294
G1 X108.002 Y103.994 E.0129
G1 X106.07 Y102.062 E.08597
G1 X106.07 Y102.598 E.01685
G1 X107.897 Y104.425 E.08131
G1 X107.852 Y104.636 E.00681
G1 X107.846 Y104.909 E.00859
G1 X106.07 Y103.133 E.07905
G1 X106.07 Y103.668 E.01685
G1 X108.087 Y105.685 E.08977
;WIPE_START
G1 F8640
G1 X106.07 Y103.668 E-.65862
G1 X106.07 Y103.229 E-.10138
;WIPE_END
G1 E-.04 F2100
G1 Z.6 F10800
G1 X113.767 Y103.872
G1 Z.2
G1 E.8 F2100
G1 F1200
G1 X124.825 Y114.93 E.49217
G1 X124.29 Y114.93 E.01685
G1 X114.161 Y104.801 E.45083
G1 X114.151 Y105.326 E.01654
G1 X123.755 Y114.93 E.42744
G1 X123.22 Y114.93 E.01685
G1 X114.061 Y105.771 E.40763
G1 X114.028 Y105.936 E.00528
G1 X113.929 Y106.174 E.00813
G1 X122.684 Y114.93 E.38969
G1 X122.149 Y114.93 E.01685
G1 X113.762 Y106.543 E.37328
G1 X113.556 Y106.872 E.01222
G1 X121.614 Y114.93 E.35865
G1 X121.079 Y114.93 E.01685
G1 X113.306 Y107.158 E.34593
G1 X113.205 Y107.273 E.00483
G1 X113.028 Y107.415 E.00714
G1 X120.543 Y114.93 E.33447
G1 X120.008 Y114.93 E.01685
G1 X112.731 Y107.653 E.32389
G1 X112.381 Y107.838 E.01246
G1 X119.473 Y114.93 E.31564
G1 X118.938 Y114.93 E.01685
G1 X111.999 Y107.992 E.30881
G1 X111.587 Y108.115 E.01353
G1 X118.402 Y114.93 E.30332
G1 X117.867 Y114.93 E.01685
G1 X111.099 Y108.162 E.30122
G1 X111 Y108.171 E.00315
G1 X110.525 Y108.123 E.01502
G1 X117.332 Y114.93 E.30297
G1 X116.796 Y114.93 E.01685
G1 X109.797 Y107.931 E.31152
G1 X109.271 Y107.656 E.01867
G1 X108.813 Y107.293 E.0184
G1 X108.429 Y106.852 E.0184
G1 X108.132 Y106.348 E.0184
G1 X108.086 Y106.219 E.0043
G1 X106.07 Y104.204 E.08972
G1 X106.07 Y104.739 E.01685
G1 X116.261 Y114.93 E.45359
G1 X115.726 Y114.93 E.01685
G1 X106.07 Y105.274 E.42977
G1 X106.07 Y105.809 E.01685
G1 X115.191 Y114.93 E.40594
G1 X114.655 Y114.93 E.01685
G1 X106.07 Y106.345 E.38212
G1 X106.07 Y106.88 E.01685
G1 X114.12 Y114.93 E.3583
G1 X113.585 Y114.93 E.01685
G1 X106.07 Y107.415 E.33447
G1 X106.07 Y107.95 E.01685
G1 X113.05 Y114.93 E.31065
G1 X112.514 Y114.93 E.01685
