; generated by PrusaSlicer 2.7.1+win64 on 2024-03-24 at 17:35:14 UTC

; 

; external perimeters extrusion width = 0.45mm
; perimeters extrusion width = 0.45mm
; infill extrusion width = 0.45mm
; solid infill extrusion width = 0.45mm
; top infill extrusion width = 0.40mm
; first layer extrusion width = 0.42mm

M73 P0 R44

; printing object Schwimmhalter2.stl id:0 copy 0
; stop printing object Schwimmhalter2.stl id:0 copy 0

;TYPE:Custom
M862.3 P "MK2S" ; printer model check
M862.1 P0.4 ; nozzle diameter check
M115 U3.2.3 ; tell printer latest fw version
G90 ; use absolute coordinates
M83 ; extruder relative mode
M204 S2000 T1500 ; MK2 firmware only supports the old M204 format
M104 S215 ; set extruder temp
M140 S60 ; set bed temp
M190 S60 ; wait for bed temp
M109 S215 ; wait for extruder temp
G28 W ; home all without mesh bed level
G80 ; mesh bed leveling
G1 Y-3.0 F1000.0 ; go outside print area
G92 E0.0
G1 X60.0 E9.0  F1000.0 ; intro line
G1 X100.0 E12.5 F1000.0 ; intro line
G92 E0.0
G21 ; set units to millimeters
G90 ; use absolute coordinates
M83 ; use relative distances for extrusion
M900 K0.05 ; Filament gcode LA 1.5
M900 K30 ; Filament gcode LA 1.0
M107
;LAYER_CHANGE
;Z:0.2
;HEIGHT:0.2
;BEFORE_LAYER_CHANGE
G92 E0.0
;0.2


G1 E-.8 F2100
G1 Z.2 F10800
;AFTER_LAYER_CHANGE
;0.2
G1 X104.384 Y87.604
G1 Z.2
G1 E.8 F2100
M204 S1000
;TYPE:Skirt/Brim
;WIDTH:0.42
G1 F1200
G1 X105.244 Y86.85 E.03586
G1 X106.418 Y86.173 E.04249
G1 X107.501 Y85.805 E.03586
G1 X108.845 Y85.628 E.0425
G1 X141.155 Y85.628 E1.01306
G1 X142.011 Y85.708 E.02696
G1 X143.295 Y86.054 E.04169
G1 X144.321 Y86.559 E.03586
G1 X145.022 Y87.057 E.02696
G1 X145.961 Y87.998 E.04168
G1 X146.596 Y88.949 E.03585
G1 X146.946 Y89.705 E.02612
G1 X147.297 Y91.014 E.04249
G1 X147.377 Y92 E.03102
G1 X147.377 Y122 E.94063
G1 X146.985 Y123.307 E.04278
G1 X145.94 Y124.183 E.04275
G1 X145 Y124.377 E.03009
G1 X105 Y124.377 E1.25417
G1 X103.693 Y123.985 E.04278
G1 X102.817 Y122.94 E.04275
G1 X102.623 Y122 E.03009
G1 X102.623 Y92 E.94063
G1 X102.703 Y91.014 E.03102
G1 X103.054 Y89.705 E.04249
G1 X103.559 Y88.679 E.03586
G1 X104.348 Y87.652 E.04061
; printing object Schwimmhalter2.stl id:0 copy 0
;WIPE_START
G1 F8640
G1 X104.384 Y87.604 E-.01385
G1 X105.244 Y86.85 E-.26409
G1 X106.418 Y86.173 E-.31292
G1 X107.276 Y85.882 E-.20914
;WIPE_END
G1 Z.6 F10800
G1 X106.729 Y89.729
G1 Z.2
G1 E.8 F2100
;TYPE:Perimeter
;WIDTH:0.419999
G1 F1200
G1 X107.22 Y89.336 E.01972
G1 X107.771 Y89.033 E.01972
G1 X108.375 Y88.857 E.01973
G1 X109.026 Y88.787 E.02053
G1 X140.865 Y88.787 E.99829
G1 X141.21 Y88.803 E.01083
G1 X141.831 Y88.898 E.0197
G1 X142.417 Y89.126 E.01972
G1 X142.955 Y89.452 E.01972
G1 X143.409 Y89.887 E.01971
G1 X143.781 Y90.394 E.01972
G1 X144.034 Y90.97 E.01973
G1 X144.184 Y91.581 E.01973
G1 X144.213 Y92.135 E.01739
G1 X144.213 Y121.213 E.91172
G1 X105.787 Y121.213 E1.20482
G1 X105.794 Y91.916 E.91859
G1 X105.857 Y91.375 E.01708
G1 X106.033 Y90.771 E.01973
G1 X106.336 Y90.22 E.01972
G1 X106.692 Y89.776 E.01784
G1 X106.462 Y89.462 F10800
;TYPE:External perimeter
G1 F1200
G1 X107.01 Y89.022 E.02204
G1 X107.626 Y88.684 E.02203
G1 X108.301 Y88.487 E.02205
G1 X109.013 Y88.41 E.02245
G1 X140.865 Y88.41 E.9987
G1 X141.234 Y88.426 E.01158
G1 X141.929 Y88.533 E.02205
G1 X142.584 Y88.788 E.02204
G1 X143.185 Y89.153 E.02205
G1 X143.693 Y89.639 E.02204
G1 X144.108 Y90.205 E.02201
G1 X144.391 Y90.849 E.02206
G1 X144.558 Y91.532 E.02205
G1 X144.59 Y92.135 E.01893
G1 X144.59 Y121.59 E.92354
G1 X105.41 Y121.59 E1.22846
G1 X105.418 Y91.892 E.93116
M73 P1 R44
G1 X105.487 Y91.301 E.01866
G1 X105.684 Y90.626 E.02205
G1 X106.022 Y90.01 E.02203
G1 X106.425 Y89.509 E.02016
;WIPE_START
G1 F8640
G1 X106.462 Y89.462 E-.01381
G1 X107.01 Y89.022 E-.16227
G1 X107.626 Y88.684 E-.16224
G1 X108.301 Y88.487 E-.16236
G1 X109.013 Y88.41 E-.16536
G1 X109.593 Y88.41 E-.13396
;WIPE_END
G1 Z.6 F10800
G1 X120.967 Y92.715
G1 Z.2
G1 E.8 F2100
;TYPE:Perimeter
G1 F1200
G1 X121.458 Y92.298 E.0202
G1 X122.028 Y91.919 E.02146
G1 X122.638 Y91.608 E.02147
G1 X123.28 Y91.37 E.02147
G1 X123.945 Y91.209 E.02145
G1 X124.625 Y91.125 E.02148
G1 X125.309 Y91.122 E.02145
G1 X125.99 Y91.197 E.02148
G1 X126.657 Y91.351 E.02146
G1 X127.301 Y91.582 E.02145
G1 X127.915 Y91.886 E.02148
G1 X128.489 Y92.259 E.02146
G1 X129.016 Y92.696 E.02147
G1 X129.488 Y93.191 E.02145
G1 X129.9 Y93.738 E.02147
G1 X130.246 Y94.329 E.02147
G1 X130.52 Y94.956 E.02145
G1 X130.72 Y95.61 E.02144
G1 X130.839 Y96.263 E.02081
G1 X130.886 Y96.965 E.02206
G1 X130.851 Y97.651 E.02154
G1 X130.735 Y98.326 E.02147
G1 X130.543 Y98.982 E.02143
G1 X130.275 Y99.612 E.02147
G1 X129.936 Y100.207 E.02147
G1 X129.53 Y100.759 E.02148
G1 X129.063 Y101.259 E.02145
G1 X128.542 Y101.702 E.02144
G1 X128.03 Y102.043 E.01929
G1 X127.362 Y102.392 E.02363
G1 X126.72 Y102.63 E.02147
G1 X126.055 Y102.791 E.02145
G1 X125.375 Y102.875 E.02148
G1 X124.691 Y102.878 E.02145
G1 X124.01 Y102.803 E.02148
G1 X123.343 Y102.649 E.02146
G1 X122.719 Y102.425 E.02079
G1 X122.087 Y102.115 E.02207
G1 X121.485 Y101.723 E.02252
G1 X120.984 Y101.304 E.02048
G1 X120.512 Y100.809 E.02145
G1 X120.1 Y100.262 E.02147
G1 X119.754 Y99.671 E.02147
G1 X119.48 Y99.044 E.02145
G1 X119.28 Y98.39 E.02144
G1 X119.157 Y97.716 E.02148
G1 X119.114 Y97.033 E.02146
G1 X119.149 Y96.349 E.02147
G1 X119.265 Y95.674 E.02147
G1 X119.457 Y95.018 E.02143
G1 X119.725 Y94.388 E.02147
G1 X120.064 Y93.793 E.02147
G1 X120.47 Y93.241 E.02148
G1 X120.923 Y92.756 E.02081
G1 X121.211 Y93 F10800
;TYPE:External perimeter
G1 F1200
G1 X121.701 Y92.587 E.02009
G1 X122.235 Y92.234 E.02007
G1 X122.808 Y91.945 E.02012
G1 X123.409 Y91.725 E.02007
G1 X124.032 Y91.576 E.02008
G1 X124.669 Y91.5 E.02011
G1 X125.309 Y91.499 E.02007
G1 X125.946 Y91.572 E.0201
G1 X126.57 Y91.718 E.02009
G1 X127.172 Y91.936 E.02007
G1 X127.746 Y92.223 E.02012
G1 X128.282 Y92.574 E.02009
G1 X128.773 Y92.985 E.02008
G1 X129.214 Y93.45 E.02009
G1 X129.598 Y93.963 E.02009
G1 X129.919 Y94.517 E.02008
G1 X130.174 Y95.105 E.0201
G1 X130.359 Y95.719 E.02011
G1 X130.468 Y96.328 E.0194
G1 X130.51 Y96.988 E.02074
G1 X130.474 Y97.629 E.02013
G1 X130.364 Y98.26 E.02008
G1 X130.182 Y98.874 E.02008
G1 X129.929 Y99.463 E.0201
G1 X129.61 Y100.019 E.0201
G1 X129.228 Y100.533 E.02008
G1 X128.789 Y101 E.0201
G1 X128.299 Y101.413 E.02009
G1 X127.823 Y101.728 E.0179
G1 X127.192 Y102.055 E.02228
G1 X126.591 Y102.275 E.02007
G1 X125.968 Y102.424 E.02008
G1 X125.331 Y102.5 E.02011
G1 X124.691 Y102.501 E.02007
G1 X124.054 Y102.428 E.0201
G1 X123.43 Y102.282 E.02009
G1 X122.848 Y102.071 E.01941
G1 X122.255 Y101.778 E.02074
G1 X121.71 Y101.42 E.02045
G1 X121.227 Y101.015 E.01976
G1 X120.786 Y100.55 E.02009
G1 X120.402 Y100.037 E.02009
G1 X120.081 Y99.483 E.02008
G1 X119.826 Y98.895 E.0201
G1 X119.641 Y98.281 E.02011
G1 X119.528 Y97.651 E.02007
G1 X119.49 Y97.011 E.0201
G1 X119.526 Y96.371 E.0201
G1 X119.636 Y95.74 E.02008
G1 X119.818 Y95.126 E.02008
G1 X120.071 Y94.537 E.0201
G1 X120.39 Y93.981 E.0201
G1 X120.772 Y93.467 E.02008
G1 X121.17 Y93.043 E.01823
;WIPE_START
G1 F8640
G1 X121.211 Y93 E-.01372
G1 X121.701 Y92.587 E-.14797
G1 X122.235 Y92.234 E-.14781
G1 X122.808 Y91.945 E-.14818
G1 X123.409 Y91.725 E-.14778
G1 X124.032 Y91.576 E-.14791
G1 X124.232 Y91.552 E-.04663
;WIPE_END
G1 Z.6 F10800
G1 X143.773 Y90.633
G1 Z.2
G1 E.8 F2100
;TYPE:Solid infill
;WIDTH:0.422133
G1 F1200
G1 X143.062 Y89.923 E.03168
G1 X142.782 Y89.677 E.01175
G1 X142.464 Y89.464 E.01207
G1 X142.12 Y89.295 E.01209
G1 X141.784 Y89.181 E.01119
G1 X143.819 Y91.216 E.09075
G1 X143.903 Y91.618 E.01295
G1 X143.918 Y91.851 E.00736
G1 X141.149 Y89.082 E.12348
G1 X140.601 Y89.07 E.01728
G1 X143.93 Y92.399 E.14845
G1 X143.93 Y92.936 E.01693
G1 X140.064 Y89.07 E.17239
G1 X139.528 Y89.07 E.0169
G1 X143.93 Y93.472 E.1963
G1 X143.93 Y94.008 E.0169
G1 X138.992 Y89.07 E.2202
G1 X138.456 Y89.07 E.0169
G1 X143.93 Y94.545 E.24412
G1 X143.93 Y95.081 E.0169
G1 X137.919 Y89.07 E.26805
G1 X137.383 Y89.07 E.0169
G1 X143.93 Y95.617 E.29195
G1 X143.93 Y96.153 E.0169
G1 X136.847 Y89.07 E.31585
G1 X136.31 Y89.07 E.01693
G1 X143.93 Y96.69 E.3398
G1 X143.93 Y97.226 E.0169
G1 X135.774 Y89.07 E.3637
G1 X135.238 Y89.07 E.0169
G1 X143.93 Y97.762 E.3876
G1 X143.93 Y98.299 E.01693
G1 X134.702 Y89.07 E.41152
G1 X134.165 Y89.07 E.01693
G1 X143.93 Y98.835 E.43545
G1 X143.93 Y99.371 E.0169
G1 X133.629 Y89.07 E.45935
G1 X133.093 Y89.07 E.0169
G1 X143.93 Y99.907 E.48325
G1 X143.93 Y100.444 E.01693
G1 X132.556 Y89.07 E.5072
G1 X132.02 Y89.07 E.0169
G1 X143.93 Y100.98 E.5311
G1 X143.93 Y101.516 E.0169
G1 X131.484 Y89.07 E.555
G1 X130.947 Y89.07 E.01693
G1 X143.93 Y102.053 E.57895
G1 X143.93 Y102.589 E.0169
G1 X130.411 Y89.07 E.60285
G1 X129.875 Y89.07 E.0169
G1 X143.93 Y103.125 E.62675
G1 X143.93 Y103.661 E.0169
G1 X129.339 Y89.07 E.65065
G1 X128.802 Y89.07 E.01693
G1 X143.93 Y104.198 E.6746
G1 X143.93 Y104.734 E.0169
G1 X128.266 Y89.07 E.6985
G1 X127.73 Y89.07 E.0169
G1 X143.93 Y105.27 E.7224
G1 X143.93 Y105.807 E.01693
M73 P1 R43
G1 X127.193 Y89.07 E.74635
G1 X126.657 Y89.07 E.0169
G1 X143.93 Y106.343 E.77025
G1 X143.93 Y106.879 E.0169
M73 P2 R43
G1 X126.121 Y89.07 E.79415
G1 X125.585 Y89.07 E.0169
G1 X143.93 Y107.416 E.81807
G1 X143.93 Y107.952 E.0169
G1 X130.748 Y94.77 E.58782
G1 X130.996 Y95.554 E.02593
G1 X143.93 Y108.488 E.57676
G1 X143.93 Y109.024 E.0169
G1 X131.116 Y96.21 E.57141
G1 X131.159 Y96.789 E.01831
G1 X143.93 Y109.561 E.56951
G1 X143.93 Y110.097 E.0169
G1 X131.148 Y97.315 E.56998
G1 X131.112 Y97.816 E.01584
G1 X143.93 Y110.633 E.57156
G1 X143.93 Y111.17 E.01693
G1 X131.032 Y98.272 E.57515
G1 X130.921 Y98.696 E.01382
G1 X143.93 Y111.706 E.58013
G1 X143.93 Y112.242 E.0169
G1 X130.796 Y99.108 E.58568
G1 X130.636 Y99.485 E.01291
G1 X143.93 Y112.778 E.59279
G1 X143.93 Y113.315 E.01693
G1 X130.465 Y99.849 E.60046
G1 X130.27 Y100.191 E.01241
G1 X143.93 Y113.851 E.60913
G1 X143.93 Y114.387 E.0169
G1 X130.058 Y100.515 E.61859
G1 X129.829 Y100.823 E.0121
G1 X143.93 Y114.924 E.6288
G1 X143.93 Y115.46 E.0169
G1 X129.586 Y101.116 E.63964
G1 X129.324 Y101.39 E.01195
G1 X143.93 Y115.996 E.65132
G1 X143.93 Y116.532 E.0169
G1 X129.046 Y101.648 E.66372
G1 X128.753 Y101.892 E.01202
G1 X143.93 Y117.069 E.67678
G1 X143.93 Y117.605 E.0169
G1 X128.437 Y102.112 E.69087
G1 X128.114 Y102.325 E.0122
G1 X143.93 Y118.141 E.70528
G1 X143.93 Y118.678 E.01693
G1 X127.76 Y102.508 E.72106
G1 X127.396 Y102.68 E.01269
G1 X143.93 Y119.214 E.73729
G1 X143.93 Y119.75 E.0169
G1 X127.005 Y102.825 E.75473
G1 X126.594 Y102.95 E.01355
M73 P3 R43
G1 X143.93 Y120.286 E.77306
G1 X143.93 Y120.823 E.01693
G1 X126.163 Y103.056 E.79228
G1 X125.689 Y103.118 E.01507
G1 X143.501 Y120.93 E.79428
G1 X142.965 Y120.93 E.0169
G1 X125.195 Y103.16 E.79241
G1 X124.655 Y103.157 E.01703
G1 X142.429 Y120.93 E.79257
G1 X141.892 Y120.93 E.01693
G1 X124.055 Y103.093 E.7954
G1 X123.371 Y102.945 E.02207
G1 X141.356 Y120.93 E.802
G1 X140.82 Y120.93 E.0169
G1 X122.163 Y102.274 E.83194
;WIPE_START
G1 F8640
G1 X124.613 Y104.724 E-.8
;WIPE_END
G1 Z.6 F10800
G1 X127.566 Y91.587
G1 Z.2
G1 E.8 F2100
G1 F1200
G1 X125.048 Y89.07 E.11226
G1 X124.512 Y89.07 E.0169
G1 X126.462 Y91.02 E.08696
G1 X126.028 Y90.917 E.01406
G1 X125.797 Y90.892 E.00733
G1 X123.976 Y89.07 E.08123
G1 X123.439 Y89.07 E.01693
G1 X125.208 Y90.839 E.07888
G1 X124.673 Y90.84 E.01687
G1 X122.903 Y89.07 E.07893
G1 X122.367 Y89.07 E.0169
G1 X124.193 Y90.896 E.08143
G1 X123.885 Y90.932 E.00978
G1 X123.731 Y90.97 E.005
G1 X121.831 Y89.07 E.08473
G1 X121.294 Y89.07 E.01693
G1 X123.3 Y91.075 E.08943
G1 X122.899 Y91.211 E.01335
G1 X120.758 Y89.07 E.09547
G1 X120.222 Y89.07 E.0169
G1 X122.508 Y91.357 E.10196
G1 X122.154 Y91.538 E.01254
G1 X119.685 Y89.07 E.11008
G1 X119.149 Y89.07 E.0169
G1 X121.806 Y91.727 E.11848
G1 X121.482 Y91.939 E.01221
G1 X118.613 Y89.07 E.12794
G1 X118.077 Y89.07 E.0169
G1 X121.178 Y92.171 E.13828
G1 X120.886 Y92.416 E.01202
G1 X117.54 Y89.07 E.14921
G1 X117.004 Y89.07 E.0169
G1 X120.61 Y92.676 E.1608
G1 X120.352 Y92.954 E.01196
G1 X116.468 Y89.07 E.1732
G1 X115.931 Y89.07 E.01693
G1 X120.112 Y93.251 E.18644
G1 X119.885 Y93.56 E.01209
G1 X115.395 Y89.07 E.20022
G1 X114.859 Y89.07 E.0169
G1 X119.682 Y93.893 E.21507
G1 X119.488 Y94.235 E.0124
G1 X114.322 Y89.07 E.23034
G1 X113.786 Y89.07 E.0169
G1 X119.323 Y94.606 E.24689
G1 X119.174 Y94.994 E.01311
G1 X113.25 Y89.07 E.26417
G1 X112.714 Y89.07 E.0169
G1 X119.051 Y95.407 E.28258
G1 X118.987 Y95.62 E.00701
G1 X118.948 Y95.841 E.00708
G1 X112.177 Y89.07 E.30194
G1 X111.641 Y89.07 E.0169
G1 X118.871 Y96.3 E.3224
G1 X118.843 Y96.809 E.01607
G1 X111.105 Y89.07 E.34508
G1 X110.568 Y89.07 E.01693
G1 X118.851 Y97.352 E.36934
G1 X118.878 Y97.759 E.01286
G1 X118.911 Y97.949 E.00608
G1 X110.032 Y89.07 E.39594
G1 X109.496 Y89.07 E.0169
G1 X119.064 Y98.638 E.42666
G1 X119.218 Y99.151 E.01689
G1 X119.352 Y99.463 E.01071
G1 X108.964 Y89.075 E.46323
G1 X108.618 Y89.097 E.01093
G1 X108.478 Y89.125 E.0045
G1 X140.284 Y120.93 E1.41829
G1 X139.747 Y120.93 E.01693
G1 X108.053 Y89.236 E1.41332
G1 X107.88 Y89.295 E.00576
G1 X107.676 Y89.395 E.00716
G1 X139.211 Y120.93 E1.40623
G1 X138.675 Y120.93 E.0169
M73 P4 R43
G1 X107.34 Y89.595 E1.39731
G1 X107.041 Y89.832 E.01203
M73 P4 R42
G1 X138.138 Y120.93 E1.38672
G1 X137.602 Y120.93 E.0169
G1 X106.776 Y90.104 E1.37461
G1 X106.547 Y90.412 E.0121
G1 X137.066 Y120.93 E1.3609
G1 X136.529 Y120.93 E.01693
G1 X106.356 Y90.756 E1.34551
G1 X106.206 Y91.143 E.01309
G1 X135.993 Y120.93 E1.32828
G1 X135.457 Y120.93 E.0169
G1 X106.105 Y91.578 E1.30888
G1 X106.07 Y92.079 E.01584
G1 X134.921 Y120.93 E1.28654
G1 X134.384 Y120.93 E.01693
G1 X106.07 Y92.616 E1.26259
G1 X106.07 Y93.152 E.0169
G1 X133.848 Y120.93 E1.23869
G1 X133.312 Y120.93 E.0169
G1 X106.07 Y93.688 E1.21479
G1 X106.07 Y94.225 E.01693
G1 X132.775 Y120.93 E1.19084
G1 X132.239 Y120.93 E.0169
M73 P5 R42
G1 X106.07 Y94.761 E1.16694
G1 X106.07 Y95.297 E.0169
G1 X131.703 Y120.93 E1.14304
G1 X131.167 Y120.93 E.0169
G1 X106.07 Y95.833 E1.11914
G1 X106.07 Y96.37 E.01693
G1 X130.63 Y120.93 E1.09519
G1 X130.094 Y120.93 E.0169
G1 X106.07 Y96.906 E1.07129
G1 X106.07 Y97.442 E.0169
G1 X129.558 Y120.93 E1.04739
G1 X129.021 Y120.93 E.01693
G1 X106.07 Y97.979 E1.02344
G1 X106.07 Y98.515 E.0169
G1 X128.485 Y120.93 E.99954
G1 X127.949 Y120.93 E.0169
G1 X106.07 Y99.051 E.97564
G1 X106.07 Y99.587 E.0169
G1 X127.413 Y120.93 E.95174
G1 X126.876 Y120.93 E.01693
G1 X106.07 Y100.124 E.92779
G1 X106.07 Y100.66 E.0169
G1 X126.34 Y120.93 E.90389
G1 X125.804 Y120.93 E.0169
G1 X106.07 Y101.196 E.87999
G1 X106.07 Y101.733 E.01693
G1 X125.267 Y120.93 E.85604
G1 X124.731 Y120.93 E.0169
G1 X106.07 Y102.269 E.83214
G1 X106.07 Y102.805 E.0169
G1 X124.195 Y120.93 E.80824
G1 X123.659 Y120.93 E.0169
G1 X106.07 Y103.341 E.78434
G1 X106.07 Y103.878 E.01693
M73 P6 R42
G1 X123.122 Y120.93 E.76039
G1 X122.586 Y120.93 E.0169
G1 X106.07 Y104.414 E.73649
G1 X106.07 Y104.95 E.0169
G1 X122.05 Y120.93 E.71259
G1 X121.513 Y120.93 E.01693
G1 X106.07 Y105.487 E.68864
G1 X106.07 Y106.023 E.0169
G1 X120.977 Y120.93 E.66474
G1 X120.441 Y120.93 E.0169
G1 X106.07 Y106.559 E.64084
G1 X106.07 Y107.095 E.0169
G1 X119.905 Y120.93 E.61694
G1 X119.368 Y120.93 E.01693
G1 X106.07 Y107.632 E.59299
G1 X106.07 Y108.168 E.0169
G1 X118.832 Y120.93 E.56909
G1 X118.296 Y120.93 E.0169
M73 P6 R41
G1 X106.07 Y108.704 E.54519
G1 X106.07 Y109.241 E.01693
G1 X117.759 Y120.93 E.52124
G1 X117.223 Y120.93 E.0169
G1 X106.07 Y109.777 E.49734
G1 X106.07 Y110.313 E.0169
G1 X116.687 Y120.93 E.47344
G1 X116.151 Y120.93 E.0169
G1 X106.07 Y110.849 E.44954
G1 X106.07 Y111.386 E.01693
G1 X115.614 Y120.93 E.42559
G1 X115.078 Y120.93 E.0169
G1 X106.07 Y111.922 E.40169
G1 X106.07 Y112.458 E.0169
G1 X114.542 Y120.93 E.37779
G1 X114.005 Y120.93 E.01693
G1 X106.07 Y112.995 E.35384
G1 X106.07 Y113.531 E.0169
G1 X113.469 Y120.93 E.32994
G1 X112.933 Y120.93 E.0169
G1 X106.07 Y114.067 E.30604
G1 X106.07 Y114.603 E.0169
G1 X112.397 Y120.93 E.28214
G1 X111.86 Y120.93 E.01693
G1 X106.07 Y115.14 E.25819
G1 X106.07 Y115.676 E.0169
G1 X111.324 Y120.93 E.23429
G1 X110.788 Y120.93 E.0169
G1 X106.07 Y116.212 E.21039
