; generated by PrusaSlicer 2.4.2+win64 on 2022-06-29 at 10:23:46 UTC

; 

; external perimeters extrusion width = 0.45mm
; perimeters extrusion width = 0.45mm
; infill extrusion width = 0.45mm
; solid infill extrusion width = 0.45mm
; top infill extrusion width = 0.40mm
; first layer extrusion width = 0.42mm

M73 P0 R105
M107
;TYPE:Custom
M862.3 P "MK2S" ; printer model check
M862.1 P0.4 ; nozzle diameter check
M115 U3.2.3 ; tell printer latest fw version
G90 ; use absolute coordinates
M83 ; extruder relative mode
M204 S2000 T1500 ; MK2 firmware only supports the old M204 format
M104 S215 ; set extruder temp
M140 S60 ; set bed temp
M190 S60 ; wait for bed temp
M109 S215 ; wait for extruder temp
G28 W ; home all without mesh bed level
G80 ; mesh bed leveling
G1 Y-3.0 F1000.0 ; go outside print area
G92 E0.0
G1 X60.0 E9.0  F1000.0 ; intro line
G1 X100.0 E12.5 F1000.0 ; intro line
G92 E0.0
G21 ; set units to millimeters
G90 ; use absolute coordinates
M83 ; use relative distances for extrusion
M900 K0.05 ; Filament gcode LA 1.5
M900 K30 ; Filament gcode LA 1.0
M107
;LAYER_CHANGE
;Z:0.2
;HEIGHT:0.2
;BEFORE_LAYER_CHANGE
G92 E0.0
;0.2


G1 E-.8 F2100
G1 Z.4 F10800
;AFTER_LAYER_CHANGE
;0.2
G1 X38.118 Y59.078
G1 Z.2
G1 E.8 F2100
M204 S1000
;TYPE:Skirt/Brim
;WIDTH:0.42
G1 F1200
G1 X39.066 Y58.482 E.03511
G1 X40.602 Y57.882 E.05172
G1 X42.391 Y57.625 E.05665
G1 X194.391 Y50.625 E4.7709
G1 X232.5 Y50.623 E1.19489
G1 X233.807 Y51.015 E.04278
G1 X234.683 Y52.06 E.04278
G1 X234.877 Y53 E.03008
G1 X234.877 Y75 E.68979
G1 X234.485 Y76.307 E.04278
G1 X233.463 Y77.173 E.04201
G1 X48.463 Y159.173 E6.34481
G1 X47.5 Y159.377 E.03087
G1 X19.19 Y159.357 E.88765
G1 X18.073 Y159.128 E.03575
G1 X17.053 Y158.618 E.03575
G1 X16.2 Y157.861 E.03575
G1 X15.572 Y156.91 E.03575
G1 X15.211 Y155.828 E.03575
G1 X15.123 Y155 E.02611
G1 X15.123 Y119 E1.12875
G1 X15.211 Y118.172 E.02611
G1 X15.337 Y117.663 E.01643
G1 X35.764 Y62.012 E1.85875
G1 X36.578 Y60.618 E.05061
G1 X36.91 Y60.202 E.01669
G1 X38.074 Y59.119 E.04984
; printing object Sensorhalter.stl id:0 copy 0
;WIPE_START
G1 F8640
G1 X39.066 Y58.482 E-.27215
G1 X40.602 Y57.882 E-.38092
G1 X41.061 Y57.816 E-.10693
;WIPE_END
G1 E-.04 F2100
G1 Z.6 F10800
G1 X195.613 Y64.049
G1 Z.2
G1 E.8 F2100
;TYPE:Perimeter
G1 F1200
G1 X195.705 Y63.251 E.02519
G1 X195.994 Y62.553 E.02369
G1 X196.454 Y61.954 E.02369
G1 X197.053 Y61.494 E.02369
G1 X197.751 Y61.205 E.02369
G1 X198.459 Y61.112 E.02238
G1 X199.245 Y61.203 E.02482
G1 X199.947 Y61.494 E.02383
G1 X200.546 Y61.954 E.02369
G1 X201.006 Y62.553 E.02369
G1 X201.295 Y63.251 E.02369
G1 X201.394 Y64 E.02369
G1 X201.295 Y64.749 E.02369
G1 X201.006 Y65.447 E.02369
G1 X200.546 Y66.046 E.02369
G1 X199.947 Y66.506 E.02369
G1 X199.249 Y66.795 E.02369
G1 X198.5 Y66.894 E.02369
G1 X197.751 Y66.795 E.02369
G1 X197.402 Y66.651 E.01184
G1 X197.053 Y66.506 E.01184
G1 X196.454 Y66.046 E.02369
G1 X195.994 Y65.447 E.02369
G1 X195.705 Y64.749 E.02369
G1 X195.62 Y64.109 E.02025
G1 X195.986 Y64 F10800
;TYPE:External perimeter
G1 F1200
G1 X196.072 Y63.349 E.02057
G1 X196.323 Y62.743 E.02057
G1 X196.723 Y62.223 E.02057
G1 X197.243 Y61.823 E.02057
G1 X197.849 Y61.572 E.02057
G1 X198.461 Y61.492 E.01935
G1 X199.149 Y61.571 E.02171
G1 X199.757 Y61.823 E.02062
G1 X200.277 Y62.223 E.02057
G1 X200.677 Y62.743 E.02057
G1 X200.928 Y63.349 E.02057
G1 X201.014 Y64 E.02057
G1 X200.928 Y64.651 E.02057
G1 X200.677 Y65.257 E.02057
G1 X200.277 Y65.777 E.02057
G1 X199.757 Y66.177 E.02057
G1 X199.151 Y66.428 E.02057
G1 X198.5 Y66.514 E.02057
G1 X197.849 Y66.428 E.02057
G1 X197.243 Y66.177 E.02057
G1 X196.723 Y65.777 E.02057
G1 X196.323 Y65.257 E.02057
G1 X196.072 Y64.651 E.02057
G1 X195.994 Y64.059 E.01869
G1 X195.64 Y63.8 F10800
;WIPE_START
G1 F8640
G1 X196.072 Y63.349 E-.16493
G1 X196.323 Y62.743 E-.15151
G1 X196.723 Y62.223 E-.15151
G1 X197.243 Y61.823 E-.15151
G1 X197.806 Y61.59 E-.14054
;WIPE_END
G1 E-.04 F2100
G1 Z.6 F10800
G1 X209.613 Y64.049
G1 Z.2
G1 E.8 F2100
;TYPE:Perimeter
G1 F1200
G1 X209.705 Y63.251 E.02519
G1 X209.994 Y62.553 E.02369
G1 X210.454 Y61.954 E.02369
G1 X211.053 Y61.494 E.02369
G1 X211.751 Y61.205 E.02369
G1 X212.459 Y61.112 E.02238
G1 X213.245 Y61.203 E.02482
G1 X213.947 Y61.494 E.02383
G1 X214.546 Y61.954 E.02369
G1 X215.006 Y62.553 E.02369
G1 X215.295 Y63.251 E.02369
G1 X215.394 Y64 E.02369
G1 X215.295 Y64.749 E.02369
G1 X215.006 Y65.447 E.02369
G1 X214.546 Y66.046 E.02369
G1 X213.947 Y66.506 E.02369
G1 X213.249 Y66.795 E.02369
G1 X212.5 Y66.894 E.02369
G1 X211.751 Y66.795 E.02369
G1 X211.402 Y66.651 E.01184
G1 X211.053 Y66.506 E.01184
G1 X210.454 Y66.046 E.02369
G1 X209.994 Y65.447 E.02369
G1 X209.705 Y64.749 E.02369
G1 X209.62 Y64.109 E.02025
G1 X209.986 Y64 F10800
;TYPE:External perimeter
G1 F1200
G1 X210.072 Y63.349 E.02057
G1 X210.323 Y62.743 E.02057
G1 X210.723 Y62.223 E.02057
G1 X211.243 Y61.823 E.02057
G1 X211.849 Y61.572 E.02057
G1 X212.461 Y61.492 E.01935
G1 X213.149 Y61.571 E.02171
G1 X213.757 Y61.823 E.02062
G1 X214.277 Y62.223 E.02057
G1 X214.677 Y62.743 E.02057
G1 X214.928 Y63.349 E.02057
G1 X215.014 Y64 E.02057
G1 X214.928 Y64.651 E.02057
G1 X214.677 Y65.257 E.02057
G1 X214.277 Y65.777 E.02057
G1 X213.757 Y66.177 E.02057
G1 X213.151 Y66.428 E.02057
G1 X212.5 Y66.514 E.02057
G1 X211.849 Y66.428 E.02057
G1 X211.243 Y66.177 E.02057
G1 X210.723 Y65.777 E.02057
G1 X210.323 Y65.257 E.02057
G1 X210.072 Y64.651 E.02057
G1 X209.994 Y64.059 E.01869
G1 X209.64 Y63.8 F10800
;WIPE_START
G1 F8640
G1 X210.072 Y63.349 E-.16493
G1 X210.323 Y62.743 E-.15151
G1 X210.723 Y62.223 E-.15151
G1 X211.243 Y61.823 E-.15151
G1 X211.806 Y61.59 E-.14054
;WIPE_END
G1 E-.04 F2100
G1 Z.6 F10800
G1 X30.302 Y124.3
G1 Z.2
M73 P0 R104
G1 E.8 F2100
;TYPE:Perimeter
G1 F1200
G1 X30.394 Y125 E.02213
G1 X30.295 Y125.749 E.02369
G1 X30.006 Y126.447 E.02369
G1 X29.546 Y127.046 E.02369
G1 X28.947 Y127.506 E.02369
G1 X28.249 Y127.795 E.02369
G1 X27.5 Y127.894 E.02369
G1 X26.751 Y127.795 E.02369
G1 X26.053 Y127.506 E.02369
G1 X25.454 Y127.046 E.02369
G1 X24.994 Y126.447 E.02369
G1 X24.705 Y125.749 E.02369
G1 X24.606 Y125 E.02369
G1 X24.705 Y124.251 E.02369
G1 X24.994 Y123.553 E.02369
G1 X25.454 Y122.954 E.02369
G1 X26.053 Y122.494 E.02369
G1 X26.751 Y122.205 E.02369
G1 X27.459 Y122.112 E.02238
G1 X28.245 Y122.203 E.02482
G1 X28.947 Y122.494 E.02383
G1 X29.546 Y122.954 E.02369
G1 X30.006 Y123.553 E.02369
G1 X30.291 Y124.241 E.02336
G1 X29.928 Y124.349 F10800
;TYPE:External perimeter
G1 F1200
G1 X30.014 Y125 E.02057
G1 X29.928 Y125.651 E.02057
G1 X29.677 Y126.257 E.02057
G1 X29.277 Y126.777 E.02057
G1 X28.757 Y127.177 E.02057
G1 X28.151 Y127.428 E.02057
G1 X27.5 Y127.514 E.02057
G1 X26.849 Y127.428 E.02057
G1 X26.243 Y127.177 E.02057
G1 X25.723 Y126.777 E.02057
G1 X25.323 Y126.257 E.02057
G1 X25.072 Y125.651 E.02057
G1 X24.986 Y125 E.02057
G1 X25.072 Y124.349 E.02057
G1 X25.323 Y123.743 E.02057
G1 X25.723 Y123.223 E.02057
G1 X26.243 Y122.823 E.02057
G1 X26.849 Y122.572 E.02057
G1 X27.461 Y122.492 E.01935
G1 X28.149 Y122.571 E.02171
G1 X28.757 Y122.823 E.02062
G1 X29.277 Y123.223 E.02057
G1 X29.677 Y123.743 E.02057
G1 X29.905 Y124.294 E.01869
G1 X30.314 Y124.453 F10800
;WIPE_START
G1 F8640
G1 X30.014 Y125 E-.16493
G1 X29.928 Y125.651 E-.15151
G1 X29.677 Y126.257 E-.15151
G1 X29.277 Y126.777 E-.15151
G1 X28.794 Y127.148 E-.14053
;WIPE_END
G1 E-.04 F2100
G1 Z.6 F10800
G1 X27.412 Y146.118
G1 Z.2
G1 E.8 F2100
;TYPE:Perimeter
G1 F1200
G1 X28.245 Y146.203 E.02624
G1 X28.947 Y146.494 E.02383
G1 X29.546 Y146.954 E.02369
G1 X30.006 Y147.553 E.02369
G1 X30.295 Y148.251 E.02369
G1 X30.394 Y149 E.02369
G1 X30.295 Y149.749 E.02369
G1 X30.006 Y150.447 E.02369
G1 X29.546 Y151.046 E.02369
G1 X28.947 Y151.506 E.02369
G1 X28.249 Y151.795 E.02369
G1 X27.5 Y151.894 E.02369
G1 X26.751 Y151.795 E.02369
G1 X26.053 Y151.506 E.02369
G1 X25.454 Y151.046 E.02369
G1 X24.994 Y150.447 E.02369
G1 X24.705 Y149.749 E.02369
G1 X24.606 Y149 E.02369
G1 X24.705 Y148.251 E.02369
G1 X24.994 Y147.553 E.02369
G1 X25.454 Y146.954 E.02369
G1 X26.053 Y146.494 E.02369
G1 X26.751 Y146.205 E.02369
G1 X27.353 Y146.126 E.01903
G1 X27.461 Y146.492 F10800
;TYPE:External perimeter
G1 F1200
G1 X28.149 Y146.571 E.02171
G1 X28.757 Y146.823 E.02062
G1 X29.277 Y147.223 E.02057
G1 X29.677 Y147.743 E.02057
G1 X29.928 Y148.349 E.02057
G1 X30.014 Y149 E.02057
G1 X29.928 Y149.651 E.02057
G1 X29.677 Y150.257 E.02057
G1 X29.277 Y150.777 E.02057
G1 X28.757 Y151.177 E.02057
G1 X28.151 Y151.428 E.02057
G1 X27.5 Y151.514 E.02057
G1 X26.849 Y151.428 E.02057
G1 X26.243 Y151.177 E.02057
G1 X25.723 Y150.777 E.02057
G1 X25.323 Y150.257 E.02057
G1 X25.072 Y149.651 E.02057
G1 X24.986 Y149 E.02057
G1 X25.072 Y148.349 E.02057
G1 X25.323 Y147.743 E.02057
G1 X25.723 Y147.223 E.02057
G1 X26.243 Y146.823 E.02057
G1 X26.849 Y146.572 E.02057
G1 X27.402 Y146.499 E.01747
G1 X27.657 Y146.143 F10800
;WIPE_START
G1 F8640
G1 X28.149 Y146.571 E-.17331
G1 X28.757 Y146.823 E-.15188
G1 X29.277 Y147.223 E-.15151
G1 X29.677 Y147.743 E-.15151
G1 X29.895 Y148.271 E-.13178
;WIPE_END
G1 E-.04 F2100
G1 Z.6 F10800
G1 X193.287 Y69.213
G1 Z.2
G1 E.8 F2100
;TYPE:Perimeter
G1 F1200
G1 X57.466 Y69.213 E4.25859
G1 X55.626 Y69.374 E.05789
G1 X53.81 Y69.861 E.05897
G1 X52.105 Y70.656 E.05897
G1 X50.564 Y71.734 E.05897
G1 X49.234 Y73.064 E.05897
G1 X48.156 Y74.605 E.05897
G1 X47.361 Y76.31 E.05897
G1 X46.874 Y78.126 E.05897
G1 X46.713 Y79.966 E.05789
G1 X46.713 Y156.213 E2.39068
G1 X19.552 Y156.213 E.85162
G1 X19.188 Y156.165 E.0115
G1 X18.897 Y156.045 E.00987
G1 X18.647 Y155.853 E.00987
G1 X18.455 Y155.603 E.00987
G1 X18.335 Y155.312 E.00987
G1 X18.287 Y154.948 E.0115
G1 X18.287 Y119.052 E1.12552
G1 X18.335 Y118.688 E.0115
G1 X18.455 Y118.397 E.00987
G1 X18.647 Y118.147 E.00987
G1 X18.897 Y117.955 E.00987
G1 X19.188 Y117.835 E.00987
G1 X19.552 Y117.787 E.0115
G1 X38.287 Y117.787 E.58744
G1 X38.287 Y65.044 E1.65372
G1 X38.398 Y64.064 E.03094
M73 P1 R104
G1 X38.709 Y63.174 E.02954
G1 X39.21 Y62.376 E.02954
G1 X39.876 Y61.71 E.02954
G1 X40.674 Y61.209 E.02954
G1 X41.564 Y60.898 E.02954
G1 X42.544 Y60.787 E.03094
G1 X193.287 Y60.787 E4.72644
G1 X193.287 Y55.052 E.17983
G1 X193.335 Y54.688 E.0115
G1 X193.455 Y54.397 E.00987
G1 X193.647 Y54.147 E.00987
G1 X193.897 Y53.955 E.00987
G1 X194.188 Y53.835 E.00987
G1 X194.552 Y53.787 E.0115
G1 X231.713 Y53.787 E1.16517
G1 X231.713 Y74.213 E.64044
G1 X194.552 Y74.213 E1.16517
G1 X194.188 Y74.165 E.0115
G1 X193.897 Y74.045 E.00987
G1 X193.647 Y73.853 E.00987
G1 X193.455 Y73.603 E.00987
G1 X193.335 Y73.312 E.00987
G1 X193.287 Y72.948 E.0115
G1 X193.287 Y69.273 E.11524
G1 X192.91 Y69.59 F10800
;TYPE:External perimeter
G1 F1200
G1 X57.482 Y69.59 E4.24625
G1 X55.692 Y69.747 E.05634
G1 X53.939 Y70.216 E.0569
G1 X52.294 Y70.983 E.0569
G1 X50.808 Y72.024 E.0569
G1 X49.524 Y73.308 E.0569
G1 X48.483 Y74.794 E.0569
G1 X47.716 Y76.439 E.0569
G1 X47.247 Y78.192 E.0569
G1 X47.09 Y79.982 E.05634
G1 X47.09 Y156.59 E2.40199
G1 X19.527 Y156.59 E.86422
G1 X19.089 Y156.532 E.01384
G1 X18.707 Y156.374 E.01299
G1 X18.378 Y156.122 E.01299
G1 X18.126 Y155.793 E.01299
G1 X17.968 Y155.411 E.01299
G1 X17.91 Y154.973 E.01384
G1 X17.91 Y119.027 E1.12707
G1 X17.968 Y118.589 E.01384
G1 X18.126 Y118.207 E.01299
G1 X18.378 Y117.878 E.01299
G1 X18.707 Y117.626 E.01299
G1 X19.089 Y117.468 E.01299
G1 X19.527 Y117.41 E.01384
G1 X37.91 Y117.41 E.57639
G1 X37.91 Y65.023 E1.64256
G1 X38.028 Y63.979 E.03294
G1 X38.367 Y63.01 E.03221
G1 X38.913 Y62.14 E.03221
G1 X39.64 Y61.413 E.03221
G1 X40.51 Y60.867 E.03221
G1 X41.479 Y60.528 E.03221
G1 X42.523 Y60.41 E.03294
G1 X192.91 Y60.41 E4.71528
G1 X192.91 Y55.027 E.16878
M73 P1 R103
G1 X192.968 Y54.589 E.01383
G1 X193.126 Y54.207 E.01299
G1 X193.378 Y53.878 E.01299
G1 X193.707 Y53.626 E.01299
G1 X194.089 Y53.468 E.01299
G1 X194.527 Y53.41 E.01384
G1 X232.09 Y53.41 E1.17777
G1 X232.09 Y74.59 E.66408
G1 X194.527 Y74.59 E1.17777
G1 X194.089 Y74.532 E.01384
G1 X193.707 Y74.374 E.01299
G1 X193.378 Y74.122 E.01299
G1 X193.126 Y73.793 E.01299
G1 X192.968 Y73.411 E.01299
G1 X192.91 Y72.973 E.01383
G1 X192.91 Y69.65 E.10419
G1 X192.908 Y69.19 F10800
;WIPE_START
G1 F8640
G1 X189.619 Y69.649 E-.76
;WIPE_END
G1 E-.04 F2100
G1 Z.6 F10800
G1 X231.6 Y54.663
G1 Z.2
G1 E.8 F2100
;TYPE:Solid infill
;WIDTH:0.420213
G1 F1200
G1 X231.007 Y54.07 E.02631
G1 X230.473 Y54.07 E.01674
G1 X231.43 Y55.027 E.04246
G1 X231.43 Y55.56 E.01674
G1 X229.94 Y54.07 E.06613
G1 X229.406 Y54.07 E.01674
G1 X231.43 Y56.094 E.0898
G1 X231.43 Y56.628 E.01674
G1 X228.872 Y54.07 E.11347
G1 X228.339 Y54.07 E.01674
G1 X231.43 Y57.161 E.13715
G1 X231.43 Y57.695 E.01674
G1 X227.805 Y54.07 E.16082
G1 X227.272 Y54.07 E.01674
G1 X231.43 Y58.228 E.18449
G1 X231.43 Y58.762 E.01674
G1 X226.738 Y54.07 E.20817
G1 X226.205 Y54.07 E.01674
G1 X231.43 Y59.295 E.23184
G1 X231.43 Y59.829 E.01674
G1 X225.671 Y54.07 E.25551
G1 X225.137 Y54.07 E.01674
G1 X231.43 Y60.363 E.27918
G1 X231.43 Y60.896 E.01674
G1 X224.604 Y54.07 E.30286
G1 X224.07 Y54.07 E.01674
G1 X231.43 Y61.43 E.32653
G1 X231.43 Y61.963 E.01674
G1 X223.537 Y54.07 E.3502
G1 X223.003 Y54.07 E.01674
G1 X231.43 Y62.497 E.37388
G1 X231.43 Y63.03 E.01674
G1 X222.47 Y54.07 E.39755
G1 X221.936 Y54.07 E.01674
G1 X231.43 Y63.564 E.42122
G1 X231.43 Y64.098 E.01674
G1 X221.402 Y54.07 E.44489
G1 X220.869 Y54.07 E.01674
G1 X231.43 Y64.631 E.46857
G1 X231.43 Y65.165 E.01674
G1 X220.335 Y54.07 E.49224
G1 X219.802 Y54.07 E.01674
G1 X231.43 Y65.698 E.51591
G1 X231.43 Y66.232 E.01674
G1 X219.268 Y54.07 E.53959
G1 X218.735 Y54.07 E.01674
G1 X231.43 Y66.765 E.56326
G1 X231.43 Y67.299 E.01674
G1 X218.201 Y54.07 E.58693
G1 X217.667 Y54.07 E.01674
G1 X231.43 Y67.833 E.61061
G1 X231.43 Y68.366 E.01674
G1 X217.134 Y54.07 E.63428
G1 X216.6 Y54.07 E.01674
G1 X231.43 Y68.9 E.65795
G1 X231.43 Y69.433 E.01674
M73 P2 R103
G1 X216.067 Y54.07 E.68162
G1 X215.533 Y54.07 E.01674
G1 X231.43 Y69.967 E.7053
G1 X231.43 Y70.5 E.01674
G1 X215 Y54.07 E.72897
G1 X214.466 Y54.07 E.01674
G1 X231.43 Y71.034 E.75264
G1 X231.43 Y71.568 E.01674
G1 X213.932 Y54.07 E.77632
G1 X213.399 Y54.07 E.01674
G1 X231.43 Y72.101 E.79999
G1 X231.43 Y72.635 E.01674
G1 X212.865 Y54.07 E.82366
G1 X212.332 Y54.07 E.01674
G1 X231.43 Y73.168 E.84733
G1 X231.43 Y73.702 E.01674
G1 X211.798 Y54.07 E.87101
G1 X211.265 Y54.07 E.01674
G1 X231.125 Y73.93 E.88113
G1 X230.591 Y73.93 E.01674
G1 X210.731 Y54.07 E.88113
G1 X210.197 Y54.07 E.01674
G1 X230.058 Y73.93 E.88113
G1 X229.524 Y73.93 E.01674
G1 X209.664 Y54.07 E.88113
G1 X209.13 Y54.07 E.01674
G1 X228.991 Y73.93 E.88113
G1 X228.457 Y73.93 E.01674
G1 X208.597 Y54.07 E.88113
G1 X208.063 Y54.07 E.01674
G1 X227.923 Y73.93 E.88113
G1 X227.39 Y73.93 E.01674
G1 X207.53 Y54.07 E.88113
G1 X206.996 Y54.07 E.01674
G1 X226.856 Y73.93 E.88113
G1 X226.323 Y73.93 E.01674
G1 X215.571 Y63.178 E.47702
G1 X215.652 Y63.793 E.01944
G1 X225.789 Y73.93 E.44976
G1 X225.256 Y73.93 E.01674
G1 X215.638 Y64.313 E.4267
G1 X215.576 Y64.784 E.01492
G1 X224.722 Y73.93 E.40578
G1 X224.188 Y73.93 E.01674
G1 X215.427 Y65.169 E.3887
G1 X215.271 Y65.546 E.01281
G1 X223.655 Y73.93 E.37196
G1 X223.121 Y73.93 E.01674
G1 X215.048 Y65.857 E.35818
G1 X214.816 Y66.159 E.01194
G1 X222.588 Y73.93 E.34479
G1 X222.054 Y73.93 E.01674
G1 X214.535 Y66.411 E.33359
G1 X214.233 Y66.643 E.01194
G1 X221.521 Y73.93 E.32331
G1 X220.987 Y73.93 E.01674
G1 X213.892 Y66.835 E.31478
G1 X213.515 Y66.991 E.01281
G1 X220.453 Y73.93 E.30785
G1 X219.92 Y73.93 E.01674
G1 X213.091 Y67.101 E.30297
G1 X212.619 Y67.163 E.01492
G1 X219.386 Y73.93 E.30022
G1 X218.853 Y73.93 E.01674
G1 X211.844 Y66.922 E.31094
;WIPE_START
G1 F8640
G1 X214.172 Y69.249 E-.76
;WIPE_END
G1 E-.04 F2100
M73 P2 R102
G1 Z.6 F10800
G1 X213.635 Y61.242
G1 Z.2
G1 E.8 F2100
G1 F1200
G1 X206.462 Y54.07 E.3182
G1 X205.929 Y54.07 E.01674
G1 X212.716 Y60.857 E.30111
G1 X212.456 Y60.827 E.00819
G1 X212.187 Y60.862 E.00851
G1 X205.395 Y54.07 E.30135
G1 X204.862 Y54.07 E.01674
G1 X211.716 Y60.924 E.3041
G1 X211.331 Y61.073 E.01295
G1 X204.328 Y54.07 E.31069
G1 X203.795 Y54.07 E.01674
G1 X210.954 Y61.229 E.31762
G1 X210.643 Y61.452 E.01199
G1 X203.261 Y54.07 E.32752
