; generated by PrusaSlicer 2.4.2+win64 on 2022-07-02 at 08:58:30 UTC

; 

; external perimeters extrusion width = 0.45mm
; perimeters extrusion width = 0.45mm
; infill extrusion width = 0.45mm
; solid infill extrusion width = 0.45mm
; top infill extrusion width = 0.40mm
; first layer extrusion width = 0.42mm

M73 P0 R166
M107
;TYPE:Custom
M862.3 P "MK2S" ; printer model check
M862.1 P0.4 ; nozzle diameter check
M115 U3.2.3 ; tell printer latest fw version
G90 ; use absolute coordinates
M83 ; extruder relative mode
M204 S2000 T1500 ; MK2 firmware only supports the old M204 format
M104 S215 ; set extruder temp
M140 S60 ; set bed temp
M190 S60 ; wait for bed temp
M109 S215 ; wait for extruder temp
G28 W ; home all without mesh bed level
G80 ; mesh bed leveling
G1 Y-3.0 F1000.0 ; go outside print area
G92 E0.0
G1 X60.0 E9.0  F1000.0 ; intro line
G1 X100.0 E12.5 F1000.0 ; intro line
G92 E0.0
G21 ; set units to millimeters
G90 ; use absolute coordinates
M83 ; use relative distances for extrusion
M900 K0.05 ; Filament gcode LA 1.5
M900 K30 ; Filament gcode LA 1.0
M107
;LAYER_CHANGE
;Z:0.2
;HEIGHT:0.2
;BEFORE_LAYER_CHANGE
G92 E0.0
;0.2


G1 E-.8 F2100
M73 P0 R165
G1 Z.4 F10800
;AFTER_LAYER_CHANGE
;0.2
G1 X91.871 Y53.693
G1 Z.2
G1 E.8 F2100
M204 S1000
;TYPE:Skirt/Brim
;WIDTH:0.42
G1 F1200
G1 X92.995 Y52.785 E.04531
G1 X110.995 Y45.785 E.60555
G1 X111.856 Y45.623 E.02748
G1 X155.591 Y45.623 E1.37126
G1 X156.898 Y46.015 E.04278
G1 X157.774 Y47.06 E.04278
G1 X157.968 Y48 E.03008
G1 X157.968 Y162 E3.57439
G1 X157.576 Y163.307 E.04278
G1 X156.53 Y164.183 E.04278
G1 X155.591 Y164.377 E.03008
G1 X111.856 Y164.377 E1.37126
G1 X110.995 Y164.215 E.02748
G1 X92.995 Y157.215 E.60555
G1 X91.918 Y156.377 E.04278
G1 X91.479 Y155 E.04531
G1 X91.479 Y55 E3.13543
G1 X91.854 Y53.75 E.0409
; printing object SolarPanelSockel.stl id:0 copy 0
;WIPE_START
G1 F8640
G1 X92.995 Y52.785 E-.34521
G1 X94.669 Y52.133 E-.41479
;WIPE_END
G1 E-.04 F2100
G1 Z.6 F10800
G1 X107.127 Y137.213
G1 Z.2
G1 E.8 F2100
;TYPE:Perimeter
G1 F1200
G1 X112.643 Y137.213 E.17297
G1 X112.643 Y152.787 E.48832
G1 X99.37 Y152.787 E.41618
G1 X98.925 Y151.957 E.02952
G1 X100.95 Y148.903 E.1149
G1 X102.602 Y146.188 E.09966
G1 X104.148 Y143.41 E.09966
G1 X105.584 Y140.575 E.09966
G1 X107.102 Y137.267 E.11409
G1 X107.369 Y137.59 F10800
;TYPE:External perimeter
G1 F1200
G1 X112.266 Y137.59 E.15356
G1 X112.266 Y152.41 E.46467
G1 X99.596 Y152.41 E.39728
G1 X99.364 Y151.978 E.01538
G1 X101.268 Y149.105 E.10806
G1 X102.928 Y146.377 E.10012
G1 X104.481 Y143.587 E.10012
G1 X105.924 Y140.739 E.10012
G1 X107.344 Y137.645 E.10674
G1 X107.428 Y137.194 F10800
;WIPE_START
G1 F8640
G1 X110.635 Y137.608 E-.76
;WIPE_END
G1 E-.04 F2100
G1 Z.6 F10800
G1 X107.127 Y72.787
G1 Z.2
G1 E.8 F2100
;TYPE:Perimeter
G1 F1200
G1 X105.584 Y69.425 E.11597
G1 X104.148 Y66.59 E.09966
G1 X102.602 Y63.812 E.09966
G1 X100.95 Y61.097 E.09966
G1 X98.925 Y58.043 E.1149
G1 X99.37 Y57.213 E.02952
G1 X112.643 Y57.213 E.41618
G1 X112.643 Y72.787 E.48832
G1 X107.187 Y72.787 E.17109
G1 X107.369 Y72.41 F10800
;TYPE:External perimeter
G1 F1200
G1 X105.924 Y69.261 E.10862
G1 X104.481 Y66.413 E.10012
G1 X102.928 Y63.623 E.10012
G1 X101.268 Y60.895 E.10012
G1 X99.364 Y58.022 E.10806
G1 X99.596 Y57.59 E.01538
G1 X112.266 Y57.59 E.39728
G1 X112.266 Y72.41 E.46467
G1 X107.429 Y72.41 E.15168
G1 X107.064 Y72.669 F10800
;WIPE_START
G1 F8640
G1 X106.009 Y69.44 E-.76
;WIPE_END
G1 E-.04 F2100
G1 Z.6 F10800
G1 X152.789 Y49.213
G1 Z.2
G1 E.8 F2100
;TYPE:Perimeter
G1 F1200
G1 X150.207 Y49.213 E.08096
G1 X150.207 Y52.213 E.09406
G1 X113.069 Y52.213 E1.16444
G1 X113.069 Y157.787 E3.3102
G1 X150.207 Y157.787 E1.16444
G1 X150.207 Y160.787 E.09406
G1 X152.789 Y160.787 E.08096
G1 X152.789 Y157.787 E.09406
G1 X154.327 Y157.787 E.0482
G1 X154.327 Y161.213 E.10741
G1 X112.643 Y161.213 E1.30695
G1 X112.643 Y154.213 E.21948
G1 X96.35 Y154.214 E.51087
G1 X95.817 Y154.226 E.01671
G1 X95.317 Y154.282 E.01579
G1 X95.601 Y153.997 E.01262
G1 X96.521 Y152.838 E.04642
G1 X98.465 Y150.092 E.10549
G1 X100.291 Y147.27 E.10537
G1 X101.997 Y144.375 E.10537
G1 X103.58 Y141.41 E.10537
G1 X105.038 Y138.383 E.10537
G1 X106.157 Y135.787 E.08862
G1 X112.643 Y135.787 E.20336
G1 X112.643 Y74.213 E1.93061
G1 X106.157 Y74.213 E.20336
G1 X105.038 Y71.617 E.08862
G1 X103.58 Y68.59 E.10537
G1 X101.997 Y65.625 E.10537
G1 X100.291 Y62.73 E.10537
G1 X98.465 Y59.908 E.10537
G1 X96.521 Y57.162 E.10549
G1 X95.601 Y56.003 E.04642
G1 X95.317 Y55.718 E.01262
G1 X95.817 Y55.774 E.01579
G1 X96.35 Y55.786 E.01671
G1 X112.643 Y55.787 E.51087
G1 X112.643 Y48.787 E.21948
G1 X154.327 Y48.787 E1.30695
G1 X154.327 Y52.213 E.10741
G1 X152.789 Y52.213 E.0482
G1 X152.789 Y49.273 E.09218
G1 X152.412 Y49.59 F10800
;TYPE:External perimeter
G1 F1200
G1 X150.585 Y49.59 E.05731
G1 X150.585 Y52.59 E.09406
G1 X113.446 Y52.59 E1.16444
G1 X113.446 Y157.41 E3.28656
G1 X150.585 Y157.41 E1.16444
M73 P0 R164
G1 X150.585 Y160.41 E.09406
G1 X152.412 Y160.41 E.05731
G1 X152.412 Y157.41 E.09406
G1 X154.704 Y157.41 E.07185
G1 X154.704 Y161.59 E.13106
G1 X112.266 Y161.59 E1.3306
G1 X112.266 Y154.59 E.21948
G1 X96.354 Y154.591 E.49892
G1 X95.842 Y154.602 E.01605
G1 X95.318 Y154.661 E.01655
G1 X94.829 Y154.79 E.01584
G1 X94.3 Y154.78 E.0166
G1 X94.588 Y154.397 E.01504
G1 X94.963 Y154.102 E.01495
G1 X95.319 Y153.746 E.0158
G1 X96.22 Y152.612 E.04541
G1 X98.153 Y149.88 E.10492
G1 X99.97 Y147.072 E.10488
G1 X101.668 Y144.19 E.10488
G1 X103.244 Y141.24 E.10488
G1 X104.695 Y138.226 E.10488
G1 X105.909 Y135.41 E.09615
G1 X112.266 Y135.41 E.19931
G1 X112.266 Y74.59 E1.90697
G1 X105.909 Y74.59 E.19931
G1 X104.695 Y71.774 E.09615
G1 X103.244 Y68.76 E.10488
G1 X101.668 Y65.81 E.10488
G1 X99.97 Y62.928 E.10488
G1 X98.153 Y60.12 E.10488
G1 X96.22 Y57.388 E.10492
G1 X95.319 Y56.254 E.04541
G1 X94.963 Y55.898 E.0158
G1 X94.588 Y55.603 E.01495
G1 X94.3 Y55.22 E.01504
G1 X94.829 Y55.21 E.0166
G1 X95.318 Y55.339 E.01584
G1 X95.842 Y55.398 E.01655
G1 X96.354 Y55.409 E.01605
G1 X112.266 Y55.41 E.49892
G1 X112.266 Y48.41 E.21948
G1 X154.704 Y48.41 E1.3306
G1 X154.704 Y52.59 E.13106
G1 X152.412 Y52.59 E.07185
G1 X152.412 Y49.65 E.09218
G1 X152.326 Y49.199 F10800
;WIPE_START
G1 F8640
G1 X150.585 Y49.59 E-.42229
G1 X150.585 Y51.053 E-.33771
;WIPE_END
G1 E-.04 F2100
G1 Z.6 F10800
G1 X154.214 Y49.663
G1 Z.2
G1 E.8 F2100
;TYPE:Solid infill
;WIDTH:0.42037
G1 F1200
G1 X153.62 Y49.07 E.02634
G1 X153.086 Y49.07 E.01675
G1 X154.044 Y50.027 E.0425
G1 X154.044 Y50.561 E.01675
G1 X153.072 Y49.589 E.04313
G1 X153.072 Y50.123 E.01675
G1 X154.044 Y51.095 E.04313
G1 X154.044 Y51.629 E.01675
G1 X153.072 Y50.657 E.04313
G1 X153.072 Y51.191 E.01675
G1 X153.812 Y51.93 E.03281
G1 X153.278 Y51.93 E.01675
G1 X152.903 Y51.555 E.01665
;WIPE_START
G1 F8640
G1 X153.278 Y51.93 E-.12251
G1 X153.812 Y51.93 E-.12325
G1 X153.072 Y51.191 E-.24141
G1 X153.072 Y50.657 E-.12325
G1 X153.53 Y51.115 E-.14957
;WIPE_END
G1 E-.04 F2100
G1 Z.6 F10800
G1 X150.094 Y49.281
G1 Z.2
G1 E.8 F2100
G1 F1200
G1 X149.884 Y49.07 E.00935
G1 X149.35 Y49.07 E.01675
G1 X149.925 Y49.645 E.02551
G1 X149.925 Y50.178 E.01675
G1 X148.816 Y49.07 E.0492
G1 X148.282 Y49.07 E.01675
G1 X149.925 Y50.712 E.0729
G1 X149.925 Y51.246 E.01675
G1 X147.749 Y49.07 E.09659
G1 X147.215 Y49.07 E.01675
G1 X149.925 Y51.78 E.12028
G1 X149.925 Y51.93 E.00472
G1 X149.541 Y51.93 E.01204
G1 X146.681 Y49.07 E.12695
G1 X146.147 Y49.07 E.01675
G1 X149.007 Y51.93 E.12695
G1 X148.474 Y51.93 E.01675
G1 X145.613 Y49.07 E.12695
G1 X145.08 Y49.07 E.01675
G1 X147.94 Y51.93 E.12695
G1 X147.406 Y51.93 E.01675
G1 X144.546 Y49.07 E.12695
G1 X144.012 Y49.07 E.01675
G1 X146.872 Y51.93 E.12695
G1 X146.338 Y51.93 E.01675
G1 X143.478 Y49.07 E.12695
G1 X142.944 Y49.07 E.01675
G1 X145.805 Y51.93 E.12695
G1 X145.271 Y51.93 E.01675
G1 X142.411 Y49.07 E.12695
G1 X141.877 Y49.07 E.01675
G1 X144.737 Y51.93 E.12695
G1 X144.203 Y51.93 E.01675
G1 X141.343 Y49.07 E.12695
G1 X140.809 Y49.07 E.01675
G1 X143.669 Y51.93 E.12695
G1 X143.136 Y51.93 E.01675
G1 X140.275 Y49.07 E.12695
G1 X139.742 Y49.07 E.01675
G1 X142.602 Y51.93 E.12695
G1 X142.068 Y51.93 E.01675
G1 X139.208 Y49.07 E.12695
G1 X138.674 Y49.07 E.01675
G1 X141.534 Y51.93 E.12695
G1 X141 Y51.93 E.01675
G1 X138.14 Y49.07 E.12695
G1 X137.606 Y49.07 E.01675
G1 X140.467 Y51.93 E.12695
G1 X139.933 Y51.93 E.01675
G1 X137.073 Y49.07 E.12695
G1 X136.539 Y49.07 E.01675
G1 X139.399 Y51.93 E.12695
G1 X138.865 Y51.93 E.01675
G1 X136.005 Y49.07 E.12695
G1 X135.471 Y49.07 E.01675
G1 X138.332 Y51.93 E.12695
G1 X137.798 Y51.93 E.01675
G1 X134.937 Y49.07 E.12695
G1 X134.404 Y49.07 E.01675
G1 X137.264 Y51.93 E.12695
G1 X136.73 Y51.93 E.01675
G1 X133.87 Y49.07 E.12695
G1 X133.336 Y49.07 E.01675
G1 X136.196 Y51.93 E.12695
G1 X135.663 Y51.93 E.01675
G1 X132.802 Y49.07 E.12695
G1 X132.268 Y49.07 E.01675
G1 X135.129 Y51.93 E.12695
G1 X134.595 Y51.93 E.01675
G1 X131.735 Y49.07 E.12695
G1 X131.201 Y49.07 E.01675
G1 X134.061 Y51.93 E.12695
G1 X133.527 Y51.93 E.01675
G1 X130.667 Y49.07 E.12695
G1 X130.133 Y49.07 E.01675
G1 X132.994 Y51.93 E.12695
G1 X132.46 Y51.93 E.01675
G1 X129.6 Y49.07 E.12695
G1 X129.066 Y49.07 E.01675
G1 X131.926 Y51.93 E.12695
G1 X131.392 Y51.93 E.01675
G1 X128.532 Y49.07 E.12695
G1 X127.998 Y49.07 E.01675
G1 X130.858 Y51.93 E.12695
G1 X130.325 Y51.93 E.01675
G1 X127.464 Y49.07 E.12695
G1 X126.931 Y49.07 E.01675
G1 X129.791 Y51.93 E.12695
G1 X129.257 Y51.93 E.01675
G1 X126.397 Y49.07 E.12695
G1 X125.863 Y49.07 E.01675
G1 X128.723 Y51.93 E.12695
G1 X128.189 Y51.93 E.01675
G1 X125.329 Y49.07 E.12695
G1 X124.795 Y49.07 E.01675
G1 X127.656 Y51.93 E.12695
G1 X127.122 Y51.93 E.01675
G1 X124.262 Y49.07 E.12695
G1 X123.728 Y49.07 E.01675
G1 X126.588 Y51.93 E.12695
G1 X126.054 Y51.93 E.01675
G1 X123.194 Y49.07 E.12695
G1 X122.66 Y49.07 E.01675
G1 X125.52 Y51.93 E.12695
G1 X124.987 Y51.93 E.01675
G1 X122.126 Y49.07 E.12695
G1 X121.593 Y49.07 E.01675
G1 X124.453 Y51.93 E.12695
G1 X123.919 Y51.93 E.01675
G1 X121.059 Y49.07 E.12695
G1 X120.525 Y49.07 E.01675
G1 X123.385 Y51.93 E.12695
G1 X122.851 Y51.93 E.01675
G1 X119.991 Y49.07 E.12695
G1 X119.457 Y49.07 E.01675
G1 X122.318 Y51.93 E.12695
G1 X121.784 Y51.93 E.01675
G1 X118.924 Y49.07 E.12695
G1 X118.39 Y49.07 E.01675
G1 X121.25 Y51.93 E.12695
G1 X120.716 Y51.93 E.01675
G1 X117.856 Y49.07 E.12695
G1 X117.322 Y49.07 E.01675
G1 X120.182 Y51.93 E.12695
G1 X119.649 Y51.93 E.01675
G1 X116.788 Y49.07 E.12695
G1 X116.255 Y49.07 E.01675
G1 X119.115 Y51.93 E.12695
G1 X118.581 Y51.93 E.01675
G1 X115.721 Y49.07 E.12695
G1 X115.187 Y49.07 E.01675
G1 X118.047 Y51.93 E.12695
G1 X117.514 Y51.93 E.01675
M73 P1 R164
G1 X114.653 Y49.07 E.12695
G1 X114.119 Y49.07 E.01675
G1 X116.98 Y51.93 E.12695
G1 X116.446 Y51.93 E.01675
G1 X113.586 Y49.07 E.12695
G1 X113.052 Y49.07 E.01675
G1 X115.912 Y51.93 E.12695
G1 X115.378 Y51.93 E.01675
G1 X112.926 Y49.478 E.10884
G1 X112.926 Y50.012 E.01675
G1 X114.845 Y51.93 E.08515
G1 X114.311 Y51.93 E.01675
G1 X112.926 Y50.546 E.06146
G1 X112.926 Y51.079 E.01675
G1 X113.777 Y51.93 E.03776
G1 X113.243 Y51.93 E.01675
G1 X112.756 Y51.443 E.0216
;WIPE_START
G1 F8640
G1 X113.243 Y51.93 E-.15893
G1 X113.777 Y51.93 E-.12325
G1 X112.926 Y51.079 E-.27782
G1 X112.926 Y50.546 E-.12325
G1 X113.161 Y50.781 E-.07674
;WIPE_END
G1 E-.04 F2100
G1 Z.6 F10800
G1 X112.409 Y55.9
G1 Z.2
G1 E.8 F2100
G1 F1200
G1 X112.786 Y56.278 E.01675
G1 X112.786 Y56.811 E.01675
G1 X112.045 Y56.07 E.03291
G1 X111.511 Y56.07 E.01675
G1 X112.371 Y56.93 E.03818
G1 X111.838 Y56.93 E.01675
G1 X110.977 Y56.07 E.03818
G1 X110.443 Y56.07 E.01675
G1 X111.304 Y56.93 E.03819
G1 X110.77 Y56.93 E.01675
G1 X109.91 Y56.07 E.03819
G1 X109.376 Y56.07 E.01675
G1 X110.236 Y56.93 E.03819
G1 X109.702 Y56.93 E.01675
G1 X108.842 Y56.07 E.03819
G1 X108.308 Y56.07 E.01675
G1 X109.169 Y56.93 E.03819
G1 X108.635 Y56.93 E.01675
G1 X107.774 Y56.07 E.03819
G1 X107.241 Y56.07 E.01675
G1 X108.101 Y56.93 E.03819
G1 X107.567 Y56.93 E.01675
G1 X106.707 Y56.07 E.0382
G1 X106.173 Y56.07 E.01675
G1 X107.033 Y56.93 E.0382
G1 X106.5 Y56.93 E.01675
G1 X105.639 Y56.07 E.0382
G1 X105.105 Y56.069 E.01675
G1 X105.966 Y56.93 E.0382
G1 X105.432 Y56.93 E.01675
G1 X104.571 Y56.069 E.0382
G1 X104.038 Y56.069 E.01675
G1 X104.898 Y56.93 E.0382
G1 X104.364 Y56.93 E.01675
G1 X103.504 Y56.069 E.0382
G1 X102.97 Y56.069 E.01675
G1 X103.831 Y56.93 E.03821
G1 X103.297 Y56.93 E.01675
G1 X102.436 Y56.069 E.03821
G1 X101.902 Y56.069 E.01675
G1 X102.763 Y56.93 E.03821
G1 X102.229 Y56.93 E.01675
G1 X101.368 Y56.069 E.03821
G1 X100.835 Y56.069 E.01675
G1 X101.695 Y56.93 E.03821
G1 X101.162 Y56.93 E.01675
G1 X100.301 Y56.069 E.03821
G1 X99.767 Y56.069 E.01675
G1 X100.628 Y56.93 E.03821
G1 X100.094 Y56.93 E.01675
G1 X99.233 Y56.069 E.03822
G1 X98.699 Y56.069 E.01675
G1 X99.56 Y56.93 E.03822
G1 X99.201 Y56.93 E.01128
G1 X99.14 Y57.044 E.00404
G1 X98.165 Y56.069 E.04325
G1 X97.632 Y56.069 E.01675
G1 X98.953 Y57.391 E.05867
G1 X98.767 Y57.738 E.01237
G1 X97.098 Y56.069 E.07409
G1 X96.564 Y56.069 E.01675
G1 X98.679 Y58.184 E.09389
G1 X99.73 Y59.768 E.05965
G1 X96.009 Y56.062 E.16483
G1 X96.748 Y56.992 E.0373
G1 X97.542 Y58.115 E.04316
G1 X100.765 Y61.338 E.14306
G1 X101.595 Y62.701 E.05009
G1 X98.802 Y59.909 E.12394
G1 X99.781 Y61.421 E.05651
G1 X102.412 Y64.052 E.11679
G1 X103.081 Y65.255 E.04323
G1 X100.709 Y62.883 E.10529
G1 X101.475 Y64.182 E.04733
G1 X103.751 Y66.459 E.10104
G1 X104.326 Y67.568 E.03919
G1 X102.24 Y65.482 E.09258
G1 X102.853 Y66.628 E.0408
G1 X104.874 Y68.65 E.08971
G1 X105.406 Y69.715 E.03739
G1 X103.465 Y67.774 E.08616
G1 X104.031 Y68.874 E.03881
G1 X105.859 Y70.702 E.08113
G1 X106.311 Y71.688 E.03406
G1 X104.164 Y69.54 E.09533
;WIPE_START
G1 F8640
G1 X106.311 Y71.688 E-.70135
G1 X106.205 Y71.457 E-.05865
;WIPE_END
G1 E-.04 F2100
G1 Z.6 F10800
G1 X112.328 Y72.9
G1 Z.2
G1 E.8 F2100
G1 F1200
G1 X112.786 Y73.359 E.02036
G1 X112.786 Y73.893 E.01675
G1 X111.964 Y73.07 E.03652
G1 X111.43 Y73.07 E.01675
G1 X112.29 Y73.93 E.03818
G1 X111.756 Y73.93 E.01675
G1 X110.896 Y73.07 E.03818
G1 X110.362 Y73.07 E.01675
G1 X111.222 Y73.93 E.03818
G1 X110.689 Y73.93 E.01675
G1 X109.828 Y73.07 E.03818
G1 X109.295 Y73.07 E.01675
G1 X110.155 Y73.93 E.03818
G1 X109.621 Y73.93 E.01675
G1 X108.761 Y73.07 E.03818
G1 X108.227 Y73.07 E.01675
G1 X109.087 Y73.93 E.03818
G1 X108.553 Y73.93 E.01675
G1 X107.523 Y72.9 E.04571
;WIPE_START
G1 F8640
G1 X108.553 Y73.93 E-.33632
G1 X109.087 Y73.93 E-.12325
G1 X108.227 Y73.07 E-.28091
G1 X108.311 Y73.07 E-.01952
;WIPE_END
G1 E-.04 F2100
G1 Z.6 F10800
G1 X108.189 Y74.1
G1 Z.2
G1 E.8 F2100
G1 F1200
G1 X105.023 Y70.933 E.14054
G1 X105.478 Y71.922 E.03416
G1 X107.486 Y73.93 E.08913
G1 X106.952 Y73.93 E.01675
G1 X105.882 Y72.86 E.04748
G1 X106.287 Y73.799 E.03207
G1 X106.588 Y74.1 E.01336
;WIPE_START
G1 F8640
G1 X106.287 Y73.799 E-.09828
G1 X105.882 Y72.86 E-.23596
G1 X106.952 Y73.93 E-.3493
G1 X107.283 Y73.93 E-.07647
;WIPE_END
G1 E-.04 F2100
G1 Z.6 F10800
G1 X153.556 Y157.9
G1 Z.2
G1 E.8 F2100
G1 F1200
G1 X154.044 Y158.388 E.02164
G1 X154.044 Y158.922 E.01675
G1 X153.192 Y158.07 E.0378
G1 X153.072 Y158.07 E.00377
G1 X153.072 Y158.484 E.01299
G1 X154.044 Y159.455 E.04313
G1 X154.044 Y159.989 E.01675
G1 X153.072 Y159.017 E.04313
G1 X153.072 Y159.551 E.01675
G1 X154.044 Y160.523 E.04313
G1 X154.044 Y160.93 E.01278
G1 X153.917 Y160.93 E.00397
G1 X153.072 Y160.085 E.03751
G1 X153.072 Y160.619 E.01675
G1 X153.553 Y161.1 E.02135
;WIPE_START
G1 F8640
G1 X153.072 Y160.619 E-.15707
G1 X153.072 Y160.085 E-.12325
G1 X153.917 Y160.93 E-.27597
G1 X154.044 Y160.93 E-.02923
G1 X154.044 Y160.523 E-.09403
G1 X153.798 Y160.277 E-.08045
;WIPE_END
G1 E-.04 F2100
G1 Z.6 F10800
G1 X150.094 Y158.708
G1 Z.2
G1 E.8 F2100
G1 F1200
G1 X149.456 Y158.07 E.02834
G1 X148.922 Y158.07 E.01675
G1 X149.925 Y159.073 E.0445
G1 X149.925 Y159.606 E.01675
G1 X148.388 Y158.07 E.0682
G1 X147.854 Y158.07 E.01675
G1 X149.925 Y160.14 E.09189
G1 X149.925 Y160.674 E.01675
G1 X147.321 Y158.07 E.11558
G1 X146.787 Y158.07 E.01675
G1 X149.647 Y160.93 E.12695
G1 X149.113 Y160.93 E.01675
G1 X146.253 Y158.07 E.12695
G1 X145.719 Y158.07 E.01675
