; generated by PrusaSlicer 2.4.2+win64 on 2022-07-02 at 05:46:54 UTC

; 

; external perimeters extrusion width = 0.45mm
; perimeters extrusion width = 0.45mm
; infill extrusion width = 0.45mm
; solid infill extrusion width = 0.45mm
; top infill extrusion width = 0.40mm
; first layer extrusion width = 0.42mm

M73 P0 R124
M107
;TYPE:Custom
M862.3 P "MK2S" ; printer model check
M862.1 P0.4 ; nozzle diameter check
M115 U3.2.3 ; tell printer latest fw version
G90 ; use absolute coordinates
M83 ; extruder relative mode
M204 S2000 T1500 ; MK2 firmware only supports the old M204 format
M104 S215 ; set extruder temp
M140 S60 ; set bed temp
M190 S60 ; wait for bed temp
M109 S215 ; wait for extruder temp
G28 W ; home all without mesh bed level
G80 ; mesh bed leveling
G1 Y-3.0 F1000.0 ; go outside print area
G92 E0.0
G1 X60.0 E9.0  F1000.0 ; intro line
G1 X100.0 E12.5 F1000.0 ; intro line
G92 E0.0
G21 ; set units to millimeters
G90 ; use absolute coordinates
M83 ; use relative distances for extrusion
M900 K0.05 ; Filament gcode LA 1.5
M900 K30 ; Filament gcode LA 1.0
M107
;LAYER_CHANGE
;Z:0.2
;HEIGHT:0.2
;BEFORE_LAYER_CHANGE
G92 E0.0
;0.2


G1 E-.8 F2100
G1 Z.4 F10800
;AFTER_LAYER_CHANGE
;0.2
G1 X115.124 Y9.414
G1 Z.2
G1 E.8 F2100
M204 S1000
;TYPE:Skirt/Brim
;WIDTH:0.42
G1 F1200
G1 X115.357 Y7.821 E.05046
G1 X115.702 Y6.851 E.03228
G1 X116.37 Y5.726 E.04102
G1 X117.392 Y4.628 E.04705
G1 X118.505 Y3.88 E.04205
G1 X118.981 Y3.651 E.01657
G1 X120.345 Y3.238 E.04467
G1 X121.5 Y3.123 E.0364
G1 X128.761 Y3.137 E.22765
G1 X130.226 Y3.374 E.04654
G1 X131.443 Y3.849 E.04096
G1 X132.256 Y4.358 E.03008
G1 X132.666 Y4.683 E.01642
G1 X133.576 Y5.645 E.0415
G1 X134.298 Y6.851 E.04408
G1 X134.719 Y8.088 E.04098
G1 X134.876 Y9.414 E.04185
G1 X134.877 Y17.5 E.25353
G1 X124.874 Y204.627 E5.87561
G1 X124.413 Y205.911 E.04278
G1 X123.322 Y206.73 E.04278
G1 X122.5 Y206.877 E.02617
G1 X117.5 Y206.877 E.15677
G1 X116.193 Y206.485 E.04278
G1 X115.317 Y205.44 E.04278
G1 X115.123 Y204.5 E.03008
G1 X115.124 Y9.474 E6.11491
; printing object WasserstandsSensorBefestigung.stl id:0 copy 0
;WIPE_START
G1 F8640
G1 X115.357 Y7.821 E-.38533
G1 X115.702 Y6.851 E-.23775
G1 X116.005 Y6.341 E-.13692
;WIPE_END
G1 E-.04 F2100
G1 Z.6 F10800
G1 X130.012 Y10.713
G1 Z.2
G1 E.8 F2100
;TYPE:Perimeter
G1 F1200
G1 X122.434 Y10.713 E.23761
G1 X122.434 Y16.713 E.18813
G1 X121.713 Y16.713 E.02261
G1 X121.713 Y203.713 E5.86325
G1 X118.287 Y203.713 E.10741
G1 X118.287 Y9.541 E6.08812
G1 X118.372 Y8.787 E.0238
G1 X118.61 Y8.108 E.02254
G1 X118.992 Y7.5 E.02252
G1 X119.5 Y6.992 E.02252
G1 X120.108 Y6.61 E.02252
G1 X120.786 Y6.372 E.02253
G1 X121.544 Y6.287 E.02391
G1 X128.456 Y6.287 E.21671
G1 X129.214 Y6.372 E.02391
G1 X129.892 Y6.61 E.02253
G1 X130.5 Y6.992 E.02252
G1 X131.008 Y7.5 E.02252
G1 X131.39 Y8.108 E.02252
G1 X131.628 Y8.787 E.02254
G1 X131.713 Y9.541 E.02381
G1 X131.713 Y16.713 E.22486
G1 X130.012 Y16.713 E.05332
G1 X130.012 Y10.773 E.18624
G1 X129.635 Y11.09 F10800
;TYPE:External perimeter
G1 F1200
G1 X122.811 Y11.09 E.21397
G1 X122.811 Y17.09 E.18813
G1 X122.09 Y17.09 E.02261
G1 X122.09 Y204.09 E5.86325
G1 X117.91 Y204.09 E.13106
M73 P0 R123
G1 X117.91 Y9.52 E6.1006
G1 X118.002 Y8.702 E.0258
G1 X118.268 Y7.944 E.02521
G1 X118.695 Y7.263 E.02519
G1 X119.263 Y6.695 E.02519
G1 X119.943 Y6.268 E.02519
G1 X120.702 Y6.002 E.0252
G1 X121.523 Y5.91 E.02591
G1 X128.477 Y5.91 E.21804
G1 X129.298 Y6.002 E.0259
G1 X130.057 Y6.268 E.0252
G1 X130.737 Y6.695 E.02519
G1 X131.305 Y7.263 E.02519
G1 X131.732 Y7.944 E.02519
G1 X131.998 Y8.702 E.02521
G1 X132.09 Y9.52 E.02581
G1 X132.09 Y17.09 E.23734
G1 X129.635 Y17.09 E.07697
G1 X129.635 Y11.15 E.18624
G1 X129.584 Y10.693 F10800
;WIPE_START
G1 F8640
G1 X126.344 Y11.121 E-.76
;WIPE_END
G1 E-.04 F2100
G1 Z.6 F10800
G1 X131.3 Y8.192
G1 Z.2
G1 E.8 F2100
;TYPE:Solid infill
;WIDTH:0.420186
G1 F1200
G1 X130.322 Y7.214 E.04336
G1 X129.769 Y6.866 E.02051
G1 X129.264 Y6.69 E.01675
G1 X131.31 Y8.736 E.09076
G1 X131.35 Y8.85 E.0038
G1 X131.409 Y9.368 E.01634
G1 X128.633 Y6.592 E.12316
G1 X128.44 Y6.57 E.00608
G1 X128.077 Y6.57 E.01138
G1 X131.43 Y9.923 E.14874
G1 X131.43 Y10.456 E.01674
G1 X127.544 Y6.57 E.17241
G1 X127.01 Y6.57 E.01674
G1 X131.43 Y10.99 E.19608
G1 X131.43 Y11.523 E.01674
G1 X126.477 Y6.57 E.21974
G1 X125.943 Y6.57 E.01674
G1 X129.804 Y10.43 E.17125
G1 X130.295 Y10.43 E.01542
G1 X130.295 Y10.922 E.01542
G1 X131.43 Y12.057 E.05035
G1 X131.43 Y12.59 E.01674
G1 X130.295 Y11.455 E.05035
G1 X130.295 Y11.989 E.01674
G1 X131.43 Y13.124 E.05035
G1 X131.43 Y13.657 E.01674
G1 X130.295 Y12.522 E.05035
G1 X130.295 Y13.056 E.01674
G1 X131.43 Y14.191 E.05035
G1 X131.43 Y14.724 E.01674
M73 P1 R123
G1 X130.295 Y13.589 E.05035
G1 X130.295 Y14.123 E.01674
G1 X131.43 Y15.258 E.05035
G1 X131.43 Y15.791 E.01674
G1 X130.295 Y14.656 E.05035
G1 X130.295 Y15.19 E.01674
G1 X131.43 Y16.325 E.05035
G1 X131.43 Y16.43 E.0033
G1 X131.002 Y16.43 E.01344
G1 X130.295 Y15.724 E.03135
G1 X130.295 Y16.257 E.01674
G1 X130.638 Y16.6 E.01521
;WIPE_START
G1 F8640
G1 X130.295 Y16.257 E-.11192
G1 X130.295 Y15.724 E-.12319
G1 X131.002 Y16.43 E-.23074
G1 X131.43 Y16.43 E-.09891
G1 X131.43 Y16.325 E-.02428
G1 X130.907 Y15.801 E-.17095
;WIPE_END
G1 E-.04 F2100
G1 Z.6 F10800
G1 X129.44 Y10.6
G1 Z.2
G1 E.8 F2100
G1 F1200
G1 X125.41 Y6.57 E.17878
G1 X124.876 Y6.57 E.01674
G1 X128.736 Y10.43 E.17125
G1 X128.203 Y10.43 E.01674
G1 X124.343 Y6.57 E.17125
G1 X123.809 Y6.57 E.01674
G1 X127.669 Y10.43 E.17125
G1 X127.136 Y10.43 E.01674
G1 X123.276 Y6.57 E.17125
G1 X122.742 Y6.57 E.01674
G1 X126.602 Y10.43 E.17125
G1 X126.069 Y10.43 E.01674
G1 X122.209 Y6.57 E.17125
G1 X121.675 Y6.57 E.01674
G1 X125.535 Y10.43 E.17125
G1 X125.002 Y10.43 E.01674
G1 X121.184 Y6.612 E.16937
G1 X120.85 Y6.65 E.01055
G1 X120.73 Y6.692 E.00398
G1 X124.468 Y10.43 E.16585
G1 X123.935 Y10.43 E.01674
G1 X120.335 Y6.83 E.15971
G1 X120.231 Y6.866 E.00343
G1 X119.989 Y7.018 E.00897
G1 X123.401 Y10.43 E.15136
G1 X122.868 Y10.43 E.01674
G1 X119.665 Y7.227 E.1421
G1 X119.398 Y7.494 E.01183
G1 X122.334 Y10.43 E.13026
G1 X122.151 Y10.43 E.00573
G1 X122.151 Y10.781 E.011
G1 X119.15 Y7.78 E.13315
G1 X118.944 Y8.107 E.01214
G1 X122.151 Y11.314 E.14228
G1 X122.151 Y11.848 E.01674
G1 X118.78 Y8.477 E.14955
G1 X118.65 Y8.85 E.01241
G1 X118.647 Y8.877 E.00084
G1 X122.151 Y12.381 E.15548
G1 X122.151 Y12.915 E.01674
G1 X118.593 Y9.356 E.15788
G1 X118.57 Y9.557 E.00634
G1 X118.57 Y9.867 E.00973
G1 X122.151 Y13.449 E.15888
G1 X122.151 Y13.982 E.01674
G1 X118.57 Y10.401 E.15888
G1 X118.57 Y10.934 E.01674
G1 X122.151 Y14.516 E.15888
G1 X122.151 Y15.049 E.01674
G1 X118.57 Y11.468 E.15888
G1 X118.57 Y12.001 E.01674
G1 X122.151 Y15.583 E.15888
G1 X122.151 Y16.116 E.01674
G1 X118.57 Y12.535 E.15888
G1 X118.57 Y13.068 E.01674
G1 X121.932 Y16.43 E.14914
G1 X121.43 Y16.43 E.01573
G1 X121.43 Y16.462 E.001
G1 X118.57 Y13.602 E.12689
G1 X118.57 Y14.135 E.01674
G1 X121.43 Y16.996 E.12689
G1 X121.43 Y17.529 E.01674
G1 X118.57 Y14.669 E.12689
G1 X118.57 Y15.203 E.01674
G1 X121.43 Y18.063 E.12689
G1 X121.43 Y18.596 E.01674
G1 X118.57 Y15.736 E.12689
G1 X118.57 Y16.27 E.01674
G1 X121.43 Y19.13 E.12689
G1 X121.43 Y19.663 E.01674
G1 X118.57 Y16.803 E.12689
G1 X118.57 Y17.337 E.01674
G1 X121.43 Y20.197 E.12689
G1 X121.43 Y20.73 E.01674
G1 X118.57 Y17.87 E.12689
G1 X118.57 Y18.404 E.01674
G1 X121.43 Y21.264 E.12689
G1 X121.43 Y21.797 E.01674
G1 X118.57 Y18.937 E.12689
G1 X118.57 Y19.471 E.01674
G1 X121.43 Y22.331 E.12689
G1 X121.43 Y22.865 E.01674
G1 X118.57 Y20.004 E.12689
G1 X118.57 Y20.538 E.01674
G1 X121.43 Y23.398 E.12689
G1 X121.43 Y23.932 E.01674
G1 X118.57 Y21.071 E.12689
G1 X118.57 Y21.605 E.01674
G1 X121.43 Y24.465 E.12689
G1 X121.43 Y24.999 E.01674
G1 X118.57 Y22.139 E.12689
G1 X118.57 Y22.672 E.01674
G1 X121.43 Y25.532 E.12689
G1 X121.43 Y26.066 E.01674
G1 X118.57 Y23.206 E.12689
G1 X118.57 Y23.739 E.01674
G1 X121.43 Y26.599 E.12689
G1 X121.43 Y27.133 E.01674
G1 X118.57 Y24.273 E.12689
G1 X118.57 Y24.806 E.01674
G1 X121.43 Y27.666 E.12689
G1 X121.43 Y28.2 E.01674
G1 X118.57 Y25.34 E.12689
G1 X118.57 Y25.873 E.01674
G1 X121.43 Y28.733 E.12689
G1 X121.43 Y29.267 E.01674
G1 X118.57 Y26.407 E.12689
G1 X118.57 Y26.94 E.01674
G1 X121.43 Y29.8 E.12689
G1 X121.43 Y30.334 E.01674
G1 X118.57 Y27.474 E.12689
G1 X118.57 Y28.007 E.01674
G1 X121.43 Y30.868 E.12689
G1 X121.43 Y31.401 E.01674
G1 X118.57 Y28.541 E.12689
G1 X118.57 Y29.074 E.01674
G1 X121.43 Y31.935 E.12689
G1 X121.43 Y32.468 E.01674
G1 X118.57 Y29.608 E.12689
G1 X118.57 Y30.142 E.01674
G1 X121.43 Y33.002 E.12689
G1 X121.43 Y33.535 E.01674
G1 X118.57 Y30.675 E.12689
G1 X118.57 Y31.209 E.01674
G1 X121.43 Y34.069 E.12689
G1 X121.43 Y34.602 E.01674
G1 X118.57 Y31.742 E.12689
G1 X118.57 Y32.276 E.01674
G1 X121.43 Y35.136 E.12689
G1 X121.43 Y35.669 E.01674
G1 X118.57 Y32.809 E.12689
G1 X118.57 Y33.343 E.01674
G1 X121.43 Y36.203 E.12689
G1 X121.43 Y36.736 E.01674
G1 X118.57 Y33.876 E.12689
G1 X118.57 Y34.41 E.01674
G1 X121.43 Y37.27 E.12689
G1 X121.43 Y37.804 E.01674
G1 X118.57 Y34.943 E.12689
G1 X118.57 Y35.477 E.01674
G1 X121.43 Y38.337 E.12689
G1 X121.43 Y38.871 E.01674
G1 X118.57 Y36.01 E.12689
G1 X118.57 Y36.544 E.01674
G1 X121.43 Y39.404 E.12689
G1 X121.43 Y39.938 E.01674
G1 X118.57 Y37.077 E.12689
G1 X118.57 Y37.611 E.01674
G1 X121.43 Y40.471 E.12689
G1 X121.43 Y41.005 E.01674
G1 X118.57 Y38.145 E.12689
G1 X118.57 Y38.678 E.01674
G1 X121.43 Y41.538 E.12689
G1 X121.43 Y42.072 E.01674
G1 X118.57 Y39.212 E.12689
G1 X118.57 Y39.745 E.01674
G1 X121.43 Y42.605 E.12689
G1 X121.43 Y43.139 E.01674
G1 X118.57 Y40.279 E.12689
G1 X118.57 Y40.812 E.01674
G1 X121.43 Y43.672 E.12689
G1 X121.43 Y44.206 E.01674
G1 X118.57 Y41.346 E.12689
G1 X118.57 Y41.879 E.01674
G1 X121.43 Y44.739 E.12689
G1 X121.43 Y45.273 E.01674
G1 X118.57 Y42.413 E.12689
G1 X118.57 Y42.946 E.01674
G1 X121.43 Y45.807 E.12689
G1 X121.43 Y46.34 E.01674
G1 X118.57 Y43.48 E.12689
G1 X118.57 Y44.013 E.01674
G1 X121.43 Y46.874 E.12689
G1 X121.43 Y47.407 E.01674
G1 X118.57 Y44.547 E.12689
G1 X118.57 Y45.08 E.01674
G1 X121.43 Y47.941 E.12689
G1 X121.43 Y48.474 E.01674
G1 X118.57 Y45.614 E.12689
G1 X118.57 Y46.148 E.01674
G1 X121.43 Y49.008 E.12689
G1 X121.43 Y49.541 E.01674
G1 X118.57 Y46.681 E.12689
G1 X118.57 Y47.215 E.01674
G1 X121.43 Y50.075 E.12689
G1 X121.43 Y50.608 E.01674
G1 X118.57 Y47.748 E.12689
G1 X118.57 Y48.282 E.01674
G1 X121.43 Y51.142 E.12689
G1 X121.43 Y51.675 E.01674
G1 X118.57 Y48.815 E.12689
G1 X118.57 Y49.349 E.01674
G1 X121.43 Y52.209 E.12689
G1 X121.43 Y52.742 E.01674
G1 X118.57 Y49.882 E.12689
G1 X118.57 Y50.416 E.01674
G1 X121.43 Y53.276 E.12689
G1 X121.43 Y53.81 E.01674
G1 X118.57 Y50.949 E.12689
G1 X118.57 Y51.483 E.01674
G1 X121.43 Y54.343 E.12689
G1 X121.43 Y54.877 E.01674
G1 X118.57 Y52.016 E.12689
G1 X118.57 Y52.55 E.01674
G1 X121.43 Y55.41 E.12689
G1 X121.43 Y55.944 E.01674
G1 X118.57 Y53.084 E.12689
G1 X118.57 Y53.617 E.01674
G1 X121.43 Y56.477 E.12689
G1 X121.43 Y57.011 E.01674
G1 X118.57 Y54.151 E.12689
G1 X118.57 Y54.684 E.01674
G1 X121.43 Y57.544 E.12689
G1 X121.43 Y58.078 E.01674
G1 X118.57 Y55.218 E.12689
G1 X118.57 Y55.751 E.01674
G1 X121.43 Y58.611 E.12689
G1 X121.43 Y59.145 E.01674
G1 X118.57 Y56.285 E.12689
G1 X118.57 Y56.818 E.01674
G1 X121.43 Y59.678 E.12689
G1 X121.43 Y60.212 E.01674
G1 X118.57 Y57.352 E.12689
G1 X118.57 Y57.885 E.01674
G1 X121.43 Y60.745 E.12689
G1 X121.43 Y61.279 E.01674
G1 X118.57 Y58.419 E.12689
G1 X118.57 Y58.952 E.01674
G1 X121.43 Y61.813 E.12689
G1 X121.43 Y62.346 E.01674
G1 X118.57 Y59.486 E.12689
G1 X118.57 Y60.019 E.01674
G1 X121.43 Y62.88 E.12689
G1 X121.43 Y63.413 E.01674
G1 X118.57 Y60.553 E.12689
G1 X118.57 Y61.087 E.01674
G1 X121.43 Y63.947 E.12689
G1 X121.43 Y64.48 E.01674
G1 X118.57 Y61.62 E.12689
G1 X118.57 Y62.154 E.01674
G1 X121.43 Y65.014 E.12689
G1 X121.43 Y65.547 E.01674
G1 X118.57 Y62.687 E.12689
G1 X118.57 Y63.221 E.01674
G1 X121.43 Y66.081 E.12689
G1 X121.43 Y66.614 E.01674
G1 X118.57 Y63.754 E.12689
G1 X118.57 Y64.288 E.01674
G1 X121.43 Y67.148 E.12689
G1 X121.43 Y67.681 E.01674
G1 X118.57 Y64.821 E.12689
G1 X118.57 Y65.355 E.01674
G1 X121.43 Y68.215 E.12689
G1 X121.43 Y68.749 E.01674
G1 X118.57 Y65.888 E.12689
G1 X118.57 Y66.422 E.01674
G1 X121.43 Y69.282 E.12689
G1 X121.43 Y69.816 E.01674
G1 X118.57 Y66.955 E.12689
G1 X118.57 Y67.489 E.01674
G1 X121.43 Y70.349 E.12689
G1 X121.43 Y70.883 E.01674
G1 X118.57 Y68.022 E.12689
G1 X118.57 Y68.556 E.01674
G1 X121.43 Y71.416 E.12689
G1 X121.43 Y71.95 E.01674
G1 X118.57 Y69.09 E.12689
G1 X118.57 Y69.623 E.01674
G1 X121.43 Y72.483 E.12689
G1 X121.43 Y73.017 E.01674
G1 X118.57 Y70.157 E.12689
G1 X118.57 Y70.69 E.01674
G1 X121.43 Y73.55 E.12689
G1 X121.43 Y74.084 E.01674
G1 X118.57 Y71.224 E.12689
G1 X118.57 Y71.757 E.01674
G1 X121.43 Y74.617 E.12689
G1 X121.43 Y75.151 E.01674
G1 X118.57 Y72.291 E.12689
G1 X118.57 Y72.824 E.01674
G1 X121.43 Y75.684 E.12689
G1 X121.43 Y76.218 E.01674
G1 X118.57 Y73.358 E.12689
G1 X118.57 Y73.891 E.01674
G1 X121.43 Y76.752 E.12689
G1 X121.43 Y77.285 E.01674
G1 X118.57 Y74.425 E.12689
G1 X118.57 Y74.958 E.01674
G1 X121.43 Y77.819 E.12689
G1 X121.43 Y78.352 E.01674
G1 X118.57 Y75.492 E.12689
G1 X118.57 Y76.025 E.01674
G1 X121.43 Y78.886 E.12689
G1 X121.43 Y79.419 E.01674
G1 X118.57 Y76.559 E.12689
G1 X118.57 Y77.093 E.01674
G1 X121.43 Y79.953 E.12689
G1 X121.43 Y80.486 E.01674
G1 X118.57 Y77.626 E.12689
G1 X118.57 Y78.16 E.01674
G1 X121.43 Y81.02 E.12689
G1 X121.43 Y81.553 E.01674
G1 X118.57 Y78.693 E.12689
G1 X118.57 Y79.227 E.01674
G1 X121.43 Y82.087 E.12689
G1 X121.43 Y82.62 E.01674
G1 X118.57 Y79.76 E.12689
G1 X118.57 Y80.294 E.01674
G1 X121.43 Y83.154 E.12689
G1 X121.43 Y83.687 E.01674
G1 X118.57 Y80.827 E.12689
G1 X118.57 Y81.361 E.01674
G1 X121.43 Y84.221 E.12689
G1 X121.43 Y84.755 E.01674
G1 X118.57 Y81.894 E.12689
G1 X118.57 Y82.428 E.01674
G1 X121.43 Y85.288 E.12689
G1 X121.43 Y85.822 E.01674
G1 X118.57 Y82.961 E.12689
G1 X118.57 Y83.495 E.01674
G1 X121.43 Y86.355 E.12689
G1 X121.43 Y86.889 E.01674
G1 X118.57 Y84.029 E.12689
G1 X118.57 Y84.562 E.01674
G1 X121.43 Y87.422 E.12689
G1 X121.43 Y87.956 E.01674
G1 X118.57 Y85.096 E.12689
G1 X118.57 Y85.629 E.01674
G1 X121.43 Y88.489 E.12689
G1 X121.43 Y89.023 E.01674
G1 X118.57 Y86.163 E.12689
G1 X118.57 Y86.696 E.01674
G1 X121.43 Y89.556 E.12689
G1 X121.43 Y90.09 E.01674
G1 X118.57 Y87.23 E.12689
G1 X118.57 Y87.763 E.01674
G1 X121.43 Y90.623 E.12689
G1 X121.43 Y91.157 E.01674
G1 X118.57 Y88.297 E.12689
G1 X118.57 Y88.83 E.01674
G1 X121.43 Y91.691 E.12689
G1 X121.43 Y92.224 E.01674
G1 X118.57 Y89.364 E.12689
G1 X118.57 Y89.897 E.01674
G1 X121.43 Y92.758 E.12689
G1 X121.43 Y93.291 E.01674
G1 X118.57 Y90.431 E.12689
G1 X118.57 Y90.964 E.01674
G1 X121.43 Y93.825 E.12689
G1 X121.43 Y94.358 E.01674
G1 X118.57 Y91.498 E.12689
G1 X118.57 Y92.032 E.01674
G1 X121.43 Y94.892 E.12689
G1 X121.43 Y95.425 E.01674
G1 X118.57 Y92.565 E.12689
G1 X118.57 Y93.099 E.01674
G1 X121.43 Y95.959 E.12689
G1 X121.43 Y96.492 E.01674
G1 X118.57 Y93.632 E.12689
M73 P1 R122
G1 X118.57 Y94.166 E.01674
G1 X121.43 Y97.026 E.12689
G1 X121.43 Y97.559 E.01674
G1 X118.57 Y94.699 E.12689
G1 X118.57 Y95.233 E.01674
G1 X121.43 Y98.093 E.12689
G1 X121.43 Y98.626 E.01674
G1 X118.57 Y95.766 E.12689
G1 X118.57 Y96.3 E.01674
G1 X121.43 Y99.16 E.12689
G1 X121.43 Y99.694 E.01674
G1 X118.57 Y96.833 E.12689
G1 X118.57 Y97.367 E.01674
G1 X121.43 Y100.227 E.12689
G1 X121.43 Y100.761 E.01674
G1 X118.57 Y97.9 E.12689
G1 X118.57 Y98.434 E.01674
G1 X121.43 Y101.294 E.12689
G1 X121.43 Y101.828 E.01674
G1 X118.57 Y98.967 E.12689
G1 X118.57 Y99.501 E.01674
G1 X121.43 Y102.361 E.12689
G1 X121.43 Y102.895 E.01674
G1 X118.57 Y100.035 E.12689
G1 X118.57 Y100.568 E.01674
G1 X121.43 Y103.428 E.12689
G1 X121.43 Y103.962 E.01674
G1 X118.57 Y101.102 E.12689
G1 X118.57 Y101.635 E.01674
G1 X121.43 Y104.495 E.12689
G1 X121.43 Y105.029 E.01674
G1 X118.57 Y102.169 E.12689
G1 X118.57 Y102.702 E.01674
G1 X121.43 Y105.562 E.12689
G1 X121.43 Y106.096 E.01674
G1 X118.57 Y103.236 E.12689
G1 X118.57 Y103.769 E.01674
G1 X121.43 Y106.629 E.12689
G1 X121.43 Y107.163 E.01674
