( Made using CamBam - http://www.cambam.co.uk )
( Motorsportfreunde_Schauinsland-Hochzeit 7/30/2021 7:04:08 AM )
( T3 : 3.0 )
( T15 : 1.5 )
G21 G90 G64 G40
G0 Z3.0
( T3 : 3.0 )
T3 M6
( Tasche3mm )
G17
M3 S1000
G0 X-4.19051 Y36.81225
G0 Z1.0
G1 F300.0 Z-1.5
G3 F800.0 X-4.18532 Y36.81492 I-1.68033 J3.27234
G3 X-4.08789 Y36.86983 I-0.6873 J1.33327
G3 X-3.94468 Y36.96344 I-1.5782 J2.57095
G3 X-3.24497 Y37.64115 I-1.64363 J2.39703
G3 X-2.70095 Y38.88543 I-2.42112 J1.79963
G3 X-2.55503 Y39.79707 I-4.93056 J1.25669
G3 X-2.57219 Y40.68343 I-3.64089 J0.37284
G3 X-2.57268 Y40.68798 I-5.05931 J-0.54132
G3 X-2.58207 Y40.75905 I-1.49134 J-0.16092
G3 X-3.27354 Y42.37328 I-3.51423 J-0.55014
G3 X-3.85232 Y42.98108 I-2.92238 J-2.20337
G2 X-4.40495 Y43.59573 I2.28556 J2.61068
G2 X-5.44503 Y45.68867 I27.76532 J15.1028
G3 X-7.92581 Y50.84672 I-78.41457 J-34.53808
G3 X-7.9851 Y50.94995 I-1.32931 J-0.69493
G3 X-8.09035 Y51.15627 I-120.52524 J-61.35334
G3 X-8.11845 Y51.20865 I-1.3356 J-0.68277
G2 X-8.46481 Y51.90126 I6.96294 J3.91494
G3 X-8.98471 Y53.29833 I-11.06235 J-3.32142
G3 X-9.44601 Y54.21936 I-10.58656 J-4.72626
G2 X-9.95637 Y55.30056 I38.91048 J19.02797
G3 X-9.96831 Y55.43878 I-1.49881 J-0.05986
G3 X-9.984 Y55.54431 I-1.49061 J-0.16761
G3 X-10.31728 Y56.71775 I-5.0908 J-0.81183
G3 X-10.41061 Y56.94747 I-6.27995 J-2.41772
G3 X-11.20287 Y58.32264 I-4.76838 J-1.83136
G3 X-11.26595 Y58.39932 I-1.18932 J-0.91407
G3 X-14.14079 Y60.11746 I-3.91304 J-3.28321
G3 X-14.37193 Y60.1685 I-1.33538 J-5.49895
G3 X-14.41178 Y60.17587 I-0.29271 J-1.47116
G3 X-14.4954 Y60.18994 I-2.67767 J-15.65741
G3 X-16.88091 Y60.40312 I-2.23021 J-11.50281
G3 X-17.08689 Y60.40318 I-0.12673 J-78.13521
G3 X-17.13377 Y60.40312 I-0.00256 J-15.88472
G3 X-19.79037 Y60.35365 I0.12613 J-78.13521
G3 X-21.20026 Y59.18433 I0.05342 J-1.49905
G2 X-22.08293 Y55.43011 I-202.52688 J45.63587
G3 X-22.66681 Y53.10449 I839.03115 J-211.88909
G2 X-22.8358 Y52.45189 I-201.06033 J51.71571
G3 X-23.81692 Y48.41263 I113.29141 J-29.65669
G3 X-24.82842 Y43.38782 I87.27802 J-20.18339
G3 X-25.07592 Y41.95056 I115.28403 J-20.59262
G3 X-25.51679 Y38.6075 I49.1198 J-8.17826
G3 X-24.03459 Y36.96189 I1.49291 J-0.14565
G1 X-12.88799 Y36.8823
G3 X-11.38176 Y38.26644 I0.01071 J1.49996
G1 X-11.22015 Y40.35316
G3 X-10.49722 Y39.92063 I1.10061 J1.01914
G3 X-9.8881 Y39.78907 I1.87632 J7.2118
G2 X-9.34241 Y38.33443 I-15.88933 J-6.79028
G3 X-9.33197 Y38.3034 I1.4267 J0.46318
G1 X-9.04221 Y37.47306
G3 X-7.75203 Y36.47257 I1.41625 J0.4942
G3 X-5.83014 Y36.40627 I1.62795 J19.30171
G3 X-4.89096 Y36.53895 I-0.0407 J3.67832
G3 X-4.19051 Y36.81225 I-0.69734 J2.82152
G0 Z3.0
G0 X0.59712 Y37.31448
G0 Z1.0
G1 F300.0 Z-1.5
G3 F800.0 X0.81137 Y38.10233 I-6.26321 J2.1263
G3 X0.89866 Y38.50528 I-8.44288 J2.03979
G3 X1.30437 Y38.44872 I0.90612 J5.01642
G3 X2.16634 Y37.48256 I6.16737 J4.63466
G3 X1.89816 Y37.43857 I0.69079 J-5.05058
G2 X1.32698 Y37.37265 I-0.72813 J3.80142
G3 X0.59712 Y37.31448 I0.05388 J-5.28417
G1 F300.0 X0.7751 Y36.12775
G3 F800.0 X-1.51161 Y34.97228 I0.60577 J-4.03927
G3 X-2.05002 Y35.40912 I-2.71516 J-2.79628
G3 X-1.31631 Y36.2168 I-3.53828 J3.95135
G3 X-0.35985 Y38.36447 I-4.34978 J3.22398
G3 X-0.16575 Y39.59481 I-7.27166 J1.77764
G3 X-0.13846 Y40.13985 I-6.03017 J0.5751
G3 X0.12985 Y40.00234 I2.47278 J4.49452
G3 X1.8999 Y39.62526 I1.67493 J3.51936
G3 X2.04629 Y39.47888 I2.82813 J2.68197
G3 X2.12467 Y39.36181 I3.27742 J2.10946
G3 X3.36582 Y38.02546 I5.34707 J3.72157
G3 X3.51248 Y37.91208 I2.45649 J3.02605
G3 X5.36663 Y36.68324 I13.44741 J18.27719
G3 X5.43786 Y36.64192 I1.99134 J3.3505
G3 X2.35393 Y36.29696 I8.00007 J-85.47794
G3 X2.12391 Y36.25999 I0.50321 J-3.86498
G2 X1.35504 Y36.17284 I-0.95388 J4.98
G3 X0.7751 Y36.12775 I0.02582 J-4.08436
G0 Z3.0
G0 X-9.14982 Y35.74129
G0 Z1.0
G1 F300.0 Z-1.5
G3 F800.0 X-12.16627 Y32.79202 I-0.33263 J-2.67701
G3 X-12.0654 Y32.05369 I10.68973 J1.08441
G3 X-12.35591 Y32.0243 I0.12584 J-2.69466
G3 X-12.86589 Y32.77963 I-3.90002 J-2.08334
G3 X-13.71368 Y33.45349 I-2.06826 J-1.73187
G3 X-14.79526 Y33.99615 I-61.51083 J-121.24788
G3 X-18.89463 Y35.72756 I-9.82512 J-17.54385
G1 X-12.89654 Y35.68473
G3 X-10.32407 Y37.51155 I0.01926 J2.69753
G1 X-10.17295 Y37.07848
G3 X-9.14982 Y35.74129 I2.54698 J0.88877
G0 Z3.0
G0 X-2.86676 Y25.32779
G0 Z1.0
G1 F300.0 Z-1.5
G3 F800.0 X-2.51866 Y25.5092 I-1.625 J3.54269
G3 X-2.26358 Y23.7255 I24.01349 J2.52402
G3 X-2.31112 Y23.78294 I-5.13091 J-4.19848
G2 X-2.47474 Y24.06648 I0.97095 J0.74927
G3 X-2.86676 Y25.32779 I-4.79812 J-0.7997
G0 Z3.0
G0 X-2.15458 Y8.40189
G0 Z1.0
G1 F300.0 Z-1.5
G3 F800.0 X-1.76576 Y8.07695 I4.22957 J4.66589
G3 X1.30593 Y6.49479 I5.87662 J7.63631
G3 X2.14266 Y6.3014 I1.8332 J6.02488
G3 X3.13295 Y6.20758 I1.22218 J7.6268
G3 X3.25356 Y6.07058 I5.39029 J4.62386
G3 X3.4436 Y5.8693 I4.67296 J4.22175
G3 X-1.2885 Y5.85716 I20.74978 J-9006.88296
G2 X-5.16987 Y5.85388 I-7.76435 J6896.84352
G3 X-4.81705 Y6.24197 I-4.47937 J4.42662
G3 X-3.72507 Y7.71825 I-11.8872 J9.93479
G3 X-3.52937 Y7.78245 I-1.86483 J6.01516
G3 X-2.15458 Y8.40189 I-2.74461 J7.92666
G1 F300.0 X-1.34864 Y9.29097
G3 F800.0 X-1.03391 Y9.02795 I3.42363 J3.77681
G3 X1.65524 Y7.64282 I5.14477 J6.68531
G3 X2.33254 Y7.48628 I1.48389 J4.87684
G3 X3.71204 Y7.41334 I1.03231 J6.44192
G3 X4.14399 Y6.87503 I4.8112 J3.41809
G3 X6.02189 Y5.56392 I3.78254 J3.4173
G3 X10.05136 Y4.74989 I4.20679 J10.44372
G3 X11.09881 Y4.74552 I0.60749 J20.12003
G3 X11.93872 Y4.83386 I-0.11142 J5.09638
G3 X12.16881 Y4.68517 I2.8808 J4.20553
G3 X-1.28613 Y4.65716 I12.02456 J-9005.69883
G2 X-11.8629 Y4.65336 I-7.76672 J6898.04352
G3 X-8.46387 Y5.32264 I-6.60604 J42.51566
G3 X-5.73782 Y7.01151 I-1.18538 J4.95786
G3 X-4.48966 Y8.75596 I-10.96644 J9.16525
G3 X-3.922 Y8.9164 I-1.10024 J4.97745
G3 X-1.96319 Y9.95673 I-2.35198 J6.79271
G3 X-1.34864 Y9.29097 I4.03818 J3.11105
G0 Z3.0
G0 X19.91587 Y4.69219
G0 Z1.0
G1 F300.0 Z-1.5
G1 F800.0 X26.00398 Y5.66601
G3 X26.19208 Y5.69973 I-0.80516 J5.03361
G3 X29.05533 Y5.78943 I1.27843 J4.93469
G2 X30.16621 Y6.13728 I14.27969 J-43.65501
G3 X32.92131 Y5.24526 I56.5722 J170.02897
G3 X34.65858 Y5.01411 I1.53096 J4.86227
G3 X34.96982 Y4.68675 I3.84811 J3.34694
G3 X19.91587 Y4.69219 I-10.77644 J-9005.70041
G1 F300.0 X19.91644 Y3.49219
G3 F800.0 X-1.28375 Y3.45716 I4.27694 J-9004.50585
G2 X-26.66411 Y3.47526 I-7.76909 J6899.24352
G3 X-25.62345 Y4.154 I-1.5817 J3.56223
G3 X-24.93957 Y4.90668 I-3.59722 J3.95545
G3 X-24.33272 Y4.8916 I0.39992 J3.87703
G2 X-22.6327 Y4.97147 I7.32042 J-137.68693
G3 X-22.60992 Y4.97247 I-0.15888 J3.89436
G3 X-13.80573 Y5.60445 I-8.21648 J176.10548
G3 X-13.74149 Y5.61122 I-0.3763 J3.87939
G3 X-8.74291 Y6.48974 I-4.72745 J41.55779
G3 X-6.65859 Y7.78105 I-0.90633 J3.79076
G3 X-5.24156 Y9.85141 I-10.04567 J8.39571
G3 X-4.31463 Y10.05035 I-0.34834 J3.882
G3 X-1.91814 Y11.59969 I-1.95935 J5.65876
G3 X-1.64898 Y11.91741 I-2.83505 J2.67466
G3 X-0.30206 Y9.97894 I3.72397 J1.15037
G3 X2.00456 Y8.79085 I4.41291 J5.73432
G3 X2.52241 Y8.67117 I1.13457 J3.72881
G3 X4.33571 Y8.69336 I0.84243 J5.25703
G3 X5.03441 Y7.67948 I4.18753 J2.13807
G3 X6.47025 Y6.67701 I2.89211 J2.61285
G3 X10.0788 Y5.94961 I3.75843 J9.33062
G3 X11.07258 Y5.94524 I0.58004 J18.92031
G3 X12.21265 Y6.1419 I-0.08519 J3.89667
G3 X15.43514 Y5.19072 I2.60688 J2.8975
G1 X25.81444 Y6.85095
G3 X26.22769 Y6.94028 I-0.61562 J3.84868
G3 X28.68225 Y6.92996 I1.24282 J3.69414
G2 X30.18856 Y7.39494 I14.65276 J-44.79554
G3 X33.2817 Y6.38987 I56.54984 J168.77131
G3 X35.20611 Y6.28353 I1.17057 J3.71767
G3 X37.22989 Y4.67598 I3.30059 J2.07753
G3 X39.66116 Y3.88271 I23.07112 J66.58718
G3 X39.75447 Y3.85539 I1.14225 J3.72898
G3 X44.05476 Y4.99513 I1.18064 J4.22788
G2 X44.11808 Y5.03918 I0.19694 J-0.21552
G2 X46.47856 Y5.67614 I2.98956 J-6.38663
G3 X46.48768 Y5.67697 I-0.34791 J3.88445
G2 X47.0946 Y5.7207 I1.41071 J-15.34514
G3 X46.83179 Y3.46474 I3.57454 J-1.5597
G3 X19.91644 Y3.49219 I-22.63841 J-9004.4784
G1 F300.0 X19.91701 Y2.29219
G3 F800.0 X-1.28138 Y2.25716 I4.27637 J-9003.30585
G2 X-35.65131 Y2.30405 I-7.77147 J6900.44352
G3 X-35.41522 Y2.56596 I-1.88315 J1.93487
G3 X-34.85433 Y3.44953 I-4.00872 J3.16455
G3 X-34.78387 Y3.41884 I1.11245 J2.45754
G3 X-31.16349 Y3.0359 I2.449 J5.84807
G3 X-30.67912 Y3.17485 I-0.4984 J2.65116
G3 X-27.24514 Y4.53236 I-188.55014 J481.98238
G3 X-26.43083 Y5.04178 I-1.00067 J2.50514
G3 X-25.70938 Y5.90385 I-2.78985 J3.06767
G3 X-25.47844 Y6.25473 I-16.66768 J11.22165
G3 X-24.39643 Y6.08991 I0.93879 J2.52898
G2 X-22.68161 Y6.17047 I7.38413 J-138.88524
G3 X-22.66585 Y6.17116 I-0.10996 J2.69536
G3 X-13.92158 Y6.79885 I-8.16055 J174.90678
G3 X-13.87712 Y6.80353 I-0.26044 J2.685
G3 X-9.02195 Y7.65685 I-4.59181 J40.36548
G3 X-7.57936 Y8.55058 I-0.62729 J2.62365
G3 X-6.07724 Y10.83926 I-9.1249 J7.62618
G3 X-5.94508 Y11.0593 I-4.28085 J2.72096
G3 X-4.70726 Y11.1843 I0.35518 J2.67412
G3 X-2.791 Y12.42317 I-1.56672 J4.52481
G3 X-2.38281 Y12.98659 I-1.96219 J1.85118
G3 X-1.92967 Y15.41773 I-3.52443 J1.91472
G2 X-2.02325 Y16.99859 I79.30085 J5.48755
G2 X-1.94856 Y18.91551 I34.65045 J-0.39007
G3 X-1.94267 Y19.07302 I-2.69162 J0.17959
G3 X-2.30871 Y21.41776 I-7.30961 J0.05982
G3 X-2.37969 Y21.60882 I-2.56243 J-0.84322
G3 X-3.24325 Y23.02692 I-5.01479 J-2.0818
G2 X-3.6429 Y23.76734 I1.90308 J1.50529
G3 X-4.99336 Y26.13575 I-3.62996 J-0.50056
G3 X-4.11188 Y26.19976 I-0.02373 J6.42802
G3 X-1.80279 Y28.65491 I-0.37988 J2.67072
G1 X-1.69628 Y29.9835
G3 X-1.22471 Y28.85181 I3.87033 J0.94864
G3 X-1.44907 Y27.73971 I2.47302 J-1.07759
G3 X-0.82507 Y22.71056 I22.9439 J0.29351
G3 X-0.80248 Y22.62247 I2.62402 J0.62575
G2 X-0.44315 Y21.13495 I-23.97472 J-6.57871
G3 X-0.58624 Y20.90703 I2.21031 J-1.54647
G3 X-1.10898 Y18.95194 I3.57616 J-2.00361
G3 X-0.99472 Y16.0991 I25.45043 J-0.4094
G3 X-0.99361 Y16.08779 I2.68514 J0.25896
G3 X-0.59902 Y12.71179 I105.70261 J10.64359
G3 X0.42979 Y10.92994 I2.67401 J0.35599
G3 X2.35387 Y9.93889 I3.68106 J4.78332
G3 X2.71229 Y9.85605 I0.78526 J2.58078
G3 X5.05571 Y10.16666 I0.65256 J4.07215
G3 X5.34258 Y9.36676 I4.92079 J1.31333
G3 X5.36086 Y9.32751 I2.45443 J1.1193
G3 X5.92484 Y8.48393 I3.16239 J1.50392
G3 X6.91861 Y7.7901 I2.00168 J1.8084
G3 X10.10598 Y7.14934 I3.31007 J8.21753
G3 X11.04635 Y7.14495 I0.55286 J17.72057
G3 X12.11102 Y7.38946 I-0.05896 J2.69696
G1 X12.53313 Y7.58285
G1 X12.69908 Y7.37184
G3 X15.2456 Y6.37566 I2.12045 J1.66756
G1 X25.6249 Y8.03589
G3 X26.26447 Y8.22143 I-0.42608 J2.66374
G3 X28.30918 Y8.0705 I1.20605 J2.41298
G2 X30.18703 Y8.6428 I15.02584 J-45.93607
G2 X30.23826 Y8.64422 I0.03033 J-0.16912
G3 X33.6421 Y7.53447 I56.50014 J167.52203
G3 X35.8638 Y7.8087 I0.81017 J2.57307
G3 X37.62275 Y5.80985 I2.6429 J0.55235
G3 X40.01262 Y5.03008 I22.67826 J65.45331
G3 X40.07722 Y5.01117 I0.79079 J2.5816
G3 X43.21349 Y5.85107 I0.85788 J3.0721
G2 X43.59611 Y6.1198 I1.03821 J-1.07146
G2 X46.37151 Y6.87136 I3.51152 J-7.46725
G3 X46.37783 Y6.87193 I-0.24086 J2.68924
G2 X48.81857 Y6.91617 I1.52056 J-16.5401
G3 X48.85093 Y6.91457 I0.14958 J2.69585
G2 X50.13564 Y6.85585 I-12.41833 J-285.78025
G1 X50.13604 Y6.80785
G3 X48.75209 Y2.25971 I0.5331 J-2.64685
G3 X19.91701 Y2.29219 I-24.55871 J-9003.27337
G0 Z3.0
G0 X14.02527 Y33.78274
G0 Z1.0
G1 F300.0 Z-1.5
G3 F800.0 X13.14531 Y35.16449 I-2.60792 J-0.68977
G1 X19.06356 Y35.10533
G3 X17.56686 Y34.72434 I34.18563 J-137.42636
G3 X17.55447 Y34.72108 I0.67971 J-2.61056
G3 X14.02527 Y33.78274 I1157.6165 J-4361.01486
G0 Z3.0
G0 X22.36529 Y35.88478
G0 Z1.0
G1 F300.0 Z-1.5
G3 F800.0 X22.83969 Y36.52867 I-1.9106 J1.90438
G1 X23.23122 Y36.07544
G3 X22.36529 Y35.88478 I30.01797 J-138.39647
G0 Z3.0
G0 X-5.53389 Y57.56584
G0 Z1.0
G1 F300.0 Z-1.5
G3 F800.0 X-5.86345 Y58.50181 I-9.5409 J-2.83336
G3 X-5.96576 Y58.75434 I-10.73378 J-4.20177
G3 X-6.35307 Y59.61315 I-9.21323 J-3.63822
G3 X-5.21221 Y59.88269 I-2.55544 J13.36512
G3 X-5.53776 Y57.73965 I5.97051 J-2.0032
G1 X-5.53389 Y57.56584
G1 F300.0 X-6.68424 Y57.22422
G3 F800.0 X-6.97753 Y58.0558 I-8.39055 J-2.49174
G3 X-7.07737 Y58.30211 I-9.6197 J-3.75576
G3 X-8.3806 Y60.55384 I-8.10162 J-3.186
G3 X-8.40234 Y60.58137 I-4.01159 J-3.14526
G3 X-4.64696 Y61.32587 I-0.50617 J12.3969
G3 X-4.64511 Y61.32654 I-1.75089 J4.78747
G3 X-3.58081 Y61.78424 I-3.61417 J9.87043
G3 X-2.61481 Y62.40939 I-2.26889 J4.56483
G3 X-2.14305 Y62.07088 I3.20291 J3.96572
G3 X-4.33805 Y57.7663 I2.90134 J-4.19139
G1 X-4.26597 Y54.52084
G3 X-4.1182 Y53.41048 I5.09634 J0.11319
G3 X-3.88554 Y52.63344 I8.11523 J2.00652
G3 X-4.16193 Y51.41901 I6.66255 J-2.155
G3 X-4.16467 Y51.39853 I5.05141 J-0.68471
G3 X-4.73758 Y52.51344 I-79.69493 J-40.24794
G3 X-4.83128 Y52.6846 I-4.51754 J-2.36165
G3 X-4.88705 Y52.79382 I-123.67907 J-63.088
G3 X-4.98254 Y52.97183 I-4.5389 J-2.32032
G2 X-5.09917 Y53.19388 I3.82703 J2.15177
G3 X-5.70031 Y54.76647 I-14.42799 J-4.61405
G3 X-6.25291 Y55.87928 I-13.87096 J-6.1944
G2 X-6.46943 Y56.3318 I35.71737 J17.36805
G3 X-6.68424 Y57.22422 I-8.60537 J-1.59932
G1 F300.0 X-7.83459 Y56.8826
G3 F800.0 X-8.09157 Y57.60968 I-7.24021 J-2.15012
G3 X-8.18905 Y57.85002 I-8.50565 J-3.30964
G3 X-9.32146 Y59.80897 I-6.98994 J-2.7339
G3 X-9.44473 Y59.95882 I-3.07073 J-2.4004
G3 X-13.6138 Y62.45667 I-5.73426 J-4.8427
G3 X-13.90406 Y62.52 I-1.86237 J-7.83815
G3 X-14.00762 Y62.53916 I-0.76057 J-3.82267
G3 X-14.07175 Y62.55001 I-3.08183 J-18.0207
G3 X-14.09748 Y62.55491 I-2.65387 J-13.86287
G1 X-13.31205 Y62.62922
G3 X-13.14538 Y62.64862 I-0.36712 J3.88027
G3 X-12.65131 Y62.41694 I1.8977 J3.40441
G3 X-11.30947 Y62.01838 I3.16674 J8.20341
G3 X-11.29257 Y62.01483 I0.80887 J3.81274
G3 X-9.7908 Y61.80582 I2.32408 J11.19908
G3 X-5.05912 Y62.45286 I0.88229 J11.17244
G3 X-5.05771 Y62.45338 I-1.33872 J3.66048
G3 X-4.11491 Y62.85882 I-3.20157 J8.7436
G3 X-2.62191 Y64.16442 I-1.73478 J3.49025
G3 X1.35384 Y62.55347 I3.21 J2.21069
G3 X1.75931 Y62.36358 I1.85304 J3.42893
G3 X0.68948 Y61.83802 I9.82846 J-21.35843
G3 X-0.19287 Y61.65925 I1.47437 J-9.54394
G3 X-3.13835 Y57.79295 I0.95117 J-3.77976
G1 X-3.06626 Y54.54749
G3 X-2.95328 Y53.69851 I3.89664 J0.08655
G3 X-2.60497 Y52.64687 I6.95031 J1.71849
G3 X-2.97281 Y51.25782 I5.38198 J-2.16843
G3 X-2.98 Y51.20169 I3.86228 J-0.52353
G3 X-3.03837 Y48.53275 I13.49661 J-1.63026
G2 X-2.98102 Y46.58647 I-50.16315 J-2.45212
G3 X-2.98921 Y46.09323 I11.13064 J-0.43148
G2 X-3.25547 Y46.66562 I26.34958 J12.6053
G3 X-5.80103 Y51.9575 I-80.60413 J-35.51503
G3 X-5.88622 Y52.11184 I-3.45409 J-1.8057
G3 X-5.95553 Y52.24761 I-122.62413 J-62.51524
G3 X-6.02854 Y52.38371 I-3.47042 J-1.77411
G2 X-6.21788 Y52.75172 I4.87303 J2.73988
G3 X-6.79584 Y54.27676 I-13.30928 J-4.17189
G3 X-7.3188 Y55.32721 I-12.77543 J-5.70469
G2 X-7.62364 Y55.96696 I36.78326 J17.92012
G3 X-7.83459 Y56.8826 I-7.45115 J-1.23448
G0 Z3.0
G0 X-4.79762 Y77.60866
G0 Z1.0
G1 F300.0 Z-1.5
G3 F800.0 X-6.13052 Y79.42338 I-18.78105 J-12.39765
G3 X-2.72953 Y80.80845 I-0.09314 J5.09675
G3 X-2.69399 Y80.7906 I2.3054 J4.5465
G3 X-4.79762 Y77.60866 I2.89167 J-4.19807
G1 F300.0 X-3.62171 Y77.36946
G3 F800.0 X-3.67903 Y76.18948 I3.81938 J-0.77693
G1 X-3.23298 Y71.89922
G3 X-3.04575 Y71.04567 I3.8767 J0.40305
G3 X-3.04618 Y71.04441 I6.02333 J-2.04201
G3 X-5.47135 Y76.42066 I-37.63431 J-13.74132
G3 X-5.60903 Y76.65443 I-3.42525 J-1.85982
G3 X-9.05306 Y80.79518 I-17.96964 J-11.44342
G1 X-6.47191 Y80.63045
G3 X-2.95763 Y82.39308 I0.24825 J3.88969
G3 X-0.74978 Y81.47098 I2.5335 J2.96187
G3 X-0.09694 Y81.45226 I0.49645 J5.92116
G3 X0.75127 Y81.02079 I2.17802 J3.23226
G3 X-0.19401 Y80.6682 I7.61777 J-21.86595
G3 X-0.95722 Y80.35496 I9.28499 J-23.70971
G3 X-0.96769 Y80.35045 I1.53807 J-3.58129
G3 X-1.58351 Y80.05933 I4.09912 J-9.468
G3 X-3.62171 Y77.36946 I1.78119 J-3.46679
G0 Z3.0
G0 X-2.64253 Y101.80139
G0 Z1.0
G1 F300.0 Z-1.5
G3 F800.0 X-2.38433 Y102.0799 I-8.88994 J8.50052
G3 X-2.26335 Y101.90252 I10.22168 J6.84158
G3 X-2.64253 Y101.80139 I6.92672 J-26.73111
G1 F300.0 X-2.32504 Y100.64415
G3 F800.0 X-3.78229 Y100.19878 I6.98841 J-25.47273
G3 X-4.25189 Y100.02845 I3.54837 J-10.51503
G3 X-5.72639 Y100.8415 I-8.02973 J-12.81855
G3 X-2.69936 Y103.57985 I-5.80609 J9.46041
G1 X-2.21567 Y104.21544
G3 X-0.09193 Y101.15382 I10.05302 J4.70603
G3 X-2.32504 Y100.64415 I4.7553 J-25.9824
G1 F300.0 X-2.00755 Y99.48691
G3 F800.0 X-3.3986 Y99.06177 I6.67092 J-24.3155
G3 X-4.37489 Y98.67346 I3.16468 J-9.37802
G3 X-6.42651 Y99.84506 I-7.90672 J-11.46357
G3 X-6.47619 Y99.86858 I-4.25892 J-8.93443
G3 X-8.54442 Y100.62145 I-5.19798 J-11.06213
G3 X-8.79339 Y100.68566 I-3.13809 J-11.65213
G3 X-8.70323 Y100.81479 I-1062.86427 J742.12217
G3 X-3.65429 Y104.30656 I-2.82924 J9.48712
G1 X-2.18157 Y106.24179
G3 X-1.82634 Y106.73978 I-7.87818 J5.99536
G1 X-1.7315 Y106.38236
G3 X3.05053 Y100.25567 I9.56885 J2.53912
G3 X0.23288 Y99.99309 I-0.01144 J-15.12598
G3 X-2.00755 Y99.48691 I4.43049 J-24.82167
G1 F300.0 X-1.69007 Y98.32967
G3 F800.0 X-3.01491 Y97.92477 I6.35344 J-23.15826
G3 X-4.48794 Y97.27003 I2.78099 J-8.24102
G3 X-6.93704 Y98.75905 I-7.79367 J-10.06013
G3 X-6.98653 Y98.7825 I-3.7484 J-7.84842
G3 X-8.85409 Y99.46209 I-4.68764 J-9.97606
G3 X-10.8726 Y99.8064 I-2.82842 J-10.49278
G3 X-9.43885 Y101.85758 I-1060.78505 J743.00143
G3 X-4.60922 Y105.03327 I-2.09362 J8.44433
G1 X-3.1365 Y106.9685
G3 X-1.37016 Y112.66277 I-6.92325 J5.26865
G2 X-1.12793 Y113.00381 I63.1728 J-44.61322
G1 X-1.07778 Y112.90098
G3 X-1.05685 Y108.5187 I8.42992 J-2.15093
G1 X-0.57164 Y106.69013
G3 X4.83475 Y100.75604 I8.40899 J2.23135
G1 X5.84488 Y98.72905
G3 X4.12795 Y99.01304 I-2.41375 J-9.26092
G3 X0.44968 Y98.81282 I-1.08887 J-13.88335
G3 X-1.69007 Y98.32967 I4.21369 J-23.6414
G1 F300.0 X-1.37258 Y97.17243
G3 F800.0 X-2.63122 Y96.78776 I6.03595 J-22.00102
G3 X-4.58517 Y95.78954 I2.3973 J-7.10401
G3 X-7.44771 Y97.67311 I-7.69644 J-8.57964
G3 X-7.49686 Y97.69643 I-3.23773 J-6.76248
G3 X-9.16376 Y98.30274 I-4.17731 J-8.88998
G3 X-12.60326 Y98.59267 I-2.51875 J-9.33342
G3 X-12.82244 Y99.11622 I-7.02285 J-2.6324
G3 X-10.15425 Y102.92963 I-1058.83521 J743.69161
G3 X-5.56415 Y105.75998 I-1.37822 J7.37228
G1 X-4.09143 Y107.69521
G3 X-2.59877 Y113.00121 I-5.96832 J4.54194
G2 X-1.11431 Y115.05646 I64.40141 J-44.95167
G1 X-0.91645 Y115.30779
G1 X0.20208 Y113.01425
G3 X0.10301 Y108.82647 I7.15006 J-2.26421
G1 X0.58823 Y106.9979
G3 X5.68696 Y101.73637 I7.24913 J1.92358
G1 X7.23035 Y98.6393
G3 X6.79576 Y97.25554 I6.90458 J-2.92861
G3 X6.58023 Y97.22347 I1.16309 J-8.55786
G3 X4.03738 Y97.81646 I-3.1491 J-7.75534
G3 X0.66659 Y97.63257 I-0.9983 J-12.68677
G3 X-1.37258 Y97.17243 I3.99678 J-22.46115
G1 F300.0 X-1.05509 Y96.0152
G3 F800.0 X-2.24753 Y95.65076 I5.71846 J-20.84378
G3 X-4.64676 Y94.17671 I2.01361 J-5.967
G3 X-4.87834 Y94.40816 I-8.71637 J-8.4899
G3 X-7.95859 Y96.58726 I-7.40327 J-7.19826
G3 X-8.0072 Y96.61035 I-2.72685 J-5.67663
G3 X-9.47344 Y97.14338 I-3.66697 J-7.80391
G3 X-13.45915 Y97.24813 I-2.20907 J-8.17406
G3 X-14.22632 Y99.20562 I-6.16696 J-1.28786
G3 X-11.0672 Y103.71842 I-1057.43133 J743.60221
G2 X-10.82737 Y104.04149 I24.71798 J-18.09805
G3 X-6.51908 Y106.48669 I-0.7051 J6.26042
G1 X-5.04636 Y108.42192
G3 X-3.85042 Y113.30217 I-5.01339 J3.81523
G2 X-2.06652 Y115.7869 I65.65306 J-45.25262
G1 X-0.67622 Y117.55282
G1 X1.50165 Y113.08709
G3 X1.26287 Y109.13424 I5.85049 J-2.33705
G1 X1.74809 Y107.30568
G3 X6.51689 Y102.76142 I6.08927 J1.6158
G1 X8.56425 Y98.65305
G3 X7.84913 Y96.1334 I5.57068 J-2.94237
G3 X6.43871 Y95.97718 I0.10972 J-7.43572
G3 X3.94691 Y96.61986 I-3.00758 J-6.50906
G3 X0.88365 Y96.45234 I-0.90783 J-11.49018
G3 X-1.05509 Y96.0152 I3.77972 J-21.28092
G1 F300.0 X-0.73761 Y94.85796
G3 F800.0 X-1.86384 Y94.51375 I5.40098 J-19.68654
G3 X-4.6048 Y92.3069 I1.62992 J-4.83
G3 X-4.80432 Y92.54891 I-12.54525 J-10.13936
G3 X-4.96544 Y92.74159 I-14.39158 J-11.87104
G3 X-5.72714 Y93.55972 I-8.39768 J-7.05479
G3 X-8.46981 Y95.50155 I-6.55447 J-6.34983
G3 X-8.51753 Y95.52428 I-2.21563 J-4.59092
G3 X-9.78312 Y95.98402 I-3.15664 J-6.71783
G3 X-14.34174 Y95.73261 I-1.89939 J-7.0147
G3 X-14.53298 Y95.6529 I1.8653 J-4.74407
G3 X-14.52693 Y95.86901 I-10.7298 J0.40827
G3 X-15.69287 Y99.20674 I-5.09918 J0.09127
G3 X-12.04378 Y104.41589 I-1055.96478 J743.60109
G2 X-11.45061 Y105.20104 I25.69456 J-18.79553
G3 X-11.30987 Y105.20677 I-0.90181 J23.86888
G3 X-7.47402 Y107.2134 I-0.2226 J5.09514
G1 X-6.00129 Y109.14863
G3 X-5.13257 Y113.55354 I-4.05846 J3.08852
G2 X-3.01866 Y116.51741 I66.93521 J-45.50399
G1 X-0.43599 Y119.79785
G1 X2.8282 Y113.10462
G3 X2.42273 Y109.44201 I4.52394 J-2.35457
G1 X2.90795 Y107.61345
G3 X7.27043 Y103.85309 I4.92941 J1.30803
G1 X7.31617 Y103.84797
G1 X9.93181 Y98.59925
G3 X9.11311 Y94.82115 I4.20312 J-2.88856
G3 X8.57949 Y94.90325 I-1.04092 J-4.99019
G3 X6.29325 Y94.70768 I-0.62064 J-6.20557
G3 X3.85656 Y95.42326 I-2.86212 J-5.23955
G3 X1.10088 Y95.27214 I-0.81748 J-10.29358
G3 X-0.73761 Y94.85796 I3.56249 J-20.10072
G1 F300.0 X-0.42012 Y93.70072
G3 F800.0 X-1.48015 Y93.37675 I5.08349 J-18.5293
G3 X-4.12777 Y89.85485 I1.24623 J-3.69299
G1 X-4.14267 Y89.51561
G3 X-4.49362 Y90.08788 I-15.05323 J-8.83773
G3 X-5.72641 Y91.78094 I-12.65643 J-7.92033
G3 X-5.88255 Y91.96769 I-13.46949 J-11.10306
G3 X-6.57612 Y92.71141 I-7.48057 J-6.28088
G3 X-8.98158 Y94.41608 I-5.7055 J-5.50151
G3 X-9.02787 Y94.4382 I-1.70385 J-3.50545
G3 X-10.09281 Y94.82466 I-2.6463 J-5.63176
G3 X-13.90264 Y94.61584 I-1.5897 J-5.85534
G3 X-14.63785 Y94.23194 I1.4262 J-3.62729
G1 X-15.82965 Y94.65358
G3 X-15.72674 Y95.89048 I-9.43312 J1.40759
G3 X-17.26261 Y99.06251 I-3.89938 J0.06979
G3 X-13.02052 Y105.11316 I-1054.39504 J743.74532
G2 X-12.04182 Y106.38614 I26.6713 J-19.49279
G3 X-11.36225 Y106.40563 I-0.31059 J22.68378
G3 X-8.42895 Y107.94011 I-0.17022 J3.89628
G1 X-6.95622 Y109.87534
G3 X-6.45839 Y113.73388 I-3.10353 J2.36181
G2 X-3.97073 Y117.24802 I68.26103 J-45.68433
G1 X-0.19577 Y122.04288
G1 X4.19498 Y113.03966
G3 X3.58259 Y109.74978 I3.15716 J-2.28962
G1 X4.06781 Y107.92122
G3 X7.40383 Y105.04565 I3.76955 J1.00026
G1 X8.09881 Y104.96791
G1 X11.35097 Y98.44191
G3 X10.36243 Y94.72163 I2.78396 J-2.73122
G1 X10.67763 Y93.51938
G3 X10.56826 Y93.50096 I0.59247 J-3.85231
G2 X9.7746 Y93.43797 I-0.705 J3.85115
G2 X9.17277 Y93.56994 I0.63494 J4.33368
G3 X8.46007 Y93.70921 I-1.10058 J-3.73899
G3 X6.14034 Y93.39445 I-0.50122 J-5.01153
G3 X3.76643 Y94.22664 I-2.70921 J-3.92633
G3 X1.31834 Y94.09198 I-0.72734 J-9.09696
G3 X-0.42012 Y93.70072 I3.34503 J-18.92056
G1 F300.0 X-0.10263 Y92.54348
G3 F800.0 X-1.09646 Y92.23974 I4.766 J-17.37206
G3 X-2.92892 Y89.80217 I0.86254 J-2.55599
G1 X-3.11913 Y85.47337
G3 X-0.64952 Y82.66678 I2.695 J-0.11842
G3 X0.27601 Y82.67984 I0.39619 J4.72535
G3 X1.68109 Y82.01674 I1.80507 J2.00468
G1 X9.50697 Y80.84338
G3 X9.99613 Y80.81504 I0.39999 J2.66778
G3 X10.23649 Y80.65596 I2.17134 J3.01966
G3 X9.40044 Y80.03714 I4.06047 J-6.36006
G2 X8.56428 Y79.40677 I-13.01115 J16.38879
G3 X8.12117 Y79.6991 I-1.69986 J-2.09464
G3 X7.07285 Y80.21221 I-9.23643 J-17.54304
G1 X7.07107 Y80.21309
G3 X7.02434 Y80.23547 I-1.18877 J-2.42154
G3 X6.78081 Y80.34182 I-2.21367 J-4.73718
G3 X6.75646 Y80.35237 I-7.89607 J-18.18576
G3 X6.6049 Y80.41257 I-1.07106 J-2.47586
G3 X3.37904 Y80.5395 I-1.81208 J-4.99787
G3 X2.80592 Y80.39325 I5.71194 J-23.58101
G3 X0.24668 Y79.55204 I5.56312 J-21.23841
G3 X-0.48367 Y79.25235 I8.8443 J-22.59355
G3 X-0.49092 Y79.24923 I1.06453 J-2.47867
G3 X-1.03512 Y78.99196 I3.62235 J-8.36678
G3 X-2.48546 Y76.31357 I1.23279 J-2.39943
G1 X-2.03942 Y72.02331
G3 X-1.75311 Y71.06443 I2.68314 J0.27896
G3 X-2.17556 Y68.73646 I4.73069 J-2.06077
G3 X-2.17603 Y68.64462 I36.64111 J-0.23296
G3 X-2.17293 Y68.00647 I14.32642 J-0.2495
G3 X-2.1042 Y66.20597 I36.63848 J0.49703
G3 X1.54893 Y63.85443 I2.69229 J0.16915
G3 X4.75246 Y63.77147 I1.65795 J2.12797
G1 X5.16727 Y64.06145
G2 X5.30107 Y63.89281 I-2.9496 J-2.47755
G3 X5.35377 Y63.82472 I2.1593 J1.61693
G3 X5.64248 Y63.46993 I21.25815 J17.00378
G3 X7.55356 Y62.49767 I2.07799 J1.72017
G3 X12.59402 Y62.33504 I5.26093 J84.86289
G3 X14.31088 Y62.41709 I0.38105 J10.03028
G3 X15.29013 Y62.67117 I-0.44587 J3.73256
G3 X15.90335 Y63.02243 I-1.0227 J2.49622
G1 X16.00745 Y62.96948
G3 X15.01691 Y62.39734 I3.58255 J-7.346
G2 X12.20942 Y60.76229 I-121.03004 J204.58898
G3 X10.77017 Y61.85326 I-2.25518 J-1.48028
G3 X3.07551 Y61.62773 I-3.52504 J-11.10856
G3 X3.00262 Y61.59858 I0.96512 J-2.51905
G3 X1.06602 Y60.67967 I8.58515 J-20.59343
G3 X0.09997 Y60.49553 I1.09783 J-8.38559
G3 X-1.93864 Y57.81959 I0.65832 J-2.61604
G1 X-1.86656 Y54.57413
G3 X-1.78836 Y53.98654 I2.69693 J0.0599
G3 X-1.31943 Y52.72401 I5.78539 J1.43046
G3 X-1.28069 Y52.65035 I2.40648 J1.21897
G3 X-1.78368 Y51.09664 I4.0577 J-2.17191
G3 X-1.78866 Y51.05779 I2.67315 J-0.36234
G3 X-1.84064 Y48.60838 I12.30527 J-1.48636
G2 X-1.78078 Y46.56825 I-51.36089 J-2.52775
G3 X-1.44113 Y43.54709 I9.9304 J-0.41327
G3 X-1.40456 Y43.42421 I2.60308 J0.70782
G3 X0.64553 Y41.08589 I3.73888 J1.21016
G3 X2.42831 Y40.89715 I1.15925 J2.43581
G3 X2.92734 Y40.29861 I2.29972 J1.41008
G2 X3.01546 Y40.19227 I-0.31262 J-0.34872
G3 X3.1096 Y40.04732 I2.30825 J1.39608
G3 X4.12212 Y38.95712 I4.36215 J3.03606
G3 X4.22363 Y38.87865 I1.70018 J2.09438
G3 X5.97973 Y37.7148 I12.73626 J17.31062
G3 X6.84706 Y37.38497 I1.37825 J2.31894
G3 X8.01771 Y35.64177 I2.64823 J0.51375
G3 X2.50885 Y35.10701 I5.42022 J-84.47779
G3 X2.34965 Y35.08142 I0.34828 J-2.67502
G2 X1.37822 Y34.97292 I-1.17962 J6.15857
G3 X-1.30651 Y33.13636 I0.00264 J-2.88444
G3 X-1.54428 Y32.46111 I6.78123 J-2.76731
G3 X-3.77721 Y34.83588 I-2.68249 J-0.28511
G1 X-5.97298 Y35.20699
G3 X-5.81429 Y35.20877 I-0.15111 J20.56729
G3 X-4.58749 Y35.38035 I-0.05655 J4.87582
G3 X-3.62886 Y35.75443 I-1.00082 J3.98012
G3 X-3.46136 Y35.84919 I-1.24376 J2.39376
G3 X-3.26434 Y35.97784 I-2.20473 J3.59159
G3 X-2.2816 Y36.92969 I-2.32396 J3.38263
G3 X-1.53132 Y38.6259 I-3.38449 J2.51109
G3 X-1.36158 Y39.69581 I-6.10019 J1.51621
G3 X-1.38369 Y40.83176 I-4.83434 J0.47411
G3 X-1.39888 Y40.94428 I-2.68034 J-0.3047
G3 X-2.3202 Y43.09813 I-4.69742 J-0.73537
G3 X-3.07242 Y43.89004 I-3.87572 J-2.92822
G2 X-3.38887 Y44.23427 I1.50566 J1.70172
G2 X-4.35131 Y46.17659 I26.74924 J14.46426
G3 X-6.86449 Y51.40156 I-79.50828 J-35.026
G3 X-6.93883 Y51.53449 I-2.39064 J-1.24976
G3 X-7.02401 Y51.70139 I-121.57151 J-61.93789
G3 X-7.07454 Y51.79559 I-2.40194 J-1.22789
G2 X-7.34072 Y52.32114 I5.91903 J3.328
G3 X-7.89137 Y53.78706 I-12.18644 J-3.74131
G3 X-8.3839 Y54.77359 I-11.6799 J-5.21499
G2 X-8.78339 Y55.61556 I37.84836 J18.47374
G3 X-8.80349 Y55.74628 I-2.67553 J-0.34439
G3 X-9.20558 Y57.1634 I-6.27131 J-1.0138
G3 X-9.30085 Y57.39813 I-7.39165 J-2.86336
G3 X-10.26268 Y59.06455 I-5.87814 J-2.28201
G3 X-10.35668 Y59.1788 I-2.12951 J-1.65597
G3 X-13.87761 Y61.28593 I-4.82231 J-4.06269
G3 X-14.13823 Y61.34307 I-1.59856 J-6.66741
G3 X-14.2099 Y61.35633 I-0.5264 J-2.64574
G3 X-14.2837 Y61.36878 I-2.87955 J-16.83787
G3 X-16.8877 Y61.60073 I-2.44191 J-12.68165
G3 X-17.08741 Y61.60078 I-0.11994 J-79.33283
G3 X-17.13639 Y61.60072 I-0.00204 J-17.08232
G3 X-19.83302 Y61.55049 I0.12876 J-79.33281
G3 X-20.10744 Y61.52664 I0.09607 J-2.69589
G3 X-19.43239 Y64.07983 I-5876.5965 J1555.10848
G3 X-17.42617 Y63.44534 I1.75213 J2.05111
G1 X-13.42508 Y63.82388
G3 X-12.90574 Y63.92514 I-0.25409 J2.68561
G3 X-12.21915 Y63.53643 I1.65806 J2.12788
G3 X-11.06043 Y63.19225 I2.73459 J7.08392
G3 X-11.04873 Y63.1898 I0.55984 J2.63887
G3 X-9.70042 Y63.00242 I2.08025 J10.02411
G3 X-5.47129 Y63.57986 I0.79191 J9.97584
G3 X-5.47031 Y63.58021 I-0.92655 J2.53348
G3 X-4.64902 Y63.93341 I-2.78896 J7.61676
G3 X-3.15889 Y66.54047 I-1.20067 J2.41566
G3 X-3.70186 Y69.26691 I-11.07073 J-0.78745
G3 X-3.92562 Y69.95227 I-14.18148 J-4.25079
G3 X-3.92721 Y69.95675 I-2.54324 J-0.89942
G3 X-4.15209 Y70.57434 I-41.17515 J-14.64324
G3 X-6.52592 Y75.84805 I-36.5284 J-13.27125
G3 X-6.62121 Y76.00985 I-2.37068 J-1.28721
G3 X-10.04735 Y80.07956 I-16.95746 J-10.79884
G3 X-10.11644 Y80.14032 I-1.81566 J-1.9951
G3 X-10.32458 Y80.31672 I-73.86098 J-86.93992
G3 X-10.93963 Y80.83301 I-13.18697 J-15.08482
G3 X-12.64526 Y82.22689 I-73.03779 J-87.63261
G1 X-6.39548 Y81.82801
G3 X-3.58242 Y85.06869 I0.17182 J2.69212
G3 X-3.91088 Y86.21134 I-7.75467 J-1.61056
G3 X-4.15789 Y86.85115 I-15.28503 J-5.53346
G3 X-4.88431 Y88.38694 I-12.96634 J-5.19337
G3 X-5.50763 Y89.44614 I-14.31159 J-7.70907
G3 X-6.64848 Y91.01294 I-11.64242 J-7.27859
G3 X-6.7997 Y91.19384 I-12.54742 J-10.33506
G3 X-7.42535 Y91.86327 I-6.56342 J-5.50704
G3 X-9.49441 Y93.33106 I-4.85627 J-4.65338
G3 X-9.5382 Y93.35213 I-1.19103 J-2.42043
G3 X-10.40251 Y93.6653 I-2.13597 J-4.54568
G3 X-13.46354 Y93.49906 I-1.28 J-4.69598
G3 X-14.40387 Y92.87589 I0.9871 J-2.51051
G3 X-14.44554 Y92.89102 I-0.94219 J-2.53027
G1 X-17.2178 Y93.8718
G3 X-16.92655 Y95.91196 I-8.04498 J2.18937
G3 X-18.0894 Y98.1803 I-2.69957 J0.04832
G1 X-18.93917 Y98.76852
G3 X-13.9974 Y105.81021 I-1052.71848 J744.03931
G2 X-12.60913 Y107.58554 I27.64818 J-20.18984
G3 X-11.41463 Y107.60449 I0.25671 J21.48437
G3 X-9.38388 Y108.66682 I-0.11785 J2.69743
G1 X-7.91115 Y110.60205
G3 X-7.85611 Y113.79728 I-2.14859 J1.6351
G2 X-4.92273 Y117.97871 I69.65876 J-45.74773
G1 X0.04446 Y124.28791
G1 X5.63182 Y112.83103
G3 X4.74245 Y110.05756 I1.72032 J-2.08099
G1 X5.22767 Y108.22899
G3 X7.53722 Y106.23821 I2.60969 J0.69249
G1 X8.88145 Y106.08785
G1 X12.86532 Y98.09356
G3 X11.5232 Y95.02596 I1.26961 J-2.38287
G1 X12.27145 Y92.17194
G3 X10.78435 Y92.32058 I-1.00135 J-2.50486
G2 X9.67323 Y92.24049 I-0.92108 J5.03153
G2 X8.83392 Y92.41878 I0.73631 J5.53115
G3 X8.34065 Y92.51517 I-0.76173 J-2.58782
G3 X5.96994 Y91.97842 I-0.3818 J-3.81749
G3 X3.67664 Y93.02999 I-2.53881 J-2.51029
G3 X1.53611 Y92.91187 I-0.63756 J-7.9003
G3 X-0.10263 Y92.54348 I3.12726 J-17.74045
G0 Z3.0
G0 X-26.51753 Y37.43289
G0 Z1.0
G1 F300.0 Z-1.5
G3 F800.0 X-26.21479 Y36.88801 I2.49365 J1.02895
G3 X-26.74118 Y36.60681 I1.00006 J-2.50538
G3 X-26.51753 Y37.43289 I-953.19138 J258.5091
G0 Z3.0
G0 X-32.96474 Y12.98742
G0 Z1.0
G1 F300.0 Z-1.5
G3 F800.0 X-33.11566 Y12.10489 I52.33175 J-9.4032
G3 X-33.20268 Y12.08352 I0.5998 J-2.63007
G1 X-32.96474 Y12.98742
G1 F300.0 X-31.78602 Y12.77562
G3 F800.0 X-32.07381 Y10.99742 I51.15303 J-9.1914
G1 X-32.58676 Y10.97314
G3 X-33.91864 Y10.00606 I0.0709 J-1.49832
G1 X-34.14138 Y10.07663
G3 X-34.9661 Y10.09991 I-0.45304 J-1.42995
G3 X-34.95741 Y10.13152 I-1.44189 J0.41347
G1 X-30.63735 Y26.54256
G3 X-30.61797 Y26.62578 I-1.45058 J0.38185
G3 X-30.52098 Y27.91018 I-5.05968 J1.02791
G3 X-30.54482 Y28.13923 I-1.71674 J-0.06291
G2 X-30.38693 Y28.36155 I3.9733 J-2.65467
G3 X-30.19756 Y28.69358 I-1.19767 J0.9031
G3 X-29.83858 Y29.87391 I-5.99327 J2.46753
G3 X-25.61033 Y45.51428 I-950.09398 J265.242
G3 X-14.37918 Y88.10107 I-5871.09361 J1571.12084
G1 X-14.77405 Y85.17133
G3 X-13.38303 Y83.47402 I1.48656 J-0.20036
G1 X-6.3192 Y83.02318
G3 X-4.755 Y84.82516 I0.09554 J1.49695
G3 X-5.03536 Y85.79925 I-6.58209 J-1.36703
G3 X-5.26773 Y86.40112 I-14.16055 J-5.12137
G3 X-5.93624 Y87.81447 I-11.8565 J-4.74333
G3 X-6.51964 Y88.80573 I-13.25966 J-7.13659
G3 X-7.56868 Y90.24643 I-10.63041 J-6.63818
G3 X-7.71509 Y90.42163 I-11.62722 J-9.56855
G3 X-8.27328 Y91.01712 I-5.64803 J-4.73482
G3 X-10.00865 Y92.24927 I-4.00833 J-3.80722
G3 X-10.04752 Y92.26823 I-0.67678 J-1.33864
G3 X-10.71162 Y92.50826 I-1.62665 J-3.46178
G3 X-13.02532 Y92.38452 I-0.97089 J-3.53894
G3 X-13.963 Y91.18891 I0.54888 J-1.39597
G1 X-13.99019 Y90.98719
G3 X-14.84577 Y91.75973 I-1.35587 J-0.64157
G1 X-18.7798 Y93.15152
G3 X-18.61798 Y93.47041 I-7.44595 J3.97891
G3 X-18.56135 Y93.6044 I-1.35171 J0.65029
G3 X-18.12635 Y95.93343 I-6.70143 J2.45676
G3 X-18.77238 Y97.19362 I-1.49976 J0.02684
G1 X-20.619 Y98.47187
G3 X-14.97442 Y106.50707 I-1051.03865 J744.33596
G2 X-13.35446 Y108.56319 I28.6252 J-20.8867
G2 X-12.9662 Y108.7933 I0.6541 J-0.66106
G3 X-11.467 Y108.80334 I0.61379 J20.27662
G3 X-10.33881 Y109.39353 I-0.06547 J1.49857
G1 X-8.86608 Y111.32876
G3 X-9.11413 Y113.40154 I-1.19366 J0.90839
G3 X-9.39807 Y113.62484 I-7.27135 J-8.95362
G2 X-5.87467 Y118.70949 I71.20071 J-45.57529
G1 X0.28469 Y126.53295
G1 X7.17033 Y112.41394
G3 X6.45708 Y111.95373 I3.10465 J-5.59457
G3 X5.90231 Y110.36533 I0.89506 J-1.20369
G1 X6.38753 Y108.53676
G3 X7.67061 Y107.43078 I1.44983 J0.38472
G1 X9.66409 Y107.2078
G1 X14.63686 Y97.22911
G1 X14.08263 Y97.20978
G3 X12.68397 Y95.33028 I0.0523 J-1.49909
G1 X13.87658 Y90.78137
G1 X13.42756 Y90.53481
G3 X12.79008 Y89.85397 I0.72196 J-1.31483
G1 X12.69144 Y90.14644
G3 X11.0 Y91.14255 I-1.42134 J-0.47937
G2 X9.57154 Y91.04611 I-1.13674 J6.20955
G2 X8.49575 Y91.26991 I0.83801 J6.72554
G3 X8.22147 Y91.32351 I-0.42356 J-1.43896
G3 X6.53803 Y90.92147 I-0.26262 J-2.62583
G3 X6.44172 Y90.85449 I0.80761 J-1.26403
G3 X5.66047 Y90.24141 I16.09092 J-21.30916
G3 X5.54477 Y90.54623 I-1.45192 J-0.37675
G3 X3.58772 Y91.83567 I-2.11364 J-1.0781
G3 X1.75385 Y91.73418 I-0.54864 J-6.70598
G3 X-0.71354 Y91.10501 I2.90952 J-16.56277
G3 X-1.73248 Y89.7496 I0.47961 J-1.42126
G1 X-1.92269 Y85.4208
G3 X-0.54946 Y83.86019 I1.49855 J-0.06585
G3 X0.75009 Y83.9928 I0.29613 J3.53194
G3 X1.85867 Y83.2011 I1.33099 J0.69172
G1 X9.68455 Y82.02774
G3 X10.35635 Y82.08006 I0.22241 J1.48342
G3 X12.31321 Y81.31723 I1.81112 J1.75464
G3 X12.67262 Y81.38259 I-0.08669 J1.49749
G3 X14.29055 Y83.00342 I-0.7314 J2.34803
G3 X15.11954 Y80.26433 I917.60103 J276.21778
G3 X14.29893 Y80.57425 I-0.91711 J-1.18698
G3 X11.06562 Y79.76005 I-0.35042 J-5.43556
G3 X10.1625 Y79.11303 I3.23134 J-5.46416
G2 X8.96552 Y78.22494 I-13.77321 J17.3129
G3 X8.94601 Y78.21122 I0.85269 J-1.23406
G1 X8.29938 Y77.74906
G3 X7.56324 Y78.6394 I-1.43495 J-0.43694
G3 X6.56183 Y79.12895 I-8.6785 J-16.48334
G2 X6.54332 Y79.13804 I107.05957 J218.12852
G3 X6.51733 Y79.15049 I-0.66102 J-1.3465
G3 X6.31728 Y79.23746 I-1.70666 J-3.6522
G3 X6.28096 Y79.25322 I-7.43254 J-17.0814
G3 X6.19669 Y79.28669 I-0.59556 J-1.3767
G3 X3.68026 Y79.38022 I-1.40387 J-3.87199
G3 X3.11276 Y79.23562 I5.41072 J-22.42173
G3 X0.68649 Y78.43812 I5.25628 J-20.08078
G3 X-0.01107 Y78.15194 I8.40449 J-21.47963
G3 X-0.0151 Y78.1502 I0.59193 J-1.37827
G3 X-0.48782 Y77.92674 I3.14653 J-7.26776
G3 X-1.29428 Y76.43742 I0.68549 J-1.3342
G1 X-0.84824 Y72.14716
G3 X-0.34118 Y71.17091 I1.49196 J0.15511
G3 X-0.49873 Y70.90533 I3.18974 J-2.07183
G3 X-0.97773 Y68.76569 I3.47631 J-1.90167
G3 X-0.97846 Y68.63178 I35.44329 J-0.26219
G3 X-0.97555 Y68.03094 I13.12886 J-0.23666
G3 X-0.90895 Y66.28106 I35.44111 J0.47256
G3 X1.35785 Y65.08768 I1.49705 J0.09405
G3 X1.81583 Y65.42117 I-1.6083 J2.68992
G3 X4.0663 Y64.75301 I1.39105 J0.56123
G1 X5.21813 Y65.55822
G2 X5.25448 Y65.54067 I-2.10311 J-4.40395
G2 X5.58567 Y65.34631 I-1.68986 J-3.2588
G2 X6.2597 Y64.61064 I-3.368 J-3.76241
G3 X6.289 Y64.57278 I1.20068 J0.89909
G3 X6.56501 Y64.2336 I20.32293 J16.25572
G3 X7.62767 Y63.69297 I1.15547 J0.9565
G3 X12.61891 Y63.53258 I5.18683 J83.66758
G3 X14.16071 Y63.60528 I0.35616 J8.83273
G3 X14.8361 Y63.77937 I-0.2957 J2.54437
G3 X15.26959 Y64.05129 I-0.56867 J1.38803
G1 X15.72256 Y64.45802
G1 X17.42783 Y63.59062
G3 X19.60201 Y65.06037 I0.68007 J1.33698
G3 X19.52409 Y65.62588 I-5.88818 J-0.52324
G3 X19.18862 Y67.17977 I-28.36274 J-5.31001
G2 X21.24371 Y60.18427 I-319.05682 J-97.52987
G3 X21.29884 Y59.96338 I44.29247 J10.93837
G3 X20.8491 Y60.19226 I-0.8955 J-1.20336
G3 X20.79866 Y60.20766 I-1.4544 J-4.67309
G2 X20.75317 Y60.67062 I6.80255 J0.9021
G3 X19.99107 Y61.88231 I-1.49693 J-0.09599
G1 X19.87608 Y61.94692
G3 X19.87301 Y61.94864 I-0.73482 J-1.30768
G3 X17.23494 Y62.18904 I-1.58912 J-2.84356
G3 X17.20511 Y62.17855 I0.48302 J-1.4201
G3 X15.65867 Y61.38553 I2.38489 J-6.55507
G2 X11.41266 Y58.93129 I-121.6718 J205.6008
G3 X10.40794 Y60.71175 I-1.45842 J0.35072
G3 X3.50398 Y60.5094 I-3.16281 J-9.96706
G3 X3.46345 Y60.49319 I0.53666 J-1.40071
G3 X1.43362 Y59.51681 I8.12433 J-19.48804
G3 X0.39223 Y59.33414 I0.73022 J-7.22273
G3 X-0.74134 Y57.84619 I0.36606 J-1.45465
G1 X-0.66925 Y54.60073
G3 X-0.62577 Y54.274 I1.49963 J0.03331
G3 X-0.25108 Y53.26518 I4.6228 J1.143
G3 X0.21585 Y52.72191 I1.33812 J0.67781
G3 X-0.59694 Y50.93578 I2.56116 J-2.24347
G3 X-0.5997 Y50.91417 I1.48641 J-0.20148
G3 X-0.64535 Y48.68489 I11.11631 J-1.34274
G2 X-0.58294 Y46.54786 I-52.55617 J-2.60426
G3 X-0.2855 Y43.86132 I8.73256 J-0.39288
G3 X-0.26516 Y43.793 I1.44744 J0.39359
G3 X1.16018 Y42.16727 I2.59948 J0.84137
G3 X2.35881 Y42.12777 I0.6446 J1.35443
G3 X3.16067 Y42.32405 I0.03521 J1.59222
G3 X3.29561 Y41.86206 I13.53797 J3.70348
G3 X3.72676 Y41.19034 I1.43242 J0.44518
G2 X4.04021 Y40.81206 I-1.11203 J-1.24045
G3 X4.09255 Y40.73146 I1.2835 J0.77629
G3 X4.87692 Y39.88692 I3.37919 J2.35192
G3 X4.93336 Y39.84329 I0.94539 J1.16458
G3 X6.5916 Y38.7443 I12.02653 J16.34598
G3 X7.8667 Y38.62264 I0.76637 J1.28945
G3 X8.01329 Y37.66707 I168.73331 J25.39563
G3 X9.4803 Y36.39879 I1.48201 J0.23165
G1 X20.43969 Y36.28923
G3 X21.92969 Y37.51643 I0.01499 J1.49993
G1 X22.2187 Y39.0795
G1 X24.33851 Y36.62563
G3 X26.91688 Y38.01486 I1.13511 J0.98058
G1 X21.42792 Y57.40058
G1 X21.76525 Y58.13136
G3 X21.78707 Y58.18097 I-1.36191 J0.62866
G3 X22.41281 Y56.22815 I43.7491 J12.94167
G2 X23.07862 Y53.92594 I-24.14606 J-8.23055
G3 X23.5272 Y51.56813 I477.97712 J89.71564
G3 X23.56117 Y51.42839 I1.47287 J0.28399
G3 X24.32027 Y49.24397 I23.0853 J6.79817
G2 X26.64627 Y42.31185 I-148.77279 J-53.77547
G3 X26.65215 Y42.2933 I1.43273 J0.44417
G2 X34.74452 Y16.62667 I-1566.30936 J-507.9467
G3 X35.62059 Y13.41669 I83.72659 J21.12619
G3 X34.9075 Y12.54596 I1.82121 J-2.21884
G3 X33.87293 Y12.88124 I-1.09387 J-1.61152
G2 X33.79443 Y13.05648 I0.74188 J0.4375
G2 X30.59091 Y24.58295 I212.4749 J65.26111
G3 X30.58975 Y24.58753 I-1.45551 J-0.36263
G2 X30.50908 Y24.92821 I11.47468 J2.8973
G3 X30.49261 Y24.99526 I-1.46458 J-0.32404
G1 X28.75258 Y31.4383
G3 X28.37909 Y32.85116 I-7.27637 J-1.16768
G1 X28.56989 Y33.48236
G3 X27.10488 Y35.41609 I-1.43584 J0.43402
G3 X24.80557 Y35.18443 I0.27783 J-14.28426
G3 X24.77193 Y35.17787 I0.27058 J-1.47539
G3 X17.86862 Y33.56538 I28.47726 J-137.4989
G3 X17.86173 Y33.56357 I0.37795 J-1.4516
G3 X12.59321 Y32.16165 I1157.30924 J-4359.85735
G3 X12.59581 Y32.16495 I-3.90999 J3.0844
G3 X11.38037 Y34.59251 I-1.17846 J0.92802
G3 X2.66347 Y33.91943 I2.05756 J-83.42853
G3 X2.57495 Y33.9052 I0.19366 J-1.48745
G2 X1.39525 Y33.77526 I-1.40492 J7.33479
G3 X-0.19381 Y32.69332 I-0.01439 J-1.68678
G3 X-0.60002 Y31.1641 I5.66853 J-2.32427
G3 X-0.61207 Y31.01291 I1.48732 J-0.19466
G3 X0.26185 Y28.90421 I2.78612 J-0.08077
G3 X-0.25156 Y27.75503 I0.98646 J-1.13
G3 X0.33987 Y22.98836 I21.74639 J0.27819
G3 X0.35242 Y22.93938 I1.45909 J0.34795
G2 X0.84769 Y20.77797 I-25.12962 J-6.89562
G3 X0.76412 Y20.70379 I5.6762 J-6.47852
G3 X0.45856 Y20.32166 I1.00305 J-1.1153
G3 X0.08851 Y18.93541 I2.53137 J-1.41825
G3 X0.19735 Y16.21406 I24.25294 J-0.39287
G3 X0.19797 Y16.20777 I1.49307 J0.14399
G3 X0.58811 Y12.86983 I104.51104 J10.52361
G3 X1.16018 Y11.87904 I1.48688 J0.19795
G3 X2.70249 Y11.08462 I2.95068 J3.83423
G3 X2.90179 Y11.03856 I0.43664 J1.43504
( gcode truncated )
( please support CamBam development by registering )
( www.cambam.info/shop )
( Profil15mm )
G0 Z3.0
( T15 : 1.5 )
T15 M6
M3 S1000
M5
M30
