( Made using CamBam - http://www.cambam.co.uk )
( Motorsportfreunde_Schauinsland-Hochzeit 7/30/2021 1:56:56 PM )
( T15 : 1.5 )
G21 G90 G64 G40
G0 Z3.0
( T15 : 1.5 )
T15 M6
( Profil15mm )
G17
M3 S1000
G0 X-30.89108 Y28.97912
G0 Z1.0
G1 F300.0 Z-1.0
G3 F800.0 X-30.56847 Y30.04865 I-5.29975 J2.182
G3 X-26.33538 Y45.70611 I-949.36409 J265.06726
G3 X-14.62011 Y90.15723 I-5870.36856 J1570.92901
G3 X-15.09592 Y91.05268 I-0.72595 J0.18839
G1 X-19.90067 Y92.75251
G3 X-19.29384 Y93.79556 I-6.32508 J4.37792
G3 X-19.26552 Y93.86256 I-0.67585 J0.32515
G3 X-18.87623 Y95.94685 I-5.99726 J2.19861
G3 X-19.19925 Y96.57695 I-0.74988 J0.01342
G1 X-21.66937 Y98.28679
G3 X-15.58512 Y106.94251 I-1049.98828 J744.52104
G2 X-13.90801 Y109.06999 I29.2359 J-21.32214
G2 X-13.04534 Y109.5463 I1.20765 J-1.16786
G3 X-11.49974 Y109.55263 I0.69292 J19.52362
G3 X-10.93564 Y109.84772 I-0.03274 J0.74929
G1 X-9.46291 Y111.78295
G3 X-9.58694 Y112.81934 I-0.59683 J0.45419
G3 X-10.21202 Y113.29039 I-6.79854 J-8.37142
G2 X-10.37057 Y113.49035 I10.37238 J8.38699
G2 X-10.08919 Y113.93742 I4.71242 J-2.6539
G3 X-10.07162 Y113.96369 I-0.61447 J0.43003
G2 X-6.4696 Y119.16626 I71.87426 J-45.91414
G1 X0.43483 Y127.93609
G1 X8.18544 Y112.04346
G2 X8.05974 Y112.00759 I-17.15562 J59.88867
G3 X7.95697 Y111.97009 I0.20502 J-0.72143
G3 X6.90461 Y111.35189 I2.31801 J-5.15073
G3 X6.62723 Y110.55769 I0.44753 J-0.60184
G1 X7.11244 Y108.72912
G3 X7.75398 Y108.17613 I0.72491 J0.19236
G1 X10.15324 Y107.90776
G1 X15.8281 Y96.52021
G1 X14.10878 Y96.46023
G3 X13.40945 Y95.52049 I0.02615 J-0.74954
G1 X14.75045 Y90.40558
G1 X13.78854 Y89.8774
G3 X13.40664 Y89.11686 I0.36098 J-0.65741
G3 X13.63608 Y88.03073 I7.83255 J1.08733
G3 X14.93992 Y83.44828 I71.8874 J17.97724
G3 X19.4994 Y68.71892 I916.95166 J275.77292
G2 X21.96891 Y60.37594 I-319.36761 J-99.06903
G3 X23.12221 Y56.47158 I43.56727 J10.74671
G2 X23.81238 Y54.08222 I-24.85546 J-8.47398
G3 X24.26364 Y51.71012 I477.24335 J89.55936
G3 X24.28062 Y51.64025 I0.73644 J0.14199
G3 X25.02101 Y49.51161 I22.36584 J6.5863
G2 X27.36263 Y42.53393 I-149.47354 J-54.04311
G3 X27.36557 Y42.52466 I0.71636 J0.22209
G2 X35.46714 Y16.82833 I-1567.02278 J-508.17806
G3 X36.46787 Y13.19756 I83.00396 J20.92453
G2 X36.11823 Y12.85454 I-1.69694 J1.37996
G3 X36.10876 Y12.84701 I0.46199 J-0.59081
G3 X35.35026 Y10.84829 I1.33305 J-1.64916
G3 X35.74775 Y10.30457 I0.73974 J0.12363
G3 X37.68028 Y9.31694 I348.57161 J679.67806
G3 X37.71496 Y9.30038 I0.34035 J0.66833
G2 X37.77555 Y9.23063 I-0.0446 J-0.09994
G2 X37.75994 Y8.43075 I-5.43584 J-0.29401
G3 X38.26116 Y7.65239 I0.74675 J-0.06969
G3 X40.58375 Y6.89457 I22.03986 J63.61078
G3 X40.60169 Y6.88932 I0.21966 J0.71711
G3 X41.83085 Y7.22634 I0.33341 J1.19395
G2 X42.75482 Y7.87902 I2.42085 J-2.44673
G2 X46.19756 Y8.81358 I4.35281 J-9.22647
G3 X46.19931 Y8.81374 I-0.06691 J0.74701
G2 X48.92659 Y8.86317 I1.69908 J-18.48191
G3 X48.93558 Y8.86273 I0.04155 J0.74885
G2 X52.07011 Y8.70941 I-12.50299 J-287.72842
G1 X52.1046 Y4.61122
G1 X50.83134 Y4.89325
G3 X50.15756 Y3.61257 I-0.1622 J-0.73225
G1 X51.85525 Y2.02896
G2 X52.08582 Y0.29103 I-16.14059 J-3.02564
G2 X51.88717 Y0.279 I-0.15329 J0.88535
G3 X51.84638 Y0.27995 I-0.03787 J-0.74904
G2 X49.74779 Y0.30666 I-0.24534 J63.1798
G3 X49.72792 Y0.30698 I-0.022 J-0.74968
G3 X-1.27752 Y0.30716 I-25.53454 J-9001.32064
G2 X-49.36167 Y0.42048 I-7.77532 J6902.39351
G2 X-46.78003 Y1.11552 I5.53916 J-15.4326
G3 X-46.74465 Y1.12289 I-0.13528 J0.7377
G3 X-43.05604 Y2.02196 I-45.36525 J194.13609
G3 X-43.03996 Y2.02623 I-0.18454 J0.72694
G3 X-40.96409 Y3.24994 I-1.24482 J4.48426
G3 X-40.89752 Y3.32771 I-0.53515 J0.52546
G2 X-39.94746 Y4.56428 I40.48429 J-30.12102
G3 X-39.90637 Y4.62139 I-0.5876 J0.46607
G2 X-38.5643 Y6.59616 I49.58557 J-32.25538
G1 X-38.4996 Y6.52158
G3 X-39.06331 Y5.79435 I71.27117 J-55.82824
G3 X-39.03977 Y4.85225 I0.59509 J-0.45647
G1 X-38.10601 Y3.75329
G3 X-36.94578 Y3.77421 I0.57155 J0.48563
G3 X-36.29288 Y5.32457 I-2.47815 J1.95629
G3 X-36.07908 Y6.75661 I-9.67329 J2.17614
G3 X-35.68403 Y7.67243 I-1.51893 J1.19832
G3 X-36.89268 Y8.36906 I-0.74196 J0.10951
G1 X-37.13683 Y8.17499
G2 X-37.26346 Y8.30246 I8.12445 J8.19688
G2 X-37.10136 Y8.43903 I14.45242 J-16.98901
G3 X-37.05181 Y8.48429 I-0.48052 J0.57585
G3 X-35.76593 Y10.12574 I-6.08602 J6.09206
G3 X-35.6827 Y10.32245 I-0.64206 J0.38763
G1 X-31.36265 Y26.73349
G3 X-31.35295 Y26.77509 I-0.72529 J0.19093
G3 X-31.27033 Y27.87832 I-4.3247 J0.87859
G3 X-31.35808 Y28.25106 I-0.96739 J-0.03106
G2 X-30.98576 Y28.8131 I4.78656 J-2.7665
G3 X-30.89108 Y28.97912 I-0.59884 J0.45155
G0 Z3.0
G0 X-27.72768 Y28.36595
G0 Z1.0
G1 F300.0 Z-1.0
G3 F800.0 X-27.85079 Y27.70313 I42.35529 J-8.2098
G2 X-28.90854 Y22.56039 I-297.16776 J58.44101
G3 X-30.80394 Y13.90865 I197.02243 J-47.69654
G3 X-31.41601 Y10.2777 I50.17095 J-10.32442
G1 X-32.55131 Y10.22398
G3 X-33.24911 Y9.63242 I0.03545 J-0.74916
G1 X-33.37493 Y9.04706
G1 X-34.36791 Y9.36166
G3 X-35.3164 Y8.8498 I-0.22652 J-0.71497
G1 X-35.9037 Y6.76228
G3 X-35.47059 Y5.86702 I0.72197 J-0.20312
G2 X-34.07156 Y5.23342 I-9.89798 J-23.71659
G3 X-34.03158 Y5.21528 I0.32969 J0.67365
G3 X-31.52332 Y4.94998 I1.6967 J4.05163
G3 X-31.38866 Y4.98861 I-0.13857 J0.73709
G3 X-27.96759 Y6.34101 I-187.8406 J480.16863
G3 X-27.7412 Y6.48264 I-0.27821 J0.69649
G3 X-27.3445 Y6.96257 I-1.47948 J1.62681
G3 X-25.98847 Y9.33594 I-15.03256 J10.16293
G1 X-25.08373 Y10.025
G1 X-25.27841 Y8.91305
G3 X-24.49983 Y8.03477 I0.73876 J-0.12935
G2 X-22.761 Y8.11646 I7.48753 J-140.83009
G3 X-22.75662 Y8.11665 I-0.03057 J0.74938
G3 X-14.10962 Y8.73735 I-8.06978 J172.9613
G3 X-14.09725 Y8.73865 I-0.07241 J0.7465
G3 X-9.47484 Y9.55106 I-4.37168 J38.43036
G3 X-9.07376 Y9.79954 I-0.1744 J0.72944
G3 X-7.7707 Y11.80812 I-7.63049 J6.37722
G3 X-7.27255 Y14.05403 I-2.58739 J1.75209
G3 X-7.76821 Y17.16968 I-11.74857 J-0.27179
G3 X-7.836 Y17.32699 I-0.71817 J-0.21619
G2 X-9.04189 Y19.50928 I65.65133 J37.70231
G3 X-11.57195 Y24.66033 I-82.02658 J-37.09227
G1 X-13.56066 Y29.52503
G3 X-13.81544 Y30.34667 I-46.87455 J-14.08462
G3 X-14.35912 Y31.52927 I-2.4405 J-0.40571
G3 X-14.59483 Y31.71662 I-0.57503 J-0.4815
G3 X-15.70544 Y32.27359 I-60.62968 J-119.51101
G3 X-21.02781 Y34.25351 I-8.91495 J-15.82128
G3 X-25.06467 Y35.11747 I-47.95935 J-214.22709
G3 X-25.89576 Y34.69678 I-0.15006 J-0.73484
G3 X-26.57758 Y32.9429 I13.91635 J-6.41947
G3 X-26.57952 Y32.93675 I0.7144 J-0.22832
G3 X-27.72768 Y28.36595 I41.20713 J-12.78061
G0 Z3.0
G0 X-24.28219 Y37.75774
G0 Z1.0
G1 F300.0 Z-1.0
G3 F800.0 X-24.02923 Y37.71187 I0.25831 J0.70411
G1 X-12.88264 Y37.63228
G3 X-12.12952 Y38.32435 I0.00535 J0.74998
G1 X-11.68385 Y44.07896
G2 X-11.47483 Y44.13985 I3.25801 J-10.79389
G2 X-11.11669 Y42.64109 I-10.8234 J-3.37849
G3 X-11.11475 Y42.63006 I0.73962 J0.12434
G3 X-10.85686 Y41.235 I532.71114 J97.75507
G3 X-10.30838 Y40.64646 I0.73733 J0.1373
G3 X-9.53664 Y40.4934 I1.68747 J6.48597
G3 X-9.52971 Y40.49247 I0.10248 J0.74297
G3 X-9.39969 Y40.47086 I2.60218 J15.25036
G2 X-9.35902 Y40.44837 I-0.08321 J-0.19849
G2 X-8.62906 Y38.56602 I-16.41841 J-7.44957
G3 X-8.62384 Y38.5505 I0.71335 J0.23159
G1 X-8.33409 Y37.72016
G3 X-7.689 Y37.21991 I0.70812 J0.2471
G3 X-5.83991 Y37.1562 I1.56492 J18.55437
G3 X-5.08069 Y37.26465 I-0.03093 J2.92839
G3 X-4.54239 Y37.47468 I-0.50761 J2.09582
G3 X-4.52897 Y37.48155 I-1.32845 J2.60991
G3 X-4.48025 Y37.50901 I-0.34365 J0.66664
G3 X-4.37073 Y37.58068 I-1.18583 J1.93177
G3 X-3.8483 Y38.08669 I-1.21758 J1.77979
G3 X-3.43394 Y39.04652 I-1.81779 J1.35409
G3 X-3.30244 Y39.86095 I-4.19757 J1.09559
G3 X-3.31657 Y40.59067 I-2.89349 J0.30897
G3 X-3.31835 Y40.60752 I-4.31494 J-0.44856
G3 X-3.32305 Y40.64305 I-0.74567 J-0.08046
G3 X-3.87057 Y41.91933 I-2.77326 J-0.43414
G3 X-4.3388 Y42.41019 I-2.32535 J-1.74941
G2 X-5.04407 Y43.20117 I2.77204 J3.18157
G2 X-6.13 Y45.38317 I28.40445 J15.49736
G3 X-8.59047 Y50.49926 I-77.72959 J-34.23258
G3 X-8.62949 Y50.56542 I-0.66466 J-0.34746
G2 X-8.63587 Y50.5751 I4.22887 J2.79586
G3 X-8.75815 Y50.81489 I-119.87447 J-60.97849
G3 X-8.7722 Y50.84107 I-0.6678 J-0.34138
G2 X-9.16819 Y51.63777 I7.61669 J4.28252
G2 X-9.17216 Y51.6488 I4.76757 J1.72351
G3 X-9.66942 Y52.99226 I-10.355 J-3.06896
G3 X-10.11069 Y53.87133 I-9.90185 J-4.42019
G2 X-10.70861 Y55.14357 I39.57515 J19.376
G3 X-10.7054 Y55.22235 I-2.42524 J0.13823
G3 X-10.71246 Y55.34498 I-0.74978 J0.01836
G3 X-10.71281 Y55.34743 I-4.36233 J-0.6125
G3 X-10.72197 Y55.41046 I-0.74611 J-0.07625
G3 X-10.72306 Y55.41623 I-5.87526 J-1.11042
G3 X-11.01342 Y56.43845 I-4.35173 J-0.68375
G3 X-11.10576 Y56.66552 I-5.58381 J-2.13842
G3 X-11.79293 Y57.85955 I-4.07323 J-1.5494
G3 X-11.83412 Y57.90963 I-0.59926 J-0.45098
G3 X-14.3055 Y59.38564 I-3.34487 J-2.79352
G3 X-14.51828 Y59.43291 I-1.17067 J-4.76713
G3 X-14.53821 Y59.4366 I-0.14635 J-0.73558
G3 X-14.62809 Y59.45169 I-2.55124 J-14.91814
G3 X-16.87647 Y59.65311 I-2.09753 J-10.76456
G3 X-17.08657 Y59.65318 I-0.13117 J-77.38521
G3 X-17.13211 Y59.65312 I-0.00288 J-15.13472
G3 X-19.76366 Y59.60413 I0.12447 J-77.38522
G3 X-20.4686 Y59.01947 I0.02671 J-0.74952
G2 X-21.3551 Y55.24907 I-203.25854 J45.80073
G3 X-21.93979 Y52.92027 I838.30332 J-211.70805
G2 X-22.11015 Y52.26233 I-201.78735 J51.89994
G3 X-23.08563 Y48.2461 I112.56576 J-29.46713
G3 X-24.08966 Y43.25843 I86.54673 J-20.01687
G3 X-24.33607 Y41.82764 I114.54527 J-20.46322
G3 X-24.77033 Y38.53467 I48.37994 J-8.05533
G3 X-24.28219 Y37.75774 I0.74646 J-0.07283
G1 F300.0 Z-2.0
G3 F800.0 X-24.02923 Y37.71187 I0.25831 J0.70411
G1 X-12.88264 Y37.63228
G3 X-12.12952 Y38.32435 I0.00535 J0.74998
G1 X-11.68385 Y44.07896
G2 X-11.47483 Y44.13985 I3.25801 J-10.79389
G2 X-11.11669 Y42.64109 I-10.8234 J-3.37849
G3 X-11.11475 Y42.63006 I0.73962 J0.12434
G3 X-10.85686 Y41.235 I532.71114 J97.75507
G3 X-10.30838 Y40.64646 I0.73733 J0.1373
G3 X-9.53664 Y40.4934 I1.68747 J6.48597
G3 X-9.52971 Y40.49247 I0.10248 J0.74297
G3 X-9.39969 Y40.47086 I2.60218 J15.25036
G2 X-9.35902 Y40.44837 I-0.08321 J-0.19849
G2 X-8.62906 Y38.56602 I-16.41841 J-7.44957
G3 X-8.62384 Y38.5505 I0.71335 J0.23159
G1 X-8.33409 Y37.72016
G3 X-7.689 Y37.21991 I0.70812 J0.2471
G3 X-5.83991 Y37.1562 I1.56492 J18.55437
G3 X-5.08069 Y37.26465 I-0.03093 J2.92839
G3 X-4.54239 Y37.47468 I-0.50761 J2.09582
G3 X-4.52897 Y37.48155 I-1.32845 J2.60991
G3 X-4.48025 Y37.50901 I-0.34365 J0.66664
G3 X-4.37073 Y37.58068 I-1.18583 J1.93177
G3 X-3.8483 Y38.08669 I-1.21758 J1.77979
G3 X-3.43394 Y39.04652 I-1.81779 J1.35409
G3 X-3.30244 Y39.86095 I-4.19757 J1.09559
G3 X-3.31657 Y40.59067 I-2.89349 J0.30897
G3 X-3.31835 Y40.60752 I-4.31494 J-0.44856
G3 X-3.32305 Y40.64305 I-0.74567 J-0.08046
G3 X-3.87057 Y41.91933 I-2.77326 J-0.43414
G3 X-4.3388 Y42.41019 I-2.32535 J-1.74941
G2 X-5.04407 Y43.20117 I2.77204 J3.18157
G2 X-6.13 Y45.38317 I28.40445 J15.49736
G3 X-8.59047 Y50.49926 I-77.72959 J-34.23258
G3 X-8.62949 Y50.56542 I-0.66466 J-0.34746
G2 X-8.63587 Y50.5751 I4.22887 J2.79586
G3 X-8.75815 Y50.81489 I-119.87447 J-60.97849
G3 X-8.7722 Y50.84107 I-0.6678 J-0.34138
G2 X-9.16819 Y51.63777 I7.61669 J4.28252
G2 X-9.17216 Y51.6488 I4.76757 J1.72351
G3 X-9.66942 Y52.99226 I-10.355 J-3.06896
G3 X-10.11069 Y53.87133 I-9.90185 J-4.42019
G2 X-10.70861 Y55.14357 I39.57515 J19.376
G3 X-10.7054 Y55.22235 I-2.42524 J0.13823
G3 X-10.71246 Y55.34498 I-0.74978 J0.01836
G3 X-10.71281 Y55.34743 I-4.36233 J-0.6125
G3 X-10.72197 Y55.41046 I-0.74611 J-0.07625
G3 X-10.72306 Y55.41623 I-5.87526 J-1.11042
G3 X-11.01342 Y56.43845 I-4.35173 J-0.68375
G3 X-11.10576 Y56.66552 I-5.58381 J-2.13842
G3 X-11.79293 Y57.85955 I-4.07323 J-1.5494
G3 X-11.83412 Y57.90963 I-0.59926 J-0.45098
G3 X-14.3055 Y59.38564 I-3.34487 J-2.79352
G3 X-14.51828 Y59.43291 I-1.17067 J-4.76713
G3 X-14.53821 Y59.4366 I-0.14635 J-0.73558
G3 X-14.62809 Y59.45169 I-2.55124 J-14.91814
G3 X-16.87647 Y59.65311 I-2.09753 J-10.76456
G3 X-17.08657 Y59.65318 I-0.13117 J-77.38521
G3 X-17.13211 Y59.65312 I-0.00288 J-15.13472
G3 X-19.76366 Y59.60413 I0.12447 J-77.38522
G3 X-20.4686 Y59.01947 I0.02671 J-0.74952
G2 X-21.3551 Y55.24907 I-203.25854 J45.80073
G3 X-21.93979 Y52.92027 I838.30332 J-211.70805
G2 X-22.11015 Y52.26233 I-201.78735 J51.89994
G3 X-23.08563 Y48.2461 I112.56576 J-29.46713
G3 X-24.08966 Y43.25843 I86.54673 J-20.01687
G3 X-24.33607 Y41.82764 I114.54527 J-20.46322
G3 X-24.77033 Y38.53467 I48.37994 J-8.05533
G3 X-24.28219 Y37.75774 I0.74646 J-0.07283
G1 F300.0 Z-3.0
G3 F800.0 X-24.02923 Y37.71187 I0.25831 J0.70411
G1 X-12.88264 Y37.63228
G3 X-12.12952 Y38.32435 I0.00535 J0.74998
G1 X-11.68385 Y44.07896
G2 X-11.47483 Y44.13985 I3.25801 J-10.79389
G2 X-11.11669 Y42.64109 I-10.8234 J-3.37849
G3 X-11.11475 Y42.63006 I0.73962 J0.12434
G3 X-10.85686 Y41.235 I532.71114 J97.75507
G3 X-10.30838 Y40.64646 I0.73733 J0.1373
G3 X-9.53664 Y40.4934 I1.68747 J6.48597
G3 X-9.52971 Y40.49247 I0.10248 J0.74297
G3 X-9.39969 Y40.47086 I2.60218 J15.25036
G2 X-9.35902 Y40.44837 I-0.08321 J-0.19849
G2 X-8.62906 Y38.56602 I-16.41841 J-7.44957
G3 X-8.62384 Y38.5505 I0.71335 J0.23159
G1 X-8.33409 Y37.72016
G3 X-7.689 Y37.21991 I0.70812 J0.2471
G3 X-5.83991 Y37.1562 I1.56492 J18.55437
G3 X-5.08069 Y37.26465 I-0.03093 J2.92839
G3 X-4.54239 Y37.47468 I-0.50761 J2.09582
G3 X-4.52897 Y37.48155 I-1.32845 J2.60991
G3 X-4.48025 Y37.50901 I-0.34365 J0.66664
G3 X-4.37073 Y37.58068 I-1.18583 J1.93177
G3 X-3.8483 Y38.08669 I-1.21758 J1.77979
G3 X-3.43394 Y39.04652 I-1.81779 J1.35409
G3 X-3.30244 Y39.86095 I-4.19757 J1.09559
G3 X-3.31657 Y40.59067 I-2.89349 J0.30897
G3 X-3.31835 Y40.60752 I-4.31494 J-0.44856
G3 X-3.32305 Y40.64305 I-0.74567 J-0.08046
G3 X-3.87057 Y41.91933 I-2.77326 J-0.43414
G3 X-4.3388 Y42.41019 I-2.32535 J-1.74941
G2 X-5.04407 Y43.20117 I2.77204 J3.18157
G2 X-6.13 Y45.38317 I28.40445 J15.49736
G3 X-8.59047 Y50.49926 I-77.72959 J-34.23258
G3 X-8.62949 Y50.56542 I-0.66466 J-0.34746
G2 X-8.63587 Y50.5751 I4.22887 J2.79586
G3 X-8.75815 Y50.81489 I-119.87447 J-60.97849
G3 X-8.7722 Y50.84107 I-0.6678 J-0.34138
G2 X-9.16819 Y51.63777 I7.61669 J4.28252
G2 X-9.17216 Y51.6488 I4.76757 J1.72351
G3 X-9.66942 Y52.99226 I-10.355 J-3.06896
G3 X-10.11069 Y53.87133 I-9.90185 J-4.42019
G2 X-10.70861 Y55.14357 I39.57515 J19.376
G3 X-10.7054 Y55.22235 I-2.42524 J0.13823
G3 X-10.71246 Y55.34498 I-0.74978 J0.01836
G3 X-10.71281 Y55.34743 I-4.36233 J-0.6125
G3 X-10.72197 Y55.41046 I-0.74611 J-0.07625
G3 X-10.72306 Y55.41623 I-5.87526 J-1.11042
G3 X-11.01342 Y56.43845 I-4.35173 J-0.68375
G3 X-11.10576 Y56.66552 I-5.58381 J-2.13842
G3 X-11.79293 Y57.85955 I-4.07323 J-1.5494
G3 X-11.83412 Y57.90963 I-0.59926 J-0.45098
G3 X-14.3055 Y59.38564 I-3.34487 J-2.79352
G3 X-14.51828 Y59.43291 I-1.17067 J-4.76713
G3 X-14.53821 Y59.4366 I-0.14635 J-0.73558
G3 X-14.62809 Y59.45169 I-2.55124 J-14.91814
G3 X-16.87647 Y59.65311 I-2.09753 J-10.76456
G3 X-17.08657 Y59.65318 I-0.13117 J-77.38521
G3 X-17.13211 Y59.65312 I-0.00288 J-15.13472
G3 X-19.76366 Y59.60413 I0.12447 J-77.38522
G3 X-20.4686 Y59.01947 I0.02671 J-0.74952
G2 X-21.3551 Y55.24907 I-203.25854 J45.80073
G3 X-21.93979 Y52.92027 I838.30332 J-211.70805
G2 X-22.11015 Y52.26233 I-201.78735 J51.89994
G3 X-23.08563 Y48.2461 I112.56576 J-29.46713
G3 X-24.08966 Y43.25843 I86.54673 J-20.01687
G3 X-24.33607 Y41.82764 I114.54527 J-20.46322
G3 X-24.77033 Y38.53467 I48.37994 J-8.05533
G3 X-24.28219 Y37.75774 I0.74646 J-0.07283
G0 Z3.0
G0 X-12.55962 Y29.78095
G0 Z1.0
G1 F300.0 Z-1.0
G3 F800.0 X-12.68872 Y29.32352 I0.62006 J-0.42193
G3 X-12.11519 Y26.84874 I7.07234 J0.33516
G3 X-12.11284 Y26.84335 I0.68841 J0.29765
G2 X-12.10119 Y26.81689 I-9.926 J-4.38442
G3 X-12.01885 Y26.62129 I7.70842 J3.13
G3 X-12.00703 Y26.59554 I0.68748 J0.2998
G2 X-11.51835 Y25.11751 I-10.0318 J-4.13661
G3 X-10.65402 Y24.56392 I0.72714 J0.18375
G1 X-8.06982 Y25.04476
G3 X-7.61756 Y26.24583 I-0.1372 J0.73734
G1 X-8.21221 Y27.0017
G1 X-7.72357 Y27.55509
G3 X-8.17762 Y28.79367 I-0.5622 J0.49642
G2 X-9.72437 Y29.14825 I1.41996 J9.7451
G2 X-10.18121 Y29.36377 I2.18132 J5.21564
G3 X-10.19564 Y29.37119 I-0.34999 J-0.66333
G3 X-11.63994 Y30.04658 I-13.48954 J-26.96498
G3 X-12.55962 Y29.78095 I-0.29962 J-0.68755
G0 Z3.0
G0 X-9.72818 Y30.82724
G0 Z1.0
G1 F300.0 Z-1.0
G3 F800.0 X-9.64663 Y30.61504 I8.25164 J3.04919
G3 X-8.26138 Y29.15611 I2.19998 J0.70177
G3 X-8.11993 Y29.11807 I0.26461 J0.70177
G3 X-8.05516 Y29.10011 I0.62387 J2.12484
G3 X-7.96829 Y29.08285 I0.18935 J0.7257
G3 X-6.89386 Y29.01514 I0.99298 J7.19877
G2 X-6.62266 Y28.86318 I-0.07211 J-0.44665
G3 X-6.53141 Y28.66158 I1.02462 J0.34233
G3 X-6.38558 Y28.46604 I0.66613 J0.34463
G3 X-6.02044 Y28.21122 I0.78754 J0.73947
G3 X-5.86995 Y28.16523 I0.29325 J0.69029
G3 X-5.77769 Y28.14834 I0.85286 J4.39854
G3 X-5.38017 Y28.09804 I0.39276 J1.50811
G3 X-4.38614 Y28.12795 I0.36308 J4.46573
G3 X-3.74416 Y28.81055 I-0.10562 J0.74253
G1 X-3.47917 Y32.11607
G3 X-4.10178 Y32.91551 I-0.7476 J0.05993
G1 X-9.35746 Y33.80379
G3 X-10.22862 Y32.98859 I-0.12499 J-0.73951
G3 X-9.72818 Y30.82724 I8.75208 J0.88785
G1 F300.0 Z-2.0
G3 F800.0 X-9.64663 Y30.61504 I8.25164 J3.04919
G3 X-8.26138 Y29.15611 I2.19998 J0.70177
G3 X-8.11993 Y29.11807 I0.26461 J0.70177
G3 X-8.05516 Y29.10011 I0.62387 J2.12484
G3 X-7.96829 Y29.08285 I0.18935 J0.7257
G3 X-6.89386 Y29.01514 I0.99298 J7.19877
G2 X-6.62266 Y28.86318 I-0.07211 J-0.44665
G3 X-6.53141 Y28.66158 I1.02462 J0.34233
G3 X-6.38558 Y28.46604 I0.66613 J0.34463
G3 X-6.02044 Y28.21122 I0.78754 J0.73947
G3 X-5.86995 Y28.16523 I0.29325 J0.69029
G3 X-5.77769 Y28.14834 I0.85286 J4.39854
G3 X-5.38017 Y28.09804 I0.39276 J1.50811
G3 X-4.38614 Y28.12795 I0.36308 J4.46573
G3 X-3.74416 Y28.81055 I-0.10562 J0.74253
G1 X-3.47917 Y32.11607
G3 X-4.10178 Y32.91551 I-0.7476 J0.05993
G1 X-9.35746 Y33.80379
G3 X-10.22862 Y32.98859 I-0.12499 J-0.73951
G3 X-9.72818 Y30.82724 I8.75208 J0.88785
G0 Z3.0
G0 X-7.69847 Y24.81065
G0 Z1.0
G1 F300.0 Z-1.0
G3 F800.0 X-9.31227 Y24.06635 I2.66513 J-7.90014
G3 X-9.65041 Y23.62188 I0.38491 J-0.6437
G3 X-9.76692 Y22.89821 I3.24066 J-0.89293
G3 X-9.76711 Y22.89412 I0.74905 J-0.03777
G3 X-8.83494 Y19.55577 I5.55041 J-0.24948
G3 X-7.80545 Y18.16482 I14.28119 J9.49355
G2 X-7.05159 Y16.68709 I-3.07646 J-2.50062
G1 X-6.32016 Y13.56247
G3 X-5.3445 Y13.0247 I0.73026 J0.17094
G3 X-4.20765 Y13.75968 I-0.92948 J2.68441
G3 X-4.09417 Y13.91632 I-0.54554 J0.51467
G3 X-3.86787 Y15.215 I-1.81307 J0.98499
G2 X-3.97134 Y16.96121 I81.23905 J5.69028
G2 X-3.89184 Y19.04517 I36.59855 J-0.35269
G3 X-3.8902 Y19.08896 I-0.74834 J0.04993
G3 X-4.15872 Y20.80898 I-5.36208 J0.04388
G3 X-4.17845 Y20.8621 I-0.71242 J-0.23443
G3 X-4.74699 Y21.78888 I-3.21603 J-1.33508
G2 X-5.55994 Y23.3808 I3.40681 J2.74333
G3 X-6.94069 Y24.95104 I-1.71292 J-0.11403
G3 X-7.28869 Y24.93725 I-0.14512 J-0.73583
G3 X-7.69847 Y24.81065 I2.25535 J-8.02673
G1 F300.0 Z-2.0
G3 F800.0 X-9.31227 Y24.06635 I2.66513 J-7.90014
G3 X-9.65041 Y23.62188 I0.38491 J-0.6437
G3 X-9.76692 Y22.89821 I3.24066 J-0.89293
G3 X-9.76711 Y22.89412 I0.74905 J-0.03777
G3 X-8.83494 Y19.55577 I5.55041 J-0.24948
G3 X-7.80545 Y18.16482 I14.28119 J9.49355
G2 X-7.05159 Y16.68709 I-3.07646 J-2.50062
G1 X-6.32016 Y13.56247
G3 X-5.3445 Y13.0247 I0.73026 J0.17094
G3 X-4.20765 Y13.75968 I-0.92948 J2.68441
G3 X-4.09417 Y13.91632 I-0.54554 J0.51467
G3 X-3.86787 Y15.215 I-1.81307 J0.98499
G2 X-3.97134 Y16.96121 I81.23905 J5.69028
G2 X-3.89184 Y19.04517 I36.59855 J-0.35269
G3 X-3.8902 Y19.08896 I-0.74834 J0.04993
G3 X-4.15872 Y20.80898 I-5.36208 J0.04388
G3 X-4.17845 Y20.8621 I-0.71242 J-0.23443
G3 X-4.74699 Y21.78888 I-3.21603 J-1.33508
G2 X-5.55994 Y23.3808 I3.40681 J2.74333
G3 X-6.94069 Y24.95104 I-1.71292 J-0.11403
G3 X-7.28869 Y24.93725 I-0.14512 J-0.73583
G3 X-7.69847 Y24.81065 I2.25535 J-8.02673
G1 F300.0 X-7.85918 Y25.11764
G3 F800.0 X-7.61756 Y26.24583 I-0.34784 J0.66446
G1 X-8.21221 Y27.0017
G1 X-7.72357 Y27.55509
G3 X-8.17762 Y28.79367 I-0.5622 J0.49642
G2 X-9.72437 Y29.14825 I1.41996 J9.7451
G2 X-10.18121 Y29.36377 I2.18132 J5.21564
G3 X-10.19564 Y29.37119 I-0.34999 J-0.66333
G3 X-11.63994 Y30.04658 I-13.48954 J-26.96498
G3 X-12.68872 Y29.32352 I-0.29962 J-0.68755
G3 X-12.11519 Y26.84874 I7.07234 J0.33516
G3 X-12.11284 Y26.84335 I0.68841 J0.29765
G2 X-12.10119 Y26.81689 I-9.926 J-4.38442
G3 X-12.01885 Y26.62129 I7.70842 J3.13
G3 X-12.00703 Y26.59554 I0.68748 J0.2998
G2 X-11.51835 Y25.11751 I-10.0318 J-4.13661
G3 X-10.65402 Y24.56392 I0.72714 J0.18375
G1 X-8.06982 Y25.04476
G3 X-7.85918 Y25.11764 I-0.1372 J0.73734
G0 Z3.0
G0 X-10.97558 Y23.5184
G0 Z0.0
G1 F300.0 Z-2.0
G3 F800.0 X-11.57195 Y24.66033 I-80.09289 J-41.10139
G1 X-13.56066 Y29.52503
G3 X-13.81544 Y30.34667 I-46.87455 J-14.08462
G3 X-14.35912 Y31.52927 I-2.4405 J-0.40571
G3 X-14.59483 Y31.71662 I-0.57503 J-0.4815
G3 X-15.70544 Y32.27359 I-60.62968 J-119.51101
G3 X-21.02781 Y34.25351 I-8.91495 J-15.82128
G3 X-25.06467 Y35.11747 I-47.95935 J-214.22709
G3 X-25.89576 Y34.69678 I-0.15006 J-0.73484
G3 X-26.57758 Y32.9429 I13.91635 J-6.41947
G3 X-26.57952 Y32.93675 I0.7144 J-0.22832
G3 X-27.85079 Y27.70313 I41.20713 J-12.78061
G2 X-28.90854 Y22.56039 I-297.16776 J58.44101
G3 X-30.80394 Y13.90865 I197.02243 J-47.69654
G3 X-31.41601 Y10.2777 I50.17095 J-10.32442
G1 X-32.55131 Y10.22398
G3 X-33.24911 Y9.63242 I0.03545 J-0.74916
G1 X-33.37493 Y9.04706
G1 X-34.36791 Y9.36166
G3 X-35.3164 Y8.8498 I-0.22652 J-0.71497
G1 X-35.9037 Y6.76228
G3 X-35.47059 Y5.86702 I0.72197 J-0.20312
G2 X-34.07156 Y5.23342 I-9.89798 J-23.71659
G3 X-34.03158 Y5.21528 I0.32969 J0.67365
G3 X-31.52332 Y4.94998 I1.6967 J4.05163
G3 X-31.38866 Y4.98861 I-0.13857 J0.73709
G3 X-27.96759 Y6.34101 I-187.8406 J480.16863
G3 X-27.7412 Y6.48264 I-0.27821 J0.69649
G3 X-27.3445 Y6.96257 I-1.47948 J1.62681
G3 X-25.98847 Y9.33594 I-15.03256 J10.16293
G1 X-25.08373 Y10.025
G1 X-25.27841 Y8.91305
G3 X-24.49983 Y8.03477 I0.73876 J-0.12935
G2 X-22.761 Y8.11646 I7.48753 J-140.83009
G3 X-22.75662 Y8.11665 I-0.03057 J0.74938
G3 X-14.10962 Y8.73735 I-8.06978 J172.9613
G3 X-14.09725 Y8.73865 I-0.07241 J0.7465
G3 X-9.47484 Y9.55106 I-4.37168 J38.43036
G3 X-9.07376 Y9.79954 I-0.1744 J0.72944
G3 X-7.7707 Y11.80812 I-7.63049 J6.37722
G3 X-7.27255 Y14.05403 I-2.58739 J1.75209
G3 X-7.76821 Y17.16968 I-11.74857 J-0.27179
G3 X-7.836 Y17.32699 I-0.71817 J-0.21619
G2 X-9.04189 Y19.50928 I65.65133 J37.70231
G3 X-10.97558 Y23.5184 I-82.02658 J-37.09227
G1 F300.0 X-10.86836 Y24.55525
G1 Z-3.0
G3 F800.0 X-10.65402 Y24.56392 I0.07715 J0.74602
G1 X-8.06982 Y25.04476
G3 X-7.61756 Y26.24583 I-0.1372 J0.73734
G1 X-8.21221 Y27.0017
G1 X-7.72357 Y27.55509
G3 X-8.17762 Y28.79367 I-0.5622 J0.49642
G2 X-9.72437 Y29.14825 I1.41996 J9.7451
G2 X-10.18121 Y29.36377 I2.18132 J5.21564
G3 X-10.19564 Y29.37119 I-0.34999 J-0.66333
G3 X-11.63994 Y30.04658 I-13.48954 J-26.96498
G3 X-12.68872 Y29.32352 I-0.29962 J-0.68755
G3 X-12.11519 Y26.84874 I7.07234 J0.33516
G3 X-12.11284 Y26.84335 I0.68841 J0.29765
G2 X-12.10119 Y26.81689 I-9.926 J-4.38442
G3 X-12.01885 Y26.62129 I7.70842 J3.13
G3 X-12.00703 Y26.59554 I0.68748 J0.2998
G2 X-11.51835 Y25.11751 I-10.0318 J-4.13661
G3 X-10.86836 Y24.55525 I0.72714 J0.18375
G0 Z3.0
G0 X-9.57514 Y23.80064
G0 Z-1.0
G1 F300.0 Z-3.0
G3 F800.0 X-9.65041 Y23.62188 I0.64778 J-0.37799
G3 X-9.76692 Y22.89821 I3.24066 J-0.89293
G3 X-9.76711 Y22.89412 I0.74905 J-0.03777
G3 X-8.83494 Y19.55577 I5.55041 J-0.24948
G3 X-7.80545 Y18.16482 I14.28119 J9.49355
G2 X-7.05159 Y16.68709 I-3.07646 J-2.50062
G1 X-6.32016 Y13.56247
G3 X-5.3445 Y13.0247 I0.73026 J0.17094
G3 X-4.20765 Y13.75968 I-0.92948 J2.68441
G3 X-4.09417 Y13.91632 I-0.54554 J0.51467
G3 X-3.86787 Y15.215 I-1.81307 J0.98499
G2 X-3.97134 Y16.96121 I81.23905 J5.69028
G2 X-3.89184 Y19.04517 I36.59855 J-0.35269
G3 X-3.8902 Y19.08896 I-0.74834 J0.04993
G3 X-4.15872 Y20.80898 I-5.36208 J0.04388
G3 X-4.17845 Y20.8621 I-0.71242 J-0.23443
G3 X-4.74699 Y21.78888 I-3.21603 J-1.33508
G2 X-5.55994 Y23.3808 I3.40681 J2.74333
G3 X-6.94069 Y24.95104 I-1.71292 J-0.11403
G3 X-7.28869 Y24.93725 I-0.14512 J-0.73583
G3 X-9.31227 Y24.06635 I2.25535 J-8.02673
G3 X-9.57514 Y23.80064 I0.38491 J-0.6437
G0 Z3.0
G0 X-8.18588 Y29.13212
G0 Z-1.0
G1 F300.0 Z-3.0
G3 F800.0 X-8.11993 Y29.11807 I0.18912 J0.72576
G3 X-8.05516 Y29.10011 I0.62387 J2.12484
G3 X-7.96829 Y29.08285 I0.18935 J0.7257
G3 X-6.89386 Y29.01514 I0.99298 J7.19877
G2 X-6.62266 Y28.86318 I-0.07211 J-0.44665
G3 X-6.53141 Y28.66158 I1.02462 J0.34233
G3 X-6.38558 Y28.46604 I0.66613 J0.34463
G3 X-6.02044 Y28.21122 I0.78754 J0.73947
G3 X-5.86995 Y28.16523 I0.29325 J0.69029
G3 X-5.77769 Y28.14834 I0.85286 J4.39854
G3 X-5.38017 Y28.09804 I0.39276 J1.50811
G3 X-4.38614 Y28.12795 I0.36308 J4.46573
G3 X-3.74416 Y28.81055 I-0.10562 J0.74253
G1 X-3.47917 Y32.11607
G3 X-4.10178 Y32.91551 I-0.7476 J0.05993
G1 X-9.35746 Y33.80379
G3 X-10.22862 Y32.98859 I-0.12499 J-0.73951
G3 X-9.64663 Y30.61504 I8.75208 J0.88785
G3 X-8.26138 Y29.15611 I2.19998 J0.70177
G3 X-8.18588 Y29.13212 I0.26461 J0.70177
G0 Z3.0
G0 X0.16683 Y30.58339
G0 Z1.0
G1 F300.0 Z-1.0
G3 F800.0 X0.84055 Y29.3919 I2.00722 J0.34875
G3 X1.56653 Y29.00964 I0.91931 J0.86543
G3 X1.76205 Y29.00515 I0.11484 J0.74115
G3 X2.52427 Y29.12729 I-0.81268 J7.51103
G3 X7.77394 Y30.31253 I-3.22055 J26.48299
G3 X10.66078 Y31.50664 I-4.424 J14.78192
G3 X12.00658 Y32.62896 I-1.97756 J3.7394
G3 X11.39886 Y33.84274 I-0.58923 J0.46401
G3 X2.7603 Y33.17571 I2.03907 J-82.67875
G3 X2.71604 Y33.16859 I0.09683 J-0.74372
G2 X1.40091 Y33.02511 I-1.54601 J8.0714
G3 X0.50367 Y32.41744 I-0.02004 J-0.93663
G3 X0.14364 Y31.06677 I4.97105 J-2.04839
G3 X0.13762 Y30.99118 I0.74366 J-0.09733
G3 X0.16683 Y30.58339 I2.03643 J-0.05904
G0 Z3.0
G0 X0.97886 Y28.47414
G0 Z1.0
G1 F300.0 Z-1.0
G3 F800.0 X0.49837 Y27.76462 I0.26946 J-0.69992
G3 X1.06941 Y23.16234 I20.99646 J0.2686
G3 X1.07569 Y23.13785 I0.72954 J0.17398
G2 X1.59391 Y20.86688 I-25.85289 J-7.09408
G3 X1.59795 Y20.84639 I0.73776 J0.13493
G2 X1.56565 Y20.40263 I-0.78369 J-0.16601
G3 X1.26564 Y20.14614 I4.95824 J-6.10318
G3 X1.11286 Y19.95507 I0.50152 J-0.55765
G3 X0.83844 Y18.92533 I1.87706 J-1.05166
G3 X0.94388 Y16.28606 I23.50301 J-0.38279
G3 X0.94419 Y16.28291 I0.74654 J0.072
G3 X1.33155 Y12.96881 I103.76481 J10.44847
G3 X1.61758 Y12.47341 I0.74344 J0.09897
G3 X2.92081 Y11.80214 I2.49327 J3.23985
G3 X3.02046 Y11.77911 I0.21832 J0.71752
G3 X4.50888 Y12.07662 I0.34439 J2.14909
G2 X5.35214 Y12.54086 I32.27876 J-57.63432
G3 X5.19417 Y13.92363 I-0.35691 J0.65963
G1 X4.31606 Y14.16519
G1 X6.12789 Y18.87081
G2 X7.01141 Y16.48183 I-7.29309 J-4.0551
G2 X7.01364 Y14.23653 I-6.98955 J-1.12957
G3 X6.83167 Y11.54144 I13.31593 J-2.25275
G3 X7.11461 Y10.17486 I3.14484 J-0.06146
G3 X7.11969 Y10.16395 I0.68239 J0.31119
G3 X7.37 Y9.78955 I1.40355 J0.66748
G3 X7.6463 Y9.59665 I0.55652 J0.50278
G3 X10.14929 Y9.09654 I2.58238 J6.41098
G3 X11.00379 Y9.09209 I0.50956 J15.77337
G3 X11.29979 Y9.16007 I-0.01639 J0.74982
G1 X13.11607 Y9.99222
G1 X14.22999 Y8.57577
G3 X14.93799 Y8.29881 I0.58954 J0.46362
G1 X25.31728 Y9.95904
G3 X25.94739 Y10.74591 I-0.11846 J0.74059
G3 X25.30209 Y13.73108 I-10.12274 J-0.6259
G2 X25.75308 Y14.6613 I5.04639 J-1.87219
G3 X25.84138 Y14.874 I-0.64033 J0.39049
G2 X26.15413 Y15.26626 I0.57983 J-0.14148
G3 X26.07988 Y16.63997 I-0.33561 J0.67072
G2 X25.32051 Y16.93905 I7.38853 J19.8735
G1 X25.31909 Y16.93965
G2 X25.47305 Y17.01358 I2.96477 J-5.97713
G3 X26.52264 Y17.86895 I-1.09427 J2.41439
G3 X26.71883 Y18.00229 I-8.80229 J13.16178
G1 X28.59452 Y13.93179
G3 X27.88586 Y14.11341 I-1.28957 J-3.55845
G1 X26.81011 Y14.32605
G3 X25.94108 Y13.39302 I-0.14544 J-0.73576
G1 X26.74692 Y10.43715
G3 X27.70369 Y9.92158 I0.72359 J0.19727
G2 X29.69857 Y10.52862 I15.63133 J-47.78716
G2 X30.77789 Y10.51764 I0.5188 J-2.05494
G3 X34.22702 Y9.39216 I55.96052 J165.64862
G3 X35.19589 Y10.20518 I0.22525 J0.71538
G3 X34.99302 Y11.14311 I-5.77672 J-0.75858
G3 X33.61261 Y12.11515 I-1.17938 J-0.20867
G2 X33.49574 Y12.15947 I0.0102 J0.20315
G2 X33.07855 Y12.83282 I1.11906 J1.15926
G2 X29.86315 Y24.40163 I213.19079 J65.48478
G3 X29.86258 Y24.40393 I-0.72775 J-0.18131
G2 X29.77678 Y24.76619 I12.20186 J3.08091
G3 X29.76855 Y24.79972 I-0.73229 J-0.16202
G1 X28.018 Y31.2817
G3 X27.59695 Y32.79131 I-6.54179 J-1.01108
G2 X27.64095 Y33.00756 I0.68164 J-0.02611
G3 X27.65781 Y33.05703 I-0.70106 J0.26648
G1 X27.85197 Y33.69937
G3 X27.11947 Y34.66623 I-0.71792 J0.21701
G3 X24.94085 Y34.44673 I0.26325 J-13.5344
G3 X24.92404 Y34.44345 I0.13529 J-0.7377
G3 X18.05759 Y32.83957 I28.32516 J-136.76449
G3 X18.05415 Y32.83867 I0.18898 J-0.7258
G3 X8.55923 Y30.3072 I1157.11682 J-4359.13245
G3 X8.55118 Y30.30499 I0.194 J-0.72447
G2 X2.17788 Y28.71814 I-30.77739 J110.01953
G2 X1.12041 Y28.51323 I-5.64177 J26.2838
G3 X0.97886 Y28.47414 I0.1279 J-0.73901
G1 F300.0 Z-2.0
G3 F800.0 X0.49837 Y27.76462 I0.26946 J-0.69992
G3 X1.06941 Y23.16234 I20.99646 J0.2686
G3 X1.07569 Y23.13785 I0.72954 J0.17398
G2 X1.59391 Y20.86688 I-25.85289 J-7.09408
G3 X1.59795 Y20.84639 I0.73776 J0.13493
G2 X1.56565 Y20.40263 I-0.78369 J-0.16601
G3 X1.26564 Y20.14614 I4.95824 J-6.10318
G3 X1.11286 Y19.95507 I0.50152 J-0.55765
G3 X0.83844 Y18.92533 I1.87706 J-1.05166
G3 X0.94388 Y16.28606 I23.50301 J-0.38279
G3 X0.94419 Y16.28291 I0.74654 J0.072
G3 X1.33155 Y12.96881 I103.76481 J10.44847
G3 X1.61758 Y12.47341 I0.74344 J0.09897
G3 X2.92081 Y11.80214 I2.49327 J3.23985
G3 X3.02046 Y11.77911 I0.21832 J0.71752
G3 X4.50888 Y12.07662 I0.34439 J2.14909
G2 X5.35214 Y12.54086 I32.27876 J-57.63432
G3 X5.19417 Y13.92363 I-0.35691 J0.65963
G1 X4.31606 Y14.16519
G1 X6.12789 Y18.87081
G2 X7.01141 Y16.48183 I-7.29309 J-4.0551
G2 X7.01364 Y14.23653 I-6.98955 J-1.12957
G3 X6.83167 Y11.54144 I13.31593 J-2.25275
G3 X7.11461 Y10.17486 I3.14484 J-0.06146
G3 X7.11969 Y10.16395 I0.68239 J0.31119
G3 X7.37 Y9.78955 I1.40355 J0.66748
G3 X7.6463 Y9.59665 I0.55652 J0.50278
G3 X10.14929 Y9.09654 I2.58238 J6.41098
G3 X11.00379 Y9.09209 I0.50956 J15.77337
G3 X11.29979 Y9.16007 I-0.01639 J0.74982
G1 X13.11607 Y9.99222
G1 X14.22999 Y8.57577
G3 X14.93799 Y8.29881 I0.58954 J0.46362
G1 X25.31728 Y9.95904
G3 X25.94739 Y10.74591 I-0.11846 J0.74059
G3 X25.30209 Y13.73108 I-10.12274 J-0.6259
G2 X25.75308 Y14.6613 I5.04639 J-1.87219
G3 X25.84138 Y14.874 I-0.64033 J0.39049
G2 X26.15413 Y15.26626 I0.57983 J-0.14148
G3 X26.07988 Y16.63997 I-0.33561 J0.67072
G2 X25.32051 Y16.93905 I7.38853 J19.8735
G1 X25.31909 Y16.93965
G2 X25.47305 Y17.01358 I2.96477 J-5.97713
G3 X26.52264 Y17.86895 I-1.09427 J2.41439
G3 X26.71883 Y18.00229 I-8.80229 J13.16178
G1 X28.59452 Y13.93179
G3 X27.88586 Y14.11341 I-1.28957 J-3.55845
G1 X26.81011 Y14.32605
G3 X25.94108 Y13.39302 I-0.14544 J-0.73576
G1 X26.74692 Y10.43715
G3 X27.70369 Y9.92158 I0.72359 J0.19727
G2 X29.69857 Y10.52862 I15.63133 J-47.78716
G2 X30.77789 Y10.51764 I0.5188 J-2.05494
G3 X34.22702 Y9.39216 I55.96052 J165.64862
G3 X35.19589 Y10.20518 I0.22525 J0.71538
G3 X34.99302 Y11.14311 I-5.77672 J-0.75858
G3 X33.61261 Y12.11515 I-1.17938 J-0.20867
G2 X33.49574 Y12.15947 I0.0102 J0.20315
G2 X33.07855 Y12.83282 I1.11906 J1.15926
G2 X29.86315 Y24.40163 I213.19079 J65.48478
G3 X29.86258 Y24.40393 I-0.72775 J-0.18131
G2 X29.77678 Y24.76619 I12.20186 J3.08091
G3 X29.76855 Y24.79972 I-0.73229 J-0.16202
G1 X28.018 Y31.2817
G3 X27.59695 Y32.79131 I-6.54179 J-1.01108
G2 X27.64095 Y33.00756 I0.68164 J-0.02611
G3 X27.65781 Y33.05703 I-0.70106 J0.26648
G1 X27.85197 Y33.69937
G3 X27.11947 Y34.66623 I-0.71792 J0.21701
G3 X24.94085 Y34.44673 I0.26325 J-13.5344
G3 X24.92404 Y34.44345 I0.13529 J-0.7377
G3 X18.05759 Y32.83957 I28.32516 J-136.76449
G3 X18.05415 Y32.83867 I0.18898 J-0.7258
G3 X8.55923 Y30.3072 I1157.11682 J-4359.13245
G3 X8.55118 Y30.30499 I0.194 J-0.72447
G2 X2.17788 Y28.71814 I-30.77739 J110.01953
G2 X1.12041 Y28.51323 I-5.64177 J26.2838
G3 X0.97886 Y28.47414 I0.1279 J-0.73901
G1 F300.0 X1.25333 Y29.10082
G3 F800.0 X1.56653 Y29.00964 I0.50653 J1.15651
G3 X1.76205 Y29.00515 I0.11484 J0.74115
G3 X2.52427 Y29.12729 I-0.81268 J7.51103
G3 X7.77394 Y30.31253 I-3.22055 J26.48299
G3 X10.66078 Y31.50664 I-4.424 J14.78192
G3 X12.00658 Y32.62896 I-1.97756 J3.7394
G3 X11.39886 Y33.84274 I-0.58923 J0.46401
G3 X2.7603 Y33.17571 I2.03907 J-82.67875
G3 X2.71604 Y33.16859 I0.09683 J-0.74372
G2 X1.40091 Y33.02511 I-1.54601 J8.0714
G3 X0.50367 Y32.41744 I-0.02004 J-0.93663
G3 X0.14364 Y31.06677 I4.97105 J-2.04839
G3 X0.13762 Y30.99118 I0.74366 J-0.09733
G3 X0.84055 Y29.3919 I2.03643 J-0.05904
G3 X1.25333 Y29.10082 I0.91931 J0.86543
G1 F300.0 Z-3.0
G3 F800.0 X1.56653 Y29.00964 I0.50653 J1.15651
G3 X1.76205 Y29.00515 I0.11484 J0.74115
G3 X2.52427 Y29.12729 I-0.81268 J7.51103
G3 X7.77394 Y30.31253 I-3.22055 J26.48299
G3 X10.66078 Y31.50664 I-4.424 J14.78192
G3 X12.00658 Y32.62896 I-1.97756 J3.7394
G3 X11.39886 Y33.84274 I-0.58923 J0.46401
G3 X2.7603 Y33.17571 I2.03907 J-82.67875
G3 X2.71604 Y33.16859 I0.09683 J-0.74372
G2 X1.40091 Y33.02511 I-1.54601 J8.0714
G3 X0.50367 Y32.41744 I-0.02004 J-0.93663
G3 X0.14364 Y31.06677 I4.97105 J-2.04839
G3 X0.13762 Y30.99118 I0.74366 J-0.09733
G3 X0.84055 Y29.3919 I2.03643 J-0.05904
G3 X1.25333 Y29.10082 I0.91931 J0.86543
G0 Z3.0
G0 X8.98254 Y37.35137
G0 Z1.0
G1 F300.0 Z-1.0
G3 F800.0 X9.48779 Y37.14875 I0.51275 J0.54734
G1 X20.44719 Y37.03919
G3 X21.19219 Y37.65279 I0.0075 J0.74996
G1 X21.67543 Y40.26633
G1 X22.26723 Y40.1706
G1 X24.90606 Y37.11592
G3 X26.19525 Y37.81054 I0.56755 J0.49029
G1 X20.63073 Y57.4631
G1 X21.0843 Y58.44569
G3 X20.62622 Y59.47614 I-0.68095 J0.31433
G3 X20.14123 Y59.59556 I-1.23152 J-3.95697
G2 X20.00471 Y60.62262 I7.45998 J1.5142
G3 X19.62366 Y61.22847 I-0.74846 J-0.048
G1 X19.50867 Y61.29308
G3 X19.50713 Y61.29394 I-0.36741 J-0.65384
G3 X17.47645 Y61.47899 I-1.22324 J-2.18886
G3 X17.46154 Y61.47374 I0.24151 J-0.71005
G3 X16.06202 Y60.75274 I2.12847 J-5.85026
G2 X6.93014 Y55.61354 I-122.07516 J206.23359
G3 X6.89319 Y55.59243 I0.35346 J-0.66149
G2 X3.37517 Y53.71012 I-18.4886 J30.32619
G3 X1.56925 Y52.84256 I27.20467 J-58.94336
G3 X1.56082 Y52.83829 I0.33516 J-0.67095
G3 X0.14627 Y50.83504 I1.21619 J-2.35984
G3 X0.14488 Y50.82424 I0.7432 J-0.10074
G3 X0.10316 Y48.73339 I10.37172 J-1.2528
G2 X0.16721 Y46.5338 I-53.30468 J-2.65276
G3 X0.43823 Y44.05812 I7.98241 J-0.37882
G3 X0.44839 Y44.02395 I0.72372 J0.19679
G3 X1.48248 Y42.84449 I1.88592 J0.61042
G3 X2.10501 Y42.83442 I0.3223 J0.67722
G2 X2.29417 Y42.88332 I0.24717 J-0.56581
G3 X3.23638 Y43.69983 I0.09985 J0.83667
G3 X3.23658 Y43.72335 I-0.74979 J0.01794
G2 X3.30136 Y45.59261 I22.22706 J0.16539
G1 X3.42162 Y45.55596
G3 X4.01182 Y42.08465 I13.27703 J0.47157
G3 X4.2274 Y41.74879 I0.71621 J0.22259
G2 X4.68196 Y41.2002 I-1.61267 J-1.79889
G3 X4.70813 Y41.1599 I0.64175 J0.38814
G3 X5.34961 Y40.46921 I2.76362 J1.92348
G3 X5.37783 Y40.44739 I0.47269 J0.58229
G3 X6.97479 Y39.38902 I11.58206 J15.74187
G3 X8.10794 Y40.02673 I0.38319 J0.64472
G1 X8.12791 Y42.16342
G3 X8.75429 Y37.78289 I168.47209 J21.85486
G3 X8.98254 Y37.35137 I0.741 J0.11582
G0 Z3.0
G0 X2.6778 Y53.69223
G0 Z1.0
G1 F300.0 Z-1.0
G3 F800.0 X5.89942 Y55.32459 I-6.46219 J16.74895
G3 X5.91443 Y55.33447 I-0.40456 J0.63153
G3 X9.60147 Y58.05018 I-31.14476 J46.14489
G2 X10.41651 Y58.69141 I129.24114 J-163.43503
G3 X10.18109 Y59.99688 I-0.46227 J0.5906
G3 X3.7723 Y59.80904 I-2.93596 J-9.25219
G3 X3.75204 Y59.80094 I0.26833 J-0.70036
G3 X1.65833 Y58.78397 I7.83574 J-18.79578
G3 X0.57526 Y58.60682 I0.50551 J-6.48989
G3 X0.00848 Y57.86284 I0.18303 J-0.72732
G1 X0.08056 Y54.61738
G3 X0.1023 Y54.45402 I0.74982 J0.01665
G3 X0.41798 Y53.60408 I3.89473 J0.96299
G3 X1.29943 Y53.22369 I0.66906 J0.33891
G3 X2.6778 Y53.69223 I-5.08382 J17.21749
G1 F300.0 Z-2.0
G3 F800.0 X5.89942 Y55.32459 I-6.46219 J16.74895
G3 X5.91443 Y55.33447 I-0.40456 J0.63153
G3 X9.60147 Y58.05018 I-31.14476 J46.14489
G2 X10.41651 Y58.69141 I129.24114 J-163.43503
G3 X10.18109 Y59.99688 I-0.46227 J0.5906
G3 X3.7723 Y59.80904 I-2.93596 J-9.25219
G3 X3.75204 Y59.80094 I0.26833 J-0.70036
G3 X1.65833 Y58.78397 I7.83574 J-18.79578
G3 X0.57526 Y58.60682 I0.50551 J-6.48989
G3 X0.00848 Y57.86284 I0.18303 J-0.72732
G1 X0.08056 Y54.61738
G3 X0.1023 Y54.45402 I0.74982 J0.01665
G3 X0.41798 Y53.60408 I3.89473 J0.96299
G3 X1.29943 Y53.22369 I0.66906 J0.33891
G3 X2.6778 Y53.69223 I-5.08382 J17.21749
G1 F300.0 X2.79727 Y53.43994
G3 F800.0 X1.56925 Y52.84256 I27.78258 J-58.67318
G3 X1.56082 Y52.83829 I0.33516 J-0.67095
G3 X0.14627 Y50.83504 I1.21619 J-2.35984
G3 X0.14488 Y50.82424 I0.7432 J-0.10074
G3 X0.10316 Y48.73339 I10.37172 J-1.2528
G2 X0.16721 Y46.5338 I-53.30468 J-2.65276
G3 X0.43823 Y44.05812 I7.98241 J-0.37882
G3 X0.44839 Y44.02395 I0.72372 J0.19679
G3 X1.48248 Y42.84449 I1.88592 J0.61042
G3 X2.10501 Y42.83442 I0.3223 J0.67722
G2 X2.29417 Y42.88332 I0.24717 J-0.56581
G3 X3.23638 Y43.69983 I0.09985 J0.83667
G3 X3.23658 Y43.72335 I-0.74979 J0.01794
G2 X3.30136 Y45.59261 I22.22706 J0.16539
G1 X3.42162 Y45.55596
G3 X4.01182 Y42.08465 I13.27703 J0.47157
G3 X4.2274 Y41.74879 I0.71621 J0.22259
G2 X4.68196 Y41.2002 I-1.61267 J-1.79889
G3 X4.70813 Y41.1599 I0.64175 J0.38814
G3 X5.34961 Y40.46921 I2.76362 J1.92348
G3 X5.37783 Y40.44739 I0.47269 J0.58229
G3 X6.97479 Y39.38902 I11.58206 J15.74187
G3 X8.10794 Y40.02673 I0.38319 J0.64472
G1 X8.12791 Y42.16342
G3 X8.75429 Y37.78289 I168.47209 J21.85486
G3 X9.48779 Y37.14875 I0.741 J0.11582
G1 X20.44719 Y37.03919
G3 X21.19219 Y37.65279 I0.0075 J0.74996
G1 X21.67543 Y40.26633
G1 X22.26723 Y40.1706
G1 X24.90606 Y37.11592
G3 X26.19525 Y37.81054 I0.56755 J0.49029
G1 X20.63073 Y57.4631
G1 X21.0843 Y58.44569
G3 X20.62622 Y59.47614 I-0.68095 J0.31433
G3 X20.14123 Y59.59556 I-1.23152 J-3.95697
G2 X20.00471 Y60.62262 I7.45998 J1.5142
G3 X19.62366 Y61.22847 I-0.74846 J-0.048
G1 X19.50867 Y61.29308
G3 X19.50713 Y61.29394 I-0.36741 J-0.65384
G3 X17.47645 Y61.47899 I-1.22324 J-2.18886
G3 X17.46154 Y61.47374 I0.24151 J-0.71005
G3 X16.06202 Y60.75274 I2.12847 J-5.85026
G2 X6.93014 Y55.61354 I-122.07516 J206.23359
G3 X6.89319 Y55.59243 I0.35346 J-0.66149
G2 X3.37517 Y53.71012 I-18.4886 J30.32619
G3 X2.79727 Y53.43994 I27.20467 J-58.94336
G1 F300.0 Z-3.0
G3 F800.0 X1.56925 Y52.84256 I27.78258 J-58.67318
G3 X1.56082 Y52.83829 I0.33516 J-0.67095
G3 X0.14627 Y50.83504 I1.21619 J-2.35984
G3 X0.14488 Y50.82424 I0.7432 J-0.10074
G3 X0.10316 Y48.73339 I10.37172 J-1.2528
G2 X0.16721 Y46.5338 I-53.30468 J-2.65276
G3 X0.43823 Y44.05812 I7.98241 J-0.37882
G3 X0.44839 Y44.02395 I0.72372 J0.19679
G3 X1.48248 Y42.84449 I1.88592 J0.61042
G3 X2.10501 Y42.83442 I0.3223 J0.67722
G2 X2.29417 Y42.88332 I0.24717 J-0.56581
G3 X3.23638 Y43.69983 I0.09985 J0.83667
G3 X3.23658 Y43.72335 I-0.74979 J0.01794
G2 X3.30136 Y45.59261 I22.22706 J0.16539
G1 X3.42162 Y45.55596
G3 X4.01182 Y42.08465 I13.27703 J0.47157
G3 X4.2274 Y41.74879 I0.71621 J0.22259
G2 X4.68196 Y41.2002 I-1.61267 J-1.79889
G3 X4.70813 Y41.1599 I0.64175 J0.38814
G3 X5.34961 Y40.46921 I2.76362 J1.92348
G3 X5.37783 Y40.44739 I0.47269 J0.58229
G3 X6.97479 Y39.38902 I11.58206 J15.74187
( gcode truncated )
( please support CamBam development by registering )
( www.cambam.info/shop )
G0 Z3.0
M5
M30
