( Made using CamBam - http://www.cambam.co.uk )
( Motorsportfreunde_Schauinsland-Hochzeit 7/30/2021 3:22:00 PM )
( T3 : 3.0 )
G21 G90 G64 G40
G0 Z3.0
( T3 : 3.0 )
T3 M6
( Tasche3mm )
G17
M3 S1000
G0 X33.62717 Y4.09566
G0 Z1.0
G1 F300.0 Z-1.5
G3 F800.0 X33.62984 Y4.09048 I3.27231 J1.68039
G3 X33.68476 Y3.99305 I1.33326 J0.68733
G3 X33.77837 Y3.84984 I2.57092 J1.57825
G3 X34.45609 Y3.15015 I2.397 J1.64367
G3 X35.70038 Y2.60615 I1.79959 J2.42115
G3 X36.61203 Y2.46025 I1.25659 J4.93059
G3 X37.49839 Y2.47743 I0.37277 J3.6409
G3 X37.50293 Y2.47792 I-0.54142 J5.0593
G3 X37.57401 Y2.48731 I-0.16095 J1.49134
G3 X39.18822 Y3.17881 I-0.55021 J3.51422
G3 X39.79601 Y3.7576 I-2.20342 J2.92234
G2 X40.41066 Y4.31024 I2.61072 J-2.28551
G2 X42.50357 Y5.35036 I15.10334 J-27.76503
G3 X47.66158 Y7.83124 I-34.5396 J78.41389
G3 X47.78831 Y7.90562 I-0.69495 J1.3293
G3 X48.75308 Y8.38144 I-245.69882 J499.39772
G3 X50.11316 Y8.89019 I-3.35862 J11.05111
G3 X51.03419 Y9.35151 I-4.72646 J10.58647
G2 X52.11537 Y9.86189 I19.02873 J-38.91011
G3 X52.2536 Y9.87383 I-0.05989 J1.4988
G3 X52.35912 Y9.88952 I-0.16764 J1.4906
G3 X53.53256 Y10.22282 I-0.81193 J5.09078
G3 X53.76228 Y10.31616 I-2.41784 J6.27991
G3 X55.13743 Y11.10845 I-1.83145 J4.76835
G3 X55.21411 Y11.17153 I-0.91409 J1.1893
G3 X56.93219 Y14.0464 I-3.28328 J3.91298
G3 X56.98322 Y14.27754 I-5.49897 J1.33527
G3 X56.99059 Y14.3174 I-1.47117 J0.29268
G3 X57.00466 Y14.40102 I-15.65746 J2.67736
G3 X57.2178 Y16.78653 I-11.50285 J2.22999
G3 X57.21785 Y16.99251 I-78.13522 J0.1252
G3 X57.21779 Y17.03939 I-15.88472 J0.00225
G3 X57.16827 Y19.69599 I-78.13521 J-0.12765
G3 X56.00493 Y21.10449 I-1.49905 J-0.05345
G2 X52.35004 Y21.96268 I85.48426 J372.2769
G2 X49.26645 Y22.74127 I49.28081 J201.67095
G3 X45.22717 Y23.7223 I-29.65448 J-113.29199
G3 X40.20235 Y24.73371 I-20.18169 J-87.27841
G3 X38.76508 Y24.98118 I-20.59037 J-115.28443
G3 X35.42201 Y25.42198 I-8.1773 J-49.11996
G3 X33.77643 Y23.93975 I-0.14562 J-1.49291
G1 X33.69706 Y12.79315
G3 X35.08123 Y11.28695 I1.49996 J-0.01068
G1 X37.16795 Y11.12538
G3 X36.73543 Y10.40244 I1.01916 J-1.10059
G3 X36.60651 Y9.80839 I7.21184 J-1.87618
G2 X34.3028 Y8.9525 I-15.18994 J37.35691
G3 X33.28742 Y7.65718 I0.47931 J-1.42136
G3 X33.22116 Y5.73529 I19.30174 J-1.62757
G3 X33.35386 Y4.79612 I3.67832 J0.04077
G3 X33.62717 Y4.09566 I2.82151 J0.6974
G0 Z3.0
G0 X34.1295 Y-0.69195
G0 Z1.0
G1 F300.0 Z-1.5
G3 F800.0 X34.91735 Y-0.90619 I2.12618 J6.26325
G3 X35.32031 Y-0.99347 I2.03962 J8.44292
G3 X35.26376 Y-1.39918 I5.01644 J-0.90602
G3 X34.29761 Y-2.26117 I4.63478 J-6.16728
G3 X34.25361 Y-1.99299 I-5.05056 J-0.69089
G2 X34.18768 Y-1.42181 I3.80141 J0.7282
G3 X34.1295 Y-0.69195 I-5.28417 J-0.05398
G1 F300.0 X32.94277 Y-0.86995
G3 F800.0 X31.78726 Y1.41673 I-4.03926 J-0.60584
G3 X32.22409 Y1.95515 I-2.79633 J2.71511
G3 X33.03178 Y1.22146 I3.95128 J3.53836
G3 X35.17947 Y0.26503 I3.2239 J4.34984
G3 X36.40981 Y0.07096 I1.7775 J7.2717
G3 X36.95485 Y0.04369 I0.57499 J6.03018
G3 X36.81735 Y-0.22463 I4.49457 J-2.47269
G3 X36.44031 Y-1.99469 I3.51939 J-1.67486
G3 X36.29393 Y-2.14108 I2.68203 J-2.82808
G3 X36.17686 Y-2.21946 I2.10952 J-3.27738
G3 X34.84053 Y-3.46063 I3.72167 J-5.347
G3 X34.72715 Y-3.6073 I3.02609 J-2.45643
G3 X33.49836 Y-5.46147 I18.27745 J-13.44705
G3 X33.45704 Y-5.5327 I3.35054 J-1.99128
G3 X33.11202 Y-2.44878 I-85.47778 J-8.00174
G3 X33.07504 Y-2.21876 I-3.86497 J-0.50328
G2 X32.98787 Y-1.4499 I4.97998 J0.95397
G3 X32.94277 Y-0.86995 I-4.08436 J-0.0259
G0 Z3.0
G0 X32.55612 Y9.05496
G0 Z1.0
G1 F300.0 Z-1.5
G3 F800.0 X29.60679 Y12.07135 I-2.67702 J0.33258
G3 X28.86846 Y11.97046 I1.08462 J-10.68971
G3 X28.83907 Y12.26098 I-2.69466 J-0.12589
G3 X29.59439 Y12.77097 I-2.08342 J3.89998
G3 X30.26823 Y13.61878 I-1.73191 J2.06822
G3 X30.81087 Y14.70037 I-121.24908 J61.50846
G3 X32.5422 Y18.79976 I-17.54404 J9.82478
G1 X32.49949 Y12.80168
G3 X34.3299 Y10.22803 I2.69753 J-0.01921
G2 X33.92012 Y10.08732 I-12.91332 J36.93725
G3 X32.55612 Y9.05496 I0.862 J-2.55617
G0 Z3.0
G0 X22.14274 Y2.7717
G0 Z1.0
G1 F300.0 Z-1.5
G3 F800.0 X22.32416 Y2.4236 I3.54266 J1.62507
G3 X20.54046 Y2.16848 I2.52449 J-24.01344
G3 X20.5979 Y2.21603 I-4.19858 J5.13082
G2 X20.88143 Y2.37965 I0.74929 J-0.97094
G3 X22.14274 Y2.7717 I-0.7998 J4.79811
G0 Z3.0
G0 X5.21686 Y2.05919
G0 Z1.0
G1 F300.0 Z-1.5
G3 F800.0 X4.89192 Y1.67036 I4.66597 J-4.22948
G3 X3.30982 Y-1.40136 I7.63642 J-5.87647
G3 X3.11645 Y-2.2381 I6.02491 J-1.83308
G3 X3.02264 Y-3.22839 I7.62682 J-1.22203
G3 X2.88565 Y-3.349 I4.62396 J-5.3902
G3 X2.68437 Y-3.53904 I4.22184 J-4.67288
G3 X2.67214 Y1.19306 I-9006.88255 J-20.92531
G2 X2.66878 Y5.07442 I6896.84337 J7.89876
G3 X3.05689 Y4.72162 I4.42653 J4.47946
G3 X4.53319 Y3.62966 I9.93456 J11.8874
G3 X4.59739 Y3.43397 I6.01513 J1.86494
G3 X5.21686 Y2.05919 I7.9266 J2.74476
G1 F300.0 X6.10595 Y1.25326
G3 F800.0 X5.84293 Y0.93853 I3.77687 J-3.42356
G3 X4.45786 Y-1.75065 I6.68541 J-5.14463
G3 X4.30134 Y-2.42795 I4.87687 J-1.48379
G3 X4.22842 Y-3.80745 I6.44194 J-1.03218
G3 X3.69012 Y-4.23941 I3.41819 J-4.81113
G3 X2.37904 Y-6.11734 I3.41737 J-3.78247
G3 X1.56509 Y-10.14682 I10.4438 J-4.20659
G3 X1.56075 Y-11.19428 I20.12004 J-0.6071
G3 X1.6491 Y-12.03419 I5.09638 J0.11152
G3 X1.50042 Y-12.26428 I4.20559 J-2.88072
G3 X1.47214 Y1.19066 I-9005.6986 J-12.20007
G2 X1.46813 Y11.76743 I6898.04337 J7.90115
G3 X2.13748 Y8.36841 I42.51553 J6.60686
G3 X3.8264 Y5.6424 I4.95784 J1.18547
G3 X5.57088 Y4.39427 I9.16504 J10.96662
G3 X5.73133 Y3.82662 I4.97743 J1.10033
G3 X6.7717 Y1.86783 I6.79266 J2.35211
G3 X6.10595 Y1.25326 I3.11113 J-4.03812
G0 Z3.0
G0 X1.50758 Y-20.01133
G0 Z1.0
G1 F300.0 Z-1.5
G1 F800.0 X2.48153 Y-26.09942
G3 X2.51525 Y-26.28753 I5.0336 J0.80525
G3 X2.605 Y-29.15077 I4.93471 J-1.27834
G2 X2.95288 Y-30.26165 I-43.65473 J-14.28054
G3 X2.06091 Y-33.01677 I170.03007 J-56.56888
G3 X1.82979 Y-34.75404 I4.8623 J-1.53087
G3 X1.50244 Y-35.06528 I3.34702 J-3.84805
G3 X1.50758 Y-20.01133 I-9005.70062 J10.60093
G1 F300.0 X2.69251 Y-19.82177
G1 F800.0 X3.66646 Y-25.90986
G3 X3.75579 Y-26.32312 I3.84866 J0.61569
G3 X3.74553 Y-28.77768 I3.69416 J-1.24275
G2 X4.21054 Y-30.28397 I-44.79526 J-14.65364
G3 X3.20552 Y-33.37714 I168.77241 J-56.54656
G3 X3.09922 Y-35.30154 I3.71769 J-1.17049
G3 X1.49171 Y-37.32536 I2.07759 J-3.30055
G3 X0.69849 Y-39.75664 I66.58763 J-23.06983
G3 X0.67117 Y-39.84995 I3.729 J-1.14218
G3 X1.811 Y-44.15023 I4.2279 J-1.18055
G2 X1.85505 Y-44.21354 I-0.21552 J-0.19694
G2 X2.49205 Y-46.57401 I-6.38657 J-2.98968
G3 X2.49288 Y-46.58313 I3.88444 J0.34799
G2 X2.53662 Y-47.19004 I-15.34511 J-1.41101
G3 X0.28066 Y-46.92728 I-1.55963 J-3.57457
G3 X0.27214 Y1.18826 I-9004.47884 J22.46293
G2 X0.28975 Y26.56862 I6899.24337 J7.90355
G3 X0.96851 Y25.52798 I3.5622 J1.58177
G3 X1.7212 Y24.84411 I3.95538 J3.5973
G3 X1.70421 Y24.2775 I3.87704 J-0.39985
G3 X2.41754 Y13.7277 I213.75146 J9.15399
G3 X2.42596 Y13.64604 I3.88104 J0.35896
G3 X3.30458 Y8.64748 I41.5577 J4.72826
G3 X4.59592 Y6.56318 I3.79074 J0.90641
G3 X6.66632 Y5.14619 I8.39552 J10.04583
G3 X6.86527 Y4.21927 I3.882 J0.34841
G3 X8.41466 Y1.82281 I5.65872 J1.95946
G3 X8.73239 Y1.55365 I2.6746 J2.8351
G3 X6.79395 Y0.2067 I1.15044 J-3.72395
G3 X5.6059 Y-2.09994 I5.7344 J-4.4128
G3 X5.48622 Y-2.6178 I3.72883 J-1.1345
G3 X5.50845 Y-4.4311 I5.25705 J-0.84233
G3 X4.49458 Y-5.12982 I2.13815 J-4.18749
G3 X3.49214 Y-6.56568 I2.61291 J-2.89206
G3 X2.76481 Y-10.17425 I9.3307 J-3.75825
G3 X2.76046 Y-11.16803 I18.92032 J-0.57967
G3 X2.95715 Y-12.30809 I3.89667 J0.08527
G3 X2.00603 Y-15.5306 I2.89755 J-2.60682
G1 X2.69251 Y-19.82177
G1 F300.0 X3.87745 Y-19.63221
G1 F800.0 X4.85139 Y-25.7203
G3 X5.03695 Y-26.35987 I2.66373 J0.42613
G3 X4.88606 Y-28.40458 I2.41301 J-1.206
G2 X5.4584 Y-30.28243 I-45.93578 J-15.02673
G2 X5.45982 Y-30.33365 I-0.16912 J-0.03034
G3 X4.35013 Y-33.73751 I167.52313 J-56.49688
G3 X4.62441 Y-35.9592 I2.57308 J-0.81012
G3 X2.62559 Y-37.7182 I0.5524 J-2.64289
G3 X1.84587 Y-40.10808 I65.45376 J-22.67698
G3 X1.82696 Y-40.17268 I2.58161 J-0.79074
G3 X2.66692 Y-43.30894 I3.07211 J-0.85782
G2 X2.93566 Y-43.69155 I-1.07144 J-1.03823
G2 X3.68727 Y-46.46694 I-7.46718 J-3.51166
G3 X3.68784 Y-46.47325 I2.68923 J0.24091
G2 X3.73213 Y-48.91399 I-16.54007 J-1.52089
G3 X3.73053 Y-48.94635 I2.69586 J-0.14953
G2 X3.67183 Y-50.23106 I-285.7805 J12.41277
G1 X3.62384 Y-50.23147
G3 X-0.92434 Y-48.84761 I-2.64684 J-0.53315
G3 X-0.92786 Y1.18587 I-9003.27384 J24.38325
G2 X-0.88164 Y35.5558 I6900.44337 J7.90595
G3 X-0.61973 Y35.31971 I1.93484 J1.88319
G3 X0.26386 Y34.75884 I3.16447 J4.00878
G3 X0.23317 Y34.68838 I2.45756 J-1.11241
G3 X-0.1497 Y31.06799 I5.84811 J-2.44889
G3 X-0.01074 Y30.58362 I2.65115 J0.49845
G3 X1.34684 Y27.14967 I481.97871 J188.55953
G3 X1.85627 Y26.33537 I2.50512 J1.00072
G3 X2.71835 Y25.61394 I3.06762 J2.78991
G3 X3.06924 Y25.383 I11.22133 J16.66789
G3 X2.90311 Y24.32884 I2.52899 J-0.93874
G3 X3.61244 Y13.83821 I212.55256 J9.10265
G3 X3.61827 Y13.7817 I2.68614 J0.24844
G3 X4.47168 Y8.92654 I40.36539 J4.5926
G3 X5.36544 Y7.48396 I2.62364 J0.62734
G3 X7.65414 Y5.98189 I7.626 J9.12505
G3 X7.87419 Y5.84973 I2.72087 J4.2809
G3 X7.99921 Y4.61192 I2.67412 J-0.35513
G3 X9.23812 Y2.69569 I4.52478 J1.56681
G3 X9.80155 Y2.2875 I1.85114 J1.96222
G3 X12.28766 Y1.84193 I1.91465 J3.52447
G2 X15.66652 Y1.85841 I1.77563 J-17.67236
G3 X15.88799 Y1.84748 I0.2435 J2.68659
G3 X18.23272 Y2.21357 I0.05968 J7.30961
G3 X18.42378 Y2.28455 I-0.84327 J2.56241
G3 X19.84187 Y3.14814 I-2.0819 J5.01475
G2 X20.58227 Y3.54781 I1.50532 J-1.90305
G3 X22.95066 Y4.89831 I-0.50063 J3.62995
G3 X23.01469 Y4.01683 I6.42802 J0.02386
G3 X25.46989 Y1.70779 I2.67071 J0.37993
G1 X26.79848 Y1.6013
G3 X25.66679 Y1.12971 I0.94871 J-3.87031
G3 X24.55469 Y1.35405 I-1.07754 J-2.47304
G3 X19.52555 Y0.72995 I0.29396 J-22.94389
G3 X19.43746 Y0.70737 I0.62581 J-2.62401
G2 X17.94995 Y0.348 I-6.57917 J23.97459
G3 X17.72202 Y0.49108 I-1.54642 J-2.21034
G3 X15.76692 Y1.01379 I-2.00354 J-3.5762
G3 X12.91408 Y0.89948 I-0.40891 J-25.45044
G3 X12.90278 Y0.89836 I0.25901 J-2.68514
G3 X9.52679 Y0.50371 I10.64565 J-105.70241
G3 X7.74496 Y-0.52513 I0.35604 J-2.674
G3 X6.75394 Y-2.44924 I4.78339 J-3.68097
G3 X6.67111 Y-2.80766 I2.58079 J-0.78521
G3 X6.98176 Y-5.15107 I4.07216 J-0.65248
G3 X6.18187 Y-5.43795 I1.31342 J-4.92077
G3 X6.14262 Y-5.45623 I1.11935 J-2.4544
G3 X5.29905 Y-6.02023 I1.50398 J-3.16236
G3 X4.60524 Y-7.01401 I1.80844 J-2.00165
G3 X3.96454 Y-10.2014 I8.2176 J-3.30991
G3 X3.96017 Y-11.14177 I17.72058 J-0.55252
G3 X4.2047 Y-12.20644 I2.69695 J0.05901
G1 X4.39811 Y-12.62854
G1 X4.18709 Y-12.79449
G3 X3.19096 Y-15.34104 I1.6676 J-2.12041
G1 X3.87745 Y-19.63221
G0 Z3.0
G0 X30.59802 Y-14.12017
G0 Z1.0
G1 F300.0 Z-1.5
G3 F800.0 X31.97976 Y-13.24018 I-0.68982 J2.60791
G1 X31.92071 Y-19.15843
G3 X31.53969 Y-17.66174 I-137.4257 J-34.18831
G3 X31.53643 Y-17.64935 I-2.61055 J-0.67976
G3 X30.59802 Y-14.12017 I-4360.9923 J-1157.70148
G0 Z3.0
G0 X32.70022 Y-22.46015
G0 Z1.0
G1 F300.0 Z-1.5
G3 F800.0 X33.34412 Y-22.93454 I1.90434 J1.91064
G1 X32.8909 Y-23.32608
G3 X32.70022 Y-22.46015 I-138.39589 J-30.02067
G0 Z3.0
G0 X54.38074 Y5.43946
G0 Z1.0
G1 F300.0 Z-1.5
G3 F800.0 X55.3167 Y5.76903 I-2.83355 J9.54084
G3 X55.56923 Y5.87135 I-4.20198 J10.7337
G3 X56.41689 Y6.253 I-3.6384 J9.21316
G3 X56.68993 Y5.12039 I13.09651 J2.55789
G3 X54.55455 Y5.44332 I-1.99541 J-5.97311
G1 X54.38074 Y5.43946
G1 F300.0 X54.40741 Y4.23975
G1 F800.0 X51.33577 Y4.17147
G3 X50.22541 Y4.02369 I0.11329 J-5.09634
G3 X49.44837 Y3.79101 I2.00668 J-8.11519
G3 X48.23393 Y4.06738 I-2.15487 J-6.66259
G3 X48.21346 Y4.07011 I-0.68461 J-5.05142
G3 X49.32836 Y4.64305 I-40.24949 J79.69414
G3 X49.5159 Y4.74617 I-2.36174 J4.51749
G3 X50.09988 Y5.0341 I-247.42641 J502.55718
G3 X51.58137 Y5.60582 I-4.70542 J14.39845
G3 X52.69416 Y6.15844 I-6.19467 J13.87084
G2 X53.14668 Y6.37497 I17.36875 J-35.71703
G3 X54.87067 Y6.8831 I-1.59948 J8.60534
G3 X55.11698 Y6.98294 I-3.75595 J9.61963
G3 X57.36868 Y8.28622 I-3.18615 J8.10156
G3 X57.38039 Y8.29543 I-3.14534 J4.01153
G3 X58.57055 Y3.54499 I12.13302 J0.51546
G3 X59.22435 Y2.52047 I4.59342 J2.21044
G3 X58.88585 Y2.0487 I3.96578 J-3.20283
G3 X54.58122 Y4.24362 I-4.19133 J-2.90142
G1 X54.40741 Y4.23975
G1 F300.0 X54.43408 Y3.04005
G1 F800.0 X51.36244 Y2.97177
G3 X50.51346 Y2.85877 I0.08662 J-3.89664
G3 X49.46183 Y2.51044 I1.71863 J-6.95028
G3 X48.07277 Y2.87825 I-2.16833 J-5.38203
G3 X48.01664 Y2.88544 I-0.52345 J-3.86229
G3 X45.3477 Y2.94376 I-1.63 J-13.49664
G2 X43.40142 Y2.88637 I-2.4531 J50.16311
G3 X42.90818 Y2.89455 I-0.43127 J-11.13065
G2 X43.48057 Y3.16082 I12.60582 J-26.34933
G3 X48.77239 Y5.70649 I-35.5166 J80.60343
G3 X48.94783 Y5.80404 I-1.80577 J3.45405
G3 X49.6471 Y6.14885 I-246.85834 J501.4993
G3 X51.09164 Y6.70134 I-4.25263 J13.2837
G3 X52.14208 Y7.22432 I-5.70494 J12.77532
G2 X52.78182 Y7.52917 I17.92083 J-36.78291
G3 X54.42453 Y7.99714 I-1.23462 J7.45113
G3 X54.66487 Y8.09462 I-3.30981 J8.50559
G3 X56.6238 Y9.22707 I-2.73404 J6.98989
G3 X56.77364 Y9.35034 I-2.40046 J3.07068
G3 X59.27141 Y13.51945 I-4.84281 J5.73417
G3 X59.33474 Y13.80972 I-7.83819 J1.86222
G3 X59.35389 Y13.91328 I-3.82269 J0.7605
G3 X59.36474 Y13.97741 I-18.02076 J3.08148
G3 X59.36964 Y14.00314 I-13.86293 J2.6536
G1 X59.44397 Y13.21771
G3 X59.46337 Y13.05104 I3.88026 J0.36719
G3 X59.2317 Y12.55696 I3.40445 J-1.89764
G3 X58.83317 Y11.21512 I8.20347 J-3.16658
G3 X58.82962 Y11.19822 I3.81276 J-0.8088
G3 X58.78647 Y10.97959 I11.19912 J-2.32386
G3 X59.65186 Y4.06534 I10.72693 J-2.1687
G3 X60.97938 Y2.5276 I3.51211 J1.69009
G3 X59.36851 Y-1.44818 I2.21075 J-3.20996
G3 X59.17862 Y-1.85366 I3.42896 J-1.85297
G3 X58.65304 Y-0.78384 I-21.35824 J-9.82888
G3 X58.47425 Y0.09852 I-9.54391 J-1.47455
G3 X54.60789 Y3.04391 I-3.77974 J-0.95124
G1 X54.43408 Y3.04005
G0 Z3.0
G0 X74.42358 Y4.70358
G0 Z1.0
G1 F300.0 Z-1.5
G3 F800.0 X76.23827 Y6.03651 I-12.39801 J18.7808
G3 X77.6234 Y2.63555 I5.09675 J0.09324
G3 X77.60556 Y2.60001 I4.54655 J-2.30531
G3 X74.42358 Y4.70358 I-4.19801 J-2.89175
G1 F300.0 X74.1844 Y3.52766
G3 F800.0 X73.00442 Y3.58496 I-0.77685 J-3.8194
G1 X68.71416 Y3.13882
G3 X67.86062 Y2.95158 I0.40313 J-3.8767
G3 X67.85935 Y2.95201 I-2.04189 J-6.02337
G3 X73.23556 Y5.37728 I-13.74205 J37.63404
G3 X73.46933 Y5.51496 I-1.85988 J3.42522
G3 X77.61001 Y8.95907 I-11.44377 J17.96942
G1 X77.44533 Y6.37792
G3 X79.20803 Y2.86368 I3.88969 J-0.24818
G3 X78.28597 Y0.65581 I2.96192 J-2.53344
G3 X78.26726 Y0.00296 I5.92117 J-0.49633
G3 X77.83582 Y-0.84525 I3.23231 J-2.17795
G3 X77.4832 Y0.10002 I-21.8658 J-7.61819
G3 X77.16995 Y0.86322 I-23.70953 J-9.28545
G3 X77.16544 Y0.87369 I-3.58126 J-1.53814
G3 X76.8743 Y1.48951 I-9.46792 J-4.0993
G3 X74.1844 Y3.52766 I-3.46676 J-1.78125
G0 Z3.0
G0 X98.61635 Y2.54895
G0 Z1.0
G1 F300.0 Z-1.5
G3 F800.0 X98.89486 Y2.29076 I8.50035 J8.89011
G3 X98.71749 Y2.16978 I6.84178 J-10.22155
G3 X98.61635 Y2.54895 I-26.73097 J-6.92724
G1 F300.0 X97.45911 Y2.23144
G3 F800.0 X97.01371 Y3.68869 I-25.4726 J-6.98891
G3 X96.84337 Y4.15828 I-10.51496 J-3.54858
G3 X97.6564 Y5.63279 I-12.81871 J8.02948
G3 X100.3948 Y2.60582 I9.4603 J5.80627
G1 X101.03041 Y2.12214
G3 X97.96882 Y-0.00166 I4.70623 J-10.05293
G3 X97.45911 Y2.23144 I-25.98231 J-4.7558
G1 F300.0 X96.30188 Y1.91393
G3 F800.0 X95.87671 Y3.30498 I-24.31537 J-6.6714
G3 X95.48838 Y4.28125 I-9.37796 J-3.16486
G3 X96.65995 Y6.3329 I-11.46372 J7.9065
G3 X96.68346 Y6.38258 I-8.93451 J4.25875
G3 X97.43629 Y8.45082 I-11.06223 J5.19776
G3 X97.5005 Y8.69979 I-11.6522 J3.13786
G3 X97.62963 Y8.60964 I742.10145 J1062.87873
G3 X101.12149 Y3.56077 I9.48706 J2.82942
G1 X103.05675 Y2.08808
G3 X103.55475 Y1.73286 I5.9952 J7.8783
G1 X103.19733 Y1.63801
G3 X97.07073 Y-3.14413 I2.53931 J-9.5688
G3 X96.8081 Y-0.32649 I-15.12598 J0.01115
G3 X96.30188 Y1.91393 I-24.82158 J-4.43097
G1 F300.0 X95.14465 Y1.59642
G3 F800.0 X94.73972 Y2.92126 I-23.15813 J-6.35389
G3 X94.08495 Y4.39428 I-8.24096 J-2.78115
G3 X95.57393 Y6.8434 I-10.06028 J7.79348
G3 X95.59737 Y6.8929 I-7.8485 J3.74825
G3 X96.27693 Y8.76047 I-9.97615 J4.68745
G3 X96.62119 Y10.77899 I-10.49283 J2.82821
G3 X98.6724 Y9.34528 I742.98076 J1060.79953
G3 X101.84818 Y4.51571 I8.44429 J2.09378
G1 X103.78345 Y3.04302
G3 X109.47775 Y1.2768 I5.26851 J6.92335
G2 X109.8188 Y1.03457 I-44.61199 J-63.17367
G1 X109.71596 Y0.98442
G3 X105.33368 Y0.96341 I-2.15077 J-8.42996
G1 X103.50513 Y0.47816
G3 X97.57114 Y-4.92834 I2.23151 J-8.40895
G1 X95.54417 Y-5.93851
G3 X95.82813 Y-4.22158 I-9.26097 J2.41357
G3 X95.62783 Y-0.54331 I-13.88337 J1.0886
G3 X95.14465 Y1.59642 I-23.64132 J-4.21415
G1 F300.0 X93.98741 Y1.27891
G3 F800.0 X93.60272 Y2.53755 I-22.0009 J-6.03638
G3 X92.60446 Y4.49148 I-7.10396 J-2.39744
G3 X94.48797 Y7.35405 I-8.57979 J7.69627
G3 X94.51129 Y7.40321 I-6.76254 J3.2376
G3 X95.11756 Y9.07012 I-8.89006 J4.17714
G3 X95.40744 Y12.50962 I-9.33347 J2.51856
G3 X95.93098 Y12.72881 I-2.63254 J7.0228
G3 X99.74444 Y10.0607 I743.67098 J1058.84971
G3 X102.57488 Y5.47066 I7.37225 J1.37837
G1 X104.51014 Y3.99797
G3 X109.81617 Y2.50541 I4.54182 J5.96841
G2 X111.87145 Y1.021 I-44.95041 J-64.40228
G1 X112.12278 Y0.82314
G1 X109.82926 Y-0.29543
G3 X105.64148 Y-0.19645 I-2.26407 J-7.1501
G1 X103.81292 Y-0.6817
G3 X98.55149 Y-5.78054 I1.92372 J-7.24909
G1 X95.45445 Y-7.32399
G3 X94.07067 Y-6.88942 I-2.92848 J-6.90464
G3 X94.0386 Y-6.67389 I-8.55784 J-1.16325
G3 X94.63154 Y-4.13104 I-7.7554 J3.14895
G3 X94.44759 Y-0.76025 I-12.68679 J0.99805
G3 X93.98741 Y1.27891 I-22.46107 J-3.99722
G1 F300.0 X92.83018 Y0.9614
G3 F800.0 X92.46572 Y2.15384 I-20.84367 J-5.71887
G3 X90.99163 Y4.55303 I-5.96697 J-2.01373
G3 X91.22307 Y4.78462 I-8.49007 J8.7162
G3 X93.40211 Y7.86492 I-7.19841 J7.40313
G3 X93.4252 Y7.91352 I-5.67668 J2.72673
G3 X93.9582 Y9.37977 I-7.80398 J3.66682
G3 X94.06288 Y13.36549 I-8.1741 J2.20891
G3 X96.02035 Y14.1327 I-1.28798 J6.16694
G3 X100.53321 Y10.97366 I743.58161 J1057.44582
G2 X100.85629 Y10.73384 I-18.09757 J-24.71833
G3 X103.30157 Y6.4256 I6.2604 J0.70522
G1 X105.23683 Y4.95291
G3 X110.1171 Y3.75707 I3.81513 J5.01346
G2 X112.60186 Y1.97322 I-45.25134 J-65.65394
G1 X114.36781 Y0.58295
G1 X109.90213 Y-1.59501
G3 X105.94927 Y-1.3563 I-2.33694 J-5.85053
G1 X104.12072 Y-1.84155
G3 X99.57655 Y-6.61045 I1.61592 J-6.08924
G1 X95.46823 Y-8.65789
G3 X92.94856 Y-7.94281 I-2.94226 J-5.57074
G3 X92.79232 Y-6.5324 I-7.43572 J-0.10986
G3 X93.43495 Y-4.04058 I-6.50912 J3.00746
G3 X93.26736 Y-0.97733 I-11.4902 J0.9076
G3 X92.83018 Y0.9614 I-21.28085 J-3.78014
G1 F300.0 X91.67295 Y0.6439
G3 F800.0 X91.32872 Y1.77012 I-19.68643 J-5.40136
G3 X89.11948 Y4.51245 I-4.82997 J-1.63001
G3 X89.5565 Y4.87169 I-11.62697 J14.58947
G3 X90.37462 Y5.63341 I-7.05495 J8.39754
G3 X92.31639 Y8.37611 I-6.34995 J6.55435
G3 X92.33912 Y8.42384 I-4.59096 J2.21554
G3 X92.79883 Y9.68943 I-6.71789 J3.15651
G3 X92.54734 Y14.24805 I-7.01474 J1.89925
G3 X92.46762 Y14.43928 I-4.74403 J-1.86539
G3 X92.68373 Y14.43324 I0.40806 J10.72981
G3 X96.02145 Y15.59924 I0.09117 J5.09919
G3 X101.23067 Y11.95026 I743.58051 J1055.97928
G2 X102.01582 Y11.3571 I-18.79503 J-25.69493
G3 X102.02156 Y11.21637 I23.86886 J0.90227
G3 X104.02826 Y7.38055 I5.09514 J0.2227
G1 X105.96352 Y5.90786
G3 X110.36845 Y5.03922 I3.08844 J4.05852
G2 X113.33236 Y2.92537 I-45.50269 J-66.93609
G1 X116.61285 Y0.34277
G1 X109.91968 Y-2.92156
G3 X106.25707 Y-2.51616 I-2.35448 J-4.52398
G1 X104.42851 Y-3.00141
G3 X100.66824 Y-7.36397 I1.30813 J-4.92938
G1 X100.66312 Y-7.40971
G1 X95.41445 Y-10.02545
G3 X91.63633 Y-9.20682 I-2.88848 J-4.20317
G3 X91.71843 Y-8.6732 I-4.99021 J1.04082
G3 X91.52281 Y-6.38696 I-6.20559 J0.62052
G3 X92.23834 Y-3.95026 I-5.23961 J2.86202
G3 X92.08717 Y-1.19458 I-10.29359 J0.81728
G3 X91.67295 Y0.6439 I-20.10065 J-3.56288
G1 F300.0 X90.51572 Y0.32639
G3 F800.0 X90.19172 Y1.38641 I-18.5292 J-5.08385
G3 X86.66978 Y4.03396 I-3.69297 J-1.2463
G1 X86.33053 Y4.04886
G3 X88.78258 Y5.78878 I-8.83802 J15.05306
G3 X89.52628 Y6.48237 I-6.28103 J7.48045
G3 X91.23091 Y8.88787 I-5.50162 J5.70539
G3 X91.25303 Y8.93415 I-3.50548 J1.70378
G3 X91.63947 Y9.9991 I-5.63181 J2.64619
G3 X91.43057 Y13.80893 I-5.85537 J1.58959
G3 X91.04666 Y14.54413 I-3.62726 J-1.42627
G1 X91.46828 Y15.73594
G3 X92.70518 Y15.63305 I1.4074 J9.43315
G3 X95.87718 Y17.16898 I0.06972 J3.89938
G3 X101.92791 Y12.92701 I743.72478 J1054.40954
G2 X103.20091 Y11.94834 I-19.49227 J-26.67168
G3 X103.22042 Y11.26876 I22.68378 J0.31103
G3 X104.75495 Y8.33549 I3.89628 J0.1703
G1 X106.69021 Y6.8628
G3 X110.54876 Y6.36504 I2.36175 J3.10357
G2 X114.06295 Y3.87746 I-45.683 J-68.26192
G1 X118.85789 Y0.10259
G1 X109.85475 Y-4.28834
G3 X106.56486 Y-3.67601 I-2.28956 J-3.1572
G1 X104.73631 Y-4.16126
G3 X101.8608 Y-7.49734 I1.00033 J-3.76953
G1 X101.78308 Y-8.19232
G1 X95.25714 Y-11.44461
G3 X91.53684 Y-10.45614 I-2.73117 J-2.78401
G1 X90.33459 Y-10.77137
G3 X90.29092 Y-10.53584 I-3.85229 J-0.59255
G2 X90.35018 Y-9.37893 I2.15885 J0.46938
G3 X90.52438 Y-8.5538 I-3.70406 J1.21293
G3 X90.20958 Y-6.23408 I-5.01154 J0.50113
G3 X91.04172 Y-3.86015 I-3.92638 J2.70914
G3 X90.90701 Y-1.41207 I-9.09697 J0.72717
G3 X90.51572 Y0.32639 I-18.9205 J-3.3454
G1 F300.0 X89.35848 Y0.00888
G3 F800.0 X89.05473 Y1.0027 I-17.37197 J-4.76634
G3 X86.61712 Y2.83511 I-2.55597 J-0.86259
G1 X82.28831 Y3.02524
G3 X79.48177 Y0.55557 I-0.11837 J-2.695
G3 X79.49485 Y-0.36996 I4.72536 J-0.39609
G3 X78.83178 Y-1.77505 I2.00472 J-1.80503
G1 X77.65857 Y-9.60096
G3 X77.63024 Y-10.09012 I2.66779 J-0.39994
G3 X77.48079 Y-10.31471 I3.01971 J-2.17128
G3 X76.82816 Y-9.46393 I-5.78352 J-3.76085
G2 X76.22194 Y-8.6583 I16.41272 J12.98096
G3 X76.51426 Y-8.21517 I-2.09467 J1.69982
G3 X77.02736 Y-7.16685 I-17.54322 J9.23609
G1 X77.02823 Y-7.16507
G3 X77.05062 Y-7.11833 I-2.42157 J1.18872
G3 X77.15696 Y-6.87481 I-4.73723 J2.21358
G3 X77.16751 Y-6.85045 I-18.18591 J7.89572
G3 X77.2277 Y-6.69889 I-2.47588 J1.07101
G3 X77.35457 Y-3.47302 I-4.9979 J1.81199
G3 X77.20832 Y-2.89992 I-23.5809 J-5.7124
G3 X76.36705 Y-0.34069 I-21.2383 J-5.56353
G3 X76.06735 Y0.38966 I-22.59338 J-8.84474
G3 X76.06422 Y0.3969 I-2.47865 J-1.06458
G3 X75.80695 Y0.9411 I-8.36671 J-3.62251
G3 X73.12853 Y2.39139 I-2.39941 J-1.23284
G1 X68.83828 Y1.94526
G3 X67.87941 Y1.65894 I0.27901 J-2.68313
G3 X65.55142 Y2.08134 I-2.06068 J-4.73073
G3 X65.45958 Y2.0818 I-0.23225 J-36.64112
G3 X64.82143 Y2.07869 I-0.24922 J-14.32643
G3 X63.02093 Y2.00993 I0.49775 J-36.63847
G3 X60.66947 Y-1.64325 I0.1692 J-2.69229
G3 X60.58657 Y-4.84678 I2.128 J-1.65791
G1 X60.87656 Y-5.26159
G2 X60.70792 Y-5.39539 I-2.47761 J2.94956
G3 X60.63983 Y-5.44809 I1.61697 J-2.15927
G3 X60.28505 Y-5.7368 I17.0042 J-21.25783
G3 X59.31282 Y-7.64791 I1.72021 J-2.07796
G3 X59.15029 Y-12.68836 I84.86299 J-5.25928
G3 X59.23237 Y-14.40522 I10.03028 J-0.38085
G3 X59.48647 Y-15.38447 I3.73255 J0.44594
G3 X59.83775 Y-15.99768 I2.4962 J1.02275
G1 X59.7848 Y-16.10179
G3 X59.21264 Y-15.11125 I-7.34593 J-3.58269
G2 X57.57754 Y-12.30379 I204.58663 J121.03403
G3 X58.66848 Y-10.86452 I-1.48032 J2.25515
G3 X58.4428 Y-3.16987 I-11.10863 J3.52482
G3 X58.41365 Y-3.09698 I-2.51903 J-0.96517
G3 X57.4947 Y-1.1604 I-20.59326 J-8.58555
G3 X57.31054 Y-0.19435 I-8.38557 J-1.09799
G3 X54.63456 Y1.84421 I-2.61603 J-0.65837
G1 X51.38911 Y1.77206
G3 X50.80152 Y1.69386 I0.05995 J-2.69693
G3 X49.53899 Y1.2249 I1.43057 J-5.78536
G3 X49.46534 Y1.18615 I1.21902 J-2.40646
G3 X47.91161 Y1.68912 I-2.17183 J-4.05774
G3 X47.87276 Y1.6941 I-0.36229 J-2.67316
G3 X45.42335 Y1.74602 I-1.48612 J-12.3053
G2 X43.38322 Y1.68613 I-2.52876 J51.36084
G3 X40.36206 Y1.34642 I-0.41307 J-9.93041
G3 X40.23919 Y1.30985 I0.70787 J-2.60307
G3 X37.90091 Y-0.74029 I1.21024 J-3.73886
G3 X37.71221 Y-2.52307 I2.43584 J-1.1592
G3 X37.11367 Y-3.02212 I1.41012 J-2.29969
G2 X37.00733 Y-3.11024 I-0.34872 J0.31261
G3 X36.86239 Y-3.20438 I1.39612 J-2.30822
G3 X35.77221 Y-4.21692 I3.03614 J-4.36209
G3 X35.69374 Y-4.31843 I2.09441 J-1.70014
G3 X34.52993 Y-6.07455 I17.31087 J-12.73592
G3 X34.20011 Y-6.94189 I2.31897 J-1.3782
G3 X32.45694 Y-8.11257 I0.5138 J-2.64822
G3 X31.92206 Y-2.60373 I-84.47768 J-5.42187
G3 X31.89647 Y-2.44453 I-2.67502 J-0.34833
G2 X31.78795 Y-1.47309 I6.15855 J1.17974
G3 X29.95134 Y1.2116 I-2.88444 J-0.0027
G3 X29.27609 Y1.44935 I-2.76717 J-6.78128
G3 X31.65081 Y3.68233 I-0.28517 J2.68249
G1 X32.02188 Y5.8781
G3 X32.02366 Y5.71942 I20.56729 J0.15151
G3 X32.19527 Y4.49262 I4.87582 J0.05664
G3 X32.56936 Y3.534 I3.9801 J1.00089
G3 X32.66413 Y3.3665 I2.39374 J1.24381
G3 X32.79279 Y3.16948 I3.59155 J2.2048
G3 X33.74465 Y2.18676 I3.38258 J2.32403
G3 X35.44088 Y1.43651 I2.51103 J3.38454
G3 X36.51079 Y1.2668 I1.51609 J6.10022
G3 X37.64674 Y1.28893 I0.47401 J4.83435
G3 X37.75925 Y1.30412 I-0.30475 J2.68033
G3 X39.91309 Y2.22549 I-0.73546 J4.69741
G3 X40.70499 Y2.97772 I-2.92829 J3.87566
G2 X41.04921 Y3.29417 I1.70175 J-1.50562
G2 X42.99151 Y4.25665 I14.46479 J-26.74896
G3 X48.21643 Y6.76993 I-35.02755 J79.5076
G3 X48.37331 Y6.85874 I-1.24981 J2.39061
G3 X49.1977 Y7.26529 I-246.28382 J500.4446
G3 X50.60191 Y7.79686 I-3.80324 J12.16726
G3 X51.58843 Y8.28941 I-5.21521 J11.67979
G2 X52.4304 Y8.68892 I18.47448 J-37.848
G3 X52.56112 Y8.70901 I-0.34444 J2.67552
G3 X53.97823 Y9.11113 I-1.01392 J6.27129
G3 X54.21295 Y9.20641 I-2.86351 J7.3916
G3 X55.87935 Y10.16828 I-2.28213 J5.8781
G3 X55.99361 Y10.26227 I-1.65601 J2.12947
G3 X58.10066 Y13.78325 I-4.06278 J4.82224
G3 X58.15781 Y14.04387 I-6.66744 J1.59843
G3 X58.17106 Y14.11554 I-2.64575 J0.52635
G3 X58.18351 Y14.18934 I-16.83793 J2.87922
G3 X58.41541 Y16.79334 I-12.6817 J2.44167
G3 X58.41545 Y16.99305 I-79.33283 J0.1184
G3 X58.41539 Y17.04204 I-17.08232 J0.00171
G3 X58.36511 Y19.73866 I-79.33281 J-0.1303
G3 X58.34126 Y20.01308 I-2.69589 J-0.09613
G3 X60.89446 Y19.33808 I1554.99395 J5876.6268
G3 X60.26 Y17.33185 I2.05115 J-1.75209
G1 X60.63863 Y13.33076
G3 X60.7399 Y12.81142 I2.6856 J0.25414
G3 X60.3512 Y12.12483 I2.12792 J-1.65802
G3 X60.00705 Y10.9661 I7.08398 J-2.73445
G3 X60.00459 Y10.95441 I2.63888 J-0.55978
G3 X59.96438 Y10.75023 I10.02415 J-2.08005
G3 X60.73317 Y4.58569 I9.54902 J-1.93934
G3 X63.35541 Y3.06463 I2.43079 J1.16974
G3 X66.08185 Y3.60765 I-0.78766 J11.07071
G3 X66.7672 Y3.83143 I-4.25107 J14.1814
G3 X66.77168 Y3.83301 I-0.89947 J2.54323
G3 X67.38927 Y4.05791 I-14.64405 J41.17486
G3 X72.66293 Y6.43184 I-13.27197 J36.52815
G3 X72.82473 Y6.52714 I-1.28726 J2.37066
G3 X76.89438 Y9.95336 I-10.79917 J16.95725
G3 X76.95513 Y10.02245 I-1.99513 J1.81562
G3 X77.13152 Y10.23059 I-86.94135 J73.85928
G3 X77.64781 Y10.84565 I-15.08508 J13.18667
G3 X79.04165 Y12.55131 I-87.63403 J73.03608
G1 X78.64289 Y6.30151
G3 X81.88363 Y3.48852 I2.69213 J-0.17177
G3 X83.02627 Y3.817 I-1.61071 J7.75464
G3 X88.00872 Y6.70592 I-5.53376 J15.28492
G3 X88.67813 Y7.33158 I-5.50716 J6.56331
G3 X90.14589 Y9.40067 I-4.65347 J4.85617
G3 X90.16695 Y9.44446 I-2.42046 J1.19098
G3 X90.4801 Y10.30878 I-4.54573 J2.13588
G3 X90.31381 Y13.3698 I-4.69601 J1.27991
G3 X89.69062 Y14.31012 I-2.51049 J-0.98715
G3 X89.70575 Y14.3518 I-2.53029 J0.94214
G1 X90.68647 Y17.12407
G3 X92.72663 Y16.83286 I2.18921 J8.04502
G3 X94.99495 Y17.99575 I0.04827 J2.69957
G1 X95.58316 Y18.84554
G3 X102.62494 Y13.9039 I744.0188 J1052.73298
G2 X104.40031 Y12.51566 I-20.1893 J-27.64857
G3 X104.41927 Y11.32116 I21.48438 J-0.25629
G3 X105.48164 Y9.29044 I2.69742 J0.1179
G1 X107.4169 Y7.81775
G3 X110.61213 Y7.76277 I1.63505 J2.14863
G2 X114.79362 Y4.82947 I-45.74637 J-69.65965
G1 X121.10292 Y-0.1376
G1 X109.64615 Y-5.72518
G3 X106.87266 Y-4.83587 I-2.08095 J-1.72036
G1 X105.0441 Y-5.32112
G3 X103.05337 Y-7.63071 I0.69254 J-2.60967
G1 X102.90304 Y-8.97494
G1 X94.90882 Y-12.95897
G3 X91.84119 Y-11.61691 I-2.38285 J-1.26966
G1 X88.98718 Y-12.36522
G3 X89.11831 Y-10.79079 I-2.50488 J1.0013
G2 X89.20977 Y-9.00549 I3.33145 J0.72433
G3 X89.33033 Y-8.4344 I-2.56365 J0.83949
G3 X88.79354 Y-6.06371 I-3.8175 J0.38173
G3 X89.84507 Y-3.77039 I-2.51034 J2.53877
G3 X89.7269 Y-1.62986 I-7.90031 J0.6374
G3 X89.35848 Y0.00888 I-17.74039 J-3.12761
G0 Z3.0
G0 X34.24738 Y26.4227
G0 Z1.0
G1 F300.0 Z-1.5
G3 F800.0 X33.70251 Y26.11995 I1.029 J-2.49363
G3 X33.4213 Y26.64634 I-2.50536 J-1.00011
G3 X34.24738 Y26.4227 I258.49052 J953.19641
G0 Z3.0
G0 X9.80179 Y32.86943
G0 Z1.0
G1 F300.0 Z-1.5
G3 F800.0 X8.91925 Y33.02033 I-9.40218 J-52.33193
G3 X8.89788 Y33.10736 I-2.63006 J-0.59985
G1 X9.80179 Y32.86943
G1 F300.0 X9.59001 Y31.69071
G3 F800.0 X7.8118 Y31.97847 I-9.1904 J-51.15321
G1 X7.78751 Y32.49142
G3 X6.82041 Y33.82327 I-1.49832 J-0.07093
G1 X6.89097 Y34.04602
G3 X6.91423 Y34.87074 I-1.42996 J0.45302
G3 X6.94585 Y34.86205 I0.41344 J1.4419
G1 X23.35697 Y30.54231
G3 X23.44019 Y30.52293 I0.38182 J1.45059
G3 X24.72459 Y30.42597 I1.02781 J5.0597
G3 X24.95364 Y30.44981 I-0.06295 J1.71674
G2 X25.17597 Y30.29192 I-2.65459 J-3.97335
G3 X25.508 Y30.10256 I0.90307 J1.19769
G3 X26.68833 Y29.7436 I2.46741 J5.99331
G3 X42.32878 Y25.51566 I265.22348 J950.09915
G3 X84.9158 Y14.28534 I1571.00642 J5871.12423
G1 X81.98605 Y14.68015
G3 X80.28876 Y13.2891 I-0.20033 J-1.48656
G1 X79.83806 Y6.22526
G3 X81.64007 Y4.66109 I1.49696 J-0.09551
G3 X82.61416 Y4.94147 I-1.36716 J6.58206
G3 X87.23648 Y7.6213 I-5.12165 J14.16045
G3 X87.83196 Y8.17949 I-4.73493 J5.64793
G3 X89.06409 Y9.91489 I-3.8073 J4.00826
G3 X89.08304 Y9.95376 I-1.33866 J0.67676
G3 X89.32306 Y10.61786 I-3.46181 J1.62659
G3 X89.19927 Y12.93156 I-3.53896 J0.97082
G3 X88.00364 Y13.86922 I-1.39596 J-0.5489
G1 X87.80192 Y13.8964
G3 X88.57445 Y14.752 I-0.64159 J1.35586
G1 X89.96616 Y18.68606
G3 X90.28506 Y18.52424 I3.97876 J7.44603
G3 X90.41905 Y18.46761 I0.65027 J1.35172
G3 X92.74809 Y18.03267 I2.45663 J6.70148
G3 X94.00826 Y18.67872 I0.02681 J1.49976
G1 X95.28647 Y20.52536
G3 X103.32178 Y14.88093 I744.31548 J1051.05316
G2 X105.37794 Y13.26102 I-20.88614 J-28.6256
G2 X105.60805 Y12.87276 I-0.66104 J-0.65412
G3 X105.61813 Y11.37356 I20.27663 J-0.61339
G3 X106.20833 Y10.24538 I1.49857 J0.0655
G1 X108.14359 Y8.77269
G3 X110.21637 Y9.02078 I0.90836 J1.19368
G3 X110.43966 Y9.30472 I-8.95376 J7.27118
G2 X115.52438 Y5.78142 I-45.5739 J-71.20159
G1 X123.34796 Y-0.37778
G1 X109.22909 Y-7.2637
G3 X108.76887 Y-6.55046 I-5.59451 J-3.10476
G3 X107.18045 Y-5.99572 I-1.20367 J-0.89508
G1 X105.3519 Y-6.48097
G3 X104.24593 Y-7.76408 I0.38474 J-1.44982
G1 X104.02299 Y-9.75756
G1 X94.0444 Y-14.73052
G1 X94.02506 Y-14.1763
G3 X92.14554 Y-12.77767 I-1.49909 J-0.05233
G1 X87.59664 Y-13.97037
G1 X87.35008 Y-13.52135
G3 X86.66923 Y-12.88389 I-1.31482 J-0.72198
G1 X86.9617 Y-12.78525
G3 X87.94805 Y-11.04523 I-0.4794 J1.42133
G2 X88.07164 Y-8.6328 I4.50171 J0.97877
G3 X88.13868 Y-8.31525 I-1.42552 J0.4668
G3 X87.73661 Y-6.63182 I-2.62584 J0.26257
G3 X87.66963 Y-6.53551 I-1.26401 J-0.80763
G3 X87.05653 Y-5.75427 I-21.30885 J-16.09134
G3 X87.36135 Y-5.63856 I-0.37677 J1.45191
G3 X88.65074 Y-3.68149 I-1.07815 J2.11362
G3 X88.54922 Y-1.84762 I-6.70599 J0.54851
G3 X87.92 Y0.61975 I-16.56271 J-2.90984
G3 X86.56457 Y1.63867 I-1.42125 J-0.47964
G1 X82.23576 Y1.82879
G3 X80.67519 Y0.45553 I-0.06582 J-1.49856
G3 X80.80783 Y-0.84402 I3.53195 J-0.29606
G3 X80.01615 Y-1.9526 I0.69174 J-1.33097
G1 X78.84294 Y-9.77851
G3 X78.89527 Y-10.45031 I1.48342 J-0.22239
G3 X78.13247 Y-12.40718 I1.75467 J-1.81108
G3 X78.19785 Y-12.7666 I1.49749 J0.08672
G3 X79.81871 Y-14.38449 I2.34801 J0.73145
G3 X77.07963 Y-15.21354 I276.23566 J-917.59564
G3 X77.38953 Y-14.39292 I-1.18699 J0.91709
G3 X77.12759 Y-12.33916 I-5.43557 J0.35031
G3 X75.91371 Y-10.23823 I-5.43032 J-1.7364
G2 X75.04012 Y-9.05955 I17.32717 J13.75526
G3 X75.0264 Y-9.04004 I-1.23405 J-0.85272
G1 X74.56423 Y-8.39342
G3 X75.45456 Y-7.65726 I-0.43697 J1.43494
G3 X75.94409 Y-6.65585 I-16.48351 J8.67817
G2 X75.95318 Y-6.63733 I218.13061 J-107.05531
G3 X75.96562 Y-6.61135 I-1.34651 J0.66099
G3 X76.05259 Y-6.4113 I-3.65223 J1.70659
G3 X76.06834 Y-6.37498 I-17.08154 J7.43221
G3 X76.10181 Y-6.2907 I-1.37671 J0.59553
G3 X76.1953 Y-3.77427 I-3.87201 J1.4038
G3 X76.05069 Y-3.20678 I-22.42163 J-5.41115
G3 X75.25314 Y-0.78052 I-20.08067 J-5.25667
G3 X74.96695 Y-0.08296 I-21.47946 J-8.40491
G3 X74.96521 Y-0.07893 I-1.37825 J-0.59196
G3 X74.74173 Y0.39378 I-7.2677 J-3.14667
G3 X73.2524 Y1.20021 I-1.33419 J-0.68552
G1 X68.96215 Y0.75408
G3 X67.98591 Y0.247 I0.15514 J-1.49196
G3 X67.72033 Y0.40455 I-2.07177 J-3.18978
G3 X65.58068 Y0.88351 I-1.9016 J-3.47635
G3 X65.44676 Y0.88424 I-0.2615 J-35.44329
G3 X64.84593 Y0.88131 I-0.2364 J-13.12887
G3 X63.09605 Y0.81469 I0.47325 J-35.4411
G3 X61.90272 Y-1.45214 I0.09408 J-1.49705
G3 X62.23621 Y-1.91011 I2.68989 J1.60835
G3 X61.5681 Y-4.1606 I0.56126 J-1.39104
G1 X62.37333 Y-5.31241
G2 X62.35578 Y-5.34876 I-4.40399 J2.10302
G2 X62.16142 Y-5.67996 I-3.25883 J1.68979
G2 X61.42577 Y-6.354 I-3.76247 J3.36793
G3 X61.38791 Y-6.3833 I0.89911 J-1.20066
G3 X61.04873 Y-6.65932 I16.25613 J-20.32262
G3 X60.50813 Y-7.72198 I0.95652 J-1.15545
G3 X60.34783 Y-12.71323 I83.66768 J-5.1852
G3 X60.42056 Y-14.25503 I8.83274 J-0.35599
G3 X60.59466 Y-14.93042 I2.54436 J0.29575
G3 X60.8666 Y-15.3639 I1.38801 J0.5687
G1 X61.27333 Y-15.81687
G1 X60.40597 Y-17.52215
G3 X61.87576 Y-19.6963 I1.33699 J-0.68004
G3 X62.44126 Y-19.61837 I-0.52336 J5.88817
G3 X63.99515 Y-19.28287 I-5.31057 J28.36264
G2 X56.99969 Y-21.33809 I-97.53609 J319.05492
G3 X56.7788 Y-21.39323 I10.93924 J-44.29225
G3 X57.00767 Y-20.94348 I-1.20338 J0.89548
G3 X57.02307 Y-20.89305 I-4.67311 J1.45431
G2 X57.48603 Y-20.84755 I0.90223 J-6.80253
G3 X58.67136 Y-20.13045 I-0.09602 J1.49692
G3 X59.0193 Y-17.37559 I-2.90156 J1.76587
G3 X58.99389 Y-17.29946 I-1.43501 J-0.43675
G3 X58.20084 Y-15.75303 I-6.55502 J-2.38502
G2 X55.74652 Y-11.50707 I205.59843 J121.67581
G3 X57.52696 Y-10.50231 I0.35069 J1.45843
G3 X57.32447 Y-3.59836 I-9.96712 J3.16262
G3 X57.30826 Y-3.55783 I-1.4007 J-0.53668
G3 X56.33185 Y-1.52802 I-19.48788 J-8.12471
G3 X56.14916 Y-0.48664 I-7.22272 J-0.73036
G3 X54.66118 Y0.64691 I-1.45464 J-0.36609
G1 X51.41572 Y0.57476
G3 X51.08899 Y0.53127 I0.03334 J-1.49963
G3 X50.08018 Y0.15656 I1.14309 J-4.62278
G3 X49.53692 Y-0.31039 I0.67784 J-1.33811
G3 X47.75077 Y0.50237 I-2.24342 J-2.5612
G3 X47.72917 Y0.50514 I-0.20145 J-1.48641
G3 X45.49989 Y0.55074 I-1.34252 J-11.11634
G2 X43.36286 Y0.48829 I-2.60529 J52.55612
G3 X40.67633 Y0.19079 I-0.39271 J-8.73257
G3 X40.608 Y0.17046 I0.39361 J-1.44744
G3 X38.9823 Y-1.25491 I0.84142 J-2.59946
G3 X38.94282 Y-2.45355 I1.35445 J-0.64457
G3 X39.13912 Y-3.25541 I1.59222 J-0.03518
G3 X38.67713 Y-3.39036 I3.70375 J-13.5379
G3 X38.00542 Y-3.82152 I0.4452 J-1.43241
G2 X37.62714 Y-4.13497 I-1.24047 J1.11201
G3 X37.54655 Y-4.18732 I0.77631 J-1.28349
G3 X36.70202 Y-4.9717 I2.35199 J-3.37915
G3 X36.65839 Y-5.02814 I1.1646 J-0.94536
G3 X35.55943 Y-6.6864 I16.34621 J-12.02621
G3 X35.4378 Y-7.9615 I1.28946 J-0.76635
G3 X34.48223 Y-8.10811 I25.39892 J-168.73282
G3 X33.21398 Y-9.57515 I0.23168 J-1.482
G1 X33.10464 Y-20.53455
G3 X34.33186 Y-22.02452 I1.49993 J-0.01497
G1 X35.89494 Y-22.3135
G1 X33.44111 Y-24.43336
G3 X34.8304 Y-27.0117 I0.9806 J-1.13509
G1 X54.21601 Y-21.52236
G1 X54.94679 Y-21.85968
G3 X54.99641 Y-21.8815 I0.62863 J1.36192
G3 X53.04359 Y-22.50727 I12.94252 J-43.74885
G2 X50.7414 Y-23.17313 I-8.23102 J24.1459
G3 X48.3836 Y-23.62176 I89.72496 J-477.97537
G3 X48.24385 Y-23.65572 I0.28402 J-1.47287
G3 X46.05945 Y-24.41487 I6.79862 J-23.08516
G2 X39.12738 Y-26.741 I-53.77837 J148.77174
G3 X39.10883 Y-26.74688 I0.4442 J-1.43272
G2 X13.44235 Y-34.83975 I-507.97723 J1566.29946
G3 X10.23239 Y-35.71589 I21.12782 J-83.72618
G3 X9.36164 Y-35.00282 I-2.21881 J-1.82126
G3 X9.6969 Y-33.96823 I-1.61154 J1.09384
G2 X9.87215 Y-33.88973 I0.43751 J-0.74187
G2 X21.39855 Y-30.68598 I65.26525 J-212.47363
G3 X21.40314 Y-30.68483 I-0.36266 J1.4555
G2 X21.74381 Y-30.60415 I2.89752 J-11.47462
G3 X21.81086 Y-30.58769 I-0.32407 J1.46458
G1 X28.25387 Y-28.84752
G3 X29.66672 Y-28.47401 I-1.16782 J7.27635
G1 X30.29792 Y-28.6648
G3 X32.23163 Y-27.19975 I0.43399 J1.43585
G3 X31.99992 Y-24.90044 I-14.28425 J-0.27811
G3 X31.99336 Y-24.86681 I-1.47539 J-0.27061
G3 X30.38073 Y-17.96352 I-137.49835 J-28.47994
G3 X30.37892 Y-17.95663 I-1.4516 J-0.37798
G3 X28.9769 Y-12.68815 I-4359.83479 J-1157.3942
G3 X28.9802 Y-12.69075 I3.08432 J3.91005
G3 X31.40774 Y-11.47525 I0.928 J1.17848
G3 X30.73449 Y-2.75837 I-83.42849 J-2.05919
G3 X30.72026 Y-2.66985 I-1.48744 J-0.19369
G2 X30.59029 Y-1.49015 I7.33476 J1.40506
G3 X29.50832 Y0.09889 I-1.68678 J0.01435
G3 X27.9791 Y0.50506 I-2.32416 J-5.66858
G3 X27.82791 Y0.51712 I-0.19463 J-1.48732
G3 X25.71922 Y-0.35685 I-0.08072 J-2.78612
G3 X24.57003 Y0.15655 I-1.12998 J-0.98648
G3 X19.80337 Y-0.43498 I0.27862 J-21.74639
G3 X19.75439 Y-0.44754 I0.34798 J-1.45908
G2 X17.59299 Y-0.94284 I-6.89611 J25.12949
G3 X17.51881 Y-0.85927 I-6.47841 J-5.67633
G3 X17.13668 Y-0.55372 I-1.11528 J-1.00307
G3 X15.75041 Y-0.1837 I-1.4182 J-2.5314
G3 X13.02907 Y-0.29259 I-0.3924 J-24.25295
G3 X13.02278 Y-0.29321 I0.14402 J-1.49307
G3 X9.68485 Y-0.68342 I10.52565 J-104.51083
G3 X8.69406 Y-1.2555 I0.19798 J-1.48688
G3 X7.89968 Y-2.79783 I3.83428 J-2.9506
G3 X7.85363 Y-2.99713 I1.43505 J-0.43661
G3 X8.24462 Y-4.98367 I2.88965 J-0.463
G2 X8.69634 Y-5.80438 I-56.9866 J-31.90042
G3 X8.97494 Y-6.17083 I1.31925 J0.71384
G3 X8.35083 Y-6.1768 I-0.17576 J-14.25406
G3 X6.6788 Y-6.52759 I-0.05564 J-3.89504
G3 X6.65698 Y-6.53775 I0.62241 J-1.36477
G3 X6.10191 Y-6.90886 I0.98962 J-2.08084
G3 X5.71612 Y-7.46146 I1.00558 J-1.11301
G3 X5.16189 Y-10.22815 I7.10672 J-2.86247
G3 X5.15749 Y-11.11557 I16.52323 J-0.52577
G3 X5.29346 Y-11.70758 I1.49964 J0.03281
G1 X5.87966 Y-12.98697
G1 X4.92742 Y-13.73585
G3 X4.37353 Y-15.15186 I0.92727 J-1.17906
G1 X6.03396 Y-25.53112
G3 X6.50377 Y-26.40194 I1.48117 J0.23695
G3 X6.0243 Y-28.03224 I0.94619 J-1.16392
G2 X6.61925 Y-29.98643 I-47.07403 J-15.39908
G2 X6.61494 Y-30.65614 I-1.32997 J-0.32633
G3 X5.49245 Y-34.09716 I166.368 J-56.17439
G3 X6.25356 Y-35.88986 I1.43076 J-0.45047
G3 X5.62141 Y-37.12706 I680.55156 J-348.51161
G2 X5.31617 Y-37.10858 I0.13085 J4.69196
G3 X3.75947 Y-38.11104 I-0.13936 J-1.49351
G3 X2.99325 Y-40.45952 I64.31988 J-22.28414
G3 X2.98275 Y-40.49541 I1.43423 J-0.4393
G3 X3.51498 Y-42.45981 I1.91633 J-0.53509
G2 X4.01809 Y-43.17347 I-1.91949 J-1.88736
G2 X4.88248 Y-46.35987 I-8.54961 J-4.02975
G3 X4.8828 Y-46.36337 I1.49402 J0.13384
G2 X4.93028 Y-48.98045 I-17.73503 J-1.63076
G3 X4.9294 Y-48.99842 I1.4977 J-0.08307
G2 X4.8139 Y-51.42148 I-286.97937 J12.46484
G1 X2.36329 Y-51.44214
G1 X2.44151 Y-51.08898
G3 X-0.1199 Y-49.74147 I-1.46451 J0.32437
G1 X-1.53322 Y-51.25667
G2 X-2.15356 Y-51.35027 I-2.64776 J15.44643
( gcode truncated )
( please support CamBam development by registering )
( www.cambam.info/shop )
G0 Z3.0
M5
M30
