( Made using CamBam - http://www.cambam.co.uk )
( Motorsportfreunde_Schauinsland-Hochzeit 7/30/2021 3:10:37 PM )
( T15 : 1.5 )
G21 G90 G64 G40
G0 Z3.0
( T15 : 1.5 )
T15 M6
( Profil )
G17
M3 S1000
G0 X-20.7842 Y109.24382
G0 Z1.0
G1 F300.0 Z-1.0
G1 F800.0 X-24.5413 Y104.85342
G3 X-26.65241 Y105.45665 I-2.32488 J-4.1406
G3 X-26.70598 Y105.45715 I-0.03376 J-0.74924
G3 X-29.70543 Y104.33328 I0.12978 J-4.91084
G3 X-31.57283 Y102.09597 I4.20106 J-5.40445
G3 X-31.80562 Y99.52463 I2.90579 J-1.55928
G3 X-31.78244 Y99.46235 I0.71381 J0.23017
G3 X-29.49443 Y98.02397 I2.17521 J0.92114
G3 X-29.46998 Y98.02554 I-0.03582 J0.74914
G3 X-27.33452 Y98.74402 I-0.37454 J4.64593
G3 X-25.10378 Y100.21258 I-12.63792 J21.62555
G3 X-25.09587 Y100.21849 I-0.44521 J0.60356
G2 X-21.3684 Y102.55345 I14.93218 J-19.69467
G3 X-21.352 Y102.56205 I-0.34001 J0.6685
G2 X-18.65247 Y103.54577 I4.70037 J-8.70282
G3 X-18.62338 Y103.55239 I-0.15172 J0.73449
G2 X-14.16505 Y101.47627 I0.94362 J-3.79868
G2 X-13.91946 Y97.93997 I-4.74502 J-2.10621
G2 X-15.67071 Y94.43474 I-10.55946 J3.08555
G3 X-15.67348 Y94.43102 I0.6005 J-0.44933
G2 X-19.75603 Y90.04786 I-21.2316 J15.68259
G3 X-19.77204 Y90.03378 I0.48727 J-0.57015
G2 X-22.93561 Y88.05286 I-7.14528 J7.8946
G3 X-22.94766 Y88.04788 I0.28045 J-0.69559
G2 X-27.07191 Y88.09367 I-2.0097 J4.74493
G3 X-27.07599 Y88.09549 I-0.30777 J-0.68394
G2 X-27.64192 Y88.37631 I2.92682 J6.60904
G1 X-23.92942 Y92.68975
G3 X-19.81927 Y93.27545 I1.6156 J3.3769
G3 X-18.30332 Y94.90678 I-4.4929 J5.69517
G3 X-17.75182 Y96.62175 I-2.41794 J1.72371
G3 X-20.11591 Y98.51278 I-1.8569 J0.10184
G3 X-20.14254 Y98.50469 I0.20455 J-0.72157
G3 X-21.72747 Y97.72743 I1.91415 J-5.90774
G3 X-21.7481 Y97.71284 I0.42259 J-0.61961
G2 X-25.33985 Y95.19142 I-64.24627 J87.69936
G3 X-25.35704 Y95.17951 I0.41845 J-0.62242
G2 X-28.78222 Y93.21603 I-11.57136 J16.21634
G3 X-28.7849 Y93.21483 I0.30669 J-0.68443
G2 X-31.09864 Y92.5561 I-3.36895 J7.44046
G2 X-35.6917 Y95.12126 I-0.46014 J4.57073
G2 X-36.17062 Y98.8011 I5.4699 J2.58298
G2 X-34.85338 Y102.16155 I9.65902 J-1.84778
G2 X-32.24257 Y105.48159 I17.86744 J-11.36405
G3 X-32.22447 Y105.50107 I-0.54037 J0.52009
G2 X-28.21582 Y108.9648 I15.528 J-13.91936
G3 X-28.18803 Y108.98414 I-0.4143 J0.62519
G2 X-20.7842 Y109.24382 I3.89362 J-5.3359
G1 F300.0 Z-2.0
G1 F800.0 X-24.5413 Y104.85342
G3 X-26.65241 Y105.45665 I-2.32488 J-4.1406
G3 X-26.70598 Y105.45715 I-0.03376 J-0.74924
G3 X-29.70543 Y104.33328 I0.12978 J-4.91084
G3 X-31.57283 Y102.09597 I4.20106 J-5.40445
G3 X-31.80562 Y99.52463 I2.90579 J-1.55928
G3 X-31.78244 Y99.46235 I0.71381 J0.23017
G3 X-29.49443 Y98.02397 I2.17521 J0.92114
G3 X-29.46998 Y98.02554 I-0.03582 J0.74914
G3 X-27.33452 Y98.74402 I-0.37454 J4.64593
G3 X-25.10378 Y100.21258 I-12.63792 J21.62555
G3 X-25.09587 Y100.21849 I-0.44521 J0.60356
G2 X-21.3684 Y102.55345 I14.93218 J-19.69467
G3 X-21.352 Y102.56205 I-0.34001 J0.6685
G2 X-18.65247 Y103.54577 I4.70037 J-8.70282
G3 X-18.62338 Y103.55239 I-0.15172 J0.73449
G2 X-14.16505 Y101.47627 I0.94362 J-3.79868
G2 X-13.91946 Y97.93997 I-4.74502 J-2.10621
G2 X-15.67071 Y94.43474 I-10.55946 J3.08555
G3 X-15.67348 Y94.43102 I0.6005 J-0.44933
G2 X-19.75603 Y90.04786 I-21.2316 J15.68259
G3 X-19.77204 Y90.03378 I0.48727 J-0.57015
G2 X-22.93561 Y88.05286 I-7.14528 J7.8946
G3 X-22.94766 Y88.04788 I0.28045 J-0.69559
G2 X-27.07191 Y88.09367 I-2.0097 J4.74493
G3 X-27.07599 Y88.09549 I-0.30777 J-0.68394
G2 X-27.64192 Y88.37631 I2.92682 J6.60904
G1 X-23.92942 Y92.68975
G3 X-19.81927 Y93.27545 I1.6156 J3.3769
G3 X-18.30332 Y94.90678 I-4.4929 J5.69517
G3 X-17.75182 Y96.62175 I-2.41794 J1.72371
G3 X-20.11591 Y98.51278 I-1.8569 J0.10184
G3 X-20.14254 Y98.50469 I0.20455 J-0.72157
G3 X-21.72747 Y97.72743 I1.91415 J-5.90774
G3 X-21.7481 Y97.71284 I0.42259 J-0.61961
G2 X-25.33985 Y95.19142 I-64.24627 J87.69936
G3 X-25.35704 Y95.17951 I0.41845 J-0.62242
G2 X-28.78222 Y93.21603 I-11.57136 J16.21634
G3 X-28.7849 Y93.21483 I0.30669 J-0.68443
G2 X-31.09864 Y92.5561 I-3.36895 J7.44046
G2 X-35.6917 Y95.12126 I-0.46014 J4.57073
G2 X-36.17062 Y98.8011 I5.4699 J2.58298
G2 X-34.85338 Y102.16155 I9.65902 J-1.84778
G2 X-32.24257 Y105.48159 I17.86744 J-11.36405
G3 X-32.22447 Y105.50107 I-0.54037 J0.52009
G2 X-28.21582 Y108.9648 I15.528 J-13.91936
G3 X-28.18803 Y108.98414 I-0.4143 J0.62519
G2 X-20.7842 Y109.24382 I3.89362 J-5.3359
G1 F300.0 Z-3.0
G1 F800.0 X-24.5413 Y104.85342
G3 X-26.65241 Y105.45665 I-2.32488 J-4.1406
G3 X-26.70598 Y105.45715 I-0.03376 J-0.74924
G3 X-29.70543 Y104.33328 I0.12978 J-4.91084
G3 X-31.57283 Y102.09597 I4.20106 J-5.40445
G3 X-31.80562 Y99.52463 I2.90579 J-1.55928
G3 X-31.78244 Y99.46235 I0.71381 J0.23017
G3 X-29.49443 Y98.02397 I2.17521 J0.92114
G3 X-29.46998 Y98.02554 I-0.03582 J0.74914
G3 X-27.33452 Y98.74402 I-0.37454 J4.64593
G3 X-25.10378 Y100.21258 I-12.63792 J21.62555
G3 X-25.09587 Y100.21849 I-0.44521 J0.60356
G2 X-21.3684 Y102.55345 I14.93218 J-19.69467
G3 X-21.352 Y102.56205 I-0.34001 J0.6685
G2 X-18.65247 Y103.54577 I4.70037 J-8.70282
G3 X-18.62338 Y103.55239 I-0.15172 J0.73449
G2 X-14.16505 Y101.47627 I0.94362 J-3.79868
G2 X-13.91946 Y97.93997 I-4.74502 J-2.10621
G2 X-15.67071 Y94.43474 I-10.55946 J3.08555
G3 X-15.67348 Y94.43102 I0.6005 J-0.44933
G2 X-19.75603 Y90.04786 I-21.2316 J15.68259
G3 X-19.77204 Y90.03378 I0.48727 J-0.57015
G2 X-22.93561 Y88.05286 I-7.14528 J7.8946
G3 X-22.94766 Y88.04788 I0.28045 J-0.69559
G2 X-27.07191 Y88.09367 I-2.0097 J4.74493
G3 X-27.07599 Y88.09549 I-0.30777 J-0.68394
G2 X-27.64192 Y88.37631 I2.92682 J6.60904
G1 X-23.92942 Y92.68975
G3 X-19.81927 Y93.27545 I1.6156 J3.3769
G3 X-18.30332 Y94.90678 I-4.4929 J5.69517
G3 X-17.75182 Y96.62175 I-2.41794 J1.72371
G3 X-20.11591 Y98.51278 I-1.8569 J0.10184
G3 X-20.14254 Y98.50469 I0.20455 J-0.72157
G3 X-21.72747 Y97.72743 I1.91415 J-5.90774
G3 X-21.7481 Y97.71284 I0.42259 J-0.61961
G2 X-25.33985 Y95.19142 I-64.24627 J87.69936
G3 X-25.35704 Y95.17951 I0.41845 J-0.62242
G2 X-28.78222 Y93.21603 I-11.57136 J16.21634
G3 X-28.7849 Y93.21483 I0.30669 J-0.68443
G2 X-31.09864 Y92.5561 I-3.36895 J7.44046
G2 X-35.6917 Y95.12126 I-0.46014 J4.57073
G2 X-36.17062 Y98.8011 I5.4699 J2.58298
G2 X-34.85338 Y102.16155 I9.65902 J-1.84778
G2 X-32.24257 Y105.48159 I17.86744 J-11.36405
G3 X-32.22447 Y105.50107 I-0.54037 J0.52009
G2 X-28.21582 Y108.9648 I15.528 J-13.91936
G3 X-28.18803 Y108.98414 I-0.4143 J0.62519
G2 X-20.7842 Y109.24382 I3.89362 J-5.3359
G0 Z3.0
G0 X-34.43845 Y90.29176
G0 Z1.0
G1 F300.0 Z-1.0
G2 F800.0 X-32.91488 Y88.86915 I-4.81707 J-6.68608
G2 X-31.66908 Y85.48942 I-4.84869 J-3.70674
G3 X-31.66843 Y85.47868 I0.74892 J0.04019
G2 X-32.38879 Y81.49957 I-8.24864 J-0.56145
G2 X-34.77114 Y77.60699 I-20.12855 J9.64382
G3 X-34.78564 Y77.58732 I0.59632 J-0.45486
G2 X-37.86867 Y74.45037 I-11.40588 J8.12633
G2 X-42.46889 Y73.26013 I-3.83184 J5.32492
G1 X-40.08101 Y77.53541
G3 X-37.71811 Y78.11699 I0.45385 J3.24698
G3 X-35.50143 Y81.47886 I-3.22432 J4.53772
G3 X-35.49864 Y81.49236 I-0.73308 J0.15842
G3 X-36.16248 Y84.55175 I-3.86956 J0.76208
G3 X-36.16345 Y84.5531 I-0.60962 J-0.43687
G3 X-39.03105 Y86.75832 I-5.11231 J-3.6808
G3 X-39.0407 Y86.76193 I-0.26725 J-0.70077
G3 X-42.77298 Y86.21638 I-1.36174 J-3.72356
G3 X-42.77902 Y86.21182 I0.44843 J-0.60118
G3 X-44.73268 Y83.49068 I3.46651 J-4.55068
G3 X-44.7342 Y83.48611 I0.71061 J-0.23986
G3 X-44.5046 Y80.42031 I3.80335 J-1.25665
G3 X-44.4687 Y80.34926 I4.7457 J2.35262
G1 X-47.75276 Y76.55087
G2 X-48.52895 Y80.46881 I5.75334 J3.17567
G2 X-47.05765 Y84.5954 I10.17886 J-1.30359
G3 X-47.05189 Y84.6048 I-0.63639 J0.39687
G2 X-43.9805 Y88.68431 I21.37783 J-12.899
G3 X-43.96392 Y88.70279 I-0.5499 J0.51001
G2 X-40.25687 Y91.23438 I6.67063 J-5.78799
G2 X-37.442 Y91.58331 I2.22547 J-6.42461
G2 X-35.56156 Y90.97284 I-0.57982 J-4.98745
G3 X-35.53287 Y90.95753 I0.36749 J0.6538
G2 X-34.43845 Y90.29176 I-3.72265 J-7.35185
G1 F300.0 Z-2.0
G2 F800.0 X-32.91488 Y88.86915 I-4.81707 J-6.68608
G2 X-31.66908 Y85.48942 I-4.84869 J-3.70674
G3 X-31.66843 Y85.47868 I0.74892 J0.04019
G2 X-32.38879 Y81.49957 I-8.24864 J-0.56145
G2 X-34.77114 Y77.60699 I-20.12855 J9.64382
G3 X-34.78564 Y77.58732 I0.59632 J-0.45486
G2 X-37.86867 Y74.45037 I-11.40588 J8.12633
G2 X-42.46889 Y73.26013 I-3.83184 J5.32492
G1 X-40.08101 Y77.53541
G3 X-37.71811 Y78.11699 I0.45385 J3.24698
G3 X-35.50143 Y81.47886 I-3.22432 J4.53772
G3 X-35.49864 Y81.49236 I-0.73308 J0.15842
G3 X-36.16248 Y84.55175 I-3.86956 J0.76208
G3 X-36.16345 Y84.5531 I-0.60962 J-0.43687
G3 X-39.03105 Y86.75832 I-5.11231 J-3.6808
G3 X-39.0407 Y86.76193 I-0.26725 J-0.70077
G3 X-42.77298 Y86.21638 I-1.36174 J-3.72356
G3 X-42.77902 Y86.21182 I0.44843 J-0.60118
G3 X-44.73268 Y83.49068 I3.46651 J-4.55068
G3 X-44.7342 Y83.48611 I0.71061 J-0.23986
G3 X-44.5046 Y80.42031 I3.80335 J-1.25665
G3 X-44.4687 Y80.34926 I4.7457 J2.35262
G1 X-47.75276 Y76.55087
G2 X-48.52895 Y80.46881 I5.75334 J3.17567
G2 X-47.05765 Y84.5954 I10.17886 J-1.30359
G3 X-47.05189 Y84.6048 I-0.63639 J0.39687
G2 X-43.9805 Y88.68431 I21.37783 J-12.899
G3 X-43.96392 Y88.70279 I-0.5499 J0.51001
G2 X-40.25687 Y91.23438 I6.67063 J-5.78799
G2 X-37.442 Y91.58331 I2.22547 J-6.42461
G2 X-35.56156 Y90.97284 I-0.57982 J-4.98745
G3 X-35.53287 Y90.95753 I0.36749 J0.6538
G2 X-34.43845 Y90.29176 I-3.72265 J-7.35185
G1 F300.0 Z-3.0
G2 F800.0 X-32.91488 Y88.86915 I-4.81707 J-6.68608
G2 X-31.66908 Y85.48942 I-4.84869 J-3.70674
G3 X-31.66843 Y85.47868 I0.74892 J0.04019
G2 X-32.38879 Y81.49957 I-8.24864 J-0.56145
G2 X-34.77114 Y77.60699 I-20.12855 J9.64382
G3 X-34.78564 Y77.58732 I0.59632 J-0.45486
G2 X-37.86867 Y74.45037 I-11.40588 J8.12633
G2 X-42.46889 Y73.26013 I-3.83184 J5.32492
G1 X-40.08101 Y77.53541
G3 X-37.71811 Y78.11699 I0.45385 J3.24698
G3 X-35.50143 Y81.47886 I-3.22432 J4.53772
G3 X-35.49864 Y81.49236 I-0.73308 J0.15842
G3 X-36.16248 Y84.55175 I-3.86956 J0.76208
G3 X-36.16345 Y84.5531 I-0.60962 J-0.43687
G3 X-39.03105 Y86.75832 I-5.11231 J-3.6808
G3 X-39.0407 Y86.76193 I-0.26725 J-0.70077
G3 X-42.77298 Y86.21638 I-1.36174 J-3.72356
G3 X-42.77902 Y86.21182 I0.44843 J-0.60118
G3 X-44.73268 Y83.49068 I3.46651 J-4.55068
G3 X-44.7342 Y83.48611 I0.71061 J-0.23986
G3 X-44.5046 Y80.42031 I3.80335 J-1.25665
G3 X-44.4687 Y80.34926 I4.7457 J2.35262
G1 X-47.75276 Y76.55087
G2 X-48.52895 Y80.46881 I5.75334 J3.17567
G2 X-47.05765 Y84.5954 I10.17886 J-1.30359
G3 X-47.05189 Y84.6048 I-0.63639 J0.39687
G2 X-43.9805 Y88.68431 I21.37783 J-12.899
G3 X-43.96392 Y88.70279 I-0.5499 J0.51001
G2 X-40.25687 Y91.23438 I6.67063 J-5.78799
G2 X-37.442 Y91.58331 I2.22547 J-6.42461
G2 X-35.56156 Y90.97284 I-0.57982 J-4.98745
G3 X-35.53287 Y90.95753 I0.36749 J0.6538
G2 X-34.43845 Y90.29176 I-3.72265 J-7.35185
G0 Z3.0
G0 X-44.0689 Y71.0173
G0 Z1.0
G1 F300.0 Z-1.0
G1 F800.0 X-33.18893 Y65.58114
G1 X-35.5894 Y60.7772
G1 X-41.70927 Y63.83521
G3 X-42.763 Y62.94921 I-0.33524 J-0.67091
G2 X-42.48667 Y59.89397 I-7.37161 J-2.20686
G2 X-44.04702 Y55.97824 I-9.02351 J1.32696
G3 X-44.06017 Y55.95889 I0.61371 J-0.43112
G2 X-46.2325 Y54.146 I-4.07823 J2.67887
G2 X-49.09014 Y54.15444 I-1.41699 J4.01344
G3 X-49.10865 Y54.16083 I-0.25386 J-0.70573
G2 X-50.24987 Y54.63369 I2.6351 J7.97309
G3 X-50.25193 Y54.63473 I-0.33728 J-0.66988
G1 X-58.08557 Y58.54877
G1 X-55.66986 Y63.38352
G1 X-48.99775 Y60.04961
G3 X-47.21523 Y59.53543 I2.01612 J3.64245
G3 X-47.1789 Y59.53427 I0.04208 J0.74882
G3 X-45.25535 Y60.39768 I0.01942 J2.53113
G3 X-44.2013 Y63.09226 I-2.8152 J2.65468
G3 X-44.20223 Y63.12258 I-0.74996 J-0.00773
G3 X-45.3927 Y65.45691 I-3.20291 J-0.16271
G3 X-46.94859 Y66.45307 I-5.05821 J-6.18719
G1 X-52.70029 Y69.32673
G1 X-50.29999 Y74.13065
G1 X-44.0689 Y71.0173
G1 F300.0 Z-2.0
G1 F800.0 X-33.18893 Y65.58114
G1 X-35.5894 Y60.7772
G1 X-41.70927 Y63.83521
G3 X-42.763 Y62.94921 I-0.33524 J-0.67091
G2 X-42.48667 Y59.89397 I-7.37161 J-2.20686
G2 X-44.04702 Y55.97824 I-9.02351 J1.32696
G3 X-44.06017 Y55.95889 I0.61371 J-0.43112
G2 X-46.2325 Y54.146 I-4.07823 J2.67887
G2 X-49.09014 Y54.15444 I-1.41699 J4.01344
G3 X-49.10865 Y54.16083 I-0.25386 J-0.70573
G2 X-50.24987 Y54.63369 I2.6351 J7.97309
G3 X-50.25193 Y54.63473 I-0.33728 J-0.66988
G1 X-58.08557 Y58.54877
G1 X-55.66986 Y63.38352
G1 X-48.99775 Y60.04961
G3 X-47.21523 Y59.53543 I2.01612 J3.64245
G3 X-47.1789 Y59.53427 I0.04208 J0.74882
G3 X-45.25535 Y60.39768 I0.01942 J2.53113
G3 X-44.2013 Y63.09226 I-2.8152 J2.65468
G3 X-44.20223 Y63.12258 I-0.74996 J-0.00773
G3 X-45.3927 Y65.45691 I-3.20291 J-0.16271
G3 X-46.94859 Y66.45307 I-5.05821 J-6.18719
G1 X-52.70029 Y69.32673
G1 X-50.29999 Y74.13065
G1 X-44.0689 Y71.0173
G1 F300.0 Z-3.0
G1 F800.0 X-33.18893 Y65.58114
G1 X-35.5894 Y60.7772
G1 X-41.70927 Y63.83521
G3 X-42.763 Y62.94921 I-0.33524 J-0.67091
G2 X-42.48667 Y59.89397 I-7.37161 J-2.20686
G2 X-44.04702 Y55.97824 I-9.02351 J1.32696
G3 X-44.06017 Y55.95889 I0.61371 J-0.43112
G2 X-46.2325 Y54.146 I-4.07823 J2.67887
G2 X-49.09014 Y54.15444 I-1.41699 J4.01344
G3 X-49.10865 Y54.16083 I-0.25386 J-0.70573
G2 X-50.24987 Y54.63369 I2.6351 J7.97309
G3 X-50.25193 Y54.63473 I-0.33728 J-0.66988
G1 X-58.08557 Y58.54877
G1 X-55.66986 Y63.38352
G1 X-48.99775 Y60.04961
G3 X-47.21523 Y59.53543 I2.01612 J3.64245
G3 X-47.1789 Y59.53427 I0.04208 J0.74882
G3 X-45.25535 Y60.39768 I0.01942 J2.53113
G3 X-44.2013 Y63.09226 I-2.8152 J2.65468
G3 X-44.20223 Y63.12258 I-0.74996 J-0.00773
G3 X-45.3927 Y65.45691 I-3.20291 J-0.16271
G3 X-46.94859 Y66.45307 I-5.05821 J-6.18719
G1 X-52.70029 Y69.32673
G1 X-50.29999 Y74.13065
G1 X-44.0689 Y71.0173
G0 Z3.0
G0 X-54.57729 Y52.67064
G0 Z1.0
G1 F300.0 Z-1.0
G2 F800.0 X-53.2379 Y50.94816 I-1.42721 J-2.49177
G2 X-53.06527 Y48.68835 I-8.14083 J-1.75838
G2 X-53.59754 Y44.37567 I-279.32742 J32.28487
G3 X-53.95598 Y39.40304 I28.28605 J-4.53816
G3 X-53.44821 Y38.70458 I0.74991 J0.01137
G3 X-52.176 Y38.52478 I1.10773 J3.2472
G3 X-52.1516 Y38.52635 I-0.03595 J0.74914
G3 X-50.67981 Y39.36459 I-0.16095 J1.99382
G3 X-50.66185 Y39.39117 I-0.61219 J0.43327
G3 X-49.94822 Y40.92279 I-5.19355 J3.35189
G3 X-49.55864 Y43.22836 I-6.0845 J2.2138
G3 X-50.27898 Y45.0802 I-2.81719 J-0.02982
G3 X-50.41446 Y45.2314 I-3.37795 J-2.89069
G1 X-48.43963 Y49.98259
G2 X-47.58731 Y49.03056 I-2.87558 J-3.43196
G2 X-46.89281 Y46.28917 I-4.95772 J-2.71464
G2 X-47.41081 Y42.82964 I-16.30499 J0.67281
G3 X-47.41216 Y42.82441 I0.72556 J-0.18992
G2 X-49.23635 Y37.42733 I-35.82422 J9.10163
G3 X-49.24648 Y37.40234 I0.68989 J-0.29419
G2 X-50.43017 Y35.29921 I-7.76767 J2.98717
G3 X-50.4442 Y35.28047 I0.59335 J-0.45874
G2 X-52.29045 Y33.85259 I-3.35496 J2.43042
G2 X-55.19637 Y33.80578 I-1.52875 J4.68192
G3 X-61.87559 Y35.912 I-50.57677 J-148.74455
G3 X-63.93505 Y36.15526 I-1.69382 J-5.50071
G1 X-62.47883 Y40.76012
G2 X-61.68299 Y40.81516 I0.55741 J-2.27879
G3 X-61.66316 Y40.8134 I0.07623 J0.74612
G2 X-61.2144 Y40.76916 I-0.73789 J-9.78495
G3 X-60.43263 Y41.80507 I0.0907 J0.7445
G2 X-61.00388 Y45.53658 I7.10947 J2.99786
G3 X-61.00344 Y45.54131 I-0.7466 J0.07131
G2 X-59.77031 Y50.11574 I13.59636 J-1.21177
G3 X-59.75731 Y50.14513 I-0.67929 J0.31792
G2 X-57.99638 Y52.41632 I5.07104 J-2.1135
G3 X-57.98117 Y52.42811 I-0.45188 J0.59858
G2 X-54.6634 Y52.71808 I1.87772 J-2.35891
G3 X-54.6571 Y52.71469 I0.35822 J0.65892
G2 X-54.57729 Y52.67064 I-1.34739 J-2.53581
G0 Z3.0
G0 X-56.41036 Y47.69097
G0 Z1.0
G1 F300.0 Z-1.0
G3 F800.0 X-58.39038 Y47.40148 I-0.72373 J-1.96606
G3 X-58.4316 Y47.36826 I0.44974 J-0.60019
G3 X-59.57176 Y45.56444 I2.41474 J-2.78856
G3 X-59.49818 Y41.90755 I5.17915 J-1.72498
G3 X-59.48241 Y41.86912 I0.70146 J0.26543
G3 X-57.78932 Y40.13354 I3.18128 J1.40978
G3 X-57.76383 Y40.12205 I0.32076 J0.67795
G3 X-56.1505 Y39.55939 I4.87295 J11.37791
G3 X-55.20349 Y40.25552 I0.19751 J0.72353
G2 X-55.00547 Y43.60816 I74.68826 J-2.72918
G3 X-55.0064 Y45.75832 I-9.63199 J1.07092
G3 X-55.785 Y47.32621 I-2.44275 J-0.23578
G3 X-55.82491 Y47.36053 I-0.50858 J-0.55122
G3 X-56.41036 Y47.69097 I-1.30917 J-1.63561
G1 F300.0 Z-2.0
G3 F800.0 X-58.39038 Y47.40148 I-0.72373 J-1.96606
G3 X-58.4316 Y47.36826 I0.44974 J-0.60019
G3 X-59.57176 Y45.56444 I2.41474 J-2.78856
G3 X-59.49818 Y41.90755 I5.17915 J-1.72498
G3 X-59.48241 Y41.86912 I0.70146 J0.26543
G3 X-57.78932 Y40.13354 I3.18128 J1.40978
G3 X-57.76383 Y40.12205 I0.32076 J0.67795
G3 X-56.1505 Y39.55939 I4.87295 J11.37791
G3 X-55.20349 Y40.25552 I0.19751 J0.72353
G2 X-55.00547 Y43.60816 I74.68826 J-2.72918
G3 X-55.0064 Y45.75832 I-9.63199 J1.07092
G3 X-55.785 Y47.32621 I-2.44275 J-0.23578
G3 X-55.82491 Y47.36053 I-0.50858 J-0.55122
G3 X-56.41036 Y47.69097 I-1.30917 J-1.63561
G0 Z3.0
G0 X-53.22837 Y47.30724
G0 Z0.0
G1 F300.0 Z-2.0
G2 F800.0 X-53.59754 Y44.37567 I-279.16433 J33.66598
G3 X-53.95598 Y39.40304 I28.28605 J-4.53816
G3 X-53.44821 Y38.70458 I0.74991 J0.01137
G3 X-52.176 Y38.52478 I1.10773 J3.2472
G3 X-52.1516 Y38.52635 I-0.03595 J0.74914
G3 X-50.67981 Y39.36459 I-0.16095 J1.99382
G3 X-50.66185 Y39.39117 I-0.61219 J0.43327
G3 X-49.94822 Y40.92279 I-5.19355 J3.35189
G3 X-49.55864 Y43.22836 I-6.0845 J2.2138
G3 X-50.27898 Y45.0802 I-2.81719 J-0.02982
G3 X-50.41446 Y45.2314 I-3.37795 J-2.89069
G1 X-48.43963 Y49.98259
G2 X-47.58731 Y49.03056 I-2.87558 J-3.43196
G2 X-46.89281 Y46.28917 I-4.95772 J-2.71464
G2 X-47.41081 Y42.82964 I-16.30499 J0.67281
G3 X-47.41216 Y42.82441 I0.72556 J-0.18992
G2 X-49.23635 Y37.42733 I-35.82422 J9.10163
G3 X-49.24648 Y37.40234 I0.68989 J-0.29419
G2 X-50.43017 Y35.29921 I-7.76767 J2.98717
G3 X-50.4442 Y35.28047 I0.59335 J-0.45874
G2 X-52.29045 Y33.85259 I-3.35496 J2.43042
G2 X-55.19637 Y33.80578 I-1.52875 J4.68192
G3 X-61.87559 Y35.912 I-50.57677 J-148.74455
G3 X-63.93505 Y36.15526 I-1.69382 J-5.50071
G1 X-62.47883 Y40.76012
G2 X-61.68299 Y40.81516 I0.55741 J-2.27879
G3 X-61.66316 Y40.8134 I0.07623 J0.74612
G2 X-61.2144 Y40.76916 I-0.73789 J-9.78495
G3 X-60.43263 Y41.80507 I0.0907 J0.7445
G2 X-61.00388 Y45.53658 I7.10947 J2.99786
G3 X-61.00344 Y45.54131 I-0.7466 J0.07131
G2 X-59.77031 Y50.11574 I13.59636 J-1.21177
G3 X-59.75731 Y50.14513 I-0.67929 J0.31792
G2 X-57.99638 Y52.41632 I5.07104 J-2.1135
G3 X-57.98117 Y52.42811 I-0.45188 J0.59858
G2 X-54.6634 Y52.71808 I1.87772 J-2.35891
G3 X-54.6571 Y52.71469 I0.35822 J0.65892
G2 X-53.2379 Y50.94816 I-1.34739 J-2.53581
G2 X-53.06527 Y48.68835 I-8.14083 J-1.75838
G2 X-53.22837 Y47.30724 I-279.32742 J32.28487
G1 F300.0 Z-3.0
G2 F800.0 X-53.59754 Y44.37567 I-279.16433 J33.66598
G3 X-53.95598 Y39.40304 I28.28605 J-4.53816
G3 X-53.44821 Y38.70458 I0.74991 J0.01137
G3 X-52.176 Y38.52478 I1.10773 J3.2472
G3 X-52.1516 Y38.52635 I-0.03595 J0.74914
G3 X-50.67981 Y39.36459 I-0.16095 J1.99382
G3 X-50.66185 Y39.39117 I-0.61219 J0.43327
G3 X-49.94822 Y40.92279 I-5.19355 J3.35189
G3 X-49.55864 Y43.22836 I-6.0845 J2.2138
G3 X-50.27898 Y45.0802 I-2.81719 J-0.02982
G3 X-50.41446 Y45.2314 I-3.37795 J-2.89069
G1 X-48.43963 Y49.98259
G2 X-47.58731 Y49.03056 I-2.87558 J-3.43196
G2 X-46.89281 Y46.28917 I-4.95772 J-2.71464
G2 X-47.41081 Y42.82964 I-16.30499 J0.67281
G3 X-47.41216 Y42.82441 I0.72556 J-0.18992
G2 X-49.23635 Y37.42733 I-35.82422 J9.10163
G3 X-49.24648 Y37.40234 I0.68989 J-0.29419
G2 X-50.43017 Y35.29921 I-7.76767 J2.98717
G3 X-50.4442 Y35.28047 I0.59335 J-0.45874
G2 X-52.29045 Y33.85259 I-3.35496 J2.43042
G2 X-55.19637 Y33.80578 I-1.52875 J4.68192
G3 X-61.87559 Y35.912 I-50.57677 J-148.74455
G3 X-63.93505 Y36.15526 I-1.69382 J-5.50071
G1 X-62.47883 Y40.76012
G2 X-61.68299 Y40.81516 I0.55741 J-2.27879
G3 X-61.66316 Y40.8134 I0.07623 J0.74612
G2 X-61.2144 Y40.76916 I-0.73789 J-9.78495
G3 X-60.43263 Y41.80507 I0.0907 J0.7445
G2 X-61.00388 Y45.53658 I7.10947 J2.99786
G3 X-61.00344 Y45.54131 I-0.7466 J0.07131
G2 X-59.77031 Y50.11574 I13.59636 J-1.21177
G3 X-59.75731 Y50.14513 I-0.67929 J0.31792
G2 X-57.99638 Y52.41632 I5.07104 J-2.1135
G3 X-57.98117 Y52.42811 I-0.45188 J0.59858
G2 X-54.6634 Y52.71808 I1.87772 J-2.35891
G3 X-54.6571 Y52.71469 I0.35822 J0.65892
G2 X-53.2379 Y50.94816 I-1.34739 J-2.53581
G2 X-53.06527 Y48.68835 I-8.14083 J-1.75838
G2 X-53.22837 Y47.30724 I-279.32742 J32.28487
G0 Z3.0
G0 X-55.18881 Y46.4783
G0 Z-1.0
G1 F300.0 Z-3.0
G3 F800.0 X-55.785 Y47.32621 I-2.26035 J-0.95575
G3 X-55.82491 Y47.36053 I-0.50858 J-0.55122
G3 X-58.39038 Y47.40148 I-1.30917 J-1.63561
G3 X-58.4316 Y47.36826 I0.44974 J-0.60019
G3 X-59.57176 Y45.56444 I2.41474 J-2.78856
G3 X-59.49818 Y41.90755 I5.17915 J-1.72498
G3 X-59.48241 Y41.86912 I0.70146 J0.26543
G3 X-57.78932 Y40.13354 I3.18128 J1.40978
G3 X-57.76383 Y40.12205 I0.32076 J0.67795
G3 X-56.1505 Y39.55939 I4.87295 J11.37791
G3 X-55.20349 Y40.25552 I0.19751 J0.72353
G2 X-55.00547 Y43.60816 I74.68826 J-2.72918
G3 X-55.0064 Y45.75832 I-9.63199 J1.07092
G3 X-55.18881 Y46.4783 I-2.44275 J-0.23578
G0 Z3.0
G0 X-57.33828 Y30.25834
G0 Z1.0
G1 F300.0 Z-1.0
G1 F800.0 X-50.59723 Y29.36502
G1 X-51.30716 Y24.00711
G1 X-58.71929 Y24.98928
G3 X-60.48696 Y24.91949 I-0.71483 J-4.31558
G3 X-60.51274 Y24.91261 I0.18051 J-0.72795
G3 X-62.15418 Y23.44421 I0.69468 J-2.42818
G3 X-62.30328 Y20.64866 I3.55227 J-1.59121
G3 X-62.30291 Y20.64753 I0.7132 J0.23206
G3 X-60.68864 Y18.84301 I2.86248 J0.9364
G3 X-60.67454 Y18.83677 I0.31083 J0.68256
G3 X-58.57802 Y18.26863 I3.03329 J7.04103
G1 X-52.18016 Y17.42087
G1 X-52.88568 Y12.09736
G1 X-66.22138 Y13.86462
G1 X-65.57546 Y18.73759
G1 X-63.92925 Y18.51961
G3 X-63.25936 Y19.74887 I0.09845 J0.74351
G2 X-64.83306 Y22.59967 I6.24074 J5.30479
G2 X-64.97287 Y25.91736 I8.39625 J2.0156
G3 X-64.96762 Y25.95991 I-0.74142 J0.1131
G2 X-63.93939 Y28.88654 I6.40038 J-0.60474
G2 X-61.12911 Y30.55239 I3.21146 J-2.21432
G3 X-61.12394 Y30.55294 I-0.07713 J0.74602
G2 X-59.30439 Y30.51898 I0.7785 J-7.05042
G3 X-59.29284 Y30.51736 I0.11007 J0.74188
G1 X-57.33828 Y30.25834
G1 F300.0 Z-2.0
G1 F800.0 X-50.59723 Y29.36502
G1 X-51.30716 Y24.00711
G1 X-58.71929 Y24.98928
G3 X-60.48696 Y24.91949 I-0.71483 J-4.31558
G3 X-60.51274 Y24.91261 I0.18051 J-0.72795
G3 X-62.15418 Y23.44421 I0.69468 J-2.42818
G3 X-62.30328 Y20.64866 I3.55227 J-1.59121
G3 X-62.30291 Y20.64753 I0.7132 J0.23206
G3 X-60.68864 Y18.84301 I2.86248 J0.9364
G3 X-60.67454 Y18.83677 I0.31083 J0.68256
G3 X-58.57802 Y18.26863 I3.03329 J7.04103
G1 X-52.18016 Y17.42087
G1 X-52.88568 Y12.09736
G1 X-66.22138 Y13.86462
G1 X-65.57546 Y18.73759
G1 X-63.92925 Y18.51961
G3 X-63.25936 Y19.74887 I0.09845 J0.74351
G2 X-64.83306 Y22.59967 I6.24074 J5.30479
G2 X-64.97287 Y25.91736 I8.39625 J2.0156
G3 X-64.96762 Y25.95991 I-0.74142 J0.1131
G2 X-63.93939 Y28.88654 I6.40038 J-0.60474
G2 X-61.12911 Y30.55239 I3.21146 J-2.21432
G3 X-61.12394 Y30.55294 I-0.07713 J0.74602
G2 X-59.30439 Y30.51898 I0.7785 J-7.05042
G3 X-59.29284 Y30.51736 I0.11007 J0.74188
G1 X-57.33828 Y30.25834
G1 F300.0 Z-3.0
G1 F800.0 X-50.59723 Y29.36502
G1 X-51.30716 Y24.00711
G1 X-58.71929 Y24.98928
G3 X-60.48696 Y24.91949 I-0.71483 J-4.31558
G3 X-60.51274 Y24.91261 I0.18051 J-0.72795
G3 X-62.15418 Y23.44421 I0.69468 J-2.42818
G3 X-62.30328 Y20.64866 I3.55227 J-1.59121
G3 X-62.30291 Y20.64753 I0.7132 J0.23206
G3 X-60.68864 Y18.84301 I2.86248 J0.9364
G3 X-60.67454 Y18.83677 I0.31083 J0.68256
G3 X-58.57802 Y18.26863 I3.03329 J7.04103
G1 X-52.18016 Y17.42087
G1 X-52.88568 Y12.09736
G1 X-66.22138 Y13.86462
G1 X-65.57546 Y18.73759
G1 X-63.92925 Y18.51961
G3 X-63.25936 Y19.74887 I0.09845 J0.74351
G2 X-64.83306 Y22.59967 I6.24074 J5.30479
G2 X-64.97287 Y25.91736 I8.39625 J2.0156
G3 X-64.96762 Y25.95991 I-0.74142 J0.1131
G2 X-63.93939 Y28.88654 I6.40038 J-0.60474
G2 X-61.12911 Y30.55239 I3.21146 J-2.21432
G3 X-61.12394 Y30.55294 I-0.07713 J0.74602
G2 X-59.30439 Y30.51898 I0.7785 J-7.05042
G3 X-59.29284 Y30.51736 I0.11007 J0.74188
G1 X-57.33828 Y30.25834
G0 Z3.0
G0 X-57.55302 Y7.87765
G0 Z1.0
G1 F300.0 Z-1.0
G1 F800.0 X-52.89365 Y7.83295
G1 X-52.94517 Y2.46299
G1 X-66.39689 Y2.59187
G1 X-66.34537 Y7.96201
G1 X-57.55302 Y7.87765
G1 F300.0 Z-2.0
G1 F800.0 X-52.89365 Y7.83295
G1 X-52.94517 Y2.46299
G1 X-66.39689 Y2.59187
G1 X-66.34537 Y7.96201
G1 X-57.55302 Y7.87765
G1 F300.0 Z-3.0
G1 F800.0 X-52.89365 Y7.83295
G1 X-52.94517 Y2.46299
G1 X-66.39689 Y2.59187
G1 X-66.34537 Y7.96201
G1 X-57.55302 Y7.87765
G0 Z3.0
G0 X-49.60747 Y7.80118
G0 Z1.0
G1 F300.0 Z-1.0
G1 F800.0 Y7.80148
G1 X-47.21816 Y7.77849
G1 X-47.26968 Y2.4085
G1 X-49.65915 Y2.43137
G1 X-49.60747 Y7.80118
G1 F300.0 Z-2.0
G1 F800.0 Y7.80148
G1 X-47.21816 Y7.77849
G1 X-47.26968 Y2.4085
G1 X-49.65915 Y2.43137
G1 X-49.60747 Y7.80118
G1 F300.0 Z-3.0
G1 F800.0 Y7.80148
G1 X-47.21816 Y7.77849
G1 X-47.26968 Y2.4085
G1 X-49.65915 Y2.43137
G1 X-49.60747 Y7.80118
G0 Z3.0
G0 X-53.45917 Y-1.89956
G0 Z1.0
G1 F300.0 Z-1.0
G1 F800.0 X-52.99383 Y-6.7756
G1 X-54.67059 Y-6.93564
G3 X-55.04514 Y-8.28536 I0.07126 J-0.74661
G2 X-52.85615 Y-10.71976 I-4.85242 J-6.56463
G2 X-51.96571 Y-13.90827 I-7.60039 J-3.8411
G3 X-51.96184 Y-13.9461 I0.74779 J0.05747
G2 X-52.26892 Y-16.95998 I-6.61981 J-0.8481
G3 X-52.26948 Y-16.96163 I0.70941 J-0.24339
G2 X-54.13297 Y-19.0759 I-3.4727 J1.18243
G2 X-56.46488 Y-19.68447 I-2.85677 J6.17463
G3 X-56.47826 Y-19.68562 I0.05786 J-0.74776
G1 X-65.19593 Y-20.51749
G1 X-65.7094 Y-15.13731
G1 X-58.28425 Y-14.4289
G3 X-56.50039 Y-13.92037 I-0.22143 J4.15981
G3 X-56.46904 Y-13.90216 I-0.36104 J0.65738
G3 X-55.29467 Y-12.14773 I-1.32382 J2.15639
G3 X-55.77423 Y-9.3917 I-3.86063 J0.74797
G3 X-55.79049 Y-9.36557 I-0.64485 J-0.38298
G3 X-58.09272 Y-7.93275 I-2.68429 J-1.74707
G3 X-59.93995 Y-7.91256 I-1.01041 J-7.93287
G1 X-66.34053 Y-8.52321
G1 X-66.85051 Y-3.17739
G1 X-53.45917 Y-1.89956
G1 F300.0 Z-2.0
G1 F800.0 X-52.99383 Y-6.7756
G1 X-54.67059 Y-6.93564
G3 X-55.04514 Y-8.28536 I0.07126 J-0.74661
G2 X-52.85615 Y-10.71976 I-4.85242 J-6.56463
G2 X-51.96571 Y-13.90827 I-7.60039 J-3.8411
G3 X-51.96184 Y-13.9461 I0.74779 J0.05747
G2 X-52.26892 Y-16.95998 I-6.61981 J-0.8481
G3 X-52.26948 Y-16.96163 I0.70941 J-0.24339
G2 X-54.13297 Y-19.0759 I-3.4727 J1.18243
G2 X-56.46488 Y-19.68447 I-2.85677 J6.17463
G3 X-56.47826 Y-19.68562 I0.05786 J-0.74776
G1 X-65.19593 Y-20.51749
G1 X-65.7094 Y-15.13731
G1 X-58.28425 Y-14.4289
G3 X-56.50039 Y-13.92037 I-0.22143 J4.15981
G3 X-56.46904 Y-13.90216 I-0.36104 J0.65738
G3 X-55.29467 Y-12.14773 I-1.32382 J2.15639
G3 X-55.77423 Y-9.3917 I-3.86063 J0.74797
G3 X-55.79049 Y-9.36557 I-0.64485 J-0.38298
G3 X-58.09272 Y-7.93275 I-2.68429 J-1.74707
G3 X-59.93995 Y-7.91256 I-1.01041 J-7.93287
G1 X-66.34053 Y-8.52321
G1 X-66.85051 Y-3.17739
G1 X-53.45917 Y-1.89956
G1 F300.0 Z-3.0
G1 F800.0 X-52.99383 Y-6.7756
G1 X-54.67059 Y-6.93564
G3 X-55.04514 Y-8.28536 I0.07126 J-0.74661
G2 X-52.85615 Y-10.71976 I-4.85242 J-6.56463
G2 X-51.96571 Y-13.90827 I-7.60039 J-3.8411
G3 X-51.96184 Y-13.9461 I0.74779 J0.05747
G2 X-52.26892 Y-16.95998 I-6.61981 J-0.8481
G3 X-52.26948 Y-16.96163 I0.70941 J-0.24339
G2 X-54.13297 Y-19.0759 I-3.4727 J1.18243
G2 X-56.46488 Y-19.68447 I-2.85677 J6.17463
G3 X-56.47826 Y-19.68562 I0.05786 J-0.74776
G1 X-65.19593 Y-20.51749
G1 X-65.7094 Y-15.13731
G1 X-58.28425 Y-14.4289
G3 X-56.50039 Y-13.92037 I-0.22143 J4.15981
G3 X-56.46904 Y-13.90216 I-0.36104 J0.65738
G3 X-55.29467 Y-12.14773 I-1.32382 J2.15639
G3 X-55.77423 Y-9.3917 I-3.86063 J0.74797
G3 X-55.79049 Y-9.36557 I-0.64485 J-0.38298
G3 X-58.09272 Y-7.93275 I-2.68429 J-1.74707
G3 X-59.93995 Y-7.91256 I-1.01041 J-7.93287
G1 X-66.34053 Y-8.52321
G1 X-66.85051 Y-3.17739
G1 X-53.45917 Y-1.89956
G0 Z3.0
G0 X-54.50269 Y-22.90203
G0 Z1.0
G1 F300.0 Z-1.0
G2 F800.0 X-53.27419 Y-23.25141 I-0.14055 J-2.82878
G2 X-51.44887 Y-24.97944 I-3.03605 J-5.03504
G2 X-50.06073 Y-27.90683 I-10.50134 J-6.77244
G3 X-50.05555 Y-27.92229 I0.71361 J0.23078
G2 X-48.80412 Y-32.84354 I-28.07839 J-9.75982
G3 X-48.80297 Y-32.85034 I0.74 J0.12208
G2 X-48.79897 Y-35.36299 I-7.26895 J-1.26788
G2 X-49.97313 Y-37.77464 I-5.39546 J1.13521
G1 X-51.62763 Y-33.23405
G3 X-50.99659 Y-32.10604 I-1.9157 J1.81221
G3 X-50.98137 Y-32.03632 I-0.72432 J0.19459
G3 X-51.57241 Y-28.48185 I-5.44963 J0.92021
G3 X-52.96231 Y-27.35182 I-1.94355 J-0.97071
G3 X-53.01173 Y-27.34056 I-0.19114 J-0.72524
G3 X-54.8305 Y-28.49689 I-0.29667 J-1.54188
G3 X-54.83693 Y-28.52444 I0.72704 J-0.18416
G3 X-54.92001 Y-29.69178 I4.12102 J-0.87994
G3 X-54.91693 Y-29.7256 I0.74825 J0.05115
G3 X-54.39407 Y-33.37473 I63.67378 J7.26136
G3 X-54.39367 Y-33.37701 I0.73905 J0.12768
G2 X-54.11973 Y-36.47562 I-17.83502 J-3.13817
G3 X-54.11919 Y-36.50251 I0.75 J0.00164
G2 X-54.58098 Y-38.95063 I-5.59181 J-0.21282
G3 X-54.58334 Y-38.9561 I0.68756 J-0.29959
G2 X-56.51629 Y-40.70807 I-2.86902 J1.22309
G2 X-59.3685 Y-40.16939 I-0.77533 J3.71511
G2 X-61.73642 Y-37.31001 I4.70147 J6.30356
G2 X-63.22081 Y-33.16999 I22.46575 J10.39113
G3 X-63.22477 Y-33.15544 I-0.72569 J-0.18941
G2 X-63.93156 Y-29.48119 I21.11292 J5.96645
G3 X-63.93482 Y-29.4547 I-0.7459 J-0.07836
G2 X-63.83044 Y-26.91007 I6.99495 J0.98755
G3 X-63.82838 Y-26.90064 I-0.73155 J0.16531
G2 X-62.43696 Y-24.48173 I4.43752 J-0.94291
G1 X-60.64428 Y-29.45872
G3 X-61.65985 Y-31.70588 I2.33418 J-2.40796
G3 X-61.6607 Y-31.73812 I0.74914 J-0.03596
G3 X-60.99974 Y-34.65138 I6.60613 J-0.03282
G3 X-59.88088 Y-36.00849 I3.15152 J1.45847
G3 X-59.87894 Y-36.00989 I0.439 J0.60809
G3 X-57.24949 Y-35.04695 I0.987 J1.37638
G3 X-57.23905 Y-34.99887 I-0.72731 J0.18308
G3 X-57.16916 Y-33.48749 I-5.5378 J1.01339
G3 X-57.16991 Y-33.47953 I-0.74706 J-0.06634
G3 X-57.6561 Y-28.94861 I-296.0541 J-29.47667
G3 X-57.65614 Y-28.94828 I-0.74508 J-0.08573
G2 X-57.76549 Y-26.52492 I17.24944 J1.99251
G3 X-57.76536 Y-26.5187 I-0.74977 J0.01861
G2 X-56.73446 Y-23.82069 I4.22879 J-0.06986
G2 X-54.50269 Y-22.90203 I2.09121 J-1.91013
G1 F300.0 Z-2.0
G2 F800.0 X-53.27419 Y-23.25141 I-0.14055 J-2.82878
G2 X-51.44887 Y-24.97944 I-3.03605 J-5.03504
G2 X-50.06073 Y-27.90683 I-10.50134 J-6.77244
G3 X-50.05555 Y-27.92229 I0.71361 J0.23078
G2 X-48.80412 Y-32.84354 I-28.07839 J-9.75982
G3 X-48.80297 Y-32.85034 I0.74 J0.12208
G2 X-48.79897 Y-35.36299 I-7.26895 J-1.26788
G2 X-49.97313 Y-37.77464 I-5.39546 J1.13521
G1 X-51.62763 Y-33.23405
G3 X-50.99659 Y-32.10604 I-1.9157 J1.81221
G3 X-50.98137 Y-32.03632 I-0.72432 J0.19459
G3 X-51.57241 Y-28.48185 I-5.44963 J0.92021
G3 X-52.96231 Y-27.35182 I-1.94355 J-0.97071
G3 X-53.01173 Y-27.34056 I-0.19114 J-0.72524
G3 X-54.8305 Y-28.49689 I-0.29667 J-1.54188
G3 X-54.83693 Y-28.52444 I0.72704 J-0.18416
G3 X-54.92001 Y-29.69178 I4.12102 J-0.87994
G3 X-54.91693 Y-29.7256 I0.74825 J0.05115
G3 X-54.39407 Y-33.37473 I63.67378 J7.26136
G3 X-54.39367 Y-33.37701 I0.73905 J0.12768
G2 X-54.11973 Y-36.47562 I-17.83502 J-3.13817
G3 X-54.11919 Y-36.50251 I0.75 J0.00164
G2 X-54.58098 Y-38.95063 I-5.59181 J-0.21282
G3 X-54.58334 Y-38.9561 I0.68756 J-0.29959
G2 X-56.51629 Y-40.70807 I-2.86902 J1.22309
G2 X-59.3685 Y-40.16939 I-0.77533 J3.71511
G2 X-61.73642 Y-37.31001 I4.70147 J6.30356
G2 X-63.22081 Y-33.16999 I22.46575 J10.39113
G3 X-63.22477 Y-33.15544 I-0.72569 J-0.18941
G2 X-63.93156 Y-29.48119 I21.11292 J5.96645
G3 X-63.93482 Y-29.4547 I-0.7459 J-0.07836
G2 X-63.83044 Y-26.91007 I6.99495 J0.98755
G3 X-63.82838 Y-26.90064 I-0.73155 J0.16531
G2 X-62.43696 Y-24.48173 I4.43752 J-0.94291
G1 X-60.64428 Y-29.45872
G3 X-61.65985 Y-31.70588 I2.33418 J-2.40796
G3 X-61.6607 Y-31.73812 I0.74914 J-0.03596
G3 X-60.99974 Y-34.65138 I6.60613 J-0.03282
G3 X-59.88088 Y-36.00849 I3.15152 J1.45847
G3 X-59.87894 Y-36.00989 I0.439 J0.60809
G3 X-57.24949 Y-35.04695 I0.987 J1.37638
G3 X-57.23905 Y-34.99887 I-0.72731 J0.18308
G3 X-57.16916 Y-33.48749 I-5.5378 J1.01339
G3 X-57.16991 Y-33.47953 I-0.74706 J-0.06634
G3 X-57.6561 Y-28.94861 I-296.0541 J-29.47667
G3 X-57.65614 Y-28.94828 I-0.74508 J-0.08573
G2 X-57.76549 Y-26.52492 I17.24944 J1.99251
G3 X-57.76536 Y-26.5187 I-0.74977 J0.01861
G2 X-56.73446 Y-23.82069 I4.22879 J-0.06986
G2 X-54.50269 Y-22.90203 I2.09121 J-1.91013
G1 F300.0 Z-3.0
G2 F800.0 X-53.27419 Y-23.25141 I-0.14055 J-2.82878
G2 X-51.44887 Y-24.97944 I-3.03605 J-5.03504
G2 X-50.06073 Y-27.90683 I-10.50134 J-6.77244
G3 X-50.05555 Y-27.92229 I0.71361 J0.23078
G2 X-48.80412 Y-32.84354 I-28.07839 J-9.75982
G3 X-48.80297 Y-32.85034 I0.74 J0.12208
G2 X-48.79897 Y-35.36299 I-7.26895 J-1.26788
G2 X-49.97313 Y-37.77464 I-5.39546 J1.13521
G1 X-51.62763 Y-33.23405
G3 X-50.99659 Y-32.10604 I-1.9157 J1.81221
G3 X-50.98137 Y-32.03632 I-0.72432 J0.19459
G3 X-51.57241 Y-28.48185 I-5.44963 J0.92021
G3 X-52.96231 Y-27.35182 I-1.94355 J-0.97071
G3 X-53.01173 Y-27.34056 I-0.19114 J-0.72524
G3 X-54.8305 Y-28.49689 I-0.29667 J-1.54188
G3 X-54.83693 Y-28.52444 I0.72704 J-0.18416
G3 X-54.92001 Y-29.69178 I4.12102 J-0.87994
G3 X-54.91693 Y-29.7256 I0.74825 J0.05115
G3 X-54.39407 Y-33.37473 I63.67378 J7.26136
G3 X-54.39367 Y-33.37701 I0.73905 J0.12768
G2 X-54.11973 Y-36.47562 I-17.83502 J-3.13817
G3 X-54.11919 Y-36.50251 I0.75 J0.00164
G2 X-54.58098 Y-38.95063 I-5.59181 J-0.21282
G3 X-54.58334 Y-38.9561 I0.68756 J-0.29959
G2 X-56.51629 Y-40.70807 I-2.86902 J1.22309
G2 X-59.3685 Y-40.16939 I-0.77533 J3.71511
G2 X-61.73642 Y-37.31001 I4.70147 J6.30356
G2 X-63.22081 Y-33.16999 I22.46575 J10.39113
G3 X-63.22477 Y-33.15544 I-0.72569 J-0.18941
G2 X-63.93156 Y-29.48119 I21.11292 J5.96645
G3 X-63.93482 Y-29.4547 I-0.7459 J-0.07836
G2 X-63.83044 Y-26.91007 I6.99495 J0.98755
G3 X-63.82838 Y-26.90064 I-0.73155 J0.16531
G2 X-62.43696 Y-24.48173 I4.43752 J-0.94291
G1 X-60.64428 Y-29.45872
G3 X-61.65985 Y-31.70588 I2.33418 J-2.40796
G3 X-61.6607 Y-31.73812 I0.74914 J-0.03596
G3 X-60.99974 Y-34.65138 I6.60613 J-0.03282
G3 X-59.88088 Y-36.00849 I3.15152 J1.45847
G3 X-59.87894 Y-36.00989 I0.439 J0.60809
G3 X-57.24949 Y-35.04695 I0.987 J1.37638
G3 X-57.23905 Y-34.99887 I-0.72731 J0.18308
G3 X-57.16916 Y-33.48749 I-5.5378 J1.01339
G3 X-57.16991 Y-33.47953 I-0.74706 J-0.06634
G3 X-57.6561 Y-28.94861 I-296.0541 J-29.47667
G3 X-57.65614 Y-28.94828 I-0.74508 J-0.08573
G2 X-57.76549 Y-26.52492 I17.24944 J1.99251
G3 X-57.76536 Y-26.5187 I-0.74977 J0.01861
G2 X-56.73446 Y-23.82069 I4.22879 J-0.06986
G2 X-54.50269 Y-22.90203 I2.09121 J-1.91013
G0 Z3.0
G0 X-47.15068 Y-41.61403
G0 Z1.0
G1 F300.0 Z-1.0
G1 F800.0 X-42.40462 Y-39.74928
G1 X-40.44075 Y-44.74719
G1 X-58.24387 Y-51.74243
G1 X-60.2076 Y-46.74415
G1 X-47.15068 Y-41.61403
G1 F300.0 Z-2.0
G1 F800.0 X-42.40462 Y-39.74928
G1 X-40.44075 Y-44.74719
G1 X-58.24387 Y-51.74243
G1 X-60.2076 Y-46.74415
G1 X-47.15068 Y-41.61403
G1 F300.0 Z-3.0
G1 F800.0 X-42.40462 Y-39.74928
G1 X-40.44075 Y-44.74719
G1 X-58.24387 Y-51.74243
G1 X-60.2076 Y-46.74415
G1 X-47.15068 Y-41.61403
G0 Z3.0
G0 X-48.08828 Y-52.64031
G0 Z1.0
G1 F300.0 Z-1.0
G2 F800.0 X-47.58259 Y-52.71254 I-0.37957 J-4.46371
G2 X-45.68666 Y-53.68811 I-1.45417 J-5.15611
G2 X-44.0323 Y-55.52052 I-6.21464 J-7.27382
G2 X-41.12131 Y-60.74029 I-27.72409 J-18.88288
G3 X-41.11633 Y-60.75122 I0.68496 J0.30549
G2 X-40.23705 Y-62.92537 I-20.76883 J-9.66432
G3 X-40.22947 Y-62.94629 I0.70877 J0.24523
G2 X-39.90399 Y-65.88321 I-5.53126 J-2.09949
G2 X-40.68938 Y-67.56369 I-3.41411 J0.57186
G3 X-40.71239 Y-67.59191 I0.56953 J-0.48799
G2 X-42.19987 Y-68.8574 I-3.77221 J2.92694
G3 X-48.41301 Y-72.09156 I70.02282 J-142.10617
G3 X-50.0415 Y-73.37605 I2.69165 J-5.08704
G1 X-52.25971 Y-69.10534
G2 X-51.56746 Y-68.3396 I2.60121 J-1.65577
G3 X-51.56318 Y-68.3362 I-0.46432 J0.58899
G1 X-51.3737 Y-68.18457
G3 X-51.55972 Y-66.90425 I-0.4686 J0.58559
G2 X-54.60212 Y-64.66965 I2.9061 J7.14503
G3 X-54.60524 Y-64.66589 I-0.57839 J-0.47746
G2 X-56.96786 Y-60.55957 I10.46518 J8.7541
G3 X-56.97947 Y-60.52954 I-0.70514 J-0.25549
G2 X-57.3402 Y-57.6784 I5.07898 J2.09098
G3 X-57.33776 Y-57.6591 I-0.74278 J0.1038
G2 X-55.19712 Y-55.10821 I2.99489 J-0.33959
G3 X-55.19328 Y-55.10706 I-0.21257 J0.71925
G2 X-52.74695 Y-55.46564 I0.8406 J-2.78927
G2 X-50.9887 Y-57.08672 I-4.98393 J-7.16971
G3 X-47.88088 Y-61.10861 I383.19774 J292.89484
G3 X-45.2808 Y-64.02391 I21.03565 J16.14399
G3 X-44.47948 Y-64.18065 I0.52144 J0.53908
G3 X-43.13244 Y-62.98974 I-1.00172 J2.49033
G3 X-43.08558 Y-62.88769 I-0.65626 J0.36307
G3 X-43.17271 Y-60.87129 I-2.43725 J0.90478
G3 X-44.448 Y-58.67263 I-7.79699 J-3.05333
G3 X-46.69228 Y-57.40899 I-2.42947 J-1.69006
G3 X-46.89859 Y-57.39759 I-0.34817 J-4.429
G1 X-48.8619 Y-52.64157
G2 X-48.08828 Y-52.64031 I0.39405 J-4.46246
G0 Z3.0
G0 X-51.13056 Y-59.90257
G0 Z1.0
G1 F300.0 Z-1.0
G3 F800.0 X-52.1775 Y-59.71383 I-0.94877 J-2.26481
G3 X-52.23022 Y-59.71781 I0.02999 J-0.7494
G3 X-54.07298 Y-61.50306 I0.23101 J-2.08215
G3 X-54.07861 Y-61.55546 I0.74243 J-0.10629
G3 X-53.60933 Y-63.63741 I3.6775 J-0.26493
G3 X-50.97161 Y-66.17087 I4.88311 J2.44419
G3 X-50.94804 Y-66.18102 I0.3084 J0.68366
G3 X-48.49408 Y-66.21156 I1.26554 J3.08268
G3 X-48.48275 Y-66.20713 I-0.26747 J0.70068
G3 X-46.94412 Y-65.46443 I-4.61786 J11.53178
G3 X-46.77757 Y-64.29075 I-0.37171 J0.65141
G2 X-48.7601 Y-62.07052 I25.79153 J25.02557
G3 X-50.51775 Y-60.27238 I-8.25729 J-6.31324
G3 X-51.13056 Y-59.90257 I-1.56157 J-1.895
G1 F300.0 Z-2.0
G3 F800.0 X-52.1775 Y-59.71383 I-0.94877 J-2.26481
G3 X-52.23022 Y-59.71781 I0.02999 J-0.7494
G3 X-54.07298 Y-61.50306 I0.23101 J-2.08215
G3 X-54.07861 Y-61.55546 I0.74243 J-0.10629
G3 X-53.60933 Y-63.63741 I3.6775 J-0.26493
G3 X-50.97161 Y-66.17087 I4.88311 J2.44419
G3 X-50.94804 Y-66.18102 I0.3084 J0.68366
G3 X-48.49408 Y-66.21156 I1.26554 J3.08268
G3 X-48.48275 Y-66.20713 I-0.26747 J0.70068
G3 X-46.94412 Y-65.46443 I-4.61786 J11.53178
G3 X-46.77757 Y-64.29075 I-0.37171 J0.65141
G2 X-48.7601 Y-62.07052 I25.79153 J25.02557
G3 X-50.51775 Y-60.27238 I-8.25729 J-6.31324
G3 X-51.13056 Y-59.90257 I-1.56157 J-1.895
G0 Z3.0
G0 X-49.68359 Y-58.78637
G0 Z0.0
G1 F300.0 Z-2.0
G3 F800.0 X-47.88088 Y-61.10861 I381.89263 J294.59449
G3 X-45.2808 Y-64.02391 I21.03565 J16.14399
G3 X-44.47948 Y-64.18065 I0.52144 J0.53908
G3 X-43.13244 Y-62.98974 I-1.00172 J2.49033
G3 X-43.08558 Y-62.88769 I-0.65626 J0.36307
G3 X-43.17271 Y-60.87129 I-2.43725 J0.90478
G3 X-44.448 Y-58.67263 I-7.79699 J-3.05333
G3 X-46.69228 Y-57.40899 I-2.42947 J-1.69006
G3 X-46.89859 Y-57.39759 I-0.34817 J-4.429
G1 X-48.8619 Y-52.64157
G2 X-47.58259 Y-52.71254 I0.39405 J-4.46246
G2 X-45.68666 Y-53.68811 I-1.45417 J-5.15611
G2 X-44.0323 Y-55.52052 I-6.21464 J-7.27382
G2 X-41.12131 Y-60.74029 I-27.72409 J-18.88288
G3 X-41.11633 Y-60.75122 I0.68496 J0.30549
G2 X-40.23705 Y-62.92537 I-20.76883 J-9.66432
G3 X-40.22947 Y-62.94629 I0.70877 J0.24523
G2 X-39.90399 Y-65.88321 I-5.53126 J-2.09949
G2 X-40.68938 Y-67.56369 I-3.41411 J0.57186
G3 X-40.71239 Y-67.59191 I0.56953 J-0.48799
G2 X-42.19987 Y-68.8574 I-3.77221 J2.92694
( gcode truncated )
( please support CamBam development by registering )
( www.cambam.info/shop )
G0 Z3.0
M5
M30
