( Made using CamBam - http://www.cambam.co.uk )
( Drei_3-mal_60mm 9/20/2019 5:06:27 PM )
( T6 : 6.0 )
G21 G90 G64 G40
G0 Z3.0
( T6 : 6.0 )
T6 M6
( Tasche-3mal )
G17
M3 S1000
G0 X-3.21038 Y51.79279
G0 Z1.0
G1 F300.0 Z-3.0
G2 F800.0 X-3.36038 Y51.70619 I-0.1 J0.0
G2 Y51.87939 I0.05 J0.0866
G2 X-3.21038 Y51.79279 I0.05 J-0.0866
G1 F300.0 X-0.81038
G2 F800.0 X-4.56038 Y49.62772 I-2.5 J0.0
G2 Y53.95785 I1.25 J2.16506
G2 X-0.81038 Y51.79279 I1.25 J-2.16506
G1 F300.0 X1.58962
G2 F800.0 X-5.76038 Y47.54926 I-4.9 J0.0
G2 Y56.03631 I2.45 J4.24352
G2 X1.58962 Y51.79279 I2.45 J-4.24352
G1 F300.0 X3.98962
G2 F800.0 X-6.96038 Y45.4708 I-7.3 J0.0
G2 Y58.11477 I3.65 J6.32199
G2 X3.98962 Y51.79279 I3.65 J-6.32199
G1 F300.0 X6.38962
G2 F800.0 X-8.16038 Y43.39234 I-9.7 J0.0
G2 Y60.19323 I4.85 J8.40045
G2 X6.38962 Y51.79279 I4.85 J-8.40045
G1 F300.0 X8.78962
G2 F800.0 X-9.36038 Y41.31388 I-12.1 J0.0
G2 Y62.2717 I6.05 J10.47891
G2 X8.78962 Y51.79279 I6.05 J-10.47891
G1 F300.0 X11.18962
G2 F800.0 X-10.56038 Y39.23542 I-14.5 J0.0
G2 Y64.35016 I7.25 J12.55737
G2 X11.18962 Y51.79279 I7.25 J-12.55737
G1 F300.0 X13.58962
G2 F800.0 X-11.76038 Y37.15696 I-16.9 J0.0
G2 Y66.42862 I8.45 J14.63583
G2 X13.58962 Y51.79279 I8.45 J-14.63583
G1 F300.0 X15.98962
G2 F800.0 X-12.96038 Y35.0785 I-19.3 J0.0
G2 Y68.50708 I9.65 J16.71429
G2 X15.98962 Y51.79279 I9.65 J-16.71429
G1 F300.0 X18.38962
G2 F800.0 X-14.16038 Y33.00004 I-21.7 J0.0
G2 Y70.58554 I10.85 J18.79275
G2 X18.38962 Y51.79279 I10.85 J-18.79275
G1 F300.0 X20.78962
G2 F800.0 X-15.36038 Y30.92158 I-24.1 J0.0
G2 Y72.664 I12.05 J20.87121
G2 X20.78962 Y51.79279 I12.05 J-20.87121
G1 F300.0 X23.18962
G2 F800.0 X-16.56038 Y28.84311 I-26.5 J0.0
G2 Y74.74246 I13.25 J22.94967
G2 X23.18962 Y51.79279 I13.25 J-22.94967
G0 Z3.0
G0 X-3.21038
G0 Z-2.0
G1 F300.0 Z-6.0
G2 F800.0 X-3.36038 Y51.70619 I-0.1 J0.0
G2 Y51.87939 I0.05 J0.0866
G2 X-3.21038 Y51.79279 I0.05 J-0.0866
G1 F300.0 X-0.81038
G2 F800.0 X-4.56038 Y49.62772 I-2.5 J0.0
G2 Y53.95785 I1.25 J2.16506
G2 X-0.81038 Y51.79279 I1.25 J-2.16506
G1 F300.0 X1.58962
G2 F800.0 X-5.76038 Y47.54926 I-4.9 J0.0
G2 Y56.03631 I2.45 J4.24352
G2 X1.58962 Y51.79279 I2.45 J-4.24352
G1 F300.0 X3.98962
G2 F800.0 X-6.96038 Y45.4708 I-7.3 J0.0
G2 Y58.11477 I3.65 J6.32199
G2 X3.98962 Y51.79279 I3.65 J-6.32199
G1 F300.0 X6.38962
G2 F800.0 X-8.16038 Y43.39234 I-9.7 J0.0
G2 Y60.19323 I4.85 J8.40045
G2 X6.38962 Y51.79279 I4.85 J-8.40045
G1 F300.0 X8.78962
G2 F800.0 X-9.36038 Y41.31388 I-12.1 J0.0
G2 Y62.2717 I6.05 J10.47891
G2 X8.78962 Y51.79279 I6.05 J-10.47891
G1 F300.0 X11.18962
G2 F800.0 X-10.56038 Y39.23542 I-14.5 J0.0
G2 Y64.35016 I7.25 J12.55737
G2 X11.18962 Y51.79279 I7.25 J-12.55737
G1 F300.0 X13.58962
G2 F800.0 X-11.76038 Y37.15696 I-16.9 J0.0
G2 Y66.42862 I8.45 J14.63583
G2 X13.58962 Y51.79279 I8.45 J-14.63583
G1 F300.0 X15.98962
G2 F800.0 X-12.96038 Y35.0785 I-19.3 J0.0
G2 Y68.50708 I9.65 J16.71429
G2 X15.98962 Y51.79279 I9.65 J-16.71429
G1 F300.0 X18.38962
G2 F800.0 X-14.16038 Y33.00004 I-21.7 J0.0
G2 Y70.58554 I10.85 J18.79275
G2 X18.38962 Y51.79279 I10.85 J-18.79275
G1 F300.0 X20.78962
G2 F800.0 X-15.36038 Y30.92158 I-24.1 J0.0
G2 Y72.664 I12.05 J20.87121
G2 X20.78962 Y51.79279 I12.05 J-20.87121
G1 F300.0 X23.18962
G2 F800.0 X-16.56038 Y28.84311 I-26.5 J0.0
G2 Y74.74246 I13.25 J22.94967
G2 X23.18962 Y51.79279 I13.25 J-22.94967
G0 Z3.0
G0 X-3.21038
G0 Z-5.0
G1 F300.0 Z-9.0
G2 F800.0 X-3.36038 Y51.70619 I-0.1 J0.0
G2 Y51.87939 I0.05 J0.0866
G2 X-3.21038 Y51.79279 I0.05 J-0.0866
G1 F300.0 X-0.81038
G2 F800.0 X-4.56038 Y49.62772 I-2.5 J0.0
G2 Y53.95785 I1.25 J2.16506
G2 X-0.81038 Y51.79279 I1.25 J-2.16506
G1 F300.0 X1.58962
G2 F800.0 X-5.76038 Y47.54926 I-4.9 J0.0
G2 Y56.03631 I2.45 J4.24352
G2 X1.58962 Y51.79279 I2.45 J-4.24352
G1 F300.0 X3.98962
G2 F800.0 X-6.96038 Y45.4708 I-7.3 J0.0
G2 Y58.11477 I3.65 J6.32199
G2 X3.98962 Y51.79279 I3.65 J-6.32199
G1 F300.0 X6.38962
G2 F800.0 X-8.16038 Y43.39234 I-9.7 J0.0
G2 Y60.19323 I4.85 J8.40045
G2 X6.38962 Y51.79279 I4.85 J-8.40045
G1 F300.0 X8.78962
G2 F800.0 X-9.36038 Y41.31388 I-12.1 J0.0
G2 Y62.2717 I6.05 J10.47891
G2 X8.78962 Y51.79279 I6.05 J-10.47891
G1 F300.0 X11.18962
G2 F800.0 X-10.56038 Y39.23542 I-14.5 J0.0
G2 Y64.35016 I7.25 J12.55737
G2 X11.18962 Y51.79279 I7.25 J-12.55737
G1 F300.0 X13.58962
G2 F800.0 X-11.76038 Y37.15696 I-16.9 J0.0
G2 Y66.42862 I8.45 J14.63583
G2 X13.58962 Y51.79279 I8.45 J-14.63583
G1 F300.0 X15.98962
G2 F800.0 X-12.96038 Y35.0785 I-19.3 J0.0
G2 Y68.50708 I9.65 J16.71429
G2 X15.98962 Y51.79279 I9.65 J-16.71429
G1 F300.0 X18.38962
G2 F800.0 X-14.16038 Y33.00004 I-21.7 J0.0
G2 Y70.58554 I10.85 J18.79275
G2 X18.38962 Y51.79279 I10.85 J-18.79275
G1 F300.0 X20.78962
G2 F800.0 X-15.36038 Y30.92158 I-24.1 J0.0
G2 Y72.664 I12.05 J20.87121
G2 X20.78962 Y51.79279 I12.05 J-20.87121
G1 F300.0 X23.18962
G2 F800.0 X-16.56038 Y28.84311 I-26.5 J0.0
G2 Y74.74246 I13.25 J22.94967
G2 X23.18962 Y51.79279 I13.25 J-22.94967
G0 Z3.0
G0 X-3.21038
G0 Z-8.0
G1 F300.0 Z-12.0
G2 F800.0 X-3.36038 Y51.70619 I-0.1 J0.0
G2 Y51.87939 I0.05 J0.0866
G2 X-3.21038 Y51.79279 I0.05 J-0.0866
G1 F300.0 X-0.81038
G2 F800.0 X-4.56038 Y49.62772 I-2.5 J0.0
G2 Y53.95785 I1.25 J2.16506
G2 X-0.81038 Y51.79279 I1.25 J-2.16506
G1 F300.0 X1.58962
G2 F800.0 X-5.76038 Y47.54926 I-4.9 J0.0
G2 Y56.03631 I2.45 J4.24352
G2 X1.58962 Y51.79279 I2.45 J-4.24352
G1 F300.0 X3.98962
G2 F800.0 X-6.96038 Y45.4708 I-7.3 J0.0
G2 Y58.11477 I3.65 J6.32199
G2 X3.98962 Y51.79279 I3.65 J-6.32199
G1 F300.0 X6.38962
G2 F800.0 X-8.16038 Y43.39234 I-9.7 J0.0
G2 Y60.19323 I4.85 J8.40045
G2 X6.38962 Y51.79279 I4.85 J-8.40045
G1 F300.0 X8.78962
G2 F800.0 X-9.36038 Y41.31388 I-12.1 J0.0
G2 Y62.2717 I6.05 J10.47891
G2 X8.78962 Y51.79279 I6.05 J-10.47891
G1 F300.0 X11.18962
G2 F800.0 X-10.56038 Y39.23542 I-14.5 J0.0
G2 Y64.35016 I7.25 J12.55737
G2 X11.18962 Y51.79279 I7.25 J-12.55737
G1 F300.0 X13.58962
G2 F800.0 X-11.76038 Y37.15696 I-16.9 J0.0
G2 Y66.42862 I8.45 J14.63583
G2 X13.58962 Y51.79279 I8.45 J-14.63583
G1 F300.0 X15.98962
G2 F800.0 X-12.96038 Y35.0785 I-19.3 J0.0
G2 Y68.50708 I9.65 J16.71429
G2 X15.98962 Y51.79279 I9.65 J-16.71429
G1 F300.0 X18.38962
G2 F800.0 X-14.16038 Y33.00004 I-21.7 J0.0
G2 Y70.58554 I10.85 J18.79275
G2 X18.38962 Y51.79279 I10.85 J-18.79275
G1 F300.0 X20.78962
G2 F800.0 X-15.36038 Y30.92158 I-24.1 J0.0
G2 Y72.664 I12.05 J20.87121
G2 X20.78962 Y51.79279 I12.05 J-20.87121
G1 F300.0 X23.18962
G2 F800.0 X-16.56038 Y28.84311 I-26.5 J0.0
G2 Y74.74246 I13.25 J22.94967
G2 X23.18962 Y51.79279 I13.25 J-22.94967
G0 Z3.0
G0 X48.70325 Y-23.83159
G0 Z1.0
G1 F300.0 Z-3.0
G2 F800.0 X48.83522 Y-23.92634 I0.03197 J-0.09475
G2 X48.68522 Y-24.01294 I-0.1 J0.0
G2 Y-23.83974 I0.05 J0.0866
G2 X48.70325 Y-23.83159 I0.05 J-0.0866
G1 F300.0 X47.93604 Y-21.55752
G2 F800.0 X51.23522 Y-23.92634 I0.79918 J-2.36882
G2 X47.48522 Y-26.0914 I-2.5 J0.0
G2 Y-21.76128 I1.25 J2.16506
G2 X47.93604 Y-21.55752 I1.25 J-2.16506
G1 F300.0 X47.16883 Y-19.28345
G2 F800.0 X53.63522 Y-23.92634 I1.56639 J-4.64289
G2 X46.28522 Y-28.16986 I-4.9 J0.0
G2 Y-19.68281 I2.45 J4.24352
G2 X47.16883 Y-19.28345 I2.45 J-4.24352
G1 F300.0 X46.40162 Y-17.00938
G2 F800.0 X56.03522 Y-23.92634 I2.3336 J-6.91696
G2 X45.08522 Y-30.24832 I-7.3 J0.0
G2 Y-17.60435 I3.65 J6.32199
G2 X46.40162 Y-17.00938 I3.65 J-6.32199
G1 F300.0 X45.63441 Y-14.73531
G2 F800.0 X58.43522 Y-23.92634 I3.10081 J-9.19103
G2 X43.88522 Y-32.32679 I-9.7 J0.0
G2 Y-15.52589 I4.85 J8.40045
G2 X45.63441 Y-14.73531 I4.85 J-8.40045
G1 F300.0 X44.8672 Y-12.46124
G2 F800.0 X60.83522 Y-23.92634 I3.86802 J-11.4651
G2 X42.68522 Y-34.40525 I-12.1 J0.0
G2 Y-13.44743 I6.05 J10.47891
G2 X44.8672 Y-12.46124 I6.05 J-10.47891
G1 F300.0 X44.09999 Y-10.18717
G2 F800.0 X63.23522 Y-23.92634 I4.63523 J-13.73917
G2 X41.48522 Y-36.48371 I-14.5 J0.0
G2 Y-11.36897 I7.25 J12.55737
G2 X44.09999 Y-10.18717 I7.25 J-12.55737
G1 F300.0 X43.33278 Y-7.9131
G2 F800.0 X65.63522 Y-23.92634 I5.40244 J-16.01323
G2 X40.28522 Y-38.56217 I-16.9 J0.0
G2 Y-9.29051 I8.45 J14.63583
G2 X43.33278 Y-7.9131 I8.45 J-14.63583
G1 F300.0 X42.56558 Y-5.63904
G2 F800.0 X68.03522 Y-23.92634 I6.16965 J-18.2873
G2 X39.08522 Y-40.64063 I-19.3 J0.0
G2 Y-7.21205 I9.65 J16.71429
G2 X42.56558 Y-5.63904 I9.65 J-16.71429
G1 F300.0 X41.79837 Y-3.36497
G2 F800.0 X70.43522 Y-23.92634 I6.93686 J-20.56137
G2 X37.88522 Y-42.71909 I-21.7 J0.0
G2 Y-5.13359 I10.85 J18.79275
G2 X41.79837 Y-3.36497 I10.85 J-18.79275
G1 F300.0 X41.03116 Y-1.0909
G2 F800.0 X72.83522 Y-23.92634 I7.70407 J-22.83544
G2 X36.68522 Y-44.79755 I-24.1 J0.0
G2 Y-3.05513 I12.05 J20.87121
G2 X41.03116 Y-1.0909 I12.05 J-20.87121
G1 F300.0 X40.26395 Y1.18317
G2 F800.0 X75.23522 Y-23.92634 I8.47128 J-25.10951
G2 X35.48522 Y-46.87601 I-26.5 J0.0
G2 Y-0.97667 I13.25 J22.94967
G2 X40.26395 Y1.18317 I13.25 J-22.94967
G0 Z3.0
G0 X48.70325 Y-23.83159
G0 Z-2.0
G1 F300.0 Z-6.0
G2 F800.0 X48.83522 Y-23.92634 I0.03197 J-0.09475
G2 X48.68522 Y-24.01294 I-0.1 J0.0
G2 Y-23.83974 I0.05 J0.0866
G2 X48.70325 Y-23.83159 I0.05 J-0.0866
G1 F300.0 X47.93604 Y-21.55752
G2 F800.0 X51.23522 Y-23.92634 I0.79918 J-2.36882
G2 X47.48522 Y-26.0914 I-2.5 J0.0
G2 Y-21.76128 I1.25 J2.16506
G2 X47.93604 Y-21.55752 I1.25 J-2.16506
G1 F300.0 X47.16883 Y-19.28345
G2 F800.0 X53.63522 Y-23.92634 I1.56639 J-4.64289
G2 X46.28522 Y-28.16986 I-4.9 J0.0
G2 Y-19.68281 I2.45 J4.24352
G2 X47.16883 Y-19.28345 I2.45 J-4.24352
G1 F300.0 X46.40162 Y-17.00938
G2 F800.0 X56.03522 Y-23.92634 I2.3336 J-6.91696
G2 X45.08522 Y-30.24832 I-7.3 J0.0
G2 Y-17.60435 I3.65 J6.32199
G2 X46.40162 Y-17.00938 I3.65 J-6.32199
G1 F300.0 X45.63441 Y-14.73531
G2 F800.0 X58.43522 Y-23.92634 I3.10081 J-9.19103
G2 X43.88522 Y-32.32679 I-9.7 J0.0
G2 Y-15.52589 I4.85 J8.40045
G2 X45.63441 Y-14.73531 I4.85 J-8.40045
G1 F300.0 X44.8672 Y-12.46124
G2 F800.0 X60.83522 Y-23.92634 I3.86802 J-11.4651
G2 X42.68522 Y-34.40525 I-12.1 J0.0
G2 Y-13.44743 I6.05 J10.47891
G2 X44.8672 Y-12.46124 I6.05 J-10.47891
G1 F300.0 X44.09999 Y-10.18717
G2 F800.0 X63.23522 Y-23.92634 I4.63523 J-13.73917
G2 X41.48522 Y-36.48371 I-14.5 J0.0
G2 Y-11.36897 I7.25 J12.55737
G2 X44.09999 Y-10.18717 I7.25 J-12.55737
G1 F300.0 X43.33278 Y-7.9131
G2 F800.0 X65.63522 Y-23.92634 I5.40244 J-16.01323
G2 X40.28522 Y-38.56217 I-16.9 J0.0
G2 Y-9.29051 I8.45 J14.63583
G2 X43.33278 Y-7.9131 I8.45 J-14.63583
G1 F300.0 X42.56558 Y-5.63904
G2 F800.0 X68.03522 Y-23.92634 I6.16965 J-18.2873
G2 X39.08522 Y-40.64063 I-19.3 J0.0
G2 Y-7.21205 I9.65 J16.71429
G2 X42.56558 Y-5.63904 I9.65 J-16.71429
G1 F300.0 X41.79837 Y-3.36497
G2 F800.0 X70.43522 Y-23.92634 I6.93686 J-20.56137
G2 X37.88522 Y-42.71909 I-21.7 J0.0
G2 Y-5.13359 I10.85 J18.79275
G2 X41.79837 Y-3.36497 I10.85 J-18.79275
G1 F300.0 X41.03116 Y-1.0909
G2 F800.0 X72.83522 Y-23.92634 I7.70407 J-22.83544
G2 X36.68522 Y-44.79755 I-24.1 J0.0
G2 Y-3.05513 I12.05 J20.87121
G2 X41.03116 Y-1.0909 I12.05 J-20.87121
G1 F300.0 X40.26395 Y1.18317
G2 F800.0 X75.23522 Y-23.92634 I8.47128 J-25.10951
G2 X35.48522 Y-46.87601 I-26.5 J0.0
G2 Y-0.97667 I13.25 J22.94967
G2 X40.26395 Y1.18317 I13.25 J-22.94967
G0 Z3.0
G0 X48.70325 Y-23.83159
G0 Z-5.0
G1 F300.0 Z-9.0
G2 F800.0 X48.83522 Y-23.92634 I0.03197 J-0.09475
G2 X48.68522 Y-24.01294 I-0.1 J0.0
G2 Y-23.83974 I0.05 J0.0866
G2 X48.70325 Y-23.83159 I0.05 J-0.0866
G1 F300.0 X47.93604 Y-21.55752
G2 F800.0 X51.23522 Y-23.92634 I0.79918 J-2.36882
G2 X47.48522 Y-26.0914 I-2.5 J0.0
G2 Y-21.76128 I1.25 J2.16506
G2 X47.93604 Y-21.55752 I1.25 J-2.16506
G1 F300.0 X47.16883 Y-19.28345
G2 F800.0 X53.63522 Y-23.92634 I1.56639 J-4.64289
G2 X46.28522 Y-28.16986 I-4.9 J0.0
G2 Y-19.68281 I2.45 J4.24352
G2 X47.16883 Y-19.28345 I2.45 J-4.24352
G1 F300.0 X46.40162 Y-17.00938
G2 F800.0 X56.03522 Y-23.92634 I2.3336 J-6.91696
G2 X45.08522 Y-30.24832 I-7.3 J0.0
G2 Y-17.60435 I3.65 J6.32199
G2 X46.40162 Y-17.00938 I3.65 J-6.32199
G1 F300.0 X45.63441 Y-14.73531
G2 F800.0 X58.43522 Y-23.92634 I3.10081 J-9.19103
G2 X43.88522 Y-32.32679 I-9.7 J0.0
G2 Y-15.52589 I4.85 J8.40045
G2 X45.63441 Y-14.73531 I4.85 J-8.40045
G1 F300.0 X44.8672 Y-12.46124
G2 F800.0 X60.83522 Y-23.92634 I3.86802 J-11.4651
G2 X42.68522 Y-34.40525 I-12.1 J0.0
G2 Y-13.44743 I6.05 J10.47891
G2 X44.8672 Y-12.46124 I6.05 J-10.47891
G1 F300.0 X44.09999 Y-10.18717
G2 F800.0 X63.23522 Y-23.92634 I4.63523 J-13.73917
G2 X41.48522 Y-36.48371 I-14.5 J0.0
G2 Y-11.36897 I7.25 J12.55737
G2 X44.09999 Y-10.18717 I7.25 J-12.55737
G1 F300.0 X43.33278 Y-7.9131
G2 F800.0 X65.63522 Y-23.92634 I5.40244 J-16.01323
G2 X40.28522 Y-38.56217 I-16.9 J0.0
G2 Y-9.29051 I8.45 J14.63583
G2 X43.33278 Y-7.9131 I8.45 J-14.63583
G1 F300.0 X42.56558 Y-5.63904
G2 F800.0 X68.03522 Y-23.92634 I6.16965 J-18.2873
G2 X39.08522 Y-40.64063 I-19.3 J0.0
G2 Y-7.21205 I9.65 J16.71429
G2 X42.56558 Y-5.63904 I9.65 J-16.71429
G1 F300.0 X41.79837 Y-3.36497
G2 F800.0 X70.43522 Y-23.92634 I6.93686 J-20.56137
G2 X37.88522 Y-42.71909 I-21.7 J0.0
G2 Y-5.13359 I10.85 J18.79275
G2 X41.79837 Y-3.36497 I10.85 J-18.79275
G1 F300.0 X41.03116 Y-1.0909
G2 F800.0 X72.83522 Y-23.92634 I7.70407 J-22.83544
G2 X36.68522 Y-44.79755 I-24.1 J0.0
G2 Y-3.05513 I12.05 J20.87121
G2 X41.03116 Y-1.0909 I12.05 J-20.87121
G1 F300.0 X40.26395 Y1.18317
G2 F800.0 X75.23522 Y-23.92634 I8.47128 J-25.10951
G2 X35.48522 Y-46.87601 I-26.5 J0.0
G2 Y-0.97667 I13.25 J22.94967
G2 X40.26395 Y1.18317 I13.25 J-22.94967
G0 Z3.0
G0 X48.70325 Y-23.83159
G0 Z-8.0
G1 F300.0 Z-12.0
G2 F800.0 X48.83522 Y-23.92634 I0.03197 J-0.09475
G2 X48.68522 Y-24.01294 I-0.1 J0.0
G2 Y-23.83974 I0.05 J0.0866
G2 X48.70325 Y-23.83159 I0.05 J-0.0866
G1 F300.0 X47.93604 Y-21.55752
G2 F800.0 X51.23522 Y-23.92634 I0.79918 J-2.36882
G2 X47.48522 Y-26.0914 I-2.5 J0.0
G2 Y-21.76128 I1.25 J2.16506
G2 X47.93604 Y-21.55752 I1.25 J-2.16506
G1 F300.0 X47.16883 Y-19.28345
G2 F800.0 X53.63522 Y-23.92634 I1.56639 J-4.64289
G2 X46.28522 Y-28.16986 I-4.9 J0.0
G2 Y-19.68281 I2.45 J4.24352
G2 X47.16883 Y-19.28345 I2.45 J-4.24352
G1 F300.0 X46.40162 Y-17.00938
G2 F800.0 X56.03522 Y-23.92634 I2.3336 J-6.91696
G2 X45.08522 Y-30.24832 I-7.3 J0.0
G2 Y-17.60435 I3.65 J6.32199
G2 X46.40162 Y-17.00938 I3.65 J-6.32199
G1 F300.0 X45.63441 Y-14.73531
G2 F800.0 X58.43522 Y-23.92634 I3.10081 J-9.19103
G2 X43.88522 Y-32.32679 I-9.7 J0.0
G2 Y-15.52589 I4.85 J8.40045
G2 X45.63441 Y-14.73531 I4.85 J-8.40045
G1 F300.0 X44.8672 Y-12.46124
G2 F800.0 X60.83522 Y-23.92634 I3.86802 J-11.4651
G2 X42.68522 Y-34.40525 I-12.1 J0.0
G2 Y-13.44743 I6.05 J10.47891
G2 X44.8672 Y-12.46124 I6.05 J-10.47891
G1 F300.0 X44.09999 Y-10.18717
G2 F800.0 X63.23522 Y-23.92634 I4.63523 J-13.73917
G2 X41.48522 Y-36.48371 I-14.5 J0.0
G2 Y-11.36897 I7.25 J12.55737
G2 X44.09999 Y-10.18717 I7.25 J-12.55737
G1 F300.0 X43.33278 Y-7.9131
G2 F800.0 X65.63522 Y-23.92634 I5.40244 J-16.01323
G2 X40.28522 Y-38.56217 I-16.9 J0.0
G2 Y-9.29051 I8.45 J14.63583
G2 X43.33278 Y-7.9131 I8.45 J-14.63583
G1 F300.0 X42.56558 Y-5.63904
G2 F800.0 X68.03522 Y-23.92634 I6.16965 J-18.2873
G2 X39.08522 Y-40.64063 I-19.3 J0.0
G2 Y-7.21205 I9.65 J16.71429
G2 X42.56558 Y-5.63904 I9.65 J-16.71429
G1 F300.0 X41.79837 Y-3.36497
G2 F800.0 X70.43522 Y-23.92634 I6.93686 J-20.56137
G2 X37.88522 Y-42.71909 I-21.7 J0.0
G2 Y-5.13359 I10.85 J18.79275
G2 X41.79837 Y-3.36497 I10.85 J-18.79275
G1 F300.0 X41.03116 Y-1.0909
G2 F800.0 X72.83522 Y-23.92634 I7.70407 J-22.83544
G2 X36.68522 Y-44.79755 I-24.1 J0.0
G2 Y-3.05513 I12.05 J20.87121
G2 X41.03116 Y-1.0909 I12.05 J-20.87121
G1 F300.0 X40.26395 Y1.18317
G2 F800.0 X75.23522 Y-23.92634 I8.47128 J-25.10951
G2 X35.48522 Y-46.87601 I-26.5 J0.0
G2 Y-0.97667 I13.25 J22.94967
G2 X40.26395 Y1.18317 I13.25 J-22.94967
G0 Z3.0
G0 X-42.61284 Y-31.11858
G0 Z1.0
G1 F300.0 Z-3.0
G2 F800.0 X-42.60602 Y-31.1549 I-0.09317 J-0.03631
G2 X-42.75602 Y-31.2415 I-0.1 J0.0
G2 Y-31.06829 I0.05 J0.0866
G2 X-42.61284 Y-31.11858 I0.05 J-0.0866
G1 F300.0 X-40.37669 Y-30.24702
G2 F800.0 X-40.20602 Y-31.1549 I-2.32933 J-0.90787
G2 X-43.95602 Y-33.31996 I-2.5 J0.0
G2 Y-28.98983 I1.25 J2.16506
G2 X-40.37669 Y-30.24702 I1.25 J-2.16506
G1 F300.0 X-38.14053 Y-29.37547
G2 F800.0 X-37.80602 Y-31.1549 I-4.56548 J-1.77943
G2 X-45.15602 Y-35.39842 I-4.9 J0.0
G2 Y-26.91137 I2.45 J4.24352
G2 X-38.14053 Y-29.37547 I2.45 J-4.24352
G1 F300.0 X-35.90438 Y-28.50391
G2 F800.0 X-35.40602 Y-31.1549 I-6.80164 J-2.65098
G2 X-46.35602 Y-37.47688 I-7.3 J0.0
G2 Y-24.83291 I3.65 J6.32199
G2 X-35.90438 Y-28.50391 I3.65 J-6.32199
G1 F300.0 X-33.66822 Y-27.63236
G2 F800.0 X-33.00602 Y-31.1549 I-9.03779 J-3.52254
G2 X-47.55602 Y-39.55534 I-9.7 J0.0
G2 Y-22.75445 I4.85 J8.40045
G2 X-33.66822 Y-27.63236 I4.85 J-8.40045
G1 F300.0 X-31.43207 Y-26.7608
G2 F800.0 X-30.60602 Y-31.1549 I-11.27395 J-4.39409
G2 X-48.75602 Y-41.6338 I-12.1 J0.0
G2 Y-20.67599 I6.05 J10.47891
G2 X-31.43207 Y-26.7608 I6.05 J-10.47891
G1 F300.0 X-29.19591 Y-25.88925
G2 F800.0 X-28.20602 Y-31.1549 I-13.51011 J-5.26565
G2 X-49.95602 Y-43.71226 I-14.5 J0.0
G2 Y-18.59753 I7.25 J12.55737
G2 X-29.19591 Y-25.88925 I7.25 J-12.55737
G1 F300.0 X-26.95976 Y-25.01769
G2 F800.0 X-25.80602 Y-31.1549 I-15.74626 J-6.1372
G2 X-51.15602 Y-45.79072 I-16.9 J0.0
G2 Y-16.51907 I8.45 J14.63583
G2 X-26.95976 Y-25.01769 I8.45 J-14.63583
G1 F300.0 X-24.7236 Y-24.14614
G2 F800.0 X-23.40602 Y-31.1549 I-17.98242 J-7.00876
G2 X-52.35602 Y-47.86919 I-19.3 J0.0
G2 Y-14.44061 I9.65 J16.71429
G2 X-24.7236 Y-24.14614 I9.65 J-16.71429
G1 F300.0 X-22.48744 Y-23.27458
G2 F800.0 X-21.00602 Y-31.1549 I-20.21857 J-7.88032
G2 X-53.55602 Y-49.94765 I-21.7 J0.0
G2 Y-12.36214 I10.85 J18.79275
G2 X-22.48744 Y-23.27458 I10.85 J-18.79275
G1 F300.0 X-20.25129 Y-22.40302
G2 F800.0 X-18.60602 Y-31.1549 I-22.45473 J-8.75187
G2 X-54.75602 Y-52.02611 I-24.1 J0.0
G2 Y-10.28368 I12.05 J20.87121
G2 X-20.25129 Y-22.40302 I12.05 J-20.87121
G1 F300.0 X-18.01513 Y-21.53147
G2 F800.0 X-16.20602 Y-31.1549 I-24.69088 J-9.62343
G2 X-55.95602 Y-54.10457 I-26.5 J0.0
G2 Y-8.20522 I13.25 J22.94967
G2 X-18.01513 Y-21.53147 I13.25 J-22.94967
G0 Z3.0
G0 X-42.61284 Y-31.11858
G0 Z-2.0
G1 F300.0 Z-6.0
G2 F800.0 X-42.60602 Y-31.1549 I-0.09317 J-0.03631
G2 X-42.75602 Y-31.2415 I-0.1 J0.0
G2 Y-31.06829 I0.05 J0.0866
G2 X-42.61284 Y-31.11858 I0.05 J-0.0866
G1 F300.0 X-40.37669 Y-30.24702
G2 F800.0 X-40.20602 Y-31.1549 I-2.32933 J-0.90787
G2 X-43.95602 Y-33.31996 I-2.5 J0.0
G2 Y-28.98983 I1.25 J2.16506
G2 X-40.37669 Y-30.24702 I1.25 J-2.16506
G1 F300.0 X-38.14053 Y-29.37547
G2 F800.0 X-37.80602 Y-31.1549 I-4.56548 J-1.77943
G2 X-45.15602 Y-35.39842 I-4.9 J0.0
G2 Y-26.91137 I2.45 J4.24352
G2 X-38.14053 Y-29.37547 I2.45 J-4.24352
G1 F300.0 X-35.90438 Y-28.50391
G2 F800.0 X-35.40602 Y-31.1549 I-6.80164 J-2.65098
G2 X-46.35602 Y-37.47688 I-7.3 J0.0
G2 Y-24.83291 I3.65 J6.32199
G2 X-35.90438 Y-28.50391 I3.65 J-6.32199
G1 F300.0 X-33.66822 Y-27.63236
G2 F800.0 X-33.00602 Y-31.1549 I-9.03779 J-3.52254
G2 X-47.55602 Y-39.55534 I-9.7 J0.0
G2 Y-22.75445 I4.85 J8.40045
G2 X-33.66822 Y-27.63236 I4.85 J-8.40045
G1 F300.0 X-31.43207 Y-26.7608
G2 F800.0 X-30.60602 Y-31.1549 I-11.27395 J-4.39409
G2 X-48.75602 Y-41.6338 I-12.1 J0.0
G2 Y-20.67599 I6.05 J10.47891
G2 X-31.43207 Y-26.7608 I6.05 J-10.47891
G1 F300.0 X-29.19591 Y-25.88925
G2 F800.0 X-28.20602 Y-31.1549 I-13.51011 J-5.26565
G2 X-49.95602 Y-43.71226 I-14.5 J0.0
G2 Y-18.59753 I7.25 J12.55737
G2 X-29.19591 Y-25.88925 I7.25 J-12.55737
G1 F300.0 X-26.95976 Y-25.01769
G2 F800.0 X-25.80602 Y-31.1549 I-15.74626 J-6.1372
G2 X-51.15602 Y-45.79072 I-16.9 J0.0
G2 Y-16.51907 I8.45 J14.63583
G2 X-26.95976 Y-25.01769 I8.45 J-14.63583
G1 F300.0 X-24.7236 Y-24.14614
G2 F800.0 X-23.40602 Y-31.1549 I-17.98242 J-7.00876
G2 X-52.35602 Y-47.86919 I-19.3 J0.0
G2 Y-14.44061 I9.65 J16.71429
G2 X-24.7236 Y-24.14614 I9.65 J-16.71429
G1 F300.0 X-22.48744 Y-23.27458
G2 F800.0 X-21.00602 Y-31.1549 I-20.21857 J-7.88032
G2 X-53.55602 Y-49.94765 I-21.7 J0.0
G2 Y-12.36214 I10.85 J18.79275
G2 X-22.48744 Y-23.27458 I10.85 J-18.79275
G1 F300.0 X-20.25129 Y-22.40302
G2 F800.0 X-18.60602 Y-31.1549 I-22.45473 J-8.75187
G2 X-54.75602 Y-52.02611 I-24.1 J0.0
G2 Y-10.28368 I12.05 J20.87121
G2 X-20.25129 Y-22.40302 I12.05 J-20.87121
G1 F300.0 X-18.01513 Y-21.53147
G2 F800.0 X-16.20602 Y-31.1549 I-24.69088 J-9.62343
G2 X-55.95602 Y-54.10457 I-26.5 J0.0
G2 Y-8.20522 I13.25 J22.94967
G2 X-18.01513 Y-21.53147 I13.25 J-22.94967
G0 Z3.0
G0 X-42.61284 Y-31.11858
G0 Z-5.0
G1 F300.0 Z-9.0
G2 F800.0 X-42.60602 Y-31.1549 I-0.09317 J-0.03631
G2 X-42.75602 Y-31.2415 I-0.1 J0.0
G2 Y-31.06829 I0.05 J0.0866
G2 X-42.61284 Y-31.11858 I0.05 J-0.0866
G1 F300.0 X-40.37669 Y-30.24702
G2 F800.0 X-40.20602 Y-31.1549 I-2.32933 J-0.90787
G2 X-43.95602 Y-33.31996 I-2.5 J0.0
G2 Y-28.98983 I1.25 J2.16506
G2 X-40.37669 Y-30.24702 I1.25 J-2.16506
G1 F300.0 X-38.14053 Y-29.37547
G2 F800.0 X-37.80602 Y-31.1549 I-4.56548 J-1.77943
G2 X-45.15602 Y-35.39842 I-4.9 J0.0
G2 Y-26.91137 I2.45 J4.24352
G2 X-38.14053 Y-29.37547 I2.45 J-4.24352
G1 F300.0 X-35.90438 Y-28.50391
G2 F800.0 X-35.40602 Y-31.1549 I-6.80164 J-2.65098
G2 X-46.35602 Y-37.47688 I-7.3 J0.0
G2 Y-24.83291 I3.65 J6.32199
G2 X-35.90438 Y-28.50391 I3.65 J-6.32199
G1 F300.0 X-33.66822 Y-27.63236
G2 F800.0 X-33.00602 Y-31.1549 I-9.03779 J-3.52254
G2 X-47.55602 Y-39.55534 I-9.7 J0.0
G2 Y-22.75445 I4.85 J8.40045
G2 X-33.66822 Y-27.63236 I4.85 J-8.40045
G1 F300.0 X-31.43207 Y-26.7608
G2 F800.0 X-30.60602 Y-31.1549 I-11.27395 J-4.39409
G2 X-48.75602 Y-41.6338 I-12.1 J0.0
G2 Y-20.67599 I6.05 J10.47891
G2 X-31.43207 Y-26.7608 I6.05 J-10.47891
G1 F300.0 X-29.19591 Y-25.88925
G2 F800.0 X-28.20602 Y-31.1549 I-13.51011 J-5.26565
G2 X-49.95602 Y-43.71226 I-14.5 J0.0
G2 Y-18.59753 I7.25 J12.55737
G2 X-29.19591 Y-25.88925 I7.25 J-12.55737
G1 F300.0 X-26.95976 Y-25.01769
G2 F800.0 X-25.80602 Y-31.1549 I-15.74626 J-6.1372
G2 X-51.15602 Y-45.79072 I-16.9 J0.0
G2 Y-16.51907 I8.45 J14.63583
G2 X-26.95976 Y-25.01769 I8.45 J-14.63583
G1 F300.0 X-24.7236 Y-24.14614
G2 F800.0 X-23.40602 Y-31.1549 I-17.98242 J-7.00876
G2 X-52.35602 Y-47.86919 I-19.3 J0.0
G2 Y-14.44061 I9.65 J16.71429
G2 X-24.7236 Y-24.14614 I9.65 J-16.71429
G1 F300.0 X-22.48744 Y-23.27458
G2 F800.0 X-21.00602 Y-31.1549 I-20.21857 J-7.88032
G2 X-53.55602 Y-49.94765 I-21.7 J0.0
G2 Y-12.36214 I10.85 J18.79275
G2 X-22.48744 Y-23.27458 I10.85 J-18.79275
G1 F300.0 X-20.25129 Y-22.40302
G2 F800.0 X-18.60602 Y-31.1549 I-22.45473 J-8.75187
G2 X-54.75602 Y-52.02611 I-24.1 J0.0
G2 Y-10.28368 I12.05 J20.87121
G2 X-20.25129 Y-22.40302 I12.05 J-20.87121
G1 F300.0 X-18.01513 Y-21.53147
G2 F800.0 X-16.20602 Y-31.1549 I-24.69088 J-9.62343
G2 X-55.95602 Y-54.10457 I-26.5 J0.0
G2 Y-8.20522 I13.25 J22.94967
G2 X-18.01513 Y-21.53147 I13.25 J-22.94967
G0 Z3.0
G0 X-42.61284 Y-31.11858
G0 Z-8.0
G1 F300.0 Z-12.0
G2 F800.0 X-42.60602 Y-31.1549 I-0.09317 J-0.03631
G2 X-42.75602 Y-31.2415 I-0.1 J0.0
G2 Y-31.06829 I0.05 J0.0866
G2 X-42.61284 Y-31.11858 I0.05 J-0.0866
G1 F300.0 X-40.37669 Y-30.24702
G2 F800.0 X-40.20602 Y-31.1549 I-2.32933 J-0.90787
G2 X-43.95602 Y-33.31996 I-2.5 J0.0
G2 Y-28.98983 I1.25 J2.16506
G2 X-40.37669 Y-30.24702 I1.25 J-2.16506
G1 F300.0 X-38.14053 Y-29.37547
G2 F800.0 X-37.80602 Y-31.1549 I-4.56548 J-1.77943
G2 X-45.15602 Y-35.39842 I-4.9 J0.0
G2 Y-26.91137 I2.45 J4.24352
G2 X-38.14053 Y-29.37547 I2.45 J-4.24352
G1 F300.0 X-35.90438 Y-28.50391
G2 F800.0 X-35.40602 Y-31.1549 I-6.80164 J-2.65098
G2 X-46.35602 Y-37.47688 I-7.3 J0.0
G2 Y-24.83291 I3.65 J6.32199
G2 X-35.90438 Y-28.50391 I3.65 J-6.32199
G1 F300.0 X-33.66822 Y-27.63236
G2 F800.0 X-33.00602 Y-31.1549 I-9.03779 J-3.52254
G2 X-47.55602 Y-39.55534 I-9.7 J0.0
G2 Y-22.75445 I4.85 J8.40045
G2 X-33.66822 Y-27.63236 I4.85 J-8.40045
G1 F300.0 X-31.43207 Y-26.7608
G2 F800.0 X-30.60602 Y-31.1549 I-11.27395 J-4.39409
G2 X-48.75602 Y-41.6338 I-12.1 J0.0
G2 Y-20.67599 I6.05 J10.47891
G2 X-31.43207 Y-26.7608 I6.05 J-10.47891
G1 F300.0 X-29.19591 Y-25.88925
G2 F800.0 X-28.20602 Y-31.1549 I-13.51011 J-5.26565
G2 X-49.95602 Y-43.71226 I-14.5 J0.0
G2 Y-18.59753 I7.25 J12.55737
G2 X-29.19591 Y-25.88925 I7.25 J-12.55737
G1 F300.0 X-26.95976 Y-25.01769
G2 F800.0 X-25.80602 Y-31.1549 I-15.74626 J-6.1372
G2 X-51.15602 Y-45.79072 I-16.9 J0.0
G2 Y-16.51907 I8.45 J14.63583
G2 X-26.95976 Y-25.01769 I8.45 J-14.63583
G1 F300.0 X-24.7236 Y-24.14614
G2 F800.0 X-23.40602 Y-31.1549 I-17.98242 J-7.00876
G2 X-52.35602 Y-47.86919 I-19.3 J0.0
G2 Y-14.44061 I9.65 J16.71429
G2 X-24.7236 Y-24.14614 I9.65 J-16.71429
G1 F300.0 X-22.48744 Y-23.27458
G2 F800.0 X-21.00602 Y-31.1549 I-20.21857 J-7.88032
G2 X-53.55602 Y-49.94765 I-21.7 J0.0
G2 Y-12.36214 I10.85 J18.79275
G2 X-22.48744 Y-23.27458 I10.85 J-18.79275
G1 F300.0 X-20.25129 Y-22.40302
G2 F800.0 X-18.60602 Y-31.1549 I-22.45473 J-8.75187
G2 X-54.75602 Y-52.02611 I-24.1 J0.0
G2 Y-10.28368 I12.05 J20.87121
G2 X-20.25129 Y-22.40302 I12.05 J-20.87121
G1 F300.0 X-18.01513 Y-21.53147
G2 F800.0 X-16.20602 Y-31.1549 I-24.69088 J-9.62343
G2 X-55.95602 Y-54.10457 I-26.5 J0.0
G2 Y-8.20522 I13.25 J22.94967
G2 X-18.01513 Y-21.53147 I13.25 J-22.94967
G0 Z3.0
M5
M30
