( Made using CamBam - http://www.cambam.co.uk )
( Grosses_Glas 9/20/2019 5:06:47 PM )
( T6 : 6.0 )
G21 G90 G64 G40
G0 Z3.0
( T6 : 6.0 )
T6 M6
( Tasche2 )
G17
M3 S1000
G0 X-0.49375 Y-1.85208
G0 Z1.0
G1 F300.0 Z-3.0
G2 F800.0 X-0.94375 Y-2.11189 I-0.3 J0.0
G2 Y-1.59228 I0.15 J0.25981
G2 X-0.49375 Y-1.85208 I0.15 J-0.25981
G1 F300.0 X1.90625
G2 F800.0 X-2.14375 Y-4.19035 I-2.7 J0.0
G2 Y0.48619 I1.35 J2.33827
G2 X1.90625 Y-1.85208 I1.35 J-2.33827
G1 F300.0 X4.30625
G2 F800.0 X-3.34375 Y-6.26881 I-5.1 J0.0
G2 Y2.56465 I2.55 J4.41673
G2 X4.30625 Y-1.85208 I2.55 J-4.41673
G1 F300.0 X6.70625
G2 F800.0 X-4.54375 Y-8.34727 I-7.5 J0.0
G2 Y4.64311 I3.75 J6.49519
G2 X6.70625 Y-1.85208 I3.75 J-6.49519
G1 F300.0 X9.10625
G2 F800.0 X-5.74375 Y-10.42573 I-9.9 J0.0
G2 Y6.72157 I4.95 J8.57365
G2 X9.10625 Y-1.85208 I4.95 J-8.57365
G1 F300.0 X11.50625
G2 F800.0 X-6.94375 Y-12.5042 I-12.3 J0.0
G2 Y8.80003 I6.15 J10.65211
G2 X11.50625 Y-1.85208 I6.15 J-10.65211
G1 F300.0 X13.90625
G2 F800.0 X-8.14375 Y-14.58266 I-14.7 J0.0
G2 Y10.87849 I7.35 J12.73057
G2 X13.90625 Y-1.85208 I7.35 J-12.73057
G1 F300.0 X16.30625
G2 F800.0 X-9.34375 Y-16.66112 I-17.1 J0.0
G2 Y12.95695 I8.55 J14.80903
G2 X16.30625 Y-1.85208 I8.55 J-14.80903
G1 F300.0 X18.70625
G2 F800.0 X-10.54375 Y-18.73958 I-19.5 J0.0
G2 Y15.03541 I9.75 J16.8875
G2 X18.70625 Y-1.85208 I9.75 J-16.8875
G1 F300.0 X21.10625
G2 F800.0 X-11.74375 Y-20.81804 I-21.9 J0.0
G2 Y17.11387 I10.95 J18.96596
G2 X21.10625 Y-1.85208 I10.95 J-18.96596
G1 F300.0 X23.50625
G2 F800.0 X-12.94375 Y-22.8965 I-24.3 J0.0
G2 Y19.19233 I12.15 J21.04442
G2 X23.50625 Y-1.85208 I12.15 J-21.04442
G1 F300.0 X25.90625
G2 F800.0 X-14.14375 Y-24.97496 I-26.7 J0.0
G2 Y21.27079 I13.35 J23.12288
G2 X25.90625 Y-1.85208 I13.35 J-23.12288
G1 F300.0 X28.30625
G2 F800.0 X-15.34375 Y-27.05342 I-29.1 J0.0
G2 Y23.34926 I14.55 J25.20134
G2 X28.30625 Y-1.85208 I14.55 J-25.20134
G1 F300.0 X30.70625
G2 F800.0 X-16.54375 Y-29.13188 I-31.5 J0.0
G2 Y25.42772 I15.75 J27.2798
G2 X30.70625 Y-1.85208 I15.75 J-27.2798
G1 F300.0 X33.10625
G2 F800.0 X-17.74375 Y-31.21034 I-33.9 J0.0
G2 Y27.50618 I16.95 J29.35826
G2 X33.10625 Y-1.85208 I16.95 J-29.35826
G1 F300.0 X35.50625
G2 F800.0 X-18.94375 Y-33.28881 I-36.3 J0.0
G2 Y29.58464 I18.15 J31.43672
G2 X35.50625 Y-1.85208 I18.15 J-31.43672
G1 F300.0 X37.90625
G2 F800.0 X-20.14375 Y-35.36727 I-38.7 J0.0
G2 Y31.6631 I19.35 J33.51518
G2 X37.90625 Y-1.85208 I19.35 J-33.51518
G1 F300.0 X40.30625
G2 F800.0 X-21.34375 Y-37.44573 I-41.1 J0.0
G2 Y33.74156 I20.55 J35.59364
G2 X40.30625 Y-1.85208 I20.55 J-35.59364
G1 F300.0 X42.70625
G2 F800.0 X-22.54375 Y-39.52419 I-43.5 J0.0
G2 Y35.82002 I21.75 J37.67211
G2 X42.70625 Y-1.85208 I21.75 J-37.67211
G0 Z3.0
G0 X-0.49375
G0 Z-2.0
G1 F300.0 Z-6.0
G2 F800.0 X-0.94375 Y-2.11189 I-0.3 J0.0
G2 Y-1.59228 I0.15 J0.25981
G2 X-0.49375 Y-1.85208 I0.15 J-0.25981
G1 F300.0 X1.90625
G2 F800.0 X-2.14375 Y-4.19035 I-2.7 J0.0
G2 Y0.48619 I1.35 J2.33827
G2 X1.90625 Y-1.85208 I1.35 J-2.33827
G1 F300.0 X4.30625
G2 F800.0 X-3.34375 Y-6.26881 I-5.1 J0.0
G2 Y2.56465 I2.55 J4.41673
G2 X4.30625 Y-1.85208 I2.55 J-4.41673
G1 F300.0 X6.70625
G2 F800.0 X-4.54375 Y-8.34727 I-7.5 J0.0
G2 Y4.64311 I3.75 J6.49519
G2 X6.70625 Y-1.85208 I3.75 J-6.49519
G1 F300.0 X9.10625
G2 F800.0 X-5.74375 Y-10.42573 I-9.9 J0.0
G2 Y6.72157 I4.95 J8.57365
G2 X9.10625 Y-1.85208 I4.95 J-8.57365
G1 F300.0 X11.50625
G2 F800.0 X-6.94375 Y-12.5042 I-12.3 J0.0
G2 Y8.80003 I6.15 J10.65211
G2 X11.50625 Y-1.85208 I6.15 J-10.65211
G1 F300.0 X13.90625
G2 F800.0 X-8.14375 Y-14.58266 I-14.7 J0.0
G2 Y10.87849 I7.35 J12.73057
G2 X13.90625 Y-1.85208 I7.35 J-12.73057
G1 F300.0 X16.30625
G2 F800.0 X-9.34375 Y-16.66112 I-17.1 J0.0
G2 Y12.95695 I8.55 J14.80903
G2 X16.30625 Y-1.85208 I8.55 J-14.80903
G1 F300.0 X18.70625
G2 F800.0 X-10.54375 Y-18.73958 I-19.5 J0.0
G2 Y15.03541 I9.75 J16.8875
G2 X18.70625 Y-1.85208 I9.75 J-16.8875
G1 F300.0 X21.10625
G2 F800.0 X-11.74375 Y-20.81804 I-21.9 J0.0
G2 Y17.11387 I10.95 J18.96596
G2 X21.10625 Y-1.85208 I10.95 J-18.96596
G1 F300.0 X23.50625
G2 F800.0 X-12.94375 Y-22.8965 I-24.3 J0.0
G2 Y19.19233 I12.15 J21.04442
G2 X23.50625 Y-1.85208 I12.15 J-21.04442
G1 F300.0 X25.90625
G2 F800.0 X-14.14375 Y-24.97496 I-26.7 J0.0
G2 Y21.27079 I13.35 J23.12288
G2 X25.90625 Y-1.85208 I13.35 J-23.12288
G1 F300.0 X28.30625
G2 F800.0 X-15.34375 Y-27.05342 I-29.1 J0.0
G2 Y23.34926 I14.55 J25.20134
G2 X28.30625 Y-1.85208 I14.55 J-25.20134
G1 F300.0 X30.70625
G2 F800.0 X-16.54375 Y-29.13188 I-31.5 J0.0
G2 Y25.42772 I15.75 J27.2798
G2 X30.70625 Y-1.85208 I15.75 J-27.2798
G1 F300.0 X33.10625
G2 F800.0 X-17.74375 Y-31.21034 I-33.9 J0.0
G2 Y27.50618 I16.95 J29.35826
G2 X33.10625 Y-1.85208 I16.95 J-29.35826
G1 F300.0 X35.50625
G2 F800.0 X-18.94375 Y-33.28881 I-36.3 J0.0
G2 Y29.58464 I18.15 J31.43672
G2 X35.50625 Y-1.85208 I18.15 J-31.43672
G1 F300.0 X37.90625
G2 F800.0 X-20.14375 Y-35.36727 I-38.7 J0.0
G2 Y31.6631 I19.35 J33.51518
G2 X37.90625 Y-1.85208 I19.35 J-33.51518
G1 F300.0 X40.30625
G2 F800.0 X-21.34375 Y-37.44573 I-41.1 J0.0
G2 Y33.74156 I20.55 J35.59364
G2 X40.30625 Y-1.85208 I20.55 J-35.59364
G1 F300.0 X42.70625
G2 F800.0 X-22.54375 Y-39.52419 I-43.5 J0.0
G2 Y35.82002 I21.75 J37.67211
G2 X42.70625 Y-1.85208 I21.75 J-37.67211
G0 Z3.0
G0 X-0.49375
G0 Z-5.0
G1 F300.0 Z-9.0
G2 F800.0 X-0.94375 Y-2.11189 I-0.3 J0.0
G2 Y-1.59228 I0.15 J0.25981
G2 X-0.49375 Y-1.85208 I0.15 J-0.25981
G1 F300.0 X1.90625
G2 F800.0 X-2.14375 Y-4.19035 I-2.7 J0.0
G2 Y0.48619 I1.35 J2.33827
G2 X1.90625 Y-1.85208 I1.35 J-2.33827
G1 F300.0 X4.30625
G2 F800.0 X-3.34375 Y-6.26881 I-5.1 J0.0
G2 Y2.56465 I2.55 J4.41673
G2 X4.30625 Y-1.85208 I2.55 J-4.41673
G1 F300.0 X6.70625
G2 F800.0 X-4.54375 Y-8.34727 I-7.5 J0.0
G2 Y4.64311 I3.75 J6.49519
G2 X6.70625 Y-1.85208 I3.75 J-6.49519
G1 F300.0 X9.10625
G2 F800.0 X-5.74375 Y-10.42573 I-9.9 J0.0
G2 Y6.72157 I4.95 J8.57365
G2 X9.10625 Y-1.85208 I4.95 J-8.57365
G1 F300.0 X11.50625
G2 F800.0 X-6.94375 Y-12.5042 I-12.3 J0.0
G2 Y8.80003 I6.15 J10.65211
G2 X11.50625 Y-1.85208 I6.15 J-10.65211
G1 F300.0 X13.90625
G2 F800.0 X-8.14375 Y-14.58266 I-14.7 J0.0
G2 Y10.87849 I7.35 J12.73057
G2 X13.90625 Y-1.85208 I7.35 J-12.73057
G1 F300.0 X16.30625
G2 F800.0 X-9.34375 Y-16.66112 I-17.1 J0.0
G2 Y12.95695 I8.55 J14.80903
G2 X16.30625 Y-1.85208 I8.55 J-14.80903
G1 F300.0 X18.70625
G2 F800.0 X-10.54375 Y-18.73958 I-19.5 J0.0
G2 Y15.03541 I9.75 J16.8875
G2 X18.70625 Y-1.85208 I9.75 J-16.8875
G1 F300.0 X21.10625
G2 F800.0 X-11.74375 Y-20.81804 I-21.9 J0.0
G2 Y17.11387 I10.95 J18.96596
G2 X21.10625 Y-1.85208 I10.95 J-18.96596
G1 F300.0 X23.50625
G2 F800.0 X-12.94375 Y-22.8965 I-24.3 J0.0
G2 Y19.19233 I12.15 J21.04442
G2 X23.50625 Y-1.85208 I12.15 J-21.04442
G1 F300.0 X25.90625
G2 F800.0 X-14.14375 Y-24.97496 I-26.7 J0.0
G2 Y21.27079 I13.35 J23.12288
G2 X25.90625 Y-1.85208 I13.35 J-23.12288
G1 F300.0 X28.30625
G2 F800.0 X-15.34375 Y-27.05342 I-29.1 J0.0
G2 Y23.34926 I14.55 J25.20134
G2 X28.30625 Y-1.85208 I14.55 J-25.20134
G1 F300.0 X30.70625
G2 F800.0 X-16.54375 Y-29.13188 I-31.5 J0.0
G2 Y25.42772 I15.75 J27.2798
G2 X30.70625 Y-1.85208 I15.75 J-27.2798
G1 F300.0 X33.10625
G2 F800.0 X-17.74375 Y-31.21034 I-33.9 J0.0
G2 Y27.50618 I16.95 J29.35826
G2 X33.10625 Y-1.85208 I16.95 J-29.35826
G1 F300.0 X35.50625
G2 F800.0 X-18.94375 Y-33.28881 I-36.3 J0.0
G2 Y29.58464 I18.15 J31.43672
G2 X35.50625 Y-1.85208 I18.15 J-31.43672
G1 F300.0 X37.90625
G2 F800.0 X-20.14375 Y-35.36727 I-38.7 J0.0
G2 Y31.6631 I19.35 J33.51518
G2 X37.90625 Y-1.85208 I19.35 J-33.51518
G1 F300.0 X40.30625
G2 F800.0 X-21.34375 Y-37.44573 I-41.1 J0.0
G2 Y33.74156 I20.55 J35.59364
G2 X40.30625 Y-1.85208 I20.55 J-35.59364
G1 F300.0 X42.70625
G2 F800.0 X-22.54375 Y-39.52419 I-43.5 J0.0
G2 Y35.82002 I21.75 J37.67211
G2 X42.70625 Y-1.85208 I21.75 J-37.67211
G0 Z3.0
G0 X-0.49375
G0 Z-8.0
G1 F300.0 Z-12.0
G2 F800.0 X-0.94375 Y-2.11189 I-0.3 J0.0
G2 Y-1.59228 I0.15 J0.25981
G2 X-0.49375 Y-1.85208 I0.15 J-0.25981
G1 F300.0 X1.90625
G2 F800.0 X-2.14375 Y-4.19035 I-2.7 J0.0
G2 Y0.48619 I1.35 J2.33827
G2 X1.90625 Y-1.85208 I1.35 J-2.33827
G1 F300.0 X4.30625
G2 F800.0 X-3.34375 Y-6.26881 I-5.1 J0.0
G2 Y2.56465 I2.55 J4.41673
G2 X4.30625 Y-1.85208 I2.55 J-4.41673
G1 F300.0 X6.70625
G2 F800.0 X-4.54375 Y-8.34727 I-7.5 J0.0
G2 Y4.64311 I3.75 J6.49519
G2 X6.70625 Y-1.85208 I3.75 J-6.49519
G1 F300.0 X9.10625
G2 F800.0 X-5.74375 Y-10.42573 I-9.9 J0.0
G2 Y6.72157 I4.95 J8.57365
G2 X9.10625 Y-1.85208 I4.95 J-8.57365
G1 F300.0 X11.50625
G2 F800.0 X-6.94375 Y-12.5042 I-12.3 J0.0
G2 Y8.80003 I6.15 J10.65211
G2 X11.50625 Y-1.85208 I6.15 J-10.65211
G1 F300.0 X13.90625
G2 F800.0 X-8.14375 Y-14.58266 I-14.7 J0.0
G2 Y10.87849 I7.35 J12.73057
G2 X13.90625 Y-1.85208 I7.35 J-12.73057
G1 F300.0 X16.30625
G2 F800.0 X-9.34375 Y-16.66112 I-17.1 J0.0
G2 Y12.95695 I8.55 J14.80903
G2 X16.30625 Y-1.85208 I8.55 J-14.80903
G1 F300.0 X18.70625
G2 F800.0 X-10.54375 Y-18.73958 I-19.5 J0.0
G2 Y15.03541 I9.75 J16.8875
G2 X18.70625 Y-1.85208 I9.75 J-16.8875
G1 F300.0 X21.10625
G2 F800.0 X-11.74375 Y-20.81804 I-21.9 J0.0
G2 Y17.11387 I10.95 J18.96596
G2 X21.10625 Y-1.85208 I10.95 J-18.96596
G1 F300.0 X23.50625
G2 F800.0 X-12.94375 Y-22.8965 I-24.3 J0.0
G2 Y19.19233 I12.15 J21.04442
G2 X23.50625 Y-1.85208 I12.15 J-21.04442
G1 F300.0 X25.90625
G2 F800.0 X-14.14375 Y-24.97496 I-26.7 J0.0
G2 Y21.27079 I13.35 J23.12288
G2 X25.90625 Y-1.85208 I13.35 J-23.12288
G1 F300.0 X28.30625
G2 F800.0 X-15.34375 Y-27.05342 I-29.1 J0.0
G2 Y23.34926 I14.55 J25.20134
G2 X28.30625 Y-1.85208 I14.55 J-25.20134
G1 F300.0 X30.70625
G2 F800.0 X-16.54375 Y-29.13188 I-31.5 J0.0
G2 Y25.42772 I15.75 J27.2798
G2 X30.70625 Y-1.85208 I15.75 J-27.2798
G1 F300.0 X33.10625
G2 F800.0 X-17.74375 Y-31.21034 I-33.9 J0.0
G2 Y27.50618 I16.95 J29.35826
G2 X33.10625 Y-1.85208 I16.95 J-29.35826
G1 F300.0 X35.50625
G2 F800.0 X-18.94375 Y-33.28881 I-36.3 J0.0
G2 Y29.58464 I18.15 J31.43672
G2 X35.50625 Y-1.85208 I18.15 J-31.43672
G1 F300.0 X37.90625
G2 F800.0 X-20.14375 Y-35.36727 I-38.7 J0.0
G2 Y31.6631 I19.35 J33.51518
G2 X37.90625 Y-1.85208 I19.35 J-33.51518
G1 F300.0 X40.30625
G2 F800.0 X-21.34375 Y-37.44573 I-41.1 J0.0
G2 Y33.74156 I20.55 J35.59364
G2 X40.30625 Y-1.85208 I20.55 J-35.59364
G1 F300.0 X42.70625
G2 F800.0 X-22.54375 Y-39.52419 I-43.5 J0.0
G2 Y35.82002 I21.75 J37.67211
G2 X42.70625 Y-1.85208 I21.75 J-37.67211
G0 Z3.0
G0 X-0.49375
G0 Z-11.0
G1 F300.0 Z-14.0
G2 F800.0 X-0.94375 Y-2.11189 I-0.3 J0.0
G2 Y-1.59228 I0.15 J0.25981
G2 X-0.49375 Y-1.85208 I0.15 J-0.25981
G1 F300.0 X1.90625
G2 F800.0 X-2.14375 Y-4.19035 I-2.7 J0.0
G2 Y0.48619 I1.35 J2.33827
G2 X1.90625 Y-1.85208 I1.35 J-2.33827
G1 F300.0 X4.30625
G2 F800.0 X-3.34375 Y-6.26881 I-5.1 J0.0
G2 Y2.56465 I2.55 J4.41673
G2 X4.30625 Y-1.85208 I2.55 J-4.41673
G1 F300.0 X6.70625
G2 F800.0 X-4.54375 Y-8.34727 I-7.5 J0.0
G2 Y4.64311 I3.75 J6.49519
G2 X6.70625 Y-1.85208 I3.75 J-6.49519
G1 F300.0 X9.10625
G2 F800.0 X-5.74375 Y-10.42573 I-9.9 J0.0
G2 Y6.72157 I4.95 J8.57365
G2 X9.10625 Y-1.85208 I4.95 J-8.57365
G1 F300.0 X11.50625
G2 F800.0 X-6.94375 Y-12.5042 I-12.3 J0.0
G2 Y8.80003 I6.15 J10.65211
G2 X11.50625 Y-1.85208 I6.15 J-10.65211
G1 F300.0 X13.90625
G2 F800.0 X-8.14375 Y-14.58266 I-14.7 J0.0
G2 Y10.87849 I7.35 J12.73057
G2 X13.90625 Y-1.85208 I7.35 J-12.73057
G1 F300.0 X16.30625
G2 F800.0 X-9.34375 Y-16.66112 I-17.1 J0.0
G2 Y12.95695 I8.55 J14.80903
G2 X16.30625 Y-1.85208 I8.55 J-14.80903
G1 F300.0 X18.70625
G2 F800.0 X-10.54375 Y-18.73958 I-19.5 J0.0
G2 Y15.03541 I9.75 J16.8875
G2 X18.70625 Y-1.85208 I9.75 J-16.8875
G1 F300.0 X21.10625
G2 F800.0 X-11.74375 Y-20.81804 I-21.9 J0.0
G2 Y17.11387 I10.95 J18.96596
G2 X21.10625 Y-1.85208 I10.95 J-18.96596
G1 F300.0 X23.50625
G2 F800.0 X-12.94375 Y-22.8965 I-24.3 J0.0
G2 Y19.19233 I12.15 J21.04442
G2 X23.50625 Y-1.85208 I12.15 J-21.04442
G1 F300.0 X25.90625
G2 F800.0 X-14.14375 Y-24.97496 I-26.7 J0.0
G2 Y21.27079 I13.35 J23.12288
G2 X25.90625 Y-1.85208 I13.35 J-23.12288
G1 F300.0 X28.30625
G2 F800.0 X-15.34375 Y-27.05342 I-29.1 J0.0
G2 Y23.34926 I14.55 J25.20134
G2 X28.30625 Y-1.85208 I14.55 J-25.20134
G1 F300.0 X30.70625
G2 F800.0 X-16.54375 Y-29.13188 I-31.5 J0.0
G2 Y25.42772 I15.75 J27.2798
G2 X30.70625 Y-1.85208 I15.75 J-27.2798
G1 F300.0 X33.10625
G2 F800.0 X-17.74375 Y-31.21034 I-33.9 J0.0
G2 Y27.50618 I16.95 J29.35826
G2 X33.10625 Y-1.85208 I16.95 J-29.35826
G1 F300.0 X35.50625
G2 F800.0 X-18.94375 Y-33.28881 I-36.3 J0.0
G2 Y29.58464 I18.15 J31.43672
G2 X35.50625 Y-1.85208 I18.15 J-31.43672
G1 F300.0 X37.90625
G2 F800.0 X-20.14375 Y-35.36727 I-38.7 J0.0
G2 Y31.6631 I19.35 J33.51518
G2 X37.90625 Y-1.85208 I19.35 J-33.51518
G1 F300.0 X40.30625
G2 F800.0 X-21.34375 Y-37.44573 I-41.1 J0.0
G2 Y33.74156 I20.55 J35.59364
G2 X40.30625 Y-1.85208 I20.55 J-35.59364
G1 F300.0 X42.70625
G2 F800.0 X-22.54375 Y-39.52419 I-43.5 J0.0
G2 Y35.82002 I21.75 J37.67211
G2 X42.70625 Y-1.85208 I21.75 J-37.67211
G0 Z3.0
M5
M30
