; generated by PrusaSlicer 2.4.2+win64 on 2022-09-03 at 12:26:38 UTC

; 

; external perimeters extrusion width = 0.45mm
; perimeters extrusion width = 0.45mm
; infill extrusion width = 0.45mm
; solid infill extrusion width = 0.45mm
; top infill extrusion width = 0.40mm
; first layer extrusion width = 0.42mm

M73 P0 R38
M107
;TYPE:Custom
M862.3 P "MK2S" ; printer model check
M862.1 P0.4 ; nozzle diameter check
M115 U3.2.3 ; tell printer latest fw version
G90 ; use absolute coordinates
M83 ; extruder relative mode
M204 S2000 T1500 ; MK2 firmware only supports the old M204 format
M104 S215 ; set extruder temp
M140 S60 ; set bed temp
M190 S60 ; wait for bed temp
M109 S215 ; wait for extruder temp
G28 W ; home all without mesh bed level
G80 ; mesh bed leveling
G1 Y-3.0 F1000.0 ; go outside print area
G92 E0.0
G1 X60.0 E9.0  F1000.0 ; intro line
G1 X100.0 E12.5 F1000.0 ; intro line
G92 E0.0
G21 ; set units to millimeters
G90 ; use absolute coordinates
M83 ; use relative distances for extrusion
M900 K0.05 ; Filament gcode LA 1.5
M900 K30 ; Filament gcode LA 1.0
M107
;LAYER_CHANGE
;Z:0.2
;HEIGHT:0.2
;BEFORE_LAYER_CHANGE
G92 E0.0
;0.2


G1 E-.8 F2100
G1 Z.4 F10800
;AFTER_LAYER_CHANGE
;0.2
G1 X98.339 Y72.646
G1 Z.2
G1 E.8 F2100
M204 S1000
;TYPE:Skirt/Brim
;WIDTH:0.42
G1 F1200
G1 X99.071 Y71.765 E.03593
G1 X100.225 Y70.759 E.048
G1 X101.197 Y70.152 E.03592
G1 X102.608 Y69.56 E.048
G1 X103.722 Y69.29 E.03593
G1 X105.45 Y69.175 E.05431
G1 X159.283 Y72.483 E1.69107
G1 X160.889 Y72.891 E.05196
G1 X183.961 Y81.288 E.76982
G1 X184.827 Y81.722 E.03038
G1 X185.43 Y82.188 E.0239
G1 X186.143 Y83.038 E.03477
G1 X186.577 Y83.904 E.03038
G1 X195.241 Y107.858 E.79869
G1 X207.007 Y158.22 E1.62158
G1 X207.086 Y160.002 E.05591
G1 X206.786 Y161.759 E.05591
G1 X206.497 Y162.604 E.02799
G1 X205.998 Y163.635 E.03592
G1 X204.953 Y165.08 E.05591
G1 X203.626 Y166.272 E.05591
G1 X202.308 Y167.05 E.048
G1 X200.624 Y167.636 E.0559
G1 X199.493 Y167.819 E.03593
G1 X173.649 Y167.856 E.81031
G1 X111.753 Y161.541 E1.95078
G1 X110.314 Y160.857 E.04996
M73 P0 R37
G1 X100.314 Y150.857 E.44342
G1 X99.622 Y149.322 E.05279
G1 X96.759 Y102.769 E1.46239
G1 X96.754 Y77.545 E.79088
M73 P1 R37
G1 X96.819 Y76.528 E.03196
G1 X96.974 Y75.649 E.02799
G1 X97.561 Y73.965 E.05591
G1 X98.308 Y72.698 E.04612
; printing object Spiegelecken.stl id:0 copy 3
;WIPE_START
G1 F8640
G1 X99.071 Y71.765 E-.27825
G1 X100.225 Y70.759 E-.3535
G1 X100.696 Y70.465 E-.12825
;WIPE_END
G1 E-.04 F2100
G1 Z.6 F10800
G1 X196.931 Y158.062
G1 Z.2
G1 E.8 F2100
;TYPE:Perimeter
G1 F1200
G1 X197.244 Y157.732 E.01425
G1 X197.654 Y157.454 E.01554
G1 X198.114 Y157.271 E.01554
G1 X198.603 Y157.191 E.01554
G1 X199.098 Y157.218 E.01554
G1 X199.576 Y157.35 E.01554
G1 X200.013 Y157.582 E.01554
G1 X200.391 Y157.903 E.01554
G1 X200.691 Y158.298 E.01554
G1 X200.899 Y158.747 E.01554
G1 X201.006 Y159.231 E.01554
G1 X201.006 Y159.727 E.01554
G1 X200.899 Y160.211 E.01554
G1 X200.691 Y160.661 E.01554
G1 X200.391 Y161.055 E.01554
G1 X200.013 Y161.376 E.01554
G1 X199.576 Y161.608 E.01554
G1 X199.098 Y161.741 E.01554
G1 X198.603 Y161.767 E.01554
G1 X198.114 Y161.687 E.01554
G1 X197.654 Y161.504 E.01554
G1 X197.244 Y161.226 E.01554
G1 X196.903 Y160.866 E.01554
G1 X196.647 Y160.441 E.01554
G1 X196.489 Y159.972 E.01554
G1 X196.436 Y159.479 E.01554
G1 X196.489 Y158.986 E.01554
G1 X196.647 Y158.517 E.01554
G1 X196.893 Y158.108 E.01494
G1 X197.205 Y158.322 F10800
;TYPE:External perimeter
G1 F1200
G1 X197.489 Y158.022 E.01297
G1 X197.832 Y157.789 E.01297
G1 X198.216 Y157.636 E.01297
G1 X198.624 Y157.569 E.01297
G1 X199.037 Y157.592 E.01297
G1 X199.435 Y157.702 E.01297
G1 X199.801 Y157.896 E.01297
G1 X200.116 Y158.164 E.01297
G1 X200.366 Y158.493 E.01297
G1 X200.54 Y158.868 E.01297
G1 X200.629 Y159.272 E.01297
G1 X200.629 Y159.686 E.01297
G1 X200.54 Y160.09 E.01297
G1 X200.366 Y160.465 E.01297
G1 X200.116 Y160.794 E.01297
G1 X199.801 Y161.062 E.01297
G1 X199.435 Y161.256 E.01297
G1 X199.037 Y161.366 E.01297
G1 X198.624 Y161.389 E.01297
G1 X198.216 Y161.322 E.01297
G1 X197.832 Y161.169 E.01297
G1 X197.489 Y160.937 E.01297
G1 X197.205 Y160.636 E.01297
G1 X196.992 Y160.282 E.01297
G1 X196.86 Y159.89 E.01297
G1 X196.815 Y159.479 E.01297
G1 X196.86 Y159.068 E.01297
G1 X196.992 Y158.676 E.01297
G1 X197.174 Y158.373 E.01109
G1 X197.05 Y157.953 F10800
;WIPE_START
G1 F8640
G1 X197.489 Y158.022 E-.10906
G1 X197.832 Y157.789 E-.09548
G1 X198.216 Y157.636 E-.09548
G1 X198.624 Y157.569 E-.09549
G1 X199.037 Y157.592 E-.09548
G1 X199.435 Y157.702 E-.09549
G1 X199.801 Y157.896 E-.09549
G1 X200.058 Y158.115 E-.07802
;WIPE_END
G1 E-.04 F2100
G1 Z.6 F10800
G1 X171.338 Y131.944
G1 Z.2
G1 E.8 F2100
;TYPE:Perimeter
G1 F1200
G1 X170.935 Y132.298 E.0168
G1 X170.497 Y132.53 E.01554
G1 X170.02 Y132.662 E.01554
G1 X169.525 Y132.689 E.01554
G1 X169.036 Y132.609 E.01554
G1 X168.576 Y132.426 E.01554
G1 X168.166 Y132.148 E.01554
G1 X167.825 Y131.788 E.01554
G1 X167.569 Y131.363 E.01554
G1 X167.411 Y130.894 E.01554
G1 X167.358 Y130.401 E.01554
G1 X167.411 Y129.908 E.01554
G1 X167.569 Y129.439 E.01554
G1 X167.825 Y129.014 E.01554
G1 X168.166 Y128.654 E.01554
G1 X168.576 Y128.376 E.01554
G1 X169.036 Y128.193 E.01554
G1 X169.525 Y128.113 E.01554
G1 X170.02 Y128.139 E.01554
G1 X170.497 Y128.272 E.01554
G1 X170.935 Y128.504 E.01554
G1 X171.313 Y128.825 E.01554
G1 X171.613 Y129.219 E.01554
G1 X171.821 Y129.669 E.01554
G1 X171.928 Y130.153 E.01554
G1 X171.928 Y130.649 E.01554
G1 X171.821 Y131.133 E.01554
G1 X171.613 Y131.582 E.01554
G1 X171.374 Y131.897 E.01237
G1 X171.038 Y131.716 F10800
;TYPE:External perimeter
G1 F1200
G1 X170.722 Y131.984 E.01297
G1 X170.357 Y132.178 E.01297
G1 X169.959 Y132.288 E.01297
G1 X169.546 Y132.311 E.01297
G1 X169.138 Y132.244 E.01297
G1 X168.753 Y132.091 E.01297
G1 X168.411 Y131.859 E.01297
G1 X168.127 Y131.558 E.01297
G1 X167.914 Y131.204 E.01297
G1 X167.782 Y130.812 E.01297
G1 X167.737 Y130.401 E.01297
G1 X167.782 Y129.99 E.01297
G1 X167.914 Y129.598 E.01297
G1 X168.127 Y129.244 E.01297
G1 X168.411 Y128.943 E.01297
G1 X168.753 Y128.711 E.01297
G1 X169.138 Y128.558 E.01297
G1 X169.546 Y128.491 E.01297
G1 X169.959 Y128.514 E.01297
G1 X170.357 Y128.624 E.01297
G1 X170.722 Y128.818 E.01297
G1 X171.038 Y129.086 E.01297
G1 X171.288 Y129.415 E.01297
G1 X171.462 Y129.79 E.01297
G1 X171.55 Y130.194 E.01297
G1 X171.55 Y130.608 E.01297
G1 X171.462 Y131.012 E.01297
G1 X171.288 Y131.387 E.01297
G1 X171.074 Y131.668 E.01109
G1 X171.152 Y132.1 F10800
;WIPE_START
G1 F8640
G1 X170.722 Y131.984 E-.10905
G1 X170.357 Y132.178 E-.09549
G1 X169.959 Y132.288 E-.09548
G1 X169.546 Y132.311 E-.09549
G1 X169.138 Y132.244 E-.09549
G1 X168.753 Y132.091 E-.09548
G1 X168.411 Y131.859 E-.09549
G1 X168.179 Y131.613 E-.07803
;WIPE_END
G1 E-.04 F2100
G1 Z.6 F10800
G1 X173.975 Y164.692
G1 Z.2
G1 E.8 F2100
;TYPE:Perimeter
G1 F1200
G1 X164.436 Y155.153 E.42297
G1 X164.436 Y130.422 E.77543
G1 X164.467 Y129.846 E.01808
G1 X164.556 Y129.298 E.01742
G1 X164.702 Y128.762 E.01742
G1 X164.905 Y128.244 E.01742
G1 X165.161 Y127.751 E.01742
G1 X165.469 Y127.289 E.01742
G1 X165.824 Y126.861 E.01742
G1 X166.222 Y126.474 E.01742
G1 X166.66 Y126.132 E.01742
G1 X167.131 Y125.838 E.01742
G1 X167.631 Y125.596 E.01742
G1 X168.154 Y125.408 E.01742
G1 X168.694 Y125.277 E.01742
G1 X169.245 Y125.205 E.01742
G1 X169.801 Y125.191 E.01742
G1 X170.355 Y125.237 E.01742
G1 X170.9 Y125.341 E.01742
G1 X171.452 Y125.51 E.01808
G1 X194.471 Y133.888 E.76808
G1 X194.694 Y133.992 E.00769
G1 X194.867 Y134.113 E.00661
G1 X195.016 Y134.262 E.00661
G1 X195.137 Y134.435 E.00661
G1 X195.24 Y134.657 E.00769
G1 X203.619 Y157.676 E.76808
G1 X203.787 Y158.228 E.01808
G1 X203.891 Y158.774 E.01742
G1 X203.937 Y159.328 E.01742
G1 X203.925 Y159.842 E.01615
G1 X203.851 Y160.436 E.01875
G1 X203.72 Y160.974 E.01736
G1 X203.533 Y161.497 E.01742
G1 X203.291 Y161.997 E.01742
G1 X202.997 Y162.468 E.01742
G1 X202.654 Y162.906 E.01742
G1 X202.267 Y163.304 E.01742
G1 X201.84 Y163.66 E.01742
G1 X201.377 Y163.967 E.01742
G1 X200.884 Y164.224 E.01742
G1 X200.367 Y164.426 E.01742
G1 X199.831 Y164.573 E.01742
G1 X199.282 Y164.661 E.01742
G1 X198.706 Y164.692 E.01808
G1 X174.035 Y164.692 E.77355
G1 X173.819 Y165.069 F10800
;TYPE:External perimeter
G1 F1200
G1 X164.059 Y155.309 E.43277
G1 X164.059 Y130.412 E.78064
G1 X164.092 Y129.806 E.01903
G1 X164.187 Y129.218 E.01868
G1 X164.344 Y128.643 E.01868
G1 X164.561 Y128.088 E.01868
G1 X164.836 Y127.559 E.01868
G1 X165.166 Y127.063 E.01868
G1 X165.547 Y126.605 E.01868
G1 X165.974 Y126.19 E.01868
G1 X166.443 Y125.822 E.01868
G1 X166.949 Y125.507 E.01868
G1 X167.485 Y125.247 E.01868
G1 X168.046 Y125.046 E.01868
G1 X168.625 Y124.906 E.01868
G1 X169.216 Y124.828 E.01868
G1 X169.812 Y124.814 E.01868
G1 X170.406 Y124.863 E.01868
G1 X170.991 Y124.975 E.01868
G1 X171.571 Y125.152 E.01903
G1 X194.616 Y133.539 E.76891
G1 X194.883 Y133.664 E.00925
G1 X195.11 Y133.823 E.00868
G1 X195.306 Y134.018 E.00868
G1 X195.464 Y134.245 E.00868
G1 X195.589 Y134.513 E.00924
G1 X203.977 Y157.557 E.76891
G1 X204.153 Y158.137 E.01903
G1 X204.265 Y158.723 E.01868
G1 X204.314 Y159.317 E.01868
G1 X204.301 Y159.87 E.01737
G1 X204.222 Y160.504 E.02001
G1 X204.082 Y161.082 E.01866
G1 X203.881 Y161.643 E.01868
G1 X203.621 Y162.179 E.01868
G1 X203.306 Y162.685 E.01868
G1 X202.939 Y163.154 E.01868
G1 X202.523 Y163.582 E.01868
G1 X202.065 Y163.962 E.01868
G1 X201.569 Y164.292 E.01868
G1 X201.04 Y164.567 E.01868
G1 X200.486 Y164.785 E.01868
G1 X199.911 Y164.942 E.01868
G1 X199.322 Y165.037 E.01868
G1 X198.716 Y165.069 E.01903
G1 X173.879 Y165.069 E.77876
G1 X173.819 Y164.669 F10800
;WIPE_START
G1 F8640
G1 X171.545 Y162.749 E-.76
;WIPE_END
G1 E-.04 F2100
G1 Z.6 F10800
G1 X194.3 Y133.946
G1 Z.2
G1 E.8 F2100
;TYPE:Solid infill
;WIDTH:0.420073
G1 F1200
G1 X194.798 Y134.445 E.02212
G1 X194.891 Y134.576 E.00505
G1 X194.979 Y134.765 E.00653
G1 X195.204 Y135.383 E.02063
G1 X193.745 Y133.925 E.0647
G1 X192.906 Y133.619 E.02799
G1 X195.509 Y136.222 E.11543
G1 X195.814 Y137.061 E.02799
G1 X192.068 Y133.314 E.16616
G1 X191.229 Y133.009 E.02799
G1 X196.119 Y137.899 E.21688
G1 X196.425 Y138.738 E.02799
G1 X190.391 Y132.704 E.26761
G1 X189.552 Y132.398 E.02799
M73 P2 R37
G1 X196.73 Y139.576 E.31834
G1 X197.035 Y140.415 E.02799
G1 X188.713 Y132.093 E.36907
G1 X187.875 Y131.788 E.02799
G1 X197.34 Y141.254 E.4198
G1 X197.646 Y142.092 E.02799
G1 X187.036 Y131.483 E.47053
G1 X186.198 Y131.178 E.02799
G1 X197.951 Y142.931 E.52126
G1 X198.256 Y143.769 E.02799
G1 X185.359 Y130.872 E.57199
G1 X184.52 Y130.567 E.02799
G1 X198.561 Y144.608 E.62272
G1 X198.866 Y145.447 E.02799
G1 X183.682 Y130.262 E.67345
G1 X182.843 Y129.957 E.02799
G1 X199.172 Y146.285 E.72417
G1 X199.477 Y147.124 E.02799
G1 X182.005 Y129.651 E.7749
G1 X181.166 Y129.346 E.02799
G1 X199.782 Y147.962 E.82563
G1 X200.087 Y148.801 E.02799
G1 X180.327 Y129.041 E.87636
G1 X179.489 Y128.736 E.02799
G1 X200.393 Y149.64 E.92709
G1 X200.698 Y150.478 E.02799
G1 X178.65 Y128.43 E.97782
G1 X177.812 Y128.125 E.02799
G1 X201.003 Y151.317 E1.02855
G1 X201.308 Y152.155 E.02799
G1 X176.973 Y127.82 E1.07928
G1 X176.134 Y127.515 E.02799
G1 X201.614 Y152.994 E1.13001
G1 X201.919 Y153.833 E.02799
G1 X175.296 Y127.21 E1.18074
G1 X174.457 Y126.904 E.02799
G1 X202.224 Y154.671 E1.23147
G1 X202.529 Y155.51 E.02799
M73 P3 R37
G1 X173.619 Y126.599 E1.28219
G1 X172.78 Y126.294 E.02799
G1 X202.834 Y156.348 E1.33292
G1 X203.14 Y157.187 E.02799
G1 X171.941 Y125.989 E1.38365
G1 X171.125 Y125.706 E.0271
G1 X203.423 Y158.003 E1.43242
G1 X203.512 Y158.296 E.00959
M73 P3 R36
G1 X203.59 Y158.704 E.01303
G1 X170.424 Y125.538 E1.47091
G1 X169.83 Y125.478 E.01873
G1 X203.651 Y159.298 E1.49996
G1 X203.642 Y159.823 E.01645
G1 X169.305 Y125.486 E1.52284
G1 X168.83 Y125.545 E.01501
G1 X203.583 Y160.297 E1.54128
G1 X203.487 Y160.735 E.01405
G1 X168.394 Y125.641 E1.55641
G1 X167.987 Y125.768 E.01335
G1 X170.082 Y127.863 E.09291
G1 X169.514 Y127.829 E.01784
G1 X167.607 Y125.922 E.08459
G1 X167.25 Y126.097 E.0125
M73 P4 R36
G1 X169.055 Y127.903 E.08009
G1 X168.96 Y127.919 E.00303
G1 X168.658 Y128.039 E.0102
G1 X166.921 Y126.302 E.07703
G1 X166.613 Y126.527 E.01197
G1 X168.304 Y128.219 E.075
G1 X167.986 Y128.434 E.01204
G1 X166.323 Y126.771 E.07377
G1 X166.052 Y127.034 E.01183
G1 X167.726 Y128.707 E.07423
G1 X167.598 Y128.842 E.00582
G1 X167.497 Y129.011 E.00619
G1 X165.808 Y127.323 E.07488
G1 X165.582 Y127.63 E.01196
G1 X167.301 Y129.349 E.07626
G1 X167.167 Y129.748 E.0132
G1 X165.374 Y127.955 E.07951
G1 X165.191 Y128.306 E.0124
G1 X167.094 Y130.209 E.08438
G1 X167.073 Y130.401 E.00607
G1 X167.112 Y130.76 E.01133
G1 X164.905 Y128.553 E.09788
;WIPE_START
G1 F8640
G1 X167.112 Y130.76 E-.72069
G1 X167.094 Y130.591 E-.03931
;WIPE_END
G1 E-.04 F2100
G1 Z.6 F10800
G1 X171.951 Y129.731
G1 Z.2
G1 E.8 F2100
G1 F1200
G1 X199.16 Y156.941 E1.20677
G1 X198.593 Y156.907 E.01784
G1 X172.21 Y130.525 E1.17006
G1 X172.21 Y130.679 E.00486
G1 X172.142 Y130.99 E.00996
G1 X198.134 Y156.981 E1.15273
G1 X198.038 Y156.997 E.00303
G1 X197.736 Y157.117 E.0102
G1 X172.012 Y131.393 E1.14087
G1 X171.839 Y131.753 E.01253
G1 X197.382 Y157.297 E1.13288
G1 X197.064 Y157.512 E.01204
G1 X171.608 Y132.056 E1.129
G1 X171.52 Y132.173 E.00459
G1 X171.342 Y132.323 E.0073
G1 X196.804 Y157.785 E1.12925
G1 X196.677 Y157.92 E.00582
G1 X196.575 Y158.089 E.00619
G1 X171.045 Y132.56 E1.13225
G1 X170.697 Y132.744 E.01237
G1 X196.379 Y158.427 E1.13904
G1 X196.245 Y158.826 E.0132
G1 X170.298 Y132.879 E1.15077
G1 X170.066 Y132.943 E.00754
G1 X169.841 Y132.955 E.00708
G1 X196.172 Y159.287 E1.16781
G1 X196.151 Y159.479 E.00607
G1 X196.19 Y159.838 E.01133
G1 X169.083 Y132.731 E1.2022
;WIPE_START
G1 F8640
M73 P5 R36
G1 X171.411 Y135.059 E-.76
;WIPE_END
G1 E-.04 F2100
G1 Z.6 F10800
G1 X201.029 Y158.81
G1 Z.2
G1 E.8 F2100
G1 F1200
G1 X203.36 Y161.141 E.10339
G1 X203.207 Y161.521 E.01286
G1 X201.288 Y159.603 E.08508
G1 X201.288 Y159.758 E.00486
G1 X201.22 Y160.068 E.00996
G1 X203.031 Y161.879 E.08031
G1 X202.826 Y162.207 E.01214
G1 X201.09 Y160.471 E.07699
G1 X200.917 Y160.831 E.01253
G1 X202.601 Y162.515 E.07469
G1 X202.441 Y162.72 E.00814
G1 X202.358 Y162.805 E.00374
G1 X200.686 Y161.134 E.07412
G1 X200.598 Y161.251 E.00459
G1 X200.42 Y161.401 E.0073
G1 X202.095 Y163.076 E.07426
G1 X201.806 Y163.32 E.01187
G1 X200.123 Y161.638 E.07461
G1 X199.775 Y161.823 E.01237
G1 X201.499 Y163.547 E.07646
G1 X201.173 Y163.754 E.01211
G1 X199.376 Y161.957 E.07971
G1 X199.144 Y162.021 E.00754
G1 X198.919 Y162.034 E.00707
G1 X200.822 Y163.937 E.08442
G1 X200.444 Y164.092 E.01282
G1 X198.162 Y161.81 E.10124
;WIPE_START
G1 F8640
G1 X200.444 Y164.092 E-.74538
G1 X200.503 Y164.068 E-.01462
;WIPE_END
G1 E-.04 F2100
G1 Z.6 F10800
G1 X200.179 Y164.36
G1 Z.2
G1 E.8 F2100
G1 F1200
G1 X164.906 Y129.088 E1.56436
G1 X164.806 Y129.521 E.01395
G1 X199.608 Y164.322 E1.54346
G1 X199.138 Y164.386 E.01487
G1 X164.743 Y129.991 E1.52543
G1 X164.719 Y130.501 E.01601
G1 X198.628 Y164.409 E1.50386
G1 X198.094 Y164.409 E.01673
G1 X164.719 Y131.034 E1.4802
G1 X164.719 Y131.567 E.01673
G1 X197.561 Y164.409 E1.45654
G1 X197.028 Y164.409 E.01673
G1 X164.719 Y132.101 E1.43289
G1 X164.719 Y132.634 E.01673
G1 X196.494 Y164.409 E1.40923
G1 X195.961 Y164.409 E.01673
M73 P6 R35
G1 X164.719 Y133.168 E1.38558
G1 X164.719 Y133.701 E.01673
G1 X195.427 Y164.409 E1.36192
G1 X194.894 Y164.409 E.01673
G1 X164.719 Y134.234 E1.33827
G1 X164.719 Y134.768 E.01673
G1 X194.361 Y164.409 E1.31461
G1 X193.827 Y164.409 E.01673
G1 X164.719 Y135.301 E1.29096
G1 X164.719 Y135.834 E.01673
G1 X193.294 Y164.409 E1.2673
G1 X192.761 Y164.409 E.01673
G1 X164.719 Y136.368 E1.24365
G1 X164.719 Y136.901 E.01673
G1 X192.227 Y164.409 E1.21999
G1 X191.694 Y164.409 E.01673
G1 X164.719 Y137.435 E1.19634
G1 X164.719 Y137.968 E.01673
G1 X191.16 Y164.409 E1.17268
G1 X190.627 Y164.409 E.01673
G1 X164.719 Y138.501 E1.14902
G1 X164.719 Y139.035 E.01673
M73 P7 R35
G1 X190.094 Y164.409 E1.12537
G1 X189.56 Y164.409 E.01673
G1 X164.719 Y139.568 E1.10171
G1 X164.719 Y140.101 E.01673
G1 X189.027 Y164.409 E1.07806
G1 X188.494 Y164.409 E.01673
