; generated by PrusaSlicer 2.2.0+win64 on 2021-12-30 at 17:34:06 UTC

; 

; external perimeters extrusion width = 0.45mm
; perimeters extrusion width = 0.45mm
; infill extrusion width = 0.45mm
; solid infill extrusion width = 0.45mm
; top infill extrusion width = 0.40mm
; support material extrusion width = 0.35mm
; first layer extrusion width = 0.42mm

M73 P0 R84
M201 X9000 Y9000 Z500 E10000 ; sets maximum accelerations, mm/sec^2
M203 X500 Y500 Z12 E120 ; sets maximum feedrates, mm/sec
M204 P2000 R1500 T2000 ; sets acceleration (P, T) and retract acceleration (R), mm/sec^2
M205 X10.00 Y10.00 Z0.20 E2.50 ; sets the jerk limits, mm/sec
M205 S0 T0 ; sets the minimum extruding and travel feed rate, mm/sec
M107
M862.3 P "MK2S" ; printer model check
M862.1 P0.4 ; nozzle diameter check
M115 U3.2.3 ; tell printer latest fw version
G90 ; use absolute coordinates
M83 ; extruder relative mode
M204 S2000 T1500 ; MK2 firmware only supports the old M204 format
M104 S255 ; set extruder temp
M140 S100 ; set bed temp
M190 S100 ; wait for bed temp
M109 S255 ; wait for extruder temp
G28 W ; home all without mesh bed level
G80 ; mesh bed leveling
G1 Y-3.0 F1000.0 ; go outside print area
G92 E0.0
G1 X60.0 E9.0  F1000.0 ; intro line
M73 P0 R84
G1 X100.0 E12.5 F1000.0 ; intro line
G92 E0.0
G21 ; set units to millimeters
G90 ; use absolute coordinates
M83 ; use relative distances for extrusion
M900 K0.04 ; Filament gcode LA 1.5
M900 K20 ; Filament gcode LA 1.0
;BEFORE_LAYER_CHANGE
G92 E0.0
;0.2


G1 E-0.80000 F2100.00000
G1 Z0.400 F10800.000
;AFTER_LAYER_CHANGE
;0.2
G1 X98.876 Y83.882
G1 Z0.200
G1 E0.80000 F2100.00000
M204 S1000
G1 F1200.000
G1 X99.341 Y83.573 E0.01752
G1 X99.865 Y83.381 E0.01752
G1 X100.421 Y83.316 E0.01753
G1 X135.459 Y83.396 E1.09859
G1 X136.266 Y83.553 E0.02579
G1 X136.968 Y83.974 E0.02567
G1 X156.108 Y103.755 E0.86305
G1 X156.464 Y104.308 E0.02060
G1 X158.561 Y109.038 E0.16223
G1 X158.731 Y109.900 E0.02755
G1 X158.714 Y125.534 E0.49019
G1 X158.486 Y126.300 E0.02508
G1 X156.196 Y130.799 E0.15826
G1 X155.890 Y131.248 E0.01704
G1 X153.691 Y133.671 E0.10261
G1 X150.971 Y136.225 E0.11698
G1 X146.084 Y138.751 E0.17249
G1 X145.324 Y138.975 E0.02484
G1 X109.304 Y142.223 E1.13397
G1 X93.848 Y142.201 E0.48461
G1 X93.122 Y141.981 E0.02378
G1 X88.462 Y139.651 E0.16334
G1 X87.999 Y139.338 E0.01752
G1 X83.229 Y134.319 E0.21711
G1 X80.602 Y129.119 E0.18266
G1 X80.515 Y128.483 E0.02012
G1 X80.515 Y113.144 E0.48093
G1 X80.571 Y112.638 E0.01597
G1 X82.970 Y107.205 E0.18624
G1 X98.495 Y84.292 E0.86780
G1 X98.835 Y83.926 E0.01563
; printing object Coil.stl id:0 copy 0
G1 F8640.000
G1 X99.341 Y83.573 E-0.14250
G1 X99.865 Y83.381 E-0.12899
G1 X100.421 Y83.316 E-0.12907
G1 X101.977 Y83.320 E-0.35944
G1 E-0.04000 F2100.00000
G1 Z0.600 F10800.000
G1 X116.075 Y106.061
G1 Z0.200
G1 E0.80000 F2100.00000
G1 F1200.000
G1 X116.075 Y116.620 E0.33108
G1 X115.956 Y116.203 E0.01362
G1 X115.655 Y115.348 E0.02840
G1 X115.321 Y114.559 E0.02689
G1 X115.321 Y106.231 E0.26111
G1 X114.567 Y106.231 E0.02365
G1 X114.567 Y113.123 E0.21609
G1 X114.422 Y112.874 E0.00903
G1 X113.812 Y111.973 E0.03411
G1 X113.812 Y103.924 E0.25237
G1 X113.058 Y103.924 E0.02365
G1 X113.058 Y111.022 E0.22257
G1 X112.763 Y110.678 E0.01422
G1 X112.304 Y110.205 E0.02066
G1 X112.304 Y103.924 E0.19694
G1 X111.550 Y103.924 E0.02365
G1 X111.550 Y109.496 E0.17473
G1 X110.796 Y108.879 E0.03056
G1 X110.796 Y103.924 E0.15536
G1 X110.042 Y103.924 E0.02365
G1 X110.042 Y108.339 E0.13843
G1 X109.287 Y107.867 E0.02790
G1 X109.287 Y101.617 E0.19597
G1 X108.533 Y101.617 E0.02365
G1 X108.533 Y107.455 E0.18305
G1 X107.779 Y107.097 E0.02617
G1 X107.779 Y101.617 E0.17183
G1 X107.025 Y101.617 E0.02365
G1 X107.025 Y106.789 E0.16217
G1 X106.271 Y106.527 E0.02504
G1 X106.271 Y101.617 E0.15395
G1 X105.517 Y101.617 E0.02365
G1 X105.517 Y106.307 E0.14708
G1 X104.762 Y106.129 E0.02430
G1 X104.762 Y101.617 E0.14148
G1 X104.008 Y101.617 E0.02365
G1 X104.008 Y105.990 E0.13711
G1 X103.254 Y105.896 E0.02383
G1 X103.254 Y101.617 E0.13418
G1 X102.500 Y101.617 E0.02365
G1 X102.500 Y105.841 E0.13247
G1 X101.746 Y105.823 E0.02365
G1 X101.746 Y101.617 E0.13190
G1 X100.992 Y101.617 E0.02365
G1 X100.992 Y105.841 E0.13247
G1 X100.237 Y105.896 E0.02371
G1 X100.237 Y101.617 E0.13418
G1 X99.483 Y101.617 E0.02365
G1 X99.483 Y105.990 E0.13711
G1 X98.729 Y106.129 E0.02405
G1 X98.729 Y101.617 E0.14148
G1 X97.975 Y101.617 E0.02365
G1 X97.975 Y106.307 E0.14708
G1 X97.221 Y106.527 E0.02462
G1 X97.221 Y101.617 E0.15395
G1 X96.467 Y101.617 E0.02365
G1 X96.467 Y106.789 E0.16217
G1 X95.713 Y107.097 E0.02554
G1 X95.713 Y101.617 E0.17183
G1 X94.958 Y101.617 E0.02365
G1 X94.958 Y107.455 E0.18305
G1 X94.204 Y107.867 E0.02694
G1 X94.204 Y101.617 E0.19597
G1 X94.167 Y101.617 E0.00118
G1 X94.167 Y103.924 E0.07234
G1 X93.450 Y103.924 E0.02247
G1 X93.450 Y108.339 E0.13843
G1 X92.696 Y108.879 E0.02908
G1 X92.696 Y103.924 E0.15536
G1 X91.942 Y103.924 E0.02365
G1 X91.942 Y109.496 E0.17473
G1 X91.188 Y110.205 E0.03245
G1 X91.188 Y103.924 E0.19694
G1 X90.433 Y103.924 E0.02365
G1 X90.433 Y111.022 E0.22257
G1 X90.123 Y111.385 E0.01498
G1 X89.679 Y111.973 E0.02309
G1 X89.679 Y103.924 E0.25237
G1 X89.553 Y103.924 E0.00397
G1 X89.553 Y106.231 E0.07234
G1 X88.925 Y106.231 E0.01967
G1 X88.925 Y113.123 E0.21609
G1 X88.604 Y113.680 E0.02017
G1 X88.171 Y114.559 E0.03071
G1 X88.171 Y106.231 E0.26111
G1 X87.417 Y106.231 E0.02365
G1 X87.417 Y116.620 E0.32576
G1 X87.281 Y117.099 E0.01558
G1 X87.087 Y117.983 E0.02840
G1 X86.946 Y118.891 E0.02880
G1 X86.861 Y119.805 E0.02880
G1 X86.832 Y120.724 E0.02880
G1 X86.860 Y121.642 E0.02880
G1 X86.946 Y122.569 E0.02920
G1 X87.087 Y123.477 E0.02880
G1 X87.281 Y124.361 E0.02840
G1 X87.417 Y124.840 E0.01558
G1 X87.417 Y135.231 E0.32583
G1 X88.171 Y135.231 E0.02365
G1 X88.171 Y126.901 E0.26119
G1 X88.604 Y127.780 E0.03071
G1 X88.925 Y128.337 E0.02017
G1 X88.925 Y135.231 E0.21617
G1 X89.553 Y135.231 E0.01967
G1 X89.553 Y137.539 E0.07234
G1 X89.679 Y137.539 E0.00397
G1 X89.679 Y129.487 E0.25245
G1 X90.123 Y130.075 E0.02309
G1 X90.433 Y130.438 E0.01498
G1 X90.433 Y137.539 E0.22264
G1 X91.188 Y137.539 E0.02365
G1 X91.188 Y131.255 E0.19702
G1 X91.942 Y131.964 E0.03245
G1 X91.942 Y137.539 E0.17480
G1 X92.696 Y137.539 E0.02365
G1 X92.696 Y132.581 E0.15543
G1 X93.450 Y133.121 E0.02908
G1 X93.450 Y137.539 E0.13851
G1 X94.167 Y137.539 E0.02247
G1 X94.167 Y139.846 E0.07234
G1 X94.204 Y139.846 E0.00118
G1 X94.204 Y133.593 E0.19604
G1 X94.958 Y134.005 E0.02694
G1 X94.958 Y139.846 E0.18313
G1 X95.713 Y139.846 E0.02365
G1 X95.713 Y134.363 E0.17191
G1 X96.467 Y134.671 E0.02554
G1 X96.467 Y139.846 E0.16225
G1 X97.221 Y139.846 E0.02365
G1 X97.221 Y134.933 E0.15402
G1 X97.975 Y135.152 E0.02462
G1 X97.975 Y139.846 E0.14715
G1 X98.729 Y139.846 E0.02365
G1 X98.729 Y135.331 E0.14156
G1 X99.483 Y135.470 E0.02405
G1 X99.483 Y139.846 E0.13718
G1 X100.237 Y139.846 E0.02365
G1 X100.237 Y135.564 E0.13426
G1 X100.992 Y135.618 E0.02371
G1 X100.992 Y139.846 E0.13254
G1 X101.746 Y139.846 E0.02365
G1 X101.746 Y135.637 E0.13197
G1 X102.500 Y135.618 E0.02365
G1 X102.500 Y139.846 E0.13254
G1 X103.254 Y139.846 E0.02365
G1 X103.254 Y135.564 E0.13426
G1 X104.008 Y135.470 E0.02383
G1 X104.008 Y139.846 E0.13718
G1 X104.762 Y139.846 E0.02365
G1 X104.762 Y135.331 E0.14156
G1 X105.517 Y135.152 E0.02430
G1 X105.517 Y139.846 E0.14715
G1 X106.271 Y139.846 E0.02365
G1 X106.271 Y134.933 E0.15402
G1 X107.025 Y134.671 E0.02504
G1 X107.025 Y139.846 E0.16225
G1 X107.779 Y139.846 E0.02365
G1 X107.779 Y134.363 E0.17191
G1 X108.533 Y134.005 E0.02617
G1 X108.533 Y139.846 E0.18312
G1 X109.287 Y139.846 E0.02365
G1 X109.287 Y133.593 E0.19604
G1 X110.042 Y133.121 E0.02790
G1 X110.042 Y137.539 E0.13851
G1 X110.796 Y137.539 E0.02365
G1 X110.796 Y132.581 E0.15543
G1 X111.550 Y131.964 E0.03056
G1 X111.550 Y137.539 E0.17480
G1 X112.304 Y137.539 E0.02365
G1 X112.304 Y131.255 E0.19702
G1 X112.763 Y130.782 E0.02066
G1 X113.058 Y130.438 E0.01422
G1 X113.058 Y137.539 E0.22264
G1 X113.812 Y137.539 E0.02365
G1 X113.812 Y129.487 E0.25245
G1 X114.422 Y128.586 E0.03411
G1 X114.567 Y128.337 E0.00903
G1 X114.567 Y135.231 E0.21617
G1 X115.321 Y135.231 E0.02365
G1 X115.321 Y126.901 E0.26119
G1 X115.655 Y126.111 E0.02689
G1 X115.956 Y125.257 E0.02840
G1 X116.075 Y124.840 E0.01362
G1 X116.075 Y135.231 E0.32583
G1 X116.246 Y135.231 E0.00537
G1 X116.246 Y132.924 E0.07234
G1 X116.829 Y132.924 E0.01828
G1 X116.829 Y108.538 E0.76462
G1 X117.583 Y108.538 E0.02365
G1 X117.583 Y132.924 E0.76462
G1 X118.337 Y132.924 E0.02365
G1 X118.337 Y108.538 E0.76462
G1 X118.553 Y108.538 E0.00677
G1 X118.553 Y113.152 E0.14467
G1 X119.091 Y113.152 E0.01688
G1 X119.091 Y128.310 E0.47527
G1 X119.846 Y128.310 E0.02365
G1 X119.846 Y113.152 E0.47527
G1 X120.600 Y113.152 E0.02365
G1 X120.600 Y128.480 E0.48059
G1 F8640.000
G1 X120.600 Y125.188 E-0.76000
G1 E-0.04000 F2100.00000
G1 Z0.600 F10800.000
G1 X86.663 Y133.094
G1 Z0.200
G1 E0.80000 F2100.00000
G1 F1200.000
G1 X86.663 Y108.538 E0.76994
G1 X85.908 Y108.538 E0.02365
G1 X85.908 Y132.924 E0.76462
G1 X85.154 Y132.924 E0.02365
G1 X85.154 Y108.538 E0.76462
G1 X84.938 Y108.538 E0.00677
G1 X84.938 Y113.152 E0.14467
G1 X84.400 Y113.152 E0.01688
G1 X84.400 Y128.310 E0.47527
G1 X83.646 Y128.310 E0.02365
G1 X83.646 Y113.152 E0.47527
G1 X82.892 Y113.152 E0.02365
G1 X82.892 Y128.480 E0.48059
G1 F8640.000
G1 X82.892 Y125.188 E-0.76000
G1 E-0.04000 F2100.00000
G1 Z0.600 F10800.000
G1 X94.897 Y124.684
G1 Z0.200
G1 E0.80000 F2100.00000
G1 F1200.000
G1 X94.897 Y116.776 E0.24798
G1 X101.746 Y112.821 E0.24798
G1 X108.595 Y116.776 E0.24798
G1 X108.595 Y124.684 E0.24798
G1 X101.746 Y128.639 E0.24798
G1 X94.949 Y124.714 E0.24609
G1 X95.274 Y124.467 F10800.000
G1 F1200.000
G1 X95.274 Y116.993 E0.23432
G1 X101.746 Y113.257 E0.23432
M73 P1 R83
G1 X108.218 Y116.993 E0.23432
G1 X108.218 Y124.467 E0.23432
G1 X101.746 Y128.203 E0.23432
G1 X95.326 Y124.497 E0.23244
G1 X94.874 Y124.467 F10800.000
G1 F8640.000
G1 X95.303 Y121.205 E-0.76000
G1 E-0.04000 F2100.00000
G1 Z0.600 F10800.000
G1 X89.902 Y127.628
G1 Z0.200
G1 E0.80000 F2100.00000
G1 F1200.000
G1 X89.665 Y127.217 E0.01487
G1 X89.288 Y126.461 E0.02648
G1 X88.959 Y125.683 E0.02648
G1 X88.679 Y124.887 E0.02648
G1 X88.447 Y124.075 E0.02648
G1 X88.267 Y123.250 E0.02648
G1 X88.137 Y122.415 E0.02648
G1 X88.059 Y121.574 E0.02648
G1 X88.033 Y120.730 E0.02648
G1 X88.059 Y119.888 E0.02640
G1 X88.159 Y118.906 E0.03095
G1 X88.267 Y118.210 E0.02209
G1 X88.447 Y117.385 E0.02648
G1 X88.679 Y116.573 E0.02648
G1 X88.959 Y115.776 E0.02648
G1 X89.288 Y114.999 E0.02648
G1 X89.665 Y114.243 E0.02648
G1 X90.087 Y113.511 E0.02648
G1 X90.554 Y112.807 E0.02648
G1 X91.061 Y112.135 E0.02640
G1 X91.710 Y111.391 E0.03095
G1 X92.200 Y110.886 E0.02209
G1 X92.824 Y110.317 E0.02648
G1 X93.482 Y109.787 E0.02648
G1 X94.171 Y109.299 E0.02648
G1 X94.890 Y108.855 E0.02648
G1 X95.634 Y108.455 E0.02648
G1 X96.401 Y108.102 E0.02648
G1 X97.188 Y107.797 E0.02648
G1 X97.993 Y107.541 E0.02648
G1 X98.812 Y107.335 E0.02648
G1 X99.642 Y107.180 E0.02648
G1 X100.481 Y107.076 E0.02648
G1 X101.321 Y107.024 E0.02640
G1 X102.308 Y107.033 E0.03095
G1 X103.011 Y107.076 E0.02209
G1 X103.849 Y107.180 E0.02648
G1 X104.679 Y107.335 E0.02648
G1 X105.498 Y107.541 E0.02648
G1 X106.303 Y107.797 E0.02648
G1 X107.091 Y108.102 E0.02648
G1 X107.858 Y108.455 E0.02648
G1 X108.602 Y108.855 E0.02648
G1 X109.320 Y109.299 E0.02648
G1 X110.009 Y109.787 E0.02648
G1 X110.667 Y110.317 E0.02648
G1 X111.292 Y110.886 E0.02648
G1 X111.878 Y111.490 E0.02640
G1 X112.513 Y112.245 E0.03095
G1 X112.938 Y112.807 E0.02209
G1 X113.404 Y113.511 E0.02648
G1 X113.827 Y114.243 E0.02648
G1 X114.203 Y114.999 E0.02648
G1 X114.532 Y115.776 E0.02648
G1 X114.813 Y116.573 E0.02648
G1 X115.044 Y117.385 E0.02648
G1 X115.225 Y118.210 E0.02648
G1 X115.354 Y119.045 E0.02648
G1 X115.432 Y119.886 E0.02648
G1 X115.458 Y120.730 E0.02648
G1 X115.432 Y121.572 E0.02640
G1 X115.333 Y122.554 E0.03095
G1 X115.225 Y123.250 E0.02209
G1 X115.044 Y124.075 E0.02648
G1 X114.813 Y124.887 E0.02648
G1 X114.532 Y125.683 E0.02648
G1 X114.203 Y126.461 E0.02648
G1 X113.827 Y127.217 E0.02648
G1 X113.404 Y127.949 E0.02648
G1 X112.938 Y128.653 E0.02648
G1 X112.429 Y129.327 E0.02648
G1 X111.880 Y129.968 E0.02648
G1 X111.292 Y130.574 E0.02648
G1 X110.667 Y131.143 E0.02648
G1 X110.009 Y131.673 E0.02648
G1 X109.320 Y132.161 E0.02648
G1 X108.602 Y132.605 E0.02648
G1 X107.858 Y133.005 E0.02648
G1 X107.091 Y133.358 E0.02648
G1 X106.303 Y133.663 E0.02648
G1 X105.498 Y133.919 E0.02648
G1 X104.679 Y134.125 E0.02648
G1 X103.849 Y134.280 E0.02648
G1 X103.011 Y134.384 E0.02648
G1 X102.168 Y134.436 E0.02648
G1 X101.324 Y134.436 E0.02648
G1 X100.481 Y134.384 E0.02648
G1 X99.642 Y134.280 E0.02648
G1 X98.812 Y134.125 E0.02648
G1 X97.993 Y133.919 E0.02648
G1 X97.191 Y133.664 E0.02640
G1 X96.274 Y133.299 E0.03095
G1 X95.634 Y133.005 E0.02209
G1 X94.890 Y132.605 E0.02648
G1 X94.171 Y132.161 E0.02648
G1 X93.482 Y131.673 E0.02648
G1 X92.824 Y131.143 E0.02648
G1 X92.200 Y130.574 E0.02648
G1 X91.612 Y129.968 E0.02648
G1 X91.063 Y129.327 E0.02648
G1 X90.554 Y128.653 E0.02648
G1 X90.087 Y127.949 E0.02648
G1 X89.932 Y127.680 E0.00973
G1 X89.605 Y127.868 F10800.000
G1 F1200.000
G1 X89.333 Y127.396 E0.01711
G1 X88.946 Y126.619 E0.02721
G1 X88.607 Y125.820 E0.02721
G1 X88.319 Y125.001 E0.02721
G1 X88.082 Y124.167 E0.02721
G1 X87.896 Y123.319 E0.02721
G1 X87.763 Y122.461 E0.02721
G1 X87.683 Y121.597 E0.02721
G1 X87.656 Y120.730 E0.02721
G1 X87.683 Y119.863 E0.02718
G1 X87.785 Y118.858 E0.03168
G1 X87.896 Y118.141 E0.02276
G1 X88.082 Y117.293 E0.02721
G1 X88.319 Y116.459 E0.02721
G1 X88.607 Y115.640 E0.02721
G1 X88.946 Y114.841 E0.02721
G1 X89.333 Y114.064 E0.02721
G1 X89.766 Y113.313 E0.02721
G1 X90.246 Y112.589 E0.02721
G1 X90.768 Y111.897 E0.02718
G1 X91.432 Y111.136 E0.03168
G1 X91.937 Y110.615 E0.02276
G1 X92.579 Y110.030 E0.02721
G1 X93.255 Y109.486 E0.02721
G1 X93.963 Y108.985 E0.02721
G1 X94.701 Y108.528 E0.02721
G1 X95.465 Y108.117 E0.02721
G1 X95.860 Y107.936 E0.01360
G1 X96.254 Y107.755 E0.01360
G1 X97.063 Y107.441 E0.02721
G1 X97.890 Y107.178 E0.02721
G1 X98.732 Y106.966 E0.02721
G1 X99.585 Y106.807 E0.02721
G1 X100.446 Y106.700 E0.02721
G1 X101.311 Y106.647 E0.02718
G1 X102.321 Y106.656 E0.03168
G1 X103.046 Y106.700 E0.02276
G1 X103.907 Y106.807 E0.02721
G1 X104.760 Y106.966 E0.02721
G1 X105.602 Y107.178 E0.02721
G1 X106.429 Y107.441 E0.02721
G1 X107.238 Y107.755 E0.02721
G1 X108.026 Y108.117 E0.02721
G1 X108.791 Y108.528 E0.02721
G1 X109.529 Y108.985 E0.02721
G1 X110.237 Y109.486 E0.02721
G1 X110.913 Y110.030 E0.02721
G1 X111.554 Y110.615 E0.02721
G1 X112.158 Y111.237 E0.02718
G1 X112.808 Y112.010 E0.03168
G1 X113.246 Y112.589 E0.02276
G1 X113.725 Y113.313 E0.02721
G1 X114.159 Y114.064 E0.02721
G1 X114.546 Y114.841 E0.02721
G1 X114.884 Y115.640 E0.02721
G1 X115.173 Y116.459 E0.02721
G1 X115.410 Y117.293 E0.02721
G1 X115.596 Y118.141 E0.02721
G1 X115.729 Y118.998 E0.02721
G1 X115.809 Y119.863 E0.02721
G1 X115.836 Y120.730 E0.02721
G1 X115.809 Y121.596 E0.02718
G1 X115.707 Y122.602 E0.03168
G1 X115.596 Y123.319 E0.02276
G1 X115.410 Y124.167 E0.02721
G1 X115.173 Y125.001 E0.02721
G1 X114.884 Y125.820 E0.02721
G1 X114.546 Y126.619 E0.02721
G1 X114.159 Y127.396 E0.02721
G1 X113.725 Y128.147 E0.02721
G1 X113.246 Y128.871 E0.02721
G1 X112.723 Y129.563 E0.02721
G1 X112.158 Y130.222 E0.02721
G1 X111.554 Y130.845 E0.02721
G1 X110.913 Y131.430 E0.02721
G1 X110.237 Y131.974 E0.02721
G1 X109.529 Y132.475 E0.02721
G1 X108.791 Y132.932 E0.02721
G1 X108.026 Y133.343 E0.02721
G1 X107.238 Y133.705 E0.02721
G1 X106.429 Y134.019 E0.02721
G1 X105.602 Y134.282 E0.02721
G1 X104.760 Y134.494 E0.02721
G1 X103.907 Y134.653 E0.02721
G1 X103.046 Y134.760 E0.02721
G1 X102.180 Y134.813 E0.02721
G1 X101.312 Y134.813 E0.02721
G1 X100.446 Y134.760 E0.02721
G1 X99.585 Y134.653 E0.02721
G1 X98.732 Y134.494 E0.02721
G1 X97.890 Y134.282 E0.02721
G1 X97.064 Y134.019 E0.02718
G1 X96.125 Y133.646 E0.03168
G1 X95.465 Y133.343 E0.02276
G1 X94.701 Y132.932 E0.02721
G1 X93.963 Y132.475 E0.02721
G1 X93.255 Y131.974 E0.02721
