; generated by PrusaSlicer 2.2.0+win64 on 2021-12-30 at 17:21:43 UTC

; 

; external perimeters extrusion width = 0.45mm
; perimeters extrusion width = 0.45mm
; infill extrusion width = 0.45mm
; solid infill extrusion width = 0.45mm
; top infill extrusion width = 0.40mm
; first layer extrusion width = 0.42mm

M73 P0 R71
M201 X9000 Y9000 Z500 E10000 ; sets maximum accelerations, mm/sec^2
M203 X500 Y500 Z12 E120 ; sets maximum feedrates, mm/sec
M204 P2000 R1500 T2000 ; sets acceleration (P, T) and retract acceleration (R), mm/sec^2
M205 X10.00 Y10.00 Z0.20 E2.50 ; sets the jerk limits, mm/sec
M205 S0 T0 ; sets the minimum extruding and travel feed rate, mm/sec
M107
M862.3 P "MK2S" ; printer model check
M862.1 P0.4 ; nozzle diameter check
M115 U3.2.3 ; tell printer latest fw version
G90 ; use absolute coordinates
M83 ; extruder relative mode
M204 S2000 T1500 ; MK2 firmware only supports the old M204 format
M104 S255 ; set extruder temp
M140 S100 ; set bed temp
M190 S100 ; wait for bed temp
M109 S255 ; wait for extruder temp
G28 W ; home all without mesh bed level
G80 ; mesh bed leveling
G1 Y-3.0 F1000.0 ; go outside print area
G92 E0.0
G1 X60.0 E9.0  F1000.0 ; intro line
M73 P0 R71
G1 X100.0 E12.5 F1000.0 ; intro line
G92 E0.0
G21 ; set units to millimeters
G90 ; use absolute coordinates
M83 ; use relative distances for extrusion
M900 K0.04 ; Filament gcode LA 1.5
M900 K20 ; Filament gcode LA 1.0
;BEFORE_LAYER_CHANGE
G92 E0.0
;0.2


G1 E-0.80000 F2100.00000
G1 Z0.400 F10800.000
;AFTER_LAYER_CHANGE
;0.2
G1 X111.137 Y145.027
G1 Z0.200
G1 E0.80000 F2100.00000
M204 S1000
G1 F1200.000
G1 X110.225 Y144.819 E0.02931
G1 X103.898 Y141.194 E0.22862
G1 X71.863 Y118.806 E1.22542
G1 X70.214 Y117.414 E0.06767
G1 X69.487 Y116.671 E0.03260
G1 X68.267 Y115.184 E0.06031
G1 X67.118 Y113.382 E0.06702
G1 X66.221 Y111.483 E0.06583
G1 X65.599 Y109.606 E0.06201
G1 X65.336 Y108.468 E0.03663
G1 X65.070 Y106.485 E0.06273
G1 X65.041 Y104.488 E0.06261
G1 X65.134 Y103.316 E0.03687
G1 X65.478 Y101.349 E0.06261
G1 X65.771 Y100.276 E0.03487
G1 X66.469 Y98.406 E0.06257
G1 X67.384 Y96.632 E0.06261
G1 X67.981 Y95.695 E0.03484
G1 X69.207 Y94.118 E0.06261
G1 X70.009 Y93.264 E0.03675
G1 X71.509 Y91.940 E0.06273
G1 X73.156 Y90.805 E0.06273
G1 X74.176 Y90.234 E0.03663
G1 X75.981 Y89.434 E0.06189
G1 X78.003 Y88.818 E0.06630
G1 X80.232 Y88.452 E0.07081
G1 X126.444 Y88.194 E1.44896
G1 X127.756 Y88.349 E0.04144
G1 X129.773 Y88.811 E0.06487
G1 X131.673 Y89.497 E0.06332
G1 X133.500 Y90.418 E0.06416
G1 X135.180 Y91.539 E0.06332
G1 X136.090 Y92.278 E0.03675
G1 X137.520 Y93.682 E0.06285
G1 X138.800 Y95.283 E0.06428
G1 X139.859 Y96.998 E0.06320
G1 X140.381 Y98.053 E0.03690
G1 X141.095 Y99.921 E0.06269
G1 X141.595 Y101.925 E0.06476
G1 X141.846 Y103.975 E0.06476
G1 X141.848 Y105.975 E0.06273
G1 X141.739 Y107.146 E0.03687
G1 X141.366 Y109.120 E0.06297
G1 X140.767 Y111.016 E0.06237
G1 X140.339 Y112.038 E0.03472
G1 X139.400 Y113.800 E0.06261
G1 X138.790 Y114.729 E0.03484
G1 X119.032 Y140.679 E1.02267
G1 X118.418 Y141.210 E0.02543
G1 X112.058 Y144.868 E0.23007
G1 X111.196 Y145.017 E0.02743
; printing object Coil.stl id:1 copy 0
G1 F8640.000
G1 X110.225 Y144.819 E-0.22867
G1 X108.229 Y143.675 E-0.53133
G1 E-0.04000 F2100.00000
G1 Z0.600 F10800.000
G1 X88.750 Y109.193
G1 Z0.200
G1 E0.80000 F2100.00000
G1 F1200.000
G1 X81.901 Y113.148 E0.24798
G1 X75.052 Y109.193 E0.24798
G1 X75.052 Y101.284 E0.24798
G1 X81.336 Y97.656 E0.22753
G1 X81.120 Y97.596 E0.00702
G1 X80.759 Y97.405 E0.01283
G1 X80.447 Y97.140 E0.01283
G1 X80.200 Y96.814 E0.01283
G1 X80.028 Y96.443 E0.01283
G1 X79.940 Y96.043 E0.01283
G1 X79.940 Y95.634 E0.01283
G1 X80.028 Y95.235 E0.01283
G1 X80.200 Y94.864 E0.01283
G1 X80.447 Y94.538 E0.01283
G1 X80.759 Y94.273 E0.01283
G1 X81.130 Y94.076 E0.01319
G1 X81.587 Y93.968 E0.01472
G1 X81.923 Y93.950 E0.01054
G1 X82.327 Y94.016 E0.01283
G1 X82.707 Y94.167 E0.01283
G1 X83.045 Y94.397 E0.01283
G1 X83.326 Y94.694 E0.01283
G1 X83.537 Y95.045 E0.01283
G1 X83.668 Y95.432 E0.01283
G1 X83.713 Y95.850 E0.01319
G1 X83.645 Y96.315 E0.01472
G1 X83.537 Y96.633 E0.01054
G1 X83.326 Y96.984 E0.01283
G1 X83.045 Y97.281 E0.01283
G1 X82.707 Y97.510 E0.01283
G1 X82.414 Y97.627 E0.00986
G1 X88.750 Y101.284 E0.22938
G1 X88.750 Y109.133 E0.24609
G1 X88.373 Y108.976 F10800.000
G1 F1200.000
G1 X81.901 Y112.712 E0.23432
G1 X75.429 Y108.976 E0.23432
G1 X75.429 Y101.502 E0.23432
G1 X81.901 Y97.765 E0.23432
G1 X88.373 Y101.502 E0.23432
G1 X88.373 Y108.916 E0.23244
G1 X88.573 Y109.322 F10800.000
G1 F8640.000
G1 X85.534 Y110.581 E-0.76000
G1 E-0.04000 F2100.00000
G1 Z0.600 F10800.000
G1 X82.529 Y97.175
G1 Z0.200
G1 E0.80000 F2100.00000
G1 F1200.000
G1 X82.225 Y97.296 E0.01025
G1 X81.902 Y97.349 E0.01025
G1 X81.576 Y97.331 E0.01025
G1 X81.261 Y97.244 E0.01025
G1 X80.972 Y97.091 E0.01025
G1 X80.722 Y96.879 E0.01025
G1 X80.525 Y96.619 E0.01025
G1 X80.387 Y96.322 E0.01025
G1 X80.317 Y96.002 E0.01025
G1 X80.317 Y95.675 E0.01025
G1 X80.387 Y95.356 E0.01025
G1 X80.525 Y95.059 E0.01025
G1 X80.722 Y94.799 E0.01025
G1 X80.972 Y94.587 E0.01025
G1 X81.264 Y94.432 E0.01038
G1 X81.641 Y94.343 E0.01214
G1 X81.902 Y94.329 E0.00820
G1 X82.225 Y94.382 E0.01025
G1 X82.529 Y94.503 E0.01025
G1 X82.800 Y94.686 E0.01025
G1 X83.025 Y94.924 E0.01025
G1 X83.193 Y95.204 E0.01025
G1 X83.298 Y95.514 E0.01025
G1 X83.333 Y95.843 E0.01038
G1 X83.277 Y96.226 E0.01214
G1 X83.193 Y96.474 E0.00820
G1 X83.025 Y96.754 E0.01025
G1 X82.800 Y96.992 E0.01025
G1 X82.579 Y97.141 E0.00837
G1 X82.517 Y97.502 F10800.000
G1 F8640.000
G1 X82.225 Y97.296 E-0.08909
G1 X81.902 Y97.349 E-0.07552
G1 X81.576 Y97.331 E-0.07551
G1 X81.261 Y97.244 E-0.07551
G1 X80.972 Y97.091 E-0.07552
G1 X80.722 Y96.879 E-0.07551
G1 X80.525 Y96.619 E-0.07551
G1 X80.387 Y96.322 E-0.07551
G1 X80.317 Y96.002 E-0.07552
G1 X80.317 Y95.713 E-0.06679
G1 E-0.04000 F2100.00000
G1 Z0.600 F10800.000
G1 X83.692 Y91.650
G1 Z0.200
G1 E0.80000 F2100.00000
G1 F1200.000
G1 X84.098 Y91.703 E0.01283
G1 X84.924 Y91.864 E0.02637
G1 X85.738 Y92.074 E0.02637
G1 X86.538 Y92.334 E0.02637
G1 X87.320 Y92.643 E0.02637
G1 X88.082 Y92.998 E0.02637
G1 X88.821 Y93.400 E0.02637
G1 X89.533 Y93.847 E0.02637
G1 X90.217 Y94.336 E0.02637
G1 X90.870 Y94.866 E0.02637
G1 X91.489 Y95.436 E0.02637
G1 X91.975 Y95.941 E0.02199
G1 X92.618 Y96.685 E0.03081
G1 X93.121 Y97.355 E0.02629
G1 X93.583 Y98.058 E0.02637
G1 X94.001 Y98.788 E0.02637
G1 X94.374 Y99.542 E0.02637
G1 X94.700 Y100.317 E0.02637
G1 X94.977 Y101.111 E0.02637
G1 X95.206 Y101.920 E0.02637
G1 X95.384 Y102.742 E0.02637
G1 X95.512 Y103.573 E0.02637
G1 X95.588 Y104.410 E0.02637
G1 X95.613 Y105.251 E0.02637
G1 X95.587 Y106.092 E0.02637
G1 X95.509 Y106.929 E0.02637
G1 X95.380 Y107.760 E0.02637
G1 X95.200 Y108.581 E0.02637
G1 X94.970 Y109.390 E0.02637
G1 X94.691 Y110.184 E0.02637
G1 X94.364 Y110.958 E0.02637
G1 X93.990 Y111.711 E0.02637
G1 X93.570 Y112.440 E0.02637
G1 X93.107 Y113.142 E0.02637
G1 X92.601 Y113.814 E0.02637
G1 X92.055 Y114.454 E0.02637
G1 X91.471 Y115.059 E0.02637
G1 X90.954 Y115.533 E0.02199
G1 X90.196 Y116.158 E0.03081
G1 X89.513 Y116.644 E0.02629
G1 X88.800 Y117.090 E0.02637
G1 X88.060 Y117.490 E0.02637
G1 X87.298 Y117.845 E0.02637
G1 X86.645 Y118.101 E0.02199
G1 X85.712 Y118.411 E0.03081
G1 X84.900 Y118.619 E0.02629
G1 X84.074 Y118.778 E0.02637
G1 X83.240 Y118.886 E0.02637
G1 X82.540 Y118.933 E0.02199
G1 X81.558 Y118.947 E0.03081
G1 X80.720 Y118.900 E0.02629
G1 X79.885 Y118.802 E0.02637
G1 X79.058 Y118.653 E0.02637
G1 X78.376 Y118.487 E0.02199
G1 X77.435 Y118.204 E0.03081
G1 X76.651 Y117.907 E0.02629
G1 X75.884 Y117.561 E0.02637
G1 X75.140 Y117.169 E0.02637
G1 X74.422 Y116.732 E0.02637
G1 X73.731 Y116.252 E0.02637
G1 X73.072 Y115.731 E0.02637
G1 X72.445 Y115.170 E0.02637
G1 X71.854 Y114.571 E0.02637
G1 X71.301 Y113.938 E0.02637
G1 X70.788 Y113.272 E0.02637
G1 X70.316 Y112.576 E0.02637
G1 X69.888 Y111.852 E0.02637
G1 X69.505 Y111.103 E0.02637
G1 X69.169 Y110.332 E0.02637
G1 X68.881 Y109.542 E0.02637
G1 X68.642 Y108.736 E0.02637
G1 X68.452 Y107.916 E0.02637
G1 X68.313 Y107.087 E0.02637
G1 X68.226 Y106.251 E0.02637
G1 X68.189 Y105.411 E0.02637
G1 X68.205 Y104.570 E0.02637
G1 X68.271 Y103.731 E0.02637
G1 X68.389 Y102.899 E0.02637
G1 X68.558 Y102.075 E0.02637
G1 X68.777 Y101.263 E0.02637
G1 X69.046 Y100.466 E0.02637
G1 X69.362 Y99.687 E0.02637
G1 X69.726 Y98.929 E0.02637
G1 X70.136 Y98.194 E0.02637
G1 X70.590 Y97.487 E0.02637
G1 X71.086 Y96.808 E0.02637
G1 X71.534 Y96.268 E0.02199
G1 X72.201 Y95.546 E0.03081
G1 X72.812 Y94.971 E0.02629
G1 X73.458 Y94.434 E0.02637
G1 X74.136 Y93.936 E0.02637
G1 X74.844 Y93.482 E0.02637
G1 X75.578 Y93.071 E0.02637
G1 X76.335 Y92.706 E0.02637
G1 X77.114 Y92.389 E0.02637
G1 X77.911 Y92.120 E0.02637
G1 X78.723 Y91.900 E0.02637
G1 X79.546 Y91.730 E0.02637
G1 X79.951 Y91.672 E0.01283
G1 X80.006 Y91.975 E0.00965
G1 X80.162 Y92.349 E0.01272
G1 X80.395 Y92.682 E0.01272
G1 X80.693 Y92.957 E0.01272
G1 X81.042 Y93.163 E0.01272
G1 X81.428 Y93.289 E0.01272
G1 X81.832 Y93.330 E0.01272
G1 X82.235 Y93.285 E0.01272
G1 X82.619 Y93.154 E0.01272
G1 X82.966 Y92.944 E0.01272
G1 X83.261 Y92.665 E0.01272
G1 X83.489 Y92.330 E0.01272
G1 X83.641 Y91.954 E0.01272
G1 X83.682 Y91.709 E0.00777
G1 X83.317 Y91.222 F10800.000
G1 F1200.000
G1 X84.159 Y91.331 E0.02660
G1 X85.007 Y91.496 E0.02709
G1 X85.843 Y91.712 E0.02709
G1 X86.665 Y91.979 E0.02709
G1 X87.469 Y92.296 E0.02709
G1 X88.252 Y92.662 E0.02709
G1 X89.011 Y93.075 E0.02709
G1 X89.743 Y93.533 E0.02709
G1 X90.446 Y94.036 E0.02709
G1 X91.117 Y94.581 E0.02709
G1 X91.753 Y95.166 E0.02709
G1 X92.254 Y95.687 E0.02267
G1 X92.912 Y96.448 E0.03154
G1 X93.429 Y97.139 E0.02706
G1 X93.904 Y97.861 E0.02709
G1 X94.334 Y98.610 E0.02709
G1 X94.717 Y99.385 E0.02709
G1 X95.052 Y100.181 E0.02709
G1 X95.337 Y100.997 E0.02709
G1 X95.572 Y101.829 E0.02709
G1 X95.755 Y102.673 E0.02709
G1 X95.886 Y103.527 E0.02709
G1 X95.965 Y104.388 E0.02709
G1 X95.991 Y105.251 E0.02709
G1 X95.963 Y106.115 E0.02709
G1 X95.883 Y106.975 E0.02709
G1 X95.750 Y107.829 E0.02709
G1 X95.566 Y108.673 E0.02709
G1 X95.329 Y109.504 E0.02709
G1 X95.043 Y110.320 E0.02709
G1 X94.707 Y111.116 E0.02709
G1 X94.322 Y111.890 E0.02709
G1 X93.891 Y112.638 E0.02709
G1 X93.415 Y113.360 E0.02709
G1 X92.896 Y114.050 E0.02709
G1 X92.335 Y114.707 E0.02709
G1 X91.735 Y115.329 E0.02709
G1 X91.202 Y115.818 E0.02267
G1 X90.425 Y116.457 E0.03154
G1 X89.722 Y116.958 E0.02706
G1 X88.989 Y117.416 E0.02709
G1 X88.230 Y117.827 E0.02709
G1 X87.446 Y118.192 E0.02709
G1 X86.773 Y118.456 E0.02267
G1 X85.819 Y118.773 E0.03154
G1 X84.982 Y118.988 E0.02706
G1 X84.134 Y119.151 E0.02709
G1 X83.277 Y119.261 E0.02709
G1 X82.556 Y119.310 E0.02267
G1 X81.550 Y119.324 E0.03154
G1 X80.688 Y119.276 E0.02706
G1 X79.830 Y119.176 E0.02709
G1 X78.979 Y119.022 E0.02709
G1 X78.277 Y118.851 E0.02267
G1 X77.314 Y118.561 E0.03154
G1 X76.507 Y118.255 E0.02706
G1 X75.719 Y117.900 E0.02709
G1 X74.954 Y117.497 E0.02709
G1 X74.216 Y117.048 E0.02709
G1 X73.507 Y116.555 E0.02709
G1 X72.829 Y116.019 E0.02709
G1 X72.185 Y115.443 E0.02709
G1 X71.578 Y114.828 E0.02709
G1 X71.009 Y114.177 E0.02709
G1 X70.482 Y113.493 E0.02709
G1 X69.997 Y112.777 E0.02709
G1 X69.558 Y112.034 E0.02709
G1 X69.164 Y111.264 E0.02709
G1 X68.992 Y110.868 E0.01355
G1 X68.819 Y110.472 E0.01355
G1 X68.523 Y109.660 E0.02709
G1 X68.277 Y108.832 E0.02709
G1 X68.082 Y107.990 E0.02709
G1 X67.940 Y107.138 E0.02709
G1 X67.849 Y106.279 E0.02709
G1 X67.812 Y105.415 E0.02709
G1 X67.828 Y104.551 E0.02709
G1 X67.896 Y103.690 E0.02709
G1 X68.018 Y102.834 E0.02709
G1 X68.191 Y101.988 E0.02709
G1 X68.416 Y101.154 E0.02709
G1 X68.692 Y100.335 E0.02709
G1 X69.017 Y99.534 E0.02709
G1 X69.391 Y98.755 E0.02709
G1 X69.812 Y98.001 E0.02709
G1 X70.279 Y97.273 E0.02709
G1 X70.789 Y96.576 E0.02709
G1 X71.251 Y96.020 E0.02267
G1 X71.933 Y95.281 E0.03154
G1 X72.562 Y94.689 E0.02706
G1 X73.226 Y94.136 E0.02709
G1 X73.923 Y93.625 E0.02709
G1 X74.650 Y93.158 E0.02709
G1 X75.404 Y92.736 E0.02709
G1 X76.182 Y92.362 E0.02709
G1 X76.982 Y92.035 E0.02709
G1 X77.801 Y91.759 E0.02709
G1 X78.635 Y91.533 E0.02709
G1 X79.481 Y91.358 E0.02709
G1 X80.304 Y91.241 E0.02605
G1 X80.313 Y91.553 E0.00979
G1 X80.370 Y91.867 E0.01003
G1 X80.495 Y92.167 E0.01017
G1 X80.681 Y92.433 E0.01017
G1 X80.919 Y92.653 E0.01017
G1 X81.198 Y92.817 E0.01017
G1 X81.507 Y92.918 E0.01017
G1 X81.829 Y92.951 E0.01017
G1 X82.152 Y92.915 E0.01017
G1 X82.459 Y92.810 E0.01017
G1 X82.736 Y92.642 E0.01017
G1 X82.972 Y92.419 E0.01017
G1 X83.155 Y92.151 E0.01017
G1 X83.276 Y91.851 E0.01017
G1 X83.330 Y91.531 E0.01015
G1 X83.320 Y91.282 E0.00781
G1 X83.640 Y91.458 F10800.000
G1 F8640.000
G1 X84.159 Y91.331 E-0.19401
G1 X85.007 Y91.496 E-0.19952
G1 X85.843 Y91.712 E-0.19952
G1 X86.531 Y91.935 E-0.16695
G1 E-0.04000 F2100.00000
G1 Z0.600 F10800.000
G1 X82.172 Y93.640
G1 Z0.200
G1 E0.80000 F2100.00000
G1 F1200.000
G1 X81.954 Y93.635 E0.00503
G1 X81.847 Y93.642 E0.00228
G1 X81.497 Y93.635 E0.00718
G1 F8640.000
G1 X81.847 Y93.642 E-0.08074
G1 E-0.71926 F2100.00000
G1 Z0.600 F10800.000
G1 X79.487 Y91.858
G1 Z0.200
G1 E0.80000 F2100.00000
G1 F1200.000
G1 X79.769 Y92.139 E0.01253
G1 X79.913 Y92.486 E0.01182
G1 X80.180 Y92.869 E0.01468
G1 X80.523 Y93.186 E0.01468
G1 X80.925 Y93.422 E0.01468
G1 X81.113 Y93.484 E0.00621
G1 X81.215 Y93.586 E0.00455
G1 X81.211 Y93.766 E0.00568
G1 X81.030 Y93.809 E0.00584
G1 X80.947 Y93.853 E0.00294
G1 X79.187 Y92.093 E0.07829
G1 X78.746 Y92.186 E0.01418
G1 X80.598 Y94.039 E0.08238
G1 X80.309 Y94.284 E0.01193
G1 X78.325 Y92.300 E0.08823
G1 X77.909 Y92.419 E0.01361
G1 X80.064 Y94.574 E0.09587
G1 X79.956 Y94.717 E0.00563
G1 X79.866 Y94.911 E0.00673
G1 X77.509 Y92.554 E0.10484
G1 X77.114 Y92.694 E0.01317
G1 X79.723 Y95.303 E0.11604
G1 X79.657 Y95.604 E0.00967
G1 X79.657 Y95.772 E0.00530
G1 X76.734 Y92.849 E0.12999
G1 X76.359 Y93.009 E0.01282
G1 X79.723 Y96.373 E0.14960
G1 X79.758 Y96.534 E0.00519
G1 X79.956 Y96.961 E0.01480
G1 X80.241 Y97.335 E0.01480
G1 X80.599 Y97.640 E0.01480
G1 X80.703 Y97.695 E0.00369
G1 X80.581 Y97.766 E0.00444
G1 X75.998 Y93.183 E0.20382
G1 X75.640 Y93.360 E0.01255
G1 X80.242 Y97.961 E0.20464
G1 X79.903 Y98.157 E0.01231
G1 X75.297 Y93.552 E0.20482
G1 X74.956 Y93.746 E0.01234
G1 X79.564 Y98.353 E0.20491
G1 X79.224 Y98.549 E0.01231
G1 X74.631 Y93.955 E0.20431
G1 X74.305 Y94.164 E0.01217
G1 X78.885 Y98.744 E0.20371
G1 X78.546 Y98.940 E0.01231
G1 X73.996 Y94.390 E0.20238
G1 X73.687 Y94.616 E0.01203
G1 X78.207 Y99.136 E0.20102
G1 X77.868 Y99.332 E0.01231
G1 X73.392 Y94.856 E0.19906
G1 X73.100 Y95.099 E0.01194
G1 X77.529 Y99.528 E0.19696
G1 X77.190 Y99.723 E0.01231
G1 X72.819 Y95.353 E0.19439
G1 X72.544 Y95.612 E0.01190
G1 X76.851 Y99.919 E0.19156
G1 X76.512 Y100.115 E0.01231
G1 X72.277 Y95.881 E0.18832
G1 X72.020 Y96.159 E0.01190
G1 X76.173 Y100.311 E0.18466
G1 X75.833 Y100.506 E0.01231
G1 X71.764 Y96.437 E0.18100
G1 X71.520 Y96.728 E0.01194
G1 X75.494 Y100.702 E0.17675
G1 X75.155 Y100.898 E0.01231
G1 X71.280 Y97.022 E0.17236
G1 X71.054 Y97.331 E0.01204
G1 X74.816 Y101.094 E0.16733
G1 X74.769 Y101.121 E0.00172
G1 X74.769 Y101.581 E0.01447
G1 X70.828 Y97.640 E0.17527
G1 X70.618 Y97.966 E0.01217
G1 X74.769 Y102.116 E0.18458
G1 X74.769 Y102.651 E0.01682
G1 X70.410 Y98.292 E0.19388
G1 X70.215 Y98.633 E0.01233
G1 X74.769 Y103.186 E0.20251
G1 X74.769 Y103.721 E0.01682
G1 X70.024 Y98.976 E0.21103
G1 X69.846 Y99.333 E0.01254
G1 X74.769 Y104.256 E0.21894
G1 X74.769 Y104.791 E0.01682
G1 X69.673 Y99.694 E0.22665
G1 X69.512 Y100.069 E0.01281
G1 X74.769 Y105.325 E0.23378
G1 X74.769 Y105.860 E0.01682
G1 X69.358 Y100.449 E0.24066
G1 X69.217 Y100.843 E0.01316
G1 X74.769 Y106.395 E0.24692
G1 X74.769 Y106.930 E0.01682
G1 X69.082 Y101.244 E0.25291
G1 X69.048 Y101.345 E0.00337
G1 X68.963 Y101.659 E0.01024
G1 X74.769 Y107.465 E0.25820
G1 X74.769 Y108.000 E0.01682
G1 X68.850 Y102.081 E0.26326
G1 X68.755 Y102.521 E0.01417
G1 X74.769 Y108.535 E0.26744
G1 X74.769 Y109.070 E0.01682
G1 X68.665 Y102.966 E0.27145
G1 X68.599 Y103.435 E0.01488
G1 X83.705 Y118.541 E0.67184
G1 X84.171 Y118.472 E0.01481
G1 X75.448 Y109.749 E0.38796
G1 X76.713 Y110.479 E0.04596
