; generated by PrusaSlicer 2.6.0+win64 on 2023-07-26 at 09:43:36 UTC

; 

; external perimeters extrusion width = 0.45mm
; perimeters extrusion width = 0.45mm
; infill extrusion width = 0.45mm
; solid infill extrusion width = 0.45mm
; top infill extrusion width = 0.40mm
; first layer extrusion width = 0.42mm

M73 P0 R26
M73 C15
;TYPE:Custom
M862.3 P "MK2S" ; printer model check
M862.1 P0.4 ; nozzle diameter check
M115 U3.2.3 ; tell printer latest fw version
G90 ; use absolute coordinates
M83 ; extruder relative mode
M204 S2000 T1500 ; MK2 firmware only supports the old M204 format
M104 S215 ; set extruder temp
M140 S60 ; set bed temp
M190 S60 ; wait for bed temp
M109 S215 ; wait for extruder temp
G28 W ; home all without mesh bed level
G80 ; mesh bed leveling
G1 Y-3.0 F1000.0 ; go outside print area
G92 E0.0
G1 X60.0 E9.0  F1000.0 ; intro line
G1 X100.0 E12.5 F1000.0 ; intro line
G92 E0.0
G21 ; set units to millimeters
G90 ; use absolute coordinates
M83 ; use relative distances for extrusion
M900 K0.05 ; Filament gcode LA 1.5
M900 K30 ; Filament gcode LA 1.0
M107
;LAYER_CHANGE
;Z:0.2
;HEIGHT:0.2
;BEFORE_LAYER_CHANGE
G92 E0.0
;0.2


G1 E-.8 F2100
G1 Z.4 F10800
;AFTER_LAYER_CHANGE
;0.2
G1 X99.799 Y90.021
G1 Z.2
G1 E.8 F2100
M204 S1000
;TYPE:Skirt/Brim
;WIDTH:0.42
G1 F1200
G1 X100.637 Y89.321 E.03424
G1 X101.701 Y88.825 E.03681
G1 X103 Y88.623 E.04122
G1 X147.207 Y88.632 E1.38608
G1 X147.962 Y88.734 E.02389
G1 X148.689 Y88.966 E.02393
G1 X149.363 Y89.321 E.02388
G1 X149.966 Y89.787 E.02389
G1 X150.479 Y90.351 E.0239
G1 X150.886 Y90.995 E.02389
G1 X151.266 Y92.037 E.03478
G1 X151.368 Y92.793 E.02392
G1 X151.368 Y117.207 E.76548
G1 X151.175 Y118.299 E.03477
G1 X150.679 Y119.363 E.03681
G1 X150.213 Y119.966 E.02389
G1 X149.363 Y120.679 E.03479
G1 X148.299 Y121.175 E.03681
G1 X147 Y121.377 E.04122
G1 X103 Y121.377 E1.37959
G1 X102.037 Y121.266 E.03039
G1 X100.995 Y120.886 E.03478
G1 X100.034 Y120.213 E.03679
G1 X99.321 Y119.363 E.03479
G1 X98.825 Y118.299 E.03681
G1 X98.623 Y117 E.04122
G1 X98.632 Y92.793 E.75899
G1 X98.825 Y91.701 E.03477
G1 X99.321 Y90.637 E.03681
G1 X99.762 Y90.069 E.02255
; printing object Snapper.stl id:0 copy 0
;WIPE_START
G1 F8640
G1 X100.637 Y89.321 E-.2658
G1 X101.701 Y88.825 E-.27106
M73 P0 R25
G1 X102.827 Y88.65 E-.26314
;WIPE_END
G1 Z.6 F10800
G1 X142.694 Y91.787
G1 Z.2
G1 E.8 F2100
;TYPE:Perimeter
;WIDTH:0.419999
M73 P1 R25
G1 F1200
G1 X142.981 Y91.787 E.009
;WIDTH:0.460103
G1 X143.128 Y91.807 E.00515
;WIDTH:0.500206
G1 X143.276 Y91.827 E.00568
;WIDTH:0.54031
G1 X143.423 Y91.847 E.00614
;WIDTH:0.580413
G1 X143.571 Y91.867 E.00667
G1 X144.161 Y91.86 E.02637
;WIDTH:0.592679
G1 X144.73 Y91.873 E.02602
G1 X144.886 Y91.852 E.0072
;WIDTH:0.549509
G1 X145.041 Y91.83 E.00659
;WIDTH:0.506339
G1 X145.197 Y91.809 E.00607
;WIDTH:0.463169
G1 X145.353 Y91.787 E.00551
;WIDTH:0.419999
G1 X146.641 Y91.787 E.04038
G1 X147.21 Y91.808 E.01785
G1 X147.605 Y91.952 E.01318
G1 X147.927 Y92.222 E.01318
G1 X148.137 Y92.586 E.01318
G1 X148.213 Y93.071 E.01539
G1 X148.213 Y94.936 E.05848
;WIDTH:0.455678
G1 X148.195 Y95.124 E.00648
;WIDTH:0.491356
G1 X148.177 Y95.312 E.00704
;WIDTH:0.527034
G1 X148.159 Y95.5 E.0076
G1 X148.159 Y96.578 E.04339
G1 X148.177 Y96.766 E.0076
;WIDTH:0.491356
G1 X148.195 Y96.954 E.00704
;WIDTH:0.455678
G1 X148.213 Y97.143 E.00652
;WIDTH:0.419999
G1 X148.213 Y116.909 E.61975
G1 X148.192 Y117.21 E.00946
G1 X148.048 Y117.605 E.01318
G1 X147.778 Y117.927 E.01318
G1 X147.414 Y118.137 E.01318
G1 X146.966 Y118.213 E.01425
G1 X103.091 Y118.213 E1.37567
G1 X102.79 Y118.192 E.00946
G1 X102.395 Y118.048 E.01318
G1 X102.073 Y117.778 E.01318
G1 X101.863 Y117.414 E.01318
G1 X101.787 Y116.966 E.01425
G1 X101.787 Y97.441 E.61219
;WIDTH:0.462618
G1 X101.808 Y97.292 E.00525
;WIDTH:0.505237
G1 X101.83 Y97.143 E.00579
;WIDTH:0.547856
G1 X101.851 Y96.995 E.00628
;WIDTH:0.590475
G1 X101.872 Y96.846 E.00685
G1 X101.854 Y96.349 E.02264
;WIDTH:0.553226
G1 X101.851 Y95.783 E.02402
;WIDTH:0.588635
G1 X101.871 Y95.177 E.02751
G1 X101.85 Y95.022 E.0071
;WIDTH:0.546476
G1 X101.829 Y94.868 E.00651
;WIDTH:0.504317
G1 X101.808 Y94.714 E.00596
;WIDTH:0.462158
G1 X101.787 Y94.559 E.00545
;WIDTH:0.419999
G1 X101.808 Y92.79 E.05547
G1 X101.952 Y92.395 E.01318
G1 X102.222 Y92.073 E.01318
G1 X102.586 Y91.863 E.01318
G1 X103.034 Y91.787 E.01425
G1 X104.913 Y91.787 E.05891
;WIDTH:0.466895
G1 X105.109 Y91.811 E.00696
;WIDTH:0.513791
G1 X105.304 Y91.834 E.00769
;WIDTH:0.560686
G1 X105.5 Y91.857 E.0085
G1 X106.087 Y91.85 E.02527
;WIDTH:0.573046
G1 X106.654 Y91.864 E.025
G1 X106.809 Y91.844 E.00689
;WIDTH:0.534785
G1 X106.964 Y91.825 E.00639
;WIDTH:0.496523
G1 X107.119 Y91.806 E.00589
;WIDTH:0.458261
G1 X107.274 Y91.787 E.00539
;WIDTH:0.419999
G1 X142.634 Y91.787 E1.10869
;WIPE_START
G1 F8640
G1 X142.981 Y91.787 E-.08012
G1 X143.128 Y91.807 E-.03426
G1 X143.276 Y91.827 E-.03448
G1 X143.423 Y91.847 E-.03426
G1 X143.571 Y91.867 E-.03448
G1 X144.161 Y91.86 E-.13624
G1 X144.73 Y91.873 E-.13142
G1 X144.886 Y91.852 E-.03635
G1 X145.041 Y91.83 E-.03615
G1 X145.197 Y91.809 E-.03635
G1 X145.353 Y91.787 E-.03638
G1 X146.087 Y91.787 E-.16951
;WIPE_END
G1 Z.6 F10800
G1 X148.376 Y92.206
G1 Z.2
G1 E.8 F2100
;TYPE:External perimeter
G1 F1200
G1 X148.522 Y92.565 E.01215
G1 X148.59 Y93.071 E.01601
G1 X148.59 Y116.909 E.74742
G1 X148.564 Y117.276 E.01154
G1 X148.376 Y117.794 E.01728
G1 X148.021 Y118.217 E.01731
G1 X147.543 Y118.493 E.01731
G1 X146.982 Y118.59 E.01785
G1 X103.091 Y118.59 E1.37617
G1 X102.724 Y118.564 E.01154
G1 X102.206 Y118.376 E.01728
G1 X101.783 Y118.021 E.01731
G1 X101.507 Y117.543 E.01731
G1 X101.41 Y116.982 E.01785
G1 X101.41 Y93.26 E.74379
G1 X101.436 Y92.724 E.01683
G1 X101.624 Y92.206 E.01728
G1 X101.979 Y91.783 E.01731
G1 X102.457 Y91.507 E.01731
G1 X103.018 Y91.41 E.01785
G1 X147.036 Y91.415 E1.38015
G1 X147.543 Y91.507 E.01616
G1 X148.021 Y91.783 E.01731
G1 X148.337 Y92.16 E.01542
G1 X148.19 Y92.546 F10800
;WIPE_START
G1 F8640
G1 X148.522 Y92.565 E-.10281
G1 X148.59 Y93.071 E-.11789
G1 X148.59 Y95.58 E-.5793
;WIPE_END
G1 Z.6 F10800
G1 X146.254 Y93.197
G1 Z.2
G1 E.8 F2100
;TYPE:Perimeter
G1 F1200
G1 X146.677 Y93.573 E.01775
G1 X147.031 Y94.01 E.01763
G1 X147.311 Y94.496 E.01759
G1 X147.511 Y95.017 E.0175
;WIDTH:0.455678
G1 X147.566 Y95.184 E.00603
;WIDTH:0.491356
G1 X147.621 Y95.352 E.00659
;WIDTH:0.527034
G1 X147.676 Y95.519 E.00708
G1 X147.705 Y96.039 E.02096
G1 X147.676 Y96.559 E.02096
G1 X147.621 Y96.726 E.00708
;WIDTH:0.491356
G1 X147.566 Y96.894 E.00659
;WIDTH:0.455678
G1 X147.511 Y97.062 E.00607
;WIDTH:0.419999
G1 X147.311 Y97.583 E.0175
G1 X147.031 Y98.068 E.01756
G1 X146.677 Y98.505 E.01763
G1 X146.257 Y98.882 E.0177
G1 X145.828 Y99.167 E.01615
G1 X145.361 Y99.384 E.01615
G1 X144.787 Y99.553 E.01876
G1 X144.267 Y99.62 E.01644
G1 X143.709 Y99.607 E.0175
G1 X143.157 Y99.506 E.01759
M73 P2 R25
G1 X142.625 Y99.319 E.01768
G1 X142.169 Y99.077 E.01619
G1 X141.721 Y98.745 E.01748
G1 X141.327 Y98.344 E.01763
G1 X141.024 Y97.924 E.01624
G1 X140.768 Y97.427 E.01753
G1 X140.592 Y96.896 E.01754
G1 X140.501 Y96.34 E.01766
G1 X140.495 Y95.822 E.01624
G1 X140.572 Y95.269 E.01751
G1 X140.734 Y94.734 E.01753
G1 X140.981 Y94.226 E.01771
G1 X141.304 Y93.764 E.01767
G1 X141.655 Y93.391 E.01606
G1 X142.062 Y93.073 E.01619
G1 X142.544 Y92.797 E.01742
G1 X143.118 Y92.586 E.01917
;WIDTH:0.458453
G1 X143.24 Y92.541 E.00449
;WIDTH:0.496907
G1 X143.362 Y92.496 E.00491
;WIDTH:0.535361
G1 X143.484 Y92.451 E.00532
;WIDTH:0.573814
G1 X143.606 Y92.406 E.00574
G1 X144.136 Y92.382 E.02342
;WIDTH:0.592679
G1 X144.701 Y92.422 E.02589
G1 X144.836 Y92.478 E.00668
;WIDTH:0.549509
G1 X144.97 Y92.535 E.00613
;WIDTH:0.506339
G1 X145.105 Y92.591 E.00563
;WIDTH:0.463169
G1 X145.239 Y92.648 E.00509
;WIDTH:0.419999
G1 X145.323 Y92.678 E.0028
G1 X145.83 Y92.912 E.01751
G1 X146.204 Y93.163 E.01412
G1 X146.043 Y93.505 F10800
;TYPE:External perimeter
G1 F1200
G1 X146.421 Y93.855 E.01615
G1 X146.707 Y94.203 E.01412
G1 X146.96 Y94.635 E.0157
G1 X147.144 Y95.103 E.01577
G1 X147.247 Y95.553 E.01447
G1 X147.284 Y96.054 E.01575
G1 X147.242 Y96.553 E.0157
G1 X147.135 Y97.002 E.01447
G1 X146.947 Y97.47 E.01581
G1 X146.69 Y97.9 E.01571
G1 X146.366 Y98.286 E.0158
G1 X145.987 Y98.615 E.01574
G1 X145.598 Y98.865 E.0145
G1 X145.181 Y99.049 E.01429
G1 X144.684 Y99.19 E.0162
G1 X144.195 Y99.246 E.01543
G1 X143.693 Y99.227 E.01575
G1 X143.201 Y99.128 E.01574
G1 X142.73 Y98.953 E.01575
G1 X142.325 Y98.73 E.0145
G1 X141.927 Y98.425 E.01572
G1 X141.582 Y98.062 E.0157
G1 X141.318 Y97.683 E.01448
G1 X141.093 Y97.231 E.01583
G1 X140.944 Y96.753 E.0157
G1 X140.872 Y96.256 E.01575
G1 X140.874 Y95.794 E.01449
G1 X140.951 Y95.296 E.0158
G1 X141.105 Y94.82 E.01569
G1 X141.333 Y94.37 E.01582
G1 X141.628 Y93.964 E.01574
G1 X141.949 Y93.633 E.01446
G1 X142.313 Y93.358 E.0143
G1 X142.757 Y93.113 E.0159
G1 X143.243 Y92.941 E.01616
G1 X143.721 Y92.848 E.01527
G1 X144.18 Y92.833 E.0144
G1 X144.682 Y92.888 E.01583
G1 X145.169 Y93.022 E.01584
G1 X145.624 Y93.228 E.01566
G1 X145.993 Y93.472 E.01387
G1 X146.415 Y93.356 F10800
;WIPE_START
G1 F8640
G1 X146.421 Y93.855 E-.13262
G1 X146.707 Y94.203 E-.10401
G1 X146.96 Y94.635 E-.1156
G1 X147.144 Y95.103 E-.11611
G1 X147.247 Y95.553 E-.10659
G1 X147.284 Y96.054 E-.116
G1 X147.244 Y96.525 E-.10907
;WIPE_END
G1 Z.6 F10800
G1 X108.595 Y93.532
G1 Z.2
G1 E.8 F2100
;TYPE:Perimeter
G1 F1200
G1 X108.906 Y93.898 E.01506
G1 X109.197 Y94.376 E.01755
G1 X109.412 Y94.898 E.0177
G1 X109.536 Y95.4 E.01621
G1 X109.586 Y95.955 E.01747
G1 X109.549 Y96.516 E.01763
G1 X109.437 Y97.022 E.01625
G1 X109.237 Y97.543 E.0175
G1 X108.957 Y98.029 E.01759
G1 X108.603 Y98.466 E.01763
G1 X108.183 Y98.843 E.0177
G1 X107.754 Y99.128 E.01615
G1 X107.287 Y99.345 E.01615
G1 X106.713 Y99.513 E.01875
G1 X106.193 Y99.581 E.01644
G1 X105.635 Y99.568 E.0175
G1 X105.083 Y99.467 E.01759
G1 X104.551 Y99.279 E.01769
G1 X104.094 Y99.038 E.0162
G1 X103.647 Y98.706 E.01746
G1 X103.253 Y98.305 E.01763
G1 X102.95 Y97.884 E.01626
G1 X102.694 Y97.388 E.0175
;WIDTH:0.459027
G1 X102.616 Y97.217 E.0065
;WIDTH:0.498055
G1 X102.539 Y97.046 E.0071
;WIDTH:0.537083
G1 X102.462 Y96.875 E.00771
;WIDTH:0.562859
G1 X102.438 Y96.829 E.00224
;WIDTH:0.588635
G1 X102.414 Y96.783 E.00235
G1 X102.357 Y96.217 E.02581
;WIDTH:0.553226
G1 X102.361 Y95.689 E.0224
;WIDTH:0.588635
G1 X102.414 Y95.217 E.02155
G1 X102.476 Y95.087 E.00654
;WIDTH:0.546476
G1 X102.537 Y94.956 E.00605
;WIDTH:0.504317
G1 X102.598 Y94.825 E.00554
;WIDTH:0.462158
G1 X102.66 Y94.694 E.00505
;WIDTH:0.419999
G1 X102.907 Y94.187 E.01768
G1 X103.23 Y93.725 E.01767
G1 X103.581 Y93.352 E.01606
G1 X103.988 Y93.033 E.01621
G1 X104.47 Y92.758 E.0174
G1 X105.044 Y92.546 E.01919
;WIDTH:0.465007
G1 X105.207 Y92.49 E.00605
;WIDTH:0.510015
G1 X105.371 Y92.433 E.00674
;WIDTH:0.555023
G1 X105.534 Y92.376 E.00735
G1 X106.062 Y92.353 E.0225
;WIDTH:0.573046
G1 X106.626 Y92.392 E.02492
G1 X106.761 Y92.446 E.00641
;WIDTH:0.534785
G1 X106.896 Y92.5 E.00595
;WIDTH:0.496523
G1 X107.03 Y92.554 E.00545
;WIDTH:0.458261
G1 X107.165 Y92.608 E.00502
;WIDTH:0.419999
G1 X107.678 Y92.83 E.01753
G1 X108.154 Y93.133 E.01769
G1 X108.556 Y93.487 E.01679
G1 X108.313 Y93.775 F10800
;TYPE:External perimeter
G1 F1200
G1 X108.633 Y94.164 E.01579
G1 X108.886 Y94.595 E.01567
G1 X109.069 Y95.064 E.01578
G1 X109.173 Y95.514 E.01448
G1 X109.21 Y96.015 E.01575
G1 X109.168 Y96.514 E.0157
G1 X109.061 Y96.963 E.01447
G1 X108.873 Y97.431 E.01581
G1 X108.616 Y97.861 E.01571
G1 X108.292 Y98.247 E.0158
G1 X107.913 Y98.576 E.01574
G1 X107.516 Y98.829 E.01476
G1 X107.107 Y99.01 E.01402
G1 X106.61 Y99.151 E.0162
G1 X106.121 Y99.207 E.01543
G1 X105.618 Y99.187 E.01578
G1 X105.127 Y99.089 E.0157
G1 X104.656 Y98.914 E.01575
G1 X104.251 Y98.691 E.0145
G1 X103.853 Y98.386 E.01572
G1 X103.526 Y98.044 E.01484
G1 X103.244 Y97.644 E.01535
G1 X103.019 Y97.192 E.01583
G1 X102.87 Y96.714 E.0157
G1 X102.798 Y96.217 E.01575
G1 X102.8 Y95.755 E.01449
G1 X102.877 Y95.257 E.0158
G1 X103.031 Y94.781 E.01569
G1 X103.259 Y94.331 E.01582
G1 X103.553 Y93.926 E.01569
G1 X103.875 Y93.594 E.0145
G1 X104.239 Y93.319 E.0143
G1 X104.683 Y93.074 E.0159
G1 X105.169 Y92.902 E.01616
G1 X105.647 Y92.809 E.01527
G1 X106.106 Y92.794 E.0144
G1 X106.608 Y92.849 E.01583
G1 X107.095 Y92.982 E.01583
G1 X107.55 Y93.189 E.01567
G1 X107.969 Y93.466 E.01575
G1 X108.268 Y93.735 E.01261
G1 X108.701 Y93.679 F10800
;WIPE_START
G1 F8640
G1 X108.633 Y94.164 E-.13006
G1 X108.886 Y94.595 E-.1154
G1 X109.069 Y95.064 E-.11625
G1 X109.173 Y95.514 E-.10665
G1 X109.21 Y96.015 E-.116
G1 X109.168 Y96.514 E-.11563
G1 X109.068 Y96.935 E-.10001
;WIPE_END
G1 Z.6 F10800
G1 X105.199 Y92.365
G1 Z.2
G1 E.8 F2100
;TYPE:Solid infill
;WIDTH:0.42638
G1 F1200
G1 X104.904 Y92.07 E.0133
G1 X104.361 Y92.07 E.01731
G1 X104.678 Y92.386 E.01427
G1 X104.286 Y92.537 E.01339
G1 X103.819 Y92.07 E.02106
G1 X103.277 Y92.07 E.01728
G1 X103.942 Y92.735 E.02999
G1 X103.622 Y92.958 E.01244
G1 X102.771 Y92.106 E.0384
G1 X102.539 Y92.197 E.00795
G1 X102.415 Y92.293 E.005
G1 X103.331 Y93.209 E.0413
G1 X103.064 Y93.484 E.01222
G1 X102.172 Y92.592 E.04022
G1 X102.088 Y92.839 E.00832
G1 X102.071 Y93.033 E.00621
G1 X102.834 Y93.796 E.03441
G1 X102.719 Y93.951 E.00615
G1 X102.628 Y94.133 E.00649
G1 X102.07 Y93.575 E.02516
G1 X102.07 Y94.117 E.01728
G1 X102.447 Y94.494 E.017
G1 X102.252 Y94.841 E.01269
G1 X101.9 Y94.489 E.01587
;WIPE_START
G1 F8640
G1 X102.252 Y94.841 E-.11494
G1 X102.447 Y94.494 E-.09191
G1 X102.07 Y94.117 E-.12311
G1 X102.07 Y93.575 E-.12515
G1 X102.628 Y94.133 E-.18221
G1 X102.719 Y93.951 E-.04698
G1 X102.834 Y93.796 E-.04456
G1 X102.616 Y93.578 E-.07114
;WIPE_END
G1 Z.6 F10800
G1 X147.229 Y91.931
G1 Z.2
M73 C14
G1 E.8 F2100
;WIDTH:0.42884
G1 F1200
G1 X147.724 Y92.426 E.02246
G1 X147.802 Y92.537 E.00435
G1 X147.87 Y92.683 E.00517
G1 X147.912 Y92.839 E.00518
G1 X147.93 Y93.178 E.01089
G1 X146.829 Y92.077 E.04996
G1 X146.277 Y92.07 E.01771
G1 X147.93 Y93.723 E.07502
G1 X147.93 Y94.269 E.01752
G1 X145.731 Y92.07 E.09979
G1 X145.364 Y92.07 E.01178
G1 X145.218 Y92.103 E.0048
G1 X145.631 Y92.516 E.01874
G1 X145.979 Y92.672 E.01224
G1 X146.478 Y93.008 E.0193
G1 X146.844 Y93.336 E.01577
G1 X147.201 Y93.762 E.01784
G1 X147.518 Y94.277 E.01941
G1 X147.602 Y94.486 E.00723
G1 X148.092 Y94.976 E.02224
;WIPE_START
G1 F8640
G1 X147.602 Y94.486 E-.16001
G1 X147.518 Y94.277 E-.05201
G1 X147.201 Y93.762 E-.13964
G1 X146.844 Y93.336 E-.12834
G1 X146.478 Y93.008 E-.11348
G1 X145.979 Y92.672 E-.13891
G1 X145.712 Y92.552 E-.06761
;WIPE_END
G1 Z.6 F10800
G1 X148.1 Y97.225
G1 Z.2
G1 E.8 F2100
;WIDTH:0.420308
G1 F1200
G1 X147.859 Y96.983 E.01072
G1 X147.699 Y97.357 E.01276
G1 X147.93 Y97.589 E.01027
G1 X147.93 Y98.122 E.01673
G1 X147.546 Y97.738 E.01704
G1 X147.352 Y98.077 E.01226
G1 X147.93 Y98.656 E.02567
G1 X147.93 Y99.19 E.01676
G1 X147.132 Y98.391 E.03544
G1 X146.894 Y98.687 E.01192
G1 X147.93 Y99.723 E.04598
G1 X147.93 Y100.257 E.01676
G1 X146.614 Y98.941 E.0584
G1 X146.44 Y99.099 E.00738
G1 X146.319 Y99.179 E.00455
G1 X147.93 Y100.791 E.07152
G1 X147.93 Y101.325 E.01676
G1 X145.999 Y99.393 E.08572
G1 X145.634 Y99.562 E.01262
G1 X147.93 Y101.858 E.10189
G1 X147.93 Y102.392 E.01676
G1 X145.251 Y99.713 E.11889
G1 X144.83 Y99.826 E.01368
G1 X147.93 Y102.926 E.13757
G1 X147.93 Y103.459 E.01673
G1 X144.359 Y99.888 E.15847
G1 X144.178 Y99.906 E.00571
G1 X143.825 Y99.888 E.01109
G1 X147.93 Y103.993 E.18217
G1 X147.93 Y104.527 E.01676
G1 X142.967 Y99.564 E.22025
;WIPE_START
G1 F8640
G1 X145.417 Y102.014 E-.8
;WIPE_END
G1 Z.6 F10800
G1 X143.275 Y92.4
G1 Z.2
G1 E.8 F2100
G1 F1200
G1 X142.945 Y92.07 E.01464
G1 X142.411 Y92.07 E.01676
G1 X142.763 Y92.421 E.0156
G1 X142.376 Y92.568 E.01299
G1 X141.878 Y92.07 E.0221
G1 X141.344 Y92.07 E.01676
G1 X142.037 Y92.763 E.03075
G1 X141.895 Y92.844 E.00513
G1 X141.722 Y92.981 E.00692
G1 X140.81 Y92.07 E.04045
G1 X140.277 Y92.07 E.01673
G1 X141.427 Y93.22 E.05103
G1 X141.165 Y93.492 E.01185
G1 X139.743 Y92.07 E.06311
G1 X139.209 Y92.07 E.01676
G1 X140.936 Y93.797 E.07664
G1 X140.794 Y93.99 E.00752
G1 X140.726 Y94.12 E.0046
G1 X138.675 Y92.07 E.091
