( Made using CamBam - http://www.cambam.co.uk )
( Reagenzgglaesser 12/21/2020 6:01:05 PM )
( T6 : 6.0 )
G21 G90 G64 G40
G0 Z3.0
( T6 : 6.0 )
T6 M6
( Bohrungen )
G17
M3 S1000
G0 X30.4 Y7.0
G0 Z1.0
G1 F300.0 Z-1.0
G2 F800.0 X29.8 Y6.65359 I-0.4 J0.0
G2 Y7.34641 I0.2 J0.34641
G2 X30.4 Y7.0 I0.2 J-0.34641
G1 F300.0 X32.8
G2 F800.0 X28.6 Y4.57513 I-2.8 J0.0
G2 Y9.42487 I1.4 J2.42487
G2 X32.8 Y7.0 I1.4 J-2.42487
G1 F300.0 X35.2
G2 F800.0 X27.4 Y2.49667 I-5.2 J0.0
G2 Y11.50333 I2.6 J4.50333
G2 X35.2 Y7.0 I2.6 J-4.50333
G0 Z3.0
G0 X30.4
G0 Z0.0
G1 F300.0 Z-2.0
G2 F800.0 X29.8 Y6.65359 I-0.4 J0.0
G2 Y7.34641 I0.2 J0.34641
G2 X30.4 Y7.0 I0.2 J-0.34641
G1 F300.0 X32.8
G2 F800.0 X28.6 Y4.57513 I-2.8 J0.0
G2 Y9.42487 I1.4 J2.42487
G2 X32.8 Y7.0 I1.4 J-2.42487
G1 F300.0 X35.2
G2 F800.0 X27.4 Y2.49667 I-5.2 J0.0
G2 Y11.50333 I2.6 J4.50333
G2 X35.2 Y7.0 I2.6 J-4.50333
G0 Z3.0
G0 X30.4
G0 Z-1.0
G1 F300.0 Z-3.0
G2 F800.0 X29.8 Y6.65359 I-0.4 J0.0
G2 Y7.34641 I0.2 J0.34641
G2 X30.4 Y7.0 I0.2 J-0.34641
G1 F300.0 X32.8
G2 F800.0 X28.6 Y4.57513 I-2.8 J0.0
G2 Y9.42487 I1.4 J2.42487
G2 X32.8 Y7.0 I1.4 J-2.42487
G1 F300.0 X35.2
G2 F800.0 X27.4 Y2.49667 I-5.2 J0.0
G2 Y11.50333 I2.6 J4.50333
G2 X35.2 Y7.0 I2.6 J-4.50333
G0 Z3.0
G0 X30.4
G0 Z-2.0
G1 F300.0 Z-4.0
G2 F800.0 X29.8 Y6.65359 I-0.4 J0.0
G2 Y7.34641 I0.2 J0.34641
G2 X30.4 Y7.0 I0.2 J-0.34641
G1 F300.0 X32.8
G2 F800.0 X28.6 Y4.57513 I-2.8 J0.0
G2 Y9.42487 I1.4 J2.42487
G2 X32.8 Y7.0 I1.4 J-2.42487
G1 F300.0 X35.2
G2 F800.0 X27.4 Y2.49667 I-5.2 J0.0
G2 Y11.50333 I2.6 J4.50333
G2 X35.2 Y7.0 I2.6 J-4.50333
G0 Z3.0
G0 X30.4
G0 Z-3.0
G1 F300.0 Z-5.0
G2 F800.0 X29.8 Y6.65359 I-0.4 J0.0
G2 Y7.34641 I0.2 J0.34641
G2 X30.4 Y7.0 I0.2 J-0.34641
G1 F300.0 X32.8
G2 F800.0 X28.6 Y4.57513 I-2.8 J0.0
G2 Y9.42487 I1.4 J2.42487
G2 X32.8 Y7.0 I1.4 J-2.42487
G1 F300.0 X35.2
G2 F800.0 X27.4 Y2.49667 I-5.2 J0.0
G2 Y11.50333 I2.6 J4.50333
G2 X35.2 Y7.0 I2.6 J-4.50333
G0 Z3.0
G0 X30.4
G0 Z-4.0
G1 F300.0 Z-6.0
G2 F800.0 X29.8 Y6.65359 I-0.4 J0.0
G2 Y7.34641 I0.2 J0.34641
G2 X30.4 Y7.0 I0.2 J-0.34641
G1 F300.0 X32.8
G2 F800.0 X28.6 Y4.57513 I-2.8 J0.0
G2 Y9.42487 I1.4 J2.42487
G2 X32.8 Y7.0 I1.4 J-2.42487
G1 F300.0 X35.2
G2 F800.0 X27.4 Y2.49667 I-5.2 J0.0
G2 Y11.50333 I2.6 J4.50333
G2 X35.2 Y7.0 I2.6 J-4.50333
G0 Z3.0
G0 X30.4
G0 Z-5.0
G1 F300.0 Z-7.0
G2 F800.0 X29.8 Y6.65359 I-0.4 J0.0
G2 Y7.34641 I0.2 J0.34641
G2 X30.4 Y7.0 I0.2 J-0.34641
G1 F300.0 X32.8
G2 F800.0 X28.6 Y4.57513 I-2.8 J0.0
G2 Y9.42487 I1.4 J2.42487
G2 X32.8 Y7.0 I1.4 J-2.42487
G1 F300.0 X35.2
G2 F800.0 X27.4 Y2.49667 I-5.2 J0.0
G2 Y11.50333 I2.6 J4.50333
G2 X35.2 Y7.0 I2.6 J-4.50333
G0 Z3.0
G0 X30.4
G0 Z-6.0
G1 F300.0 Z-8.0
G2 F800.0 X29.8 Y6.65359 I-0.4 J0.0
G2 Y7.34641 I0.2 J0.34641
G2 X30.4 Y7.0 I0.2 J-0.34641
G1 F300.0 X32.8
G2 F800.0 X28.6 Y4.57513 I-2.8 J0.0
G2 Y9.42487 I1.4 J2.42487
G2 X32.8 Y7.0 I1.4 J-2.42487
G1 F300.0 X35.2
G2 F800.0 X27.4 Y2.49667 I-5.2 J0.0
G2 Y11.50333 I2.6 J4.50333
G2 X35.2 Y7.0 I2.6 J-4.50333
G0 Z3.0
G0 X30.4
G0 Z-7.0
G1 F300.0 Z-9.0
G2 F800.0 X29.8 Y6.65359 I-0.4 J0.0
G2 Y7.34641 I0.2 J0.34641
G2 X30.4 Y7.0 I0.2 J-0.34641
G1 F300.0 X32.8
G2 F800.0 X28.6 Y4.57513 I-2.8 J0.0
G2 Y9.42487 I1.4 J2.42487
G2 X32.8 Y7.0 I1.4 J-2.42487
G1 F300.0 X35.2
G2 F800.0 X27.4 Y2.49667 I-5.2 J0.0
G2 Y11.50333 I2.6 J4.50333
G2 X35.2 Y7.0 I2.6 J-4.50333
G0 Z3.0
G0 X30.4
G0 Z-8.0
G1 F300.0 Z-10.0
G2 F800.0 X29.8 Y6.65359 I-0.4 J0.0
G2 Y7.34641 I0.2 J0.34641
G2 X30.4 Y7.0 I0.2 J-0.34641
G1 F300.0 X32.8
G2 F800.0 X28.6 Y4.57513 I-2.8 J0.0
G2 Y9.42487 I1.4 J2.42487
G2 X32.8 Y7.0 I1.4 J-2.42487
G1 F300.0 X35.2
G2 F800.0 X27.4 Y2.49667 I-5.2 J0.0
G2 Y11.50333 I2.6 J4.50333
G2 X35.2 Y7.0 I2.6 J-4.50333
G0 Z3.0
G0 X30.4
G0 Z-9.0
G1 F300.0 Z-11.0
G2 F800.0 X29.8 Y6.65359 I-0.4 J0.0
G2 Y7.34641 I0.2 J0.34641
G2 X30.4 Y7.0 I0.2 J-0.34641
G1 F300.0 X32.8
G2 F800.0 X28.6 Y4.57513 I-2.8 J0.0
G2 Y9.42487 I1.4 J2.42487
G2 X32.8 Y7.0 I1.4 J-2.42487
G1 F300.0 X35.2
G2 F800.0 X27.4 Y2.49667 I-5.2 J0.0
G2 Y11.50333 I2.6 J4.50333
G2 X35.2 Y7.0 I2.6 J-4.50333
G0 Z3.0
G0 X30.4
G0 Z-10.0
G1 F300.0 Z-12.0
G2 F800.0 X29.8 Y6.65359 I-0.4 J0.0
G2 Y7.34641 I0.2 J0.34641
G2 X30.4 Y7.0 I0.2 J-0.34641
G1 F300.0 X32.8
G2 F800.0 X28.6 Y4.57513 I-2.8 J0.0
G2 Y9.42487 I1.4 J2.42487
G2 X32.8 Y7.0 I1.4 J-2.42487
G1 F300.0 X35.2
G2 F800.0 X27.4 Y2.49667 I-5.2 J0.0
G2 Y11.50333 I2.6 J4.50333
G2 X35.2 Y7.0 I2.6 J-4.50333
G0 Z3.0
G0 X30.4
G0 Z-11.0
G1 F300.0 Z-13.0
G2 F800.0 X29.8 Y6.65359 I-0.4 J0.0
G2 Y7.34641 I0.2 J0.34641
G2 X30.4 Y7.0 I0.2 J-0.34641
G1 F300.0 X32.8
G2 F800.0 X28.6 Y4.57513 I-2.8 J0.0
G2 Y9.42487 I1.4 J2.42487
G2 X32.8 Y7.0 I1.4 J-2.42487
G1 F300.0 X35.2
G2 F800.0 X27.4 Y2.49667 I-5.2 J0.0
G2 Y11.50333 I2.6 J4.50333
G2 X35.2 Y7.0 I2.6 J-4.50333
G0 Z3.0
G0 X30.4
G0 Z-12.0
G1 F300.0 Z-14.0
G2 F800.0 X29.8 Y6.65359 I-0.4 J0.0
G2 Y7.34641 I0.2 J0.34641
G2 X30.4 Y7.0 I0.2 J-0.34641
G1 F300.0 X32.8
G2 F800.0 X28.6 Y4.57513 I-2.8 J0.0
G2 Y9.42487 I1.4 J2.42487
G2 X32.8 Y7.0 I1.4 J-2.42487
G1 F300.0 X35.2
G2 F800.0 X27.4 Y2.49667 I-5.2 J0.0
G2 Y11.50333 I2.6 J4.50333
G2 X35.2 Y7.0 I2.6 J-4.50333
G0 Z3.0
G0 X30.4
G0 Z-13.0
G1 F300.0 Z-15.0
G2 F800.0 X29.8 Y6.65359 I-0.4 J0.0
G2 Y7.34641 I0.2 J0.34641
G2 X30.4 Y7.0 I0.2 J-0.34641
G1 F300.0 X32.8
G2 F800.0 X28.6 Y4.57513 I-2.8 J0.0
G2 Y9.42487 I1.4 J2.42487
G2 X32.8 Y7.0 I1.4 J-2.42487
G1 F300.0 X35.2
G2 F800.0 X27.4 Y2.49667 I-5.2 J0.0
G2 Y11.50333 I2.6 J4.50333
G2 X35.2 Y7.0 I2.6 J-4.50333
G0 Z3.0
G0 X30.4
G0 Z-14.0
G1 F300.0 Z-16.0
G2 F800.0 X29.8 Y6.65359 I-0.4 J0.0
G2 Y7.34641 I0.2 J0.34641
G2 X30.4 Y7.0 I0.2 J-0.34641
G1 F300.0 X32.8
G2 F800.0 X28.6 Y4.57513 I-2.8 J0.0
G2 Y9.42487 I1.4 J2.42487
G2 X32.8 Y7.0 I1.4 J-2.42487
G1 F300.0 X35.2
G2 F800.0 X27.4 Y2.49667 I-5.2 J0.0
G2 Y11.50333 I2.6 J4.50333
G2 X35.2 Y7.0 I2.6 J-4.50333
G0 Z3.0
G0 X30.4
G0 Z-15.0
G1 F300.0 Z-17.0
G2 F800.0 X29.8 Y6.65359 I-0.4 J0.0
G2 Y7.34641 I0.2 J0.34641
G2 X30.4 Y7.0 I0.2 J-0.34641
G1 F300.0 X32.8
G2 F800.0 X28.6 Y4.57513 I-2.8 J0.0
G2 Y9.42487 I1.4 J2.42487
G2 X32.8 Y7.0 I1.4 J-2.42487
G1 F300.0 X35.2
G2 F800.0 X27.4 Y2.49667 I-5.2 J0.0
G2 Y11.50333 I2.6 J4.50333
G2 X35.2 Y7.0 I2.6 J-4.50333
G0 Z3.0
G0 X30.4
G0 Z-16.0
G1 F300.0 Z-18.0
G2 F800.0 X29.8 Y6.65359 I-0.4 J0.0
G2 Y7.34641 I0.2 J0.34641
G2 X30.4 Y7.0 I0.2 J-0.34641
G1 F300.0 X32.8
G2 F800.0 X28.6 Y4.57513 I-2.8 J0.0
G2 Y9.42487 I1.4 J2.42487
G2 X32.8 Y7.0 I1.4 J-2.42487
G1 F300.0 X35.2
G2 F800.0 X27.4 Y2.49667 I-5.2 J0.0
G2 Y11.50333 I2.6 J4.50333
G2 X35.2 Y7.0 I2.6 J-4.50333
G0 Z3.0
G0 X30.4
G0 Z-17.0
G1 F300.0 Z-19.0
G2 F800.0 X29.8 Y6.65359 I-0.4 J0.0
G2 Y7.34641 I0.2 J0.34641
G2 X30.4 Y7.0 I0.2 J-0.34641
G1 F300.0 X32.8
G2 F800.0 X28.6 Y4.57513 I-2.8 J0.0
G2 Y9.42487 I1.4 J2.42487
G2 X32.8 Y7.0 I1.4 J-2.42487
G1 F300.0 X35.2
G2 F800.0 X27.4 Y2.49667 I-5.2 J0.0
G2 Y11.50333 I2.6 J4.50333
G2 X35.2 Y7.0 I2.6 J-4.50333
G0 Z3.0
G0 X30.4
G0 Z-18.0
G1 F300.0 Z-20.0
G2 F800.0 X29.8 Y6.65359 I-0.4 J0.0
G2 Y7.34641 I0.2 J0.34641
G2 X30.4 Y7.0 I0.2 J-0.34641
G1 F300.0 X32.8
G2 F800.0 X28.6 Y4.57513 I-2.8 J0.0
G2 Y9.42487 I1.4 J2.42487
G2 X32.8 Y7.0 I1.4 J-2.42487
G1 F300.0 X35.2
G2 F800.0 X27.4 Y2.49667 I-5.2 J0.0
G2 Y11.50333 I2.6 J4.50333
G2 X35.2 Y7.0 I2.6 J-4.50333
G0 Z3.0
G0 X30.4
G0 Z-19.0
G1 F300.0 Z-21.0
G2 F800.0 X29.8 Y6.65359 I-0.4 J0.0
G2 Y7.34641 I0.2 J0.34641
G2 X30.4 Y7.0 I0.2 J-0.34641
G1 F300.0 X32.8
G2 F800.0 X28.6 Y4.57513 I-2.8 J0.0
G2 Y9.42487 I1.4 J2.42487
G2 X32.8 Y7.0 I1.4 J-2.42487
G1 F300.0 X35.2
G2 F800.0 X27.4 Y2.49667 I-5.2 J0.0
G2 Y11.50333 I2.6 J4.50333
G2 X35.2 Y7.0 I2.6 J-4.50333
G0 Z3.0
G0 X30.4
G0 Z-20.0
G1 F300.0 Z-22.0
G2 F800.0 X29.8 Y6.65359 I-0.4 J0.0
G2 Y7.34641 I0.2 J0.34641
G2 X30.4 Y7.0 I0.2 J-0.34641
G1 F300.0 X32.8
G2 F800.0 X28.6 Y4.57513 I-2.8 J0.0
G2 Y9.42487 I1.4 J2.42487
G2 X32.8 Y7.0 I1.4 J-2.42487
G1 F300.0 X35.2
G2 F800.0 X27.4 Y2.49667 I-5.2 J0.0
G2 Y11.50333 I2.6 J4.50333
G2 X35.2 Y7.0 I2.6 J-4.50333
G0 Z3.0
G0 X30.4
G0 Z-21.0
G1 F300.0 Z-23.0
G2 F800.0 X29.8 Y6.65359 I-0.4 J0.0
G2 Y7.34641 I0.2 J0.34641
G2 X30.4 Y7.0 I0.2 J-0.34641
G1 F300.0 X32.8
G2 F800.0 X28.6 Y4.57513 I-2.8 J0.0
G2 Y9.42487 I1.4 J2.42487
G2 X32.8 Y7.0 I1.4 J-2.42487
G1 F300.0 X35.2
G2 F800.0 X27.4 Y2.49667 I-5.2 J0.0
G2 Y11.50333 I2.6 J4.50333
G2 X35.2 Y7.0 I2.6 J-4.50333
G0 Z3.0
G0 X30.4
G0 Z-22.0
G1 F300.0 Z-24.0
G2 F800.0 X29.8 Y6.65359 I-0.4 J0.0
G2 Y7.34641 I0.2 J0.34641
G2 X30.4 Y7.0 I0.2 J-0.34641
G1 F300.0 X32.8
G2 F800.0 X28.6 Y4.57513 I-2.8 J0.0
G2 Y9.42487 I1.4 J2.42487
G2 X32.8 Y7.0 I1.4 J-2.42487
G1 F300.0 X35.2
G2 F800.0 X27.4 Y2.49667 I-5.2 J0.0
G2 Y11.50333 I2.6 J4.50333
G2 X35.2 Y7.0 I2.6 J-4.50333
G0 Z3.0
G0 X30.4
G0 Z-23.0
G1 F300.0 Z-25.0
G2 F800.0 X29.8 Y6.65359 I-0.4 J0.0
G2 Y7.34641 I0.2 J0.34641
G2 X30.4 Y7.0 I0.2 J-0.34641
G1 F300.0 X32.8
G2 F800.0 X28.6 Y4.57513 I-2.8 J0.0
G2 Y9.42487 I1.4 J2.42487
G2 X32.8 Y7.0 I1.4 J-2.42487
G1 F300.0 X35.2
G2 F800.0 X27.4 Y2.49667 I-5.2 J0.0
G2 Y11.50333 I2.6 J4.50333
G2 X35.2 Y7.0 I2.6 J-4.50333
G0 Z3.0
G0 X30.4
G0 Z-24.0
G1 F300.0 Z-26.0
G2 F800.0 X29.8 Y6.65359 I-0.4 J0.0
G2 Y7.34641 I0.2 J0.34641
G2 X30.4 Y7.0 I0.2 J-0.34641
G1 F300.0 X32.8
G2 F800.0 X28.6 Y4.57513 I-2.8 J0.0
G2 Y9.42487 I1.4 J2.42487
G2 X32.8 Y7.0 I1.4 J-2.42487
G1 F300.0 X35.2
G2 F800.0 X27.4 Y2.49667 I-5.2 J0.0
G2 Y11.50333 I2.6 J4.50333
G2 X35.2 Y7.0 I2.6 J-4.50333
G0 Z3.0
G0 X30.4
G0 Z-25.0
G1 F300.0 Z-27.0
G2 F800.0 X29.8 Y6.65359 I-0.4 J0.0
G2 Y7.34641 I0.2 J0.34641
G2 X30.4 Y7.0 I0.2 J-0.34641
G1 F300.0 X32.8
G2 F800.0 X28.6 Y4.57513 I-2.8 J0.0
G2 Y9.42487 I1.4 J2.42487
G2 X32.8 Y7.0 I1.4 J-2.42487
G1 F300.0 X35.2
G2 F800.0 X27.4 Y2.49667 I-5.2 J0.0
G2 Y11.50333 I2.6 J4.50333
G2 X35.2 Y7.0 I2.6 J-4.50333
G0 Z3.0
G0 X30.4
G0 Z-26.0
G1 F300.0 Z-28.0
G2 F800.0 X29.8 Y6.65359 I-0.4 J0.0
G2 Y7.34641 I0.2 J0.34641
G2 X30.4 Y7.0 I0.2 J-0.34641
G1 F300.0 X32.8
G2 F800.0 X28.6 Y4.57513 I-2.8 J0.0
G2 Y9.42487 I1.4 J2.42487
G2 X32.8 Y7.0 I1.4 J-2.42487
G1 F300.0 X35.2
G2 F800.0 X27.4 Y2.49667 I-5.2 J0.0
G2 Y11.50333 I2.6 J4.50333
G2 X35.2 Y7.0 I2.6 J-4.50333
G0 Z3.0
G0 X30.4
G0 Z-27.0
G1 F300.0 Z-29.0
G2 F800.0 X29.8 Y6.65359 I-0.4 J0.0
G2 Y7.34641 I0.2 J0.34641
G2 X30.4 Y7.0 I0.2 J-0.34641
G1 F300.0 X32.8
G2 F800.0 X28.6 Y4.57513 I-2.8 J0.0
G2 Y9.42487 I1.4 J2.42487
G2 X32.8 Y7.0 I1.4 J-2.42487
G1 F300.0 X35.2
G2 F800.0 X27.4 Y2.49667 I-5.2 J0.0
G2 Y11.50333 I2.6 J4.50333
G2 X35.2 Y7.0 I2.6 J-4.50333
G0 Z3.0
G0 X30.4
G0 Z-28.0
G1 F300.0 Z-30.0
G2 F800.0 X29.8 Y6.65359 I-0.4 J0.0
G2 Y7.34641 I0.2 J0.34641
G2 X30.4 Y7.0 I0.2 J-0.34641
G1 F300.0 X32.8
G2 F800.0 X28.6 Y4.57513 I-2.8 J0.0
G2 Y9.42487 I1.4 J2.42487
G2 X32.8 Y7.0 I1.4 J-2.42487
G1 F300.0 X35.2
G2 F800.0 X27.4 Y2.49667 I-5.2 J0.0
G2 Y11.50333 I2.6 J4.50333
G2 X35.2 Y7.0 I2.6 J-4.50333
G0 Z3.0
G0 X54.6734 Y-6.76907
G0 Z1.0
G1 F300.0 Z-1.0
G2 F800.0 X54.8 Y-6.65359 I0.3266 J-0.23093
G2 X55.4 Y-7.0 I0.2 J-0.34641
G2 X54.8 Y-7.34641 I-0.4 J0.0
G2 X54.6734 Y-6.76907 I0.2 J0.34641
G1 F300.0 X52.71377 Y-5.38347
G2 F800.0 X53.6 Y-4.57513 I2.28623 J-1.61653
G2 X57.8 Y-7.0 I1.4 J-2.42487
G2 X53.6 Y-9.42487 I-2.8 J0.0
G2 X52.71377 Y-5.38347 I1.4 J2.42487
G1 F300.0 X50.75415 Y-3.99788
G2 F800.0 X52.4 Y-2.49667 I4.24585 J-3.00212
G2 X60.2 Y-7.0 I2.6 J-4.50333
G2 X52.4 Y-11.50333 I-5.2 J0.0
G2 X50.75415 Y-3.99788 I2.6 J4.50333
G0 Z3.0
G0 X54.6734 Y-6.76907
G0 Z0.0
G1 F300.0 Z-2.0
G2 F800.0 X54.8 Y-6.65359 I0.3266 J-0.23093
G2 X55.4 Y-7.0 I0.2 J-0.34641
G2 X54.8 Y-7.34641 I-0.4 J0.0
G2 X54.6734 Y-6.76907 I0.2 J0.34641
G1 F300.0 X52.71377 Y-5.38347
G2 F800.0 X53.6 Y-4.57513 I2.28623 J-1.61653
G2 X57.8 Y-7.0 I1.4 J-2.42487
G2 X53.6 Y-9.42487 I-2.8 J0.0
G2 X52.71377 Y-5.38347 I1.4 J2.42487
G1 F300.0 X50.75415 Y-3.99788
G2 F800.0 X52.4 Y-2.49667 I4.24585 J-3.00212
G2 X60.2 Y-7.0 I2.6 J-4.50333
G2 X52.4 Y-11.50333 I-5.2 J0.0
G2 X50.75415 Y-3.99788 I2.6 J4.50333
G0 Z3.0
G0 X54.6734 Y-6.76907
G0 Z-1.0
G1 F300.0 Z-3.0
G2 F800.0 X54.8 Y-6.65359 I0.3266 J-0.23093
G2 X55.4 Y-7.0 I0.2 J-0.34641
G2 X54.8 Y-7.34641 I-0.4 J0.0
G2 X54.6734 Y-6.76907 I0.2 J0.34641
G1 F300.0 X52.71377 Y-5.38347
G2 F800.0 X53.6 Y-4.57513 I2.28623 J-1.61653
G2 X57.8 Y-7.0 I1.4 J-2.42487
G2 X53.6 Y-9.42487 I-2.8 J0.0
G2 X52.71377 Y-5.38347 I1.4 J2.42487
G1 F300.0 X50.75415 Y-3.99788
G2 F800.0 X52.4 Y-2.49667 I4.24585 J-3.00212
G2 X60.2 Y-7.0 I2.6 J-4.50333
G2 X52.4 Y-11.50333 I-5.2 J0.0
G2 X50.75415 Y-3.99788 I2.6 J4.50333
G0 Z3.0
G0 X54.6734 Y-6.76907
G0 Z-2.0
G1 F300.0 Z-4.0
G2 F800.0 X54.8 Y-6.65359 I0.3266 J-0.23093
G2 X55.4 Y-7.0 I0.2 J-0.34641
G2 X54.8 Y-7.34641 I-0.4 J0.0
G2 X54.6734 Y-6.76907 I0.2 J0.34641
G1 F300.0 X52.71377 Y-5.38347
G2 F800.0 X53.6 Y-4.57513 I2.28623 J-1.61653
G2 X57.8 Y-7.0 I1.4 J-2.42487
G2 X53.6 Y-9.42487 I-2.8 J0.0
G2 X52.71377 Y-5.38347 I1.4 J2.42487
G1 F300.0 X50.75415 Y-3.99788
G2 F800.0 X52.4 Y-2.49667 I4.24585 J-3.00212
G2 X60.2 Y-7.0 I2.6 J-4.50333
G2 X52.4 Y-11.50333 I-5.2 J0.0
G2 X50.75415 Y-3.99788 I2.6 J4.50333
G0 Z3.0
G0 X54.6734 Y-6.76907
G0 Z-3.0
G1 F300.0 Z-5.0
G2 F800.0 X54.8 Y-6.65359 I0.3266 J-0.23093
G2 X55.4 Y-7.0 I0.2 J-0.34641
G2 X54.8 Y-7.34641 I-0.4 J0.0
G2 X54.6734 Y-6.76907 I0.2 J0.34641
G1 F300.0 X52.71377 Y-5.38347
G2 F800.0 X53.6 Y-4.57513 I2.28623 J-1.61653
G2 X57.8 Y-7.0 I1.4 J-2.42487
G2 X53.6 Y-9.42487 I-2.8 J0.0
G2 X52.71377 Y-5.38347 I1.4 J2.42487
G1 F300.0 X50.75415 Y-3.99788
G2 F800.0 X52.4 Y-2.49667 I4.24585 J-3.00212
G2 X60.2 Y-7.0 I2.6 J-4.50333
G2 X52.4 Y-11.50333 I-5.2 J0.0
G2 X50.75415 Y-3.99788 I2.6 J4.50333
G0 Z3.0
G0 X54.6734 Y-6.76907
G0 Z-4.0
G1 F300.0 Z-6.0
G2 F800.0 X54.8 Y-6.65359 I0.3266 J-0.23093
G2 X55.4 Y-7.0 I0.2 J-0.34641
G2 X54.8 Y-7.34641 I-0.4 J0.0
G2 X54.6734 Y-6.76907 I0.2 J0.34641
G1 F300.0 X52.71377 Y-5.38347
G2 F800.0 X53.6 Y-4.57513 I2.28623 J-1.61653
G2 X57.8 Y-7.0 I1.4 J-2.42487
G2 X53.6 Y-9.42487 I-2.8 J0.0
G2 X52.71377 Y-5.38347 I1.4 J2.42487
G1 F300.0 X50.75415 Y-3.99788
G2 F800.0 X52.4 Y-2.49667 I4.24585 J-3.00212
G2 X60.2 Y-7.0 I2.6 J-4.50333
G2 X52.4 Y-11.50333 I-5.2 J0.0
G2 X50.75415 Y-3.99788 I2.6 J4.50333
G0 Z3.0
G0 X54.6734 Y-6.76907
G0 Z-5.0
G1 F300.0 Z-7.0
G2 F800.0 X54.8 Y-6.65359 I0.3266 J-0.23093
G2 X55.4 Y-7.0 I0.2 J-0.34641
G2 X54.8 Y-7.34641 I-0.4 J0.0
G2 X54.6734 Y-6.76907 I0.2 J0.34641
G1 F300.0 X52.71377 Y-5.38347
G2 F800.0 X53.6 Y-4.57513 I2.28623 J-1.61653
G2 X57.8 Y-7.0 I1.4 J-2.42487
G2 X53.6 Y-9.42487 I-2.8 J0.0
G2 X52.71377 Y-5.38347 I1.4 J2.42487
G1 F300.0 X50.75415 Y-3.99788
G2 F800.0 X52.4 Y-2.49667 I4.24585 J-3.00212
G2 X60.2 Y-7.0 I2.6 J-4.50333
G2 X52.4 Y-11.50333 I-5.2 J0.0
G2 X50.75415 Y-3.99788 I2.6 J4.50333
G0 Z3.0
G0 X54.6734 Y-6.76907
G0 Z-6.0
G1 F300.0 Z-8.0
G2 F800.0 X54.8 Y-6.65359 I0.3266 J-0.23093
G2 X55.4 Y-7.0 I0.2 J-0.34641
G2 X54.8 Y-7.34641 I-0.4 J0.0
G2 X54.6734 Y-6.76907 I0.2 J0.34641
G1 F300.0 X52.71377 Y-5.38347
G2 F800.0 X53.6 Y-4.57513 I2.28623 J-1.61653
G2 X57.8 Y-7.0 I1.4 J-2.42487
G2 X53.6 Y-9.42487 I-2.8 J0.0
G2 X52.71377 Y-5.38347 I1.4 J2.42487
G1 F300.0 X50.75415 Y-3.99788
G2 F800.0 X52.4 Y-2.49667 I4.24585 J-3.00212
G2 X60.2 Y-7.0 I2.6 J-4.50333
G2 X52.4 Y-11.50333 I-5.2 J0.0
G2 X50.75415 Y-3.99788 I2.6 J4.50333
G0 Z3.0
G0 X54.6734 Y-6.76907
G0 Z-7.0
G1 F300.0 Z-9.0
G2 F800.0 X54.8 Y-6.65359 I0.3266 J-0.23093
G2 X55.4 Y-7.0 I0.2 J-0.34641
G2 X54.8 Y-7.34641 I-0.4 J0.0
G2 X54.6734 Y-6.76907 I0.2 J0.34641
G1 F300.0 X52.71377 Y-5.38347
G2 F800.0 X53.6 Y-4.57513 I2.28623 J-1.61653
G2 X57.8 Y-7.0 I1.4 J-2.42487
G2 X53.6 Y-9.42487 I-2.8 J0.0
G2 X52.71377 Y-5.38347 I1.4 J2.42487
G1 F300.0 X50.75415 Y-3.99788
G2 F800.0 X52.4 Y-2.49667 I4.24585 J-3.00212
G2 X60.2 Y-7.0 I2.6 J-4.50333
G2 X52.4 Y-11.50333 I-5.2 J0.0
G2 X50.75415 Y-3.99788 I2.6 J4.50333
G0 Z3.0
G0 X54.6734 Y-6.76907
G0 Z-8.0
G1 F300.0 Z-10.0
G2 F800.0 X54.8 Y-6.65359 I0.3266 J-0.23093
G2 X55.4 Y-7.0 I0.2 J-0.34641
G2 X54.8 Y-7.34641 I-0.4 J0.0
G2 X54.6734 Y-6.76907 I0.2 J0.34641
G1 F300.0 X52.71377 Y-5.38347
G2 F800.0 X53.6 Y-4.57513 I2.28623 J-1.61653
G2 X57.8 Y-7.0 I1.4 J-2.42487
G2 X53.6 Y-9.42487 I-2.8 J0.0
G2 X52.71377 Y-5.38347 I1.4 J2.42487
G1 F300.0 X50.75415 Y-3.99788
G2 F800.0 X52.4 Y-2.49667 I4.24585 J-3.00212
G2 X60.2 Y-7.0 I2.6 J-4.50333
G2 X52.4 Y-11.50333 I-5.2 J0.0
G2 X50.75415 Y-3.99788 I2.6 J4.50333
G0 Z3.0
G0 X54.6734 Y-6.76907
G0 Z-9.0
G1 F300.0 Z-11.0
G2 F800.0 X54.8 Y-6.65359 I0.3266 J-0.23093
G2 X55.4 Y-7.0 I0.2 J-0.34641
G2 X54.8 Y-7.34641 I-0.4 J0.0
G2 X54.6734 Y-6.76907 I0.2 J0.34641
G1 F300.0 X52.71377 Y-5.38347
G2 F800.0 X53.6 Y-4.57513 I2.28623 J-1.61653
G2 X57.8 Y-7.0 I1.4 J-2.42487
G2 X53.6 Y-9.42487 I-2.8 J0.0
G2 X52.71377 Y-5.38347 I1.4 J2.42487
G1 F300.0 X50.75415 Y-3.99788
G2 F800.0 X52.4 Y-2.49667 I4.24585 J-3.00212
G2 X60.2 Y-7.0 I2.6 J-4.50333
G2 X52.4 Y-11.50333 I-5.2 J0.0
G2 X50.75415 Y-3.99788 I2.6 J4.50333
G0 Z3.0
G0 X54.6734 Y-6.76907
G0 Z-10.0
G1 F300.0 Z-12.0
G2 F800.0 X54.8 Y-6.65359 I0.3266 J-0.23093
G2 X55.4 Y-7.0 I0.2 J-0.34641
G2 X54.8 Y-7.34641 I-0.4 J0.0
G2 X54.6734 Y-6.76907 I0.2 J0.34641
G1 F300.0 X52.71377 Y-5.38347
G2 F800.0 X53.6 Y-4.57513 I2.28623 J-1.61653
G2 X57.8 Y-7.0 I1.4 J-2.42487
G2 X53.6 Y-9.42487 I-2.8 J0.0
G2 X52.71377 Y-5.38347 I1.4 J2.42487
G1 F300.0 X50.75415 Y-3.99788
G2 F800.0 X52.4 Y-2.49667 I4.24585 J-3.00212
G2 X60.2 Y-7.0 I2.6 J-4.50333
G2 X52.4 Y-11.50333 I-5.2 J0.0
G2 X50.75415 Y-3.99788 I2.6 J4.50333
G0 Z3.0
G0 X54.6734 Y-6.76907
G0 Z-11.0
G1 F300.0 Z-13.0
G2 F800.0 X54.8 Y-6.65359 I0.3266 J-0.23093
G2 X55.4 Y-7.0 I0.2 J-0.34641
G2 X54.8 Y-7.34641 I-0.4 J0.0
G2 X54.6734 Y-6.76907 I0.2 J0.34641
G1 F300.0 X52.71377 Y-5.38347
G2 F800.0 X53.6 Y-4.57513 I2.28623 J-1.61653
G2 X57.8 Y-7.0 I1.4 J-2.42487
G2 X53.6 Y-9.42487 I-2.8 J0.0
G2 X52.71377 Y-5.38347 I1.4 J2.42487
G1 F300.0 X50.75415 Y-3.99788
G2 F800.0 X52.4 Y-2.49667 I4.24585 J-3.00212
G2 X60.2 Y-7.0 I2.6 J-4.50333
G2 X52.4 Y-11.50333 I-5.2 J0.0
G2 X50.75415 Y-3.99788 I2.6 J4.50333
G0 Z3.0
G0 X54.6734 Y-6.76907
G0 Z-12.0
G1 F300.0 Z-14.0
G2 F800.0 X54.8 Y-6.65359 I0.3266 J-0.23093
G2 X55.4 Y-7.0 I0.2 J-0.34641
G2 X54.8 Y-7.34641 I-0.4 J0.0
G2 X54.6734 Y-6.76907 I0.2 J0.34641
G1 F300.0 X52.71377 Y-5.38347
G2 F800.0 X53.6 Y-4.57513 I2.28623 J-1.61653
G2 X57.8 Y-7.0 I1.4 J-2.42487
G2 X53.6 Y-9.42487 I-2.8 J0.0
G2 X52.71377 Y-5.38347 I1.4 J2.42487
G1 F300.0 X50.75415 Y-3.99788
G2 F800.0 X52.4 Y-2.49667 I4.24585 J-3.00212
G2 X60.2 Y-7.0 I2.6 J-4.50333
G2 X52.4 Y-11.50333 I-5.2 J0.0
G2 X50.75415 Y-3.99788 I2.6 J4.50333
G0 Z3.0
G0 X54.6734 Y-6.76907
G0 Z-13.0
G1 F300.0 Z-15.0
G2 F800.0 X54.8 Y-6.65359 I0.3266 J-0.23093
G2 X55.4 Y-7.0 I0.2 J-0.34641
G2 X54.8 Y-7.34641 I-0.4 J0.0
G2 X54.6734 Y-6.76907 I0.2 J0.34641
G1 F300.0 X52.71377 Y-5.38347
G2 F800.0 X53.6 Y-4.57513 I2.28623 J-1.61653
G2 X57.8 Y-7.0 I1.4 J-2.42487
G2 X53.6 Y-9.42487 I-2.8 J0.0
G2 X52.71377 Y-5.38347 I1.4 J2.42487
G1 F300.0 X50.75415 Y-3.99788
G2 F800.0 X52.4 Y-2.49667 I4.24585 J-3.00212
G2 X60.2 Y-7.0 I2.6 J-4.50333
G2 X52.4 Y-11.50333 I-5.2 J0.0
G2 X50.75415 Y-3.99788 I2.6 J4.50333
G0 Z3.0
G0 X54.6734 Y-6.76907
G0 Z-14.0
G1 F300.0 Z-16.0
G2 F800.0 X54.8 Y-6.65359 I0.3266 J-0.23093
G2 X55.4 Y-7.0 I0.2 J-0.34641
G2 X54.8 Y-7.34641 I-0.4 J0.0
G2 X54.6734 Y-6.76907 I0.2 J0.34641
G1 F300.0 X52.71377 Y-5.38347
G2 F800.0 X53.6 Y-4.57513 I2.28623 J-1.61653
G2 X57.8 Y-7.0 I1.4 J-2.42487
G2 X53.6 Y-9.42487 I-2.8 J0.0
G2 X52.71377 Y-5.38347 I1.4 J2.42487
G1 F300.0 X50.75415 Y-3.99788
G2 F800.0 X52.4 Y-2.49667 I4.24585 J-3.00212
G2 X60.2 Y-7.0 I2.6 J-4.50333
G2 X52.4 Y-11.50333 I-5.2 J0.0
G2 X50.75415 Y-3.99788 I2.6 J4.50333
G0 Z3.0
G0 X54.6734 Y-6.76907
G0 Z-15.0
G1 F300.0 Z-17.0
G2 F800.0 X54.8 Y-6.65359 I0.3266 J-0.23093
G2 X55.4 Y-7.0 I0.2 J-0.34641
G2 X54.8 Y-7.34641 I-0.4 J0.0
G2 X54.6734 Y-6.76907 I0.2 J0.34641
G1 F300.0 X52.71377 Y-5.38347
G2 F800.0 X53.6 Y-4.57513 I2.28623 J-1.61653
G2 X57.8 Y-7.0 I1.4 J-2.42487
G2 X53.6 Y-9.42487 I-2.8 J0.0
G2 X52.71377 Y-5.38347 I1.4 J2.42487
G1 F300.0 X50.75415 Y-3.99788
G2 F800.0 X52.4 Y-2.49667 I4.24585 J-3.00212
G2 X60.2 Y-7.0 I2.6 J-4.50333
G2 X52.4 Y-11.50333 I-5.2 J0.0
G2 X50.75415 Y-3.99788 I2.6 J4.50333
G0 Z3.0
G0 X54.6734 Y-6.76907
G0 Z-16.0
G1 F300.0 Z-18.0
G2 F800.0 X54.8 Y-6.65359 I0.3266 J-0.23093
G2 X55.4 Y-7.0 I0.2 J-0.34641
G2 X54.8 Y-7.34641 I-0.4 J0.0
G2 X54.6734 Y-6.76907 I0.2 J0.34641
G1 F300.0 X52.71377 Y-5.38347
G2 F800.0 X53.6 Y-4.57513 I2.28623 J-1.61653
G2 X57.8 Y-7.0 I1.4 J-2.42487
G2 X53.6 Y-9.42487 I-2.8 J0.0
G2 X52.71377 Y-5.38347 I1.4 J2.42487
G1 F300.0 X50.75415 Y-3.99788
G2 F800.0 X52.4 Y-2.49667 I4.24585 J-3.00212
G2 X60.2 Y-7.0 I2.6 J-4.50333
G2 X52.4 Y-11.50333 I-5.2 J0.0
G2 X50.75415 Y-3.99788 I2.6 J4.50333
G0 Z3.0
G0 X54.6734 Y-6.76907
G0 Z-17.0
G1 F300.0 Z-19.0
G2 F800.0 X54.8 Y-6.65359 I0.3266 J-0.23093
G2 X55.4 Y-7.0 I0.2 J-0.34641
G2 X54.8 Y-7.34641 I-0.4 J0.0
G2 X54.6734 Y-6.76907 I0.2 J0.34641
G1 F300.0 X52.71377 Y-5.38347
G2 F800.0 X53.6 Y-4.57513 I2.28623 J-1.61653
G2 X57.8 Y-7.0 I1.4 J-2.42487
G2 X53.6 Y-9.42487 I-2.8 J0.0
G2 X52.71377 Y-5.38347 I1.4 J2.42487
G1 F300.0 X50.75415 Y-3.99788
G2 F800.0 X52.4 Y-2.49667 I4.24585 J-3.00212
G2 X60.2 Y-7.0 I2.6 J-4.50333
G2 X52.4 Y-11.50333 I-5.2 J0.0
G2 X50.75415 Y-3.99788 I2.6 J4.50333
G0 Z3.0
G0 X54.6734 Y-6.76907
G0 Z-18.0
G1 F300.0 Z-20.0
G2 F800.0 X54.8 Y-6.65359 I0.3266 J-0.23093
G2 X55.4 Y-7.0 I0.2 J-0.34641
G2 X54.8 Y-7.34641 I-0.4 J0.0
G2 X54.6734 Y-6.76907 I0.2 J0.34641
G1 F300.0 X52.71377 Y-5.38347
G2 F800.0 X53.6 Y-4.57513 I2.28623 J-1.61653
G2 X57.8 Y-7.0 I1.4 J-2.42487
G2 X53.6 Y-9.42487 I-2.8 J0.0
G2 X52.71377 Y-5.38347 I1.4 J2.42487
G1 F300.0 X50.75415 Y-3.99788
G2 F800.0 X52.4 Y-2.49667 I4.24585 J-3.00212
G2 X60.2 Y-7.0 I2.6 J-4.50333
G2 X52.4 Y-11.50333 I-5.2 J0.0
G2 X50.75415 Y-3.99788 I2.6 J4.50333
G0 Z3.0
G0 X54.6734 Y-6.76907
G0 Z-19.0
G1 F300.0 Z-21.0
G2 F800.0 X54.8 Y-6.65359 I0.3266 J-0.23093
G2 X55.4 Y-7.0 I0.2 J-0.34641
G2 X54.8 Y-7.34641 I-0.4 J0.0
G2 X54.6734 Y-6.76907 I0.2 J0.34641
G1 F300.0 X52.71377 Y-5.38347
G2 F800.0 X53.6 Y-4.57513 I2.28623 J-1.61653
G2 X57.8 Y-7.0 I1.4 J-2.42487
G2 X53.6 Y-9.42487 I-2.8 J0.0
G2 X52.71377 Y-5.38347 I1.4 J2.42487
G1 F300.0 X50.75415 Y-3.99788
G2 F800.0 X52.4 Y-2.49667 I4.24585 J-3.00212
G2 X60.2 Y-7.0 I2.6 J-4.50333
G2 X52.4 Y-11.50333 I-5.2 J0.0
G2 X50.75415 Y-3.99788 I2.6 J4.50333
G0 Z3.0
G0 X54.6734 Y-6.76907
G0 Z-20.0
G1 F300.0 Z-22.0
G2 F800.0 X54.8 Y-6.65359 I0.3266 J-0.23093
G2 X55.4 Y-7.0 I0.2 J-0.34641
G2 X54.8 Y-7.34641 I-0.4 J0.0
G2 X54.6734 Y-6.76907 I0.2 J0.34641
G1 F300.0 X52.71377 Y-5.38347
G2 F800.0 X53.6 Y-4.57513 I2.28623 J-1.61653
G2 X57.8 Y-7.0 I1.4 J-2.42487
G2 X53.6 Y-9.42487 I-2.8 J0.0
G2 X52.71377 Y-5.38347 I1.4 J2.42487
G1 F300.0 X50.75415 Y-3.99788
G2 F800.0 X52.4 Y-2.49667 I4.24585 J-3.00212
G2 X60.2 Y-7.0 I2.6 J-4.50333
G2 X52.4 Y-11.50333 I-5.2 J0.0
G2 X50.75415 Y-3.99788 I2.6 J4.50333
G0 Z3.0
G0 X54.6734 Y-6.76907
G0 Z-21.0
G1 F300.0 Z-23.0
G2 F800.0 X54.8 Y-6.65359 I0.3266 J-0.23093
G2 X55.4 Y-7.0 I0.2 J-0.34641
G2 X54.8 Y-7.34641 I-0.4 J0.0
G2 X54.6734 Y-6.76907 I0.2 J0.34641
G1 F300.0 X52.71377 Y-5.38347
G2 F800.0 X53.6 Y-4.57513 I2.28623 J-1.61653
G2 X57.8 Y-7.0 I1.4 J-2.42487
G2 X53.6 Y-9.42487 I-2.8 J0.0
G2 X52.71377 Y-5.38347 I1.4 J2.42487
G1 F300.0 X50.75415 Y-3.99788
G2 F800.0 X52.4 Y-2.49667 I4.24585 J-3.00212
G2 X60.2 Y-7.0 I2.6 J-4.50333
G2 X52.4 Y-11.50333 I-5.2 J0.0
G2 X50.75415 Y-3.99788 I2.6 J4.50333
G0 Z3.0
G0 X54.6734 Y-6.76907
G0 Z-22.0
G1 F300.0 Z-24.0
G2 F800.0 X54.8 Y-6.65359 I0.3266 J-0.23093
G2 X55.4 Y-7.0 I0.2 J-0.34641
G2 X54.8 Y-7.34641 I-0.4 J0.0
G2 X54.6734 Y-6.76907 I0.2 J0.34641
G1 F300.0 X52.71377 Y-5.38347
G2 F800.0 X53.6 Y-4.57513 I2.28623 J-1.61653
G2 X57.8 Y-7.0 I1.4 J-2.42487
G2 X53.6 Y-9.42487 I-2.8 J0.0
G2 X52.71377 Y-5.38347 I1.4 J2.42487
G1 F300.0 X50.75415 Y-3.99788
G2 F800.0 X52.4 Y-2.49667 I4.24585 J-3.00212
G2 X60.2 Y-7.0 I2.6 J-4.50333
G2 X52.4 Y-11.50333 I-5.2 J0.0
G2 X50.75415 Y-3.99788 I2.6 J4.50333
G0 Z3.0
G0 X54.6734 Y-6.76907
G0 Z-23.0
G1 F300.0 Z-25.0
G2 F800.0 X54.8 Y-6.65359 I0.3266 J-0.23093
G2 X55.4 Y-7.0 I0.2 J-0.34641
G2 X54.8 Y-7.34641 I-0.4 J0.0
G2 X54.6734 Y-6.76907 I0.2 J0.34641
G1 F300.0 X52.71377 Y-5.38347
G2 F800.0 X53.6 Y-4.57513 I2.28623 J-1.61653
G2 X57.8 Y-7.0 I1.4 J-2.42487
G2 X53.6 Y-9.42487 I-2.8 J0.0
G2 X52.71377 Y-5.38347 I1.4 J2.42487
G1 F300.0 X50.75415 Y-3.99788
G2 F800.0 X52.4 Y-2.49667 I4.24585 J-3.00212
G2 X60.2 Y-7.0 I2.6 J-4.50333
G2 X52.4 Y-11.50333 I-5.2 J0.0
G2 X50.75415 Y-3.99788 I2.6 J4.50333
G0 Z3.0
G0 X54.6734 Y-6.76907
G0 Z-24.0
G1 F300.0 Z-26.0
G2 F800.0 X54.8 Y-6.65359 I0.3266 J-0.23093
G2 X55.4 Y-7.0 I0.2 J-0.34641
G2 X54.8 Y-7.34641 I-0.4 J0.0
G2 X54.6734 Y-6.76907 I0.2 J0.34641
G1 F300.0 X52.71377 Y-5.38347
G2 F800.0 X53.6 Y-4.57513 I2.28623 J-1.61653
G2 X57.8 Y-7.0 I1.4 J-2.42487
G2 X53.6 Y-9.42487 I-2.8 J0.0
G2 X52.71377 Y-5.38347 I1.4 J2.42487
G1 F300.0 X50.75415 Y-3.99788
G2 F800.0 X52.4 Y-2.49667 I4.24585 J-3.00212
G2 X60.2 Y-7.0 I2.6 J-4.50333
G2 X52.4 Y-11.50333 I-5.2 J0.0
G2 X50.75415 Y-3.99788 I2.6 J4.50333
G0 Z3.0
G0 X54.6734 Y-6.76907
G0 Z-25.0
G1 F300.0 Z-27.0
G2 F800.0 X54.8 Y-6.65359 I0.3266 J-0.23093
G2 X55.4 Y-7.0 I0.2 J-0.34641
G2 X54.8 Y-7.34641 I-0.4 J0.0
G2 X54.6734 Y-6.76907 I0.2 J0.34641
G1 F300.0 X52.71377 Y-5.38347
G2 F800.0 X53.6 Y-4.57513 I2.28623 J-1.61653
G2 X57.8 Y-7.0 I1.4 J-2.42487
G2 X53.6 Y-9.42487 I-2.8 J0.0
G2 X52.71377 Y-5.38347 I1.4 J2.42487
G1 F300.0 X50.75415 Y-3.99788
G2 F800.0 X52.4 Y-2.49667 I4.24585 J-3.00212
G2 X60.2 Y-7.0 I2.6 J-4.50333
G2 X52.4 Y-11.50333 I-5.2 J0.0
G2 X50.75415 Y-3.99788 I2.6 J4.50333
G0 Z3.0
G0 X54.6734 Y-6.76907
G0 Z-26.0
G1 F300.0 Z-28.0
G2 F800.0 X54.8 Y-6.65359 I0.3266 J-0.23093
G2 X55.4 Y-7.0 I0.2 J-0.34641
G2 X54.8 Y-7.34641 I-0.4 J0.0
G2 X54.6734 Y-6.76907 I0.2 J0.34641
G1 F300.0 X52.71377 Y-5.38347
G2 F800.0 X53.6 Y-4.57513 I2.28623 J-1.61653
G2 X57.8 Y-7.0 I1.4 J-2.42487
G2 X53.6 Y-9.42487 I-2.8 J0.0
G2 X52.71377 Y-5.38347 I1.4 J2.42487
G1 F300.0 X50.75415 Y-3.99788
G2 F800.0 X52.4 Y-2.49667 I4.24585 J-3.00212
G2 X60.2 Y-7.0 I2.6 J-4.50333
G2 X52.4 Y-11.50333 I-5.2 J0.0
G2 X50.75415 Y-3.99788 I2.6 J4.50333
G0 Z3.0
G0 X54.6734 Y-6.76907
G0 Z-27.0
G1 F300.0 Z-29.0
G2 F800.0 X54.8 Y-6.65359 I0.3266 J-0.23093
G2 X55.4 Y-7.0 I0.2 J-0.34641
G2 X54.8 Y-7.34641 I-0.4 J0.0
G2 X54.6734 Y-6.76907 I0.2 J0.34641
G1 F300.0 X52.71377 Y-5.38347
G2 F800.0 X53.6 Y-4.57513 I2.28623 J-1.61653
G2 X57.8 Y-7.0 I1.4 J-2.42487
G2 X53.6 Y-9.42487 I-2.8 J0.0
G2 X52.71377 Y-5.38347 I1.4 J2.42487
G1 F300.0 X50.75415 Y-3.99788
G2 F800.0 X52.4 Y-2.49667 I4.24585 J-3.00212
G2 X60.2 Y-7.0 I2.6 J-4.50333
G2 X52.4 Y-11.50333 I-5.2 J0.0
G2 X50.75415 Y-3.99788 I2.6 J4.50333
G0 Z3.0
G0 X54.6734 Y-6.76907
G0 Z-28.0
G1 F300.0 Z-30.0
G2 F800.0 X54.8 Y-6.65359 I0.3266 J-0.23093
G2 X55.4 Y-7.0 I0.2 J-0.34641
G2 X54.8 Y-7.34641 I-0.4 J0.0
G2 X54.6734 Y-6.76907 I0.2 J0.34641
G1 F300.0 X52.71377 Y-5.38347
G2 F800.0 X53.6 Y-4.57513 I2.28623 J-1.61653
G2 X57.8 Y-7.0 I1.4 J-2.42487
G2 X53.6 Y-9.42487 I-2.8 J0.0
G2 X52.71377 Y-5.38347 I1.4 J2.42487
G1 F300.0 X50.75415 Y-3.99788
G2 F800.0 X52.4 Y-2.49667 I4.24585 J-3.00212
G2 X60.2 Y-7.0 I2.6 J-4.50333
G2 X52.4 Y-11.50333 I-5.2 J0.0
G2 X50.75415 Y-3.99788 I2.6 J4.50333
G0 Z3.0
G0 X79.6256 Y6.85921
G0 Z1.0
G1 F300.0 Z-1.0
G2 F800.0 X79.8 Y7.34641 I0.3744 J0.14079
G2 X80.4 Y7.0 I0.2 J-0.34641
G2 X79.8 Y6.65359 I-0.4 J0.0
G2 X79.6256 Y6.85921 I0.2 J0.34641
G1 F300.0 X77.37918 Y6.01444
G2 F800.0 X78.6 Y9.42487 I2.62082 J0.98556
G2 X82.8 Y7.0 I1.4 J-2.42487
G2 X78.6 Y4.57513 I-2.8 J0.0
G2 X77.37918 Y6.01444 I1.4 J2.42487
G1 F300.0 X75.13277 Y5.16968
G2 F800.0 X77.4 Y11.50333 I4.86723 J1.83032
G2 X85.2 Y7.0 I2.6 J-4.50333
G2 X77.4 Y2.49667 I-5.2 J0.0
G2 X75.13277 Y5.16968 I2.6 J4.50333
G0 Z3.0
G0 X79.6256 Y6.85921
G0 Z0.0
G1 F300.0 Z-2.0
G2 F800.0 X79.8 Y7.34641 I0.3744 J0.14079
G2 X80.4 Y7.0 I0.2 J-0.34641
G2 X79.8 Y6.65359 I-0.4 J0.0
G2 X79.6256 Y6.85921 I0.2 J0.34641
G1 F300.0 X77.37918 Y6.01444
G2 F800.0 X78.6 Y9.42487 I2.62082 J0.98556
G2 X82.8 Y7.0 I1.4 J-2.42487
G2 X78.6 Y4.57513 I-2.8 J0.0
G2 X77.37918 Y6.01444 I1.4 J2.42487
G1 F300.0 X75.13277 Y5.16968
G2 F800.0 X77.4 Y11.50333 I4.86723 J1.83032
G2 X85.2 Y7.0 I2.6 J-4.50333
G2 X77.4 Y2.49667 I-5.2 J0.0
G2 X75.13277 Y5.16968 I2.6 J4.50333
G0 Z3.0
G0 X79.6256 Y6.85921
G0 Z-1.0
G1 F300.0 Z-3.0
G2 F800.0 X79.8 Y7.34641 I0.3744 J0.14079
G2 X80.4 Y7.0 I0.2 J-0.34641
G2 X79.8 Y6.65359 I-0.4 J0.0
G2 X79.6256 Y6.85921 I0.2 J0.34641
G1 F300.0 X77.37918 Y6.01444
G2 F800.0 X78.6 Y9.42487 I2.62082 J0.98556
G2 X82.8 Y7.0 I1.4 J-2.42487
G2 X78.6 Y4.57513 I-2.8 J0.0
G2 X77.37918 Y6.01444 I1.4 J2.42487
G1 F300.0 X75.13277 Y5.16968
G2 F800.0 X77.4 Y11.50333 I4.86723 J1.83032
G2 X85.2 Y7.0 I2.6 J-4.50333
G2 X77.4 Y2.49667 I-5.2 J0.0
G2 X75.13277 Y5.16968 I2.6 J4.50333
G0 Z3.0
G0 X79.6256 Y6.85921
G0 Z-2.0
G1 F300.0 Z-4.0
G2 F800.0 X79.8 Y7.34641 I0.3744 J0.14079
G2 X80.4 Y7.0 I0.2 J-0.34641
G2 X79.8 Y6.65359 I-0.4 J0.0
G2 X79.6256 Y6.85921 I0.2 J0.34641
G1 F300.0 X77.37918 Y6.01444
G2 F800.0 X78.6 Y9.42487 I2.62082 J0.98556
G2 X82.8 Y7.0 I1.4 J-2.42487
G2 X78.6 Y4.57513 I-2.8 J0.0
G2 X77.37918 Y6.01444 I1.4 J2.42487
G1 F300.0 X75.13277 Y5.16968
G2 F800.0 X77.4 Y11.50333 I4.86723 J1.83032
G2 X85.2 Y7.0 I2.6 J-4.50333
G2 X77.4 Y2.49667 I-5.2 J0.0
G2 X75.13277 Y5.16968 I2.6 J4.50333
G0 Z3.0
G0 X79.6256 Y6.85921
G0 Z-3.0
G1 F300.0 Z-5.0
G2 F800.0 X79.8 Y7.34641 I0.3744 J0.14079
G2 X80.4 Y7.0 I0.2 J-0.34641
G2 X79.8 Y6.65359 I-0.4 J0.0
G2 X79.6256 Y6.85921 I0.2 J0.34641
G1 F300.0 X77.37918 Y6.01444
G2 F800.0 X78.6 Y9.42487 I2.62082 J0.98556
G2 X82.8 Y7.0 I1.4 J-2.42487
G2 X78.6 Y4.57513 I-2.8 J0.0
G2 X77.37918 Y6.01444 I1.4 J2.42487
G1 F300.0 X75.13277 Y5.16968
G2 F800.0 X77.4 Y11.50333 I4.86723 J1.83032
G2 X85.2 Y7.0 I2.6 J-4.50333
G2 X77.4 Y2.49667 I-5.2 J0.0
G2 X75.13277 Y5.16968 I2.6 J4.50333
G0 Z3.0
G0 X79.6256 Y6.85921
G0 Z-4.0
G1 F300.0 Z-6.0
G2 F800.0 X79.8 Y7.34641 I0.3744 J0.14079
G2 X80.4 Y7.0 I0.2 J-0.34641
G2 X79.8 Y6.65359 I-0.4 J0.0
G2 X79.6256 Y6.85921 I0.2 J0.34641
G1 F300.0 X77.37918 Y6.01444
G2 F800.0 X78.6 Y9.42487 I2.62082 J0.98556
G2 X82.8 Y7.0 I1.4 J-2.42487
G2 X78.6 Y4.57513 I-2.8 J0.0
G2 X77.37918 Y6.01444 I1.4 J2.42487
G1 F300.0 X75.13277 Y5.16968
G2 F800.0 X77.4 Y11.50333 I4.86723 J1.83032
G2 X85.2 Y7.0 I2.6 J-4.50333
G2 X77.4 Y2.49667 I-5.2 J0.0
G2 X75.13277 Y5.16968 I2.6 J4.50333
G0 Z3.0
G0 X79.6256 Y6.85921
G0 Z-5.0
G1 F300.0 Z-7.0
G2 F800.0 X79.8 Y7.34641 I0.3744 J0.14079
G2 X80.4 Y7.0 I0.2 J-0.34641
G2 X79.8 Y6.65359 I-0.4 J0.0
G2 X79.6256 Y6.85921 I0.2 J0.34641
G1 F300.0 X77.37918 Y6.01444
G2 F800.0 X78.6 Y9.42487 I2.62082 J0.98556
G2 X82.8 Y7.0 I1.4 J-2.42487
G2 X78.6 Y4.57513 I-2.8 J0.0
G2 X77.37918 Y6.01444 I1.4 J2.42487
G1 F300.0 X75.13277 Y5.16968
G2 F800.0 X77.4 Y11.50333 I4.86723 J1.83032
G2 X85.2 Y7.0 I2.6 J-4.50333
G2 X77.4 Y2.49667 I-5.2 J0.0
G2 X75.13277 Y5.16968 I2.6 J4.50333
G0 Z3.0
G0 X79.6256 Y6.85921
G0 Z-6.0
G1 F300.0 Z-8.0
G2 F800.0 X79.8 Y7.34641 I0.3744 J0.14079
G2 X80.4 Y7.0 I0.2 J-0.34641
G2 X79.8 Y6.65359 I-0.4 J0.0
G2 X79.6256 Y6.85921 I0.2 J0.34641
G1 F300.0 X77.37918 Y6.01444
G2 F800.0 X78.6 Y9.42487 I2.62082 J0.98556
G2 X82.8 Y7.0 I1.4 J-2.42487
G2 X78.6 Y4.57513 I-2.8 J0.0
G2 X77.37918 Y6.01444 I1.4 J2.42487
G1 F300.0 X75.13277 Y5.16968
G2 F800.0 X77.4 Y11.50333 I4.86723 J1.83032
G2 X85.2 Y7.0 I2.6 J-4.50333
G2 X77.4 Y2.49667 I-5.2 J0.0
G2 X75.13277 Y5.16968 I2.6 J4.50333
G0 Z3.0
G0 X79.6256 Y6.85921
G0 Z-7.0
G1 F300.0 Z-9.0
G2 F800.0 X79.8 Y7.34641 I0.3744 J0.14079
G2 X80.4 Y7.0 I0.2 J-0.34641
G2 X79.8 Y6.65359 I-0.4 J0.0
G2 X79.6256 Y6.85921 I0.2 J0.34641
G1 F300.0 X77.37918 Y6.01444
G2 F800.0 X78.6 Y9.42487 I2.62082 J0.98556
G2 X82.8 Y7.0 I1.4 J-2.42487
G2 X78.6 Y4.57513 I-2.8 J0.0
G2 X77.37918 Y6.01444 I1.4 J2.42487
G1 F300.0 X75.13277 Y5.16968
G2 F800.0 X77.4 Y11.50333 I4.86723 J1.83032
G2 X85.2 Y7.0 I2.6 J-4.50333
G2 X77.4 Y2.49667 I-5.2 J0.0
G2 X75.13277 Y5.16968 I2.6 J4.50333
G0 Z3.0
G0 X79.6256 Y6.85921
G0 Z-8.0
G1 F300.0 Z-10.0
G2 F800.0 X79.8 Y7.34641 I0.3744 J0.14079
G2 X80.4 Y7.0 I0.2 J-0.34641
G2 X79.8 Y6.65359 I-0.4 J0.0
G2 X79.6256 Y6.85921 I0.2 J0.34641
G1 F300.0 X77.37918 Y6.01444
G2 F800.0 X78.6 Y9.42487 I2.62082 J0.98556
G2 X82.8 Y7.0 I1.4 J-2.42487
G2 X78.6 Y4.57513 I-2.8 J0.0
G2 X77.37918 Y6.01444 I1.4 J2.42487
G1 F300.0 X75.13277 Y5.16968
G2 F800.0 X77.4 Y11.50333 I4.86723 J1.83032
G2 X85.2 Y7.0 I2.6 J-4.50333
G2 X77.4 Y2.49667 I-5.2 J0.0
G2 X75.13277 Y5.16968 I2.6 J4.50333
G0 Z3.0
G0 X79.6256 Y6.85921
G0 Z-9.0
G1 F300.0 Z-11.0
G2 F800.0 X79.8 Y7.34641 I0.3744 J0.14079
G2 X80.4 Y7.0 I0.2 J-0.34641
G2 X79.8 Y6.65359 I-0.4 J0.0
G2 X79.6256 Y6.85921 I0.2 J0.34641
G1 F300.0 X77.37918 Y6.01444
G2 F800.0 X78.6 Y9.42487 I2.62082 J0.98556
G2 X82.8 Y7.0 I1.4 J-2.42487
G2 X78.6 Y4.57513 I-2.8 J0.0
G2 X77.37918 Y6.01444 I1.4 J2.42487
G1 F300.0 X75.13277 Y5.16968
G2 F800.0 X77.4 Y11.50333 I4.86723 J1.83032
G2 X85.2 Y7.0 I2.6 J-4.50333
G2 X77.4 Y2.49667 I-5.2 J0.0
G2 X75.13277 Y5.16968 I2.6 J4.50333
G0 Z3.0
G0 X79.6256 Y6.85921
G0 Z-10.0
G1 F300.0 Z-12.0
G2 F800.0 X79.8 Y7.34641 I0.3744 J0.14079
G2 X80.4 Y7.0 I0.2 J-0.34641
G2 X79.8 Y6.65359 I-0.4 J0.0
G2 X79.6256 Y6.85921 I0.2 J0.34641
G1 F300.0 X77.37918 Y6.01444
G2 F800.0 X78.6 Y9.42487 I2.62082 J0.98556
G2 X82.8 Y7.0 I1.4 J-2.42487
G2 X78.6 Y4.57513 I-2.8 J0.0
G2 X77.37918 Y6.01444 I1.4 J2.42487
G1 F300.0 X75.13277 Y5.16968
G2 F800.0 X77.4 Y11.50333 I4.86723 J1.83032
G2 X85.2 Y7.0 I2.6 J-4.50333
G2 X77.4 Y2.49667 I-5.2 J0.0
G2 X75.13277 Y5.16968 I2.6 J4.50333
G0 Z3.0
G0 X79.6256 Y6.85921
G0 Z-11.0
G1 F300.0 Z-13.0
G2 F800.0 X79.8 Y7.34641 I0.3744 J0.14079
G2 X80.4 Y7.0 I0.2 J-0.34641
G2 X79.8 Y6.65359 I-0.4 J0.0
G2 X79.6256 Y6.85921 I0.2 J0.34641
G1 F300.0 X77.37918 Y6.01444
G2 F800.0 X78.6 Y9.42487 I2.62082 J0.98556
G2 X82.8 Y7.0 I1.4 J-2.42487
G2 X78.6 Y4.57513 I-2.8 J0.0
G2 X77.37918 Y6.01444 I1.4 J2.42487
G1 F300.0 X75.13277 Y5.16968
G2 F800.0 X77.4 Y11.50333 I4.86723 J1.83032
G2 X85.2 Y7.0 I2.6 J-4.50333
G2 X77.4 Y2.49667 I-5.2 J0.0
G2 X75.13277 Y5.16968 I2.6 J4.50333
G0 Z3.0
G0 X79.6256 Y6.85921
G0 Z-12.0
G1 F300.0 Z-14.0
G2 F800.0 X79.8 Y7.34641 I0.3744 J0.14079
G2 X80.4 Y7.0 I0.2 J-0.34641
G2 X79.8 Y6.65359 I-0.4 J0.0
G2 X79.6256 Y6.85921 I0.2 J0.34641
G1 F300.0 X77.37918 Y6.01444
G2 F800.0 X78.6 Y9.42487 I2.62082 J0.98556
G2 X82.8 Y7.0 I1.4 J-2.42487
G2 X78.6 Y4.57513 I-2.8 J0.0
G2 X77.37918 Y6.01444 I1.4 J2.42487
G1 F300.0 X75.13277 Y5.16968
G2 F800.0 X77.4 Y11.50333 I4.86723 J1.83032
G2 X85.2 Y7.0 I2.6 J-4.50333
G2 X77.4 Y2.49667 I-5.2 J0.0
G2 X75.13277 Y5.16968 I2.6 J4.50333
G0 Z3.0
G0 X79.6256 Y6.85921
G0 Z-13.0
G1 F300.0 Z-15.0
G2 F800.0 X79.8 Y7.34641 I0.3744 J0.14079
G2 X80.4 Y7.0 I0.2 J-0.34641
G2 X79.8 Y6.65359 I-0.4 J0.0
G2 X79.6256 Y6.85921 I0.2 J0.34641
G1 F300.0 X77.37918 Y6.01444
G2 F800.0 X78.6 Y9.42487 I2.62082 J0.98556
G2 X82.8 Y7.0 I1.4 J-2.42487
G2 X78.6 Y4.57513 I-2.8 J0.0
G2 X77.37918 Y6.01444 I1.4 J2.42487
G1 F300.0 X75.13277 Y5.16968
G2 F800.0 X77.4 Y11.50333 I4.86723 J1.83032
G2 X85.2 Y7.0 I2.6 J-4.50333
G2 X77.4 Y2.49667 I-5.2 J0.0
G2 X75.13277 Y5.16968 I2.6 J4.50333
G0 Z3.0
G0 X79.6256 Y6.85921
G0 Z-14.0
G1 F300.0 Z-16.0
G2 F800.0 X79.8 Y7.34641 I0.3744 J0.14079
G2 X80.4 Y7.0 I0.2 J-0.34641
G2 X79.8 Y6.65359 I-0.4 J0.0
G2 X79.6256 Y6.85921 I0.2 J0.34641
G1 F300.0 X77.37918 Y6.01444
G2 F800.0 X78.6 Y9.42487 I2.62082 J0.98556
G2 X82.8 Y7.0 I1.4 J-2.42487
G2 X78.6 Y4.57513 I-2.8 J0.0
G2 X77.37918 Y6.01444 I1.4 J2.42487
G1 F300.0 X75.13277 Y5.16968
G2 F800.0 X77.4 Y11.50333 I4.86723 J1.83032
G2 X85.2 Y7.0 I2.6 J-4.50333
G2 X77.4 Y2.49667 I-5.2 J0.0
G2 X75.13277 Y5.16968 I2.6 J4.50333
G0 Z3.0
G0 X79.6256 Y6.85921
G0 Z-15.0
G1 F300.0 Z-17.0
G2 F800.0 X79.8 Y7.34641 I0.3744 J0.14079
G2 X80.4 Y7.0 I0.2 J-0.34641
G2 X79.8 Y6.65359 I-0.4 J0.0
G2 X79.6256 Y6.85921 I0.2 J0.34641
G1 F300.0 X77.37918 Y6.01444
G2 F800.0 X78.6 Y9.42487 I2.62082 J0.98556
G2 X82.8 Y7.0 I1.4 J-2.42487
G2 X78.6 Y4.57513 I-2.8 J0.0
G2 X77.37918 Y6.01444 I1.4 J2.42487
G1 F300.0 X75.13277 Y5.16968
G2 F800.0 X77.4 Y11.50333 I4.86723 J1.83032
G2 X85.2 Y7.0 I2.6 J-4.50333
G2 X77.4 Y2.49667 I-5.2 J0.0
G2 X75.13277 Y5.16968 I2.6 J4.50333
G0 Z3.0
G0 X79.6256 Y6.85921
G0 Z-16.0
G1 F300.0 Z-18.0
G2 F800.0 X79.8 Y7.34641 I0.3744 J0.14079
G2 X80.4 Y7.0 I0.2 J-0.34641
G2 X79.8 Y6.65359 I-0.4 J0.0
G2 X79.6256 Y6.85921 I0.2 J0.34641
G1 F300.0 X77.37918 Y6.01444
G2 F800.0 X78.6 Y9.42487 I2.62082 J0.98556
G2 X82.8 Y7.0 I1.4 J-2.42487
G2 X78.6 Y4.57513 I-2.8 J0.0
G2 X77.37918 Y6.01444 I1.4 J2.42487
G1 F300.0 X75.13277 Y5.16968
G2 F800.0 X77.4 Y11.50333 I4.86723 J1.83032
G2 X85.2 Y7.0 I2.6 J-4.50333
G2 X77.4 Y2.49667 I-5.2 J0.0
G2 X75.13277 Y5.16968 I2.6 J4.50333
G0 Z3.0
G0 X79.6256 Y6.85921
G0 Z-17.0
G1 F300.0 Z-19.0
G2 F800.0 X79.8 Y7.34641 I0.3744 J0.14079
G2 X80.4 Y7.0 I0.2 J-0.34641
G2 X79.8 Y6.65359 I-0.4 J0.0
G2 X79.6256 Y6.85921 I0.2 J0.34641
G1 F300.0 X77.37918 Y6.01444
G2 F800.0 X78.6 Y9.42487 I2.62082 J0.98556
G2 X82.8 Y7.0 I1.4 J-2.42487
G2 X78.6 Y4.57513 I-2.8 J0.0
G2 X77.37918 Y6.01444 I1.4 J2.42487
G1 F300.0 X75.13277 Y5.16968
G2 F800.0 X77.4 Y11.50333 I4.86723 J1.83032
G2 X85.2 Y7.0 I2.6 J-4.50333
G2 X77.4 Y2.49667 I-5.2 J0.0
G2 X75.13277 Y5.16968 I2.6 J4.50333
G0 Z3.0
G0 X79.6256 Y6.85921
G0 Z-18.0
G1 F300.0 Z-20.0
G2 F800.0 X79.8 Y7.34641 I0.3744 J0.14079
G2 X80.4 Y7.0 I0.2 J-0.34641
G2 X79.8 Y6.65359 I-0.4 J0.0
G2 X79.6256 Y6.85921 I0.2 J0.34641
G1 F300.0 X77.37918 Y6.01444
G2 F800.0 X78.6 Y9.42487 I2.62082 J0.98556
G2 X82.8 Y7.0 I1.4 J-2.42487
G2 X78.6 Y4.57513 I-2.8 J0.0
G2 X77.37918 Y6.01444 I1.4 J2.42487
G1 F300.0 X75.13277 Y5.16968
G2 F800.0 X77.4 Y11.50333 I4.86723 J1.83032
G2 X85.2 Y7.0 I2.6 J-4.50333
G2 X77.4 Y2.49667 I-5.2 J0.0
G2 X75.13277 Y5.16968 I2.6 J4.50333
G0 Z3.0
G0 X79.6256 Y6.85921
G0 Z-19.0
G1 F300.0 Z-21.0
G2 F800.0 X79.8 Y7.34641 I0.3744 J0.14079
G2 X80.4 Y7.0 I0.2 J-0.34641
G2 X79.8 Y6.65359 I-0.4 J0.0
G2 X79.6256 Y6.85921 I0.2 J0.34641
G1 F300.0 X77.37918 Y6.01444
G2 F800.0 X78.6 Y9.42487 I2.62082 J0.98556
G2 X82.8 Y7.0 I1.4 J-2.42487
G2 X78.6 Y4.57513 I-2.8 J0.0
G2 X77.37918 Y6.01444 I1.4 J2.42487
G1 F300.0 X75.13277 Y5.16968
G2 F800.0 X77.4 Y11.50333 I4.86723 J1.83032
G2 X85.2 Y7.0 I2.6 J-4.50333
G2 X77.4 Y2.49667 I-5.2 J0.0
G2 X75.13277 Y5.16968 I2.6 J4.50333
G0 Z3.0
G0 X79.6256 Y6.85921
G0 Z-20.0
G1 F300.0 Z-22.0
G2 F800.0 X79.8 Y7.34641 I0.3744 J0.14079
G2 X80.4 Y7.0 I0.2 J-0.34641
G2 X79.8 Y6.65359 I-0.4 J0.0
G2 X79.6256 Y6.85921 I0.2 J0.34641
G1 F300.0 X77.37918 Y6.01444
G2 F800.0 X78.6 Y9.42487 I2.62082 J0.98556
G2 X82.8 Y7.0 I1.4 J-2.42487
G2 X78.6 Y4.57513 I-2.8 J0.0
G2 X77.37918 Y6.01444 I1.4 J2.42487
G1 F300.0 X75.13277 Y5.16968
G2 F800.0 X77.4 Y11.50333 I4.86723 J1.83032
G2 X85.2 Y7.0 I2.6 J-4.50333
G2 X77.4 Y2.49667 I-5.2 J0.0
G2 X75.13277 Y5.16968 I2.6 J4.50333
G0 Z3.0
G0 X79.6256 Y6.85921
G0 Z-21.0
G1 F300.0 Z-23.0
G2 F800.0 X79.8 Y7.34641 I0.3744 J0.14079
G2 X80.4 Y7.0 I0.2 J-0.34641
G2 X79.8 Y6.65359 I-0.4 J0.0
G2 X79.6256 Y6.85921 I0.2 J0.34641
G1 F300.0 X77.37918 Y6.01444
G2 F800.0 X78.6 Y9.42487 I2.62082 J0.98556
G2 X82.8 Y7.0 I1.4 J-2.42487
G2 X78.6 Y4.57513 I-2.8 J0.0
G2 X77.37918 Y6.01444 I1.4 J2.42487
G1 F300.0 X75.13277 Y5.16968
G2 F800.0 X77.4 Y11.50333 I4.86723 J1.83032
G2 X85.2 Y7.0 I2.6 J-4.50333
G2 X77.4 Y2.49667 I-5.2 J0.0
G2 X75.13277 Y5.16968 I2.6 J4.50333
G0 Z3.0
G0 X79.6256 Y6.85921
G0 Z-22.0
G1 F300.0 Z-24.0
G2 F800.0 X79.8 Y7.34641 I0.3744 J0.14079
G2 X80.4 Y7.0 I0.2 J-0.34641
G2 X79.8 Y6.65359 I-0.4 J0.0
G2 X79.6256 Y6.85921 I0.2 J0.34641
G1 F300.0 X77.37918 Y6.01444
G2 F800.0 X78.6 Y9.42487 I2.62082 J0.98556
G2 X82.8 Y7.0 I1.4 J-2.42487
G2 X78.6 Y4.57513 I-2.8 J0.0
G2 X77.37918 Y6.01444 I1.4 J2.42487
G1 F300.0 X75.13277 Y5.16968
G2 F800.0 X77.4 Y11.50333 I4.86723 J1.83032
G2 X85.2 Y7.0 I2.6 J-4.50333
G2 X77.4 Y2.49667 I-5.2 J0.0
G2 X75.13277 Y5.16968 I2.6 J4.50333
G0 Z3.0
G0 X79.6256 Y6.85921
G0 Z-23.0
G1 F300.0 Z-25.0
G2 F800.0 X79.8 Y7.34641 I0.3744 J0.14079
G2 X80.4 Y7.0 I0.2 J-0.34641
G2 X79.8 Y6.65359 I-0.4 J0.0
G2 X79.6256 Y6.85921 I0.2 J0.34641
G1 F300.0 X77.37918 Y6.01444
G2 F800.0 X78.6 Y9.42487 I2.62082 J0.98556
G2 X82.8 Y7.0 I1.4 J-2.42487
G2 X78.6 Y4.57513 I-2.8 J0.0
G2 X77.37918 Y6.01444 I1.4 J2.42487
G1 F300.0 X75.13277 Y5.16968
G2 F800.0 X77.4 Y11.50333 I4.86723 J1.83032
G2 X85.2 Y7.0 I2.6 J-4.50333
G2 X77.4 Y2.49667 I-5.2 J0.0
G2 X75.13277 Y5.16968 I2.6 J4.50333
G0 Z3.0
G0 X79.6256 Y6.85921
G0 Z-24.0
G1 F300.0 Z-26.0
G2 F800.0 X79.8 Y7.34641 I0.3744 J0.14079
G2 X80.4 Y7.0 I0.2 J-0.34641
G2 X79.8 Y6.65359 I-0.4 J0.0
G2 X79.6256 Y6.85921 I0.2 J0.34641
G1 F300.0 X77.37918 Y6.01444
G2 F800.0 X78.6 Y9.42487 I2.62082 J0.98556
G2 X82.8 Y7.0 I1.4 J-2.42487
G2 X78.6 Y4.57513 I-2.8 J0.0
G2 X77.37918 Y6.01444 I1.4 J2.42487
G1 F300.0 X75.13277 Y5.16968
G2 F800.0 X77.4 Y11.50333 I4.86723 J1.83032
G2 X85.2 Y7.0 I2.6 J-4.50333
G2 X77.4 Y2.49667 I-5.2 J0.0
G2 X75.13277 Y5.16968 I2.6 J4.50333
G0 Z3.0
G0 X79.6256 Y6.85921
G0 Z-25.0
G1 F300.0 Z-27.0
G2 F800.0 X79.8 Y7.34641 I0.3744 J0.14079
G2 X80.4 Y7.0 I0.2 J-0.34641
G2 X79.8 Y6.65359 I-0.4 J0.0
G2 X79.6256 Y6.85921 I0.2 J0.34641
G1 F300.0 X77.37918 Y6.01444
G2 F800.0 X78.6 Y9.42487 I2.62082 J0.98556
G2 X82.8 Y7.0 I1.4 J-2.42487
G2 X78.6 Y4.57513 I-2.8 J0.0
G2 X77.37918 Y6.01444 I1.4 J2.42487
G1 F300.0 X75.13277 Y5.16968
G2 F800.0 X77.4 Y11.50333 I4.86723 J1.83032
G2 X85.2 Y7.0 I2.6 J-4.50333
G2 X77.4 Y2.49667 I-5.2 J0.0
G2 X75.13277 Y5.16968 I2.6 J4.50333
G0 Z3.0
G0 X79.6256 Y6.85921
G0 Z-26.0
G1 F300.0 Z-28.0
G2 F800.0 X79.8 Y7.34641 I0.3744 J0.14079
G2 X80.4 Y7.0 I0.2 J-0.34641
G2 X79.8 Y6.65359 I-0.4 J0.0
G2 X79.6256 Y6.85921 I0.2 J0.34641
G1 F300.0 X77.37918 Y6.01444
G2 F800.0 X78.6 Y9.42487 I2.62082 J0.98556
G2 X82.8 Y7.0 I1.4 J-2.42487
G2 X78.6 Y4.57513 I-2.8 J0.0
G2 X77.37918 Y6.01444 I1.4 J2.42487
G1 F300.0 X75.13277 Y5.16968
G2 F800.0 X77.4 Y11.50333 I4.86723 J1.83032
G2 X85.2 Y7.0 I2.6 J-4.50333
G2 X77.4 Y2.49667 I-5.2 J0.0
G2 X75.13277 Y5.16968 I2.6 J4.50333
G0 Z3.0
G0 X79.6256 Y6.85921
G0 Z-27.0
G1 F300.0 Z-29.0
G2 F800.0 X79.8 Y7.34641 I0.3744 J0.14079
G2 X80.4 Y7.0 I0.2 J-0.34641
G2 X79.8 Y6.65359 I-0.4 J0.0
G2 X79.6256 Y6.85921 I0.2 J0.34641
G1 F300.0 X77.37918 Y6.01444
G2 F800.0 X78.6 Y9.42487 I2.62082 J0.98556
G2 X82.8 Y7.0 I1.4 J-2.42487
G2 X78.6 Y4.57513 I-2.8 J0.0
G2 X77.37918 Y6.01444 I1.4 J2.42487
G1 F300.0 X75.13277 Y5.16968
G2 F800.0 X77.4 Y11.50333 I4.86723 J1.83032
G2 X85.2 Y7.0 I2.6 J-4.50333
G2 X77.4 Y2.49667 I-5.2 J0.0
G2 X75.13277 Y5.16968 I2.6 J4.50333
G0 Z3.0
G0 X79.6256 Y6.85921
G0 Z-28.0
G1 F300.0 Z-30.0
G2 F800.0 X79.8 Y7.34641 I0.3744 J0.14079
G2 X80.4 Y7.0 I0.2 J-0.34641
G2 X79.8 Y6.65359 I-0.4 J0.0
G2 X79.6256 Y6.85921 I0.2 J0.34641
G1 F300.0 X77.37918 Y6.01444
G2 F800.0 X78.6 Y9.42487 I2.62082 J0.98556
G2 X82.8 Y7.0 I1.4 J-2.42487
G2 X78.6 Y4.57513 I-2.8 J0.0
G2 X77.37918 Y6.01444 I1.4 J2.42487
G1 F300.0 X75.13277 Y5.16968
G2 F800.0 X77.4 Y11.50333 I4.86723 J1.83032
G2 X85.2 Y7.0 I2.6 J-4.50333
G2 X77.4 Y2.49667 I-5.2 J0.0
G2 X75.13277 Y5.16968 I2.6 J4.50333
G0 Z3.0
G0 X104.62957 Y-6.84906
G0 Z1.0
G1 F300.0 Z-1.0
G2 F800.0 X104.8 Y-6.65359 I0.37043 J-0.15094
G2 X105.4 Y-7.0 I0.2 J-0.34641
G2 X104.8 Y-7.34641 I-0.4 J0.0
G2 X104.62957 Y-6.84906 I0.2 J0.34641
G1 F300.0 X102.40699 Y-5.94345
G2 F800.0 X103.6 Y-4.57513 I2.59301 J-1.05655
G2 X107.8 Y-7.0 I1.4 J-2.42487
G2 X103.6 Y-9.42487 I-2.8 J0.0
G2 X102.40699 Y-5.94345 I1.4 J2.42487
G1 F300.0 X100.18441 Y-5.03784
G2 F800.0 X102.4 Y-2.49667 I4.81559 J-1.96216
G2 X110.2 Y-7.0 I2.6 J-4.50333
G2 X102.4 Y-11.50333 I-5.2 J0.0
G2 X100.18441 Y-5.03784 I2.6 J4.50333
G0 Z3.0
G0 X104.62957 Y-6.84906
G0 Z0.0
G1 F300.0 Z-2.0
G2 F800.0 X104.8 Y-6.65359 I0.37043 J-0.15094
G2 X105.4 Y-7.0 I0.2 J-0.34641
G2 X104.8 Y-7.34641 I-0.4 J0.0
G2 X104.62957 Y-6.84906 I0.2 J0.34641
G1 F300.0 X102.40699 Y-5.94345
G2 F800.0 X103.6 Y-4.57513 I2.59301 J-1.05655
G2 X107.8 Y-7.0 I1.4 J-2.42487
G2 X103.6 Y-9.42487 I-2.8 J0.0
G2 X102.40699 Y-5.94345 I1.4 J2.42487
G1 F300.0 X100.18441 Y-5.03784
G2 F800.0 X102.4 Y-2.49667 I4.81559 J-1.96216
G2 X110.2 Y-7.0 I2.6 J-4.50333
G2 X102.4 Y-11.50333 I-5.2 J0.0
G2 X100.18441 Y-5.03784 I2.6 J4.50333
G0 Z3.0
G0 X104.62957 Y-6.84906
G0 Z-1.0
G1 F300.0 Z-3.0
G2 F800.0 X104.8 Y-6.65359 I0.37043 J-0.15094
G2 X105.4 Y-7.0 I0.2 J-0.34641
G2 X104.8 Y-7.34641 I-0.4 J0.0
G2 X104.62957 Y-6.84906 I0.2 J0.34641
G1 F300.0 X102.40699 Y-5.94345
G2 F800.0 X103.6 Y-4.57513 I2.59301 J-1.05655
G2 X107.8 Y-7.0 I1.4 J-2.42487
G2 X103.6 Y-9.42487 I-2.8 J0.0
G2 X102.40699 Y-5.94345 I1.4 J2.42487
G1 F300.0 X100.18441 Y-5.03784
G2 F800.0 X102.4 Y-2.49667 I4.81559 J-1.96216
G2 X110.2 Y-7.0 I2.6 J-4.50333
G2 X102.4 Y-11.50333 I-5.2 J0.0
G2 X100.18441 Y-5.03784 I2.6 J4.50333
G0 Z3.0
G0 X104.62957 Y-6.84906
G0 Z-2.0
G1 F300.0 Z-4.0
G2 F800.0 X104.8 Y-6.65359 I0.37043 J-0.15094
G2 X105.4 Y-7.0 I0.2 J-0.34641
G2 X104.8 Y-7.34641 I-0.4 J0.0
G2 X104.62957 Y-6.84906 I0.2 J0.34641
G1 F300.0 X102.40699 Y-5.94345
G2 F800.0 X103.6 Y-4.57513 I2.59301 J-1.05655
G2 X107.8 Y-7.0 I1.4 J-2.42487
G2 X103.6 Y-9.42487 I-2.8 J0.0
G2 X102.40699 Y-5.94345 I1.4 J2.42487
G1 F300.0 X100.18441 Y-5.03784
G2 F800.0 X102.4 Y-2.49667 I4.81559 J-1.96216
G2 X110.2 Y-7.0 I2.6 J-4.50333
G2 X102.4 Y-11.50333 I-5.2 J0.0
G2 X100.18441 Y-5.03784 I2.6 J4.50333
G0 Z3.0
G0 X104.62957 Y-6.84906
G0 Z-3.0
G1 F300.0 Z-5.0
G2 F800.0 X104.8 Y-6.65359 I0.37043 J-0.15094
G2 X105.4 Y-7.0 I0.2 J-0.34641
G2 X104.8 Y-7.34641 I-0.4 J0.0
G2 X104.62957 Y-6.84906 I0.2 J0.34641
G1 F300.0 X102.40699 Y-5.94345
G2 F800.0 X103.6 Y-4.57513 I2.59301 J-1.05655
G2 X107.8 Y-7.0 I1.4 J-2.42487
G2 X103.6 Y-9.42487 I-2.8 J0.0
G2 X102.40699 Y-5.94345 I1.4 J2.42487
G1 F300.0 X100.18441 Y-5.03784
G2 F800.0 X102.4 Y-2.49667 I4.81559 J-1.96216
G2 X110.2 Y-7.0 I2.6 J-4.50333
G2 X102.4 Y-11.50333 I-5.2 J0.0
G2 X100.18441 Y-5.03784 I2.6 J4.50333
G0 Z3.0
G0 X104.62957 Y-6.84906
G0 Z-4.0
G1 F300.0 Z-6.0
G2 F800.0 X104.8 Y-6.65359 I0.37043 J-0.15094
G2 X105.4 Y-7.0 I0.2 J-0.34641
G2 X104.8 Y-7.34641 I-0.4 J0.0
G2 X104.62957 Y-6.84906 I0.2 J0.34641
G1 F300.0 X102.40699 Y-5.94345
G2 F800.0 X103.6 Y-4.57513 I2.59301 J-1.05655
G2 X107.8 Y-7.0 I1.4 J-2.42487
G2 X103.6 Y-9.42487 I-2.8 J0.0
G2 X102.40699 Y-5.94345 I1.4 J2.42487
G1 F300.0 X100.18441 Y-5.03784
G2 F800.0 X102.4 Y-2.49667 I4.81559 J-1.96216
G2 X110.2 Y-7.0 I2.6 J-4.50333
G2 X102.4 Y-11.50333 I-5.2 J0.0
G2 X100.18441 Y-5.03784 I2.6 J4.50333
G0 Z3.0
G0 X104.62957 Y-6.84906
G0 Z-5.0
G1 F300.0 Z-7.0
G2 F800.0 X104.8 Y-6.65359 I0.37043 J-0.15094
G2 X105.4 Y-7.0 I0.2 J-0.34641
G2 X104.8 Y-7.34641 I-0.4 J0.0
G2 X104.62957 Y-6.84906 I0.2 J0.34641
G1 F300.0 X102.40699 Y-5.94345
G2 F800.0 X103.6 Y-4.57513 I2.59301 J-1.05655
G2 X107.8 Y-7.0 I1.4 J-2.42487
G2 X103.6 Y-9.42487 I-2.8 J0.0
G2 X102.40699 Y-5.94345 I1.4 J2.42487
G1 F300.0 X100.18441 Y-5.03784
G2 F800.0 X102.4 Y-2.49667 I4.81559 J-1.96216
G2 X110.2 Y-7.0 I2.6 J-4.50333
G2 X102.4 Y-11.50333 I-5.2 J0.0
G2 X100.18441 Y-5.03784 I2.6 J4.50333
G0 Z3.0
G0 X104.62957 Y-6.84906
G0 Z-6.0
G1 F300.0 Z-8.0
G2 F800.0 X104.8 Y-6.65359 I0.37043 J-0.15094
G2 X105.4 Y-7.0 I0.2 J-0.34641
G2 X104.8 Y-7.34641 I-0.4 J0.0
G2 X104.62957 Y-6.84906 I0.2 J0.34641
G1 F300.0 X102.40699 Y-5.94345
G2 F800.0 X103.6 Y-4.57513 I2.59301 J-1.05655
G2 X107.8 Y-7.0 I1.4 J-2.42487
G2 X103.6 Y-9.42487 I-2.8 J0.0
G2 X102.40699 Y-5.94345 I1.4 J2.42487
G1 F300.0 X100.18441 Y-5.03784
G2 F800.0 X102.4 Y-2.49667 I4.81559 J-1.96216
G2 X110.2 Y-7.0 I2.6 J-4.50333
G2 X102.4 Y-11.50333 I-5.2 J0.0
G2 X100.18441 Y-5.03784 I2.6 J4.50333
G0 Z3.0
G0 X104.62957 Y-6.84906
G0 Z-7.0
G1 F300.0 Z-9.0
G2 F800.0 X104.8 Y-6.65359 I0.37043 J-0.15094
G2 X105.4 Y-7.0 I0.2 J-0.34641
G2 X104.8 Y-7.34641 I-0.4 J0.0
G2 X104.62957 Y-6.84906 I0.2 J0.34641
G1 F300.0 X102.40699 Y-5.94345
G2 F800.0 X103.6 Y-4.57513 I2.59301 J-1.05655
G2 X107.8 Y-7.0 I1.4 J-2.42487
G2 X103.6 Y-9.42487 I-2.8 J0.0
G2 X102.40699 Y-5.94345 I1.4 J2.42487
G1 F300.0 X100.18441 Y-5.03784
G2 F800.0 X102.4 Y-2.49667 I4.81559 J-1.96216
G2 X110.2 Y-7.0 I2.6 J-4.50333
G2 X102.4 Y-11.50333 I-5.2 J0.0
G2 X100.18441 Y-5.03784 I2.6 J4.50333
G0 Z3.0
G0 X104.62957 Y-6.84906
G0 Z-8.0
G1 F300.0 Z-10.0
G2 F800.0 X104.8 Y-6.65359 I0.37043 J-0.15094
G2 X105.4 Y-7.0 I0.2 J-0.34641
G2 X104.8 Y-7.34641 I-0.4 J0.0
G2 X104.62957 Y-6.84906 I0.2 J0.34641
G1 F300.0 X102.40699 Y-5.94345
G2 F800.0 X103.6 Y-4.57513 I2.59301 J-1.05655
G2 X107.8 Y-7.0 I1.4 J-2.42487
G2 X103.6 Y-9.42487 I-2.8 J0.0
G2 X102.40699 Y-5.94345 I1.4 J2.42487
G1 F300.0 X100.18441 Y-5.03784
G2 F800.0 X102.4 Y-2.49667 I4.81559 J-1.96216
G2 X110.2 Y-7.0 I2.6 J-4.50333
G2 X102.4 Y-11.50333 I-5.2 J0.0
G2 X100.18441 Y-5.03784 I2.6 J4.50333
G0 Z3.0
G0 X104.62957 Y-6.84906
G0 Z-9.0
G1 F300.0 Z-11.0
G2 F800.0 X104.8 Y-6.65359 I0.37043 J-0.15094
G2 X105.4 Y-7.0 I0.2 J-0.34641
G2 X104.8 Y-7.34641 I-0.4 J0.0
G2 X104.62957 Y-6.84906 I0.2 J0.34641
G1 F300.0 X102.40699 Y-5.94345
G2 F800.0 X103.6 Y-4.57513 I2.59301 J-1.05655
G2 X107.8 Y-7.0 I1.4 J-2.42487
G2 X103.6 Y-9.42487 I-2.8 J0.0
G2 X102.40699 Y-5.94345 I1.4 J2.42487
G1 F300.0 X100.18441 Y-5.03784
G2 F800.0 X102.4 Y-2.49667 I4.81559 J-1.96216
G2 X110.2 Y-7.0 I2.6 J-4.50333
G2 X102.4 Y-11.50333 I-5.2 J0.0
G2 X100.18441 Y-5.03784 I2.6 J4.50333
G0 Z3.0
G0 X104.62957 Y-6.84906
G0 Z-10.0
G1 F300.0 Z-12.0
G2 F800.0 X104.8 Y-6.65359 I0.37043 J-0.15094
G2 X105.4 Y-7.0 I0.2 J-0.34641
G2 X104.8 Y-7.34641 I-0.4 J0.0
G2 X104.62957 Y-6.84906 I0.2 J0.34641
G1 F300.0 X102.40699 Y-5.94345
G2 F800.0 X103.6 Y-4.57513 I2.59301 J-1.05655
G2 X107.8 Y-7.0 I1.4 J-2.42487
G2 X103.6 Y-9.42487 I-2.8 J0.0
G2 X102.40699 Y-5.94345 I1.4 J2.42487
G1 F300.0 X100.18441 Y-5.03784
G2 F800.0 X102.4 Y-2.49667 I4.81559 J-1.96216
G2 X110.2 Y-7.0 I2.6 J-4.50333
G2 X102.4 Y-11.50333 I-5.2 J0.0
G2 X100.18441 Y-5.03784 I2.6 J4.50333
G0 Z3.0
G0 X104.62957 Y-6.84906
G0 Z-11.0
G1 F300.0 Z-13.0
G2 F800.0 X104.8 Y-6.65359 I0.37043 J-0.15094
G2 X105.4 Y-7.0 I0.2 J-0.34641
G2 X104.8 Y-7.34641 I-0.4 J0.0
G2 X104.62957 Y-6.84906 I0.2 J0.34641
G1 F300.0 X102.40699 Y-5.94345
G2 F800.0 X103.6 Y-4.57513 I2.59301 J-1.05655
G2 X107.8 Y-7.0 I1.4 J-2.42487
G2 X103.6 Y-9.42487 I-2.8 J0.0
G2 X102.40699 Y-5.94345 I1.4 J2.42487
G1 F300.0 X100.18441 Y-5.03784
G2 F800.0 X102.4 Y-2.49667 I4.81559 J-1.96216
G2 X110.2 Y-7.0 I2.6 J-4.50333
G2 X102.4 Y-11.50333 I-5.2 J0.0
G2 X100.18441 Y-5.03784 I2.6 J4.50333
G0 Z3.0
G0 X104.62957 Y-6.84906
G0 Z-12.0
G1 F300.0 Z-14.0
G2 F800.0 X104.8 Y-6.65359 I0.37043 J-0.15094
G2 X105.4 Y-7.0 I0.2 J-0.34641
G2 X104.8 Y-7.34641 I-0.4 J0.0
G2 X104.62957 Y-6.84906 I0.2 J0.34641
G1 F300.0 X102.40699 Y-5.94345
G2 F800.0 X103.6 Y-4.57513 I2.59301 J-1.05655
G2 X107.8 Y-7.0 I1.4 J-2.42487
G2 X103.6 Y-9.42487 I-2.8 J0.0
G2 X102.40699 Y-5.94345 I1.4 J2.42487
G1 F300.0 X100.18441 Y-5.03784
G2 F800.0 X102.4 Y-2.49667 I4.81559 J-1.96216
G2 X110.2 Y-7.0 I2.6 J-4.50333
G2 X102.4 Y-11.50333 I-5.2 J0.0
G2 X100.18441 Y-5.03784 I2.6 J4.50333
G0 Z3.0
G0 X104.62957 Y-6.84906
G0 Z-13.0
G1 F300.0 Z-15.0
G2 F800.0 X104.8 Y-6.65359 I0.37043 J-0.15094
G2 X105.4 Y-7.0 I0.2 J-0.34641
G2 X104.8 Y-7.34641 I-0.4 J0.0
G2 X104.62957 Y-6.84906 I0.2 J0.34641
G1 F300.0 X102.40699 Y-5.94345
G2 F800.0 X103.6 Y-4.57513 I2.59301 J-1.05655
G2 X107.8 Y-7.0 I1.4 J-2.42487
G2 X103.6 Y-9.42487 I-2.8 J0.0
G2 X102.40699 Y-5.94345 I1.4 J2.42487
G1 F300.0 X100.18441 Y-5.03784
G2 F800.0 X102.4 Y-2.49667 I4.81559 J-1.96216
G2 X110.2 Y-7.0 I2.6 J-4.50333
G2 X102.4 Y-11.50333 I-5.2 J0.0
G2 X100.18441 Y-5.03784 I2.6 J4.50333
G0 Z3.0
G0 X104.62957 Y-6.84906
G0 Z-14.0
G1 F300.0 Z-16.0
G2 F800.0 X104.8 Y-6.65359 I0.37043 J-0.15094
G2 X105.4 Y-7.0 I0.2 J-0.34641
G2 X104.8 Y-7.34641 I-0.4 J0.0
G2 X104.62957 Y-6.84906 I0.2 J0.34641
G1 F300.0 X102.40699 Y-5.94345
G2 F800.0 X103.6 Y-4.57513 I2.59301 J-1.05655
G2 X107.8 Y-7.0 I1.4 J-2.42487
G2 X103.6 Y-9.42487 I-2.8 J0.0
G2 X102.40699 Y-5.94345 I1.4 J2.42487
G1 F300.0 X100.18441 Y-5.03784
G2 F800.0 X102.4 Y-2.49667 I4.81559 J-1.96216
G2 X110.2 Y-7.0 I2.6 J-4.50333
G2 X102.4 Y-11.50333 I-5.2 J0.0
G2 X100.18441 Y-5.03784 I2.6 J4.50333
G0 Z3.0
G0 X104.62957 Y-6.84906
G0 Z-15.0
G1 F300.0 Z-17.0
G2 F800.0 X104.8 Y-6.65359 I0.37043 J-0.15094
G2 X105.4 Y-7.0 I0.2 J-0.34641
G2 X104.8 Y-7.34641 I-0.4 J0.0
G2 X104.62957 Y-6.84906 I0.2 J0.34641
G1 F300.0 X102.40699 Y-5.94345
G2 F800.0 X103.6 Y-4.57513 I2.59301 J-1.05655
G2 X107.8 Y-7.0 I1.4 J-2.42487
G2 X103.6 Y-9.42487 I-2.8 J0.0
G2 X102.40699 Y-5.94345 I1.4 J2.42487
G1 F300.0 X100.18441 Y-5.03784
G2 F800.0 X102.4 Y-2.49667 I4.81559 J-1.96216
G2 X110.2 Y-7.0 I2.6 J-4.50333
G2 X102.4 Y-11.50333 I-5.2 J0.0
G2 X100.18441 Y-5.03784 I2.6 J4.50333
G0 Z3.0
G0 X104.62957 Y-6.84906
G0 Z-16.0
G1 F300.0 Z-18.0
G2 F800.0 X104.8 Y-6.65359 I0.37043 J-0.15094
G2 X105.4 Y-7.0 I0.2 J-0.34641
G2 X104.8 Y-7.34641 I-0.4 J0.0
G2 X104.62957 Y-6.84906 I0.2 J0.34641
G1 F300.0 X102.40699 Y-5.94345
G2 F800.0 X103.6 Y-4.57513 I2.59301 J-1.05655
G2 X107.8 Y-7.0 I1.4 J-2.42487
G2 X103.6 Y-9.42487 I-2.8 J0.0
G2 X102.40699 Y-5.94345 I1.4 J2.42487
G1 F300.0 X100.18441 Y-5.03784
G2 F800.0 X102.4 Y-2.49667 I4.81559 J-1.96216
G2 X110.2 Y-7.0 I2.6 J-4.50333
G2 X102.4 Y-11.50333 I-5.2 J0.0
G2 X100.18441 Y-5.03784 I2.6 J4.50333
G0 Z3.0
G0 X104.62957 Y-6.84906
G0 Z-17.0
G1 F300.0 Z-19.0
G2 F800.0 X104.8 Y-6.65359 I0.37043 J-0.15094
G2 X105.4 Y-7.0 I0.2 J-0.34641
G2 X104.8 Y-7.34641 I-0.4 J0.0
G2 X104.62957 Y-6.84906 I0.2 J0.34641
G1 F300.0 X102.40699 Y-5.94345
G2 F800.0 X103.6 Y-4.57513 I2.59301 J-1.05655
G2 X107.8 Y-7.0 I1.4 J-2.42487
G2 X103.6 Y-9.42487 I-2.8 J0.0
G2 X102.40699 Y-5.94345 I1.4 J2.42487
G1 F300.0 X100.18441 Y-5.03784
G2 F800.0 X102.4 Y-2.49667 I4.81559 J-1.96216
G2 X110.2 Y-7.0 I2.6 J-4.50333
G2 X102.4 Y-11.50333 I-5.2 J0.0
G2 X100.18441 Y-5.03784 I2.6 J4.50333
G0 Z3.0
G0 X104.62957 Y-6.84906
G0 Z-18.0
G1 F300.0 Z-20.0
G2 F800.0 X104.8 Y-6.65359 I0.37043 J-0.15094
G2 X105.4 Y-7.0 I0.2 J-0.34641
G2 X104.8 Y-7.34641 I-0.4 J0.0
G2 X104.62957 Y-6.84906 I0.2 J0.34641
G1 F300.0 X102.40699 Y-5.94345
G2 F800.0 X103.6 Y-4.57513 I2.59301 J-1.05655
G2 X107.8 Y-7.0 I1.4 J-2.42487
G2 X103.6 Y-9.42487 I-2.8 J0.0
G2 X102.40699 Y-5.94345 I1.4 J2.42487
G1 F300.0 X100.18441 Y-5.03784
G2 F800.0 X102.4 Y-2.49667 I4.81559 J-1.96216
G2 X110.2 Y-7.0 I2.6 J-4.50333
G2 X102.4 Y-11.50333 I-5.2 J0.0
G2 X100.18441 Y-5.03784 I2.6 J4.50333
G0 Z3.0
G0 X104.62957 Y-6.84906
G0 Z-19.0
G1 F300.0 Z-21.0
G2 F800.0 X104.8 Y-6.65359 I0.37043 J-0.15094
G2 X105.4 Y-7.0 I0.2 J-0.34641
G2 X104.8 Y-7.34641 I-0.4 J0.0
G2 X104.62957 Y-6.84906 I0.2 J0.34641
G1 F300.0 X102.40699 Y-5.94345
G2 F800.0 X103.6 Y-4.57513 I2.59301 J-1.05655
G2 X107.8 Y-7.0 I1.4 J-2.42487
G2 X103.6 Y-9.42487 I-2.8 J0.0
G2 X102.40699 Y-5.94345 I1.4 J2.42487
G1 F300.0 X100.18441 Y-5.03784
G2 F800.0 X102.4 Y-2.49667 I4.81559 J-1.96216
G2 X110.2 Y-7.0 I2.6 J-4.50333
G2 X102.4 Y-11.50333 I-5.2 J0.0
G2 X100.18441 Y-5.03784 I2.6 J4.50333
G0 Z3.0
G0 X104.62957 Y-6.84906
G0 Z-20.0
G1 F300.0 Z-22.0
G2 F800.0 X104.8 Y-6.65359 I0.37043 J-0.15094
G2 X105.4 Y-7.0 I0.2 J-0.34641
G2 X104.8 Y-7.34641 I-0.4 J0.0
G2 X104.62957 Y-6.84906 I0.2 J0.34641
G1 F300.0 X102.40699 Y-5.94345
G2 F800.0 X103.6 Y-4.57513 I2.59301 J-1.05655
G2 X107.8 Y-7.0 I1.4 J-2.42487
G2 X103.6 Y-9.42487 I-2.8 J0.0
G2 X102.40699 Y-5.94345 I1.4 J2.42487
G1 F300.0 X100.18441 Y-5.03784
G2 F800.0 X102.4 Y-2.49667 I4.81559 J-1.96216
G2 X110.2 Y-7.0 I2.6 J-4.50333
G2 X102.4 Y-11.50333 I-5.2 J0.0
G2 X100.18441 Y-5.03784 I2.6 J4.50333
G0 Z3.0
G0 X104.62957 Y-6.84906
G0 Z-21.0
G1 F300.0 Z-23.0
G2 F800.0 X104.8 Y-6.65359 I0.37043 J-0.15094
G2 X105.4 Y-7.0 I0.2 J-0.34641
G2 X104.8 Y-7.34641 I-0.4 J0.0
G2 X104.62957 Y-6.84906 I0.2 J0.34641
G1 F300.0 X102.40699 Y-5.94345
G2 F800.0 X103.6 Y-4.57513 I2.59301 J-1.05655
G2 X107.8 Y-7.0 I1.4 J-2.42487
G2 X103.6 Y-9.42487 I-2.8 J0.0
G2 X102.40699 Y-5.94345 I1.4 J2.42487
G1 F300.0 X100.18441 Y-5.03784
G2 F800.0 X102.4 Y-2.49667 I4.81559 J-1.96216
G2 X110.2 Y-7.0 I2.6 J-4.50333
G2 X102.4 Y-11.50333 I-5.2 J0.0
G2 X100.18441 Y-5.03784 I2.6 J4.50333
G0 Z3.0
G0 X104.62957 Y-6.84906
G0 Z-22.0
G1 F300.0 Z-24.0
G2 F800.0 X104.8 Y-6.65359 I0.37043 J-0.15094
G2 X105.4 Y-7.0 I0.2 J-0.34641
G2 X104.8 Y-7.34641 I-0.4 J0.0
G2 X104.62957 Y-6.84906 I0.2 J0.34641
G1 F300.0 X102.40699 Y-5.94345
G2 F800.0 X103.6 Y-4.57513 I2.59301 J-1.05655
G2 X107.8 Y-7.0 I1.4 J-2.42487
G2 X103.6 Y-9.42487 I-2.8 J0.0
G2 X102.40699 Y-5.94345 I1.4 J2.42487
G1 F300.0 X100.18441 Y-5.03784
G2 F800.0 X102.4 Y-2.49667 I4.81559 J-1.96216
G2 X110.2 Y-7.0 I2.6 J-4.50333
G2 X102.4 Y-11.50333 I-5.2 J0.0
G2 X100.18441 Y-5.03784 I2.6 J4.50333
G0 Z3.0
G0 X104.62957 Y-6.84906
G0 Z-23.0
G1 F300.0 Z-25.0
G2 F800.0 X104.8 Y-6.65359 I0.37043 J-0.15094
G2 X105.4 Y-7.0 I0.2 J-0.34641
G2 X104.8 Y-7.34641 I-0.4 J0.0
G2 X104.62957 Y-6.84906 I0.2 J0.34641
G1 F300.0 X102.40699 Y-5.94345
G2 F800.0 X103.6 Y-4.57513 I2.59301 J-1.05655
G2 X107.8 Y-7.0 I1.4 J-2.42487
G2 X103.6 Y-9.42487 I-2.8 J0.0
G2 X102.40699 Y-5.94345 I1.4 J2.42487
G1 F300.0 X100.18441 Y-5.03784
G2 F800.0 X102.4 Y-2.49667 I4.81559 J-1.96216
G2 X110.2 Y-7.0 I2.6 J-4.50333
G2 X102.4 Y-11.50333 I-5.2 J0.0
G2 X100.18441 Y-5.03784 I2.6 J4.50333
G0 Z3.0
G0 X104.62957 Y-6.84906
G0 Z-24.0
G1 F300.0 Z-26.0
G2 F800.0 X104.8 Y-6.65359 I0.37043 J-0.15094
G2 X105.4 Y-7.0 I0.2 J-0.34641
G2 X104.8 Y-7.34641 I-0.4 J0.0
G2 X104.62957 Y-6.84906 I0.2 J0.34641
G1 F300.0 X102.40699 Y-5.94345
G2 F800.0 X103.6 Y-4.57513 I2.59301 J-1.05655
G2 X107.8 Y-7.0 I1.4 J-2.42487
G2 X103.6 Y-9.42487 I-2.8 J0.0
G2 X102.40699 Y-5.94345 I1.4 J2.42487
G1 F300.0 X100.18441 Y-5.03784
G2 F800.0 X102.4 Y-2.49667 I4.81559 J-1.96216
G2 X110.2 Y-7.0 I2.6 J-4.50333
G2 X102.4 Y-11.50333 I-5.2 J0.0
G2 X100.18441 Y-5.03784 I2.6 J4.50333
G0 Z3.0
G0 X104.62957 Y-6.84906
G0 Z-25.0
G1 F300.0 Z-27.0
G2 F800.0 X104.8 Y-6.65359 I0.37043 J-0.15094
G2 X105.4 Y-7.0 I0.2 J-0.34641
G2 X104.8 Y-7.34641 I-0.4 J0.0
G2 X104.62957 Y-6.84906 I0.2 J0.34641
G1 F300.0 X102.40699 Y-5.94345
G2 F800.0 X103.6 Y-4.57513 I2.59301 J-1.05655
G2 X107.8 Y-7.0 I1.4 J-2.42487
G2 X103.6 Y-9.42487 I-2.8 J0.0
G2 X102.40699 Y-5.94345 I1.4 J2.42487
G1 F300.0 X100.18441 Y-5.03784
G2 F800.0 X102.4 Y-2.49667 I4.81559 J-1.96216
G2 X110.2 Y-7.0 I2.6 J-4.50333
G2 X102.4 Y-11.50333 I-5.2 J0.0
G2 X100.18441 Y-5.03784 I2.6 J4.50333
G0 Z3.0
G0 X104.62957 Y-6.84906
G0 Z-26.0
G1 F300.0 Z-28.0
G2 F800.0 X104.8 Y-6.65359 I0.37043 J-0.15094
G2 X105.4 Y-7.0 I0.2 J-0.34641
G2 X104.8 Y-7.34641 I-0.4 J0.0
G2 X104.62957 Y-6.84906 I0.2 J0.34641
G1 F300.0 X102.40699 Y-5.94345
G2 F800.0 X103.6 Y-4.57513 I2.59301 J-1.05655
G2 X107.8 Y-7.0 I1.4 J-2.42487
G2 X103.6 Y-9.42487 I-2.8 J0.0
G2 X102.40699 Y-5.94345 I1.4 J2.42487
G1 F300.0 X100.18441 Y-5.03784
G2 F800.0 X102.4 Y-2.49667 I4.81559 J-1.96216
G2 X110.2 Y-7.0 I2.6 J-4.50333
G2 X102.4 Y-11.50333 I-5.2 J0.0
G2 X100.18441 Y-5.03784 I2.6 J4.50333
G0 Z3.0
G0 X104.62957 Y-6.84906
G0 Z-27.0
G1 F300.0 Z-29.0
G2 F800.0 X104.8 Y-6.65359 I0.37043 J-0.15094
G2 X105.4 Y-7.0 I0.2 J-0.34641
G2 X104.8 Y-7.34641 I-0.4 J0.0
G2 X104.62957 Y-6.84906 I0.2 J0.34641
G1 F300.0 X102.40699 Y-5.94345
G2 F800.0 X103.6 Y-4.57513 I2.59301 J-1.05655
G2 X107.8 Y-7.0 I1.4 J-2.42487
G2 X103.6 Y-9.42487 I-2.8 J0.0
G2 X102.40699 Y-5.94345 I1.4 J2.42487
G1 F300.0 X100.18441 Y-5.03784
G2 F800.0 X102.4 Y-2.49667 I4.81559 J-1.96216
G2 X110.2 Y-7.0 I2.6 J-4.50333
G2 X102.4 Y-11.50333 I-5.2 J0.0
G2 X100.18441 Y-5.03784 I2.6 J4.50333
G0 Z3.0
G0 X104.62957 Y-6.84906
G0 Z-28.0
G1 F300.0 Z-30.0
G2 F800.0 X104.8 Y-6.65359 I0.37043 J-0.15094
G2 X105.4 Y-7.0 I0.2 J-0.34641
G2 X104.8 Y-7.34641 I-0.4 J0.0
G2 X104.62957 Y-6.84906 I0.2 J0.34641
G1 F300.0 X102.40699 Y-5.94345
G2 F800.0 X103.6 Y-4.57513 I2.59301 J-1.05655
G2 X107.8 Y-7.0 I1.4 J-2.42487
G2 X103.6 Y-9.42487 I-2.8 J0.0
G2 X102.40699 Y-5.94345 I1.4 J2.42487
G1 F300.0 X100.18441 Y-5.03784
G2 F800.0 X102.4 Y-2.49667 I4.81559 J-1.96216
G2 X110.2 Y-7.0 I2.6 J-4.50333
G2 X102.4 Y-11.50333 I-5.2 J0.0
G2 X100.18441 Y-5.03784 I2.6 J4.50333
G0 Z3.0
G0 X129.62909 Y6.85025
G0 Z1.0
G1 F300.0 Z-1.0
G2 F800.0 X129.8 Y7.34641 I0.37091 J0.14975
G2 X130.4 Y7.0 I0.2 J-0.34641
G2 X129.8 Y6.65359 I-0.4 J0.0
G2 X129.62909 Y6.85025 I0.2 J0.34641
G1 F300.0 X127.40363 Y5.95173
G2 F800.0 X128.6 Y9.42487 I2.59637 J1.04827
G2 X132.8 Y7.0 I1.4 J-2.42487
G2 X128.6 Y4.57513 I-2.8 J0.0
G2 X127.40363 Y5.95173 I1.4 J2.42487
G1 F300.0 X125.17817 Y5.05322
G2 F800.0 X127.4 Y11.50333 I4.82183 J1.94678
G2 X135.2 Y7.0 I2.6 J-4.50333
G2 X127.4 Y2.49667 I-5.2 J0.0
G2 X125.17817 Y5.05322 I2.6 J4.50333
G0 Z3.0
G0 X129.62909 Y6.85025
G0 Z0.0
G1 F300.0 Z-2.0
G2 F800.0 X129.8 Y7.34641 I0.37091 J0.14975
G2 X130.4 Y7.0 I0.2 J-0.34641
G2 X129.8 Y6.65359 I-0.4 J0.0
G2 X129.62909 Y6.85025 I0.2 J0.34641
G1 F300.0 X127.40363 Y5.95173
G2 F800.0 X128.6 Y9.42487 I2.59637 J1.04827
G2 X132.8 Y7.0 I1.4 J-2.42487
G2 X128.6 Y4.57513 I-2.8 J0.0
G2 X127.40363 Y5.95173 I1.4 J2.42487
G1 F300.0 X125.17817 Y5.05322
G2 F800.0 X127.4 Y11.50333 I4.82183 J1.94678
G2 X135.2 Y7.0 I2.6 J-4.50333
G2 X127.4 Y2.49667 I-5.2 J0.0
G2 X125.17817 Y5.05322 I2.6 J4.50333
G0 Z3.0
G0 X129.62909 Y6.85025
G0 Z-1.0
G1 F300.0 Z-3.0
G2 F800.0 X129.8 Y7.34641 I0.37091 J0.14975
G2 X130.4 Y7.0 I0.2 J-0.34641
G2 X129.8 Y6.65359 I-0.4 J0.0
G2 X129.62909 Y6.85025 I0.2 J0.34641
G1 F300.0 X127.40363 Y5.95173
G2 F800.0 X128.6 Y9.42487 I2.59637 J1.04827
G2 X132.8 Y7.0 I1.4 J-2.42487
G2 X128.6 Y4.57513 I-2.8 J0.0
G2 X127.40363 Y5.95173 I1.4 J2.42487
G1 F300.0 X125.17817 Y5.05322
G2 F800.0 X127.4 Y11.50333 I4.82183 J1.94678
G2 X135.2 Y7.0 I2.6 J-4.50333
G2 X127.4 Y2.49667 I-5.2 J0.0
G2 X125.17817 Y5.05322 I2.6 J4.50333
G0 Z3.0
G0 X129.62909 Y6.85025
G0 Z-2.0
G1 F300.0 Z-4.0
G2 F800.0 X129.8 Y7.34641 I0.37091 J0.14975
G2 X130.4 Y7.0 I0.2 J-0.34641
G2 X129.8 Y6.65359 I-0.4 J0.0
G2 X129.62909 Y6.85025 I0.2 J0.34641
G1 F300.0 X127.40363 Y5.95173
G2 F800.0 X128.6 Y9.42487 I2.59637 J1.04827
G2 X132.8 Y7.0 I1.4 J-2.42487
G2 X128.6 Y4.57513 I-2.8 J0.0
G2 X127.40363 Y5.95173 I1.4 J2.42487
G1 F300.0 X125.17817 Y5.05322
G2 F800.0 X127.4 Y11.50333 I4.82183 J1.94678
G2 X135.2 Y7.0 I2.6 J-4.50333
G2 X127.4 Y2.49667 I-5.2 J0.0
G2 X125.17817 Y5.05322 I2.6 J4.50333
G0 Z3.0
G0 X129.62909 Y6.85025
G0 Z-3.0
G1 F300.0 Z-5.0
G2 F800.0 X129.8 Y7.34641 I0.37091 J0.14975
G2 X130.4 Y7.0 I0.2 J-0.34641
G2 X129.8 Y6.65359 I-0.4 J0.0
G2 X129.62909 Y6.85025 I0.2 J0.34641
G1 F300.0 X127.40363 Y5.95173
G2 F800.0 X128.6 Y9.42487 I2.59637 J1.04827
G2 X132.8 Y7.0 I1.4 J-2.42487
G2 X128.6 Y4.57513 I-2.8 J0.0
G2 X127.40363 Y5.95173 I1.4 J2.42487
G1 F300.0 X125.17817 Y5.05322
G2 F800.0 X127.4 Y11.50333 I4.82183 J1.94678
G2 X135.2 Y7.0 I2.6 J-4.50333
G2 X127.4 Y2.49667 I-5.2 J0.0
G2 X125.17817 Y5.05322 I2.6 J4.50333
G0 Z3.0
G0 X129.62909 Y6.85025
G0 Z-4.0
G1 F300.0 Z-6.0
G2 F800.0 X129.8 Y7.34641 I0.37091 J0.14975
G2 X130.4 Y7.0 I0.2 J-0.34641
G2 X129.8 Y6.65359 I-0.4 J0.0
G2 X129.62909 Y6.85025 I0.2 J0.34641
G1 F300.0 X127.40363 Y5.95173
G2 F800.0 X128.6 Y9.42487 I2.59637 J1.04827
G2 X132.8 Y7.0 I1.4 J-2.42487
G2 X128.6 Y4.57513 I-2.8 J0.0
G2 X127.40363 Y5.95173 I1.4 J2.42487
G1 F300.0 X125.17817 Y5.05322
G2 F800.0 X127.4 Y11.50333 I4.82183 J1.94678
G2 X135.2 Y7.0 I2.6 J-4.50333
G2 X127.4 Y2.49667 I-5.2 J0.0
G2 X125.17817 Y5.05322 I2.6 J4.50333
G0 Z3.0
G0 X129.62909 Y6.85025
G0 Z-5.0
G1 F300.0 Z-7.0
G2 F800.0 X129.8 Y7.34641 I0.37091 J0.14975
G2 X130.4 Y7.0 I0.2 J-0.34641
G2 X129.8 Y6.65359 I-0.4 J0.0
G2 X129.62909 Y6.85025 I0.2 J0.34641
G1 F300.0 X127.40363 Y5.95173
G2 F800.0 X128.6 Y9.42487 I2.59637 J1.04827
G2 X132.8 Y7.0 I1.4 J-2.42487
G2 X128.6 Y4.57513 I-2.8 J0.0
G2 X127.40363 Y5.95173 I1.4 J2.42487
G1 F300.0 X125.17817 Y5.05322
G2 F800.0 X127.4 Y11.50333 I4.82183 J1.94678
G2 X135.2 Y7.0 I2.6 J-4.50333
G2 X127.4 Y2.49667 I-5.2 J0.0
G2 X125.17817 Y5.05322 I2.6 J4.50333
G0 Z3.0
G0 X129.62909 Y6.85025
G0 Z-6.0
G1 F300.0 Z-8.0
G2 F800.0 X129.8 Y7.34641 I0.37091 J0.14975
G2 X130.4 Y7.0 I0.2 J-0.34641
G2 X129.8 Y6.65359 I-0.4 J0.0
G2 X129.62909 Y6.85025 I0.2 J0.34641
G1 F300.0 X127.40363 Y5.95173
G2 F800.0 X128.6 Y9.42487 I2.59637 J1.04827
G2 X132.8 Y7.0 I1.4 J-2.42487
G2 X128.6 Y4.57513 I-2.8 J0.0
G2 X127.40363 Y5.95173 I1.4 J2.42487
G1 F300.0 X125.17817 Y5.05322
G2 F800.0 X127.4 Y11.50333 I4.82183 J1.94678
G2 X135.2 Y7.0 I2.6 J-4.50333
G2 X127.4 Y2.49667 I-5.2 J0.0
G2 X125.17817 Y5.05322 I2.6 J4.50333
G0 Z3.0
G0 X129.62909 Y6.85025
G0 Z-7.0
G1 F300.0 Z-9.0
G2 F800.0 X129.8 Y7.34641 I0.37091 J0.14975
G2 X130.4 Y7.0 I0.2 J-0.34641
G2 X129.8 Y6.65359 I-0.4 J0.0
G2 X129.62909 Y6.85025 I0.2 J0.34641
G1 F300.0 X127.40363 Y5.95173
G2 F800.0 X128.6 Y9.42487 I2.59637 J1.04827
G2 X132.8 Y7.0 I1.4 J-2.42487
G2 X128.6 Y4.57513 I-2.8 J0.0
G2 X127.40363 Y5.95173 I1.4 J2.42487
G1 F300.0 X125.17817 Y5.05322
G2 F800.0 X127.4 Y11.50333 I4.82183 J1.94678
G2 X135.2 Y7.0 I2.6 J-4.50333
G2 X127.4 Y2.49667 I-5.2 J0.0
G2 X125.17817 Y5.05322 I2.6 J4.50333
G0 Z3.0
G0 X129.62909 Y6.85025
G0 Z-8.0
G1 F300.0 Z-10.0
G2 F800.0 X129.8 Y7.34641 I0.37091 J0.14975
G2 X130.4 Y7.0 I0.2 J-0.34641
G2 X129.8 Y6.65359 I-0.4 J0.0
G2 X129.62909 Y6.85025 I0.2 J0.34641
G1 F300.0 X127.40363 Y5.95173
G2 F800.0 X128.6 Y9.42487 I2.59637 J1.04827
G2 X132.8 Y7.0 I1.4 J-2.42487
G2 X128.6 Y4.57513 I-2.8 J0.0
G2 X127.40363 Y5.95173 I1.4 J2.42487
G1 F300.0 X125.17817 Y5.05322
G2 F800.0 X127.4 Y11.50333 I4.82183 J1.94678
G2 X135.2 Y7.0 I2.6 J-4.50333
G2 X127.4 Y2.49667 I-5.2 J0.0
G2 X125.17817 Y5.05322 I2.6 J4.50333
G0 Z3.0
G0 X129.62909 Y6.85025
G0 Z-9.0
G1 F300.0 Z-11.0
G2 F800.0 X129.8 Y7.34641 I0.37091 J0.14975
G2 X130.4 Y7.0 I0.2 J-0.34641
G2 X129.8 Y6.65359 I-0.4 J0.0
G2 X129.62909 Y6.85025 I0.2 J0.34641
G1 F300.0 X127.40363 Y5.95173
G2 F800.0 X128.6 Y9.42487 I2.59637 J1.04827
G2 X132.8 Y7.0 I1.4 J-2.42487
G2 X128.6 Y4.57513 I-2.8 J0.0
G2 X127.40363 Y5.95173 I1.4 J2.42487
G1 F300.0 X125.17817 Y5.05322
G2 F800.0 X127.4 Y11.50333 I4.82183 J1.94678
G2 X135.2 Y7.0 I2.6 J-4.50333
G2 X127.4 Y2.49667 I-5.2 J0.0
G2 X125.17817 Y5.05322 I2.6 J4.50333
G0 Z3.0
G0 X129.62909 Y6.85025
G0 Z-10.0
G1 F300.0 Z-12.0
G2 F800.0 X129.8 Y7.34641 I0.37091 J0.14975
G2 X130.4 Y7.0 I0.2 J-0.34641
G2 X129.8 Y6.65359 I-0.4 J0.0
G2 X129.62909 Y6.85025 I0.2 J0.34641
G1 F300.0 X127.40363 Y5.95173
G2 F800.0 X128.6 Y9.42487 I2.59637 J1.04827
G2 X132.8 Y7.0 I1.4 J-2.42487
G2 X128.6 Y4.57513 I-2.8 J0.0
G2 X127.40363 Y5.95173 I1.4 J2.42487
G1 F300.0 X125.17817 Y5.05322
G2 F800.0 X127.4 Y11.50333 I4.82183 J1.94678
G2 X135.2 Y7.0 I2.6 J-4.50333
G2 X127.4 Y2.49667 I-5.2 J0.0
G2 X125.17817 Y5.05322 I2.6 J4.50333
G0 Z3.0
G0 X129.62909 Y6.85025
G0 Z-11.0
G1 F300.0 Z-13.0
G2 F800.0 X129.8 Y7.34641 I0.37091 J0.14975
G2 X130.4 Y7.0 I0.2 J-0.34641
G2 X129.8 Y6.65359 I-0.4 J0.0
G2 X129.62909 Y6.85025 I0.2 J0.34641
G1 F300.0 X127.40363 Y5.95173
G2 F800.0 X128.6 Y9.42487 I2.59637 J1.04827
G2 X132.8 Y7.0 I1.4 J-2.42487
G2 X128.6 Y4.57513 I-2.8 J0.0
G2 X127.40363 Y5.95173 I1.4 J2.42487
G1 F300.0 X125.17817 Y5.05322
G2 F800.0 X127.4 Y11.50333 I4.82183 J1.94678
G2 X135.2 Y7.0 I2.6 J-4.50333
G2 X127.4 Y2.49667 I-5.2 J0.0
G2 X125.17817 Y5.05322 I2.6 J4.50333
G0 Z3.0
G0 X129.62909 Y6.85025
G0 Z-12.0
G1 F300.0 Z-14.0
G2 F800.0 X129.8 Y7.34641 I0.37091 J0.14975
G2 X130.4 Y7.0 I0.2 J-0.34641
G2 X129.8 Y6.65359 I-0.4 J0.0
G2 X129.62909 Y6.85025 I0.2 J0.34641
G1 F300.0 X127.40363 Y5.95173
G2 F800.0 X128.6 Y9.42487 I2.59637 J1.04827
G2 X132.8 Y7.0 I1.4 J-2.42487
G2 X128.6 Y4.57513 I-2.8 J0.0
G2 X127.40363 Y5.95173 I1.4 J2.42487
G1 F300.0 X125.17817 Y5.05322
G2 F800.0 X127.4 Y11.50333 I4.82183 J1.94678
G2 X135.2 Y7.0 I2.6 J-4.50333
G2 X127.4 Y2.49667 I-5.2 J0.0
G2 X125.17817 Y5.05322 I2.6 J4.50333
G0 Z3.0
G0 X129.62909 Y6.85025
G0 Z-13.0
G1 F300.0 Z-15.0
G2 F800.0 X129.8 Y7.34641 I0.37091 J0.14975
G2 X130.4 Y7.0 I0.2 J-0.34641
G2 X129.8 Y6.65359 I-0.4 J0.0
G2 X129.62909 Y6.85025 I0.2 J0.34641
G1 F300.0 X127.40363 Y5.95173
G2 F800.0 X128.6 Y9.42487 I2.59637 J1.04827
G2 X132.8 Y7.0 I1.4 J-2.42487
G2 X128.6 Y4.57513 I-2.8 J0.0
G2 X127.40363 Y5.95173 I1.4 J2.42487
G1 F300.0 X125.17817 Y5.05322
G2 F800.0 X127.4 Y11.50333 I4.82183 J1.94678
G2 X135.2 Y7.0 I2.6 J-4.50333
G2 X127.4 Y2.49667 I-5.2 J0.0
G2 X125.17817 Y5.05322 I2.6 J4.50333
G0 Z3.0
G0 X129.62909 Y6.85025
G0 Z-14.0
G1 F300.0 Z-16.0
G2 F800.0 X129.8 Y7.34641 I0.37091 J0.14975
G2 X130.4 Y7.0 I0.2 J-0.34641
G2 X129.8 Y6.65359 I-0.4 J0.0
G2 X129.62909 Y6.85025 I0.2 J0.34641
G1 F300.0 X127.40363 Y5.95173
G2 F800.0 X128.6 Y9.42487 I2.59637 J1.04827
G2 X132.8 Y7.0 I1.4 J-2.42487
G2 X128.6 Y4.57513 I-2.8 J0.0
G2 X127.40363 Y5.95173 I1.4 J2.42487
G1 F300.0 X125.17817 Y5.05322
G2 F800.0 X127.4 Y11.50333 I4.82183 J1.94678
G2 X135.2 Y7.0 I2.6 J-4.50333
G2 X127.4 Y2.49667 I-5.2 J0.0
G2 X125.17817 Y5.05322 I2.6 J4.50333
G0 Z3.0
G0 X129.62909 Y6.85025
G0 Z-15.0
G1 F300.0 Z-17.0
G2 F800.0 X129.8 Y7.34641 I0.37091 J0.14975
G2 X130.4 Y7.0 I0.2 J-0.34641
G2 X129.8 Y6.65359 I-0.4 J0.0
G2 X129.62909 Y6.85025 I0.2 J0.34641
G1 F300.0 X127.40363 Y5.95173
G2 F800.0 X128.6 Y9.42487 I2.59637 J1.04827
G2 X132.8 Y7.0 I1.4 J-2.42487
G2 X128.6 Y4.57513 I-2.8 J0.0
G2 X127.40363 Y5.95173 I1.4 J2.42487
G1 F300.0 X125.17817 Y5.05322
G2 F800.0 X127.4 Y11.50333 I4.82183 J1.94678
G2 X135.2 Y7.0 I2.6 J-4.50333
G2 X127.4 Y2.49667 I-5.2 J0.0
G2 X125.17817 Y5.05322 I2.6 J4.50333
G0 Z3.0
G0 X129.62909 Y6.85025
G0 Z-16.0
G1 F300.0 Z-18.0
G2 F800.0 X129.8 Y7.34641 I0.37091 J0.14975
G2 X130.4 Y7.0 I0.2 J-0.34641
G2 X129.8 Y6.65359 I-0.4 J0.0
G2 X129.62909 Y6.85025 I0.2 J0.34641
G1 F300.0 X127.40363 Y5.95173
G2 F800.0 X128.6 Y9.42487 I2.59637 J1.04827
G2 X132.8 Y7.0 I1.4 J-2.42487
G2 X128.6 Y4.57513 I-2.8 J0.0
G2 X127.40363 Y5.95173 I1.4 J2.42487
G1 F300.0 X125.17817 Y5.05322
G2 F800.0 X127.4 Y11.50333 I4.82183 J1.94678
G2 X135.2 Y7.0 I2.6 J-4.50333
G2 X127.4 Y2.49667 I-5.2 J0.0
G2 X125.17817 Y5.05322 I2.6 J4.50333
G0 Z3.0
G0 X129.62909 Y6.85025
G0 Z-17.0
G1 F300.0 Z-19.0
G2 F800.0 X129.8 Y7.34641 I0.37091 J0.14975
G2 X130.4 Y7.0 I0.2 J-0.34641
G2 X129.8 Y6.65359 I-0.4 J0.0
G2 X129.62909 Y6.85025 I0.2 J0.34641
G1 F300.0 X127.40363 Y5.95173
G2 F800.0 X128.6 Y9.42487 I2.59637 J1.04827
G2 X132.8 Y7.0 I1.4 J-2.42487
G2 X128.6 Y4.57513 I-2.8 J0.0
G2 X127.40363 Y5.95173 I1.4 J2.42487
G1 F300.0 X125.17817 Y5.05322
G2 F800.0 X127.4 Y11.50333 I4.82183 J1.94678
G2 X135.2 Y7.0 I2.6 J-4.50333
G2 X127.4 Y2.49667 I-5.2 J0.0
G2 X125.17817 Y5.05322 I2.6 J4.50333
G0 Z3.0
G0 X129.62909 Y6.85025
G0 Z-18.0
G1 F300.0 Z-20.0
G2 F800.0 X129.8 Y7.34641 I0.37091 J0.14975
G2 X130.4 Y7.0 I0.2 J-0.34641
G2 X129.8 Y6.65359 I-0.4 J0.0
G2 X129.62909 Y6.85025 I0.2 J0.34641
G1 F300.0 X127.40363 Y5.95173
G2 F800.0 X128.6 Y9.42487 I2.59637 J1.04827
G2 X132.8 Y7.0 I1.4 J-2.42487
G2 X128.6 Y4.57513 I-2.8 J0.0
G2 X127.40363 Y5.95173 I1.4 J2.42487
G1 F300.0 X125.17817 Y5.05322
G2 F800.0 X127.4 Y11.50333 I4.82183 J1.94678
G2 X135.2 Y7.0 I2.6 J-4.50333
G2 X127.4 Y2.49667 I-5.2 J0.0
G2 X125.17817 Y5.05322 I2.6 J4.50333
G0 Z3.0
G0 X129.62909 Y6.85025
G0 Z-19.0
G1 F300.0 Z-21.0
G2 F800.0 X129.8 Y7.34641 I0.37091 J0.14975
G2 X130.4 Y7.0 I0.2 J-0.34641
G2 X129.8 Y6.65359 I-0.4 J0.0
G2 X129.62909 Y6.85025 I0.2 J0.34641
G1 F300.0 X127.40363 Y5.95173
G2 F800.0 X128.6 Y9.42487 I2.59637 J1.04827
G2 X132.8 Y7.0 I1.4 J-2.42487
G2 X128.6 Y4.57513 I-2.8 J0.0
G2 X127.40363 Y5.95173 I1.4 J2.42487
G1 F300.0 X125.17817 Y5.05322
G2 F800.0 X127.4 Y11.50333 I4.82183 J1.94678
G2 X135.2 Y7.0 I2.6 J-4.50333
G2 X127.4 Y2.49667 I-5.2 J0.0
G2 X125.17817 Y5.05322 I2.6 J4.50333
G0 Z3.0
G0 X129.62909 Y6.85025
G0 Z-20.0
G1 F300.0 Z-22.0
G2 F800.0 X129.8 Y7.34641 I0.37091 J0.14975
G2 X130.4 Y7.0 I0.2 J-0.34641
G2 X129.8 Y6.65359 I-0.4 J0.0
G2 X129.62909 Y6.85025 I0.2 J0.34641
G1 F300.0 X127.40363 Y5.95173
G2 F800.0 X128.6 Y9.42487 I2.59637 J1.04827
G2 X132.8 Y7.0 I1.4 J-2.42487
G2 X128.6 Y4.57513 I-2.8 J0.0
G2 X127.40363 Y5.95173 I1.4 J2.42487
G1 F300.0 X125.17817 Y5.05322
G2 F800.0 X127.4 Y11.50333 I4.82183 J1.94678
G2 X135.2 Y7.0 I2.6 J-4.50333
G2 X127.4 Y2.49667 I-5.2 J0.0
G2 X125.17817 Y5.05322 I2.6 J4.50333
G0 Z3.0
G0 X129.62909 Y6.85025
G0 Z-21.0
G1 F300.0 Z-23.0
G2 F800.0 X129.8 Y7.34641 I0.37091 J0.14975
G2 X130.4 Y7.0 I0.2 J-0.34641
G2 X129.8 Y6.65359 I-0.4 J0.0
G2 X129.62909 Y6.85025 I0.2 J0.34641
G1 F300.0 X127.40363 Y5.95173
G2 F800.0 X128.6 Y9.42487 I2.59637 J1.04827
G2 X132.8 Y7.0 I1.4 J-2.42487
G2 X128.6 Y4.57513 I-2.8 J0.0
G2 X127.40363 Y5.95173 I1.4 J2.42487
G1 F300.0 X125.17817 Y5.05322
G2 F800.0 X127.4 Y11.50333 I4.82183 J1.94678
G2 X135.2 Y7.0 I2.6 J-4.50333
G2 X127.4 Y2.49667 I-5.2 J0.0
G2 X125.17817 Y5.05322 I2.6 J4.50333
G0 Z3.0
G0 X129.62909 Y6.85025
G0 Z-22.0
G1 F300.0 Z-24.0
G2 F800.0 X129.8 Y7.34641 I0.37091 J0.14975
G2 X130.4 Y7.0 I0.2 J-0.34641
G2 X129.8 Y6.65359 I-0.4 J0.0
G2 X129.62909 Y6.85025 I0.2 J0.34641
G1 F300.0 X127.40363 Y5.95173
G2 F800.0 X128.6 Y9.42487 I2.59637 J1.04827
G2 X132.8 Y7.0 I1.4 J-2.42487
G2 X128.6 Y4.57513 I-2.8 J0.0
G2 X127.40363 Y5.95173 I1.4 J2.42487
G1 F300.0 X125.17817 Y5.05322
G2 F800.0 X127.4 Y11.50333 I4.82183 J1.94678
G2 X135.2 Y7.0 I2.6 J-4.50333
G2 X127.4 Y2.49667 I-5.2 J0.0
G2 X125.17817 Y5.05322 I2.6 J4.50333
G0 Z3.0
G0 X129.62909 Y6.85025
G0 Z-23.0
G1 F300.0 Z-25.0
G2 F800.0 X129.8 Y7.34641 I0.37091 J0.14975
G2 X130.4 Y7.0 I0.2 J-0.34641
G2 X129.8 Y6.65359 I-0.4 J0.0
G2 X129.62909 Y6.85025 I0.2 J0.34641
G1 F300.0 X127.40363 Y5.95173
G2 F800.0 X128.6 Y9.42487 I2.59637 J1.04827
G2 X132.8 Y7.0 I1.4 J-2.42487
G2 X128.6 Y4.57513 I-2.8 J0.0
G2 X127.40363 Y5.95173 I1.4 J2.42487
G1 F300.0 X125.17817 Y5.05322
G2 F800.0 X127.4 Y11.50333 I4.82183 J1.94678
G2 X135.2 Y7.0 I2.6 J-4.50333
G2 X127.4 Y2.49667 I-5.2 J0.0
G2 X125.17817 Y5.05322 I2.6 J4.50333
G0 Z3.0
G0 X129.62909 Y6.85025
G0 Z-24.0
G1 F300.0 Z-26.0
G2 F800.0 X129.8 Y7.34641 I0.37091 J0.14975
G2 X130.4 Y7.0 I0.2 J-0.34641
G2 X129.8 Y6.65359 I-0.4 J0.0
G2 X129.62909 Y6.85025 I0.2 J0.34641
G1 F300.0 X127.40363 Y5.95173
G2 F800.0 X128.6 Y9.42487 I2.59637 J1.04827
G2 X132.8 Y7.0 I1.4 J-2.42487
G2 X128.6 Y4.57513 I-2.8 J0.0
G2 X127.40363 Y5.95173 I1.4 J2.42487
G1 F300.0 X125.17817 Y5.05322
G2 F800.0 X127.4 Y11.50333 I4.82183 J1.94678
G2 X135.2 Y7.0 I2.6 J-4.50333
G2 X127.4 Y2.49667 I-5.2 J0.0
G2 X125.17817 Y5.05322 I2.6 J4.50333
G0 Z3.0
G0 X129.62909 Y6.85025
G0 Z-25.0
G1 F300.0 Z-27.0
G2 F800.0 X129.8 Y7.34641 I0.37091 J0.14975
G2 X130.4 Y7.0 I0.2 J-0.34641
G2 X129.8 Y6.65359 I-0.4 J0.0
G2 X129.62909 Y6.85025 I0.2 J0.34641
G1 F300.0 X127.40363 Y5.95173
G2 F800.0 X128.6 Y9.42487 I2.59637 J1.04827
G2 X132.8 Y7.0 I1.4 J-2.42487
G2 X128.6 Y4.57513 I-2.8 J0.0
G2 X127.40363 Y5.95173 I1.4 J2.42487
G1 F300.0 X125.17817 Y5.05322
G2 F800.0 X127.4 Y11.50333 I4.82183 J1.94678
G2 X135.2 Y7.0 I2.6 J-4.50333
G2 X127.4 Y2.49667 I-5.2 J0.0
G2 X125.17817 Y5.05322 I2.6 J4.50333
G0 Z3.0
G0 X129.62909 Y6.85025
G0 Z-26.0
G1 F300.0 Z-28.0
G2 F800.0 X129.8 Y7.34641 I0.37091 J0.14975
G2 X130.4 Y7.0 I0.2 J-0.34641
G2 X129.8 Y6.65359 I-0.4 J0.0
G2 X129.62909 Y6.85025 I0.2 J0.34641
G1 F300.0 X127.40363 Y5.95173
G2 F800.0 X128.6 Y9.42487 I2.59637 J1.04827
G2 X132.8 Y7.0 I1.4 J-2.42487
G2 X128.6 Y4.57513 I-2.8 J0.0
G2 X127.40363 Y5.95173 I1.4 J2.42487
G1 F300.0 X125.17817 Y5.05322
G2 F800.0 X127.4 Y11.50333 I4.82183 J1.94678
G2 X135.2 Y7.0 I2.6 J-4.50333
G2 X127.4 Y2.49667 I-5.2 J0.0
G2 X125.17817 Y5.05322 I2.6 J4.50333
G0 Z3.0
G0 X129.62909 Y6.85025
G0 Z-27.0
G1 F300.0 Z-29.0
G2 F800.0 X129.8 Y7.34641 I0.37091 J0.14975
G2 X130.4 Y7.0 I0.2 J-0.34641
G2 X129.8 Y6.65359 I-0.4 J0.0
G2 X129.62909 Y6.85025 I0.2 J0.34641
G1 F300.0 X127.40363 Y5.95173
G2 F800.0 X128.6 Y9.42487 I2.59637 J1.04827
G2 X132.8 Y7.0 I1.4 J-2.42487
G2 X128.6 Y4.57513 I-2.8 J0.0
G2 X127.40363 Y5.95173 I1.4 J2.42487
G1 F300.0 X125.17817 Y5.05322
G2 F800.0 X127.4 Y11.50333 I4.82183 J1.94678
G2 X135.2 Y7.0 I2.6 J-4.50333
G2 X127.4 Y2.49667 I-5.2 J0.0
G2 X125.17817 Y5.05322 I2.6 J4.50333
G0 Z3.0
G0 X129.62909 Y6.85025
G0 Z-28.0
G1 F300.0 Z-30.0
G2 F800.0 X129.8 Y7.34641 I0.37091 J0.14975
G2 X130.4 Y7.0 I0.2 J-0.34641
G2 X129.8 Y6.65359 I-0.4 J0.0
G2 X129.62909 Y6.85025 I0.2 J0.34641
G1 F300.0 X127.40363 Y5.95173
G2 F800.0 X128.6 Y9.42487 I2.59637 J1.04827
G2 X132.8 Y7.0 I1.4 J-2.42487
G2 X128.6 Y4.57513 I-2.8 J0.0
G2 X127.40363 Y5.95173 I1.4 J2.42487
G1 F300.0 X125.17817 Y5.05322
G2 F800.0 X127.4 Y11.50333 I4.82183 J1.94678
G2 X135.2 Y7.0 I2.6 J-4.50333
G2 X127.4 Y2.49667 I-5.2 J0.0
G2 X125.17817 Y5.05322 I2.6 J4.50333
G0 Z3.0
G0 X154.62915 Y-6.85011
G0 Z1.0
G1 F300.0 Z-1.0
G2 F800.0 X154.8 Y-6.65359 I0.37085 J-0.14989
G2 X155.4 Y-7.0 I0.2 J-0.34641
G2 X154.8 Y-7.34641 I-0.4 J0.0
G2 X154.62915 Y-6.85011 I0.2 J0.34641
G1 F300.0 X152.40402 Y-5.95077
G2 F800.0 X153.6 Y-4.57513 I2.59598 J-1.04923
G2 X157.8 Y-7.0 I1.4 J-2.42487
G2 X153.6 Y-9.42487 I-2.8 J0.0
G2 X152.40402 Y-5.95077 I1.4 J2.42487
G1 F300.0 X150.17889 Y-5.05143
G2 F800.0 X152.4 Y-2.49667 I4.82111 J-1.94857
G2 X160.2 Y-7.0 I2.6 J-4.50333
G2 X152.4 Y-11.50333 I-5.2 J0.0
G2 X150.17889 Y-5.05143 I2.6 J4.50333
G0 Z3.0
G0 X154.62915 Y-6.85011
G0 Z0.0
G1 F300.0 Z-2.0
G2 F800.0 X154.8 Y-6.65359 I0.37085 J-0.14989
G2 X155.4 Y-7.0 I0.2 J-0.34641
G2 X154.8 Y-7.34641 I-0.4 J0.0
G2 X154.62915 Y-6.85011 I0.2 J0.34641
G1 F300.0 X152.40402 Y-5.95077
G2 F800.0 X153.6 Y-4.57513 I2.59598 J-1.04923
G2 X157.8 Y-7.0 I1.4 J-2.42487
G2 X153.6 Y-9.42487 I-2.8 J0.0
G2 X152.40402 Y-5.95077 I1.4 J2.42487
G1 F300.0 X150.17889 Y-5.05143
G2 F800.0 X152.4 Y-2.49667 I4.82111 J-1.94857
G2 X160.2 Y-7.0 I2.6 J-4.50333
G2 X152.4 Y-11.50333 I-5.2 J0.0
G2 X150.17889 Y-5.05143 I2.6 J4.50333
G0 Z3.0
G0 X154.62915 Y-6.85011
G0 Z-1.0
G1 F300.0 Z-3.0
G2 F800.0 X154.8 Y-6.65359 I0.37085 J-0.14989
G2 X155.4 Y-7.0 I0.2 J-0.34641
G2 X154.8 Y-7.34641 I-0.4 J0.0
G2 X154.62915 Y-6.85011 I0.2 J0.34641
G1 F300.0 X152.40402 Y-5.95077
G2 F800.0 X153.6 Y-4.57513 I2.59598 J-1.04923
G2 X157.8 Y-7.0 I1.4 J-2.42487
G2 X153.6 Y-9.42487 I-2.8 J0.0
G2 X152.40402 Y-5.95077 I1.4 J2.42487
G1 F300.0 X150.17889 Y-5.05143
G2 F800.0 X152.4 Y-2.49667 I4.82111 J-1.94857
G2 X160.2 Y-7.0 I2.6 J-4.50333
G2 X152.4 Y-11.50333 I-5.2 J0.0
G2 X150.17889 Y-5.05143 I2.6 J4.50333
G0 Z3.0
G0 X154.62915 Y-6.85011
G0 Z-2.0
G1 F300.0 Z-4.0
G2 F800.0 X154.8 Y-6.65359 I0.37085 J-0.14989
G2 X155.4 Y-7.0 I0.2 J-0.34641
G2 X154.8 Y-7.34641 I-0.4 J0.0
G2 X154.62915 Y-6.85011 I0.2 J0.34641
G1 F300.0 X152.40402 Y-5.95077
G2 F800.0 X153.6 Y-4.57513 I2.59598 J-1.04923
G2 X157.8 Y-7.0 I1.4 J-2.42487
G2 X153.6 Y-9.42487 I-2.8 J0.0
G2 X152.40402 Y-5.95077 I1.4 J2.42487
G1 F300.0 X150.17889 Y-5.05143
G2 F800.0 X152.4 Y-2.49667 I4.82111 J-1.94857
G2 X160.2 Y-7.0 I2.6 J-4.50333
G2 X152.4 Y-11.50333 I-5.2 J0.0
G2 X150.17889 Y-5.05143 I2.6 J4.50333
G0 Z3.0
G0 X154.62915 Y-6.85011
G0 Z-3.0
G1 F300.0 Z-5.0
G2 F800.0 X154.8 Y-6.65359 I0.37085 J-0.14989
G2 X155.4 Y-7.0 I0.2 J-0.34641
G2 X154.8 Y-7.34641 I-0.4 J0.0
G2 X154.62915 Y-6.85011 I0.2 J0.34641
G1 F300.0 X152.40402 Y-5.95077
G2 F800.0 X153.6 Y-4.57513 I2.59598 J-1.04923
G2 X157.8 Y-7.0 I1.4 J-2.42487
G2 X153.6 Y-9.42487 I-2.8 J0.0
G2 X152.40402 Y-5.95077 I1.4 J2.42487
G1 F300.0 X150.17889 Y-5.05143
G2 F800.0 X152.4 Y-2.49667 I4.82111 J-1.94857
G2 X160.2 Y-7.0 I2.6 J-4.50333
G2 X152.4 Y-11.50333 I-5.2 J0.0
G2 X150.17889 Y-5.05143 I2.6 J4.50333
G0 Z3.0
G0 X154.62915 Y-6.85011
G0 Z-4.0
G1 F300.0 Z-6.0
G2 F800.0 X154.8 Y-6.65359 I0.37085 J-0.14989
G2 X155.4 Y-7.0 I0.2 J-0.34641
G2 X154.8 Y-7.34641 I-0.4 J0.0
G2 X154.62915 Y-6.85011 I0.2 J0.34641
G1 F300.0 X152.40402 Y-5.95077
G2 F800.0 X153.6 Y-4.57513 I2.59598 J-1.04923
G2 X157.8 Y-7.0 I1.4 J-2.42487
G2 X153.6 Y-9.42487 I-2.8 J0.0
G2 X152.40402 Y-5.95077 I1.4 J2.42487
G1 F300.0 X150.17889 Y-5.05143
G2 F800.0 X152.4 Y-2.49667 I4.82111 J-1.94857
G2 X160.2 Y-7.0 I2.6 J-4.50333
G2 X152.4 Y-11.50333 I-5.2 J0.0
G2 X150.17889 Y-5.05143 I2.6 J4.50333
G0 Z3.0
G0 X154.62915 Y-6.85011
G0 Z-5.0
G1 F300.0 Z-7.0
G2 F800.0 X154.8 Y-6.65359 I0.37085 J-0.14989
G2 X155.4 Y-7.0 I0.2 J-0.34641
G2 X154.8 Y-7.34641 I-0.4 J0.0
G2 X154.62915 Y-6.85011 I0.2 J0.34641
G1 F300.0 X152.40402 Y-5.95077
G2 F800.0 X153.6 Y-4.57513 I2.59598 J-1.04923
G2 X157.8 Y-7.0 I1.4 J-2.42487
G2 X153.6 Y-9.42487 I-2.8 J0.0
G2 X152.40402 Y-5.95077 I1.4 J2.42487
G1 F300.0 X150.17889 Y-5.05143
G2 F800.0 X152.4 Y-2.49667 I4.82111 J-1.94857
G2 X160.2 Y-7.0 I2.6 J-4.50333
G2 X152.4 Y-11.50333 I-5.2 J0.0
G2 X150.17889 Y-5.05143 I2.6 J4.50333
G0 Z3.0
G0 X154.62915 Y-6.85011
G0 Z-6.0
G1 F300.0 Z-8.0
G2 F800.0 X154.8 Y-6.65359 I0.37085 J-0.14989
G2 X155.4 Y-7.0 I0.2 J-0.34641
G2 X154.8 Y-7.34641 I-0.4 J0.0
G2 X154.62915 Y-6.85011 I0.2 J0.34641
G1 F300.0 X152.40402 Y-5.95077
G2 F800.0 X153.6 Y-4.57513 I2.59598 J-1.04923
G2 X157.8 Y-7.0 I1.4 J-2.42487
G2 X153.6 Y-9.42487 I-2.8 J0.0
G2 X152.40402 Y-5.95077 I1.4 J2.42487
G1 F300.0 X150.17889 Y-5.05143
G2 F800.0 X152.4 Y-2.49667 I4.82111 J-1.94857
G2 X160.2 Y-7.0 I2.6 J-4.50333
G2 X152.4 Y-11.50333 I-5.2 J0.0
G2 X150.17889 Y-5.05143 I2.6 J4.50333
G0 Z3.0
G0 X154.62915 Y-6.85011
G0 Z-7.0
G1 F300.0 Z-9.0
G2 F800.0 X154.8 Y-6.65359 I0.37085 J-0.14989
G2 X155.4 Y-7.0 I0.2 J-0.34641
G2 X154.8 Y-7.34641 I-0.4 J0.0
G2 X154.62915 Y-6.85011 I0.2 J0.34641
G1 F300.0 X152.40402 Y-5.95077
G2 F800.0 X153.6 Y-4.57513 I2.59598 J-1.04923
G2 X157.8 Y-7.0 I1.4 J-2.42487
G2 X153.6 Y-9.42487 I-2.8 J0.0
G2 X152.40402 Y-5.95077 I1.4 J2.42487
G1 F300.0 X150.17889 Y-5.05143
G2 F800.0 X152.4 Y-2.49667 I4.82111 J-1.94857
G2 X160.2 Y-7.0 I2.6 J-4.50333
G2 X152.4 Y-11.50333 I-5.2 J0.0
G2 X150.17889 Y-5.05143 I2.6 J4.50333
G0 Z3.0
G0 X154.62915 Y-6.85011
G0 Z-8.0
G1 F300.0 Z-10.0
G2 F800.0 X154.8 Y-6.65359 I0.37085 J-0.14989
G2 X155.4 Y-7.0 I0.2 J-0.34641
G2 X154.8 Y-7.34641 I-0.4 J0.0
G2 X154.62915 Y-6.85011 I0.2 J0.34641
G1 F300.0 X152.40402 Y-5.95077
G2 F800.0 X153.6 Y-4.57513 I2.59598 J-1.04923
G2 X157.8 Y-7.0 I1.4 J-2.42487
G2 X153.6 Y-9.42487 I-2.8 J0.0
G2 X152.40402 Y-5.95077 I1.4 J2.42487
G1 F300.0 X150.17889 Y-5.05143
G2 F800.0 X152.4 Y-2.49667 I4.82111 J-1.94857
G2 X160.2 Y-7.0 I2.6 J-4.50333
G2 X152.4 Y-11.50333 I-5.2 J0.0
G2 X150.17889 Y-5.05143 I2.6 J4.50333
G0 Z3.0
G0 X154.62915 Y-6.85011
G0 Z-9.0
G1 F300.0 Z-11.0
G2 F800.0 X154.8 Y-6.65359 I0.37085 J-0.14989
G2 X155.4 Y-7.0 I0.2 J-0.34641
G2 X154.8 Y-7.34641 I-0.4 J0.0
G2 X154.62915 Y-6.85011 I0.2 J0.34641
G1 F300.0 X152.40402 Y-5.95077
G2 F800.0 X153.6 Y-4.57513 I2.59598 J-1.04923
G2 X157.8 Y-7.0 I1.4 J-2.42487
G2 X153.6 Y-9.42487 I-2.8 J0.0
G2 X152.40402 Y-5.95077 I1.4 J2.42487
G1 F300.0 X150.17889 Y-5.05143
G2 F800.0 X152.4 Y-2.49667 I4.82111 J-1.94857
G2 X160.2 Y-7.0 I2.6 J-4.50333
G2 X152.4 Y-11.50333 I-5.2 J0.0
G2 X150.17889 Y-5.05143 I2.6 J4.50333
G0 Z3.0
G0 X154.62915 Y-6.85011
G0 Z-10.0
G1 F300.0 Z-12.0
G2 F800.0 X154.8 Y-6.65359 I0.37085 J-0.14989
G2 X155.4 Y-7.0 I0.2 J-0.34641
G2 X154.8 Y-7.34641 I-0.4 J0.0
G2 X154.62915 Y-6.85011 I0.2 J0.34641
G1 F300.0 X152.40402 Y-5.95077
G2 F800.0 X153.6 Y-4.57513 I2.59598 J-1.04923
G2 X157.8 Y-7.0 I1.4 J-2.42487
G2 X153.6 Y-9.42487 I-2.8 J0.0
G2 X152.40402 Y-5.95077 I1.4 J2.42487
G1 F300.0 X150.17889 Y-5.05143
G2 F800.0 X152.4 Y-2.49667 I4.82111 J-1.94857
G2 X160.2 Y-7.0 I2.6 J-4.50333
G2 X152.4 Y-11.50333 I-5.2 J0.0
G2 X150.17889 Y-5.05143 I2.6 J4.50333
G0 Z3.0
G0 X154.62915 Y-6.85011
G0 Z-11.0
G1 F300.0 Z-13.0
G2 F800.0 X154.8 Y-6.65359 I0.37085 J-0.14989
G2 X155.4 Y-7.0 I0.2 J-0.34641
G2 X154.8 Y-7.34641 I-0.4 J0.0
G2 X154.62915 Y-6.85011 I0.2 J0.34641
G1 F300.0 X152.40402 Y-5.95077
G2 F800.0 X153.6 Y-4.57513 I2.59598 J-1.04923
G2 X157.8 Y-7.0 I1.4 J-2.42487
G2 X153.6 Y-9.42487 I-2.8 J0.0
G2 X152.40402 Y-5.95077 I1.4 J2.42487
G1 F300.0 X150.17889 Y-5.05143
G2 F800.0 X152.4 Y-2.49667 I4.82111 J-1.94857
G2 X160.2 Y-7.0 I2.6 J-4.50333
G2 X152.4 Y-11.50333 I-5.2 J0.0
G2 X150.17889 Y-5.05143 I2.6 J4.50333
G0 Z3.0
G0 X154.62915 Y-6.85011
G0 Z-12.0
G1 F300.0 Z-14.0
G2 F800.0 X154.8 Y-6.65359 I0.37085 J-0.14989
G2 X155.4 Y-7.0 I0.2 J-0.34641
G2 X154.8 Y-7.34641 I-0.4 J0.0
G2 X154.62915 Y-6.85011 I0.2 J0.34641
G1 F300.0 X152.40402 Y-5.95077
G2 F800.0 X153.6 Y-4.57513 I2.59598 J-1.04923
G2 X157.8 Y-7.0 I1.4 J-2.42487
G2 X153.6 Y-9.42487 I-2.8 J0.0
G2 X152.40402 Y-5.95077 I1.4 J2.42487
G1 F300.0 X150.17889 Y-5.05143
G2 F800.0 X152.4 Y-2.49667 I4.82111 J-1.94857
G2 X160.2 Y-7.0 I2.6 J-4.50333
G2 X152.4 Y-11.50333 I-5.2 J0.0
G2 X150.17889 Y-5.05143 I2.6 J4.50333
G0 Z3.0
G0 X154.62915 Y-6.85011
G0 Z-13.0
G1 F300.0 Z-15.0
G2 F800.0 X154.8 Y-6.65359 I0.37085 J-0.14989
G2 X155.4 Y-7.0 I0.2 J-0.34641
G2 X154.8 Y-7.34641 I-0.4 J0.0
G2 X154.62915 Y-6.85011 I0.2 J0.34641
G1 F300.0 X152.40402 Y-5.95077
G2 F800.0 X153.6 Y-4.57513 I2.59598 J-1.04923
G2 X157.8 Y-7.0 I1.4 J-2.42487
G2 X153.6 Y-9.42487 I-2.8 J0.0
G2 X152.40402 Y-5.95077 I1.4 J2.42487
G1 F300.0 X150.17889 Y-5.05143
G2 F800.0 X152.4 Y-2.49667 I4.82111 J-1.94857
G2 X160.2 Y-7.0 I2.6 J-4.50333
G2 X152.4 Y-11.50333 I-5.2 J0.0
G2 X150.17889 Y-5.05143 I2.6 J4.50333
G0 Z3.0
G0 X154.62915 Y-6.85011
G0 Z-14.0
G1 F300.0 Z-16.0
G2 F800.0 X154.8 Y-6.65359 I0.37085 J-0.14989
G2 X155.4 Y-7.0 I0.2 J-0.34641
G2 X154.8 Y-7.34641 I-0.4 J0.0
G2 X154.62915 Y-6.85011 I0.2 J0.34641
G1 F300.0 X152.40402 Y-5.95077
G2 F800.0 X153.6 Y-4.57513 I2.59598 J-1.04923
G2 X157.8 Y-7.0 I1.4 J-2.42487
G2 X153.6 Y-9.42487 I-2.8 J0.0
G2 X152.40402 Y-5.95077 I1.4 J2.42487
G1 F300.0 X150.17889 Y-5.05143
G2 F800.0 X152.4 Y-2.49667 I4.82111 J-1.94857
G2 X160.2 Y-7.0 I2.6 J-4.50333
G2 X152.4 Y-11.50333 I-5.2 J0.0
G2 X150.17889 Y-5.05143 I2.6 J4.50333
G0 Z3.0
G0 X154.62915 Y-6.85011
G0 Z-15.0
G1 F300.0 Z-17.0
G2 F800.0 X154.8 Y-6.65359 I0.37085 J-0.14989
G2 X155.4 Y-7.0 I0.2 J-0.34641
G2 X154.8 Y-7.34641 I-0.4 J0.0
G2 X154.62915 Y-6.85011 I0.2 J0.34641
G1 F300.0 X152.40402 Y-5.95077
G2 F800.0 X153.6 Y-4.57513 I2.59598 J-1.04923
G2 X157.8 Y-7.0 I1.4 J-2.42487
G2 X153.6 Y-9.42487 I-2.8 J0.0
G2 X152.40402 Y-5.95077 I1.4 J2.42487
G1 F300.0 X150.17889 Y-5.05143
G2 F800.0 X152.4 Y-2.49667 I4.82111 J-1.94857
G2 X160.2 Y-7.0 I2.6 J-4.50333
G2 X152.4 Y-11.50333 I-5.2 J0.0
G2 X150.17889 Y-5.05143 I2.6 J4.50333
G0 Z3.0
G0 X154.62915 Y-6.85011
G0 Z-16.0
G1 F300.0 Z-18.0
G2 F800.0 X154.8 Y-6.65359 I0.37085 J-0.14989
G2 X155.4 Y-7.0 I0.2 J-0.34641
G2 X154.8 Y-7.34641 I-0.4 J0.0
G2 X154.62915 Y-6.85011 I0.2 J0.34641
G1 F300.0 X152.40402 Y-5.95077
G2 F800.0 X153.6 Y-4.57513 I2.59598 J-1.04923
G2 X157.8 Y-7.0 I1.4 J-2.42487
G2 X153.6 Y-9.42487 I-2.8 J0.0
G2 X152.40402 Y-5.95077 I1.4 J2.42487
G1 F300.0 X150.17889 Y-5.05143
G2 F800.0 X152.4 Y-2.49667 I4.82111 J-1.94857
G2 X160.2 Y-7.0 I2.6 J-4.50333
G2 X152.4 Y-11.50333 I-5.2 J0.0
G2 X150.17889 Y-5.05143 I2.6 J4.50333
G0 Z3.0
G0 X154.62915 Y-6.85011
G0 Z-17.0
G1 F300.0 Z-19.0
G2 F800.0 X154.8 Y-6.65359 I0.37085 J-0.14989
G2 X155.4 Y-7.0 I0.2 J-0.34641
G2 X154.8 Y-7.34641 I-0.4 J0.0
G2 X154.62915 Y-6.85011 I0.2 J0.34641
G1 F300.0 X152.40402 Y-5.95077
G2 F800.0 X153.6 Y-4.57513 I2.59598 J-1.04923
G2 X157.8 Y-7.0 I1.4 J-2.42487
G2 X153.6 Y-9.42487 I-2.8 J0.0
G2 X152.40402 Y-5.95077 I1.4 J2.42487
G1 F300.0 X150.17889 Y-5.05143
G2 F800.0 X152.4 Y-2.49667 I4.82111 J-1.94857
G2 X160.2 Y-7.0 I2.6 J-4.50333
G2 X152.4 Y-11.50333 I-5.2 J0.0
G2 X150.17889 Y-5.05143 I2.6 J4.50333
G0 Z3.0
G0 X154.62915 Y-6.85011
G0 Z-18.0
G1 F300.0 Z-20.0
G2 F800.0 X154.8 Y-6.65359 I0.37085 J-0.14989
G2 X155.4 Y-7.0 I0.2 J-0.34641
G2 X154.8 Y-7.34641 I-0.4 J0.0
G2 X154.62915 Y-6.85011 I0.2 J0.34641
G1 F300.0 X152.40402 Y-5.95077
G2 F800.0 X153.6 Y-4.57513 I2.59598 J-1.04923
G2 X157.8 Y-7.0 I1.4 J-2.42487
G2 X153.6 Y-9.42487 I-2.8 J0.0
G2 X152.40402 Y-5.95077 I1.4 J2.42487
G1 F300.0 X150.17889 Y-5.05143
G2 F800.0 X152.4 Y-2.49667 I4.82111 J-1.94857
G2 X160.2 Y-7.0 I2.6 J-4.50333
G2 X152.4 Y-11.50333 I-5.2 J0.0
G2 X150.17889 Y-5.05143 I2.6 J4.50333
G0 Z3.0
G0 X154.62915 Y-6.85011
G0 Z-19.0
G1 F300.0 Z-21.0
G2 F800.0 X154.8 Y-6.65359 I0.37085 J-0.14989
G2 X155.4 Y-7.0 I0.2 J-0.34641
G2 X154.8 Y-7.34641 I-0.4 J0.0
G2 X154.62915 Y-6.85011 I0.2 J0.34641
G1 F300.0 X152.40402 Y-5.95077
G2 F800.0 X153.6 Y-4.57513 I2.59598 J-1.04923
G2 X157.8 Y-7.0 I1.4 J-2.42487
G2 X153.6 Y-9.42487 I-2.8 J0.0
G2 X152.40402 Y-5.95077 I1.4 J2.42487
G1 F300.0 X150.17889 Y-5.05143
G2 F800.0 X152.4 Y-2.49667 I4.82111 J-1.94857
G2 X160.2 Y-7.0 I2.6 J-4.50333
G2 X152.4 Y-11.50333 I-5.2 J0.0
G2 X150.17889 Y-5.05143 I2.6 J4.50333
G0 Z3.0
G0 X154.62915 Y-6.85011
G0 Z-20.0
G1 F300.0 Z-22.0
G2 F800.0 X154.8 Y-6.65359 I0.37085 J-0.14989
G2 X155.4 Y-7.0 I0.2 J-0.34641
G2 X154.8 Y-7.34641 I-0.4 J0.0
G2 X154.62915 Y-6.85011 I0.2 J0.34641
G1 F300.0 X152.40402 Y-5.95077
G2 F800.0 X153.6 Y-4.57513 I2.59598 J-1.04923
G2 X157.8 Y-7.0 I1.4 J-2.42487
G2 X153.6 Y-9.42487 I-2.8 J0.0
G2 X152.40402 Y-5.95077 I1.4 J2.42487
G1 F300.0 X150.17889 Y-5.05143
G2 F800.0 X152.4 Y-2.49667 I4.82111 J-1.94857
G2 X160.2 Y-7.0 I2.6 J-4.50333
G2 X152.4 Y-11.50333 I-5.2 J0.0
G2 X150.17889 Y-5.05143 I2.6 J4.50333
G0 Z3.0
G0 X154.62915 Y-6.85011
G0 Z-21.0
G1 F300.0 Z-23.0
G2 F800.0 X154.8 Y-6.65359 I0.37085 J-0.14989
G2 X155.4 Y-7.0 I0.2 J-0.34641
G2 X154.8 Y-7.34641 I-0.4 J0.0
G2 X154.62915 Y-6.85011 I0.2 J0.34641
G1 F300.0 X152.40402 Y-5.95077
G2 F800.0 X153.6 Y-4.57513 I2.59598 J-1.04923
G2 X157.8 Y-7.0 I1.4 J-2.42487
G2 X153.6 Y-9.42487 I-2.8 J0.0
G2 X152.40402 Y-5.95077 I1.4 J2.42487
G1 F300.0 X150.17889 Y-5.05143
G2 F800.0 X152.4 Y-2.49667 I4.82111 J-1.94857
G2 X160.2 Y-7.0 I2.6 J-4.50333
G2 X152.4 Y-11.50333 I-5.2 J0.0
G2 X150.17889 Y-5.05143 I2.6 J4.50333
G0 Z3.0
G0 X154.62915 Y-6.85011
G0 Z-22.0
G1 F300.0 Z-24.0
G2 F800.0 X154.8 Y-6.65359 I0.37085 J-0.14989
G2 X155.4 Y-7.0 I0.2 J-0.34641
G2 X154.8 Y-7.34641 I-0.4 J0.0
G2 X154.62915 Y-6.85011 I0.2 J0.34641
G1 F300.0 X152.40402 Y-5.95077
G2 F800.0 X153.6 Y-4.57513 I2.59598 J-1.04923
G2 X157.8 Y-7.0 I1.4 J-2.42487
G2 X153.6 Y-9.42487 I-2.8 J0.0
G2 X152.40402 Y-5.95077 I1.4 J2.42487
G1 F300.0 X150.17889 Y-5.05143
G2 F800.0 X152.4 Y-2.49667 I4.82111 J-1.94857
G2 X160.2 Y-7.0 I2.6 J-4.50333
G2 X152.4 Y-11.50333 I-5.2 J0.0
G2 X150.17889 Y-5.05143 I2.6 J4.50333
G0 Z3.0
G0 X154.62915 Y-6.85011
G0 Z-23.0
G1 F300.0 Z-25.0
G2 F800.0 X154.8 Y-6.65359 I0.37085 J-0.14989
G2 X155.4 Y-7.0 I0.2 J-0.34641
G2 X154.8 Y-7.34641 I-0.4 J0.0
G2 X154.62915 Y-6.85011 I0.2 J0.34641
G1 F300.0 X152.40402 Y-5.95077
G2 F800.0 X153.6 Y-4.57513 I2.59598 J-1.04923
G2 X157.8 Y-7.0 I1.4 J-2.42487
G2 X153.6 Y-9.42487 I-2.8 J0.0
G2 X152.40402 Y-5.95077 I1.4 J2.42487
G1 F300.0 X150.17889 Y-5.05143
G2 F800.0 X152.4 Y-2.49667 I4.82111 J-1.94857
G2 X160.2 Y-7.0 I2.6 J-4.50333
G2 X152.4 Y-11.50333 I-5.2 J0.0
G2 X150.17889 Y-5.05143 I2.6 J4.50333
G0 Z3.0
G0 X154.62915 Y-6.85011
G0 Z-24.0
G1 F300.0 Z-26.0
G2 F800.0 X154.8 Y-6.65359 I0.37085 J-0.14989
G2 X155.4 Y-7.0 I0.2 J-0.34641
G2 X154.8 Y-7.34641 I-0.4 J0.0
G2 X154.62915 Y-6.85011 I0.2 J0.34641
G1 F300.0 X152.40402 Y-5.95077
G2 F800.0 X153.6 Y-4.57513 I2.59598 J-1.04923
G2 X157.8 Y-7.0 I1.4 J-2.42487
G2 X153.6 Y-9.42487 I-2.8 J0.0
G2 X152.40402 Y-5.95077 I1.4 J2.42487
G1 F300.0 X150.17889 Y-5.05143
G2 F800.0 X152.4 Y-2.49667 I4.82111 J-1.94857
G2 X160.2 Y-7.0 I2.6 J-4.50333
G2 X152.4 Y-11.50333 I-5.2 J0.0
G2 X150.17889 Y-5.05143 I2.6 J4.50333
G0 Z3.0
G0 X154.62915 Y-6.85011
G0 Z-25.0
G1 F300.0 Z-27.0
G2 F800.0 X154.8 Y-6.65359 I0.37085 J-0.14989
G2 X155.4 Y-7.0 I0.2 J-0.34641
G2 X154.8 Y-7.34641 I-0.4 J0.0
G2 X154.62915 Y-6.85011 I0.2 J0.34641
G1 F300.0 X152.40402 Y-5.95077
G2 F800.0 X153.6 Y-4.57513 I2.59598 J-1.04923
G2 X157.8 Y-7.0 I1.4 J-2.42487
G2 X153.6 Y-9.42487 I-2.8 J0.0
G2 X152.40402 Y-5.95077 I1.4 J2.42487
G1 F300.0 X150.17889 Y-5.05143
G2 F800.0 X152.4 Y-2.49667 I4.82111 J-1.94857
G2 X160.2 Y-7.0 I2.6 J-4.50333
G2 X152.4 Y-11.50333 I-5.2 J0.0
G2 X150.17889 Y-5.05143 I2.6 J4.50333
G0 Z3.0
G0 X154.62915 Y-6.85011
G0 Z-26.0
G1 F300.0 Z-28.0
G2 F800.0 X154.8 Y-6.65359 I0.37085 J-0.14989
G2 X155.4 Y-7.0 I0.2 J-0.34641
G2 X154.8 Y-7.34641 I-0.4 J0.0
G2 X154.62915 Y-6.85011 I0.2 J0.34641
G1 F300.0 X152.40402 Y-5.95077
G2 F800.0 X153.6 Y-4.57513 I2.59598 J-1.04923
G2 X157.8 Y-7.0 I1.4 J-2.42487
G2 X153.6 Y-9.42487 I-2.8 J0.0
G2 X152.40402 Y-5.95077 I1.4 J2.42487
G1 F300.0 X150.17889 Y-5.05143
G2 F800.0 X152.4 Y-2.49667 I4.82111 J-1.94857
G2 X160.2 Y-7.0 I2.6 J-4.50333
G2 X152.4 Y-11.50333 I-5.2 J0.0
G2 X150.17889 Y-5.05143 I2.6 J4.50333
G0 Z3.0
G0 X154.62915 Y-6.85011
G0 Z-27.0
G1 F300.0 Z-29.0
G2 F800.0 X154.8 Y-6.65359 I0.37085 J-0.14989
G2 X155.4 Y-7.0 I0.2 J-0.34641
G2 X154.8 Y-7.34641 I-0.4 J0.0
G2 X154.62915 Y-6.85011 I0.2 J0.34641
G1 F300.0 X152.40402 Y-5.95077
G2 F800.0 X153.6 Y-4.57513 I2.59598 J-1.04923
G2 X157.8 Y-7.0 I1.4 J-2.42487
G2 X153.6 Y-9.42487 I-2.8 J0.0
G2 X152.40402 Y-5.95077 I1.4 J2.42487
G1 F300.0 X150.17889 Y-5.05143
G2 F800.0 X152.4 Y-2.49667 I4.82111 J-1.94857
G2 X160.2 Y-7.0 I2.6 J-4.50333
G2 X152.4 Y-11.50333 I-5.2 J0.0
G2 X150.17889 Y-5.05143 I2.6 J4.50333
G0 Z3.0
G0 X154.62915 Y-6.85011
G0 Z-28.0
G1 F300.0 Z-30.0
G2 F800.0 X154.8 Y-6.65359 I0.37085 J-0.14989
G2 X155.4 Y-7.0 I0.2 J-0.34641
G2 X154.8 Y-7.34641 I-0.4 J0.0
G2 X154.62915 Y-6.85011 I0.2 J0.34641
G1 F300.0 X152.40402 Y-5.95077
G2 F800.0 X153.6 Y-4.57513 I2.59598 J-1.04923
G2 X157.8 Y-7.0 I1.4 J-2.42487
G2 X153.6 Y-9.42487 I-2.8 J0.0
G2 X152.40402 Y-5.95077 I1.4 J2.42487
G1 F300.0 X150.17889 Y-5.05143
G2 F800.0 X152.4 Y-2.49667 I4.82111 J-1.94857
G2 X160.2 Y-7.0 I2.6 J-4.50333
G2 X152.4 Y-11.50333 I-5.2 J0.0
G2 X150.17889 Y-5.05143 I2.6 J4.50333
G0 Z3.0
G0 X179.62914 Y6.85013
G0 Z1.0
G1 F300.0 Z-1.0
G2 F800.0 X179.8 Y7.34641 I0.37086 J0.14987
G2 X180.4 Y7.0 I0.2 J-0.34641
G2 X179.8 Y6.65359 I-0.4 J0.0
G2 X179.62914 Y6.85013 I0.2 J0.34641
G1 F300.0 X177.40397 Y5.95088
G2 F800.0 X178.6 Y9.42487 I2.59603 J1.04912
G2 X182.8 Y7.0 I1.4 J-2.42487
G2 X178.6 Y4.57513 I-2.8 J0.0
G2 X177.40397 Y5.95088 I1.4 J2.42487
G1 F300.0 X175.17881 Y5.05164
G2 F800.0 X177.4 Y11.50333 I4.82119 J1.94836
G2 X185.2 Y7.0 I2.6 J-4.50333
G2 X177.4 Y2.49667 I-5.2 J0.0
G2 X175.17881 Y5.05164 I2.6 J4.50333
G0 Z3.0
G0 X179.62914 Y6.85013
G0 Z0.0
G1 F300.0 Z-2.0
G2 F800.0 X179.8 Y7.34641 I0.37086 J0.14987
G2 X180.4 Y7.0 I0.2 J-0.34641
G2 X179.8 Y6.65359 I-0.4 J0.0
G2 X179.62914 Y6.85013 I0.2 J0.34641
G1 F300.0 X177.40397 Y5.95088
G2 F800.0 X178.6 Y9.42487 I2.59603 J1.04912
G2 X182.8 Y7.0 I1.4 J-2.42487
G2 X178.6 Y4.57513 I-2.8 J0.0
G2 X177.40397 Y5.95088 I1.4 J2.42487
G1 F300.0 X175.17881 Y5.05164
G2 F800.0 X177.4 Y11.50333 I4.82119 J1.94836
G2 X185.2 Y7.0 I2.6 J-4.50333
G2 X177.4 Y2.49667 I-5.2 J0.0
G2 X175.17881 Y5.05164 I2.6 J4.50333
G0 Z3.0
G0 X179.62914 Y6.85013
G0 Z-1.0
G1 F300.0 Z-3.0
G2 F800.0 X179.8 Y7.34641 I0.37086 J0.14987
G2 X180.4 Y7.0 I0.2 J-0.34641
G2 X179.8 Y6.65359 I-0.4 J0.0
G2 X179.62914 Y6.85013 I0.2 J0.34641
G1 F300.0 X177.40397 Y5.95088
G2 F800.0 X178.6 Y9.42487 I2.59603 J1.04912
G2 X182.8 Y7.0 I1.4 J-2.42487
G2 X178.6 Y4.57513 I-2.8 J0.0
G2 X177.40397 Y5.95088 I1.4 J2.42487
G1 F300.0 X175.17881 Y5.05164
G2 F800.0 X177.4 Y11.50333 I4.82119 J1.94836
G2 X185.2 Y7.0 I2.6 J-4.50333
G2 X177.4 Y2.49667 I-5.2 J0.0
G2 X175.17881 Y5.05164 I2.6 J4.50333
G0 Z3.0
G0 X179.62914 Y6.85013
G0 Z-2.0
G1 F300.0 Z-4.0
G2 F800.0 X179.8 Y7.34641 I0.37086 J0.14987
G2 X180.4 Y7.0 I0.2 J-0.34641
G2 X179.8 Y6.65359 I-0.4 J0.0
G2 X179.62914 Y6.85013 I0.2 J0.34641
G1 F300.0 X177.40397 Y5.95088
G2 F800.0 X178.6 Y9.42487 I2.59603 J1.04912
G2 X182.8 Y7.0 I1.4 J-2.42487
G2 X178.6 Y4.57513 I-2.8 J0.0
G2 X177.40397 Y5.95088 I1.4 J2.42487
G1 F300.0 X175.17881 Y5.05164
G2 F800.0 X177.4 Y11.50333 I4.82119 J1.94836
G2 X185.2 Y7.0 I2.6 J-4.50333
G2 X177.4 Y2.49667 I-5.2 J0.0
G2 X175.17881 Y5.05164 I2.6 J4.50333
G0 Z3.0
G0 X179.62914 Y6.85013
G0 Z-3.0
G1 F300.0 Z-5.0
G2 F800.0 X179.8 Y7.34641 I0.37086 J0.14987
G2 X180.4 Y7.0 I0.2 J-0.34641
G2 X179.8 Y6.65359 I-0.4 J0.0
G2 X179.62914 Y6.85013 I0.2 J0.34641
G1 F300.0 X177.40397 Y5.95088
G2 F800.0 X178.6 Y9.42487 I2.59603 J1.04912
G2 X182.8 Y7.0 I1.4 J-2.42487
G2 X178.6 Y4.57513 I-2.8 J0.0
G2 X177.40397 Y5.95088 I1.4 J2.42487
G1 F300.0 X175.17881 Y5.05164
G2 F800.0 X177.4 Y11.50333 I4.82119 J1.94836
G2 X185.2 Y7.0 I2.6 J-4.50333
G2 X177.4 Y2.49667 I-5.2 J0.0
G2 X175.17881 Y5.05164 I2.6 J4.50333
G0 Z3.0
G0 X179.62914 Y6.85013
G0 Z-4.0
G1 F300.0 Z-6.0
G2 F800.0 X179.8 Y7.34641 I0.37086 J0.14987
G2 X180.4 Y7.0 I0.2 J-0.34641
G2 X179.8 Y6.65359 I-0.4 J0.0
G2 X179.62914 Y6.85013 I0.2 J0.34641
G1 F300.0 X177.40397 Y5.95088
G2 F800.0 X178.6 Y9.42487 I2.59603 J1.04912
G2 X182.8 Y7.0 I1.4 J-2.42487
G2 X178.6 Y4.57513 I-2.8 J0.0
G2 X177.40397 Y5.95088 I1.4 J2.42487
G1 F300.0 X175.17881 Y5.05164
G2 F800.0 X177.4 Y11.50333 I4.82119 J1.94836
G2 X185.2 Y7.0 I2.6 J-4.50333
G2 X177.4 Y2.49667 I-5.2 J0.0
G2 X175.17881 Y5.05164 I2.6 J4.50333
G0 Z3.0
G0 X179.62914 Y6.85013
G0 Z-5.0
G1 F300.0 Z-7.0
G2 F800.0 X179.8 Y7.34641 I0.37086 J0.14987
G2 X180.4 Y7.0 I0.2 J-0.34641
G2 X179.8 Y6.65359 I-0.4 J0.0
G2 X179.62914 Y6.85013 I0.2 J0.34641
G1 F300.0 X177.40397 Y5.95088
G2 F800.0 X178.6 Y9.42487 I2.59603 J1.04912
G2 X182.8 Y7.0 I1.4 J-2.42487
G2 X178.6 Y4.57513 I-2.8 J0.0
G2 X177.40397 Y5.95088 I1.4 J2.42487
G1 F300.0 X175.17881 Y5.05164
G2 F800.0 X177.4 Y11.50333 I4.82119 J1.94836
G2 X185.2 Y7.0 I2.6 J-4.50333
G2 X177.4 Y2.49667 I-5.2 J0.0
G2 X175.17881 Y5.05164 I2.6 J4.50333
G0 Z3.0
G0 X179.62914 Y6.85013
G0 Z-6.0
G1 F300.0 Z-8.0
G2 F800.0 X179.8 Y7.34641 I0.37086 J0.14987
G2 X180.4 Y7.0 I0.2 J-0.34641
G2 X179.8 Y6.65359 I-0.4 J0.0
G2 X179.62914 Y6.85013 I0.2 J0.34641
G1 F300.0 X177.40397 Y5.95088
G2 F800.0 X178.6 Y9.42487 I2.59603 J1.04912
G2 X182.8 Y7.0 I1.4 J-2.42487
G2 X178.6 Y4.57513 I-2.8 J0.0
G2 X177.40397 Y5.95088 I1.4 J2.42487
G1 F300.0 X175.17881 Y5.05164
G2 F800.0 X177.4 Y11.50333 I4.82119 J1.94836
G2 X185.2 Y7.0 I2.6 J-4.50333
G2 X177.4 Y2.49667 I-5.2 J0.0
G2 X175.17881 Y5.05164 I2.6 J4.50333
G0 Z3.0
G0 X179.62914 Y6.85013
G0 Z-7.0
G1 F300.0 Z-9.0
G2 F800.0 X179.8 Y7.34641 I0.37086 J0.14987
G2 X180.4 Y7.0 I0.2 J-0.34641
G2 X179.8 Y6.65359 I-0.4 J0.0
G2 X179.62914 Y6.85013 I0.2 J0.34641
G1 F300.0 X177.40397 Y5.95088
G2 F800.0 X178.6 Y9.42487 I2.59603 J1.04912
G2 X182.8 Y7.0 I1.4 J-2.42487
G2 X178.6 Y4.57513 I-2.8 J0.0
G2 X177.40397 Y5.95088 I1.4 J2.42487
G1 F300.0 X175.17881 Y5.05164
G2 F800.0 X177.4 Y11.50333 I4.82119 J1.94836
G2 X185.2 Y7.0 I2.6 J-4.50333
G2 X177.4 Y2.49667 I-5.2 J0.0
G2 X175.17881 Y5.05164 I2.6 J4.50333
G0 Z3.0
G0 X179.62914 Y6.85013
G0 Z-8.0
G1 F300.0 Z-10.0
G2 F800.0 X179.8 Y7.34641 I0.37086 J0.14987
G2 X180.4 Y7.0 I0.2 J-0.34641
G2 X179.8 Y6.65359 I-0.4 J0.0
G2 X179.62914 Y6.85013 I0.2 J0.34641
G1 F300.0 X177.40397 Y5.95088
G2 F800.0 X178.6 Y9.42487 I2.59603 J1.04912
G2 X182.8 Y7.0 I1.4 J-2.42487
G2 X178.6 Y4.57513 I-2.8 J0.0
G2 X177.40397 Y5.95088 I1.4 J2.42487
G1 F300.0 X175.17881 Y5.05164
G2 F800.0 X177.4 Y11.50333 I4.82119 J1.94836
G2 X185.2 Y7.0 I2.6 J-4.50333
G2 X177.4 Y2.49667 I-5.2 J0.0
G2 X175.17881 Y5.05164 I2.6 J4.50333
G0 Z3.0
G0 X179.62914 Y6.85013
G0 Z-9.0
G1 F300.0 Z-11.0
G2 F800.0 X179.8 Y7.34641 I0.37086 J0.14987
G2 X180.4 Y7.0 I0.2 J-0.34641
G2 X179.8 Y6.65359 I-0.4 J0.0
G2 X179.62914 Y6.85013 I0.2 J0.34641
G1 F300.0 X177.40397 Y5.95088
G2 F800.0 X178.6 Y9.42487 I2.59603 J1.04912
G2 X182.8 Y7.0 I1.4 J-2.42487
G2 X178.6 Y4.57513 I-2.8 J0.0
G2 X177.40397 Y5.95088 I1.4 J2.42487
G1 F300.0 X175.17881 Y5.05164
G2 F800.0 X177.4 Y11.50333 I4.82119 J1.94836
G2 X185.2 Y7.0 I2.6 J-4.50333
G2 X177.4 Y2.49667 I-5.2 J0.0
G2 X175.17881 Y5.05164 I2.6 J4.50333
G0 Z3.0
G0 X179.62914 Y6.85013
G0 Z-10.0
G1 F300.0 Z-12.0
G2 F800.0 X179.8 Y7.34641 I0.37086 J0.14987
G2 X180.4 Y7.0 I0.2 J-0.34641
G2 X179.8 Y6.65359 I-0.4 J0.0
G2 X179.62914 Y6.85013 I0.2 J0.34641
G1 F300.0 X177.40397 Y5.95088
G2 F800.0 X178.6 Y9.42487 I2.59603 J1.04912
G2 X182.8 Y7.0 I1.4 J-2.42487
G2 X178.6 Y4.57513 I-2.8 J0.0
G2 X177.40397 Y5.95088 I1.4 J2.42487
G1 F300.0 X175.17881 Y5.05164
G2 F800.0 X177.4 Y11.50333 I4.82119 J1.94836
G2 X185.2 Y7.0 I2.6 J-4.50333
G2 X177.4 Y2.49667 I-5.2 J0.0
G2 X175.17881 Y5.05164 I2.6 J4.50333
G0 Z3.0
G0 X179.62914 Y6.85013
G0 Z-11.0
G1 F300.0 Z-13.0
G2 F800.0 X179.8 Y7.34641 I0.37086 J0.14987
G2 X180.4 Y7.0 I0.2 J-0.34641
G2 X179.8 Y6.65359 I-0.4 J0.0
G2 X179.62914 Y6.85013 I0.2 J0.34641
G1 F300.0 X177.40397 Y5.95088
G2 F800.0 X178.6 Y9.42487 I2.59603 J1.04912
G2 X182.8 Y7.0 I1.4 J-2.42487
G2 X178.6 Y4.57513 I-2.8 J0.0
G2 X177.40397 Y5.95088 I1.4 J2.42487
G1 F300.0 X175.17881 Y5.05164
G2 F800.0 X177.4 Y11.50333 I4.82119 J1.94836
G2 X185.2 Y7.0 I2.6 J-4.50333
G2 X177.4 Y2.49667 I-5.2 J0.0
G2 X175.17881 Y5.05164 I2.6 J4.50333
G0 Z3.0
G0 X179.62914 Y6.85013
G0 Z-12.0
G1 F300.0 Z-14.0
G2 F800.0 X179.8 Y7.34641 I0.37086 J0.14987
G2 X180.4 Y7.0 I0.2 J-0.34641
G2 X179.8 Y6.65359 I-0.4 J0.0
G2 X179.62914 Y6.85013 I0.2 J0.34641
G1 F300.0 X177.40397 Y5.95088
G2 F800.0 X178.6 Y9.42487 I2.59603 J1.04912
G2 X182.8 Y7.0 I1.4 J-2.42487
G2 X178.6 Y4.57513 I-2.8 J0.0
G2 X177.40397 Y5.95088 I1.4 J2.42487
G1 F300.0 X175.17881 Y5.05164
G2 F800.0 X177.4 Y11.50333 I4.82119 J1.94836
G2 X185.2 Y7.0 I2.6 J-4.50333
G2 X177.4 Y2.49667 I-5.2 J0.0
G2 X175.17881 Y5.05164 I2.6 J4.50333
G0 Z3.0
G0 X179.62914 Y6.85013
G0 Z-13.0
