; generated by PrusaSlicer 2.2.0+win64 on 2020-08-28 at 20:32:14 UTC

; 

; external perimeters extrusion width = 0.45mm
; perimeters extrusion width = 0.45mm
; infill extrusion width = 0.45mm
; solid infill extrusion width = 0.45mm
; top infill extrusion width = 0.40mm
; first layer extrusion width = 0.42mm

M73 P0 R87
M201 X9000 Y9000 Z500 E10000 ; sets maximum accelerations, mm/sec^2
M203 X500 Y500 Z12 E120 ; sets maximum feedrates, mm/sec
M204 P2000 R1500 T2000 ; sets acceleration (P, T) and retract acceleration (R), mm/sec^2
M205 X10.00 Y10.00 Z0.20 E2.50 ; sets the jerk limits, mm/sec
M205 S0 T0 ; sets the minimum extruding and travel feed rate, mm/sec
M107
M862.3 P "MK2S" ; printer model check
M862.1 P0.4 ; nozzle diameter check
M115 U3.2.3 ; tell printer latest fw version
G90 ; use absolute coordinates
M83 ; extruder relative mode
M204 S2000 T1500 ; MK2 firmware only supports the old M204 format
M104 S220 ; set extruder temp
M140 S80 ; set bed temp
M190 S80 ; wait for bed temp
M109 S220 ; wait for extruder temp
G28 W ; home all without mesh bed level
G80 ; mesh bed leveling
G1 Y-3.0 F1000.0 ; go outside print area
G92 E0.0
G1 X60.0 E9.0  F1000.0 ; intro line
M73 P0 R87
G1 X100.0 E12.5 F1000.0 ; intro line
G92 E0.0
G21 ; set units to millimeters
G90 ; use absolute coordinates
M83 ; use relative distances for extrusion
M900 K45 ; Filament gcode
;BEFORE_LAYER_CHANGE
G92 E0.0
;0.2


G1 E-0.80000 F2100.00000
G1 Z0.600 F10800.000
;AFTER_LAYER_CHANGE
;0.2
G1 X96.065 Y56.811
G1 Z0.200
G1 E0.80000 F2100.00000
M204 S1000
G1 F1200.000
G1 X96.434 Y56.328 E0.01906
G1 X96.914 Y55.954 E0.01906
G1 X97.472 Y55.714 E0.01906
G1 X98.073 Y55.623 E0.01906
G1 X153.842 Y55.623 E1.74859
G1 X154.740 Y55.801 E0.02872
G1 X155.502 Y56.303 E0.02860
G1 X156.019 Y57.055 E0.02860
G1 X156.214 Y57.949 E0.02872
G1 X156.215 Y152.008 E2.94913
G1 X156.132 Y152.621 E0.01941
G1 X155.896 Y153.189 E0.01929
G1 X155.524 Y153.675 E0.01917
G1 X155.041 Y154.050 E0.01917
G1 X154.478 Y154.289 E0.01917
G1 X153.873 Y154.377 E0.01917
G1 X98.112 Y154.377 E1.74835
G1 X97.502 Y154.294 E0.01929
G1 X96.934 Y154.058 E0.01929
G1 X96.446 Y153.684 E0.01929
G1 X96.070 Y153.197 E0.01929
G1 X95.831 Y152.630 E0.01929
G1 X95.747 Y152.020 E0.01929
G1 X95.746 Y57.992 E2.94817
G1 X95.829 Y57.379 E0.01941
G1 X96.042 Y56.866 E0.01741
G1 F8640.000
G1 X96.434 Y56.328 E-0.15377
G1 X96.914 Y55.954 E-0.14034
G1 X97.472 Y55.714 E-0.14034
G1 X98.073 Y55.623 E-0.14034
G1 X98.875 Y55.623 E-0.18522
G1 E-0.04000 F2100.00000
G1 Z0.800 F10800.000
G1 X121.051 Y63.213
G1 Z0.200
G1 E0.80000 F2100.00000
G1 F1200.000
G1 X146.625 Y63.213 E0.80186
G1 X146.625 Y146.787 E2.62041
G1 X121.051 Y146.787 E0.80186
G1 X121.051 Y63.273 E2.61853
G1 X121.428 Y63.590 F10800.000
G1 F1200.000
G1 X146.248 Y63.590 E0.77821
G1 X146.248 Y146.410 E2.59676
G1 X121.428 Y146.410 E0.77821
G1 X121.428 Y63.650 E2.59488
G1 X121.389 Y63.192 F10800.000
G1 F8640.000
G1 X124.719 Y63.642 E-0.76000
G1 E-0.04000 F2100.00000
G1 Z0.800 F10800.000
G1 X114.625 Y146.787
G1 Z0.200
G1 E0.80000 F2100.00000
G1 F1200.000
G1 X114.625 Y63.213 E2.62041
G1 X99.142 Y63.213 E0.48547
G1 X99.142 Y58.787 E0.13877
G1 X153.051 Y58.787 E1.69029
G1 X153.051 Y151.213 E2.89795
G1 X99.142 Y151.213 E1.69029
G1 X99.142 Y146.787 E0.13877
G1 X114.565 Y146.787 E0.48359
G1 X114.248 Y146.410 F10800.000
G1 F1200.000
G1 X114.248 Y63.590 E2.59676
M73 P1 R86
G1 X98.764 Y63.590 E0.48547
G1 X98.764 Y58.410 E0.16242
G1 X153.428 Y58.410 E1.71393
G1 X153.428 Y151.590 E2.92159
G1 X98.764 Y151.590 E1.71393
G1 X98.764 Y146.410 E0.16242
G1 X114.188 Y146.410 E0.48359
G1 X114.645 Y146.367 F10800.000
G1 F8640.000
G1 X114.190 Y143.119 E-0.76000
G1 E-0.04000 F2100.00000
G1 Z0.800 F10800.000
G1 X124.613 Y151.100
G1 Z0.200
G1 E0.80000 F2100.00000
G1 F1200.000
G1 X114.908 Y141.395 E0.43145
G1 X114.908 Y141.929 E0.01681
G1 X123.908 Y150.930 E0.40014
G1 X123.374 Y150.930 E0.01681
G1 X114.908 Y142.464 E0.37637
G1 X114.908 Y142.999 E0.01681
G1 X122.839 Y150.930 E0.35260
G1 X122.305 Y150.930 E0.01681
G1 X114.908 Y143.533 E0.32883
G1 X114.908 Y144.068 E0.01681
G1 X121.770 Y150.930 E0.30506
G1 X121.235 Y150.930 E0.01681
G1 X114.908 Y144.603 E0.28130
G1 X114.908 Y145.137 E0.01681
G1 X120.701 Y150.930 E0.25753
G1 X120.166 Y150.930 E0.01681
G1 X114.908 Y145.672 E0.23376
G1 X114.908 Y146.207 E0.01681
G1 X119.631 Y150.930 E0.20999
G1 X119.097 Y150.930 E0.01681
G1 X114.908 Y146.741 E0.18622
G1 X114.908 Y147.070 E0.01033
G1 X114.702 Y147.070 E0.00647
G1 X118.562 Y150.930 E0.17161
G1 X118.027 Y150.930 E0.01681
G1 X114.167 Y147.070 E0.17161
G1 X113.632 Y147.070 E0.01681
G1 X117.493 Y150.930 E0.17161
G1 X116.958 Y150.930 E0.01681
G1 X113.098 Y147.070 E0.17161
G1 X112.563 Y147.070 E0.01681
G1 X116.423 Y150.930 E0.17161
G1 X115.889 Y150.930 E0.01681
G1 X112.029 Y147.070 E0.17161
G1 X111.494 Y147.070 E0.01681
G1 X115.354 Y150.930 E0.17161
G1 X114.820 Y150.930 E0.01681
G1 X110.959 Y147.070 E0.17161
G1 X110.425 Y147.070 E0.01681
G1 X114.285 Y150.930 E0.17161
G1 X113.750 Y150.930 E0.01681
G1 X109.890 Y147.070 E0.17161
G1 X109.355 Y147.070 E0.01681
G1 X113.216 Y150.930 E0.17161
G1 X112.681 Y150.930 E0.01681
G1 X108.821 Y147.070 E0.17161
G1 X108.286 Y147.070 E0.01681
G1 X112.146 Y150.930 E0.17161
G1 X111.612 Y150.930 E0.01681
G1 X107.751 Y147.070 E0.17161
G1 X107.217 Y147.070 E0.01681
G1 X111.077 Y150.930 E0.17161
G1 X110.542 Y150.930 E0.01681
G1 X106.682 Y147.070 E0.17161
G1 X106.147 Y147.070 E0.01681
G1 X110.008 Y150.930 E0.17161
G1 X109.473 Y150.930 E0.01681
G1 X105.613 Y147.070 E0.17161
G1 X105.078 Y147.070 E0.01681
G1 X108.938 Y150.930 E0.17161
G1 X108.404 Y150.930 E0.01681
G1 X104.544 Y147.070 E0.17161
G1 X104.009 Y147.070 E0.01681
G1 X107.869 Y150.930 E0.17161
G1 X107.335 Y150.930 E0.01681
G1 X103.474 Y147.070 E0.17161
G1 X102.940 Y147.070 E0.01681
G1 X106.800 Y150.930 E0.17161
G1 X106.265 Y150.930 E0.01681
G1 X102.405 Y147.070 E0.17161
G1 X101.870 Y147.070 E0.01681
G1 X105.731 Y150.930 E0.17161
G1 X105.196 Y150.930 E0.01681
G1 X101.336 Y147.070 E0.17161
G1 X100.801 Y147.070 E0.01681
G1 X104.661 Y150.930 E0.17161
G1 X104.127 Y150.930 E0.01681
G1 X100.266 Y147.070 E0.17161
G1 X99.732 Y147.070 E0.01681
G1 X103.592 Y150.930 E0.17161
G1 X103.057 Y150.930 E0.01681
G1 X99.424 Y147.297 E0.16151
G1 X99.424 Y147.832 E0.01681
G1 X102.523 Y150.930 E0.13774
G1 X101.988 Y150.930 E0.01681
G1 X99.424 Y148.366 E0.11397
G1 X99.424 Y148.901 E0.01681
G1 X101.453 Y150.930 E0.09020
G1 X100.919 Y150.930 E0.01681
G1 X99.424 Y149.436 E0.06644
G1 X99.424 Y149.970 E0.01681
G1 X100.384 Y150.930 E0.04267
G1 X99.849 Y150.930 E0.01681
G1 X99.255 Y150.335 E0.02644
G1 F8640.000
G1 X99.849 Y150.930 E-0.19425
G1 X100.384 Y150.930 E-0.12345
G1 X99.424 Y149.970 E-0.31342
G1 X99.424 Y149.436 E-0.12345
G1 X99.441 Y149.452 E-0.00543
G1 E-0.04000 F2100.00000
G1 Z0.800 F10800.000
G1 X99.255 Y62.654
G1 Z0.200
G1 E0.80000 F2100.00000
G1 F1200.000
G1 X99.531 Y62.930 E0.01229
G1 X100.066 Y62.930 E0.01681
G1 X99.424 Y62.289 E0.02851
G1 X99.424 Y61.754 E0.01681
G1 X100.600 Y62.930 E0.05228
G1 X101.135 Y62.930 E0.01681
G1 X99.424 Y61.220 E0.07605
G1 X99.424 Y60.685 E0.01681
G1 X101.670 Y62.930 E0.09981
G1 X102.204 Y62.930 E0.01681
G1 X99.424 Y60.150 E0.12358
G1 X99.424 Y59.616 E0.01681
G1 X102.739 Y62.930 E0.14735
G1 X103.274 Y62.930 E0.01681
G1 X99.424 Y59.081 E0.17112
G1 X99.948 Y59.070 E0.01646
G1 X103.808 Y62.930 E0.17161
G1 X104.343 Y62.930 E0.01681
G1 X100.483 Y59.070 E0.17161
G1 X101.017 Y59.070 E0.01681
G1 X104.877 Y62.930 E0.17161
G1 X105.412 Y62.930 E0.01681
G1 X101.552 Y59.070 E0.17161
G1 X102.086 Y59.070 E0.01681
G1 X105.947 Y62.930 E0.17161
G1 X106.481 Y62.930 E0.01681
G1 X102.621 Y59.070 E0.17161
G1 X103.156 Y59.070 E0.01681
G1 X107.016 Y62.930 E0.17161
G1 X107.551 Y62.930 E0.01681
G1 X103.690 Y59.070 E0.17161
G1 X104.225 Y59.070 E0.01681
G1 X108.085 Y62.930 E0.17161
G1 X108.620 Y62.930 E0.01681
G1 X104.760 Y59.070 E0.17161
G1 X105.294 Y59.070 E0.01681
G1 X109.155 Y62.930 E0.17161
G1 X109.689 Y62.930 E0.01681
G1 X105.829 Y59.070 E0.17161
G1 X106.364 Y59.070 E0.01681
G1 X110.224 Y62.930 E0.17161
G1 X110.759 Y62.930 E0.01681
G1 X106.898 Y59.070 E0.17161
G1 X107.433 Y59.070 E0.01681
G1 X111.293 Y62.930 E0.17161
G1 X111.828 Y62.930 E0.01681
G1 X107.968 Y59.070 E0.17161
G1 X108.502 Y59.070 E0.01681
G1 X112.362 Y62.930 E0.17161
G1 X112.897 Y62.930 E0.01681
G1 X109.037 Y59.070 E0.17161
G1 X109.572 Y59.070 E0.01681
G1 X113.432 Y62.930 E0.17161
G1 X113.966 Y62.930 E0.01681
G1 X110.106 Y59.070 E0.17161
G1 X110.641 Y59.070 E0.01681
G1 X114.671 Y63.100 E0.17915
G1 F8640.000
G1 X112.343 Y60.772 E-0.76000
G1 E-0.04000 F2100.00000
G1 Z0.800 F10800.000
G1 X152.938 Y59.665
G1 Z0.200
G1 E0.80000 F2100.00000
G1 F1200.000
G1 X152.343 Y59.070 E0.02644
G1 X151.808 Y59.070 E0.01681
G1 X152.768 Y60.029 E0.04266
G1 X152.768 Y60.564 E0.01681
G1 X151.274 Y59.070 E0.06643
G1 X150.739 Y59.070 E0.01681
G1 X152.768 Y61.099 E0.09020
G1 X152.768 Y61.633 E0.01681
G1 X150.204 Y59.070 E0.11396
G1 X149.670 Y59.070 E0.01681
G1 X152.768 Y62.168 E0.13773
G1 X152.768 Y62.703 E0.01681
G1 X149.135 Y59.070 E0.16150
G1 X148.600 Y59.070 E0.01681
G1 X152.768 Y63.237 E0.18527
G1 X152.768 Y63.772 E0.01681
G1 X148.066 Y59.070 E0.20904
G1 X147.531 Y59.070 E0.01681
G1 X152.768 Y64.307 E0.23280
G1 X152.768 Y64.841 E0.01681
G1 X146.997 Y59.070 E0.25657
G1 X146.462 Y59.070 E0.01681
G1 X152.768 Y65.376 E0.28034
G1 X152.768 Y65.911 E0.01681
G1 X145.927 Y59.070 E0.30411
G1 X145.393 Y59.070 E0.01681
G1 X152.768 Y66.445 E0.32788
G1 X152.768 Y66.980 E0.01681
G1 X144.858 Y59.070 E0.35164
G1 X144.323 Y59.070 E0.01681
G1 X152.768 Y67.514 E0.37541
G1 X152.768 Y68.049 E0.01681
G1 X143.789 Y59.070 E0.39918
G1 X143.254 Y59.070 E0.01681
G1 X152.768 Y68.584 E0.42295
G1 X152.768 Y69.118 E0.01681
G1 X142.719 Y59.070 E0.44672
G1 X142.185 Y59.070 E0.01681
G1 X146.045 Y62.930 E0.17161
G1 X145.510 Y62.930 E0.01681
G1 X141.650 Y59.070 E0.17161
G1 X141.115 Y59.070 E0.01681
G1 X144.976 Y62.930 E0.17161
G1 X144.441 Y62.930 E0.01681
G1 X140.581 Y59.070 E0.17161
G1 X140.046 Y59.070 E0.01681
G1 X143.906 Y62.930 E0.17161
G1 X143.372 Y62.930 E0.01681
G1 X139.512 Y59.070 E0.17161
G1 X138.977 Y59.070 E0.01681
G1 X142.837 Y62.930 E0.17161
G1 X142.302 Y62.930 E0.01681
G1 X138.442 Y59.070 E0.17161
G1 X137.908 Y59.070 E0.01681
G1 X141.768 Y62.930 E0.17161
G1 X141.233 Y62.930 E0.01681
G1 X137.373 Y59.070 E0.17161
G1 X136.838 Y59.070 E0.01681
G1 X140.699 Y62.930 E0.17161
G1 X140.164 Y62.930 E0.01681
G1 X136.304 Y59.070 E0.17161
G1 X135.769 Y59.070 E0.01681
G1 X139.629 Y62.930 E0.17161
G1 X139.095 Y62.930 E0.01681
G1 X135.234 Y59.070 E0.17161
G1 X134.700 Y59.070 E0.01681
G1 X138.560 Y62.930 E0.17161
G1 X138.025 Y62.930 E0.01681
G1 X134.165 Y59.070 E0.17161
G1 X133.630 Y59.070 E0.01681
G1 X137.491 Y62.930 E0.17161
G1 X136.956 Y62.930 E0.01681
G1 X133.096 Y59.070 E0.17161
G1 X132.561 Y59.070 E0.01681
G1 X136.421 Y62.930 E0.17161
G1 X135.887 Y62.930 E0.01681
G1 X132.027 Y59.070 E0.17161
G1 X131.492 Y59.070 E0.01681
G1 X135.352 Y62.930 E0.17161
G1 X134.817 Y62.930 E0.01681
G1 X130.957 Y59.070 E0.17161
G1 X130.423 Y59.070 E0.01681
G1 X134.283 Y62.930 E0.17161
G1 X133.748 Y62.930 E0.01681
G1 X129.888 Y59.070 E0.17161
G1 X129.353 Y59.070 E0.01681
G1 X133.214 Y62.930 E0.17161
G1 X132.679 Y62.930 E0.01681
G1 X128.819 Y59.070 E0.17161
G1 X128.284 Y59.070 E0.01681
G1 X132.144 Y62.930 E0.17161
G1 X131.610 Y62.930 E0.01681
G1 X127.749 Y59.070 E0.17161
G1 X127.215 Y59.070 E0.01681
G1 X131.075 Y62.930 E0.17161
G1 X130.540 Y62.930 E0.01681
G1 X126.680 Y59.070 E0.17161
G1 X126.145 Y59.070 E0.01681
G1 X130.006 Y62.930 E0.17161
G1 X129.471 Y62.930 E0.01681
G1 X125.611 Y59.070 E0.17161
G1 X125.076 Y59.070 E0.01681
G1 X128.936 Y62.930 E0.17161
G1 X128.402 Y62.930 E0.01681
G1 X124.542 Y59.070 E0.17161
G1 X124.007 Y59.070 E0.01681
G1 X127.867 Y62.930 E0.17161
G1 X127.332 Y62.930 E0.01681
G1 X123.472 Y59.070 E0.17161
G1 X122.938 Y59.070 E0.01681
G1 X126.798 Y62.930 E0.17161
G1 X126.263 Y62.930 E0.01681
G1 X122.403 Y59.070 E0.17161
G1 X121.868 Y59.070 E0.01681
G1 X125.729 Y62.930 E0.17161
G1 X125.194 Y62.930 E0.01681
G1 X121.334 Y59.070 E0.17161
G1 X120.799 Y59.070 E0.01681
G1 X124.659 Y62.930 E0.17161
G1 X124.125 Y62.930 E0.01681
G1 X120.264 Y59.070 E0.17161
G1 X119.730 Y59.070 E0.01681
G1 X123.590 Y62.930 E0.17161
G1 X123.055 Y62.930 E0.01681
G1 X119.195 Y59.070 E0.17161
G1 X118.660 Y59.070 E0.01681
G1 X122.521 Y62.930 E0.17161
G1 X121.986 Y62.930 E0.01681
G1 X118.126 Y59.070 E0.17161
G1 X117.591 Y59.070 E0.01681
G1 X121.451 Y62.930 E0.17161
M73 P2 R85
G1 X120.917 Y62.930 E0.01681
G1 X117.057 Y59.070 E0.17161
G1 X116.522 Y59.070 E0.01681
G1 X120.768 Y63.316 E0.18876
G1 X120.768 Y63.851 E0.01681
G1 X115.987 Y59.070 E0.21253
G1 X115.453 Y59.070 E0.01681
G1 X120.768 Y64.385 E0.23630
G1 X120.768 Y64.920 E0.01681
G1 X114.918 Y59.070 E0.26007
G1 X114.383 Y59.070 E0.01681
G1 X120.768 Y65.455 E0.28383
G1 X120.768 Y65.989 E0.01681
G1 X113.849 Y59.070 E0.30760
G1 X113.314 Y59.070 E0.01681
G1 X120.768 Y66.524 E0.33137
G1 X120.768 Y67.058 E0.01681
G1 X112.779 Y59.070 E0.35514
G1 X112.245 Y59.070 E0.01681
G1 X120.768 Y67.593 E0.37891
G1 X120.768 Y68.128 E0.01681
G1 X111.710 Y59.070 E0.40267
G1 X111.175 Y59.070 E0.01681
G1 X120.768 Y68.662 E0.42644
G1 X120.768 Y69.197 E0.01681
G1 X114.908 Y63.337 E0.26052
G1 X114.908 Y63.871 E0.01681
G1 X120.768 Y69.732 E0.26052
G1 X120.768 Y70.266 E0.01681
G1 X114.908 Y64.406 E0.26052
G1 X114.908 Y64.941 E0.01681
G1 X120.768 Y70.801 E0.26052
G1 X120.768 Y71.336 E0.01681
G1 X114.908 Y65.475 E0.26052
G1 X114.908 Y66.010 E0.01681
G1 X120.768 Y71.870 E0.26052
G1 X120.768 Y72.405 E0.01681
G1 X114.908 Y66.545 E0.26052
G1 X114.908 Y67.079 E0.01681
G1 X120.768 Y72.940 E0.26052
G1 X120.768 Y73.474 E0.01681
G1 X114.908 Y67.614 E0.26052
G1 X114.908 Y68.149 E0.01681
G1 X120.768 Y74.009 E0.26052
G1 X120.768 Y74.543 E0.01681
G1 X114.908 Y68.683 E0.26052
G1 X114.908 Y69.218 E0.01681
G1 X120.768 Y75.078 E0.26052
G1 X120.768 Y75.613 E0.01681
G1 X114.908 Y69.752 E0.26052
G1 X114.908 Y70.287 E0.01681
G1 X120.768 Y76.147 E0.26052
G1 X120.768 Y76.682 E0.01681
G1 X114.908 Y70.822 E0.26052
G1 X114.908 Y71.356 E0.01681
G1 X120.768 Y77.217 E0.26052
G1 X120.768 Y77.751 E0.01681
G1 X114.908 Y71.891 E0.26052
G1 X114.908 Y72.426 E0.01681
G1 X120.768 Y78.286 E0.26052
G1 X120.768 Y78.821 E0.01681
G1 X114.908 Y72.960 E0.26052
G1 X114.908 Y73.495 E0.01681
G1 X120.768 Y79.355 E0.26052
G1 X120.768 Y79.890 E0.01681
G1 X114.908 Y74.030 E0.26052
G1 X114.908 Y74.564 E0.01681
G1 X120.768 Y80.425 E0.26052
G1 X120.768 Y80.959 E0.01681
G1 X114.908 Y75.099 E0.26052
G1 X114.908 Y75.634 E0.01681
G1 X120.768 Y81.494 E0.26052
G1 X120.768 Y82.028 E0.01681
G1 X114.908 Y76.168 E0.26052
G1 X114.908 Y76.703 E0.01681
G1 X120.768 Y82.563 E0.26052
G1 X120.768 Y83.098 E0.01681
G1 X114.908 Y77.238 E0.26052
G1 X114.908 Y77.772 E0.01681
G1 X120.768 Y83.632 E0.26052
G1 X120.768 Y84.167 E0.01681
G1 X114.908 Y78.307 E0.26052
G1 X114.908 Y78.841 E0.01681
G1 X120.768 Y84.702 E0.26052
G1 X120.768 Y85.236 E0.01681
G1 X114.908 Y79.376 E0.26052
G1 X114.908 Y79.911 E0.01681
G1 X120.768 Y85.771 E0.26052
G1 X120.768 Y86.306 E0.01681
G1 X114.908 Y80.445 E0.26052
G1 X114.908 Y80.980 E0.01681
G1 X120.768 Y86.840 E0.26052
G1 X120.768 Y87.375 E0.01681
G1 X114.908 Y81.515 E0.26052
G1 X114.908 Y82.049 E0.01681
G1 X120.768 Y87.910 E0.26052
G1 X120.768 Y88.444 E0.01681
G1 X114.908 Y82.584 E0.26052
G1 X114.908 Y83.119 E0.01681
G1 X120.768 Y88.979 E0.26052
G1 X120.768 Y89.513 E0.01681
G1 X114.908 Y83.653 E0.26052
G1 X114.908 Y84.188 E0.01681
G1 X120.768 Y90.048 E0.26052
G1 X120.768 Y90.583 E0.01681
G1 X114.908 Y84.723 E0.26052
G1 X114.908 Y85.257 E0.01681
G1 X120.768 Y91.117 E0.26052
G1 X120.768 Y91.652 E0.01681
G1 X114.908 Y85.792 E0.26052
G1 X114.908 Y86.326 E0.01681
G1 X120.768 Y92.187 E0.26052
G1 X120.768 Y92.721 E0.01681
G1 X114.908 Y86.861 E0.26052
G1 X114.908 Y87.396 E0.01681
G1 X120.768 Y93.256 E0.26052
G1 X120.768 Y93.791 E0.01681
G1 X114.908 Y87.930 E0.26052
G1 X114.908 Y88.465 E0.01681
G1 X120.768 Y94.325 E0.26052
G1 X120.768 Y94.860 E0.01681
G1 X114.908 Y89.000 E0.26052
