( Made using CamBam - http://www.cambam.co.uk )
( ehi_brett2 3/22/2019 6:47:16 PM )
( T3 : 3.0 )
( T4 : 4.0 )
G21 G90 G64 G40
G0 Z3.0
( T4 : 4.0 )
T4 M6
( Glasvertiefungen )
G17
M3 S1000
G0 X-104.54732 Y83.8268
G0 Z1.0
G1 F300.0 Z-2.0
G2 F800.0 X-105.59732 Y83.22058 I-0.7 J0.0
G2 Y84.43302 I0.35 J0.60622
G2 X-104.54732 Y83.8268 I0.35 J-0.60622
G1 F300.0 X-103.74732
G2 F800.0 X-105.99732 Y82.52776 I-1.5 J0.0
G2 Y85.12584 I0.75 J1.29904
G2 X-103.74732 Y83.8268 I0.75 J-1.29904
G1 F300.0 X-102.14732
G2 F800.0 X-106.79732 Y81.14212 I-3.1 J0.0
G2 Y86.51148 I1.55 J2.68468
G2 X-102.14732 Y83.8268 I1.55 J-2.68468
G1 F300.0 X-100.54732
G2 F800.0 X-107.59732 Y79.75648 I-4.7 J0.0
G2 Y87.89712 I2.35 J4.07032
G2 X-100.54732 Y83.8268 I2.35 J-4.07032
G1 F300.0 X-98.94732
G2 F800.0 X-108.39732 Y78.37084 I-6.3 J0.0
G2 Y89.28276 I3.15 J5.45596
G2 X-98.94732 Y83.8268 I3.15 J-5.45596
G1 F300.0 X-97.34732
G2 F800.0 X-109.19732 Y76.9852 I-7.9 J0.0
G2 Y90.6684 I3.95 J6.8416
G2 X-97.34732 Y83.8268 I3.95 J-6.8416
G1 F300.0 X-95.74732
G2 F800.0 X-109.99732 Y75.59956 I-9.5 J0.0
G2 Y92.05404 I4.75 J8.22724
G2 X-95.74732 Y83.8268 I4.75 J-8.22724
G1 F300.0 X-94.14732
G2 F800.0 X-110.79732 Y74.21392 I-11.1 J0.0
G2 Y93.43968 I5.55 J9.61288
G2 X-94.14732 Y83.8268 I5.55 J-9.61288
G1 F300.0 X-92.54732
G2 F800.0 X-111.59732 Y72.82828 I-12.7 J0.0
G2 Y94.82532 I6.35 J10.99852
G2 X-92.54732 Y83.8268 I6.35 J-10.99852
G1 F300.0 X-90.94732
G2 F800.0 X-112.39732 Y71.44264 I-14.3 J0.0
G2 Y96.21096 I7.15 J12.38416
G2 X-90.94732 Y83.8268 I7.15 J-12.38416
G1 F300.0 X-89.34732
G2 F800.0 X-113.19732 Y70.057 I-15.9 J0.0
G2 Y97.5966 I7.95 J13.7698
G2 X-89.34732 Y83.8268 I7.95 J-13.7698
G1 F300.0 X-87.74732
G2 F800.0 X-113.99732 Y68.67136 I-17.5 J0.0
G2 Y98.98224 I8.75 J15.15544
G2 X-87.74732 Y83.8268 I8.75 J-15.15544
G0 Z3.0
G0 X-104.54732
G0 Z-1.0
G1 F300.0 Z-4.0
G2 F800.0 X-105.59732 Y83.22058 I-0.7 J0.0
G2 Y84.43302 I0.35 J0.60622
G2 X-104.54732 Y83.8268 I0.35 J-0.60622
G1 F300.0 X-103.74732
G2 F800.0 X-105.99732 Y82.52776 I-1.5 J0.0
G2 Y85.12584 I0.75 J1.29904
G2 X-103.74732 Y83.8268 I0.75 J-1.29904
G1 F300.0 X-102.14732
G2 F800.0 X-106.79732 Y81.14212 I-3.1 J0.0
G2 Y86.51148 I1.55 J2.68468
G2 X-102.14732 Y83.8268 I1.55 J-2.68468
G1 F300.0 X-100.54732
G2 F800.0 X-107.59732 Y79.75648 I-4.7 J0.0
G2 Y87.89712 I2.35 J4.07032
G2 X-100.54732 Y83.8268 I2.35 J-4.07032
G1 F300.0 X-98.94732
G2 F800.0 X-108.39732 Y78.37084 I-6.3 J0.0
G2 Y89.28276 I3.15 J5.45596
G2 X-98.94732 Y83.8268 I3.15 J-5.45596
G1 F300.0 X-97.34732
G2 F800.0 X-109.19732 Y76.9852 I-7.9 J0.0
G2 Y90.6684 I3.95 J6.8416
G2 X-97.34732 Y83.8268 I3.95 J-6.8416
G1 F300.0 X-95.74732
G2 F800.0 X-109.99732 Y75.59956 I-9.5 J0.0
G2 Y92.05404 I4.75 J8.22724
G2 X-95.74732 Y83.8268 I4.75 J-8.22724
G1 F300.0 X-94.14732
G2 F800.0 X-110.79732 Y74.21392 I-11.1 J0.0
G2 Y93.43968 I5.55 J9.61288
G2 X-94.14732 Y83.8268 I5.55 J-9.61288
G1 F300.0 X-92.54732
G2 F800.0 X-111.59732 Y72.82828 I-12.7 J0.0
G2 Y94.82532 I6.35 J10.99852
G2 X-92.54732 Y83.8268 I6.35 J-10.99852
G1 F300.0 X-90.94732
G2 F800.0 X-112.39732 Y71.44264 I-14.3 J0.0
G2 Y96.21096 I7.15 J12.38416
G2 X-90.94732 Y83.8268 I7.15 J-12.38416
G1 F300.0 X-89.34732
G2 F800.0 X-113.19732 Y70.057 I-15.9 J0.0
G2 Y97.5966 I7.95 J13.7698
G2 X-89.34732 Y83.8268 I7.95 J-13.7698
G1 F300.0 X-87.74732
G2 F800.0 X-113.99732 Y68.67136 I-17.5 J0.0
G2 Y98.98224 I8.75 J15.15544
G2 X-87.74732 Y83.8268 I8.75 J-15.15544
G0 Z3.0
G0 X-104.54732
G0 Z-3.0
G1 F300.0 Z-6.0
G2 F800.0 X-105.59732 Y83.22058 I-0.7 J0.0
G2 Y84.43302 I0.35 J0.60622
G2 X-104.54732 Y83.8268 I0.35 J-0.60622
G1 F300.0 X-103.74732
G2 F800.0 X-105.99732 Y82.52776 I-1.5 J0.0
G2 Y85.12584 I0.75 J1.29904
G2 X-103.74732 Y83.8268 I0.75 J-1.29904
G1 F300.0 X-102.14732
G2 F800.0 X-106.79732 Y81.14212 I-3.1 J0.0
G2 Y86.51148 I1.55 J2.68468
G2 X-102.14732 Y83.8268 I1.55 J-2.68468
G1 F300.0 X-100.54732
G2 F800.0 X-107.59732 Y79.75648 I-4.7 J0.0
G2 Y87.89712 I2.35 J4.07032
G2 X-100.54732 Y83.8268 I2.35 J-4.07032
G1 F300.0 X-98.94732
G2 F800.0 X-108.39732 Y78.37084 I-6.3 J0.0
G2 Y89.28276 I3.15 J5.45596
G2 X-98.94732 Y83.8268 I3.15 J-5.45596
G1 F300.0 X-97.34732
G2 F800.0 X-109.19732 Y76.9852 I-7.9 J0.0
G2 Y90.6684 I3.95 J6.8416
G2 X-97.34732 Y83.8268 I3.95 J-6.8416
G1 F300.0 X-95.74732
G2 F800.0 X-109.99732 Y75.59956 I-9.5 J0.0
G2 Y92.05404 I4.75 J8.22724
G2 X-95.74732 Y83.8268 I4.75 J-8.22724
G1 F300.0 X-94.14732
G2 F800.0 X-110.79732 Y74.21392 I-11.1 J0.0
G2 Y93.43968 I5.55 J9.61288
G2 X-94.14732 Y83.8268 I5.55 J-9.61288
G1 F300.0 X-92.54732
G2 F800.0 X-111.59732 Y72.82828 I-12.7 J0.0
G2 Y94.82532 I6.35 J10.99852
G2 X-92.54732 Y83.8268 I6.35 J-10.99852
G1 F300.0 X-90.94732
G2 F800.0 X-112.39732 Y71.44264 I-14.3 J0.0
G2 Y96.21096 I7.15 J12.38416
G2 X-90.94732 Y83.8268 I7.15 J-12.38416
G1 F300.0 X-89.34732
G2 F800.0 X-113.19732 Y70.057 I-15.9 J0.0
G2 Y97.5966 I7.95 J13.7698
G2 X-89.34732 Y83.8268 I7.95 J-13.7698
G1 F300.0 X-87.74732
G2 F800.0 X-113.99732 Y68.67136 I-17.5 J0.0
G2 Y98.98224 I8.75 J15.15544
G2 X-87.74732 Y83.8268 I8.75 J-15.15544
G0 Z3.0
G0 X-104.54732
G0 Z-5.0
G1 F300.0 Z-8.0
G2 F800.0 X-105.59732 Y83.22058 I-0.7 J0.0
G2 Y84.43302 I0.35 J0.60622
G2 X-104.54732 Y83.8268 I0.35 J-0.60622
G1 F300.0 X-103.74732
G2 F800.0 X-105.99732 Y82.52776 I-1.5 J0.0
G2 Y85.12584 I0.75 J1.29904
G2 X-103.74732 Y83.8268 I0.75 J-1.29904
G1 F300.0 X-102.14732
G2 F800.0 X-106.79732 Y81.14212 I-3.1 J0.0
G2 Y86.51148 I1.55 J2.68468
G2 X-102.14732 Y83.8268 I1.55 J-2.68468
G1 F300.0 X-100.54732
G2 F800.0 X-107.59732 Y79.75648 I-4.7 J0.0
G2 Y87.89712 I2.35 J4.07032
G2 X-100.54732 Y83.8268 I2.35 J-4.07032
G1 F300.0 X-98.94732
G2 F800.0 X-108.39732 Y78.37084 I-6.3 J0.0
G2 Y89.28276 I3.15 J5.45596
G2 X-98.94732 Y83.8268 I3.15 J-5.45596
G1 F300.0 X-97.34732
G2 F800.0 X-109.19732 Y76.9852 I-7.9 J0.0
G2 Y90.6684 I3.95 J6.8416
G2 X-97.34732 Y83.8268 I3.95 J-6.8416
G1 F300.0 X-95.74732
G2 F800.0 X-109.99732 Y75.59956 I-9.5 J0.0
G2 Y92.05404 I4.75 J8.22724
G2 X-95.74732 Y83.8268 I4.75 J-8.22724
G1 F300.0 X-94.14732
G2 F800.0 X-110.79732 Y74.21392 I-11.1 J0.0
G2 Y93.43968 I5.55 J9.61288
G2 X-94.14732 Y83.8268 I5.55 J-9.61288
G1 F300.0 X-92.54732
G2 F800.0 X-111.59732 Y72.82828 I-12.7 J0.0
G2 Y94.82532 I6.35 J10.99852
G2 X-92.54732 Y83.8268 I6.35 J-10.99852
G1 F300.0 X-90.94732
G2 F800.0 X-112.39732 Y71.44264 I-14.3 J0.0
G2 Y96.21096 I7.15 J12.38416
G2 X-90.94732 Y83.8268 I7.15 J-12.38416
G1 F300.0 X-89.34732
G2 F800.0 X-113.19732 Y70.057 I-15.9 J0.0
G2 Y97.5966 I7.95 J13.7698
G2 X-89.34732 Y83.8268 I7.95 J-13.7698
G1 F300.0 X-87.74732
G2 F800.0 X-113.99732 Y68.67136 I-17.5 J0.0
G2 Y98.98224 I8.75 J15.15544
G2 X-87.74732 Y83.8268 I8.75 J-15.15544
G0 Z3.0
G0 X-104.54732
G0 Z-7.0
G1 F300.0 Z-10.0
G2 F800.0 X-105.59732 Y83.22058 I-0.7 J0.0
G2 Y84.43302 I0.35 J0.60622
G2 X-104.54732 Y83.8268 I0.35 J-0.60622
G1 F300.0 X-103.74732
G2 F800.0 X-105.99732 Y82.52776 I-1.5 J0.0
G2 Y85.12584 I0.75 J1.29904
G2 X-103.74732 Y83.8268 I0.75 J-1.29904
G1 F300.0 X-102.14732
G2 F800.0 X-106.79732 Y81.14212 I-3.1 J0.0
G2 Y86.51148 I1.55 J2.68468
G2 X-102.14732 Y83.8268 I1.55 J-2.68468
G1 F300.0 X-100.54732
G2 F800.0 X-107.59732 Y79.75648 I-4.7 J0.0
G2 Y87.89712 I2.35 J4.07032
G2 X-100.54732 Y83.8268 I2.35 J-4.07032
G1 F300.0 X-98.94732
G2 F800.0 X-108.39732 Y78.37084 I-6.3 J0.0
G2 Y89.28276 I3.15 J5.45596
G2 X-98.94732 Y83.8268 I3.15 J-5.45596
G1 F300.0 X-97.34732
G2 F800.0 X-109.19732 Y76.9852 I-7.9 J0.0
G2 Y90.6684 I3.95 J6.8416
G2 X-97.34732 Y83.8268 I3.95 J-6.8416
G1 F300.0 X-95.74732
G2 F800.0 X-109.99732 Y75.59956 I-9.5 J0.0
G2 Y92.05404 I4.75 J8.22724
G2 X-95.74732 Y83.8268 I4.75 J-8.22724
G1 F300.0 X-94.14732
G2 F800.0 X-110.79732 Y74.21392 I-11.1 J0.0
G2 Y93.43968 I5.55 J9.61288
G2 X-94.14732 Y83.8268 I5.55 J-9.61288
G1 F300.0 X-92.54732
G2 F800.0 X-111.59732 Y72.82828 I-12.7 J0.0
G2 Y94.82532 I6.35 J10.99852
G2 X-92.54732 Y83.8268 I6.35 J-10.99852
G1 F300.0 X-90.94732
G2 F800.0 X-112.39732 Y71.44264 I-14.3 J0.0
G2 Y96.21096 I7.15 J12.38416
G2 X-90.94732 Y83.8268 I7.15 J-12.38416
G1 F300.0 X-89.34732
G2 F800.0 X-113.19732 Y70.057 I-15.9 J0.0
G2 Y97.5966 I7.95 J13.7698
G2 X-89.34732 Y83.8268 I7.95 J-13.7698
G1 F300.0 X-87.74732
G2 F800.0 X-113.99732 Y68.67136 I-17.5 J0.0
G2 Y98.98224 I8.75 J15.15544
G2 X-87.74732 Y83.8268 I8.75 J-15.15544
G0 Z3.0
G0 X-104.54732
G0 Z-9.0
G1 F300.0 Z-12.0
G2 F800.0 X-105.59732 Y83.22058 I-0.7 J0.0
G2 Y84.43302 I0.35 J0.60622
G2 X-104.54732 Y83.8268 I0.35 J-0.60622
G1 F300.0 X-103.74732
G2 F800.0 X-105.99732 Y82.52776 I-1.5 J0.0
G2 Y85.12584 I0.75 J1.29904
G2 X-103.74732 Y83.8268 I0.75 J-1.29904
G1 F300.0 X-102.14732
G2 F800.0 X-106.79732 Y81.14212 I-3.1 J0.0
G2 Y86.51148 I1.55 J2.68468
G2 X-102.14732 Y83.8268 I1.55 J-2.68468
G1 F300.0 X-100.54732
G2 F800.0 X-107.59732 Y79.75648 I-4.7 J0.0
G2 Y87.89712 I2.35 J4.07032
G2 X-100.54732 Y83.8268 I2.35 J-4.07032
G1 F300.0 X-98.94732
G2 F800.0 X-108.39732 Y78.37084 I-6.3 J0.0
G2 Y89.28276 I3.15 J5.45596
G2 X-98.94732 Y83.8268 I3.15 J-5.45596
G1 F300.0 X-97.34732
G2 F800.0 X-109.19732 Y76.9852 I-7.9 J0.0
G2 Y90.6684 I3.95 J6.8416
G2 X-97.34732 Y83.8268 I3.95 J-6.8416
G1 F300.0 X-95.74732
G2 F800.0 X-109.99732 Y75.59956 I-9.5 J0.0
G2 Y92.05404 I4.75 J8.22724
G2 X-95.74732 Y83.8268 I4.75 J-8.22724
G1 F300.0 X-94.14732
G2 F800.0 X-110.79732 Y74.21392 I-11.1 J0.0
G2 Y93.43968 I5.55 J9.61288
G2 X-94.14732 Y83.8268 I5.55 J-9.61288
G1 F300.0 X-92.54732
G2 F800.0 X-111.59732 Y72.82828 I-12.7 J0.0
G2 Y94.82532 I6.35 J10.99852
G2 X-92.54732 Y83.8268 I6.35 J-10.99852
G1 F300.0 X-90.94732
G2 F800.0 X-112.39732 Y71.44264 I-14.3 J0.0
G2 Y96.21096 I7.15 J12.38416
G2 X-90.94732 Y83.8268 I7.15 J-12.38416
G1 F300.0 X-89.34732
G2 F800.0 X-113.19732 Y70.057 I-15.9 J0.0
G2 Y97.5966 I7.95 J13.7698
G2 X-89.34732 Y83.8268 I7.95 J-13.7698
G1 F300.0 X-87.74732
G2 F800.0 X-113.99732 Y68.67136 I-17.5 J0.0
G2 Y98.98224 I8.75 J15.15544
G2 X-87.74732 Y83.8268 I8.75 J-15.15544
G0 Z3.0
G0 X-104.54732
G0 Z-11.0
G1 F300.0 Z-14.0
G2 F800.0 X-105.59732 Y83.22058 I-0.7 J0.0
G2 Y84.43302 I0.35 J0.60622
G2 X-104.54732 Y83.8268 I0.35 J-0.60622
G1 F300.0 X-103.74732
G2 F800.0 X-105.99732 Y82.52776 I-1.5 J0.0
G2 Y85.12584 I0.75 J1.29904
G2 X-103.74732 Y83.8268 I0.75 J-1.29904
G1 F300.0 X-102.14732
G2 F800.0 X-106.79732 Y81.14212 I-3.1 J0.0
G2 Y86.51148 I1.55 J2.68468
G2 X-102.14732 Y83.8268 I1.55 J-2.68468
G1 F300.0 X-100.54732
G2 F800.0 X-107.59732 Y79.75648 I-4.7 J0.0
G2 Y87.89712 I2.35 J4.07032
G2 X-100.54732 Y83.8268 I2.35 J-4.07032
G1 F300.0 X-98.94732
G2 F800.0 X-108.39732 Y78.37084 I-6.3 J0.0
G2 Y89.28276 I3.15 J5.45596
G2 X-98.94732 Y83.8268 I3.15 J-5.45596
G1 F300.0 X-97.34732
G2 F800.0 X-109.19732 Y76.9852 I-7.9 J0.0
G2 Y90.6684 I3.95 J6.8416
G2 X-97.34732 Y83.8268 I3.95 J-6.8416
G1 F300.0 X-95.74732
G2 F800.0 X-109.99732 Y75.59956 I-9.5 J0.0
G2 Y92.05404 I4.75 J8.22724
G2 X-95.74732 Y83.8268 I4.75 J-8.22724
G1 F300.0 X-94.14732
G2 F800.0 X-110.79732 Y74.21392 I-11.1 J0.0
G2 Y93.43968 I5.55 J9.61288
G2 X-94.14732 Y83.8268 I5.55 J-9.61288
G1 F300.0 X-92.54732
G2 F800.0 X-111.59732 Y72.82828 I-12.7 J0.0
G2 Y94.82532 I6.35 J10.99852
G2 X-92.54732 Y83.8268 I6.35 J-10.99852
G1 F300.0 X-90.94732
G2 F800.0 X-112.39732 Y71.44264 I-14.3 J0.0
G2 Y96.21096 I7.15 J12.38416
G2 X-90.94732 Y83.8268 I7.15 J-12.38416
G1 F300.0 X-89.34732
G2 F800.0 X-113.19732 Y70.057 I-15.9 J0.0
G2 Y97.5966 I7.95 J13.7698
G2 X-89.34732 Y83.8268 I7.95 J-13.7698
G1 F300.0 X-87.74732
G2 F800.0 X-113.99732 Y68.67136 I-17.5 J0.0
G2 Y98.98224 I8.75 J15.15544
G2 X-87.74732 Y83.8268 I8.75 J-15.15544
G0 Z3.0
G0 X-104.54732
G0 Z-13.0
G1 F300.0 Z-16.0
G2 F800.0 X-105.59732 Y83.22058 I-0.7 J0.0
G2 Y84.43302 I0.35 J0.60622
G2 X-104.54732 Y83.8268 I0.35 J-0.60622
G1 F300.0 X-103.74732
G2 F800.0 X-105.99732 Y82.52776 I-1.5 J0.0
G2 Y85.12584 I0.75 J1.29904
G2 X-103.74732 Y83.8268 I0.75 J-1.29904
G1 F300.0 X-102.14732
G2 F800.0 X-106.79732 Y81.14212 I-3.1 J0.0
G2 Y86.51148 I1.55 J2.68468
G2 X-102.14732 Y83.8268 I1.55 J-2.68468
G1 F300.0 X-100.54732
G2 F800.0 X-107.59732 Y79.75648 I-4.7 J0.0
G2 Y87.89712 I2.35 J4.07032
G2 X-100.54732 Y83.8268 I2.35 J-4.07032
G1 F300.0 X-98.94732
G2 F800.0 X-108.39732 Y78.37084 I-6.3 J0.0
G2 Y89.28276 I3.15 J5.45596
G2 X-98.94732 Y83.8268 I3.15 J-5.45596
G1 F300.0 X-97.34732
G2 F800.0 X-109.19732 Y76.9852 I-7.9 J0.0
G2 Y90.6684 I3.95 J6.8416
G2 X-97.34732 Y83.8268 I3.95 J-6.8416
G1 F300.0 X-95.74732
G2 F800.0 X-109.99732 Y75.59956 I-9.5 J0.0
G2 Y92.05404 I4.75 J8.22724
G2 X-95.74732 Y83.8268 I4.75 J-8.22724
G1 F300.0 X-94.14732
G2 F800.0 X-110.79732 Y74.21392 I-11.1 J0.0
G2 Y93.43968 I5.55 J9.61288
G2 X-94.14732 Y83.8268 I5.55 J-9.61288
G1 F300.0 X-92.54732
G2 F800.0 X-111.59732 Y72.82828 I-12.7 J0.0
G2 Y94.82532 I6.35 J10.99852
G2 X-92.54732 Y83.8268 I6.35 J-10.99852
G1 F300.0 X-90.94732
G2 F800.0 X-112.39732 Y71.44264 I-14.3 J0.0
G2 Y96.21096 I7.15 J12.38416
G2 X-90.94732 Y83.8268 I7.15 J-12.38416
G1 F300.0 X-89.34732
G2 F800.0 X-113.19732 Y70.057 I-15.9 J0.0
G2 Y97.5966 I7.95 J13.7698
G2 X-89.34732 Y83.8268 I7.95 J-13.7698
G1 F300.0 X-87.74732
G2 F800.0 X-113.99732 Y68.67136 I-17.5 J0.0
G2 Y98.98224 I8.75 J15.15544
G2 X-87.74732 Y83.8268 I8.75 J-15.15544
G0 Z3.0
G0 X-104.54732
G0 Z-15.0
G1 F300.0 Z-18.0
G2 F800.0 X-105.59732 Y83.22058 I-0.7 J0.0
G2 Y84.43302 I0.35 J0.60622
G2 X-104.54732 Y83.8268 I0.35 J-0.60622
G1 F300.0 X-103.74732
G2 F800.0 X-105.99732 Y82.52776 I-1.5 J0.0
G2 Y85.12584 I0.75 J1.29904
G2 X-103.74732 Y83.8268 I0.75 J-1.29904
G1 F300.0 X-102.14732
G2 F800.0 X-106.79732 Y81.14212 I-3.1 J0.0
G2 Y86.51148 I1.55 J2.68468
G2 X-102.14732 Y83.8268 I1.55 J-2.68468
G1 F300.0 X-100.54732
G2 F800.0 X-107.59732 Y79.75648 I-4.7 J0.0
G2 Y87.89712 I2.35 J4.07032
G2 X-100.54732 Y83.8268 I2.35 J-4.07032
G1 F300.0 X-98.94732
G2 F800.0 X-108.39732 Y78.37084 I-6.3 J0.0
G2 Y89.28276 I3.15 J5.45596
G2 X-98.94732 Y83.8268 I3.15 J-5.45596
G1 F300.0 X-97.34732
G2 F800.0 X-109.19732 Y76.9852 I-7.9 J0.0
G2 Y90.6684 I3.95 J6.8416
G2 X-97.34732 Y83.8268 I3.95 J-6.8416
G1 F300.0 X-95.74732
G2 F800.0 X-109.99732 Y75.59956 I-9.5 J0.0
G2 Y92.05404 I4.75 J8.22724
G2 X-95.74732 Y83.8268 I4.75 J-8.22724
G1 F300.0 X-94.14732
G2 F800.0 X-110.79732 Y74.21392 I-11.1 J0.0
G2 Y93.43968 I5.55 J9.61288
G2 X-94.14732 Y83.8268 I5.55 J-9.61288
G1 F300.0 X-92.54732
G2 F800.0 X-111.59732 Y72.82828 I-12.7 J0.0
G2 Y94.82532 I6.35 J10.99852
G2 X-92.54732 Y83.8268 I6.35 J-10.99852
G1 F300.0 X-90.94732
G2 F800.0 X-112.39732 Y71.44264 I-14.3 J0.0
G2 Y96.21096 I7.15 J12.38416
G2 X-90.94732 Y83.8268 I7.15 J-12.38416
G1 F300.0 X-89.34732
G2 F800.0 X-113.19732 Y70.057 I-15.9 J0.0
G2 Y97.5966 I7.95 J13.7698
G2 X-89.34732 Y83.8268 I7.95 J-13.7698
G1 F300.0 X-87.74732
G2 F800.0 X-113.99732 Y68.67136 I-17.5 J0.0
G2 Y98.98224 I8.75 J15.15544
G2 X-87.74732 Y83.8268 I8.75 J-15.15544
G0 Z3.0
G0 X-35.96999 Y90.92079
G0 Z1.0
G1 F300.0 Z-2.0
G2 F800.0 X-35.62646 Y91.62203 I0.69352 J0.09502
G2 X-34.57646 Y91.01581 I0.35 J-0.60622
G2 X-35.62646 Y90.40959 I-0.7 J0.0
G2 X-35.96999 Y90.92079 I0.35 J0.60622
G1 F300.0 X-36.76258 Y90.8122
G2 F800.0 X-36.02646 Y92.31485 I1.48612 J0.20361
G2 X-33.77646 Y91.01581 I0.75 J-1.29904
G2 X-36.02646 Y89.71677 I-1.5 J0.0
G2 X-36.76258 Y90.8122 I0.75 J1.29904
G1 F300.0 X-38.34777 Y90.59501
G2 F800.0 X-36.82646 Y93.70049 I3.07131 J0.4208
G2 X-32.17646 Y91.01581 I1.55 J-2.68468
G2 X-36.82646 Y88.33113 I-3.1 J0.0
G2 X-38.34777 Y90.59501 I1.55 J2.68468
G1 F300.0 X-39.93296 Y90.37782
G2 F800.0 X-37.62646 Y95.08613 I4.6565 J0.63798
G2 X-30.57646 Y91.01581 I2.35 J-4.07032
G2 X-37.62646 Y86.94549 I-4.7 J0.0
G2 X-39.93296 Y90.37782 I2.35 J4.07032
G1 F300.0 X-41.51815 Y90.16064
G2 F800.0 X-38.42646 Y96.47177 I6.24169 J0.85517
G2 X-28.97646 Y91.01581 I3.15 J-5.45596
G2 X-38.42646 Y85.55985 I-6.3 J0.0
G2 X-41.51815 Y90.16064 I3.15 J5.45596
G1 F300.0 X-43.10334 Y89.94345
G2 F800.0 X-39.22646 Y97.85741 I7.82688 J1.07236
G2 X-27.37646 Y91.01581 I3.95 J-6.8416
G2 X-39.22646 Y84.17421 I-7.9 J0.0
G2 X-43.10334 Y89.94345 I3.95 J6.8416
G1 F300.0 X-44.68854 Y89.72626
G2 F800.0 X-40.02646 Y99.24305 I9.41207 J1.28954
G2 X-25.77646 Y91.01581 I4.75 J-8.22724
G2 X-40.02646 Y82.78857 I-9.5 J0.0
G2 X-44.68854 Y89.72626 I4.75 J8.22724
G1 F300.0 X-46.27373 Y89.50908
G2 F800.0 X-40.82646 Y100.62869 I10.99726 J1.50673
G2 X-24.17646 Y91.01581 I5.55 J-9.61288
G2 X-40.82646 Y81.40293 I-11.1 J0.0
G2 X-46.27373 Y89.50908 I5.55 J9.61288
G1 F300.0 X-47.85892 Y89.29189
G2 F800.0 X-41.62646 Y102.01433 I12.58245 J1.72392
G2 X-22.57646 Y91.01581 I6.35 J-10.99852
G2 X-41.62646 Y80.01728 I-12.7 J0.0
G2 X-47.85892 Y89.29189 I6.35 J10.99852
G1 F300.0 X-49.44411 Y89.07471
G2 F800.0 X-42.42646 Y103.39997 I14.16764 J1.9411
G2 X-20.97646 Y91.01581 I7.15 J-12.38416
G2 X-42.42646 Y78.63164 I-14.3 J0.0
G2 X-49.44411 Y89.07471 I7.15 J12.38416
G1 F300.0 X-51.0293 Y88.85752
G2 F800.0 X-43.22646 Y104.78561 I15.75283 J2.15829
G2 X-19.37646 Y91.01581 I7.95 J-13.7698
G2 X-43.22646 Y77.246 I-15.9 J0.0
G2 X-51.0293 Y88.85752 I7.95 J13.7698
G1 F300.0 X-52.61449 Y88.64033
G2 F800.0 X-44.02646 Y106.17125 I17.33803 J2.37547
G2 X-17.77646 Y91.01581 I8.75 J-15.15544
G2 X-44.02646 Y75.86036 I-17.5 J0.0
G2 X-52.61449 Y88.64033 I8.75 J15.15544
G0 Z3.0
G0 X-35.96999 Y90.92079
G0 Z-1.0
G1 F300.0 Z-4.0
G2 F800.0 X-35.62646 Y91.62203 I0.69352 J0.09502
G2 X-34.57646 Y91.01581 I0.35 J-0.60622
G2 X-35.62646 Y90.40959 I-0.7 J0.0
G2 X-35.96999 Y90.92079 I0.35 J0.60622
G1 F300.0 X-36.76258 Y90.8122
G2 F800.0 X-36.02646 Y92.31485 I1.48612 J0.20361
G2 X-33.77646 Y91.01581 I0.75 J-1.29904
G2 X-36.02646 Y89.71677 I-1.5 J0.0
G2 X-36.76258 Y90.8122 I0.75 J1.29904
G1 F300.0 X-38.34777 Y90.59501
G2 F800.0 X-36.82646 Y93.70049 I3.07131 J0.4208
G2 X-32.17646 Y91.01581 I1.55 J-2.68468
G2 X-36.82646 Y88.33113 I-3.1 J0.0
G2 X-38.34777 Y90.59501 I1.55 J2.68468
G1 F300.0 X-39.93296 Y90.37782
G2 F800.0 X-37.62646 Y95.08613 I4.6565 J0.63798
G2 X-30.57646 Y91.01581 I2.35 J-4.07032
G2 X-37.62646 Y86.94549 I-4.7 J0.0
G2 X-39.93296 Y90.37782 I2.35 J4.07032
G1 F300.0 X-41.51815 Y90.16064
G2 F800.0 X-38.42646 Y96.47177 I6.24169 J0.85517
G2 X-28.97646 Y91.01581 I3.15 J-5.45596
G2 X-38.42646 Y85.55985 I-6.3 J0.0
G2 X-41.51815 Y90.16064 I3.15 J5.45596
G1 F300.0 X-43.10334 Y89.94345
G2 F800.0 X-39.22646 Y97.85741 I7.82688 J1.07236
G2 X-27.37646 Y91.01581 I3.95 J-6.8416
G2 X-39.22646 Y84.17421 I-7.9 J0.0
G2 X-43.10334 Y89.94345 I3.95 J6.8416
G1 F300.0 X-44.68854 Y89.72626
G2 F800.0 X-40.02646 Y99.24305 I9.41207 J1.28954
G2 X-25.77646 Y91.01581 I4.75 J-8.22724
G2 X-40.02646 Y82.78857 I-9.5 J0.0
G2 X-44.68854 Y89.72626 I4.75 J8.22724
G1 F300.0 X-46.27373 Y89.50908
G2 F800.0 X-40.82646 Y100.62869 I10.99726 J1.50673
G2 X-24.17646 Y91.01581 I5.55 J-9.61288
G2 X-40.82646 Y81.40293 I-11.1 J0.0
G2 X-46.27373 Y89.50908 I5.55 J9.61288
G1 F300.0 X-47.85892 Y89.29189
G2 F800.0 X-41.62646 Y102.01433 I12.58245 J1.72392
G2 X-22.57646 Y91.01581 I6.35 J-10.99852
G2 X-41.62646 Y80.01728 I-12.7 J0.0
G2 X-47.85892 Y89.29189 I6.35 J10.99852
G1 F300.0 X-49.44411 Y89.07471
G2 F800.0 X-42.42646 Y103.39997 I14.16764 J1.9411
G2 X-20.97646 Y91.01581 I7.15 J-12.38416
G2 X-42.42646 Y78.63164 I-14.3 J0.0
G2 X-49.44411 Y89.07471 I7.15 J12.38416
G1 F300.0 X-51.0293 Y88.85752
G2 F800.0 X-43.22646 Y104.78561 I15.75283 J2.15829
G2 X-19.37646 Y91.01581 I7.95 J-13.7698
G2 X-43.22646 Y77.246 I-15.9 J0.0
G2 X-51.0293 Y88.85752 I7.95 J13.7698
G1 F300.0 X-52.61449 Y88.64033
G2 F800.0 X-44.02646 Y106.17125 I17.33803 J2.37547
G2 X-17.77646 Y91.01581 I8.75 J-15.15544
G2 X-44.02646 Y75.86036 I-17.5 J0.0
G2 X-52.61449 Y88.64033 I8.75 J15.15544
G0 Z3.0
G0 X-35.96999 Y90.92079
G0 Z-3.0
G1 F300.0 Z-6.0
G2 F800.0 X-35.62646 Y91.62203 I0.69352 J0.09502
G2 X-34.57646 Y91.01581 I0.35 J-0.60622
G2 X-35.62646 Y90.40959 I-0.7 J0.0
G2 X-35.96999 Y90.92079 I0.35 J0.60622
G1 F300.0 X-36.76258 Y90.8122
G2 F800.0 X-36.02646 Y92.31485 I1.48612 J0.20361
G2 X-33.77646 Y91.01581 I0.75 J-1.29904
G2 X-36.02646 Y89.71677 I-1.5 J0.0
G2 X-36.76258 Y90.8122 I0.75 J1.29904
G1 F300.0 X-38.34777 Y90.59501
G2 F800.0 X-36.82646 Y93.70049 I3.07131 J0.4208
G2 X-32.17646 Y91.01581 I1.55 J-2.68468
G2 X-36.82646 Y88.33113 I-3.1 J0.0
G2 X-38.34777 Y90.59501 I1.55 J2.68468
G1 F300.0 X-39.93296 Y90.37782
G2 F800.0 X-37.62646 Y95.08613 I4.6565 J0.63798
G2 X-30.57646 Y91.01581 I2.35 J-4.07032
G2 X-37.62646 Y86.94549 I-4.7 J0.0
G2 X-39.93296 Y90.37782 I2.35 J4.07032
G1 F300.0 X-41.51815 Y90.16064
G2 F800.0 X-38.42646 Y96.47177 I6.24169 J0.85517
G2 X-28.97646 Y91.01581 I3.15 J-5.45596
G2 X-38.42646 Y85.55985 I-6.3 J0.0
G2 X-41.51815 Y90.16064 I3.15 J5.45596
G1 F300.0 X-43.10334 Y89.94345
G2 F800.0 X-39.22646 Y97.85741 I7.82688 J1.07236
G2 X-27.37646 Y91.01581 I3.95 J-6.8416
G2 X-39.22646 Y84.17421 I-7.9 J0.0
G2 X-43.10334 Y89.94345 I3.95 J6.8416
G1 F300.0 X-44.68854 Y89.72626
G2 F800.0 X-40.02646 Y99.24305 I9.41207 J1.28954
G2 X-25.77646 Y91.01581 I4.75 J-8.22724
G2 X-40.02646 Y82.78857 I-9.5 J0.0
G2 X-44.68854 Y89.72626 I4.75 J8.22724
G1 F300.0 X-46.27373 Y89.50908
G2 F800.0 X-40.82646 Y100.62869 I10.99726 J1.50673
G2 X-24.17646 Y91.01581 I5.55 J-9.61288
G2 X-40.82646 Y81.40293 I-11.1 J0.0
G2 X-46.27373 Y89.50908 I5.55 J9.61288
G1 F300.0 X-47.85892 Y89.29189
G2 F800.0 X-41.62646 Y102.01433 I12.58245 J1.72392
G2 X-22.57646 Y91.01581 I6.35 J-10.99852
G2 X-41.62646 Y80.01728 I-12.7 J0.0
G2 X-47.85892 Y89.29189 I6.35 J10.99852
G1 F300.0 X-49.44411 Y89.07471
G2 F800.0 X-42.42646 Y103.39997 I14.16764 J1.9411
G2 X-20.97646 Y91.01581 I7.15 J-12.38416
G2 X-42.42646 Y78.63164 I-14.3 J0.0
G2 X-49.44411 Y89.07471 I7.15 J12.38416
G1 F300.0 X-51.0293 Y88.85752
G2 F800.0 X-43.22646 Y104.78561 I15.75283 J2.15829
G2 X-19.37646 Y91.01581 I7.95 J-13.7698
G2 X-43.22646 Y77.246 I-15.9 J0.0
G2 X-51.0293 Y88.85752 I7.95 J13.7698
G1 F300.0 X-52.61449 Y88.64033
G2 F800.0 X-44.02646 Y106.17125 I17.33803 J2.37547
G2 X-17.77646 Y91.01581 I8.75 J-15.15544
G2 X-44.02646 Y75.86036 I-17.5 J0.0
G2 X-52.61449 Y88.64033 I8.75 J15.15544
G0 Z3.0
G0 X-35.96999 Y90.92079
G0 Z-5.0
G1 F300.0 Z-8.0
G2 F800.0 X-35.62646 Y91.62203 I0.69352 J0.09502
G2 X-34.57646 Y91.01581 I0.35 J-0.60622
G2 X-35.62646 Y90.40959 I-0.7 J0.0
G2 X-35.96999 Y90.92079 I0.35 J0.60622
G1 F300.0 X-36.76258 Y90.8122
G2 F800.0 X-36.02646 Y92.31485 I1.48612 J0.20361
G2 X-33.77646 Y91.01581 I0.75 J-1.29904
G2 X-36.02646 Y89.71677 I-1.5 J0.0
G2 X-36.76258 Y90.8122 I0.75 J1.29904
G1 F300.0 X-38.34777 Y90.59501
G2 F800.0 X-36.82646 Y93.70049 I3.07131 J0.4208
G2 X-32.17646 Y91.01581 I1.55 J-2.68468
G2 X-36.82646 Y88.33113 I-3.1 J0.0
G2 X-38.34777 Y90.59501 I1.55 J2.68468
G1 F300.0 X-39.93296 Y90.37782
G2 F800.0 X-37.62646 Y95.08613 I4.6565 J0.63798
G2 X-30.57646 Y91.01581 I2.35 J-4.07032
G2 X-37.62646 Y86.94549 I-4.7 J0.0
G2 X-39.93296 Y90.37782 I2.35 J4.07032
G1 F300.0 X-41.51815 Y90.16064
G2 F800.0 X-38.42646 Y96.47177 I6.24169 J0.85517
G2 X-28.97646 Y91.01581 I3.15 J-5.45596
G2 X-38.42646 Y85.55985 I-6.3 J0.0
G2 X-41.51815 Y90.16064 I3.15 J5.45596
G1 F300.0 X-43.10334 Y89.94345
G2 F800.0 X-39.22646 Y97.85741 I7.82688 J1.07236
G2 X-27.37646 Y91.01581 I3.95 J-6.8416
G2 X-39.22646 Y84.17421 I-7.9 J0.0
G2 X-43.10334 Y89.94345 I3.95 J6.8416
G1 F300.0 X-44.68854 Y89.72626
G2 F800.0 X-40.02646 Y99.24305 I9.41207 J1.28954
G2 X-25.77646 Y91.01581 I4.75 J-8.22724
G2 X-40.02646 Y82.78857 I-9.5 J0.0
G2 X-44.68854 Y89.72626 I4.75 J8.22724
G1 F300.0 X-46.27373 Y89.50908
G2 F800.0 X-40.82646 Y100.62869 I10.99726 J1.50673
G2 X-24.17646 Y91.01581 I5.55 J-9.61288
G2 X-40.82646 Y81.40293 I-11.1 J0.0
G2 X-46.27373 Y89.50908 I5.55 J9.61288
G1 F300.0 X-47.85892 Y89.29189
G2 F800.0 X-41.62646 Y102.01433 I12.58245 J1.72392
G2 X-22.57646 Y91.01581 I6.35 J-10.99852
G2 X-41.62646 Y80.01728 I-12.7 J0.0
G2 X-47.85892 Y89.29189 I6.35 J10.99852
G1 F300.0 X-49.44411 Y89.07471
G2 F800.0 X-42.42646 Y103.39997 I14.16764 J1.9411
G2 X-20.97646 Y91.01581 I7.15 J-12.38416
G2 X-42.42646 Y78.63164 I-14.3 J0.0
G2 X-49.44411 Y89.07471 I7.15 J12.38416
G1 F300.0 X-51.0293 Y88.85752
G2 F800.0 X-43.22646 Y104.78561 I15.75283 J2.15829
G2 X-19.37646 Y91.01581 I7.95 J-13.7698
G2 X-43.22646 Y77.246 I-15.9 J0.0
G2 X-51.0293 Y88.85752 I7.95 J13.7698
G1 F300.0 X-52.61449 Y88.64033
G2 F800.0 X-44.02646 Y106.17125 I17.33803 J2.37547
G2 X-17.77646 Y91.01581 I8.75 J-15.15544
G2 X-44.02646 Y75.86036 I-17.5 J0.0
G2 X-52.61449 Y88.64033 I8.75 J15.15544
G0 Z3.0
G0 X-35.96999 Y90.92079
G0 Z-7.0
G1 F300.0 Z-10.0
G2 F800.0 X-35.62646 Y91.62203 I0.69352 J0.09502
G2 X-34.57646 Y91.01581 I0.35 J-0.60622
G2 X-35.62646 Y90.40959 I-0.7 J0.0
G2 X-35.96999 Y90.92079 I0.35 J0.60622
G1 F300.0 X-36.76258 Y90.8122
G2 F800.0 X-36.02646 Y92.31485 I1.48612 J0.20361
G2 X-33.77646 Y91.01581 I0.75 J-1.29904
G2 X-36.02646 Y89.71677 I-1.5 J0.0
G2 X-36.76258 Y90.8122 I0.75 J1.29904
G1 F300.0 X-38.34777 Y90.59501
G2 F800.0 X-36.82646 Y93.70049 I3.07131 J0.4208
G2 X-32.17646 Y91.01581 I1.55 J-2.68468
G2 X-36.82646 Y88.33113 I-3.1 J0.0
G2 X-38.34777 Y90.59501 I1.55 J2.68468
G1 F300.0 X-39.93296 Y90.37782
G2 F800.0 X-37.62646 Y95.08613 I4.6565 J0.63798
G2 X-30.57646 Y91.01581 I2.35 J-4.07032
G2 X-37.62646 Y86.94549 I-4.7 J0.0
G2 X-39.93296 Y90.37782 I2.35 J4.07032
G1 F300.0 X-41.51815 Y90.16064
G2 F800.0 X-38.42646 Y96.47177 I6.24169 J0.85517
G2 X-28.97646 Y91.01581 I3.15 J-5.45596
G2 X-38.42646 Y85.55985 I-6.3 J0.0
G2 X-41.51815 Y90.16064 I3.15 J5.45596
G1 F300.0 X-43.10334 Y89.94345
G2 F800.0 X-39.22646 Y97.85741 I7.82688 J1.07236
G2 X-27.37646 Y91.01581 I3.95 J-6.8416
G2 X-39.22646 Y84.17421 I-7.9 J0.0
G2 X-43.10334 Y89.94345 I3.95 J6.8416
G1 F300.0 X-44.68854 Y89.72626
G2 F800.0 X-40.02646 Y99.24305 I9.41207 J1.28954
G2 X-25.77646 Y91.01581 I4.75 J-8.22724
G2 X-40.02646 Y82.78857 I-9.5 J0.0
G2 X-44.68854 Y89.72626 I4.75 J8.22724
G1 F300.0 X-46.27373 Y89.50908
G2 F800.0 X-40.82646 Y100.62869 I10.99726 J1.50673
G2 X-24.17646 Y91.01581 I5.55 J-9.61288
G2 X-40.82646 Y81.40293 I-11.1 J0.0
G2 X-46.27373 Y89.50908 I5.55 J9.61288
G1 F300.0 X-47.85892 Y89.29189
G2 F800.0 X-41.62646 Y102.01433 I12.58245 J1.72392
G2 X-22.57646 Y91.01581 I6.35 J-10.99852
G2 X-41.62646 Y80.01728 I-12.7 J0.0
G2 X-47.85892 Y89.29189 I6.35 J10.99852
G1 F300.0 X-49.44411 Y89.07471
G2 F800.0 X-42.42646 Y103.39997 I14.16764 J1.9411
G2 X-20.97646 Y91.01581 I7.15 J-12.38416
G2 X-42.42646 Y78.63164 I-14.3 J0.0
G2 X-49.44411 Y89.07471 I7.15 J12.38416
G1 F300.0 X-51.0293 Y88.85752
G2 F800.0 X-43.22646 Y104.78561 I15.75283 J2.15829
G2 X-19.37646 Y91.01581 I7.95 J-13.7698
G2 X-43.22646 Y77.246 I-15.9 J0.0
G2 X-51.0293 Y88.85752 I7.95 J13.7698
G1 F300.0 X-52.61449 Y88.64033
G2 F800.0 X-44.02646 Y106.17125 I17.33803 J2.37547
G2 X-17.77646 Y91.01581 I8.75 J-15.15544
G2 X-44.02646 Y75.86036 I-17.5 J0.0
G2 X-52.61449 Y88.64033 I8.75 J15.15544
G0 Z3.0
G0 X-35.96999 Y90.92079
G0 Z-9.0
G1 F300.0 Z-12.0
G2 F800.0 X-35.62646 Y91.62203 I0.69352 J0.09502
G2 X-34.57646 Y91.01581 I0.35 J-0.60622
G2 X-35.62646 Y90.40959 I-0.7 J0.0
G2 X-35.96999 Y90.92079 I0.35 J0.60622
G1 F300.0 X-36.76258 Y90.8122
G2 F800.0 X-36.02646 Y92.31485 I1.48612 J0.20361
G2 X-33.77646 Y91.01581 I0.75 J-1.29904
G2 X-36.02646 Y89.71677 I-1.5 J0.0
G2 X-36.76258 Y90.8122 I0.75 J1.29904
G1 F300.0 X-38.34777 Y90.59501
G2 F800.0 X-36.82646 Y93.70049 I3.07131 J0.4208
G2 X-32.17646 Y91.01581 I1.55 J-2.68468
G2 X-36.82646 Y88.33113 I-3.1 J0.0
G2 X-38.34777 Y90.59501 I1.55 J2.68468
G1 F300.0 X-39.93296 Y90.37782
G2 F800.0 X-37.62646 Y95.08613 I4.6565 J0.63798
G2 X-30.57646 Y91.01581 I2.35 J-4.07032
G2 X-37.62646 Y86.94549 I-4.7 J0.0
G2 X-39.93296 Y90.37782 I2.35 J4.07032
G1 F300.0 X-41.51815 Y90.16064
G2 F800.0 X-38.42646 Y96.47177 I6.24169 J0.85517
G2 X-28.97646 Y91.01581 I3.15 J-5.45596
G2 X-38.42646 Y85.55985 I-6.3 J0.0
G2 X-41.51815 Y90.16064 I3.15 J5.45596
G1 F300.0 X-43.10334 Y89.94345
G2 F800.0 X-39.22646 Y97.85741 I7.82688 J1.07236
G2 X-27.37646 Y91.01581 I3.95 J-6.8416
G2 X-39.22646 Y84.17421 I-7.9 J0.0
G2 X-43.10334 Y89.94345 I3.95 J6.8416
G1 F300.0 X-44.68854 Y89.72626
G2 F800.0 X-40.02646 Y99.24305 I9.41207 J1.28954
G2 X-25.77646 Y91.01581 I4.75 J-8.22724
G2 X-40.02646 Y82.78857 I-9.5 J0.0
G2 X-44.68854 Y89.72626 I4.75 J8.22724
G1 F300.0 X-46.27373 Y89.50908
G2 F800.0 X-40.82646 Y100.62869 I10.99726 J1.50673
G2 X-24.17646 Y91.01581 I5.55 J-9.61288
G2 X-40.82646 Y81.40293 I-11.1 J0.0
G2 X-46.27373 Y89.50908 I5.55 J9.61288
G1 F300.0 X-47.85892 Y89.29189
G2 F800.0 X-41.62646 Y102.01433 I12.58245 J1.72392
G2 X-22.57646 Y91.01581 I6.35 J-10.99852
G2 X-41.62646 Y80.01728 I-12.7 J0.0
G2 X-47.85892 Y89.29189 I6.35 J10.99852
G1 F300.0 X-49.44411 Y89.07471
G2 F800.0 X-42.42646 Y103.39997 I14.16764 J1.9411
G2 X-20.97646 Y91.01581 I7.15 J-12.38416
G2 X-42.42646 Y78.63164 I-14.3 J0.0
G2 X-49.44411 Y89.07471 I7.15 J12.38416
G1 F300.0 X-51.0293 Y88.85752
G2 F800.0 X-43.22646 Y104.78561 I15.75283 J2.15829
G2 X-19.37646 Y91.01581 I7.95 J-13.7698
G2 X-43.22646 Y77.246 I-15.9 J0.0
G2 X-51.0293 Y88.85752 I7.95 J13.7698
G1 F300.0 X-52.61449 Y88.64033
G2 F800.0 X-44.02646 Y106.17125 I17.33803 J2.37547
G2 X-17.77646 Y91.01581 I8.75 J-15.15544
G2 X-44.02646 Y75.86036 I-17.5 J0.0
G2 X-52.61449 Y88.64033 I8.75 J15.15544
G0 Z3.0
G0 X-35.96999 Y90.92079
G0 Z-11.0
G1 F300.0 Z-14.0
G2 F800.0 X-35.62646 Y91.62203 I0.69352 J0.09502
G2 X-34.57646 Y91.01581 I0.35 J-0.60622
G2 X-35.62646 Y90.40959 I-0.7 J0.0
G2 X-35.96999 Y90.92079 I0.35 J0.60622
G1 F300.0 X-36.76258 Y90.8122
G2 F800.0 X-36.02646 Y92.31485 I1.48612 J0.20361
G2 X-33.77646 Y91.01581 I0.75 J-1.29904
G2 X-36.02646 Y89.71677 I-1.5 J0.0
G2 X-36.76258 Y90.8122 I0.75 J1.29904
G1 F300.0 X-38.34777 Y90.59501
G2 F800.0 X-36.82646 Y93.70049 I3.07131 J0.4208
G2 X-32.17646 Y91.01581 I1.55 J-2.68468
G2 X-36.82646 Y88.33113 I-3.1 J0.0
G2 X-38.34777 Y90.59501 I1.55 J2.68468
G1 F300.0 X-39.93296 Y90.37782
G2 F800.0 X-37.62646 Y95.08613 I4.6565 J0.63798
G2 X-30.57646 Y91.01581 I2.35 J-4.07032
G2 X-37.62646 Y86.94549 I-4.7 J0.0
G2 X-39.93296 Y90.37782 I2.35 J4.07032
G1 F300.0 X-41.51815 Y90.16064
G2 F800.0 X-38.42646 Y96.47177 I6.24169 J0.85517
G2 X-28.97646 Y91.01581 I3.15 J-5.45596
G2 X-38.42646 Y85.55985 I-6.3 J0.0
G2 X-41.51815 Y90.16064 I3.15 J5.45596
G1 F300.0 X-43.10334 Y89.94345
G2 F800.0 X-39.22646 Y97.85741 I7.82688 J1.07236
G2 X-27.37646 Y91.01581 I3.95 J-6.8416
G2 X-39.22646 Y84.17421 I-7.9 J0.0
G2 X-43.10334 Y89.94345 I3.95 J6.8416
G1 F300.0 X-44.68854 Y89.72626
G2 F800.0 X-40.02646 Y99.24305 I9.41207 J1.28954
G2 X-25.77646 Y91.01581 I4.75 J-8.22724
G2 X-40.02646 Y82.78857 I-9.5 J0.0
G2 X-44.68854 Y89.72626 I4.75 J8.22724
G1 F300.0 X-46.27373 Y89.50908
G2 F800.0 X-40.82646 Y100.62869 I10.99726 J1.50673
G2 X-24.17646 Y91.01581 I5.55 J-9.61288
G2 X-40.82646 Y81.40293 I-11.1 J0.0
G2 X-46.27373 Y89.50908 I5.55 J9.61288
G1 F300.0 X-47.85892 Y89.29189
G2 F800.0 X-41.62646 Y102.01433 I12.58245 J1.72392
G2 X-22.57646 Y91.01581 I6.35 J-10.99852
G2 X-41.62646 Y80.01728 I-12.7 J0.0
G2 X-47.85892 Y89.29189 I6.35 J10.99852
G1 F300.0 X-49.44411 Y89.07471
G2 F800.0 X-42.42646 Y103.39997 I14.16764 J1.9411
G2 X-20.97646 Y91.01581 I7.15 J-12.38416
G2 X-42.42646 Y78.63164 I-14.3 J0.0
G2 X-49.44411 Y89.07471 I7.15 J12.38416
G1 F300.0 X-51.0293 Y88.85752
G2 F800.0 X-43.22646 Y104.78561 I15.75283 J2.15829
G2 X-19.37646 Y91.01581 I7.95 J-13.7698
G2 X-43.22646 Y77.246 I-15.9 J0.0
G2 X-51.0293 Y88.85752 I7.95 J13.7698
G1 F300.0 X-52.61449 Y88.64033
G2 F800.0 X-44.02646 Y106.17125 I17.33803 J2.37547
G2 X-17.77646 Y91.01581 I8.75 J-15.15544
G2 X-44.02646 Y75.86036 I-17.5 J0.0
G2 X-52.61449 Y88.64033 I8.75 J15.15544
G0 Z3.0
G0 X-35.96999 Y90.92079
G0 Z-13.0
G1 F300.0 Z-16.0
G2 F800.0 X-35.62646 Y91.62203 I0.69352 J0.09502
G2 X-34.57646 Y91.01581 I0.35 J-0.60622
G2 X-35.62646 Y90.40959 I-0.7 J0.0
G2 X-35.96999 Y90.92079 I0.35 J0.60622
G1 F300.0 X-36.76258 Y90.8122
G2 F800.0 X-36.02646 Y92.31485 I1.48612 J0.20361
G2 X-33.77646 Y91.01581 I0.75 J-1.29904
G2 X-36.02646 Y89.71677 I-1.5 J0.0
G2 X-36.76258 Y90.8122 I0.75 J1.29904
G1 F300.0 X-38.34777 Y90.59501
G2 F800.0 X-36.82646 Y93.70049 I3.07131 J0.4208
G2 X-32.17646 Y91.01581 I1.55 J-2.68468
G2 X-36.82646 Y88.33113 I-3.1 J0.0
G2 X-38.34777 Y90.59501 I1.55 J2.68468
G1 F300.0 X-39.93296 Y90.37782
G2 F800.0 X-37.62646 Y95.08613 I4.6565 J0.63798
G2 X-30.57646 Y91.01581 I2.35 J-4.07032
G2 X-37.62646 Y86.94549 I-4.7 J0.0
G2 X-39.93296 Y90.37782 I2.35 J4.07032
G1 F300.0 X-41.51815 Y90.16064
G2 F800.0 X-38.42646 Y96.47177 I6.24169 J0.85517
G2 X-28.97646 Y91.01581 I3.15 J-5.45596
G2 X-38.42646 Y85.55985 I-6.3 J0.0
G2 X-41.51815 Y90.16064 I3.15 J5.45596
G1 F300.0 X-43.10334 Y89.94345
G2 F800.0 X-39.22646 Y97.85741 I7.82688 J1.07236
G2 X-27.37646 Y91.01581 I3.95 J-6.8416
G2 X-39.22646 Y84.17421 I-7.9 J0.0
G2 X-43.10334 Y89.94345 I3.95 J6.8416
G1 F300.0 X-44.68854 Y89.72626
G2 F800.0 X-40.02646 Y99.24305 I9.41207 J1.28954
G2 X-25.77646 Y91.01581 I4.75 J-8.22724
G2 X-40.02646 Y82.78857 I-9.5 J0.0
G2 X-44.68854 Y89.72626 I4.75 J8.22724
G1 F300.0 X-46.27373 Y89.50908
G2 F800.0 X-40.82646 Y100.62869 I10.99726 J1.50673
G2 X-24.17646 Y91.01581 I5.55 J-9.61288
G2 X-40.82646 Y81.40293 I-11.1 J0.0
G2 X-46.27373 Y89.50908 I5.55 J9.61288
G1 F300.0 X-47.85892 Y89.29189
G2 F800.0 X-41.62646 Y102.01433 I12.58245 J1.72392
G2 X-22.57646 Y91.01581 I6.35 J-10.99852
G2 X-41.62646 Y80.01728 I-12.7 J0.0
G2 X-47.85892 Y89.29189 I6.35 J10.99852
G1 F300.0 X-49.44411 Y89.07471
G2 F800.0 X-42.42646 Y103.39997 I14.16764 J1.9411
G2 X-20.97646 Y91.01581 I7.15 J-12.38416
G2 X-42.42646 Y78.63164 I-14.3 J0.0
G2 X-49.44411 Y89.07471 I7.15 J12.38416
G1 F300.0 X-51.0293 Y88.85752
G2 F800.0 X-43.22646 Y104.78561 I15.75283 J2.15829
G2 X-19.37646 Y91.01581 I7.95 J-13.7698
G2 X-43.22646 Y77.246 I-15.9 J0.0
G2 X-51.0293 Y88.85752 I7.95 J13.7698
G1 F300.0 X-52.61449 Y88.64033
G2 F800.0 X-44.02646 Y106.17125 I17.33803 J2.37547
G2 X-17.77646 Y91.01581 I8.75 J-15.15544
G2 X-44.02646 Y75.86036 I-17.5 J0.0
G2 X-52.61449 Y88.64033 I8.75 J15.15544
G0 Z3.0
G0 X-35.96999 Y90.92079
G0 Z-15.0
G1 F300.0 Z-18.0
G2 F800.0 X-35.62646 Y91.62203 I0.69352 J0.09502
G2 X-34.57646 Y91.01581 I0.35 J-0.60622
G2 X-35.62646 Y90.40959 I-0.7 J0.0
G2 X-35.96999 Y90.92079 I0.35 J0.60622
G1 F300.0 X-36.76258 Y90.8122
G2 F800.0 X-36.02646 Y92.31485 I1.48612 J0.20361
G2 X-33.77646 Y91.01581 I0.75 J-1.29904
G2 X-36.02646 Y89.71677 I-1.5 J0.0
G2 X-36.76258 Y90.8122 I0.75 J1.29904
G1 F300.0 X-38.34777 Y90.59501
G2 F800.0 X-36.82646 Y93.70049 I3.07131 J0.4208
G2 X-32.17646 Y91.01581 I1.55 J-2.68468
G2 X-36.82646 Y88.33113 I-3.1 J0.0
G2 X-38.34777 Y90.59501 I1.55 J2.68468
G1 F300.0 X-39.93296 Y90.37782
G2 F800.0 X-37.62646 Y95.08613 I4.6565 J0.63798
G2 X-30.57646 Y91.01581 I2.35 J-4.07032
G2 X-37.62646 Y86.94549 I-4.7 J0.0
G2 X-39.93296 Y90.37782 I2.35 J4.07032
G1 F300.0 X-41.51815 Y90.16064
G2 F800.0 X-38.42646 Y96.47177 I6.24169 J0.85517
G2 X-28.97646 Y91.01581 I3.15 J-5.45596
G2 X-38.42646 Y85.55985 I-6.3 J0.0
G2 X-41.51815 Y90.16064 I3.15 J5.45596
G1 F300.0 X-43.10334 Y89.94345
G2 F800.0 X-39.22646 Y97.85741 I7.82688 J1.07236
G2 X-27.37646 Y91.01581 I3.95 J-6.8416
G2 X-39.22646 Y84.17421 I-7.9 J0.0
G2 X-43.10334 Y89.94345 I3.95 J6.8416
G1 F300.0 X-44.68854 Y89.72626
G2 F800.0 X-40.02646 Y99.24305 I9.41207 J1.28954
G2 X-25.77646 Y91.01581 I4.75 J-8.22724
G2 X-40.02646 Y82.78857 I-9.5 J0.0
G2 X-44.68854 Y89.72626 I4.75 J8.22724
G1 F300.0 X-46.27373 Y89.50908
G2 F800.0 X-40.82646 Y100.62869 I10.99726 J1.50673
G2 X-24.17646 Y91.01581 I5.55 J-9.61288
G2 X-40.82646 Y81.40293 I-11.1 J0.0
G2 X-46.27373 Y89.50908 I5.55 J9.61288
G1 F300.0 X-47.85892 Y89.29189
G2 F800.0 X-41.62646 Y102.01433 I12.58245 J1.72392
G2 X-22.57646 Y91.01581 I6.35 J-10.99852
G2 X-41.62646 Y80.01728 I-12.7 J0.0
G2 X-47.85892 Y89.29189 I6.35 J10.99852
G1 F300.0 X-49.44411 Y89.07471
G2 F800.0 X-42.42646 Y103.39997 I14.16764 J1.9411
G2 X-20.97646 Y91.01581 I7.15 J-12.38416
G2 X-42.42646 Y78.63164 I-14.3 J0.0
G2 X-49.44411 Y89.07471 I7.15 J12.38416
G1 F300.0 X-51.0293 Y88.85752
G2 F800.0 X-43.22646 Y104.78561 I15.75283 J2.15829
G2 X-19.37646 Y91.01581 I7.95 J-13.7698
G2 X-43.22646 Y77.246 I-15.9 J0.0
G2 X-51.0293 Y88.85752 I7.95 J13.7698
G1 F300.0 X-52.61449 Y88.64033
G2 F800.0 X-44.02646 Y106.17125 I17.33803 J2.37547
G2 X-17.77646 Y91.01581 I8.75 J-15.15544
G2 X-44.02646 Y75.86036 I-17.5 J0.0
G2 X-52.61449 Y88.64033 I8.75 J15.15544
G0 Z3.0
G0 X28.23682 Y35.98074
G0 Z1.0
G1 F300.0 Z-2.0
G2 F800.0 X28.47338 Y36.20492 I0.58656 J-0.38203
G2 X29.52338 Y35.5987 I0.35 J-0.60622
G2 X28.47338 Y34.99248 I-0.7 J0.0
G2 X28.23682 Y35.98074 I0.35 J0.60622
G1 F300.0 X27.56647 Y36.41734
G2 F800.0 X28.07338 Y36.89774 I1.25691 J-0.81864
G2 X30.32338 Y35.5987 I0.75 J-1.29904
G2 X28.07338 Y34.29966 I-1.5 J0.0
G2 X27.56647 Y36.41734 I0.75 J1.29904
G1 F300.0 X26.22576 Y37.29056
G2 F800.0 X27.27338 Y38.28338 I2.59761 J-1.69186
G2 X31.92338 Y35.5987 I1.55 J-2.68468
G2 X27.27338 Y32.91402 I-3.1 J0.0
G2 X26.22576 Y37.29056 I1.55 J2.68468
G1 F300.0 X24.88506 Y38.16378
G2 F800.0 X26.47338 Y39.66902 I3.93832 J-2.56508
G2 X33.52338 Y35.5987 I2.35 J-4.07032
G2 X26.47338 Y31.52838 I-4.7 J0.0
G2 X24.88506 Y38.16378 I2.35 J4.07032
G1 F300.0 X23.54435 Y39.037
G2 F800.0 X25.67338 Y41.05466 I5.27902 J-3.4383
G2 X35.12338 Y35.5987 I3.15 J-5.45596
G2 X25.67338 Y30.14274 I-6.3 J0.0
G2 X23.54435 Y39.037 I3.15 J5.45596
G1 F300.0 X22.20365 Y39.91022
G2 F800.0 X24.87338 Y42.4403 I6.61973 J-4.31152
G2 X36.72338 Y35.5987 I3.95 J-6.8416
G2 X24.87338 Y28.7571 I-7.9 J0.0
G2 X22.20365 Y39.91022 I3.95 J6.8416
G1 F300.0 X20.86295 Y40.78344
G2 F800.0 X24.07338 Y43.82594 I7.96043 J-5.18474
G2 X38.32338 Y35.5987 I4.75 J-8.22724
G2 X24.07338 Y27.37146 I-9.5 J0.0
G2 X20.86295 Y40.78344 I4.75 J8.22724
G1 F300.0 X19.52224 Y41.65666
G2 F800.0 X23.27338 Y45.21158 I9.30114 J-6.05796
G2 X39.92338 Y35.5987 I5.55 J-9.61288
G2 X23.27338 Y25.98582 I-11.1 J0.0
G2 X19.52224 Y41.65666 I5.55 J9.61288
G1 F300.0 X18.18154 Y42.52988
G2 F800.0 X22.47338 Y46.59722 I10.64184 J-6.93118
G2 X41.52338 Y35.5987 I6.35 J-10.99852
G2 X22.47338 Y24.60018 I-12.7 J0.0
G2 X18.18154 Y42.52988 I6.35 J10.99852
G1 F300.0 X16.84083 Y43.4031
G2 F800.0 X21.67338 Y47.98286 I11.98254 J-7.8044
G2 X43.12338 Y35.5987 I7.15 J-12.38416
G2 X21.67338 Y23.21454 I-14.3 J0.0
G2 X16.84083 Y43.4031 I7.15 J12.38416
G1 F300.0 X15.50013 Y44.27632
G2 F800.0 X20.87338 Y49.36851 I13.32325 J-8.67762
G2 X44.72338 Y35.5987 I7.95 J-13.7698
G2 X20.87338 Y21.8289 I-15.9 J0.0
G2 X15.50013 Y44.27632 I7.95 J13.7698
G1 F300.0 X14.15943 Y45.14954
G2 F800.0 X20.07338 Y50.75415 I14.66395 J-9.55084
G2 X46.32338 Y35.5987 I8.75 J-15.15544
G2 X20.07338 Y20.44326 I-17.5 J0.0
G2 X14.15943 Y45.14954 I8.75 J15.15544
G0 Z3.0
G0 X28.23682 Y35.98074
G0 Z-1.0
G1 F300.0 Z-4.0
G2 F800.0 X28.47338 Y36.20492 I0.58656 J-0.38203
G2 X29.52338 Y35.5987 I0.35 J-0.60622
G2 X28.47338 Y34.99248 I-0.7 J0.0
G2 X28.23682 Y35.98074 I0.35 J0.60622
G1 F300.0 X27.56647 Y36.41734
G2 F800.0 X28.07338 Y36.89774 I1.25691 J-0.81864
G2 X30.32338 Y35.5987 I0.75 J-1.29904
G2 X28.07338 Y34.29966 I-1.5 J0.0
G2 X27.56647 Y36.41734 I0.75 J1.29904
G1 F300.0 X26.22576 Y37.29056
G2 F800.0 X27.27338 Y38.28338 I2.59761 J-1.69186
G2 X31.92338 Y35.5987 I1.55 J-2.68468
G2 X27.27338 Y32.91402 I-3.1 J0.0
G2 X26.22576 Y37.29056 I1.55 J2.68468
G1 F300.0 X24.88506 Y38.16378
G2 F800.0 X26.47338 Y39.66902 I3.93832 J-2.56508
G2 X33.52338 Y35.5987 I2.35 J-4.07032
G2 X26.47338 Y31.52838 I-4.7 J0.0
G2 X24.88506 Y38.16378 I2.35 J4.07032
G1 F300.0 X23.54435 Y39.037
G2 F800.0 X25.67338 Y41.05466 I5.27902 J-3.4383
G2 X35.12338 Y35.5987 I3.15 J-5.45596
G2 X25.67338 Y30.14274 I-6.3 J0.0
G2 X23.54435 Y39.037 I3.15 J5.45596
G1 F300.0 X22.20365 Y39.91022
G2 F800.0 X24.87338 Y42.4403 I6.61973 J-4.31152
G2 X36.72338 Y35.5987 I3.95 J-6.8416
G2 X24.87338 Y28.7571 I-7.9 J0.0
G2 X22.20365 Y39.91022 I3.95 J6.8416
G1 F300.0 X20.86295 Y40.78344
G2 F800.0 X24.07338 Y43.82594 I7.96043 J-5.18474
G2 X38.32338 Y35.5987 I4.75 J-8.22724
G2 X24.07338 Y27.37146 I-9.5 J0.0
G2 X20.86295 Y40.78344 I4.75 J8.22724
G1 F300.0 X19.52224 Y41.65666
G2 F800.0 X23.27338 Y45.21158 I9.30114 J-6.05796
G2 X39.92338 Y35.5987 I5.55 J-9.61288
G2 X23.27338 Y25.98582 I-11.1 J0.0
G2 X19.52224 Y41.65666 I5.55 J9.61288
G1 F300.0 X18.18154 Y42.52988
G2 F800.0 X22.47338 Y46.59722 I10.64184 J-6.93118
G2 X41.52338 Y35.5987 I6.35 J-10.99852
G2 X22.47338 Y24.60018 I-12.7 J0.0
G2 X18.18154 Y42.52988 I6.35 J10.99852
G1 F300.0 X16.84083 Y43.4031
G2 F800.0 X21.67338 Y47.98286 I11.98254 J-7.8044
G2 X43.12338 Y35.5987 I7.15 J-12.38416
G2 X21.67338 Y23.21454 I-14.3 J0.0
G2 X16.84083 Y43.4031 I7.15 J12.38416
G1 F300.0 X15.50013 Y44.27632
G2 F800.0 X20.87338 Y49.36851 I13.32325 J-8.67762
G2 X44.72338 Y35.5987 I7.95 J-13.7698
G2 X20.87338 Y21.8289 I-15.9 J0.0
G2 X15.50013 Y44.27632 I7.95 J13.7698
G1 F300.0 X14.15943 Y45.14954
G2 F800.0 X20.07338 Y50.75415 I14.66395 J-9.55084
G2 X46.32338 Y35.5987 I8.75 J-15.15544
G2 X20.07338 Y20.44326 I-17.5 J0.0
G2 X14.15943 Y45.14954 I8.75 J15.15544
G0 Z3.0
G0 X28.23682 Y35.98074
G0 Z-3.0
G1 F300.0 Z-6.0
G2 F800.0 X28.47338 Y36.20492 I0.58656 J-0.38203
G2 X29.52338 Y35.5987 I0.35 J-0.60622
G2 X28.47338 Y34.99248 I-0.7 J0.0
G2 X28.23682 Y35.98074 I0.35 J0.60622
G1 F300.0 X27.56647 Y36.41734
G2 F800.0 X28.07338 Y36.89774 I1.25691 J-0.81864
G2 X30.32338 Y35.5987 I0.75 J-1.29904
G2 X28.07338 Y34.29966 I-1.5 J0.0
G2 X27.56647 Y36.41734 I0.75 J1.29904
G1 F300.0 X26.22576 Y37.29056
G2 F800.0 X27.27338 Y38.28338 I2.59761 J-1.69186
G2 X31.92338 Y35.5987 I1.55 J-2.68468
G2 X27.27338 Y32.91402 I-3.1 J0.0
G2 X26.22576 Y37.29056 I1.55 J2.68468
G1 F300.0 X24.88506 Y38.16378
G2 F800.0 X26.47338 Y39.66902 I3.93832 J-2.56508
G2 X33.52338 Y35.5987 I2.35 J-4.07032
G2 X26.47338 Y31.52838 I-4.7 J0.0
G2 X24.88506 Y38.16378 I2.35 J4.07032
G1 F300.0 X23.54435 Y39.037
G2 F800.0 X25.67338 Y41.05466 I5.27902 J-3.4383
G2 X35.12338 Y35.5987 I3.15 J-5.45596
G2 X25.67338 Y30.14274 I-6.3 J0.0
G2 X23.54435 Y39.037 I3.15 J5.45596
G1 F300.0 X22.20365 Y39.91022
G2 F800.0 X24.87338 Y42.4403 I6.61973 J-4.31152
G2 X36.72338 Y35.5987 I3.95 J-6.8416
G2 X24.87338 Y28.7571 I-7.9 J0.0
G2 X22.20365 Y39.91022 I3.95 J6.8416
G1 F300.0 X20.86295 Y40.78344
G2 F800.0 X24.07338 Y43.82594 I7.96043 J-5.18474
G2 X38.32338 Y35.5987 I4.75 J-8.22724
G2 X24.07338 Y27.37146 I-9.5 J0.0
G2 X20.86295 Y40.78344 I4.75 J8.22724
G1 F300.0 X19.52224 Y41.65666
G2 F800.0 X23.27338 Y45.21158 I9.30114 J-6.05796
G2 X39.92338 Y35.5987 I5.55 J-9.61288
G2 X23.27338 Y25.98582 I-11.1 J0.0
G2 X19.52224 Y41.65666 I5.55 J9.61288
G1 F300.0 X18.18154 Y42.52988
G2 F800.0 X22.47338 Y46.59722 I10.64184 J-6.93118
G2 X41.52338 Y35.5987 I6.35 J-10.99852
G2 X22.47338 Y24.60018 I-12.7 J0.0
G2 X18.18154 Y42.52988 I6.35 J10.99852
G1 F300.0 X16.84083 Y43.4031
G2 F800.0 X21.67338 Y47.98286 I11.98254 J-7.8044
G2 X43.12338 Y35.5987 I7.15 J-12.38416
G2 X21.67338 Y23.21454 I-14.3 J0.0
G2 X16.84083 Y43.4031 I7.15 J12.38416
G1 F300.0 X15.50013 Y44.27632
G2 F800.0 X20.87338 Y49.36851 I13.32325 J-8.67762
G2 X44.72338 Y35.5987 I7.95 J-13.7698
G2 X20.87338 Y21.8289 I-15.9 J0.0
G2 X15.50013 Y44.27632 I7.95 J13.7698
G1 F300.0 X14.15943 Y45.14954
G2 F800.0 X20.07338 Y50.75415 I14.66395 J-9.55084
G2 X46.32338 Y35.5987 I8.75 J-15.15544
G2 X20.07338 Y20.44326 I-17.5 J0.0
G2 X14.15943 Y45.14954 I8.75 J15.15544
G0 Z3.0
G0 X28.23682 Y35.98074
G0 Z-5.0
G1 F300.0 Z-8.0
G2 F800.0 X28.47338 Y36.20492 I0.58656 J-0.38203
G2 X29.52338 Y35.5987 I0.35 J-0.60622
G2 X28.47338 Y34.99248 I-0.7 J0.0
G2 X28.23682 Y35.98074 I0.35 J0.60622
G1 F300.0 X27.56647 Y36.41734
G2 F800.0 X28.07338 Y36.89774 I1.25691 J-0.81864
G2 X30.32338 Y35.5987 I0.75 J-1.29904
G2 X28.07338 Y34.29966 I-1.5 J0.0
G2 X27.56647 Y36.41734 I0.75 J1.29904
G1 F300.0 X26.22576 Y37.29056
G2 F800.0 X27.27338 Y38.28338 I2.59761 J-1.69186
G2 X31.92338 Y35.5987 I1.55 J-2.68468
G2 X27.27338 Y32.91402 I-3.1 J0.0
G2 X26.22576 Y37.29056 I1.55 J2.68468
G1 F300.0 X24.88506 Y38.16378
G2 F800.0 X26.47338 Y39.66902 I3.93832 J-2.56508
G2 X33.52338 Y35.5987 I2.35 J-4.07032
G2 X26.47338 Y31.52838 I-4.7 J0.0
G2 X24.88506 Y38.16378 I2.35 J4.07032
G1 F300.0 X23.54435 Y39.037
G2 F800.0 X25.67338 Y41.05466 I5.27902 J-3.4383
G2 X35.12338 Y35.5987 I3.15 J-5.45596
G2 X25.67338 Y30.14274 I-6.3 J0.0
G2 X23.54435 Y39.037 I3.15 J5.45596
G1 F300.0 X22.20365 Y39.91022
G2 F800.0 X24.87338 Y42.4403 I6.61973 J-4.31152
G2 X36.72338 Y35.5987 I3.95 J-6.8416
G2 X24.87338 Y28.7571 I-7.9 J0.0
G2 X22.20365 Y39.91022 I3.95 J6.8416
G1 F300.0 X20.86295 Y40.78344
G2 F800.0 X24.07338 Y43.82594 I7.96043 J-5.18474
G2 X38.32338 Y35.5987 I4.75 J-8.22724
G2 X24.07338 Y27.37146 I-9.5 J0.0
G2 X20.86295 Y40.78344 I4.75 J8.22724
G1 F300.0 X19.52224 Y41.65666
G2 F800.0 X23.27338 Y45.21158 I9.30114 J-6.05796
G2 X39.92338 Y35.5987 I5.55 J-9.61288
G2 X23.27338 Y25.98582 I-11.1 J0.0
G2 X19.52224 Y41.65666 I5.55 J9.61288
G1 F300.0 X18.18154 Y42.52988
G2 F800.0 X22.47338 Y46.59722 I10.64184 J-6.93118
G2 X41.52338 Y35.5987 I6.35 J-10.99852
G2 X22.47338 Y24.60018 I-12.7 J0.0
G2 X18.18154 Y42.52988 I6.35 J10.99852
G1 F300.0 X16.84083 Y43.4031
G2 F800.0 X21.67338 Y47.98286 I11.98254 J-7.8044
G2 X43.12338 Y35.5987 I7.15 J-12.38416
G2 X21.67338 Y23.21454 I-14.3 J0.0
G2 X16.84083 Y43.4031 I7.15 J12.38416
G1 F300.0 X15.50013 Y44.27632
G2 F800.0 X20.87338 Y49.36851 I13.32325 J-8.67762
G2 X44.72338 Y35.5987 I7.95 J-13.7698
G2 X20.87338 Y21.8289 I-15.9 J0.0
G2 X15.50013 Y44.27632 I7.95 J13.7698
G1 F300.0 X14.15943 Y45.14954
G2 F800.0 X20.07338 Y50.75415 I14.66395 J-9.55084
G2 X46.32338 Y35.5987 I8.75 J-15.15544
G2 X20.07338 Y20.44326 I-17.5 J0.0
G2 X14.15943 Y45.14954 I8.75 J15.15544
G0 Z3.0
G0 X28.23682 Y35.98074
G0 Z-7.0
G1 F300.0 Z-10.0
G2 F800.0 X28.47338 Y36.20492 I0.58656 J-0.38203
G2 X29.52338 Y35.5987 I0.35 J-0.60622
G2 X28.47338 Y34.99248 I-0.7 J0.0
G2 X28.23682 Y35.98074 I0.35 J0.60622
G1 F300.0 X27.56647 Y36.41734
G2 F800.0 X28.07338 Y36.89774 I1.25691 J-0.81864
G2 X30.32338 Y35.5987 I0.75 J-1.29904
G2 X28.07338 Y34.29966 I-1.5 J0.0
G2 X27.56647 Y36.41734 I0.75 J1.29904
G1 F300.0 X26.22576 Y37.29056
G2 F800.0 X27.27338 Y38.28338 I2.59761 J-1.69186
G2 X31.92338 Y35.5987 I1.55 J-2.68468
G2 X27.27338 Y32.91402 I-3.1 J0.0
G2 X26.22576 Y37.29056 I1.55 J2.68468
G1 F300.0 X24.88506 Y38.16378
G2 F800.0 X26.47338 Y39.66902 I3.93832 J-2.56508
G2 X33.52338 Y35.5987 I2.35 J-4.07032
G2 X26.47338 Y31.52838 I-4.7 J0.0
G2 X24.88506 Y38.16378 I2.35 J4.07032
G1 F300.0 X23.54435 Y39.037
G2 F800.0 X25.67338 Y41.05466 I5.27902 J-3.4383
G2 X35.12338 Y35.5987 I3.15 J-5.45596
G2 X25.67338 Y30.14274 I-6.3 J0.0
G2 X23.54435 Y39.037 I3.15 J5.45596
G1 F300.0 X22.20365 Y39.91022
G2 F800.0 X24.87338 Y42.4403 I6.61973 J-4.31152
G2 X36.72338 Y35.5987 I3.95 J-6.8416
G2 X24.87338 Y28.7571 I-7.9 J0.0
G2 X22.20365 Y39.91022 I3.95 J6.8416
G1 F300.0 X20.86295 Y40.78344
G2 F800.0 X24.07338 Y43.82594 I7.96043 J-5.18474
G2 X38.32338 Y35.5987 I4.75 J-8.22724
G2 X24.07338 Y27.37146 I-9.5 J0.0
G2 X20.86295 Y40.78344 I4.75 J8.22724
G1 F300.0 X19.52224 Y41.65666
G2 F800.0 X23.27338 Y45.21158 I9.30114 J-6.05796
G2 X39.92338 Y35.5987 I5.55 J-9.61288
G2 X23.27338 Y25.98582 I-11.1 J0.0
G2 X19.52224 Y41.65666 I5.55 J9.61288
G1 F300.0 X18.18154 Y42.52988
G2 F800.0 X22.47338 Y46.59722 I10.64184 J-6.93118
G2 X41.52338 Y35.5987 I6.35 J-10.99852
G2 X22.47338 Y24.60018 I-12.7 J0.0
G2 X18.18154 Y42.52988 I6.35 J10.99852
G1 F300.0 X16.84083 Y43.4031
G2 F800.0 X21.67338 Y47.98286 I11.98254 J-7.8044
G2 X43.12338 Y35.5987 I7.15 J-12.38416
G2 X21.67338 Y23.21454 I-14.3 J0.0
G2 X16.84083 Y43.4031 I7.15 J12.38416
G1 F300.0 X15.50013 Y44.27632
G2 F800.0 X20.87338 Y49.36851 I13.32325 J-8.67762
G2 X44.72338 Y35.5987 I7.95 J-13.7698
G2 X20.87338 Y21.8289 I-15.9 J0.0
G2 X15.50013 Y44.27632 I7.95 J13.7698
G1 F300.0 X14.15943 Y45.14954
G2 F800.0 X20.07338 Y50.75415 I14.66395 J-9.55084
G2 X46.32338 Y35.5987 I8.75 J-15.15544
G2 X20.07338 Y20.44326 I-17.5 J0.0
G2 X14.15943 Y45.14954 I8.75 J15.15544
G0 Z3.0
G0 X28.23682 Y35.98074
G0 Z-9.0
G1 F300.0 Z-12.0
G2 F800.0 X28.47338 Y36.20492 I0.58656 J-0.38203
G2 X29.52338 Y35.5987 I0.35 J-0.60622
G2 X28.47338 Y34.99248 I-0.7 J0.0
G2 X28.23682 Y35.98074 I0.35 J0.60622
G1 F300.0 X27.56647 Y36.41734
G2 F800.0 X28.07338 Y36.89774 I1.25691 J-0.81864
G2 X30.32338 Y35.5987 I0.75 J-1.29904
G2 X28.07338 Y34.29966 I-1.5 J0.0
G2 X27.56647 Y36.41734 I0.75 J1.29904
G1 F300.0 X26.22576 Y37.29056
G2 F800.0 X27.27338 Y38.28338 I2.59761 J-1.69186
G2 X31.92338 Y35.5987 I1.55 J-2.68468
G2 X27.27338 Y32.91402 I-3.1 J0.0
G2 X26.22576 Y37.29056 I1.55 J2.68468
G1 F300.0 X24.88506 Y38.16378
G2 F800.0 X26.47338 Y39.66902 I3.93832 J-2.56508
G2 X33.52338 Y35.5987 I2.35 J-4.07032
G2 X26.47338 Y31.52838 I-4.7 J0.0
G2 X24.88506 Y38.16378 I2.35 J4.07032
G1 F300.0 X23.54435 Y39.037
G2 F800.0 X25.67338 Y41.05466 I5.27902 J-3.4383
G2 X35.12338 Y35.5987 I3.15 J-5.45596
G2 X25.67338 Y30.14274 I-6.3 J0.0
G2 X23.54435 Y39.037 I3.15 J5.45596
G1 F300.0 X22.20365 Y39.91022
G2 F800.0 X24.87338 Y42.4403 I6.61973 J-4.31152
G2 X36.72338 Y35.5987 I3.95 J-6.8416
G2 X24.87338 Y28.7571 I-7.9 J0.0
G2 X22.20365 Y39.91022 I3.95 J6.8416
G1 F300.0 X20.86295 Y40.78344
G2 F800.0 X24.07338 Y43.82594 I7.96043 J-5.18474
G2 X38.32338 Y35.5987 I4.75 J-8.22724
G2 X24.07338 Y27.37146 I-9.5 J0.0
G2 X20.86295 Y40.78344 I4.75 J8.22724
G1 F300.0 X19.52224 Y41.65666
G2 F800.0 X23.27338 Y45.21158 I9.30114 J-6.05796
G2 X39.92338 Y35.5987 I5.55 J-9.61288
G2 X23.27338 Y25.98582 I-11.1 J0.0
G2 X19.52224 Y41.65666 I5.55 J9.61288
G1 F300.0 X18.18154 Y42.52988
G2 F800.0 X22.47338 Y46.59722 I10.64184 J-6.93118
G2 X41.52338 Y35.5987 I6.35 J-10.99852
G2 X22.47338 Y24.60018 I-12.7 J0.0
G2 X18.18154 Y42.52988 I6.35 J10.99852
G1 F300.0 X16.84083 Y43.4031
G2 F800.0 X21.67338 Y47.98286 I11.98254 J-7.8044
G2 X43.12338 Y35.5987 I7.15 J-12.38416
G2 X21.67338 Y23.21454 I-14.3 J0.0
G2 X16.84083 Y43.4031 I7.15 J12.38416
G1 F300.0 X15.50013 Y44.27632
G2 F800.0 X20.87338 Y49.36851 I13.32325 J-8.67762
G2 X44.72338 Y35.5987 I7.95 J-13.7698
G2 X20.87338 Y21.8289 I-15.9 J0.0
G2 X15.50013 Y44.27632 I7.95 J13.7698
G1 F300.0 X14.15943 Y45.14954
G2 F800.0 X20.07338 Y50.75415 I14.66395 J-9.55084
G2 X46.32338 Y35.5987 I8.75 J-15.15544
G2 X20.07338 Y20.44326 I-17.5 J0.0
G2 X14.15943 Y45.14954 I8.75 J15.15544
G0 Z3.0
G0 X28.23682 Y35.98074
G0 Z-11.0
G1 F300.0 Z-14.0
G2 F800.0 X28.47338 Y36.20492 I0.58656 J-0.38203
G2 X29.52338 Y35.5987 I0.35 J-0.60622
G2 X28.47338 Y34.99248 I-0.7 J0.0
G2 X28.23682 Y35.98074 I0.35 J0.60622
G1 F300.0 X27.56647 Y36.41734
G2 F800.0 X28.07338 Y36.89774 I1.25691 J-0.81864
G2 X30.32338 Y35.5987 I0.75 J-1.29904
G2 X28.07338 Y34.29966 I-1.5 J0.0
G2 X27.56647 Y36.41734 I0.75 J1.29904
G1 F300.0 X26.22576 Y37.29056
G2 F800.0 X27.27338 Y38.28338 I2.59761 J-1.69186
G2 X31.92338 Y35.5987 I1.55 J-2.68468
G2 X27.27338 Y32.91402 I-3.1 J0.0
G2 X26.22576 Y37.29056 I1.55 J2.68468
G1 F300.0 X24.88506 Y38.16378
G2 F800.0 X26.47338 Y39.66902 I3.93832 J-2.56508
G2 X33.52338 Y35.5987 I2.35 J-4.07032
G2 X26.47338 Y31.52838 I-4.7 J0.0
G2 X24.88506 Y38.16378 I2.35 J4.07032
G1 F300.0 X23.54435 Y39.037
G2 F800.0 X25.67338 Y41.05466 I5.27902 J-3.4383
G2 X35.12338 Y35.5987 I3.15 J-5.45596
G2 X25.67338 Y30.14274 I-6.3 J0.0
G2 X23.54435 Y39.037 I3.15 J5.45596
G1 F300.0 X22.20365 Y39.91022
G2 F800.0 X24.87338 Y42.4403 I6.61973 J-4.31152
G2 X36.72338 Y35.5987 I3.95 J-6.8416
G2 X24.87338 Y28.7571 I-7.9 J0.0
G2 X22.20365 Y39.91022 I3.95 J6.8416
G1 F300.0 X20.86295 Y40.78344
G2 F800.0 X24.07338 Y43.82594 I7.96043 J-5.18474
G2 X38.32338 Y35.5987 I4.75 J-8.22724
G2 X24.07338 Y27.37146 I-9.5 J0.0
G2 X20.86295 Y40.78344 I4.75 J8.22724
G1 F300.0 X19.52224 Y41.65666
G2 F800.0 X23.27338 Y45.21158 I9.30114 J-6.05796
G2 X39.92338 Y35.5987 I5.55 J-9.61288
G2 X23.27338 Y25.98582 I-11.1 J0.0
G2 X19.52224 Y41.65666 I5.55 J9.61288
G1 F300.0 X18.18154 Y42.52988
G2 F800.0 X22.47338 Y46.59722 I10.64184 J-6.93118
G2 X41.52338 Y35.5987 I6.35 J-10.99852
G2 X22.47338 Y24.60018 I-12.7 J0.0
G2 X18.18154 Y42.52988 I6.35 J10.99852
G1 F300.0 X16.84083 Y43.4031
G2 F800.0 X21.67338 Y47.98286 I11.98254 J-7.8044
G2 X43.12338 Y35.5987 I7.15 J-12.38416
G2 X21.67338 Y23.21454 I-14.3 J0.0
G2 X16.84083 Y43.4031 I7.15 J12.38416
G1 F300.0 X15.50013 Y44.27632
G2 F800.0 X20.87338 Y49.36851 I13.32325 J-8.67762
G2 X44.72338 Y35.5987 I7.95 J-13.7698
G2 X20.87338 Y21.8289 I-15.9 J0.0
G2 X15.50013 Y44.27632 I7.95 J13.7698
G1 F300.0 X14.15943 Y45.14954
G2 F800.0 X20.07338 Y50.75415 I14.66395 J-9.55084
G2 X46.32338 Y35.5987 I8.75 J-15.15544
G2 X20.07338 Y20.44326 I-17.5 J0.0
G2 X14.15943 Y45.14954 I8.75 J15.15544
G0 Z3.0
G0 X28.23682 Y35.98074
G0 Z-13.0
G1 F300.0 Z-16.0
G2 F800.0 X28.47338 Y36.20492 I0.58656 J-0.38203
G2 X29.52338 Y35.5987 I0.35 J-0.60622
G2 X28.47338 Y34.99248 I-0.7 J0.0
G2 X28.23682 Y35.98074 I0.35 J0.60622
G1 F300.0 X27.56647 Y36.41734
G2 F800.0 X28.07338 Y36.89774 I1.25691 J-0.81864
G2 X30.32338 Y35.5987 I0.75 J-1.29904
G2 X28.07338 Y34.29966 I-1.5 J0.0
G2 X27.56647 Y36.41734 I0.75 J1.29904
G1 F300.0 X26.22576 Y37.29056
G2 F800.0 X27.27338 Y38.28338 I2.59761 J-1.69186
G2 X31.92338 Y35.5987 I1.55 J-2.68468
G2 X27.27338 Y32.91402 I-3.1 J0.0
G2 X26.22576 Y37.29056 I1.55 J2.68468
G1 F300.0 X24.88506 Y38.16378
G2 F800.0 X26.47338 Y39.66902 I3.93832 J-2.56508
G2 X33.52338 Y35.5987 I2.35 J-4.07032
G2 X26.47338 Y31.52838 I-4.7 J0.0
G2 X24.88506 Y38.16378 I2.35 J4.07032
G1 F300.0 X23.54435 Y39.037
G2 F800.0 X25.67338 Y41.05466 I5.27902 J-3.4383
G2 X35.12338 Y35.5987 I3.15 J-5.45596
G2 X25.67338 Y30.14274 I-6.3 J0.0
G2 X23.54435 Y39.037 I3.15 J5.45596
G1 F300.0 X22.20365 Y39.91022
G2 F800.0 X24.87338 Y42.4403 I6.61973 J-4.31152
G2 X36.72338 Y35.5987 I3.95 J-6.8416
G2 X24.87338 Y28.7571 I-7.9 J0.0
G2 X22.20365 Y39.91022 I3.95 J6.8416
G1 F300.0 X20.86295 Y40.78344
G2 F800.0 X24.07338 Y43.82594 I7.96043 J-5.18474
G2 X38.32338 Y35.5987 I4.75 J-8.22724
G2 X24.07338 Y27.37146 I-9.5 J0.0
G2 X20.86295 Y40.78344 I4.75 J8.22724
G1 F300.0 X19.52224 Y41.65666
G2 F800.0 X23.27338 Y45.21158 I9.30114 J-6.05796
G2 X39.92338 Y35.5987 I5.55 J-9.61288
G2 X23.27338 Y25.98582 I-11.1 J0.0
G2 X19.52224 Y41.65666 I5.55 J9.61288
G1 F300.0 X18.18154 Y42.52988
G2 F800.0 X22.47338 Y46.59722 I10.64184 J-6.93118
G2 X41.52338 Y35.5987 I6.35 J-10.99852
G2 X22.47338 Y24.60018 I-12.7 J0.0
G2 X18.18154 Y42.52988 I6.35 J10.99852
G1 F300.0 X16.84083 Y43.4031
G2 F800.0 X21.67338 Y47.98286 I11.98254 J-7.8044
G2 X43.12338 Y35.5987 I7.15 J-12.38416
G2 X21.67338 Y23.21454 I-14.3 J0.0
G2 X16.84083 Y43.4031 I7.15 J12.38416
G1 F300.0 X15.50013 Y44.27632
G2 F800.0 X20.87338 Y49.36851 I13.32325 J-8.67762
G2 X44.72338 Y35.5987 I7.95 J-13.7698
G2 X20.87338 Y21.8289 I-15.9 J0.0
G2 X15.50013 Y44.27632 I7.95 J13.7698
G1 F300.0 X14.15943 Y45.14954
G2 F800.0 X20.07338 Y50.75415 I14.66395 J-9.55084
G2 X46.32338 Y35.5987 I8.75 J-15.15544
G2 X20.07338 Y20.44326 I-17.5 J0.0
G2 X14.15943 Y45.14954 I8.75 J15.15544
G0 Z3.0
G0 X28.23682 Y35.98074
G0 Z-15.0
G1 F300.0 Z-18.0
G2 F800.0 X28.47338 Y36.20492 I0.58656 J-0.38203
G2 X29.52338 Y35.5987 I0.35 J-0.60622
G2 X28.47338 Y34.99248 I-0.7 J0.0
G2 X28.23682 Y35.98074 I0.35 J0.60622
G1 F300.0 X27.56647 Y36.41734
G2 F800.0 X28.07338 Y36.89774 I1.25691 J-0.81864
G2 X30.32338 Y35.5987 I0.75 J-1.29904
G2 X28.07338 Y34.29966 I-1.5 J0.0
G2 X27.56647 Y36.41734 I0.75 J1.29904
G1 F300.0 X26.22576 Y37.29056
G2 F800.0 X27.27338 Y38.28338 I2.59761 J-1.69186
G2 X31.92338 Y35.5987 I1.55 J-2.68468
G2 X27.27338 Y32.91402 I-3.1 J0.0
G2 X26.22576 Y37.29056 I1.55 J2.68468
G1 F300.0 X24.88506 Y38.16378
G2 F800.0 X26.47338 Y39.66902 I3.93832 J-2.56508
G2 X33.52338 Y35.5987 I2.35 J-4.07032
G2 X26.47338 Y31.52838 I-4.7 J0.0
G2 X24.88506 Y38.16378 I2.35 J4.07032
G1 F300.0 X23.54435 Y39.037
G2 F800.0 X25.67338 Y41.05466 I5.27902 J-3.4383
G2 X35.12338 Y35.5987 I3.15 J-5.45596
G2 X25.67338 Y30.14274 I-6.3 J0.0
G2 X23.54435 Y39.037 I3.15 J5.45596
G1 F300.0 X22.20365 Y39.91022
G2 F800.0 X24.87338 Y42.4403 I6.61973 J-4.31152
G2 X36.72338 Y35.5987 I3.95 J-6.8416
G2 X24.87338 Y28.7571 I-7.9 J0.0
G2 X22.20365 Y39.91022 I3.95 J6.8416
G1 F300.0 X20.86295 Y40.78344
G2 F800.0 X24.07338 Y43.82594 I7.96043 J-5.18474
G2 X38.32338 Y35.5987 I4.75 J-8.22724
G2 X24.07338 Y27.37146 I-9.5 J0.0
G2 X20.86295 Y40.78344 I4.75 J8.22724
G1 F300.0 X19.52224 Y41.65666
G2 F800.0 X23.27338 Y45.21158 I9.30114 J-6.05796
G2 X39.92338 Y35.5987 I5.55 J-9.61288
G2 X23.27338 Y25.98582 I-11.1 J0.0
G2 X19.52224 Y41.65666 I5.55 J9.61288
G1 F300.0 X18.18154 Y42.52988
G2 F800.0 X22.47338 Y46.59722 I10.64184 J-6.93118
G2 X41.52338 Y35.5987 I6.35 J-10.99852
G2 X22.47338 Y24.60018 I-12.7 J0.0
G2 X18.18154 Y42.52988 I6.35 J10.99852
G1 F300.0 X16.84083 Y43.4031
G2 F800.0 X21.67338 Y47.98286 I11.98254 J-7.8044
G2 X43.12338 Y35.5987 I7.15 J-12.38416
G2 X21.67338 Y23.21454 I-14.3 J0.0
G2 X16.84083 Y43.4031 I7.15 J12.38416
G1 F300.0 X15.50013 Y44.27632
G2 F800.0 X20.87338 Y49.36851 I13.32325 J-8.67762
G2 X44.72338 Y35.5987 I7.95 J-13.7698
G2 X20.87338 Y21.8289 I-15.9 J0.0
G2 X15.50013 Y44.27632 I7.95 J13.7698
G1 F300.0 X14.15943 Y45.14954
G2 F800.0 X20.07338 Y50.75415 I14.66395 J-9.55084
G2 X46.32338 Y35.5987 I8.75 J-15.15544
G2 X20.07338 Y20.44326 I-17.5 J0.0
G2 X14.15943 Y45.14954 I8.75 J15.15544
G0 Z3.0
G0 X28.98366 Y-33.71275
G0 Z1.0
G1 F300.0 Z-2.0
G2 F800.0 X29.81298 Y-34.4007 I0.12932 J-0.68795
G2 X28.76298 Y-35.00692 I-0.7 J0.0
G2 Y-33.79448 I0.35 J0.60622
G2 X28.98366 Y-33.71275 I0.35 J-0.60622
G1 F300.0 X28.83587 Y-32.92652
G2 F800.0 X30.61298 Y-34.4007 I0.27711 J-1.47418
G2 X28.36298 Y-35.69974 I-1.5 J0.0
G2 Y-33.10166 I0.75 J1.29904
G2 X28.83587 Y-32.92652 I0.75 J-1.29904
G1 F300.0 X28.54028 Y-31.35406
G2 F800.0 X32.21298 Y-34.4007 I0.5727 J-3.04664
G2 X27.56298 Y-37.08538 I-3.1 J0.0
G2 Y-31.71602 I1.55 J2.68468
G2 X28.54028 Y-31.35406 I1.55 J-2.68468
G1 F300.0 X28.2447 Y-29.7816
G2 F800.0 X33.81298 Y-34.4007 I0.86828 J-4.6191
G2 X26.76298 Y-38.47102 I-4.7 J0.0
G2 Y-30.33038 I2.35 J4.07032
G2 X28.2447 Y-29.7816 I2.35 J-4.07032
G1 F300.0 X27.94911 Y-28.20914
G2 F800.0 X35.41298 Y-34.4007 I1.16387 J-6.19156
G2 X25.96298 Y-39.85666 I-6.3 J0.0
G2 Y-28.94474 I3.15 J5.45596
G2 X27.94911 Y-28.20914 I3.15 J-5.45596
G1 F300.0 X27.65353 Y-26.63668
G2 F800.0 X37.01298 Y-34.4007 I1.45945 J-7.76402
G2 X25.16298 Y-41.2423 I-7.9 J0.0
G2 Y-27.5591 I3.95 J6.8416
G2 X27.65353 Y-26.63668 I3.95 J-6.8416
G1 F300.0 X27.35794 Y-25.06422
G2 F800.0 X38.61298 Y-34.4007 I1.75504 J-9.33648
G2 X24.36298 Y-42.62794 I-9.5 J0.0
G2 Y-26.17346 I4.75 J8.22724
G2 X27.35794 Y-25.06422 I4.75 J-8.22724
G1 F300.0 X27.06236 Y-23.49176
G2 F800.0 X40.21298 Y-34.4007 I2.05062 J-10.90894
G2 X23.56298 Y-44.01358 I-11.1 J0.0
G2 Y-24.78782 I5.55 J9.61288
G2 X27.06236 Y-23.49176 I5.55 J-9.61288
G1 F300.0 X26.76677 Y-21.9193
G2 F800.0 X41.81298 Y-34.4007 I2.34621 J-12.4814
G2 X22.76298 Y-45.39922 I-12.7 J0.0
G2 Y-23.40218 I6.35 J10.99852
G2 X26.76677 Y-21.9193 I6.35 J-10.99852
G1 F300.0 X26.47119 Y-20.34684
G2 F800.0 X43.41298 Y-34.4007 I2.64179 J-14.05386
G2 X21.96298 Y-46.78486 I-14.3 J0.0
G2 Y-22.01654 I7.15 J12.38416
G2 X26.47119 Y-20.34684 I7.15 J-12.38416
G1 F300.0 X26.1756 Y-18.77438
G2 F800.0 X45.01298 Y-34.4007 I2.93738 J-15.62632
G2 X21.16298 Y-48.1705 I-15.9 J0.0
G2 Y-20.6309 I7.95 J13.7698
G2 X26.1756 Y-18.77438 I7.95 J-13.7698
G1 F300.0 X25.88002 Y-17.20192
G2 F800.0 X46.61298 Y-34.4007 I3.23296 J-17.19878
G2 X20.36298 Y-49.55614 I-17.5 J0.0
G2 Y-19.24525 I8.75 J15.15544
G2 X25.88002 Y-17.20192 I8.75 J-15.15544
G0 Z3.0
G0 X28.98366 Y-33.71275
G0 Z-1.0
G1 F300.0 Z-4.0
G2 F800.0 X29.81298 Y-34.4007 I0.12932 J-0.68795
G2 X28.76298 Y-35.00692 I-0.7 J0.0
G2 Y-33.79448 I0.35 J0.60622
G2 X28.98366 Y-33.71275 I0.35 J-0.60622
G1 F300.0 X28.83587 Y-32.92652
G2 F800.0 X30.61298 Y-34.4007 I0.27711 J-1.47418
G2 X28.36298 Y-35.69974 I-1.5 J0.0
G2 Y-33.10166 I0.75 J1.29904
G2 X28.83587 Y-32.92652 I0.75 J-1.29904
G1 F300.0 X28.54028 Y-31.35406
G2 F800.0 X32.21298 Y-34.4007 I0.5727 J-3.04664
G2 X27.56298 Y-37.08538 I-3.1 J0.0
G2 Y-31.71602 I1.55 J2.68468
G2 X28.54028 Y-31.35406 I1.55 J-2.68468
G1 F300.0 X28.2447 Y-29.7816
G2 F800.0 X33.81298 Y-34.4007 I0.86828 J-4.6191
G2 X26.76298 Y-38.47102 I-4.7 J0.0
G2 Y-30.33038 I2.35 J4.07032
G2 X28.2447 Y-29.7816 I2.35 J-4.07032
G1 F300.0 X27.94911 Y-28.20914
G2 F800.0 X35.41298 Y-34.4007 I1.16387 J-6.19156
G2 X25.96298 Y-39.85666 I-6.3 J0.0
G2 Y-28.94474 I3.15 J5.45596
G2 X27.94911 Y-28.20914 I3.15 J-5.45596
G1 F300.0 X27.65353 Y-26.63668
G2 F800.0 X37.01298 Y-34.4007 I1.45945 J-7.76402
G2 X25.16298 Y-41.2423 I-7.9 J0.0
G2 Y-27.5591 I3.95 J6.8416
G2 X27.65353 Y-26.63668 I3.95 J-6.8416
G1 F300.0 X27.35794 Y-25.06422
G2 F800.0 X38.61298 Y-34.4007 I1.75504 J-9.33648
G2 X24.36298 Y-42.62794 I-9.5 J0.0
G2 Y-26.17346 I4.75 J8.22724
G2 X27.35794 Y-25.06422 I4.75 J-8.22724
G1 F300.0 X27.06236 Y-23.49176
G2 F800.0 X40.21298 Y-34.4007 I2.05062 J-10.90894
G2 X23.56298 Y-44.01358 I-11.1 J0.0
G2 Y-24.78782 I5.55 J9.61288
G2 X27.06236 Y-23.49176 I5.55 J-9.61288
G1 F300.0 X26.76677 Y-21.9193
G2 F800.0 X41.81298 Y-34.4007 I2.34621 J-12.4814
G2 X22.76298 Y-45.39922 I-12.7 J0.0
G2 Y-23.40218 I6.35 J10.99852
G2 X26.76677 Y-21.9193 I6.35 J-10.99852
G1 F300.0 X26.47119 Y-20.34684
G2 F800.0 X43.41298 Y-34.4007 I2.64179 J-14.05386
G2 X21.96298 Y-46.78486 I-14.3 J0.0
G2 Y-22.01654 I7.15 J12.38416
G2 X26.47119 Y-20.34684 I7.15 J-12.38416
G1 F300.0 X26.1756 Y-18.77438
G2 F800.0 X45.01298 Y-34.4007 I2.93738 J-15.62632
G2 X21.16298 Y-48.1705 I-15.9 J0.0
G2 Y-20.6309 I7.95 J13.7698
G2 X26.1756 Y-18.77438 I7.95 J-13.7698
G1 F300.0 X25.88002 Y-17.20192
G2 F800.0 X46.61298 Y-34.4007 I3.23296 J-17.19878
G2 X20.36298 Y-49.55614 I-17.5 J0.0
G2 Y-19.24525 I8.75 J15.15544
G2 X25.88002 Y-17.20192 I8.75 J-15.15544
G0 Z3.0
G0 X28.98366 Y-33.71275
G0 Z-3.0
G1 F300.0 Z-6.0
G2 F800.0 X29.81298 Y-34.4007 I0.12932 J-0.68795
G2 X28.76298 Y-35.00692 I-0.7 J0.0
G2 Y-33.79448 I0.35 J0.60622
G2 X28.98366 Y-33.71275 I0.35 J-0.60622
G1 F300.0 X28.83587 Y-32.92652
G2 F800.0 X30.61298 Y-34.4007 I0.27711 J-1.47418
G2 X28.36298 Y-35.69974 I-1.5 J0.0
G2 Y-33.10166 I0.75 J1.29904
G2 X28.83587 Y-32.92652 I0.75 J-1.29904
G1 F300.0 X28.54028 Y-31.35406
G2 F800.0 X32.21298 Y-34.4007 I0.5727 J-3.04664
G2 X27.56298 Y-37.08538 I-3.1 J0.0
G2 Y-31.71602 I1.55 J2.68468
G2 X28.54028 Y-31.35406 I1.55 J-2.68468
G1 F300.0 X28.2447 Y-29.7816
G2 F800.0 X33.81298 Y-34.4007 I0.86828 J-4.6191
G2 X26.76298 Y-38.47102 I-4.7 J0.0
G2 Y-30.33038 I2.35 J4.07032
G2 X28.2447 Y-29.7816 I2.35 J-4.07032
G1 F300.0 X27.94911 Y-28.20914
G2 F800.0 X35.41298 Y-34.4007 I1.16387 J-6.19156
G2 X25.96298 Y-39.85666 I-6.3 J0.0
G2 Y-28.94474 I3.15 J5.45596
G2 X27.94911 Y-28.20914 I3.15 J-5.45596
G1 F300.0 X27.65353 Y-26.63668
G2 F800.0 X37.01298 Y-34.4007 I1.45945 J-7.76402
G2 X25.16298 Y-41.2423 I-7.9 J0.0
G2 Y-27.5591 I3.95 J6.8416
G2 X27.65353 Y-26.63668 I3.95 J-6.8416
G1 F300.0 X27.35794 Y-25.06422
G2 F800.0 X38.61298 Y-34.4007 I1.75504 J-9.33648
G2 X24.36298 Y-42.62794 I-9.5 J0.0
G2 Y-26.17346 I4.75 J8.22724
G2 X27.35794 Y-25.06422 I4.75 J-8.22724
G1 F300.0 X27.06236 Y-23.49176
G2 F800.0 X40.21298 Y-34.4007 I2.05062 J-10.90894
G2 X23.56298 Y-44.01358 I-11.1 J0.0
G2 Y-24.78782 I5.55 J9.61288
G2 X27.06236 Y-23.49176 I5.55 J-9.61288
G1 F300.0 X26.76677 Y-21.9193
G2 F800.0 X41.81298 Y-34.4007 I2.34621 J-12.4814
G2 X22.76298 Y-45.39922 I-12.7 J0.0
G2 Y-23.40218 I6.35 J10.99852
G2 X26.76677 Y-21.9193 I6.35 J-10.99852
G1 F300.0 X26.47119 Y-20.34684
G2 F800.0 X43.41298 Y-34.4007 I2.64179 J-14.05386
G2 X21.96298 Y-46.78486 I-14.3 J0.0
G2 Y-22.01654 I7.15 J12.38416
G2 X26.47119 Y-20.34684 I7.15 J-12.38416
G1 F300.0 X26.1756 Y-18.77438
G2 F800.0 X45.01298 Y-34.4007 I2.93738 J-15.62632
G2 X21.16298 Y-48.1705 I-15.9 J0.0
G2 Y-20.6309 I7.95 J13.7698
G2 X26.1756 Y-18.77438 I7.95 J-13.7698
G1 F300.0 X25.88002 Y-17.20192
G2 F800.0 X46.61298 Y-34.4007 I3.23296 J-17.19878
G2 X20.36298 Y-49.55614 I-17.5 J0.0
G2 Y-19.24525 I8.75 J15.15544
G2 X25.88002 Y-17.20192 I8.75 J-15.15544
G0 Z3.0
G0 X28.98366 Y-33.71275
G0 Z-5.0
G1 F300.0 Z-8.0
G2 F800.0 X29.81298 Y-34.4007 I0.12932 J-0.68795
G2 X28.76298 Y-35.00692 I-0.7 J0.0
G2 Y-33.79448 I0.35 J0.60622
G2 X28.98366 Y-33.71275 I0.35 J-0.60622
G1 F300.0 X28.83587 Y-32.92652
G2 F800.0 X30.61298 Y-34.4007 I0.27711 J-1.47418
G2 X28.36298 Y-35.69974 I-1.5 J0.0
G2 Y-33.10166 I0.75 J1.29904
G2 X28.83587 Y-32.92652 I0.75 J-1.29904
G1 F300.0 X28.54028 Y-31.35406
G2 F800.0 X32.21298 Y-34.4007 I0.5727 J-3.04664
G2 X27.56298 Y-37.08538 I-3.1 J0.0
G2 Y-31.71602 I1.55 J2.68468
G2 X28.54028 Y-31.35406 I1.55 J-2.68468
G1 F300.0 X28.2447 Y-29.7816
G2 F800.0 X33.81298 Y-34.4007 I0.86828 J-4.6191
G2 X26.76298 Y-38.47102 I-4.7 J0.0
G2 Y-30.33038 I2.35 J4.07032
G2 X28.2447 Y-29.7816 I2.35 J-4.07032
G1 F300.0 X27.94911 Y-28.20914
G2 F800.0 X35.41298 Y-34.4007 I1.16387 J-6.19156
G2 X25.96298 Y-39.85666 I-6.3 J0.0
G2 Y-28.94474 I3.15 J5.45596
G2 X27.94911 Y-28.20914 I3.15 J-5.45596
G1 F300.0 X27.65353 Y-26.63668
G2 F800.0 X37.01298 Y-34.4007 I1.45945 J-7.76402
G2 X25.16298 Y-41.2423 I-7.9 J0.0
G2 Y-27.5591 I3.95 J6.8416
G2 X27.65353 Y-26.63668 I3.95 J-6.8416
G1 F300.0 X27.35794 Y-25.06422
G2 F800.0 X38.61298 Y-34.4007 I1.75504 J-9.33648
G2 X24.36298 Y-42.62794 I-9.5 J0.0
G2 Y-26.17346 I4.75 J8.22724
G2 X27.35794 Y-25.06422 I4.75 J-8.22724
G1 F300.0 X27.06236 Y-23.49176
G2 F800.0 X40.21298 Y-34.4007 I2.05062 J-10.90894
G2 X23.56298 Y-44.01358 I-11.1 J0.0
G2 Y-24.78782 I5.55 J9.61288
G2 X27.06236 Y-23.49176 I5.55 J-9.61288
G1 F300.0 X26.76677 Y-21.9193
G2 F800.0 X41.81298 Y-34.4007 I2.34621 J-12.4814
G2 X22.76298 Y-45.39922 I-12.7 J0.0
G2 Y-23.40218 I6.35 J10.99852
G2 X26.76677 Y-21.9193 I6.35 J-10.99852
G1 F300.0 X26.47119 Y-20.34684
G2 F800.0 X43.41298 Y-34.4007 I2.64179 J-14.05386
G2 X21.96298 Y-46.78486 I-14.3 J0.0
G2 Y-22.01654 I7.15 J12.38416
G2 X26.47119 Y-20.34684 I7.15 J-12.38416
G1 F300.0 X26.1756 Y-18.77438
G2 F800.0 X45.01298 Y-34.4007 I2.93738 J-15.62632
G2 X21.16298 Y-48.1705 I-15.9 J0.0
G2 Y-20.6309 I7.95 J13.7698
G2 X26.1756 Y-18.77438 I7.95 J-13.7698
G1 F300.0 X25.88002 Y-17.20192
G2 F800.0 X46.61298 Y-34.4007 I3.23296 J-17.19878
G2 X20.36298 Y-49.55614 I-17.5 J0.0
G2 Y-19.24525 I8.75 J15.15544
G2 X25.88002 Y-17.20192 I8.75 J-15.15544
G0 Z3.0
G0 X28.98366 Y-33.71275
G0 Z-7.0
G1 F300.0 Z-10.0
G2 F800.0 X29.81298 Y-34.4007 I0.12932 J-0.68795
G2 X28.76298 Y-35.00692 I-0.7 J0.0
G2 Y-33.79448 I0.35 J0.60622
G2 X28.98366 Y-33.71275 I0.35 J-0.60622
G1 F300.0 X28.83587 Y-32.92652
G2 F800.0 X30.61298 Y-34.4007 I0.27711 J-1.47418
G2 X28.36298 Y-35.69974 I-1.5 J0.0
G2 Y-33.10166 I0.75 J1.29904
G2 X28.83587 Y-32.92652 I0.75 J-1.29904
G1 F300.0 X28.54028 Y-31.35406
G2 F800.0 X32.21298 Y-34.4007 I0.5727 J-3.04664
G2 X27.56298 Y-37.08538 I-3.1 J0.0
G2 Y-31.71602 I1.55 J2.68468
G2 X28.54028 Y-31.35406 I1.55 J-2.68468
G1 F300.0 X28.2447 Y-29.7816
G2 F800.0 X33.81298 Y-34.4007 I0.86828 J-4.6191
G2 X26.76298 Y-38.47102 I-4.7 J0.0
G2 Y-30.33038 I2.35 J4.07032
G2 X28.2447 Y-29.7816 I2.35 J-4.07032
G1 F300.0 X27.94911 Y-28.20914
G2 F800.0 X35.41298 Y-34.4007 I1.16387 J-6.19156
G2 X25.96298 Y-39.85666 I-6.3 J0.0
G2 Y-28.94474 I3.15 J5.45596
G2 X27.94911 Y-28.20914 I3.15 J-5.45596
G1 F300.0 X27.65353 Y-26.63668
G2 F800.0 X37.01298 Y-34.4007 I1.45945 J-7.76402
G2 X25.16298 Y-41.2423 I-7.9 J0.0
G2 Y-27.5591 I3.95 J6.8416
G2 X27.65353 Y-26.63668 I3.95 J-6.8416
G1 F300.0 X27.35794 Y-25.06422
G2 F800.0 X38.61298 Y-34.4007 I1.75504 J-9.33648
G2 X24.36298 Y-42.62794 I-9.5 J0.0
G2 Y-26.17346 I4.75 J8.22724
G2 X27.35794 Y-25.06422 I4.75 J-8.22724
G1 F300.0 X27.06236 Y-23.49176
G2 F800.0 X40.21298 Y-34.4007 I2.05062 J-10.90894
G2 X23.56298 Y-44.01358 I-11.1 J0.0
G2 Y-24.78782 I5.55 J9.61288
G2 X27.06236 Y-23.49176 I5.55 J-9.61288
G1 F300.0 X26.76677 Y-21.9193
G2 F800.0 X41.81298 Y-34.4007 I2.34621 J-12.4814
G2 X22.76298 Y-45.39922 I-12.7 J0.0
G2 Y-23.40218 I6.35 J10.99852
G2 X26.76677 Y-21.9193 I6.35 J-10.99852
G1 F300.0 X26.47119 Y-20.34684
G2 F800.0 X43.41298 Y-34.4007 I2.64179 J-14.05386
G2 X21.96298 Y-46.78486 I-14.3 J0.0
G2 Y-22.01654 I7.15 J12.38416
G2 X26.47119 Y-20.34684 I7.15 J-12.38416
G1 F300.0 X26.1756 Y-18.77438
G2 F800.0 X45.01298 Y-34.4007 I2.93738 J-15.62632
G2 X21.16298 Y-48.1705 I-15.9 J0.0
G2 Y-20.6309 I7.95 J13.7698
G2 X26.1756 Y-18.77438 I7.95 J-13.7698
G1 F300.0 X25.88002 Y-17.20192
G2 F800.0 X46.61298 Y-34.4007 I3.23296 J-17.19878
G2 X20.36298 Y-49.55614 I-17.5 J0.0
G2 Y-19.24525 I8.75 J15.15544
G2 X25.88002 Y-17.20192 I8.75 J-15.15544
G0 Z3.0
G0 X28.98366 Y-33.71275
G0 Z-9.0
G1 F300.0 Z-12.0
G2 F800.0 X29.81298 Y-34.4007 I0.12932 J-0.68795
G2 X28.76298 Y-35.00692 I-0.7 J0.0
G2 Y-33.79448 I0.35 J0.60622
G2 X28.98366 Y-33.71275 I0.35 J-0.60622
G1 F300.0 X28.83587 Y-32.92652
G2 F800.0 X30.61298 Y-34.4007 I0.27711 J-1.47418
G2 X28.36298 Y-35.69974 I-1.5 J0.0
G2 Y-33.10166 I0.75 J1.29904
G2 X28.83587 Y-32.92652 I0.75 J-1.29904
G1 F300.0 X28.54028 Y-31.35406
G2 F800.0 X32.21298 Y-34.4007 I0.5727 J-3.04664
G2 X27.56298 Y-37.08538 I-3.1 J0.0
G2 Y-31.71602 I1.55 J2.68468
G2 X28.54028 Y-31.35406 I1.55 J-2.68468
G1 F300.0 X28.2447 Y-29.7816
G2 F800.0 X33.81298 Y-34.4007 I0.86828 J-4.6191
G2 X26.76298 Y-38.47102 I-4.7 J0.0
G2 Y-30.33038 I2.35 J4.07032
G2 X28.2447 Y-29.7816 I2.35 J-4.07032
G1 F300.0 X27.94911 Y-28.20914
G2 F800.0 X35.41298 Y-34.4007 I1.16387 J-6.19156
G2 X25.96298 Y-39.85666 I-6.3 J0.0
G2 Y-28.94474 I3.15 J5.45596
G2 X27.94911 Y-28.20914 I3.15 J-5.45596
G1 F300.0 X27.65353 Y-26.63668
G2 F800.0 X37.01298 Y-34.4007 I1.45945 J-7.76402
G2 X25.16298 Y-41.2423 I-7.9 J0.0
G2 Y-27.5591 I3.95 J6.8416
G2 X27.65353 Y-26.63668 I3.95 J-6.8416
G1 F300.0 X27.35794 Y-25.06422
G2 F800.0 X38.61298 Y-34.4007 I1.75504 J-9.33648
G2 X24.36298 Y-42.62794 I-9.5 J0.0
G2 Y-26.17346 I4.75 J8.22724
G2 X27.35794 Y-25.06422 I4.75 J-8.22724
G1 F300.0 X27.06236 Y-23.49176
G2 F800.0 X40.21298 Y-34.4007 I2.05062 J-10.90894
G2 X23.56298 Y-44.01358 I-11.1 J0.0
G2 Y-24.78782 I5.55 J9.61288
G2 X27.06236 Y-23.49176 I5.55 J-9.61288
G1 F300.0 X26.76677 Y-21.9193
G2 F800.0 X41.81298 Y-34.4007 I2.34621 J-12.4814
G2 X22.76298 Y-45.39922 I-12.7 J0.0
G2 Y-23.40218 I6.35 J10.99852
G2 X26.76677 Y-21.9193 I6.35 J-10.99852
G1 F300.0 X26.47119 Y-20.34684
G2 F800.0 X43.41298 Y-34.4007 I2.64179 J-14.05386
G2 X21.96298 Y-46.78486 I-14.3 J0.0
G2 Y-22.01654 I7.15 J12.38416
G2 X26.47119 Y-20.34684 I7.15 J-12.38416
G1 F300.0 X26.1756 Y-18.77438
G2 F800.0 X45.01298 Y-34.4007 I2.93738 J-15.62632
G2 X21.16298 Y-48.1705 I-15.9 J0.0
G2 Y-20.6309 I7.95 J13.7698
G2 X26.1756 Y-18.77438 I7.95 J-13.7698
G1 F300.0 X25.88002 Y-17.20192
G2 F800.0 X46.61298 Y-34.4007 I3.23296 J-17.19878
G2 X20.36298 Y-49.55614 I-17.5 J0.0
G2 Y-19.24525 I8.75 J15.15544
G2 X25.88002 Y-17.20192 I8.75 J-15.15544
G0 Z3.0
G0 X28.98366 Y-33.71275
G0 Z-11.0
G1 F300.0 Z-14.0
G2 F800.0 X29.81298 Y-34.4007 I0.12932 J-0.68795
G2 X28.76298 Y-35.00692 I-0.7 J0.0
G2 Y-33.79448 I0.35 J0.60622
G2 X28.98366 Y-33.71275 I0.35 J-0.60622
G1 F300.0 X28.83587 Y-32.92652
G2 F800.0 X30.61298 Y-34.4007 I0.27711 J-1.47418
G2 X28.36298 Y-35.69974 I-1.5 J0.0
G2 Y-33.10166 I0.75 J1.29904
G2 X28.83587 Y-32.92652 I0.75 J-1.29904
G1 F300.0 X28.54028 Y-31.35406
G2 F800.0 X32.21298 Y-34.4007 I0.5727 J-3.04664
G2 X27.56298 Y-37.08538 I-3.1 J0.0
G2 Y-31.71602 I1.55 J2.68468
G2 X28.54028 Y-31.35406 I1.55 J-2.68468
G1 F300.0 X28.2447 Y-29.7816
G2 F800.0 X33.81298 Y-34.4007 I0.86828 J-4.6191
G2 X26.76298 Y-38.47102 I-4.7 J0.0
G2 Y-30.33038 I2.35 J4.07032
G2 X28.2447 Y-29.7816 I2.35 J-4.07032
G1 F300.0 X27.94911 Y-28.20914
G2 F800.0 X35.41298 Y-34.4007 I1.16387 J-6.19156
G2 X25.96298 Y-39.85666 I-6.3 J0.0
G2 Y-28.94474 I3.15 J5.45596
G2 X27.94911 Y-28.20914 I3.15 J-5.45596
G1 F300.0 X27.65353 Y-26.63668
G2 F800.0 X37.01298 Y-34.4007 I1.45945 J-7.76402
G2 X25.16298 Y-41.2423 I-7.9 J0.0
G2 Y-27.5591 I3.95 J6.8416
G2 X27.65353 Y-26.63668 I3.95 J-6.8416
G1 F300.0 X27.35794 Y-25.06422
G2 F800.0 X38.61298 Y-34.4007 I1.75504 J-9.33648
G2 X24.36298 Y-42.62794 I-9.5 J0.0
G2 Y-26.17346 I4.75 J8.22724
G2 X27.35794 Y-25.06422 I4.75 J-8.22724
G1 F300.0 X27.06236 Y-23.49176
G2 F800.0 X40.21298 Y-34.4007 I2.05062 J-10.90894
G2 X23.56298 Y-44.01358 I-11.1 J0.0
G2 Y-24.78782 I5.55 J9.61288
G2 X27.06236 Y-23.49176 I5.55 J-9.61288
G1 F300.0 X26.76677 Y-21.9193
G2 F800.0 X41.81298 Y-34.4007 I2.34621 J-12.4814
G2 X22.76298 Y-45.39922 I-12.7 J0.0
G2 Y-23.40218 I6.35 J10.99852
G2 X26.76677 Y-21.9193 I6.35 J-10.99852
G1 F300.0 X26.47119 Y-20.34684
G2 F800.0 X43.41298 Y-34.4007 I2.64179 J-14.05386
G2 X21.96298 Y-46.78486 I-14.3 J0.0
G2 Y-22.01654 I7.15 J12.38416
G2 X26.47119 Y-20.34684 I7.15 J-12.38416
G1 F300.0 X26.1756 Y-18.77438
G2 F800.0 X45.01298 Y-34.4007 I2.93738 J-15.62632
G2 X21.16298 Y-48.1705 I-15.9 J0.0
G2 Y-20.6309 I7.95 J13.7698
G2 X26.1756 Y-18.77438 I7.95 J-13.7698
G1 F300.0 X25.88002 Y-17.20192
G2 F800.0 X46.61298 Y-34.4007 I3.23296 J-17.19878
G2 X20.36298 Y-49.55614 I-17.5 J0.0
G2 Y-19.24525 I8.75 J15.15544
G2 X25.88002 Y-17.20192 I8.75 J-15.15544
G0 Z3.0
G0 X28.98366 Y-33.71275
G0 Z-13.0
G1 F300.0 Z-16.0
G2 F800.0 X29.81298 Y-34.4007 I0.12932 J-0.68795
G2 X28.76298 Y-35.00692 I-0.7 J0.0
G2 Y-33.79448 I0.35 J0.60622
G2 X28.98366 Y-33.71275 I0.35 J-0.60622
G1 F300.0 X28.83587 Y-32.92652
G2 F800.0 X30.61298 Y-34.4007 I0.27711 J-1.47418
G2 X28.36298 Y-35.69974 I-1.5 J0.0
G2 Y-33.10166 I0.75 J1.29904
G2 X28.83587 Y-32.92652 I0.75 J-1.29904
G1 F300.0 X28.54028 Y-31.35406
G2 F800.0 X32.21298 Y-34.4007 I0.5727 J-3.04664
G2 X27.56298 Y-37.08538 I-3.1 J0.0
G2 Y-31.71602 I1.55 J2.68468
G2 X28.54028 Y-31.35406 I1.55 J-2.68468
G1 F300.0 X28.2447 Y-29.7816
G2 F800.0 X33.81298 Y-34.4007 I0.86828 J-4.6191
G2 X26.76298 Y-38.47102 I-4.7 J0.0
G2 Y-30.33038 I2.35 J4.07032
G2 X28.2447 Y-29.7816 I2.35 J-4.07032
G1 F300.0 X27.94911 Y-28.20914
G2 F800.0 X35.41298 Y-34.4007 I1.16387 J-6.19156
G2 X25.96298 Y-39.85666 I-6.3 J0.0
G2 Y-28.94474 I3.15 J5.45596
G2 X27.94911 Y-28.20914 I3.15 J-5.45596
G1 F300.0 X27.65353 Y-26.63668
G2 F800.0 X37.01298 Y-34.4007 I1.45945 J-7.76402
G2 X25.16298 Y-41.2423 I-7.9 J0.0
G2 Y-27.5591 I3.95 J6.8416
G2 X27.65353 Y-26.63668 I3.95 J-6.8416
G1 F300.0 X27.35794 Y-25.06422
G2 F800.0 X38.61298 Y-34.4007 I1.75504 J-9.33648
G2 X24.36298 Y-42.62794 I-9.5 J0.0
G2 Y-26.17346 I4.75 J8.22724
G2 X27.35794 Y-25.06422 I4.75 J-8.22724
G1 F300.0 X27.06236 Y-23.49176
G2 F800.0 X40.21298 Y-34.4007 I2.05062 J-10.90894
G2 X23.56298 Y-44.01358 I-11.1 J0.0
G2 Y-24.78782 I5.55 J9.61288
G2 X27.06236 Y-23.49176 I5.55 J-9.61288
G1 F300.0 X26.76677 Y-21.9193
G2 F800.0 X41.81298 Y-34.4007 I2.34621 J-12.4814
G2 X22.76298 Y-45.39922 I-12.7 J0.0
G2 Y-23.40218 I6.35 J10.99852
G2 X26.76677 Y-21.9193 I6.35 J-10.99852
G1 F300.0 X26.47119 Y-20.34684
G2 F800.0 X43.41298 Y-34.4007 I2.64179 J-14.05386
G2 X21.96298 Y-46.78486 I-14.3 J0.0
G2 Y-22.01654 I7.15 J12.38416
G2 X26.47119 Y-20.34684 I7.15 J-12.38416
G1 F300.0 X26.1756 Y-18.77438
G2 F800.0 X45.01298 Y-34.4007 I2.93738 J-15.62632
G2 X21.16298 Y-48.1705 I-15.9 J0.0
G2 Y-20.6309 I7.95 J13.7698
G2 X26.1756 Y-18.77438 I7.95 J-13.7698
G1 F300.0 X25.88002 Y-17.20192
G2 F800.0 X46.61298 Y-34.4007 I3.23296 J-17.19878
G2 X20.36298 Y-49.55614 I-17.5 J0.0
G2 Y-19.24525 I8.75 J15.15544
G2 X25.88002 Y-17.20192 I8.75 J-15.15544
G0 Z3.0
G0 X28.98366 Y-33.71275
G0 Z-15.0
G1 F300.0 Z-18.0
G2 F800.0 X29.81298 Y-34.4007 I0.12932 J-0.68795
G2 X28.76298 Y-35.00692 I-0.7 J0.0
G2 Y-33.79448 I0.35 J0.60622
G2 X28.98366 Y-33.71275 I0.35 J-0.60622
G1 F300.0 X28.83587 Y-32.92652
G2 F800.0 X30.61298 Y-34.4007 I0.27711 J-1.47418
G2 X28.36298 Y-35.69974 I-1.5 J0.0
G2 Y-33.10166 I0.75 J1.29904
G2 X28.83587 Y-32.92652 I0.75 J-1.29904
G1 F300.0 X28.54028 Y-31.35406
G2 F800.0 X32.21298 Y-34.4007 I0.5727 J-3.04664
G2 X27.56298 Y-37.08538 I-3.1 J0.0
G2 Y-31.71602 I1.55 J2.68468
G2 X28.54028 Y-31.35406 I1.55 J-2.68468
G1 F300.0 X28.2447 Y-29.7816
G2 F800.0 X33.81298 Y-34.4007 I0.86828 J-4.6191
G2 X26.76298 Y-38.47102 I-4.7 J0.0
G2 Y-30.33038 I2.35 J4.07032
G2 X28.2447 Y-29.7816 I2.35 J-4.07032
G1 F300.0 X27.94911 Y-28.20914
G2 F800.0 X35.41298 Y-34.4007 I1.16387 J-6.19156
G2 X25.96298 Y-39.85666 I-6.3 J0.0
G2 Y-28.94474 I3.15 J5.45596
G2 X27.94911 Y-28.20914 I3.15 J-5.45596
G1 F300.0 X27.65353 Y-26.63668
G2 F800.0 X37.01298 Y-34.4007 I1.45945 J-7.76402
G2 X25.16298 Y-41.2423 I-7.9 J0.0
G2 Y-27.5591 I3.95 J6.8416
G2 X27.65353 Y-26.63668 I3.95 J-6.8416
G1 F300.0 X27.35794 Y-25.06422
G2 F800.0 X38.61298 Y-34.4007 I1.75504 J-9.33648
G2 X24.36298 Y-42.62794 I-9.5 J0.0
G2 Y-26.17346 I4.75 J8.22724
G2 X27.35794 Y-25.06422 I4.75 J-8.22724
G1 F300.0 X27.06236 Y-23.49176
G2 F800.0 X40.21298 Y-34.4007 I2.05062 J-10.90894
G2 X23.56298 Y-44.01358 I-11.1 J0.0
G2 Y-24.78782 I5.55 J9.61288
G2 X27.06236 Y-23.49176 I5.55 J-9.61288
G1 F300.0 X26.76677 Y-21.9193
G2 F800.0 X41.81298 Y-34.4007 I2.34621 J-12.4814
G2 X22.76298 Y-45.39922 I-12.7 J0.0
G2 Y-23.40218 I6.35 J10.99852
G2 X26.76677 Y-21.9193 I6.35 J-10.99852
G1 F300.0 X26.47119 Y-20.34684
G2 F800.0 X43.41298 Y-34.4007 I2.64179 J-14.05386
G2 X21.96298 Y-46.78486 I-14.3 J0.0
G2 Y-22.01654 I7.15 J12.38416
G2 X26.47119 Y-20.34684 I7.15 J-12.38416
G1 F300.0 X26.1756 Y-18.77438
G2 F800.0 X45.01298 Y-34.4007 I2.93738 J-15.62632
G2 X21.16298 Y-48.1705 I-15.9 J0.0
G2 Y-20.6309 I7.95 J13.7698
G2 X26.1756 Y-18.77438 I7.95 J-13.7698
G1 F300.0 X25.88002 Y-17.20192
G2 F800.0 X46.61298 Y-34.4007 I3.23296 J-17.19878
G2 X20.36298 Y-49.55614 I-17.5 J0.0
G2 Y-19.24525 I8.75 J15.15544
G2 X25.88002 Y-17.20192 I8.75 J-15.15544
G0 Z3.0
G0 X-34.08039 Y-89.80655
G0 Z1.0
G1 F300.0 Z-2.0
G2 F800.0 X-33.82613 Y-90.34629 I-0.44574 J-0.53974
G2 X-34.87613 Y-90.9525 I-0.7 J0.0
G2 Y-89.74007 I0.35 J0.60622
G2 X-34.08039 Y-89.80655 I0.35 J-0.60622
G1 F300.0 X-33.57098 Y-89.18971
G2 F800.0 X-33.02613 Y-90.34629 I-0.95516 J-1.15658
G2 X-35.27613 Y-91.64532 I-1.5 J0.0
G2 Y-89.04725 I0.75 J1.29904
G2 X-33.57098 Y-89.18971 I0.75 J-1.29904
G1 F300.0 X-32.55214 Y-87.95602
G2 F800.0 X-31.42613 Y-90.34629 I-1.97399 J-2.39026
G2 X-36.07613 Y-93.03096 I-3.1 J0.0
G2 Y-87.66161 I1.55 J2.68468
G2 X-32.55214 Y-87.95602 I1.55 J-2.68468
G1 F300.0 X-31.53331 Y-86.72234
G2 F800.0 X-29.82613 Y-90.34629 I-2.99283 J-3.62394
G2 X-36.87613 Y-94.41661 I-4.7 J0.0
G2 Y-86.27597 I2.35 J4.07032
G2 X-31.53331 Y-86.72234 I2.35 J-4.07032
G1 F300.0 X-30.51447 Y-85.48866
G2 F800.0 X-28.22613 Y-90.34629 I-4.01166 J-4.85763
G2 X-37.67613 Y-95.80225 I-6.3 J0.0
G2 Y-84.89033 I3.15 J5.45596
G2 X-30.51447 Y-85.48866 I3.15 J-5.45596
G1 F300.0 X-29.49563 Y-84.25497
G2 F800.0 X-26.62613 Y-90.34629 I-5.0305 J-6.09131
G2 X-38.47613 Y-97.18789 I-7.9 J0.0
G2 Y-83.50469 I3.95 J6.8416
G2 X-29.49563 Y-84.25497 I3.95 J-6.8416
G1 F300.0 X-28.4768 Y-83.02129
G2 F800.0 X-25.02613 Y-90.34629 I-6.04933 J-7.32499
G2 X-39.27613 Y-98.57353 I-9.5 J0.0
G2 Y-82.11904 I4.75 J8.22724
G2 X-28.4768 Y-83.02129 I4.75 J-8.22724
G1 F300.0 X-27.45796 Y-81.78761
G2 F800.0 X-23.42613 Y-90.34629 I-7.06817 J-8.55868
G2 X-40.07613 Y-99.95917 I-11.1 J0.0
G2 Y-80.7334 I5.55 J9.61288
G2 X-27.45796 Y-81.78761 I5.55 J-9.61288
G1 F300.0 X-26.43913 Y-80.55392
G2 F800.0 X-21.82613 Y-90.34629 I-8.08701 J-9.79236
G2 X-40.87613 Y-101.34481 I-12.7 J0.0
G2 Y-79.34776 I6.35 J10.99852
G2 X-26.43913 Y-80.55392 I6.35 J-10.99852
G1 F300.0 X-25.42029 Y-79.32024
G2 F800.0 X-20.22613 Y-90.34629 I-9.10584 J-11.02604
G2 X-41.67613 Y-102.73045 I-14.3 J0.0
G2 Y-77.96212 I7.15 J12.38416
G2 X-25.42029 Y-79.32024 I7.15 J-12.38416
G1 F300.0 X-24.40146 Y-78.08656
G2 F800.0 X-18.62613 Y-90.34629 I-10.12468 J-12.25973
G2 X-42.47613 Y-104.11609 I-15.9 J0.0
G2 Y-76.57648 I7.95 J13.7698
G2 X-24.40146 Y-78.08656 I7.95 J-13.7698
G1 F300.0 X-23.38262 Y-76.85287
G2 F800.0 X-17.02613 Y-90.34629 I-11.14351 J-13.49341
G2 X-43.27613 Y-105.50173 I-17.5 J0.0
G2 Y-75.19084 I8.75 J15.15544
G2 X-23.38262 Y-76.85287 I8.75 J-15.15544
G0 Z3.0
G0 X-34.08039 Y-89.80655
G0 Z-1.0
G1 F300.0 Z-4.0
G2 F800.0 X-33.82613 Y-90.34629 I-0.44574 J-0.53974
G2 X-34.87613 Y-90.9525 I-0.7 J0.0
G2 Y-89.74007 I0.35 J0.60622
G2 X-34.08039 Y-89.80655 I0.35 J-0.60622
G1 F300.0 X-33.57098 Y-89.18971
G2 F800.0 X-33.02613 Y-90.34629 I-0.95516 J-1.15658
G2 X-35.27613 Y-91.64532 I-1.5 J0.0
G2 Y-89.04725 I0.75 J1.29904
G2 X-33.57098 Y-89.18971 I0.75 J-1.29904
G1 F300.0 X-32.55214 Y-87.95602
G2 F800.0 X-31.42613 Y-90.34629 I-1.97399 J-2.39026
G2 X-36.07613 Y-93.03096 I-3.1 J0.0
G2 Y-87.66161 I1.55 J2.68468
G2 X-32.55214 Y-87.95602 I1.55 J-2.68468
G1 F300.0 X-31.53331 Y-86.72234
G2 F800.0 X-29.82613 Y-90.34629 I-2.99283 J-3.62394
G2 X-36.87613 Y-94.41661 I-4.7 J0.0
G2 Y-86.27597 I2.35 J4.07032
G2 X-31.53331 Y-86.72234 I2.35 J-4.07032
G1 F300.0 X-30.51447 Y-85.48866
G2 F800.0 X-28.22613 Y-90.34629 I-4.01166 J-4.85763
G2 X-37.67613 Y-95.80225 I-6.3 J0.0
G2 Y-84.89033 I3.15 J5.45596
G2 X-30.51447 Y-85.48866 I3.15 J-5.45596
G1 F300.0 X-29.49563 Y-84.25497
G2 F800.0 X-26.62613 Y-90.34629 I-5.0305 J-6.09131
G2 X-38.47613 Y-97.18789 I-7.9 J0.0
G2 Y-83.50469 I3.95 J6.8416
G2 X-29.49563 Y-84.25497 I3.95 J-6.8416
G1 F300.0 X-28.4768 Y-83.02129
G2 F800.0 X-25.02613 Y-90.34629 I-6.04933 J-7.32499
G2 X-39.27613 Y-98.57353 I-9.5 J0.0
G2 Y-82.11904 I4.75 J8.22724
G2 X-28.4768 Y-83.02129 I4.75 J-8.22724
G1 F300.0 X-27.45796 Y-81.78761
G2 F800.0 X-23.42613 Y-90.34629 I-7.06817 J-8.55868
G2 X-40.07613 Y-99.95917 I-11.1 J0.0
G2 Y-80.7334 I5.55 J9.61288
G2 X-27.45796 Y-81.78761 I5.55 J-9.61288
G1 F300.0 X-26.43913 Y-80.55392
G2 F800.0 X-21.82613 Y-90.34629 I-8.08701 J-9.79236
G2 X-40.87613 Y-101.34481 I-12.7 J0.0
G2 Y-79.34776 I6.35 J10.99852
G2 X-26.43913 Y-80.55392 I6.35 J-10.99852
G1 F300.0 X-25.42029 Y-79.32024
G2 F800.0 X-20.22613 Y-90.34629 I-9.10584 J-11.02604
G2 X-41.67613 Y-102.73045 I-14.3 J0.0
G2 Y-77.96212 I7.15 J12.38416
G2 X-25.42029 Y-79.32024 I7.15 J-12.38416
G1 F300.0 X-24.40146 Y-78.08656
G2 F800.0 X-18.62613 Y-90.34629 I-10.12468 J-12.25973
G2 X-42.47613 Y-104.11609 I-15.9 J0.0
G2 Y-76.57648 I7.95 J13.7698
G2 X-24.40146 Y-78.08656 I7.95 J-13.7698
G1 F300.0 X-23.38262 Y-76.85287
G2 F800.0 X-17.02613 Y-90.34629 I-11.14351 J-13.49341
G2 X-43.27613 Y-105.50173 I-17.5 J0.0
G2 Y-75.19084 I8.75 J15.15544
G2 X-23.38262 Y-76.85287 I8.75 J-15.15544
G0 Z3.0
G0 X-34.08039 Y-89.80655
G0 Z-3.0
G1 F300.0 Z-6.0
G2 F800.0 X-33.82613 Y-90.34629 I-0.44574 J-0.53974
G2 X-34.87613 Y-90.9525 I-0.7 J0.0
G2 Y-89.74007 I0.35 J0.60622
G2 X-34.08039 Y-89.80655 I0.35 J-0.60622
G1 F300.0 X-33.57098 Y-89.18971
G2 F800.0 X-33.02613 Y-90.34629 I-0.95516 J-1.15658
G2 X-35.27613 Y-91.64532 I-1.5 J0.0
G2 Y-89.04725 I0.75 J1.29904
G2 X-33.57098 Y-89.18971 I0.75 J-1.29904
G1 F300.0 X-32.55214 Y-87.95602
G2 F800.0 X-31.42613 Y-90.34629 I-1.97399 J-2.39026
G2 X-36.07613 Y-93.03096 I-3.1 J0.0
G2 Y-87.66161 I1.55 J2.68468
G2 X-32.55214 Y-87.95602 I1.55 J-2.68468
G1 F300.0 X-31.53331 Y-86.72234
G2 F800.0 X-29.82613 Y-90.34629 I-2.99283 J-3.62394
G2 X-36.87613 Y-94.41661 I-4.7 J0.0
G2 Y-86.27597 I2.35 J4.07032
G2 X-31.53331 Y-86.72234 I2.35 J-4.07032
G1 F300.0 X-30.51447 Y-85.48866
G2 F800.0 X-28.22613 Y-90.34629 I-4.01166 J-4.85763
G2 X-37.67613 Y-95.80225 I-6.3 J0.0
G2 Y-84.89033 I3.15 J5.45596
G2 X-30.51447 Y-85.48866 I3.15 J-5.45596
G1 F300.0 X-29.49563 Y-84.25497
G2 F800.0 X-26.62613 Y-90.34629 I-5.0305 J-6.09131
G2 X-38.47613 Y-97.18789 I-7.9 J0.0
G2 Y-83.50469 I3.95 J6.8416
G2 X-29.49563 Y-84.25497 I3.95 J-6.8416
G1 F300.0 X-28.4768 Y-83.02129
G2 F800.0 X-25.02613 Y-90.34629 I-6.04933 J-7.32499
G2 X-39.27613 Y-98.57353 I-9.5 J0.0
G2 Y-82.11904 I4.75 J8.22724
G2 X-28.4768 Y-83.02129 I4.75 J-8.22724
G1 F300.0 X-27.45796 Y-81.78761
G2 F800.0 X-23.42613 Y-90.34629 I-7.06817 J-8.55868
G2 X-40.07613 Y-99.95917 I-11.1 J0.0
G2 Y-80.7334 I5.55 J9.61288
G2 X-27.45796 Y-81.78761 I5.55 J-9.61288
G1 F300.0 X-26.43913 Y-80.55392
G2 F800.0 X-21.82613 Y-90.34629 I-8.08701 J-9.79236
G2 X-40.87613 Y-101.34481 I-12.7 J0.0
G2 Y-79.34776 I6.35 J10.99852
G2 X-26.43913 Y-80.55392 I6.35 J-10.99852
G1 F300.0 X-25.42029 Y-79.32024
G2 F800.0 X-20.22613 Y-90.34629 I-9.10584 J-11.02604
G2 X-41.67613 Y-102.73045 I-14.3 J0.0
G2 Y-77.96212 I7.15 J12.38416
G2 X-25.42029 Y-79.32024 I7.15 J-12.38416
G1 F300.0 X-24.40146 Y-78.08656
G2 F800.0 X-18.62613 Y-90.34629 I-10.12468 J-12.25973
G2 X-42.47613 Y-104.11609 I-15.9 J0.0
G2 Y-76.57648 I7.95 J13.7698
G2 X-24.40146 Y-78.08656 I7.95 J-13.7698
G1 F300.0 X-23.38262 Y-76.85287
G2 F800.0 X-17.02613 Y-90.34629 I-11.14351 J-13.49341
G2 X-43.27613 Y-105.50173 I-17.5 J0.0
G2 Y-75.19084 I8.75 J15.15544
G2 X-23.38262 Y-76.85287 I8.75 J-15.15544
G0 Z3.0
G0 X-34.08039 Y-89.80655
G0 Z-5.0
G1 F300.0 Z-8.0
G2 F800.0 X-33.82613 Y-90.34629 I-0.44574 J-0.53974
G2 X-34.87613 Y-90.9525 I-0.7 J0.0
G2 Y-89.74007 I0.35 J0.60622
G2 X-34.08039 Y-89.80655 I0.35 J-0.60622
G1 F300.0 X-33.57098 Y-89.18971
G2 F800.0 X-33.02613 Y-90.34629 I-0.95516 J-1.15658
G2 X-35.27613 Y-91.64532 I-1.5 J0.0
G2 Y-89.04725 I0.75 J1.29904
G2 X-33.57098 Y-89.18971 I0.75 J-1.29904
G1 F300.0 X-32.55214 Y-87.95602
G2 F800.0 X-31.42613 Y-90.34629 I-1.97399 J-2.39026
G2 X-36.07613 Y-93.03096 I-3.1 J0.0
G2 Y-87.66161 I1.55 J2.68468
G2 X-32.55214 Y-87.95602 I1.55 J-2.68468
G1 F300.0 X-31.53331 Y-86.72234
G2 F800.0 X-29.82613 Y-90.34629 I-2.99283 J-3.62394
G2 X-36.87613 Y-94.41661 I-4.7 J0.0
G2 Y-86.27597 I2.35 J4.07032
G2 X-31.53331 Y-86.72234 I2.35 J-4.07032
G1 F300.0 X-30.51447 Y-85.48866
G2 F800.0 X-28.22613 Y-90.34629 I-4.01166 J-4.85763
G2 X-37.67613 Y-95.80225 I-6.3 J0.0
G2 Y-84.89033 I3.15 J5.45596
G2 X-30.51447 Y-85.48866 I3.15 J-5.45596
G1 F300.0 X-29.49563 Y-84.25497
G2 F800.0 X-26.62613 Y-90.34629 I-5.0305 J-6.09131
G2 X-38.47613 Y-97.18789 I-7.9 J0.0
G2 Y-83.50469 I3.95 J6.8416
G2 X-29.49563 Y-84.25497 I3.95 J-6.8416
G1 F300.0 X-28.4768 Y-83.02129
G2 F800.0 X-25.02613 Y-90.34629 I-6.04933 J-7.32499
G2 X-39.27613 Y-98.57353 I-9.5 J0.0
G2 Y-82.11904 I4.75 J8.22724
G2 X-28.4768 Y-83.02129 I4.75 J-8.22724
G1 F300.0 X-27.45796 Y-81.78761
G2 F800.0 X-23.42613 Y-90.34629 I-7.06817 J-8.55868
G2 X-40.07613 Y-99.95917 I-11.1 J0.0
G2 Y-80.7334 I5.55 J9.61288
G2 X-27.45796 Y-81.78761 I5.55 J-9.61288
G1 F300.0 X-26.43913 Y-80.55392
G2 F800.0 X-21.82613 Y-90.34629 I-8.08701 J-9.79236
G2 X-40.87613 Y-101.34481 I-12.7 J0.0
G2 Y-79.34776 I6.35 J10.99852
G2 X-26.43913 Y-80.55392 I6.35 J-10.99852
G1 F300.0 X-25.42029 Y-79.32024
G2 F800.0 X-20.22613 Y-90.34629 I-9.10584 J-11.02604
G2 X-41.67613 Y-102.73045 I-14.3 J0.0
G2 Y-77.96212 I7.15 J12.38416
G2 X-25.42029 Y-79.32024 I7.15 J-12.38416
G1 F300.0 X-24.40146 Y-78.08656
G2 F800.0 X-18.62613 Y-90.34629 I-10.12468 J-12.25973
G2 X-42.47613 Y-104.11609 I-15.9 J0.0
G2 Y-76.57648 I7.95 J13.7698
G2 X-24.40146 Y-78.08656 I7.95 J-13.7698
G1 F300.0 X-23.38262 Y-76.85287
G2 F800.0 X-17.02613 Y-90.34629 I-11.14351 J-13.49341
G2 X-43.27613 Y-105.50173 I-17.5 J0.0
G2 Y-75.19084 I8.75 J15.15544
G2 X-23.38262 Y-76.85287 I8.75 J-15.15544
G0 Z3.0
G0 X-34.08039 Y-89.80655
G0 Z-7.0
G1 F300.0 Z-10.0
G2 F800.0 X-33.82613 Y-90.34629 I-0.44574 J-0.53974
G2 X-34.87613 Y-90.9525 I-0.7 J0.0
G2 Y-89.74007 I0.35 J0.60622
G2 X-34.08039 Y-89.80655 I0.35 J-0.60622
G1 F300.0 X-33.57098 Y-89.18971
G2 F800.0 X-33.02613 Y-90.34629 I-0.95516 J-1.15658
G2 X-35.27613 Y-91.64532 I-1.5 J0.0
G2 Y-89.04725 I0.75 J1.29904
G2 X-33.57098 Y-89.18971 I0.75 J-1.29904
G1 F300.0 X-32.55214 Y-87.95602
G2 F800.0 X-31.42613 Y-90.34629 I-1.97399 J-2.39026
G2 X-36.07613 Y-93.03096 I-3.1 J0.0
G2 Y-87.66161 I1.55 J2.68468
G2 X-32.55214 Y-87.95602 I1.55 J-2.68468
G1 F300.0 X-31.53331 Y-86.72234
G2 F800.0 X-29.82613 Y-90.34629 I-2.99283 J-3.62394
G2 X-36.87613 Y-94.41661 I-4.7 J0.0
G2 Y-86.27597 I2.35 J4.07032
G2 X-31.53331 Y-86.72234 I2.35 J-4.07032
G1 F300.0 X-30.51447 Y-85.48866
G2 F800.0 X-28.22613 Y-90.34629 I-4.01166 J-4.85763
G2 X-37.67613 Y-95.80225 I-6.3 J0.0
G2 Y-84.89033 I3.15 J5.45596
G2 X-30.51447 Y-85.48866 I3.15 J-5.45596
G1 F300.0 X-29.49563 Y-84.25497
G2 F800.0 X-26.62613 Y-90.34629 I-5.0305 J-6.09131
G2 X-38.47613 Y-97.18789 I-7.9 J0.0
G2 Y-83.50469 I3.95 J6.8416
G2 X-29.49563 Y-84.25497 I3.95 J-6.8416
G1 F300.0 X-28.4768 Y-83.02129
G2 F800.0 X-25.02613 Y-90.34629 I-6.04933 J-7.32499
G2 X-39.27613 Y-98.57353 I-9.5 J0.0
G2 Y-82.11904 I4.75 J8.22724
G2 X-28.4768 Y-83.02129 I4.75 J-8.22724
G1 F300.0 X-27.45796 Y-81.78761
G2 F800.0 X-23.42613 Y-90.34629 I-7.06817 J-8.55868
G2 X-40.07613 Y-99.95917 I-11.1 J0.0
G2 Y-80.7334 I5.55 J9.61288
G2 X-27.45796 Y-81.78761 I5.55 J-9.61288
G1 F300.0 X-26.43913 Y-80.55392
G2 F800.0 X-21.82613 Y-90.34629 I-8.08701 J-9.79236
G2 X-40.87613 Y-101.34481 I-12.7 J0.0
G2 Y-79.34776 I6.35 J10.99852
G2 X-26.43913 Y-80.55392 I6.35 J-10.99852
G1 F300.0 X-25.42029 Y-79.32024
G2 F800.0 X-20.22613 Y-90.34629 I-9.10584 J-11.02604
G2 X-41.67613 Y-102.73045 I-14.3 J0.0
G2 Y-77.96212 I7.15 J12.38416
G2 X-25.42029 Y-79.32024 I7.15 J-12.38416
G1 F300.0 X-24.40146 Y-78.08656
G2 F800.0 X-18.62613 Y-90.34629 I-10.12468 J-12.25973
G2 X-42.47613 Y-104.11609 I-15.9 J0.0
G2 Y-76.57648 I7.95 J13.7698
G2 X-24.40146 Y-78.08656 I7.95 J-13.7698
G1 F300.0 X-23.38262 Y-76.85287
G2 F800.0 X-17.02613 Y-90.34629 I-11.14351 J-13.49341
G2 X-43.27613 Y-105.50173 I-17.5 J0.0
G2 Y-75.19084 I8.75 J15.15544
G2 X-23.38262 Y-76.85287 I8.75 J-15.15544
G0 Z3.0
G0 X-34.08039 Y-89.80655
G0 Z-9.0
G1 F300.0 Z-12.0
G2 F800.0 X-33.82613 Y-90.34629 I-0.44574 J-0.53974
G2 X-34.87613 Y-90.9525 I-0.7 J0.0
G2 Y-89.74007 I0.35 J0.60622
G2 X-34.08039 Y-89.80655 I0.35 J-0.60622
G1 F300.0 X-33.57098 Y-89.18971
G2 F800.0 X-33.02613 Y-90.34629 I-0.95516 J-1.15658
G2 X-35.27613 Y-91.64532 I-1.5 J0.0
G2 Y-89.04725 I0.75 J1.29904
G2 X-33.57098 Y-89.18971 I0.75 J-1.29904
G1 F300.0 X-32.55214 Y-87.95602
G2 F800.0 X-31.42613 Y-90.34629 I-1.97399 J-2.39026
G2 X-36.07613 Y-93.03096 I-3.1 J0.0
G2 Y-87.66161 I1.55 J2.68468
G2 X-32.55214 Y-87.95602 I1.55 J-2.68468
G1 F300.0 X-31.53331 Y-86.72234
G2 F800.0 X-29.82613 Y-90.34629 I-2.99283 J-3.62394
G2 X-36.87613 Y-94.41661 I-4.7 J0.0
G2 Y-86.27597 I2.35 J4.07032
G2 X-31.53331 Y-86.72234 I2.35 J-4.07032
G1 F300.0 X-30.51447 Y-85.48866
G2 F800.0 X-28.22613 Y-90.34629 I-4.01166 J-4.85763
G2 X-37.67613 Y-95.80225 I-6.3 J0.0
G2 Y-84.89033 I3.15 J5.45596
G2 X-30.51447 Y-85.48866 I3.15 J-5.45596
G1 F300.0 X-29.49563 Y-84.25497
G2 F800.0 X-26.62613 Y-90.34629 I-5.0305 J-6.09131
G2 X-38.47613 Y-97.18789 I-7.9 J0.0
G2 Y-83.50469 I3.95 J6.8416
G2 X-29.49563 Y-84.25497 I3.95 J-6.8416
G1 F300.0 X-28.4768 Y-83.02129
G2 F800.0 X-25.02613 Y-90.34629 I-6.04933 J-7.32499
G2 X-39.27613 Y-98.57353 I-9.5 J0.0
G2 Y-82.11904 I4.75 J8.22724
G2 X-28.4768 Y-83.02129 I4.75 J-8.22724
G1 F300.0 X-27.45796 Y-81.78761
G2 F800.0 X-23.42613 Y-90.34629 I-7.06817 J-8.55868
G2 X-40.07613 Y-99.95917 I-11.1 J0.0
G2 Y-80.7334 I5.55 J9.61288
G2 X-27.45796 Y-81.78761 I5.55 J-9.61288
G1 F300.0 X-26.43913 Y-80.55392
G2 F800.0 X-21.82613 Y-90.34629 I-8.08701 J-9.79236
G2 X-40.87613 Y-101.34481 I-12.7 J0.0
G2 Y-79.34776 I6.35 J10.99852
G2 X-26.43913 Y-80.55392 I6.35 J-10.99852
G1 F300.0 X-25.42029 Y-79.32024
G2 F800.0 X-20.22613 Y-90.34629 I-9.10584 J-11.02604
G2 X-41.67613 Y-102.73045 I-14.3 J0.0
G2 Y-77.96212 I7.15 J12.38416
G2 X-25.42029 Y-79.32024 I7.15 J-12.38416
G1 F300.0 X-24.40146 Y-78.08656
G2 F800.0 X-18.62613 Y-90.34629 I-10.12468 J-12.25973
G2 X-42.47613 Y-104.11609 I-15.9 J0.0
G2 Y-76.57648 I7.95 J13.7698
G2 X-24.40146 Y-78.08656 I7.95 J-13.7698
G1 F300.0 X-23.38262 Y-76.85287
G2 F800.0 X-17.02613 Y-90.34629 I-11.14351 J-13.49341
G2 X-43.27613 Y-105.50173 I-17.5 J0.0
G2 Y-75.19084 I8.75 J15.15544
G2 X-23.38262 Y-76.85287 I8.75 J-15.15544
G0 Z3.0
G0 X-34.08039 Y-89.80655
G0 Z-11.0
G1 F300.0 Z-14.0
G2 F800.0 X-33.82613 Y-90.34629 I-0.44574 J-0.53974
G2 X-34.87613 Y-90.9525 I-0.7 J0.0
G2 Y-89.74007 I0.35 J0.60622
G2 X-34.08039 Y-89.80655 I0.35 J-0.60622
G1 F300.0 X-33.57098 Y-89.18971
G2 F800.0 X-33.02613 Y-90.34629 I-0.95516 J-1.15658
G2 X-35.27613 Y-91.64532 I-1.5 J0.0
G2 Y-89.04725 I0.75 J1.29904
G2 X-33.57098 Y-89.18971 I0.75 J-1.29904
G1 F300.0 X-32.55214 Y-87.95602
G2 F800.0 X-31.42613 Y-90.34629 I-1.97399 J-2.39026
G2 X-36.07613 Y-93.03096 I-3.1 J0.0
G2 Y-87.66161 I1.55 J2.68468
G2 X-32.55214 Y-87.95602 I1.55 J-2.68468
G1 F300.0 X-31.53331 Y-86.72234
G2 F800.0 X-29.82613 Y-90.34629 I-2.99283 J-3.62394
G2 X-36.87613 Y-94.41661 I-4.7 J0.0
G2 Y-86.27597 I2.35 J4.07032
G2 X-31.53331 Y-86.72234 I2.35 J-4.07032
G1 F300.0 X-30.51447 Y-85.48866
G2 F800.0 X-28.22613 Y-90.34629 I-4.01166 J-4.85763
G2 X-37.67613 Y-95.80225 I-6.3 J0.0
G2 Y-84.89033 I3.15 J5.45596
G2 X-30.51447 Y-85.48866 I3.15 J-5.45596
G1 F300.0 X-29.49563 Y-84.25497
G2 F800.0 X-26.62613 Y-90.34629 I-5.0305 J-6.09131
G2 X-38.47613 Y-97.18789 I-7.9 J0.0
G2 Y-83.50469 I3.95 J6.8416
G2 X-29.49563 Y-84.25497 I3.95 J-6.8416
G1 F300.0 X-28.4768 Y-83.02129
G2 F800.0 X-25.02613 Y-90.34629 I-6.04933 J-7.32499
G2 X-39.27613 Y-98.57353 I-9.5 J0.0
G2 Y-82.11904 I4.75 J8.22724
G2 X-28.4768 Y-83.02129 I4.75 J-8.22724
G1 F300.0 X-27.45796 Y-81.78761
G2 F800.0 X-23.42613 Y-90.34629 I-7.06817 J-8.55868
G2 X-40.07613 Y-99.95917 I-11.1 J0.0
G2 Y-80.7334 I5.55 J9.61288
G2 X-27.45796 Y-81.78761 I5.55 J-9.61288
G1 F300.0 X-26.43913 Y-80.55392
G2 F800.0 X-21.82613 Y-90.34629 I-8.08701 J-9.79236
G2 X-40.87613 Y-101.34481 I-12.7 J0.0
G2 Y-79.34776 I6.35 J10.99852
G2 X-26.43913 Y-80.55392 I6.35 J-10.99852
G1 F300.0 X-25.42029 Y-79.32024
G2 F800.0 X-20.22613 Y-90.34629 I-9.10584 J-11.02604
G2 X-41.67613 Y-102.73045 I-14.3 J0.0
G2 Y-77.96212 I7.15 J12.38416
G2 X-25.42029 Y-79.32024 I7.15 J-12.38416
G1 F300.0 X-24.40146 Y-78.08656
G2 F800.0 X-18.62613 Y-90.34629 I-10.12468 J-12.25973
G2 X-42.47613 Y-104.11609 I-15.9 J0.0
G2 Y-76.57648 I7.95 J13.7698
G2 X-24.40146 Y-78.08656 I7.95 J-13.7698
G1 F300.0 X-23.38262 Y-76.85287
G2 F800.0 X-17.02613 Y-90.34629 I-11.14351 J-13.49341
G2 X-43.27613 Y-105.50173 I-17.5 J0.0
G2 Y-75.19084 I8.75 J15.15544
G2 X-23.38262 Y-76.85287 I8.75 J-15.15544
G0 Z3.0
G0 X-34.08039 Y-89.80655
G0 Z-13.0
G1 F300.0 Z-16.0
G2 F800.0 X-33.82613 Y-90.34629 I-0.44574 J-0.53974
G2 X-34.87613 Y-90.9525 I-0.7 J0.0
G2 Y-89.74007 I0.35 J0.60622
G2 X-34.08039 Y-89.80655 I0.35 J-0.60622
G1 F300.0 X-33.57098 Y-89.18971
G2 F800.0 X-33.02613 Y-90.34629 I-0.95516 J-1.15658
G2 X-35.27613 Y-91.64532 I-1.5 J0.0
G2 Y-89.04725 I0.75 J1.29904
G2 X-33.57098 Y-89.18971 I0.75 J-1.29904
G1 F300.0 X-32.55214 Y-87.95602
G2 F800.0 X-31.42613 Y-90.34629 I-1.97399 J-2.39026
G2 X-36.07613 Y-93.03096 I-3.1 J0.0
G2 Y-87.66161 I1.55 J2.68468
G2 X-32.55214 Y-87.95602 I1.55 J-2.68468
G1 F300.0 X-31.53331 Y-86.72234
G2 F800.0 X-29.82613 Y-90.34629 I-2.99283 J-3.62394
G2 X-36.87613 Y-94.41661 I-4.7 J0.0
G2 Y-86.27597 I2.35 J4.07032
G2 X-31.53331 Y-86.72234 I2.35 J-4.07032
G1 F300.0 X-30.51447 Y-85.48866
G2 F800.0 X-28.22613 Y-90.34629 I-4.01166 J-4.85763
G2 X-37.67613 Y-95.80225 I-6.3 J0.0
G2 Y-84.89033 I3.15 J5.45596
G2 X-30.51447 Y-85.48866 I3.15 J-5.45596
G1 F300.0 X-29.49563 Y-84.25497
G2 F800.0 X-26.62613 Y-90.34629 I-5.0305 J-6.09131
G2 X-38.47613 Y-97.18789 I-7.9 J0.0
G2 Y-83.50469 I3.95 J6.8416
G2 X-29.49563 Y-84.25497 I3.95 J-6.8416
G1 F300.0 X-28.4768 Y-83.02129
G2 F800.0 X-25.02613 Y-90.34629 I-6.04933 J-7.32499
G2 X-39.27613 Y-98.57353 I-9.5 J0.0
G2 Y-82.11904 I4.75 J8.22724
G2 X-28.4768 Y-83.02129 I4.75 J-8.22724
G1 F300.0 X-27.45796 Y-81.78761
G2 F800.0 X-23.42613 Y-90.34629 I-7.06817 J-8.55868
G2 X-40.07613 Y-99.95917 I-11.1 J0.0
G2 Y-80.7334 I5.55 J9.61288
G2 X-27.45796 Y-81.78761 I5.55 J-9.61288
G1 F300.0 X-26.43913 Y-80.55392
G2 F800.0 X-21.82613 Y-90.34629 I-8.08701 J-9.79236
G2 X-40.87613 Y-101.34481 I-12.7 J0.0
G2 Y-79.34776 I6.35 J10.99852
G2 X-26.43913 Y-80.55392 I6.35 J-10.99852
G1 F300.0 X-25.42029 Y-79.32024
G2 F800.0 X-20.22613 Y-90.34629 I-9.10584 J-11.02604
G2 X-41.67613 Y-102.73045 I-14.3 J0.0
G2 Y-77.96212 I7.15 J12.38416
G2 X-25.42029 Y-79.32024 I7.15 J-12.38416
G1 F300.0 X-24.40146 Y-78.08656
G2 F800.0 X-18.62613 Y-90.34629 I-10.12468 J-12.25973
G2 X-42.47613 Y-104.11609 I-15.9 J0.0
G2 Y-76.57648 I7.95 J13.7698
G2 X-24.40146 Y-78.08656 I7.95 J-13.7698
G1 F300.0 X-23.38262 Y-76.85287
G2 F800.0 X-17.02613 Y-90.34629 I-11.14351 J-13.49341
G2 X-43.27613 Y-105.50173 I-17.5 J0.0
G2 Y-75.19084 I8.75 J15.15544
G2 X-23.38262 Y-76.85287 I8.75 J-15.15544
G0 Z3.0
G0 X-34.08039 Y-89.80655
G0 Z-15.0
G1 F300.0 Z-18.0
G2 F800.0 X-33.82613 Y-90.34629 I-0.44574 J-0.53974
G2 X-34.87613 Y-90.9525 I-0.7 J0.0
G2 Y-89.74007 I0.35 J0.60622
G2 X-34.08039 Y-89.80655 I0.35 J-0.60622
G1 F300.0 X-33.57098 Y-89.18971
G2 F800.0 X-33.02613 Y-90.34629 I-0.95516 J-1.15658
G2 X-35.27613 Y-91.64532 I-1.5 J0.0
G2 Y-89.04725 I0.75 J1.29904
G2 X-33.57098 Y-89.18971 I0.75 J-1.29904
G1 F300.0 X-32.55214 Y-87.95602
G2 F800.0 X-31.42613 Y-90.34629 I-1.97399 J-2.39026
G2 X-36.07613 Y-93.03096 I-3.1 J0.0
G2 Y-87.66161 I1.55 J2.68468
G2 X-32.55214 Y-87.95602 I1.55 J-2.68468
G1 F300.0 X-31.53331 Y-86.72234
G2 F800.0 X-29.82613 Y-90.34629 I-2.99283 J-3.62394
G2 X-36.87613 Y-94.41661 I-4.7 J0.0
G2 Y-86.27597 I2.35 J4.07032
G2 X-31.53331 Y-86.72234 I2.35 J-4.07032
G1 F300.0 X-30.51447 Y-85.48866
G2 F800.0 X-28.22613 Y-90.34629 I-4.01166 J-4.85763
G2 X-37.67613 Y-95.80225 I-6.3 J0.0
G2 Y-84.89033 I3.15 J5.45596
G2 X-30.51447 Y-85.48866 I3.15 J-5.45596
G1 F300.0 X-29.49563 Y-84.25497
G2 F800.0 X-26.62613 Y-90.34629 I-5.0305 J-6.09131
G2 X-38.47613 Y-97.18789 I-7.9 J0.0
G2 Y-83.50469 I3.95 J6.8416
G2 X-29.49563 Y-84.25497 I3.95 J-6.8416
G1 F300.0 X-28.4768 Y-83.02129
G2 F800.0 X-25.02613 Y-90.34629 I-6.04933 J-7.32499
G2 X-39.27613 Y-98.57353 I-9.5 J0.0
G2 Y-82.11904 I4.75 J8.22724
G2 X-28.4768 Y-83.02129 I4.75 J-8.22724
G1 F300.0 X-27.45796 Y-81.78761
G2 F800.0 X-23.42613 Y-90.34629 I-7.06817 J-8.55868
G2 X-40.07613 Y-99.95917 I-11.1 J0.0
G2 Y-80.7334 I5.55 J9.61288
G2 X-27.45796 Y-81.78761 I5.55 J-9.61288
G1 F300.0 X-26.43913 Y-80.55392
G2 F800.0 X-21.82613 Y-90.34629 I-8.08701 J-9.79236
G2 X-40.87613 Y-101.34481 I-12.7 J0.0
G2 Y-79.34776 I6.35 J10.99852
G2 X-26.43913 Y-80.55392 I6.35 J-10.99852
G1 F300.0 X-25.42029 Y-79.32024
G2 F800.0 X-20.22613 Y-90.34629 I-9.10584 J-11.02604
G2 X-41.67613 Y-102.73045 I-14.3 J0.0
G2 Y-77.96212 I7.15 J12.38416
G2 X-25.42029 Y-79.32024 I7.15 J-12.38416
G1 F300.0 X-24.40146 Y-78.08656
