; generated by PrusaSlicer 2.4.2+win64 on 2022-08-13 at 07:28:40 UTC

; 

; external perimeters extrusion width = 0.45mm
; perimeters extrusion width = 0.45mm
; infill extrusion width = 0.45mm
; solid infill extrusion width = 0.45mm
; top infill extrusion width = 0.40mm
; first layer extrusion width = 0.42mm

; external perimeters extrusion width = 0.45mm
; perimeters extrusion width = 0.45mm
; infill extrusion width = 0.45mm
; solid infill extrusion width = 0.45mm
; top infill extrusion width = 0.40mm
; first layer extrusion width = 0.42mm

; external perimeters extrusion width = 0.45mm
; perimeters extrusion width = 0.45mm
; infill extrusion width = 0.45mm
; solid infill extrusion width = 0.45mm
; top infill extrusion width = 0.40mm
; first layer extrusion width = 0.42mm

M73 P0 R96
M107
;TYPE:Custom
M862.3 P "MK2S" ; printer model check
M862.1 P0.4 ; nozzle diameter check
M115 U3.2.3 ; tell printer latest fw version
G90 ; use absolute coordinates
M83 ; extruder relative mode
M204 S2000 T1500 ; MK2 firmware only supports the old M204 format
M104 S215 ; set extruder temp
M140 S60 ; set bed temp
M190 S60 ; wait for bed temp
M109 S215 ; wait for extruder temp
G28 W ; home all without mesh bed level
G80 ; mesh bed leveling
G1 Y-3.0 F1000.0 ; go outside print area
G92 E0.0
G1 X60.0 E9.0  F1000.0 ; intro line
G1 X100.0 E12.5 F1000.0 ; intro line
G92 E0.0
G21 ; set units to millimeters
G90 ; use absolute coordinates
M83 ; use relative distances for extrusion
M900 K0.05 ; Filament gcode LA 1.5
M900 K30 ; Filament gcode LA 1.0
M107
;LAYER_CHANGE
;Z:0.2
;HEIGHT:0.2
;BEFORE_LAYER_CHANGE
G92 E0.0
;0.2


G1 E-.8 F2100
G1 Z.4 F10800
;AFTER_LAYER_CHANGE
;0.2
G1 X87.134 Y77.064
G1 Z.2
G1 E.8 F2100
M204 S1000
;TYPE:Skirt/Brim
;WIDTH:0.42
G1 F1200
G1 X88.162 Y76.317 E.03981
G1 X89.264 Y75.861 E.03742
G1 X90.518 Y75.662 E.03981
G1 X127.891 Y75.662 E1.1718
G1 X128.708 Y75.756 E.02578
G1 X129.5 Y75.976 E.02578
G1 X130.655 Y76.567 E.04067
G1 X191.512 Y114.832 E2.25399
G1 X192.41 Y115.859 E.04278
G1 X192.624 Y116.844 E.03161
G1 X192.624 Y148.71 E.99914
G1 X192.233 Y150.017 E.04278
G1 X191.187 Y150.893 E.04278
G1 X190.42 Y151.081 E.02475
G1 X119.337 Y156.268 E2.2347
G1 X81.977 Y156.267 E1.17138
G1 X80.723 Y156.069 E.03981
G1 X79.953 Y155.781 E.02578
G1 X78.935 Y155.158 E.03742
G1 X78.33 Y154.602 E.02578
G1 X77.583 Y153.575 E.03981
G1 X77.242 Y152.827 E.02578
G1 X77.022 Y152.035 E.02578
G1 X76.928 Y151.218 E.02578
G1 X76.963 Y125.397 E.80961
G1 X85.539 Y80.008 E1.44832
G1 X85.783 Y79.103 E.02939
G1 X86.359 Y77.971 E.03981
G1 X87.096 Y77.109 E.03554
; printing object Mount.stl id:2 copy 0
;WIPE_START
G1 F8640
G1 X88.162 Y76.317 E-.30667
G1 X89.264 Y75.861 E-.27557
G1 X90.025 Y75.74 E-.17776
;WIPE_END
G1 E-.04 F2100
G1 Z.6 F10800
G1 X143.034 Y118.079
G1 Z.2
G1 E.8 F2100
;TYPE:Perimeter
G1 F1200
G1 X143.96 Y118.079 E.02903
G1 X143.96 Y142.997 E.78129
G1 X188.534 Y142.997 E1.39759
G1 X188.534 Y118.079 E.78129
G1 X189.46 Y118.079 E.02903
G1 X189.46 Y147.923 E.93573
G1 X143.034 Y147.923 E1.45565
G1 X143.034 Y118.139 E.93385
G1 X142.657 Y117.702 F10800
;TYPE:External perimeter
G1 F1200
G1 X144.337 Y117.702 E.05268
G1 X144.337 Y142.62 E.78129
G1 X188.157 Y142.62 E1.37395
G1 X188.157 Y117.702 E.78129
G1 X189.837 Y117.702 E.05268
M73 P0 R95
G1 X189.837 Y148.3 E.95938
G1 X142.657 Y148.3 E1.4793
G1 X142.657 Y117.762 E.9575
G1 X143.05 Y117.778 F10800
;WIPE_START
G1 F8640
G1 X144.337 Y117.702 E-.38816
G1 X144.337 Y119.312 E-.37184
;WIPE_END
G1 E-.04 F2100
G1 Z.6 F10800
G1 X188.647 Y118.257
G1 Z.2
G1 E.8 F2100
;TYPE:Solid infill
;WIDTH:0.420836
G1 F1200
G1 X189.177 Y118.787 E.02355
G1 X189.177 Y119.321 E.01679
G1 X188.817 Y118.961 E.01601
G1 X188.817 Y119.495 E.01679
G1 X189.177 Y119.856 E.01601
G1 X189.177 Y120.39 E.01679
G1 X188.817 Y120.03 E.01601
G1 X188.817 Y120.564 E.01679
G1 X189.177 Y120.924 E.01601
G1 X189.177 Y121.459 E.01679
G1 X188.817 Y121.099 E.01601
G1 X188.817 Y121.633 E.01679
G1 X189.177 Y121.993 E.01601
G1 X189.177 Y122.528 E.01679
G1 X188.817 Y122.168 E.01601
G1 X188.817 Y122.702 E.01679
G1 X189.177 Y123.062 E.01601
G1 X189.177 Y123.597 E.01679
G1 X188.817 Y123.236 E.01601
G1 X188.817 Y123.771 E.01679
G1 X189.177 Y124.131 E.01601
G1 X189.177 Y124.666 E.01679
G1 X188.817 Y124.305 E.01601
G1 X188.817 Y124.84 E.01679
G1 X189.177 Y125.2 E.01601
G1 X189.177 Y125.735 E.01679
G1 X188.817 Y125.374 E.01601
G1 X188.817 Y125.909 E.01679
G1 X189.177 Y126.269 E.01601
G1 X189.177 Y126.803 E.01679
G1 X188.817 Y126.443 E.01601
G1 X188.817 Y126.978 E.01679
G1 X189.177 Y127.338 E.01601
G1 X189.177 Y127.872 E.01679
G1 X188.817 Y127.512 E.01601
G1 X188.817 Y128.047 E.01679
G1 X189.177 Y128.407 E.01601
G1 X189.177 Y128.941 E.01679
G1 X188.817 Y128.581 E.01601
G1 X188.817 Y129.115 E.01679
G1 X189.177 Y129.476 E.01601
G1 X189.177 Y130.01 E.01679
G1 X188.817 Y129.65 E.01601
G1 X188.817 Y130.184 E.01679
G1 X189.177 Y130.545 E.01601
G1 X189.177 Y131.079 E.01679
G1 X188.817 Y130.719 E.01601
G1 X188.817 Y131.253 E.01679
G1 X189.177 Y131.614 E.01601
G1 X189.177 Y132.148 E.01679
G1 X188.817 Y131.788 E.01601
G1 X188.817 Y132.322 E.01679
G1 X189.177 Y132.682 E.01601
G1 X189.177 Y133.217 E.01679
G1 X188.817 Y132.857 E.01601
G1 X188.817 Y133.391 E.01679
G1 X189.177 Y133.751 E.01601
G1 X189.177 Y134.286 E.01679
G1 X188.817 Y133.926 E.01601
G1 X188.817 Y134.46 E.01679
G1 X189.177 Y134.82 E.01601
G1 X189.177 Y135.355 E.01679
G1 X188.817 Y134.994 E.01601
G1 X188.817 Y135.529 E.01679
G1 X189.177 Y135.889 E.01601
G1 X189.177 Y136.424 E.01679
G1 X188.817 Y136.063 E.01601
G1 X188.817 Y136.598 E.01679
G1 X189.177 Y136.958 E.01601
G1 X189.177 Y137.493 E.01679
G1 X188.817 Y137.132 E.01601
G1 X188.817 Y137.667 E.01679
G1 X189.177 Y138.027 E.01601
G1 X189.177 Y138.561 E.01679
G1 X188.817 Y138.201 E.01601
G1 X188.817 Y138.736 E.01679
G1 X189.177 Y139.096 E.01601
G1 X189.177 Y139.63 E.01679
G1 X188.817 Y139.27 E.01601
G1 X188.817 Y139.805 E.01679
G1 X189.177 Y140.165 E.01601
G1 X189.177 Y140.699 E.01679
G1 X188.817 Y140.339 E.01601
G1 X188.817 Y140.873 E.01679
G1 X189.177 Y141.234 E.01601
G1 X189.177 Y141.768 E.01679
G1 X188.817 Y141.408 E.01601
G1 X188.817 Y141.942 E.01679
G1 X189.177 Y142.303 E.01601
G1 X189.177 Y142.837 E.01679
G1 X188.817 Y142.477 E.01601
G1 X188.817 Y143.011 E.01679
G1 X189.177 Y143.372 E.01601
G1 X189.177 Y143.906 E.01679
G1 X188.551 Y143.28 E.02782
G1 X188.017 Y143.28 E.01679
G1 X189.177 Y144.44 E.05157
G1 X189.177 Y144.975 E.01679
G1 X187.482 Y143.28 E.07532
G1 X186.948 Y143.28 E.01679
G1 X189.177 Y145.509 E.09907
G1 X189.177 Y146.044 E.01679
G1 X186.413 Y143.28 E.12283
G1 X185.879 Y143.28 E.01679
G1 X189.177 Y146.578 E.14658
G1 X189.177 Y147.113 E.01679
G1 X185.344 Y143.28 E.17033
G1 X184.81 Y143.28 E.01679
G1 X189.17 Y147.64 E.19377
G1 X188.636 Y147.64 E.01679
G1 X184.276 Y143.28 E.19377
G1 X183.741 Y143.28 E.01679
G1 X188.101 Y147.64 E.19377
G1 X187.567 Y147.64 E.01679
G1 X183.207 Y143.28 E.19377
G1 X182.672 Y143.28 E.01679
G1 X187.032 Y147.64 E.19377
G1 X186.498 Y147.64 E.01679
G1 X182.138 Y143.28 E.19377
G1 X181.603 Y143.28 E.01679
G1 X185.964 Y147.64 E.19377
G1 X185.429 Y147.64 E.01679
G1 X181.069 Y143.28 E.19377
G1 X180.534 Y143.28 E.01679
G1 X184.895 Y147.64 E.19377
G1 X184.36 Y147.64 E.01679
G1 X180 Y143.28 E.19377
G1 X179.466 Y143.28 E.01679
G1 X183.826 Y147.64 E.19377
G1 X183.291 Y147.64 E.01679
G1 X178.931 Y143.28 E.19377
G1 X178.397 Y143.28 E.01679
G1 X182.757 Y147.64 E.19377
G1 X182.222 Y147.64 E.01679
G1 X177.862 Y143.28 E.19377
G1 X177.328 Y143.28 E.01679
G1 X181.688 Y147.64 E.19377
G1 X181.153 Y147.64 E.01679
G1 X176.793 Y143.28 E.19377
G1 X176.259 Y143.28 E.01679
G1 X180.619 Y147.64 E.19377
G1 X180.085 Y147.64 E.01679
G1 X175.724 Y143.28 E.19377
G1 X175.19 Y143.28 E.01679
G1 X179.55 Y147.64 E.19377
G1 X179.016 Y147.64 E.01679
G1 X174.655 Y143.28 E.19377
G1 X174.121 Y143.28 E.01679
G1 X178.481 Y147.64 E.19377
G1 X177.947 Y147.64 E.01679
G1 X173.587 Y143.28 E.19377
G1 X173.052 Y143.28 E.01679
G1 X177.412 Y147.64 E.19377
G1 X176.878 Y147.64 E.01679
M73 P1 R95
G1 X172.518 Y143.28 E.19377
G1 X171.983 Y143.28 E.01679
G1 X176.343 Y147.64 E.19377
G1 X175.809 Y147.64 E.01679
G1 X171.449 Y143.28 E.19377
G1 X170.914 Y143.28 E.01679
G1 X175.274 Y147.64 E.19377
G1 X174.74 Y147.64 E.01679
G1 X170.38 Y143.28 E.19377
G1 X169.845 Y143.28 E.01679
G1 X174.206 Y147.64 E.19377
G1 X173.671 Y147.64 E.01679
G1 X169.311 Y143.28 E.19377
G1 X168.776 Y143.28 E.01679
G1 X173.137 Y147.64 E.19377
G1 X172.602 Y147.64 E.01679
G1 X168.242 Y143.28 E.19377
G1 X167.708 Y143.28 E.01679
G1 X172.068 Y147.64 E.19377
G1 X171.533 Y147.64 E.01679
G1 X167.173 Y143.28 E.19377
G1 X166.639 Y143.28 E.01679
G1 X170.999 Y147.64 E.19377
G1 X170.464 Y147.64 E.01679
G1 X166.104 Y143.28 E.19377
G1 X165.57 Y143.28 E.01679
G1 X169.93 Y147.64 E.19377
G1 X169.395 Y147.64 E.01679
G1 X165.035 Y143.28 E.19377
G1 X164.501 Y143.28 E.01679
G1 X168.861 Y147.64 E.19377
G1 X168.327 Y147.64 E.01679
G1 X163.966 Y143.28 E.19377
G1 X163.432 Y143.28 E.01679
G1 X167.792 Y147.64 E.19377
G1 X167.258 Y147.64 E.01679
G1 X162.897 Y143.28 E.19377
G1 X162.363 Y143.28 E.01679
G1 X166.723 Y147.64 E.19377
G1 X166.189 Y147.64 E.01679
G1 X161.829 Y143.28 E.19377
G1 X161.294 Y143.28 E.01679
G1 X165.654 Y147.64 E.19377
G1 X165.12 Y147.64 E.01679
G1 X160.76 Y143.28 E.19377
G1 X160.225 Y143.28 E.01679
G1 X164.585 Y147.64 E.19377
G1 X164.051 Y147.64 E.01679
G1 X159.691 Y143.28 E.19377
G1 X159.156 Y143.28 E.01679
G1 X163.517 Y147.64 E.19377
G1 X162.982 Y147.64 E.01679
G1 X158.622 Y143.28 E.19377
G1 X158.087 Y143.28 E.01679
G1 X162.448 Y147.64 E.19377
G1 X161.913 Y147.64 E.01679
G1 X157.553 Y143.28 E.19377
G1 X157.018 Y143.28 E.01679
G1 X161.379 Y147.64 E.19377
G1 X160.844 Y147.64 E.01679
G1 X156.484 Y143.28 E.19377
G1 X155.95 Y143.28 E.01679
G1 X160.31 Y147.64 E.19377
G1 X159.775 Y147.64 E.01679
G1 X155.415 Y143.28 E.19377
G1 X154.881 Y143.28 E.01679
G1 X159.241 Y147.64 E.19377
G1 X158.706 Y147.64 E.01679
G1 X154.346 Y143.28 E.19377
G1 X153.812 Y143.28 E.01679
G1 X158.172 Y147.64 E.19377
G1 X157.638 Y147.64 E.01679
G1 X153.277 Y143.28 E.19377
G1 X152.743 Y143.28 E.01679
G1 X157.103 Y147.64 E.19377
G1 X156.569 Y147.64 E.01679
G1 X152.208 Y143.28 E.19377
G1 X151.674 Y143.28 E.01679
G1 X156.034 Y147.64 E.19377
G1 X155.5 Y147.64 E.01679
G1 X151.139 Y143.28 E.19377
G1 X150.605 Y143.28 E.01679
G1 X154.965 Y147.64 E.19377
G1 X154.431 Y147.64 E.01679
G1 X150.071 Y143.28 E.19377
G1 X149.536 Y143.28 E.01679
G1 X153.896 Y147.64 E.19377
G1 X153.362 Y147.64 E.01679
G1 X149.002 Y143.28 E.19377
G1 X148.467 Y143.28 E.01679
G1 X152.827 Y147.64 E.19377
G1 X152.293 Y147.64 E.01679
G1 X147.933 Y143.28 E.19377
G1 X147.398 Y143.28 E.01679
G1 X151.759 Y147.64 E.19377
G1 X151.224 Y147.64 E.01679
G1 X146.864 Y143.28 E.19377
G1 X146.329 Y143.28 E.01679
G1 X150.69 Y147.64 E.19377
G1 X150.155 Y147.64 E.01679
G1 X145.795 Y143.28 E.19377
G1 X145.26 Y143.28 E.01679
G1 X149.621 Y147.64 E.19377
G1 X149.086 Y147.64 E.01679
G1 X144.556 Y143.11 E.20131
;WIPE_START
G1 F8640
G1 X146.884 Y145.438 E-.76
;WIPE_END
G1 E-.04 F2100
G1 Z.6 F10800
G1 X143.847 Y118.885
G1 Z.2
G1 E.8 F2100
G1 F1200
G1 X143.317 Y118.362 E.0234
G1 X143.317 Y118.889 E.01657
G1 X143.677 Y119.25 E.01601
G1 X143.677 Y119.784 E.01679
G1 X143.317 Y119.424 E.01601
G1 X143.317 Y119.958 E.01679
G1 X143.677 Y120.319 E.01601
G1 X143.677 Y120.853 E.01679
G1 X143.317 Y120.493 E.01601
G1 X143.317 Y121.027 E.01679
G1 X143.677 Y121.387 E.01601
G1 X143.677 Y121.922 E.01679
G1 X143.317 Y121.562 E.01601
G1 X143.317 Y122.096 E.01679
G1 X143.677 Y122.456 E.01601
G1 X143.677 Y122.991 E.01679
G1 X143.317 Y122.631 E.01601
G1 X143.317 Y123.165 E.01679
G1 X143.677 Y123.525 E.01601
G1 X143.677 Y124.06 E.01679
G1 X143.317 Y123.7 E.01601
G1 X143.317 Y124.234 E.01679
G1 X143.677 Y124.594 E.01601
G1 X143.677 Y125.129 E.01679
G1 X143.317 Y124.768 E.01601
G1 X143.317 Y125.303 E.01679
G1 X143.677 Y125.663 E.01601
G1 X143.677 Y126.198 E.01679
G1 X143.317 Y125.837 E.01601
G1 X143.317 Y126.372 E.01679
G1 X143.677 Y126.732 E.01601
G1 X143.677 Y127.266 E.01679
G1 X143.317 Y126.906 E.01601
G1 X143.317 Y127.441 E.01679
G1 X143.677 Y127.801 E.01601
G1 X143.677 Y128.335 E.01679
G1 X143.317 Y127.975 E.01601
G1 X143.317 Y128.51 E.01679
G1 X143.677 Y128.87 E.01601
G1 X143.677 Y129.404 E.01679
G1 X143.317 Y129.044 E.01601
G1 X143.317 Y129.578 E.01679
G1 X143.677 Y129.939 E.01601
G1 X143.677 Y130.473 E.01679
G1 X143.317 Y130.113 E.01601
G1 X143.317 Y130.647 E.01679
G1 X143.677 Y131.008 E.01601
G1 X143.677 Y131.542 E.01679
G1 X143.317 Y131.182 E.01601
G1 X143.317 Y131.716 E.01679
G1 X143.677 Y132.077 E.01601
G1 X143.677 Y132.611 E.01679
G1 X143.317 Y132.251 E.01601
G1 X143.317 Y132.785 E.01679
G1 X143.677 Y133.145 E.01601
G1 X143.677 Y133.68 E.01679
G1 X143.317 Y133.32 E.01601
G1 X143.317 Y133.854 E.01679
G1 X143.677 Y134.214 E.01601
G1 X143.677 Y134.749 E.01679
G1 X143.317 Y134.389 E.01601
G1 X143.317 Y134.923 E.01679
G1 X143.677 Y135.283 E.01601
G1 X143.677 Y135.818 E.01679
G1 X143.317 Y135.457 E.01601
G1 X143.317 Y135.992 E.01679
G1 X143.677 Y136.352 E.01601
G1 X143.677 Y136.887 E.01679
G1 X143.317 Y136.526 E.01601
G1 X143.317 Y137.061 E.01679
G1 X143.677 Y137.421 E.01601
G1 X143.677 Y137.956 E.01679
G1 X143.317 Y137.595 E.01601
G1 X143.317 Y138.13 E.01679
G1 X143.677 Y138.49 E.01601
G1 X143.677 Y139.024 E.01679
G1 X143.317 Y138.664 E.01601
G1 X143.317 Y139.199 E.01679
G1 X143.677 Y139.559 E.01601
G1 X143.677 Y140.093 E.01679
G1 X143.317 Y139.733 E.01601
G1 X143.317 Y140.268 E.01679
G1 X143.677 Y140.628 E.01601
G1 X143.677 Y141.162 E.01679
G1 X143.317 Y140.802 E.01601
G1 X143.317 Y141.336 E.01679
G1 X143.677 Y141.697 E.01601
G1 X143.677 Y142.231 E.01679
G1 X143.317 Y141.871 E.01601
G1 X143.317 Y142.405 E.01679
G1 X143.677 Y142.766 E.01601
G1 X143.677 Y143.28 E.01616
G1 X144.192 Y143.28 E.01616
G1 X148.552 Y147.64 E.19377
G1 X148.017 Y147.64 E.01679
G1 X143.317 Y142.94 E.20888
G1 X143.317 Y143.474 E.01679
G1 X147.483 Y147.64 E.18513
G1 X146.948 Y147.64 E.01679
G1 X143.317 Y144.009 E.16138
G1 X143.317 Y144.543 E.01679
G1 X146.414 Y147.64 E.13763
G1 X145.88 Y147.64 E.01679
G1 X143.317 Y145.078 E.11388
G1 X143.317 Y145.612 E.01679
G1 X145.345 Y147.64 E.09013
G1 X144.811 Y147.64 E.01679
G1 X143.317 Y146.147 E.06638
G1 X143.317 Y146.681 E.01679
G1 X144.276 Y147.64 E.04263
G1 X143.742 Y147.64 E.01679
G1 X143.147 Y147.046 E.02641
; stop printing object Mount.stl id:2 copy 0
; printing object Box_with_extAnt.stl id:1 copy 0
;WIPE_START
G1 F8640
G1 X143.742 Y147.64 E-.1941
G1 X144.276 Y147.64 E-.12341
G1 X143.317 Y146.681 E-.31321
G1 X143.317 Y146.147 E-.12341
G1 X143.335 Y146.165 E-.00588
;WIPE_END
G1 E-.04 F2100
G1 Z.6 F10800
G1 X93.974 Y147.222
G1 Z.2
G1 E.8 F2100
;TYPE:External perimeter
;WIDTH:0.42
G1 F1200
G1 X93.969 Y151.477 E.13343
G1 X93.943 Y151.968 E.0154
G1 X93.864 Y152.752 E.02472
G1 X88.464 Y152.752 E.16933
G1 X88.384 Y151.968 E.02472
G1 X88.359 Y151.477 E.0154
G1 X88.354 Y147.222 E.13343
G1 X93.914 Y147.222 E.17435
G1 X94.365 Y147.136 F10800
;WIPE_START
G1 F8640
G1 X93.956 Y150.513 E-.76
;WIPE_END
G1 E-.04 F2100
G1 Z.6 F10800
G1 X108.224 Y140.803
G1 Z.2
G1 E.8 F2100
;TYPE:Perimeter
G1 F1200
G1 X107.951 Y140.168 E.02168
G1 X107.775 Y139.525 E.0209
G1 X107.686 Y138.865 E.0209
G1 X107.686 Y138.198 E.0209
G1 X107.73 Y137.868 E.01045
G1 X107.775 Y137.538 E.01045
G1 X107.951 Y136.895 E.0209
G1 X108.211 Y136.282 E.0209
G1 X108.551 Y135.708 E.0209
G1 X108.964 Y135.185 E.0209
G1 X109.443 Y134.722 E.0209
G1 X109.936 Y134.359 E.01921
G1 X110.561 Y134.007 E.02248
G1 X111.186 Y133.767 E.02099
G1 X111.834 Y133.612 E.0209
G1 X112.443 Y133.551 E.01921
G1 X113.16 Y133.567 E.02248
G1 X113.82 Y133.679 E.02099
G1 X114.457 Y133.876 E.0209
G1 X115.061 Y134.157 E.0209
G1 X115.623 Y134.515 E.0209
G1 X116.132 Y134.946 E.0209
G1 X116.543 Y135.4 E.01921
G1 X116.955 Y135.987 E.02248
G1 X117.257 Y136.584 E.02099
G1 X117.475 Y137.214 E.0209
G1 X117.608 Y137.867 E.0209
G1 X117.653 Y138.532 E.0209
G1 X117.608 Y139.197 E.0209
G1 X117.475 Y139.85 E.0209
G1 X117.257 Y140.479 E.0209
G1 X116.956 Y141.074 E.0209
G1 X116.579 Y141.624 E.0209
