; generated by Slic3r 1.33.8-prusa3d-win64 on 2017-04-08 at 07:55:13

; external perimeters extrusion width = 0.45mm
; perimeters extrusion width = 0.45mm
; infill extrusion width = 0.45mm
; solid infill extrusion width = 0.45mm
; top infill extrusion width = 0.45mm

M107
M115 U3.0.10 ; tell printer latest fw version
M83  ; extruder relative mode
M104 S215 ; set extruder temp
M140 S55 ; set bed temp
M190 S55 ; wait for bed temp
M109 S215 ; wait for extruder temp
G28 W ; home all without mesh bed level
G80 ; mesh bed leveling
G1 Y-3.0 F1000.0 ; go outside pritn area
G1 X60.0 E9.0  F1000.0 ; intro line
G1 X100.0 E12.5  F1000.0 ; intro line
G21 ; set units to millimeters
G90 ; use absolute coordinates
M83 ; use relative distances for extrusion
G1 E-0.80000 F2100.00000
G1 Z0.200 F7200.000
G1 X111.003 Y94.092 F7200.000
G1 E0.80000 F2100.00000
M204 S1000
G1 F2100
G1 X112.285 Y92.620 E0.06120
G1 X113.715 Y91.303 E0.06095
G1 X115.294 Y90.141 E0.06146
G1 X116.861 Y89.231 E0.05683
G1 X117.132 Y89.094 E0.00951
G1 X118.664 Y88.422 E0.05246
G1 X118.918 Y88.328 E0.00848
G1 X120.661 Y87.787 E0.05722
G1 X122.573 Y87.414 E0.06107
G1 X124.522 Y87.253 E0.06133
G1 X126.465 Y87.305 E0.06095
G1 X128.407 Y87.574 E0.06146
G1 X130.165 Y88.014 E0.05683
G1 X130.455 Y88.105 E0.00951
G1 X132.022 Y88.691 E0.05246
G1 X132.269 Y88.800 E0.00848
G1 X133.895 Y89.629 E0.05722
G1 X135.533 Y90.699 E0.06133
G1 X137.036 Y91.938 E0.06107
G1 X138.394 Y93.334 E0.06107
G1 X139.597 Y94.877 E0.06133
G1 X140.550 Y96.419 E0.05683
G1 X140.694 Y96.685 E0.00951
G1 X141.408 Y98.199 E0.05246
G1 X141.510 Y98.449 E0.00848
G1 X142.098 Y100.177 E0.05722
G1 X142.525 Y102.086 E0.06133
G1 X142.739 Y104.022 E0.06107
G1 X142.739 Y105.970 E0.06107
G1 X142.525 Y107.910 E0.06120
G1 X142.131 Y109.692 E0.05722
G1 X142.057 Y109.956 E0.00861
G1 X141.514 Y111.539 E0.05247
G1 X141.401 Y111.816 E0.00938
G1 X140.618 Y113.464 E0.05722
G1 X139.554 Y115.183 E0.06338
G1 X138.397 Y116.663 E0.05889
G1 X137.039 Y118.059 E0.06107
G1 X135.533 Y119.301 E0.06120
G1 X134.001 Y120.307 E0.05748
G1 X133.770 Y120.440 E0.00835
G1 X132.162 Y121.250 E0.05645
G1 X130.455 Y121.895 E0.05722
G1 X130.165 Y121.986 E0.00951
G1 X128.543 Y122.397 E0.05246
G1 X128.270 Y122.449 E0.00874
G1 X126.469 Y122.694 E0.05696
G1 X124.514 Y122.747 E0.06133
G1 X122.573 Y122.586 E0.06107
G1 X120.653 Y122.211 E0.06133
G1 X118.786 Y121.627 E0.06133
G1 X117.006 Y120.847 E0.06095
G1 X115.311 Y119.870 E0.06133
G1 X113.844 Y118.798 E0.05696
G1 X113.610 Y118.605 E0.00951
G1 X112.376 Y117.469 E0.05259
G1 X112.183 Y117.268 E0.00874
G1 X110.988 Y115.889 E0.05721
G1 X109.960 Y114.411 E0.05645
G1 X109.816 Y114.177 E0.00861
G1 X108.952 Y112.570 E0.05722
G1 X108.217 Y110.757 E0.06133
G1 X107.687 Y108.883 E0.06107
G1 X107.367 Y106.969 E0.06082
G1 X107.257 Y105.008 E0.06159
G1 X107.353 Y103.186 E0.05722
G1 X107.383 Y102.917 E0.00848
G1 X107.658 Y101.266 E0.05247
G1 X107.723 Y100.974 E0.00938
G1 X108.222 Y99.228 E0.05696
G1 X108.957 Y97.419 E0.06120
G1 X109.884 Y95.706 E0.06107
G1 X110.967 Y94.140 E0.05971
G1 X111.298 Y94.328 F7200.000
G1 F2100
G1 X112.549 Y92.890 E0.05979
G1 X113.874 Y91.665 E0.05657
G1 X115.399 Y90.527 E0.05966
G1 X115.619 Y90.384 E0.00821
G1 X117.171 Y89.492 E0.05611
G1 X118.924 Y88.724 E0.06003
G1 X120.744 Y88.155 E0.05979
G1 X122.623 Y87.788 E0.06003
G1 X124.531 Y87.630 E0.06003
G1 X126.437 Y87.682 E0.05979
G1 X128.334 Y87.944 E0.06003
G1 X130.073 Y88.380 E0.05621
G1 X130.320 Y88.457 E0.00812
G1 X132.101 Y89.138 E0.05978
G1 X133.705 Y89.954 E0.05645
G1 X135.308 Y91.002 E0.06003
G1 X136.779 Y92.214 E0.05979
G1 X138.110 Y93.581 E0.05979
G1 X139.286 Y95.091 E0.06003
G1 X140.229 Y96.616 E0.05621
G1 X140.352 Y96.844 E0.00812
G1 X141.154 Y98.573 E0.05978
G1 X141.734 Y100.278 E0.05645
G1 X142.152 Y102.146 E0.06003
G1 X142.362 Y104.041 E0.05979
G1 X142.363 Y105.948 E0.05979
G1 X142.153 Y107.851 E0.06003
G1 X141.764 Y109.605 E0.05633
G1 X141.694 Y109.853 E0.00809
G1 X141.061 Y111.653 E0.05981
G1 X140.289 Y113.279 E0.05645
G1 X139.250 Y114.959 E0.06193
G1 X138.112 Y116.417 E0.05800
G1 X136.782 Y117.784 E0.05979
G1 X135.307 Y118.999 E0.05991
G1 X133.799 Y119.989 E0.05657
G1 X132.007 Y120.907 E0.06312
G1 X130.323 Y121.542 E0.05645
G1 X130.073 Y121.620 E0.00821
G1 X128.217 Y122.076 E0.05992
G1 X126.440 Y122.318 E0.05621
G1 X124.526 Y122.370 E0.06003
G1 X122.622 Y122.212 E0.05991
G1 X120.747 Y121.846 E0.05991
G1 X118.920 Y121.274 E0.06003
G1 X117.173 Y120.509 E0.05979
G1 X115.515 Y119.552 E0.06003
G1 X114.068 Y118.494 E0.05621
G1 X113.866 Y118.328 E0.00821
G1 X112.469 Y117.023 E0.05992
G1 X111.288 Y115.659 E0.05657
G1 X110.147 Y113.996 E0.06324
G1 X109.294 Y112.411 E0.05645
G1 X108.574 Y110.637 E0.06003
G1 X108.055 Y108.802 E0.05979
G1 X107.741 Y106.924 E0.05967
G1 X107.634 Y105.009 E0.06015
G1 X107.729 Y103.211 E0.05645
G1 X108.030 Y101.329 E0.05978
G1 X108.085 Y101.080 E0.00800
G1 X108.578 Y99.352 E0.05633
G1 X109.297 Y97.582 E0.05991
G1 X110.205 Y95.905 E0.05979
G1 X111.261 Y94.376 E0.05827
G1 F5760
G1 X112.549 Y92.890 E-0.68120
G1 F5760
G1 X112.716 Y92.735 E-0.07880
G1 E-0.04000 F2100.00000
G1 X123.875 Y113.032 F7200.000
G1 E0.80000 F2100.00000
G1 F840
G1 X124.423 Y112.805 E0.01860
G1 X124.966 Y112.733 E0.01717
G1 X125.589 Y112.801 E0.01963
G1 X126.148 Y113.032 E0.01896
G1 X126.618 Y113.393 E0.01860
G1 X126.979 Y113.864 E0.01860
G1 X127.206 Y114.412 E0.01860
G1 X127.284 Y115.000 E0.01860
G1 X127.206 Y115.588 E0.01860
G1 X126.979 Y116.136 E0.01860
G1 X126.618 Y116.607 E0.01860
G1 X126.148 Y116.968 E0.01860
G1 X125.600 Y117.195 E0.01860
G1 X125.011 Y117.272 E0.01860
G1 X124.423 Y117.195 E0.01860
G1 X123.875 Y116.968 E0.01860
G1 X123.405 Y116.607 E0.01860
G1 X123.043 Y116.136 E0.01860
G1 X122.816 Y115.588 E0.01860
G1 X122.739 Y115.000 E0.01860
G1 X122.816 Y114.412 E0.01860
G1 X123.043 Y113.864 E0.01860
G1 X123.405 Y113.393 E0.01860
G1 X123.828 Y113.069 E0.01672
G1 X124.065 Y113.361 F7200.000
G1 F840
G1 X124.522 Y113.172 E0.01549
G1 X124.971 Y113.113 E0.01420
G1 X125.495 Y113.170 E0.01652
G1 X125.957 Y113.361 E0.01571
G1 X126.349 Y113.662 E0.01549
G1 X126.650 Y114.054 E0.01549
G1 X126.839 Y114.510 E0.01549
G1 X126.904 Y115.000 E0.01549
G1 X126.839 Y115.490 E0.01549
G1 X126.650 Y115.946 E0.01549
G1 X126.349 Y116.338 E0.01549
G1 X125.957 Y116.639 E0.01549
G1 X125.501 Y116.828 E0.01549
G1 X125.011 Y116.892 E0.01549
G1 X124.522 Y116.828 E0.01549
G1 X124.065 Y116.639 E0.01549
G1 X123.673 Y116.338 E0.01549
G1 X123.373 Y115.946 E0.01549
G1 X123.184 Y115.490 E0.01549
G1 X123.119 Y115.000 E0.01549
G1 X123.184 Y114.510 E0.01549
G1 X123.373 Y114.054 E0.01549
G1 X123.673 Y113.662 E0.01549
G1 X124.018 Y113.398 E0.01361
G1 X124.255 Y113.691 F7200.000
G1 F840
G1 X124.620 Y113.540 E0.01237
G1 X124.975 Y113.493 E0.01123
G1 X125.400 Y113.539 E0.01341
G1 X125.767 Y113.691 E0.01245
G1 X126.080 Y113.931 E0.01237
G1 X126.321 Y114.244 E0.01237
G1 X126.472 Y114.609 E0.01237
G1 X126.523 Y115.000 E0.01237
G1 X126.472 Y115.391 E0.01237
G1 X126.321 Y115.756 E0.01237
G1 X126.080 Y116.069 E0.01237
G1 X125.767 Y116.309 E0.01237
G1 X125.403 Y116.460 E0.01237
G1 X125.011 Y116.512 E0.01237
G1 X124.620 Y116.460 E0.01237
G1 X124.255 Y116.309 E0.01237
G1 X123.942 Y116.069 E0.01237
G1 X123.702 Y115.756 E0.01237
G1 X123.551 Y115.391 E0.01237
G1 X123.500 Y115.000 E0.01237
G1 X123.551 Y114.609 E0.01237
G1 X123.702 Y114.244 E0.01237
G1 X123.942 Y113.931 E0.01237
G1 X124.208 Y113.727 E0.01049
G1 X124.255 Y113.296 F7200.000
G1 F5760
G1 X124.620 Y113.540 E-0.15686
G1 F5760
G1 X124.975 Y113.493 E-0.12407
G1 F5760
G1 X125.400 Y113.539 E-0.14808
G1 F5760
G1 X125.767 Y113.691 E-0.13757
G1 F5760
G1 X126.080 Y113.931 E-0.13669
G1 F5760
G1 X126.180 Y114.061 E-0.05673
G1 E-0.04000 F2100.00000
G1 X116.618 Y106.607 F7200.000
G1 E0.80000 F2100.00000
G1 F840
G1 X116.148 Y106.968 E0.01860
G1 X115.600 Y107.195 E0.01860
G1 X115.011 Y107.272 E0.01860
G1 X114.423 Y107.195 E0.01860
G1 X113.875 Y106.968 E0.01860
G1 X113.405 Y106.607 E0.01860
G1 X113.043 Y106.136 E0.01860
G1 X112.816 Y105.588 E0.01860
G1 X112.739 Y105.000 E0.01860
G1 X112.816 Y104.412 E0.01860
G1 X113.026 Y103.906 E0.01717
G1 X113.395 Y103.400 E0.01963
G1 X113.875 Y103.032 E0.01896
G1 X114.423 Y102.805 E0.01860
G1 X114.966 Y102.733 E0.01717
G1 X115.589 Y102.801 E0.01963
G1 X116.148 Y103.032 E0.01896
G1 X116.618 Y103.393 E0.01860
G1 X116.979 Y103.864 E0.01860
G1 X117.206 Y104.412 E0.01860
G1 X117.284 Y105.000 E0.01860
G1 X117.206 Y105.588 E0.01860
G1 X116.979 Y106.136 E0.01860
G1 X116.655 Y106.559 E0.01672
G1 X116.349 Y106.338 F7200.000
G1 F840
G1 X115.957 Y106.639 E0.01549
G1 X115.501 Y106.828 E0.01549
G1 X115.011 Y106.892 E0.01549
G1 X114.522 Y106.828 E0.01549
G1 X114.065 Y106.639 E0.01549
G1 X113.673 Y106.338 E0.01549
G1 X113.373 Y105.946 E0.01549
G1 X113.184 Y105.490 E0.01549
G1 X113.119 Y105.000 E0.01549
G1 X113.184 Y104.510 E0.01549
G1 X113.357 Y104.092 E0.01420
G1 X113.668 Y103.666 E0.01652
G1 X114.065 Y103.361 E0.01571
G1 X114.522 Y103.172 E0.01549
G1 X114.971 Y103.113 E0.01420
G1 X115.495 Y103.170 E0.01652
G1 X115.957 Y103.361 E0.01571
G1 X116.349 Y103.662 E0.01549
G1 X116.650 Y104.054 E0.01549
G1 X116.839 Y104.510 E0.01549
G1 X116.904 Y105.000 E0.01549
G1 X116.839 Y105.490 E0.01549
G1 X116.650 Y105.946 E0.01549
G1 X116.386 Y106.290 E0.01361
G1 X116.080 Y106.069 F7200.000
G1 F840
G1 X115.767 Y106.309 E0.01237
G1 X115.403 Y106.460 E0.01237
G1 X115.011 Y106.512 E0.01237
G1 X114.620 Y106.460 E0.01237
G1 X114.255 Y106.309 E0.01237
G1 X113.942 Y106.069 E0.01237
G1 X113.702 Y105.756 E0.01237
G1 X113.551 Y105.391 E0.01237
G1 X113.500 Y105.000 E0.01237
G1 X113.551 Y104.609 E0.01237
G1 X113.688 Y104.278 E0.01123
G1 X113.940 Y103.933 E0.01341
G1 X114.255 Y103.691 E0.01245
G1 X114.620 Y103.540 E0.01237
G1 X114.975 Y103.493 E0.01123
G1 X115.400 Y103.539 E0.01341
G1 X115.767 Y103.691 E0.01245
G1 X116.080 Y103.931 E0.01237
G1 X116.321 Y104.244 E0.01237
G1 X116.472 Y104.609 E0.01237
G1 X116.523 Y105.000 E0.01237
G1 X116.472 Y105.391 E0.01237
G1 X116.321 Y105.756 E0.01237
G1 X116.117 Y106.021 E0.01049
G1 X116.183 Y106.450 F7200.000
G1 F5760
G1 X115.767 Y106.309 E-0.15686
G1 F5760
G1 X115.403 Y106.460 E-0.13669
G1 F5760
G1 X115.011 Y106.512 E-0.13669
G1 F5760
G1 X114.620 Y106.460 E-0.13669
G1 F5760
G1 X114.255 Y106.309 E-0.13669
G1 F5760
G1 X114.126 Y106.210 E-0.05637
G1 E-0.04000 F2100.00000
G1 X123.405 Y96.607 F7200.000
G1 E0.80000 F2100.00000
G1 F840
G1 X123.043 Y96.136 E0.01860
G1 X122.816 Y95.588 E0.01860
G1 X122.739 Y95.000 E0.01860
G1 X122.816 Y94.412 E0.01860
G1 X123.043 Y93.864 E0.01860
G1 X123.405 Y93.393 E0.01860
G1 X123.875 Y93.032 E0.01860
G1 X124.423 Y92.805 E0.01860
G1 X124.966 Y92.733 E0.01717
G1 X125.589 Y92.801 E0.01963
G1 X126.148 Y93.032 E0.01896
G1 X126.618 Y93.393 E0.01860
G1 X126.979 Y93.864 E0.01860
G1 X127.206 Y94.412 E0.01860
G1 X127.284 Y95.000 E0.01860
G1 X127.206 Y95.588 E0.01860
G1 X126.979 Y96.136 E0.01860
G1 X126.618 Y96.607 E0.01860
G1 X126.148 Y96.968 E0.01860
G1 X125.600 Y97.195 E0.01860
G1 X125.011 Y97.272 E0.01860
G1 X124.423 Y97.195 E0.01860
G1 X123.875 Y96.968 E0.01860
G1 X123.452 Y96.643 E0.01672
G1 X123.673 Y96.338 F7200.000
G1 F840
G1 X123.373 Y95.946 E0.01549
G1 X123.184 Y95.490 E0.01549
G1 X123.119 Y95.000 E0.01549
G1 X123.184 Y94.510 E0.01549
G1 X123.373 Y94.054 E0.01549
G1 X123.673 Y93.662 E0.01549
G1 X124.065 Y93.361 E0.01549
G1 X124.522 Y93.172 E0.01549
G1 X124.971 Y93.113 E0.01420
G1 X125.495 Y93.170 E0.01652
G1 X125.957 Y93.361 E0.01571
G1 X126.349 Y93.662 E0.01549
G1 X126.650 Y94.054 E0.01549
G1 X126.839 Y94.510 E0.01549
G1 X126.904 Y95.000 E0.01549
G1 X126.839 Y95.490 E0.01549
G1 X126.650 Y95.946 E0.01549
G1 X126.349 Y96.338 E0.01549
G1 X125.957 Y96.639 E0.01549
G1 X125.501 Y96.828 E0.01549
G1 X125.011 Y96.892 E0.01549
G1 X124.522 Y96.828 E0.01549
G1 X124.065 Y96.639 E0.01549
G1 X123.721 Y96.374 E0.01361
G1 X123.942 Y96.069 F7200.000
G1 F840
G1 X123.702 Y95.756 E0.01237
G1 X123.551 Y95.391 E0.01237
G1 X123.500 Y95.000 E0.01237
G1 X123.551 Y94.609 E0.01237
G1 X123.702 Y94.244 E0.01237
G1 X123.942 Y93.931 E0.01237
G1 X124.255 Y93.691 E0.01237
G1 X124.620 Y93.540 E0.01237
G1 X124.975 Y93.493 E0.01123
G1 X125.400 Y93.539 E0.01341
G1 X125.767 Y93.691 E0.01245
G1 X126.080 Y93.931 E0.01237
G1 X126.321 Y94.244 E0.01237
G1 X126.472 Y94.609 E0.01237
G1 X126.523 Y95.000 E0.01237
G1 X126.472 Y95.391 E0.01237
G1 X126.321 Y95.756 E0.01237
G1 X126.080 Y96.069 E0.01237
G1 X125.767 Y96.309 E0.01237
G1 X125.403 Y96.460 E0.01237
G1 X125.011 Y96.512 E0.01237
G1 X124.620 Y96.460 E0.01237
G1 X124.255 Y96.309 E0.01237
G1 X123.990 Y96.106 E0.01049
G1 X123.561 Y96.171 F7200.000
G1 F5760
G1 X123.702 Y95.756 E-0.15686
G1 F5760
G1 X123.551 Y95.391 E-0.13669
G1 F5760
G1 X123.500 Y95.000 E-0.13669
G1 F5760
G1 X123.551 Y94.609 E-0.13669
G1 F5760
G1 X123.702 Y94.244 E-0.13669
G1 F5760
G1 X123.801 Y94.115 E-0.05637
G1 E-0.04000 F2100.00000
G1 X133.395 Y103.400 F7200.000
G1 E0.80000 F2100.00000
G1 F840
G1 X133.875 Y103.032 E0.01896
G1 X134.423 Y102.805 E0.01860
G1 X134.966 Y102.733 E0.01717
G1 X135.589 Y102.801 E0.01963
G1 X136.148 Y103.032 E0.01896
G1 X136.618 Y103.393 E0.01860
G1 X136.979 Y103.864 E0.01860
G1 X137.189 Y104.370 E0.01717
G1 X137.285 Y104.989 E0.01963
G1 X137.206 Y105.588 E0.01896
G1 X136.997 Y106.094 E0.01717
G1 X136.627 Y106.600 E0.01963
G1 X136.148 Y106.968 E0.01896
G1 X135.600 Y107.195 E0.01860
G1 X135.011 Y107.272 E0.01860
G1 X134.423 Y107.195 E0.01860
G1 X133.875 Y106.968 E0.01860
G1 X133.405 Y106.607 E0.01860
G1 X133.043 Y106.136 E0.01860
G1 X132.834 Y105.630 E0.01717
G1 X132.737 Y105.011 E0.01963
G1 X132.816 Y104.412 E0.01896
G1 X133.026 Y103.906 E0.01717
G1 X133.360 Y103.449 E0.01775
G1 X133.668 Y103.666 F7200.000
G1 F840
G1 X134.065 Y103.361 E0.01571
G1 X134.522 Y103.172 E0.01549
G1 X134.971 Y103.113 E0.01420
G1 X135.495 Y103.170 E0.01652
G1 X135.957 Y103.361 E0.01571
G1 X136.349 Y103.662 E0.01549
G1 X136.650 Y104.054 E0.01549
G1 X136.823 Y104.472 E0.01420
G1 X136.904 Y104.993 E0.01652
G1 X136.839 Y105.490 E0.01571
G1 X136.666 Y105.908 E0.01420
G1 X136.355 Y106.334 E0.01652
G1 X135.957 Y106.639 E0.01571
G1 X135.501 Y106.828 E0.01549
G1 X135.011 Y106.892 E0.01549
G1 X134.522 Y106.828 E0.01549
G1 X134.065 Y106.639 E0.01549
G1 X133.673 Y106.338 E0.01549
G1 X133.373 Y105.946 E0.01549
G1 X133.199 Y105.528 E0.01420
G1 X133.118 Y105.007 E0.01652
G1 X133.184 Y104.510 E0.01571
G1 X133.357 Y104.092 E0.01420
G1 X133.632 Y103.715 E0.01464
G1 X133.940 Y103.933 F7200.000
G1 F840
G1 X134.255 Y103.691 E0.01245
G1 X134.620 Y103.540 E0.01237
G1 X134.975 Y103.493 E0.01123
G1 X135.400 Y103.539 E0.01341
G1 X135.767 Y103.691 E0.01245
G1 X136.080 Y103.931 E0.01237
G1 X136.321 Y104.244 E0.01237
G1 X136.458 Y104.575 E0.01123
G1 X136.524 Y104.997 E0.01341
G1 X136.472 Y105.391 E0.01245
G1 X136.335 Y105.722 E0.01123
G1 X136.082 Y106.067 E0.01341
G1 X135.767 Y106.309 E0.01245
G1 X135.403 Y106.460 E0.01237
G1 X135.011 Y106.512 E0.01237
G1 X134.620 Y106.460 E0.01237
G1 X134.255 Y106.309 E0.01237
G1 X133.942 Y106.069 E0.01237
G1 X133.702 Y105.756 E0.01237
G1 X133.565 Y105.425 E0.01123
G1 X133.499 Y105.003 E0.01341
G1 X133.551 Y104.609 E0.01245
G1 X133.688 Y104.278 E0.01123
G1 X133.905 Y103.981 E0.01152
G1 X133.837 Y103.549 F7200.000
G1 F5760
G1 X134.255 Y103.691 E-0.15762
G1 F5760
G1 X134.620 Y103.540 E-0.13669
G1 F5760
G1 X134.975 Y103.493 E-0.12407
G1 F5760
G1 X135.400 Y103.539 E-0.14808
G1 F5760
G1 X135.767 Y103.691 E-0.13757
G1 F5760
G1 X135.896 Y103.789 E-0.05597
G1 E-0.04000 F2100.00000
G1 X138.854 Y102.690 F7200.000
G1 E0.80000 F2100.00000
G1 F1680
