; generated by Slic3r 1.33.8-prusa3d-win64 on 2017-04-07 at 21:59:13

; external perimeters extrusion width = 0.45mm
; perimeters extrusion width = 0.45mm
; infill extrusion width = 0.45mm
; solid infill extrusion width = 0.45mm
; top infill extrusion width = 0.45mm

M107
M115 U3.0.10 ; tell printer latest fw version
M83  ; extruder relative mode
M104 S215 ; set extruder temp
M140 S55 ; set bed temp
M190 S55 ; wait for bed temp
M109 S215 ; wait for extruder temp
G28 W ; home all without mesh bed level
G80 ; mesh bed leveling
G1 Y-3.0 F1000.0 ; go outside pritn area
G1 X60.0 E9.0  F1000.0 ; intro line
G1 X100.0 E12.5  F1000.0 ; intro line
G21 ; set units to millimeters
G90 ; use absolute coordinates
M83 ; use relative distances for extrusion
G1 E-0.80000 F2100.00000
G1 Z0.200 F7200.000
G1 X113.403 Y95.880 F7200.000
G1 E0.80000 F2100.00000
M204 S1000
G1 F2100
G1 X114.322 Y94.818 E0.04402
G1 X115.338 Y93.849 E0.04402
G1 X116.442 Y92.982 E0.04402
G1 X117.623 Y92.222 E0.04402
G1 X118.871 Y91.579 E0.04402
G1 X120.174 Y91.057 E0.04402
G1 X121.522 Y90.662 E0.04402
G1 X122.913 Y90.394 E0.04441
G1 X124.298 Y90.263 E0.04364
G1 X125.702 Y90.263 E0.04402
G1 X127.100 Y90.396 E0.04402
G1 X128.490 Y90.665 E0.04441
G1 X129.830 Y91.059 E0.04377
G1 X131.144 Y91.586 E0.04441
G1 X132.391 Y92.231 E0.04402
G1 X133.663 Y93.060 E0.04761
G1 X134.681 Y93.866 E0.04069
G1 X135.766 Y94.915 E0.04735
G1 X136.598 Y95.880 E0.03992
G1 X137.339 Y96.915 E0.03991
G1 X138.051 Y98.124 E0.04402
G1 X138.691 Y99.501 E0.04761
G1 X139.150 Y100.820 E0.04377
G1 X139.485 Y102.196 E0.04441
G1 X139.674 Y103.480 E0.04068
G1 X139.754 Y104.984 E0.04723
G1 X139.688 Y106.390 E0.04415
G1 X139.488 Y107.788 E0.04428
G1 X139.160 Y109.145 E0.04377
G1 X138.699 Y110.480 E0.04428
G1 X138.116 Y111.757 E0.04402
G1 X137.412 Y112.977 E0.04415
G1 X136.603 Y114.114 E0.04377
G1 X135.678 Y115.182 E0.04428
G1 X134.662 Y116.151 E0.04402
G1 X133.558 Y117.018 E0.04402
G1 X132.377 Y117.778 E0.04402
G1 X131.129 Y118.421 E0.04402
G1 X129.826 Y118.943 E0.04402
G1 X128.478 Y119.338 E0.04402
G1 X127.087 Y119.606 E0.04441
G1 X125.702 Y119.737 E0.04364
G1 X124.298 Y119.737 E0.04402
G1 X122.900 Y119.604 E0.04402
G1 X121.510 Y119.335 E0.04441
G1 X120.170 Y118.941 E0.04377
G1 X118.860 Y118.416 E0.04428
G1 X117.609 Y117.769 E0.04415
G1 X116.343 Y116.945 E0.04736
G1 X115.329 Y116.142 E0.04055
G1 X114.305 Y115.164 E0.04441
G1 X113.392 Y114.107 E0.04377
G1 X112.520 Y112.865 E0.04761
G1 X111.886 Y111.761 E0.03992
G1 X111.354 Y110.604 E0.03991
G1 X110.883 Y109.282 E0.04402
G1 X110.517 Y107.816 E0.04736
G1 X110.328 Y106.529 E0.04081
G1 X110.246 Y105.016 E0.04749
G1 X110.311 Y103.614 E0.04402
G1 X110.512 Y102.212 E0.04441
G1 X110.839 Y100.859 E0.04364
G1 X111.301 Y99.520 E0.04441
G1 X111.882 Y98.246 E0.04390
G1 X112.586 Y97.027 E0.04415
G1 X113.366 Y95.927 E0.04227
G1 X113.697 Y96.115 F7200.000
G1 F2100
G1 X114.593 Y95.081 E0.04290
G1 X115.586 Y94.134 E0.04302
G1 X116.661 Y93.288 E0.04290
G1 X117.812 Y92.549 E0.04290
G1 X119.029 Y91.922 E0.04290
G1 X120.299 Y91.413 E0.04290
G1 X121.612 Y91.028 E0.04290
G1 X122.963 Y90.768 E0.04314
G1 X124.317 Y90.639 E0.04266
G1 X125.685 Y90.639 E0.04290
G1 X127.047 Y90.769 E0.04290
G1 X128.398 Y91.030 E0.04314
G1 X129.703 Y91.414 E0.04266
G1 X130.980 Y91.926 E0.04314
G1 X132.199 Y92.555 E0.04302
G1 X133.430 Y93.357 E0.04604
G1 X134.430 Y94.148 E0.03998
G1 X135.481 Y95.162 E0.04581
G1 X136.302 Y96.114 E0.03939
G1 X137.031 Y97.133 E0.03932
G1 X137.725 Y98.313 E0.04289
G1 X138.342 Y99.643 E0.04600
G1 X138.790 Y100.932 E0.04278
G1 X139.115 Y102.269 E0.04314
G1 X139.300 Y103.529 E0.03991
G1 X139.377 Y104.990 E0.04588
G1 X139.313 Y106.356 E0.04290
G1 X139.118 Y107.718 E0.04314
G1 X138.798 Y109.041 E0.04266
G1 X138.348 Y110.341 E0.04314
G1 X137.780 Y111.586 E0.04290
G1 X137.094 Y112.774 E0.04302
G1 X136.305 Y113.882 E0.04266
G1 X135.407 Y114.919 E0.04302
G1 X134.417 Y115.864 E0.04290
G1 X133.339 Y116.712 E0.04302
G1 X132.188 Y117.451 E0.04290
G1 X130.975 Y118.077 E0.04278
G1 X129.701 Y118.587 E0.04302
G1 X128.388 Y118.972 E0.04290
G1 X127.037 Y119.232 E0.04314
G1 X125.683 Y119.361 E0.04266
G1 X124.315 Y119.361 E0.04290
G1 X122.953 Y119.231 E0.04290
G1 X121.602 Y118.970 E0.04314
G1 X120.297 Y118.586 E0.04266
G1 X119.020 Y118.074 E0.04314
G1 X117.801 Y117.445 E0.04302
G1 X116.574 Y116.647 E0.04588
G1 X115.578 Y115.860 E0.03979
G1 X114.584 Y114.909 E0.04314
G1 X113.691 Y113.877 E0.04278
G1 X112.846 Y112.676 E0.04604
G1 X112.258 Y111.657 E0.03688
G1 X112.124 Y111.382 E0.00960
G1 X111.651 Y110.339 E0.03593
G1 X111.240 Y109.158 E0.03920
G1 X110.886 Y107.738 E0.04588
G1 X110.701 Y106.475 E0.04003
G1 X110.623 Y105.010 E0.04600
G1 X110.687 Y103.644 E0.04290
G1 X110.882 Y102.282 E0.04314
G1 X111.201 Y100.963 E0.04254
G1 X111.652 Y99.659 E0.04326
G1 X112.218 Y98.418 E0.04278
G1 X112.902 Y97.233 E0.04290
G1 X113.661 Y96.162 E0.04114
G1 F5760
G1 X114.593 Y95.081 E-0.49462
G1 F5760
G1 X115.147 Y94.552 E-0.26538
G1 E-0.04000 F2100.00000
G1 X116.326 Y98.179 F7200.000
G1 E0.80000 F2100.00000
G1 F1680
G1 X117.014 Y97.385 E0.03293
G1 X117.774 Y96.660 E0.03293
G1 X118.599 Y96.011 E0.03293
G1 X119.483 Y95.444 E0.03293
G1 X120.416 Y94.962 E0.03293
G1 X121.391 Y94.572 E0.03293
G1 X122.398 Y94.276 E0.03293
G1 X123.430 Y94.078 E0.03293
G1 X124.471 Y93.978 E0.03279
G1 X125.635 Y93.988 E0.03649
G1 X126.570 Y94.078 E0.02948
G1 X127.602 Y94.276 E0.03293
G1 X128.609 Y94.572 E0.03293
G1 X129.584 Y94.962 E0.03293
G1 X130.517 Y95.444 E0.03293
G1 X131.401 Y96.011 E0.03293
G1 X132.226 Y96.660 E0.03293
G1 X132.986 Y97.385 E0.03293
G1 X133.674 Y98.179 E0.03293
G1 X134.283 Y99.034 E0.03293
G1 X134.808 Y99.944 E0.03293
G1 X135.244 Y100.899 E0.03293
G1 X135.588 Y101.891 E0.03293
G1 X135.835 Y102.912 E0.03293
G1 X135.985 Y103.951 E0.03293
G1 X136.035 Y105.000 E0.03293
G1 X135.985 Y106.049 E0.03293
G1 X135.835 Y107.088 E0.03293
G1 X135.588 Y108.109 E0.03293
G1 X135.244 Y109.101 E0.03293
G1 X134.808 Y110.056 E0.03293
G1 X134.283 Y110.966 E0.03293
G1 X133.674 Y111.821 E0.03293
G1 X132.986 Y112.615 E0.03293
G1 X132.226 Y113.340 E0.03293
G1 X131.401 Y113.989 E0.03293
G1 X130.517 Y114.556 E0.03293
G1 X129.584 Y115.038 E0.03293
G1 X128.609 Y115.428 E0.03293
G1 X127.602 Y115.724 E0.03293
G1 X126.570 Y115.922 E0.03293
G1 X125.525 Y116.022 E0.03293
G1 X124.475 Y116.022 E0.03293
G1 X123.430 Y115.922 E0.03293
G1 X122.398 Y115.724 E0.03293
G1 X121.391 Y115.428 E0.03293
G1 X120.416 Y115.038 E0.03293
G1 X119.483 Y114.556 E0.03293
G1 X118.599 Y113.989 E0.03293
G1 X117.774 Y113.340 E0.03293
G1 X117.014 Y112.615 E0.03293
G1 X116.326 Y111.821 E0.03293
G1 X115.717 Y110.966 E0.03293
G1 X115.192 Y110.056 E0.03293
G1 X114.756 Y109.101 E0.03293
G1 X114.412 Y108.109 E0.03293
G1 X114.165 Y107.088 E0.03293
G1 X114.015 Y106.049 E0.03293
G1 X113.965 Y105.000 E0.03293
G1 X114.015 Y103.951 E0.03293
G1 X114.165 Y102.912 E0.03293
G1 X114.412 Y101.891 E0.03293
G1 X114.756 Y100.899 E0.03293
G1 X115.192 Y99.944 E0.03293
G1 X115.717 Y99.034 E0.03293
G1 X116.291 Y98.228 E0.03104
G1 X116.029 Y97.945 F7200.000
G1 F1680
G1 X116.741 Y97.125 E0.03405
G1 X117.527 Y96.375 E0.03405
G1 X118.380 Y95.704 E0.03405
G1 X119.294 Y95.117 E0.03405
G1 X120.259 Y94.619 E0.03405
G1 X121.267 Y94.215 E0.03405
G1 X122.309 Y93.909 E0.03405
G1 X123.376 Y93.704 E0.03405
G1 X124.454 Y93.601 E0.03397
G1 X125.654 Y93.611 E0.03762
G1 X126.624 Y93.704 E0.03055
G1 X127.691 Y93.909 E0.03405
G1 X128.733 Y94.215 E0.03405
G1 X129.741 Y94.619 E0.03405
G1 X130.706 Y95.117 E0.03405
G1 X131.620 Y95.704 E0.03405
G1 X132.473 Y96.375 E0.03405
G1 X133.259 Y97.125 E0.03405
G1 X133.971 Y97.945 E0.03405
G1 X134.601 Y98.830 E0.03405
G1 X135.144 Y99.771 E0.03405
G1 X135.595 Y100.758 E0.03405
G1 X135.950 Y101.785 E0.03405
G1 X136.206 Y102.840 E0.03405
G1 X136.361 Y103.915 E0.03405
G1 X136.412 Y105.000 E0.03405
G1 X136.361 Y106.085 E0.03405
G1 X136.206 Y107.160 E0.03405
G1 X135.950 Y108.215 E0.03405
G1 X135.595 Y109.242 E0.03405
G1 X135.144 Y110.229 E0.03405
G1 X134.601 Y111.170 E0.03405
G1 X133.971 Y112.055 E0.03405
G1 X133.259 Y112.875 E0.03405
G1 X132.473 Y113.625 E0.03405
G1 X131.620 Y114.296 E0.03405
G1 X130.706 Y114.883 E0.03405
G1 X129.741 Y115.381 E0.03405
G1 X128.733 Y115.785 E0.03405
G1 X127.691 Y116.091 E0.03405
G1 X126.624 Y116.296 E0.03405
G1 X125.543 Y116.399 E0.03405
G1 X124.457 Y116.399 E0.03405
G1 X123.376 Y116.296 E0.03405
G1 X122.309 Y116.091 E0.03405
G1 X121.267 Y115.785 E0.03405
G1 X120.259 Y115.381 E0.03405
G1 X119.294 Y114.883 E0.03405
G1 X118.380 Y114.296 E0.03405
G1 X117.527 Y113.625 E0.03405
G1 X116.741 Y112.875 E0.03405
G1 X116.029 Y112.055 E0.03405
G1 X115.399 Y111.170 E0.03405
G1 X114.856 Y110.229 E0.03405
G1 X114.405 Y109.242 E0.03405
G1 X114.050 Y108.215 E0.03405
G1 X113.794 Y107.160 E0.03405
G1 X113.639 Y106.085 E0.03405
G1 X113.588 Y105.000 E0.03405
G1 X113.639 Y103.915 E0.03405
G1 X113.794 Y102.840 E0.03405
G1 X114.050 Y101.785 E0.03405
G1 X114.405 Y100.758 E0.03405
G1 X114.856 Y99.771 E0.03405
G1 X115.399 Y98.830 E0.03405
G1 X115.995 Y97.994 E0.03217
G1 X115.733 Y97.712 F7200.000
G1 F1050
G1 X116.467 Y96.864 E0.03518
G1 X117.279 Y96.090 E0.03518
G1 X118.161 Y95.396 E0.03518
G1 X119.105 Y94.790 E0.03518
G1 X120.102 Y94.276 E0.03518
G1 X121.144 Y93.859 E0.03518
G1 X122.220 Y93.543 E0.03518
G1 X123.322 Y93.330 E0.03518
G1 X124.438 Y93.224 E0.03515
G1 X125.674 Y93.234 E0.03874
G1 X126.678 Y93.330 E0.03163
G1 X127.780 Y93.543 E0.03518
G1 X128.856 Y93.859 E0.03518
G1 X129.898 Y94.276 E0.03518
G1 X130.895 Y94.790 E0.03518
G1 X131.839 Y95.396 E0.03518
G1 X132.721 Y96.090 E0.03518
G1 X133.533 Y96.864 E0.03518
G1 X134.267 Y97.712 E0.03518
G1 X134.918 Y98.626 E0.03518
G1 X135.479 Y99.598 E0.03518
G1 X135.945 Y100.618 E0.03518
G1 X136.312 Y101.678 E0.03518
G1 X136.577 Y102.769 E0.03518
G1 X136.736 Y103.879 E0.03518
G1 X136.790 Y105.000 E0.03518
G1 X136.736 Y106.121 E0.03518
G1 X136.577 Y107.231 E0.03518
G1 X136.312 Y108.322 E0.03518
G1 X135.945 Y109.382 E0.03518
G1 X135.479 Y110.402 E0.03518
G1 X134.918 Y111.374 E0.03518
G1 X134.267 Y112.288 E0.03518
G1 X133.533 Y113.136 E0.03518
G1 X132.721 Y113.910 E0.03518
G1 X131.839 Y114.604 E0.03518
G1 X130.895 Y115.210 E0.03518
G1 X129.898 Y115.724 E0.03518
G1 X128.856 Y116.141 E0.03518
G1 X127.780 Y116.457 E0.03518
G1 X126.678 Y116.670 E0.03518
G1 X125.561 Y116.776 E0.03518
G1 X124.439 Y116.776 E0.03518
G1 X123.322 Y116.670 E0.03518
G1 X122.220 Y116.457 E0.03518
G1 X121.144 Y116.141 E0.03518
G1 X120.102 Y115.724 E0.03518
G1 X119.105 Y115.210 E0.03518
G1 X118.161 Y114.604 E0.03518
G1 X117.279 Y113.910 E0.03518
G1 X116.467 Y113.136 E0.03518
G1 X115.733 Y112.288 E0.03518
G1 X115.082 Y111.374 E0.03518
G1 X114.521 Y110.402 E0.03518
G1 X114.055 Y109.382 E0.03518
G1 X113.688 Y108.322 E0.03518
G1 X113.423 Y107.231 E0.03518
G1 X113.264 Y106.121 E0.03518
G1 X113.210 Y105.000 E0.03518
G1 X113.264 Y103.879 E0.03518
G1 X113.423 Y102.769 E0.03518
G1 X113.688 Y101.678 E0.03518
G1 X114.055 Y100.618 E0.03518
G1 X114.521 Y99.598 E0.03518
G1 X115.082 Y98.626 E0.03518
G1 X115.698 Y97.761 E0.03330
G1 X116.129 Y97.769 F7200.000
G1 F5760
G1 X116.467 Y96.864 E-0.40929
G1 F5760
G1 X117.200 Y96.165 E-0.35071
G1 E-0.04000 F2100.00000
G1 X115.255 Y109.923 F7200.000
G1 E0.80000 F2100.00000
G1 F1680
G1 X120.058 Y114.726 E0.21300
G1 F5760
G1 X118.507 Y113.174 E-0.76000
G1 E-0.04000 F2100.00000
G1 X121.025 Y115.160 F7200.000
G1 E0.80000 F2100.00000
G1 F1680
G1 X115.150 Y109.285 E0.26056
G1 X115.019 Y108.996 E0.00995
G1 X114.819 Y108.420 E0.01911
G1 X121.591 Y115.192 E0.30032
G1 X122.346 Y115.414 E0.02468
G1 X114.595 Y107.663 E0.34376
G1 X114.433 Y106.967 E0.02239
G1 X123.022 Y115.556 E0.38090
G1 X123.470 Y115.642 E0.01432
G1 X123.659 Y115.660 E0.00597
G1 X114.343 Y106.344 E0.41317
G1 X114.297 Y106.022 E0.01021
G1 X114.284 Y105.752 E0.00849
G1 X124.249 Y115.717 E0.44194
G1 X124.488 Y115.739 E0.00754
G1 X124.805 Y115.739 E0.00994
G1 X114.257 Y105.192 E0.46779
G1 X114.264 Y104.665 E0.01651
G1 X125.339 Y115.739 E0.49115
G1 X125.841 Y115.708 E0.01577
G1 X114.289 Y104.156 E0.51233
G1 X114.341 Y103.675 E0.01518
G1 X126.328 Y115.662 E0.53162
G1 X126.791 Y115.592 E0.01470
G1 X114.408 Y103.208 E0.54921
G1 X114.493 Y102.760 E0.01432
G1 X127.238 Y115.506 E0.56528
G1 X127.674 Y115.408 E0.01400
G1 X114.597 Y102.331 E0.57997
G1 X114.706 Y101.907 E0.01373
G1 X128.086 Y115.287 E0.59340
G1 X128.498 Y115.166 E0.01348
G1 X114.843 Y101.510 E0.60560
G1 X114.980 Y101.114 E0.01315
G1 X128.881 Y115.015 E0.61648
G1 X129.262 Y114.862 E0.01287
G1 X115.139 Y100.740 E0.62632
G1 X115.306 Y100.374 E0.01262
G1 X129.629 Y114.696 E0.63520
G1 X129.981 Y114.515 E0.01242
G1 X115.479 Y100.012 E0.64317
G1 X115.674 Y99.674 E0.01224
G1 X130.333 Y114.333 E0.65012
G1 X130.661 Y114.128 E0.01214
G1 X115.869 Y99.336 E0.65601
G1 X116.079 Y99.013 E0.01209
G1 X130.986 Y113.919 E0.66109
G1 X131.304 Y113.705 E0.01205
G1 X116.301 Y98.701 E0.66539
G1 X116.523 Y98.390 E0.01199
G1 X131.603 Y113.470 E0.66880
G1 X131.902 Y113.235 E0.01191
G1 X116.768 Y98.101 E0.67119
G1 X117.015 Y97.815 E0.01186
G1 X132.187 Y112.987 E0.67284
G1 X132.460 Y112.726 E0.01183
G1 X117.267 Y97.534 E0.67377
G1 X117.540 Y97.274 E0.01183
G1 X132.733 Y112.466 E0.67377
G1 X132.985 Y112.185 E0.01184
G1 X117.813 Y97.013 E0.67284
G1 X118.098 Y96.765 E0.01186
G1 X133.232 Y111.899 E0.67119
G1 X133.477 Y111.610 E0.01187
G1 X118.397 Y96.530 E0.66880
G1 X118.695 Y96.295 E0.01191
G1 X133.699 Y111.299 E0.66539
G1 X133.921 Y110.987 E0.01199
G1 X119.014 Y96.081 E0.66110
G1 X119.339 Y95.872 E0.01210
G1 X134.131 Y110.664 E0.65601
G1 X134.326 Y110.326 E0.01224
G1 X119.667 Y95.667 E0.65013
G1 X120.019 Y95.485 E0.01242
G1 X134.521 Y109.988 E0.64318
G1 X134.693 Y109.627 E0.01255
G1 X120.371 Y95.304 E0.63521
G1 X120.738 Y95.138 E0.01264
G1 X134.861 Y109.260 E0.62632
G1 X135.020 Y108.886 E0.01276
G1 X121.119 Y94.986 E0.61648
G1 X121.501 Y94.834 E0.01289
G1 X135.157 Y108.490 E0.60561
G1 X135.294 Y108.093 E0.01315
G1 X121.914 Y94.713 E0.59340
G1 X122.326 Y94.592 E0.01348
G1 X135.403 Y107.670 E0.57997
G1 X135.507 Y107.240 E0.01385
G1 X122.761 Y94.494 E0.56528
G1 X123.209 Y94.408 E0.01428
G1 X135.592 Y106.792 E0.54921
G1 X135.659 Y106.325 E0.01477
G1 X123.672 Y94.338 E0.53162
G1 X124.159 Y94.292 E0.01534
G1 X135.711 Y105.844 E0.51234
G1 X135.736 Y105.335 E0.01598
G1 X124.663 Y94.263 E0.49106
G1 X125.201 Y94.267 E0.01687
G1 X135.743 Y104.809 E0.46750
G1 X135.716 Y104.249 E0.01758
G1 X125.751 Y94.283 E0.44195
G1 X126.340 Y94.340 E0.01858
G1 X135.657 Y103.656 E0.41317
G1 X135.567 Y103.033 E0.01974
G1 X126.978 Y94.444 E0.38091
G1 X127.654 Y94.586 E0.02165
G1 X135.405 Y102.338 E0.34377
G1 X135.316 Y101.971 E0.01183
G1 X135.181 Y101.580 E0.01297
G1 X128.409 Y94.808 E0.30033
G1 X129.279 Y95.145 E0.02927
G1 X135.173 Y101.039 E0.26139
G1 F5760
G1 X133.622 Y99.487 E-0.76000
G1 E-0.04000 F2100.00000
G1 X134.745 Y100.077 F7200.000
G1 E0.80000 F2100.00000
G1 F1680
G1 X129.942 Y95.274 E0.21302
M106 S252.45
M104 S205 ; set temperature
G1 F5760
G1 X131.493 Y96.826 E-0.76000
G1 E-0.04000 F2100.00000
G1 Z0.350 F7200.000
G1 X129.544 Y95.050 F7200.000
G1 E0.80000 F2100.00000
M204 S800
G1 F2400
G1 X130.469 Y95.527 E0.02712
G1 X131.345 Y96.090 E0.02712
G1 X132.163 Y96.733 E0.02712
G1 X132.916 Y97.452 E0.02712
G1 X133.598 Y98.238 E0.02712
G1 X134.202 Y99.086 E0.02712
G1 X134.722 Y99.988 E0.02712
G1 X135.155 Y100.935 E0.02712
G1 X135.495 Y101.918 E0.02712
G1 X135.741 Y102.930 E0.02712
G1 X135.889 Y103.960 E0.02712
G1 X135.938 Y105.000 E0.02712
G1 X135.889 Y106.040 E0.02712
G1 X135.741 Y107.070 E0.02712
G1 X135.495 Y108.082 E0.02712
G1 X135.155 Y109.065 E0.02712
G1 X134.722 Y110.012 E0.02712
G1 X134.202 Y110.914 E0.02712
G1 X133.598 Y111.762 E0.02712
G1 X132.916 Y112.548 E0.02712
G1 X132.163 Y113.267 E0.02712
G1 X131.345 Y113.910 E0.02712
G1 X130.469 Y114.473 E0.02712
G1 X129.544 Y114.950 E0.02712
G1 X128.578 Y115.337 E0.02712
G1 X127.579 Y115.630 E0.02712
G1 X126.557 Y115.827 E0.02712
G1 X125.520 Y115.926 E0.02712
G1 X124.480 Y115.926 E0.02712
G1 X123.443 Y115.827 E0.02712
G1 X122.421 Y115.630 E0.02712
G1 X121.422 Y115.337 E0.02712
G1 X120.456 Y114.950 E0.02712
