; generated by Slic3r Prusa Edition 1.40.1+win64 on 2018-12-08 at 05:24:27

; 

; external perimeters extrusion width = 0.45mm
; perimeters extrusion width = 0.45mm
; infill extrusion width = 0.45mm
; solid infill extrusion width = 0.45mm
; top infill extrusion width = 0.40mm
; first layer extrusion width = 0.42mm

M107
M115 U3.1.0 ; tell printer latest fw version
M201 X9000 Y9000 Z500 E10000 ; sets maximum accelerations, mm/sec^2
M203 X500 Y500 Z12 E120 ; sets maximum feedrates, mm/sec
M204 S1500 T1500 ; sets acceleration (S) and retract acceleration (T)
M205 X10 Y10 Z0.2 E2.5 ; sets the jerk limits, mm/sec
M205 S0 T0 ; sets the minimum extruding and travel feed rate, mm/sec
M83  ; extruder relative mode
M104 S215 ; set extruder temp
M140 S60 ; set bed temp
M190 S60 ; wait for bed temp
M109 S215 ; wait for extruder temp
G28 W ; home all without mesh bed level
G80 ; mesh bed leveling
G1 Y-3.0 F1000.0 ; go outside print area
G92 E0.0
G1 X60.0 E9.0  F1000.0 ; intro line
G1 X100.0 E12.5  F1000.0 ; intro line
G92 E0.0
M900 K30; Filament gcode
G21 ; set units to millimeters
G90 ; use absolute coordinates
M83 ; use relative distances for extrusion
;BEFORE_LAYER_CHANGE
G92 E0.0
;0.2


G1 E-0.80000 F2100.00000
G1 Z0.600 F10800.000
;AFTER_LAYER_CHANGE
;0.2
G1 X92.911 Y63.349
G1 Z0.200
G1 E0.80000 F2100.00000
M204 S1000
G1 F1800
G1 X93.195 Y62.762 E0.02044
G1 X93.537 Y62.373 E0.01623
G1 X93.963 Y62.073 E0.01635
G1 X94.448 Y61.882 E0.01635
G1 X94.965 Y61.812 E0.01635
G1 X154.004 Y61.811 E1.85112
G1 X154.830 Y61.975 E0.02642
G1 X155.536 Y62.441 E0.02653
G1 X156.013 Y63.141 E0.02653
G1 X156.188 Y63.969 E0.02653
G1 X156.188 Y142.526 E2.46310
G1 X156.086 Y143.577 E0.03312
G1 X155.826 Y144.482 E0.02953
G1 X155.216 Y145.681 E0.04217
G1 X154.488 Y146.556 E0.03570
G1 X153.485 Y147.334 E0.03980
G1 X152.684 Y147.752 E0.02832
G1 X151.819 Y148.027 E0.02848
G1 X150.557 Y148.188 E0.03987
G1 X98.460 Y148.188 E1.63347
G1 X97.420 Y148.085 E0.03277
G1 X96.515 Y147.825 E0.02951
G1 X95.316 Y147.214 E0.04219
G1 X94.441 Y146.485 E0.03570
G1 X93.666 Y145.485 E0.03968
G1 X93.248 Y144.684 E0.02833
G1 X92.972 Y143.815 E0.02859
G1 X92.812 Y142.559 E0.03970
G1 X92.811 Y63.989 E2.46351
G1 X92.901 Y63.408 E0.01844
G1 F8640
G1 X93.195 Y62.762 E-0.16379
G1 X93.537 Y62.373 E-0.11955
G1 X93.963 Y62.073 E-0.12039
G1 X94.448 Y61.882 E-0.12039
G1 X94.965 Y61.812 E-0.12039
G1 X95.465 Y61.812 E-0.11548
G1 E-0.04000 F2100.00000
G1 Z0.800 F10800.000
G1 X95.587 Y64.587
G1 Z0.200
G1 E0.80000 F2100.00000
G1 F1800
G1 X153.413 Y64.587 E1.81309
G1 X153.413 Y142.471 E2.44200
G1 X153.354 Y143.067 E0.01877
G1 X153.189 Y143.613 E0.01790
G1 X152.920 Y144.117 E0.01790
G1 X152.558 Y144.558 E0.01790
G1 X152.117 Y144.920 E0.01790
G1 X151.613 Y145.189 E0.01790
G1 X151.067 Y145.354 E0.01790
G1 X150.471 Y145.413 E0.01877
G1 X98.529 Y145.413 E1.62861
G1 X97.928 Y145.353 E0.01893
G1 X97.387 Y145.189 E0.01774
G1 X96.883 Y144.920 E0.01790
G1 X96.442 Y144.558 E0.01790
G1 X96.080 Y144.117 E0.01790
G1 X95.811 Y143.613 E0.01790
G1 X95.647 Y143.072 E0.01774
G1 X95.587 Y142.471 E0.01893
G1 X95.587 Y64.647 E2.44011
G1 X95.210 Y64.210 F10800.000
G1 F1800
G1 X153.790 Y64.210 E1.83673
G1 X153.790 Y142.490 E2.45440
G1 X153.726 Y143.141 E0.02051
G1 X153.539 Y143.758 E0.02023
G1 X153.235 Y144.327 E0.02023
G1 X152.826 Y144.826 E0.02023
G1 X152.327 Y145.235 E0.02023
G1 X151.758 Y145.539 E0.02023
G1 X151.141 Y145.726 E0.02023
G1 X150.490 Y145.790 E0.02051
G1 X98.510 Y145.790 E1.62977
G1 X97.854 Y145.725 E0.02068
G1 X97.242 Y145.539 E0.02006
G1 X96.673 Y145.235 E0.02023
G1 X96.174 Y144.826 E0.02023
G1 X95.765 Y144.327 E0.02023
G1 X95.461 Y143.758 E0.02023
G1 X95.275 Y143.146 E0.02006
G1 X95.210 Y142.490 E0.02068
G1 X95.210 Y64.270 E2.45252
G1 X95.556 Y64.410 F10800.000
G1 F8640
G1 X98.501 Y64.267 E-0.76000
G1 E-0.04000 F2100.00000
G1 Z0.800 F10800.000
G1 X153.300 Y65.463
G1 Z0.200
G1 E0.80000 F2100.00000
G1 F1800
G1 X152.707 Y64.870 E0.02632
G1 X152.173 Y64.870 E0.01675
G1 X153.130 Y65.827 E0.04247
G1 X153.130 Y66.361 E0.01675
G1 X151.639 Y64.870 E0.06615
G1 X151.106 Y64.870 E0.01675
G1 X153.130 Y66.894 E0.08984
G1 X153.130 Y67.428 E0.01675
G1 X150.572 Y64.870 E0.11352
G1 X150.038 Y64.870 E0.01675
G1 X153.130 Y67.962 E0.13720
G1 X153.130 Y68.495 E0.01675
G1 X149.505 Y64.870 E0.16088
G1 X148.971 Y64.870 E0.01675
G1 X153.130 Y69.029 E0.18456
G1 X153.130 Y69.563 E0.01675
G1 X148.437 Y64.870 E0.20824
G1 X147.904 Y64.870 E0.01675
G1 X153.130 Y70.096 E0.23192
G1 X153.130 Y70.630 E0.01675
G1 X147.370 Y64.870 E0.25560
G1 X146.836 Y64.870 E0.01675
G1 X153.130 Y71.164 E0.27929
G1 X153.130 Y71.697 E0.01675
G1 X146.303 Y64.870 E0.30297
G1 X145.769 Y64.870 E0.01675
G1 X153.130 Y72.231 E0.32665
G1 X153.130 Y72.765 E0.01675
G1 X145.235 Y64.870 E0.35033
G1 X144.702 Y64.870 E0.01675
G1 X153.130 Y73.298 E0.37401
G1 X153.130 Y73.832 E0.01675
G1 X144.168 Y64.870 E0.39769
G1 X143.634 Y64.870 E0.01675
G1 X153.130 Y74.366 E0.42137
G1 X153.130 Y74.899 E0.01675
G1 X143.101 Y64.870 E0.44505
G1 X142.567 Y64.870 E0.01675
G1 X153.130 Y75.433 E0.46873
G1 X153.130 Y75.967 E0.01675
G1 X142.033 Y64.870 E0.49242
G1 X141.500 Y64.870 E0.01675
G1 X153.130 Y76.500 E0.51610
G1 X153.130 Y77.034 E0.01675
G1 X140.966 Y64.870 E0.53978
G1 X140.432 Y64.870 E0.01675
G1 X153.130 Y77.568 E0.56346
G1 X153.130 Y78.101 E0.01675
G1 X139.899 Y64.870 E0.58714
G1 X139.365 Y64.870 E0.01675
G1 X153.130 Y78.635 E0.61082
G1 X153.130 Y79.169 E0.01675
G1 X138.831 Y64.870 E0.63450
G1 X138.298 Y64.870 E0.01675
G1 X153.130 Y79.702 E0.65818
G1 X153.130 Y80.236 E0.01675
G1 X137.764 Y64.870 E0.68187
G1 X137.230 Y64.870 E0.01675
G1 X153.130 Y80.770 E0.70555
G1 X153.130 Y81.303 E0.01675
G1 X136.697 Y64.870 E0.72923
G1 X136.163 Y64.870 E0.01675
G1 X153.130 Y81.837 E0.75291
G1 X153.130 Y82.371 E0.01675
G1 X135.629 Y64.870 E0.77659
G1 X135.096 Y64.870 E0.01675
G1 X153.130 Y82.904 E0.80027
G1 X153.130 Y83.438 E0.01675
G1 X134.562 Y64.870 E0.82395
G1 X134.028 Y64.870 E0.01675
G1 X153.130 Y83.972 E0.84763
G1 X153.130 Y84.505 E0.01675
G1 X133.495 Y64.870 E0.87132
G1 X132.961 Y64.870 E0.01675
G1 X153.130 Y85.039 E0.89500
G1 X153.130 Y85.573 E0.01675
G1 X132.427 Y64.870 E0.91868
G1 X131.894 Y64.870 E0.01675
G1 X153.130 Y86.106 E0.94236
G1 X153.130 Y86.640 E0.01675
G1 X131.360 Y64.870 E0.96604
G1 X130.826 Y64.870 E0.01675
G1 X153.130 Y87.174 E0.98972
G1 X153.130 Y87.707 E0.01675
G1 X130.293 Y64.870 E1.01340
G1 X129.759 Y64.870 E0.01675
G1 X153.130 Y88.241 E1.03708
G1 X153.130 Y88.775 E0.01675
G1 X129.225 Y64.870 E1.06076
G1 X128.692 Y64.870 E0.01675
G1 X153.130 Y89.308 E1.08445
G1 X153.130 Y89.842 E0.01675
G1 X128.158 Y64.870 E1.10813
G1 X127.624 Y64.870 E0.01675
G1 X153.130 Y90.376 E1.13181
G1 X153.130 Y90.909 E0.01675
G1 X127.091 Y64.870 E1.15549
G1 X126.557 Y64.870 E0.01675
G1 X153.130 Y91.443 E1.17917
G1 X153.130 Y91.977 E0.01675
G1 X126.023 Y64.870 E1.20285
G1 X125.490 Y64.870 E0.01675
G1 X153.130 Y92.510 E1.22653
G1 X153.130 Y93.044 E0.01675
G1 X124.956 Y64.870 E1.25021
G1 X124.422 Y64.870 E0.01675
G1 X153.130 Y93.578 E1.27390
G1 X153.130 Y94.111 E0.01675
G1 X123.889 Y64.870 E1.29758
G1 X123.355 Y64.870 E0.01675
G1 X153.130 Y94.645 E1.32126
G1 X153.130 Y95.179 E0.01675
G1 X122.821 Y64.870 E1.34494
G1 X122.288 Y64.870 E0.01675
G1 X153.130 Y95.712 E1.36862
G1 X153.130 Y96.246 E0.01675
G1 X121.754 Y64.870 E1.39230
G1 X121.220 Y64.870 E0.01675
G1 X153.130 Y96.780 E1.41598
G1 X153.130 Y97.313 E0.01675
G1 X120.687 Y64.870 E1.43966
G1 X120.153 Y64.870 E0.01675
G1 X153.130 Y97.847 E1.46334
G1 X153.130 Y98.381 E0.01675
G1 X119.619 Y64.870 E1.48703
G1 X119.086 Y64.870 E0.01675
G1 X153.130 Y98.914 E1.51071
G1 X153.130 Y99.448 E0.01675
G1 X118.552 Y64.870 E1.53439
G1 X118.018 Y64.870 E0.01675
G1 X153.130 Y99.982 E1.55807
G1 X153.130 Y100.515 E0.01675
G1 X117.485 Y64.870 E1.58175
G1 X116.951 Y64.870 E0.01675
G1 X153.130 Y101.049 E1.60543
G1 X153.130 Y101.583 E0.01675
G1 X116.417 Y64.870 E1.62911
G1 X115.884 Y64.870 E0.01675
G1 X153.130 Y102.116 E1.65279
G1 X153.130 Y102.650 E0.01675
G1 X115.350 Y64.870 E1.67648
G1 X114.816 Y64.870 E0.01675
G1 X153.130 Y103.184 E1.70016
G1 X153.130 Y103.717 E0.01675
G1 X114.283 Y64.870 E1.72384
G1 X113.749 Y64.870 E0.01675
G1 X153.130 Y104.251 E1.74752
G1 X153.130 Y104.785 E0.01675
G1 X113.215 Y64.870 E1.77120
G1 X112.682 Y64.870 E0.01675
G1 X153.130 Y105.318 E1.79488
G1 X153.130 Y105.852 E0.01675
G1 X112.148 Y64.870 E1.81856
G1 X111.614 Y64.870 E0.01675
G1 X153.130 Y106.386 E1.84224
G1 X153.130 Y106.919 E0.01675
G1 X111.081 Y64.870 E1.86592
G1 X110.547 Y64.870 E0.01675
G1 X153.130 Y107.453 E1.88961
G1 X153.130 Y107.987 E0.01675
G1 X110.013 Y64.870 E1.91329
G1 X109.480 Y64.870 E0.01675
G1 X153.130 Y108.520 E1.93697
G1 X153.130 Y109.054 E0.01675
G1 X108.946 Y64.870 E1.96065
G1 X108.412 Y64.870 E0.01675
G1 X153.130 Y109.588 E1.98433
G1 X153.130 Y110.121 E0.01675
G1 X107.879 Y64.870 E2.00801
G1 X107.345 Y64.870 E0.01675
G1 X153.130 Y110.655 E2.03169
G1 X153.130 Y111.189 E0.01675
G1 X106.811 Y64.870 E2.05537
G1 X106.278 Y64.870 E0.01675
G1 X153.130 Y111.722 E2.07906
G1 X153.130 Y112.256 E0.01675
G1 X105.744 Y64.870 E2.10274
G1 X105.210 Y64.870 E0.01675
G1 X153.130 Y112.790 E2.12642
G1 X153.130 Y113.323 E0.01675
G1 X104.677 Y64.870 E2.15010
G1 X104.143 Y64.870 E0.01675
G1 X153.130 Y113.857 E2.17378
G1 X153.130 Y114.391 E0.01675
G1 X103.609 Y64.870 E2.19746
G1 X103.076 Y64.870 E0.01675
G1 X153.130 Y114.924 E2.22114
G1 X153.130 Y115.458 E0.01675
G1 X102.542 Y64.870 E2.24482
G1 X102.008 Y64.870 E0.01675
G1 X153.130 Y115.992 E2.26851
G1 X153.130 Y116.525 E0.01675
G1 X101.475 Y64.870 E2.29219
G1 X100.941 Y64.870 E0.01675
G1 X153.130 Y117.059 E2.31587
G1 X153.130 Y117.593 E0.01675
G1 X100.407 Y64.870 E2.33955
G1 X99.874 Y64.870 E0.01675
G1 X153.130 Y118.126 E2.36323
G1 X153.130 Y118.660 E0.01675
G1 X99.340 Y64.870 E2.38691
G1 X98.806 Y64.870 E0.01675
G1 X153.130 Y119.194 E2.41059
G1 X153.130 Y119.727 E0.01675
G1 X98.273 Y64.870 E2.43427
G1 X97.739 Y64.870 E0.01675
G1 X153.130 Y120.261 E2.45795
G1 X153.130 Y120.795 E0.01675
G1 X97.205 Y64.870 E2.48164
G1 X96.672 Y64.870 E0.01675
G1 X153.130 Y121.328 E2.50532
G1 X153.130 Y121.862 E0.01675
G1 X96.138 Y64.870 E2.52900
G1 X95.870 Y64.870 E0.00841
G1 X95.870 Y65.135 E0.00833
G1 X153.130 Y122.396 E2.54090
G1 X153.130 Y122.929 E0.01675
G1 X95.870 Y65.669 E2.54090
G1 X95.870 Y66.203 E0.01675
G1 X153.130 Y123.463 E2.54090
G1 X153.130 Y123.997 E0.01675
G1 X95.870 Y66.736 E2.54090
G1 X95.870 Y67.270 E0.01675
G1 X153.130 Y124.530 E2.54090
G1 X153.130 Y125.064 E0.01675
G1 X95.870 Y67.804 E2.54090
G1 X95.870 Y68.337 E0.01675
G1 X153.130 Y125.598 E2.54090
G1 X153.130 Y126.131 E0.01675
G1 X95.870 Y68.871 E2.54090
G1 X95.870 Y69.405 E0.01675
G1 X153.130 Y126.665 E2.54090
G1 X153.130 Y127.199 E0.01675
G1 X95.870 Y69.938 E2.54090
G1 X95.870 Y70.472 E0.01675
G1 X153.130 Y127.732 E2.54090
G1 X153.130 Y128.266 E0.01675
G1 X95.870 Y71.006 E2.54090
G1 X95.870 Y71.539 E0.01675
G1 X153.130 Y128.800 E2.54090
G1 X153.130 Y129.333 E0.01675
G1 X95.870 Y72.073 E2.54090
G1 X95.870 Y72.607 E0.01675
G1 X153.130 Y129.867 E2.54090
G1 X153.130 Y130.401 E0.01675
G1 X95.870 Y73.140 E2.54090
G1 X95.870 Y73.674 E0.01675
G1 X153.130 Y130.934 E2.54090
G1 X153.130 Y131.468 E0.01675
G1 X95.870 Y74.208 E2.54090
G1 X95.870 Y74.741 E0.01675
G1 X153.130 Y132.002 E2.54090
G1 X153.130 Y132.535 E0.01675
G1 X95.870 Y75.275 E2.54090
G1 X95.870 Y75.809 E0.01675
G1 X153.130 Y133.069 E2.54090
G1 X153.130 Y133.603 E0.01675
G1 X95.870 Y76.342 E2.54090
G1 X95.870 Y76.876 E0.01675
G1 X153.130 Y134.136 E2.54090
G1 X153.130 Y134.670 E0.01675
G1 X95.870 Y77.410 E2.54090
G1 X95.870 Y77.943 E0.01675
G1 X153.130 Y135.204 E2.54090
G1 X153.130 Y135.737 E0.01675
G1 X95.870 Y78.477 E2.54090
G1 X95.870 Y79.011 E0.01675
G1 X153.130 Y136.271 E2.54090
G1 X153.130 Y136.805 E0.01675
G1 X95.870 Y79.544 E2.54090
G1 X95.870 Y80.078 E0.01675
G1 X153.130 Y137.338 E2.54090
G1 X153.130 Y137.872 E0.01675
G1 X95.870 Y80.612 E2.54090
G1 X95.870 Y81.145 E0.01675
G1 X153.130 Y138.406 E2.54090
G1 X153.130 Y138.939 E0.01675
G1 X95.870 Y81.679 E2.54090
G1 X95.870 Y82.213 E0.01675
G1 X153.130 Y139.473 E2.54090
G1 X153.130 Y140.007 E0.01675
G1 X95.870 Y82.746 E2.54090
G1 X95.870 Y83.280 E0.01675
G1 X153.130 Y140.540 E2.54090
G1 X153.130 Y141.074 E0.01675
G1 X95.870 Y83.814 E2.54090
G1 X95.870 Y84.347 E0.01675
G1 X153.130 Y141.608 E2.54090
G1 X153.130 Y142.141 E0.01675
G1 X95.870 Y84.881 E2.54090
G1 X95.870 Y85.415 E0.01675
G1 X153.111 Y142.655 E2.54003
G1 X153.076 Y143.011 E0.01122
G1 X153.042 Y143.121 E0.00359
G1 X95.870 Y85.948 E2.53701
G1 X95.870 Y86.482 E0.01675
G1 X152.914 Y143.527 E2.53132
G1 X152.729 Y143.874 E0.01237
G1 X95.870 Y87.016 E2.52308
G1 X95.870 Y87.549 E0.01675
G1 X152.501 Y144.181 E2.51299
G1 X152.357 Y144.357 E0.00715
G1 X152.240 Y144.453 E0.00475
G1 X95.870 Y88.083 E2.50139
G1 X95.870 Y88.617 E0.01675
G1 X151.944 Y144.691 E2.48828
G1 X151.597 Y144.877 E0.01237
G1 X95.870 Y89.150 E2.47284
G1 X95.870 Y89.684 E0.01675
G1 X151.203 Y145.017 E2.45540
G1 X151.011 Y145.076 E0.00629
G1 X150.753 Y145.101 E0.00814
G1 X95.870 Y90.218 E2.43542
G1 X95.870 Y90.751 E0.01675
G1 X150.249 Y145.130 E2.41303
G1 X149.715 Y145.130 E0.01675
G1 X95.870 Y91.285 E2.38935
G1 X95.870 Y91.819 E0.01675
G1 X149.181 Y145.130 E2.36567
G1 X148.648 Y145.130 E0.01675
G1 X95.870 Y92.352 E2.34199
G1 X95.870 Y92.886 E0.01675
G1 X148.114 Y145.130 E2.31831
G1 X147.580 Y145.130 E0.01675
G1 X95.870 Y93.420 E2.29463
G1 X95.870 Y93.953 E0.01675
G1 X147.047 Y145.130 E2.27095
G1 X146.513 Y145.130 E0.01675
G1 X95.870 Y94.487 E2.24726
G1 X95.870 Y95.021 E0.01675
G1 X145.979 Y145.130 E2.22358
G1 X145.446 Y145.130 E0.01675
G1 X95.870 Y95.554 E2.19990
G1 X95.870 Y96.088 E0.01675
G1 X144.912 Y145.130 E2.17622
G1 X144.378 Y145.130 E0.01675
G1 X95.870 Y96.622 E2.15254
G1 X95.870 Y97.155 E0.01675
G1 X143.845 Y145.130 E2.12886
G1 X143.311 Y145.130 E0.01675
G1 X95.870 Y97.689 E2.10518
G1 X95.870 Y98.223 E0.01675
G1 X142.777 Y145.130 E2.08150
G1 X142.244 Y145.130 E0.01675
G1 X95.870 Y98.756 E2.05781
G1 X95.870 Y99.290 E0.01675
G1 X141.710 Y145.130 E2.03413
G1 X141.176 Y145.130 E0.01675
G1 X95.870 Y99.824 E2.01045
G1 X95.870 Y100.357 E0.01675
G1 X140.643 Y145.130 E1.98677
G1 X140.109 Y145.130 E0.01675
G1 X95.870 Y100.891 E1.96309
G1 X95.870 Y101.425 E0.01675
G1 X139.575 Y145.130 E1.93941
G1 X139.042 Y145.130 E0.01675
G1 X95.870 Y101.958 E1.91573
G1 X95.870 Y102.492 E0.01675
G1 X138.508 Y145.130 E1.89205
G1 X137.974 Y145.130 E0.01675
G1 X95.870 Y103.026 E1.86837
G1 X95.870 Y103.559 E0.01675
G1 X137.441 Y145.130 E1.84468
G1 X136.907 Y145.130 E0.01675
G1 X95.870 Y104.093 E1.82100
G1 X95.870 Y104.627 E0.01675
G1 X136.373 Y145.130 E1.79732
G1 X135.840 Y145.130 E0.01675
G1 X95.870 Y105.160 E1.77364
G1 X95.870 Y105.694 E0.01675
G1 X135.306 Y145.130 E1.74996
G1 X134.772 Y145.130 E0.01675
G1 X95.870 Y106.228 E1.72628
G1 X95.870 Y106.761 E0.01675
G1 X134.239 Y145.130 E1.70260
G1 X133.705 Y145.130 E0.01675
G1 X95.870 Y107.295 E1.67892
G1 X95.870 Y107.829 E0.01675
G1 X133.171 Y145.130 E1.65523
G1 X132.638 Y145.130 E0.01675
G1 X95.870 Y108.362 E1.63155
G1 X95.870 Y108.896 E0.01675
G1 X132.104 Y145.130 E1.60787
G1 X131.570 Y145.130 E0.01675
G1 X95.870 Y109.430 E1.58419
G1 X95.870 Y109.963 E0.01675
G1 X131.037 Y145.130 E1.56051
G1 X130.503 Y145.130 E0.01675
G1 X95.870 Y110.497 E1.53683
G1 X95.870 Y111.031 E0.01675
G1 X129.969 Y145.130 E1.51315
G1 X129.436 Y145.130 E0.01675
G1 X95.870 Y111.564 E1.48947
G1 X95.870 Y112.098 E0.01675
G1 X128.902 Y145.130 E1.46579
G1 X128.368 Y145.130 E0.01675
G1 X95.870 Y112.632 E1.44210
G1 X95.870 Y113.165 E0.01675
G1 X127.835 Y145.130 E1.41842
G1 X127.301 Y145.130 E0.01675
G1 X95.870 Y113.699 E1.39474
G1 X95.870 Y114.233 E0.01675
G1 X126.767 Y145.130 E1.37106
G1 X126.234 Y145.130 E0.01675
G1 X95.870 Y114.766 E1.34738
G1 X95.870 Y115.300 E0.01675
G1 X125.700 Y145.130 E1.32370
G1 X125.166 Y145.130 E0.01675
G1 X95.870 Y115.834 E1.30002
G1 X95.870 Y116.367 E0.01675
G1 X124.633 Y145.130 E1.27634
G1 X124.099 Y145.130 E0.01675
G1 X95.870 Y116.901 E1.25265
G1 X95.870 Y117.435 E0.01675
G1 X123.565 Y145.130 E1.22897
