; generated by Slic3r 1.33.8-prusa3d-win64 on 2017-07-12 at 12:24:08

; external perimeters extrusion width = 0.45mm
; perimeters extrusion width = 0.45mm
; infill extrusion width = 0.45mm
; solid infill extrusion width = 0.45mm
; top infill extrusion width = 0.40mm

M107
M115 U3.0.10 ; tell printer latest fw version
M83  ; extruder relative mode
M104 S215 ; set extruder temp
M140 S55 ; set bed temp
M190 S55 ; wait for bed temp
M109 S215 ; wait for extruder temp
G28 W ; home all without mesh bed level
G80 ; mesh bed leveling
G1 Y-3.0 F1000.0 ; go outside pritn area
G1 X60.0 E9.0  F1000.0 ; intro line
G1 X100.0 E12.5  F1000.0 ; intro line
G21 ; set units to millimeters
G90 ; use absolute coordinates
M83 ; use relative distances for extrusion
G1 E-0.80000 F2100.00000
G1 Z0.200 F7200.000
G1 X73.507 Y69.340 F7200.000
G1 E0.80000 F2100.00000
M204 S1000
G1 F2100
G1 X75.255 Y66.998 E0.09162
G1 X77.059 Y64.903 E0.08669
G1 X79.038 Y62.889 E0.08852
G1 X81.200 Y60.949 E0.09111
G1 X83.307 Y59.265 E0.08457
G1 X85.508 Y57.688 E0.08489
G1 X87.623 Y56.318 E0.07899
G1 X89.757 Y55.061 E0.07767
G1 X123.824 Y35.674 E1.22901
G1 X124.259 Y35.481 E0.01490
G1 X124.727 Y35.378 E0.01502
G1 X125.099 Y35.365 E0.01169
G1 X125.470 Y35.409 E0.01169
G1 X125.828 Y35.512 E0.01169
G1 X126.170 Y35.670 E0.01181
G1 X160.569 Y55.243 E1.24093
G1 X162.328 Y56.285 E0.06410
G1 X164.048 Y57.388 E0.06408
G1 X165.889 Y58.668 E0.07028
G1 X167.664 Y60.017 E0.06993
G1 X169.401 Y61.464 E0.07087
G1 X171.034 Y62.957 E0.06937
G1 X172.595 Y64.532 E0.06953
G1 X174.183 Y66.314 E0.07484
G1 X175.560 Y68.043 E0.06932
G1 X176.835 Y69.844 E0.06918
G1 X178.106 Y71.899 E0.07575
G1 X179.134 Y73.816 E0.06820
G1 X180.070 Y75.860 E0.07050
G1 X180.899 Y78.040 E0.07312
G1 X181.535 Y80.087 E0.06720
G1 X182.062 Y82.245 E0.06966
G1 X182.477 Y84.544 E0.07324
G1 X182.746 Y86.790 E0.07092
G1 X188.526 Y151.993 E2.05243
G1 X188.523 Y152.419 E0.01336
G1 X188.444 Y152.838 E0.01336
G1 X188.292 Y153.236 E0.01336
G1 X188.072 Y153.600 E0.01336
G1 X187.904 Y153.803 E0.00824
G1 X169.331 Y173.901 E0.85805
G1 X169.060 Y174.146 E0.01145
G1 X168.750 Y174.347 E0.01157
G1 X168.417 Y174.497 E0.01145
G1 X168.061 Y174.595 E0.01157
G1 X167.612 Y174.637 E0.01416
G1 X82.377 Y174.637 E2.67247
G1 X82.005 Y174.606 E0.01169
G1 X81.643 Y174.518 E0.01169
G1 X81.299 Y174.373 E0.01169
G1 X80.982 Y174.177 E0.01169
G1 X80.645 Y173.876 E0.01419
G1 X62.072 Y153.777 E0.85805
G1 X61.835 Y153.464 E0.01229
G1 X61.654 Y153.117 E0.01229
G1 X61.532 Y152.748 E0.01217
G1 X61.472 Y152.361 E0.01229
G1 X61.475 Y151.981 E0.01191
G1 X67.160 Y88.015 E2.01353
G1 X67.432 Y85.196 E0.08878
G1 X67.900 Y82.423 E0.08817
G1 X68.560 Y79.754 E0.08622
G1 X69.489 Y76.962 E0.09226
G1 X70.674 Y74.214 E0.09382
G1 X71.969 Y71.765 E0.08687
G1 X73.473 Y69.390 E0.08816
G1 F5760
G1 X74.784 Y67.630 E-0.76000
G1 E-0.04000 F2100.00000
G1 X125.000 Y39.605 F7200.000
G1 E0.80000 F2100.00000
G1 F1680
G1 X125.515 Y40.331 E0.02789
G1 X126.316 Y41.286 E0.03908
G1 X127.130 Y42.145 E0.03712
G1 X127.897 Y42.884 E0.03339
G1 X128.677 Y43.583 E0.03285
G1 X130.373 Y44.960 E0.06849
G1 X132.265 Y46.310 E0.07288
G1 X134.392 Y47.634 E0.07857
G1 X136.529 Y48.778 E0.07597
G1 X138.650 Y49.751 E0.07317
G1 X140.739 Y50.587 E0.07054
G1 X142.857 Y51.356 E0.07068
G1 X147.359 Y52.935 E0.14957
G1 X149.830 Y53.863 E0.08277
G1 X151.182 Y54.404 E0.04565
G1 X152.584 Y54.996 E0.04774
G1 X154.095 Y55.672 E0.05188
G1 X155.665 Y56.422 E0.05456
G1 X157.246 Y57.230 E0.05566
G1 X158.899 Y58.137 E0.05914
G1 X160.576 Y59.130 E0.06110
G1 X162.226 Y60.189 E0.06148
G1 X163.913 Y61.363 E0.06443
G1 X165.583 Y62.632 E0.06579
G1 X167.168 Y63.951 E0.06464
G1 X168.720 Y65.368 E0.06589
G1 X170.195 Y66.857 E0.06573
G1 X171.588 Y68.418 E0.06559
G1 X172.890 Y70.052 E0.06550
G1 X174.071 Y71.722 E0.06414
G1 X175.168 Y73.490 E0.06524
G1 X176.132 Y75.283 E0.06382
G1 X176.990 Y77.158 E0.06468
G1 X177.705 Y79.024 E0.06265
G1 X178.314 Y80.978 E0.06418
G1 X178.803 Y82.985 E0.06476
G1 X179.172 Y85.040 E0.06547
G1 X179.414 Y87.057 E0.06370
G1 X179.550 Y89.107 E0.06441
G1 X179.586 Y91.151 E0.06411
G1 X179.532 Y93.192 E0.06399
G1 X179.403 Y95.223 E0.06381
G1 X178.970 Y99.260 E0.12733
G1 X178.378 Y103.323 E0.12874
G1 X177.369 Y109.691 E0.20213
G1 X177.017 Y112.075 E0.07558
G1 X176.685 Y114.522 E0.07741
G1 X176.361 Y117.201 E0.08461
G1 X175.960 Y121.162 E0.12485
G1 X175.708 Y124.505 E0.10510
G1 X175.608 Y126.401 E0.05954
G1 X175.551 Y128.100 E0.05329
G1 X175.533 Y129.583 E0.04650
G1 X175.573 Y131.849 E0.07107
G1 X175.665 Y133.426 E0.04954
G1 X175.764 Y134.514 E0.03425
G1 X176.023 Y136.452 E0.06130
G1 X176.392 Y138.321 E0.05972
G1 X176.874 Y140.093 E0.05760
G1 X177.470 Y141.784 E0.05622
G1 X178.184 Y143.408 E0.05561
G1 X179.001 Y144.947 E0.05463
G1 X179.939 Y146.460 E0.05583
G1 X180.905 Y147.834 E0.05266
G1 X181.911 Y149.123 E0.05126
G1 X182.908 Y150.290 E0.04812
G1 X183.863 Y151.320 E0.04405
G1 X184.794 Y152.246 E0.04116
G1 X167.317 Y171.158 E0.80738
G1 X162.708 Y169.715 E0.15143
G1 X157.437 Y168.297 E0.17117
G1 X152.112 Y167.092 E0.17117
G1 X146.743 Y166.104 E0.17117
G1 X141.338 Y165.334 E0.17117
G1 X135.907 Y164.783 E0.17117
G1 X130.458 Y164.452 E0.17117
G1 X125.000 Y164.342 E0.17117
G1 X119.542 Y164.452 E0.17117
G1 X114.093 Y164.783 E0.17117
G1 X108.662 Y165.334 E0.17117
G1 X103.257 Y166.104 E0.17117
G1 X97.888 Y167.092 E0.17117
G1 X92.563 Y168.297 E0.17117
G1 X87.292 Y169.715 E0.17117
G1 X82.683 Y171.158 E0.15143
G1 X65.195 Y152.234 E0.80790
G1 X65.993 Y151.473 E0.03457
G1 X67.423 Y149.914 E0.06635
G1 X68.723 Y148.326 E0.06432
G1 X69.861 Y146.761 E0.06068
G1 X70.801 Y145.289 E0.05474
G1 X71.603 Y143.836 E0.05206
G1 X72.268 Y142.417 E0.04913
G1 X72.805 Y141.053 E0.04596
G1 X73.265 Y139.631 E0.04686
G1 X73.645 Y138.160 E0.04764
G1 X73.942 Y136.667 E0.04773
G1 X74.177 Y135.044 E0.05141
G1 X74.335 Y133.422 E0.05112
G1 X74.431 Y131.686 E0.05451
G1 X74.467 Y129.902 E0.05595
G1 X74.446 Y127.989 E0.05997
G1 X74.373 Y126.006 E0.06222
G1 X74.258 Y123.984 E0.06349
G1 X73.938 Y120.063 E0.12335
G1 X73.539 Y116.331 E0.11770
G1 X73.100 Y112.912 E0.10806
G1 X72.640 Y109.748 E0.10025
G1 X71.338 Y101.459 E0.26308
G1 X70.969 Y98.793 E0.08438
G1 X70.678 Y96.170 E0.08278
G1 X70.483 Y93.547 E0.08246
G1 X70.412 Y90.920 E0.08238
G1 X70.491 Y88.285 E0.08266
G1 X70.741 Y85.661 E0.08265
G1 X71.172 Y83.101 E0.08141
G1 X71.793 Y80.600 E0.08079
G1 X72.612 Y78.153 E0.08090
G1 X73.639 Y75.755 E0.08180
G1 X74.860 Y73.442 E0.08201
G1 X76.255 Y71.241 E0.08172
G1 X77.812 Y69.149 E0.08175
G1 X79.518 Y67.166 E0.08200
G1 X81.360 Y65.292 E0.08239
G1 X83.314 Y63.537 E0.08236
G1 X85.290 Y61.956 E0.07934
G1 X87.330 Y60.489 E0.07879
G1 X89.417 Y59.138 E0.07795
G1 X91.416 Y57.962 E0.07270
G1 X93.414 Y56.889 E0.07111
G1 X95.350 Y55.934 E0.06771
G1 X97.203 Y55.090 E0.06383
G1 X98.914 Y54.365 E0.05826
G1 X100.528 Y53.723 E0.05447
G1 X103.355 Y52.678 E0.09450
G1 X107.206 Y51.332 E0.12788
G1 X109.647 Y50.439 E0.08152
G1 X112.024 Y49.457 E0.08062
G1 X114.423 Y48.291 E0.08365
G1 X116.889 Y46.860 E0.08941
G1 X119.179 Y45.296 E0.08694
G1 X120.263 Y44.465 E0.04283
G1 X121.274 Y43.627 E0.04116
G1 X122.193 Y42.801 E0.03873
G1 X123.034 Y41.977 E0.03693
G1 X123.838 Y41.109 E0.03710
G1 X124.578 Y40.207 E0.03657
G1 X124.965 Y39.654 E0.02116
G1 X124.952 Y39.016 F7200.000
G1 F1680
G1 X125.002 Y38.929 E0.00315
G1 X125.081 Y39.068 E0.00503
G1 X125.814 Y40.100 E0.03967
G1 X126.597 Y41.035 E0.03824
G1 X127.398 Y41.879 E0.03649
G1 X128.153 Y42.608 E0.03291
G1 X128.922 Y43.296 E0.03235
G1 X130.602 Y44.660 E0.06784
G1 X132.475 Y45.996 E0.07214
G1 X134.581 Y47.308 E0.07781
G1 X136.696 Y48.440 E0.07522
G1 X138.799 Y49.404 E0.07252
G1 X140.873 Y50.234 E0.07005
G1 X142.984 Y51.001 E0.07042
G1 X147.487 Y52.580 E0.14963
G1 X149.966 Y53.511 E0.08303
G1 X151.325 Y54.055 E0.04589
G1 X152.735 Y54.650 E0.04798
G1 X154.253 Y55.330 E0.05215
G1 X155.832 Y56.084 E0.05487
G1 X157.422 Y56.896 E0.05600
G1 X159.086 Y57.810 E0.05951
G1 X160.774 Y58.809 E0.06150
G1 X162.436 Y59.875 E0.06192
G1 X164.135 Y61.058 E0.06490
G1 X165.818 Y62.337 E0.06629
G1 X167.416 Y63.666 E0.06517
G1 X168.981 Y65.096 E0.06646
G1 X170.470 Y66.599 E0.06634
G1 X171.876 Y68.175 E0.06623
G1 X173.191 Y69.825 E0.06616
G1 X174.385 Y71.514 E0.06484
G1 X175.495 Y73.301 E0.06596
G1 X176.469 Y75.115 E0.06456
G1 X177.338 Y77.012 E0.06543
G1 X178.061 Y78.901 E0.06340
G1 X178.678 Y80.878 E0.06493
G1 X179.172 Y82.907 E0.06550
G1 X179.545 Y84.984 E0.06618
G1 X179.790 Y87.022 E0.06436
G1 X179.927 Y89.091 E0.06502
G1 X179.963 Y91.153 E0.06465
G1 X179.909 Y93.209 E0.06447
G1 X179.779 Y95.255 E0.06429
G1 X179.344 Y99.308 E0.12781
G1 X178.750 Y103.380 E0.12903
G1 X177.742 Y109.748 E0.20214
G1 X177.391 Y112.128 E0.07545
G1 X177.059 Y114.570 E0.07726
G1 X176.735 Y117.243 E0.08441
G1 X176.336 Y121.196 E0.12458
G1 X176.084 Y124.529 E0.10481
G1 X175.985 Y126.417 E0.05929
G1 X175.928 Y128.108 E0.05306
G1 X175.910 Y129.582 E0.04620
G1 X175.950 Y131.835 E0.07065
G1 X176.042 Y133.398 E0.04911
G1 X176.139 Y134.472 E0.03381
G1 X176.395 Y136.390 E0.06068
G1 X176.760 Y138.234 E0.05894
G1 X177.234 Y139.981 E0.05675
G1 X177.821 Y141.646 E0.05534
G1 X178.524 Y143.243 E0.05473
G1 X179.328 Y144.759 E0.05380
G1 X180.254 Y146.252 E0.05508
G1 X181.208 Y147.609 E0.05202
G1 X182.203 Y148.884 E0.05071
G1 X183.190 Y150.039 E0.04762
G1 X184.135 Y151.059 E0.04359
G1 X185.005 Y151.928 E0.03857
G1 X185.327 Y152.225 E0.01373
G1 X167.432 Y171.589 E0.82669
G1 X162.603 Y170.077 E0.15867
G1 X157.346 Y168.663 E0.17069
G1 X152.036 Y167.462 E0.17069
G1 X146.682 Y166.476 E0.17069
G1 X141.293 Y165.708 E0.17069
G1 X135.877 Y165.159 E0.17069
G1 X130.443 Y164.829 E0.17069
G1 X125.000 Y164.719 E0.17069
G1 X119.557 Y164.829 E0.17069
G1 X114.123 Y165.159 E0.17069
G1 X108.707 Y165.708 E0.17069
G1 X103.318 Y166.476 E0.17069
G1 X97.964 Y167.462 E0.17069
G1 X92.654 Y168.663 E0.17069
G1 X87.397 Y170.077 E0.17069
G1 X82.567 Y171.589 E0.15867
G1 X64.666 Y152.218 E0.82701
G1 X65.723 Y151.209 E0.04581
G1 X67.138 Y149.666 E0.06563
G1 X68.425 Y148.096 E0.06365
G1 X69.549 Y146.548 E0.05998
G1 X70.476 Y145.097 E0.05400
G1 X71.267 Y143.664 E0.05130
G1 X71.922 Y142.268 E0.04836
G1 X72.450 Y140.926 E0.04522
G1 X72.903 Y139.526 E0.04614
G1 X73.277 Y138.076 E0.04695
G1 X73.570 Y136.603 E0.04709
G1 X73.802 Y134.999 E0.05082
G1 X73.959 Y133.393 E0.05059
G1 X74.054 Y131.672 E0.05405
G1 X74.090 Y129.900 E0.05556
G1 X74.069 Y127.998 E0.05964
G1 X73.997 Y126.023 E0.06195
G1 X73.881 Y124.010 E0.06322
G1 X73.562 Y120.099 E0.12306
G1 X73.164 Y116.375 E0.11743
G1 X72.726 Y112.963 E0.10784
G1 X72.267 Y109.804 E0.10009
G1 X70.965 Y101.514 E0.26312
G1 X70.595 Y98.840 E0.08465
G1 X70.302 Y96.204 E0.08315
G1 X70.107 Y93.566 E0.08296
G1 X70.035 Y90.920 E0.08299
G1 X70.114 Y88.262 E0.08338
G1 X70.367 Y85.612 E0.08346
G1 X70.803 Y83.024 E0.08229
G1 X71.431 Y80.495 E0.08171
G1 X72.259 Y78.019 E0.08185
G1 X73.298 Y75.593 E0.08276
G1 X74.534 Y73.253 E0.08296
G1 X75.944 Y71.027 E0.08263
G1 X77.517 Y68.913 E0.08262
G1 X79.240 Y66.911 E0.08281
G1 X81.099 Y65.020 E0.08315
G1 X83.070 Y63.249 E0.08307
G1 X85.062 Y61.655 E0.07999
G1 X87.118 Y60.178 E0.07939
G1 X89.219 Y58.817 E0.07849
G1 X91.231 Y57.634 E0.07318
G1 X93.241 Y56.554 E0.07154
G1 X95.189 Y55.593 E0.06810
G1 X97.052 Y54.745 E0.06417
G1 X98.771 Y54.016 E0.05855
G1 X100.393 Y53.371 E0.05474
G1 X103.228 Y52.323 E0.09475
G1 X107.078 Y50.977 E0.12790
G1 X109.510 Y50.087 E0.08120
G1 X111.869 Y49.113 E0.08002
G1 X114.246 Y47.957 E0.08285
G1 X116.688 Y46.540 E0.08854
G1 X118.958 Y44.990 E0.08618
G1 X120.028 Y44.170 E0.04228
G1 X121.027 Y43.341 E0.04070
G1 X121.935 Y42.526 E0.03824
G1 X122.764 Y41.714 E0.03638
G1 X123.554 Y40.861 E0.03646
G1 X124.277 Y39.979 E0.03577
G1 X124.918 Y39.066 E0.03498
G1 X125.001 Y38.165 F7200.000
G1 F1260
G1 X125.399 Y38.865 E0.02527
G1 X126.112 Y39.869 E0.03860
G1 X126.879 Y40.784 E0.03741
G1 X127.665 Y41.614 E0.03586
G1 X128.410 Y42.332 E0.03242
G1 X129.166 Y43.009 E0.03184
G1 X130.830 Y44.360 E0.06718
G1 X132.684 Y45.682 E0.07140
G1 X134.770 Y46.981 E0.07706
G1 X136.864 Y48.102 E0.07447
G1 X138.947 Y49.058 E0.07186
G1 X141.007 Y49.882 E0.06957
G1 X143.111 Y50.646 E0.07017
G1 X147.616 Y52.226 E0.14969
G1 X150.103 Y53.159 E0.08328
G1 X151.468 Y53.706 E0.04613
G1 X152.885 Y54.305 E0.04822
G1 X154.411 Y54.988 E0.05242
G1 X155.999 Y55.746 E0.05517
G1 X157.599 Y56.563 E0.05633
G1 X159.273 Y57.482 E0.05987
G1 X160.972 Y58.488 E0.06190
G1 X162.646 Y59.561 E0.06235
G1 X164.357 Y60.753 E0.06537
G1 X166.053 Y62.042 E0.06680
G1 X167.664 Y63.382 E0.06570
G1 X169.242 Y64.824 E0.06703
G1 X170.745 Y66.340 E0.06694
G1 X172.164 Y67.932 E0.06686
G1 X173.493 Y69.599 E0.06683
G1 X174.700 Y71.305 E0.06553
G1 X175.821 Y73.112 E0.06669
G1 X176.807 Y74.947 E0.06531
G1 X177.686 Y76.866 E0.06619
G1 X178.418 Y78.777 E0.06415
G1 X179.041 Y80.777 E0.06568
G1 X179.542 Y82.829 E0.06623
G1 X179.918 Y84.929 E0.06688
G1 X180.165 Y86.987 E0.06501
G1 X180.304 Y89.076 E0.06562
G1 X180.340 Y91.155 E0.06520
G1 X180.286 Y93.225 E0.06494
G1 X180.155 Y95.287 E0.06476
G1 X179.718 Y99.355 E0.12829
G1 X179.123 Y103.437 E0.12933
G1 X178.115 Y109.805 E0.20216
G1 X177.764 Y112.181 E0.07532
G1 X177.433 Y114.618 E0.07710
G1 X177.110 Y117.284 E0.08421
G1 X176.712 Y121.229 E0.12431
G1 X176.461 Y124.553 E0.10453
G1 X176.362 Y126.433 E0.05904
G1 X176.305 Y128.117 E0.05282
G1 X176.287 Y129.581 E0.04589
G1 X176.327 Y131.820 E0.07023
G1 X176.418 Y133.370 E0.04868
G1 X176.514 Y134.430 E0.03338
G1 X176.767 Y136.329 E0.06006
G1 X177.127 Y138.148 E0.05815
G1 X177.594 Y139.869 E0.05590
G1 X178.172 Y141.507 E0.05446
G1 X178.863 Y143.079 E0.05385
G1 X179.655 Y144.571 E0.05297
G1 X180.568 Y146.044 E0.05434
G1 X181.511 Y147.385 E0.05139
G1 X182.495 Y148.646 E0.05015
G1 X183.472 Y149.788 E0.04712
G1 X184.406 Y150.797 E0.04312
G1 X185.266 Y151.656 E0.03811
G1 X185.860 Y152.204 E0.02533
G1 X167.548 Y172.020 E0.84601
G1 X162.498 Y170.440 E0.16591
G1 X157.255 Y169.029 E0.17021
G1 X151.961 Y167.831 E0.17021
G1 X146.622 Y166.849 E0.17021
G1 X141.247 Y166.083 E0.17021
G1 X135.846 Y165.535 E0.17021
G1 X130.428 Y165.206 E0.17021
G1 X125.000 Y165.096 E0.17021
G1 X119.572 Y165.206 E0.17021
G1 X114.154 Y165.535 E0.17021
G1 X108.753 Y166.083 E0.17021
G1 X103.378 Y166.849 E0.17021
G1 X98.039 Y167.831 E0.17021
G1 X92.745 Y169.029 E0.17021
G1 X87.502 Y170.440 E0.17021
G1 X82.452 Y172.020 E0.16591
G1 X64.138 Y152.201 E0.84612
G1 X65.454 Y150.944 E0.05706
G1 X66.853 Y149.419 E0.06490
G1 X68.126 Y147.865 E0.06298
G1 X69.238 Y146.336 E0.05928
G1 X70.152 Y144.904 E0.05327
G1 X70.931 Y143.493 E0.05053
G1 X71.575 Y142.119 E0.04759
G1 X72.094 Y140.799 E0.04447
G1 X72.541 Y139.421 E0.04542
G1 X72.909 Y137.992 E0.04626
G1 X73.198 Y136.539 E0.04644
G1 X73.428 Y134.953 E0.05024
G1 X73.583 Y133.364 E0.05007
G1 X73.678 Y131.657 E0.05359
G1 X73.712 Y129.898 E0.05517
G1 X73.692 Y128.007 E0.05931
G1 X73.620 Y126.041 E0.06167
G1 X73.505 Y124.037 E0.06296
G1 X73.187 Y120.134 E0.12277
G1 X72.789 Y116.419 E0.11716
G1 X72.353 Y113.014 E0.10761
G1 X71.894 Y109.861 E0.09992
G1 X70.592 Y101.569 E0.26316
G1 X70.221 Y98.887 E0.08491
G1 X69.927 Y96.239 E0.08352
G1 X69.730 Y93.585 E0.08345
G1 X69.658 Y90.919 E0.08360
G1 X69.738 Y88.238 E0.08410
G1 X69.993 Y85.563 E0.08427
G1 X70.433 Y82.947 E0.08317
G1 X71.068 Y80.389 E0.08263
G1 X71.907 Y77.885 E0.08281
G1 X72.958 Y75.430 E0.08372
G1 X74.207 Y73.064 E0.08390
G1 X75.633 Y70.813 E0.08354
G1 X77.223 Y68.677 E0.08348
G1 X78.962 Y66.655 E0.08363
G1 X80.838 Y64.747 E0.08391
G1 X82.826 Y62.961 E0.08377
G1 X84.834 Y61.355 E0.08063
G1 X86.905 Y59.866 E0.07998
