; generated by Slic3r 1.33.8-prusa3d-win64 on 2017-07-11 at 19:41:59

; external perimeters extrusion width = 0.45mm
; perimeters extrusion width = 0.45mm
; infill extrusion width = 0.45mm
; solid infill extrusion width = 0.45mm
; top infill extrusion width = 0.40mm

M107
M115 U3.0.10 ; tell printer latest fw version
M83  ; extruder relative mode
M104 S215 ; set extruder temp
M140 S55 ; set bed temp
M190 S55 ; wait for bed temp
M109 S215 ; wait for extruder temp
G28 W ; home all without mesh bed level
G80 ; mesh bed leveling
G1 Y-3.0 F1000.0 ; go outside pritn area
G1 X60.0 E9.0  F1000.0 ; intro line
G1 X100.0 E12.5  F1000.0 ; intro line
G21 ; set units to millimeters
G90 ; use absolute coordinates
M83 ; use relative distances for extrusion
G1 E-0.80000 F2100.00000
G1 Z0.200 F7200.000
G1 X79.564 Y70.371 F7200.000
G1 E0.80000 F2100.00000
M204 S1000
G1 F2100
G1 X80.417 Y69.345 E0.04183
G1 X81.258 Y68.401 E0.03965
G1 X82.137 Y67.478 E0.03998
G1 X83.102 Y66.527 E0.04247
G1 X84.016 Y65.682 E0.03902
G1 X84.964 Y64.854 E0.03949
G1 X86.001 Y64.001 E0.04208
G1 X86.950 Y63.263 E0.03771
G1 X87.938 Y62.535 E0.03848
G1 X88.960 Y61.821 E0.03909
G1 X90.882 Y60.576 E0.07179
G1 X92.862 Y59.409 E0.07205
G1 X123.838 Y41.781 E1.11749
G1 X124.105 Y41.652 E0.00931
G1 X124.387 Y41.558 E0.00931
G1 X124.678 Y41.499 E0.00931
G1 X124.978 Y41.477 E0.00943
G1 X125.285 Y41.494 E0.00967
G1 X125.588 Y41.551 E0.00967
G1 X125.882 Y41.647 E0.00967
G1 X126.160 Y41.779 E0.00967
G1 X157.427 Y59.570 E1.12796
G1 X159.062 Y60.539 E0.05958
G1 X160.669 Y61.569 E0.05986
G1 X162.294 Y62.701 E0.06208
G1 X163.917 Y63.935 E0.06392
G1 X165.458 Y65.217 E0.06284
G1 X167.056 Y66.679 E0.06792
G1 X168.458 Y68.096 E0.06251
G1 X169.797 Y69.596 E0.06304
G1 X171.125 Y71.258 E0.06670
G1 X172.334 Y72.967 E0.06564
G1 X173.426 Y74.728 E0.06495
G1 X174.438 Y76.620 E0.06729
G1 X175.292 Y78.499 E0.06469
G1 X175.994 Y80.336 E0.06168
G1 X176.577 Y82.205 E0.06138
G1 X177.095 Y84.308 E0.06792
G1 X177.456 Y86.314 E0.06388
G1 X177.710 Y88.413 E0.06631
G1 X182.965 Y147.692 E1.86592
G1 X182.972 Y148.011 E0.01002
G1 X182.919 Y148.411 E0.01264
G1 X182.799 Y148.796 E0.01264
G1 X182.616 Y149.156 E0.01264
G1 X182.375 Y149.479 E0.01264
G1 X165.484 Y167.759 E0.78040
G1 X165.306 Y167.932 E0.00776
G1 X164.966 Y168.181 E0.01324
G1 X164.586 Y168.366 E0.01324
G1 X164.180 Y168.481 E0.01324
G1 X163.756 Y168.523 E0.01336
G1 X86.262 Y168.523 E2.42976
G1 X85.823 Y168.482 E0.01383
G1 X85.467 Y168.386 E0.01157
G1 X85.129 Y168.236 E0.01157
G1 X84.820 Y168.035 E0.01157
G1 X84.544 Y167.789 E0.01157
G1 X67.619 Y149.472 E0.78196
G1 X67.342 Y149.086 E0.01490
G1 X67.147 Y148.652 E0.01490
G1 X67.044 Y148.192 E0.01478
G1 X67.033 Y147.717 E0.01490
G1 X72.299 Y88.308 E1.87005
G1 X72.447 Y86.997 E0.04137
G1 X72.633 Y85.747 E0.03961
G1 X72.893 Y84.369 E0.04396
G1 X73.168 Y83.161 E0.03885
G1 X73.506 Y81.908 E0.04070
G1 X73.893 Y80.669 E0.04068
G1 X74.318 Y79.478 E0.03965
G1 X74.843 Y78.179 E0.04395
G1 X75.372 Y77.011 E0.04020
G1 X75.944 Y75.871 E0.03999
G1 X76.625 Y74.642 E0.04404
G1 X77.285 Y73.556 E0.03985
G1 X78.005 Y72.467 E0.04095
G1 X78.764 Y71.407 E0.04087
G1 X79.527 Y70.418 E0.03916
G1 F5760
G1 X80.417 Y69.345 E-0.48289
G1 F5760
G1 X80.950 Y68.748 E-0.27711
G1 E-0.04000 F2100.00000
G1 X125.000 Y45.703 F7200.000
G1 E0.80000 F2100.00000
G1 F1680
G1 X125.399 Y46.264 E0.02158
G1 X126.130 Y47.136 E0.03567
G1 X126.865 Y47.912 E0.03354
G1 X127.573 Y48.595 E0.03084
G1 X128.270 Y49.220 E0.02935
G1 X129.020 Y49.849 E0.03070
G1 X129.831 Y50.487 E0.03234
G1 X130.671 Y51.107 E0.03275
G1 X131.578 Y51.733 E0.03452
G1 X132.507 Y52.332 E0.03466
G1 X133.495 Y52.925 E0.03616
G1 X134.487 Y53.476 E0.03557
G1 X135.444 Y53.968 E0.03373
G1 X136.412 Y54.429 E0.03363
G1 X137.380 Y54.856 E0.03317
G1 X139.276 Y55.615 E0.06403
G1 X141.204 Y56.315 E0.06432
G1 X145.296 Y57.751 E0.13597
G1 X147.542 Y58.593 E0.07520
G1 X148.768 Y59.084 E0.04141
G1 X150.043 Y59.623 E0.04341
G1 X151.413 Y60.236 E0.04707
G1 X152.822 Y60.909 E0.04896
G1 X154.274 Y61.650 E0.05113
G1 X155.774 Y62.474 E0.05364
G1 X157.279 Y63.365 E0.05485
G1 X158.795 Y64.336 E0.05643
G1 X160.324 Y65.401 E0.05843
G1 X161.839 Y66.552 E0.05966
G1 X163.278 Y67.750 E0.05871
G1 X164.685 Y69.035 E0.05974
G1 X166.023 Y70.385 E0.05959
G1 X167.273 Y71.786 E0.05889
G1 X168.455 Y73.266 E0.05936
G1 X169.547 Y74.811 E0.05933
G1 X170.531 Y76.398 E0.05856
G1 X171.405 Y78.024 E0.05788
G1 X172.176 Y79.706 E0.05801
G1 X172.837 Y81.431 E0.05792
G1 X173.383 Y83.186 E0.05762
G1 X173.826 Y85.004 E0.05869
G1 X174.158 Y86.851 E0.05882
G1 X174.382 Y88.714 E0.05886
G1 X174.504 Y90.573 E0.05839
G1 X174.536 Y92.410 E0.05763
G1 X174.487 Y94.261 E0.05805
G1 X174.370 Y96.109 E0.05806
G1 X174.195 Y97.956 E0.05816
G1 X173.977 Y99.766 E0.05718
G1 X173.438 Y103.463 E0.11712
G1 X172.521 Y109.254 E0.18385
G1 X172.049 Y112.516 E0.10336
G1 X171.605 Y116.079 E0.11257
G1 X171.243 Y119.650 E0.11252
G1 X171.075 Y121.749 E0.06605
G1 X170.960 Y123.617 E0.05868
G1 X170.889 Y125.267 E0.05177
G1 X170.856 Y126.679 E0.04428
G1 X170.853 Y127.930 E0.03923
G1 X170.888 Y129.414 E0.04654
G1 X170.951 Y130.559 E0.03597
G1 X171.061 Y131.831 E0.04002
G1 X171.168 Y132.733 E0.02850
G1 X171.298 Y133.608 E0.02771
G1 X171.457 Y134.485 E0.02797
G1 X171.641 Y135.334 E0.02722
G1 X172.074 Y136.930 E0.05185
G1 X172.624 Y138.484 E0.05169
G1 X173.270 Y139.954 E0.05034
G1 X174.016 Y141.361 E0.04992
G1 X174.871 Y142.739 E0.05085
G1 X175.753 Y143.993 E0.04808
G1 X176.670 Y145.168 E0.04672
G1 X177.579 Y146.231 E0.04386
G1 X178.449 Y147.171 E0.04015
G1 X179.235 Y147.955 E0.03481
G1 X163.446 Y165.041 E0.72943
G1 X160.257 Y164.029 E0.10488
G1 X156.433 Y162.950 E0.12458
G1 X152.577 Y161.996 E0.12458
G1 X148.691 Y161.166 E0.12458
G1 X144.780 Y160.463 E0.12458
G1 X140.849 Y159.886 E0.12458
G1 X136.902 Y159.437 E0.12458
G1 X132.996 Y159.121 E0.12285
G1 X128.973 Y158.924 E0.12629
G1 X125.000 Y158.859 E0.12458
G1 X121.027 Y158.924 E0.12458
G1 X117.059 Y159.116 E0.12458
G1 X113.098 Y159.437 E0.12458
G1 X109.151 Y159.886 E0.12458
G1 X105.220 Y160.463 E0.12458
G1 X101.309 Y161.166 E0.12458
G1 X97.423 Y161.996 E0.12458
G1 X93.620 Y162.937 E0.12285
G1 X89.743 Y164.029 E0.12629
G1 X86.554 Y165.041 E0.10488
G1 X70.766 Y147.956 E0.72940
G1 X71.425 Y147.303 E0.02909
G1 X72.720 Y145.893 E0.06003
G1 X73.341 Y145.154 E0.03029
G1 X73.913 Y144.436 E0.02877
G1 X74.928 Y143.041 E0.05410
G1 X75.396 Y142.332 E0.02664
G1 X76.182 Y141.011 E0.04819
G1 X76.539 Y140.338 E0.02388
G1 X77.143 Y139.051 E0.04457
G1 X77.637 Y137.792 E0.04242
G1 X78.053 Y136.507 E0.04234
G1 X78.399 Y135.165 E0.04344
G1 X78.673 Y133.788 E0.04403
G1 X78.883 Y132.340 E0.04586
G1 X79.028 Y130.845 E0.04712
G1 X79.116 Y129.264 E0.04963
G1 X79.148 Y127.637 E0.05102
G1 X79.129 Y125.897 E0.05458
G1 X79.063 Y124.093 E0.05661
G1 X78.958 Y122.257 E0.05765
G1 X78.824 Y120.453 E0.05671
G1 X78.664 Y118.647 E0.05684
G1 X78.300 Y115.257 E0.10691
G1 X77.905 Y112.181 E0.09725
G1 X77.486 Y109.305 E0.09111
G1 X76.298 Y101.735 E0.24027
G1 X75.968 Y99.347 E0.07557
G1 X75.703 Y96.965 E0.07517
G1 X75.527 Y94.584 E0.07485
G1 X75.462 Y92.193 E0.07498
G1 X75.480 Y91.006 E0.03724
G1 X75.533 Y89.809 E0.03755
G1 X75.627 Y88.613 E0.03763
G1 X75.760 Y87.430 E0.03732
G1 X75.935 Y86.262 E0.03702
G1 X76.151 Y85.109 E0.03680
G1 X76.411 Y83.969 E0.03665
G1 X76.714 Y82.842 E0.03659
G1 X77.062 Y81.728 E0.03661
G1 X77.456 Y80.625 E0.03672
G1 X77.897 Y79.533 E0.03693
G1 X78.387 Y78.451 E0.03721
G1 X78.920 Y77.391 E0.03722
G1 X79.494 Y76.355 E0.03712
G1 X80.107 Y75.345 E0.03706
G1 X80.758 Y74.360 E0.03704
G1 X81.446 Y73.399 E0.03705
G1 X82.169 Y72.463 E0.03708
G1 X82.926 Y71.552 E0.03714
G1 X83.716 Y70.666 E0.03722
G1 X84.536 Y69.803 E0.03732
G1 X85.373 Y68.979 E0.03684
G1 X86.264 Y68.154 E0.03806
G1 X87.159 Y67.374 E0.03721
G1 X88.051 Y66.640 E0.03625
G1 X88.968 Y65.926 E0.03641
G1 X89.891 Y65.246 E0.03597
G1 X90.815 Y64.600 E0.03534
G1 X92.681 Y63.392 E0.06968
G1 X94.528 Y62.306 E0.06718
G1 X96.325 Y61.341 E0.06397
G1 X98.071 Y60.480 E0.06103
G1 X98.916 Y60.087 E0.02922
G1 X100.538 Y59.375 E0.05555
G1 X102.787 Y58.466 E0.07605
G1 X105.353 Y57.517 E0.08579
G1 X108.853 Y56.294 E0.11625
G1 X111.073 Y55.481 E0.07414
G1 X113.209 Y54.600 E0.07243
G1 X114.314 Y54.087 E0.03819
G1 X115.425 Y53.523 E0.03906
G1 X116.553 Y52.897 E0.04047
G1 X117.673 Y52.219 E0.04103
G1 X118.733 Y51.523 E0.03975
G1 X119.767 Y50.789 E0.03977
G1 X120.748 Y50.037 E0.03876
G1 X121.661 Y49.281 E0.03716
G1 X122.508 Y48.519 E0.03572
G1 X123.292 Y47.752 E0.03440
G1 X123.997 Y46.990 E0.03254
G1 X124.686 Y46.150 E0.03406
G1 X124.965 Y45.752 E0.01524
G1 X125.001 Y45.045 F7200.000
G1 F1680
G1 X125.698 Y46.033 E0.03790
G1 X126.412 Y46.885 E0.03485
G1 X127.133 Y47.647 E0.03291
G1 X127.830 Y48.319 E0.03036
G1 X128.517 Y48.935 E0.02894
G1 X129.258 Y49.557 E0.03031
G1 X130.059 Y50.187 E0.03197
G1 X130.891 Y50.800 E0.03238
G1 X131.787 Y51.419 E0.03415
G1 X132.706 Y52.011 E0.03428
G1 X133.684 Y52.599 E0.03578
G1 X134.665 Y53.144 E0.03518
G1 X135.611 Y53.630 E0.03335
G1 X136.569 Y54.086 E0.03329
G1 X137.526 Y54.509 E0.03279
G1 X139.410 Y55.263 E0.06363
G1 X141.331 Y55.960 E0.06406
G1 X145.425 Y57.396 E0.13603
G1 X147.678 Y58.242 E0.07545
G1 X148.911 Y58.736 E0.04165
G1 X150.193 Y59.277 E0.04364
G1 X151.571 Y59.894 E0.04734
G1 X152.989 Y60.571 E0.04926
G1 X154.451 Y61.317 E0.05147
G1 X155.961 Y62.146 E0.05401
G1 X157.477 Y63.044 E0.05525
G1 X159.004 Y64.022 E0.05687
G1 X160.546 Y65.096 E0.05890
G1 X162.074 Y66.257 E0.06017
G1 X163.526 Y67.465 E0.05925
G1 X164.946 Y68.763 E0.06031
G1 X166.298 Y70.127 E0.06019
G1 X167.562 Y71.543 E0.05952
G1 X168.756 Y73.039 E0.06003
G1 X169.861 Y74.603 E0.06003
G1 X170.858 Y76.210 E0.05928
G1 X171.743 Y77.856 E0.05862
G1 X172.524 Y79.560 E0.05877
G1 X173.193 Y81.308 E0.05867
G1 X173.747 Y83.085 E0.05836
G1 X174.195 Y84.926 E0.05942
G1 X174.531 Y86.795 E0.05952
G1 X174.758 Y88.680 E0.05952
G1 X174.881 Y90.557 E0.05900
G1 X174.913 Y92.412 E0.05817
G1 X174.864 Y94.278 E0.05852
G1 X174.746 Y96.139 E0.05847
G1 X174.570 Y97.996 E0.05849
G1 X174.351 Y99.816 E0.05747
G1 X173.811 Y103.519 E0.11734
G1 X172.894 Y109.311 E0.18385
G1 X172.423 Y112.567 E0.10316
G1 X171.979 Y116.122 E0.11232
G1 X171.619 Y119.684 E0.11226
G1 X171.452 Y121.776 E0.06582
G1 X171.336 Y123.637 E0.05846
G1 X171.266 Y125.279 E0.05154
G1 X171.233 Y126.684 E0.04405
G1 X171.230 Y127.926 E0.03895
G1 X171.265 Y129.399 E0.04621
G1 X171.327 Y130.533 E0.03560
G1 X171.436 Y131.792 E0.03965
G1 X171.542 Y132.684 E0.02814
G1 X171.670 Y133.546 E0.02735
G1 X171.827 Y134.412 E0.02758
G1 X172.007 Y135.244 E0.02671
G1 X172.435 Y136.817 E0.05110
G1 X172.975 Y138.345 E0.05081
G1 X173.610 Y139.789 E0.04946
G1 X174.343 Y141.173 E0.04909
G1 X175.186 Y142.531 E0.05011
G1 X176.056 Y143.768 E0.04744
G1 X176.962 Y144.929 E0.04617
G1 X177.860 Y145.981 E0.04336
G1 X178.721 Y146.909 E0.03968
G1 X179.767 Y147.935 E0.04594
G1 X163.560 Y165.473 E0.74875
G1 X160.149 Y164.391 E0.11220
G1 X156.337 Y163.315 E0.12420
G1 X152.492 Y162.363 E0.12420
G1 X148.618 Y161.536 E0.12420
G1 X144.720 Y160.835 E0.12420
G1 X140.801 Y160.260 E0.12420
G1 X136.865 Y159.813 E0.12420
G1 X132.972 Y159.497 E0.12247
G1 X128.961 Y159.300 E0.12591
G1 X125.000 Y159.236 E0.12420
G1 X121.039 Y159.300 E0.12420
G1 X117.083 Y159.493 E0.12420
G1 X113.135 Y159.813 E0.12420
G1 X109.199 Y160.260 E0.12420
G1 X105.280 Y160.835 E0.12420
G1 X101.382 Y161.536 E0.12420
G1 X97.508 Y162.363 E0.12420
G1 X93.716 Y163.302 E0.12247
G1 X89.851 Y164.391 E0.12591
G1 X86.440 Y165.473 E0.11220
G1 X70.234 Y147.936 E0.74872
G1 X71.153 Y147.042 E0.04021
G1 X72.436 Y145.644 E0.05949
G1 X73.049 Y144.915 E0.02987
G1 X73.612 Y144.207 E0.02835
G1 X74.618 Y142.826 E0.05358
G1 X75.077 Y142.131 E0.02609
G1 X75.853 Y140.826 E0.04763
G1 X76.201 Y140.169 E0.02330
G1 X76.796 Y138.902 E0.04390
G1 X77.282 Y137.665 E0.04167
G1 X77.690 Y136.402 E0.04162
G1 X78.031 Y135.081 E0.04275
G1 X78.301 Y133.724 E0.04339
G1 X78.508 Y132.295 E0.04527
G1 X78.652 Y130.816 E0.04659
G1 X78.739 Y129.250 E0.04917
G1 X78.771 Y127.636 E0.05063
G1 X78.752 Y125.906 E0.05424
G1 X78.687 Y124.110 E0.05634
G1 X78.582 Y122.282 E0.05743
G1 X78.448 Y120.484 E0.05653
G1 X78.288 Y118.684 E0.05665
G1 X77.926 Y115.301 E0.10668
G1 X77.531 Y112.232 E0.09702
G1 X77.114 Y109.361 E0.09095
G1 X75.925 Y101.790 E0.24031
G1 X75.594 Y99.394 E0.07583
G1 X75.328 Y96.999 E0.07554
G1 X75.150 Y94.603 E0.07535
G1 X75.085 Y92.196 E0.07550
G1 X75.103 Y90.994 E0.03767
G1 X75.157 Y89.786 E0.03792
G1 X75.251 Y88.577 E0.03803
G1 X75.386 Y87.381 E0.03774
G1 X75.563 Y86.200 E0.03745
G1 X75.782 Y85.032 E0.03724
G1 X76.044 Y83.878 E0.03711
G1 X76.352 Y82.737 E0.03705
G1 X76.704 Y81.608 E0.03709
G1 X77.104 Y80.491 E0.03720
G1 X77.551 Y79.384 E0.03741
G1 X78.046 Y78.289 E0.03770
G1 X78.586 Y77.215 E0.03770
G1 X79.167 Y76.166 E0.03759
G1 X79.788 Y75.143 E0.03752
G1 X80.447 Y74.146 E0.03748
G1 X81.143 Y73.174 E0.03748
G1 X81.875 Y72.227 E0.03751
G1 X82.640 Y71.306 E0.03756
G1 X83.438 Y70.410 E0.03762
G1 X84.267 Y69.539 E0.03770
G1 X85.113 Y68.706 E0.03721
G1 X86.012 Y67.873 E0.03843
G1 X86.915 Y67.086 E0.03756
G1 X87.816 Y66.345 E0.03658
G1 X88.740 Y65.626 E0.03673
G1 X89.672 Y64.939 E0.03628
G1 X90.605 Y64.287 E0.03570
G1 X92.482 Y63.071 E0.07014
G1 X94.343 Y61.977 E0.06767
G1 X96.152 Y61.005 E0.06440
G1 X97.908 Y60.139 E0.06137
G1 X98.761 Y59.743 E0.02948
G1 X100.392 Y59.027 E0.05585
G1 X102.651 Y58.114 E0.07640
G1 X105.226 Y57.162 E0.08607
G1 X108.726 Y55.939 E0.11626
G1 X110.937 Y55.129 E0.07381
G1 X113.057 Y54.254 E0.07193
G1 X114.149 Y53.748 E0.03773
G1 X115.248 Y53.190 E0.03864
G1 X116.364 Y52.571 E0.04002
G1 X117.472 Y51.900 E0.04059
G1 X118.520 Y51.212 E0.03932
G1 X119.543 Y50.486 E0.03933
G1 X120.513 Y49.742 E0.03832
G1 X121.414 Y48.995 E0.03671
G1 X122.250 Y48.244 E0.03523
G1 X123.021 Y47.489 E0.03385
G1 X123.712 Y46.742 E0.03190
G1 X124.386 Y45.922 E0.03326
G1 X124.966 Y45.094 E0.03171
G1 X125.003 Y44.284 F7200.000
G1 F1260
G1 X125.356 Y44.903 E0.02234
G1 X125.996 Y45.802 E0.03461
G1 X126.693 Y46.634 E0.03403
G1 X127.401 Y47.381 E0.03228
G1 X128.087 Y48.043 E0.02987
G1 X128.765 Y48.650 E0.02854
G1 X129.496 Y49.264 E0.02993
G1 X130.288 Y49.887 E0.03160
G1 X131.110 Y50.493 E0.03201
G1 X131.996 Y51.105 E0.03378
G1 X132.905 Y51.691 E0.03391
G1 X133.873 Y52.272 E0.03539
G1 X134.843 Y52.811 E0.03479
G1 X135.778 Y53.292 E0.03298
G1 X136.727 Y53.744 E0.03294
G1 X137.672 Y54.161 E0.03241
G1 X139.545 Y54.910 E0.06323
G1 X141.458 Y55.605 E0.06381
G1 X145.554 Y57.042 E0.13610
G1 X147.814 Y57.890 E0.07571
G1 X149.054 Y58.387 E0.04188
G1 X150.344 Y58.931 E0.04388
G1 X151.730 Y59.552 E0.04761
G1 X153.156 Y60.232 E0.04956
G1 X154.627 Y60.984 E0.05180
G1 X156.148 Y61.818 E0.05438
G1 X157.675 Y62.723 E0.05565
G1 X159.214 Y63.709 E0.05730
G1 X160.768 Y64.791 E0.05937
G1 X162.309 Y65.962 E0.06067
G1 X163.774 Y67.181 E0.05978
G1 X165.208 Y68.491 E0.06088
G1 X166.573 Y69.868 E0.06080
G1 X167.850 Y71.300 E0.06016
G1 X169.058 Y72.813 E0.06070
G1 X170.176 Y74.394 E0.06073
G1 X171.185 Y76.021 E0.06001
G1 X172.081 Y77.688 E0.05936
G1 X172.872 Y79.414 E0.05952
G1 X173.550 Y81.184 E0.05943
G1 X174.110 Y82.984 E0.05911
G1 X174.564 Y84.848 E0.06016
G1 X174.904 Y86.739 E0.06023
G1 X175.133 Y88.645 E0.06019
G1 X175.258 Y90.542 E0.05960
G1 X175.290 Y92.414 E0.05871
G1 X175.241 Y94.295 E0.05900
G1 X175.122 Y96.169 E0.05888
G1 X174.945 Y98.036 E0.05882
G1 X174.725 Y99.866 E0.05777
G1 X174.184 Y103.576 E0.11756
G1 X173.267 Y109.367 E0.18384
G1 X172.797 Y112.617 E0.10297
G1 X172.354 Y116.164 E0.11206
G1 X171.995 Y119.718 E0.11200
G1 X171.828 Y121.803 E0.06559
G1 X171.713 Y123.657 E0.05824
G1 X171.643 Y125.292 E0.05131
G1 X171.610 Y126.688 E0.04381
G1 X171.607 Y127.922 E0.03867
G1 X171.642 Y129.384 E0.04587
G1 X171.703 Y130.506 E0.03522
G1 X171.811 Y131.754 E0.03927
G1 X171.916 Y132.634 E0.02777
G1 X172.042 Y133.485 E0.02699
G1 X172.197 Y134.338 E0.02719
G1 X172.373 Y135.155 E0.02620
G1 X172.795 Y136.705 E0.05036
G1 X173.325 Y138.206 E0.04993
G1 X173.949 Y139.625 E0.04859
G1 X174.670 Y140.985 E0.04826
G1 X175.500 Y142.323 E0.04937
G1 X176.359 Y143.544 E0.04681
