; generated by Slic3r 1.33.8-prusa3d-win64 on 2017-07-12 at 12:04:56

; external perimeters extrusion width = 0.45mm
; perimeters extrusion width = 0.45mm
; infill extrusion width = 0.45mm
; solid infill extrusion width = 0.45mm
; top infill extrusion width = 0.40mm

M107
M115 U3.0.10 ; tell printer latest fw version
M83  ; extruder relative mode
M104 S215 ; set extruder temp
M140 S55 ; set bed temp
M190 S55 ; wait for bed temp
M109 S215 ; wait for extruder temp
G28 W ; home all without mesh bed level
G80 ; mesh bed leveling
G1 Y-3.0 F1000.0 ; go outside pritn area
G1 X60.0 E9.0  F1000.0 ; intro line
G1 X100.0 E12.5  F1000.0 ; intro line
G21 ; set units to millimeters
G90 ; use absolute coordinates
M83 ; use relative distances for extrusion
G1 E-0.80000 F2100.00000
G1 Z0.200 F7200.000
G1 X112.156 Y93.728 F7200.000
G1 E0.80000 F2100.00000
M204 S1000
G1 F2100
G1 X112.761 Y93.004 E0.02956
G1 X113.435 Y92.288 E0.03085
G1 X114.151 Y91.613 E0.03084
G1 X114.853 Y91.027 E0.02866
G1 X115.774 Y90.349 E0.03586
G1 X116.545 Y89.852 E0.02879
G1 X117.402 Y89.369 E0.03085
G1 X118.287 Y88.938 E0.03085
G1 X119.196 Y88.562 E0.03084
G1 X120.130 Y88.239 E0.03098
G1 X121.006 Y87.993 E0.02853
G1 X122.128 Y87.752 E0.03598
G1 X123.036 Y87.615 E0.02879
G1 X124.015 Y87.527 E0.03085
G1 X124.999 Y87.497 E0.03085
G1 X125.982 Y87.527 E0.03084
G1 X126.966 Y87.616 E0.03098
G1 X127.866 Y87.751 E0.02853
G1 X128.984 Y87.991 E0.03586
G1 X129.868 Y88.238 E0.02879
G1 X130.798 Y88.559 E0.03085
G1 X131.707 Y88.936 E0.03085
G1 X132.533 Y89.336 E0.02879
G1 X133.529 Y89.898 E0.03585
G1 X134.296 Y90.396 E0.02866
G1 X135.088 Y90.979 E0.03084
G1 X135.844 Y91.609 E0.03085
G1 X136.549 Y92.272 E0.03033
G1 X137.291 Y93.065 E0.03406
G1 X137.873 Y93.764 E0.02853
G1 X138.413 Y94.497 E0.02853
G1 X138.995 Y95.390 E0.03342
G1 X139.516 Y96.319 E0.03341
G1 X139.913 Y97.138 E0.02853
G1 X140.262 Y97.978 E0.02853
G1 X140.615 Y98.989 E0.03354
G1 X140.897 Y100.016 E0.03341
G1 X141.087 Y100.906 E0.02853
G1 X141.230 Y101.838 E0.02956
G1 X141.324 Y102.858 E0.03213
G1 X141.354 Y103.834 E0.03059
G1 X141.353 Y119.839 E0.50184
G1 X141.288 Y120.347 E0.01605
G1 X141.133 Y120.830 E0.01592
G1 X140.889 Y121.280 E0.01605
G1 X140.566 Y121.677 E0.01605
G1 X140.365 Y121.863 E0.00861
G1 X140.149 Y122.026 E0.00848
G1 X139.918 Y122.167 E0.00848
G1 X139.671 Y122.286 E0.00861
G1 X139.416 Y122.379 E0.00848
G1 X139.150 Y122.447 E0.00861
G1 X138.879 Y122.489 E0.00861
G1 X138.605 Y122.503 E0.00861
G1 X111.326 Y122.502 E0.85530
G1 X110.814 Y122.440 E0.01617
G1 X110.323 Y122.283 E0.01617
G1 X109.872 Y122.040 E0.01605
G1 X109.472 Y121.715 E0.01617
G1 X109.136 Y121.318 E0.01630
G1 X108.880 Y120.861 E0.01643
G1 X108.716 Y120.367 E0.01630
G1 X108.648 Y119.848 E0.01643
G1 X108.646 Y103.835 E0.50208
G1 X108.675 Y102.869 E0.03029
G1 X108.757 Y101.954 E0.02879
G1 X108.912 Y100.913 E0.03303
G1 X109.121 Y99.939 E0.03123
G1 X109.388 Y98.979 E0.03123
G1 X109.737 Y97.981 E0.03316
G1 X110.122 Y97.064 E0.03118
G1 X110.519 Y96.252 E0.02833
G1 X110.964 Y95.459 E0.02853
G1 X111.535 Y94.569 E0.03316
G1 X112.119 Y93.775 E0.03089
G1 X112.423 Y93.997 F7200.000
G1 F2100
G1 X113.041 Y93.256 E0.03026
G1 X113.700 Y92.556 E0.03014
G1 X114.403 Y91.894 E0.03026
G1 X115.091 Y91.319 E0.02811
G1 X115.978 Y90.666 E0.03456
G1 X116.738 Y90.176 E0.02835
G1 X117.576 Y89.704 E0.03014
G1 X118.440 Y89.283 E0.03014
G1 X119.271 Y88.937 E0.02823
G1 X120.313 Y88.578 E0.03456
G1 X121.181 Y88.337 E0.02823
G1 X122.124 Y88.135 E0.03026
G1 X123.075 Y87.991 E0.03014
G1 X124.032 Y87.903 E0.03014
G1 X124.997 Y87.874 E0.03026
G1 X125.901 Y87.900 E0.02835
G1 X126.997 Y88.000 E0.03452
G1 X127.884 Y88.137 E0.02815
G1 X128.828 Y88.339 E0.03026
G1 X129.754 Y88.598 E0.03014
G1 X130.663 Y88.911 E0.03014
G1 X131.554 Y89.280 E0.03026
G1 X132.364 Y89.673 E0.02823
G1 X133.324 Y90.215 E0.03455
G1 X134.080 Y90.705 E0.02823
G1 X134.857 Y91.277 E0.03026
G1 X135.595 Y91.893 E0.03014
G1 X136.284 Y92.541 E0.02966
G1 X137.002 Y93.306 E0.03289
G1 X137.577 Y93.998 E0.02823
G1 X138.109 Y94.720 E0.02811
G1 X138.673 Y95.586 E0.03241
G1 X139.178 Y96.488 E0.03241
G1 X139.570 Y97.295 E0.02811
G1 X139.914 Y98.122 E0.02811
G1 X140.254 Y99.099 E0.03241
G1 X140.528 Y100.095 E0.03241
G1 X140.715 Y100.972 E0.02811
G1 X140.855 Y101.884 E0.02895
G1 X140.948 Y102.883 E0.03145
G1 X140.977 Y103.837 E0.02990
G1 X140.976 Y119.817 E0.50107
G1 X140.922 Y120.255 E0.01383
G1 X140.787 Y120.679 E0.01395
G1 X140.578 Y121.067 E0.01383
G1 X140.297 Y121.413 E0.01395
G1 X139.935 Y121.715 E0.01478
G1 X139.521 Y121.940 E0.01478
G1 X139.074 Y122.078 E0.01467
G1 X138.605 Y122.126 E0.01478
G1 X111.347 Y122.125 E0.85466
G1 X110.905 Y122.074 E0.01395
G1 X110.477 Y121.939 E0.01407
G1 X110.084 Y121.729 E0.01395
G1 X109.736 Y121.446 E0.01407
G1 X109.444 Y121.100 E0.01419
G1 X109.222 Y120.701 E0.01431
G1 X109.081 Y120.271 E0.01419
G1 X109.024 Y119.822 E0.01419
G1 X109.023 Y103.836 E0.50124
G1 X109.052 Y102.890 E0.02968
G1 X109.133 Y101.982 E0.02859
G1 X109.284 Y100.974 E0.03193
G1 X109.487 Y100.027 E0.03038
G1 X109.748 Y99.094 E0.03038
G1 X110.084 Y98.128 E0.03205
G1 X110.460 Y97.231 E0.03050
G1 X110.853 Y96.426 E0.02811
G1 X111.291 Y95.648 E0.02799
G1 X111.845 Y94.784 E0.03217
G1 X112.387 Y94.045 E0.02874
G1 F5760
G1 X113.041 Y93.256 E-0.35503
G1 F5760
G1 X113.700 Y92.556 E-0.33297
G1 F5760
G1 X113.852 Y92.413 E-0.07200
G1 E-0.04000 F2100.00000
G1 X137.636 Y118.785 F7200.000
G1 E0.80000 F2100.00000
G1 F1680
G1 X112.364 Y118.785 E0.79238
G1 X112.364 Y103.866 E0.46777
G1 X112.388 Y103.088 E0.02439
G1 X112.457 Y102.328 E0.02393
G1 X112.572 Y101.574 E0.02393
G1 X112.732 Y100.827 E0.02393
G1 X112.937 Y100.092 E0.02393
G1 X113.186 Y99.371 E0.02393
G1 X113.478 Y98.665 E0.02393
G1 X113.812 Y97.979 E0.02393
G1 X114.187 Y97.314 E0.02393
G1 X114.601 Y96.673 E0.02393
G1 X115.054 Y96.059 E0.02393
G1 X115.542 Y95.472 E0.02393
G1 X116.065 Y94.917 E0.02393
G1 X116.621 Y94.393 E0.02393
G1 X117.208 Y93.905 E0.02393
G1 X117.822 Y93.452 E0.02393
G1 X118.463 Y93.038 E0.02393
G1 X119.128 Y92.663 E0.02393
G1 X119.814 Y92.329 E0.02393
G1 X120.519 Y92.037 E0.02393
G1 X121.241 Y91.788 E0.02393
G1 X121.976 Y91.583 E0.02393
G1 X122.722 Y91.423 E0.02393
G1 X123.477 Y91.308 E0.02393
G1 X124.237 Y91.239 E0.02393
G1 X125.000 Y91.216 E0.02393
G1 X125.738 Y91.238 E0.02315
G1 X126.524 Y91.308 E0.02473
G1 X127.278 Y91.423 E0.02390
G1 X128.024 Y91.583 E0.02393
G1 X128.759 Y91.788 E0.02393
G1 X129.481 Y92.037 E0.02393
G1 X130.186 Y92.329 E0.02393
G1 X130.872 Y92.663 E0.02393
G1 X131.537 Y93.038 E0.02393
G1 X132.178 Y93.452 E0.02393
G1 X132.792 Y93.905 E0.02393
G1 X133.379 Y94.393 E0.02393
G1 X133.935 Y94.917 E0.02393
G1 X134.458 Y95.472 E0.02393
G1 X134.946 Y96.059 E0.02393
G1 X135.399 Y96.673 E0.02393
G1 X135.813 Y97.314 E0.02393
G1 X136.188 Y97.979 E0.02393
G1 X136.522 Y98.665 E0.02393
G1 X136.814 Y99.371 E0.02393
G1 X137.063 Y100.092 E0.02393
G1 X137.268 Y100.827 E0.02393
G1 X137.428 Y101.574 E0.02393
G1 X137.540 Y102.304 E0.02315
G1 X137.612 Y103.089 E0.02473
G1 X137.636 Y103.866 E0.02436
G1 X137.636 Y118.725 E0.46589
G1 X138.013 Y119.162 F7200.000
G1 F1680
G1 X111.987 Y119.162 E0.81602
G1 X111.987 Y103.860 E0.47977
G1 X112.011 Y103.066 E0.02492
G1 X112.082 Y102.283 E0.02465
G1 X112.200 Y101.506 E0.02465
G1 X112.365 Y100.737 E0.02465
G1 X112.577 Y99.980 E0.02465
G1 X112.833 Y99.237 E0.02465
G1 X113.134 Y98.511 E0.02465
G1 X113.478 Y97.804 E0.02465
G1 X113.864 Y97.119 E0.02465
G1 X114.291 Y96.459 E0.02465
G1 X114.757 Y95.826 E0.02465
G1 X115.260 Y95.222 E0.02465
G1 X115.799 Y94.650 E0.02465
G1 X116.371 Y94.111 E0.02465
G1 X116.975 Y93.608 E0.02465
G1 X117.608 Y93.142 E0.02465
G1 X118.268 Y92.715 E0.02465
G1 X118.953 Y92.329 E0.02465
G1 X119.659 Y91.985 E0.02465
G1 X120.386 Y91.684 E0.02465
G1 X121.129 Y91.428 E0.02465
G1 X121.886 Y91.217 E0.02465
G1 X122.654 Y91.052 E0.02465
G1 X123.431 Y90.933 E0.02465
G1 X124.214 Y90.862 E0.02465
G1 X125.000 Y90.839 E0.02465
G1 X125.761 Y90.862 E0.02386
G1 X126.569 Y90.934 E0.02545
G1 X127.346 Y91.052 E0.02463
G1 X128.114 Y91.217 E0.02465
G1 X128.871 Y91.428 E0.02465
G1 X129.614 Y91.684 E0.02465
G1 X130.341 Y91.985 E0.02465
G1 X131.047 Y92.329 E0.02465
G1 X131.732 Y92.715 E0.02465
G1 X132.392 Y93.142 E0.02465
G1 X133.025 Y93.608 E0.02465
G1 X133.629 Y94.111 E0.02465
G1 X134.201 Y94.650 E0.02465
G1 X134.740 Y95.222 E0.02465
G1 X135.243 Y95.826 E0.02465
G1 X135.709 Y96.459 E0.02465
G1 X136.136 Y97.119 E0.02465
G1 X136.522 Y97.804 E0.02465
G1 X136.866 Y98.511 E0.02465
G1 X137.167 Y99.237 E0.02465
G1 X137.423 Y99.980 E0.02465
G1 X137.635 Y100.737 E0.02465
G1 X137.800 Y101.506 E0.02465
G1 X137.914 Y102.258 E0.02386
G1 X137.989 Y103.066 E0.02545
G1 X138.013 Y103.860 E0.02491
G1 X138.013 Y119.102 E0.47789
G1 X138.390 Y119.539 F7200.000
G1 F1260
G1 X111.610 Y119.539 E0.83967
G1 X111.610 Y103.854 E0.49177
G1 X111.635 Y103.043 E0.02546
G1 X111.708 Y102.237 E0.02536
G1 X111.829 Y101.438 E0.02536
G1 X111.999 Y100.647 E0.02536
G1 X112.216 Y99.868 E0.02536
G1 X112.480 Y99.103 E0.02536
G1 X112.790 Y98.356 E0.02536
G1 X113.144 Y97.629 E0.02536
G1 X113.541 Y96.924 E0.02536
G1 X113.980 Y96.245 E0.02536
G1 X114.460 Y95.593 E0.02536
G1 X114.978 Y94.972 E0.02536
G1 X115.532 Y94.383 E0.02536
G1 X116.121 Y93.829 E0.02536
G1 X116.742 Y93.311 E0.02536
G1 X117.394 Y92.832 E0.02536
G1 X118.073 Y92.392 E0.02536
G1 X118.777 Y91.995 E0.02536
G1 X119.505 Y91.641 E0.02536
G1 X120.252 Y91.331 E0.02536
G1 X121.016 Y91.068 E0.02536
G1 X121.796 Y90.850 E0.02536
G1 X122.586 Y90.681 E0.02536
G1 X123.386 Y90.559 E0.02536
G1 X124.192 Y90.486 E0.02536
G1 X125.000 Y90.461 E0.02536
G1 X125.783 Y90.485 E0.02456
G1 X126.614 Y90.559 E0.02616
G1 X127.414 Y90.681 E0.02535
G1 X128.204 Y90.850 E0.02536
G1 X128.984 Y91.068 E0.02536
G1 X129.748 Y91.331 E0.02536
G1 X130.495 Y91.641 E0.02536
G1 X131.223 Y91.995 E0.02536
G1 X131.927 Y92.392 E0.02536
G1 X132.606 Y92.832 E0.02536
G1 X133.258 Y93.311 E0.02536
G1 X133.879 Y93.829 E0.02536
G1 X134.468 Y94.383 E0.02536
G1 X135.022 Y94.972 E0.02536
G1 X135.540 Y95.593 E0.02536
G1 X136.020 Y96.245 E0.02536
G1 X136.459 Y96.924 E0.02536
G1 X136.856 Y97.629 E0.02536
G1 X137.210 Y98.356 E0.02536
G1 X137.520 Y99.103 E0.02536
G1 X137.784 Y99.868 E0.02536
G1 X138.001 Y100.647 E0.02536
G1 X138.171 Y101.438 E0.02536
G1 X138.288 Y102.212 E0.02456
G1 X138.365 Y103.043 E0.02616
G1 X138.390 Y103.854 E0.02545
G1 X138.390 Y119.479 E0.48989
G1 X138.043 Y119.339 F7200.000
G1 F5760
G1 X136.196 Y119.484 E-0.76000
G1 E-0.04000 F2100.00000
G1 X136.536 Y98.994 F7200.000
G1 E0.80000 F2100.00000
G1 F1680
G1 X130.185 Y92.643 E0.28364
G1 X129.267 Y92.262 E0.03138
G1 X136.589 Y99.584 E0.32699
G1 X136.851 Y100.383 E0.02656
G1 X128.468 Y92.000 E0.37439
G1 X127.742 Y91.812 E0.02368
G1 X137.039 Y101.109 E0.41522
G1 X137.174 Y101.781 E0.02163
G1 X127.071 Y91.677 E0.45121
G1 X126.441 Y91.585 E0.02010
G1 X137.265 Y102.409 E0.48342
G1 X137.320 Y103.001 E0.01877
G1 X125.851 Y91.532 E0.51221
G1 X125.290 Y91.507 E0.01776
G1 X137.344 Y103.562 E0.53834
G1 X137.353 Y104.108 E0.01726
G1 X124.751 Y91.506 E0.56280
G1 X124.231 Y91.523 E0.01643
G1 X137.353 Y104.645 E0.58602
G1 X137.353 Y105.182 E0.01696
G1 X123.739 Y91.568 E0.60801
G1 X123.261 Y91.627 E0.01522
G1 X137.353 Y105.719 E0.62937
G1 X137.353 Y106.257 E0.01696
G1 X122.794 Y91.698 E0.65019
G1 X122.351 Y91.792 E0.01431
G1 X137.353 Y106.794 E0.66999
G1 X137.353 Y107.331 E0.01696
G1 X121.916 Y91.893 E0.68943
G1 X121.496 Y92.010 E0.01377
G1 X137.353 Y107.868 E0.70819
G1 X137.353 Y108.405 E0.01696
G1 X121.088 Y92.140 E0.72640
G1 X120.689 Y92.278 E0.01334
G1 X137.353 Y108.942 E0.74423
G1 X137.353 Y109.479 E0.01696
G1 X120.306 Y92.432 E0.76134
G1 X119.926 Y92.589 E0.01298
G1 X137.353 Y110.016 E0.77830
G1 X137.353 Y110.553 E0.01696
G1 X119.565 Y92.765 E0.79443
G1 X119.206 Y92.944 E0.01265
G1 X137.353 Y111.090 E0.81044
G1 X137.353 Y111.628 E0.01696
G1 X118.863 Y93.137 E0.82577
G1 X118.524 Y93.336 E0.01240
G1 X137.353 Y112.165 E0.84091
G1 X137.353 Y112.702 E0.01696
G1 X118.198 Y93.546 E0.85548
G1 X117.877 Y93.763 E0.01222
G1 X137.353 Y113.239 E0.86979
G1 X137.353 Y113.776 E0.01696
G1 X117.568 Y93.991 E0.88361
G1 X117.265 Y94.225 E0.01209
G1 X137.353 Y114.313 E0.89713
G1 X137.353 Y114.850 E0.01696
G1 X116.972 Y94.469 E0.91022
G1 X116.686 Y94.721 E0.01202
G1 X137.353 Y115.387 E0.92298
G1 X137.353 Y115.924 E0.01696
G1 X116.410 Y94.981 E0.93533
G1 X116.141 Y95.249 E0.01199
G1 X137.353 Y116.461 E0.94734
G1 X137.353 Y116.999 E0.01696
G1 X115.880 Y95.526 E0.95897
G1 X115.628 Y95.811 E0.01202
G1 X137.353 Y117.536 E0.97023
G1 X137.353 Y118.073 E0.01696
G1 X115.384 Y96.104 E0.98113
G1 X115.149 Y96.406 E0.01209
G1 X137.245 Y118.502 E0.98680
G1 X136.708 Y118.502 E0.01696
G1 X114.922 Y96.715 E0.97299
G1 X114.704 Y97.035 E0.01221
G1 X136.171 Y118.502 E0.95871
G1 X135.634 Y118.502 E0.01696
G1 X114.493 Y97.361 E0.94414
G1 X114.294 Y97.700 E0.01239
G1 X135.097 Y118.502 E0.92903
G1 X134.560 Y118.502 E0.01696
G1 X114.101 Y98.043 E0.91370
G1 X113.921 Y98.401 E0.01264
G1 X134.022 Y118.502 E0.89772
G1 X133.485 Y118.502 E0.01696
G1 X113.745 Y98.762 E0.88159
G1 X113.587 Y99.141 E0.01296
G1 X132.948 Y118.502 E0.86467
G1 X132.411 Y118.502 E0.01696
G1 X113.432 Y99.523 E0.84760
G1 X113.294 Y99.922 E0.01334
G1 X131.874 Y118.502 E0.82977
G1 X131.337 Y118.502 E0.01696
G1 X113.164 Y100.329 E0.81160
G1 X113.047 Y100.749 E0.01377
G1 X130.800 Y118.502 E0.79284
G1 X130.263 Y118.502 E0.01696
G1 X112.945 Y101.184 E0.77343
G1 X112.850 Y101.626 E0.01428
G1 X129.726 Y118.502 E0.75368
G1 X129.189 Y118.502 E0.01696
G1 X112.779 Y102.092 E0.73287
G1 X112.719 Y102.569 E0.01519
G1 X128.651 Y118.502 E0.71156
G1 X128.114 Y118.502 E0.01696
G1 X112.674 Y103.062 E0.68957
G1 X112.656 Y103.580 E0.01639
G1 X127.577 Y118.502 E0.66640
G1 X127.040 Y118.502 E0.01696
G1 X112.647 Y104.109 E0.64280
G1 X112.647 Y104.646 E0.01696
G1 X126.503 Y118.502 E0.61882
G1 X125.966 Y118.502 E0.01696
G1 X112.647 Y105.183 E0.59483
G1 X112.647 Y105.720 E0.01696
G1 X125.429 Y118.502 E0.57084
G1 X124.892 Y118.502 E0.01696
G1 X112.647 Y106.257 E0.54685
G1 X112.647 Y106.794 E0.01696
G1 X124.355 Y118.502 E0.52287
G1 X123.818 Y118.502 E0.01696
G1 X112.647 Y107.331 E0.49888
G1 X112.647 Y107.868 E0.01696
G1 X123.280 Y118.502 E0.47489
G1 X122.743 Y118.502 E0.01696
G1 X112.647 Y108.405 E0.45091
G1 X112.647 Y108.943 E0.01696
G1 X122.206 Y118.502 E0.42692
G1 X121.669 Y118.502 E0.01696
G1 X112.647 Y109.480 E0.40293
G1 X112.647 Y110.017 E0.01696
G1 X121.132 Y118.502 E0.37894
G1 X120.595 Y118.502 E0.01696
G1 X112.647 Y110.554 E0.35496
G1 X112.647 Y111.091 E0.01696
G1 X120.058 Y118.502 E0.33097
G1 X119.521 Y118.502 E0.01696
G1 X112.647 Y111.628 E0.30698
G1 X112.647 Y112.165 E0.01696
G1 X118.984 Y118.502 E0.28300
G1 X118.447 Y118.502 E0.01696
G1 X112.647 Y112.702 E0.25901
G1 X112.647 Y113.239 E0.01696
G1 X117.909 Y118.502 E0.23502
G1 X117.372 Y118.502 E0.01696
G1 X112.647 Y113.776 E0.21104
G1 X112.647 Y114.314 E0.01696
G1 X116.835 Y118.502 E0.18705
G1 X116.298 Y118.502 E0.01696
G1 X112.647 Y114.851 E0.16306
G1 X112.647 Y115.388 E0.01696
G1 X115.761 Y118.502 E0.13907
G1 X115.224 Y118.502 E0.01696
G1 X112.647 Y115.925 E0.11509
G1 X112.647 Y116.462 E0.01696
G1 X114.687 Y118.502 E0.09110
G1 X114.150 Y118.502 E0.01696
G1 X112.647 Y116.999 E0.06711
G1 X112.647 Y117.536 E0.01696
G1 X113.613 Y118.502 E0.04313
G1 X113.075 Y118.502 E0.01696
G1 X112.477 Y117.904 E0.02672
G1 F5760
G1 X113.075 Y118.502 E-0.29303
G1 F5760
G1 X113.613 Y118.502 E-0.18603
G1 F5760
G1 X113.039 Y117.928 E-0.28094
G1 E-0.04000 F2100.00000
G1 X136.058 Y97.980 F7200.000
G1 E0.80000 F2100.00000
G1 F1680
G1 X130.872 Y92.793 E0.23164
G1 F5760
G1 X132.423 Y94.344 E-0.76000
G1 E-0.04000 F2100.00000
G1 X132.296 Y93.680 F7200.000
G1 E0.80000 F2100.00000
G1 F1680
G1 X135.172 Y96.556 E0.12844
M106 S234.6
M104 S205 ; set temperature
G1 F5760
G1 X133.620 Y95.004 E-0.76000
G1 E-0.04000 F2100.00000
G1 Z0.400 F7200.000
G1 X137.561 Y118.710 F7200.000
G1 E0.80000 F2100.00000
M204 S800
G1 F2400
G1 X112.439 Y118.710 E0.85034
G1 X112.439 Y103.867 E0.50241
G1 X112.463 Y103.093 E0.02621
G1 X112.531 Y102.337 E0.02568
G1 X112.645 Y101.587 E0.02568
