; generated by PrusaSlicer 2.2.0+win64 on 2020-07-02 at 16:40:42 UTC

; 

; external perimeters extrusion width = 0.45mm
; perimeters extrusion width = 0.45mm
; infill extrusion width = 0.45mm
; solid infill extrusion width = 0.45mm
; top infill extrusion width = 0.40mm
; first layer extrusion width = 0.42mm

M73 P0 R74
M201 X9000 Y9000 Z500 E10000 ; sets maximum accelerations, mm/sec^2
M203 X500 Y500 Z12 E120 ; sets maximum feedrates, mm/sec
M204 P2000 R1500 T2000 ; sets acceleration (P, T) and retract acceleration (R), mm/sec^2
M205 X10.00 Y10.00 Z0.20 E2.50 ; sets the jerk limits, mm/sec
M205 S0 T0 ; sets the minimum extruding and travel feed rate, mm/sec
M107
M862.3 P "MK2S" ; printer model check
M862.1 P0.4 ; nozzle diameter check
M115 U3.2.3 ; tell printer latest fw version
G90 ; use absolute coordinates
M83 ; extruder relative mode
M204 S2000 T1500 ; MK2 firmware only supports the old M204 format
M104 S265 ; set extruder temp
M140 S100 ; set bed temp
M190 S100 ; wait for bed temp
M109 S265 ; wait for extruder temp
G28 W ; home all without mesh bed level
G80 ; mesh bed leveling
G1 Y-3.0 F1000.0 ; go outside print area
G92 E0.0
G1 X60.0 E9.0  F1000.0 ; intro line
M73 P0 R74
G1 X100.0 E12.5 F1000.0 ; intro line
G92 E0.0
G21 ; set units to millimeters
G90 ; use absolute coordinates
M83 ; use relative distances for extrusion
M900 K0.04 ; Filament gcode LA 1.5
M900 K20 ; Filament gcode LA 1.0
;BEFORE_LAYER_CHANGE
G92 E0.0
;0.2


G1 E-0.80000 F2100.00000
G1 Z0.600 F10800.000
;AFTER_LAYER_CHANGE
;0.2
G1 X100.583 Y83.660
G1 Z0.200
G1 E0.80000 F2100.00000
M204 S1000
G1 F1200.000
G1 X101.903 Y82.237 E0.06084
G1 X103.303 Y80.899 E0.06072
G1 X104.733 Y79.685 E0.05881
G1 X106.397 Y78.439 E0.06518
G1 X107.958 Y77.409 E0.05865
G1 X109.639 Y76.439 E0.06084
G1 X111.371 Y75.572 E0.06072
G1 X113.092 Y74.836 E0.05869
G1 X115.048 Y74.135 E0.06514
G1 X116.848 Y73.610 E0.05881
G1 X118.737 Y73.179 E0.06073
G1 X120.651 Y72.861 E0.06084
G1 X122.512 Y72.664 E0.05869
G1 X124.561 Y72.570 E0.06431
G1 X126.460 Y72.599 E0.05953
G1 X128.330 Y72.738 E0.05881
G1 X130.390 Y73.018 E0.06518
G1 X132.225 Y73.380 E0.05865
G1 X134.103 Y73.868 E0.06084
G1 X135.945 Y74.467 E0.06073
G1 X137.692 Y75.151 E0.05881
G1 X139.573 Y76.023 E0.06502
G1 X141.225 Y76.913 E0.05881
G1 X142.875 Y77.933 E0.06084
G1 X144.459 Y79.047 E0.06072
G1 X145.926 Y80.216 E0.05881
G1 X147.471 Y81.607 E0.06518
G1 X148.783 Y82.941 E0.05865
G1 X150.060 Y84.402 E0.06084
G1 X151.245 Y85.934 E0.06072
G1 X152.302 Y87.483 E0.05882
G1 X153.366 Y89.263 E0.06502
G1 X154.229 Y90.929 E0.05881
G1 X155.018 Y92.702 E0.06084
G1 X155.699 Y94.515 E0.06072
G1 X156.253 Y96.307 E0.05881
G1 X156.745 Y98.327 E0.06518
G1 X157.078 Y100.167 E0.05865
G1 X157.310 Y102.094 E0.06084
G1 X157.426 Y104.027 E0.06072
G1 X157.427 Y105.899 E0.05869
G1 X157.303 Y107.973 E0.06514
G1 X157.078 Y109.835 E0.05881
G1 X156.731 Y111.744 E0.06084
G1 X156.272 Y113.626 E0.06073
G1 X155.720 Y115.419 E0.05881
G1 X154.992 Y117.360 E0.06502
G1 X154.228 Y119.073 E0.05881
G1 X153.334 Y120.796 E0.06084
G1 X152.341 Y122.458 E0.06073
G1 X151.285 Y124.009 E0.05881
G1 X150.016 Y125.649 E0.06502
G1 X148.781 Y127.061 E0.05881
G1 X147.422 Y128.441 E0.06072
G1 X145.923 Y129.786 E0.06315
G1 X144.460 Y130.952 E0.05865
G1 X142.873 Y132.069 E0.06084
G1 X141.226 Y133.087 E0.06072
G1 X139.575 Y133.977 E0.05881
G1 X137.688 Y134.850 E0.06518
G1 X135.947 Y135.533 E0.05865
G1 X134.101 Y136.132 E0.06084
G1 X132.227 Y136.620 E0.06072
G1 X130.390 Y136.982 E0.05869
G1 X128.332 Y137.262 E0.06514
G1 X126.461 Y137.401 E0.05881
G1 X124.559 Y137.430 E0.05965
G1 X122.512 Y137.336 E0.06422
G1 X120.652 Y137.140 E0.05865
G1 X118.738 Y136.822 E0.06085
G1 X116.850 Y136.391 E0.06072
G1 X115.049 Y135.866 E0.05881
G1 X113.092 Y135.164 E0.06518
G1 X111.372 Y134.428 E0.05865
G1 X109.637 Y133.560 E0.06084
G1 X107.960 Y132.592 E0.06072
G1 X106.393 Y131.559 E0.05881
G1 X104.734 Y130.316 E0.06502
G1 X103.304 Y129.102 E0.05881
G1 X101.904 Y127.763 E0.06072
G1 X100.536 Y126.285 E0.06315
G1 X99.349 Y124.839 E0.05865
G1 X98.209 Y123.269 E0.06084
G1 X97.166 Y121.637 E0.06072
G1 X96.251 Y119.999 E0.05881
G1 X95.350 Y118.126 E0.06518
G1 X94.641 Y116.395 E0.05865
G1 X94.014 Y114.559 E0.06084
G1 X93.499 Y112.692 E0.06073
G1 X93.108 Y110.857 E0.05881
G1 X92.799 Y108.807 E0.06502
G1 X92.632 Y106.938 E0.05881
G1 X92.574 Y104.999 E0.06084
G1 X92.632 Y103.063 E0.06072
G1 X92.799 Y101.195 E0.05881
G1 X93.109 Y99.139 E0.06518
G1 X93.499 Y97.309 E0.05865
G1 X94.015 Y95.439 E0.06084
G1 X94.641 Y93.606 E0.06073
G1 X95.350 Y91.874 E0.05869
G1 X96.251 Y90.002 E0.06514
G1 X97.165 Y88.364 E0.05881
G1 X98.208 Y86.732 E0.06073
G1 X99.394 Y85.104 E0.06315
G1 X100.545 Y83.706 E0.05677
G1 F8640.000
G1 X101.903 Y82.237 E-0.46189
G1 X102.836 Y81.345 E-0.29811
G1 E-0.04000 F2100.00000
G1 Z0.800 F10800.000
G1 X111.286 Y94.921
G1 Z0.200
G1 E0.80000 F2100.00000
G1 F1200.000
G1 X111.957 Y94.281 E0.02910
G1 X112.658 Y93.672 E0.02911
G1 X113.389 Y93.098 E0.02913
G1 X114.146 Y92.558 E0.02917
G1 X114.930 Y92.054 E0.02922
G1 X115.739 Y91.587 E0.02928
G1 X116.572 Y91.159 E0.02936
G1 X117.427 Y90.771 E0.02945
G1 X118.304 Y90.424 E0.02957
G1 X119.200 Y90.119 E0.02970
G1 X120.116 Y89.857 E0.02986
G1 X121.049 Y89.640 E0.03004
G1 X121.999 Y89.470 E0.03025
G1 X122.963 Y89.346 E0.03049
G1 X123.941 Y89.271 E0.03076
G1 X124.932 Y89.246 E0.03108
G1 X125.923 Y89.271 E0.03108
G1 X126.902 Y89.346 E0.03076
G1 X127.866 Y89.470 E0.03049
G1 X128.816 Y89.640 E0.03025
G1 X129.749 Y89.857 E0.03004
G1 X130.664 Y90.119 E0.02986
G1 X131.561 Y90.424 E0.02970
G1 X132.438 Y90.771 E0.02957
G1 X133.293 Y91.159 E0.02945
G1 X134.126 Y91.587 E0.02936
G1 X134.935 Y92.054 E0.02928
G1 X135.719 Y92.558 E0.02922
G1 X136.476 Y93.098 E0.02917
G1 X137.206 Y93.672 E0.02913
G1 X137.908 Y94.281 E0.02911
G1 X138.579 Y94.921 E0.02910
G1 X139.220 Y95.593 E0.02910
G1 X139.827 Y96.295 E0.02912
G1 X140.402 Y97.026 E0.02914
G1 X140.942 Y97.784 E0.02918
G1 X141.445 Y98.569 E0.02923
G1 X141.911 Y99.378 E0.02930
G1 X142.339 Y100.212 E0.02938
G1 X142.727 Y101.068 E0.02948
G1 X143.075 Y101.946 E0.02959
G1 X143.379 Y102.844 E0.02973
G1 X143.641 Y103.760 E0.02989
G1 X143.857 Y104.695 E0.03008
G1 X144.028 Y105.646 E0.03029
G1 X144.151 Y106.612 E0.03053
G1 X144.226 Y107.591 E0.03080
G1 X144.252 Y108.583 E0.03111
G1 X144.226 Y109.573 E0.03106
G1 X144.151 Y110.551 E0.03075
G1 X144.028 Y111.516 E0.03048
G1 X143.857 Y112.465 E0.03024
G1 X143.641 Y113.398 E0.03003
G1 X143.379 Y114.313 E0.02984
G1 X143.074 Y115.209 E0.02969
G1 X142.727 Y116.086 E0.02955
G1 X142.339 Y116.940 E0.02943
G1 X141.911 Y117.772 E0.02934
G1 X141.445 Y118.581 E0.02926
G1 X140.941 Y119.364 E0.02919
G1 X140.401 Y120.121 E0.02915
G1 X139.827 Y120.850 E0.02911
G1 X139.219 Y121.551 E0.02909
G1 X138.578 Y122.221 E0.02908
G1 X137.907 Y122.861 E0.02908
G1 X137.205 Y123.468 E0.02909
G1 X136.475 Y124.042 E0.02911
G1 X135.718 Y124.581 E0.02915
G1 X134.934 Y125.083 E0.02920
G1 X134.125 Y125.549 E0.02927
G1 X133.292 Y125.976 E0.02935
G1 X132.437 Y126.364 E0.02944
G1 X131.560 Y126.710 E0.02956
G1 X130.663 Y127.015 E0.02969
G1 X129.747 Y127.275 E0.02985
G1 X128.814 Y127.492 E0.03004
G1 X127.865 Y127.662 E0.03025
G1 X126.900 Y127.785 E0.03049
G1 X125.922 Y127.860 E0.03076
G1 X124.932 Y127.885 E0.03106
G1 X123.942 Y127.860 E0.03106
G1 X122.964 Y127.785 E0.03075
G1 X121.999 Y127.662 E0.03048
G1 X121.050 Y127.492 E0.03024
G1 X120.117 Y127.275 E0.03003
G1 X119.201 Y127.015 E0.02985
G1 X118.304 Y126.710 E0.02969
G1 X117.428 Y126.364 E0.02956
G1 X116.572 Y125.976 E0.02944
G1 X115.740 Y125.549 E0.02934
G1 X114.931 Y125.083 E0.02926
G1 X114.147 Y124.581 E0.02920
G1 X113.389 Y124.042 E0.02915
G1 X112.659 Y123.468 E0.02911
G1 X111.958 Y122.861 E0.02909
G1 X111.286 Y122.221 E0.02908
G1 X110.646 Y121.551 E0.02907
G1 X110.038 Y120.850 E0.02909
G1 X109.464 Y120.121 E0.02911
G1 X108.924 Y119.364 E0.02915
G1 X108.420 Y118.581 E0.02919
G1 X107.954 Y117.773 E0.02926
G1 X107.526 Y116.940 E0.02934
G1 X107.138 Y116.086 E0.02943
G1 X106.791 Y115.210 E0.02955
G1 X106.486 Y114.313 E0.02969
G1 X106.224 Y113.398 E0.02985
G1 X106.008 Y112.465 E0.03003
G1 X105.837 Y111.516 E0.03024
G1 X105.714 Y110.551 E0.03048
G1 X105.639 Y109.573 E0.03076
G1 X105.613 Y108.583 E0.03106
G1 X105.639 Y107.591 E0.03111
G1 X105.713 Y106.612 E0.03080
G1 X105.837 Y105.646 E0.03053
G1 X106.007 Y104.695 E0.03029
G1 X106.224 Y103.760 E0.03008
G1 X106.485 Y102.844 E0.02989
G1 X106.790 Y101.946 E0.02973
G1 X107.137 Y101.068 E0.02959
G1 X107.526 Y100.212 E0.02948
G1 X107.953 Y99.378 E0.02938
G1 X108.420 Y98.569 E0.02930
G1 X108.923 Y97.784 E0.02923
G1 X109.463 Y97.026 E0.02918
G1 X110.037 Y96.295 E0.02914
G1 X110.645 Y95.593 E0.02912
G1 X111.244 Y94.965 E0.02722
G1 X111.517 Y95.225 F10800.000
G1 F1200.000
G1 X112.211 Y94.560 E0.03014
G1 X112.899 Y93.963 E0.02855
G1 X113.615 Y93.399 E0.02857
G1 X114.358 Y92.870 E0.02860
G1 X115.126 Y92.376 E0.02865
G1 X115.919 Y91.918 E0.02871
G1 X116.736 Y91.499 E0.02878
G1 X117.574 Y91.118 E0.02888
G1 X118.434 Y90.778 E0.02899
G1 X119.313 Y90.479 E0.02912
G1 X120.211 Y90.222 E0.02927
G1 X121.125 Y90.010 E0.02945
G1 X122.056 Y89.842 E0.02965
G1 X123.002 Y89.721 E0.02989
G1 X123.961 Y89.648 E0.03016
G1 X124.932 Y89.623 E0.03048
G1 X125.904 Y89.648 E0.03048
G1 X126.863 Y89.721 E0.03016
G1 X127.809 Y89.842 E0.02989
G1 X128.739 Y90.010 E0.02965
G1 X129.654 Y90.222 E0.02945
G1 X130.552 Y90.479 E0.02927
G1 X131.431 Y90.778 E0.02912
G1 X132.290 Y91.118 E0.02899
G1 X133.129 Y91.499 E0.02888
G1 X133.945 Y91.918 E0.02878
G1 X134.739 Y92.376 E0.02871
G1 X135.507 Y92.870 E0.02865
G1 X136.250 Y93.399 E0.02860
G1 X136.966 Y93.963 E0.02857
G1 X137.654 Y94.560 E0.02855
G1 X138.312 Y95.188 E0.02854
G1 X138.940 Y95.847 E0.02854
G1 X139.537 Y96.535 E0.02855
G1 X140.100 Y97.252 E0.02858
G1 X140.629 Y97.995 E0.02861
G1 X141.123 Y98.765 E0.02866
G1 X141.580 Y99.559 E0.02873
G1 X142.000 Y100.376 E0.02880
G1 X142.380 Y101.215 E0.02890
G1 X142.720 Y102.076 E0.02901
G1 X143.019 Y102.956 E0.02915
G1 X143.276 Y103.855 E0.02930
G1 X143.488 Y104.771 E0.02948
G1 X143.655 Y105.703 E0.02969
G1 X143.776 Y106.650 E0.02993
G1 X143.850 Y107.610 E0.03020
G1 X143.874 Y108.583 E0.03051
G1 X143.850 Y109.554 E0.03046
G1 X143.776 Y110.513 E0.03015
G1 X143.655 Y111.458 E0.02988
G1 X143.488 Y112.389 E0.02964
G1 X143.275 Y113.303 E0.02944
G1 X143.019 Y114.201 E0.02926
G1 X142.720 Y115.079 E0.02910
G1 X142.380 Y115.938 E0.02897
G1 X141.999 Y116.776 E0.02886
G1 X141.580 Y117.592 E0.02876
G1 X141.123 Y118.384 E0.02869
G1 X140.629 Y119.152 E0.02863
G1 X140.099 Y119.894 E0.02858
G1 X139.536 Y120.610 E0.02855
G1 X138.940 Y121.297 E0.02852
G1 X138.312 Y121.954 E0.02851
G1 X137.653 Y122.582 E0.02851
G1 X136.965 Y123.177 E0.02853
G1 X136.249 Y123.740 E0.02855
G1 X135.506 Y124.268 E0.02859
G1 X134.738 Y124.761 E0.02863
G1 X133.945 Y125.218 E0.02870
G1 X133.128 Y125.637 E0.02877
G1 X132.289 Y126.016 E0.02887
G1 X131.430 Y126.356 E0.02898
G1 X130.551 Y126.654 E0.02911
G1 X129.653 Y126.910 E0.02926
G1 X128.738 Y127.122 E0.02944
G1 X127.808 Y127.289 E0.02965
G1 X126.862 Y127.410 E0.02989
G1 X125.903 Y127.483 E0.03016
G1 X124.932 Y127.508 E0.03046
G1 X123.961 Y127.483 E0.03046
G1 X123.002 Y127.410 E0.03015
G1 X122.056 Y127.289 E0.02988
G1 X121.126 Y127.122 E0.02965
G1 X120.211 Y126.910 E0.02944
G1 X119.313 Y126.654 E0.02926
G1 X118.434 Y126.356 E0.02911
G1 X117.575 Y126.016 E0.02898
G1 X116.736 Y125.637 E0.02886
G1 X115.920 Y125.218 E0.02877
G1 X115.127 Y124.761 E0.02869
G1 X114.358 Y124.268 E0.02863
G1 X113.615 Y123.740 E0.02858
G1 X112.899 Y123.177 E0.02855
G1 X112.211 Y122.582 E0.02853
G1 X111.553 Y121.954 E0.02851
G1 X110.925 Y121.297 E0.02851
G1 X110.329 Y120.610 E0.02852
G1 X109.765 Y119.895 E0.02855
G1 X109.236 Y119.152 E0.02858
G1 X108.742 Y118.384 E0.02863
G1 X108.285 Y117.592 E0.02869
G1 X107.865 Y116.776 E0.02876
G1 X107.485 Y115.938 E0.02886
G1 X107.145 Y115.079 E0.02897
G1 X106.846 Y114.201 E0.02910
G1 X106.589 Y113.303 E0.02926
G1 X106.377 Y112.389 E0.02944
G1 X106.210 Y111.458 E0.02964
G1 X106.089 Y110.513 E0.02988
G1 X106.015 Y109.554 E0.03015
G1 X105.991 Y108.583 E0.03046
G1 X106.015 Y107.610 E0.03051
G1 X106.089 Y106.650 E0.03020
G1 X106.210 Y105.703 E0.02993
G1 X106.377 Y104.771 E0.02969
G1 X106.589 Y103.855 E0.02948
G1 X106.846 Y102.956 E0.02930
G1 X107.144 Y102.076 E0.02915
G1 X107.485 Y101.215 E0.02901
G1 X107.865 Y100.376 E0.02890
G1 X108.285 Y99.559 E0.02880
G1 X108.742 Y98.765 E0.02873
G1 X109.236 Y97.995 E0.02866
G1 X109.765 Y97.252 E0.02861
G1 X110.328 Y96.535 E0.02858
G1 X110.924 Y95.847 E0.02855
G1 X111.476 Y95.268 E0.02506
G1 X111.413 Y94.839 F10800.000
G1 F8640.000
G1 X112.211 Y94.560 E-0.23579
G1 X112.899 Y93.963 E-0.21024
G1 X113.615 Y93.399 E-0.21040
G1 X113.980 Y93.139 E-0.10357
G1 E-0.04000 F2100.00000
G1 Z0.800 F10800.000
G1 X118.176 Y88.812
G1 Z0.200
G1 E0.80000 F2100.00000
G1 F1200.000
G1 X118.176 Y82.797 E0.18862
G1 X116.169 Y82.797 E0.06292
G1 X116.169 Y80.235 E0.08032
G1 X121.227 Y80.246 E0.15859
G1 X121.769 Y80.305 E0.01710
G1 X122.548 Y80.500 E0.02518
G1 X122.772 Y80.250 E0.01053
G1 X123.016 Y80.063 E0.00964
G1 X123.317 Y79.964 E0.00992
G1 X123.557 Y79.915 E0.00769
G1 X123.850 Y79.926 E0.00919
G1 X124.139 Y79.992 E0.00928
G1 X124.393 Y80.120 E0.00894
G1 X124.632 Y80.289 E0.00917
G1 X124.821 Y80.514 E0.00920
G1 X124.975 Y80.769 E0.00935
G1 X125.053 Y81.057 E0.00935
G1 X125.085 Y81.345 E0.00909
G1 X125.045 Y81.635 E0.00916
G1 X124.946 Y81.942 E0.01014
G1 X124.703 Y82.249 E0.01225
G1 X124.862 Y82.228 E0.00502
G1 X126.073 Y82.253 E0.03799
G1 X126.545 Y82.319 E0.01493
G1 X127.266 Y82.572 E0.02396
G1 X127.722 Y82.292 E0.01679
G1 X128.365 Y82.125 E0.02084
G1 X128.908 Y82.164 E0.01706
G1 X129.393 Y82.286 E0.01567
G1 X129.671 Y82.429 E0.00981
G1 X129.892 Y82.584 E0.00847
G1 X130.291 Y82.935 E0.01667
G1 X130.584 Y83.455 E0.01869
G1 X130.779 Y83.955 E0.01685
G1 X130.864 Y84.477 E0.01659
G1 X130.885 Y85.149 E0.02107
G1 X131.113 Y84.921 E0.01012
G1 X131.158 Y84.898 E0.00158
G1 X130.972 Y84.802 E0.00654
G1 X130.852 Y83.928 E0.02767
G1 X130.799 Y82.894 E0.03246
G1 X131.734 Y82.445 E0.03249
G1 X132.287 Y82.252 E0.01838
G1 X132.908 Y82.154 E0.01971
G1 X133.457 Y82.117 E0.01725
G1 X133.973 Y82.193 E0.01636
G1 X134.439 Y82.292 E0.01494
G1 X134.900 Y82.462 E0.01539
G1 X135.162 Y82.614 E0.00950
G1 X135.394 Y82.804 E0.00940
G1 X135.589 Y83.033 E0.00943
G1 X135.747 Y83.293 E0.00956
G1 X135.924 Y83.753 E0.01543
G1 X136.029 Y84.218 E0.01495
G1 X136.107 Y84.711 E0.01567
G1 X136.104 Y88.824 E0.12896
G1 X134.906 Y88.795 E0.03758
G1 X134.445 Y88.731 E0.01458
G1 X133.765 Y88.484 E0.02268
G1 X133.431 Y88.715 E0.01275
G1 X132.767 Y88.907 E0.02165
G1 X132.278 Y88.896 E0.01537
G1 X131.814 Y88.807 E0.01482
G1 X131.387 Y88.600 E0.01486
G1 X130.975 Y88.305 E0.01588
G1 X130.877 Y88.170 E0.00526
G1 X130.913 Y88.800 E0.01981
G1 X128.181 Y88.816 E0.08566
G1 X128.181 Y85.235 E0.11228
G1 X128.151 Y84.797 E0.01377
G1 X128.128 Y84.695 E0.00327
G1 X127.894 Y84.609 E0.00781
G1 X127.783 Y84.659 E0.00380
G1 X127.662 Y84.806 E0.00597
G1 X127.613 Y84.908 E0.00357
G1 X127.572 Y85.207 E0.00945
G1 X127.572 Y88.812 E0.11305
G1 X122.247 Y88.812 E0.16698
G1 X122.258 Y83.515 E0.16611
G1 X122.288 Y82.666 E0.02663
G1 X121.811 Y82.750 E0.01517
G1 X121.359 Y82.790 E0.01422
G1 X120.912 Y82.793 E0.01403
G1 X120.912 Y88.812 E0.18874
G1 X118.236 Y88.812 E0.08391
G1 F8640.000
G1 X118.203 Y85.521 E-0.76000
G1 E-0.04000 F2100.00000
G1 Z0.800 F10800.000
G1 X122.625 Y88.435
G1 Z0.200
G1 E0.80000 F2100.00000
G1 F1200.000
G1 X122.635 Y83.521 E0.15407
G1 X122.666 Y82.636 E0.02777
G1 X123.419 Y82.682 E0.02365
G1 X123.784 Y82.682 E0.01144
G1 X124.537 Y82.637 E0.02367
G1 X124.576 Y84.022 E0.04346
G1 X124.578 Y88.435 E0.13837
G1 X122.685 Y88.435 E0.05936
G1 X122.254 Y88.585 F10800.000
G1 F8640.000
G1 X122.652 Y85.144 E-0.76000
G1 E-0.04000 F2100.00000
G1 Z0.800 F10800.000
G1 X123.409 Y82.289
G1 Z0.200
G1 E0.80000 F2100.00000
G1 F1200.000
G1 X123.221 Y82.229 E0.00616
G1 X123.053 Y82.124 E0.00623
G1 X122.911 Y81.984 E0.00623
G1 X122.808 Y81.816 E0.00620
G1 X122.752 Y81.639 E0.00581
G1 X122.722 Y81.340 E0.00943
