( Made using CamBam - http://www.cambam.co.uk )
( Motorsportfreunde_Schauinsland 7/31/2021 9:20:11 AM )
( Post processor: Default )
( T3 : 3.0 )
( T15 : 1.5 )
G21 G90 G64 G40
G0 Z3.0
( T3 : 3.0 )
T3 M6
( Tasche3mm )
G17
M3 S1000
G0 X-4.0957 Y-18.3728
G0 Z1.0
G1 F300.0 Z-1.5
G3 F800.0 X-4.0905 Y-18.3702 I-1.6804 J3.2723
G3 X-3.993 Y-18.3152 I-0.6873 J1.3333
G3 X-3.8498 Y-18.2216 I-1.5783 J2.5709
G3 X-3.1501 Y-17.5439 I-1.6437 J2.397
G3 X-2.6061 Y-16.2996 I-2.4212 J1.7996
G3 X-2.4602 Y-15.388 I-4.9306 J1.2566
G3 X-2.4774 Y-14.5016 I-3.6409 J0.3728
G3 X-2.4779 Y-14.4971 I-5.0593 J-0.5414
G3 X-2.4873 Y-14.426 I-1.4913 J-0.1609
G3 X-3.1788 Y-12.8118 I-3.5142 J-0.5502
G3 X-3.7576 Y-12.204 I-2.9223 J-2.2034
G2 X-4.3102 Y-11.5893 I2.2855 J2.6107
G2 X-5.3504 Y-9.4964 I27.765 J15.1033
G3 X-7.8312 Y-4.3384 I-78.4139 J-34.5396
G3 X-7.9056 Y-4.2117 I-1.3293 J-0.695
G3 X-8.3814 Y-3.2469 I-499.3977 J-245.6988
G3 X-8.8902 Y-1.8868 I-11.0511 J-3.3586
G3 X-9.3515 Y-0.9658 I-10.5865 J-4.7265
G2 X-9.8619 Y0.1154 I38.9101 J19.0287
G3 X-9.8738 Y0.2536 I-1.4988 J-0.0599
G3 X-9.8895 Y0.3591 I-1.4906 J-0.1676
G3 X-10.2228 Y1.5326 I-5.0908 J-0.8119
G3 X-10.3162 Y1.7623 I-6.2799 J-2.4178
G3 X-11.1084 Y3.1374 I-4.7683 J-1.8314
G3 X-11.1715 Y3.2141 I-1.1893 J-0.9141
G3 X-14.0464 Y4.9322 I-3.913 J-3.2833
G3 X-14.2775 Y4.9832 I-1.3353 J-5.499
G3 X-14.3174 Y4.9906 I-0.2927 J-1.4712
G3 X-14.401 Y5.0047 I-2.6774 J-15.6575
G3 X-16.7865 Y5.2178 I-2.23 J-11.5028
G3 X-16.9925 Y5.2179 I-0.1252 J-78.1352
G3 X-17.0394 Y5.2178 I-0.0023 J-15.8847
G3 X-19.696 Y5.1683 I0.1277 J-78.1352
G3 X-21.1045 Y4.0049 I0.0535 J-1.499
G2 X-21.9627 Y0.35 I-372.2769 J85.4843
G2 X-22.7413 Y-2.7335 I-201.6709 J49.2808
G3 X-23.7223 Y-6.7728 I113.292 J-29.6545
G3 X-24.7337 Y-11.7977 I87.2784 J-20.1817
G3 X-24.9812 Y-13.2349 I115.2844 J-20.5904
G3 X-25.422 Y-16.578 I49.12 J-8.1773
G3 X-23.9397 Y-18.2236 I1.4929 J-0.1456
G1 X-12.7931 Y-18.3029
G3 X-11.2869 Y-16.9188 I0.0107 J1.5
G1 X-11.1254 Y-14.8321
G3 X-10.4024 Y-15.2646 I1.1006 J1.0192
G3 X-9.8084 Y-15.3935 I1.8762 J7.2118
G2 X-8.9525 Y-17.6972 I-37.3569 J-15.1899
G3 X-7.6572 Y-18.7126 I1.4214 J0.4793
G3 X-5.7353 Y-18.7788 I1.6276 J19.3017
G3 X-4.7961 Y-18.6461 I-0.0408 J3.6783
G3 X-4.0957 Y-18.3728 I-0.6974 J2.8215
G0 Z3.0
G0 X0.692 Y-17.8705
G0 Z1.0
G1 F300.0 Z-1.5
G3 F800.0 X0.9062 Y-17.0827 I-6.2633 J2.1262
G3 X0.9935 Y-16.6797 I-8.4429 J2.0396
G3 X1.3992 Y-16.7362 I0.906 J5.0164
G3 X2.2612 Y-17.7024 I6.1673 J4.6348
G3 X1.993 Y-17.7464 I0.6909 J-5.0506
G2 X1.4218 Y-17.8123 I-0.7282 J3.8014
G3 X0.692 Y-17.8705 I0.054 J-5.2842
G1 F300.0 X0.87 Y-19.0572
G3 F800.0 X-1.4167 Y-20.2127 I0.6058 J-4.0393
G3 X-1.9552 Y-19.7759 I-2.7151 J-2.7963
G3 X-1.2215 Y-18.9682 I-3.5384 J3.9513
G3 X-0.265 Y-16.8205 I-4.3498 J3.2239
G3 X-0.071 Y-15.5902 I-7.2717 J1.7775
G3 X-0.0437 Y-15.0451 I-6.0302 J0.575
G3 X0.2246 Y-15.1826 I2.4727 J4.4946
G3 X1.9947 Y-15.5597 I1.6749 J3.5194
G3 X2.1411 Y-15.7061 I2.8281 J2.682
G3 X2.2195 Y-15.8231 I3.2774 J2.1095
G3 X3.4606 Y-17.1595 I5.347 J3.7217
G3 X3.6073 Y-17.2728 I2.4564 J3.0261
G3 X5.4615 Y-18.5016 I13.4471 J18.2775
G3 X5.5327 Y-18.543 I1.9913 J3.3505
G3 X2.4488 Y-18.888 I8.0017 J-85.4778
G3 X2.2188 Y-18.925 I0.5033 J-3.865
G2 X1.4499 Y-19.0121 I-0.954 J4.98
G3 X0.87 Y-19.0572 I0.0259 J-4.0844
G0 Z3.0
G0 X-9.055 Y-19.4439
G0 Z1.0
G1 F300.0 Z-1.5
G3 F800.0 X-12.0714 Y-22.3932 I-0.3326 J-2.677
G3 X-11.9705 Y-23.1315 I10.6897 J1.0846
G3 X-12.261 Y-23.1609 I0.1259 J-2.6947
G3 X-12.771 Y-22.4056 I-3.9 J-2.0834
G3 X-13.6188 Y-21.7318 I-2.0682 J-1.7319
G3 X-14.7004 Y-21.1891 I-61.5085 J-121.2491
G3 X-18.7998 Y-19.4578 I-9.8248 J-17.544
G1 X-12.8017 Y-19.5005
G3 X-10.228 Y-17.6701 I0.0192 J2.6975
G2 X-10.0873 Y-18.0799 I-36.9373 J-12.9133
G3 X-9.055 Y-19.4439 I2.5562 J0.862
G0 Z3.0
G0 X-2.7717 Y-29.8573
G0 Z1.0
G1 F300.0 Z-1.5
G3 F800.0 X-2.4236 Y-29.6758 I-1.6251 J3.5427
G3 X-2.1685 Y-31.4595 I24.0134 J2.5245
G3 X-2.216 Y-31.4021 I-5.1308 J-4.1986
G2 X-2.3797 Y-31.1186 I0.9709 J0.7493
G3 X-2.7717 Y-29.8573 I-4.7981 J-0.7998
G0 Z3.0
G0 X-2.0592 Y-46.7831
G0 Z1.0
G1 F300.0 Z-1.5
G3 F800.0 X-1.6704 Y-47.1081 I4.2295 J4.666
G3 X1.4014 Y-48.6902 I5.8765 J7.6364
G3 X2.2381 Y-48.8836 I1.8331 J6.0249
G3 X3.2284 Y-48.9774 I1.222 J7.6268
G3 X3.349 Y-49.1144 I5.3902 J4.624
G3 X3.539 Y-49.3156 I4.6729 J4.2218
G3 X-1.1931 Y-49.3279 I20.9253 J-9006.8826
G2 X-5.0744 Y-49.3312 I-7.8988 J6896.8434
G3 X-4.7216 Y-48.9431 I-4.4795 J4.4265
G3 X-3.6297 Y-47.4668 I-11.8874 J9.9346
G3 X-3.434 Y-47.4026 I-1.8649 J6.0151
G3 X-2.0592 Y-46.7831 I-2.7448 J7.9266
G1 F300.0 X-2.6485 Y-45.7378
G3 F800.0 X-1.8678 Y-45.2283 I-3.5302 J6.2618
G3 X-0.9385 Y-46.1571 I4.0381 J3.1111
G3 X1.7507 Y-47.5421 I5.1446 J6.6854
G3 X2.428 Y-47.6987 I1.4838 J4.8769
G3 X3.8075 Y-47.7716 I1.0322 J6.4419
G3 X4.2394 Y-48.3099 I4.8111 J3.4182
G3 X6.1173 Y-49.621 I3.7825 J3.4174
G3 X10.1468 Y-50.4349 I4.2066 J10.4438
G3 X11.1943 Y-50.4393 I0.6071 J20.12
G3 X12.0342 Y-50.3509 I-0.1115 J5.0964
G3 X12.2643 Y-50.4996 I2.8807 J4.2056
G3 X-1.1907 Y-50.5279 I12.2001 J-9005.6986
G2 X-11.7674 Y-50.5319 I-7.9012 J6898.0434
G3 X-8.3684 Y-49.8625 I-6.6069 J42.5155
G3 X-5.6424 Y-48.1736 I-1.1855 J4.9578
G3 X-4.3943 Y-46.4291 I-10.9666 J9.165
G3 X-3.8266 Y-46.2687 I-1.1003 J4.9774
G3 X-2.6485 Y-45.7378 I-2.3521 J6.7927
G0 Z3.0
G0 X20.0113 Y-50.4924
G0 Z1.0
G1 F300.0 Z-1.5
G1 F800.0 X26.0994 Y-49.5185
G3 X26.2875 Y-49.4848 I-0.8053 J5.0336
G3 X29.1508 Y-49.395 I1.2783 J4.9347
G2 X30.2616 Y-49.0471 I14.2805 J-43.6547
G3 X33.0168 Y-49.9391 I56.5689 J170.0301
G3 X34.754 Y-50.1702 I1.5309 J4.8623
G3 X35.0653 Y-50.4976 I3.848 J3.347
G3 X20.0113 Y-50.4924 I-10.6009 J-9005.7006
G1 F300.0 X19.8218 Y-49.3075
G1 F800.0 X25.9099 Y-48.3335
G3 X26.3231 Y-48.2442 I-0.6157 J3.8487
G3 X28.7777 Y-48.2545 I1.2428 J3.6942
G2 X30.284 Y-47.7895 I14.6536 J-44.7953
G3 X33.3771 Y-48.7945 I56.5466 J168.7724
G3 X35.3015 Y-48.9008 I1.1705 J3.7177
G3 X37.3254 Y-50.5083 I3.3005 J2.0776
G3 X39.7566 Y-51.3015 I23.0698 J66.5876
G3 X39.85 Y-51.3288 I1.1422 J3.729
G3 X44.1502 Y-50.189 I1.1806 J4.2279
G2 X44.2135 Y-50.1449 I0.1969 J-0.2155
G2 X46.574 Y-49.5079 I2.9897 J-6.3866
G3 X46.5831 Y-49.5071 I-0.348 J3.8844
G2 X47.19 Y-49.4634 I1.411 J-15.3451
G3 X46.9273 Y-51.7193 I3.5746 J-1.5596
G3 X-1.1883 Y-51.7279 I-22.4629 J-9004.4788
G2 X-26.5686 Y-51.7103 I-7.9035 J6899.2434
G3 X-25.528 Y-51.0315 I-1.5818 J3.5622
G3 X-24.8441 Y-50.2788 I-3.5973 J3.9554
G3 X-24.2775 Y-50.2958 I0.3998 J3.877
G3 X-13.7277 Y-49.5825 I-9.154 J213.7515
G3 X-13.646 Y-49.574 I-0.359 J3.881
G3 X-8.6475 Y-48.6954 I-4.7283 J41.5577
G3 X-6.5632 Y-47.4041 I-0.9064 J3.7907
G3 X-5.1462 Y-45.3337 I-10.0458 J8.3955
G3 X-4.2193 Y-45.1347 I-0.3484 J3.882
G3 X-1.8228 Y-43.5853 I-1.9595 J5.6587
G3 X-1.5537 Y-43.2676 I-2.8351 J2.6746
G3 X-0.2067 Y-45.2061 I3.7239 J1.1504
G3 X2.0999 Y-46.3941 I4.4128 J5.7344
G3 X2.6178 Y-46.5138 I1.1345 J3.7288
G3 X4.4311 Y-46.4915 I0.8423 J5.257
G3 X5.1298 Y-47.5054 I4.1875 J2.1381
G3 X6.5657 Y-48.5079 I2.8921 J2.6129
G3 X10.1742 Y-49.2352 I3.7582 J9.3307
G3 X11.168 Y-49.2395 I0.5797 J18.9203
G3 X12.3081 Y-49.0429 I-0.0853 J3.8967
G3 X15.5306 Y-49.994 I2.6068 J2.8975
G1 X19.8218 Y-49.3075
G1 F300.0 X19.6322 Y-48.1226
G1 F800.0 X25.7203 Y-47.1486
G3 X26.3599 Y-46.963 I-0.4261 J2.6637
G3 X28.4046 Y-47.1139 I1.206 J2.413
G2 X30.2824 Y-46.5416 I15.0267 J-45.9358
G2 X30.3337 Y-46.5402 I0.0303 J-0.1691
G3 X33.7375 Y-47.6499 I56.4969 J167.5231
G3 X35.9592 Y-47.3756 I0.8101 J2.5731
G3 X37.7182 Y-49.3744 I2.6429 J0.5524
G3 X40.1081 Y-50.1541 I22.677 J65.4538
G3 X40.1727 Y-50.173 I0.7907 J2.5816
G3 X43.3089 Y-49.3331 I0.8578 J3.0721
G2 X43.6916 Y-49.0643 I1.0382 J-1.0714
G2 X46.4669 Y-48.3127 I3.5117 J-7.4672
G3 X46.4733 Y-48.3122 I-0.2409 J2.6892
G2 X48.914 Y-48.2679 I1.5209 J-16.5401
G3 X48.9464 Y-48.2695 I0.1495 J2.6959
G2 X50.2311 Y-48.3282 I-12.4128 J-285.7805
G1 X50.2315 Y-48.3762
G3 X48.8476 Y-52.9243 I0.5331 J-2.6468
G3 X-1.1859 Y-52.9279 I-24.3833 J-9003.2738
G2 X-35.5558 Y-52.8816 I-7.9059 J6900.4434
G3 X-35.3197 Y-52.6197 I-1.8832 J1.9348
G3 X-34.7588 Y-51.7361 I-4.0088 J3.1645
G3 X-34.6884 Y-51.7668 I1.1124 J2.4576
G3 X-31.068 Y-52.1497 I2.4489 J5.8481
G3 X-30.5836 Y-52.0107 I-0.4984 J2.6511
G3 X-27.1497 Y-50.6532 I-188.5595 J481.9787
G3 X-26.3354 Y-50.1437 I-1.0007 J2.5051
G3 X-25.6139 Y-49.2816 I-2.7899 J3.0676
G3 X-25.383 Y-48.9308 I-16.6679 J11.2213
G3 X-24.3288 Y-49.0969 I0.9387 J2.529
G3 X-13.8382 Y-48.3876 I-9.1026 J212.5526
G3 X-13.7817 Y-48.3817 I-0.2484 J2.6861
G3 X-8.9265 Y-47.5283 I-4.5926 J40.3654
G3 X-7.484 Y-46.6346 I-0.6273 J2.6236
G3 X-5.9819 Y-44.3459 I-9.125 J7.626
G3 X-5.8497 Y-44.1258 I-4.2809 J2.7209
G3 X-4.6119 Y-44.0008 I0.3551 J2.6741
G3 X-2.6957 Y-42.7619 I-1.5668 J4.5248
G3 X-2.2875 Y-42.1984 I-1.9622 J1.8511
G3 X-1.8419 Y-39.7123 I-3.5245 J1.9147
G2 X-1.8584 Y-36.3335 I17.6724 J1.7756
G3 X-1.8475 Y-36.112 I-2.6866 J0.2435
G3 X-2.2136 Y-33.7673 I-7.3096 J0.0597
G3 X-2.2846 Y-33.5762 I-2.5624 J-0.8433
G3 X-3.1481 Y-32.1581 I-5.0148 J-2.0819
G2 X-3.5478 Y-31.4177 I1.9031 J1.5053
G3 X-4.8983 Y-29.0493 I-3.63 J-0.5006
G3 X-4.0168 Y-28.9853 I-0.0239 J6.428
G3 X-1.7078 Y-26.5301 I-0.3799 J2.6707
G1 X-1.6013 Y-25.2015
G3 X-1.1297 Y-26.3332 I3.8703 J0.9487
G3 X-1.354 Y-27.4453 I2.473 J-1.0775
G3 X-0.73 Y-32.4745 I22.9439 J0.294
G3 X-0.7074 Y-32.5625 I2.624 J0.6258
G2 X-0.348 Y-34.05 I-23.9746 J-6.5792
G3 X-0.4911 Y-34.278 I2.2103 J-1.5464
G3 X-1.0138 Y-36.2331 I3.5762 J-2.0035
G3 X-0.8995 Y-39.0859 I25.4504 J-0.4089
G3 X-0.8984 Y-39.0972 I2.6851 J0.259
G3 X-0.5037 Y-42.4732 I105.7024 J10.6457
G3 X0.5251 Y-44.255 I2.674 J0.356
G3 X2.4492 Y-45.2461 I3.681 J4.7834
G3 X2.8077 Y-45.3289 I0.7852 J2.5808
G3 X5.1511 Y-45.0182 I0.6525 J4.0722
G3 X5.438 Y-45.8181 I4.9208 J1.3134
G3 X5.4562 Y-45.8574 I2.4544 J1.1193
G3 X6.0202 Y-46.701 I3.1624 J1.504
G3 X7.014 Y-47.3948 I2.0016 J1.8084
G3 X10.2014 Y-48.0355 I3.3099 J8.2176
G3 X11.1418 Y-48.0398 I0.5525 J17.7206
G3 X12.2064 Y-47.7953 I-0.059 J2.697
G1 X12.6285 Y-47.6019
G1 X12.7945 Y-47.8129
G3 X15.341 Y-48.809 I2.1204 J1.6676
G1 X19.6322 Y-48.1226
G0 Z3.0
G0 X14.1202 Y-21.402
G0 Z1.0
G1 F300.0 Z-1.5
G3 F800.0 X13.2402 Y-20.0202 I-2.6079 J-0.6898
G1 X19.1584 Y-20.0793
G3 X17.6617 Y-20.4603 I34.1883 J-137.4257
G3 X17.6494 Y-20.4636 I0.6798 J-2.6106
G3 X14.1202 Y-21.402 I1157.7015 J-4360.9923
G0 Z3.0
G0 X22.4602 Y-19.2998
G0 Z1.0
G1 F300.0 Z-1.5
G3 F800.0 X22.9345 Y-18.6559 I-1.9106 J1.9043
G1 X23.3261 Y-19.1091
G3 X22.4602 Y-19.2998 I30.0207 J-138.3959
G0 Z3.0
G0 X-5.4395 Y2.3807
G0 Z1.0
G1 F300.0 Z-1.5
G3 F800.0 X-5.769 Y3.3167 I-9.5408 J-2.8335
G3 X-5.8713 Y3.5692 I-10.7337 J-4.202
G3 X-6.253 Y4.4169 I-9.2132 J-3.6384
G3 X-5.1204 Y4.6899 I-2.5579 J13.0965
G3 X-5.4433 Y2.5546 I5.9731 J-1.9954
G1 X-5.4395 Y2.3807
G1 F300.0 X-4.2398 Y2.4074
G1 F800.0 X-4.1715 Y-0.6642
G3 X-4.0237 Y-1.7746 I5.0963 J0.1133
G3 X-3.791 Y-2.5516 I8.1152 J2.0067
G3 X-4.0674 Y-3.7661 I6.6626 J-2.1549
G3 X-4.0701 Y-3.7865 I5.0514 J-0.6846
G3 X-4.643 Y-2.6716 I-79.6941 J-40.2495
G3 X-4.7462 Y-2.4841 I-4.5175 J-2.3617
G3 X-5.0341 Y-1.9001 I-502.5572 J-247.4264
G3 X-5.6058 Y-0.4186 I-14.3984 J-4.7054
G3 X-6.1584 Y0.6942 I-13.8708 J-6.1947
G2 X-6.375 Y1.1467 I35.717 J17.3687
G3 X-6.8831 Y2.8707 I-8.6053 J-1.5995
G3 X-6.9829 Y3.117 I-9.6196 J-3.7559
G3 X-8.2862 Y5.3687 I-8.1016 J-3.1862
G3 X-8.2954 Y5.3804 I-4.0115 J-3.1453
G3 X-3.545 Y6.5705 I-0.5155 J12.133
G3 X-2.5205 Y7.2244 I-2.2104 J4.5934
G3 X-2.0487 Y6.8859 I3.2028 J3.9658
G3 X-4.2436 Y2.5812 I2.9014 J-4.1913
G1 X-4.2398 Y2.4074
G1 F300.0 X-3.0401 Y2.4341
G1 F800.0 X-2.9718 Y-0.6376
G3 X-2.8588 Y-1.4865 I3.8966 J0.0866
G3 X-2.5104 Y-2.5382 I6.9503 J1.7186
G3 X-2.8782 Y-3.9272 I5.382 J-2.1683
G3 X-2.8854 Y-3.9834 I3.8623 J-0.5235
G3 X-2.9438 Y-6.6523 I13.4966 J-1.63
G2 X-2.8864 Y-8.5986 I-50.1631 J-2.4531
G3 X-2.8945 Y-9.0918 I11.1306 J-0.4313
G2 X-3.1608 Y-8.5194 I26.3493 J12.6058
G3 X-5.7065 Y-3.2276 I-80.6034 J-35.5166
G3 X-5.804 Y-3.0522 I-3.4541 J-1.8058
G3 X-6.1489 Y-2.3529 I-501.4993 J-246.8583
G3 X-6.7013 Y-0.9084 I-13.2837 J-4.2526
G3 X-7.2243 Y0.1421 I-12.7753 J-5.7049
G2 X-7.5292 Y0.7818 I36.7829 J17.9208
G3 X-7.9971 Y2.4245 I-7.4511 J-1.2346
G3 X-8.0946 Y2.6649 I-8.5056 J-3.3098
G3 X-9.2271 Y4.6238 I-6.9899 J-2.734
G3 X-9.3503 Y4.7736 I-3.0707 J-2.4005
G3 X-13.5195 Y7.2714 I-5.7342 J-4.8428
G3 X-13.8097 Y7.3347 I-1.8622 J-7.8382
G3 X-13.9133 Y7.3539 I-0.7605 J-3.8227
G3 X-13.9774 Y7.3647 I-3.0815 J-18.0208
G3 X-14.0031 Y7.3696 I-2.6536 J-13.8629
G1 X-13.2177 Y7.444
G3 X-13.051 Y7.4634 I-0.3672 J3.8803
G3 X-12.557 Y7.2317 I1.8976 J3.4044
G3 X-11.2151 Y6.8332 I3.1666 J8.2035
G3 X-11.1982 Y6.8296 I0.8088 J3.8128
G3 X-10.9796 Y6.7865 I2.3239 J11.1991
G3 X-4.0653 Y7.6519 I2.1687 J10.7269
G3 X-2.5276 Y8.9794 I-1.6901 J3.5121
G3 X1.4482 Y7.3685 I3.21 J2.2108
G3 X1.8537 Y7.1786 I1.853 J3.429
G3 X0.7838 Y6.653 I9.8289 J-21.3582
G3 X-0.0985 Y6.4743 I1.4746 J-9.5439
G3 X-3.0439 Y2.6079 I0.9512 J-3.7797
G1 X-3.0401 Y2.4341
G0 Z3.0
G0 X-4.7036 Y22.4236
G0 Z1.0
G1 F300.0 Z-1.5
G3 F800.0 X-6.0365 Y24.2383 I-18.7808 J-12.398
G3 X-2.6355 Y25.6234 I-0.0932 J5.0967
G3 X-2.6 Y25.6056 I2.3053 J4.5465
G3 X-4.7036 Y22.4236 I2.8918 J-4.198
G1 F300.0 X-3.5277 Y22.1844
G3 F800.0 X-3.585 Y21.0044 I3.8194 J-0.7769
G1 X-3.1388 Y16.7142
G3 X-2.9516 Y15.8606 I3.8767 J0.4031
G3 X-2.952 Y15.8594 I6.0234 J-2.0419
G3 X-5.3773 Y21.2356 I-37.634 J-13.7421
G3 X-5.515 Y21.4693 I-3.4252 J-1.8599
G3 X-8.9591 Y25.61 I-17.9694 J-11.4438
G1 X-6.3779 Y25.4453
G3 X-2.8637 Y27.208 I0.2482 J3.8897
G3 X-0.6558 Y26.286 I2.5334 J2.9619
G3 X-0.003 Y26.2673 I0.4963 J5.9212
G3 X0.8453 Y25.8358 I2.178 J3.2323
G3 X-0.1 Y25.4832 I7.6182 J-21.8658
G3 X-0.8632 Y25.17 I9.2854 J-23.7095
G3 X-0.8737 Y25.1654 I1.5381 J-3.5813
G3 X-1.4895 Y24.8743 I4.0993 J-9.4679
G3 X-3.5277 Y22.1844 I1.7813 J-3.4668
G0 Z3.0
G0 X-2.549 Y46.6163
G0 Z1.0
G1 F300.0 Z-1.5
G3 F800.0 X-2.2908 Y46.8949 I-8.8901 J8.5003
G3 X-2.1698 Y46.7175 I10.2215 J6.8418
G3 X-2.549 Y46.6163 I6.9272 J-26.731
G1 F300.0 X-2.2314 Y45.4591
G3 F800.0 X-3.6887 Y45.0137 I6.9889 J-25.4726
G3 X-4.1583 Y44.8434 I3.5486 J-10.515
G3 X-5.6328 Y45.6564 I-8.0295 J-12.8187
G3 X-2.6058 Y48.3948 I-5.8063 J9.4603
G1 X-2.1221 Y49.0304
G3 X0.0017 Y45.9688 I10.0529 J4.7062
G3 X-2.2314 Y45.4591 I4.7558 J-25.9823
G1 F300.0 X-1.9139 Y44.3019
G3 F800.0 X-3.305 Y43.8767 I6.6714 J-24.3154
G3 X-4.2813 Y43.4884 I3.1649 J-9.378
G3 X-6.3329 Y44.6599 I-7.9065 J-11.4637
G3 X-6.3826 Y44.6835 I-4.2587 J-8.9345
G3 X-8.4508 Y45.4363 I-5.1978 J-11.0622
G3 X-8.6998 Y45.5005 I-3.1379 J-11.6522
G3 X-8.6096 Y45.6296 I-1062.8787 J742.1015
G3 X-3.5608 Y49.1215 I-2.8294 J9.4871
G1 X-2.0881 Y51.0568
G3 X-1.7329 Y51.5548 I-7.8783 J5.9952
G1 X-1.638 Y51.1973
G3 X3.1441 Y45.0707 I9.5688 J2.5393
G3 X0.3265 Y44.8081 I-0.0111 J-15.126
G3 X-1.9139 Y44.3019 I4.431 J-24.8216
G1 F300.0 X-1.5964 Y43.1446
G3 F800.0 X-2.9213 Y42.7397 I6.3539 J-23.1581
G3 X-4.3943 Y42.0849 I2.7812 J-8.241
G3 X-6.8434 Y43.5739 I-7.7935 J-10.0603
G3 X-6.8929 Y43.5974 I-3.7482 J-7.8485
G3 X-8.7605 Y44.2769 I-4.6874 J-9.9761
G3 X-10.779 Y44.6212 I-2.8282 J-10.4928
G3 X-9.3453 Y46.6724 I-1060.7995 J742.9808
G3 X-4.5157 Y49.8482 I-2.0938 J8.4443
G1 X-3.043 Y51.7834
G3 X-1.2768 Y57.4778 I-6.9234 J5.2685
G2 X-1.0346 Y57.8188 I63.1737 J-44.612
G1 X-0.9844 Y57.716
G3 X-0.9634 Y53.3337 I8.43 J-2.1508
G1 X-0.4782 Y51.5051
G3 X4.9283 Y45.5711 I8.4089 J2.2315
G1 X5.9385 Y43.5442
G3 X4.2216 Y43.8281 I-2.4136 J-9.261
G3 X0.5433 Y43.6278 I-1.0886 J-13.8834
G3 X-1.5964 Y43.1446 I4.2142 J-23.6413
G1 F300.0 X-1.2789 Y41.9874
G3 F800.0 X-2.5376 Y41.6027 I6.0364 J-22.0009
G3 X-4.4915 Y40.6045 I2.3974 J-7.104
G3 X-7.3541 Y42.488 I-7.6963 J-8.5798
G3 X-7.4032 Y42.5113 I-3.2376 J-6.7625
G3 X-9.0701 Y43.1176 I-4.1771 J-8.8901
G3 X-12.5096 Y43.4074 I-2.5186 J-9.3335
G3 X-12.7288 Y43.931 I-7.0228 J-2.6325
G3 X-10.0607 Y47.7444 I-1058.8497 J743.671
G3 X-5.4707 Y50.5749 I-1.3784 J7.3723
G1 X-3.998 Y52.5101
G3 X-2.5054 Y57.8162 I-5.9684 J4.5418
G2 X-1.021 Y59.8715 I64.4023 J-44.9504
G1 X-0.8231 Y60.1228
G1 X0.2954 Y57.8293
G3 X0.1964 Y53.6415 I7.1501 J-2.2641
G1 X0.6817 Y51.8129
G3 X5.7805 Y46.5515 I7.2491 J1.9237
G1 X7.324 Y43.4545
G3 X6.8894 Y42.0707 I6.9046 J-2.9285
G3 X6.6739 Y42.0386 I1.1633 J-8.5578
G3 X4.131 Y42.6315 I-3.1489 J-7.7554
G3 X0.7602 Y42.4476 I-0.9981 J-12.6868
G3 X-1.2789 Y41.9874 I3.9972 J-22.4611
G1 F300.0 X-0.9614 Y40.8302
G3 F800.0 X-2.1538 Y40.4657 I5.7189 J-20.8437
G3 X-4.553 Y38.9916 I2.0137 J-5.967
G3 X-4.7846 Y39.2231 I-8.7162 J-8.4901
G3 X-7.8649 Y41.4021 I-7.4031 J-7.1984
G3 X-7.9135 Y41.4252 I-2.7267 J-5.6767
G3 X-9.3798 Y41.9582 I-3.6668 J-7.804
G3 X-13.3655 Y42.0629 I-2.2089 J-8.1741
G3 X-14.1327 Y44.0203 I-6.1669 J-1.288
G3 X-10.9737 Y48.5332 I-1057.4458 J743.5816
G2 X-10.7338 Y48.8563 I24.7183 J-18.0976
G3 X-6.4256 Y51.3016 I-0.7052 J6.2604
G1 X-4.9529 Y53.2368
G3 X-3.7571 Y58.1171 I-5.0135 J3.8151
G2 X-1.9732 Y60.6019 I65.6539 J-45.2513
G1 X-0.583 Y62.3678
G1 X1.595 Y57.9021
G3 X1.3563 Y53.9493 I5.8505 J-2.3369
G1 X1.8416 Y52.1207
G3 X6.6104 Y47.5765 I6.0892 J1.6159
G1 X8.6579 Y43.4682
G3 X7.9428 Y40.9486 I5.5707 J-2.9423
G3 X6.5324 Y40.7923 I0.1099 J-7.4357
G3 X4.0406 Y41.4349 I-3.0075 J-6.5091
G3 X0.9773 Y41.2674 I-0.9076 J-11.4902
G3 X-0.9614 Y40.8302 I3.7801 J-21.2808
G1 F300.0 X-0.6439 Y39.6729
G3 F800.0 X-1.7701 Y39.3287 I5.4014 J-19.6864
G3 X-4.5124 Y37.1195 I1.63 J-4.83
G3 X-4.8717 Y37.5565 I-14.5895 J-11.627
G3 X-5.6334 Y38.3746 I-8.3975 J-7.0549
G3 X-8.3761 Y40.3164 I-6.5543 J-6.35
G3 X-8.4238 Y40.3391 I-2.2155 J-4.591
G3 X-9.6894 Y40.7988 I-3.1565 J-6.7179
G3 X-14.2481 Y40.5473 I-1.8993 J-7.0147
G3 X-14.4393 Y40.4676 I1.8654 J-4.744
G3 X-14.4332 Y40.6837 I-10.7298 J0.4081
G3 X-15.5992 Y44.0214 I-5.0992 J0.0912
G3 X-11.9503 Y49.2307 I-1055.9793 J743.5805
G2 X-11.3571 Y50.0158 I25.6949 J-18.795
G3 X-11.2164 Y50.0216 I-0.9023 J23.8689
G3 X-7.3805 Y52.0283 I-0.2227 J5.0951
G1 X-5.9079 Y53.9635
G3 X-5.0392 Y58.3684 I-4.0585 J3.0884
G2 X-2.9254 Y61.3324 I66.9361 J-45.5027
G1 X-0.3428 Y64.6129
G1 X2.9216 Y57.9197
G3 X2.5162 Y54.2571 I4.524 J-2.3545
G1 X3.0014 Y52.4285
G3 X7.364 Y48.6682 I4.9294 J1.3081
G1 X7.4097 Y48.6631
G1 X10.0255 Y43.4145
G3 X9.2068 Y39.6363 I4.2032 J-2.8885
G3 X8.6732 Y39.7184 I-1.0408 J-4.9902
G3 X6.387 Y39.5228 I-0.6205 J-6.2056
G3 X3.9503 Y40.2383 I-2.862 J-5.2396
G3 X1.1946 Y40.0872 I-0.8173 J-10.2936
G3 X-0.6439 Y39.6729 I3.5629 J-20.1007
G1 F300.0 X-0.3264 Y38.5157
G3 F800.0 X-1.3864 Y38.1917 I5.0839 J-18.5292
G3 X-4.034 Y34.6698 I1.2463 J-3.693
G1 X-4.0489 Y34.3305
G3 X-5.7888 Y36.7826 I-15.0531 J-8.838
G3 X-6.4824 Y37.5263 I-7.4805 J-6.281
G3 X-8.8879 Y39.2309 I-5.7054 J-5.5016
G3 X-8.9342 Y39.253 I-1.7038 J-3.5055
G3 X-9.9991 Y39.6395 I-2.6462 J-5.6318
G3 X-13.8089 Y39.4306 I-1.5896 J-5.8554
G3 X-14.5441 Y39.0467 I1.4263 J-3.6273
G1 X-15.7359 Y39.4683
G3 X-15.633 Y40.7052 I-9.4332 J1.4074
G3 X-17.169 Y43.8772 I-3.8994 J0.0697
G3 X-12.927 Y49.9279 I-1054.4095 J743.7248
G2 X-11.9483 Y51.2009 I26.6717 J-19.4923
G3 X-11.2688 Y51.2204 I-0.311 J22.6838
G3 X-8.3355 Y52.7549 I-0.1703 J3.8963
G1 X-6.8628 Y54.6902
G3 X-6.365 Y58.5488 I-3.1036 J2.3617
G2 X-3.8775 Y62.063 I68.2619 J-45.683
G1 X-0.1026 Y66.8579
G1 X4.2883 Y57.8547
G3 X3.676 Y54.5649 I3.1572 J-2.2896
G1 X4.1613 Y52.7363
G3 X7.4973 Y49.8608 I3.7695 J1.0003
G1 X8.1923 Y49.7831
G1 X11.4446 Y43.2571
G3 X10.4561 Y39.5368 I2.784 J-2.7312
G1 X10.7714 Y38.3346
G3 X10.5358 Y38.2909 I0.5925 J-3.8523
G2 X9.3789 Y38.3502 I-0.4694 J2.1588
G3 X8.5538 Y38.5244 I-1.2129 J-3.7041
G3 X6.2341 Y38.2096 I-0.5011 J-5.0115
G3 X3.8601 Y39.0417 I-2.7091 J-3.9264
G3 X1.4121 Y38.907 I-0.7272 J-9.097
G3 X-0.3264 Y38.5157 I3.3454 J-18.9205
G1 F300.0 X-0.0089 Y37.3585
G3 F800.0 X-1.0027 Y37.0547 I4.7663 J-17.372
G3 X-2.8351 Y34.6171 I0.8626 J-2.556
G1 X-3.0252 Y30.2883
G3 X-0.5556 Y27.4818 I2.695 J-0.1184
G3 X0.37 Y27.4948 I0.3961 J4.7254
G3 X1.7751 Y26.8318 I1.805 J2.0047
G1 X9.601 Y25.6586
G3 X10.0901 Y25.6302 I0.3999 J2.6678
G3 X10.3147 Y25.4808 I2.1713 J3.0197
G3 X9.4639 Y24.8282 I3.7609 J-5.7835
G2 X8.6583 Y24.2219 I-12.981 J16.4127
G3 X8.2152 Y24.5143 I-1.6998 J-2.0947
G3 X7.1668 Y25.0274 I-9.2361 J-17.5432
G1 X7.1651 Y25.0282
G3 X7.1183 Y25.0506 I-1.1887 J-2.4216
G3 X6.8748 Y25.157 I-2.2136 J-4.7372
G3 X6.8505 Y25.1675 I-7.8957 J-18.1859
G3 X6.6989 Y25.2277 I-1.071 J-2.4759
G3 X3.473 Y25.3546 I-1.812 J-4.9979
G3 X2.8999 Y25.2083 I5.7124 J-23.5809
G3 X0.3407 Y24.3671 I5.5635 J-21.2383
G3 X-0.3897 Y24.0673 I8.8447 J-22.5934
G3 X-0.3969 Y24.0642 I1.0646 J-2.4787
G3 X-0.9411 Y23.807 I3.6225 J-8.3667
G3 X-2.3914 Y21.1285 I1.2328 J-2.3994
G1 X-1.9453 Y16.8383
G3 X-1.6589 Y15.8794 I2.6831 J0.279
G3 X-2.0813 Y13.5514 I4.7307 J-2.0607
G3 X-2.0818 Y13.4596 I36.6411 J-0.2322
G3 X-2.0787 Y12.8214 I14.3264 J-0.2492
G3 X-2.0099 Y11.0209 I36.6385 J0.4977
G3 X1.6432 Y8.6695 I2.6923 J0.1692
G3 X4.8468 Y8.5866 I1.6579 J2.128
G1 X5.2616 Y8.8766
G2 X5.3954 Y8.7079 I-2.9496 J-2.4776
G3 X5.4481 Y8.6398 I2.1593 J1.617
G3 X5.7368 Y8.285 I21.2578 J17.0042
G3 X7.6479 Y7.3128 I2.078 J1.7202
G3 X12.6884 Y7.1503 I5.2593 J84.863
G3 X14.4052 Y7.2324 I0.3809 J10.0303
G3 X15.3845 Y7.4865 I-0.4459 J3.7325
G3 X15.9977 Y7.8378 I-1.0227 J2.4962
G1 X16.1018 Y7.7848
G3 X15.1113 Y7.2126 I3.5827 J-7.3459
G2 X12.3038 Y5.5775 I-121.034 J204.5866
G3 X10.8645 Y6.6685 I-2.2551 J-1.4803
G3 X3.1699 Y6.4428 I-3.5248 J-11.1086
G3 X3.097 Y6.4136 I0.9652 J-2.519
G3 X1.1604 Y5.4947 I8.5856 J-20.5933
G3 X0.1944 Y5.3105 I1.098 J-8.3856
G3 X-1.8442 Y2.6346 I0.6584 J-2.616
G1 X-1.7721 Y-0.6109
G3 X-1.6939 Y-1.1985 I2.6969 J0.06
G3 X-1.2249 Y-2.461 I5.7854 J1.4306
G3 X-1.1862 Y-2.5347 I2.4065 J1.219
G3 X-1.6891 Y-4.0884 I4.0577 J-2.1718
G3 X-1.6941 Y-4.1272 I2.6732 J-0.3623
G3 X-1.746 Y-6.5766 I12.3053 J-1.4861
G2 X-1.6861 Y-8.6168 I-51.3608 J-2.5288
G3 X-1.3464 Y-11.6379 I9.9304 J-0.4131
G3 X-1.3099 Y-11.7608 I2.6031 J0.7079
G3 X0.7403 Y-14.0991 I3.7389 J1.2102
G3 X2.5231 Y-14.2878 I1.1592 J2.4358
G3 X3.0221 Y-14.8863 I2.2997 J1.4101
G2 X3.1102 Y-14.9927 I-0.3126 J-0.3487
G3 X3.2044 Y-15.1376 I2.3082 J1.3961
G3 X4.2169 Y-16.2278 I4.3621 J3.0361
G3 X4.3184 Y-16.3063 I1.7001 J2.0944
G3 X6.0746 Y-17.4701 I12.7359 J17.3109
G3 X6.9419 Y-17.7999 I1.3782 J2.319
G3 X8.1126 Y-19.5431 I2.6482 J0.5138
G3 X2.6037 Y-20.0779 I5.4219 J-84.4777
G3 X2.4445 Y-20.1035 I0.3483 J-2.675
G2 X1.4731 Y-20.212 I-1.1797 J6.1586
G3 X-1.2116 Y-22.0487 I0.0027 J-2.8844
G3 X-1.4494 Y-22.7239 I6.7813 J-2.7672
G3 X-3.6823 Y-20.3492 I-2.6825 J-0.2852
G1 X-5.8781 Y-19.9781
G3 X-5.7194 Y-19.9763 I-0.1515 J20.5673
G3 X-4.4926 Y-19.8047 I-0.0566 J4.8758
G3 X-3.534 Y-19.4306 I-1.0009 J3.9801
G3 X-3.3665 Y-19.3359 I-1.2438 J2.3937
G3 X-3.1695 Y-19.2072 I-2.2048 J3.5915
G3 X-2.1868 Y-18.2553 I-2.324 J3.3826
G3 X-1.4365 Y-16.5591 I-3.3845 J2.511
G3 X-1.2668 Y-15.4892 I-6.1002 J1.5161
G3 X-1.2889 Y-14.3533 I-4.8344 J0.474
G3 X-1.3041 Y-14.2407 I-2.6803 J-0.3048
G3 X-2.2255 Y-12.0869 I-4.6974 J-0.7355
G3 X-2.9777 Y-11.295 I-3.8757 J-2.9283
G2 X-3.2942 Y-10.9508 I1.5056 J1.7017
G2 X-4.2567 Y-9.0085 I26.749 J14.4648
G3 X-6.7699 Y-3.7836 I-79.5076 J-35.0275
G3 X-6.8587 Y-3.6267 I-2.3906 J-1.2498
G3 X-7.2653 Y-2.8023 I-500.4446 J-246.2838
G3 X-7.7969 Y-1.3981 I-12.1673 J-3.8032
G3 X-8.2894 Y-0.4116 I-11.6798 J-5.2152
G2 X-8.6889 Y0.4304 I37.848 J18.4745
G3 X-8.709 Y0.5611 I-2.6755 J-0.3444
G3 X-9.1111 Y1.9782 I-6.2713 J-1.0139
G3 X-9.2064 Y2.213 I-7.3916 J-2.8635
G3 X-10.1683 Y3.8794 I-5.8781 J-2.2821
G3 X-10.2623 Y3.9936 I-2.1295 J-1.656
G3 X-13.7832 Y6.1007 I-4.8222 J-4.0628
G3 X-14.0439 Y6.1578 I-1.5984 J-6.6674
G3 X-14.1155 Y6.1711 I-0.5264 J-2.6458
G3 X-14.1893 Y6.1835 I-2.8792 J-16.8379
G3 X-16.7933 Y6.4154 I-2.4417 J-12.6817
G3 X-16.993 Y6.4155 I-0.1184 J-79.3328
G3 X-17.042 Y6.4154 I-0.0017 J-17.0823
G3 X-19.7387 Y6.3651 I0.1303 J-79.3328
G3 X-20.0131 Y6.3413 I0.0961 J-2.6959
G3 X-19.3381 Y8.8945 I-5876.6268 J1554.994
G3 X-17.3318 Y8.26 I1.7521 J2.0511
G1 X-13.3308 Y8.6386
G3 X-12.8114 Y8.7399 I-0.2541 J2.6856
G3 X-12.1248 Y8.3512 I1.658 J2.1279
G3 X-10.9661 Y8.007 I2.7345 J7.084
G3 X-10.9544 Y8.0046 I0.5598 J2.6389
G3 X-10.7502 Y7.9644 I2.08 J10.0242
G3 X-4.5857 Y8.7332 I1.9393 J9.549
G3 X-3.0646 Y11.3554 I-1.1697 J2.4308
G3 X-3.6077 Y14.0818 I-11.0707 J-0.7877
G3 X-3.8314 Y14.7672 I-14.1814 J-4.2511
G3 X-3.833 Y14.7717 I-2.5432 J-0.8995
G3 X-4.0579 Y15.3893 I-41.1749 J-14.644
G3 X-6.4318 Y20.6629 I-36.5281 J-13.272
G3 X-6.5271 Y20.8247 I-2.3707 J-1.2873
G3 X-9.9534 Y24.8944 I-16.9572 J-10.7992
G3 X-10.0224 Y24.9551 I-1.8156 J-1.9951
G3 X-10.2306 Y25.1315 I-73.8593 J-86.9414
G3 X-10.8456 Y25.6478 I-13.1867 J-15.0851
G3 X-12.5513 Y27.0417 I-73.0361 J-87.634
G1 X-6.3015 Y26.6429
G3 X-3.4885 Y29.8836 I0.1718 J2.6921
G3 X-3.817 Y31.0263 I-7.7546 J-1.6107
G3 X-6.7059 Y36.0087 I-15.2849 J-5.5338
G3 X-7.3316 Y36.6781 I-6.5633 J-5.5072
G3 X-9.4007 Y38.1459 I-4.8562 J-4.6535
G3 X-9.4445 Y38.1669 I-1.191 J-2.4205
G3 X-10.3088 Y38.4801 I-2.1359 J-4.5457
G3 X-13.3698 Y38.3138 I-1.2799 J-4.696
G3 X-14.3101 Y37.6906 I0.9871 J-2.5105
G3 X-14.3518 Y37.7057 I-0.9421 J-2.5303
G1 X-17.1241 Y38.6865
G3 X-16.8329 Y40.7266 I-8.045 J2.1892
G3 X-17.9958 Y42.995 I-2.6996 J0.0483
G1 X-18.8455 Y43.5832
G3 X-13.9039 Y50.6249 I-1052.733 J744.0188
G2 X-12.5157 Y52.4003 I27.6486 J-20.1893
G3 X-11.3212 Y52.4193 I0.2563 J21.4844
G3 X-9.2904 Y53.4816 I-0.1179 J2.6974
G1 X-7.8177 Y55.4169
G3 X-7.7628 Y58.6121 I-2.1486 J1.6351
G2 X-4.8295 Y62.7936 I69.6596 J-45.7464
G1 X0.1376 Y69.1029
G1 X5.7252 Y57.6461
G3 X4.8359 Y54.8727 I1.7204 J-2.081
G1 X5.3211 Y53.0441
G3 X7.6307 Y51.0534 I2.6097 J0.6925
G1 X8.9749 Y50.903
G1 X12.959 Y42.9088
G3 X11.6169 Y39.8412 I1.2697 J-2.3828
G1 X12.3652 Y36.9872
G3 X10.7908 Y37.1183 I-1.0013 J-2.5049
G2 X9.0055 Y37.2098 I-0.7243 J3.3314
G3 X8.4344 Y37.3303 I-0.8395 J-2.5636
G3 X6.0637 Y36.7935 I-0.3817 J-3.8175
G3 X3.7704 Y37.8451 I-2.5388 J-2.5103
G3 X1.6299 Y37.7269 I-0.6374 J-7.9003
G3 X-0.0089 Y37.3585 I3.1276 J-17.7404
G0 Z3.0
G0 X-26.4227 Y-17.7526
G0 Z1.0
G1 F300.0 Z-1.5
G3 F800.0 X-26.1199 Y-18.2975 I2.4936 J1.029
G3 X-26.6463 Y-18.5787 I1.0001 J-2.5054
G3 X-26.4227 Y-17.7526 I-953.1964 J258.4905
G0 Z3.0
G0 X-32.8694 Y-42.1982
G0 Z1.0
G1 F300.0 Z-1.5
G3 F800.0 X-33.0203 Y-43.0807 I52.3319 J-9.4022
G3 X-33.1074 Y-43.1021 I0.5998 J-2.6301
G1 X-32.8694 Y-42.1982
G1 F300.0 X-31.6907 Y-42.41
G3 F800.0 X-31.9785 Y-44.1882 I51.1532 J-9.1904
G1 X-32.4914 Y-44.2125
G3 X-33.8233 Y-45.1796 I0.0709 J-1.4983
G1 X-34.046 Y-45.109
G3 X-34.8707 Y-45.0858 I-0.453 J-1.43
G3 X-34.862 Y-45.0542 I-1.4419 J0.4134
G1 X-30.5423 Y-28.643
G3 X-30.5229 Y-28.5598 I-1.4506 J0.3818
G3 X-30.426 Y-27.2754 I-5.0597 J1.0278
G3 X-30.4498 Y-27.0464 I-1.7167 J-0.0629
G2 X-30.2919 Y-26.824 I3.9733 J-2.6546
G3 X-30.1026 Y-26.492 I-1.1977 J0.9031
G3 X-29.7436 Y-25.3117 I-5.9933 J2.4674
G3 X-25.5157 Y-9.6712 I-950.0992 J265.2235
G3 X-14.2853 Y32.9158 I-5871.1242 J1571.0064
G1 X-14.6802 Y29.986
G3 X-13.2891 Y28.2888 I1.4866 J-0.2003
G1 X-6.2253 Y27.8381
G3 X-4.6611 Y29.6401 I0.0955 J1.497
G3 X-4.9415 Y30.6142 I-6.5821 J-1.3672
G3 X-7.6213 Y35.2365 I-14.1604 J-5.1217
G3 X-8.1795 Y35.832 I-5.6479 J-4.7349
G3 X-9.9149 Y37.0641 I-4.0083 J-3.8073
G3 X-9.9538 Y37.083 I-0.6768 J-1.3387
G3 X-10.6179 Y37.3231 I-1.6266 J-3.4618
G3 X-12.9316 Y37.1993 I-0.9708 J-3.539
G3 X-13.8692 Y36.0036 I0.5489 J-1.396
G1 X-13.8964 Y35.8019
G3 X-14.752 Y36.5745 I-1.3559 J-0.6416
G1 X-18.6861 Y37.9662
G3 X-18.5242 Y38.2851 I-7.446 J3.9788
G3 X-18.4676 Y38.419 I-1.3517 J0.6503
G3 X-18.0327 Y40.7481 I-6.7015 J2.4566
G3 X-18.6787 Y42.0083 I-1.4998 J0.0268
G1 X-20.5254 Y43.2865
G3 X-14.8809 Y51.3218 I-1051.0532 J744.3155
G2 X-13.261 Y53.3779 I28.6256 J-20.8861
G2 X-12.8728 Y53.6081 I0.6541 J-0.661
G3 X-11.3736 Y53.6181 I0.6134 J20.2766
G3 X-10.2454 Y54.2083 I-0.0655 J1.4986
G1 X-8.7727 Y56.1436
G3 X-9.0208 Y58.2164 I-1.1937 J0.9084
G3 X-9.3047 Y58.4397 I-7.2712 J-8.9538
G2 X-5.7814 Y63.5244 I71.2016 J-45.5739
G1 X0.3778 Y71.348
G1 X7.2637 Y57.2291
G3 X6.5505 Y56.7689 I3.1048 J-5.5945
G3 X5.9957 Y55.1805 I0.8951 J-1.2037
G1 X6.481 Y53.3519
G3 X7.7641 Y52.2459 I1.4498 J0.3847
G1 X9.7576 Y52.023
G1 X14.7305 Y42.0444
G1 X14.1763 Y42.0251
G3 X12.7777 Y40.1455 I0.0523 J-1.4991
G1 X13.9704 Y35.5966
G1 X13.5214 Y35.3501
G3 X12.8839 Y34.6692 I0.722 J-1.3148
G1 X12.7852 Y34.9617
G3 X11.0452 Y35.9481 I-1.4213 J-0.4794
G2 X8.6328 Y36.0716 I-0.9788 J4.5017
G3 X8.3152 Y36.1387 I-0.4668 J-1.4255
G3 X6.6318 Y35.7366 I-0.2626 J-2.6258
G3 X6.5355 Y35.6696 I0.8076 J-1.264
G3 X5.7543 Y35.0565 I16.0913 J-21.3088
G3 X5.6386 Y35.3613 I-1.4519 J-0.3768
G3 X3.6815 Y36.6507 I-2.1136 J-1.0781
G3 X1.8476 Y36.5492 I-0.5485 J-6.706
G3 X-0.6198 Y35.92 I2.9098 J-16.5627
G3 X-1.6387 Y34.5646 I0.4796 J-1.4212
G1 X-1.8288 Y30.2358
G3 X-0.4555 Y28.6752 I1.4986 J-0.0658
G3 X0.844 Y28.8078 I0.2961 J3.5319
G3 X1.9526 Y28.0161 I1.331 J0.6917
G1 X9.7785 Y26.8429
G3 X10.4503 Y26.8953 I0.2224 J1.4834
G3 X12.4072 Y26.1325 I1.8111 J1.7547
G3 X12.7666 Y26.1978 I-0.0867 J1.4975
G3 X14.3845 Y27.8187 I-0.7314 J2.348
G3 X15.2135 Y25.0796 I917.5956 J276.2357
G3 X14.3929 Y25.3895 I-0.9171 J-1.187
G3 X12.3392 Y25.1276 I-0.3503 J-5.4356
G3 X10.2382 Y23.9137 I1.7364 J-5.4303
G2 X9.0596 Y23.0401 I-13.7553 J17.3272
G3 X9.04 Y23.0264 I0.8527 J-1.234
G1 X8.3934 Y22.5642
G3 X7.6573 Y23.4546 I-1.4349 J-0.437
G3 X6.6559 Y23.9441 I-8.6782 J-16.4835
G2 X6.6373 Y23.9532 I107.0553 J218.1306
G3 X6.6113 Y23.9656 I-0.661 J-1.3465
G3 X6.4113 Y24.0526 I-1.7066 J-3.6522
G3 X6.375 Y24.0683 I-7.4322 J-17.0815
G3 X6.2907 Y24.1018 I-0.5955 J-1.3767
G3 X3.7743 Y24.1953 I-1.4038 J-3.872
G3 X3.2068 Y24.0507 I5.4112 J-22.4216
G3 X0.7805 Y23.2531 I5.2567 J-20.0807
G3 X0.083 Y22.9669 I8.4049 J-21.4795
G3 X0.0789 Y22.9652 I0.592 J-1.3783
G3 X-0.3938 Y22.7417 I3.1467 J-7.2677
G3 X-1.2002 Y21.2524 I0.6855 J-1.3342
G1 X-0.7541 Y16.9621
G3 X-0.247 Y15.9859 I1.492 J0.1551
G3 X-0.4046 Y15.7203 I3.1898 J-2.0718
G3 X-0.8835 Y13.5807 I3.4763 J-1.9016
G3 X-0.8842 Y13.4468 I35.4433 J-0.2615
G3 X-0.8813 Y12.8459 I13.1289 J-0.2364
G3 X-0.8147 Y11.096 I35.4411 J0.4732
G3 X1.4521 Y9.9027 I1.497 J0.0941
G3 X1.9101 Y10.2362 I-1.6084 J2.6899
G3 X4.1606 Y9.5681 I1.391 J0.5613
G1 X5.3124 Y10.3733
G2 X5.3488 Y10.3558 I-2.103 J-4.404
G2 X5.68 Y10.1614 I-1.6898 J-3.2588
G2 X6.354 Y9.4258 I-3.3679 J-3.7625
G3 X6.3833 Y9.3879 I1.2007 J0.8991
G3 X6.6593 Y9.0487 I20.3226 J16.2561
G3 X7.722 Y8.5081 I1.1554 J0.9565
G3 X12.7132 Y8.3478 I5.1852 J83.6677
G3 X14.255 Y8.4206 I0.356 J8.8327
G3 X14.9304 Y8.5947 I-0.2958 J2.5444
G3 X15.3639 Y8.8666 I-0.5687 J1.388
G1 X15.8169 Y9.2733
G1 X17.5222 Y8.406
G3 X19.6963 Y9.8758 I0.68 J1.337
G3 X19.6184 Y10.4413 I-5.8882 J-0.5234
G3 X19.2829 Y11.9951 I-28.3626 J-5.3106
G2 X21.3381 Y4.9997 I-319.0549 J-97.5361
G3 X21.3932 Y4.7788 I44.2923 J10.9392
G3 X20.9435 Y5.0077 I-0.8955 J-1.2034
G3 X20.893 Y5.0231 I-1.4543 J-4.6731
G2 X20.8475 Y5.486 I6.8025 J0.9022
G3 X20.1304 Y6.6714 I-1.4969 J-0.096
G3 X17.3756 Y7.0193 I-1.7659 J-2.9016
G3 X17.2995 Y6.9939 I0.4367 J-1.435
G3 X15.753 Y6.2008 I2.385 J-6.555
G2 X11.5071 Y3.7465 I-121.6758 J205.5984
G3 X10.5023 Y5.527 I-1.4584 J0.3507
G3 X3.5984 Y5.3245 I-3.1626 J-9.9671
G3 X3.5578 Y5.3083 I0.5367 J-1.4007
G3 X1.528 Y4.3318 I8.1247 J-19.4879
G3 X0.4866 Y4.1492 I0.7304 J-7.2227
G3 X-0.6469 Y2.6612 I0.3661 J-1.4546
G1 X-0.5748 Y-0.5843
G3 X-0.5313 Y-0.911 I1.4996 J0.0333
G3 X-0.1566 Y-1.9198 I4.6228 J1.1431
G3 X0.3104 Y-2.4631 I1.3381 J0.6778
G3 X-0.5024 Y-4.2492 I2.5612 J-2.2434
G3 X-0.5051 Y-4.2708 I1.4864 J-0.2015
G3 X-0.5507 Y-6.5001 I11.1163 J-1.3425
G2 X-0.4883 Y-8.6371 I-52.5561 J-2.6053
G3 X-0.1908 Y-11.3237 I8.7326 J-0.3927
G3 X-0.1705 Y-11.392 I1.4474 J0.3936
G3 X1.2549 Y-13.0177 I2.5995 J0.8414
G3 X2.4535 Y-13.0572 I0.6446 J1.3544
G3 X3.2554 Y-12.8609 I0.0352 J1.5922
G3 X3.3904 Y-13.3229 I13.5379 J3.7037
G3 X3.8215 Y-13.9946 I1.4324 J0.4452
G2 X4.135 Y-14.3729 I-1.112 J-1.2405
G3 X4.1873 Y-14.4535 I1.2835 J0.7763
G3 X4.9717 Y-15.298 I3.3791 J2.352
G3 X5.0281 Y-15.3416 I0.9454 J1.1646
G3 X6.6864 Y-16.4406 I12.0262 J16.3462
G3 X7.9615 Y-16.5622 I0.7663 J1.2895
G3 X8.1081 Y-17.5178 I168.7328 J25.3989
G3 X9.5751 Y-18.786 I1.482 J0.2317
G1 X20.5345 Y-18.8954
G3 X22.0245 Y-17.6681 I0.015 J1.4999
G1 X22.3135 Y-16.1051
G1 X24.4334 Y-18.5589
G3 X27.0117 Y-17.1696 I1.1351 J0.9806
G1 X21.5224 Y2.216
G1 X21.8597 Y2.9468
G3 X21.8815 Y2.9964 I-1.3619 J0.6286
G3 X22.5073 Y1.0436 I43.7488 J12.9425
G2 X23.1731 Y-1.2586 I-24.1459 J-8.231
G3 X23.6218 Y-3.6164 I477.9754 J89.725
G3 X23.6557 Y-3.7561 I1.4729 J0.284
G3 X24.4149 Y-5.9406 I23.0852 J6.7986
G2 X26.741 Y-12.8726 I-148.7717 J-53.7784
G3 X26.7469 Y-12.8912 I1.4327 J0.4442
G2 X34.8398 Y-38.5577 I-1566.2995 J-507.9772
G3 X35.7159 Y-41.7676 I83.7262 J21.1278
G3 X35.0028 Y-42.6384 I1.8213 J-2.2188
G3 X33.9682 Y-42.3031 I-1.0938 J-1.6115
G2 X33.8897 Y-42.1279 I0.7419 J0.4375
G2 X30.686 Y-30.6015 I212.4736 J65.2653
G3 X30.6848 Y-30.5969 I-1.4555 J-0.3627
G2 X30.6041 Y-30.2562 I11.4746 J2.8975
G3 X30.5877 Y-30.1891 I-1.4646 J-0.3241
G1 X28.8475 Y-23.7461
G3 X28.474 Y-22.3333 I-7.2763 J-1.1678
G1 X28.6648 Y-21.7021
G3 X27.1998 Y-19.7684 I-1.4358 J0.434
G3 X24.9004 Y-20.0001 I0.2781 J-14.2843
G3 X24.8668 Y-20.0066 I0.2706 J-1.4754
G3 X17.9635 Y-21.6193 I28.4799 J-137.4983
G3 X17.9566 Y-21.6211 I0.378 J-1.4516
G3 X12.6881 Y-23.0231 I1157.3942 J-4359.8348
G3 X12.6907 Y-23.0198 I-3.9101 J3.0843
G3 X11.4753 Y-20.5923 I-1.1785 J0.928
G3 X2.7584 Y-21.2655 I2.0592 J-83.4285
G3 X2.6698 Y-21.2797 I0.1937 J-1.4874
G2 X1.4901 Y-21.4097 I-1.4051 J7.3348
G3 X-0.0989 Y-22.4917 I-0.0144 J-1.6868
G3 X-0.5051 Y-24.0209 I5.6686 J-2.3242
G3 X-0.5171 Y-24.1721 I1.4873 J-0.1946
G3 X0.3568 Y-26.2808 I2.7861 J-0.0807
G3 X-0.1565 Y-27.43 I0.9865 J-1.13
G3 X0.435 Y-32.1966 I21.7464 J0.2786
G3 X0.4475 Y-32.2456 I1.4591 J0.348
G2 X0.9428 Y-34.407 I-25.1295 J-6.8961
G3 X0.8593 Y-34.4812 I5.6763 J-6.4784
G3 X0.5537 Y-34.8633 I1.0031 J-1.1153
G3 X0.1837 Y-36.2496 I2.5314 J-1.4182
G3 X0.2926 Y-38.9709 I24.253 J-0.3924
G3 X0.2932 Y-38.9772 I1.4931 J0.144
G3 X0.6834 Y-42.3151 I104.5108 J10.5256
G3 X1.2555 Y-43.3059 I1.4869 J0.198
G3 X2.7978 Y-44.1003 I2.9506 J3.8343
G3 X2.9971 Y-44.1464 I0.4366 J1.435
G3 X4.9837 Y-43.7554 I0.463 J2.8896
G2 X5.8044 Y-43.3037 I31.9004 J-56.9866
G3 X6.1708 Y-43.0251 I-0.7138 J1.3193
G3 X6.1768 Y-43.6492 I14.2541 J-0.1758
G3 X6.5276 Y-45.3212 I3.895 J-0.0556
G3 X6.5378 Y-45.343 I1.3648 J0.6224
G3 X6.9089 Y-45.8981 I2.0808 J0.9896
G3 X7.4615 Y-46.2839 I1.113 J1.0056
G3 X10.2282 Y-46.8381 I2.8625 J7.1067
G3 X11.1156 Y-46.8425 I0.5258 J16.5232
G3 X11.7076 Y-46.7065 I-0.0328 J1.4996
G1 X12.987 Y-46.1203
G1 X13.7359 Y-47.0726
G3 X15.1519 Y-47.6265 I1.1791 J0.9273
G1 X25.5311 Y-45.966
G3 X26.4019 Y-45.4962 I-0.237 J1.4812
G3 X28.0322 Y-45.9757 I1.1639 J0.9462
G2 X29.9864 Y-45.3808 I15.3991 J-47.074
G2 X30.6561 Y-45.3851 I0.3263 J-1.33
G3 X34.0972 Y-46.5075 I56.1744 J166.368
G3 X35.8899 Y-45.7464 I0.4505 J1.4308
G3 X37.1271 Y-46.3786 I348.5116 J680.5516
G2 X37.1086 Y-46.6838 I-4.692 J0.1308
G3 X38.111 Y-48.2405 I1.4935 J-0.1394
G3 X40.4595 Y-49.0067 I22.2841 J64.3199
G3 X40.4954 Y-49.0173 I0.4393 J1.4342
G3 X42.4598 Y-48.485 I0.5351 J1.9163
G2 X43.1735 Y-47.9819 I1.8874 J-1.9195
G2 X46.3599 Y-47.1175 I4.0297 J-8.5496
G3 X46.3634 Y-47.1172 I-0.1338 J1.494
G2 X48.9804 Y-47.0697 I1.6308 J-17.735
G3 X48.9984 Y-47.0706 I0.0831 J1.4977
G2 X51.4215 Y-47.1861 I-12.4648 J-286.9794
G1 X51.4421 Y-49.6367
G1 X51.089 Y-49.5585
G3 X49.7415 Y-52.1199 I-0.3244 J-1.4645
G1 X51.2567 Y-53.5332
G2 X51.3503 Y-54.1536 I-15.4464 J-2.6478
G2 X49.8653 Y-54.1277 I0.3451 J62.4293
G3 X49.8256 Y-54.127 I-0.044 J-1.4994
G3 X-1.1835 Y-54.1279 I-25.3612 J-9002.0711
G2 X-43.3959 Y-54.0471 I-7.9083 J6901.6434
G3 X-42.776 Y-53.8908 I-48.6223 J194.1193
G3 X-42.7438 Y-53.8823 I-0.3691 J1.4539
G3 X-40.3334 Y-52.4613 I-1.4455 J5.2069
G3 X-40.2003 Y-52.3058 I-1.0703 J1.0509
G2 X-39.2757 Y-51.1018 I39.8831 J-29.6726
G1 X-38.5821 Y-51.9181
G3 X-36.2616 Y-51.8762 I1.1431 J0.9713
G3 X-35.4733 Y-50.0913 I-3.0669 J2.4209
G2 X-34.3058 Y-50.6259 I-9.7993 J-22.9441
G3 X-34.2258 Y-50.6622 I0.6594 J1.3473
G3 X-31.2893 Y-50.9727 I1.9863 J4.7435
G3 X-31.0199 Y-50.8955 I-0.2772 J1.4742
G3 X-27.5939 Y-49.541 I-188.1232 J480.8634
G3 X-27.1411 Y-49.2577 I-0.5564 J1.393
G3 X-26.6187 Y-48.6297 I-1.9841 J2.1816
G3 X-25.7298 Y-47.1747 I-15.6631 J10.5693
G3 X-24.3801 Y-47.9004 I1.2855 J0.773
G3 X-13.9485 Y-47.195 I-9.0514 J211.3561
G3 X-13.9171 Y-47.1918 I-0.1381 J1.4936
G3 X-9.2051 Y-46.3636 I-4.4572 J39.1755
G3 X-8.4029 Y-45.8666 I-0.3488 J1.4589
G3 X-7.0241 Y-43.7521 I-8.2061 J6.858
G3 X-6.503 Y-42.5621 I-3.2387 J2.1271
G3 X-5.0038 Y-42.8691 I1.0084 J1.1104
G3 X-3.5668 Y-41.9401 I-1.1749 J3.3931
G3 X-3.3398 Y-41.6268 I-1.0911 J1.0293
G3 X-3.0307 Y-39.8603 I-2.4721 J1.343
G2 X-3.0511 Y-36.2254 I18.8611 J1.9235
G3 X-3.045 Y-36.1022 I-1.4939 J0.1354
G3 X-3.3512 Y-34.1416 I-6.1121 J0.0499
G3 X-3.3906 Y-34.0354 I-1.4248 J-0.4689
G3 X-4.0739 Y-32.9181 I-3.9087 J-1.6227
G2 X-4.7237 Y-31.6693 I2.8288 J2.2653
G3 X-6.6162 Y-29.5164 I-2.4541 J-0.2491
G3 X-6.9331 Y-28.4756 I-1.4957 J0.1134
G1 X-7.1411 Y-28.2111
G1 X-7.0663 Y-28.1265
G3 X-6.7076 Y-27.3577 I-1.1244 J0.9928
G3 X-6.2187 Y-27.6642 I1.2045 J1.3781
G3 X-5.9177 Y-27.7562 I0.5865 J1.3806
G3 X-5.8392 Y-27.7708 I0.9955 J5.1348
G3 X-5.3163 Y-27.8369 I0.5493 J2.2421
G3 X-4.1855 Y-27.7997 I0.3941 J5.2156
G3 X-2.9016 Y-26.4344 I-0.2113 J1.485
G1 X-2.6366 Y-23.1289
G3 X-3.8819 Y-21.53 I-1.4952 J0.1198
G1 X-9.1376 Y-20.6419
G3 X-10.8799 Y-22.2723 I-0.2499 J-1.479
G3 X-10.2576 Y-24.8247 I9.4982 J0.9637
G3 X-10.2187 Y-24.9357 I2.9059 J0.9564
G2 X-10.4772 Y-24.8158 I21.996 J47.7916
G2 X-11.1986 Y-24.4724 I196.7441 J414.2049
G3 X-12.944 Y-24.8058 I-0.6459 J-1.3538
G3 X-12.9906 Y-24.6587 I-47.396 J-14.94
G3 X-13.6892 Y-23.1745 I-3.1704 J-0.5856
G3 X-14.1606 Y-22.7998 I-1.15 J-0.963
G3 X-15.2598 Y-22.2485 I-60.9667 J-120.181
G3 X-20.7767 Y-20.1983 I-9.2654 J-16.4847
G3 X-24.8198 Y-19.3332 I-48.1114 J-214.9616
G3 X-26.4819 Y-20.1746 I-0.3001 J-1.4697
G3 X-27.1971 Y-22.0143 I14.5975 J-6.7333
G3 X-27.2009 Y-22.0266 I1.4288 J-0.4566
G3 X-28.493 Y-27.3444 I41.9237 J-13.002
G2 X-29.5447 Y-32.4582 I-296.4317 J58.2972
G3 X-31.444 Y-41.1292 I197.7546 J-47.8597
G3 X-31.6907 Y-42.41 I50.9065 J-10.4712
G0 Z3.0
G0 X-24.3629 Y-18.1595
G0 Z-0.5
G1 F300.0 Z-3.0
G3 F800.0 X-23.9397 Y-18.2236 I0.4339 J1.4359
G1 X-12.7931 Y-18.3029
G3 X-11.2869 Y-16.9188 I0.0107 J1.5
G1 X-11.1254 Y-14.8321
G3 X-10.4024 Y-15.2646 I1.1006 J1.0192
G3 X-9.8084 Y-15.3935 I1.8762 J7.2118
G2 X-8.9525 Y-17.6972 I-37.3569 J-15.1899
G3 X-7.6572 Y-18.7126 I1.4214 J0.4793
G3 X-5.7353 Y-18.7788 I1.6276 J19.3017
G3 X-4.7961 Y-18.6461 I-0.0408 J3.6783
G3 X-4.0957 Y-18.3728 I-0.6974 J2.8215
G3 X-4.0905 Y-18.3702 I-1.6804 J3.2723
G3 X-3.993 Y-18.3152 I-0.6873 J1.3333
G3 X-3.8498 Y-18.2216 I-1.5783 J2.5709
G3 X-3.1501 Y-17.5439 I-1.6437 J2.397
G3 X-2.6061 Y-16.2996 I-2.4212 J1.7996
G3 X-2.4602 Y-15.388 I-4.9306 J1.2566
G3 X-2.4774 Y-14.5016 I-3.6409 J0.3728
G3 X-2.4779 Y-14.4971 I-5.0593 J-0.5414
G3 X-2.4873 Y-14.426 I-1.4913 J-0.1609
G3 X-3.1788 Y-12.8118 I-3.5142 J-0.5502
G3 X-3.7576 Y-12.204 I-2.9223 J-2.2034
G2 X-4.3102 Y-11.5893 I2.2855 J2.6107
G2 X-5.3504 Y-9.4964 I27.765 J15.1033
G3 X-7.8312 Y-4.3384 I-78.4139 J-34.5396
G3 X-7.9056 Y-4.2117 I-1.3293 J-0.695
G3 X-8.3814 Y-3.2469 I-499.3977 J-245.6988
G3 X-8.8902 Y-1.8868 I-11.0511 J-3.3586
G3 X-9.3515 Y-0.9658 I-10.5865 J-4.7265
G2 X-9.8619 Y0.1154 I38.9101 J19.0287
G3 X-9.8738 Y0.2536 I-1.4988 J-0.0599
G3 X-9.8895 Y0.3591 I-1.4906 J-0.1676
G3 X-10.2228 Y1.5326 I-5.0908 J-0.8119
G3 X-10.3162 Y1.7623 I-6.2799 J-2.4178
G3 X-11.1084 Y3.1374 I-4.7683 J-1.8314
G3 X-11.1715 Y3.2141 I-1.1893 J-0.9141
G3 X-14.0464 Y4.9322 I-3.913 J-3.2833
G3 X-14.2775 Y4.9832 I-1.3353 J-5.499
G3 X-14.3174 Y4.9906 I-0.2927 J-1.4712
G3 X-14.401 Y5.0047 I-2.6774 J-15.6575
G3 X-16.7865 Y5.2178 I-2.23 J-11.5028
G3 X-16.9925 Y5.2179 I-0.1252 J-78.1352
G3 X-17.0394 Y5.2178 I-0.0023 J-15.8847
G3 X-19.696 Y5.1683 I0.1277 J-78.1352
G3 X-21.1045 Y4.0049 I0.0535 J-1.499
G2 X-21.9627 Y0.35 I-372.2769 J85.4843
G2 X-22.7413 Y-2.7335 I-201.6709 J49.2808
G3 X-23.7223 Y-6.7728 I113.292 J-29.6545
G3 X-24.7337 Y-11.7977 I87.2784 J-20.1817
G3 X-24.9812 Y-13.2349 I115.2844 J-20.5904
G3 X-25.422 Y-16.578 I49.12 J-8.1773
G3 X-24.3629 Y-18.1595 I1.4929 J-0.1456
G0 Z3.0
G0 X-17.9262 Y9.4847
G0 Z1.0
G1 F300.0 Z-1.5
G3 F800.0 X-17.4447 Y9.4523 I0.3402 J1.4609
G1 X-13.4436 Y9.8309
G3 X-12.5257 Y10.2621 I-0.1413 J1.4933
G3 X-11.6936 Y9.4684 I1.3723 J0.6057
G3 X-10.7176 Y9.1786 I2.3032 J5.9667
G3 X-10.7111 Y9.1772 I0.3113 J1.4673
G3 X-10.5213 Y9.1399 I1.8367 J8.8515
G3 X-5.105 Y9.8123 I1.7104 J8.3735
G3 X-4.2592 Y11.2704 I-0.6504 J1.3516
G3 X-4.7495 Y13.7201 I-9.8761 J-0.7027
G3 X-4.9605 Y14.3679 I-13.0396 J-3.8893
G3 X-4.9614 Y14.3704 I-1.4142 J-0.5001
G3 X-5.1818 Y14.9757 I-40.0465 J-14.2427
G3 X-7.4843 Y20.0915 I-35.4042 J-12.8584
G3 X-7.5373 Y20.1814 I-1.3182 J-0.7158
G3 X-10.7594 Y24.0086 I-15.9471 J-10.1559
G3 X-10.7978 Y24.0424 I-1.0096 J-1.1094
G3 X-11.0114 Y24.2234 I-73.0839 J-86.0286
G3 X-11.6047 Y24.7214 I-12.4058 J-14.177
G3 X-13.4332 Y26.2135 I-72.277 J-86.7076
G3 X-15.678 Y25.7746 I-0.9361 J-1.172
G3 X-16.3721 Y24.0647 I6.4543 J-3.6158
G3 X-16.412 Y23.9203 I21.152 J-5.9314
G3 X-16.4981 Y23.5961 I9.5965 J-2.721
G3 X-16.5013 Y23.5828 I1.4561 J-0.3604
G3 X-16.9354 Y21.4549 I21.2812 J-5.4495
G2 X-17.4416 Y18.6752 I-141.8186 J24.3887
G2 X-17.6635 Y17.7365 I-29.0609 J6.3744
G2 X-17.8589 Y17.0051 I-59.1664 J15.4158
G2 X-18.0305 Y16.4175 I-28.6435 J8.0446
G1 Y16.4174
G3 X-19.0793 Y11.0868 I26.0436 J-7.8927
G3 X-17.9262 Y9.4847 I1.4933 J-0.1412
G1 F300.0 Z-3.0
G3 F800.0 X-17.4447 Y9.4523 I0.3402 J1.4609
G1 X-13.4436 Y9.8309
G3 X-12.5257 Y10.2621 I-0.1413 J1.4933
G3 X-11.6936 Y9.4684 I1.3723 J0.6057
G3 X-10.7176 Y9.1786 I2.3032 J5.9667
G3 X-10.7111 Y9.1772 I0.3113 J1.4673
G3 X-10.5213 Y9.1399 I1.8367 J8.8515
G3 X-5.105 Y9.8123 I1.7104 J8.3735
G3 X-4.2592 Y11.2704 I-0.6504 J1.3516
G3 X-4.7495 Y13.7201 I-9.8761 J-0.7027
G3 X-4.9605 Y14.3679 I-13.0396 J-3.8893
G3 X-4.9614 Y14.3704 I-1.4142 J-0.5001
G3 X-5.1818 Y14.9757 I-40.0465 J-14.2427
G3 X-7.4843 Y20.0915 I-35.4042 J-12.8584
G3 X-7.5373 Y20.1814 I-1.3182 J-0.7158
G3 X-10.7594 Y24.0086 I-15.9471 J-10.1559
G3 X-10.7978 Y24.0424 I-1.0096 J-1.1094
G3 X-11.0114 Y24.2234 I-73.0839 J-86.0286
G3 X-11.6047 Y24.7214 I-12.4058 J-14.177
G3 X-13.4332 Y26.2135 I-72.277 J-86.7076
G3 X-15.678 Y25.7746 I-0.9361 J-1.172
G3 X-16.3721 Y24.0647 I6.4543 J-3.6158
G3 X-16.412 Y23.9203 I21.152 J-5.9314
G3 X-16.4981 Y23.5961 I9.5965 J-2.721
G3 X-16.5013 Y23.5828 I1.4561 J-0.3604
G3 X-16.9354 Y21.4549 I21.2812 J-5.4495
G2 X-17.4416 Y18.6752 I-141.8186 J24.3887
G2 X-17.6635 Y17.7365 I-29.0609 J6.3744
G2 X-17.8589 Y17.0051 I-59.1664 J15.4158
G2 X-18.0305 Y16.4175 I-28.6435 J8.0446
G1 Y16.4174
G3 X-19.0793 Y11.0868 I26.0436 J-7.8927
G3 X-17.9262 Y9.4847 I1.4933 J-0.1412
G0 Z3.0
G0 X6.2478 Y-38.3372
G0 Z1.0
G1 F300.0 Z-1.5
G2 F800.0 X6.3687 Y-38.8377 I-7.3177 J-2.0321
G2 X6.3688 Y-40.8268 I-6.2515 J-0.995
G3 X6.3214 Y-41.1271 I14.0561 J-2.374
G3 X5.4884 Y-40.5381 I-1.2309 J-0.8573
G1 X5.4089 Y-40.5163
G1 X6.2478 Y-38.3372
G1 F300.0 Z-3.0
G2 F800.0 X6.3687 Y-38.8377 I-7.3177 J-2.0321
G2 X6.3688 Y-40.8268 I-6.2515 J-0.995
G3 X6.3214 Y-41.1271 I14.0561 J-2.374
G3 X5.4884 Y-40.5381 I-1.2309 J-0.8573
G1 X5.4089 Y-40.5163
G1 X6.2478 Y-38.3372
G0 Z3.0
G0 X-2.1685 Y-31.4595
G0 Z-0.5
G1 F300.0 Z-3.0
G3 F800.0 X-2.216 Y-31.4021 I-5.1308 J-4.1986
G2 X-2.3797 Y-31.1186 I0.9709 J0.7493
G3 X-2.7717 Y-29.8573 I-4.7981 J-0.7998
G3 X-2.4236 Y-29.6758 I-1.6251 J3.5427
G3 X-2.1685 Y-31.4595 I24.0134 J2.5245
G0 Z3.0
G0 X-11.9705 Y-23.1315
G0 Z-0.5
G1 F300.0 Z-3.0
G3 F800.0 X-12.261 Y-23.1609 I0.1259 J-2.6947
G3 X-12.771 Y-22.4056 I-3.9 J-2.0834
G3 X-13.6188 Y-21.7318 I-2.0682 J-1.7319
G3 X-14.7004 Y-21.1891 I-61.5085 J-121.2491
G3 X-18.7998 Y-19.4578 I-9.8248 J-17.544
G1 X-12.8017 Y-19.5005
G3 X-10.228 Y-17.6701 I0.0192 J2.6975
G2 X-10.0873 Y-18.0799 I-36.9373 J-12.9133
G3 X-9.055 Y-19.4439 I2.5562 J0.862
G3 X-12.0714 Y-22.3932 I-0.3326 J-2.677
G3 X-11.9705 Y-23.1315 I10.6897 J1.0846
G0 Z3.0
G0 X0.692 Y-17.8705
G0 Z-0.5
G1 F300.0 Z-3.0
G3 F800.0 X0.9062 Y-17.0827 I-6.2633 J2.1262
G3 X0.9935 Y-16.6797 I-8.4429 J2.0396
G3 X1.3992 Y-16.7362 I0.906 J5.0164
G3 X2.2612 Y-17.7024 I6.1673 J4.6348
G3 X1.993 Y-17.7464 I0.6909 J-5.0506
G2 X1.4218 Y-17.8123 I-0.7282 J3.8014
G3 X0.692 Y-17.8705 I0.054 J-5.2842
G1 F300.0 X0.87 Y-19.0572
G3 F800.0 X-1.4167 Y-20.2127 I0.6058 J-4.0393
G3 X-1.9552 Y-19.7759 I-2.7151 J-2.7963
G3 X-1.2215 Y-18.9682 I-3.5384 J3.9513
G3 X-0.265 Y-16.8205 I-4.3498 J3.2239
G3 X-0.071 Y-15.5902 I-7.2717 J1.7775
G3 X-0.0437 Y-15.0451 I-6.0302 J0.575
G3 X0.2246 Y-15.1826 I2.4727 J4.4946
G3 X1.9947 Y-15.5597 I1.6749 J3.5194
G3 X2.1411 Y-15.7061 I2.8281 J2.682
G3 X2.2195 Y-15.8231 I3.2774 J2.1095
G3 X3.4606 Y-17.1595 I5.347 J3.7217
G3 X3.6073 Y-17.2728 I2.4564 J3.0261
G3 X5.4615 Y-18.5016 I13.4471 J18.2775
G3 X5.5327 Y-18.543 I1.9913 J3.3505
G3 X2.4488 Y-18.888 I8.0017 J-85.4778
G3 X2.2188 Y-18.925 I0.5033 J-3.865
G2 X1.4499 Y-19.0121 I-0.954 J4.98
G3 X0.87 Y-19.0572 I0.0259 J-4.0844
G0 Z3.0
G0 X13.2402 Y-20.0202
G0 Z-0.5
G1 F300.0 Z-3.0
G1 F800.0 X19.1584 Y-20.0793
G3 X17.6617 Y-20.4603 I34.1883 J-137.4257
G3 X17.6494 Y-20.4636 I0.6798 J-2.6106
G3 X14.1202 Y-21.402 I1157.7015 J-4360.9923
G3 X13.2402 Y-20.0202 I-2.6079 J-0.6898
G0 Z3.0
G0 X22.4602 Y-19.2998
G0 Z-0.5
G1 F300.0 Z-3.0
G3 F800.0 X22.9345 Y-18.6559 I-1.9106 J1.9043
G1 X23.3261 Y-19.1091
G3 X22.4602 Y-19.2998 I30.0207 J-138.3959
G0 Z3.0
G0 X26.2875 Y-49.4848
G0 Z-0.5
G1 F300.0 Z-3.0
G3 F800.0 X29.1508 Y-49.395 I1.2783 J4.9347
G2 X30.2616 Y-49.0471 I14.2805 J-43.6547
G3 X33.0168 Y-49.9391 I56.5689 J170.0301
G3 X34.754 Y-50.1702 I1.5309 J4.8623
G3 X35.0653 Y-50.4976 I3.848 J3.347
G3 X20.0113 Y-50.4924 I-10.6009 J-9005.7006
G1 X26.0994 Y-49.5185
G3 X26.2875 Y-49.4848 I-0.8053 J5.0336
G0 Z3.0
G0 X3.539 Y-49.3156
G0 Z-0.5
G1 F300.0 Z-3.0
G3 F800.0 X-1.1931 Y-49.3279 I20.9253 J-9006.8826
G2 X-5.0744 Y-49.3312 I-7.8988 J6896.8434
G3 X-4.7216 Y-48.9431 I-4.4795 J4.4265
G3 X-3.6297 Y-47.4668 I-11.8874 J9.9346
G3 X-3.434 Y-47.4026 I-1.8649 J6.0151
G3 X-2.0592 Y-46.7831 I-2.7448 J7.9266
G3 X-1.6704 Y-47.1081 I4.2295 J4.666
G3 X1.4014 Y-48.6902 I5.8765 J7.6364
G3 X2.2381 Y-48.8836 I1.8331 J6.0249
G3 X3.2284 Y-48.9774 I1.222 J7.6268
G3 X3.349 Y-49.1144 I5.3902 J4.624
G3 X3.539 Y-49.3156 I4.6729 J4.2218
G1 F300.0 X3.5418 Y-50.5156
G3 F800.0 X-1.1907 Y-50.5279 I20.9225 J-9005.6826
G2 X-11.7674 Y-50.5319 I-7.9012 J6898.0434
G3 X-8.3684 Y-49.8625 I-6.6069 J42.5155
G3 X-5.6424 Y-48.1736 I-1.1855 J4.9578
G3 X-4.3943 Y-46.4291 I-10.9666 J9.165
G3 X-3.8266 Y-46.2687 I-1.1003 J4.9774
G3 X-1.8678 Y-45.2283 I-2.3521 J6.7927
G3 X-0.9385 Y-46.1571 I4.0381 J3.1111
G3 X1.7507 Y-47.5421 I5.1446 J6.6854
G3 X2.428 Y-47.6987 I1.4838 J4.8769
G3 X3.8075 Y-47.7716 I1.0322 J6.4419
G3 X4.2394 Y-48.3099 I4.8111 J3.4182
G3 X6.1173 Y-49.621 I3.7825 J3.4174
G3 X10.1468 Y-50.4349 I4.2066 J10.4438
G3 X11.1943 Y-50.4393 I0.6071 J20.12
G3 X12.0342 Y-50.3509 I-0.1115 J5.0964
G3 X12.2643 Y-50.4996 I2.8807 J4.2056
G3 X3.5418 Y-50.5156 I12.2001 J-9005.6986
G1 F300.0 X3.5446 Y-51.7156
G3 F800.0 X-1.1883 Y-51.7279 I20.9197 J-9004.4826
G2 X-26.5686 Y-51.7103 I-7.9035 J6899.2434
G3 X-25.528 Y-51.0315 I-1.5818 J3.5622
G3 X-24.8441 Y-50.2788 I-3.5973 J3.9554
G3 X-24.2775 Y-50.2958 I0.3998 J3.877
G3 X-13.7277 Y-49.5825 I-9.154 J213.7515
G3 X-13.646 Y-49.574 I-0.359 J3.881
G3 X-8.6475 Y-48.6954 I-4.7283 J41.5577
G3 X-6.5632 Y-47.4041 I-0.9064 J3.7907
G3 X-5.1462 Y-45.3337 I-10.0458 J8.3955
G3 X-4.2193 Y-45.1347 I-0.3484 J3.882
G3 X-1.8228 Y-43.5853 I-1.9595 J5.6587
G3 X-1.5537 Y-43.2676 I-2.8351 J2.6746
G3 X-0.2067 Y-45.2061 I3.7239 J1.1504
G3 X2.0999 Y-46.3941 I4.4128 J5.7344
G3 X2.6178 Y-46.5138 I1.1345 J3.7288
G3 X4.4311 Y-46.4915 I0.8423 J5.257
G3 X5.1298 Y-47.5054 I4.1875 J2.1381
G3 X6.5657 Y-48.5079 I2.8921 J2.6129
G3 X10.1742 Y-49.2352 I3.7582 J9.3307
G3 X11.168 Y-49.2395 I0.5797 J18.9203
G3 X12.3081 Y-49.0429 I-0.0853 J3.8967
G3 X15.5306 Y-49.994 I2.6068 J2.8975
G1 X25.9099 Y-48.3335
G3 X26.3231 Y-48.2442 I-0.6157 J3.8487
G3 X28.7777 Y-48.2545 I1.2428 J3.6942
G2 X30.284 Y-47.7895 I14.6536 J-44.7953
G3 X33.3771 Y-48.7945 I56.5466 J168.7724
G3 X35.3015 Y-48.9008 I1.1705 J3.7177
G3 X37.3254 Y-50.5083 I3.3005 J2.0776
G3 X39.7566 Y-51.3015 I23.0698 J66.5876
G3 X39.85 Y-51.3288 I1.1422 J3.729
G3 X44.1502 Y-50.189 I1.1806 J4.2279
G2 X44.2135 Y-50.1449 I0.1969 J-0.2155
G2 X46.574 Y-49.5079 I2.9897 J-6.3866
G3 X46.5831 Y-49.5071 I-0.348 J3.8844
G2 X47.19 Y-49.4634 I1.411 J-15.3451
G3 X46.9273 Y-51.7193 I3.5746 J-1.5596
G3 X3.5446 Y-51.7156 I-22.4629 J-9004.4788
G1 F300.0 X3.5474 Y-52.9156
G3 F800.0 X-1.1859 Y-52.9279 I20.9169 J-9003.2826
G2 X-35.5558 Y-52.8816 I-7.9059 J6900.4434
G3 X-35.3197 Y-52.6197 I-1.8832 J1.9348
G3 X-34.7588 Y-51.7361 I-4.0088 J3.1645
G3 X-34.6884 Y-51.7668 I1.1124 J2.4576
G3 X-31.068 Y-52.1497 I2.4489 J5.8481
G3 X-30.5836 Y-52.0107 I-0.4984 J2.6511
G3 X-27.1497 Y-50.6532 I-188.5595 J481.9787
G3 X-26.3354 Y-50.1437 I-1.0007 J2.5051
G3 X-25.6139 Y-49.2816 I-2.7899 J3.0676
G3 X-25.383 Y-48.9308 I-16.6679 J11.2213
G3 X-24.3288 Y-49.0969 I0.9387 J2.529
G3 X-13.8382 Y-48.3876 I-9.1026 J212.5526
G3 X-13.7817 Y-48.3817 I-0.2484 J2.6861
G3 X-8.9265 Y-47.5283 I-4.5926 J40.3654
G3 X-7.484 Y-46.6346 I-0.6273 J2.6236
G3 X-5.9819 Y-44.3459 I-9.125 J7.626
G3 X-5.8497 Y-44.1258 I-4.2809 J2.7209
G3 X-4.6119 Y-44.0008 I0.3551 J2.6741
G3 X-2.6957 Y-42.7619 I-1.5668 J4.5248
G3 X-2.2875 Y-42.1984 I-1.9622 J1.8511
G3 X-1.8419 Y-39.7123 I-3.5245 J1.9147
G2 X-1.8584 Y-36.3335 I17.6724 J1.7756
G3 X-1.8475 Y-36.112 I-2.6866 J0.2435
G3 X-2.2136 Y-33.7673 I-7.3096 J0.0597
G3 X-2.2846 Y-33.5762 I-2.5624 J-0.8433
G3 X-3.1481 Y-32.1581 I-5.0148 J-2.0819
G2 X-3.5478 Y-31.4177 I1.9031 J1.5053
G3 X-4.8983 Y-29.0493 I-3.63 J-0.5006
G3 X-4.0168 Y-28.9853 I-0.0239 J6.428
G3 X-1.7078 Y-26.5301 I-0.3799 J2.6707
G1 X-1.6013 Y-25.2015
G3 X-1.1297 Y-26.3332 I3.8703 J0.9487
G3 X-1.354 Y-27.4453 I2.473 J-1.0775
G3 X-0.73 Y-32.4745 I22.9439 J0.294
G3 X-0.7074 Y-32.5625 I2.624 J0.6258
G2 X-0.348 Y-34.05 I-23.9746 J-6.5792
G3 X-0.4911 Y-34.278 I2.2103 J-1.5464
G3 X-1.0138 Y-36.2331 I3.5762 J-2.0035
G3 X-0.8995 Y-39.0859 I25.4504 J-0.4089
G3 X-0.8984 Y-39.0972 I2.6851 J0.259
G3 X-0.5037 Y-42.4732 I105.7024 J10.6457
G3 X0.5251 Y-44.255 I2.674 J0.356
G3 X2.4492 Y-45.2461 I3.681 J4.7834
G3 X2.8077 Y-45.3289 I0.7852 J2.5808
G3 X5.1511 Y-45.0182 I0.6525 J4.0722
G3 X5.438 Y-45.8181 I4.9208 J1.3134
G3 X5.4562 Y-45.8574 I2.4544 J1.1193
G3 X6.0202 Y-46.701 I3.1624 J1.504
G3 X7.014 Y-47.3948 I2.0016 J1.8084
G3 X10.2014 Y-48.0355 I3.3099 J8.2176
G3 X11.1418 Y-48.0398 I0.5525 J17.7206
G3 X12.2064 Y-47.7953 I-0.059 J2.697
G1 X12.6285 Y-47.6019
G1 X12.7945 Y-47.8129
G3 X15.341 Y-48.809 I2.1204 J1.6676
G1 X25.7203 Y-47.1486
G3 X26.3599 Y-46.963 I-0.4261 J2.6637
G3 X28.4046 Y-47.1139 I1.206 J2.413
G2 X30.2824 Y-46.5416 I15.0267 J-45.9358
G2 X30.3337 Y-46.5402 I0.0303 J-0.1691
G3 X33.7375 Y-47.6499 I56.4969 J167.5231
G3 X35.9592 Y-47.3756 I0.8101 J2.5731
G3 X37.7182 Y-49.3744 I2.6429 J0.5524
G3 X40.1081 Y-50.1541 I22.677 J65.4538
G3 X40.1727 Y-50.173 I0.7907 J2.5816
G3 X43.3089 Y-49.3331 I0.8578 J3.0721
G2 X43.6916 Y-49.0643 I1.0382 J-1.0714
G2 X46.4669 Y-48.3127 I3.5117 J-7.4672
G3 X46.4733 Y-48.3122 I-0.2409 J2.6892
G2 X48.914 Y-48.2679 I1.5209 J-16.5401
G3 X48.9464 Y-48.2695 I0.1495 J2.6959
G2 X50.2311 Y-48.3282 I-12.4128 J-285.7805
G1 X50.2315 Y-48.3762
G3 X48.8476 Y-52.9243 I0.5331 J-2.6468
G3 X3.5474 Y-52.9156 I-24.3833 J-9003.2738
G0 Z3.0
G0 X-33.0203 Y-43.0807
G0 Z-0.5
G1 F300.0 Z-3.0
G3 F800.0 X-33.1074 Y-43.1021 I0.5998 J-2.6301
G1 X-32.8694 Y-42.1982
G3 X-33.0203 Y-43.0807 I52.3319 J-9.4022
G0 Z3.0
G0 X-26.6463 Y-18.5787
G0 Z-0.5
G1 F300.0 Z-3.0
G3 F800.0 X-26.4227 Y-17.7526 I-953.1964 J258.4905
G3 X-26.1199 Y-18.2975 I2.4936 J1.029
G3 X-26.6463 Y-18.5787 I1.0001 J-2.5054
G0 Z3.0
G0 X-5.4395 Y2.3807
G0 Z-0.5
G1 F300.0 Z-3.0
G3 F800.0 X-5.769 Y3.3167 I-9.5408 J-2.8335
G3 X-5.8713 Y3.5692 I-10.7337 J-4.202
G3 X-6.253 Y4.4169 I-9.2132 J-3.6384
G3 X-5.1204 Y4.6899 I-2.5579 J13.0965
G3 X-5.4433 Y2.5546 I5.9731 J-1.9954
G1 X-5.4395 Y2.3807
G1 F300.0 X-4.2398 Y2.4074
G1 F800.0 X-4.1715 Y-0.6642
G3 X-4.0237 Y-1.7746 I5.0963 J0.1133
G3 X-3.791 Y-2.5516 I8.1152 J2.0067
G3 X-4.0674 Y-3.7661 I6.6626 J-2.1549
G3 X-4.0701 Y-3.7865 I5.0514 J-0.6846
G3 X-4.643 Y-2.6716 I-79.6941 J-40.2495
G3 X-4.7462 Y-2.4841 I-4.5175 J-2.3617
G3 X-5.0341 Y-1.9001 I-502.5572 J-247.4264
G3 X-5.6058 Y-0.4186 I-14.3984 J-4.7054
G3 X-6.1584 Y0.6942 I-13.8708 J-6.1947
G2 X-6.375 Y1.1467 I35.717 J17.3687
G3 X-6.8831 Y2.8707 I-8.6053 J-1.5995
G3 X-6.9829 Y3.117 I-9.6196 J-3.7559
G3 X-8.2862 Y5.3687 I-8.1016 J-3.1862
G3 X-8.2954 Y5.3804 I-4.0115 J-3.1453
G3 X-3.545 Y6.5705 I-0.5155 J12.133
G3 X-2.5205 Y7.2244 I-2.2104 J4.5934
G3 X-2.0487 Y6.8859 I3.2028 J3.9658
G3 X-4.2436 Y2.5812 I2.9014 J-4.1913
G1 X-4.2398 Y2.4074
G1 F300.0 X-3.0401 Y2.4341
G1 F800.0 X-2.9718 Y-0.6376
G3 X-2.8588 Y-1.4865 I3.8966 J0.0866
G3 X-2.5104 Y-2.5382 I6.9503 J1.7186
G3 X-2.8782 Y-3.9272 I5.382 J-2.1683
G3 X-2.8854 Y-3.9834 I3.8623 J-0.5235
G3 X-2.9438 Y-6.6523 I13.4966 J-1.63
G2 X-2.8864 Y-8.5986 I-50.1631 J-2.4531
G3 X-2.8945 Y-9.0918 I11.1306 J-0.4313
G2 X-3.1608 Y-8.5194 I26.3493 J12.6058
G3 X-5.7065 Y-3.2276 I-80.6034 J-35.5166
G3 X-5.804 Y-3.0522 I-3.4541 J-1.8058
G3 X-6.1489 Y-2.3529 I-501.4993 J-246.8583
G3 X-6.7013 Y-0.9084 I-13.2837 J-4.2526
G3 X-7.2243 Y0.1421 I-12.7753 J-5.7049
G2 X-7.5292 Y0.7818 I36.7829 J17.9208
G3 X-7.9971 Y2.4245 I-7.4511 J-1.2346
G3 X-8.0946 Y2.6649 I-8.5056 J-3.3098
G3 X-9.2271 Y4.6238 I-6.9899 J-2.734
G3 X-9.3503 Y4.7736 I-3.0707 J-2.4005
G3 X-13.5195 Y7.2714 I-5.7342 J-4.8428
G3 X-13.8097 Y7.3347 I-1.8622 J-7.8382
G3 X-13.9133 Y7.3539 I-0.7605 J-3.8227
G3 X-13.9774 Y7.3647 I-3.0815 J-18.0208
G3 X-14.0031 Y7.3696 I-2.6536 J-13.8629
G1 X-13.2177 Y7.444
G3 X-13.051 Y7.4634 I-0.3672 J3.8803
G3 X-12.557 Y7.2317 I1.8976 J3.4044
G3 X-11.2151 Y6.8332 I3.1666 J8.2035
G3 X-11.1982 Y6.8296 I0.8088 J3.8128
G3 X-10.9796 Y6.7865 I2.3239 J11.1991
G3 X-4.0653 Y7.6519 I2.1687 J10.7269
G3 X-2.5276 Y8.9794 I-1.6901 J3.5121
G3 X1.4482 Y7.3685 I3.21 J2.2108
G3 X1.8537 Y7.1786 I1.853 J3.429
G3 X0.7838 Y6.653 I9.8289 J-21.3582
G3 X-0.0985 Y6.4743 I1.4746 J-9.5439
G3 X-3.0439 Y2.6079 I0.9512 J-3.7797
G1 X-3.0401 Y2.4341
G0 Z3.0
G0 X-4.7036 Y22.4236
G0 Z-0.5
G1 F300.0 Z-3.0
G3 F800.0 X-6.0365 Y24.2383 I-18.7808 J-12.398
G3 X-2.6355 Y25.6234 I-0.0932 J5.0967
G3 X-2.6 Y25.6056 I2.3053 J4.5465
G3 X-4.7036 Y22.4236 I2.8918 J-4.198
G1 F300.0 X-3.5277 Y22.1844
G3 F800.0 X-3.585 Y21.0044 I3.8194 J-0.7769
G1 X-3.1388 Y16.7142
G3 X-2.9516 Y15.8606 I3.8767 J0.4031
G3 X-2.952 Y15.8594 I6.0234 J-2.0419
G3 X-5.3773 Y21.2356 I-37.634 J-13.7421
G3 X-5.515 Y21.4693 I-3.4252 J-1.8599
G3 X-8.9591 Y25.61 I-17.9694 J-11.4438
G1 X-6.3779 Y25.4453
G3 X-2.8637 Y27.208 I0.2482 J3.8897
G3 X-0.6558 Y26.286 I2.5334 J2.9619
G3 X-0.003 Y26.2673 I0.4963 J5.9212
G3 X0.8453 Y25.8358 I2.178 J3.2323
G3 X-0.1 Y25.4832 I7.6182 J-21.8658
G3 X-0.8632 Y25.17 I9.2854 J-23.7095
G3 X-0.8737 Y25.1654 I1.5381 J-3.5813
G3 X-1.4895 Y24.8743 I4.0993 J-9.4679
G3 X-3.5277 Y22.1844 I1.7813 J-3.4668
G0 Z3.0
G0 X-2.549 Y46.6163
G0 Z-0.5
G1 F300.0 Z-3.0
G3 F800.0 X-2.2908 Y46.8949 I-8.8901 J8.5003
G3 X-2.1698 Y46.7175 I10.2215 J6.8418
G3 X-2.549 Y46.6163 I6.9272 J-26.731
G1 F300.0 X-2.2314 Y45.4591
G3 F800.0 X-3.6887 Y45.0137 I6.9889 J-25.4726
G3 X-4.1583 Y44.8434 I3.5486 J-10.515
G3 X-5.6328 Y45.6564 I-8.0295 J-12.8187
G3 X-2.6058 Y48.3948 I-5.8063 J9.4603
G1 X-2.1221 Y49.0304
G3 X0.0017 Y45.9688 I10.0529 J4.7062
G3 X-2.2314 Y45.4591 I4.7558 J-25.9823
G1 F300.0 X-1.9139 Y44.3019
G3 F800.0 X-3.305 Y43.8767 I6.6714 J-24.3154
G3 X-4.2813 Y43.4884 I3.1649 J-9.378
G3 X-6.3329 Y44.6599 I-7.9065 J-11.4637
G3 X-6.3826 Y44.6835 I-4.2587 J-8.9345
G3 X-8.4508 Y45.4363 I-5.1978 J-11.0622
G3 X-8.6998 Y45.5005 I-3.1379 J-11.6522
G3 X-8.6096 Y45.6296 I-1062.8787 J742.1015
G3 X-3.5608 Y49.1215 I-2.8294 J9.4871
G1 X-2.0881 Y51.0568
G3 X-1.7329 Y51.5548 I-7.8783 J5.9952
G1 X-1.638 Y51.1973
G3 X3.1441 Y45.0707 I9.5688 J2.5393
G3 X0.3265 Y44.8081 I-0.0111 J-15.126
G3 X-1.9139 Y44.3019 I4.431 J-24.8216
G1 F300.0 X-1.5964 Y43.1446
G3 F800.0 X-2.9213 Y42.7397 I6.3539 J-23.1581
G3 X-4.3943 Y42.0849 I2.7812 J-8.241
G3 X-6.8434 Y43.5739 I-7.7935 J-10.0603
G3 X-6.8929 Y43.5974 I-3.7482 J-7.8485
G3 X-8.7605 Y44.2769 I-4.6874 J-9.9761
G3 X-10.779 Y44.6212 I-2.8282 J-10.4928
G3 X-9.3453 Y46.6724 I-1060.7995 J742.9808
G3 X-4.5157 Y49.8482 I-2.0938 J8.4443
G1 X-3.043 Y51.7834
G3 X-1.2768 Y57.4778 I-6.9234 J5.2685
G2 X-1.0346 Y57.8188 I63.1737 J-44.612
G1 X-0.9844 Y57.716
G3 X-0.9634 Y53.3337 I8.43 J-2.1508
G1 X-0.4782 Y51.5051
G3 X4.9283 Y45.5711 I8.4089 J2.2315
G1 X5.9385 Y43.5442
G3 X4.2216 Y43.8281 I-2.4136 J-9.261
G3 X0.5433 Y43.6278 I-1.0886 J-13.8834
G3 X-1.5964 Y43.1446 I4.2142 J-23.6413
G1 F300.0 X-1.2789 Y41.9874
G3 F800.0 X-2.5376 Y41.6027 I6.0364 J-22.0009
G3 X-4.4915 Y40.6045 I2.3974 J-7.104
G3 X-7.3541 Y42.488 I-7.6963 J-8.5798
G3 X-7.4032 Y42.5113 I-3.2376 J-6.7625
G3 X-9.0701 Y43.1176 I-4.1771 J-8.8901
G3 X-12.5096 Y43.4074 I-2.5186 J-9.3335
G3 X-12.7288 Y43.931 I-7.0228 J-2.6325
G3 X-10.0607 Y47.7444 I-1058.8497 J743.671
G3 X-5.4707 Y50.5749 I-1.3784 J7.3723
G1 X-3.998 Y52.5101
G3 X-2.5054 Y57.8162 I-5.9684 J4.5418
G2 X-1.021 Y59.8715 I64.4023 J-44.9504
G1 X-0.8231 Y60.1228
G1 X0.2954 Y57.8293
G3 X0.1964 Y53.6415 I7.1501 J-2.2641
G1 X0.6817 Y51.8129
G3 X5.7805 Y46.5515 I7.2491 J1.9237
G1 X7.324 Y43.4545
G3 X6.8894 Y42.0707 I6.9046 J-2.9285
G3 X6.6739 Y42.0386 I1.1633 J-8.5578
G3 X4.131 Y42.6315 I-3.1489 J-7.7554
G3 X0.7602 Y42.4476 I-0.9981 J-12.6868
G3 X-1.2789 Y41.9874 I3.9972 J-22.4611
G1 F300.0 X-0.9614 Y40.8302
G3 F800.0 X-2.1538 Y40.4657 I5.7189 J-20.8437
G3 X-4.553 Y38.9916 I2.0137 J-5.967
G3 X-4.7846 Y39.2231 I-8.7162 J-8.4901
G3 X-7.8649 Y41.4021 I-7.4031 J-7.1984
G3 X-7.9135 Y41.4252 I-2.7267 J-5.6767
G3 X-9.3798 Y41.9582 I-3.6668 J-7.804
G3 X-13.3655 Y42.0629 I-2.2089 J-8.1741
G3 X-14.1327 Y44.0203 I-6.1669 J-1.288
G3 X-10.9737 Y48.5332 I-1057.4458 J743.5816
G2 X-10.7338 Y48.8563 I24.7183 J-18.0976
G3 X-6.4256 Y51.3016 I-0.7052 J6.2604
G1 X-4.9529 Y53.2368
G3 X-3.7571 Y58.1171 I-5.0135 J3.8151
G2 X-1.9732 Y60.6019 I65.6539 J-45.2513
G1 X-0.583 Y62.3678
G1 X1.595 Y57.9021
G3 X1.3563 Y53.9493 I5.8505 J-2.3369
G1 X1.8416 Y52.1207
G3 X6.6104 Y47.5765 I6.0892 J1.6159
G1 X8.6579 Y43.4682
G3 X7.9428 Y40.9486 I5.5707 J-2.9423
G3 X6.5324 Y40.7923 I0.1099 J-7.4357
G3 X4.0406 Y41.4349 I-3.0075 J-6.5091
G3 X0.9773 Y41.2674 I-0.9076 J-11.4902
G3 X-0.9614 Y40.8302 I3.7801 J-21.2808
G1 F300.0 X-0.6439 Y39.6729
G3 F800.0 X-1.7701 Y39.3287 I5.4014 J-19.6864
G3 X-4.5124 Y37.1195 I1.63 J-4.83
G3 X-4.8717 Y37.5565 I-14.5895 J-11.627
G3 X-5.6334 Y38.3746 I-8.3975 J-7.0549
G3 X-8.3761 Y40.3164 I-6.5543 J-6.35
G3 X-8.4238 Y40.3391 I-2.2155 J-4.591
G3 X-9.6894 Y40.7988 I-3.1565 J-6.7179
G3 X-14.2481 Y40.5473 I-1.8993 J-7.0147
G3 X-14.4393 Y40.4676 I1.8654 J-4.744
G3 X-14.4332 Y40.6837 I-10.7298 J0.4081
G3 X-15.5992 Y44.0214 I-5.0992 J0.0912
G3 X-11.9503 Y49.2307 I-1055.9793 J743.5805
G2 X-11.3571 Y50.0158 I25.6949 J-18.795
G3 X-11.2164 Y50.0216 I-0.9023 J23.8689
G3 X-7.3805 Y52.0283 I-0.2227 J5.0951
G1 X-5.9079 Y53.9635
G3 X-5.0392 Y58.3684 I-4.0585 J3.0884
G2 X-2.9254 Y61.3324 I66.9361 J-45.5027
G1 X-0.3428 Y64.6129
G1 X2.9216 Y57.9197
G3 X2.5162 Y54.2571 I4.524 J-2.3545
G1 X3.0014 Y52.4285
G3 X7.364 Y48.6682 I4.9294 J1.3081
G1 X7.4097 Y48.6631
G1 X10.0255 Y43.4145
G3 X9.2068 Y39.6363 I4.2032 J-2.8885
G3 X8.6732 Y39.7184 I-1.0408 J-4.9902
G3 X6.387 Y39.5228 I-0.6205 J-6.2056
G3 X3.9503 Y40.2383 I-2.862 J-5.2396
G3 X1.1946 Y40.0872 I-0.8173 J-10.2936
G3 X-0.6439 Y39.6729 I3.5629 J-20.1007
G1 F300.0 X-0.3264 Y38.5157
G3 F800.0 X-1.3864 Y38.1917 I5.0839 J-18.5292
G3 X-4.034 Y34.6698 I1.2463 J-3.693
G1 X-4.0489 Y34.3305
G3 X-5.7888 Y36.7826 I-15.0531 J-8.838
G3 X-6.4824 Y37.5263 I-7.4805 J-6.281
G3 X-8.8879 Y39.2309 I-5.7054 J-5.5016
G3 X-8.9342 Y39.253 I-1.7038 J-3.5055
G3 X-9.9991 Y39.6395 I-2.6462 J-5.6318
G3 X-13.8089 Y39.4306 I-1.5896 J-5.8554
G3 X-14.5441 Y39.0467 I1.4263 J-3.6273
G1 X-15.7359 Y39.4683
G3 X-15.633 Y40.7052 I-9.4332 J1.4074
G3 X-17.169 Y43.8772 I-3.8994 J0.0697
G3 X-12.927 Y49.9279 I-1054.4095 J743.7248
G2 X-11.9483 Y51.2009 I26.6717 J-19.4923
G3 X-11.2688 Y51.2204 I-0.311 J22.6838
G3 X-8.3355 Y52.7549 I-0.1703 J3.8963
G1 X-6.8628 Y54.6902
G3 X-6.365 Y58.5488 I-3.1036 J2.3617
G2 X-3.8775 Y62.063 I68.2619 J-45.683
G1 X-0.1026 Y66.8579
G1 X4.2883 Y57.8547
G3 X3.676 Y54.5649 I3.1572 J-2.2896
G1 X4.1613 Y52.7363
G3 X7.4973 Y49.8608 I3.7695 J1.0003
G1 X8.1923 Y49.7831
G1 X11.4446 Y43.2571
G3 X10.4561 Y39.5368 I2.784 J-2.7312
G1 X10.7714 Y38.3346
G3 X10.5358 Y38.2909 I0.5925 J-3.8523
G2 X9.3789 Y38.3502 I-0.4694 J2.1588
G3 X8.5538 Y38.5244 I-1.2129 J-3.7041
G3 X6.2341 Y38.2096 I-0.5011 J-5.0115
G3 X3.8601 Y39.0417 I-2.7091 J-3.9264
G3 X1.4121 Y38.907 I-0.7272 J-9.097
G3 X-0.3264 Y38.5157 I3.3454 J-18.9205
G1 F300.0 X-0.0089 Y37.3585
G3 F800.0 X-1.0027 Y37.0547 I4.7663 J-17.372
G3 X-2.8351 Y34.6171 I0.8626 J-2.556
G1 X-3.0252 Y30.2883
G3 X-0.5556 Y27.4818 I2.695 J-0.1184
G3 X0.37 Y27.4948 I0.3961 J4.7254
G3 X1.7751 Y26.8318 I1.805 J2.0047
G1 X9.601 Y25.6586
G3 X10.0901 Y25.6302 I0.3999 J2.6678
G3 X10.3147 Y25.4808 I2.1713 J3.0197
G3 X9.4639 Y24.8282 I3.7609 J-5.7835
G2 X8.6583 Y24.2219 I-12.981 J16.4127
G3 X8.2152 Y24.5143 I-1.6998 J-2.0947
G3 X7.1668 Y25.0274 I-9.2361 J-17.5432
G1 X7.1651 Y25.0282
G3 X7.1183 Y25.0506 I-1.1887 J-2.4216
G3 X6.8748 Y25.157 I-2.2136 J-4.7372
G3 X6.8505 Y25.1675 I-7.8957 J-18.1859
G3 X6.6989 Y25.2277 I-1.071 J-2.4759
G3 X3.473 Y25.3546 I-1.812 J-4.9979
G3 X2.8999 Y25.2083 I5.7124 J-23.5809
G3 X0.3407 Y24.3671 I5.5635 J-21.2383
G3 X-0.3897 Y24.0673 I8.8447 J-22.5934
G3 X-0.3969 Y24.0642 I1.0646 J-2.4787
G3 X-0.9411 Y23.807 I3.6225 J-8.3667
G3 X-2.3914 Y21.1285 I1.2328 J-2.3994
G1 X-1.9453 Y16.8383
G3 X-1.6589 Y15.8794 I2.6831 J0.279
G3 X-2.0813 Y13.5514 I4.7307 J-2.0607
G3 X-2.0818 Y13.4596 I36.6411 J-0.2322
G3 X-2.0787 Y12.8214 I14.3264 J-0.2492
G3 X-2.0099 Y11.0209 I36.6385 J0.4977
G3 X1.6432 Y8.6695 I2.6923 J0.1692
G3 X4.8468 Y8.5866 I1.6579 J2.128
G1 X5.2616 Y8.8766
G2 X5.3954 Y8.7079 I-2.9496 J-2.4776
G3 X5.4481 Y8.6398 I2.1593 J1.617
G3 X5.7368 Y8.285 I21.2578 J17.0042
G3 X7.6479 Y7.3128 I2.078 J1.7202
G3 X12.6884 Y7.1503 I5.2593 J84.863
G3 X14.4052 Y7.2324 I0.3809 J10.0303
G3 X15.3845 Y7.4865 I-0.4459 J3.7325
G3 X15.9977 Y7.8378 I-1.0227 J2.4962
G1 X16.1018 Y7.7848
G3 X15.1113 Y7.2126 I3.5827 J-7.3459
G2 X12.3038 Y5.5775 I-121.034 J204.5866
G3 X10.8645 Y6.6685 I-2.2551 J-1.4803
G3 X3.1699 Y6.4428 I-3.5248 J-11.1086
G3 X3.097 Y6.4136 I0.9652 J-2.519
G3 X1.1604 Y5.4947 I8.5856 J-20.5933
G3 X0.1944 Y5.3105 I1.098 J-8.3856
G3 X-1.8442 Y2.6346 I0.6584 J-2.616
G1 X-1.7721 Y-0.6109
G3 X-1.6939 Y-1.1985 I2.6969 J0.06
G3 X-1.2249 Y-2.461 I5.7854 J1.4306
G3 X-1.1862 Y-2.5347 I2.4065 J1.219
G3 X-1.6891 Y-4.0884 I4.0577 J-2.1718
G3 X-1.6941 Y-4.1272 I2.6732 J-0.3623
G3 X-1.746 Y-6.5766 I12.3053 J-1.4861
G2 X-1.6861 Y-8.6168 I-51.3608 J-2.5288
G3 X-1.3464 Y-11.6379 I9.9304 J-0.4131
G3 X-1.3099 Y-11.7608 I2.6031 J0.7079
G3 X0.7403 Y-14.0991 I3.7389 J1.2102
G3 X2.5231 Y-14.2878 I1.1592 J2.4358
G3 X3.0221 Y-14.8863 I2.2997 J1.4101
G2 X3.1102 Y-14.9927 I-0.3126 J-0.3487
G3 X3.2044 Y-15.1376 I2.3082 J1.3961
G3 X4.2169 Y-16.2278 I4.3621 J3.0361
G3 X4.3184 Y-16.3063 I1.7001 J2.0944
G3 X6.0746 Y-17.4701 I12.7359 J17.3109
G3 X6.9419 Y-17.7999 I1.3782 J2.319
G3 X8.1126 Y-19.5431 I2.6482 J0.5138
G3 X2.6037 Y-20.0779 I5.4219 J-84.4777
G3 X2.4445 Y-20.1035 I0.3483 J-2.675
G2 X1.4731 Y-20.212 I-1.1797 J6.1586
G3 X-1.2116 Y-22.0487 I0.0027 J-2.8844
G3 X-1.4494 Y-22.7239 I6.7813 J-2.7672
G3 X-3.6823 Y-20.3492 I-2.6825 J-0.2852
G1 X-5.8781 Y-19.9781
G3 X-5.7194 Y-19.9763 I-0.1515 J20.5673
G3 X-4.4926 Y-19.8047 I-0.0566 J4.8758
G3 X-3.534 Y-19.4306 I-1.0009 J3.9801
G3 X-3.3665 Y-19.3359 I-1.2438 J2.3937
G3 X-3.1695 Y-19.2072 I-2.2048 J3.5915
G3 X-2.1868 Y-18.2553 I-2.324 J3.3826
G3 X-1.4365 Y-16.5591 I-3.3845 J2.511
G3 X-1.2668 Y-15.4892 I-6.1002 J1.5161
G3 X-1.2889 Y-14.3533 I-4.8344 J0.474
G3 X-1.3041 Y-14.2407 I-2.6803 J-0.3048
G3 X-2.2255 Y-12.0869 I-4.6974 J-0.7355
G3 X-2.9777 Y-11.295 I-3.8757 J-2.9283
G2 X-3.2942 Y-10.9508 I1.5056 J1.7017
G2 X-4.2567 Y-9.0085 I26.749 J14.4648
G3 X-6.7699 Y-3.7836 I-79.5076 J-35.0275
G3 X-6.8587 Y-3.6267 I-2.3906 J-1.2498
G3 X-7.2653 Y-2.8023 I-500.4446 J-246.2838
G3 X-7.7969 Y-1.3981 I-12.1673 J-3.8032
G3 X-8.2894 Y-0.4116 I-11.6798 J-5.2152
G2 X-8.6889 Y0.4304 I37.848 J18.4745
G3 X-8.709 Y0.5611 I-2.6755 J-0.3444
G3 X-9.1111 Y1.9782 I-6.2713 J-1.0139
G3 X-9.2064 Y2.213 I-7.3916 J-2.8635
G3 X-10.1683 Y3.8794 I-5.8781 J-2.2821
G3 X-10.2623 Y3.9936 I-2.1295 J-1.656
G3 X-13.7832 Y6.1007 I-4.8222 J-4.0628
G3 X-14.0439 Y6.1578 I-1.5984 J-6.6674
G3 X-14.1155 Y6.1711 I-0.5264 J-2.6458
G3 X-14.1893 Y6.1835 I-2.8792 J-16.8379
G3 X-16.7933 Y6.4154 I-2.4417 J-12.6817
G3 X-16.993 Y6.4155 I-0.1184 J-79.3328
G3 X-17.042 Y6.4154 I-0.0017 J-17.0823
G3 X-19.7387 Y6.3651 I0.1303 J-79.3328
G3 X-20.0131 Y6.3413 I0.0961 J-2.6959
G3 X-19.3381 Y8.8945 I-5876.6268 J1554.994
G3 X-17.3318 Y8.26 I1.7521 J2.0511
G1 X-13.3308 Y8.6386
G3 X-12.8114 Y8.7399 I-0.2541 J2.6856
G3 X-12.1248 Y8.3512 I1.658 J2.1279
G3 X-10.9661 Y8.007 I2.7345 J7.084
G3 X-10.9544 Y8.0046 I0.5598 J2.6389
G3 X-10.7502 Y7.9644 I2.08 J10.0242
G3 X-4.5857 Y8.7332 I1.9393 J9.549
G3 X-3.0646 Y11.3554 I-1.1697 J2.4308
G3 X-3.6077 Y14.0818 I-11.0707 J-0.7877
G3 X-3.8314 Y14.7672 I-14.1814 J-4.2511
G3 X-3.833 Y14.7717 I-2.5432 J-0.8995
G3 X-4.0579 Y15.3893 I-41.1749 J-14.644
G3 X-6.4318 Y20.6629 I-36.5281 J-13.272
G3 X-6.5271 Y20.8247 I-2.3707 J-1.2873
G3 X-9.9534 Y24.8944 I-16.9572 J-10.7992
G3 X-10.0224 Y24.9551 I-1.8156 J-1.9951
G3 X-10.2306 Y25.1315 I-73.8593 J-86.9414
G3 X-10.8456 Y25.6478 I-13.1867 J-15.0851
G3 X-12.5513 Y27.0417 I-73.0361 J-87.634
G1 X-6.3015 Y26.6429
G3 X-3.4885 Y29.8836 I0.1718 J2.6921
G3 X-3.817 Y31.0263 I-7.7546 J-1.6107
G3 X-6.7059 Y36.0087 I-15.2849 J-5.5338
G3 X-7.3316 Y36.6781 I-6.5633 J-5.5072
G3 X-9.4007 Y38.1459 I-4.8562 J-4.6535
G3 X-9.4445 Y38.1669 I-1.191 J-2.4205
G3 X-10.3088 Y38.4801 I-2.1359 J-4.5457
G3 X-13.3698 Y38.3138 I-1.2799 J-4.696
G3 X-14.3101 Y37.6906 I0.9871 J-2.5105
G3 X-14.3518 Y37.7057 I-0.9421 J-2.5303
G1 X-17.1241 Y38.6865
G3 X-16.8329 Y40.7266 I-8.045 J2.1892
G3 X-17.9958 Y42.995 I-2.6996 J0.0483
G1 X-18.8455 Y43.5832
G3 X-13.9039 Y50.6249 I-1052.733 J744.0188
G2 X-12.5157 Y52.4003 I27.6486 J-20.1893
G3 X-11.3212 Y52.4193 I0.2563 J21.4844
G3 X-9.2904 Y53.4816 I-0.1179 J2.6974
G1 X-7.8177 Y55.4169
G3 X-7.7628 Y58.6121 I-2.1486 J1.6351
G2 X-4.8295 Y62.7936 I69.6596 J-45.7464
G1 X0.1376 Y69.1029
G1 X5.7252 Y57.6461
G3 X4.8359 Y54.8727 I1.7204 J-2.081
G1 X5.3211 Y53.0441
G3 X7.6307 Y51.0534 I2.6097 J0.6925
G1 X8.9749 Y50.903
G1 X12.959 Y42.9088
G3 X11.6169 Y39.8412 I1.2697 J-2.3828
G1 X12.3652 Y36.9872
G3 X10.7908 Y37.1183 I-1.0013 J-2.5049
G2 X9.0055 Y37.2098 I-0.7243 J3.3314
G3 X8.4344 Y37.3303 I-0.8395 J-2.5636
G3 X6.0637 Y36.7935 I-0.3817 J-3.8175
G3 X3.7704 Y37.8451 I-2.5388 J-2.5103
G3 X1.6299 Y37.7269 I-0.6374 J-7.9003
G3 X-0.0089 Y37.3585 I3.1276 J-17.7404
G1 F300.0 X0.308 Y36.2036
G3 F800.0 X-0.6198 Y35.92 I4.4495 J-16.2171
G3 X-1.6387 Y34.5646 I0.4796 J-1.4212
G1 X-1.8288 Y30.2358
G3 X-0.4555 Y28.6752 I1.4986 J-0.0658
G3 X0.844 Y28.8078 I0.2961 J3.5319
G3 X1.9526 Y28.0161 I1.331 J0.6917
G1 X9.7785 Y26.8429
G3 X10.4503 Y26.8953 I0.2224 J1.4834
G3 X12.4072 Y26.1325 I1.8111 J1.7547
G3 X12.7666 Y26.1978 I-0.0867 J1.4975
G3 X14.3845 Y27.8187 I-0.7314 J2.348
G3 X15.2135 Y25.0796 I917.5956 J276.2357
G3 X14.3929 Y25.3895 I-0.9171 J-1.187
G3 X12.3392 Y25.1276 I-0.3503 J-5.4356
G3 X10.2382 Y23.9137 I1.7364 J-5.4303
G2 X9.0596 Y23.0401 I-13.7553 J17.3272
G3 X9.04 Y23.0264 I0.8527 J-1.234
G1 X8.3934 Y22.5642
G3 X7.6573 Y23.4546 I-1.4349 J-0.437
G3 X6.6559 Y23.9441 I-8.6782 J-16.4835
G2 X6.6373 Y23.9532 I107.0553 J218.1306
G3 X6.6113 Y23.9656 I-0.661 J-1.3465
G3 X6.4113 Y24.0526 I-1.7066 J-3.6522
G3 X6.375 Y24.0683 I-7.4322 J-17.0815
G3 X6.2907 Y24.1018 I-0.5955 J-1.3767
G3 X3.7743 Y24.1953 I-1.4038 J-3.872
G3 X3.2068 Y24.0507 I5.4112 J-22.4216
G3 X0.7805 Y23.2531 I5.2567 J-20.0807
G3 X0.083 Y22.9669 I8.4049 J-21.4795
G3 X0.0789 Y22.9652 I0.592 J-1.3783
G3 X-0.3938 Y22.7417 I3.1467 J-7.2677
G3 X-1.2002 Y21.2524 I0.6855 J-1.3342
G1 X-0.7541 Y16.9621
G3 X-0.247 Y15.9859 I1.492 J0.1551
G3 X-0.4046 Y15.7203 I3.1898 J-2.0718
G3 X-0.8835 Y13.5807 I3.4763 J-1.9016
G3 X-0.8842 Y13.4468 I35.4433 J-0.2615
G3 X-0.8813 Y12.8459 I13.1289 J-0.2364
G3 X-0.8147 Y11.096 I35.4411 J0.4732
G3 X1.4521 Y9.9027 I1.497 J0.0941
G3 X1.9101 Y10.2362 I-1.6084 J2.6899
G3 X4.1606 Y9.5681 I1.391 J0.5613
G1 X5.3124 Y10.3733
G2 X5.3488 Y10.3558 I-2.103 J-4.404
G2 X5.68 Y10.1614 I-1.6898 J-3.2588
G2 X6.354 Y9.4258 I-3.3679 J-3.7625
G3 X6.3833 Y9.3879 I1.2007 J0.8991
G3 X6.6593 Y9.0487 I20.3226 J16.2561
G3 X7.722 Y8.5081 I1.1554 J0.9565
G3 X12.7132 Y8.3478 I5.1852 J83.6677
G3 X14.255 Y8.4206 I0.356 J8.8327
G3 X14.9304 Y8.5947 I-0.2958 J2.5444
G3 X15.3639 Y8.8666 I-0.5687 J1.388
G1 X15.8169 Y9.2733
G1 X17.5222 Y8.406
G3 X19.6963 Y9.8758 I0.68 J1.337
G3 X19.6184 Y10.4413 I-5.8882 J-0.5234
G3 X19.2829 Y11.9951 I-28.3626 J-5.3106
G2 X21.3381 Y4.9997 I-319.0549 J-97.5361
G3 X21.3932 Y4.7788 I44.2923 J10.9392
G3 X20.9435 Y5.0077 I-0.8955 J-1.2034
G3 X20.893 Y5.0231 I-1.4543 J-4.6731
G2 X20.8475 Y5.486 I6.8025 J0.9022
G3 X20.1304 Y6.6714 I-1.4969 J-0.096
G3 X17.3756 Y7.0193 I-1.7659 J-2.9016
G3 X17.2995 Y6.9939 I0.4367 J-1.435
G3 X15.753 Y6.2008 I2.385 J-6.555
G2 X11.5071 Y3.7465 I-121.6758 J205.5984
G3 X10.5023 Y5.527 I-1.4584 J0.3507
G3 X3.5984 Y5.3245 I-3.1626 J-9.9671
G3 X3.5578 Y5.3083 I0.5367 J-1.4007
G3 X1.528 Y4.3318 I8.1247 J-19.4879
G3 X0.4866 Y4.1492 I0.7304 J-7.2227
G3 X-0.6469 Y2.6612 I0.3661 J-1.4546
G1 X-0.5748 Y-0.5843
G3 X-0.5313 Y-0.911 I1.4996 J0.0333
G3 X-0.1566 Y-1.9198 I4.6228 J1.1431
G3 X0.3104 Y-2.4631 I1.3381 J0.6778
G3 X-0.5024 Y-4.2492 I2.5612 J-2.2434
G3 X-0.5051 Y-4.2708 I1.4864 J-0.2015
G3 X-0.5507 Y-6.5001 I11.1163 J-1.3425
G2 X-0.4883 Y-8.6371 I-52.5561 J-2.6053
G3 X-0.1908 Y-11.3237 I8.7326 J-0.3927
G3 X-0.1705 Y-11.392 I1.4474 J0.3936
G3 X1.2549 Y-13.0177 I2.5995 J0.8414
G3 X2.4535 Y-13.0572 I0.6446 J1.3544
G3 X3.2554 Y-12.8609 I0.0352 J1.5922
G3 X3.3904 Y-13.3229 I13.5379 J3.7037
G3 X3.8215 Y-13.9946 I1.4324 J0.4452
G2 X4.135 Y-14.3729 I-1.112 J-1.2405
G3 X4.1873 Y-14.4535 I1.2835 J0.7763
G3 X4.9717 Y-15.298 I3.3791 J2.352
G3 X5.0281 Y-15.3416 I0.9454 J1.1646
G3 X6.6864 Y-16.4406 I12.0262 J16.3462
G3 X7.9615 Y-16.5622 I0.7663 J1.2895
G3 X8.1081 Y-17.5178 I168.7328 J25.3989
G3 X9.5751 Y-18.786 I1.482 J0.2317
G1 X20.5345 Y-18.8954
G3 X22.0245 Y-17.6681 I0.015 J1.4999
G1 X22.3135 Y-16.1051
G1 X24.4334 Y-18.5589
G3 X27.0117 Y-17.1696 I1.1351 J0.9806
G1 X21.5224 Y2.216
G1 X21.8597 Y2.9468
G3 X21.8815 Y2.9964 I-1.3619 J0.6286
G3 X22.5073 Y1.0436 I43.7488 J12.9425
G2 X23.1731 Y-1.2586 I-24.1459 J-8.231
G3 X23.6218 Y-3.6164 I477.9754 J89.725
G3 X23.6557 Y-3.7561 I1.4729 J0.284
G3 X24.4149 Y-5.9406 I23.0852 J6.7986
G2 X26.741 Y-12.8726 I-148.7717 J-53.7784
G3 X26.7469 Y-12.8912 I1.4327 J0.4442
G2 X34.8398 Y-38.5577 I-1566.2995 J-507.9772
G3 X35.7159 Y-41.7676 I83.7262 J21.1278
G3 X35.0028 Y-42.6384 I1.8213 J-2.2188
G3 X33.9682 Y-42.3031 I-1.0938 J-1.6115
G2 X33.8897 Y-42.1279 I0.7419 J0.4375
G2 X30.686 Y-30.6015 I212.4736 J65.2653
G3 X30.6848 Y-30.5969 I-1.4555 J-0.3627
G2 X30.6041 Y-30.2562 I11.4746 J2.8975
G3 X30.5877 Y-30.1891 I-1.4646 J-0.3241
G1 X28.8475 Y-23.7461
G3 X28.474 Y-22.3333 I-7.2763 J-1.1678
G1 X28.6648 Y-21.7021
G3 X27.1998 Y-19.7684 I-1.4358 J0.434
G3 X24.9004 Y-20.0001 I0.2781 J-14.2843
G3 X24.8668 Y-20.0066 I0.2706 J-1.4754
G3 X17.9635 Y-21.6193 I28.4799 J-137.4983
G3 X17.9566 Y-21.6211 I0.378 J-1.4516
G3 X12.6881 Y-23.0231 I1157.3942 J-4359.8348
G3 X12.6907 Y-23.0198 I-3.9101 J3.0843
G3 X11.4753 Y-20.5923 I-1.1785 J0.928
G3 X2.7584 Y-21.2655 I2.0592 J-83.4285
G3 X2.6698 Y-21.2797 I0.1937 J-1.4874
G2 X1.4901 Y-21.4097 I-1.4051 J7.3348
G3 X-0.0989 Y-22.4917 I-0.0144 J-1.6868
G3 X-0.5051 Y-24.0209 I5.6686 J-2.3242
G3 X-0.5171 Y-24.1721 I1.4873 J-0.1946
G3 X0.3568 Y-26.2808 I2.7861 J-0.0807
G3 X-0.1565 Y-27.43 I0.9865 J-1.13
G3 X0.435 Y-32.1966 I21.7464 J0.2786
G3 X0.4475 Y-32.2456 I1.4591 J0.348
G2 X0.9428 Y-34.407 I-25.1295 J-6.8961
G3 X0.8593 Y-34.4812 I5.6763 J-6.4784
G3 X0.5537 Y-34.8633 I1.0031 J-1.1153
G3 X0.1837 Y-36.2496 I2.5314 J-1.4182
G3 X0.2926 Y-38.9709 I24.253 J-0.3924
G3 X0.2932 Y-38.9772 I1.4931 J0.144
G3 X0.6834 Y-42.3151 I104.5108 J10.5256
G3 X1.2555 Y-43.3059 I1.4869 J0.198
G3 X2.7978 Y-44.1003 I2.9506 J3.8343
G3 X2.9971 Y-44.1464 I0.4366 J1.435
G3 X4.9837 Y-43.7554 I0.463 J2.8896
G2 X5.8044 Y-43.3037 I31.9004 J-56.9866
G3 X6.1708 Y-43.0251 I-0.7138 J1.3193
G3 X6.1768 Y-43.6492 I14.2541 J-0.1758
G3 X6.5276 Y-45.3212 I3.895 J-0.0556
G3 X6.5378 Y-45.343 I1.3648 J0.6224
G3 X6.9089 Y-45.8981 I2.0808 J0.9896
G3 X7.4615 Y-46.2839 I1.113 J1.0056
G3 X10.2282 Y-46.8381 I2.8625 J7.1067
G3 X11.1156 Y-46.8425 I0.5258 J16.5232
G3 X11.7076 Y-46.7065 I-0.0328 J1.4996
G1 X12.987 Y-46.1203
G1 X13.7359 Y-47.0726
G3 X15.1519 Y-47.6265 I1.1791 J0.9273
G1 X25.5311 Y-45.966
G3 X26.4019 Y-45.4962 I-0.237 J1.4812
G3 X28.0322 Y-45.9757 I1.1639 J0.9462
G2 X29.9864 Y-45.3808 I15.3991 J-47.074
G2 X30.6561 Y-45.3851 I0.3263 J-1.33
G3 X34.0972 Y-46.5075 I56.1744 J166.368
G3 X35.8899 Y-45.7464 I0.4505 J1.4308
G3 X37.1271 Y-46.3786 I348.5116 J680.5516
G2 X37.1086 Y-46.6838 I-4.692 J0.1308
G3 X38.111 Y-48.2405 I1.4935 J-0.1394
G3 X40.4595 Y-49.0067 I22.2841 J64.3199
G3 X40.4954 Y-49.0173 I0.4393 J1.4342
G3 X42.4598 Y-48.485 I0.5351 J1.9163
G2 X43.1735 Y-47.9819 I1.8874 J-1.9195
G2 X46.3599 Y-47.1175 I4.0297 J-8.5496
G3 X46.3634 Y-47.1172 I-0.1338 J1.494
G2 X48.9804 Y-47.0697 I1.6308 J-17.735
G3 X48.9984 Y-47.0706 I0.0831 J1.4977
G2 X51.4215 Y-47.1861 I-12.4648 J-286.9794
G1 X51.4421 Y-49.6367
G1 X51.089 Y-49.5585
G3 X49.7415 Y-52.1199 I-0.3244 J-1.4645
G1 X51.2567 Y-53.5332
G2 X51.3503 Y-54.1536 I-15.4464 J-2.6478
G2 X49.8653 Y-54.1277 I0.3451 J62.4293
G3 X49.8256 Y-54.127 I-0.044 J-1.4994
G3 X-1.1835 Y-54.1279 I-25.3612 J-9002.0711
G2 X-43.3959 Y-54.0471 I-7.9083 J6901.6434
G3 X-42.776 Y-53.8908 I-48.6223 J194.1193
G3 X-42.7438 Y-53.8823 I-0.3691 J1.4539
G3 X-40.3334 Y-52.4613 I-1.4455 J5.2069
G3 X-40.2003 Y-52.3058 I-1.0703 J1.0509
G2 X-39.2757 Y-51.1018 I39.8831 J-29.6726
G1 X-38.5821 Y-51.9181
G3 X-36.2616 Y-51.8762 I1.1431 J0.9713
G3 X-35.4733 Y-50.0913 I-3.0669 J2.4209
G2 X-34.3058 Y-50.6259 I-9.7993 J-22.9441
G3 X-34.2258 Y-50.6622 I0.6594 J1.3473
G3 X-31.2893 Y-50.9727 I1.9863 J4.7435
G3 X-31.0199 Y-50.8955 I-0.2772 J1.4742
G3 X-27.5939 Y-49.541 I-188.1232 J480.8634
G3 X-27.1411 Y-49.2577 I-0.5564 J1.393
G3 X-26.6187 Y-48.6297 I-1.9841 J2.1816
G3 X-25.7298 Y-47.1747 I-15.6631 J10.5693
G3 X-24.3801 Y-47.9004 I1.2855 J0.773
G3 X-13.9485 Y-47.195 I-9.0514 J211.3561
G3 X-13.9171 Y-47.1918 I-0.1381 J1.4936
G3 X-9.2051 Y-46.3636 I-4.4572 J39.1755
G3 X-8.4029 Y-45.8666 I-0.3488 J1.4589
G3 X-7.0241 Y-43.7521 I-8.2061 J6.858
G3 X-6.503 Y-42.5621 I-3.2387 J2.1271
G3 X-5.0038 Y-42.8691 I1.0084 J1.1104
G3 X-3.5668 Y-41.9401 I-1.1749 J3.3931
G3 X-3.3398 Y-41.6268 I-1.0911 J1.0293
G3 X-3.0307 Y-39.8603 I-2.4721 J1.343
G2 X-3.0511 Y-36.2254 I18.8611 J1.9235
G3 X-3.045 Y-36.1022 I-1.4939 J0.1354
G3 X-3.3512 Y-34.1416 I-6.1121 J0.0499
G3 X-3.3906 Y-34.0354 I-1.4248 J-0.4689
G3 X-4.0739 Y-32.9181 I-3.9087 J-1.6227
G2 X-4.7237 Y-31.6693 I2.8288 J2.2653
G3 X-6.6162 Y-29.5164 I-2.4541 J-0.2491
G3 X-6.9331 Y-28.4756 I-1.4957 J0.1134
G1 X-7.1411 Y-28.2111
G1 X-7.0663 Y-28.1265
G3 X-6.7076 Y-27.3577 I-1.1244 J0.9928
G3 X-6.2187 Y-27.6642 I1.2045 J1.3781
G3 X-5.9177 Y-27.7562 I0.5865 J1.3806
G3 X-5.8392 Y-27.7708 I0.9955 J5.1348
G3 X-5.3163 Y-27.8369 I0.5493 J2.2421
G3 X-4.1855 Y-27.7997 I0.3941 J5.2156
G3 X-2.9016 Y-26.4344 I-0.2113 J1.485
G1 X-2.6366 Y-23.1289
G3 X-3.8819 Y-21.53 I-1.4952 J0.1198
G1 X-9.1376 Y-20.6419
G3 X-10.8799 Y-22.2723 I-0.2499 J-1.479
G3 X-10.2576 Y-24.8247 I9.4982 J0.9637
G3 X-10.2187 Y-24.9357 I2.9059 J0.9564
G2 X-10.4772 Y-24.8158 I21.996 J47.7916
G2 X-11.1986 Y-24.4724 I196.7441 J414.2049
G3 X-12.944 Y-24.8058 I-0.6459 J-1.3538
G3 X-12.9906 Y-24.6587 I-47.396 J-14.94
G3 X-13.6892 Y-23.1745 I-3.1704 J-0.5856
G3 X-14.1606 Y-22.7998 I-1.15 J-0.963
G3 X-15.2598 Y-22.2485 I-60.9667 J-120.181
G3 X-20.7767 Y-20.1983 I-9.2654 J-16.4847
G3 X-24.8198 Y-19.3332 I-48.1114 J-214.9616
G3 X-26.4819 Y-20.1746 I-0.3001 J-1.4697
G3 X-27.1971 Y-22.0143 I14.5975 J-6.7333
G3 X-27.2009 Y-22.0266 I1.4288 J-0.4566
G3 X-28.493 Y-27.3444 I41.9237 J-13.002
G2 X-29.5447 Y-32.4582 I-296.4317 J58.2972
G3 X-31.444 Y-41.1292 I197.7546 J-47.8597
G3 X-31.9785 Y-44.1882 I50.9065 J-10.4712
G1 X-32.4914 Y-44.2125
G3 X-33.8233 Y-45.1796 I0.0709 J-1.4983
G1 X-34.046 Y-45.109
G3 X-34.8707 Y-45.0858 I-0.453 J-1.43
G3 X-34.862 Y-45.0542 I-1.4419 J0.4134
G1 X-30.5423 Y-28.643
G3 X-30.5229 Y-28.5598 I-1.4506 J0.3818
G3 X-30.426 Y-27.2754 I-5.0597 J1.0278
G3 X-30.4498 Y-27.0464 I-1.7167 J-0.0629
G2 X-30.2919 Y-26.824 I3.9733 J-2.6546
G3 X-30.1026 Y-26.492 I-1.1977 J0.9031
G3 X-29.7436 Y-25.3117 I-5.9933 J2.4674
G3 X-25.5157 Y-9.6712 I-950.0992 J265.2235
G3 X-14.2853 Y32.9158 I-5871.1242 J1571.0064
G1 X-14.6802 Y29.986
G3 X-13.2891 Y28.2888 I1.4866 J-0.2003
G1 X-6.2253 Y27.8381
G3 X-4.6611 Y29.6401 I0.0955 J1.497
G3 X-4.9415 Y30.6142 I-6.5821 J-1.3672
G3 X-7.6213 Y35.2365 I-14.1604 J-5.1217
G3 X-8.1795 Y35.832 I-5.6479 J-4.7349
G3 X-9.9149 Y37.0641 I-4.0083 J-3.8073
G3 X-9.9538 Y37.083 I-0.6768 J-1.3387
G3 X-10.6179 Y37.3231 I-1.6266 J-3.4618
G3 X-12.9316 Y37.1993 I-0.9708 J-3.539
G3 X-13.8692 Y36.0036 I0.5489 J-1.396
G1 X-13.8964 Y35.8019
G3 X-14.752 Y36.5745 I-1.3559 J-0.6416
G1 X-18.6861 Y37.9662
G3 X-18.5242 Y38.2851 I-7.446 J3.9788
G3 X-18.4676 Y38.419 I-1.3517 J0.6503
G3 X-18.0327 Y40.7481 I-6.7015 J2.4566
G3 X-18.6787 Y42.0083 I-1.4998 J0.0268
G1 X-20.5254 Y43.2865
G3 X-14.8809 Y51.3218 I-1051.0532 J744.3155
G2 X-13.261 Y53.3779 I28.6256 J-20.8861
G2 X-12.8728 Y53.6081 I0.6541 J-0.661
G3 X-11.3736 Y53.6181 I0.6134 J20.2766
G3 X-10.2454 Y54.2083 I-0.0655 J1.4986
G1 X-8.7727 Y56.1436
G3 X-9.0208 Y58.2164 I-1.1937 J0.9084
G3 X-9.3047 Y58.4397 I-7.2712 J-8.9538
G2 X-5.7814 Y63.5244 I71.2016 J-45.5739
G1 X0.3778 Y71.348
G1 X7.2637 Y57.2291
G3 X6.5505 Y56.7689 I3.1048 J-5.5945
G3 X5.9957 Y55.1805 I0.8951 J-1.2037
G1 X6.481 Y53.3519
G3 X7.7641 Y52.2459 I1.4498 J0.3847
G1 X9.7576 Y52.023
G1 X14.7305 Y42.0444
G1 X14.1763 Y42.0251
G3 X12.7777 Y40.1455 I0.0523 J-1.4991
G1 X13.9704 Y35.5966
G1 X13.5214 Y35.3501
G3 X12.8839 Y34.6692 I0.722 J-1.3148
G1 X12.7852 Y34.9617
G3 X11.0452 Y35.9481 I-1.4213 J-0.4794
G2 X8.6328 Y36.0716 I-0.9788 J4.5017
G3 X8.3152 Y36.1387 I-0.4668 J-1.4255
G3 X6.6318 Y35.7366 I-0.2626 J-2.6258
G3 X6.5355 Y35.6696 I0.8076 J-1.264
G3 X5.7543 Y35.0565 I16.0913 J-21.3088
G3 X5.6386 Y35.3613 I-1.4519 J-0.3768
G3 X3.6815 Y36.6507 I-2.1136 J-1.0781
G3 X1.8476 Y36.5492 I-0.5485 J-6.706
G3 X0.308 Y36.2036 I2.9098 J-16.5627
G0 Z3.0
G0 X-12.6573 Y96.4361
G0 Z1.0
G1 F300.0 Z-1.5
G2 F800.0 X-13.4061 Y96.3325 I-1.0683 J4.963
G3 X-13.4511 Y96.329 I0.0944 J-1.497
G2 X-15.7995 Y96.5852 I-0.5477 J5.8709
G2 X-17.6447 Y97.8632 I1.4879 J4.1192
G2 X-19.5664 Y101.8308 I7.8407 J6.2468
G2 X-20.0347 Y104.9929 I20.4028 J4.6376
G3 X-20.0364 Y105.0148 I-1.4963 J-0.1058
G2 X-19.9148 Y108.9331 I16.8402 J1.4384
G3 X-19.9129 Y108.9464 I-1.4838 J0.2201
G2 X-18.8438 Y112.0879 I8.7129 J-1.2125
G3 X-18.8336 Y112.1061 I-1.3034 J0.7424
G2 X-15.8143 Y114.3659 I4.0102 J-2.2111
G3 X-15.7878 Y114.372 I-0.3246 J1.4645
G2 X-12.6847 Y114.2689 I1.3649 J-5.6688
G2 X-10.515 Y112.7224 I-1.6169 J-4.5636
G2 X-9.0717 Y109.9188 I-7.5094 J-5.6392
G2 X-8.3762 Y102.6419 I-19.9312 J-5.5767
G3 X-8.3788 Y102.6035 I1.4949 J-0.1232
G2 X-9.2156 Y99.2759 I-9.0802 J0.5142
G3 X-9.2196 Y99.2671 I1.3596 J-0.6336
G2 X-10.4685 Y97.505 I-5.2836 J2.4211
G2 X-12.6573 Y96.4361 I-3.2571 J3.8941
G1 F300.0 X-12.9223 Y97.581
G3 F800.0 X-10.2089 Y99.4489 I-1.0134 J4.377
G3 X-10.1909 Y99.476 I-1.74 J1.1715
G3 X-9.2847 Y101.7999 I-5.1287 J3.3387
G3 X-9.2759 Y101.8569 I-2.0686 J0.3478
G3 X-9.1606 Y106.0119 I-18.5212 J2.5932
G3 X-9.7987 Y109.5433 I-13.762 J-0.6637
G3 X-11.3176 Y112.0428 I-5.7519 J-1.784
G3 X-11.3214 Y112.0465 I-1.4744 J-1.492
G3 X-18.1864 Y111.2827 I-3.1218 J-3.1751
G3 X-18.19 Y111.2772 I1.7634 J-1.1359
G3 X-19.1952 Y108.4234 I5.5783 J-3.5688
G3 X-19.1963 Y108.4127 I2.0853 J-0.2265
G3 X-19.2583 Y105.0768 I19.6749 J-2.0343
G3 X-18.4918 Y100.9865 I13.5715 J0.4262
G3 X-16.4285 Y98.221 I5.1648 J1.701
G3 X-16.3674 Y98.1802 I1.1964 J1.723
G3 X-12.9223 Y97.581 I2.4317 J3.7779
G1 F300.0 X-13.0571 Y98.1632
G3 F800.0 X-10.7046 Y99.7826 I-0.8786 J3.7948
G3 X-10.6918 Y99.802 I-1.2443 J0.8377
G3 X-9.874 Y101.899 I-4.6279 J3.0127
G3 X-9.8677 Y101.9398 I-1.4792 J0.2487
G3 X-9.757 Y105.9726 I-17.9294 J2.5103
G3 X-10.3687 Y109.3638 I-13.1656 J-0.6243
G3 X-11.7376 Y111.6177 I-5.1819 J-1.6045
G3 X-11.7403 Y111.6204 I-1.0544 J-1.0669
G3 X-17.684 Y110.9591 I-2.7028 J-2.749
G3 X-17.6866 Y110.9552 I1.261 J-0.8123
G3 X-18.6011 Y108.3589 I5.0749 J-3.2467
G3 X-18.6019 Y108.3512 I1.4912 J-0.162
G3 X-18.6613 Y105.1058 I19.0804 J-1.9729
G3 X-17.9261 Y101.1793 I12.9745 J0.3972
G3 X-16.0876 Y98.7119 I4.5991 J1.5082
G3 X-16.0439 Y98.6827 I0.8555 J1.2321
G3 X-13.0571 Y98.1632 I2.1082 J3.2754
G1 F300.0 X-12.82 Y97.015
G3 F800.0 X-10.8697 Y97.9517 I-0.9056 J4.3841
G3 X-9.7651 Y99.5171 I-3.6335 J3.7365
G2 X-9.7594 Y99.5293 I1.9091 J-0.8748
G3 X-8.9779 Y102.6374 I-7.6997 J3.5884
G2 X-8.9741 Y102.6912 I2.0966 J-0.1187
G3 X-9.6467 Y109.7472 I-20.0287 J1.6509
G3 X-10.9895 Y112.3551 I-8.3776 J-2.6641
G3 X-12.8745 Y113.6996 I-3.3121 J-2.6498
G3 X-15.6473 Y113.7887 I-1.5484 J-4.9964
G2 X-15.6845 Y113.7801 I-0.4916 J2.0417
G3 X-18.3082 Y111.8164 I0.8611 J-3.8851
G2 X-18.3224 Y111.791 I-1.839 J1.014
G3 X-19.3186 Y108.8637 I7.1224 J-4.057
G2 X-19.3213 Y108.845 I-2.08 J0.2894
G3 X-19.4386 Y105.0658 I16.1251 J-2.3919
G2 X-19.4362 Y105.0352 I-2.0924 J-0.1787
G3 X-18.9817 Y101.9655 I20.2727 J1.4332
G3 X-17.1817 Y98.245 I9.1777 J2.1446
G3 X-15.6058 Y97.1532 I2.8701 J2.4593
G3 X-13.5068 Y96.9264 I1.607 J5.0468
G2 X-13.4439 Y96.9313 I0.1951 J-2.0909
G3 X-12.82 Y97.015 I-0.2817 J4.4678
G1 F300.0 X-12.6986 Y96.4274
G1 Z-3.0
G2 F800.0 X-13.4061 Y96.3325 I-1.027 J4.9717
G3 X-13.4511 Y96.329 I0.0944 J-1.497
G2 X-15.7995 Y96.5852 I-0.5477 J5.8709
G2 X-17.6447 Y97.8632 I1.4879 J4.1192
G2 X-19.5664 Y101.8308 I7.8407 J6.2468
G2 X-20.0347 Y104.9929 I20.4028 J4.6376
G3 X-20.0364 Y105.0148 I-1.4963 J-0.1058
G2 X-19.9148 Y108.9331 I16.8402 J1.4384
G3 X-19.9129 Y108.9464 I-1.4838 J0.2201
G2 X-18.8438 Y112.0879 I8.7129 J-1.2125
G3 X-18.8336 Y112.1061 I-1.3034 J0.7424
G2 X-15.8143 Y114.3659 I4.0102 J-2.2111
G3 X-15.7878 Y114.372 I-0.3246 J1.4645
G2 X-12.6847 Y114.2689 I1.3649 J-5.6688
G2 X-10.515 Y112.7224 I-1.6169 J-4.5636
G2 X-9.0717 Y109.9188 I-7.5094 J-5.6392
G2 X-8.3762 Y102.6419 I-19.9312 J-5.5767
G3 X-8.3788 Y102.6035 I1.4949 J-0.1232
G2 X-9.2156 Y99.2759 I-9.0802 J0.5142
G3 X-9.2196 Y99.2671 I1.3596 J-0.6336
G2 X-10.4685 Y97.505 I-5.2836 J2.4211
G2 X-12.6986 Y96.4274 I-3.2571 J3.8941
G1 F300.0 X-12.955 Y97.5736
G3 F800.0 X-10.2089 Y99.4489 I-0.9808 J4.3844
G3 X-10.1909 Y99.476 I-1.74 J1.1715
G3 X-9.2847 Y101.7999 I-5.1287 J3.3387
G3 X-9.2759 Y101.8569 I-2.0686 J0.3478
G3 X-9.1606 Y106.0119 I-18.5212 J2.5932
G3 X-9.7987 Y109.5433 I-13.762 J-0.6637
G3 X-11.3176 Y112.0428 I-5.7519 J-1.784
G3 X-11.3214 Y112.0465 I-1.4744 J-1.492
G3 X-18.1864 Y111.2827 I-3.1218 J-3.1751
G3 X-18.19 Y111.2772 I1.7634 J-1.1359
G3 X-19.1952 Y108.4234 I5.5783 J-3.5688
G3 X-19.1963 Y108.4127 I2.0853 J-0.2265
G3 X-19.2583 Y105.0768 I19.6749 J-2.0343
G3 X-18.4918 Y100.9865 I13.5715 J0.4262
G3 X-16.4285 Y98.221 I5.1648 J1.701
G3 X-16.3674 Y98.1802 I1.1964 J1.723
G3 X-12.955 Y97.5736 I2.4317 J3.7779
G1 F300.0 X-13.0854 Y98.1568
G3 F800.0 X-10.7046 Y99.7826 I-0.8503 J3.8013
G3 X-10.6918 Y99.802 I-1.2443 J0.8377
G3 X-9.874 Y101.899 I-4.6279 J3.0127
G3 X-9.8677 Y101.9398 I-1.4792 J0.2487
G3 X-9.757 Y105.9726 I-17.9294 J2.5103
G3 X-10.3687 Y109.3638 I-13.1656 J-0.6243
G3 X-11.7376 Y111.6177 I-5.1819 J-1.6045
G3 X-11.7403 Y111.6204 I-1.0544 J-1.0669
G3 X-17.684 Y110.9591 I-2.7028 J-2.749
G3 X-17.6866 Y110.9552 I1.261 J-0.8123
G3 X-18.6011 Y108.3589 I5.0749 J-3.2467
G3 X-18.6019 Y108.3512 I1.4912 J-0.162
G3 X-18.6613 Y105.1058 I19.0804 J-1.9729
G3 X-17.9261 Y101.1793 I12.9745 J0.3972
G3 X-16.0876 Y98.7119 I4.5991 J1.5082
G3 X-16.0439 Y98.6827 I0.8555 J1.2321
G3 X-13.0854 Y98.1568 I2.1082 J3.2754
G1 F300.0 X-12.8584 Y97.0072
G3 F800.0 X-10.8697 Y97.9517 I-0.8671 J4.3919
G3 X-9.7651 Y99.5171 I-3.6335 J3.7365
G2 X-9.7594 Y99.5293 I1.9091 J-0.8748
G3 X-8.9779 Y102.6374 I-7.6997 J3.5884
G2 X-8.9741 Y102.6912 I2.0966 J-0.1187
G3 X-9.6467 Y109.7472 I-20.0287 J1.6509
G3 X-10.9895 Y112.3551 I-8.3776 J-2.6641
G3 X-12.8745 Y113.6996 I-3.3121 J-2.6498
G3 X-15.6473 Y113.7887 I-1.5484 J-4.9964
G2 X-15.6845 Y113.7801 I-0.4916 J2.0417
G3 X-18.3082 Y111.8164 I0.8611 J-3.8851
G2 X-18.3224 Y111.791 I-1.839 J1.014
G3 X-19.3186 Y108.8637 I7.1224 J-4.057
G2 X-19.3213 Y108.845 I-2.08 J0.2894
G3 X-19.4386 Y105.0658 I16.1251 J-2.3919
G2 X-19.4362 Y105.0352 I-2.0924 J-0.1787
G3 X-18.9817 Y101.9655 I20.2727 J1.4332
G3 X-17.1817 Y98.245 I9.1777 J2.1446
G3 X-15.6058 Y97.1532 I2.8701 J2.4593
G3 X-13.5068 Y96.9264 I1.607 J5.0468
G2 X-13.4439 Y96.9313 I0.1951 J-2.0909
G3 X-12.8584 Y97.0072 I-0.2817 J4.4678
G0 Z3.0
G0 X-1.5616 Y98.065
G0 Z1.0
G1 F300.0 Z-1.5
G1 F800.0 X-1.2765 Y114.4127
G2 X0.6843 Y114.3803 I-9.1343 J-612.6724
G3 X-1.1127 Y112.3408 I0.3002 J-2.076
G1 X-1.1856 Y108.1528
G3 X0.0689 Y106.1955 I2.0973 J-0.0365
G3 X-1.2556 Y104.2804 I0.7751 J-1.9517
G1 X-1.364 Y98.0615
G1 X-1.5616 Y98.065
G0 Z3.0
G0 X5.8122 Y100.675
G0 Z1.0
G1 F300.0 Z-1.5
G1 F800.0 X5.0076 Y102.9482
G2 X5.3638 Y102.7171 I-0.7437 J-1.5363
G2 X6.2395 Y101.0308 I-6.1707 J-4.275
G1 X7.2983 Y97.9105
G1 X6.7877 Y97.9194
G1 X5.8122 Y100.675
G0 Z3.0
G0 X3.7586 Y105.2571
G0 Z1.0
G1 F300.0 Z-1.5
G3 F800.0 X2.7396 Y105.9864 I-2.5682 J-2.5115
G3 X3.0503 Y106.006 I0.024 J2.0975
G3 X4.2279 Y106.2473 I-1.264 J9.1628
G3 X3.7586 Y105.2571 I1.5973 J-1.3634
G0 Z3.0
G0 X5.9936 Y107.2563
G0 Z1.0
G1 F300.0 Z-1.5
G3 F800.0 X6.5365 Y108.0584 I-2.4192 J2.2221
G3 X6.6907 Y112.1525 I-4.4357 J2.217
G3 X6.6885 Y112.1577 I-1.9415 J-0.794
G3 X4.4938 Y114.1388 I-3.1711 J-1.3069
G3 X3.6544 Y114.3193 I-1.5704 J-5.2588
G2 X4.1101 Y114.3087 I-14.0652 J-612.579
G3 X4.1767 Y114.3082 I0.0498 J2.0994
G2 X5.8052 Y114.0904 I0.0468 J-5.8484
G3 X5.8566 Y114.0767 I0.5679 J2.0217
G2 X6.5379 Y113.6097 I-0.2944 J-1.16
G2 X7.2106 Y111.6866 I-3.4267 J-2.2779
G3 X7.2154 Y111.6375 I2.0922 J0.1811
G2 X7.0905 Y109.1781 I-7.6562 J-0.844
G3 X7.083 Y109.1413 I2.0533 J-0.4404
G2 X6.0371 Y107.288 I-3.3157 J0.6494
G2 X5.9936 Y107.2563 I-1.3987 J1.8661
G1 F300.0 X6.3423 Y106.768
G2 F800.0 X5.4235 Y106.3291 I-1.704 J2.3862
G3 X5.21 Y103.5159 I0.4017 J-1.4452
G2 X5.8139 Y103.1205 I-0.9461 J-2.1039
G2 X6.8054 Y101.2306 I-6.6207 J-4.6784
G1 X8.1405 Y97.2957
G1 X6.361 Y97.3267
G1 X4.4203 Y102.8094
G3 X3.484 Y104.6639 I-5.246 J-1.4851
G3 X3.412 Y104.7499 I-1.1857 J-0.9188
G3 X1.2709 Y105.7366 I-2.2216 J-2.0043
G3 X1.2564 Y105.7369 I-0.0404 J-1.4995
G1 X0.8699 Y105.7436
G3 X-0.6557 Y104.2699 I-0.0258 J-1.4998
G1 X-0.7746 Y97.4511
G1 X-2.172 Y97.4755
G1 X-1.866 Y115.0213
G2 X4.1243 Y114.9085 I-8.5448 J-613.281
G3 X4.1719 Y114.9082 I0.0355 J1.4996
G2 X5.9675 Y114.6681 I0.0516 J-6.4484
G3 X6.0042 Y114.6582 I0.4057 J1.4441
G2 X7.0328 Y113.949 I-0.442 J-1.7416
G2 X7.8084 Y111.7383 I-3.9215 J-2.6172
G3 X7.8118 Y111.7033 I1.4944 J0.1293
G2 X7.6772 Y109.0522 I-8.2526 J-0.9098
G3 X7.6718 Y109.026 I1.4666 J-0.3146
G2 X6.4196 Y106.8251 I-3.9045 J0.7648
G2 X6.3423 Y106.768 I-1.7813 J2.329
G1 F300.0 X5.4945 Y107.5983
G3 F800.0 X5.9997 Y108.3211 I-1.92 J1.8801
G3 X6.1375 Y111.9263 I-3.8989 J1.9543
G3 X6.136 Y111.93 I-1.3884 J-0.5678
G3 X4.3233 Y113.566 I-2.6186 J-1.0792
G3 X2.9246 Y113.7706 I-1.3998 J-4.6861
G1 X1.0108 Y113.8041
G3 X-0.5152 Y112.3304 I-0.0262 J-1.4998
G1 X-0.588 Y108.1424
G3 X0.8854 Y106.6166 I1.4998 J-0.0261
G1 X2.7373 Y106.5841
G3 X2.9686 Y106.598 I0.0263 J1.4998
G3 X4.3802 Y106.9148 I-1.1823 J8.5708
G1 X4.3803
G3 X5.4945 Y107.5983 I-0.8058 J2.5635
G1 F300.0 Z-3.0
G3 F800.0 X5.9997 Y108.3211 I-1.92 J1.8801
G3 X6.1375 Y111.9263 I-3.8989 J1.9543
G3 X6.136 Y111.93 I-1.3884 J-0.5678
G3 X4.3233 Y113.566 I-2.6186 J-1.0792
G3 X2.9246 Y113.7706 I-1.3998 J-4.6861
G1 X1.0108 Y113.8041
G3 X-0.5152 Y112.3304 I-0.0262 J-1.4998
G1 X-0.588 Y108.1424
G3 X0.8854 Y106.6166 I1.4998 J-0.0261
G1 X2.7373 Y106.5841
G3 X2.9686 Y106.598 I0.0263 J1.4998
G3 X4.3802 Y106.9148 I-1.1823 J8.5708
G1 X4.3803
G3 X5.4945 Y107.5983 I-0.8058 J2.5635
G1 F300.0 X5.9936 Y107.2563
G3 F800.0 X6.5365 Y108.0584 I-2.4192 J2.2221
G3 X6.6907 Y112.1525 I-4.4357 J2.217
G3 X6.6885 Y112.1577 I-1.9415 J-0.794
G3 X4.4938 Y114.1388 I-3.1711 J-1.3069
G3 X3.6544 Y114.3193 I-1.5704 J-5.2588
G2 X4.1101 Y114.3087 I-14.0652 J-612.579
G3 X4.1767 Y114.3082 I0.0498 J2.0994
G2 X5.8052 Y114.0904 I0.0468 J-5.8484
G3 X5.8566 Y114.0767 I0.5679 J2.0217
G2 X6.5379 Y113.6097 I-0.2944 J-1.16
G2 X7.2106 Y111.6866 I-3.4267 J-2.2779
G3 X7.2154 Y111.6375 I2.0922 J0.1811
G2 X7.0905 Y109.1781 I-7.6562 J-0.844
G3 X7.083 Y109.1413 I2.0533 J-0.4404
G2 X6.0371 Y107.288 I-3.3157 J0.6494
G2 X5.9936 Y107.2563 I-1.3987 J1.8661
G1 F300.0 X4.2279 Y106.2473
G3 F800.0 X3.7586 Y105.2571 I1.5973 J-1.3634
G3 X2.7396 Y105.9864 I-2.5682 J-2.5115
G3 X3.0503 Y106.006 I0.024 J2.0975
G3 X4.2279 Y106.2473 I-1.264 J9.1628
G0 Z3.0
G0 X5.0076 Y102.9482
G0 Z-0.5
G1 F300.0 Z-3.0
G2 F800.0 X5.3638 Y102.7171 I-0.7437 J-1.5363
G2 X6.2395 Y101.0308 I-6.1707 J-4.275
G1 X7.2983 Y97.9105
G1 X6.7877 Y97.9194
G1 X5.0076 Y102.9482
G0 Z3.0
G0 X0.0689 Y106.1955
G0 Z-0.5
G1 F300.0 Z-3.0
G3 F800.0 X-1.2556 Y104.2804 I0.7751 J-1.9517
G1 X-1.364 Y98.0615
G1 X-1.5616 Y98.065
G1 X-1.2765 Y114.4127
G2 X0.6843 Y114.3803 I-9.1343 J-612.6724
G3 X-1.1127 Y112.3408 I0.3002 J-2.076
G1 X-1.1856 Y108.1528
G3 X0.0689 Y106.1955 I2.0973 J-0.0365
G1 F300.0 X0.2904 Y105.6379
G3 F800.0 X-0.6557 Y104.2699 I0.5537 J-1.3941
G1 X-0.7746 Y97.4511
G1 X-2.172 Y97.4755
G1 X-1.866 Y115.0213
G2 X4.1243 Y114.9085 I-8.5448 J-613.281
G3 X4.1719 Y114.9082 I0.0355 J1.4996
G2 X5.9675 Y114.6681 I0.0516 J-6.4484
G3 X6.0042 Y114.6582 I0.4057 J1.4441
G2 X7.0328 Y113.949 I-0.442 J-1.7416
G2 X7.8084 Y111.7383 I-3.9215 J-2.6172
G3 X7.8118 Y111.7033 I1.4944 J0.1293
G2 X7.6772 Y109.0522 I-8.2526 J-0.9098
G3 X7.6718 Y109.026 I1.4666 J-0.3146
G2 X6.4196 Y106.8251 I-3.9045 J0.7648
G2 X5.4235 Y106.3291 I-1.7813 J2.329
G3 X5.21 Y103.5159 I0.4017 J-1.4452
G2 X5.8139 Y103.1205 I-0.9461 J-2.1039
G2 X6.8054 Y101.2306 I-6.6207 J-4.6784
G1 X8.1405 Y97.2957
G1 X6.361 Y97.3267
G1 X4.4203 Y102.8094
G3 X3.484 Y104.6639 I-5.246 J-1.4851
G3 X3.412 Y104.7499 I-1.1857 J-0.9188
G3 X1.2709 Y105.7366 I-2.2216 J-2.0043
G3 X1.2564 Y105.7369 I-0.0404 J-1.4995
G1 X0.8699 Y105.7436
G3 X0.2904 Y105.6379 I-0.0258 J-1.4998
G0 Z3.0
G0 X18.3698 Y112.4062
G0 Z1.0
G1 F300.0 Z-1.5
G1 F800.0 X20.1763 Y112.1844
G3 X19.1759 Y111.504 I0.9796 J-2.516
G3 X18.3698 Y112.4062 I-2.3652 J-1.3022
G1 F300.0 X18.516 Y113.5973
G1 F800.0 X24.5466 Y112.8569
G1 X24.2934 Y110.7946
G1 X21.3386 Y111.1573
G3 X19.6671 Y109.8512 I-0.1827 J-1.4888
G1 X17.9656 Y95.9919
G1 X16.5979 Y96.1598
G1 X18.2995 Y110.0191
G3 X16.9934 Y111.6907 I-1.4888 J0.1828
G1 X14.0384 Y112.0535
G1 X14.2915 Y114.1159
G1 X18.516 Y113.5973
G1 F300.0 X18.3698 Y112.4062
G1 Z-3.0
G1 F800.0 X20.1763 Y112.1844
G3 X19.1759 Y111.504 I0.9796 J-2.516
G3 X18.3698 Y112.4062 I-2.3652 J-1.3022
G1 F300.0 X18.516 Y113.5973
G1 F800.0 X24.5466 Y112.8569
G1 X24.2934 Y110.7946
G1 X21.3386 Y111.1573
G3 X19.6671 Y109.8512 I-0.1827 J-1.4888
G1 X17.9656 Y95.9919
G1 X16.5979 Y96.1598
G1 X18.2995 Y110.0191
G3 X16.9934 Y111.6907 I-1.4888 J0.1828
G1 X14.0384 Y112.0535
G1 X14.2915 Y114.1159
G1 X18.516 Y113.5973
G0 Z3.0
G0 X31.999 Y110.2358
G0 Z1.0
G1 F300.0 Z-1.5
G1 F800.0 X32.0593 Y110.4778
G1 X38.498 Y108.8725
G1 X38.4453 Y108.6611
G1 X34.2362 Y109.7104
G3 X31.6906 Y108.1809 I-0.508 J-2.0376
G1 X30.8229 Y104.7015
G3 X32.077 Y102.245 I2.0376 J-0.5081
G3 X29.8167 Y100.6649 I-0.2227 J-2.0882
G1 X28.2982 Y94.574
G1 X28.1063 Y94.6219
G1 X31.999 Y110.2358
G1 F300.0 X31.4168 Y110.381
G1 F800.0 X31.6223 Y111.2051
G1 X39.2253 Y109.3096
G1 X38.8824 Y107.9337
G1 X34.091 Y109.1283
G3 X32.2728 Y108.0357 I-0.3629 J-1.4554
G1 X31.4051 Y104.5563
G3 X32.4977 Y102.7379 I1.4554 J-0.3629
G1 X36.3858 Y101.7686
G1 X36.1052 Y100.643
G1 X32.2172 Y101.6123
G3 X30.3989 Y100.5197 I-0.3629 J-1.4554
G1 X28.7352 Y93.8467
G1 X27.379 Y94.1848
G1 X31.4168 Y110.381
G1 F300.0 X31.999 Y110.2358
G1 Z-3.0
G1 F800.0 X32.0593 Y110.4778
G1 X38.498 Y108.8725
G1 X38.4453 Y108.6611
G1 X34.2362 Y109.7104
G3 X31.6906 Y108.1809 I-0.508 J-2.0376
G1 X30.8229 Y104.7015
G3 X32.077 Y102.245 I2.0376 J-0.5081
G3 X29.8167 Y100.6649 I-0.2227 J-2.0882
G1 X28.2982 Y94.574
G1 X28.1063 Y94.6219
G1 X31.999 Y110.2358
G1 F300.0 X31.4168 Y110.381
G1 F800.0 X31.6223 Y111.2051
G1 X39.2253 Y109.3096
G1 X38.8824 Y107.9337
G1 X34.091 Y109.1283
G3 X32.2728 Y108.0357 I-0.3629 J-1.4554
G1 X31.4051 Y104.5563
G3 X32.4977 Y102.7379 I1.4554 J-0.3629
G1 X36.3858 Y101.7686
G1 X36.1052 Y100.643
G1 X32.2172 Y101.6123
G3 X30.3989 Y100.5197 I-0.3629 J-1.4554
G1 X28.7352 Y93.8467
G1 X27.379 Y94.1848
G1 X31.4168 Y110.381
G0 Z3.0
G0 X46.152 Y105.0181
G0 Z1.0
G1 F300.0 Z-1.5
G1 F800.0 X46.6534 Y106.3957
G2 X48.4972 Y105.7266 I-207.7104 J-575.2593
G3 X46.134 Y104.3834 I-0.3921 J-2.0606
G1 X44.7014 Y100.4473
G3 X45.2501 Y98.1881 I1.9711 J-0.7174
G3 X43.3746 Y96.8086 I0.0978 J-2.0977
G1 X41.2473 Y90.9639
G1 X41.0616 Y91.0314
G1 X46.152 Y105.0181
G0 Z3.0
G0 X51.2844 Y104.7024
G0 Z1.0
G1 F300.0 Z-1.5
G2 F800.0 X51.7126 Y104.5437 I-212.3414 J-573.566
G3 X51.7884 Y104.5172 I0.7306 J1.9688
G2 X53.3698 Y103.6916 I-1.7021 J-5.1871
G2 X53.7798 Y103.0953 I-0.6977 J-0.9189
G2 X53.7872 Y101.0399 I-4.0054 J-1.0421
G3 X53.7709 Y100.9702 I2.0361 J-0.5141
G2 X52.8431 Y98.6955 I-6.9331 J1.5012
G3 X52.8145 Y98.6486 I1.7778 J-1.1178
G2 X51.2613 Y97.2832 I-2.8756 J1.7049
G2 X51.206 Y97.2669 I-0.7649 J2.4904
G3 X51.9899 Y97.8622 I-1.5725 J2.8842
G3 X53.4599 Y101.3034 I-3.6534 J3.5953
G3 X52.0215 Y104.2571 I-3.4469 J0.1485
G3 X51.2844 Y104.7024 I-3.1989 J-4.462
G0 Z3.0
G0 X49.1995 Y96.8831
G0 Z1.0
G1 F300.0 Z-1.5
G3 F800.0 X48.4335 Y96.0998 I1.0665 J-1.809
G3 X47.7073 Y97.121 I-3.2473 J-1.5405
G3 X48.0076 Y97.0383 I0.7058 J1.9753
G3 X49.1995 Y96.8831 I1.788 J9.0747
G0 Z3.0
G0 X48.8628 Y93.5099
G0 Z1.0
G1 F300.0 Z-1.5
G2 F800.0 X49.1243 Y93.1755 I-1.2004 J-1.2078
G2 X49.4032 Y91.2962 I-7.2111 J-2.0308
G1 X49.3885 Y88.001
G1 X48.9088 Y88.1755
G1 X48.8628 Y93.5099
G1 F300.0 X48.2629 Y93.5046
G1 F800.0 X48.2623 Y93.5703
G3 X47.9812 Y95.6273 I-5.453 J0.3024
G3 X47.9405 Y95.7337 I-1.4205 J-0.4819
G3 X46.2379 Y97.3627 I-2.7542 J-1.1743
G3 X46.2238 Y97.368 I-0.5269 J-1.4044
G1 X45.8606 Y97.5001
G3 X43.9384 Y96.6034 I-0.5127 J-1.4097
G1 X41.6059 Y90.1948
G1 X40.2926 Y90.6728
G1 X46.2942 Y107.163
G2 X51.9214 Y105.1062 I-207.3511 J-576.0266
G3 X51.9755 Y105.0873 I0.5218 J1.4063
G2 X53.7316 Y104.1702 I-1.8892 J-5.7572
G2 X54.3584 Y103.2541 I-1.0595 J-1.3975
G2 X54.3689 Y100.893 I-4.584 J-1.201
G3 X54.3573 Y100.8432 I1.4544 J-0.3672
G2 X53.351 Y98.3761 I-7.5195 J1.6282
G3 X53.3306 Y98.3426 I1.2698 J-0.7984
G2 X51.469 Y96.7195 I-3.3917 J2.0109
G2 X50.3394 Y96.5722 I-0.9726 J3.0541
G3 X49.239 Y93.9807 I-0.0735 J-1.4982
G2 X49.6811 Y93.4103 I-1.5766 J-1.6785
G2 X50.0032 Y91.3007 I-7.7679 J-2.2656
G1 X49.9847 Y87.1455
G1 X48.3124 Y87.7541
G1 X48.2629 Y93.5046
G0 Z3.0
G0 X48.7516 Y97.5247
G0 Z1.0
G1 F300.0 Z-1.5
G3 F800.0 X49.561 Y97.4646 I1.044 J8.5883
G3 X49.5615 I0.0407 J1.4994
G3 X51.5625 Y98.28 I0.0719 J2.6865
G3 X52.8627 Y101.3253 I-3.226 J3.1775
G3 X51.6734 Y103.7713 I-2.8497 J0.1266
G3 X50.4167 Y104.4207 I-2.8508 J-3.9762
G1 X48.6182 Y105.0755
G3 X46.6956 Y104.179 I-0.5131 J-1.4095
G1 X45.2629 Y100.2429
G3 X46.1595 Y98.3203 I1.4095 J-0.513
G1 X47.9001 Y97.6868
G3 X48.1231 Y97.6246 I0.513 J1.4095
G3 X48.7516 Y97.5247 I1.6725 J8.4883
G1 F300.0 Z-3.0
G3 F800.0 X49.561 Y97.4646 I1.044 J8.5883
G3 X49.5615 I0.0407 J1.4994
G3 X51.5625 Y98.28 I0.0719 J2.6865
G3 X52.8627 Y101.3253 I-3.226 J3.1775
G3 X51.6734 Y103.7713 I-2.8497 J0.1266
G3 X50.4167 Y104.4207 I-2.8508 J-3.9762
G1 X48.6182 Y105.0755
G3 X46.6956 Y104.179 I-0.5131 J-1.4095
G1 X45.2629 Y100.2429
G3 X46.1595 Y98.3203 I1.4095 J-0.513
G1 X47.9001 Y97.6868
G3 X48.1231 Y97.6246 I0.513 J1.4095
G3 X48.7516 Y97.5247 I1.6725 J8.4883
G1 F300.0 X48.6794 Y96.9314
G3 F800.0 X49.1995 Y96.8831 I1.1162 J9.1815
G3 X48.4335 Y96.0998 I1.0665 J-1.809
G3 X47.7073 Y97.121 I-3.2473 J-1.5405
G3 X48.0076 Y97.0383 I0.7058 J1.9753
G3 X48.6794 Y96.9314 I1.788 J9.0747
G0 Z3.0
G0 X51.206 Y97.2669
G0 Z-0.5
G1 F300.0 Z-3.0
G3 F800.0 X51.9899 Y97.8622 I-1.5725 J2.8842
G3 X53.4599 Y101.3034 I-3.6534 J3.5953
G3 X52.0215 Y104.2571 I-3.4469 J0.1485
G3 X51.2844 Y104.7024 I-3.1989 J-4.462
G2 X51.7126 Y104.5437 I-212.3414 J-573.566
G3 X51.7884 Y104.5172 I0.7306 J1.9688
G2 X53.3698 Y103.6916 I-1.7021 J-5.1871
G2 X53.7798 Y103.0953 I-0.6977 J-0.9189
G2 X53.7872 Y101.0399 I-4.0054 J-1.0421
G3 X53.7709 Y100.9702 I2.0361 J-0.5141
G2 X52.8431 Y98.6955 I-6.9331 J1.5012
G3 X52.8145 Y98.6486 I1.7778 J-1.1178
G2 X51.2613 Y97.2832 I-2.8756 J1.7049
G2 X51.206 Y97.2669 I-0.7649 J2.4904
G0 Z3.0
G0 X48.8628 Y93.5099
G0 Z-0.5
G1 F300.0 Z-3.0
G2 F800.0 X49.1243 Y93.1755 I-1.2004 J-1.2078
G2 X49.4032 Y91.2962 I-7.2111 J-2.0308
G1 X49.3885 Y88.001
G1 X48.9088 Y88.1755
G1 X48.8628 Y93.5099
G0 Z3.0
G0 X45.2501 Y98.1881
G0 Z-0.5
G1 F300.0 Z-3.0
G3 F800.0 X43.3746 Y96.8086 I0.0978 J-2.0977
G1 X41.2473 Y90.9639
G1 X41.0616 Y91.0314
G1 X46.6534 Y106.3957
G2 X48.4972 Y105.7266 I-207.7104 J-575.2593
G3 X46.134 Y104.3834 I-0.3921 J-2.0606
G1 X44.7014 Y100.4473
G3 X45.2501 Y98.1881 I1.9711 J-0.7174
G1 F300.0 X45.2781 Y97.5888
G3 F800.0 X43.9384 Y96.6034 I0.0699 J-1.4984
G1 X41.6059 Y90.1948
G1 X40.2926 Y90.6728
G1 X46.2942 Y107.163
G2 X51.9214 Y105.1062 I-207.3511 J-576.0266
G3 X51.9755 Y105.0873 I0.5218 J1.4063
G2 X53.7316 Y104.1702 I-1.8892 J-5.7572
G2 X54.3584 Y103.2541 I-1.0595 J-1.3975
G2 X54.3689 Y100.893 I-4.584 J-1.201
G3 X54.3573 Y100.8432 I1.4544 J-0.3672
G2 X53.351 Y98.3761 I-7.5195 J1.6282
G3 X53.3306 Y98.3426 I1.2698 J-0.7984
G2 X51.469 Y96.7195 I-3.3917 J2.0109
G2 X50.3394 Y96.5722 I-0.9726 J3.0541
G3 X49.239 Y93.9807 I-0.0735 J-1.4982
G2 X49.6811 Y93.4103 I-1.5766 J-1.6785
G2 X50.0032 Y91.3007 I-7.7679 J-2.2656
G1 X49.9847 Y87.1455
G1 X48.3124 Y87.7541
G1 X48.2623 Y93.5703
G3 X47.9812 Y95.6273 I-5.453 J0.3024
G3 X47.9405 Y95.7337 I-1.4205 J-0.4819
G3 X46.2379 Y97.3627 I-2.7542 J-1.1743
G3 X46.2238 Y97.368 I-0.5269 J-1.4044
G1 X45.8606 Y97.5001
G3 X45.2781 Y97.5888 I-0.5127 J-1.4097
G0 Z3.0
G0 X58.4122 Y91.1831
G0 Z1.0
G1 F300.0 Z-1.5
G1 F800.0 X62.6445 Y99.8611
G1 X69.41 Y96.5617
G1 X69.327 Y96.3914
G1 X64.6268 Y98.6837
G3 X61.8189 Y97.7169 I-0.9205 J-1.8875
G1 X60.385 Y94.7775
G3 X61.2148 Y92.0425 I1.8874 J-0.9207
G3 X58.5489 Y91.0126 I-0.7784 J-1.9504
G1 X56.7756 Y87.3767
G3 X57.7425 Y84.5687 I1.8875 J-0.9206
G1 X62.6387 Y82.1808
G1 X62.4426 Y81.7786
G1 X55.4813 Y85.1736
G1 X58.4122 Y91.1831
G1 F300.0 X57.8729 Y91.4461
G1 F800.0 X62.3683 Y100.6634
G1 X70.2123 Y96.838
G1 X69.6032 Y95.5891
G1 X64.3638 Y98.1444
G3 X62.3581 Y97.4538 I-0.6575 J-1.3482
G1 X60.9242 Y94.5144
G3 X61.6148 Y92.5085 I1.3481 J-0.6577
G1 X66.3738 Y90.1876
G1 X65.8529 Y89.1193
G1 X61.0939 Y91.4403
G3 X59.0882 Y90.7496 I-0.6575 J-1.3482
G1 X57.3149 Y87.1137
G3 X58.0055 Y85.108 I1.3482 J-0.6575
G1 X63.441 Y82.457
G1 X62.7189 Y80.9763
G1 X54.679 Y84.8973
G1 X57.8729 Y91.4461
G1 F300.0 X58.4122 Y91.1831
G1 Z-3.0
G1 F800.0 X62.6445 Y99.8611
G1 X69.41 Y96.5617
G1 X69.327 Y96.3914
G1 X64.6268 Y98.6837
G3 X61.8189 Y97.7169 I-0.9205 J-1.8875
G1 X60.385 Y94.7775
G3 X61.2148 Y92.0425 I1.8874 J-0.9207
G3 X58.5489 Y91.0126 I-0.7784 J-1.9504
G1 X56.7756 Y87.3767
G3 X57.7425 Y84.5687 I1.8875 J-0.9206
G1 X62.6387 Y82.1808
G1 X62.4426 Y81.7786
G1 X55.4813 Y85.1736
G1 X58.4122 Y91.1831
G1 F300.0 X57.8729 Y91.4461
G1 F800.0 X62.3683 Y100.6634
G1 X70.2123 Y96.838
G1 X69.6032 Y95.5891
G1 X64.3638 Y98.1444
G3 X62.3581 Y97.4538 I-0.6575 J-1.3482
