; generated by PrusaSlicer 2.4.0+win64 on 2022-03-15 at 18:16:44 UTC

; 

; external perimeters extrusion width = 0.45mm
; perimeters extrusion width = 0.45mm
; infill extrusion width = 0.45mm
; solid infill extrusion width = 0.45mm
; top infill extrusion width = 0.40mm
; support material extrusion width = 0.35mm
; first layer extrusion width = 0.42mm

M73 P0 R137
M201 X9000 Y9000 Z500 E10000 ; sets maximum accelerations, mm/sec^2
M203 X500 Y500 Z12 E120 ; sets maximum feedrates, mm/sec
M204 P2000 R1500 T2000 ; sets acceleration (P, T) and retract acceleration (R), mm/sec^2
M205 X10.00 Y10.00 Z0.20 E2.50 ; sets the jerk limits, mm/sec
M205 S0 T0 ; sets the minimum extruding and travel feed rate, mm/sec
M107
;TYPE:Custom
M862.3 P "MK2S" ; printer model check
M862.1 P0.4 ; nozzle diameter check
M115 U3.2.3 ; tell printer latest fw version
G90 ; use absolute coordinates
M83 ; extruder relative mode
M204 S2000 T1500 ; MK2 firmware only supports the old M204 format
M104 S215 ; set extruder temp
M140 S60 ; set bed temp
M190 S60 ; wait for bed temp
M109 S215 ; wait for extruder temp
G28 W ; home all without mesh bed level
G80 ; mesh bed leveling
G1 Y-3.0 F1000.0 ; go outside print area
G92 E0.0
G1 X60.0 E9.0  F1000.0 ; intro line
G1 X100.0 E12.5 F1000.0 ; intro line
G92 E0.0
G21 ; set units to millimeters
G90 ; use absolute coordinates
M83 ; use relative distances for extrusion
M900 K0.05 ; Filament gcode LA 1.5
M900 K30 ; Filament gcode LA 1.0
M107
;LAYER_CHANGE
;Z:0.2
;HEIGHT:0.2
;BEFORE_LAYER_CHANGE
G92 E0.0
;0.2


G1 E-.8 F2100
M73 P0 R136
G1 Z.4 F10800
;AFTER_LAYER_CHANGE
;0.2
G1 X71.847 Y93.251
G1 Z.2
G1 E.8 F2100
M204 S1000
;TYPE:Skirt/Brim
;WIDTH:0.42
G1 F1200
G1 X72.787 Y93.058 E.03008
G1 X179.392 Y93.058 E3.34252
G1 X180.699 Y93.449 E.04278
G1 X181.575 Y94.495 E.04278
G1 X181.769 Y95.435 E.03008
G1 X181.769 Y98.435 E.09406
G1 X181.486 Y99.559 E.03634
G1 X159.486 Y140.559 E1.4589
G1 X158.523 Y141.525 E.04278
G1 X157.392 Y141.812 E.0366
G1 X94.787 Y141.812 E1.96293
G1 X93.48 Y141.42 E.04278
G1 X92.692 Y140.559 E.0366
G1 X70.692 Y99.559 E1.4589
G1 X70.41 Y98.435 E.03634
G1 X70.41 Y95.435 E.09406
G1 X70.801 Y94.128 E.04278
G1 X71.801 Y93.29 E.0409
; printing object Streckdose v1.stl id:0 copy 0
;WIPE_START
G1 F8640
G1 X72.787 Y93.058 E-.23384
G1 X75.066 Y93.058 E-.52616
;WIPE_END
G1 E-.04 F2100
G1 Z.6 F10800
G1 X74.682 Y96.222
G1 Z.2
G1 E.8 F2100
;TYPE:Perimeter
G1 F1200
G1 X96.302 Y96.222 E.67789
G1 X96.302 Y137.222 E1.28553
G1 X155.876 Y137.222 E1.86791
G1 X155.876 Y96.222 E1.28553
G1 X177.897 Y96.222 E.69043
G1 X177.897 Y97.648 E.04471
G1 X155.897 Y97.648 E.68979
G1 X155.897 Y138.648 E1.28553
G1 X96.282 Y138.648 E1.86918
G1 X96.282 Y97.648 E1.28553
G1 X74.282 Y97.648 E.68979
G1 X74.282 Y96.222 E.04471
G1 X74.622 Y96.222 E.01066
G1 X73.905 Y95.845 F10800
;TYPE:External perimeter
G1 F1200
G1 X96.679 Y95.845 E.71408
G1 X96.679 Y136.845 E1.28553
G1 X155.499 Y136.845 E1.84426
G1 X155.499 Y95.845 E1.28553
G1 X178.274 Y95.845 E.71408
G1 X178.274 Y98.025 E.06835
G1 X156.274 Y98.025 E.68979
G1 X156.274 Y139.025 E1.28553
G1 X95.905 Y139.025 E1.89283
G1 X95.905 Y98.025 E1.28553
G1 X73.905 Y98.025 E.68979
G1 X73.905 Y95.905 E.06647
G1 X74.305 Y95.858 F10800
;WIPE_START
G1 F8640
G1 X77.196 Y95.896 E-.76
;WIPE_END
G1 E-.04 F2100
G1 Z.6 F10800
G1 X95.422 Y96.335
G1 Z.2
G1 E.8 F2100
;TYPE:Solid infill
;WIDTH:0.422278
G1 F1200
G1 X96.019 Y96.932 E.02665
G1 X96.019 Y97.365 E.01364
G1 X95.916 Y97.365 E.00328
G1 X95.055 Y96.505 E.03838
G1 X94.519 Y96.505 E.01692
G1 X95.379 Y97.365 E.03838
G1 X94.843 Y97.365 E.01692
G1 X93.982 Y96.505 E.03838
G1 X93.446 Y96.505 E.01692
G1 X94.306 Y97.365 E.03838
G1 X93.77 Y97.365 E.01692
G1 X92.909 Y96.505 E.03838
G1 X92.373 Y96.505 E.01692
G1 X93.233 Y97.365 E.03838
G1 X92.697 Y97.365 E.01692
G1 X91.836 Y96.505 E.03838
G1 X91.3 Y96.505 E.01692
G1 X92.16 Y97.365 E.03838
G1 X91.624 Y97.365 E.01692
G1 X90.763 Y96.505 E.03838
G1 X90.227 Y96.505 E.01692
G1 X91.087 Y97.365 E.03838
G1 X90.551 Y97.365 E.01692
G1 X89.69 Y96.505 E.03838
G1 X89.154 Y96.505 E.01692
G1 X90.014 Y97.365 E.03838
G1 X89.478 Y97.365 E.01692
G1 X88.617 Y96.505 E.03838
G1 X88.081 Y96.505 E.01692
G1 X88.941 Y97.365 E.03838
G1 X88.405 Y97.365 E.01692
G1 X87.544 Y96.505 E.03838
G1 X87.008 Y96.505 E.01692
G1 X87.868 Y97.365 E.03838
G1 X87.332 Y97.365 E.01692
G1 X86.471 Y96.505 E.03838
G1 X85.935 Y96.505 E.01692
G1 X86.795 Y97.365 E.03838
G1 X86.259 Y97.365 E.01692
G1 X85.398 Y96.505 E.03838
G1 X84.862 Y96.505 E.01692
G1 X85.722 Y97.365 E.03838
G1 X85.186 Y97.365 E.01692
G1 X84.325 Y96.505 E.03838
G1 X83.789 Y96.505 E.01692
G1 X84.649 Y97.365 E.03838
G1 X84.113 Y97.365 E.01692
G1 X83.252 Y96.505 E.03838
G1 X82.716 Y96.505 E.01692
G1 X83.576 Y97.365 E.03838
G1 X83.04 Y97.365 E.01692
G1 X82.179 Y96.505 E.03838
G1 X81.643 Y96.505 E.01692
G1 X82.503 Y97.365 E.03838
G1 X81.967 Y97.365 E.01692
G1 X81.106 Y96.505 E.03838
G1 X80.57 Y96.505 E.01692
G1 X81.43 Y97.365 E.03838
G1 X80.894 Y97.365 E.01692
G1 X80.033 Y96.505 E.03838
G1 X79.497 Y96.505 E.01692
G1 X80.357 Y97.365 E.03838
G1 X79.821 Y97.365 E.01692
G1 X78.96 Y96.505 E.03838
G1 X78.424 Y96.505 E.01692
G1 X79.284 Y97.365 E.03838
G1 X78.748 Y97.365 E.01692
G1 X77.887 Y96.505 E.03838
G1 X77.351 Y96.505 E.01692
G1 X78.211 Y97.365 E.03838
G1 X77.675 Y97.365 E.01692
G1 X76.815 Y96.505 E.03838
G1 X76.278 Y96.505 E.01692
G1 X77.138 Y97.365 E.03838
G1 X76.602 Y97.365 E.01692
G1 X75.742 Y96.505 E.03838
G1 X75.205 Y96.505 E.01692
G1 X76.065 Y97.365 E.03838
G1 X75.529 Y97.365 E.01692
G1 X74.669 Y96.505 E.03838
G1 X74.565 Y96.505 E.00328
G1 X74.565 Y96.937 E.01365
G1 X75.162 Y97.534 E.02664
;WIPE_START
G1 F8640
G1 X74.565 Y96.937 E-.19504
G1 X74.565 Y96.505 E-.0999
G1 X74.669 Y96.505 E-.02397
G1 X75.529 Y97.365 E-.28092
G1 X76.065 Y97.365 E-.12388
G1 X75.954 Y97.254 E-.03629
;WIPE_END
G1 E-.04 F2100
G1 Z.6 F10800
G1 X155.016 Y137.335
G1 Z.2
M73 P0 R135
G1 E.8 F2100
;WIDTH:0.422528
G1 F1200
G1 X155.614 Y137.933 E.02669
G1 X155.614 Y138.365 E.01364
G1 X155.509 Y138.365 E.00331
G1 X154.649 Y137.505 E.0384
G1 X154.112 Y137.505 E.01695
G1 X154.972 Y138.365 E.0384
G1 X154.435 Y138.365 E.01695
G1 X153.575 Y137.505 E.0384
G1 X153.038 Y137.505 E.01695
G1 X153.899 Y138.365 E.0384
G1 X153.362 Y138.365 E.01695
G1 X152.502 Y137.505 E.0384
G1 X151.965 Y137.505 E.01695
G1 X152.825 Y138.365 E.0384
G1 X152.288 Y138.365 E.01695
G1 X151.428 Y137.505 E.0384
G1 X150.891 Y137.505 E.01695
G1 X151.751 Y138.365 E.0384
G1 X151.214 Y138.365 E.01695
G1 X150.354 Y137.505 E.0384
G1 X149.817 Y137.505 E.01695
G1 X150.678 Y138.365 E.0384
G1 X150.141 Y138.365 E.01695
G1 X149.28 Y137.505 E.0384
G1 X148.744 Y137.505 E.01695
G1 X149.604 Y138.365 E.0384
G1 X149.067 Y138.365 E.01695
G1 X148.207 Y137.505 E.0384
G1 X147.67 Y137.505 E.01695
G1 X148.53 Y138.365 E.0384
G1 X147.993 Y138.365 E.01695
G1 X147.133 Y137.505 E.0384
G1 X146.596 Y137.505 E.01695
G1 X147.456 Y138.365 E.0384
G1 X146.92 Y138.365 E.01695
G1 X146.059 Y137.505 E.0384
G1 X145.523 Y137.505 E.01695
G1 X146.383 Y138.365 E.0384
G1 X145.846 Y138.365 E.01695
G1 X144.986 Y137.505 E.0384
G1 X144.449 Y137.505 E.01695
G1 X145.309 Y138.365 E.0384
G1 X144.772 Y138.365 E.01695
G1 X143.912 Y137.505 E.0384
G1 X143.375 Y137.505 E.01695
G1 X144.235 Y138.365 E.0384
G1 X143.699 Y138.365 E.01695
G1 X142.838 Y137.505 E.0384
G1 X142.301 Y137.505 E.01695
G1 X143.162 Y138.365 E.0384
G1 X142.625 Y138.365 E.01695
G1 X141.765 Y137.505 E.0384
G1 X141.228 Y137.505 E.01695
G1 X142.088 Y138.365 E.0384
G1 X141.551 Y138.365 E.01695
G1 X140.691 Y137.505 E.0384
G1 X140.154 Y137.505 E.01695
G1 X141.014 Y138.365 E.0384
G1 X140.477 Y138.365 E.01695
G1 X139.617 Y137.505 E.0384
G1 X139.08 Y137.505 E.01695
G1 X139.941 Y138.365 E.0384
G1 X139.404 Y138.365 E.01695
G1 X138.544 Y137.505 E.0384
G1 X138.007 Y137.505 E.01695
G1 X138.867 Y138.365 E.0384
G1 X138.33 Y138.365 E.01695
G1 X137.47 Y137.505 E.0384
G1 X136.933 Y137.505 E.01695
G1 X137.793 Y138.365 E.0384
G1 X137.256 Y138.365 E.01695
G1 X136.396 Y137.505 E.0384
G1 X135.859 Y137.505 E.01695
G1 X136.72 Y138.365 E.0384
G1 X136.183 Y138.365 E.01695
G1 X135.322 Y137.505 E.0384
G1 X134.786 Y137.505 E.01695
G1 X135.646 Y138.365 E.0384
G1 X135.109 Y138.365 E.01695
G1 X134.249 Y137.505 E.0384
G1 X133.712 Y137.505 E.01695
G1 X134.572 Y138.365 E.0384
G1 X134.035 Y138.365 E.01695
G1 X133.175 Y137.505 E.0384
G1 X132.638 Y137.505 E.01695
G1 X133.498 Y138.365 E.0384
G1 X132.962 Y138.365 E.01695
G1 X132.101 Y137.505 E.0384
G1 X131.565 Y137.505 E.01695
G1 X132.425 Y138.365 E.0384
G1 X131.888 Y138.365 E.01695
G1 X131.028 Y137.505 E.0384
G1 X130.491 Y137.505 E.01695
G1 X131.351 Y138.365 E.0384
G1 X130.814 Y138.365 E.01695
G1 X129.954 Y137.505 E.0384
G1 X129.417 Y137.505 E.01695
G1 X130.277 Y138.365 E.0384
G1 X129.741 Y138.365 E.01695
G1 X128.88 Y137.505 E.0384
G1 X128.343 Y137.505 E.01695
G1 X129.204 Y138.365 E.0384
G1 X128.667 Y138.365 E.01695
G1 X127.807 Y137.505 E.0384
G1 X127.27 Y137.505 E.01695
G1 X128.13 Y138.365 E.0384
G1 X127.593 Y138.365 E.01695
G1 X126.733 Y137.505 E.0384
G1 X126.196 Y137.505 E.01695
G1 X127.056 Y138.365 E.0384
G1 X126.519 Y138.365 E.01695
G1 X125.659 Y137.505 E.0384
G1 X125.122 Y137.505 E.01695
G1 X125.983 Y138.365 E.0384
G1 X125.446 Y138.365 E.01695
G1 X124.586 Y137.505 E.0384
G1 X124.049 Y137.505 E.01695
G1 X124.909 Y138.365 E.0384
G1 X124.372 Y138.365 E.01695
G1 X123.512 Y137.505 E.0384
G1 X122.975 Y137.505 E.01695
G1 X123.835 Y138.365 E.0384
G1 X123.298 Y138.365 E.01695
G1 X122.438 Y137.505 E.0384
G1 X121.901 Y137.505 E.01695
G1 X122.762 Y138.365 E.0384
G1 X122.225 Y138.365 E.01695
G1 X121.364 Y137.505 E.0384
G1 X120.828 Y137.505 E.01695
G1 X121.688 Y138.365 E.0384
G1 X121.151 Y138.365 E.01695
G1 X120.291 Y137.505 E.0384
G1 X119.754 Y137.505 E.01695
G1 X120.614 Y138.365 E.0384
G1 X120.077 Y138.365 E.01695
G1 X119.217 Y137.505 E.0384
G1 X118.68 Y137.505 E.01695
G1 X119.54 Y138.365 E.0384
G1 X119.004 Y138.365 E.01695
G1 X118.143 Y137.505 E.0384
G1 X117.606 Y137.505 E.01695
G1 X118.467 Y138.365 E.0384
G1 X117.93 Y138.365 E.01695
G1 X117.07 Y137.505 E.0384
G1 X116.533 Y137.505 E.01695
G1 X117.393 Y138.365 E.0384
G1 X116.856 Y138.365 E.01695
G1 X115.996 Y137.505 E.0384
G1 X115.459 Y137.505 E.01695
G1 X116.319 Y138.365 E.0384
G1 X115.783 Y138.365 E.01695
G1 X114.922 Y137.505 E.0384
G1 X114.385 Y137.505 E.01695
G1 X115.246 Y138.365 E.0384
G1 X114.709 Y138.365 E.01695
G1 X113.849 Y137.505 E.0384
G1 X113.312 Y137.505 E.01695
G1 X114.172 Y138.365 E.0384
G1 X113.635 Y138.365 E.01695
G1 X112.775 Y137.505 E.0384
G1 X112.238 Y137.505 E.01695
G1 X113.098 Y138.365 E.0384
G1 X112.561 Y138.365 E.01695
G1 X111.701 Y137.505 E.0384
G1 X111.164 Y137.505 E.01695
G1 X112.025 Y138.365 E.0384
G1 X111.488 Y138.365 E.01695
G1 X110.627 Y137.505 E.0384
G1 X110.091 Y137.505 E.01695
G1 X110.951 Y138.365 E.0384
G1 X110.414 Y138.365 E.01695
G1 X109.554 Y137.505 E.0384
G1 X109.017 Y137.505 E.01695
G1 X109.877 Y138.365 E.0384
G1 X109.34 Y138.365 E.01695
G1 X108.48 Y137.505 E.0384
G1 X107.943 Y137.505 E.01695
G1 X108.804 Y138.365 E.0384
G1 X108.267 Y138.365 E.01695
G1 X107.406 Y137.505 E.0384
G1 X106.87 Y137.505 E.01695
G1 X107.73 Y138.365 E.0384
G1 X107.193 Y138.365 E.01695
G1 X106.333 Y137.505 E.0384
G1 X105.796 Y137.505 E.01695
G1 X106.656 Y138.365 E.0384
G1 X106.119 Y138.365 E.01695
G1 X105.259 Y137.505 E.0384
G1 X104.722 Y137.505 E.01695
G1 X105.582 Y138.365 E.0384
G1 X105.046 Y138.365 E.01695
G1 X104.185 Y137.505 E.0384
G1 X103.648 Y137.505 E.01695
G1 X104.509 Y138.365 E.0384
G1 X103.972 Y138.365 E.01695
G1 X103.112 Y137.505 E.0384
G1 X102.575 Y137.505 E.01695
G1 X103.435 Y138.365 E.0384
G1 X102.898 Y138.365 E.01695
G1 X102.038 Y137.505 E.0384
G1 X101.501 Y137.505 E.01695
G1 X102.361 Y138.365 E.0384
G1 X101.825 Y138.365 E.01695
G1 X100.964 Y137.505 E.0384
G1 X100.427 Y137.505 E.01695
G1 X101.288 Y138.365 E.0384
G1 X100.751 Y138.365 E.01695
G1 X99.891 Y137.505 E.0384
G1 X99.354 Y137.505 E.01695
G1 X100.214 Y138.365 E.0384
G1 X99.677 Y138.365 E.01695
G1 X98.817 Y137.505 E.0384
G1 X98.28 Y137.505 E.01695
G1 X99.14 Y138.365 E.0384
G1 X98.603 Y138.365 E.01695
G1 X97.743 Y137.505 E.0384
G1 X97.206 Y137.505 E.01695
G1 X98.067 Y138.365 E.0384
G1 X97.53 Y138.365 E.01695
G1 X96.669 Y137.505 E.0384
G1 X96.565 Y137.505 E.00331
G1 X96.565 Y137.937 E.01364
G1 X97.163 Y138.534 E.02669
;WIPE_START
G1 F8640
G1 X96.565 Y137.937 E-.19524
G1 X96.565 Y137.505 E-.09977
G1 X96.669 Y137.505 E-.02419
G1 X97.53 Y138.365 E-.28092
G1 X98.067 Y138.365 E-.12396
G1 X97.957 Y138.255 E-.03593
;WIPE_END
G1 E-.04 F2100
G1 Z.6 F10800
G1 X177.784 Y97.102
G1 Z.2
G1 E.8 F2100
;WIDTH:0.422278
G1 F1200
G1 X177.186 Y96.505 E.02665
G1 X176.65 Y96.505 E.01692
G1 X177.51 Y97.365 E.03838
G1 X176.974 Y97.365 E.01692
G1 X176.113 Y96.505 E.03838
G1 X175.577 Y96.505 E.01692
G1 X176.437 Y97.365 E.03838
G1 X175.901 Y97.365 E.01692
G1 X175.04 Y96.505 E.03838
G1 X174.504 Y96.505 E.01692
G1 X175.364 Y97.365 E.03838
G1 X174.828 Y97.365 E.01692
G1 X173.967 Y96.505 E.03838
G1 X173.431 Y96.505 E.01692
G1 X174.291 Y97.365 E.03838
G1 X173.755 Y97.365 E.01692
G1 X172.894 Y96.505 E.03838
G1 X172.358 Y96.505 E.01692
G1 X173.218 Y97.365 E.03838
G1 X172.682 Y97.365 E.01692
G1 X171.821 Y96.505 E.03838
G1 X171.285 Y96.505 E.01692
G1 X172.145 Y97.365 E.03838
G1 X171.609 Y97.365 E.01692
G1 X170.748 Y96.505 E.03838
G1 X170.212 Y96.505 E.01692
G1 X171.072 Y97.365 E.03838
G1 X170.536 Y97.365 E.01692
G1 X169.675 Y96.505 E.03838
G1 X169.139 Y96.505 E.01692
G1 X169.999 Y97.365 E.03838
G1 X169.463 Y97.365 E.01692
G1 X168.602 Y96.505 E.03838
G1 X168.066 Y96.505 E.01692
G1 X168.926 Y97.365 E.03838
G1 X168.39 Y97.365 E.01692
G1 X167.529 Y96.505 E.03838
G1 X166.993 Y96.505 E.01692
G1 X167.853 Y97.365 E.03838
G1 X167.317 Y97.365 E.01692
G1 X166.456 Y96.505 E.03838
G1 X165.92 Y96.505 E.01692
G1 X166.78 Y97.365 E.03838
G1 X166.244 Y97.365 E.01692
G1 X165.383 Y96.505 E.03838
G1 X164.847 Y96.505 E.01692
G1 X165.707 Y97.365 E.03838
G1 X165.171 Y97.365 E.01692
G1 X164.31 Y96.505 E.03838
G1 X163.774 Y96.505 E.01692
G1 X164.634 Y97.365 E.03838
G1 X164.098 Y97.365 E.01692
G1 X163.237 Y96.505 E.03838
G1 X162.701 Y96.505 E.01692
G1 X163.561 Y97.365 E.03838
G1 X163.025 Y97.365 E.01692
G1 X162.164 Y96.505 E.03838
G1 X161.628 Y96.505 E.01692
G1 X162.488 Y97.365 E.03838
G1 X161.952 Y97.365 E.01692
G1 X161.092 Y96.505 E.03838
G1 X160.555 Y96.505 E.01692
G1 X161.415 Y97.365 E.03838
G1 X160.879 Y97.365 E.01692
G1 X160.019 Y96.505 E.03838
G1 X159.482 Y96.505 E.01692
G1 X160.342 Y97.365 E.03838
G1 X159.806 Y97.365 E.01692
G1 X158.946 Y96.505 E.03838
G1 X158.409 Y96.505 E.01692
G1 X159.269 Y97.365 E.03838
G1 X158.733 Y97.365 E.01692
G1 X157.873 Y96.505 E.03838
G1 X157.336 Y96.505 E.01692
G1 X158.196 Y97.365 E.03838
G1 X157.66 Y97.365 E.01692
G1 X156.8 Y96.505 E.03838
G1 X156.263 Y96.505 E.01692
G1 X157.123 Y97.365 E.03838
G1 X156.587 Y97.365 E.01692
G1 X155.99 Y96.767 E.02664
; stop printing object Streckdose v1.stl id:0 copy 0
M106 S255
;LAYER_CHANGE
;Z:0.4
;HEIGHT:0.2
;BEFORE_LAYER_CHANGE
G92 E0.0
;0.4


;WIPE_START
G1 F8640
G1 X156.587 Y97.365 E-.19504
G1 X157.123 Y97.365 E-.12388
G1 X156.263 Y96.505 E-.28092
G1 X156.8 Y96.505 E-.12388
G1 X156.911 Y96.616 E-.03628
;WIPE_END
G1 E-.04 F2100
G1 Z.6 F10800
;AFTER_LAYER_CHANGE
;0.4
M104 S210 ; set temperature
G1 X156.911 Y93.058
G1 Z.4
G1 E.8 F2100
;TYPE:Skirt/Brim
;WIDTH:0.42
G1 F3000
G1 X179.392 Y93.058 E.70488
G1 X180.699 Y93.449 E.04278
G1 X181.575 Y94.495 E.04278
G1 X181.769 Y95.435 E.03008
G1 X181.769 Y98.435 E.09406
G1 X181.486 Y99.559 E.03634
G1 X159.486 Y140.559 E1.4589
G1 X158.523 Y141.525 E.04278
G1 X157.392 Y141.812 E.0366
G1 X94.787 Y141.812 E1.96293
G1 X93.48 Y141.42 E.04278
M73 P1 R135
G1 X92.692 Y140.559 E.0366
G1 X70.692 Y99.559 E1.4589
G1 X70.41 Y98.435 E.03634
G1 X70.41 Y95.435 E.09406
G1 X70.801 Y94.128 E.04278
G1 X71.847 Y93.251 E.04278
G1 X72.787 Y93.058 E.03008
G1 X156.851 Y93.058 E2.63576
; printing object Streckdose v1.stl id:0 copy 0
;WIPE_START
G1 F8640
G1 X160.142 Y93.058 E-.76
;WIPE_END
G1 E-.04 F2100
G1 Z.8 F10800
G1 X95.68 Y97.81
G1 Z.4
G1 E.8 F2100
M204 S800
;TYPE:Perimeter
;WIDTH:0.45
