; generated by Slic3r 1.33.8-prusa3d-win64 on 2017-08-12 at 14:57:46

; external perimeters extrusion width = 0.45mm
; perimeters extrusion width = 0.45mm
; infill extrusion width = 0.45mm
; solid infill extrusion width = 0.45mm
; top infill extrusion width = 0.40mm

M115 U3.0.10 ; tell printer latest fw version
M83  ; extruder relative mode
M104 S255 ; set extruder temp
M140 S100 ; set bed temp
M190 S100 ; wait for bed temp
M109 S255 ; wait for extruder temp
G28 W ; home all without mesh bed level
G80 ; mesh bed leveling
G1 Y-3.0 F1000.0 ; go outside pritn area
G1 X60.0 E9.0  F1000.0 ; intro line
G1 X100.0 E12.5  F1000.0 ; intro line
G21 ; set units to millimeters
G90 ; use absolute coordinates
M83 ; use relative distances for extrusion
G1 E-0.80000 F2100.00000
G1 Z0.200 F7200.000
G1 X87.203 Y80.131 F7200.000
G1 E0.80000 F2100.00000
M204 S1000
G1 F2100
G1 X162.609 Y80.123 E2.36430
G1 X162.939 Y80.148 E0.01038
G1 X163.263 Y80.218 E0.01038
G1 X163.574 Y80.332 E0.01038
G1 X163.865 Y80.489 E0.01038
G1 X164.106 Y80.663 E0.00931
G1 X164.323 Y80.865 E0.00931
G1 X164.514 Y81.093 E0.00931
G1 X164.674 Y81.343 E0.00931
G1 X164.802 Y81.611 E0.00931
G1 X164.896 Y81.892 E0.00931
G1 X164.954 Y82.184 E0.00931
G1 X164.975 Y82.480 E0.00931
G1 X164.975 Y85.520 E0.09531
G1 X164.627 Y127.535 E1.31740
G1 X164.600 Y127.857 E0.01014
G1 X164.529 Y128.177 E0.01026
G1 X164.416 Y128.480 E0.01014
G1 X164.261 Y128.768 E0.01026
G1 X164.089 Y129.006 E0.00919
G1 X163.887 Y129.223 E0.00931
G1 X163.660 Y129.414 E0.00931
G1 X163.410 Y129.575 E0.00931
G1 X163.142 Y129.703 E0.00931
G1 X162.861 Y129.797 E0.00931
G1 X162.569 Y129.856 E0.00931
G1 X162.273 Y129.877 E0.00931
G1 X87.739 Y129.877 E2.33698
G1 X87.408 Y129.852 E0.01038
G1 X87.085 Y129.782 E0.01038
G1 X86.774 Y129.668 E0.01038
G1 X86.482 Y129.511 E0.01038
G1 X86.248 Y129.342 E0.00907
G1 X86.035 Y129.146 E0.00907
G1 X85.848 Y128.925 E0.00907
G1 X85.687 Y128.680 E0.00919
G1 X85.559 Y128.421 E0.00907
G1 X85.463 Y128.148 E0.00907
G1 X85.401 Y127.865 E0.00907
G1 X85.374 Y127.573 E0.00919
G1 X85.025 Y85.520 E1.31861
G1 X85.025 Y82.470 E0.09564
G1 X85.070 Y82.042 E0.01348
G1 X85.190 Y81.629 E0.01348
G1 X85.383 Y81.245 E0.01348
G1 X85.642 Y80.902 E0.01348
G1 X85.959 Y80.611 E0.01348
G1 X86.322 Y80.382 E0.01348
G1 X86.721 Y80.223 E0.01348
G1 X87.144 Y80.137 E0.01351
G1 F5760
G1 X89.338 Y80.137 E-0.76000
G1 E-0.04000 F2100.00000
G1 X88.786 Y83.536 F7200.000
G1 E0.80000 F2100.00000
G1 F1680
G1 X161.214 Y83.536 E2.27094
G1 X161.214 Y126.464 E1.34599
G1 X88.786 Y126.464 E2.27094
G1 X88.786 Y83.596 E1.34411
G1 X89.163 Y83.913 F7200.000
G1 F1680
G1 X160.837 Y83.913 E2.24729
G1 X160.837 Y126.087 E1.32234
G1 X89.163 Y126.087 E2.24729
G1 X89.163 Y83.973 E1.32046
G1 X89.540 Y84.290 F7200.000
G1 F1260
G1 X160.460 Y84.290 E2.22365
G1 X160.460 Y125.710 E1.29869
G1 X89.540 Y125.710 E2.22365
G1 X89.540 Y84.350 E1.29681
G1 X89.404 Y83.914 F7200.000
G1 F5760
G1 X91.734 Y84.348 E-0.76000
G1 E-0.04000 F2100.00000
G1 X161.286 Y84.536 F7200.000
G1 E0.80000 F2100.00000
G1 F1680
G1 X161.286 Y126.536 E1.31688
G1 X88.714 Y126.536 E2.27543
G1 X88.714 Y84.536 E1.31688
G1 X88.366 Y84.536 E0.01090
G1 X88.366 Y83.464 E0.03360
G1 X161.634 Y83.464 E2.29724
G1 X161.634 Y84.536 E0.03360
G1 X161.346 Y84.536 E0.00902
G1 X161.663 Y84.913 F7200.000
G1 F1680
G1 X161.663 Y126.913 E1.31688
G1 X88.337 Y126.913 E2.29908
G1 X88.337 Y84.913 E1.31688
G1 X87.989 Y84.913 E0.01090
G1 X87.989 Y83.087 E0.05725
G1 X162.011 Y83.087 E2.32089
G1 X162.011 Y84.913 E0.05725
G1 X161.723 Y84.913 E0.00902
G1 X162.040 Y85.290 F7200.000
G1 F1260
G1 X162.040 Y127.290 E1.31688
G1 X87.960 Y127.290 E2.32273
G1 X87.960 Y85.290 E1.31688
G1 X87.612 Y85.290 E0.01090
G1 X87.612 Y82.710 E0.08089
G1 X162.388 Y82.710 E2.34454
G1 X162.388 Y85.290 E0.08089
G1 X162.100 Y85.290 E0.00902
G1 X161.685 Y85.474 F7200.000
G1 F5760
G1 X162.097 Y87.484 E-0.76000
G1 E-0.04000 F2100.00000
G1 Z0.400 F7200.000
G1 X89.118 Y83.868 F7200.000
G1 E0.80000 F2100.00000
M204 S800
G1 F2400
G1 X160.882 Y83.868 E2.42913
G1 X160.882 Y126.132 E1.43059
G1 X89.118 Y126.132 E2.42913
G1 X89.118 Y83.928 E1.42856
M204 S1000
G1 X89.525 Y84.275 F7200.000
M204 S800
G1 F1800
G1 X160.475 Y84.275 E2.40157
G1 X160.475 Y125.725 E1.40303
G1 X89.525 Y125.725 E2.40157
G1 X89.525 Y84.335 E1.40100
M204 S1000
G1 X89.389 Y83.899 F7200.000
G1 X88.711 Y84.335 F7200.000
M204 S800
G1 F1200
G1 X88.711 Y84.461 E0.00426
G1 X87.746 Y84.461 E0.03267
G1 X87.746 Y83.539 E0.03120
G1 X88.711 Y83.539 E0.03267
G1 X88.711 Y84.275 E0.02491
M204 S1000
G1 F5760
G1 X88.711 Y84.461 E-0.06437
G1 F5760
G1 X87.746 Y84.461 E-0.33426
G1 F5760
G1 X87.746 Y83.539 E-0.31923
G1 F5760
G1 X87.867 Y83.539 E-0.04214
G1 E-0.04000 F2100.00000
G1 X161.289 Y84.275 F7200.000
G1 E0.80000 F2100.00000
M204 S800
G1 F1200
G1 X161.289 Y83.539 E0.02491
G1 X162.254 Y83.539 E0.03267
G1 X162.254 Y84.461 E0.03120
G1 X161.289 Y84.461 E0.03267
G1 X161.289 Y84.335 E0.00426
M204 S1000
G1 X161.618 Y84.868 F7200.000
M204 S800
G1 F2400
G1 X161.618 Y126.868 E1.42165
G1 X88.382 Y126.868 E2.47895
G1 X88.382 Y84.868 E1.42165
G1 X87.339 Y84.868 E0.03532
G1 X87.339 Y83.132 E0.05876
G1 X162.661 Y83.132 E2.54958
G1 X162.661 Y84.868 E0.05876
G1 X161.678 Y84.868 E0.03329
M204 S1000
G1 X162.025 Y85.275 F7200.000
M204 S800
G1 F1800
G1 X162.025 Y127.275 E1.42165
G1 X87.975 Y127.275 E2.50650
G1 X87.975 Y85.275 E1.42165
G1 X86.932 Y85.275 E0.03532
G1 X86.932 Y82.725 E0.08631
G1 X163.068 Y82.725 E2.57714
G1 X163.068 Y85.275 E0.08631
G1 X162.085 Y85.275 E0.03329
M204 S1000
G1 X161.656 Y85.429 F7200.000
G1 F5760
G1 X162.082 Y87.469 E-0.76000
G1 E-0.04000 F2100.00000
G1 X161.250 Y84.664 F7200.000
G1 E0.80000 F2100.00000
G1 F2400
G1 X161.250 Y126.336 E0.99045
G1 X161.236 Y126.404 E0.00165
G1 F2400
G1 X161.222 Y126.472 E0.00198
G1 X161.086 Y126.500 E0.00396
G1 F2400
G1 X88.914 Y126.500 E1.71538
G1 X88.846 Y126.486 E0.00165
G1 F2400
G1 X88.778 Y126.472 E0.00198
G1 X88.750 Y126.336 E0.00396
G1 F2400
G1 X88.750 Y84.664 E0.99044
G1 F5760
G1 X88.750 Y86.859 E-0.76000
G1 E-0.04000 F2100.00000
G1 X87.868 Y84.064 F7200.000
G1 E0.80000 F2100.00000
M204 S2000
G1 F2400
G1 X88.271 Y83.661 E0.02313
M204 S1000
G1 X88.914 Y83.500 F7200.000
G1 F2400
G1 X161.086 Y83.500 E1.71538
G1 X161.411 Y84.064 F7200.000
M204 S2000
G1 F2400
G1 X161.814 Y83.661 E0.02313
M204 S1000
G1 F5760
G1 X161.411 Y84.064 E-0.19725
G1 E-0.60275 F2100.00000
G1 Z0.600 F7200.000
G1 X89.118 Y83.868 F7200.000
G1 E0.80000 F2100.00000
M204 S800
G1 F2400
G1 X160.882 Y83.868 E2.42913
G1 X160.882 Y126.132 E1.43059
G1 X89.118 Y126.132 E2.42913
G1 X89.118 Y83.928 E1.42856
M204 S1000
G1 X89.525 Y84.275 F7200.000
M204 S800
G1 F1800
G1 X160.475 Y84.275 E2.40157
G1 X160.475 Y125.725 E1.40303
G1 X89.525 Y125.725 E2.40157
G1 X89.525 Y84.335 E1.40100
M204 S1000
G1 X89.389 Y83.899 F7200.000
G1 X88.711 Y84.335 F7200.000
M204 S800
G1 F1200
G1 X88.711 Y84.461 E0.00426
G1 X87.050 Y84.461 E0.05621
G1 X87.050 Y83.539 E0.03120
G1 X88.711 Y83.539 E0.05621
G1 X88.711 Y84.275 E0.02491
M204 S1000
G1 F5760
G1 X88.711 Y84.461 E-0.06437
G1 F5760
G1 X87.050 Y84.461 E-0.57518
G1 F5760
G1 X87.050 Y84.113 E-0.12045
G1 E-0.04000 F2100.00000
G1 X161.289 Y84.275 F7200.000
G1 E0.80000 F2100.00000
M204 S800
G1 F1200
G1 X161.289 Y83.539 E0.02491
G1 X162.950 Y83.539 E0.05621
G1 X162.950 Y84.461 E0.03120
G1 X161.289 Y84.461 E0.05621
G1 X161.289 Y84.335 E0.00426
M204 S1000
G1 X161.618 Y84.868 F7200.000
M204 S800
G1 F2400
G1 X161.618 Y126.868 E1.42165
G1 X88.382 Y126.868 E2.47895
G1 X88.382 Y84.868 E1.42165
G1 X86.643 Y84.868 E0.05886
G1 X86.643 Y83.132 E0.05876
G1 X163.357 Y83.132 E2.59667
G1 X163.357 Y84.868 E0.05876
G1 X161.678 Y84.868 E0.05683
M204 S1000
G1 X162.025 Y85.275 F7200.000
M204 S800
G1 F1800
G1 X162.025 Y127.275 E1.42165
G1 X87.975 Y127.275 E2.50650
G1 X87.975 Y85.275 E1.42165
G1 X86.236 Y85.275 E0.05886
G1 X86.236 Y82.725 E0.08631
G1 X163.764 Y82.725 E2.62423
G1 X163.764 Y85.275 E0.08631
G1 X162.085 Y85.275 E0.05683
M204 S1000
G1 X161.646 Y85.402 F7200.000
G1 X161.819 Y84.339 F7200.000
M204 S2000
G1 F2400
G1 X161.594 Y84.114 E0.01288
G1 X161.594 Y83.844 E0.01097
G1 X162.015 Y83.844 E0.01709
G1 X162.510 Y84.339 E0.02839
M204 S1000
G1 F5760
G1 X162.015 Y83.844 E-0.24211
G1 F5760
G1 X161.594 Y83.844 E-0.14575
G1 F5760
G1 X161.594 Y84.114 E-0.09352
G1 F5760
G1 X161.819 Y84.339 E-0.10985
G1 E-0.20877 F2100.00000
G1 X161.250 Y84.664 F7200.000
G1 E0.80000 F2100.00000
G1 F2400
G1 X161.250 Y126.336 E0.99045
G1 X161.236 Y126.404 E0.00165
G1 F2400
G1 X161.222 Y126.472 E0.00198
G1 X161.086 Y126.500 E0.00396
G1 F2400
G1 X88.914 Y126.500 E1.71538
G1 X88.846 Y126.486 E0.00165
G1 F2400
G1 X88.778 Y126.472 E0.00198
G1 X88.750 Y126.336 E0.00396
G1 F2400
G1 X88.750 Y84.664 E0.99044
G1 X88.271 Y84.339 F7200.000
M204 S2000
G1 F2400
G1 X87.776 Y83.844 E0.02839
G1 X87.355 Y83.844 E0.01709
G1 X87.355 Y84.114 E0.01097
G1 X87.580 Y84.339 E0.01288
M204 S1000
G1 F5760
G1 X87.355 Y84.114 E-0.10985
G1 F5760
G1 X87.355 Y83.844 E-0.09352
G1 F5760
G1 X87.776 Y83.844 E-0.14575
G1 F5760
G1 X88.271 Y84.339 E-0.24211
G1 E-0.20877 F2100.00000
G1 X88.914 Y83.500 F7200.000
G1 E0.80000 F2100.00000
G1 F2400
G1 X161.086 Y83.500 E1.71538
G1 F5760
G1 X158.891 Y83.500 E-0.76000
G1 E-0.04000 F2100.00000
G1 Z0.800 F7200.000
G1 X89.118 Y83.868 F7200.000
G1 E0.80000 F2100.00000
M204 S800
G1 F2400
G1 X160.882 Y83.868 E2.42913
G1 X160.882 Y126.132 E1.43059
G1 X89.118 Y126.132 E2.42913
G1 X89.118 Y83.928 E1.42856
M204 S1000
G1 X89.525 Y84.275 F7200.000
M204 S800
G1 F1800
G1 X160.475 Y84.275 E2.40157
G1 X160.475 Y125.725 E1.40303
G1 X89.525 Y125.725 E2.40157
G1 X89.525 Y84.335 E1.40100
M204 S1000
G1 X89.389 Y83.899 F7200.000
G1 X88.711 Y84.335 F7200.000
M204 S800
G1 F1200
G1 X88.711 Y84.461 E0.00426
G1 X86.355 Y84.461 E0.07976
G1 X86.355 Y83.539 E0.03120
G1 X88.711 Y83.539 E0.07976
G1 X88.711 Y84.275 E0.02491
M204 S1000
G1 F5760
G1 X88.711 Y84.461 E-0.06437
G1 F5760
G1 X86.702 Y84.461 E-0.69563
G1 E-0.04000 F2100.00000
G1 X161.289 Y84.275 F7200.000
G1 E0.80000 F2100.00000
M204 S800
G1 F1200
G1 X161.289 Y83.539 E0.02491
G1 X163.645 Y83.539 E0.07976
G1 X163.645 Y84.461 E0.03120
G1 X161.289 Y84.461 E0.07976
G1 X161.289 Y84.335 E0.00426
M204 S1000
G1 X161.618 Y84.868 F7200.000
M204 S800
G1 F2400
G1 X161.618 Y126.868 E1.42165
G1 X88.382 Y126.868 E2.47895
G1 X88.382 Y84.868 E1.42165
G1 X85.947 Y84.868 E0.08241
G1 X85.947 Y83.132 E0.05876
G1 X164.052 Y83.132 E2.64376
G1 X164.052 Y84.868 E0.05876
G1 X161.678 Y84.868 E0.08038
M204 S1000
G1 X162.025 Y85.275 F7200.000
M204 S800
G1 F1800
G1 X162.025 Y127.275 E1.42165
G1 X87.975 Y127.275 E2.50650
G1 X87.975 Y85.275 E1.42165
G1 X85.540 Y85.275 E0.08241
G1 X85.540 Y82.725 E0.08631
G1 X164.460 Y82.725 E2.67132
G1 X164.460 Y85.275 E0.08631
G1 X162.085 Y85.275 E0.08038
M204 S1000
G1 X161.639 Y85.382 F7200.000
G1 F5760
G1 X162.082 Y87.469 E-0.76000
G1 E-0.04000 F2100.00000
G1 X161.250 Y84.664 F7200.000
G1 E0.80000 F2100.00000
G1 F2400
G1 X161.250 Y126.336 E0.99045
G1 X161.236 Y126.404 E0.00165
G1 F2400
G1 X161.222 Y126.472 E0.00198
G1 X161.086 Y126.500 E0.00396
G1 F2400
G1 X88.914 Y126.500 E1.71538
G1 X88.846 Y126.486 E0.00165
G1 F2400
G1 X88.778 Y126.472 E0.00198
G1 X88.750 Y126.336 E0.00396
G1 F2400
G1 X88.750 Y84.664 E0.99044
G1 F5760
G1 X88.750 Y86.859 E-0.76000
G1 E-0.04000 F2100.00000
G1 X88.914 Y83.500 F7200.000
G1 E0.80000 F2100.00000
G1 F2400
G1 X161.086 Y83.500 E1.71538
G1 X161.823 Y83.661 F7200.000
M204 S2000
G1 F2400
G1 X161.594 Y83.890 E0.01316
G1 X161.594 Y84.156 E0.01077
G1 X162.020 Y84.156 E0.01729
G1 X162.331 Y83.844 E0.01787
G1 X163.022 Y83.844 E0.02806
G1 X162.528 Y84.339 E0.02839
M204 S1000
G1 F5760
G1 X163.022 Y83.844 E-0.24211
G1 F5760
G1 X162.331 Y83.844 E-0.23927
G1 F5760
G1 X162.020 Y84.156 E-0.15238
G1 F5760
G1 X161.656 Y84.156 E-0.12624
G1 E-0.04000 F2100.00000
G1 X87.593 Y84.339 F7200.000
G1 E0.80000 F2100.00000
M204 S2000
G1 F2400
G1 X88.087 Y83.844 E0.02839
G1 X87.397 Y83.844 E0.02806
G1 X87.085 Y84.156 E0.01787
G1 X86.660 Y84.156 E0.01729
G1 X86.660 Y83.890 E0.01077
G1 X86.889 Y83.661 E0.01316
M204 S1000
G1 F5760
G1 X86.660 Y83.890 E-0.11218
G1 F5760
G1 X86.660 Y84.156 E-0.09187
G1 F5760
G1 X87.085 Y84.156 E-0.14740
G1 F5760
G1 X87.397 Y83.844 E-0.15238
G1 F5760
G1 X88.087 Y83.844 E-0.23927
G1 F5760
G1 X88.053 Y83.879 E-0.01689
G1 E-0.04000 F2100.00000
G1 Z1.000 F7200.000
G1 Z1.500 F7200.000
G1 X89.118 Y83.868 F7200.000
G1 Z1.000 F7200.000
G1 E0.80000 F2100.00000
M204 S800
G1 F2400
G1 X160.882 Y83.868 E2.42913
G1 X160.882 Y126.132 E1.43059
G1 X89.118 Y126.132 E2.42913
G1 X89.118 Y83.928 E1.42856
M204 S1000
G1 X89.525 Y84.275 F7200.000
M204 S800
G1 F1800
G1 X160.475 Y84.275 E2.40157
G1 X160.475 Y125.725 E1.40303
G1 X89.525 Y125.725 E2.40157
G1 X89.525 Y84.335 E1.40100
M204 S1000
G1 X89.389 Y83.899 F7200.000
G1 X88.711 Y84.335 F7200.000
M204 S800
G1 F1200
G1 X88.711 Y84.461 E0.00426
G1 X85.659 Y84.461 E0.10330
G1 X85.659 Y83.539 E0.03120
G1 X88.711 Y83.539 E0.10330
G1 X88.711 Y84.275 E0.02491
M204 S1000
G1 F5760
G1 X88.711 Y84.461 E-0.06437
G1 F5760
G1 X86.702 Y84.461 E-0.69563
G1 E-0.04000 F2100.00000
G1 Z1.500 F7200.000
G1 X161.289 Y84.275 F7200.000
G1 Z1.000 F7200.000
G1 E0.80000 F2100.00000
M204 S800
G1 F1200
G1 X161.289 Y83.539 E0.02491
G1 X164.341 Y83.539 E0.10330
G1 X164.341 Y84.461 E0.03120
G1 X161.289 Y84.461 E0.10330
G1 X161.289 Y84.335 E0.00426
M204 S1000
G1 X161.618 Y84.868 F7200.000
M204 S800
G1 F2400
G1 X161.618 Y126.868 E1.42165
G1 X88.382 Y126.868 E2.47895
G1 X88.382 Y84.868 E1.42165
G1 X85.252 Y84.868 E0.10595
G1 X85.252 Y83.132 E0.05876
G1 X164.748 Y83.132 E2.69085
G1 X164.748 Y84.868 E0.05876
G1 X161.678 Y84.868 E0.10392
M204 S1000
G1 X162.025 Y85.275 F7200.000
M204 S800
G1 F1800
G1 X162.025 Y127.275 E1.42165
G1 X87.975 Y127.275 E2.50650
G1 X87.975 Y85.275 E1.42165
G1 X84.845 Y85.275 E0.10595
G1 X84.845 Y82.725 E0.08631
G1 X165.155 Y82.725 E2.71841
G1 X165.155 Y85.275 E0.08631
G1 X162.085 Y85.275 E0.10392
M204 S1000
G1 X161.635 Y85.365 F7200.000
G1 X162.262 Y84.339 F7200.000
M204 S2000
G1 F2400
G1 X161.768 Y83.844 E0.02443
G1 X162.362 Y83.844 E0.02077
G1 X162.673 Y84.156 E0.01538
G1 X163.268 Y84.156 E0.02077
G1 X162.957 Y83.844 E0.01538
G1 X163.551 Y83.844 E0.02077
G1 X164.045 Y84.339 E0.02443
M204 S1000
G1 F5760
G1 X163.551 Y83.844 E-0.24211
G1 F5760
G1 X162.957 Y83.844 E-0.20588
G1 F5760
G1 X163.268 Y84.156 E-0.15238
G1 F5760
G1 X162.807 Y84.156 E-0.15964
G1 E-0.04000 F2100.00000
G1 Z1.500 F7200.000
G1 X161.250 Y84.664 F7200.000
G1 Z1.000 F7200.000
G1 E0.80000 F2100.00000
G1 F2400
G1 X161.250 Y126.336 E0.99045
G1 X161.236 Y126.404 E0.00165
G1 F2400
G1 X161.222 Y126.472 E0.00198
G1 X161.086 Y126.500 E0.00396
G1 F2400
G1 X88.914 Y126.500 E1.71538
G1 X88.846 Y126.486 E0.00165
G1 F2400
G1 X88.778 Y126.472 E0.00198
G1 X88.750 Y126.336 E0.00396
G1 F2400
G1 X88.750 Y84.664 E0.99044
G1 X88.415 Y84.339 F7200.000
M204 S2000
G1 F2400
G1 X87.921 Y83.844 E0.02443
G1 X87.327 Y83.844 E0.02077
G1 X87.638 Y84.156 E0.01538
G1 X87.043 Y84.156 E0.02077
G1 X86.732 Y83.844 E0.01538
G1 X86.138 Y83.844 E0.02077
G1 X86.632 Y84.339 E0.02443
M204 S1000
G1 F5760
G1 X86.138 Y83.844 E-0.24211
G1 F5760
G1 X86.732 Y83.844 E-0.20588
G1 F5760
G1 X87.043 Y84.156 E-0.15238
G1 F5760
G1 X87.504 Y84.156 E-0.15964
G1 E-0.04000 F2100.00000
G1 Z1.500 F7200.000
G1 X88.914 Y83.500 F7200.000
G1 Z1.000 F7200.000
G1 E0.80000 F2100.00000
G1 F2400
G1 X161.086 Y83.500 E1.71538
G1 F5760
G1 X158.891 Y83.500 E-0.76000
