; generated by Slic3r 1.33.8-prusa3d-win64 on 2017-08-12 at 13:27:06

; external perimeters extrusion width = 0.45mm
; perimeters extrusion width = 0.45mm
; infill extrusion width = 0.45mm
; solid infill extrusion width = 0.45mm
; top infill extrusion width = 0.40mm

M115 U3.0.10 ; tell printer latest fw version
M83  ; extruder relative mode
M104 S255 ; set extruder temp
M140 S100 ; set bed temp
M190 S100 ; wait for bed temp
M109 S255 ; wait for extruder temp
G28 W ; home all without mesh bed level
G80 ; mesh bed leveling
G1 Y-3.0 F1000.0 ; go outside pritn area
G1 X60.0 E9.0  F1000.0 ; intro line
G1 X100.0 E12.5  F1000.0 ; intro line
G21 ; set units to millimeters
G90 ; use absolute coordinates
M83 ; use relative distances for extrusion
G1 E-0.80000 F2100.00000
G1 Z0.200 F7200.000
G1 X87.551 Y80.131 F7200.000
G1 E0.80000 F2100.00000
M204 S1000
G1 F2100
G1 X162.261 Y80.123 E2.34249
G1 X162.592 Y80.148 E0.01038
G1 X162.919 Y80.219 E0.01050
G1 X163.229 Y80.334 E0.01038
G1 X163.524 Y80.493 E0.01050
G1 X163.761 Y80.665 E0.00919
G1 X163.976 Y80.865 E0.00919
G1 X164.166 Y81.093 E0.00931
G1 X164.325 Y81.340 E0.00919
G1 X164.452 Y81.604 E0.00919
G1 X164.545 Y81.881 E0.00919
G1 X164.604 Y82.169 E0.00919
G1 X164.627 Y82.465 E0.00931
G1 X164.627 Y127.519 E1.41265
G1 X164.601 Y127.849 E0.01038
G1 X164.530 Y128.173 E0.01038
G1 X164.414 Y128.483 E0.01038
G1 X164.257 Y128.774 E0.01038
G1 X164.085 Y129.011 E0.00919
G1 X163.882 Y129.228 E0.00931
G1 X163.654 Y129.418 E0.00931
G1 X163.404 Y129.578 E0.00931
G1 X163.139 Y129.704 E0.00919
G1 X162.858 Y129.798 E0.00931
G1 X162.570 Y129.855 E0.00919
G1 X162.274 Y129.877 E0.00931
G1 X87.739 Y129.877 E2.33700
G1 X87.408 Y129.852 E0.01038
G1 X87.085 Y129.782 E0.01038
G1 X86.774 Y129.668 E0.01038
G1 X86.479 Y129.509 E0.01050
G1 X86.245 Y129.340 E0.00907
G1 X86.030 Y129.140 E0.00919
G1 X85.841 Y128.916 E0.00919
G1 X85.681 Y128.670 E0.00919
G1 X85.554 Y128.410 E0.00907
G1 X85.459 Y128.133 E0.00919
G1 X85.398 Y127.846 E0.00919
G1 X85.374 Y127.554 E0.00919
G1 X85.373 Y82.450 E1.41420
G1 X85.421 Y82.023 E0.01348
G1 X85.544 Y81.615 E0.01336
G1 X85.739 Y81.232 E0.01348
G1 X85.998 Y80.894 E0.01336
G1 X86.316 Y80.605 E0.01348
G1 X86.677 Y80.379 E0.01336
G1 X87.073 Y80.221 E0.01336
G1 X87.491 Y80.137 E0.01339
G1 F5760
G1 X89.686 Y80.137 E-0.76000
G1 E-0.04000 F2100.00000
G1 X88.714 Y83.464 F7200.000
G1 E0.80000 F2100.00000
G1 F1680
G1 X123.786 Y83.464 E1.09965
G1 X123.786 Y100.645 E0.53870
G1 X123.247 Y100.956 E0.01949
G1 X122.252 Y101.675 E0.03851
G1 X121.336 Y102.493 E0.03851
G1 X120.548 Y103.357 E0.03666
G1 X119.779 Y104.385 E0.04027
G1 X119.152 Y105.444 E0.03858
G1 X118.639 Y106.560 E0.03851
G1 X118.242 Y107.722 E0.03851
G1 X117.967 Y108.919 E0.03851
G1 X117.816 Y110.138 E0.03851
G1 X117.790 Y111.366 E0.03851
G1 X117.891 Y112.590 E0.03851
G1 X118.116 Y113.797 E0.03851
G1 X118.464 Y114.975 E0.03851
G1 X118.931 Y116.111 E0.03851
G1 X119.512 Y117.193 E0.03851
G1 X120.200 Y118.209 E0.03851
G1 X120.990 Y119.150 E0.03851
G1 X121.871 Y120.005 E0.03851
G1 X122.836 Y120.765 E0.03851
G1 X123.873 Y121.423 E0.03851
G1 X124.972 Y121.970 E0.03851
G1 X126.067 Y122.382 E0.03666
G1 X127.308 Y122.714 E0.04027
G1 X128.524 Y122.902 E0.03858
G1 X129.750 Y122.965 E0.03851
G1 X130.976 Y122.902 E0.03851
G1 X132.190 Y122.714 E0.03851
G1 X133.378 Y122.402 E0.03851
G1 X134.528 Y121.970 E0.03851
G1 X135.627 Y121.423 E0.03851
G1 X136.664 Y120.765 E0.03851
G1 X137.629 Y120.005 E0.03851
G1 X138.510 Y119.150 E0.03851
G1 X139.300 Y118.209 E0.03851
G1 X139.955 Y117.241 E0.03666
G1 X140.568 Y116.113 E0.04027
G1 X141.036 Y114.975 E0.03858
G1 X141.384 Y113.797 E0.03851
G1 X141.609 Y112.590 E0.03851
G1 X141.710 Y111.366 E0.03851
G1 X141.684 Y110.138 E0.03851
G1 X141.533 Y108.919 E0.03851
G1 X141.258 Y107.722 E0.03851
G1 X140.861 Y106.560 E0.03851
G1 X140.348 Y105.444 E0.03851
G1 X139.722 Y104.387 E0.03851
G1 X138.992 Y103.400 E0.03851
G1 X138.164 Y102.493 E0.03851
G1 X137.248 Y101.675 E0.03851
G1 X136.253 Y100.956 E0.03851
G1 X135.714 Y100.645 E0.01949
G1 X135.714 Y83.464 E0.53870
G1 X161.286 Y83.464 E0.80178
G1 X161.286 Y126.536 E1.35048
G1 X88.714 Y126.536 E2.27543
G1 X88.714 Y83.524 E1.34860
G1 X88.337 Y83.087 F7200.000
G1 F1680
G1 X124.163 Y83.087 E1.12329
G1 X124.163 Y100.863 E0.55735
G1 X123.453 Y101.273 E0.02571
G1 X122.489 Y101.969 E0.03729
G1 X121.601 Y102.761 E0.03729
G1 X120.839 Y103.597 E0.03548
G1 X120.093 Y104.595 E0.03905
G1 X119.487 Y105.620 E0.03734
G1 X118.989 Y106.700 E0.03729
G1 X118.605 Y107.826 E0.03729
G1 X118.339 Y108.985 E0.03729
G1 X118.192 Y110.165 E0.03729
G1 X118.168 Y111.354 E0.03729
G1 X118.265 Y112.540 E0.03729
G1 X118.483 Y113.709 E0.03729
G1 X118.820 Y114.849 E0.03729
G1 X119.272 Y115.949 E0.03729
G1 X119.835 Y116.997 E0.03729
G1 X120.502 Y117.982 E0.03729
G1 X121.266 Y118.893 E0.03729
G1 X122.120 Y119.721 E0.03729
G1 X123.054 Y120.457 E0.03729
G1 X124.059 Y121.094 E0.03729
G1 X125.123 Y121.624 E0.03729
G1 X126.182 Y122.022 E0.03548
G1 X127.386 Y122.344 E0.03905
G1 X128.562 Y122.527 E0.03734
G1 X129.750 Y122.588 E0.03729
G1 X130.938 Y122.527 E0.03729
G1 X132.113 Y122.344 E0.03729
G1 X133.263 Y122.042 E0.03729
G1 X134.377 Y121.624 E0.03729
G1 X135.441 Y121.094 E0.03729
G1 X136.446 Y120.457 E0.03729
G1 X137.380 Y119.721 E0.03729
G1 X138.234 Y118.893 E0.03729
G1 X138.998 Y117.982 E0.03729
G1 X139.633 Y117.045 E0.03548
G1 X140.227 Y115.951 E0.03905
G1 X140.680 Y114.849 E0.03734
G1 X141.017 Y113.709 E0.03729
G1 X141.235 Y112.540 E0.03729
G1 X141.332 Y111.354 E0.03729
G1 X141.308 Y110.165 E0.03729
G1 X141.161 Y108.985 E0.03729
G1 X140.895 Y107.826 E0.03729
G1 X140.511 Y106.700 E0.03729
G1 X140.013 Y105.620 E0.03729
G1 X139.408 Y104.596 E0.03729
G1 X138.700 Y103.640 E0.03729
G1 X137.899 Y102.761 E0.03729
G1 X137.011 Y101.969 E0.03729
G1 X136.047 Y101.273 E0.03729
G1 X135.337 Y100.863 E0.02571
G1 X135.337 Y83.087 E0.55735
G1 X161.663 Y83.087 E0.82543
G1 X161.663 Y126.913 E1.37413
G1 X88.337 Y126.913 E2.29908
G1 X88.337 Y83.147 E1.37225
G1 X87.960 Y82.710 F7200.000
G1 F1260
G1 X124.540 Y82.710 E1.14694
G1 X124.540 Y101.081 E0.57600
G1 X123.658 Y101.590 E0.03193
G1 X122.725 Y102.264 E0.03608
G1 X121.867 Y103.030 E0.03608
G1 X121.130 Y103.838 E0.03429
G1 X120.407 Y104.804 E0.03784
G1 X119.821 Y105.795 E0.03609
G1 X119.340 Y106.840 E0.03608
G1 X118.969 Y107.929 E0.03608
G1 X118.711 Y109.050 E0.03608
G1 X118.569 Y110.192 E0.03608
G1 X118.545 Y111.343 E0.03608
G1 X118.639 Y112.489 E0.03608
G1 X118.850 Y113.620 E0.03608
G1 X119.176 Y114.724 E0.03608
G1 X119.614 Y115.788 E0.03608
G1 X120.158 Y116.802 E0.03608
G1 X120.803 Y117.754 E0.03608
G1 X121.543 Y118.636 E0.03608
G1 X122.368 Y119.437 E0.03608
G1 X123.272 Y120.149 E0.03608
G1 X124.244 Y120.765 E0.03608
G1 X125.274 Y121.278 E0.03608
G1 X126.298 Y121.663 E0.03429
G1 X127.463 Y121.975 E0.03784
G1 X128.601 Y122.151 E0.03609
G1 X129.750 Y122.210 E0.03608
G1 X130.899 Y122.151 E0.03608
G1 X132.036 Y121.975 E0.03608
G1 X133.149 Y121.683 E0.03608
G1 X134.226 Y121.278 E0.03608
G1 X135.256 Y120.765 E0.03608
G1 X136.228 Y120.149 E0.03608
G1 X137.132 Y119.437 E0.03608
G1 X137.957 Y118.636 E0.03608
G1 X138.697 Y117.754 E0.03608
G1 X139.310 Y116.849 E0.03429
G1 X139.886 Y115.789 E0.03784
G1 X140.324 Y114.724 E0.03609
G1 X140.650 Y113.620 E0.03608
G1 X140.861 Y112.489 E0.03608
G1 X140.955 Y111.343 E0.03608
G1 X140.931 Y110.192 E0.03608
G1 X140.789 Y109.050 E0.03608
G1 X140.531 Y107.929 E0.03608
G1 X140.160 Y106.840 E0.03608
G1 X139.679 Y105.795 E0.03608
G1 X139.093 Y104.805 E0.03608
G1 X138.409 Y103.880 E0.03608
G1 X137.633 Y103.030 E0.03608
G1 X136.775 Y102.264 E0.03608
G1 X135.842 Y101.590 E0.03608
G1 X134.960 Y101.081 E0.03193
G1 X134.960 Y82.710 E0.57600
G1 X162.040 Y82.710 E0.84907
G1 X162.040 Y127.290 E1.39777
G1 X87.960 Y127.290 E2.32273
G1 X87.960 Y82.770 E1.39589
G1 X88.353 Y82.782 F7200.000
G1 F5760
G1 X90.154 Y82.766 E-0.76000
G1 E-0.04000 F2100.00000
G1 X123.673 Y84.195 F7200.000
G1 E0.80000 F2100.00000
G1 F1680
G1 X123.225 Y83.747 E0.01987
G1 X122.691 Y83.747 E0.01674
G1 X123.503 Y84.559 E0.03602
G1 X123.503 Y85.092 E0.01674
G1 X122.158 Y83.747 E0.05970
G1 X121.624 Y83.747 E0.01674
G1 X123.503 Y85.626 E0.08338
G1 X123.503 Y86.160 E0.01674
G1 X121.090 Y83.747 E0.10706
G1 X120.557 Y83.747 E0.01674
G1 X123.503 Y86.693 E0.13074
G1 X123.503 Y87.227 E0.01674
G1 X120.023 Y83.747 E0.15442
G1 X119.489 Y83.747 E0.01674
G1 X123.503 Y87.761 E0.17810
G1 X123.503 Y88.294 E0.01674
G1 X118.956 Y83.747 E0.20178
G1 X118.422 Y83.747 E0.01674
G1 X123.503 Y88.828 E0.22545
G1 X123.503 Y89.362 E0.01674
G1 X117.888 Y83.747 E0.24913
G1 X117.355 Y83.747 E0.01674
G1 X123.503 Y89.895 E0.27281
G1 X123.503 Y90.429 E0.01674
G1 X116.821 Y83.747 E0.29649
G1 X116.288 Y83.747 E0.01674
G1 X123.503 Y90.962 E0.32017
G1 X123.503 Y91.496 E0.01674
G1 X115.754 Y83.747 E0.34385
G1 X115.220 Y83.747 E0.01674
G1 X123.503 Y92.030 E0.36753
G1 X123.503 Y92.563 E0.01674
G1 X114.687 Y83.747 E0.39121
G1 X114.153 Y83.747 E0.01674
G1 X123.503 Y93.097 E0.41488
G1 X123.503 Y93.631 E0.01674
G1 X113.619 Y83.747 E0.43856
G1 X113.086 Y83.747 E0.01674
G1 X123.503 Y94.164 E0.46224
G1 X123.503 Y94.698 E0.01674
G1 X112.552 Y83.747 E0.48592
G1 X112.018 Y83.747 E0.01674
G1 X123.503 Y95.232 E0.50960
G1 X123.503 Y95.765 E0.01674
G1 X111.485 Y83.747 E0.53328
G1 X110.951 Y83.747 E0.01674
G1 X123.503 Y96.299 E0.55696
G1 X123.503 Y96.832 E0.01674
G1 X110.418 Y83.747 E0.58064
G1 X109.884 Y83.747 E0.01674
G1 X123.503 Y97.366 E0.60431
G1 X123.503 Y97.900 E0.01674
G1 X109.350 Y83.747 E0.62799
G1 X108.817 Y83.747 E0.01674
G1 X123.503 Y98.433 E0.65167
G1 X123.503 Y98.967 E0.01674
G1 X108.283 Y83.747 E0.67535
G1 X107.749 Y83.747 E0.01674
G1 X123.503 Y99.501 E0.69903
G1 X123.503 Y100.034 E0.01674
G1 X107.216 Y83.747 E0.72271
G1 X106.682 Y83.747 E0.01674
G1 X123.448 Y100.513 E0.74396
G1 X123.110 Y100.709 E0.01226
G1 X106.148 Y83.747 E0.75262
G1 X105.615 Y83.747 E0.01674
G1 X122.799 Y100.931 E0.76250
G1 X122.489 Y101.155 E0.01199
G1 X105.081 Y83.747 E0.77243
G1 X104.547 Y83.747 E0.01674
G1 X122.179 Y101.379 E0.78237
G1 X121.888 Y101.621 E0.01189
G1 X104.014 Y83.747 E0.79312
G1 X103.480 Y83.747 E0.01674
G1 X121.606 Y101.873 E0.80428
G1 X121.324 Y102.124 E0.01186
G1 X102.947 Y83.747 E0.81545
G1 X102.413 Y83.747 E0.01674
G1 X121.051 Y102.385 E0.82702
G1 X120.797 Y102.664 E0.01185
G1 X101.879 Y83.747 E0.83940
G1 X101.346 Y83.747 E0.01674
G1 X120.542 Y102.943 E0.85179
G1 X120.292 Y103.227 E0.01186
G1 X100.812 Y83.747 E0.86436
G1 X100.278 Y83.747 E0.01674
G1 X120.064 Y103.532 E0.87791
G1 X119.835 Y103.838 E0.01196
G1 X99.745 Y83.747 E0.89147
G1 X99.211 Y83.747 E0.01674
G1 X119.607 Y104.143 E0.90502
G1 X119.400 Y104.470 E0.01214
G1 X98.677 Y83.747 E0.91953
G1 X98.144 Y83.747 E0.01674
G1 X119.202 Y104.805 E0.93440
G1 X119.004 Y105.141 E0.01222
G1 X97.610 Y83.747 E0.94928
G1 X97.077 Y83.747 E0.01674
G1 X118.820 Y105.490 E0.96481
G1 X118.652 Y105.856 E0.01262
G1 X96.543 Y83.747 E0.98102
G1 X96.009 Y83.747 E0.01674
G1 X118.484 Y106.221 E0.99723
G1 X118.327 Y106.598 E0.01281
G1 X95.476 Y83.747 E1.01397
G1 X94.942 Y83.747 E0.01674
G1 X118.191 Y106.996 E1.03162
G1 X118.055 Y107.394 E0.01319
G1 X94.408 Y83.747 E1.04928
G1 X93.875 Y83.747 E0.01674
G1 X117.933 Y107.805 E1.06752
G1 X117.833 Y108.239 E0.01397
G1 X93.341 Y83.747 E1.08677
G1 X92.807 Y83.747 E0.01674
G1 X117.733 Y108.673 E1.10602
G1 X117.656 Y109.129 E0.01452
G1 X92.274 Y83.747 E1.12626
G1 X91.740 Y83.747 E0.01674
G1 X117.597 Y109.604 E1.14733
G1 X117.538 Y110.079 E0.01501
G1 X91.206 Y83.747 E1.16839
G1 X90.673 Y83.747 E0.01674
G1 X117.523 Y110.597 E1.19142
G1 X117.512 Y111.120 E0.01641
G1 X90.139 Y83.747 E1.21461
G1 X89.606 Y83.747 E0.01674
G1 X117.532 Y111.673 E1.23914
G1 X117.579 Y112.254 E0.01830
G1 X89.072 Y83.747 E1.26494
G1 X88.997 Y83.747 E0.00235
G1 X88.997 Y84.206 E0.01439
G1 X117.654 Y112.863 E1.27158
G1 X117.776 Y113.519 E0.02094
G1 X88.997 Y84.739 E1.27701
G1 X88.997 Y85.273 E0.01674
G1 X117.947 Y114.223 E1.28458
G1 X118.171 Y114.980 E0.02478
G1 X88.997 Y85.807 E1.29451
G1 X88.997 Y86.340 E0.01674
G1 X118.843 Y116.186 E1.32435
G1 F5760
G1 X117.292 Y114.635 E-0.76000
G1 E-0.04000 F2100.00000
G1 X119.500 Y117.376 F7200.000
G1 E0.80000 F2100.00000
G1 F1680
G1 X88.997 Y86.874 E1.35347
G1 X88.997 Y87.407 E0.01674
G1 X127.843 Y126.253 E1.72367
G1 X127.309 Y126.253 E0.01674
G1 X88.997 Y87.941 E1.69999
G1 X88.997 Y88.475 E0.01674
G1 X126.775 Y126.253 E1.67631
G1 X126.242 Y126.253 E0.01674
G1 X88.997 Y89.008 E1.65263
G1 X88.997 Y89.542 E0.01674
G1 X125.708 Y126.253 E1.62895
G1 X125.174 Y126.253 E0.01674
G1 X88.997 Y90.076 E1.60528
G1 X88.997 Y90.609 E0.01674
G1 X124.641 Y126.253 E1.58160
G1 X124.107 Y126.253 E0.01674
G1 X88.997 Y91.143 E1.55792
G1 X88.997 Y91.677 E0.01674
G1 X123.573 Y126.253 E1.53424
G1 X123.040 Y126.253 E0.01674
G1 X88.997 Y92.210 E1.51056
G1 X88.997 Y92.744 E0.01674
G1 X122.506 Y126.253 E1.48688
G1 X121.973 Y126.253 E0.01674
G1 X88.997 Y93.277 E1.46320
G1 X88.997 Y93.811 E0.01674
G1 X121.439 Y126.253 E1.43952
G1 X120.905 Y126.253 E0.01674
G1 X88.997 Y94.345 E1.41584
G1 X88.997 Y94.878 E0.01674
G1 X120.372 Y126.253 E1.39217
G1 X119.838 Y126.253 E0.01674
G1 X88.997 Y95.412 E1.36849
G1 X88.997 Y95.946 E0.01674
G1 X119.304 Y126.253 E1.34481
G1 X118.771 Y126.253 E0.01674
G1 X88.997 Y96.479 E1.32113
G1 X88.997 Y97.013 E0.01674
G1 X118.237 Y126.253 E1.29745
G1 X117.703 Y126.253 E0.01674
G1 X88.997 Y97.547 E1.27377
G1 X88.997 Y98.080 E0.01674
G1 X117.170 Y126.253 E1.25009
G1 X116.636 Y126.253 E0.01674
G1 X88.997 Y98.614 E1.22641
G1 X88.997 Y99.148 E0.01674
G1 X116.102 Y126.253 E1.20274
G1 X115.569 Y126.253 E0.01674
G1 X88.997 Y99.681 E1.17906
G1 X88.997 Y100.215 E0.01674
G1 X115.035 Y126.253 E1.15538
G1 X114.502 Y126.253 E0.01674
G1 X88.997 Y100.748 E1.13170
G1 X88.997 Y101.282 E0.01674
G1 X113.968 Y126.253 E1.10802
G1 X113.434 Y126.253 E0.01674
G1 X88.997 Y101.816 E1.08434
G1 X88.997 Y102.349 E0.01674
G1 X112.901 Y126.253 E1.06066
G1 X112.367 Y126.253 E0.01674
G1 X88.997 Y102.883 E1.03698
G1 X88.997 Y103.417 E0.01674
G1 X111.833 Y126.253 E1.01331
G1 X111.300 Y126.253 E0.01674
G1 X88.997 Y103.950 E0.98963
G1 X88.997 Y104.484 E0.01674
G1 X110.766 Y126.253 E0.96595
G1 X110.232 Y126.253 E0.01674
G1 X88.997 Y105.018 E0.94227
G1 X88.997 Y105.551 E0.01674
G1 X109.699 Y126.253 E0.91859
G1 X109.165 Y126.253 E0.01674
G1 X88.997 Y106.085 E0.89491
G1 X88.997 Y106.618 E0.01674
G1 X108.632 Y126.253 E0.87123
G1 X108.098 Y126.253 E0.01674
G1 X88.997 Y107.152 E0.84755
G1 X88.997 Y107.686 E0.01674
G1 X107.564 Y126.253 E0.82387
G1 X107.031 Y126.253 E0.01674
G1 X88.997 Y108.219 E0.80020
G1 X88.997 Y108.753 E0.01674
G1 X106.497 Y126.253 E0.77652
G1 X105.963 Y126.253 E0.01674
G1 X88.997 Y109.287 E0.75284
G1 X88.997 Y109.820 E0.01674
G1 X105.430 Y126.253 E0.72916
G1 X104.896 Y126.253 E0.01674
G1 X88.997 Y110.354 E0.70548
G1 X88.997 Y110.888 E0.01674
G1 X104.362 Y126.253 E0.68180
G1 X103.829 Y126.253 E0.01674
G1 X88.997 Y111.421 E0.65812
G1 X88.997 Y111.955 E0.01674
G1 X103.295 Y126.253 E0.63444
G1 X102.762 Y126.253 E0.01674
G1 X88.997 Y112.488 E0.61077
G1 X88.997 Y113.022 E0.01674
G1 X102.228 Y126.253 E0.58709
G1 X101.694 Y126.253 E0.01674
G1 X88.997 Y113.556 E0.56341
G1 X88.997 Y114.089 E0.01674
G1 X101.161 Y126.253 E0.53973
G1 X100.627 Y126.253 E0.01674
G1 X88.997 Y114.623 E0.51605
G1 X88.997 Y115.157 E0.01674
G1 X100.093 Y126.253 E0.49237
G1 X99.560 Y126.253 E0.01674
G1 X88.997 Y115.690 E0.46869
G1 X88.997 Y116.224 E0.01674
G1 X99.026 Y126.253 E0.44501
G1 X98.492 Y126.253 E0.01674
G1 X88.997 Y116.758 E0.42134
G1 X88.997 Y117.291 E0.01674
G1 X97.959 Y126.253 E0.39766
G1 X97.425 Y126.253 E0.01674
G1 X88.997 Y117.825 E0.37398
G1 X88.997 Y118.359 E0.01674
G1 X96.891 Y126.253 E0.35030
G1 X96.358 Y126.253 E0.01674
G1 X88.997 Y118.892 E0.32662
G1 X88.997 Y119.426 E0.01674
G1 X95.824 Y126.253 E0.30294
G1 X95.291 Y126.253 E0.01674
G1 X88.997 Y119.959 E0.27926
G1 X88.997 Y120.493 E0.01674
G1 X94.757 Y126.253 E0.25558
G1 X94.223 Y126.253 E0.01674
G1 X88.997 Y121.027 E0.23190
G1 X88.997 Y121.560 E0.01674
G1 X93.690 Y126.253 E0.20823
G1 X93.156 Y126.253 E0.01674
G1 X88.997 Y122.094 E0.18455
