; generated by Slic3r 1.33.8-prusa3d-win64 on 2017-03-12 at 18:43:10

; external perimeters extrusion width = 0.45mm
; perimeters extrusion width = 0.45mm
; infill extrusion width = 0.45mm
; solid infill extrusion width = 0.45mm
; top infill extrusion width = 0.45mm

M107
M115 U3.0.9 ; tell printer latest fw version
M83  ; extruder relative mode
M104 S215 ; set extruder temp
M140 S55 ; set bed temp
M190 S55 ; wait for bed temp
M109 S215 ; wait for extruder temp
G28 W ; home all without mesh bed level
G80 ; mesh bed leveling
G1 Y-3.0 F1000.0 ; go outside pritn area
G1 X60.0 E9.0  F1000.0 ; intro line
G1 X100.0 E12.5  F1000.0 ; intro line
G21 ; set units to millimeters
G90 ; use absolute coordinates
M83 ; use relative distances for extrusion
G1 E-0.80000 F2100.00000
G1 Z0.200 F7200.000
G1 X103.560 Y70.591 F7200.000
G1 E0.80000 F2100.00000
M204 S1000
G1 F2100
G1 X105.032 Y68.731 E0.07438
G1 X106.520 Y67.146 E0.06818
G1 X108.134 Y65.693 E0.06806
G1 X110.021 Y64.263 E0.07426
G1 X111.957 Y63.050 E0.07164
G1 X114.068 Y61.975 E0.07426
G1 X116.082 Y61.156 E0.06818
G1 X118.158 Y60.508 E0.06818
G1 X120.475 Y59.995 E0.07438
G1 X122.824 Y59.696 E0.07426
G1 X125.020 Y59.605 E0.06890
G1 X126.662 Y59.698 E0.05157
G1 X126.915 Y59.728 E0.00800
G1 X128.543 Y60.018 E0.05185
G1 X130.143 Y60.492 E0.05233
G1 X131.772 Y61.178 E0.05542
G1 X132.004 Y61.293 E0.00812
G1 X133.445 Y62.128 E0.05221
G1 X134.778 Y63.113 E0.05197
G1 X134.974 Y63.276 E0.00800
G1 X136.192 Y64.429 E0.05257
G1 X137.328 Y65.778 E0.05531
G1 X138.249 Y67.165 E0.05221
G1 X138.381 Y67.393 E0.00824
G1 X139.157 Y68.955 E0.05471
G1 X139.737 Y70.548 E0.05316
G1 X140.138 Y72.204 E0.05340
G1 X151.309 Y124.864 E1.68788
G1 X151.354 Y125.185 E0.01014
G1 X151.355 Y125.508 E0.01014
G1 X151.259 Y126.841 E0.04189
G1 X150.915 Y129.091 E0.07137
G1 X150.390 Y131.264 E0.07009
G1 X149.691 Y133.363 E0.06937
G1 X148.721 Y135.598 E0.07638
G1 X147.686 Y137.511 E0.06821
G1 X146.418 Y139.440 E0.07236
G1 X145.037 Y141.192 E0.06997
G1 X143.547 Y142.786 E0.06842
G1 X141.708 Y144.437 E0.07745
G1 X139.970 Y145.744 E0.06821
G1 X138.046 Y146.949 E0.07116
G1 X136.026 Y147.984 E0.07116
G1 X133.978 Y148.822 E0.06937
G1 X131.754 Y149.517 E0.07307
G1 X129.626 Y149.985 E0.06830
G1 X127.180 Y150.303 E0.07736
G1 X124.996 Y150.395 E0.06854
G1 X123.232 Y150.293 E0.05539
G1 X121.461 Y149.983 E0.05639
G1 X119.799 Y149.489 E0.05436
G1 X118.107 Y148.766 E0.05770
G1 X116.568 Y147.880 E0.05567
G1 X115.126 Y146.812 E0.05627
G1 X113.913 Y145.677 E0.05209
G1 X113.726 Y145.479 E0.00853
G1 X112.741 Y144.308 E0.04797
G1 X112.591 Y144.107 E0.00788
G1 X111.675 Y142.711 E0.05233
G1 X110.843 Y141.045 E0.05841
G1 X110.263 Y139.452 E0.05316
G1 X109.863 Y137.800 E0.05328
G1 X98.682 Y85.158 E1.68738
G1 X98.642 Y84.910 E0.00788
G1 X98.633 Y84.533 E0.01181
G1 X98.738 Y83.189 E0.04225
G1 X99.080 Y80.935 E0.07149
G1 X99.609 Y78.740 E0.07081
G1 X100.300 Y76.662 E0.06866
G1 X101.276 Y74.408 E0.07701
G1 X102.312 Y72.492 E0.06830
G1 X103.525 Y70.640 E0.06940
G1 F5760
G1 X104.884 Y68.918 E-0.76000
G1 E-0.04000 F2100.00000
G1 X147.303 Y128.206 F7200.000
G1 E0.80000 F2100.00000
G1 F1680
G1 X146.138 Y131.998 E0.12437
G1 X144.931 Y134.650 E0.09136
G1 X143.394 Y137.125 E0.09136
G1 X141.550 Y139.382 E0.09136
G1 X139.432 Y141.383 E0.09136
G1 X136.870 Y143.242 E0.09925
G1 X136.105 Y142.574 E0.03183
G1 X137.291 Y140.366 E0.07859
G1 X137.995 Y138.315 E0.06801
G1 X138.359 Y136.177 E0.06799
G1 X138.369 Y133.976 E0.06901
G1 X138.039 Y131.864 E0.06702
G1 X137.045 Y128.833 E0.10002
G1 X140.093 Y129.351 E0.09695
G1 X142.167 Y129.387 E0.06502
G1 X144.252 Y129.101 E0.06600
G1 X147.245 Y128.223 E0.09780
G1 X146.737 Y128.765 F7200.000
G1 F1050
G1 X145.785 Y131.864 E0.10164
G1 X144.598 Y134.472 E0.08983
G1 X143.086 Y136.906 E0.08983
G1 X141.274 Y139.124 E0.08983
G1 X139.191 Y141.092 E0.08983
G1 X136.892 Y142.760 E0.08907
G1 X136.580 Y142.488 E0.01299
G1 X137.637 Y140.517 E0.07013
G1 X138.362 Y138.408 E0.06993
G1 X138.736 Y136.210 E0.06992
G1 X138.747 Y133.948 E0.07093
G1 X138.407 Y131.776 E0.06892
G1 X137.598 Y129.310 E0.08138
G1 X140.058 Y129.728 E0.07824
G1 X142.189 Y129.764 E0.06682
G1 X144.331 Y129.471 E0.06779
G1 X146.679 Y128.782 E0.07672
G1 X147.134 Y128.816 F7200.000
G1 F5760
G1 X146.068 Y130.890 E-0.76000
G1 E-0.04000 F2100.00000
G1 X136.433 Y131.470 F7200.000
G1 E0.80000 F2100.00000
G1 F1680
G1 X136.871 Y133.479 E0.06447
G1 X136.957 Y135.508 E0.06368
G1 X136.699 Y137.521 E0.06364
G1 X136.105 Y139.462 E0.06364
G1 X135.191 Y141.275 E0.06364
G1 X133.984 Y142.907 E0.06364
G1 X132.518 Y144.311 E0.06364
G1 X130.837 Y145.448 E0.06364
G1 X128.987 Y146.284 E0.06364
G1 X127.023 Y146.795 E0.06364
G1 X125.000 Y146.968 E0.06364
G1 X122.977 Y146.795 E0.06364
G1 X121.013 Y146.284 E0.06364
G1 X119.163 Y145.448 E0.06364
G1 X117.482 Y144.311 E0.06364
G1 X116.016 Y142.907 E0.06364
G1 X114.809 Y141.275 E0.06364
G1 X113.908 Y139.487 E0.06277
G1 X113.301 Y137.522 E0.06447
G1 X113.043 Y135.508 E0.06368
G1 X113.129 Y133.480 E0.06364
G1 X113.557 Y131.496 E0.06364
G1 X114.303 Y129.638 E0.06277
G1 X115.377 Y127.885 E0.06447
G1 X116.719 Y126.360 E0.06368
G1 X118.298 Y125.085 E0.06364
G1 X120.071 Y124.095 E0.06364
G1 X121.984 Y123.419 E0.06364
G1 X123.965 Y123.079 E0.06300
G1 X124.986 Y123.036 E0.03205
G1 X126.035 Y123.079 E0.03290
G1 X128.016 Y123.419 E0.06302
G1 X129.929 Y124.095 E0.06364
G1 X131.702 Y125.085 E0.06364
G1 X133.281 Y126.360 E0.06364
G1 X134.622 Y127.884 E0.06364
G1 X135.686 Y129.612 E0.06364
G1 X136.410 Y131.414 E0.06089
G1 X136.071 Y131.581 F7200.000
G1 F1680
G1 X136.495 Y133.527 E0.06246
G1 X136.579 Y135.492 E0.06165
G1 X136.329 Y137.442 E0.06163
G1 X135.753 Y139.321 E0.06163
G1 X134.869 Y141.076 E0.06163
G1 X133.700 Y142.657 E0.06163
G1 X132.281 Y144.017 E0.06163
G1 X130.652 Y145.118 E0.06163
G1 X128.861 Y145.927 E0.06163
G1 X126.959 Y146.422 E0.06163
G1 X125.000 Y146.589 E0.06163
G1 X123.041 Y146.422 E0.06163
G1 X121.139 Y145.927 E0.06163
G1 X119.348 Y145.118 E0.06163
G1 X117.719 Y144.017 E0.06163
G1 X116.300 Y142.657 E0.06163
G1 X115.131 Y141.076 E0.06163
G1 X114.259 Y139.346 E0.06077
G1 X113.671 Y137.442 E0.06246
G1 X113.421 Y135.492 E0.06165
G1 X113.505 Y133.528 E0.06163
G1 X113.919 Y131.606 E0.06163
G1 X114.642 Y129.808 E0.06077
G1 X115.682 Y128.109 E0.06246
G1 X116.981 Y126.633 E0.06165
G1 X118.510 Y125.398 E0.06163
G1 X120.226 Y124.440 E0.06163
G1 X122.080 Y123.785 E0.06163
G1 X124.005 Y123.455 E0.06124
G1 X124.986 Y123.413 E0.03080
G1 X125.995 Y123.455 E0.03165
G1 X127.920 Y123.785 E0.06125
G1 X129.774 Y124.440 E0.06163
G1 X131.490 Y125.398 E0.06163
G1 X133.019 Y126.633 E0.06163
G1 X134.318 Y128.109 E0.06163
G1 X135.348 Y129.782 E0.06163
G1 X136.049 Y131.525 E0.05889
G1 X135.709 Y131.692 F7200.000
G1 F1050
G1 X136.120 Y133.576 E0.06044
G1 X136.201 Y135.476 E0.05963
G1 X135.959 Y137.362 E0.05962
G1 X135.402 Y139.180 E0.05962
G1 X134.546 Y140.878 E0.05962
G1 X133.416 Y142.407 E0.05962
G1 X132.043 Y143.722 E0.05962
G1 X130.467 Y144.787 E0.05962
G1 X128.735 Y145.570 E0.05962
G1 X126.895 Y146.049 E0.05962
G1 X125.000 Y146.211 E0.05962
G1 X123.105 Y146.049 E0.05962
G1 X121.265 Y145.570 E0.05962
G1 X119.533 Y144.787 E0.05962
G1 X117.957 Y143.722 E0.05962
G1 X116.584 Y142.407 E0.05962
G1 X115.454 Y140.878 E0.05962
G1 X114.610 Y139.204 E0.05878
G1 X114.041 Y137.362 E0.06044
G1 X113.799 Y135.476 E0.05963
G1 X113.880 Y133.576 E0.05962
G1 X114.281 Y131.717 E0.05962
G1 X114.980 Y129.978 E0.05878
G1 X115.986 Y128.334 E0.06044
G1 X117.243 Y126.906 E0.05963
G1 X118.722 Y125.712 E0.05962
G1 X120.382 Y124.784 E0.05962
G1 X122.175 Y124.151 E0.05962
G1 X124.045 Y123.830 E0.05948
G1 X124.987 Y123.790 E0.02955
G1 X125.955 Y123.830 E0.03039
G1 X127.825 Y124.151 E0.05948
G1 X129.618 Y124.784 E0.05962
G1 X131.278 Y125.712 E0.05962
G1 X132.757 Y126.906 E0.05962
G1 X134.013 Y128.334 E0.05962
G1 X135.010 Y129.953 E0.05962
G1 X135.687 Y131.637 E0.05689
G1 X136.099 Y131.781 F7200.000
G1 F5760
G1 X136.120 Y133.576 E-0.68818
G1 F5760
G1 X136.129 Y133.783 E-0.07182
G1 E-0.04000 F2100.00000
G1 X119.662 Y117.100 F7200.000
G1 E0.80000 F2100.00000
G1 F840
G1 X123.020 Y117.882 E0.10810
G1 X125.000 Y118.033 E0.06227
G1 X126.980 Y117.882 E0.06227
G1 X130.338 Y117.100 E0.10810
G1 X130.029 Y119.510 E0.07618
G1 X130.029 Y120.490 E0.03074
G1 X130.338 Y122.900 E0.07618
G1 X126.980 Y122.118 E0.10810
G1 X125.000 Y121.967 E0.06227
G1 X123.020 Y122.118 E0.06227
G1 X119.662 Y122.900 E0.10810
G1 X119.971 Y120.491 E0.07616
G1 X119.969 Y119.495 E0.03123
G1 X119.670 Y117.159 E0.07384
G1 X120.105 Y117.590 F7200.000
G1 F840
G1 X122.962 Y118.255 E0.09198
G1 X125.000 Y118.411 E0.06408
G1 X127.038 Y118.255 E0.06408
G1 X129.895 Y117.590 E0.09198
G1 X129.652 Y119.486 E0.05992
G1 X129.652 Y120.514 E0.03225
G1 X129.895 Y122.410 E0.05992
G1 X127.038 Y121.745 E0.09198
G1 X125.000 Y121.589 E0.06408
G1 X122.962 Y121.745 E0.06408
G1 X120.105 Y122.410 E0.09198
G1 X120.348 Y120.515 E0.05991
G1 X120.346 Y119.471 E0.03274
G1 X120.113 Y117.650 E0.05756
G1 X120.548 Y118.080 F7200.000
G1 F840
G1 X122.905 Y118.629 E0.07587
G1 X125.000 Y118.789 E0.06589
G1 X127.095 Y118.629 E0.06589
G1 X129.452 Y118.080 E0.07587
G1 X129.275 Y119.462 E0.04366
G1 X129.275 Y120.538 E0.03376
G1 X129.452 Y121.920 E0.04366
G1 X127.095 Y121.371 E0.07587
G1 X125.000 Y121.211 E0.06589
G1 X122.905 Y121.371 E0.06589
G1 X120.548 Y121.920 E0.07587
G1 X120.725 Y120.539 E0.04365
G1 X120.723 Y119.446 E0.03425
G1 X120.556 Y118.140 E0.04129
G1 X120.599 Y117.684 F7200.000
G1 F5760
G1 X122.704 Y118.587 E-0.76000
G1 E-0.04000 F2100.00000
G1 X121.013 Y116.284 F7200.000
G1 E0.80000 F2100.00000
G1 F1680
G1 X119.163 Y115.448 E0.06364
G1 X117.482 Y114.311 E0.06364
G1 X116.016 Y112.907 E0.06364
G1 X114.809 Y111.275 E0.06364
G1 X113.895 Y109.462 E0.06364
G1 X113.301 Y107.521 E0.06364
G1 X113.043 Y105.508 E0.06364
G1 X113.129 Y103.480 E0.06364
G1 X113.557 Y101.496 E0.06364
G1 X114.314 Y99.612 E0.06364
G1 X115.378 Y97.884 E0.06364
G1 X116.719 Y96.360 E0.06364
G1 X118.298 Y95.085 E0.06364
G1 X120.071 Y94.095 E0.06364
G1 X121.984 Y93.419 E0.06364
G1 X123.965 Y93.079 E0.06300
G1 X124.986 Y93.036 E0.03205
G1 X126.035 Y93.079 E0.03290
G1 X128.016 Y93.419 E0.06302
G1 X129.929 Y94.095 E0.06364
G1 X131.702 Y95.085 E0.06364
G1 X133.281 Y96.360 E0.06364
G1 X134.622 Y97.884 E0.06364
G1 X135.686 Y99.612 E0.06364
G1 X136.433 Y101.470 E0.06277
G1 X136.871 Y103.479 E0.06447
G1 X136.957 Y105.508 E0.06368
G1 X136.699 Y107.521 E0.06364
G1 X136.105 Y109.462 E0.06364
G1 X135.191 Y111.275 E0.06364
G1 X133.984 Y112.907 E0.06364
G1 X132.518 Y114.311 E0.06364
G1 X130.837 Y115.448 E0.06364
G1 X128.987 Y116.284 E0.06364
G1 X127.023 Y116.796 E0.06364
G1 X125.000 Y116.968 E0.06364
G1 X122.977 Y116.796 E0.06364
G1 X121.071 Y116.299 E0.06176
G1 X121.139 Y115.927 F7200.000
G1 F1680
G1 X119.348 Y115.118 E0.06163
G1 X117.719 Y114.017 E0.06163
G1 X116.300 Y112.657 E0.06163
G1 X115.131 Y111.076 E0.06163
G1 X114.247 Y109.321 E0.06163
G1 X113.671 Y107.442 E0.06163
G1 X113.421 Y105.492 E0.06163
G1 X113.505 Y103.528 E0.06163
G1 X113.919 Y101.606 E0.06163
G1 X114.652 Y99.782 E0.06163
G1 X115.682 Y98.109 E0.06163
G1 X116.981 Y96.633 E0.06163
G1 X118.510 Y95.398 E0.06163
G1 X120.226 Y94.440 E0.06163
G1 X122.080 Y93.785 E0.06163
G1 X124.005 Y93.455 E0.06124
G1 X124.986 Y93.413 E0.03080
G1 X125.995 Y93.455 E0.03165
G1 X127.920 Y93.785 E0.06125
G1 X129.774 Y94.440 E0.06163
G1 X131.490 Y95.398 E0.06163
G1 X133.019 Y96.633 E0.06163
G1 X134.318 Y98.109 E0.06163
G1 X135.348 Y99.782 E0.06163
G1 X136.071 Y101.581 E0.06077
G1 X136.495 Y103.527 E0.06246
G1 X136.579 Y105.492 E0.06165
G1 X136.329 Y107.442 E0.06163
G1 X135.753 Y109.321 E0.06163
G1 X134.869 Y111.076 E0.06163
G1 X133.700 Y112.657 E0.06163
G1 X132.281 Y114.017 E0.06163
G1 X130.652 Y115.118 E0.06163
G1 X128.861 Y115.927 E0.06163
G1 X126.959 Y116.423 E0.06163
G1 X125.000 Y116.589 E0.06163
G1 X123.041 Y116.423 E0.06163
G1 X121.197 Y115.942 E0.05975
G1 X121.265 Y115.570 F7200.000
G1 F1050
G1 X119.533 Y114.787 E0.05962
G1 X117.957 Y113.722 E0.05962
G1 X116.584 Y112.407 E0.05962
G1 X115.454 Y110.878 E0.05962
G1 X114.598 Y109.180 E0.05962
G1 X114.041 Y107.362 E0.05962
G1 X113.799 Y105.476 E0.05962
G1 X113.880 Y103.576 E0.05962
G1 X114.281 Y101.717 E0.05962
G1 X114.990 Y99.953 E0.05962
G1 X115.987 Y98.334 E0.05962
G1 X117.243 Y96.906 E0.05962
G1 X118.722 Y95.712 E0.05962
G1 X120.382 Y94.784 E0.05962
G1 X122.175 Y94.151 E0.05962
G1 X124.045 Y93.830 E0.05948
G1 X124.987 Y93.790 E0.02955
G1 X125.955 Y93.830 E0.03039
G1 X127.825 Y94.151 E0.05948
G1 X129.618 Y94.784 E0.05962
G1 X131.278 Y95.712 E0.05962
G1 X132.757 Y96.906 E0.05962
G1 X134.013 Y98.334 E0.05962
G1 X135.010 Y99.953 E0.05962
G1 X135.709 Y101.692 E0.05878
G1 X136.120 Y103.576 E0.06044
G1 X136.201 Y105.476 E0.05963
G1 X135.959 Y107.362 E0.05962
G1 X135.402 Y109.180 E0.05962
G1 X134.546 Y110.878 E0.05962
G1 X133.416 Y112.407 E0.05962
G1 X132.043 Y113.722 E0.05962
G1 X130.467 Y114.787 E0.05962
G1 X128.735 Y115.570 E0.05962
G1 X126.895 Y116.050 E0.05962
G1 X125.000 Y116.211 E0.05962
G1 X123.105 Y116.050 E0.05962
G1 X121.323 Y115.585 E0.05774
G1 X120.961 Y115.830 F7200.000
G1 F5760
G1 X119.533 Y114.787 E-0.67908
G1 F5760
G1 X119.339 Y114.656 E-0.08092
G1 E-0.04000 F2100.00000
G1 X119.662 Y87.100 F7200.000
G1 E0.80000 F2100.00000
G1 F840
G1 X123.020 Y87.882 E0.10810
G1 X125.000 Y88.033 E0.06227
G1 X126.980 Y87.882 E0.06227
G1 X130.338 Y87.100 E0.10810
G1 X130.029 Y89.510 E0.07618
G1 X130.029 Y90.490 E0.03074
G1 X130.338 Y92.900 E0.07618
G1 X126.980 Y92.118 E0.10810
G1 X125.000 Y91.967 E0.06227
G1 X123.020 Y92.118 E0.06227
G1 X119.662 Y92.900 E0.10810
G1 X119.971 Y90.491 E0.07616
G1 X119.969 Y89.495 E0.03123
G1 X119.670 Y87.159 E0.07384
G1 X120.105 Y87.590 F7200.000
G1 F840
G1 X122.962 Y88.255 E0.09198
G1 X125.000 Y88.411 E0.06408
G1 X127.038 Y88.255 E0.06408
G1 X129.895 Y87.590 E0.09198
G1 X129.652 Y89.486 E0.05992
G1 X129.652 Y90.514 E0.03225
G1 X129.895 Y92.410 E0.05992
G1 X127.038 Y91.745 E0.09198
G1 X125.000 Y91.589 E0.06408
G1 X122.962 Y91.745 E0.06408
G1 X120.105 Y92.410 E0.09198
G1 X120.348 Y90.515 E0.05991
G1 X120.346 Y89.471 E0.03274
G1 X120.113 Y87.650 E0.05756
G1 X120.548 Y88.080 F7200.000
G1 F840
G1 X122.905 Y88.629 E0.07587
G1 X125.000 Y88.789 E0.06589
G1 X127.095 Y88.629 E0.06589
G1 X129.452 Y88.080 E0.07587
G1 X129.275 Y89.462 E0.04366
G1 X129.275 Y90.538 E0.03376
G1 X129.452 Y91.920 E0.04366
G1 X127.095 Y91.371 E0.07587
G1 X125.000 Y91.211 E0.06589
G1 X122.905 Y91.371 E0.06589
G1 X120.548 Y91.920 E0.07587
G1 X120.725 Y90.539 E0.04365
G1 X120.723 Y89.446 E0.03425
G1 X120.556 Y88.140 E0.04129
G1 X120.599 Y87.684 F7200.000
G1 F5760
G1 X122.704 Y88.587 E-0.76000
G1 E-0.04000 F2100.00000
G1 X121.040 Y86.291 F7200.000
G1 E0.80000 F2100.00000
G1 F1680
G1 X119.164 Y85.449 E0.06447
G1 X117.482 Y84.311 E0.06368
G1 X116.016 Y82.907 E0.06364
G1 X114.809 Y81.275 E0.06364
G1 X113.895 Y79.462 E0.06364
G1 X113.301 Y77.521 E0.06364
G1 X113.043 Y75.508 E0.06364
G1 X113.129 Y73.480 E0.06364
G1 X113.560 Y71.482 E0.06409
G1 X114.314 Y69.612 E0.06322
G1 X115.378 Y67.884 E0.06363
G1 X116.719 Y66.360 E0.06364
G1 X118.298 Y65.085 E0.06364
G1 X120.071 Y64.095 E0.06364
G1 X121.984 Y63.419 E0.06364
G1 X123.965 Y63.079 E0.06300
G1 X124.986 Y63.036 E0.03205
G1 X126.035 Y63.079 E0.03290
G1 X128.016 Y63.419 E0.06302
G1 X129.929 Y64.095 E0.06364
G1 X131.702 Y65.085 E0.06364
G1 X133.281 Y66.360 E0.06364
G1 X134.622 Y67.884 E0.06364
G1 X135.686 Y69.612 E0.06364
G1 X136.443 Y71.496 E0.06364
G1 X136.871 Y73.480 E0.06364
G1 X136.957 Y75.508 E0.06364
G1 X136.699 Y77.521 E0.06364
