; generated by Slic3r 1.33.8-prusa3d-win64 on 2017-04-17 at 11:37:55

; external perimeters extrusion width = 0.45mm
; perimeters extrusion width = 0.45mm
; infill extrusion width = 0.45mm
; solid infill extrusion width = 0.45mm
; top infill extrusion width = 0.45mm
; support material extrusion width = 0.35mm

M107
M115 U3.0.10 ; tell printer latest fw version
M83  ; extruder relative mode
M104 S215 ; set extruder temp
M140 S55 ; set bed temp
M190 S55 ; wait for bed temp
M109 S215 ; wait for extruder temp
G28 W ; home all without mesh bed level
G80 ; mesh bed leveling
G1 Y-3.0 F1000.0 ; go outside pritn area
G1 X60.0 E9.0  F1000.0 ; intro line
G1 X100.0 E12.5  F1000.0 ; intro line
G21 ; set units to millimeters
G90 ; use absolute coordinates
M83 ; use relative distances for extrusion
G1 E-0.80000 F2100.00000
G1 Z0.200 F7200.000
G1 X60.771 Y65.708 F7200.000
G1 E0.80000 F2100.00000
M204 S1000
G1 F2100
G1 X60.892 Y65.380 E0.01098
G1 X61.057 Y65.075 E0.01086
G1 X61.267 Y64.796 E0.01098
G1 X61.517 Y64.550 E0.01098
G1 X61.796 Y64.345 E0.01086
G1 X62.106 Y64.182 E0.01098
G1 X62.436 Y64.066 E0.01098
G1 X62.780 Y63.999 E0.01098
G1 X114.093 Y58.136 E1.61936
G1 X125.710 Y58.127 E0.36424
G1 X125.979 Y58.152 E0.00847
G1 X126.243 Y58.207 E0.00847
G1 X126.500 Y58.292 E0.00847
G1 X126.745 Y58.405 E0.00847
G1 X145.118 Y68.388 E0.65559
G1 X145.362 Y68.542 E0.00907
G1 X145.587 Y68.725 E0.00907
G1 X145.833 Y68.972 E0.01094
G1 X146.006 Y69.185 E0.00859
G1 X148.697 Y73.056 E0.14781
G1 X148.867 Y73.344 E0.01050
G1 X148.996 Y73.653 E0.01050
G1 X164.092 Y123.679 E1.63840
G1 X164.168 Y124.014 E0.01074
G1 X164.194 Y124.363 E0.01098
G1 X164.194 Y137.166 E0.40144
G1 X164.160 Y137.568 E0.01264
G1 X164.103 Y137.817 E0.00800
G1 X159.218 Y154.902 E0.55718
G1 X159.126 Y155.157 E0.00847
G1 X159.008 Y155.395 E0.00836
G1 X158.863 Y155.619 E0.00836
G1 X158.692 Y155.828 E0.00847
G1 X158.340 Y156.142 E0.01478
G1 X157.930 Y156.382 E0.01490
G1 X157.480 Y156.535 E0.01490
G1 X157.008 Y156.596 E0.01490
G1 X131.913 Y156.593 E0.78683
G1 X94.068 Y151.985 E1.19537
G1 X93.704 Y151.890 E0.01181
G1 X50.127 Y136.674 E1.44722
G1 X49.693 Y136.470 E0.01502
G1 X49.310 Y136.183 E0.01502
G1 X48.966 Y135.824 E0.01559
G1 X48.721 Y135.452 E0.01395
G1 X48.544 Y135.027 E0.01443
G1 X48.454 Y134.580 E0.01431
G1 X48.441 Y128.525 E0.18986
G1 X48.471 Y128.153 E0.01169
G1 X60.755 Y65.766 E1.99366
G1 F5760
G1 X60.892 Y65.380 E-0.14198
G1 F5760
G1 X61.057 Y65.075 E-0.11995
G1 F5760
G1 X61.267 Y64.796 E-0.12126
G1 F5760
G1 X61.517 Y64.550 E-0.12126
G1 F5760
G1 X61.796 Y64.345 E-0.11995
G1 F5760
G1 X62.106 Y64.182 E-0.12126
G1 F5760
G1 X62.145 Y64.168 E-0.01434
G1 E-0.04000 F2100.00000
G1 X99.523 Y127.681 F7200.000
G1 E0.80000 F2100.00000
G1 F1680
G1 X99.523 Y144.610 E0.53078
G1 X106.523 Y144.610 E0.21948
G1 X106.523 Y148.681 E0.12766
G1 X95.452 Y148.681 E0.34714
G1 X95.452 Y142.181 E0.20380
G1 X88.452 Y142.181 E0.21948
G1 X88.452 Y137.610 E0.14334
G1 X95.452 Y137.610 E0.21948
G1 X95.452 Y123.610 E0.43896
G1 X106.523 Y123.610 E0.34714
G1 X106.523 Y127.681 E0.12766
G1 X99.583 Y127.681 E0.21760
G1 X99.900 Y128.058 F7200.000
G1 F1680
G1 X99.900 Y144.233 E0.50713
G1 X106.900 Y144.233 E0.21948
G1 X106.900 Y149.058 E0.15131
G1 X95.075 Y149.058 E0.37079
G1 X95.075 Y142.558 E0.20380
G1 X88.075 Y142.558 E0.21948
G1 X88.075 Y137.233 E0.16699
G1 X95.075 Y137.233 E0.21948
G1 X95.075 Y123.233 E0.43896
G1 X106.900 Y123.233 E0.37079
G1 X106.900 Y128.058 E0.15131
G1 X99.960 Y128.058 E0.21760
G1 X100.277 Y128.435 F7200.000
G1 F1050
G1 X100.277 Y143.855 E0.48348
G1 X107.277 Y143.855 E0.21948
G1 X107.277 Y149.435 E0.17496
G1 X94.697 Y149.435 E0.39444
G1 X94.697 Y142.935 E0.20380
G1 X87.697 Y142.935 E0.21948
G1 X87.697 Y136.855 E0.19063
G1 X94.697 Y136.855 E0.21948
G1 X94.697 Y122.855 E0.43896
G1 X107.277 Y122.855 E0.39444
G1 X107.277 Y128.435 E0.17496
G1 X100.337 Y128.435 E0.21760
G1 X99.887 Y128.524 F7200.000
G1 F5760
G1 X100.329 Y130.630 E-0.76000
G1 E-0.04000 F2100.00000
G1 X106.410 Y124.485 F7200.000
G1 E0.80000 F2100.00000
G1 F1680
G1 X105.817 Y123.892 E0.02628
G1 X105.284 Y123.892 E0.01672
G1 X106.240 Y124.849 E0.04241
G1 X106.240 Y125.382 E0.01672
G1 X104.751 Y123.892 E0.06606
G1 X104.218 Y123.892 E0.01672
G1 X106.240 Y125.915 E0.08971
G1 X106.240 Y126.449 E0.01672
G1 X103.684 Y123.892 E0.11336
G1 X103.151 Y123.892 E0.01672
G1 X106.240 Y126.982 E0.13701
G1 X106.240 Y127.399 E0.01306
G1 X106.124 Y127.399 E0.00366
G1 X102.618 Y123.892 E0.15548
G1 X102.084 Y123.892 E0.01672
G1 X105.590 Y127.399 E0.15548
G1 X105.057 Y127.399 E0.01672
G1 X101.551 Y123.892 E0.15548
G1 X101.018 Y123.892 E0.01672
G1 X104.524 Y127.399 E0.15548
G1 X103.990 Y127.399 E0.01672
G1 X100.484 Y123.892 E0.15548
G1 X99.951 Y123.892 E0.01672
G1 X103.457 Y127.399 E0.15548
G1 X102.924 Y127.399 E0.01672
G1 X99.418 Y123.892 E0.15548
G1 X98.884 Y123.892 E0.01672
G1 X102.390 Y127.399 E0.15548
G1 X101.857 Y127.399 E0.01672
G1 X98.351 Y123.892 E0.15548
G1 X97.818 Y123.892 E0.01672
G1 X101.324 Y127.399 E0.15548
G1 X100.790 Y127.399 E0.01672
G1 X97.284 Y123.892 E0.15548
G1 X96.751 Y123.892 E0.01672
G1 X100.257 Y127.399 E0.15548
G1 X99.724 Y127.399 E0.01672
G1 X96.218 Y123.892 E0.15548
G1 X95.734 Y123.892 E0.01515
G1 X95.734 Y123.943 E0.00157
G1 X99.240 Y127.449 E0.15548
G1 X99.240 Y127.982 E0.01672
G1 X95.734 Y124.476 E0.15548
G1 X95.734 Y125.009 E0.01672
G1 X99.240 Y128.515 E0.15548
G1 X99.240 Y129.049 E0.01672
G1 X95.734 Y125.543 E0.15548
G1 X95.734 Y126.076 E0.01672
G1 X99.240 Y129.582 E0.15548
G1 X99.240 Y130.115 E0.01672
G1 X95.734 Y126.609 E0.15548
G1 X95.734 Y127.142 E0.01672
G1 X99.240 Y130.649 E0.15548
G1 X99.240 Y131.182 E0.01672
G1 X95.734 Y127.676 E0.15548
G1 X95.734 Y128.209 E0.01672
G1 X99.240 Y131.715 E0.15548
G1 X99.240 Y132.249 E0.01672
G1 X95.734 Y128.742 E0.15548
G1 X95.734 Y129.276 E0.01672
G1 X99.240 Y132.782 E0.15548
G1 X99.240 Y133.315 E0.01672
G1 X95.734 Y129.809 E0.15548
G1 X95.734 Y130.342 E0.01672
G1 X99.240 Y133.849 E0.15548
G1 X99.240 Y134.382 E0.01672
G1 X95.734 Y130.876 E0.15548
G1 X95.734 Y131.409 E0.01672
G1 X99.240 Y134.915 E0.15548
G1 X99.240 Y135.449 E0.01672
G1 X95.734 Y131.942 E0.15548
G1 X95.734 Y132.476 E0.01672
G1 X99.240 Y135.982 E0.15548
G1 X99.240 Y136.515 E0.01672
G1 X95.734 Y133.009 E0.15548
G1 X95.734 Y133.542 E0.01672
G1 X99.240 Y137.049 E0.15548
G1 X99.240 Y137.582 E0.01672
G1 X95.734 Y134.076 E0.15548
G1 X95.734 Y134.609 E0.01672
G1 X99.240 Y138.115 E0.15548
G1 X99.240 Y138.649 E0.01672
G1 X95.734 Y135.142 E0.15548
G1 X95.734 Y135.676 E0.01672
G1 X99.240 Y139.182 E0.15548
G1 X99.240 Y139.715 E0.01672
G1 X95.734 Y136.209 E0.15548
G1 X95.734 Y136.742 E0.01672
G1 X99.240 Y140.249 E0.15548
G1 X99.240 Y140.782 E0.01672
G1 X95.734 Y137.276 E0.15548
G1 X95.734 Y137.809 E0.01672
G1 X99.240 Y141.315 E0.15548
G1 X99.240 Y141.848 E0.01672
G1 X95.284 Y137.892 E0.17544
G1 X94.751 Y137.892 E0.01672
G1 X99.240 Y142.382 E0.19909
G1 X99.240 Y142.915 E0.01672
G1 X94.218 Y137.892 E0.22274
G1 X93.684 Y137.892 E0.01672
G1 X99.240 Y143.448 E0.24639
G1 X99.240 Y143.982 E0.01672
G1 X93.151 Y137.892 E0.27004
G1 X92.618 Y137.892 E0.01672
G1 X99.240 Y144.515 E0.29369
G1 X99.240 Y144.892 E0.01183
G1 X99.618 Y144.892 E0.01183
G1 X103.124 Y148.399 E0.15548
G1 X103.657 Y148.399 E0.01672
G1 X100.151 Y144.892 E0.15548
G1 X100.684 Y144.892 E0.01672
G1 X104.191 Y148.399 E0.15548
G1 X104.724 Y148.399 E0.01672
G1 X101.218 Y144.892 E0.15548
G1 X101.751 Y144.892 E0.01672
G1 X105.257 Y148.399 E0.15548
G1 X105.791 Y148.399 E0.01672
G1 X102.284 Y144.892 E0.15548
G1 X102.818 Y144.892 E0.01672
G1 X106.240 Y148.315 E0.15179
G1 X106.240 Y147.782 E0.01672
G1 X103.351 Y144.892 E0.12814
G1 X103.884 Y144.892 E0.01672
G1 X106.240 Y147.249 E0.10448
G1 X106.240 Y146.715 E0.01672
G1 X104.418 Y144.892 E0.08083
G1 X104.951 Y144.892 E0.01672
G1 X106.240 Y146.182 E0.05718
G1 X106.240 Y145.649 E0.01672
G1 X105.484 Y144.892 E0.03353
G1 X106.018 Y144.892 E0.01672
G1 X106.410 Y145.285 E0.01740
G1 F5760
G1 X106.018 Y144.892 E-0.19224
G1 F5760
G1 X105.484 Y144.892 E-0.18472
G1 F5760
G1 X106.240 Y145.649 E-0.37036
G1 F5760
G1 X106.240 Y145.685 E-0.01268
G1 E-0.04000 F2100.00000
G1 X102.760 Y148.568 F7200.000
G1 E0.80000 F2100.00000
G1 F1680
G1 X92.084 Y137.892 E0.47343
G1 X91.551 Y137.892 E0.01672
G1 X102.057 Y148.399 E0.46591
G1 X101.524 Y148.399 E0.01672
G1 X95.734 Y142.609 E0.25674
G1 X95.734 Y143.142 E0.01672
G1 X100.991 Y148.399 E0.23309
G1 X100.457 Y148.399 E0.01672
G1 X95.734 Y143.676 E0.20944
G1 X95.734 Y144.209 E0.01672
G1 X99.924 Y148.399 E0.18579
G1 X99.391 Y148.399 E0.01672
G1 X95.734 Y144.742 E0.16214
G1 X95.734 Y145.276 E0.01672
G1 X98.857 Y148.399 E0.13849
G1 X98.324 Y148.399 E0.01672
G1 X95.734 Y145.809 E0.11484
G1 X95.734 Y146.342 E0.01672
G1 X97.791 Y148.399 E0.09119
G1 X97.257 Y148.399 E0.01672
G1 X95.734 Y146.876 E0.06753
G1 X95.734 Y147.409 E0.01672
G1 X96.724 Y148.399 E0.04388
G1 X96.191 Y148.399 E0.01672
G1 X95.565 Y147.773 E0.02776
G1 F5760
G1 X96.191 Y148.399 E-0.30659
G1 F5760
G1 X96.724 Y148.399 E-0.18472
G1 F5760
G1 X96.175 Y147.850 E-0.26869
G1 E-0.04000 F2100.00000
G1 X95.194 Y142.068 F7200.000
G1 E0.80000 F2100.00000
G1 F1680
G1 X91.018 Y137.892 E0.18518
G1 X90.484 Y137.892 E0.01672
G1 X94.491 Y141.899 E0.17766
G1 X93.957 Y141.899 E0.01672
G1 X89.951 Y137.892 E0.17766
G1 X89.418 Y137.892 E0.01672
G1 X93.424 Y141.899 E0.17766
G1 X92.891 Y141.899 E0.01672
G1 X88.884 Y137.892 E0.17766
G1 X88.734 Y137.892 E0.00471
G1 X88.734 Y138.276 E0.01202
G1 X92.357 Y141.899 E0.16066
G1 X91.824 Y141.899 E0.01672
G1 X88.734 Y138.809 E0.13701
G1 X88.734 Y139.342 E0.01672
G1 X91.291 Y141.899 E0.11336
G1 X90.757 Y141.899 E0.01672
G1 X88.734 Y139.876 E0.08971
G1 X88.734 Y140.409 E0.01672
G1 X90.224 Y141.899 E0.06606
G1 X89.691 Y141.899 E0.01672
G1 X88.734 Y140.942 E0.04241
G1 X88.734 Y141.476 E0.01672
G1 X89.327 Y142.068 E0.02628
G1 F5760
G1 X88.734 Y141.476 E-0.29026
G1 F5760
G1 X88.734 Y140.942 E-0.18472
G1 F5760
G1 X89.316 Y141.524 E-0.28502
G1 E-0.04000 F2100.00000
G1 Z0.200 F7200.000
G1 X76.854 Y133.468 F7200.000
G1 E0.80000 F2100.00000
G1 F1680
G1 X72.782 Y133.468 E0.12766
G1 X72.782 Y126.468 E0.21948
G1 X62.854 Y126.468 E0.31130
G1 X62.854 Y133.468 E0.21948
G1 X51.782 Y133.468 E0.34714
G1 X51.782 Y129.397 E0.12766
G1 X58.782 Y129.397 E0.21948
G1 X58.782 Y122.397 E0.21948
G1 X76.854 Y122.397 E0.56663
G1 X76.854 Y133.408 E0.34526
G1 F5760
G1 X74.659 Y133.441 E-0.76000
G1 E-0.04000 F2100.00000
G1 X72.405 Y126.845 F7200.000
G1 E0.80000 F2100.00000
G1 F1680
G1 X63.231 Y126.845 E0.28765
G1 X63.231 Y133.845 E0.21948
G1 X51.405 Y133.845 E0.37079
G1 X51.405 Y129.020 E0.15131
G1 X58.405 Y129.020 E0.21948
G1 X58.405 Y122.020 E0.21948
G1 X77.231 Y122.020 E0.59027
G1 X77.231 Y133.845 E0.37079
G1 X72.405 Y133.845 E0.15131
G1 X72.405 Y126.905 E0.21760
G1 X72.028 Y127.222 F7200.000
G1 F1050
G1 X63.608 Y127.222 E0.26400
G1 X63.608 Y134.222 E0.21948
G1 X51.028 Y134.222 E0.39444
G1 X51.028 Y128.642 E0.17496
G1 X58.028 Y128.642 E0.21948
G1 X58.028 Y121.642 E0.21948
G1 X77.608 Y121.642 E0.61392
G1 X77.608 Y134.222 E0.39444
G1 X72.028 Y134.222 E0.17496
G1 X72.028 Y127.282 E0.21760
G1 X71.939 Y126.832 F7200.000
G1 F5760
G1 X69.833 Y127.267 E-0.76000
G1 E-0.04000 F2100.00000
G1 X76.740 Y130.213 F7200.000
G1 E0.80000 F2100.00000
G1 F1680
G1 X73.065 Y126.537 E0.16316
G1 X73.065 Y127.071 E0.01676
G1 X76.571 Y130.577 E0.15563
G1 X76.571 Y131.111 E0.01676
G1 X73.065 Y127.604 E0.15563
G1 X73.065 Y128.138 E0.01676
G1 X76.571 Y131.644 E0.15563
G1 X76.571 Y132.178 E0.01676
G1 X73.065 Y128.672 E0.15563
G1 X73.065 Y129.206 E0.01676
G1 X76.571 Y132.712 E0.15563
G1 X76.571 Y133.186 E0.01486
G1 X76.510 Y133.186 E0.00189
G1 X73.065 Y129.740 E0.15295
G1 X73.065 Y130.274 E0.01676
G1 X75.977 Y133.186 E0.12926
G1 X75.443 Y133.186 E0.01676
G1 X73.065 Y130.807 E0.10556
G1 X73.065 Y131.341 E0.01676
G1 X74.909 Y133.186 E0.08187
G1 X74.375 Y133.186 E0.01676
G1 X73.065 Y131.875 E0.05817
G1 X73.065 Y132.409 E0.01676
G1 X73.841 Y133.186 E0.03447
G1 X73.307 Y133.186 E0.01676
G1 X72.895 Y132.773 E0.01831
G1 F5760
G1 X73.307 Y133.186 E-0.20206
G1 F5760
G1 X73.841 Y133.186 E-0.18489
G1 F5760
G1 X73.080 Y132.424 E-0.37305
G1 E-0.04000 F2100.00000
G1 X76.740 Y123.273 F7200.000
G1 E0.80000 F2100.00000
G1 F1680
G1 X76.147 Y122.679 E0.02634
G1 X75.613 Y122.679 E0.01676
G1 X76.571 Y123.637 E0.04250
G1 X76.571 Y124.171 E0.01676
G1 X75.079 Y122.679 E0.06620
G1 X74.546 Y122.679 E0.01676
G1 X76.571 Y124.705 E0.08989
G1 X76.571 Y125.238 E0.01676
G1 X74.012 Y122.679 E0.11359
G1 X73.478 Y122.679 E0.01676
G1 X76.571 Y125.772 E0.13729
G1 X76.571 Y126.306 E0.01676
G1 X72.944 Y122.679 E0.16098
G1 X72.410 Y122.679 E0.01676
G1 X76.571 Y126.840 E0.18468
G1 X76.571 Y127.374 E0.01676
G1 X71.876 Y122.679 E0.20837
G1 X71.343 Y122.679 E0.01676
G1 X76.571 Y127.908 E0.23207
G1 X76.571 Y128.441 E0.01676
G1 X70.809 Y122.679 E0.25576
G1 X70.275 Y122.679 E0.01676
G1 X76.571 Y128.975 E0.27946
G1 X76.571 Y129.509 E0.01676
G1 X69.741 Y122.679 E0.30315
G1 X69.207 Y122.679 E0.01676
G1 X72.713 Y126.186 E0.15563
G1 X72.180 Y126.186 E0.01676
G1 X68.673 Y122.679 E0.15563
G1 X68.140 Y122.679 E0.01676
G1 X71.646 Y126.186 E0.15563
G1 X71.112 Y126.186 E0.01676
G1 X67.606 Y122.679 E0.15563
G1 X67.072 Y122.679 E0.01676
G1 X70.578 Y126.186 E0.15563
G1 X70.044 Y126.186 E0.01676
G1 X66.538 Y122.679 E0.15563
G1 X66.004 Y122.679 E0.01676
G1 X69.510 Y126.186 E0.15563
G1 X68.977 Y126.186 E0.01676
G1 X65.470 Y122.679 E0.15563
G1 X64.937 Y122.679 E0.01676
G1 X68.443 Y126.186 E0.15563
G1 X67.909 Y126.186 E0.01676
G1 X64.403 Y122.679 E0.15563
G1 X63.869 Y122.679 E0.01676
G1 X67.375 Y126.186 E0.15563
G1 X66.841 Y126.186 E0.01676
G1 X63.335 Y122.679 E0.15563
G1 X62.801 Y122.679 E0.01676
G1 X66.307 Y126.186 E0.15563
G1 X65.774 Y126.186 E0.01676
G1 X62.268 Y122.679 E0.15563
G1 X61.734 Y122.679 E0.01676
G1 X65.240 Y126.186 E0.15563
G1 X64.706 Y126.186 E0.01676
G1 X61.200 Y122.679 E0.15563
G1 X60.666 Y122.679 E0.01676
G1 X64.172 Y126.186 E0.15563
G1 X63.638 Y126.186 E0.01676
G1 X60.132 Y122.679 E0.15563
G1 X59.598 Y122.679 E0.01676
G1 X63.105 Y126.186 E0.15563
G1 X62.571 Y126.186 E0.01675
G1 X59.065 Y122.679 E0.15563
G1 X59.065 Y123.213 E0.01676
G1 X62.571 Y126.719 E0.15563
G1 X62.571 Y127.253 E0.01676
G1 X59.065 Y123.747 E0.15563
G1 X59.065 Y124.281 E0.01676
G1 X62.571 Y127.787 E0.15563
G1 X62.571 Y128.321 E0.01676
G1 X59.065 Y124.815 E0.15563
G1 X59.065 Y125.349 E0.01676
G1 X62.571 Y128.855 E0.15563
G1 X62.571 Y129.389 E0.01676
G1 X59.065 Y125.882 E0.15563
G1 X59.065 Y126.416 E0.01676
G1 X62.571 Y129.922 E0.15563
G1 X62.571 Y130.456 E0.01676
G1 X59.065 Y126.950 E0.15563
G1 X59.065 Y127.484 E0.01676
G1 X62.571 Y130.990 E0.15563
G1 X62.571 Y131.524 E0.01676
G1 X59.065 Y128.018 E0.15563
G1 X59.065 Y128.552 E0.01676
G1 X62.571 Y132.058 E0.15563
G1 X62.571 Y132.591 E0.01676
G1 X59.065 Y129.085 E0.15563
G1 X59.065 Y129.619 E0.01676
G1 X62.571 Y133.125 E0.15563
G1 X62.571 Y133.186 E0.00189
G1 X62.097 Y133.186 E0.01487
G1 X58.591 Y129.679 E0.15563
G1 X58.057 Y129.679 E0.01676
G1 X61.563 Y133.186 E0.15563
G1 X61.029 Y133.186 E0.01676
G1 X57.523 Y129.679 E0.15563
G1 X56.990 Y129.679 E0.01676
G1 X60.496 Y133.186 E0.15563
G1 X59.962 Y133.186 E0.01676
G1 X56.456 Y129.679 E0.15563
G1 X55.922 Y129.679 E0.01676
G1 X59.428 Y133.186 E0.15563
G1 X58.894 Y133.186 E0.01676
G1 X55.388 Y129.679 E0.15563
G1 X54.854 Y129.679 E0.01676
G1 X58.360 Y133.186 E0.15563
G1 X57.827 Y133.186 E0.01676
G1 X54.320 Y129.679 E0.15563
G1 X53.787 Y129.679 E0.01676
G1 X57.293 Y133.186 E0.15563
G1 X56.759 Y133.186 E0.01676
