; generated by PrusaSlicer 2.0.0+win64 on 2019-08-17 at 20:03:41

; 

; external perimeters extrusion width = 0.45mm
; perimeters extrusion width = 0.45mm
; infill extrusion width = 0.45mm
; solid infill extrusion width = 0.45mm
; top infill extrusion width = 0.40mm
; first layer extrusion width = 0.42mm

M73 P0 R83
M201 X9000 Y9000 Z500 E10000 ; sets maximum accelerations, mm/sec^2
M203 X500 Y500 Z12 E120 ; sets maximum feedrates, mm/sec
M204 P2000 R1500 T2000 ; sets acceleration (P, T) and retract acceleration (R), mm/sec^2
M205 X10.00 Y10.00 Z0.20 E2.50 ; sets the jerk limits, mm/sec
M205 S0 T0 ; sets the minimum extruding and travel feed rate, mm/sec
M107
M115 U3.2.3 ; tell printer latest fw version
G90 ; use absolute coordinates
M83 ; extruder relative mode
M204 S2000 T1500 ; MK2 firmware only supports the old M204 format
M104 S215 ; set extruder temp
M140 S60 ; set bed temp
M190 S60 ; wait for bed temp
M109 S215 ; wait for extruder temp
G28 W ; home all without mesh bed level
G80 ; mesh bed leveling
G1 Y-3.0 F1000.0 ; go outside print area
G92 E0.0
G1 X60.0 E9.0  F1000.0 ; intro line
M73 P0 R83
G1 X100.0 E12.5 F1000.0 ; intro line
G92 E0.0
M900 K30 ; Filament gcode
G21 ; set units to millimeters
G90 ; use absolute coordinates
M83 ; use relative distances for extrusion
;BEFORE_LAYER_CHANGE
G92 E0.0
;0.2


G1 E-0.80000 F2100.00000
G1 Z0.600 F10800.000
;AFTER_LAYER_CHANGE
;0.2
G1 X96.649 Y81.742
G1 Z0.200
G1 E0.80000 F2100.00000
M204 S1000
G1 F1200
G1 X97.720 Y80.476 E0.05198
G1 X99.263 Y78.861 E0.07005
G1 X100.905 Y77.340 E0.07016
G1 X102.584 Y75.963 E0.06810
G1 X104.453 Y74.610 E0.07234
G1 X106.341 Y73.415 E0.07005
G1 X108.246 Y72.365 E0.06821
G1 X110.384 Y71.353 E0.07417
G1 X112.404 Y70.544 E0.06821
G1 X114.524 Y69.841 E0.07005
G1 X116.687 Y69.267 E0.07016
G1 X118.817 Y68.839 E0.06810
G1 X121.163 Y68.514 E0.07428
G1 X123.329 Y68.350 E0.06810
G1 X125.537 Y68.315 E0.06925
G1 X127.869 Y68.424 E0.07320
G1 X130.031 Y68.657 E0.06815
G1 X132.237 Y69.031 E0.07016
G1 X134.413 Y69.537 E0.07005
G1 X136.498 Y70.158 E0.06821
G1 X138.721 Y70.972 E0.07423
G1 X140.713 Y71.843 E0.06815
G1 X142.702 Y72.860 E0.07005
G1 X144.628 Y73.998 E0.07016
G1 X146.428 Y75.214 E0.06810
G1 X148.305 Y76.659 E0.07428
G1 X149.945 Y78.089 E0.06821
G1 X151.534 Y79.654 E0.06993
G1 X153.075 Y81.374 E0.07240
G1 X154.426 Y83.077 E0.06815
G1 X155.708 Y84.911 E0.07016
G1 X156.874 Y86.817 E0.07005
G1 X157.895 Y88.738 E0.06821
G1 X158.874 Y90.891 E0.07417
G1 X159.651 Y92.919 E0.06810
G1 X160.305 Y94.994 E0.06821
G1 X160.877 Y97.292 E0.07423
G1 X161.271 Y99.429 E0.06815
G1 X161.543 Y101.647 E0.07005
G1 X161.679 Y103.880 E0.07016
G1 X161.681 Y106.052 E0.06810
G1 X161.536 Y108.417 E0.07428
G1 X161.270 Y110.576 E0.06821
G1 X160.864 Y112.773 E0.07005
G1 X160.304 Y115.009 E0.07228
G1 X159.650 Y117.082 E0.06815
G1 X158.850 Y119.168 E0.07005
G1 X157.924 Y121.205 E0.07016
G1 X156.906 Y123.124 E0.06810
G1 X155.705 Y125.094 E0.07234
G1 X154.425 Y126.925 E0.07005
G1 X153.073 Y128.629 E0.06821
G1 X151.491 Y130.390 E0.07423
G1 X149.941 Y131.915 E0.06815
G1 X148.257 Y133.382 E0.07005
G1 X146.483 Y134.747 E0.07016
G1 X144.685 Y135.965 E0.06810
G1 X142.648 Y137.168 E0.07417
G1 X140.711 Y138.158 E0.06821
G1 X138.718 Y139.030 E0.06821
G1 X136.496 Y139.843 E0.07417
G1 X134.411 Y140.463 E0.06821
G1 X132.235 Y140.970 E0.07005
G1 X130.029 Y141.343 E0.07016
G1 X127.869 Y141.576 E0.06810
G1 X125.536 Y141.685 E0.07325
G1 X123.331 Y141.650 E0.06913
G1 X121.162 Y141.485 E0.06821
G1 X118.818 Y141.162 E0.07417
G1 X116.686 Y140.732 E0.06821
G1 X114.526 Y140.159 E0.07005
G1 X112.402 Y139.455 E0.07016
G1 X110.386 Y138.648 E0.06810
G1 X108.245 Y137.634 E0.07428
G1 X106.339 Y136.584 E0.06821
G1 X104.452 Y135.389 E0.07005
G1 X102.637 Y134.079 E0.07016
G1 X100.956 Y132.704 E0.06810
G1 X99.262 Y131.138 E0.07234
G1 X97.719 Y129.522 E0.07005
G1 X96.314 Y127.861 E0.06821
G1 X94.900 Y125.965 E0.07417
G1 X93.710 Y124.144 E0.06821
G1 X92.603 Y122.203 E0.07005
G1 X91.614 Y120.196 E0.07016
G1 X90.774 Y118.193 E0.06810
G1 X89.994 Y115.956 E0.07428
G1 X89.406 Y113.861 E0.06821
G1 X88.932 Y111.678 E0.07005
G1 X88.585 Y109.399 E0.07228
G1 X88.388 Y107.234 E0.06815
G1 X88.319 Y105.001 E0.07005
G1 X88.388 Y102.764 E0.07016
G1 X88.585 Y100.601 E0.06810
G1 X88.933 Y98.321 E0.07234
G1 X89.406 Y96.137 E0.07005
G1 X89.995 Y94.043 E0.06821
G1 X90.774 Y91.807 E0.07423
G1 X91.615 Y89.803 E0.06815
G1 X92.602 Y87.799 E0.07005
G1 X93.711 Y85.855 E0.07016
G1 X94.899 Y84.037 E0.06810
G1 X96.315 Y82.137 E0.07428
G1 X96.611 Y81.788 E0.01435
G1 F8640
G1 X97.720 Y80.476 E-0.39665
G1 X98.807 Y79.338 E-0.36335
G1 E-0.04000 F2100.00000
G1 Z0.800 F10800.000
G1 X121.436 Y80.363
G1 Z0.200
G1 E0.80000 F2100.00000
G1 F1200
G1 X121.436 Y79.637 E0.02278
G1 X121.583 Y78.925 E0.02278
G1 X121.869 Y78.258 E0.02278
G1 X122.284 Y77.662 E0.02278
G1 X122.810 Y77.161 E0.02278
G1 X123.427 Y76.777 E0.02278
G1 X124.108 Y76.524 E0.02278
G1 X124.813 Y76.417 E0.02236
G1 X125.551 Y76.451 E0.02315
G1 X126.255 Y76.633 E0.02281
G1 X126.907 Y76.953 E0.02278
G1 X127.481 Y77.398 E0.02278
G1 X127.955 Y77.949 E0.02278
G1 X128.307 Y78.584 E0.02278
G1 X128.525 Y79.277 E0.02278
G1 X128.598 Y80.000 E0.02278
G1 X128.525 Y80.723 E0.02278
G1 X128.307 Y81.416 E0.02278
G1 X127.955 Y82.051 E0.02278
G1 X127.481 Y82.602 E0.02278
G1 X126.907 Y83.047 E0.02278
G1 X126.255 Y83.367 E0.02278
G1 X125.552 Y83.549 E0.02278
G1 X124.826 Y83.585 E0.02278
G1 X124.108 Y83.475 E0.02278
G1 X123.427 Y83.223 E0.02278
G1 X122.810 Y82.839 E0.02278
G1 X122.284 Y82.338 E0.02278
G1 X121.869 Y81.742 E0.02278
G1 X121.583 Y81.075 E0.02278
G1 X121.448 Y80.422 E0.02089
G1 X121.818 Y80.346 F10800.000
G1 F1200
G1 X121.813 Y79.675 E0.02104
G1 X121.944 Y79.039 E0.02037
G1 X122.200 Y78.442 E0.02037
G1 X122.572 Y77.908 E0.02037
G1 X123.043 Y77.461 E0.02037
G1 X123.594 Y77.117 E0.02037
G1 X124.203 Y76.891 E0.02037
G1 X124.833 Y76.795 E0.01998
G1 X125.494 Y76.826 E0.02074
G1 X126.123 Y76.989 E0.02038
G1 X126.707 Y77.275 E0.02037
G1 X127.220 Y77.673 E0.02037
G1 X127.644 Y78.166 E0.02037
G1 X127.959 Y78.734 E0.02037
G1 X128.153 Y79.354 E0.02037
G1 X128.219 Y80.000 E0.02037
G1 X128.153 Y80.646 E0.02037
G1 X127.959 Y81.266 E0.02037
G1 X127.644 Y81.834 E0.02037
G1 X127.220 Y82.327 E0.02037
G1 X126.707 Y82.725 E0.02037
G1 X126.123 Y83.011 E0.02037
G1 X125.494 Y83.174 E0.02037
G1 X124.845 Y83.207 E0.02037
G1 X124.203 Y83.109 E0.02037
G1 X123.594 Y82.883 E0.02037
G1 X123.043 Y82.539 E0.02037
G1 X122.572 Y82.092 E0.02037
G1 X122.200 Y81.558 E0.02037
G1 X121.944 Y80.961 E0.02037
G1 X121.830 Y80.405 E0.01781
G1 X121.452 Y80.184 F10800.000
G1 F8640
G1 X121.813 Y79.675 E-0.16853
G1 X121.944 Y79.039 E-0.15002
G1 X122.200 Y78.442 E-0.15002
G1 X122.572 Y77.908 E-0.15002
G1 X123.015 Y77.486 E-0.14140
G1 E-0.04000 F2100.00000
G1 Z0.800 F10800.000
G1 X120.585 Y71.392
G1 Z0.200
G1 E0.80000 F2100.00000
G1 F1200
G1 X121.395 Y71.280 E0.02563
G1 X123.457 Y71.123 E0.06484
G1 X125.567 Y71.093 E0.06617
G1 X127.591 Y71.186 E0.06355
G1 X129.648 Y71.406 E0.06485
G1 X131.687 Y71.752 E0.06485
G1 X133.702 Y72.221 E0.06485
G1 X135.684 Y72.812 E0.06485
G1 X137.627 Y73.522 E0.06485
G1 X139.522 Y74.350 E0.06484
G1 X141.400 Y75.313 E0.06617
G1 X143.144 Y76.344 E0.06355
G1 X144.858 Y77.503 E0.06485
G1 X146.497 Y78.765 E0.06485
G1 X148.056 Y80.124 E0.06485
G1 X149.530 Y81.575 E0.06485
G1 X150.913 Y83.113 E0.06485
G1 X152.199 Y84.733 E0.06485
G1 X153.384 Y86.429 E0.06485
G1 X154.463 Y88.193 E0.06484
G1 X155.450 Y90.058 E0.06617
G1 X156.290 Y91.903 E0.06355
G1 X157.030 Y93.834 E0.06485
G1 X157.651 Y95.807 E0.06485
G1 X158.151 Y97.814 E0.06485
G1 X158.527 Y99.848 E0.06485
G1 X158.779 Y101.901 E0.06485
G1 X158.905 Y103.966 E0.06485
G1 X158.905 Y106.034 E0.06485
G1 X158.779 Y108.099 E0.06485
G1 X158.527 Y110.152 E0.06485
G1 X158.151 Y112.186 E0.06485
G1 X157.651 Y114.193 E0.06485
G1 X157.030 Y116.166 E0.06485
G1 X156.290 Y118.097 E0.06485
G1 X155.433 Y119.980 E0.06485
G1 X154.463 Y121.807 E0.06485
G1 X153.384 Y123.571 E0.06485
G1 X152.199 Y125.266 E0.06484
G1 X150.885 Y126.918 E0.06617
G1 X149.530 Y128.425 E0.06354
G1 X148.056 Y129.876 E0.06485
G1 X146.497 Y131.235 E0.06485
G1 X144.858 Y132.497 E0.06485
G1 X143.144 Y133.656 E0.06485
G1 X141.364 Y134.708 E0.06485
G1 X139.522 Y135.650 E0.06484
G1 X137.587 Y136.492 E0.06617
G1 X135.684 Y137.188 E0.06355
G1 X133.702 Y137.779 E0.06485
G1 X131.687 Y138.248 E0.06485
G1 X129.648 Y138.594 E0.06485
G1 X127.591 Y138.814 E0.06485
G1 X125.525 Y138.909 E0.06485
G1 X123.457 Y138.877 E0.06484
G1 X121.353 Y138.714 E0.06617
G1 X119.346 Y138.437 E0.06355
G1 X117.318 Y138.029 E0.06485
G1 X115.318 Y137.499 E0.06485
G1 X113.355 Y136.848 E0.06485
G1 X111.435 Y136.078 E0.06485
G1 X109.566 Y135.193 E0.06485
G1 X107.754 Y134.195 E0.06485
G1 X106.006 Y133.089 E0.06485
G1 X104.329 Y131.879 E0.06484
G1 X102.698 Y130.539 E0.06617
G1 X101.212 Y129.162 E0.06355
G1 X99.783 Y127.666 E0.06485
G1 X98.448 Y126.086 E0.06485
G1 X97.212 Y124.428 E0.06485
G1 X96.079 Y122.697 E0.06485
G1 X95.054 Y120.901 E0.06485
G1 X94.141 Y119.045 E0.06484
G1 X93.328 Y117.098 E0.06617
G1 X92.661 Y115.184 E0.06355
G1 X92.100 Y113.193 E0.06485
G1 X91.662 Y111.172 E0.06485
G1 X91.348 Y109.128 E0.06484
G1 X91.157 Y107.026 E0.06617
G1 X91.095 Y105.000 E0.06355
G1 X91.158 Y102.933 E0.06485
G1 X91.347 Y100.873 E0.06485
G1 X91.662 Y98.828 E0.06485
G1 X92.100 Y96.807 E0.06485
G1 X92.661 Y94.816 E0.06484
G1 X93.358 Y92.824 E0.06617
G1 X94.140 Y90.955 E0.06355
G1 X95.054 Y89.100 E0.06484
G1 X96.102 Y87.268 E0.06617
G1 X97.212 Y85.572 E0.06355
G1 X98.448 Y83.914 E0.06485
G1 X99.783 Y82.334 E0.06485
G1 X101.212 Y80.838 E0.06485
G1 X102.729 Y79.432 E0.06485
G1 X104.329 Y78.122 E0.06485
G1 X106.006 Y76.911 E0.06485
G1 X107.754 Y75.805 E0.06484
G1 X109.604 Y74.789 E0.06617
G1 X111.435 Y73.922 E0.06355
G1 X113.355 Y73.152 E0.06484
G1 X115.359 Y72.490 E0.06617
G1 X117.318 Y71.971 E0.06355
G1 X119.346 Y71.563 E0.06485
G1 X120.526 Y71.400 E0.03735
G1 X120.474 Y71.027 F10800.000
G1 F1200
G1 X121.354 Y70.905 E0.02787
G1 X123.440 Y70.746 E0.06557
G1 X125.573 Y70.716 E0.06689
G1 X127.620 Y70.810 E0.06426
G1 X129.700 Y71.033 E0.06557
G1 X131.762 Y71.382 E0.06558
G1 X133.799 Y71.856 E0.06558
G1 X135.803 Y72.454 E0.06558
G1 X137.767 Y73.172 E0.06558
G1 X139.684 Y74.009 E0.06557
G1 X141.582 Y74.983 E0.06689
G1 X143.346 Y76.026 E0.06426
G1 X145.078 Y77.198 E0.06558
G1 X146.736 Y78.473 E0.06557
G1 X148.313 Y79.847 E0.06558
G1 X149.803 Y81.314 E0.06557
G1 X151.201 Y82.870 E0.06557
G1 X152.501 Y84.508 E0.06558
G1 X153.699 Y86.222 E0.06558
G1 X154.791 Y88.006 E0.06557
G1 X155.789 Y89.892 E0.06689
G1 X156.637 Y91.757 E0.06426
G1 X157.386 Y93.710 E0.06558
G1 X158.014 Y95.705 E0.06557
G1 X158.519 Y97.734 E0.06558
G1 X158.900 Y99.791 E0.06557
G1 X159.154 Y101.867 E0.06558
G1 X159.282 Y103.954 E0.06558
G1 X159.282 Y106.046 E0.06558
G1 X159.154 Y108.133 E0.06558
G1 X158.900 Y110.209 E0.06558
G1 X158.519 Y112.266 E0.06557
G1 X158.014 Y114.295 E0.06558
G1 X157.386 Y116.290 E0.06557
G1 X156.637 Y118.243 E0.06558
G1 X155.771 Y120.146 E0.06558
G1 X154.791 Y121.994 E0.06558
G1 X153.699 Y123.778 E0.06558
G1 X152.501 Y125.492 E0.06557
G1 X151.173 Y127.161 E0.06689
G1 X149.803 Y128.686 E0.06426
G1 X148.313 Y130.153 E0.06558
G1 X146.736 Y131.527 E0.06558
G1 X145.078 Y132.802 E0.06557
G1 X143.346 Y133.974 E0.06558
G1 X141.546 Y135.038 E0.06558
G1 X139.684 Y135.991 E0.06557
G1 X137.728 Y136.842 E0.06689
G1 X135.803 Y137.546 E0.06426
G1 X133.799 Y138.144 E0.06558
G1 X131.762 Y138.618 E0.06558
G1 X129.700 Y138.967 E0.06558
G1 X127.620 Y139.190 E0.06557
G1 X125.531 Y139.286 E0.06558
G1 X123.440 Y139.254 E0.06557
G1 X121.313 Y139.089 E0.06689
G1 X119.283 Y138.809 E0.06426
G1 X117.232 Y138.397 E0.06558
G1 X115.211 Y137.860 E0.06558
G1 X113.226 Y137.202 E0.06558
G1 X111.284 Y136.424 E0.06558
G1 X109.394 Y135.529 E0.06558
G1 X107.562 Y134.520 E0.06558
G1 X105.795 Y133.402 E0.06558
G1 X104.099 Y132.178 E0.06557
G1 X102.450 Y130.824 E0.06689
G1 X100.947 Y129.431 E0.06426
G1 X99.502 Y127.918 E0.06558
G1 X98.153 Y126.321 E0.06558
G1 X96.903 Y124.644 E0.06557
G1 X95.757 Y122.894 E0.06558
G1 X94.721 Y121.078 E0.06557
G1 X93.797 Y119.201 E0.06557
G1 X92.976 Y117.233 E0.06689
G1 X92.301 Y115.297 E0.06426
G1 X91.734 Y113.284 E0.06557
G1 X91.291 Y111.240 E0.06558
G1 X90.973 Y109.173 E0.06557
G1 X90.781 Y107.049 E0.06689
G1 X90.718 Y105.000 E0.06426
G1 X90.782 Y102.910 E0.06558
G1 X90.973 Y100.827 E0.06558
G1 X91.291 Y98.760 E0.06557
G1 X91.734 Y96.716 E0.06558
G1 X92.301 Y94.703 E0.06557
G1 X93.006 Y92.689 E0.06689
G1 X93.797 Y90.799 E0.06426
G1 X94.721 Y88.922 E0.06557
G1 X95.780 Y87.071 E0.06689
G1 X96.903 Y85.356 E0.06426
G1 X98.153 Y83.679 E0.06558
G1 X99.502 Y82.081 E0.06558
G1 X100.947 Y80.569 E0.06558
G1 X102.481 Y79.148 E0.06558
G1 X104.099 Y77.823 E0.06558
G1 X105.795 Y76.598 E0.06558
G1 X107.562 Y75.480 E0.06557
G1 X109.432 Y74.453 E0.06689
G1 X111.284 Y73.576 E0.06426
G1 X113.225 Y72.798 E0.06557
G1 X115.251 Y72.129 E0.06689
G1 X117.232 Y71.603 E0.06426
G1 X119.283 Y71.191 E0.06558
G1 X120.415 Y71.035 E0.03583
G1 X120.724 Y71.339 F10800.000
G1 F8640
G1 X121.354 Y70.905 E-0.21908
G1 X123.440 Y70.746 E-0.48289
G1 X123.691 Y70.742 E-0.05804
G1 E-0.04000 F2100.00000
G1 Z0.800 F10800.000
G1 X126.599 Y76.676
G1 Z0.200
G1 E0.80000 F2100.00000
G1 F1200
G1 X121.480 Y71.557 E0.22741
G1 X121.008 Y71.619 E0.01497
G1 X125.557 Y76.168 E0.20209
G1 X124.996 Y76.142 E0.01763
G1 X120.539 Y71.684 E0.19805
G1 X120.069 Y71.749 E0.01489
G1 X124.499 Y76.179 E0.19679
G1 X124.036 Y76.250 E0.01472
G1 X119.600 Y71.814 E0.19708
G1 X119.144 Y71.892 E0.01453
G1 X123.646 Y76.394 E0.20000
G1 X123.263 Y76.546 E0.01293
G1 X118.699 Y71.982 E0.20276
G1 X118.254 Y72.071 E0.01426
G1 X122.934 Y76.751 E0.20791
G1 X122.610 Y76.961 E0.01213
G1 X117.809 Y72.161 E0.21329
G1 X117.365 Y72.251 E0.01423
G1 X122.336 Y77.222 E0.22084
G1 X122.063 Y77.483 E0.01187
G1 X116.943 Y72.363 E0.22749
G1 X116.521 Y72.475 E0.01372
G1 X121.844 Y77.798 E0.23651
G1 X121.625 Y78.113 E0.01206
G1 X116.098 Y72.587 E0.24553
G1 X115.676 Y72.699 E0.01372
G1 X121.463 Y78.486 E0.25711
G1 X121.307 Y78.864 E0.01284
G1 X115.263 Y72.820 E0.26850
G1 X114.861 Y72.953 E0.01329
G1 X121.215 Y79.307 E0.28230
G1 X121.154 Y79.608 E0.00966
G1 X121.154 Y79.779 E0.00538
G1 X114.460 Y73.085 E0.29739
G1 X114.058 Y73.218 E0.01329
G1 X121.154 Y80.314 E0.31524
G1 X121.154 Y80.392 E0.00246
G1 X121.271 Y80.966 E0.01840
G1 X113.656 Y73.351 E0.33832
G1 X113.265 Y73.493 E0.01309
G1 X156.508 Y116.737 E1.92117
G1 X156.360 Y117.123 E0.01299
G1 X112.883 Y73.646 E1.93153
G1 X112.502 Y73.799 E0.01291
G1 X156.212 Y117.509 E1.94190
G1 X156.064 Y117.895 E0.01299
G1 X112.120 Y73.952 E1.95227
M73 P1 R82
G1 X111.739 Y74.105 E0.01291
G1 X155.901 Y118.267 E1.96199
G1 X155.734 Y118.634 E0.01267
G1 X111.367 Y74.267 E1.97110
G1 X111.004 Y74.439 E0.01260
G1 X155.567 Y119.002 E1.97978
G1 X155.400 Y119.369 E0.01267
G1 X110.642 Y74.611 E1.98847
G1 X110.279 Y74.782 E0.01260
G1 X155.233 Y119.736 E1.99715
G1 X155.054 Y120.091 E0.01249
G1 X109.917 Y74.954 E2.00529
G1 X109.563 Y75.134 E0.01248
G1 X154.868 Y120.440 E2.01278
G1 X154.683 Y120.789 E0.01241
G1 X109.218 Y75.324 E2.01988
G1 X108.873 Y75.513 E0.01236
G1 X154.498 Y121.138 E2.02697
G1 X154.313 Y121.487 E0.01241
G1 X108.528 Y75.702 E2.03406
G1 X108.183 Y75.892 E0.01236
G1 X154.119 Y121.828 E2.04078
G1 X153.916 Y122.159 E0.01221
G1 X107.841 Y76.084 E2.04696
G1 X107.514 Y76.291 E0.01216
G1 X153.713 Y122.491 E2.05248
G1 X153.510 Y122.822 E0.01221
G1 X107.187 Y76.498 E2.05801
G1 X106.860 Y76.705 E0.01216
G1 X153.308 Y123.154 E2.06354
G1 X153.101 Y123.482 E0.01217
G1 X106.532 Y76.913 E2.06891
G1 X106.205 Y77.120 E0.01216
G1 X152.882 Y123.796 E2.07368
G1 X152.662 Y124.111 E0.01205
G1 X105.893 Y77.342 E2.07779
G1 X105.582 Y77.566 E0.01202
G1 X152.442 Y124.425 E2.08181
M73 P2 R81
G1 X152.222 Y124.739 E0.01205
G1 X105.272 Y77.790 E2.08583
G1 X104.962 Y78.014 E0.01202
G1 X152.002 Y125.054 E2.08985
G1 X151.972 Y125.097 E0.00165
G1 X151.768 Y125.354 E0.01031
G1 X104.652 Y78.238 E2.09322
G1 X104.350 Y78.470 E0.01197
G1 X151.531 Y125.651 E2.09611
