; generated by PrusaSlicer 2.0.0+win64 on 2019-08-18 at 00:21:46

; 

; external perimeters extrusion width = 0.45mm
; perimeters extrusion width = 0.45mm
; infill extrusion width = 0.45mm
; solid infill extrusion width = 0.45mm
; top infill extrusion width = 0.40mm
; first layer extrusion width = 0.42mm

M73 P0 R84
M201 X9000 Y9000 Z500 E10000 ; sets maximum accelerations, mm/sec^2
M203 X500 Y500 Z12 E120 ; sets maximum feedrates, mm/sec
M204 P2000 R1500 T2000 ; sets acceleration (P, T) and retract acceleration (R), mm/sec^2
M205 X10.00 Y10.00 Z0.20 E2.50 ; sets the jerk limits, mm/sec
M205 S0 T0 ; sets the minimum extruding and travel feed rate, mm/sec
M107
M115 U3.2.3 ; tell printer latest fw version
G90 ; use absolute coordinates
M83 ; extruder relative mode
M204 S2000 T1500 ; MK2 firmware only supports the old M204 format
M104 S215 ; set extruder temp
M140 S60 ; set bed temp
M190 S60 ; wait for bed temp
M109 S215 ; wait for extruder temp
G28 W ; home all without mesh bed level
G80 ; mesh bed leveling
G1 Y-3.0 F1000.0 ; go outside print area
G92 E0.0
G1 X60.0 E9.0  F1000.0 ; intro line
M73 P0 R84
G1 X100.0 E12.5 F1000.0 ; intro line
G92 E0.0
M900 K30 ; Filament gcode
G21 ; set units to millimeters
G90 ; use absolute coordinates
M83 ; use relative distances for extrusion
;BEFORE_LAYER_CHANGE
G92 E0.0
;0.2


G1 E-0.80000 F2100.00000
G1 Z0.600 F10800.000
;AFTER_LAYER_CHANGE
;0.2
G1 X96.269 Y81.419
G1 Z0.200
G1 E0.80000 F2100.00000
M204 S1000
G1 F1200
G1 X97.348 Y80.142 E0.05242
G1 X98.912 Y78.505 E0.07100
G1 X100.576 Y76.963 E0.07112
G1 X102.279 Y75.567 E0.06906
G1 X104.173 Y74.196 E0.07329
G1 X106.087 Y72.985 E0.07100
G1 X108.019 Y71.920 E0.06917
G1 X110.186 Y70.894 E0.07519
G1 X112.232 Y70.075 E0.06911
G1 X114.382 Y69.362 E0.07100
G1 X116.574 Y68.780 E0.07112
G1 X118.733 Y68.346 E0.06906
G1 X121.110 Y68.017 E0.07524
G1 X123.306 Y67.850 E0.06906
G1 X125.545 Y67.816 E0.07020
G1 X127.906 Y67.925 E0.07409
G1 X130.099 Y68.162 E0.06917
G1 X132.335 Y68.540 E0.07112
G1 X134.541 Y69.054 E0.07100
G1 X136.655 Y69.683 E0.06917
G1 X138.905 Y70.507 E0.07513
G1 X140.927 Y71.391 E0.06917
G1 X142.943 Y72.422 E0.07100
G1 X144.896 Y73.576 E0.07112
G1 X146.720 Y74.809 E0.06906
G1 X148.622 Y76.272 E0.07524
G1 X150.285 Y77.722 E0.06917
G1 X151.896 Y79.309 E0.07089
G1 X153.457 Y81.051 E0.07335
G1 X154.827 Y82.778 E0.06911
G1 X156.126 Y84.637 E0.07112
G1 X157.308 Y86.569 E0.07100
G1 X158.343 Y88.517 E0.06917
G1 X159.336 Y90.698 E0.07512
G1 X160.123 Y92.755 E0.06906
G1 X160.786 Y94.859 E0.06917
G1 X161.365 Y97.186 E0.07519
G1 X161.765 Y99.353 E0.06911
G1 X162.041 Y101.601 E0.07100
G1 X162.179 Y103.865 E0.07112
G1 X162.180 Y106.067 E0.06906
G1 X162.034 Y108.463 E0.07524
G1 X161.765 Y110.652 E0.06917
G1 X161.352 Y112.879 E0.07100
G1 X160.785 Y115.145 E0.07324
G1 X160.122 Y117.247 E0.06911
G1 X159.312 Y119.361 E0.07100
G1 X158.372 Y121.426 E0.07112
G1 X157.341 Y123.372 E0.06906
G1 X156.123 Y125.367 E0.07329
G1 X154.826 Y127.224 E0.07100
G1 X153.455 Y128.952 E0.06917
G1 X151.852 Y130.735 E0.07518
G1 X150.281 Y132.281 E0.06911
G1 X148.574 Y133.769 E0.07100
G1 X146.776 Y135.152 E0.07112
G1 X144.952 Y136.387 E0.06906
G1 X142.886 Y137.608 E0.07524
G1 X140.925 Y138.610 E0.06906
G1 X138.904 Y139.494 E0.06917
G1 X136.654 Y140.317 E0.07513
G1 X134.539 Y140.946 E0.06917
G1 X132.334 Y141.460 E0.07100
G1 X130.097 Y141.839 E0.07112
G1 X127.908 Y142.074 E0.06906
G1 X125.543 Y142.184 E0.07421
G1 X123.308 Y142.150 E0.07009
G1 X121.109 Y141.983 E0.06917
G1 X118.735 Y141.655 E0.07512
G1 X116.572 Y141.219 E0.06917
G1 X114.384 Y140.639 E0.07100
G1 X112.231 Y139.925 E0.07112
G1 X110.186 Y139.106 E0.06906
G1 X108.017 Y138.079 E0.07524
G1 X106.085 Y137.014 E0.06917
G1 X104.172 Y135.803 E0.07100
G1 X102.332 Y134.475 E0.07112
G1 X100.628 Y133.081 E0.06906
G1 X98.911 Y131.494 E0.07329
G1 X97.347 Y129.857 E0.07100
G1 X95.922 Y128.172 E0.06917
G1 X94.491 Y126.251 E0.07512
G1 X93.283 Y124.404 E0.06917
G1 X92.161 Y122.438 E0.07100
G1 X91.159 Y120.403 E0.07112
G1 X90.308 Y118.371 E0.06906
G1 X89.518 Y116.106 E0.07524
G1 X88.921 Y113.982 E0.06917
G1 X88.441 Y111.769 E0.07100
G1 X88.089 Y109.460 E0.07324
G1 X87.889 Y107.264 E0.06911
G1 X87.820 Y105.001 E0.07100
G1 X87.889 Y102.734 E0.07112
G1 X88.089 Y100.540 E0.06906
G1 X88.441 Y98.230 E0.07329
G1 X88.921 Y96.016 E0.07100
G1 X89.518 Y93.893 E0.06917
G1 X90.308 Y91.629 E0.07518
G1 X91.160 Y89.596 E0.06911
G1 X92.160 Y87.564 E0.07100
G1 X93.284 Y85.594 E0.07112
G1 X94.492 Y83.748 E0.06917
G1 X95.924 Y81.827 E0.07512
G1 X96.230 Y81.465 E0.01487
G1 F8640
G1 X97.348 Y80.142 E-0.39991
G1 X98.425 Y79.014 E-0.36009
G1 E-0.04000 F2100.00000
G1 Z0.800 F10800.000
G1 X121.436 Y80.363
G1 Z0.200
G1 E0.80000 F2100.00000
G1 F1200
G1 X121.436 Y79.637 E0.02278
G1 X121.583 Y78.925 E0.02278
G1 X121.869 Y78.258 E0.02278
G1 X122.284 Y77.662 E0.02278
G1 X122.811 Y77.161 E0.02278
G1 X123.428 Y76.776 E0.02281
G1 X124.121 Y76.522 E0.02315
G1 X124.826 Y76.415 E0.02236
G1 X125.552 Y76.451 E0.02278
G1 X126.255 Y76.633 E0.02278
G1 X126.907 Y76.953 E0.02278
G1 X127.482 Y77.398 E0.02278
G1 X127.955 Y77.949 E0.02278
G1 X128.307 Y78.584 E0.02278
G1 X128.525 Y79.277 E0.02278
G1 X128.598 Y80.000 E0.02278
G1 X128.525 Y80.723 E0.02278
G1 X128.307 Y81.416 E0.02278
G1 X127.955 Y82.051 E0.02278
G1 X127.482 Y82.602 E0.02278
G1 X126.907 Y83.047 E0.02278
G1 X126.255 Y83.367 E0.02278
G1 X125.552 Y83.549 E0.02278
G1 X124.826 Y83.585 E0.02278
G1 X124.108 Y83.475 E0.02278
G1 X123.427 Y83.223 E0.02278
G1 X122.811 Y82.839 E0.02278
G1 X122.284 Y82.338 E0.02278
G1 X121.869 Y81.742 E0.02278
G1 X121.583 Y81.075 E0.02278
G1 X121.449 Y80.422 E0.02089
G1 X121.818 Y80.346 F10800.000
G1 F1200
G1 X121.814 Y79.675 E0.02104
G1 X121.944 Y79.039 E0.02037
G1 X122.201 Y78.442 E0.02037
G1 X122.572 Y77.908 E0.02037
G1 X123.043 Y77.461 E0.02037
G1 X123.594 Y77.117 E0.02038
G1 X124.216 Y76.890 E0.02074
G1 X124.845 Y76.793 E0.01998
G1 X125.494 Y76.826 E0.02037
G1 X126.123 Y76.989 E0.02037
G1 X126.707 Y77.275 E0.02037
G1 X127.220 Y77.673 E0.02037
G1 X127.644 Y78.166 E0.02037
G1 X127.959 Y78.734 E0.02037
G1 X128.153 Y79.354 E0.02037
G1 X128.219 Y80.000 E0.02037
G1 X128.153 Y80.646 E0.02037
G1 X127.959 Y81.266 E0.02037
G1 X127.644 Y81.834 E0.02037
G1 X127.220 Y82.327 E0.02037
G1 X126.707 Y82.725 E0.02037
G1 X126.123 Y83.011 E0.02037
G1 X125.494 Y83.174 E0.02037
G1 X124.845 Y83.207 E0.02037
G1 X124.203 Y83.109 E0.02037
G1 X123.594 Y82.883 E0.02037
G1 X123.043 Y82.539 E0.02037
G1 X122.572 Y82.092 E0.02037
G1 X122.201 Y81.558 E0.02037
G1 X121.944 Y80.961 E0.02037
G1 X121.830 Y80.405 E0.01781
G1 X121.452 Y80.184 F10800.000
G1 F8640
G1 X121.814 Y79.675 E-0.16853
G1 X121.944 Y79.039 E-0.15002
G1 X122.201 Y78.442 E-0.15002
G1 X122.572 Y77.908 E-0.15002
G1 X123.016 Y77.486 E-0.14140
G1 E-0.04000 F2100.00000
G1 Z0.800 F10800.000
G1 X120.517 Y70.897
G1 Z0.200
G1 E0.80000 F2100.00000
G1 F1200
G1 X121.341 Y70.783 E0.02610
G1 X123.434 Y70.623 E0.06580
G1 X125.575 Y70.593 E0.06715
G1 X127.630 Y70.687 E0.06448
G1 X129.717 Y70.911 E0.06581
G1 X131.786 Y71.261 E0.06581
G1 X133.830 Y71.737 E0.06580
G1 X135.881 Y72.352 E0.06715
G1 X137.813 Y73.058 E0.06448
G1 X139.736 Y73.898 E0.06581
G1 X141.605 Y74.854 E0.06581
G1 X143.412 Y75.922 E0.06581
G1 X145.150 Y77.098 E0.06581
G1 X146.814 Y78.378 E0.06581
G1 X148.396 Y79.757 E0.06581
G1 X149.892 Y81.230 E0.06581
G1 X151.295 Y82.791 E0.06581
G1 X152.600 Y84.435 E0.06581
G1 X153.802 Y86.155 E0.06581
G1 X154.897 Y87.945 E0.06581
G1 X155.882 Y89.799 E0.06581
G1 X156.751 Y91.710 E0.06581
G1 X157.502 Y93.669 E0.06580
G1 X158.143 Y95.713 E0.06715
G1 X158.639 Y97.708 E0.06448
G1 X159.021 Y99.772 E0.06581
G1 X159.277 Y101.856 E0.06581
G1 X159.405 Y103.951 E0.06581
G1 X159.405 Y106.049 E0.06581
G1 X159.277 Y108.144 E0.06581
G1 X159.021 Y110.228 E0.06581
G1 X158.639 Y112.292 E0.06581
G1 X158.132 Y114.328 E0.06581
G1 X157.502 Y116.330 E0.06581
G1 X156.751 Y118.290 E0.06581
G1 X155.882 Y120.200 E0.06580
G1 X154.875 Y122.091 E0.06715
G1 X153.802 Y123.845 E0.06448
G1 X152.600 Y125.565 E0.06581
G1 X151.295 Y127.209 E0.06581
G1 X149.892 Y128.770 E0.06581
G1 X148.397 Y130.243 E0.06580
G1 X146.780 Y131.648 E0.06715
G1 X145.150 Y132.902 E0.06448
G1 X143.412 Y134.078 E0.06581
G1 X141.605 Y135.146 E0.06581
G1 X139.736 Y136.102 E0.06581
G1 X137.813 Y136.942 E0.06581
G1 X135.842 Y137.663 E0.06581
G1 X133.830 Y138.263 E0.06581
G1 X131.786 Y138.739 E0.06581
G1 X129.717 Y139.089 E0.06580
G1 X127.587 Y139.315 E0.06715
G1 X125.533 Y139.409 E0.06448
G1 X123.434 Y139.377 E0.06581
G1 X121.341 Y139.217 E0.06581
G1 X119.262 Y138.930 E0.06581
G1 X117.204 Y138.516 E0.06581
G1 X115.176 Y137.978 E0.06581
G1 X113.184 Y137.317 E0.06581
G1 X111.235 Y136.536 E0.06581
G1 X109.338 Y135.638 E0.06581
G1 X107.500 Y134.626 E0.06581
G1 X105.726 Y133.503 E0.06581
G1 X104.024 Y132.275 E0.06581
G1 X102.401 Y130.945 E0.06581
G1 X100.861 Y129.518 E0.06581
G1 X99.411 Y128.001 E0.06581
G1 X98.057 Y126.397 E0.06581
G1 X96.802 Y124.714 E0.06581
G1 X95.653 Y122.958 E0.06581
G1 X94.613 Y121.135 E0.06581
G1 X93.686 Y119.252 E0.06581
G1 X92.875 Y117.316 E0.06581
G1 X92.184 Y115.334 E0.06581
G1 X91.615 Y113.314 E0.06581
G1 X91.170 Y111.263 E0.06581
G1 X90.851 Y109.188 E0.06581
G1 X90.660 Y107.098 E0.06581
G1 X90.595 Y105.000 E0.06581
G1 X90.660 Y102.902 E0.06581
G1 X90.851 Y100.812 E0.06581
G1 X91.170 Y98.737 E0.06581
G1 X91.615 Y96.686 E0.06581
G1 X92.184 Y94.666 E0.06581
G1 X92.875 Y92.684 E0.06580
G1 X93.704 Y90.710 E0.06715
G1 X94.613 Y88.865 E0.06448
G1 X95.653 Y87.042 E0.06581
G1 X96.802 Y85.286 E0.06581
G1 X98.057 Y83.603 E0.06581
G1 X99.411 Y81.999 E0.06581
G1 X100.861 Y80.482 E0.06581
G1 X102.401 Y79.055 E0.06581
G1 X104.024 Y77.725 E0.06581
G1 X105.726 Y76.497 E0.06581
G1 X107.500 Y75.374 E0.06581
G1 X109.338 Y74.362 E0.06581
G1 X111.235 Y73.464 E0.06581
G1 X113.184 Y72.683 E0.06581
G1 X115.176 Y72.022 E0.06581
G1 X117.204 Y71.484 E0.06581
G1 X119.262 Y71.070 E0.06581
G1 X120.457 Y70.905 E0.03783
G1 X120.406 Y70.532 F10800.000
G1 F1200
G1 X121.301 Y70.408 E0.02835
G1 X123.417 Y70.247 E0.06653
G1 X125.581 Y70.216 E0.06787
G1 X127.658 Y70.311 E0.06520
G1 X129.768 Y70.537 E0.06653
G1 X131.860 Y70.892 E0.06653
G1 X133.927 Y71.373 E0.06653
G1 X136.000 Y71.994 E0.06787
G1 X137.953 Y72.708 E0.06520
G1 X139.898 Y73.557 E0.06653
G1 X141.787 Y74.524 E0.06653
G1 X143.614 Y75.603 E0.06653
G1 X145.371 Y76.792 E0.06653
G1 X147.053 Y78.086 E0.06653
G1 X148.653 Y79.480 E0.06653
G1 X150.165 Y80.969 E0.06653
G1 X151.583 Y82.547 E0.06653
G1 X152.902 Y84.209 E0.06653
G1 X154.118 Y85.948 E0.06653
G1 X155.225 Y87.758 E0.06653
G1 X156.220 Y89.633 E0.06653
G1 X157.099 Y91.564 E0.06653
G1 X157.858 Y93.545 E0.06653
G1 X158.506 Y95.611 E0.06787
G1 X159.008 Y97.628 E0.06520
G1 X159.394 Y99.715 E0.06653
G1 X159.652 Y101.821 E0.06653
G1 X159.782 Y103.939 E0.06653
G1 X159.782 Y106.061 E0.06653
G1 X159.652 Y108.179 E0.06653
G1 X159.394 Y110.285 E0.06653
G1 X159.008 Y112.372 E0.06653
G1 X158.495 Y114.431 E0.06653
G1 X157.858 Y116.455 E0.06653
G1 X157.099 Y118.436 E0.06653
G1 X156.220 Y120.367 E0.06653
G1 X155.203 Y122.278 E0.06787
G1 X154.118 Y124.052 E0.06520
G1 X152.902 Y125.791 E0.06653
G1 X151.583 Y127.453 E0.06653
G1 X150.165 Y129.031 E0.06653
G1 X148.653 Y130.520 E0.06653
G1 X147.019 Y131.940 E0.06787
G1 X145.371 Y133.208 E0.06520
G1 X143.614 Y134.397 E0.06653
G1 X141.787 Y135.476 E0.06653
G1 X139.898 Y136.443 E0.06653
G1 X137.953 Y137.292 E0.06653
G1 X135.960 Y138.021 E0.06653
G1 X133.927 Y138.627 E0.06653
G1 X131.860 Y139.108 E0.06653
G1 X129.768 Y139.463 E0.06653
G1 X127.616 Y139.691 E0.06787
G1 X125.539 Y139.786 E0.06520
G1 X123.417 Y139.753 E0.06653
G1 X121.301 Y139.592 E0.06653
G1 X119.199 Y139.302 E0.06653
G1 X117.119 Y138.884 E0.06653
G1 X115.068 Y138.340 E0.06653
G1 X113.054 Y137.672 E0.06653
G1 X111.084 Y136.882 E0.06653
G1 X109.167 Y135.974 E0.06653
G1 X107.308 Y134.951 E0.06653
G1 X105.515 Y133.816 E0.06653
G1 X103.794 Y132.574 E0.06653
G1 X102.153 Y131.229 E0.06653
G1 X100.596 Y129.787 E0.06653
G1 X99.131 Y128.253 E0.06653
G1 X97.761 Y126.632 E0.06653
G1 X96.493 Y124.931 E0.06653
G1 X95.331 Y123.155 E0.06653
G1 X94.279 Y121.312 E0.06653
G1 X93.342 Y119.408 E0.06653
G1 X92.523 Y117.451 E0.06653
G1 X91.824 Y115.447 E0.06653
G1 X91.249 Y113.405 E0.06653
G1 X90.799 Y111.331 E0.06653
G1 X90.477 Y109.234 E0.06653
G1 X90.283 Y107.121 E0.06653
G1 X90.218 Y105.000 E0.06653
G1 X90.283 Y102.879 E0.06653
G1 X90.477 Y100.766 E0.06653
G1 X90.799 Y98.669 E0.06653
G1 X91.249 Y96.595 E0.06653
G1 X91.824 Y94.553 E0.06653
G1 X92.523 Y92.549 E0.06653
G1 X93.361 Y90.553 E0.06787
G1 X94.279 Y88.688 E0.06520
G1 X95.331 Y86.845 E0.06653
G1 X96.493 Y85.069 E0.06653
G1 X97.761 Y83.368 E0.06653
G1 X99.131 Y81.747 E0.06653
G1 X100.596 Y80.213 E0.06653
G1 X102.153 Y78.771 E0.06653
G1 X103.794 Y77.426 E0.06653
G1 X105.515 Y76.184 E0.06653
G1 X107.308 Y75.049 E0.06653
G1 X109.167 Y74.026 E0.06653
G1 X111.084 Y73.118 E0.06653
G1 X113.054 Y72.328 E0.06653
G1 X115.068 Y71.660 E0.06653
G1 X117.119 Y71.116 E0.06653
G1 X119.199 Y70.698 E0.06653
G1 X120.346 Y70.540 E0.03630
G1 X120.655 Y70.844 F10800.000
G1 F8640
G1 X121.301 Y70.408 E-0.22260
G1 X123.417 Y70.247 E-0.48993
G1 X123.622 Y70.244 E-0.04747
G1 E-0.04000 F2100.00000
G1 Z0.800 F10800.000
G1 X140.565 Y74.449
G1 Z0.200
G1 E0.80000 F2100.00000
G1 F1200
G1 X155.571 Y89.455 E0.66901
G1 F8640
G1 X153.243 Y87.127 E-0.76000
G1 E-0.04000 F2100.00000
G1 Z0.800 F10800.000
G1 X156.073 Y90.493
G1 Z0.200
G1 E0.80000 F2100.00000
G1 F1200
G1 X139.858 Y74.278 E0.72296
G1 X138.874 Y73.830 E0.03409
G1 X156.179 Y91.135 E0.77155
G1 X156.490 Y91.819 E0.02368
G1 X156.592 Y92.084 E0.00895
G1 X137.922 Y73.415 E0.83240
G1 X137.052 Y73.081 E0.02936
G1 X156.925 Y92.954 E0.88602
G1 X157.252 Y93.817 E0.02910
G1 X136.207 Y72.772 E0.93831
G1 X135.792 Y72.620 E0.01391
G1 X135.402 Y72.503 E0.01284
G1 X157.497 Y94.598 E0.98510
G1 X157.742 Y95.379 E0.02581
G1 X134.637 Y72.274 E1.03015
G1 X133.871 Y72.045 E0.02519
G1 X157.955 Y96.128 E1.07377
G1 X158.132 Y96.842 E0.02320
G1 X133.162 Y71.872 E1.11330
G1 X132.463 Y71.710 E0.02262
G1 X158.310 Y97.556 E1.15239
G1 X158.449 Y98.231 E0.02171
G1 X131.764 Y71.547 E1.18972
G1 X131.116 Y71.435 E0.02074
G1 X158.570 Y98.889 E1.22405
M73 P1 R83
G1 X158.692 Y99.547 E0.02110
G1 X130.471 Y71.326 E1.25826
G1 X129.825 Y71.216 E0.02064
G1 X158.786 Y100.177 E1.29123
G1 X158.861 Y100.788 E0.01941
G1 X129.214 Y71.142 E1.32181
G1 X128.614 Y71.077 E0.01904
G1 X158.936 Y101.399 E1.35192
G1 X159.002 Y102.002 E0.01912
G1 X128.013 Y71.013 E1.38166
G1 X127.425 Y70.961 E0.01861
G1 X159.037 Y102.573 E1.40944
G1 X159.072 Y103.144 E0.01804
G1 X126.863 Y70.935 E1.43604
G1 X126.301 Y70.910 E0.01773
G1 X159.107 Y103.715 E1.46265
G1 X159.122 Y104.266 E0.01738
G1 X125.740 Y70.884 E1.48837
G1 X125.201 Y70.881 E0.01698
G1 X159.122 Y104.803 E1.51239
G1 X159.122 Y105.339 E0.01690
G1 X124.672 Y70.889 E1.53597
G1 X124.143 Y70.896 E0.01667
G1 X159.122 Y105.875 E1.55954
G1 X159.101 Y106.390 E0.01625
G1 X123.615 Y70.904 E1.58217
G1 X123.107 Y70.932 E0.01604
G1 X159.070 Y106.895 E1.60343
G1 X159.039 Y107.400 E0.01596
G1 X122.609 Y70.970 E1.62427
G1 X122.110 Y71.008 E0.01575
G1 X159.008 Y107.906 E1.64510
G1 X158.961 Y108.395 E0.01550
G1 X121.612 Y71.046 E1.66522
G1 X121.128 Y71.098 E0.01535
G1 X126.438 Y76.408 E0.23675
G1 X126.354 Y76.367 E0.00296
G1 X125.688 Y76.194 E0.02168
G1 X120.657 Y71.163 E0.22432
G1 X120.186 Y71.228 E0.01499
G1 X125.103 Y76.145 E0.21923
G1 X124.812 Y76.131 E0.00918
G1 X124.586 Y76.165 E0.00719
G1 X119.715 Y71.293 E0.21721
G1 X119.247 Y71.362 E0.01490
G1 X124.121 Y76.236 E0.21733
G1 X123.718 Y76.369 E0.01339
G1 X118.800 Y71.452 E0.21924
G1 X118.354 Y71.541 E0.01436
G1 X123.325 Y76.513 E0.22165
G1 X122.991 Y76.715 E0.01231
G1 X117.907 Y71.631 E0.22667
G1 X117.461 Y71.721 E0.01436
G1 X122.661 Y76.921 E0.23185
G1 X122.382 Y77.178 E0.01196
G1 X117.027 Y71.823 E0.23875
G1 X116.604 Y71.936 E0.01382
G1 X122.107 Y77.439 E0.24538
G1 X121.879 Y77.748 E0.01209
G1 X116.180 Y72.048 E0.25412
G1 X115.756 Y72.161 E0.01382
G1 X121.659 Y78.064 E0.26321
G1 X121.488 Y78.429 E0.01271
G1 X115.332 Y72.273 E0.27446
