; generated by PrusaSlicer 2.0.0+win64 on 2019-08-18 at 13:05:18

; 

; external perimeters extrusion width = 0.45mm
; perimeters extrusion width = 0.45mm
; infill extrusion width = 0.45mm
; solid infill extrusion width = 0.45mm
; top infill extrusion width = 0.40mm
; first layer extrusion width = 0.42mm

M73 P0 R5
M201 X9000 Y9000 Z500 E10000 ; sets maximum accelerations, mm/sec^2
M203 X500 Y500 Z12 E120 ; sets maximum feedrates, mm/sec
M204 P2000 R1500 T2000 ; sets acceleration (P, T) and retract acceleration (R), mm/sec^2
M205 X10.00 Y10.00 Z0.20 E2.50 ; sets the jerk limits, mm/sec
M205 S0 T0 ; sets the minimum extruding and travel feed rate, mm/sec
M107
M115 U3.2.3 ; tell printer latest fw version
G90 ; use absolute coordinates
M83 ; extruder relative mode
M204 S2000 T1500 ; MK2 firmware only supports the old M204 format
M104 S215 ; set extruder temp
M140 S60 ; set bed temp
M190 S60 ; wait for bed temp
M109 S215 ; wait for extruder temp
G28 W ; home all without mesh bed level
G80 ; mesh bed leveling
G1 Y-3.0 F1000.0 ; go outside print area
G92 E0.0
G1 X60.0 E9.0  F1000.0 ; intro line
M73 P1 R5
G1 X100.0 E12.5 F1000.0 ; intro line
G92 E0.0
M900 K30 ; Filament gcode
G21 ; set units to millimeters
G90 ; use absolute coordinates
M83 ; use relative distances for extrusion
;BEFORE_LAYER_CHANGE
G92 E0.0
;0.2


G1 E-0.80000 F2100.00000
G1 Z0.600 F10800.000
;AFTER_LAYER_CHANGE
;0.2
G1 X97.002 Y80.532
G1 Z0.200
G1 E0.80000 F2100.00000
M204 S1000
G1 F1200
G1 X98.516 Y78.901 E0.06976
G1 X100.124 Y77.363 E0.06976
G1 X101.773 Y75.964 E0.06782
G1 X103.656 Y74.553 E0.07375
G1 X105.459 Y73.364 E0.06772
G1 X107.386 Y72.252 E0.06976
G1 X109.376 Y71.257 E0.06976
G1 X111.361 Y70.407 E0.06770
G1 X113.576 Y69.613 E0.07377
G1 X115.652 Y69.008 E0.06782
G1 X117.821 Y68.512 E0.06976
G1 X120.016 Y68.148 E0.06976
G1 X122.164 Y67.921 E0.06770
G1 X124.488 Y67.815 E0.07297
G1 X126.677 Y67.849 E0.06862
G1 X128.834 Y68.010 E0.06782
G1 X131.164 Y68.326 E0.07375
G1 X133.283 Y68.744 E0.06772
G1 X135.437 Y69.304 E0.06976
G1 X137.549 Y69.990 E0.06965
G1 X139.567 Y70.781 E0.06793
G1 X141.698 Y71.768 E0.07366
G1 X143.602 Y72.794 E0.06782
G1 X145.495 Y73.964 E0.06976
G1 X147.315 Y75.244 E0.06976
G1 X149.006 Y76.592 E0.06782
G1 X150.754 Y78.166 E0.07375
G1 X152.269 Y79.706 E0.06772
G1 X153.733 Y81.381 E0.06976
G1 X155.094 Y83.141 E0.06976
G1 X156.311 Y84.925 E0.06770
G1 X157.518 Y86.945 E0.07377
G1 X158.514 Y88.865 E0.06782
G1 X159.419 Y90.897 E0.06976
G1 X160.199 Y92.977 E0.06965
G1 X160.839 Y95.047 E0.06793
G1 X161.396 Y97.332 E0.07375
G1 X161.781 Y99.458 E0.06772
G1 X162.047 Y101.667 E0.06976
G1 X162.180 Y103.888 E0.06976
G1 X162.181 Y106.047 E0.06770
G1 X162.040 Y108.396 E0.07377
G1 X161.781 Y110.543 E0.06782
G1 X161.384 Y112.732 E0.06976
G1 X160.856 Y114.894 E0.06976
G1 X160.220 Y116.961 E0.06782
G1 X159.394 Y119.160 E0.07366
G1 X158.513 Y121.136 E0.06782
G1 X157.488 Y123.111 E0.06976
G1 X156.347 Y125.021 E0.06976
G1 X155.132 Y126.805 E0.06770
G1 X153.693 Y128.667 E0.07377
G1 X152.269 Y130.295 E0.06782
G1 X150.710 Y131.877 E0.06965
G1 X149.003 Y133.410 E0.07192
G1 X147.314 Y134.756 E0.06772
G1 X145.495 Y136.037 E0.06976
G1 X143.605 Y137.205 E0.06965
G1 X141.698 Y138.232 E0.06793
G1 X139.563 Y139.221 E0.07375
G1 X137.552 Y140.009 E0.06772
G1 X135.436 Y140.696 E0.06976
G1 X133.283 Y141.256 E0.06976
G1 X131.164 Y141.674 E0.06770
G1 X128.833 Y141.990 E0.07377
G1 X126.676 Y142.151 E0.06782
G1 X124.484 Y142.185 E0.06873
G1 X122.164 Y142.079 E0.07284
G1 X120.016 Y141.852 E0.06772
G1 X117.821 Y141.487 E0.06976
G1 X115.651 Y140.992 E0.06976
G1 X113.575 Y140.387 E0.06782
G1 X111.361 Y139.593 E0.07375
G1 X109.375 Y138.743 E0.06772
G1 X107.385 Y137.748 E0.06976
G1 X105.458 Y136.635 E0.06976
G1 X103.656 Y135.447 E0.06770
G1 X101.773 Y134.036 E0.07377
G1 X100.124 Y132.636 E0.06782
G1 X98.515 Y131.099 E0.06976
G1 X97.002 Y129.468 E0.06976
G1 X95.628 Y127.797 E0.06782
G1 X94.245 Y125.894 E0.07375
G1 X93.083 Y124.074 E0.06772
G1 X92.000 Y122.130 E0.06976
G1 X91.034 Y120.126 E0.06976
G1 X90.215 Y118.128 E0.06770
G1 X89.454 Y115.902 E0.07377
G1 X88.879 Y113.816 E0.06782
G1 X88.418 Y111.644 E0.06965
G1 X88.078 Y109.375 E0.07192
G1 X87.886 Y107.224 E0.06772
G1 X87.819 Y105.000 E0.06976
G1 X87.886 Y102.776 E0.06976
G1 X88.079 Y100.621 E0.06782
G1 X88.430 Y98.295 E0.07375
G1 X88.880 Y96.183 E0.06772
G1 X89.472 Y94.038 E0.06976
G1 X90.191 Y91.933 E0.06976
G1 X91.009 Y89.934 E0.06770
G1 X92.029 Y87.814 E0.07377
G1 X93.084 Y85.926 E0.06782
G1 X94.279 Y84.054 E0.06965
G1 X95.630 Y82.200 E0.07192
G1 X96.964 Y80.578 E0.06584
G1 F8640
G1 X98.516 Y78.901 E-0.52760
G1 X99.243 Y78.205 E-0.23240
G1 E-0.04000 F2100.00000
G1 Z0.800 F10800.000
G1 X101.147 Y84.320
G1 Z0.200
G1 E0.80000 F2100.00000
G1 F1200
G1 X102.147 Y83.202 E0.04704
G1 X103.576 Y81.796 E0.06285
G1 X105.090 Y80.484 E0.06285
G1 X106.685 Y79.270 E0.06285
G1 X108.354 Y78.159 E0.06285
G1 X109.790 Y77.330 E0.05198
G1 X110.090 Y77.157 E0.01086
G1 X111.886 Y76.267 E0.06285
G1 X113.735 Y75.493 E0.06285
G1 X115.629 Y74.837 E0.06285
G1 X117.561 Y74.303 E0.06285
G1 X119.523 Y73.893 E0.06285
G1 X121.507 Y73.607 E0.06285
G1 X123.505 Y73.448 E0.06285
G1 X125.509 Y73.417 E0.06285
G1 X127.511 Y73.512 E0.06285
G1 X129.503 Y73.734 E0.06285
G1 X131.477 Y74.082 E0.06285
G1 X133.425 Y74.555 E0.06285
G1 X135.339 Y75.150 E0.06285
G1 X137.211 Y75.865 E0.06285
G1 X139.035 Y76.698 E0.06285
G1 X140.802 Y77.645 E0.06285
G1 X142.505 Y78.701 E0.06285
G1 X144.137 Y79.864 E0.06285
G1 X145.693 Y81.128 E0.06285
G1 X147.166 Y82.488 E0.06285
G1 X148.549 Y83.939 E0.06285
G1 X149.837 Y85.474 E0.06285
G1 X151.026 Y87.088 E0.06285
G1 X152.109 Y88.774 E0.06285
G1 X153.084 Y90.526 E0.06285
G1 X153.945 Y92.336 E0.06285
G1 X154.690 Y94.196 E0.06285
G1 X155.316 Y96.101 E0.06285
G1 X155.819 Y98.041 E0.06285
G1 X156.198 Y100.009 E0.06285
G1 X156.452 Y101.997 E0.06285
G1 X156.579 Y103.998 E0.06285
G1 X156.579 Y106.002 E0.06285
G1 X156.452 Y108.003 E0.06285
G1 X156.198 Y109.991 E0.06285
G1 X155.819 Y111.959 E0.06285
G1 X155.316 Y113.899 E0.06285
G1 X154.690 Y115.804 E0.06285
G1 X153.945 Y117.664 E0.06285
G1 X153.084 Y119.474 E0.06285
G1 X152.109 Y121.226 E0.06285
G1 X151.026 Y122.912 E0.06285
G1 X149.837 Y124.526 E0.06285
G1 X148.549 Y126.061 E0.06285
G1 X147.166 Y127.512 E0.06285
G1 X145.693 Y128.872 E0.06285
G1 X144.137 Y130.136 E0.06285
G1 X142.505 Y131.299 E0.06285
G1 X140.802 Y132.355 E0.06285
G1 X139.035 Y133.302 E0.06285
G1 X137.211 Y134.135 E0.06285
G1 X135.339 Y134.850 E0.06285
G1 X133.425 Y135.445 E0.06285
G1 X131.477 Y135.918 E0.06285
G1 X129.503 Y136.266 E0.06285
G1 X127.511 Y136.488 E0.06285
G1 X125.509 Y136.583 E0.06285
G1 X123.505 Y136.552 E0.06285
G1 X121.507 Y136.393 E0.06285
G1 X119.523 Y136.107 E0.06285
G1 X117.561 Y135.697 E0.06285
G1 X115.629 Y135.163 E0.06285
G1 X113.735 Y134.507 E0.06285
G1 X111.886 Y133.733 E0.06285
G1 X110.090 Y132.843 E0.06285
G1 X108.354 Y131.841 E0.06285
G1 X106.685 Y130.730 E0.06285
G1 X105.090 Y129.516 E0.06285
G1 X103.576 Y128.204 E0.06285
G1 X102.147 Y126.798 E0.06285
G1 X100.810 Y125.304 E0.06285
G1 X99.571 Y123.728 E0.06285
G1 X98.435 Y122.077 E0.06285
G1 X97.405 Y120.358 E0.06285
G1 X96.487 Y118.576 E0.06285
G1 X95.683 Y116.740 E0.06285
G1 X94.998 Y114.856 E0.06285
G1 X94.433 Y112.933 E0.06285
G1 X93.991 Y110.978 E0.06285
G1 X93.675 Y108.999 E0.06285
G1 X93.484 Y107.003 E0.06285
G1 X93.420 Y105.000 E0.06285
G1 X93.484 Y102.997 E0.06285
G1 X93.675 Y101.001 E0.06285
G1 X93.991 Y99.022 E0.06285
G1 X94.433 Y97.067 E0.06285
G1 X94.998 Y95.144 E0.06285
G1 X95.683 Y93.260 E0.06285
G1 X96.487 Y91.424 E0.06285
G1 X97.405 Y89.642 E0.06285
G1 X98.435 Y87.923 E0.06285
G1 X99.571 Y86.272 E0.06285
G1 X100.810 Y84.696 E0.06285
G1 X101.107 Y84.365 E0.01393
G1 X101.388 Y84.616 F10800.000
G1 F1200
G1 X102.420 Y83.463 E0.04854
G1 X103.831 Y82.073 E0.06210
G1 X105.328 Y80.776 E0.06210
G1 X106.904 Y79.577 E0.06210
G1 X108.553 Y78.480 E0.06210
G1 X109.978 Y77.657 E0.05161
G1 X110.268 Y77.490 E0.01049
G1 X112.043 Y76.610 E0.06210
G1 X113.869 Y75.845 E0.06210
G1 X115.741 Y75.197 E0.06210
G1 X117.650 Y74.670 E0.06210
G1 X119.588 Y74.264 E0.06210
G1 X121.549 Y73.982 E0.06210
G1 X123.523 Y73.825 E0.06210
G1 X125.503 Y73.794 E0.06210
G1 X127.481 Y73.888 E0.06210
G1 X129.449 Y74.108 E0.06210
G1 X131.400 Y74.451 E0.06210
G1 X133.325 Y74.918 E0.06210
G1 X135.216 Y75.506 E0.06210
G1 X137.066 Y76.213 E0.06210
G1 X138.867 Y77.036 E0.06210
G1 X140.613 Y77.971 E0.06210
G1 X142.296 Y79.015 E0.06210
G1 X143.909 Y80.164 E0.06210
G1 X145.446 Y81.413 E0.06210
G1 X146.901 Y82.757 E0.06210
G1 X148.268 Y84.190 E0.06210
G1 X149.541 Y85.707 E0.06210
G1 X150.715 Y87.302 E0.06210
G1 X151.786 Y88.968 E0.06210
G1 X152.748 Y90.699 E0.06210
G1 X153.600 Y92.487 E0.06210
G1 X154.336 Y94.326 E0.06210
G1 X154.954 Y96.207 E0.06210
G1 X155.451 Y98.124 E0.06210
G1 X155.826 Y100.069 E0.06210
G1 X156.077 Y102.033 E0.06210
G1 X156.202 Y104.010 E0.06210
G1 X156.202 Y105.990 E0.06210
G1 X156.077 Y107.967 E0.06210
G1 X155.826 Y109.931 E0.06210
G1 X155.451 Y111.876 E0.06210
G1 X154.954 Y113.793 E0.06210
G1 X154.336 Y115.674 E0.06210
G1 X153.600 Y117.513 E0.06210
G1 X152.748 Y119.301 E0.06210
G1 X151.786 Y121.032 E0.06210
G1 X150.715 Y122.698 E0.06210
G1 X149.541 Y124.293 E0.06210
G1 X148.268 Y125.810 E0.06210
G1 X146.901 Y127.243 E0.06210
G1 X145.446 Y128.587 E0.06210
G1 X143.909 Y129.836 E0.06210
G1 X142.296 Y130.985 E0.06210
G1 X140.613 Y132.029 E0.06210
G1 X138.867 Y132.964 E0.06210
G1 X137.066 Y133.787 E0.06210
G1 X135.216 Y134.494 E0.06210
G1 X133.325 Y135.082 E0.06210
G1 X131.400 Y135.549 E0.06210
G1 X129.449 Y135.892 E0.06210
G1 X127.481 Y136.112 E0.06210
G1 X125.503 Y136.206 E0.06210
G1 X123.523 Y136.175 E0.06210
G1 X121.549 Y136.018 E0.06210
G1 X119.588 Y135.736 E0.06210
G1 X117.650 Y135.330 E0.06210
G1 X115.741 Y134.803 E0.06210
G1 X113.869 Y134.155 E0.06210
G1 X112.043 Y133.390 E0.06210
G1 X110.268 Y132.510 E0.06210
G1 X108.553 Y131.520 E0.06210
G1 X106.904 Y130.423 E0.06210
G1 X105.328 Y129.224 E0.06210
G1 X103.831 Y127.927 E0.06210
G1 X102.420 Y126.537 E0.06210
G1 X101.100 Y125.061 E0.06210
G1 X99.875 Y123.505 E0.06210
G1 X98.752 Y121.873 E0.06210
G1 X97.735 Y120.174 E0.06210
G1 X96.827 Y118.414 E0.06210
G1 X96.033 Y116.600 E0.06210
G1 X95.356 Y114.739 E0.06210
G1 X94.798 Y112.838 E0.06210
G1 X94.362 Y110.907 E0.06210
G1 X94.049 Y108.951 E0.06210
G1 X93.861 Y106.979 E0.06210
G1 X93.798 Y105.000 E0.06210
G1 X93.861 Y103.021 E0.06210
G1 X94.049 Y101.049 E0.06210
G1 X94.362 Y99.093 E0.06210
G1 X94.798 Y97.162 E0.06210
G1 X95.356 Y95.261 E0.06210
G1 X96.033 Y93.400 E0.06210
G1 X96.827 Y91.586 E0.06210
G1 X97.735 Y89.826 E0.06210
G1 X98.752 Y88.127 E0.06210
G1 X99.875 Y86.495 E0.06210
G1 X101.100 Y84.939 E0.06210
G1 X101.348 Y84.661 E0.01167
G1 X101.256 Y84.239 F10800.000
G1 F8640
G1 X102.420 Y83.463 E-0.37134
G1 X103.620 Y82.282 E-0.38866
G1 E-0.04000 F2100.00000
G1 Z0.800 F10800.000
G1 X98.873 Y82.626
G1 Z0.200
G1 E0.80000 F2100.00000
G1 F1200
G1 X99.093 Y82.359 E0.01086
G1 X100.493 Y80.849 E0.06456
G1 X101.981 Y79.426 E0.06456
G1 X103.552 Y78.095 E0.06456
G1 X105.199 Y76.860 E0.06456
G1 X106.918 Y75.726 E0.06456
G1 X108.701 Y74.696 E0.06456
G1 X110.542 Y73.775 E0.06456
G1 X112.435 Y72.966 E0.06456
G1 X114.374 Y72.272 E0.06456
G1 X116.350 Y71.694 E0.06456
G1 X118.357 Y71.236 E0.06456
G1 X120.389 Y70.899 E0.06456
G1 X122.436 Y70.684 E0.06456
G1 X124.493 Y70.591 E0.06456
G1 X126.552 Y70.622 E0.06456
G1 X128.605 Y70.776 E0.06456
G1 X130.645 Y71.052 E0.06456
G1 X132.665 Y71.450 E0.06456
G1 X134.658 Y71.968 E0.06456
G1 X136.616 Y72.604 E0.06456
G1 X138.533 Y73.357 E0.06456
G1 X140.401 Y74.222 E0.06456
G1 X142.214 Y75.198 E0.06456
G1 X143.966 Y76.280 E0.06456
G1 X145.649 Y77.465 E0.06456
G1 X147.259 Y78.749 E0.06456
G1 X148.789 Y80.127 E0.06456
G1 X150.234 Y81.593 E0.06456
G1 X151.589 Y83.144 E0.06456
G1 X152.848 Y84.773 E0.06456
G1 X154.008 Y86.474 E0.06456
G1 X155.064 Y88.241 E0.06456
G1 X156.013 Y90.069 E0.06456
G1 X156.850 Y91.950 E0.06456
G1 X157.573 Y93.877 E0.06456
G1 X158.180 Y95.845 E0.06456
G1 X158.668 Y97.845 E0.06456
G1 X159.036 Y99.871 E0.06456
G1 X159.282 Y101.915 E0.06456
G1 X159.405 Y103.971 E0.06456
G1 X159.405 Y106.029 E0.06456
G1 X159.282 Y108.085 E0.06456
G1 X159.036 Y110.129 E0.06456
G1 X158.668 Y112.155 E0.06456
G1 X158.180 Y114.155 E0.06456
G1 X157.573 Y116.123 E0.06456
G1 X156.850 Y118.050 E0.06456
G1 X156.013 Y119.931 E0.06456
G1 X155.064 Y121.759 E0.06456
G1 X154.008 Y123.526 E0.06456
G1 X152.848 Y125.227 E0.06456
G1 X151.589 Y126.856 E0.06456
G1 X150.234 Y128.407 E0.06456
G1 X148.789 Y129.873 E0.06456
G1 X147.259 Y131.251 E0.06456
G1 X145.649 Y132.535 E0.06456
G1 X143.966 Y133.720 E0.06456
G1 X142.214 Y134.802 E0.06456
G1 X140.401 Y135.778 E0.06456
G1 X138.533 Y136.643 E0.06456
G1 X136.616 Y137.396 E0.06456
G1 X134.658 Y138.032 E0.06456
G1 X132.665 Y138.550 E0.06456
G1 X130.645 Y138.948 E0.06456
G1 X128.605 Y139.224 E0.06456
G1 X126.552 Y139.378 E0.06456
G1 X124.493 Y139.409 E0.06456
G1 X122.436 Y139.316 E0.06456
G1 X120.389 Y139.101 E0.06456
G1 X118.357 Y138.764 E0.06456
G1 X116.350 Y138.306 E0.06456
G1 X114.374 Y137.728 E0.06456
G1 X112.435 Y137.034 E0.06456
G1 X110.542 Y136.225 E0.06456
G1 X108.701 Y135.304 E0.06456
G1 X106.918 Y134.274 E0.06456
G1 X105.199 Y133.140 E0.06456
G1 X103.552 Y131.905 E0.06456
G1 X101.981 Y130.574 E0.06456
G1 X100.493 Y129.151 E0.06456
G1 X99.093 Y127.641 E0.06456
G1 X97.785 Y126.051 E0.06456
G1 X96.575 Y124.385 E0.06456
G1 X95.466 Y122.650 E0.06456
G1 X94.464 Y120.852 E0.06456
G1 X93.570 Y118.997 E0.06456
G1 X92.790 Y117.092 E0.06456
G1 X92.124 Y115.143 E0.06456
G1 X91.576 Y113.159 E0.06456
G1 X91.148 Y111.145 E0.06456
G1 X90.841 Y109.109 E0.06456
G1 X90.657 Y107.058 E0.06456
G1 X90.595 Y105.000 E0.06456
G1 X90.657 Y102.942 E0.06456
G1 X90.841 Y100.891 E0.06456
G1 X91.148 Y98.855 E0.06456
G1 X91.576 Y96.841 E0.06456
G1 X92.124 Y94.857 E0.06456
G1 X92.790 Y92.908 E0.06456
G1 X93.570 Y91.003 E0.06456
G1 X94.464 Y89.148 E0.06456
G1 X95.466 Y87.350 E0.06456
G1 X96.575 Y85.615 E0.06456
G1 X97.785 Y83.949 E0.06456
G1 X98.835 Y82.672 E0.05182
G1 X98.543 Y82.433 F10800.000
G1 F1200
G1 X98.809 Y82.110 E0.01309
G1 X100.224 Y80.585 E0.06526
G1 X101.729 Y79.146 E0.06526
G1 X103.317 Y77.800 E0.06526
G1 X104.982 Y76.552 E0.06526
G1 X106.719 Y75.405 E0.06526
G1 X108.522 Y74.364 E0.06526
G1 X110.384 Y73.433 E0.06526
G1 X112.298 Y72.615 E0.06526
G1 X114.257 Y71.913 E0.06526
G1 X116.255 Y71.329 E0.06526
G1 X118.284 Y70.866 E0.06526
G1 X120.338 Y70.525 E0.06526
G1 X122.408 Y70.307 E0.06526
G1 X124.487 Y70.214 E0.06526
G1 X126.569 Y70.245 E0.06526
G1 X128.644 Y70.401 E0.06526
G1 X130.707 Y70.680 E0.06526
G1 X132.749 Y71.082 E0.06526
G1 X134.764 Y71.606 E0.06526
G1 X136.744 Y72.249 E0.06526
G1 X138.681 Y73.010 E0.06526
G1 X140.570 Y73.885 E0.06526
G1 X142.403 Y74.871 E0.06526
G1 X144.173 Y75.965 E0.06526
G1 X145.876 Y77.163 E0.06526
G1 X147.503 Y78.461 E0.06526
G1 X149.050 Y79.854 E0.06526
G1 X150.511 Y81.337 E0.06526
G1 X151.880 Y82.904 E0.06526
G1 X153.153 Y84.551 E0.06526
G1 X154.326 Y86.271 E0.06526
G1 X155.394 Y88.058 E0.06526
G1 X156.352 Y89.905 E0.06526
G1 X157.199 Y91.807 E0.06526
G1 X157.930 Y93.756 E0.06526
G1 X158.544 Y95.745 E0.06526
G1 X159.037 Y97.767 E0.06526
G1 X159.409 Y99.815 E0.06526
G1 X159.658 Y101.881 E0.06526
G1 X159.782 Y103.959 E0.06526
G1 X159.782 Y106.041 E0.06526
G1 X159.658 Y108.119 E0.06526
G1 X159.409 Y110.185 E0.06526
G1 X159.037 Y112.233 E0.06526
G1 X158.544 Y114.255 E0.06526
G1 X157.930 Y116.244 E0.06526
G1 X157.199 Y118.193 E0.06526
G1 X156.352 Y120.095 E0.06526
G1 X155.394 Y121.942 E0.06526
G1 X154.326 Y123.729 E0.06526
G1 X153.153 Y125.449 E0.06526
G1 X151.880 Y127.096 E0.06526
G1 X150.511 Y128.663 E0.06526
G1 X149.050 Y130.146 E0.06526
G1 X147.503 Y131.539 E0.06526
G1 X145.876 Y132.837 E0.06526
G1 X144.173 Y134.035 E0.06526
G1 X142.403 Y135.129 E0.06526
G1 X140.570 Y136.115 E0.06526
G1 X138.681 Y136.990 E0.06526
G1 X136.744 Y137.751 E0.06526
G1 X134.764 Y138.394 E0.06526
G1 X132.749 Y138.918 E0.06526
G1 X130.707 Y139.320 E0.06526
G1 X128.644 Y139.599 E0.06526
