; generated by PrusaSlicer 2.0.0+win64 on 2019-08-16 at 15:11:31

; 

; external perimeters extrusion width = 0.45mm
; perimeters extrusion width = 0.45mm
; infill extrusion width = 0.45mm
; solid infill extrusion width = 0.45mm
; top infill extrusion width = 0.40mm
; first layer extrusion width = 0.42mm

M73 P0 R24
M201 X9000 Y9000 Z500 E10000 ; sets maximum accelerations, mm/sec^2
M203 X500 Y500 Z12 E120 ; sets maximum feedrates, mm/sec
M204 P2000 R1500 T2000 ; sets acceleration (P, T) and retract acceleration (R), mm/sec^2
M205 X10.00 Y10.00 Z0.20 E2.50 ; sets the jerk limits, mm/sec
M205 S0 T0 ; sets the minimum extruding and travel feed rate, mm/sec
M107
M115 U3.2.3 ; tell printer latest fw version
G90 ; use absolute coordinates
M83 ; extruder relative mode
M204 S2000 T1500 ; MK2 firmware only supports the old M204 format
M104 S215 ; set extruder temp
M140 S60 ; set bed temp
M190 S60 ; wait for bed temp
M109 S215 ; wait for extruder temp
G28 W ; home all without mesh bed level
G80 ; mesh bed leveling
G1 Y-3.0 F1000.0 ; go outside print area
G92 E0.0
G1 X60.0 E9.0  F1000.0 ; intro line
M73 P0 R24
G1 X100.0 E12.5 F1000.0 ; intro line
G92 E0.0
M900 K30 ; Filament gcode
G21 ; set units to millimeters
G90 ; use absolute coordinates
M83 ; use relative distances for extrusion
;BEFORE_LAYER_CHANGE
G92 E0.0
;0.2


G1 E-0.80000 F2100.00000
G1 Z0.600 F10800.000
;AFTER_LAYER_CHANGE
;0.2
G1 X99.822 Y86.419
G1 Z0.200
G1 E0.80000 F2100.00000
M204 S1000
G1 F1200
G1 X100.483 Y86.312 E0.02100
G1 X149.504 Y86.311 E1.53700
G1 X150.323 Y86.472 E0.02620
G1 X151.021 Y86.926 E0.02608
G1 X151.500 Y87.611 E0.02620
G1 X151.687 Y88.425 E0.02620
G1 X151.688 Y121.558 E1.03889
G1 X151.617 Y122.057 E0.01578
G1 X151.433 Y122.525 E0.01578
G1 X151.148 Y122.940 E0.01578
G1 X150.776 Y123.278 E0.01578
G1 X150.178 Y123.581 E0.02100
G1 X149.517 Y123.688 E0.02100
G1 X100.478 Y123.688 E1.53758
G1 X99.968 Y123.623 E0.01612
G1 X99.491 Y123.442 E0.01601
G1 X99.068 Y123.155 E0.01601
G1 X98.722 Y122.776 E0.01612
G1 X98.421 Y122.185 E0.02078
G1 X98.312 Y121.528 E0.02089
G1 X98.312 Y88.471 E1.03648
G1 X98.378 Y87.965 E0.01601
G1 X98.560 Y87.488 E0.01601
G1 X98.847 Y87.066 E0.01601
G1 X99.224 Y86.722 E0.01601
G1 X99.768 Y86.446 E0.01912
G1 F8640
G1 X100.483 Y86.312 E-0.16793
G1 X103.047 Y86.312 E-0.59207
G1 E-0.04000 F2100.00000
G1 Z0.800 F10800.000
G1 X115.462 Y93.088
G1 Z0.200
G1 E0.80000 F2100.00000
G1 F1200
G1 X115.621 Y92.704 E0.01304
G1 X115.874 Y92.374 E0.01302
G1 X116.204 Y92.121 E0.01302
G1 X116.588 Y91.962 E0.01304
G1 X116.962 Y91.913 E0.01183
G1 X120.038 Y91.913 E0.09647
G1 X120.412 Y91.962 E0.01183
G1 X120.796 Y92.121 E0.01304
G1 X121.126 Y92.374 E0.01302
G1 X121.379 Y92.704 E0.01302
G1 X121.538 Y93.088 E0.01304
G1 X121.587 Y93.462 E0.01183
G1 X121.587 Y96.538 E0.09647
G1 X121.538 Y96.912 E0.01183
G1 X121.379 Y97.296 E0.01304
G1 X121.126 Y97.626 E0.01302
G1 X120.796 Y97.879 E0.01302
G1 X120.412 Y98.038 E0.01304
G1 X120.038 Y98.087 E0.01183
G1 X116.962 Y98.087 E0.09647
G1 X116.588 Y98.038 E0.01183
G1 X116.204 Y97.879 E0.01304
G1 X115.874 Y97.626 E0.01302
G1 X115.621 Y97.296 E0.01302
G1 X115.462 Y96.912 E0.01304
G1 X115.413 Y96.538 E0.01183
G1 X115.413 Y93.462 E0.09647
G1 X115.454 Y93.147 E0.00994
G1 X115.828 Y93.196 F10800.000
G1 F1200
G1 X115.951 Y92.894 E0.01023
G1 X116.143 Y92.643 E0.00991
G1 X116.394 Y92.451 E0.00991
G1 X116.686 Y92.329 E0.00992
G1 X116.986 Y92.290 E0.00949
G1 X120.014 Y92.290 E0.09492
G1 X120.314 Y92.329 E0.00949
G1 X120.606 Y92.451 E0.00992
G1 X120.857 Y92.643 E0.00991
G1 X121.049 Y92.894 E0.00991
G1 X121.171 Y93.186 E0.00992
G1 X121.210 Y93.486 E0.00949
G1 X121.210 Y96.514 E0.09492
G1 X121.171 Y96.814 E0.00949
G1 X121.049 Y97.106 E0.00992
G1 X120.857 Y97.357 E0.00991
G1 X120.606 Y97.549 E0.00991
G1 X120.314 Y97.671 E0.00992
G1 X120.014 Y97.710 E0.00949
G1 X116.986 Y97.710 E0.09492
G1 X116.686 Y97.671 E0.00949
G1 X116.394 Y97.549 E0.00992
G1 X116.143 Y97.357 E0.00991
G1 X115.951 Y97.106 E0.00991
G1 X115.829 Y96.814 E0.00992
G1 X115.790 Y96.514 E0.00949
G1 X115.790 Y93.486 E0.09492
G1 X115.820 Y93.256 E0.00729
G1 X115.597 Y92.966 F10800.000
G1 F8640
G1 X115.951 Y92.894 E-0.08878
G1 X116.143 Y92.643 E-0.07301
G1 X116.394 Y92.451 E-0.07301
G1 X116.686 Y92.329 E-0.07304
G1 X116.986 Y92.290 E-0.06989
G1 X118.642 Y92.290 E-0.38227
G1 E-0.04000 F2100.00000
G1 Z0.800 F10800.000
G1 X101.087 Y89.087
G1 Z0.200
G1 E0.80000 F2100.00000
G1 F1200
G1 X148.913 Y89.087 E1.49955
G1 X148.913 Y120.913 E0.99788
G1 X101.087 Y120.913 E1.49955
G1 X101.087 Y89.147 E0.99600
G1 X100.710 Y88.710 F10800.000
G1 F1200
G1 X149.290 Y88.710 E1.52319
G1 X149.290 Y121.290 E1.02152
G1 X100.710 Y121.290 E1.52319
G1 X100.710 Y88.770 E1.01964
G1 X101.102 Y88.788 F10800.000
G1 F8640
G1 X104.001 Y88.766 E-0.76000
G1 E-0.04000 F2100.00000
G1 Z0.800 F10800.000
G1 X115.240 Y97.114
G1 Z0.200
G1 E0.80000 F2100.00000
G1 F1200
G1 X107.495 Y89.370 E0.34493
G1 X108.031 Y89.370 E0.01687
G1 X115.130 Y96.469 E0.31620
G1 X115.130 Y95.934 E0.01687
G1 X108.566 Y89.370 E0.29234
G1 X109.102 Y89.370 E0.01687
G1 X115.130 Y95.398 E0.26848
G1 X115.130 Y94.862 E0.01687
G1 X109.638 Y89.370 E0.24463
G1 X110.173 Y89.370 E0.01687
G1 X115.130 Y94.327 E0.22077
G1 X115.130 Y93.791 E0.01687
G1 X110.709 Y89.370 E0.19691
G1 X111.245 Y89.370 E0.01687
G1 X115.152 Y93.277 E0.17403
G1 X115.186 Y93.014 E0.00837
G1 X115.256 Y92.846 E0.00573
G1 X111.780 Y89.370 E0.15481
G1 X112.316 Y89.370 E0.01687
G1 X115.432 Y92.486 E0.13879
G1 X115.665 Y92.183 E0.01203
G1 X112.852 Y89.370 E0.12529
G1 X113.387 Y89.370 E0.01687
G1 X115.965 Y91.948 E0.11482
G1 X116.061 Y91.874 E0.00380
G1 X116.320 Y91.767 E0.00883
G1 X113.923 Y89.370 E0.10676
G1 X114.458 Y89.370 E0.01687
G1 X116.745 Y91.656 E0.10183
G1 X116.943 Y91.630 E0.00630
G1 X117.254 Y91.630 E0.00980
G1 X114.994 Y89.370 E0.10067
G1 X115.530 Y89.370 E0.01687
G1 X117.790 Y91.630 E0.10067
G1 X118.326 Y91.630 E0.01687
G1 X116.065 Y89.370 E0.10067
G1 X116.601 Y89.370 E0.01687
G1 X118.861 Y91.630 E0.10067
G1 X119.397 Y91.630 E0.01687
G1 X117.137 Y89.370 E0.10067
G1 X117.672 Y89.370 E0.01687
G1 X119.933 Y91.630 E0.10067
G1 X120.057 Y91.630 E0.00392
G1 X120.486 Y91.686 E0.01364
G1 X120.552 Y91.714 E0.00223
G1 X118.038 Y89.200 E0.11195
G1 F8640
G1 X120.366 Y91.528 E-0.76000
G1 E-0.04000 F2100.00000
G1 Z0.800 F10800.000
G1 X116.386 Y98.260
G1 Z0.200
G1 E0.80000 F2100.00000
G1 F1200
G1 X138.755 Y120.630 E0.99632
G1 X139.291 Y120.630 E0.01687
G1 X117.031 Y98.370 E0.99144
G1 X117.566 Y98.370 E0.01687
G1 X139.827 Y120.630 E0.99144
G1 X140.362 Y120.630 E0.01687
G1 X118.102 Y98.370 E0.99144
G1 X118.638 Y98.370 E0.01687
G1 X140.898 Y120.630 E0.99144
G1 X141.434 Y120.630 E0.01687
G1 X119.173 Y98.370 E0.99144
G1 X119.709 Y98.370 E0.01687
G1 X141.969 Y120.630 E0.99144
G1 X142.505 Y120.630 E0.01687
G1 X120.223 Y98.348 E0.99241
G1 X120.486 Y98.314 E0.00837
G1 X120.654 Y98.244 E0.00573
G1 X143.040 Y120.630 E0.99706
G1 X143.576 Y120.630 E0.01687
G1 X121.014 Y98.068 E1.00488
G1 X121.317 Y97.835 E0.01203
G1 X144.112 Y120.630 E1.01525
G1 X144.647 Y120.630 E0.01687
G1 X121.552 Y97.535 E1.02863
G1 X121.626 Y97.439 E0.00380
G1 X121.733 Y97.180 E0.00883
G1 X145.183 Y120.630 E1.04443
G1 X145.719 Y120.630 E0.01687
G1 X121.844 Y96.755 E1.06335
M73 P4 R23
G1 X121.870 Y96.557 E0.00630
G1 X121.870 Y96.246 E0.00980
G1 X146.254 Y120.630 E1.08605
G1 X146.790 Y120.630 E0.01687
G1 X121.870 Y95.710 E1.10991
G1 X121.870 Y95.174 E0.01687
G1 X147.326 Y120.630 E1.13376
G1 X147.861 Y120.630 E0.01687
G1 X121.870 Y94.639 E1.15762
G1 X121.870 Y94.103 E0.01687
G1 X148.397 Y120.630 E1.18148
G1 X148.630 Y120.630 E0.00735
G1 X148.630 Y120.328 E0.00952
G1 X121.870 Y93.567 E1.19186
G1 X121.870 Y93.443 E0.00392
G1 X121.814 Y93.014 E0.01364
G1 X121.786 Y92.948 E0.00223
G1 X148.630 Y119.792 E1.19559
G1 X148.630 Y119.256 E0.01687
G1 X118.744 Y89.370 E1.33111
G1 X119.279 Y89.370 E0.01687
G1 X148.630 Y118.721 E1.30725
G1 X148.630 Y118.185 E0.01687
G1 X119.815 Y89.370 E1.28339
G1 X120.350 Y89.370 E0.01687
G1 X148.630 Y117.650 E1.25954
G1 X148.630 Y117.114 E0.01687
G1 X120.886 Y89.370 E1.23568
G1 X121.422 Y89.370 E0.01687
G1 X148.630 Y116.578 E1.21182
G1 X148.630 Y116.043 E0.01687
G1 X121.957 Y89.370 E1.18797
G1 X122.493 Y89.370 E0.01687
G1 X148.630 Y115.507 E1.16411
G1 X148.630 Y114.971 E0.01687
G1 X123.029 Y89.370 E1.14025
G1 X123.564 Y89.370 E0.01687
G1 X148.630 Y114.436 E1.11640
G1 X148.630 Y113.900 E0.01687
G1 X124.100 Y89.370 E1.09254
G1 X124.636 Y89.370 E0.01687
G1 X148.630 Y113.364 E1.06868
G1 X148.630 Y112.829 E0.01687
G1 X125.171 Y89.370 E1.04483
G1 X125.707 Y89.370 E0.01687
G1 X148.630 Y112.293 E1.02097
G1 X148.630 Y111.758 E0.01687
G1 X126.242 Y89.370 E0.99711
G1 X126.778 Y89.370 E0.01687
G1 X148.630 Y111.222 E0.97326
G1 X148.630 Y110.686 E0.01687
G1 X127.314 Y89.370 E0.94940
G1 X127.849 Y89.370 E0.01687
G1 X148.630 Y110.151 E0.92554
G1 X148.630 Y109.615 E0.01687
G1 X128.385 Y89.370 E0.90169
G1 X128.921 Y89.370 E0.01687
G1 X148.630 Y109.079 E0.87783
G1 X148.630 Y108.544 E0.01687
G1 X129.456 Y89.370 E0.85397
G1 X129.992 Y89.370 E0.01687
G1 X148.630 Y108.008 E0.83012
G1 X148.630 Y107.472 E0.01687
G1 X130.528 Y89.370 E0.80626
G1 X131.063 Y89.370 E0.01687
G1 X148.630 Y106.937 E0.78240
G1 X148.630 Y106.401 E0.01687
G1 X131.599 Y89.370 E0.75855
G1 X132.135 Y89.370 E0.01687
G1 X148.630 Y105.865 E0.73469
G1 X148.630 Y105.330 E0.01687
G1 X132.670 Y89.370 E0.71083
G1 X133.206 Y89.370 E0.01687
G1 X148.630 Y104.794 E0.68698
G1 X148.630 Y104.259 E0.01687
G1 X133.741 Y89.370 E0.66312
G1 X134.277 Y89.370 E0.01687
G1 X148.630 Y103.723 E0.63927
M73 P8 R22
G1 X148.630 Y103.187 E0.01687
G1 X134.813 Y89.370 E0.61541
G1 X135.348 Y89.370 E0.01687
G1 X148.630 Y102.652 E0.59155
G1 X148.630 Y102.116 E0.01687
G1 X135.884 Y89.370 E0.56770
G1 X136.420 Y89.370 E0.01687
G1 X148.630 Y101.580 E0.54384
G1 X148.630 Y101.045 E0.01687
G1 X136.955 Y89.370 E0.51998
G1 X137.491 Y89.370 E0.01687
G1 X148.630 Y100.509 E0.49613
G1 X148.630 Y99.973 E0.01687
G1 X138.027 Y89.370 E0.47227
G1 X138.562 Y89.370 E0.01687
G1 X148.630 Y99.438 E0.44841
G1 X148.630 Y98.902 E0.01687
G1 X139.098 Y89.370 E0.42456
G1 X139.633 Y89.370 E0.01687
G1 X148.630 Y98.367 E0.40070
G1 X148.630 Y97.831 E0.01687
G1 X140.169 Y89.370 E0.37684
G1 X140.705 Y89.370 E0.01687
G1 X148.630 Y97.295 E0.35299
G1 X148.630 Y96.760 E0.01687
G1 X141.240 Y89.370 E0.32913
G1 X141.776 Y89.370 E0.01687
G1 X148.630 Y96.224 E0.30527
G1 X148.630 Y95.688 E0.01687
G1 X142.312 Y89.370 E0.28142
G1 X142.847 Y89.370 E0.01687
G1 X148.630 Y95.153 E0.25756
G1 X148.630 Y94.617 E0.01687
G1 X143.383 Y89.370 E0.23370
G1 X143.919 Y89.370 E0.01687
G1 X148.630 Y94.081 E0.20985
G1 X148.630 Y93.546 E0.01687
G1 X144.454 Y89.370 E0.18599
G1 X144.990 Y89.370 E0.01687
G1 X148.630 Y93.010 E0.16213
G1 X148.630 Y92.475 E0.01687
G1 X145.525 Y89.370 E0.13828
G1 X146.061 Y89.370 E0.01687
G1 X148.630 Y91.939 E0.11442
G1 X148.630 Y91.403 E0.01687
G1 X146.597 Y89.370 E0.09056
G1 X147.132 Y89.370 E0.01687
G1 X148.630 Y90.868 E0.06671
G1 X148.630 Y90.332 E0.01687
G1 X147.668 Y89.370 E0.04285
G1 X148.204 Y89.370 E0.01687
G1 X148.800 Y89.966 E0.02655
G1 F8640
G1 X148.204 Y89.370 E-0.19467
G1 X147.668 Y89.370 E-0.12368
G1 X148.630 Y90.332 E-0.31417
G1 X148.630 Y90.868 E-0.12368
G1 X148.618 Y90.856 E-0.00381
G1 E-0.04000 F2100.00000
G1 Z0.800 F10800.000
G1 X138.389 Y120.800
G1 Z0.200
G1 E0.80000 F2100.00000
G1 F1200
G1 X106.959 Y89.370 E1.39985
G1 X106.424 Y89.370 E0.01687
G1 X137.684 Y120.630 E1.39229
G1 X137.148 Y120.630 E0.01687
G1 X105.888 Y89.370 E1.39229
G1 X105.353 Y89.370 E0.01687
G1 X136.613 Y120.630 E1.39229
G1 X136.077 Y120.630 E0.01687
G1 X104.817 Y89.370 E1.39229
G1 X104.281 Y89.370 E0.01687
G1 X135.542 Y120.630 E1.39229
G1 X135.006 Y120.630 E0.01687
G1 X103.746 Y89.370 E1.39229
G1 X103.210 Y89.370 E0.01687
G1 X134.470 Y120.630 E1.39229
G1 X133.935 Y120.630 E0.01687
G1 X102.674 Y89.370 E1.39229
G1 X102.139 Y89.370 E0.01687
G1 X133.399 Y120.630 E1.39229
G1 X132.863 Y120.630 E0.01687
G1 X101.603 Y89.370 E1.39229
G1 X101.370 Y89.370 E0.00734
G1 X101.370 Y89.672 E0.00952
G1 X132.328 Y120.630 E1.37882
G1 X131.792 Y120.630 E0.01687
G1 X101.370 Y90.208 E1.35496
G1 X101.370 Y90.744 E0.01687
G1 X131.256 Y120.630 E1.33111
G1 X130.721 Y120.630 E0.01687
G1 X101.370 Y91.279 E1.30725
G1 X101.370 Y91.815 E0.01687
G1 X130.185 Y120.630 E1.28339
G1 X129.650 Y120.630 E0.01687
G1 X101.370 Y92.350 E1.25954
G1 X101.370 Y92.886 E0.01687
G1 X129.114 Y120.630 E1.23568
G1 X128.578 Y120.630 E0.01687
G1 X101.370 Y93.422 E1.21182
G1 X101.370 Y93.957 E0.01687
G1 X128.043 Y120.630 E1.18797
G1 X127.507 Y120.630 E0.01687
G1 X101.370 Y94.493 E1.16411
G1 X101.370 Y95.029 E0.01687
G1 X126.971 Y120.630 E1.14025
M73 P12 R21
G1 X126.436 Y120.630 E0.01687
G1 X101.370 Y95.564 E1.11640
G1 X101.370 Y96.100 E0.01687
G1 X125.900 Y120.630 E1.09254
G1 X125.364 Y120.630 E0.01687
G1 X101.370 Y96.636 E1.06868
G1 X101.370 Y97.171 E0.01687
G1 X124.829 Y120.630 E1.04483
G1 X124.293 Y120.630 E0.01687
G1 X101.370 Y97.707 E1.02097
G1 X101.370 Y98.243 E0.01687
G1 X123.757 Y120.630 E0.99711
G1 X123.222 Y120.630 E0.01687
G1 X101.370 Y98.778 E0.97326
G1 X101.370 Y99.314 E0.01687
G1 X122.686 Y120.630 E0.94940
G1 X122.151 Y120.630 E0.01687
G1 X101.370 Y99.849 E0.92554
G1 X101.370 Y100.385 E0.01687
G1 X121.615 Y120.630 E0.90169
G1 X121.079 Y120.630 E0.01687
G1 X101.370 Y100.921 E0.87783
G1 X101.370 Y101.456 E0.01687
G1 X120.544 Y120.630 E0.85397
G1 X120.008 Y120.630 E0.01687
G1 X101.370 Y101.992 E0.83012
G1 X101.370 Y102.528 E0.01687
G1 X119.472 Y120.630 E0.80626
G1 X118.937 Y120.630 E0.01687
G1 X101.370 Y103.063 E0.78240
G1 X101.370 Y103.599 E0.01687
G1 X118.401 Y120.630 E0.75855
G1 X117.865 Y120.630 E0.01687
G1 X101.370 Y104.135 E0.73469
G1 X101.370 Y104.670 E0.01687
G1 X117.330 Y120.630 E0.71083
G1 X116.794 Y120.630 E0.01687
G1 X101.370 Y105.206 E0.68698
G1 X101.370 Y105.741 E0.01687
G1 X116.259 Y120.630 E0.66312
G1 X115.723 Y120.630 E0.01687
G1 X101.370 Y106.277 E0.63926
G1 X101.370 Y106.813 E0.01687
G1 X115.187 Y120.630 E0.61541
G1 X114.652 Y120.630 E0.01687
G1 X101.370 Y107.348 E0.59155
G1 X101.370 Y107.884 E0.01687
G1 X114.116 Y120.630 E0.56769
G1 X113.580 Y120.630 E0.01687
G1 X101.370 Y108.420 E0.54384
G1 X101.370 Y108.955 E0.01687
G1 X113.045 Y120.630 E0.51998
G1 X112.509 Y120.630 E0.01687
G1 X101.370 Y109.491 E0.49612
G1 X101.370 Y110.027 E0.01687
G1 X111.973 Y120.630 E0.47227
G1 X111.438 Y120.630 E0.01687
G1 X101.370 Y110.562 E0.44841
G1 X101.370 Y111.098 E0.01687
G1 X110.902 Y120.630 E0.42455
G1 X110.367 Y120.630 E0.01687
G1 X101.370 Y111.633 E0.40070
G1 X101.370 Y112.169 E0.01687
G1 X109.831 Y120.630 E0.37684
G1 X109.295 Y120.630 E0.01687
G1 X101.370 Y112.705 E0.35298
G1 X101.370 Y113.240 E0.01687
G1 X108.760 Y120.630 E0.32913
G1 X108.224 Y120.630 E0.01687
G1 X101.370 Y113.776 E0.30527
G1 X101.370 Y114.312 E0.01687
G1 X107.688 Y120.630 E0.28141
G1 X107.153 Y120.630 E0.01687
G1 X101.370 Y114.847 E0.25756
G1 X101.370 Y115.383 E0.01687
G1 X106.617 Y120.630 E0.23370
G1 X106.081 Y120.630 E0.01687
G1 X101.370 Y115.919 E0.20985
G1 X101.370 Y116.454 E0.01687
G1 X105.546 Y120.630 E0.18599
G1 X105.010 Y120.630 E0.01687
G1 X101.370 Y116.990 E0.16213
G1 X101.370 Y117.526 E0.01687
G1 X104.474 Y120.630 E0.13828
G1 X103.939 Y120.630 E0.01687
G1 X101.370 Y118.061 E0.11442
G1 X101.370 Y118.597 E0.01687
G1 X103.403 Y120.630 E0.09056
G1 X102.868 Y120.630 E0.01687
G1 X101.370 Y119.132 E0.06671
G1 X101.370 Y119.668 E0.01687
G1 X102.332 Y120.630 E0.04285
G1 X101.796 Y120.630 E0.01687
G1 X101.200 Y120.034 E0.02655
M106 S255
;BEFORE_LAYER_CHANGE
G92 E0.0
;0.4


G1 F8640
G1 X101.796 Y120.630 E-0.19466
G1 X102.332 Y120.630 E-0.12368
G1 X101.370 Y119.668 E-0.31416
G1 X101.370 Y119.132 E-0.12368
G1 X101.382 Y119.144 E-0.00382
G1 E-0.04000 F2100.00000
G1 Z0.800 F10800.000
;AFTER_LAYER_CHANGE
;0.4
M104 S210 ; set temperature
G1 X98.421 Y122.185
G1 Z0.400
G1 E0.80000 F2100.00000
G1 F3000
G1 X98.312 Y121.528 E0.02089
G1 X98.312 Y88.471 E1.03648
G1 X98.378 Y87.965 E0.01601
G1 X98.560 Y87.488 E0.01601
G1 X98.847 Y87.066 E0.01601
G1 X99.224 Y86.722 E0.01601
G1 X99.822 Y86.419 E0.02100
