; generated by PrusaSlicer 2.0.0+win64 on 2019-08-17 at 12:56:47

; 

; external perimeters extrusion width = 0.45mm
; perimeters extrusion width = 0.45mm
; infill extrusion width = 0.45mm
; solid infill extrusion width = 0.45mm
; top infill extrusion width = 0.40mm
; first layer extrusion width = 0.42mm

M73 P0 R100
M201 X9000 Y9000 Z500 E10000 ; sets maximum accelerations, mm/sec^2
M203 X500 Y500 Z12 E120 ; sets maximum feedrates, mm/sec
M204 P2000 R1500 T2000 ; sets acceleration (P, T) and retract acceleration (R), mm/sec^2
M205 X10.00 Y10.00 Z0.20 E2.50 ; sets the jerk limits, mm/sec
M205 S0 T0 ; sets the minimum extruding and travel feed rate, mm/sec
M107
M115 U3.2.3 ; tell printer latest fw version
G90 ; use absolute coordinates
M83 ; extruder relative mode
M204 S2000 T1500 ; MK2 firmware only supports the old M204 format
M104 S215 ; set extruder temp
M140 S60 ; set bed temp
M190 S60 ; wait for bed temp
M109 S215 ; wait for extruder temp
G28 W ; home all without mesh bed level
G80 ; mesh bed leveling
G1 Y-3.0 F1000.0 ; go outside print area
G92 E0.0
G1 X60.0 E9.0  F1000.0 ; intro line
M73 P0 R100
G1 X100.0 E12.5 F1000.0 ; intro line
G92 E0.0
M900 K30 ; Filament gcode
G21 ; set units to millimeters
G90 ; use absolute coordinates
M83 ; use relative distances for extrusion
;BEFORE_LAYER_CHANGE
G92 E0.0
;0.2


G1 E-0.80000 F2100.00000
G1 Z0.600 F10800.000
;AFTER_LAYER_CHANGE
;0.2
G1 X100.637 Y81.457
G1 Z0.200
G1 E0.80000 F2100.00000
M204 S1000
G1 F1200
G1 X101.058 Y80.959 E0.02044
G1 X101.607 Y80.608 E0.02044
G1 X102.232 Y80.434 E0.02032
G1 X113.604 Y80.418 E0.35656
G1 X147.560 Y80.730 E1.06473
G1 X148.392 Y80.920 E0.02676
G1 X149.089 Y81.413 E0.02676
G1 X149.526 Y82.091 E0.02529
G1 X149.688 Y82.881 E0.02529
G1 X149.689 Y116.210 E1.04499
G1 X149.509 Y117.073 E0.02766
G1 X149.004 Y117.796 E0.02766
G1 X148.556 Y118.123 E0.01737
G1 X148.041 Y118.327 E0.01737
G1 X102.992 Y129.526 E1.45546
G1 X102.430 Y129.581 E0.01771
G1 X101.869 Y129.490 E0.01783
G1 X101.351 Y129.256 E0.01783
G1 X100.912 Y128.900 E0.01771
G1 X100.472 Y128.216 E0.02552
G1 X100.312 Y127.418 E0.02552
G1 X100.311 Y82.602 E1.40515
G1 X100.383 Y82.053 E0.01737
G1 X100.614 Y81.512 E0.01844
G1 F8640
G1 X101.058 Y80.959 E-0.16379
G1 X101.607 Y80.608 E-0.15050
G1 X102.232 Y80.434 E-0.14966
G1 X103.514 Y80.432 E-0.29605
G1 E-0.04000 F2100.00000
G1 Z0.800 F10800.000
G1 X103.087 Y83.193
G1 Z0.200
G1 E0.80000 F2100.00000
G1 F1200
G1 X113.013 Y83.193 E0.31122
G1 X113.013 Y116.051 E1.03023
G1 X103.087 Y125.977 E0.44013
G1 X103.087 Y83.253 E1.33956
G1 X102.710 Y82.816 F10800.000
G1 F1200
G1 X113.390 Y82.816 E0.33486
G1 X113.390 Y116.207 E1.04695
G1 X102.710 Y126.887 E0.47357
G1 X102.710 Y82.876 E1.37993
G1 X103.075 Y82.979 F10800.000
G1 F8640
G1 X106.001 Y82.858 E-0.76000
G1 E-0.04000 F2100.00000
G1 Z0.800 F10800.000
G1 X112.900 Y84.076
G1 Z0.200
G1 E0.80000 F2100.00000
G1 F1200
G1 X112.300 Y83.476 E0.02684
G1 X111.762 Y83.476 E0.01703
G1 X112.730 Y84.444 E0.04333
G1 X112.730 Y84.982 E0.01703
G1 X111.224 Y83.476 E0.06741
G1 X110.686 Y83.476 E0.01703
G1 X112.730 Y85.521 E0.09149
G1 X112.730 Y86.059 E0.01703
G1 X110.147 Y83.476 E0.11557
G1 X109.609 Y83.476 E0.01703
G1 X112.730 Y86.597 E0.13965
G1 X112.730 Y87.135 E0.01703
G1 X109.071 Y83.476 E0.16373
G1 X108.533 Y83.476 E0.01703
G1 X112.730 Y87.673 E0.18780
G1 X112.730 Y88.211 E0.01703
G1 X107.995 Y83.476 E0.21188
G1 X107.457 Y83.476 E0.01703
G1 X112.730 Y88.749 E0.23596
G1 X112.730 Y89.287 E0.01703
G1 X106.919 Y83.476 E0.26004
G1 X106.380 Y83.476 E0.01703
G1 X112.730 Y89.826 E0.28412
G1 X112.730 Y90.364 E0.01703
G1 X105.842 Y83.476 E0.30820
G1 X105.304 Y83.476 E0.01703
G1 X112.730 Y90.902 E0.33228
G1 X112.730 Y91.440 E0.01703
G1 X104.766 Y83.476 E0.35636
G1 X104.228 Y83.476 E0.01703
G1 X112.730 Y91.978 E0.38044
G1 X112.730 Y92.516 E0.01703
G1 X103.690 Y83.476 E0.40452
G1 X103.370 Y83.476 E0.01012
G1 X103.370 Y83.694 E0.00690
G1 X112.730 Y93.054 E0.41883
G1 X112.730 Y93.593 E0.01703
G1 X103.370 Y84.232 E0.41883
G1 X103.370 Y84.770 E0.01703
G1 X112.730 Y94.131 E0.41883
G1 X112.730 Y94.669 E0.01703
G1 X103.370 Y85.309 E0.41883
G1 X103.370 Y85.847 E0.01703
G1 X112.730 Y95.207 E0.41883
G1 X112.730 Y95.745 E0.01703
G1 X103.370 Y86.385 E0.41883
G1 X103.370 Y86.923 E0.01703
G1 X112.730 Y96.283 E0.41883
G1 X112.730 Y96.821 E0.01703
G1 X103.370 Y87.461 E0.41883
G1 X103.370 Y87.999 E0.01703
G1 X112.730 Y97.359 E0.41883
G1 X112.730 Y97.898 E0.01703
G1 X103.370 Y88.537 E0.41883
G1 X103.370 Y89.075 E0.01703
G1 X112.730 Y98.436 E0.41883
G1 X112.730 Y98.974 E0.01703
G1 X103.370 Y89.614 E0.41883
G1 X103.370 Y90.152 E0.01703
G1 X112.730 Y99.512 E0.41883
G1 X112.730 Y100.050 E0.01703
G1 X103.370 Y90.690 E0.41883
G1 X103.370 Y91.228 E0.01703
G1 X112.730 Y100.588 E0.41883
G1 X112.730 Y101.126 E0.01703
G1 X103.370 Y91.766 E0.41883
G1 X103.370 Y92.304 E0.01703
G1 X112.730 Y101.665 E0.41883
G1 X112.730 Y102.203 E0.01703
G1 X103.370 Y92.842 E0.41883
G1 X103.370 Y93.381 E0.01703
G1 X112.730 Y102.741 E0.41883
G1 X112.730 Y103.279 E0.01703
G1 X103.370 Y93.919 E0.41883
G1 X103.370 Y94.457 E0.01703
G1 X112.730 Y103.817 E0.41883
G1 X112.730 Y104.355 E0.01703
G1 X103.370 Y94.995 E0.41883
G1 X103.370 Y95.533 E0.01703
G1 X112.730 Y104.893 E0.41883
G1 X112.730 Y105.431 E0.01703
G1 X103.370 Y96.071 E0.41883
G1 X103.370 Y96.609 E0.01703
G1 X112.730 Y105.970 E0.41883
G1 X112.730 Y106.508 E0.01703
G1 X103.370 Y97.147 E0.41883
G1 X103.370 Y97.686 E0.01703
G1 X112.730 Y107.046 E0.41883
G1 X112.730 Y107.584 E0.01703
G1 X103.370 Y98.224 E0.41883
G1 X103.370 Y98.762 E0.01703
G1 X112.730 Y108.122 E0.41883
G1 X112.730 Y108.660 E0.01703
G1 X103.370 Y99.300 E0.41883
G1 X103.370 Y99.838 E0.01703
G1 X112.730 Y109.198 E0.41883
G1 X112.730 Y109.737 E0.01703
G1 X103.370 Y100.376 E0.41883
G1 X103.370 Y100.914 E0.01703
G1 X112.730 Y110.275 E0.41883
G1 X112.730 Y110.813 E0.01703
G1 X103.370 Y101.453 E0.41883
G1 X103.370 Y101.991 E0.01703
G1 X112.730 Y111.351 E0.41883
G1 X112.730 Y111.889 E0.01703
G1 X103.370 Y102.529 E0.41883
G1 X103.370 Y103.067 E0.01703
G1 X112.730 Y112.427 E0.41883
G1 X112.730 Y112.965 E0.01703
G1 X103.370 Y103.605 E0.41883
G1 X103.370 Y104.143 E0.01703
G1 X112.730 Y113.503 E0.41883
G1 X112.730 Y114.042 E0.01703
G1 X103.370 Y104.681 E0.41883
G1 X103.370 Y105.219 E0.01703
G1 X112.730 Y114.580 E0.41883
G1 X112.730 Y115.118 E0.01703
G1 X103.370 Y105.758 E0.41883
G1 X103.370 Y106.296 E0.01703
G1 X112.730 Y115.656 E0.41883
G1 X112.730 Y115.934 E0.00878
G1 X112.600 Y116.064 E0.00583
G1 X103.370 Y106.834 E0.41301
M73 P1 R99
G1 X103.370 Y107.372 E0.01703
G1 X112.331 Y116.333 E0.40097
G1 X112.062 Y116.602 E0.01204
G1 X103.370 Y107.910 E0.38893
G1 X103.370 Y108.448 E0.01703
G1 X111.793 Y116.871 E0.37689
G1 X111.524 Y117.140 E0.01204
G1 X103.370 Y108.986 E0.36485
G1 X103.370 Y109.525 E0.01703
G1 X111.255 Y117.409 E0.35281
G1 X110.985 Y117.678 E0.01204
G1 X103.370 Y110.063 E0.34077
G1 X103.370 Y110.601 E0.01703
G1 X110.716 Y117.947 E0.32873
G1 X110.447 Y118.216 E0.01204
G1 X103.370 Y111.139 E0.31669
G1 X103.370 Y111.677 E0.01703
G1 X110.178 Y118.485 E0.30465
G1 X109.909 Y118.755 E0.01204
G1 X103.370 Y112.215 E0.29261
G1 X103.370 Y112.753 E0.01703
G1 X109.640 Y119.024 E0.28057
G1 X109.371 Y119.293 E0.01204
G1 X103.370 Y113.292 E0.26853
G1 X103.370 Y113.830 E0.01703
G1 X109.102 Y119.562 E0.25649
G1 X108.833 Y119.831 E0.01204
G1 X103.370 Y114.368 E0.24445
G1 X103.370 Y114.906 E0.01703
G1 X108.564 Y120.100 E0.23241
G1 X108.295 Y120.369 E0.01204
G1 X103.370 Y115.444 E0.22037
G1 X103.370 Y115.982 E0.01703
G1 X108.026 Y120.638 E0.20833
G1 X107.757 Y120.907 E0.01204
G1 X103.370 Y116.520 E0.19629
G1 X103.370 Y117.058 E0.01703
G1 X107.488 Y121.176 E0.18425
G1 X107.219 Y121.445 E0.01204
G1 X103.370 Y117.597 E0.17221
G1 X103.370 Y118.135 E0.01703
G1 X106.949 Y121.714 E0.16017
G1 X106.680 Y121.983 E0.01204
G1 X103.370 Y118.673 E0.14813
G1 X103.370 Y119.211 E0.01703
G1 X106.411 Y122.252 E0.13609
G1 X106.142 Y122.521 E0.01204
G1 X103.370 Y119.749 E0.12405
G1 X103.370 Y120.287 E0.01703
G1 X105.873 Y122.791 E0.11201
G1 X105.604 Y123.060 E0.01204
G1 X103.370 Y120.825 E0.09997
G1 X103.370 Y121.364 E0.01703
G1 X105.335 Y123.329 E0.08793
G1 X105.066 Y123.598 E0.01204
G1 X103.370 Y121.902 E0.07589
G1 X103.370 Y122.440 E0.01703
G1 X104.797 Y123.867 E0.06385
G1 X104.528 Y124.136 E0.01204
G1 X103.370 Y122.978 E0.05181
G1 X103.370 Y123.516 E0.01703
G1 X104.259 Y124.405 E0.03978
G1 X103.990 Y124.674 E0.01204
G1 X103.370 Y124.054 E0.02774
G1 X103.370 Y124.592 E0.01703
G1 X103.721 Y124.943 E0.01570
G1 X103.452 Y125.212 E0.01204
G1 X103.200 Y124.961 E0.01125
G1 F8640
G1 X103.452 Y125.212 E-0.08209
G1 X103.721 Y124.943 E-0.08786
G1 X103.370 Y124.592 E-0.11454
G1 X103.370 Y124.054 E-0.12426
G1 X103.990 Y124.674 E-0.20241
G1 X104.259 Y124.405 E-0.08786
G1 X104.072 Y124.218 E-0.06097
G1 E-0.04000 F2100.00000
G1 Z0.800 F10800.000
G1 X136.987 Y115.619
G1 Z0.200
G1 E0.80000 F2100.00000
G1 F1200
G1 X136.987 Y94.161 E0.67279
G1 X146.913 Y84.236 E0.44013
G1 X146.913 Y115.619 E0.98401
G1 X137.047 Y115.619 E0.30934
G1 X136.610 Y115.996 F10800.000
G1 F1200
G1 X136.610 Y94.005 E0.68951
G1 X147.290 Y83.325 E0.47357
G1 X147.290 Y115.996 E1.02437
G1 X136.670 Y115.996 E0.33298
G1 X136.652 Y115.598 F10800.000
G1 F8640
G1 X136.661 Y112.705 E-0.76000
G1 E-0.04000 F2100.00000
G1 Z0.800 F10800.000
G1 X137.868 Y115.506
G1 Z0.200
G1 E0.80000 F2100.00000
G1 F1200
G1 X137.270 Y114.908 E0.02668
G1 X137.270 Y114.371 E0.01694
G1 X138.235 Y115.336 E0.04307
G1 X138.772 Y115.336 E0.01694
G1 X137.270 Y113.834 E0.06704
G1 X137.270 Y113.298 E0.01694
G1 X139.308 Y115.336 E0.09100
G1 X139.845 Y115.336 E0.01694
G1 X137.270 Y112.761 E0.11496
G1 X137.270 Y112.224 E0.01694
G1 X140.382 Y115.336 E0.13892
G1 X140.919 Y115.336 E0.01694
G1 X137.270 Y111.687 E0.16289
G1 X137.270 Y111.150 E0.01694
G1 X141.456 Y115.336 E0.18685
G1 X141.993 Y115.336 E0.01694
G1 X137.270 Y110.613 E0.21081
G1 X137.270 Y110.077 E0.01694
G1 X142.529 Y115.336 E0.23477
G1 X143.066 Y115.336 E0.01694
G1 X137.270 Y109.540 E0.25874
G1 X137.270 Y109.003 E0.01694
G1 X143.603 Y115.336 E0.28270
G1 X144.140 Y115.336 E0.01694
G1 X137.270 Y108.466 E0.30666
G1 X137.270 Y107.929 E0.01694
G1 X144.677 Y115.336 E0.33062
G1 X145.214 Y115.336 E0.01694
G1 X137.270 Y107.392 E0.35459
G1 X137.270 Y106.856 E0.01694
G1 X145.750 Y115.336 E0.37855
G1 X146.287 Y115.336 E0.01694
G1 X137.270 Y106.319 E0.40251
G1 X137.270 Y105.782 E0.01694
G1 X146.630 Y115.142 E0.41782
G1 X146.630 Y114.605 E0.01694
G1 X137.270 Y105.245 E0.41782
G1 X137.270 Y104.708 E0.01694
G1 X146.630 Y114.069 E0.41782
G1 X146.630 Y113.532 E0.01694
G1 X137.270 Y104.172 E0.41782
G1 X137.270 Y103.635 E0.01694
G1 X146.630 Y112.995 E0.41782
G1 X146.630 Y112.458 E0.01694
G1 X137.270 Y103.098 E0.41782
G1 X137.270 Y102.561 E0.01694
G1 X146.630 Y111.921 E0.41782
G1 X146.630 Y111.384 E0.01694
G1 X137.270 Y102.024 E0.41782
G1 X137.270 Y101.487 E0.01694
G1 X146.630 Y110.848 E0.41782
G1 X146.630 Y110.311 E0.01694
G1 X137.270 Y100.951 E0.41782
G1 X137.270 Y100.414 E0.01694
G1 X146.630 Y109.774 E0.41782
G1 X146.630 Y109.237 E0.01694
G1 X137.270 Y99.877 E0.41782
G1 X137.270 Y99.340 E0.01694
G1 X146.630 Y108.700 E0.41782
G1 X146.630 Y108.163 E0.01694
G1 X137.270 Y98.803 E0.41782
G1 X137.270 Y98.266 E0.01694
G1 X146.630 Y107.627 E0.41782
G1 X146.630 Y107.090 E0.01694
G1 X137.270 Y97.730 E0.41782
G1 X137.270 Y97.193 E0.01694
G1 X146.630 Y106.553 E0.41782
G1 X146.630 Y106.016 E0.01694
G1 X137.270 Y96.656 E0.41782
G1 X137.270 Y96.119 E0.01694
G1 X146.630 Y105.479 E0.41782
G1 X146.630 Y104.943 E0.01694
G1 X137.270 Y95.582 E0.41782
G1 X137.270 Y95.045 E0.01694
G1 X146.630 Y104.406 E0.41782
G1 X146.630 Y103.869 E0.01694
G1 X137.270 Y94.509 E0.41782
G1 X137.270 Y94.279 E0.00726
G1 X137.423 Y94.125 E0.00685
G1 X146.630 Y103.332 E0.41097
G1 X146.630 Y102.795 E0.01694
G1 X137.692 Y93.857 E0.39899
G1 X137.960 Y93.588 E0.01198
G1 X146.630 Y102.258 E0.38701
G1 X146.630 Y101.722 E0.01694
G1 X138.228 Y93.320 E0.37503
G1 X138.497 Y93.051 E0.01198
G1 X146.630 Y101.185 E0.36305
G1 X146.630 Y100.648 E0.01694
G1 X138.765 Y92.783 E0.35107
G1 X139.034 Y92.515 E0.01198
G1 X146.630 Y100.111 E0.33908
G1 X146.630 Y99.574 E0.01694
G1 X139.302 Y92.246 E0.32710
G1 X139.571 Y91.978 E0.01198
G1 X146.630 Y99.037 E0.31512
G1 X146.630 Y98.501 E0.01694
G1 X139.839 Y91.709 E0.30314
G1 X140.107 Y91.441 E0.01198
G1 X146.630 Y97.964 E0.29116
G1 X146.630 Y97.427 E0.01694
G1 X140.376 Y91.173 E0.27918
G1 X140.644 Y90.904 E0.01198
G1 X146.630 Y96.890 E0.26720
G1 X146.630 Y96.353 E0.01694
G1 X140.913 Y90.636 E0.25522
G1 X141.181 Y90.367 E0.01198
G1 X146.630 Y95.816 E0.24323
G1 X146.630 Y95.280 E0.01694
G1 X141.449 Y90.099 E0.23125
G1 X141.718 Y89.831 E0.01198
G1 X146.630 Y94.743 E0.21927
G1 X146.630 Y94.206 E0.01694
G1 X141.986 Y89.562 E0.20729
G1 X142.255 Y89.294 E0.01198
G1 X146.630 Y93.669 E0.19531
G1 X146.630 Y93.132 E0.01694
G1 X142.523 Y89.025 E0.18333
G1 X142.792 Y88.757 E0.01198
G1 X146.630 Y92.595 E0.17135
G1 X146.630 Y92.059 E0.01694
G1 X143.060 Y88.488 E0.15936
G1 X143.328 Y88.220 E0.01198
G1 X146.630 Y91.522 E0.14738
G1 X146.630 Y90.985 E0.01694
G1 X143.597 Y87.952 E0.13540
G1 X143.865 Y87.683 E0.01198
G1 X146.630 Y90.448 E0.12342
G1 X146.630 Y89.911 E0.01694
G1 X144.134 Y87.415 E0.11144
G1 X144.402 Y87.146 E0.01198
G1 X146.630 Y89.375 E0.09946
G1 X146.630 Y88.838 E0.01694
G1 X144.670 Y86.878 E0.08748
G1 X144.939 Y86.610 E0.01198
G1 X146.630 Y88.301 E0.07549
G1 X146.630 Y87.764 E0.01694
G1 X145.207 Y86.341 E0.06351
G1 X145.476 Y86.073 E0.01198
G1 X146.630 Y87.227 E0.05153
G1 X146.630 Y86.690 E0.01694
G1 X145.744 Y85.804 E0.03955
G1 X146.013 Y85.536 E0.01198
G1 X146.630 Y86.154 E0.02757
G1 X146.630 Y85.617 E0.01694
G1 X146.281 Y85.267 E0.01559
G1 X146.549 Y84.999 E0.01198
G1 X146.800 Y85.250 E0.01118
M106 S255
;BEFORE_LAYER_CHANGE
G92 E0.0
;0.4


G1 F8640
G1 X146.549 Y84.999 E-0.08180
G1 X146.281 Y85.267 E-0.08765
G1 X146.630 Y85.617 E-0.11404
G1 X146.630 Y86.154 E-0.12396
G1 X146.013 Y85.536 E-0.20168
G1 X145.744 Y85.804 E-0.08765
G1 X145.938 Y85.998 E-0.06323
G1 E-0.04000 F2100.00000
G1 Z0.800 F10800.000
;AFTER_LAYER_CHANGE
;0.4
M104 S210 ; set temperature
G1 X148.392 Y80.920
G1 Z0.400
G1 E0.80000 F2100.00000
G1 F3000
G1 X149.089 Y81.413 E0.02676
G1 X149.526 Y82.091 E0.02529
G1 X149.688 Y82.881 E0.02529
G1 X149.689 Y116.210 E1.04499
G1 X149.509 Y117.073 E0.02766
G1 X149.004 Y117.796 E0.02766
G1 X148.556 Y118.123 E0.01737
G1 X148.041 Y118.327 E0.01737
G1 X102.992 Y129.526 E1.45546
G1 X102.430 Y129.581 E0.01771
G1 X101.869 Y129.490 E0.01783
G1 X101.351 Y129.256 E0.01783
G1 X100.912 Y128.900 E0.01771
G1 X100.472 Y128.216 E0.02552
G1 X100.312 Y127.418 E0.02552
G1 X100.311 Y82.602 E1.40515
G1 X100.383 Y82.053 E0.01737
G1 X100.637 Y81.457 E0.02032
G1 X101.058 Y80.959 E0.02044
G1 X101.607 Y80.608 E0.02044
G1 X102.232 Y80.434 E0.02032
G1 X113.604 Y80.418 E0.35656
G1 X147.560 Y80.730 E1.06473
G1 X148.334 Y80.907 E0.02488
G1 F8640
G1 X149.089 Y81.413 E-0.20992
G1 X149.526 Y82.091 E-0.18628
G1 X149.688 Y82.881 E-0.18628
G1 X149.688 Y83.650 E-0.17753
G1 E-0.04000 F2100.00000
G1 Z1.000 F10800.000
G1 X112.968 Y83.238
G1 Z0.400
G1 E0.80000 F2100.00000
M204 S800
G1 F3000
G1 X112.968 Y116.032 E1.11004
M73 P2 R98
G1 X103.132 Y125.868 E0.47084
G1 X103.132 Y83.238 E1.44297
G1 X112.908 Y83.238 E0.33090
M204 S1000
G1 X113.375 Y82.831 F10800.000
M204 S800
G1 F2400
G1 X113.375 Y116.201 E1.12952
G1 X102.725 Y126.851 E0.50981
G1 X102.725 Y82.831 E1.49001
G1 X113.315 Y82.831 E0.35846
M204 S1000
G1 X113.343 Y83.230 F10800.000
G1 F8640
G1 X113.321 Y86.122 E-0.76000
G1 E-0.04000 F2100.00000
G1 Z1.000 F10800.000
G1 X103.254 Y84.188
G1 Z0.400
G1 E0.80000 F2100.00000
M204 S2000
G1 F3000
G1 X103.899 Y83.543 E0.03106
G1 X104.478 Y83.543 E0.01973
G1 X103.437 Y84.584 E0.05013
G1 X103.437 Y85.164 E0.01973
G1 X105.058 Y83.543 E0.07803
G1 X105.637 Y83.543 E0.01973
G1 X103.437 Y85.743 E0.10593
G1 X103.437 Y86.322 E0.01973
G1 X106.216 Y83.543 E0.13382
G1 X106.795 Y83.543 E0.01973
G1 X103.437 Y86.901 E0.16172
G1 X103.437 Y87.480 E0.01973
G1 X107.374 Y83.543 E0.18961
