; generated by Slic3r 1.33.8-prusa3d-win64 on 2018-02-20 at 05:33:21

; external perimeters extrusion width = 0.45mm
; perimeters extrusion width = 0.45mm
; infill extrusion width = 0.45mm
; solid infill extrusion width = 0.45mm
; top infill extrusion width = 0.45mm

M115 U3.0.10 ; tell printer latest fw version
M83  ; extruder relative mode
M104 S255 ; set extruder temp
M140 S100 ; set bed temp
M190 S100 ; wait for bed temp
M109 S255 ; wait for extruder temp
G28 W ; home all without mesh bed level
G80 ; mesh bed leveling
G1 Y-3.0 F1000.0 ; go outside pritn area
G1 X60.0 E9.0  F1000.0 ; intro line
G1 X100.0 E12.5  F1000.0 ; intro line
G21 ; set units to millimeters
G90 ; use absolute coordinates
M83 ; use relative distances for extrusion
G1 E-0.80000 F2100.00000
G1 Z0.200 F7200.000
G1 X87.590 Y72.783 F7200.000
G1 E0.80000 F2100.00000
M204 S1000
G1 F2100
G1 X89.626 Y70.561 E0.09449
G1 X91.677 Y68.572 E0.08959
G1 X93.894 Y66.662 E0.09174
G1 X96.217 Y64.889 E0.09162
G1 X98.586 Y63.291 E0.08959
G1 X101.227 Y61.732 E0.09616
G1 X103.769 Y60.428 E0.08959
G1 X106.444 Y59.250 E0.09162
G1 X109.186 Y58.231 E0.09174
G1 X111.919 Y57.395 E0.08959
G1 X114.896 Y56.676 E0.09604
G1 X117.713 Y56.171 E0.08971
G1 X120.618 Y55.825 E0.09174
G1 X123.535 Y55.652 E0.09162
G1 X126.393 Y55.651 E0.08959
G1 X129.454 Y55.832 E0.09616
G1 X132.291 Y56.171 E0.08959
G1 X135.171 Y56.689 E0.09174
G1 X138.012 Y57.375 E0.09162
G1 X140.745 Y58.209 E0.08959
G1 X143.616 Y59.275 E0.09604
G1 X146.234 Y60.430 E0.08971
G1 X148.834 Y61.764 E0.09162
G1 X151.353 Y63.252 E0.09174
G1 X153.727 Y64.849 E0.08971
G1 X156.162 Y66.708 E0.09604
G1 X158.325 Y68.574 E0.08959
G1 X160.422 Y70.610 E0.09162
G1 X162.397 Y72.769 E0.09174
G1 X164.198 Y74.987 E0.08959
G1 X165.984 Y77.475 E0.09604
G1 X167.511 Y79.895 E0.08971
G1 X168.922 Y82.454 E0.09162
G1 X170.180 Y85.096 E0.09174
G1 X171.255 Y87.744 E0.08959
G1 X172.236 Y90.645 E0.09604
G1 X172.989 Y93.406 E0.08971
G1 X173.591 Y96.265 E0.09162
G1 X174.023 Y99.159 E0.09174
G1 X174.278 Y102.005 E0.08959
G1 X174.369 Y105.067 E0.09604
G1 X174.283 Y107.927 E0.08971
G1 X174.023 Y110.841 E0.09174
G1 X173.592 Y113.731 E0.09162
G1 X173.004 Y116.528 E0.08959
G1 X172.197 Y119.482 E0.09604
G1 X171.280 Y122.193 E0.08971
G1 X170.182 Y124.901 E0.09162
G1 X168.923 Y127.542 E0.09174
G1 X167.545 Y130.045 E0.08959
G1 X165.910 Y132.635 E0.09604
G1 X164.241 Y134.959 E0.08971
G1 X162.400 Y137.228 E0.09162
G1 X160.425 Y139.387 E0.09174
G1 X158.375 Y141.379 E0.08959
G1 X156.082 Y143.357 E0.09496
G1 X153.783 Y145.111 E0.09067
G1 X151.385 Y146.728 E0.09067
G1 X148.864 Y148.219 E0.09186
G1 X147.743 Y148.797 E0.03955
G1 X146.213 Y149.580 E0.05386
G1 X143.532 Y150.760 E0.09186
G1 X140.814 Y151.769 E0.09091
G1 X138.055 Y152.612 E0.09043
G1 X135.100 Y153.325 E0.09532
G1 X132.287 Y153.829 E0.08959
G1 X129.382 Y154.175 E0.09174
G1 X126.465 Y154.348 E0.09162
G1 X123.607 Y154.349 E0.08959
G1 X120.546 Y154.168 E0.09616
G1 X117.709 Y153.829 E0.08959
G1 X114.829 Y153.311 E0.09174
G1 X111.988 Y152.625 E0.09162
G1 X109.255 Y151.791 E0.08959
G1 X106.384 Y150.725 E0.09604
G1 X103.766 Y149.570 E0.08971
G1 X101.166 Y148.236 E0.09162
G1 X98.647 Y146.748 E0.09174
G1 X96.276 Y145.153 E0.08959
G1 X93.841 Y143.294 E0.09604
G1 X91.675 Y141.426 E0.08971
G1 X89.578 Y139.390 E0.09162
G1 X87.603 Y137.231 E0.09174
G1 X85.802 Y135.013 E0.08959
G1 X84.016 Y132.525 E0.09604
G1 X82.489 Y130.105 E0.08971
G1 X81.078 Y127.546 E0.09162
G1 X79.820 Y124.904 E0.09174
G1 X78.745 Y122.256 E0.08959
G1 X77.764 Y119.355 E0.09604
G1 X77.011 Y116.594 E0.08971
G1 X76.409 Y113.735 E0.09162
G1 X75.977 Y110.841 E0.09174
G1 X75.723 Y108.022 E0.08874
G1 X75.631 Y104.934 E0.09687
G1 X75.718 Y102.050 E0.09047
G1 X75.976 Y99.162 E0.09091
G1 X76.408 Y96.269 E0.09172
G1 X76.996 Y93.472 E0.08959
G1 X77.803 Y90.518 E0.09604
G1 X78.719 Y87.811 E0.08959
G1 X79.793 Y85.159 E0.08971
G1 X81.111 Y82.394 E0.09604
G1 X82.491 Y79.892 E0.08959
G1 X84.053 Y77.418 E0.09174
G1 X85.757 Y75.044 E0.09162
G1 X87.552 Y72.829 E0.08938
G1 F5760
G1 X89.033 Y71.210 E-0.76000
G1 E-0.04000 F2100.00000
G1 X121.185 Y110.205 F7200.000
G1 E0.80000 F2100.00000
G1 F1680
G1 X121.185 Y113.781 E0.11212
G1 X120.843 Y113.781 E0.01073
G1 X120.908 Y113.827 E0.00249
G1 X121.217 Y114.153 E0.01408
G1 X121.525 Y114.571 E0.01629
G1 X121.664 Y115.006 E0.01431
G1 X121.704 Y114.874 E0.00433
G1 X122.066 Y114.324 E0.02064
G1 X122.531 Y113.818 E0.02154
G1 X123.257 Y113.403 E0.02622
G1 X123.987 Y113.118 E0.02458
G1 X124.821 Y112.999 E0.02641
G1 X125.444 Y112.973 E0.01957
G1 X126.101 Y112.993 E0.02061
G1 X126.796 Y113.077 E0.02193
G1 X127.476 Y113.284 E0.02230
G1 X128.188 Y113.601 E0.02445
G1 X128.687 Y114.034 E0.02072
G1 X129.092 Y114.498 E0.01929
G1 X129.381 Y115.036 E0.01917
G1 X129.627 Y115.680 E0.02159
G1 X129.627 Y110.376 E0.16628
G1 X133.476 Y110.376 E0.12069
G1 X133.476 Y115.353 E0.15604
G1 X133.610 Y115.104 E0.00886
G1 X134.137 Y114.311 E0.02987
G1 X134.821 Y113.737 E0.02799
G1 X135.569 Y113.289 E0.02733
G1 X136.485 Y113.055 E0.02965
G1 X137.242 Y112.969 E0.02389
G1 X138.141 Y113.058 E0.02834
G1 X138.993 Y113.278 E0.02757
G1 X139.451 Y113.510 E0.01610
G1 X139.836 Y113.772 E0.01460
G1 X140.556 Y114.379 E0.02953
G1 X141.101 Y115.320 E0.03409
G1 X141.322 Y115.803 E0.01665
G1 X141.496 Y116.337 E0.01763
G1 X141.640 Y117.324 E0.03126
G1 X141.673 Y118.575 E0.03926
G1 X141.977 Y118.626 E0.00966
G1 X141.257 Y120.275 E0.05640
G1 X140.930 Y120.837 E0.02040
G1 X140.495 Y121.326 E0.02052
G1 X139.982 Y121.776 E0.02139
G1 X139.361 Y122.102 E0.02198
G1 X138.735 Y122.339 E0.02099
G1 X138.081 Y122.451 E0.02082
G1 X137.427 Y122.493 E0.02054
G1 X136.495 Y122.408 E0.02935
G1 X135.999 Y122.312 E0.01584
G1 X135.497 Y122.145 E0.01660
G1 X135.023 Y121.892 E0.01683
G1 X134.607 Y121.583 E0.01626
G1 X133.865 Y120.886 E0.03191
G1 X133.476 Y120.173 E0.02546
G1 X133.476 Y122.326 E0.06749
G1 X129.627 Y122.326 E0.12069
G1 X129.627 Y120.279 E0.06420
G1 X129.564 Y120.472 E0.00638
G1 X129.173 Y121.048 E0.02184
G1 X128.683 Y121.569 E0.02240
G1 X127.936 Y122.010 E0.02722
G1 X127.174 Y122.320 E0.02577
G1 X126.374 Y122.454 E0.02544
G1 X125.607 Y122.491 E0.02406
G1 X124.891 Y122.456 E0.02248
G1 X124.149 Y122.343 E0.02353
G1 X123.434 Y122.090 E0.02379
G1 X122.719 Y121.732 E0.02507
G1 X122.426 Y121.477 E0.01218
G1 X122.788 Y122.326 E0.02893
G1 X118.723 Y122.326 E0.12744
G1 X118.650 Y122.097 E0.00756
G1 X118.518 Y122.170 E0.00473
G1 X118.116 Y122.311 E0.01337
G1 X117.725 Y122.415 E0.01267
G1 X117.325 Y122.469 E0.01265
G1 X116.918 Y122.492 E0.01279
G1 X116.308 Y122.447 E0.01920
G1 X115.727 Y122.326 E0.01858
G1 X110.815 Y122.326 E0.15401
G1 X108.419 Y118.235 E0.14866
G1 X107.937 Y118.727 E0.02161
G1 X107.937 Y122.326 E0.11284
G1 X103.985 Y122.326 E0.12390
G1 X103.985 Y110.376 E0.37468
G1 X107.937 Y110.376 E0.12390
G1 X107.937 Y113.316 E0.09217
G1 X110.637 Y110.376 E0.12515
G1 X114.663 Y110.376 E0.12623
G1 X114.663 Y110.205 E0.00536
G1 X121.125 Y110.205 E0.20261
G1 F5760
G1 X121.162 Y112.399 E-0.76000
G1 E-0.04000 F2100.00000
G1 X141.438 Y118.918 F7200.000
G1 E0.80000 F2100.00000
G1 F840
G1 X140.920 Y120.104 E0.04057
G1 X140.623 Y120.615 E0.01854
G1 X140.229 Y121.058 E0.01860
G1 X139.768 Y121.463 E0.01924
G1 X139.206 Y121.757 E0.01986
G1 X138.636 Y121.973 E0.01914
G1 X138.037 Y122.076 E0.01905
G1 X137.432 Y122.115 E0.01899
G1 X136.548 Y122.034 E0.02783
G1 X136.095 Y121.946 E0.01448
G1 X135.646 Y121.797 E0.01483
G1 X135.226 Y121.572 E0.01495
G1 X134.849 Y121.293 E0.01470
G1 X134.167 Y120.652 E0.02933
G1 X133.786 Y119.954 E0.02495
G1 X133.511 Y119.258 E0.02347
G1 X133.380 Y118.524 E0.02339
G1 X133.331 Y117.786 E0.02318
G1 X133.390 Y116.938 E0.02665
G1 X133.556 Y116.111 E0.02643
G1 X133.726 Y115.684 E0.01441
G1 X133.933 Y115.298 E0.01375
G1 X134.421 Y114.565 E0.02762
G1 X135.040 Y114.045 E0.02535
G1 X135.715 Y113.641 E0.02467
G1 X136.553 Y113.426 E0.02712
G1 X137.245 Y113.348 E0.02182
G1 X138.075 Y113.430 E0.02617
G1 X138.859 Y113.633 E0.02538
G1 X139.259 Y113.835 E0.01406
G1 X139.608 Y114.072 E0.01322
G1 X140.262 Y114.625 E0.02687
G1 X140.766 Y115.493 E0.03147
G1 X140.970 Y115.940 E0.01540
G1 X141.127 Y116.424 E0.01594
G1 X141.264 Y117.356 E0.02956
G1 X141.304 Y118.873 E0.04757
G1 X141.167 Y118.873 E0.00428
G1 X141.379 Y118.908 E0.00672
G1 X140.917 Y118.496 F7200.000
G1 F840
G1 X136.118 Y118.496 E0.15045
G1 X136.197 Y118.927 E0.01375
G1 X136.333 Y119.210 E0.00984
G1 X136.511 Y119.473 E0.00996
G1 X136.717 Y119.645 E0.00841
G1 X136.939 Y119.778 E0.00812
G1 X137.189 Y119.847 E0.00813
G1 X137.465 Y119.879 E0.00870
G1 X137.636 Y119.866 E0.00538
G1 X137.797 Y119.832 E0.00518
G1 X138.085 Y119.681 E0.01019
G1 X138.327 Y119.383 E0.01202
G1 X138.552 Y118.816 E0.01913
G1 X140.899 Y119.210 E0.07462
G1 X140.583 Y119.933 E0.02474
G1 X140.316 Y120.393 E0.01667
G1 X139.962 Y120.790 E0.01667
G1 X139.553 Y121.150 E0.01710
G1 X139.052 Y121.412 E0.01773
G1 X138.536 Y121.608 E0.01729
G1 X137.993 Y121.701 E0.01728
G1 X137.438 Y121.737 E0.01745
G1 X136.602 Y121.661 E0.02632
G1 X136.191 Y121.581 E0.01312
G1 X135.796 Y121.449 E0.01306
G1 X135.428 Y121.253 E0.01307
G1 X135.091 Y121.003 E0.01314
G1 X134.469 Y120.419 E0.02676
G1 X134.128 Y119.794 E0.02233
G1 X133.876 Y119.155 E0.02155
G1 X133.755 Y118.478 E0.02155
G1 X133.709 Y117.786 E0.02173
G1 X133.764 Y116.988 E0.02508
G1 X133.919 Y116.219 E0.02460
G1 X134.068 Y115.844 E0.01266
G1 X134.257 Y115.492 E0.01251
G1 X134.705 Y114.819 E0.02537
G1 X135.260 Y114.353 E0.02271
G1 X135.862 Y113.992 E0.02201
G1 X136.622 Y113.798 E0.02458
G1 X137.247 Y113.727 E0.01975
G1 X138.009 Y113.802 E0.02399
G1 X138.725 Y113.988 E0.02319
G1 X139.067 Y114.161 E0.01202
G1 X139.379 Y114.373 E0.01184
G1 X139.969 Y114.871 E0.02420
G1 X140.430 Y115.667 E0.02885
G1 X140.619 Y116.077 E0.01415
G1 X140.759 Y116.510 E0.01426
G1 X140.888 Y117.389 E0.02785
G1 X140.915 Y118.436 E0.03285
G1 X140.927 Y118.896 F7200.000
G1 F5760
G1 X138.721 Y118.463 E-0.76000
G1 E-0.04000 F2100.00000
G1 X130.004 Y110.753 F7200.000
G1 E0.80000 F2100.00000
G1 F840
G1 X133.099 Y110.753 E0.09704
G1 X133.099 Y121.949 E0.35103
G1 X130.004 Y121.949 E0.09704
G1 X130.004 Y110.813 E0.34915
G1 X130.381 Y111.130 F7200.000
G1 F840
G1 X132.722 Y111.130 E0.07340
G1 X132.722 Y121.572 E0.32739
G1 X130.381 Y121.572 E0.07340
G1 X130.381 Y111.190 E0.32550
G1 X130.351 Y110.732 F7200.000
G1 F5760
G1 X132.574 Y111.134 E-0.76000
G1 E-0.04000 F2100.00000
G1 X117.861 Y110.582 F7200.000
G1 E0.80000 F2100.00000
G1 F1680
G1 X117.861 Y113.351 E0.08681
G1 X117.979 Y113.353 E0.00370
G1 X117.979 Y110.582 E0.08688
G1 X120.808 Y110.582 E0.08868
G1 X120.808 Y113.404 E0.08847
G1 X118.875 Y113.404 E0.06061
G1 X119.456 Y113.526 E0.01863
G1 X120.004 Y113.701 E0.01803
G1 X120.346 Y113.891 E0.01227
G1 X120.660 Y114.114 E0.01206
G1 X120.927 Y114.395 E0.01219
G1 X121.185 Y114.744 E0.01360
G1 X121.356 Y115.284 E0.01773
G1 X121.459 Y115.776 E0.01579
G1 X121.496 Y116.273 E0.01563
G1 X121.483 Y118.795 E0.07907
G1 X123.394 Y118.504 E0.06062
G1 X122.931 Y118.299 E0.01586
G1 X122.473 Y117.882 E0.01942
G1 X122.266 Y117.647 E0.00982
G1 X122.088 Y117.372 E0.01027
G1 X121.962 Y117.070 E0.01027
G1 X121.885 Y116.766 E0.00982
G1 X121.802 Y116.168 E0.01895
G1 X121.880 Y115.586 E0.01842
G1 X122.049 Y115.036 E0.01802
G1 X122.364 Y114.557 E0.01800
G1 X122.769 Y114.116 E0.01875
G1 X123.420 Y113.744 E0.02351
G1 X124.084 Y113.485 E0.02234
G1 X124.855 Y113.375 E0.02444
G1 X125.447 Y113.351 E0.01856
G1 X126.073 Y113.369 E0.01965
G1 X126.717 Y113.447 E0.02035
G1 X127.344 Y113.638 E0.02054
G1 X127.984 Y113.923 E0.02195
G1 X128.420 Y114.302 E0.01813
G1 X128.780 Y114.713 E0.01713
G1 X129.037 Y115.193 E0.01707
G1 X129.463 Y116.308 E0.03742
G1 X127.648 Y116.644 E0.05788
G1 X128.081 Y116.847 E0.01502
G1 X128.688 Y117.205 E0.02209
G1 X129.038 Y117.613 E0.01684
G1 X129.189 Y117.834 E0.00839
G1 X129.324 Y118.098 E0.00932
G1 X129.450 Y118.585 E0.01575
G1 X129.500 Y119.107 E0.01644
G1 X129.411 Y119.720 E0.01944
G1 X129.222 Y120.305 E0.01927
G1 X128.878 Y120.812 E0.01921
G1 X128.446 Y121.271 E0.01978
G1 X127.768 Y121.671 E0.02467
G1 X127.071 Y121.955 E0.02360
G1 X126.333 Y122.078 E0.02344
G1 X125.607 Y122.114 E0.02279
G1 X124.929 Y122.081 E0.02130
G1 X124.241 Y121.976 E0.02181
G1 X123.582 Y121.742 E0.02193
G1 X122.930 Y121.416 E0.02285
G1 X122.457 Y121.005 E0.01964
G1 X122.056 Y120.549 E0.01906
G1 X121.770 Y120.013 E0.01905
G1 X121.480 Y119.234 E0.02607
G1 X121.521 Y119.980 E0.02344
G1 X121.560 Y120.276 E0.00935
G1 X121.612 Y120.478 E0.00654
G1 X121.676 Y120.682 E0.00672
G1 X122.217 Y121.949 E0.04318
G1 X118.999 Y121.949 E0.10090
G1 X118.869 Y121.544 E0.01334
G1 X118.363 Y121.824 E0.01815
G1 X118.005 Y121.950 E0.01192
G1 X117.651 Y122.044 E0.01146
G1 X117.289 Y122.093 E0.01145
G1 X116.921 Y122.114 E0.01156
G1 X116.360 Y122.073 E0.01764
G1 X115.790 Y121.954 E0.01825
G1 X115.262 Y121.700 E0.01837
G1 X114.758 Y121.355 E0.01917
G1 X114.400 Y120.918 E0.01770
G1 X114.123 Y120.448 E0.01712
G1 X113.982 Y119.921 E0.01709
G1 X113.923 Y119.391 E0.01674
G1 X113.950 Y119.019 E0.01169
G1 X114.013 Y118.658 E0.01148
G1 X114.139 Y118.313 E0.01152
G1 X114.303 Y117.976 E0.01176
G1 X114.523 Y117.680 E0.01157
G1 X114.771 Y117.413 E0.01140
G1 X115.062 Y117.197 E0.01138
G1 X115.380 Y117.010 E0.01154
G1 X115.916 Y116.817 E0.01789
G1 X113.926 Y116.457 E0.06342
G1 X114.330 Y115.321 E0.03782
G1 X114.584 Y114.813 E0.01781
G1 X114.944 Y114.369 E0.01791
G1 X115.388 Y113.953 E0.01908
G1 X116.007 Y113.658 E0.02153
G1 X116.619 Y113.456 E0.02020
G1 X117.039 Y113.404 E0.01328
G1 X115.040 Y113.404 E0.06270
G1 X115.040 Y110.883 E0.07904
G1 X110.755 Y115.316 E0.19330
G1 X115.068 Y121.949 E0.24809
G1 X111.032 Y121.949 E0.12657
G1 X108.495 Y117.618 E0.15736
G1 X107.560 Y118.573 E0.04191
G1 X107.560 Y121.949 E0.10584
G1 X104.362 Y121.949 E0.10026
G1 X104.362 Y110.753 E0.35103
G1 X107.560 Y110.753 E0.10026
G1 X107.560 Y114.284 E0.11069
G1 X110.803 Y110.753 E0.15030
G1 X115.040 Y110.753 E0.13286
G1 X115.040 Y110.582 E0.00536
G1 X117.801 Y110.582 E0.08659
G1 F5760
G1 X117.849 Y112.776 E-0.76000
G1 E-0.04000 F2100.00000
G1 X121.646 Y121.572 F7200.000
G1 E0.80000 F2100.00000
G1 F840
G1 X119.274 Y121.572 E0.07436
G1 X119.069 Y120.929 E0.02117
G1 X118.800 Y121.151 E0.01093
G1 X118.208 Y121.479 E0.02122
G1 X117.893 Y121.590 E0.01046
G1 X117.577 Y121.674 E0.01025
G1 X117.253 Y121.717 E0.01025
G1 X116.924 Y121.736 E0.01034
G1 X116.413 Y121.699 E0.01607
G1 X115.912 Y121.594 E0.01603
G1 X115.452 Y121.373 E0.01603
G1 X115.015 Y121.074 E0.01658
G1 X114.710 Y120.702 E0.01509
G1 X114.474 Y120.301 E0.01459
G1 X114.354 Y119.851 E0.01459
G1 X114.302 Y119.384 E0.01475
G1 X114.325 Y119.065 E0.01001
G1 X114.379 Y118.756 E0.00985
G1 X114.486 Y118.460 E0.00986
G1 X114.626 Y118.173 E0.01003
G1 X114.813 Y117.921 E0.00982
G1 X115.023 Y117.696 E0.00967
G1 X115.271 Y117.512 E0.00967
G1 X115.541 Y117.353 E0.00981
G1 X116.319 Y117.072 E0.02594
G1 X116.720 Y116.972 E0.01297
G1 X118.051 Y116.699 E0.04259
G1 X118.810 Y116.470 E0.02486
G1 X118.804 Y116.237 E0.00730
G1 X118.772 Y116.074 E0.00522
G1 X118.700 Y115.928 E0.00510
G1 X118.612 Y115.809 E0.00463
G1 X118.430 Y115.719 E0.00640
G1 X118.212 Y115.648 E0.00716
G1 X117.980 Y115.622 E0.00731
G1 X117.524 Y115.627 E0.01430
G1 X117.353 Y115.653 E0.00544
G1 X117.042 Y115.783 E0.01057
G1 X116.813 Y116.037 E0.01072
G1 X116.577 Y116.553 E0.01778
G1 X114.430 Y116.165 E0.06841
G1 X114.678 Y115.469 E0.02317
G1 X114.903 Y115.018 E0.01580
G1 X115.220 Y114.627 E0.01580
G1 X115.603 Y114.268 E0.01644
G1 X116.148 Y114.008 E0.01894
G1 X116.702 Y113.826 E0.01828
G1 X117.348 Y113.746 E0.02042
