; generated by Slic3r 1.33.8-prusa3d-win64 on 2018-02-19 at 17:40:39

; external perimeters extrusion width = 0.45mm
; perimeters extrusion width = 0.45mm
; infill extrusion width = 0.45mm
; solid infill extrusion width = 0.45mm
; top infill extrusion width = 0.45mm

M107
M115 U3.0.10 ; tell printer latest fw version
M83  ; extruder relative mode
M104 S215 ; set extruder temp
M140 S55 ; set bed temp
M190 S55 ; wait for bed temp
M109 S215 ; wait for extruder temp
G28 W ; home all without mesh bed level
G80 ; mesh bed leveling
G1 Y-3.0 F1000.0 ; go outside pritn area
G1 X60.0 E9.0  F1000.0 ; intro line
G1 X100.0 E12.5  F1000.0 ; intro line
G21 ; set units to millimeters
G90 ; use absolute coordinates
M83 ; use relative distances for extrusion
G1 E-0.80000 F2100.00000
G1 Z0.200 F7200.000
G1 X88.262 Y72.886 F7200.000
G1 E0.80000 F2100.00000
M204 S1000
G1 F2100
G1 X90.238 Y70.758 E0.09106
G1 X92.298 Y68.787 E0.08939
G1 X94.633 Y66.807 E0.09599
G1 X96.914 Y65.099 E0.08935
G1 X99.350 Y63.490 E0.09154
G1 X101.875 Y62.033 E0.09142
G1 X104.425 Y60.756 E0.08939
G1 X107.240 Y59.553 E0.09599
G1 X109.923 Y58.593 E0.08935
G1 X112.721 Y57.775 E0.09142
G1 X115.640 Y57.112 E0.09385
G1 X118.451 Y56.646 E0.08935
G1 X121.355 Y56.341 E0.09154
G1 X124.267 Y56.210 E0.09142
G1 X127.118 Y56.252 E0.08939
G1 X130.171 Y56.481 E0.09599
G1 X132.995 Y56.864 E0.08935
G1 X135.859 Y57.429 E0.09154
G1 X138.681 Y58.162 E0.09142
G1 X141.393 Y59.042 E0.08939
G1 X144.243 Y60.161 E0.09599
G1 X146.828 Y61.359 E0.08935
G1 X149.395 Y62.741 E0.09142
G1 X151.940 Y64.317 E0.09384
G1 X154.269 Y65.958 E0.08935
G1 X156.552 Y67.778 E0.09154
G1 X158.719 Y69.729 E0.09142
G1 X160.720 Y71.760 E0.08939
G1 X162.734 Y74.065 E0.09599
G1 X164.477 Y76.320 E0.08935
G1 X166.119 Y78.729 E0.09142
G1 X167.617 Y81.235 E0.09154
G1 X168.931 Y83.765 E0.08939
G1 X170.176 Y86.562 E0.09599
G1 X171.177 Y89.230 E0.08935
G1 X172.036 Y92.016 E0.09142
G1 X172.743 Y94.925 E0.09385
G1 X173.250 Y97.729 E0.08935
G1 X173.599 Y100.627 E0.09154
G1 X173.773 Y103.538 E0.09142
G1 X173.774 Y106.392 E0.08951
G1 X173.591 Y109.445 E0.09587
G1 X173.250 Y112.274 E0.08935
G1 X172.729 Y115.146 E0.09154
G1 X172.037 Y117.979 E0.09142
G1 X171.198 Y120.703 E0.08939
G1 X170.122 Y123.570 E0.09599
G1 X168.962 Y126.173 E0.08935
G1 X167.619 Y128.760 E0.09142
G1 X166.122 Y131.267 E0.09154
G1 X164.517 Y133.623 E0.08939
G1 X162.667 Y136.018 E0.09488
G1 X160.771 Y138.187 E0.09034
G1 X158.768 Y140.222 E0.08951
G1 X156.496 Y142.267 E0.09587
G1 X154.267 Y144.043 E0.08935
G1 X151.880 Y145.724 E0.09154
G1 X149.400 Y147.256 E0.09142
G1 X146.890 Y148.608 E0.08939
G1 X144.112 Y149.895 E0.09599
G1 X141.459 Y150.935 E0.08935
G1 X138.686 Y151.836 E0.09142
G1 X135.788 Y152.586 E0.09385
G1 X132.992 Y153.136 E0.08935
G1 X130.099 Y153.528 E0.09154
G1 X127.192 Y153.746 E0.09142
G1 X124.341 Y153.790 E0.08939
G1 X121.283 Y153.652 E0.09599
G1 X118.449 Y153.353 E0.08935
G1 X115.569 Y152.875 E0.09154
G1 X112.726 Y152.226 E0.09142
G1 X109.989 Y151.428 E0.08939
G1 X107.107 Y150.395 E0.09599
G1 X104.488 Y149.274 E0.08935
G1 X101.876 Y147.968 E0.09154
G1 X99.351 Y146.510 E0.09142
G1 X96.971 Y144.941 E0.08939
G1 X94.522 Y143.104 E0.09599
G1 X92.349 Y141.261 E0.08935
G1 X90.239 Y139.243 E0.09154
G1 X88.256 Y137.106 E0.09142
G1 X86.444 Y134.905 E0.08939
G1 X84.644 Y132.428 E0.09599
G1 X83.111 Y130.026 E0.08935
G1 X81.690 Y127.476 E0.09154
G1 X80.425 Y124.849 E0.09142
G1 X79.342 Y122.212 E0.08939
G1 X78.353 Y119.314 E0.09599
G1 X77.596 Y116.567 E0.08935
G1 X76.989 Y113.711 E0.09154
G1 X76.554 Y110.828 E0.09142
G1 X76.299 Y108.009 E0.08877
G1 X76.206 Y104.931 E0.09656
G1 X76.294 Y102.061 E0.09003
G1 X76.554 Y99.176 E0.09081
G1 X76.989 Y96.290 E0.09152
G1 X77.580 Y93.501 E0.08939
G1 X78.393 Y90.555 E0.09583
G1 X79.317 Y87.853 E0.08951
G1 X80.422 Y85.156 E0.09142
G1 X81.689 Y82.525 E0.09154
G1 X83.076 Y80.035 E0.08939
G1 X84.722 Y77.459 E0.09583
G1 X86.400 Y75.150 E0.08951
G1 X88.223 Y72.932 E0.09001
G1 F5760
G1 X89.714 Y71.322 E-0.76000
G1 E-0.04000 F2100.00000
G1 X110.387 Y108.548 F7200.000
G1 E0.80000 F2100.00000
G1 F1680
G1 X112.162 Y109.872 E0.06944
G1 X112.883 Y110.448 E0.02895
G1 X113.506 Y111.011 E0.02630
G1 X113.929 Y111.594 E0.02261
G1 X114.332 Y111.303 E0.01557
G1 X116.562 Y109.575 E0.08847
G1 X117.310 Y109.158 E0.02686
G1 X118.058 Y109.429 E0.02495
G1 X118.702 Y109.881 E0.02465
G1 X119.359 Y110.439 E0.02704
G1 X119.909 Y111.019 E0.02506
G1 X120.181 Y111.578 E0.01949
G1 X120.152 Y111.987 E0.01285
G1 X120.016 Y112.444 E0.01496
G1 X119.730 Y112.796 E0.01421
G1 X119.413 Y113.027 E0.01231
G1 X118.398 Y113.633 E0.03707
G1 X116.998 Y114.656 E0.05436
G1 X115.654 Y115.529 E0.05027
G1 X114.249 Y116.327 E0.05063
G1 X112.868 Y117.018 E0.04843
G1 X113.392 Y117.387 E0.02008
G1 X113.960 Y117.728 E0.02077
G1 X114.156 Y117.813 E0.00669
G1 X114.388 Y117.839 E0.00732
G1 X114.791 Y116.407 E0.04666
G1 X116.517 Y117.051 E0.05777
G1 X117.272 Y117.393 E0.02599
G1 X118.041 Y117.834 E0.02780
G1 X118.559 Y118.222 E0.02028
G1 X118.597 Y117.924 E0.00940
G1 X118.740 Y117.520 E0.01344
G1 X118.948 Y117.151 E0.01330
G1 X119.226 Y116.829 E0.01333
G1 X119.679 Y116.458 E0.01835
G1 X120.172 Y116.116 E0.01883
G1 X120.556 Y115.889 E0.01400
G1 X121.120 Y115.614 E0.01966
G1 X121.540 Y115.453 E0.01411
G1 X121.994 Y115.359 E0.01453
G1 X121.849 Y115.219 E0.00632
G1 X121.519 Y114.692 E0.01948
G1 X121.327 Y114.128 E0.01869
G1 X121.250 Y113.522 E0.01916
G1 X121.367 Y112.858 E0.02116
G1 X121.674 Y112.378 E0.01785
G1 X121.964 Y112.158 E0.01141
G1 X122.723 Y111.713 E0.02757
G1 X123.661 Y112.379 E0.03608
G1 X123.957 Y112.015 E0.01470
G1 X124.387 Y111.800 E0.01507
G1 X124.823 Y111.730 E0.01386
G1 X125.375 Y111.916 E0.01825
G1 X125.916 Y112.407 E0.02291
G1 X126.197 Y112.734 E0.01351
G1 X126.613 Y113.312 E0.02232
G1 X126.794 Y113.721 E0.01403
G1 X126.853 Y114.213 E0.01555
G1 X126.755 Y114.796 E0.01853
G1 X126.461 Y115.332 E0.01915
G1 X126.223 Y115.550 E0.01013
G1 X126.468 Y115.720 E0.00933
G1 X127.212 Y116.367 E0.03092
G1 X127.700 Y116.709 E0.01869
G1 X128.042 Y117.015 E0.01438
G1 X128.083 Y116.752 E0.00836
G1 X128.278 Y116.317 E0.01494
G1 X128.567 Y115.900 E0.01590
G1 X128.875 Y115.584 E0.01384
G1 X129.224 Y115.313 E0.01387
G1 X129.616 Y115.087 E0.01417
G1 X130.031 Y114.930 E0.01392
G1 X130.575 Y114.858 E0.01721
G1 X131.021 Y114.917 E0.01409
G1 X131.392 Y115.039 E0.01223
G1 X131.763 Y115.203 E0.01272
G1 X132.457 Y115.596 E0.02501
G1 X132.621 Y115.170 E0.01430
G1 X132.873 Y114.608 E0.01934
G1 X133.446 Y113.557 E0.03753
G1 X133.764 Y113.049 E0.01879
G1 X134.684 Y111.701 E0.05114
G1 X135.076 Y111.268 E0.01834
G1 X135.440 Y110.975 E0.01466
G1 X135.881 Y110.751 E0.01550
G1 X136.201 Y110.685 E0.01024
G1 X136.485 Y110.657 E0.00894
G1 X136.786 Y110.701 E0.00954
G1 X137.089 Y110.798 E0.00996
G1 X137.349 Y110.972 E0.00981
G1 X137.554 Y111.162 E0.00878
G1 X137.805 Y111.514 E0.01355
G1 X137.975 Y111.878 E0.01261
G1 X138.126 Y112.376 E0.01631
G1 X138.219 Y112.953 E0.01831
G1 X138.223 Y113.475 E0.01637
G1 X138.115 Y113.929 E0.01464
G1 X137.919 Y114.498 E0.01888
G1 X137.638 Y115.181 E0.02313
G1 X137.331 Y115.835 E0.02266
G1 X137.110 Y116.242 E0.01454
G1 X136.643 Y116.953 E0.02666
G1 X135.488 Y118.577 E0.06248
G1 X135.627 Y118.549 E0.00443
G1 X136.031 Y118.257 E0.01565
G1 X136.615 Y118.118 E0.01882
G1 X136.652 Y118.135 E0.00125
G1 X136.672 Y117.965 E0.00537
G1 X136.765 Y117.588 E0.01215
G1 X137.068 Y117.027 E0.02001
G1 X137.492 Y116.522 E0.02067
G1 X137.961 Y116.112 E0.01952
G1 X138.467 Y115.772 E0.01911
G1 X139.042 Y115.481 E0.02022
G1 X139.585 Y115.292 E0.01800
G1 X140.192 Y115.210 E0.01923
G1 X140.859 Y115.249 E0.02092
G1 X141.324 Y115.392 E0.01526
G1 X141.708 Y115.584 E0.01346
G1 X142.165 Y115.898 E0.01739
G1 X142.557 Y116.246 E0.01644
G1 X143.008 Y116.697 E0.02000
G1 X143.302 Y117.038 E0.01412
G1 X143.572 Y117.483 E0.01633
G1 X143.743 Y117.987 E0.01667
G1 X143.787 Y118.303 E0.00999
G1 X143.792 Y118.729 E0.01335
G1 X143.754 Y119.019 E0.00919
G1 X143.568 Y119.516 E0.01665
G1 X143.667 Y120.079 E0.01791
G1 X143.661 Y120.505 E0.01334
G1 X143.607 Y120.828 E0.01029
G1 X143.396 Y121.309 E0.01646
G1 X143.085 Y121.684 E0.01526
G1 X142.742 Y121.957 E0.01375
G1 X142.365 Y122.159 E0.01342
G1 X141.993 Y122.291 E0.01237
G1 X141.496 Y122.408 E0.01602
G1 X141.091 Y122.466 E0.01282
G1 X140.516 Y122.436 E0.01804
G1 X140.110 Y122.343 E0.01306
G1 X139.750 Y122.224 E0.01188
G1 X139.401 Y122.071 E0.01196
G1 X139.074 Y121.891 E0.01169
G1 X138.666 Y121.624 E0.01530
G1 X138.205 Y121.257 E0.01848
G1 X138.185 Y121.358 E0.00323
G1 X137.819 Y121.811 E0.01827
G1 X137.435 Y122.040 E0.01402
G1 X137.086 Y122.169 E0.01166
G1 X136.511 Y122.260 E0.01826
G1 X135.475 Y122.246 E0.03248
G1 X134.829 Y122.171 E0.02039
G1 X134.546 Y122.115 E0.00907
G1 X134.190 Y122.016 E0.01158
G1 X133.551 Y121.738 E0.02185
G1 X133.001 Y121.346 E0.02116
G1 X132.534 Y120.816 E0.02215
G1 X132.412 Y120.584 E0.00824
G1 X132.213 Y120.868 E0.01088
G1 X131.962 Y121.138 E0.01157
G1 X131.664 Y121.386 E0.01214
G1 X131.332 Y121.599 E0.01237
G1 X130.876 Y121.807 E0.01573
G1 X130.527 Y121.909 E0.01141
G1 X130.004 Y121.990 E0.01658
G1 X129.456 Y122.017 E0.01719
G1 X128.904 Y121.949 E0.01744
G1 X128.378 Y121.761 E0.01753
G1 X127.896 Y121.484 E0.01742
G1 X127.485 Y121.145 E0.01671
G1 X127.310 Y120.957 E0.00806
G1 X127.252 Y121.198 E0.00778
G1 X126.949 Y121.687 E0.01804
G1 X126.439 Y121.912 E0.01746
G1 X126.007 Y121.971 E0.01367
G1 X125.503 Y121.874 E0.01608
G1 X125.208 Y121.732 E0.01027
G1 X124.764 Y121.409 E0.01723
G1 X124.543 Y121.181 E0.00995
G1 X124.407 Y121.279 E0.00525
G1 X124.098 Y121.449 E0.01106
G1 X123.650 Y121.649 E0.01539
G1 X122.840 Y121.934 E0.02692
G1 X122.332 Y122.065 E0.01647
G1 X121.750 Y122.130 E0.01834
G1 X121.384 Y122.086 E0.01156
G1 X121.022 Y121.998 E0.01169
G1 X120.688 Y121.843 E0.01154
G1 X120.400 Y121.668 E0.01055
G1 X120.112 Y121.441 E0.01153
G1 X119.674 Y121.011 E0.01921
G1 X119.446 Y120.734 E0.01124
G1 X119.070 Y120.151 E0.02178
G1 X118.928 Y120.479 E0.01123
G1 X118.751 Y120.770 E0.01067
G1 X118.522 Y121.021 E0.01065
G1 X118.144 Y121.330 E0.01530
G1 X117.878 Y121.490 E0.00973
G1 X117.415 Y121.689 E0.01582
G1 X116.941 Y121.819 E0.01540
G1 X116.495 Y121.891 E0.01418
G1 X116.041 Y121.918 E0.01425
G1 X115.408 Y121.885 E0.01988
G1 X114.785 Y121.772 E0.01985
G1 X114.492 Y121.686 E0.00959
G1 X114.214 Y121.591 E0.00920
G1 X113.710 Y121.371 E0.01725
G1 X113.225 Y121.109 E0.01727
G1 X112.778 Y120.827 E0.01659
G1 X111.662 Y120.061 E0.04242
G1 X110.834 Y119.361 E0.03399
G1 X110.499 Y119.113 E0.01309
G1 X110.392 Y119.060 E0.00374
G1 X109.924 Y119.020 E0.01471
G1 X109.761 Y119.034 E0.00513
G1 X109.569 Y119.181 E0.00759
G1 X108.780 Y119.990 E0.03543
G1 X108.191 Y120.538 E0.02522
G1 X107.742 Y120.884 E0.01778
G1 X107.412 Y121.063 E0.01175
G1 X107.064 Y121.165 E0.01138
G1 X106.679 Y121.224 E0.01222
G1 X106.255 Y121.179 E0.01337
G1 X105.774 Y121.055 E0.01557
G1 X105.411 Y120.925 E0.01210
G1 X105.050 Y120.760 E0.01242
G1 X104.715 Y120.551 E0.01239
G1 X104.484 Y120.373 E0.00915
G1 X104.132 Y119.961 E0.01698
G1 X103.909 Y119.132 E0.02691
G1 X104.321 Y118.470 E0.02444
G1 X105.328 Y117.910 E0.03612
G1 X105.227 Y117.801 E0.00466
G1 X105.008 Y117.462 E0.01263
G1 X104.544 Y116.054 E0.04650
G1 X106.103 Y115.540 E0.05147
G1 X107.328 Y115.226 E0.03967
G1 X107.599 Y115.121 E0.00910
G1 X107.723 Y114.941 E0.00685
G1 X108.188 Y114.092 E0.03034
G1 X108.556 Y113.373 E0.02533
G1 X109.087 Y112.193 E0.04057
G1 X109.205 Y111.822 E0.01221
G1 X109.643 Y110.197 E0.05276
G1 X109.808 Y109.742 E0.01518
G1 X110.361 Y108.602 E0.03973
G1 F5760
G1 X112.154 Y109.866 E-0.76000
G1 E-0.04000 F2100.00000
G1 X127.773 Y117.281 F7200.000
G1 E0.80000 F2100.00000
G1 F1680
G1 X127.815 Y117.740 E0.01447
G1 X127.747 Y118.145 E0.01287
G1 X127.717 Y118.207 E0.00215
G1 X127.828 Y118.164 E0.00374
G1 X128.279 Y118.119 E0.01420
G1 X128.575 Y118.228 E0.00989
G1 X128.677 Y118.311 E0.00414
G1 X128.458 Y117.790 E0.01773
G1 X128.379 Y117.299 E0.01558
G1 X128.448 Y116.860 E0.01393
G1 X128.610 Y116.498 E0.01244
G1 X128.855 Y116.145 E0.01348
G1 X129.127 Y115.865 E0.01222
G1 X129.435 Y115.627 E0.01223
G1 X129.778 Y115.429 E0.01241
G1 X130.130 Y115.295 E0.01182
G1 X130.567 Y115.237 E0.01382
G1 X130.937 Y115.286 E0.01167
G1 X131.256 Y115.391 E0.01055
G1 X131.595 Y115.541 E0.01161
G1 X132.197 Y115.875 E0.02160
G1 X132.663 Y116.192 E0.01767
G1 X132.753 Y115.875 E0.01035
G1 X132.969 Y115.315 E0.01881
G1 X133.212 Y114.773 E0.01864
G1 X133.485 Y114.255 E0.01836
G1 X133.770 Y113.750 E0.01818
G1 X134.080 Y113.255 E0.01829
G1 X134.980 Y111.935 E0.05010
G1 X135.336 Y111.543 E0.01660
G1 X135.646 Y111.293 E0.01249
G1 X136.007 Y111.110 E0.01268
G1 X136.476 Y111.037 E0.01490
G1 X136.701 Y111.069 E0.00710
G1 X136.923 Y111.141 E0.00732
G1 X137.114 Y111.269 E0.00723
G1 X137.270 Y111.413 E0.00664
G1 X137.478 Y111.705 E0.01124
G1 X137.622 Y112.013 E0.01067
G1 X137.757 Y112.461 E0.01468
G1 X137.843 Y112.985 E0.01662
G1 X137.846 Y113.432 E0.01403
G1 X137.753 Y113.823 E0.01262
G1 X137.566 Y114.365 E0.01796
G1 X137.293 Y115.029 E0.02250
G1 X136.994 Y115.665 E0.02203
G1 X136.786 Y116.049 E0.01371
G1 X136.332 Y116.740 E0.02594
G1 X135.037 Y118.561 E0.07003
G1 X134.890 Y118.860 E0.01045
G1 X135.047 Y118.917 E0.00525
G1 X135.295 Y118.956 E0.00788
G1 X135.589 Y118.953 E0.00920
G1 X135.703 Y118.929 E0.00368
G1 X135.817 Y118.877 E0.00392
G1 X136.191 Y118.606 E0.01447
G1 X136.578 Y118.515 E0.01245
G1 X136.892 Y118.656 E0.01080
G1 X137.041 Y118.765 E0.00580
G1 X137.007 Y118.336 E0.01351
G1 X137.044 Y118.033 E0.00957
G1 X137.120 Y117.725 E0.00993
G1 X137.382 Y117.240 E0.01730
G1 X137.762 Y116.786 E0.01855
G1 X138.191 Y116.411 E0.01785
G1 X138.662 Y116.096 E0.01776
G1 X138.919 Y115.958 E0.00916
G1 X139.186 Y115.830 E0.00929
G1 X139.673 Y115.661 E0.01616
G1 X140.207 Y115.589 E0.01689
G1 X140.791 Y115.623 E0.01836
G1 X141.183 Y115.743 E0.01285
G1 X141.516 Y115.910 E0.01166
G1 X141.932 Y116.195 E0.01583
G1 X142.298 Y116.521 E0.01535
G1 X142.732 Y116.954 E0.01922
G1 X142.996 Y117.261 E0.01270
G1 X143.229 Y117.644 E0.01404
G1 X143.374 Y118.074 E0.01426
G1 X143.410 Y118.331 E0.00813
G1 X143.415 Y118.706 E0.01175
G1 X143.385 Y118.932 E0.00714
G1 X143.255 Y119.305 E0.01239
G1 X143.169 Y119.427 E0.00468
G1 X143.290 Y120.110 E0.02173
G1 X143.285 Y120.470 E0.01131
G1 X143.243 Y120.719 E0.00792
G1 X143.072 Y121.109 E0.01335
G1 X142.820 Y121.413 E0.01237
G1 X142.534 Y121.640 E0.01146
G1 X142.212 Y121.813 E0.01147
G1 X141.886 Y121.929 E0.01083
G1 X141.426 Y122.037 E0.01483
G1 X141.074 Y122.087 E0.01114
G1 X140.568 Y122.061 E0.01588
G1 X140.211 Y121.980 E0.01148
G1 X139.886 Y121.872 E0.01076
G1 X139.568 Y121.732 E0.01088
G1 X139.269 Y121.568 E0.01071
G1 X138.883 Y121.316 E0.01442
G1 X138.395 Y120.922 E0.01967
G1 X138.082 Y120.585 E0.01441
G1 X137.767 Y120.157 E0.01667
G1 X137.917 Y120.759 E0.01946
G1 X137.833 Y121.194 E0.01387
G1 X137.568 Y121.521 E0.01322
G1 X137.271 Y121.699 E0.01083
G1 X136.991 Y121.803 E0.00939
G1 X136.484 Y121.883 E0.01607
G1 X135.500 Y121.869 E0.03087
G1 X134.888 Y121.798 E0.01930
G1 X134.633 Y121.748 E0.00815
G1 X134.310 Y121.658 E0.01051
G1 X133.743 Y121.411 E0.01939
G1 X133.255 Y121.064 E0.01876
G1 X132.847 Y120.601 E0.01936
G1 X132.520 Y119.976 E0.02213
G1 X132.330 Y119.319 E0.02142
G1 X132.294 Y119.024 E0.00932
G1 X132.292 Y118.614 E0.01287
G1 X132.320 Y118.097 E0.01623
G1 X132.187 Y118.137 E0.00435
G1 X131.782 Y118.117 E0.01270
G1 X131.611 Y118.011 E0.00632
G1 X132.056 Y118.842 E0.02956
G1 X132.244 Y119.305 E0.01564
G1 X132.297 Y119.719 E0.01310
G1 X132.227 Y120.125 E0.01292
G1 X132.053 Y120.458 E0.01177
