; generated by PrusaSlicer 2.2.0+win64 on 2020-12-13 at 14:57:01 UTC

; 

; external perimeters extrusion width = 0.45mm
; perimeters extrusion width = 0.45mm
; infill extrusion width = 0.45mm
; solid infill extrusion width = 0.45mm
; top infill extrusion width = 0.40mm
; first layer extrusion width = 0.42mm

M73 P0 R217
M201 X9000 Y9000 Z500 E10000 ; sets maximum accelerations, mm/sec^2
M203 X500 Y500 Z12 E120 ; sets maximum feedrates, mm/sec
M204 P2000 R1500 T2000 ; sets acceleration (P, T) and retract acceleration (R), mm/sec^2
M205 X10.00 Y10.00 Z0.20 E2.50 ; sets the jerk limits, mm/sec
M205 S0 T0 ; sets the minimum extruding and travel feed rate, mm/sec
M107
M862.3 P "MK2S" ; printer model check
M862.1 P0.4 ; nozzle diameter check
M115 U3.2.3 ; tell printer latest fw version
G90 ; use absolute coordinates
M83 ; extruder relative mode
M204 S2000 T1500 ; MK2 firmware only supports the old M204 format
M104 S265 ; set extruder temp
M140 S100 ; set bed temp
M190 S100 ; wait for bed temp
M109 S265 ; wait for extruder temp
G28 W ; home all without mesh bed level
G80 ; mesh bed leveling
G1 Y-3.0 F1000.0 ; go outside print area
G92 E0.0
G1 X60.0 E9.0  F1000.0 ; intro line
M73 P0 R217
G1 X100.0 E12.5 F1000.0 ; intro line
G92 E0.0
G21 ; set units to millimeters
G90 ; use absolute coordinates
M83 ; use relative distances for extrusion
M900 K0.04 ; Filament gcode LA 1.5
M900 K20 ; Filament gcode LA 1.0
;BEFORE_LAYER_CHANGE
G92 E0.0
;0.2


G1 E-0.80000 F2100.00000
G1 Z0.600 F10800.000
;AFTER_LAYER_CHANGE
;0.2
G1 X72.031 Y73.477
G1 Z0.200
G1 E0.80000 F2100.00000
M204 S1000
G1 F1200.000
G1 X73.577 Y72.518 E0.05704
G1 X74.741 Y72.130 E0.03847
G1 X76.103 Y71.975 E0.04298
G1 X173.141 Y71.974 E3.04256
G1 X174.516 Y72.126 E0.04336
G1 X175.704 Y72.521 E0.03928
G1 X176.900 Y73.214 E0.04334
G1 X177.294 Y73.526 E0.01574
G1 X178.149 Y74.408 E0.03853
G1 X178.891 Y75.602 E0.04406
G1 X179.350 Y76.914 E0.04359
G1 X179.511 Y78.218 E0.04121
G1 X179.514 Y103.355 E0.78816
G1 X179.348 Y158.839 E1.73966
G1 X179.266 Y159.538 E0.02207
G1 X179.034 Y160.225 E0.02275
G1 X178.662 Y160.840 E0.02252
G1 X178.206 Y161.331 E0.02101
G1 X177.433 Y161.846 E0.02911
G1 X176.547 Y162.127 E0.02915
G1 X169.209 Y162.678 E0.23074
G1 X91.164 Y162.679 E2.44705
G1 X78.694 Y162.140 E0.39135
G1 X77.611 Y161.796 E0.03562
G1 X77.090 Y161.460 E0.01944
G1 X76.642 Y161.036 E0.01934
G1 X76.116 Y160.239 E0.02994
G1 X75.836 Y159.306 E0.03056
G1 X69.763 Y103.476 E1.76083
G1 X69.767 Y78.173 E0.79336
G1 X69.929 Y76.896 E0.04035
G1 X70.392 Y75.585 E0.04360
G1 X71.133 Y74.400 E0.04382
G1 X71.989 Y73.520 E0.03849
G1 F8640.000
G1 X73.577 Y72.518 E-0.43354
G1 X74.741 Y72.130 E-0.28332
G1 X74.927 Y72.109 E-0.04313
G1 E-0.04000 F2100.00000
G1 Z0.800 F10800.000
G1 X146.666 Y157.887
G1 Z0.200
G1 E0.80000 F2100.00000
G1 F1200.000
G1 X146.818 Y157.781 E0.00580
G1 X146.988 Y157.715 E0.00571
G1 X147.145 Y157.694 E0.00499
G1 X173.198 Y157.694 E0.81684
G1 X173.355 Y157.715 E0.00499
G1 X173.525 Y157.781 E0.00571
G1 X173.677 Y157.887 E0.00580
G1 X173.797 Y158.031 E0.00588
G1 X173.874 Y158.198 E0.00578
G1 X173.906 Y158.374 E0.00560
G1 X173.898 Y158.547 E0.00544
G1 X173.851 Y158.720 E0.00563
G1 X173.754 Y158.877 E0.00579
G1 X173.609 Y159.008 E0.00613
G1 X173.315 Y159.106 E0.00970
G1 X169.256 Y159.113 E0.12728
G1 X168.278 Y159.192 E0.03076
G1 X167.779 Y159.209 E0.01566
G1 X152.564 Y159.209 E0.47704
G1 X152.065 Y159.192 E0.01566
G1 X151.088 Y159.113 E0.03076
G1 X147.149 Y159.113 E0.12349
G1 X146.894 Y159.073 E0.00811
G1 X146.728 Y159.002 E0.00567
G1 X146.590 Y158.877 E0.00584
G1 X146.492 Y158.720 E0.00579
G1 X146.445 Y158.547 E0.00563
G1 X146.437 Y158.374 E0.00544
G1 X146.469 Y158.198 E0.00560
G1 X146.546 Y158.031 E0.00578
G1 X146.628 Y157.933 E0.00400
G1 X146.626 Y157.706 F10800.000
G1 F8640.000
G1 X146.818 Y157.781 E-0.05622
G1 X146.988 Y157.715 E-0.04206
G1 X147.145 Y157.694 E-0.03672
G1 X149.852 Y157.694 E-0.62500
G1 E-0.04000 F2100.00000
G1 Z0.800 F10800.000
G1 X108.385 Y132.789
G1 Z0.200
G1 E0.80000 F2100.00000
G1 F1200.000
G1 X132.974 Y132.789 E0.77100
G1 X133.033 Y133.268 E0.01515
G1 X133.485 Y134.461 E0.04001
G1 X134.210 Y135.511 E0.04001
G1 X135.165 Y136.358 E0.04001
G1 X135.682 Y136.629 E0.01830
G1 X136.295 Y136.951 E0.02170
G1 X137.534 Y137.256 E0.04001
G1 X138.810 Y137.256 E0.04001
G1 X140.048 Y136.951 E0.04001
G1 X141.178 Y136.358 E0.04001
G1 X142.133 Y135.511 E0.04001
G1 X142.858 Y134.461 E0.04001
G1 X143.311 Y133.268 E0.04001
G1 X143.369 Y132.789 E0.01515
G1 X151.959 Y132.789 E0.26933
G1 X151.959 Y132.289 E0.01568
G1 X168.385 Y132.289 E0.51502
G1 X168.385 Y132.789 E0.01568
G1 X175.927 Y132.789 E0.23650
G1 X176.062 Y132.814 E0.00429
G1 X176.159 Y132.911 E0.00431
G1 X176.185 Y133.046 E0.00429
G1 X176.185 Y158.757 E0.80617
G1 X176.159 Y158.892 E0.00429
G1 X176.062 Y158.989 E0.00431
G1 X175.927 Y159.015 E0.00432
G1 X174.495 Y159.019 E0.04490
G1 X174.093 Y159.045 E0.01261
G1 X174.201 Y158.873 E0.00636
G1 X174.273 Y158.605 E0.00868
G1 X174.285 Y158.348 E0.00807
G1 X174.236 Y158.084 E0.00842
G1 X174.119 Y157.828 E0.00884
G1 X173.934 Y157.606 E0.00904
G1 X173.704 Y157.446 E0.00881
G1 X173.450 Y157.347 E0.00854
G1 X173.223 Y157.317 E0.00719
G1 X147.120 Y157.317 E0.81843
G1 X146.893 Y157.347 E0.00717
G1 X146.639 Y157.446 E0.00854
G1 X146.409 Y157.606 E0.00881
G1 X146.224 Y157.828 E0.00904
G1 X146.107 Y158.084 E0.00884
G1 X146.059 Y158.348 E0.00842
G1 X146.070 Y158.605 E0.00807
G1 X146.142 Y158.873 E0.00868
G1 X146.244 Y159.036 E0.00604
G1 X145.680 Y159.017 E0.01770
G1 X115.668 Y159.015 E0.94100
G1 X114.099 Y159.036 E0.04921
G1 X114.201 Y158.873 E0.00604
G1 X114.273 Y158.605 E0.00868
G1 X114.285 Y158.348 E0.00807
G1 X114.236 Y158.084 E0.00842
G1 X114.119 Y157.828 E0.00884
G1 X113.934 Y157.606 E0.00904
G1 X113.704 Y157.446 E0.00881
G1 X113.450 Y157.347 E0.00854
G1 X113.223 Y157.317 E0.00719
G1 X88.171 Y157.315 E0.78547
G1 X87.120 Y157.317 E0.03295
G1 X86.893 Y157.347 E0.00717
G1 X86.639 Y157.446 E0.00854
G1 X86.409 Y157.606 E0.00881
G1 X86.224 Y157.828 E0.00904
G1 X86.107 Y158.084 E0.00884
G1 X86.059 Y158.348 E0.00842
G1 X86.070 Y158.605 E0.00807
G1 X86.142 Y158.873 E0.00868
G1 X86.244 Y159.036 E0.00604
G1 X85.680 Y159.017 E0.01770
G1 X79.216 Y159.015 E0.20269
G1 X79.081 Y158.989 E0.00429
G1 X79.009 Y158.931 E0.00290
G1 X78.969 Y158.848 E0.00290
G1 X78.959 Y158.757 E0.00285
G1 X78.959 Y133.046 E0.80617
G1 X78.984 Y132.911 E0.00429
G1 X79.042 Y132.839 E0.00290
G1 X79.125 Y132.799 E0.00290
G1 X79.216 Y132.789 E0.00285
G1 X91.959 Y132.789 E0.39954
G1 X91.959 Y132.289 E0.01568
G1 X108.385 Y132.289 E0.51502
G1 X108.385 Y132.729 E0.01380
G1 F8640.000
G1 X111.676 Y132.737 E-0.76000
G1 E-0.04000 F2100.00000
G1 Z0.800 F10800.000
G1 X113.754 Y158.877
G1 Z0.200
G1 E0.80000 F2100.00000
G1 F1200.000
G1 X113.609 Y159.008 E0.00613
G1 X113.315 Y159.106 E0.00970
G1 X109.181 Y159.113 E0.12963
G1 X108.183 Y159.197 E0.03139
G1 X107.674 Y159.209 E0.01596
G1 X92.669 Y159.209 E0.47047
G1 X92.160 Y159.197 E0.01596
G1 X91.163 Y159.113 E0.03139
G1 X87.149 Y159.113 E0.12584
G1 X86.894 Y159.073 E0.00811
G1 X86.728 Y159.002 E0.00567
G1 X86.590 Y158.877 E0.00584
G1 X86.492 Y158.720 E0.00579
G1 X86.445 Y158.547 E0.00563
G1 X86.437 Y158.374 E0.00544
G1 X86.469 Y158.198 E0.00560
G1 X86.546 Y158.031 E0.00578
G1 X86.666 Y157.887 E0.00588
G1 X86.818 Y157.781 E0.00580
G1 X86.988 Y157.715 E0.00571
G1 X87.145 Y157.694 E0.00499
G1 X113.198 Y157.694 E0.81684
G1 X113.355 Y157.715 E0.00499
G1 X113.525 Y157.781 E0.00571
G1 X113.677 Y157.887 E0.00580
G1 X113.797 Y158.031 E0.00588
G1 X113.874 Y158.198 E0.00578
G1 X113.906 Y158.374 E0.00560
G1 X113.898 Y158.547 E0.00544
G1 X113.851 Y158.720 E0.00563
G1 X113.785 Y158.826 E0.00391
G1 X113.821 Y159.060 F10800.000
G1 F8640.000
G1 X113.609 Y159.008 E-0.05859
G1 X113.315 Y159.106 E-0.07143
G1 X110.587 Y159.111 E-0.62998
G1 E-0.04000 F2100.00000
G1 Z0.800 F10800.000
G1 X108.762 Y132.412
G1 Z0.200
G1 E0.80000 F2100.00000
G1 F1200.000
G1 X133.308 Y132.412 E0.76965
G1 X133.401 Y133.177 E0.02419
G1 X133.821 Y134.285 E0.03714
G1 X134.494 Y135.260 E0.03714
G1 X135.381 Y136.045 E0.03714
G1 X135.857 Y136.295 E0.01687
G1 X136.429 Y136.595 E0.02027
G1 X137.579 Y136.879 E0.03714
G1 X138.764 Y136.879 E0.03714
G1 X139.914 Y136.595 E0.03714
G1 X140.962 Y136.045 E0.03714
G1 X141.849 Y135.260 E0.03714
G1 X142.522 Y134.285 E0.03714
G1 X142.942 Y133.177 E0.03714
G1 X143.035 Y132.412 E0.02419
G1 X151.582 Y132.412 E0.26798
G1 X151.582 Y131.912 E0.01568
G1 X168.762 Y131.912 E0.53867
G1 X168.762 Y132.412 E0.01568
G1 X175.949 Y132.412 E0.22534
G1 X176.102 Y132.429 E0.00485
G1 X176.226 Y132.472 E0.00412
G1 X176.338 Y132.542 E0.00412
G1 X176.431 Y132.635 E0.00412
G1 X176.501 Y132.747 E0.00412
G1 X176.544 Y132.871 E0.00412
G1 X176.562 Y133.025 E0.00485
G1 X176.562 Y158.779 E0.80750
G1 X176.544 Y158.932 E0.00485
G1 X176.501 Y159.056 E0.00412
G1 X176.431 Y159.168 E0.00412
G1 X176.338 Y159.261 E0.00412
G1 X176.226 Y159.331 E0.00412
G1 X176.102 Y159.374 E0.00412
G1 X175.948 Y159.392 E0.00486
G1 X174.507 Y159.396 E0.04518
G1 X173.050 Y159.490 E0.04577
G1 X168.882 Y159.490 E0.13070
G1 X168.836 Y159.905 E0.01309
G1 X167.713 Y159.892 E0.03524
G1 X152.141 Y159.892 E0.48822
G1 X151.507 Y159.910 E0.01989
G1 X151.461 Y159.490 E0.01326
G1 X147.180 Y159.490 E0.13423
G1 X146.183 Y159.409 E0.03136
G1 X145.675 Y159.394 E0.01595
G1 X115.670 Y159.392 E0.94076
G1 X114.162 Y159.409 E0.04730
G1 X113.163 Y159.490 E0.03142
G1 X108.882 Y159.490 E0.13423
G1 X108.836 Y159.906 E0.01311
G1 X107.672 Y159.892 E0.03651
G1 X92.169 Y159.892 E0.48610
G1 X91.507 Y159.911 E0.02074
G1 X91.461 Y159.490 E0.01327
G1 X87.180 Y159.490 E0.13423
G1 X86.183 Y159.409 E0.03136
G1 X85.675 Y159.394 E0.01595
G1 X79.195 Y159.392 E0.20318
G1 X79.041 Y159.374 E0.00485
G1 X78.917 Y159.331 E0.00412
G1 X78.805 Y159.261 E0.00412
G1 X78.712 Y159.168 E0.00412
G1 X78.642 Y159.056 E0.00412
G1 X78.599 Y158.932 E0.00412
G1 X78.582 Y158.779 E0.00485
G1 X78.582 Y133.025 E0.80750
G1 X78.599 Y132.871 E0.00485
G1 X78.642 Y132.747 E0.00412
G1 X78.712 Y132.635 E0.00412
G1 X78.805 Y132.542 E0.00412
G1 X78.917 Y132.472 E0.00412
G1 X79.041 Y132.429 E0.00412
G1 X79.195 Y132.412 E0.00485
G1 X91.582 Y132.412 E0.38838
G1 X91.582 Y131.912 E0.01568
G1 X108.762 Y131.912 E0.53867
G1 X108.762 Y132.352 E0.01380
G1 X108.958 Y132.760 F10800.000
G1 X108.271 Y132.760
G1 F1200.000
G1 X108.083 Y132.571 E0.00836
G1 X107.549 Y132.571 E0.01679
G1 X133.711 Y158.733 E1.16253
G1 X134.245 Y158.733 E0.01679
G1 X108.583 Y133.071 E1.14032
M73 P0 R216
G1 X109.118 Y133.071 E0.01679
G1 X134.780 Y158.734 E1.14032
G1 X135.314 Y158.734 E0.01679
G1 X109.652 Y133.071 E1.14032
G1 X110.187 Y133.071 E0.01679
G1 X135.849 Y158.734 E1.14032
G1 X136.383 Y158.734 E0.01679
G1 X110.721 Y133.071 E1.14033
G1 X111.255 Y133.071 E0.01679
G1 X136.918 Y158.734 E1.14033
G1 X137.452 Y158.734 E0.01679
G1 X111.790 Y133.071 E1.14033
G1 X112.324 Y133.071 E0.01679
G1 X137.987 Y158.734 E1.14033
G1 X138.521 Y158.734 E0.01679
G1 X112.859 Y133.071 E1.14034
G1 X113.393 Y133.071 E0.01679
G1 X139.055 Y158.734 E1.14034
G1 X139.590 Y158.734 E0.01679
G1 X113.927 Y133.071 E1.14034
G1 X114.462 Y133.071 E0.01679
G1 X140.124 Y158.734 E1.14034
G1 X140.659 Y158.734 E0.01679
G1 X114.996 Y133.071 E1.14034
G1 X115.531 Y133.071 E0.01679
G1 X141.193 Y158.734 E1.14035
G1 X141.728 Y158.734 E0.01679
G1 X116.065 Y133.071 E1.14035
G1 X116.599 Y133.071 E0.01679
G1 X142.262 Y158.734 E1.14035
G1 X142.797 Y158.734 E0.01679
G1 X117.134 Y133.071 E1.14035
G1 X117.668 Y133.071 E0.01679
G1 X143.331 Y158.734 E1.14036
G1 X143.866 Y158.734 E0.01679
G1 X118.203 Y133.071 E1.14036
G1 X118.737 Y133.071 E0.01679
G1 X144.400 Y158.734 E1.14036
G1 X144.934 Y158.734 E0.01679
G1 X119.271 Y133.071 E1.14036
G1 X119.806 Y133.071 E0.01679
G1 X145.469 Y158.735 E1.14036
G1 X145.813 Y158.739 E0.01083
G1 X145.783 Y158.514 E0.00712
G1 X120.340 Y133.071 E1.13058
G1 X120.875 Y133.071 E0.01679
G1 X145.830 Y158.027 E1.10891
G1 X145.997 Y157.659 E0.01268
G1 X121.409 Y133.071 E1.09258
G1 X121.943 Y133.071 E0.01679
G1 X146.247 Y157.375 E1.07994
G1 X146.506 Y157.194 E0.00991
G1 X146.574 Y157.168 E0.00231
G1 X122.478 Y133.071 E1.07074
G1 X123.012 Y133.071 E0.01679
G1 X146.990 Y157.049 E1.06546
G1 X147.509 Y157.034 E0.01633
G1 X123.547 Y133.071 E1.06480
G1 X124.081 Y133.071 E0.01679
G1 X148.044 Y157.034 E1.06480
G1 X148.578 Y157.034 E0.01679
G1 X124.615 Y133.071 E1.06480
G1 X125.150 Y133.071 E0.01679
G1 X149.112 Y157.034 E1.06480
G1 X149.647 Y157.034 E0.01679
G1 X125.684 Y133.071 E1.06480
G1 X126.219 Y133.071 E0.01679
G1 X150.181 Y157.034 E1.06480
G1 X150.716 Y157.034 E0.01679
G1 X126.753 Y133.071 E1.06480
M73 P0 R215
G1 X127.288 Y133.071 E0.01679
G1 X151.250 Y157.034 E1.06480
G1 X151.784 Y157.034 E0.01679
G1 X127.822 Y133.071 E1.06480
G1 X128.356 Y133.071 E0.01679
G1 X152.319 Y157.034 E1.06480
G1 X152.853 Y157.034 E0.01679
G1 X128.891 Y133.071 E1.06480
G1 X129.425 Y133.071 E0.01679
G1 X153.388 Y157.034 E1.06480
G1 X153.922 Y157.034 E0.01679
G1 X129.960 Y133.071 E1.06480
G1 X130.494 Y133.071 E0.01679
G1 X154.456 Y157.034 E1.06480
G1 X154.991 Y157.034 E0.01679
G1 X131.028 Y133.071 E1.06480
G1 X131.563 Y133.071 E0.01679
G1 X155.695 Y157.204 E1.07234
G1 F8640.000
G1 X153.368 Y154.876 E-0.76000
G1 E-0.04000 F2100.00000
G1 Z0.800 F10800.000
G1 X151.656 Y159.533
G1 Z0.200
G1 E0.80000 F2100.00000
G1 F1200.000
G1 X152.561 Y159.550 E0.02309
G1 X167.787 Y159.550 E0.38802
G1 X168.302 Y159.543 E0.01397
G1 X168.688 Y159.529 E0.01107
G1 F8640.000
G1 X168.302 Y159.543 E-0.08926
G1 E-0.71074 F2100.00000
G1 Z0.800 F10800.000
G1 X146.765 Y159.246
G1 Z0.200
G1 E0.80000 F2100.00000
G1 F1200.000
G1 X146.610 Y159.196 E0.00118
G1 X146.545 Y159.120 E0.00061
G1 F8640.000
G1 X146.610 Y159.196 E-0.02312
G1 E-0.77688 F2100.00000
G1 Z0.800 F10800.000
G1 X133.346 Y158.903
G1 Z0.200
G1 E0.80000 F2100.00000
G1 F1200.000
G1 X107.015 Y132.571 E1.17007
G1 X106.480 Y132.571 E0.01679
G1 X132.642 Y158.733 E1.16253
G1 X132.107 Y158.733 E0.01679
G1 X105.946 Y132.571 E1.16253
G1 X105.411 Y132.571 E0.01679
G1 X131.573 Y158.733 E1.16252
G1 X131.039 Y158.733 E0.01679
G1 X104.877 Y132.571 E1.16252
G1 X104.342 Y132.571 E0.01679
G1 X130.504 Y158.733 E1.16252
G1 X129.970 Y158.733 E0.01679
G1 X103.808 Y132.571 E1.16252
G1 X103.274 Y132.571 E0.01679
G1 X129.435 Y158.733 E1.16252
G1 X128.901 Y158.733 E0.01679
G1 X102.739 Y132.571 E1.16251
G1 X102.205 Y132.571 E0.01679
G1 X128.366 Y158.733 E1.16251
G1 X127.832 Y158.733 E0.01679
G1 X101.670 Y132.571 E1.16251
G1 X101.136 Y132.571 E0.01679
G1 X127.297 Y158.733 E1.16251
G1 X126.763 Y158.733 E0.01679
G1 X100.602 Y132.571 E1.16250
G1 X100.067 Y132.571 E0.01679
G1 X126.228 Y158.733 E1.16250
G1 X125.694 Y158.733 E0.01679
G1 X99.533 Y132.571 E1.16250
G1 X98.998 Y132.571 E0.01679
G1 X125.160 Y158.733 E1.16250
G1 X124.625 Y158.733 E0.01679
G1 X98.464 Y132.571 E1.16250
G1 X97.930 Y132.571 E0.01679
G1 X124.091 Y158.733 E1.16249
G1 X123.556 Y158.732 E0.01679
G1 X97.395 Y132.571 E1.16249
G1 X96.861 Y132.571 E0.01679
G1 X123.022 Y158.732 E1.16249
G1 X122.487 Y158.732 E0.01679
G1 X96.326 Y132.571 E1.16249
G1 X95.792 Y132.571 E0.01679
G1 X121.953 Y158.732 E1.16248
G1 X121.418 Y158.732 E0.01679
G1 X95.258 Y132.571 E1.16248
M73 P1 R214
G1 X94.723 Y132.571 E0.01679
G1 X120.884 Y158.732 E1.16248
G1 X120.349 Y158.732 E0.01679
G1 X94.189 Y132.571 E1.16248
G1 X93.654 Y132.571 E0.01679
G1 X119.815 Y158.732 E1.16247
G1 X119.281 Y158.732 E0.01679
G1 X93.120 Y132.571 E1.16247
G1 X92.586 Y132.571 E0.01679
G1 X118.746 Y158.732 E1.16247
G1 X118.212 Y158.732 E0.01679
G1 X92.241 Y132.762 E1.15401
G1 X92.241 Y133.071 E0.00973
G1 X92.017 Y133.071 E0.00706
G1 X117.677 Y158.732 E1.14025
G1 X117.143 Y158.732 E0.01679
G1 X91.482 Y133.071 E1.14025
G1 X90.948 Y133.071 E0.01679
G1 X116.608 Y158.732 E1.14024
G1 X116.074 Y158.732 E0.01679
G1 X90.414 Y133.071 E1.14024
G1 X89.879 Y133.071 E0.01679
G1 X115.541 Y158.733 E1.14032
G1 X115.014 Y158.741 E0.01657
G1 X114.561 Y158.288 E0.02012
G1 X114.508 Y157.998 E0.00925
G1 X114.360 Y157.676 E0.01115
G1 X114.127 Y157.396 E0.01144
G1 X113.838 Y157.194 E0.01109
G1 X113.521 Y157.071 E0.01068
