( Made using CamBam - http://www.cambam.co.uk )
( Schaufeln70x46 10/2/2015 4:58:05 PM )
( T3 : 3.0 )
G21 G90 G64 G40
G0 Z3.0
( T3 : 3.0 )
T3 M6
( Schaufel1 )
G17
M3 S1000
G0 X10.0 Y8.5
G0 Z1.0
G1 F30.0 Z-1.4
G1 F400.0 X80.0
G3 X81.5 Y10.0 I0.0 J1.5
G1 Y56.0
G3 X80.0 Y57.5 I-1.5 J0.0
G1 X10.0
G3 X8.5 Y56.0 I0.0 J-1.5
G1 Y10.0
G3 X10.0 Y8.5 I1.5 J0.0
G1 F30.0 Z-2.8
G1 F400.0 X36.0
G1 X37.5 Z-2.0
G1 X40.5
G1 X42.0 Z-2.8
G1 X80.0
G3 X81.5 Y10.0 I0.0 J1.5
G1 Y24.0
G1 Y25.5 Z-2.0
G1 Y28.5
G1 Y30.0 Z-2.8
G1 Y56.0
G3 X80.0 Y57.5 I-1.5 J0.0
G1 X54.0
G1 X52.5 Z-2.0
G1 X49.5
G1 X48.0 Z-2.8
G1 X10.0
G3 X8.5 Y56.0 I0.0 J-1.5
G1 Y42.0
G1 Y40.5 Z-2.0
G1 Y37.5
G1 Y36.0 Z-2.8
G1 Y10.0
G3 X10.0 Y8.5 I1.5 J0.0
G1 F30.0 Z-4.2
G1 F400.0 X36.0
G1 X37.5 Z-2.0
G1 X40.5
G1 X42.0 Z-4.2
G1 X80.0
G3 X81.5 Y10.0 I0.0 J1.5
G1 Y24.0
G1 Y25.5 Z-2.0
G1 Y28.5
G1 Y30.0 Z-4.2
G1 Y56.0
G3 X80.0 Y57.5 I-1.5 J0.0
G1 X54.0
G1 X52.5 Z-2.0
G1 X49.5
G1 X48.0 Z-4.2
G1 X10.0
G3 X8.5 Y56.0 I0.0 J-1.5
G1 Y42.0
G1 Y40.5 Z-2.0
G1 Y37.5
G1 Y36.0 Z-4.2
G1 Y10.0
G3 X10.0 Y8.5 I1.5 J0.0
G1 F30.0 Z-5.0
G1 F400.0 X36.0
G1 X37.5 Z-2.0
G1 X40.5
G1 X42.0 Z-5.0
G1 X80.0
G3 X81.5 Y10.0 I0.0 J1.5
G1 Y24.0
G1 Y25.5 Z-2.0
G1 Y28.5
G1 Y30.0 Z-5.0
G1 Y56.0
G3 X80.0 Y57.5 I-1.5 J0.0
G1 X54.0
G1 X52.5 Z-2.0
G1 X49.5
G1 X48.0 Z-5.0
G1 X10.0
G3 X8.5 Y56.0 I0.0 J-1.5
G1 Y42.0
G1 Y40.5 Z-2.0
G1 Y37.5
G1 Y36.0 Z-5.0
G1 Y10.0
G3 X10.0 Y8.5 I1.5 J0.0
( Schaufel2 )
S1000
G0 Z3.0
G0 X83.0
G0 Z1.0
G1 F30.0 Z-1.4
G1 F400.0 X153.0
G3 X154.5 Y10.0 I0.0 J1.5
G1 Y56.0
G3 X153.0 Y57.5 I-1.5 J0.0
G1 X83.0
G3 X81.5 Y56.0 I0.0 J-1.5
G1 Y10.0
G3 X83.0 Y8.5 I1.5 J0.0
G1 F30.0 Z-2.8
G1 F400.0 X109.0
G1 X110.5 Z-2.0
G1 X113.5
G1 X115.0 Z-2.8
G1 X153.0
G3 X154.5 Y10.0 I0.0 J1.5
G1 Y24.0
G1 Y25.5 Z-2.0
G1 Y28.5
G1 Y30.0 Z-2.8
G1 Y56.0
G3 X153.0 Y57.5 I-1.5 J0.0
G1 X127.0
G1 X125.5 Z-2.0
G1 X122.5
G1 X121.0 Z-2.8
G1 X83.0
G3 X81.5 Y56.0 I0.0 J-1.5
G1 Y42.0
G1 Y40.5 Z-2.0
G1 Y37.5
G1 Y36.0 Z-2.8
G1 Y10.0
G3 X83.0 Y8.5 I1.5 J0.0
G1 F30.0 Z-4.2
G1 F400.0 X109.0
G1 X110.5 Z-2.0
G1 X113.5
G1 X115.0 Z-4.2
G1 X153.0
G3 X154.5 Y10.0 I0.0 J1.5
G1 Y24.0
G1 Y25.5 Z-2.0
G1 Y28.5
G1 Y30.0 Z-4.2
G1 Y56.0
G3 X153.0 Y57.5 I-1.5 J0.0
G1 X127.0
G1 X125.5 Z-2.0
G1 X122.5
G1 X121.0 Z-4.2
G1 X83.0
G3 X81.5 Y56.0 I0.0 J-1.5
G1 Y42.0
G1 Y40.5 Z-2.0
G1 Y37.5
G1 Y36.0 Z-4.2
G1 Y10.0
G3 X83.0 Y8.5 I1.5 J0.0
G1 F30.0 Z-5.0
G1 F400.0 X109.0
G1 X110.5 Z-2.0
G1 X113.5
G1 X115.0 Z-5.0
G1 X153.0
G3 X154.5 Y10.0 I0.0 J1.5
G1 Y24.0
G1 Y25.5 Z-2.0
G1 Y28.5
G1 Y30.0 Z-5.0
G1 Y56.0
G3 X153.0 Y57.5 I-1.5 J0.0
G1 X127.0
G1 X125.5 Z-2.0
G1 X122.5
G1 X121.0 Z-5.0
G1 X83.0
G3 X81.5 Y56.0 I0.0 J-1.5
G1 Y42.0
G1 Y40.5 Z-2.0
G1 Y37.5
G1 Y36.0 Z-5.0
G1 Y10.0
G3 X83.0 Y8.5 I1.5 J0.0
( Schaufel3 )
S1000
G0 Z3.0
G0 X156.0
G0 Z1.0
G1 F30.0 Z-1.4
G1 F400.0 X226.0
G3 X227.5 Y10.0 I0.0 J1.5
G1 Y56.0
G3 X226.0 Y57.5 I-1.5 J0.0
G1 X156.0
G3 X154.5 Y56.0 I0.0 J-1.5
G1 Y10.0
G3 X156.0 Y8.5 I1.5 J0.0
G1 F30.0 Z-2.8
G1 F400.0 X182.0
G1 X183.5 Z-2.0
G1 X186.5
G1 X188.0 Z-2.8
G1 X226.0
G3 X227.5 Y10.0 I0.0 J1.5
G1 Y24.0
G1 Y25.5 Z-2.0
G1 Y28.5
G1 Y30.0 Z-2.8
G1 Y56.0
G3 X226.0 Y57.5 I-1.5 J0.0
G1 X200.0
G1 X198.5 Z-2.0
G1 X195.5
G1 X194.0 Z-2.8
G1 X156.0
G3 X154.5 Y56.0 I0.0 J-1.5
G1 Y42.0
G1 Y40.5 Z-2.0
G1 Y37.5
G1 Y36.0 Z-2.8
G1 Y10.0
G3 X156.0 Y8.5 I1.5 J0.0
G1 F30.0 Z-4.2
G1 F400.0 X182.0
G1 X183.5 Z-2.0
G1 X186.5
G1 X188.0 Z-4.2
G1 X226.0
G3 X227.5 Y10.0 I0.0 J1.5
G1 Y24.0
G1 Y25.5 Z-2.0
G1 Y28.5
G1 Y30.0 Z-4.2
G1 Y56.0
G3 X226.0 Y57.5 I-1.5 J0.0
G1 X200.0
G1 X198.5 Z-2.0
G1 X195.5
G1 X194.0 Z-4.2
G1 X156.0
G3 X154.5 Y56.0 I0.0 J-1.5
G1 Y42.0
G1 Y40.5 Z-2.0
G1 Y37.5
G1 Y36.0 Z-4.2
G1 Y10.0
G3 X156.0 Y8.5 I1.5 J0.0
G1 F30.0 Z-5.0
G1 F400.0 X182.0
G1 X183.5 Z-2.0
G1 X186.5
G1 X188.0 Z-5.0
G1 X226.0
G3 X227.5 Y10.0 I0.0 J1.5
G1 Y24.0
G1 Y25.5 Z-2.0
G1 Y28.5
G1 Y30.0 Z-5.0
G1 Y56.0
G3 X226.0 Y57.5 I-1.5 J0.0
G1 X200.0
G1 X198.5 Z-2.0
G1 X195.5
G1 X194.0 Z-5.0
G1 X156.0
G3 X154.5 Y56.0 I0.0 J-1.5
G1 Y42.0
G1 Y40.5 Z-2.0
G1 Y37.5
G1 Y36.0 Z-5.0
G1 Y10.0
G3 X156.0 Y8.5 I1.5 J0.0
( Schaufel4 )
S1000
G0 Z3.0
G0 X10.0 Y57.5
G1 F30.0 Z-1.4
G1 F400.0 X80.0
G3 X81.5 Y59.0 I0.0 J1.5
G1 Y105.0
G3 X80.0 Y106.5 I-1.5 J0.0
G1 X10.0
G3 X8.5 Y105.0 I0.0 J-1.5
G1 Y59.0
G3 X10.0 Y57.5 I1.5 J0.0
G1 F30.0 Z-2.8
G1 F400.0 X36.0
G1 X37.5 Z-2.0
G1 X40.5
G1 X42.0 Z-2.8
G1 X80.0
G3 X81.5 Y59.0 I0.0 J1.5
G1 Y73.0
G1 Y74.5 Z-2.0
G1 Y77.5
G1 Y79.0 Z-2.8
G1 Y105.0
G3 X80.0 Y106.5 I-1.5 J0.0
G1 X54.0
G1 X52.5 Z-2.0
G1 X49.5
G1 X48.0 Z-2.8
G1 X10.0
G3 X8.5 Y105.0 I0.0 J-1.5
G1 Y91.0
G1 Y89.5 Z-2.0
G1 Y86.5
G1 Y85.0 Z-2.8
G1 Y59.0
G3 X10.0 Y57.5 I1.5 J0.0
G1 F30.0 Z-4.2
G1 F400.0 X36.0
G1 X37.5 Z-2.0
G1 X40.5
G1 X42.0 Z-4.2
G1 X80.0
G3 X81.5 Y59.0 I0.0 J1.5
G1 Y73.0
G1 Y74.5 Z-2.0
G1 Y77.5
G1 Y79.0 Z-4.2
G1 Y105.0
G3 X80.0 Y106.5 I-1.5 J0.0
G1 X54.0
G1 X52.5 Z-2.0
G1 X49.5
G1 X48.0 Z-4.2
G1 X10.0
G3 X8.5 Y105.0 I0.0 J-1.5
G1 Y91.0
G1 Y89.5 Z-2.0
G1 Y86.5
G1 Y85.0 Z-4.2
G1 Y59.0
G3 X10.0 Y57.5 I1.5 J0.0
G1 F30.0 Z-5.0
G1 F400.0 X36.0
G1 X37.5 Z-2.0
G1 X40.5
G1 X42.0 Z-5.0
G1 X80.0
G3 X81.5 Y59.0 I0.0 J1.5
G1 Y73.0
G1 Y74.5 Z-2.0
G1 Y77.5
G1 Y79.0 Z-5.0
G1 Y105.0
G3 X80.0 Y106.5 I-1.5 J0.0
G1 X54.0
G1 X52.5 Z-2.0
G1 X49.5
G1 X48.0 Z-5.0
G1 X10.0
G3 X8.5 Y105.0 I0.0 J-1.5
G1 Y91.0
G1 Y89.5 Z-2.0
G1 Y86.5
G1 Y85.0 Z-5.0
G1 Y59.0
G3 X10.0 Y57.5 I1.5 J0.0
( Schaufel5 )
S1000
G0 Z3.0
G0 X83.0
G1 F30.0 Z-1.4
G1 F400.0 X153.0
G3 X154.5 Y59.0 I0.0 J1.5
G1 Y105.0
G3 X153.0 Y106.5 I-1.5 J0.0
G1 X83.0
G3 X81.5 Y105.0 I0.0 J-1.5
G1 Y59.0
G3 X83.0 Y57.5 I1.5 J0.0
G1 F30.0 Z-2.8
G1 F400.0 X109.0
G1 X110.5 Z-2.0
G1 X113.5
G1 X115.0 Z-2.8
G1 X153.0
G3 X154.5 Y59.0 I0.0 J1.5
G1 Y73.0
G1 Y74.5 Z-2.0
G1 Y77.5
G1 Y79.0 Z-2.8
G1 Y105.0
G3 X153.0 Y106.5 I-1.5 J0.0
G1 X127.0
G1 X125.5 Z-2.0
G1 X122.5
G1 X121.0 Z-2.8
G1 X83.0
G3 X81.5 Y105.0 I0.0 J-1.5
G1 Y91.0
G1 Y89.5 Z-2.0
G1 Y86.5
G1 Y85.0 Z-2.8
G1 Y59.0
G3 X83.0 Y57.5 I1.5 J0.0
G1 F30.0 Z-4.2
G1 F400.0 X109.0
G1 X110.5 Z-2.0
G1 X113.5
G1 X115.0 Z-4.2
G1 X153.0
G3 X154.5 Y59.0 I0.0 J1.5
G1 Y73.0
G1 Y74.5 Z-2.0
G1 Y77.5
G1 Y79.0 Z-4.2
G1 Y105.0
G3 X153.0 Y106.5 I-1.5 J0.0
G1 X127.0
G1 X125.5 Z-2.0
G1 X122.5
G1 X121.0 Z-4.2
G1 X83.0
G3 X81.5 Y105.0 I0.0 J-1.5
G1 Y91.0
G1 Y89.5 Z-2.0
G1 Y86.5
G1 Y85.0 Z-4.2
G1 Y59.0
G3 X83.0 Y57.5 I1.5 J0.0
G1 F30.0 Z-5.0
G1 F400.0 X109.0
G1 X110.5 Z-2.0
G1 X113.5
G1 X115.0 Z-5.0
G1 X153.0
G3 X154.5 Y59.0 I0.0 J1.5
G1 Y73.0
G1 Y74.5 Z-2.0
G1 Y77.5
G1 Y79.0 Z-5.0
G1 Y105.0
G3 X153.0 Y106.5 I-1.5 J0.0
G1 X127.0
G1 X125.5 Z-2.0
G1 X122.5
G1 X121.0 Z-5.0
G1 X83.0
G3 X81.5 Y105.0 I0.0 J-1.5
G1 Y91.0
G1 Y89.5 Z-2.0
G1 Y86.5
G1 Y85.0 Z-5.0
G1 Y59.0
G3 X83.0 Y57.5 I1.5 J0.0
( Schaufel6 )
S1000
G0 Z3.0
G0 X156.0
G1 F30.0 Z-1.4
G1 F400.0 X226.0
G3 X227.5 Y59.0 I0.0 J1.5
G1 Y105.0
G3 X226.0 Y106.5 I-1.5 J0.0
G1 X156.0
G3 X154.5 Y105.0 I0.0 J-1.5
G1 Y59.0
G3 X156.0 Y57.5 I1.5 J0.0
G1 F30.0 Z-2.8
G1 F400.0 X182.0
G1 X183.5 Z-2.0
G1 X186.5
G1 X188.0 Z-2.8
G1 X226.0
G3 X227.5 Y59.0 I0.0 J1.5
G1 Y73.0
G1 Y74.5 Z-2.0
G1 Y77.5
G1 Y79.0 Z-2.8
G1 Y105.0
G3 X226.0 Y106.5 I-1.5 J0.0
G1 X200.0
G1 X198.5 Z-2.0
G1 X195.5
G1 X194.0 Z-2.8
G1 X156.0
G3 X154.5 Y105.0 I0.0 J-1.5
G1 Y91.0
G1 Y89.5 Z-2.0
G1 Y86.5
G1 Y85.0 Z-2.8
G1 Y59.0
G3 X156.0 Y57.5 I1.5 J0.0
G1 F30.0 Z-4.2
G1 F400.0 X182.0
G1 X183.5 Z-2.0
G1 X186.5
G1 X188.0 Z-4.2
G1 X226.0
G3 X227.5 Y59.0 I0.0 J1.5
G1 Y73.0
G1 Y74.5 Z-2.0
G1 Y77.5
G1 Y79.0 Z-4.2
G1 Y105.0
G3 X226.0 Y106.5 I-1.5 J0.0
G1 X200.0
G1 X198.5 Z-2.0
G1 X195.5
G1 X194.0 Z-4.2
G1 X156.0
G3 X154.5 Y105.0 I0.0 J-1.5
G1 Y91.0
G1 Y89.5 Z-2.0
G1 Y86.5
G1 Y85.0 Z-4.2
G1 Y59.0
G3 X156.0 Y57.5 I1.5 J0.0
G1 F30.0 Z-5.0
G1 F400.0 X182.0
G1 X183.5 Z-2.0
G1 X186.5
G1 X188.0 Z-5.0
G1 X226.0
G3 X227.5 Y59.0 I0.0 J1.5
G1 Y73.0
G1 Y74.5 Z-2.0
G1 Y77.5
G1 Y79.0 Z-5.0
G1 Y105.0
G3 X226.0 Y106.5 I-1.5 J0.0
G1 X200.0
G1 X198.5 Z-2.0
G1 X195.5
G1 X194.0 Z-5.0
G1 X156.0
G3 X154.5 Y105.0 I0.0 J-1.5
G1 Y91.0
G1 Y89.5 Z-2.0
G1 Y86.5
G1 Y85.0 Z-5.0
G1 Y59.0
G3 X156.0 Y57.5 I1.5 J0.0
( Schaufel7 )
S1000
G0 Z3.0
G0 X10.0 Y106.5
G1 F30.0 Z-1.4
G1 F400.0 X80.0
G3 X81.5 Y108.0 I0.0 J1.5
G1 Y154.0
G3 X80.0 Y155.5 I-1.5 J0.0
G1 X10.0
G3 X8.5 Y154.0 I0.0 J-1.5
G1 Y108.0
G3 X10.0 Y106.5 I1.5 J0.0
G1 F30.0 Z-2.8
G1 F400.0 X36.0
G1 X37.5 Z-2.0
G1 X40.5
G1 X42.0 Z-2.8
G1 X80.0
G3 X81.5 Y108.0 I0.0 J1.5
G1 Y122.0
G1 Y123.5 Z-2.0
G1 Y126.5
G1 Y128.0 Z-2.8
G1 Y154.0
G3 X80.0 Y155.5 I-1.5 J0.0
G1 X54.0
G1 X52.5 Z-2.0
G1 X49.5
G1 X48.0 Z-2.8
G1 X10.0
G3 X8.5 Y154.0 I0.0 J-1.5
G1 Y140.0
G1 Y138.5 Z-2.0
G1 Y135.5
G1 Y134.0 Z-2.8
G1 Y108.0
G3 X10.0 Y106.5 I1.5 J0.0
G1 F30.0 Z-4.2
G1 F400.0 X36.0
G1 X37.5 Z-2.0
G1 X40.5
G1 X42.0 Z-4.2
G1 X80.0
G3 X81.5 Y108.0 I0.0 J1.5
G1 Y122.0
G1 Y123.5 Z-2.0
G1 Y126.5
G1 Y128.0 Z-4.2
G1 Y154.0
G3 X80.0 Y155.5 I-1.5 J0.0
G1 X54.0
G1 X52.5 Z-2.0
G1 X49.5
G1 X48.0 Z-4.2
G1 X10.0
G3 X8.5 Y154.0 I0.0 J-1.5
G1 Y140.0
G1 Y138.5 Z-2.0
G1 Y135.5
G1 Y134.0 Z-4.2
G1 Y108.0
G3 X10.0 Y106.5 I1.5 J0.0
G1 F30.0 Z-5.0
G1 F400.0 X36.0
G1 X37.5 Z-2.0
G1 X40.5
G1 X42.0 Z-5.0
G1 X80.0
G3 X81.5 Y108.0 I0.0 J1.5
G1 Y122.0
G1 Y123.5 Z-2.0
G1 Y126.5
G1 Y128.0 Z-5.0
G1 Y154.0
G3 X80.0 Y155.5 I-1.5 J0.0
G1 X54.0
G1 X52.5 Z-2.0
G1 X49.5
G1 X48.0 Z-5.0
G1 X10.0
G3 X8.5 Y154.0 I0.0 J-1.5
G1 Y140.0
G1 Y138.5 Z-2.0
G1 Y135.5
G1 Y134.0 Z-5.0
G1 Y108.0
G3 X10.0 Y106.5 I1.5 J0.0
( Schaufel8 )
S1000
G0 Z3.0
G0 X83.0
G1 F30.0 Z-1.4
G1 F400.0 X153.0
G3 X154.5 Y108.0 I0.0 J1.5
G1 Y154.0
G3 X153.0 Y155.5 I-1.5 J0.0
G1 X83.0
G3 X81.5 Y154.0 I0.0 J-1.5
G1 Y108.0
G3 X83.0 Y106.5 I1.5 J0.0
G1 F30.0 Z-2.8
G1 F400.0 X109.0
G1 X110.5 Z-2.0
G1 X113.5
G1 X115.0 Z-2.8
G1 X153.0
G3 X154.5 Y108.0 I0.0 J1.5
G1 Y122.0
G1 Y123.5 Z-2.0
G1 Y126.5
G1 Y128.0 Z-2.8
G1 Y154.0
G3 X153.0 Y155.5 I-1.5 J0.0
G1 X127.0
G1 X125.5 Z-2.0
G1 X122.5
G1 X121.0 Z-2.8
G1 X83.0
G3 X81.5 Y154.0 I0.0 J-1.5
G1 Y140.0
G1 Y138.5 Z-2.0
G1 Y135.5
G1 Y134.0 Z-2.8
G1 Y108.0
G3 X83.0 Y106.5 I1.5 J0.0
G1 F30.0 Z-4.2
G1 F400.0 X109.0
G1 X110.5 Z-2.0
G1 X113.5
G1 X115.0 Z-4.2
G1 X153.0
G3 X154.5 Y108.0 I0.0 J1.5
G1 Y122.0
G1 Y123.5 Z-2.0
G1 Y126.5
G1 Y128.0 Z-4.2
G1 Y154.0
G3 X153.0 Y155.5 I-1.5 J0.0
G1 X127.0
G1 X125.5 Z-2.0
G1 X122.5
G1 X121.0 Z-4.2
G1 X83.0
G3 X81.5 Y154.0 I0.0 J-1.5
G1 Y140.0
G1 Y138.5 Z-2.0
G1 Y135.5
G1 Y134.0 Z-4.2
G1 Y108.0
G3 X83.0 Y106.5 I1.5 J0.0
G1 F30.0 Z-5.0
G1 F400.0 X109.0
G1 X110.5 Z-2.0
G1 X113.5
G1 X115.0 Z-5.0
G1 X153.0
G3 X154.5 Y108.0 I0.0 J1.5
G1 Y122.0
G1 Y123.5 Z-2.0
G1 Y126.5
G1 Y128.0 Z-5.0
G1 Y154.0
G3 X153.0 Y155.5 I-1.5 J0.0
G1 X127.0
G1 X125.5 Z-2.0
G1 X122.5
G1 X121.0 Z-5.0
G1 X83.0
G3 X81.5 Y154.0 I0.0 J-1.5
G1 Y140.0
G1 Y138.5 Z-2.0
G1 Y135.5
G1 Y134.0 Z-5.0
G1 Y108.0
G3 X83.0 Y106.5 I1.5 J0.0
( Schaufel9 )
S1000
G0 Z3.0
G0 X156.0
G1 F30.0 Z-1.4
G1 F400.0 X226.0
G3 X227.5 Y108.0 I0.0 J1.5
G1 Y154.0
G3 X226.0 Y155.5 I-1.5 J0.0
G1 X156.0
G3 X154.5 Y154.0 I0.0 J-1.5
G1 Y108.0
G3 X156.0 Y106.5 I1.5 J0.0
G1 F30.0 Z-2.8
G1 F400.0 X182.0
G1 X183.5 Z-2.0
G1 X186.5
G1 X188.0 Z-2.8
G1 X226.0
G3 X227.5 Y108.0 I0.0 J1.5
G1 Y122.0
G1 Y123.5 Z-2.0
G1 Y126.5
G1 Y128.0 Z-2.8
G1 Y154.0
G3 X226.0 Y155.5 I-1.5 J0.0
G1 X200.0
G1 X198.5 Z-2.0
G1 X195.5
G1 X194.0 Z-2.8
G1 X156.0
G3 X154.5 Y154.0 I0.0 J-1.5
G1 Y140.0
G1 Y138.5 Z-2.0
G1 Y135.5
G1 Y134.0 Z-2.8
G1 Y108.0
G3 X156.0 Y106.5 I1.5 J0.0
G1 F30.0 Z-4.2
G1 F400.0 X182.0
G1 X183.5 Z-2.0
G1 X186.5
G1 X188.0 Z-4.2
G1 X226.0
G3 X227.5 Y108.0 I0.0 J1.5
G1 Y122.0
G1 Y123.5 Z-2.0
G1 Y126.5
G1 Y128.0 Z-4.2
G1 Y154.0
G3 X226.0 Y155.5 I-1.5 J0.0
G1 X200.0
G1 X198.5 Z-2.0
G1 X195.5
G1 X194.0 Z-4.2
G1 X156.0
G3 X154.5 Y154.0 I0.0 J-1.5
G1 Y140.0
G1 Y138.5 Z-2.0
G1 Y135.5
G1 Y134.0 Z-4.2
G1 Y108.0
G3 X156.0 Y106.5 I1.5 J0.0
G1 F30.0 Z-5.0
G1 F400.0 X182.0
G1 X183.5 Z-2.0
G1 X186.5
G1 X188.0 Z-5.0
G1 X226.0
G3 X227.5 Y108.0 I0.0 J1.5
G1 Y122.0
G1 Y123.5 Z-2.0
G1 Y126.5
G1 Y128.0 Z-5.0
G1 Y154.0
G3 X226.0 Y155.5 I-1.5 J0.0
G1 X200.0
G1 X198.5 Z-2.0
G1 X195.5
G1 X194.0 Z-5.0
G1 X156.0
G3 X154.5 Y154.0 I0.0 J-1.5
G1 Y140.0
G1 Y138.5 Z-2.0
G1 Y135.5
G1 Y134.0 Z-5.0
G1 Y108.0
G3 X156.0 Y106.5 I1.5 J0.0
G0 Z3.0
M5
M30
