( Made using CamBam - http://www.cambam.co.uk )
( Schaufeln70x46 9/29/2015 10:42:50 PM )
( T3 : 3.0 )
G21 G90 G64 G40
G0 Z3.0
( T3 : 3.0 )
T3 M6
( Ausschneiden )
G17
M3 S2000
G0 X156.0 Y106.5
G0 Z1.0
G1 F500.0 Z-1.0
G2 F1000.0 X154.5 Y108.0 I0.0 J1.5
G2 X153.0 Y106.5 I-1.5 J0.0
G2 X154.5 Y105.0 I0.0 J-1.5
G2 X156.0 Y106.5 I1.5 J0.0
G1 F500.0 Z-2.0
G2 F1000.0 X154.5 Y108.0 I0.0 J1.5
G2 X153.0 Y106.5 I-1.5 J0.0
G2 X154.5 Y105.0 I0.0 J-1.5
G2 X156.0 Y106.5 I1.5 J0.0
G1 F500.0 Z-3.0
G2 F1000.0 X154.5 Y108.0 I0.0 J1.5
G2 X153.0 Y106.5 I-1.5 J0.0
G2 X154.5 Y105.0 I0.0 J-1.5
G2 X156.0 Y106.5 I1.5 J0.0
G1 F500.0 Z-4.0
G2 F1000.0 X154.5 Y108.0 I0.0 J1.5
G2 X153.0 Y106.5 I-1.5 J0.0
G2 X154.5 Y105.0 I0.0 J-1.5
G2 X156.0 Y106.5 I1.5 J0.0
G1 F500.0 Z-5.0
G2 F1000.0 X154.5 Y108.0 I0.0 J1.5
G2 X153.0 Y106.5 I-1.5 J0.0
G2 X154.5 Y105.0 I0.0 J-1.5
G2 X156.0 Y106.5 I1.5 J0.0
G0 Z3.0
G0 X154.5 Y59.0
G0 Z1.0
G1 F500.0 Z-1.0
G2 F1000.0 X153.0 Y57.5 I-1.5 J0.0
G2 X154.5 Y56.0 I0.0 J-1.5
G2 X156.0 Y57.5 I1.5 J0.0
G2 X154.5 Y59.0 I0.0 J1.5
G1 F500.0 Z-2.0
G2 F1000.0 X153.0 Y57.5 I-1.5 J0.0
G2 X154.5 Y56.0 I0.0 J-1.5
G2 X156.0 Y57.5 I1.5 J0.0
G2 X154.5 Y59.0 I0.0 J1.5
G1 F500.0 Z-3.0
G2 F1000.0 X153.0 Y57.5 I-1.5 J0.0
G2 X154.5 Y56.0 I0.0 J-1.5
G2 X156.0 Y57.5 I1.5 J0.0
G2 X154.5 Y59.0 I0.0 J1.5
G1 F500.0 Z-4.0
G2 F1000.0 X153.0 Y57.5 I-1.5 J0.0
G2 X154.5 Y56.0 I0.0 J-1.5
G2 X156.0 Y57.5 I1.5 J0.0
G2 X154.5 Y59.0 I0.0 J1.5
G1 F500.0 Z-5.0
G2 F1000.0 X153.0 Y57.5 I-1.5 J0.0
G2 X154.5 Y56.0 I0.0 J-1.5
G2 X156.0 Y57.5 I1.5 J0.0
G2 X154.5 Y59.0 I0.0 J1.5
G0 Z3.0
G0 X83.0 Y57.5
G0 Z1.0
G1 F500.0 Z-1.0
G2 F1000.0 X81.5 Y59.0 I0.0 J1.5
G2 X80.0 Y57.5 I-1.5 J0.0
G2 X81.5 Y56.0 I0.0 J-1.5
G2 X83.0 Y57.5 I1.5 J0.0
G1 F500.0 Z-2.0
G2 F1000.0 X81.5 Y59.0 I0.0 J1.5
G2 X80.0 Y57.5 I-1.5 J0.0
G2 X81.5 Y56.0 I0.0 J-1.5
G2 X83.0 Y57.5 I1.5 J0.0
G1 F500.0 Z-3.0
G2 F1000.0 X81.5 Y59.0 I0.0 J1.5
G2 X80.0 Y57.5 I-1.5 J0.0
G2 X81.5 Y56.0 I0.0 J-1.5
G2 X83.0 Y57.5 I1.5 J0.0
G1 F500.0 Z-4.0
G2 F1000.0 X81.5 Y59.0 I0.0 J1.5
G2 X80.0 Y57.5 I-1.5 J0.0
G2 X81.5 Y56.0 I0.0 J-1.5
G2 X83.0 Y57.5 I1.5 J0.0
G1 F500.0 Z-5.0
G2 F1000.0 X81.5 Y59.0 I0.0 J1.5
G2 X80.0 Y57.5 I-1.5 J0.0
G2 X81.5 Y56.0 I0.0 J-1.5
G2 X83.0 Y57.5 I1.5 J0.0
G0 Z3.0
G0 X81.5 Y105.0
G0 Z1.0
G1 F500.0 Z-1.0
G2 F1000.0 X83.0 Y106.5 I1.5 J0.0
G2 X81.5 Y108.0 I0.0 J1.5
G2 X80.0 Y106.5 I-1.5 J0.0
G2 X81.5 Y105.0 I0.0 J-1.5
G1 F500.0 Z-2.0
G2 F1000.0 X83.0 Y106.5 I1.5 J0.0
G2 X81.5 Y108.0 I0.0 J1.5
G2 X80.0 Y106.5 I-1.5 J0.0
G2 X81.5 Y105.0 I0.0 J-1.5
G1 F500.0 Z-3.0
G2 F1000.0 X83.0 Y106.5 I1.5 J0.0
G2 X81.5 Y108.0 I0.0 J1.5
G2 X80.0 Y106.5 I-1.5 J0.0
G2 X81.5 Y105.0 I0.0 J-1.5
G1 F500.0 Z-4.0
G2 F1000.0 X83.0 Y106.5 I1.5 J0.0
G2 X81.5 Y108.0 I0.0 J1.5
G2 X80.0 Y106.5 I-1.5 J0.0
G2 X81.5 Y105.0 I0.0 J-1.5
G1 F500.0 Z-5.0
G2 F1000.0 X83.0 Y106.5 I1.5 J0.0
G2 X81.5 Y108.0 I0.0 J1.5
G2 X80.0 Y106.5 I-1.5 J0.0
G2 X81.5 Y105.0 I0.0 J-1.5
G0 Z3.0
G0 Y154.0
G0 Z1.0
G1 F500.0 Z-1.0
G3 F1000.0 X80.0 Y155.5 I-1.5 J0.0
G1 X10.0
G3 X8.5 Y154.0 I0.0 J-1.5
G1 Y108.0
G3 X10.0 Y106.5 I1.5 J0.0
G3 X8.5 Y105.0 I0.0 J-1.5
G1 Y59.0
G3 X10.0 Y57.5 I1.5 J0.0
G3 X8.5 Y56.0 I0.0 J-1.5
G1 Y10.0
G3 X10.0 Y8.5 I1.5 J0.0
G1 X80.0
G3 X81.5 Y10.0 I0.0 J1.5
G3 X83.0 Y8.5 I1.5 J0.0
G1 X153.0
G3 X154.5 Y10.0 I0.0 J1.5
G3 X156.0 Y8.5 I1.5 J0.0
G1 X226.0
G3 X227.5 Y10.0 I0.0 J1.5
G1 Y56.0
G3 X226.0 Y57.5 I-1.5 J0.0
G3 X227.5 Y59.0 I0.0 J1.5
G1 Y105.0
G3 X226.0 Y106.5 I-1.5 J0.0
G3 X227.5 Y108.0 I0.0 J1.5
G1 Y154.0
G3 X226.0 Y155.5 I-1.5 J0.0
G1 X156.0
G3 X154.5 Y154.0 I0.0 J-1.5
G3 X153.0 Y155.5 I-1.5 J0.0
G1 X83.0
G3 X81.5 Y154.0 I0.0 J-1.5
G1 F500.0 Z-2.0
G3 F1000.0 X80.0 Y155.5 I-1.5 J0.0
G1 X10.0
G3 X8.5 Y154.0 I0.0 J-1.5
G1 Y108.0
G3 X10.0 Y106.5 I1.5 J0.0
G3 X8.5 Y105.0 I0.0 J-1.5
G1 Y59.0
G3 X10.0 Y57.5 I1.5 J0.0
G3 X8.5 Y56.0 I0.0 J-1.5
G1 Y10.0
G3 X10.0 Y8.5 I1.5 J0.0
G1 X80.0
G3 X81.5 Y10.0 I0.0 J1.5
G3 X83.0 Y8.5 I1.5 J0.0
G1 X153.0
G3 X154.5 Y10.0 I0.0 J1.5
G3 X156.0 Y8.5 I1.5 J0.0
G1 X226.0
G3 X227.5 Y10.0 I0.0 J1.5
G1 Y56.0
G3 X226.0 Y57.5 I-1.5 J0.0
G3 X227.5 Y59.0 I0.0 J1.5
G1 Y105.0
G3 X226.0 Y106.5 I-1.5 J0.0
G3 X227.5 Y108.0 I0.0 J1.5
G1 Y154.0
G3 X226.0 Y155.5 I-1.5 J0.0
G1 X156.0
G3 X154.5 Y154.0 I0.0 J-1.5
G3 X153.0 Y155.5 I-1.5 J0.0
G1 X83.0
G3 X81.5 Y154.0 I0.0 J-1.5
G1 F500.0 Z-3.0
G3 F1000.0 X80.0 Y155.5 I-1.5 J0.0
G1 X10.0
G3 X8.5 Y154.0 I0.0 J-1.5
G1 Y108.0
G3 X10.0 Y106.5 I1.5 J0.0
G3 X8.5 Y105.0 I0.0 J-1.5
G1 Y59.0
G3 X10.0 Y57.5 I1.5 J0.0
G3 X8.5 Y56.0 I0.0 J-1.5
G1 Y10.0
G3 X10.0 Y8.5 I1.5 J0.0
G1 X80.0
G3 X81.5 Y10.0 I0.0 J1.5
G3 X83.0 Y8.5 I1.5 J0.0
G1 X153.0
G3 X154.5 Y10.0 I0.0 J1.5
G3 X156.0 Y8.5 I1.5 J0.0
G1 X226.0
G3 X227.5 Y10.0 I0.0 J1.5
G1 Y56.0
G3 X226.0 Y57.5 I-1.5 J0.0
G3 X227.5 Y59.0 I0.0 J1.5
G1 Y105.0
G3 X226.0 Y106.5 I-1.5 J0.0
G3 X227.5 Y108.0 I0.0 J1.5
G1 Y154.0
G3 X226.0 Y155.5 I-1.5 J0.0
G1 X156.0
G3 X154.5 Y154.0 I0.0 J-1.5
G3 X153.0 Y155.5 I-1.5 J0.0
G1 X83.0
G3 X81.5 Y154.0 I0.0 J-1.5
G1 F500.0 Z-4.0
G3 F1000.0 X80.0 Y155.5 I-1.5 J0.0
G1 X10.0
G3 X8.5 Y154.0 I0.0 J-1.5
G1 Y149.6667
G1 Y148.1667 Z-3.0
G1 Y145.1667
G1 Y143.6667 Z-4.0
G1 Y108.0
G3 X10.0 Y106.5 I1.5 J0.0
G3 X8.5 Y105.0 I0.0 J-1.5
G1 Y88.0
G1 Y86.5 Z-3.0
G1 Y83.5
G1 Y82.0 Z-4.0
G1 Y59.0
G3 X10.0 Y57.5 I1.5 J0.0
G3 X8.5 Y56.0 I0.0 J-1.5
G1 Y38.0
G1 Y36.5 Z-3.0
G1 Y33.5
G1 Y32.0 Z-4.0
G1 Y10.0
G3 X10.0 Y8.5 I1.5 J0.0
G1 X45.6667
G1 X47.1667 Z-3.0
G1 X50.1667
G1 X51.6667 Z-4.0
G1 X80.0
G3 X81.5 Y10.0 I0.0 J1.5
G3 X83.0 Y8.5 I1.5 J0.0
G1 X118.6667
G1 X120.1667 Z-3.0
G1 X123.1667
G1 X124.6667 Z-4.0
G1 X153.0
G3 X154.5 Y10.0 I0.0 J1.5
G3 X156.0 Y8.5 I1.5 J0.0
G1 X191.6667
G1 X193.1667 Z-3.0
G1 X196.1667
G1 X197.6667 Z-4.0
G1 X226.0
G3 X227.5 Y10.0 I0.0 J1.5
G1 Y29.0
G1 Y30.5 Z-3.0
G1 Y33.5
G1 Y35.0 Z-4.0
G1 Y56.0
G3 X226.0 Y57.5 I-1.5 J0.0
G3 X227.5 Y59.0 I0.0 J1.5
G1 Y81.0
G1 Y82.5 Z-3.0
G1 Y85.5
G1 Y87.0 Z-4.0
G1 Y105.0
G3 X226.0 Y106.5 I-1.5 J0.0
G3 X227.5 Y108.0 I0.0 J1.5
G1 Y143.0
G1 Y144.5 Z-3.0
G1 Y147.5
G1 Y149.0 Z-4.0
G1 Y154.0
G3 X226.0 Y155.5 I-1.5 J0.0
G1 X156.0
G3 X154.5 Y154.0 I0.0 J-1.5
G3 X153.0 Y155.5 I-1.5 J0.0
G1 X83.0
G3 X81.5 Y154.0 I0.0 J-1.5
G1 F500.0 Z-5.0
G3 F1000.0 X80.0 Y155.5 I-1.5 J0.0
G1 X10.0
G3 X8.5 Y154.0 I0.0 J-1.5
G1 Y149.6667
G1 Y148.1667 Z-3.0
G1 Y145.1667
G1 Y143.6667 Z-5.0
G1 Y108.0
G3 X10.0 Y106.5 I1.5 J0.0
G3 X8.5 Y105.0 I0.0 J-1.5
G1 Y88.0
G1 Y86.5 Z-3.0
G1 Y83.5
G1 Y82.0 Z-5.0
G1 Y59.0
G3 X10.0 Y57.5 I1.5 J0.0
G3 X8.5 Y56.0 I0.0 J-1.5
G1 Y38.0
G1 Y36.5 Z-3.0
G1 Y33.5
G1 Y32.0 Z-5.0
G1 Y10.0
G3 X10.0 Y8.5 I1.5 J0.0
G1 X45.6667
G1 X47.1667 Z-3.0
G1 X50.1667
G1 X51.6667 Z-5.0
G1 X80.0
G3 X81.5 Y10.0 I0.0 J1.5
G3 X83.0 Y8.5 I1.5 J0.0
G1 X118.6667
G1 X120.1667 Z-3.0
G1 X123.1667
G1 X124.6667 Z-5.0
G1 X153.0
G3 X154.5 Y10.0 I0.0 J1.5
G3 X156.0 Y8.5 I1.5 J0.0
G1 X191.6667
G1 X193.1667 Z-3.0
G1 X196.1667
G1 X197.6667 Z-5.0
G1 X226.0
G3 X227.5 Y10.0 I0.0 J1.5
G1 Y29.0
G1 Y30.5 Z-3.0
G1 Y33.5
G1 Y35.0 Z-5.0
G1 Y56.0
G3 X226.0 Y57.5 I-1.5 J0.0
G3 X227.5 Y59.0 I0.0 J1.5
G1 Y81.0
G1 Y82.5 Z-3.0
G1 Y85.5
G1 Y87.0 Z-5.0
G1 Y105.0
G3 X226.0 Y106.5 I-1.5 J0.0
G3 X227.5 Y108.0 I0.0 J1.5
G1 Y143.0
G1 Y144.5 Z-3.0
G1 Y147.5
G1 Y149.0 Z-5.0
G1 Y154.0
G3 X226.0 Y155.5 I-1.5 J0.0
G1 X156.0
G3 X154.5 Y154.0 I0.0 J-1.5
G3 X153.0 Y155.5 I-1.5 J0.0
G1 X83.0
G3 X81.5 Y154.0 I0.0 J-1.5
G0 Z3.0
M5
M30
