( Made using CamBam - http://www.cambam.co.uk )
( Schaufeln60x31 10/3/2015 10:45:02 AM )
( T3 : 3.0 )
G21 G90 G64 G40
G0 Z3.0
( T3 : 3.0 )
T3 M6
( Schaufel1 )
G17
M3 S2000
G0 X10.0 Y8.5
G0 Z1.0
G1 F40.0 Z-1.7
G1 F800.0 X70.0
G3 X71.5 Y10.0 I0.0 J1.5
G1 Y41.0
G3 X70.0 Y42.5 I-1.5 J0.0
G1 X10.0
G3 X8.5 Y41.0 I0.0 J-1.5
G1 Y10.0
G3 X10.0 Y8.5 I1.5 J0.0
G1 F40.0 Z-3.4
G1 F800.0 X29.75
G1 X31.25 Z-2.0
G1 X34.25
G1 X35.75 Z-3.4
G1 X70.0
G3 X71.5 Y10.0 I0.0 J1.5
G1 Y15.25
G1 Y16.75 Z-2.0
G1 Y19.75
G1 Y21.25 Z-3.4
G1 Y41.0
G3 X70.0 Y42.5 I-1.5 J0.0
G1 X50.25
G1 X48.75 Z-2.0
G1 X45.75
G1 X44.25 Z-3.4
G1 X10.0
G3 X8.5 Y41.0 I0.0 J-1.5
G1 Y35.75
G1 Y34.25 Z-2.0
G1 Y31.25
G1 Y29.75 Z-3.4
G1 Y10.0
G3 X10.0 Y8.5 I1.5 J0.0
G1 F40.0 Z-5.0
G1 F800.0 X29.75
G1 X31.25 Z-2.0
G1 X34.25
G1 X35.75 Z-5.0
G1 X70.0
G3 X71.5 Y10.0 I0.0 J1.5
G1 Y15.25
G1 Y16.75 Z-2.0
G1 Y19.75
G1 Y21.25 Z-5.0
G1 Y41.0
G3 X70.0 Y42.5 I-1.5 J0.0
G1 X50.25
G1 X48.75 Z-2.0
G1 X45.75
G1 X44.25 Z-5.0
G1 X10.0
G3 X8.5 Y41.0 I0.0 J-1.5
G1 Y35.75
G1 Y34.25 Z-2.0
G1 Y31.25
G1 Y29.75 Z-5.0
G1 Y10.0
G3 X10.0 Y8.5 I1.5 J0.0
( Schaufel2 )
S2000
G0 Z3.0
G0 X73.0
G0 Z1.0
G1 F40.0 Z-1.7
G1 F800.0 X133.0
G3 X134.5 Y10.0 I0.0 J1.5
G1 Y41.0
G3 X133.0 Y42.5 I-1.5 J0.0
G1 X73.0
G3 X71.5 Y41.0 I0.0 J-1.5
G1 Y10.0
G3 X73.0 Y8.5 I1.5 J0.0
G1 F40.0 Z-3.4
G1 F800.0 X92.75
G1 X94.25 Z-2.0
G1 X97.25
G1 X98.75 Z-3.4
G1 X133.0
G3 X134.5 Y10.0 I0.0 J1.5
G1 Y15.25
G1 Y16.75 Z-2.0
G1 Y19.75
G1 Y21.25 Z-3.4
G1 Y41.0
G3 X133.0 Y42.5 I-1.5 J0.0
G1 X113.25
G1 X111.75 Z-2.0
G1 X108.75
G1 X107.25 Z-3.4
G1 X73.0
G3 X71.5 Y41.0 I0.0 J-1.5
G1 Y35.75
G1 Y34.25 Z-2.0
G1 Y31.25
G1 Y29.75 Z-3.4
G1 Y10.0
G3 X73.0 Y8.5 I1.5 J0.0
G1 F40.0 Z-5.0
G1 F800.0 X92.75
G1 X94.25 Z-2.0
G1 X97.25
G1 X98.75 Z-5.0
G1 X133.0
G3 X134.5 Y10.0 I0.0 J1.5
G1 Y15.25
G1 Y16.75 Z-2.0
G1 Y19.75
G1 Y21.25 Z-5.0
G1 Y41.0
G3 X133.0 Y42.5 I-1.5 J0.0
G1 X113.25
G1 X111.75 Z-2.0
G1 X108.75
G1 X107.25 Z-5.0
G1 X73.0
G3 X71.5 Y41.0 I0.0 J-1.5
G1 Y35.75
G1 Y34.25 Z-2.0
G1 Y31.25
G1 Y29.75 Z-5.0
G1 Y10.0
G3 X73.0 Y8.5 I1.5 J0.0
( Schaufel3 )
S2000
G0 Z3.0
G0 X136.0
G0 Z1.0
G1 F40.0 Z-1.7
G1 F800.0 X196.0
G3 X197.5 Y10.0 I0.0 J1.5
G1 Y41.0
G3 X196.0 Y42.5 I-1.5 J0.0
G1 X136.0
G3 X134.5 Y41.0 I0.0 J-1.5
G1 Y10.0
G3 X136.0 Y8.5 I1.5 J0.0
G1 F40.0 Z-3.4
G1 F800.0 X155.75
G1 X157.25 Z-2.0
G1 X160.25
G1 X161.75 Z-3.4
G1 X196.0
G3 X197.5 Y10.0 I0.0 J1.5
G1 Y15.25
G1 Y16.75 Z-2.0
G1 Y19.75
G1 Y21.25 Z-3.4
G1 Y41.0
G3 X196.0 Y42.5 I-1.5 J0.0
G1 X176.25
G1 X174.75 Z-2.0
G1 X171.75
G1 X170.25 Z-3.4
G1 X136.0
G3 X134.5 Y41.0 I0.0 J-1.5
G1 Y35.75
G1 Y34.25 Z-2.0
G1 Y31.25
G1 Y29.75 Z-3.4
G1 Y10.0
G3 X136.0 Y8.5 I1.5 J0.0
G1 F40.0 Z-5.0
G1 F800.0 X155.75
G1 X157.25 Z-2.0
G1 X160.25
G1 X161.75 Z-5.0
G1 X196.0
G3 X197.5 Y10.0 I0.0 J1.5
G1 Y15.25
G1 Y16.75 Z-2.0
G1 Y19.75
G1 Y21.25 Z-5.0
G1 Y41.0
G3 X196.0 Y42.5 I-1.5 J0.0
G1 X176.25
G1 X174.75 Z-2.0
G1 X171.75
G1 X170.25 Z-5.0
G1 X136.0
G3 X134.5 Y41.0 I0.0 J-1.5
G1 Y35.75
G1 Y34.25 Z-2.0
G1 Y31.25
G1 Y29.75 Z-5.0
G1 Y10.0
G3 X136.0 Y8.5 I1.5 J0.0
( Schaufel4 )
S2000
G0 Z3.0
G0 X199.0
G0 Z1.0
G1 F40.0 Z-1.7
G1 F800.0 X259.0
G3 X260.5 Y10.0 I0.0 J1.5
G1 Y41.0
G3 X259.0 Y42.5 I-1.5 J0.0
G1 X199.0
G3 X197.5 Y41.0 I0.0 J-1.5
G1 Y10.0
G3 X199.0 Y8.5 I1.5 J0.0
G1 F40.0 Z-3.4
G1 F800.0 X218.75
G1 X220.25 Z-2.0
G1 X223.25
G1 X224.75 Z-3.4
G1 X259.0
G3 X260.5 Y10.0 I0.0 J1.5
G1 Y15.25
G1 Y16.75 Z-2.0
G1 Y19.75
G1 Y21.25 Z-3.4
G1 Y41.0
G3 X259.0 Y42.5 I-1.5 J0.0
G1 X239.25
G1 X237.75 Z-2.0
G1 X234.75
G1 X233.25 Z-3.4
G1 X199.0
G3 X197.5 Y41.0 I0.0 J-1.5
G1 Y35.75
G1 Y34.25 Z-2.0
G1 Y31.25
G1 Y29.75 Z-3.4
G1 Y10.0
G3 X199.0 Y8.5 I1.5 J0.0
G1 F40.0 Z-5.0
G1 F800.0 X218.75
G1 X220.25 Z-2.0
G1 X223.25
G1 X224.75 Z-5.0
G1 X259.0
G3 X260.5 Y10.0 I0.0 J1.5
G1 Y15.25
G1 Y16.75 Z-2.0
G1 Y19.75
G1 Y21.25 Z-5.0
G1 Y41.0
G3 X259.0 Y42.5 I-1.5 J0.0
G1 X239.25
G1 X237.75 Z-2.0
G1 X234.75
G1 X233.25 Z-5.0
G1 X199.0
G3 X197.5 Y41.0 I0.0 J-1.5
G1 Y35.75
G1 Y34.25 Z-2.0
G1 Y31.25
G1 Y29.75 Z-5.0
G1 Y10.0
G3 X199.0 Y8.5 I1.5 J0.0
( Schaufel5 )
S2000
G0 Z3.0
G0 X10.0 Y42.5
G1 F40.0 Z-1.7
G1 F800.0 X70.0
G3 X71.5 Y44.0 I0.0 J1.5
G1 Y75.0
G3 X70.0 Y76.5 I-1.5 J0.0
G1 X10.0
G3 X8.5 Y75.0 I0.0 J-1.5
G1 Y44.0
G3 X10.0 Y42.5 I1.5 J0.0
G1 F40.0 Z-3.4
G1 F800.0 X29.75
G1 X31.25 Z-2.0
G1 X34.25
G1 X35.75 Z-3.4
G1 X70.0
G3 X71.5 Y44.0 I0.0 J1.5
G1 Y49.25
G1 Y50.75 Z-2.0
G1 Y53.75
G1 Y55.25 Z-3.4
G1 Y75.0
G3 X70.0 Y76.5 I-1.5 J0.0
G1 X50.25
G1 X48.75 Z-2.0
G1 X45.75
G1 X44.25 Z-3.4
G1 X10.0
G3 X8.5 Y75.0 I0.0 J-1.5
G1 Y69.75
G1 Y68.25 Z-2.0
G1 Y65.25
G1 Y63.75 Z-3.4
G1 Y44.0
G3 X10.0 Y42.5 I1.5 J0.0
G0 Z-4.0
G1 F40.0 Z-5.0
G1 F800.0 X29.75
G1 X31.25 Z-2.0
G1 X34.25
G1 X35.75 Z-5.0
G1 X70.0
G3 X71.5 Y44.0 I0.0 J1.5
G1 Y49.25
G1 Y50.75 Z-2.0
G1 Y53.75
G1 Y55.25 Z-5.0
G1 Y75.0
G3 X70.0 Y76.5 I-1.5 J0.0
G1 X50.25
G1 X48.75 Z-2.0
G1 X45.75
G1 X44.25 Z-5.0
G1 X10.0
G3 X8.5 Y75.0 I0.0 J-1.5
G1 Y69.75
G1 Y68.25 Z-2.0
G1 Y65.25
G1 Y63.75 Z-5.0
G1 Y44.0
G3 X10.0 Y42.5 I1.5 J0.0
( Schaufel6 )
S2000
G0 Z3.0
G0 X73.0
G1 F40.0 Z-1.7
G1 F800.0 X133.0
G3 X134.5 Y44.0 I0.0 J1.5
G1 Y75.0
G3 X133.0 Y76.5 I-1.5 J0.0
G1 X73.0
G3 X71.5 Y75.0 I0.0 J-1.5
G1 Y44.0
G3 X73.0 Y42.5 I1.5 J0.0
G1 F40.0 Z-3.4
G1 F800.0 X92.75
G1 X94.25 Z-2.0
G1 X97.25
G1 X98.75 Z-3.4
G1 X133.0
G3 X134.5 Y44.0 I0.0 J1.5
G1 Y49.25
G1 Y50.75 Z-2.0
G1 Y53.75
G1 Y55.25 Z-3.4
G1 Y75.0
G3 X133.0 Y76.5 I-1.5 J0.0
G1 X113.25
G1 X111.75 Z-2.0
G1 X108.75
G1 X107.25 Z-3.4
G1 X73.0
G3 X71.5 Y75.0 I0.0 J-1.5
G1 Y69.75
G1 Y68.25 Z-2.0
G1 Y65.25
G1 Y63.75 Z-3.4
G1 Y44.0
G3 X73.0 Y42.5 I1.5 J0.0
G0 Z-4.0
G1 F40.0 Z-5.0
G1 F800.0 X92.75
G1 X94.25 Z-2.0
G1 X97.25
G1 X98.75 Z-5.0
G1 X133.0
G3 X134.5 Y44.0 I0.0 J1.5
G1 Y49.25
G1 Y50.75 Z-2.0
G1 Y53.75
G1 Y55.25 Z-5.0
G1 Y75.0
G3 X133.0 Y76.5 I-1.5 J0.0
G1 X113.25
G1 X111.75 Z-2.0
G1 X108.75
G1 X107.25 Z-5.0
G1 X73.0
G3 X71.5 Y75.0 I0.0 J-1.5
G1 Y69.75
G1 Y68.25 Z-2.0
G1 Y65.25
G1 Y63.75 Z-5.0
G1 Y44.0
G3 X73.0 Y42.5 I1.5 J0.0
( Schaufel7 )
S2000
G0 Z3.0
G0 X136.0
G1 F40.0 Z-1.7
G1 F800.0 X196.0
G3 X197.5 Y44.0 I0.0 J1.5
G1 Y75.0
G3 X196.0 Y76.5 I-1.5 J0.0
G1 X136.0
G3 X134.5 Y75.0 I0.0 J-1.5
G1 Y44.0
G3 X136.0 Y42.5 I1.5 J0.0
G1 F40.0 Z-3.4
G1 F800.0 X155.75
G1 X157.25 Z-2.0
G1 X160.25
G1 X161.75 Z-3.4
G1 X196.0
G3 X197.5 Y44.0 I0.0 J1.5
G1 Y49.25
G1 Y50.75 Z-2.0
G1 Y53.75
G1 Y55.25 Z-3.4
G1 Y75.0
G3 X196.0 Y76.5 I-1.5 J0.0
G1 X176.25
G1 X174.75 Z-2.0
G1 X171.75
G1 X170.25 Z-3.4
G1 X136.0
G3 X134.5 Y75.0 I0.0 J-1.5
G1 Y69.75
G1 Y68.25 Z-2.0
G1 Y65.25
G1 Y63.75 Z-3.4
G1 Y44.0
G3 X136.0 Y42.5 I1.5 J0.0
G0 Z-4.0
G1 F40.0 Z-5.0
G1 F800.0 X155.75
G1 X157.25 Z-2.0
G1 X160.25
G1 X161.75 Z-5.0
G1 X196.0
G3 X197.5 Y44.0 I0.0 J1.5
G1 Y49.25
G1 Y50.75 Z-2.0
G1 Y53.75
G1 Y55.25 Z-5.0
G1 Y75.0
G3 X196.0 Y76.5 I-1.5 J0.0
G1 X176.25
G1 X174.75 Z-2.0
G1 X171.75
G1 X170.25 Z-5.0
G1 X136.0
G3 X134.5 Y75.0 I0.0 J-1.5
G1 Y69.75
G1 Y68.25 Z-2.0
G1 Y65.25
G1 Y63.75 Z-5.0
G1 Y44.0
G3 X136.0 Y42.5 I1.5 J0.0
( Schaufel8 )
S2000
G0 Z3.0
G0 X199.0
G1 F40.0 Z-1.7
G1 F800.0 X259.0
G3 X260.5 Y44.0 I0.0 J1.5
G1 Y75.0
G3 X259.0 Y76.5 I-1.5 J0.0
G1 X199.0
G3 X197.5 Y75.0 I0.0 J-1.5
G1 Y44.0
G3 X199.0 Y42.5 I1.5 J0.0
G1 F40.0 Z-3.4
G1 F800.0 X218.75
G1 X220.25 Z-2.0
G1 X223.25
G1 X224.75 Z-3.4
G1 X259.0
G3 X260.5 Y44.0 I0.0 J1.5
G1 Y49.25
G1 Y50.75 Z-2.0
G1 Y53.75
G1 Y55.25 Z-3.4
G1 Y75.0
G3 X259.0 Y76.5 I-1.5 J0.0
G1 X239.25
G1 X237.75 Z-2.0
G1 X234.75
G1 X233.25 Z-3.4
G1 X199.0
G3 X197.5 Y75.0 I0.0 J-1.5
G1 Y69.75
G1 Y68.25 Z-2.0
G1 Y65.25
G1 Y63.75 Z-3.4
G1 Y44.0
G3 X199.0 Y42.5 I1.5 J0.0
G0 Z-4.0
G1 F40.0 Z-5.0
G1 F800.0 X218.75
G1 X220.25 Z-2.0
G1 X223.25
G1 X224.75 Z-5.0
G1 X259.0
G3 X260.5 Y44.0 I0.0 J1.5
G1 Y49.25
G1 Y50.75 Z-2.0
G1 Y53.75
G1 Y55.25 Z-5.0
G1 Y75.0
G3 X259.0 Y76.5 I-1.5 J0.0
G1 X239.25
G1 X237.75 Z-2.0
G1 X234.75
G1 X233.25 Z-5.0
G1 X199.0
G3 X197.5 Y75.0 I0.0 J-1.5
G1 Y69.75
G1 Y68.25 Z-2.0
G1 Y65.25
G1 Y63.75 Z-5.0
G1 Y44.0
G3 X199.0 Y42.5 I1.5 J0.0
( Schaufel9 )
S2000
G0 Z3.0
G0 X10.0 Y76.5
G1 F40.0 Z-1.7
G1 F800.0 X70.0
G3 X71.5 Y78.0 I0.0 J1.5
G1 Y109.0
G3 X70.0 Y110.5 I-1.5 J0.0
G1 X10.0
G3 X8.5 Y109.0 I0.0 J-1.5
G1 Y78.0
G3 X10.0 Y76.5 I1.5 J0.0
G1 F40.0 Z-3.4
G1 F800.0 X29.75
G1 X31.25 Z-2.0
G1 X34.25
G1 X35.75 Z-3.4
G1 X70.0
G3 X71.5 Y78.0 I0.0 J1.5
G1 Y83.25
G1 Y84.75 Z-2.0
G1 Y87.75
G1 Y89.25 Z-3.4
G1 Y109.0
G3 X70.0 Y110.5 I-1.5 J0.0
G1 X50.25
G1 X48.75 Z-2.0
G1 X45.75
G1 X44.25 Z-3.4
G1 X10.0
G3 X8.5 Y109.0 I0.0 J-1.5
G1 Y103.75
G1 Y102.25 Z-2.0
G1 Y99.25
G1 Y97.75 Z-3.4
G1 Y78.0
G3 X10.0 Y76.5 I1.5 J0.0
G0 Z-4.0
G1 F40.0 Z-5.0
G1 F800.0 X29.75
G1 X31.25 Z-2.0
G1 X34.25
G1 X35.75 Z-5.0
G1 X70.0
G3 X71.5 Y78.0 I0.0 J1.5
G1 Y83.25
G1 Y84.75 Z-2.0
G1 Y87.75
G1 Y89.25 Z-5.0
G1 Y109.0
G3 X70.0 Y110.5 I-1.5 J0.0
G1 X50.25
G1 X48.75 Z-2.0
G1 X45.75
G1 X44.25 Z-5.0
G1 X10.0
G3 X8.5 Y109.0 I0.0 J-1.5
G1 Y103.75
G1 Y102.25 Z-2.0
G1 Y99.25
G1 Y97.75 Z-5.0
G1 Y78.0
G3 X10.0 Y76.5 I1.5 J0.0
( Schaufel10 )
S2000
G0 Z3.0
G0 X73.0
G1 F40.0 Z-1.7
G1 F800.0 X133.0
G3 X134.5 Y78.0 I0.0 J1.5
G1 Y109.0
G3 X133.0 Y110.5 I-1.5 J0.0
G1 X73.0
G3 X71.5 Y109.0 I0.0 J-1.5
G1 Y78.0
G3 X73.0 Y76.5 I1.5 J0.0
G1 F40.0 Z-3.4
G1 F800.0 X92.75
G1 X94.25 Z-2.0
G1 X97.25
G1 X98.75 Z-3.4
G1 X133.0
G3 X134.5 Y78.0 I0.0 J1.5
G1 Y83.25
G1 Y84.75 Z-2.0
G1 Y87.75
G1 Y89.25 Z-3.4
G1 Y109.0
G3 X133.0 Y110.5 I-1.5 J0.0
G1 X113.25
G1 X111.75 Z-2.0
G1 X108.75
G1 X107.25 Z-3.4
G1 X73.0
G3 X71.5 Y109.0 I0.0 J-1.5
G1 Y103.75
G1 Y102.25 Z-2.0
G1 Y99.25
G1 Y97.75 Z-3.4
G1 Y78.0
G3 X73.0 Y76.5 I1.5 J0.0
G0 Z-4.0
G1 F40.0 Z-5.0
G1 F800.0 X92.75
G1 X94.25 Z-2.0
G1 X97.25
G1 X98.75 Z-5.0
G1 X133.0
G3 X134.5 Y78.0 I0.0 J1.5
G1 Y83.25
G1 Y84.75 Z-2.0
G1 Y87.75
G1 Y89.25 Z-5.0
G1 Y109.0
G3 X133.0 Y110.5 I-1.5 J0.0
G1 X113.25
G1 X111.75 Z-2.0
G1 X108.75
G1 X107.25 Z-5.0
G1 X73.0
G3 X71.5 Y109.0 I0.0 J-1.5
G1 Y103.75
G1 Y102.25 Z-2.0
G1 Y99.25
G1 Y97.75 Z-5.0
G1 Y78.0
G3 X73.0 Y76.5 I1.5 J0.0
( Schaufel11 )
S2000
G0 Z3.0
G0 X136.0
G1 F40.0 Z-1.7
G1 F800.0 X196.0
G3 X197.5 Y78.0 I0.0 J1.5
G1 Y109.0
G3 X196.0 Y110.5 I-1.5 J0.0
G1 X136.0
G3 X134.5 Y109.0 I0.0 J-1.5
G1 Y78.0
G3 X136.0 Y76.5 I1.5 J0.0
G1 F40.0 Z-3.4
G1 F800.0 X155.75
G1 X157.25 Z-2.0
G1 X160.25
G1 X161.75 Z-3.4
G1 X196.0
G3 X197.5 Y78.0 I0.0 J1.5
G1 Y83.25
G1 Y84.75 Z-2.0
G1 Y87.75
G1 Y89.25 Z-3.4
G1 Y109.0
G3 X196.0 Y110.5 I-1.5 J0.0
G1 X176.25
G1 X174.75 Z-2.0
G1 X171.75
G1 X170.25 Z-3.4
G1 X136.0
G3 X134.5 Y109.0 I0.0 J-1.5
G1 Y103.75
G1 Y102.25 Z-2.0
G1 Y99.25
G1 Y97.75 Z-3.4
G1 Y78.0
G3 X136.0 Y76.5 I1.5 J0.0
G0 Z-4.0
G1 F40.0 Z-5.0
G1 F800.0 X155.75
G1 X157.25 Z-2.0
G1 X160.25
G1 X161.75 Z-5.0
G1 X196.0
G3 X197.5 Y78.0 I0.0 J1.5
G1 Y83.25
G1 Y84.75 Z-2.0
G1 Y87.75
G1 Y89.25 Z-5.0
G1 Y109.0
G3 X196.0 Y110.5 I-1.5 J0.0
G1 X176.25
G1 X174.75 Z-2.0
G1 X171.75
G1 X170.25 Z-5.0
G1 X136.0
G3 X134.5 Y109.0 I0.0 J-1.5
G1 Y103.75
G1 Y102.25 Z-2.0
G1 Y99.25
G1 Y97.75 Z-5.0
G1 Y78.0
G3 X136.0 Y76.5 I1.5 J0.0
( Schaufel12 )
S2000
G0 Z3.0
G0 X199.0
G1 F40.0 Z-1.7
G1 F800.0 X259.0
G3 X260.5 Y78.0 I0.0 J1.5
G1 Y109.0
G3 X259.0 Y110.5 I-1.5 J0.0
G1 X199.0
G3 X197.5 Y109.0 I0.0 J-1.5
G1 Y78.0
G3 X199.0 Y76.5 I1.5 J0.0
G1 F40.0 Z-3.4
G1 F800.0 X218.75
G1 X220.25 Z-2.0
G1 X223.25
G1 X224.75 Z-3.4
G1 X259.0
G3 X260.5 Y78.0 I0.0 J1.5
G1 Y83.25
G1 Y84.75 Z-2.0
G1 Y87.75
G1 Y89.25 Z-3.4
G1 Y109.0
G3 X259.0 Y110.5 I-1.5 J0.0
G1 X239.25
G1 X237.75 Z-2.0
G1 X234.75
G1 X233.25 Z-3.4
G1 X199.0
G3 X197.5 Y109.0 I0.0 J-1.5
G1 Y103.75
G1 Y102.25 Z-2.0
G1 Y99.25
G1 Y97.75 Z-3.4
G1 Y78.0
G3 X199.0 Y76.5 I1.5 J0.0
G0 Z-4.0
G1 F40.0 Z-5.0
G1 F800.0 X218.75
G1 X220.25 Z-2.0
G1 X223.25
G1 X224.75 Z-5.0
G1 X259.0
G3 X260.5 Y78.0 I0.0 J1.5
G1 Y83.25
G1 Y84.75 Z-2.0
G1 Y87.75
G1 Y89.25 Z-5.0
G1 Y109.0
G3 X259.0 Y110.5 I-1.5 J0.0
G1 X239.25
G1 X237.75 Z-2.0
G1 X234.75
G1 X233.25 Z-5.0
G1 X199.0
G3 X197.5 Y109.0 I0.0 J-1.5
G1 Y103.75
G1 Y102.25 Z-2.0
G1 Y99.25
G1 Y97.75 Z-5.0
G1 Y78.0
G3 X199.0 Y76.5 I1.5 J0.0
G0 Z3.0
M5
M30
