( Made using CamBam - http://www.cambam.co.uk )
( WasserRad100 9/30/2015 11:46:45 PM )
( T3 : 3.0 )
( T6 : 6.0 )
( T11 : 1.2 )
( T12 : 2.0 )
( CUTVIEWER )
( FROM/0,0,5 )
( Select dummy tool to avoid warnings )
( TOOL/MILL,1,0,20.0,0 )
( STOCK/BLOCK,300.0,210.0,10.0,55.0,55.0,10.0 )
G21 G90 G91.1 G64 G40
G0 Z3.0
( T3 : 3.0 )
( Tool Taper coming soon )
( TOOL/MILL,3.0,0.0,0.0,0 )
T3 M6
( Rad aussen )
G17
M3 S2000
G0 X51.5 Y0.0
G0 Z1.0
G1 F500.0 Z-1.0
G3 F1000.0 X-25.75 Y44.6003 I-51.5 J0.0
G3 Y-44.6003 I25.75 J-44.6003
G3 X51.5 Y0.0 I25.75 J44.6003
G1 F500.0 Z-2.0
G3 F1000.0 X-25.75 Y44.6003 I-51.5 J0.0
G3 Y-44.6003 I25.75 J-44.6003
G3 X51.5 Y0.0 I25.75 J44.6003
G1 F500.0 Z-3.0
G3 F1000.0 X-25.75 Y44.6003 I-51.5 J0.0
G3 Y-44.6003 I25.75 J-44.6003
G3 X51.5 Y0.0 I25.75 J44.6003
G1 F500.0 Z-4.0
G3 F1000.0 X-25.75 Y44.6003 I-51.5 J0.0
G3 Y-44.6003 I25.75 J-44.6003
G3 X51.5 Y0.0 I25.75 J44.6003
G1 F500.0 Z-5.0
G3 F1000.0 X-25.75 Y44.6003 I-51.5 J0.0
G3 Y-44.6003 I25.75 J-44.6003
G3 X51.5 Y0.0 I25.75 J44.6003
G1 F500.0 Z-6.0
G3 F1000.0 X-25.75 Y44.6003 I-51.5 J0.0
G3 Y-44.6003 I25.75 J-44.6003
G3 X51.5 Y0.0 I25.75 J44.6003
G1 F500.0 Z-7.0
G3 F1000.0 X-25.75 Y44.6003 I-51.5 J0.0
G3 Y-44.6003 I25.75 J-44.6003
G3 X51.5 Y0.0 I25.75 J44.6003
G1 F500.0 Z-8.0
G3 F1000.0 X-25.75 Y44.6003 I-51.5 J0.0
G3 Y-44.6003 I25.75 J-44.6003
G3 X51.5 Y0.0 I25.75 J44.6003
G1 F500.0 Z-9.0
G3 F1000.0 X38.4755 Y34.2328 I-51.5 J0.0
G3 X37.4612 Y35.3399 Z-8.0 I-38.4755 J-34.2328
G3 X35.3399 Y37.4612 I-37.4612 J-35.3399
G3 X34.2328 Y38.4755 Z-9.0 I-35.3399 J-37.4612
G3 X-25.75 Y44.6003 I-34.2328 J-38.4755
G3 X-34.2328 Y38.4755 I25.75 J-44.6003
G3 X-35.3399 Y37.4612 Z-8.0 I34.2328 J-38.4755
G3 X-37.4612 Y35.3399 I35.3399 J-37.4612
G3 X-38.4755 Y34.2328 Z-9.0 I37.4612 J-35.3399
G3 Y-34.2328 I38.4755 J-34.2328
G3 X-37.4612 Y-35.3399 Z-8.0 I38.4755 J34.2328
G3 X-35.3399 Y-37.4612 I37.4612 J35.3399
G3 X-34.2328 Y-38.4755 Z-9.0 I35.3399 J37.4612
G3 X-25.75 Y-44.6003 I34.2328 J38.4755
G3 X34.2328 Y-38.4755 I25.75 J44.6003
G3 X35.3399 Y-37.4612 Z-8.0 I-34.2328 J38.4755
G3 X37.4612 Y-35.3399 I-35.3399 J37.4612
G3 X38.4755 Y-34.2328 Z-9.0 I-37.4612 J35.3399
G3 X51.5 Y0.0 I-38.4755 J34.2328
G1 F500.0 Z-10.0
G3 F1000.0 X38.4755 Y34.2328 I-51.5 J0.0
G3 X37.4612 Y35.3399 Z-8.0 I-38.4755 J-34.2328
G3 X35.3399 Y37.4612 I-37.4612 J-35.3399
G3 X34.2328 Y38.4755 Z-10.0 I-35.3399 J-37.4612
G3 X-25.75 Y44.6003 I-34.2328 J-38.4755
G3 X-34.2328 Y38.4755 I25.75 J-44.6003
G3 X-35.3399 Y37.4612 Z-8.0 I34.2328 J-38.4755
G3 X-37.4612 Y35.3399 I35.3399 J-37.4612
G3 X-38.4755 Y34.2328 Z-10.0 I37.4612 J-35.3399
G3 Y-34.2328 I38.4755 J-34.2328
G3 X-37.4612 Y-35.3399 Z-8.0 I38.4755 J34.2328
G3 X-35.3399 Y-37.4612 I37.4612 J35.3399
G3 X-34.2328 Y-38.4755 Z-10.0 I35.3399 J37.4612
G3 X-25.75 Y-44.6003 I34.2328 J38.4755
G3 X34.2328 Y-38.4755 I25.75 J44.6003
G3 X35.3399 Y-37.4612 Z-8.0 I-34.2328 J38.4755
G3 X37.4612 Y-35.3399 I-35.3399 J37.4612
G3 X38.4755 Y-34.2328 Z-10.0 I-37.4612 J35.3399
G3 X51.5 Y0.0 I-38.4755 J34.2328
( Schaufel-Befestigungsbohrungen )
G0 Z3.0
( T12 : 2.0 )
( Tool Taper coming soon )
( TOOL/MILL,2.0,0.0,0.0,0 )
T12 M6
M3 S2000
G0 X24.0416 Y16.9706
G98
G81 X24.0416 Y16.9706 Z-8.0 R3.0 F500.0
G81 X29.0 Y-5.0 Z-8.0
G81 X16.9706 Y-24.0416 Z-8.0
G81 X-5.0 Y-29.0 Z-8.0
G81 X-24.0416 Y-16.9706 Z-8.0
G81 X-29.0 Y5.0 Z-8.0
G81 X-16.9706 Y24.0416 Z-8.0
G81 X5.0 Y29.0 Z-8.0
G80
( Schaufel-Taschen )
G0 Z3.0
( T3 : 3.0 )
( Tool Taper coming soon )
( TOOL/MILL,3.0,0.0,0.0,0 )
T3 M6
M3 S2000
G0 X-41.3415 Y11.9751
G0 Z1.0
G1 F500.0 Z-1.0
G1 F1000.0 X-41.0415 Y12.4947
G1 X-18.0053 Y-0.8053
G1 X-18.3053 Y-1.3249
G1 X-41.3415 Y11.9751
G1 F500.0 X-41.8611 Y12.2751
G1 F1000.0 X-41.2611 Y13.3144
G1 X-17.1856 Y-0.5856
G1 X-18.0856 Y-2.1445
G1 X-42.1611 Y11.7555
G1 X-41.8611 Y12.2751
G1 F500.0 X-41.3415 Y11.9751
G1 Z-2.0
G1 F1000.0 X-41.0415 Y12.4947
G1 X-18.0053 Y-0.8053
G1 X-18.3053 Y-1.3249
G1 X-41.3415 Y11.9751
G1 F500.0 X-41.8611 Y12.2751
G1 F1000.0 X-42.1611 Y11.7555
G1 X-18.0856 Y-2.1445
G1 X-17.1856 Y-0.5856
G1 X-41.2611 Y13.3144
G1 X-41.8611 Y12.2751
G1 F500.0 X-41.3415 Y11.9751
G1 Z-3.0
G1 F1000.0 X-41.0415 Y12.4947
G1 X-18.0053 Y-0.8053
G1 X-18.3053 Y-1.3249
G1 X-41.3415 Y11.9751
G1 F500.0 X-41.8611 Y12.2751
G1 F1000.0 X-42.1611 Y11.7555
G1 X-18.0856 Y-2.1445
G1 X-17.1856 Y-0.5856
G1 X-41.2611 Y13.3144
G1 X-41.8611 Y12.2751
G1 F500.0 X-41.3415 Y11.9751
G1 Z-4.0
G1 F1000.0 X-41.0415 Y12.4947
G1 X-18.0053 Y-0.8053
G1 X-18.3053 Y-1.3249
G1 X-41.3415 Y11.9751
G1 F500.0 X-41.8611 Y12.2751
G1 F1000.0 X-42.1611 Y11.7555
G1 X-18.0856 Y-2.1445
G1 X-17.1856 Y-0.5856
G1 X-41.2611 Y13.3144
G1 X-41.8611 Y12.2751
G1 F500.0 X-41.3415 Y11.9751
G1 Z-5.0
G1 F1000.0 X-41.0415 Y12.4947
G1 X-18.0053 Y-0.8053
G1 X-18.3053 Y-1.3249
G1 X-41.3415 Y11.9751
G1 F500.0 X-41.8611 Y12.2751
G1 F1000.0 X-42.1611 Y11.7555
G1 X-18.0856 Y-2.1445
G1 X-17.1856 Y-0.5856
G1 X-41.2611 Y13.3144
G1 X-41.8611 Y12.2751
G1 F500.0 X-41.3415 Y11.9751
G1 Z-6.0
G1 F1000.0 X-41.0415 Y12.4947
G1 X-18.0053 Y-0.8053
G1 X-18.3053 Y-1.3249
G1 X-41.3415 Y11.9751
G1 F500.0 X-41.8611 Y12.2751
G1 F1000.0 X-41.2611 Y13.3144
G1 X-17.1856 Y-0.5856
G1 X-18.0856 Y-2.1445
G1 X-42.1611 Y11.7555
G1 X-41.8611 Y12.2751
G1 F500.0 X-41.9477 Y12.3251
G1 F1000.0 X-41.2977 Y13.451
G1 X-17.049 Y-0.549
G1 X-18.049 Y-2.2811
G1 X-42.2977 Y11.7189
G1 X-41.9477 Y12.3251
G0 Z3.0
G0 X-15.8403 Y19.3206
G0 Z1.0
G1 F500.0 Z-1.0
G1 F1000.0 X-20.7652 Y37.7006
G1 X-20.1856 Y37.8559
G1 X-13.301 Y12.1622
G1 X-13.8806 Y12.0069
G1 X-15.8403 Y19.3206
G1 F500.0 X-16.4198 Y19.1653
G1 F1000.0 X-14.3049 Y11.2721
G1 X-12.5662 Y11.738
G1 X-19.7614 Y38.5907
G1 X-21.5 Y38.1248
G1 X-16.4198 Y19.1653
G1 F500.0 X-15.8403 Y19.3206
G1 Z-2.0
G1 F1000.0 X-20.7652 Y37.7006
G1 X-20.1856 Y37.8559
G1 X-13.301 Y12.1622
G1 X-13.8806 Y12.0069
G1 X-15.8403 Y19.3206
G1 F500.0 X-16.4198 Y19.1653
G1 F1000.0 X-14.3049 Y11.2721
G1 X-12.5662 Y11.738
G1 X-19.7614 Y38.5907
G1 X-21.5 Y38.1248
G1 X-16.4198 Y19.1653
G1 F500.0 X-15.8403 Y19.3206
G1 Z-3.0
G1 F1000.0 X-20.7652 Y37.7006
G1 X-20.1856 Y37.8559
G1 X-13.301 Y12.1622
G1 X-13.8806 Y12.0069
G1 X-15.8403 Y19.3206
G1 F500.0 X-16.4198 Y19.1653
G1 F1000.0 X-14.3049 Y11.2721
G1 X-12.5662 Y11.738
G1 X-19.7614 Y38.5907
G1 X-21.5 Y38.1248
G1 X-16.4198 Y19.1653
G1 F500.0 X-15.8403 Y19.3206
G1 Z-4.0
G1 F1000.0 X-20.7652 Y37.7006
G1 X-20.1856 Y37.8559
G1 X-13.301 Y12.1622
G1 X-13.8806 Y12.0069
G1 X-15.8403 Y19.3206
G1 F500.0 X-16.4198 Y19.1653
G1 F1000.0 X-14.3049 Y11.2721
G1 X-12.5662 Y11.738
G1 X-19.7614 Y38.5907
G1 X-21.5 Y38.1248
G1 X-16.4198 Y19.1653
G1 F500.0 X-15.8403 Y19.3206
G1 Z-5.0
G1 F1000.0 X-20.7652 Y37.7006
G1 X-20.1856 Y37.8559
G1 X-13.301 Y12.1622
G1 X-13.8806 Y12.0069
G1 X-15.8403 Y19.3206
G1 F500.0 X-16.4198 Y19.1653
G1 F1000.0 X-14.3049 Y11.2721
G1 X-12.5662 Y11.738
G1 X-19.7614 Y38.5907
G1 X-21.5 Y38.1248
G1 X-16.4198 Y19.1653
G1 F500.0 X-15.8403 Y19.3206
G1 Z-6.0
G1 F1000.0 X-20.7652 Y37.7006
G1 X-20.1856 Y37.8559
G1 X-13.301 Y12.1622
G1 X-13.8806 Y12.0069
G1 X-15.8403 Y19.3206
G1 F500.0 X-16.4198 Y19.1653
G1 F1000.0 X-21.5 Y38.1248
G1 X-19.7614 Y38.5907
G1 X-12.5662 Y11.738
G1 X-14.3049 Y11.2721
G1 X-16.4198 Y19.1653
G1 F500.0 X-16.5164 Y19.1394
G1 F1000.0 X-21.6225 Y38.1955
G1 X-19.6907 Y38.7132
G1 X-12.4437 Y11.6673
G1 X-14.3756 Y11.1496
G1 X-16.5164 Y19.1394
G0 Z3.0
G0 X-1.3249 Y18.3053
G0 Z1.0
G1 F500.0 Z-1.0
G1 F1000.0 X11.9751 Y41.3415
G1 X12.4947 Y41.0415
G1 X-0.8053 Y18.0053
G1 X-1.3249 Y18.3053
G1 F500.0 X-1.8445 Y18.6053
G1 F1000.0 X-2.1445 Y18.0856
G1 X-0.5856 Y17.1856
G1 X13.3144 Y41.2611
G1 X11.7555 Y42.1611
G1 X-1.8445 Y18.6053
G1 F500.0 X-1.3249 Y18.3053
G1 Z-2.0
G1 F1000.0 X11.9751 Y41.3415
G1 X12.4947 Y41.0415
G1 X-0.8053 Y18.0053
G1 X-1.3249 Y18.3053
G1 F500.0 X-1.8445 Y18.6053
G1 F1000.0 X-2.1445 Y18.0856
G1 X-0.5856 Y17.1856
G1 X13.3144 Y41.2611
G1 X11.7555 Y42.1611
G1 X-1.8445 Y18.6053
G1 F500.0 X-1.3249 Y18.3053
G1 Z-3.0
G1 F1000.0 X11.9751 Y41.3415
G1 X12.4947 Y41.0415
G1 X-0.8053 Y18.0053
G1 X-1.3249 Y18.3053
G1 F500.0 X-1.8445 Y18.6053
G1 F1000.0 X-2.1445 Y18.0856
G1 X-0.5856 Y17.1856
G1 X13.3144 Y41.2611
G1 X11.7555 Y42.1611
G1 X-1.8445 Y18.6053
G1 F500.0 X-1.3249 Y18.3053
G1 Z-4.0
G1 F1000.0 X11.9751 Y41.3415
G1 X12.4947 Y41.0415
G1 X-0.8053 Y18.0053
G1 X-1.3249 Y18.3053
G1 F500.0 X-1.8445 Y18.6053
G1 F1000.0 X-2.1445 Y18.0856
G1 X-0.5856 Y17.1856
G1 X13.3144 Y41.2611
G1 X11.7555 Y42.1611
G1 X-1.8445 Y18.6053
G1 F500.0 X-1.3249 Y18.3053
G1 Z-5.0
G1 F1000.0 X11.9751 Y41.3415
G1 X12.4947 Y41.0415
G1 X-0.8053 Y18.0053
G1 X-1.3249 Y18.3053
G1 F500.0 X-1.8445 Y18.6053
G1 F1000.0 X-2.1445 Y18.0856
G1 X-0.5856 Y17.1856
G1 X13.3144 Y41.2611
G1 X11.7555 Y42.1611
G1 X-1.8445 Y18.6053
G1 F500.0 X-1.3249 Y18.3053
G1 Z-6.0
G1 F1000.0 X11.9751 Y41.3415
G1 X12.4947 Y41.0415
G1 X-0.8053 Y18.0053
G1 X-1.3249 Y18.3053
G1 F500.0 X-1.8445 Y18.6053
G1 F1000.0 X11.7555 Y42.1611
G1 X13.3144 Y41.2611
G1 X-0.5856 Y17.1856
G1 X-2.1445 Y18.0856
G1 X-1.8445 Y18.6053
G1 F500.0 X-1.9311 Y18.6553
G1 F1000.0 X11.7189 Y42.2977
G1 X13.451 Y41.2977
G1 X-0.549 Y17.049
G1 X-2.2811 Y18.049
G1 X-1.9311 Y18.6553
G0 Z3.0
G0 X12.0069 Y13.8806
G0 Z1.0
G1 F500.0 Z-1.0
G1 F1000.0 X37.7006 Y20.7652
G1 X37.8559 Y20.1856
G1 X12.1622 Y13.301
G1 X12.0069 Y13.8806
G1 F500.0 X11.4274 Y13.7253
G1 F1000.0 X11.738 Y12.5662
G1 X38.5907 Y19.7614
G1 X38.1248 Y21.5
G1 X11.2721 Y14.3049
G1 X11.4274 Y13.7253
G1 F500.0 X12.0069 Y13.8806
G1 Z-2.0
G1 F1000.0 X37.7006 Y20.7652
G1 X37.8559 Y20.1856
G1 X12.1622 Y13.301
G1 X12.0069 Y13.8806
G1 F500.0 X11.4274 Y13.7253
G1 F1000.0 X11.738 Y12.5662
G1 X38.5907 Y19.7614
G1 X38.1248 Y21.5
G1 X11.2721 Y14.3049
G1 X11.4274 Y13.7253
G1 F500.0 X12.0069 Y13.8806
G1 Z-3.0
G1 F1000.0 X37.7006 Y20.7652
G1 X37.8559 Y20.1856
G1 X12.1622 Y13.301
G1 X12.0069 Y13.8806
G1 F500.0 X11.4274 Y13.7253
G1 F1000.0 X11.738 Y12.5662
G1 X38.5907 Y19.7614
G1 X38.1248 Y21.5
G1 X11.2721 Y14.3049
G1 X11.4274 Y13.7253
G1 F500.0 X12.0069 Y13.8806
G1 Z-4.0
G1 F1000.0 X37.7006 Y20.7652
G1 X37.8559 Y20.1856
G1 X12.1622 Y13.301
G1 X12.0069 Y13.8806
G1 F500.0 X11.4274 Y13.7253
G1 F1000.0 X11.738 Y12.5662
G1 X38.5907 Y19.7614
G1 X38.1248 Y21.5
G1 X11.2721 Y14.3049
G1 X11.4274 Y13.7253
G1 F500.0 X12.0069 Y13.8806
G1 Z-5.0
G1 F1000.0 X37.7006 Y20.7652
G1 X37.8559 Y20.1856
G1 X12.1622 Y13.301
G1 X12.0069 Y13.8806
G1 F500.0 X11.4274 Y13.7253
G1 F1000.0 X11.738 Y12.5662
G1 X38.5907 Y19.7614
G1 X38.1248 Y21.5
G1 X11.2721 Y14.3049
G1 X11.4274 Y13.7253
G1 F500.0 X12.0069 Y13.8806
G1 Z-6.0
G1 F1000.0 X37.7006 Y20.7652
G1 X37.8559 Y20.1856
G1 X12.1622 Y13.301
G1 X12.0069 Y13.8806
G1 F500.0 X11.4274 Y13.7253
G1 F1000.0 X11.2721 Y14.3049
G1 X38.1248 Y21.5
G1 X38.5907 Y19.7614
G1 X11.738 Y12.5662
G1 X11.4274 Y13.7253
G1 F500.0 X11.3308 Y13.6994
G1 F1000.0 X11.1496 Y14.3756
G1 X38.1955 Y21.6225
G1 X38.7132 Y19.6907
G1 X11.6673 Y12.4437
G1 X11.3308 Y13.6994
G0 Z3.0
G0 X18.3053 Y1.3249
G0 Z1.0
G1 F500.0 Z-1.0
G1 F1000.0 X41.3415 Y-11.9751
G1 X41.0415 Y-12.4947
G1 X18.0053 Y0.8053
G1 X18.3053 Y1.3249
G1 F500.0 X18.6053 Y1.8445
G1 F1000.0 X18.0856 Y2.1445
G1 X17.1856 Y0.5856
G1 X41.2611 Y-13.3144
G1 X42.1611 Y-11.7555
G1 X18.6053 Y1.8445
G1 F500.0 X18.3053 Y1.3249
G1 Z-2.0
G1 F1000.0 X41.3415 Y-11.9751
G1 X41.0415 Y-12.4947
G1 X18.0053 Y0.8053
G1 X18.3053 Y1.3249
G1 F500.0 X18.6053 Y1.8445
G1 F1000.0 X18.0856 Y2.1445
G1 X17.1856 Y0.5856
G1 X41.2611 Y-13.3144
G1 X42.1611 Y-11.7555
G1 X18.6053 Y1.8445
G1 F500.0 X18.3053 Y1.3249
G1 Z-3.0
G1 F1000.0 X41.3415 Y-11.9751
G1 X41.0415 Y-12.4947
G1 X18.0053 Y0.8053
G1 X18.3053 Y1.3249
G1 F500.0 X18.6053 Y1.8445
G1 F1000.0 X18.0856 Y2.1445
G1 X17.1856 Y0.5856
G1 X41.2611 Y-13.3144
G1 X42.1611 Y-11.7555
G1 X18.6053 Y1.8445
G1 F500.0 X18.3053 Y1.3249
G1 Z-4.0
G1 F1000.0 X41.3415 Y-11.9751
G1 X41.0415 Y-12.4947
G1 X18.0053 Y0.8053
G1 X18.3053 Y1.3249
G1 F500.0 X18.6053 Y1.8445
G1 F1000.0 X18.0856 Y2.1445
G1 X17.1856 Y0.5856
G1 X41.2611 Y-13.3144
G1 X42.1611 Y-11.7555
G1 X18.6053 Y1.8445
G1 F500.0 X18.3053 Y1.3249
G1 Z-5.0
G1 F1000.0 X41.3415 Y-11.9751
G1 X41.0415 Y-12.4947
G1 X18.0053 Y0.8053
G1 X18.3053 Y1.3249
G1 F500.0 X18.6053 Y1.8445
G1 F1000.0 X18.0856 Y2.1445
G1 X17.1856 Y0.5856
G1 X41.2611 Y-13.3144
G1 X42.1611 Y-11.7555
G1 X18.6053 Y1.8445
G1 F500.0 X18.3053 Y1.3249
G1 Z-6.0
G1 F1000.0 X41.3415 Y-11.9751
G1 X41.0415 Y-12.4947
G1 X18.0053 Y0.8053
G1 X18.3053 Y1.3249
G1 F500.0 X18.6053 Y1.8445
G1 F1000.0 X42.1611 Y-11.7555
G1 X41.2611 Y-13.3144
G1 X17.1856 Y0.5856
G1 X18.0856 Y2.1445
G1 X18.6053 Y1.8445
G1 F500.0 X18.6553 Y1.9311
G1 F1000.0 X42.2977 Y-11.7189
G1 X41.2977 Y-13.451
G1 X17.049 Y0.549
G1 X18.049 Y2.2811
G1 X18.6553 Y1.9311
G0 Z3.0
G0 X13.8806 Y-12.0069
G0 Z1.0
G1 F500.0 Z-1.0
G1 F1000.0 X20.7652 Y-37.7006
G1 X20.1856 Y-37.8559
G1 X13.301 Y-12.1622
G1 X13.8806 Y-12.0069
G1 F500.0 X13.7253 Y-11.4274
G1 F1000.0 X12.5662 Y-11.738
G1 X19.7614 Y-38.5907
G1 X21.5 Y-38.1248
G1 X14.3049 Y-11.2721
G1 X13.7253 Y-11.4274
G1 F500.0 X13.8806 Y-12.0069
G1 Z-2.0
G1 F1000.0 X20.7652 Y-37.7006
G1 X20.1856 Y-37.8559
G1 X13.301 Y-12.1622
G1 X13.8806 Y-12.0069
G1 F500.0 X13.7253 Y-11.4274
G1 F1000.0 X12.5662 Y-11.738
G1 X19.7614 Y-38.5907
G1 X21.5 Y-38.1248
G1 X14.3049 Y-11.2721
G1 X13.7253 Y-11.4274
G1 F500.0 X13.8806 Y-12.0069
G1 Z-3.0
G1 F1000.0 X20.7652 Y-37.7006
G1 X20.1856 Y-37.8559
G1 X13.301 Y-12.1622
G1 X13.8806 Y-12.0069
G1 F500.0 X13.7253 Y-11.4274
G1 F1000.0 X12.5662 Y-11.738
G1 X19.7614 Y-38.5907
G1 X21.5 Y-38.1248
G1 X14.3049 Y-11.2721
G1 X13.7253 Y-11.4274
G1 F500.0 X13.8806 Y-12.0069
G1 Z-4.0
G1 F1000.0 X20.7652 Y-37.7006
G1 X20.1856 Y-37.8559
G1 X13.301 Y-12.1622
G1 X13.8806 Y-12.0069
G1 F500.0 X13.7253 Y-11.4274
G1 F1000.0 X12.5662 Y-11.738
G1 X19.7614 Y-38.5907
G1 X21.5 Y-38.1248
G1 X14.3049 Y-11.2721
G1 X13.7253 Y-11.4274
G1 F500.0 X13.8806 Y-12.0069
G1 Z-5.0
G1 F1000.0 X20.7652 Y-37.7006
G1 X20.1856 Y-37.8559
G1 X13.301 Y-12.1622
G1 X13.8806 Y-12.0069
G1 F500.0 X13.7253 Y-11.4274
G1 F1000.0 X12.5662 Y-11.738
G1 X19.7614 Y-38.5907
G1 X21.5 Y-38.1248
G1 X14.3049 Y-11.2721
G1 X13.7253 Y-11.4274
G1 F500.0 X13.8806 Y-12.0069
G1 Z-6.0
G1 F1000.0 X20.7652 Y-37.7006
G1 X20.1856 Y-37.8559
G1 X13.301 Y-12.1622
G1 X13.8806 Y-12.0069
G1 F500.0 X13.7253 Y-11.4274
G1 F1000.0 X14.3049 Y-11.2721
G1 X21.5 Y-38.1248
G1 X19.7614 Y-38.5907
G1 X12.5662 Y-11.738
G1 X13.7253 Y-11.4274
G1 F500.0 X13.6994 Y-11.3308
G1 F1000.0 X14.3756 Y-11.1496
G1 X21.6225 Y-38.1955
G1 X19.6907 Y-38.7132
G1 X12.4437 Y-11.6673
G1 X13.6994 Y-11.3308
G0 Z3.0
G0 X1.3249 Y-18.3053
G0 Z1.0
G1 F500.0 Z-1.0
G1 F1000.0 X-11.9751 Y-41.3415
G1 X-12.4947 Y-41.0415
G1 X0.8053 Y-18.0053
G1 X1.3249 Y-18.3053
G1 F500.0 X1.6249 Y-17.7856
G1 F1000.0 X0.5856 Y-17.1856
G1 X-13.3144 Y-41.2611
G1 X-11.7555 Y-42.1611
G1 X2.1445 Y-18.0856
G1 X1.6249 Y-17.7856
G1 F500.0 X1.3249 Y-18.3053
G1 Z-2.0
G1 F1000.0 X-11.9751 Y-41.3415
G1 X-12.4947 Y-41.0415
G1 X0.8053 Y-18.0053
G1 X1.3249 Y-18.3053
G1 F500.0 X1.6249 Y-17.7856
G1 F1000.0 X0.5856 Y-17.1856
G1 X-13.3144 Y-41.2611
G1 X-11.7555 Y-42.1611
G1 X2.1445 Y-18.0856
G1 X1.6249 Y-17.7856
G1 F500.0 X1.3249 Y-18.3053
G1 Z-3.0
G1 F1000.0 X-11.9751 Y-41.3415
G1 X-12.4947 Y-41.0415
G1 X0.8053 Y-18.0053
G1 X1.3249 Y-18.3053
G1 F500.0 X1.6249 Y-17.7856
G1 F1000.0 X0.5856 Y-17.1856
G1 X-13.3144 Y-41.2611
G1 X-11.7555 Y-42.1611
G1 X2.1445 Y-18.0856
G1 X1.6249 Y-17.7856
G1 F500.0 X1.3249 Y-18.3053
G1 Z-4.0
G1 F1000.0 X-11.9751 Y-41.3415
G1 X-12.4947 Y-41.0415
G1 X0.8053 Y-18.0053
G1 X1.3249 Y-18.3053
G1 F500.0 X1.6249 Y-17.7856
G1 F1000.0 X0.5856 Y-17.1856
G1 X-13.3144 Y-41.2611
G1 X-11.7555 Y-42.1611
G1 X2.1445 Y-18.0856
G1 X1.6249 Y-17.7856
G1 F500.0 X1.3249 Y-18.3053
G1 Z-5.0
G1 F1000.0 X-11.9751 Y-41.3415
G1 X-12.4947 Y-41.0415
G1 X0.8053 Y-18.0053
G1 X1.3249 Y-18.3053
G1 F500.0 X1.6249 Y-17.7856
G1 F1000.0 X0.5856 Y-17.1856
G1 X-13.3144 Y-41.2611
G1 X-11.7555 Y-42.1611
G1 X2.1445 Y-18.0856
G1 X1.6249 Y-17.7856
G1 F500.0 X1.3249 Y-18.3053
G1 Z-6.0
G1 F1000.0 X-11.9751 Y-41.3415
G1 X-12.4947 Y-41.0415
G1 X0.8053 Y-18.0053
G1 X1.3249 Y-18.3053
G1 F500.0 X1.6249 Y-17.7856
G1 F1000.0 X2.1445 Y-18.0856
G1 X-11.7555 Y-42.1611
G1 X-13.3144 Y-41.2611
G1 X0.5856 Y-17.1856
G1 X1.6249 Y-17.7856
G1 F500.0 X1.6749 Y-17.699
G1 F1000.0 X2.2811 Y-18.049
G1 X-11.7189 Y-42.2977
G1 X-13.451 Y-41.2977
G1 X0.549 Y-17.049
G1 X1.6749 Y-17.699
G0 Z3.0
G0 X-12.0069 Y-13.8806
G0 Z1.0
G1 F500.0 Z-1.0
G1 F1000.0 X-37.7006 Y-20.7652
G1 X-37.8559 Y-20.1856
G1 X-12.1622 Y-13.301
G1 X-12.0069 Y-13.8806
G1 F500.0 X-11.4274 Y-13.7253
G1 F1000.0 X-11.738 Y-12.5662
G1 X-38.5907 Y-19.7614
G1 X-38.1248 Y-21.5
G1 X-11.2721 Y-14.3049
G1 X-11.4274 Y-13.7253
G1 F500.0 X-12.0069 Y-13.8806
G1 Z-2.0
G1 F1000.0 X-37.7006 Y-20.7652
G1 X-37.8559 Y-20.1856
G1 X-12.1622 Y-13.301
G1 X-12.0069 Y-13.8806
G1 F500.0 X-11.4274 Y-13.7253
G1 F1000.0 X-11.738 Y-12.5662
G1 X-38.5907 Y-19.7614
G1 X-38.1248 Y-21.5
G1 X-11.2721 Y-14.3049
G1 X-11.4274 Y-13.7253
G1 F500.0 X-12.0069 Y-13.8806
G1 Z-3.0
G1 F1000.0 X-37.7006 Y-20.7652
G1 X-37.8559 Y-20.1856
G1 X-12.1622 Y-13.301
G1 X-12.0069 Y-13.8806
G1 F500.0 X-11.4274 Y-13.7253
G1 F1000.0 X-11.738 Y-12.5662
G1 X-38.5907 Y-19.7614
G1 X-38.1248 Y-21.5
G1 X-11.2721 Y-14.3049
G1 X-11.4274 Y-13.7253
G1 F500.0 X-12.0069 Y-13.8806
G1 Z-4.0
G1 F1000.0 X-37.7006 Y-20.7652
G1 X-37.8559 Y-20.1856
G1 X-12.1622 Y-13.301
G1 X-12.0069 Y-13.8806
G1 F500.0 X-11.4274 Y-13.7253
G1 F1000.0 X-11.738 Y-12.5662
G1 X-38.5907 Y-19.7614
G1 X-38.1248 Y-21.5
G1 X-11.2721 Y-14.3049
G1 X-11.4274 Y-13.7253
G1 F500.0 X-12.0069 Y-13.8806
G1 Z-5.0
G1 F1000.0 X-37.7006 Y-20.7652
G1 X-37.8559 Y-20.1856
G1 X-12.1622 Y-13.301
G1 X-12.0069 Y-13.8806
G1 F500.0 X-11.4274 Y-13.7253
G1 F1000.0 X-11.738 Y-12.5662
G1 X-38.5907 Y-19.7614
G1 X-38.1248 Y-21.5
G1 X-11.2721 Y-14.3049
G1 X-11.4274 Y-13.7253
G1 F500.0 X-12.0069 Y-13.8806
G1 Z-6.0
G1 F1000.0 X-37.7006 Y-20.7652
G1 X-37.8559 Y-20.1856
G1 X-12.1622 Y-13.301
G1 X-12.0069 Y-13.8806
G1 F500.0 X-11.4274 Y-13.7253
G1 F1000.0 X-11.2721 Y-14.3049
G1 X-38.1248 Y-21.5
G1 X-38.5907 Y-19.7614
G1 X-11.738 Y-12.5662
G1 X-11.4274 Y-13.7253
G1 F500.0 X-11.3308 Y-13.6994
G1 F1000.0 X-11.1496 Y-14.3756
G1 X-38.1955 Y-21.6225
G1 X-38.7132 Y-19.6907
G1 X-11.6673 Y-12.4437
G1 X-11.3308 Y-13.6994
( Rohr )
S2000
G0 Z3.0
G0 X13.5 Y0.0
G0 Z1.0
G1 F500.0 Z-1.0
G2 F1000.0 X-6.75 Y-11.6913 I-13.5 J0.0
G2 Y11.6913 I6.75 J11.6913
G2 X13.5 Y0.0 I6.75 J-11.6913
G1 F500.0 Z-2.0
G2 F1000.0 X-6.75 Y-11.6913 I-13.5 J0.0
G2 Y11.6913 I6.75 J11.6913
G2 X13.5 Y0.0 I6.75 J-11.6913
G1 F500.0 Z-3.0
G2 F1000.0 X-6.75 Y-11.6913 I-13.5 J0.0
G2 Y11.6913 I6.75 J11.6913
G2 X13.5 Y0.0 I6.75 J-11.6913
G1 F500.0 Z-4.0
G2 F1000.0 X-6.75 Y-11.6913 I-13.5 J0.0
G2 Y11.6913 I6.75 J11.6913
G2 X13.5 Y0.0 I6.75 J-11.6913
G1 F500.0 Z-5.0
G2 F1000.0 X-6.75 Y-11.6913 I-13.5 J0.0
G2 Y11.6913 I6.75 J11.6913
G2 X13.5 Y0.0 I6.75 J-11.6913
( Welle )
G0 Z3.0
( T6 : 6.0 )
( Tool Taper coming soon )
( TOOL/MILL,6.0,0.0,0.0,0 )
T6 M6
M3 S2000
G0 X0.0
G0 Z3.0
G0 X1.0 Y0.0
G0 Z1.0
G1 F500.0 Z0.0
G2 F1000.0 X-0.5 Y-0.866 Z-0.3333 I-1.0 J0.0
G2 Y0.866 Z-0.6667 I0.5 J0.866
G2 X1.0 Y0.0 Z-1.0 I0.5 J-0.866
G2 X-0.5 Y-0.866 Z-1.3333 I-1.0 J0.0
G2 Y0.866 Z-1.6667 I0.5 J0.866
G2 X1.0 Y0.0 Z-2.0 I0.5 J-0.866
G2 X-0.5 Y-0.866 Z-2.3333 I-1.0 J0.0
G2 Y0.866 Z-2.6667 I0.5 J0.866
G2 X1.0 Y0.0 Z-3.0 I0.5 J-0.866
G2 X-0.5 Y-0.866 Z-3.3333 I-1.0 J0.0
G2 Y0.866 Z-3.6667 I0.5 J0.866
G2 X1.0 Y0.0 Z-4.0 I0.5 J-0.866
G2 X-0.5 Y-0.866 Z-4.3333 I-1.0 J0.0
G2 Y0.866 Z-4.6667 I0.5 J0.866
G2 X1.0 Y0.0 Z-5.0 I0.5 J-0.866
G2 X-0.5 Y-0.866 Z-5.3333 I-1.0 J0.0
G2 Y0.866 Z-5.6667 I0.5 J0.866
G2 X1.0 Y0.0 Z-6.0 I0.5 J-0.866
G2 X-0.5 Y-0.866 Z-6.3333 I-1.0 J0.0
G2 Y0.866 Z-6.6667 I0.5 J0.866
G2 X1.0 Y0.0 Z-7.0 I0.5 J-0.866
G2 X-0.5 Y-0.866 Z-7.3333 I-1.0 J0.0
G2 Y0.866 Z-7.6667 I0.5 J0.866
G2 X1.0 Y0.0 Z-8.0 I0.5 J-0.866
G2 X-0.5 Y-0.866 Z-8.3333 I-1.0 J0.0
G2 Y0.866 Z-8.6667 I0.5 J0.866
G2 X1.0 Y0.0 Z-9.0 I0.5 J-0.866
G2 X-0.5 Y-0.866 Z-9.3333 I-1.0 J0.0
G2 Y0.866 Z-9.6667 I0.5 J0.866
G2 X1.0 Y0.0 Z-10.0 I0.5 J-0.866
G2 X-0.5 Y-0.866 I-1.0 J0.0
G2 Y0.866 I0.5 J0.866
G2 X1.0 Y0.0 I0.5 J-0.866
( Bohren-Wellenbefestigung )
G0 Z3.0
( T12 : 2.0 )
( Tool Taper coming soon )
( TOOL/MILL,2.0,0.0,0.0,0 )
T12 M6
M3 S2000
G0 X-8.0
G98
G81 X-8.0 Y0.0 Z-10.0 R3.0 F500.0
G81 X0.0 Y-8.0 Z-10.0
G81 X8.0 Y0.0 Z-10.0
G81 X0.0 Y8.0 Z-10.0
G80
( Schaufel-Taschen-Ecken )
G0 Z3.0
( T11 : 1.2 )
( Tool Taper coming soon )
( TOOL/MILL,1.2,0.0,0.0,0 )
T11 M6
M3 S2000
G0 X-39.1009 Y-24.0392
G0 Z1.0
G1 F500.0 Z-1.0
G1 F1000.0 X-9.1572 Y-16.0158
G3 X-8.733 Y-15.2809 I-0.1553 J0.5796
G1 X-10.027 Y-10.4513
G3 X-10.7619 Y-10.027 I-0.5796 J-0.1553
G1 X-40.7056 Y-18.0504
G3 X-41.1299 Y-18.7853 I0.1553 J-0.5796
G1 X-39.8358 Y-23.6149
G3 X-39.1009 Y-24.0392 I0.5796 J0.1553
G1 F500.0 Z-2.0
G1 F1000.0 X-9.1572 Y-16.0158
G3 X-8.733 Y-15.2809 I-0.1553 J0.5796
G1 X-10.027 Y-10.4513
G3 X-10.7619 Y-10.027 I-0.5796 J-0.1553
G1 X-40.7056 Y-18.0504
G3 X-41.1299 Y-18.7853 I0.1553 J-0.5796
G1 X-39.8358 Y-23.6149
G3 X-39.1009 Y-24.0392 I0.5796 J0.1553
G1 F500.0 Z-3.0
G1 F1000.0 X-9.1572 Y-16.0158
G3 X-8.733 Y-15.2809 I-0.1553 J0.5796
G1 X-10.027 Y-10.4513
G3 X-10.7619 Y-10.027 I-0.5796 J-0.1553
G1 X-40.7056 Y-18.0504
G3 X-41.1299 Y-18.7853 I0.1553 J-0.5796
G1 X-39.8358 Y-23.6149
G3 X-39.1009 Y-24.0392 I0.5796 J0.1553
G1 F500.0 Z-4.0
G1 F1000.0 X-9.1572 Y-16.0158
G3 X-8.733 Y-15.2809 I-0.1553 J0.5796
G1 X-10.027 Y-10.4513
G3 X-10.7619 Y-10.027 I-0.5796 J-0.1553
G1 X-40.7056 Y-18.0504
G3 X-41.1299 Y-18.7853 I0.1553 J-0.5796
G1 X-39.8358 Y-23.6149
G3 X-39.1009 Y-24.0392 I0.5796 J0.1553
G1 F500.0 Z-5.0
G1 F1000.0 X-9.1572 Y-16.0158
G3 X-8.733 Y-15.2809 I-0.1553 J0.5796
G1 X-10.027 Y-10.4513
G3 X-10.7619 Y-10.027 I-0.5796 J-0.1553
G1 X-40.7056 Y-18.0504
G3 X-41.1299 Y-18.7853 I0.1553 J-0.5796
G1 X-39.8358 Y-23.6149
G3 X-39.1009 Y-24.0392 I0.5796 J0.1553
G1 F500.0 Z-6.0
G1 F1000.0 X-9.1572 Y-16.0158
G3 X-8.733 Y-15.2809 I-0.1553 J0.5796
G1 X-10.027 Y-10.4513
G3 X-10.7619 Y-10.027 I-0.5796 J-0.1553
G1 X-40.7056 Y-18.0504
G3 X-41.1299 Y-18.7853 I0.1553 J-0.5796
G1 X-39.8358 Y-23.6149
G3 X-39.1009 Y-24.0392 I0.5796 J0.1553
G1 F500.0 Z-7.0
G1 F1000.0 X-9.1572 Y-16.0158
G3 X-8.733 Y-15.2809 I-0.1553 J0.5796
G1 X-10.027 Y-10.4513
G3 X-10.7619 Y-10.027 I-0.5796 J-0.1553
G1 X-40.7056 Y-18.0504
G3 X-41.1299 Y-18.7853 I0.1553 J-0.5796
G1 X-39.8358 Y-23.6149
G3 X-39.1009 Y-24.0392 I0.5796 J0.1553
G1 F500.0 Z-8.0
G1 F1000.0 X-9.1572 Y-16.0158
G3 X-8.733 Y-15.2809 I-0.1553 J0.5796
G1 X-10.027 Y-10.4513
G3 X-10.7619 Y-10.027 I-0.5796 J-0.1553
G1 X-40.7056 Y-18.0504
G3 X-41.1299 Y-18.7853 I0.1553 J-0.5796
G1 X-39.8358 Y-23.6149
G3 X-39.1009 Y-24.0392 I0.5796 J0.1553
G1 F500.0 Z-9.0
G1 F1000.0 X-9.1572 Y-16.0158
G3 X-8.733 Y-15.2809 I-0.1553 J0.5796
G1 X-10.027 Y-10.4513
G3 X-10.7619 Y-10.027 I-0.5796 J-0.1553
G1 X-40.7056 Y-18.0504
G3 X-41.1299 Y-18.7853 I0.1553 J-0.5796
G1 X-39.8358 Y-23.6149
G3 X-39.1009 Y-24.0392 I0.5796 J0.1553
G1 F500.0 Z-10.0
G1 F1000.0 X-9.1572 Y-16.0158
G3 X-8.733 Y-15.2809 I-0.1553 J0.5796
G1 X-10.027 Y-10.4513
G3 X-10.7619 Y-10.027 I-0.5796 J-0.1553
G1 X-40.7056 Y-18.0504
G3 X-41.1299 Y-18.7853 I0.1553 J-0.5796
G1 X-39.8358 Y-23.6149
G3 X-39.1009 Y-24.0392 I0.5796 J0.1553
G0 Z3.0
G0 X-25.4664 Y-0.4235
G0 Z1.0
G1 F500.0 Z-1.0
G1 F1000.0 X-17.8 Y-4.8497
G3 X-16.9804 Y-4.6301 I0.3 J0.5196
G1 X-14.4804 Y-0.3
G3 X-14.7 Y0.5196 I-0.5196 J0.3
G1 X-41.5468 Y16.0196
G3 X-42.3664 Y15.8 I-0.3 J-0.5196
G1 X-44.8664 Y11.4699
G3 X-44.6468 Y10.6503 I0.5196 J-0.3
G1 X-25.4664 Y-0.4235
G1 F500.0 Z-2.0
G1 F1000.0 X-17.8 Y-4.8497
G3 X-16.9804 Y-4.6301 I0.3 J0.5196
G1 X-14.4804 Y-0.3
G3 X-14.7 Y0.5196 I-0.5196 J0.3
G1 X-41.5468 Y16.0196
G3 X-42.3664 Y15.8 I-0.3 J-0.5196
G1 X-44.8664 Y11.4699
G3 X-44.6468 Y10.6503 I0.5196 J-0.3
G1 X-25.4664 Y-0.4235
G1 F500.0 Z-3.0
G1 F1000.0 X-17.8 Y-4.8497
G3 X-16.9804 Y-4.6301 I0.3 J0.5196
G1 X-14.4804 Y-0.3
G3 X-14.7 Y0.5196 I-0.5196 J0.3
G1 X-41.5468 Y16.0196
G3 X-42.3664 Y15.8 I-0.3 J-0.5196
G1 X-44.8664 Y11.4699
G3 X-44.6468 Y10.6503 I0.5196 J-0.3
G1 X-25.4664 Y-0.4235
G1 F500.0 Z-4.0
G1 F1000.0 X-17.8 Y-4.8497
G3 X-16.9804 Y-4.6301 I0.3 J0.5196
G1 X-14.4804 Y-0.3
G3 X-14.7 Y0.5196 I-0.5196 J0.3
G1 X-41.5468 Y16.0196
G3 X-42.3664 Y15.8 I-0.3 J-0.5196
G1 X-44.8664 Y11.4699
G3 X-44.6468 Y10.6503 I0.5196 J-0.3
G1 X-25.4664 Y-0.4235
G1 F500.0 Z-5.0
G1 F1000.0 X-17.8 Y-4.8497
G3 X-16.9804 Y-4.6301 I0.3 J0.5196
G1 X-14.4804 Y-0.3
G3 X-14.7 Y0.5196 I-0.5196 J0.3
G1 X-41.5468 Y16.0196
G3 X-42.3664 Y15.8 I-0.3 J-0.5196
G1 X-44.8664 Y11.4699
G3 X-44.6468 Y10.6503 I0.5196 J-0.3
G1 X-25.4664 Y-0.4235
G1 F500.0 Z-6.0
G1 F1000.0 X-17.8 Y-4.8497
G3 X-16.9804 Y-4.6301 I0.3 J0.5196
G1 X-14.4804 Y-0.3
G3 X-14.7 Y0.5196 I-0.5196 J0.3
G1 X-41.5468 Y16.0196
G3 X-42.3664 Y15.8 I-0.3 J-0.5196
G1 X-44.8664 Y11.4699
G3 X-44.6468 Y10.6503 I0.5196 J-0.3
G1 X-25.4664 Y-0.4235
G1 F500.0 Z-7.0
G1 F1000.0 X-17.8 Y-4.8497
G3 X-16.9804 Y-4.6301 I0.3 J0.5196
G1 X-14.4804 Y-0.3
G3 X-14.7 Y0.5196 I-0.5196 J0.3
G1 X-41.5468 Y16.0196
G3 X-42.3664 Y15.8 I-0.3 J-0.5196
G1 X-44.8664 Y11.4699
G3 X-44.6468 Y10.6503 I0.5196 J-0.3
G1 X-25.4664 Y-0.4235
G1 F500.0 Z-8.0
G1 F1000.0 X-17.8 Y-4.8497
G3 X-16.9804 Y-4.6301 I0.3 J0.5196
G1 X-14.4804 Y-0.3
G3 X-14.7 Y0.5196 I-0.5196 J0.3
G1 X-41.5468 Y16.0196
G3 X-42.3664 Y15.8 I-0.3 J-0.5196
G1 X-44.8664 Y11.4699
G3 X-44.6468 Y10.6503 I0.5196 J-0.3
G1 X-25.4664 Y-0.4235
G1 F500.0 Z-9.0
G1 F1000.0 X-17.8 Y-4.8497
G3 X-16.9804 Y-4.6301 I0.3 J0.5196
G1 X-14.4804 Y-0.3
G3 X-14.7 Y0.5196 I-0.5196 J0.3
G1 X-41.5468 Y16.0196
G3 X-42.3664 Y15.8 I-0.3 J-0.5196
G1 X-44.8664 Y11.4699
G3 X-44.6468 Y10.6503 I0.5196 J-0.3
G1 X-25.4664 Y-0.4235
G1 F500.0 Z-10.0
G1 F1000.0 X-17.8 Y-4.8497
G3 X-16.9804 Y-4.6301 I0.3 J0.5196
G1 X-14.4804 Y-0.3
G3 X-14.7 Y0.5196 I-0.5196 J0.3
G1 X-41.5468 Y16.0196
G3 X-42.3664 Y15.8 I-0.3 J-0.5196
G1 X-44.8664 Y11.4699
G3 X-44.6468 Y10.6503 I0.5196 J-0.3
G1 X-25.4664 Y-0.4235
G0 Z3.0
G0 X-15.8668 Y8.8946
G0 Z1.0
G1 F500.0 Z-1.0
G3 F1000.0 X-15.2809 Y8.733 I0.4305 J0.4179
G1 X-10.4513 Y10.027
G3 X-10.027 Y10.7619 I-0.1553 J0.5796
G1 X-18.0504 Y40.7056
G3 X-18.7853 Y41.1299 I-0.5796 J-0.1553
G1 X-23.6149 Y39.8358
G3 X-24.0392 Y39.1009 I0.1553 J-0.5796
G1 X-16.0158 Y9.1572
G3 X-15.8668 Y8.8946 I0.5796 J0.1553
G1 F500.0 Z-2.0
G3 F1000.0 X-15.2809 Y8.733 I0.4305 J0.4179
G1 X-10.4513 Y10.027
G3 X-10.027 Y10.7619 I-0.1553 J0.5796
G1 X-18.0504 Y40.7056
G3 X-18.7853 Y41.1299 I-0.5796 J-0.1553
G1 X-23.6149 Y39.8358
G3 X-24.0392 Y39.1009 I0.1553 J-0.5796
G1 X-16.0158 Y9.1572
G3 X-15.8668 Y8.8946 I0.5796 J0.1553
G1 F500.0 Z-3.0
G3 F1000.0 X-15.2809 Y8.733 I0.4305 J0.4179
G1 X-10.4513 Y10.027
G3 X-10.027 Y10.7619 I-0.1553 J0.5796
G1 X-18.0504 Y40.7056
G3 X-18.7853 Y41.1299 I-0.5796 J-0.1553
G1 X-23.6149 Y39.8358
G3 X-24.0392 Y39.1009 I0.1553 J-0.5796
G1 X-16.0158 Y9.1572
G3 X-15.8668 Y8.8946 I0.5796 J0.1553
G1 F500.0 Z-4.0
G3 F1000.0 X-15.2809 Y8.733 I0.4305 J0.4179
G1 X-10.4513 Y10.027
G3 X-10.027 Y10.7619 I-0.1553 J0.5796
G1 X-18.0504 Y40.7056
G3 X-18.7853 Y41.1299 I-0.5796 J-0.1553
G1 X-23.6149 Y39.8358
G3 X-24.0392 Y39.1009 I0.1553 J-0.5796
G1 X-16.0158 Y9.1572
G3 X-15.8668 Y8.8946 I0.5796 J0.1553
G1 F500.0 Z-5.0
G3 F1000.0 X-15.2809 Y8.733 I0.4305 J0.4179
G1 X-10.4513 Y10.027
G3 X-10.027 Y10.7619 I-0.1553 J0.5796
G1 X-18.0504 Y40.7056
G3 X-18.7853 Y41.1299 I-0.5796 J-0.1553
G1 X-23.6149 Y39.8358
G3 X-24.0392 Y39.1009 I0.1553 J-0.5796
G1 X-16.0158 Y9.1572
G3 X-15.8668 Y8.8946 I0.5796 J0.1553
G1 F500.0 Z-6.0
G3 F1000.0 X-15.2809 Y8.733 I0.4305 J0.4179
G1 X-10.4513 Y10.027
G3 X-10.027 Y10.7619 I-0.1553 J0.5796
G1 X-18.0504 Y40.7056
G3 X-18.7853 Y41.1299 I-0.5796 J-0.1553
G1 X-23.6149 Y39.8358
G3 X-24.0392 Y39.1009 I0.1553 J-0.5796
G1 X-16.0158 Y9.1572
G3 X-15.8668 Y8.8946 I0.5796 J0.1553
G1 F500.0 Z-7.0
G3 F1000.0 X-15.2809 Y8.733 I0.4305 J0.4179
G1 X-10.4513 Y10.027
G3 X-10.027 Y10.7619 I-0.1553 J0.5796
G1 X-18.0504 Y40.7056
G3 X-18.7853 Y41.1299 I-0.5796 J-0.1553
G1 X-23.6149 Y39.8358
G3 X-24.0392 Y39.1009 I0.1553 J-0.5796
G1 X-16.0158 Y9.1572
G3 X-15.8668 Y8.8946 I0.5796 J0.1553
G1 F500.0 Z-8.0
G3 F1000.0 X-15.2809 Y8.733 I0.4305 J0.4179
G1 X-10.4513 Y10.027
G3 X-10.027 Y10.7619 I-0.1553 J0.5796
G1 X-18.0504 Y40.7056
G3 X-18.7853 Y41.1299 I-0.5796 J-0.1553
G1 X-23.6149 Y39.8358
G3 X-24.0392 Y39.1009 I0.1553 J-0.5796
G1 X-16.0158 Y9.1572
G3 X-15.8668 Y8.8946 I0.5796 J0.1553
G1 F500.0 Z-9.0
G3 F1000.0 X-15.2809 Y8.733 I0.4305 J0.4179
G1 X-10.4513 Y10.027
G3 X-10.027 Y10.7619 I-0.1553 J0.5796
G1 X-18.0504 Y40.7056
G3 X-18.7853 Y41.1299 I-0.5796 J-0.1553
G1 X-23.6149 Y39.8358
G3 X-24.0392 Y39.1009 I0.1553 J-0.5796
G1 X-16.0158 Y9.1572
G3 X-15.8668 Y8.8946 I0.5796 J0.1553
G1 F500.0 Z-10.0
G3 F1000.0 X-15.2809 Y8.733 I0.4305 J0.4179
G1 X-10.4513 Y10.027
G3 X-10.027 Y10.7619 I-0.1553 J0.5796
G1 X-18.0504 Y40.7056
G3 X-18.7853 Y41.1299 I-0.5796 J-0.1553
G1 X-23.6149 Y39.8358
G3 X-24.0392 Y39.1009 I0.1553 J-0.5796
G1 X-16.0158 Y9.1572
G3 X-15.8668 Y8.8946 I0.5796 J0.1553
G0 Z3.0
G0 X-4.8111 Y17.1413
G0 Z1.0
G1 F500.0 Z-1.0
G3 F1000.0 X-4.6301 Y16.9804 I0.4809 J0.3587
G1 X-0.3 Y14.4804
G3 X0.5196 Y14.7 I0.3 J0.5196
G1 X16.0196 Y41.5468
G3 X15.8 Y42.3664 I-0.5196 J0.3
G1 X11.4699 Y44.8664
G3 X10.6503 Y44.6468 I-0.3 J-0.5196
G1 X-4.8497 Y17.8
G3 X-4.8111 Y17.1413 I0.5196 J-0.3
G1 F500.0 Z-2.0
G3 F1000.0 X-4.6301 Y16.9804 I0.4809 J0.3587
G1 X-0.3 Y14.4804
G3 X0.5196 Y14.7 I0.3 J0.5196
G1 X16.0196 Y41.5468
G3 X15.8 Y42.3664 I-0.5196 J0.3
G1 X11.4699 Y44.8664
G3 X10.6503 Y44.6468 I-0.3 J-0.5196
G1 X-4.8497 Y17.8
G3 X-4.8111 Y17.1413 I0.5196 J-0.3
G1 F500.0 Z-3.0
G3 F1000.0 X-4.6301 Y16.9804 I0.4809 J0.3587
G1 X-0.3 Y14.4804
G3 X0.5196 Y14.7 I0.3 J0.5196
G1 X16.0196 Y41.5468
G3 X15.8 Y42.3664 I-0.5196 J0.3
G1 X11.4699 Y44.8664
G3 X10.6503 Y44.6468 I-0.3 J-0.5196
G1 X-4.8497 Y17.8
G3 X-4.8111 Y17.1413 I0.5196 J-0.3
G1 F500.0 Z-4.0
G3 F1000.0 X-4.6301 Y16.9804 I0.4809 J0.3587
G1 X-0.3 Y14.4804
G3 X0.5196 Y14.7 I0.3 J0.5196
G1 X16.0196 Y41.5468
G3 X15.8 Y42.3664 I-0.5196 J0.3
G1 X11.4699 Y44.8664
G3 X10.6503 Y44.6468 I-0.3 J-0.5196
G1 X-4.8497 Y17.8
G3 X-4.8111 Y17.1413 I0.5196 J-0.3
G1 F500.0 Z-5.0
G3 F1000.0 X-4.6301 Y16.9804 I0.4809 J0.3587
G1 X-0.3 Y14.4804
G3 X0.5196 Y14.7 I0.3 J0.5196
G1 X16.0196 Y41.5468
G3 X15.8 Y42.3664 I-0.5196 J0.3
G1 X11.4699 Y44.8664
G3 X10.6503 Y44.6468 I-0.3 J-0.5196
G1 X-4.8497 Y17.8
G3 X-4.8111 Y17.1413 I0.5196 J-0.3
G1 F500.0 Z-6.0
G3 F1000.0 X-4.6301 Y16.9804 I0.4809 J0.3587
G1 X-0.3 Y14.4804
G3 X0.5196 Y14.7 I0.3 J0.5196
G1 X16.0196 Y41.5468
G3 X15.8 Y42.3664 I-0.5196 J0.3
G1 X11.4699 Y44.8664
G3 X10.6503 Y44.6468 I-0.3 J-0.5196
G1 X-4.8497 Y17.8
G3 X-4.8111 Y17.1413 I0.5196 J-0.3
G1 F500.0 Z-7.0
G3 F1000.0 X-4.6301 Y16.9804 I0.4809 J0.3587
G1 X-0.3 Y14.4804
G3 X0.5196 Y14.7 I0.3 J0.5196
G1 X16.0196 Y41.5468
G3 X15.8 Y42.3664 I-0.5196 J0.3
G1 X11.4699 Y44.8664
G3 X10.6503 Y44.6468 I-0.3 J-0.5196
G1 X-4.8497 Y17.8
G3 X-4.8111 Y17.1413 I0.5196 J-0.3
G1 F500.0 Z-8.0
G3 F1000.0 X-4.6301 Y16.9804 I0.4809 J0.3587
G1 X-0.3 Y14.4804
G3 X0.5196 Y14.7 I0.3 J0.5196
G1 X16.0196 Y41.5468
G3 X15.8 Y42.3664 I-0.5196 J0.3
G1 X11.4699 Y44.8664
G3 X10.6503 Y44.6468 I-0.3 J-0.5196
G1 X-4.8497 Y17.8
G3 X-4.8111 Y17.1413 I0.5196 J-0.3
G1 F500.0 Z-9.0
G3 F1000.0 X-4.6301 Y16.9804 I0.4809 J0.3587
G1 X-0.3 Y14.4804
G3 X0.5196 Y14.7 I0.3 J0.5196
G1 X16.0196 Y41.5468
G3 X15.8 Y42.3664 I-0.5196 J0.3
G1 X11.4699 Y44.8664
G3 X10.6503 Y44.6468 I-0.3 J-0.5196
G1 X-4.8497 Y17.8
G3 X-4.8111 Y17.1413 I0.5196 J-0.3
G1 F500.0 Z-10.0
G3 F1000.0 X-4.6301 Y16.9804 I0.4809 J0.3587
G1 X-0.3 Y14.4804
G3 X0.5196 Y14.7 I0.3 J0.5196
G1 X16.0196 Y41.5468
G3 X15.8 Y42.3664 I-0.5196 J0.3
G1 X11.4699 Y44.8664
G3 X10.6503 Y44.6468 I-0.3 J-0.5196
G1 X-4.8497 Y17.8
G3 X-4.8111 Y17.1413 I0.5196 J-0.3
G0 Z3.0
G0 X8.7168 Y15.5081
G0 Z1.0
G1 F500.0 Z-1.0
G3 F1000.0 X8.733 Y15.2809 I0.5957 J-0.0719
G1 X10.027 Y10.4513
G3 X10.7619 Y10.027 I0.5796 J0.1553
G1 X40.7056 Y18.0504
G3 X41.1299 Y18.7853 I-0.1553 J0.5796
G1 X39.8358 Y23.6149
G3 X39.1009 Y24.0392 I-0.5796 J-0.1553
G1 X9.1572 Y16.0158
G3 X8.7168 Y15.5081 I0.1553 J-0.5796
G1 F500.0 Z-2.0
G3 F1000.0 X8.733 Y15.2809 I0.5957 J-0.0719
G1 X10.027 Y10.4513
G3 X10.7619 Y10.027 I0.5796 J0.1553
G1 X40.7056 Y18.0504
G3 X41.1299 Y18.7853 I-0.1553 J0.5796
G1 X39.8358 Y23.6149
G3 X39.1009 Y24.0392 I-0.5796 J-0.1553
G1 X9.1572 Y16.0158
G3 X8.7168 Y15.5081 I0.1553 J-0.5796
G1 F500.0 Z-3.0
G3 F1000.0 X8.733 Y15.2809 I0.5957 J-0.0719
G1 X10.027 Y10.4513
G3 X10.7619 Y10.027 I0.5796 J0.1553
G1 X40.7056 Y18.0504
G3 X41.1299 Y18.7853 I-0.1553 J0.5796
G1 X39.8358 Y23.6149
G3 X39.1009 Y24.0392 I-0.5796 J-0.1553
G1 X9.1572 Y16.0158
G3 X8.7168 Y15.5081 I0.1553 J-0.5796
G1 F500.0 Z-4.0
G3 F1000.0 X8.733 Y15.2809 I0.5957 J-0.0719
G1 X10.027 Y10.4513
G3 X10.7619 Y10.027 I0.5796 J0.1553
G1 X40.7056 Y18.0504
G3 X41.1299 Y18.7853 I-0.1553 J0.5796
G1 X39.8358 Y23.6149
G3 X39.1009 Y24.0392 I-0.5796 J-0.1553
G1 X9.1572 Y16.0158
G3 X8.7168 Y15.5081 I0.1553 J-0.5796
G1 F500.0 Z-5.0
G3 F1000.0 X8.733 Y15.2809 I0.5957 J-0.0719
G1 X10.027 Y10.4513
G3 X10.7619 Y10.027 I0.5796 J0.1553
G1 X40.7056 Y18.0504
G3 X41.1299 Y18.7853 I-0.1553 J0.5796
G1 X39.8358 Y23.6149
G3 X39.1009 Y24.0392 I-0.5796 J-0.1553
G1 X9.1572 Y16.0158
G3 X8.7168 Y15.5081 I0.1553 J-0.5796
G1 F500.0 Z-6.0
G3 F1000.0 X8.733 Y15.2809 I0.5957 J-0.0719
G1 X10.027 Y10.4513
G3 X10.7619 Y10.027 I0.5796 J0.1553
G1 X40.7056 Y18.0504
G3 X41.1299 Y18.7853 I-0.1553 J0.5796
G1 X39.8358 Y23.6149
G3 X39.1009 Y24.0392 I-0.5796 J-0.1553
G1 X9.1572 Y16.0158
G3 X8.7168 Y15.5081 I0.1553 J-0.5796
G1 F500.0 Z-7.0
G3 F1000.0 X8.733 Y15.2809 I0.5957 J-0.0719
G1 X10.027 Y10.4513
G3 X10.7619 Y10.027 I0.5796 J0.1553
G1 X40.7056 Y18.0504
G3 X41.1299 Y18.7853 I-0.1553 J0.5796
G1 X39.8358 Y23.6149
G3 X39.1009 Y24.0392 I-0.5796 J-0.1553
G1 X9.1572 Y16.0158
G3 X8.7168 Y15.5081 I0.1553 J-0.5796
G1 F500.0 Z-8.0
G3 F1000.0 X8.733 Y15.2809 I0.5957 J-0.0719
G1 X10.027 Y10.4513
G3 X10.7619 Y10.027 I0.5796 J0.1553
G1 X40.7056 Y18.0504
G3 X41.1299 Y18.7853 I-0.1553 J0.5796
G1 X39.8358 Y23.6149
G3 X39.1009 Y24.0392 I-0.5796 J-0.1553
G1 X9.1572 Y16.0158
G3 X8.7168 Y15.5081 I0.1553 J-0.5796
G1 F500.0 Z-9.0
G3 F1000.0 X8.733 Y15.2809 I0.5957 J-0.0719
G1 X10.027 Y10.4513
G3 X10.7619 Y10.027 I0.5796 J0.1553
G1 X40.7056 Y18.0504
G3 X41.1299 Y18.7853 I-0.1553 J0.5796
G1 X39.8358 Y23.6149
G3 X39.1009 Y24.0392 I-0.5796 J-0.1553
G1 X9.1572 Y16.0158
G3 X8.7168 Y15.5081 I0.1553 J-0.5796
G1 F500.0 Z-10.0
G3 F1000.0 X8.733 Y15.2809 I0.5957 J-0.0719
G1 X10.027 Y10.4513
G3 X10.7619 Y10.027 I0.5796 J0.1553
G1 X40.7056 Y18.0504
G3 X41.1299 Y18.7853 I-0.1553 J0.5796
G1 X39.8358 Y23.6149
G3 X39.1009 Y24.0392 I-0.5796 J-0.1553
G1 X9.1572 Y16.0158
G3 X8.7168 Y15.5081 I0.1553 J-0.5796
G0 Z3.0
G0 X17.1293 Y4.8019
G0 Z1.0
G1 F500.0 Z-1.0
G3 F1000.0 X16.9804 Y4.6301 I0.3707 J-0.4718
G1 X14.4804 Y0.3
G3 X14.7 Y-0.5196 I0.5196 J-0.3
G1 X41.5468 Y-16.0196
G3 X42.3664 Y-15.8 I0.3 J0.5196
G1 X44.8664 Y-11.4699
G3 X44.6468 Y-10.6503 I-0.5196 J0.3
G1 X17.8 Y4.8497
G3 X17.1293 Y4.8019 I-0.3 J-0.5196
G1 F500.0 Z-2.0
G3 F1000.0 X16.9804 Y4.6301 I0.3707 J-0.4718
G1 X14.4804 Y0.3
G3 X14.7 Y-0.5196 I0.5196 J-0.3
G1 X41.5468 Y-16.0196
G3 X42.3664 Y-15.8 I0.3 J0.5196
G1 X44.8664 Y-11.4699
G3 X44.6468 Y-10.6503 I-0.5196 J0.3
G1 X17.8 Y4.8497
G3 X17.1293 Y4.8019 I-0.3 J-0.5196
G1 F500.0 Z-3.0
G3 F1000.0 X16.9804 Y4.6301 I0.3707 J-0.4718
G1 X14.4804 Y0.3
G3 X14.7 Y-0.5196 I0.5196 J-0.3
G1 X41.5468 Y-16.0196
G3 X42.3664 Y-15.8 I0.3 J0.5196
G1 X44.8664 Y-11.4699
G3 X44.6468 Y-10.6503 I-0.5196 J0.3
G1 X17.8 Y4.8497
G3 X17.1293 Y4.8019 I-0.3 J-0.5196
G1 F500.0 Z-4.0
G3 F1000.0 X16.9804 Y4.6301 I0.3707 J-0.4718
G1 X14.4804 Y0.3
G3 X14.7 Y-0.5196 I0.5196 J-0.3
G1 X41.5468 Y-16.0196
G3 X42.3664 Y-15.8 I0.3 J0.5196
G1 X44.8664 Y-11.4699
G3 X44.6468 Y-10.6503 I-0.5196 J0.3
G1 X17.8 Y4.8497
G3 X17.1293 Y4.8019 I-0.3 J-0.5196
G1 F500.0 Z-5.0
G3 F1000.0 X16.9804 Y4.6301 I0.3707 J-0.4718
G1 X14.4804 Y0.3
G3 X14.7 Y-0.5196 I0.5196 J-0.3
G1 X41.5468 Y-16.0196
G3 X42.3664 Y-15.8 I0.3 J0.5196
G1 X44.8664 Y-11.4699
G3 X44.6468 Y-10.6503 I-0.5196 J0.3
G1 X17.8 Y4.8497
G3 X17.1293 Y4.8019 I-0.3 J-0.5196
G1 F500.0 Z-6.0
G3 F1000.0 X16.9804 Y4.6301 I0.3707 J-0.4718
G1 X14.4804 Y0.3
G3 X14.7 Y-0.5196 I0.5196 J-0.3
G1 X41.5468 Y-16.0196
G3 X42.3664 Y-15.8 I0.3 J0.5196
G1 X44.8664 Y-11.4699
G3 X44.6468 Y-10.6503 I-0.5196 J0.3
G1 X17.8 Y4.8497
G3 X17.1293 Y4.8019 I-0.3 J-0.5196
G1 F500.0 Z-7.0
G3 F1000.0 X16.9804 Y4.6301 I0.3707 J-0.4718
G1 X14.4804 Y0.3
G3 X14.7 Y-0.5196 I0.5196 J-0.3
G1 X41.5468 Y-16.0196
G3 X42.3664 Y-15.8 I0.3 J0.5196
G1 X44.8664 Y-11.4699
G3 X44.6468 Y-10.6503 I-0.5196 J0.3
G1 X17.8 Y4.8497
G3 X17.1293 Y4.8019 I-0.3 J-0.5196
G1 F500.0 Z-8.0
G3 F1000.0 X16.9804 Y4.6301 I0.3707 J-0.4718
G1 X14.4804 Y0.3
G3 X14.7 Y-0.5196 I0.5196 J-0.3
G1 X41.5468 Y-16.0196
G3 X42.3664 Y-15.8 I0.3 J0.5196
G1 X44.8664 Y-11.4699
G3 X44.6468 Y-10.6503 I-0.5196 J0.3
G1 X17.8 Y4.8497
G3 X17.1293 Y4.8019 I-0.3 J-0.5196
G1 F500.0 Z-9.0
G3 F1000.0 X16.9804 Y4.6301 I0.3707 J-0.4718
G1 X14.4804 Y0.3
G3 X14.7 Y-0.5196 I0.5196 J-0.3
G1 X41.5468 Y-16.0196
G3 X42.3664 Y-15.8 I0.3 J0.5196
G1 X44.8664 Y-11.4699
G3 X44.6468 Y-10.6503 I-0.5196 J0.3
G1 X17.8 Y4.8497
G3 X17.1293 Y4.8019 I-0.3 J-0.5196
G1 F500.0 Z-10.0
G3 F1000.0 X16.9804 Y4.6301 I0.3707 J-0.4718
G1 X14.4804 Y0.3
G3 X14.7 Y-0.5196 I0.5196 J-0.3
G1 X41.5468 Y-16.0196
G3 X42.3664 Y-15.8 I0.3 J0.5196
G1 X44.8664 Y-11.4699
G3 X44.6468 Y-10.6503 I-0.5196 J0.3
G1 X17.8 Y4.8497
G3 X17.1293 Y4.8019 I-0.3 J-0.5196
G0 Z3.0
G0 X15.5077 Y-8.7168
G0 Z1.0
G1 F500.0 Z-1.0
G3 F1000.0 X15.2809 Y-8.733 I-0.0715 J-0.5957
G1 X10.4513 Y-10.027
G3 X10.027 Y-10.7619 I0.1553 J-0.5796
G1 X18.0504 Y-40.7056
G3 X18.7853 Y-41.1299 I0.5796 J0.1553
G1 X23.6149 Y-39.8358
G3 X24.0392 Y-39.1009 I-0.1553 J0.5796
G1 X16.0158 Y-9.1572
G3 X15.5077 Y-8.7168 I-0.5796 J-0.1553
G1 F500.0 Z-2.0
G3 F1000.0 X15.2809 Y-8.733 I-0.0715 J-0.5957
G1 X10.4513 Y-10.027
G3 X10.027 Y-10.7619 I0.1553 J-0.5796
G1 X18.0504 Y-40.7056
G3 X18.7853 Y-41.1299 I0.5796 J0.1553
G1 X23.6149 Y-39.8358
G3 X24.0392 Y-39.1009 I-0.1553 J0.5796
G1 X16.0158 Y-9.1572
G3 X15.5077 Y-8.7168 I-0.5796 J-0.1553
G1 F500.0 Z-3.0
G3 F1000.0 X15.2809 Y-8.733 I-0.0715 J-0.5957
G1 X10.4513 Y-10.027
G3 X10.027 Y-10.7619 I0.1553 J-0.5796
G1 X18.0504 Y-40.7056
G3 X18.7853 Y-41.1299 I0.5796 J0.1553
G1 X23.6149 Y-39.8358
G3 X24.0392 Y-39.1009 I-0.1553 J0.5796
G1 X16.0158 Y-9.1572
G3 X15.5077 Y-8.7168 I-0.5796 J-0.1553
G1 F500.0 Z-4.0
G3 F1000.0 X15.2809 Y-8.733 I-0.0715 J-0.5957
G1 X10.4513 Y-10.027
G3 X10.027 Y-10.7619 I0.1553 J-0.5796
G1 X18.0504 Y-40.7056
G3 X18.7853 Y-41.1299 I0.5796 J0.1553
G1 X23.6149 Y-39.8358
G3 X24.0392 Y-39.1009 I-0.1553 J0.5796
G1 X16.0158 Y-9.1572
G3 X15.5077 Y-8.7168 I-0.5796 J-0.1553
G1 F500.0 Z-5.0
G3 F1000.0 X15.2809 Y-8.733 I-0.0715 J-0.5957
G1 X10.4513 Y-10.027
G3 X10.027 Y-10.7619 I0.1553 J-0.5796
G1 X18.0504 Y-40.7056
G3 X18.7853 Y-41.1299 I0.5796 J0.1553
G1 X23.6149 Y-39.8358
G3 X24.0392 Y-39.1009 I-0.1553 J0.5796
G1 X16.0158 Y-9.1572
G3 X15.5077 Y-8.7168 I-0.5796 J-0.1553
G1 F500.0 Z-6.0
G3 F1000.0 X15.2809 Y-8.733 I-0.0715 J-0.5957
G1 X10.4513 Y-10.027
G3 X10.027 Y-10.7619 I0.1553 J-0.5796
G1 X18.0504 Y-40.7056
G3 X18.7853 Y-41.1299 I0.5796 J0.1553
G1 X23.6149 Y-39.8358
G3 X24.0392 Y-39.1009 I-0.1553 J0.5796
G1 X16.0158 Y-9.1572
G3 X15.5077 Y-8.7168 I-0.5796 J-0.1553
G1 F500.0 Z-7.0
G3 F1000.0 X15.2809 Y-8.733 I-0.0715 J-0.5957
G1 X10.4513 Y-10.027
G3 X10.027 Y-10.7619 I0.1553 J-0.5796
G1 X18.0504 Y-40.7056
G3 X18.7853 Y-41.1299 I0.5796 J0.1553
G1 X23.6149 Y-39.8358
G3 X24.0392 Y-39.1009 I-0.1553 J0.5796
G1 X16.0158 Y-9.1572
G3 X15.5077 Y-8.7168 I-0.5796 J-0.1553
G1 F500.0 Z-8.0
G3 F1000.0 X15.2809 Y-8.733 I-0.0715 J-0.5957
G1 X10.4513 Y-10.027
G3 X10.027 Y-10.7619 I0.1553 J-0.5796
G1 X18.0504 Y-40.7056
G3 X18.7853 Y-41.1299 I0.5796 J0.1553
G1 X23.6149 Y-39.8358
G3 X24.0392 Y-39.1009 I-0.1553 J0.5796
G1 X16.0158 Y-9.1572
G3 X15.5077 Y-8.7168 I-0.5796 J-0.1553
G1 F500.0 Z-9.0
G3 F1000.0 X15.2809 Y-8.733 I-0.0715 J-0.5957
G1 X10.4513 Y-10.027
G3 X10.027 Y-10.7619 I0.1553 J-0.5796
G1 X18.0504 Y-40.7056
G3 X18.7853 Y-41.1299 I0.5796 J0.1553
G1 X23.6149 Y-39.8358
G3 X24.0392 Y-39.1009 I-0.1553 J0.5796
G1 X16.0158 Y-9.1572
G3 X15.5077 Y-8.7168 I-0.5796 J-0.1553
G1 F500.0 Z-10.0
G3 F1000.0 X15.2809 Y-8.733 I-0.0715 J-0.5957
G1 X10.4513 Y-10.027
G3 X10.027 Y-10.7619 I0.1553 J-0.5796
G1 X18.0504 Y-40.7056
G3 X18.7853 Y-41.1299 I0.5796 J0.1553
G1 X23.6149 Y-39.8358
G3 X24.0392 Y-39.1009 I-0.1553 J0.5796
G1 X16.0158 Y-9.1572
G3 X15.5077 Y-8.7168 I-0.5796 J-0.1553
G0 Z3.0
G0 X4.8019 Y-17.1293
G0 Z1.0
G1 F500.0 Z-1.0
G3 F1000.0 X4.6301 Y-16.9804 I-0.4718 J-0.3707
G1 X0.3 Y-14.4804
G3 X-0.5196 Y-14.7 I-0.3 J-0.5196
G1 X-16.0196 Y-41.5468
G3 X-15.8 Y-42.3664 I0.5196 J-0.3
G1 X-11.4699 Y-44.8664
G3 X-10.6503 Y-44.6468 I0.3 J0.5196
G1 X4.8497 Y-17.8
G3 X4.8019 Y-17.1293 I-0.5196 J0.3
G1 F500.0 Z-2.0
G3 F1000.0 X4.6301 Y-16.9804 I-0.4718 J-0.3707
G1 X0.3 Y-14.4804
G3 X-0.5196 Y-14.7 I-0.3 J-0.5196
G1 X-16.0196 Y-41.5468
G3 X-15.8 Y-42.3664 I0.5196 J-0.3
G1 X-11.4699 Y-44.8664
G3 X-10.6503 Y-44.6468 I0.3 J0.5196
G1 X4.8497 Y-17.8
G3 X4.8019 Y-17.1293 I-0.5196 J0.3
G1 F500.0 Z-3.0
G3 F1000.0 X4.6301 Y-16.9804 I-0.4718 J-0.3707
G1 X0.3 Y-14.4804
G3 X-0.5196 Y-14.7 I-0.3 J-0.5196
G1 X-16.0196 Y-41.5468
G3 X-15.8 Y-42.3664 I0.5196 J-0.3
G1 X-11.4699 Y-44.8664
G3 X-10.6503 Y-44.6468 I0.3 J0.5196
G1 X4.8497 Y-17.8
G3 X4.8019 Y-17.1293 I-0.5196 J0.3
G1 F500.0 Z-4.0
G3 F1000.0 X4.6301 Y-16.9804 I-0.4718 J-0.3707
G1 X0.3 Y-14.4804
G3 X-0.5196 Y-14.7 I-0.3 J-0.5196
G1 X-16.0196 Y-41.5468
G3 X-15.8 Y-42.3664 I0.5196 J-0.3
G1 X-11.4699 Y-44.8664
G3 X-10.6503 Y-44.6468 I0.3 J0.5196
G1 X4.8497 Y-17.8
G3 X4.8019 Y-17.1293 I-0.5196 J0.3
G1 F500.0 Z-5.0
G3 F1000.0 X4.6301 Y-16.9804 I-0.4718 J-0.3707
G1 X0.3 Y-14.4804
G3 X-0.5196 Y-14.7 I-0.3 J-0.5196
G1 X-16.0196 Y-41.5468
G3 X-15.8 Y-42.3664 I0.5196 J-0.3
G1 X-11.4699 Y-44.8664
G3 X-10.6503 Y-44.6468 I0.3 J0.5196
G1 X4.8497 Y-17.8
G3 X4.8019 Y-17.1293 I-0.5196 J0.3
G1 F500.0 Z-6.0
G3 F1000.0 X4.6301 Y-16.9804 I-0.4718 J-0.3707
G1 X0.3 Y-14.4804
G3 X-0.5196 Y-14.7 I-0.3 J-0.5196
G1 X-16.0196 Y-41.5468
G3 X-15.8 Y-42.3664 I0.5196 J-0.3
G1 X-11.4699 Y-44.8664
G3 X-10.6503 Y-44.6468 I0.3 J0.5196
G1 X4.8497 Y-17.8
G3 X4.8019 Y-17.1293 I-0.5196 J0.3
G1 F500.0 Z-7.0
G3 F1000.0 X4.6301 Y-16.9804 I-0.4718 J-0.3707
G1 X0.3 Y-14.4804
G3 X-0.5196 Y-14.7 I-0.3 J-0.5196
G1 X-16.0196 Y-41.5468
G3 X-15.8 Y-42.3664 I0.5196 J-0.3
G1 X-11.4699 Y-44.8664
G3 X-10.6503 Y-44.6468 I0.3 J0.5196
G1 X4.8497 Y-17.8
G3 X4.8019 Y-17.1293 I-0.5196 J0.3
G1 F500.0 Z-8.0
G3 F1000.0 X4.6301 Y-16.9804 I-0.4718 J-0.3707
G1 X0.3 Y-14.4804
G3 X-0.5196 Y-14.7 I-0.3 J-0.5196
G1 X-16.0196 Y-41.5468
G3 X-15.8 Y-42.3664 I0.5196 J-0.3
G1 X-11.4699 Y-44.8664
G3 X-10.6503 Y-44.6468 I0.3 J0.5196
G1 X4.8497 Y-17.8
G3 X4.8019 Y-17.1293 I-0.5196 J0.3
G1 F500.0 Z-9.0
G3 F1000.0 X4.6301 Y-16.9804 I-0.4718 J-0.3707
G1 X0.3 Y-14.4804
G3 X-0.5196 Y-14.7 I-0.3 J-0.5196
G1 X-16.0196 Y-41.5468
G3 X-15.8 Y-42.3664 I0.5196 J-0.3
G1 X-11.4699 Y-44.8664
G3 X-10.6503 Y-44.6468 I0.3 J0.5196
G1 X4.8497 Y-17.8
G3 X4.8019 Y-17.1293 I-0.5196 J0.3
G1 F500.0 Z-10.0
G3 F1000.0 X4.6301 Y-16.9804 I-0.4718 J-0.3707
G1 X0.3 Y-14.4804
G3 X-0.5196 Y-14.7 I-0.3 J-0.5196
G1 X-16.0196 Y-41.5468
G3 X-15.8 Y-42.3664 I0.5196 J-0.3
G1 X-11.4699 Y-44.8664
G3 X-10.6503 Y-44.6468 I0.3 J0.5196
G1 X4.8497 Y-17.8
G3 X4.8019 Y-17.1293 I-0.5196 J0.3
( Rad aussen )
G0 Z3.0
( T3 : 3.0 )
( Tool Taper coming soon )
( TOOL/MILL,3.0,0.0,0.0,0 )
T3 M6
M3 S2000
G0 X157.5 Y0.0
G0 Z1.0
G1 F500.0 Z-1.0
G3 F1000.0 X80.25 Y44.6003 I-51.5 J0.0
G3 Y-44.6003 I25.75 J-44.6003
G3 X157.5 Y0.0 I25.75 J44.6003
G1 F500.0 Z-2.0
G3 F1000.0 X80.25 Y44.6003 I-51.5 J0.0
G3 Y-44.6003 I25.75 J-44.6003
G3 X157.5 Y0.0 I25.75 J44.6003
G1 F500.0 Z-3.0
G3 F1000.0 X80.25 Y44.6003 I-51.5 J0.0
G3 Y-44.6003 I25.75 J-44.6003
G3 X157.5 Y0.0 I25.75 J44.6003
G1 F500.0 Z-4.0
G3 F1000.0 X80.25 Y44.6003 I-51.5 J0.0
G3 Y-44.6003 I25.75 J-44.6003
G3 X157.5 Y0.0 I25.75 J44.6003
G1 F500.0 Z-5.0
G3 F1000.0 X80.25 Y44.6003 I-51.5 J0.0
G3 Y-44.6003 I25.75 J-44.6003
G3 X157.5 Y0.0 I25.75 J44.6003
G1 F500.0 Z-6.0
G3 F1000.0 X80.25 Y44.6003 I-51.5 J0.0
G3 Y-44.6003 I25.75 J-44.6003
G3 X157.5 Y0.0 I25.75 J44.6003
G1 F500.0 Z-7.0
G3 F1000.0 X80.25 Y44.6003 I-51.5 J0.0
G3 Y-44.6003 I25.75 J-44.6003
G3 X157.5 Y0.0 I25.75 J44.6003
G1 F500.0 Z-8.0
G3 F1000.0 X80.25 Y44.6003 I-51.5 J0.0
G3 Y-44.6003 I25.75 J-44.6003
G3 X157.5 Y0.0 I25.75 J44.6003
G1 F500.0 Z-9.0
G3 F1000.0 X144.4755 Y34.2328 I-51.5 J0.0
G3 X143.4612 Y35.3399 Z-8.0 I-38.4755 J-34.2328
G3 X141.3399 Y37.4612 I-37.4612 J-35.3399
G3 X140.2328 Y38.4755 Z-9.0 I-35.3399 J-37.4612
G3 X80.25 Y44.6003 I-34.2328 J-38.4755
G3 X71.7672 Y38.4755 I25.75 J-44.6003
G3 X70.6601 Y37.4612 Z-8.0 I34.2328 J-38.4755
G3 X68.5388 Y35.3399 I35.3399 J-37.4612
G3 X67.5245 Y34.2328 Z-9.0 I37.4612 J-35.3399
G3 Y-34.2328 I38.4755 J-34.2328
G3 X68.5388 Y-35.3399 Z-8.0 I38.4755 J34.2328
G3 X70.6601 Y-37.4612 I37.4612 J35.3399
G3 X71.7672 Y-38.4755 Z-9.0 I35.3399 J37.4612
G3 X80.25 Y-44.6003 I34.2328 J38.4755
G3 X140.2328 Y-38.4755 I25.75 J44.6003
G3 X141.3399 Y-37.4612 Z-8.0 I-34.2328 J38.4755
G3 X143.4612 Y-35.3399 I-35.3399 J37.4612
G3 X144.4755 Y-34.2328 Z-9.0 I-37.4612 J35.3399
G3 X157.5 Y0.0 I-38.4755 J34.2328
G1 F500.0 Z-10.0
G3 F1000.0 X144.4755 Y34.2328 I-51.5 J0.0
G3 X143.4612 Y35.3399 Z-8.0 I-38.4755 J-34.2328
G3 X141.3399 Y37.4612 I-37.4612 J-35.3399
G3 X140.2328 Y38.4755 Z-10.0 I-35.3399 J-37.4612
G3 X80.25 Y44.6003 I-34.2328 J-38.4755
G3 X71.7672 Y38.4755 I25.75 J-44.6003
G3 X70.6601 Y37.4612 Z-8.0 I34.2328 J-38.4755
G3 X68.5388 Y35.3399 I35.3399 J-37.4612
G3 X67.5245 Y34.2328 Z-10.0 I37.4612 J-35.3399
G3 Y-34.2328 I38.4755 J-34.2328
G3 X68.5388 Y-35.3399 Z-8.0 I38.4755 J34.2328
G3 X70.6601 Y-37.4612 I37.4612 J35.3399
G3 X71.7672 Y-38.4755 Z-10.0 I35.3399 J37.4612
G3 X80.25 Y-44.6003 I34.2328 J38.4755
G3 X140.2328 Y-38.4755 I25.75 J44.6003
G3 X141.3399 Y-37.4612 Z-8.0 I-34.2328 J38.4755
G3 X143.4612 Y-35.3399 I-35.3399 J37.4612
G3 X144.4755 Y-34.2328 Z-10.0 I-37.4612 J35.3399
G3 X157.5 Y0.0 I-38.4755 J34.2328
( Schaufel-Befestigungsbohrungen )
G0 Z3.0
( T12 : 2.0 )
( Tool Taper coming soon )
( TOOL/MILL,2.0,0.0,0.0,0 )
T12 M6
M3 S2000
G0 X130.0416 Y-16.9706
G98
G81 X130.0416 Y-16.9706 Z-8.0 R3.0 F500.0
G81 X135.0 Y5.0 Z-8.0
G81 X122.9706 Y24.0416 Z-8.0
G81 X101.0 Y29.0 Z-8.0
G81 X81.9584 Y16.9706 Z-8.0
G81 X77.0 Y-5.0 Z-8.0
G81 X89.0294 Y-24.0416 Z-8.0
G81 X111.0 Y-29.0 Z-8.0
G80
( Schaufel-Taschen )
G0 Z3.0
( T3 : 3.0 )
( Tool Taper coming soon )
( TOOL/MILL,3.0,0.0,0.0,0 )
T3 M6
M3 S2000
G0 X68.2994 Y20.7652
G0 Z1.0
G1 F500.0 Z-1.0
G1 F1000.0 X93.9931 Y13.8806
G1 X93.8378 Y13.301
G1 X68.1441 Y20.1856
G1 X68.2994 Y20.7652
G1 F500.0 X68.4547 Y21.3447
G1 F1000.0 X94.7279 Y14.3049
G1 X94.262 Y12.5662
G1 X67.4093 Y19.7614
G1 X67.8752 Y21.5
G1 X68.4547 Y21.3447
G1 F500.0 X68.2994 Y20.7652
G1 Z-2.0
G1 F1000.0 X93.9931 Y13.8806
G1 X93.8378 Y13.301
G1 X68.1441 Y20.1856
G1 X68.2994 Y20.7652
G1 F500.0 X68.4547 Y21.3447
G1 F1000.0 X67.8752 Y21.5
G1 X67.4093 Y19.7614
G1 X94.262 Y12.5662
G1 X94.7279 Y14.3049
G1 X68.4547 Y21.3447
G1 F500.0 X68.2994 Y20.7652
G1 Z-3.0
G1 F1000.0 X93.9931 Y13.8806
G1 X93.8378 Y13.301
G1 X68.1441 Y20.1856
G1 X68.2994 Y20.7652
G1 F500.0 X68.4547 Y21.3447
G1 F1000.0 X67.8752 Y21.5
G1 X67.4093 Y19.7614
G1 X94.262 Y12.5662
G1 X94.7279 Y14.3049
G1 X68.4547 Y21.3447
G1 F500.0 X68.2994 Y20.7652
G1 Z-4.0
G1 F1000.0 X93.9931 Y13.8806
G1 X93.8378 Y13.301
G1 X68.1441 Y20.1856
G1 X68.2994 Y20.7652
G1 F500.0 X68.4547 Y21.3447
G1 F1000.0 X67.8752 Y21.5
G1 X67.4093 Y19.7614
G1 X94.262 Y12.5662
G1 X94.7279 Y14.3049
G1 X68.4547 Y21.3447
G1 F500.0 X68.2994 Y20.7652
G1 Z-5.0
G1 F1000.0 X93.9931 Y13.8806
G1 X93.8378 Y13.301
G1 X68.1441 Y20.1856
G1 X68.2994 Y20.7652
G1 F500.0 X68.4547 Y21.3447
G1 F1000.0 X67.8752 Y21.5
G1 X67.4093 Y19.7614
G1 X94.262 Y12.5662
G1 X94.7279 Y14.3049
G1 X68.4547 Y21.3447
G1 F500.0 X68.2994 Y20.7652
G1 Z-6.0
G1 F1000.0 X93.9931 Y13.8806
G1 X93.8378 Y13.301
G1 X68.1441 Y20.1856
G1 X68.2994 Y20.7652
G1 F500.0 X68.4547 Y21.3447
G1 F1000.0 X94.7279 Y14.3049
G1 X94.262 Y12.5662
G1 X67.4093 Y19.7614
G1 X67.8752 Y21.5
G1 X68.4547 Y21.3447
G1 F500.0 X68.4806 Y21.4413
G1 F1000.0 X94.8504 Y14.3756
G1 X94.3327 Y12.4437
G1 X67.2868 Y19.6907
G1 X67.8045 Y21.6225
G1 X68.4806 Y21.4413
G0 Z3.0
G0 X81.9948 Y-1.966
G0 Z1.0
G1 F500.0 Z-1.0
G1 F1000.0 X87.6947 Y1.3249
G1 X87.9947 Y0.8053
G1 X64.9585 Y-12.4947
G1 X64.6585 Y-11.9751
G1 X81.9948 Y-1.966
G1 F500.0 X81.6948 Y-1.4464
G1 F1000.0 X63.8389 Y-11.7555
G1 X64.7389 Y-13.3144
G1 X88.8144 Y0.5856
G1 X87.9144 Y2.1445
G1 X81.6948 Y-1.4464
G1 F500.0 X81.9948 Y-1.966
G1 Z-2.0
G1 F1000.0 X87.6947 Y1.3249
G1 X87.9947 Y0.8053
G1 X64.9585 Y-12.4947
G1 X64.6585 Y-11.9751
G1 X81.9948 Y-1.966
G1 F500.0 X81.6948 Y-1.4464
G1 F1000.0 X63.8389 Y-11.7555
G1 X64.7389 Y-13.3144
G1 X88.8144 Y0.5856
G1 X87.9144 Y2.1445
G1 X81.6948 Y-1.4464
G1 F500.0 X81.9948 Y-1.966
G1 Z-3.0
G1 F1000.0 X87.6947 Y1.3249
G1 X87.9947 Y0.8053
G1 X64.9585 Y-12.4947
G1 X64.6585 Y-11.9751
G1 X81.9948 Y-1.966
G1 F500.0 X81.6948 Y-1.4464
G1 F1000.0 X63.8389 Y-11.7555
G1 X64.7389 Y-13.3144
G1 X88.8144 Y0.5856
G1 X87.9144 Y2.1445
G1 X81.6948 Y-1.4464
G1 F500.0 X81.9948 Y-1.966
G1 Z-4.0
G1 F1000.0 X87.6947 Y1.3249
G1 X87.9947 Y0.8053
G1 X64.9585 Y-12.4947
G1 X64.6585 Y-11.9751
G1 X81.9948 Y-1.966
G1 F500.0 X81.6948 Y-1.4464
G1 F1000.0 X63.8389 Y-11.7555
G1 X64.7389 Y-13.3144
G1 X88.8144 Y0.5856
G1 X87.9144 Y2.1445
G1 X81.6948 Y-1.4464
G1 F500.0 X81.9948 Y-1.966
G1 Z-5.0
G1 F1000.0 X87.6947 Y1.3249
G1 X87.9947 Y0.8053
G1 X64.9585 Y-12.4947
G1 X64.6585 Y-11.9751
G1 X81.9948 Y-1.966
G1 F500.0 X81.6948 Y-1.4464
G1 F1000.0 X63.8389 Y-11.7555
G1 X64.7389 Y-13.3144
G1 X88.8144 Y0.5856
G1 X87.9144 Y2.1445
G1 X81.6948 Y-1.4464
G1 F500.0 X81.9948 Y-1.966
G1 Z-6.0
G1 F1000.0 X87.6947 Y1.3249
G1 X87.9947 Y0.8053
G1 X64.9585 Y-12.4947
G1 X64.6585 Y-11.9751
G1 X81.9948 Y-1.966
G1 F500.0 X81.6948 Y-1.4464
G1 F1000.0 X87.9144 Y2.1445
G1 X88.8144 Y0.5856
G1 X64.7389 Y-13.3144
G1 X63.8389 Y-11.7555
G1 X81.6948 Y-1.4464
G1 F500.0 X81.6448 Y-1.3598
G1 F1000.0 X87.951 Y2.2811
G1 X88.951 Y0.549
G1 X64.7023 Y-13.451
G1 X63.7023 Y-11.7189
G1 X81.6448 Y-1.3598
G0 Z3.0
G0 X92.1194 Y-12.0069
G0 Z1.0
G1 F500.0 Z-1.0
G1 F1000.0 X92.699 Y-12.1622
G1 X85.8144 Y-37.8559
G1 X85.2348 Y-37.7006
G1 X92.1194 Y-12.0069
G1 F500.0 X91.5398 Y-11.8517
G1 F1000.0 X84.5 Y-38.1248
G1 X86.2386 Y-38.5907
G1 X93.4338 Y-11.738
G1 X91.6951 Y-11.2721
G1 X91.5398 Y-11.8517
G1 F500.0 X92.1194 Y-12.0069
G1 Z-2.0
G1 F1000.0 X92.699 Y-12.1622
G1 X85.8144 Y-37.8559
G1 X85.2348 Y-37.7006
G1 X92.1194 Y-12.0069
G1 F500.0 X91.5398 Y-11.8517
G1 F1000.0 X84.5 Y-38.1248
G1 X86.2386 Y-38.5907
G1 X93.4338 Y-11.738
G1 X91.6951 Y-11.2721
G1 X91.5398 Y-11.8517
G1 F500.0 X92.1194 Y-12.0069
G1 Z-3.0
G1 F1000.0 X92.699 Y-12.1622
G1 X85.8144 Y-37.8559
G1 X85.2348 Y-37.7006
G1 X92.1194 Y-12.0069
G1 F500.0 X91.5398 Y-11.8517
G1 F1000.0 X84.5 Y-38.1248
G1 X86.2386 Y-38.5907
G1 X93.4338 Y-11.738
G1 X91.6951 Y-11.2721
G1 X91.5398 Y-11.8517
G1 F500.0 X92.1194 Y-12.0069
G1 Z-4.0
G1 F1000.0 X92.699 Y-12.1622
G1 X85.8144 Y-37.8559
G1 X85.2348 Y-37.7006
G1 X92.1194 Y-12.0069
G1 F500.0 X91.5398 Y-11.8517
G1 F1000.0 X84.5 Y-38.1248
G1 X86.2386 Y-38.5907
G1 X93.4338 Y-11.738
G1 X91.6951 Y-11.2721
G1 X91.5398 Y-11.8517
G1 F500.0 X92.1194 Y-12.0069
G1 Z-5.0
G1 F1000.0 X92.699 Y-12.1622
G1 X85.8144 Y-37.8559
G1 X85.2348 Y-37.7006
G1 X92.1194 Y-12.0069
G1 F500.0 X91.5398 Y-11.8517
G1 F1000.0 X84.5 Y-38.1248
G1 X86.2386 Y-38.5907
G1 X93.4338 Y-11.738
G1 X91.6951 Y-11.2721
G1 X91.5398 Y-11.8517
G1 F500.0 X92.1194 Y-12.0069
G1 Z-6.0
G1 F1000.0 X92.699 Y-12.1622
G1 X85.8144 Y-37.8559
G1 X85.2348 Y-37.7006
G1 X92.1194 Y-12.0069
G1 F500.0 X91.5398 Y-11.8517
G1 F1000.0 X91.6951 Y-11.2721
G1 X93.4338 Y-11.738
G1 X86.2386 Y-38.5907
G1 X84.5 Y-38.1248
G1 X91.5398 Y-11.8517
G1 F500.0 X91.4433 Y-11.8258
G1 F1000.0 X91.6244 Y-11.1496
G1 X93.5563 Y-11.6673
G1 X86.3093 Y-38.7132
G1 X84.3775 Y-38.1955
G1 X91.4433 Y-11.8258
G0 Z3.0
G0 X104.6751 Y-18.3053
G0 Z1.0
G1 F500.0 Z-1.0
G1 F1000.0 X105.1947 Y-18.0053
G1 X118.4947 Y-41.0415
G1 X117.9751 Y-41.3415
G1 X104.6751 Y-18.3053
G1 F500.0 X104.3751 Y-17.7856
G1 F1000.0 X103.8555 Y-18.0856
G1 X117.7555 Y-42.1611
G1 X119.3144 Y-41.2611
G1 X105.4144 Y-17.1856
G1 X104.3751 Y-17.7856
G1 F500.0 X104.6751 Y-18.3053
G1 Z-2.0
G1 F1000.0 X105.1947 Y-18.0053
G1 X118.4947 Y-41.0415
G1 X117.9751 Y-41.3415
G1 X104.6751 Y-18.3053
G1 F500.0 X104.3751 Y-17.7856
G1 F1000.0 X103.8555 Y-18.0856
G1 X117.7555 Y-42.1611
G1 X119.3144 Y-41.2611
G1 X105.4144 Y-17.1856
G1 X104.3751 Y-17.7856
G1 F500.0 X104.6751 Y-18.3053
G1 Z-3.0
G1 F1000.0 X105.1947 Y-18.0053
G1 X118.4947 Y-41.0415
G1 X117.9751 Y-41.3415
G1 X104.6751 Y-18.3053
G1 F500.0 X104.3751 Y-17.7856
G1 F1000.0 X103.8555 Y-18.0856
G1 X117.7555 Y-42.1611
G1 X119.3144 Y-41.2611
G1 X105.4144 Y-17.1856
G1 X104.3751 Y-17.7856
G1 F500.0 X104.6751 Y-18.3053
G1 Z-4.0
G1 F1000.0 X105.1947 Y-18.0053
G1 X118.4947 Y-41.0415
G1 X117.9751 Y-41.3415
G1 X104.6751 Y-18.3053
G1 F500.0 X104.3751 Y-17.7856
G1 F1000.0 X103.8555 Y-18.0856
G1 X117.7555 Y-42.1611
G1 X119.3144 Y-41.2611
G1 X105.4144 Y-17.1856
G1 X104.3751 Y-17.7856
G1 F500.0 X104.6751 Y-18.3053
G1 Z-5.0
G1 F1000.0 X105.1947 Y-18.0053
G1 X118.4947 Y-41.0415
G1 X117.9751 Y-41.3415
G1 X104.6751 Y-18.3053
G1 F500.0 X104.3751 Y-17.7856
G1 F1000.0 X103.8555 Y-18.0856
G1 X117.7555 Y-42.1611
G1 X119.3144 Y-41.2611
G1 X105.4144 Y-17.1856
G1 X104.3751 Y-17.7856
G1 F500.0 X104.6751 Y-18.3053
G1 Z-6.0
G1 F1000.0 X105.1947 Y-18.0053
G1 X118.4947 Y-41.0415
G1 X117.9751 Y-41.3415
G1 X104.6751 Y-18.3053
G1 F500.0 X104.3751 Y-17.7856
G1 F1000.0 X105.4144 Y-17.1856
G1 X119.3144 Y-41.2611
G1 X117.7555 Y-42.1611
G1 X103.8555 Y-18.0856
G1 X104.3751 Y-17.7856
G1 F500.0 X104.3251 Y-17.699
G1 F1000.0 X105.451 Y-17.049
G1 X119.451 Y-41.2977
G1 X117.7189 Y-42.2977
G1 X103.7189 Y-18.049
G1 X104.3251 Y-17.699
G0 Z3.0
G0 X118.0069 Y-13.8806
G0 Z1.0
G1 F500.0 Z-1.0
G1 F1000.0 X118.1622 Y-13.301
G1 X143.8559 Y-20.1856
G1 X143.7006 Y-20.7652
G1 X118.0069 Y-13.8806
G1 F500.0 X117.8517 Y-14.4602
G1 F1000.0 X144.1248 Y-21.5
G1 X144.5907 Y-19.7614
G1 X117.738 Y-12.5662
G1 X117.2721 Y-14.3049
G1 X117.8517 Y-14.4602
G1 F500.0 X118.0069 Y-13.8806
G1 Z-2.0
G1 F1000.0 X118.1622 Y-13.301
G1 X143.8559 Y-20.1856
G1 X143.7006 Y-20.7652
G1 X118.0069 Y-13.8806
G1 F500.0 X117.8517 Y-14.4602
G1 F1000.0 X144.1248 Y-21.5
G1 X144.5907 Y-19.7614
G1 X117.738 Y-12.5662
G1 X117.2721 Y-14.3049
G1 X117.8517 Y-14.4602
G1 F500.0 X118.0069 Y-13.8806
G1 Z-3.0
G1 F1000.0 X118.1622 Y-13.301
G1 X143.8559 Y-20.1856
G1 X143.7006 Y-20.7652
G1 X118.0069 Y-13.8806
G1 F500.0 X117.8517 Y-14.4602
G1 F1000.0 X144.1248 Y-21.5
G1 X144.5907 Y-19.7614
G1 X117.738 Y-12.5662
G1 X117.2721 Y-14.3049
G1 X117.8517 Y-14.4602
G1 F500.0 X118.0069 Y-13.8806
G1 Z-4.0
G1 F1000.0 X118.1622 Y-13.301
G1 X143.8559 Y-20.1856
G1 X143.7006 Y-20.7652
G1 X118.0069 Y-13.8806
G1 F500.0 X117.8517 Y-14.4602
G1 F1000.0 X144.1248 Y-21.5
G1 X144.5907 Y-19.7614
G1 X117.738 Y-12.5662
G1 X117.2721 Y-14.3049
G1 X117.8517 Y-14.4602
G1 F500.0 X118.0069 Y-13.8806
G1 Z-5.0
G1 F1000.0 X118.1622 Y-13.301
G1 X143.8559 Y-20.1856
G1 X143.7006 Y-20.7652
G1 X118.0069 Y-13.8806
G1 F500.0 X117.8517 Y-14.4602
G1 F1000.0 X144.1248 Y-21.5
G1 X144.5907 Y-19.7614
G1 X117.738 Y-12.5662
G1 X117.2721 Y-14.3049
G1 X117.8517 Y-14.4602
G1 F500.0 X118.0069 Y-13.8806
G1 Z-6.0
G1 F1000.0 X118.1622 Y-13.301
G1 X143.8559 Y-20.1856
G1 X143.7006 Y-20.7652
G1 X118.0069 Y-13.8806
G1 F500.0 X117.8517 Y-14.4602
G1 F1000.0 X117.2721 Y-14.3049
G1 X117.738 Y-12.5662
G1 X144.5907 Y-19.7614
G1 X144.1248 Y-21.5
G1 X117.8517 Y-14.4602
G1 F500.0 X117.8258 Y-14.5567
G1 F1000.0 X117.1496 Y-14.3756
G1 X117.6673 Y-12.4437
G1 X144.7132 Y-19.6907
G1 X144.1955 Y-21.6225
G1 X117.8258 Y-14.5567
G0 Z3.0
G0 X124.3053 Y-1.3249
G0 Z1.0
G1 F500.0 Z-1.0
G1 F1000.0 X124.0053 Y-0.8053
G1 X147.0415 Y12.4947
G1 X147.3415 Y11.9751
G1 X124.3053 Y-1.3249
G1 F500.0 X123.7856 Y-1.6249
G1 F1000.0 X124.0856 Y-2.1445
G1 X148.1611 Y11.7555
G1 X147.2611 Y13.3144
G1 X123.1856 Y-0.5856
G1 X123.7856 Y-1.6249
G1 F500.0 X124.3053 Y-1.3249
G1 Z-2.0
G1 F1000.0 X124.0053 Y-0.8053
G1 X147.0415 Y12.4947
G1 X147.3415 Y11.9751
G1 X124.3053 Y-1.3249
G1 F500.0 X123.7856 Y-1.6249
G1 F1000.0 X124.0856 Y-2.1445
G1 X148.1611 Y11.7555
G1 X147.2611 Y13.3144
G1 X123.1856 Y-0.5856
G1 X123.7856 Y-1.6249
G1 F500.0 X124.3053 Y-1.3249
G1 Z-3.0
G1 F1000.0 X124.0053 Y-0.8053
G1 X147.0415 Y12.4947
G1 X147.3415 Y11.9751
G1 X124.3053 Y-1.3249
G1 F500.0 X123.7856 Y-1.6249
G1 F1000.0 X124.0856 Y-2.1445
G1 X148.1611 Y11.7555
G1 X147.2611 Y13.3144
G1 X123.1856 Y-0.5856
G1 X123.7856 Y-1.6249
G1 F500.0 X124.3053 Y-1.3249
G1 Z-4.0
G1 F1000.0 X124.0053 Y-0.8053
G1 X147.0415 Y12.4947
G1 X147.3415 Y11.9751
G1 X124.3053 Y-1.3249
G1 F500.0 X123.7856 Y-1.6249
G1 F1000.0 X124.0856 Y-2.1445
G1 X148.1611 Y11.7555
G1 X147.2611 Y13.3144
G1 X123.1856 Y-0.5856
G1 X123.7856 Y-1.6249
G1 F500.0 X124.3053 Y-1.3249
G1 Z-5.0
G1 F1000.0 X124.0053 Y-0.8053
G1 X147.0415 Y12.4947
G1 X147.3415 Y11.9751
G1 X124.3053 Y-1.3249
G1 F500.0 X123.7856 Y-1.6249
G1 F1000.0 X124.0856 Y-2.1445
G1 X148.1611 Y11.7555
G1 X147.2611 Y13.3144
G1 X123.1856 Y-0.5856
G1 X123.7856 Y-1.6249
G1 F500.0 X124.3053 Y-1.3249
G1 Z-6.0
G1 F1000.0 X124.0053 Y-0.8053
G1 X147.0415 Y12.4947
G1 X147.3415 Y11.9751
G1 X124.3053 Y-1.3249
G1 F500.0 X123.7856 Y-1.6249
G1 F1000.0 X123.1856 Y-0.5856
G1 X147.2611 Y13.3144
G1 X148.1611 Y11.7555
G1 X124.0856 Y-2.1445
G1 X123.7856 Y-1.6249
G1 F500.0 X123.699 Y-1.6749
G1 F1000.0 X123.049 Y-0.549
G1 X147.2977 Y13.451
G1 X148.2977 Y11.7189
G1 X124.049 Y-2.2811
G1 X123.699 Y-1.6749
G0 Z3.0
G0 X119.8806 Y12.0069
G0 Z1.0
G1 F500.0 Z-1.0
G1 F1000.0 X119.301 Y12.1622
G1 X126.1856 Y37.8559
G1 X126.7652 Y37.7006
G1 X119.8806 Y12.0069
G1 F500.0 X120.4602 Y11.8517
G1 F1000.0 X127.5 Y38.1248
G1 X125.7614 Y38.5907
G1 X118.5662 Y11.738
G1 X120.3049 Y11.2721
G1 X120.4602 Y11.8517
G1 F500.0 X119.8806 Y12.0069
G1 Z-2.0
G1 F1000.0 X119.301 Y12.1622
G1 X126.1856 Y37.8559
G1 X126.7652 Y37.7006
G1 X119.8806 Y12.0069
G1 F500.0 X120.4602 Y11.8517
G1 F1000.0 X127.5 Y38.1248
G1 X125.7614 Y38.5907
G1 X118.5662 Y11.738
G1 X120.3049 Y11.2721
G1 X120.4602 Y11.8517
G1 F500.0 X119.8806 Y12.0069
G1 Z-3.0
G1 F1000.0 X119.301 Y12.1622
G1 X126.1856 Y37.8559
G1 X126.7652 Y37.7006
G1 X119.8806 Y12.0069
G1 F500.0 X120.4602 Y11.8517
G1 F1000.0 X127.5 Y38.1248
G1 X125.7614 Y38.5907
G1 X118.5662 Y11.738
G1 X120.3049 Y11.2721
G1 X120.4602 Y11.8517
G1 F500.0 X119.8806 Y12.0069
G1 Z-4.0
G1 F1000.0 X119.301 Y12.1622
G1 X126.1856 Y37.8559
G1 X126.7652 Y37.7006
G1 X119.8806 Y12.0069
G1 F500.0 X120.4602 Y11.8517
G1 F1000.0 X127.5 Y38.1248
G1 X125.7614 Y38.5907
G1 X118.5662 Y11.738
G1 X120.3049 Y11.2721
G1 X120.4602 Y11.8517
G1 F500.0 X119.8806 Y12.0069
G1 Z-5.0
G1 F1000.0 X119.301 Y12.1622
G1 X126.1856 Y37.8559
G1 X126.7652 Y37.7006
G1 X119.8806 Y12.0069
G1 F500.0 X120.4602 Y11.8517
G1 F1000.0 X127.5 Y38.1248
G1 X125.7614 Y38.5907
G1 X118.5662 Y11.738
G1 X120.3049 Y11.2721
G1 X120.4602 Y11.8517
G1 F500.0 X119.8806 Y12.0069
G1 Z-6.0
G1 F1000.0 X119.301 Y12.1622
G1 X126.1856 Y37.8559
G1 X126.7652 Y37.7006
G1 X119.8806 Y12.0069
G1 F500.0 X120.4602 Y11.8517
G1 F1000.0 X120.3049 Y11.2721
G1 X118.5662 Y11.738
G1 X125.7614 Y38.5907
G1 X127.5 Y38.1248
G1 X120.4602 Y11.8517
G1 F500.0 X120.5567 Y11.8258
G1 F1000.0 X120.3756 Y11.1496
G1 X118.4437 Y11.6673
G1 X125.6907 Y38.7132
G1 X127.6225 Y38.1955
G1 X120.5567 Y11.8258
G0 Z3.0
G0 X107.3249 Y18.3053
G0 Z1.0
G1 F500.0 Z-1.0
G1 F1000.0 X106.8053 Y18.0053
G1 X93.5053 Y41.0415
G1 X94.0249 Y41.3415
G1 X107.3249 Y18.3053
G1 F500.0 X107.8445 Y18.6053
G1 F1000.0 X94.2445 Y42.1611
G1 X92.6856 Y41.2611
G1 X106.5856 Y17.1856
G1 X108.1445 Y18.0856
G1 X107.8445 Y18.6053
G1 F500.0 X107.3249 Y18.3053
G1 Z-2.0
G1 F1000.0 X106.8053 Y18.0053
G1 X93.5053 Y41.0415
G1 X94.0249 Y41.3415
G1 X107.3249 Y18.3053
G1 F500.0 X107.8445 Y18.6053
G1 F1000.0 X94.2445 Y42.1611
G1 X92.6856 Y41.2611
G1 X106.5856 Y17.1856
G1 X108.1445 Y18.0856
G1 X107.8445 Y18.6053
G1 F500.0 X107.3249 Y18.3053
G1 Z-3.0
G1 F1000.0 X106.8053 Y18.0053
G1 X93.5053 Y41.0415
G1 X94.0249 Y41.3415
G1 X107.3249 Y18.3053
G1 F500.0 X107.8445 Y18.6053
G1 F1000.0 X94.2445 Y42.1611
G1 X92.6856 Y41.2611
G1 X106.5856 Y17.1856
G1 X108.1445 Y18.0856
G1 X107.8445 Y18.6053
G1 F500.0 X107.3249 Y18.3053
G1 Z-4.0
G1 F1000.0 X106.8053 Y18.0053
G1 X93.5053 Y41.0415
G1 X94.0249 Y41.3415
G1 X107.3249 Y18.3053
G1 F500.0 X107.8445 Y18.6053
G1 F1000.0 X94.2445 Y42.1611
G1 X92.6856 Y41.2611
G1 X106.5856 Y17.1856
G1 X108.1445 Y18.0856
G1 X107.8445 Y18.6053
G1 F500.0 X107.3249 Y18.3053
G1 Z-5.0
G1 F1000.0 X106.8053 Y18.0053
G1 X93.5053 Y41.0415
G1 X94.0249 Y41.3415
G1 X107.3249 Y18.3053
G1 F500.0 X107.8445 Y18.6053
G1 F1000.0 X94.2445 Y42.1611
G1 X92.6856 Y41.2611
G1 X106.5856 Y17.1856
G1 X108.1445 Y18.0856
G1 X107.8445 Y18.6053
G1 F500.0 X107.3249 Y18.3053
G1 Z-6.0
G1 F1000.0 X106.8053 Y18.0053
G1 X93.5053 Y41.0415
G1 X94.0249 Y41.3415
G1 X107.3249 Y18.3053
G1 F500.0 X107.8445 Y18.6053
G1 F1000.0 X108.1445 Y18.0856
G1 X106.5856 Y17.1856
G1 X92.6856 Y41.2611
G1 X94.2445 Y42.1611
G1 X107.8445 Y18.6053
G1 F500.0 X107.9311 Y18.6553
G1 F1000.0 X108.2811 Y18.049
G1 X106.549 Y17.049
G1 X92.549 Y41.2977
G1 X94.2811 Y42.2977
G1 X107.9311 Y18.6553
( Rohr )
S2000
G0 Z3.0
G0 X119.5 Y0.0
G0 Z1.0
G1 F500.0 Z-1.0
G2 F1000.0 X99.25 Y-11.6913 I-13.5 J0.0
G2 Y11.6913 I6.75 J11.6913
G2 X119.5 Y0.0 I6.75 J-11.6913
G1 F500.0 Z-2.0
G2 F1000.0 X99.25 Y-11.6913 I-13.5 J0.0
G2 Y11.6913 I6.75 J11.6913
G2 X119.5 Y0.0 I6.75 J-11.6913
G1 F500.0 Z-3.0
G2 F1000.0 X99.25 Y-11.6913 I-13.5 J0.0
G2 Y11.6913 I6.75 J11.6913
G2 X119.5 Y0.0 I6.75 J-11.6913
G1 F500.0 Z-4.0
G2 F1000.0 X99.25 Y-11.6913 I-13.5 J0.0
G2 Y11.6913 I6.75 J11.6913
G2 X119.5 Y0.0 I6.75 J-11.6913
G1 F500.0 Z-5.0
G2 F1000.0 X99.25 Y-11.6913 I-13.5 J0.0
G2 Y11.6913 I6.75 J11.6913
G2 X119.5 Y0.0 I6.75 J-11.6913
( Welle )
G0 Z3.0
( T6 : 6.0 )
( Tool Taper coming soon )
( TOOL/MILL,6.0,0.0,0.0,0 )
T6 M6
M3 S2000
G0 X106.0
G0 Z3.0
G0 X107.0 Y0.0
G0 Z1.0
G1 F500.0 Z0.0
G2 F1000.0 X105.5 Y-0.866 Z-0.3333 I-1.0 J0.0
G2 Y0.866 Z-0.6667 I0.5 J0.866
G2 X107.0 Y0.0 Z-1.0 I0.5 J-0.866
G2 X105.5 Y-0.866 Z-1.3333 I-1.0 J0.0
G2 Y0.866 Z-1.6667 I0.5 J0.866
G2 X107.0 Y0.0 Z-2.0 I0.5 J-0.866
G2 X105.5 Y-0.866 Z-2.3333 I-1.0 J0.0
G2 Y0.866 Z-2.6667 I0.5 J0.866
G2 X107.0 Y0.0 Z-3.0 I0.5 J-0.866
G2 X105.5 Y-0.866 Z-3.3333 I-1.0 J0.0
G2 Y0.866 Z-3.6667 I0.5 J0.866
G2 X107.0 Y0.0 Z-4.0 I0.5 J-0.866
G2 X105.5 Y-0.866 Z-4.3333 I-1.0 J0.0
G2 Y0.866 Z-4.6667 I0.5 J0.866
G2 X107.0 Y0.0 Z-5.0 I0.5 J-0.866
G2 X105.5 Y-0.866 Z-5.3333 I-1.0 J0.0
G2 Y0.866 Z-5.6667 I0.5 J0.866
G2 X107.0 Y0.0 Z-6.0 I0.5 J-0.866
G2 X105.5 Y-0.866 Z-6.3333 I-1.0 J0.0
G2 Y0.866 Z-6.6667 I0.5 J0.866
G2 X107.0 Y0.0 Z-7.0 I0.5 J-0.866
G2 X105.5 Y-0.866 Z-7.3333 I-1.0 J0.0
G2 Y0.866 Z-7.6667 I0.5 J0.866
G2 X107.0 Y0.0 Z-8.0 I0.5 J-0.866
G2 X105.5 Y-0.866 Z-8.3333 I-1.0 J0.0
G2 Y0.866 Z-8.6667 I0.5 J0.866
G2 X107.0 Y0.0 Z-9.0 I0.5 J-0.866
G2 X105.5 Y-0.866 Z-9.3333 I-1.0 J0.0
G2 Y0.866 Z-9.6667 I0.5 J0.866
G2 X107.0 Y0.0 Z-10.0 I0.5 J-0.866
G2 X105.5 Y-0.866 I-1.0 J0.0
G2 Y0.866 I0.5 J0.866
G2 X107.0 Y0.0 I0.5 J-0.866
( Bohren-Wellenbefestigung )
G0 Z3.0
( T12 : 2.0 )
( Tool Taper coming soon )
( TOOL/MILL,2.0,0.0,0.0,0 )
T12 M6
M3 S2000
G0 X106.0 Y8.0
G98
G81 X106.0 Y8.0 Z-10.0 R3.0 F500.0
G81 X114.0 Y0.0 Z-10.0
G81 X106.0 Y-8.0 Z-10.0
G81 X98.0 Y0.0 Z-10.0
G80
( Schaufel-Taschen-Ecken )
G0 Z3.0
( T11 : 1.2 )
( Tool Taper coming soon )
( TOOL/MILL,1.2,0.0,0.0,0 )
T11 M6
M3 S2000
G0 X66.1642 Y23.6149
G0 Z1.0
G1 F500.0 Z-1.0
G1 F1000.0 X64.8701 Y18.7853
G3 X65.2944 Y18.0504 I0.5796 J-0.1553
G1 X95.2381 Y10.027
G3 X95.973 Y10.4513 I0.1553 J0.5796
G1 X97.267 Y15.2809
G3 X96.8428 Y16.0158 I-0.5796 J0.1553
G1 X66.8991 Y24.0392
G3 X66.1642 Y23.6149 I-0.1553 J-0.5796
G1 F500.0 Z-2.0
G1 F1000.0 X64.8701 Y18.7853
G3 X65.2944 Y18.0504 I0.5796 J-0.1553
G1 X95.2381 Y10.027
G3 X95.973 Y10.4513 I0.1553 J0.5796
G1 X97.267 Y15.2809
G3 X96.8428 Y16.0158 I-0.5796 J0.1553
G1 X66.8991 Y24.0392
G3 X66.1642 Y23.6149 I-0.1553 J-0.5796
G1 F500.0 Z-3.0
G1 F1000.0 X64.8701 Y18.7853
G3 X65.2944 Y18.0504 I0.5796 J-0.1553
G1 X95.2381 Y10.027
G3 X95.973 Y10.4513 I0.1553 J0.5796
G1 X97.267 Y15.2809
G3 X96.8428 Y16.0158 I-0.5796 J0.1553
G1 X66.8991 Y24.0392
G3 X66.1642 Y23.6149 I-0.1553 J-0.5796
G1 F500.0 Z-4.0
G1 F1000.0 X64.8701 Y18.7853
G3 X65.2944 Y18.0504 I0.5796 J-0.1553
G1 X95.2381 Y10.027
G3 X95.973 Y10.4513 I0.1553 J0.5796
G1 X97.267 Y15.2809
G3 X96.8428 Y16.0158 I-0.5796 J0.1553
G1 X66.8991 Y24.0392
G3 X66.1642 Y23.6149 I-0.1553 J-0.5796
G1 F500.0 Z-5.0
G1 F1000.0 X64.8701 Y18.7853
G3 X65.2944 Y18.0504 I0.5796 J-0.1553
G1 X95.2381 Y10.027
G3 X95.973 Y10.4513 I0.1553 J0.5796
G1 X97.267 Y15.2809
G3 X96.8428 Y16.0158 I-0.5796 J0.1553
G1 X66.8991 Y24.0392
G3 X66.1642 Y23.6149 I-0.1553 J-0.5796
G1 F500.0 Z-6.0
G1 F1000.0 X64.8701 Y18.7853
G3 X65.2944 Y18.0504 I0.5796 J-0.1553
G1 X95.2381 Y10.027
G3 X95.973 Y10.4513 I0.1553 J0.5796
G1 X97.267 Y15.2809
G3 X96.8428 Y16.0158 I-0.5796 J0.1553
G1 X66.8991 Y24.0392
G3 X66.1642 Y23.6149 I-0.1553 J-0.5796
G1 F500.0 Z-7.0
G1 F1000.0 X64.8701 Y18.7853
G3 X65.2944 Y18.0504 I0.5796 J-0.1553
G1 X95.2381 Y10.027
G3 X95.973 Y10.4513 I0.1553 J0.5796
G1 X97.267 Y15.2809
G3 X96.8428 Y16.0158 I-0.5796 J0.1553
G1 X66.8991 Y24.0392
G3 X66.1642 Y23.6149 I-0.1553 J-0.5796
G1 F500.0 Z-8.0
G1 F1000.0 X64.8701 Y18.7853
G3 X65.2944 Y18.0504 I0.5796 J-0.1553
G1 X95.2381 Y10.027
G3 X95.973 Y10.4513 I0.1553 J0.5796
G1 X97.267 Y15.2809
G3 X96.8428 Y16.0158 I-0.5796 J0.1553
G1 X66.8991 Y24.0392
G3 X66.1642 Y23.6149 I-0.1553 J-0.5796
G1 F500.0 Z-9.0
G1 F1000.0 X64.8701 Y18.7853
G3 X65.2944 Y18.0504 I0.5796 J-0.1553
G1 X95.2381 Y10.027
G3 X95.973 Y10.4513 I0.1553 J0.5796
G1 X97.267 Y15.2809
G3 X96.8428 Y16.0158 I-0.5796 J0.1553
G1 X66.8991 Y24.0392
G3 X66.1642 Y23.6149 I-0.1553 J-0.5796
G1 F500.0 Z-10.0
G1 F1000.0 X64.8701 Y18.7853
G3 X65.2944 Y18.0504 I0.5796 J-0.1553
G1 X95.2381 Y10.027
G3 X95.973 Y10.4513 I0.1553 J0.5796
G1 X97.267 Y15.2809
G3 X96.8428 Y16.0158 I-0.5796 J0.1553
G1 X66.8991 Y24.0392
G3 X66.1642 Y23.6149 I-0.1553 J-0.5796
G0 Z3.0
G0 X79.7987 Y-0.0007
G0 Z1.0
G1 F500.0 Z-1.0
G1 F1000.0 X61.3532 Y-10.6503
G3 X61.1336 Y-11.4699 I0.3 J-0.5196
G1 X63.6336 Y-15.8
G3 X64.4532 Y-16.0196 I0.5196 J0.3
G1 X91.3 Y-0.5196
G3 X91.5196 Y0.3 I-0.3 J0.5196
G1 X89.0196 Y4.6301
G3 X88.2 Y4.8497 I-0.5196 J-0.3
G1 X79.7987 Y-0.0007
G1 F500.0 Z-2.0
G1 F1000.0 X61.3532 Y-10.6503
G3 X61.1336 Y-11.4699 I0.3 J-0.5196
G1 X63.6336 Y-15.8
G3 X64.4532 Y-16.0196 I0.5196 J0.3
G1 X91.3 Y-0.5196
G3 X91.5196 Y0.3 I-0.3 J0.5196
G1 X89.0196 Y4.6301
G3 X88.2 Y4.8497 I-0.5196 J-0.3
G1 X79.7987 Y-0.0007
G1 F500.0 Z-3.0
G1 F1000.0 X61.3532 Y-10.6503
G3 X61.1336 Y-11.4699 I0.3 J-0.5196
G1 X63.6336 Y-15.8
G3 X64.4532 Y-16.0196 I0.5196 J0.3
G1 X91.3 Y-0.5196
G3 X91.5196 Y0.3 I-0.3 J0.5196
G1 X89.0196 Y4.6301
G3 X88.2 Y4.8497 I-0.5196 J-0.3
G1 X79.7987 Y-0.0007
G1 F500.0 Z-4.0
G1 F1000.0 X61.3532 Y-10.6503
G3 X61.1336 Y-11.4699 I0.3 J-0.5196
G1 X63.6336 Y-15.8
G3 X64.4532 Y-16.0196 I0.5196 J0.3
G1 X91.3 Y-0.5196
G3 X91.5196 Y0.3 I-0.3 J0.5196
G1 X89.0196 Y4.6301
G3 X88.2 Y4.8497 I-0.5196 J-0.3
G1 X79.7987 Y-0.0007
G1 F500.0 Z-5.0
G1 F1000.0 X61.3532 Y-10.6503
G3 X61.1336 Y-11.4699 I0.3 J-0.5196
G1 X63.6336 Y-15.8
G3 X64.4532 Y-16.0196 I0.5196 J0.3
G1 X91.3 Y-0.5196
G3 X91.5196 Y0.3 I-0.3 J0.5196
G1 X89.0196 Y4.6301
G3 X88.2 Y4.8497 I-0.5196 J-0.3
G1 X79.7987 Y-0.0007
G1 F500.0 Z-6.0
G1 F1000.0 X61.3532 Y-10.6503
G3 X61.1336 Y-11.4699 I0.3 J-0.5196
G1 X63.6336 Y-15.8
G3 X64.4532 Y-16.0196 I0.5196 J0.3
G1 X91.3 Y-0.5196
G3 X91.5196 Y0.3 I-0.3 J0.5196
G1 X89.0196 Y4.6301
G3 X88.2 Y4.8497 I-0.5196 J-0.3
G1 X79.7987 Y-0.0007
G1 F500.0 Z-7.0
G1 F1000.0 X61.3532 Y-10.6503
G3 X61.1336 Y-11.4699 I0.3 J-0.5196
G1 X63.6336 Y-15.8
G3 X64.4532 Y-16.0196 I0.5196 J0.3
G1 X91.3 Y-0.5196
G3 X91.5196 Y0.3 I-0.3 J0.5196
G1 X89.0196 Y4.6301
G3 X88.2 Y4.8497 I-0.5196 J-0.3
G1 X79.7987 Y-0.0007
G1 F500.0 Z-8.0
G1 F1000.0 X61.3532 Y-10.6503
G3 X61.1336 Y-11.4699 I0.3 J-0.5196
G1 X63.6336 Y-15.8
G3 X64.4532 Y-16.0196 I0.5196 J0.3
G1 X91.3 Y-0.5196
G3 X91.5196 Y0.3 I-0.3 J0.5196
G1 X89.0196 Y4.6301
G3 X88.2 Y4.8497 I-0.5196 J-0.3
G1 X79.7987 Y-0.0007
G1 F500.0 Z-9.0
G1 F1000.0 X61.3532 Y-10.6503
G3 X61.1336 Y-11.4699 I0.3 J-0.5196
G1 X63.6336 Y-15.8
G3 X64.4532 Y-16.0196 I0.5196 J0.3
G1 X91.3 Y-0.5196
G3 X91.5196 Y0.3 I-0.3 J0.5196
G1 X89.0196 Y4.6301
G3 X88.2 Y4.8497 I-0.5196 J-0.3
G1 X79.7987 Y-0.0007
G1 F500.0 Z-10.0
G1 F1000.0 X61.3532 Y-10.6503
G3 X61.1336 Y-11.4699 I0.3 J-0.5196
G1 X63.6336 Y-15.8
G3 X64.4532 Y-16.0196 I0.5196 J0.3
G1 X91.3 Y-0.5196
G3 X91.5196 Y0.3 I-0.3 J0.5196
G1 X89.0196 Y4.6301
G3 X88.2 Y4.8497 I-0.5196 J-0.3
G1 X79.7987 Y-0.0007
G0 Z3.0
G0 X90.11 Y-8.92
G0 Z1.0
G1 F500.0 Z-1.0
G3 F1000.0 X89.9842 Y-9.1572 I0.4538 J-0.3925
G1 X81.9608 Y-39.1009
G3 X82.3851 Y-39.8358 I0.5796 J-0.1553
G1 X87.2147 Y-41.1299
G3 X87.9496 Y-40.7056 I0.1553 J0.5796
G1 X95.973 Y-10.7619
G3 X95.5487 Y-10.027 I-0.5796 J0.1553
G1 X90.7191 Y-8.733
G3 X90.11 Y-8.92 I-0.1553 J-0.5796
G1 F500.0 Z-2.0
G3 F1000.0 X89.9842 Y-9.1572 I0.4538 J-0.3925
G1 X81.9608 Y-39.1009
G3 X82.3851 Y-39.8358 I0.5796 J-0.1553
G1 X87.2147 Y-41.1299
G3 X87.9496 Y-40.7056 I0.1553 J0.5796
G1 X95.973 Y-10.7619
G3 X95.5487 Y-10.027 I-0.5796 J0.1553
G1 X90.7191 Y-8.733
G3 X90.11 Y-8.92 I-0.1553 J-0.5796
G1 F500.0 Z-3.0
G3 F1000.0 X89.9842 Y-9.1572 I0.4538 J-0.3925
G1 X81.9608 Y-39.1009
G3 X82.3851 Y-39.8358 I0.5796 J-0.1553
G1 X87.2147 Y-41.1299
G3 X87.9496 Y-40.7056 I0.1553 J0.5796
G1 X95.973 Y-10.7619
G3 X95.5487 Y-10.027 I-0.5796 J0.1553
G1 X90.7191 Y-8.733
G3 X90.11 Y-8.92 I-0.1553 J-0.5796
G1 F500.0 Z-4.0
G3 F1000.0 X89.9842 Y-9.1572 I0.4538 J-0.3925
G1 X81.9608 Y-39.1009
G3 X82.3851 Y-39.8358 I0.5796 J-0.1553
G1 X87.2147 Y-41.1299
G3 X87.9496 Y-40.7056 I0.1553 J0.5796
G1 X95.973 Y-10.7619
G3 X95.5487 Y-10.027 I-0.5796 J0.1553
G1 X90.7191 Y-8.733
G3 X90.11 Y-8.92 I-0.1553 J-0.5796
G1 F500.0 Z-5.0
G3 F1000.0 X89.9842 Y-9.1572 I0.4538 J-0.3925
G1 X81.9608 Y-39.1009
G3 X82.3851 Y-39.8358 I0.5796 J-0.1553
G1 X87.2147 Y-41.1299
G3 X87.9496 Y-40.7056 I0.1553 J0.5796
G1 X95.973 Y-10.7619
G3 X95.5487 Y-10.027 I-0.5796 J0.1553
G1 X90.7191 Y-8.733
G3 X90.11 Y-8.92 I-0.1553 J-0.5796
G1 F500.0 Z-6.0
G3 F1000.0 X89.9842 Y-9.1572 I0.4538 J-0.3925
G1 X81.9608 Y-39.1009
G3 X82.3851 Y-39.8358 I0.5796 J-0.1553
G1 X87.2147 Y-41.1299
G3 X87.9496 Y-40.7056 I0.1553 J0.5796
G1 X95.973 Y-10.7619
G3 X95.5487 Y-10.027 I-0.5796 J0.1553
G1 X90.7191 Y-8.733
G3 X90.11 Y-8.92 I-0.1553 J-0.5796
G1 F500.0 Z-7.0
G3 F1000.0 X89.9842 Y-9.1572 I0.4538 J-0.3925
G1 X81.9608 Y-39.1009
G3 X82.3851 Y-39.8358 I0.5796 J-0.1553
G1 X87.2147 Y-41.1299
G3 X87.9496 Y-40.7056 I0.1553 J0.5796
G1 X95.973 Y-10.7619
G3 X95.5487 Y-10.027 I-0.5796 J0.1553
G1 X90.7191 Y-8.733
G3 X90.11 Y-8.92 I-0.1553 J-0.5796
G1 F500.0 Z-8.0
G3 F1000.0 X89.9842 Y-9.1572 I0.4538 J-0.3925
G1 X81.9608 Y-39.1009
G3 X82.3851 Y-39.8358 I0.5796 J-0.1553
G1 X87.2147 Y-41.1299
G3 X87.9496 Y-40.7056 I0.1553 J0.5796
G1 X95.973 Y-10.7619
G3 X95.5487 Y-10.027 I-0.5796 J0.1553
G1 X90.7191 Y-8.733
G3 X90.11 Y-8.92 I-0.1553 J-0.5796
G1 F500.0 Z-9.0
G3 F1000.0 X89.9842 Y-9.1572 I0.4538 J-0.3925
G1 X81.9608 Y-39.1009
G3 X82.3851 Y-39.8358 I0.5796 J-0.1553
G1 X87.2147 Y-41.1299
G3 X87.9496 Y-40.7056 I0.1553 J0.5796
G1 X95.973 Y-10.7619
G3 X95.5487 Y-10.027 I-0.5796 J0.1553
G1 X90.7191 Y-8.733
G3 X90.11 Y-8.92 I-0.1553 J-0.5796
G1 F500.0 Z-10.0
G3 F1000.0 X89.9842 Y-9.1572 I0.4538 J-0.3925
G1 X81.9608 Y-39.1009
G3 X82.3851 Y-39.8358 I0.5796 J-0.1553
G1 X87.2147 Y-41.1299
G3 X87.9496 Y-40.7056 I0.1553 J0.5796
G1 X95.973 Y-10.7619
G3 X95.5487 Y-10.027 I-0.5796 J0.1553
G1 X90.7191 Y-8.733
G3 X90.11 Y-8.92 I-0.1553 J-0.5796
G0 Z3.0
G0 X101.1881 Y-17.1424
G0 Z1.0
G1 F500.0 Z-1.0
G3 F1000.0 X101.1503 Y-17.8 I0.4818 J-0.3576
G1 X116.6503 Y-44.6468
G3 X117.4699 Y-44.8664 I0.5196 J0.3
G1 X121.8 Y-42.3664
G3 X122.0196 Y-41.5468 I-0.3 J0.5196
G1 X106.5196 Y-14.7
G3 X105.7 Y-14.4804 I-0.5196 J-0.3
G1 X101.3699 Y-16.9804
G3 X101.1881 Y-17.1424 I0.3 J-0.5196
G1 F500.0 Z-2.0
G3 F1000.0 X101.1503 Y-17.8 I0.4818 J-0.3576
G1 X116.6503 Y-44.6468
G3 X117.4699 Y-44.8664 I0.5196 J0.3
G1 X121.8 Y-42.3664
G3 X122.0196 Y-41.5468 I-0.3 J0.5196
G1 X106.5196 Y-14.7
G3 X105.7 Y-14.4804 I-0.5196 J-0.3
G1 X101.3699 Y-16.9804
G3 X101.1881 Y-17.1424 I0.3 J-0.5196
G1 F500.0 Z-3.0
G3 F1000.0 X101.1503 Y-17.8 I0.4818 J-0.3576
G1 X116.6503 Y-44.6468
G3 X117.4699 Y-44.8664 I0.5196 J0.3
G1 X121.8 Y-42.3664
G3 X122.0196 Y-41.5468 I-0.3 J0.5196
G1 X106.5196 Y-14.7
G3 X105.7 Y-14.4804 I-0.5196 J-0.3
G1 X101.3699 Y-16.9804
G3 X101.1881 Y-17.1424 I0.3 J-0.5196
G1 F500.0 Z-4.0
G3 F1000.0 X101.1503 Y-17.8 I0.4818 J-0.3576
G1 X116.6503 Y-44.6468
G3 X117.4699 Y-44.8664 I0.5196 J0.3
G1 X121.8 Y-42.3664
G3 X122.0196 Y-41.5468 I-0.3 J0.5196
G1 X106.5196 Y-14.7
G3 X105.7 Y-14.4804 I-0.5196 J-0.3
G1 X101.3699 Y-16.9804
G3 X101.1881 Y-17.1424 I0.3 J-0.5196
G1 F500.0 Z-5.0
G3 F1000.0 X101.1503 Y-17.8 I0.4818 J-0.3576
G1 X116.6503 Y-44.6468
G3 X117.4699 Y-44.8664 I0.5196 J0.3
G1 X121.8 Y-42.3664
G3 X122.0196 Y-41.5468 I-0.3 J0.5196
G1 X106.5196 Y-14.7
G3 X105.7 Y-14.4804 I-0.5196 J-0.3
G1 X101.3699 Y-16.9804
G3 X101.1881 Y-17.1424 I0.3 J-0.5196
G1 F500.0 Z-6.0
G3 F1000.0 X101.1503 Y-17.8 I0.4818 J-0.3576
G1 X116.6503 Y-44.6468
G3 X117.4699 Y-44.8664 I0.5196 J0.3
G1 X121.8 Y-42.3664
G3 X122.0196 Y-41.5468 I-0.3 J0.5196
G1 X106.5196 Y-14.7
G3 X105.7 Y-14.4804 I-0.5196 J-0.3
G1 X101.3699 Y-16.9804
G3 X101.1881 Y-17.1424 I0.3 J-0.5196
G1 F500.0 Z-7.0
G3 F1000.0 X101.1503 Y-17.8 I0.4818 J-0.3576
G1 X116.6503 Y-44.6468
G3 X117.4699 Y-44.8664 I0.5196 J0.3
G1 X121.8 Y-42.3664
G3 X122.0196 Y-41.5468 I-0.3 J0.5196
G1 X106.5196 Y-14.7
G3 X105.7 Y-14.4804 I-0.5196 J-0.3
G1 X101.3699 Y-16.9804
G3 X101.1881 Y-17.1424 I0.3 J-0.5196
G1 F500.0 Z-8.0
G3 F1000.0 X101.1503 Y-17.8 I0.4818 J-0.3576
G1 X116.6503 Y-44.6468
G3 X117.4699 Y-44.8664 I0.5196 J0.3
G1 X121.8 Y-42.3664
G3 X122.0196 Y-41.5468 I-0.3 J0.5196
G1 X106.5196 Y-14.7
G3 X105.7 Y-14.4804 I-0.5196 J-0.3
G1 X101.3699 Y-16.9804
G3 X101.1881 Y-17.1424 I0.3 J-0.5196
G1 F500.0 Z-9.0
G3 F1000.0 X101.1503 Y-17.8 I0.4818 J-0.3576
G1 X116.6503 Y-44.6468
G3 X117.4699 Y-44.8664 I0.5196 J0.3
G1 X121.8 Y-42.3664
G3 X122.0196 Y-41.5468 I-0.3 J0.5196
G1 X106.5196 Y-14.7
G3 X105.7 Y-14.4804 I-0.5196 J-0.3
G1 X101.3699 Y-16.9804
G3 X101.1881 Y-17.1424 I0.3 J-0.5196
G1 F500.0 Z-10.0
G3 F1000.0 X101.1503 Y-17.8 I0.4818 J-0.3576
G1 X116.6503 Y-44.6468
G3 X117.4699 Y-44.8664 I0.5196 J0.3
G1 X121.8 Y-42.3664
G3 X122.0196 Y-41.5468 I-0.3 J0.5196
G1 X106.5196 Y-14.7
G3 X105.7 Y-14.4804 I-0.5196 J-0.3
G1 X101.3699 Y-16.9804
G3 X101.1881 Y-17.1424 I0.3 J-0.5196
G0 Z3.0
G0 X114.7168 Y-15.5082
G0 Z1.0
G1 F500.0 Z-1.0
G3 F1000.0 X115.1572 Y-16.0158 I0.5957 J0.072
G1 X145.1009 Y-24.0392
G3 X145.8358 Y-23.6149 I0.1553 J0.5796
G1 X147.1299 Y-18.7853
G3 X146.7056 Y-18.0504 I-0.5796 J0.1553
G1 X116.7619 Y-10.027
G3 X116.027 Y-10.4513 I-0.1553 J-0.5796
G1 X114.733 Y-15.2809
G3 X114.7168 Y-15.5082 I0.5796 J-0.1553
G1 F500.0 Z-2.0
G3 F1000.0 X115.1572 Y-16.0158 I0.5957 J0.072
G1 X145.1009 Y-24.0392
G3 X145.8358 Y-23.6149 I0.1553 J0.5796
G1 X147.1299 Y-18.7853
G3 X146.7056 Y-18.0504 I-0.5796 J0.1553
G1 X116.7619 Y-10.027
G3 X116.027 Y-10.4513 I-0.1553 J-0.5796
G1 X114.733 Y-15.2809
G3 X114.7168 Y-15.5082 I0.5796 J-0.1553
G1 F500.0 Z-3.0
G3 F1000.0 X115.1572 Y-16.0158 I0.5957 J0.072
G1 X145.1009 Y-24.0392
G3 X145.8358 Y-23.6149 I0.1553 J0.5796
G1 X147.1299 Y-18.7853
G3 X146.7056 Y-18.0504 I-0.5796 J0.1553
G1 X116.7619 Y-10.027
G3 X116.027 Y-10.4513 I-0.1553 J-0.5796
G1 X114.733 Y-15.2809
G3 X114.7168 Y-15.5082 I0.5796 J-0.1553
G1 F500.0 Z-4.0
G3 F1000.0 X115.1572 Y-16.0158 I0.5957 J0.072
G1 X145.1009 Y-24.0392
G3 X145.8358 Y-23.6149 I0.1553 J0.5796
G1 X147.1299 Y-18.7853
G3 X146.7056 Y-18.0504 I-0.5796 J0.1553
G1 X116.7619 Y-10.027
G3 X116.027 Y-10.4513 I-0.1553 J-0.5796
G1 X114.733 Y-15.2809
G3 X114.7168 Y-15.5082 I0.5796 J-0.1553
G1 F500.0 Z-5.0
G3 F1000.0 X115.1572 Y-16.0158 I0.5957 J0.072
G1 X145.1009 Y-24.0392
G3 X145.8358 Y-23.6149 I0.1553 J0.5796
G1 X147.1299 Y-18.7853
G3 X146.7056 Y-18.0504 I-0.5796 J0.1553
G1 X116.7619 Y-10.027
G3 X116.027 Y-10.4513 I-0.1553 J-0.5796
G1 X114.733 Y-15.2809
G3 X114.7168 Y-15.5082 I0.5796 J-0.1553
G1 F500.0 Z-6.0
G3 F1000.0 X115.1572 Y-16.0158 I0.5957 J0.072
G1 X145.1009 Y-24.0392
G3 X145.8358 Y-23.6149 I0.1553 J0.5796
G1 X147.1299 Y-18.7853
G3 X146.7056 Y-18.0504 I-0.5796 J0.1553
G1 X116.7619 Y-10.027
G3 X116.027 Y-10.4513 I-0.1553 J-0.5796
G1 X114.733 Y-15.2809
G3 X114.7168 Y-15.5082 I0.5796 J-0.1553
G1 F500.0 Z-7.0
G3 F1000.0 X115.1572 Y-16.0158 I0.5957 J0.072
G1 X145.1009 Y-24.0392
G3 X145.8358 Y-23.6149 I0.1553 J0.5796
G1 X147.1299 Y-18.7853
G3 X146.7056 Y-18.0504 I-0.5796 J0.1553
G1 X116.7619 Y-10.027
G3 X116.027 Y-10.4513 I-0.1553 J-0.5796
G1 X114.733 Y-15.2809
G3 X114.7168 Y-15.5082 I0.5796 J-0.1553
G1 F500.0 Z-8.0
G3 F1000.0 X115.1572 Y-16.0158 I0.5957 J0.072
G1 X145.1009 Y-24.0392
G3 X145.8358 Y-23.6149 I0.1553 J0.5796
G1 X147.1299 Y-18.7853
G3 X146.7056 Y-18.0504 I-0.5796 J0.1553
G1 X116.7619 Y-10.027
G3 X116.027 Y-10.4513 I-0.1553 J-0.5796
G1 X114.733 Y-15.2809
G3 X114.7168 Y-15.5082 I0.5796 J-0.1553
G1 F500.0 Z-9.0
G3 F1000.0 X115.1572 Y-16.0158 I0.5957 J0.072
G1 X145.1009 Y-24.0392
G3 X145.8358 Y-23.6149 I0.1553 J0.5796
G1 X147.1299 Y-18.7853
G3 X146.7056 Y-18.0504 I-0.5796 J0.1553
G1 X116.7619 Y-10.027
G3 X116.027 Y-10.4513 I-0.1553 J-0.5796
G1 X114.733 Y-15.2809
G3 X114.7168 Y-15.5082 I0.5796 J-0.1553
G1 F500.0 Z-10.0
G3 F1000.0 X115.1572 Y-16.0158 I0.5957 J0.072
G1 X145.1009 Y-24.0392
G3 X145.8358 Y-23.6149 I0.1553 J0.5796
G1 X147.1299 Y-18.7853
G3 X146.7056 Y-18.0504 I-0.5796 J0.1553
G1 X116.7619 Y-10.027
G3 X116.027 Y-10.4513 I-0.1553 J-0.5796
G1 X114.733 Y-15.2809
G3 X114.7168 Y-15.5082 I0.5796 J-0.1553
G0 Z3.0
G0 X123.1293 Y-4.8019
G0 Z1.0
G1 F500.0 Z-1.0
G3 F1000.0 X123.8 Y-4.8497 I0.3707 J0.4718
G1 X150.6468 Y10.6503
G3 X150.8664 Y11.4699 I-0.3 J0.5196
G1 X148.3664 Y15.8
G3 X147.5468 Y16.0196 I-0.5196 J-0.3
G1 X120.7 Y0.5196
G3 X120.4804 Y-0.3 I0.3 J-0.5196
G1 X122.9804 Y-4.6301
G3 X123.1293 Y-4.8019 I0.5196 J0.3
G1 F500.0 Z-2.0
G3 F1000.0 X123.8 Y-4.8497 I0.3707 J0.4718
G1 X150.6468 Y10.6503
G3 X150.8664 Y11.4699 I-0.3 J0.5196
G1 X148.3664 Y15.8
G3 X147.5468 Y16.0196 I-0.5196 J-0.3
G1 X120.7 Y0.5196
G3 X120.4804 Y-0.3 I0.3 J-0.5196
G1 X122.9804 Y-4.6301
G3 X123.1293 Y-4.8019 I0.5196 J0.3
G1 F500.0 Z-3.0
G3 F1000.0 X123.8 Y-4.8497 I0.3707 J0.4718
G1 X150.6468 Y10.6503
G3 X150.8664 Y11.4699 I-0.3 J0.5196
G1 X148.3664 Y15.8
G3 X147.5468 Y16.0196 I-0.5196 J-0.3
G1 X120.7 Y0.5196
G3 X120.4804 Y-0.3 I0.3 J-0.5196
G1 X122.9804 Y-4.6301
G3 X123.1293 Y-4.8019 I0.5196 J0.3
G1 F500.0 Z-4.0
G3 F1000.0 X123.8 Y-4.8497 I0.3707 J0.4718
G1 X150.6468 Y10.6503
G3 X150.8664 Y11.4699 I-0.3 J0.5196
G1 X148.3664 Y15.8
G3 X147.5468 Y16.0196 I-0.5196 J-0.3
G1 X120.7 Y0.5196
G3 X120.4804 Y-0.3 I0.3 J-0.5196
G1 X122.9804 Y-4.6301
G3 X123.1293 Y-4.8019 I0.5196 J0.3
G1 F500.0 Z-5.0
G3 F1000.0 X123.8 Y-4.8497 I0.3707 J0.4718
G1 X150.6468 Y10.6503
G3 X150.8664 Y11.4699 I-0.3 J0.5196
G1 X148.3664 Y15.8
G3 X147.5468 Y16.0196 I-0.5196 J-0.3
G1 X120.7 Y0.5196
G3 X120.4804 Y-0.3 I0.3 J-0.5196
G1 X122.9804 Y-4.6301
G3 X123.1293 Y-4.8019 I0.5196 J0.3
G1 F500.0 Z-6.0
G3 F1000.0 X123.8 Y-4.8497 I0.3707 J0.4718
G1 X150.6468 Y10.6503
G3 X150.8664 Y11.4699 I-0.3 J0.5196
G1 X148.3664 Y15.8
G3 X147.5468 Y16.0196 I-0.5196 J-0.3
G1 X120.7 Y0.5196
G3 X120.4804 Y-0.3 I0.3 J-0.5196
G1 X122.9804 Y-4.6301
G3 X123.1293 Y-4.8019 I0.5196 J0.3
G1 F500.0 Z-7.0
G3 F1000.0 X123.8 Y-4.8497 I0.3707 J0.4718
G1 X150.6468 Y10.6503
G3 X150.8664 Y11.4699 I-0.3 J0.5196
G1 X148.3664 Y15.8
G3 X147.5468 Y16.0196 I-0.5196 J-0.3
G1 X120.7 Y0.5196
G3 X120.4804 Y-0.3 I0.3 J-0.5196
G1 X122.9804 Y-4.6301
G3 X123.1293 Y-4.8019 I0.5196 J0.3
G1 F500.0 Z-8.0
G3 F1000.0 X123.8 Y-4.8497 I0.3707 J0.4718
G1 X150.6468 Y10.6503
G3 X150.8664 Y11.4699 I-0.3 J0.5196
G1 X148.3664 Y15.8
G3 X147.5468 Y16.0196 I-0.5196 J-0.3
G1 X120.7 Y0.5196
G3 X120.4804 Y-0.3 I0.3 J-0.5196
G1 X122.9804 Y-4.6301
G3 X123.1293 Y-4.8019 I0.5196 J0.3
G1 F500.0 Z-9.0
G3 F1000.0 X123.8 Y-4.8497 I0.3707 J0.4718
G1 X150.6468 Y10.6503
G3 X150.8664 Y11.4699 I-0.3 J0.5196
G1 X148.3664 Y15.8
G3 X147.5468 Y16.0196 I-0.5196 J-0.3
G1 X120.7 Y0.5196
G3 X120.4804 Y-0.3 I0.3 J-0.5196
G1 X122.9804 Y-4.6301
G3 X123.1293 Y-4.8019 I0.5196 J0.3
G1 F500.0 Z-10.0
G3 F1000.0 X123.8 Y-4.8497 I0.3707 J0.4718
G1 X150.6468 Y10.6503
G3 X150.8664 Y11.4699 I-0.3 J0.5196
G1 X148.3664 Y15.8
G3 X147.5468 Y16.0196 I-0.5196 J-0.3
G1 X120.7 Y0.5196
G3 X120.4804 Y-0.3 I0.3 J-0.5196
G1 X122.9804 Y-4.6301
G3 X123.1293 Y-4.8019 I0.5196 J0.3
G0 Z3.0
G0 X121.5077 Y8.7168
G0 Z1.0
G1 F500.0 Z-1.0
G3 F1000.0 X122.0158 Y9.1572 I-0.0715 J0.5957
G1 X130.0392 Y39.1009
G3 X129.6149 Y39.8358 I-0.5796 J0.1553
G1 X124.7853 Y41.1299
G3 X124.0504 Y40.7056 I-0.1553 J-0.5796
G1 X116.027 Y10.7619
G3 X116.4513 Y10.027 I0.5796 J-0.1553
G1 X121.2809 Y8.733
G3 X121.5077 Y8.7168 I0.1553 J0.5796
G1 F500.0 Z-2.0
G3 F1000.0 X122.0158 Y9.1572 I-0.0715 J0.5957
G1 X130.0392 Y39.1009
G3 X129.6149 Y39.8358 I-0.5796 J0.1553
G1 X124.7853 Y41.1299
G3 X124.0504 Y40.7056 I-0.1553 J-0.5796
G1 X116.027 Y10.7619
G3 X116.4513 Y10.027 I0.5796 J-0.1553
G1 X121.2809 Y8.733
G3 X121.5077 Y8.7168 I0.1553 J0.5796
G1 F500.0 Z-3.0
G3 F1000.0 X122.0158 Y9.1572 I-0.0715 J0.5957
G1 X130.0392 Y39.1009
G3 X129.6149 Y39.8358 I-0.5796 J0.1553
G1 X124.7853 Y41.1299
G3 X124.0504 Y40.7056 I-0.1553 J-0.5796
G1 X116.027 Y10.7619
G3 X116.4513 Y10.027 I0.5796 J-0.1553
G1 X121.2809 Y8.733
G3 X121.5077 Y8.7168 I0.1553 J0.5796
G1 F500.0 Z-4.0
G3 F1000.0 X122.0158 Y9.1572 I-0.0715 J0.5957
G1 X130.0392 Y39.1009
G3 X129.6149 Y39.8358 I-0.5796 J0.1553
G1 X124.7853 Y41.1299
G3 X124.0504 Y40.7056 I-0.1553 J-0.5796
G1 X116.027 Y10.7619
G3 X116.4513 Y10.027 I0.5796 J-0.1553
G1 X121.2809 Y8.733
G3 X121.5077 Y8.7168 I0.1553 J0.5796
G1 F500.0 Z-5.0
G3 F1000.0 X122.0158 Y9.1572 I-0.0715 J0.5957
G1 X130.0392 Y39.1009
G3 X129.6149 Y39.8358 I-0.5796 J0.1553
G1 X124.7853 Y41.1299
G3 X124.0504 Y40.7056 I-0.1553 J-0.5796
G1 X116.027 Y10.7619
G3 X116.4513 Y10.027 I0.5796 J-0.1553
G1 X121.2809 Y8.733
G3 X121.5077 Y8.7168 I0.1553 J0.5796
G1 F500.0 Z-6.0
G3 F1000.0 X122.0158 Y9.1572 I-0.0715 J0.5957
G1 X130.0392 Y39.1009
G3 X129.6149 Y39.8358 I-0.5796 J0.1553
G1 X124.7853 Y41.1299
G3 X124.0504 Y40.7056 I-0.1553 J-0.5796
G1 X116.027 Y10.7619
G3 X116.4513 Y10.027 I0.5796 J-0.1553
G1 X121.2809 Y8.733
G3 X121.5077 Y8.7168 I0.1553 J0.5796
G1 F500.0 Z-7.0
G3 F1000.0 X122.0158 Y9.1572 I-0.0715 J0.5957
G1 X130.0392 Y39.1009
G3 X129.6149 Y39.8358 I-0.5796 J0.1553
G1 X124.7853 Y41.1299
G3 X124.0504 Y40.7056 I-0.1553 J-0.5796
G1 X116.027 Y10.7619
G3 X116.4513 Y10.027 I0.5796 J-0.1553
G1 X121.2809 Y8.733
G3 X121.5077 Y8.7168 I0.1553 J0.5796
G1 F500.0 Z-8.0
G3 F1000.0 X122.0158 Y9.1572 I-0.0715 J0.5957
G1 X130.0392 Y39.1009
G3 X129.6149 Y39.8358 I-0.5796 J0.1553
G1 X124.7853 Y41.1299
G3 X124.0504 Y40.7056 I-0.1553 J-0.5796
G1 X116.027 Y10.7619
G3 X116.4513 Y10.027 I0.5796 J-0.1553
G1 X121.2809 Y8.733
G3 X121.5077 Y8.7168 I0.1553 J0.5796
G1 F500.0 Z-9.0
G3 F1000.0 X122.0158 Y9.1572 I-0.0715 J0.5957
G1 X130.0392 Y39.1009
G3 X129.6149 Y39.8358 I-0.5796 J0.1553
G1 X124.7853 Y41.1299
G3 X124.0504 Y40.7056 I-0.1553 J-0.5796
G1 X116.027 Y10.7619
G3 X116.4513 Y10.027 I0.5796 J-0.1553
G1 X121.2809 Y8.733
G3 X121.5077 Y8.7168 I0.1553 J0.5796
G1 F500.0 Z-10.0
G3 F1000.0 X122.0158 Y9.1572 I-0.0715 J0.5957
G1 X130.0392 Y39.1009
G3 X129.6149 Y39.8358 I-0.5796 J0.1553
G1 X124.7853 Y41.1299
G3 X124.0504 Y40.7056 I-0.1553 J-0.5796
G1 X116.027 Y10.7619
G3 X116.4513 Y10.027 I0.5796 J-0.1553
G1 X121.2809 Y8.733
G3 X121.5077 Y8.7168 I0.1553 J0.5796
G0 Z3.0
G0 X110.8019 Y17.1293
G0 Z1.0
G1 F500.0 Z-1.0
G3 F1000.0 X110.8497 Y17.8 I-0.4718 J0.3707
G1 X95.3497 Y44.6468
G3 X94.5301 Y44.8664 I-0.5196 J-0.3
G1 X90.2 Y42.3664
G3 X89.9804 Y41.5468 I0.3 J-0.5196
G1 X105.4804 Y14.7
G3 X106.3 Y14.4804 I0.5196 J0.3
G1 X110.6301 Y16.9804
G3 X110.8019 Y17.1293 I-0.3 J0.5196
G1 F500.0 Z-2.0
G3 F1000.0 X110.8497 Y17.8 I-0.4718 J0.3707
G1 X95.3497 Y44.6468
G3 X94.5301 Y44.8664 I-0.5196 J-0.3
G1 X90.2 Y42.3664
G3 X89.9804 Y41.5468 I0.3 J-0.5196
G1 X105.4804 Y14.7
G3 X106.3 Y14.4804 I0.5196 J0.3
G1 X110.6301 Y16.9804
G3 X110.8019 Y17.1293 I-0.3 J0.5196
G1 F500.0 Z-3.0
G3 F1000.0 X110.8497 Y17.8 I-0.4718 J0.3707
G1 X95.3497 Y44.6468
G3 X94.5301 Y44.8664 I-0.5196 J-0.3
G1 X90.2 Y42.3664
G3 X89.9804 Y41.5468 I0.3 J-0.5196
G1 X105.4804 Y14.7
G3 X106.3 Y14.4804 I0.5196 J0.3
G1 X110.6301 Y16.9804
G3 X110.8019 Y17.1293 I-0.3 J0.5196
G1 F500.0 Z-4.0
G3 F1000.0 X110.8497 Y17.8 I-0.4718 J0.3707
G1 X95.3497 Y44.6468
G3 X94.5301 Y44.8664 I-0.5196 J-0.3
G1 X90.2 Y42.3664
G3 X89.9804 Y41.5468 I0.3 J-0.5196
G1 X105.4804 Y14.7
G3 X106.3 Y14.4804 I0.5196 J0.3
G1 X110.6301 Y16.9804
G3 X110.8019 Y17.1293 I-0.3 J0.5196
G1 F500.0 Z-5.0
G3 F1000.0 X110.8497 Y17.8 I-0.4718 J0.3707
G1 X95.3497 Y44.6468
G3 X94.5301 Y44.8664 I-0.5196 J-0.3
G1 X90.2 Y42.3664
G3 X89.9804 Y41.5468 I0.3 J-0.5196
G1 X105.4804 Y14.7
G3 X106.3 Y14.4804 I0.5196 J0.3
G1 X110.6301 Y16.9804
G3 X110.8019 Y17.1293 I-0.3 J0.5196
G1 F500.0 Z-6.0
G3 F1000.0 X110.8497 Y17.8 I-0.4718 J0.3707
G1 X95.3497 Y44.6468
G3 X94.5301 Y44.8664 I-0.5196 J-0.3
G1 X90.2 Y42.3664
G3 X89.9804 Y41.5468 I0.3 J-0.5196
G1 X105.4804 Y14.7
G3 X106.3 Y14.4804 I0.5196 J0.3
G1 X110.6301 Y16.9804
G3 X110.8019 Y17.1293 I-0.3 J0.5196
G1 F500.0 Z-7.0
G3 F1000.0 X110.8497 Y17.8 I-0.4718 J0.3707
G1 X95.3497 Y44.6468
G3 X94.5301 Y44.8664 I-0.5196 J-0.3
G1 X90.2 Y42.3664
G3 X89.9804 Y41.5468 I0.3 J-0.5196
G1 X105.4804 Y14.7
G3 X106.3 Y14.4804 I0.5196 J0.3
G1 X110.6301 Y16.9804
G3 X110.8019 Y17.1293 I-0.3 J0.5196
G1 F500.0 Z-8.0
G3 F1000.0 X110.8497 Y17.8 I-0.4718 J0.3707
G1 X95.3497 Y44.6468
G3 X94.5301 Y44.8664 I-0.5196 J-0.3
G1 X90.2 Y42.3664
G3 X89.9804 Y41.5468 I0.3 J-0.5196
G1 X105.4804 Y14.7
G3 X106.3 Y14.4804 I0.5196 J0.3
G1 X110.6301 Y16.9804
G3 X110.8019 Y17.1293 I-0.3 J0.5196
G1 F500.0 Z-9.0
G3 F1000.0 X110.8497 Y17.8 I-0.4718 J0.3707
G1 X95.3497 Y44.6468
G3 X94.5301 Y44.8664 I-0.5196 J-0.3
G1 X90.2 Y42.3664
G3 X89.9804 Y41.5468 I0.3 J-0.5196
G1 X105.4804 Y14.7
G3 X106.3 Y14.4804 I0.5196 J0.3
G1 X110.6301 Y16.9804
G3 X110.8019 Y17.1293 I-0.3 J0.5196
G1 F500.0 Z-10.0
G3 F1000.0 X110.8497 Y17.8 I-0.4718 J0.3707
G1 X95.3497 Y44.6468
G3 X94.5301 Y44.8664 I-0.5196 J-0.3
G1 X90.2 Y42.3664
G3 X89.9804 Y41.5468 I0.3 J-0.5196
G1 X105.4804 Y14.7
G3 X106.3 Y14.4804 I0.5196 J0.3
G1 X110.6301 Y16.9804
G3 X110.8019 Y17.1293 I-0.3 J0.5196
G0 Z3.0
M5
M30
