( Made using CamBam - http://www.cambam.co.uk )
( WasserRad100 9/29/2015 10:05:16 PM )
( T3 : 3.0 )
( T6 : 6.0 )
( T12 : 2.0 )
( CUTVIEWER )
( FROM/0,0,5 )
( Select dummy tool to avoid warnings )
( TOOL/MILL,1,0,20.0,0 )
( STOCK/BLOCK,300.0,210.0,10.0,55.0,55.0,10.0 )
G21 G90 G91.1 G64 G40
G0 Z3.0
( T3 : 3.0 )
( Tool Taper coming soon )
( TOOL/MILL,3.0,0.0,0.0,0 )
T3 M6
( Rad aussen )
G17
M3 S2000
G0 X51.5 Y0.0
G0 Z1.0
G1 F500.0 Z-1.0
G3 F1000.0 X-25.75 Y44.6003 I-51.5 J0.0
G3 Y-44.6003 I25.75 J-44.6003
G3 X51.5 Y0.0 I25.75 J44.6003
G1 F500.0 Z-2.0
G3 F1000.0 X-25.75 Y44.6003 I-51.5 J0.0
G3 Y-44.6003 I25.75 J-44.6003
G3 X51.5 Y0.0 I25.75 J44.6003
G1 F500.0 Z-3.0
G3 F1000.0 X-25.75 Y44.6003 I-51.5 J0.0
G3 Y-44.6003 I25.75 J-44.6003
G3 X51.5 Y0.0 I25.75 J44.6003
G1 F500.0 Z-4.0
G3 F1000.0 X-25.75 Y44.6003 I-51.5 J0.0
G3 Y-44.6003 I25.75 J-44.6003
G3 X51.5 Y0.0 I25.75 J44.6003
G1 F500.0 Z-5.0
G3 F1000.0 X-25.75 Y44.6003 I-51.5 J0.0
G3 Y-44.6003 I25.75 J-44.6003
G3 X51.5 Y0.0 I25.75 J44.6003
G1 F500.0 Z-6.0
G3 F1000.0 X-25.75 Y44.6003 I-51.5 J0.0
G3 Y-44.6003 I25.75 J-44.6003
G3 X51.5 Y0.0 I25.75 J44.6003
G1 F500.0 Z-7.0
G3 F1000.0 X-25.75 Y44.6003 I-51.5 J0.0
G3 Y-44.6003 I25.75 J-44.6003
G3 X51.5 Y0.0 I25.75 J44.6003
G1 F500.0 Z-8.0
G3 F1000.0 X-25.75 Y44.6003 I-51.5 J0.0
G3 Y-44.6003 I25.75 J-44.6003
G3 X51.5 Y0.0 I25.75 J44.6003
G1 F500.0 Z-9.0
G3 F1000.0 X38.4755 Y34.2328 I-51.5 J0.0
G3 X37.4612 Y35.3399 Z-8.0 I-38.4755 J-34.2328
G3 X35.3399 Y37.4612 I-37.4612 J-35.3399
G3 X34.2328 Y38.4755 Z-9.0 I-35.3399 J-37.4612
G3 X-25.75 Y44.6003 I-34.2328 J-38.4755
G3 X-34.2328 Y38.4755 I25.75 J-44.6003
G3 X-35.3399 Y37.4612 Z-8.0 I34.2328 J-38.4755
G3 X-37.4612 Y35.3399 I35.3399 J-37.4612
G3 X-38.4755 Y34.2328 Z-9.0 I37.4612 J-35.3399
G3 Y-34.2328 I38.4755 J-34.2328
G3 X-37.4612 Y-35.3399 Z-8.0 I38.4755 J34.2328
G3 X-35.3399 Y-37.4612 I37.4612 J35.3399
G3 X-34.2328 Y-38.4755 Z-9.0 I35.3399 J37.4612
G3 X-25.75 Y-44.6003 I34.2328 J38.4755
G3 X34.2328 Y-38.4755 I25.75 J44.6003
G3 X35.3399 Y-37.4612 Z-8.0 I-34.2328 J38.4755
G3 X37.4612 Y-35.3399 I-35.3399 J37.4612
G3 X38.4755 Y-34.2328 Z-9.0 I-37.4612 J35.3399
G3 X51.5 Y0.0 I-38.4755 J34.2328
G1 F500.0 Z-10.0
G3 F1000.0 X38.4755 Y34.2328 I-51.5 J0.0
G3 X37.4612 Y35.3399 Z-8.0 I-38.4755 J-34.2328
G3 X35.3399 Y37.4612 I-37.4612 J-35.3399
G3 X34.2328 Y38.4755 Z-10.0 I-35.3399 J-37.4612
G3 X-25.75 Y44.6003 I-34.2328 J-38.4755
G3 X-34.2328 Y38.4755 I25.75 J-44.6003
G3 X-35.3399 Y37.4612 Z-8.0 I34.2328 J-38.4755
G3 X-37.4612 Y35.3399 I35.3399 J-37.4612
G3 X-38.4755 Y34.2328 Z-10.0 I37.4612 J-35.3399
G3 Y-34.2328 I38.4755 J-34.2328
G3 X-37.4612 Y-35.3399 Z-8.0 I38.4755 J34.2328
G3 X-35.3399 Y-37.4612 I37.4612 J35.3399
G3 X-34.2328 Y-38.4755 Z-10.0 I35.3399 J37.4612
G3 X-25.75 Y-44.6003 I34.2328 J38.4755
G3 X34.2328 Y-38.4755 I25.75 J44.6003
G3 X35.3399 Y-37.4612 Z-8.0 I-34.2328 J38.4755
G3 X37.4612 Y-35.3399 I-35.3399 J37.4612
G3 X38.4755 Y-34.2328 Z-10.0 I-37.4612 J35.3399
G3 X51.5 Y0.0 I-38.4755 J34.2328
( Schaufel-Befestigungsbohrungen )
G0 Z3.0
( T12 : 2.0 )
( Tool Taper coming soon )
( TOOL/MILL,2.0,0.0,0.0,0 )
T12 M6
M3 S2000
G0 X24.0416 Y16.9706
G98
G81 X24.0416 Y16.9706 Z-8.0 R3.0 F500.0
G81 X29.0 Y-5.0 Z-8.0
G81 X16.9706 Y-24.0416 Z-8.0
G81 X-5.0 Y-29.0 Z-8.0
G81 X-24.0416 Y-16.9706 Z-8.0
G81 X-29.0 Y5.0 Z-8.0
G81 X-16.9706 Y24.0416 Z-8.0
G81 X5.0 Y29.0 Z-8.0
G80
( Schaufel-Taschen )
G0 Z3.0
( T3 : 3.0 )
( Tool Taper coming soon )
( TOOL/MILL,3.0,0.0,0.0,0 )
T3 M6
M3 S2000
G0 X-41.3415 Y11.9751
G0 Z1.0
G1 F500.0 Z-1.0
G1 F1000.0 X-41.0415 Y12.4947
G1 X-18.0053 Y-0.8053
G1 X-18.3053 Y-1.3249
G1 X-41.3415 Y11.9751
G1 F500.0 X-41.8611 Y12.2751
G1 F1000.0 X-41.2611 Y13.3144
G1 X-17.1856 Y-0.5856
G1 X-18.0856 Y-2.1445
G1 X-42.1611 Y11.7555
G1 X-41.8611 Y12.2751
G1 F500.0 X-41.3415 Y11.9751
G1 Z-2.0
G1 F1000.0 X-41.0415 Y12.4947
G1 X-18.0053 Y-0.8053
G1 X-18.3053 Y-1.3249
G1 X-41.3415 Y11.9751
G1 F500.0 X-41.8611 Y12.2751
G1 F1000.0 X-42.1611 Y11.7555
G1 X-18.0856 Y-2.1445
G1 X-17.1856 Y-0.5856
G1 X-41.2611 Y13.3144
G1 X-41.8611 Y12.2751
G1 F500.0 X-41.3415 Y11.9751
G1 Z-3.0
G1 F1000.0 X-41.0415 Y12.4947
G1 X-18.0053 Y-0.8053
G1 X-18.3053 Y-1.3249
G1 X-41.3415 Y11.9751
G1 F500.0 X-41.8611 Y12.2751
G1 F1000.0 X-42.1611 Y11.7555
G1 X-18.0856 Y-2.1445
G1 X-17.1856 Y-0.5856
G1 X-41.2611 Y13.3144
G1 X-41.8611 Y12.2751
G1 F500.0 X-41.3415 Y11.9751
G1 Z-4.0
G1 F1000.0 X-41.0415 Y12.4947
G1 X-18.0053 Y-0.8053
G1 X-18.3053 Y-1.3249
G1 X-41.3415 Y11.9751
G1 F500.0 X-41.8611 Y12.2751
G1 F1000.0 X-42.1611 Y11.7555
G1 X-18.0856 Y-2.1445
G1 X-17.1856 Y-0.5856
G1 X-41.2611 Y13.3144
G1 X-41.8611 Y12.2751
G1 F500.0 X-41.3415 Y11.9751
G1 Z-5.0
G1 F1000.0 X-41.0415 Y12.4947
G1 X-18.0053 Y-0.8053
G1 X-18.3053 Y-1.3249
G1 X-41.3415 Y11.9751
G1 F500.0 X-41.8611 Y12.2751
G1 F1000.0 X-42.1611 Y11.7555
G1 X-18.0856 Y-2.1445
G1 X-17.1856 Y-0.5856
G1 X-41.2611 Y13.3144
G1 X-41.8611 Y12.2751
G1 F500.0 X-41.3415 Y11.9751
G1 Z-6.0
G1 F1000.0 X-41.0415 Y12.4947
G1 X-18.0053 Y-0.8053
G1 X-18.3053 Y-1.3249
G1 X-41.3415 Y11.9751
G1 F500.0 X-41.8611 Y12.2751
G1 F1000.0 X-41.2611 Y13.3144
G1 X-17.1856 Y-0.5856
G1 X-18.0856 Y-2.1445
G1 X-42.1611 Y11.7555
G1 X-41.8611 Y12.2751
G1 F500.0 X-41.9477 Y12.3251
G1 F1000.0 X-41.2977 Y13.451
G1 X-17.049 Y-0.549
G1 X-18.049 Y-2.2811
G1 X-42.2977 Y11.7189
G1 X-41.9477 Y12.3251
G0 Z3.0
G0 X-15.8403 Y19.3206
G0 Z1.0
G1 F500.0 Z-1.0
G1 F1000.0 X-20.7652 Y37.7006
G1 X-20.1856 Y37.8559
G1 X-13.301 Y12.1622
G1 X-13.8806 Y12.0069
G1 X-15.8403 Y19.3206
G1 F500.0 X-16.4198 Y19.1653
G1 F1000.0 X-14.3049 Y11.2721
G1 X-12.5662 Y11.738
G1 X-19.7614 Y38.5907
G1 X-21.5 Y38.1248
G1 X-16.4198 Y19.1653
G1 F500.0 X-15.8403 Y19.3206
G1 Z-2.0
G1 F1000.0 X-20.7652 Y37.7006
G1 X-20.1856 Y37.8559
G1 X-13.301 Y12.1622
G1 X-13.8806 Y12.0069
G1 X-15.8403 Y19.3206
G1 F500.0 X-16.4198 Y19.1653
G1 F1000.0 X-14.3049 Y11.2721
G1 X-12.5662 Y11.738
G1 X-19.7614 Y38.5907
G1 X-21.5 Y38.1248
G1 X-16.4198 Y19.1653
G1 F500.0 X-15.8403 Y19.3206
G1 Z-3.0
G1 F1000.0 X-20.7652 Y37.7006
G1 X-20.1856 Y37.8559
G1 X-13.301 Y12.1622
G1 X-13.8806 Y12.0069
G1 X-15.8403 Y19.3206
G1 F500.0 X-16.4198 Y19.1653
G1 F1000.0 X-14.3049 Y11.2721
G1 X-12.5662 Y11.738
G1 X-19.7614 Y38.5907
G1 X-21.5 Y38.1248
G1 X-16.4198 Y19.1653
G1 F500.0 X-15.8403 Y19.3206
G1 Z-4.0
G1 F1000.0 X-20.7652 Y37.7006
G1 X-20.1856 Y37.8559
G1 X-13.301 Y12.1622
G1 X-13.8806 Y12.0069
G1 X-15.8403 Y19.3206
G1 F500.0 X-16.4198 Y19.1653
G1 F1000.0 X-14.3049 Y11.2721
G1 X-12.5662 Y11.738
G1 X-19.7614 Y38.5907
G1 X-21.5 Y38.1248
G1 X-16.4198 Y19.1653
G1 F500.0 X-15.8403 Y19.3206
G1 Z-5.0
G1 F1000.0 X-20.7652 Y37.7006
G1 X-20.1856 Y37.8559
G1 X-13.301 Y12.1622
G1 X-13.8806 Y12.0069
G1 X-15.8403 Y19.3206
G1 F500.0 X-16.4198 Y19.1653
G1 F1000.0 X-14.3049 Y11.2721
G1 X-12.5662 Y11.738
G1 X-19.7614 Y38.5907
G1 X-21.5 Y38.1248
G1 X-16.4198 Y19.1653
G1 F500.0 X-15.8403 Y19.3206
G1 Z-6.0
G1 F1000.0 X-20.7652 Y37.7006
G1 X-20.1856 Y37.8559
G1 X-13.301 Y12.1622
G1 X-13.8806 Y12.0069
G1 X-15.8403 Y19.3206
G1 F500.0 X-16.4198 Y19.1653
G1 F1000.0 X-21.5 Y38.1248
G1 X-19.7614 Y38.5907
G1 X-12.5662 Y11.738
G1 X-14.3049 Y11.2721
G1 X-16.4198 Y19.1653
G1 F500.0 X-16.5164 Y19.1394
G1 F1000.0 X-21.6225 Y38.1955
G1 X-19.6907 Y38.7132
G1 X-12.4437 Y11.6673
G1 X-14.3756 Y11.1496
G1 X-16.5164 Y19.1394
G0 Z3.0
G0 X-1.3249 Y18.3053
G0 Z1.0
G1 F500.0 Z-1.0
G1 F1000.0 X11.9751 Y41.3415
G1 X12.4947 Y41.0415
G1 X-0.8053 Y18.0053
G1 X-1.3249 Y18.3053
G1 F500.0 X-1.6249 Y17.7856
G1 F1000.0 X-0.5856 Y17.1856
G1 X13.3144 Y41.2611
G1 X11.7555 Y42.1611
G1 X-2.1445 Y18.0856
G1 X-1.6249 Y17.7856
G1 F500.0 X-1.3249 Y18.3053
G1 Z-2.0
G1 F1000.0 X11.9751 Y41.3415
G1 X12.4947 Y41.0415
G1 X-0.8053 Y18.0053
G1 X-1.3249 Y18.3053
G1 F500.0 X-1.6249 Y17.7856
G1 F1000.0 X-0.5856 Y17.1856
G1 X13.3144 Y41.2611
G1 X11.7555 Y42.1611
G1 X-2.1445 Y18.0856
G1 X-1.6249 Y17.7856
G1 F500.0 X-1.3249 Y18.3053
G1 Z-3.0
G1 F1000.0 X11.9751 Y41.3415
G1 X12.4947 Y41.0415
G1 X-0.8053 Y18.0053
G1 X-1.3249 Y18.3053
G1 F500.0 X-1.6249 Y17.7856
G1 F1000.0 X-0.5856 Y17.1856
G1 X13.3144 Y41.2611
G1 X11.7555 Y42.1611
G1 X-2.1445 Y18.0856
G1 X-1.6249 Y17.7856
G1 F500.0 X-1.3249 Y18.3053
G1 Z-4.0
G1 F1000.0 X11.9751 Y41.3415
G1 X12.4947 Y41.0415
G1 X-0.8053 Y18.0053
G1 X-1.3249 Y18.3053
G1 F500.0 X-1.6249 Y17.7856
G1 F1000.0 X-0.5856 Y17.1856
G1 X13.3144 Y41.2611
G1 X11.7555 Y42.1611
G1 X-2.1445 Y18.0856
G1 X-1.6249 Y17.7856
G1 F500.0 X-1.3249 Y18.3053
G1 Z-5.0
G1 F1000.0 X11.9751 Y41.3415
G1 X12.4947 Y41.0415
G1 X-0.8053 Y18.0053
G1 X-1.3249 Y18.3053
G1 F500.0 X-1.6249 Y17.7856
G1 F1000.0 X-0.5856 Y17.1856
G1 X13.3144 Y41.2611
G1 X11.7555 Y42.1611
G1 X-2.1445 Y18.0856
G1 X-1.6249 Y17.7856
G1 F500.0 X-1.3249 Y18.3053
G1 Z-6.0
G1 F1000.0 X11.9751 Y41.3415
G1 X12.4947 Y41.0415
G1 X-0.8053 Y18.0053
G1 X-1.3249 Y18.3053
G1 F500.0 X-1.6249 Y17.7856
G1 F1000.0 X-2.1445 Y18.0856
G1 X11.7555 Y42.1611
G1 X13.3144 Y41.2611
G1 X-0.5856 Y17.1856
G1 X-1.6249 Y17.7856
G1 F500.0 X-1.6749 Y17.699
G1 F1000.0 X-2.2811 Y18.049
G1 X11.7189 Y42.2977
G1 X13.451 Y41.2977
G1 X-0.549 Y17.049
G1 X-1.6749 Y17.699
G0 Z3.0
G0 X12.0069 Y13.8806
G0 Z1.0
G1 F500.0 Z-1.0
G1 F1000.0 X37.7006 Y20.7652
G1 X37.8559 Y20.1856
G1 X12.1622 Y13.301
G1 X12.0069 Y13.8806
G1 F500.0 X11.4274 Y13.7253
G1 F1000.0 X11.738 Y12.5662
G1 X38.5907 Y19.7614
G1 X38.1248 Y21.5
G1 X11.2721 Y14.3049
G1 X11.4274 Y13.7253
G1 F500.0 X12.0069 Y13.8806
G1 Z-2.0
G1 F1000.0 X37.7006 Y20.7652
G1 X37.8559 Y20.1856
G1 X12.1622 Y13.301
G1 X12.0069 Y13.8806
G1 F500.0 X11.4274 Y13.7253
G1 F1000.0 X11.738 Y12.5662
G1 X38.5907 Y19.7614
G1 X38.1248 Y21.5
G1 X11.2721 Y14.3049
G1 X11.4274 Y13.7253
G1 F500.0 X12.0069 Y13.8806
G1 Z-3.0
G1 F1000.0 X37.7006 Y20.7652
G1 X37.8559 Y20.1856
G1 X12.1622 Y13.301
G1 X12.0069 Y13.8806
G1 F500.0 X11.4274 Y13.7253
G1 F1000.0 X11.738 Y12.5662
G1 X38.5907 Y19.7614
G1 X38.1248 Y21.5
G1 X11.2721 Y14.3049
G1 X11.4274 Y13.7253
G1 F500.0 X12.0069 Y13.8806
G1 Z-4.0
G1 F1000.0 X37.7006 Y20.7652
G1 X37.8559 Y20.1856
G1 X12.1622 Y13.301
G1 X12.0069 Y13.8806
G1 F500.0 X11.4274 Y13.7253
G1 F1000.0 X11.738 Y12.5662
G1 X38.5907 Y19.7614
G1 X38.1248 Y21.5
G1 X11.2721 Y14.3049
G1 X11.4274 Y13.7253
G1 F500.0 X12.0069 Y13.8806
G1 Z-5.0
G1 F1000.0 X37.7006 Y20.7652
G1 X37.8559 Y20.1856
G1 X12.1622 Y13.301
G1 X12.0069 Y13.8806
G1 F500.0 X11.4274 Y13.7253
G1 F1000.0 X11.738 Y12.5662
G1 X38.5907 Y19.7614
G1 X38.1248 Y21.5
G1 X11.2721 Y14.3049
G1 X11.4274 Y13.7253
G1 F500.0 X12.0069 Y13.8806
G1 Z-6.0
G1 F1000.0 X37.7006 Y20.7652
G1 X37.8559 Y20.1856
G1 X12.1622 Y13.301
G1 X12.0069 Y13.8806
G1 F500.0 X11.4274 Y13.7253
G1 F1000.0 X11.2721 Y14.3049
G1 X38.1248 Y21.5
G1 X38.5907 Y19.7614
G1 X11.738 Y12.5662
G1 X11.4274 Y13.7253
G1 F500.0 X11.3308 Y13.6994
G1 F1000.0 X11.1496 Y14.3756
G1 X38.1955 Y21.6225
G1 X38.7132 Y19.6907
G1 X11.6673 Y12.4437
G1 X11.3308 Y13.6994
G0 Z3.0
G0 X18.3053 Y1.3249
G0 Z1.0
G1 F500.0 Z-1.0
G1 F1000.0 X41.3415 Y-11.9751
G1 X41.0415 Y-12.4947
G1 X18.0053 Y0.8053
G1 X18.3053 Y1.3249
G1 F500.0 X17.7856 Y1.6249
G1 F1000.0 X17.1856 Y0.5856
G1 X41.2611 Y-13.3144
G1 X42.1611 Y-11.7555
G1 X18.0856 Y2.1445
G1 X17.7856 Y1.6249
G1 F500.0 X18.3053 Y1.3249
G1 Z-2.0
G1 F1000.0 X41.3415 Y-11.9751
G1 X41.0415 Y-12.4947
G1 X18.0053 Y0.8053
G1 X18.3053 Y1.3249
G1 F500.0 X17.7856 Y1.6249
G1 F1000.0 X17.1856 Y0.5856
G1 X41.2611 Y-13.3144
G1 X42.1611 Y-11.7555
G1 X18.0856 Y2.1445
G1 X17.7856 Y1.6249
G1 F500.0 X18.3053 Y1.3249
G1 Z-3.0
G1 F1000.0 X41.3415 Y-11.9751
G1 X41.0415 Y-12.4947
G1 X18.0053 Y0.8053
G1 X18.3053 Y1.3249
G1 F500.0 X17.7856 Y1.6249
G1 F1000.0 X17.1856 Y0.5856
G1 X41.2611 Y-13.3144
G1 X42.1611 Y-11.7555
G1 X18.0856 Y2.1445
G1 X17.7856 Y1.6249
G1 F500.0 X18.3053 Y1.3249
G1 Z-4.0
G1 F1000.0 X41.3415 Y-11.9751
G1 X41.0415 Y-12.4947
G1 X18.0053 Y0.8053
G1 X18.3053 Y1.3249
G1 F500.0 X17.7856 Y1.6249
G1 F1000.0 X17.1856 Y0.5856
G1 X41.2611 Y-13.3144
G1 X42.1611 Y-11.7555
G1 X18.0856 Y2.1445
G1 X17.7856 Y1.6249
G1 F500.0 X18.3053 Y1.3249
G1 Z-5.0
G1 F1000.0 X41.3415 Y-11.9751
G1 X41.0415 Y-12.4947
G1 X18.0053 Y0.8053
G1 X18.3053 Y1.3249
G1 F500.0 X17.7856 Y1.6249
G1 F1000.0 X17.1856 Y0.5856
G1 X41.2611 Y-13.3144
G1 X42.1611 Y-11.7555
G1 X18.0856 Y2.1445
G1 X17.7856 Y1.6249
G1 F500.0 X18.3053 Y1.3249
G1 Z-6.0
G1 F1000.0 X41.3415 Y-11.9751
G1 X41.0415 Y-12.4947
G1 X18.0053 Y0.8053
G1 X18.3053 Y1.3249
G1 F500.0 X17.7856 Y1.6249
G1 F1000.0 X18.0856 Y2.1445
G1 X42.1611 Y-11.7555
G1 X41.2611 Y-13.3144
G1 X17.1856 Y0.5856
G1 X17.7856 Y1.6249
G1 F500.0 X17.699 Y1.6749
G1 F1000.0 X18.049 Y2.2811
G1 X42.2977 Y-11.7189
G1 X41.2977 Y-13.451
G1 X17.049 Y0.549
G1 X17.699 Y1.6749
G0 Z3.0
G0 X13.8806 Y-12.0069
G0 Z1.0
G1 F500.0 Z-1.0
G1 F1000.0 X20.7652 Y-37.7006
G1 X20.1856 Y-37.8559
G1 X13.301 Y-12.1622
G1 X13.8806 Y-12.0069
G1 F500.0 X14.4602 Y-11.8517
G1 F1000.0 X14.3049 Y-11.2721
G1 X12.5662 Y-11.738
G1 X19.7614 Y-38.5907
G1 X21.5 Y-38.1248
G1 X14.4602 Y-11.8517
G1 F500.0 X13.8806 Y-12.0069
G1 Z-2.0
G1 F1000.0 X20.7652 Y-37.7006
G1 X20.1856 Y-37.8559
G1 X13.301 Y-12.1622
G1 X13.8806 Y-12.0069
G1 F500.0 X14.4602 Y-11.8517
G1 F1000.0 X14.3049 Y-11.2721
G1 X12.5662 Y-11.738
G1 X19.7614 Y-38.5907
G1 X21.5 Y-38.1248
G1 X14.4602 Y-11.8517
G1 F500.0 X13.8806 Y-12.0069
G1 Z-3.0
G1 F1000.0 X20.7652 Y-37.7006
G1 X20.1856 Y-37.8559
G1 X13.301 Y-12.1622
G1 X13.8806 Y-12.0069
G1 F500.0 X14.4602 Y-11.8517
G1 F1000.0 X14.3049 Y-11.2721
G1 X12.5662 Y-11.738
G1 X19.7614 Y-38.5907
G1 X21.5 Y-38.1248
G1 X14.4602 Y-11.8517
G1 F500.0 X13.8806 Y-12.0069
G1 Z-4.0
G1 F1000.0 X20.7652 Y-37.7006
G1 X20.1856 Y-37.8559
G1 X13.301 Y-12.1622
G1 X13.8806 Y-12.0069
G1 F500.0 X14.4602 Y-11.8517
G1 F1000.0 X14.3049 Y-11.2721
G1 X12.5662 Y-11.738
G1 X19.7614 Y-38.5907
G1 X21.5 Y-38.1248
G1 X14.4602 Y-11.8517
G1 F500.0 X13.8806 Y-12.0069
G1 Z-5.0
G1 F1000.0 X20.7652 Y-37.7006
G1 X20.1856 Y-37.8559
G1 X13.301 Y-12.1622
G1 X13.8806 Y-12.0069
G1 F500.0 X14.4602 Y-11.8517
G1 F1000.0 X14.3049 Y-11.2721
G1 X12.5662 Y-11.738
G1 X19.7614 Y-38.5907
G1 X21.5 Y-38.1248
G1 X14.4602 Y-11.8517
G1 F500.0 X13.8806 Y-12.0069
G1 Z-6.0
G1 F1000.0 X20.7652 Y-37.7006
G1 X20.1856 Y-37.8559
G1 X13.301 Y-12.1622
G1 X13.8806 Y-12.0069
G1 F500.0 X14.4602 Y-11.8517
G1 F1000.0 X21.5 Y-38.1248
G1 X19.7614 Y-38.5907
G1 X12.5662 Y-11.738
G1 X14.3049 Y-11.2721
G1 X14.4602 Y-11.8517
G1 F500.0 X14.5567 Y-11.8258
G1 F1000.0 X21.6225 Y-38.1955
G1 X19.6907 Y-38.7132
G1 X12.4437 Y-11.6673
G1 X14.3756 Y-11.1496
G1 X14.5567 Y-11.8258
G0 Z3.0
G0 X1.3249 Y-18.3053
G0 Z1.0
G1 F500.0 Z-1.0
G1 F1000.0 X-11.9751 Y-41.3415
G1 X-12.4947 Y-41.0415
G1 X0.8053 Y-18.0053
G1 X1.3249 Y-18.3053
G1 F500.0 X1.6249 Y-17.7856
G1 F1000.0 X0.5856 Y-17.1856
G1 X-13.3144 Y-41.2611
G1 X-11.7555 Y-42.1611
G1 X2.1445 Y-18.0856
G1 X1.6249 Y-17.7856
G1 F500.0 X1.3249 Y-18.3053
G1 Z-2.0
G1 F1000.0 X-11.9751 Y-41.3415
G1 X-12.4947 Y-41.0415
G1 X0.8053 Y-18.0053
G1 X1.3249 Y-18.3053
G1 F500.0 X1.6249 Y-17.7856
G1 F1000.0 X0.5856 Y-17.1856
G1 X-13.3144 Y-41.2611
G1 X-11.7555 Y-42.1611
G1 X2.1445 Y-18.0856
G1 X1.6249 Y-17.7856
G1 F500.0 X1.3249 Y-18.3053
G1 Z-3.0
G1 F1000.0 X-11.9751 Y-41.3415
G1 X-12.4947 Y-41.0415
G1 X0.8053 Y-18.0053
G1 X1.3249 Y-18.3053
G1 F500.0 X1.6249 Y-17.7856
G1 F1000.0 X0.5856 Y-17.1856
G1 X-13.3144 Y-41.2611
G1 X-11.7555 Y-42.1611
G1 X2.1445 Y-18.0856
G1 X1.6249 Y-17.7856
G1 F500.0 X1.3249 Y-18.3053
G1 Z-4.0
G1 F1000.0 X-11.9751 Y-41.3415
G1 X-12.4947 Y-41.0415
G1 X0.8053 Y-18.0053
G1 X1.3249 Y-18.3053
G1 F500.0 X1.6249 Y-17.7856
G1 F1000.0 X0.5856 Y-17.1856
G1 X-13.3144 Y-41.2611
G1 X-11.7555 Y-42.1611
G1 X2.1445 Y-18.0856
G1 X1.6249 Y-17.7856
G1 F500.0 X1.3249 Y-18.3053
G1 Z-5.0
G1 F1000.0 X-11.9751 Y-41.3415
G1 X-12.4947 Y-41.0415
G1 X0.8053 Y-18.0053
G1 X1.3249 Y-18.3053
G1 F500.0 X1.6249 Y-17.7856
G1 F1000.0 X0.5856 Y-17.1856
G1 X-13.3144 Y-41.2611
G1 X-11.7555 Y-42.1611
G1 X2.1445 Y-18.0856
G1 X1.6249 Y-17.7856
G1 F500.0 X1.3249 Y-18.3053
G1 Z-6.0
G1 F1000.0 X-11.9751 Y-41.3415
G1 X-12.4947 Y-41.0415
G1 X0.8053 Y-18.0053
G1 X1.3249 Y-18.3053
G1 F500.0 X1.6249 Y-17.7856
G1 F1000.0 X2.1445 Y-18.0856
G1 X-11.7555 Y-42.1611
G1 X-13.3144 Y-41.2611
G1 X0.5856 Y-17.1856
G1 X1.6249 Y-17.7856
G1 F500.0 X1.6749 Y-17.699
G1 F1000.0 X2.2811 Y-18.049
G1 X-11.7189 Y-42.2977
G1 X-13.451 Y-41.2977
G1 X0.549 Y-17.049
G1 X1.6749 Y-17.699
G0 Z3.0
G0 X-12.0069 Y-13.8806
G0 Z1.0
G1 F500.0 Z-1.0
G1 F1000.0 X-37.7006 Y-20.7652
G1 X-37.8559 Y-20.1856
G1 X-12.1622 Y-13.301
G1 X-12.0069 Y-13.8806
G1 F500.0 X-11.8517 Y-14.4602
G1 F1000.0 X-11.2721 Y-14.3049
G1 X-11.738 Y-12.5662
G1 X-38.5907 Y-19.7614
G1 X-38.1248 Y-21.5
G1 X-11.8517 Y-14.4602
G1 F500.0 X-12.0069 Y-13.8806
G1 Z-2.0
G1 F1000.0 X-37.7006 Y-20.7652
G1 X-37.8559 Y-20.1856
G1 X-12.1622 Y-13.301
G1 X-12.0069 Y-13.8806
G1 F500.0 X-11.8517 Y-14.4602
G1 F1000.0 X-11.2721 Y-14.3049
G1 X-11.738 Y-12.5662
G1 X-38.5907 Y-19.7614
G1 X-38.1248 Y-21.5
G1 X-11.8517 Y-14.4602
G1 F500.0 X-12.0069 Y-13.8806
G1 Z-3.0
G1 F1000.0 X-37.7006 Y-20.7652
G1 X-37.8559 Y-20.1856
G1 X-12.1622 Y-13.301
G1 X-12.0069 Y-13.8806
G1 F500.0 X-11.8517 Y-14.4602
G1 F1000.0 X-11.2721 Y-14.3049
G1 X-11.738 Y-12.5662
G1 X-38.5907 Y-19.7614
G1 X-38.1248 Y-21.5
G1 X-11.8517 Y-14.4602
G1 F500.0 X-12.0069 Y-13.8806
G1 Z-4.0
G1 F1000.0 X-37.7006 Y-20.7652
G1 X-37.8559 Y-20.1856
G1 X-12.1622 Y-13.301
G1 X-12.0069 Y-13.8806
G1 F500.0 X-11.8517 Y-14.4602
G1 F1000.0 X-11.2721 Y-14.3049
G1 X-11.738 Y-12.5662
G1 X-38.5907 Y-19.7614
G1 X-38.1248 Y-21.5
G1 X-11.8517 Y-14.4602
G1 F500.0 X-12.0069 Y-13.8806
G1 Z-5.0
G1 F1000.0 X-37.7006 Y-20.7652
G1 X-37.8559 Y-20.1856
G1 X-12.1622 Y-13.301
G1 X-12.0069 Y-13.8806
G1 F500.0 X-11.8517 Y-14.4602
G1 F1000.0 X-11.2721 Y-14.3049
G1 X-11.738 Y-12.5662
G1 X-38.5907 Y-19.7614
G1 X-38.1248 Y-21.5
G1 X-11.8517 Y-14.4602
G1 F500.0 X-12.0069 Y-13.8806
G1 Z-6.0
G1 F1000.0 X-37.7006 Y-20.7652
G1 X-37.8559 Y-20.1856
G1 X-12.1622 Y-13.301
G1 X-12.0069 Y-13.8806
G1 F500.0 X-11.8517 Y-14.4602
G1 F1000.0 X-38.1248 Y-21.5
G1 X-38.5907 Y-19.7614
G1 X-11.738 Y-12.5662
G1 X-11.2721 Y-14.3049
G1 X-11.8517 Y-14.4602
G1 F500.0 X-11.8258 Y-14.5567
G1 F1000.0 X-38.1955 Y-21.6225
G1 X-38.7132 Y-19.6907
G1 X-11.6673 Y-12.4437
G1 X-11.1496 Y-14.3756
G1 X-11.8258 Y-14.5567
( Rohr )
S2000
G0 Z3.0
G0 X13.5 Y0.0
G0 Z1.0
G1 F500.0 Z-1.0
G2 F1000.0 X-6.75 Y-11.6913 I-13.5 J0.0
G2 Y11.6913 I6.75 J11.6913
G2 X13.5 Y0.0 I6.75 J-11.6913
G1 F500.0 Z-2.0
G2 F1000.0 X-6.75 Y-11.6913 I-13.5 J0.0
G2 Y11.6913 I6.75 J11.6913
G2 X13.5 Y0.0 I6.75 J-11.6913
G1 F500.0 Z-3.0
G2 F1000.0 X-6.75 Y-11.6913 I-13.5 J0.0
G2 Y11.6913 I6.75 J11.6913
G2 X13.5 Y0.0 I6.75 J-11.6913
G1 F500.0 Z-4.0
G2 F1000.0 X-6.75 Y-11.6913 I-13.5 J0.0
G2 Y11.6913 I6.75 J11.6913
G2 X13.5 Y0.0 I6.75 J-11.6913
G1 F500.0 Z-5.0
G2 F1000.0 X-6.75 Y-11.6913 I-13.5 J0.0
G2 Y11.6913 I6.75 J11.6913
G2 X13.5 Y0.0 I6.75 J-11.6913
G1 F500.0 Z-6.0
G2 F1000.0 X-6.75 Y-11.6913 I-13.5 J0.0
G2 Y11.6913 I6.75 J11.6913
G2 X13.5 Y0.0 I6.75 J-11.6913
G1 F500.0 Z-7.0
G2 F1000.0 X-6.75 Y-11.6913 I-13.5 J0.0
G2 Y11.6913 I6.75 J11.6913
G2 X13.5 Y0.0 I6.75 J-11.6913
G1 F500.0 Z-8.0
G2 F1000.0 X-6.75 Y-11.6913 I-13.5 J0.0
G2 Y11.6913 I6.75 J11.6913
G2 X13.5 Y0.0 I6.75 J-11.6913
G1 F500.0 Z-9.0
G2 F1000.0 X-6.75 Y-11.6913 I-13.5 J0.0
G2 Y11.6913 I6.75 J11.6913
G2 X13.5 Y0.0 I6.75 J-11.6913
G1 F500.0 Z-10.0
G2 F1000.0 X-6.75 Y-11.6913 I-13.5 J0.0
G2 Y11.6913 I6.75 J11.6913
G2 X13.5 Y0.0 I6.75 J-11.6913
( Welle )
G0 Z3.0
( T6 : 6.0 )
( Tool Taper coming soon )
( TOOL/MILL,6.0,0.0,0.0,0 )
T6 M6
M3 S2000
G0 X0.0
G0 Z3.0
G0 X1.0 Y0.0
G0 Z1.0
G1 F500.0 Z0.0
G2 F1000.0 X-0.5 Y-0.866 Z-0.3333 I-1.0 J0.0
G2 Y0.866 Z-0.6667 I0.5 J0.866
G2 X1.0 Y0.0 Z-1.0 I0.5 J-0.866
G2 X-0.5 Y-0.866 Z-1.3333 I-1.0 J0.0
G2 Y0.866 Z-1.6667 I0.5 J0.866
G2 X1.0 Y0.0 Z-2.0 I0.5 J-0.866
G2 X-0.5 Y-0.866 Z-2.3333 I-1.0 J0.0
G2 Y0.866 Z-2.6667 I0.5 J0.866
G2 X1.0 Y0.0 Z-3.0 I0.5 J-0.866
G2 X-0.5 Y-0.866 Z-3.3333 I-1.0 J0.0
G2 Y0.866 Z-3.6667 I0.5 J0.866
G2 X1.0 Y0.0 Z-4.0 I0.5 J-0.866
G2 X-0.5 Y-0.866 Z-4.3333 I-1.0 J0.0
G2 Y0.866 Z-4.6667 I0.5 J0.866
G2 X1.0 Y0.0 Z-5.0 I0.5 J-0.866
G2 X-0.5 Y-0.866 Z-5.3333 I-1.0 J0.0
G2 Y0.866 Z-5.6667 I0.5 J0.866
G2 X1.0 Y0.0 Z-6.0 I0.5 J-0.866
G2 X-0.5 Y-0.866 Z-6.3333 I-1.0 J0.0
G2 Y0.866 Z-6.6667 I0.5 J0.866
G2 X1.0 Y0.0 Z-7.0 I0.5 J-0.866
G2 X-0.5 Y-0.866 Z-7.3333 I-1.0 J0.0
G2 Y0.866 Z-7.6667 I0.5 J0.866
G2 X1.0 Y0.0 Z-8.0 I0.5 J-0.866
G2 X-0.5 Y-0.866 Z-8.3333 I-1.0 J0.0
G2 Y0.866 Z-8.6667 I0.5 J0.866
G2 X1.0 Y0.0 Z-9.0 I0.5 J-0.866
G2 X-0.5 Y-0.866 Z-9.3333 I-1.0 J0.0
G2 Y0.866 Z-9.6667 I0.5 J0.866
G2 X1.0 Y0.0 Z-10.0 I0.5 J-0.866
G2 X-0.5 Y-0.866 I-1.0 J0.0
G2 Y0.866 I0.5 J0.866
G2 X1.0 Y0.0 I0.5 J-0.866
( Bohren1 )
G0 Z3.0
( T12 : 2.0 )
( Tool Taper coming soon )
( TOOL/MILL,2.0,0.0,0.0,0 )
T12 M6
M3 S2000
G0 X-8.0
G98
G81 X-8.0 Y0.0 Z-10.0 R3.0 F500.0
G81 X0.0 Y-8.0 Z-10.0
G81 X8.0 Y0.0 Z-10.0
G81 X0.0 Y8.0 Z-10.0
G80
G0 Z3.0
M5
M30
