( Made using CamBam - http://www.cambam.co.uk )
( WasserRad100 10/3/2015 8:12:04 AM )
( T3 : 3.0 )
( T6 : 6.0 )
( T12 : 2.0 )
( CUTVIEWER )
( FROM/0,0,5 )
( Select dummy tool to avoid warnings )
( TOOL/MILL,1,0,20.0,0 )
( STOCK/BLOCK,300.0,210.0,10.0,55.0,55.0,10.0 )
G21 G90 G91.1 G64 G40
G0 Z3.0
( T3 : 3.0 )
( Tool Taper coming soon )
( TOOL/MILL,3.0,0.0,0.0,0 )
T3 M6
( Rad aussen )
G17
M3 S2000
G0 X51.5 Y0.0
G0 Z1.0
G1 F40.0 Z-1.5
G3 F800.0 X-25.75 Y44.6003 I-51.5 J0.0
G3 Y-44.6003 I25.75 J-44.6003
G3 X51.5 Y0.0 I25.75 J44.6003
G1 F40.0 Z-3.0
G3 F800.0 X-25.75 Y44.6003 I-51.5 J0.0
G3 Y-44.6003 I25.75 J-44.6003
G3 X51.5 Y0.0 I25.75 J44.6003
G1 F40.0 Z-4.5
G3 F800.0 X-25.75 Y44.6003 I-51.5 J0.0
G3 Y-44.6003 I25.75 J-44.6003
G3 X51.5 Y0.0 I25.75 J44.6003
G1 F40.0 Z-6.0
G3 F800.0 X-25.75 Y44.6003 I-51.5 J0.0
G3 Y-44.6003 I25.75 J-44.6003
G3 X51.5 Y0.0 I25.75 J44.6003
G1 F40.0 Z-7.5
G3 F800.0 X-25.75 Y44.6003 I-51.5 J0.0
G3 Y-44.6003 I25.75 J-44.6003
G3 X51.5 Y0.0 I25.75 J44.6003
G1 F40.0 Z-9.0
G3 F800.0 X38.4755 Y34.2328 I-51.5 J0.0
G3 X37.4612 Y35.3399 Z-8.0 I-38.4755 J-34.2328
G3 X35.3399 Y37.4612 I-37.4612 J-35.3399
G3 X34.2328 Y38.4755 Z-9.0 I-35.3399 J-37.4612
G3 X-25.75 Y44.6003 I-34.2328 J-38.4755
G3 X-34.2328 Y38.4755 I25.75 J-44.6003
G3 X-35.3399 Y37.4612 Z-8.0 I34.2328 J-38.4755
G3 X-37.4612 Y35.3399 I35.3399 J-37.4612
G3 X-38.4755 Y34.2328 Z-9.0 I37.4612 J-35.3399
G3 Y-34.2328 I38.4755 J-34.2328
G3 X-37.4612 Y-35.3399 Z-8.0 I38.4755 J34.2328
G3 X-35.3399 Y-37.4612 I37.4612 J35.3399
G3 X-34.2328 Y-38.4755 Z-9.0 I35.3399 J37.4612
G3 X-25.75 Y-44.6003 I34.2328 J38.4755
G3 X34.2328 Y-38.4755 I25.75 J44.6003
G3 X35.3399 Y-37.4612 Z-8.0 I-34.2328 J38.4755
G3 X37.4612 Y-35.3399 I-35.3399 J37.4612
G3 X38.4755 Y-34.2328 Z-9.0 I-37.4612 J35.3399
G3 X51.5 Y0.0 I-38.4755 J34.2328
G1 F40.0 Z-10.0
G3 F800.0 X38.4755 Y34.2328 I-51.5 J0.0
G3 X37.4612 Y35.3399 Z-8.0 I-38.4755 J-34.2328
G3 X35.3399 Y37.4612 I-37.4612 J-35.3399
G3 X34.2328 Y38.4755 Z-10.0 I-35.3399 J-37.4612
G3 X-25.75 Y44.6003 I-34.2328 J-38.4755
G3 X-34.2328 Y38.4755 I25.75 J-44.6003
G3 X-35.3399 Y37.4612 Z-8.0 I34.2328 J-38.4755
G3 X-37.4612 Y35.3399 I35.3399 J-37.4612
G3 X-38.4755 Y34.2328 Z-10.0 I37.4612 J-35.3399
G3 Y-34.2328 I38.4755 J-34.2328
G3 X-37.4612 Y-35.3399 Z-8.0 I38.4755 J34.2328
G3 X-35.3399 Y-37.4612 I37.4612 J35.3399
G3 X-34.2328 Y-38.4755 Z-10.0 I35.3399 J37.4612
G3 X-25.75 Y-44.6003 I34.2328 J38.4755
G3 X34.2328 Y-38.4755 I25.75 J44.6003
G3 X35.3399 Y-37.4612 Z-8.0 I-34.2328 J38.4755
G3 X37.4612 Y-35.3399 I-35.3399 J37.4612
G3 X38.4755 Y-34.2328 Z-10.0 I-37.4612 J35.3399
G3 X51.5 Y0.0 I-38.4755 J34.2328
( Schaufel-Taschen )
S2000
G0 Z3.0
G0 X-41.3415 Y11.9751
G0 Z1.0
G1 F40.0 Z-1.5
G1 F800.0 X-41.0415 Y12.4947
G1 X-18.0053 Y-0.8053
G1 X-18.3053 Y-1.3249
G1 X-41.3415 Y11.9751
G1 F40.0 X-41.8611 Y12.2751
G1 F800.0 X-41.2611 Y13.3144
G1 X-17.1856 Y-0.5856
G1 X-18.0856 Y-2.1445
G1 X-42.1611 Y11.7555
G1 X-41.8611 Y12.2751
G1 F40.0 X-41.3415 Y11.9751
G1 Z-3.0
G1 F800.0 X-41.0415 Y12.4947
G1 X-18.0053 Y-0.8053
G1 X-18.3053 Y-1.3249
G1 X-41.3415 Y11.9751
G1 F40.0 X-41.8611 Y12.2751
G1 F800.0 X-42.1611 Y11.7555
G1 X-18.0856 Y-2.1445
G1 X-17.1856 Y-0.5856
G1 X-41.2611 Y13.3144
G1 X-41.8611 Y12.2751
G1 F40.0 X-41.3415 Y11.9751
G1 Z-4.5
G1 F800.0 X-41.0415 Y12.4947
G1 X-18.0053 Y-0.8053
G1 X-18.3053 Y-1.3249
G1 X-41.3415 Y11.9751
G1 F40.0 X-41.8611 Y12.2751
G1 F800.0 X-42.1611 Y11.7555
G1 X-18.0856 Y-2.1445
G1 X-17.1856 Y-0.5856
G1 X-41.2611 Y13.3144
G1 X-41.8611 Y12.2751
G1 F40.0 X-41.3415 Y11.9751
G1 Z-6.0
G1 F800.0 X-41.0415 Y12.4947
G1 X-18.0053 Y-0.8053
G1 X-18.3053 Y-1.3249
G1 X-41.3415 Y11.9751
G1 F40.0 X-41.8611 Y12.2751
G1 F800.0 X-41.2611 Y13.3144
G1 X-17.1856 Y-0.5856
G1 X-18.0856 Y-2.1445
G1 X-42.1611 Y11.7555
G1 X-41.8611 Y12.2751
G1 F40.0 X-41.9477 Y12.3251
G1 F800.0 X-41.2977 Y13.451
G1 X-17.049 Y-0.549
G1 X-18.049 Y-2.2811
G1 X-42.2977 Y11.7189
G1 X-41.9477 Y12.3251
G0 Z3.0
G0 X-15.8403 Y19.3206
G0 Z1.0
G1 F40.0 Z-1.5
G1 F800.0 X-20.7652 Y37.7006
G1 X-20.1856 Y37.8559
G1 X-13.301 Y12.1622
G1 X-13.8806 Y12.0069
G1 X-15.8403 Y19.3206
G1 F40.0 X-16.4198 Y19.1653
G1 F800.0 X-14.3049 Y11.2721
G1 X-12.5662 Y11.738
G1 X-19.7614 Y38.5907
G1 X-21.5 Y38.1248
G1 X-16.4198 Y19.1653
G1 F40.0 X-15.8403 Y19.3206
G1 Z-3.0
G1 F800.0 X-20.7652 Y37.7006
G1 X-20.1856 Y37.8559
G1 X-13.301 Y12.1622
G1 X-13.8806 Y12.0069
G1 X-15.8403 Y19.3206
G1 F40.0 X-16.4198 Y19.1653
G1 F800.0 X-14.3049 Y11.2721
G1 X-12.5662 Y11.738
G1 X-19.7614 Y38.5907
G1 X-21.5 Y38.1248
G1 X-16.4198 Y19.1653
G1 F40.0 X-15.8403 Y19.3206
G1 Z-4.5
G1 F800.0 X-20.7652 Y37.7006
G1 X-20.1856 Y37.8559
G1 X-13.301 Y12.1622
G1 X-13.8806 Y12.0069
G1 X-15.8403 Y19.3206
G1 F40.0 X-16.4198 Y19.1653
G1 F800.0 X-14.3049 Y11.2721
G1 X-12.5662 Y11.738
G1 X-19.7614 Y38.5907
G1 X-21.5 Y38.1248
G1 X-16.4198 Y19.1653
G1 F40.0 X-15.8403 Y19.3206
G1 Z-6.0
G1 F800.0 X-20.7652 Y37.7006
G1 X-20.1856 Y37.8559
G1 X-13.301 Y12.1622
G1 X-13.8806 Y12.0069
G1 X-15.8403 Y19.3206
G1 F40.0 X-16.4198 Y19.1653
G1 F800.0 X-21.5 Y38.1248
G1 X-19.7614 Y38.5907
G1 X-12.5662 Y11.738
G1 X-14.3049 Y11.2721
G1 X-16.4198 Y19.1653
G1 F40.0 X-16.5164 Y19.1394
G1 F800.0 X-21.6225 Y38.1955
G1 X-19.6907 Y38.7132
G1 X-12.4437 Y11.6673
G1 X-14.3756 Y11.1496
G1 X-16.5164 Y19.1394
G0 Z3.0
G0 X-1.3249 Y18.3053
G0 Z1.0
G1 F40.0 Z-1.5
G1 F800.0 X11.9751 Y41.3415
G1 X12.4947 Y41.0415
G1 X-0.8053 Y18.0053
G1 X-1.3249 Y18.3053
G1 F40.0 X-1.8445 Y18.6053
G1 F800.0 X-2.1445 Y18.0856
G1 X-0.5856 Y17.1856
G1 X13.3144 Y41.2611
G1 X11.7555 Y42.1611
G1 X-1.8445 Y18.6053
G1 F40.0 X-1.3249 Y18.3053
G1 Z-3.0
G1 F800.0 X11.9751 Y41.3415
G1 X12.4947 Y41.0415
G1 X-0.8053 Y18.0053
G1 X-1.3249 Y18.3053
G1 F40.0 X-1.8445 Y18.6053
G1 F800.0 X-2.1445 Y18.0856
G1 X-0.5856 Y17.1856
G1 X13.3144 Y41.2611
G1 X11.7555 Y42.1611
G1 X-1.8445 Y18.6053
G1 F40.0 X-1.3249 Y18.3053
G1 Z-4.5
G1 F800.0 X11.9751 Y41.3415
G1 X12.4947 Y41.0415
G1 X-0.8053 Y18.0053
G1 X-1.3249 Y18.3053
G1 F40.0 X-1.8445 Y18.6053
G1 F800.0 X-2.1445 Y18.0856
G1 X-0.5856 Y17.1856
G1 X13.3144 Y41.2611
G1 X11.7555 Y42.1611
G1 X-1.8445 Y18.6053
G1 F40.0 X-1.3249 Y18.3053
G1 Z-6.0
G1 F800.0 X11.9751 Y41.3415
G1 X12.4947 Y41.0415
G1 X-0.8053 Y18.0053
G1 X-1.3249 Y18.3053
G1 F40.0 X-1.8445 Y18.6053
G1 F800.0 X11.7555 Y42.1611
G1 X13.3144 Y41.2611
G1 X-0.5856 Y17.1856
G1 X-2.1445 Y18.0856
G1 X-1.8445 Y18.6053
G1 F40.0 X-1.9311 Y18.6553
G1 F800.0 X11.7189 Y42.2977
G1 X13.451 Y41.2977
G1 X-0.549 Y17.049
G1 X-2.2811 Y18.049
G1 X-1.9311 Y18.6553
G0 Z3.0
G0 X12.0069 Y13.8806
G0 Z1.0
G1 F40.0 Z-1.5
G1 F800.0 X37.7006 Y20.7652
G1 X37.8559 Y20.1856
G1 X12.1622 Y13.301
G1 X12.0069 Y13.8806
G1 F40.0 X11.4274 Y13.7253
G1 F800.0 X11.738 Y12.5662
G1 X38.5907 Y19.7614
G1 X38.1248 Y21.5
G1 X11.2721 Y14.3049
G1 X11.4274 Y13.7253
G1 F40.0 X12.0069 Y13.8806
G1 Z-3.0
G1 F800.0 X37.7006 Y20.7652
G1 X37.8559 Y20.1856
G1 X12.1622 Y13.301
G1 X12.0069 Y13.8806
G1 F40.0 X11.4274 Y13.7253
G1 F800.0 X11.738 Y12.5662
G1 X38.5907 Y19.7614
G1 X38.1248 Y21.5
G1 X11.2721 Y14.3049
G1 X11.4274 Y13.7253
G1 F40.0 X12.0069 Y13.8806
G1 Z-4.5
G1 F800.0 X37.7006 Y20.7652
G1 X37.8559 Y20.1856
G1 X12.1622 Y13.301
G1 X12.0069 Y13.8806
G1 F40.0 X11.4274 Y13.7253
G1 F800.0 X11.738 Y12.5662
G1 X38.5907 Y19.7614
G1 X38.1248 Y21.5
G1 X11.2721 Y14.3049
G1 X11.4274 Y13.7253
G1 F40.0 X12.0069 Y13.8806
G1 Z-6.0
G1 F800.0 X37.7006 Y20.7652
G1 X37.8559 Y20.1856
G1 X12.1622 Y13.301
G1 X12.0069 Y13.8806
G1 F40.0 X11.4274 Y13.7253
G1 F800.0 X11.2721 Y14.3049
G1 X38.1248 Y21.5
G1 X38.5907 Y19.7614
G1 X11.738 Y12.5662
G1 X11.4274 Y13.7253
G1 F40.0 X11.3308 Y13.6994
G1 F800.0 X11.1496 Y14.3756
G1 X38.1955 Y21.6225
G1 X38.7132 Y19.6907
G1 X11.6673 Y12.4437
G1 X11.3308 Y13.6994
G0 Z3.0
G0 X18.3053 Y1.3249
G0 Z1.0
G1 F40.0 Z-1.5
G1 F800.0 X41.3415 Y-11.9751
G1 X41.0415 Y-12.4947
G1 X18.0053 Y0.8053
G1 X18.3053 Y1.3249
G1 F40.0 X18.6053 Y1.8445
G1 F800.0 X18.0856 Y2.1445
G1 X17.1856 Y0.5856
G1 X41.2611 Y-13.3144
G1 X42.1611 Y-11.7555
G1 X18.6053 Y1.8445
G1 F40.0 X18.3053 Y1.3249
G1 Z-3.0
G1 F800.0 X41.3415 Y-11.9751
G1 X41.0415 Y-12.4947
G1 X18.0053 Y0.8053
G1 X18.3053 Y1.3249
G1 F40.0 X18.6053 Y1.8445
G1 F800.0 X18.0856 Y2.1445
G1 X17.1856 Y0.5856
G1 X41.2611 Y-13.3144
G1 X42.1611 Y-11.7555
G1 X18.6053 Y1.8445
G1 F40.0 X18.3053 Y1.3249
G1 Z-4.5
G1 F800.0 X41.3415 Y-11.9751
G1 X41.0415 Y-12.4947
G1 X18.0053 Y0.8053
G1 X18.3053 Y1.3249
G1 F40.0 X18.6053 Y1.8445
G1 F800.0 X18.0856 Y2.1445
G1 X17.1856 Y0.5856
G1 X41.2611 Y-13.3144
G1 X42.1611 Y-11.7555
G1 X18.6053 Y1.8445
G1 F40.0 X18.3053 Y1.3249
G1 Z-6.0
G1 F800.0 X41.3415 Y-11.9751
G1 X41.0415 Y-12.4947
G1 X18.0053 Y0.8053
G1 X18.3053 Y1.3249
G1 F40.0 X18.6053 Y1.8445
G1 F800.0 X42.1611 Y-11.7555
G1 X41.2611 Y-13.3144
G1 X17.1856 Y0.5856
G1 X18.0856 Y2.1445
G1 X18.6053 Y1.8445
G1 F40.0 X18.6553 Y1.9311
G1 F800.0 X42.2977 Y-11.7189
G1 X41.2977 Y-13.451
G1 X17.049 Y0.549
G1 X18.049 Y2.2811
G1 X18.6553 Y1.9311
G0 Z3.0
G0 X13.8806 Y-12.0069
G0 Z1.0
G1 F40.0 Z-1.5
G1 F800.0 X20.7652 Y-37.7006
G1 X20.1856 Y-37.8559
G1 X13.301 Y-12.1622
G1 X13.8806 Y-12.0069
G1 F40.0 X13.7253 Y-11.4274
G1 F800.0 X12.5662 Y-11.738
G1 X19.7614 Y-38.5907
G1 X21.5 Y-38.1248
G1 X14.3049 Y-11.2721
G1 X13.7253 Y-11.4274
G1 F40.0 X13.8806 Y-12.0069
G1 Z-3.0
G1 F800.0 X20.7652 Y-37.7006
G1 X20.1856 Y-37.8559
G1 X13.301 Y-12.1622
G1 X13.8806 Y-12.0069
G1 F40.0 X13.7253 Y-11.4274
G1 F800.0 X12.5662 Y-11.738
G1 X19.7614 Y-38.5907
G1 X21.5 Y-38.1248
G1 X14.3049 Y-11.2721
G1 X13.7253 Y-11.4274
G1 F40.0 X13.8806 Y-12.0069
G1 Z-4.5
G1 F800.0 X20.7652 Y-37.7006
G1 X20.1856 Y-37.8559
G1 X13.301 Y-12.1622
G1 X13.8806 Y-12.0069
G1 F40.0 X13.7253 Y-11.4274
G1 F800.0 X12.5662 Y-11.738
G1 X19.7614 Y-38.5907
G1 X21.5 Y-38.1248
G1 X14.3049 Y-11.2721
G1 X13.7253 Y-11.4274
G1 F40.0 X13.8806 Y-12.0069
G1 Z-6.0
G1 F800.0 X20.7652 Y-37.7006
G1 X20.1856 Y-37.8559
G1 X13.301 Y-12.1622
G1 X13.8806 Y-12.0069
G1 F40.0 X13.7253 Y-11.4274
G1 F800.0 X14.3049 Y-11.2721
G1 X21.5 Y-38.1248
G1 X19.7614 Y-38.5907
G1 X12.5662 Y-11.738
G1 X13.7253 Y-11.4274
G1 F40.0 X13.6994 Y-11.3308
G1 F800.0 X14.3756 Y-11.1496
G1 X21.6225 Y-38.1955
G1 X19.6907 Y-38.7132
G1 X12.4437 Y-11.6673
G1 X13.6994 Y-11.3308
G0 Z3.0
G0 X1.3249 Y-18.3053
G0 Z1.0
G1 F40.0 Z-1.5
G1 F800.0 X-11.9751 Y-41.3415
G1 X-12.4947 Y-41.0415
G1 X0.8053 Y-18.0053
G1 X1.3249 Y-18.3053
G1 F40.0 X1.6249 Y-17.7856
G1 F800.0 X0.5856 Y-17.1856
G1 X-13.3144 Y-41.2611
G1 X-11.7555 Y-42.1611
G1 X2.1445 Y-18.0856
G1 X1.6249 Y-17.7856
G1 F40.0 X1.3249 Y-18.3053
G1 Z-3.0
G1 F800.0 X-11.9751 Y-41.3415
G1 X-12.4947 Y-41.0415
G1 X0.8053 Y-18.0053
G1 X1.3249 Y-18.3053
G1 F40.0 X1.6249 Y-17.7856
G1 F800.0 X0.5856 Y-17.1856
G1 X-13.3144 Y-41.2611
G1 X-11.7555 Y-42.1611
G1 X2.1445 Y-18.0856
G1 X1.6249 Y-17.7856
G1 F40.0 X1.3249 Y-18.3053
G1 Z-4.5
G1 F800.0 X-11.9751 Y-41.3415
G1 X-12.4947 Y-41.0415
G1 X0.8053 Y-18.0053
G1 X1.3249 Y-18.3053
G1 F40.0 X1.6249 Y-17.7856
G1 F800.0 X0.5856 Y-17.1856
G1 X-13.3144 Y-41.2611
G1 X-11.7555 Y-42.1611
G1 X2.1445 Y-18.0856
G1 X1.6249 Y-17.7856
G1 F40.0 X1.3249 Y-18.3053
G1 Z-6.0
G1 F800.0 X-11.9751 Y-41.3415
G1 X-12.4947 Y-41.0415
G1 X0.8053 Y-18.0053
G1 X1.3249 Y-18.3053
G1 F40.0 X1.6249 Y-17.7856
G1 F800.0 X2.1445 Y-18.0856
G1 X-11.7555 Y-42.1611
G1 X-13.3144 Y-41.2611
G1 X0.5856 Y-17.1856
G1 X1.6249 Y-17.7856
G1 F40.0 X1.6749 Y-17.699
G1 F800.0 X2.2811 Y-18.049
G1 X-11.7189 Y-42.2977
G1 X-13.451 Y-41.2977
G1 X0.549 Y-17.049
G1 X1.6749 Y-17.699
G0 Z3.0
G0 X-12.0069 Y-13.8806
G0 Z1.0
G1 F40.0 Z-1.5
G1 F800.0 X-37.7006 Y-20.7652
G1 X-37.8559 Y-20.1856
G1 X-12.1622 Y-13.301
G1 X-12.0069 Y-13.8806
G1 F40.0 X-11.4274 Y-13.7253
G1 F800.0 X-11.738 Y-12.5662
G1 X-38.5907 Y-19.7614
G1 X-38.1248 Y-21.5
G1 X-11.2721 Y-14.3049
G1 X-11.4274 Y-13.7253
G1 F40.0 X-12.0069 Y-13.8806
G1 Z-3.0
G1 F800.0 X-37.7006 Y-20.7652
G1 X-37.8559 Y-20.1856
G1 X-12.1622 Y-13.301
G1 X-12.0069 Y-13.8806
G1 F40.0 X-11.4274 Y-13.7253
G1 F800.0 X-11.738 Y-12.5662
G1 X-38.5907 Y-19.7614
G1 X-38.1248 Y-21.5
G1 X-11.2721 Y-14.3049
G1 X-11.4274 Y-13.7253
G1 F40.0 X-12.0069 Y-13.8806
G1 Z-4.5
G1 F800.0 X-37.7006 Y-20.7652
G1 X-37.8559 Y-20.1856
G1 X-12.1622 Y-13.301
G1 X-12.0069 Y-13.8806
G1 F40.0 X-11.4274 Y-13.7253
G1 F800.0 X-11.738 Y-12.5662
G1 X-38.5907 Y-19.7614
G1 X-38.1248 Y-21.5
G1 X-11.2721 Y-14.3049
G1 X-11.4274 Y-13.7253
G1 F40.0 X-12.0069 Y-13.8806
G1 Z-6.0
G1 F800.0 X-37.7006 Y-20.7652
G1 X-37.8559 Y-20.1856
G1 X-12.1622 Y-13.301
G1 X-12.0069 Y-13.8806
G1 F40.0 X-11.4274 Y-13.7253
G1 F800.0 X-11.2721 Y-14.3049
G1 X-38.1248 Y-21.5
G1 X-38.5907 Y-19.7614
G1 X-11.738 Y-12.5662
G1 X-11.4274 Y-13.7253
G1 F40.0 X-11.3308 Y-13.6994
G1 F800.0 X-11.1496 Y-14.3756
G1 X-38.1955 Y-21.6225
G1 X-38.7132 Y-19.6907
G1 X-11.6673 Y-12.4437
G1 X-11.3308 Y-13.6994
( Schaufel-Taschen-Ecken )
S2000
G0 Z3.0
G0 X-38.1955 Y-21.6225
G1 F40.0 Z-1.5
G1 F800.0 X-38.7132 Y-19.6907
G1 X-39.2513 Y-19.38
G1 X-38.7132 Y-19.6907
G1 X-11.6673 Y-12.4437
G1 X-11.3566 Y-11.9056
G1 X-11.6673 Y-12.4437
G1 X-11.1496 Y-14.3756
G1 X-10.6115 Y-14.6862
G1 X-11.1496 Y-14.3756
G1 X-38.1955 Y-21.6225
G1 X-38.5062 Y-22.1606
G1 X-38.1955 Y-21.6225
G1 F40.0 Z-3.0
G1 F800.0 X-38.7132 Y-19.6907
G1 X-39.2513 Y-19.38
G1 X-38.7132 Y-19.6907
G1 X-11.6673 Y-12.4437
G1 X-11.3566 Y-11.9056
G1 X-11.6673 Y-12.4437
G1 X-11.1496 Y-14.3756
G1 X-10.6115 Y-14.6862
G1 X-11.1496 Y-14.3756
G1 X-38.1955 Y-21.6225
G1 X-38.5062 Y-22.1606
G1 X-38.1955 Y-21.6225
G1 F40.0 Z-4.5
G1 F800.0 X-38.7132 Y-19.6907
G1 X-39.2513 Y-19.38
G1 X-38.7132 Y-19.6907
G1 X-11.6673 Y-12.4437
G1 X-11.3566 Y-11.9056
G1 X-11.6673 Y-12.4437
G1 X-11.1496 Y-14.3756
G1 X-10.6115 Y-14.6862
G1 X-11.1496 Y-14.3756
G1 X-38.1955 Y-21.6225
G1 X-38.5062 Y-22.1606
G1 X-38.1955 Y-21.6225
G0 Z-5.0
G1 F40.0 Z-6.0
G1 F800.0 X-38.7132 Y-19.6907
G1 X-39.2513 Y-19.38
G1 X-38.7132 Y-19.6907
G1 X-11.6673 Y-12.4437
G1 X-11.3566 Y-11.9056
G1 X-11.6673 Y-12.4437
G1 X-11.1496 Y-14.3756
G1 X-10.6115 Y-14.6862
G1 X-11.1496 Y-14.3756
G1 X-38.1955 Y-21.6225
G1 X-38.5062 Y-22.1606
G1 X-38.1955 Y-21.6225
G0 Z3.0
G0 X-24.7838 Y1.6073
G0 Z1.0
G1 F40.0 Z-1.5
G1 F800.0 X-42.2977 Y11.7189
G1 X-42.8979 Y11.5581
G1 X-42.2977 Y11.7189
G1 X-41.2977 Y13.451
G1 X-41.4586 Y14.0511
G1 X-41.2977 Y13.451
G1 X-17.049 Y-0.549
G1 X-16.4489 Y-0.3882
G1 X-17.049 Y-0.549
G1 X-18.049 Y-2.2811
G1 X-17.8882 Y-2.8812
G1 X-18.049 Y-2.2811
G1 X-24.7838 Y1.6073
G1 F40.0 Z-3.0
G1 F800.0 X-42.2977 Y11.7189
G1 X-42.8979 Y11.5581
G1 X-42.2977 Y11.7189
G1 X-41.2977 Y13.451
G1 X-41.4586 Y14.0511
G1 X-41.2977 Y13.451
G1 X-17.049 Y-0.549
G1 X-16.4489 Y-0.3882
G1 X-17.049 Y-0.549
G1 X-18.049 Y-2.2811
G1 X-17.8882 Y-2.8812
G1 X-18.049 Y-2.2811
G1 X-24.7838 Y1.6073
G1 F40.0 Z-4.5
G1 F800.0 X-42.2977 Y11.7189
G1 X-42.8979 Y11.5581
G1 X-42.2977 Y11.7189
G1 X-41.2977 Y13.451
G1 X-41.4586 Y14.0511
G1 X-41.2977 Y13.451
G1 X-17.049 Y-0.549
G1 X-16.4489 Y-0.3882
G1 X-17.049 Y-0.549
G1 X-18.049 Y-2.2811
G1 X-17.8882 Y-2.8812
G1 X-18.049 Y-2.2811
G1 X-24.7838 Y1.6073
G1 F40.0 Z-6.0
G1 F800.0 X-42.2977 Y11.7189
G1 X-42.8979 Y11.5581
G1 X-42.2977 Y11.7189
G1 X-41.2977 Y13.451
G1 X-41.4586 Y14.0511
G1 X-41.2977 Y13.451
G1 X-17.049 Y-0.549
G1 X-16.4489 Y-0.3882
G1 X-17.049 Y-0.549
G1 X-18.049 Y-2.2811
G1 X-17.8882 Y-2.8812
G1 X-18.049 Y-2.2811
G1 X-24.7838 Y1.6073
G0 Z3.0
G0 X-14.6862 Y10.6115
G0 Z1.0
G1 F40.0 Z-1.5
G1 F800.0 X-14.3756 Y11.1496
G1 X-21.6225 Y38.1955
G1 X-22.1606 Y38.5062
G1 X-21.6225 Y38.1955
G1 X-19.6907 Y38.7132
G1 X-19.38 Y39.2513
G1 X-19.6907 Y38.7132
G1 X-12.4437 Y11.6673
G1 X-11.9056 Y11.3566
G1 X-12.4437 Y11.6673
G1 X-14.3756 Y11.1496
G1 X-14.6862 Y10.6115
G1 F40.0 Z-3.0
G1 F800.0 X-14.3756 Y11.1496
G1 X-21.6225 Y38.1955
G1 X-22.1606 Y38.5062
G1 X-21.6225 Y38.1955
G1 X-19.6907 Y38.7132
G1 X-19.38 Y39.2513
G1 X-19.6907 Y38.7132
G1 X-12.4437 Y11.6673
G1 X-11.9056 Y11.3566
G1 X-12.4437 Y11.6673
G1 X-14.3756 Y11.1496
G1 X-14.6862 Y10.6115
G1 F40.0 Z-4.5
G1 F800.0 X-14.3756 Y11.1496
G1 X-21.6225 Y38.1955
G1 X-22.1606 Y38.5062
G1 X-21.6225 Y38.1955
G1 X-19.6907 Y38.7132
G1 X-19.38 Y39.2513
G1 X-19.6907 Y38.7132
G1 X-12.4437 Y11.6673
G1 X-11.9056 Y11.3566
G1 X-12.4437 Y11.6673
G1 X-14.3756 Y11.1496
G1 X-14.6862 Y10.6115
G1 F40.0 Z-6.0
G1 F800.0 X-14.3756 Y11.1496
G1 X-21.6225 Y38.1955
G1 X-22.1606 Y38.5062
G1 X-21.6225 Y38.1955
G1 X-19.6907 Y38.7132
G1 X-19.38 Y39.2513
G1 X-19.6907 Y38.7132
G1 X-12.4437 Y11.6673
G1 X-11.9056 Y11.3566
G1 X-12.4437 Y11.6673
G1 X-14.3756 Y11.1496
G1 X-14.6862 Y10.6115
G0 Z3.0
G0 X-2.8812 Y17.8882
G0 Z1.0
G1 F40.0 Z-1.5
G1 F800.0 X-2.2811 Y18.049
G1 X11.7189 Y42.2977
G1 X11.5581 Y42.8979
G1 X11.7189 Y42.2977
G1 X13.451 Y41.2977
G1 X14.0511 Y41.4586
G1 X13.451 Y41.2977
G1 X-0.549 Y17.049
G1 X-0.3882 Y16.4489
G1 X-0.549 Y17.049
G1 X-2.2811 Y18.049
G1 X-2.8812 Y17.8882
G1 F40.0 Z-3.0
G1 F800.0 X-2.2811 Y18.049
G1 X11.7189 Y42.2977
G1 X11.5581 Y42.8979
G1 X11.7189 Y42.2977
G1 X13.451 Y41.2977
G1 X14.0511 Y41.4586
G1 X13.451 Y41.2977
G1 X-0.549 Y17.049
G1 X-0.3882 Y16.4489
G1 X-0.549 Y17.049
G1 X-2.2811 Y18.049
G1 X-2.8812 Y17.8882
G1 F40.0 Z-4.5
G1 F800.0 X-2.2811 Y18.049
G1 X11.7189 Y42.2977
G1 X11.5581 Y42.8979
G1 X11.7189 Y42.2977
G1 X13.451 Y41.2977
G1 X14.0511 Y41.4586
G1 X13.451 Y41.2977
G1 X-0.549 Y17.049
G1 X-0.3882 Y16.4489
G1 X-0.549 Y17.049
G1 X-2.2811 Y18.049
G1 X-2.8812 Y17.8882
G1 F40.0 Z-6.0
G1 F800.0 X-2.2811 Y18.049
G1 X11.7189 Y42.2977
G1 X11.5581 Y42.8979
G1 X11.7189 Y42.2977
G1 X13.451 Y41.2977
G1 X14.0511 Y41.4586
G1 X13.451 Y41.2977
G1 X-0.549 Y17.049
G1 X-0.3882 Y16.4489
G1 X-0.549 Y17.049
G1 X-2.2811 Y18.049
G1 X-2.8812 Y17.8882
G0 Z3.0
G0 X10.6115 Y14.6862
G0 Z1.0
G1 F40.0 Z-1.5
G1 F800.0 X11.1496 Y14.3756
G1 X38.1955 Y21.6225
G1 X38.5062 Y22.1606
G1 X38.1955 Y21.6225
G1 X38.7132 Y19.6907
G1 X39.2513 Y19.38
G1 X38.7132 Y19.6907
G1 X11.6673 Y12.4437
G1 X11.3566 Y11.9056
G1 X11.6673 Y12.4437
G1 X11.1496 Y14.3756
G1 X10.6115 Y14.6862
G1 F40.0 Z-3.0
G1 F800.0 X11.1496 Y14.3756
G1 X38.1955 Y21.6225
G1 X38.5062 Y22.1606
G1 X38.1955 Y21.6225
G1 X38.7132 Y19.6907
G1 X39.2513 Y19.38
G1 X38.7132 Y19.6907
G1 X11.6673 Y12.4437
G1 X11.3566 Y11.9056
G1 X11.6673 Y12.4437
G1 X11.1496 Y14.3756
G1 X10.6115 Y14.6862
G1 F40.0 Z-4.5
G1 F800.0 X11.1496 Y14.3756
G1 X38.1955 Y21.6225
G1 X38.5062 Y22.1606
G1 X38.1955 Y21.6225
G1 X38.7132 Y19.6907
G1 X39.2513 Y19.38
G1 X38.7132 Y19.6907
G1 X11.6673 Y12.4437
G1 X11.3566 Y11.9056
G1 X11.6673 Y12.4437
G1 X11.1496 Y14.3756
G1 X10.6115 Y14.6862
G1 F40.0 Z-6.0
G1 F800.0 X11.1496 Y14.3756
G1 X38.1955 Y21.6225
G1 X38.5062 Y22.1606
G1 X38.1955 Y21.6225
G1 X38.7132 Y19.6907
G1 X39.2513 Y19.38
G1 X38.7132 Y19.6907
G1 X11.6673 Y12.4437
G1 X11.3566 Y11.9056
G1 X11.6673 Y12.4437
G1 X11.1496 Y14.3756
G1 X10.6115 Y14.6862
G0 Z3.0
G0 X17.8882 Y2.8812
G0 Z1.0
G1 F40.0 Z-1.5
G1 F800.0 X18.049 Y2.2811
G1 X42.2977 Y-11.7189
G1 X42.8979 Y-11.5581
G1 X42.2977 Y-11.7189
G1 X41.2977 Y-13.451
G1 X41.4586 Y-14.0511
G1 X41.2977 Y-13.451
G1 X17.049 Y0.549
G1 X16.4489 Y0.3882
G1 X17.049 Y0.549
G1 X18.049 Y2.2811
G1 X17.8882 Y2.8812
G1 F40.0 Z-3.0
G1 F800.0 X18.049 Y2.2811
G1 X42.2977 Y-11.7189
G1 X42.8979 Y-11.5581
G1 X42.2977 Y-11.7189
G1 X41.2977 Y-13.451
G1 X41.4586 Y-14.0511
G1 X41.2977 Y-13.451
G1 X17.049 Y0.549
G1 X16.4489 Y0.3882
G1 X17.049 Y0.549
G1 X18.049 Y2.2811
G1 X17.8882 Y2.8812
G1 F40.0 Z-4.5
G1 F800.0 X18.049 Y2.2811
G1 X42.2977 Y-11.7189
G1 X42.8979 Y-11.5581
G1 X42.2977 Y-11.7189
G1 X41.2977 Y-13.451
G1 X41.4586 Y-14.0511
G1 X41.2977 Y-13.451
G1 X17.049 Y0.549
G1 X16.4489 Y0.3882
G1 X17.049 Y0.549
G1 X18.049 Y2.2811
G1 X17.8882 Y2.8812
G1 F40.0 Z-6.0
G1 F800.0 X18.049 Y2.2811
G1 X42.2977 Y-11.7189
G1 X42.8979 Y-11.5581
G1 X42.2977 Y-11.7189
G1 X41.2977 Y-13.451
G1 X41.4586 Y-14.0511
G1 X41.2977 Y-13.451
G1 X17.049 Y0.549
G1 X16.4489 Y0.3882
G1 X17.049 Y0.549
G1 X18.049 Y2.2811
G1 X17.8882 Y2.8812
G0 Z3.0
G0 X14.6862 Y-10.6115
G0 Z1.0
G1 F40.0 Z-1.5
G1 F800.0 X14.3756 Y-11.1496
G1 X21.6225 Y-38.1955
G1 X22.1606 Y-38.5062
G1 X21.6225 Y-38.1955
G1 X19.6907 Y-38.7132
G1 X19.38 Y-39.2513
G1 X19.6907 Y-38.7132
G1 X12.4437 Y-11.6673
G1 X11.9056 Y-11.3566
G1 X12.4437 Y-11.6673
G1 X14.3756 Y-11.1496
G1 X14.6862 Y-10.6115
G1 F40.0 Z-3.0
G1 F800.0 X14.3756 Y-11.1496
G1 X21.6225 Y-38.1955
G1 X22.1606 Y-38.5062
G1 X21.6225 Y-38.1955
G1 X19.6907 Y-38.7132
G1 X19.38 Y-39.2513
G1 X19.6907 Y-38.7132
G1 X12.4437 Y-11.6673
G1 X11.9056 Y-11.3566
G1 X12.4437 Y-11.6673
G1 X14.3756 Y-11.1496
G1 X14.6862 Y-10.6115
G1 F40.0 Z-4.5
G1 F800.0 X14.3756 Y-11.1496
G1 X21.6225 Y-38.1955
G1 X22.1606 Y-38.5062
G1 X21.6225 Y-38.1955
G1 X19.6907 Y-38.7132
G1 X19.38 Y-39.2513
G1 X19.6907 Y-38.7132
G1 X12.4437 Y-11.6673
G1 X11.9056 Y-11.3566
G1 X12.4437 Y-11.6673
G1 X14.3756 Y-11.1496
G1 X14.6862 Y-10.6115
G1 F40.0 Z-6.0
G1 F800.0 X14.3756 Y-11.1496
G1 X21.6225 Y-38.1955
G1 X22.1606 Y-38.5062
G1 X21.6225 Y-38.1955
G1 X19.6907 Y-38.7132
G1 X19.38 Y-39.2513
G1 X19.6907 Y-38.7132
G1 X12.4437 Y-11.6673
G1 X11.9056 Y-11.3566
G1 X12.4437 Y-11.6673
G1 X14.3756 Y-11.1496
G1 X14.6862 Y-10.6115
G0 Z3.0
G0 X2.8812 Y-17.8882
G0 Z1.0
G1 F40.0 Z-1.5
G1 F800.0 X2.2811 Y-18.049
G1 X-11.7189 Y-42.2977
G1 X-11.5581 Y-42.8979
G1 X-11.7189 Y-42.2977
G1 X-13.451 Y-41.2977
G1 X-14.0511 Y-41.4586
G1 X-13.451 Y-41.2977
G1 X0.549 Y-17.049
G1 X0.3882 Y-16.4489
G1 X0.549 Y-17.049
G1 X2.2811 Y-18.049
G1 X2.8812 Y-17.8882
G1 F40.0 Z-3.0
G1 F800.0 X2.2811 Y-18.049
G1 X-11.7189 Y-42.2977
G1 X-11.5581 Y-42.8979
G1 X-11.7189 Y-42.2977
G1 X-13.451 Y-41.2977
G1 X-14.0511 Y-41.4586
G1 X-13.451 Y-41.2977
G1 X0.549 Y-17.049
G1 X0.3882 Y-16.4489
G1 X0.549 Y-17.049
G1 X2.2811 Y-18.049
G1 X2.8812 Y-17.8882
G1 F40.0 Z-4.5
G1 F800.0 X2.2811 Y-18.049
G1 X-11.7189 Y-42.2977
G1 X-11.5581 Y-42.8979
G1 X-11.7189 Y-42.2977
G1 X-13.451 Y-41.2977
G1 X-14.0511 Y-41.4586
G1 X-13.451 Y-41.2977
G1 X0.549 Y-17.049
G1 X0.3882 Y-16.4489
G1 X0.549 Y-17.049
G1 X2.2811 Y-18.049
G1 X2.8812 Y-17.8882
G1 F40.0 Z-6.0
G1 F800.0 X2.2811 Y-18.049
G1 X-11.7189 Y-42.2977
G1 X-11.5581 Y-42.8979
G1 X-11.7189 Y-42.2977
G1 X-13.451 Y-41.2977
G1 X-14.0511 Y-41.4586
G1 X-13.451 Y-41.2977
G1 X0.549 Y-17.049
G1 X0.3882 Y-16.4489
G1 X0.549 Y-17.049
G1 X2.2811 Y-18.049
G1 X2.8812 Y-17.8882
( Rohr )
S2000
G0 Z3.0
G0 X13.5 Y0.0
G0 Z1.0
G1 F40.0 Z-1.0
G2 F800.0 X-6.75 Y-11.6913 I-13.5 J0.0
G2 Y11.6913 I6.75 J11.6913
G2 X13.5 Y0.0 I6.75 J-11.6913
G1 F40.0 Z-2.0
G2 F800.0 X-6.75 Y-11.6913 I-13.5 J0.0
G2 Y11.6913 I6.75 J11.6913
G2 X13.5 Y0.0 I6.75 J-11.6913
G1 F40.0 Z-3.0
G2 F800.0 X-6.75 Y-11.6913 I-13.5 J0.0
G2 Y11.6913 I6.75 J11.6913
G2 X13.5 Y0.0 I6.75 J-11.6913
G1 F40.0 Z-4.0
G2 F800.0 X-6.75 Y-11.6913 I-13.5 J0.0
G2 Y11.6913 I6.75 J11.6913
G2 X13.5 Y0.0 I6.75 J-11.6913
G1 F40.0 Z-5.0
G2 F800.0 X-6.75 Y-11.6913 I-13.5 J0.0
G2 Y11.6913 I6.75 J11.6913
G2 X13.5 Y0.0 I6.75 J-11.6913
( Welle )
G0 Z3.0
( T6 : 6.0 )
( Tool Taper coming soon )
( TOOL/MILL,6.0,0.0,0.0,0 )
T6 M6
M3 S2000
G0 X0.0
G0 Z3.0
G0 X1.0 Y0.0
G0 Z1.0
G1 F40.0 Z0.0
G2 F800.0 X-0.5 Y-0.866 Z-0.3333 I-1.0 J0.0
G2 Y0.866 Z-0.6667 I0.5 J0.866
G2 X1.0 Y0.0 Z-1.0 I0.5 J-0.866
G2 X-0.5 Y-0.866 Z-1.3333 I-1.0 J0.0
G2 Y0.866 Z-1.6667 I0.5 J0.866
G2 X1.0 Y0.0 Z-2.0 I0.5 J-0.866
G2 X-0.5 Y-0.866 Z-2.3333 I-1.0 J0.0
G2 Y0.866 Z-2.6667 I0.5 J0.866
G2 X1.0 Y0.0 Z-3.0 I0.5 J-0.866
G2 X-0.5 Y-0.866 Z-3.3333 I-1.0 J0.0
G2 Y0.866 Z-3.6667 I0.5 J0.866
G2 X1.0 Y0.0 Z-4.0 I0.5 J-0.866
G2 X-0.5 Y-0.866 Z-4.3333 I-1.0 J0.0
G2 Y0.866 Z-4.6667 I0.5 J0.866
G2 X1.0 Y0.0 Z-5.0 I0.5 J-0.866
G2 X-0.5 Y-0.866 Z-5.3333 I-1.0 J0.0
G2 Y0.866 Z-5.6667 I0.5 J0.866
G2 X1.0 Y0.0 Z-6.0 I0.5 J-0.866
G2 X-0.5 Y-0.866 Z-6.3333 I-1.0 J0.0
G2 Y0.866 Z-6.6667 I0.5 J0.866
G2 X1.0 Y0.0 Z-7.0 I0.5 J-0.866
G2 X-0.5 Y-0.866 Z-7.3333 I-1.0 J0.0
G2 Y0.866 Z-7.6667 I0.5 J0.866
G2 X1.0 Y0.0 Z-8.0 I0.5 J-0.866
G2 X-0.5 Y-0.866 Z-8.3333 I-1.0 J0.0
G2 Y0.866 Z-8.6667 I0.5 J0.866
G2 X1.0 Y0.0 Z-9.0 I0.5 J-0.866
G2 X-0.5 Y-0.866 Z-9.3333 I-1.0 J0.0
G2 Y0.866 Z-9.6667 I0.5 J0.866
G2 X1.0 Y0.0 Z-10.0 I0.5 J-0.866
G2 X-0.5 Y-0.866 I-1.0 J0.0
G2 Y0.866 I0.5 J0.866
G2 X1.0 Y0.0 I0.5 J-0.866
( Schaufel-Befestigungsbohrungen )
G0 Z3.0
( T12 : 2.0 )
( Tool Taper coming soon )
( TOOL/MILL,2.0,0.0,0.0,0 )
T12 M6
M3 S2000
G0 X24.0416 Y16.9706
G98
G81 X24.0416 Y16.9706 Z-8.0 R3.0 F40.0
G81 X29.0 Y-5.0 Z-8.0
G81 X16.9706 Y-24.0416 Z-8.0
G81 X-5.0 Y-29.0 Z-8.0
G81 X-24.0416 Y-16.9706 Z-8.0
G81 X-29.0 Y5.0 Z-8.0
G81 X-16.9706 Y24.0416 Z-8.0
G81 X5.0 Y29.0 Z-8.0
G80
( Bohren-Wellenbefestigung )
S2000
G0 Z3.0
G0 X-8.0 Y0.0
G98
G81 X-8.0 Y0.0 Z-10.0 R3.0 F40.0
G81 X0.0 Y-8.0 Z-10.0
G81 X8.0 Y0.0 Z-10.0
G81 X0.0 Y8.0 Z-10.0
G80
( Rad aussen )
G0 Z3.0
( T3 : 3.0 )
( Tool Taper coming soon )
( TOOL/MILL,3.0,0.0,0.0,0 )
T3 M6
M3 S2000
G0 X157.5 Y0.0
G0 Z1.0
G1 F40.0 Z-1.5
G3 F800.0 X80.25 Y44.6003 I-51.5 J0.0
G3 Y-44.6003 I25.75 J-44.6003
G3 X157.5 Y0.0 I25.75 J44.6003
G1 F40.0 Z-3.0
G3 F800.0 X80.25 Y44.6003 I-51.5 J0.0
G3 Y-44.6003 I25.75 J-44.6003
G3 X157.5 Y0.0 I25.75 J44.6003
G1 F40.0 Z-4.5
G3 F800.0 X80.25 Y44.6003 I-51.5 J0.0
G3 Y-44.6003 I25.75 J-44.6003
G3 X157.5 Y0.0 I25.75 J44.6003
G1 F40.0 Z-6.0
G3 F800.0 X80.25 Y44.6003 I-51.5 J0.0
G3 Y-44.6003 I25.75 J-44.6003
G3 X157.5 Y0.0 I25.75 J44.6003
G1 F40.0 Z-7.5
G3 F800.0 X80.25 Y44.6003 I-51.5 J0.0
G3 Y-44.6003 I25.75 J-44.6003
G3 X157.5 Y0.0 I25.75 J44.6003
G1 F40.0 Z-9.0
G3 F800.0 X144.4755 Y34.2328 I-51.5 J0.0
G3 X143.4612 Y35.3399 Z-8.0 I-38.4755 J-34.2328
G3 X141.3399 Y37.4612 I-37.4612 J-35.3399
G3 X140.2328 Y38.4755 Z-9.0 I-35.3399 J-37.4612
G3 X80.25 Y44.6003 I-34.2328 J-38.4755
G3 X71.7672 Y38.4755 I25.75 J-44.6003
G3 X70.6601 Y37.4612 Z-8.0 I34.2328 J-38.4755
G3 X68.5388 Y35.3399 I35.3399 J-37.4612
G3 X67.5245 Y34.2328 Z-9.0 I37.4612 J-35.3399
G3 Y-34.2328 I38.4755 J-34.2328
G3 X68.5388 Y-35.3399 Z-8.0 I38.4755 J34.2328
G3 X70.6601 Y-37.4612 I37.4612 J35.3399
G3 X71.7672 Y-38.4755 Z-9.0 I35.3399 J37.4612
G3 X80.25 Y-44.6003 I34.2328 J38.4755
G3 X140.2328 Y-38.4755 I25.75 J44.6003
G3 X141.3399 Y-37.4612 Z-8.0 I-34.2328 J38.4755
G3 X143.4612 Y-35.3399 I-35.3399 J37.4612
G3 X144.4755 Y-34.2328 Z-9.0 I-37.4612 J35.3399
G3 X157.5 Y0.0 I-38.4755 J34.2328
G1 F40.0 Z-10.0
G3 F800.0 X144.4755 Y34.2328 I-51.5 J0.0
G3 X143.4612 Y35.3399 Z-8.0 I-38.4755 J-34.2328
G3 X141.3399 Y37.4612 I-37.4612 J-35.3399
G3 X140.2328 Y38.4755 Z-10.0 I-35.3399 J-37.4612
G3 X80.25 Y44.6003 I-34.2328 J-38.4755
G3 X71.7672 Y38.4755 I25.75 J-44.6003
G3 X70.6601 Y37.4612 Z-8.0 I34.2328 J-38.4755
G3 X68.5388 Y35.3399 I35.3399 J-37.4612
G3 X67.5245 Y34.2328 Z-10.0 I37.4612 J-35.3399
G3 Y-34.2328 I38.4755 J-34.2328
G3 X68.5388 Y-35.3399 Z-8.0 I38.4755 J34.2328
G3 X70.6601 Y-37.4612 I37.4612 J35.3399
G3 X71.7672 Y-38.4755 Z-10.0 I35.3399 J37.4612
G3 X80.25 Y-44.6003 I34.2328 J38.4755
G3 X140.2328 Y-38.4755 I25.75 J44.6003
G3 X141.3399 Y-37.4612 Z-8.0 I-34.2328 J38.4755
G3 X143.4612 Y-35.3399 I-35.3399 J37.4612
G3 X144.4755 Y-34.2328 Z-10.0 I-37.4612 J35.3399
G3 X157.5 Y0.0 I-38.4755 J34.2328
( Schaufel-Taschen )
S2000
G0 Z3.0
G0 X68.2994 Y20.7652
G0 Z1.0
G1 F40.0 Z-1.5
G1 F800.0 X93.9931 Y13.8806
G1 X93.8378 Y13.301
G1 X68.1441 Y20.1856
G1 X68.2994 Y20.7652
G1 F40.0 X68.4547 Y21.3447
G1 F800.0 X94.7279 Y14.3049
G1 X94.262 Y12.5662
G1 X67.4093 Y19.7614
G1 X67.8752 Y21.5
G1 X68.4547 Y21.3447
G1 F40.0 X68.2994 Y20.7652
G1 Z-3.0
G1 F800.0 X93.9931 Y13.8806
G1 X93.8378 Y13.301
G1 X68.1441 Y20.1856
G1 X68.2994 Y20.7652
G1 F40.0 X68.4547 Y21.3447
G1 F800.0 X67.8752 Y21.5
G1 X67.4093 Y19.7614
G1 X94.262 Y12.5662
G1 X94.7279 Y14.3049
G1 X68.4547 Y21.3447
G1 F40.0 X68.2994 Y20.7652
G1 Z-4.5
G1 F800.0 X93.9931 Y13.8806
G1 X93.8378 Y13.301
G1 X68.1441 Y20.1856
G1 X68.2994 Y20.7652
G1 F40.0 X68.4547 Y21.3447
G1 F800.0 X67.8752 Y21.5
G1 X67.4093 Y19.7614
G1 X94.262 Y12.5662
G1 X94.7279 Y14.3049
G1 X68.4547 Y21.3447
G1 F40.0 X68.2994 Y20.7652
G1 Z-6.0
G1 F800.0 X93.9931 Y13.8806
G1 X93.8378 Y13.301
G1 X68.1441 Y20.1856
G1 X68.2994 Y20.7652
G1 F40.0 X68.4547 Y21.3447
G1 F800.0 X94.7279 Y14.3049
G1 X94.262 Y12.5662
G1 X67.4093 Y19.7614
G1 X67.8752 Y21.5
G1 X68.4547 Y21.3447
G1 F40.0 X68.4806 Y21.4413
G1 F800.0 X94.8504 Y14.3756
G1 X94.3327 Y12.4437
G1 X67.2868 Y19.6907
G1 X67.8045 Y21.6225
G1 X68.4806 Y21.4413
G0 Z3.0
G0 X81.9948 Y-1.966
G0 Z1.0
G1 F40.0 Z-1.5
G1 F800.0 X87.6947 Y1.3249
G1 X87.9947 Y0.8053
G1 X64.9585 Y-12.4947
G1 X64.6585 Y-11.9751
G1 X81.9948 Y-1.966
G1 F40.0 X81.6948 Y-1.4464
G1 F800.0 X63.8389 Y-11.7555
G1 X64.7389 Y-13.3144
G1 X88.8144 Y0.5856
G1 X87.9144 Y2.1445
G1 X81.6948 Y-1.4464
G1 F40.0 X81.9948 Y-1.966
G1 Z-3.0
G1 F800.0 X87.6947 Y1.3249
G1 X87.9947 Y0.8053
G1 X64.9585 Y-12.4947
G1 X64.6585 Y-11.9751
G1 X81.9948 Y-1.966
G1 F40.0 X81.6948 Y-1.4464
G1 F800.0 X63.8389 Y-11.7555
G1 X64.7389 Y-13.3144
G1 X88.8144 Y0.5856
G1 X87.9144 Y2.1445
G1 X81.6948 Y-1.4464
G1 F40.0 X81.9948 Y-1.966
G1 Z-4.5
G1 F800.0 X87.6947 Y1.3249
G1 X87.9947 Y0.8053
G1 X64.9585 Y-12.4947
G1 X64.6585 Y-11.9751
G1 X81.9948 Y-1.966
G1 F40.0 X81.6948 Y-1.4464
G1 F800.0 X63.8389 Y-11.7555
G1 X64.7389 Y-13.3144
G1 X88.8144 Y0.5856
G1 X87.9144 Y2.1445
G1 X81.6948 Y-1.4464
G1 F40.0 X81.9948 Y-1.966
G1 Z-6.0
G1 F800.0 X87.6947 Y1.3249
G1 X87.9947 Y0.8053
G1 X64.9585 Y-12.4947
G1 X64.6585 Y-11.9751
G1 X81.9948 Y-1.966
G1 F40.0 X81.6948 Y-1.4464
G1 F800.0 X87.9144 Y2.1445
G1 X88.8144 Y0.5856
G1 X64.7389 Y-13.3144
G1 X63.8389 Y-11.7555
G1 X81.6948 Y-1.4464
G1 F40.0 X81.6448 Y-1.3598
G1 F800.0 X87.951 Y2.2811
G1 X88.951 Y0.549
G1 X64.7023 Y-13.451
G1 X63.7023 Y-11.7189
G1 X81.6448 Y-1.3598
G0 Z3.0
G0 X92.1194 Y-12.0069
G0 Z1.0
G1 F40.0 Z-1.5
G1 F800.0 X92.699 Y-12.1622
G1 X85.8144 Y-37.8559
G1 X85.2348 Y-37.7006
G1 X92.1194 Y-12.0069
G1 F40.0 X91.5398 Y-11.8517
G1 F800.0 X84.5 Y-38.1248
G1 X86.2386 Y-38.5907
G1 X93.4338 Y-11.738
G1 X91.6951 Y-11.2721
G1 X91.5398 Y-11.8517
G1 F40.0 X92.1194 Y-12.0069
G1 Z-3.0
G1 F800.0 X92.699 Y-12.1622
G1 X85.8144 Y-37.8559
G1 X85.2348 Y-37.7006
G1 X92.1194 Y-12.0069
G1 F40.0 X91.5398 Y-11.8517
G1 F800.0 X84.5 Y-38.1248
G1 X86.2386 Y-38.5907
G1 X93.4338 Y-11.738
G1 X91.6951 Y-11.2721
G1 X91.5398 Y-11.8517
G1 F40.0 X92.1194 Y-12.0069
G1 Z-4.5
G1 F800.0 X92.699 Y-12.1622
G1 X85.8144 Y-37.8559
G1 X85.2348 Y-37.7006
G1 X92.1194 Y-12.0069
G1 F40.0 X91.5398 Y-11.8517
G1 F800.0 X84.5 Y-38.1248
G1 X86.2386 Y-38.5907
G1 X93.4338 Y-11.738
G1 X91.6951 Y-11.2721
G1 X91.5398 Y-11.8517
G1 F40.0 X92.1194 Y-12.0069
G1 Z-6.0
G1 F800.0 X92.699 Y-12.1622
G1 X85.8144 Y-37.8559
G1 X85.2348 Y-37.7006
G1 X92.1194 Y-12.0069
G1 F40.0 X91.5398 Y-11.8517
G1 F800.0 X91.6951 Y-11.2721
G1 X93.4338 Y-11.738
G1 X86.2386 Y-38.5907
G1 X84.5 Y-38.1248
G1 X91.5398 Y-11.8517
G1 F40.0 X91.4433 Y-11.8258
G1 F800.0 X91.6244 Y-11.1496
G1 X93.5563 Y-11.6673
G1 X86.3093 Y-38.7132
G1 X84.3775 Y-38.1955
G1 X91.4433 Y-11.8258
G0 Z3.0
G0 X104.6751 Y-18.3053
G0 Z1.0
G1 F40.0 Z-1.5
G1 F800.0 X105.1947 Y-18.0053
G1 X118.4947 Y-41.0415
G1 X117.9751 Y-41.3415
G1 X104.6751 Y-18.3053
G1 F40.0 X104.3751 Y-17.7856
G1 F800.0 X103.8555 Y-18.0856
G1 X117.7555 Y-42.1611
G1 X119.3144 Y-41.2611
G1 X105.4144 Y-17.1856
G1 X104.3751 Y-17.7856
G1 F40.0 X104.6751 Y-18.3053
G1 Z-3.0
G1 F800.0 X105.1947 Y-18.0053
G1 X118.4947 Y-41.0415
G1 X117.9751 Y-41.3415
G1 X104.6751 Y-18.3053
G1 F40.0 X104.3751 Y-17.7856
G1 F800.0 X103.8555 Y-18.0856
G1 X117.7555 Y-42.1611
G1 X119.3144 Y-41.2611
G1 X105.4144 Y-17.1856
G1 X104.3751 Y-17.7856
G1 F40.0 X104.6751 Y-18.3053
G1 Z-4.5
G1 F800.0 X105.1947 Y-18.0053
G1 X118.4947 Y-41.0415
G1 X117.9751 Y-41.3415
G1 X104.6751 Y-18.3053
G1 F40.0 X104.3751 Y-17.7856
G1 F800.0 X103.8555 Y-18.0856
G1 X117.7555 Y-42.1611
G1 X119.3144 Y-41.2611
G1 X105.4144 Y-17.1856
G1 X104.3751 Y-17.7856
G1 F40.0 X104.6751 Y-18.3053
G1 Z-6.0
G1 F800.0 X105.1947 Y-18.0053
G1 X118.4947 Y-41.0415
G1 X117.9751 Y-41.3415
G1 X104.6751 Y-18.3053
G1 F40.0 X104.3751 Y-17.7856
G1 F800.0 X105.4144 Y-17.1856
G1 X119.3144 Y-41.2611
G1 X117.7555 Y-42.1611
G1 X103.8555 Y-18.0856
G1 X104.3751 Y-17.7856
G1 F40.0 X104.3251 Y-17.699
G1 F800.0 X105.451 Y-17.049
G1 X119.451 Y-41.2977
G1 X117.7189 Y-42.2977
G1 X103.7189 Y-18.049
G1 X104.3251 Y-17.699
G0 Z3.0
G0 X118.0069 Y-13.8806
G0 Z1.0
G1 F40.0 Z-1.5
G1 F800.0 X118.1622 Y-13.301
G1 X143.8559 Y-20.1856
G1 X143.7006 Y-20.7652
G1 X118.0069 Y-13.8806
G1 F40.0 X117.8517 Y-14.4602
G1 F800.0 X144.1248 Y-21.5
G1 X144.5907 Y-19.7614
G1 X117.738 Y-12.5662
G1 X117.2721 Y-14.3049
G1 X117.8517 Y-14.4602
G1 F40.0 X118.0069 Y-13.8806
G1 Z-3.0
G1 F800.0 X118.1622 Y-13.301
G1 X143.8559 Y-20.1856
G1 X143.7006 Y-20.7652
G1 X118.0069 Y-13.8806
G1 F40.0 X117.8517 Y-14.4602
G1 F800.0 X144.1248 Y-21.5
G1 X144.5907 Y-19.7614
G1 X117.738 Y-12.5662
G1 X117.2721 Y-14.3049
G1 X117.8517 Y-14.4602
G1 F40.0 X118.0069 Y-13.8806
G1 Z-4.5
G1 F800.0 X118.1622 Y-13.301
G1 X143.8559 Y-20.1856
G1 X143.7006 Y-20.7652
G1 X118.0069 Y-13.8806
G1 F40.0 X117.8517 Y-14.4602
G1 F800.0 X144.1248 Y-21.5
G1 X144.5907 Y-19.7614
G1 X117.738 Y-12.5662
G1 X117.2721 Y-14.3049
G1 X117.8517 Y-14.4602
G1 F40.0 X118.0069 Y-13.8806
G1 Z-6.0
G1 F800.0 X118.1622 Y-13.301
G1 X143.8559 Y-20.1856
G1 X143.7006 Y-20.7652
G1 X118.0069 Y-13.8806
G1 F40.0 X117.8517 Y-14.4602
G1 F800.0 X117.2721 Y-14.3049
G1 X117.738 Y-12.5662
G1 X144.5907 Y-19.7614
G1 X144.1248 Y-21.5
G1 X117.8517 Y-14.4602
G1 F40.0 X117.8258 Y-14.5567
G1 F800.0 X117.1496 Y-14.3756
G1 X117.6673 Y-12.4437
G1 X144.7132 Y-19.6907
G1 X144.1955 Y-21.6225
G1 X117.8258 Y-14.5567
G0 Z3.0
G0 X124.3053 Y-1.3249
G0 Z1.0
G1 F40.0 Z-1.5
G1 F800.0 X124.0053 Y-0.8053
G1 X147.0415 Y12.4947
G1 X147.3415 Y11.9751
G1 X124.3053 Y-1.3249
G1 F40.0 X123.7856 Y-1.6249
G1 F800.0 X124.0856 Y-2.1445
G1 X148.1611 Y11.7555
G1 X147.2611 Y13.3144
G1 X123.1856 Y-0.5856
G1 X123.7856 Y-1.6249
G1 F40.0 X124.3053 Y-1.3249
G1 Z-3.0
G1 F800.0 X124.0053 Y-0.8053
G1 X147.0415 Y12.4947
G1 X147.3415 Y11.9751
G1 X124.3053 Y-1.3249
G1 F40.0 X123.7856 Y-1.6249
G1 F800.0 X124.0856 Y-2.1445
G1 X148.1611 Y11.7555
G1 X147.2611 Y13.3144
G1 X123.1856 Y-0.5856
G1 X123.7856 Y-1.6249
G1 F40.0 X124.3053 Y-1.3249
G1 Z-4.5
G1 F800.0 X124.0053 Y-0.8053
G1 X147.0415 Y12.4947
G1 X147.3415 Y11.9751
G1 X124.3053 Y-1.3249
G1 F40.0 X123.7856 Y-1.6249
G1 F800.0 X124.0856 Y-2.1445
G1 X148.1611 Y11.7555
G1 X147.2611 Y13.3144
G1 X123.1856 Y-0.5856
G1 X123.7856 Y-1.6249
G1 F40.0 X124.3053 Y-1.3249
G1 Z-6.0
G1 F800.0 X124.0053 Y-0.8053
G1 X147.0415 Y12.4947
G1 X147.3415 Y11.9751
G1 X124.3053 Y-1.3249
G1 F40.0 X123.7856 Y-1.6249
G1 F800.0 X123.1856 Y-0.5856
G1 X147.2611 Y13.3144
G1 X148.1611 Y11.7555
G1 X124.0856 Y-2.1445
G1 X123.7856 Y-1.6249
G1 F40.0 X123.699 Y-1.6749
G1 F800.0 X123.049 Y-0.549
G1 X147.2977 Y13.451
G1 X148.2977 Y11.7189
G1 X124.049 Y-2.2811
G1 X123.699 Y-1.6749
G0 Z3.0
G0 X119.8806 Y12.0069
G0 Z1.0
G1 F40.0 Z-1.5
G1 F800.0 X119.301 Y12.1622
G1 X126.1856 Y37.8559
G1 X126.7652 Y37.7006
G1 X119.8806 Y12.0069
G1 F40.0 X120.4602 Y11.8517
G1 F800.0 X127.5 Y38.1248
G1 X125.7614 Y38.5907
G1 X118.5662 Y11.738
G1 X120.3049 Y11.2721
G1 X120.4602 Y11.8517
G1 F40.0 X119.8806 Y12.0069
G1 Z-3.0
G1 F800.0 X119.301 Y12.1622
G1 X126.1856 Y37.8559
G1 X126.7652 Y37.7006
G1 X119.8806 Y12.0069
G1 F40.0 X120.4602 Y11.8517
G1 F800.0 X127.5 Y38.1248
G1 X125.7614 Y38.5907
G1 X118.5662 Y11.738
G1 X120.3049 Y11.2721
G1 X120.4602 Y11.8517
G1 F40.0 X119.8806 Y12.0069
G1 Z-4.5
G1 F800.0 X119.301 Y12.1622
G1 X126.1856 Y37.8559
G1 X126.7652 Y37.7006
G1 X119.8806 Y12.0069
G1 F40.0 X120.4602 Y11.8517
G1 F800.0 X127.5 Y38.1248
G1 X125.7614 Y38.5907
G1 X118.5662 Y11.738
G1 X120.3049 Y11.2721
G1 X120.4602 Y11.8517
G1 F40.0 X119.8806 Y12.0069
G1 Z-6.0
G1 F800.0 X119.301 Y12.1622
G1 X126.1856 Y37.8559
G1 X126.7652 Y37.7006
G1 X119.8806 Y12.0069
G1 F40.0 X120.4602 Y11.8517
G1 F800.0 X120.3049 Y11.2721
G1 X118.5662 Y11.738
G1 X125.7614 Y38.5907
G1 X127.5 Y38.1248
G1 X120.4602 Y11.8517
G1 F40.0 X120.5567 Y11.8258
G1 F800.0 X120.3756 Y11.1496
G1 X118.4437 Y11.6673
G1 X125.6907 Y38.7132
G1 X127.6225 Y38.1955
G1 X120.5567 Y11.8258
G0 Z3.0
G0 X107.3249 Y18.3053
G0 Z1.0
G1 F40.0 Z-1.5
G1 F800.0 X106.8053 Y18.0053
G1 X93.5053 Y41.0415
G1 X94.0249 Y41.3415
G1 X107.3249 Y18.3053
G1 F40.0 X107.8445 Y18.6053
G1 F800.0 X94.2445 Y42.1611
G1 X92.6856 Y41.2611
G1 X106.5856 Y17.1856
G1 X108.1445 Y18.0856
G1 X107.8445 Y18.6053
G1 F40.0 X107.3249 Y18.3053
G1 Z-3.0
G1 F800.0 X106.8053 Y18.0053
G1 X93.5053 Y41.0415
G1 X94.0249 Y41.3415
G1 X107.3249 Y18.3053
G1 F40.0 X107.8445 Y18.6053
G1 F800.0 X94.2445 Y42.1611
G1 X92.6856 Y41.2611
G1 X106.5856 Y17.1856
G1 X108.1445 Y18.0856
G1 X107.8445 Y18.6053
G1 F40.0 X107.3249 Y18.3053
G1 Z-4.5
G1 F800.0 X106.8053 Y18.0053
G1 X93.5053 Y41.0415
G1 X94.0249 Y41.3415
G1 X107.3249 Y18.3053
G1 F40.0 X107.8445 Y18.6053
G1 F800.0 X94.2445 Y42.1611
G1 X92.6856 Y41.2611
G1 X106.5856 Y17.1856
G1 X108.1445 Y18.0856
G1 X107.8445 Y18.6053
G1 F40.0 X107.3249 Y18.3053
G1 Z-6.0
G1 F800.0 X106.8053 Y18.0053
G1 X93.5053 Y41.0415
G1 X94.0249 Y41.3415
G1 X107.3249 Y18.3053
G1 F40.0 X107.8445 Y18.6053
G1 F800.0 X108.1445 Y18.0856
G1 X106.5856 Y17.1856
G1 X92.6856 Y41.2611
G1 X94.2445 Y42.1611
G1 X107.8445 Y18.6053
G1 F40.0 X107.9311 Y18.6553
G1 F800.0 X108.2811 Y18.049
G1 X106.549 Y17.049
G1 X92.549 Y41.2977
G1 X94.2811 Y42.2977
G1 X107.9311 Y18.6553
( Schaufel-Taschen-Ecken )
S2000
G0 Z3.0
G0 X67.8045 Y21.6225
G1 F40.0 Z-1.5
G1 F800.0 X94.8504 Y14.3756
G1 X95.3885 Y14.6862
G1 X94.8504 Y14.3756
G1 X94.3327 Y12.4437
G1 X94.6434 Y11.9056
G1 X94.3327 Y12.4437
G1 X67.2868 Y19.6907
G1 X66.7487 Y19.38
G1 X67.2868 Y19.6907
G1 X67.8045 Y21.6225
G1 X67.4938 Y22.1606
G1 X67.8045 Y21.6225
G1 F40.0 Z-3.0
G1 F800.0 X94.8504 Y14.3756
G1 X95.3885 Y14.6862
G1 X94.8504 Y14.3756
G1 X94.3327 Y12.4437
G1 X94.6434 Y11.9056
G1 X94.3327 Y12.4437
G1 X67.2868 Y19.6907
G1 X66.7487 Y19.38
G1 X67.2868 Y19.6907
G1 X67.8045 Y21.6225
G1 X67.4938 Y22.1606
G1 X67.8045 Y21.6225
G1 F40.0 Z-4.5
G1 F800.0 X94.8504 Y14.3756
G1 X95.3885 Y14.6862
G1 X94.8504 Y14.3756
G1 X94.3327 Y12.4437
G1 X94.6434 Y11.9056
G1 X94.3327 Y12.4437
G1 X67.2868 Y19.6907
G1 X66.7487 Y19.38
G1 X67.2868 Y19.6907
G1 X67.8045 Y21.6225
G1 X67.4938 Y22.1606
G1 X67.8045 Y21.6225
G0 Z-5.0
G1 F40.0 Z-6.0
G1 F800.0 X94.8504 Y14.3756
G1 X95.3885 Y14.6862
G1 X94.8504 Y14.3756
G1 X94.3327 Y12.4437
G1 X94.6434 Y11.9056
G1 X94.3327 Y12.4437
G1 X67.2868 Y19.6907
G1 X66.7487 Y19.38
G1 X67.2868 Y19.6907
G1 X67.8045 Y21.6225
G1 X67.4938 Y22.1606
G1 X67.8045 Y21.6225
G0 Z3.0
G0 X81.2162 Y-1.6073
G0 Z1.0
G1 F40.0 Z-1.5
G1 F800.0 X87.951 Y2.2811
G1 X88.1118 Y2.8812
G1 X87.951 Y2.2811
G1 X88.951 Y0.549
G1 X89.5511 Y0.3882
G1 X88.951 Y0.549
G1 X64.7023 Y-13.451
G1 X64.5414 Y-14.0511
G1 X64.7023 Y-13.451
G1 X63.7023 Y-11.7189
G1 X63.1021 Y-11.5581
G1 X63.7023 Y-11.7189
G1 X81.2162 Y-1.6073
G1 F40.0 Z-3.0
G1 F800.0 X87.951 Y2.2811
G1 X88.1118 Y2.8812
G1 X87.951 Y2.2811
G1 X88.951 Y0.549
G1 X89.5511 Y0.3882
G1 X88.951 Y0.549
G1 X64.7023 Y-13.451
G1 X64.5414 Y-14.0511
G1 X64.7023 Y-13.451
G1 X63.7023 Y-11.7189
G1 X63.1021 Y-11.5581
G1 X63.7023 Y-11.7189
G1 X81.2162 Y-1.6073
G1 F40.0 Z-4.5
G1 F800.0 X87.951 Y2.2811
G1 X88.1118 Y2.8812
G1 X87.951 Y2.2811
G1 X88.951 Y0.549
G1 X89.5511 Y0.3882
G1 X88.951 Y0.549
G1 X64.7023 Y-13.451
G1 X64.5414 Y-14.0511
G1 X64.7023 Y-13.451
G1 X63.7023 Y-11.7189
G1 X63.1021 Y-11.5581
G1 X63.7023 Y-11.7189
G1 X81.2162 Y-1.6073
G1 F40.0 Z-6.0
G1 F800.0 X87.951 Y2.2811
G1 X88.1118 Y2.8812
G1 X87.951 Y2.2811
G1 X88.951 Y0.549
G1 X89.5511 Y0.3882
G1 X88.951 Y0.549
G1 X64.7023 Y-13.451
G1 X64.5414 Y-14.0511
G1 X64.7023 Y-13.451
G1 X63.7023 Y-11.7189
G1 X63.1021 Y-11.5581
G1 X63.7023 Y-11.7189
G1 X81.2162 Y-1.6073
G0 Z3.0
G0 X91.3138 Y-10.6115
G0 Z1.0
G1 F40.0 Z-1.5
G1 F800.0 X91.6244 Y-11.1496
G1 X93.5563 Y-11.6673
G1 X94.0944 Y-11.3566
G1 X93.5563 Y-11.6673
G1 X86.3093 Y-38.7132
G1 X86.62 Y-39.2513
G1 X86.3093 Y-38.7132
G1 X84.3775 Y-38.1955
G1 X83.8394 Y-38.5062
G1 X84.3775 Y-38.1955
G1 X91.6244 Y-11.1496
G1 X91.3138 Y-10.6115
G1 F40.0 Z-3.0
G1 F800.0 X91.6244 Y-11.1496
G1 X93.5563 Y-11.6673
G1 X94.0944 Y-11.3566
G1 X93.5563 Y-11.6673
G1 X86.3093 Y-38.7132
G1 X86.62 Y-39.2513
G1 X86.3093 Y-38.7132
G1 X84.3775 Y-38.1955
G1 X83.8394 Y-38.5062
G1 X84.3775 Y-38.1955
G1 X91.6244 Y-11.1496
G1 X91.3138 Y-10.6115
G1 F40.0 Z-4.5
G1 F800.0 X91.6244 Y-11.1496
G1 X93.5563 Y-11.6673
G1 X94.0944 Y-11.3566
G1 X93.5563 Y-11.6673
G1 X86.3093 Y-38.7132
G1 X86.62 Y-39.2513
G1 X86.3093 Y-38.7132
G1 X84.3775 Y-38.1955
G1 X83.8394 Y-38.5062
G1 X84.3775 Y-38.1955
G1 X91.6244 Y-11.1496
G1 X91.3138 Y-10.6115
G1 F40.0 Z-6.0
G1 F800.0 X91.6244 Y-11.1496
G1 X93.5563 Y-11.6673
G1 X94.0944 Y-11.3566
G1 X93.5563 Y-11.6673
G1 X86.3093 Y-38.7132
G1 X86.62 Y-39.2513
G1 X86.3093 Y-38.7132
G1 X84.3775 Y-38.1955
G1 X83.8394 Y-38.5062
G1 X84.3775 Y-38.1955
G1 X91.6244 Y-11.1496
G1 X91.3138 Y-10.6115
G0 Z3.0
G0 X103.1188 Y-17.8882
G0 Z1.0
G1 F40.0 Z-1.5
G1 F800.0 X103.7189 Y-18.049
G1 X105.451 Y-17.049
G1 X105.6118 Y-16.4489
G1 X105.451 Y-17.049
G1 X119.451 Y-41.2977
G1 X120.0511 Y-41.4586
G1 X119.451 Y-41.2977
G1 X117.7189 Y-42.2977
G1 X117.5581 Y-42.8979
G1 X117.7189 Y-42.2977
G1 X103.7189 Y-18.049
G1 X103.1188 Y-17.8882
G1 F40.0 Z-3.0
G1 F800.0 X103.7189 Y-18.049
G1 X105.451 Y-17.049
G1 X105.6118 Y-16.4489
G1 X105.451 Y-17.049
G1 X119.451 Y-41.2977
G1 X120.0511 Y-41.4586
G1 X119.451 Y-41.2977
G1 X117.7189 Y-42.2977
G1 X117.5581 Y-42.8979
G1 X117.7189 Y-42.2977
G1 X103.7189 Y-18.049
G1 X103.1188 Y-17.8882
G1 F40.0 Z-4.5
G1 F800.0 X103.7189 Y-18.049
G1 X105.451 Y-17.049
G1 X105.6118 Y-16.4489
G1 X105.451 Y-17.049
G1 X119.451 Y-41.2977
G1 X120.0511 Y-41.4586
G1 X119.451 Y-41.2977
G1 X117.7189 Y-42.2977
G1 X117.5581 Y-42.8979
G1 X117.7189 Y-42.2977
G1 X103.7189 Y-18.049
G1 X103.1188 Y-17.8882
G1 F40.0 Z-6.0
G1 F800.0 X103.7189 Y-18.049
G1 X105.451 Y-17.049
G1 X105.6118 Y-16.4489
G1 X105.451 Y-17.049
G1 X119.451 Y-41.2977
G1 X120.0511 Y-41.4586
G1 X119.451 Y-41.2977
G1 X117.7189 Y-42.2977
G1 X117.5581 Y-42.8979
G1 X117.7189 Y-42.2977
G1 X103.7189 Y-18.049
G1 X103.1188 Y-17.8882
G0 Z3.0
G0 X116.6115 Y-14.6862
G0 Z1.0
G1 F40.0 Z-1.5
G1 F800.0 X117.1496 Y-14.3756
G1 X117.6673 Y-12.4437
G1 X117.3566 Y-11.9056
G1 X117.6673 Y-12.4437
G1 X144.7132 Y-19.6907
G1 X145.2513 Y-19.38
G1 X144.7132 Y-19.6907
G1 X144.1955 Y-21.6225
G1 X144.5062 Y-22.1606
G1 X144.1955 Y-21.6225
G1 X117.1496 Y-14.3756
G1 X116.6115 Y-14.6862
G1 F40.0 Z-3.0
G1 F800.0 X117.1496 Y-14.3756
G1 X117.6673 Y-12.4437
G1 X117.3566 Y-11.9056
G1 X117.6673 Y-12.4437
G1 X144.7132 Y-19.6907
G1 X145.2513 Y-19.38
G1 X144.7132 Y-19.6907
G1 X144.1955 Y-21.6225
G1 X144.5062 Y-22.1606
G1 X144.1955 Y-21.6225
G1 X117.1496 Y-14.3756
G1 X116.6115 Y-14.6862
G1 F40.0 Z-4.5
G1 F800.0 X117.1496 Y-14.3756
G1 X117.6673 Y-12.4437
G1 X117.3566 Y-11.9056
G1 X117.6673 Y-12.4437
G1 X144.7132 Y-19.6907
G1 X145.2513 Y-19.38
G1 X144.7132 Y-19.6907
G1 X144.1955 Y-21.6225
G1 X144.5062 Y-22.1606
G1 X144.1955 Y-21.6225
G1 X117.1496 Y-14.3756
G1 X116.6115 Y-14.6862
G1 F40.0 Z-6.0
G1 F800.0 X117.1496 Y-14.3756
G1 X117.6673 Y-12.4437
G1 X117.3566 Y-11.9056
G1 X117.6673 Y-12.4437
G1 X144.7132 Y-19.6907
G1 X145.2513 Y-19.38
G1 X144.7132 Y-19.6907
G1 X144.1955 Y-21.6225
G1 X144.5062 Y-22.1606
G1 X144.1955 Y-21.6225
G1 X117.1496 Y-14.3756
G1 X116.6115 Y-14.6862
G0 Z3.0
G0 X123.8882 Y-2.8812
G0 Z1.0
G1 F40.0 Z-1.5
G1 F800.0 X124.049 Y-2.2811
G1 X123.049 Y-0.549
G1 X122.4489 Y-0.3882
G1 X123.049 Y-0.549
G1 X147.2977 Y13.451
G1 X147.4586 Y14.0511
G1 X147.2977 Y13.451
G1 X148.2977 Y11.7189
G1 X148.8979 Y11.5581
G1 X148.2977 Y11.7189
G1 X124.049 Y-2.2811
G1 X123.8882 Y-2.8812
G1 F40.0 Z-3.0
G1 F800.0 X124.049 Y-2.2811
G1 X123.049 Y-0.549
G1 X122.4489 Y-0.3882
G1 X123.049 Y-0.549
G1 X147.2977 Y13.451
G1 X147.4586 Y14.0511
G1 X147.2977 Y13.451
G1 X148.2977 Y11.7189
G1 X148.8979 Y11.5581
G1 X148.2977 Y11.7189
G1 X124.049 Y-2.2811
G1 X123.8882 Y-2.8812
G1 F40.0 Z-4.5
G1 F800.0 X124.049 Y-2.2811
G1 X123.049 Y-0.549
G1 X122.4489 Y-0.3882
G1 X123.049 Y-0.549
G1 X147.2977 Y13.451
G1 X147.4586 Y14.0511
G1 X147.2977 Y13.451
G1 X148.2977 Y11.7189
G1 X148.8979 Y11.5581
G1 X148.2977 Y11.7189
G1 X124.049 Y-2.2811
G1 X123.8882 Y-2.8812
G1 F40.0 Z-6.0
G1 F800.0 X124.049 Y-2.2811
G1 X123.049 Y-0.549
G1 X122.4489 Y-0.3882
G1 X123.049 Y-0.549
G1 X147.2977 Y13.451
G1 X147.4586 Y14.0511
G1 X147.2977 Y13.451
G1 X148.2977 Y11.7189
G1 X148.8979 Y11.5581
G1 X148.2977 Y11.7189
G1 X124.049 Y-2.2811
G1 X123.8882 Y-2.8812
G0 Z3.0
G0 X120.6862 Y10.6115
G0 Z1.0
G1 F40.0 Z-1.5
G1 F800.0 X120.3756 Y11.1496
G1 X118.4437 Y11.6673
G1 X117.9056 Y11.3566
G1 X118.4437 Y11.6673
G1 X125.6907 Y38.7132
G1 X125.38 Y39.2513
G1 X125.6907 Y38.7132
G1 X127.6225 Y38.1955
G1 X128.1606 Y38.5062
G1 X127.6225 Y38.1955
G1 X120.3756 Y11.1496
G1 X120.6862 Y10.6115
G1 F40.0 Z-3.0
G1 F800.0 X120.3756 Y11.1496
G1 X118.4437 Y11.6673
G1 X117.9056 Y11.3566
G1 X118.4437 Y11.6673
G1 X125.6907 Y38.7132
G1 X125.38 Y39.2513
G1 X125.6907 Y38.7132
G1 X127.6225 Y38.1955
G1 X128.1606 Y38.5062
G1 X127.6225 Y38.1955
G1 X120.3756 Y11.1496
G1 X120.6862 Y10.6115
G1 F40.0 Z-4.5
G1 F800.0 X120.3756 Y11.1496
G1 X118.4437 Y11.6673
G1 X117.9056 Y11.3566
G1 X118.4437 Y11.6673
G1 X125.6907 Y38.7132
G1 X125.38 Y39.2513
G1 X125.6907 Y38.7132
G1 X127.6225 Y38.1955
G1 X128.1606 Y38.5062
G1 X127.6225 Y38.1955
G1 X120.3756 Y11.1496
G1 X120.6862 Y10.6115
G1 F40.0 Z-6.0
G1 F800.0 X120.3756 Y11.1496
G1 X118.4437 Y11.6673
G1 X117.9056 Y11.3566
G1 X118.4437 Y11.6673
G1 X125.6907 Y38.7132
G1 X125.38 Y39.2513
G1 X125.6907 Y38.7132
G1 X127.6225 Y38.1955
G1 X128.1606 Y38.5062
G1 X127.6225 Y38.1955
G1 X120.3756 Y11.1496
G1 X120.6862 Y10.6115
G0 Z3.0
G0 X108.8812 Y17.8882
G0 Z1.0
G1 F40.0 Z-1.5
G1 F800.0 X108.2811 Y18.049
G1 X106.549 Y17.049
G1 X106.3882 Y16.4489
G1 X106.549 Y17.049
G1 X92.549 Y41.2977
G1 X91.9489 Y41.4586
G1 X92.549 Y41.2977
G1 X94.2811 Y42.2977
G1 X94.4419 Y42.8979
G1 X94.2811 Y42.2977
G1 X108.2811 Y18.049
G1 X108.8812 Y17.8882
G1 F40.0 Z-3.0
G1 F800.0 X108.2811 Y18.049
G1 X106.549 Y17.049
G1 X106.3882 Y16.4489
G1 X106.549 Y17.049
G1 X92.549 Y41.2977
G1 X91.9489 Y41.4586
G1 X92.549 Y41.2977
G1 X94.2811 Y42.2977
G1 X94.4419 Y42.8979
G1 X94.2811 Y42.2977
G1 X108.2811 Y18.049
G1 X108.8812 Y17.8882
G1 F40.0 Z-4.5
G1 F800.0 X108.2811 Y18.049
G1 X106.549 Y17.049
G1 X106.3882 Y16.4489
G1 X106.549 Y17.049
G1 X92.549 Y41.2977
G1 X91.9489 Y41.4586
G1 X92.549 Y41.2977
G1 X94.2811 Y42.2977
G1 X94.4419 Y42.8979
G1 X94.2811 Y42.2977
G1 X108.2811 Y18.049
G1 X108.8812 Y17.8882
G1 F40.0 Z-6.0
G1 F800.0 X108.2811 Y18.049
G1 X106.549 Y17.049
G1 X106.3882 Y16.4489
G1 X106.549 Y17.049
G1 X92.549 Y41.2977
G1 X91.9489 Y41.4586
G1 X92.549 Y41.2977
G1 X94.2811 Y42.2977
G1 X94.4419 Y42.8979
G1 X94.2811 Y42.2977
G1 X108.2811 Y18.049
G1 X108.8812 Y17.8882
( Rohr )
S2000
G0 Z3.0
G0 X119.5 Y0.0
G0 Z1.0
G1 F40.0 Z-1.0
G2 F800.0 X99.25 Y-11.6913 I-13.5 J0.0
G2 Y11.6913 I6.75 J11.6913
G2 X119.5 Y0.0 I6.75 J-11.6913
G1 F40.0 Z-2.0
G2 F800.0 X99.25 Y-11.6913 I-13.5 J0.0
G2 Y11.6913 I6.75 J11.6913
G2 X119.5 Y0.0 I6.75 J-11.6913
G1 F40.0 Z-3.0
G2 F800.0 X99.25 Y-11.6913 I-13.5 J0.0
G2 Y11.6913 I6.75 J11.6913
G2 X119.5 Y0.0 I6.75 J-11.6913
G1 F40.0 Z-4.0
G2 F800.0 X99.25 Y-11.6913 I-13.5 J0.0
G2 Y11.6913 I6.75 J11.6913
G2 X119.5 Y0.0 I6.75 J-11.6913
G1 F40.0 Z-5.0
G2 F800.0 X99.25 Y-11.6913 I-13.5 J0.0
G2 Y11.6913 I6.75 J11.6913
G2 X119.5 Y0.0 I6.75 J-11.6913
( Welle )
G0 Z3.0
( T6 : 6.0 )
( Tool Taper coming soon )
( TOOL/MILL,6.0,0.0,0.0,0 )
T6 M6
M3 S2000
G0 X106.0
G0 Z3.0
G0 X107.0 Y0.0
G0 Z1.0
G1 F40.0 Z0.0
G2 F800.0 X105.5 Y-0.866 Z-0.3333 I-1.0 J0.0
G2 Y0.866 Z-0.6667 I0.5 J0.866
G2 X107.0 Y0.0 Z-1.0 I0.5 J-0.866
G2 X105.5 Y-0.866 Z-1.3333 I-1.0 J0.0
G2 Y0.866 Z-1.6667 I0.5 J0.866
G2 X107.0 Y0.0 Z-2.0 I0.5 J-0.866
G2 X105.5 Y-0.866 Z-2.3333 I-1.0 J0.0
G2 Y0.866 Z-2.6667 I0.5 J0.866
G2 X107.0 Y0.0 Z-3.0 I0.5 J-0.866
G2 X105.5 Y-0.866 Z-3.3333 I-1.0 J0.0
G2 Y0.866 Z-3.6667 I0.5 J0.866
G2 X107.0 Y0.0 Z-4.0 I0.5 J-0.866
G2 X105.5 Y-0.866 Z-4.3333 I-1.0 J0.0
G2 Y0.866 Z-4.6667 I0.5 J0.866
G2 X107.0 Y0.0 Z-5.0 I0.5 J-0.866
G2 X105.5 Y-0.866 Z-5.3333 I-1.0 J0.0
G2 Y0.866 Z-5.6667 I0.5 J0.866
G2 X107.0 Y0.0 Z-6.0 I0.5 J-0.866
G2 X105.5 Y-0.866 Z-6.3333 I-1.0 J0.0
G2 Y0.866 Z-6.6667 I0.5 J0.866
G2 X107.0 Y0.0 Z-7.0 I0.5 J-0.866
G2 X105.5 Y-0.866 Z-7.3333 I-1.0 J0.0
G2 Y0.866 Z-7.6667 I0.5 J0.866
G2 X107.0 Y0.0 Z-8.0 I0.5 J-0.866
G2 X105.5 Y-0.866 Z-8.3333 I-1.0 J0.0
G2 Y0.866 Z-8.6667 I0.5 J0.866
G2 X107.0 Y0.0 Z-9.0 I0.5 J-0.866
G2 X105.5 Y-0.866 Z-9.3333 I-1.0 J0.0
G2 Y0.866 Z-9.6667 I0.5 J0.866
G2 X107.0 Y0.0 Z-10.0 I0.5 J-0.866
G2 X105.5 Y-0.866 I-1.0 J0.0
G2 Y0.866 I0.5 J0.866
G2 X107.0 Y0.0 I0.5 J-0.866
( Schaufel-Befestigungsbohrungen )
G0 Z3.0
( T12 : 2.0 )
( Tool Taper coming soon )
( TOOL/MILL,2.0,0.0,0.0,0 )
T12 M6
M3 S2000
G0 X130.0416 Y-16.9706
G98
G81 X130.0416 Y-16.9706 Z-8.0 R3.0 F40.0
G81 X135.0 Y5.0 Z-8.0
G81 X122.9706 Y24.0416 Z-8.0
G81 X101.0 Y29.0 Z-8.0
G81 X81.9584 Y16.9706 Z-8.0
G81 X77.0 Y-5.0 Z-8.0
G81 X89.0294 Y-24.0416 Z-8.0
G81 X111.0 Y-29.0 Z-8.0
G80
( Bohren-Wellenbefestigung )
S2000
G0 Z3.0
G0 X106.0 Y8.0
G98
G81 X106.0 Y8.0 Z-10.0 R3.0 F40.0
G81 X114.0 Y0.0 Z-10.0
G81 X106.0 Y-8.0 Z-10.0
G81 X98.0 Y0.0 Z-10.0
G80
G0 Z3.0
M5
M30
