; generated by PrusaSlicer 2.5.2+win64 on 2023-05-31 at 17:51:45 UTC

; 

; external perimeters extrusion width = 0.45mm
; perimeters extrusion width = 0.45mm
; infill extrusion width = 0.45mm
; solid infill extrusion width = 0.45mm
; top infill extrusion width = 0.40mm
; first layer extrusion width = 0.42mm

; external perimeters extrusion width = 0.45mm
; perimeters extrusion width = 0.45mm
; infill extrusion width = 0.45mm
; solid infill extrusion width = 0.45mm
; top infill extrusion width = 0.40mm
; first layer extrusion width = 0.42mm

M73 P0 R171
M107
;TYPE:Custom
M862.3 P "MK2S" ; printer model check
M862.1 P0.4 ; nozzle diameter check
M115 U3.2.3 ; tell printer latest fw version
G90 ; use absolute coordinates
M83 ; extruder relative mode
M204 S2000 T1500 ; MK2 firmware only supports the old M204 format
M104 S215 ; set extruder temp
M140 S60 ; set bed temp
M190 S60 ; wait for bed temp
M109 S215 ; wait for extruder temp
G28 W ; home all without mesh bed level
G80 ; mesh bed leveling
G1 Y-3.0 F1000.0 ; go outside print area
G92 E0.0
G1 X60.0 E9.0  F1000.0 ; intro line
G1 X100.0 E12.5 F1000.0 ; intro line
G92 E0.0
G21 ; set units to millimeters
G90 ; use absolute coordinates
M83 ; use relative distances for extrusion
M900 K0.05 ; Filament gcode LA 1.5
M900 K30 ; Filament gcode LA 1.0
M107
;LAYER_CHANGE
;Z:0.2
;HEIGHT:0.2
;BEFORE_LAYER_CHANGE
G92 E0.0
;0.2


G1 E-.8 F2100
G1 Z.4 F10800
;AFTER_LAYER_CHANGE
;0.2
G1 X97.057 Y50.689
G1 Z.2
G1 E.8 F2100
M204 S1000
;TYPE:Skirt/Brim
;WIDTH:0.42
G1 F1200
G1 X98.009 Y49.041 E.05968
G1 X99.235 Y47.3 E.06676
G1 X100.622 Y45.684 E.06676
G1 X102.155 Y44.207 E.06676
G1 X103.822 Y42.882 E.06676
G1 X105.608 Y41.722 E.06676
G1 X107.495 Y40.737 E.06676
G1 X109.682 Y39.861 E.07385
G1 X111.728 Y39.272 E.06676
G1 X113.821 Y38.879 E.06676
G1 X115.941 Y38.688 E.06676
G1 X118.07 Y38.698 E.06676
G1 X181.343 Y45.328 E1.99473
G1 X183.633 Y45.772 E.07314
G1 X185.46 Y46.308 E.05968
G1 X187.44 Y47.089 E.06676
G1 X189.338 Y48.055 E.06676
G1 X191.319 Y49.329 E.07384
G1 X192.986 Y50.653 E.06676
G1 X194.52 Y52.13 E.06676
G1 X195.766 Y53.569 E.05968
G1 X197.132 Y55.487 E.07384
G1 X198.187 Y57.337 E.06676
G1 X199.062 Y59.278 E.06676
G1 X199.685 Y61.077 E.05968
G1 X200.197 Y63.143 E.06676
G1 X200.528 Y65.409 E.07181
G1 X206.528 Y145.267 E2.51092
G1 X206.626 Y147.489 E.06974
G1 X206.626 Y165.385 E.56113
G1 X206.234 Y166.692 E.04278
G1 X205.312 Y167.511 E.03868
G1 X165.312 Y187.511 E1.40221
G1 X164.248 Y187.762 E.03425
G1 X158.248 Y187.762 E.18813
G1 X157.703 Y187.699 E.01721
G1 X130.348 Y181.252 E.88121
G1 X129.83 Y181.065 E.01727
G1 X89.83 Y161.065 E1.40221
G1 X88.836 Y160.13 E.04278
G1 X88.516 Y158.939 E.03868
G1 X88.516 Y141.042 E.56113
G1 X88.609 Y138.892 E.06747
G1 X94.613 Y58.963 E2.51319
G1 X94.944 Y56.697 E.07181
G1 X95.457 Y54.63 E.06676
G1 X96.163 Y52.621 E.06676
G1 X97.032 Y50.743 E.06488
; printing object CasherHalter.stl id:0 copy 0
;WIPE_START
G1 F8640
G1 X98.009 Y49.041 E-.45329
G1 X98.774 Y47.955 E-.30671
;WIPE_END
G1 E-.04 F2100
G1 Z.6 F10800
G1 X131.513 Y126.079
G1 Z.2
G1 E.8 F2100
;TYPE:Perimeter
;WIDTH:0.419999
G1 F1200
G1 X131.604 Y125.981 E.00421
G1 X131.68 Y125.698 E.00917
G1 X131.679 Y61.009 E2.02828
G1 X131.583 Y59.355 E.05195
G1 X131.302 Y57.721 E.05199
G1 X131.057 Y56.871 E.02772
G1 X130.839 Y56.128 E.02427
G1 X130.201 Y54.598 E.05199
G1 X129.43 Y53.202 E.05001
G1 X128.434 Y51.798 E.05398
G1 X127.326 Y50.564 E.05199
G1 X126.087 Y49.462 E.05199
G1 X124.733 Y48.505 E.05199
G1 X123.28 Y47.706 E.05199
G1 X121.749 Y47.076 E.0519
G1 X120.152 Y46.619 E.05208
G1 X118.517 Y46.345 E.05199
G1 X116.861 Y46.255 E.05199
G1 X115.206 Y46.352 E.05199
G1 X113.633 Y46.619 E.05001
G1 X111.979 Y47.096 E.05398
G1 X110.449 Y47.734 E.05199
G1 X108.999 Y48.539 E.05199
G1 X107.649 Y49.501 E.05199
G1 X106.46 Y50.564 E.05001
G1 X105.313 Y51.847 E.05395
G1 X104.356 Y53.202 E.05202
G1 X103.733 Y54.33 E.0404
G1 X103.557 Y54.655 E.0116
G1 X102.926 Y56.188 E.05199
G1 X102.47 Y57.783 E.05199
G1 X102.203 Y59.355 E.05001
G1 X102.107 Y61.004 E.0518
G1 X102.106 Y72.112 E.34827
G1 X97.68 Y72.112 E.13877
G1 X97.68 Y61.061 E.34649
G1 X97.768 Y59.216 E.05791
G1 X98.028 Y57.406 E.05732
G1 X98.459 Y55.629 E.05732
G1 X99.057 Y53.902 E.05733
G1 X99.816 Y52.239 E.05732
G1 X100.731 Y50.655 E.05732
G1 X101.791 Y49.166 E.05732
G1 X102.988 Y47.784 E.05732
G1 X104.312 Y46.523 E.05732
G1 X105.749 Y45.392 E.05732
G1 X107.287 Y44.404 E.05732
G1 X108.912 Y43.566 E.05732
G1 X110.613 Y42.885 E.05745
G1 X112.363 Y42.372 E.0572
G1 X114.159 Y42.026 E.05732
G1 X115.979 Y41.852 E.05732
G1 X117.811 Y41.852 E.05745
G1 X119.627 Y42.026 E.0572
G1 X121.422 Y42.372 E.05732
G1 X123.176 Y42.887 E.05733
G1 X124.874 Y43.566 E.05732
G1 X126.499 Y44.404 E.05733
G1 X128.037 Y45.392 E.05732
G1 X129.474 Y46.523 E.05733
G1 X130.797 Y47.784 E.05732
G1 X131.994 Y49.166 E.05732
G1 X133.055 Y50.655 E.05732
G1 X133.969 Y52.239 E.05732
G1 X134.729 Y53.902 E.05732
G1 X135.327 Y55.629 E.05733
G1 X135.758 Y57.406 E.05732
G1 X136.018 Y59.216 E.05732
G1 X136.106 Y61.113 E.05956
G1 X136.106 Y177.112 E3.63704
G1 X131.68 Y177.112 E.13877
M73 P0 R170
G1 X131.68 Y141.036 E1.13112
G1 X131.579 Y139.153 E.05912
G1 X131.285 Y137.315 E.05837
G1 X130.818 Y135.574 E.05652
G1 X130.154 Y133.835 E.05837
G1 X129.311 Y132.174 E.05837
G1 X128.265 Y130.563 E.06023
G1 X127.092 Y129.119 E.05834
G1 X125.772 Y127.804 E.05841
G1 X124.324 Y126.635 E.05837
G1 X122.76 Y125.624 E.05837
G1 X121.1 Y124.781 E.0584
G1 X119.394 Y124.129 E.05724
G1 X117.62 Y123.65 E.05762
G1 X115.722 Y123.35 E.06025
G1 X113.84 Y123.257 E.05907
G1 X112.849 Y123.309 E.03111
G1 X112.004 Y123.356 E.02654
G1 X110.166 Y123.65 E.05837
G1 X108.425 Y124.117 E.05652
G1 X106.685 Y124.781 E.05837
G1 X104.974 Y125.653 E.06023
G1 X103.414 Y126.67 E.05837
G1 X102.709 Y127.24 E.02843
G1 X101.969 Y127.844 E.02994
G1 X100.695 Y129.118 E.05652
G1 X99.487 Y130.61 E.06019
G1 X98.474 Y132.174 E.05842
G1 X97.632 Y133.835 E.05837
G1 X97.233 Y134.873 E.03489
G1 X96.968 Y135.574 E.02348
G1 X96.489 Y137.373 E.05837
G1 X96.201 Y139.212 E.05837
G1 X96.106 Y141.036 E.05727
G1 X96.106 Y157.112 E.50403
G1 X91.68 Y157.112 E.13877
G1 X91.68 Y141.06 E.5033
G1 X91.769 Y139.068 E.0625
G1 X92.032 Y137.11 E.06195
G1 X92.467 Y135.183 E.06195
G1 X93.073 Y133.302 E.06195
G1 X93.843 Y131.482 E.06195
G1 X94.772 Y129.738 E.06195
G1 X95.852 Y128.084 E.06195
G1 X97.079 Y126.528 E.06213
G1 X98.431 Y125.095 E.06178
G1 X99.91 Y123.784 E.06195
G1 X101.499 Y122.609 E.06195
G1 X103.186 Y121.581 E.06195
G1 X104.957 Y120.706 E.06195
G1 X106.8 Y119.993 E.06195
G1 X108.699 Y119.446 E.06195
G1 X110.638 Y119.07 E.06195
G1 X112.604 Y118.867 E.06195
G1 X114.58 Y118.84 E.06195
G1 X116.55 Y118.989 E.06195
G1 X118.499 Y119.313 E.06195
G1 X120.412 Y119.808 E.06195
G1 X122.273 Y120.471 E.06195
G1 X124.068 Y121.297 E.06195
G1 X125.782 Y122.28 E.06195
G1 X127.403 Y123.411 E.06195
G1 X128.916 Y124.681 E.06195
G1 X130.469 Y126.238 E.06895
G1 X130.741 Y126.368 E.00946
G1 X130.927 Y126.37 E.00583
G1 X131.428 Y126.169 E.01693
G1 X131.472 Y126.122 E.00199
G1 X131.251 Y125.829 F10800
;TYPE:External perimeter
G1 F1200
G1 X131.303 Y125.698 E.0044
G1 X131.303 Y61.027 E2.02772
G1 X131.211 Y59.418 E.05052
G1 X130.939 Y57.825 E.05067
G1 X130.694 Y56.976 E.02772
G1 X130.491 Y56.273 E.02295
G1 X129.871 Y54.78 E.05067
G1 X129.089 Y53.366 E.05067
G1 X128.154 Y52.051 E.05058
G1 X127.075 Y50.845 E.05076
G1 X125.869 Y49.769 E.05067
G1 X125.242 Y49.324 E.0241
G1 X124.55 Y48.835 E.02657
G1 X123.136 Y48.054 E.05067
G1 X121.643 Y47.437 E.05064
G1 X120.089 Y46.991 E.0507
G1 X118.496 Y46.721 E.05067
G1 X116.882 Y46.632 E.05067
G1 X115.269 Y46.724 E.05067
G1 X113.697 Y46.991 E.05001
G1 X112.126 Y47.443 E.05126
G1 X110.826 Y47.981 E.0441
G1 X110.631 Y48.064 E.00664
G1 X109.217 Y48.846 E.05067
G1 X107.9 Y49.782 E.05067
G1 X106.711 Y50.845 E.05001
G1 X105.622 Y52.064 E.05124
G1 X104.707 Y53.352 E.04954
G1 X103.905 Y54.799 E.05188
G1 X103.288 Y56.293 E.05067
G1 X102.842 Y57.846 E.05067
G1 X102.572 Y59.439 E.05067
G1 X102.483 Y61.036 E.05014
G1 X102.483 Y72.489 E.3591
G1 X97.303 Y72.489 E.16242
G1 X97.303 Y61.052 E.3586
G1 X97.392 Y59.18 E.05876
G1 X97.657 Y57.335 E.05845
G1 X98.097 Y55.523 E.05845
G1 X98.707 Y53.761 E.05845
G1 X99.481 Y52.066 E.05845
G1 X100.413 Y50.451 E.05845
G1 X101.494 Y48.933 E.05845
G1 X102.715 Y47.524 E.05845
G1 X104.064 Y46.237 E.05845
G1 X105.53 Y45.085 E.05845
G1 X107.098 Y44.077 E.05845
G1 X108.755 Y43.223 E.05845
G1 X110.49 Y42.529 E.05858
G1 X112.274 Y42.005 E.05832
G1 X114.105 Y41.652 E.05845
G1 X115.961 Y41.475 E.05845
G1 X117.829 Y41.475 E.05858
G1 X119.681 Y41.652 E.05832
G1 X121.511 Y42.005 E.05845
G1 X123.3 Y42.53 E.05845
G1 X125.031 Y43.223 E.05845
G1 X126.688 Y44.077 E.05845
G1 X128.256 Y45.085 E.05845
G1 X129.721 Y46.237 E.05845
G1 X131.07 Y47.524 E.05845
G1 X132.291 Y48.933 E.05845
G1 X133.373 Y50.451 E.05845
G1 X134.305 Y52.066 E.05845
G1 X135.079 Y53.761 E.05845
G1 X135.689 Y55.523 E.05845
G1 X136.128 Y57.335 E.05845
G1 X136.394 Y59.18 E.05845
G1 X136.483 Y61.113 E.06069
G1 X136.483 Y177.489 E3.64886
G1 X131.303 Y177.489 E.16242
G1 X131.303 Y141.036 E1.14294
G1 X131.206 Y139.212 E.05727
G1 X130.92 Y137.413 E.05714
G1 X130.454 Y135.671 E.05652
G1 X129.794 Y133.952 E.05776
G1 X128.965 Y132.328 E.05714
G1 X127.972 Y130.801 E.05714
G1 X126.825 Y129.385 E.05713
G1 X125.538 Y128.099 E.05705
G1 X124.118 Y126.951 E.05724
G1 X122.589 Y125.96 E.05714
G1 X120.965 Y125.133 E.05715
G1 X119.26 Y124.481 E.05724
G1 X117.522 Y124.014 E.0564
G1 X115.703 Y123.726 E.05776
G1 X113.86 Y123.633 E.05785
G1 X112.869 Y123.685 E.03111
G1 X112.063 Y123.728 E.0253
G1 X110.263 Y124.014 E.05714
G1 X108.522 Y124.481 E.05652
G1 X106.821 Y125.133 E.05714
G1 X105.179 Y125.969 E.05776
G1 X103.651 Y126.963 E.05714
G1 X102.947 Y127.533 E.02843
G1 X102.236 Y128.11 E.02871
G1 X100.961 Y129.385 E.05652
G1 X99.803 Y130.815 E.05768
G1 X98.812 Y132.342 E.05711
G1 X98.162 Y133.617 E.04486
G1 X97.984 Y133.97 E.01238
G1 X97.332 Y135.671 E.05714
G1 X96.861 Y137.432 E.05714
G1 X96.577 Y139.232 E.05714
G1 X96.483 Y141.036 E.05665
G1 X96.483 Y157.489 E.51585
G1 X91.303 Y157.489 E.16242
G1 X91.303 Y141.051 E.51539
G1 X91.393 Y139.035 E.06329
G1 X91.66 Y137.043 E.063
G1 X92.103 Y135.083 E.06301
G1 X92.719 Y133.17 E.06301
G1 X93.502 Y131.32 E.063
G1 X94.447 Y129.546 E.06301
G1 X95.546 Y127.864 E.063
G1 X96.793 Y126.281 E.06318
G1 X98.168 Y124.824 E.06283
G1 X99.672 Y123.491 E.063
G1 X101.288 Y122.296 E.06301
G1 X103.004 Y121.25 E.063
G1 X104.806 Y120.361 E.06301
G1 X106.679 Y119.635 E.06301
G1 X108.61 Y119.079 E.063
G1 X110.583 Y118.696 E.063
G1 X112.582 Y118.49 E.063
G1 X114.591 Y118.463 E.06301
G1 X116.595 Y118.615 E.063
G1 X118.577 Y118.943 E.063
G1 X120.523 Y119.447 E.063
G1 X122.415 Y120.122 E.06301
G1 X124.241 Y120.962 E.063
G1 X125.984 Y121.961 E.06301
G1 X127.632 Y123.111 E.06301
G1 X129.171 Y124.403 E.063
G1 X130.717 Y125.953 E.06864
G1 X130.869 Y125.998 E.00498
G1 X131.196 Y125.853 E.01119
G1 X131.389 Y125.853 F10800
;WIPE_START
G1 F8640
G1 X131.303 Y125.698 E-.04345
G1 X131.303 Y122.595 E-.71655
;WIPE_END
G1 E-.04 F2100
G1 Z.6 F10800
G1 X128.559 Y45.947
G1 Z.2
G1 E.8 F2100
;TYPE:Solid infill
;WIDTH:0.421037
G1 F1200
G1 X130.596 Y47.984 E.09057
G1 X131.772 Y49.341 E.05646
G1 X132.646 Y50.569 E.0474
G1 X127.391 Y45.313 E.2337
G1 X126.357 Y44.649 E.03862
G1 X126.016 Y44.473 E.01208
G1 X133.453 Y51.911 E.3307
G1 X133.718 Y52.368 E.01662
G1 X134.004 Y52.996 E.02171
G1 X124.912 Y43.904 E.40428
G1 X124.756 Y43.824 E.00551
G1 X123.99 Y43.517 E.02594
G1 X134.454 Y53.981 E.46525
G1 X134.741 Y54.803 E.02738
G1 X123.099 Y43.16 E.51768
G1 X122.339 Y42.936 E.02489
G1 X135.024 Y55.621 E.56402
G1 X135.208 Y56.339 E.0233
G1 X121.582 Y42.713 E.60584
G1 X121.355 Y42.647 E.00743
G1 X120.892 Y42.557 E.01485
G1 X135.379 Y57.045 E.64417
G1 X135.48 Y57.46 E.01343
G1 X135.517 Y57.717 E.00818
G1 X120.229 Y42.43 E.67974
G1 X119.569 Y42.304 E.02113
G1 X135.606 Y58.342 E.71309
G1 X135.696 Y58.966 E.01984
G1 X129.402 Y52.672 E.27988
G1 X128.694 Y51.671 E.03853
G1 X127.578 Y50.416 E.05279
G1 X126.255 Y49.234 E.05579
G1 X125.256 Y48.525 E.03853
G1 X118.978 Y42.248 E.27914
G1 X118.386 Y42.191 E.01867
G1 X123.94 Y47.744 E.24692
G1 X123.45 Y47.473 E.0176
G1 X122.91 Y47.249 E.01838
G1 X117.795 Y42.135 E.22741
G1 X117.261 Y42.135 E.01682
G1 X121.997 Y46.871 E.21058
G1 X121.855 Y46.812 E.00481
G1 X121.222 Y46.631 E.02071
G1 X116.726 Y42.135 E.19992
G1 X116.191 Y42.135 E.01682
G1 X120.473 Y46.416 E.19038
G1 X120.221 Y46.344 E.00822
G1 X119.794 Y46.272 E.01363
G1 X115.692 Y42.171 E.18237
G1 X115.202 Y42.215 E.01548
G1 X119.15 Y46.163 E.17557
G1 X118.514 Y46.062 E.02025
G1 X114.712 Y42.259 E.16908
G1 X114.221 Y42.304 E.01548
G1 X117.947 Y46.03 E.16568
G1 X117.381 Y45.998 E.01785
G1 X113.771 Y42.388 E.1605
G1 X113.323 Y42.475 E.01436
G1 X116.827 Y45.979 E.15581
G1 X116.321 Y46.007 E.01594
G1 X112.874 Y42.561 E.15323
G1 X112.426 Y42.648 E.01435
G1 X115.814 Y46.036 E.15064
G1 X115.308 Y46.064 E.01594
G1 X112.013 Y42.769 E.14651
G1 X111.6 Y42.891 E.01355
G1 X114.837 Y46.128 E.14394
G1 X114.38 Y46.206 E.01458
G1 X111.186 Y43.012 E.142
G1 X110.773 Y43.133 E.01355
G1 X113.923 Y46.283 E.14006
G1 X113.475 Y46.37 E.01435
G1 X110.386 Y43.281 E.13734
G1 X110.004 Y43.434 E.01293
G1 X113.059 Y46.489 E.13584
G1 X112.643 Y46.608 E.01359
G1 X109.622 Y43.587 E.13434
G1 X109.24 Y43.739 E.01293
G1 X112.228 Y46.727 E.13284
G1 X111.823 Y46.857 E.01337
G1 X108.871 Y43.905 E.13124
G1 X108.518 Y44.087 E.01248
G1 X111.445 Y47.014 E.13012
G1 X111.067 Y47.17 E.01287
G1 X108.165 Y44.269 E.129
G1 X107.813 Y44.451 E.01248
G1 X110.689 Y47.327 E.12788
G1 X110.313 Y47.486 E.01283
G1 X107.46 Y44.633 E.12685
G1 X107.132 Y44.84 E.01219
G1 X109.968 Y47.676 E.12612
G1 X109.624 Y47.866 E.01237
G1 X106.806 Y45.049 E.12528
G1 X106.481 Y45.258 E.01217
G1 X109.279 Y48.057 E.12444
G1 X108.935 Y48.247 E.01237
G1 X106.155 Y45.467 E.1236
G1 X105.836 Y45.683 E.01211
G1 X108.62 Y48.467 E.12377
G1 X108.307 Y48.689 E.01206
G1 X105.537 Y45.919 E.12317
G1 X105.238 Y46.154 E.01197
G1 X107.994 Y48.911 E.12257
G1 X107.682 Y49.133 E.01206
G1 X104.938 Y46.389 E.12197
G1 X104.639 Y46.625 E.01197
G1 X107.378 Y49.364 E.12179
G1 X107.096 Y49.616 E.01191
G1 X104.353 Y46.874 E.12195
G1 X104.079 Y47.135 E.01189
G1 X106.813 Y49.869 E.12156
G1 X106.531 Y50.121 E.01191
G1 X103.806 Y47.396 E.12118
G1 X103.532 Y47.657 E.01189
G1 X106.249 Y50.374 E.1208
G1 X105.996 Y50.656 E.01191
G1 X103.258 Y47.918 E.12174
G1 X103.004 Y48.198 E.0119
G1 X105.743 Y50.938 E.12181
G1 X105.491 Y51.22 E.01191
G1 X102.756 Y48.485 E.12161
G1 X102.507 Y48.771 E.01192
M73 P1 R169
G1 X105.238 Y51.502 E.12141
G1 X105.003 Y51.801 E.01197
G1 X102.259 Y49.058 E.12199
G1 X102.014 Y49.341 E.01179
G1 X104.781 Y52.114 E.12317
G1 X104.559 Y52.427 E.01206
G1 X101.789 Y49.657 E.12317
G1 X101.566 Y49.969 E.01206
G1 X104.337 Y52.74 E.12319
G1 X104.115 Y53.053 E.01206
G1 X101.344 Y50.281 E.12322
G1 X101.122 Y50.594 E.01206
G1 X103.925 Y53.397 E.12465
G1 X103.735 Y53.741 E.01237
G1 X100.908 Y50.914 E.1257
G1 X100.712 Y51.253 E.01231
G1 X103.544 Y54.086 E.12594
G1 X103.354 Y54.43 E.01237
G1 X100.516 Y51.592 E.12618
G1 X100.32 Y51.931 E.01231
G1 X103.194 Y54.805 E.12776
G1 X103.037 Y55.183 E.01287
G1 X100.125 Y52.27 E.1295
G1 X99.949 Y52.629 E.01257
G1 X102.881 Y55.561 E.13035
G1 X102.724 Y55.939 E.01287
G1 X99.781 Y52.997 E.13084
G1 X99.614 Y53.364 E.01269
G1 X102.589 Y56.339 E.13228
G1 X102.47 Y56.755 E.0136
G1 X99.446 Y53.731 E.13446
G1 X99.286 Y54.105 E.01281
G1 X102.351 Y57.171 E.13631
G1 X102.233 Y57.587 E.0136
G1 X99.148 Y54.503 E.13715
G1 X99.011 Y54.9 E.01322
G1 X102.141 Y58.03 E.13919
G1 X102.064 Y58.487 E.01458
G1 X98.873 Y55.297 E.14185
G1 X98.736 Y55.694 E.01322
G1 X101.986 Y58.944 E.14451
G1 X101.916 Y59.409 E.01477
G1 X98.63 Y56.123 E.14609
G1 X98.526 Y56.554 E.01392
G1 X101.886 Y59.914 E.14943
G1 X101.857 Y60.42 E.01592
G1 X98.421 Y56.984 E.15277
G1 X98.317 Y57.414 E.01392
G1 X101.828 Y60.925 E.15611
G1 X101.824 Y61.456 E.01669
G1 X98.246 Y57.878 E.1591
G1 X98.179 Y58.345 E.01485
G1 X101.824 Y61.991 E.16209
