( Made using CamBam - http://www.cambam.co.uk )
( Bollenhut_1 9/21/2019 12:38:34 PM )
( T2 : 2.0 )
G21 G90 G64 G40
G0 Z3.0
( T2 : 2.0 )
T2 M6
( Bollen-Profil-2mm )
G17
M3 S1000
G0 X-32.55364 Y-0.39426
G0 Z1.0
G1 F300.0 Z-2.0
G1 F800.0 X-32.92186 Y-0.43084
G3 X-32.92629 Y-0.43129 I0.09885 J-0.9951
G1 X-33.23135 Y-0.46297
G3 X-33.23291 Y-0.46313 I0.10328 J-0.99465
G1 X-33.46347 Y-0.48744
G3 X-33.46469 Y-0.48757 I0.10484 J-0.99449
G1 X-33.69525 Y-0.51216
G3 X-33.6969 Y-0.51234 I0.10606 J-0.99436
G1 X-34.15793 Y-0.56229
G3 X-34.16079 Y-0.5626 I0.10771 J-0.99418
G1 X-35.08263 Y-0.66516
G3 X-35.08563 Y-0.6655 I0.11057 J-0.99387
G1 X-35.82409 Y-0.74992
G3 X-35.82652 Y-0.7502 I0.11358 J-0.99353
G1 X-36.56483 Y-0.83644
G3 X-36.56634 Y-0.83662 I0.11602 J-0.99325
G1 X-36.77729 Y-0.86158
G3 X-36.7785 Y-0.86173 I0.11753 J-0.99307
G1 X-37.3409 Y-0.92899
G3 X-37.34333 Y-0.92928 I0.11874 J-0.99292
G1 X-38.32887 Y-1.04959
G3 X-38.66966 Y-1.09192 I2.22937 J-19.3416
G1 X-39.98446 Y-1.25881
G3 X-39.98916 Y-1.25942 I0.12592 J-0.99204
G1 X-41.4472 Y-1.45152
G3 X-41.45017 Y-1.45192 I0.13063 J-0.99143
G1 X-41.65837 Y-1.47998
G3 X-41.65979 Y-1.48017 I0.13359 J-0.99104
G1 X-42.21498 Y-1.55582
G3 X-42.21744 Y-1.55616 I0.135 J-0.99084
G1 X-42.95732 Y-1.65885
G3 X-42.95914 Y-1.6591 I0.13747 J-0.99051
G3 X-46.17735 Y-2.13301 I35.07901 J-249.37819
G3 X-46.17968 Y-2.13337 I0.15207 J-0.98837
G1 X-46.81234 Y-2.23224
G3 X-46.81547 Y-2.23274 I0.15441 J-0.98801
G1 X-47.44783 Y-2.33361
G3 X-47.45051 Y-2.33405 I0.15753 J-0.98751
G1 X-47.87192 Y-2.40245
G3 X-47.87398 Y-2.40278 I0.16022 J-0.98708
G3 X-49.56513 Y-2.68719 I38.51059 J-234.16692
G3 X-49.56874 Y-2.68781 I0.1694 J-0.98555
G1 X-50.43757 Y-2.84043
G3 X-50.44272 Y-2.84135 I0.17301 J-0.98492
G1 X-51.31076 Y-2.99851
G3 X-51.31157 Y-2.99866 I0.17816 J-0.984
G3 X-53.05915 Y-3.33001 I21.4051 J-117.66765
G3 X-55.69415 Y-3.87039 I31.32781 J-159.45404
G3 X-55.78933 Y-3.89072 I0.58145 J-2.95549
G3 X-55.87733 Y-3.90973 I0.60432 J-3.01089
G3 X-55.96817 Y-3.92941 I0.61804 J-3.07134
G3 X-56.06192 Y-3.9498 I0.63261 J-3.13519
G3 X-56.16725 Y-3.97293 I0.64809 J-3.20262
G3 X-56.60236 Y-4.06884 I14.04556 J-64.75704
G3 X-56.60428 Y-4.06927 I0.21853 J-0.97583
G1 X-57.56325 Y-4.28601
G3 X-57.57065 Y-4.28771 I0.22045 J-0.9754
G1 X-58.52421 Y-4.51086
G3 X-58.6606 Y-4.54332 I1.37181 J-6.06643
G3 X-58.79779 Y-4.57622 I1.52814 J-6.67406
G3 X-58.94412 Y-4.6115 I1.73078 J-7.50071
G3 X-59.10024 Y-4.64934 I2.03235 J-8.72545
G3 X-59.27115 Y-4.69105 I2.55725 J-10.85065
G1 X-60.14764 Y-4.90872
G3 X-60.15328 Y-4.91014 I0.24103 J-0.97052
G1 X-60.64588 Y-5.03552
G3 X-60.64999 Y-5.03657 I0.24666 J-0.9691
G1 X-61.14137 Y-5.16386
G3 X-62.13819 Y-5.42894 I16.16158 J-62.78135
G1 X-62.79156 Y-5.60777
G3 X-62.79817 Y-5.6096 I0.26399 J-0.96453
G1 X-63.66815 Y-5.85414
G3 X-63.6748 Y-5.85603 I0.27059 J-0.96269
G1 X-64.32251 Y-6.04293
G3 X-64.32823 Y-6.0446 I0.27724 J-0.9608
G1 X-64.97481 Y-6.23535
G3 X-64.9785 Y-6.23645 I0.28296 J-0.95913
G1 X-65.16307 Y-6.29167
G3 X-65.16609 Y-6.29258 I0.28665 J-0.95803
G1 X-65.6577 Y-6.44137
G3 X-65.66284 Y-6.44293 I0.28967 J-0.95713
G1 X-66.31726 Y-6.64483
G3 X-66.32188 Y-6.64627 I0.2948 J-0.95556
G1 X-66.69531 Y-6.76346
G3 X-66.69892 Y-6.7646 I0.29942 J-0.95412
G1 X-67.12518 Y-6.90014
G3 X-67.12906 Y-6.90139 I0.30303 J-0.95298
G1 X-67.56221 Y-7.04106
G3 X-67.56482 Y-7.04191 I0.30691 J-0.95174
G1 X-67.70909 Y-7.08887
G3 X-67.71049 Y-7.08933 I0.30952 J-0.95089
G3 X-68.29056 Y-7.28035 I48.37255 J-147.86991
G3 X-68.29305 Y-7.28117 I0.31464 J-0.94921
G1 X-68.67676 Y-7.40948
G3 X-68.68081 Y-7.41085 I0.31713 J-0.94838
G1 X-69.19163 Y-7.58409
G3 X-69.19702 Y-7.58593 I0.32118 J-0.94702
G1 X-69.87679 Y-7.8208
G3 X-69.88068 Y-7.82215 I0.32657 J-0.94517
G1 X-70.06174 Y-7.88555
G3 X-70.06443 Y-7.88649 I0.33046 J-0.94382
G1 X-70.47777 Y-8.03254
G3 X-70.48342 Y-8.03455 I0.33314 J-0.94288
G1 X-71.32527 Y-8.33768
G3 X-71.33279 Y-8.34043 I0.33879 J-0.94086
G1 X-72.17215 Y-8.65027
G3 X-72.17638 Y-8.65184 I0.3463 J-0.93812
G1 X-72.28813 Y-8.69367
G3 X-72.29125 Y-8.69484 I0.35053 J-0.93655
G1 X-72.88641 Y-8.91986
G3 X-72.89249 Y-8.92218 I0.35365 J-0.93538
G1 X-73.68406 Y-9.22736
G3 X-73.69098 Y-9.23006 I0.35973 J-0.93306
G1 X-74.49855 Y-9.54832
G3 X-74.50542 Y-9.55105 I0.36665 J-0.93036
G1 X-75.31055 Y-9.87525
G3 X-75.3149 Y-9.87701 I0.37351 J-0.92762
G1 X-75.54281 Y-9.97002
G3 X-75.81341 Y-10.08116 I9.3845 J-23.23428
G1 X-76.51056 Y-10.37096
G3 X-76.51415 Y-10.37246 I0.38385 J-0.9234
G1 X-76.69998 Y-10.45056
G3 X-76.70021 Y-10.45065 I0.38744 J-0.9219
G3 X-77.6764 Y-10.86668 I43.25262 J-102.84473
G3 X-78.64966 Y-11.29097 I41.69419 J-96.96912
G3 X-78.65117 Y-11.29163 I0.40423 J-0.91466
G1 X-79.29239 Y-11.57628
G3 X-79.29509 Y-11.57748 I0.40573 J-0.91399
G1 X-79.37777 Y-11.61448
G3 X-79.37839 Y-11.61476 I0.40844 J-0.91279
G1 X-79.4637 Y-11.653
G3 X-79.46696 Y-11.65447 I0.40906 J-0.91251
G1 X-80.27177 Y-12.01871
G3 X-80.27753 Y-12.02134 I0.41232 J-0.91104
G1 X-81.07925 Y-12.39032
G3 X-81.62305 Y-12.64398 I17.97566 J-39.24644
G1 X-81.92588 Y-12.78641
G3 X-81.92891 Y-12.78783 I0.42559 J-0.90491
G1 X-82.53074 Y-13.07335
G3 X-82.53285 Y-13.07435 I0.42862 J-0.90349
G1 X-82.57297 Y-13.0935
G3 X-82.57324 Y-13.09363 I0.43073 J-0.90248
G1 X-82.61602 Y-13.11407
G3 X-82.6169 Y-13.11448 I0.431 J-0.90235
G1 X-82.84482 Y-13.22362
G3 X-82.84843 Y-13.22536 I0.43187 J-0.90193
G1 X-83.75834 Y-13.66554
G3 X-83.76195 Y-13.6673 I0.43549 J-0.9002
G1 X-84.02143 Y-13.79411
G3 X-84.02231 Y-13.79455 I0.4391 J-0.89844
G1 X-84.05527 Y-13.8107
G3 X-84.05593 Y-13.81102 I0.43999 J-0.898
G1 X-84.24098 Y-13.90185
G3 X-84.24208 Y-13.90239 I0.44064 J-0.89768
G1 X-84.41844 Y-13.98923
G3 X-84.56066 Y-14.05944 I1.78291 J-3.79097
G1 X-84.71634 Y-14.13647
G3 X-84.71744 Y-14.13701 I0.44348 J-0.89628
G1 X-84.93639 Y-14.24568
G3 X-84.93784 Y-14.24641 I0.44459 J-0.89574
G1 X-85.22948 Y-14.39175
G3 X-85.23077 Y-14.39239 I0.44604 J-0.89501
G1 X-85.39731 Y-14.47569
G3 X-85.39899 Y-14.47653 I0.44732 J-0.89437
G1 X-85.84267 Y-14.69948
G3 X-85.84569 Y-14.701 I0.449 J-0.89353
G1 X-86.00803 Y-14.78327
G2 X-86.64456 Y-13.67771 I14.31619 J8.97856
G1 X-86.77213 Y-13.43107
G1 X-86.87871 Y-13.21737
G1 X-86.96957 Y-13.02923
G2 X-87.26935 Y-12.36411 I21.89624 J10.26906
G1 X-87.41066 Y-12.02316
G1 X-87.54638 Y-11.67627
G2 X-87.9124 Y-10.6185 I16.66461 J6.35873
G1 X-87.99749 Y-10.3401
G2 X-88.22171 Y-9.5245 I19.42996 J5.78022
G2 X-88.67493 Y-7.20382 I21.34148 J5.37252
G3 X-88.67679 Y-7.19113 I-0.99034 J-0.13867
G2 X-88.7151 Y-6.90666 I7.836 J1.19993
G3 X-88.71641 Y-6.89589 I-0.99331 J-0.11548
G2 X-88.89822 Y-4.72771 I25.1423 J3.20007
G3 X-88.89826 Y-4.72678 I-0.99917 J-0.04071
G2 X-88.88448 Y-2.1179 I27.77533 J1.15777
G3 X-88.88447 Y-2.11757 I-0.99864 J0.0522
G1 X-88.87994 Y-2.03034
G2 X-88.62601 Y0.60054 I30.86001 J-1.65081
G3 X-88.62577 Y0.60227 I-0.99036 J0.13855
G2 X-88.11447 Y3.38863 I31.72649 J-4.38181
G3 X-88.11401 Y3.39062 I-0.97463 J0.22381
G2 X-87.33944 Y6.2068 I31.85304 J-7.24633
G1 X-87.3394 Y6.20695
G2 X-86.2903 Y9.00448 I31.03852 J-10.04419
G1 X-86.13669 Y9.35602
G1 X-85.99865 Y9.66224
G2 X-85.49596 Y10.70813 I26.35803 J-12.02499
G1 X-85.42821 Y10.84159
G3 X-85.42639 Y10.84519 I-0.89169 J0.45264
G2 X-85.19676 Y11.28549 I14.76259 J-7.41905
G3 X-85.19576 Y11.28735 I-0.87961 J0.47569
G1 X-85.07305 Y11.51541
G1 X-84.94901 Y11.74122
G2 X-83.3109 Y14.35064 I24.23978 J-13.39806
G1 X-83.07834 Y14.67454
G2 X-82.66795 Y15.22296 I28.47894 J-20.8834
G1 X-82.58795 Y15.32661
G3 X-82.58554 Y15.32974 I-0.79163 J0.611
G2 X-82.29416 Y15.69861 I12.28687 J-9.40623
G1 X-82.05849 Y15.98758
G2 X-81.35378 Y16.80571 I18.81719 J-15.49592
G3 X-81.35243 Y16.80721 I-0.74303 J0.66926
G2 X-80.25063 Y17.96429 I19.99994 J-17.94136
G1 X-79.95847 Y18.24905
G2 X-79.07665 Y19.05891 I18.50783 J-19.26729
G3 X-79.07503 Y19.06034 I-0.65974 J0.75149
G2 X-77.81311 Y20.10399 I17.12427 J-19.42069
G1 X-77.64807 Y20.23149
G1 X-77.50615 Y20.33959
G1 X-77.24885 Y20.53203
G3 X-77.24628 Y20.53395 I-0.59894 J0.8008
G2 X-77.07001 Y20.66315 I5.10259 J-6.77692
G3 X-77.06541 Y20.66645 I-0.58072 J0.8141
G1 X-76.91994 Y20.77147
G1 X-76.70281 Y20.92569
G1 X-76.48332 Y21.07857
G2 X-73.59804 Y22.83846 I17.36984 J-25.23223
G1 X-73.59802 Y22.83847
G1 X-73.59805 Y22.83845
G1 X-73.59804 Y22.83846
G2 X-70.45166 Y24.32855 I16.40788 J-30.57885
G3 X-70.4486 Y24.32983 I-0.38215 J0.9241
G2 X-69.62681 Y24.65919 I11.96368 J-28.66069
G3 X-69.62279 Y24.66074 I-0.35875 J0.93343
G2 X-68.37199 Y25.12043 I12.69286 J-32.60517
G1 X-68.37198 Y25.12044
G1 X-68.21004 Y25.17648
G3 X-68.20941 Y25.17669 I-0.32704 J0.94501
G2 X-67.10224 Y25.53961 I11.18136 J-32.24101
G3 X-67.10202 Y25.53968 I-0.29522 J0.95543
G1 X-66.88269 Y25.60751
G2 X-65.2565 Y26.07077 I12.90586 J-42.21773
G1 X-64.84341 Y26.17773
G1 X-64.53637 Y26.25453
G1 X-64.07169 Y26.36645
G1 X-63.60571 Y26.47356
G2 X-62.71733 Y26.66388 I14.92381 J-67.49427
G3 X-62.71025 Y26.66537 I-0.20305 J0.97917
G2 X-62.56374 Y26.69501 I1.30085 J-6.05261
G3 X-62.54215 Y26.69936 I-0.18646 J0.98246
G2 X-62.40884 Y26.72585 I1.05357 J-4.95325
G3 X-62.38474 Y26.73061 I-0.18172 J0.98335
G2 X-62.26323 Y26.75435 I0.88542 J-4.20973
G3 X-62.23726 Y26.75939 I-0.17758 J0.98411
G2 X-62.12643 Y26.78069 I0.76113 J-3.66111
G3 X-62.1136 Y26.78304 I-0.1739 J0.98476
G2 X-60.04223 Y27.13165 I9.29691 J-48.91272
G1 X-59.59485 Y27.195
G1 X-59.20503 Y27.24681
G1 X-58.86204 Y27.28982
G2 X-57.66909 Y27.4206 I6.04773 J-49.65714
G1 X-57.06472 Y27.4758
G1 X-56.76605 Y27.50036
G1 X-56.46276 Y27.52345
G3 X-56.43228 Y27.52624 I-0.07591 J0.99711
G2 X-56.38933 Y27.52933 I0.06594 J-0.61628
G3 X-56.32251 Y27.53406 I-0.03711 J0.99931
G2 X-56.28246 Y27.53685 I0.0606 J-0.57993
G3 X-56.25228 Y27.53837 I-0.03523 J0.99938
G2 X-55.41979 Y27.5886 I5.24553 J-80.02356
G3 X-55.41793 Y27.5887 I-0.05503 J0.99848
G2 X-54.80791 Y27.61653 I1.53434 J-26.92784
G3 X-54.79927 Y27.61687 I-0.03427 J0.99941
G2 X-53.8766 Y27.64434 I1.5043 J-35.01883
G1 X-53.4071 Y27.65155
G1 X-52.94166 Y27.65419
G1 X-52.51249 Y27.6526
G1 X-52.13473 Y27.64799
G2 X-49.51523 Y27.53065 I-0.65361 J-43.8904
G3 X-49.51043 Y27.53031 I0.07457 J0.99722
G2 X-48.691 Y27.46187 I-2.12255 J-30.35377
G3 X-48.68653 Y27.46144 I0.09669 J0.99531
G2 X-46.21853 Y27.15824 I-3.83571 J-41.41794
G1 X-46.01696 Y27.1268
G3 X-46.01448 Y27.12642 I0.15412 J0.98805
G2 X-45.28347 Y27.00351 I-3.91787 J-25.53772
G3 X-45.28212 Y27.00326 I0.17993 J0.98368
G1 X-45.00286 Y26.95258
G1 X-44.51151 Y26.85839
G3 X-44.51018 Y26.85814 I0.18826 J0.98212
G2 X-44.16314 Y26.78763 I-2.66507 J-14.00643
G3 X-44.15917 Y26.78678 I0.21126 J0.97743
G1 X-43.88418 Y26.72851
G1 X-43.68243 Y26.68443
G2 X-43.07358 Y26.54442 I-18.07221 J-79.98618
G1 X-42.88503 Y26.49892
G2 X-40.10294 Y25.70326 I-8.56603 J-35.21332
G3 X-40.10147 Y25.70277 I0.31314 J0.94971
G2 X-37.31643 Y24.65446 I-10.77162 J-32.84068
G3 X-37.31417 Y24.6535 I0.39224 J0.91986
G2 X-36.01092 Y24.0683 I-12.99314 J-30.67938
G1 X-35.68045 Y23.90979
G3 X-35.67572 Y23.90753 I0.43248 J0.90165
G2 X-35.45282 Y23.7982 I-3.78816 J-8.00509
G3 X-35.44617 Y23.79486 I0.45291 J0.89156
G1 X-35.26073 Y23.70238
G3 X-35.22912 Y23.68731 I0.44626 J0.8949
G3 X-35.16589 Y23.6552 I0.4841 J0.87501
G3 X-35.14236 Y23.64267 I0.48157 J0.87641
G1 X-34.72216 Y23.42616
G2 X-32.34933 Y22.06753 I-16.72111 J-31.95456
G1 X-32.07128 Y21.89244
G2 X-30.19975 Y20.6193 I-19.47453 J-30.63983
G3 X-30.1984 Y20.61832 I0.58796 J0.80889
G2 X-28.30194 Y19.13916 I-19.86075 J-27.41921
G1 X-28.08709 Y18.95764
G2 X-26.66593 Y17.66896 I-18.579 J-21.91698
G1 X-26.57463 Y17.58018
G3 X-26.56924 Y17.57498 I0.69713 J0.71695
G2 X-26.41816 Y17.42614 I-5.22854 J-5.45837
G3 X-26.41022 Y17.41819 I0.71173 J0.70245
G2 X-25.30521 Y16.24534 I-16.46299 J-16.61773
G3 X-25.29938 Y16.23877 I0.75103 J0.66027
G2 X-25.16977 Y16.08939 I-4.8215 J-4.31445
G3 X-25.16284 Y16.08124 I0.76524 J0.64375
G2 X-24.68215 Y15.49796 I-13.76316 J-11.83193
G1 X-24.62139 Y15.42054
G3 X-24.61951 Y15.41815 I0.78666 J0.61739
G2 X-24.52647 Y15.2977 I-5.55623 J-4.38801
G1 X-24.37439 Y15.09549
G1 X-24.22627 Y14.89179
G2 X-23.75301 Y14.18192 I-9.5928 J-6.90806
G3 X-23.84395 Y14.05837 I77.27072 J-56.97242
G3 X-23.8461 Y14.05543 I0.80582 J-0.59216
G1 X-23.90364 Y13.97653
G3 X-23.98517 Y13.86406 I13.25002 J-9.69028
G3 X-23.98703 Y13.86145 I0.81214 J-0.58347
G1 X-24.29168 Y13.43454
G3 X-24.29452 Y13.43053 I0.814 J-0.58086
G3 X-24.49927 Y13.13815 I36.93141 J-26.08089
G3 X-25.41839 Y11.78159 I53.2389 J-37.06095
G1 X-25.56818 Y11.55463
G3 X-25.6169 Y11.48055 I1.06672 J-0.75469
G1 X-25.66624 Y11.40537
G3 X-25.66777 Y11.40302 I0.83606 J-0.54864
G1 X-25.91265 Y11.02757
G3 X-25.91599 Y11.02241 I0.83759 J-0.54629
G1 X-26.40086 Y10.26892
G3 X-26.85546 Y9.55138 I44.7401 J-28.84824
G1 X-27.29745 Y8.84418
G3 X-27.29942 Y8.84102 I0.848 J-0.52999
G1 X-27.42512 Y8.63822
G3 X-27.42725 Y8.63477 I0.84997 J-0.52683
G1 X-27.93826 Y7.8028
G3 X-27.94158 Y7.79736 I0.8521 J-0.52338
G1 X-28.44731 Y6.9621
G3 X-28.44918 Y6.95899 I0.85542 J-0.51793
G1 X-28.52071 Y6.83989
G3 X-28.52117 Y6.83912 I0.85729 J-0.51483
G1 X-28.5926 Y6.71993
G3 X-28.5933 Y6.71876 I0.85776 J-0.51405
G1 X-28.73583 Y6.48019
G3 X-28.73661 Y6.47888 I0.85846 J-0.51288
G1 X-28.83143 Y6.31964
G3 X-28.83192 Y6.31881 I0.85924 J-0.51158
G1 X-28.88603 Y6.22773
G3 X-28.88766 Y6.22498 I0.85973 J-0.51075
G1 X-29.31571 Y5.49918
G3 X-29.44633 Y5.27579 I8.85059 J-5.32524
G1 X-29.91466 Y4.46715
G3 X-29.91814 Y4.4611 I0.86535 J-0.50118
G1 X-30.38296 Y3.64545
G3 X-30.38611 Y3.63988 I0.86882 J-0.49512
G1 X-30.71534 Y3.05348
G3 X-30.71812 Y3.04849 I0.87197 J-0.48956
G1 X-31.04401 Y2.4602
G3 X-31.04644 Y2.45579 I0.87475 J-0.48457
G1 X-31.26173 Y2.06248
G3 X-31.2647 Y2.05702 I0.87718 J-0.48016
G1 X-31.66734 Y1.31047
G3 X-31.67088 Y1.30384 I0.88015 J-0.4747
G3 X-32.06812 Y0.55158 I295.98199 J-156.77524
G3 X-32.07039 Y0.54724 I0.88488 J-0.46583
G1 X-32.1911 Y0.31518
G3 X-32.19204 Y0.31337 I0.88715 J-0.46148
G1 X-32.23214 Y0.2359
G3 X-32.23334 Y0.23358 I0.88809 J-0.45968
G1 X-32.3929 Y-0.07666
G3 X-32.39587 Y-0.0825 I0.88928 J-0.45736
G1 X-32.55364 Y-0.39426
G1 F300.0 Z-4.0
G1 F800.0 X-32.92186 Y-0.43084
G3 X-32.92629 Y-0.43129 I0.09885 J-0.9951
G1 X-33.23135 Y-0.46297
G3 X-33.23291 Y-0.46313 I0.10328 J-0.99465
G1 X-33.46347 Y-0.48744
G3 X-33.46469 Y-0.48757 I0.10484 J-0.99449
G1 X-33.69525 Y-0.51216
G3 X-33.6969 Y-0.51234 I0.10606 J-0.99436
G1 X-34.15793 Y-0.56229
G3 X-34.16079 Y-0.5626 I0.10771 J-0.99418
G1 X-35.08263 Y-0.66516
G3 X-35.08563 Y-0.6655 I0.11057 J-0.99387
G1 X-35.82409 Y-0.74992
G3 X-35.82652 Y-0.7502 I0.11358 J-0.99353
G1 X-36.56483 Y-0.83644
G3 X-36.56634 Y-0.83662 I0.11602 J-0.99325
G1 X-36.77729 Y-0.86158
G3 X-36.7785 Y-0.86173 I0.11753 J-0.99307
G1 X-37.3409 Y-0.92899
G3 X-37.34333 Y-0.92928 I0.11874 J-0.99292
G1 X-38.32887 Y-1.04959
G3 X-38.66966 Y-1.09192 I2.22937 J-19.3416
G1 X-39.98446 Y-1.25881
G3 X-39.98916 Y-1.25942 I0.12592 J-0.99204
G1 X-41.4472 Y-1.45152
G3 X-41.45017 Y-1.45192 I0.13063 J-0.99143
G1 X-41.65837 Y-1.47998
G3 X-41.65979 Y-1.48017 I0.13359 J-0.99104
G1 X-42.21498 Y-1.55582
G3 X-42.21744 Y-1.55616 I0.135 J-0.99084
G1 X-42.95732 Y-1.65885
G3 X-42.95914 Y-1.6591 I0.13747 J-0.99051
G3 X-46.17735 Y-2.13301 I35.07901 J-249.37819
G3 X-46.17968 Y-2.13337 I0.15207 J-0.98837
G1 X-46.81234 Y-2.23224
G3 X-46.81547 Y-2.23274 I0.15441 J-0.98801
G1 X-47.44783 Y-2.33361
G3 X-47.45051 Y-2.33405 I0.15753 J-0.98751
G1 X-47.87192 Y-2.40245
G3 X-47.87398 Y-2.40278 I0.16022 J-0.98708
G3 X-49.56513 Y-2.68719 I38.51059 J-234.16692
G3 X-49.56874 Y-2.68781 I0.1694 J-0.98555
G1 X-50.43757 Y-2.84043
G3 X-50.44272 Y-2.84135 I0.17301 J-0.98492
G1 X-51.31076 Y-2.99851
G3 X-51.31157 Y-2.99866 I0.17816 J-0.984
G3 X-53.05915 Y-3.33001 I21.4051 J-117.66765
G3 X-55.69415 Y-3.87039 I31.32781 J-159.45404
G3 X-55.78933 Y-3.89072 I0.58145 J-2.95549
G3 X-55.87733 Y-3.90973 I0.60432 J-3.01089
G3 X-55.96817 Y-3.92941 I0.61804 J-3.07134
G3 X-56.06192 Y-3.9498 I0.63261 J-3.13519
G3 X-56.16725 Y-3.97293 I0.64809 J-3.20262
G3 X-56.60236 Y-4.06884 I14.04556 J-64.75704
G3 X-56.60428 Y-4.06927 I0.21853 J-0.97583
G1 X-57.56325 Y-4.28601
G3 X-57.57065 Y-4.28771 I0.22045 J-0.9754
G1 X-58.52421 Y-4.51086
G3 X-58.6606 Y-4.54332 I1.37181 J-6.06643
G3 X-58.79779 Y-4.57622 I1.52814 J-6.67406
G3 X-58.94412 Y-4.6115 I1.73078 J-7.50071
G3 X-59.10024 Y-4.64934 I2.03235 J-8.72545
G3 X-59.27115 Y-4.69105 I2.55725 J-10.85065
G1 X-60.14764 Y-4.90872
G3 X-60.15328 Y-4.91014 I0.24103 J-0.97052
G1 X-60.64588 Y-5.03552
G3 X-60.64999 Y-5.03657 I0.24666 J-0.9691
G1 X-61.14137 Y-5.16386
G3 X-62.13819 Y-5.42894 I16.16158 J-62.78135
G1 X-62.79156 Y-5.60777
G3 X-62.79817 Y-5.6096 I0.26399 J-0.96453
G1 X-63.66815 Y-5.85414
G3 X-63.6748 Y-5.85603 I0.27059 J-0.96269
G1 X-64.32251 Y-6.04293
G3 X-64.32823 Y-6.0446 I0.27724 J-0.9608
G1 X-64.97481 Y-6.23535
G3 X-64.9785 Y-6.23645 I0.28296 J-0.95913
G1 X-65.16307 Y-6.29167
G3 X-65.16609 Y-6.29258 I0.28665 J-0.95803
G1 X-65.6577 Y-6.44137
G3 X-65.66284 Y-6.44293 I0.28967 J-0.95713
G1 X-66.31726 Y-6.64483
G3 X-66.32188 Y-6.64627 I0.2948 J-0.95556
G1 X-66.69531 Y-6.76346
G3 X-66.69892 Y-6.7646 I0.29942 J-0.95412
G1 X-67.12518 Y-6.90014
G3 X-67.12906 Y-6.90139 I0.30303 J-0.95298
G1 X-67.56221 Y-7.04106
G3 X-67.56482 Y-7.04191 I0.30691 J-0.95174
G1 X-67.70909 Y-7.08887
G3 X-67.71049 Y-7.08933 I0.30952 J-0.95089
G3 X-68.29056 Y-7.28035 I48.37255 J-147.86991
G3 X-68.29305 Y-7.28117 I0.31464 J-0.94921
G1 X-68.67676 Y-7.40948
G3 X-68.68081 Y-7.41085 I0.31713 J-0.94838
G1 X-69.19163 Y-7.58409
G3 X-69.19702 Y-7.58593 I0.32118 J-0.94702
G1 X-69.87679 Y-7.8208
G3 X-69.88068 Y-7.82215 I0.32657 J-0.94517
G1 X-70.06174 Y-7.88555
G3 X-70.06443 Y-7.88649 I0.33046 J-0.94382
G1 X-70.47777 Y-8.03254
G3 X-70.48342 Y-8.03455 I0.33314 J-0.94288
G1 X-71.32527 Y-8.33768
G3 X-71.33279 Y-8.34043 I0.33879 J-0.94086
G1 X-72.17215 Y-8.65027
G3 X-72.17638 Y-8.65184 I0.3463 J-0.93812
G1 X-72.28813 Y-8.69367
G3 X-72.29125 Y-8.69484 I0.35053 J-0.93655
G1 X-72.88641 Y-8.91986
G3 X-72.89249 Y-8.92218 I0.35365 J-0.93538
G1 X-73.68406 Y-9.22736
G3 X-73.69098 Y-9.23006 I0.35973 J-0.93306
G1 X-74.49855 Y-9.54832
G3 X-74.50542 Y-9.55105 I0.36665 J-0.93036
G1 X-75.31055 Y-9.87525
G3 X-75.3149 Y-9.87701 I0.37351 J-0.92762
G1 X-75.54281 Y-9.97002
G3 X-75.81341 Y-10.08116 I9.3845 J-23.23428
G1 X-76.51056 Y-10.37096
G3 X-76.51415 Y-10.37246 I0.38385 J-0.9234
G1 X-76.69998 Y-10.45056
G3 X-76.70021 Y-10.45065 I0.38744 J-0.9219
G3 X-77.6764 Y-10.86668 I43.25262 J-102.84473
G3 X-78.64966 Y-11.29097 I41.69419 J-96.96912
G3 X-78.65117 Y-11.29163 I0.40423 J-0.91466
G1 X-79.29239 Y-11.57628
G3 X-79.29509 Y-11.57748 I0.40573 J-0.91399
G1 X-79.37777 Y-11.61448
G3 X-79.37839 Y-11.61476 I0.40844 J-0.91279
G1 X-79.4637 Y-11.653
G3 X-79.46696 Y-11.65447 I0.40906 J-0.91251
G1 X-80.27177 Y-12.01871
G3 X-80.27753 Y-12.02134 I0.41232 J-0.91104
G1 X-81.07925 Y-12.39032
G3 X-81.62305 Y-12.64398 I17.97566 J-39.24644
G1 X-81.92588 Y-12.78641
G3 X-81.92891 Y-12.78783 I0.42559 J-0.90491
G1 X-82.53074 Y-13.07335
G3 X-82.53285 Y-13.07435 I0.42862 J-0.90349
G1 X-82.57297 Y-13.0935
G3 X-82.57324 Y-13.09363 I0.43073 J-0.90248
G1 X-82.61602 Y-13.11407
G3 X-82.6169 Y-13.11448 I0.431 J-0.90235
G1 X-82.84482 Y-13.22362
G3 X-82.84843 Y-13.22536 I0.43187 J-0.90193
G1 X-83.75834 Y-13.66554
G3 X-83.76195 Y-13.6673 I0.43549 J-0.9002
G1 X-84.02143 Y-13.79411
G3 X-84.02231 Y-13.79455 I0.4391 J-0.89844
G1 X-84.05527 Y-13.8107
G3 X-84.05593 Y-13.81102 I0.43999 J-0.898
G1 X-84.24098 Y-13.90185
G3 X-84.24208 Y-13.90239 I0.44064 J-0.89768
G1 X-84.41844 Y-13.98923
G3 X-84.56066 Y-14.05944 I1.78291 J-3.79097
G1 X-84.71634 Y-14.13647
G3 X-84.71744 Y-14.13701 I0.44348 J-0.89628
G1 X-84.93639 Y-14.24568
G3 X-84.93784 Y-14.24641 I0.44459 J-0.89574
G1 X-85.22948 Y-14.39175
G3 X-85.23077 Y-14.39239 I0.44604 J-0.89501
G1 X-85.39731 Y-14.47569
G3 X-85.39899 Y-14.47653 I0.44732 J-0.89437
G1 X-85.84267 Y-14.69948
G3 X-85.84569 Y-14.701 I0.449 J-0.89353
G1 X-86.00803 Y-14.78327
G2 X-86.64456 Y-13.67771 I14.31619 J8.97856
G1 X-86.77213 Y-13.43107
G1 X-86.87871 Y-13.21737
G1 X-86.96957 Y-13.02923
G2 X-87.26935 Y-12.36411 I21.89624 J10.26906
G1 X-87.41066 Y-12.02316
G1 X-87.54638 Y-11.67627
G2 X-87.9124 Y-10.6185 I16.66461 J6.35873
G1 X-87.99749 Y-10.3401
G2 X-88.22171 Y-9.5245 I19.42996 J5.78022
G2 X-88.67493 Y-7.20382 I21.34148 J5.37252
G3 X-88.67679 Y-7.19113 I-0.99034 J-0.13867
G2 X-88.7151 Y-6.90666 I7.836 J1.19993
G3 X-88.71641 Y-6.89589 I-0.99331 J-0.11548
G2 X-88.89822 Y-4.72771 I25.1423 J3.20007
G3 X-88.89826 Y-4.72678 I-0.99917 J-0.04071
G2 X-88.88448 Y-2.1179 I27.77533 J1.15777
G3 X-88.88447 Y-2.11757 I-0.99864 J0.0522
G1 X-88.87994 Y-2.03034
G2 X-88.62601 Y0.60054 I30.86001 J-1.65081
G3 X-88.62577 Y0.60227 I-0.99036 J0.13855
G2 X-88.11447 Y3.38863 I31.72649 J-4.38181
G3 X-88.11401 Y3.39062 I-0.97463 J0.22381
G2 X-87.33944 Y6.2068 I31.85304 J-7.24633
G1 X-87.3394 Y6.20695
G2 X-86.2903 Y9.00448 I31.03852 J-10.04419
G1 X-86.13669 Y9.35602
G1 X-85.99865 Y9.66224
G2 X-85.49596 Y10.70813 I26.35803 J-12.02499
G1 X-85.42821 Y10.84159
G3 X-85.42639 Y10.84519 I-0.89169 J0.45264
G2 X-85.19676 Y11.28549 I14.76259 J-7.41905
G3 X-85.19576 Y11.28735 I-0.87961 J0.47569
G1 X-85.07305 Y11.51541
G1 X-84.94901 Y11.74122
G2 X-83.3109 Y14.35064 I24.23978 J-13.39806
G1 X-83.07834 Y14.67454
G2 X-82.66795 Y15.22296 I28.47894 J-20.8834
G1 X-82.58795 Y15.32661
G3 X-82.58554 Y15.32974 I-0.79163 J0.611
G2 X-82.29416 Y15.69861 I12.28687 J-9.40623
G1 X-82.05849 Y15.98758
G2 X-81.35378 Y16.80571 I18.81719 J-15.49592
G3 X-81.35243 Y16.80721 I-0.74303 J0.66926
G2 X-80.25063 Y17.96429 I19.99994 J-17.94136
G1 X-79.95847 Y18.24905
G2 X-79.07665 Y19.05891 I18.50783 J-19.26729
G3 X-79.07503 Y19.06034 I-0.65974 J0.75149
G2 X-77.81311 Y20.10399 I17.12427 J-19.42069
G1 X-77.64807 Y20.23149
G1 X-77.50615 Y20.33959
G1 X-77.24885 Y20.53203
G3 X-77.24628 Y20.53395 I-0.59894 J0.8008
G2 X-77.07001 Y20.66315 I5.10259 J-6.77692
G3 X-77.06541 Y20.66645 I-0.58072 J0.8141
G1 X-76.91994 Y20.77147
G1 X-76.70281 Y20.92569
G1 X-76.48332 Y21.07857
G2 X-73.59804 Y22.83846 I17.36984 J-25.23223
G1 X-73.59802 Y22.83847
G1 X-73.59805 Y22.83845
G1 X-73.59804 Y22.83846
G2 X-70.45166 Y24.32855 I16.40788 J-30.57885
G3 X-70.4486 Y24.32983 I-0.38215 J0.9241
G2 X-69.62681 Y24.65919 I11.96368 J-28.66069
G3 X-69.62279 Y24.66074 I-0.35875 J0.93343
G2 X-68.37199 Y25.12043 I12.69286 J-32.60517
G1 X-68.37198 Y25.12044
G1 X-68.21004 Y25.17648
G3 X-68.20941 Y25.17669 I-0.32704 J0.94501
G2 X-67.10224 Y25.53961 I11.18136 J-32.24101
G3 X-67.10202 Y25.53968 I-0.29522 J0.95543
G1 X-66.88269 Y25.60751
G2 X-65.2565 Y26.07077 I12.90586 J-42.21773
G1 X-64.84341 Y26.17773
G1 X-64.53637 Y26.25453
G1 X-64.07169 Y26.36645
G1 X-63.60571 Y26.47356
G2 X-62.71733 Y26.66388 I14.92381 J-67.49427
G3 X-62.71025 Y26.66537 I-0.20305 J0.97917
G2 X-62.56374 Y26.69501 I1.30085 J-6.05261
G3 X-62.54215 Y26.69936 I-0.18646 J0.98246
G2 X-62.40884 Y26.72585 I1.05357 J-4.95325
G3 X-62.38474 Y26.73061 I-0.18172 J0.98335
G2 X-62.26323 Y26.75435 I0.88542 J-4.20973
G3 X-62.23726 Y26.75939 I-0.17758 J0.98411
G2 X-62.12643 Y26.78069 I0.76113 J-3.66111
G3 X-62.1136 Y26.78304 I-0.1739 J0.98476
G2 X-60.04223 Y27.13165 I9.29691 J-48.91272
G1 X-59.59485 Y27.195
G1 X-59.20503 Y27.24681
G1 X-58.86204 Y27.28982
G2 X-57.66909 Y27.4206 I6.04773 J-49.65714
G1 X-57.06472 Y27.4758
G1 X-56.76605 Y27.50036
G1 X-56.46276 Y27.52345
G3 X-56.43228 Y27.52624 I-0.07591 J0.99711
G2 X-56.38933 Y27.52933 I0.06594 J-0.61628
G3 X-56.32251 Y27.53406 I-0.03711 J0.99931
G2 X-56.28246 Y27.53685 I0.0606 J-0.57993
G3 X-56.25228 Y27.53837 I-0.03523 J0.99938
G2 X-55.41979 Y27.5886 I5.24553 J-80.02356
G3 X-55.41793 Y27.5887 I-0.05503 J0.99848
G2 X-54.80791 Y27.61653 I1.53434 J-26.92784
G3 X-54.79927 Y27.61687 I-0.03427 J0.99941
G2 X-53.8766 Y27.64434 I1.5043 J-35.01883
G1 X-53.4071 Y27.65155
G1 X-52.94166 Y27.65419
G1 X-52.51249 Y27.6526
G1 X-52.13473 Y27.64799
G2 X-49.51523 Y27.53065 I-0.65361 J-43.8904
G3 X-49.51043 Y27.53031 I0.07457 J0.99722
G2 X-48.691 Y27.46187 I-2.12255 J-30.35377
G3 X-48.68653 Y27.46144 I0.09669 J0.99531
G2 X-46.21853 Y27.15824 I-3.83571 J-41.41794
G1 X-46.01696 Y27.1268
G3 X-46.01448 Y27.12642 I0.15412 J0.98805
G2 X-45.28347 Y27.00351 I-3.91787 J-25.53772
G3 X-45.28212 Y27.00326 I0.17993 J0.98368
G1 X-45.00286 Y26.95258
G1 X-44.51151 Y26.85839
G3 X-44.51018 Y26.85814 I0.18826 J0.98212
G2 X-44.16314 Y26.78763 I-2.66507 J-14.00643
G3 X-44.15917 Y26.78678 I0.21126 J0.97743
G1 X-43.88418 Y26.72851
G1 X-43.68243 Y26.68443
G2 X-43.07358 Y26.54442 I-18.07221 J-79.98618
G1 X-42.88503 Y26.49892
G2 X-40.10294 Y25.70326 I-8.56603 J-35.21332
G3 X-40.10147 Y25.70277 I0.31314 J0.94971
G2 X-37.31643 Y24.65446 I-10.77162 J-32.84068
G3 X-37.31417 Y24.6535 I0.39224 J0.91986
G2 X-36.01092 Y24.0683 I-12.99314 J-30.67938
G1 X-35.68045 Y23.90979
G3 X-35.67572 Y23.90753 I0.43248 J0.90165
G2 X-35.45282 Y23.7982 I-3.78816 J-8.00509
G3 X-35.44617 Y23.79486 I0.45291 J0.89156
G1 X-35.26073 Y23.70238
G3 X-35.22912 Y23.68731 I0.44626 J0.8949
G3 X-35.16589 Y23.6552 I0.4841 J0.87501
G3 X-35.14236 Y23.64267 I0.48157 J0.87641
G1 X-34.72216 Y23.42616
G2 X-32.34933 Y22.06753 I-16.72111 J-31.95456
G1 X-32.07128 Y21.89244
G2 X-30.19975 Y20.6193 I-19.47453 J-30.63983
G3 X-30.1984 Y20.61832 I0.58796 J0.80889
G2 X-28.30194 Y19.13916 I-19.86075 J-27.41921
G1 X-28.08709 Y18.95764
G2 X-26.66593 Y17.66896 I-18.579 J-21.91698
G1 X-26.57463 Y17.58018
G3 X-26.56924 Y17.57498 I0.69713 J0.71695
G2 X-26.41816 Y17.42614 I-5.22854 J-5.45837
G3 X-26.41022 Y17.41819 I0.71173 J0.70245
G2 X-25.30521 Y16.24534 I-16.46299 J-16.61773
G3 X-25.29938 Y16.23877 I0.75103 J0.66027
G2 X-25.16977 Y16.08939 I-4.8215 J-4.31445
G3 X-25.16284 Y16.08124 I0.76524 J0.64375
G2 X-24.68215 Y15.49796 I-13.76316 J-11.83193
G1 X-24.62139 Y15.42054
G3 X-24.61951 Y15.41815 I0.78666 J0.61739
G2 X-24.52647 Y15.2977 I-5.55623 J-4.38801
G1 X-24.37439 Y15.09549
G1 X-24.22627 Y14.89179
G2 X-23.75301 Y14.18192 I-9.5928 J-6.90806
G3 X-23.84395 Y14.05837 I77.27072 J-56.97242
G3 X-23.8461 Y14.05543 I0.80582 J-0.59216
G1 X-23.90364 Y13.97653
G3 X-23.98517 Y13.86406 I13.25002 J-9.69028
G3 X-23.98703 Y13.86145 I0.81214 J-0.58347
G1 X-24.29168 Y13.43454
G3 X-24.29452 Y13.43053 I0.814 J-0.58086
G3 X-24.49927 Y13.13815 I36.93141 J-26.08089
G3 X-25.41839 Y11.78159 I53.2389 J-37.06095
G1 X-25.56818 Y11.55463
G3 X-25.6169 Y11.48055 I1.06672 J-0.75469
G1 X-25.66624 Y11.40537
G3 X-25.66777 Y11.40302 I0.83606 J-0.54864
G1 X-25.91265 Y11.02757
G3 X-25.91599 Y11.02241 I0.83759 J-0.54629
G1 X-26.40086 Y10.26892
G3 X-26.85546 Y9.55138 I44.7401 J-28.84824
G1 X-27.29745 Y8.84418
G3 X-27.29942 Y8.84102 I0.848 J-0.52999
G1 X-27.42512 Y8.63822
G3 X-27.42725 Y8.63477 I0.84997 J-0.52683
G1 X-27.93826 Y7.8028
G3 X-27.94158 Y7.79736 I0.8521 J-0.52338
G1 X-28.44731 Y6.9621
G3 X-28.44918 Y6.95899 I0.85542 J-0.51793
G1 X-28.52071 Y6.83989
G3 X-28.52117 Y6.83912 I0.85729 J-0.51483
G1 X-28.5926 Y6.71993
G3 X-28.5933 Y6.71876 I0.85776 J-0.51405
G1 X-28.73583 Y6.48019
G3 X-28.73661 Y6.47888 I0.85846 J-0.51288
G1 X-28.83143 Y6.31964
G3 X-28.83192 Y6.31881 I0.85924 J-0.51158
G1 X-28.88603 Y6.22773
G3 X-28.88766 Y6.22498 I0.85973 J-0.51075
G1 X-29.31571 Y5.49918
G3 X-29.44633 Y5.27579 I8.85059 J-5.32524
G1 X-29.91466 Y4.46715
G3 X-29.91814 Y4.4611 I0.86535 J-0.50118
G1 X-30.38296 Y3.64545
G3 X-30.38611 Y3.63988 I0.86882 J-0.49512
G1 X-30.71534 Y3.05348
G3 X-30.71812 Y3.04849 I0.87197 J-0.48956
G1 X-31.04401 Y2.4602
G3 X-31.04644 Y2.45579 I0.87475 J-0.48457
G1 X-31.26173 Y2.06248
G3 X-31.2647 Y2.05702 I0.87718 J-0.48016
G1 X-31.66734 Y1.31047
G3 X-31.67088 Y1.30384 I0.88015 J-0.4747
G3 X-32.06812 Y0.55158 I295.98199 J-156.77524
G3 X-32.07039 Y0.54724 I0.88488 J-0.46583
G1 X-32.1911 Y0.31518
G3 X-32.19204 Y0.31337 I0.88715 J-0.46148
G1 X-32.23214 Y0.2359
G3 X-32.23334 Y0.23358 I0.88809 J-0.45968
G1 X-32.3929 Y-0.07666
G3 X-32.39587 Y-0.0825 I0.88928 J-0.45736
G1 X-32.55364 Y-0.39426
G0 Z3.0
G0 X-26.52767 Y-0.01821
G0 Z1.0
G1 F300.0 Z-2.0
G1 F800.0 X-26.39983 Y0.25253
G1 X-26.18614 Y0.6956
G1 X-26.02354 Y1.02574
G1 X-25.89983 Y1.27311
G1 X-25.85406 Y1.36383
G1 X-25.68879 Y1.6879
G1 X-25.52215 Y2.00941
G1 X-25.2834 Y2.46141
G2 X-24.92153 Y3.12841 I50.25676 J-26.83374
G1 X-24.7355 Y3.46346
G1 X-24.5479 Y3.79632
G1 X-24.41729 Y4.02518
G2 X-23.47768 Y5.60878 I56.98629 J-32.74144
G1 X-23.1892 Y6.0749
G1 X-22.97193 Y6.42032
G1 X-22.64049 Y6.93834
G1 X-22.30458 Y7.45295
G1 X-21.99099 Y7.92435
G1 X-21.75407 Y8.27498
G1 X-21.39313 Y8.80036
G1 X-21.02771 Y9.32193
G1 X-20.68673 Y9.79959
G1 X-20.42928 Y10.15462
G1 X-20.03584 Y10.6882
G2 X-19.64209 Y11.21155 I53.49262 J-39.83574
G1 X-19.27084 Y11.69551
G1 X-18.99101 Y12.05438
G1 X-18.77924 Y12.3226
G1 X-18.70083 Y12.4212
G1 X-18.41975 Y12.77141
G1 X-18.13536 Y13.12073
G2 X-16.5121 Y15.01936 I43.54164 J-35.58333
G1 X-16.07706 Y15.50103
G1 X-15.99641 Y15.58907
G3 X-15.99598 Y15.58955 I-0.73741 J0.67545
G2 X-14.75318 Y16.89679 I34.66679 J-31.71327
G1 X-14.63629 Y17.01497
G2 X-12.85523 Y18.71538 I33.49927 J-33.3054
G2 X-10.81769 Y20.43448 I25.5302 J-28.19216
G3 X-10.81522 Y20.43643 I-0.61767 J0.78643
G2 X-10.55245 Y20.6411 I14.34493 J-18.14656
G3 X-10.55197 Y20.64146 I-0.60878 J0.79334
G1 X-10.43228 Y20.73343
G2 X-8.63127 Y22.02491 I21.87533 J-28.60427
G2 X-7.47992 Y22.76363 I20.45155 J-30.60833
G1 X-7.33339 Y22.85302
G1 X-7.20613 Y22.92982
G1 X-6.98005 Y23.06438
G1 X-6.8117 Y23.16303
G1 X-6.55592 Y23.31041
G1 X-6.29863 Y23.45566
G1 X-6.14816 Y23.53923
G1 X-6.00702 Y23.6167
G1 X-5.73836 Y23.76173
G1 X-5.50329 Y23.88606
G1 X-5.29674 Y23.99336
G1 X-5.11541 Y24.08607
G1 X-4.95727 Y24.1658
G1 X-4.67637 Y24.30488
G1 X-4.46601 Y24.40693
G1 X-4.30862 Y24.48212
G1 X-4.06976 Y24.59436
G1 X-3.8291 Y24.70519
G2 X-2.5469 Y25.25883 I14.7374 J-32.36936
G3 X-2.5429 Y25.26047 I-0.37831 J0.92568
G2 X-1.90148 Y25.5151 I9.16265 J-22.14574
G1 X-1.56997 Y25.64113
G1 X-1.24172 Y25.76232
G1 X-0.90986 Y25.88124
G1 X-0.61759 Y25.98304
G2 X1.43986 Y26.62534 I12.72639 J-37.14956
G1 X1.78514 Y26.72097
G2 X2.9797 Y27.02636 I9.68366 J-35.3892
G3 X2.98333 Y27.02723 I-0.23137 J0.97287
G2 X4.18718 Y27.29637 I8.39217 J-34.71096
G3 X4.18934 Y27.29682 I-0.20129 J0.97953
G2 X6.96938 Y27.77815 I8.58353 J-41.30724
G3 X6.97015 Y27.77826 I-0.13756 J0.99049
G2 X8.35656 Y27.94753 I5.58933 J-40.01607
G1 X8.70607 Y27.98281
G1 X9.22968 Y28.03009
G1 X9.75379 Y28.07067
G1 X10.10106 Y28.09382
G2 X12.51618 Y28.16965 I2.37297 J-37.07948
G3 X12.53989 Y28.1699 I0.00113 J1.0
G2 X12.57986 Y28.16985 I0.01882 J-0.83327
G3 X12.62506 Y28.16972 I0.02537 J0.99968
G2 X12.66325 Y28.16958 I0.01612 J-0.81266
G3 X12.68529 Y28.16922 I0.02716 J0.99963
G2 X13.97 Y28.14044 I-0.19053 J-37.19109
G3 X13.98908 Y28.13987 I0.03967 J0.99921
G2 X14.02991 Y28.13818 I-0.0202 J-0.98132
G3 X14.06848 Y28.13652 I0.06218 J0.99807
G2 X14.1058 Y28.13489 I-0.02206 J-0.93409
G3 X14.14976 Y28.13306 I0.06355 J0.99798
G2 X14.24048 Y28.12883 I-0.03284 J-1.67654
G3 X14.25845 Y28.12766 I0.07368 J0.99728
G1 X14.76399 Y28.09945
G2 X15.24488 Y28.06571 I-1.15632 J-19.92363
G3 X15.24737 Y28.06551 I0.08204 J0.99663
G2 X16.60421 Y27.93284 I-3.04021 J-38.09931
G3 X16.61553 Y27.9316 I0.11504 J0.99336
G2 X16.75619 Y27.91456 I-0.44228 J-4.241
G3 X16.78194 Y27.91135 I0.13671 J0.99061
G2 X16.90562 Y27.89576 I-0.48715 J-4.36286
G3 X16.92979 Y27.89266 I0.13914 J0.99027
G2 X17.16268 Y27.86182 I-0.82097 J-7.09351
G3 X17.17771 Y27.85969 I0.14758 J0.98905
G2 X17.94297 Y27.74578 I-3.45851 J-25.86114
G3 X17.94619 Y27.74525 I0.16188 J0.98681
G2 X20.60053 Y27.19928 I-4.94024 J-30.74307
G1 X20.93433 Y27.11348
G1 X21.22429 Y27.03577
G2 X23.22042 Y26.41892 I-8.70505 J-31.7078
G1 X23.38605 Y26.36123
G2 X24.59426 Y25.90972 I-10.1723 J-29.06223
G1 X24.89821 Y25.78757
G1 X25.12279 Y25.69513
G1 X25.28989 Y25.62511
G1 X25.54202 Y25.51749
G1 X25.79222 Y25.40832
G1 X26.11347 Y25.26472
G2 X28.30187 Y24.18205 I-14.85123 J-32.7719
G3 X28.30236 Y24.18178 I0.47359 J0.88075
G2 X30.72768 Y22.76477 I-18.47565 J-34.40644
G3 X30.72817 Y22.76446 I0.53519 J0.84473
G2 X33.04232 Y21.1885 I-22.21256 J-35.10415
G1 X33.32291 Y20.98165
G1 X33.56409 Y20.80099
G1 X33.99126 Y20.47449
G3 X34.01244 Y20.45874 I0.60727 J0.7945
G2 X34.03953 Y20.43772 I-0.2979 J-0.41183
G3 X34.09035 Y20.39815 I0.6394 J0.76888
G2 X34.11365 Y20.37999 I-0.26406 J-0.36271
G3 X34.16322 Y20.34122 I0.6405 J0.76796
G2 X34.18307 Y20.32567 I-0.232 J-0.31672
G3 X34.21206 Y20.30234 I0.6415 J0.76713
G2 X34.45942 Y20.1067 I-9.72142 J-12.54576
G3 X34.45972 Y20.10646 I0.6281 J0.77814
G1 X34.84665 Y19.79438
G1 X35.23003 Y19.47783
G3 X35.25184 Y19.46032 I0.6367 J0.77112
G2 X35.26528 Y19.44908 I-0.15522 J-0.19908
G3 X35.29055 Y19.42714 I0.66811 J0.74406
G2 X37.25176 Y17.67545 I-27.42351 J-32.67747
G1 X37.49376 Y17.44334
G2 X39.11581 Y15.78194 I-28.83174 J-29.77147
G3 X39.11806 Y15.77951 I0.73482 J0.67827
G2 X39.54836 Y15.30438 I-18.35496 J-17.05542
G3 X39.5533 Y15.29883 I0.74974 J0.66174
G2 X40.18716 Y14.5687 I-23.03017 J-20.63375
G1 X40.5057 Y14.18726
G2 X40.80733 Y13.81645 I-18.05899 J-14.9982
G1 X41.01066 Y13.56096
G2 X42.34129 Y11.76607 I-28.11333 J-22.23219
G3 X42.34164 Y11.76557 I0.8215 J0.57021
G2 X43.71859 Y9.63565 I-31.11127 J-21.62289
G2 X44.35034 Y8.5412 I-32.98143 J-19.7674
G3 X44.35796 Y8.52772 I0.87417 J0.48562
G2 X44.41937 Y8.41663 I-3.12369 J-1.79915
G3 X44.43384 Y8.39028 I0.88358 J0.46829
G2 X44.48634 Y8.29445 I-2.91329 J-1.65807
G3 X44.49978 Y8.26978 I0.88476 J0.46605
G2 X44.54457 Y8.18734 I-2.69791 J-1.51946
G3 X44.55935 Y8.16018 I0.88578 J0.4641
G2 X44.64321 Y8.00425 I-3.8435 J-2.16781
G3 X44.65858 Y7.97542 I0.89002 J0.45593
G2 X44.71875 Y7.86226 I-3.22572 J-1.78782
G3 X44.73225 Y7.83669 I0.89096 J0.45408
G2 X44.77514 Y7.75535 I-2.67079 J-1.45995
G3 X44.78913 Y7.72879 I0.89155 J0.45293
G2 X44.85662 Y7.59959 I-3.4154 J-1.86615
G3 X44.87193 Y7.57013 I0.89489 J0.44629
G2 X44.93853 Y7.44119 I-3.35326 J-1.81372
G3 X44.9453 Y7.42771 I0.89705 J0.44193
G2 X46.02715 Y5.14629 I-37.42323 J-19.1434
G2 X46.9571 Y2.82236 I-36.62347 J-16.00341
G1 X47.0634 Y2.52758
G2 X47.73237 Y0.47713 I-36.77284 J-13.13182
G1 X47.81714 Y0.18701
G1 X47.96095 Y-0.32558
G2 X48.34459 Y-1.85698 I-36.67307 J-10.001
G3 X48.34555 Y-1.86113 I0.97486 J0.22281
G2 X48.40675 Y-2.13492 I-15.11002 J-3.52133
G1 X48.51381 Y-2.64083
G1 X48.58826 Y-3.01649
G2 X48.78521 Y-4.14479 I-38.55185 J-7.3109
G2 X49.05008 Y-6.36532 I-30.7144 J-4.78962
G2 X49.13733 Y-8.50444 I-26.40356 J-2.14836
G3 Y-8.50559 I1.0 J0.00035
G2 X49.04764 Y-10.55251 I-22.62616 J-0.03398
G1 X49.02366 Y-10.80645
G2 X48.95732 Y-11.39108 I-19.67715 J1.93681
G1 X48.75825 Y-11.32782
G3 X48.75662 Y-11.32731 I-0.30282 J-0.95305
G1 X48.33574 Y-11.19437
G3 X48.33408 Y-11.19385 I-0.30119 J-0.95356
G1 X47.49264 Y-10.92968
G3 X46.51213 Y-10.62332 I-49.66865 J-157.24269
G1 X45.53662 Y-10.31899
G1 X44.72861 Y-10.06675
G1 X44.45959 Y-9.98268
G1 X43.38331 Y-9.64563
G1 X41.1174 Y-8.93147
G1 X39.96533 Y-8.56581
G1 X38.81291 Y-8.1987
G1 X37.07999 Y-7.64562
G3 X36.49635 Y-7.45954 I-19.97072 J-61.63185
G1 X35.33391 Y-7.09013
G3 X35.33189 Y-7.08949 I-0.30286 J-0.95303
G1 X34.16693 Y-6.72201
G3 X34.16395 Y-6.72107 I-0.30084 J-0.95368
G1 X33.04873 Y-6.3731
G3 X33.0449 Y-6.37191 I-0.29786 J-0.95461
G1 X31.94483 Y-6.0335
G3 X31.85426 Y-6.00533 I-0.58732 J-1.72871
G3 X31.76016 Y-5.9772 I-0.57206 J-1.74198
G1 X31.28937 Y-5.83448
G3 X31.17844 Y-5.80102 I-0.57033 J-1.69019
G1 X30.61714 Y-5.63266
G3 X30.61285 Y-5.63139 I-0.2873 J-0.95784
G1 X29.45302 Y-5.28915
G3 X29.44962 Y-5.28815 I-0.28301 J-0.95912
G1 X29.2948 Y-5.24306
G3 X29.29174 Y-5.24218 I-0.27961 J-0.96011
G1 X28.31576 Y-4.96132
G3 X28.31031 Y-4.95977 I-0.27654 J-0.961
G1 X27.3328 Y-4.68447
G3 X27.32812 Y-4.68317 I-0.27109 J-0.96255
G1 X26.67548 Y-4.50278
G3 X26.67075 Y-4.50148 I-0.26641 J-0.96386
G1 X25.70162 Y-4.23872
G3 X25.69591 Y-4.23719 I-0.26168 J-0.96515
G1 X24.72525 Y-3.98016
G3 X24.72045 Y-3.97891 I-0.25597 J-0.96668
G1 X24.07249 Y-3.81077
G3 X24.07004 Y-3.81013 I-0.25117 J-0.96794
G1 X23.89712 Y-3.76573
G3 X23.89672 Y-3.76563 I-0.24873 J-0.96857
G3 X20.96977 Y-3.04358 I-41.12494 J-160.41355
G3 X20.96733 Y-3.043 I-0.23066 J-0.97303
G1 X20.14303 Y-2.84978
G3 X20.13797 Y-2.84861 I-0.22822 J-0.97361
G1 X19.31476 Y-2.66015
G3 X18.76636 Y-2.537 I-7.74573 J-33.20855
G3 X18.66911 Y-2.51551 I-0.49174 J-1.99504
G1 X17.92337 Y-2.35186
G3 X17.92211 Y-2.35159 I-0.21435 J-0.97676
G3 X15.08458 Y-1.76388 I-29.39232 J-134.76718
G3 X14.98393 Y-1.74394 I-0.68394 J-3.18785
G3 X14.88891 Y-1.72531 I-0.69605 J-3.29853
G3 X14.78103 Y-1.70439 I-0.71915 J-3.42055
G1 X14.20551 Y-1.59339
G3 X13.99421 Y-1.55313 I-1.28367 J-6.16285
G3 X13.88347 Y-1.53225 I-1.09849 J-5.52348
G3 X13.75359 Y-1.50785 I-1.31334 J-6.63343
G3 X13.40455 Y-1.44292 I-3.41895 J-17.40728
G3 X12.02077 Y-1.19444 I-18.93702 J-101.48248
G1 X12.0207 Y-1.19443
G1 X12.02083 Y-1.19445
G1 X12.02077 Y-1.19444
G1 X11.62724 Y-1.12648
G3 X11.62468 Y-1.12605 I-0.17016 J-0.98542
G1 X11.34995 Y-1.07934
G3 X11.34783 Y-1.07898 I-0.16761 J-0.98585
G1 X11.07496 Y-1.03319
G3 X10.51563 Y-0.94122 I-6.54562 J-38.05842
G3 X9.40647 Y-0.76651 I-15.58315 J-95.32439
G1 X9.25981 Y-0.74419
G3 X9.25588 Y-0.7436 I-0.15047 J-0.98861
G1 X8.47179 Y-0.62744
G3 X8.468 Y-0.62689 I-0.14654 J-0.9892
G3 X5.74233 Y-0.26632 I-16.74319 J-116.0859
G3 X5.73967 Y-0.266 I-0.11951 J-0.99283
G1 X5.35288 Y-0.22049
G3 X5.35193 Y-0.22038 I-0.11686 J-0.99315
G3 X4.1145 Y-0.08457 I-10.52554 J-90.19909
G3 X4.11332 Y-0.08445 I-0.10228 J-0.99476
G1 X3.70502 Y-0.04296
G3 X3.70184 Y-0.04264 I-0.1011 J-0.99488
G1 X3.46839 Y-0.01967
G3 X3.46661 Y-0.0195 I-0.09792 J-0.99519
G1 X3.34209 Y-0.00747
G3 X3.33815 Y-0.0071 I-0.09614 J-0.99537
G1 X2.67393 Y0.0544
G3 X2.66869 Y0.05487 I-0.0922 J-0.99574
G1 X2.28895 Y0.08802
G3 X2.2883 Y0.08808 I-0.08696 J-0.99621
G3 X0.42142 Y0.22994 I-7.6383 J-88.1669
G3 X0.41965 Y0.23005 I-0.06522 J-0.99787
G1 X-0.19613 Y0.2692
G3 X-0.19999 Y0.26943 I-0.06344 J-0.99799
G1 X-0.3643 Y0.27924
G3 X-0.36597 Y0.27934 I-0.05958 J-0.99822
G1 X-0.54124 Y0.28951
G3 X-0.54302 Y0.28961 I-0.05792 J-0.99832
G1 X-0.72999 Y0.30012
G3 X-0.73109 Y0.30019 I-0.05614 J-0.99842
G3 X-3.72324 Y0.42384 I-5.98668 J-108.59675
G3 X-5.68671 Y0.46316 I-3.10774 J-106.15571
G3 X-5.8273 Y0.46503 I-0.12029 J-3.75878
G3 X-5.98091 Y0.46646 I-0.11218 J-3.78761
G1 X-6.71328 Y0.4722
G3 X-6.71878 Y0.47222 I-0.00783 J-0.99997
G1 X-7.64024 Y0.47436
G3 X-7.64579 I-0.00232 J-1.0
G1 X-8.56726 Y0.47138
G3 X-8.57145 Y0.47136 I0.00323 J-0.99999
G1 X-9.17669 Y0.46687
G3 X-9.26684 Y0.46621 I-0.02486 J-2.7893
G3 X-9.35968 Y0.46516 I-0.01424 J-2.8241
G1 X-9.7241 Y0.46126
G3 X-10.43628 Y0.45192 I1.37278 J-131.69382
G3 X-10.43651 Y0.45191 I0.01583 J-0.99987
G1 X-11.14344 Y0.44056
G3 X-11.14722 Y0.44049 I0.01606 J-0.99987
G1 X-12.55978 Y0.41247
G3 X-12.75528 Y0.40811 I0.35213 J-20.16023
G1 X-13.88297 Y0.38099
G3 X-13.88473 Y0.38094 I0.02404 J-0.99971
G1 X-14.26118 Y0.37123
G3 X-14.26294 Y0.37118 I0.0258 J-0.99967
G1 X-15.76852 Y0.32966
G3 X-15.77066 Y0.3296 I0.02756 J-0.99962
G1 X-17.24033 Y0.28591
G3 X-17.24176 Y0.28587 I0.02971 J-0.99956
G1 X-18.71144 Y0.24007
G3 X-18.71248 Y0.24004 I0.03115 J-0.99951
G1 X-20.78781 Y0.17321
G3 X-20.7883 Y0.1732 I0.03218 J-0.99948
G1 X-21.48008 Y0.15059
G1 X-21.48022 Y0.15058
G1 X-21.94656 Y0.13528
G1 X-21.94665 Y0.13527
G1 X-22.41309 Y0.11992
G1 X-22.41317
G1 X-22.72419 Y0.10966
G1 X-22.72435 Y0.10965
G1 X-23.96821 Y0.06841
G3 X-23.96868 Y0.0684 I0.03314 J-0.99945
G1 X-25.36288 Y0.02151
G3 X-25.36354 Y0.02149 I0.03361 J-0.99943
G1 X-25.8283 Y0.00555
G3 X-25.82872 Y0.00554 I0.03427 J-0.99941
G1 X-26.09319 Y-0.00364
G3 X-26.52767 Y-0.01821 I6.15587 J-190.09245
G1 F300.0 Z-4.0
G1 F800.0 X-26.39983 Y0.25253
G1 X-26.18614 Y0.6956
G1 X-26.02354 Y1.02574
G1 X-25.89983 Y1.27311
G1 X-25.85406 Y1.36383
G1 X-25.68879 Y1.6879
G1 X-25.52215 Y2.00941
G1 X-25.2834 Y2.46141
G2 X-24.92153 Y3.12841 I50.25676 J-26.83374
G1 X-24.7355 Y3.46346
G1 X-24.5479 Y3.79632
G1 X-24.41729 Y4.02518
G2 X-23.47768 Y5.60878 I56.98629 J-32.74144
G1 X-23.1892 Y6.0749
G1 X-22.97193 Y6.42032
G1 X-22.64049 Y6.93834
G1 X-22.30458 Y7.45295
G1 X-21.99099 Y7.92435
G1 X-21.75407 Y8.27498
G1 X-21.39313 Y8.80036
G1 X-21.02771 Y9.32193
G1 X-20.68673 Y9.79959
G1 X-20.42928 Y10.15462
G1 X-20.03584 Y10.6882
G2 X-19.64209 Y11.21155 I53.49262 J-39.83574
G1 X-19.27084 Y11.69551
G1 X-18.99101 Y12.05438
G1 X-18.77924 Y12.3226
G1 X-18.70083 Y12.4212
G1 X-18.41975 Y12.77141
G1 X-18.13536 Y13.12073
G2 X-16.5121 Y15.01936 I43.54164 J-35.58333
G1 X-16.07706 Y15.50103
G1 X-15.99641 Y15.58907
G3 X-15.99598 Y15.58955 I-0.73741 J0.67545
G2 X-14.75318 Y16.89679 I34.66679 J-31.71327
G1 X-14.63629 Y17.01497
G2 X-12.85523 Y18.71538 I33.49927 J-33.3054
G2 X-10.81769 Y20.43448 I25.5302 J-28.19216
G3 X-10.81522 Y20.43643 I-0.61767 J0.78643
G2 X-10.55245 Y20.6411 I14.34493 J-18.14656
G3 X-10.55197 Y20.64146 I-0.60878 J0.79334
G1 X-10.43228 Y20.73343
G2 X-8.63127 Y22.02491 I21.87533 J-28.60427
G2 X-7.47992 Y22.76363 I20.45155 J-30.60833
G1 X-7.33339 Y22.85302
G1 X-7.20613 Y22.92982
G1 X-6.98005 Y23.06438
G1 X-6.8117 Y23.16303
G1 X-6.55592 Y23.31041
G1 X-6.29863 Y23.45566
G1 X-6.14816 Y23.53923
G1 X-6.00702 Y23.6167
G1 X-5.73836 Y23.76173
G1 X-5.50329 Y23.88606
G1 X-5.29674 Y23.99336
G1 X-5.11541 Y24.08607
G1 X-4.95727 Y24.1658
G1 X-4.67637 Y24.30488
G1 X-4.46601 Y24.40693
G1 X-4.30862 Y24.48212
G1 X-4.06976 Y24.59436
G1 X-3.8291 Y24.70519
G2 X-2.5469 Y25.25883 I14.7374 J-32.36936
G3 X-2.5429 Y25.26047 I-0.37831 J0.92568
G2 X-1.90148 Y25.5151 I9.16265 J-22.14574
G1 X-1.56997 Y25.64113
G1 X-1.24172 Y25.76232
G1 X-0.90986 Y25.88124
G1 X-0.61759 Y25.98304
G2 X1.43986 Y26.62534 I12.72639 J-37.14956
G1 X1.78514 Y26.72097
G2 X2.9797 Y27.02636 I9.68366 J-35.3892
G3 X2.98333 Y27.02723 I-0.23137 J0.97287
G2 X4.18718 Y27.29637 I8.39217 J-34.71096
G3 X4.18934 Y27.29682 I-0.20129 J0.97953
G2 X6.96938 Y27.77815 I8.58353 J-41.30724
G3 X6.97015 Y27.77826 I-0.13756 J0.99049
G2 X8.35656 Y27.94753 I5.58933 J-40.01607
G1 X8.70607 Y27.98281
G1 X9.22968 Y28.03009
G1 X9.75379 Y28.07067
G1 X10.10106 Y28.09382
G2 X12.51618 Y28.16965 I2.37297 J-37.07948
G3 X12.53989 Y28.1699 I0.00113 J1.0
G2 X12.57986 Y28.16985 I0.01882 J-0.83327
G3 X12.62506 Y28.16972 I0.02537 J0.99968
G2 X12.66325 Y28.16958 I0.01612 J-0.81266
G3 X12.68529 Y28.16922 I0.02716 J0.99963
G2 X13.97 Y28.14044 I-0.19053 J-37.19109
G3 X13.98908 Y28.13987 I0.03967 J0.99921
G2 X14.02991 Y28.13818 I-0.0202 J-0.98132
G3 X14.06848 Y28.13652 I0.06218 J0.99807
G2 X14.1058 Y28.13489 I-0.02206 J-0.93409
G3 X14.14976 Y28.13306 I0.06355 J0.99798
G2 X14.24048 Y28.12883 I-0.03284 J-1.67654
G3 X14.25845 Y28.12766 I0.07368 J0.99728
G1 X14.76399 Y28.09945
G2 X15.24488 Y28.06571 I-1.15632 J-19.92363
G3 X15.24737 Y28.06551 I0.08204 J0.99663
G2 X16.60421 Y27.93284 I-3.04021 J-38.09931
G3 X16.61553 Y27.9316 I0.11504 J0.99336
G2 X16.75619 Y27.91456 I-0.44228 J-4.241
G3 X16.78194 Y27.91135 I0.13671 J0.99061
G2 X16.90562 Y27.89576 I-0.48715 J-4.36286
G3 X16.92979 Y27.89266 I0.13914 J0.99027
G2 X17.16268 Y27.86182 I-0.82097 J-7.09351
G3 X17.17771 Y27.85969 I0.14758 J0.98905
G2 X17.94297 Y27.74578 I-3.45851 J-25.86114
G3 X17.94619 Y27.74525 I0.16188 J0.98681
G2 X20.60053 Y27.19928 I-4.94024 J-30.74307
G1 X20.93433 Y27.11348
G1 X21.22429 Y27.03577
G2 X23.22042 Y26.41892 I-8.70505 J-31.7078
G1 X23.38605 Y26.36123
G2 X24.59426 Y25.90972 I-10.1723 J-29.06223
G1 X24.89821 Y25.78757
G1 X25.12279 Y25.69513
G1 X25.28989 Y25.62511
G1 X25.54202 Y25.51749
G1 X25.79222 Y25.40832
G1 X26.11347 Y25.26472
G2 X28.30187 Y24.18205 I-14.85123 J-32.7719
G3 X28.30236 Y24.18178 I0.47359 J0.88075
G2 X30.72768 Y22.76477 I-18.47565 J-34.40644
G3 X30.72817 Y22.76446 I0.53519 J0.84473
G2 X33.04232 Y21.1885 I-22.21256 J-35.10415
G1 X33.32291 Y20.98165
G1 X33.56409 Y20.80099
G1 X33.99126 Y20.47449
G3 X34.01244 Y20.45874 I0.60727 J0.7945
G2 X34.03953 Y20.43772 I-0.2979 J-0.41183
G3 X34.09035 Y20.39815 I0.6394 J0.76888
G2 X34.11365 Y20.37999 I-0.26406 J-0.36271
G3 X34.16322 Y20.34122 I0.6405 J0.76796
G2 X34.18307 Y20.32567 I-0.232 J-0.31672
G3 X34.21206 Y20.30234 I0.6415 J0.76713
G2 X34.45942 Y20.1067 I-9.72142 J-12.54576
G3 X34.45972 Y20.10646 I0.6281 J0.77814
G1 X34.84665 Y19.79438
G1 X35.23003 Y19.47783
G3 X35.25184 Y19.46032 I0.6367 J0.77112
G2 X35.26528 Y19.44908 I-0.15522 J-0.19908
G3 X35.29055 Y19.42714 I0.66811 J0.74406
G2 X37.25176 Y17.67545 I-27.42351 J-32.67747
G1 X37.49376 Y17.44334
G2 X39.11581 Y15.78194 I-28.83174 J-29.77147
G3 X39.11806 Y15.77951 I0.73482 J0.67827
G2 X39.54836 Y15.30438 I-18.35496 J-17.05542
G3 X39.5533 Y15.29883 I0.74974 J0.66174
G2 X40.18716 Y14.5687 I-23.03017 J-20.63375
G1 X40.5057 Y14.18726
G2 X40.80733 Y13.81645 I-18.05899 J-14.9982
G1 X41.01066 Y13.56096
G2 X42.34129 Y11.76607 I-28.11333 J-22.23219
G3 X42.34164 Y11.76557 I0.8215 J0.57021
G2 X43.71859 Y9.63565 I-31.11127 J-21.62289
G2 X44.35034 Y8.5412 I-32.98143 J-19.7674
G3 X44.35796 Y8.52772 I0.87417 J0.48562
G2 X44.41937 Y8.41663 I-3.12369 J-1.79915
G3 X44.43384 Y8.39028 I0.88358 J0.46829
G2 X44.48634 Y8.29445 I-2.91329 J-1.65807
G3 X44.49978 Y8.26978 I0.88476 J0.46605
G2 X44.54457 Y8.18734 I-2.69791 J-1.51946
G3 X44.55935 Y8.16018 I0.88578 J0.4641
G2 X44.64321 Y8.00425 I-3.8435 J-2.16781
G3 X44.65858 Y7.97542 I0.89002 J0.45593
G2 X44.71875 Y7.86226 I-3.22572 J-1.78782
G3 X44.73225 Y7.83669 I0.89096 J0.45408
G2 X44.77514 Y7.75535 I-2.67079 J-1.45995
G3 X44.78913 Y7.72879 I0.89155 J0.45293
G2 X44.85662 Y7.59959 I-3.4154 J-1.86615
G3 X44.87193 Y7.57013 I0.89489 J0.44629
G2 X44.93853 Y7.44119 I-3.35326 J-1.81372
G3 X44.9453 Y7.42771 I0.89705 J0.44193
G2 X46.02715 Y5.14629 I-37.42323 J-19.1434
G2 X46.9571 Y2.82236 I-36.62347 J-16.00341
G1 X47.0634 Y2.52758
G2 X47.73237 Y0.47713 I-36.77284 J-13.13182
G1 X47.81714 Y0.18701
G1 X47.96095 Y-0.32558
G2 X48.34459 Y-1.85698 I-36.67307 J-10.001
G3 X48.34555 Y-1.86113 I0.97486 J0.22281
G2 X48.40675 Y-2.13492 I-15.11002 J-3.52133
G1 X48.51381 Y-2.64083
G1 X48.58826 Y-3.01649
G2 X48.78521 Y-4.14479 I-38.55185 J-7.3109
G2 X49.05008 Y-6.36532 I-30.7144 J-4.78962
G2 X49.13733 Y-8.50444 I-26.40356 J-2.14836
G3 Y-8.50559 I1.0 J0.00035
G2 X49.04764 Y-10.55251 I-22.62616 J-0.03398
G1 X49.02366 Y-10.80645
G2 X48.95732 Y-11.39108 I-19.67715 J1.93681
G1 X48.75825 Y-11.32782
G3 X48.75662 Y-11.32731 I-0.30282 J-0.95305
G1 X48.33574 Y-11.19437
G3 X48.33408 Y-11.19385 I-0.30119 J-0.95356
G1 X47.49264 Y-10.92968
G3 X46.51213 Y-10.62332 I-49.66865 J-157.24269
G1 X45.53662 Y-10.31899
G1 X44.72861 Y-10.06675
G1 X44.45959 Y-9.98268
G1 X43.38331 Y-9.64563
G1 X41.1174 Y-8.93147
G1 X39.96533 Y-8.56581
G1 X38.81291 Y-8.1987
G1 X37.07999 Y-7.64562
G3 X36.49635 Y-7.45954 I-19.97072 J-61.63185
G1 X35.33391 Y-7.09013
G3 X35.33189 Y-7.08949 I-0.30286 J-0.95303
G1 X34.16693 Y-6.72201
G3 X34.16395 Y-6.72107 I-0.30084 J-0.95368
G1 X33.04873 Y-6.3731
G3 X33.0449 Y-6.37191 I-0.29786 J-0.95461
G1 X31.94483 Y-6.0335
G3 X31.85426 Y-6.00533 I-0.58732 J-1.72871
G3 X31.76016 Y-5.9772 I-0.57206 J-1.74198
G1 X31.28937 Y-5.83448
G3 X31.17844 Y-5.80102 I-0.57033 J-1.69019
G1 X30.61714 Y-5.63266
G3 X30.61285 Y-5.63139 I-0.2873 J-0.95784
G1 X29.45302 Y-5.28915
G3 X29.44962 Y-5.28815 I-0.28301 J-0.95912
G1 X29.2948 Y-5.24306
G3 X29.29174 Y-5.24218 I-0.27961 J-0.96011
G1 X28.31576 Y-4.96132
G3 X28.31031 Y-4.95977 I-0.27654 J-0.961
G1 X27.3328 Y-4.68447
G3 X27.32812 Y-4.68317 I-0.27109 J-0.96255
G1 X26.67548 Y-4.50278
G3 X26.67075 Y-4.50148 I-0.26641 J-0.96386
G1 X25.70162 Y-4.23872
G3 X25.69591 Y-4.23719 I-0.26168 J-0.96515
G1 X24.72525 Y-3.98016
G3 X24.72045 Y-3.97891 I-0.25597 J-0.96668
G1 X24.07249 Y-3.81077
G3 X24.07004 Y-3.81013 I-0.25117 J-0.96794
G1 X23.89712 Y-3.76573
G3 X23.89672 Y-3.76563 I-0.24873 J-0.96857
G3 X20.96977 Y-3.04358 I-41.12494 J-160.41355
G3 X20.96733 Y-3.043 I-0.23066 J-0.97303
G1 X20.14303 Y-2.84978
G3 X20.13797 Y-2.84861 I-0.22822 J-0.97361
G1 X19.31476 Y-2.66015
G3 X18.76636 Y-2.537 I-7.74573 J-33.20855
G3 X18.66911 Y-2.51551 I-0.49174 J-1.99504
G1 X17.92337 Y-2.35186
G3 X17.92211 Y-2.35159 I-0.21435 J-0.97676
G3 X15.08458 Y-1.76388 I-29.39232 J-134.76718
G3 X14.98393 Y-1.74394 I-0.68394 J-3.18785
G3 X14.88891 Y-1.72531 I-0.69605 J-3.29853
G3 X14.78103 Y-1.70439 I-0.71915 J-3.42055
G1 X14.20551 Y-1.59339
G3 X13.99421 Y-1.55313 I-1.28367 J-6.16285
G3 X13.88347 Y-1.53225 I-1.09849 J-5.52348
G3 X13.75359 Y-1.50785 I-1.31334 J-6.63343
G3 X13.40455 Y-1.44292 I-3.41895 J-17.40728
G3 X12.02077 Y-1.19444 I-18.93702 J-101.48248
G1 X12.0207 Y-1.19443
G1 X12.02083 Y-1.19445
G1 X12.02077 Y-1.19444
G1 X11.62724 Y-1.12648
G3 X11.62468 Y-1.12605 I-0.17016 J-0.98542
G1 X11.34995 Y-1.07934
G3 X11.34783 Y-1.07898 I-0.16761 J-0.98585
G1 X11.07496 Y-1.03319
G3 X10.51563 Y-0.94122 I-6.54562 J-38.05842
G3 X9.40647 Y-0.76651 I-15.58315 J-95.32439
G1 X9.25981 Y-0.74419
G3 X9.25588 Y-0.7436 I-0.15047 J-0.98861
G1 X8.47179 Y-0.62744
G3 X8.468 Y-0.62689 I-0.14654 J-0.9892
G3 X5.74233 Y-0.26632 I-16.74319 J-116.0859
G3 X5.73967 Y-0.266 I-0.11951 J-0.99283
G1 X5.35288 Y-0.22049
G3 X5.35193 Y-0.22038 I-0.11686 J-0.99315
G3 X4.1145 Y-0.08457 I-10.52554 J-90.19909
G3 X4.11332 Y-0.08445 I-0.10228 J-0.99476
G1 X3.70502 Y-0.04296
G3 X3.70184 Y-0.04264 I-0.1011 J-0.99488
G1 X3.46839 Y-0.01967
G3 X3.46661 Y-0.0195 I-0.09792 J-0.99519
G1 X3.34209 Y-0.00747
G3 X3.33815 Y-0.0071 I-0.09614 J-0.99537
G1 X2.67393 Y0.0544
G3 X2.66869 Y0.05487 I-0.0922 J-0.99574
G1 X2.28895 Y0.08802
G3 X2.2883 Y0.08808 I-0.08696 J-0.99621
G3 X0.42142 Y0.22994 I-7.6383 J-88.1669
G3 X0.41965 Y0.23005 I-0.06522 J-0.99787
G1 X-0.19613 Y0.2692
G3 X-0.19999 Y0.26943 I-0.06344 J-0.99799
G1 X-0.3643 Y0.27924
G3 X-0.36597 Y0.27934 I-0.05958 J-0.99822
G1 X-0.54124 Y0.28951
G3 X-0.54302 Y0.28961 I-0.05792 J-0.99832
G1 X-0.72999 Y0.30012
G3 X-0.73109 Y0.30019 I-0.05614 J-0.99842
G3 X-3.72324 Y0.42384 I-5.98668 J-108.59675
G3 X-5.68671 Y0.46316 I-3.10774 J-106.15571
G3 X-5.8273 Y0.46503 I-0.12029 J-3.75878
G3 X-5.98091 Y0.46646 I-0.11218 J-3.78761
G1 X-6.71328 Y0.4722
G3 X-6.71878 Y0.47222 I-0.00783 J-0.99997
G1 X-7.64024 Y0.47436
G3 X-7.64579 I-0.00232 J-1.0
G1 X-8.56726 Y0.47138
G3 X-8.57145 Y0.47136 I0.00323 J-0.99999
G1 X-9.17669 Y0.46687
G3 X-9.26684 Y0.46621 I-0.02486 J-2.7893
G3 X-9.35968 Y0.46516 I-0.01424 J-2.8241
G1 X-9.7241 Y0.46126
G3 X-10.43628 Y0.45192 I1.37278 J-131.69382
G3 X-10.43651 Y0.45191 I0.01583 J-0.99987
G1 X-11.14344 Y0.44056
G3 X-11.14722 Y0.44049 I0.01606 J-0.99987
G1 X-12.55978 Y0.41247
G3 X-12.75528 Y0.40811 I0.35213 J-20.16023
G1 X-13.88297 Y0.38099
G3 X-13.88473 Y0.38094 I0.02404 J-0.99971
G1 X-14.26118 Y0.37123
G3 X-14.26294 Y0.37118 I0.0258 J-0.99967
G1 X-15.76852 Y0.32966
G3 X-15.77066 Y0.3296 I0.02756 J-0.99962
G1 X-17.24033 Y0.28591
G3 X-17.24176 Y0.28587 I0.02971 J-0.99956
G1 X-18.71144 Y0.24007
G3 X-18.71248 Y0.24004 I0.03115 J-0.99951
G1 X-20.78781 Y0.17321
G3 X-20.7883 Y0.1732 I0.03218 J-0.99948
G1 X-21.48008 Y0.15059
G1 X-21.48022 Y0.15058
G1 X-21.94656 Y0.13528
G1 X-21.94665 Y0.13527
G1 X-22.41309 Y0.11992
G1 X-22.41317
G1 X-22.72419 Y0.10966
G1 X-22.72435 Y0.10965
G1 X-23.96821 Y0.06841
G3 X-23.96868 Y0.0684 I0.03314 J-0.99945
G1 X-25.36288 Y0.02151
G3 X-25.36354 Y0.02149 I0.03361 J-0.99943
G1 X-25.8283 Y0.00555
G3 X-25.82872 Y0.00554 I0.03427 J-0.99941
G1 X-26.09319 Y-0.00364
G3 X-26.52767 Y-0.01821 I6.15587 J-190.09245
G0 Z3.0
G0 X-20.19211 Y18.25931
G0 Z1.0
G1 F300.0 Z-2.0
G3 F800.0 X-20.48299 Y18.59389 I-16.47344 J-14.02796
G3 X-20.84217 Y18.99154 I-15.08315 J-13.26294
G3 X-20.84265 Y18.99206 I-0.73308 J-0.68014
G1 X-20.97908 Y19.1389
G3 X-20.98426 Y19.14444 I-0.7326 J-0.68066
G1 X-21.12183 Y19.29027
G3 X-21.12607 Y19.29474 I-0.72742 J-0.6862
G1 X-21.21842 Y19.39143
G3 X-21.22486 Y19.39811 I-0.72318 J-0.69066
G3 X-21.60222 Y19.78399 I-76.05118 J-73.99359
G3 X-21.60888 Y19.79071 I-0.71318 J-0.70098
G3 X-22.39665 Y20.55511 I-27.27786 J-27.32349
G3 X-22.39966 Y20.55794 I-0.68611 J-0.7275
G1 X-22.50379 Y20.65534
G3 X-22.50697 Y20.6583 I-0.6831 J-0.73032
G3 X-24.45167 Y22.35389 I-28.68542 J-30.93665
G3 X-24.45295 Y22.35495 I-0.63383 J-0.77347
G1 X-24.5998 Y22.47488
G3 X-24.60301 Y22.47748 I-0.63254 J-0.77453
G1 X-24.75036 Y22.59682
G3 X-24.75509 Y22.60062 I-0.62934 J-0.77713
G1 X-25.05121 Y22.83746
G3 X-25.05638 Y22.84157 I-0.62461 J-0.78094
G1 X-25.25486 Y22.99818
G3 X-25.25961 Y23.00191 I-0.61943 J-0.78505
G1 X-25.52468 Y23.20847
G3 X-25.89604 Y23.49319 I-14.77301 J-18.88425
G3 X-25.89641 Y23.49346 I-0.60066 J-0.7995
G1 X-26.37566 Y23.85318
G3 X-26.38287 Y23.85854 I-0.6003 J-0.79977
G1 X-26.65859 Y24.06164
G3 X-26.66468 Y24.0661 I-0.59309 J-0.80514
G1 X-27.03953 Y24.33788
G3 X-27.04417 Y24.34123 I-0.587 J-0.80959
G1 X-27.16965 Y24.43112
G3 X-27.17542 Y24.43522 I-0.58236 J-0.81293
G1 X-27.67977 Y24.79114
G3 X-27.68569 Y24.79529 I-0.57659 J-0.81703
G1 X-27.83053 Y24.89595
G3 X-27.83236 Y24.89721 I-0.57067 J-0.82118
G3 X-29.01233 Y25.69255 I-33.68386 J-48.701
G3 X-29.06113 Y25.72477 I-0.95745 J-1.39667
G3 X-29.11357 Y25.75871 I-0.95147 J-1.41283
G1 X-29.63895 Y26.09758
G3 X-29.64873 Y26.10381 I-0.54203 J-0.84036
G1 X-30.17656 Y26.43565
G3 X-30.26456 Y26.49067 I-1.21877 J-1.85157
G3 X-30.35823 Y26.548 I-1.23755 J-1.91658
G1 X-30.75875 Y26.79227
G3 X-30.76785 Y26.79775 I-0.52068 J-0.85375
G1 X-31.31385 Y27.12284
G3 X-31.39839 Y27.17265 I-1.45549 J-2.37354
G3 X-31.47381 Y27.21668 I-1.49138 J-2.46821
G3 X-31.55175 Y27.262 I-1.54552 J-2.56828
G3 X-31.63231 Y27.30866 I-1.60838 J-2.68443
G3 X-31.72219 Y27.36035 I-1.68233 J-2.82108
G3 X-33.4788 Y28.32572 I-23.30228 J-40.32035
G1 X-33.47798 Y28.33151
G2 X-33.28643 Y29.56539 I116.55025 J-17.46117
G2 X-32.58982 Y33.24232 I75.18514 J-12.33972
G2 X-31.21931 Y38.52088 I63.93968 J-13.78391
G1 X-31.02169 Y39.15459
G3 X-31.02094 Y39.15702 I-0.95466 J0.2977
G2 X-30.93821 Y39.41514 I12.44045 J-3.8448
G3 X-30.93559 Y39.42314 I-0.94906 J0.3151
G2 X-29.45994 Y43.46209 I53.64516 J-17.31055
G2 X-28.44093 Y45.78027 I46.49702 J-19.05573
G3 X-28.44063 Y45.78092 I-0.90503 J0.42535
G2 X-27.30562 Y48.03853 I42.03928 J-19.72109
G1 X-27.15883 Y48.30952
G1 X-26.87655 Y48.81864
G2 X-24.7347 Y52.23292 I36.64872 J-20.61162
G3 X-24.73445 Y52.23327 I-0.82067 J0.5714
G2 X-21.72648 Y55.99676 I29.76111 J-20.70275
G3 X-21.72633 Y55.99694 I-0.73794 J0.67486
G2 X-18.24442 Y59.27989 I23.8059 J-21.76069
G2 X-14.25133 Y62.02044 I19.0962 J-23.54459
G2 X-9.72208 Y64.15388 I15.46323 J-26.95364
G2 X-7.22429 Y64.982 I12.02321 J-32.08356
G2 X-5.95461 Y65.32177 I9.28956 J-32.17183
G1 X-5.79307 Y65.36132
G1 X-5.65108 Y65.39542
G3 X-5.64629 Y65.39659 I-0.23354 J0.97235
G2 X-5.16841 Y65.50674 I4.14367 J-16.88496
G3 X-5.16329 Y65.50786 I-0.21085 J0.97752
G1 X-5.03881 Y65.53539
G1 X-4.85348 Y65.57553
G1 X-4.66828 Y65.61462
G1 X-4.49819 Y65.64963
G2 X0.8281 Y66.3438 I7.63506 J-37.80201
G3 X0.83068 Y66.34396 I-0.05987 J0.99821
G2 X3.71875 Y66.42152 I2.53178 J-40.46416
G3 X3.71949 Y66.42151 I0.00879 J0.99996
G2 X6.6126 Y66.30475 I-0.36072 J-44.83853
G2 X12.44661 Y65.48826 I-3.27216 J-44.63137
G3 X12.44718 Y65.48814 I0.20348 J0.97908
G2 X15.2837 Y64.79853 I-8.67234 J-41.84989
G3 X15.28429 Y64.79837 I0.26928 J0.96306
G2 X18.06476 Y63.91611 I-11.12714 J-39.89007
G3 X18.09411 Y63.90616 I0.33583 J0.94192
G2 X18.11799 Y63.8976 I-0.11963 J-0.37156
G3 X18.17699 Y63.87639 I0.36764 J0.92997
G2 X18.19967 Y63.86821 I-0.11484 J-0.35394
G3 X18.22948 Y63.8569 I0.36959 J0.92919
G2 X20.75829 Y62.84036 I-13.03667 J-36.08448
G1 X21.07274 Y62.69892
G2 X23.20615 Y61.64034 I-15.20684 J-33.32629
G1 X23.20616
G1 X23.20615
G2 X25.49348 Y60.28536 I-15.09929 J-28.09713
G3 X25.49516 Y60.28427 I0.54508 J0.83838
G2 X27.65316 Y58.74419 I-15.88641 J-24.54236
G3 X27.65443 Y58.7432 I0.61721 J0.7868
G2 X29.54684 Y57.11994 I-16.91579 J-21.63538
G1 X29.77726 Y56.90094
G2 X31.28434 Y55.32797 I-18.36523 J-19.10448
G2 X34.07809 Y51.51055 I-19.55016 J-17.23858
G2 X36.09741 Y47.41374 I-24.04434 J-14.39755
G3 X36.09772 Y47.41295 I0.93 J0.36755
G2 X36.84283 Y45.31682 I-28.98729 J-11.48457
G1 X36.92652 Y45.04816
G2 X37.19869 Y44.11257 I-42.79998 J-12.95823
G1 X37.3255 Y43.63881
G1 X37.44596 Y43.16224
G2 X38.23703 Y38.89303 I-37.81944 J-9.21572
G3 X38.2372 Y38.89172 I0.99189 J0.12707
G2 X38.576 Y34.69928 I-43.37443 J-5.61511
G3 X38.57604 Y34.69818 I0.99947 J0.03253
G2 X38.53183 Y30.65579 I-45.34172 J-1.52559
G3 X38.5318 Y30.65532 I0.99846 J-0.05548
G2 X38.14433 Y26.8018 I-42.81128 J2.35845
G2 X37.99842 Y25.88229 I-40.07729 J5.88836
G3 X37.99836 Y25.88194 I0.98578 J-0.16806
G2 X37.75842 Y24.60225 I-38.11927 J6.4848
G1 X37.58061 Y24.72424
G3 X37.57272 Y24.72959 I-0.56573 J-0.82459
G1 X37.31599 Y24.90216
G3 X37.31131 Y24.90529 I-0.55785 J-0.82994
G1 X37.16401 Y25.00309
G3 X37.15797 Y25.00707 I-0.55316 J-0.83307
G1 X36.74994 Y25.27377
G3 X36.74166 Y25.27913 I-0.54712 J-0.83705
G1 X36.33107 Y25.54175
G3 X36.32467 Y25.54582 I-0.53884 J-0.84241
G1 X36.04958 Y25.71885
G3 X36.04577 Y25.72123 I-0.53243 J-0.84647
G1 X35.88809 Y25.81943
G3 X35.88197 Y25.82321 I-0.52862 J-0.84886
G1 X35.29843 Y26.1808
G3 X35.28938 Y26.18628 I-0.5225 J-0.85264
G1 X34.70204 Y26.53772
G3 X34.6965 Y26.54101 I-0.51345 J-0.85812
G1 X34.52805 Y26.64034
G3 X34.52341 Y26.64305 I-0.50791 J-0.86141
G1 X34.05251 Y26.91731
G3 X33.98688 Y26.95516 I-0.7306 J-1.19104
G1 X33.49386 Y27.23658
G3 X33.42744 Y27.27413 I-0.72901 J-1.21222
G1 X33.08804 Y27.46439
G3 X32.94415 Y27.54442 I-2.58357 J-4.47545
G3 X32.80947 Y27.61876 I-2.97765 J-5.23603
G3 X32.53471 Y27.76913 I-6.48132 J-11.51637
G1 X32.00387 Y28.05495
G3 X31.99644 Y28.05891 I-0.47408 J-0.88048
G1 X31.65437 Y28.2394
G3 X31.58993 Y28.27363 I-0.74776 J-1.32963
G3 X31.52169 Y28.30862 I-0.73428 J-1.34808
G1 X31.08831 Y28.53176
G3 X31.07971 Y28.53614 I-0.45777 J-0.88907
G1 X30.62914 Y28.76266
G3 X30.62153 Y28.76644 I-0.44917 J-0.89345
G1 X30.31989 Y28.91489
G3 X30.31238 Y28.91855 I-0.44156 J-0.89723
G1 X29.90848 Y29.11315
G3 X29.90587 Y29.1144 I-0.43406 J-0.90089
G3 X28.23517 Y29.86642 I-17.08393 J-35.72207
G3 X28.14789 Y29.90323 I-0.67856 J-1.4871
G3 X26.32197 Y30.6157 I-15.0024 J-35.75229
G3 X26.3134 Y30.61875 I-0.33984 J-0.94048
G1 X25.84463 Y30.78333
G3 X25.83072 Y30.7881 I-0.33127 J-0.94354
G1 X25.35966 Y30.94575
G3 X25.35334 Y30.94784 I-0.31736 J-0.9483
G3 X24.3749 Y31.25119 I-10.18359 J-31.11721
G3 X22.33985 Y31.78207 I-9.61507 J-32.69148
G3 X22.33868 Y31.78234 I-0.22244 J-0.97495
G3 X20.23888 Y32.19913 I-8.71674 J-38.41796
G3 X20.23635 Y32.19955 I-0.16797 J-0.98579
G3 X19.18025 Y32.36394 I-7.49936 J-44.70572
G3 X19.17482 Y32.3647 I-0.14214 J-0.98985
G1 X18.82973 Y32.41233
G3 X18.82012 Y32.41361 I-0.13671 J-0.99061
G1 X18.36598 Y32.4718
G3 X18.22761 Y32.48877 I-0.54498 J-3.87047
G3 X18.0853 Y32.50543 I-0.5706 J-4.25741
G3 X16.20662 Y32.68563 I-5.34601 J-45.85316
G3 X16.20486 Y32.68576 I-0.07511 J-0.99718
G1 X15.94053 Y32.7052
G3 X15.93639 Y32.7055 I-0.07335 J-0.99731
G3 X13.79822 Y32.81336 I-3.92752 J-56.60934
G3 X13.79347 Y32.8135 I-0.03153 J-0.9995
G1 X13.35775 Y32.82517
G3 X13.35252 Y32.82529 I-0.02678 J-0.99964
G1 X13.20718 Y32.82843
G3 X13.2007 Y32.82855 I-0.02155 J-0.99977
G1 X12.61953 Y32.83731
G3 X12.61095 Y32.8374 I-0.01507 J-0.99989
G1 X12.22352 Y32.83991
G3 X12.21555 Y32.83993 I-0.00649 J-0.99998
G1 X11.69892 Y32.83917
G3 X11.69777 I0.00148 J-1.0
G3 X10.53599 Y32.82042 I0.11345 J-43.03716
G1 X10.53583 Y32.82041
G1 X10.15765 Y32.80915
G3 X10.14947 Y32.80887 I0.02978 J-0.99956
G1 X9.64542 Y32.78972
G3 X9.64133 Y32.78956 I0.03796 J-0.99928
G3 X8.13623 Y32.70322 I2.08209 J-49.45743
G3 X8.131 Y32.70282 I0.07247 J-0.99737
G1 X7.64012 Y32.66457
G3 X7.63334 Y32.66402 I0.0777 J-0.99698
G3 X6.31514 Y32.53417 I4.11244 J-48.50626
G3 X6.31089 Y32.53369 I0.11156 J-0.99376
G1 X6.12676 Y32.51222
G3 X6.12179 Y32.51163 I0.1158 J-0.99327
G1 X5.91149 Y32.48604
G3 X5.90571 Y32.48532 I0.12078 J-0.99268
G1 X5.66552 Y32.45467
G3 X5.66534 Y32.45465 I0.12656 J-0.99196
G3 X4.18924 Y32.23226 I4.21221 J-32.96842
G3 X4.18481 Y32.23148 I0.17115 J-0.98525
G1 X3.70974 Y32.14675
G3 X3.70257 Y32.14544 I0.17558 J-0.98446
G3 X1.73498 Y31.7214 I6.4581 J-34.74295
G3 X0.811 Y31.48036 I7.77426 J-31.69173
G3 X0.71584 Y31.454 I0.39868 J-1.62466
G3 X-0.26352 Y31.16554 I8.04902 J-29.13426
G3 X-2.21491 Y30.49908 I11.14878 J-35.83335
G3 X-2.31296 Y30.46243 I0.5272 J-1.56005
G3 X-3.85572 Y29.84524 I12.57305 J-33.6647
G3 X-3.85958 Y29.84358 I0.3928 J-0.91962
G1 X-4.35991 Y29.62738
G3 X-4.36637 Y29.62456 I0.39667 J-0.91796
G3 X-6.19752 Y28.7665 I17.52212 J-39.77608
G3 X-6.20027 Y28.76512 I0.44527 J-0.8954
G1 X-6.45263 Y28.63866
G3 X-6.45523 Y28.63735 I0.44802 J-0.89402
G3 X-8.53583 Y27.51791 I20.3586 J-40.33186
G3 X-10.5727 Y26.28521 I22.33022 J-39.19699
G3 X-10.57489 Y26.2838 I0.54015 J-0.84157
G1 X-10.89244 Y26.07882
G3 X-10.89919 Y26.07442 I0.54234 J-0.84016
G1 X-11.21513 Y25.86686
G3 X-11.21745 Y25.86532 I0.54909 J-0.83576
G3 X-11.85957 Y25.43226 I22.97677 J-34.76124
G3 X-11.8606 Y25.43155 I0.56683 J-0.82384
G3 X-12.27715 Y25.14242 I50.43164 J-73.10222
G3 X-12.52496 Y24.96731 I8.07654 J-11.69233
G3 X-13.81097 Y24.01971 I28.78708 J-40.41414
G3 X-13.81586 Y24.01596 I0.60609 J-0.7954
G1 X-14.22213 Y23.70242
G3 X-14.3564 Y23.59735 I2.07042 J-2.78423
G3 X-16.00979 Y22.23797 I31.21389 J-39.65014
G3 X-16.01435 Y22.23403 I0.65132 J-0.7588
G1 X-16.42664 Y21.8758
G3 X-16.43478 Y21.86865 I0.65588 J-0.75486
G1 X-16.84167 Y21.5073
G3 X-17.12729 Y21.24914 I10.16088 J-11.52829
G1 X-17.48306 Y20.92236
G3 X-17.48666 Y20.91904 I0.67646 J-0.73648
G3 X-18.76182 Y19.7014 I41.40308 J-44.63573
G3 X-18.76504 Y19.69822 I0.701 J-0.71316
G1 X-19.26583 Y19.20149
G3 X-19.27234 Y19.19497 I0.70423 J-0.70997
G1 X-19.76858 Y18.69358
G3 X-19.77185 Y18.69027 I0.71074 J-0.70345
G1 X-19.83774 Y18.62307
G3 X-19.8392 Y18.62159 I0.714 J-0.70014
G1 X-20.04904 Y18.40669
G3 X-20.05111 Y18.40456 I0.71546 J-0.69865
G1 X-20.19211 Y18.25931
G1 F300.0 Z-4.0
G3 F800.0 X-20.48299 Y18.59389 I-16.47344 J-14.02796
G3 X-20.84217 Y18.99154 I-15.08315 J-13.26294
G3 X-20.84265 Y18.99206 I-0.73308 J-0.68014
G1 X-20.97908 Y19.1389
G3 X-20.98426 Y19.14444 I-0.7326 J-0.68066
G1 X-21.12183 Y19.29027
G3 X-21.12607 Y19.29474 I-0.72742 J-0.6862
G1 X-21.21842 Y19.39143
G3 X-21.22486 Y19.39811 I-0.72318 J-0.69066
G3 X-21.60222 Y19.78399 I-76.05118 J-73.99359
G3 X-21.60888 Y19.79071 I-0.71318 J-0.70098
G3 X-22.39665 Y20.55511 I-27.27786 J-27.32349
G3 X-22.39966 Y20.55794 I-0.68611 J-0.7275
G1 X-22.50379 Y20.65534
G3 X-22.50697 Y20.6583 I-0.6831 J-0.73032
G3 X-24.45167 Y22.35389 I-28.68542 J-30.93665
G3 X-24.45295 Y22.35495 I-0.63383 J-0.77347
G1 X-24.5998 Y22.47488
G3 X-24.60301 Y22.47748 I-0.63254 J-0.77453
G1 X-24.75036 Y22.59682
G3 X-24.75509 Y22.60062 I-0.62934 J-0.77713
G1 X-25.05121 Y22.83746
G3 X-25.05638 Y22.84157 I-0.62461 J-0.78094
G1 X-25.25486 Y22.99818
G3 X-25.25961 Y23.00191 I-0.61943 J-0.78505
G1 X-25.52468 Y23.20847
G3 X-25.89604 Y23.49319 I-14.77301 J-18.88425
G3 X-25.89641 Y23.49346 I-0.60066 J-0.7995
G1 X-26.37566 Y23.85318
G3 X-26.38287 Y23.85854 I-0.6003 J-0.79977
G1 X-26.65859 Y24.06164
G3 X-26.66468 Y24.0661 I-0.59309 J-0.80514
G1 X-27.03953 Y24.33788
G3 X-27.04417 Y24.34123 I-0.587 J-0.80959
G1 X-27.16965 Y24.43112
G3 X-27.17542 Y24.43522 I-0.58236 J-0.81293
G1 X-27.67977 Y24.79114
G3 X-27.68569 Y24.79529 I-0.57659 J-0.81703
G1 X-27.83053 Y24.89595
G3 X-27.83236 Y24.89721 I-0.57067 J-0.82118
G3 X-29.01233 Y25.69255 I-33.68386 J-48.701
G3 X-29.06113 Y25.72477 I-0.95745 J-1.39667
G3 X-29.11357 Y25.75871 I-0.95147 J-1.41283
G1 X-29.63895 Y26.09758
G3 X-29.64873 Y26.10381 I-0.54203 J-0.84036
G1 X-30.17656 Y26.43565
G3 X-30.26456 Y26.49067 I-1.21877 J-1.85157
G3 X-30.35823 Y26.548 I-1.23755 J-1.91658
G1 X-30.75875 Y26.79227
G3 X-30.76785 Y26.79775 I-0.52068 J-0.85375
G1 X-31.31385 Y27.12284
G3 X-31.39839 Y27.17265 I-1.45549 J-2.37354
G3 X-31.47381 Y27.21668 I-1.49138 J-2.46821
G3 X-31.55175 Y27.262 I-1.54552 J-2.56828
G3 X-31.63231 Y27.30866 I-1.60838 J-2.68443
G3 X-31.72219 Y27.36035 I-1.68233 J-2.82108
G3 X-33.4788 Y28.32572 I-23.30228 J-40.32035
G1 X-33.47798 Y28.33151
G2 X-33.28643 Y29.56539 I116.55025 J-17.46117
G2 X-32.58982 Y33.24232 I75.18514 J-12.33972
G2 X-31.21931 Y38.52088 I63.93968 J-13.78391
G1 X-31.02169 Y39.15459
G3 X-31.02094 Y39.15702 I-0.95466 J0.2977
G2 X-30.93821 Y39.41514 I12.44045 J-3.8448
G3 X-30.93559 Y39.42314 I-0.94906 J0.3151
G2 X-29.45994 Y43.46209 I53.64516 J-17.31055
G2 X-28.44093 Y45.78027 I46.49702 J-19.05573
G3 X-28.44063 Y45.78092 I-0.90503 J0.42535
G2 X-27.30562 Y48.03853 I42.03928 J-19.72109
G1 X-27.15883 Y48.30952
G1 X-26.87655 Y48.81864
G2 X-24.7347 Y52.23292 I36.64872 J-20.61162
G3 X-24.73445 Y52.23327 I-0.82067 J0.5714
G2 X-21.72648 Y55.99676 I29.76111 J-20.70275
G3 X-21.72633 Y55.99694 I-0.73794 J0.67486
G2 X-18.24442 Y59.27989 I23.8059 J-21.76069
G2 X-14.25133 Y62.02044 I19.0962 J-23.54459
G2 X-9.72208 Y64.15388 I15.46323 J-26.95364
G2 X-7.22429 Y64.982 I12.02321 J-32.08356
G2 X-5.95461 Y65.32177 I9.28956 J-32.17183
G1 X-5.79307 Y65.36132
G1 X-5.65108 Y65.39542
G3 X-5.64629 Y65.39659 I-0.23354 J0.97235
G2 X-5.16841 Y65.50674 I4.14367 J-16.88496
G3 X-5.16329 Y65.50786 I-0.21085 J0.97752
G1 X-5.03881 Y65.53539
G1 X-4.85348 Y65.57553
G1 X-4.66828 Y65.61462
G1 X-4.49819 Y65.64963
G2 X0.8281 Y66.3438 I7.63506 J-37.80201
G3 X0.83068 Y66.34396 I-0.05987 J0.99821
G2 X3.71875 Y66.42152 I2.53178 J-40.46416
G3 X3.71949 Y66.42151 I0.00879 J0.99996
G2 X6.6126 Y66.30475 I-0.36072 J-44.83853
G2 X12.44661 Y65.48826 I-3.27216 J-44.63137
G3 X12.44718 Y65.48814 I0.20348 J0.97908
G2 X15.2837 Y64.79853 I-8.67234 J-41.84989
G3 X15.28429 Y64.79837 I0.26928 J0.96306
G2 X18.06476 Y63.91611 I-11.12714 J-39.89007
G3 X18.09411 Y63.90616 I0.33583 J0.94192
G2 X18.11799 Y63.8976 I-0.11963 J-0.37156
G3 X18.17699 Y63.87639 I0.36764 J0.92997
G2 X18.19967 Y63.86821 I-0.11484 J-0.35394
G3 X18.22948 Y63.8569 I0.36959 J0.92919
G2 X20.75829 Y62.84036 I-13.03667 J-36.08448
G1 X21.07274 Y62.69892
G2 X23.20615 Y61.64034 I-15.20684 J-33.32629
G1 X23.20616
G1 X23.20615
G2 X25.49348 Y60.28536 I-15.09929 J-28.09713
G3 X25.49516 Y60.28427 I0.54508 J0.83838
G2 X27.65316 Y58.74419 I-15.88641 J-24.54236
G3 X27.65443 Y58.7432 I0.61721 J0.7868
G2 X29.54684 Y57.11994 I-16.91579 J-21.63538
G1 X29.77726 Y56.90094
G2 X31.28434 Y55.32797 I-18.36523 J-19.10448
G2 X34.07809 Y51.51055 I-19.55016 J-17.23858
G2 X36.09741 Y47.41374 I-24.04434 J-14.39755
G3 X36.09772 Y47.41295 I0.93 J0.36755
G2 X36.84283 Y45.31682 I-28.98729 J-11.48457
G1 X36.92652 Y45.04816
G2 X37.19869 Y44.11257 I-42.79998 J-12.95823
G1 X37.3255 Y43.63881
G1 X37.44596 Y43.16224
G2 X38.23703 Y38.89303 I-37.81944 J-9.21572
G3 X38.2372 Y38.89172 I0.99189 J0.12707
G2 X38.576 Y34.69928 I-43.37443 J-5.61511
G3 X38.57604 Y34.69818 I0.99947 J0.03253
G2 X38.53183 Y30.65579 I-45.34172 J-1.52559
G3 X38.5318 Y30.65532 I0.99846 J-0.05548
G2 X38.14433 Y26.8018 I-42.81128 J2.35845
G2 X37.99842 Y25.88229 I-40.07729 J5.88836
G3 X37.99836 Y25.88194 I0.98578 J-0.16806
G2 X37.75842 Y24.60225 I-38.11927 J6.4848
G1 X37.58061 Y24.72424
G3 X37.57272 Y24.72959 I-0.56573 J-0.82459
G1 X37.31599 Y24.90216
G3 X37.31131 Y24.90529 I-0.55785 J-0.82994
G1 X37.16401 Y25.00309
G3 X37.15797 Y25.00707 I-0.55316 J-0.83307
G1 X36.74994 Y25.27377
G3 X36.74166 Y25.27913 I-0.54712 J-0.83705
G1 X36.33107 Y25.54175
G3 X36.32467 Y25.54582 I-0.53884 J-0.84241
G1 X36.04958 Y25.71885
G3 X36.04577 Y25.72123 I-0.53243 J-0.84647
G1 X35.88809 Y25.81943
G3 X35.88197 Y25.82321 I-0.52862 J-0.84886
G1 X35.29843 Y26.1808
G3 X35.28938 Y26.18628 I-0.5225 J-0.85264
G1 X34.70204 Y26.53772
G3 X34.6965 Y26.54101 I-0.51345 J-0.85812
G1 X34.52805 Y26.64034
G3 X34.52341 Y26.64305 I-0.50791 J-0.86141
G1 X34.05251 Y26.91731
G3 X33.98688 Y26.95516 I-0.7306 J-1.19104
G1 X33.49386 Y27.23658
G3 X33.42744 Y27.27413 I-0.72901 J-1.21222
G1 X33.08804 Y27.46439
G3 X32.94415 Y27.54442 I-2.58357 J-4.47545
G3 X32.80947 Y27.61876 I-2.97765 J-5.23603
G3 X32.53471 Y27.76913 I-6.48132 J-11.51637
G1 X32.00387 Y28.05495
G3 X31.99644 Y28.05891 I-0.47408 J-0.88048
G1 X31.65437 Y28.2394
G3 X31.58993 Y28.27363 I-0.74776 J-1.32963
G3 X31.52169 Y28.30862 I-0.73428 J-1.34808
G1 X31.08831 Y28.53176
G3 X31.07971 Y28.53614 I-0.45777 J-0.88907
G1 X30.62914 Y28.76266
G3 X30.62153 Y28.76644 I-0.44917 J-0.89345
G1 X30.31989 Y28.91489
G3 X30.31238 Y28.91855 I-0.44156 J-0.89723
G1 X29.90848 Y29.11315
G3 X29.90587 Y29.1144 I-0.43406 J-0.90089
G3 X28.23517 Y29.86642 I-17.08393 J-35.72207
G3 X28.14789 Y29.90323 I-0.67856 J-1.4871
G3 X26.32197 Y30.6157 I-15.0024 J-35.75229
G3 X26.3134 Y30.61875 I-0.33984 J-0.94048
G1 X25.84463 Y30.78333
G3 X25.83072 Y30.7881 I-0.33127 J-0.94354
G1 X25.35966 Y30.94575
G3 X25.35334 Y30.94784 I-0.31736 J-0.9483
G3 X24.3749 Y31.25119 I-10.18359 J-31.11721
G3 X22.33985 Y31.78207 I-9.61507 J-32.69148
G3 X22.33868 Y31.78234 I-0.22244 J-0.97495
G3 X20.23888 Y32.19913 I-8.71674 J-38.41796
G3 X20.23635 Y32.19955 I-0.16797 J-0.98579
G3 X19.18025 Y32.36394 I-7.49936 J-44.70572
G3 X19.17482 Y32.3647 I-0.14214 J-0.98985
G1 X18.82973 Y32.41233
G3 X18.82012 Y32.41361 I-0.13671 J-0.99061
G1 X18.36598 Y32.4718
G3 X18.22761 Y32.48877 I-0.54498 J-3.87047
G3 X18.0853 Y32.50543 I-0.5706 J-4.25741
G3 X16.20662 Y32.68563 I-5.34601 J-45.85316
G3 X16.20486 Y32.68576 I-0.07511 J-0.99718
G1 X15.94053 Y32.7052
G3 X15.93639 Y32.7055 I-0.07335 J-0.99731
G3 X13.79822 Y32.81336 I-3.92752 J-56.60934
G3 X13.79347 Y32.8135 I-0.03153 J-0.9995
G1 X13.35775 Y32.82517
G3 X13.35252 Y32.82529 I-0.02678 J-0.99964
G1 X13.20718 Y32.82843
G3 X13.2007 Y32.82855 I-0.02155 J-0.99977
G1 X12.61953 Y32.83731
G3 X12.61095 Y32.8374 I-0.01507 J-0.99989
G1 X12.22352 Y32.83991
G3 X12.21555 Y32.83993 I-0.00649 J-0.99998
G1 X11.69892 Y32.83917
G3 X11.69777 I0.00148 J-1.0
G3 X10.53599 Y32.82042 I0.11345 J-43.03716
G1 X10.53583 Y32.82041
G1 X10.15765 Y32.80915
G3 X10.14947 Y32.80887 I0.02978 J-0.99956
G1 X9.64542 Y32.78972
G3 X9.64133 Y32.78956 I0.03796 J-0.99928
G3 X8.13623 Y32.70322 I2.08209 J-49.45743
G3 X8.131 Y32.70282 I0.07247 J-0.99737
G1 X7.64012 Y32.66457
G3 X7.63334 Y32.66402 I0.0777 J-0.99698
G3 X6.31514 Y32.53417 I4.11244 J-48.50626
G3 X6.31089 Y32.53369 I0.11156 J-0.99376
G1 X6.12676 Y32.51222
G3 X6.12179 Y32.51163 I0.1158 J-0.99327
G1 X5.91149 Y32.48604
G3 X5.90571 Y32.48532 I0.12078 J-0.99268
G1 X5.66552 Y32.45467
G3 X5.66534 Y32.45465 I0.12656 J-0.99196
G3 X4.18924 Y32.23226 I4.21221 J-32.96842
G3 X4.18481 Y32.23148 I0.17115 J-0.98525
G1 X3.70974 Y32.14675
G3 X3.70257 Y32.14544 I0.17558 J-0.98446
G3 X1.73498 Y31.7214 I6.4581 J-34.74295
G3 X0.811 Y31.48036 I7.77426 J-31.69173
G3 X0.71584 Y31.454 I0.39868 J-1.62466
G3 X-0.26352 Y31.16554 I8.04902 J-29.13426
G3 X-2.21491 Y30.49908 I11.14878 J-35.83335
G3 X-2.31296 Y30.46243 I0.5272 J-1.56005
G3 X-3.85572 Y29.84524 I12.57305 J-33.6647
G3 X-3.85958 Y29.84358 I0.3928 J-0.91962
G1 X-4.35991 Y29.62738
G3 X-4.36637 Y29.62456 I0.39667 J-0.91796
G3 X-6.19752 Y28.7665 I17.52212 J-39.77608
G3 X-6.20027 Y28.76512 I0.44527 J-0.8954
G1 X-6.45263 Y28.63866
G3 X-6.45523 Y28.63735 I0.44802 J-0.89402
G3 X-8.53583 Y27.51791 I20.3586 J-40.33186
G3 X-10.5727 Y26.28521 I22.33022 J-39.19699
G3 X-10.57489 Y26.2838 I0.54015 J-0.84157
G1 X-10.89244 Y26.07882
G3 X-10.89919 Y26.07442 I0.54234 J-0.84016
G1 X-11.21513 Y25.86686
G3 X-11.21745 Y25.86532 I0.54909 J-0.83576
G3 X-11.85957 Y25.43226 I22.97677 J-34.76124
G3 X-11.8606 Y25.43155 I0.56683 J-0.82384
G3 X-12.27715 Y25.14242 I50.43164 J-73.10222
G3 X-12.52496 Y24.96731 I8.07654 J-11.69233
G3 X-13.81097 Y24.01971 I28.78708 J-40.41414
G3 X-13.81586 Y24.01596 I0.60609 J-0.7954
G1 X-14.22213 Y23.70242
G3 X-14.3564 Y23.59735 I2.07042 J-2.78423
G3 X-16.00979 Y22.23797 I31.21389 J-39.65014
G3 X-16.01435 Y22.23403 I0.65132 J-0.7588
G1 X-16.42664 Y21.8758
G3 X-16.43478 Y21.86865 I0.65588 J-0.75486
G1 X-16.84167 Y21.5073
G3 X-17.12729 Y21.24914 I10.16088 J-11.52829
G1 X-17.48306 Y20.92236
G3 X-17.48666 Y20.91904 I0.67646 J-0.73648
G3 X-18.76182 Y19.7014 I41.40308 J-44.63573
G3 X-18.76504 Y19.69822 I0.701 J-0.71316
G1 X-19.26583 Y19.20149
G3 X-19.27234 Y19.19497 I0.70423 J-0.70997
G1 X-19.76858 Y18.69358
G3 X-19.77185 Y18.69027 I0.71074 J-0.70345
G1 X-19.83774 Y18.62307
G3 X-19.8392 Y18.62159 I0.714 J-0.70014
G1 X-20.04904 Y18.40669
G3 X-20.05111 Y18.40456 I0.71546 J-0.69865
G1 X-20.19211 Y18.25931
G0 Z3.0
G0 X-39.84746 Y31.00877
G0 Z1.0
G1 F300.0 Z-2.0
G3 F800.0 X-40.06927 Y31.07821 I-10.71555 J-33.83771
G3 X-40.07113 Y31.07878 I-0.29565 J-0.9553
G3 X-42.92342 Y31.82956 I-10.61995 J-34.55289
G3 X-42.92498 Y31.8299 I-0.21488 J-0.97664
G3 X-45.83665 Y32.35205 I-8.40743 J-38.5031
G3 X-45.83801 Y32.35224 I-0.13945 J-0.99023
G1 X-46.12628 Y32.39243
G3 X-46.13264 Y32.3933 I-0.13808 J-0.99042
G1 X-46.42117 Y32.43164
G3 X-46.42753 Y32.43246 I-0.13172 J-0.99129
G3 X-47.0109 Y32.50449 I-12.99559 J-102.85331
G3 X-47.01785 Y32.50531 I-0.11973 J-0.99281
G1 X-47.40346 Y32.54907
G3 X-47.40934 Y32.54972 I-0.11278 J-0.99362
G1 X-47.62988 Y32.57344
G3 X-47.63738 Y32.57421 I-0.1069 J-0.99427
G1 X-48.20827 Y32.63125
G3 X-48.32346 Y32.64232 I-0.22571 J-1.74366
G3 X-48.66672 Y32.67306 I-1.6262 J-16.2274
G1 X-48.84873 Y32.68864
G3 X-48.85046 Y32.68879 I-0.08532 J-0.99635
G3 X-52.0267 Y32.88204 I-5.80465 J-69.20491
G3 X-55.39798 Y32.94855 I-3.44945 J-89.37456
G3 X-55.40061 I-0.00087 J-1.0
G3 X-57.4501 Y32.92217 I0.16166 J-92.17229
G3 X-57.45663 Y32.92199 I0.02399 J-0.99971
G1 X-58.13216 Y32.90136
G3 X-58.13949 Y32.90111 I0.03052 J-0.99953
G1 X-58.52538 Y32.88649
G3 X-58.53127 Y32.88625 I0.03786 J-0.99928
G1 X-58.97217 Y32.86694
G3 X-58.97716 Y32.86671 I0.04375 J-0.99904
G3 X-60.38363 Y32.78583 I3.95303 J-81.00859
G3 X-60.38733 Y32.78558 I0.06608 J-0.99781
G1 X-60.58564 Y32.7717
G3 X-60.59157 Y32.77127 I0.06978 J-0.99756
G1 X-61.12021 Y32.73113
G3 X-61.12713 Y32.73058 I0.07571 J-0.99713
G1 X-61.42903 Y32.70555
G3 X-61.43456 Y32.70508 I0.08264 J-0.99658
G1 X-61.77936 Y32.67456
G3 X-61.78124 Y32.67439 I0.08816 J-0.99611
G3 X-62.71752 Y32.58093 I4.54144 J-50.23168
G3 X-65.60098 Y32.1866 I5.37254 J-50.02532
G3 X-65.60285 Y32.18629 I0.16409 J-0.98644
G3 X-66.55608 Y32.01661 I8.53561 J-50.71613
G3 X-67.05289 Y31.91974 I4.34609 J-23.61162
G3 X-67.13775 Y31.9026 I0.45947 J-2.49261
G3 X-67.70757 Y31.78266 I4.43733 J-22.49612
G1 X-68.07759 Y31.70039
G3 X-68.08153 Y31.69951 I0.21704 J-0.97616
G3 X-68.34159 Y31.63964 I8.5688 J-37.81854
G2 X-68.33831 Y31.69005 I9.21981 J-0.57415
G1 X-68.33215 Y31.7773
G2 X-68.26591 Y32.40556 I11.55231 J-0.90045
G1 X-68.25437 Y32.48854
G3 X-68.25421 Y32.48974 I-0.99047 J0.1377
G2 X-68.16365 Y33.03043 I9.35772 J-1.28929
G3 X-68.1634 Y33.03172 I-0.98106 J0.19373
G2 X-67.80632 Y34.45724 I13.92587 J-2.7308
G2 X-67.26755 Y35.95122 I16.65155 J-5.16088
G1 X-67.18191 Y36.1556
G3 X-67.18174 Y36.15601 I-0.9223 J0.38647
G2 X-67.03708 Y36.48731 I10.8741 J-4.55085
G3 X-67.035 Y36.49191 I-0.9102 J0.41416
G2 X-66.91844 Y36.74763 I22.5345 J-10.11673
G1 X-66.87258 Y36.84584
G2 X-66.54918 Y37.50518 I17.73838 J-8.29165
G3 X-66.54777 Y37.50794 I-0.8894 J0.45713
G2 X-65.66438 Y39.09128 I21.6885 J-11.06259
G2 X-65.16117 Y39.8929 I30.70349 J-18.71484
G1 X-64.89662 Y40.29204
G1 X-64.83216 Y40.38722
G1 X-64.73154 Y40.5342
G1 X-64.63175 Y40.67814
G1 X-64.35025 Y41.07485
G1 X-64.13665 Y41.36722
G1 X-63.973 Y41.58646
G2 X-63.47581 Y42.22869 I23.3866 J-17.59109
G3 X-63.47414 Y42.2308 I-0.78217 J0.62306
G2 X-62.22547 Y43.70432 I22.92841 J-18.16395
G3 X-62.22365 Y43.70633 I-0.74115 J0.67134
G2 X-61.90269 Y44.05632 I19.90753 J-17.9343
G3 X-61.90087 Y44.05827 I-0.73099 J0.68239
G2 X-60.90376 Y45.07854 I20.44919 J-18.9875
G3 X-60.90272 Y45.07956 I-0.69708 J0.71699
G2 X-60.22995 Y45.7149 I20.21609 J-20.73312
G1 X-59.88161 Y46.02824
G1 X-59.53113 Y46.33335
G1 X-59.18518 Y46.62488
G1 X-58.92047 Y46.84177
G2 X-58.52914 Y47.15287 I13.29413 J-16.32115
G1 X-58.32515 Y47.3107
G1 X-58.12248 Y47.46471
G1 X-57.94726 Y47.59564
G1 X-57.63419 Y47.82467
G1 X-57.39843 Y47.99311
G2 X-56.68309 Y48.48434 I21.94664 J-31.19286
G1 X-56.50043 Y48.60527
G2 X-55.86154 Y49.01497 I19.14004 J-29.14455
G3 X-55.83057 Y49.03516 I-0.53061 J0.84761
G2 X-55.81271 Y49.04631 I0.15379 J-0.22659
G3 X-55.75216 Y49.08386 I-0.49638 J0.8681
G2 X-55.73943 Y49.09175 I0.11808 J-0.17609
G3 X-55.70295 Y49.11368 I-0.49689 J0.86781
G2 X-55.46875 Y49.25732 I5.90238 J-9.3607
G3 X-55.46489 Y49.25964 I-0.51221 J0.85886
G1 X-55.20828 Y49.41425
G3 X-55.18353 Y49.42966 I-0.51607 J0.85655
G2 X-55.14757 Y49.45106 I0.32853 J-0.51095
G3 X-55.12336 Y49.46481 I-0.48162 J0.87638
G1 X-54.76518 Y49.67484
G3 X-54.74907 Y49.68448 I-0.50582 J0.86264
G2 X-54.7247 Y49.69857 I0.2954 J-0.48278
G3 X-54.68442 Y49.72178 I-0.47887 J0.87788
G2 X-54.66181 Y49.7348 I0.2887 J-0.47529
G3 X-54.63976 Y49.74718 I-0.47851 J0.87808
G2 X-53.71091 Y50.2652 I17.16601 J-29.68798
G3 X-53.70628 Y50.2677 I-0.47348 J0.88081
G2 X-52.94666 Y50.66976 I17.57558 J-32.28772
G1 X-52.55832 Y50.86838
G1 X-52.17118 Y51.06191
G1 X-51.77922 Y51.25334
G2 X-50.60068 Y51.80124 I20.3831 J-42.30277
G2 X-49.00056 Y52.47373 I15.81015 J-35.37904
G1 X-48.79825 Y52.55234
G1 X-48.44085 Y52.68746
G1 X-48.17533 Y52.78464
G1 X-47.77198 Y52.92687
G1 X-47.36847 Y53.06246
G1 X-46.95495 Y53.19423
G1 X-46.64287 Y53.28874
G2 X-45.7092 Y53.54494 I7.09647 J-24.03164
G3 X-45.70789 Y53.54528 I-0.24595 J0.96928
G2 X-44.03362 Y53.90002 I5.15574 J-20.20481
G3 X-44.0323 Y53.90025 I-0.16696 J0.98596
G2 X-42.34905 Y54.11483 I3.3779 J-19.78766
G3 X-42.34846 Y54.11488 I-0.08442 J0.99643
G2 X-40.68384 Y54.18402 I1.62471 J-19.04332
G3 X-40.68337 I0.00209 J1.0
G2 X-39.07097 Y54.11302 I-0.03067 J-19.04071
G1 X-38.8735 Y54.09471
G2 X-38.21491 Y54.01771 I-1.53772 J-16.00774
G1 X-37.87724 Y53.96838
G1 X-37.53665 Y53.91175
G3 X-37.52446 Y53.9098 I0.16401 J0.98646
G3 X-37.51295 Y53.90754 I0.19853 J0.98009
G1 X-37.15548 Y53.83948
G2 X-36.16063 Y53.60324 I-2.61595 J-13.2289
G3 X-36.1552 Y53.60175 I0.26776 J0.96348
G2 X-34.94003 Y53.19862 I-3.06127 J-11.26079
G3 X-34.93906 Y53.19824 I0.36646 J0.93043
G2 X-33.91648 Y52.71913 I-3.22735 J-8.21908
G3 X-33.91536 Y52.71851 I0.48131 J0.87655
G2 X-33.10299 Y52.18418 I-2.88725 J-5.27428
G3 X-33.10158 Y52.18308 I0.61529 J0.7883
G2 X-33.01179 Y52.11137 I-2.72883 J-3.50907
G3 X-33.05445 Y52.04246 I45.4954 J-28.221
G3 X-33.05685 Y52.03857 I0.85058 J-0.52584
G1 X-33.12256 Y51.93118
G3 X-33.12354 Y51.92957 I0.85298 J-0.52195
G3 X-35.12344 Y48.23815 I35.34263 J-21.535
G3 X-36.70723 Y44.52083 I41.09046 J-19.7029
G3 X-37.94532 Y40.80328 I47.61107 J-17.92137
G3 X-38.88562 Y37.09612 I51.6101 J-15.06338
G3 X-38.88669 Y37.09109 I0.97744 J-0.21123
G1 X-39.0113 Y36.49978
G3 X-39.01355 Y36.48878 I0.97851 J-0.2062
G1 X-39.13149 Y35.89616
G3 X-39.13288 Y35.88907 I0.98077 J-0.19519
G1 X-39.16536 Y35.71947
G3 X-39.16584 Y35.71694 I0.98215 J-0.1881
G3 X-39.4101 Y34.33338 I57.97586 J-10.94867
G3 X-39.41075 Y34.32939 I0.98677 J-0.16212
G3 X-39.55298 Y33.40832 I82.44766 J-13.20276
G3 X-39.55339 Y33.4055 I0.98912 J-0.14709
G3 X-39.84746 Y31.00877 I52.65949 J-7.67757
G1 F300.0 Z-4.0
G3 F800.0 X-40.06927 Y31.07821 I-10.71555 J-33.83771
G3 X-40.07113 Y31.07878 I-0.29565 J-0.9553
G3 X-42.92342 Y31.82956 I-10.61995 J-34.55289
G3 X-42.92498 Y31.8299 I-0.21488 J-0.97664
G3 X-45.83665 Y32.35205 I-8.40743 J-38.5031
G3 X-45.83801 Y32.35224 I-0.13945 J-0.99023
G1 X-46.12628 Y32.39243
G3 X-46.13264 Y32.3933 I-0.13808 J-0.99042
G1 X-46.42117 Y32.43164
G3 X-46.42753 Y32.43246 I-0.13172 J-0.99129
G3 X-47.0109 Y32.50449 I-12.99559 J-102.85331
G3 X-47.01785 Y32.50531 I-0.11973 J-0.99281
G1 X-47.40346 Y32.54907
G3 X-47.40934 Y32.54972 I-0.11278 J-0.99362
G1 X-47.62988 Y32.57344
G3 X-47.63738 Y32.57421 I-0.1069 J-0.99427
G1 X-48.20827 Y32.63125
G3 X-48.32346 Y32.64232 I-0.22571 J-1.74366
G3 X-48.66672 Y32.67306 I-1.6262 J-16.2274
G1 X-48.84873 Y32.68864
G3 X-48.85046 Y32.68879 I-0.08532 J-0.99635
G3 X-52.0267 Y32.88204 I-5.80465 J-69.20491
G3 X-55.39798 Y32.94855 I-3.44945 J-89.37456
G3 X-55.40061 I-0.00087 J-1.0
G3 X-57.4501 Y32.92217 I0.16166 J-92.17229
G3 X-57.45663 Y32.92199 I0.02399 J-0.99971
G1 X-58.13216 Y32.90136
G3 X-58.13949 Y32.90111 I0.03052 J-0.99953
G1 X-58.52538 Y32.88649
G3 X-58.53127 Y32.88625 I0.03786 J-0.99928
G1 X-58.97217 Y32.86694
G3 X-58.97716 Y32.86671 I0.04375 J-0.99904
G3 X-60.38363 Y32.78583 I3.95303 J-81.00859
G3 X-60.38733 Y32.78558 I0.06608 J-0.99781
G1 X-60.58564 Y32.7717
G3 X-60.59157 Y32.77127 I0.06978 J-0.99756
G1 X-61.12021 Y32.73113
G3 X-61.12713 Y32.73058 I0.07571 J-0.99713
G1 X-61.42903 Y32.70555
G3 X-61.43456 Y32.70508 I0.08264 J-0.99658
G1 X-61.77936 Y32.67456
G3 X-61.78124 Y32.67439 I0.08816 J-0.99611
G3 X-62.71752 Y32.58093 I4.54144 J-50.23168
G3 X-65.60098 Y32.1866 I5.37254 J-50.02532
G3 X-65.60285 Y32.18629 I0.16409 J-0.98644
G3 X-66.55608 Y32.01661 I8.53561 J-50.71613
G3 X-67.05289 Y31.91974 I4.34609 J-23.61162
G3 X-67.13775 Y31.9026 I0.45947 J-2.49261
G3 X-67.70757 Y31.78266 I4.43733 J-22.49612
G1 X-68.07759 Y31.70039
G3 X-68.08153 Y31.69951 I0.21704 J-0.97616
G3 X-68.34159 Y31.63964 I8.5688 J-37.81854
G2 X-68.33831 Y31.69005 I9.21981 J-0.57415
G1 X-68.33215 Y31.7773
G2 X-68.26591 Y32.40556 I11.55231 J-0.90045
G1 X-68.25437 Y32.48854
G3 X-68.25421 Y32.48974 I-0.99047 J0.1377
G2 X-68.16365 Y33.03043 I9.35772 J-1.28929
G3 X-68.1634 Y33.03172 I-0.98106 J0.19373
G2 X-67.80632 Y34.45724 I13.92587 J-2.7308
G2 X-67.26755 Y35.95122 I16.65155 J-5.16088
G1 X-67.18191 Y36.1556
G3 X-67.18174 Y36.15601 I-0.9223 J0.38647
G2 X-67.03708 Y36.48731 I10.8741 J-4.55085
G3 X-67.035 Y36.49191 I-0.9102 J0.41416
G2 X-66.91844 Y36.74763 I22.5345 J-10.11673
G1 X-66.87258 Y36.84584
G2 X-66.54918 Y37.50518 I17.73838 J-8.29165
G3 X-66.54777 Y37.50794 I-0.8894 J0.45713
G2 X-65.66438 Y39.09128 I21.6885 J-11.06259
G2 X-65.16117 Y39.8929 I30.70349 J-18.71484
G1 X-64.89662 Y40.29204
G1 X-64.83216 Y40.38722
G1 X-64.73154 Y40.5342
G1 X-64.63175 Y40.67814
G1 X-64.35025 Y41.07485
G1 X-64.13665 Y41.36722
G1 X-63.973 Y41.58646
G2 X-63.47581 Y42.22869 I23.3866 J-17.59109
G3 X-63.47414 Y42.2308 I-0.78217 J0.62306
G2 X-62.22547 Y43.70432 I22.92841 J-18.16395
G3 X-62.22365 Y43.70633 I-0.74115 J0.67134
G2 X-61.90269 Y44.05632 I19.90753 J-17.9343
G3 X-61.90087 Y44.05827 I-0.73099 J0.68239
G2 X-60.90376 Y45.07854 I20.44919 J-18.9875
G3 X-60.90272 Y45.07956 I-0.69708 J0.71699
G2 X-60.22995 Y45.7149 I20.21609 J-20.73312
G1 X-59.88161 Y46.02824
G1 X-59.53113 Y46.33335
G1 X-59.18518 Y46.62488
G1 X-58.92047 Y46.84177
G2 X-58.52914 Y47.15287 I13.29413 J-16.32115
G1 X-58.32515 Y47.3107
G1 X-58.12248 Y47.46471
G1 X-57.94726 Y47.59564
G1 X-57.63419 Y47.82467
G1 X-57.39843 Y47.99311
G2 X-56.68309 Y48.48434 I21.94664 J-31.19286
G1 X-56.50043 Y48.60527
G2 X-55.86154 Y49.01497 I19.14004 J-29.14455
G3 X-55.83057 Y49.03516 I-0.53061 J0.84761
G2 X-55.81271 Y49.04631 I0.15379 J-0.22659
G3 X-55.75216 Y49.08386 I-0.49638 J0.8681
G2 X-55.73943 Y49.09175 I0.11808 J-0.17609
G3 X-55.70295 Y49.11368 I-0.49689 J0.86781
G2 X-55.46875 Y49.25732 I5.90238 J-9.3607
G3 X-55.46489 Y49.25964 I-0.51221 J0.85886
G1 X-55.20828 Y49.41425
G3 X-55.18353 Y49.42966 I-0.51607 J0.85655
G2 X-55.14757 Y49.45106 I0.32853 J-0.51095
G3 X-55.12336 Y49.46481 I-0.48162 J0.87638
G1 X-54.76518 Y49.67484
G3 X-54.74907 Y49.68448 I-0.50582 J0.86264
G2 X-54.7247 Y49.69857 I0.2954 J-0.48278
G3 X-54.68442 Y49.72178 I-0.47887 J0.87788
G2 X-54.66181 Y49.7348 I0.2887 J-0.47529
G3 X-54.63976 Y49.74718 I-0.47851 J0.87808
G2 X-53.71091 Y50.2652 I17.16601 J-29.68798
G3 X-53.70628 Y50.2677 I-0.47348 J0.88081
G2 X-52.94666 Y50.66976 I17.57558 J-32.28772
G1 X-52.55832 Y50.86838
G1 X-52.17118 Y51.06191
G1 X-51.77922 Y51.25334
G2 X-50.60068 Y51.80124 I20.3831 J-42.30277
G2 X-49.00056 Y52.47373 I15.81015 J-35.37904
G1 X-48.79825 Y52.55234
G1 X-48.44085 Y52.68746
G1 X-48.17533 Y52.78464
G1 X-47.77198 Y52.92687
G1 X-47.36847 Y53.06246
G1 X-46.95495 Y53.19423
G1 X-46.64287 Y53.28874
G2 X-45.7092 Y53.54494 I7.09647 J-24.03164
G3 X-45.70789 Y53.54528 I-0.24595 J0.96928
G2 X-44.03362 Y53.90002 I5.15574 J-20.20481
G3 X-44.0323 Y53.90025 I-0.16696 J0.98596
G2 X-42.34905 Y54.11483 I3.3779 J-19.78766
G3 X-42.34846 Y54.11488 I-0.08442 J0.99643
G2 X-40.68384 Y54.18402 I1.62471 J-19.04332
G3 X-40.68337 I0.00209 J1.0
G2 X-39.07097 Y54.11302 I-0.03067 J-19.04071
G1 X-38.8735 Y54.09471
G2 X-38.21491 Y54.01771 I-1.53772 J-16.00774
G1 X-37.87724 Y53.96838
G1 X-37.53665 Y53.91175
G3 X-37.52446 Y53.9098 I0.16401 J0.98646
G3 X-37.51295 Y53.90754 I0.19853 J0.98009
G1 X-37.15548 Y53.83948
G2 X-36.16063 Y53.60324 I-2.61595 J-13.2289
G3 X-36.1552 Y53.60175 I0.26776 J0.96348
G2 X-34.94003 Y53.19862 I-3.06127 J-11.26079
G3 X-34.93906 Y53.19824 I0.36646 J0.93043
G2 X-33.91648 Y52.71913 I-3.22735 J-8.21908
G3 X-33.91536 Y52.71851 I0.48131 J0.87655
G2 X-33.10299 Y52.18418 I-2.88725 J-5.27428
G3 X-33.10158 Y52.18308 I0.61529 J0.7883
G2 X-33.01179 Y52.11137 I-2.72883 J-3.50907
G3 X-33.05445 Y52.04246 I45.4954 J-28.221
G3 X-33.05685 Y52.03857 I0.85058 J-0.52584
G1 X-33.12256 Y51.93118
G3 X-33.12354 Y51.92957 I0.85298 J-0.52195
G3 X-35.12344 Y48.23815 I35.34263 J-21.535
G3 X-36.70723 Y44.52083 I41.09046 J-19.7029
G3 X-37.94532 Y40.80328 I47.61107 J-17.92137
G3 X-38.88562 Y37.09612 I51.6101 J-15.06338
G3 X-38.88669 Y37.09109 I0.97744 J-0.21123
G1 X-39.0113 Y36.49978
G3 X-39.01355 Y36.48878 I0.97851 J-0.2062
G1 X-39.13149 Y35.89616
G3 X-39.13288 Y35.88907 I0.98077 J-0.19519
G1 X-39.16536 Y35.71947
G3 X-39.16584 Y35.71694 I0.98215 J-0.1881
G3 X-39.4101 Y34.33338 I57.97586 J-10.94867
G3 X-39.41075 Y34.32939 I0.98677 J-0.16212
G3 X-39.55298 Y33.40832 I82.44766 J-13.20276
G3 X-39.55339 Y33.4055 I0.98912 J-0.14709
G3 X-39.84746 Y31.00877 I52.65949 J-7.67757
G0 Z3.0
G0 X-93.92291 Y5.76308
G0 Z1.0
G1 F300.0 Z-2.0
G3 F800.0 X-94.47428 Y3.22683 I36.26616 J-9.21207
G3 X-94.47514 Y3.22202 I0.98396 J-0.17841
G1 X-94.55145 Y2.78912
G3 X-94.55247 Y2.78325 I0.98482 J-0.1736
G3 X-94.97745 Y-0.6737 I37.16385 J-6.32334
G3 X-94.97749 Y-0.67429 I0.99711 J-0.07604
G3 X-95.07625 Y-4.02928 I36.32151 J-2.74817
G3 Y-4.02966 I0.99986 J0.01666
G3 X-94.86805 Y-7.26013 I34.21599 J0.5832
G3 X-94.868 Y-7.2606 I0.99377 J0.11144
G3 X-94.44666 Y-9.96605 I32.13042 J3.61839
G3 X-94.44524 Y-9.97302 I0.98069 J0.19558
G1 X-94.36845 Y-10.34431
G3 X-94.36702 Y-10.35109 I0.97927 J0.20255
G3 X-93.64125 Y-13.10684 I29.88559 J6.39741
G3 X-93.63978 Y-13.11149 I0.9541 J0.29949
G1 X-93.58386 Y-13.28663
G3 X-93.58299 Y-13.28934 I0.95263 J0.30414
G3 X-92.59559 Y-15.90148 I26.8445 J8.65469
G3 X-92.59411 Y-15.90485 I0.91675 J0.39946
G1 X-92.52174 Y-16.06929
G3 X-92.52085 Y-16.0713 I0.91527 J0.40283
G3 X-91.67978 Y-17.80057 I24.50761 J10.85069
G2 X-91.91794 Y-17.92972 I-48.24277 J88.67711
G1 X-92.07684 Y-18.01516
G1 X-92.79749 Y-18.39909
G1 X-93.52119 Y-18.78091
G1 X-95.09756 Y-19.61141
G3 X-95.10131 Y-19.6134 I0.46611 J-0.88473
G1 X-95.8281 Y-20.00025
G3 X-95.83273 Y-20.00273 I0.46986 J-0.88274
G1 X-96.55734 Y-20.39331
G3 X-96.76881 Y-20.50843 I13.4621 J-24.98326
G3 X-98.0563 Y-21.22282 I36.26179 J-66.86858
G3 X-98.05687 Y-21.22314 I0.49363 J-0.86967
G1 X-98.47872 Y-21.46296
G3 X-98.48249 Y-21.46511 I0.4942 J-0.86935
G1 X-98.69638 Y-21.58793
G3 X-98.79757 Y-21.64632 I1.12493 J-2.0663
G1 X-99.08596 Y-21.81372
G3 X-99.09152 Y-21.81697 I0.50202 J-0.86485
G1 X-99.6879 Y-22.1683
G3 X-99.69419 Y-22.17204 I0.50758 J-0.8616
G1 X-100.0829 Y-22.40488
G3 X-100.20724 Y-22.47996 I1.91509 J-3.31237
G3 X-101.15943 Y-23.06581 I36.06795 J-59.68818
G3 X-101.16082 Y-23.06668 I0.53084 J-0.84747
G1 X-101.47461 Y-23.26395
G3 X-101.47942 Y-23.26699 I0.53222 J-0.84661
G1 X-101.89628 Y-23.53237
G3 X-101.90081 Y-23.53527 I0.53703 J-0.84356
G1 X-102.17304 Y-23.71064
G3 X-102.17661 Y-23.71295 I0.54156 J-0.84066
G1 X-102.4473 Y-23.88896
G3 X-103.00069 Y-24.25382 I21.5976 J-33.36038
G1 X-103.35895 Y-24.49363
G3 X-103.36258 Y-24.49608 I0.55627 J-0.831
G1 X-103.56707 Y-24.63426
G3 X-103.56752 Y-24.63457 I0.5599 J-0.82856
G3 X-105.20367 Y-25.77406 I41.32248 J-61.07768
G3 X-106.8025 Y-26.9467 I49.17077 J-68.71761
G3 X-106.90124 Y-27.03151 I0.60084 J-0.79937
G1 X-107.20053 Y-27.32453
G1 X-108.10014 Y-28.20226
G1 X-108.68083 Y-28.76607
G1 X-109.2629 Y-29.32846
G1 X-109.53933 Y-29.59434
G1 X-109.95526 Y-29.99257
G1 X-110.37214 Y-30.38897
G1 X-110.62715 Y-30.6298
G1 X-111.01379 Y-30.99193
G3 X-111.01548 Y-30.99351 I0.68359 J-0.72986
G2 X-111.39315 Y-31.34285 I-20.64786 J21.94341
G1 X-111.58855 Y-31.52036
G2 X-112.11666 Y-30.88499 I9.69462 J8.59512
G2 X-112.38983 Y-30.52129 I20.9847 J16.04594
G2 X-113.12008 Y-29.39945 I11.05725 J7.99614
G2 X-113.55974 Y-28.58556 I13.61237 J7.8792
G1 X-113.66522 Y-28.37
G2 X-113.94849 Y-27.74239 I11.92295 J5.75902
G3 X-113.94908 Y-27.74098 I-0.92185 J-0.38754
G2 X-114.59966 Y-25.90795 I15.3415 J6.47698
G2 X-115.06181 Y-23.91096 I18.53139 J5.34054
G1 X-115.08515 Y-23.77529
G2 X-115.32245 Y-21.77592 I20.22386 J3.4141
G1 X-115.3407 Y-21.49184
G1 X-115.35356 Y-21.24573
G1 X-115.35832 Y-21.13823
G2 X-115.36807 Y-19.53079 I21.67207 J0.93512
G3 X-115.36798 Y-19.52787 I-0.99952 J0.03099
G2 X-115.18578 Y-17.22833 I22.61708 J-0.6351
G1 X-115.14516 Y-16.92917
G2 X-114.76582 Y-14.90488 I23.07887 J-3.27716
G3 X-114.76546 Y-14.90332 I-0.97379 J0.22743
G2 X-114.10742 Y-12.61605 I22.17344 J-5.141
G3 X-114.10715 Y-12.6153 I-0.94525 J0.32635
G2 X-113.21475 Y-10.39479 I22.41506 J-7.71886
G3 X-113.20916 Y-10.38246 I-0.90787 J0.41926
G2 X-113.1577 Y-10.27202 I3.29495 J-1.46782
G3 X-113.15183 Y-10.25973 I-0.8992 J0.43754
G2 X-112.10599 Y-8.27754 I21.93532 J-10.30649
G1 X-112.10595 Y-8.27748
G2 X-110.80849 Y-6.28817 I22.13995 J-13.02232
G1 X-110.63376 Y-6.04816
G1 X-110.48172 Y-5.84376
G1 X-110.20254 Y-5.47847
G3 X-110.18733 Y-5.45805 I-0.79452 J0.60724
G2 X-110.17687 Y-5.44464 I0.19545 J-0.14164
G3 X-110.15198 Y-5.41371 I-0.76638 J0.64239
G2 X-109.76387 Y-4.92917 I14.0859 J-10.88488
G3 X-109.76358 Y-4.92882 I-0.76947 J0.63868
G1 X-109.55787 Y-4.68076
G1 X-109.35121 Y-4.43714
G2 X-107.78473 Y-2.75022 I22.33139 J-19.16623
G2 X-106.14013 Y-1.2225 I23.05154 J-23.16603
G3 X-106.11524 Y-1.20018 I-0.65503 J0.7556
G3 X-106.0648 Y-1.15672 I-0.62721 J0.77885
G3 X-106.0397 Y-1.13586 I-0.62649 J0.77943
G2 X-104.4629 Y0.13871 I22.11092 J-25.74131
G1 X-104.04306 Y0.45315
G2 X-102.77187 Y1.34876 I23.81574 J-32.45326
G3 X-102.74819 Y1.36527 I-0.56005 J0.82846
G3 X-102.72161 Y1.38252 I-0.53105 J0.84734
G2 X-101.10688 Y2.40644 I20.18101 J-30.04058
G2 X-99.47519 Y3.33144 I21.22618 J-35.54113
G1 X-99.27867 Y3.436
G1 X-99.10789 Y3.52573
G1 X-98.8033 Y3.68315
G2 X-97.89449 Y4.13333 I17.20156 J-33.58371
G1 X-97.7041 Y4.22399
G1 X-97.53949 Y4.30138
G1 X-97.2492 Y4.43558
G1 X-96.80499 Y4.6354
G3 X-96.78389 Y4.64519 I-0.41025 J0.91197
G2 X-96.72811 Y4.66976 I0.42312 J-0.88497
G3 X-96.70528 Y4.67931 I-0.37447 J0.92724
G1 X-96.37113 Y4.82398
G1 X-96.00831 Y4.97672
G1 X-95.73754 Y5.08772
G1 X-95.3243 Y5.25215
G1 X-95.22524 Y5.29066
G1 X-94.9152 Y5.40888
G1 X-94.56802 Y5.53707
G2 X-94.31073 Y5.62915 I16.00673 J-44.32244
G1 X-94.2116 Y5.66395
G3 X-94.20885 Y5.66492 I-0.33124 J0.94355
G2 X-94.04688 Y5.72094 I3.78794 J-10.69023
G3 X-94.04469 Y5.72168 I-0.31971 J0.94752
G1 X-93.92291 Y5.76308
G1 F300.0 Z-4.0
G3 F800.0 X-94.47428 Y3.22683 I36.26616 J-9.21207
G3 X-94.47514 Y3.22202 I0.98396 J-0.17841
G1 X-94.55145 Y2.78912
G3 X-94.55247 Y2.78325 I0.98482 J-0.1736
G3 X-94.97745 Y-0.6737 I37.16385 J-6.32334
G3 X-94.97749 Y-0.67429 I0.99711 J-0.07604
G3 X-95.07625 Y-4.02928 I36.32151 J-2.74817
G3 Y-4.02966 I0.99986 J0.01666
G3 X-94.86805 Y-7.26013 I34.21599 J0.5832
G3 X-94.868 Y-7.2606 I0.99377 J0.11144
G3 X-94.44666 Y-9.96605 I32.13042 J3.61839
G3 X-94.44524 Y-9.97302 I0.98069 J0.19558
G1 X-94.36845 Y-10.34431
G3 X-94.36702 Y-10.35109 I0.97927 J0.20255
G3 X-93.64125 Y-13.10684 I29.88559 J6.39741
G3 X-93.63978 Y-13.11149 I0.9541 J0.29949
G1 X-93.58386 Y-13.28663
G3 X-93.58299 Y-13.28934 I0.95263 J0.30414
G3 X-92.59559 Y-15.90148 I26.8445 J8.65469
G3 X-92.59411 Y-15.90485 I0.91675 J0.39946
G1 X-92.52174 Y-16.06929
G3 X-92.52085 Y-16.0713 I0.91527 J0.40283
G3 X-91.67978 Y-17.80057 I24.50761 J10.85069
G2 X-91.91794 Y-17.92972 I-48.24277 J88.67711
G1 X-92.07684 Y-18.01516
G1 X-92.79749 Y-18.39909
G1 X-93.52119 Y-18.78091
G1 X-95.09756 Y-19.61141
G3 X-95.10131 Y-19.6134 I0.46611 J-0.88473
G1 X-95.8281 Y-20.00025
G3 X-95.83273 Y-20.00273 I0.46986 J-0.88274
G1 X-96.55734 Y-20.39331
G3 X-96.76881 Y-20.50843 I13.4621 J-24.98326
G3 X-98.0563 Y-21.22282 I36.26179 J-66.86858
G3 X-98.05687 Y-21.22314 I0.49363 J-0.86967
G1 X-98.47872 Y-21.46296
G3 X-98.48249 Y-21.46511 I0.4942 J-0.86935
G1 X-98.69638 Y-21.58793
G3 X-98.79757 Y-21.64632 I1.12493 J-2.0663
G1 X-99.08596 Y-21.81372
G3 X-99.09152 Y-21.81697 I0.50202 J-0.86485
G1 X-99.6879 Y-22.1683
G3 X-99.69419 Y-22.17204 I0.50758 J-0.8616
G1 X-100.0829 Y-22.40488
G3 X-100.20724 Y-22.47996 I1.91509 J-3.31237
G3 X-101.15943 Y-23.06581 I36.06795 J-59.68818
G3 X-101.16082 Y-23.06668 I0.53084 J-0.84747
G1 X-101.47461 Y-23.26395
G3 X-101.47942 Y-23.26699 I0.53222 J-0.84661
G1 X-101.89628 Y-23.53237
G3 X-101.90081 Y-23.53527 I0.53703 J-0.84356
G1 X-102.17304 Y-23.71064
G3 X-102.17661 Y-23.71295 I0.54156 J-0.84066
G1 X-102.4473 Y-23.88896
G3 X-103.00069 Y-24.25382 I21.5976 J-33.36038
G1 X-103.35895 Y-24.49363
G3 X-103.36258 Y-24.49608 I0.55627 J-0.831
G1 X-103.56707 Y-24.63426
G3 X-103.56752 Y-24.63457 I0.5599 J-0.82856
G3 X-105.20367 Y-25.77406 I41.32248 J-61.07768
G3 X-106.8025 Y-26.9467 I49.17077 J-68.71761
G3 X-106.90124 Y-27.03151 I0.60084 J-0.79937
G1 X-107.20053 Y-27.32453
G1 X-108.10014 Y-28.20226
G1 X-108.68083 Y-28.76607
G1 X-109.2629 Y-29.32846
G1 X-109.53933 Y-29.59434
G1 X-109.95526 Y-29.99257
G1 X-110.37214 Y-30.38897
G1 X-110.62715 Y-30.6298
G1 X-111.01379 Y-30.99193
G3 X-111.01548 Y-30.99351 I0.68359 J-0.72986
G2 X-111.39315 Y-31.34285 I-20.64786 J21.94341
G1 X-111.58855 Y-31.52036
G2 X-112.11666 Y-30.88499 I9.69462 J8.59512
G2 X-112.38983 Y-30.52129 I20.9847 J16.04594
G2 X-113.12008 Y-29.39945 I11.05725 J7.99614
G2 X-113.55974 Y-28.58556 I13.61237 J7.8792
G1 X-113.66522 Y-28.37
G2 X-113.94849 Y-27.74239 I11.92295 J5.75902
G3 X-113.94908 Y-27.74098 I-0.92185 J-0.38754
G2 X-114.59966 Y-25.90795 I15.3415 J6.47698
G2 X-115.06181 Y-23.91096 I18.53139 J5.34054
G1 X-115.08515 Y-23.77529
G2 X-115.32245 Y-21.77592 I20.22386 J3.4141
G1 X-115.3407 Y-21.49184
G1 X-115.35356 Y-21.24573
G1 X-115.35832 Y-21.13823
G2 X-115.36807 Y-19.53079 I21.67207 J0.93512
G3 X-115.36798 Y-19.52787 I-0.99952 J0.03099
G2 X-115.18578 Y-17.22833 I22.61708 J-0.6351
G1 X-115.14516 Y-16.92917
G2 X-114.76582 Y-14.90488 I23.07887 J-3.27716
G3 X-114.76546 Y-14.90332 I-0.97379 J0.22743
G2 X-114.10742 Y-12.61605 I22.17344 J-5.141
G3 X-114.10715 Y-12.6153 I-0.94525 J0.32635
G2 X-113.21475 Y-10.39479 I22.41506 J-7.71886
G3 X-113.20916 Y-10.38246 I-0.90787 J0.41926
G2 X-113.1577 Y-10.27202 I3.29495 J-1.46782
G3 X-113.15183 Y-10.25973 I-0.8992 J0.43754
G2 X-112.10599 Y-8.27754 I21.93532 J-10.30649
G1 X-112.10595 Y-8.27748
G2 X-110.80849 Y-6.28817 I22.13995 J-13.02232
G1 X-110.63376 Y-6.04816
G1 X-110.48172 Y-5.84376
G1 X-110.20254 Y-5.47847
G3 X-110.18733 Y-5.45805 I-0.79452 J0.60724
G2 X-110.17687 Y-5.44464 I0.19545 J-0.14164
G3 X-110.15198 Y-5.41371 I-0.76638 J0.64239
G2 X-109.76387 Y-4.92917 I14.0859 J-10.88488
G3 X-109.76358 Y-4.92882 I-0.76947 J0.63868
G1 X-109.55787 Y-4.68076
G1 X-109.35121 Y-4.43714
G2 X-107.78473 Y-2.75022 I22.33139 J-19.16623
G2 X-106.14013 Y-1.2225 I23.05154 J-23.16603
G3 X-106.11524 Y-1.20018 I-0.65503 J0.7556
G3 X-106.0648 Y-1.15672 I-0.62721 J0.77885
G3 X-106.0397 Y-1.13586 I-0.62649 J0.77943
G2 X-104.4629 Y0.13871 I22.11092 J-25.74131
G1 X-104.04306 Y0.45315
G2 X-102.77187 Y1.34876 I23.81574 J-32.45326
G3 X-102.74819 Y1.36527 I-0.56005 J0.82846
G3 X-102.72161 Y1.38252 I-0.53105 J0.84734
G2 X-101.10688 Y2.40644 I20.18101 J-30.04058
G2 X-99.47519 Y3.33144 I21.22618 J-35.54113
G1 X-99.27867 Y3.436
G1 X-99.10789 Y3.52573
G1 X-98.8033 Y3.68315
G2 X-97.89449 Y4.13333 I17.20156 J-33.58371
G1 X-97.7041 Y4.22399
G1 X-97.53949 Y4.30138
G1 X-97.2492 Y4.43558
G1 X-96.80499 Y4.6354
G3 X-96.78389 Y4.64519 I-0.41025 J0.91197
G2 X-96.72811 Y4.66976 I0.42312 J-0.88497
G3 X-96.70528 Y4.67931 I-0.37447 J0.92724
G1 X-96.37113 Y4.82398
G1 X-96.00831 Y4.97672
G1 X-95.73754 Y5.08772
G1 X-95.3243 Y5.25215
G1 X-95.22524 Y5.29066
G1 X-94.9152 Y5.40888
G1 X-94.56802 Y5.53707
G2 X-94.31073 Y5.62915 I16.00673 J-44.32244
G1 X-94.2116 Y5.66395
G3 X-94.20885 Y5.66492 I-0.33124 J0.94355
G2 X-94.04688 Y5.72094 I3.78794 J-10.69023
G3 X-94.04469 Y5.72168 I-0.31971 J0.94752
G1 X-93.92291 Y5.76308
G0 Z3.0
G0 X43.73439 Y19.38606
G0 Z1.0
G1 F300.0 Z-2.0
G3 F800.0 X43.88736 Y19.89991 I-24.02265 J7.43113
G3 X43.88893 Y19.90548 I-0.96142 J0.27509
G1 X43.98725 Y20.25677
G3 X43.98872 Y20.26207 I-0.96299 J0.26952
G3 X44.35034 Y21.7284 I-28.44679 J7.79309
G3 X44.93411 Y25.04439 I-39.01898 J8.57856
G3 X45.29305 Y28.76018 I-50.58121 J6.76129
G3 X45.39365 Y32.85577 I-57.26981 J3.45582
G3 X45.39359 Y32.86039 I-0.99994 J-0.01115
G1 X45.38554 Y33.37107
G3 X45.38542 Y33.37715 I-0.99988 J-0.01577
G1 X45.38171 Y33.54708
G3 X45.36114 Y34.24393 I-42.56218 J-0.90749
G3 X45.36106 Y34.24602 I-0.99929 J-0.03769
G1 X45.34301 Y34.69959
G3 X45.34257 Y34.70928 I-0.99921 J-0.03977
G1 X45.31348 Y35.29683
G3 X45.30663 Y35.42026 I-1.79673 J-0.03777
G1 X45.28634 Y35.75875
G3 X45.28617 Y35.76158 I-0.99821 J-0.05982
G3 X45.21612 Y36.73029 I-51.02852 J-3.20304
G3 X45.21572 Y36.73511 I-0.99667 J-0.08159
G1 X45.1687 Y37.27718
G3 X45.16832 Y37.28145 I-0.99626 J-0.08641
G3 X44.51468 Y41.95115 I-48.66152 J-4.43076
G3 X43.31224 Y46.745 I-41.45262 J-7.84986
G3 X42.84688 Y48.12967 I-32.98223 J-10.31421
G3 X42.334 Y49.48325 I-31.87587 J-11.304
G3 X42.28894 Y49.59501 I-2.22248 J-0.83115
G3 X42.19475 Y49.82581 I-31.87789 J-12.87381
G2 X42.26981 Y49.88068 I2.67182 J-3.57668
G3 X42.27608 Y49.8852 I-0.58165 J0.81344
G2 X42.99022 Y50.33985 I4.04531 J-5.56596
G3 X42.99427 Y50.3421 I-0.48413 J0.875
G2 X43.82979 Y50.75145 I4.17397 J-7.462
G3 X43.83426 Y50.75336 I-0.39046 J0.92062
G2 X44.79524 Y51.1177 I4.65684 J-10.83318
