( Made using CamBam - http://www.cambam.co.uk )
( Bollenhut_1 9/21/2019 12:44:09 PM )
( T4 : 4.0 )
G21 G90 G64 G40
G0 Z3.0
( T4 : 4.0 )
T4 M6
( Hut-4mm )
G17
M3 S1000
G0 X94.63574 Y-38.95592
G0 Z1.0
G1 F300.0 Z-2.5
G3 F800.0 X95.24951 Y-38.98125 I1.40228 J26.52772
G1 X95.46634 Y-38.98837
G3 X95.52962 Y-38.99023 I0.30828 J9.39494
G1 X95.7628 Y-38.99631
G3 X95.85807 Y-38.99831 I0.245 J9.39681
G1 X96.32437 Y-39.00574
G3 X96.38266 Y-39.00649 I0.14973 J9.39881
G3 X97.58084 Y-39.00123 I0.41291 J42.44483
G3 X97.59485 Y-39.00096 I-0.1739 J9.39839
G3 X99.57284 Y-38.92017 I-0.94988 J47.50828
G3 X99.62251 Y-38.91697 I-0.57919 J9.38214
G1 X99.84891 Y-38.90179
G3 X99.93098 Y-38.89593 I-0.62886 J9.37894
G1 X100.30743 Y-38.86737
G3 X100.3762 Y-38.8619 I-0.71093 J9.37308
G1 X100.50165 Y-38.85146
G3 X100.58874 Y-38.8438 I-0.7797 J9.36761
G1 X101.09003 Y-38.79738
G3 X101.20811 Y-38.78569 I-0.86679 J9.35995
G1 X101.54188 Y-38.75053
G3 X101.55036 Y-38.74963 I-0.98487 J9.34826
G3 X102.17743 Y-38.67616 I-3.09698 J29.14245
G3 X104.47957 Y-38.31674 I-4.54819 J36.68427
G3 X106.18713 Y-37.94627 I-5.4937 J29.44267
G2 X106.05749 Y-38.14509 I-5.68242 J3.56368
G3 X106.05002 Y-38.15613 I7.78183 J-5.27287
G2 X105.7165 Y-38.5799 I-3.07696 J2.07855
G2 X105.39689 Y-38.87465 I-1.93983 J1.78274
G2 X104.84318 Y-39.23827 I-2.6014 J3.35793
G1 X104.84316 Y-39.23828
G1 X104.84321 Y-39.23826
G1 X104.84318 Y-39.23827
G2 X103.98081 Y-39.63854 I-3.3504 J6.08936
G2 X102.87731 Y-39.98728 I-3.49989 J9.15426
G2 X101.73917 Y-40.20468 I-2.46952 J9.84034
G3 X101.72549 Y-40.2065 I1.23355 J-9.31871
G3 X101.7035 Y-40.20931 I1.18048 J-9.32558
G2 X100.67408 Y-40.2839 I-1.18058 J9.15307
G3 X100.62864 Y-40.28475 I0.15397 J-9.39874
G2 X100.47689 Y-40.28501 I-0.08246 J3.88608
G3 X100.43858 Y-40.2844 I-0.16758 J-9.39851
G2 X99.66663 Y-40.24215 I0.12992 J9.44635
G2 X98.56593 Y-40.07799 I1.10385 J11.17368
G2 X97.15384 Y-39.7416 I3.99241 J19.89115
G3 X97.11996 Y-39.7323 I-2.50407 J-9.06033
G2 X96.3283 Y-39.50354 I7.03015 J25.81206
G1 X95.84848 Y-39.35512
G1 X95.36264 Y-39.19932
G2 X94.93891 Y-39.05895 I8.41985 J26.12598
G3 X94.91333 Y-39.05028 I-3.02849 J-8.89878
G1 X94.82224 Y-39.01957
G1 X94.63574 Y-38.95592
G1 F300.0 X94.37733 Y-39.71304
G1 F800.0 X94.20526 Y-39.6543
G1 X93.66087 Y-39.46426
G1 X93.11918 Y-39.27043
G1 X92.55841 Y-39.06519
G1 X92.4737 Y-39.03379
G1 X92.08396 Y-38.88797
G1 X91.49825 Y-38.66491
G1 X90.89062 Y-38.4287
G3 X90.87377 Y-38.42217 I-3.11599 J-8.01565
G2 X90.67411 Y-38.34338 I5.36605 J13.89012
G3 X90.64193 Y-38.33048 I-3.21445 J-7.97667
G1 X90.38305 Y-38.22737
G1 X89.93097 Y-38.04516
G1 X89.8626 Y-38.01736
G1 X89.5346 Y-37.88307
G3 X89.49659 Y-37.86762 I-3.25836 J-7.95884
G2 X89.14161 Y-37.72035 I7.61901 J18.86629
G3 X89.11193 Y-37.70777 I-3.3704 J-7.91204
G1 X88.62318 Y-37.50173
G1 X88.49557 Y-37.44736
G1 X88.46665 Y-37.43489
G1 X88.79401 Y-37.49262
G3 X88.80283 Y-37.49417 I1.49364 J8.4693
G3 X90.00443 Y-37.6872 I7.37748 J42.08835
G1 X90.27773 Y-37.72724
G3 X90.30905 Y-37.73177 I1.24678 J8.50914
G3 X92.75557 Y-38.02067 I7.17477 J50.25568
G3 X93.24412 Y-38.0631 I1.78047 J17.66981
G1 X93.30641 Y-38.06815
G3 X93.36694 Y-38.07284 I0.69528 J8.57185
G1 X93.77823 Y-38.10328
G3 X93.85996 Y-38.10894 I0.63475 J8.57654
G1 X94.13427 Y-38.12662
G3 X94.21167 Y-38.13125 I0.55302 J8.5822
G1 X94.56966 Y-38.15108
G3 X95.2745 Y-38.18164 I1.46836 J25.72288
G1 X95.49258 Y-38.1888
G3 X95.55047 Y-38.1905 I0.28204 J8.59537
G1 X95.78365 Y-38.19658
G3 X95.87081 Y-38.19841 I0.22415 J8.59708
G1 X96.33711 Y-38.20584
G3 X96.39044 Y-38.20652 I0.13698 J8.59891
G3 X97.56604 Y-38.20137 I0.40513 J41.64487
G3 X97.57885 Y-38.20112 I-0.1591 J8.59853
G3 X99.52355 Y-38.12169 I-0.93388 J46.70844
G3 X99.56899 Y-38.11876 I-0.5299 J8.58366
G1 X99.79539 Y-38.10358
G3 X99.87048 Y-38.09822 I-0.57534 J8.58073
G1 X100.24693 Y-38.06966
G3 X100.30984 Y-38.06466 I-0.65043 J8.57537
G1 X100.4353 Y-38.05422
G3 X100.51497 Y-38.04721 I-0.71334 J8.57036
G1 X101.01626 Y-38.00079
G3 X101.12429 Y-37.9901 I-0.79302 J8.56336
G1 X101.45806 Y-37.95493
G3 X101.46582 Y-37.95411 I-0.90105 J8.55267
G3 X102.07738 Y-37.88244 I-3.01244 J28.34693
G3 X104.33207 Y-37.53045 I-4.44814 J35.89055
G3 X106.67578 Y-36.99231 I-5.3462 J28.65639
G3 X107.37262 Y-36.79171 I-5.15244 J19.20957
G3 X107.6887 Y-36.69326 I-3.62583 J12.19661
G1 X107.68641 Y-36.69947
G3 X107.67624 Y-36.72718 I8.06853 J-2.97637
G2 X107.6166 Y-36.87929 I-3.23855 J1.18204
G3 X107.59028 Y-36.94271 I7.92992 J-3.32811
G2 X107.18349 Y-37.81185 I-9.18 J3.76684
G3 X107.16155 Y-37.85364 I7.60367 J-4.01798
G2 X106.71977 Y-38.59385 I-6.65684 J3.47105
G3 X106.71294 Y-38.60394 I7.11954 J-4.82412
G2 X106.30656 Y-39.12011 I-3.73987 J2.52637
G2 X105.88783 Y-39.5063 I-2.52989 J2.32295
G2 X105.22883 Y-39.93918 I-3.09233 J3.98958
G1 X105.22882 Y-39.93919
G1 X105.22886 Y-39.93917
G1 X105.22883 Y-39.93918
G2 X104.26684 Y-40.38565 I-3.73605 J6.79027
G2 X103.07248 Y-40.7631 I-3.78592 J9.90138
G2 X101.84415 Y-40.99776 I-2.66469 J10.61617
G3 X101.8288 Y-40.99981 I1.12857 J-8.52563
G3 X101.80584 Y-41.00274 I1.07717 J-8.53227
G2 X100.68719 Y-41.08379 I-1.28292 J9.9465
G3 X100.64561 Y-41.08457 I0.14086 J-8.59885
G2 X100.46263 Y-41.08488 I-0.09943 J4.6859
G3 X100.42758 Y-41.08433 I-0.15332 J-8.59863
G2 X99.58911 Y-41.03839 I0.14092 J10.24627
G2 X98.40867 Y-40.86238 I1.18137 J11.96992
G2 X96.94072 Y-40.51269 I4.14966 J20.67555
G3 X96.90973 Y-40.50419 I-2.29096 J-8.28924
G2 X96.09314 Y-40.26819 I7.24038 J26.58394
G1 X95.60813 Y-40.11817
G1 X95.1178 Y-39.96093
G2 X94.68116 Y-39.81629 I8.66469 J26.88759
G3 X94.65776 Y-39.80836 I-2.77075 J-8.14144
G1 X94.56525 Y-39.77717
G1 X94.37733 Y-39.71304
G1 F300.0 X93.86051 Y-41.22727
G1 F800.0 X93.68316 Y-41.16674
G1 X93.12767 Y-40.97281
G1 X92.5747 Y-40.77495
G1 X92.00537 Y-40.56658
G1 X91.91528 Y-40.53318
G1 X91.51889 Y-40.38487
G1 X90.92366 Y-40.15818
G1 X90.3109 Y-39.91998
G3 X90.29718 Y-39.91467 I-2.53627 J-6.52436
G2 X90.07607 Y-39.82741 I5.94263 J15.38262
G3 X90.04988 Y-39.81691 I-2.61641 J-6.49264
G1 X89.78796 Y-39.71259
G1 X89.33054 Y-39.52823
G1 X89.25813 Y-39.49878
G1 X88.92839 Y-39.36379
G3 X88.89745 Y-39.35121 I-2.65216 J-6.47812
G2 X88.51456 Y-39.19235 I8.21815 J20.34988
G3 X88.4904 Y-39.18212 I-2.74335 J-6.44003
G1 X87.99884 Y-38.97489
G1 X87.86515 Y-38.91793
G1 X87.27961 Y-38.66537
G3 X87.25495 Y-38.65479 I-2.77242 J-6.42757
G2 X86.93573 Y-38.51472 I6.77573 J15.87592
G3 X86.86233 Y-38.48214 I-2.87721 J-6.38135
G2 X86.29692 Y-38.22938 I15.01315 J34.34375
G3 X86.28464 Y-38.22379 I-2.90941 J-6.36674
G1 X85.96036 Y-38.07636
G1 X85.81048 Y-38.00763
G1 X85.65733 Y-37.937
G1 X85.51992 Y-37.87328
G1 X84.95412 Y-37.60741
G1 X84.75519 Y-37.51259
G2 X83.32974 Y-36.81132 I34.79705 J72.5304
G2 X81.04777 Y-35.60657 I32.30835 J63.96043
G1 X80.74478 Y-35.43907
G2 X78.74469 Y-34.29328 I41.9597 J75.56302
G3 X78.74114 Y-34.29118 I-3.56026 J-6.02698
G1 X78.5898 Y-34.2019
G1 X78.45232 Y-34.12053
G1 X78.32333 Y-34.04394
G1 X78.20695 Y-33.97465
G1 X77.74583 Y-33.69845
G1 X77.40698 Y-33.49392
G1 X76.88735 Y-33.17797
G1 X76.63154 Y-33.02152
G1 X76.37832 Y-32.86613
G1 X75.1378 Y-32.09907
G1 X74.98524 Y-32.00407
G1 X75.20209 Y-32.08244
G3 X75.23167 Y-32.09306 I2.37924 J6.58325
G1 X75.79002 Y-32.29202
G3 X75.81004 Y-32.29912 I2.34965 J6.59387
G1 X75.96976 Y-32.35549
G3 X75.97265 Y-32.35651 I2.32964 J6.60097
G3 X77.33363 Y-32.82687 I39.34624 J111.64236
G3 X77.34337 Y-32.83016 I2.24626 J6.6298
G3 X78.84152 Y-33.32561 I43.28692 J128.38025
G3 X78.87101 Y-33.3351 I2.15912 J6.65869
G1 X79.34624 Y-33.48688
G3 X79.38883 Y-33.50033 I2.12964 J6.66818
G1 X80.02373 Y-33.69864
G3 X80.07783 Y-33.7153 I2.08705 J6.68163
G1 X80.79254 Y-33.93222
G3 X80.8527 Y-33.95018 I2.03295 J6.69829
G1 X81.56938 Y-34.16069
G3 X81.60472 Y-34.17097 I1.97279 J6.71626
G1 X81.70047 Y-34.19855
G3 X81.70925 Y-34.20108 I1.93745 J6.72654
G1 X81.79913 Y-34.22684
G3 X82.43278 Y-34.40544 I11.63352 J40.06027
G1 X82.73752 Y-34.48944
G3 X82.75061 Y-34.49303 I1.86002 J6.74836
G3 X85.07548 Y-35.09 I20.21526 J73.90246
G3 X85.09577 Y-35.09483 I1.63452 J6.80649
G1 X85.39897 Y-35.16669
G3 X85.42542 Y-35.17291 I1.61424 J6.81133
G3 X87.34366 Y-35.59269 I16.65088 J71.49491
G3 X87.39556 Y-35.60312 I1.40486 J6.85758
G1 X87.9765 Y-35.71756
G3 X88.03892 Y-35.72956 I1.35297 J6.868
G1 X88.34116 Y-35.78626
G3 X88.64624 Y-35.84187 I1.76596 J8.82298
G1 X89.07189 Y-35.91694
G3 X89.07907 Y-35.9182 I1.21575 J6.89362
G3 X90.23603 Y-36.10405 I7.10123 J40.51238
G1 X90.50969 Y-36.14415
G3 X90.53518 Y-36.14784 I1.01482 J6.92605
G3 X92.91038 Y-36.42817 I6.94864 J48.67174
G3 X93.36685 Y-36.4678 I1.62567 J16.0773
G1 X93.43576 Y-36.47339
G3 X93.48503 Y-36.47721 I0.56593 J6.97709
G1 X93.89632 Y-36.50765
G3 X93.96284 Y-36.51225 I0.51665 J6.98091
G1 X94.23716 Y-36.52993
G3 X94.30016 Y-36.5337 I0.45013 J6.98551
G1 X94.65952 Y-36.55361
G3 X95.3244 Y-36.58242 I1.3785 J24.1254
G1 X95.54505 Y-36.58966
G3 X95.59217 Y-36.59105 I0.22957 J6.99623
G1 X95.82535 Y-36.59713
G3 X95.8963 Y-36.59862 I0.18245 J6.99762
G1 X96.3626 Y-36.60604
G3 X96.40601 Y-36.6066 I0.1115 J6.99911
G3 X97.53644 Y-36.60164 I0.38956 J40.04494
G3 X97.54687 Y-36.60144 I-0.1295 J6.9988
G3 X99.42496 Y-36.52473 I-0.9019 J45.10876
G3 X99.46195 Y-36.52235 I-0.43131 J6.9867
G1 X99.68835 Y-36.50717
G3 X99.74947 Y-36.5028 I-0.4683 J6.98432
G1 X100.12592 Y-36.47425
G3 X100.17713 Y-36.47017 I-0.52942 J6.97995
G1 X100.30258 Y-36.45973
G3 X100.36743 Y-36.45403 I-0.58063 J6.97588
G1 X100.86872 Y-36.40761
G3 X100.95666 Y-36.3989 I-0.64548 J6.97018
G1 X101.29043 Y-36.36374
G3 X101.29674 Y-36.36307 I-0.73341 J6.96147
G3 X101.87727 Y-36.29499 I-2.84336 J26.75589
G3 X104.03709 Y-35.95788 I-4.24803 J34.30311
G3 X106.25751 Y-35.44794 I-5.05121 J27.08381
G3 X106.90945 Y-35.2602 I-4.73417 J17.6652
G3 X107.19884 Y-35.17007 I-3.16266 J10.6651
G3 X107.97174 Y-34.90994 I-8.78793 J27.38874
G3 X108.04984 Y-34.8819 I-2.32672 J6.602
G1 X108.22102 Y-34.81928
G3 X108.30828 Y-34.7867 I-2.40481 J6.57395
G1 X108.50289 Y-34.71255
G3 X108.55127 Y-34.69392 I-2.49207 J6.54138
G3 X108.56225 Y-34.68964 I-7.36238 J18.90327
G2 X108.77598 Y-35.02655 I-14.95278 J-9.72195
G2 X109.07435 Y-35.54828 I-7.83692 J-4.82805
G3 X109.08402 Y-35.56649 I6.1867 J3.27486
G2 X109.1741 Y-35.74387 I-4.4109 J-2.35151
G1 X109.23869 Y-35.88215
G1 X109.28227 Y-35.98114
G1 X109.31597 Y-36.0627
G1 X109.35587 Y-36.16556
G2 X109.41945 Y-36.38994 I-1.35883 J-0.50628
G2 X109.42136 Y-36.41338 I-0.15364 J-0.02432
G2 X109.37121 Y-36.68744 I-1.53678 J0.1396
G3 X109.36164 Y-36.72218 I6.74379 J-1.8765
G2 X109.30984 Y-36.89958 I-4.98845 J1.36044
G3 X109.30288 Y-36.92204 I6.68323 J-2.08192
G2 X109.22307 Y-37.15697 I-4.10537 J1.26377
G3 X109.21577 Y-37.17665 I6.56012 J-2.44231
G1 X109.18753 Y-37.25321
G3 X109.17925 Y-37.27577 I6.56741 J-2.42263
G2 X109.09193 Y-37.49847 I-4.74156 J1.73063
G3 X109.07051 Y-37.55009 I6.45459 J-2.70893
G2 X108.59812 Y-38.55938 I-10.66023 J4.37422
G3 X108.58027 Y-38.5934 I6.18904 J-3.27045
G2 X108.04434 Y-39.49136 I-8.07556 J4.2108
G3 X108.03878 Y-39.49958 I5.79498 J-3.92661
G2 X107.48675 Y-40.20046 I-5.06571 J3.422
G2 X106.86963 Y-40.76966 I-3.71008 J3.4033
G2 X106.00014 Y-41.341 I-4.07413 J5.25294
G1 X106.00012 Y-41.34101
G1 X106.00015 Y-41.34099
G1 X106.00014 Y-41.341
G2 X104.8389 Y-41.87989 I-4.50735 J8.19209
G2 X103.46282 Y-42.31476 I-4.35798 J11.39562
G2 X102.05412 Y-42.58393 I-3.05503 J12.16782
G3 X102.03541 Y-42.58643 I0.9186 J-6.93946
G3 X102.01051 Y-42.58959 I0.87056 J-6.94566
G2 X100.71339 Y-42.68358 I-1.4876 J11.53335
G3 X100.67955 Y-42.68421 I0.11466 J-6.99906
G2 X100.4341 Y-42.68463 I-0.13337 J6.28554
G3 X100.40558 Y-42.68418 I-0.12479 J-6.99889
G2 X99.43407 Y-42.63086 I0.16293 J11.84612
G2 X98.09416 Y-42.43117 I1.33641 J13.56239
G2 X96.5145 Y-42.05488 I4.46418 J22.24433
G3 X96.48927 Y-42.04795 I-1.86474 J-6.74706
G2 X95.62276 Y-41.79749 I7.66084 J28.1277
G1 X95.12742 Y-41.64427
G1 X94.62815 Y-41.48417
G2 X94.16567 Y-41.33097 I9.15434 J28.41082
G3 X94.14663 Y-41.32452 I-2.25526 J-6.62675
G1 X94.05127 Y-41.29237
G1 X93.86051 Y-41.22727
G1 F300.0 X93.34369 Y-42.7415
G1 F800.0 X93.16107 Y-42.67917
G1 X92.59447 Y-42.48137
G1 X92.03021 Y-42.27947
G1 X91.45233 Y-42.06796
G1 X91.35686 Y-42.03257
G1 X90.95382 Y-41.88177
G1 X90.34907 Y-41.65146
G1 X89.73118 Y-41.41126
G3 X89.7206 Y-41.40716 I-1.95655 J-5.03308
G2 X89.47804 Y-41.31144 I6.51921 J16.87512
G3 X89.45783 Y-41.30334 I-2.01837 J-5.00861
G1 X89.19287 Y-41.19781
G1 X88.73011 Y-41.0113
G1 X88.65366 Y-40.98021
G1 X88.32218 Y-40.8445
G3 X88.29832 Y-40.8348 I-2.04595 J-4.99741
G2 X87.8875 Y-40.66436 I8.81728 J21.83347
G3 X87.86887 Y-40.65646 I-2.1163 J-4.96803
G1 X87.3745 Y-40.44806
G1 X87.23473 Y-40.3885
G1 X86.64591 Y-40.13453
G3 X86.62689 Y-40.12637 I-2.13872 J-4.95841
G2 X86.27808 Y-39.97332 I7.40379 J17.3475
G3 X86.22146 Y-39.94818 I-2.21956 J-4.92276
G2 X85.63191 Y-39.68464 I15.65402 J35.8098
G3 X85.62244 Y-39.68032 I-2.2444 J-4.91148
G1 X85.29582 Y-39.53182
G1 X85.14202 Y-39.4613
G1 X84.98573 Y-39.38923
G1 X84.84311 Y-39.32309
G1 X84.26966 Y-39.05363
G1 X84.06493 Y-38.95603
G2 X82.60882 Y-38.2397 I35.48731 J73.97385
G2 X80.27454 Y-37.00733 I33.02927 J65.38881
G1 X79.96935 Y-36.83861
G2 X77.93092 Y-35.67087 I42.73513 J76.96256
G3 X77.92818 Y-35.66926 I-2.74649 J-4.64939
G1 X77.77582 Y-35.57938
G1 X77.63642 Y-35.49686
G1 X77.50567 Y-35.41923
G1 X77.38662 Y-35.34836
G1 X76.92133 Y-35.06967
G1 X76.57794 Y-34.86239
G1 X76.05433 Y-34.54402
G1 X75.79571 Y-34.38585
G1 X75.53915 Y-34.2284
G1 X74.29422 Y-33.45861
G1 X73.04398 Y-32.68016
G1 X73.04364 Y-32.67994
G1 X71.7433 Y-31.87042
G3 X71.7366 Y-31.86626 I-2.85389 J-4.58424
G1 X71.41119 Y-31.66434
G3 X71.40169 Y-31.65846 I-2.84719 J-4.58841
G1 X70.4243 Y-31.05477
G3 X70.41495 Y-31.049 I-2.8377 J-4.59429
G1 X70.33002 Y-30.99678
G3 X70.32222 Y-30.99199 I-2.82834 J-4.60005
G1 X69.66376 Y-30.58868
G3 X69.64402 Y-30.57665 I-2.82054 J-4.60484
G1 X68.65366 Y-29.97585
G3 X68.62617 Y-29.95929 I-2.8008 J-4.61687
G1 X67.63232 Y-29.36442
G3 X67.61601 Y-29.3547 I-2.77332 J-4.63343
G1 X67.52673 Y-29.30169
G3 X67.52119 Y-29.2984 I-2.75701 J-4.64315
G3 X64.65575 Y-27.63581 I-94.93767 J-160.3229
G3 X64.64551 Y-27.63 I-2.66842 J-4.69463
G3 X61.54308 Y-25.91637 I-86.96447 J-153.7789
G3 X61.53634 Y-25.91275 I-2.56334 J-4.75282
G3 X58.33042 Y-24.23089 I-85.1882 J-158.48816
G3 X58.31701 Y-24.22405 I-2.4604 J-4.80692
G1 X57.52955 Y-23.82376
G3 X57.50873 Y-23.81324 I-2.44699 J-4.81376
G1 X56.91691 Y-23.5156
G1 X56.91683 Y-23.51556
G1 X56.91699 Y-23.51564
G1 X56.91691 Y-23.5156
G3 X56.00124 Y-23.06018 I-51.4629 J-102.32216
G3 X55.88585 Y-23.00266 I-18.08465 J-36.13397
G1 X56.30719 Y-23.15183
G1 X56.48203 Y-23.21411
G1 X56.96799 Y-23.38806
G1 X57.12405 Y-23.44418
G1 X57.77045 Y-23.67797
G1 X58.19824 Y-23.83388
G1 X58.43935 Y-23.92216
G1 X59.09598 Y-24.1641
G1 X59.26552 Y-24.22692
G1 X59.71299 Y-24.39341
G1 X59.85718 Y-24.44727
G1 X60.44906 Y-24.66941
G1 X61.64079 Y-25.1216
G1 X61.97102 Y-25.24801
G1 X63.3031 Y-25.76233
G1 X64.63373 Y-26.28212
G1 X65.63809 Y-26.6775
G1 X65.7799 Y-26.73348
G1 X65.94306 Y-26.79793
G1 X67.26406 Y-27.32078
G3 X67.26668 Y-27.32182 I1.98732 J5.02101
G1 X69.87812 Y-28.35384
G3 X69.88729 Y-28.35746 I1.98469 J5.02205
G3 X72.51859 Y-29.37891 I121.6896 J309.57668
G3 X72.53662 Y-29.38579 I1.93279 J5.04225
G1 X73.49945 Y-29.75092
G3 X73.52832 Y-29.76177 I1.91476 J5.04913
G1 X74.49331 Y-30.12143
G3 X74.52095 Y-30.13165 I1.88589 J5.05998
G1 X75.16557 Y-30.3679
G3 X75.18841 Y-30.37621 I1.85824 J5.0702
G1 X75.74592 Y-30.5777
G3 X75.76874 Y-30.58589 I1.83541 J5.07851
G1 X76.32709 Y-30.78485
G3 X76.34253 Y-30.79033 I1.81259 J5.0867
G1 X76.50224 Y-30.84669
G3 X76.50447 Y-30.84748 I1.79715 J5.09218
G3 X77.84707 Y-31.31149 I38.81441 J110.13333
G3 X77.85458 Y-31.31403 I1.73283 J5.11442
G3 X79.33503 Y-31.80362 I42.77572 J126.86411
G3 X79.35778 Y-31.81094 I1.66561 J5.13671
G1 X79.83302 Y-31.96272
G3 X79.86587 Y-31.9731 I1.64286 J5.14403
G1 X80.50077 Y-32.17141
G3 X80.5425 Y-32.18426 I1.61001 J5.1544
G1 X81.25722 Y-32.40118
G3 X81.30362 Y-32.41504 I1.56827 J5.16725
G1 X82.0203 Y-32.62555
G3 X82.04756 Y-32.63348 I1.52187 J5.18111
G1 X82.14332 Y-32.66106
G3 X82.15009 Y-32.66301 I1.49461 J5.18904
G1 X82.24268 Y-32.68955
G3 X82.85629 Y-32.86251 I11.18997 J38.52298
G1 X83.16267 Y-32.94695
G3 X83.17277 Y-32.94973 I1.43487 J5.20588
G3 X85.44909 Y-33.53423 I19.79311 J72.35915
G3 X85.46474 Y-33.53796 I1.26092 J5.25072
G1 X85.76793 Y-33.60981
G3 X85.78834 Y-33.61461 I1.24527 J5.25446
G3 X87.66477 Y-34.02524 I16.28796 J69.93662
G3 X87.70481 Y-34.03329 I1.08375 J5.29013
G1 X88.28575 Y-34.14773
G3 X88.3339 Y-34.15699 I1.04372 J5.29817
G1 X88.64614 Y-34.21556
G3 X88.91463 Y-34.26451 I1.46098 J7.25228
G1 X89.34978 Y-34.34125
G3 X89.35532 Y-34.34223 I0.93786 J5.31793
G3 X90.46763 Y-34.5209 I6.82499 J38.93641
G1 X90.74165 Y-34.56105
G3 X90.76131 Y-34.5639 I0.78286 J5.34295
G3 X93.06539 Y-34.83568 I6.72251 J47.0878
G3 X93.48923 Y-34.87247 I1.47066 J14.48482
G1 X93.56512 Y-34.87862
G3 X93.60313 Y-34.88157 I0.43657 J5.38232
G1 X94.01441 Y-34.91201
G3 X94.06573 Y-34.91556 I0.39856 J5.38527
G1 X94.34005 Y-34.93324
G3 X94.38865 Y-34.93615 I0.34724 J5.38882
G1 X94.74942 Y-34.95613
G3 X95.37422 Y-34.98319 I1.2886 J22.52793
G1 X95.59752 Y-34.99052
G3 X95.63387 Y-34.99159 I0.17709 J5.3971
G1 X95.86705 Y-34.99767
G3 X95.92178 Y-34.99882 I0.14074 J5.39817
G1 X96.38809 Y-35.00625
G3 X96.42157 Y-35.00668 I0.08601 J5.39931
G3 X97.50684 Y-35.00192 I0.374 J38.44502
G3 X97.51489 Y-35.00176 I-0.0999 J5.39908
G3 X99.32638 Y-34.92777 I-0.86992 J43.50908
G3 X99.35491 Y-34.92593 I-0.33273 J5.38974
G1 X99.58131 Y-34.91075
G3 X99.62846 Y-34.90738 I-0.36126 J5.3879
G1 X100.00491 Y-34.87883
G3 X100.04441 Y-34.87569 I-0.40841 J5.38453
G1 X100.16987 Y-34.86525
G3 X100.21989 Y-34.86085 I-0.44791 J5.38139
G1 X100.72119 Y-34.81442
G3 X100.78902 Y-34.80771 I-0.49794 J5.37699
G1 X101.12279 Y-34.77255
G3 X101.12766 Y-34.77203 I-0.56577 J5.37028
G3 X101.67714 Y-34.70756 I-2.67428 J25.16484
G3 X103.74211 Y-34.3853 I-4.0479 J32.71567
G3 X105.8393 Y-33.90356 I-4.75624 J25.51124
G3 X106.44652 Y-33.7286 I-4.31596 J16.12082
G3 X106.70607 Y-33.64784 I-2.69973 J9.1335
G3 X107.43992 Y-33.40091 I-8.29517 J25.8665
G3 X107.50017 Y-33.37928 I-1.7949 J5.09297
G1 X107.67135 Y-33.31666
G3 X107.73866 Y-33.29153 I-1.85514 J5.07134
G1 X107.93328 Y-33.21738
G3 X107.9706 Y-33.20301 I-1.92245 J5.0462
G3 X109.1259 Y-32.70767 I-6.7817 J17.41236
G2 X109.20329 Y-32.81125 I-28.1647 J-21.12507
G2 X110.13737 Y-34.18595 I-15.59383 J-11.60034
G2 X110.48845 Y-34.79974 I-9.19831 J-5.66865
G3 X110.49591 Y-34.81379 I4.7726 J2.52632
G2 X110.61964 Y-35.05794 I-5.82279 J-3.10421
G1 X110.69589 Y-35.22118
G1 X110.75404 Y-35.35327
G1 X110.80138 Y-35.46784
G1 X110.85073 Y-35.59508
G2 X110.9925 Y-36.09721 I-2.85369 J-1.07677
G2 X111.01862 Y-36.51236 I-1.72669 J-0.31705
G2 X110.91265 Y-37.11636 I-3.13404 J0.23858
G3 X110.90527 Y-37.14316 I5.20235 J-1.44759
G2 X110.83743 Y-37.37545 I-6.53208 J1.78141
G3 X110.83207 Y-37.39278 I5.15564 J-1.60605
G2 X110.72252 Y-37.71521 I-5.63455 J1.7345
G3 X110.71689 Y-37.73039 I5.06066 J-1.88407
G1 X110.68865 Y-37.80695
G3 X110.68227 Y-37.82436 I5.06629 J-1.86889
G2 X110.56727 Y-38.11766 I-6.24458 J2.27922
G3 X110.55074 Y-38.15748 I4.97925 J-2.08974
G2 X110.01276 Y-39.30691 I-12.14046 J4.98161
G3 X109.99899 Y-39.33315 I4.7744 J-2.52292
G2 X109.36891 Y-40.38887 I-9.49428 J4.95056
G3 X109.36462 Y-40.39521 I4.47041 J-3.0291
G2 X108.66698 Y-41.28077 I-6.39155 J4.31763
G2 X107.85138 Y-42.03306 I-4.89031 J4.48361
G2 X106.77144 Y-42.74282 I-5.05588 J6.51633
G1 X106.77142 Y-42.74283
G1 X106.77145 Y-42.74281
G1 X106.77144 Y-42.74282
G2 X105.41094 Y-43.37414 I-5.27865 J9.59391
G2 X103.85316 Y-43.86641 I-4.93002 J12.88986
G2 X102.26409 Y-44.17009 I-3.44537 J13.71948
G3 X102.24203 Y-44.17306 I0.70863 J-5.3533
G3 X102.21519 Y-44.17645 I0.66394 J-5.35903
G2 X100.7396 Y-44.28336 I-1.69227 J13.12021
G3 X100.7135 Y-44.28385 I0.08845 J-5.39928
G2 X100.40558 Y-44.28437 I-0.16731 J7.88518
G3 X100.38357 Y-44.28403 I-0.09627 J-5.39914
G2 X99.27901 Y-44.22333 I0.18493 J13.44597
G2 X97.77964 Y-43.99995 I1.49147 J15.15486
G2 X96.08827 Y-43.59706 I4.7787 J23.81311
G3 X96.06881 Y-43.59172 I-1.43851 J-5.20487
G2 X95.15232 Y-43.32677 I8.0813 J29.67147
G1 X94.64671 Y-43.17038
G1 X94.13852 Y-43.00741
G2 X93.65019 Y-42.84566 I9.64397 J29.93406
G3 X93.63549 Y-42.84068 I-1.73977 J-5.11206
G1 X93.53729 Y-42.80758
G1 X93.34369 Y-42.7415
G1 F300.0 X92.82687 Y-44.25573
G1 F800.0 X92.63897 Y-44.1916
G1 X92.06127 Y-43.98992
G1 X91.48573 Y-43.78399
G1 X90.89928 Y-43.56935
G1 X90.79844 Y-43.53196
G1 X90.38875 Y-43.37868
G1 X89.77449 Y-43.14474
G1 X89.15146 Y-42.90255
G3 X89.14402 Y-42.89966 I-1.37683 J-3.5418
G2 X88.88 Y-42.79547 I7.0958 J18.36762
G3 X88.86578 Y-42.78978 I-1.42034 J-3.52458
G1 X88.59778 Y-42.68303
G1 X88.12968 Y-42.49436
G1 X88.04919 Y-42.46163
G1 X87.71598 Y-42.32521
G3 X87.69918 Y-42.31838 I-1.43974 J-3.51669
G2 X87.26045 Y-42.13637 I9.41642 J23.31705
G3 X87.24734 Y-42.13081 I-1.48925 J-3.49602
G1 X86.75016 Y-41.92122
G1 X86.6043 Y-41.85908
G1 X86.01222 Y-41.60369
G3 X85.99883 Y-41.59795 I-1.50503 J-3.48925
G2 X85.62044 Y-41.43191 I8.03185 J18.81907
G3 X85.58059 Y-41.41422 I-1.56191 J-3.46416
G2 X84.9669 Y-41.13989 I16.29489 J37.27584
G3 X84.96024 Y-41.13685 I-1.57939 J-3.45623
G1 X84.63127 Y-40.98729
G1 X84.47355 Y-40.91497
G1 X84.31414 Y-40.84146
G1 X84.16631 Y-40.7729
G1 X83.5852 Y-40.49984
G1 X83.37468 Y-40.39949
G2 X81.8879 Y-39.66808 I36.17756 J75.4173
G2 X79.50129 Y-38.40807 I33.75019 J66.8172
G1 X79.19394 Y-38.23816
G2 X77.11714 Y-37.04847 I43.51054 J78.36211
G3 X77.11522 Y-37.04733 I-1.93271 J-3.27179
G1 X76.96185 Y-36.95686
G1 X76.82052 Y-36.8732
G1 X76.688 Y-36.79453
G1 X76.56629 Y-36.72206
G1 X76.09684 Y-36.44088
G1 X75.74889 Y-36.23085
G1 X75.2213 Y-35.91006
G1 X74.95988 Y-35.75017
G1 X74.69998 Y-35.59068
G1 X73.45063 Y-34.81816
G1 X72.19828 Y-34.03839
G1 X72.19804 Y-34.03824
G1 X70.8977 Y-33.22872
G3 X70.89299 Y-33.22579 I-2.0083 J-3.22595
G1 X70.56758 Y-33.02386
G3 X70.5609 Y-33.01973 I-2.00358 J-3.22888
G1 X69.5835 Y-32.41604
G3 X69.57692 Y-32.41198 I-1.9969 J-3.23302
G1 X69.49199 Y-32.35976
G3 X69.4865 Y-32.35639 I-1.99031 J-3.23707
G1 X68.82804 Y-31.95307
G3 X68.81416 Y-31.94461 I-1.98482 J-3.24044
G1 X67.82379 Y-31.34381
G3 X67.80445 Y-31.33215 I-1.97094 J-3.24891
G1 X66.8106 Y-30.73729
G3 X66.79912 Y-30.73045 I-1.95159 J-3.26056
G1 X66.70984 Y-30.67743
G3 X66.70594 Y-30.67512 I-1.94012 J-3.26741
G3 X63.86511 Y-29.02681 I-94.12243 J-158.94617
G3 X63.8579 Y-29.02273 I-1.87778 J-3.30363
G3 X60.78357 Y-27.32461 I-86.17687 J-152.38618
G3 X60.77883 Y-27.32206 I-1.80383 J-3.34457
G3 X57.60141 Y-25.65516 I-84.43069 J-157.07884
G3 X57.59197 Y-25.65035 I-1.73139 J-3.38264
G1 X56.80451 Y-25.25006
G3 X56.78987 Y-25.24265 I-1.72196 J-3.38746
G1 X56.19802 Y-24.94501
G1 X56.19796 Y-24.94498
G1 X56.19808 Y-24.94504
G1 X56.19802 Y-24.94501
G3 X55.29009 Y-24.49346 I-50.74401 J-100.89276
G3 X54.81694 Y-24.26058 I-17.3735 J-34.70069
G1 X54.37805 Y-24.04593
G3 X54.36978 Y-24.0419 I-1.66946 J-3.41364
G1 X53.9767 Y-23.85084
G3 X53.96952 Y-23.84736 I-1.66119 J-3.41767
G1 X53.62543 Y-23.68101
G1 X53.62525 Y-23.68092
G1 X53.62562 Y-23.6811
G1 X53.62543 Y-23.68101
G3 X51.15438 Y-22.50947 I-77.09875 J-159.42763
G1 X50.76893 Y-22.33026
G3 X50.7594 Y-22.32585 I-1.60204 J-3.44579
G1 X50.08347 Y-22.01386
G3 X50.07294 Y-22.00902 I-1.59251 J-3.4502
G1 X49.56526 Y-21.77656
G3 X49.55909 Y-21.77374 I-1.58198 J-3.45504
G1 X49.36852 Y-21.6869
G3 X49.36705 Y-21.68623 I-1.57582 J-3.45786
G3 X48.00728 Y-21.07288 I-89.98646 J-197.68325
G3 X48.00104 Y-21.0701 I-1.55055 J-3.46926
G1 X47.29904 Y-20.75786
G3 X47.12323 Y-20.68014 I-1.96884 J-4.21615
G1 X46.07974 Y-20.22217
G3 X46.06548 Y-20.21594 I-1.52716 J-3.47962
G1 X45.56728 Y-19.99972
G3 X45.41314 Y-19.93272 I-1.90651 J-4.17526
G3 X44.94885 Y-19.7332 I-14.72112 J-33.61656
G1 X44.7804 Y-19.66101
G3 X44.77275 Y-19.65774 I-1.49685 J-3.49277
G1 X44.10085 Y-19.37153
G3 X44.08544 Y-19.36501 I-1.4892 J-3.49604
G1 X43.07575 Y-18.94016
G3 X43.06148 Y-18.93419 I-1.47379 J-3.50256
G1 X42.60088 Y-18.74258
G3 X42.43662 Y-18.67454 I-1.8192 J-4.15959
G1 X42.03897 Y-18.51051
G3 X42.02772 Y-18.50588 I-1.44911 J-3.51285
G1 X41.33905 Y-18.22437
G3 X41.32129 Y-18.21716 I-1.43786 J-3.51747
G1 X40.28622 Y-17.80014
G3 X40.26383 Y-17.7912 I-1.42009 J-3.52468
G1 X39.2553 Y-17.39228
G3 X39.17112 Y-17.35885 I-1.69868 J-4.15477
G3 X39.0922 Y-17.32838 I-1.65477 J-4.16916
G1 X38.47282 Y-17.08763
G3 X38.45359 Y-17.08022 I-1.3767 J-3.54185
G1 X37.47754 Y-16.70691
G3 X37.45968 Y-16.70013 I-1.35747 J-3.54926
G1 X36.9707 Y-16.51593
G3 X36.96157 Y-16.5125 I-1.33961 J-3.55604
G1 X36.74783 Y-16.43261
G3 X36.66528 Y-16.40137 I-1.80429 J-4.6429
G3 X36.55612 Y-16.3606 I-1.89971 J-4.92023
G3 X36.42017 Y-16.31081 I-1.89381 J-4.9605
G1 X36.15596 Y-16.21319
G3 X36.01135 Y-16.16003 I-1.91036 J-4.97345
G1 X35.47599 Y-15.9645
G3 X35.47165 Y-15.96292 I-1.30364 J-3.56939
G3 X33.72428 Y-15.341 I-45.15187 J-124.09421
G1 X33.55595 Y-15.28238
G3 X33.55165 Y-15.28089 I-1.24965 J-3.58864
G1 X33.39349 Y-15.22603
G3 X33.38362 Y-15.22262 I-1.24535 J-3.59014
G1 X32.79054 Y-15.01871
G3 X31.85995 Y-14.70437 I-28.35013 J-82.3927
G1 X31.4147 Y-14.55635
G3 X31.40329 Y-14.55257 I-1.19877 J-3.60596
G1 X30.95614 Y-14.40549
G3 X30.94173 Y-14.40078 I-1.18736 J-3.60973
G1 X30.243 Y-14.17403
G3 X30.22787 Y-14.16916 I-1.17295 J-3.61444
G1 X29.70306 Y-14.00127
G3 X29.69547 Y-13.99885 I-1.15782 J-3.61932
G1 X29.59696 Y-13.96757
G3 X29.58694 Y-13.9644 I-1.15023 J-3.62174
G1 X28.84784 Y-13.73192
G1 X28.84765 Y-13.73186
G3 X28.07622 Y-13.49324 I-25.71475 J-81.76665
G3 X25.09215 Y-12.60649 I-56.708 J-185.368
G3 X24.28193 Y-12.37502 I-17.01228 J-58.01612
G1 X23.12769 Y-12.05161
G3 X23.10595 Y-12.04558 I-1.02527 J-3.65907
G1 X21.94626 Y-11.72806
G3 X21.93859 Y-11.72597 I-1.00352 J-3.6651
G3 X21.11235 Y-11.50407 I-40.17032 J-147.92637
G1 X20.96183 Y-11.46402
G3 X20.95922 Y-11.46333 I-0.97701 J-3.67225
G1 X20.81731 Y-11.42568
G3 X20.81134 Y-11.4241 I-0.9744 J-3.67295
G1 X20.28429 Y-11.2852
G3 X19.45018 Y-11.06821 I-18.47727 J-69.31541
G1 X18.65439 Y-10.86439
G3 X18.64384 Y-10.86171 I-0.9428 J-3.68118
G1 X18.22606 Y-10.75599
G3 X18.21614 Y-10.75349 I-0.93225 J-3.68387
G1 X17.4846 Y-10.57046
G3 X17.4688 Y-10.56654 I-0.92233 J-3.68637
G1 X16.37034 Y-10.2967
G3 X16.35129 Y-10.29207 I-0.90653 J-3.69028
G1 X15.25144 Y-10.0279
G3 X15.23811 Y-10.02472 I-0.88748 J-3.69491
G1 X14.81049 Y-9.92364
G3 X14.80509 Y-9.92237 I-0.87415 J-3.69809
G1 X14.61794 Y-9.87842
G3 X14.61008 Y-9.87658 I-0.86875 J-3.69936
G1 X13.90804 Y-9.71329
G3 X13.8971 Y-9.71076 I-0.86089 J-3.7012
G1 X13.37021 Y-9.58985
G3 X13.36524 Y-9.58871 I-0.84994 J-3.70373
G3 X11.75502 Y-9.22793 I-48.08322 J-210.82723
G3 X8.2232 Y-8.48426 I-41.34592 J-187.60026
G3 X8.21472 Y-8.48257 I-0.74801 J-3.72565
G1 X7.35122 Y-8.31124
G3 X7.34214 Y-8.30945 I-0.73952 J-3.72735
G3 X4.69025 Y-7.81088 I-34.17217 J-174.45923
G3 X1.17917 Y-7.21898 I-27.52233 J-152.54919
G3 X1.1685 Y-7.21732 I-0.58862 J-3.75414
G1 X0.32547 Y-7.0876
G3 X0.30601 Y-7.08465 I-0.57795 J-3.75579
G1 X-0.32678 Y-6.99063
G3 X-0.34191 Y-6.98841 I-0.5585 J-3.75873
G3 X-1.7447 Y-6.79103 I-27.42599 J-189.82872
G2 X-0.6075 Y-6.87283 I-7.42343 J-111.13597
G3 X-0.55582 Y-6.87646 I0.29206 J3.78876
G2 X-0.48595 Y-6.88181 I-0.17042 J-2.68875
G3 X-0.40091 Y-6.88846 I0.33893 J3.78486
G2 X-0.30343 Y-6.89605 I-0.30131 J-4.4998
G3 X-0.25037 Y-6.90039 I0.33602 J3.78511
G2 X0.11792 Y-6.92995 I-2.47261 J-33.11361
G3 X0.12539 Y-6.93058 I0.32511 J3.78607
G1 X0.57947 Y-6.96867
G1 X1.02222 Y-7.00754
G1 X1.92027 Y-7.09177
G1 X2.50943 Y-7.15106
G1 X3.31001 Y-7.23691
G2 X5.63449 Y-7.52247 I-10.33396 J-93.72248
G1 X6.42086 Y-7.6318
G1 X7.23109 Y-7.75132
G1 X8.05593 Y-7.88019
G3 X8.05913 Y-7.88069 I0.5866 J3.75445
G2 X8.55926 Y-7.96248 I-4.87816 J-31.39776
G3 X8.56432 Y-7.96335 I0.6432 J3.74517
G1 X9.30107 Y-8.08885
G1 X9.49032 Y-8.12202
G2 X12.13115 Y-8.62469 I-16.28424 J-92.73903
G1 X12.5172 Y-8.70423
G2 X14.44327 Y-9.12259 I-23.71801 J-113.83651
G3 X14.49946 Y-9.13485 I0.83803 J3.70644
G2 X14.51543 Y-9.13847 I-0.10704 J-0.50911
G3 X14.56112 Y-9.14929 I0.89851 J3.69224
G1 X15.26786 Y-9.31205
G3 X15.30185 Y-9.31972 I0.85282 J3.70307
G3 X15.39183 Y-9.34075 I0.90998 J3.68944
G3 X15.48471 Y-9.36254 I0.91408 J3.68842
G3 X15.59102 Y-9.3874 I0.91829 J3.68738
G3 X15.7092 Y-9.41535 I0.93355 J3.68354
G3 X15.80765 Y-9.439 I0.93693 J3.68268
G3 X15.89967 Y-9.46074 I0.91953 J3.68707
G3 X16.02239 Y-9.48975 I0.93558 J3.68303
G3 X16.08475 Y-9.50542 I0.95691 J3.67754
G1 X16.65431 Y-9.64337
G1 X17.02628 Y-9.73478
G1 X17.52498 Y-9.85888
G1 X18.19303 Y-10.02777
G1 X18.57505 Y-10.12563
G2 X21.65761 Y-10.94408 I-47.9668 J-186.8726
G1 X23.06279 Y-11.33058
G3 X23.10151 Y-11.34101 I1.00777 J3.66393
G3 X23.19743 Y-11.36759 I1.06279 J3.64835
G3 X23.23978 Y-11.37972 I1.06687 J3.64716
G1 X24.83225 Y-11.82558
G1 X26.30884 Y-12.24386
G3 X26.35374 Y-12.25628 I1.0357 J3.65614
G3 X26.39908 Y-12.26955 I1.08964 J3.64042
G1 X27.97902 Y-12.72112
G3 X28.02654 Y-12.73437 I1.04429 J3.65369
G3 X28.07308 Y-12.74811 I1.09873 J3.63769
G1 X30.56411 Y-13.46591
G1 X31.38994 Y-13.70505
G1 X34.75312 Y-14.68413
G1 X35.38467 Y-14.86895
G1 X36.01726 Y-15.05441
G1 X37.28541 Y-15.42733
G3 X37.29209 Y-15.42928 I1.07206 J3.64564
G2 X38.1176 Y-15.67294 I-42.51493 J-145.56112
G3 X38.12572 Y-15.67536 I1.08606 J3.64149
G1 X38.4413 Y-15.76871
G1 X38.75588 Y-15.86189
G1 X39.38603 Y-16.04892
G1 X39.80373 Y-16.1732
G1 X41.4828 Y-16.67543
G1 X42.3111 Y-16.92495
G3 X42.32169 Y-16.92812 I1.09608 J3.63849
G2 X43.12141 Y-17.17031 I-27.2853 J-91.53762
G3 X43.1283 Y-17.17243 I1.11731 J3.63203
G1 X44.78849 Y-17.6797
G2 X48.00031 Y-18.68183 I-97.56345 J-318.33773
G1 X48.0008 Y-18.68199
G1 X48.2769 Y-18.76963
G1 X48.55055 Y-18.85675
G1 X49.09811 Y-19.03186
G1 X50.19619 Y-19.38638
G1 X50.92582 Y-19.62453
G1 X51.11453 Y-19.68648
G1 X52.39127 Y-20.10959
G1 X52.81405 Y-20.25126
G3 X52.82496 Y-20.2549 I1.20742 J3.60307
G2 X53.35996 Y-20.43538 I-17.62056 J-53.11459
G3 X53.3682 Y-20.4382 I1.23284 J3.59445
G1 X54.12269 Y-20.69505
G1 X55.08024 Y-21.02495
G1 X56.03865 Y-21.35969
G1 X56.16037 Y-21.40253
G1 X56.84264 Y-21.64408
G1 X57.02009 Y-21.7073
G1 X57.5083 Y-21.88205
G1 X57.66686 Y-21.93907
G1 X58.31648 Y-22.17402
G1 X58.74725 Y-22.33102
G1 X58.99101 Y-22.42027
G1 X59.65052 Y-22.66327
G1 X59.82245 Y-22.72698
G1 X60.2719 Y-22.8942
G1 X60.41821 Y-22.94886
G1 X61.01397 Y-23.17245
G1 X62.2106 Y-23.6265
G1 X62.54517 Y-23.75457
G1 X63.88234 Y-24.27086
G1 X65.21786 Y-24.79256
G1 X66.22489 Y-25.18899
G1 X66.36757 Y-25.24531
G1 X66.53139 Y-25.31002
G1 X67.85289 Y-25.83307
G3 X67.85474 Y-25.8338 I1.39848 J3.53331
G1 X70.46617 Y-26.86583
G3 X70.47263 Y-26.86837 I1.39663 J3.53404
G3 X73.09127 Y-27.88491 I121.10426 J308.08759
G3 X73.10396 Y-27.88975 I1.36011 J3.54825
G1 X74.06678 Y-28.25488
G3 X74.0871 Y-28.26252 I1.34742 J3.55309
G1 X75.05209 Y-28.62217
G3 X75.07154 Y-28.62936 I1.32711 J3.56073
G1 X75.71616 Y-28.86562
G3 X75.73223 Y-28.87147 I1.30765 J3.56792
G1 X76.28974 Y-29.07296
G3 X76.3058 Y-29.07872 I1.29159 J3.57377
G1 X76.86415 Y-29.27768
G3 X76.87501 Y-29.28153 I1.27553 J3.57953
G1 X77.03473 Y-29.3379
G3 X77.0363 Y-29.33845 I1.26466 J3.58338
G3 X78.3605 Y-29.79611 I38.28258 J108.6243
G3 X78.36578 Y-29.79789 I1.2194 J3.59904
G3 X79.82855 Y-30.28164 I42.26451 J125.34797
G3 X79.84455 Y-30.28679 I1.1721 J3.61472
G1 X80.31979 Y-30.43857
G3 X80.34291 Y-30.44587 I1.15609 J3.61987
G1 X80.97781 Y-30.64418
G3 X81.00717 Y-30.65322 I1.13297 J3.62717
G1 X81.72189 Y-30.87014
G3 X81.75455 Y-30.87989 I1.1036 J3.63622
G1 X82.47122 Y-31.09041
G3 X82.49041 Y-31.09599 I1.07094 J3.64597
G1 X82.58616 Y-31.12357
G3 X82.59093 Y-31.12494 I1.05176 J3.65155
G1 X82.68629 Y-31.15227
G3 X83.27976 Y-31.31956 I10.74636 J36.9857
G1 X83.58782 Y-31.40447
G3 X83.59492 Y-31.40642 I1.00972 J3.66339
G3 X85.82269 Y-31.97846 I19.37095 J70.81585
G3 X85.8337 Y-31.98108 I0.88731 J3.69495
G1 X86.1369 Y-32.05294
G3 X86.15126 Y-32.05631 I0.8763 J3.69758
G3 X87.98589 Y-32.4578 I15.92504 J68.37832
G3 X88.01406 Y-32.46346 I0.76264 J3.72268
G1 X88.595 Y-32.5779
G3 X88.62888 Y-32.58442 I0.73447 J3.72835
G1 X88.95227 Y-32.64508
G3 X89.18193 Y-32.68696 I1.15485 J5.6818
G1 X89.62767 Y-32.76557
G3 X89.63156 Y-32.76625 I0.65998 J3.74225
G3 X90.69922 Y-32.93775 I6.54874 J37.36043
G1 X90.97361 Y-32.97795
G3 X90.98745 Y-32.97996 I0.5509 J3.75985
G3 X93.22065 Y-33.24322 I6.49637 J45.50386
G3 X93.61123 Y-33.27711 I1.3154 J12.89235
G1 X93.69447 Y-33.28386
G3 X93.72122 Y-33.28594 I0.30722 J3.78756
G1 X94.1325 Y-33.31637
G3 X94.16862 Y-33.31887 I0.28047 J3.78964
G1 X94.44293 Y-33.33655
G3 X94.47713 Y-33.3386 I0.24436 J3.79214
G1 X94.83938 Y-33.35866
G3 X95.42394 Y-33.38396 I1.19864 J20.93046
G1 X95.64999 Y-33.39138
G3 X95.67557 Y-33.39213 I0.12462 J3.79796
G1 X95.90876 Y-33.39821
G3 X95.94727 Y-33.39902 I0.09904 J3.79871
G1 X96.41357 Y-33.40645
G3 X96.43713 Y-33.40675 I0.06053 J3.79952
G3 X97.47724 Y-33.40219 I0.35843 J36.84509
G3 X97.4829 Y-33.40208 I-0.0703 J3.79935
G3 X99.22779 Y-33.33081 I-0.83793 J41.9094
G3 X99.24787 Y-33.32952 I-0.23414 J3.79278
G1 X99.47427 Y-33.31434
G3 X99.50745 Y-33.31196 I-0.25422 J3.79149
G1 X99.8839 Y-33.28341
G3 X99.9117 Y-33.2812 I-0.2874 J3.78912
G1 X100.03715 Y-33.27076
G3 X100.07236 Y-33.26766 I-0.3152 J3.78691
G1 X100.57365 Y-33.22124
G3 X100.62138 Y-33.21652 I-0.3504 J3.78381
G1 X100.95515 Y-33.18135
G3 X100.95858 Y-33.18099 I-0.39814 J3.77909
G3 X101.47698 Y-33.12012 I-2.5052 J23.5738
G3 X103.44714 Y-32.81272 I-3.84774 J31.12823
G3 X105.42117 Y-32.35915 I-4.46127 J23.93866
G3 X105.98392 Y-32.1969 I-3.89783 J14.57641
G3 X106.21307 Y-32.12568 I-2.23713 J7.6018
G3 X106.9081 Y-31.89188 I-7.80216 J24.34434
G3 X106.9505 Y-31.87666 I-1.26308 J3.58394
G1 X107.12168 Y-31.81404
G3 X107.16904 Y-31.79635 I-1.30547 J3.56872
G1 X107.36366 Y-31.72221
G3 X107.38992 Y-31.71209 I-1.35284 J3.55103
G3 X109.25633 Y-30.85258 I-6.20103 J15.92145
G3 X109.26854 Y-30.84601 I-1.79419 J3.34976
G3 X109.57189 Y-30.67751 I-7.08181 J13.10662
G1 X109.58075 Y-30.68837
G2 X110.48691 Y-31.85609 I-28.61956 J-23.14437
G2 X111.49874 Y-33.34531 I-16.87744 J-12.5555
G2 X111.90256 Y-34.0512 I-10.55968 J-6.50929
G3 X111.90781 Y-34.06108 I3.3585 J1.77778
G2 X112.06566 Y-34.37304 I-7.23469 J-3.85692
G1 X112.15309 Y-34.5602
G1 X112.22581 Y-34.7254
G1 X112.28679 Y-34.87298
G1 X112.34483 Y-35.02261
G2 X112.56497 Y-35.80166 I-4.34779 J-1.64924
G2 X112.61513 Y-36.61874 I-3.29916 J-0.6126
G2 X112.45409 Y-37.54527 I-4.73054 J0.34496
G3 X112.44889 Y-37.56413 I3.66092 J-1.01867
G2 X112.36503 Y-37.85132 I-8.07571 J2.20238
G3 X112.36125 Y-37.86351 I3.62804 J-1.13019
G2 X112.22198 Y-38.27345 I-7.16374 J2.20524
G3 X112.21802 Y-38.28414 I3.56121 J-1.32582
G1 X112.18977 Y-38.3607
G3 X112.18528 Y-38.37294 I3.56517 J-1.31514
G2 X112.0426 Y-38.73684 I-7.74759 J2.82781
G3 X112.03097 Y-38.76486 I3.50392 J-1.47056
G2 X111.4274 Y-40.05444 I-13.62069 J5.58899
G3 X111.4177 Y-40.07291 I3.35976 J-1.77538
G2 X110.69347 Y-41.28638 I-10.91299 J5.69032
G3 X110.69045 Y-41.29084 I3.14584 J-2.13159
G2 X109.84722 Y-42.36106 I-7.71739 J5.21326
G2 X108.8331 Y-43.29647 I-6.07055 J5.5639
G2 X107.54274 Y-44.14464 I-6.0376 J7.77975
G1 X107.54273
G1 X107.54274 Y-44.14463
G1 Y-44.14464
G2 X105.98298 Y-44.86838 I-6.04995 J10.99573
G2 X104.2435 Y-45.41807 I-5.50206 J14.38411
G2 X102.47405 Y-45.75625 I-3.83571 J15.27113
G3 X102.44865 Y-45.7597 I0.49867 J-3.76714
G3 X102.41987 Y-45.7633 I0.45732 J-3.77238
G2 X100.76581 Y-45.88315 I-1.89695 J14.70706
G3 X100.74744 Y-45.88349 I0.06224 J-3.79949
G2 X100.37705 Y-45.88412 I-0.20126 J9.48482
G3 X100.36157 Y-45.88387 I-0.06774 J-3.7994
G2 X99.12393 Y-45.8158 I0.20694 J15.04582
G2 X97.46511 Y-45.56873 I1.64655 J16.74733
G2 X95.66205 Y-45.13924 I5.09323 J25.38189
G3 X95.64835 Y-45.13549 I-1.01229 J-3.66269
G2 X94.68181 Y-44.85603 I8.50176 J31.21524
G1 X94.16601 Y-44.69648
G1 X93.64892 Y-44.53066
G2 X93.1347 Y-44.36035 I10.13357 J31.45731
G3 X93.12436 Y-44.35684 I-1.22428 J-3.59738
G1 X93.02331 Y-44.32278
G1 X92.82687 Y-44.25573
G1 F300.0 X92.31005 Y-45.76996
G1 F800.0 X92.11687 Y-45.70403
G1 X91.52807 Y-45.49847
G1 X90.94125 Y-45.2885
G1 X90.34624 Y-45.07073
G1 X90.24001 Y-45.03135
G1 X89.82368 Y-44.87558
G1 X89.1999 Y-44.63802
G1 X88.57174 Y-44.39383
G3 X88.56743 Y-44.39216 I-0.79711 J-2.05051
G2 X88.28196 Y-44.27951 I7.67238 J19.86012
G3 X88.27373 Y-44.27621 I-0.8223 J-2.04054
G1 X88.00269 Y-44.16825
G1 X87.52925 Y-43.97743
G1 X87.44472 Y-43.94306
G1 X87.10977 Y-43.80593
G3 X87.10005 Y-43.80197 I-0.83354 J-2.03598
G2 X86.6334 Y-43.60838 I10.01556 J24.80064
G3 X86.62581 Y-43.60516 I-0.8622 J-2.02401
G1 X86.12582 Y-43.39438
G1 X85.97388 Y-43.32965
G1 X85.37852 Y-43.07285
G3 X85.37077 Y-43.06952 I-0.87133 J-2.02009
G2 X84.96279 Y-42.89051 I8.65991 J20.29065
G3 X84.93972 Y-42.88027 I-0.90427 J-2.00557
G2 X84.3019 Y-42.59515 I16.93576 J38.74189
G3 X84.29804 Y-42.59339 I-0.91439 J-2.00097
G1 X83.96672 Y-42.44276
G1 X83.80509 Y-42.36864
G1 X83.64254 Y-42.29368
G1 X83.4895 Y-42.22271
G1 X82.90073 Y-41.94605
G1 X82.68445 Y-41.84295
G2 X81.16699 Y-41.09647 I36.86779 J76.86077
G2 X78.72804 Y-39.80882 I34.4711 J68.24558
G1 X78.41853 Y-39.63771
G2 X76.30337 Y-38.42607 I44.28595 J79.76166
G3 X76.30225 Y-38.42541 I-1.11894 J-1.89419
G1 X76.14788 Y-38.33434
G1 X76.00461 Y-38.24954
G1 X75.87034 Y-38.16982
G1 X75.74596 Y-38.09577
G1 X75.27235 Y-37.81209
G1 X74.91985 Y-37.59931
G1 X74.38828 Y-37.2761
G1 X74.12405 Y-37.1145
G1 X73.86081 Y-36.95296
G1 X72.60704 Y-36.17771
G1 X71.35258 Y-35.39662
G1 X71.35244 Y-35.39653
G1 X70.0521 Y-34.58701
G3 X70.04937 Y-34.58532 I-1.1627 J-1.86765
G1 X69.72396 Y-34.38339
G3 X69.7201 Y-34.381 I-1.15997 J-1.86935
G1 X68.74271 Y-33.77731
G3 X68.73889 Y-33.77496 I-1.1561 J-1.87175
G1 X68.65396 Y-33.72274
G3 X68.65079 Y-33.72079 I-1.15229 J-1.8741
G1 X67.99233 Y-33.31747
G3 X67.98429 Y-33.31257 I-1.14911 J-1.87605
G1 X66.99392 Y-32.71177
G3 X66.98273 Y-32.70502 I-1.14107 J-1.88095
G1 X65.98887 Y-32.11016
G3 X65.98223 Y-32.1062 I-1.12987 J-1.8877
G1 X65.89295 Y-32.05318
G3 X65.89069 Y-32.05184 I-1.12323 J-1.89166
G3 X63.07447 Y-30.41782 I-93.30718 J-157.56945
G3 X63.07029 Y-30.41545 I-1.08713 J-1.91263
G3 X60.02406 Y-28.73286 I-85.38926 J-150.99346
G3 X60.02131 Y-28.73138 I-1.04433 J-1.93633
G3 X56.8724 Y-27.07944 I-83.67317 J-155.66953
G3 X56.86694 Y-27.07665 I-1.00238 J-1.95837
G1 X56.07948 Y-26.67636
G3 X56.071 Y-26.67207 I-0.99692 J-1.96116
G1 X55.47913 Y-26.37441
G1 X55.4791 Y-26.3744
G1 X55.47916 Y-26.37443
G1 X55.47913 Y-26.37441
G3 X54.57886 Y-25.92671 I-50.02512 J-99.46335
G3 X54.1171 Y-25.69941 I-16.66227 J-33.26745
G1 X53.67512 Y-25.48325
G3 X53.67033 Y-25.48092 I-0.96653 J-1.97632
G1 X53.27725 Y-25.28986
G3 X53.27309 Y-25.28784 I-0.96174 J-1.97865
G1 X52.92893 Y-25.12145
G1 X52.92882 Y-25.1214
G1 X52.92904 Y-25.12151
G1 X52.92893 Y-25.12145
G3 X50.47998 Y-23.9604 I-76.40225 J-157.98718
G1 X50.09438 Y-23.78112
G3 X50.08887 Y-23.77856 I-0.9275 J-1.99493
G1 X49.41293 Y-23.46657
G3 X49.40684 Y-23.46377 I-0.92198 J-1.99749
G1 X48.89916 Y-23.23132
G3 X48.89559 Y-23.22969 I-0.91589 J-2.00029
G1 X48.70502 Y-23.14284
G3 X48.70417 Y-23.14245 I-0.91232 J-2.00192
G3 X47.35441 Y-22.53362 I-89.32357 J-196.22702
G3 X47.3508 Y-22.53201 I-0.89769 J-2.00852
G1 X46.63396 Y-22.21317
G3 X46.49479 Y-22.15165 I-1.30376 J-2.76084
G1 X45.43672 Y-21.68727
G3 X45.42847 Y-21.68367 I-0.88415 J-2.01452
G1 X44.91494 Y-21.46079
G3 X44.78821 Y-21.40575 I-1.25418 J-2.71418
G3 X44.32298 Y-21.20572 I-14.09618 J-32.14353
G1 X44.15015 Y-21.13165
G3 X44.14572 Y-21.12976 I-0.8666 J-2.02213
G1 X43.47382 Y-20.84355
G3 X43.4649 Y-20.83977 I-0.86217 J-2.02402
G1 X42.4552 Y-20.41492
G3 X42.44695 Y-20.41146 I-0.85324 J-2.0278
G1 X41.97156 Y-20.21371
G3 X41.84133 Y-20.15976 I-1.18987 J-2.68847
G1 X41.42882 Y-19.9896
G3 X41.42231 Y-19.98692 I-0.83896 J-2.03375
G1 X40.73364 Y-19.70541
G3 X40.72335 Y-19.70124 I-0.83244 J-2.03643
G1 X39.68829 Y-19.28421
G3 X39.67533 Y-19.27904 I-0.82216 J-2.0406
G1 X38.65734 Y-18.87638
G3 X38.58822 Y-18.84893 I-1.10072 J-2.67067
G3 X38.52226 Y-18.82347 I-1.07187 J-2.67909
G1 X37.89316 Y-18.57894
G3 X37.88203 Y-18.57465 I-0.79704 J-2.05054
G1 X36.90597 Y-18.20134
G3 X36.89563 Y-18.19742 I-0.7859 J-2.05484
G1 X36.40666 Y-18.01321
G3 X36.40137 Y-18.01123 I-0.77556 J-2.05876
G1 X36.177 Y-17.92736
G3 X36.10065 Y-17.8985 I-1.23345 J-3.14815
G3 X35.99914 Y-17.86063 I-1.33507 J-3.4231
G3 X35.87912 Y-17.81663 I-1.33684 J-3.46047
G1 X35.59096 Y-17.71016
G3 X35.47257 Y-17.66663 I-1.34536 J-3.47649
G1 X34.92709 Y-17.4674
G3 X34.92458 Y-17.46649 I-0.75474 J-2.06649
G3 X33.19824 Y-16.85205 I-44.6048 J-122.59065
G1 X33.02978 Y-16.79339
G3 X33.02729 Y-16.79253 I-0.72348 J-2.07764
G1 X32.86913 Y-16.73766
G3 X32.86342 Y-16.73569 I-0.72099 J-2.0785
G1 X32.27015 Y-16.53172
G3 X31.35583 Y-16.22287 I-27.82973 J-80.87969
G1 X30.90995 Y-16.07464
G3 X30.90335 Y-16.07246 I-0.69403 J-2.08766
G1 X30.4562 Y-15.92538
G3 X30.44786 Y-15.92265 I-0.68742 J-2.08985
G1 X29.74913 Y-15.6959
G3 X29.74037 Y-15.69308 I-0.67908 J-2.09257
G1 X29.21556 Y-15.52519
G3 X29.21116 Y-15.52379 I-0.67032 J-2.09539
G1 X29.11266 Y-15.49251
G3 X29.10685 Y-15.49067 I-0.66592 J-2.0968
G1 X28.36776 Y-15.25819
G1 X28.36765 Y-15.25816
G3 X27.60939 Y-15.02362 I-25.23475 J-80.24035
G3 X24.64531 Y-14.14283 I-56.24117 J-183.83762
G3 X23.8517 Y-13.9161 I-16.56544 J-56.47978
G1 X22.696 Y-13.59227
G3 X22.68341 Y-13.58878 I-0.59358 J-2.11841
G1 X21.52373 Y-13.27126
G3 X21.51929 Y-13.27005 I-0.58099 J-2.1219
G3 X20.70133 Y-13.05037 I-39.75102 J-146.38229
G1 X20.55046 Y-13.01024
G3 X20.54895 Y-13.00983 I-0.56564 J-2.12604
G1 X20.40703 Y-12.97218
G3 X20.40358 Y-12.97127 I-0.56413 J-2.12644
G1 X19.87434 Y-12.83179
G3 X19.05495 Y-12.61863 I-18.06732 J-67.76882
G1 X18.25742 Y-12.41437
G3 X18.25131 Y-12.41281 I-0.54583 J-2.13121
G1 X17.83354 Y-12.30709
G3 X17.82779 Y-12.30564 I-0.53973 J-2.13277
G1 X17.09625 Y-12.12261
G3 X17.0871 Y-12.12034 I-0.53398 J-2.13421
G1 X15.98864 Y-11.8505
G3 X15.97761 Y-11.84782 I-0.52483 J-2.13648
G1 X14.87776 Y-11.58365
G3 X14.87004 Y-11.58181 I-0.5138 J-2.13916
G1 X14.44243 Y-11.48073
G3 X14.4393 Y-11.48 I-0.50608 J-2.141
G1 X14.25215 Y-11.43605
G3 X14.2476 Y-11.43498 I-0.50296 J-2.14174
G1 X13.54556 Y-11.27169
G3 X13.53923 Y-11.27023 I-0.49841 J-2.1428
G1 X13.01234 Y-11.14932
G3 X13.00946 Y-11.14866 I-0.49207 J-2.14426
G3 X11.4109 Y-10.79049 I-47.72744 J-209.26729
G3 X7.90825 Y-10.05295 I-41.00181 J-186.0377
G3 X7.90334 Y-10.05197 I-0.43306 J-2.15696
G1 X7.03984 Y-9.88065
G3 X7.03458 Y-9.87962 I-0.42815 J-2.15794
G3 X4.40637 Y-9.3855 I-33.86462 J-172.88907
G3 X0.93133 Y-8.79967 I-27.23845 J-150.97458
G3 X0.92515 Y-8.79871 I-0.34078 J-2.17345
G1 X0.08212 Y-8.66898
G3 X0.07086 Y-8.66728 I-0.33461 J-2.17441
G1 X-0.56194 Y-8.57325
G3 X-0.57069 Y-8.57197 I-0.32334 J-2.17611
G3 X-2.49377 Y-8.30414 I-27.19721 J-188.24516
G3 X-2.50461 Y-8.30272 I-0.29234 J-2.18049
G1 X-3.33564 Y-8.1955
G3 X-3.345 Y-8.19431 I-0.2815 J-2.18192
G1 X-3.65683 Y-8.15544
G3 X-3.66392 Y-8.15457 I-0.27214 J-2.1831
G1 X-4.20337 Y-8.0891
G3 X-4.64207 Y-8.03748 I-2.96054 J-23.26973
G1 X-5.25053 Y-7.96829
G3 X-5.26087 Y-7.96714 I-0.24855 J-2.18591
G1 X-5.8759 Y-7.90015
G3 X-5.88457 Y-7.89923 I-0.23821 J-2.18707
G1 X-6.29551 Y-7.85611
G3 X-6.30509 Y-7.85513 I-0.22954 J-2.18799
G1 X-7.02445 Y-7.78284
G3 X-7.03514 Y-7.78179 I-0.21997 J-2.18898
G1 X-7.57488 Y-7.73022
G3 X-7.58635 Y-7.72915 I-0.20927 J-2.19002
G1 X-8.39641 Y-7.65602
G3 X-8.40673 Y-7.65512 I-0.1978 J-2.19109
G1 X-8.81198 Y-7.62046
G3 X-8.81885 Y-7.61988 I-0.18748 J-2.192
G1 X-9.22415 Y-7.5865
G3 X-9.23448 Y-7.58567 I-0.18061 J-2.19257
G1 X-10.03238 Y-7.52373
G3 X-10.23965 Y-7.50839 I-0.50167 J-5.37182
G1 X-10.77998 Y-7.46998
G3 X-10.92877 Y-7.45981 I-0.43422 J-5.25775
G1 X-11.72413 Y-7.40812
G3 X-11.73746 Y-7.40729 I-0.14268 J-2.19537
G1 X-12.539 Y-7.36008
G3 X-12.77265 Y-7.34718 I-0.74961 J-11.4527
G3 X-13.53762 Y-7.30778 I-11.077 J-207.58368
G3 X-13.54426 Y-7.30746 I-0.10913 J-2.19729
G1 X-14.1193 Y-7.28063
G3 X-14.12725 Y-7.28028 I-0.1025 J-2.19761
G1 X-14.55862 Y-7.26172
G3 X-14.56453 Y-7.26148 I-0.09455 J-2.19797
G1 X-14.88807 Y-7.24843
G3 X-14.89807 Y-7.24805 I-0.08864 J-2.19821
G1 X-15.86876 Y-7.21333
G3 X-15.88239 Y-7.21289 I-0.07863 J-2.19859
G1 X-16.70452 Y-7.18859
G3 X-16.71526 Y-7.18829 I-0.065 J-2.19904
G1 X-17.33192 Y-7.17308
G3 X-17.34322 Y-7.17283 I-0.05427 J-2.19933
G1 X-18.26835 Y-7.15475
G3 X-18.28165 Y-7.15453 I-0.04298 J-2.19958
G1 X-19.20687 Y-7.14205
G3 X-19.21923 Y-7.14192 I-0.02968 J-2.1998
G1 X-20.04848 Y-7.13539
G3 X-20.05641 Y-7.13534 I-0.01731 J-2.19993
G1 X-20.36741 Y-7.13402
G3 X-20.37702 Y-7.134 I-0.00939 J-2.19998
G1 X-21.46541 Y-7.13411
G3 X-22.58237 Y-7.14171 I0.00865 J-83.35722
G1 X-23.41735 Y-7.15229
G3 X-24.69925 Y-7.17662 I1.20819 J-97.41312
G1 X-25.32528 Y-7.19206
G3 X-25.33357 Y-7.19228 I0.05421 J-2.19933
G1 X-25.96056 Y-7.21009
G3 X-25.97026 Y-7.21039 I0.0625 J-2.19911
G1 X-26.81091 Y-7.23799
G3 X-26.81538 Y-7.23814 I0.07219 J-2.19882
G3 X-29.37189 Y-7.34807 I5.49291 J-157.52841
G3 X-29.37657 Y-7.34831 I0.11235 J-2.19713
G1 X-30.20749 Y-7.39258
G3 X-30.55841 Y-7.41254 I0.65856 J-14.67357
G1 X-31.6525 Y-7.47957
G3 X-31.66772 Y-7.48055 I0.13454 J-2.19588
G1 X-32.76991 Y-7.55575
G3 X-32.78345 Y-7.55672 I0.14975 J-2.1949
G1 X-33.61837 Y-7.61886
G3 X-33.6287 Y-7.61966 I0.16329 J-2.19393
G1 X-34.25471 Y-7.66921
G3 X-34.26589 Y-7.67013 I0.17362 J-2.19314
G1 X-35.20441 Y-7.74925
G3 X-35.21457 Y-7.75013 I0.18481 J-2.19222
G1 X-35.6837 Y-7.79187
G3 X-35.69053 Y-7.79249 I0.19497 J-2.19134
G1 X-36.15863 Y-7.83561
G3 X-37.82942 Y-8.00144 I9.73864 J-106.61886
G3 X-38.2589 Y-8.04714 I2.87773 J-29.08136
G1 X-38.53293 Y-8.07697
G3 X-38.71485 Y-8.0971 I0.33566 J-3.86625
G1 X-39.4966 Y-8.18588
G3 X-39.50884 Y-8.1873 I0.24825 J-2.18595
G1 X-40.31504 Y-8.28344
G3 X-40.32578 Y-8.28475 I0.26049 J-2.18452
G1 X-40.93014 Y-8.35983
G3 X-40.93821 Y-8.36085 I0.27123 J-2.18322
G1 X-41.39126 Y-8.41883
G3 X-41.3999 Y-8.41996 I0.2793 J-2.1822
G1 X-42.05254 Y-8.50612
G3 X-42.17372 Y-8.52192 I0.38101 J-3.39333
G3 X-42.2671 Y-8.53491 I0.41227 J-3.30692
G3 X-42.77924 Y-8.60544 I6.10307 J-46.21233
G1 X-43.16869 Y-8.66021
G3 X-43.17682 Y-8.66137 I0.30641 J-2.17856
G1 X-43.8396 Y-8.75712
G3 X-43.96361 Y-8.77539 I0.40347 J-3.16838
G1 X-44.91433 Y-8.91876
G3 X-45.0375 Y-8.93778 I0.41869 J-3.11993
G1 X-45.94739 Y-9.08142
G3 X-45.95229 Y-9.0822 I0.34306 J-2.17309
G3 X-49.03343 Y-9.60864 I23.7876 J-148.5023
G3 X-49.0352 Y-9.60897 I0.39304 J-2.16461
G1 X-49.76951 Y-9.74292
G3 X-49.77554 Y-9.74403 I0.39481 J-2.16428
G1 X-50.05077 Y-9.79503
G3 X-50.05785 Y-9.79635 I0.40084 J-2.16317
G1 X-51.0205 Y-9.978
G3 X-51.03093 Y-9.97999 I0.40792 J-2.16185
G1 X-51.9927 Y-10.16628
G3 X-52.00114 Y-10.16794 I0.41836 J-2.15986
G1 X-52.71069 Y-10.30826
G3 X-52.71896 Y-10.30991 I0.4268 J-2.1582
G1 X-53.78251 Y-10.52447
G3 X-53.78943 Y-10.52588 I0.43507 J-2.15655
G1 X-54.32088 Y-10.63487
G3 X-54.32518 Y-10.63576 I0.44199 J-2.15514
G1 X-54.85639 Y-10.74581
G3 X-54.85978 Y-10.74651 I0.4463 J-2.15426
G1 X-55.20376 Y-10.81834
G3 X-55.20616 Y-10.81885 I0.44969 J-2.15355
G1 X-55.50708 Y-10.88203
G3 X-55.51005 Y-10.88266 I0.45209 J-2.15305
G1 X-56.03641 Y-10.99394
G3 X-56.04347 Y-10.99544 I0.45506 J-2.15242
G1 X-57.62146 Y-11.33447
G3 X-57.63055 Y-11.33645 I0.46212 J-2.15092
G1 X-58.94635 Y-11.62497
G3 X-59.09062 Y-11.6569 I0.67507 J-3.39174
G1 X-60.32129 Y-11.93178
G3 X-60.32737 Y-11.93315 I0.47957 J-2.14709
G1 X-60.98869 Y-12.08282
G3 X-60.99447 Y-12.08414 I0.48565 J-2.14573
G1 X-61.98585 Y-12.31134
G3 X-61.99369 Y-12.31315 I0.49144 J-2.14441
G1 X-62.98414 Y-12.54394
G3 X-62.98999 Y-12.54532 I0.49927 J-2.1426
G1 X-63.31571 Y-12.62215
G3 X-63.9112 Y-12.76393 I11.00284 J-47.53502
G1 X-64.12304 Y-12.8148
G3 X-64.12524 Y-12.81533 I0.51365 J-2.1392
G1 X-64.31468 Y-12.86102
G3 X-64.31665 Y-12.8615 I0.51584 J-2.13867
G1 X-64.48236 Y-12.90163
G3 X-64.48669 Y-12.90268 I0.51782 J-2.13819
G1 X-65.06629 Y-13.04428
G3 X-65.0734 Y-13.04604 I0.52214 J-2.13714
G1 X-65.65171 Y-13.18937
G3 X-67.01593 Y-13.53631 I24.98603 J-101.1034
G3 X-67.01629 Y-13.53641 I0.55663 J-2.12842
G1 X-67.68319 Y-13.71094
G3 X-67.68972 Y-13.71266 I0.557 J-2.12832
G1 X-67.85635 Y-13.75682
G3 X-67.86174 Y-13.75825 I0.56354 J-2.1266
G1 X-68.36115 Y-13.89195
G3 X-68.36211 Y-13.89221 I0.56893 J-2.12516
G3 X-71.14434 Y-14.67617 I29.64989 J-110.55456
G3 X-71.14833 Y-14.67735 I0.62336 J-2.10984
G1 X-71.85102 Y-14.88641
G3 X-71.86222 Y-14.88977 I0.62735 J-2.10866
G1 X-72.38836 Y-15.04936
G3 X-72.39673 Y-15.05192 I0.63855 J-2.10529
G1 X-72.79089 Y-15.17318
G3 X-72.7998 Y-15.17594 I0.64692 J-2.10274
G1 X-73.38701 Y-15.35933
G3 X-74.00203 Y-15.55478 I11.84649 J-38.34153
G3 X-76.82787 Y-16.49621 I42.19293 J-131.35982
G1 X-76.07643 Y-16.1591
G1 X-75.83104 Y-16.05034
G1 X-75.54812 Y-15.92566
G2 X-73.81439 Y-15.17842 I76.59293 J-175.32513
G1 X-73.56748 Y-15.07436
G1 X-73.28549 Y-14.95624
G1 X-72.5273 Y-14.64252
G1 X-71.76694 Y-14.33362
G1 X-71.55257 Y-14.2476
G1 X-71.30459 Y-14.14868
G1 X-71.01817 Y-14.03521
G3 X-71.00981 Y-14.03188 I-0.81025 J2.04536
G2 X-70.60822 Y-13.87429 I10.9717 J-27.36909
G3 X-70.6013 Y-13.87162 I-0.78864 J2.05379
G1 X-70.1753 Y-13.70639
G1 X-69.32231 Y-13.38151
G1 X-68.75764 Y-13.17097
G1 X-67.95791 Y-12.87917
G1 X-67.15598 Y-12.59429
G1 X-66.61663 Y-12.40714
G3 X-66.5737 Y-12.39174 I-0.7212 J2.07843
G2 X-66.52976 Y-12.37668 I0.32874 J-0.88754
G3 X-66.47754 Y-12.35948 I-0.66201 J2.09803
G2 X-65.19048 Y-11.93018 I25.34242 J-73.83274
G1 X-64.75514 Y-11.78984
G1 X-64.17491 Y-11.60665
G1 X-63.89327 Y-11.51932
G1 X-63.61127 Y-11.43294
G1 X-63.03849 Y-11.2607
G2 X-61.89899 Y-10.93084 I28.49574 J-96.30437
G3 X-61.86416 Y-10.92067 I-0.59925 J2.11681
G3 X-61.82673 Y-10.91049 I-0.55845 J2.12794
G2 X-59.41622 Y-10.26932 I23.61118 J-83.9149
G1 X-58.69114 Y-10.09014
G2 X-57.98267 Y-9.9208 I18.43634 J-75.56464
G1 X-57.49871 Y-9.80825
G1 X-57.22581 Y-9.74586
G1 X-56.91394 Y-9.67551
G1 X-56.18382 Y-9.51456
G1 X-55.45304 Y-9.35852
G1 X-54.9675 Y-9.2575
G1 X-54.31145 Y-9.12418
G2 X-53.31174 Y-8.9277 I19.26587 J-95.38125
G1 X-52.29272 Y-8.73505
G1 X-51.61574 Y-8.61097
G2 X-50.21555 Y-8.36337 I31.92612 J-176.45713
G1 X-50.01425 Y-8.3287
G1 X-49.78467 Y-8.28943
G1 X-49.52328 Y-8.24506
G1 X-48.82278 Y-8.1279
G1 X-47.60568 Y-7.92994
G1 X-47.20273 Y-7.86587
G1 X-46.6622 Y-7.781
G1 X-45.94196 Y-7.66977
G1 X-44.4709 Y-7.4487
G1 X-42.99881 Y-7.23513
G1 X-41.88772 Y-7.07871
G1 X-40.77462 Y-6.92598
G1 X-40.03076 Y-6.82609
G1 X-40.03049 Y-6.82605
G2 X-37.08397 Y-6.44769 I33.57012 J-249.7676
G1 X-35.9911 Y-6.31461
G1 X-35.63174 Y-6.27175
G1 X-34.1767 Y-6.10298
G1 X-33.58257 Y-6.03636
G1 X-32.98627 Y-5.9709
G1 X-32.58975 Y-5.92817
G1 X-32.06024 Y-5.87215
G1 X-31.35339 Y-5.79928
G2 X-28.78758 Y-5.55456 I26.99352 J-269.44642
G1 X-28.61997 Y-5.53973
G1 X-27.74573 Y-5.46484
G1 X-26.87259 Y-5.39425
G1 X-26.29118 Y-5.34967
G1 X-25.9617 Y-5.32527
G1 X-24.99235 Y-5.25722
G1 X-24.67217 Y-5.23597
G1 X-24.4897 Y-5.22414
G1 X-23.99877 Y-5.1933
G1 X-23.34522 Y-5.1545
G1 X-22.36142 Y-5.10093
G1 X-21.37709 Y-5.05309
G1 X-20.72166 Y-5.02439
G1 X-20.28028 Y-5.00644
G3 X-20.25163 Y-5.00509 I-0.08936 J2.19818
G3 X-20.22332 Y-5.00421 I-0.05443 J2.19933
G1 X-19.71933 Y-4.98524
G1 X-18.71163 Y-4.95152
G1 X-18.04324 Y-4.93218
G1 X-17.01369 Y-4.90697
G1 X-16.67358 Y-4.89984
G1 X-16.21718 Y-4.89118
G1 X-15.60722 Y-4.88124
G1 X-15.26095 Y-4.87642
G1 X-14.54402 Y-4.8683
G1 X-13.82732 Y-4.8627
G1 X-13.35103 Y-4.86036
G1 X-12.71338 Y-4.85898
G1 X-12.3509 Y-4.85908
G1 X-11.81651 Y-4.86044
G1 X-11.28416 Y-4.86321
G1 X-10.21422 Y-4.87319
G1 X-9.50239 Y-4.88314
G1 X-9.31393 Y-4.88624
G2 X-6.56718 Y-4.954 I-3.13115 J-182.6224
G1 X-6.1716 Y-4.96742
G3 X-6.16947 Y-4.96749 I0.07461 J2.19873
G2 X-4.45119 Y-5.03736 I-3.68701 J-111.84509
G3 X-4.38913 Y-5.03948 I0.10626 J2.19743
G3 X-4.33621 Y-5.04272 I0.16104 J2.1941
G1 X-3.71718 Y-5.07318
G1 X-3.36799 Y-5.09153
G1 X-2.9643 Y-5.11383
G3 X-2.9638 Y-5.11385 I0.1213 J2.19665
G2 X-0.48453 Y-5.27757 I-6.20432 J-112.81314
G3 X-0.45461 Y-5.27967 I0.16909 J2.19349
G2 X-0.34324 Y-5.28818 I-0.27164 J-4.28554
G3 X-0.29401 Y-5.29204 I0.19622 J2.19123
G2 X-0.16195 Y-5.30232 I-0.40821 J-6.09622
G3 X-0.13123 Y-5.30483 I0.19454 J2.19138
G2 X0.25481 Y-5.33581 I-2.59175 J-34.70917
G3 X0.25913 Y-5.33618 I0.18822 J2.19193
G1 X0.7163 Y-5.37453
G1 X1.16689 Y-5.41408
G1 X2.07509 Y-5.49926
G1 X2.67484 Y-5.55963
G1 X3.48298 Y-5.64629
G2 X5.85207 Y-5.93733 I-10.50693 J-95.31311
G1 X6.64778 Y-6.04796
G1 X7.47133 Y-6.16944
G1 X8.30292 Y-6.29937
G3 X8.30477 Y-6.29966 I0.33961 J2.17363
G2 X8.83008 Y-6.38557 I-5.1238 J-32.97879
G3 X8.83301 Y-6.38607 I0.37238 J2.16826
G1 X9.57352 Y-6.51222
G1 X9.76679 Y-6.54609
G2 X12.45337 Y-7.05747 I-16.56071 J-94.31496
G1 X12.84179 Y-7.1375
G2 X14.79612 Y-7.56198 I-24.04261 J-115.40324
G3 X14.82865 Y-7.56908 I0.48518 J2.14583
G2 X14.89375 Y-7.58384 I-0.43624 J-2.07488
G3 X14.9202 Y-7.5901 I0.52019 J2.13762
G1 X15.62694 Y-7.75287
G3 X15.65764 Y-7.75971 I0.49374 J2.14388
G2 X15.67406 Y-7.76354 I-0.10169 J-0.47232
G3 X15.74879 Y-7.781 I0.53777 J2.13326
G2 X15.76509 Y-7.78482 I-0.09701 J-0.45059
G3 X15.84288 Y-7.80305 I0.54082 J2.13249
G2 X15.85906 Y-7.80686 I-0.09259 J-0.43007
G3 X15.94422 Y-7.82679 I0.54395 J2.13169
G2 X15.97288 Y-7.83356 I-0.14153 J-0.66377
G3 X16.06511 Y-7.85534 I0.55169 J2.1297
G2 X16.09122 Y-7.86153 I-0.12569 J-0.58854
G3 X16.17711 Y-7.88208 I0.55491 J2.12887
G2 X16.17853 Y-7.88242 I-0.00837 J-0.03835
G3 X16.26375 Y-7.90257 I0.54866 J2.13049
G2 X16.27809 Y-7.90599 I-0.07091 J-0.32905
G3 X16.37847 Y-7.92977 I0.55717 J2.12828
G2 X16.41164 Y-7.93771 I-0.13664 J-0.64377
G3 X16.4614 Y-7.95038 I0.56767 J2.1255
G1 X17.03354 Y-8.08896
G1 X17.41038 Y-8.18156
G1 X17.91426 Y-8.30696
G1 X18.58763 Y-8.47719
G1 X18.97246 Y-8.57577
G2 X22.08146 Y-9.40124 I-48.36421 J-188.42246
G1 X23.48711 Y-9.78787
G3 X23.52936 Y-9.79904 I0.58344 J2.12122
G3 X23.62569 Y-9.82571 I0.63494 J2.10638
G3 X23.67116 Y-9.83896 I0.63861 J2.10527
G1 X25.26598 Y-10.28548
G1 X26.74492 Y-10.70443
G3 X26.79183 Y-10.71716 I0.59961 J2.11671
G3 X26.83879 Y-10.73115 I0.65154 J2.10131
G1 X28.41872 Y-11.18273
G3 X28.46781 Y-11.19615 I0.60459 J2.11529
G3 X28.51611 Y-11.21066 I0.65746 J2.09946
G1 X31.00813 Y-11.92876
G1 X31.83607 Y-12.16851
G1 X35.20142 Y-13.14822
G1 X35.83443 Y-13.33346
G1 X36.46803 Y-13.51922
G1 X37.7368 Y-13.89232
G3 X37.74066 Y-13.89345 I0.62066 J2.11063
G2 X38.57489 Y-14.13968 I-42.96351 J-147.09695
G3 X38.57959 Y-14.14108 I0.62877 J2.10823
G1 X38.89545 Y-14.23452
G1 X39.21072 Y-14.3279
G1 X39.8418 Y-14.51521
G1 X40.26112 Y-14.63997
G1 X41.9428 Y-15.14298
G1 X42.77261 Y-15.39295
G3 X42.77874 Y-15.39479 I0.63457 J2.10649
G2 X43.59185 Y-15.64104 I-27.74235 J-93.07095
G3 X43.59584 Y-15.64226 I0.64687 J2.10275
G1 X45.25669 Y-16.14974
G2 X48.48459 Y-17.15688 I-98.03164 J-319.8677
G1 X48.48487 Y-17.15697
G1 X48.76162 Y-17.24482
G1 X49.03692 Y-17.33246
G1 X49.58759 Y-17.50857
G1 X50.69022 Y-17.86455
G1 X51.42358 Y-18.10393
G1 X51.61571 Y-18.167
G1 X52.89713 Y-18.59165
G1 X53.32243 Y-18.73418
G3 X53.32875 Y-18.73628 I0.69903 J2.08599
G2 X53.87905 Y-18.92193 I-18.12436 J-54.63321
G3 X53.88382 Y-18.92356 I0.71375 J2.081
G1 X54.64109 Y-19.18135
G1 X55.60462 Y-19.51332
G1 X56.56805 Y-19.84981
G1 X56.69298 Y-19.89378
G1 X57.3781 Y-20.13634
G1 X57.55816 Y-20.20048
G1 X58.04862 Y-20.37604
G1 X58.20967 Y-20.43396
G1 X58.8625 Y-20.67008
G1 X59.29626 Y-20.82815
G1 X59.54267 Y-20.91838
G1 X60.20506 Y-21.16244
G1 X60.37938 Y-21.22703
G1 X60.8308 Y-21.39499
G1 X60.97925 Y-21.45044
G1 X61.57889 Y-21.6755
G1 X62.7804 Y-22.1314
G1 X63.11931 Y-22.26113
G1 X64.46158 Y-22.77938
G1 X65.80199 Y-23.303
G1 X66.81169 Y-23.70047
G1 X66.95524 Y-23.75714
G1 X67.11972 Y-23.82212
G1 X68.44172 Y-24.34537
G3 X68.44279 Y-24.34579 I0.80965 J2.0456
G1 X71.05423 Y-25.37781
G3 X71.05797 Y-25.37929 I0.80858 J2.04602
G3 X73.66395 Y-26.39091 I120.51892 J306.5985
G3 X73.67129 Y-26.39371 I0.78743 J2.05425
G1 X74.63412 Y-26.75884
G3 X74.64588 Y-26.76326 I0.78009 J2.05705
G1 X75.61087 Y-27.12292
G3 X75.62213 Y-27.12708 I0.76832 J2.06147
G1 X76.26675 Y-27.36334
G3 X76.27606 Y-27.36672 I0.75706 J2.06564
G1 X76.83357 Y-27.56821
G3 X76.84286 Y-27.57155 I0.74776 J2.06902
G1 X77.40121 Y-27.77051
G3 X77.4075 Y-27.77274 I0.73846 J2.07236
G1 X77.56722 Y-27.82911
G3 X77.56813 Y-27.82943 I0.73217 J2.07459
G3 X78.87393 Y-28.28072 I37.75075 J107.11528
G3 X78.87699 Y-28.28176 I0.70597 J2.08365
G3 X80.32206 Y-28.75965 I41.7533 J123.83184
G3 X80.33133 Y-28.76263 I0.67858 J2.09273
G1 X80.80656 Y-28.91441
G3 X80.81995 Y-28.91864 I0.66931 J2.09571
G1 X81.45485 Y-29.11695
G3 X81.47185 Y-29.12219 I0.65593 J2.09994
G1 X82.18657 Y-29.3391
G3 X82.20547 Y-29.34475 I0.63893 J2.10518
G1 X82.92215 Y-29.55526
G3 X82.93325 Y-29.55849 I0.62002 J2.11082
G1 X83.02901 Y-29.58607
G3 X83.03177 Y-29.58687 I0.60891 J2.11405
G1 X83.12995 Y-29.61501
G3 X83.7032 Y-29.77661 I10.3027 J35.44844
G1 X84.01296 Y-29.86199
G3 X84.01708 Y-29.86312 I0.58458 J2.12091
G3 X86.1963 Y-30.42269 I18.9488 J69.27255
G3 X86.20267 Y-30.42421 I0.51371 J2.13918
G1 X86.50587 Y-30.49606
G3 X86.51418 Y-30.49802 I0.50733 J2.1407
G3 X88.307 Y-30.89035 I15.56212 J66.82002
G3 X88.32331 Y-30.89363 I0.44153 J2.15524
G1 X88.90424 Y-31.00807
G3 X88.92386 Y-31.01184 I0.42522 J2.15852
G1 X89.26008 Y-31.07491
G3 X89.44764 Y-31.10913 I0.84704 J4.11163
G1 X89.90555 Y-31.18989
G3 X89.90781 Y-31.19028 I0.38209 J2.16657
G3 X90.93079 Y-31.3546 I6.2725 J35.78446
G1 X91.20556 Y-31.39486
G3 X91.21358 Y-31.39602 I0.31894 J2.17676
G3 X93.37622 Y-31.65078 I6.27024 J43.91992
G3 X93.73275 Y-31.68171 I1.15983 J11.29992
G1 X93.82383 Y-31.6891
G3 X93.83931 Y-31.6903 I0.17786 J2.1928
G1 X94.2506 Y-31.72074
G3 X94.2715 Y-31.72219 I0.16238 J2.194
G1 X94.54582 Y-31.73986
G3 X94.56562 Y-31.74105 I0.14147 J2.19545
G1 X94.92939 Y-31.7612
G3 X95.47355 Y-31.78473 I1.10863 J19.33299
G1 X95.70247 Y-31.79224
G3 X95.71728 Y-31.79268 I0.07215 J2.19882
G1 X95.95046 Y-31.79876
G3 X95.97276 Y-31.79922 I0.05734 J2.19925
G1 X96.43906 Y-31.80665
G3 X96.4527 Y-31.80683 I0.03504 J2.19972
G3 X97.44764 Y-31.80246 I0.34287 J35.24517
G3 X97.45092 Y-31.8024 I-0.0407 J2.19962
G3 X99.12921 Y-31.73385 I-0.80595 J40.30972
G3 X99.14083 Y-31.7331 I-0.13556 J2.19582
G1 X99.36723 Y-31.71792
G3 X99.38644 Y-31.71655 I-0.14718 J2.19507
G1 X99.76289 Y-31.68799
G3 X99.77898 Y-31.68671 I-0.16639 J2.1937
G1 X99.90444 Y-31.67627
G3 X99.92482 Y-31.67448 I-0.18248 J2.19242
G1 X100.42611 Y-31.62806
G3 X100.45375 Y-31.62532 I-0.20286 J2.19063
G1 X100.78752 Y-31.59016
G3 X100.7895 Y-31.58995 I-0.2305 J2.18789
G3 X101.27678 Y-31.53269 I-2.33612 J21.98276
G3 X103.15219 Y-31.24015 I-3.64754 J29.5408
G3 X105.00313 Y-30.81472 I-4.16632 J22.36608
G3 X105.52184 Y-30.66503 I-3.4798 J13.03198
G3 X105.71972 Y-30.60363 I-1.77505 J6.06993
G3 X106.37628 Y-30.38285 I-7.30881 J22.82229
G3 X106.40082 Y-30.37404 I-0.73125 J2.07491
G1 X106.57201 Y-30.31142
G3 X106.59943 Y-30.30118 I-0.7558 J2.0661
G1 X106.79404 Y-30.22704
G3 X106.80925 Y-30.22118 I-0.78322 J2.05586
G3 X108.50088 Y-29.44215 I-5.62035 J14.43054
G3 X108.50795 Y-29.43835 I-1.03874 J1.93933
G3 X109.88876 Y-28.57924 I-6.32122 J11.69896
G1 X110.02933 Y-28.73666
G1 X110.18954 Y-28.921
G1 X110.43696 Y-29.2122
G1 X110.68309 Y-29.50863
G1 X110.82247 Y-29.67933
G2 X111.77052 Y-30.90092 I-29.86127 J-24.15341
G2 X112.86009 Y-32.50464 I-18.16106 J-13.51067
G2 X113.31666 Y-33.30266 I-11.92103 J-7.34996
G3 X113.3197 Y-33.30838 I1.94439 J1.02924
G2 X113.51202 Y-33.68885 I-8.64658 J-4.60962
G1 X113.6103 Y-33.89923
G1 X113.69758 Y-34.09753
G1 X113.7722 Y-34.27812
G1 X113.83854 Y-34.44915
G2 X114.13739 Y-35.50581 I-5.8415 J-2.2227
G2 X114.21156 Y-36.72591 I-4.87158 J-0.90845
G2 X113.99553 Y-37.97418 I-6.32697 J0.45214
G3 X113.99252 Y-37.9851 I2.11948 J-0.58976
G2 X113.89262 Y-38.32719 I-9.61933 J2.62336
G3 X113.89044 Y-38.33424 I2.10044 J-0.65432
G2 X113.72143 Y-38.83169 I-8.69292 J2.67597
G3 X113.71914 Y-38.83788 I2.06175 J-0.76758
G1 X113.6909 Y-38.91444
G3 X113.68829 Y-38.92153 I2.06404 J-0.7614
G2 X113.51794 Y-39.35602 I-9.2506 J3.37639
G3 X113.5112 Y-39.37224 I2.02859 J-0.85138
G2 X112.84203 Y-40.80197 I-15.10092 J6.19638
G3 X112.83642 Y-40.81266 I1.94513 J-1.02785
G2 X112.01804 Y-42.18389 I-12.33171 J6.43007
G3 X112.01629 Y-42.18647 I1.82128 J-1.23408
G2 X111.02747 Y-43.44134 I-9.04322 J6.10889
G2 X109.81481 Y-44.5599 I-7.2508 J6.64418
G2 X108.31404 Y-45.54646 I-7.01931 J9.04318
G1 X108.31403
G1 X108.31404 Y-45.54645
G1 Y-45.54646
G2 X106.55501 Y-46.36263 I-6.82125 J12.39755
G2 X104.63384 Y-46.96973 I-6.07409 J15.87836
G2 X102.68402 Y-47.34242 I-4.22604 J16.82279
G3 X102.65528 Y-47.34641 I0.2887 J-2.18097
G3 X102.62454 Y-47.35016 I0.25069 J-2.18567
G2 X100.79202 Y-47.48293 I-2.10162 J16.29392
G3 X100.78138 Y-47.48313 I0.03604 J-2.1997
G2 X100.34853 Y-47.48386 I-0.2352 J11.08446
G3 X100.33956 Y-47.48372 I-0.03922 J-2.19965
G2 X98.96885 Y-47.40826 I0.22894 J16.64567
G2 X97.15058 Y-47.13751 I1.80163 J18.33979
G2 X95.23582 Y-46.68143 I5.40776 J26.95067
G3 X95.22789 Y-46.67925 I-0.58606 J-2.1205
G2 X94.21125 Y-46.38527 I8.92222 J32.759
G1 X93.6853 Y-46.22258
G1 X93.15935 Y-46.05392
G2 X92.61921 Y-45.87503 I10.62315 J32.98057
G3 X92.61323 Y-45.873 I-0.7088 J-2.08269
G1 X92.50933 Y-45.83798
G1 X92.31005 Y-45.76996
G0 Z3.0
G0 X-73.8785 Y-39.05429
G0 Z1.0
G1 F300.0 Z-2.5
G1 F800.0 X-74.54123 Y-39.46969
G3 X-74.66057 Y-39.54521 I8.81621 J-14.06536
G3 X-74.78022 Y-39.61895 I8.64987 J-14.16826
G1 X-75.5197 Y-40.07905
G1 X-76.40197 Y-40.62401
G1 X-77.27913 Y-41.16049
G1 X-77.859 Y-41.51172
G1 X-77.99682 Y-41.59474
G1 X-78.36767 Y-41.81725
G3 X-78.40502 Y-41.83973 I8.54051 J-14.23446
G2 X-78.9724 Y-42.17713 I-26.0968 J43.23777
G3 X-78.98499 Y-42.18452 I8.39136 J-14.32289
G1 X-79.73069 Y-42.62229
G2 X-81.00632 Y-43.35462 I-45.68291 J78.09684
G3 X-81.02547 Y-43.36542 I8.14752 J-14.46299
G2 X-82.88521 Y-44.38859 I-45.90397 J81.23418
G1 X-83.54471 Y-44.73713
G1 X-83.91014 Y-44.92689
G1 X-84.30271 Y-45.12794
G1 X-84.39989 Y-45.17726
G2 X-85.2249 Y-45.58835 I-33.3113 J65.81779
G1 X-85.85914 Y-45.89525
G1 X-85.88482 Y-45.90752
G1 X-86.27668 Y-46.09287
G1 X-86.66737 Y-46.27476
G1 X-86.74166 Y-46.30899
G2 X-87.60542 Y-46.69888 I-52.66808 J115.52781
G1 X-88.23184 Y-46.97277
G2 X-90.28749 Y-47.81882 I-25.50284 J59.04389
G1 X-90.4249 Y-47.87256
G1 X-90.90819 Y-48.05895
G1 X-91.01104 Y-48.09806
G1 X-91.66093 Y-48.34077
G1 X-91.8093 Y-48.39514
G1 X-91.86937 Y-48.41701
G1 X-92.39 Y-48.60373
G1 X-92.6475 Y-48.69422
G1 X-92.98354 Y-48.81037
G1 X-93.05128 Y-48.8335
G1 X-93.50393 Y-48.98559
G1 X-93.76299 Y-49.07071
G1 X-94.12406 Y-49.18675
G1 X-94.64454 Y-49.34876
G1 X-94.76232 Y-49.38452
G1 X-94.76367 Y-49.38493
G2 X-96.38314 Y-49.83069 I-9.29695 J30.61164
G2 X-96.28789 Y-49.75226 I2.99475 J-3.5399
G3 X-96.23804 Y-49.71216 I-10.38049 J12.95397
G3 X-96.20535 Y-49.68612 I-10.32422 J12.99886
G3 X-96.19465 Y-49.67773 I-10.2432 J13.06281
G2 X-95.61336 Y-49.25654 I5.71714 J-7.27859
G1 X-95.43062 Y-49.13561
G2 X-94.65792 Y-48.65755 I10.59923 J-16.26825
G1 X-94.25649 Y-48.42504
G1 X-93.8647 Y-48.20429
G1 X-93.42305 Y-47.96151
G2 X-92.57185 Y-47.50743 I33.32337 J-61.44331
G1 X-91.9881 Y-47.2035
G1 X-91.39586 Y-46.89936
G1 X-90.97679 Y-46.68638
G1 X-90.40836 Y-46.3997
G3 X-90.4033 Y-46.39717 I-7.43102 J14.84385
G1 X-90.08808 Y-46.23923
G1 X-89.78858 Y-46.08975
G1 X-89.17941 Y-45.78735
G1 X-87.90868 Y-45.16283
G2 X-86.08418 Y-44.28093 I89.94365 J-183.75008
G3 X-86.0756 Y-44.27684 I-7.15007 J14.98121
G1 X-85.9571 Y-44.2202
G1 X-85.2713 Y-43.89399
G2 X-82.50701 Y-42.61109 I77.73034 J-163.868
G3 X-82.49403 Y-42.60519 I-6.86135 J15.11562
G2 X-80.15217 Y-41.56663 I55.52756 J-122.04915
G2 X-80.15123 Y-41.56622 I53.18571 J-123.08772
G1 X-80.15317 Y-41.56706
G1 X-80.15217 Y-41.56663
G1 X-79.97686 Y-41.49091
G3 X-79.87731 Y-41.44752 I-6.58234 J15.23919
G2 X-79.7379 Y-41.38765 I3.52994 J-8.02771
G3 X-79.62022 Y-41.33778 I-6.41799 J15.30913
G2 X-76.66262 Y-40.11776 I46.89893 J-109.498
G2 X-75.34808 Y-39.60508 I50.1525 J-126.65137
G1 X-74.89222 Y-39.43156
G1 X-74.64833 Y-39.33962
G1 X-74.3757 Y-39.23761
G1 X-73.8785 Y-39.05429
G1 F300.0 X-74.43199 Y-37.55307
G1 F800.0 X-74.1051 Y-37.43255
G2 X-72.55773 Y-36.88045 I35.84014 J-98.0046
G3 X-72.51823 Y-36.86665 I-4.92937 J14.16691
G2 X-70.95748 Y-36.33328 I32.75681 J-93.30288
G3 X-70.93 Y-36.32411 I-4.73213 J14.23401
G2 X-68.80199 Y-35.63162 I42.88986 J-128.18311
G1 X-68.49596 Y-35.53508
G1 X-67.64848 Y-35.27142
G1 X-67.19785 Y-35.13335
G1 X-67.0641 Y-35.09265
G1 X-66.44232 Y-34.90514
G1 X-66.0373 Y-34.78439
G1 X-65.81694 Y-34.71917
G1 X-65.19113 Y-34.53565
G1 X-64.34433 Y-34.29115
G1 X-64.02569 Y-34.20025
G1 X-63.68371 Y-34.10335
G3 X-63.58632 Y-34.07539 I-4.08952 J14.43176
G3 X-63.5082 Y-34.05384 I-3.9504 J14.47046
G1 X-62.58159 Y-33.79549
G1 X-62.34683 Y-33.73074
G1 X-62.17238 Y-33.68304
G1 X-62.38568 Y-33.80931
G3 X-62.41636 Y-33.82753 I7.64158 J-12.9076
G1 X-62.59061 Y-33.93125
G3 X-62.62232 Y-33.95018 I7.67226 J-12.88939
G1 X-63.3301 Y-34.37384
G3 X-63.37896 Y-34.40321 I7.70397 J-12.87046
G1 X-64.08506 Y-34.82952
G3 X-64.12347 Y-34.85279 I7.75283 J-12.84109
G1 X-64.5934 Y-35.13843
G3 X-64.61629 Y-35.15237 I7.79124 J-12.81782
G1 X-64.88457 Y-35.3161
G3 X-64.91323 Y-35.33364 I7.81413 J-12.80388
G1 X-65.62752 Y-35.77176
G3 X-65.65558 Y-35.78902 I7.8428 J-12.78634
G1 X-65.96648 Y-35.98066
G3 X-65.98228 Y-35.99041 I7.87086 J-12.76908
G1 X-66.29297 Y-36.18245
G3 X-66.30546 Y-36.19018 I7.88666 J-12.75933
G1 X-66.5125 Y-36.31843
G3 X-66.52354 Y-36.32528 I7.89915 J-12.7516
G1 X-66.79942 Y-36.4965
G3 X-66.82725 Y-36.51382 I7.91019 J-12.74476
G1 X-67.92921 Y-37.2011
G3 X-67.95947 Y-37.22003 I7.93802 J-12.72744
G1 X-68.69308 Y-37.68001
G3 X-68.72109 Y-37.69761 I7.96828 J-12.70852
G1 X-71.72386 Y-39.58959
G1 X-72.21702 Y-39.90019
G1 X-72.7022 Y-40.20531
G1 X-73.69147 Y-40.82539
G3 X-73.81299 Y-40.90237 I7.96646 J-12.70966
G3 X-73.93496 Y-40.97746 I7.80229 J-12.8111
G1 X-74.67667 Y-41.43894
G1 X-75.56415 Y-41.98711
G1 X-76.44725 Y-42.52723
G1 X-77.03172 Y-42.88125
G1 X-77.17242 Y-42.96601
G1 X-77.54449 Y-43.18925
G3 X-77.57824 Y-43.20955 I7.71733 J-12.86246
G2 X-78.16359 Y-43.55765 I-26.92358 J44.6076
G3 X-78.17497 Y-43.56433 I7.58255 J-12.94237
G1 X-78.92175 Y-44.00273
G2 X-80.22102 Y-44.74864 I-46.49186 J79.47728
G3 X-80.23832 Y-44.7584 I7.36221 J-13.06896
G2 X-82.13379 Y-45.80118 I-46.69112 J82.62717
G1 X-82.80222 Y-46.15443
G1 X-83.17679 Y-46.34894
G1 X-83.57601 Y-46.55339
G1 X-83.67659 Y-46.60444
G2 X-84.52414 Y-47.02674 I-34.03459 J67.24497
G1 X-85.16598 Y-47.33732
G1 X-85.19806 Y-47.35264
G1 X-85.59696 Y-47.54132
G1 X-85.99493 Y-47.72659
G1 X-86.075 Y-47.76349
G2 X-86.95853 Y-48.16229 I-53.33474 J116.98231
G1 X-87.59411 Y-48.44019
G2 X-89.7045 Y-49.30883 I-26.14057 J60.5113
G1 X-89.84568 Y-49.36404
G1 X-90.33596 Y-49.55313
G1 X-90.44679 Y-49.59527
G1 X-91.10578 Y-49.84139
G1 X-91.2604 Y-49.89804
G1 X-91.32565 Y-49.9218
G1 X-91.85468 Y-50.11153
G1 X-92.12091 Y-50.20509
G1 X-92.46372 Y-50.32358
G1 X-92.538 Y-50.34894
G1 X-92.9994 Y-50.50397
G1 X-93.26849 Y-50.59238
G1 X-93.64151 Y-50.71226
G1 X-94.17435 Y-50.87812
G1 X-94.29749 Y-50.91551
G1 X-94.29871 Y-50.91588
G2 X-96.05619 Y-51.39798 I-9.76191 J32.1426
G1 X-96.195 Y-51.43126
G3 X-96.20252 Y-51.43306 I3.49733 J-14.58659
G2 X-97.63082 Y-51.70854 I-3.75226 J15.61438
G2 X-98.37011 Y-51.77316 I-0.93099 J6.3897
G1 X-98.44937 Y-51.77444
G2 X-98.6009 Y-51.76836 I-0.01483 J1.52105
G2 X-98.70543 Y-51.68845 I0.60436 J0.89889
G3 X-98.7224 Y-51.67378 I-9.81687 J-11.34148
G2 X-98.96737 Y-51.42308 I1.34858 J1.56274
G3 X-98.98355 Y-51.40345 I-11.57998 J-9.53436
G2 X-99.18724 Y-51.11086 I1.66979 J1.37958
G2 X-99.16693 Y-51.04835 I2.3465 J-0.72766
G2 X-98.96777 Y-50.57428 I3.86443 J-1.34462
G3 X-98.95866 Y-50.55588 I-13.43678 J6.6673
G2 X-98.63875 Y-49.99544 I4.86761 J-2.407
G3 X-98.6327 Y-49.98617 I-12.56221 J8.197
G2 X-98.22435 Y-49.42774 I5.3703 J-3.49854
G1 X-98.18402 Y-49.37923
G1 X-98.17197 Y-49.36496
G1 X-98.0774 Y-49.25562
G1 X-98.05666 Y-49.23227
G1 X-97.96832 Y-49.13517
G2 X-97.748 Y-48.91065 I4.72386 J-4.41482
G3 X-97.73702 Y-48.89997 I-10.44791 J10.76295
G2 X-97.28842 Y-48.50368 I4.34863 J-4.47062
G3 X-97.23828 Y-48.46333 I-9.37996 J11.7054
G3 X-97.19814 Y-48.43137 I-9.32399 J11.75003
G3 X-97.18298 Y-48.41947 I-9.2504 J11.80805
G2 X-96.49866 Y-47.92377 I6.70546 J-8.53685
G1 X-96.3089 Y-47.79821
G2 X-95.4637 Y-47.27526 I11.47751 J-17.60565
G1 X-95.05019 Y-47.03574
G1 X-94.64281 Y-46.80622
G1 X-94.18987 Y-46.55722
G2 X-93.31294 Y-46.08941 I34.09018 J-62.8476
G1 X-92.72301 Y-45.78226
G1 X-92.12378 Y-45.47453
G1 X-91.69949 Y-45.2589
G1 X-91.12667 Y-44.97
G3 X-91.12003 Y-44.96668 I-6.71271 J13.41415
G1 X-90.8037 Y-44.80819
G1 X-90.50155 Y-44.65738
G1 X-89.88798 Y-44.3528
G1 X-88.61326 Y-43.72632
G2 X-86.77334 Y-42.83696 I90.64823 J-185.18659
G3 X-86.76559 Y-42.83326 I-6.4609 J13.53723
G1 X-86.64573 Y-42.77597
G1 X-85.9578 Y-42.44875
G2 X-83.16834 Y-41.15417 I78.41684 J-165.31324
G3 X-83.15661 Y-41.14884 I-6.20001 J13.65869
G2 X-80.78671 Y-40.09783 I56.19015 J-123.50551
G1 X-80.78586 Y-40.09746
G1 X-80.78762 Y-40.09822
G1 X-80.78671 Y-40.09783
G1 X-80.61131 Y-40.02207
G3 X-80.52135 Y-39.98286 I-5.9479 J13.77035
G2 X-80.3565 Y-39.91207 I4.17398 J-9.49237
G3 X-80.25017 Y-39.86701 I-5.79939 J13.83355
G2 X-77.25227 Y-38.63037 I47.52888 J-110.96877
G2 X-75.91948 Y-38.11058 I50.74215 J-128.13875
G1 X-75.45901 Y-37.93531
G1 X-75.21089 Y-37.84178
G1 X-74.9328 Y-37.73772
G1 X-74.43199 Y-37.55307
G1 F300.0 X-74.98548 Y-36.05186
G1 F800.0 X-74.65662 Y-35.93061
G2 X-73.08353 Y-35.36932 I36.39166 J-99.50655
G3 X-73.04824 Y-35.35698 I-4.40357 J12.65577
G2 X-71.46224 Y-34.81498 I33.28682 J-94.81255
G3 X-71.43769 Y-34.80679 I-4.22737 J12.71571
G2 X-69.28391 Y-34.10592 I43.39755 J-129.70043
G1 X-68.97428 Y-34.00825
G1 X-68.12051 Y-33.74262
G1 X-67.66506 Y-33.60308
G1 X-67.52793 Y-33.56136
G1 X-66.90186 Y-33.37255
G1 X-66.49292 Y-33.25064
G1 X-66.26912 Y-33.18439
G1 X-65.63817 Y-32.99937
G1 X-64.78571 Y-32.75323
G1 X-64.46326 Y-32.66125
G1 X-64.11993 Y-32.56396
G3 X-64.02034 Y-32.53532 I-3.65331 J12.89238
G3 X-63.93791 Y-32.51262 I-3.51638 J12.93039
G1 X-63.00915 Y-32.25368
G1 X-62.77055 Y-32.18787
G1 X-62.07509 Y-31.99769
G1 X-61.90365 Y-31.95117
G1 X-61.49345 Y-31.84045
G1 X-60.30857 Y-31.52492
G1 X-59.12449 Y-31.21561
G1 X-58.33264 Y-31.01191
G1 X-58.25095 Y-30.99104
G1 X-57.10006 Y-30.69971
G1 X-55.95556 Y-30.41494
G1 X-55.1918 Y-30.22765
G1 X-55.11238 Y-30.20831
G1 X-54.10514 Y-29.96515
G1 X-53.79777 Y-29.89177
G1 X-52.4592 Y-29.57699
G1 X-52.09906 Y-29.4937
G1 X-51.69448 Y-29.4009
G1 X-51.56618 Y-29.37164
G1 X-51.39705 Y-29.33321
G1 X-50.81752 Y-29.20291
G1 X-51.12812 Y-29.36547
G3 X-51.1756 Y-29.39044 I6.21339 J-11.8724
G1 X-52.23301 Y-29.94923
G3 X-52.26575 Y-29.96659 I6.26087 J-11.84743
G1 X-52.56743 Y-30.12709
G3 X-52.58384 Y-30.13583 I6.29361 J-11.83006
G1 X-52.92837 Y-30.31973
G3 X-52.96515 Y-30.33944 I6.31003 J-11.82132
G1 X-53.99626 Y-30.89396
G3 X-54.05517 Y-30.92584 I6.3468 J-11.80161
G1 X-55.08345 Y-31.48548
G3 X-55.13589 Y-31.51417 I6.40572 J-11.76974
G1 X-55.81977 Y-31.89034
G3 X-55.8509 Y-31.90752 I6.45816 J-11.74104
G1 X-56.14081 Y-32.06798
G3 X-56.15978 Y-32.0785 I6.4893 J-11.72386
G1 X-56.44945 Y-32.23945
G3 X-56.4784 Y-32.25558 I6.50827 J-11.71334
G1 X-56.97326 Y-32.53215
G3 X-57.14901 Y-32.62979 I7.07753 J-12.94573
G3 X-57.35052 Y-32.74401 I7.18962 J-12.91998
G1 X-57.69952 Y-32.94083
G3 X-57.73486 Y-32.96084 I6.58263 J-11.67172
G1 X-58.22885 Y-33.24141
G3 X-58.5209 Y-33.40796 I7.08302 J-12.76011
G1 X-58.77361 Y-33.55257
G3 X-58.8203 Y-33.57942 I6.65557 J-11.63028
G1 X-59.80788 Y-34.14985
G3 X-59.87646 Y-34.18974 I6.70226 J-11.60344
G1 X-60.86064 Y-34.76601
G3 X-60.91628 Y-34.79877 I6.77084 J-11.56355
G1 X-61.57058 Y-35.18612
G3 X-61.59798 Y-35.20239 I6.82648 J-11.53079
G1 X-61.77224 Y-35.30612
G3 X-61.80057 Y-35.32303 I6.85389 J-11.51452
G1 X-62.50835 Y-35.74669
G3 X-62.55199 Y-35.77293 I6.88222 J-11.49761
G1 X-63.25809 Y-36.19924
G3 X-63.2924 Y-36.22002 I6.92586 J-11.47137
G1 X-63.76233 Y-36.50566
G3 X-63.78278 Y-36.51812 I6.96018 J-11.45059
G1 X-64.05106 Y-36.68185
G3 X-64.07667 Y-36.69751 I6.98063 J-11.43813
G1 X-64.79095 Y-37.13564
G3 X-64.81602 Y-37.15105 I7.00623 J-11.42246
G1 X-65.12692 Y-37.34269
G3 X-65.14103 Y-37.3514 I7.0313 J-11.40705
G1 X-65.45172 Y-37.54344
G3 X-65.46288 Y-37.55035 I7.04542 J-11.39834
G1 X-65.66993 Y-37.6786
G3 X-65.67979 Y-37.68472 I7.05658 J-11.39143
G1 X-65.95566 Y-37.85595
G3 X-65.98053 Y-37.87141 I7.06644 J-11.38532
G1 X-67.08249 Y-38.5587
G3 X-67.10952 Y-38.5756 I7.0913 J-11.36985
G1 X-67.84313 Y-39.03558
G3 X-67.86815 Y-39.05131 I7.11833 J-11.35294
G1 X-70.87105 Y-40.94337
G1 X-71.3648 Y-41.25434
G1 X-71.85144 Y-41.56038
G1 X-72.84172 Y-42.18109
G3 X-72.96186 Y-42.25728 I7.1167 J-11.35397
G2 X-72.96899 Y-42.26174 I-0.18521 J0.28863
G3 X-73.08971 Y-42.33596 I6.95829 J-11.45173
G1 X-73.83363 Y-42.79883
G1 X-74.72632 Y-43.35022
G1 X-75.61537 Y-43.89398
G1 X-76.20445 Y-44.25078
G1 X-76.34801 Y-44.33727
G1 X-76.72131 Y-44.56124
G3 X-76.75146 Y-44.57938 I6.89414 J-11.49046
G2 X-77.35478 Y-44.93817 I-27.75036 J45.97743
G3 X-77.36495 Y-44.94413 I6.77375 J-11.56185
G1 X-78.11279 Y-45.38316
G2 X-79.43571 Y-46.14266 I-47.30081 J80.85771
G3 X-79.45117 Y-46.15138 I6.57691 J-11.67494
G2 X-81.3824 Y-47.21378 I-47.47827 J84.02015
G1 X-82.05973 Y-47.57173
G1 X-82.44344 Y-47.77099
G1 X-82.84931 Y-47.97884
G1 X-82.95329 Y-48.03161
G2 X-83.82343 Y-48.46515 I-34.7579 J68.67214
G1 X-84.47282 Y-48.77938
G1 X-84.5113 Y-48.79776
G1 X-84.91724 Y-48.98976
G1 X-85.32249 Y-49.17843
G1 X-85.40833 Y-49.21798
G2 X-86.31167 Y-49.62572 I-54.00141 J118.43681
G1 X-86.95634 Y-49.90759
G2 X-89.12151 Y-50.79884 I-26.77834 J61.9787
G1 X-89.26645 Y-50.85552
G1 X-89.76373 Y-51.04731
G1 X-89.88255 Y-51.09249
G1 X-90.55064 Y-51.342
G1 X-90.7115 Y-51.40094
G1 X-90.78193 Y-51.42658
G1 X-91.31935 Y-51.61932
G1 X-91.59432 Y-51.71596
G1 X-91.9439 Y-51.83679
G1 X-92.02473 Y-51.86438
G1 X-92.49488 Y-52.02235
G1 X-92.77399 Y-52.11406
G1 X-93.15896 Y-52.23778
G1 X-93.70416 Y-52.40749
G1 X-93.83266 Y-52.4465
G1 X-93.83375 Y-52.44683
G2 X-95.67908 Y-52.95291 I-10.22687 J33.67355
G1 X-95.82196 Y-52.98716
G3 X-95.82867 Y-52.98877 I3.12428 J-13.03069
G2 X-97.3997 Y-53.29176 I-4.12611 J17.17009
G2 X-98.33404 Y-53.37279 I-1.16212 J7.97292
G1 X-98.42774 Y-53.3743
G2 X-98.92696 Y-53.34002 I-0.03647 J3.1209
G2 X-99.12485 Y-53.29048 I0.18995 J1.17889
G2 X-99.37116 Y-53.17377 I0.54946 J1.47788
G2 X-99.75256 Y-52.89821 I1.37462 J2.3043
G3 X-99.76773 Y-52.8851 I-8.76973 J-10.13172
G2 X-100.20256 Y-52.44008 I2.3939 J2.77406
G3 X-100.21703 Y-52.42254 I-10.34478 J-8.51736
G2 X-100.575 Y-51.9072 I2.90326 J2.39867
G1 X-100.57574 Y-51.90591
G2 X-100.76459 Y-51.5054 I2.30652 J1.33233
G2 X-100.81994 Y-51.29902 I1.27711 J0.45313
G2 X-100.82655 Y-51.2007 I0.60282 J0.08989
G1 X-100.82654 Y-51.20008
G2 X-100.80754 Y-51.00961 I1.11896 J-0.01543
G3 X-100.80472 Y-50.99452 I-13.17123 J2.46552
G2 X-100.72401 Y-50.66488 I2.96833 J-0.55212
G3 X-100.7214 Y-50.65634 I-12.81581 J3.91344
G2 X-100.67993 Y-50.52791 I3.88066 J-1.18217
G2 X-100.40103 Y-49.8631 I5.37742 J-1.86507
G3 X-100.39288 Y-49.84666 I-12.00352 J5.95612
G2 X-99.97872 Y-49.1211 I6.30184 J-3.11622
G3 X-99.97331 Y-49.11281 I-11.22224 J7.32266
G2 X-99.45865 Y-48.40964 I6.71092 J-4.3719
G1 X-99.41038 Y-48.35158
G1 X-99.38826 Y-48.32539
G1 X-99.28074 Y-48.20107
G1 X-99.24664 Y-48.16266
G1 X-99.14496 Y-48.05092
G2 X-98.86245 Y-47.7626 I5.9005 J-5.49907
G3 X-98.85264 Y-47.75306 I-9.33347 J9.61491
G2 X-98.28895 Y-47.2551 I5.46425 J-5.61753
G3 X-98.23852 Y-47.2145 I-8.37943 J10.45682
G3 X-98.19094 Y-47.17661 I-8.32375 J10.5012
G3 X-98.17131 Y-47.16122 I-8.2576 J10.55329
G2 X-97.38378 Y-46.59089 I7.69379 J-9.7951
G1 X-97.18736 Y-46.46092
G2 X-96.26933 Y-45.89288 I12.35597 J-18.94294
G1 X-95.84389 Y-45.64645
G1 X-95.42091 Y-45.40814
G1 X-94.95672 Y-45.15296
G2 X-94.05401 Y-44.67138 I34.85704 J-64.25186
G1 X-93.45792 Y-44.36102
G1 X-92.85169 Y-44.0497
G3 X-92.85099 Y-44.04934 I-6.07054 J11.94607
G1 X-92.4222 Y-43.83141
G1 X-91.84486 Y-43.54025
G3 X-91.83676 Y-43.53619 I-5.99452 J11.98439
G1 X-91.51932 Y-43.37714
G1 X-91.21452 Y-43.22502
G1 X-90.59656 Y-42.91825
G1 X-89.31784 Y-42.28981
G2 X-87.46251 Y-41.39299 I91.35281 J-186.6231
G3 X-87.45558 Y-41.38968 I-5.77174 J12.09326
G1 X-87.33436 Y-41.33174
G1 X-86.64429 Y-41.00351
G2 X-83.82968 Y-39.69724 I79.10334 J-166.75848
G3 X-83.8192 Y-39.69248 I-5.53868 J12.20176
G2 X-81.42125 Y-38.62904 I56.85274 J-124.96187
G1 X-81.42049 Y-38.62871
G1 X-81.42206 Y-38.62939
G1 X-81.42125 Y-38.62904
G1 X-81.24575 Y-38.55323
G3 X-81.16539 Y-38.51821 I-5.31346 J12.30151
G2 X-80.9751 Y-38.43649 I4.81802 J-10.95702
G3 X-80.88011 Y-38.39624 I-5.18079 J12.35797
G2 X-77.84191 Y-37.14299 I48.15882 J-112.43954
G2 X-76.49087 Y-36.61608 I51.3318 J-129.62614
G1 X-76.0258 Y-36.43907
G1 X-75.77345 Y-36.34393
G1 X-75.48991 Y-36.23784
G1 X-74.98548 Y-36.05186
G1 F300.0 X-75.53897 Y-34.55064
G1 F800.0 X-75.20815 Y-34.42867
G2 X-73.60933 Y-33.85818 I36.94319 J-101.00848
G3 X-73.57825 Y-33.84732 I-3.87777 J11.14463
G2 X-71.967 Y-33.29669 I33.81683 J-96.32221
G3 X-71.94538 Y-33.28948 I-3.72261 J11.19742
G2 X-69.76582 Y-32.58022 I43.90524 J-131.21775
G1 X-69.45261 Y-32.48142
G1 X-68.59253 Y-32.21383
G1 X-68.13227 Y-32.07281
G1 X-67.99176 Y-32.03006
G1 X-67.36141 Y-31.83996
G1 X-66.94854 Y-31.71688
G1 X-66.72131 Y-31.64962
G1 X-66.08522 Y-31.46308
G1 X-65.22709 Y-31.21531
G1 X-64.90082 Y-31.12224
G1 X-64.55614 Y-31.02457
G3 X-64.45437 Y-30.99524 I-3.21709 J11.35299
G3 X-64.36762 Y-30.97141 I-3.08236 J11.39031
G1 X-63.43671 Y-30.71186
G1 X-63.19427 Y-30.64499
G1 X-62.49561 Y-30.45394
G1 X-62.32162 Y-30.40673
G1 X-61.90779 Y-30.29502
G1 X-60.71663 Y-29.97783
G1 X-59.526 Y-29.6668
G1 X-58.72998 Y-29.46203
G1 X-58.6453 Y-29.44039
G1 X-57.48954 Y-29.14784
G1 X-56.33926 Y-28.86163
G1 X-55.57165 Y-28.67339
G1 X-55.48944 Y-28.65337
G1 X-54.47864 Y-28.40935
G1 X-54.16667 Y-28.33487
G1 X-52.82259 Y-28.0188
G1 X-52.45817 Y-27.93452
G1 X-52.05119 Y-27.84117
G1 X-51.92129 Y-27.81155
G1 X-51.7498 Y-27.77258
G1 X-51.00678 Y-27.60552
G3 X-50.92659 Y-27.5872 I-2.58849 J11.51259
G3 X-50.84213 Y-27.56893 I-2.45256 J11.54231
G1 X-50.28655 Y-27.44662
G1 X-49.56372 Y-27.29026
G1 X-48.85671 Y-27.14058
G1 X-48.14151 Y-26.99264
G1 X-47.95109 Y-26.95387
G1 X-47.72176 Y-26.90754
G1 X-47.46869 Y-26.85689
G1 X-46.76756 Y-26.71917
G1 X-45.80662 Y-26.53664
G3 X-45.7839 Y-26.5323 I-2.20201 J11.59272
G3 X-45.64438 Y-26.50643 I-2.08216 J11.61484
G3 X-45.48498 Y-26.47705 I-2.05869 J11.61903
G3 X-45.42186 Y-26.46584 I-2.03175 J11.62377
G1 X-44.95071 Y-26.38085
G1 X-44.33694 Y-26.27295
G1 X-43.99261 Y-26.21386
G2 X-41.37758 Y-25.79981 I20.26693 J-119.53619
G3 X-41.34019 Y-25.79425 I-1.71799 J11.67427
G3 X-41.25416 Y-25.78169 I-1.66222 J11.68234
G3 X-41.21645 Y-25.77629 I-1.65207 J11.68378
G2 X-40.15559 Y-25.62731 I18.38697 J-127.07605
G1 X-40.29427 Y-25.69363
G3 X-40.34249 Y-25.71683 I5.09134 J-10.6451
G1 X-41.45404 Y-26.25467
G3 X-41.507 Y-26.28046 I5.13956 J-10.62191
G1 X-42.61588 Y-26.82385
G3 X-42.65646 Y-26.84384 I5.19252 J-10.59612
G1 X-43.39428 Y-27.20891
G3 X-43.42417 Y-27.22375 I5.2331 J-10.57613
G1 X-44.14591 Y-27.58342
G3 X-44.1738 Y-27.59736 I5.26299 J-10.56129
G1 X-44.89466 Y-27.95897
G3 X-44.93377 Y-27.97868 I5.29087 J-10.54735
G1 X-46.3727 Y-28.70719
G3 X-46.42011 Y-28.73132 I5.32997 J-10.52765
G1 X-47.74004 Y-29.40707
G3 X-47.78502 Y-29.43023 I5.37738 J-10.50352
G1 X-49.10212 Y-30.11167
G3 X-49.12835 Y-30.12528 I5.42236 J-10.48036
G1 X-49.30376 Y-30.21659
G3 X-49.32666 Y-30.22855 I5.44859 J-10.46675
G1 X-50.38622 Y-30.78307
G3 X-50.42804 Y-30.80505 I5.47149 J-10.4548
G1 X-51.48544 Y-31.36385
G3 X-51.51428 Y-31.37914 I5.5133 J-10.43281
G1 X-51.81595 Y-31.53963
G3 X-51.83041 Y-31.54733 I5.54214 J-10.41752
G1 X-52.17493 Y-31.73124
G3 X-52.20732 Y-31.74859 I5.55659 J-10.40982
G1 X-53.23843 Y-32.30311
G3 X-53.29031 Y-32.33118 I5.58898 J-10.39247
G1 X-54.31858 Y-32.89082
G3 X-54.36477 Y-32.91609 I5.64085 J-10.3644
G1 X-55.04864 Y-33.29225
G3 X-55.07606 Y-33.30738 I5.68704 J-10.33913
G1 X-55.36596 Y-33.46785
G3 X-55.38267 Y-33.47711 I5.71446 J-10.324
G1 X-55.67234 Y-33.63806
G3 X-55.69783 Y-33.65227 I5.73116 J-10.31474
G1 X-56.19939 Y-33.93257
G3 X-56.36671 Y-34.02551 I6.30366 J-11.54531
G3 X-56.5574 Y-34.13362 I6.40732 J-11.52426
G1 X-56.91353 Y-34.33447
G3 X-56.94466 Y-34.35209 I5.79665 J-10.27808
G1 X-57.44566 Y-34.63665
G3 X-57.71905 Y-34.79255 I6.29983 J-11.36488
G1 X-57.97891 Y-34.94126
G3 X-58.02003 Y-34.9649 I5.86088 J-10.24159
G1 X-59.00761 Y-35.53534
G3 X-59.068 Y-35.57046 I5.90199 J-10.21795
G1 X-60.05218 Y-36.14673
G3 X-60.10118 Y-36.17558 I5.96238 J-10.18283
G1 X-60.75547 Y-36.56294
G3 X-60.77961 Y-36.57726 I6.01138 J-10.15398
G1 X-60.95386 Y-36.68098
G3 X-60.97881 Y-36.69588 I6.03551 J-10.13965
G1 X-61.68659 Y-37.11954
G3 X-61.72502 Y-37.14264 I6.06046 J-10.12476
G1 X-62.43113 Y-37.56895
G3 X-62.46134 Y-37.58726 I6.0989 J-10.10166
G1 X-62.93127 Y-37.8729
G3 X-62.94928 Y-37.88387 I6.12911 J-10.08335
G1 X-63.21755 Y-38.04759
G3 X-63.2401 Y-38.06139 I6.14712 J-10.07238
G1 X-63.95439 Y-38.49951
G3 X-63.97646 Y-38.51309 I6.16967 J-10.05859
G1 X-64.28736 Y-38.70473
G3 X-64.29979 Y-38.7124 I6.19175 J-10.04501
G1 X-64.61048 Y-38.90444
G3 X-64.62031 Y-38.91052 I6.20417 J-10.03734
G1 X-64.82735 Y-39.03877
G3 X-64.83603 Y-39.04416 I6.214 J-10.03126
G1 X-65.11191 Y-39.21539
G3 X-65.13381 Y-39.22901 I6.22268 J-10.02588
G1 X-66.23576 Y-39.91629
G3 X-66.25957 Y-39.93118 I6.24458 J-10.01226
G1 X-66.99318 Y-40.39116
G3 X-67.01521 Y-40.40501 I6.26838 J-9.99737
G1 X-70.01824 Y-42.29715
G1 X-70.51257 Y-42.60849
G1 X-71.00068 Y-42.91545
G1 X-71.99196 Y-43.53679
G3 X-72.09776 Y-43.60388 I6.26695 J-9.99827
G2 X-72.13815 Y-43.62911 I-1.04931 J1.63523
G3 X-72.24445 Y-43.69447 I6.12745 J-10.08436
G1 X-72.99059 Y-44.15871
G1 X-73.8885 Y-44.71333
G1 X-74.7835 Y-45.26072
G1 X-75.37717 Y-45.62032
G1 X-75.52361 Y-45.70853
G1 X-75.89813 Y-45.93324
G3 X-75.92468 Y-45.94921 I6.07096 J-10.11847
G2 X-76.54598 Y-46.31869 I-28.57715 J47.34726
G3 X-76.55493 Y-46.32394 I5.96494 J-10.18133
G1 X-77.30383 Y-46.76359
G2 X-78.65041 Y-47.53668 I-48.10978 J82.23814
G3 X-78.66402 Y-47.54437 I5.79161 J-10.28092
G2 X-80.63105 Y-48.62639 I-48.26542 J85.41313
G1 X-81.31724 Y-48.98904
G1 X-81.71009 Y-49.19304
G1 X-82.12261 Y-49.4043
G1 X-82.22998 Y-49.45878
G2 X-83.12275 Y-49.90357 I-35.48121 J70.09932
G1 X-83.77966 Y-50.22145
G1 X-83.82454 Y-50.24287
G1 X-84.23752 Y-50.43821
G1 X-84.65004 Y-50.63027
G1 X-84.74163 Y-50.67247
G2 X-85.66485 Y-51.08916 I-54.66811 J119.89129
G1 X-86.31853 Y-51.37497
G2 X-88.53852 Y-52.28885 I-27.41615 J63.44609
G1 X-88.68723 Y-52.347
G1 X-89.1915 Y-52.54148
G1 X-89.3183 Y-52.5897
G1 X-89.99549 Y-52.84261
G1 X-90.1626 Y-52.90384
G1 X-90.23821 Y-52.93137
G1 X-90.78403 Y-53.12712
G1 X-91.06773 Y-53.22683
G1 X-91.42408 Y-53.34999
G1 X-91.51145 Y-53.37982
G1 X-91.99035 Y-53.54073
G1 X-92.27948 Y-53.63573
G1 X-92.67641 Y-53.76329
G1 X-93.23397 Y-53.93685
G1 X-93.36783 Y-53.97749
G1 X-93.3688 Y-53.97778
G2 X-95.30207 Y-54.50786 I-10.69183 J35.2045
G1 X-95.44891 Y-54.54306
G3 X-95.45482 Y-54.54448 I2.75123 J-11.47479
G2 X-97.16855 Y-54.87497 I-4.49996 J18.7258
G2 X-98.29894 Y-54.97243 I-1.39327 J9.55613
G1 X-98.4051 Y-54.97414
G2 X-99.17189 Y-54.92117 I-0.0591 J4.72075
G2 X-99.66425 Y-54.79688 I0.43488 J2.76004
G2 X-100.18514 Y-54.55126 I1.08886 J2.98428
G2 X-100.79969 Y-54.10797 I2.18859 J3.68179
G3 X-100.81305 Y-54.09643 I-7.7226 J-8.92196
G2 X-101.43776 Y-53.45708 I3.43922 J3.98539
G3 X-101.4505 Y-53.44164 I-9.10958 J-7.50037
G2 X-101.96055 Y-52.70734 I4.13673 J3.41776
G1 X-101.96121 Y-52.70621
G2 X-102.26772 Y-52.05375 I3.69199 J2.13263
G2 X-102.39755 Y-51.56623 I2.78024 J1.00148
G2 X-102.42639 Y-51.17857 I2.18044 J0.3571
G1 X-102.42638 Y-51.17802
G2 X-102.38022 Y-50.71522 I2.71881 J-0.03749
G3 X-102.37774 Y-50.70193 I-11.59854 J2.17113
G2 X-102.25425 Y-50.1976 I4.54135 J-0.84471
G3 X-102.25196 Y-50.19008 I-11.28557 J3.44616
G2 X-102.19284 Y-50.00722 I5.41122 J-1.64843
G2 X-101.83428 Y-49.15192 I6.89033 J-2.38575
G3 X-101.82711 Y-49.13745 I-10.57027 J5.24494
G2 X-101.31869 Y-48.24675 I7.73607 J-3.82543
G3 X-101.31393 Y-48.23945 I-9.88227 J6.44831
G2 X-100.69258 Y-47.39108 I8.05153 J-5.24526
G1 X-100.63675 Y-47.32393
G1 X-100.60455 Y-47.28581
G1 X-100.48409 Y-47.14653
G1 X-100.43661 Y-47.09305
G1 X-100.32225 Y-46.96737
G2 X-99.97689 Y-46.61455 I7.07779 J-6.58262
G3 X-99.96825 Y-46.60615 I-8.21902 J8.46686
G2 X-99.28948 Y-46.00653 I6.57986 J-6.76444
G3 X-99.23876 Y-45.96566 I-7.3789 J9.20825
G3 X-99.18375 Y-45.92185 I-7.3235 J9.25237
G3 X-99.15964 Y-45.90296 I-7.2648 J9.29853
G2 X-98.26877 Y-45.25793 I8.68212 J-11.05336
G1 X-98.06597 Y-45.12373
G2 X-97.07484 Y-44.51043 I13.23458 J-20.28013
G1 X-96.63759 Y-44.25716
G1 X-96.19902 Y-44.01006
G1 X-95.72362 Y-43.74872
G2 X-94.79505 Y-43.25333 I35.62394 J-65.6561
G1 X-94.19283 Y-42.93978
G1 X-93.57947 Y-42.6248
G3 X-93.57591 Y-42.62299 I-5.34276 J10.52117
G1 X-93.1449 Y-42.40393
G1 X-92.56384 Y-42.11089
G3 X-92.56292 Y-42.11042 I-5.31354 J10.53595
G3 X-92.55349 Y-42.1057 I-5.27646 J10.55457
G1 X-92.23494 Y-41.9461
G1 X-91.92749 Y-41.79265
G1 X-91.30513 Y-41.4837
G1 X-90.02243 Y-40.8533
G2 X-88.15167 Y-39.94902 I92.0574 J-188.05961
G3 X-88.14557 Y-39.94611 I-5.08258 J10.64929
G1 X-88.02299 Y-39.88751
G1 X-87.3308 Y-39.55827
G2 X-84.49101 Y-38.24031 I79.78984 J-168.20372
G3 X-84.48179 Y-38.23612 I-4.87735 J10.74484
G2 X-82.05579 Y-37.16024 I57.51532 J-126.41822
G1 X-82.05512 Y-37.15995
G1 X-82.0565 Y-37.16055
G1 X-82.05579 Y-37.16024
G1 X-81.88019 Y-37.0844
G3 X-81.80943 Y-37.05355 I-4.67901 J10.83267
G2 X-81.5937 Y-36.96092 I5.46206 J-12.42168
G3 X-81.51005 Y-36.92547 I-4.56219 J10.88239
G2 X-78.43156 Y-35.6556 I48.78877 J-113.91031
G2 X-77.06224 Y-35.12158 I51.92144 J-131.11352
G1 X-76.59259 Y-34.94282
G1 X-76.33601 Y-34.84609
G1 X-76.04701 Y-34.73796
G1 X-75.53897 Y-34.55064
G1 F300.0 X-76.09246 Y-33.04943
G1 F800.0 X-75.75969 Y-32.92674
G2 X-74.13513 Y-32.34704 I37.49474 J-102.51042
G3 X-74.10827 Y-32.33765 I-3.35197 J9.6335
G2 X-72.47176 Y-31.77839 I34.34685 J-97.83188
G3 X-72.45308 Y-31.77216 I-3.21785 J9.67913
G2 X-70.24773 Y-31.05452 I44.41293 J-132.73506
G1 X-69.93093 Y-30.95459
G1 X-69.06455 Y-30.68504
G1 X-68.59947 Y-30.54254
G1 X-68.45559 Y-30.49877
G1 X-67.82095 Y-30.30738
G1 X-67.40416 Y-30.18312
G1 X-67.17349 Y-30.11484
G1 X-66.53226 Y-29.9268
G1 X-65.66846 Y-29.6774
G1 X-65.33839 Y-29.58324
G1 X-64.99236 Y-29.48518
G3 X-64.90006 Y-29.45856 I-2.78088 J9.8136
G2 X-64.87666 Y-29.45196 I0.31553 J-1.07479
G3 X-64.79733 Y-29.43019 I-2.66006 J9.84703
G1 X-63.86427 Y-29.17004
G1 X-63.618 Y-29.10212
G1 X-62.91613 Y-28.91019
G1 X-62.73959 Y-28.86229
G1 X-62.32212 Y-28.7496
G1 X-61.12469 Y-28.43073
G1 X-59.9275 Y-28.11799
G1 X-59.12733 Y-27.91215
G1 X-59.03965 Y-27.88975
G1 X-57.87902 Y-27.59596
G1 X-56.72296 Y-27.30831
G1 X-55.95149 Y-27.11913
G1 X-55.86649 Y-27.09843
G1 X-54.85214 Y-26.85355
G1 X-54.53557 Y-26.77798
G1 X-53.18599 Y-26.46061
G1 X-52.81729 Y-26.37534
G1 X-52.4079 Y-26.28144
G1 X-52.2764 Y-26.25145
G1 X-52.10255 Y-26.21195
G1 X-51.35776 Y-26.04449
G3 X-51.27383 Y-26.02525 I-2.23751 J9.95156
G3 X-51.18613 Y-26.00635 I-2.10532 J9.98036
G1 X-50.6277 Y-25.88341
G1 X-49.89856 Y-25.72568
G1 X-49.18445 Y-25.5745
G1 X-48.46316 Y-25.4253
G1 X-48.26909 Y-25.38579
G1 X-48.03716 Y-25.33894
G1 X-47.77989 Y-25.28745
G1 X-47.07105 Y-25.14821
G1 X-46.1052 Y-24.96475
G3 X-46.0759 Y-24.95914 I-1.90343 J10.02083
G3 X-45.93459 Y-24.93292 I-1.79016 J10.04168
G3 X-45.77312 Y-24.90315 I-1.76848 J10.04552
G3 X-45.70591 Y-24.89126 I-1.74361 J10.04987
G1 X-45.23125 Y-24.80563
G1 X-44.61076 Y-24.69655
G1 X-44.26166 Y-24.63664
G2 X-41.61053 Y-24.21686 I20.53597 J-121.11341
G3 X-41.5719 Y-24.2111 I-1.48504 J10.09132
G3 X-41.48469 Y-24.19836 I-1.43051 J10.09919
G3 X-41.44557 Y-24.19278 I-1.42154 J10.10046
G2 X-39.28085 Y-23.89811 I18.61609 J-128.65956
G1 X-38.54113 Y-23.80618
G1 X-37.71258 Y-23.70806
G1 X-36.82274 Y-23.60844
G1 X-36.25019 Y-23.54721
G1 X-35.92678 Y-23.51362
G1 X-35.55121 Y-23.47549
G2 X-32.84349 Y-23.22647 I19.61127 J-198.39859
G3 X-32.81021 Y-23.22358 I-0.86482 J10.16327
G3 X-32.72137 Y-23.21615 I-0.80574 J10.16813
G3 X-32.62965 Y-23.20852 I-0.79924 J10.16864
G3 X-32.53494 Y-23.2007 I-0.79255 J10.16916
G3 X-32.5186 Y-23.19942 I-0.78566 J10.1697
G1 X-31.31559 Y-23.10454
G1 X-30.92833 Y-23.07559
G3 X-30.91927 Y-23.07491 I-0.76045 J10.17161
G2 X-30.5037 Y-23.04413 I9.8205 J-129.8027
G3 X-33.1561 Y-24.17417 I67.56182 J-162.25805
G3 X-33.1613 Y-24.17643 I4.07474 J-9.35075
G3 X-35.47403 Y-25.20607 I68.92586 J-157.93185
G3 X-35.49185 Y-25.21418 I4.21684 J-9.28753
G1 X-36.21403 Y-25.54374
G3 X-36.23988 Y-25.55558 I4.23465 J-9.27942
G1 X-36.41897 Y-25.63791
G3 X-37.3661 Y-26.07695 I36.53014 J-80.04837
G1 X-38.21369 Y-26.47479
G3 X-38.2492 Y-26.49155 I4.33406 J-9.23341
G1 X-38.81684 Y-26.76066
G3 X-38.84826 Y-26.77562 I4.36957 J-9.21666
G1 X-39.60392 Y-27.13704
G3 X-39.6456 Y-27.15709 I4.40099 J-9.2017
G1 X-40.75715 Y-27.69493
G3 X-40.80293 Y-27.71722 I4.44267 J-9.18165
G1 X-41.91181 Y-28.26062
G3 X-41.94689 Y-28.27789 I4.48845 J-9.15936
G1 X-42.68471 Y-28.64297
G3 X-42.71054 Y-28.65579 I4.52353 J-9.14208
G1 X-43.43229 Y-29.01546
G3 X-43.45639 Y-29.02751 I4.54936 J-9.12925
G1 X-44.17726 Y-29.38912
G3 X-44.21106 Y-29.40615 I4.57347 J-9.1172
G1 X-45.65 Y-30.13467
G3 X-45.69097 Y-30.15553 I4.60727 J-9.10017
G1 X-47.0109 Y-30.83128
G3 X-47.04979 Y-30.85129 I4.64824 J-9.07931
G1 X-48.36688 Y-31.53273
G3 X-48.38955 Y-31.5445 I4.68712 J-9.0593
G1 X-48.56497 Y-31.63581
G3 X-48.58477 Y-31.64615 I4.70979 J-9.04753
G1 X-49.64433 Y-32.20067
G3 X-49.68047 Y-32.21967 I4.72959 J-9.0372
G1 X-50.73788 Y-32.77847
G3 X-50.7628 Y-32.79168 I4.76574 J-9.01819
G1 X-51.06448 Y-32.95218
G3 X-51.07697 Y-32.95883 I4.79066 J-9.00497
G1 X-51.4215 Y-33.14274
G3 X-51.44949 Y-33.15774 I4.80315 J-8.99832
G1 X-52.48061 Y-33.71226
G3 X-52.52545 Y-33.73652 I4.83115 J-8.98332
G1 X-53.55372 Y-34.29616
G3 X-53.59365 Y-34.31801 I4.87599 J-8.95906
G1 X-54.27752 Y-34.69417
G3 X-54.30122 Y-34.70725 I4.91592 J-8.93721
G1 X-54.59112 Y-34.86771
G3 X-54.60556 Y-34.87572 I4.93962 J-8.92414
G1 X-54.89523 Y-35.03667
G3 X-54.91727 Y-35.04895 I4.95406 J-8.91613
G1 X-55.42594 Y-35.33323
G3 X-55.58441 Y-35.42123 I5.53021 J-10.14465
G3 X-55.76384 Y-35.52298 I5.62501 J-10.12854
G1 X-56.12754 Y-35.72811
G3 X-56.15445 Y-35.74334 I5.01066 J-8.88444
G1 X-56.66291 Y-36.03214
G3 X-56.91675 Y-36.17689 I5.51709 J-9.96939
G1 X-57.18422 Y-36.32995
G3 X-57.21976 Y-36.35039 I5.06618 J-8.8529
G1 X-58.20734 Y-36.92082
G3 X-58.25954 Y-36.95118 I5.10172 J-8.83247
G1 X-59.24372 Y-37.52745
G3 X-59.28608 Y-37.55239 I5.15392 J-8.80211
G1 X-59.94037 Y-37.93975
G3 X-59.96123 Y-37.95213 I5.19628 J-8.77717
G1 X-60.13549 Y-38.05585
G3 X-60.15705 Y-38.06873 I5.21714 J-8.76479
G1 X-60.86483 Y-38.49239
G3 X-60.89806 Y-38.51236 I5.2387 J-8.75191
G1 X-61.60416 Y-38.93867
G3 X-61.63027 Y-38.95449 I5.27193 J-8.73194
G1 X-62.1002 Y-39.24013
G3 X-62.11577 Y-39.24961 I5.29804 J-8.71612
G1 X-62.38404 Y-39.41334
G3 X-62.40354 Y-39.42527 I5.31361 J-8.70664
G1 X-63.11782 Y-39.86339
G3 X-63.1369 Y-39.87513 I5.3331 J-8.69471
G1 X-63.4478 Y-40.06676
G3 X-63.45855 Y-40.07339 I5.35219 J-8.68298
G1 X-63.76924 Y-40.26544
G3 X-63.77773 Y-40.27069 I5.36293 J-8.67635
G1 X-63.98477 Y-40.39895
G3 X-63.99228 Y-40.4036 I5.37142 J-8.67109
G1 X-64.26816 Y-40.57483
G3 X-64.28708 Y-40.5866 I5.37893 J-8.66644
G1 X-65.38904 Y-41.27389
G3 X-65.40962 Y-41.28675 I5.39785 J-8.65466
G1 X-66.14323 Y-41.74673
G3 X-66.16228 Y-41.7587 I5.41843 J-8.64179
G1 X-69.16543 Y-43.65093
G1 X-69.66035 Y-43.96264
G1 X-70.14992 Y-44.27051
G1 X-71.14221 Y-44.89248
G3 X-71.23366 Y-44.95048 I5.41719 J-8.64257
G2 X-71.30731 Y-44.99648 I-1.91341 J2.98183
G3 X-71.3992 Y-45.05298 I5.29661 J-8.71699
G1 X-72.14755 Y-45.5186
G1 X-73.05068 Y-46.07644
G1 X-73.95162 Y-46.62747
G1 X-74.5499 Y-46.98985
G1 X-74.69921 Y-47.0798
G1 X-75.07495 Y-47.30523
G3 X-75.0979 Y-47.31904 I5.24778 J-8.74647
G2 X-75.73717 Y-47.69921 I-29.40393 J48.71709
G3 X-75.74491 Y-47.70375 I5.15614 J-8.80081
G1 X-76.49486 Y-48.14401
G2 X-77.86511 Y-48.93071 I-48.91875 J83.61856
G3 X-77.87688 Y-48.93735 I5.00631 J-8.8869
G2 X-79.87972 Y-50.03902 I-49.05256 J86.80611
G1 X-80.57475 Y-50.40634
G1 X-80.97675 Y-50.61508
G1 X-81.3959 Y-50.82975
G1 X-81.50666 Y-50.88595
G2 X-82.42211 Y-51.34202 I-36.20453 J71.52648
G1 X-83.0865 Y-51.66351
G1 X-83.13778 Y-51.68799
G1 X-83.5578 Y-51.88666
G1 X-83.9776 Y-52.0821
G1 X-84.07492 Y-52.12695
G2 X-85.01806 Y-52.55262 I-55.33482 J121.34577
G1 X-85.68068 Y-52.84234
G2 X-87.95554 Y-53.77886 I-28.054 J64.91345
G1 X-88.10801 Y-53.83848
G1 X-88.61927 Y-54.03566
G1 X-88.75406 Y-54.08692
G1 X-89.44034 Y-54.34322
G1 X-89.6137 Y-54.40675
G1 X-89.69448 Y-54.43615
G1 X-90.24871 Y-54.63492
G1 X-90.54114 Y-54.73769
G1 X-90.90426 Y-54.8632
G1 X-90.99818 Y-54.89527
G1 X-91.48582 Y-55.05911
G1 X-91.78498 Y-55.15741
G1 X-92.19386 Y-55.28881
G1 X-92.76378 Y-55.46621
G1 X-92.903 Y-55.50848
G1 X-92.90384 Y-55.50874
G2 X-94.92514 Y-56.06283 I-11.15679 J36.73545
G1 X-95.07586 Y-56.09897
G3 X-95.08097 Y-56.10019 I2.37818 J-9.91888
G2 X-96.93738 Y-56.45818 I-4.87381 J20.28151
G2 X-98.26458 Y-56.57208 I-1.62443 J11.13935
G1 X-98.38196 Y-56.57398
G2 X-99.41614 Y-56.50242 I-0.08225 J6.32058
G2 X-100.20406 Y-56.30309 I0.67913 J4.3413
G2 X-100.99938 Y-55.92858 I1.62867 J4.49049
G2 X-101.84683 Y-55.31772 I3.00284 J5.05911
G3 X-101.85837 Y-55.30775 I-6.67547 J-7.71221
G2 X-102.67296 Y-54.47408 I4.48455 J5.19671
G3 X-102.68397 Y-54.46073 I-7.87439 J-6.48337
G2 X-103.34611 Y-53.50749 I5.3702 J4.43685
G1 X-103.34668 Y-53.5065
G2 X-103.77058 Y-52.60279 I5.07746 J2.93293
G2 X-103.97485 Y-51.83496 I4.2831 J1.55053
G2 X-104.02624 Y-51.15643 I3.75773 J0.62583
G1 X-104.02623 Y-51.15596
G2 X-103.95291 Y-50.42083 I4.31866 J-0.05955
G3 X-103.95076 Y-50.40934 I-10.02586 J1.87674
G2 X-103.7845 Y-49.73032 I6.11437 J-1.1373
G3 X-103.78252 Y-49.72383 I-9.75532 J2.97888
G2 X-103.70572 Y-49.48644 I6.94178 J-2.11469
G2 X-103.26754 Y-48.44074 I8.40321 J-2.90653
G3 X-103.26134 Y-48.42823 I-9.13701 J4.53377
G2 X-102.65866 Y-47.3724 I9.1703 J-4.53465
G3 X-102.65454 Y-47.36609 I-8.5423 J5.57396
G2 X-101.92622 Y-46.37218 I9.39215 J-6.11861
G1 X-101.86312 Y-46.29628
G1 X-101.82084 Y-46.24623
G1 X-101.68743 Y-46.09198
G1 X-101.62658 Y-46.02344
G1 X-101.50003 Y-45.88436
G2 X-101.09134 Y-45.4665 I8.25557 J-7.66563
G3 X-101.08387 Y-45.45924 I-7.10458 J7.31881
G2 X-100.29 Y-44.75795 I7.69548 J-7.91135
G3 X-100.23901 Y-44.71682 I-6.37837 J7.95967
G3 X-100.17655 Y-44.66708 I-6.32326 J8.00353
G3 X-100.14796 Y-44.6447 I-6.27199 J8.04376
G2 X-99.15364 Y-43.92488 I9.67044 J-12.31162
G1 X-98.94472 Y-43.78664
G2 X-97.88023 Y-43.12791 I14.11334 J-21.61722
G1 X-97.43129 Y-42.86787
G1 X-96.97713 Y-42.61198
G1 X-96.49057 Y-42.34451
G2 X-95.53607 Y-41.83527 I36.39088 J-67.06031
G1 X-94.92775 Y-41.51854
G1 X-94.30704 Y-41.19978
G3 X-94.30084 Y-41.19663 I-4.6152 J9.09615
G1 X-93.86761 Y-40.97645
G1 X-93.28432 Y-40.68229
G3 X-93.28095 Y-40.68058 I-4.59306 J9.10735
G3 X-93.27022 Y-40.67522 I-4.55843 J9.12473
G1 X-92.95056 Y-40.51505
G1 X-92.64045 Y-40.36028
G1 X-92.01371 Y-40.04916
G1 X-90.72702 Y-39.41679
G2 X-88.84083 Y-38.50505 I92.76199 J-189.49612
G3 X-88.83556 Y-38.50253 I-4.39341 J9.20532
G1 X-88.71161 Y-38.44329
G1 X-88.0173 Y-38.11303
G2 X-85.15235 Y-36.78338 I80.47634 J-169.64896
G3 X-85.14437 Y-36.77976 I-4.21601 J9.28791
G2 X-82.69033 Y-35.69145 I58.17791 J-127.87458
G1 X-82.68975 Y-35.69119
G1 X-82.69094 Y-35.69171
G1 X-82.69033 Y-35.69145
G1 X-82.51463 Y-35.61556
G3 X-82.45346 Y-35.5889 I-4.04457 J9.36384
G2 X-82.21231 Y-35.48534 I6.10609 J-13.88633
G3 X-82.14 Y-35.4547 I-3.94359 J9.40681
G2 X-79.02121 Y-34.16821 I49.41871 J-115.38109
G2 X-77.6336 Y-33.62707 I52.51109 J-132.60091
G1 X-77.15938 Y-33.44657
G1 X-76.89857 Y-33.34825
G1 X-76.60411 Y-33.23807
G1 X-76.09246 Y-33.04943
G1 F300.0 X-76.64595 Y-31.54821
G1 F800.0 X-76.31125 Y-31.42481
G2 X-74.66093 Y-30.83591 I38.0463 J-104.01234
G3 X-74.63828 Y-30.82799 I-2.82617 J8.12236
G2 X-72.97652 Y-30.2601 I34.87686 J-99.34154
G3 X-72.96077 Y-30.25485 I-2.71309 J8.16083
G2 X-70.72963 Y-29.52881 I44.92063 J-134.25238
G1 X-70.40926 Y-29.42776
G1 X-69.53658 Y-29.15625
G1 X-69.06668 Y-29.01227
G1 X-68.91942 Y-28.96747
G1 X-68.2805 Y-28.77479
G1 X-67.85979 Y-28.64936
G1 X-67.62568 Y-28.58007
G1 X-66.9793 Y-28.39052
G1 X-66.10984 Y-28.13948
G1 X-65.77596 Y-28.04423
G1 X-65.42857 Y-27.94579
G3 X-65.35076 Y-27.92335 I-2.34466 J8.27421
G2 X-65.29392 Y-27.90733 I0.76622 J-2.61
G3 X-65.22704 Y-27.88897 I-2.2428 J8.3024
G1 X-64.29184 Y-27.62823
G1 X-64.04172 Y-27.55924
G1 X-63.33664 Y-27.36644
G1 X-63.15757 Y-27.31784
G1 X-62.73646 Y-27.20418
G1 X-61.53275 Y-26.88364
G1 X-60.32901 Y-26.56919
G1 X-59.52468 Y-26.36228
G1 X-59.434 Y-26.33911
G1 X-58.2685 Y-26.04409
G1 X-57.10665 Y-25.755
G1 X-56.33134 Y-25.56488
G1 X-56.24355 Y-25.54349
G1 X-55.22564 Y-25.29776
G1 X-54.90446 Y-25.22108
G1 X-53.54939 Y-24.90242
G1 X-53.17641 Y-24.81616
G1 X-52.76461 Y-24.72171
G1 X-52.63151 Y-24.69136
G1 X-52.45529 Y-24.65132
G1 X-51.70875 Y-24.48346
G3 X-51.62107 Y-24.46327 I-1.88653 J8.39053
G3 X-51.53013 Y-24.44376 I-1.75808 J8.41838
G1 X-50.96884 Y-24.3202
G1 X-50.2334 Y-24.16111
G1 X-49.5122 Y-24.00842
G1 X-48.78481 Y-23.85796
G1 X-48.58709 Y-23.81771
G1 X-48.35257 Y-23.77033
G1 X-48.09109 Y-23.718
G1 X-47.37454 Y-23.57725
G1 X-46.40377 Y-23.39285
