( Made using CamBam - http://www.cambam.co.uk )
( Bollenhut_1 9/21/2019 12:40:29 PM )
( T2 : 2.0 )
G21 G90 G64 G40
G0 Z3.0
( T2 : 2.0 )
T2 M6
( Hut-Profil-2mm )
G17
M3 S1000
G0 X21.52904 Y-19.57937
G0 Z1.0
G1 F300.0 Z-2.0
G1 F800.0 X20.34663 Y-19.646
G3 X20.34523 Y-19.64608 I0.05626 J-0.99842
G1 X20.11527 Y-19.65937
G3 X20.11456 Y-19.65941 I0.05767 J-0.99834
G1 X19.88453 Y-19.67286
G3 X19.88327 Y-19.67293 I0.05838 J-0.99829
G1 X19.42325 Y-19.70042
G3 X19.42019 Y-19.7006 I0.05964 J-0.99822
G1 X18.50043 Y-19.75838
G3 X18.49514 Y-19.75873 I0.0627 J-0.99803
G1 X17.42698 Y-19.83152
G3 X17.4205 Y-19.83198 I0.06798 J-0.99769
G1 X16.35274 Y-19.91171
G3 X16.34821 Y-19.91206 I0.07447 J-0.99722
G3 X14.50327 Y-20.06799 I13.96021 J-176.16418
G3 X14.49969 Y-20.06832 I0.08944 J-0.99599
G1 X13.88866 Y-20.12541
G3 X13.88564 Y-20.12569 I0.09302 J-0.99566
G1 X13.69575 Y-20.14402
G3 X13.69429 Y-20.14416 I0.09604 J-0.99538
G1 X13.50437 Y-20.16276
G3 X13.50215 Y-20.16298 I0.0975 J-0.99524
G1 X13.12243 Y-20.20103
G3 X13.11789 Y-20.2015 I0.09971 J-0.99502
G1 X12.35888 Y-20.28106
G3 X12.35369 Y-20.28161 I0.10425 J-0.99455
G1 X11.84795 Y-20.33729
G3 X11.84294 Y-20.33786 I0.10943 J-0.99399
G1 X11.16895 Y-20.4155
G3 X11.16608 Y-20.41584 I0.11444 J-0.99343
G3 X8.28903 Y-20.79482 I12.71185 J-107.61058
G3 X8.28672 Y-20.79516 I0.14386 J-0.9896
G1 X7.97471 Y-20.84126
G3 X7.97143 Y-20.84176 I0.14618 J-0.98926
G1 X7.65956 Y-20.8889
G3 X7.65451 Y-20.88967 I0.14946 J-0.98877
G1 X7.0375 Y-20.98616
G3 X6.84374 Y-21.01726 I0.86545 J-6.01207
G3 X6.63686 Y-21.0511 I1.90007 J-12.26476
G1 X6.09739 Y-21.14152
G3 X6.09001 Y-21.14278 I0.1653 J-0.98624
G1 X5.36857 Y-21.26926
G3 X5.36272 Y-21.27031 I0.17268 J-0.98498
G3 X3.20414 Y-21.68851 I16.53382 J-91.12056
G3 X3.19775 Y-21.68985 I0.20184 J-0.97942
G1 X2.48868 Y-21.84081
G3 X2.48446 Y-21.84172 I0.20823 J-0.97808
G3 X-0.3094 Y-22.50334 I16.53597 J-76.05608
G3 X-2.38985 Y-23.06205 I21.49875 J-84.20743
G3 X-2.3904 Y-23.06221 I0.27131 J-0.96249
G1 X-2.68325 Y-23.14494
G3 X-2.68628 Y-23.1458 I0.27186 J-0.96234
G1 X-3.02066 Y-23.24139
G3 X-3.02544 Y-23.24277 I0.27488 J-0.96148
G1 X-3.74535 Y-23.45247
G3 X-3.7513 Y-23.45423 I0.27966 J-0.9601
G1 X-4.46191 Y-23.66601
G3 X-4.56819 Y-23.69785 I0.9039 J-3.21068
G3 X-4.68287 Y-23.73272 I0.89805 J-3.1591
G1 X-5.20826 Y-23.89289
G3 X-5.28978 Y-23.9177 I0.67969 J-2.37907
G3 X-5.37426 Y-23.94391 I0.68809 J-2.36803
G1 X-5.69495 Y-24.043
G3 X-5.6967 Y-24.04354 I0.29522 J-0.95543
G1 X-5.97145 Y-24.12899
G3 X-6.08821 Y-24.16515 I0.65959 J-2.33581
G3 X-6.15001 Y-24.18476 I0.59273 J-1.97618
G1 X-6.57977 Y-24.3197
G3 X-6.58262 Y-24.3206 I0.29958 J-0.95407
G1 X-7.46198 Y-24.59961
G3 X-7.46409 Y-24.60028 I0.30242 J-0.95317
G1 X-7.71516 Y-24.68055
G3 X-7.7166 Y-24.68101 I0.30453 J-0.9525
G1 X-8.38583 Y-24.89609
G3 X-8.38869 Y-24.89702 I0.30598 J-0.95204
G1 X-9.97169 Y-25.41104
G3 X-9.97361 Y-25.41167 I0.30884 J-0.95111
G1 X-10.19962 Y-25.48556
G3 X-10.20008 Y-25.48571 I0.31076 J-0.95049
G1 X-10.45834 Y-25.57029
G3 X-10.45922 Y-25.57058 I0.31122 J-0.95034
G1 X-11.14583 Y-25.79613
G3 X-11.95672 Y-26.0638 I24.69173 J-76.16403
G1 X-12.7589 Y-26.33002
G3 X-12.76027 Y-26.33048 I0.31498 J-0.9491
G1 X-13.29604 Y-26.50915
G3 X-13.29744 Y-26.50961 I0.31635 J-0.94864
G1 X-14.01143 Y-26.74888
G3 X-14.01374 Y-26.74966 I0.31775 J-0.94817
G1 X-15.1259 Y-27.12538
G3 X-15.12916 Y-27.12648 I0.32006 J-0.9474
G1 X-16.23996 Y-27.50601
G3 X-16.24309 Y-27.50708 I0.32332 J-0.94629
G1 X-16.98278 Y-27.76255
G3 X-16.98476 Y-27.76323 I0.32644 J-0.94522
G1 X-17.3072 Y-27.87535
G3 X-17.30847 Y-27.87579 I0.32842 J-0.94453
G1 X-17.6308 Y-27.98835
G3 X-17.6319 Y-27.98874 I0.32969 J-0.94409
G1 X-17.84674 Y-28.06404
G3 X-17.84904 Y-28.06485 I0.33078 J-0.94371
G1 X-18.70746 Y-28.3681
G3 X-18.71071 Y-28.36925 I0.33309 J-0.9429
G1 X-19.28233 Y-28.5734
G3 X-19.28558 Y-28.57457 I0.33634 J-0.94174
G1 X-20.04678 Y-28.8494
G3 X-20.05126 Y-28.85103 I0.33959 J-0.94057
G1 X-21.01146 Y-29.20288
G3 X-21.01678 Y-29.20485 I0.34406 J-0.93895
G1 X-21.97494 Y-29.56214
G3 X-21.97961 Y-29.56389 I0.34939 J-0.93698
G1 X-22.61338 Y-29.80383
G3 X-22.97748 Y-29.94287 I6.27694 J-16.98426
G3 X-23.0796 Y-29.9819 I0.87421 J-2.44066
G3 X-23.19191 Y-30.02549 I0.89649 J-2.47585
G1 X-24.20875 Y-30.42123
G3 X-24.28943 Y-30.45275 I0.89171 J-2.40132
G3 X-24.37438 Y-30.48644 I0.92583 J-2.45867
G1 X-24.75734 Y-30.63809
G1 X-24.75744 Y-30.63813
G3 X-26.33449 Y-31.27533 I45.94747 J-115.9892
G3 X-29.48084 Y-32.60818 I63.39261 J-154.02685
G3 X-29.48135 Y-32.6084 I0.39948 J-0.91674
G3 X-31.67061 Y-33.58306 I65.24592 J-149.49989
G3 X-31.67236 Y-33.58385 I0.41342 J-0.91054
G1 X-32.39454 Y-33.91342
G3 X-32.39708 Y-33.91458 I0.41516 J-0.90975
G1 X-32.58812 Y-34.00241
G3 X-33.45212 Y-34.40286 I32.6993 J-71.68387
G1 X-34.30453 Y-34.80297
G3 X-34.30802 Y-34.80461 I0.42491 J-0.90524
G1 X-34.87566 Y-35.07373
G3 X-34.87874 Y-35.07519 I0.42839 J-0.90359
G1 X-35.6344 Y-35.43661
G3 X-35.63848 Y-35.43858 I0.43147 J-0.90213
G1 X-36.75004 Y-35.97642
G3 X-36.75453 Y-35.9786 I0.43556 J-0.90016
G1 X-37.8634 Y-36.522
G3 X-37.86684 Y-36.52369 I0.44004 J-0.89798
G1 X-38.60466 Y-36.88877
G3 X-38.60719 Y-36.89002 I0.44348 J-0.89628
G1 X-39.32894 Y-37.24969
G3 X-39.3313 Y-37.25087 I0.44602 J-0.89502
G1 X-40.05217 Y-37.61248
G3 X-40.05548 Y-37.61415 I0.44838 J-0.89384
G1 X-41.49442 Y-38.34266
G3 X-41.49844 Y-38.34471 I0.45169 J-0.89217
G1 X-42.81838 Y-39.02046
G3 X-42.82219 Y-39.02242 I0.45571 J-0.89013
G1 X-44.13928 Y-39.70386
G3 X-44.1415 Y-39.70502 I0.45952 J-0.88817
G1 X-44.31692 Y-39.79633
G3 X-44.31886 Y-39.79734 I0.46174 J-0.88701
G1 X-45.37842 Y-40.35186
G3 X-45.38196 Y-40.35373 I0.46369 J-0.886
G1 X-46.43937 Y-40.91252
G3 X-46.44181 Y-40.91382 I0.46723 J-0.88414
G1 X-46.74349 Y-41.07431
G3 X-46.74472 Y-41.07496 I0.46967 J-0.88284
G1 X-47.08924 Y-41.25887
G3 X-47.09199 Y-41.26034 I0.4709 J-0.88219
G1 X-48.1231 Y-41.81486
G3 X-48.1275 Y-41.81724 I0.47364 J-0.88072
G1 X-49.15577 Y-42.37688
G3 X-49.15968 Y-42.37902 I0.47804 J-0.87834
G1 X-49.84355 Y-42.75518
G3 X-49.84588 Y-42.75647 I0.48195 J-0.8762
G1 X-50.13578 Y-42.91693
G3 X-50.1372 Y-42.91772 I0.48428 J-0.87492
G1 X-50.42687 Y-43.07867
G3 X-50.42903 Y-43.07987 I0.48569 J-0.87413
G1 X-50.99595 Y-43.3967
G3 X-51.08594 Y-43.44683 I1.10022 J-2.08118
G3 X-51.18245 Y-43.50145 I1.12655 J-2.10294
G1 X-51.60813 Y-43.74153
G3 X-51.61076 Y-43.74302 I0.49124 J-0.87102
G1 X-52.18091 Y-44.06685
G3 X-52.28441 Y-44.1259 I1.03508 J-1.93468
G1 X-52.61472 Y-44.31492
G3 X-52.61821 Y-44.31692 I0.49668 J-0.86793
G1 X-53.60579 Y-44.88736
G3 X-53.61091 Y-44.89034 I0.50017 J-0.86593
G1 X-54.59509 Y-45.46661
G3 X-54.59924 Y-45.46905 I0.50529 J-0.86295
G1 X-55.25354 Y-45.85641
G3 X-55.25558 Y-45.85762 I0.50944 J-0.86051
G1 X-55.42983 Y-45.96135
G3 X-55.43195 Y-45.96261 I0.51148 J-0.85929
G1 X-56.13973 Y-46.38627
G3 X-56.14298 Y-46.38823 I0.5136 J-0.85803
G1 X-56.84908 Y-46.81454
G3 X-56.85165 Y-46.81609 I0.51686 J-0.85607
G1 X-57.32157 Y-47.10173
G3 X-57.3231 Y-47.10266 I0.51942 J-0.85452
G1 X-57.59137 Y-47.26639
G3 X-57.59328 Y-47.26756 I0.52094 J-0.85359
G1 X-58.30757 Y-47.70568
G3 X-58.30944 Y-47.70683 I0.52285 J-0.85242
G1 X-58.62034 Y-47.89847
G3 X-58.62139 Y-47.89912 I0.52472 J-0.85127
G1 X-58.93208 Y-48.09116
G3 X-58.93292 Y-48.09167 I0.52578 J-0.85062
G1 X-59.13996 Y-48.21993
G3 X-59.14069 Y-48.22039 I0.52661 J-0.85011
G1 X-59.41657 Y-48.39161
G3 X-59.41843 Y-48.39277 I0.52735 J-0.84965
G1 X-60.52039 Y-49.08005
G3 X-60.52241 Y-49.08131 I0.5292 J-0.8485
G1 X-61.25602 Y-49.54129
G3 X-61.25789 Y-49.54247 I0.53122 J-0.84723
G1 X-64.26178 Y-51.43516
G1 X-64.76006 Y-51.74898
G1 X-65.25804 Y-52.06215
G1 X-66.25611 Y-52.68774
G3 X-66.26508 Y-52.69343 I0.5311 J-0.84731
G2 X-66.52997 Y-52.85886 I-6.88199 J10.72478
G3 X-66.53898 Y-52.8644 I0.51928 J-0.85461
G1 X-67.30008 Y-53.33795
G1 X-68.2332 Y-53.91432
G1 X-69.16833 Y-54.48626
G1 X-69.79308 Y-54.86467
G1 X-69.95891 Y-54.96457
G1 X-70.34166 Y-55.19421
G3 X-70.3439 Y-55.19556 I0.51449 J-0.8575
G2 X-71.08654 Y-55.6372 I-34.15792 J56.59361
G3 X-71.0873 Y-55.63764 I0.5055 J-0.86282
G1 X-71.8431 Y-56.08134
G2 X-73.34962 Y-56.94634 I-53.57051 J91.55589
G3 X-73.35077 Y-56.94699 I0.49081 J-0.87126
G2 X-75.56017 Y-58.16195 I-53.57867 J94.81575
G1 X-76.30545 Y-58.55582
G1 X-76.75999 Y-58.79186
G1 X-77.21737 Y-59.0261
G1 X-77.34743 Y-59.0921
G2 X-78.39413 Y-59.6134 I-40.36376 J79.73263
G1 X-79.10084 Y-59.95538
G1 X-79.18891 Y-59.99743
G1 X-79.64942 Y-60.21525
G1 X-80.11105 Y-60.43016
G1 X-80.241 Y-60.49004
G2 X-81.29969 Y-60.96778 I-59.16874 J129.70887
G1 X-82.01242 Y-61.27941
G2 X-84.60346 Y-62.34645 I-31.72227 J73.35052
G1 X-84.77746 Y-62.41449
G1 X-85.32896 Y-62.62719
G1 X-85.50965 Y-62.6959
G1 X-86.24825 Y-62.97174
G1 X-86.45753 Y-63.04843
G1 X-86.56808 Y-63.08867
G1 X-87.1706 Y-63.30476
G1 X-87.51325 Y-63.42518
G1 X-87.91529 Y-63.56414
G1 X-88.04684 Y-63.60905
G1 X-88.5848 Y-63.7898
G1 X-88.9416 Y-63.90704
G1 X-89.4192 Y-64.06053
G1 X-90.06019 Y-64.26005
G1 X-90.23024 Y-64.31168
G1 X-90.23032 Y-64.31171
G2 X-92.75923 Y-65.00427 I-13.83031 J45.53842
G1 X-92.93083 Y-65.04541
G3 X-92.93133 Y-65.04553 I0.23316 J-0.97244
G2 X-95.60808 Y-65.56164 I-7.02344 J29.22685
G2 X-98.0758 Y-65.77023 I-2.95374 J20.2428
G1 X-98.24461 Y-65.77296
G2 X-100.81879 Y-65.59488 I-0.2196 J15.51956
G2 X-103.30877 Y-64.96341 I2.08178 J13.43375
G2 X-105.68206 Y-63.84771 I4.73338 J13.15081
G2 X-107.86784 Y-62.27383 I7.68552 J12.97824
G3 X-107.86897 Y-62.27285 I-0.65446 J-0.7561
G2 X-109.77535 Y-60.32182 I10.49515 J12.16182
G3 X-109.77643 Y-60.32051 I-0.772 J-0.63562
G2 X-111.31307 Y-58.10831 I12.46266 J10.29663
G1 X-111.31313 Y-58.10821
G2 X-112.41132 Y-55.76157 I13.0439 J7.53464
G2 X-113.04384 Y-53.38214 I12.92384 J4.70931
G2 X-113.22536 Y-51.02917 I12.82672 J2.17301
G1 Y-51.02912
G2 X-112.99584 Y-48.72808 I13.51778 J-0.18639
G3 X-112.99563 Y-48.72696 I-0.98293 J0.18399
G2 X-112.58341 Y-47.04349 I15.15923 J-2.81968
G3 X-112.58322 Y-47.04285 I-0.9564 J0.29205
G2 X-112.40458 Y-46.49147 I15.74248 J-4.79567
G2 X-111.50877 Y-44.35146 I17.10208 J-5.9015
G3 X-111.50816 Y-44.35024 I-0.89579 J0.44449
G2 X-110.36348 Y-42.34491 I17.41712 J-8.61264
G3 X-110.36308 Y-42.34429 I-0.83748 J0.54647
G2 X-109.01624 Y-40.50941 I17.10068 J-11.14042
G1 X-108.91473 Y-40.38729
G1 X-108.81452 Y-40.26865
G1 X-108.60666 Y-40.02833
G1 X-108.46892 Y-39.8732
G1 X-108.2781 Y-39.66348
G2 X-107.49939 Y-38.86522 I15.03364 J-13.88651
G3 X-107.49866 Y-38.86451 I-0.69653 J0.71753
G2 X-106.04305 Y-37.57864 I14.11027 J-14.50608
G3 X-106.02582 Y-37.56452 I-0.62533 J0.78036
G2 X-105.95486 Y-37.50768 I1.29733 J-1.54704
G3 X-105.92099 Y-37.4806 I-0.60741 J0.79439
G2 X-105.84928 Y-37.42387 I1.09457 J-1.30969
G3 X-105.83084 Y-37.40973 I-0.59926 J0.80055
G2 X-104.24012 Y-36.25887 I15.35332 J-19.54659
G1 X-103.99974 Y-36.0998
G2 X-102.50944 Y-35.17738 I19.16835 J-29.30406
G1 X-101.99505 Y-34.87943
G1 X-101.45124 Y-34.57304
G1 X-100.90122 Y-34.27068
G2 X-99.79654 Y-33.68122 I40.80154 J-75.13414
G1 X-99.15349 Y-33.3464
G1 X-98.50736 Y-33.0146
G3 X-98.48881 Y-33.00482 I-0.45682 J0.88956
G3 X-98.46915 Y-32.9951 I-0.43342 J0.90119
G1 X-98.02316 Y-32.76843
G1 X-97.42708 Y-32.46781
G3 X-97.40971 Y-32.45884 I-0.4503 J0.89288
G3 X-97.39142 Y-32.44991 I-0.42966 J0.90299
G1 X-97.06539 Y-32.28655
G1 X-96.74002 Y-32.12416
G1 X-96.08801 Y-31.8005
G1 X-94.77851 Y-31.15692
G2 X-92.80352 Y-30.20221 I96.81348 J-197.75599
G3 X-92.803 Y-30.20196 I-0.43073 J0.90248
G1 X-92.67123 Y-30.13898
G1 X-91.96477 Y-29.80295
G2 X-88.95502 Y-28.40605 I84.42381 J-177.95904
G3 X-88.95424 Y-28.4057 I-0.41333 J0.91058
G2 X-86.33893 Y-27.24587 I61.98778 J-136.24864
G1 X-86.33887 Y-27.24585
G1 X-86.33899 Y-27.2459
G1 X-86.33893 Y-27.24587
G1 X-86.16268 Y-27.16974
G3 X-86.15668 Y-27.16713 I-0.39653 J0.91802
G2 X-85.76927 Y-27.00076 I9.80931 J-22.3081
G3 X-85.76218 Y-26.99776 I-0.38663 J0.92224
G2 X-82.41166 Y-25.61574 I53.04089 J-123.83802
G2 X-80.91869 Y-25.03357 I55.90155 J-141.15338
G1 X-80.41844 Y-24.84316
G1 X-80.13329 Y-24.73566
G1 X-79.80745 Y-24.61374
G1 X-78.93135 Y-24.29072
G2 X-77.15848 Y-23.658 I40.66639 J-111.14643
G3 X-77.15584 Y-23.65708 I-0.32862 J0.94446
G2 X-75.37413 Y-23.0482 I37.39442 J-106.51245
G3 X-75.3723 Y-23.04759 I-0.31548 J0.94893
G2 X-73.01863 Y-22.28171 I47.33216 J-141.45963
G1 X-72.6813 Y-22.1753
G1 X-71.77868 Y-21.89448
G1 X-71.28591 Y-21.7435
G1 X-71.12262 Y-21.69382
G1 X-70.46334 Y-21.495
G1 X-70.02399 Y-21.36402
G1 X-69.77355 Y-21.28989
G1 X-69.10274 Y-21.09317
G1 X-68.20639 Y-20.83437
G1 X-67.8544 Y-20.73396
G1 X-67.5006 Y-20.6337
G3 X-67.49155 Y-20.63109 I-0.27263 J0.96212
G2 X-67.27593 Y-20.57033 I2.90702 J-9.90226
G3 X-67.26815 Y-20.56819 I-0.26079 J0.9654
G1 X-66.32275 Y-20.3046
G1 X-66.05441 Y-20.23059
G1 X-65.3341 Y-20.03362
G1 X-65.14295 Y-19.98175
G1 X-64.70455 Y-19.86342
G1 X-63.47103 Y-19.53494
G1 X-62.23617 Y-19.21236
G1 X-61.41207 Y-19.00036
G1 X-61.30716 Y-18.97356
G1 X-60.11852 Y-18.67268
G1 X-58.92922 Y-18.37676
G1 X-58.13562 Y-18.18215
G1 X-58.03456 Y-18.15754
G1 X-56.99977 Y-17.90773
G1 X-56.65673 Y-17.82583
G1 X-55.27552 Y-17.50103
G1 X-54.88221 Y-17.41007
G1 X-54.45897 Y-17.31298
G1 X-54.31829 Y-17.28091
G1 X-54.13085 Y-17.23832
G1 X-53.37591 Y-17.06858
G3 X-53.36252 Y-17.06547 I-0.21936 J0.97564
G2 X-53.17794 Y-17.02443 I1.36198 J-5.69082
G3 X-53.16415 Y-17.0215 I-0.20121 J0.97955
G1 X-52.58928 Y-16.89494
G1 X-51.82388 Y-16.72937
G1 X-51.06899 Y-16.56956
G1 X-50.31265 Y-16.41311
G1 X-50.09758 Y-16.36932
G1 X-49.85073 Y-16.31946
G1 X-49.5693 Y-16.26313
G1 X-48.81611 Y-16.11518
G1 X-47.82202 Y-15.92636
G3 X-47.81346 Y-15.92469 I-0.18661 J0.98243
G2 X-47.69626 Y-15.90294 I0.9017 J-4.5313
G3 X-47.66861 Y-15.89777 I-0.1698 J0.98548
G2 X-47.53783 Y-15.87365 I0.80185 J-3.98098
G3 X-47.50319 Y-15.86722 I-0.16525 J0.98625
G2 X-47.35653 Y-15.84037 I0.7388 J-3.6215
G3 X-47.3392 Y-15.8374 I-0.16021 J0.98708
G1 X-46.84434 Y-15.74813
G1 X-46.18523 Y-15.63226
G1 X-45.80885 Y-15.56767
G2 X-42.94998 Y-15.11489 I22.08316 J-130.18239
G3 X-42.91818 Y-15.10969 I-0.14559 J0.98934
G2 X-42.89033 Y-15.10561 I0.07562 J-0.41955
G3 X-42.82511 Y-15.09607 I-0.11208 J0.9937
G2 X-42.79552 Y-15.09176 I0.07878 J-0.43729
G3 X-42.76303 Y-15.0876 I-0.1107 J0.99385
G2 X-40.43005 Y-14.77016 I19.93354 J-137.76474
G1 X-39.64943 Y-14.67314
G1 X-38.79137 Y-14.57153
G3 X-38.76978 Y-14.56873 I-0.1176 J0.99306
G2 X-38.76182 Y-14.56781 I0.02238 J-0.15925
G3 X-38.74026 Y-14.56564 I-0.0897 J0.99597
G1 X-37.82363 Y-14.46302
G1 X-37.21454 Y-14.39788
G1 X-36.86671 Y-14.36176
G1 X-36.46853 Y-14.32132
G2 X-33.62352 Y-14.05959 I20.52859 J-207.55275
G3 X-33.60839 Y-14.05819 I-0.08479 J0.9964
G2 X-33.54885 Y-14.0532 I0.18129 J-1.80524
G3 X-33.51673 Y-14.05052 I-0.0671 J0.99775
G2 X-33.4538 Y-14.04528 I0.19269 J-1.93245
G3 X-33.42214 Y-14.04265 I-0.06682 J0.99777
G2 X-33.35564 Y-14.03714 I0.20521 J-2.07384
G3 X-33.32454 Y-14.03458 I-0.06656 J0.99778
G2 X-33.25427 Y-14.0288 I0.21907 J-2.23247
G3 X-33.24197 Y-14.02791 I-0.06633 J0.9978
G1 X-32.02023 Y-13.93154
G1 X-31.61422 Y-13.90119
G3 X-31.61334 Y-13.90112 I-0.07455 J0.99722
G2 X-29.99252 Y-13.78799 I10.51456 J-138.97649
G1 X-28.85246 Y-13.71594
G1 X-27.71384 Y-13.65005
G1 X-26.95473 Y-13.6095
G1 X-26.75378 Y-13.59922
G1 X-25.85089 Y-13.55542
G2 X-24.95109 Y-13.51573 I11.11347 J-241.69299
G1 X-24.34991 Y-13.49147
G1 X-23.54831 Y-13.46204
G1 X-22.95103 Y-13.44235
G1 X-22.75263 Y-13.43625
G1 X-22.48835 Y-13.42847
G1 X-21.42486 Y-13.40126
G1 X-21.12286 Y-13.39478
G1 X-20.77643 Y-13.38804
G1 X-20.38028 Y-13.38128
G2 X-18.44111 Y-13.36343 I2.57669 J-174.63629
G3 X-18.42833 Y-13.36331 I-0.00365 J0.99999
G2 X-18.17966 Y-13.36297 I0.13554 J-8.25061
G3 X-18.15236 I0.01371 J0.99991
G2 X-18.03126 Y-13.363 I0.05962 J-4.38609
G3 X-18.02099 Y-13.36309 I0.01401 J0.9999
G1 X-17.22791 Y-13.36605
G3 X-17.21088 Y-13.36597 I0.00374 J0.99999
G2 X-17.12701 Y-13.36658 I0.02716 J-2.04297
G3 X-17.08608 Y-13.36688 I0.02775 J0.99961
G2 X-17.0039 Y-13.36755 I0.02533 J-1.92221
G3 X-16.96532 Y-13.36795 I0.02957 J0.99956
G2 X-16.91804 Y-13.36837 I0.01182 J-1.31229
G3 X-16.8794 Y-13.36867 I0.02702 J0.99963
G2 X-16.81108 Y-13.36934 I0.01856 J-1.59694
G3 X-16.76514 Y-13.36971 I0.03115 J0.99951
G2 X-16.66816 Y-13.37076 I0.02805 J-1.89578
G3 X-16.64553 Y-13.37133 I0.03635 J0.99934
G1 X-16.05526 Y-13.37943
G1 X-15.66268 Y-13.38637
G2 X-15.14282 Y-13.39754 I-1.54144 J-83.90233
G3 X-15.11874 Y-13.39784 I0.02456 J0.9997
G2 X-15.09767 Y-13.39834 I-0.00021 J-0.44948
G3 X-15.05076 Y-13.39946 I0.04735 J0.99888
G2 X-15.02869 Y-13.4 I-0.00021 J-0.4592
G3 X-14.98059 Y-13.40118 I0.04853 J0.99882
G2 X-14.95748 Y-13.40176 I-0.0002 J-0.46877
G3 X-14.90816 Y-13.403 I0.04974 J0.99876
G2 X-14.88397 Y-13.40362 I-0.0002 J-0.47825
G3 X-14.86237 Y-13.40449 I0.05098 J0.9987
G1 X-14.0669 Y-13.42787
G2 X-11.26155 Y-13.55428 I-3.48814 J-108.59866
G1 X-10.85985 Y-13.57808
G1 X-10.27869 Y-13.61504
G1 X-9.69565 Y-13.65512
G3 X-9.66247 Y-13.65685 I0.06858 J0.99765
G2 X-9.65638 Y-13.65729 I-0.00299 J-0.08446
G3 X-9.62256 Y-13.66036 I0.10743 J0.99421
G1 X-9.20622 Y-13.69109
G3 X-9.197 Y-13.69173 I0.07361 J0.99729
G2 X-8.98321 Y-13.70812 I-0.57159 J-8.85958
G3 X-8.97491 Y-13.70882 I0.08846 J0.99608
G1 X-8.34295 Y-13.75964
G1 X-7.9845 Y-13.79001
G1 X-7.57384 Y-13.82616
G2 X-5.04442 Y-14.0801 I-12.72118 J-139.4386
G1 X-4.19945 Y-14.17654
G2 X-0.75384 Y-14.6264 I-16.87131 J-142.64466
G1 X0.22955 Y-14.77065
G1 X1.21116 Y-14.92133
G1 X1.86386 Y-15.02516
G1 X2.73629 Y-15.16839
G2 X5.58597 Y-15.67103 I-27.23066 J-162.71155
G1 X5.77561 Y-15.70635
G1 X6.20889 Y-15.78791
G1 X7.10809 Y-15.96103
G1 X8.00601 Y-16.13912
G1 X8.60395 Y-16.26063
G1 X8.76159 Y-16.29306
G1 X9.61367 Y-16.47118
G2 X11.69109 Y-16.92613 I-27.43914 J-130.2637
G1 X12.38585 Y-17.08508
G1 X12.47356 Y-17.1054
G1 X12.88281 Y-17.20095
G2 X14.61999 Y-17.62097 I-29.19916 J-124.56968
G3 X14.62357 Y-17.62185 I0.24179 J0.97033
G2 X15.19514 Y-17.76543 I-12.57149 J-51.25592
G1 X15.19523 Y-17.76545
G1 X15.9705 Y-17.96473
G2 X17.04208 Y-18.24926 I-18.6859 J-72.53269
G3 X17.04698 Y-18.25059 I0.26378 J0.96458
G2 X18.11493 Y-18.54555 I-18.85324 J-70.34157
G1 X18.83173 Y-18.75043
G1 X19.24718 Y-18.87189
G1 X19.66294 Y-18.99553
G1 X19.93881 Y-19.07878
G1 X20.30684 Y-19.19139
G1 X20.79644 Y-19.34408
G1 X21.44818 Y-19.55271
G1 X21.52904 Y-19.57937
G1 F300.0 Z-4.0
G1 F800.0 X20.34663 Y-19.646
G3 X20.34523 Y-19.64608 I0.05626 J-0.99842
G1 X20.11527 Y-19.65937
G3 X20.11456 Y-19.65941 I0.05767 J-0.99834
G1 X19.88453 Y-19.67286
G3 X19.88327 Y-19.67293 I0.05838 J-0.99829
G1 X19.42325 Y-19.70042
G3 X19.42019 Y-19.7006 I0.05964 J-0.99822
G1 X18.50043 Y-19.75838
G3 X18.49514 Y-19.75873 I0.0627 J-0.99803
G1 X17.42698 Y-19.83152
G3 X17.4205 Y-19.83198 I0.06798 J-0.99769
G1 X16.35274 Y-19.91171
G3 X16.34821 Y-19.91206 I0.07447 J-0.99722
G3 X14.50327 Y-20.06799 I13.96021 J-176.16418
G3 X14.49969 Y-20.06832 I0.08944 J-0.99599
G1 X13.88866 Y-20.12541
G3 X13.88564 Y-20.12569 I0.09302 J-0.99566
G1 X13.69575 Y-20.14402
G3 X13.69429 Y-20.14416 I0.09604 J-0.99538
G1 X13.50437 Y-20.16276
G3 X13.50215 Y-20.16298 I0.0975 J-0.99524
G1 X13.12243 Y-20.20103
G3 X13.11789 Y-20.2015 I0.09971 J-0.99502
G1 X12.35888 Y-20.28106
G3 X12.35369 Y-20.28161 I0.10425 J-0.99455
G1 X11.84795 Y-20.33729
G3 X11.84294 Y-20.33786 I0.10943 J-0.99399
G1 X11.16895 Y-20.4155
G3 X11.16608 Y-20.41584 I0.11444 J-0.99343
G3 X8.28903 Y-20.79482 I12.71185 J-107.61058
G3 X8.28672 Y-20.79516 I0.14386 J-0.9896
G1 X7.97471 Y-20.84126
G3 X7.97143 Y-20.84176 I0.14618 J-0.98926
G1 X7.65956 Y-20.8889
G3 X7.65451 Y-20.88967 I0.14946 J-0.98877
G1 X7.0375 Y-20.98616
G3 X6.84374 Y-21.01726 I0.86545 J-6.01207
G3 X6.63686 Y-21.0511 I1.90007 J-12.26476
G1 X6.09739 Y-21.14152
G3 X6.09001 Y-21.14278 I0.1653 J-0.98624
G1 X5.36857 Y-21.26926
G3 X5.36272 Y-21.27031 I0.17268 J-0.98498
G3 X3.20414 Y-21.68851 I16.53382 J-91.12056
G3 X3.19775 Y-21.68985 I0.20184 J-0.97942
G1 X2.48868 Y-21.84081
G3 X2.48446 Y-21.84172 I0.20823 J-0.97808
G3 X-0.3094 Y-22.50334 I16.53597 J-76.05608
G3 X-2.38985 Y-23.06205 I21.49875 J-84.20743
G3 X-2.3904 Y-23.06221 I0.27131 J-0.96249
G1 X-2.68325 Y-23.14494
G3 X-2.68628 Y-23.1458 I0.27186 J-0.96234
G1 X-3.02066 Y-23.24139
G3 X-3.02544 Y-23.24277 I0.27488 J-0.96148
G1 X-3.74535 Y-23.45247
G3 X-3.7513 Y-23.45423 I0.27966 J-0.9601
G1 X-4.46191 Y-23.66601
G3 X-4.56819 Y-23.69785 I0.9039 J-3.21068
G3 X-4.68287 Y-23.73272 I0.89805 J-3.1591
G1 X-5.20826 Y-23.89289
G3 X-5.28978 Y-23.9177 I0.67969 J-2.37907
G3 X-5.37426 Y-23.94391 I0.68809 J-2.36803
G1 X-5.69495 Y-24.043
G3 X-5.6967 Y-24.04354 I0.29522 J-0.95543
G1 X-5.97145 Y-24.12899
G3 X-6.08821 Y-24.16515 I0.65959 J-2.33581
G3 X-6.15001 Y-24.18476 I0.59273 J-1.97618
G1 X-6.57977 Y-24.3197
G3 X-6.58262 Y-24.3206 I0.29958 J-0.95407
G1 X-7.46198 Y-24.59961
G3 X-7.46409 Y-24.60028 I0.30242 J-0.95317
G1 X-7.71516 Y-24.68055
G3 X-7.7166 Y-24.68101 I0.30453 J-0.9525
G1 X-8.38583 Y-24.89609
G3 X-8.38869 Y-24.89702 I0.30598 J-0.95204
G1 X-9.97169 Y-25.41104
G3 X-9.97361 Y-25.41167 I0.30884 J-0.95111
G1 X-10.19962 Y-25.48556
G3 X-10.20008 Y-25.48571 I0.31076 J-0.95049
G1 X-10.45834 Y-25.57029
G3 X-10.45922 Y-25.57058 I0.31122 J-0.95034
G1 X-11.14583 Y-25.79613
G3 X-11.95672 Y-26.0638 I24.69173 J-76.16403
G1 X-12.7589 Y-26.33002
G3 X-12.76027 Y-26.33048 I0.31498 J-0.9491
G1 X-13.29604 Y-26.50915
G3 X-13.29744 Y-26.50961 I0.31635 J-0.94864
G1 X-14.01143 Y-26.74888
G3 X-14.01374 Y-26.74966 I0.31775 J-0.94817
G1 X-15.1259 Y-27.12538
G3 X-15.12916 Y-27.12648 I0.32006 J-0.9474
G1 X-16.23996 Y-27.50601
G3 X-16.24309 Y-27.50708 I0.32332 J-0.94629
G1 X-16.98278 Y-27.76255
G3 X-16.98476 Y-27.76323 I0.32644 J-0.94522
G1 X-17.3072 Y-27.87535
G3 X-17.30847 Y-27.87579 I0.32842 J-0.94453
G1 X-17.6308 Y-27.98835
G3 X-17.6319 Y-27.98874 I0.32969 J-0.94409
G1 X-17.84674 Y-28.06404
G3 X-17.84904 Y-28.06485 I0.33078 J-0.94371
G1 X-18.70746 Y-28.3681
G3 X-18.71071 Y-28.36925 I0.33309 J-0.9429
G1 X-19.28233 Y-28.5734
G3 X-19.28558 Y-28.57457 I0.33634 J-0.94174
G1 X-20.04678 Y-28.8494
G3 X-20.05126 Y-28.85103 I0.33959 J-0.94057
G1 X-21.01146 Y-29.20288
G3 X-21.01678 Y-29.20485 I0.34406 J-0.93895
G1 X-21.97494 Y-29.56214
G3 X-21.97961 Y-29.56389 I0.34939 J-0.93698
G1 X-22.61338 Y-29.80383
G3 X-22.97748 Y-29.94287 I6.27694 J-16.98426
G3 X-23.0796 Y-29.9819 I0.87421 J-2.44066
G3 X-23.19191 Y-30.02549 I0.89649 J-2.47585
G1 X-24.20875 Y-30.42123
G3 X-24.28943 Y-30.45275 I0.89171 J-2.40132
G3 X-24.37438 Y-30.48644 I0.92583 J-2.45867
G1 X-24.75734 Y-30.63809
G1 X-24.75744 Y-30.63813
G3 X-26.33449 Y-31.27533 I45.94747 J-115.9892
G3 X-29.48084 Y-32.60818 I63.39261 J-154.02685
G3 X-29.48135 Y-32.6084 I0.39948 J-0.91674
G3 X-31.67061 Y-33.58306 I65.24592 J-149.49989
G3 X-31.67236 Y-33.58385 I0.41342 J-0.91054
G1 X-32.39454 Y-33.91342
G3 X-32.39708 Y-33.91458 I0.41516 J-0.90975
G1 X-32.58812 Y-34.00241
G3 X-33.45212 Y-34.40286 I32.6993 J-71.68387
G1 X-34.30453 Y-34.80297
G3 X-34.30802 Y-34.80461 I0.42491 J-0.90524
G1 X-34.87566 Y-35.07373
G3 X-34.87874 Y-35.07519 I0.42839 J-0.90359
G1 X-35.6344 Y-35.43661
G3 X-35.63848 Y-35.43858 I0.43147 J-0.90213
G1 X-36.75004 Y-35.97642
G3 X-36.75453 Y-35.9786 I0.43556 J-0.90016
G1 X-37.8634 Y-36.522
G3 X-37.86684 Y-36.52369 I0.44004 J-0.89798
G1 X-38.60466 Y-36.88877
G3 X-38.60719 Y-36.89002 I0.44348 J-0.89628
G1 X-39.32894 Y-37.24969
G3 X-39.3313 Y-37.25087 I0.44602 J-0.89502
G1 X-40.05217 Y-37.61248
G3 X-40.05548 Y-37.61415 I0.44838 J-0.89384
G1 X-41.49442 Y-38.34266
G3 X-41.49844 Y-38.34471 I0.45169 J-0.89217
G1 X-42.81838 Y-39.02046
G3 X-42.82219 Y-39.02242 I0.45571 J-0.89013
G1 X-44.13928 Y-39.70386
G3 X-44.1415 Y-39.70502 I0.45952 J-0.88817
G1 X-44.31692 Y-39.79633
G3 X-44.31886 Y-39.79734 I0.46174 J-0.88701
G1 X-45.37842 Y-40.35186
G3 X-45.38196 Y-40.35373 I0.46369 J-0.886
G1 X-46.43937 Y-40.91252
G3 X-46.44181 Y-40.91382 I0.46723 J-0.88414
G1 X-46.74349 Y-41.07431
G3 X-46.74472 Y-41.07496 I0.46967 J-0.88284
G1 X-47.08924 Y-41.25887
G3 X-47.09199 Y-41.26034 I0.4709 J-0.88219
G1 X-48.1231 Y-41.81486
G3 X-48.1275 Y-41.81724 I0.47364 J-0.88072
G1 X-49.15577 Y-42.37688
G3 X-49.15968 Y-42.37902 I0.47804 J-0.87834
G1 X-49.84355 Y-42.75518
G3 X-49.84588 Y-42.75647 I0.48195 J-0.8762
G1 X-50.13578 Y-42.91693
G3 X-50.1372 Y-42.91772 I0.48428 J-0.87492
G1 X-50.42687 Y-43.07867
G3 X-50.42903 Y-43.07987 I0.48569 J-0.87413
G1 X-50.99595 Y-43.3967
G3 X-51.08594 Y-43.44683 I1.10022 J-2.08118
G3 X-51.18245 Y-43.50145 I1.12655 J-2.10294
G1 X-51.60813 Y-43.74153
G3 X-51.61076 Y-43.74302 I0.49124 J-0.87102
G1 X-52.18091 Y-44.06685
G3 X-52.28441 Y-44.1259 I1.03508 J-1.93468
G1 X-52.61472 Y-44.31492
G3 X-52.61821 Y-44.31692 I0.49668 J-0.86793
G1 X-53.60579 Y-44.88736
G3 X-53.61091 Y-44.89034 I0.50017 J-0.86593
G1 X-54.59509 Y-45.46661
G3 X-54.59924 Y-45.46905 I0.50529 J-0.86295
G1 X-55.25354 Y-45.85641
G3 X-55.25558 Y-45.85762 I0.50944 J-0.86051
G1 X-55.42983 Y-45.96135
G3 X-55.43195 Y-45.96261 I0.51148 J-0.85929
G1 X-56.13973 Y-46.38627
G3 X-56.14298 Y-46.38823 I0.5136 J-0.85803
G1 X-56.84908 Y-46.81454
G3 X-56.85165 Y-46.81609 I0.51686 J-0.85607
G1 X-57.32157 Y-47.10173
G3 X-57.3231 Y-47.10266 I0.51942 J-0.85452
G1 X-57.59137 Y-47.26639
G3 X-57.59328 Y-47.26756 I0.52094 J-0.85359
G1 X-58.30757 Y-47.70568
G3 X-58.30944 Y-47.70683 I0.52285 J-0.85242
G1 X-58.62034 Y-47.89847
G3 X-58.62139 Y-47.89912 I0.52472 J-0.85127
G1 X-58.93208 Y-48.09116
G3 X-58.93292 Y-48.09167 I0.52578 J-0.85062
G1 X-59.13996 Y-48.21993
G3 X-59.14069 Y-48.22039 I0.52661 J-0.85011
G1 X-59.41657 Y-48.39161
G3 X-59.41843 Y-48.39277 I0.52735 J-0.84965
G1 X-60.52039 Y-49.08005
G3 X-60.52241 Y-49.08131 I0.5292 J-0.8485
G1 X-61.25602 Y-49.54129
G3 X-61.25789 Y-49.54247 I0.53122 J-0.84723
G1 X-64.26178 Y-51.43516
G1 X-64.76006 Y-51.74898
G1 X-65.25804 Y-52.06215
G1 X-66.25611 Y-52.68774
G3 X-66.26508 Y-52.69343 I0.5311 J-0.84731
G2 X-66.52997 Y-52.85886 I-6.88199 J10.72478
G3 X-66.53898 Y-52.8644 I0.51928 J-0.85461
G1 X-67.30008 Y-53.33795
G1 X-68.2332 Y-53.91432
G1 X-69.16833 Y-54.48626
G1 X-69.79308 Y-54.86467
G1 X-69.95891 Y-54.96457
G1 X-70.34166 Y-55.19421
G3 X-70.3439 Y-55.19556 I0.51449 J-0.8575
G2 X-71.08654 Y-55.6372 I-34.15792 J56.59361
G3 X-71.0873 Y-55.63764 I0.5055 J-0.86282
G1 X-71.8431 Y-56.08134
G2 X-73.34962 Y-56.94634 I-53.57051 J91.55589
G3 X-73.35077 Y-56.94699 I0.49081 J-0.87126
G2 X-75.56017 Y-58.16195 I-53.57867 J94.81575
G1 X-76.30545 Y-58.55582
G1 X-76.75999 Y-58.79186
G1 X-77.21737 Y-59.0261
G1 X-77.34743 Y-59.0921
G2 X-78.39413 Y-59.6134 I-40.36376 J79.73263
G1 X-79.10084 Y-59.95538
G1 X-79.18891 Y-59.99743
G1 X-79.64942 Y-60.21525
G1 X-80.11105 Y-60.43016
G1 X-80.241 Y-60.49004
G2 X-81.29969 Y-60.96778 I-59.16874 J129.70887
G1 X-82.01242 Y-61.27941
G2 X-84.60346 Y-62.34645 I-31.72227 J73.35052
G1 X-84.77746 Y-62.41449
G1 X-85.32896 Y-62.62719
G1 X-85.50965 Y-62.6959
G1 X-86.24825 Y-62.97174
G1 X-86.45753 Y-63.04843
G1 X-86.56808 Y-63.08867
G1 X-87.1706 Y-63.30476
G1 X-87.51325 Y-63.42518
G1 X-87.91529 Y-63.56414
G1 X-88.04684 Y-63.60905
G1 X-88.5848 Y-63.7898
G1 X-88.9416 Y-63.90704
G1 X-89.4192 Y-64.06053
G1 X-90.06019 Y-64.26005
G1 X-90.23024 Y-64.31168
G1 X-90.23032 Y-64.31171
G2 X-92.75923 Y-65.00427 I-13.83031 J45.53842
G1 X-92.93083 Y-65.04541
G3 X-92.93133 Y-65.04553 I0.23316 J-0.97244
G2 X-95.60808 Y-65.56164 I-7.02344 J29.22685
G2 X-98.0758 Y-65.77023 I-2.95374 J20.2428
G1 X-98.24461 Y-65.77296
G2 X-100.81879 Y-65.59488 I-0.2196 J15.51956
G2 X-103.30877 Y-64.96341 I2.08178 J13.43375
G2 X-105.68206 Y-63.84771 I4.73338 J13.15081
G2 X-107.86784 Y-62.27383 I7.68552 J12.97824
G3 X-107.86897 Y-62.27285 I-0.65446 J-0.7561
G2 X-109.77535 Y-60.32182 I10.49515 J12.16182
G3 X-109.77643 Y-60.32051 I-0.772 J-0.63562
G2 X-111.31307 Y-58.10831 I12.46266 J10.29663
G1 X-111.31313 Y-58.10821
G2 X-112.41132 Y-55.76157 I13.0439 J7.53464
G2 X-113.04384 Y-53.38214 I12.92384 J4.70931
G2 X-113.22536 Y-51.02917 I12.82672 J2.17301
G1 Y-51.02912
G2 X-112.99584 Y-48.72808 I13.51778 J-0.18639
G3 X-112.99563 Y-48.72696 I-0.98293 J0.18399
G2 X-112.58341 Y-47.04349 I15.15923 J-2.81968
G3 X-112.58322 Y-47.04285 I-0.9564 J0.29205
G2 X-112.40458 Y-46.49147 I15.74248 J-4.79567
G2 X-111.50877 Y-44.35146 I17.10208 J-5.9015
G3 X-111.50816 Y-44.35024 I-0.89579 J0.44449
G2 X-110.36348 Y-42.34491 I17.41712 J-8.61264
G3 X-110.36308 Y-42.34429 I-0.83748 J0.54647
G2 X-109.01624 Y-40.50941 I17.10068 J-11.14042
G1 X-108.91473 Y-40.38729
G1 X-108.81452 Y-40.26865
G1 X-108.60666 Y-40.02833
G1 X-108.46892 Y-39.8732
G1 X-108.2781 Y-39.66348
G2 X-107.49939 Y-38.86522 I15.03364 J-13.88651
G3 X-107.49866 Y-38.86451 I-0.69653 J0.71753
G2 X-106.04305 Y-37.57864 I14.11027 J-14.50608
G3 X-106.02582 Y-37.56452 I-0.62533 J0.78036
G2 X-105.95486 Y-37.50768 I1.29733 J-1.54704
G3 X-105.92099 Y-37.4806 I-0.60741 J0.79439
G2 X-105.84928 Y-37.42387 I1.09457 J-1.30969
G3 X-105.83084 Y-37.40973 I-0.59926 J0.80055
G2 X-104.24012 Y-36.25887 I15.35332 J-19.54659
G1 X-103.99974 Y-36.0998
G2 X-102.50944 Y-35.17738 I19.16835 J-29.30406
G1 X-101.99505 Y-34.87943
G1 X-101.45124 Y-34.57304
G1 X-100.90122 Y-34.27068
G2 X-99.79654 Y-33.68122 I40.80154 J-75.13414
G1 X-99.15349 Y-33.3464
G1 X-98.50736 Y-33.0146
G3 X-98.48881 Y-33.00482 I-0.45682 J0.88956
G3 X-98.46915 Y-32.9951 I-0.43342 J0.90119
G1 X-98.02316 Y-32.76843
G1 X-97.42708 Y-32.46781
G3 X-97.40971 Y-32.45884 I-0.4503 J0.89288
G3 X-97.39142 Y-32.44991 I-0.42966 J0.90299
G1 X-97.06539 Y-32.28655
G1 X-96.74002 Y-32.12416
G1 X-96.08801 Y-31.8005
G1 X-94.77851 Y-31.15692
G2 X-92.80352 Y-30.20221 I96.81348 J-197.75599
G3 X-92.803 Y-30.20196 I-0.43073 J0.90248
G1 X-92.67123 Y-30.13898
G1 X-91.96477 Y-29.80295
G2 X-88.95502 Y-28.40605 I84.42381 J-177.95904
G3 X-88.95424 Y-28.4057 I-0.41333 J0.91058
G2 X-86.33893 Y-27.24587 I61.98778 J-136.24864
G1 X-86.33887 Y-27.24585
G1 X-86.33899 Y-27.2459
G1 X-86.33893 Y-27.24587
G1 X-86.16268 Y-27.16974
G3 X-86.15668 Y-27.16713 I-0.39653 J0.91802
G2 X-85.76927 Y-27.00076 I9.80931 J-22.3081
G3 X-85.76218 Y-26.99776 I-0.38663 J0.92224
G2 X-82.41166 Y-25.61574 I53.04089 J-123.83802
G2 X-80.91869 Y-25.03357 I55.90155 J-141.15338
G1 X-80.41844 Y-24.84316
G1 X-80.13329 Y-24.73566
G1 X-79.80745 Y-24.61374
G1 X-78.93135 Y-24.29072
G2 X-77.15848 Y-23.658 I40.66639 J-111.14643
G3 X-77.15584 Y-23.65708 I-0.32862 J0.94446
G2 X-75.37413 Y-23.0482 I37.39442 J-106.51245
G3 X-75.3723 Y-23.04759 I-0.31548 J0.94893
G2 X-73.01863 Y-22.28171 I47.33216 J-141.45963
G1 X-72.6813 Y-22.1753
G1 X-71.77868 Y-21.89448
G1 X-71.28591 Y-21.7435
G1 X-71.12262 Y-21.69382
G1 X-70.46334 Y-21.495
G1 X-70.02399 Y-21.36402
G1 X-69.77355 Y-21.28989
G1 X-69.10274 Y-21.09317
G1 X-68.20639 Y-20.83437
G1 X-67.8544 Y-20.73396
G1 X-67.5006 Y-20.6337
G3 X-67.49155 Y-20.63109 I-0.27263 J0.96212
G2 X-67.27593 Y-20.57033 I2.90702 J-9.90226
G3 X-67.26815 Y-20.56819 I-0.26079 J0.9654
G1 X-66.32275 Y-20.3046
G1 X-66.05441 Y-20.23059
G1 X-65.3341 Y-20.03362
G1 X-65.14295 Y-19.98175
G1 X-64.70455 Y-19.86342
G1 X-63.47103 Y-19.53494
G1 X-62.23617 Y-19.21236
G1 X-61.41207 Y-19.00036
G1 X-61.30716 Y-18.97356
G1 X-60.11852 Y-18.67268
G1 X-58.92922 Y-18.37676
G1 X-58.13562 Y-18.18215
G1 X-58.03456 Y-18.15754
G1 X-56.99977 Y-17.90773
G1 X-56.65673 Y-17.82583
G1 X-55.27552 Y-17.50103
G1 X-54.88221 Y-17.41007
G1 X-54.45897 Y-17.31298
G1 X-54.31829 Y-17.28091
G1 X-54.13085 Y-17.23832
G1 X-53.37591 Y-17.06858
G3 X-53.36252 Y-17.06547 I-0.21936 J0.97564
G2 X-53.17794 Y-17.02443 I1.36198 J-5.69082
G3 X-53.16415 Y-17.0215 I-0.20121 J0.97955
G1 X-52.58928 Y-16.89494
G1 X-51.82388 Y-16.72937
G1 X-51.06899 Y-16.56956
G1 X-50.31265 Y-16.41311
G1 X-50.09758 Y-16.36932
G1 X-49.85073 Y-16.31946
G1 X-49.5693 Y-16.26313
G1 X-48.81611 Y-16.11518
G1 X-47.82202 Y-15.92636
G3 X-47.81346 Y-15.92469 I-0.18661 J0.98243
G2 X-47.69626 Y-15.90294 I0.9017 J-4.5313
G3 X-47.66861 Y-15.89777 I-0.1698 J0.98548
G2 X-47.53783 Y-15.87365 I0.80185 J-3.98098
G3 X-47.50319 Y-15.86722 I-0.16525 J0.98625
G2 X-47.35653 Y-15.84037 I0.7388 J-3.6215
G3 X-47.3392 Y-15.8374 I-0.16021 J0.98708
G1 X-46.84434 Y-15.74813
G1 X-46.18523 Y-15.63226
G1 X-45.80885 Y-15.56767
G2 X-42.94998 Y-15.11489 I22.08316 J-130.18239
G3 X-42.91818 Y-15.10969 I-0.14559 J0.98934
G2 X-42.89033 Y-15.10561 I0.07562 J-0.41955
G3 X-42.82511 Y-15.09607 I-0.11208 J0.9937
G2 X-42.79552 Y-15.09176 I0.07878 J-0.43729
G3 X-42.76303 Y-15.0876 I-0.1107 J0.99385
G2 X-40.43005 Y-14.77016 I19.93354 J-137.76474
G1 X-39.64943 Y-14.67314
G1 X-38.79137 Y-14.57153
G3 X-38.76978 Y-14.56873 I-0.1176 J0.99306
G2 X-38.76182 Y-14.56781 I0.02238 J-0.15925
G3 X-38.74026 Y-14.56564 I-0.0897 J0.99597
G1 X-37.82363 Y-14.46302
G1 X-37.21454 Y-14.39788
G1 X-36.86671 Y-14.36176
G1 X-36.46853 Y-14.32132
G2 X-33.62352 Y-14.05959 I20.52859 J-207.55275
G3 X-33.60839 Y-14.05819 I-0.08479 J0.9964
G2 X-33.54885 Y-14.0532 I0.18129 J-1.80524
G3 X-33.51673 Y-14.05052 I-0.0671 J0.99775
G2 X-33.4538 Y-14.04528 I0.19269 J-1.93245
G3 X-33.42214 Y-14.04265 I-0.06682 J0.99777
G2 X-33.35564 Y-14.03714 I0.20521 J-2.07384
G3 X-33.32454 Y-14.03458 I-0.06656 J0.99778
G2 X-33.25427 Y-14.0288 I0.21907 J-2.23247
G3 X-33.24197 Y-14.02791 I-0.06633 J0.9978
G1 X-32.02023 Y-13.93154
G1 X-31.61422 Y-13.90119
G3 X-31.61334 Y-13.90112 I-0.07455 J0.99722
G2 X-29.99252 Y-13.78799 I10.51456 J-138.97649
G1 X-28.85246 Y-13.71594
G1 X-27.71384 Y-13.65005
G1 X-26.95473 Y-13.6095
G1 X-26.75378 Y-13.59922
G1 X-25.85089 Y-13.55542
G2 X-24.95109 Y-13.51573 I11.11347 J-241.69299
G1 X-24.34991 Y-13.49147
G1 X-23.54831 Y-13.46204
G1 X-22.95103 Y-13.44235
G1 X-22.75263 Y-13.43625
G1 X-22.48835 Y-13.42847
G1 X-21.42486 Y-13.40126
G1 X-21.12286 Y-13.39478
G1 X-20.77643 Y-13.38804
G1 X-20.38028 Y-13.38128
G2 X-18.44111 Y-13.36343 I2.57669 J-174.63629
G3 X-18.42833 Y-13.36331 I-0.00365 J0.99999
G2 X-18.17966 Y-13.36297 I0.13554 J-8.25061
G3 X-18.15236 I0.01371 J0.99991
G2 X-18.03126 Y-13.363 I0.05962 J-4.38609
G3 X-18.02099 Y-13.36309 I0.01401 J0.9999
G1 X-17.22791 Y-13.36605
G3 X-17.21088 Y-13.36597 I0.00374 J0.99999
G2 X-17.12701 Y-13.36658 I0.02716 J-2.04297
G3 X-17.08608 Y-13.36688 I0.02775 J0.99961
G2 X-17.0039 Y-13.36755 I0.02533 J-1.92221
G3 X-16.96532 Y-13.36795 I0.02957 J0.99956
G2 X-16.91804 Y-13.36837 I0.01182 J-1.31229
G3 X-16.8794 Y-13.36867 I0.02702 J0.99963
G2 X-16.81108 Y-13.36934 I0.01856 J-1.59694
G3 X-16.76514 Y-13.36971 I0.03115 J0.99951
G2 X-16.66816 Y-13.37076 I0.02805 J-1.89578
G3 X-16.64553 Y-13.37133 I0.03635 J0.99934
G1 X-16.05526 Y-13.37943
G1 X-15.66268 Y-13.38637
G2 X-15.14282 Y-13.39754 I-1.54144 J-83.90233
G3 X-15.11874 Y-13.39784 I0.02456 J0.9997
G2 X-15.09767 Y-13.39834 I-0.00021 J-0.44948
G3 X-15.05076 Y-13.39946 I0.04735 J0.99888
G2 X-15.02869 Y-13.4 I-0.00021 J-0.4592
G3 X-14.98059 Y-13.40118 I0.04853 J0.99882
G2 X-14.95748 Y-13.40176 I-0.0002 J-0.46877
G3 X-14.90816 Y-13.403 I0.04974 J0.99876
G2 X-14.88397 Y-13.40362 I-0.0002 J-0.47825
G3 X-14.86237 Y-13.40449 I0.05098 J0.9987
G1 X-14.0669 Y-13.42787
G2 X-11.26155 Y-13.55428 I-3.48814 J-108.59866
G1 X-10.85985 Y-13.57808
G1 X-10.27869 Y-13.61504
G1 X-9.69565 Y-13.65512
G3 X-9.66247 Y-13.65685 I0.06858 J0.99765
G2 X-9.65638 Y-13.65729 I-0.00299 J-0.08446
G3 X-9.62256 Y-13.66036 I0.10743 J0.99421
G1 X-9.20622 Y-13.69109
G3 X-9.197 Y-13.69173 I0.07361 J0.99729
G2 X-8.98321 Y-13.70812 I-0.57159 J-8.85958
G3 X-8.97491 Y-13.70882 I0.08846 J0.99608
G1 X-8.34295 Y-13.75964
G1 X-7.9845 Y-13.79001
G1 X-7.57384 Y-13.82616
G2 X-5.04442 Y-14.0801 I-12.72118 J-139.4386
G1 X-4.19945 Y-14.17654
G2 X-0.75384 Y-14.6264 I-16.87131 J-142.64466
G1 X0.22955 Y-14.77065
G1 X1.21116 Y-14.92133
G1 X1.86386 Y-15.02516
G1 X2.73629 Y-15.16839
G2 X5.58597 Y-15.67103 I-27.23066 J-162.71155
G1 X5.77561 Y-15.70635
G1 X6.20889 Y-15.78791
G1 X7.10809 Y-15.96103
G1 X8.00601 Y-16.13912
G1 X8.60395 Y-16.26063
G1 X8.76159 Y-16.29306
G1 X9.61367 Y-16.47118
G2 X11.69109 Y-16.92613 I-27.43914 J-130.2637
G1 X12.38585 Y-17.08508
G1 X12.47356 Y-17.1054
G1 X12.88281 Y-17.20095
G2 X14.61999 Y-17.62097 I-29.19916 J-124.56968
G3 X14.62357 Y-17.62185 I0.24179 J0.97033
G2 X15.19514 Y-17.76543 I-12.57149 J-51.25592
G1 X15.19523 Y-17.76545
G1 X15.9705 Y-17.96473
G2 X17.04208 Y-18.24926 I-18.6859 J-72.53269
G3 X17.04698 Y-18.25059 I0.26378 J0.96458
G2 X18.11493 Y-18.54555 I-18.85324 J-70.34157
G1 X18.83173 Y-18.75043
G1 X19.24718 Y-18.87189
G1 X19.66294 Y-18.99553
G1 X19.93881 Y-19.07878
G1 X20.30684 Y-19.19139
G1 X20.79644 Y-19.34408
G1 X21.44818 Y-19.55271
G1 X21.52904 Y-19.57937
G0 Z3.0
G0 X22.84568 Y-14.88043
G0 Z1.0
G1 F300.0 Z-2.0
G1 F800.0 X22.37223 Y-14.74777
G3 X22.36651 Y-14.74618 I-0.26981 J-0.96291
G1 X21.20683 Y-14.42866
G3 X21.20481 Y-14.42811 I-0.26408 J-0.9645
G3 X20.39306 Y-14.2101 I-39.43654 J-145.22423
G1 X20.24193 Y-14.16989
G3 X20.24124 Y-14.16971 I-0.25711 J-0.96638
G1 X20.09932 Y-14.13206
G3 X20.09775 Y-14.13165 I-0.25642 J-0.96657
G1 X19.56686 Y-13.99173
G3 X18.75854 Y-13.78144 I-17.75984 J-66.60888
G1 X17.95969 Y-13.57685
G3 X17.95691 Y-13.57614 I-0.24811 J-0.96873
G1 X17.53914 Y-13.47042
G3 X17.53653 Y-13.46976 I-0.24533 J-0.96944
G1 X16.80499 Y-13.28673
G3 X16.80083 Y-13.2857 I-0.24272 J-0.9701
G1 X15.70237 Y-13.01586
G3 X15.69736 Y-13.01464 I-0.23856 J-0.97113
G1 X14.59751 Y-12.75047
G3 X14.594 Y-12.74963 I-0.23355 J-0.97235
G1 X14.16638 Y-12.64855
G3 X14.16496 Y-12.64822 I-0.23004 J-0.97318
G1 X13.97781 Y-12.60426
G3 X13.97574 Y-12.60378 I-0.22862 J-0.97352
G1 X13.27371 Y-12.44049
G3 X13.27083 Y-12.43983 I-0.22655 J-0.974
G1 X12.74394 Y-12.31891
G3 X12.74263 Y-12.31862 I-0.22367 J-0.97467
G3 X11.15282 Y-11.96241 I-47.46061 J-208.09733
G3 X7.67204 Y-11.22948 I-40.74372 J-184.86578
G3 X7.66981 Y-11.22903 I-0.19684 J-0.98043
G1 X6.80631 Y-11.05771
G3 X6.80392 Y-11.05724 I-0.19461 J-0.98088
G3 X4.19345 Y-10.56646 I-33.63395 J-171.71144
G3 X0.74545 Y-9.98519 I-27.02554 J-149.79362
G3 X0.74264 Y-9.98475 I-0.1549 J-0.98793
G1 X-0.10039 Y-9.85502
G3 X-0.10551 Y-9.85425 I-0.15209 J-0.98837
G1 X-0.73831 Y-9.76022
G3 X-0.74229 Y-9.75964 I-0.14697 J-0.98914
G3 X-2.65323 Y-9.4935 I-27.02561 J-187.05749
G3 X-2.65815 Y-9.49285 I-0.13288 J-0.99113
G1 X-3.48919 Y-9.38564
G3 X-3.49344 Y-9.3851 I-0.12796 J-0.99178
G1 X-3.80527 Y-9.34622
G3 X-3.8085 Y-9.34583 I-0.1237 J-0.99232
G1 X-4.35143 Y-9.27993
G3 X-4.77431 Y-9.23017 I-2.81248 J-22.0789
G1 X-5.38611 Y-9.16061
G3 X-5.39081 Y-9.16008 I-0.11298 J-0.9936
G1 X-6.00584 Y-9.0931
G3 X-6.00978 Y-9.09268 I-0.10828 J-0.99412
G1 X-6.42072 Y-9.04956
G3 X-6.42507 Y-9.04912 I-0.10434 J-0.99454
G1 X-7.14443 Y-8.97683
G3 X-7.14929 Y-8.97635 I-0.09998 J-0.99499
G1 X-7.68902 Y-8.92478
G3 X-7.69424 Y-8.92429 I-0.09512 J-0.99547
G1 X-8.5043 Y-8.85116
G3 X-8.50899 Y-8.85075 I-0.08991 J-0.99595
G1 X-8.91424 Y-8.81609
G3 X-8.91736 Y-8.81583 I-0.08522 J-0.99636
G1 X-9.32266 Y-8.78244
G3 X-9.32736 Y-8.78207 I-0.08209 J-0.99662
G1 X-10.1352 Y-8.71936
G3 X-10.31432 Y-8.70611 I-0.39885 J-4.17619
G1 X-10.87235 Y-8.66644
G3 X-10.99973 Y-8.65773 I-0.34185 J-4.06129
G1 X-11.80195 Y-8.60559
G3 X-11.80801 Y-8.60522 I-0.06485 J-0.99789
G1 X-12.61357 Y-8.55777
G3 X-12.83146 Y-8.54575 I-0.67503 J-10.25502
G3 X-13.59715 Y-8.5063 I-11.01819 J-206.38511
G3 X-13.60017 Y-8.50615 I-0.04961 J-0.99877
G1 X-14.17521 Y-8.47933
G3 X-14.17883 Y-8.47917 I-0.04659 J-0.99891
G1 X-14.61019 Y-8.46061
G3 X-14.61288 Y-8.4605 I-0.04298 J-0.99908
G1 X-14.93642 Y-8.44746
G3 X-14.94097 Y-8.44728 I-0.04029 J-0.99919
G1 X-15.91165 Y-8.41257
G3 X-15.91785 Y-8.41236 I-0.03574 J-0.99936
G1 X-16.73998 Y-8.38806
G3 X-16.74486 Y-8.38793 I-0.02955 J-0.99956
G1 X-17.36152 Y-8.37271
G3 X-17.36666 Y-8.3726 I-0.02467 J-0.9997
G1 X-18.2918 Y-8.35452
G3 X-18.29784 Y-8.35442 I-0.01953 J-0.99981
G1 X-19.22306 Y-8.34194
G3 X-19.22868 Y-8.34188 I-0.01349 J-0.99991
G1 X-20.05792 Y-8.33536
G3 X-20.06153 Y-8.33533 I-0.00787 J-0.99997
G1 X-20.37253 Y-8.33401
G3 X-20.3769 Y-8.334 I-0.00427 J-0.99999
G1 X-21.46529 Y-8.33411
G3 X-22.56666 Y-8.3416 I0.00853 J-82.15722
G1 X-23.4023 Y-8.35219
G3 X-24.66912 Y-8.37625 I1.19315 J-96.21321
G1 X-25.29571 Y-8.39169
G3 X-25.29948 Y-8.39179 I0.02464 J-0.9997
G1 X-25.92647 Y-8.40961
G3 X-25.93088 Y-8.40974 I0.02841 J-0.9996
G1 X-26.77153 Y-8.43734
G3 X-26.77357 Y-8.43741 I0.03281 J-0.99946
G3 X-29.31061 Y-8.5465 I5.45109 J-156.32913
G3 X-29.31273 Y-8.54661 I0.05107 J-0.9987
G1 X-30.14877 Y-8.59115
G3 X-30.48038 Y-8.61 I0.59984 J-13.475
G1 X-31.57912 Y-8.67732
G3 X-31.58603 Y-8.67777 I0.06115 J-0.99813
G1 X-32.68823 Y-8.75297
G3 X-32.69438 Y-8.75341 I0.06807 J-0.99768
G1 X-33.5293 Y-8.81555
G3 X-33.53399 Y-8.81591 I0.07422 J-0.99724
G1 X-34.16 Y-8.86547
G3 X-34.16509 Y-8.86589 I0.07892 J-0.99688
G1 X-35.1036 Y-8.94501
G3 X-35.10822 Y-8.94541 I0.08401 J-0.99647
G1 X-35.57735 Y-8.98715
G3 X-35.58045 Y-8.98743 I0.08862 J-0.99607
G1 X-36.04901 Y-9.03059
G3 X-37.70643 Y-9.19513 I9.62903 J-105.42388
G3 X-38.12604 Y-9.23977 I2.75474 J-27.88767
G1 X-38.41729 Y-9.27148
G3 X-38.56597 Y-9.28791 I0.22002 J-2.67175
G1 X-39.36119 Y-9.37821
G3 X-39.36676 Y-9.37886 I0.11284 J-0.99361
G1 X-40.17295 Y-9.475
G3 X-40.17783 Y-9.47559 I0.11841 J-0.99297
G1 X-40.78219 Y-9.55067
G3 X-40.78586 Y-9.55114 I0.12329 J-0.99237
G1 X-41.23891 Y-9.60912
G3 X-41.24284 Y-9.60963 I0.12695 J-0.99191
G1 X-41.90829 Y-9.69749
G3 X-42.01127 Y-9.71101 I0.23677 J-2.20196
G3 X-42.09617 Y-9.72276 I0.24982 J-2.11784
G3 X-42.61051 Y-9.79352 I5.93214 J-45.02448
G1 X-43.00155 Y-9.84852
G3 X-43.00525 Y-9.84904 I0.13928 J-0.99025
G1 X-43.67918 Y-9.9464
G3 X-43.77391 Y-9.96035 I0.24305 J-1.9791
G1 X-44.7462 Y-10.10697
G3 X-44.83948 Y-10.12138 I0.25056 J-1.93172
G1 X-45.76026 Y-10.26674
G3 X-45.76249 Y-10.2671 I0.15594 J-0.98777
G3 X-48.81905 Y-10.78934 I23.5978 J-147.3174
G3 X-48.81985 Y-10.78949 I0.17865 J-0.98391
G1 X-49.55415 Y-10.92344
G3 X-49.55689 Y-10.92394 I0.17946 J-0.98377
G1 X-49.83213 Y-10.97494
G3 X-49.83534 Y-10.97555 I0.1822 J-0.98326
G1 X-50.79799 Y-11.15719
G3 X-50.80274 Y-11.1581 I0.18542 J-0.98266
G1 X-51.7645 Y-11.34439
G3 X-51.76834 Y-11.34514 I0.19016 J-0.98175
G1 X-52.47789 Y-11.48546
G3 X-52.48165 Y-11.48621 I0.194 J-0.981
G1 X-53.5452 Y-11.70077
G3 X-53.54834 Y-11.70141 I0.19776 J-0.98025
G1 X-54.07979 Y-11.8104
G3 X-54.08175 Y-11.81081 I0.20091 J-0.97961
G1 X-54.61295 Y-11.92086
G3 X-54.61449 Y-11.92118 I0.20286 J-0.97921
G1 X-54.95847 Y-11.99301
G3 X-54.95957 Y-11.99323 I0.2044 J-0.97889
G1 X-55.26048 Y-12.05642
G3 X-55.26183 Y-12.0567 I0.2055 J-0.97866
G1 X-55.7882 Y-12.16799
G3 X-55.7914 Y-12.16867 I0.20685 J-0.97837
G1 X-57.3694 Y-12.5077
G3 X-57.37353 Y-12.5086 I0.21006 J-0.97769
G1 X-58.7019 Y-12.79988
G3 X-58.81644 Y-12.82523 I0.43062 J-2.21683
G1 X-60.05971 Y-13.10292
G3 X-60.06247 Y-13.10354 I0.21799 J-0.97595
G1 X-60.72379 Y-13.25322
G3 X-60.72642 Y-13.25382 I0.22075 J-0.97533
G1 X-61.7178 Y-13.48101
G3 X-61.72136 Y-13.48184 I0.22338 J-0.97473
G1 X-62.71181 Y-13.71263
G3 X-62.71447 Y-13.71326 I0.22694 J-0.97391
G1 X-63.04266 Y-13.79068
G3 X-63.62847 Y-13.93015 I10.72979 J-46.3665
G1 X-63.84287 Y-13.98163
G3 X-63.84387 Y-13.98187 I0.23348 J-0.97236
G1 X-64.03331 Y-14.02757
G3 X-64.03421 Y-14.02778 I0.23447 J-0.97212
G1 X-64.19992 Y-14.06791
G3 X-64.20188 Y-14.06839 I0.23537 J-0.97191
G1 X-64.78148 Y-14.21
G3 X-64.78472 Y-14.21079 I0.23734 J-0.97143
G1 X-65.36342 Y-14.35423
G3 X-66.71231 Y-14.69727 I24.69774 J-99.93855
G3 X-66.71248 Y-14.69731 I0.25301 J-0.96746
G1 X-67.37937 Y-14.87184
G3 X-67.38234 Y-14.87263 I0.25318 J-0.96742
G1 X-67.54897 Y-14.91678
G3 X-67.55142 Y-14.91743 I0.25615 J-0.96664
G1 X-68.05083 Y-15.05113
G3 X-68.05126 Y-15.05125 I0.2586 J-0.96598
G3 X-70.80432 Y-15.82699 I29.33904 J-109.39552
G3 X-70.80614 Y-15.82753 I0.28335 J-0.95902
G1 X-71.50883 Y-16.03659
G3 X-71.51392 Y-16.03812 I0.28516 J-0.95848
G1 X-72.04006 Y-16.1977
G3 X-72.04387 Y-16.19886 I0.29025 J-0.95695
G1 X-72.43803 Y-16.32013
G3 X-72.44207 Y-16.32138 I0.29405 J-0.95579
G1 X-73.03104 Y-16.50532
G3 X-73.6322 Y-16.69638 I11.49052 J-37.19554
G3 X-76.5204 Y-17.65959 I41.82311 J-130.21823
G3 X-76.52284 Y-17.66044 I0.32691 J-0.94506
G1 X-77.24928 Y-17.91383
G3 X-77.25312 Y-17.91518 I0.32935 J-0.94421
G3 X-79.4354 Y-18.70003 I69.59681 J-196.94117
G3 X-79.43818 Y-18.70105 I0.34364 J-0.9391
G1 X-80.15409 Y-18.96543
G3 X-80.15713 Y-18.96656 I0.34643 J-0.93808
G1 X-80.69344 Y-19.1666
G3 X-80.69642 Y-19.16771 I0.34947 J-0.93695
G1 X-81.4999 Y-19.47032
G3 X-81.50198 Y-19.47111 I0.35245 J-0.93583
G1 X-81.70276 Y-19.54723
G3 X-81.70373 Y-19.5476 I0.35453 J-0.93504
G1 X-81.98789 Y-19.65568
G3 X-82.09799 Y-19.69765 I0.6214 J-1.79555
G1 X-82.30669 Y-19.77735
G3 X-82.3077 Y-19.77774 I0.35676 J-0.93419
G1 X-82.64974 Y-19.90878
G3 X-82.65043 Y-19.90905 I0.35777 J-0.93381
G3 X-85.04704 Y-20.83931 I126.8665 J-330.39691
G1 X-85.04707 Y-20.83932
G1 X-85.04701 Y-20.83929
G1 X-85.04704 Y-20.83931
G1 X-85.3625 Y-20.96305
G3 X-85.36383 Y-20.96357 I0.36518 J-0.93094
G1 X-86.46725 Y-21.39823
G3 X-86.46901 Y-21.39892 I0.36651 J-0.93042
G1 X-87.57162 Y-21.83568
G3 X-87.57281 Y-21.83615 I0.36827 J-0.92972
G1 X-88.13532 Y-22.0598
G3 X-88.13715 Y-22.06053 I0.36946 J-0.92925
G1 X-89.81204 Y-22.73029
G3 X-89.95381 Y-22.78715 I1.16093 J-3.09985
G3 X-90.17962 Y-22.87827 I3.74727 J-9.61139
G3 X-90.58508 Y-23.04236 I8.40084 J-21.34058
G1 X-90.73156 Y-23.10185
G3 X-90.73347 Y-23.10263 I0.37624 J-0.92652
G1 X-91.2397 Y-23.30941
G3 X-91.31568 Y-23.34064 I0.43823 J-1.17444
G1 X-91.78149 Y-23.5333
G3 X-91.90682 Y-23.58559 I1.50025 J-3.77259
G1 X-92.09936 Y-23.66636
G3 X-92.10294 Y-23.66787 I0.38683 J-0.92215
G1 X-92.452 Y-23.81589
G3 X-92.45666 Y-23.81788 I0.39041 J-0.92064
G1 X-92.71794 Y-23.93025
G3 X-92.72106 Y-23.9316 I0.39507 J-0.91865
G1 X-92.81892 Y-23.97408
G3 X-92.82148 Y-23.97519 I0.3982 J-0.9173
G1 X-92.98398 Y-24.04627
G3 X-93.13524 Y-24.11304 I1.54539 J-3.70558
G1 X-93.31877 Y-24.1949
G3 X-93.3233 Y-24.19693 I0.40732 J-0.91329
G1 X-93.51455 Y-24.28337
G3 X-93.52209 Y-24.28681 I0.41185 J-0.91125
G1 X-93.90767 Y-24.46494
G3 X-93.91816 Y-24.46986 I0.41939 J-0.90781
G3 X-94.49975 Y-24.74969 I33.99942 J-71.40906
G3 X-94.5076 Y-24.75355 I0.43724 J-0.89935
G1 X-94.64645 Y-24.82256
G3 X-94.88004 Y-24.94064 I3.8022 J-7.81167
G1 X-95.08918 Y-25.04852
G3 X-95.09339 Y-25.0507 I0.45842 J-0.88874
G3 X-96.60282 Y-25.8912 I14.74112 J-28.24893
G3 X-96.6053 Y-25.89267 I0.51 J-0.86017
G1 X-96.97445 Y-26.11298
G3 X-96.98304 Y-26.11817 I0.51248 J-0.8587
G1 X-97.53344 Y-26.45419
G3 X-97.53844 Y-26.45726 I0.52108 J-0.85351
G1 X-97.81269 Y-26.62692
G3 X-97.81402 Y-26.62774 I0.52608 J-0.85044
G1 X-97.95102 Y-26.71278
G3 X-97.95143 Y-26.71304 I0.5274 J-0.84962
G1 X-98.08832 Y-26.7981
G3 X-98.09472 Y-26.80211 I0.52782 J-0.84936
G2 X-98.4489 Y-27.02204 I-14.10276 J22.31629
G3 X-98.45354 Y-27.02489 I0.5208 J-0.85368
G1 X-98.72877 Y-27.19486
G2 X-99.54368 Y-27.68537 I-26.96438 J43.87518
G1 X-99.62883 Y-27.73491
G3 X-99.64691 Y-27.74568 I0.50288 J-0.86436
G3 X-99.6859 Y-27.76816 I0.47978 J-0.87739
G3 X-99.70807 Y-27.78062 I0.47885 J-0.8779
G2 X-99.91888 Y-27.90063 I-8.39903 J14.50811
G2 X-98.54888 Y-27.03581 I67.99759 J-106.19984
G3 X-98.54528 Y-27.03356 I-0.52836 J0.84902
G2 X-97.75621 Y-26.54474 I39.27104 J-62.51086
G3 X-97.7547 Y-26.54381 I-0.52127 J0.85339
G1 X-96.95363 Y-26.05254
G1 X-96.84612 Y-25.98694
G1 X-96.73793 Y-25.92098
G1 X-96.5213 Y-25.78913
G1 X-96.08757 Y-25.52592
G1 X-95.21788 Y-25.00101
G1 X-94.52151 Y-24.58324
G1 X-94.28921 Y-24.44436
G3 X-94.28797 Y-24.44362 I-0.51313 J0.85831
G2 X-93.36094 Y-23.89184 I82.13743 J-136.94206
G1 X-93.36093 Y-23.89183
G1 X-92.37948 Y-23.31212
G1 X-91.39736 Y-22.73711
G1 X-90.82246 Y-22.40315
G1 X-90.63164 Y-22.29277
G1 X-89.86263 Y-21.85041
G1 X-89.34996 Y-21.55784
G2 X-87.23159 Y-20.37122 I116.54358 J-205.57194
G1 X-86.56396 Y-20.0054
G1 X-85.89267 Y-19.64182
G3 X-85.86535 Y-19.62647 I-0.47625 J0.87931
G2 X-85.83558 Y-19.61045 I0.24904 J-0.42727
G3 X-85.80712 Y-19.5958 I-0.44336 J0.89634
G1 X-85.32814 Y-19.33948
G1 X-85.05653 Y-19.19515
G1 X-84.22529 Y-18.7581
G1 X-83.39174 Y-18.32697
G1 X-82.8346 Y-18.04282
G2 X-80.5827 Y-16.92709 I65.3381 J-129.0429
G3 X-80.58022 Y-16.92589 I-0.43616 J0.89987
G2 X-79.73674 Y-16.52134 I29.85291 J-61.16171
G1 X-79.73671 Y-16.52132
G1 X-79.73678 Y-16.52136
G1 X-79.73674 Y-16.52134
G1 X-78.88068 Y-16.11805
G1 X-78.30926 Y-15.85287
G3 X-78.30865 Y-15.85259 I-0.42095 J0.90708
G2 X-77.44318 Y-15.45703 I31.01242 J-66.70982
G1 X-76.56515 Y-15.06313
G1 X-76.31613 Y-14.95275
G1 X-76.03028 Y-14.82678
G2 X-74.28217 Y-14.07335 I77.07509 J-176.424
G1 X-74.03232 Y-13.96805
G1 X-73.74671 Y-13.84841
G1 X-72.98254 Y-13.53221
G1 X-72.21622 Y-13.2209
G1 X-71.99834 Y-13.13347
G1 X-71.74787 Y-13.03355
G1 X-71.46012 Y-12.91956
G3 X-71.45632 Y-12.91805 I-0.3683 J0.92971
G2 X-71.03839 Y-12.75405 I11.41822 J-28.48292
G3 X-71.03524 Y-12.75283 I-0.35847 J0.93354
G1 X-70.60583 Y-12.58628
G1 X-69.74549 Y-12.2586
G1 X-69.17292 Y-12.04511
G1 X-68.36443 Y-11.75011
G1 X-67.55353 Y-11.46204
G1 X-67.01002 Y-11.27345
G3 X-66.9905 Y-11.26645 I-0.32782 J0.94474
G2 X-66.89086 Y-11.2323 I0.74554 J-2.01283
G3 X-66.86712 Y-11.22448 I-0.30091 J0.95365
G2 X-65.55946 Y-10.78831 I25.732 J-74.96774
G1 X-65.11988 Y-10.64661
G1 X-64.53325 Y-10.4614
G1 X-64.24669 Y-10.37254
G1 X-63.95979 Y-10.28466
G1 X-63.38152 Y-10.11077
G2 X-62.22585 Y-9.77621 I28.83877 J-97.4543
G3 X-62.19434 Y-9.76673 I-0.27239 J0.96219
G2 X-62.18468 Y-9.76401 I0.0445 J-0.13951
G3 X-62.15176 Y-9.75535 I-0.23793 J0.97128
G2 X-59.70608 Y-9.10485 I23.93621 J-85.07004
G1 X-58.9773 Y-8.92476
G2 X-58.25533 Y-8.75218 I18.7225 J-76.73002
G1 X-57.76832 Y-8.63893
G1 X-57.49156 Y-8.57566
G1 X-57.17514 Y-8.50428
G1 X-56.43828 Y-8.34185
G1 X-55.70055 Y-8.18432
G1 X-55.20921 Y-8.08209
G1 X-54.54973 Y-7.94808
G2 X-53.53582 Y-7.7488 I19.50415 J-96.55736
G1 X-52.51234 Y-7.55532
G1 X-51.83073 Y-7.43039
G2 X-50.41952 Y-7.18083 I32.14111 J-177.63772
G1 X-50.21723 Y-7.14599
G1 X-49.98623 Y-7.10648
G1 X-49.72266 Y-7.06174
G1 X-49.01808 Y-6.9439
G1 X-47.79622 Y-6.74516
G1 X-47.39002 Y-6.68057
G1 X-46.84684 Y-6.59529
G1 X-46.12271 Y-6.48345
G1 X-44.64622 Y-6.26157
G1 X-43.1686 Y-6.0472
G1 X-42.05292 Y-5.89013
G1 X-40.93603 Y-5.73688
G1 X-40.19046 Y-5.63677
G1 X-40.19034 Y-5.63675
G2 X-37.2294 Y-5.25654 I33.72997 J-250.95691
G1 X-36.13468 Y-5.12323
G1 X-35.77192 Y-5.07997
G1 X-34.31269 Y-4.91071
G1 X-33.7149 Y-4.84368
G1 X-33.11603 Y-4.77793
G1 X-32.71715 Y-4.73495
G1 X-32.1849 Y-4.67865
G1 X-31.47474 Y-4.60543
G2 X-28.89458 Y-4.35934 I27.11486 J-270.64027
G1 X-28.72406 Y-4.34425
G1 X-27.84529 Y-4.26897
G1 X-26.96681 Y-4.19796
G1 X-26.38136 Y-4.15306
G1 X-26.04802 Y-4.12838
G1 X-25.0741 Y-4.06001
G1 X-24.75073 Y-4.03855
G1 X-24.56614 Y-4.02658
G1 X-24.07195 Y-3.99553
G1 X-23.4134 Y-3.95643
G1 X-22.42316 Y-3.90252
G1 X-21.43247 Y-3.85437
G1 X-20.77229 Y-3.82545
G1 X-20.32902 Y-3.80743
G3 X-20.29867 Y-3.80574 I-0.04062 J0.99917
G3 X-20.26845 Y-3.80506 I-0.00738 J0.99997
G1 X-19.76196 Y-3.786
G1 X-18.74905 Y-3.7521
G1 X-18.07528 Y-3.73261
G1 X-17.04095 Y-3.70728
G1 X-16.69753 Y-3.70008
G1 X-16.23833 Y-3.69137
G1 X-15.62536 Y-3.68138
G1 X-15.27611 Y-3.67651
G1 X-14.5555 Y-3.66835
G1 X-13.83496 Y-3.66272
G1 X-13.35527 Y-3.66037
G1 X-12.71451 Y-3.65898
G1 X-12.3492 Y-3.65908
G1 X-11.81186 Y-3.66044
G1 X-11.27544 Y-3.66324
G1 X-10.20024 Y-3.67327
G1 X-9.48416 Y-3.68328
G1 X-9.2938 Y-3.6864
G2 X-6.52752 Y-3.75465 I-3.15127 J-183.82223
G1 X-6.1309 Y-3.76811
G3 X-6.12994 Y-3.76814 I0.03391 J0.99942
G2 X-4.39323 Y-3.83876 I-3.72655 J-113.04444
G3 X-4.35704 Y-3.83985 I0.0483 J0.99883
G2 X-4.30924 Y-3.84208 I-0.00839 J-0.69237
G3 X-4.27723 Y-3.84417 I0.08115 J0.9967
G1 X-3.65621 Y-3.87473
G1 X-3.30342 Y-3.89327
G1 X-2.89813 Y-3.91565
G3 X-2.89791 Y-3.91566 I0.05514 J0.99848
G2 X-0.3923 Y-4.08112 I-6.27022 J-114.01133
G3 X-0.3787 Y-4.08207 I0.07686 J0.99704
G2 X-0.23621 Y-4.09297 I-0.34755 J-5.48314
G3 X-0.21383 Y-4.09472 I0.08919 J0.99601
G2 X-0.05584 Y-4.10702 I-0.48839 J-7.29354
G3 X-0.04187 Y-4.10816 I0.08843 J0.99608
G2 X0.35747 Y-4.14021 I-2.6811 J-35.90584
G3 X0.35944 Y-4.14038 I0.08555 J0.99633
G1 X0.81892 Y-4.17892
G1 X1.27538 Y-4.21899
G1 X2.1912 Y-4.30489
G1 X2.7989 Y-4.36605
G1 X3.61269 Y-4.45332
G2 X6.01526 Y-4.74848 I-10.63664 J-96.50608
G1 X6.81796 Y-4.86008
G1 X7.65152 Y-4.98303
G1 X8.48816 Y-5.11375
G3 X8.489 Y-5.11388 I0.15437 J0.98801
G2 X9.0332 Y-5.20288 I-5.30803 J-34.16457
G3 X9.03453 Y-5.20311 I0.16926 J0.98557
G1 X9.77787 Y-5.32974
G1 X9.97413 Y-5.36414
G2 X12.69503 Y-5.88206 I-16.76805 J-95.49691
G1 X13.08523 Y-5.96245
G2 X15.06076 Y-6.39153 I-24.28605 J-116.57829
G3 X15.07555 Y-6.39475 I0.22054 J0.97538
G2 X15.17749 Y-6.41787 I-0.68313 J-3.2492
G3 X15.18952 Y-6.42071 I0.23645 J0.97164
G1 X15.89625 Y-6.58348
G3 X15.91021 Y-6.58659 I0.22443 J0.97449
G2 X15.96739 Y-6.59994 I-0.35425 J-1.64544
G3 X16.00136 Y-6.60788 I0.24444 J0.96966
G2 X16.06008 Y-6.62164 I-0.34958 J-1.62371
G3 X16.09544 Y-6.62993 I0.24583 J0.96931
G2 X16.15576 Y-6.64411 I-0.34515 J-1.60319
G3 X16.19447 Y-6.65318 I0.24725 J0.96895
G2 X16.2738 Y-6.6719 I-0.39178 J-1.83739
G3 X16.31572 Y-6.6818 I0.25077 J0.96805
G2 X16.3939 Y-6.70033 I-0.3763 J-1.76208
G3 X16.43294 Y-6.70967 I0.25223 J0.96767
G2 X16.4778 Y-6.72034 I-0.2642 J-1.21076
G3 X16.51653 Y-6.72949 I0.24939 J0.9684
G2 X16.582 Y-6.74511 I-0.32369 J-1.50212
G3 X16.62762 Y-6.75592 I0.25326 J0.9674
G2 X16.72127 Y-6.77835 I-0.3858 J-1.81762
G3 X16.7439 Y-6.78411 I0.25803 J0.96614
G1 X17.31796 Y-6.92316
G1 X17.69845 Y-7.01665
G1 X18.20621 Y-7.14301
G1 X18.88358 Y-7.31426
G1 X19.27052 Y-7.41338
G2 X22.39934 Y-8.24411 I-48.66227 J-189.58485
G1 X23.80535 Y-8.63084
G3 X23.83765 Y-8.63914 I0.2652 J0.96419
G2 X23.86281 Y-8.64612 I-0.08543 J-0.35671
G3 X23.93233 Y-8.66538 I0.30149 J0.95347
G2 X23.96139 Y-8.67345 I-0.09506 J-0.39861
G3 X23.99469 Y-8.6834 I0.30291 J0.95302
G1 X25.59128 Y-9.13041
G1 X27.07198 Y-9.54986
G3 X27.10583 Y-9.55881 I0.27255 J0.96214
G2 X27.13491 Y-9.56709 I-0.09955 J-0.40497
G3 X27.16856 Y-9.57735 I0.30846 J0.95124
G1 X28.7485 Y-10.02893
G3 X28.78154 Y-10.03777 I0.27481 J0.9615
G2 X28.81588 Y-10.04761 I-0.12274 J-0.49262
G3 X28.84838 Y-10.05758 I0.30939 J0.95093
G1 X31.34116 Y-10.7759
G1 X32.17066 Y-11.0161
G1 X35.53765 Y-11.99628
G1 X36.17175 Y-12.18185
G1 X36.8061 Y-12.36783
G1 X38.07534 Y-12.74107
G3 X38.0771 Y-12.74158 I0.28212 J0.95938
G2 X38.91786 Y-12.98974 I-43.29995 J-148.24882
G3 X38.92 Y-12.99037 I0.28581 J0.95829
G1 X39.23605 Y-13.08387
G1 X39.55184 Y-13.17741
G1 X40.18362 Y-13.36493
G1 X40.60416 Y-13.49004
G1 X42.28781 Y-13.99364
G1 X43.11874 Y-14.24396
G3 X43.12153 Y-14.24479 I0.28844 J0.9575
G2 X43.94469 Y-14.49408 I-28.08514 J-94.22095
G3 X43.9465 Y-14.49464 I0.29403 J0.9558
G1 X45.60783 Y-15.00226
G2 X48.84779 Y-16.01317 I-98.38279 J-321.01517
G1 X48.84792 Y-16.01321
G1 X49.12516 Y-16.10121
G1 X49.40171 Y-16.18925
G1 X49.9547 Y-16.3661
G1 X51.06073 Y-16.72319
G1 X51.7969 Y-16.96347
G1 X51.9916 Y-17.02739
G1 X53.27651 Y-17.4532
G1 X53.70373 Y-17.59636
G3 X53.7066 Y-17.59732 I0.31774 J0.94818
G2 X54.26837 Y-17.78684 I-18.5022 J-55.77217
G3 X54.27054 Y-17.78758 I0.32443 J0.94591
G1 X55.02989 Y-18.04608
G1 X55.99791 Y-18.37959
G1 X56.9651 Y-18.7174
G1 X57.09244 Y-18.76222
G1 X57.77969 Y-19.00553
G1 X57.96171 Y-19.07037
G1 X58.45386 Y-19.24654
G1 X58.61678 Y-19.30512
G1 X59.27203 Y-19.54211
G1 X59.70801 Y-19.70101
G1 X59.95642 Y-19.79197
G1 X60.62097 Y-20.03682
G1 X60.79708 Y-20.10208
G1 X61.24998 Y-20.27059
G1 X61.40003 Y-20.32664
G1 X62.00258 Y-20.55278
G1 X63.20776 Y-21.01008
G1 X63.54992 Y-21.14105
G1 X64.89601 Y-21.66078
G1 X66.24008 Y-22.18582
G1 X67.25178 Y-22.58409
G1 X67.39599 Y-22.64102
G1 X67.56097 Y-22.70619
G1 X68.88335 Y-23.22958
G3 X68.88384 Y-23.22978 I0.36802 J0.92982
G1 X71.49527 Y-24.2618
G3 X71.49697 Y-24.26247 I0.36753 J0.93001
G3 X74.09346 Y-25.27041 I120.07992 J305.48169
G3 X74.0968 Y-25.27168 I0.35792 J0.93375
G1 X75.05962 Y-25.63681
G3 X75.06497 Y-25.63882 I0.35459 J0.93502
G1 X76.02996 Y-25.99848
G3 X76.03508 Y-26.00037 I0.34924 J0.93703
G1 X76.6797 Y-26.23663
G3 X76.68393 Y-26.23817 I0.34412 J0.93893
G1 X77.24144 Y-26.43965
G3 X77.24566 Y-26.44117 I0.33989 J0.94046
G1 X77.80401 Y-26.64013
G3 X77.80687 Y-26.64115 I0.33566 J0.94198
G1 X77.96659 Y-26.69751
G3 X77.967 Y-26.69766 I0.33281 J0.943
G3 X79.259 Y-27.14419 I37.35188 J105.98351
G3 X79.26039 Y-27.14466 I0.32089 J0.94711
G3 X80.6922 Y-27.61816 I41.3699 J122.69474
G3 X80.69641 Y-27.61952 I0.30845 J0.95124
G1 X81.17165 Y-27.77129
G3 X81.17773 Y-27.77321 I0.30423 J0.9526
G1 X81.81263 Y-27.97153
G3 X81.82035 Y-27.97391 I0.29815 J0.95452
G1 X82.53507 Y-28.19083
G3 X82.54366 Y-28.19339 I0.29042 J0.9569
G1 X83.26034 Y-28.4039
G3 X83.26539 Y-28.40537 I0.28183 J0.95947
G1 X83.36114 Y-28.43295
G3 X83.3624 Y-28.43331 I0.27678 J0.96093
G1 X83.46274 Y-28.46207
G3 X84.02076 Y-28.61939 I9.96991 J34.29551
G1 X84.33182 Y-28.70513
G3 X84.33369 Y-28.70564 I0.26572 J0.96405
G3 X86.4765 Y-29.25586 I18.63218 J68.11507
G3 X86.4794 Y-29.25655 I0.2335 J0.97236
G1 X86.7826 Y-29.32841
G3 X86.78638 Y-29.32929 I0.23061 J0.97305
G3 X88.54783 Y-29.71477 I15.28993 J65.6513
G3 X88.55524 Y-29.71626 I0.20069 J0.97965
G1 X89.13618 Y-29.8307
G3 X89.1451 Y-29.83241 I0.19328 J0.98114
G1 X89.49266 Y-29.89761
G3 X89.64528 Y-29.92547 I0.61446 J2.93433
G1 X90.11397 Y-30.00812
G3 X90.11499 Y-30.0083 I0.17368 J0.9848
G3 X91.10447 Y-30.16723 I6.06531 J34.60248
G1 X91.37953 Y-30.20754
G3 X91.38318 Y-30.20806 I0.14497 J0.98944
G3 X93.49316 Y-30.45648 I6.10064 J42.73196
G3 X93.82352 Y-30.48513 I1.04289 J10.10561
G1 X93.92084 Y-30.49303
G3 X93.92788 Y-30.49357 I0.08085 J0.99673
G1 X94.33917 Y-30.52401
G3 X94.34867 Y-30.52467 I0.07381 J0.99727
G1 X94.62299 Y-30.54235
G3 X94.63199 Y-30.54288 I0.0643 J0.99793
G1 X94.99694 Y-30.5631
G3 X95.51068 Y-30.5853 I1.04108 J18.1349
G1 X95.74182 Y-30.59289
G3 X95.74855 Y-30.59308 I0.0328 J0.99946
G1 X95.98173 Y-30.59916
G3 X95.99187 Y-30.59938 I0.02606 J0.99966
G1 X96.45817 Y-30.6068
G3 X96.46437 Y-30.60688 I0.01593 J0.99987
G3 X97.42544 Y-30.60267 I0.3312 J34.04523
G3 X97.42693 Y-30.60264 I-0.0185 J0.99983
G3 X99.05527 Y-30.53613 I-0.78196 J39.10996
G3 X99.06055 Y-30.53579 I-0.06162 J0.9981
G1 X99.28695 Y-30.52061
G3 X99.29568 Y-30.51998 I-0.0669 J0.99776
G1 X99.67213 Y-30.49143
G3 X99.67945 Y-30.49085 I-0.07563 J0.99714
G1 X99.8049 Y-30.48041
G3 X99.81416 Y-30.47959 I-0.08295 J0.99655
G1 X100.31546 Y-30.43317
G3 X100.32802 Y-30.43193 I-0.09221 J0.99574
G1 X100.66179 Y-30.39676
G3 X100.66269 Y-30.39667 I-0.10477 J0.9945
G3 X101.12662 Y-30.34212 I-2.20931 J20.78948
G3 X102.93099 Y-30.06071 I-3.49737 J28.35023
G3 X104.68969 Y-29.65637 I-3.94512 J21.18665
G3 X105.17583 Y-29.51595 I-3.16635 J11.87363
G3 X105.34937 Y-29.4622 I-1.42903 J4.92085
G3 X105.97741 Y-29.25108 I-6.93847 J21.68086
G3 X105.98857 Y-29.24708 I-0.33239 J0.94314
G1 X106.15975 Y-29.18446
G3 X106.17222 Y-29.1798 I-0.34354 J0.93914
G1 X106.36683 Y-29.10566
G3 X106.37374 Y-29.103 I-0.35601 J0.93448
G3 X107.93429 Y-28.38434 I-5.18485 J13.31236
G3 X107.93751 Y-28.38261 I-0.47215 J0.88152
G3 X109.35732 Y-27.4827 I-5.75078 J10.64321
G3 X109.35841 Y-27.4819 I-0.59273 J0.8054
G3 X109.98973 Y-26.97979 I-6.63761 J8.99363
G2 X110.02418 Y-27.00939 I-3.10073 J-3.64324
G2 X110.35849 Y-27.32474 I-4.38764 J-4.98629
G1 X110.44625 Y-27.41453
G1 X110.50667 Y-27.47769
G1 X110.69975 Y-27.6858
G1 X110.92978 Y-27.94341
G1 X111.09967 Y-28.13888
G1 X111.35585 Y-28.44038
G1 X111.60949 Y-28.74587
G1 X111.75372 Y-28.92252
G2 X112.73323 Y-30.18455 I-30.79253 J-24.91022
G2 X113.88109 Y-31.87412 I-19.12376 J-14.22705
G2 X114.37724 Y-32.74126 I-12.94203 J-7.98048
G3 X114.37862 Y-32.74386 I0.88381 J0.46784
G2 X114.59696 Y-33.17608 I-9.7055 J-5.17414
G1 X114.7032 Y-33.4035
G1 X114.80141 Y-33.62663
G1 X114.88625 Y-33.83197
G1 X114.95866 Y-34.01863
G2 X115.31668 Y-35.28386 I-6.96162 J-2.65322
G2 X115.40886 Y-36.80647 I-6.05087 J-1.1304
G2 X115.1516 Y-38.29587 I-7.52427 J0.53269
G3 X115.15024 Y-38.30083 I0.9634 J-0.26807
G2 X115.03832 Y-38.68409 I-10.77705 J2.93909
G3 X115.03733 Y-38.6873 I0.95475 J-0.29742
G2 X114.84602 Y-39.25038 I-9.83981 J3.02902
G3 X114.84498 Y-39.25319 I0.93716 J-0.3489
G1 X114.81674 Y-39.32975
G3 X114.81556 Y-39.33297 I0.9382 J-0.34609
G2 X114.62444 Y-39.82041 I-10.37786 J3.78784
G3 X114.62138 Y-39.82778 I0.92208 J-0.38699
G2 X113.90301 Y-41.36262 I-16.21109 J6.65192
G3 X113.90046 Y-41.36748 I0.88415 J-0.46721
G2 X113.01146 Y-42.85702 I-13.39575 J6.98489
G3 X113.01067 Y-42.85819 I0.82785 J-0.56094
G2 X111.91266 Y-44.25155 I-10.0376 J6.78062
G2 X110.55109 Y-45.50747 I-8.13599 J7.45439
G2 X108.89251 Y-46.59782 I-7.75559 J9.99075
G2 X106.98404 Y-47.48332 I-7.39972 J13.44891
G2 X104.92659 Y-48.13347 I-6.50311 J16.99904
G2 X102.84149 Y-48.53204 I-4.5188 J17.98653
G3 X102.81028 Y-48.53667 I0.13123 J-0.99135
G3 X102.77805 Y-48.5403 I0.09569 J-0.99541
G2 X100.81167 Y-48.68277 I-2.25513 J17.48406
G3 X100.80684 Y-48.68286 I0.01638 J-0.99987
G2 X100.32714 Y-48.68367 I-0.26065 J12.28419
G3 X100.32306 Y-48.68361 I-0.01783 J-0.99984
G2 X98.85253 Y-48.60261 I0.24544 J17.84555
G2 X96.91468 Y-48.31409 I1.91794 J19.53414
G2 X94.91615 Y-47.83807 I5.64366 J28.12726
G3 X94.91255 Y-47.83708 I-0.26639 J-0.96387
G2 X93.8583 Y-47.53219 I9.23756 J33.91683
G1 X93.32477 Y-47.36716
G1 X92.79218 Y-47.19637
G2 X92.2326 Y-47.01105 I10.99031 J34.12302
G3 X92.22988 Y-47.01012 I-0.32218 J-0.94668
G1 X92.12385 Y-46.97438
G1 X91.7253 Y-46.83835
G1 X91.12817 Y-46.62989
G1 X90.53289 Y-46.41689
G1 X89.93146 Y-46.19677
G1 X89.8212 Y-46.15589
G1 X89.39988 Y-45.99826
G1 X88.76896 Y-45.75798
G1 X88.13696 Y-45.51229
G3 X88.135 Y-45.51153 I-0.36232 J-0.93205
G2 X87.83343 Y-45.39253 I8.10482 J20.97949
G3 X87.82969 Y-45.39103 I-0.37377 J-0.92752
G1 X87.55638 Y-45.28217
G1 X87.07893 Y-45.08973
G1 X86.99137 Y-45.05413
G1 X86.65511 Y-44.91646
G3 X86.65069 Y-44.91466 I-0.37888 J-0.92545
G2 X86.16311 Y-44.71238 I10.46491 J25.91334
G3 X86.15966 Y-44.71092 I-0.39191 J-0.92
G1 X85.65756 Y-44.49925
G1 X85.50106 Y-44.43257
G1 X84.90325 Y-44.17472
G3 X84.89973 Y-44.17321 I-0.39606 J-0.91822
G2 X84.46955 Y-43.98446 I9.13095 J21.39434
G3 X84.45907 Y-43.9798 I-0.41103 J-0.91162
G2 X83.80314 Y-43.68659 I17.41642 J39.84142
G3 X83.80139 Y-43.68579 I-0.41563 J-0.90953
G1 X83.46831 Y-43.53436
G1 X83.30374 Y-43.4589
G1 X83.13885 Y-43.38285
G1 X82.9819 Y-43.31007
G1 X82.38739 Y-43.03071
G1 X82.16678 Y-42.92555
G2 X80.6263 Y-42.16776 I37.38545 J77.94337
G2 X78.14809 Y-40.85937 I35.01179 J69.31687
G1 X77.83699 Y-40.68738
G2 X75.69304 Y-39.45926 I44.86749 J80.81133
G3 X75.69253 Y-39.45896 I-0.50861 J-0.861
G1 X75.5374 Y-39.36745
G1 X75.39268 Y-39.28179
G1 X75.25709 Y-39.20129
G1 X75.13072 Y-39.12605
G1 X74.65398 Y-38.8405
G1 X74.29807 Y-38.62566
G1 X73.76351 Y-38.30063
G1 X73.49717 Y-38.13775
G1 X73.23143 Y-37.97466
G1 X71.97435 Y-37.19737
G1 X70.71831 Y-36.41529
G1 X70.71824 Y-36.41525
G1 X69.41791 Y-35.60573
G3 X69.41666 Y-35.60496 I-0.5285 J-0.84893
G1 X69.09126 Y-35.40304
G3 X69.0895 Y-35.40195 I-0.52726 J-0.84971
G1 X68.11211 Y-34.79826
G3 X68.11037 Y-34.79719 I-0.5255 J-0.85079
G1 X68.02544 Y-34.74497
G3 X68.024 Y-34.74409 I-0.52377 J-0.85186
G1 X67.36554 Y-34.34077
G3 X67.36189 Y-34.33854 I-0.52232 J-0.85275
G1 X66.37152 Y-33.73774
G3 X66.36643 Y-33.73468 I-0.51867 J-0.85498
G1 X65.37258 Y-33.13981
G3 X65.36956 Y-33.13801 I-0.51358 J-0.85804
G1 X65.28028 Y-33.085
G3 X65.27925 Y-33.08439 I-0.51056 J-0.85984
G3 X62.48149 Y-31.46107 I-92.69574 J-156.53691
G3 X62.47959 Y-31.45999 I-0.49415 J-0.86938
G3 X59.45442 Y-29.78904 I-84.79855 J-149.94892
G3 X59.45318 Y-29.78837 I-0.47469 J-0.88015
G3 X56.32565 Y-28.14764 I-83.10504 J-154.61254
G3 X56.32317 Y-28.14637 I-0.45563 J-0.89017
G1 X55.5357 Y-27.74608
G3 X55.53185 Y-27.74413 I-0.45315 J-0.89144
G1 X54.93996 Y-27.44647
G1 X54.93995 Y-27.44646
G1 X54.93998 Y-27.44647
G1 X54.93996
G3 X54.0454 Y-27.00162 I-49.48595 J-98.3913
G3 X53.59227 Y-26.77856 I-16.12881 J-32.19254
G1 X53.14792 Y-26.56124
G3 X53.14574 Y-26.56018 I-0.43933 J-0.89833
G1 X52.75266 Y-26.36912
G3 X52.75077 Y-26.36821 I-0.43715 J-0.89939
G1 X52.40655 Y-26.20179
G1 X52.4065 Y-26.20176
G1 X52.4066 Y-26.20181
G1 X52.40655 Y-26.20179
G3 X49.97418 Y-25.04859 I-75.87987 J-156.90685
G1 X49.58847 Y-24.86926
G3 X49.58597 Y-24.8681 I-0.42159 J-0.90679
G1 X48.91004 Y-24.55611
G3 X48.90727 Y-24.55484 I-0.41908 J-0.90795
G1 X48.39958 Y-24.32238
G3 X48.39796 Y-24.32164 I-0.41631 J-0.90922
G1 X48.2074 Y-24.2348
G3 X48.20701 Y-24.23462 I-0.41469 J-0.90996
G3 X46.86477 Y-23.62918 I-88.82641 J-195.13486
G3 X46.86313 Y-23.62845 I-0.40804 J-0.91296
G1 X46.13231 Y-23.30339
G3 X46.02626 Y-23.2565 I-0.8021 J-1.67062
G1 X44.95446 Y-22.7861
G3 X44.95071 Y-22.78446 I-0.40188 J-0.91569
G1 X44.42268 Y-22.55529
G3 X44.32265 Y-22.51191 I-0.76191 J-1.61969
G3 X43.85364 Y-22.31013 I-13.63062 J-31.03738
G1 X43.67746 Y-22.23463
G3 X43.67545 Y-22.23377 I-0.39391 J-0.91915
G1 X43.00355 Y-21.94756
G3 X42.99949 Y-21.94585 I-0.39189 J-0.92001
G1 X41.9898 Y-21.52099
G3 X41.98604 Y-21.51942 I-0.38784 J-0.92173
G1 X41.49659 Y-21.31581
G3 X41.39784 Y-21.27491 I-0.71491 J-1.58636
G1 X40.97121 Y-21.09892
G3 X40.96825 Y-21.0977 I-0.38134 J-0.92443
G1 X40.27958 Y-20.81619
G3 X40.2749 Y-20.81429 I-0.37838 J-0.92565
G1 X39.23984 Y-20.39727
G3 X39.23395 Y-20.39491 I-0.37371 J-0.92755
G1 X38.20693 Y-19.98868
G3 X38.15103 Y-19.96652 I-0.65031 J-1.55837
G3 X38.09679 Y-19.94555 I-0.63468 J-1.56149
G1 X37.45841 Y-19.69742
G3 X37.45335 Y-19.69547 I-0.36229 J-0.93207
G1 X36.4773 Y-19.32216
G3 X36.4726 Y-19.32038 I-0.35723 J-0.93402
G1 X35.98362 Y-19.13617
G3 X35.98122 Y-19.13527 I-0.35253 J-0.9358
G1 X35.74705 Y-19.04774
G3 X35.67737 Y-19.0215 I-0.8035 J-2.02777
G3 X35.58141 Y-18.98574 I-0.91179 J-2.3001
G3 X35.47541 Y-18.94675 I-0.91911 J-2.33537
G1 X35.16561 Y-18.83229
G3 X35.07003 Y-18.79714 I-0.92001 J-2.35436
G1 X34.51541 Y-18.59458
G3 X34.51427 Y-18.59416 I-0.34306 J-0.93931
G3 X32.80372 Y-17.98535 I-44.19449 J-121.46297
G1 X32.63516 Y-17.92665
G3 X32.63402 Y-17.92626 I-0.32886 J-0.94438
G1 X32.47586 Y-17.87139
G3 X32.47327 Y-17.8705 I-0.32772 J-0.94477
G1 X31.87985 Y-17.66648
G3 X30.97775 Y-17.36176 I-27.43944 J-79.74494
G1 X30.53139 Y-17.21337
G3 X30.52839 Y-17.21238 I-0.31547 J-0.94894
G1 X30.08124 Y-17.06529
G3 X30.07745 Y-17.06406 I-0.31246 J-0.94993
G1 X29.37872 Y-16.83731
G3 X29.37474 Y-16.83602 I-0.30867 J-0.95117
G1 X28.84993 Y-16.66814
G3 X28.84793 Y-16.6675 I-0.30469 J-0.95245
G1 X28.74943 Y-16.63622
G3 X28.74679 Y-16.63538 I-0.30269 J-0.95309
G1 X28.00769 Y-16.4029
G1 X28.00764 Y-16.40289
G3 X27.25927 Y-16.17141 I-24.87474 J-79.09562
G3 X24.31016 Y-15.29508 I-55.89105 J-182.68983
G3 X23.52905 Y-15.07191 I-16.23029 J-55.32753
G1 X22.84568 Y-14.88043
G1 F300.0 Z-4.0
G1 F800.0 X22.37223 Y-14.74777
G3 X22.36651 Y-14.74618 I-0.26981 J-0.96291
G1 X21.20683 Y-14.42866
G3 X21.20481 Y-14.42811 I-0.26408 J-0.9645
G3 X20.39306 Y-14.2101 I-39.43654 J-145.22423
G1 X20.24193 Y-14.16989
G3 X20.24124 Y-14.16971 I-0.25711 J-0.96638
G1 X20.09932 Y-14.13206
G3 X20.09775 Y-14.13165 I-0.25642 J-0.96657
G1 X19.56686 Y-13.99173
G3 X18.75854 Y-13.78144 I-17.75984 J-66.60888
G1 X17.95969 Y-13.57685
G3 X17.95691 Y-13.57614 I-0.24811 J-0.96873
G1 X17.53914 Y-13.47042
G3 X17.53653 Y-13.46976 I-0.24533 J-0.96944
G1 X16.80499 Y-13.28673
G3 X16.80083 Y-13.2857 I-0.24272 J-0.9701
G1 X15.70237 Y-13.01586
G3 X15.69736 Y-13.01464 I-0.23856 J-0.97113
G1 X14.59751 Y-12.75047
G3 X14.594 Y-12.74963 I-0.23355 J-0.97235
G1 X14.16638 Y-12.64855
G3 X14.16496 Y-12.64822 I-0.23004 J-0.97318
G1 X13.97781 Y-12.60426
G3 X13.97574 Y-12.60378 I-0.22862 J-0.97352
G1 X13.27371 Y-12.44049
G3 X13.27083 Y-12.43983 I-0.22655 J-0.974
G1 X12.74394 Y-12.31891
G3 X12.74263 Y-12.31862 I-0.22367 J-0.97467
G3 X11.15282 Y-11.96241 I-47.46061 J-208.09733
G3 X7.67204 Y-11.22948 I-40.74372 J-184.86578
G3 X7.66981 Y-11.22903 I-0.19684 J-0.98043
G1 X6.80631 Y-11.05771
G3 X6.80392 Y-11.05724 I-0.19461 J-0.98088
G3 X4.19345 Y-10.56646 I-33.63395 J-171.71144
G3 X0.74545 Y-9.98519 I-27.02554 J-149.79362
G3 X0.74264 Y-9.98475 I-0.1549 J-0.98793
G1 X-0.10039 Y-9.85502
G3 X-0.10551 Y-9.85425 I-0.15209 J-0.98837
G1 X-0.73831 Y-9.76022
G3 X-0.74229 Y-9.75964 I-0.14697 J-0.98914
G3 X-2.65323 Y-9.4935 I-27.02561 J-187.05749
G3 X-2.65815 Y-9.49285 I-0.13288 J-0.99113
G1 X-3.48919 Y-9.38564
G3 X-3.49344 Y-9.3851 I-0.12796 J-0.99178
G1 X-3.80527 Y-9.34622
G3 X-3.8085 Y-9.34583 I-0.1237 J-0.99232
G1 X-4.35143 Y-9.27993
G3 X-4.77431 Y-9.23017 I-2.81248 J-22.0789
G1 X-5.38611 Y-9.16061
G3 X-5.39081 Y-9.16008 I-0.11298 J-0.9936
G1 X-6.00584 Y-9.0931
G3 X-6.00978 Y-9.09268 I-0.10828 J-0.99412
G1 X-6.42072 Y-9.04956
G3 X-6.42507 Y-9.04912 I-0.10434 J-0.99454
G1 X-7.14443 Y-8.97683
G3 X-7.14929 Y-8.97635 I-0.09998 J-0.99499
G1 X-7.68902 Y-8.92478
G3 X-7.69424 Y-8.92429 I-0.09512 J-0.99547
G1 X-8.5043 Y-8.85116
G3 X-8.50899 Y-8.85075 I-0.08991 J-0.99595
G1 X-8.91424 Y-8.81609
G3 X-8.91736 Y-8.81583 I-0.08522 J-0.99636
G1 X-9.32266 Y-8.78244
G3 X-9.32736 Y-8.78207 I-0.08209 J-0.99662
G1 X-10.1352 Y-8.71936
G3 X-10.31432 Y-8.70611 I-0.39885 J-4.17619
G1 X-10.87235 Y-8.66644
G3 X-10.99973 Y-8.65773 I-0.34185 J-4.06129
G1 X-11.80195 Y-8.60559
G3 X-11.80801 Y-8.60522 I-0.06485 J-0.99789
G1 X-12.61357 Y-8.55777
G3 X-12.83146 Y-8.54575 I-0.67503 J-10.25502
G3 X-13.59715 Y-8.5063 I-11.01819 J-206.38511
G3 X-13.60017 Y-8.50615 I-0.04961 J-0.99877
G1 X-14.17521 Y-8.47933
G3 X-14.17883 Y-8.47917 I-0.04659 J-0.99891
G1 X-14.61019 Y-8.46061
G3 X-14.61288 Y-8.4605 I-0.04298 J-0.99908
G1 X-14.93642 Y-8.44746
G3 X-14.94097 Y-8.44728 I-0.04029 J-0.99919
G1 X-15.91165 Y-8.41257
G3 X-15.91785 Y-8.41236 I-0.03574 J-0.99936
G1 X-16.73998 Y-8.38806
G3 X-16.74486 Y-8.38793 I-0.02955 J-0.99956
G1 X-17.36152 Y-8.37271
G3 X-17.36666 Y-8.3726 I-0.02467 J-0.9997
G1 X-18.2918 Y-8.35452
G3 X-18.29784 Y-8.35442 I-0.01953 J-0.99981
G1 X-19.22306 Y-8.34194
G3 X-19.22868 Y-8.34188 I-0.01349 J-0.99991
G1 X-20.05792 Y-8.33536
G3 X-20.06153 Y-8.33533 I-0.00787 J-0.99997
G1 X-20.37253 Y-8.33401
G3 X-20.3769 Y-8.334 I-0.00427 J-0.99999
G1 X-21.46529 Y-8.33411
G3 X-22.56666 Y-8.3416 I0.00853 J-82.15722
G1 X-23.4023 Y-8.35219
G3 X-24.66912 Y-8.37625 I1.19315 J-96.21321
G1 X-25.29571 Y-8.39169
G3 X-25.29948 Y-8.39179 I0.02464 J-0.9997
G1 X-25.92647 Y-8.40961
G3 X-25.93088 Y-8.40974 I0.02841 J-0.9996
G1 X-26.77153 Y-8.43734
G3 X-26.77357 Y-8.43741 I0.03281 J-0.99946
G3 X-29.31061 Y-8.5465 I5.45109 J-156.32913
G3 X-29.31273 Y-8.54661 I0.05107 J-0.9987
G1 X-30.14877 Y-8.59115
G3 X-30.48038 Y-8.61 I0.59984 J-13.475
G1 X-31.57912 Y-8.67732
G3 X-31.58603 Y-8.67777 I0.06115 J-0.99813
G1 X-32.68823 Y-8.75297
G3 X-32.69438 Y-8.75341 I0.06807 J-0.99768
G1 X-33.5293 Y-8.81555
G3 X-33.53399 Y-8.81591 I0.07422 J-0.99724
G1 X-34.16 Y-8.86547
G3 X-34.16509 Y-8.86589 I0.07892 J-0.99688
G1 X-35.1036 Y-8.94501
G3 X-35.10822 Y-8.94541 I0.08401 J-0.99647
G1 X-35.57735 Y-8.98715
G3 X-35.58045 Y-8.98743 I0.08862 J-0.99607
G1 X-36.04901 Y-9.03059
G3 X-37.70643 Y-9.19513 I9.62903 J-105.42388
G3 X-38.12604 Y-9.23977 I2.75474 J-27.88767
G1 X-38.41729 Y-9.27148
G3 X-38.56597 Y-9.28791 I0.22002 J-2.67175
G1 X-39.36119 Y-9.37821
G3 X-39.36676 Y-9.37886 I0.11284 J-0.99361
G1 X-40.17295 Y-9.475
G3 X-40.17783 Y-9.47559 I0.11841 J-0.99297
G1 X-40.78219 Y-9.55067
G3 X-40.78586 Y-9.55114 I0.12329 J-0.99237
G1 X-41.23891 Y-9.60912
G3 X-41.24284 Y-9.60963 I0.12695 J-0.99191
G1 X-41.90829 Y-9.69749
G3 X-42.01127 Y-9.71101 I0.23677 J-2.20196
G3 X-42.09617 Y-9.72276 I0.24982 J-2.11784
G3 X-42.61051 Y-9.79352 I5.93214 J-45.02448
G1 X-43.00155 Y-9.84852
G3 X-43.00525 Y-9.84904 I0.13928 J-0.99025
G1 X-43.67918 Y-9.9464
G3 X-43.77391 Y-9.96035 I0.24305 J-1.9791
G1 X-44.7462 Y-10.10697
G3 X-44.83948 Y-10.12138 I0.25056 J-1.93172
G1 X-45.76026 Y-10.26674
G3 X-45.76249 Y-10.2671 I0.15594 J-0.98777
G3 X-48.81905 Y-10.78934 I23.5978 J-147.3174
G3 X-48.81985 Y-10.78949 I0.17865 J-0.98391
G1 X-49.55415 Y-10.92344
G3 X-49.55689 Y-10.92394 I0.17946 J-0.98377
G1 X-49.83213 Y-10.97494
G3 X-49.83534 Y-10.97555 I0.1822 J-0.98326
G1 X-50.79799 Y-11.15719
G3 X-50.80274 Y-11.1581 I0.18542 J-0.98266
G1 X-51.7645 Y-11.34439
G3 X-51.76834 Y-11.34514 I0.19016 J-0.98175
G1 X-52.47789 Y-11.48546
G3 X-52.48165 Y-11.48621 I0.194 J-0.981
G1 X-53.5452 Y-11.70077
G3 X-53.54834 Y-11.70141 I0.19776 J-0.98025
G1 X-54.07979 Y-11.8104
G3 X-54.08175 Y-11.81081 I0.20091 J-0.97961
G1 X-54.61295 Y-11.92086
G3 X-54.61449 Y-11.92118 I0.20286 J-0.97921
G1 X-54.95847 Y-11.99301
G3 X-54.95957 Y-11.99323 I0.2044 J-0.97889
G1 X-55.26048 Y-12.05642
G3 X-55.26183 Y-12.0567 I0.2055 J-0.97866
G1 X-55.7882 Y-12.16799
G3 X-55.7914 Y-12.16867 I0.20685 J-0.97837
G1 X-57.3694 Y-12.5077
G3 X-57.37353 Y-12.5086 I0.21006 J-0.97769
G1 X-58.7019 Y-12.79988
G3 X-58.81644 Y-12.82523 I0.43062 J-2.21683
G1 X-60.05971 Y-13.10292
G3 X-60.06247 Y-13.10354 I0.21799 J-0.97595
G1 X-60.72379 Y-13.25322
G3 X-60.72642 Y-13.25382 I0.22075 J-0.97533
G1 X-61.7178 Y-13.48101
G3 X-61.72136 Y-13.48184 I0.22338 J-0.97473
G1 X-62.71181 Y-13.71263
G3 X-62.71447 Y-13.71326 I0.22694 J-0.97391
G1 X-63.04266 Y-13.79068
G3 X-63.62847 Y-13.93015 I10.72979 J-46.3665
G1 X-63.84287 Y-13.98163
G3 X-63.84387 Y-13.98187 I0.23348 J-0.97236
G1 X-64.03331 Y-14.02757
G3 X-64.03421 Y-14.02778 I0.23447 J-0.97212
G1 X-64.19992 Y-14.06791
G3 X-64.20188 Y-14.06839 I0.23537 J-0.97191
G1 X-64.78148 Y-14.21
G3 X-64.78472 Y-14.21079 I0.23734 J-0.97143
G1 X-65.36342 Y-14.35423
G3 X-66.71231 Y-14.69727 I24.69774 J-99.93855
G3 X-66.71248 Y-14.69731 I0.25301 J-0.96746
G1 X-67.37937 Y-14.87184
G3 X-67.38234 Y-14.87263 I0.25318 J-0.96742
G1 X-67.54897 Y-14.91678
G3 X-67.55142 Y-14.91743 I0.25615 J-0.96664
G1 X-68.05083 Y-15.05113
G3 X-68.05126 Y-15.05125 I0.2586 J-0.96598
G3 X-70.80432 Y-15.82699 I29.33904 J-109.39552
G3 X-70.80614 Y-15.82753 I0.28335 J-0.95902
G1 X-71.50883 Y-16.03659
G3 X-71.51392 Y-16.03812 I0.28516 J-0.95848
G1 X-72.04006 Y-16.1977
G3 X-72.04387 Y-16.19886 I0.29025 J-0.95695
G1 X-72.43803 Y-16.32013
G3 X-72.44207 Y-16.32138 I0.29405 J-0.95579
G1 X-73.03104 Y-16.50532
G3 X-73.6322 Y-16.69638 I11.49052 J-37.19554
G3 X-76.5204 Y-17.65959 I41.82311 J-130.21823
G3 X-76.52284 Y-17.66044 I0.32691 J-0.94506
G1 X-77.24928 Y-17.91383
G3 X-77.25312 Y-17.91518 I0.32935 J-0.94421
G3 X-79.4354 Y-18.70003 I69.59681 J-196.94117
G3 X-79.43818 Y-18.70105 I0.34364 J-0.9391
G1 X-80.15409 Y-18.96543
G3 X-80.15713 Y-18.96656 I0.34643 J-0.93808
G1 X-80.69344 Y-19.1666
G3 X-80.69642 Y-19.16771 I0.34947 J-0.93695
G1 X-81.4999 Y-19.47032
G3 X-81.50198 Y-19.47111 I0.35245 J-0.93583
G1 X-81.70276 Y-19.54723
G3 X-81.70373 Y-19.5476 I0.35453 J-0.93504
G1 X-81.98789 Y-19.65568
G3 X-82.09799 Y-19.69765 I0.6214 J-1.79555
G1 X-82.30669 Y-19.77735
G3 X-82.3077 Y-19.77774 I0.35676 J-0.93419
G1 X-82.64974 Y-19.90878
G3 X-82.65043 Y-19.90905 I0.35777 J-0.93381
G3 X-85.04704 Y-20.83931 I126.8665 J-330.39691
G1 X-85.04707 Y-20.83932
G1 X-85.04701 Y-20.83929
G1 X-85.04704 Y-20.83931
G1 X-85.3625 Y-20.96305
G3 X-85.36383 Y-20.96357 I0.36518 J-0.93094
G1 X-86.46725 Y-21.39823
G3 X-86.46901 Y-21.39892 I0.36651 J-0.93042
G1 X-87.57162 Y-21.83568
G3 X-87.57281 Y-21.83615 I0.36827 J-0.92972
G1 X-88.13532 Y-22.0598
G3 X-88.13715 Y-22.06053 I0.36946 J-0.92925
G1 X-89.81204 Y-22.73029
G3 X-89.95381 Y-22.78715 I1.16093 J-3.09985
G3 X-90.17962 Y-22.87827 I3.74727 J-9.61139
G3 X-90.58508 Y-23.04236 I8.40084 J-21.34058
G1 X-90.73156 Y-23.10185
G3 X-90.73347 Y-23.10263 I0.37624 J-0.92652
G1 X-91.2397 Y-23.30941
G3 X-91.31568 Y-23.34064 I0.43823 J-1.17444
G1 X-91.78149 Y-23.5333
G3 X-91.90682 Y-23.58559 I1.50025 J-3.77259
G1 X-92.09936 Y-23.66636
G3 X-92.10294 Y-23.66787 I0.38683 J-0.92215
G1 X-92.452 Y-23.81589
G3 X-92.45666 Y-23.81788 I0.39041 J-0.92064
G1 X-92.71794 Y-23.93025
G3 X-92.72106 Y-23.9316 I0.39507 J-0.91865
G1 X-92.81892 Y-23.97408
G3 X-92.82148 Y-23.97519 I0.3982 J-0.9173
G1 X-92.98398 Y-24.04627
G3 X-93.13524 Y-24.11304 I1.54539 J-3.70558
G1 X-93.31877 Y-24.1949
G3 X-93.3233 Y-24.19693 I0.40732 J-0.91329
G1 X-93.51455 Y-24.28337
G3 X-93.52209 Y-24.28681 I0.41185 J-0.91125
G1 X-93.90767 Y-24.46494
G3 X-93.91816 Y-24.46986 I0.41939 J-0.90781
G3 X-94.49975 Y-24.74969 I33.99942 J-71.40906
G3 X-94.5076 Y-24.75355 I0.43724 J-0.89935
G1 X-94.64645 Y-24.82256
G3 X-94.88004 Y-24.94064 I3.8022 J-7.81167
G1 X-95.08918 Y-25.04852
G3 X-95.09339 Y-25.0507 I0.45842 J-0.88874
G3 X-96.60282 Y-25.8912 I14.74112 J-28.24893
G3 X-96.6053 Y-25.89267 I0.51 J-0.86017
G1 X-96.97445 Y-26.11298
G3 X-96.98304 Y-26.11817 I0.51248 J-0.8587
G1 X-97.53344 Y-26.45419
G3 X-97.53844 Y-26.45726 I0.52108 J-0.85351
G1 X-97.81269 Y-26.62692
G3 X-97.81402 Y-26.62774 I0.52608 J-0.85044
G1 X-97.95102 Y-26.71278
G3 X-97.95143 Y-26.71304 I0.5274 J-0.84962
G1 X-98.08832 Y-26.7981
G3 X-98.09472 Y-26.80211 I0.52782 J-0.84936
G2 X-98.4489 Y-27.02204 I-14.10276 J22.31629
G3 X-98.45354 Y-27.02489 I0.5208 J-0.85368
G1 X-98.72877 Y-27.19486
G2 X-99.54368 Y-27.68537 I-26.96438 J43.87518
G1 X-99.62883 Y-27.73491
G3 X-99.64691 Y-27.74568 I0.50288 J-0.86436
G3 X-99.6859 Y-27.76816 I0.47978 J-0.87739
G3 X-99.70807 Y-27.78062 I0.47885 J-0.8779
G2 X-99.91888 Y-27.90063 I-8.39903 J14.50811
G2 X-98.54888 Y-27.03581 I67.99759 J-106.19984
G3 X-98.54528 Y-27.03356 I-0.52836 J0.84902
G2 X-97.75621 Y-26.54474 I39.27104 J-62.51086
G3 X-97.7547 Y-26.54381 I-0.52127 J0.85339
G1 X-96.95363 Y-26.05254
G1 X-96.84612 Y-25.98694
G1 X-96.73793 Y-25.92098
G1 X-96.5213 Y-25.78913
G1 X-96.08757 Y-25.52592
G1 X-95.21788 Y-25.00101
G1 X-94.52151 Y-24.58324
G1 X-94.28921 Y-24.44436
G3 X-94.28797 Y-24.44362 I-0.51313 J0.85831
G2 X-93.36094 Y-23.89184 I82.13743 J-136.94206
G1 X-93.36093 Y-23.89183
G1 X-92.37948 Y-23.31212
G1 X-91.39736 Y-22.73711
G1 X-90.82246 Y-22.40315
G1 X-90.63164 Y-22.29277
G1 X-89.86263 Y-21.85041
G1 X-89.34996 Y-21.55784
G2 X-87.23159 Y-20.37122 I116.54358 J-205.57194
G1 X-86.56396 Y-20.0054
G1 X-85.89267 Y-19.64182
G3 X-85.86535 Y-19.62647 I-0.47625 J0.87931
G2 X-85.83558 Y-19.61045 I0.24904 J-0.42727
G3 X-85.80712 Y-19.5958 I-0.44336 J0.89634
G1 X-85.32814 Y-19.33948
G1 X-85.05653 Y-19.19515
G1 X-84.22529 Y-18.7581
G1 X-83.39174 Y-18.32697
G1 X-82.8346 Y-18.04282
G2 X-80.5827 Y-16.92709 I65.3381 J-129.0429
G3 X-80.58022 Y-16.92589 I-0.43616 J0.89987
G2 X-79.73674 Y-16.52134 I29.85291 J-61.16171
G1 X-79.73671 Y-16.52132
G1 X-79.73678 Y-16.52136
G1 X-79.73674 Y-16.52134
G1 X-78.88068 Y-16.11805
G1 X-78.30926 Y-15.85287
G3 X-78.30865 Y-15.85259 I-0.42095 J0.90708
G2 X-77.44318 Y-15.45703 I31.01242 J-66.70982
G1 X-76.56515 Y-15.06313
G1 X-76.31613 Y-14.95275
G1 X-76.03028 Y-14.82678
G2 X-74.28217 Y-14.07335 I77.07509 J-176.424
G1 X-74.03232 Y-13.96805
G1 X-73.74671 Y-13.84841
G1 X-72.98254 Y-13.53221
G1 X-72.21622 Y-13.2209
G1 X-71.99834 Y-13.13347
G1 X-71.74787 Y-13.03355
G1 X-71.46012 Y-12.91956
G3 X-71.45632 Y-12.91805 I-0.3683 J0.92971
G2 X-71.03839 Y-12.75405 I11.41822 J-28.48292
G3 X-71.03524 Y-12.75283 I-0.35847 J0.93354
G1 X-70.60583 Y-12.58628
G1 X-69.74549 Y-12.2586
G1 X-69.17292 Y-12.04511
G1 X-68.36443 Y-11.75011
G1 X-67.55353 Y-11.46204
G1 X-67.01002 Y-11.27345
G3 X-66.9905 Y-11.26645 I-0.32782 J0.94474
G2 X-66.89086 Y-11.2323 I0.74554 J-2.01283
G3 X-66.86712 Y-11.22448 I-0.30091 J0.95365
G2 X-65.55946 Y-10.78831 I25.732 J-74.96774
G1 X-65.11988 Y-10.64661
G1 X-64.53325 Y-10.4614
G1 X-64.24669 Y-10.37254
G1 X-63.95979 Y-10.28466
G1 X-63.38152 Y-10.11077
G2 X-62.22585 Y-9.77621 I28.83877 J-97.4543
G3 X-62.19434 Y-9.76673 I-0.27239 J0.96219
G2 X-62.18468 Y-9.76401 I0.0445 J-0.13951
G3 X-62.15176 Y-9.75535 I-0.23793 J0.97128
G2 X-59.70608 Y-9.10485 I23.93621 J-85.07004
G1 X-58.9773 Y-8.92476
G2 X-58.25533 Y-8.75218 I18.7225 J-76.73002
G1 X-57.76832 Y-8.63893
G1 X-57.49156 Y-8.57566
G1 X-57.17514 Y-8.50428
G1 X-56.43828 Y-8.34185
G1 X-55.70055 Y-8.18432
G1 X-55.20921 Y-8.08209
G1 X-54.54973 Y-7.94808
G2 X-53.53582 Y-7.7488 I19.50415 J-96.55736
G1 X-52.51234 Y-7.55532
G1 X-51.83073 Y-7.43039
G2 X-50.41952 Y-7.18083 I32.14111 J-177.63772
G1 X-50.21723 Y-7.14599
G1 X-49.98623 Y-7.10648
G1 X-49.72266 Y-7.06174
G1 X-49.01808 Y-6.9439
G1 X-47.79622 Y-6.74516
G1 X-47.39002 Y-6.68057
G1 X-46.84684 Y-6.59529
G1 X-46.12271 Y-6.48345
G1 X-44.64622 Y-6.26157
G1 X-43.1686 Y-6.0472
G1 X-42.05292 Y-5.89013
G1 X-40.93603 Y-5.73688
G1 X-40.19046 Y-5.63677
G1 X-40.19034 Y-5.63675
G2 X-37.2294 Y-5.25654 I33.72997 J-250.95691
G1 X-36.13468 Y-5.12323
G1 X-35.77192 Y-5.07997
G1 X-34.31269 Y-4.91071
G1 X-33.7149 Y-4.84368
G1 X-33.11603 Y-4.77793
G1 X-32.71715 Y-4.73495
G1 X-32.1849 Y-4.67865
G1 X-31.47474 Y-4.60543
G2 X-28.89458 Y-4.35934 I27.11486 J-270.64027
G1 X-28.72406 Y-4.34425
G1 X-27.84529 Y-4.26897
G1 X-26.96681 Y-4.19796
G1 X-26.38136 Y-4.15306
G1 X-26.04802 Y-4.12838
G1 X-25.0741 Y-4.06001
G1 X-24.75073 Y-4.03855
G1 X-24.56614 Y-4.02658
G1 X-24.07195 Y-3.99553
G1 X-23.4134 Y-3.95643
G1 X-22.42316 Y-3.90252
G1 X-21.43247 Y-3.85437
G1 X-20.77229 Y-3.82545
G1 X-20.32902 Y-3.80743
G3 X-20.29867 Y-3.80574 I-0.04062 J0.99917
G3 X-20.26845 Y-3.80506 I-0.00738 J0.99997
G1 X-19.76196 Y-3.786
G1 X-18.74905 Y-3.7521
G1 X-18.07528 Y-3.73261
G1 X-17.04095 Y-3.70728
G1 X-16.69753 Y-3.70008
G1 X-16.23833 Y-3.69137
G1 X-15.62536 Y-3.68138
G1 X-15.27611 Y-3.67651
G1 X-14.5555 Y-3.66835
G1 X-13.83496 Y-3.66272
G1 X-13.35527 Y-3.66037
G1 X-12.71451 Y-3.65898
G1 X-12.3492 Y-3.65908
G1 X-11.81186 Y-3.66044
G1 X-11.27544 Y-3.66324
G1 X-10.20024 Y-3.67327
G1 X-9.48416 Y-3.68328
G1 X-9.2938 Y-3.6864
G2 X-6.52752 Y-3.75465 I-3.15127 J-183.82223
G1 X-6.1309 Y-3.76811
G3 X-6.12994 Y-3.76814 I0.03391 J0.99942
G2 X-4.39323 Y-3.83876 I-3.72655 J-113.04444
G3 X-4.35704 Y-3.83985 I0.0483 J0.99883
G2 X-4.30924 Y-3.84208 I-0.00839 J-0.69237
G3 X-4.27723 Y-3.84417 I0.08115 J0.9967
G1 X-3.65621 Y-3.87473
G1 X-3.30342 Y-3.89327
G1 X-2.89813 Y-3.91565
G3 X-2.89791 Y-3.91566 I0.05514 J0.99848
G2 X-0.3923 Y-4.08112 I-6.27022 J-114.01133
G3 X-0.3787 Y-4.08207 I0.07686 J0.99704
G2 X-0.23621 Y-4.09297 I-0.34755 J-5.48314
G3 X-0.21383 Y-4.09472 I0.08919 J0.99601
G2 X-0.05584 Y-4.10702 I-0.48839 J-7.29354
G3 X-0.04187 Y-4.10816 I0.08843 J0.99608
G2 X0.35747 Y-4.14021 I-2.6811 J-35.90584
G3 X0.35944 Y-4.14038 I0.08555 J0.99633
G1 X0.81892 Y-4.17892
G1 X1.27538 Y-4.21899
G1 X2.1912 Y-4.30489
G1 X2.7989 Y-4.36605
G1 X3.61269 Y-4.45332
G2 X6.01526 Y-4.74848 I-10.63664 J-96.50608
G1 X6.81796 Y-4.86008
G1 X7.65152 Y-4.98303
G1 X8.48816 Y-5.11375
G3 X8.489 Y-5.11388 I0.15437 J0.98801
G2 X9.0332 Y-5.20288 I-5.30803 J-34.16457
G3 X9.03453 Y-5.20311 I0.16926 J0.98557
G1 X9.77787 Y-5.32974
G1 X9.97413 Y-5.36414
G2 X12.69503 Y-5.88206 I-16.76805 J-95.49691
G1 X13.08523 Y-5.96245
G2 X15.06076 Y-6.39153 I-24.28605 J-116.57829
G3 X15.07555 Y-6.39475 I0.22054 J0.97538
G2 X15.17749 Y-6.41787 I-0.68313 J-3.2492
G3 X15.18952 Y-6.42071 I0.23645 J0.97164
G1 X15.89625 Y-6.58348
G3 X15.91021 Y-6.58659 I0.22443 J0.97449
G2 X15.96739 Y-6.59994 I-0.35425 J-1.64544
G3 X16.00136 Y-6.60788 I0.24444 J0.96966
G2 X16.06008 Y-6.62164 I-0.34958 J-1.62371
G3 X16.09544 Y-6.62993 I0.24583 J0.96931
G2 X16.15576 Y-6.64411 I-0.34515 J-1.60319
G3 X16.19447 Y-6.65318 I0.24725 J0.96895
G2 X16.2738 Y-6.6719 I-0.39178 J-1.83739
G3 X16.31572 Y-6.6818 I0.25077 J0.96805
G2 X16.3939 Y-6.70033 I-0.3763 J-1.76208
G3 X16.43294 Y-6.70967 I0.25223 J0.96767
G2 X16.4778 Y-6.72034 I-0.2642 J-1.21076
G3 X16.51653 Y-6.72949 I0.24939 J0.9684
G2 X16.582 Y-6.74511 I-0.32369 J-1.50212
G3 X16.62762 Y-6.75592 I0.25326 J0.9674
G2 X16.72127 Y-6.77835 I-0.3858 J-1.81762
G3 X16.7439 Y-6.78411 I0.25803 J0.96614
G1 X17.31796 Y-6.92316
G1 X17.69845 Y-7.01665
G1 X18.20621 Y-7.14301
G1 X18.88358 Y-7.31426
G1 X19.27052 Y-7.41338
G2 X22.39934 Y-8.24411 I-48.66227 J-189.58485
G1 X23.80535 Y-8.63084
G3 X23.83765 Y-8.63914 I0.2652 J0.96419
G2 X23.86281 Y-8.64612 I-0.08543 J-0.35671
G3 X23.93233 Y-8.66538 I0.30149 J0.95347
G2 X23.96139 Y-8.67345 I-0.09506 J-0.39861
G3 X23.99469 Y-8.6834 I0.30291 J0.95302
G1 X25.59128 Y-9.13041
G1 X27.07198 Y-9.54986
G3 X27.10583 Y-9.55881 I0.27255 J0.96214
G2 X27.13491 Y-9.56709 I-0.09955 J-0.40497
G3 X27.16856 Y-9.57735 I0.30846 J0.95124
G1 X28.7485 Y-10.02893
G3 X28.78154 Y-10.03777 I0.27481 J0.9615
G2 X28.81588 Y-10.04761 I-0.12274 J-0.49262
G3 X28.84838 Y-10.05758 I0.30939 J0.95093
G1 X31.34116 Y-10.7759
G1 X32.17066 Y-11.0161
G1 X35.53765 Y-11.99628
G1 X36.17175 Y-12.18185
G1 X36.8061 Y-12.36783
G1 X38.07534 Y-12.74107
G3 X38.0771 Y-12.74158 I0.28212 J0.95938
G2 X38.91786 Y-12.98974 I-43.29995 J-148.24882
G3 X38.92 Y-12.99037 I0.28581 J0.95829
G1 X39.23605 Y-13.08387
G1 X39.55184 Y-13.17741
G1 X40.18362 Y-13.36493
G1 X40.60416 Y-13.49004
G1 X42.28781 Y-13.99364
G1 X43.11874 Y-14.24396
G3 X43.12153 Y-14.24479 I0.28844 J0.9575
G2 X43.94469 Y-14.49408 I-28.08514 J-94.22095
G3 X43.9465 Y-14.49464 I0.29403 J0.9558
G1 X45.60783 Y-15.00226
G2 X48.84779 Y-16.01317 I-98.38279 J-321.01517
G1 X48.84792 Y-16.01321
G1 X49.12516 Y-16.10121
G1 X49.40171 Y-16.18925
G1 X49.9547 Y-16.3661
G1 X51.06073 Y-16.72319
G1 X51.7969 Y-16.96347
G1 X51.9916 Y-17.02739
G1 X53.27651 Y-17.4532
G1 X53.70373 Y-17.59636
G3 X53.7066 Y-17.59732 I0.31774 J0.94818
G2 X54.26837 Y-17.78684 I-18.5022 J-55.77217
G3 X54.27054 Y-17.78758 I0.32443 J0.94591
G1 X55.02989 Y-18.04608
G1 X55.99791 Y-18.37959
G1 X56.9651 Y-18.7174
G1 X57.09244 Y-18.76222
G1 X57.77969 Y-19.00553
G1 X57.96171 Y-19.07037
G1 X58.45386 Y-19.24654
G1 X58.61678 Y-19.30512
G1 X59.27203 Y-19.54211
G1 X59.70801 Y-19.70101
G1 X59.95642 Y-19.79197
G1 X60.62097 Y-20.03682
G1 X60.79708 Y-20.10208
G1 X61.24998 Y-20.27059
G1 X61.40003 Y-20.32664
G1 X62.00258 Y-20.55278
G1 X63.20776 Y-21.01008
G1 X63.54992 Y-21.14105
G1 X64.89601 Y-21.66078
G1 X66.24008 Y-22.18582
G1 X67.25178 Y-22.58409
G1 X67.39599 Y-22.64102
G1 X67.56097 Y-22.70619
G1 X68.88335 Y-23.22958
G3 X68.88384 Y-23.22978 I0.36802 J0.92982
G1 X71.49527 Y-24.2618
G3 X71.49697 Y-24.26247 I0.36753 J0.93001
G3 X74.09346 Y-25.27041 I120.07992 J305.48169
G3 X74.0968 Y-25.27168 I0.35792 J0.93375
G1 X75.05962 Y-25.63681
G3 X75.06497 Y-25.63882 I0.35459 J0.93502
G1 X76.02996 Y-25.99848
G3 X76.03508 Y-26.00037 I0.34924 J0.93703
G1 X76.6797 Y-26.23663
G3 X76.68393 Y-26.23817 I0.34412 J0.93893
G1 X77.24144 Y-26.43965
G3 X77.24566 Y-26.44117 I0.33989 J0.94046
G1 X77.80401 Y-26.64013
G3 X77.80687 Y-26.64115 I0.33566 J0.94198
G1 X77.96659 Y-26.69751
G3 X77.967 Y-26.69766 I0.33281 J0.943
G3 X79.259 Y-27.14419 I37.35188 J105.98351
G3 X79.26039 Y-27.14466 I0.32089 J0.94711
G3 X80.6922 Y-27.61816 I41.3699 J122.69474
G3 X80.69641 Y-27.61952 I0.30845 J0.95124
G1 X81.17165 Y-27.77129
G3 X81.17773 Y-27.77321 I0.30423 J0.9526
G1 X81.81263 Y-27.97153
G3 X81.82035 Y-27.97391 I0.29815 J0.95452
G1 X82.53507 Y-28.19083
G3 X82.54366 Y-28.19339 I0.29042 J0.9569
G1 X83.26034 Y-28.4039
G3 X83.26539 Y-28.40537 I0.28183 J0.95947
G1 X83.36114 Y-28.43295
G3 X83.3624 Y-28.43331 I0.27678 J0.96093
G1 X83.46274 Y-28.46207
G3 X84.02076 Y-28.61939 I9.96991 J34.29551
G1 X84.33182 Y-28.70513
G3 X84.33369 Y-28.70564 I0.26572 J0.96405
G3 X86.4765 Y-29.25586 I18.63218 J68.11507
G3 X86.4794 Y-29.25655 I0.2335 J0.97236
G1 X86.7826 Y-29.32841
G3 X86.78638 Y-29.32929 I0.23061 J0.97305
G3 X88.54783 Y-29.71477 I15.28993 J65.6513
G3 X88.55524 Y-29.71626 I0.20069 J0.97965
G1 X89.13618 Y-29.8307
G3 X89.1451 Y-29.83241 I0.19328 J0.98114
G1 X89.49266 Y-29.89761
G3 X89.64528 Y-29.92547 I0.61446 J2.93433
G1 X90.11397 Y-30.00812
G3 X90.11499 Y-30.0083 I0.17368 J0.9848
G3 X91.10447 Y-30.16723 I6.06531 J34.60248
G1 X91.37953 Y-30.20754
G3 X91.38318 Y-30.20806 I0.14497 J0.98944
G3 X93.49316 Y-30.45648 I6.10064 J42.73196
G3 X93.82352 Y-30.48513 I1.04289 J10.10561
G1 X93.92084 Y-30.49303
G3 X93.92788 Y-30.49357 I0.08085 J0.99673
G1 X94.33917 Y-30.52401
G3 X94.34867 Y-30.52467 I0.07381 J0.99727
G1 X94.62299 Y-30.54235
G3 X94.63199 Y-30.54288 I0.0643 J0.99793
G1 X94.99694 Y-30.5631
G3 X95.51068 Y-30.5853 I1.04108 J18.1349
G1 X95.74182 Y-30.59289
G3 X95.74855 Y-30.59308 I0.0328 J0.99946
G1 X95.98173 Y-30.59916
G3 X95.99187 Y-30.59938 I0.02606 J0.99966
G1 X96.45817 Y-30.6068
G3 X96.46437 Y-30.60688 I0.01593 J0.99987
G3 X97.42544 Y-30.60267 I0.3312 J34.04523
G3 X97.42693 Y-30.60264 I-0.0185 J0.99983
G3 X99.05527 Y-30.53613 I-0.78196 J39.10996
G3 X99.06055 Y-30.53579 I-0.06162 J0.9981
G1 X99.28695 Y-30.52061
G3 X99.29568 Y-30.51998 I-0.0669 J0.99776
G1 X99.67213 Y-30.49143
G3 X99.67945 Y-30.49085 I-0.07563 J0.99714
G1 X99.8049 Y-30.48041
G3 X99.81416 Y-30.47959 I-0.08295 J0.99655
G1 X100.31546 Y-30.43317
G3 X100.32802 Y-30.43193 I-0.09221 J0.99574
G1 X100.66179 Y-30.39676
G3 X100.66269 Y-30.39667 I-0.10477 J0.9945
G3 X101.12662 Y-30.34212 I-2.20931 J20.78948
G3 X102.93099 Y-30.06071 I-3.49737 J28.35023
G3 X104.68969 Y-29.65637 I-3.94512 J21.18665
G3 X105.17583 Y-29.51595 I-3.16635 J11.87363
G3 X105.34937 Y-29.4622 I-1.42903 J4.92085
G3 X105.97741 Y-29.25108 I-6.93847 J21.68086
G3 X105.98857 Y-29.24708 I-0.33239 J0.94314
G1 X106.15975 Y-29.18446
G3 X106.17222 Y-29.1798 I-0.34354 J0.93914
G1 X106.36683 Y-29.10566
G3 X106.37374 Y-29.103 I-0.35601 J0.93448
G3 X107.93429 Y-28.38434 I-5.18485 J13.31236
G3 X107.93751 Y-28.38261 I-0.47215 J0.88152
G3 X109.35732 Y-27.4827 I-5.75078 J10.64321
G3 X109.35841 Y-27.4819 I-0.59273 J0.8054
G3 X109.98973 Y-26.97979 I-6.63761 J8.99363
G2 X110.02418 Y-27.00939 I-3.10073 J-3.64324
G2 X110.35849 Y-27.32474 I-4.38764 J-4.98629
G1 X110.44625 Y-27.41453
G1 X110.50667 Y-27.47769
G1 X110.69975 Y-27.6858
G1 X110.92978 Y-27.94341
G1 X111.09967 Y-28.13888
G1 X111.35585 Y-28.44038
G1 X111.60949 Y-28.74587
G1 X111.75372 Y-28.92252
G2 X112.73323 Y-30.18455 I-30.79253 J-24.91022
G2 X113.88109 Y-31.87412 I-19.12376 J-14.22705
G2 X114.37724 Y-32.74126 I-12.94203 J-7.98048
G3 X114.37862 Y-32.74386 I0.88381 J0.46784
G2 X114.59696 Y-33.17608 I-9.7055 J-5.17414
G1 X114.7032 Y-33.4035
G1 X114.80141 Y-33.62663
G1 X114.88625 Y-33.83197
G1 X114.95866 Y-34.01863
G2 X115.31668 Y-35.28386 I-6.96162 J-2.65322
G2 X115.40886 Y-36.80647 I-6.05087 J-1.1304
G2 X115.1516 Y-38.29587 I-7.52427 J0.53269
G3 X115.15024 Y-38.30083 I0.9634 J-0.26807
G2 X115.03832 Y-38.68409 I-10.77705 J2.93909
G3 X115.03733 Y-38.6873 I0.95475 J-0.29742
G2 X114.84602 Y-39.25038 I-9.83981 J3.02902
G3 X114.84498 Y-39.25319 I0.93716 J-0.3489
G1 X114.81674 Y-39.32975
G3 X114.81556 Y-39.33297 I0.9382 J-0.34609
G2 X114.62444 Y-39.82041 I-10.37786 J3.78784
G3 X114.62138 Y-39.82778 I0.92208 J-0.38699
G2 X113.90301 Y-41.36262 I-16.21109 J6.65192
G3 X113.90046 Y-41.36748 I0.88415 J-0.46721
G2 X113.01146 Y-42.85702 I-13.39575 J6.98489
G3 X113.01067 Y-42.85819 I0.82785 J-0.56094
G2 X111.91266 Y-44.25155 I-10.0376 J6.78062
G2 X110.55109 Y-45.50747 I-8.13599 J7.45439
G2 X108.89251 Y-46.59782 I-7.75559 J9.99075
G2 X106.98404 Y-47.48332 I-7.39972 J13.44891
G2 X104.92659 Y-48.13347 I-6.50311 J16.99904
G2 X102.84149 Y-48.53204 I-4.5188 J17.98653
G3 X102.81028 Y-48.53667 I0.13123 J-0.99135
G3 X102.77805 Y-48.5403 I0.09569 J-0.99541
G2 X100.81167 Y-48.68277 I-2.25513 J17.48406
G3 X100.80684 Y-48.68286 I0.01638 J-0.99987
G2 X100.32714 Y-48.68367 I-0.26065 J12.28419
G3 X100.32306 Y-48.68361 I-0.01783 J-0.99984
G2 X98.85253 Y-48.60261 I0.24544 J17.84555
G2 X96.91468 Y-48.31409 I1.91794 J19.53414
G2 X94.91615 Y-47.83807 I5.64366 J28.12726
G3 X94.91255 Y-47.83708 I-0.26639 J-0.96387
G2 X93.8583 Y-47.53219 I9.23756 J33.91683
G1 X93.32477 Y-47.36716
G1 X92.79218 Y-47.19637
G2 X92.2326 Y-47.01105 I10.99031 J34.12302
G3 X92.22988 Y-47.01012 I-0.32218 J-0.94668
G1 X92.12385 Y-46.97438
G1 X91.7253 Y-46.83835
G1 X91.12817 Y-46.62989
G1 X90.53289 Y-46.41689
G1 X89.93146 Y-46.19677
G1 X89.8212 Y-46.15589
G1 X89.39988 Y-45.99826
G1 X88.76896 Y-45.75798
G1 X88.13696 Y-45.51229
G3 X88.135 Y-45.51153 I-0.36232 J-0.93205
G2 X87.83343 Y-45.39253 I8.10482 J20.97949
G3 X87.82969 Y-45.39103 I-0.37377 J-0.92752
G1 X87.55638 Y-45.28217
G1 X87.07893 Y-45.08973
G1 X86.99137 Y-45.05413
G1 X86.65511 Y-44.91646
G3 X86.65069 Y-44.91466 I-0.37888 J-0.92545
G2 X86.16311 Y-44.71238 I10.46491 J25.91334
G3 X86.15966 Y-44.71092 I-0.39191 J-0.92
G1 X85.65756 Y-44.49925
G1 X85.50106 Y-44.43257
G1 X84.90325 Y-44.17472
G3 X84.89973 Y-44.17321 I-0.39606 J-0.91822
G2 X84.46955 Y-43.98446 I9.13095 J21.39434
G3 X84.45907 Y-43.9798 I-0.41103 J-0.91162
G2 X83.80314 Y-43.68659 I17.41642 J39.84142
G3 X83.80139 Y-43.68579 I-0.41563 J-0.90953
G1 X83.46831 Y-43.53436
G1 X83.30374 Y-43.4589
G1 X83.13885 Y-43.38285
G1 X82.9819 Y-43.31007
G1 X82.38739 Y-43.03071
G1 X82.16678 Y-42.92555
G2 X80.6263 Y-42.16776 I37.38545 J77.94337
G2 X78.14809 Y-40.85937 I35.01179 J69.31687
G1 X77.83699 Y-40.68738
G2 X75.69304 Y-39.45926 I44.86749 J80.81133
G3 X75.69253 Y-39.45896 I-0.50861 J-0.861
G1 X75.5374 Y-39.36745
G1 X75.39268 Y-39.28179
G1 X75.25709 Y-39.20129
G1 X75.13072 Y-39.12605
G1 X74.65398 Y-38.8405
G1 X74.29807 Y-38.62566
G1 X73.76351 Y-38.30063
G1 X73.49717 Y-38.13775
G1 X73.23143 Y-37.97466
G1 X71.97435 Y-37.19737
G1 X70.71831 Y-36.41529
G1 X70.71824 Y-36.41525
G1 X69.41791 Y-35.60573
G3 X69.41666 Y-35.60496 I-0.5285 J-0.84893
G1 X69.09126 Y-35.40304
G3 X69.0895 Y-35.40195 I-0.52726 J-0.84971
G1 X68.11211 Y-34.79826
G3 X68.11037 Y-34.79719 I-0.5255 J-0.85079
G1 X68.02544 Y-34.74497
G3 X68.024 Y-34.74409 I-0.52377 J-0.85186
G1 X67.36554 Y-34.34077
G3 X67.36189 Y-34.33854 I-0.52232 J-0.85275
G1 X66.37152 Y-33.73774
G3 X66.36643 Y-33.73468 I-0.51867 J-0.85498
G1 X65.37258 Y-33.13981
G3 X65.36956 Y-33.13801 I-0.51358 J-0.85804
G1 X65.28028 Y-33.085
G3 X65.27925 Y-33.08439 I-0.51056 J-0.85984
G3 X62.48149 Y-31.46107 I-92.69574 J-156.53691
G3 X62.47959 Y-31.45999 I-0.49415 J-0.86938
G3 X59.45442 Y-29.78904 I-84.79855 J-149.94892
G3 X59.45318 Y-29.78837 I-0.47469 J-0.88015
G3 X56.32565 Y-28.14764 I-83.10504 J-154.61254
G3 X56.32317 Y-28.14637 I-0.45563 J-0.89017
G1 X55.5357 Y-27.74608
G3 X55.53185 Y-27.74413 I-0.45315 J-0.89144
G1 X54.93996 Y-27.44647
G1 X54.93995 Y-27.44646
G1 X54.93998 Y-27.44647
G1 X54.93996
G3 X54.0454 Y-27.00162 I-49.48595 J-98.3913
G3 X53.59227 Y-26.77856 I-16.12881 J-32.19254
G1 X53.14792 Y-26.56124
G3 X53.14574 Y-26.56018 I-0.43933 J-0.89833
G1 X52.75266 Y-26.36912
G3 X52.75077 Y-26.36821 I-0.43715 J-0.89939
G1 X52.40655 Y-26.20179
G1 X52.4065 Y-26.20176
G1 X52.4066 Y-26.20181
G1 X52.40655 Y-26.20179
G3 X49.97418 Y-25.04859 I-75.87987 J-156.90685
G1 X49.58847 Y-24.86926
G3 X49.58597 Y-24.8681 I-0.42159 J-0.90679
G1 X48.91004 Y-24.55611
G3 X48.90727 Y-24.55484 I-0.41908 J-0.90795
G1 X48.39958 Y-24.32238
G3 X48.39796 Y-24.32164 I-0.41631 J-0.90922
G1 X48.2074 Y-24.2348
G3 X48.20701 Y-24.23462 I-0.41469 J-0.90996
G3 X46.86477 Y-23.62918 I-88.82641 J-195.13486
G3 X46.86313 Y-23.62845 I-0.40804 J-0.91296
G1 X46.13231 Y-23.30339
G3 X46.02626 Y-23.2565 I-0.8021 J-1.67062
G1 X44.95446 Y-22.7861
G3 X44.95071 Y-22.78446 I-0.40188 J-0.91569
G1 X44.42268 Y-22.55529
G3 X44.32265 Y-22.51191 I-0.76191 J-1.61969
G3 X43.85364 Y-22.31013 I-13.63062 J-31.03738
G1 X43.67746 Y-22.23463
G3 X43.67545 Y-22.23377 I-0.39391 J-0.91915
G1 X43.00355 Y-21.94756
G3 X42.99949 Y-21.94585 I-0.39189 J-0.92001
G1 X41.9898 Y-21.52099
G3 X41.98604 Y-21.51942 I-0.38784 J-0.92173
G1 X41.49659 Y-21.31581
G3 X41.39784 Y-21.27491 I-0.71491 J-1.58636
G1 X40.97121 Y-21.09892
G3 X40.96825 Y-21.0977 I-0.38134 J-0.92443
G1 X40.27958 Y-20.81619
G3 X40.2749 Y-20.81429 I-0.37838 J-0.92565
G1 X39.23984 Y-20.39727
G3 X39.23395 Y-20.39491 I-0.37371 J-0.92755
G1 X38.20693 Y-19.98868
G3 X38.15103 Y-19.96652 I-0.65031 J-1.55837
G3 X38.09679 Y-19.94555 I-0.63468 J-1.56149
G1 X37.45841 Y-19.69742
G3 X37.45335 Y-19.69547 I-0.36229 J-0.93207
G1 X36.4773 Y-19.32216
G3 X36.4726 Y-19.32038 I-0.35723 J-0.93402
G1 X35.98362 Y-19.13617
G3 X35.98122 Y-19.13527 I-0.35253 J-0.9358
G1 X35.74705 Y-19.04774
G3 X35.67737 Y-19.0215 I-0.8035 J-2.02777
G3 X35.58141 Y-18.98574 I-0.91179 J-2.3001
G3 X35.47541 Y-18.94675 I-0.91911 J-2.33537
G1 X35.16561 Y-18.83229
G3 X35.07003 Y-18.79714 I-0.92001 J-2.35436
G1 X34.51541 Y-18.59458
G3 X34.51427 Y-18.59416 I-0.34306 J-0.93931
G3 X32.80372 Y-17.98535 I-44.19449 J-121.46297
G1 X32.63516 Y-17.92665
G3 X32.63402 Y-17.92626 I-0.32886 J-0.94438
G1 X32.47586 Y-17.87139
G3 X32.47327 Y-17.8705 I-0.32772 J-0.94477
G1 X31.87985 Y-17.66648
G3 X30.97775 Y-17.36176 I-27.43944 J-79.74494
G1 X30.53139 Y-17.21337
G3 X30.52839 Y-17.21238 I-0.31547 J-0.94894
G1 X30.08124 Y-17.06529
G3 X30.07745 Y-17.06406 I-0.31246 J-0.94993
G1 X29.37872 Y-16.83731
G3 X29.37474 Y-16.83602 I-0.30867 J-0.95117
G1 X28.84993 Y-16.66814
G3 X28.84793 Y-16.6675 I-0.30469 J-0.95245
G1 X28.74943 Y-16.63622
G3 X28.74679 Y-16.63538 I-0.30269 J-0.95309
G1 X28.00769 Y-16.4029
G1 X28.00764 Y-16.40289
G3 X27.25927 Y-16.17141 I-24.87474 J-79.09562
G3 X24.31016 Y-15.29508 I-55.89105 J-182.68983
G3 X23.52905 Y-15.07191 I-16.23029 J-55.32753
G1 X22.84568 Y-14.88043
G0 Z3.0
M5
M30
