( Made using CamBam - http://www.cambam.co.uk )
( Bollenhut_1 9/21/2019 12:43:06 PM )
( T6 : 6.0 )
G21 G90 G64 G40
G0 Z3.0
( T6 : 6.0 )
T6 M6
( Bollen-6mm )
G17
M3 S1000
G0 X-53.54337 Y12.24764
G0 Z1.0
G1 F300.0 Z-2.5
G1 F800.0 X-54.05443 Y12.15511
G3 X-54.06778 Y12.15269 I2.92183 J-16.13762
G3 X-56.03415 Y11.7799 I24.1613 J-132.81899
G3 X-58.83974 Y11.20509 I34.30281 J-174.56395
G3 X-59.03381 Y11.16389 I3.72705 J-18.03098
G3 X-59.13175 Y11.14275 I3.8488 J-18.0655
G3 X-59.23286 Y11.12085 I3.87245 J-18.12382
G3 X-59.33728 Y11.09815 I3.8973 J-18.18545
G3 X-59.52262 Y11.05732 I3.92345 J-18.25058
G3 X-59.96778 Y10.95893 I17.40094 J-79.78729
G3 X-59.99925 Y10.95186 I3.58396 J-16.0036
G1 X-60.95822 Y10.73512
G3 X-61.07966 Y10.70718 I3.61543 J-15.99652
G1 X-61.99403 Y10.49321
G3 X-62.24407 Y10.43419 I4.84162 J-21.0705
G3 X-62.39933 Y10.39694 I5.11161 J-21.65157
G3 X-62.56547 Y10.35687 I5.33232 J-22.47388
G3 X-62.74384 Y10.3136 I5.6537 J-23.69382
G3 X-63.00536 Y10.24938 I6.20085 J-25.81359
G1 X-63.85945 Y10.03726
G3 X-63.95187 Y10.01403 I3.95283 J-15.9165
G1 X-64.44447 Y9.88865
G3 X-64.51176 Y9.87137 I4.04525 J-15.89327
G1 X-64.99246 Y9.74685
G3 X-65.80659 Y9.53257 I20.01267 J-77.69205
G2 X-64.56663 Y10.09738 I8.61643 J-17.27297
G3 X-64.51634 Y10.11827 I-6.26718 J15.15528
G2 X-64.10204 Y10.28431 I6.03143 J-14.44913
G3 X-64.03611 Y10.30981 I-5.88352 J15.30831
G2 X-63.33585 Y10.56718 I7.10619 J-18.25424
G1 X-63.33561 Y10.56726
G1 X-63.17367 Y10.6233
G3 X-63.16344 Y10.62684 I-5.3634 J15.49819
G2 X-62.55592 Y10.82598 I6.13539 J-17.69116
G3 X-62.55228 Y10.82711 I-4.84154 J15.66906
G1 X-62.35931 Y10.88678
G2 X-61.35497 Y11.17312 I8.38248 J-27.497
G1 X-61.04478 Y11.25344
G1 X-60.8649 Y11.29843
G1 X-60.54371 Y11.37579
G1 X-60.22221 Y11.44969
G2 X-59.59043 Y11.58467 I11.54032 J-52.4704
G3 X-59.58309 Y11.58619 I-3.32995 J16.05838
G3 X-59.47399 Y11.60805 I-3.1671 J16.09129
G3 X-59.37148 Y11.62823 I-3.11657 J16.10115
G3 X-59.27519 Y11.64688 I-3.06933 J16.11022
G3 X-59.23799 Y11.6539 I-3.02515 J16.11858
G2 X-57.84172 Y11.88962 I6.42129 J-33.78358
G1 X-57.50066 Y11.93791
G1 X-57.23247 Y11.97356
G1 X-56.97569 Y12.00575
G2 X-56.21713 Y12.08912 I4.16138 J-34.37308
G1 X-55.73341 Y12.1333
G1 X-55.55059 Y12.14833
G1 X-55.30461 Y12.16706
G3 X-55.23142 Y12.17224 I-1.12182 J16.36159
G2 X-54.57235 Y12.21193 I4.22467 J-64.65743
G3 X-54.54187 Y12.21364 I-0.90247 J16.37515
G2 X-54.28015 Y12.22558 I0.65827 J-11.55278
G3 X-54.13834 Y12.23106 I-0.56203 J16.39037
G2 X-53.62917 Y12.24632 I0.84337 J-19.63302
G1 X-53.54337 Y12.24764
G1 F300.0 X-53.56181 Y13.4475
G1 F800.0 X-53.25771 Y13.45217
G1 X-52.92767 Y13.45404
G1 X-52.62554 Y13.45292
G1 X-52.32902 Y13.4493
G2 X-50.57408 Y13.37019 I-0.45932 J-29.69172
G3 X-50.50097 Y13.3649 I1.13341 J15.15768
G2 X-50.06395 Y13.3284 I-1.132 J-16.18836
G3 X-49.99599 Y13.32195 I1.46964 J15.12879
G2 X-48.38691 Y13.12476 I-2.52625 J-27.27844
G1 X-48.20552 Y13.09647
G3 X-48.16778 Y13.09063 I2.34268 J15.01838
G2 X-47.83854 Y13.03527 I-1.76457 J-11.50193
G3 X-47.818 Y13.03153 I2.73501 J14.95191
G1 X-47.6075 Y12.99332
G1 X-47.1848 Y12.9123
G3 X-47.16445 Y12.90841 I2.86154 J14.92821
G2 X-47.16305 Y12.90813 I-0.01079 J-0.05671
G3 X-47.10276 Y12.89522 I3.21117 J14.85693
G1 X-46.8716 Y12.84624
G1 X-46.76515 Y12.82298
G2 X-46.35442 Y12.72853 I-14.98949 J-66.12474
G1 X-46.23043 Y12.69861
G2 X-45.07413 Y12.38315 I-5.22063 J-21.41301
G3 X-48.3368 Y11.90183 I37.19399 J-263.42045
G3 X-48.37227 Y11.89633 I2.31152 J-15.02321
G1 X-49.00493 Y11.79746
G3 X-49.05242 Y11.78996 I2.347 J-15.01771
G1 X-49.68479 Y11.68908
G3 X-49.72557 Y11.68252 I2.39449 J-15.01021
G1 X-50.14698 Y11.61412
G3 X-50.17833 Y11.609 I2.43527 J-15.00365
G3 X-51.97067 Y11.30758 I40.81493 J-248.1787
G3 X-52.02548 Y11.29805 I2.57494 J-14.98031
G1 X-52.89431 Y11.14543
G3 X-52.9726 Y11.13147 I2.62975 J-14.97078
G1 X-53.84064 Y10.97431
G3 X-53.85301 Y10.97206 I2.70804 J-14.95682
G3 X-55.80234 Y10.6025 I23.94654 J-131.63837
G3 X-58.59319 Y10.03069 I34.07099 J-173.38655
G3 X-58.78101 Y9.99082 I3.48049 J-16.85658
G3 X-58.87817 Y9.96984 I3.596 J-16.89242
G3 X-58.97849 Y9.94811 I3.61887 J-16.95091
G3 X-59.08208 Y9.9256 I3.64293 J-17.01272
G3 X-59.26265 Y9.88581 I3.66825 J-17.07802
G3 X-59.70554 Y9.78794 I17.14097 J-78.61579
G3 X-59.73471 Y9.78138 I3.32172 J-14.83261
G1 X-60.69368 Y9.56464
G3 X-60.80623 Y9.53875 I3.35088 J-14.82604
G1 X-61.72298 Y9.32422
G3 X-61.9649 Y9.26711 I4.57057 J-19.90151
G3 X-62.11876 Y9.2302 I4.83244 J-20.48449
G3 X-62.28338 Y9.1905 I5.05175 J-21.30713
G3 X-62.46003 Y9.14764 I5.37161 J-22.52744
G3 X-62.71467 Y9.08511 I5.91705 J-24.64763
G1 X-63.57022 Y8.87264
G3 X-63.65587 Y8.85111 I3.6636 J-14.75188
G1 X-64.14848 Y8.72572
G3 X-64.21085 Y8.70971 I3.74926 J-14.73035
G1 X-64.69234 Y8.58498
G3 X-65.89145 Y8.26606 I19.71255 J-76.53019
G1 X-66.54019 Y8.0885
G3 X-66.64061 Y8.06065 I4.01262 J-14.66079
G1 X-67.51059 Y7.81611
G3 X-67.61162 Y7.78734 I4.11304 J-14.63294
G1 X-68.25934 Y7.60044
G3 X-68.34628 Y7.57507 I4.21407 J-14.60417
G1 X-68.99286 Y7.38431
G3 X-69.04898 Y7.36764 I4.30101 J-14.5788
G1 X-69.23355 Y7.31242
G3 X-69.27942 Y7.29861 I4.35713 J-14.56212
G1 X-69.77103 Y7.14983
G3 X-69.84905 Y7.12599 I4.403 J-14.54832
G1 X-70.50347 Y6.92409
G3 X-70.57368 Y6.90224 I4.48102 J-14.52448
G1 X-70.94711 Y6.78505
G3 X-71.0019 Y6.76774 I4.55122 J-14.50263
G1 X-71.33897 Y6.66056
G3 X-71.31027 Y6.69794 I-12.04061 J9.27705
G2 X-71.28709 Y6.72731 I1.01159 J-0.77442
G1 X-71.08009 Y6.98112
G2 X-70.80271 Y7.30229 I7.83879 J-6.48945
G3 X-70.78227 Y7.32503 I-11.2941 J10.17268
G2 X-70.29378 Y7.83981 I9.42978 J-8.45918
G1 X-70.09109 Y8.03736
G2 X-69.70829 Y8.38774 I8.64045 J-9.0556
G3 X-69.68359 Y8.40947 I-10.02811 J11.42265
G2 X-69.12111 Y8.87504 I7.73283 J-8.76983
G1 X-69.00551 Y8.96435
G1 X-68.95158 Y9.00543
G1 X-68.76299 Y9.14648
G3 X-68.75385 Y9.15307 I-8.88775 J12.33077
G1 X-68.65265 Y9.22612
G1 X-68.53315 Y9.311
G1 X-68.4042 Y9.40082
G2 X-66.88389 Y10.32606 I9.29071 J-13.55448
G1 X-66.88367 Y10.32618
G1 X-66.88412 Y10.32593
G1 X-66.88389 Y10.32606
G2 X-65.0252 Y11.2063 I9.69374 J-18.06645
G3 X-64.9786 Y11.22566 I-5.80861 J14.04636
G2 X-64.53254 Y11.40443 I6.49368 J-15.55653
G3 X-64.47144 Y11.42807 I-5.45302 J14.18819
G2 X-63.72827 Y11.7012 I7.54152 J-19.3725
G1 X-63.72805 Y11.70127
G1 X-63.56612 Y11.75731
G3 X-63.55664 Y11.7606 I-4.97096 J14.36418
G2 X-62.91018 Y11.9725 I6.52859 J-18.82491
G3 X-62.90681 Y11.97354 I-4.48728 J14.52255
G1 X-62.71156 Y12.03392
G2 X-61.65933 Y12.33389 I8.73473 J-28.64414
G1 X-61.34077 Y12.41637
G1 X-61.15099 Y12.46384
G1 X-60.81862 Y12.54389
G1 X-60.48555 Y12.62045
G2 X-59.83408 Y12.75967 I11.80365 J-53.64117
G3 X-59.82107 Y12.76238 I-3.0863 J14.88337
G3 X-59.70788 Y12.78505 I-2.92913 J14.9151
G3 X-59.60155 Y12.80598 I-2.88268 J14.92415
G3 X-59.50168 Y12.82532 I-2.83926 J14.93247
G3 X-59.46206 Y12.8328 I-2.79865 J14.94013
G2 X-58.01348 Y13.07726 I6.64536 J-34.96247
G1 X-57.66384 Y13.12677
G1 X-57.38618 Y13.16368
G1 X-57.12247 Y13.19675
G2 X-56.33064 Y13.28375 I4.30816 J-35.56407
G1 X-55.83715 Y13.32882
G1 X-55.6453 Y13.34459
G1 X-55.39112 Y13.36394
G3 X-55.31437 Y13.36938 I-1.03532 J15.1647
G2 X-54.63838 Y13.41011 I4.30762 J-65.85457
G3 X-54.61013 Y13.4117 I-0.83644 J15.17697
G2 X-54.32127 Y13.42488 I0.72654 J-12.75083
G3 X-54.18984 Y13.42995 I-0.52091 J15.19107
G2 X-53.64858 Y13.44617 I0.89487 J-20.83192
G1 X-53.56181 Y13.4475
G1 F300.0 X-53.59868 Y15.84722
G1 F800.0 X-53.28296 Y15.85207
G1 X-52.93003 Y15.85407
G1 X-52.60643 Y15.85287
G1 X-52.29588 Y15.84908
G2 X-50.39512 Y15.7635 I-0.49246 J-32.09149
G3 X-50.33355 Y15.75905 I0.95445 J12.76437
G2 X-49.8319 Y15.71715 I-1.29942 J-18.58252
G3 X-49.77467 Y15.71172 I1.23759 J12.74003
G2 X-48.02074 Y15.49667 I-2.74757 J-29.66822
G1 X-47.83563 Y15.46779
G3 X-47.80384 Y15.46287 I1.97279 J12.64706
G2 X-47.4067 Y15.3961 I-2.12851 J-13.87418
G3 X-47.3894 Y15.39295 I2.30316 J12.59109
G1 X-47.16728 Y15.35264
G1 X-46.73297 Y15.26938
G3 X-46.71584 Y15.26611 I2.40972 J12.57113
G2 X-46.65602 Y15.25396 I-0.4594 J-2.41441
G3 X-46.60525 Y15.24309 I2.70414 J12.5111
G1 X-46.36669 Y15.19254
G1 X-46.24377 Y15.16568
G2 X-45.80026 Y15.0637 I-15.51087 J-68.46744
G1 X-45.66474 Y15.03099
G2 X-43.79795 Y14.4967 I-5.78632 J-23.74539
G3 X-43.77906 Y14.49048 I4.00814 J12.15627
G2 X-41.94487 Y13.80008 I-7.09403 J-21.62839
G3 X-41.91595 Y13.78779 I5.02068 J11.77424
G2 X-41.09206 Y13.41829 I-8.39136 J-19.81367
G1 X-40.78367 Y13.27037
G3 X-40.76035 Y13.25922 I5.53569 J11.54106
G3 X-40.71201 Y13.23498 I5.76044 J11.43054
G1 X-40.5355 Y13.14696
G3 X-40.507 Y13.13255 I5.79048 J11.41536
G1 X-40.16336 Y12.95548
G2 X-39.0014 Y12.30412 I-11.27991 J-21.48388
G1 X-39.03085 Y12.25456
G3 X-39.05169 Y12.21935 I11.00455 J-6.53758
G1 X-39.45833 Y11.52984
G3 X-39.67746 Y11.15504 I18.99321 J-11.3559
G1 X-39.97745 Y10.63707
G3 X-40.18724 Y10.61013 I3.87796 J-31.02826
G1 X-41.47036 Y10.44726
G3 X-41.53055 Y10.43948 I1.61182 J-12.69811
G1 X-42.98859 Y10.24737
G3 X-43.02654 Y10.24232 I1.67201 J-12.69033
G1 X-43.23475 Y10.21425
G3 X-43.25285 Y10.2118 I1.70996 J-12.68527
G1 X-43.80803 Y10.13615
G3 X-43.83963 Y10.13181 I1.72806 J-12.68282
G1 X-44.5795 Y10.02912
G3 X-44.60282 Y10.02586 I1.75965 J-12.67847
G3 X-47.97182 Y9.52975 I36.72268 J-261.06315
G3 X-48.00169 Y9.52511 I1.94654 J-12.65113
G1 X-48.63435 Y9.42624
G3 X-48.67435 Y9.41993 I1.97642 J-12.64649
G1 X-49.30671 Y9.31905
G3 X-49.34105 Y9.31352 I2.01641 J-12.64018
G1 X-49.76246 Y9.24512
G3 X-49.78886 Y9.24081 I2.05076 J-12.63465
G3 X-51.5641 Y8.94227 I40.42546 J-245.81052
G3 X-51.61026 Y8.93424 I2.16837 J-12.615
G1 X-52.47909 Y8.78163
G3 X-52.54501 Y8.76987 I2.21453 J-12.60698
G1 X-53.41305 Y8.6127
G3 X-53.42347 Y8.61081 I2.28045 J-12.59522
G3 X-55.33871 Y8.24771 I23.517 J-129.27712
G3 X-58.10046 Y7.6818 I33.60736 J-171.03176
G3 X-58.27541 Y7.64467 I2.98776 J-14.50769
G3 X-58.37102 Y7.62403 I3.09039 J-14.54628
G3 X-58.46973 Y7.60265 I3.11172 J-14.6051
G3 X-58.57166 Y7.58049 I3.13417 J-14.66725
G3 X-58.74234 Y7.54287 I3.15783 J-14.73292
G3 X-59.18106 Y7.44595 I16.62066 J-76.27285
G3 X-59.20562 Y7.44042 I2.79724 J-12.49062
G1 X-60.16459 Y7.22368
G3 X-60.25937 Y7.20188 I2.8218 J-12.48509
G1 X-61.1811 Y6.98619
G3 X-61.40654 Y6.93295 I4.02869 J-17.56348
G3 X-61.55761 Y6.89671 I4.27409 J-18.15033
G3 X-61.71917 Y6.85774 I4.4906 J-18.97364
G3 X-61.8924 Y6.81572 I4.8074 J-20.19469
G3 X-62.13319 Y6.75662 I5.34942 J-22.31571
G1 X-62.99175 Y6.5434
G3 X-63.06388 Y6.52526 I3.08514 J-12.42264
G1 X-63.55649 Y6.39988
G3 X-63.60901 Y6.38639 I3.15727 J-12.4045
G1 X-64.09211 Y6.26125
G3 X-65.25713 Y5.9514 I19.11232 J-74.20646
G1 X-65.90662 Y5.77364
G3 X-65.99118 Y5.75018 I3.37905 J-12.34593
G1 X-66.86116 Y5.50565
G3 X-66.94624 Y5.48141 I3.46361 J-12.32248
G1 X-67.59396 Y5.29451
G3 X-67.66718 Y5.27315 I3.54869 J-12.29824
G1 X-68.31376 Y5.0824
G3 X-68.36101 Y5.06836 I3.62191 J-12.27688
G1 X-68.54558 Y5.01313
G3 X-68.58421 Y5.00151 I3.66916 J-12.26284
G1 X-69.07582 Y4.85272
G3 X-69.14152 Y4.83265 I3.70779 J-12.25122
G1 X-69.79595 Y4.63075
G3 X-69.85507 Y4.61235 I3.77349 J-12.23114
G1 X-70.2285 Y4.49516
G3 X-70.27464 Y4.48059 I3.83261 J-12.21274
G1 X-70.7009 Y4.34504
G3 X-70.75058 Y4.32914 I3.87875 J-12.19817
G1 X-71.18372 Y4.18946
G3 X-71.21713 Y4.17864 I3.92842 J-12.18226
G1 X-71.36141 Y4.13167
G3 X-71.3793 Y4.12584 I3.96183 J-12.17144
G3 X-72.00337 Y3.92033 I52.04135 J-159.08507
G3 X-72.03515 Y3.90975 I4.02745 J-12.14988
G1 X-72.41886 Y3.78144
G3 X-72.47071 Y3.76397 I4.05923 J-12.1393
G1 X-72.98154 Y3.59073
G3 X-73.05051 Y3.56712 I4.11109 J-12.12184
G1 X-73.73028 Y3.33225
G3 X-73.78006 Y3.31494 I4.18006 J-12.09823
G1 X-73.96112 Y3.25154
G3 X-73.99545 Y3.23947 I4.22983 J-12.08091
G1 X-74.4088 Y3.09343
G3 X-74.48108 Y3.06764 I4.26416 J-12.06884
G1 X-75.32294 Y2.76451
G3 X-75.41916 Y2.72942 I4.33645 J-12.04306
G1 X-76.14914 Y2.45996
G2 X-76.11322 Y2.57199 I19.88817 J-6.31567
G1 X-76.1126 Y2.57391
G2 X-75.45816 Y4.32399 I19.81172 J-6.41115
G1 X-75.35116 Y4.56884
G1 X-75.25346 Y4.78559
G2 X-74.96898 Y5.37681 I15.61283 J-7.14835
G1 X-74.90623 Y5.50043
G3 X-74.88296 Y5.54651 I-11.41367 J5.7938
G2 X-74.81733 Y5.67235 I4.21915 J-2.12037
G3 X-74.80445 Y5.69622 I-11.25905 J6.08883
G1 X-74.70597 Y5.87925
G1 X-74.61509 Y6.04471
G2 X-73.70042 Y7.50371 I13.90585 J-7.70154
G1 X-73.53115 Y7.73946
G2 X-73.30605 Y8.03993 I18.93175 J-13.94832
G1 X-73.24671 Y8.11681
G3 X-73.21595 Y8.15683 I-10.13287 J7.8208
G2 X-73.14775 Y8.2432 I2.91727 J-2.23332
G1 X-72.93469 Y8.50444
G2 X-72.58599 Y8.9085 I9.69339 J-8.01278
G3 X-72.56878 Y8.92765 I-9.51082 J8.56647
G2 X-71.97797 Y9.54967 I11.21629 J-10.0618
G1 X-71.75751 Y9.76456
G2 X-71.29167 Y10.19132 I10.30687 J-10.7828
G3 X-71.27087 Y10.20962 I-8.44473 J9.61907
G2 X-70.59053 Y10.77263 I9.32012 J-10.56997
G1 X-70.46622 Y10.86866
G1 X-70.39742 Y10.92106
G1 X-70.18276 Y11.08161
G3 X-70.15862 Y11.09899 I-7.46798 J10.39564
G1 X-70.04994 Y11.17745
G1 X-69.91394 Y11.27404
G1 X-69.76879 Y11.37515
G2 X-68.01868 Y12.44083 I10.6553 J-15.52881
G1 X-68.01849 Y12.44093
G1 X-68.01887 Y12.44072
G1 X-68.01868 Y12.44083
G2 X-65.94235 Y13.42414 I10.82852 J-20.18122
G3 X-65.9031 Y13.44045 I-4.89146 J11.82851
G2 X-65.39354 Y13.64467 I7.41819 J-17.77132
G3 X-65.34209 Y13.66458 I-4.59201 J11.94795
G2 X-64.51313 Y13.96924 I8.41217 J-21.60901
G1 X-64.51294 Y13.9693
G1 X-64.351 Y14.02534
G3 X-64.34302 Y14.02811 I-4.18607 J12.09615
G2 X-63.6187 Y14.26553 I7.31497 J-21.09242
G3 X-63.61586 Y14.26641 I-3.77876 J12.22951
G1 X-63.41619 Y14.32816
G2 X-62.26785 Y14.65547 I9.43936 J-30.93838
G1 X-61.93277 Y14.74224
G1 X-61.72317 Y14.79466
G1 X-61.36843 Y14.8801
G1 X-61.01239 Y14.96194
G2 X-60.32139 Y15.10968 I12.33049 J-55.98265
G3 X-60.29701 Y15.11476 I-2.59899 J12.53337
G3 X-60.17565 Y15.13907 I-2.45318 J12.56272
G3 X-60.06169 Y15.1615 I-2.41491 J12.57013
G3 X-59.95468 Y15.18221 I-2.37912 J12.57695
G3 X-59.91021 Y15.19058 I-2.34566 J12.58324
G2 X-58.35684 Y15.45259 I7.09351 J-37.32026
G1 X-57.99021 Y15.5045
G1 X-57.69359 Y15.54393
G1 X-57.41615 Y15.57871
G2 X-56.55743 Y15.67302 I4.60184 J-37.94604
G1 X-56.04463 Y15.71986
G1 X-55.83472 Y15.73711
G1 X-55.56697 Y15.7575
G3 X-55.5636 Y15.75776 I-0.9717 J12.76306
G3 X-55.48098 Y15.76361 I-0.86283 J12.77089
G3 X-55.48044 Y15.76364 I-0.83671 J12.77262
G2 X-54.77045 Y15.80648 I4.4737 J-68.24883
G3 X-54.74666 Y15.80781 I-0.70437 J12.78061
G2 X-54.40352 Y15.82347 I0.86307 J-15.14695
G3 X-54.29284 Y15.82774 I-0.43866 J12.79248
G2 X-53.68731 Y15.84585 I0.99787 J-23.2297
G1 X-53.59868 Y15.84722
G1 F300.0 X-53.63555 Y18.24693
G1 F800.0 X-53.30821 Y18.25196
G1 X-52.9324 Y18.25409
G1 X-52.58733 Y18.25282
G1 X-52.26288 Y18.24885
G2 X-50.21616 Y18.15682 I-0.52546 J-34.49127
G3 X-50.16614 Y18.1532 I0.77549 J10.37105
G2 X-49.59985 Y18.10591 I-1.46684 J-20.97667
G3 X-49.55335 Y18.1015 I1.00554 J10.35127
G2 X-47.65442 Y17.86855 I-2.96889 J-32.05799
G1 X-47.46573 Y17.83912
G3 X-47.43991 Y17.83512 I1.60289 J10.27574
G2 X-46.97486 Y17.75693 I-2.49245 J-16.24642
G3 X-46.9608 Y17.75437 I1.87132 J10.23026
G1 X-46.72706 Y17.71195
G1 X-46.28115 Y17.62647
G3 X-46.26723 Y17.62381 I1.9579 J10.21404
G2 X-46.14899 Y17.59979 I-0.90801 J-4.7721
G3 X-46.10774 Y17.59096 I2.19712 J10.16527
G1 X-45.86177 Y17.53884
G1 X-45.72255 Y17.50842
G2 X-45.24595 Y17.39883 I-16.0321 J-70.81017
G1 X-45.09918 Y17.36341
G2 X-43.04642 Y16.776 I-6.35188 J-26.0778
G3 X-43.03107 Y16.77095 I3.25661 J9.87697
G2 X-41.00349 Y16.00776 I-7.84202 J-23.90886
G3 X-40.97999 Y15.99777 I4.0793 J9.56657
G2 X-40.05902 Y15.58459 I-9.32732 J-22.02364
G1 X-39.74572 Y15.43432
G3 X-39.70339 Y15.41413 I4.49775 J9.37711
G3 X-39.64099 Y15.38275 I4.70348 J9.27563
G1 X-39.45674 Y15.29087
G3 X-39.41764 Y15.27111 I4.71172 J9.27145
G1 X-39.05606 Y15.0848
G2 X-37.34088 Y14.1023 I-12.38721 J-23.6132
G1 X-37.09812 Y13.94943
G2 X-35.75518 Y13.03649 I-14.44769 J-22.69682
G1 X-35.94799 Y12.72258
G3 X-35.98254 Y12.66593 I8.86183 J-5.44316
G1 X-36.48827 Y11.83067
G3 X-36.50772 Y11.79841 I8.89638 J-5.38651
G1 X-36.57925 Y11.67931
G3 X-36.58409 Y11.67123 I8.91583 J-5.35425
G1 X-36.65552 Y11.55204
G3 X-36.6628 Y11.53987 I8.92068 J-5.34617
G1 X-36.80534 Y11.3013
G3 X-36.81345 Y11.2877 I8.92796 J-5.334
G1 X-36.90826 Y11.12845
G3 X-36.91338 Y11.11984 I8.93608 J-5.32039
G1 X-36.96749 Y11.02876
G3 X-36.98443 Y11.00015 I8.9412 J-5.31178
G1 X-37.39484 Y10.30426
G3 X-37.5971 Y9.95831 I16.92972 J-10.13032
G1 X-38.04891 Y9.1782
G3 X-38.08507 Y9.11527 I8.9996 J-5.21222
G1 X-38.49257 Y8.40021
G1 X-39.43964 Y8.2846
G3 X-39.87914 Y8.22998 I3.34015 J-28.67579
G1 X-41.16814 Y8.06637
G3 X-41.21705 Y8.06004 I1.3096 J-10.31722
G1 X-42.67509 Y7.86794
G3 X-42.70592 Y7.86383 I1.35851 J-10.31089
G1 X-42.91413 Y7.83576
G3 X-42.92883 Y7.83377 I1.38934 J-10.30678
G1 X-43.48402 Y7.75812
G3 X-43.50969 Y7.75459 I1.40405 J-10.30479
G1 X-44.24957 Y7.6519
G3 X-44.26851 Y7.64926 I1.42972 J-10.30126
G3 X-47.60684 Y7.15766 I36.38838 J-258.68655
G3 X-47.63112 Y7.1539 I1.58157 J-10.27904
G1 X-48.26377 Y7.05502
G3 X-48.29627 Y7.04989 I1.60584 J-10.27528
G1 X-48.92863 Y6.94902
G3 X-48.95654 Y6.94453 I1.63833 J-10.27014
G1 X-49.37795 Y6.87612
G3 X-49.3994 Y6.87262 I1.66624 J-10.26565
G3 X-51.15753 Y6.57695 I40.036 J-243.44233
G3 X-51.19503 Y6.57044 I1.7618 J-10.24969
G1 X-52.06386 Y6.41782
G3 X-52.11743 Y6.40827 I1.7993 J-10.24317
G1 X-52.98547 Y6.2511
G3 X-52.99393 Y6.24956 I1.85287 J-10.23361
G3 X-54.87507 Y5.89292 I23.08746 J-126.91587
G3 X-57.60835 Y5.33278 I33.14373 J-168.67697
G3 X-57.7698 Y5.29852 I2.49566 J-12.15866
G3 X-57.86386 Y5.27821 I2.58478 J-12.20013
G3 X-57.96098 Y5.25718 I2.60457 J-12.25928
G3 X-58.06124 Y5.23538 I2.62542 J-12.32178
G3 X-58.22141 Y5.20007 I2.64742 J-12.38781
G3 X-58.65658 Y5.10396 I16.09972 J-73.93004
G3 X-58.67653 Y5.09947 I2.27275 J-10.14862
G1 X-59.6355 Y4.88273
G3 X-59.71251 Y4.86502 I2.29271 J-10.14414
G1 X-60.63957 Y4.64807
G3 X-60.84817 Y4.59879 I3.48716 J-15.22537
G3 X-60.99643 Y4.56322 I3.71571 J-15.81617
G3 X-61.15493 Y4.52499 I3.92943 J-16.64015
G3 X-61.32472 Y4.4838 I4.24316 J-17.86194
G3 X-61.55155 Y4.42816 I4.78174 J-19.9838
G1 X-62.41329 Y4.21415
G3 X-62.4719 Y4.19942 I2.50667 J-10.09339
G1 X-62.9645 Y4.07404
G3 X-63.00717 Y4.06308 I2.56528 J-10.07866
G1 X-63.4919 Y3.93751
G3 X-64.62279 Y3.63675 I18.51211 J-71.88272
G1 X-65.27305 Y3.45878
G3 X-65.34176 Y3.43972 I2.74548 J-10.03107
G1 X-66.21174 Y3.19518
G3 X-66.28086 Y3.17549 I2.81418 J-10.01201
G1 X-66.92858 Y2.98859
G3 X-66.98807 Y2.97124 I2.88331 J-9.99232
G1 X-67.63465 Y2.78048
G3 X-67.67304 Y2.76908 I2.9428 J-9.97497
G1 X-67.85761 Y2.71385
G3 X-67.889 Y2.70441 I2.98119 J-9.96356
G1 X-68.38061 Y2.55562
G3 X-68.43399 Y2.53931 I3.01258 J-9.95411
G1 X-69.08842 Y2.33741
G3 X-69.13645 Y2.32246 I3.06596 J-9.9378
G1 X-69.50988 Y2.20527
G3 X-69.54737 Y2.19343 I3.11399 J-9.92285
G1 X-69.97364 Y2.05789
G3 X-70.014 Y2.04496 I3.15148 J-9.91101
G1 X-70.44714 Y1.90529
G3 X-70.47429 Y1.89649 I3.19184 J-9.89809
G1 X-70.61856 Y1.84953
G3 X-70.6331 Y1.84479 I3.21899 J-9.88929
G3 X-71.24822 Y1.64222 I51.29516 J-156.80402
G3 X-71.27404 Y1.63363 I3.2723 J-9.87178
G1 X-71.65775 Y1.50532
G3 X-71.69989 Y1.49113 I3.29812 J-9.86318
G1 X-72.21071 Y1.31789
G3 X-72.26675 Y1.2987 I3.34026 J-9.84899
G1 X-72.94652 Y1.06383
G3 X-72.98696 Y1.04977 I3.3963 J-9.82981
G1 X-73.16803 Y0.98637
G3 X-73.19592 Y0.97656 I3.43674 J-9.81574
G1 X-73.60927 Y0.83052
G3 X-73.668 Y0.80957 I3.46463 J-9.80593
G1 X-74.50985 Y0.50644
G3 X-74.58804 Y0.47793 I3.52337 J-9.78498
G1 X-75.4274 Y0.16808
G3 X-75.47133 Y0.15175 I3.60155 J-9.75648
G1 X-75.58309 Y0.10993
G3 X-75.61556 Y0.09771 I3.64548 J-9.74015
G1 X-76.21071 Y-0.12731
G3 X-76.27393 Y-0.15144 I3.67796 J-9.72793
G1 X-77.0655 Y-0.45662
G3 X-77.13748 Y-0.48468 I3.74117 J-9.70379
G1 X-77.94505 Y-0.80294
G3 X-78.01646 Y-0.83139 I3.81315 J-9.67574
G1 X-78.82159 Y-1.15558
G3 X-78.86674 Y-1.17388 I3.88455 J-9.64729
G1 X-79.0802 Y-1.261
G3 X-79.40198 Y-1.39306 I12.92189 J-31.9433
G2 X-79.31667 Y-0.70181 I21.38206 J-2.28809
G3 X-79.31416 Y-0.68377 I-10.2997 J1.44089
G2 X-78.95292 Y1.2848 I22.41488 J-3.09576
G3 X-78.9482 Y1.30546 I-10.13618 J2.32764
G2 X-78.39652 Y3.31128 I22.68722 J-5.16118
G1 X-78.39601 Y3.31283
G2 X-77.66168 Y5.27509 I22.09513 J-7.15008
G1 X-77.54483 Y5.5425
G1 X-77.43864 Y5.77808
G2 X-77.11018 Y6.46092 I17.79802 J-8.14083
G1 X-77.0463 Y6.58677
G3 X-77.02738 Y6.62421 I-9.27361 J4.70747
G2 X-76.9284 Y6.814 I6.36358 J-3.19807
G3 X-76.91794 Y6.8334 I-9.14798 J4.94718
G1 X-76.81453 Y7.02559
G1 X-76.7167 Y7.2037
G2 X-75.65571 Y8.89545 I16.00746 J-8.86054
G1 X-75.47229 Y9.15091
G2 X-75.21052 Y9.50042 I20.87289 J-15.35977
G1 X-75.14662 Y9.58321
G3 X-75.12163 Y9.61573 I-8.23296 J6.3544
G2 X-75.00818 Y9.75938 I4.82295 J-3.69222
G1 X-74.78977 Y10.02717
G2 X-74.36927 Y10.51471 I11.54848 J-9.53551
G3 X-74.35528 Y10.53027 I-7.72754 J6.96025
G2 X-73.66147 Y11.26022 I13.00279 J-11.66442
G1 X-73.4246 Y11.49109
G2 X-72.87506 Y11.9949 I11.97396 J-12.50933
G3 X-72.85816 Y12.00977 I-6.86134 J7.8155
G2 X-72.05976 Y12.67035 I10.90741 J-12.37012
G1 X-71.92694 Y12.77296
G1 X-71.84326 Y12.83669
G1 X-71.61884 Y13.00454
G3 X-71.60162 Y13.01745 I-6.22894 J8.32828
G3 X-71.56339 Y13.04492 I-6.04911 J8.4598
G1 X-71.44723 Y13.12878
G1 X-71.29473 Y13.23709
G1 X-71.13383 Y13.34917
G2 X-69.15346 Y14.5556 I12.02034 J-17.50282
G1 X-69.15331 Y14.55568
G1 X-69.15362 Y14.55551
G1 X-69.15346 Y14.5556
G2 X-66.8595 Y15.64199 I11.96331 J-22.29599
G3 X-66.82761 Y15.65524 I-3.97431 J9.61066
G2 X-66.25455 Y15.88491 I8.34269 J-19.9861
G3 X-66.21274 Y15.90109 I-3.73101 J9.70771
G2 X-65.29798 Y16.23728 I9.28282 J-23.84552
G1 X-65.29783 Y16.23733
G1 X-65.13589 Y16.29337
G3 X-65.12941 Y16.29562 I-3.40118 J9.82812
G2 X-64.32722 Y16.55857 I8.10136 J-23.35993
G3 X-64.32491 Y16.55928 I-3.07024 J9.93648
G1 X-64.12098 Y16.62234
G2 X-62.87612 Y16.97712 I10.14415 J-33.23256
G1 X-62.52476 Y17.0681
G1 X-62.29534 Y17.12549
G1 X-61.91825 Y17.21631
G1 X-61.53945 Y17.30338
G2 X-60.8087 Y17.45968 I12.85756 J-58.32409
G3 X-60.77296 Y17.46716 I-2.11168 J10.18336
G3 X-60.64344 Y17.4931 I-1.97723 J10.21032
G3 X-60.52183 Y17.51703 I-1.94712 J10.2161
G3 X-60.40767 Y17.53912 I-1.91898 J10.22143
G3 X-60.35836 Y17.54837 I-1.89266 J10.22633
G2 X-58.69999 Y17.82794 I7.54166 J-39.67805
G1 X-58.31657 Y17.88223
G1 X-58.001 Y17.92418
G1 X-57.70998 Y17.96067
G2 X-56.78397 Y18.06232 I4.89566 J-40.32799
G1 X-56.2521 Y18.1109
G1 X-56.02414 Y18.12964
G1 X-55.74917 Y18.15057
G3 X-55.73591 Y18.15159 I-0.78951 J10.36999
G3 X-55.64806 Y18.15781 I-0.69052 J10.37705
G3 X-55.63743 Y18.1585 I-0.66962 J10.37842
G2 X-54.90252 Y18.20284 I4.63068 J-70.64369
G3 X-54.88319 Y18.20392 I-0.5723 J10.38424
G2 X-54.48577 Y18.22206 I0.9996 J-17.54306
G3 X-54.39584 Y18.22553 I-0.35641 J10.39389
G2 X-53.72595 Y18.24554 I1.10088 J-25.62749
G1 X-53.63555 Y18.24693
G1 F300.0 X-53.67242 Y20.64665
G1 F800.0 X-53.33346 Y20.65186
G1 X-52.93476 Y20.65412
G1 X-52.56822 Y20.65276
G1 X-52.23 Y20.64863
G2 X-50.0372 Y20.55014 I-0.55834 J-36.89105
G3 X-49.99872 Y20.54736 I0.59653 J7.97773
G2 X-49.36781 Y20.49466 I-1.63425 J-23.37083
G3 X-49.33204 Y20.49127 I0.77349 J7.96252
G2 X-47.28797 Y20.24041 I-3.1902 J-34.44776
G1 X-47.09583 Y20.21044
G3 X-47.07597 Y20.20737 I1.23299 J7.90441
G2 X-46.54301 Y20.11776 I-2.85639 J-18.61867
G3 X-46.5322 Y20.11579 I1.43948 J7.86943
G1 X-46.28684 Y20.07126
G1 X-45.82933 Y19.98356
G3 X-45.81862 Y19.98151 I1.50607 J7.85695
G2 X-45.64197 Y19.94562 I-1.35662 J-7.1298
G3 X-45.61024 Y19.93883 I1.69009 J7.81944
G1 X-45.35686 Y19.88514
G1 X-45.20147 Y19.85119
G2 X-44.6915 Y19.73392 I-16.55317 J-73.15294
G1 X-44.53373 Y19.69584
G2 X-42.29489 Y19.0553 I-6.91732 J-28.41024
G3 X-42.28309 Y19.05141 I2.50509 J7.59767
G2 X-40.06211 Y18.21543 I-8.59 J-26.18932
G3 X-40.04404 Y18.20774 I3.13793 J7.3589
G2 X-39.02574 Y17.75078 I-10.26327 J-24.23362
G1 X-38.70778 Y17.59827
G3 X-38.66991 Y17.58023 I3.45981 J7.21316
G2 X-38.6232 Y17.55731 I-0.79396 J-1.67778
G3 X-38.56997 Y17.53052 I3.62329 J7.13245
G1 X-38.38454 Y17.43805
G3 X-38.37742 Y17.43451 I3.57006 J7.15924
G3 X-38.32951 Y17.41029 I3.6324 J7.12781
G1 X-37.94911 Y17.21429
G2 X-36.0667 Y16.13614 I-13.49416 J-25.74269
G1 X-35.8144 Y15.97727
G2 X-34.3155 Y14.95709 I-15.7314 J-24.72466
G3 X-34.30471 Y14.94926 I4.70371 J6.4711
G2 X-32.80939 Y13.7835 I-15.75444 J-21.75015
G1 X-32.60939 Y13.61453
G2 X-32.58366 Y13.59267 I-14.0567 J-16.57386
G3 X-32.79478 Y13.25604 I50.9229 J-32.172
G1 X-33.23347 Y12.55413
G3 X-33.24922 Y12.52883 I6.78402 J-4.23994
G1 X-33.37492 Y12.32602
G3 X-33.39195 Y12.29843 I6.79977 J-4.21464
G1 X-33.90296 Y11.46647
G3 X-33.92953 Y11.42289 I6.81679 J-4.18704
G1 X-34.43526 Y10.58763
G3 X-34.45022 Y10.56281 I6.84337 J-4.14347
G1 X-34.52175 Y10.44371
G3 X-34.52547 Y10.4375 I6.85833 J-4.11865
G1 X-34.5969 Y10.31831
G3 X-34.60251 Y10.30895 I6.86206 J-4.11244
G1 X-34.74504 Y10.07038
G3 X-34.75128 Y10.05992 I6.86766 J-4.10307
G1 X-34.84609 Y9.90067
G3 X-34.85003 Y9.89405 I6.8739 J-4.09261
G1 X-34.90414 Y9.80296
G3 X-34.91717 Y9.78096 I6.87784 J-4.08599
G1 X-35.33159 Y9.07827
G3 X-35.51652 Y8.76197 I14.86647 J-8.90433
G1 X-35.97208 Y7.97538
G3 X-35.9999 Y7.92697 I6.92277 J-4.0094
G1 X-36.46472 Y7.11132
G3 X-36.48991 Y7.06678 I6.95058 J-3.96099
G1 X-36.81914 Y6.48037
G3 X-36.84138 Y6.44049 I6.97577 J-3.91645
G1 X-36.99635 Y6.16075
G1 X-37.37696 Y6.11629
G3 X-37.38905 Y6.11487 I0.92814 J-7.94598
G1 X-37.6 Y6.0899
G3 X-37.60971 Y6.08875 I0.94024 J-7.94455
G1 X-38.17211 Y6.02149
G3 X-38.19154 Y6.01914 I0.94995 J-7.9434
G1 X-39.15554 Y5.90146
G3 X-39.5708 Y5.84987 I3.05605 J-26.29265
G1 X-40.86592 Y5.68547
G3 X-40.90355 Y5.6806 I1.00739 J-7.93632
G1 X-42.36158 Y5.4885
G3 X-42.3853 Y5.48534 I1.04501 J-7.93145
G1 X-42.59351 Y5.45727
G3 X-42.60482 Y5.45574 I1.06873 J-7.92829
G1 X-43.16001 Y5.38009
G3 X-43.17976 Y5.37738 I1.08004 J-7.92676
G1 X-43.91963 Y5.27469
G3 X-43.93421 Y5.27265 I1.09978 J-7.92404
G3 X-47.24187 Y4.78557 I36.05407 J-256.30995
G3 X-47.26054 Y4.78268 I1.21659 J-7.90695
G1 X-47.8932 Y4.68381
G3 X-47.91819 Y4.67986 I1.23526 J-7.90406
G1 X-48.55055 Y4.57898
G3 X-48.57202 Y4.57553 I1.26026 J-7.90011
G1 X-48.99343 Y4.50713
G3 X-49.00993 Y4.50443 I1.28172 J-7.89666
G3 X-50.75096 Y4.21164 I39.64653 J-241.07414
G3 X-50.77981 Y4.20663 I1.35523 J-7.88437
G1 X-51.64864 Y4.05401
G3 X-51.68984 Y4.04666 I1.38408 J-7.87936
G1 X-52.55788 Y3.8895
G3 X-52.56439 Y3.88832 I1.42528 J-7.87201
G3 X-54.41144 Y3.53813 I22.65792 J-124.55462
G3 X-57.11708 Y2.98357 I32.68009 J-166.32217
G3 X-57.26418 Y2.95236 I2.00438 J-9.80946
G3 X-57.3567 Y2.93239 I2.07917 J-9.85397
G3 X-57.45221 Y2.9117 I2.09741 J-9.91346
G3 X-57.55082 Y2.89027 I2.11665 J-9.9763
G3 X-57.69962 Y2.85745 I2.13699 J-10.04269
G3 X-58.1321 Y2.76197 I15.57794 J-71.58742
G3 X-58.14745 Y2.75852 I1.74827 J-7.80663
G1 X-59.10642 Y2.54177
G3 X-59.16565 Y2.52815 I1.76362 J-7.80318
G1 X-60.09846 Y2.30986
G3 X-60.28976 Y2.26463 I2.94605 J-12.88715
G3 X-60.43522 Y2.22973 I3.15731 J-13.48201
G3 X-60.59064 Y2.19225 I3.36822 J-14.30667
G3 X-60.75698 Y2.1519 I3.67887 J-15.5292
G3 X-60.96971 Y2.09976 I4.214 J-17.65189
G1 X-61.83483 Y1.88491
G3 X-61.87991 Y1.87357 I1.92821 J-7.76415
G1 X-62.37251 Y1.74819
G3 X-62.40534 Y1.73976 I1.97329 J-7.75281
G1 X-62.89172 Y1.61377
G3 X-63.98844 Y1.3221 I17.91193 J-69.55898
G1 X-64.63948 Y1.14391
G3 X-64.69233 Y1.12925 I2.1119 J-7.71621
G1 X-65.56231 Y0.88472
G3 X-65.61548 Y0.86957 I2.16476 J-7.70155
G1 X-66.2632 Y0.68267
G3 X-66.30896 Y0.66932 I2.21793 J-7.6864
G1 X-66.95554 Y0.47857
G3 X-66.98507 Y0.46979 I2.26369 J-7.67305
G1 X-67.16965 Y0.41457
G3 X-67.19379 Y0.4073 I2.29322 J-7.66428
G1 X-67.6854 Y0.25852
G3 X-67.72646 Y0.24597 I2.31737 J-7.65701
G1 X-68.38089 Y0.04407
G3 X-68.41784 Y0.03257 I2.35843 J-7.64446
G1 X-68.79127 Y-0.08462
G3 X-68.82011 Y-0.09373 I2.39538 J-7.63296
G1 X-69.24637 Y-0.22927
G3 X-69.27742 Y-0.23921 I2.42422 J-7.62386
G1 X-69.71056 Y-0.37889
G3 X-69.73144 Y-0.38565 I2.45526 J-7.61391
G1 X-69.87572 Y-0.43262
G3 X-69.8869 Y-0.43626 I2.47615 J-7.60715
G3 X-70.49307 Y-0.63588 I50.54896 J-154.52297
G3 X-70.51294 Y-0.64249 I2.51715 J-7.59368
G1 X-70.89665 Y-0.7708
G3 X-70.92906 Y-0.78171 I2.53702 J-7.58706
G1 X-71.43988 Y-0.95496
G3 X-71.48299 Y-0.96972 I2.56943 J-7.57615
G1 X-72.16276 Y-1.20458
G3 X-72.19387 Y-1.2154 I2.61254 J-7.56139
G1 X-72.37493 Y-1.2788
G3 X-72.39639 Y-1.28635 I2.64365 J-7.55057
G1 X-72.80973 Y-1.43239
G3 X-72.85491 Y-1.4485 I2.6651 J-7.54303
G1 X-73.69677 Y-1.75164
G3 X-73.75691 Y-1.77357 I2.71028 J-7.52691
G1 X-74.59627 Y-2.08341
G3 X-74.63006 Y-2.09597 I2.77042 J-7.50498
G1 X-74.74182 Y-2.1378
G3 X-74.7668 Y-2.1472 I2.80422 J-7.49242
G1 X-75.36195 Y-2.37221
G3 X-75.41058 Y-2.39078 I2.8292 J-7.48302
G1 X-76.20215 Y-2.69596
G3 X-76.25752 Y-2.71754 I2.87782 J-7.46446
G1 X-77.06509 Y-3.0358
G3 X-77.12002 Y-3.05768 I2.93319 J-7.44288
G1 X-77.92516 Y-3.38188
G3 X-77.95989 Y-3.39596 I2.98812 J-7.42099
G1 X-78.17682 Y-3.48449
G3 X-78.50514 Y-3.61938 I12.01852 J-29.71981
G1 X-79.19748 Y-3.90718
G3 X-79.22623 Y-3.91919 I3.07077 J-7.38718
G1 X-79.41205 Y-3.99729
G3 X-79.41392 Y-3.99808 I3.09952 J-7.37516
G3 X-80.44641 Y-4.43806 I45.96634 J-109.29731
G3 X-81.47926 Y-4.88836 I44.4642 J-103.39774
G3 X-81.49131 Y-4.8937 I3.23382 J-7.31727
G1 X-81.86837 Y-5.06108
G2 X-81.90403 Y-4.44272 I18.29426 J1.36526
G3 X-81.90434 Y-4.43525 I-7.99337 J-0.32571
G2 X-81.89403 Y-2.48329 I20.78141 J0.86624
G3 X-81.89389 Y-2.48066 I-7.98909 J0.41759
G1 X-81.88966 Y-2.39919
G2 X-81.69352 Y-0.36929 I23.86973 J-1.28196
G3 X-81.69159 Y-0.35542 I-7.92285 J1.10838
G2 X-81.29204 Y1.82195 I24.79231 J-3.42411
G3 X-81.28841 Y1.83784 I-7.79706 J1.79049
G2 X-80.67982 Y4.05056 I25.02743 J-5.69356
G1 X-80.67943 Y4.05175
G2 X-79.86498 Y6.2267 I24.37855 J-7.889
G1 X-79.7385 Y6.51617
G1 X-79.62399 Y6.77019
G2 X-79.2513 Y7.54516 I19.98336 J-9.13295
G1 X-79.18636 Y7.6731
G3 X-79.17181 Y7.7019 I-7.13354 J3.62113
G2 X-79.03947 Y7.95566 I8.50801 J-4.27576
G3 X-79.03142 Y7.97058 I-7.0369 J3.80552
G1 X-78.92309 Y8.17192
G1 X-78.81843 Y8.36246
G2 X-77.61063 Y10.2877 I18.10919 J-10.0193
G1 X-77.41381 Y10.56182
G2 X-77.11479 Y10.96118 I22.81441 J-16.77068
G1 X-77.04654 Y11.04961
G3 X-77.02731 Y11.07463 I-6.33304 J4.888
G2 X-76.8685 Y11.27569 I6.72863 J-5.15111
G1 X-76.64523 Y11.54945
G2 X-76.15255 Y12.12093 I13.40393 J-11.05779
G3 X-76.14179 Y12.1329 I-5.94426 J5.35404
G2 X-75.34441 Y12.97131 I14.7893 J-13.26704
G1 X-75.09223 Y13.2171
G2 X-74.45844 Y13.79847 I13.6416 J-14.23534
G3 X-74.44545 Y13.80991 I-5.27795 J6.01192
G2 X-73.52886 Y14.56818 I12.49469 J-14.17026
G1 X-73.38765 Y14.67727
G1 X-73.2891 Y14.75232
G1 X-73.05629 Y14.92645
G3 X-73.03578 Y14.94184 I-4.79149 J6.40637
G2 X-73.00497 Y14.96443 I0.89209 J-1.18481
G3 X-72.96816 Y14.99084 I-4.64577 J6.51282
G1 X-72.84451 Y15.0801
G1 X-72.67551 Y15.20014
G1 X-72.49924 Y15.32292
G2 X-70.28825 Y16.67037 I13.38575 J-19.47658
G1 X-70.28813 Y16.67044
G1 X-70.28837 Y16.67031
G1 X-70.28825 Y16.67037
G2 X-67.77665 Y17.85983 I13.09809 J-24.41077
G3 X-67.75212 Y17.87003 I-3.05716 J7.39282
G2 X-67.11555 Y18.12515 I9.2672 J-22.20089
G3 X-67.08339 Y18.13759 I-2.87001 J7.46747
G2 X-66.08283 Y18.50532 I10.15347 J-26.08202
G1 X-66.08272 Y18.50536
G1 X-65.92078 Y18.5614
G3 X-65.91579 Y18.56313 I-2.61629 J7.56009
G2 X-65.03573 Y18.8516 I8.88774 J-25.62744
G3 X-65.03396 Y18.85215 I-2.36173 J7.64344
G1 X-64.82592 Y18.91648
G2 X-63.48416 Y19.29883 I10.84909 J-35.52671
G1 X-63.11676 Y19.39396
G1 X-62.86752 Y19.45631
G1 X-62.46806 Y19.55251
G1 X-62.06673 Y19.64477
G2 X-61.29601 Y19.80969 I13.38483 J-60.66548
G3 X-61.24892 Y19.8196 I-1.62437 J7.83335
G3 X-61.11122 Y19.84717 I-1.50127 J7.85787
G3 X-60.98198 Y19.87259 I-1.47934 J7.86203
G3 X-60.86067 Y19.89606 I-1.45883 J7.86586
G3 X-60.80651 Y19.90616 I-1.43966 J7.8694
G2 X-59.04293 Y20.20332 I7.98981 J-42.03584
G1 X-58.64294 Y20.25996
G1 X-58.30841 Y20.30442
G1 X-58.00394 Y20.3426
G2 X-57.01026 Y20.45164 I5.18963 J-42.70993
G1 X-56.45958 Y20.50194
G1 X-56.21357 Y20.52216
G1 X-55.93136 Y20.54365
G3 X-55.90822 Y20.54544 I-0.60731 J7.97691
G3 X-55.81514 Y20.55203 I-0.51822 J7.9832
G3 X-55.79441 Y20.55336 I-0.50254 J7.9842
G2 X-55.03459 Y20.5992 I4.78767 J-73.03855
G3 X-55.01972 Y20.60004 I-0.44023 J7.98788
G2 X-54.56802 Y20.62065 I1.13613 J-19.93917
G3 X-54.49885 Y20.62332 I-0.27416 J7.9953
G2 X-53.76451 Y20.64523 I1.20388 J-28.02528
G1 X-53.67242 Y20.64665
G1 F300.0 X-53.70929 Y23.04637
G1 F800.0 X-53.35871 Y23.05175
G1 X-52.93713 Y23.05415
G1 X-52.54911 Y23.05271
G1 X-52.19724 Y23.04841
G2 X-49.85824 Y22.94346 I-0.5911 J-39.29083
G3 X-49.83131 Y22.94151 I0.41757 J5.58441
G2 X-49.13576 Y22.88342 I-1.80167 J-25.76498
G3 X-49.11072 Y22.88104 I0.54145 J5.57376
G2 X-46.92141 Y22.61225 I-3.41152 J-36.83754
G1 X-46.72593 Y22.58176
G3 X-46.71203 Y22.57961 I0.86309 J5.53309
G2 X-46.11117 Y22.47859 I-3.22032 J-20.99091
G3 X-46.1036 Y22.47721 I1.00763 J5.5086
G1 X-45.84662 Y22.43057
G1 X-45.37751 Y22.34064
G3 X-45.37001 Y22.33921 I1.05425 J5.49987
G2 X-45.13494 Y22.29145 I-1.80523 J-9.4875
G3 X-45.11273 Y22.2867 I1.18306 J5.47361
G1 X-44.85194 Y22.23144
G1 X-44.68053 Y22.19398
G2 X-44.13691 Y22.06898 I-17.07411 J-75.49574
G1 X-43.96838 Y22.02831
G2 X-41.54337 Y21.3346 I-7.48268 J-30.7427
G3 X-41.5351 Y21.33188 I1.75356 J5.31837
G2 X-39.12074 Y20.4231 I-9.33798 J-28.46979
G3 X-39.10808 Y20.41772 I2.19655 J5.15123
G2 X-37.99226 Y19.91687 I-11.19923 J-26.44359
G1 X-37.66984 Y19.76222
G3 X-37.64333 Y19.74959 I2.42187 J5.04921
G2 X-37.53621 Y19.69705 I-1.82054 J-3.84715
G3 X-37.49895 Y19.67829 I2.5363 J4.99271
G1 X-37.31352 Y19.58582
G3 X-37.29809 Y19.57816 I2.49904 J5.01146
G3 X-37.24322 Y19.55043 I2.55307 J4.98416
G1 X-36.84247 Y19.34394
G2 X-34.79233 Y18.16985 I-14.6008 J-27.87234
G1 X-34.53089 Y18.00523
G2 X-32.90439 Y16.89842 I-17.01492 J-26.75261
G3 X-32.89684 Y16.89294 I3.2926 J4.52977
G2 X-31.26411 Y15.61984 I-17.16232 J-23.69383
G1 X-31.05881 Y15.44639
G2 X-29.87023 Y14.36859 I-15.60728 J-18.40573
G1 X-29.78141 Y14.28222
G3 X-29.75124 Y14.25311 I3.90391 J4.01491
G2 X-29.69211 Y14.19485 I-2.04654 J-2.1365
G3 X-29.64766 Y14.15032 I3.98568 J3.93374
G2 X-29.4786 Y13.98068 I-13.22555 J-13.34986
G3 X-29.48931 Y13.96386 I4.97713 J-3.18074
G1 X-29.51211 Y13.92911
G3 X-29.5207 Y13.91598 I4.68193 J-3.07239
G1 X-29.76558 Y13.54053
G3 X-29.7843 Y13.51163 I4.69052 J-3.05925
G1 X-30.26804 Y12.75988
G3 X-30.75847 Y11.98583 I48.60728 J-31.33921
G1 X-31.19826 Y11.28215
G3 X-31.20929 Y11.26443 I4.74881 J-2.96796
G1 X-31.33499 Y11.06163
G3 X-31.34691 Y11.04232 I4.75984 J-2.95025
G1 X-31.85792 Y10.21035
G3 X-31.87652 Y10.17985 I4.77176 J-2.93093
G1 X-32.38225 Y9.34459
G3 X-32.39272 Y9.32722 I4.79036 J-2.90043
G1 X-32.46425 Y9.20812
G3 X-32.46686 Y9.20377 I4.80083 J-2.88306
G1 X-32.53828 Y9.08458
G3 X-32.54221 Y9.07803 I4.80344 J-2.87871
G1 X-32.68474 Y8.83946
G3 X-32.68911 Y8.83213 I4.80736 J-2.87215
G1 X-32.78392 Y8.67289
G3 X-32.78668 Y8.66825 I4.81173 J-2.86483
G1 X-32.84079 Y8.57717
G3 X-32.84991 Y8.56177 I4.81449 J-2.86019
G1 X-33.26862 Y7.8518
G3 X-33.43567 Y7.5661 I12.8035 J-7.67785
G1 X-33.89525 Y6.77256
G3 X-33.91472 Y6.73867 I4.84594 J-2.80658
G1 X-34.37954 Y5.92302
G3 X-34.39718 Y5.89184 I4.8654 J-2.7727
G1 X-34.72641 Y5.30543
G3 X-34.74198 Y5.27752 I4.88304 J-2.74151
G1 X-35.06787 Y4.68923
G3 X-35.08146 Y4.66454 I4.89861 J-2.7136
G1 X-35.29676 Y4.27123
G3 X-35.31339 Y4.24063 I4.91221 J-2.68891
G1 X-35.48728 Y3.9182
G1 X-35.59127 Y3.90663
G3 X-35.6081 Y3.90473 I0.61922 J-5.56566
G1 X-36.34655 Y3.82031
G3 X-36.3602 Y3.81873 I0.63605 J-5.56376
G1 X-37.09851 Y3.73249
G3 X-37.10698 Y3.7315 I0.6497 J-5.56218
G1 X-37.31792 Y3.70653
G3 X-37.32472 Y3.70573 I0.65817 J-5.56119
G1 X-37.88712 Y3.63847
G3 X-37.90073 Y3.63682 I0.66497 J-5.56038
G1 X-38.87175 Y3.51829
G3 X-39.26217 Y3.46978 I2.77225 J-23.90948
G1 X-40.56371 Y3.30457
G3 X-40.59004 Y3.30117 I0.70517 J-5.55542
G1 X-42.04808 Y3.10906
G3 X-42.06468 Y3.10685 I0.73151 J-5.55202
G1 X-42.27289 Y3.07879
G3 X-42.28081 Y3.07771 I0.74811 J-5.5498
G1 X-42.836 Y3.00207
G3 X-42.84982 Y3.00017 I0.75603 J-5.54873
G1 X-43.5897 Y2.89748
G3 X-43.5999 Y2.89605 I0.76985 J-5.54683
G3 X-46.87689 Y2.41349 I35.71976 J-253.93334
G3 X-46.88996 Y2.41146 I0.85161 J-5.53487
G1 X-47.52262 Y2.31259
G3 X-47.54012 Y2.30983 I0.86468 J-5.53284
G1 X-48.17248 Y2.20895
G3 X-48.1875 Y2.20653 I0.88218 J-5.53008
G1 X-48.60891 Y2.13813
G3 X-48.62046 Y2.13624 I0.89721 J-5.52766
G3 X-50.34439 Y1.84633 I39.25706 J-238.70595
G3 X-50.36458 Y1.84282 I0.94866 J-5.51906
G1 X-51.23341 Y1.6902
G3 X-51.26226 Y1.68506 I0.96886 J-5.51555
G1 X-52.1303 Y1.52789
G3 X-52.13485 Y1.52707 I0.9977 J-5.51041
G3 X-53.9478 Y1.18334 I22.22838 J-122.19337
G3 X-56.62699 Y0.63412 I32.21645 J-163.96738
G3 X-56.75856 Y0.6062 I1.51429 J-7.46001
G3 X-56.84953 Y0.58656 I1.57355 J-7.50781
G3 X-56.94344 Y0.56621 I1.59024 J-7.56763
G3 X-57.04038 Y0.54514 I1.60788 J-7.63082
G3 X-57.1766 Y0.51509 I1.62656 J-7.69756
G3 X-57.60761 Y0.41998 I15.05492 J-69.24506
G3 X-57.61836 Y0.41756 I1.22379 J-5.46464
G1 X-58.57733 Y0.20082
G3 X-58.6188 Y0.19128 I1.23454 J-5.46223
G1 X-59.5579 Y-0.02848
G3 X-59.73131 Y-0.06953 I2.40549 J-10.54881
G3 X-59.87395 Y-0.10375 I2.59885 J-11.14785
G3 X-60.02627 Y-0.14048 I2.80694 J-11.97318
G3 X-60.18914 Y-0.17998 I3.1145 J-13.19646
G3 X-60.38765 Y-0.22859 I3.64615 J-15.32001
G1 X-61.25636 Y-0.44434
G3 X-61.28792 Y-0.45227 I1.34975 J-5.4349
G1 X-61.78053 Y-0.57765
G3 X-61.8035 Y-0.58355 I1.38131 J-5.42697
G1 X-62.29157 Y-0.70998
G3 X-63.35408 Y-0.99255 I17.31178 J-67.23522
G1 X-64.00591 Y-1.17095
G3 X-64.0429 Y-1.18121 I1.47833 J-5.40135
G1 X-64.91288 Y-1.42575
G3 X-64.95011 Y-1.43635 I1.51533 J-5.39108
G1 X-65.59782 Y-1.62325
G3 X-65.62985 Y-1.63259 I1.55255 J-5.38048
G1 X-66.27643 Y-1.82335
G3 X-66.29711 Y-1.82949 I1.58458 J-5.37114
G1 X-66.48168 Y-1.88472
G3 X-66.49858 Y-1.8898 I1.60526 J-5.36499
G1 X-66.99019 Y-2.03858
G3 X-67.01893 Y-2.04737 I1.62216 J-5.35991
G1 X-67.67336 Y-2.24927
G3 X-67.69922 Y-2.25732 I1.6509 J-5.35112
G1 X-68.07266 Y-2.37451
G3 X-68.09284 Y-2.38088 I1.67677 J-5.34308
G1 X-68.51911 Y-2.51643
G3 X-68.54084 Y-2.52339 I1.69695 J-5.3367
G1 X-68.97398 Y-2.66306
G3 X-68.9886 Y-2.6678 I1.71869 J-5.32974
G1 X-69.13288 Y-2.71476
G3 X-69.1407 Y-2.71731 I1.7333 J-5.325
G3 X-69.73793 Y-2.91398 I49.80276 J-152.24192
G3 X-69.75183 Y-2.91861 I1.76201 J-5.31557
G1 X-70.13554 Y-3.04692
G3 X-70.15823 Y-3.05456 I1.77591 J-5.31095
G1 X-70.66905 Y-3.2278
G3 X-70.69923 Y-3.23813 I1.7986 J-5.3033
G1 X-71.379 Y-3.473
G3 X-71.40078 Y-3.48058 I1.82878 J-5.29297
G1 X-71.58184 Y-3.54397
G3 X-71.59686 Y-3.54925 I1.85055 J-5.2854
G1 X-72.0102 Y-3.6953
G3 X-72.04183 Y-3.70658 I1.86557 J-5.28012
G1 X-72.88368 Y-4.00971
G3 X-72.92578 Y-4.02506 I1.8972 J-5.26884
G1 X-73.76514 Y-4.33491
G3 X-73.7888 Y-4.3437 I1.9393 J-5.25349
G1 X-73.90056 Y-4.38553
G3 X-73.91804 Y-4.3921 I1.96295 J-5.24469
G1 X-74.51319 Y-4.61712
G3 X-74.54723 Y-4.63012 I1.98044 J-5.23812
G1 X-75.33881 Y-4.9353
G3 X-75.37756 Y-4.9504 I2.01448 J-5.22512
G1 X-76.18514 Y-5.26866
G3 X-76.22359 Y-5.28398 I2.05323 J-5.21001
G1 X-77.02872 Y-5.60818
G3 X-77.05303 Y-5.61803 I2.09168 J-5.1947
G1 X-77.27358 Y-5.70804
G3 X-77.58233 Y-5.83488 I11.11528 J-27.49626
G1 X-78.27625 Y-6.12333
G3 X-78.29637 Y-6.13174 I2.14954 J-5.17102
G1 X-78.4822 Y-6.20984
G3 X-78.4835 Y-6.21039 I2.16966 J-5.16261
G3 X-79.49669 Y-6.64216 I45.03592 J-107.085
G3 X-80.50911 Y-7.08354 I43.51448 J-101.19364
G3 X-80.51754 Y-7.08727 I2.26368 J-5.12209
G1 X-81.15876 Y-7.37192
G3 X-81.1739 Y-7.37867 I2.27211 J-5.11835
G1 X-81.25659 Y-7.41567
G3 X-81.26007 Y-7.41723 I2.28725 J-5.1116
G1 X-81.34538 Y-7.45547
G3 X-81.36364 Y-7.46369 I2.29074 J-5.11004
G1 X-82.16845 Y-7.82793
G3 X-82.20071 Y-7.84266 I2.30899 J-5.10182
G1 X-82.9987 Y-8.20992
G3 X-83.58846 Y-8.48499 I19.89511 J-43.42684
G1 X-83.72303 Y-8.54827
G2 X-83.76134 Y-8.39972 I15.15549 J3.98839
G2 X-84.11938 Y-6.56592 I16.88111 J4.24774
G3 X-84.1298 Y-6.49484 I-5.54589 J-0.77657
G2 X-84.14587 Y-6.37544 I3.28901 J0.50365
G3 X-84.15322 Y-6.31509 I-5.56253 J-0.6467
G2 X-84.30204 Y-4.54043 I20.57912 J2.61927
G3 X-84.30225 Y-4.5352 I-5.59536 J-0.228
G2 X-84.29075 Y-2.35802 I23.17933 J0.96619
G3 X-84.29066 Y-2.35617 I-5.59237 J0.29232
G1 X-84.28632 Y-2.27264
G2 X-84.07038 Y-0.03678 I26.26639 J-1.40851
G3 X-84.06903 Y-0.02707 I-5.54599 J0.77587
G2 X-83.63116 Y2.3591 I27.16974 J-3.75247
G3 X-83.62862 Y2.37022 I-5.45794 J1.25335
G2 X-82.96312 Y4.78984 I27.36764 J-6.22594
G1 X-82.96285 Y4.79068
G2 X-82.0681 Y7.17873 I26.66197 J-8.62792
G1 X-81.93216 Y7.48983
G1 X-81.80948 Y7.76199
G2 X-81.39237 Y8.62952 I22.16885 J-10.12475
G1 X-81.32642 Y8.75944
G3 X-81.31624 Y8.7796 I-4.99348 J2.53479
G2 X-81.15054 Y9.09731 I10.65243 J-5.35346
G3 X-81.14491 Y9.10776 I-4.92583 J2.66386
G1 X-81.03165 Y9.31826
G1 X-80.92026 Y9.52104
G2 X-79.56525 Y11.68038 I20.21103 J-11.17788
G1 X-79.35566 Y11.97228
G2 X-79.01888 Y12.42217 I24.75626 J-18.18114
G1 X-78.94645 Y12.51601
G3 X-78.93299 Y12.53352 I-4.43313 J3.4216
G2 X-78.72877 Y12.79208 I8.63431 J-6.61001
G1 X-78.50098 Y13.07137
G2 X-77.93583 Y13.72714 I15.25968 J-12.57971
G3 X-77.92829 Y13.73552 I-4.16098 J3.74783
G2 X-77.0269 Y14.68284 I16.5758 J-14.86967
G1 X-76.76032 Y14.94267
G2 X-76.04183 Y15.60205 I15.30968 J-15.96091
G3 X-76.03273 Y15.61006 I-3.69457 J4.20835
G2 X-74.99783 Y16.46611 I14.08198 J-15.97041
G1 X-74.84837 Y16.58157
G1 X-74.73495 Y16.66796
G1 X-74.49374 Y16.84836
G3 X-74.47938 Y16.85913 I-3.35404 J4.48446
G2 X-74.3987 Y16.91827 I2.33569 J-3.10211
G3 X-74.37293 Y16.93676 I-3.25204 J4.55898
G1 X-74.2418 Y17.03143
G1 X-74.0563 Y17.16318
G1 X-73.86496 Y17.29646
G2 X-71.42303 Y18.78514 I14.75147 J-21.45012
G1 X-71.42295 Y18.78519
G1 X-71.42312 Y18.7851
G1 X-71.42303 Y18.78514
G2 X-68.6938 Y20.07768 I14.23288 J-26.52554
G3 X-68.67662 Y20.08481 I-2.14001 J5.17497
G2 X-67.97655 Y20.36539 I10.19171 J-24.41568
G3 X-67.95404 Y20.3741 I-2.00901 J5.22723
G2 X-66.86769 Y20.77336 I11.02412 J-28.31853
G1 X-66.86761 Y20.77338
G1 X-66.70567 Y20.82943
G3 X-66.70218 Y20.83064 I-1.83141 J5.29207
G2 X-65.74425 Y21.14463 I9.67413 J-27.89495
G3 X-65.74301 Y21.14502 I-1.65321 J5.35041
G1 X-65.53099 Y21.21058
G2 X-64.09199 Y21.6206 I11.55416 J-37.82081
G1 X-63.70875 Y21.71983
G1 X-63.4397 Y21.78713
G1 X-63.01788 Y21.88872
G1 X-62.5942 Y21.98611
G2 X-61.78332 Y22.1597 I13.91231 J-63.00682
G3 X-61.74367 Y22.16807 I-1.13706 J5.48335
G2 X-61.70602 Y22.17569 I0.33427 J-1.55531
G3 X-61.58512 Y22.20001 I-1.04417 J5.50179
G2 X-61.5729 Y22.20244 I0.09655 J-0.45391
G3 X-61.44214 Y22.22822 I-1.01766 J5.50676
G3 X-61.31369 Y22.25305 I-0.99867 J5.51023
G3 X-61.25465 Y22.26395 I-0.98665 J5.5124
G2 X-59.3857 Y22.57872 I8.43796 J-44.39362
G1 X-58.96931 Y22.63768
G1 X-58.61582 Y22.68467
G1 X-58.29804 Y22.72452
G2 X-57.23633 Y22.84098 I5.48373 J-45.09184
G1 X-56.66706 Y22.89298
G1 X-56.40299 Y22.91469
G1 X-56.11355 Y22.93672
G3 X-56.08053 Y22.93934 I-0.42512 J5.58384
G3 X-55.98223 Y22.94629 I-0.34591 J5.58931
G3 X-55.95139 Y22.94822 I-0.33546 J5.58994
G2 X-55.16666 Y22.99557 I4.94465 J-75.43341
G3 X-55.15625 Y22.99615 I-0.30816 J5.59151
G2 X-54.65027 Y23.01924 I1.27266 J-22.33529
G3 X-54.60185 Y23.02111 I-0.19191 J5.59671
G2 X-53.803 Y23.04493 I1.30688 J-30.42307
G1 X-53.70929 Y23.04637
G1 F300.0 X-53.74616 Y25.44608
G1 F800.0 X-53.38396 Y25.45165
G1 X-52.93949 Y25.45417
G1 X-52.53001 Y25.45265
G1 X-52.16458 Y25.44819
G2 X-49.67928 Y25.33678 I-0.62376 J-41.69061
G3 X-49.66389 Y25.33566 I0.23861 J3.19109
G2 X-48.90371 Y25.27217 I-1.96908 J-28.15913
G3 X-48.8894 Y25.27082 I0.3094 J3.18501
G2 X-46.55473 Y24.98408 I-3.63284 J-39.22731
G1 X-46.35604 Y24.95309
G3 X-46.34809 Y24.95186 I0.4932 J3.16176
G2 X-45.67933 Y24.83942 I-3.58426 J-23.36316
G3 X-45.675 Y24.83863 I0.57579 J3.14777
G1 X-45.40639 Y24.78988
G1 X-44.92568 Y24.69773
G3 X-44.9214 Y24.69691 I0.60243 J3.14278
G2 X-44.62791 Y24.63728 I-2.25384 J-11.8452
G3 X-44.61522 Y24.63457 I0.67604 J3.12777
G1 X-44.34702 Y24.57774
G1 X-44.15972 Y24.53681
G2 X-43.58219 Y24.40401 I-17.59492 J-77.83857
G1 X-43.40312 Y24.36079
G2 X-40.79184 Y23.6139 I-8.04794 J-33.07519
G3 X-40.78712 Y23.61234 I1.00203 J3.03907
G2 X-38.17936 Y22.63077 I-10.08597 J-30.75025
G3 X-38.17213 Y22.62769 I1.25517 J2.94356
G2 X-36.95859 Y22.08287 I-12.13518 J-28.65357
G1 X-36.6319 Y21.92617
G3 X-36.61675 Y21.91895 I1.38392 J2.88527
G2 X-36.44923 Y21.83678 I-2.84712 J-6.01651
G3 X-36.42794 Y21.82607 I1.44932 J2.85298
G1 X-36.2425 Y21.73359
G3 X-36.21873 Y21.72186 I1.42803 J2.86369
G3 X-36.15932 Y21.69182 I1.47371 J2.84046
G3 X-36.15004 Y21.68702 I1.475 J2.83978
G1 X-35.73611 Y21.47374
G2 X-33.51779 Y20.20347 I-15.70716 J-30.00214
G1 X-33.24754 Y20.03329
G2 X-31.49327 Y18.83975 I-18.29827 J-28.78068
G3 X-31.48896 Y18.83662 I1.88148 J2.58844
G2 X-29.71869 Y17.45606 I-18.5702 J-25.6375
G1 X-29.50832 Y17.27832
G2 X-28.19845 Y16.09055 I-17.15777 J-20.23766
G1 X-28.10831 Y16.0029
G3 X-28.09107 Y15.98626 I2.23081 J2.29423
G2 X-27.98396 Y15.88074 I-3.70672 J-3.86965
G3 X-27.95856 Y15.85529 I2.27753 J2.24785
G2 X-26.95747 Y14.79275 I-14.91465 J-15.05484
G3 X-26.93883 Y14.77173 I2.4033 J2.11286
G2 X-26.85329 Y14.67315 I-3.18205 J-2.84741
G3 X-26.83111 Y14.64706 I2.44876 J2.05999
G2 X-26.44969 Y14.18618 I-12.09489 J-10.39775
G3 X-27.25485 Y12.99296 I55.18932 J-38.10898
G1 X-27.38947 Y12.78898
G3 X-27.47127 Y12.66464 I2.88801 J-1.98904
G1 X-27.50557 Y12.61238
G3 X-27.51048 Y12.60487 I2.67539 J-1.75565
G1 X-27.75535 Y12.22942
G3 X-27.76605 Y12.21291 I2.6803 J-1.74814
G1 X-28.25038 Y11.46026
G3 X-28.72213 Y10.71566 I46.58962 J-30.03958
G1 X-29.16306 Y10.01016
G3 X-29.16936 Y10.00004 I2.71361 J-1.69598
G1 X-29.29506 Y9.79724
G3 X-29.30187 Y9.7862 I2.71991 J-1.68586
G1 X-29.81288 Y8.95424
G3 X-29.82351 Y8.93681 I2.72672 J-1.67482
G1 X-30.32924 Y8.10155
G3 X-30.33522 Y8.09162 I2.73735 J-1.65739
G1 X-30.40675 Y7.97252
G3 X-30.40824 Y7.97004 I2.74333 J-1.64746
G1 X-30.47967 Y7.85085
G3 X-30.48191 Y7.84711 I2.74482 J-1.64498
G1 X-30.62444 Y7.60854
G3 X-30.62694 Y7.60435 I2.74706 J-1.64123
G1 X-30.72175 Y7.44511
G3 X-30.72332 Y7.44246 I2.74956 J-1.63704
G1 X-30.77744 Y7.35137
G3 X-30.78265 Y7.34257 I2.75114 J-1.63439
G1 X-31.20602 Y6.62471
G3 X-31.35447 Y6.37081 I10.7409 J-6.45077
G1 X-31.81842 Y5.56974
G3 X-31.82955 Y5.55037 I2.76911 J-1.60376
G1 X-32.29437 Y4.73473
G3 X-32.30445 Y4.71691 I2.78023 J-1.5844
G1 X-32.63368 Y4.1305
G3 X-32.64258 Y4.11455 I2.79031 J-1.56658
G1 X-32.96846 Y3.52625
G3 X-32.97623 Y3.51215 I2.79921 J-1.55063
G1 X-33.19152 Y3.11884
G3 X-33.20103 Y3.10135 I2.80697 J-1.53652
G1 X-33.60367 Y2.3548
G3 X-33.615 Y2.3336 I2.81648 J-1.51903
G3 X-33.96475 Y1.67152 I297.92611 J-157.805
G1 X-34.39489 Y1.62491
G3 X-34.40405 Y1.62391 I0.34468 J-3.18138
G1 X-35.32589 Y1.52135
G3 X-35.33551 Y1.52026 I0.35384 J-3.18038
G1 X-36.07396 Y1.43584
G3 X-36.08176 Y1.43494 I0.36346 J-3.17929
G1 X-36.82007 Y1.3487
G3 X-36.82491 Y1.34813 I0.37126 J-3.17839
G1 X-37.03585 Y1.32317
G3 X-37.03974 Y1.32271 I0.3761 J-3.17782
G1 X-37.60214 Y1.25545
G3 X-37.60991 Y1.25451 I0.37998 J-3.17736
G1 X-38.58831 Y1.13507
G3 X-38.95321 Y1.08974 I2.48882 J-21.52626
G1 X-40.26149 Y0.92368
G3 X-40.27654 Y0.92173 I0.40295 J-3.17453
G1 X-41.73458 Y0.72963
G3 X-41.74407 Y0.72836 I0.418 J-3.17258
G1 X-41.95227 Y0.7003
G3 X-41.9568 Y0.69968 I0.42749 J-3.17132
G1 X-42.51199 Y0.62404
G3 X-42.51988 Y0.62295 I0.43202 J-3.1707
G1 X-43.25976 Y0.52026
G3 X-43.26559 Y0.51945 I0.43991 J-3.16962
G3 X-46.51191 Y0.0414 I35.38546 J-251.55674
G3 X-46.51938 Y0.04024 I0.48664 J-3.16278
G1 X-47.15204 Y-0.05863
G3 X-47.16204 Y-0.06021 I0.4941 J-3.16162
G1 X-47.7944 Y-0.16108
G3 X-47.80299 Y-0.16247 I0.5041 J-3.16004
G1 X-48.2244 Y-0.23087
G3 X-48.231 Y-0.23194 I0.51269 J-3.15866
G3 X-49.93782 Y-0.51898 I38.8676 J-236.33776
G3 X-49.94936 Y-0.52099 I0.54209 J-3.15375
G1 X-50.81819 Y-0.67361
G3 X-50.83467 Y-0.67655 I0.55363 J-3.15174
G1 X-51.70271 Y-0.83371
G3 X-51.70531 Y-0.83418 I0.57011 J-3.1488
G3 X-53.48416 Y-1.17145 I21.79884 J-119.83212
G3 X-56.13874 Y-1.71573 I31.75281 J-161.61259
G3 X-56.25291 Y-1.73999 I1.02605 J-5.11016
G3 X-56.34234 Y-1.7593 I1.0679 J-5.16162
G3 X-56.43464 Y-1.7793 I1.08304 J-5.22178
G3 X-56.52992 Y-1.80001 I1.09908 J-5.28531
G3 X-56.65163 Y-1.82684 I1.11609 J-5.35241
G3 X-57.08313 Y-1.92201 I14.52994 J-66.90313
G3 X-57.08927 Y-1.92339 I0.69931 J-3.12265
G1 X-58.04824 Y-2.14013
G3 X-58.07194 Y-2.14558 I0.70545 J-3.12127
G1 X-59.01809 Y-2.367
G3 X-59.17276 Y-2.40368 I1.86568 J-8.2103
G3 X-59.31257 Y-2.43722 I2.04031 J-8.8137
G3 X-59.46178 Y-2.4732 I2.24556 J-9.63971
G3 X-59.62114 Y-2.51184 I2.55001 J-10.86374
G3 X-59.8053 Y-2.55687 I3.07815 J-12.98815
G1 X-60.6779 Y-2.77358
G3 X-60.69593 Y-2.77811 I0.77128 J-3.10566
G1 X-61.18854 Y-2.9035
G3 X-61.20167 Y-2.90687 I0.78932 J-3.10113
G1 X-61.69145 Y-3.03374
G3 X-62.71971 Y-3.30719 I16.71166 J-64.91147
G1 X-63.37233 Y-3.48581
G3 X-63.39347 Y-3.49168 I0.84476 J-3.08648
G1 X-64.26346 Y-3.73621
G3 X-64.28473 Y-3.74227 I0.8659 J-3.08062
G1 X-64.93244 Y-3.92917
G3 X-64.95075 Y-3.93451 I0.88717 J-3.07456
G1 X-65.59733 Y-4.12526
G3 X-65.60914 Y-4.12877 I0.90548 J-3.06922
G1 X-65.79371 Y-4.184
G3 X-65.80337 Y-4.1869 I0.91729 J-3.06571
G1 X-66.29498 Y-4.33569
G3 X-66.3114 Y-4.34071 I0.92695 J-3.0628
G1 X-66.96583 Y-4.54261
G3 X-66.98061 Y-4.54721 I0.94337 J-3.05778
G1 X-67.35404 Y-4.6644
G3 X-67.36558 Y-4.66804 I0.95815 J-3.05319
G1 X-67.79184 Y-4.80358
G3 X-67.80426 Y-4.80756 I0.96969 J-3.04954
G1 X-68.2374 Y-4.94724
G3 X-68.24576 Y-4.94994 I0.98211 J-3.04557
G1 X-68.39003 Y-4.9969
G3 X-68.3945 Y-4.99836 I0.99046 J-3.04286
G3 X-68.98278 Y-5.19209 I49.05656 J-149.96087
G3 X-68.99073 Y-5.19473 I1.00686 J-3.03747
G1 X-69.37444 Y-5.32304
G3 X-69.3874 Y-5.3274 I1.01481 J-3.03483
G1 X-69.89822 Y-5.50065
G3 X-69.91547 Y-5.50655 I1.02777 J-3.03046
G1 X-70.59524 Y-5.74142
G3 X-70.60768 Y-5.74575 I1.04501 J-3.02456
G1 X-70.78875 Y-5.80914
G3 X-70.79733 Y-5.81216 I1.05746 J-3.02023
G1 X-71.21067 Y-5.9582
G3 X-71.22875 Y-5.96465 I1.06604 J-3.01721
G1 X-72.0706 Y-6.26778
G3 X-72.09466 Y-6.27655 I1.08411 J-3.01076
G1 X-72.93402 Y-6.5864
G3 X-72.94753 Y-6.59143 I1.10817 J-3.00199
G1 X-73.05929 Y-6.63325
G3 X-73.06928 Y-6.63701 I1.12169 J-2.99697
G1 X-73.66444 Y-6.86203
G3 X-73.68389 Y-6.86945 I1.13168 J-2.99321
G1 X-74.47546 Y-7.17463
G3 X-74.49761 Y-7.18327 I1.15113 J-2.98578
G1 X-75.30518 Y-7.50153
G3 X-75.32715 Y-7.51028 I1.17328 J-2.97715
G1 X-76.13229 Y-7.83447
G3 X-76.14618 Y-7.84011 I1.19525 J-2.9684
G1 X-76.37049 Y-7.93165
G3 X-76.65945 Y-8.05034 I10.21219 J-25.27265
G1 X-77.35502 Y-8.33948
G3 X-77.36652 Y-8.34429 I1.22831 J-2.95487
G1 X-77.55234 Y-8.42239
G3 X-77.55309 Y-8.4227 I1.23981 J-2.95006
G3 X-78.54697 Y-8.84625 I44.10551 J-104.87268
G3 X-79.53897 Y-9.27872 I42.56476 J-98.98955
G3 X-79.54378 Y-9.28085 I1.29353 J-2.92691
G1 X-80.185 Y-9.5655
G3 X-80.19365 Y-9.56936 I1.29835 J-2.92477
G1 X-80.27633 Y-9.60635
G3 X-80.27833 Y-9.60724 I1.307 J-2.92092
G1 X-80.36364 Y-9.64549
G3 X-80.37407 Y-9.65019 I1.30899 J-2.92002
G1 X-81.17888 Y-10.01443
G3 X-81.19731 Y-10.02284 I1.31942 J-2.91532
G1 X-81.99723 Y-10.39099
G3 X-82.56308 Y-10.65492 I18.89364 J-41.24577
G1 X-82.86219 Y-10.79559
G3 X-82.87187 Y-10.80017 I1.3619 J-2.89572
G1 X-83.4737 Y-11.08568
G3 X-83.48045 Y-11.08889 I1.37158 J-2.89115
G1 X-83.52057 Y-11.10804
G3 X-83.52144 Y-11.10845 I1.37833 J-2.88794
G1 X-83.56422 Y-11.12889
G3 X-83.56703 Y-11.13023 I1.3792 J-2.88753
G1 X-83.79494 Y-11.23936
G3 X-83.8065 Y-11.24493 I1.382 J-2.88619
G1 X-84.71641 Y-11.68511
G3 X-84.72798 Y-11.69074 I1.39356 J-2.88062
G1 X-84.98745 Y-11.81755
G3 X-84.99028 Y-11.81894 I1.40513 J-2.875
G1 X-85.02324 Y-11.83509
G3 X-85.02533 Y-11.83611 I1.40796 J-2.87361
G1 X-85.08406 Y-11.86494
G2 X-85.24366 Y-11.5057 I20.01073 J9.10478
G1 X-85.36989 Y-11.20113
G1 X-85.49411 Y-10.88361
G2 X-85.81018 Y-9.96988 I14.61235 J5.56608
G1 X-85.89109 Y-9.70515
G2 X-86.08849 Y-8.98657 I17.32356 J5.14526
G2 X-86.49619 Y-6.89874 I19.20826 J4.83458
G3 X-86.50214 Y-6.85812 I-3.16908 J-0.44376
G2 X-86.52982 Y-6.6526 I5.66135 J0.86693
G3 X-86.53401 Y-6.61812 I-3.17859 J-0.36955
G2 X-86.70005 Y-4.63814 I22.95991 J2.9223
G3 X-86.70017 Y-4.63516 I-3.19735 J-0.13028
G2 X-86.68748 Y-2.23274 I25.57724 J1.06615
G3 X-86.68743 Y-2.23169 I-3.19564 J0.16704
G1 X-86.68299 Y-2.14618
G2 X-86.44723 Y0.29574 I28.66306 J-1.53496
G3 X-86.44646 Y0.30129 I-3.16914 J0.44335
G2 X-85.97028 Y2.89624 I29.54718 J-4.08082
G3 X-85.96882 Y2.9026 I-3.11882 J0.7162
G2 X-85.24642 Y5.52912 I29.70785 J-6.75832
G1 X-85.24626 Y5.5296
G2 X-84.27105 Y8.13114 I28.94538 J-9.36684
G1 X-84.12583 Y8.46349
G1 X-83.99509 Y8.75353
G2 X-83.53339 Y9.71397 I24.35446 J-11.11629
G1 X-83.46648 Y9.84578
G3 X-83.46066 Y9.8573 I-2.85342 J1.44845
G2 X-83.26161 Y10.23897 I12.79686 J-6.43116
G3 X-83.25839 Y10.24494 I-2.81476 J1.52221
G1 X-83.14021 Y10.4646
G1 X-83.02218 Y10.67946
G2 X-81.5196 Y13.07342 I22.31295 J-12.3363
G1 X-81.29781 Y13.38232
G2 X-80.92281 Y13.88337 I26.69841 J-19.59118
G1 X-80.84636 Y13.98241
G3 X-80.83867 Y13.99242 I-2.53322 J1.9552
G2 X-80.58899 Y14.30851 I10.54 J-8.06891
G1 X-80.35698 Y14.59299
G2 X-79.7191 Y15.33335 I17.11568 J-14.10132
G3 X-79.7148 Y15.33814 I-2.3777 J2.14162
G2 X-78.709 Y16.39475 I18.36231 J-16.47229
G1 X-78.42877 Y16.66788
G2 X-77.62522 Y17.40563 I16.97813 J-17.68612
G3 X-77.62002 Y17.4102 I-2.11118 J2.40477
G2 X-76.46671 Y18.36411 I15.66926 J-17.77056
G1 X-76.30908 Y18.48588
G1 X-76.18079 Y18.58359
G1 X-75.93119 Y18.77027
G3 X-75.92298 Y18.77643 I-1.9166 J2.56255
G2 X-75.79243 Y18.87212 I3.77929 J-5.0194
G3 X-75.7777 Y18.88269 I-1.85831 J2.60513
G1 X-75.63909 Y18.98275
G1 X-75.43709 Y19.12623
G1 X-75.23095 Y19.26981
G2 X-72.55782 Y20.89992 I16.11746 J-23.42347
G1 X-72.55777 Y20.89994
G1 X-72.55787 Y20.89989
G1 X-72.55782 Y20.89992
G2 X-69.61094 Y22.29553 I15.36766 J-28.64031
G3 X-69.60113 Y22.2996 I-1.22286 J2.95713
G2 X-68.83755 Y22.60563 I11.11622 J-26.63047
G3 X-68.82469 Y22.61061 I-1.148 J2.98699
G2 X-67.65254 Y23.0414 I11.89477 J-30.55504
G1 X-67.6525 Y23.04141
G1 X-67.49056 Y23.09745
G3 X-67.48856 Y23.09814 I-1.04652 J3.02404
G2 X-66.45277 Y23.43767 I10.46051 J-30.16246
G3 X-66.45206 Y23.43789 I-0.94469 J3.05738
G1 X-66.23617 Y23.50465
G2 X-64.69964 Y23.94241 I12.25934 J-40.11487
G1 X-64.30075 Y24.04569
G1 X-64.01187 Y24.11795
G1 X-63.5677 Y24.22492
G1 X-63.12186 Y24.32741
G2 X-62.27063 Y24.5097 I14.43997 J-65.34812
G3 X-62.24797 Y24.51449 I-0.64975 J3.13334
G2 X-62.15353 Y24.5336 I0.83858 J-3.90173
G3 X-62.08444 Y24.5475 I-0.59667 J3.14388
G2 X-62.00904 Y24.56248 I0.59587 J-2.80139
G3 X-61.93192 Y24.57771 I-0.58152 J3.14672
G2 X-61.87255 Y24.58931 I0.43261 J-2.05684
G3 X-61.78947 Y24.60544 I-0.56825 J3.14914
G2 X-61.74384 Y24.61421 I0.31333 J-1.50717
G3 X-61.7028 Y24.62173 I-0.55649 J3.15124
G2 X-59.72831 Y24.95415 I8.8861 J-46.75141
G1 X-59.29568 Y25.01541
G1 X-58.92324 Y25.06492
G1 X-58.59225 Y25.10642
G2 X-57.46221 Y25.23034 I5.77794 J-47.47375
G1 X-56.87453 Y25.28402
G1 X-56.59241 Y25.30721
G1 X-56.29575 Y25.3298
G3 X-56.25285 Y25.33335 I-0.24292 J3.19077
G3 X-56.14932 Y25.34066 I-0.17359 J3.19529
G3 X-56.10838 Y25.34308 I-0.16836 J3.19557
G2 X-55.29873 Y25.39193 I5.10163 J-77.82827
G3 X-55.29278 Y25.39226 I-0.17609 J3.19515
G2 X-54.73252 Y25.41783 I1.40919 J-24.7314
G3 X-54.70485 Y25.4189 I-0.10966 J3.19812
G2 X-53.84142 Y25.44462 I1.40988 J-32.82086
G1 X-53.74616 Y25.44608
G0 Z3.0
G0 X-48.99531 Y42.12841
G0 Z1.0
G1 F300.0 Z-2.5
G2 F800.0 X-48.65585 Y42.3062 I12.8646 J-24.14842
G1 X-48.31654 Y42.47974
G1 X-48.00688 Y42.63454
G1 X-47.67763 Y42.79535
G2 X-47.07184 Y43.08015 I16.28151 J-33.84478
G3 X-47.3712 Y41.99507 I60.73661 J-17.34025
G3 X-47.5012 Y42.00674 I-1.06279 J-11.10748
G3 X-47.89245 Y42.04116 I-2.44846 J-25.59182
G1 X-48.04674 Y42.05437
G3 X-48.06478 Y42.0559 I-0.8873 J-10.36208
G3 X-48.99531 Y42.12841 I-6.59033 J-78.57201
G1 F300.0 X-50.12372 Y44.24658
G2 F800.0 X-49.75153 Y44.4415 I13.99302 J-26.26659
G1 X-49.39955 Y44.62152
G1 X-49.0701 Y44.78621
G1 X-48.72458 Y44.95496
G2 X-47.74131 Y45.41188 I17.32847 J-36.00439
G2 X-46.44864 Y45.95544 I12.95078 J-28.98968
G1 X-46.29285 Y46.01598
G1 X-46.00012 Y46.12665
G1 X-45.80831 Y46.19685
G1 X-45.49303 Y46.30803
G1 X-45.19085 Y46.40957
G1 X-44.87783 Y46.50931
G1 X-44.63913 Y46.5816
G2 X-43.98758 Y46.75996 I5.09273 J-17.3245
G3 X-43.97713 Y46.76262 I-1.96757 J7.75427
G2 X-43.28329 Y46.9208 I3.42498 J-13.42215
G3 X-44.66595 Y42.76113 I54.18713 J-20.32134
G3 X-45.5486 Y39.37706 I58.33073 J-17.02123
G3 X-45.55005 Y39.37725 I-1.00429 J-7.93671
G3 X-46.17281 Y39.45414 I-13.87307 J-109.79809
G3 X-46.22838 Y39.46065 I-0.95782 J-7.94245
G1 X-46.614 Y39.50441
G3 X-46.66101 Y39.50961 I-0.90225 J-7.94896
G1 X-46.88155 Y39.53332
G3 X-46.94151 Y39.53954 I-0.85523 J-7.95415
G1 X-47.44957 Y39.5903
G3 X-47.7153 Y39.61626 I-0.98442 J-8.70271
G3 X-48.0907 Y39.64935 I-2.23436 J-23.20134
G1 X-48.2515 Y39.66312
G3 X-48.26538 Y39.6643 I-0.68254 J-7.97083
G3 X-51.75924 Y39.87693 I-6.38973 J-76.18041
G3 X-55.39187 Y39.94855 I-3.71691 J-96.36945
G3 X-55.41289 Y39.94854 I-0.00699 J-8.0
G3 X-56.14157 Y39.94458 I0.17393 J-99.17228
G2 X-56.0242 Y40.05959 I14.68989 J-14.87381
G3 X-56.01586 Y40.06772 I-5.57664 J5.73595
G2 X-55.5256 Y40.53127 I15.32923 J-15.72127
G1 X-55.24254 Y40.78589
G1 X-54.97731 Y41.01678
G1 X-54.71132 Y41.24093
G1 X-54.49264 Y41.42011
G2 X-54.24166 Y41.61956 I8.8663 J-10.89949
G1 X-54.06566 Y41.75573
G1 X-53.9097 Y41.87425
G1 X-53.7856 Y41.96698
G1 X-53.53284 Y42.15189
G1 X-53.35068 Y42.28204
G2 X-52.80181 Y42.65888 I17.89889 J-25.48178
G1 X-52.64766 Y42.76093
G2 X-52.14725 Y43.08167 I15.28727 J-23.30021
G3 X-52.1157 Y43.10152 I-4.2449 J6.78092
G3 X-52.0548 Y43.13938 I-4.1934 J6.81289
G3 X-51.96936 Y43.19251 I-4.18152 J6.82018
G2 X-51.88331 Y43.24529 I2.16879 J-3.43952
G3 X-51.85239 Y43.26382 I-4.09765 J6.8709
G1 X-51.59579 Y43.41842
G3 X-51.58468 Y43.42513 I-4.12856 J6.85237
G3 X-51.58261 Y43.42634 I-4.04451 J6.90232
G1 X-51.23241 Y43.63169
G3 X-51.18024 Y43.66178 I-3.97117 J6.94477
G3 X-51.13583 Y43.68727 I-3.96008 J6.9511
G2 X-50.39658 Y44.09955 I13.66208 J-23.62807
G3 X-50.35959 Y44.11956 I-3.7878 J7.04646
G2 X-50.12372 Y44.24658 I14.22889 J-26.13957
G1 F300.0 X-51.25214 Y46.36476
G2 F800.0 X-50.8471 Y46.57685 I15.12144 J-28.38477
G1 X-50.48255 Y46.7633
G1 X-50.13333 Y46.93788
G1 X-49.77173 Y47.11449
G2 X-48.72166 Y47.60252 I18.37561 J-38.16392
G2 X-47.32377 Y48.19021 I13.93112 J-31.18032
G1 X-47.15184 Y48.25702
G1 X-46.83694 Y48.37607
G1 X-46.61986 Y48.45552
G1 X-46.27439 Y48.57735
G1 X-45.93746 Y48.69056
G1 X-45.58999 Y48.80129
G1 X-45.32566 Y48.88133
G2 X-44.57784 Y49.08624 I5.77925 J-19.62423
G3 X-44.57053 Y49.0881 I-1.3773 J5.42799
G2 X-43.26561 Y49.36459 I4.01839 J-15.74763
G3 X-43.25825 Y49.36584 I-0.93497 J5.5214
G2 X-41.96072 Y49.53125 I2.60384 J-15.25325
G3 X-41.95743 Y49.53153 I-0.47275 J5.58001
G2 X-40.69345 Y49.58403 I1.23367 J-14.45997
G3 X-40.69078 I0.01169 J5.59999
G2 X-39.59406 Y49.54055 I-0.02326 J-14.44072
G3 X-41.01363 Y46.1379 I45.56108 J-21.00529
G3 X-42.36174 Y42.08987 I51.91747 J-19.53844
G3 X-43.38183 Y38.06776 I56.02651 J-16.34996
G3 X-43.38784 Y38.0396 I5.47365 J-1.18286
G1 X-43.51245 Y37.44829
G3 X-43.52507 Y37.38666 I5.47966 J-1.1547
G1 X-43.64301 Y36.79404
G3 X-43.65077 Y36.75433 I5.49229 J-1.09307
G1 X-43.66795 Y36.6646
G3 X-45.19518 Y36.90711 I-7.66446 J-43.3378
G3 X-45.20283 Y36.90818 I-0.78092 J-5.54528
G1 X-45.4911 Y36.94837
G3 X-45.52673 Y36.95322 I-0.77327 J-5.54636
G1 X-45.81525 Y36.99156
G3 X-45.8509 Y36.99618 I-0.73763 J-5.55121
G3 X-46.46016 Y37.0714 I-13.57222 J-107.41703
G3 X-46.49906 Y37.07596 I-0.67047 J-5.55972
G1 X-46.88467 Y37.11973
G3 X-46.91758 Y37.12336 I-0.63157 J-5.56427
G1 X-47.13812 Y37.14708
G3 X-47.1801 Y37.15143 I-0.59866 J-5.56791
G1 X-47.705 Y37.20387
G3 X-47.92794 Y37.22563 I-0.72899 J-6.31628
G3 X-48.28861 Y37.25752 I-2.02172 J-20.8107
G1 X-48.45626 Y37.27187
G3 X-48.46598 Y37.2727 I-0.47778 J-5.57958
G3 X-51.85094 Y37.47869 I-6.18913 J-73.78881
G3 X-55.39396 Y37.54855 I-3.62521 J-93.9712
G3 X-55.40868 Y37.54854 I-0.00489 J-5.6
G3 X-57.56045 Y37.52084 I0.16972 J-96.77228
G3 X-57.59704 Y37.51985 I0.13434 J-5.59839
G1 X-58.27256 Y37.49922
G3 X-58.31364 Y37.49781 I0.17093 J-5.59739
G1 X-58.69953 Y37.48319
G3 X-58.73251 Y37.48185 I0.21201 J-5.59599
G1 X-59.17341 Y37.46254
G3 X-59.20136 Y37.46124 I0.24499 J-5.59464
G3 X-60.6876 Y37.37577 I4.17723 J-85.60312
G3 X-60.70832 Y37.37436 I0.37005 J-5.58776
G1 X-60.90664 Y37.36049
G3 X-60.93984 Y37.35807 I0.39078 J-5.58635
G1 X-61.34193 Y37.32754
G2 X-61.31166 Y37.37456 I26.38105 J-16.95111
G1 X-61.07508 Y37.73151
G1 X-61.02995 Y37.79814
G1 X-60.94347 Y37.92447
G1 X-60.86572 Y38.0366
G1 X-60.61713 Y38.38694
G1 X-60.43624 Y38.63454
G1 X-60.29201 Y38.82777
G2 X-59.87783 Y39.3626 I19.70561 J-14.83241
G3 X-59.86847 Y39.37438 I-4.38016 J3.48916
G2 X-58.81616 Y40.61617 I19.32274 J-15.30753
G3 X-58.80599 Y40.62743 I-4.15046 J3.75948
G2 X-58.54013 Y40.91733 I16.48987 J-14.8554
G3 X-58.52993 Y40.92829 I-4.09354 J3.82137
G2 X-57.6972 Y41.78037 I17.07825 J-15.85752
G3 X-57.69135 Y41.78606 I-3.90365 J4.01516
G2 X-57.13889 Y42.30819 I17.00473 J-17.43962
G1 X-56.83308 Y42.58327
G1 X-56.53862 Y42.8396
G1 X-56.24522 Y43.08686
G1 X-56.01055 Y43.27913
G2 X-55.71174 Y43.51662 I10.38421 J-12.75851
G1 X-55.52606 Y43.66029
G1 X-55.35408 Y43.79098
G1 X-55.21245 Y43.89681
G1 X-54.93901 Y44.09684
G1 X-54.73823 Y44.2403
G2 X-54.13273 Y44.65605 I19.28644 J-27.44005
G1 X-53.96846 Y44.7648
G2 X-53.42072 Y45.11594 I16.60807 J-25.30408
G3 X-53.38623 Y45.13771 I-2.97143 J4.74664
G3 X-53.32022 Y45.17874 I-2.92286 J4.7767
G3 X-53.24945 Y45.22263 I-2.9161 J4.78083
G2 X-53.1126 Y45.30656 I3.44887 J-5.46964
G3 X-53.09096 Y45.31953 I-2.86836 J4.80963
G1 X-52.83436 Y45.47413
G3 X-52.81238 Y45.48745 I-2.89 J4.79666
G3 X-52.79658 Y45.49667 I-2.81681 J4.84
G1 X-52.4384 Y45.7067
G3 X-52.43424 Y45.70914 I-2.8326 J4.83077
G3 X-52.37778 Y45.7417 I-2.76933 J4.86732
G3 X-52.33718 Y45.76495 I-2.76254 J4.87118
G2 X-51.53292 Y46.21349 I14.86343 J-25.70576
G3 X-51.50703 Y46.2275 I-2.65146 J4.93252
G2 X-51.25214 Y46.36476 I15.37632 J-28.24751
G1 F300.0 X-52.38056 Y48.48294
G2 F800.0 X-51.94257 Y48.71226 I16.24986 J-30.50295
G1 X-51.56556 Y48.90508
G1 X-51.19655 Y49.08955
G1 X-50.81904 Y49.27393
G2 X-49.70201 Y49.79316 I19.42293 J-40.32336
G2 X-48.1987 Y50.42506 I14.91148 J-33.37096
G1 X-48.01084 Y50.49805
G1 X-47.67376 Y50.62549
G1 X-47.43141 Y50.71419
G1 X-47.05574 Y50.84666
G1 X-46.68407 Y50.97155
G1 X-46.30214 Y51.09326
G1 X-46.0127 Y51.18091
G2 X-45.16811 Y51.41252 I6.46629 J-21.92381
G3 X-45.16394 Y51.41358 I-0.78703 J3.10171
G2 X-43.66631 Y51.7309 I4.61179 J-18.07311
G3 X-43.6621 Y51.73162 I-0.53427 J3.15508
G2 X-42.16332 Y51.92269 I3.0077 J-17.61903
G3 X-42.16145 Y51.92285 I-0.27015 J3.18858
G2 X-40.68844 Y51.98403 I1.43769 J-16.85128
G3 X-40.68691 Y51.98402 I0.00668 J3.19999
G2 X-39.26728 Y51.92179 I-0.02713 J-16.84071
G1 X-39.08041 Y51.90445
G2 X-38.52384 Y51.83949 I-1.33081 J-13.81749
G1 X-38.2167 Y51.79461
G1 X-37.91035 Y51.74368
G1 X-37.57494 Y51.67983
G2 X-36.74971 Y51.48357 I-2.19649 J-11.06924
G3 X-36.73233 Y51.47879 I0.85684 J3.08315
G2 X-36.04658 Y51.26412 I-2.48414 J-9.13784
G3 X-37.10782 Y49.18802 I38.26566 J-20.86954
G3 X-38.76681 Y45.29421 I43.07484 J-20.65276
G3 X-40.05752 Y41.41861 I49.67066 J-18.69475
G3 X-41.03598 Y37.56082 I53.7223 J-15.6787
G3 X-41.03942 Y37.54473 I3.1278 J-0.67592
G1 X-41.16402 Y36.95342
G3 X-41.17124 Y36.9182 I3.13123 J-0.65983
G1 X-41.28918 Y36.32558
G3 X-41.29361 Y36.30289 I3.13845 J-0.62461
G1 X-41.32609 Y36.13329
G3 X-41.32763 Y36.12519 I3.14288 J-0.60192
G3 X-41.581 Y34.69005 I60.13765 J-11.35693
G3 X-41.58307 Y34.67725 I3.15767 J-0.51878
G3 X-41.7175 Y33.80929 I84.61998 J-13.55063
G3 X-42.45068 Y33.97817 I-8.97357 J-37.2834
G3 X-42.45565 Y33.97926 I-0.68763 J-3.12525
G3 X-45.52986 Y34.53056 I-8.87676 J-40.65246
G3 X-45.53423 Y34.53117 I-0.44624 J-3.16873
G1 X-45.82249 Y34.57136
G3 X-45.84286 Y34.57413 I-0.44187 J-3.16935
G1 X-46.13138 Y34.61247
G3 X-46.15175 Y34.61511 I-0.4215 J-3.17212
G3 X-46.7475 Y34.68867 I-13.27137 J-105.03596
G3 X-46.76973 Y34.69127 I-0.38313 J-3.17698
G1 X-47.15534 Y34.73504
G3 X-47.17415 Y34.73712 I-0.3609 J-3.17958
G1 X-47.39469 Y34.76083
G3 X-47.41868 Y34.76332 I-0.34209 J-3.18166
G1 X-47.96405 Y34.8178
G3 X-48.1377 Y34.83469 I-0.46994 J-3.93021
G3 X-48.48611 Y34.86564 I-1.81196 J-18.41977
G1 X-48.66103 Y34.88062
G3 X-48.66658 Y34.88109 I-0.27302 J-3.18833
G3 X-51.94264 Y35.08044 I-5.98853 J-71.39721
G3 X-55.39606 Y35.14855 I-3.53351 J-91.57296
G3 X-55.40447 I-0.0028 J-3.2
G3 X-57.50288 Y35.12153 I0.16551 J-94.37228
G3 X-57.52378 Y35.12096 I0.07677 J-3.19908
G1 X-58.19931 Y35.10034
G3 X-58.22278 Y35.09953 I0.09767 J-3.19851
G1 X-58.60867 Y35.08491
G3 X-58.62751 Y35.08414 I0.12115 J-3.19771
G1 X-59.06842 Y35.06484
G3 X-59.08439 Y35.0641 I0.14 J-3.19694
G3 X-60.529 Y34.98102 I4.06025 J-83.20598
G3 X-60.54085 Y34.98021 I0.21146 J-3.19301
G1 X-60.73916 Y34.96634
G3 X-60.75814 Y34.96496 I0.2233 J-3.1922
G1 X-61.28677 Y34.92482
G3 X-61.30893 Y34.92306 I0.24228 J-3.19082
G1 X-61.61083 Y34.89803
G3 X-61.62853 Y34.89651 I0.26443 J-3.18906
G1 X-61.97332 Y34.86599
G3 X-61.97933 Y34.86545 I0.28213 J-3.18754
G3 X-62.95445 Y34.76813 I4.73953 J-52.42274
G3 X-65.49588 Y34.43216 I5.60947 J-52.21253
G2 X-65.23624 Y35.10636 I14.3411 J-5.13581
G1 X-65.15285 Y35.30536
G3 X-65.15229 Y35.30668 I-2.95136 J1.23671
G2 X-65.03463 Y35.57615 I8.84466 J-3.70152
G3 X-65.02798 Y35.59087 I-2.91265 J1.32532
G2 X-64.92339 Y35.8204 I20.52748 J-9.21569
G1 X-64.87939 Y35.91462
G2 X-64.5925 Y36.49949 I15.74519 J-7.36043
G3 X-64.58798 Y36.50832 I-2.84607 J1.46283
G2 X-63.78512 Y37.94742 I19.72872 J-10.06297
G2 X-63.32023 Y38.68828 I28.82424 J-17.57099
G1 X-63.06893 Y39.06744
G1 X-63.01371 Y39.14896
G1 X-62.91985 Y39.28607
G1 X-62.8306 Y39.41479
G1 X-62.56484 Y39.78933
G1 X-62.36689 Y40.06029
G1 X-62.21247 Y40.26716
G2 X-61.75504 Y40.85795 I21.62607 J-16.2718
G3 X-61.74969 Y40.86468 I-2.50295 J1.99381
G2 X-60.59493 Y42.22738 I21.20396 J-16.79783
G3 X-60.58912 Y42.23381 I-2.37169 J2.14827
G2 X-60.29451 Y42.55506 I18.273 J-16.46179
G3 X-60.28868 Y42.56133 I-2.33917 J2.18364
G2 X-59.37019 Y43.50116 I18.837 J-17.49055
G3 X-59.36685 Y43.50441 I-2.23066 J2.29438
G2 X-58.75178 Y44.08546 I18.68022 J-19.15797
G1 X-58.42361 Y44.38064
G1 X-58.09993 Y44.66243
G1 X-57.77911 Y44.93278
G1 X-57.52869 Y45.13796
G2 X-57.18173 Y45.41376 I11.90235 J-14.61735
G1 X-56.98645 Y45.56485
G1 X-56.79846 Y45.70771
G1 X-56.63931 Y45.82663
G1 X-56.34519 Y46.04179
G1 X-56.12605 Y46.19837
G2 X-55.46344 Y46.65336 I20.67426 J-29.39812
G1 X-55.28942 Y46.76857
G2 X-54.69419 Y47.15022 I17.92903 J-27.30785
G3 X-54.65682 Y47.17397 I-1.69796 J2.71237
G3 X-54.58567 Y47.21815 I-1.65228 J2.74043
G3 X-54.52954 Y47.25274 I-1.65065 J2.74142
G2 X-54.3419 Y47.36783 I4.72896 J-7.49976
G3 X-54.32953 Y47.37524 I-1.63906 J2.74836
G1 X-54.07293 Y47.52984
G3 X-54.04014 Y47.54987 I-1.65143 J2.74095
G3 X-54.01056 Y47.567 I-1.58905 J2.77758
G1 X-53.65237 Y47.77703
G3 X-53.63563 Y47.78692 I-1.61863 J2.76044
G3 X-53.57535 Y47.82167 I-1.56795 J2.78954
G3 X-53.53852 Y47.84264 I-1.56497 J2.79121
G2 X-52.66926 Y48.32743 I16.06478 J-27.78344
G3 X-52.65447 Y48.33543 I-1.51512 J2.81858
G2 X-52.38056 Y48.48294 I16.52376 J-30.35544
G0 Z3.0
G0 X-8.31335 Y45.94094
G0 Z1.0
G1 F300.0 Z-2.5
G2 F800.0 X-7.7859 Y46.38883 I10.39293 J-11.70469
G2 X-5.98596 Y47.62448 I8.63768 J-10.65353
G2 X-3.88879 Y48.61255 I7.19785 J-12.55768
G2 X-2.61426 Y49.03497 I6.18992 J-16.54223
G2 X-1.99057 Y49.20201 I4.67952 J-16.2248
G1 X-1.88085 Y49.22887
G1 X-1.77433 Y49.25446
G3 X-1.68995 Y49.27494 I-4.1103 J17.11331
G2 X-1.66834 Y49.27992 I0.18732 J-0.76332
G3 X-1.57821 Y49.29961 I-3.71091 J17.20433
G1 X-1.48941 Y49.31925
G1 X-1.38247 Y49.34241
G1 X-1.28073 Y49.36389
G1 X-1.1858 Y49.38343
G2 X1.82188 Y49.77357 I4.32267 J-21.53581
G3 X1.86729 Y49.77635 I-1.05365 J17.56843
G2 X3.57287 Y49.82216 I1.49517 J-23.89655
G3 X3.58595 Y49.82205 I0.15467 J17.59932
G2 X5.40342 Y49.74885 I-0.22718 J-28.23906
G2 X8.47001 Y49.35325 I-2.06298 J-28.07547
G3 X6.93328 Y49.25957 I3.25341 J-66.02112
G3 X6.84125 Y49.25264 I1.27541 J-17.55373
G1 X6.35037 Y49.21439
G3 X6.23099 Y49.20468 I1.36744 J-17.5468
G3 X4.46329 Y49.03055 I5.51478 J-65.04692
G3 X4.38855 Y49.022 I1.96341 J-17.49014
G1 X4.20442 Y49.00054
G3 X4.11682 Y48.9901 I2.03815 J-17.48159
G1 X3.90652 Y48.96451
G3 X3.80484 Y48.95184 I2.12575 J-17.47115
G1 X3.56465 Y48.9212
G3 X3.56154 Y48.9208 I2.22743 J-17.45848
G3 X1.34821 Y48.58734 I6.31601 J-49.43457
G3 X1.27012 Y48.57359 I3.01219 J-17.34032
G1 X0.79505 Y48.48886
G3 X0.66889 Y48.46589 I3.09027 J-17.32658
G3 X-2.22145 Y47.84302 I9.49177 J-51.06339
G3 X-3.48734 Y47.51456 I11.73068 J-47.81336
G3 X-3.8365 Y47.41797 I4.69701 J-17.65886
G3 X-5.20826 Y47.01198 I12.60135 J-45.09823
G3 X-7.88296 Y46.10183 I16.09352 J-51.67979
G3 X-8.25351 Y45.96351 I6.19526 J-17.1628
G3 X-8.31335 Y45.94094 I18.51361 J-49.16578
G1 F300.0 X-9.90686 Y47.73558
G2 F800.0 X-9.29797 Y48.2526 I11.98644 J-13.49933
G2 X-7.18096 Y49.70582 I10.14975 J-12.5173
G2 X-4.7322 Y50.85947 I8.39285 J-14.63902
G2 X-3.28077 Y51.34057 I7.03334 J-18.78916
G2 X-2.56407 Y51.53248 I5.34603 J-18.5304
G1 X-2.44647 Y51.56127
G1 X-2.33482 Y51.58809
G3 X-2.26195 Y51.60578 I-3.5498 J14.77968
G2 X-2.17438 Y51.62597 I0.75932 J-3.09416
G3 X-2.09654 Y51.64297 I-3.20488 J14.85829
G1 X-2.00257 Y51.66376
G1 X-1.8843 Y51.68937
G1 X-1.7705 Y51.71339
G1 X-1.66404 Y51.7353
G2 X1.6782 Y52.16927 I4.80091 J-23.88769
G3 X1.71742 Y52.17167 I-0.90997 J15.17274
G2 X3.59396 Y52.22207 I1.64504 J-26.29187
G3 X3.60526 Y52.22197 I0.13358 J15.19941
G2 X5.57824 Y52.14247 I-0.24649 J-30.63899
G2 X9.55713 Y51.58535 I-2.2378 J-30.4691
G3 X9.5658 Y51.58355 I3.09296 J14.88199
G2 X11.45989 Y51.12307 I-5.79096 J-27.9453
G3 X11.46893 Y51.12054 I4.09309 J14.63853
G2 X13.29601 Y50.5408 I-7.31178 J-26.21224
G3 X13.3172 Y50.53326 I5.10458 J14.31724
G3 X13.37027 Y50.51418 I5.16842 J14.29431
G3 X13.40451 Y50.50177 I5.199 J14.28322
G2 X14.96893 Y49.87406 I-8.2117 J-22.72935
G1 X15.20847 Y49.76631
G2 X16.48431 Y49.13207 I-9.34258 J-20.39368
G1 X16.48436 Y49.13204
G1 X16.48427 Y49.13209
G1 X16.48431 Y49.13207
G2 X17.75332 Y48.38032 I-8.37745 J-15.58886
G3 X17.77892 Y48.36372 I8.28524 J12.74342
G2 X18.88875 Y47.57167 I-8.17017 J-12.6218
G3 X18.90806 Y47.55655 I9.38162 J11.95931
G2 X19.79816 Y46.79495 I-8.16942 J-10.44873
G1 X19.95982 Y46.64129
G2 X20.0279 Y46.575 I-8.5478 J-8.84483
G3 X19.91332 Y46.5887 I-2.20689 J-17.97367
G3 X19.64859 Y46.6193 I-2.25631 J-18.35734
G3 X17.27317 Y46.84552 I-6.9093 J-59.96702
G3 X17.24641 Y46.84751 I-1.14166 J-15.15706
G1 X16.98208 Y46.86695
G3 X16.91922 Y46.87144 I-1.1149 J-15.15906
G3 X14.24599 Y47.0063 I-4.91034 J-70.77529
G3 X14.17368 Y47.00841 I-0.4793 J-15.19244
G1 X13.73796 Y47.02008
G3 X13.6585 Y47.022 I-0.40699 J-15.19455
G1 X13.51316 Y47.02513
G3 X13.41474 Y47.02693 I-0.32753 J-15.19647
G1 X12.83357 Y47.03569
G3 X12.70317 Y47.0371 I-0.22911 J-15.19827
G1 X12.31574 Y47.03962
G3 X12.1945 Y47.03992 I-0.09871 J-15.19968
G1 X11.67788 Y47.03915
G3 X11.66034 Y47.03912 I0.02252 J-15.19998
G3 X10.11523 Y47.01418 I0.15088 J-57.23711
G1 X10.11294 Y47.01412
G1 X9.73476 Y47.00285
G3 X9.61037 Y46.99863 I0.45268 J-15.19326
G1 X9.10633 Y46.97948
G3 X9.04406 Y46.97699 I0.57706 J-15.18904
G3 X7.1072 Y46.86588 I2.67936 J-63.64486
G3 X7.02772 Y46.8599 I1.10149 J-15.16004
G1 X6.53684 Y46.82164
G3 X6.43374 Y46.81325 I1.18097 J-15.15405
G3 X4.73103 Y46.64554 I5.31204 J-62.65549
G3 X4.66648 Y46.63815 I1.69567 J-15.10512
G1 X4.48235 Y46.61668
G3 X4.4067 Y46.60767 I1.76022 J-15.09774
G1 X4.19639 Y46.58208
G3 X4.10858 Y46.57114 I1.83587 J-15.08872
G1 X3.86839 Y46.54049
G3 X3.86571 Y46.54015 I1.92369 J-15.07778
G3 X1.75896 Y46.22275 I6.01185 J-47.05392
G3 X1.69152 Y46.21088 I2.60143 J-14.97573
G1 X1.21645 Y46.12615
G3 X1.10749 Y46.1063 I2.66887 J-14.96386
G3 X-1.64943 Y45.51219 I9.05317 J-48.70381
G3 X-2.86227 Y45.19737 I11.15867 J-45.48252
G3 X-3.18198 Y45.10893 I4.07195 J-15.34167
G3 X-4.49338 Y44.72093 I11.94684 J-42.78918
G3 X-7.05964 Y43.84745 I15.37864 J-49.38873
G3 X-7.39861 Y43.72092 I5.37193 J-14.90842
G3 X-9.43354 Y42.90387 I17.6587 J-46.92318
G3 X-9.49231 Y42.87862 I5.97063 J-13.97825
G1 X-9.99263 Y42.66242
G3 X-10.09091 Y42.61954 I6.0294 J-13.95301
G3 X-12.5203 Y41.48115 I23.24665 J-52.77107
G3 X-12.56214 Y41.46027 I6.76804 J-13.61005
G1 X-12.8145 Y41.3338
G3 X-12.85407 Y41.3139 I6.80988 J-13.58917
G3 X-15.52379 Y39.87965 I26.75744 J-53.00841
G2 X-14.80718 Y41.29837 I29.12245 J-13.81982
G1 X-14.70605 Y41.48508
G1 X-14.48073 Y41.89146
G2 X-13.08119 Y44.119 I24.25289 J-13.68444
G3 X-13.07748 Y44.12432 I-12.47418 J8.68533
G2 X-11.24769 Y46.41371 I18.10414 J-12.5938
G3 X-11.24528 Y46.41634 I-11.21674 J10.25791
G2 X-9.90686 Y47.73558 I13.32486 J-12.1801
G1 F300.0 X-11.50037 Y49.53022
G2 F800.0 X-10.81004 Y50.11637 I13.57995 J-15.29397
G2 X-8.37596 Y51.78716 I11.66182 J-14.38107
G2 X-5.57559 Y53.1064 I9.58785 J-16.72036
G2 X-3.94727 Y53.64616 I7.87672 J-21.03609
G2 X-3.13741 Y53.86299 I6.01254 J-20.83599
G1 X-3.01209 Y53.89368
G1 X-2.89532 Y53.92172
G3 X-2.83395 Y53.93662 I-2.98931 J12.44605
G2 X-2.68041 Y53.97201 I1.33133 J-5.425
G3 X-2.61486 Y53.98633 I-2.69885 J12.51224
G1 X-2.51574 Y54.00826
G1 X-2.38614 Y54.03633
G1 X-2.26026 Y54.06289
G1 X-2.14256 Y54.08712
G2 X1.53452 Y54.56496 I5.27943 J-26.2395
G3 X1.56755 Y54.56699 I-0.76629 J12.77704
G2 X3.61505 Y54.62197 I1.79491 J-28.68719
G3 X3.62456 Y54.62189 I0.11249 J12.79951
G2 X5.75306 Y54.53609 I-0.26579 J-33.03891
G2 X10.04549 Y53.93514 I-2.41262 J-32.86272
G3 X10.05279 Y53.93362 I2.6046 J12.5322
G2 X12.10617 Y53.43441 I-6.27796 J-30.29538
G3 X12.11378 Y53.43229 I3.44682 J12.32718
G2 X14.10199 Y52.80142 I-7.95663 J-28.52398
G3 X14.12656 Y52.79268 I4.29859 J12.05662
G3 X14.18457 Y52.77183 I4.35906 J12.03489
G3 X14.22 Y52.75897 I4.3847 J12.02557
G2 X15.94679 Y52.06583 I-9.02719 J-24.98655
G1 X16.20035 Y51.95178
G2 X17.6204 Y51.24614 I-10.33445 J-22.57915
G1 X17.62043 Y51.24612
G1 X17.62036 Y51.24616
G1 X17.6204 Y51.24614
G2 X19.06152 Y50.39244 I-9.51354 J-17.70293
G3 X19.08308 Y50.37846 I6.97704 J10.7313
G2 X20.37006 Y49.45999 I-9.47432 J-14.63654
G3 X20.38632 Y49.44725 I7.90031 J10.071
G2 X21.44485 Y48.54094 I-9.64768 J-12.33943
G1 X21.62016 Y48.37432
G2 X22.43464 Y47.52267 I-10.20813 J-10.57786
G2 X23.95851 Y45.44143 I-10.70045 J-9.43328
G2 X25.04645 Y43.2677 I-13.92476 J-8.32843
G3 X24.96469 Y43.28643 I-10.28662 J-44.70799
G3 X24.94965 Y43.28986 I-2.84728 J-12.4793
G3 X22.22089 Y43.83148 I-11.3277 J-49.92547
G3 X22.18852 Y43.83695 I-2.14997 J-12.61815
G3 X20.85751 Y44.04413 I-9.45153 J-56.34312
G3 X20.78802 Y44.05391 I-1.81939 J-12.67004
G1 X20.44292 Y44.10154
G3 X20.31992 Y44.1179 I-1.7499 J-12.67982
G1 X19.91424 Y44.16989
G3 X19.62828 Y44.20567 I-2.09324 J-15.56856
G3 X19.38222 Y44.23411 I-1.97127 J-15.97431
G3 X17.09291 Y44.4523 I-6.64293 J-57.58184
G3 X17.07037 Y44.45397 I-0.9614 J-12.76384
G1 X16.80605 Y44.47342
G3 X16.75311 Y44.4772 I-0.93887 J-12.76552
G3 X14.17031 Y44.60749 I-4.74423 J-68.38105
G3 X14.10942 Y44.60927 I-0.40362 J-12.79363
G1 X13.6737 Y44.62094
G3 X13.60678 Y44.62255 I-0.34273 J-12.79541
G1 X13.46144 Y44.62569
G3 X13.37857 Y44.6272 I-0.27581 J-12.79703
G1 X12.7974 Y44.63597
G3 X12.68759 Y44.63715 I-0.19294 J-12.79855
G1 X12.30015 Y44.63967
G3 X12.19806 Y44.63992 I-0.08313 J-12.79973
G1 X11.68144 Y44.63916
G3 X11.66666 Y44.63913 I0.01897 J-12.79999
G3 X10.18634 Y44.61524 I0.14456 J-54.83712
G1 X10.18441 Y44.61518
G1 X9.80623 Y44.60391
G3 X9.70149 Y44.60036 I0.3812 J-12.79432
G1 X9.19744 Y44.58121
G3 X9.145 Y44.57911 I0.48595 J-12.79077
G3 X7.28112 Y44.47219 I2.57841 J-61.24698
G3 X7.21419 Y44.46715 I0.92757 J-12.76635
G1 X6.72331 Y44.4289
G3 X6.63649 Y44.42183 I0.9945 J-12.76131
G3 X4.99876 Y44.26052 I5.10929 J-60.26407
G3 X4.94441 Y44.2543 I1.42793 J-12.7201
G1 X4.76028 Y44.23283
G3 X4.69657 Y44.22524 I1.48229 J-12.71388
G1 X4.48627 Y44.19965
G3 X4.41232 Y44.19044 I1.546 J-12.70629
G1 X4.17213 Y44.15979
G3 X4.16987 Y44.1595 I1.61995 J-12.69708
G3 X2.16971 Y43.85816 I5.70768 J-44.67327
G3 X2.11292 Y43.84816 I2.19068 J-12.61114
G1 X1.63785 Y43.76343
G3 X1.5461 Y43.74672 I2.24747 J-12.60115
G3 X-1.07742 Y43.18135 I8.61457 J-46.34423
G3 X-2.23767 Y42.88005 I10.58665 J-43.15168
G3 X-2.52701 Y42.80001 I3.44734 J-13.02435
G3 X-3.77849 Y42.42987 I11.29186 J-40.48026
G3 X-6.23681 Y41.59288 I14.66375 J-47.09767
G3 X-6.54319 Y41.47851 I4.54911 J-12.65385
G3 X-8.49081 Y40.69678 I16.80328 J-44.68078
G3 X-8.5403 Y40.67552 I5.0279 J-11.77116
G1 X-9.04062 Y40.45931
G3 X-9.12338 Y40.42321 I5.07739 J-11.7499
G3 X-11.45166 Y39.3322 I22.27913 J-50.57473
G3 X-11.48689 Y39.31461 I5.69941 J-11.4611
G1 X-11.73925 Y39.18814
G3 X-11.77257 Y39.17138 I5.73464 J-11.44351
G3 X-14.38672 Y37.76521 I25.67594 J-50.86589
G3 X-16.94651 Y36.2157 I28.18111 J-49.44429
G3 X-16.97449 Y36.19769 I6.91396 J-10.77205
G1 X-17.29204 Y35.99271
G3 X-17.37848 Y35.93641 I6.94194 J-10.75405
G1 X-17.69441 Y35.72885
G3 X-17.72416 Y35.70924 I7.02838 J-10.69775
G3 X-18.54812 Y35.15354 I29.48349 J-44.60516
G3 X-18.56132 Y35.14445 I7.25538 J-10.54512
G3 X-19.01143 Y34.83212 I57.13235 J-82.81512
G3 X-19.40092 Y34.55701 I14.81081 J-21.38202
G3 X-20.2163 Y33.96532 I35.66304 J-50.00383
G1 X-20.25145 Y33.9905
G2 X-19.94225 Y35.04674 I51.60131 J-14.53209
G1 X-19.75673 Y35.64167
G3 X-19.74708 Y35.67276 I-12.21962 J3.81062
G2 X-19.73932 Y35.69696 I1.16659 J-0.36054
G3 X-19.70578 Y35.79944 I-12.14795 J4.03327
G2 X-18.54017 Y38.99009 I42.41535 J-13.68684
G2 X-17.76158 Y40.76116 I35.57726 J-14.58373
G3 X-17.75769 Y40.76944 I-11.58438 J5.44446
G2 X-16.91976 Y42.43724 I31.35635 J-14.70961
G1 X-16.81074 Y42.63851
G1 X-16.57544 Y43.06289
G2 X-15.0508 Y45.49037 I26.34761 J-14.85587
G3 X-15.04768 Y45.49485 I-10.50457 J7.31396
G2 X-13.01875 Y48.03338 I20.07434 J-13.96433
G3 X-13.01673 Y48.0356 I-9.44567 J8.63824
G2 X-11.50037 Y49.53022 I15.09631 J-13.79935
G1 F300.0 X-13.09388 Y51.32485
G2 F800.0 X-12.32211 Y51.98014 I15.17346 J-17.08861
G2 X-9.57095 Y53.8685 I13.1739 J-16.24484
G2 X-6.41896 Y55.35334 I10.78285 J-18.80171
G2 X-4.61378 Y55.95176 I8.7201 J-23.28302
G2 X-3.7106 Y56.19354 I6.67905 J-23.14159
G1 X-3.57772 Y56.22608
G1 X-3.45581 Y56.25536
G3 X-3.40595 Y56.26746 I-2.42881 J10.11241
G2 X-3.18645 Y56.31806 I1.90333 J-7.75584
G3 X-3.13319 Y56.32969 I-2.19281 J10.1662
G1 X-3.0289 Y56.35276
G1 X-2.88797 Y56.38328
G1 X-2.75003 Y56.4124
G1 X-2.6213 Y56.43889
G2 X1.39084 Y56.96066 I5.75817 J-28.59128
G3 X1.41767 Y56.9623 I-0.62261 J10.38135
G2 X3.63614 Y57.02188 I1.94478 J-31.0825
G3 X3.64387 Y57.02181 I0.09139 J10.3996
G2 X5.92788 Y56.92972 I-0.2851 J-35.43883
G2 X10.53385 Y56.28493 I-2.58745 J-35.25635
G3 X10.53979 Y56.28369 I2.11624 J10.18241
G2 X12.75245 Y55.74576 I-6.76495 J-32.64545
G3 X12.75863 Y55.74403 I2.80054 J10.01584
G2 X14.90798 Y55.06203 I-8.60148 J-30.83573
G3 X14.93592 Y55.05211 I3.49261 J9.796
G3 X14.99887 Y55.02949 I3.5497 J9.77546
G3 X15.03549 Y55.01618 I3.5704 J9.76792
G2 X16.92494 Y54.25747 I-9.84268 J-27.24376
G1 X17.19187 Y54.1374
G2 X18.75648 Y53.36022 I-11.32598 J-24.76477
G1 X18.75651 Y53.3602
G1 X18.75645 Y53.36023
G1 X18.75648 Y53.36022
G2 X20.36972 Y52.40456 I-10.64962 J-19.81701
G3 X20.38723 Y52.3932 I5.66885 J8.71918
G2 X21.85137 Y51.3483 I-10.77847 J-16.65129
G3 X21.86458 Y51.33795 I6.419 J8.18269
G2 X23.09204 Y50.28646 I-11.12594 J-14.23013
G1 X23.27995 Y50.10787
G2 X24.23458 Y49.11019 I-11.86792 J-12.31141
G2 X26.01671 Y46.67585 I-12.50039 J-11.0208
G2 X27.35538 Y43.95876 I-15.98297 J-9.56285
G3 X27.35861 Y43.95058 I9.67204 J3.82253
G2 X27.87408 Y42.50223 I-20.24819 J-8.02219
G1 X27.94003 Y42.29049
G2 X28.13208 Y41.63073 I-33.8135 J-10.20056
G1 X28.2282 Y41.27165
G1 X28.32203 Y40.90042
G2 X28.56982 Y39.78386 I-28.69551 J-6.9539
G1 X28.34287 Y39.85981
G3 X28.27705 Y39.88159 I-3.30056 J-9.86237
G3 X27.02249 Y40.27063 I-13.1073 J-40.05096
G3 X24.43083 Y40.94656 I-12.26266 J-41.71092
G3 X24.4186 Y40.94934 I-2.31342 J-10.13943
G3 X21.81777 Y41.46558 I-10.79666 J-47.58496
G3 X21.79147 Y41.47002 I-1.74685 J-10.25224
G3 X20.51637 Y41.66849 I-9.05448 J-53.97619
G3 X20.45991 Y41.67644 I-1.47826 J-10.2944
G1 X20.11481 Y41.72407
G3 X20.01487 Y41.73737 I-1.4218 J-10.30235
G1 X19.6015 Y41.79034
G3 X19.34326 Y41.82263 I-1.7805 J-13.18901
G3 X19.11633 Y41.84887 I-1.68625 J-13.59128
G3 X16.91264 Y42.05908 I-6.37704 J-55.19659
G3 X16.89434 Y42.06044 I-0.78114 J-10.37062
G1 X16.63001 Y42.07988
G3 X16.58699 Y42.08295 I-0.76283 J-10.37199
G3 X14.09463 Y42.20868 I-4.57812 J-65.9868
G3 X14.04516 Y42.21013 I-0.32794 J-10.39483
G1 X13.60944 Y42.2218
G3 X13.55507 Y42.22311 I-0.27847 J-10.39627
G1 X13.40973 Y42.22624
G3 X13.34239 Y42.22748 I-0.2241 J-10.39759
G1 X12.76122 Y42.23624
G3 X12.672 Y42.2372 I-0.15676 J-10.39882
G1 X12.28457 Y42.23972
G3 X12.20162 Y42.23992 I-0.06754 J-10.39978
G1 X11.68499 Y42.23916
G3 X11.67299 Y42.23913 I0.01541 J-10.39999
G3 X10.25745 Y42.21629 I0.13823 J-52.43713
G1 X10.25589 Y42.21625
G1 X9.87771 Y42.20498
G3 X9.7926 Y42.20209 I0.30973 J-10.39539
G1 X9.28856 Y42.18294
G3 X9.24595 Y42.18124 I0.39483 J-10.3925
G3 X7.45504 Y42.0785 I2.47746 J-58.84911
G3 X7.40066 Y42.07441 I0.75365 J-10.37266
G1 X6.90978 Y42.03615
G3 X6.83924 Y42.03041 I0.80803 J-10.36856
G3 X5.2665 Y41.8755 I4.90654 J-57.87265
G3 X5.22234 Y41.87044 I1.1602 J-10.33508
G1 X5.03821 Y41.84898
G3 X4.98645 Y41.84281 I1.20436 J-10.33003
G1 X4.77614 Y41.81722
G3 X4.71606 Y41.80973 I1.25612 J-10.32386
G1 X4.47587 Y41.77909
G3 X4.47404 Y41.77885 I1.31621 J-10.31638
G3 X2.58046 Y41.49357 I5.40352 J-42.29262
G3 X2.53432 Y41.48545 I1.77993 J-10.24655
G1 X2.05925 Y41.40072
G3 X1.9847 Y41.38714 I1.82607 J-10.23843
G3 X-0.50541 Y40.85051 I8.17596 J-43.98465
G3 X-1.6137 Y40.56255 I10.01464 J-40.82085
G3 X-1.87139 Y40.49126 I2.82338 J-10.70685
G3 X-3.0636 Y40.13882 I10.63624 J-38.17152
G3 X-5.41468 Y39.33806 I13.94886 J-44.80662
G3 X-5.68706 Y39.23637 I3.72698 J-10.39903
G3 X-7.54808 Y38.48968 I15.94715 J-42.43864
G3 X-7.58829 Y38.47241 I4.08517 J-9.56407
G1 X-8.08861 Y38.25621
G3 X-8.15586 Y38.22687 I4.12538 J-9.54679
G3 X-10.38302 Y37.18324 I21.3116 J-48.3784
G3 X-10.41165 Y37.16895 I4.63077 J-9.31214
G1 X-10.66401 Y37.04249
G3 X-10.69108 Y37.02887 I4.65939 J-9.29785
G3 X-13.19671 Y35.68102 I24.59445 J-48.72338
G3 X-15.65015 Y34.19594 I26.9911 J-47.36009
G3 X-15.67287 Y34.18131 I5.61759 J-8.75229
G1 X-15.99042 Y33.97632
G3 X-16.06066 Y33.93059 I5.64032 J-8.73766
G1 X-16.37659 Y33.72302
G3 X-16.40076 Y33.70709 I5.71056 J-8.69192
G3 X-17.18774 Y33.17633 I28.16009 J-42.60301
G3 X-17.19846 Y33.16895 I5.89499 J-8.56791
G3 X-17.64139 Y32.86158 I55.76949 J-80.83962
G3 X-18.00279 Y32.6063 I13.44077 J-19.41148
G3 X-19.50818 Y31.49647 I34.26491 J-48.05312
G3 X-19.55903 Y31.45747 I6.30329 J-8.27215
G1 X-19.91981 Y31.17902
G3 X-20.19341 Y30.96604 I7.76811 J-10.26084
G3 X-20.24979 Y31.00849 I-20.10428 J-26.64182
G3 X-20.25358 Y31.01134 I-6.24691 J-8.31481
G1 X-20.73283 Y31.37106
G3 X-20.80784 Y31.42683 I-6.24313 J-8.31765
G1 X-21.08355 Y31.62993
G3 X-21.1469 Y31.67623 I-6.16812 J-8.37343
G1 X-21.52175 Y31.94801
G3 X-21.57002 Y31.98281 I-6.10477 J-8.41972
G1 X-21.69551 Y32.0727
G3 X-21.75546 Y32.11533 I-6.0565 J-8.45451
G1 X-22.25981 Y32.47125
G3 X-22.32139 Y32.51438 I-5.99654 J-8.49714
G1 X-22.46624 Y32.61504
G3 X-22.48524 Y32.62821 I-5.93496 J-8.54027
G3 X-23.00154 Y32.98184 I-39.03098 J-56.432
G2 X-22.23599 Y35.75302 I54.3514 J-13.52343
G1 X-22.04791 Y36.35617
G3 X-22.04007 Y36.38142 I-9.92844 J3.09613
G2 X-22.01706 Y36.4532 I3.45958 J-1.06921
G3 X-21.98981 Y36.53646 I-9.87021 J3.27703
G2 X-20.76114 Y39.89966 I44.69938 J-14.42387
G2 X-19.93365 Y41.78199 I37.79822 J-15.4933
G3 X-19.93049 Y41.78872 I-9.41231 J4.42363
G2 X-19.03226 Y43.57626 I33.52915 J-15.7289
G1 X-18.91544 Y43.79193
G1 X-18.67032 Y44.23403
G2 X-17.0204 Y46.86173 I28.44249 J-16.02701
G3 X-17.01787 Y46.86538 I-8.53496 J5.94259
G2 X-14.78982 Y49.65305 I22.04453 J-15.33485
G3 X-14.78817 Y49.65485 I-7.67461 J7.01857
G2 X-13.09388 Y51.32485 I16.86775 J-15.41861
G1 F300.0 X-14.68739 Y53.11949
G2 F800.0 X-13.83419 Y53.84391 I16.76697 J-18.88324
G2 X-10.76594 Y55.94985 I14.68597 J-18.10861
G2 X-7.26232 Y57.60028 I11.97784 J-20.88305
G2 X-5.2803 Y58.25735 I9.56346 J-25.52997
G2 X-4.28368 Y58.52412 I7.34556 J-25.44718
G1 X-4.14334 Y58.55848
G1 X-4.01631 Y58.58899
G3 X-3.97795 Y58.5983 I-1.86832 J7.77878
G2 X-3.69248 Y58.6641 I2.47533 J-10.08668
G3 X-3.65151 Y58.67305 I-1.68678 J7.82015
G1 X-3.54207 Y58.69726
G1 X-3.3898 Y58.73024
G1 X-3.23979 Y58.7619
G1 X-3.10026 Y58.79062
G2 X1.24716 Y59.35635 I6.23713 J-30.943
G3 X1.2678 Y59.35762 I-0.47893 J7.98565
G2 X3.65723 Y59.42179 I2.09465 J-33.47782
G3 X3.66318 Y59.42174 I0.0703 J7.99969
G2 X6.10271 Y59.32334 I-0.30441 J-37.83875
G2 X11.02221 Y58.63471 I-2.76227 J-37.64997
G3 X11.02678 Y58.63377 I1.62788 J7.83263
G2 X13.39872 Y58.05711 I-7.25195 J-34.99552
G3 X13.40348 Y58.05578 I2.15426 J7.70449
G2 X15.71396 Y57.32265 I-9.24633 J-33.14748
G3 X15.74529 Y57.31155 I2.68662 J7.53539
G3 X15.81317 Y57.28715 I2.74033 J7.51602
G3 X15.85097 Y57.27338 I2.75609 J7.51026
G2 X17.90336 Y56.44899 I-10.65816 J-29.50096
G1 X18.18309 Y56.32316
G2 X19.89257 Y55.47429 I-12.3172 J-26.95053
G1 X19.89259 Y55.47428
G1 X19.89255 Y55.4743
G1 X19.89257 Y55.47429
G2 X21.67791 Y54.41668 I-11.78571 J-21.93108
G3 X21.69138 Y54.40794 I4.36065 J6.70706
G2 X23.33268 Y53.23661 I-12.08263 J-18.66603
G3 X23.34284 Y53.22865 I4.9377 J6.29438
G2 X24.73964 Y52.0316 I-12.6042 J-16.12084
G1 X24.9393 Y51.84182
G2 X26.03452 Y50.69771 I-13.52728 J-14.04536
G2 X28.07493 Y47.91026 I-14.30033 J-12.60832
G2 X29.58738 Y44.84088 I-18.04118 J-10.79726
G3 X29.58987 Y44.83459 I7.44003 J2.94041
G2 X30.16387 Y43.22119 I-22.47945 J-8.90621
G1 X30.23459 Y42.99414
G2 X30.4468 Y42.26498 I-36.10805 J-10.90421
G1 X30.55092 Y41.87603
G1 X30.65169 Y41.47734
G2 X31.29378 Y38.00351 I-31.02517 J-7.53082
G3 X31.29513 Y37.99302 I7.93515 J1.0166
G2 X31.49158 Y36.08578 I-36.43236 J-4.71641
G3 X31.01835 Y36.28961 I-18.66964 J-42.69345
G3 X30.8001 Y36.38158 I-3.46174 J-7.91028
G3 X28.70086 Y37.19908 I-17.6546 J-42.23064
G3 X28.63225 Y37.22352 I-2.71873 J-7.52386
G1 X28.16349 Y37.3881
G3 X28.05226 Y37.42623 I-2.65012 J-7.5483
G1 X27.5812 Y37.58388
G3 X27.53057 Y37.60063 I-2.53889 J-7.58644
G3 X26.34651 Y37.96779 I-12.36082 J-37.77
G3 X23.89696 Y38.60669 I-11.58668 J-39.40808
G3 X23.88756 Y38.60883 I-1.77955 J-7.79956
G3 X21.41465 Y39.09967 I-10.26562 J-45.24445
G3 X21.39442 Y39.10309 I-1.34373 J-7.88634
G3 X20.17523 Y39.29286 I-8.65743 J-51.60926
G3 X20.1318 Y39.29898 I-1.13712 J-7.91877
G1 X19.78671 Y39.3466
G3 X19.70983 Y39.35683 I-1.09369 J-7.92489
G1 X19.28804 Y39.41088
G3 X19.05826 Y39.43959 I-1.46704 J-10.80956
G3 X18.8511 Y39.46355 I-1.40126 J-11.20823
G3 X16.73238 Y39.66586 I-6.11181 J-52.81127
G3 X16.7183 Y39.6669 I-0.60087 J-7.9774
G1 X16.45397 Y39.68634
G3 X16.42088 Y39.68871 I-0.58679 J-7.97845
G3 X14.01895 Y39.80988 I-4.41201 J-63.59256
G3 X13.9809 Y39.81099 I-0.25226 J-7.99602
G1 X13.54518 Y39.82266
G3 X13.50335 Y39.82367 I-0.21421 J-7.99713
G1 X13.35801 Y39.8268
G3 X13.30622 Y39.82775 I-0.17238 J-7.99814
G1 X12.72505 Y39.83651
G3 X12.65641 Y39.83725 I-0.12059 J-7.99909
G1 X12.26898 Y39.83977
G3 X12.20517 Y39.83993 I-0.05195 J-7.99983
G1 X11.68855 Y39.83916
G3 X11.67932 Y39.83914 I0.01186 J-7.99999
G3 X10.32857 Y39.81735 I0.1319 J-50.03713
G1 X10.32736 Y39.81731
G1 X9.94918 Y39.80604
G3 X9.88372 Y39.80382 I0.23825 J-7.99645
G1 X9.37967 Y39.78467
G3 X9.3469 Y39.78336 I0.30372 J-7.99423
G3 X7.62896 Y39.68481 I2.37652 J-56.45123
G3 X7.58713 Y39.68166 I0.57973 J-7.97897
G1 X7.09625 Y39.64341
G3 X7.04199 Y39.63899 I0.62156 J-7.97582
G3 X5.53424 Y39.49048 I4.70379 J-55.48123
G3 X5.50027 Y39.48659 I0.89246 J-7.95006
G1 X5.31614 Y39.46512
G3 X5.27632 Y39.46038 I0.92643 J-7.94618
G1 X5.06602 Y39.43479
G3 X5.0198 Y39.42903 I0.96625 J-7.94143
G1 X4.77961 Y39.39839
G3 X4.7782 Y39.39821 I1.01247 J-7.93567
G3 X2.99122 Y39.12898 I5.09935 J-39.91197
G3 X2.95572 Y39.12273 I1.36918 J-7.88196
G1 X2.48065 Y39.038
G3 X2.42331 Y39.02756 I1.40467 J-7.87572
G3 X0.06661 Y38.51968 I7.73736 J-41.62507
G3 X-0.99069 Y38.24479 I9.44263 J-38.49001
G3 X-1.21483 Y38.18278 I2.20036 J-8.38909
G3 X-2.3487 Y37.84776 I9.97968 J-35.86303
G3 X-4.59356 Y37.08285 I13.23396 J-42.51557
G3 X-4.82989 Y36.99462 I2.90586 J-8.14382
G3 X-6.60535 Y36.28259 I15.08998 J-40.19688
G3 X-6.63628 Y36.2693 I3.14244 J-7.35698
G1 X-7.1366 Y36.0531
G3 X-7.18833 Y36.03053 I3.17337 J-7.34369
G3 X-9.31438 Y35.03428 I20.34407 J-46.18206
G3 X-9.3364 Y35.02329 I3.56213 J-7.16319
G1 X-9.58876 Y34.89683
G3 X-9.60959 Y34.88635 I3.58415 J-7.15219
G3 X-12.00669 Y33.59682 I23.51296 J-46.58086
G3 X-14.35378 Y32.17618 I25.80109 J-45.2759
G3 X-14.37126 Y32.16492 I4.32123 J-6.73253
G1 X-14.68881 Y31.95994
G3 X-14.74283 Y31.92476 I4.33871 J-6.72128
G1 X-15.05877 Y31.71719
G3 X-15.07737 Y31.70494 I4.39273 J-6.6861
G3 X-15.82735 Y31.19913 I26.83669 J-40.60085
G3 X-15.8356 Y31.19344 I4.53461 J-6.5907
G3 X-16.2715 Y30.89094 I54.40664 J-78.86411
G3 X-16.60452 Y30.65569 I12.07088 J-17.44085
G3 X-18.05357 Y29.58751 I32.86664 J-46.10251
G3 X-18.09269 Y29.55751 I4.84869 J-6.36319
G1 X-18.46275 Y29.27191
G3 X-18.7316 Y29.06183 I6.31104 J-8.35372
G3 X-20.16641 Y27.89198 I35.58909 J-45.11463
G1 X-20.172 Y27.89655
G3 X-20.19762 Y27.91739 I-5.06034 J-6.1962
G1 X-20.34498 Y28.03672
G3 X-20.38282 Y28.06718 I-5.03472 J-6.21704
G1 X-20.67893 Y28.30401
G3 X-20.72035 Y28.33692 I-4.99688 J-6.24749
G1 X-20.91883 Y28.49353
G3 X-20.95683 Y28.52332 I-4.95547 J-6.28039
G1 X-21.21707 Y28.72613
G3 X-21.69139 Y29.08969 I-19.08061 J-24.40191
G3 X-21.6943 Y29.09188 I-4.80532 J-6.39601
G1 X-22.17355 Y29.4516
G3 X-22.23125 Y29.4945 I-4.80241 J-6.39819
G1 X-22.50697 Y29.6976
G3 X-22.55569 Y29.73322 I-4.74471 J-6.4411
G1 X-22.93054 Y30.005
G3 X-22.96768 Y30.03176 I-4.69598 J-6.47671
G1 X-23.09316 Y30.12166
G3 X-23.13928 Y30.15445 I-4.65885 J-6.50347
G1 X-23.64363 Y30.51038
G3 X-23.691 Y30.54355 I-4.61273 J-6.53627
G1 X-23.83584 Y30.64421
G3 X-23.85046 Y30.65434 I-4.56535 J-6.56944
G3 X-25.13293 Y31.51938 I-37.66576 J-54.45813
G3 X-25.22747 Y31.5818 I-4.83685 J-7.22351
G3 X-25.34975 Y31.66083 I-4.78512 J-7.26985
G1 X-25.71851 Y31.89868
G2 X-24.52968 Y36.45948 I57.06837 J-12.44027
G1 X-24.33909 Y37.07066
G3 X-24.33306 Y37.09008 I-7.63726 J2.38164
G2 X-24.2948 Y37.20944 I5.75257 J-1.77787
G3 X-24.27384 Y37.27348 I-7.59247 J2.5208
G2 X-22.98211 Y40.80922 I46.98341 J-15.16089
G2 X-22.10572 Y42.80283 I40.01919 J-16.40286
G3 X-22.10329 Y42.80801 I-7.24024 J3.40279
G2 X-21.14469 Y44.7154 I35.70195 J-16.74818
G1 X-21.02014 Y44.94536
G1 X-20.76535 Y45.4049
G2 X-18.99001 Y48.2331 I30.53751 J-17.19787
G3 X-18.98806 Y48.2359 I-6.56536 J4.57122
G2 X-16.56088 Y51.27273 I24.01472 J-16.70538
G3 X-16.55962 Y51.27411 I-5.90355 J5.3989
G2 X-14.68739 Y53.11949 I18.63919 J-17.03786
G1 F300.0 X-16.2809 Y54.91413
G2 F800.0 X-15.34627 Y55.70767 I18.36048 J-20.67788
G2 X-11.96093 Y58.03119 I16.19805 J-19.97237
G2 X-8.10568 Y59.84723 I13.17283 J-22.96439
G2 X-5.94681 Y60.56294 I10.40681 J-27.77691
G2 X-4.85666 Y60.85472 I8.01207 J-27.75278
G1 X-4.70896 Y60.89088
G1 X-4.5768 Y60.92262
G3 X-4.54995 Y60.92914 I-1.30782 J5.44514
G2 X-4.19851 Y61.01015 I3.04733 J-12.41752
G3 X-4.16984 Y61.01641 I-1.18075 J5.47411
G1 X-4.05524 Y61.04176
G1 X-3.89163 Y61.0772
G1 X-3.72956 Y61.1114
G1 X-3.5794 Y61.14231
G2 X1.10349 Y61.75205 I6.71627 J-33.2947
G3 X1.11793 Y61.75293 I-0.33525 J5.58996
G2 X3.67832 Y61.82169 I2.24452 J-35.87313
G3 X3.68248 Y61.82166 I0.04921 J5.59978
G2 X6.27753 Y61.71697 I-0.32371 J-40.23868
G2 X11.51058 Y60.9845 I-2.93709 J-40.04359
G3 X11.51377 Y60.98384 I1.13951 J5.48284
G2 X14.045 Y60.36845 I-7.73894 J-37.34559
G3 X14.04833 Y60.36752 I1.50798 J5.39314
G2 X16.51995 Y59.58326 I-9.89118 J-35.45922
G3 X16.55466 Y59.57102 I1.88063 J5.27477
G3 X16.62748 Y59.54484 I1.93096 J5.25656
G3 X16.66646 Y59.53059 I1.94178 J5.25257
G2 X18.882 Y58.6404 I-11.47365 J-31.75817
G1 X19.17405 Y58.50903
G2 X21.02865 Y57.58836 I-13.30815 J-29.1364
G1 X21.02867 Y57.58835
G1 X21.02864 Y57.58837
G1 X21.02865 Y57.58836
G2 X22.98611 Y56.4288 I-12.9218 J-24.04515
G3 X22.99554 Y56.42268 I3.05246 J4.69495
G2 X24.81398 Y55.12492 I-13.38678 J-20.68077
G3 X24.8211 Y55.11935 I3.45639 J4.40606
G2 X26.38756 Y53.77642 I-14.08246 J-18.01154
G1 X26.5983 Y53.57612
G2 X27.83446 Y52.28522 I-15.18628 J-15.77966
G2 X30.13315 Y49.14465 I-16.10027 J-14.19584
G2 X31.81939 Y45.723 I-20.0994 J-12.03165
G3 X31.82114 Y45.7186 I5.20802 J2.05829
G2 X32.45373 Y43.93989 I-24.71071 J-9.79022
G1 X32.52905 Y43.69811
G2 X32.76164 Y42.89881 I-38.40251 J-11.60817
G1 X32.87363 Y42.48041
G1 X32.98124 Y42.05467
G2 X33.67432 Y38.30849 I-33.35472 J-8.10816
G3 X33.67527 Y38.30115 I5.5546 J0.71162
G2 X33.97843 Y34.54965 I-38.8125 J-5.02453
G3 X33.97864 Y34.5435 I5.59704 J0.18216
G2 X33.99028 Y32.20794 I-40.74432 J-1.37091
G1 X33.83727 Y32.28867
G3 X33.72081 Y32.3505 I-2.93065 J-5.3789
G3 X33.59103 Y32.41709 I-2.86516 J-5.42495
G1 X33.19405 Y32.62149
G3 X33.14589 Y32.64599 I-2.56351 J-4.9788
G1 X32.69532 Y32.87251
G3 X32.65271 Y32.89371 I-2.51535 J-5.0033
G1 X32.35106 Y33.04216
G3 X32.30904 Y33.06262 I-2.47273 J-5.0245
G1 X31.90513 Y33.25723
G3 X31.89051 Y33.26425 I-2.43071 J-5.04496
G3 X30.06776 Y34.08584 I-19.06857 J-39.87191
G3 X29.88727 Y34.1619 I-2.51115 J-5.70651
G3 X27.88524 Y34.94192 I-16.74178 J-40.01096
G3 X27.83722 Y34.95903 I-1.90311 J-5.2667
G1 X27.36845 Y35.12361
G3 X27.29059 Y35.1503 I-1.85509 J-5.28381
G1 X26.81953 Y35.30795
G3 X26.78409 Y35.31968 I-1.77723 J-5.31051
G3 X25.67053 Y35.66496 I-11.61434 J-35.48904
G3 X23.3631 Y36.26682 I-10.9107 J-37.10525
G3 X23.35651 Y36.26832 I-1.24569 J-5.45969
G3 X21.01153 Y36.73377 I-9.73457 J-42.90394
G3 X20.99737 Y36.73617 I-0.94061 J-5.52044
G3 X19.8341 Y36.91723 I-8.26038 J-49.24233
G3 X19.8037 Y36.92151 I-0.79598 J-5.54314
G1 X19.4586 Y36.96914
G3 X19.40479 Y36.9763 I-0.76558 J-5.54742
G1 X18.97358 Y37.03155
G3 X18.77331 Y37.05652 I-1.15258 J-8.43023
G3 X18.58682 Y37.07811 I-1.11631 J-8.82516
G3 X16.55212 Y37.27264 I-5.84753 J-50.42583
G3 X16.54226 Y37.27337 I-0.42061 J-5.58418
G1 X16.27793 Y37.29281
G3 X16.25477 Y37.29446 I-0.41075 J-5.58492
G3 X13.94327 Y37.41107 I-4.2459 J-61.19831
G3 X13.91664 Y37.41185 I-0.17658 J-5.59722
G1 X13.48092 Y37.42352
G3 X13.45164 Y37.42423 I-0.14995 J-5.59799
G1 X13.3063 Y37.42736
G3 X13.27004 Y37.42802 I-0.12067 J-5.5987
G1 X12.68887 Y37.43678
G3 X12.64083 Y37.4373 I-0.08441 J-5.59936
G1 X12.2534 Y37.43982
G3 X12.20873 Y37.43993 I-0.03637 J-5.59988
G1 X11.69211 Y37.43916
G3 X11.68564 Y37.43915 I0.0083 J-5.59999
G3 X10.39968 Y37.4184 I0.12558 J-47.63714
G1 X10.39884 Y37.41837
G1 X10.02066 Y37.40711
G3 X9.97483 Y37.40555 I0.16678 J-5.59752
G1 X9.47079 Y37.3864
G3 X9.44785 Y37.38548 I0.2126 J-5.59596
G3 X7.80288 Y37.29112 I2.27557 J-54.05336
G3 X7.7736 Y37.28892 I0.40581 J-5.58528
G1 X7.28272 Y37.25066
G3 X7.24473 Y37.24757 I0.4351 J-5.58307
G3 X5.80198 Y37.10546 I4.50104 J-53.08981
G3 X5.7782 Y37.10274 I0.62472 J-5.56504
G1 X5.59407 Y37.08127
G3 X5.56619 Y37.07795 I0.6485 J-5.56232
G1 X5.35589 Y37.05236
G3 X5.32354 Y37.04833 I0.67637 J-5.559
G1 X5.08335 Y37.01769
G3 X5.08236 Y37.01756 I0.70873 J-5.55497
G3 X3.40197 Y36.76439 I4.79519 J-37.53133
G3 X3.37712 Y36.76002 I0.95842 J-5.51737
G1 X2.90205 Y36.67529
G3 X2.86191 Y36.66798 I0.98327 J-5.513
G3 X0.63862 Y36.18884 I7.29875 J-39.26549
G3 X-0.36917 Y35.92661 I8.87062 J-36.15917
G3 X-0.55676 Y35.87471 I1.57884 J-6.07091
G3 X-1.63379 Y35.55671 I9.32161 J-33.55496
G3 X-3.77404 Y34.82705 I12.51905 J-40.22452
G3 X-3.97108 Y34.75348 I2.08633 J-5.88802
G3 X-5.66262 Y34.0755 I14.23117 J-37.95574
G3 X-5.68427 Y34.0662 I2.19971 J-5.14988
G1 X-6.18459 Y33.85
G3 X-6.2208 Y33.8342 I2.22136 J-5.14058
G3 X-8.24574 Y32.88533 I19.37654 J-43.98572
G3 X-8.26116 Y32.87763 I2.49349 J-5.01423
G1 X-8.51352 Y32.75117
G3 X-8.52809 Y32.74384 I2.5089 J-5.00654
G3 X-10.81668 Y31.51262 I22.43146 J-44.43835
G3 X-13.05741 Y30.15642 I24.61108 J-43.1917
G3 X-13.06965 Y30.14854 I3.02486 J-4.71277
G1 X-13.3872 Y29.94356
G3 X-13.42501 Y29.91893 I3.0371 J-4.7049
G1 X-13.74095 Y29.71136
G3 X-13.75397 Y29.70278 I3.07491 J-4.68027
G3 X-14.46697 Y29.22192 I25.51329 J-38.5987
G3 X-14.47274 Y29.21794 I3.17423 J-4.61349
G3 X-14.90178 Y28.92018 I53.04378 J-76.88861
G3 X-15.20606 Y28.70521 I10.70116 J-15.47008
G3 X-16.59897 Y27.67855 I31.46818 J-44.15204
G3 X-16.62635 Y27.65755 I3.39408 J-4.45424
G1 X-17.00682 Y27.36391
G3 X-17.23356 Y27.1867 I4.85512 J-6.44572
G3 X-19.00588 Y25.72845 I34.09106 J-43.23949
G3 X-19.03142 Y25.7064 I3.64741 J-4.24928
G1 X-19.44371 Y25.34817
G3 X-19.48926 Y25.30815 I3.67295 J-4.22723
G1 X-19.89014 Y24.95214
G3 X-20.14367 Y24.72461 I13.20935 J-14.97313
G3 X-21.53606 Y25.91187 I-31.04872 J-35.00296
G3 X-21.54325 Y25.91776 I-3.54944 J-4.33145
G1 X-21.69011 Y26.03769
G3 X-21.70804 Y26.05228 I-3.54224 J-4.33734
G1 X-21.8554 Y26.17161
G3 X-21.88188 Y26.19293 I-3.52431 J-4.35193
G1 X-22.178 Y26.42977
G3 X-22.20699 Y26.4528 I-3.49782 J-4.37324
G1 X-22.40547 Y26.60941
G3 X-22.43207 Y26.63026 I-3.46883 J-4.39628
G1 X-22.6939 Y26.83431
G3 X-23.13298 Y27.17089 I-17.60379 J-22.51009
G3 X-23.13502 Y27.17242 I-3.36372 J-4.47721
G1 X-23.61428 Y27.53214
G3 X-23.65466 Y27.56217 I-3.36168 J-4.47874
G1 X-23.93038 Y27.76527
G3 X-23.96449 Y27.7902 I-3.3213 J-4.50877
G1 X-24.33934 Y28.06199
G3 X-24.36533 Y28.08072 I-3.28719 J-4.5337
G1 X-24.49081 Y28.17061
G3 X-24.5231 Y28.19357 I-3.26119 J-4.55243
G1 X-25.02745 Y28.5495
G3 X-25.06061 Y28.57272 I-3.22891 J-4.57539
G1 X-25.20545 Y28.67337
G3 X-25.21568 Y28.68047 I-3.19575 J-4.59861
G3 X-26.46058 Y29.52002 I-36.30054 J-52.48425
G3 X-26.54185 Y29.5737 I-3.5092 J-5.22414
G3 X-26.6425 Y29.63873 I-3.47074 J-5.26176
G1 X-27.14562 Y29.96323
G3 X-27.20041 Y29.99813 I-3.03536 J-4.70602
G1 X-27.69869 Y30.31139
G3 X-27.84272 Y30.40183 I-3.69664 J-5.72731
G3 X-27.9953 Y30.4949 I-3.65939 J-5.82774
G1 X-28.3636 Y30.71952
