( Made using CamBam - http://www.cambam.co.uk )
( Bollenhut_Buehl 3/20/2021 10:20:46 AM )
( T2 : 2.0 )
G21 G90 G64 G40
G0 Z3.0
( T2 : 2.0 )
T2 M6
( Umriss-2mm )
G17
M3 S1000
G0 X-70.24141 Y29.93637
G0 Z1.0
G1 F300.0 Z-2.0
G3 F800.0 X-69.07503 Y29.39322 I0.90638 J0.42246
G2 X-67.64153 Y29.74851 I9.5623 J-35.51226
G1 X-67.27281 Y29.83049
G3 X-67.27145 Y29.83079 I-0.21704 J0.97616
G2 X-66.7394 Y29.94263 I4.57103 J-20.42431
G3 X-66.7115 Y29.94853 I-0.19298 J0.9812
G2 X-66.68718 Y29.95345 I0.11808 J-0.5214
G3 X-66.66033 Y29.95861 I-0.17536 J0.9845
G2 X-66.19238 Y30.04996 I4.45034 J-21.55362
G3 X-66.18879 Y30.05063 I-0.18095 J0.98349
G2 X-65.27185 Y30.21387 I9.12155 J-48.58047
G2 X-62.50306 Y30.59246 I7.92688 J-47.65826
G3 X-62.5012 Y30.59266 I-0.10676 J0.99428
G2 X-61.60209 Y30.68243 I5.2614 J-48.14995
G1 X-61.261 Y30.71262
G1 X-60.96532 Y30.73714
G1 X-60.44311 Y30.77679
G1 X-60.24962 Y30.79032
G2 X-58.88217 Y30.86897 I5.22548 J-78.9322
G1 X-58.44671 Y30.88804
G1 X-58.06744 Y30.9024
G1 X-57.39886 Y30.92282
G2 X-55.39842 Y30.94855 I2.15991 J-90.14656
G2 X-52.10348 Y30.88352 I-0.07773 J-87.44107
G3 X-52.10275 Y30.88349 I0.03857 J0.99926
G2 X-49.01849 Y30.69586 I-2.55236 J-67.3996
G1 X-48.83398 Y30.68006
G3 X-48.82711 Y30.6795 I0.08532 J0.99635
G2 X-48.50239 Y30.65022 I-1.12254 J-14.26457
G3 X-48.45661 Y30.64662 I0.10115 J0.99487
G3 X-48.42461 Y30.64291 I0.13141 J0.99133
G1 X-47.83994 Y30.5845
G1 X-47.62609 Y30.5615
G1 X-47.24689 Y30.51846
G2 X-46.68142 Y30.44864 I-12.17623 J-100.93931
G1 X-46.39926 Y30.41115
G1 X-46.11487 Y30.3715
G2 X-43.35241 Y29.87611 I-5.21754 J-37.0447
G2 X-40.65964 Y29.16733 I-7.33867 J-33.35022
G2 X-39.29851 Y28.71387 I-9.90338 J-31.99627
G3 X-37.96503 Y29.5804 I0.33632 J0.94175
G2 X-37.57452 Y33.11556 I51.07113 J-3.85246
G2 X-37.43623 Y34.01114 I80.61143 J-11.98893
G2 X-37.20082 Y35.34454 I56.24625 J-9.24288
G1 X-37.16926 Y35.50933
G1 X-37.05312 Y36.09289
G1 X-36.9302 Y36.67617
G2 X-36.02529 Y40.2434 I50.59498 J-10.93627
G3 X-36.025 Y40.2444 I-0.95995 J0.28019
G2 X-34.83517 Y43.817 I46.92884 J-13.64494
G3 X-34.8346 Y43.81852 I-0.93589 J0.3523
G2 X-33.31976 Y47.37402 I40.80161 J-15.28326
G3 X-33.31916 Y47.37527 I-0.90169 J0.43238
G2 X-31.41611 Y50.8881 I35.53824 J-16.9807
G1 X-31.35209 Y50.99272
G2 X-30.89277 Y51.72193 I43.8357 J-27.10235
G3 X-30.9822 Y52.92087 I-0.84165 J0.54003
G3 X-31.87312 Y53.76133 I-4.84821 J-4.24687
G3 X-32.95443 Y54.47254 I-4.9295 J-6.31709
G3 X-34.20758 Y55.05967 I-5.21199 J-9.49338
G3 X-35.62781 Y55.53096 I-5.00888 J-12.71872
G3 X-36.77129 Y55.80224 I-4.14362 J-14.92038
G3 X-36.77802 Y55.80354 I-0.19374 J-0.98105
G1 X-37.12139 Y55.86892
G3 X-37.22643 Y55.88763 I-0.29263 J-1.33862
G1 X-37.55894 Y55.94291
G3 X-37.57839 Y55.94595 I-0.16401 J-0.98646
G1 X-37.92972 Y55.99727
G3 X-37.93747 Y55.99838 I-0.14456 J-0.9895
G3 X-38.68401 Y56.08571 I-2.47375 J-17.91141
G3 X-38.68718 Y56.08601 I-0.09552 J-0.99543
G1 X-38.88925 Y56.10475
G3 X-38.89516 Y56.10528 I-0.09236 J-0.99573
G3 X-40.67991 Y56.18402 I-1.81888 J-20.96197
G3 X-42.51818 Y56.10767 I-0.04385 J-21.11246
G3 X-44.36819 Y55.87184 I1.86378 J-21.99508
G3 X-46.20174 Y55.48335 I3.81604 J-22.53137
G3 X-47.21275 Y55.20583 I6.65534 J-26.22625
G3 X-47.21924 Y55.20389 I0.28334 J-0.95902
G1 X-47.5415 Y55.1063
G3 X-47.55529 Y55.10202 I0.28982 J-0.95708
G1 X-47.98317 Y54.96567
G3 X-47.99809 Y54.96079 I0.30361 J-0.9528
G1 X-48.41607 Y54.82033
G3 X-48.4301 Y54.8155 I0.31853 J-0.94791
G1 X-48.84604 Y54.66883
G3 X-48.85718 Y54.66483 I0.33256 J-0.94308
G1 X-49.13323 Y54.56379
G3 X-49.14315 Y54.5601 I0.34371 J-0.93908
G1 X-49.50979 Y54.42149
G3 X-49.51836 Y54.41821 I0.35363 J-0.93539
G1 X-49.72718 Y54.33706
G3 X-49.73164 Y54.33532 I0.36219 J-0.9321
G3 X-51.41717 Y53.62699 I14.9411 J-37.91312
G3 X-51.41814 Y53.62656 I0.40801 J-0.91298
G3 X-52.64983 Y53.05391 I20.02202 J-44.67599
G3 X-52.65457 Y53.05161 I0.43413 J-0.90085
G1 X-53.05305 Y52.85699
G3 X-53.06133 Y52.8529 I0.43886 J-0.89855
G1 X-53.45671 Y52.65525
G3 X-53.46492 Y52.6511 I0.44714 J-0.89446
G1 X-53.8584 Y52.44986
G3 X-53.86046 Y52.4488 I0.45535 J-0.89031
G3 X-54.66018 Y52.02557 I17.72976 J-34.46881
G3 X-55.63121 Y51.48417 I17.18643 J-31.96637
G3 X-55.7028 Y51.44312 I1.23549 J-2.23768
G3 X-55.78392 Y51.39595 I1.24913 J-2.24142
G1 X-56.12445 Y51.19628
G3 X-56.25141 Y51.12072 I1.26944 J-2.27758
G1 X-56.49514 Y50.97387
G3 X-56.75402 Y50.81531 I6.69456 J-11.22089
G3 X-56.83611 Y50.76468 I1.11994 J-1.90755
G3 X-56.93629 Y50.70173 I1.15933 J-1.95611
G3 X-57.5999 Y50.27595 I19.5759 J-31.24101
G3 X-57.60295 Y50.27394 I0.54898 J-0.83584
G1 X-57.78945 Y50.15047
G3 X-57.79404 Y50.14742 I0.55202 J-0.83383
G3 X-58.55236 Y49.62666 I22.34224 J-33.34716
G3 X-58.55821 Y49.62251 I0.5755 J-0.8178
G1 X-58.80145 Y49.44871
G3 X-58.81051 Y49.44216 I0.58136 J-0.81365
G1 X-59.1322 Y49.20683
G3 X-59.14038 Y49.20079 I0.59042 J-0.8071
G1 X-59.3229 Y49.0644
G3 X-59.32934 Y49.05955 I0.5986 J-0.80105
G1 X-59.53869 Y48.90046
G3 X-59.54559 Y48.89517 I0.60503 J-0.7962
G1 X-59.75352 Y48.73429
G3 X-59.75451 Y48.73352 I0.61194 J-0.7909
G3 X-60.18474 Y48.39149 I14.12817 J-18.2129
G3 X-60.18692 Y48.38971 I0.63159 J-0.7753
G1 X-60.45808 Y48.16754
G3 X-60.46871 Y48.1587 I0.63378 J-0.77352
G1 X-60.82608 Y47.85754
G3 X-60.83827 Y47.8471 I0.64441 J-0.76468
G1 X-61.20093 Y47.53139
G3 X-61.2131 Y47.52062 I0.6566 J-0.75424
G1 X-61.57053 Y47.19911
G3 X-61.57655 Y47.19364 I0.66876 J-0.74348
G3 X-62.29845 Y46.51202 I20.88993 J-22.8472
G3 X-63.36558 Y45.42012 I20.84677 J-21.44125
G3 X-63.70868 Y45.04599 I21.04946 J-19.64809
G3 X-65.04099 Y43.47377 I23.16294 J-20.97914
G3 X-65.57247 Y42.78717 I24.4546 J-19.47841
G3 X-65.57463 Y42.78428 I0.7992 J-0.60107
G1 X-65.74245 Y42.55947
G3 X-65.74855 Y42.55119 I0.80136 J-0.59818
G1 X-65.96926 Y42.24909
G3 X-65.97734 Y42.23787 I0.80747 J-0.58991
G1 X-66.26599 Y41.83108
G3 X-66.27225 Y41.82215 I0.81555 J-0.57869
G1 X-66.37684 Y41.6713
G3 X-66.38019 Y41.66643 I0.82181 J-0.56977
G1 X-66.48389 Y41.51496
G3 X-66.48668 Y41.51086 I0.82516 J-0.56489
G1 X-66.55535 Y41.40947
G3 X-66.56093 Y41.40114 I0.82796 J-0.56079
G1 X-66.83143 Y40.99302
G3 X-66.83769 Y40.98346 I0.83354 J-0.55246
G3 X-67.37247 Y40.13167 I31.87681 J-20.60703
G3 X-67.37309 Y40.13064 I0.85389 J-0.52046
G3 X-68.32869 Y38.41807 I22.51383 J-13.68528
G3 X-68.6845 Y37.69257 I19.19449 J-9.86387
G3 X-68.68467 Y37.69221 I0.90592 J-0.42345
G1 X-68.73135 Y37.59224
G3 X-68.7328 Y37.58913 I0.90609 J-0.42309
G3 X-68.85854 Y37.31332 I24.2323 J-11.21395
G3 X-69.0266 Y36.92834 I12.5509 J-5.70816
G1 X-69.11313 Y36.72183
G3 X-69.11505 Y36.71723 I0.9223 J-0.38647
G3 X-69.71719 Y35.04766 I17.96027 J-7.42088
G3 X-69.7181 Y35.04469 I0.9552 J-0.29596
G3 X-70.12589 Y33.41723 I15.48058 J-4.74376
G3 X-70.23541 Y32.76334 I11.22941 J-2.21677
G1 X-70.24725 Y32.67812
G3 X-70.24801 Y32.67259 I0.99047 J-0.1377
G3 X-70.32642 Y31.92871 I13.46817 J-1.79574
G3 X-70.32693 Y31.92173 I0.997 J-0.07741
G1 X-70.33344 Y31.82955
G3 X-70.33363 Y31.82686 I0.99752 J-0.07044
G3 X-70.33265 Y30.2898 I11.21184 J-0.76137
G3 X-70.24141 Y29.93637 I0.99761 J0.06903
G0 Z3.0
G0 X-69.1928 Y26.95231
G0 Z1.0
G1 F300.0 Z-2.0
G3 F800.0 X-70.34632 Y26.52528 I12.26288 J-34.89674
G3 X-71.21749 Y26.17612 I11.8614 J-30.85615
G3 X-74.54368 Y24.60078 I14.02733 J-33.91652
G1 X-74.54371 Y24.60076
G3 X-77.61975 Y22.72434 I15.43022 J-28.75442
G3 X-77.62421 Y22.72125 I0.5671 J-0.82365
G1 X-77.8497 Y22.56418
G3 X-77.8572 Y22.5589 I0.57156 J-0.82056
G1 X-78.08121 Y22.3998
G3 X-78.08746 Y22.39532 I0.57907 J-0.81528
G1 X-78.23382 Y22.28967
G3 X-78.44797 Y22.13268 I6.09012 J-8.53264
G1 X-78.70752 Y21.93856
G3 X-78.71449 Y21.9333 I0.59894 J-0.8008
G1 X-78.86261 Y21.82048
G3 X-78.86804 Y21.81632 I0.60591 J-0.79553
G1 X-79.03643 Y21.68624
G3 X-79.0377 Y21.68525 I0.61134 J-0.79137
G3 X-80.39696 Y20.56117 I17.08695 J-22.04561
G3 X-81.34671 Y19.68877 I18.94632 J-21.57941
G3 X-81.35185 Y19.6838 I0.69285 J-0.72109
G1 X-81.64927 Y19.39392
G3 X-81.65456 Y19.38872 I0.69798 J-0.71612
G3 X-82.84051 Y18.14348 I20.30207 J-20.52287
G3 X-83.60396 Y17.25704 I19.59922 J-17.65181
G3 X-83.6069 Y17.25345 I0.772 J-0.63562
G1 X-83.84418 Y16.96251
G3 X-83.84443 Y16.9622 I0.77495 J-0.63203
G3 X-84.1724 Y16.54708 I13.54576 J-11.03869
G1 X-84.25279 Y16.44292
G3 X-84.25591 Y16.43885 I0.79163 J-0.611
G3 X-84.69424 Y15.85305 I29.65652 J-22.64771
G3 X-84.70004 Y15.84506 I0.8065 J-0.59123
G1 X-84.93737 Y15.51452
G3 X-84.94107 Y15.50934 I0.8123 J-0.58324
G3 X-86.70009 Y12.70752 I24.23183 J-17.16618
G3 X-86.70134 Y12.70525 I0.87523 J-0.48371
G1 X-86.8281 Y12.47448
G3 X-86.83224 Y12.46687 I0.87648 J-0.48144
G1 X-86.9565 Y12.23592
G3 X-87.21249 Y11.7451 I16.2927 J-8.80978
G1 X-87.27971 Y11.61268
G3 X-87.28045 Y11.61122 I0.89169 J-0.45264
G3 X-87.81922 Y10.49022 I27.63982 J-13.97398
G3 X-87.82105 Y10.48618 I0.90982 J-0.41499
G1 X-87.96237 Y10.17266
G3 X-87.96705 Y10.16212 I0.91166 J-0.41095
G1 X-88.12444 Y9.80195
G3 X-88.12732 Y9.79527 I0.91634 J-0.40041
G3 X-89.24222 Y6.82279 I31.82645 J-13.63252
G3 X-90.06396 Y3.83526 I32.98124 J-10.67851
G3 X-90.60685 Y0.87677 I33.16468 J-7.61479
G3 X-90.87712 Y-1.9243 I32.58692 J-4.55791
G3 X-90.8772 Y-1.92583 I0.99857 J-0.05339
G1 X-90.88177 Y-2.01367
G3 X-90.89655 Y-4.80961 I29.75884 J-1.55534
G3 X-90.70108 Y-7.14312 I27.32244 J1.11379
G3 X-90.65473 Y-7.48742 I9.86029 J1.15192
G3 X-90.1611 Y-10.01316 I23.7745 J3.33543
G3 X-90.16091 Y-10.0139 I0.96974 J0.24414
G3 X-89.91333 Y-10.91418 I21.59338 J5.45402
G3 X-89.91123 Y-10.92116 I0.95844 J0.28531
G1 X-89.82432 Y-11.2055
G3 X-89.82285 Y-11.21028 I0.95633 J0.29229
G3 X-89.41337 Y-12.39346 I18.94108 J5.89274
G3 X-89.41042 Y-12.40109 I0.93421 J0.35671
G1 X-89.26955 Y-12.76115
G3 X-89.26208 Y-12.77969 I0.93126 J0.36434
G1 X-89.11402 Y-13.13694
G3 X-89.10811 Y-13.15088 I0.9238 J0.38288
G3 X-88.77779 Y-13.88386 I24.03478 J10.39072
G3 X-88.773 Y-13.89392 I0.90528 J0.42482
G1 X-88.67691 Y-14.09287
G3 X-88.67129 Y-14.10432 I0.90049 J0.43488
G1 X-88.55859 Y-14.33029
G3 X-88.55194 Y-14.34337 I0.89487 J0.44633
G1 X-88.41935 Y-14.59973
G3 X-88.41606 Y-14.60603 I0.88822 J0.45941
G3 X-87.16761 Y-16.65198 I16.72422 J8.80132
G3 X-85.86502 Y-16.95324 I0.81888 J0.57397
G2 X-85.86288 Y-16.95214 I0.018 J-0.03257
G3 X-85.82294 Y-16.93222 I-0.42621 J0.90462
G2 X-85.62282 Y-16.83014 I3.96208 J-7.51936
G3 X-85.61342 Y-16.82543 I-0.44262 J0.89671
G1 X-84.94316 Y-16.48578
G1 X-84.50183 Y-16.26401
G1 X-84.33677 Y-16.18146
G1 X-84.04649 Y-16.0368
G1 X-83.82882 Y-15.92876
G1 X-83.66509 Y-15.84774
G3 X-83.6467 Y-15.83841 I-0.44348 J0.89628
G2 X-83.56207 Y-15.79663 I1.01117 J-1.94179
G3 X-83.54355 Y-15.78775 I-0.42322 J0.90603
G1 X-83.35915 Y-15.69695
G1 X-83.17497 Y-15.60655
G1 X-83.14278 Y-15.59077
G1 X-82.88555 Y-15.46506
G1 X-81.97926 Y-15.02662
G1 X-81.75359 Y-14.91856
G1 X-81.71138 Y-14.8984
G1 X-81.67244 Y-14.87982
G1 X-81.07318 Y-14.59552
G1 X-80.77013 Y-14.453
G3 X-80.76667 Y-14.45136 I-0.42559 J0.90491
G2 X-80.24561 Y-14.2083 I17.66308 J-37.18541
G3 X-80.24392 Y-14.20753 I-0.4164 J0.90918
G1 X-79.44425 Y-13.83949
G1 X-78.64395 Y-13.47729
G1 X-78.56058 Y-13.43991
G1 X-78.47957 Y-13.40366
G1 X-77.84046 Y-13.11995
G2 X-76.88568 Y-12.70373 I41.85824 J-94.71585
G3 X-76.88425 Y-12.70312 I-0.395 J0.91868
G2 X-75.92498 Y-12.2943 I43.43667 J-100.59227
G1 X-75.74107 Y-12.217
G1 X-75.04497 Y-11.92765
G3 X-75.04348 Y-11.92702 I-0.38385 J0.9234
G2 X-74.79219 Y-11.82382 I8.88518 J-21.27728
G3 X-74.78878 Y-11.82244 I-0.37444 J0.92725
G1 X-74.56135 Y-11.72962
G1 X-73.76182 Y-11.40768
G1 X-72.96114 Y-11.09214
G1 X-72.17606 Y-10.78947
G1 X-71.58552 Y-10.56619
G1 X-71.47743 Y-10.52574
G1 X-70.64394 Y-10.21806
G1 X-69.80867 Y-9.91729
G1 X-69.39949 Y-9.77272
G1 X-69.22171 Y-9.71048
G1 X-68.54658 Y-9.47721
G1 X-68.04048 Y-9.30557
G1 X-67.66004 Y-9.17836
G2 X-67.08936 Y-8.99043 I48.32209 J-145.78088
G1 X-66.94708 Y-8.94412
G1 X-66.51718 Y-8.80549
G1 X-66.09466 Y-8.67114
G1 X-65.72534 Y-8.55524
G1 X-65.07579 Y-8.35484
G1 X-64.58826 Y-8.20729
G1 X-64.40704 Y-8.15307
G1 X-63.76517 Y-7.9637
G1 X-63.12363 Y-7.77859
G1 X-62.26028 Y-7.53592
G1 X-61.60986 Y-7.3579
G3 X-61.60917 Y-7.35771 I-0.26399 J0.96453
G2 X-60.64205 Y-7.10053 I16.62938 J-60.5875
G3 X-60.64057 Y-7.10015 I-0.24929 J0.96843
G1 X-60.15051 Y-6.9732
G1 X-59.66277 Y-6.84906
G1 X-58.7872 Y-6.63161
G3 X-58.78333 Y-6.63064 I-0.24103 J0.97052
G2 X-58.63469 Y-6.59442 I2.24034 J-8.86935
G3 X-58.61814 Y-6.59038 I-0.22865 J0.97351
G2 X-58.48293 Y-6.55762 I1.70637 J-6.74656
G3 X-58.4636 Y-6.55293 I-0.22577 J0.97418
G2 X-58.34023 Y-6.5232 I1.39659 J-5.524
G3 X-58.3189 Y-6.51806 I-0.22346 J0.97471
G2 X-58.20616 Y-6.49103 I1.18644 J-4.69932
G3 X-58.18337 Y-6.48557 I-0.22153 J0.97515
G2 X-58.08027 Y-6.46097 I1.03096 J-4.09172
G3 X-58.0723 Y-6.45914 I-0.21989 J0.97552
G1 X-57.11864 Y-6.23597
G1 X-56.16433 Y-6.02028
G2 X-55.73333 Y-5.92532 I14.04265 J-62.70969
G3 X-55.71083 Y-5.92017 I-0.21181 J0.97731
G2 X-55.65715 Y-5.90846 I0.297 J-1.23225
G3 X-55.6155 Y-5.89939 I-0.19196 J0.9814
G2 X-55.56478 Y-5.88835 I0.27994 J-1.16522
G3 X-55.52315 Y-5.87932 I-0.19127 J0.98154
G2 X-55.47526 Y-5.86894 I0.26385 J-1.10175
G3 X-55.43369 Y-5.85994 I-0.19063 J0.98166
G2 X-55.38851 Y-5.85019 I0.24867 J-1.04166
G3 X-55.34702 Y-5.84124 I-0.19002 J0.98178
G2 X-55.30445 Y-5.83207 I0.23433 J-0.98465
G3 X-55.28485 Y-5.82808 I-0.18945 J0.98189
G2 X-52.67319 Y-5.29241 I33.55351 J-156.95596
G3 X-52.67238 Y-5.29225 I-0.19278 J0.98124
G2 X-50.95403 Y-4.96644 I22.76591 J-115.37405
G1 X-50.08897 Y-4.80982
G1 X-49.22452 Y-4.65797
G2 X-47.55046 Y-4.37644 I39.86112 J-231.91174
G1 X-47.13142 Y-4.30843
G1 X-46.50197 Y-4.20801
G1 X-45.87204 Y-4.10957
G2 X-42.68147 Y-3.63973 I37.9919 J-246.92772
G1 X-41.94373 Y-3.53734
G1 X-41.39049 Y-3.46196
G1 X-41.18447 Y-3.43419
G1 X-39.73026 Y-3.24259
G1 X-38.41473 Y-3.07561
G3 X-38.40848 Y-3.07479 I-0.12592 J0.99204
G2 X-38.09674 Y-3.03607 I2.30899 J-17.3164
G3 X-38.0899 Y-3.03526 I-0.11433 J0.99344
G1 X-37.1022 Y-2.91469
G1 X-36.54162 Y-2.84765
G1 X-36.33204 Y-2.82285
G1 X-35.59571 Y-2.73684
G1 X-34.85997 Y-2.65273
G1 X-33.94107 Y-2.5505
G1 X-33.4823 Y-2.50079
G1 X-33.25317 Y-2.47635
G1 X-33.024 Y-2.45219
G1 X-32.72194 Y-2.42083
G1 X-31.80878 Y-2.33011
G3 X-31.01272 Y-1.78125 I-0.09885 J0.9951
G1 X-30.92506 Y-1.60546
G1 X-30.61284 Y-0.98847
G1 X-30.45537 Y-0.6823
G1 X-30.41634 Y-0.60688
G1 X-30.29722 Y-0.3779
G2 X-29.90526 Y0.36438 I294.60833 J-155.0935
G1 X-29.50588 Y1.10489
G1 X-29.29329 Y1.49326
G1 X-28.97 Y2.07685
G1 X-28.64373 Y2.65798
G1 X-28.18222 Y3.46782
G1 X-27.71349 Y4.27715
G3 X-27.70912 Y4.28478 I-0.86535 J0.50118
G2 X-27.60002 Y4.47135 I7.244 J-4.11083
G3 X-27.59528 Y4.4793 I-0.85662 J0.51595
G1 X-27.16575 Y5.20761
G1 X-27.1127 Y5.2969
G1 X-27.01853 Y5.45508
G1 X-26.87674 Y5.69241
G1 X-26.80589 Y5.81062
G1 X-26.73553 Y5.92778
G1 X-26.23239 Y6.75876
G1 X-25.72411 Y7.58628
G1 X-25.60046 Y7.78578
G1 X-25.15897 Y8.49218
G3 X-25.15798 Y8.49375 I-0.848 J0.52999
G2 X-24.71974 Y9.18547 I43.49722 J-27.07308
G3 X-24.71924 Y9.18626 I-0.84043 J0.54192
G1 X-24.23578 Y9.93756
G1 X-23.99335 Y10.30926
G1 X-23.93263 Y10.40179
G3 X-23.9217 Y10.41882 I-0.83606 J0.54864
G3 X-23.91096 Y10.43477 I-0.82387 J0.56677
G1 X-23.74901 Y10.68015
G3 X-23.74874 Y10.68056 I-0.83462 J0.55082
G2 X-22.85751 Y11.99596 I52.48837 J-34.60337
G3 X-22.85684 Y11.99691 I-0.82072 J0.57133
G2 X-22.66223 Y12.27483 I35.49373 J-24.64727
G1 X-22.35997 Y12.69841
G2 X-22.28893 Y12.7964 I11.70636 J-8.41216
G3 X-22.2881 Y12.79754 I-0.80715 J0.59035
G1 X-22.23123 Y12.87552
G2 X-22.06099 Y13.10644 I75.74894 J-55.66603
G1 X-21.91252 Y13.30456
G1 X-21.76062 Y13.50394
G3 X-21.67761 Y14.58777 I-0.79545 J0.60602
G3 X-22.60478 Y16.0626 I-12.14145 J-6.60404
G3 X-22.60739 Y16.06619 I-0.81138 J-0.58452
G1 X-22.76158 Y16.27824
G3 X-22.77115 Y16.29118 I-0.80877 J-0.58812
G1 X-22.92869 Y16.50065
G3 X-22.92989 Y16.50224 I-0.7992 J-0.60107
G3 X-23.04898 Y16.65647 I-7.24585 J-5.47209
G1 X-23.10975 Y16.7339
G3 X-23.11158 Y16.73622 I-0.78666 J-0.61739
G3 X-23.6428 Y17.38106 I-15.81442 J-12.48691
G3 X-23.80598 Y17.5691 I-6.47808 J-5.45674
G3 X-24.99871 Y18.83512 I-19.06722 J-16.76864
G3 X-25.18298 Y19.01662 I-6.79907 J-6.71851
G1 X-25.27219 Y19.10336
G3 X-25.27321 Y19.10435 I-0.69713 J-0.71695
G3 X-26.79449 Y20.48381 I-21.39288 J-22.06369
G3 X-26.79573 Y20.48486 I-0.64661 J-0.76282
G1 X-27.01256 Y20.66805
G3 X-27.01526 Y20.67032 I-0.64537 J-0.76387
G3 X-29.0245 Y22.23756 I-23.0439 J-27.47121
G3 X-31.00028 Y23.58151 I-22.52131 J-30.98495
G3 X-31.00379 Y23.58373 I-0.53637 J-0.84399
G1 X-31.28531 Y23.76101
G3 X-31.28869 Y23.76313 I-0.53286 J-0.84621
G3 X-33.79778 Y25.19972 I-20.15458 J-32.29153
G3 X-33.8033 Y25.20259 I-0.46356 J-0.88606
G1 X-34.21297 Y25.41368
G3 X-34.29249 Y25.45458 I-0.84137 J-1.53803
G3 X-34.3841 Y25.50011 I-0.85001 J-1.59524
G1 X-34.5504 Y25.58304
G3 X-34.8178 Y25.71418 I-4.91347 J-9.6806
G1 X-35.14765 Y25.87239
G3 X-35.15098 Y25.87398 I-0.43248 J-0.90165
G3 X-36.53308 Y26.49467 I-15.15633 J-31.89985
G3 X-39.47741 Y27.60292 I-14.34001 J-33.63258
G3 X-42.41321 Y28.44247 I-11.97365 J-36.31731
G3 X-42.41496 Y28.44289 I-0.23634 J-0.97167
G1 X-42.60777 Y28.48942
G3 X-42.61452 Y28.49103 I-0.2346 J-0.97209
G3 X-43.24517 Y28.63605 I-19.14013 J-81.79278
G3 X-43.25205 Y28.63757 I-0.22034 J-0.97542
G1 X-43.46034 Y28.68308
G3 X-43.46651 Y28.68441 I-0.21346 J-0.97695
G1 X-43.74263 Y28.74292
G3 X-44.13565 Y28.82276 I-3.43261 J-15.89121
G1 X-44.63117 Y28.91774
G3 X-44.64085 Y28.91955 I-0.18826 J-0.98212
G1 X-44.92428 Y28.97099
G3 X-45.70995 Y29.10309 I-5.00807 J-27.38229
G1 X-45.91156 Y29.13454
G3 X-45.91411 Y29.13494 I-0.15412 J-0.98805
G3 X-48.49987 Y29.45271 I-6.60813 J-43.09143
G3 X-49.3685 Y29.52526 I-3.13311 J-32.27618
G3 X-52.10632 Y29.64779 I-3.41984 J-45.76768
G3 X-52.10897 Y29.64782 I-0.01486 J-0.99989
G1 X-52.49232 Y29.65251
G3 X-52.50083 Y29.65257 I-0.01221 J-0.99993
G1 X-52.93894 Y29.6542
G3 X-52.94832 Y29.65419 I-0.00371 J-0.99999
G1 X-53.4233 Y29.65149
G3 X-53.43299 Y29.65139 I0.00568 J-0.99998
G1 X-53.90793 Y29.64409
G3 X-53.90915 Y29.64407 I0.01536 J-0.99988
G3 X-54.88079 Y29.61521 I0.61418 J-37.04604
G3 X-55.53077 Y29.58551 I0.9972 J-28.95435
G3 X-56.36981 Y29.53496 I4.52403 J-82.0707
G3 X-56.49694 Y29.5265 I0.10789 J-2.58083
G3 X-56.62802 Y29.51665 I0.13061 J-2.61654
G1 X-56.92089 Y29.49436
G3 X-56.92691 Y29.49388 I0.07591 J-0.99711
G1 X-57.23311 Y29.46871
G3 X-57.24212 Y29.46792 I0.08194 J-0.99664
G1 X-57.85403 Y29.41204
G3 X-57.86007 Y29.41147 I0.09096 J-0.99585
G3 X-59.10563 Y29.27493 I5.04575 J-51.77879
G3 X-59.1091 Y29.2745 I0.12093 J-0.99266
G1 X-59.45752 Y29.23081
G3 X-59.46489 Y29.22986 I0.1244 J-0.99223
G1 X-59.8626 Y29.177
G3 X-59.87103 Y29.17584 I0.13177 J-0.99128
G1 X-60.32508 Y29.11155
G3 X-60.32995 Y29.11084 I0.1402 J-0.99012
G3 X-62.48093 Y28.74903 I7.51326 J-51.24052
G3 X-62.63134 Y28.72021 I1.00479 J-5.65075
G3 X-62.7843 Y28.69032 I1.13203 J-6.19933
G3 X-62.94741 Y28.65789 I1.29573 J-6.94421
G3 X-63.12686 Y28.6215 I1.53802 J-8.04513
G3 X-64.04164 Y28.42548 I14.44497 J-69.64221
G3 X-64.0497 Y28.42366 I0.21596 J-0.9764
G1 X-64.5248 Y28.31445
G3 X-64.53493 Y28.31207 I0.22402 J-0.97458
G1 X-65.00892 Y28.19791
G3 X-65.01743 Y28.19582 I0.23415 J-0.9722
G1 X-65.33273 Y28.11695
G3 X-65.34074 Y28.11492 I0.24266 J-0.97011
G1 X-65.76023 Y28.0063
G3 X-65.76502 Y28.00504 I0.25066 J-0.96807
G3 X-67.46897 Y27.51965 I11.78819 J-44.61527
G3 X-67.47203 Y27.51871 I0.29238 J-0.9563
G1 X-67.69279 Y27.45044
G3 X-68.86442 Y27.06639 I10.66474 J-34.51476
G1 X-69.02604 Y27.01046
G1 X-69.02605
G1 X-69.02604 Y27.01047
G1 Y27.01046
G3 X-69.1928 Y26.95231 I12.09612 J-34.95489
G0 Z3.0
G0 X-90.12626 Y9.11844
G0 Z1.0
G1 F300.0 Z-2.0
G3 F800.0 X-90.29602 Y8.66622 I33.82539 J-12.95569
G3 X-90.56677 Y9.01267 I-2.17537 J-1.42107
G2 X-90.25948 Y9.08436 I7.12179 J-29.83204
G3 X-90.12626 Y9.11844 I-0.57768 J2.53501
G1 F300.0 X-90.345 Y9.88796
G3 F800.0 X-89.1969 Y10.87807 I-0.49216 J1.73141
G1 X-89.04938 Y11.20448
G1 X-88.99507 Y11.32252
G2 X-88.60481 Y12.13917 I29.50448 J-13.59825
G3 X-88.60317 Y12.14248 I-1.61311 J0.79867
G2 X-87.75814 Y13.74818 I30.41212 J-14.97976
G3 X-87.7558 Y13.75237 I-1.56988 J0.88061
G2 X-87.30505 Y14.53332 I26.36302 J-14.69582
G3 X-87.30116 Y14.53986 I-1.54534 J0.92299
G2 X-86.83131 Y15.30651 I24.75853 J-14.64605
G3 X-86.82826 Y15.31134 I-1.51983 J0.96443
G2 X-84.69842 Y18.30734 I27.9199 J-17.593
G3 X-84.69776 Y18.30817 I-1.40671 J1.12302
G2 X-82.22924 Y21.05365 I24.39731 J-19.45366
G2 X-79.44737 Y23.47928 I20.98331 J-21.25707
G3 X-79.43817 Y23.4864 I-1.09687 J1.42719
G2 X-79.27588 Y23.60988 I5.54337 J-7.11704
G3 X-79.25437 Y23.62612 I-1.07369 J1.44471
G2 X-79.10354 Y23.73906 I5.04423 J-6.5792
G3 X-79.0916 Y23.74786 I-1.06245 J1.45299
G2 X-76.39272 Y25.52693 I16.99106 J-22.83913
G2 X-73.10117 Y27.17074 I14.90556 J-25.7294
G2 X-71.51228 Y27.79252 I12.63165 J-29.93788
G3 X-70.41486 Y28.9207 I-0.61172 J1.69287
G3 X-68.86744 Y28.62228 I1.07983 J1.43813
G2 X-67.46664 Y28.9695 I9.35471 J-34.74132
G1 X-67.09953 Y29.05112
G3 X-67.09708 Y29.05167 I-0.39033 J1.75553
G2 X-66.58532 Y29.15924 I4.39666 J-19.64519
G3 X-66.54114 Y29.16851 I-0.34705 J1.7646
G3 X-66.49888 Y29.17671 I-0.3214 J1.76945
G2 X-66.04791 Y29.26474 I4.2889 J-20.77171
G3 X-66.04145 Y29.26594 I-0.32542 J1.76871
G2 X-65.14009 Y29.42641 I8.97421 J-47.79578
G2 X-62.41782 Y29.79862 I7.79512 J-46.87081
G3 X-62.41447 Y29.79899 I-0.192 J1.78812
G2 X-61.53093 Y29.88721 I5.17468 J-47.35627
G1 X-61.19281 Y29.91713
G1 X-60.90211 Y29.94124
G1 X-60.38503 Y29.9805
G1 X-60.1954 Y29.99376
G2 X-59.40481 Y30.04207 I5.17126 J-78.13565
G1 X-59.55685 Y30.02301
G3 X-59.57009 Y30.0213 I0.22373 J-1.78443
G1 X-59.9678 Y29.96843
G3 X-59.98297 Y29.96635 I0.23697 J-1.78272
G1 X-60.43701 Y29.90206
G3 X-60.44578 Y29.9008 I0.25213 J-1.78064
G3 X-62.62545 Y29.53425 I7.62908 J-52.03047
G3 X-62.78339 Y29.50404 I1.14931 J-6.43598
G3 X-62.93892 Y29.47364 I1.28408 J-6.98316
G3 X-63.1048 Y29.44066 I1.45034 J-7.72754
G3 X-63.29159 Y29.40273 I1.6954 J-8.8279
G3 X-64.21406 Y29.20504 I14.6097 J-70.42344
G3 X-64.22856 Y29.20177 I0.38837 J-1.75596
G1 X-64.70366 Y29.09256
G3 X-64.72187 Y29.08827 I0.40288 J-1.75269
G1 X-65.19587 Y28.97412
G3 X-65.21117 Y28.97036 I0.42109 J-1.74841
G1 X-65.52647 Y28.89149
G3 X-65.54087 Y28.88783 I0.43639 J-1.74465
G1 X-65.96036 Y28.77921
G3 X-65.96897 Y28.77695 I0.45079 J-1.74098
G3 X-67.7024 Y28.28316 I11.99214 J-45.38718
G3 X-67.7079 Y28.28147 I0.52581 J-1.71982
G1 X-67.92858 Y28.21323
G3 X-69.12577 Y27.82081 I10.90053 J-35.27754
G1 X-69.28714 Y27.76496
G1 X-69.28716
G1 X-69.28713 Y27.76497
G1 X-69.28714 Y27.76496
G3 X-70.63436 Y27.26991 I12.35722 J-35.70939
G3 X-71.52381 Y26.91342 I12.14944 J-31.60078
G3 X-74.92117 Y25.3043 I14.33366 J-34.65381
G1 X-74.92122 Y25.30427
G3 X-78.07252 Y23.38194 I15.80774 J-29.45793
G3 X-78.08054 Y23.37638 I1.01988 J-1.48125
G1 X-78.30604 Y23.21931
G3 X-78.31953 Y23.20982 I1.0279 J-1.47569
G1 X-78.54354 Y23.05072
G3 X-78.55478 Y23.04266 I1.0414 J-1.4662
G1 X-78.69943 Y22.93825
G3 X-78.92712 Y22.77132 I6.55573 J-9.18122
G1 X-79.18571 Y22.57792
G3 X-79.19825 Y22.56845 I1.07713 J-1.44015
G1 X-79.34637 Y22.45564
G3 X-79.35614 Y22.44815 I1.08967 J-1.43069
G1 X-79.52453 Y22.31807
G3 X-79.52681 Y22.3163 I1.09943 J-1.4232
G3 X-80.92434 Y21.16059 I17.57605 J-22.67665
G3 X-81.89988 Y20.26448 I19.47371 J-22.17883
G3 X-81.90911 Y20.25555 I1.24601 J-1.2968
G1 X-82.20653 Y19.96566
G3 X-82.21605 Y19.95632 I1.25524 J-1.28787
G3 X-83.43429 Y18.67721 I20.86356 J-21.09047
G3 X-84.22032 Y17.76452 I20.19299 J-18.18555
G3 X-84.22562 Y17.75806 I1.38837 J-1.1431
G1 X-84.4629 Y17.46712
G3 X-84.46335 Y17.46657 I1.39366 J-1.13664
G3 X-84.80536 Y17.0337 I14.16467 J-11.54306
G1 X-84.88483 Y16.93074
G3 X-84.89045 Y16.92342 I1.42367 J-1.09882
G3 X-85.33815 Y16.32509 I30.29105 J-23.13228
G3 X-85.34858 Y16.31073 I1.45041 J-1.06327
G1 X-85.58591 Y15.98018
G3 X-85.59256 Y15.97087 I1.46084 J-1.0489
G3 X-87.39887 Y13.09372 I24.88332 J-17.6277
G3 X-87.40112 Y13.08963 I1.57401 J-0.86991
G1 X-87.52788 Y12.85887
G3 X-87.53532 Y12.84517 I1.57626 J-0.86582
G1 X-87.6592 Y12.61494
G3 X-87.92512 Y12.10511 I16.9954 J-9.1888
G1 X-87.99164 Y11.97406
G3 X-87.99296 Y11.97145 I1.60362 J-0.81403
G3 X-88.54562 Y10.82155 I28.35234 J-14.33421
G3 X-88.54892 Y10.81428 I1.63623 J-0.74633
G1 X-88.69024 Y10.50076
G3 X-88.69865 Y10.48181 I1.63953 J-0.73905
G1 X-88.85604 Y10.12164
G3 X-88.86123 Y10.10964 I1.64794 J-0.7201
G3 X-90.00182 Y7.06866 I32.56035 J-13.94688
G3 X-90.84229 Y4.01316 I33.74084 J-10.92438
G3 X-91.39764 Y0.98669 I33.94301 J-7.79269
G3 X-91.67438 Y-1.88168 I33.37772 J-4.66784
G3 X-91.67453 Y-1.88441 I1.79583 J-0.09602
G1 X-91.67908 Y-1.97212
G3 X-91.69427 Y-4.84249 I30.55616 J-1.59689
G3 X-91.49361 Y-7.23981 I28.12017 J1.14667
G3 X-91.44474 Y-7.603 I10.65282 J1.24862
G3 X-90.93534 Y-10.20808 I24.5645 J3.45102
G3 X-90.935 Y-10.20942 I1.74398 J0.43906
G3 X-90.67855 Y-11.14197 I22.36747 J5.64954
G3 X-90.67476 Y-11.15452 I1.72365 J0.5131
G1 X-90.58785 Y-11.43887
G3 X-90.58521 Y-11.44745 I1.71986 J0.52566
G3 X-90.15924 Y-12.67826 I19.70344 J6.12992
G3 X-90.15394 Y-12.69199 I1.68009 J0.64151
G1 X-90.01307 Y-13.05204
G3 X-89.99964 Y-13.08538 I1.67479 J0.65523
G1 X-89.85158 Y-13.44263
G3 X-89.84096 Y-13.46771 I1.66136 J0.68857
G3 X-89.50056 Y-14.22303 I24.76763 J10.70754
G3 X-89.49195 Y-14.24112 I1.62805 J0.76399
G1 X-89.39587 Y-14.44008
G3 X-89.38576 Y-14.46068 I1.61944 J0.78208
G1 X-89.27305 Y-14.68665
G3 X-89.2611 Y-14.71017 I1.60933 J0.80268
G1 X-89.12851 Y-14.96652
G3 X-89.1226 Y-14.97785 I1.59738 J0.8262
G3 X-87.82141 Y-17.11024 I17.43076 J9.17314
G3 X-87.59049 Y-17.37889 I1.47267 J1.03222
G1 X-87.89884 Y-17.5459
G3 X-87.90655 Y-17.5501 I0.85649 J-1.58135
G1 X-88.54342 Y-17.89907
G3 X-88.76314 Y-17.28818 I-1.77433 J-0.29324
G2 X-89.96125 Y-14.94016 I20.7499 J12.06757
G1 X-90.03145 Y-14.78065
G2 X-90.91882 Y-12.43306 I23.29296 J10.14599
G1 X-90.97259 Y-12.26463
G2 X-91.62933 Y-9.77132 I26.49116 J8.31096
G1 X-91.70353 Y-9.41256
G2 X-92.08713 Y-6.94785 I28.96595 J5.77036
G2 X-92.27825 Y-3.98232 I31.22687 J3.50139
G2 X-92.18711 Y-0.88595 I33.62227 J0.55985
G2 X-91.7946 Y2.30864 I34.7985 J-2.65414
G1 X-91.72 Y2.73183
G2 X-91.07796 Y5.58044 I34.06325 J-6.18081
G3 X-91.07617 Y5.58712 I-1.73615 J0.46906
G2 X-90.7524 Y6.71667 I29.69491 J-7.90027
G3 X-92.92741 Y8.98478 I-1.719 J0.52849
G3 X-93.89393 Y8.71074 I6.39374 J-24.39122
G3 X-93.8944 Y8.71059 I0.52495 J-1.72008
G1 X-94.01999 Y8.67223
G3 X-94.39476 Y8.55415 I5.21268 J-17.19768
G3 X-94.3957 Y8.55384 I0.55917 J-1.70926
G1 X-94.69472 Y8.45583
G3 X-94.70669 Y8.45187 I0.56011 J-1.70895
G1 X-94.80619 Y8.41848
G3 X-94.81301 Y8.41618 I0.57207 J-1.70499
G1 X-94.94358 Y8.37178
G3 X-95.14093 Y8.30353 I4.52267 J-13.39709
G1 X-95.23915 Y8.26905
G3 X-95.24444 Y8.26719 I0.59571 J-1.69687
G3 X-95.52207 Y8.16782 I16.68314 J-47.05256
G3 X-95.53404 Y8.16345 I0.61099 J-1.69143
G1 X-95.8895 Y8.0322
G3 X-95.90726 Y8.02553 I0.62296 J-1.68706
G1 X-96.22527 Y7.90428
G3 X-96.23617 Y7.90008 I0.64072 J-1.68039
G1 X-96.34196 Y7.85896
G3 X-96.35523 Y7.85374 I0.65162 J-1.67619
G1 X-96.77695 Y7.68593
G3 X-96.79421 Y7.67896 I0.66489 J-1.67098
G1 X-97.07413 Y7.56421
G3 X-97.08976 Y7.55771 I0.68215 J-1.664
G1 X-97.46158 Y7.40118
G3 X-97.47828 Y7.39405 I0.69779 J-1.65751
G1 X-97.79993 Y7.2548
G3 X-97.96905 Y7.18027 I1.43915 J-3.49458
G1 X-98.40194 Y6.98553
G3 X-98.41881 Y6.97784 I0.73779 J-1.6401
G1 X-98.7167 Y6.84012
G3 X-98.72717 Y6.83524 I0.75466 J-1.6324
G1 X-98.89693 Y6.75543
G3 X-98.90503 Y6.7516 I0.76513 J-1.62752
G1 X-99.09857 Y6.65943
G3 X-99.10185 Y6.65787 I0.77322 J-1.62369
G3 X-99.1789 Y6.62089 I17.50011 J-36.55843
G2 X-99.16336 Y6.62874 I19.64151 J-38.86748
G3 X-99.12667 Y6.64779 I-0.81121 J1.60684
G3 X-99.09119 Y6.66521 I-0.77568 J1.62429
G2 X-96.91224 Y7.69163 I19.91565 J-39.45236
G3 X-96.91175 Y7.69185 I-0.7224 J1.64868
G2 X-94.70365 Y8.5834 I16.19845 J-36.93831
G3 X-94.70118 Y8.58431 I-0.62435 J1.68825
G2 X-92.54533 Y9.30648 I12.19952 J-32.83972
G3 X-92.54111 Y9.30775 I-0.51605 J1.72444
G2 X-90.43723 Y9.86436 I9.09613 J-30.12713
G3 X-90.345 Y9.88796 I-0.39993 J1.75501
G0 Z3.0
G0 X-90.42816 Y-26.00187
G0 Z1.0
G1 F300.0 Z-2.0
G3 F800.0 X-93.16468 Y-27.27485 I82.8872 J-181.76012
G3 X-93.16634 Y-27.27564 I0.77082 J-1.62483
G1 X-93.87411 Y-27.6123
G3 X-93.87717 Y-27.61376 I0.77249 J-1.62404
G1 X-94.00933 Y-27.67693
G3 X-94.52548 Y-27.92408 I96.0443 J-201.23599
G2 X-93.8025 Y-27.53357 I14.17321 J-25.37555
G1 X-93.59404 Y-27.42605
G3 X-93.58236 Y-27.41997 I-0.82442 J1.5983
G2 X-93.41898 Y-27.33739 I2.7381 J-5.21426
G3 X-93.40476 Y-27.3304 I-0.78622 J1.61744
G1 X-93.26916 Y-27.26301
G2 X-92.72453 Y-27.00095 I33.35043 J-68.61592
G1 X-92.35524 Y-26.83034
G1 X-92.17486 Y-26.74882
G1 X-91.98719 Y-26.66512
G3 X-91.95552 Y-26.65063 I-0.73252 J1.64245
G2 X-91.90386 Y-26.62783 I0.51693 J-1.10123
G3 X-91.87095 Y-26.61382 I-0.68782 J1.66167
G1 X-91.7023 Y-26.54005
G1 X-91.60955 Y-26.49979
G1 X-91.35527 Y-26.39043
G1 X-91.01363 Y-26.24555
G1 X-90.81703 Y-26.16308
G3 X-90.78894 Y-26.15102 I-0.69568 J1.65839
G2 X-90.74497 Y-26.13267 I0.50771 J-1.15488
G3 X-90.71868 Y-26.12204 I-0.66108 J1.67249
G1 X-90.42816 Y-26.00187
G0 Z3.0
G0 X-104.3147 Y-32.06458
G0 Z1.0
G1 F300.0 Z-2.0
G1 F800.0 X-104.31483 Y-32.06465
G3 X-104.32413 Y-32.07007 I1.30237 J-2.24845
G3 X-105.97193 Y-33.08999 I19.49274 J-33.33379
G3 X-105.98327 Y-33.09745 I1.42255 J-2.1744
G1 X-106.22677 Y-33.25858
G3 X-106.23154 Y-33.26174 I1.43389 J-2.16694
G3 X-108.03324 Y-34.56394 I15.75402 J-23.69458
G3 X-108.18457 Y-34.68315 I3.20681 J-4.22636
G3 X-108.31297 Y-34.78643 I3.45608 J-4.42841
G3 X-110.00672 Y-36.28418 I14.92459 J-18.58416
G3 X-110.92428 Y-37.225 I16.76227 J-17.26581
G3 X-110.93713 Y-37.23902 I1.90904 J-1.76274
G1 X-111.13454 Y-37.45597
G3 X-111.15565 Y-37.47945 I1.92189 J-1.74872
G1 X-111.30175 Y-37.644
G3 X-111.32405 Y-37.66945 I1.943 J-1.72524
G1 X-111.54 Y-37.91912
G3 X-111.55978 Y-37.94226 I1.9653 J-1.69979
G1 X-111.66628 Y-38.06837
G3 X-111.67931 Y-38.08391 I1.98508 J-1.67665
G1 X-111.78477 Y-38.21076
G3 X-111.79217 Y-38.21971 I1.9981 J-1.66111
G3 X-113.37759 Y-40.37931 I18.52978 J-15.265
G3 X-114.73295 Y-42.75362 I19.28655 J-12.58358
G3 X-115.8064 Y-45.31841 I19.43044 J-9.63936
G3 X-115.80749 Y-45.32156 I2.4563 J-0.84751
G3 X-116.02519 Y-45.99341 I18.96675 J-6.51696
G3 X-116.53308 Y-48.06747 I18.1888 J-5.55322
G3 X-116.82342 Y-50.97945 I16.8255 J-3.14804
G1 Y-50.97951
G1 X-116.82341 Y-50.97939
G1 X-116.82342 Y-50.97945
G3 X-116.59145 Y-53.98458 I16.6063 J-0.22968
G3 X-116.59048 Y-53.99027 I2.56186 J0.43424
G3 X-115.79182 Y-56.99474 I17.103 J2.938
G3 X-115.79001 Y-56.99969 I2.4413 J0.88979
G3 X-114.42912 Y-59.90796 I17.52079 J6.42611
G1 X-114.42904 Y-59.90808
G1 X-114.42919 Y-59.90783
G1 X-114.42912 Y-59.90796
G3 X-112.55191 Y-62.61075 I17.11535 J9.88408
G3 X-110.22137 Y-64.99585 I15.17808 J12.49971
G3 X-107.51497 Y-66.94431 I12.22482 J14.12638
G3 X-107.51235 Y-66.94586 I1.32391 J2.23583
G3 X-106.81715 Y-67.33543 I8.93696 J15.13326
G2 X-107.79381 Y-66.93977 I6.41146 J17.2297
G3 X-107.79809 Y-66.9379 I-1.04488 J-2.3808
G2 X-110.4435 Y-65.50784 I7.18858 J16.45979
G3 X-110.44508 Y-65.50681 I-1.42354 J-2.17567
G2 X-111.69308 Y-64.61219 I9.70595 J14.85756
G2 X-112.85812 Y-63.61126 I10.99264 J13.97358
G1 X-112.8582 Y-63.61119
G2 X-114.89588 Y-61.30791 I11.25331 J12.00865
G3 X-114.897 Y-61.30638 I-2.09976 J-1.53329
G2 X-116.46267 Y-58.66363 I12.8522 J9.3993
G2 X-117.49989 Y-55.76142 I14.93236 J6.97313
G2 X-117.99269 Y-52.71365 I17.18809 J4.34289
G2 X-117.98035 Y-49.76385 I19.23471 J1.39448
G1 X-117.97202 Y-49.66347
G2 X-117.51351 Y-46.78154 I20.46571 J-1.77862
G3 X-117.51305 Y-46.77956 I-2.53221 J0.58986
G2 X-116.72953 Y-44.20994 I19.29069 J-4.47777
G3 X-116.72904 Y-44.20867 I-2.4298 J0.92525
G2 X-115.73997 Y-42.01804 I18.4906 J-7.02997
G2 X-114.65848 Y-40.20877 I17.75536 J-9.38538
G2 X-113.70267 Y-38.88602 I20.8789 J-14.08024
G1 X-113.55198 Y-38.69328
G2 X-112.50595 Y-37.44263 I23.34921 J-18.46612
G3 X-111.86329 Y-35.49984 I-1.94795 J1.72206
G3 X-109.93624 Y-34.86904 I0.21925 J2.58913
G1 X-109.87785 Y-34.81812
G3 X-109.87359 Y-34.8144 I-1.7078 J1.95834
G1 X-109.81527 Y-34.76332
G3 X-109.80922 Y-34.758 I-1.71206 J1.95462
G1 X-109.69288 Y-34.65546
G3 X-109.68189 Y-34.64572 I-1.71812 J1.9493
G1 X-109.45045 Y-34.43939
G3 X-109.43237 Y-34.42312 I-1.7291 J1.93956
G1 X-108.97339 Y-34.00616
G3 X-108.97252 Y-34.00538 I-1.74719 J1.92328
G3 X-108.5518 Y-33.61625 I-22.69082 J24.95528
G1 X-108.16581 Y-33.25473
G3 X-108.15802 Y-33.24741 I-1.77625 J1.89647
G1 X-107.90026 Y-33.00398
G3 X-107.89376 Y-32.99783 I-1.78404 J1.88915
G1 X-107.4744 Y-32.59906
G3 X-107.46797 Y-32.59292 I-1.79053 J1.88299
G1 X-107.04997 Y-32.19272
G3 X-107.04568 Y-32.1886 I-1.79696 J1.87686
G1 X-106.76761 Y-31.92114
G3 X-106.76338 Y-31.91706 I-1.80126 J1.87274
G1 X-106.17962 Y-31.35304
G3 X-106.17505 Y-31.34862 I-1.80549 J1.86866
G1 X-105.81878 Y-31.0027
G3 X-105.49745 Y-31.33131 I2.01118 J1.64525
G3 X-104.3147 Y-32.06458 I2.96816 J3.46701
G1 F300.0 X-103.91373 Y-32.75684
G1 F800.0 X-103.91385 Y-32.75691
G3 X-103.92029 Y-32.76066 I0.90139 J-1.55619
G3 X-105.53395 Y-33.75945 I19.0889 J-32.6432
G3 X-105.5418 Y-33.76461 I0.98457 J-1.50494
G1 X-105.7853 Y-33.92574
G3 X-105.7886 Y-33.92793 I0.99242 J-1.49978
G3 X-107.5448 Y-35.19755 I15.31109 J-23.02839
G3 X-107.68519 Y-35.30822 I2.71837 J-3.59275
G3 X-107.80709 Y-35.40621 I2.9567 J-3.80334
G3 X-109.44921 Y-36.85792 I14.41871 J-17.96438
G3 X-110.33653 Y-37.76771 I16.20475 J-16.69207
G3 X-110.34542 Y-37.77742 I1.32128 J-1.22003
G1 X-110.54282 Y-37.99437
G3 X-110.55743 Y-38.01062 I1.33017 J-1.21032
G1 X-110.70354 Y-38.17517
G3 X-110.71897 Y-38.19278 I1.34478 J-1.19407
G1 X-110.93492 Y-38.44246
G3 X-110.94861 Y-38.45847 I1.36022 J-1.17645
G1 X-111.05511 Y-38.58457
G3 X-111.06413 Y-38.59533 I1.37391 J-1.16044
G1 X-111.16959 Y-38.72218
G3 X-111.17471 Y-38.72838 I1.38292 J-1.14968
G3 X-112.70745 Y-40.81623 I17.91232 J-14.75633
G3 X-114.01608 Y-43.10872 I18.61641 J-12.14665
G3 X-115.05015 Y-45.57934 I18.71357 J-9.28426
G3 X-115.05091 Y-45.58152 I1.70005 J-0.58658
G3 X-115.25999 Y-46.22679 I18.21017 J-6.25699
G3 X-115.74665 Y-48.21421 I17.4236 J-5.31984
G3 X-116.02349 Y-50.9905 I16.03907 J-3.0013
G1 Y-50.99054
G1 Y-50.99046
G1 Y-50.9905
G3 X-115.8027 Y-53.85089 I15.80638 J-0.21863
G3 X-115.80203 Y-53.85482 I1.77311 J0.30054
G3 X-115.04018 Y-56.72079 I16.31455 J2.80256
G3 X-115.03893 Y-56.72422 I1.68967 J0.61584
G3 X-113.73636 Y-59.50785 I16.76971 J6.15064
G1 X-113.73631 Y-59.50793
G1 X-113.73641 Y-59.50776
G1 X-113.73636 Y-59.50785
G3 X-111.93474 Y-62.10173 I16.42259 J9.48397
G3 X-109.69825 Y-64.39058 I14.56092 J11.99069
G3 X-107.10736 Y-66.25594 I11.70171 J13.52111
G3 X-107.10555 Y-66.25701 I0.9163 J1.54746
G3 X-104.25516 Y-67.59692 I8.53016 J14.44441
G3 X-104.25121 Y-67.59834 I0.60891 J1.69218
G3 X-101.24652 Y-68.36039 I5.5142 J15.43721
G3 X-101.24411 Y-68.36077 I0.27532 J1.7772
G3 X-98.20389 Y-68.57106 I2.7799 J18.10737
G3 X-98.2004 Y-68.57101 I-0.02556 J1.79822
G1 X-98.02684 Y-68.56821
G3 X-98.01349 Y-68.56794 I-0.02905 J1.79817
G3 X-95.2039 Y-68.3307 I-0.54833 J23.2491
G3 X-95.20352 Y-68.33065 I-0.25967 J1.77955
G3 X-92.27793 Y-67.76658 I-4.75125 J32.51196
G1 X-92.10462 Y-67.72503
G3 X-92.09695 Y-67.72317 I-0.41931 J1.74884
G3 X-89.41718 Y-66.98936 I-11.96367 J48.94989
G1 X-89.4171 Y-66.98934
G1 X-89.41725 Y-66.98939
G1 X-89.41718 Y-66.98936
G1 X-89.24385 Y-66.93674
G3 X-89.23182 Y-66.93304 I-0.52247 J1.72083
G1 X-88.5831 Y-66.73111
G3 X-88.56736 Y-66.72613 I-0.53451 J1.71713
G1 X-88.08229 Y-66.57024
G3 X-88.07115 Y-66.56662 I-0.55024 J1.71216
G1 X-87.70808 Y-66.44733
G3 X-87.69669 Y-66.44354 I-0.56138 J1.70853
G1 X-87.15327 Y-66.26095
G3 X-87.14499 Y-66.25815 I-0.57278 J1.70475
G1 X-87.00935 Y-66.21184
G3 X-87.00291 Y-66.20963 I-0.58106 J1.70194
G1 X-86.59663 Y-66.06921
G3 X-86.58785 Y-66.06615 I-0.58749 J1.69973
G1 X-86.23975 Y-65.94381
G3 X-86.2289 Y-65.93996 I-0.59627 J1.69667
G1 X-85.62113 Y-65.72198
G3 X-85.61309 Y-65.71908 I-0.60712 J1.69282
G1 X-85.57484 Y-65.70515
G2 X-86.4245 Y-66.04986 I-30.452 J73.84044
G1 X-86.80164 Y-66.1994
G1 X-87.17852 Y-66.34651
G1 X-87.28412 Y-66.38731
G1 X-87.40562 Y-66.43401
G1 X-87.73446 Y-66.55915
G2 X-89.04951 Y-67.04056 I-31.27371 J83.39223
G1 X-89.20982 Y-67.09708
G1 X-89.37187 Y-67.15373
G1 X-89.47688 Y-67.19016
G1 X-89.9132 Y-67.33924
G1 X-90.03421 Y-67.37993
G1 X-90.17533 Y-67.42699
G1 X-90.33942 Y-67.48121
G3 X-90.3418 Y-67.482 I0.56474 J-1.70911
G2 X-91.62639 Y-67.88646 I-13.69629 J41.25729
G3 X-91.63208 Y-67.88817 I0.51393 J-1.72507
G2 X-94.22585 Y-68.58149 I-12.24614 J40.61559
G2 X-96.86514 Y-69.0758 I-6.9826 J29.98911
G2 X-99.33102 Y-69.29757 I-3.42599 J24.2737
G3 X-99.36766 Y-69.29938 I0.0705 J-1.79862
G3 X-99.40056 Y-69.30007 I0.02133 J-1.79987
G1 X-99.58062 Y-69.3055
G2 X-102.37781 Y-69.1947 I-0.56539 J21.09034
G2 X-105.2449 Y-68.66929 I2.12564 J19.68447
G1 X-105.24497 Y-68.66927
G1 X-105.24484 Y-68.6693
G1 X-105.2449 Y-68.66929
G2 X-108.11531 Y-67.67233 I4.83921 J18.56356
G3 X-108.11827 Y-67.67103 I-0.72338 J-1.64825
G2 X-110.88152 Y-66.17728 I7.50877 J17.19292
G3 X-110.88261 Y-66.17656 I-0.98553 J-1.50623
G2 X-112.18729 Y-65.24128 I10.14348 J15.52731
G2 X-113.40518 Y-64.19499 I11.48685 J14.60268
G1 X-113.40523 Y-64.19493
G2 X-115.54197 Y-61.77969 I11.80034 J12.59239
G3 X-115.54274 Y-61.77863 I-1.45368 J-1.06151
G2 X-117.1873 Y-59.00262 I13.49794 J9.87155
G2 X-118.27531 Y-55.95822 I15.65699 J7.31211
G2 X-118.79057 Y-52.7718 I17.9635 J4.53968
G2 X-118.77767 Y-49.69849 I20.0326 J1.45262
G1 X-118.76915 Y-49.59576
G2 X-118.29265 Y-46.60005 I21.26284 J-1.84633
G3 X-118.29233 Y-46.59868 I-1.75307 J0.40836
G2 X-117.47716 Y-43.92525 I20.06997 J-4.65865
G3 X-117.47682 Y-43.92437 I-1.68217 J0.64056
G2 X-116.44749 Y-41.64466 I19.23838 J-7.31427
G2 X-115.32221 Y-39.76216 I18.46288 J-9.75875
G2 X-114.33423 Y-38.39497 I21.54263 J-14.52686
G1 X-114.18085 Y-38.19879
G2 X-113.10532 Y-36.91276 I23.97808 J-18.96061
G3 X-113.47168 Y-34.21218 I-1.34858 J1.19219
G2 X-114.56536 Y-33.34144 I4.01283 J6.16247
G2 X-115.5582 Y-32.19953 I6.08698 J6.29497
G2 X-116.44765 Y-30.76032 I9.17638 J6.66559
G3 X-116.44787 Y-30.75991 I-1.5975 J-0.82945
G1 X-116.47456 Y-30.70853
G2 X-116.68019 Y-30.29346 I22.03089 J11.17249
G2 X-117.21393 Y-29.02095 I14.69205 J6.91067
G2 X-117.55023 Y-28.02174 I19.06723 J6.97349
G1 X-117.55025 Y-28.02167
G1 X-117.55021 Y-28.02181
G1 X-117.55023 Y-28.02174
G2 X-117.83071 Y-27.00993 I17.80687 J5.4809
G3 X-117.8317 Y-27.00593 I-1.74745 J-0.43177
G2 X-118.27547 Y-24.76516 I22.62207 J5.64452
G3 X-118.2761 Y-24.76093 I-1.78072 J-0.26277
G2 X-118.52346 Y-22.35646 I25.7839 J3.86745
G1 X-118.54029 Y-22.0331
G1 X-118.54621 Y-21.89836
G1 X-118.55129 Y-21.76875
G2 X-118.55578 Y-19.8332 I29.2717 J1.03577
G2 X-118.35612 Y-17.27688 I27.88553 J-0.89201
G3 X-118.35596 Y-17.27553 I-1.7862 J0.22247
G2 X-117.9139 Y-14.73193 I26.2009 J-3.24328
G3 X-117.91311 Y-14.72838 I-1.75623 J0.39455
G2 X-117.22384 Y-12.23968 I24.61619 J-5.47783
G1 X-117.11567 Y-11.92056
G2 X-116.92761 Y-11.39608 I25.63759 J-8.89672
G1 X-116.77261 Y-10.98903
G1 X-116.65461 Y-10.69226
G2 X-116.47057 Y-10.24976 I51.07166 J-20.98159
G1 X-116.37535 Y-10.0296
G1 X-116.27609 Y-9.8059
G2 X-115.08766 Y-7.48365 I23.32428 J-10.47116
G1 X-114.91455 Y-7.1878
G2 X-113.64959 Y-5.25017 I23.48554 J-13.95047
G2 X-111.98657 Y-3.13291 I24.46305 J-17.50302
G3 X-111.98607 Y-3.13233 I-1.36437 J1.17409
G2 X-111.53655 Y-2.62063 I24.26335 J-20.86158
G3 X-111.53324 Y-2.61693 I-1.33958 J1.2023
G2 X-110.84479 Y-1.87334 I20.7441 J-18.51514
G3 X-110.83345 Y-1.86142 I-1.29833 J1.24674
G2 X-110.49294 Y-1.51003 I13.01402 J-12.27027
G1 X-110.25017 Y-1.2668
G3 X-111.47674 Y-2.61693 I23.23035 J-22.33657
G3 X-111.48336 Y-2.62468 I1.3648 J-1.17113
G1 X-111.69548 Y-2.87474
G3 X-111.7084 Y-2.89014 I1.37142 J-1.16338
G1 X-111.91743 Y-3.14221
G3 X-112.34877 Y-3.67997 I15.85135 J-13.15638
G3 X-112.43675 Y-3.79335 I2.35688 J-1.91973
G1 X-112.70906 Y-4.14964
G3 X-112.72318 Y-4.16837 I1.42886 J-1.09206
G1 X-112.88218 Y-4.38213
G3 X-112.89312 Y-4.397 I1.44298 J-1.07333
G1 X-113.07235 Y-4.64319
G3 X-113.07762 Y-4.65046 I1.45393 J-1.05846
G3 X-114.51802 Y-6.85868 I23.11162 J-16.64934
G1 X-114.51805 Y-6.85873
G1 X-114.51799 Y-6.85863
G1 X-114.51802 Y-6.85868
G3 X-115.67971 Y-9.05933 I23.30151 J-13.70753
G3 X-115.7601 Y-9.23188 I5.76551 J-2.79095
G3 X-116.75283 Y-11.70347 I24.068 J-11.10228
G3 X-117.49122 Y-14.26986 I24.16082 J-8.34084
G3 X-117.91624 Y-16.53904 I25.42493 J-5.93647
G3 X-117.91772 Y-16.54973 I1.78057 J-0.25261
G1 X-117.95906 Y-16.85427
G3 X-117.96019 Y-16.86275 I1.78205 J-0.24192
G3 X-118.1652 Y-19.44669 I25.20929 J-3.30021
G3 X-118.1541 Y-21.25948 I24.47895 J-0.75642
G3 X-118.15401 Y-21.26147 I1.79673 J0.07757
G1 X-118.14905 Y-21.3735
G3 X-118.14836 Y-21.38781 I1.79664 J0.07956
G1 X-118.13497 Y-21.64386
G3 X-118.13373 Y-21.66531 I1.79595 J0.09386
G1 X-118.11494 Y-21.95775
G3 X-118.11437 Y-21.96628 I1.7947 J0.11531
G3 X-117.84422 Y-24.24279 I23.25308 J1.60509
G3 X-117.84331 Y-24.24815 I1.77329 J0.29949
G1 X-117.81938 Y-24.38724
G3 X-117.81821 Y-24.39399 I1.77237 J0.30486
G3 X-117.28832 Y-26.68394 I21.74994 J3.82658
G3 X-117.28736 Y-26.68726 I1.72805 J0.4981
G3 X-116.52767 Y-28.82815 I18.67978 J5.42326
G3 X-116.1838 Y-29.58977 I14.7854 J6.21717
G3 X-116.17993 Y-29.59773 I1.61924 J0.78249
G1 X-116.07101 Y-29.82032
G3 X-116.06263 Y-29.83721 I1.61537 J0.79045
G3 X-115.54111 Y-30.80288 I16.55492 J8.31696
G3 X-115.53836 Y-30.80763 I1.55638 J0.90107
G3 X-114.65428 Y-32.16548 I14.20578 J8.28247
G3 X-114.64474 Y-32.17854 I1.45693 J1.05432
G3 X-114.33684 Y-32.58848 I23.51278 J17.33949
G3 X-114.32773 Y-32.60028 I1.42844 J1.09261
G3 X-112.90044 Y-34.19744 I12.43379 J9.67504
G3 X-110.46204 Y-34.26611 I1.25641 J1.28673
G1 X-110.40365 Y-34.21519
G3 X-110.4007 Y-34.21261 I-1.182 J1.3554
G1 X-110.34238 Y-34.16153
G3 X-110.33819 Y-34.15785 I-1.18495 J1.35283
G1 X-110.22185 Y-34.05531
G3 X-110.21425 Y-34.04857 I-1.18914 J1.34914
G1 X-109.98281 Y-33.84224
G3 X-109.97029 Y-33.83097 I-1.19674 J1.3424
G1 X-109.51131 Y-33.41402
G3 X-109.51072 Y-33.41348 I-1.20926 J1.33114
G3 X-109.09933 Y-33.03297 I-22.15263 J24.36337
G1 X-108.71268 Y-32.67084
G3 X-108.7073 Y-32.66577 I-1.22938 J1.31258
G1 X-108.44953 Y-32.42235
G3 X-108.44503 Y-32.41809 I-1.23476 J1.30752
G1 X-108.02567 Y-32.01932
G3 X-108.02122 Y-32.01507 I-1.23926 J1.30326
G1 X-107.60322 Y-31.61487
G3 X-107.60025 Y-31.61201 I-1.24371 J1.29901
G1 X-107.32218 Y-31.34456
G3 X-107.31925 Y-31.34174 I-1.24668 J1.29616
G1 X-106.7355 Y-30.77772
G3 X-106.73234 Y-30.77466 I-1.24961 J1.29334
G1 X-106.14989 Y-30.20914
G3 X-106.14676 Y-30.20609 I-1.25277 J1.29027
G1 X-105.58132 Y-29.6544
G3 X-104.97718 Y-30.72359 I1.77371 J0.29695
G3 X-103.23787 Y-31.561 I2.44789 J2.8593
G3 X-103.23072 Y-31.56236 I0.33855 J1.76625
G3 X-102.26042 Y-31.63094 I0.7826 J4.17413
G3 X-101.83588 Y-31.59518 I-0.20204 J4.93628
G3 X-102.239 Y-31.81275 I41.7362 J-77.80964
G3 X-102.24707 Y-31.81716 I0.85828 J-1.58038
G1 X-102.80391 Y-32.12328
G3 X-102.82033 Y-32.13242 I0.86636 J-1.57597
G1 X-103.37389 Y-32.4443
G3 X-103.3925 Y-32.45493 I0.88278 J-1.56683
G1 X-103.91373 Y-32.75684
G0 Z3.0
G0 X-56.37404 Y-49.80258
G0 Z1.0
G1 F300.0 Z-2.0
G1 F800.0 X-56.13185 Y-49.65403
G1 X-55.86667 Y-49.49219
G1 X-55.40041 Y-49.20878
G1 X-54.69954 Y-48.78563
G1 X-53.99659 Y-48.36486
G1 X-53.82608 Y-48.26336
G1 X-53.17736 Y-47.8793
G1 X-52.3284 Y-47.38221
G1 X-52.58326 Y-47.53415
G3 X-52.58541 Y-47.53543 I0.92171 J-1.54611
G1 X-54.16442 Y-48.47972
G3 X-54.16501 Y-48.48007 I0.92385 J-1.54483
G1 X-54.69127 Y-48.79506
G1 X-54.69147 Y-48.79518
G1 X-55.39309 Y-49.21525
G1 Y-49.21526
G1 X-56.37404 Y-49.80258
G0 Z3.0
G0 X-30.05593 Y-1.65619
G0 Z1.0
G1 F300.0 Z-2.0
G1 F800.0 X-29.90164 Y-1.3513
G1 X-29.88373 Y-1.31649
G3 X-29.81205 Y-1.6334 I1.78276 J0.23669
G3 X-30.05593 Y-1.65619 I25.45218 J-273.6123
G0 Z3.0
G0 X-20.76936 Y14.31468
G0 Z1.0
G1 F300.0 Z-2.0
G3 F800.0 X-20.97625 Y14.96926 I-1.78671 J-0.20473
G3 X-21.07338 Y15.14495 I-12.84281 J-6.98553
G3 X-20.25506 Y14.94917 I0.81601 J1.60261
G3 X-20.30283 Y14.89079 I45.66135 J-37.41177
G3 X-20.30493 Y14.88822 I1.39256 J-1.13799
G1 X-20.59211 Y14.53547
G3 X-20.59999 Y14.52572 I1.39466 J-1.13542
G1 X-20.76936 Y14.31468
G0 Z3.0
G0 X-36.29726 Y27.26196
G0 Z1.0
G1 F300.0 Z-2.0
G3 F800.0 X-38.22348 Y28.01595 I-14.57583 J-34.39987
G3 X-37.16889 Y29.52035 I-0.73872 J1.63968
G2 X-36.78464 Y32.99925 I50.27499 J-3.79241
G2 X-36.64813 Y33.8833 I79.82155 J-11.87263
G2 X-36.41647 Y35.19539 I55.45815 J-9.11503
G1 X-36.38565 Y35.35632
G1 X-36.27095 Y35.93265
G1 X-36.14939 Y36.50951
G2 X-35.25887 Y40.0197 I49.81417 J-10.7696
G3 X-35.25835 Y40.02149 I-1.72637 J0.50389
G2 X-34.08795 Y43.53572 I46.16219 J-13.42203
G3 X-34.08693 Y43.53846 I-1.6831 J0.63357
G2 X-32.59985 Y47.02881 I40.05394 J-15.0032
G3 X-32.59877 Y47.03106 I-1.6216 J0.77759
G2 X-30.73469 Y50.47203 I34.81785 J-16.63648
G1 X-30.67204 Y50.57442
G2 X-30.2208 Y51.29077 I43.15565 J-26.68405
G3 X-29.9622 Y52.56775 I-1.51362 J0.97118
G3 X-28.85643 Y53.25465 I-0.33265 J1.76899
G1 X-28.63412 Y53.55017
G1 X-28.4119 Y53.83945
G2 X-25.56755 Y57.08034 I28.52318 J-22.16462
G1 X-25.5675 Y57.0804
G2 X-22.13518 Y60.14621 I26.51487 J-26.23041
G3 X-22.13436 Y60.14686 I-1.11399 J1.41387
G2 X-18.09193 Y62.95753 I25.28183 J-32.04904
G1 X-18.09192 Y62.95754
G1 X-18.09194 Y62.95752
G1 X-18.09193 Y62.95753
G2 X-17.32333 Y63.4152 I22.98429 J-37.72482
G3 X-20.00731 Y61.45319 I18.17512 J-27.6799
G3 X-20.0077 Y61.45288 I1.13286 J-1.39674
G3 X-23.79169 Y57.88514 I22.08727 J-27.21663
G3 X-27.03148 Y53.83162 I28.81835 J-26.35462
G3 X-29.31722 Y50.18765 I36.80364 J-25.6246
G3 X-29.32248 Y50.17824 I1.56756 J-0.88147
G1 X-29.60861 Y49.66217
G3 X-29.61713 Y49.64663 I1.57282 J-0.87205
G1 X-29.76705 Y49.36984
G3 X-29.76987 Y49.3646 I1.58134 J-0.85651
G3 X-30.97384 Y46.96999 I43.36853 J-23.30478
G3 X-32.04942 Y44.52305 I48.01092 J-22.56363
G3 X-32.04976 Y44.52222 I1.66408 J-0.68197
G3 X-33.5965 Y40.28956 I54.75933 J-22.40963
G3 X-33.69387 Y39.98557 I15.01601 J-4.97734
G1 X-33.8918 Y39.35086
G3 X-33.89525 Y39.33967 I1.71686 J-0.53539
G3 X-35.32544 Y33.83177 I65.24511 J-19.88126
G3 X-35.32563 Y33.83085 I1.75802 J-0.37898
G3 X-36.04817 Y30.01691 I77.22434 J-16.60519
G3 X-36.04913 Y30.01099 I1.77466 J-0.29123
G3 X-36.24603 Y28.74252 I119.1214 J-19.14065
G3 X-36.24789 Y28.72979 I1.77856 J-0.2664
G1 X-36.34982 Y28.01441
G3 X-36.29726 Y27.26196 I1.78042 J-0.25368
G0 Z3.0
G0 X39.46041 Y20.53855
G0 Z1.0
G1 F300.0 Z-2.0
G3 F800.0 X40.60275 Y21.52932 I-1.05766 J2.3734
G2 X40.52004 Y21.21957 I-25.06082 J6.52584
G1 X40.42578 Y20.88277
G2 X40.28892 Y20.42434 I-20.71404 J5.93443
G1 X40.25074 Y20.30241
G1 X40.22487 Y20.22117
G1 X40.13242 Y19.93921
G3 X40.12203 Y19.9068 I2.46908 J-0.80954
G3 X39.99525 Y20.03005 I-31.46 J-32.23493
G3 X39.98634 Y20.03863 I-1.80754 J-1.86667
G1 X39.74092 Y20.27402
G3 X39.7322 Y20.28235 I-1.79864 J-1.87525
G3 X39.46041 Y20.53855 I-31.86516 J-33.53268
G0 Z3.0
G0 X51.61985 Y-0.0903
G0 Z1.0
G1 F300.0 Z-2.0
G3 F800.0 X51.6609 Y-0.10207 I0.73672 J2.49177
G3 X51.64373 Y-0.18483 I26.73567 J-5.59272
G3 X51.61985 Y-0.0903 I-40.35585 J-10.14176
G1 F300.0 X50.84444 Y-0.2871
G3 F800.0 X50.65975 Y0.41438 I-39.55656 J-10.03948
G3 X50.6563 Y0.42686 I-1.735 J-0.47332
G1 X50.51005 Y0.94811
G3 X50.50474 Y0.96666 I-1.73154 J-0.4858
G1 X50.41799 Y1.26359
G3 X50.41624 Y1.26954 I-1.72623 J-0.50435
G3 X49.69825 Y3.47022 I-40.12568 J-11.87378
G3 X49.6964 Y3.47539 I-1.69362 J-0.60488
G1 X49.58904 Y3.77313
G3 X49.58707 Y3.77856 I-1.69177 J-0.61004
G3 X48.59126 Y6.26718 I-40.1834 J-14.63568
G3 X48.5907 Y6.26846 I-1.64793 J-0.72012
G3 X47.44241 Y8.69089 I-41.06863 J-17.98415
G3 X47.34751 Y8.87514 I-5.92374 J-2.93448
G3 X47.25759 Y9.04719 I-5.97377 J-3.0125
G3 X47.20029 Y9.15586 I-5.19613 J-2.67045
G3 X47.12051 Y9.306 I-5.76742 J-2.96825
G3 X47.01013 Y9.51116 I-6.40467 J-3.31363
G3 X46.95048 Y9.62087 I-5.20827 J-2.76084
G3 X46.87931 Y9.75085 I-5.42993 J-2.88866
G3 X46.79033 Y9.91147 I-5.64504 J-3.02228
G3 X46.11875 Y11.07448 I-36.05316 J-20.04323
G3 X46.11832 Y11.0752 I-1.54255 J-0.92454
G3 X44.63986 Y13.3622 I-34.88796 J-20.93253
G3 X43.20465 Y15.29805 I-31.74252 J-22.03343
G3 X43.20124 Y15.30235 I-1.41057 J-1.11559
G1 X42.99679 Y15.55924
G3 X42.99624 Y15.55994 I-1.40716 J-1.11988
G3 X42.65754 Y15.97629 I-20.54953 J-16.37088
G3 X42.65448 Y15.97996 I-1.38342 J-1.14908
G1 X42.33396 Y16.36377
G3 X42.32996 Y16.36854 I-1.38037 J-1.15275
G3 X41.64198 Y17.16121 I-25.80682 J-21.70347
G3 X41.17011 Y17.68218 I-20.87888 J-18.43712
G3 X39.43874 Y19.45533 I-32.50809 J-30.01032
G3 X39.43257 Y19.46127 I-1.25103 J-1.29196
G1 X39.18715 Y19.69666
G3 X39.18112 Y19.70243 I-1.24487 J-1.2979
G3 X37.10769 Y21.55542 I-31.31408 J-32.95275
G3 X36.9966 Y21.64823 I-2.01107 J-2.29417
G1 X36.62395 Y21.95592
G3 X36.60795 Y21.96898 I-1.14503 J-1.38677
G1 X36.36815 Y22.16239
G1 X36.37332 Y22.15885
G1 X36.55199 Y22.03385
G1 X36.72992 Y21.90766
G1 X37.02909 Y21.69144
G1 X37.33221 Y21.46688
G3 X40.14931 Y22.48329 I1.07053 J1.44506
G3 X40.75707 Y25.4123 I-40.27023 J9.88344
G3 X40.91304 Y26.39526 I-42.69003 J7.27786
G3 X40.91317 Y26.39611 I-1.7793 J0.26141
G3 X41.32594 Y30.50097 I-45.19265 J6.61766
G3 X41.37289 Y34.7913 I-48.09163 J2.67162
G3 X41.01259 Y39.24982 I-46.51012 J-1.51468
G3 X40.16374 Y43.82912 I-41.38607 J-5.3033
G3 X40.16008 Y43.84387 I-1.74723 J-0.42596
G1 X40.03687 Y44.33134
G3 X40.03054 Y44.35567 I-1.74357 J-0.4407
G1 X39.90055 Y44.84128
G3 X39.89555 Y44.85956 I-1.73724 J-0.46503
G3 X39.60364 Y45.86305 I-45.76901 J-12.76963
G3 X39.59947 Y45.87663 I-1.72119 J-0.52128
G1 X39.51403 Y46.15092
G3 X39.51197 Y46.15748 I-1.71703 J-0.53485
G3 X38.69965 Y48.443 I-32.40155 J-10.22909
G3 X36.4786 Y52.94881 I-28.6659 J-11.33001
G3 X36.47737 Y52.95085 I-1.54292 J-0.92393
G3 X33.38322 Y57.17885 I-24.74318 J-14.86147
G3 X33.38293 Y57.17918 I-1.3489 J-1.18942
G3 X31.71441 Y58.92046 I-21.97091 J-19.38272
G3 X31.70718 Y58.92737 I-1.24619 J-1.29663
G1 X31.47272 Y59.15023
G3 X31.46551 Y59.15704 I-1.23897 J-1.30354
G3 X29.37922 Y60.94686 I-20.72687 J-22.04922
G3 X27.01732 Y62.63248 I-19.77047 J-25.20495
G3 X24.53084 Y64.10535 I-18.91047 J-29.08927
G1 X24.53082
G3 X22.23184 Y65.24598 I-18.66493 J-34.73272
G3 X22.22314 Y65.24992 I-0.74645 J-1.63617
G1 X21.90401 Y65.39347
G3 X21.89598 Y65.39706 I-0.73774 J-1.64012
G3 X19.20202 Y66.48096 I-16.70317 J-37.62464
G3 X19.09425 Y66.52026 I-1.13988 J-2.95851
G3 X18.98339 Y66.55952 I-1.11977 J-2.98567
G3 X16.03673 Y67.49371 I-14.82624 J-41.65122
G3 X13.01552 Y68.22822 I-12.26189 J-43.85547
G3 X6.81693 Y69.09568 I-9.67508 J-46.55485
G3 X6.81596 Y69.09575 I-0.13149 J-1.79359
G3 X3.74267 Y69.21981 I-3.45719 J-47.51277
G3 X0.65825 Y69.13704 I-0.38021 J-43.34002
G3 X-3.25774 Y68.71409 I2.47862 J-41.28942
G2 X-2.85247 Y68.79351 I9.24939 J-46.12626
G1 X-2.66961 Y68.82809
G3 X-2.66886 Y68.82824 I-0.3345 J1.76865
G2 X-1.29435 Y69.06403 I7.44331 J-39.265
G3 X-1.28975 Y69.06474 I-0.27334 J1.77912
G2 X2.89079 Y69.52252 I7.06664 J-45.21704
G3 X2.89186 Y69.52258 I-0.11351 J1.79642
G2 X8.71319 Y69.50884 I2.80681 J-44.00183
G1 X8.71325
G2 X14.44935 Y68.71869 I-2.89013 J-42.19641
G2 X19.92954 Y67.15924 I-8.12538 J-38.96308
G1 X19.92959 Y67.15922
G1 X19.92948 Y67.15926
G1 X19.92954 Y67.15924
G2 X24.99558 Y64.87533 I-12.7466 J-35.03442
G2 X29.50867 Y61.94365 I-16.56613 J-30.44184
G1 X29.50868
G1 X29.50867
G2 X33.363 Y58.46522 I-19.66748 J-25.66754
G2 X36.50112 Y54.55118 I-22.94873 J-21.61435
G2 X38.2012 Y51.7351 I-26.18605 J-17.72982
G3 X39.34425 Y50.83965 I1.58726 J0.84888
G3 X39.34031 Y49.38807 I1.64346 J-0.73026
G2 X39.69911 Y48.53481 I-28.92927 J-12.66687
G3 X39.71661 Y48.49294 I1.66783 J0.67274
G3 X39.73383 Y48.44866 I1.68462 J0.62952
G2 X40.21013 Y47.19232 I-28.76282 J-11.62299
G3 X40.21298 Y47.18435 I1.69502 J0.60096
G2 X40.64157 Y45.90919 I-29.88297 J-10.75356
G3 X40.64228 Y45.90693 I1.71644 J0.53673
G2 X41.76517 Y41.43039 I-37.58022 J-11.80564
G3 X41.76523 Y41.43005 I1.767 J0.33461
G2 X42.3811 Y37.0315 I-45.25843 J-8.57936
G1 X42.4274 Y36.49767
G2 X42.49311 Y35.5888 I-48.16975 J-3.93913
G1 X42.51431 Y35.23492
G3 X42.5165 Y35.20319 I1.79518 J0.10757
G3 X42.51766 Y35.17548 I1.79736 J0.06124
G1 X42.54717 Y34.57957
G1 X42.5648 Y34.13662
G2 X42.58395 Y33.48718 I-39.74527 J-1.49702
G3 X42.58397 Y33.48621 I1.79799 J0.03832
G1 X42.58757 Y33.32148
G1 X42.59547 Y32.82045
G2 X42.49971 Y28.92846 I-54.57224 J-0.60445
G3 X42.49965 Y28.92745 I1.79513 J-0.10833
G2 X42.16033 Y25.41479 I-48.14676 J2.87823
G3 X42.16014 Y25.41338 I1.78254 J-0.23829
G2 X41.61719 Y22.32919 I-36.82878 J4.89359
G3 X41.6171 Y22.32877 I1.75645 J-0.38617
G2 X41.29105 Y21.00616 I-26.07517 J5.72639
G1 X41.19552 Y20.66481
G2 X41.05263 Y20.18613 I-21.48378 J6.15238
G1 X41.01361 Y20.06152
G1 X40.98611 Y19.97517
G1 X40.89261 Y19.68997
G3 X41.32176 Y17.86613 I1.70889 J-0.5603
G2 X41.35183 Y17.83458 I-0.86729 J-0.85631
G3 X41.37148 Y17.81353 I1.32409 J1.21697
G1 X41.42525 Y17.75687
G1 X41.5878 Y17.58452
G2 X42.57832 Y16.49909 I-40.64036 J-38.08143
G1 X42.70791 Y16.35257
G3 X42.70928 Y16.35103 I1.34708 J1.19148
G2 X43.57385 Y15.34481 I-32.02569 J-28.39191
G1 X43.82851 Y15.0382
G2 X44.55754 Y14.13088 I-37.71453 J-31.0503
G3 X44.55801 Y14.13028 I1.41523 J1.10966
G2 X44.67473 Y13.98051 I-22.0642 J-17.31516
G3 X44.69861 Y13.95032 I1.42225 J1.10065
G2 X44.75788 Y13.8736 I-1.69688 J-1.37223
G3 X44.79971 Y13.81911 I1.44722 J1.06761
G2 X44.80556 Y13.8115 I-0.19909 J-0.15895
G3 X44.81767 Y13.79529 I1.44668 J1.06835
G1 X45.16745 Y13.33262
G3 X45.18106 Y13.31485 I1.43457 J1.08455
G3 X45.20679 Y13.27968 I1.46425 J1.04413
G2 X45.34031 Y13.09872 I-11.18336 J-8.39075
G3 X45.34215 Y13.09617 I1.45569 J1.05603
G1 X45.49152 Y12.89104
G3 X45.49241 Y12.88981 I1.45385 J1.05857
G2 X45.92204 Y12.28265 I-20.89725 J-15.24262
G3 X45.92315 Y12.28103 I1.48283 J1.01758
G1 X46.03589 Y12.11714
G3 X46.05342 Y12.0921 I1.48171 J1.0192
G3 X46.06572 Y12.0735 I1.50625 J0.98257
G1 X46.34983 Y11.64955
G1 X46.55329 Y11.33725
G2 X47.12537 Y10.41324 I-22.83665 J-14.77802
G3 X47.13738 Y10.39324 I1.54766 J0.91596
G2 X47.20821 Y10.27344 I-4.42354 J-2.69609
G3 X47.21313 Y10.26491 I1.56024 J0.89437
G1 X47.37515 Y9.98582
G2 X47.82416 Y9.17456 I-28.16035 J-16.11588
G3 X47.8249 Y9.17318 I1.58576 J0.8483
G2 X48.44058 Y7.95446 I-24.76569 J-13.27611
G3 X48.44107 Y7.95341 I1.62442 J0.77168
G2 X48.99199 Y6.73472 I-30.86091 J-14.68471
G1 X49.05681 Y6.58198
G2 X49.48008 Y5.52742 I-31.69141 J-13.33247
G1 X49.59671 Y5.21739
G3 X49.60435 Y5.19744 I1.68324 J0.6332
G3 X49.61033 Y5.18062 I1.69747 J0.594
G1 X49.76672 Y4.74756
G1 X49.9139 Y4.32213
G1 X50.01395 Y4.02177
G2 X50.28916 Y3.13933 I-26.08255 J-8.61857
G3 X50.29098 Y3.13316 I1.72561 J0.50647
G2 X50.6128 Y1.9616 I-27.74898 J-8.25238
G3 X52.6483 Y0.62689 I1.74378 J0.43987
G1 X52.56987 Y0.30419
G3 X52.56534 Y0.28508 I1.74753 J-0.42471
G3 X52.23068 Y-1.41021 I25.83123 J-5.97988
G1 X52.23066 Y-1.41031
G1 X52.2307 Y-1.41011
G1 X52.23068 Y-1.41021
G3 X51.99542 Y-3.13695 I31.84558 J-5.21819
G3 X51.9952 Y-3.13898 I1.78784 J-0.19458
G1 X51.96243 Y-3.4433
G3 X51.96106 Y-3.45648 I1.78806 J-0.19255
G1 X51.93054 Y-3.76097
G3 X51.92884 Y-3.77886 I1.78943 J-0.17937
G1 X51.87614 Y-4.36342
G3 X51.86538 Y-4.48276 I2.68543 J-0.3021
G3 X51.85701 Y-4.58882 I2.74526 J-0.27
G3 X51.85464 Y-4.61948 I2.49598 J-0.20834
G3 X51.84938 Y-4.68944 I2.51856 J-0.22454
G1 X51.83629 Y-4.85914
G3 X51.82766 Y-4.96816 I2.86666 J-0.28173
G3 X51.8213 Y-5.05671 I2.91964 J-0.25407
G3 X51.81827 Y-5.09906 I2.75379 J-0.21818
G3 X51.813 Y-5.17169 I2.94961 J-0.2505
G3 X51.8046 Y-5.29817 I3.21791 J-0.27729
G1 X51.78689 Y-5.56518
G3 X51.54991 Y-3.71177 I-33.71608 J-3.36924
G3 X51.54895 Y-3.70568 I-1.77691 J-0.27719
G3 X51.33685 Y-2.49084 I-41.51254 J-6.62171
G3 X51.33406 Y-2.47647 I-1.76687 J-0.33526
G1 X51.25756 Y-2.09048
G3 X51.25292 Y-2.0678 I-1.76409 J-0.34963
G1 X51.14429 Y-1.55446
G3 X51.14344 Y-1.55046 I-1.75944 J-0.37231
G3 X51.0718 Y-1.22978 I-17.9079 J-3.832
G3 X50.84444 Y-0.2871 I-39.78393 J-9.09681
G0 Z3.0
G0 X51.57553 Y-12.79091
G0 Z1.0
G1 F300.0 Z-2.0
G1 F800.0 X51.5755 Y-12.81687
G3 X51.57551 Y-12.82477 I1.7984 J-0.00209
G1 X51.57598 Y-12.96812
G3 X51.57599 Y-12.97123 I1.79839 J0.00581
G1 X51.5767 Y-13.11459
G3 X51.57673 Y-13.11957 I1.79838 J0.00892
G1 X51.57895 Y-13.40631
G3 X51.57907 Y-13.41762 I1.79835 J0.0139
G1 X51.58657 Y-13.95233
G1 X51.17329 Y-13.8189
G3 X51.53513 Y-13.01703 I-1.40851 J1.11818
G1 X51.57508 Y-12.79345
G3 X51.57553 Y-12.79091 I-1.77036 J0.31631
G0 Z3.0
G0 X31.41353 Y-20.46532
G0 Z1.0
G1 F300.0 Z-2.0
G1 F800.0 X31.09326 Y-20.45855
G3 X31.08015 Y-20.45833 I-0.03804 J-1.7996
G1 X30.74394 Y-20.45367
G3 X30.0327 Y-20.45138 I-0.45256 J-30.17293
G3 X28.6378 Y-20.47559 I0.16195 J-49.54191
G3 X28.63042 Y-20.47583 I0.05656 J-1.79911
G1 X28.07138 Y-20.49571
G3 X27.77819 Y-19.26428 I-1.78417 J0.22582
G1 X27.90475 Y-19.30409
G1 X27.99909 Y-19.33405
G1 X28.51852 Y-19.50022
G1 X29.21025 Y-19.7247
G1 X29.65129 Y-19.86977
G1 X30.09535 Y-20.01739
G3 X30.09679 Y-20.01787 I0.56733 J1.70657
G2 X30.96946 Y-20.31265 I-25.65637 J-77.39354
G3 X30.96989 Y-20.3128 I0.58514 J1.70054
G1 X31.41353 Y-20.46532
G0 Z3.0
G0 X99.8853 Y-53.0732
G0 Z1.0
G1 F300.0 Z-2.0
G3 F800.0 X100.25576 Y-53.0815 I0.6832 J22.23515
G3 X100.89181 Y-53.08045 I0.29043 J16.68283
G3 X103.28959 Y-52.90909 I-0.36889 J22.02421
G3 X103.46872 Y-52.88572 I-0.4355 J4.03601
G3 X105.99866 Y-52.39922 I-3.06093 J22.73878
G3 X106.00059 Y-52.39873 I-0.82811 J3.29596
G3 X108.55585 Y-51.59128 I-5.51967 J21.91445
G3 X108.55722 Y-51.59075 I-1.2143 J3.17405
G3 X109.2797 Y-51.29751 I-7.06443 J18.44184
G2 X109.08542 Y-51.40368 I-6.8723 J12.34494
G3 X109.08056 Y-51.40629 I1.60701 J-2.99625
G2 X107.56365 Y-52.11393 I-6.91268 J12.83854
G3 X107.55983 Y-52.11546 I1.25816 J-3.15864
G2 X105.94577 Y-52.65535 I-5.49867 J13.75608
G2 X104.24334 Y-53.01609 I-4.07016 J15.01058
G2 X102.47961 Y-53.18281 I-2.36258 J15.58109
G3 X102.45686 Y-53.18376 I0.1292 J-3.39754
G2 X102.28024 Y-53.18913 I-0.27603 J6.17051
G3 X102.25062 Y-53.18973 I0.05472 J-3.39956
G2 X100.67722 Y-53.14941 I-0.38725 J15.60652
G3 X100.64566 Y-53.14715 I-0.25833 J-3.39017
G2 X100.46109 Y-53.13228 I0.45198 J6.76138
G3 X100.45757 Y-53.13195 I-0.31938 J-3.38497
G1 X100.22515 Y-53.11026
G2 X99.8853 Y-53.0732 I1.78111 J17.91059
G1 F300.0 X99.90987 Y-52.27358
G3 F800.0 X100.26835 Y-52.2816 I0.65863 J21.43552
G3 X100.87682 Y-52.28058 I0.27784 J15.88292
G3 X103.19676 Y-52.11446 I-0.3539 J21.22435
G3 X103.35445 Y-52.09389 I-0.34267 J3.24137
G3 X105.80372 Y-51.62333 I-2.94666 J21.94695
G3 X105.8052 Y-51.62296 I-0.63317 J2.52008
G3 X108.27 Y-50.84409 I-5.32428 J21.13868
G3 X108.27105 Y-50.84369 I-0.92845 J2.42686
G3 X110.62716 Y-49.75052 I-6.77826 J17.69478
G1 X110.62717 Y-49.75051
G3 X112.75807 Y-48.34961 I-7.83167 J14.23378
G3 X112.7598 Y-48.34826 I-1.59341 J2.05249
G3 X114.56624 Y-46.68198 I-8.98313 J11.5511
G3 X114.56788 Y-46.68019 I-1.91592 J1.75526
G3 X115.99144 Y-44.87401 I-11.59481 J10.60261
G3 X117.08784 Y-43.03754 I-15.48673 J10.49142
G3 X117.11271 Y-42.9903 I-18.67756 J9.86167
G2 X116.98901 Y-43.32494 I-13.13504 J4.66524
G1 X116.89789 Y-43.55941
G1 X116.82956 Y-43.72897
G2 X116.73153 Y-43.96317 I-13.05941 J5.32876
G3 X116.71852 Y-43.99401 I2.38924 J-1.02545
G2 X116.68955 Y-44.06105 I-2.18608 J0.90511
G3 X116.66146 Y-44.12571 I2.3704 J-1.06827
G2 X116.6404 Y-44.1734 I-1.23635 J0.51733
G3 X116.6257 Y-44.2056 I2.35765 J-1.09612
G2 X115.75808 Y-45.8998 I-16.79804 J7.53326
G3 X115.75705 Y-45.90157 I2.24983 J-1.30318
G2 X115.64355 Y-46.09408 I-11.37348 J6.57599
G3 X115.63962 Y-46.10063 I2.22839 J-1.33951
G2 X115.20587 Y-46.78953 I-14.7958 J8.83486
G3 X115.20479 Y-46.79116 I2.16687 J-1.4369
G2 X114.74284 Y-47.45573 I-14.89801 J9.86301
G1 X114.59489 Y-47.65556
G2 X114.11345 Y-48.26681 I-11.97737 J8.9385
G3 X114.10547 Y-48.27646 I1.99996 J-1.66138
G2 X113.59135 Y-48.86974 I-11.81378 J9.71803
G3 X113.58643 Y-48.87515 I1.92055 J-1.75257
G2 X112.32494 Y-50.11747 I-11.67756 J10.59612
G3 X112.32307 Y-50.11912 I1.71747 J-1.952
G2 X110.95065 Y-51.19534 I-10.03165 J11.37941
G3 X110.94745 Y-51.19756 I1.48413 J-2.1348
G2 X109.46354 Y-52.10868 I-8.54005 J12.24499
G3 X109.45982 Y-52.11068 I1.22889 J-2.29125
G2 X107.85969 Y-52.85714 I-7.29194 J13.54292
G3 X107.85676 Y-52.85831 I0.96212 J-2.41543
G2 X106.15534 Y-53.42741 I-5.7956 J14.49893
G2 X104.3642 Y-53.80691 I-4.27973 J15.78264
G2 X102.51001 Y-53.98224 I-2.48344 J16.37191
G3 X102.49262 Y-53.98296 I0.0988 J-2.59812
G2 X102.29312 Y-53.98902 I-0.31178 J6.96971
G3 X102.27047 Y-53.98949 I0.04184 J-2.59966
G2 X100.61643 Y-53.9471 I-0.40709 J16.40627
G3 X100.5923 Y-53.94537 I-0.19755 J-2.59248
G2 X100.38594 Y-53.92874 I0.50534 J7.5596
G3 X100.38325 Y-53.92849 I-0.24423 J-2.5885
G1 X100.14843 Y-53.90658
G2 X98.67408 Y-53.70093 I1.85783 J18.70691
G1 X98.67383 Y-53.70088
G2 X96.69891 Y-53.25444 I4.05683 J22.53733
G3 X96.69825 Y-53.25425 I-0.68484 J-2.50819
G2 X94.69673 Y-52.63217 I7.86706 J28.84287
G3 X94.69077 Y-52.6301 I-0.85824 J-2.45427
G2 X93.68578 Y-52.26518 I12.23339 J35.25755
G3 X93.65724 Y-52.25455 I-0.9223 J-2.43092
G2 X93.45596 Y-52.17776 I2.73045 J7.45899
G3 X93.39258 Y-52.15354 I-0.95964 J-2.41642
G2 X93.27832 Y-52.10927 I1.195 J3.25412
G3 X93.25548 Y-52.10008 I-0.98196 J-2.40744
G1 X92.67036 Y-51.86786
G1 X92.16344 Y-51.66045
G2 X90.64846 Y-51.01199 I31.68587 J76.12133
G3 X90.64746 Y-51.01156 I-1.04693 J-2.3799
G2 X88.64008 Y-50.10758 I48.58882 J110.57834
G3 X88.63958 Y-50.10735 I-1.08915 J-2.36088
G1 X87.63654 Y-49.64487
G3 X87.63571 Y-49.64449 I-1.08866 J-2.36111
G2 X87.14876 Y-49.41843 I37.93753 J82.35606
G3 X87.13639 Y-49.41268 I-1.10179 J-2.35501
G2 X86.65309 Y-49.1875 I30.46986 J66.02758
G3 X86.64741 Y-49.18483 I-1.1067 J-2.3527
G1 X86.1596 Y-48.95681
G1 X84.69711 Y-48.26835
G1 X83.74289 Y-47.81387
G1 X83.26626 Y-47.58462
G3 X83.24012 Y-47.57222 I-1.12697 J-2.34306
G3 X83.21412 Y-47.55943 I-1.16094 J-2.32642
G1 X82.79799 Y-47.35753
G1 X82.33037 Y-47.12862
G2 X80.94473 Y-46.43429 I59.71438 J120.89892
G1 X80.71645 Y-46.31714
G1 X80.51809 Y-46.21461
G1 X80.16998 Y-46.03295
G1 X79.64445 Y-45.75428
G2 X79.13246 Y-45.47722 I37.52331 J69.95474
G1 X79.02198 Y-45.41668
G1 X78.59464 Y-45.17986
G1 X78.42439 Y-45.08403
G3 X79.00425 Y-45.37983 I37.2137 J72.23314
G3 X79.00568 Y-45.38055 I1.17148 J2.31934
G3 X80.6117 Y-46.17058 I40.54656 J80.39837
G3 X80.61735 Y-46.17328 I1.12371 J2.34285
G1 X80.84154 Y-46.28015
G3 X80.85454 Y-46.2863 I1.11806 J2.34555
G1 X81.45384 Y-46.56791
G3 X81.4657 Y-46.57345 I1.10506 J2.35171
G1 X81.62591 Y-46.64774
G3 X81.63096 Y-46.65008 I1.09319 J2.35725
G1 X81.7978 Y-46.72702
G3 X81.80292 Y-46.72937 I1.08815 J2.35958
G1 X81.96994 Y-46.80596
G3 X81.97756 Y-46.80944 I1.08303 J2.36193
G1 X82.30985 Y-46.96051
G3 X83.00424 Y-47.27103 I19.56564 J42.82213
G3 X83.48252 Y-47.48078 I11.02644 J24.49215
G1 X84.07792 Y-47.7376
G3 X84.08856 Y-47.74216 I1.02912 J2.38591
G1 X84.24886 Y-47.81046
G3 X84.25799 Y-47.81432 I1.01849 J2.39047
G1 X84.75745 Y-48.02488
G3 X85.29737 Y-48.24888 I12.35815 J29.02355
G1 X85.62909 Y-48.38469
G3 X85.63474 Y-48.387 I0.98448 J2.40468
G1 X85.72483 Y-48.42363
G3 X85.73231 Y-48.42666 I0.97884 J2.40698
G1 X86.21309 Y-48.62044
G3 X86.22296 Y-48.6244 I0.97135 J2.41001
G1 X86.49343 Y-48.73213
G3 X86.83565 Y-48.86715 I9.74638 J24.20008
G1 X87.46838 Y-49.11312
G3 X87.48507 Y-49.11954 I0.94146 J2.42184
G1 X88.12193 Y-49.36208
G3 X88.13615 Y-49.36745 I0.92478 J2.42827
G1 X88.56163 Y-49.52665
G3 X88.56899 Y-49.52939 I0.91056 J2.43363
G1 X88.68262 Y-49.57151
G3 X88.69274 Y-49.57524 I0.90319 J2.43638
G1 X89.29951 Y-49.79732
G3 X89.3172 Y-49.80372 I0.89308 J2.4401
G1 X89.91954 Y-50.01924
G3 X89.93849 Y-50.02594 I0.87538 J2.44651
G1 X90.54257 Y-50.23683
G3 X90.55968 Y-50.24273 I0.85643 J2.4532
G1 X90.96329 Y-50.38049
G3 X90.97253 Y-50.38362 I0.83932 J2.45911
G1 X91.07686 Y-50.4188
G3 X91.68967 Y-50.62171 I12.70563 J37.34545
G3 X91.69276 Y-50.6227 I0.79655 J2.4733
G1 X92.23088 Y-50.79526
G3 X92.2565 Y-50.80333 I0.79346 J2.47429
G1 X92.79631 Y-50.97031
G3 X92.80329 Y-50.97246 I0.76784 J2.48236
G3 X93.96227 Y-51.30774 I11.34682 J37.05221
G3 X96.20693 Y-51.84221 I8.59607 J31.1209
G3 X96.20764 Y-51.84235 I0.51116 J2.54763
G3 X98.5018 Y-52.18388 I4.56284 J22.77388
G3 X98.50566 Y-52.18425 I0.2538 J2.58598
G3 X99.90987 Y-52.27358 I2.06284 J21.3462
G1 F300.0 X99.93444 Y-51.47396
G3 F800.0 X100.28094 Y-51.48169 I0.63406 J20.6359
G3 X100.86182 Y-51.48072 I0.26524 J15.08302
G3 X103.10482 Y-51.31971 I-0.3389 J20.42448
G3 X103.23931 Y-51.30217 I-0.25073 J2.44662
G3 X105.60878 Y-50.84744 I-2.83152 J21.15523
G3 X105.6098 Y-50.84719 I-0.43823 J1.74419
G3 X107.98415 Y-50.0969 I-5.12888 J20.36291
G3 X107.98487 Y-50.09663 I-0.6426 J1.67968
G3 X110.24151 Y-49.04961 I-6.49209 J16.94772
G1 X110.24152 Y-49.0496
G3 X112.26748 Y-47.71769 I-7.44602 J13.53288
G3 X112.26868 Y-47.71675 I-1.10283 J1.42057
G3 X113.97636 Y-46.14157 I-8.49201 J10.91959
G3 X113.9775 Y-46.14033 I-1.32604 J1.21485
G3 X115.32884 Y-44.42572 I-11.00443 J10.06275
G3 X116.37951 Y-42.6657 I-14.82413 J10.04312
G3 X117.20761 Y-40.89666 I-17.96923 J9.48984
G3 X117.44323 Y-40.29545 I-12.76992 J5.35153
G1 X117.46954 Y-40.22412
G3 X117.71098 Y-39.5135 I-12.27203 J4.56585
G3 X117.84884 Y-39.04152 I-13.3378 J4.15176
G3 X118.20056 Y-36.99995 I-9.96425 J2.76774
G3 X118.20129 Y-36.98913 I-1.79396 J0.12628
G3 X118.11792 Y-35.06762 I-8.93548 J0.57487
G2 X118.26447 Y-35.5286 I-11.50953 J-3.91269
G1 X118.26449 Y-35.52867
G1 X118.26445 Y-35.52853
G1 X118.26447 Y-35.5286
G2 X118.62052 Y-37.21732 I-10.35326 J-3.06481
G3 X118.62076 Y-37.21914 I1.78532 J0.2294
G2 X118.7063 Y-38.98498 I-10.91411 J-1.41372
G3 X118.70622 Y-38.98748 I1.79908 J-0.05759
G2 X118.5147 Y-40.823 I-12.58554 J0.38544
G3 X118.5142 Y-40.8258 I1.77178 J-0.3175
G2 X118.05565 Y-42.6894 I-14.42776 J2.56186
G3 X118.05268 Y-42.69886 I1.71595 J-0.54361
G2 X117.73522 Y-43.61333 I-14.07502 J4.3738
G1 X117.64176 Y-43.85382
G1 X117.57093 Y-44.02958
G2 X117.46668 Y-44.2787 I-13.80079 J5.62937
G3 X117.45768 Y-44.30005 I1.65409 J-0.70993
G2 X117.41891 Y-44.38974 I-2.92523 J1.21115
G3 X117.39946 Y-44.43451 I1.64105 J-0.73957
G2 X117.36584 Y-44.51066 I-1.97435 J0.82613
G3 X117.35565 Y-44.53296 I1.63222 J-0.75885
G2 X116.45033 Y-46.30078 I-17.52799 J7.86061
G3 X116.44962 Y-46.302 I1.55757 J-0.9022
G2 X116.32921 Y-46.50624 I-12.06605 J6.97643
G3 X116.32649 Y-46.51077 I1.54273 J-0.92735
G2 X115.8726 Y-47.23165 I-15.48267 J9.245
G3 X115.87185 Y-47.23278 I1.50014 J-0.99477
G2 X115.38749 Y-47.92947 I-15.56508 J10.30463
G1 X115.23695 Y-48.1328
G2 X114.72882 Y-48.77801 I-12.61943 J9.41574
G3 X114.72329 Y-48.78469 I1.38458 J-1.15018
G2 X114.18229 Y-49.409 I-12.4316 J10.22626
G3 X114.17888 Y-49.41274 I1.32961 J-1.21332
G2 X112.8534 Y-50.71808 I-12.27001 J11.1337
G3 X112.8521 Y-50.71923 I1.18902 J-1.35138
G2 X111.40731 Y-51.8522 I-10.56068 J11.97951
G3 X111.40509 Y-51.85374 I1.02747 J-1.47794
G2 X109.84166 Y-52.81368 I-8.99769 J12.90117
G3 X109.83909 Y-52.81506 I0.85077 J-1.58625
G2 X108.15572 Y-53.60035 I-7.67121 J14.24731
G3 X108.1537 Y-53.60116 I0.66609 J-1.67222
G2 X106.36491 Y-54.19948 I-6.09254 J15.24178
G2 X104.48507 Y-54.59773 I-4.4893 J16.5547
G2 X102.54041 Y-54.78166 I-2.60431 J17.16272
G3 X102.52837 Y-54.78216 I0.0684 J-1.7987
G2 X102.30599 Y-54.78892 I-0.34753 J7.76891
G3 X102.29031 Y-54.78924 I0.02897 J-1.79977
G2 X100.55565 Y-54.74478 I-0.42694 J17.20602
G3 X100.53894 Y-54.74359 I-0.13677 J-1.7948
G2 X100.3108 Y-54.7252 I0.5587 J8.35782
G3 X100.30893 Y-54.72503 I-0.16908 J-1.79204
G1 X100.07176 Y-54.7029
G2 X98.53228 Y-54.48826 I1.93449 J19.50323
G1 X98.5321 Y-54.48823
G2 X96.48819 Y-54.02619 I4.19855 J23.32468
G3 X96.48773 Y-54.02606 I-0.47412 J-1.73644
G2 X94.43266 Y-53.38733 I8.07757 J29.61467
G3 X94.42853 Y-53.3859 I-0.59416 J-1.69911
G2 X93.40199 Y-53.01316 I12.49563 J36.01335
G3 X93.38223 Y-53.00579 I-0.63851 J-1.68294
G2 X93.16069 Y-52.92127 I3.00545 J8.21023
G3 X93.11681 Y-52.9045 I-0.66437 J-1.67291
G2 X92.97618 Y-52.85002 I1.47077 J4.00509
G3 X92.96036 Y-52.84366 I-0.67982 J-1.66669
G1 X92.37133 Y-52.60988
G1 X91.85826 Y-52.39996
G2 X90.32632 Y-51.74427 I31.99106 J76.86083
G3 X90.32564 Y-51.74397 I-0.7248 J-1.64763
G2 X88.30495 Y-50.83401 I48.91065 J111.31075
G3 X88.30461 Y-50.83385 I-0.75403 J-1.63446
G1 X87.30157 Y-50.37137
G3 X87.30099 Y-50.3711 I-0.75368 J-1.63461
G2 X86.80975 Y-50.14304 I38.27224 J83.08267
G3 X86.80119 Y-50.13907 I-0.76278 J-1.63039
G2 X86.31257 Y-49.9114 I30.80507 J66.75396
G3 X86.30864 Y-49.90956 I-0.76618 J-1.62879
G1 X85.81985 Y-49.68108
G1 X84.35474 Y-48.99139
G1 X83.39751 Y-48.53547
G1 X82.9195 Y-48.30556
G3 X82.89208 Y-48.29266 I-0.78021 J-1.62212
G3 X82.86491 Y-48.27919 I-0.81291 J-1.60598
G1 X82.44752 Y-48.07668
G1 X81.97737 Y-47.84653
G2 X80.58085 Y-47.14675 I60.06738 J121.61683
G1 X80.35015 Y-47.02836
G1 X80.14936 Y-46.92457
G1 X79.79753 Y-46.74097
G1 X79.26799 Y-46.46016
G2 X78.74857 Y-46.1791 I37.89977 J70.66063
G1 X78.63586 Y-46.11733
G1 X78.20455 Y-45.87831
G1 X77.88648 Y-45.69928
G1 X77.40076 Y-45.42123
G3 X77.39661 Y-45.41886 I-0.89425 J-1.56215
G2 X76.94319 Y-45.154 I11.38377 J20.00904
G3 X76.93882 Y-45.15139 I-0.92556 J-1.54381
G1 X76.47443 Y-44.87476
G1 X76.1349 Y-44.66915
G1 X75.62338 Y-44.35405
G1 X75.11267 Y-44.03321
G2 X73.28404 Y-42.83756 I44.26398 J69.69306
G1 X72.81425 Y-42.51999
G1 X72.46583 Y-42.28216
G1 X71.94144 Y-41.92089
G1 X71.41909 Y-41.55758
G1 X70.4645 Y-40.88667
G2 X69.51927 Y-40.21648 I95.65272 J135.90994
G3 X69.51601 Y-40.21415 I-1.04622 J-1.46473
G1 X67.56705 Y-38.82862
G3 X67.56199 Y-38.82503 I-1.04295 J-1.46706
G1 X66.56663 Y-38.12257
G3 X66.55906 Y-38.11725 I-1.03789 J-1.47064
G1 X65.56119 Y-37.42067
G3 X65.04501 Y-37.06407 I-28.24675 J-40.33536
G3 X64.83455 Y-36.91962 I-5.71261 J-8.0974
G1 X64.6755 Y-36.81073
G3 X64.67359 Y-36.80942 I-1.01686 J-1.48526
G1 X64.52631 Y-36.70887
G3 X64.52213 Y-36.70602 I-1.01495 J-1.48656
G1 X64.00584 Y-36.35564
G3 X64.00075 Y-36.3522 I-1.01078 J-1.48941
G1 X63.74195 Y-36.17786
G3 X63.73931 Y-36.17608 I-1.00569 J-1.49285
G1 X63.60975 Y-36.08913
G3 X63.60795 Y-36.08793 I-1.00304 J-1.49463
G1 X63.47837 Y-36.0012
G3 X63.47654 Y-35.99997 I-1.00125 J-1.49583
G1 X63.34457 Y-35.91187
G3 X63.34005 Y-35.90886 I-0.99941 J-1.49706
G1 X62.84434 Y-35.58009
G3 X62.83508 Y-35.57399 I-0.9949 J-1.50006
G1 X62.0886 Y-35.08548
G3 X62.07698 Y-35.07794 I-0.98564 J-1.50616
G1 X61.32672 Y-34.59518
G3 X61.31633 Y-34.58854 I-0.97402 J-1.5137
G1 X60.76756 Y-34.24072
G3 X60.75974 Y-34.23579 I-0.96362 J-1.52034
G1 X60.34682 Y-33.97703
G3 X60.33833 Y-33.97175 I-0.9558 J-1.52527
G1 X59.71686 Y-33.5871
G3 X59.7066 Y-33.5808 I-0.94731 J-1.53056
G1 X59.08251 Y-33.20028
G3 X59.07268 Y-33.19433 I-0.93705 J-1.53686
G1 X58.50198 Y-32.85135
G3 X58.49981 Y-32.85005 I-0.92721 J-1.54282
G3 X56.74326 Y-31.82292 I-49.26269 J-82.23147
G1 X56.59625 Y-31.73884
G3 X56.59528 Y-31.73829 I-0.89362 J-1.56251
G3 X54.33041 Y-30.47747 I-58.80791 J-102.97528
G3 X54.32951 Y-30.47698 I-0.85827 J-1.58221
G3 X51.85513 Y-29.16708 I-69.60455 J-128.48899
G3 X51.85031 Y-29.16459 I-0.82689 J-1.59883
G1 X51.23366 Y-28.84802
G3 X51.2242 Y-28.8432 I-0.82207 J-1.60131
G1 X50.29649 Y-28.37384
G3 X50.28554 Y-28.36835 I-0.8126 J-1.60614
G1 X49.35465 Y-27.90531
G3 X49.3459 Y-27.90098 I-0.80165 J-1.61163
G1 X48.73424 Y-27.60086
G3 X48.72584 Y-27.59677 I-0.7929 J-1.61595
G1 X47.806 Y-27.15133
G3 X47.79983 Y-27.14836 I-0.78451 J-1.62004
G1 X47.5694 Y-27.03785
G3 X47.56636 Y-27.0364 I-0.77834 J-1.62302
G1 X47.22047 Y-26.87132
G3 X47.21685 Y-26.8696 I-0.7753 J-1.62447
G1 X46.87065 Y-26.70531
G3 X46.8658 Y-26.70302 I-0.77168 J-1.62619
G1 X46.63075 Y-26.59233
G2 X47.04728 Y-26.7814 I-87.25015 J-192.77714
G1 X47.23604 Y-26.86742
G1 X47.73977 Y-27.09806
G1 X48.41095 Y-27.40786
G1 X48.7945 Y-27.58618
G3 X48.79483 Y-27.58634 I0.75819 J1.63077
G2 X51.18828 Y-28.72109 I-72.26815 J-155.52229
G1 X51.18846 Y-28.72117
G1 X51.53103 Y-28.88679
G1 X51.92045 Y-29.07607
G1 X52.36485 Y-29.29341
G3 X52.3721 Y-29.29694 I0.79009 J1.61555
G2 X52.79507 Y-29.50516 I-14.45552 J-29.89721
G3 X52.80741 Y-29.51129 I0.80574 J1.6078
G2 X53.6826 Y-29.94648 I-47.3534 J-96.32648
G1 X53.68265 Y-29.94651
G1 X54.27108 Y-30.24244
G1 X55.05284 Y-30.63983
G2 X58.12716 Y-32.25266 I-78.7047 J-153.76108
G2 X61.10036 Y-33.8949 I-80.44613 J-149.15625
G2 X63.85246 Y-35.49173 I-88.51685 J-155.7264
G1 X63.9381 Y-35.54258
G1 X64.92465 Y-36.13308
G1 X65.90716 Y-36.72911
G1 X66.56103 Y-37.12962
G1 X66.64311 Y-37.18008
G1 X67.61736 Y-37.78184
G1 X67.94007 Y-37.98209
G1 X69.23923 Y-38.79087
G1 X69.23929 Y-38.79091
G1 X69.23918 Y-38.79084
G1 X69.23923 Y-38.79087
G1 X70.49654 Y-39.57373
G3 X70.5013 Y-39.57669 I0.95057 J1.52665
G1 X71.76113 Y-40.35569
G3 X71.76631 Y-40.35887 I0.94581 J1.5296
G1 X72.03414 Y-40.52324
G3 X72.03648 Y-40.52467 I0.94064 J1.53279
G1 X72.30457 Y-40.68863
G3 X72.30854 Y-40.69105 I0.93831 J1.53422
G1 X72.84558 Y-41.01759
G3 X72.85056 Y-41.02061 I0.93433 J1.53664
G1 X73.20932 Y-41.23716
G3 X73.21457 Y-41.24032 I0.92935 J1.53966
G1 X73.69391 Y-41.52743
G3 X73.69802 Y-41.52988 I0.9241 J1.54282
G1 X73.82606 Y-41.60611
G3 X73.82795 Y-41.60723 I0.91999 J1.54527
G1 X73.96464 Y-41.68839
G3 X73.9667 Y-41.68961 I0.91811 J1.54639
G1 X74.11262 Y-41.77598
G3 X74.11489 Y-41.77733 I0.91604 J1.54761
G1 X74.27021 Y-41.86895
G3 X76.47942 Y-43.13443 I48.43427 J81.9929
G3 X76.48227 Y-43.13601 I0.87295 J1.57232
G1 X76.79469 Y-43.30873
G3 X76.79658 Y-43.30977 I0.8701 J1.5739
G3 X79.36493 Y-44.66575 I38.84151 J70.45888
G3 X79.36591 Y-44.66625 I0.8108 J1.60525
G3 X80.95767 Y-45.44926 I40.18632 J79.68406
G3 X80.96158 Y-45.45113 I0.77774 J1.62153
G1 X81.18577 Y-45.55799
G3 X81.19477 Y-45.56225 I0.77383 J1.6234
G1 X81.79406 Y-45.84386
G3 X81.80228 Y-45.84769 I0.76483 J1.62766
G1 X81.96248 Y-45.92199
G3 X81.96598 Y-45.92361 I0.75662 J1.63149
G1 X82.13282 Y-46.00055
G3 X82.13636 Y-46.00218 I0.75312 J1.63311
G1 X82.30339 Y-46.07876
G3 X82.30866 Y-46.08117 I0.74958 J1.63474
G1 X82.64163 Y-46.23255
G3 X83.32881 Y-46.53981 I19.23385 J42.09417
G3 X83.79802 Y-46.74562 I10.70187 J23.76094
G1 X84.39477 Y-47.00302
G3 X84.40213 Y-47.00617 I0.71227 J1.65134
G1 X84.56244 Y-47.07447
G3 X84.56875 Y-47.07715 I0.70491 J1.65449
G1 X85.06955 Y-47.28826
G3 X85.59877 Y-47.50783 I12.04605 J28.28694
G1 X85.9322 Y-47.64434
G3 X85.9361 Y-47.64593 I0.68138 J1.66432
G1 X86.02619 Y-47.68257
G3 X86.03137 Y-47.68466 I0.67747 J1.66592
G1 X86.51215 Y-47.87844
G3 X86.51898 Y-47.88118 I0.67229 J1.66801
G1 X86.79089 Y-47.98948
G3 X87.12476 Y-48.12122 I9.44892 J23.45744
G1 X87.75824 Y-48.36748
G3 X87.76979 Y-48.37192 I0.6516 J1.6762
G1 X88.40665 Y-48.61447
G3 X88.41649 Y-48.61818 I0.64005 J1.68065
G1 X88.84197 Y-48.77738
G3 X88.84707 Y-48.77927 I0.63021 J1.68436
G1 X88.9607 Y-48.8214
G3 X88.9677 Y-48.82398 I0.62511 J1.68626
G1 X89.57447 Y-49.04605
G3 X89.58672 Y-49.05049 I0.61812 J1.68884
G1 X90.18906 Y-49.26601
G3 X90.20217 Y-49.27064 I0.60587 J1.69327
G1 X90.80624 Y-49.48153
G3 X90.81809 Y-49.48562 I0.59275 J1.69791
G1 X91.2217 Y-49.62338
G3 X91.2281 Y-49.62554 I0.58091 J1.702
G1 X91.33348 Y-49.66107
G3 X91.93491 Y-49.86022 I12.44901 J36.58773
G3 X91.93705 Y-49.86091 I0.55131 J1.71181
G1 X92.47517 Y-50.03347
G3 X92.4929 Y-50.03906 I0.54917 J1.7125
G1 X93.03271 Y-50.20603
G3 X93.03755 Y-50.20752 I0.53143 J1.71809
G3 X94.17393 Y-50.53624 I11.11257 J36.28727
G3 X96.36431 Y-51.05784 I8.3844 J30.34941
G3 X96.3648 Y-51.05794 I0.35378 J1.76326
G3 X98.57994 Y-51.3877 I4.40568 J21.98947
G3 X98.58262 Y-51.38796 I0.17566 J1.7898
G3 X99.93444 Y-51.47396 I1.98589 J20.54991
G0 Z3.0
G0 X99.43014 Y-55.43529
G0 Z1.0
G1 F300.0 Z-2.0
G2 F800.0 X98.39047 Y-55.27559 I2.57612 J20.23561
G1 X98.39038 Y-55.27557
G2 X96.27747 Y-54.79794 I4.34028 J24.11203
G3 X96.27722 Y-54.79787 I-0.2634 J-0.96469
G2 X94.16858 Y-54.14249 I8.28808 J30.38648
G3 X94.16629 Y-54.1417 I-0.33009 J-0.94395
G2 X93.11821 Y-53.76113 I12.75787 J36.76915
G3 X93.10723 Y-53.75704 I-0.35473 J-0.93497
G2 X92.86541 Y-53.66478 I3.28045 J8.96148
G3 X92.84104 Y-53.65547 I-0.36909 J-0.92939
G2 X92.67404 Y-53.59077 I1.74654 J4.75606
G3 X92.66525 Y-53.58723 I-0.37768 J-0.92594
G1 X92.07229 Y-53.3519
G1 X91.55308 Y-53.13947
G2 X90.00419 Y-52.47655 I32.29623 J77.60034
G3 X90.00381 Y-52.47638 I-0.40267 J-0.91535
G2 X87.96983 Y-51.56043 I49.23247 J112.04316
G3 X87.96964 Y-51.56034 I-0.4189 J-0.90803
G1 X86.9666 Y-51.09786
G3 X86.96628 Y-51.09771 I-0.41871 J-0.90812
G2 X86.47074 Y-50.86766 I38.60696 J83.80928
G3 X86.46598 Y-50.86545 I-0.42377 J-0.90577
G2 X85.97204 Y-50.63531 I31.14027 J67.48035
G3 X85.96986 Y-50.63429 I-0.42565 J-0.90489
G1 X85.4801 Y-50.40535
G1 X84.01237 Y-49.71443
G1 X83.05213 Y-49.25708
G1 X82.57274 Y-49.0265
G3 X82.55182 Y-49.01674 I-0.43345 J-0.90118
G2 X82.53637 Y-49.00927 I0.14268 J0.31506
G3 X82.51569 Y-48.99894 I-0.45719 J-0.88937
G1 X82.09704 Y-48.79582
G1 X81.62437 Y-48.56444
G2 X80.21696 Y-47.8592 I60.42038 J122.33474
G1 X79.98385 Y-47.73957
G1 X79.78063 Y-47.63453
G1 X79.42507 Y-47.44898
G1 X78.89153 Y-47.16606
G2 X78.36468 Y-46.88097 I38.27623 J71.36652
G1 X78.24973 Y-46.81798
G1 X77.81445 Y-46.57676
G1 X77.49154 Y-46.395
G1 X77.00331 Y-46.11552
G3 X77.00101 Y-46.1142 I-0.49681 J-0.86786
G2 X76.53183 Y-45.84014 I11.77937 J20.70438
G3 X76.5294 Y-45.83869 I-0.5142 J-0.85767
G1 X76.06252 Y-45.56057
G1 X75.7179 Y-45.35188
G1 X75.2008 Y-45.03334
G1 X74.68544 Y-44.70959
G2 X72.83671 Y-43.50081 I44.69121 J70.36943
G1 X72.36473 Y-43.18175
G1 X72.01339 Y-42.94193
G1 X71.48611 Y-42.57867
G1 X70.96068 Y-42.21322
G1 X70.00428 Y-41.54104
G2 X69.05429 Y-40.86747 I96.11294 J136.5643
G3 X69.05247 Y-40.86618 I-0.58123 J-0.81374
G1 X67.10352 Y-39.48064
G3 X67.10071 Y-39.47865 I-0.57942 J-0.81503
G1 X66.10535 Y-38.77619
G3 X66.10114 Y-38.77323 I-0.57661 J-0.81702
G1 X65.10277 Y-38.07631
G3 X64.58905 Y-37.72145 I-27.78834 J-39.67972
G3 X64.38656 Y-37.58244 I-5.25665 J-7.44002
G1 X64.22356 Y-37.47084
G3 X64.2225 Y-37.47012 I-0.56492 J-0.82514
G1 X64.07522 Y-37.36956
G3 X64.0729 Y-37.36798 I-0.56386 J-0.82587
G1 X63.5566 Y-37.0176
G3 X63.55378 Y-37.01569 I-0.56154 J-0.82745
G1 X63.29498 Y-36.84134
G3 X63.29351 Y-36.84036 I-0.55871 J-0.82936
G1 X63.16395 Y-36.75341
G3 X63.16295 Y-36.75274 I-0.55725 J-0.83035
G1 X63.03338 Y-36.66601
G3 X63.03236 Y-36.66533 I-0.55625 J-0.83102
G1 X62.90038 Y-36.57723
G3 X62.89788 Y-36.57556 I-0.55523 J-0.8317
G1 X62.40216 Y-36.24678
G3 X62.39702 Y-36.24339 I-0.55272 J-0.83337
G1 X61.65054 Y-35.75489
G3 X61.64408 Y-35.7507 I-0.54758 J-0.83675
G1 X60.89383 Y-35.26793
G3 X60.88805 Y-35.26424 I-0.54112 J-0.84094
G1 X60.33928 Y-34.91642
G3 X60.33494 Y-34.91368 I-0.53535 J-0.84463
G1 X59.92202 Y-34.65493
G3 X59.9173 Y-34.65199 I-0.531 J-0.84737
G1 X59.29584 Y-34.26735
G3 X59.29013 Y-34.26385 I-0.52628 J-0.85031
G1 X58.66605 Y-33.88333
G3 X58.66058 Y-33.88002 I-0.52058 J-0.85381
G1 X58.08989 Y-33.53704
G3 X58.08868 Y-33.53632 I-0.51512 J-0.85712
G3 X56.34644 Y-32.51757 I-48.85156 J-81.5452
G1 X56.19908 Y-32.43329
G3 X56.19855 Y-32.43298 I-0.49645 J-0.86806
G3 X53.94895 Y-31.18067 I-58.41117 J-102.28058
G3 X53.94845 Y-31.1804 I-0.47682 J-0.879
G3 X51.48763 Y-29.87767 I-69.22349 J-127.78557
G3 X51.48494 Y-29.87629 I-0.45938 J-0.88824
G1 X50.8683 Y-29.55972
G3 X50.86304 Y-29.55704 I-0.4567 J-0.88962
G1 X49.93533 Y-29.08768
G3 X49.92925 Y-29.08463 I-0.45144 J-0.8923
G1 X48.99836 Y-28.62159
G3 X48.9935 Y-28.61919 I-0.44536 J-0.89535
G1 X48.38183 Y-28.31906
G3 X48.37717 Y-28.31679 I-0.4405 J-0.89775
G1 X47.45733 Y-27.87135
G3 X47.4539 Y-27.8697 I-0.43584 J-0.90002
G1 X47.22347 Y-27.75919
G3 X47.22178 Y-27.75839 I-0.43241 J-0.90168
G1 X46.87589 Y-27.5933
G3 X46.87388 Y-27.59235 I-0.43072 J-0.90248
G1 X46.52768 Y-27.42806
G3 X46.52499 Y-27.42679 I-0.42871 J-0.90344
G1 X45.93713 Y-27.14997
G3 X45.48833 Y-26.94035 I-12.12844 J-25.38202
G3 X45.31366 Y-26.85926 I-3.7938 J-7.94262
G1 X44.73466 Y-26.59188
G3 X44.73139 Y-26.59038 I-0.41925 J-0.90787
G1 X44.14728 Y-26.32319
G3 X44.1451 Y-26.3222 I-0.41597 J-0.90938
G3 X41.91985 Y-25.32755 I-80.30538 J-176.67563
G3 X41.9162 Y-25.32596 I-0.40233 J-0.91549
G1 X40.91733 Y-24.89173
G3 X40.9127 Y-24.88973 I-0.39868 J-0.91709
G1 X40.41213 Y-24.67512
G3 X40.40889 Y-24.67374 I-0.39404 J-0.91909
G1 X39.90764 Y-24.46093
G3 X39.9046 Y-24.45965 I-0.3908 J-0.92048
G3 X38.14765 Y-23.7314 I-70.09622 J-166.62936
G3 X38.14437 Y-23.73007 I-0.37804 J-0.92579
G1 X37.77438 Y-23.58051
G3 X37.77047 Y-23.57894 I-0.37476 J-0.92712
G1 X37.22959 Y-23.36295
G3 X37.1272 Y-23.32232 I-0.74372 J-1.72494
G3 X36.9073 Y-23.23565 I-13.98831 J-35.16805
G3 X36.77017 Y-23.18166 I-1.2478 J-2.9682
G3 X36.71264 Y-23.15919 I-0.86384 J-2.12699
G3 X36.63851 Y-23.13047 I-0.8243 J-2.01772
G1 X36.33842 Y-23.01393
G3 X36.33594 Y-23.01297 I-0.36202 J-0.93217
G1 X36.10292 Y-22.92319
G3 X36.09873 Y-22.92159 I-0.35953 J-0.93313
G1 X35.39855 Y-22.65541
G3 X35.39341 Y-22.65348 I-0.35534 J-0.93474
G1 X34.86706 Y-22.45669
G3 X34.86336 Y-22.45531 I-0.3502 J-0.93668
G1 X34.34827 Y-22.26505
G3 X34.26328 Y-22.23384 I-0.70135 J-1.77859
G1 X33.41824 Y-21.92563
G3 X33.41592 Y-21.92479 I-0.34264 J-0.93947
G1 X33.20821 Y-21.84962
G3 X33.20689 Y-21.84914 I-0.34032 J-0.94031
G1 X32.89528 Y-21.73685
G3 X32.89389 Y-21.73635 I-0.33901 J-0.94078
G1 X32.73801 Y-21.68044
G3 X32.73724 Y-21.68017 I-0.33762 J-0.94128
G1 X32.65926 Y-21.65227
G3 X32.65871 Y-21.65207 I-0.33685 J-0.94156
G1 X32.58076 Y-21.62424
G3 X32.57729 Y-21.623 I-0.3363 J-0.94175
G1 X31.72531 Y-21.32229
G3 X31.41361 Y-21.2655 I-0.33283 J-0.94299
G1 X31.07636 Y-21.25838
G3 X31.06907 Y-21.25825 I-0.02113 J-0.99978
G1 X30.73239 Y-21.25359
G3 X30.03744 Y-21.25137 I-0.44101 J-29.37302
G3 X28.66294 Y-21.27519 I0.15721 J-48.74192
G3 X28.65884 Y-21.27533 I0.03142 J-0.99951
G1 X28.08596 Y-21.2957
G3 X28.07586 Y-21.29611 I0.03553 J-0.99937
G1 X27.51943 Y-21.32152
G3 X27.40166 Y-21.32748 I0.03385 J-1.83487
G1 X27.24475 Y-21.33584
G3 X27.24388 Y-21.33589 I0.05318 J-0.99858
G3 X25.82754 Y-21.42855 I3.40745 J-62.95286
G3 X23.77708 Y-21.60946 I5.9248 J-78.8605
G3 X23.69439 Y-21.61734 I0.12305 J-1.73066
G3 X23.60537 Y-21.62682 I0.14045 J-1.74111
G1 X22.89727 Y-21.70091
G3 X22.89369 Y-21.70129 I0.10406 J-0.99457
G3 X20.22553 Y-22.0155 I15.41633 J-142.39478
G1 X19.84753 Y-22.06352
G3 X19.84457 Y-22.06391 I0.12604 J-0.99203
G1 X18.9387 Y-22.18175
G3 X18.93503 Y-22.18223 I0.129 J-0.99164
G1 X18.0297 Y-22.30341
G3 X18.0276 Y-22.3037 I0.13267 J-0.99116
G1 X17.76896 Y-22.33888
G3 X17.76802 Y-22.339 I0.13477 J-0.99088
G1 X17.47249 Y-22.37949
G3 X17.47076 Y-22.37972 I0.13571 J-0.99075
G1 X16.68296 Y-22.48904
G3 X16.67933 Y-22.48955 I0.13744 J-0.99051
G1 X15.04537 Y-22.7224
G3 X15.04217 Y-22.72286 I0.14108 J-0.99
G1 X14.49771 Y-22.80224
G3 X14.49643 Y-22.80243 I0.14427 J-0.98954
G1 X14.18956 Y-22.84758
G3 X13.82821 Y-22.90107 I2.71162 J-19.56237
G3 X13.41688 Y-22.96257 I3.17153 J-22.62126
G3 X11.25072 Y-23.29607 I37.33461 J-249.69525
G3 X11.24948 Y-23.29627 I0.15646 J-0.98768
G1 X10.52938 Y-23.41126
G3 X10.52692 Y-23.41166 I0.15769 J-0.98749
G1 X10.11578 Y-23.47836
G3 X7.65028 Y-23.89684 I25.91942 J-160.17807
G3 X7.64841 Y-23.89718 I0.17493 J-0.98458
G1 X6.83295 Y-24.04366
G3 X6.82837 Y-24.0445 I0.1768 J-0.98425
G3 X5.03422 Y-24.38392 I36.12735 J-195.87709
G3 X5.02946 Y-24.38485 I0.19039 J-0.98171
G1 X4.43543 Y-24.50305
G3 X4.42948 Y-24.50425 I0.19514 J-0.98077
G1 X3.63843 Y-24.66664
G3 X3.63225 Y-24.66793 I0.2011 J-0.97957
G1 X3.06352 Y-24.78844
G3 X3.05809 Y-24.7896 I0.20728 J-0.97828
G1 X2.49006 Y-24.91326
G3 X2.48717 Y-24.91389 I0.21271 J-0.97712
G3 X1.34204 Y-25.17371 I21.7625 J-98.57001
G3 X1.33778 Y-25.17471 I0.22693 J-0.97391
G1 X0.58372 Y-25.3539
G3 X0.58071 Y-25.35462 I0.23119 J-0.97291
G3 X-2.31633 Y-26.1059 I20.22022 J-83.93304
G3 X-2.31924 Y-26.10671 I0.26776 J-0.96348
G1 X-3.11171 Y-26.32953
G3 X-3.11961 Y-26.33178 I0.27067 J-0.96267
G1 X-3.91018 Y-26.56109
G3 X-3.91442 Y-26.56233 I0.27857 J-0.96042
G1 X-4.01977 Y-26.59339
G3 X-4.02076 Y-26.59368 I0.28281 J-0.95918
G1 X-4.13307 Y-26.62693
G3 X-4.13412 Y-26.62724 I0.2838 J-0.95888
G1 X-4.25389 Y-26.66283
G3 X-4.25718 Y-26.66381 I0.28485 J-0.95857
G1 X-4.89498 Y-26.85572
G3 X-4.89833 Y-26.85674 I0.28814 J-0.95759
G1 X-5.06828 Y-26.90852
G3 X-5.0706 Y-26.90923 I0.29148 J-0.95658
G3 X-7.40163 Y-27.64237 I55.13908 J-179.38875
G3 X-7.40267 Y-27.6427 I0.30623 J-0.95196
G1 X-7.73311 Y-27.7494
G3 X-7.73554 Y-27.75018 I0.30726 J-0.95162
G1 X-8.7259 Y-28.07275
G3 X-8.72782 Y-28.07338 I0.30969 J-0.95084
G1 X-9.05775 Y-28.18158
G3 X-9.05929 Y-28.18208 I0.31162 J-0.95021
G1 X-10.37817 Y-28.61697
G3 X-10.37987 Y-28.61753 I0.31315 J-0.9497
G1 X-13.07464 Y-29.51143
G3 X-13.07592 Y-29.51186 I0.31485 J-0.94914
G1 X-14.47464 Y-29.97794
G3 X-14.4767 Y-29.97863 I0.31613 J-0.94872
G1 X-15.87436 Y-30.44773
G3 X-15.87707 Y-30.44864 I0.31819 J-0.94803
G1 X-16.69916 Y-30.72718
G3 X-16.70191 Y-30.72811 I0.32089 J-0.94712
G1 X-17.5231 Y-31.009
G3 X-17.52585 Y-31.00995 I0.32364 J-0.94618
G1 X-18.07281 Y-31.19882
G3 X-18.07578 Y-31.19984 I0.32639 J-0.94523
G1 X-18.8042 Y-31.45393
G3 X-18.80733 Y-31.45503 I0.32936 J-0.94421
G1 X-19.29178 Y-31.62582
G3 X-19.29451 Y-31.62679 I0.33249 J-0.94311
G1 X-19.77853 Y-31.79901
G3 X-19.783 Y-31.80061 I0.33522 J-0.94214
G1 X-20.74599 Y-32.14842
G3 X-21.01865 Y-32.24802 I4.53432 J-12.83521
G3 X-21.12031 Y-32.28563 I0.58763 J-1.74489
G1 X-21.86209 Y-32.56094
G3 X-21.86513 Y-32.56207 I0.34796 J-0.93751
G3 X-23.68606 Y-33.25987 I46.84667 J-124.9734
G3 X-23.68769 Y-33.26051 I0.36465 J-0.93115
G1 X-23.94497 Y-33.36178
G3 X-23.94732 Y-33.36271 I0.36627 J-0.93051
G1 X-24.24105 Y-33.47919
G3 X-24.24572 Y-33.48105 I0.36862 J-0.92958
G1 X-25.02738 Y-33.79556
G3 X-25.03215 Y-33.7975 I0.37328 J-0.92772
G1 X-25.33455 Y-33.92098
G3 X-25.33724 Y-33.92209 I0.37805 J-0.92579
G1 X-25.63855 Y-34.04615
G3 X-25.84345 Y-34.13109 I10.33079 J-25.21026
G3 X-26.65631 Y-34.4728 I22.21044 J-53.97129
G3 X-28.26498 Y-35.17152 I53.6934 J-125.82134
G3 X-28.26691 Y-35.17237 I0.40426 J-0.91465
G3 X-31.31604 Y-36.57897 I48.90167 J-110.01421
G3 X-31.42258 Y-36.62986 I1.52182 J-3.3225
G3 X-31.5295 Y-36.68134 I1.59371 J-3.44686
G3 X-32.28513 Y-37.04794 I23.7661 J-49.94847
G3 X-32.39746 Y-37.10294 I2.59735 J-5.44745
G3 X-32.52238 Y-37.1643 I3.15157 J-6.5734
G3 X-32.8577 Y-37.32986 I8.73049 J-18.10467
G3 X-34.17366 Y-37.99076 I86.10077 J-173.08065
G3 X-34.17638 Y-37.99215 I0.4522 J-0.89192
G1 X-34.55 Y-38.18301
G3 X-34.55201 Y-38.18405 I0.45493 J-0.89053
G1 X-34.75083 Y-38.28618
G3 X-36.42139 Y-39.15925 I56.93106 J-110.96801
G3 X-36.42172 Y-39.15943 I0.46987 J-0.88274
G1 X-36.97183 Y-39.45251
G3 X-36.97562 Y-39.45454 I0.47019 J-0.88256
G1 X-37.70749 Y-39.84849
G3 X-37.71012 Y-39.84992 I0.47399 J-0.88053
G1 X-37.90499 Y-39.95557
G3 X-37.90631 Y-39.95629 I0.47662 J-0.87911
G1 X-38.19165 Y-40.11154
G3 X-38.19319 Y-40.11238 I0.47794 J-0.87839
G1 X-38.4783 Y-40.26816
G3 X-38.48052 Y-40.26938 I0.47947 J-0.87756
G1 X-39.04998 Y-40.58239
G3 X-39.05414 Y-40.58469 I0.4817 J-0.87634
G1 X-40.18996 Y-41.21606
G3 X-40.19419 Y-41.21843 I0.48586 J-0.87404
G1 X-40.9494 Y-41.64305
G3 X-40.95243 Y-41.64476 I0.4901 J-0.87167
G1 X-41.68919 Y-42.06237
G3 X-41.69078 Y-42.06328 I0.49312 J-0.86996
G1 X-41.79598 Y-42.12316
G3 X-41.79765 Y-42.12412 I0.49472 J-0.86905
G1 X-42.63799 Y-42.60463
G3 X-42.63959 Y-42.60554 I0.49638 J-0.8681
G1 X-42.75157 Y-42.66985
G3 X-42.75267 Y-42.67048 I0.49798 J-0.86719
G1 X-43.3492 Y-43.01404
G3 X-43.35032 Y-43.01469 I0.49908 J-0.86655
G1 X-43.5093 Y-43.10653
G3 X-43.51003 Y-43.10695 I0.50021 J-0.86591
G1 X-43.87295 Y-43.31701
G3 X-46.33631 Y-44.75574 I160.10278 J-276.9527
G1 X-46.68606 Y-44.96155
G3 X-46.6874 Y-44.96234 I0.50715 J-0.86186
G1 X-48.05936 Y-45.77253
G3 X-48.06112 Y-45.77357 I0.50849 J-0.86107
G1 X-49.43136 Y-46.58653
G3 X-49.43317 Y-46.5876 I0.51025 J-0.86003
G1 X-52.17362 Y-48.22131
G3 X-52.17481 Y-48.22202 I0.51206 J-0.85895
G1 X-53.75382 Y-49.16631
G3 X-53.75415 Y-49.1665 I0.51325 J-0.85824
G1 X-54.28041 Y-49.48149
G1 X-54.28052 Y-49.48156
G1 X-54.98213 Y-49.90163
G1 X-54.98214 Y-49.90164
G1 X-57.72991 Y-51.54681
G1 X-57.91263 Y-51.65614
G1 X-60.99837 Y-53.49839
G1 X-62.61299 Y-54.45742
G1 X-64.23072 Y-55.41305
G2 X-66.69943 Y-56.85772 I-201.90137 J342.18605
G1 X-66.69956 Y-56.85779
G1 X-67.05346 Y-57.06325
G1 X-67.45818 Y-57.29765
G3 X-67.47346 Y-57.30668 I0.50117 J-0.86535
G2 X-67.54611 Y-57.34868 I-1.17248 J1.94407
G3 X-67.56204 Y-57.35769 I0.48445 J-0.87482
G2 X-70.08328 Y-58.80119 I-179.34214 J310.31845
G1 X-70.92748 Y-59.27765
G1 X-71.06771 Y-59.35642
G1 X-71.20889 Y-59.43561
G3 X-71.21138 Y-59.43701 I0.48922 J-0.87216
G2 X-71.48783 Y-59.59174 I-20.58296 J36.44993
G3 X-71.48947 Y-59.59265 I0.48511 J-0.87446
G1 X-72.0544 Y-59.90744
G1 X-73.18705 Y-60.53252
G1 X-73.33625 Y-60.61422
G1 X-74.14431 Y-61.05397
G1 X-74.24742 Y-61.10974
G1 X-74.54735 Y-61.2715
G1 X-74.64659 Y-61.32487
G1 X-75.04623 Y-61.53901
G1 X-75.84855 Y-61.96495
G2 X-77.45639 Y-62.80127 I-88.11242 J167.43262
G2 X-79.738 Y-63.94325 I-58.3647 J113.75954
G1 X-80.50543 Y-64.31415
G1 X-81.21134 Y-64.64899
G1 X-81.92086 Y-64.97916
G1 X-82.12153 Y-65.07135
G1 X-82.66341 Y-65.31759
G1 X-83.39061 Y-65.64173
G2 X-86.12882 Y-66.79322 I-32.63623 J73.77702
G1 X-86.50876 Y-66.94386
G1 X-86.88893 Y-67.09226
G1 X-86.99646 Y-67.1338
G1 X-87.11984 Y-67.18122
G1 X-87.45173 Y-67.30753
G2 X-88.78195 Y-67.79449 I-31.55644 J84.14061
G1 X-88.94483 Y-67.85192
G1 X-89.10878 Y-67.90923
G1 X-89.21643 Y-67.94658
G1 X-89.6564 Y-68.09691
G1 X-89.7802 Y-68.13853
G1 X-89.92328 Y-68.18625
G1 X-90.08843 Y-68.24082
G3 X-90.08975 Y-68.24125 I0.31374 J-0.94951
G2 X-91.39798 Y-68.65316 I-13.94834 J42.01655
G3 X-91.40114 Y-68.65411 I0.28552 J-0.95837
G2 X-94.04413 Y-69.36058 I-12.47708 J41.38153
G2 X-96.75281 Y-69.86788 I-7.16432 J30.7682
G2 X-99.29969 Y-70.09696 I-3.53832 J25.06578
G3 X-99.33909 Y-70.09928 I0.03917 J-0.99923
G3 X-99.37646 Y-70.09971 I-0.00724 J-0.99997
G1 X-99.55783 Y-70.10518
G2 X-102.46307 Y-69.99015 I-0.58817 J21.89002
G2 X-105.44667 Y-69.44342 I2.21089 J20.47991
G1 X-105.44671 Y-69.44341
G1 X-105.44664 Y-69.44343
G1 X-105.44667 Y-69.44342
G2 X-108.43681 Y-68.40488 I5.04098 J19.3377
G3 X-108.43846 Y-68.40416 I-0.40188 J-0.91569
G2 X-111.31953 Y-66.84671 I7.82895 J17.92605
G3 X-111.32014 Y-66.84632 I-0.54752 J-0.83679
G2 X-112.68149 Y-65.87038 I10.58101 J16.19707
G2 X-113.95223 Y-64.77871 I11.98106 J15.23177
G1 X-113.95226 Y-64.77868
G2 X-116.18805 Y-62.25147 I12.34737 J13.17614
G3 X-116.18848 Y-62.25088 I-0.8076 J-0.58973
G2 X-117.91193 Y-59.3416 I14.14367 J10.3438
G2 X-119.05072 Y-56.15501 I16.38162 J7.6511
G2 X-119.58845 Y-52.82994 I18.73892 J4.73648
G2 X-119.575 Y-49.63311 I20.83048 J1.51076
G1 X-119.56628 Y-49.52808
G2 X-119.07179 Y-46.41855 I22.05998 J-1.91401
G3 X-119.07161 Y-46.41779 I-0.97393 J0.22687
G2 X-118.22479 Y-43.64056 I20.84925 J-4.83954
G3 X-118.2246 Y-43.64007 I-0.93454 J0.35586
G2 X-117.15502 Y-41.27129 I19.98616 J-7.59857
G2 X-115.98594 Y-39.31554 I19.17041 J-10.13213
G2 X-114.96578 Y-37.90389 I22.20636 J-14.97347
G1 X-114.80974 Y-37.70432
G2 X-113.70469 Y-36.3829 I24.60698 J-19.45508
G3 X-113.90822 Y-34.88257 I-0.74921 J0.66233
G2 X-115.12117 Y-33.91683 I4.44938 J6.83287
G2 X-116.20524 Y-32.67 I6.6428 J6.87035
G2 X-117.15765 Y-31.12897 I9.82342 J7.13606
G3 X-117.15777 Y-31.12874 I-0.8875 J-0.46081
G1 X-117.18627 Y-31.07389
G2 X-117.40224 Y-30.63793 I22.74259 J11.53786
G2 X-117.96471 Y-29.29724 I15.4141 J7.25514
G2 X-118.31482 Y-28.25712 I19.81801 J7.24979
G1 X-118.31483 Y-28.25708
G1 X-118.3148 Y-28.25716
G1 X-118.31482 Y-28.25712
G2 X-118.60735 Y-27.20182 I18.57146 J5.71628
G3 X-118.6079 Y-27.1996 I-0.97081 J-0.23987
G2 X-119.0669 Y-24.88195 I23.39827 J5.83819
G3 X-119.06725 Y-24.8796 I-0.98929 J-0.14599
G2 X-119.32229 Y-22.39969 I26.57505 J3.98612
G1 X-119.33938 Y-22.07146
G1 X-119.34553 Y-21.93156
G1 X-119.35073 Y-21.79855
G2 X-119.35539 Y-19.80812 I30.07114 J1.06557
G2 X-119.14999 Y-17.178 I28.68514 J-0.91709
G3 X-119.1499 Y-17.17725 I-0.99233 J0.1236
G2 X-118.69445 Y-14.55658 I26.99484 J-3.34156
G3 X-118.694 Y-14.5546 I-0.97568 J0.21919
G2 X-117.98219 Y-11.98489 I25.39709 J-5.6516
G1 X-117.8724 Y-11.66102
G2 X-117.67655 Y-11.11485 I26.39432 J-9.15626
G1 X-117.51817 Y-10.69888
G1 X-117.39633 Y-10.39247
G2 X-117.20638 Y-9.93574 I51.81338 J-21.28138
G1 X-117.10812 Y-9.70857
G1 X-117.00663 Y-9.47985
G2 X-115.77922 Y-7.08146 I24.05483 J-10.7972
G1 X-115.60371 Y-6.78152
G2 X-114.30028 Y-4.78476 I24.1747 J-14.35676
G2 X-112.59296 Y-2.6111 I25.11374 J-17.96843
G3 X-112.59268 Y-2.61077 I-0.75798 J0.65227
G2 X-112.13192 Y-2.08627 I24.86996 J-21.38314
G3 X-112.13008 Y-2.08422 I-0.74421 J0.66794
G2 X-111.42182 Y-1.31923 I21.34094 J-19.04785
G3 X-111.41552 Y-1.31261 I-0.72129 J0.69263
G2 X-111.05947 Y-0.94518 I13.59609 J-12.81908
G1 X-110.68142 Y-0.56643
G2 X-108.61149 Y1.33042 I26.7311 J-27.09242
G3 X-108.61105 Y1.3308 I-0.64796 J0.76168
G2 X-106.41744 Y3.07828 I27.72063 J-32.5472
G1 X-106.13688 Y3.28564
G1 X-105.89298 Y3.46321
G1 X-105.4554 Y3.77572
G3 X-105.43206 Y3.7929 I-0.58118 J0.81378
G2 X-105.40748 Y3.81021 I0.25364 J-0.33423
G3 X-105.35119 Y3.84971 I-0.54592 J0.83784
G2 X-105.33044 Y3.86425 I0.21783 J-0.28877
G3 X-105.27529 Y3.90278 I-0.54485 J0.83853
G2 X-105.25807 Y3.9148 I0.18421 J-0.24562
G3 X-105.2041 Y3.95235 I-0.5439 J0.83915
G2 X-105.1901 Y3.96209 I0.15272 J-0.20476
G3 X-105.13732 Y3.99868 I-0.54306 J0.83969
G2 X-105.12625 Y4.00635 I0.12317 J-0.16601
G3 X-105.09052 Y4.03052 I-0.54231 J0.84018
G2 X-104.87162 Y4.18086 I5.29519 J-7.47495
G3 X-104.86596 Y4.18466 I-0.55415 J0.83241
G1 X-104.50371 Y4.4294
G1 X-104.14086 Y4.66972
G2 X-101.83479 Y6.09048 I25.7444 J-39.20467
G2 X-101.54954 Y6.25405 I37.32351 J-64.75444
G1 X-101.29635 Y6.3971
G2 X-99.5239 Y7.34289 I21.75896 J-38.6437
G3 X-99.48772 Y7.36209 I-0.45067 J0.89269
G3 X-99.45171 Y7.37938 I-0.41463 J0.90999
G2 X-97.2333 Y8.42438 I20.27616 J-40.16653
G3 X-97.23303 Y8.4245 I-0.40134 J0.91593
G2 X-94.98114 Y9.33373 I16.51974 J-37.67096
G3 X-94.97977 Y9.33424 I-0.34686 J0.93792
G2 X-92.77469 Y10.0729 I12.47811 J-33.58965
G3 X-92.77234 Y10.0736 I-0.2867 J0.95802
G2 X-90.61498 Y10.64437 I9.32736 J-30.89298
G3 X-89.9259 Y11.20753 I-0.22219 J0.975
G1 X-89.77728 Y11.53638
G1 X-89.72174 Y11.65712
G2 X-89.32175 Y12.49413 I30.23115 J-13.93285
G3 X-89.32084 Y12.49597 I-0.89617 J0.44371
G2 X-88.45587 Y14.13957 I31.12979 J-15.33326
G3 X-88.45456 Y14.14189 I-0.87216 J0.48923
G2 X-87.99187 Y14.94354 I27.06178 J-15.08534
G3 X-87.98971 Y14.94717 I-0.85852 J0.51277
G2 X-87.50679 Y15.73515 I25.44708 J-15.05336
G3 X-87.5051 Y15.73783 I-0.84435 J0.53579
G2 X-85.32363 Y18.80646 I28.59673 J-18.01949
G3 X-85.32326 Y18.80692 I-0.7815 J0.6239
G2 X-82.79135 Y21.62289 I25.02281 J-19.95241
G2 X-79.93487 Y24.11358 I21.54542 J-21.82631
G3 X-79.92975 Y24.11754 I-0.60937 J0.79288
G2 X-79.75307 Y24.25197 I6.03496 J-7.74819
G3 X-79.74112 Y24.26099 I-0.5965 J0.80262
G2 X-79.57574 Y24.38483 I5.53098 J-7.21407
G3 X-79.56911 Y24.38972 I-0.59025 J0.80722
G2 X-76.79406 Y26.21898 I17.46857 J-23.48099
G2 X-73.4129 Y27.90751 I15.3069 J-26.42144
G2 X-71.78415 Y28.5449 I12.94338 J-30.67464
G3 X-71.12477 Y29.52464 I-0.33984 J0.94048
G2 X-71.10803 Y30.84195 I12.67309 J0.4978
G2 X-70.94986 Y32.23487 I15.2629 J-1.02775
G1 X-70.93443 Y32.32913
G2 X-70.64808 Y33.69999 I17.19733 J-2.87685
G1 X-70.62323 Y33.79854
G1 X-70.60079 Y33.88572
G1 X-70.50803 Y34.23019
G2 X-70.20253 Y35.23101 I22.10411 J-6.20037
G1 X-70.064 Y35.63677
G1 X-70.011 Y35.78608
G2 X-69.91794 Y36.04101 I16.0276 J-5.70607
G1 X-69.84382 Y36.2381
G1 X-69.72845 Y36.53568
G2 X-69.67457 Y36.67103 I8.37705 J-3.25634
G3 X-69.66742 Y36.68908 I-0.92606 J0.37737
G2 X-69.61938 Y36.80772 I3.47921 J-1.33963
G3 X-69.61316 Y36.82269 I-0.92033 J0.39115
G2 X-69.26858 Y37.62952 I22.62695 J-9.18659
G1 X-69.08196 Y38.03955
G1 X-69.03623 Y38.13756
G1 X-69.00034 Y38.21382
G3 X-68.99664 Y38.22177 I-0.9048 J0.42583
G2 X-68.89803 Y38.4283 I7.23787 J-3.3292
G3 X-68.89686 Y38.43066 I-0.89612 J0.44381
G1 X-68.69019 Y38.85075
G2 X-68.53963 Y39.1469 I16.20835 J-8.05385
G3 X-68.5389 Y39.14831 I-0.88722 J0.46135
G1 X-68.47805 Y39.26578
G3 X-68.47713 Y39.26756 I-0.88795 J0.45994
G2 X-68.27103 Y39.65655 I17.29165 J-8.91267
G3 X-68.27078 Y39.657 I-0.87828 J0.47815
G1 X-68.16195 Y39.85715
G1 X-68.05345 Y40.05333
G1 X-67.94053 Y40.25404
G1 X-67.84134 Y40.42756
G1 X-67.66293 Y40.73336
G1 X-67.52583 Y40.96315
G3 X-67.52103 Y40.97129 I-0.85876 J0.51237
G2 X-67.43246 Y41.11727 I4.38256 J-2.55901
G3 X-67.41539 Y41.14539 I-0.84611 J0.53301
G2 X-67.35777 Y41.23918 I2.19842 J-1.28591
G3 X-67.3513 Y41.24936 I-0.84056 J0.54172
G1 X-67.10857 Y41.63616
G2 X-66.08481 Y43.14026 I24.95645 J-15.88601
G3 X-66.08349 Y43.14209 I-0.80899 J0.58783
G2 X-64.99548 Y44.54603 I21.69438 J-15.68883
G3 X-64.97783 Y44.56793 I-0.76967 J0.63844
G3 X-64.94871 Y44.60268 I-0.75175 J0.65945
G2 X-64.83879 Y44.73398 I2.99863 J-2.39895
G3 X-64.83116 Y44.74279 I-0.75224 J0.65889
G1 X-64.58692 Y45.02828
G2 X-63.86042 Y45.83162 I17.32869 J-14.94113
G2 X-63.28145 Y46.42648 I25.05075 J-23.80194
G2 X-62.9896 Y46.71246 I22.78018 J-22.95651
G1 X-62.68759 Y46.99924
G1 X-62.394 Y47.26969
G1 X-62.16905 Y47.47167
G2 X-61.49527 Y48.0513 I15.50322 J-17.33972
G1 X-61.18746 Y48.30463
G2 X-60.73961 Y48.66175 I13.19505 J-16.08845
G3 X-60.70744 Y48.68776 I-0.61263 J0.79037
G3 X-60.68408 Y48.70516 I-0.58553 J0.81065
G1 X-60.27046 Y49.02265
G2 X-59.03273 Y49.92081 I25.8489 J-34.31977
G1 X-58.71372 Y50.14153
G3 X-58.69895 Y50.15195 I-0.56899 J0.82235
G2 X-58.61726 Y50.20779 I1.21854 J-1.69485
G3 X-58.60081 Y50.21871 I-0.54462 J0.83868
G2 X-57.76399 Y50.77644 I36.19144 J-53.39501
G1 X-57.43698 Y50.98784
G2 X-56.46271 Y51.59614 I20.87218 J-32.34542
G3 X-56.46134 Y51.59697 I-0.51689 J0.85605
G1 X-56.37557 Y51.64894
G1 X-56.37547 Y51.64901
G2 X-55.10932 Y52.38502 I20.65711 J-34.07892
G1 X-54.75159 Y52.58189
G1 X-54.68829 Y52.61619
G1 X-54.43823 Y52.75014
G1 X-54.06118 Y52.94731
G1 X-53.68016 Y53.14065
G2 X-52.93027 Y53.50346 I15.07511 J-30.20252
G3 X-52.92998 Y53.5036 I-0.42438 J0.90548
G2 X-52.17069 Y53.84697 I12.74007 J-27.16084
G3 X-52.17006 Y53.84724 I-0.39935 J0.9168
G2 X-50.56247 Y54.49584 I12.37839 J-28.36384
G1 X-50.13388 Y54.65132
G2 X-48.85851 Y55.0726 I11.22093 J-31.8288
G1 X-48.41518 Y55.20495
G1 X-48.08335 Y55.29942
G1 X-47.95919 Y55.33375
G2 X-47.0868 Y55.55962 I7.83868 J-28.47769
G3 X-47.07698 Y55.56206 I-0.23585 J0.97179
G2 X-46.87176 Y55.61125 I2.00069 J-7.89417
G3 X-46.86192 Y55.61353 I-0.22047 J0.97539
G2 X-45.29319 Y55.94044 I6.85092 J-28.9478
G1 X-45.06657 Y55.98052
G3 X-45.06637 Y55.98055 I-0.17416 J0.98472
G2 X-44.29972 Y56.10245 I3.84848 J-21.73325
G3 X-44.29941 Y56.10249 I-0.13963 J0.9902
G1 X-44.10162 Y56.13045
G1 X-43.9539 Y56.15039
G3 X-43.92929 Y56.15403 I-0.13382 J0.99101
G3 X-43.90898 Y56.15632 I-0.10181 J0.9948
G1 X-43.52027 Y56.20414
G1 X-43.08978 Y56.25042
G2 X-42.45814 Y56.30491 I2.21421 J-21.9789
G3 X-42.45091 Y56.30546 I-0.07164 J0.99743
G2 X-41.8245 Y56.3429 I1.28578 J-16.25285
G3 X-41.81716 Y56.34322 I-0.04044 J0.99918
G2 X-40.22502 Y56.35751 I0.97986 J-20.48154
G3 X-40.22392 Y56.35747 I0.02986 J0.99955
G2 X-38.75951 Y56.25564 I-0.51914 J-18.04538
G1 X-38.41199 Y56.21355
G1 X-38.28935 Y56.19698
G1 X-38.0594 Y56.16349
G3 X-38.04511 Y56.16152 I0.14412 J0.98956
G3 X-38.03358 Y56.15955 I0.17391 J0.98476
G1 X-37.71328 Y56.10684
G1 X-37.40325 Y56.04983
G1 X-37.08553 Y55.98516
G2 X-36.15052 Y55.7578 I-4.10686 J-18.92561
G2 X-34.9777 Y55.39612 I-4.96359 J-18.1775
G3 X-34.95918 Y55.38994 I0.32566 J0.94549
G3 X-34.91864 Y55.37607 I0.34402 J0.93896
G2 X-34.82849 Y55.34457 I-0.52203 J-1.63906
G3 X-34.81135 Y55.33822 I0.35589 J0.93453
G1 X-34.56771 Y55.2505
G2 X-33.86168 Y54.97765 I-10.58668 J-28.44337
G1 X-33.5905 Y54.86558
G2 X-32.79458 Y54.5136 I-10.69592 J-25.26229
G2 X-31.77136 Y54.00968 I-12.07086 J-25.80084
G2 X-30.79962 Y53.47348 I-10.28391 J-19.78601
G3 X-29.49573 Y53.73558 I0.50476 J0.86326
G1 X-29.271 Y54.03432
G1 X-29.04498 Y54.32856
G2 X-26.13626 Y57.64299 I29.15625 J-22.65372
G1 X-26.13623 Y57.64302
G2 X-22.63029 Y60.77459 I27.0836 J-26.79303
G3 X-22.62983 Y60.77495 I-0.61888 J0.78548
G2 X-18.50817 Y63.64071 I25.7773 J-32.67714
G1 Y63.64072
G1 X-18.50818 Y63.64071
G1 X-18.50817
G2 X-13.80408 Y66.13751 I23.40053 J-38.408
G1 X-13.80403 Y66.13754
G1 X-13.80413 Y66.13749
G1 X-13.80408 Y66.13751
G2 X-8.59834 Y68.1529 I19.59466 J-42.88213
G1 X-8.24961 Y68.26322
G2 X-6.95748 Y68.64656 I12.686 J-40.39168
G1 X-6.46205 Y68.78307
G2 X-3.00199 Y69.57941 I12.4537 J-46.19524
G1 X-2.81828 Y69.61416
G3 X-2.81786 Y69.61424 I-0.18583 J0.98258
G2 X-1.41583 Y69.85475 I7.59231 J-40.051
