; generated by PrusaSlicer 2.4.0+win64 on 2022-02-13 at 08:09:15 UTC

; 

; external perimeters extrusion width = 0.45mm
; perimeters extrusion width = 0.45mm
; infill extrusion width = 0.45mm
; solid infill extrusion width = 0.45mm
; top infill extrusion width = 0.40mm
; first layer extrusion width = 0.42mm

M73 P0 R112
M201 X9000 Y9000 Z500 E10000 ; sets maximum accelerations, mm/sec^2
M203 X500 Y500 Z12 E120 ; sets maximum feedrates, mm/sec
M204 P2000 R1500 T2000 ; sets acceleration (P, T) and retract acceleration (R), mm/sec^2
M205 X10.00 Y10.00 Z0.20 E2.50 ; sets the jerk limits, mm/sec
M205 S0 T0 ; sets the minimum extruding and travel feed rate, mm/sec
M107
;TYPE:Custom
M862.3 P "MK2S" ; printer model check
M862.1 P0.4 ; nozzle diameter check
M115 U3.2.3 ; tell printer latest fw version
G90 ; use absolute coordinates
M83 ; extruder relative mode
M204 S2000 T1500 ; MK2 firmware only supports the old M204 format
M104 S215 ; set extruder temp
M140 S60 ; set bed temp
M190 S60 ; wait for bed temp
M109 S215 ; wait for extruder temp
G28 W ; home all without mesh bed level
G80 ; mesh bed leveling
G1 Y-3.0 F1000.0 ; go outside print area
G92 E0.0
G1 X60.0 E9.0  F1000.0 ; intro line
G1 X100.0 E12.5 F1000.0 ; intro line
G92 E0.0
G21 ; set units to millimeters
G90 ; use absolute coordinates
M83 ; use relative distances for extrusion
M900 K0.05 ; Filament gcode LA 1.5
M900 K30 ; Filament gcode LA 1.0
M107
;LAYER_CHANGE
;Z:0.2
;HEIGHT:0.2
;BEFORE_LAYER_CHANGE
G92 E0.0
;0.2


G1 E-.8 F2100
G1 Z.4 F10800
;AFTER_LAYER_CHANGE
;0.2
G1 X105.296 Y95.172
G1 Z.2
G1 E.8 F2100
M204 S1000
;TYPE:Skirt/Brim
;WIDTH:0.42
G1 F1200
G1 X127.282 Y70.847 E1.02804
G1 X128.177 Y70.033 E.03795
G1 X129.13 Y69.504 E.03417
G1 X129.659 Y69.319 E.01756
G1 X131 Y69.123 E.04251
G1 X166.266 Y69.138 E1.10575
G1 X166.823 Y69.201 E.01755
M73 P0 R111
G1 X167.87 Y69.504 E.03419
G1 X168.823 Y70.033 E.03418
G1 X169.24 Y70.365 E.0167
G1 X169.967 Y71.177 E.03419
G1 X170.496 Y72.13 E.03419
G1 X170.799 Y73.178 E.03419
G1 X170.862 Y73.734 E.01755
G1 X170.866 Y127.697 E1.69199
G1 X170.584 Y129.111 E.0452
G1 X170.175 Y129.974 E.02994
G1 X169.605 Y130.74 E.02994
G1 X160.181 Y140.181 E.41825
G1 X158.98 Y140.828 E.04278
G1 X158.254 Y140.864 E.02277
G1 X81.254 Y132.864 E2.42728
G1 X79.995 Y132.34 E.04278
G1 X79.231 Y131.209 E.04278
G1 X79.123 Y130.5 E.02249
G1 X79.123 Y126 E.14109
G1 X79.201 Y125.177 E.0259
G1 X79.504 Y124.13 E.03419
G1 X79.735 Y123.651 E.01669
G1 X80.282 Y122.847 E.03048
G1 X105.256 Y95.216 E1.16779
; printing object table-clamp-v20-_v027.stl id:0 copy 0
;WIPE_START
G1 F8640
G1 X107.463 Y92.774 E-.76
;WIPE_END
G1 E-.04 F2100
G1 Z.6 F10800
G1 X158.51 Y129.713
G1 Z.2
G1 E.8 F2100
;TYPE:Perimeter
G1 F1200
G1 X82.287 Y129.713 E2.38992
G1 X82.287 Y126.044 E.11503
G1 X82.335 Y125.62 E.01339
G1 X82.461 Y125.259 E.01199
G1 X82.665 Y124.935 E.01199
G1 X82.935 Y124.665 E.01199
G1 X83.259 Y124.461 E.01199
G1 X83.62 Y124.335 E.01199
G1 X84.044 Y124.287 E.01339
G1 X157.484 Y124.287 E2.30265
G1 X157.532 Y124.357 E.00268
G1 X157.766 Y124.564 E.00977
G1 X158.042 Y124.709 E.00977
G1 X158.344 Y124.783 E.00977
G1 X158.656 Y124.783 E.00977
G1 X158.958 Y124.709 E.00977
G1 X159.234 Y124.564 E.00977
G1 X159.468 Y124.357 E.00977
G1 X159.645 Y124.101 E.00977
G1 X159.755 Y123.809 E.00977
G1 X159.792 Y123.503 E.00967
G1 X159.76 Y123.212 E.00918
G1 X159.664 Y122.939 E.00907
G1 X159.51 Y122.694 E.00907
G1 X159.287 Y122.478 E.00974
G1 X159.287 Y81.674 E1.27939
G1 X158.326 Y80.713 E.04262
G1 X131.044 Y80.713 E.8554
G1 X130.62 Y80.665 E.01339
G1 X130.259 Y80.539 E.01199
G1 X129.935 Y80.335 E.01199
G1 X129.665 Y80.065 E.01199
G1 X129.461 Y79.741 E.01199
G1 X129.335 Y79.38 E.01199
G1 X129.287 Y78.956 E.01339
G1 X129.287 Y74.044 E.154
G1 X129.335 Y73.62 E.01339
G1 X129.461 Y73.259 E.01199
G1 X129.665 Y72.935 E.01199
G1 X129.935 Y72.665 E.01199
G1 X130.259 Y72.461 E.01199
G1 X130.62 Y72.335 E.01199
G1 X131.044 Y72.287 E.01339
G1 X165.956 Y72.287 E1.09463
G1 X166.38 Y72.335 E.01339
G1 X166.741 Y72.461 E.01199
G1 X167.065 Y72.665 E.01199
G1 X167.335 Y72.935 E.01199
G1 X167.539 Y73.259 E.01199
G1 X167.665 Y73.62 E.01199
G1 X167.713 Y74.044 E.01339
G1 X167.713 Y127.426 E1.67374
G1 X167.676 Y127.798 E.01172
G1 X167.579 Y128.119 E.01051
G1 X167.421 Y128.414 E.01051
G1 X167.184 Y128.703 E.01173
G1 X159.652 Y136.241 E.33411
G1 X159.237 Y136.715 E.01975
G1 X159.283 Y136.013 E.02206
G1 X159.287 Y129.713 E.19755
G1 X158.57 Y129.713 E.02249
G1 X158.91 Y130.09 F10800
;TYPE:External perimeter
G1 F1200
G1 X81.91 Y130.09 E2.41429
G1 X81.91 Y126.023 E.12752
G1 X81.965 Y125.536 E.01538
G1 X82.119 Y125.094 E.01466
G1 X82.368 Y124.699 E.01466
G1 X82.699 Y124.368 E.01466
G1 X83.094 Y124.119 E.01466
G1 X83.536 Y123.965 E.01466
G1 X84.023 Y123.91 E.01538
G1 X157.686 Y123.91 E2.30966
G1 X157.817 Y124.105 E.00737
G1 X157.981 Y124.251 E.0069
G1 X158.176 Y124.354 E.0069
G1 X158.39 Y124.406 E.0069
G1 X158.61 Y124.406 E.0069
G1 X158.824 Y124.354 E.0069
G1 X159.019 Y124.251 E.0069
G1 X159.183 Y124.105 E.0069
G1 X159.308 Y123.924 E.0069
G1 X159.386 Y123.719 E.0069
G1 X159.413 Y123.502 E.00685
G1 X159.39 Y123.297 E.00646
G1 X159.322 Y123.104 E.00641
G1 X159.213 Y122.931 E.00641
G1 X159.069 Y122.787 E.00641
G1 X158.91 Y122.687 E.00589
G1 X158.91 Y81.83 E1.28102
G1 X158.17 Y81.09 E.03282
G1 X131.023 Y81.09 E.85117
G1 X130.536 Y81.035 E.01538
G1 X130.094 Y80.881 E.01466
G1 X129.699 Y80.632 E.01465
G1 X129.368 Y80.301 E.01466
G1 X129.119 Y79.906 E.01465
G1 X128.965 Y79.464 E.01466
G1 X128.91 Y78.977 E.01538
G1 X128.91 Y74.023 E.15533
G1 X128.965 Y73.536 E.01538
G1 X129.119 Y73.094 E.01466
G1 X129.368 Y72.699 E.01465
G1 X129.699 Y72.368 E.01466
G1 X130.094 Y72.119 E.01465
G1 X130.536 Y71.965 E.01466
G1 X131.023 Y71.91 E.01538
G1 X165.977 Y71.91 E1.09596
G1 X166.464 Y71.965 E.01538
G1 X166.906 Y72.119 E.01466
G1 X167.301 Y72.368 E.01465
G1 X167.632 Y72.699 E.01466
G1 X167.881 Y73.094 E.01466
G1 X168.035 Y73.536 E.01466
G1 X168.09 Y74.023 E.01538
G1 X168.09 Y127.444 E1.67499
G1 X168.048 Y127.872 E.01347
G1 X167.929 Y128.264 E.01283
G1 X167.736 Y128.625 E.01283
G1 X167.464 Y128.957 E.01347
G1 X159.926 Y136.501 E.33439
G1 X159.59 Y136.873 E.01571
G1 X159.286 Y137.278 E.01588
G1 X159.023 Y137.68 E.01508
G1 X158.711 Y137.992 E.01383
G1 X158.71 Y137.522 E.01473
G1 X158.814 Y137.036 E.01559
G1 X158.883 Y136.519 E.01636
G1 X158.906 Y136.005 E.01613
G1 X158.91 Y130.15 E.18357
G1 X158.911 Y129.69 F10800
;WIPE_START
G1 F8640
G1 X155.619 Y130.147 E-.76
;WIPE_END
G1 E-.04 F2100
G1 Z.6 F10800
G1 X159.17 Y136.891
G1 Z.2
G1 E.8 F2100
;TYPE:Gap fill
;WIDTH:0.220863
G1 F1200
G1 X159.085 Y137.086 E.00314
;WIDTH:0.217545
G1 X159.069 Y137.122 E.00057
;WIDTH:0.20054
G1 X159.067 Y137.127 E.00007
;WIDTH:0.198519
G1 X159.027 Y137.223 E.00134
;WIDTH:0.163453
G1 X158.987 Y137.319 E.00104
;WIDTH:0.128386
G1 X158.947 Y137.415 E.00074
;WIPE_START
G1 F8640
G1 X158.987 Y137.319 E-.02398
;WIPE_END
G1 E-.77602 F2100
G1 Z.6 F10800
G1 X166.495 Y72.495
G1 Z.2
G1 E.8 F2100
;TYPE:Solid infill
;WIDTH:0.420499
G1 F1200
G1 X167.113 Y73.114 E.02747
G1 X167.282 Y73.382 E.00997
G1 X167.388 Y73.683 E.01001
G1 X167.418 Y73.952 E.00849
G1 X166.048 Y72.582 E.06083
G1 X165.502 Y72.57 E.01715
G1 X167.43 Y74.498 E.08562
G1 X167.43 Y75.032 E.01676
G1 X164.968 Y72.57 E.10933
G1 X164.434 Y72.57 E.01676
G1 X167.43 Y75.566 E.13304
G1 X167.43 Y76.1 E.01676
G1 X163.9 Y72.57 E.15675
G1 X163.366 Y72.57 E.01676
G1 X167.43 Y76.634 E.18045
G1 X167.43 Y77.168 E.01676
G1 X162.832 Y72.57 E.20416
G1 X162.298 Y72.57 E.01676
G1 X167.43 Y77.702 E.22787
G1 X167.43 Y78.236 E.01676
G1 X161.764 Y72.57 E.25158
G1 X161.23 Y72.57 E.01676
G1 X167.43 Y78.77 E.27529
G1 X167.43 Y79.304 E.01676
G1 X160.696 Y72.57 E.299
G1 X160.162 Y72.57 E.01676
G1 X167.43 Y79.838 E.32271
G1 X167.43 Y80.372 E.01676
G1 X159.628 Y72.57 E.34642
G1 X159.094 Y72.57 E.01676
G1 X167.43 Y80.906 E.37012
G1 X167.43 Y81.44 E.01676
G1 X158.56 Y72.57 E.39383
G1 X158.026 Y72.57 E.01676
G1 X167.43 Y81.974 E.41754
G1 X167.43 Y82.508 E.01676
G1 X157.492 Y72.57 E.44125
G1 X156.958 Y72.57 E.01676
G1 X167.43 Y83.042 E.46496
G1 X167.43 Y83.576 E.01676
G1 X156.424 Y72.57 E.48867
G1 X155.89 Y72.57 E.01676
M73 P1 R111
G1 X167.43 Y84.11 E.51238
G1 X167.43 Y84.644 E.01676
G1 X155.356 Y72.57 E.53609
G1 X154.822 Y72.57 E.01676
G1 X167.43 Y85.178 E.5598
M73 P1 R110
G1 X167.43 Y85.712 E.01676
G1 X154.288 Y72.57 E.5835
G1 X153.754 Y72.57 E.01676
G1 X167.43 Y86.246 E.60721
G1 X167.43 Y86.78 E.01676
G1 X153.22 Y72.57 E.63092
G1 X152.686 Y72.57 E.01676
G1 X167.43 Y87.314 E.65463
G1 X167.43 Y87.848 E.01676
G1 X152.152 Y72.57 E.67834
G1 X151.618 Y72.57 E.01676
G1 X167.43 Y88.382 E.70205
G1 X167.43 Y88.916 E.01676
G1 X151.084 Y72.57 E.72576
G1 X150.55 Y72.57 E.01676
G1 X167.43 Y89.45 E.74947
G1 X167.43 Y89.984 E.01676
G1 X159.57 Y82.123 E.349
G1 X159.57 Y82.657 E.01676
G1 X167.43 Y90.518 E.349
G1 X167.43 Y91.052 E.01676
G1 X159.57 Y83.191 E.349
G1 X159.57 Y83.725 E.01676
G1 X167.43 Y91.585 E.349
G1 X167.43 Y92.119 E.01676
G1 X159.57 Y84.259 E.349
G1 X159.57 Y84.793 E.01676
G1 X167.43 Y92.653 E.349
G1 X167.43 Y93.187 E.01676
G1 X159.57 Y85.327 E.349
G1 X159.57 Y85.861 E.01676
G1 X167.43 Y93.721 E.349
G1 X167.43 Y94.255 E.01676
G1 X159.57 Y86.395 E.349
G1 X159.57 Y86.929 E.01676
G1 X167.43 Y94.789 E.349
G1 X167.43 Y95.323 E.01676
G1 X159.57 Y87.463 E.349
G1 X159.57 Y87.997 E.01676
G1 X167.43 Y95.857 E.349
G1 X167.43 Y96.391 E.01676
G1 X159.57 Y88.531 E.349
G1 X159.57 Y89.065 E.01676
G1 X167.43 Y96.925 E.349
G1 X167.43 Y97.459 E.01676
G1 X159.57 Y89.599 E.349
G1 X159.57 Y90.133 E.01676
G1 X167.43 Y97.993 E.349
G1 X167.43 Y98.527 E.01676
G1 X159.57 Y90.667 E.349
G1 X159.57 Y91.201 E.01676
G1 X167.43 Y99.061 E.349
G1 X167.43 Y99.595 E.01676
G1 X159.57 Y91.735 E.349
G1 X159.57 Y92.269 E.01676
G1 X167.43 Y100.129 E.349
G1 X167.43 Y100.663 E.01676
G1 X159.57 Y92.803 E.349
G1 X159.57 Y93.337 E.01676
G1 X167.43 Y101.197 E.349
G1 X167.43 Y101.731 E.01676
G1 X159.57 Y93.871 E.349
G1 X159.57 Y94.405 E.01676
G1 X167.43 Y102.265 E.349
G1 X167.43 Y102.799 E.01676
G1 X159.57 Y94.939 E.349
G1 X159.57 Y95.473 E.01676
G1 X167.43 Y103.333 E.349
G1 X167.43 Y103.867 E.01676
G1 X159.57 Y96.007 E.349
G1 X159.57 Y96.541 E.01676
G1 X167.43 Y104.401 E.349
G1 X167.43 Y104.935 E.01676
G1 X159.57 Y97.075 E.349
G1 X159.57 Y97.609 E.01676
G1 X167.43 Y105.469 E.349
G1 X167.43 Y106.003 E.01676
G1 X159.57 Y98.143 E.349
G1 X159.57 Y98.677 E.01676
G1 X167.43 Y106.537 E.349
G1 X167.43 Y107.071 E.01676
G1 X159.57 Y99.211 E.349
G1 X159.57 Y99.745 E.01676
G1 X167.43 Y107.605 E.349
G1 X167.43 Y108.139 E.01676
G1 X159.57 Y100.279 E.349
G1 X159.57 Y100.813 E.01676
G1 X167.43 Y108.673 E.349
G1 X167.43 Y109.207 E.01676
G1 X159.57 Y101.347 E.349
G1 X159.57 Y101.88 E.01676
G1 X167.43 Y109.741 E.349
G1 X167.43 Y110.275 E.01676
G1 X159.57 Y102.414 E.349
G1 X159.57 Y102.948 E.01676
G1 X167.43 Y110.809 E.349
G1 X167.43 Y111.343 E.01676
G1 X159.57 Y103.482 E.349
G1 X159.57 Y104.016 E.01676
G1 X167.43 Y111.877 E.349
G1 X167.43 Y112.411 E.01676
G1 X159.57 Y104.55 E.349
G1 X159.57 Y105.084 E.01676
G1 X167.43 Y112.945 E.349
G1 X167.43 Y113.479 E.01676
G1 X159.57 Y105.618 E.349
G1 X159.57 Y106.152 E.01676
G1 X167.43 Y114.013 E.349
G1 X167.43 Y114.547 E.01676
G1 X159.57 Y106.686 E.349
G1 X159.57 Y107.22 E.01676
G1 X167.43 Y115.08 E.349
G1 X167.43 Y115.614 E.01676
G1 X159.57 Y107.754 E.349
G1 X159.57 Y108.288 E.01676
G1 X167.43 Y116.148 E.349
G1 X167.43 Y116.682 E.01676
G1 X159.57 Y108.822 E.349
G1 X159.57 Y109.356 E.01676
G1 X167.43 Y117.216 E.349
G1 X167.43 Y117.75 E.01676
G1 X159.57 Y109.89 E.349
G1 X159.57 Y110.424 E.01676
G1 X167.43 Y118.284 E.349
G1 X167.43 Y118.818 E.01676
G1 X159.57 Y110.958 E.349
G1 X159.57 Y111.492 E.01676
G1 X167.43 Y119.352 E.349
G1 X167.43 Y119.886 E.01676
G1 X159.57 Y112.026 E.349
G1 X159.57 Y112.56 E.01676
G1 X167.43 Y120.42 E.349
G1 X167.43 Y120.954 E.01676
G1 X159.57 Y113.094 E.349
G1 X159.57 Y113.628 E.01676
G1 X167.43 Y121.488 E.349
G1 X167.43 Y122.022 E.01676
G1 X159.57 Y114.162 E.349
G1 X159.57 Y114.696 E.01676
G1 X167.43 Y122.556 E.349
G1 X167.43 Y123.09 E.01676
G1 X159.57 Y115.23 E.349
G1 X159.57 Y115.764 E.01676
G1 X167.43 Y123.624 E.349
G1 X167.43 Y124.158 E.01676
G1 X159.57 Y116.298 E.349
G1 X159.57 Y116.832 E.01676
G1 X167.43 Y124.692 E.349
G1 X167.43 Y125.226 E.01676
G1 X159.57 Y117.366 E.349
G1 X159.57 Y117.9 E.01676
G1 X167.43 Y125.76 E.349
G1 X167.43 Y126.294 E.01676
G1 X159.57 Y118.434 E.349
G1 X159.57 Y118.968 E.01676
G1 X167.43 Y126.828 E.349
G1 X167.43 Y127.362 E.01676
G1 X159.57 Y119.502 E.349
G1 X159.57 Y120.036 E.01676
G1 X167.369 Y127.835 E.3463
G1 X167.316 Y128.01 E.00573
G1 X167.21 Y128.21 E.00711
G1 X159.57 Y120.57 E.33921
G1 X159.57 Y121.104 E.01676
G1 X166.976 Y128.51 E.32885
G1 X166.71 Y128.777 E.01185
G1 X159.57 Y121.638 E.31701
G1 X159.57 Y122.172 E.01676
G1 X166.443 Y129.045 E.30516
G1 X166.176 Y129.312 E.01185
G1 X160.04 Y123.176 E.27244
G1 X160.077 Y123.505 E.01039
G1 X160.051 Y123.721 E.00683
G1 X165.909 Y129.579 E.2601
G1 X165.642 Y129.846 E.01185
G1 X159.933 Y124.137 E.25347
G1 X159.897 Y124.233 E.00323
G1 X159.733 Y124.471 E.00906
G1 X165.375 Y130.113 E.25052
G1 X165.108 Y130.38 E.01185
G1 X159.465 Y124.737 E.25055
G1 X159.396 Y124.798 E.0029
G1 X159.132 Y124.937 E.00938
G1 X164.842 Y130.647 E.25352
G1 X164.575 Y130.914 E.01185
G1 X158.719 Y125.059 E.25998
G1 X158.31 Y125.066 E.01286
G1 X158.154 Y125.028 E.00503
G1 X164.308 Y131.181 E.27322
G1 X164.041 Y131.449 E.01185
G1 X157.162 Y124.57 E.30542
G1 X156.628 Y124.57 E.01676
G1 X163.774 Y131.716 E.31727
G1 X163.507 Y131.983 E.01185
G1 X156.094 Y124.57 E.32913
G1 X155.56 Y124.57 E.01676
G1 X163.24 Y132.25 E.34099
G1 X162.974 Y132.517 E.01185
G1 X155.026 Y124.57 E.35285
G1 X154.492 Y124.57 E.01676
M73 P1 R109
G1 X162.707 Y132.784 E.36471
G1 X162.44 Y133.051 E.01185
G1 X159.57 Y130.181 E.12742
G1 X159.57 Y130.715 E.01675
G1 X162.173 Y133.318 E.11559
G1 X161.906 Y133.585 E.01185
G1 X159.569 Y131.249 E.10375
G1 X159.569 Y131.782 E.01675
G1 X161.639 Y133.852 E.09192
G1 X161.372 Y134.12 E.01185
G1 X159.568 Y132.316 E.08009
G1 X159.568 Y132.849 E.01675
G1 X161.105 Y134.387 E.06826
G1 X160.839 Y134.654 E.01185
G1 X159.568 Y133.383 E.05642
G1 X159.567 Y133.917 E.01675
G1 X160.572 Y134.921 E.04459
G1 X160.305 Y135.188 E.01185
G1 X159.567 Y134.45 E.03276
G1 X159.567 Y134.984 E.01675
G1 X160.038 Y135.455 E.02092
G1 X159.771 Y135.722 E.01185
G1 X159.397 Y135.348 E.01662
;WIPE_START
G1 F8640
G1 X159.771 Y135.722 E-.12222
G1 X160.038 Y135.455 E-.08718
G1 X159.567 Y134.984 E-.15388
G1 X159.567 Y134.45 E-.12321
G1 X160.305 Y135.188 E-.24091
G1 X160.405 Y135.088 E-.03259
;WIPE_END
G1 E-.04 F2100
G1 Z.6 F10800
G1 X158.988 Y129.6
G1 Z.2
G1 E.8 F2100
G1 F1200
G1 X153.958 Y124.57 E.22333
G1 X153.425 Y124.57 E.01676
G1 X158.285 Y129.43 E.2158
G1 X157.751 Y129.43 E.01676
G1 X152.891 Y124.57 E.2158
G1 X152.357 Y124.57 E.01676
G1 X157.217 Y129.43 E.2158
G1 X156.683 Y129.43 E.01676
G1 X151.823 Y124.57 E.2158
G1 X151.289 Y124.57 E.01676
G1 X156.149 Y129.43 E.2158
G1 X155.615 Y129.43 E.01676
M73 P2 R109
G1 X150.755 Y124.57 E.2158
G1 X150.221 Y124.57 E.01676
G1 X155.081 Y129.43 E.2158
G1 X154.547 Y129.43 E.01676
G1 X149.687 Y124.57 E.2158
G1 X149.153 Y124.57 E.01676
G1 X154.013 Y129.43 E.2158
G1 X153.479 Y129.43 E.01676
G1 X148.619 Y124.57 E.2158
G1 X148.085 Y124.57 E.01676
G1 X152.945 Y129.43 E.2158
G1 X152.411 Y129.43 E.01676
G1 X147.551 Y124.57 E.2158
G1 X147.017 Y124.57 E.01676
G1 X151.877 Y129.43 E.2158
G1 X151.343 Y129.43 E.01676
G1 X146.483 Y124.57 E.2158
G1 X145.949 Y124.57 E.01676
G1 X150.809 Y129.43 E.2158
G1 X150.275 Y129.43 E.01676
G1 X145.415 Y124.57 E.2158
G1 X144.881 Y124.57 E.01676
G1 X149.741 Y129.43 E.2158
G1 X149.207 Y129.43 E.01676
G1 X144.347 Y124.57 E.2158
G1 X143.813 Y124.57 E.01676
G1 X148.673 Y129.43 E.2158
G1 X148.139 Y129.43 E.01676
G1 X143.279 Y124.57 E.2158
G1 X142.745 Y124.57 E.01676
G1 X147.605 Y129.43 E.2158
G1 X147.071 Y129.43 E.01676
G1 X142.211 Y124.57 E.2158
G1 X141.677 Y124.57 E.01676
G1 X146.537 Y129.43 E.2158
G1 X146.003 Y129.43 E.01676
G1 X141.143 Y124.57 E.2158
