; generated by PrusaSlicer 2.4.0+win64 on 2022-02-13 at 08:05:48 UTC

; 

; external perimeters extrusion width = 0.45mm
; perimeters extrusion width = 0.45mm
; infill extrusion width = 0.45mm
; solid infill extrusion width = 0.45mm
; top infill extrusion width = 0.40mm
; first layer extrusion width = 0.42mm

M73 P0 R27
M201 X9000 Y9000 Z500 E10000 ; sets maximum accelerations, mm/sec^2
M203 X500 Y500 Z12 E120 ; sets maximum feedrates, mm/sec
M204 P2000 R1500 T2000 ; sets acceleration (P, T) and retract acceleration (R), mm/sec^2
M205 X10.00 Y10.00 Z0.20 E2.50 ; sets the jerk limits, mm/sec
M205 S0 T0 ; sets the minimum extruding and travel feed rate, mm/sec
M107
;TYPE:Custom
M862.3 P "MK2S" ; printer model check
M862.1 P0.4 ; nozzle diameter check
M115 U3.2.3 ; tell printer latest fw version
G90 ; use absolute coordinates
M83 ; extruder relative mode
M204 S2000 T1500 ; MK2 firmware only supports the old M204 format
M104 S215 ; set extruder temp
M140 S60 ; set bed temp
M190 S60 ; wait for bed temp
M109 S215 ; wait for extruder temp
G28 W ; home all without mesh bed level
G80 ; mesh bed leveling
G1 Y-3.0 F1000.0 ; go outside print area
G92 E0.0
G1 X60.0 E9.0  F1000.0 ; intro line
G1 X100.0 E12.5 F1000.0 ; intro line
G92 E0.0
G21 ; set units to millimeters
G90 ; use absolute coordinates
M83 ; use relative distances for extrusion
M900 K0.05 ; Filament gcode LA 1.5
M900 K30 ; Filament gcode LA 1.0
M107
;LAYER_CHANGE
;Z:0.2
;HEIGHT:0.2
;BEFORE_LAYER_CHANGE
G92 E0.0
;0.2


G1 E-.8 F2100
G1 Z.4 F10800
;AFTER_LAYER_CHANGE
;0.2
G1 X102.545 Y92.187
G1 Z.2
G1 E.8 F2100
M204 S1000
;TYPE:Skirt/Brim
;WIDTH:0.42
G1 F1200
G1 X103.286 Y91.595 E.02973
G1 X104.056 Y91.26 E.02633
G1 X105 Y91.123 E.0299
G1 X145.266 Y91.138 E1.26253
G1 X146.007 Y91.281 E.02365
G1 X146.699 Y91.587 E.02372
G1 X147.463 Y92.196 E.03063
G1 X147.913 Y92.801 E.02366
G1 X148.145 Y93.282 E.01673
G1 X148.337 Y94.011 E.02365
G1 X148.376 Y94.492 E.01512
G1 X148.362 Y115.766 E.66706
G1 X148.219 Y116.507 E.02365
G1 X147.913 Y117.199 E.02372
G1 X147.314 Y117.953 E.03019
G1 X146.701 Y118.412 E.02401
G1 X146.013 Y118.717 E.0236
G1 X145.008 Y118.876 E.0319
G1 X105 Y118.877 E1.25443
G1 X104.011 Y118.724 E.03138
G1 X103.305 Y118.416 E.02414
G1 X102.54 Y117.807 E.03069
G1 X102.081 Y117.191 E.02407
G1 X101.775 Y116.488 E.02403
G1 X101.623 Y115.5 E.03135
G1 X101.623 Y94.5 E.65844
G1 X101.723 Y93.69 E.0256
G1 X102.079 Y92.814 E.02966
G1 X102.51 Y92.235 E.0226
; printing object table-bottom-protector-more-play-_v018.stl id:0 copy 0
;WIPE_START
G1 F8640
G1 X103.286 Y91.595 E-.23238
G1 X104.056 Y91.26 E-.19391
G1 X105 Y91.123 E-.22019
G1 X105.492 Y91.123 E-.11353
;WIPE_END
G1 E-.04 F2100
G1 Z.6 F10800
G1 X113.239 Y102.084
M73 P0 R26
G1 Z.2
G1 E.8 F2100
;TYPE:Perimeter
G1 F1200
G1 X113.703 Y101.673 E.01945
G1 X114.566 Y101.22 E.03056
G1 X115.513 Y100.987 E.03056
G1 X116.487 Y100.987 E.03056
G1 X117.434 Y101.22 E.03056
G1 X118.297 Y101.673 E.03056
G1 X119.026 Y102.319 E.03056
G1 X119.581 Y103.123 E.03064
G1 X119.93 Y104.069 E.0316
G1 X120.043 Y105 E.0294
G1 X119.925 Y105.968 E.03056
G1 X119.58 Y106.879 E.03056
G1 X119.026 Y107.681 E.03056
G1 X118.297 Y108.327 E.03056
G1 X117.434 Y108.78 E.03056
G1 X116.487 Y109.013 E.03056
G1 X115.513 Y109.013 E.03056
G1 X114.566 Y108.78 E.03056
G1 X113.703 Y108.327 E.03056
G1 X112.974 Y107.681 E.03056
G1 X112.42 Y106.879 E.03056
G1 X112.075 Y105.968 E.03056
G1 X111.957 Y105 E.03056
G1 X112.075 Y104.032 E.03056
G1 X112.42 Y103.121 E.03056
G1 X112.974 Y102.319 E.03056
G1 X113.194 Y102.124 E.00922
G1 X113.258 Y102.571 F10800
;TYPE:External perimeter
G1 F1200
G1 X113.919 Y101.985 E.02769
G1 X114.701 Y101.575 E.02769
G1 X115.559 Y101.364 E.02769
G1 X116.441 Y101.364 E.02768
G1 X117.299 Y101.575 E.02769
G1 X118.081 Y101.985 E.02769
G1 X118.742 Y102.571 E.02769
G1 X119.244 Y103.299 E.02772
G1 X119.561 Y104.158 E.02873
G1 X119.663 Y105 E.02659
G1 X119.557 Y105.877 E.02769
M73 P1 R26
G1 X119.243 Y106.702 E.02769
G1 X118.742 Y107.429 E.02769
G1 X118.081 Y108.015 E.02769
G1 X117.299 Y108.425 E.02769
G1 X116.441 Y108.636 E.02769
G1 X115.559 Y108.636 E.02768
G1 X114.701 Y108.425 E.02769
G1 X113.919 Y108.015 E.02769
G1 X113.258 Y107.429 E.02769
G1 X112.757 Y106.702 E.02769
G1 X112.443 Y105.877 E.02769
G1 X112.337 Y105 E.02769
G1 X112.443 Y104.123 E.02769
G1 X112.757 Y103.298 E.02769
G1 X113.224 Y102.62 E.02581
G1 X113.132 Y102.192 F10800
;WIPE_START
G1 F8640
G1 X113.919 Y101.985 E-.21738
G1 X114.701 Y101.575 E-.20389
G1 X115.559 Y101.364 E-.20392
G1 X116.142 Y101.364 E-.13481
;WIPE_END
G1 E-.04 F2100
G1 Z.6 F10800
G1 X127.213 Y97.787
G1 Z.2
G1 E.8 F2100
;TYPE:Perimeter
G1 F1200
G1 X131.813 Y97.787 E.14423
G1 X131.813 Y112.213 E.45231
G1 X127.213 Y112.213 E.14423
G1 X127.213 Y115.713 E.10974
G1 X105.044 Y115.713 E.69509
G1 X104.91 Y115.687 E.00428
G1 X104.837 Y115.63 E.00291
G1 X104.797 Y115.546 E.0029
G1 X104.787 Y115.456 E.00285
G1 X104.787 Y94.544 E.65567
G1 X104.813 Y94.41 E.0043
G1 X104.87 Y94.337 E.0029
G1 X104.954 Y94.297 E.0029
G1 X105.044 Y94.287 E.00286
G1 X127.213 Y94.287 E.69508
G1 X127.213 Y97.727 E.10786
;WIPE_START
G1 F8640
G1 X130.504 Y97.77 E-.76
;WIPE_END
G1 E-.04 F2100
G1 Z.6 F10800
G1 X145.046 Y94.297
G1 Z.2
G1 E.8 F2100
G1 F1200
G1 X145.163 Y94.37 E.00431
G1 X145.203 Y94.454 E.0029
G1 X145.213 Y94.544 E.00286
G1 X145.203 Y96.046 E.0471
G1 X145.163 Y96.13 E.0029
G1 X145.09 Y96.187 E.0029
G1 X144.956 Y96.213 E.00429
G1 X144.787 Y96.213 E.00529
G1 X144.787 Y94.287 E.06038
G1 X144.987 Y94.291 E.00626
;WIPE_START
G1 F8640
G1 X145.163 Y94.37 E-.04461
G1 X145.203 Y94.454 E-.02134
G1 X145.213 Y94.544 E-.02105
G1 X145.203 Y96.046 E-.34684
G1 X145.163 Y96.13 E-.02135
G1 X145.09 Y96.187 E-.02137
G1 X144.956 Y96.213 E-.0316
G1 X144.787 Y96.213 E-.03896
G1 X144.787 Y95.291 E-.21289
;WIPE_END
G1 E-.04 F2100
G1 Z.6 F10800
G1 X144.956 Y113.787
G1 Z.2
G1 E.8 F2100
G1 F1200
G1 X145.046 Y113.797 E.00285
G1 X145.13 Y113.837 E.0029
G1 X145.203 Y113.954 E.00431
G1 X145.213 Y115.456 E.0471
G1 X145.187 Y115.59 E.00429
G1 X145.09 Y115.687 E.00431
G1 X144.956 Y115.713 E.00429
G1 X144.787 Y115.713 E.00529
G1 X144.787 Y113.787 E.06038
G1 X144.896 Y113.787 E.00341
;WIPE_START
G1 F8640
G1 X145.046 Y113.797 E-.03482
G1 X145.13 Y113.837 E-.02136
G1 X145.203 Y113.954 E-.03171
G1 X145.213 Y115.456 E-.34684
G1 X145.187 Y115.59 E-.03161
G1 X145.09 Y115.687 E-.03171
G1 X144.956 Y115.713 E-.03161
G1 X144.787 Y115.713 E-.03894
G1 X144.787 Y114.884 E-.19139
;WIPE_END
G1 E-.04 F2100
G1 Z.6 F10800
G1 X144.41 Y94.59
G1 Z.2
G1 E.8 F2100
;TYPE:External perimeter
G1 F1200
G1 X127.59 Y94.59 E.52738
G1 X127.59 Y97.41 E.08842
G1 X132.19 Y97.41 E.14423
G1 X132.19 Y112.59 E.47596
G1 X127.59 Y112.59 E.14423
G1 X127.59 Y115.41 E.08842
G1 X144.41 Y115.41 E.52738
G1 X144.41 Y113.41 E.06271
G1 X144.977 Y113.41 E.01778
G1 X145.131 Y113.427 E.00485
G1 X145.255 Y113.471 E.00413
G1 X145.366 Y113.541 E.00412
G1 X145.459 Y113.634 E.00412
G1 X145.529 Y113.745 E.00412
G1 X145.573 Y113.869 E.00412
G1 X145.59 Y114.023 E.00485
G1 X145.59 Y115.477 E.04559
G1 X145.573 Y115.631 E.00485
G1 X145.529 Y115.755 E.00412
G1 X145.459 Y115.866 E.00412
G1 X145.366 Y115.959 E.00413
G1 X145.255 Y116.029 E.00412
G1 X145.131 Y116.073 E.00412
G1 X144.977 Y116.09 E.00485
G1 X105.023 Y116.09 E1.25273
G1 X104.869 Y116.073 E.00484
G1 X104.745 Y116.029 E.00413
G1 X104.634 Y115.959 E.00413
G1 X104.541 Y115.866 E.00413
G1 X104.471 Y115.755 E.00413
G1 X104.427 Y115.631 E.00412
G1 X104.41 Y115.477 E.00485
G1 X104.41 Y94.523 E.657
G1 X104.427 Y94.369 E.00484
G1 X104.471 Y94.245 E.00414
G1 X104.541 Y94.134 E.00411
G1 X104.634 Y94.041 E.00413
G1 X104.745 Y93.971 E.00412
G1 X104.869 Y93.927 E.00413
G1 X105.023 Y93.91 E.00485
G1 X144.977 Y93.91 E1.25273
G1 X145.131 Y93.927 E.00485
M73 P2 R26
G1 X145.255 Y93.971 E.00412
G1 X145.366 Y94.041 E.00412
G1 X145.459 Y94.134 E.00413
G1 X145.529 Y94.245 E.00412
G1 X145.573 Y94.369 E.00412
G1 X145.59 Y94.523 E.00485
G1 X145.59 Y95.977 E.04559
G1 X145.573 Y96.131 E.00485
G1 X145.529 Y96.255 E.00412
G1 X145.459 Y96.366 E.00412
G1 X145.366 Y96.459 E.00412
G1 X145.255 Y96.529 E.00412
G1 X145.131 Y96.573 E.00413
G1 X144.977 Y96.59 E.00485
G1 X144.41 Y96.59 E.01778
G1 X144.41 Y94.65 E.06083
G1 X144.373 Y94.192 F10800
G1 X144.599 Y94.25
;TYPE:Gap fill
;WIDTH:0.345842
G1 F1200
G1 X127.401 Y94.25 E.43316
;WIPE_START
G1 F8640
G1 X130.693 Y94.25 E-.76
;WIPE_END
G1 E-.04 F2100
G1 Z.6 F10800
G1 X131.7 Y98.667
G1 Z.2
G1 E.8 F2100
;TYPE:Solid infill
;WIDTH:0.422088
G1 F1200
G1 X131.103 Y98.07 E.02662
G1 X130.567 Y98.07 E.01691
G1 X131.53 Y99.033 E.04296
G1 X131.53 Y99.57 E.01691
G1 X130.03 Y98.07 E.06687
G1 X129.494 Y98.07 E.01691
G1 X131.53 Y100.106 E.09078
G1 X131.53 Y100.642 E.01691
G1 X128.958 Y98.07 E.11469
G1 X128.422 Y98.07 E.01691
G1 X131.53 Y101.178 E.1386
G1 X131.53 Y101.715 E.01691
G1 X127.716 Y97.9 E.17007
;WIPE_START
G1 F8640
G1 X130.043 Y100.228 E-.76
;WIPE_END
G1 E-.04 F2100
G1 Z.6 F10800
G1 X127.1 Y95.139
G1 Z.2
G1 E.8 F2100
G1 F1200
G1 X126.53 Y94.57 E.02539
G1 X125.994 Y94.57 E.01691
G1 X126.93 Y95.506 E.04173
G1 X126.93 Y96.042 E.01691
G1 X125.458 Y94.57 E.06564
G1 X124.922 Y94.57 E.01691
G1 X126.93 Y96.578 E.08955
G1 X126.93 Y97.115 E.01691
G1 X124.385 Y94.57 E.11346
G1 X123.849 Y94.57 E.01691
G1 X126.93 Y97.651 E.13737
G1 X126.93 Y98.07 E.01321
G1 X127.349 Y98.07 E.01321
G1 X131.53 Y102.251 E.18641
G1 X131.53 Y102.787 E.01691
G1 X123.313 Y94.57 E.36638
G1 X122.777 Y94.57 E.01691
G1 X131.53 Y103.323 E.39029
G1 X131.53 Y103.859 E.01691
G1 X122.241 Y94.57 E.4142
G1 X121.704 Y94.57 E.01691
G1 X131.53 Y104.396 E.43811
G1 X131.53 Y104.932 E.01691
G1 X121.168 Y94.57 E.46201
G1 X120.632 Y94.57 E.01691
G1 X131.53 Y105.468 E.48592
G1 X131.53 Y106.004 E.01691
G1 X120.096 Y94.57 E.50983
G1 X119.559 Y94.57 E.01691
G1 X131.53 Y106.541 E.53374
G1 X131.53 Y107.077 E.01691
G1 X119.023 Y94.57 E.55765
G1 X118.487 Y94.57 E.01691
G1 X131.53 Y107.613 E.58156
G1 X131.53 Y108.149 E.01691
G1 X117.951 Y94.57 E.60547
G1 X117.415 Y94.57 E.01691
G1 X131.53 Y108.685 E.62938
G1 X131.53 Y109.222 E.01691
G1 X116.878 Y94.57 E.65328
G1 X116.342 Y94.57 E.01691
G1 X131.53 Y109.758 E.67719
G1 X131.53 Y110.294 E.01691
M73 P3 R26
G1 X115.806 Y94.57 E.7011
G1 X115.27 Y94.57 E.01691
G1 X131.53 Y110.83 E.72501
G1 X131.53 Y111.367 E.01691
G1 X114.733 Y94.57 E.74892
G1 X114.197 Y94.57 E.01691
G1 X131.53 Y111.903 E.77283
G1 X131.53 Y111.93 E.00086
G1 X131.021 Y111.93 E.01604
G1 X113.661 Y94.57 E.77405
G1 X113.125 Y94.57 E.01691
G1 X130.485 Y111.93 E.77405
G1 X129.949 Y111.93 E.01691
G1 X112.589 Y94.57 E.77405
G1 X112.052 Y94.57 E.01691
G1 X129.413 Y111.93 E.77405
G1 X128.876 Y111.93 E.01691
G1 X111.516 Y94.57 E.77405
G1 X110.98 Y94.57 E.01691
G1 X117.307 Y100.898 E.28213
G1 X116.596 Y100.722 E.02311
G1 X110.444 Y94.57 E.27431
G1 X109.907 Y94.57 E.01691
G1 X116.041 Y100.704 E.2735
G1 X115.505 Y100.704 E.01691
G1 X109.371 Y94.57 E.2735
G1 X108.835 Y94.57 E.01691
G1 X115.07 Y100.805 E.27799
G1 X114.639 Y100.911 E.01397
G1 X108.299 Y94.57 E.28272
G1 X107.762 Y94.57 E.01691
G1 X114.256 Y101.063 E.28953
G1 X113.904 Y101.248 E.01252
G1 X107.226 Y94.57 E.29776
G1 X106.69 Y94.57 E.01691
G1 X113.553 Y101.433 E.30599
G1 X113.266 Y101.682 E.01198
G1 X106.154 Y94.57 E.31712
G1 X105.618 Y94.57 E.01691
M73 P4 R26
G1 X112.982 Y101.934 E.32835
G1 X112.761 Y102.13 E.00932
G1 X112.712 Y102.201 E.0027
G1 X105.07 Y94.57 E.34048
G1 X105.07 Y95.095 E.01654
G1 X112.493 Y102.518 E.33098
G1 X112.274 Y102.835 E.01215
G1 X105.07 Y95.631 E.32122
G1 X105.07 Y96.167 E.01691
G1 X112.092 Y103.189 E.3131
G1 X111.945 Y103.578 E.01311
G1 X105.07 Y96.703 E.30652
G1 X105.07 Y97.239 E.01691
G1 X111.798 Y103.967 E.29997
G1 X111.74 Y104.445 E.01519
G1 X105.07 Y97.776 E.29739
G1 X105.07 Y98.312 E.01691
G1 X111.682 Y104.924 E.2948
G1 X111.672 Y105 E.00243
G1 X111.735 Y105.513 E.01629
G1 X105.07 Y98.848 E.29716
G1 X105.07 Y99.384 E.01691
G1 X112.137 Y106.452 E.31512
;WIPE_START
G1 F8640
G1 X109.81 Y104.124 E-.76
;WIPE_END
G1 E-.04 F2100
G1 Z.6 F10800
G1 X119.8 Y103.39
G1 Z.2
G1 E.8 F2100
G1 F1200
G1 X128.34 Y111.93 E.38077
G1 X127.804 Y111.93 E.01691
G1 X120.252 Y104.379 E.3367
G1 X120.326 Y104.989 E.01938
G1 X127.268 Y111.93 E.30949
G1 X126.93 Y111.93 E.01064
G1 X126.93 Y112.129 E.00626
G1 X120.271 Y105.469 E.29692
G1 X120.213 Y105.948 E.01519
M73 P4 R25
G1 X126.93 Y112.665 E.29951
G1 X126.93 Y113.201 E.01691
G1 X120.082 Y106.353 E.30535
G1 X119.934 Y106.742 E.01311
G1 X126.93 Y113.738 E.31193
G1 X126.93 Y114.274 E.01691
G1 X119.765 Y107.108 E.31948
G1 X119.546 Y107.426 E.01215
G1 X126.93 Y114.81 E.32924
G1 X126.93 Y115.346 E.01691
G1 X119.327 Y107.743 E.33901
G1 X119.239 Y107.87 E.00486
G1 X119.069 Y108.021 E.00719
G1 X126.478 Y115.43 E.33035
G1 X125.942 Y115.43 E.01691
G1 X118.784 Y108.273 E.31912
G1 X118.5 Y108.525 E.01198
G1 X125.405 Y115.43 E.30789
G1 X124.869 Y115.43 E.01691
G1 X118.158 Y108.719 E.29922
G1 X117.807 Y108.904 E.01252
G1 X124.333 Y115.43 E.29099
G1 X123.797 Y115.43 E.01691
G1 X117.437 Y109.071 E.28356
G1 X117.007 Y109.177 E.01397
G1 X123.261 Y115.43 E.27883
G1 X122.724 Y115.43 E.01691
G1 X116.577 Y109.283 E.2741
G1 X116.054 Y109.296 E.01648
G1 X122.188 Y115.43 E.2735
G1 X121.652 Y115.43 E.01691
M73 P5 R25
G1 X115.518 Y109.296 E.2735
G1 X114.819 Y109.134 E.02262
G1 X121.116 Y115.43 E.28074
G1 X120.579 Y115.43 E.01691
G1 X113.898 Y108.749 E.29791
G1 X113.542 Y108.562 E.01269
G1 X112.761 Y107.87 E.03289
G1 X112.185 Y107.036 E.03196
G1 X105.07 Y99.921 E.31723
G1 X105.07 Y100.457 E.01691
G1 X120.043 Y115.43 E.66762
G1 X119.507 Y115.43 E.01691
G1 X105.07 Y100.993 E.64371
G1 X105.07 Y101.529 E.01691
G1 X118.971 Y115.43 E.6198
G1 X118.434 Y115.43 E.01691
G1 X105.07 Y102.066 E.59589
G1 X105.07 Y102.602 E.01691
G1 X117.898 Y115.43 E.57198
G1 X117.362 Y115.43 E.01691
G1 X105.07 Y103.138 E.54807
G1 X105.07 Y103.674 E.01691
G1 X116.826 Y115.43 E.52417
G1 X116.29 Y115.43 E.01691
G1 X105.07 Y104.21 E.50026
G1 X105.07 Y104.747 E.01691
G1 X115.753 Y115.43 E.47635
G1 X115.217 Y115.43 E.01691
G1 X105.07 Y105.283 E.45244
G1 X105.07 Y105.819 E.01691
G1 X114.681 Y115.43 E.42853
G1 X114.145 Y115.43 E.01691
G1 X105.07 Y106.355 E.40462
G1 X105.07 Y106.892 E.01691
G1 X113.608 Y115.43 E.38071
G1 X113.072 Y115.43 E.01691
G1 X105.07 Y107.428 E.3568
G1 X105.07 Y107.964 E.01691
G1 X112.536 Y115.43 E.3329
G1 X112 Y115.43 E.01691
G1 X105.07 Y108.5 E.30899
G1 X105.07 Y109.036 E.01691
G1 X111.464 Y115.43 E.28508
G1 X110.927 Y115.43 E.01691
G1 X105.07 Y109.573 E.26117
G1 X105.07 Y110.109 E.01691
G1 X110.391 Y115.43 E.23726
G1 X109.855 Y115.43 E.01691
M73 P6 R25
G1 X105.07 Y110.645 E.21335
G1 X105.07 Y111.181 E.01691
G1 X109.319 Y115.43 E.18944
G1 X108.782 Y115.43 E.01691
G1 X105.07 Y111.718 E.16553
G1 X105.07 Y112.254 E.01691
G1 X108.246 Y115.43 E.14163
G1 X107.71 Y115.43 E.01691
G1 X105.07 Y112.79 E.11772
G1 X105.07 Y113.326 E.01691
G1 X107.174 Y115.43 E.09381
G1 X106.638 Y115.43 E.01691
G1 X105.07 Y113.862 E.0699
G1 X105.07 Y114.399 E.01691
G1 X106.101 Y115.43 E.04599
G1 X105.565 Y115.43 E.01691
G1 X104.9 Y114.765 E.02965
;WIPE_START
G1 F8640
G1 X105.565 Y115.43 E-.21713
G1 X106.101 Y115.43 E-.12382
G1 X105.07 Y114.399 E-.33682
G1 X105.07 Y114.043 E-.08223
;WIPE_END
G1 E-.04 F2100
G1 Z.6 F10800
G1 X127.401 Y115.75
G1 Z.2
G1 E.8 F2100
;TYPE:Gap fill
;WIDTH:0.345842
G1 F1200
G1 X144.599 Y115.75 E.43316
; stop printing object table-bottom-protector-more-play-_v018.stl id:0 copy 0
M106 S255
;LAYER_CHANGE
;Z:0.4
;HEIGHT:0.2
;BEFORE_LAYER_CHANGE
G92 E0.0
;0.4


;WIPE_START
G1 F8640
G1 X141.307 Y115.75 E-.76
;WIPE_END
G1 E-.04 F2100
G1 Z.6 F10800
;AFTER_LAYER_CHANGE
;0.4
M104 S210 ; set temperature
G1 X141.307 Y118.876
G1 Z.4
G1 E.8 F2100
;TYPE:Skirt/Brim
;WIDTH:0.42
G1 F3000
G1 X105 Y118.877 E1.13838
G1 X104.011 Y118.724 E.03138
G1 X103.305 Y118.416 E.02414
G1 X102.54 Y117.807 E.03069
G1 X102.081 Y117.191 E.02407
G1 X101.775 Y116.488 E.02403
G1 X101.623 Y115.5 E.03135
G1 X101.623 Y94.5 E.65844
G1 X101.723 Y93.69 E.0256
G1 X102.079 Y92.814 E.02966
G1 X102.545 Y92.187 E.02448
G1 X103.286 Y91.595 E.02973
G1 X104.056 Y91.26 E.02633
G1 X105 Y91.123 E.0299
