; generated by PrusaSlicer 2.4.0+win64 on 2022-02-13 at 08:09:36 UTC

; 

; external perimeters extrusion width = 0.45mm
; perimeters extrusion width = 0.45mm
; infill extrusion width = 0.45mm
; solid infill extrusion width = 0.45mm
; top infill extrusion width = 0.40mm
; first layer extrusion width = 0.42mm

M73 P0 R24
M201 X9000 Y9000 Z500 E10000 ; sets maximum accelerations, mm/sec^2
M203 X500 Y500 Z12 E120 ; sets maximum feedrates, mm/sec
M204 P2000 R1500 T2000 ; sets acceleration (P, T) and retract acceleration (R), mm/sec^2
M205 X10.00 Y10.00 Z0.20 E2.50 ; sets the jerk limits, mm/sec
M205 S0 T0 ; sets the minimum extruding and travel feed rate, mm/sec
M107
;TYPE:Custom
M862.3 P "MK2S" ; printer model check
M862.1 P0.4 ; nozzle diameter check
M115 U3.2.3 ; tell printer latest fw version
G90 ; use absolute coordinates
M83 ; extruder relative mode
M204 S2000 T1500 ; MK2 firmware only supports the old M204 format
M104 S215 ; set extruder temp
M140 S60 ; set bed temp
M190 S60 ; wait for bed temp
M109 S215 ; wait for extruder temp
G28 W ; home all without mesh bed level
G80 ; mesh bed leveling
G1 Y-3.0 F1000.0 ; go outside print area
G92 E0.0
G1 X60.0 E9.0  F1000.0 ; intro line
G1 X100.0 E12.5 F1000.0 ; intro line
G92 E0.0
G21 ; set units to millimeters
G90 ; use absolute coordinates
M83 ; use relative distances for extrusion
M900 K0.05 ; Filament gcode LA 1.5
M900 K30 ; Filament gcode LA 1.0
M107
;LAYER_CHANGE
;Z:0.2
;HEIGHT:0.2
;BEFORE_LAYER_CHANGE
G92 E0.0
;0.2


G1 E-.8 F2100
G1 Z.4 F10800
;AFTER_LAYER_CHANGE
;0.2
G1 X111.893 Y97.438
G1 Z.2
G1 E.8 F2100
M204 S1000
;TYPE:Skirt/Brim
;WIDTH:0.42
G1 F1200
G1 X117.203 Y92.117 E.2357
G1 X118.161 Y91.378 E.03795
G1 X119.885 Y90.629 E.05892
G1 X121.079 Y90.385 E.03822
G1 X128.597 Y90.377 E.23573
G1 X129.496 Y90.46 E.02829
G1 X130.533 Y90.785 E.03407
G1 X131.839 Y91.378 E.04498
G1 X132.563 Y91.893 E.02785
G1 X137.883 Y97.203 E.23568
G1 X138.622 Y98.161 E.03792
G1 X139.371 Y99.885 E.05892
G1 X139.615 Y101.079 E.03822
G1 X139.623 Y108.597 E.23573
G1 X139.468 Y109.796 E.03791
G1 X138.779 Y111.545 E.05893
G1 X138.107 Y112.562 E.03821
G1 X132.562 Y118.107 E.24587
G1 X131.549 Y118.776 E.03807
G1 X130.115 Y119.371 E.04867
G1 X128.921 Y119.615 E.03822
G1 X121.403 Y119.623 E.23573
G1 X120.204 Y119.468 E.03791
G1 X118.455 Y118.779 E.05892
G1 X117.438 Y118.107 E.03823
G1 X111.893 Y112.562 E.24586
G1 X111.221 Y111.545 E.03823
G1 X110.629 Y110.115 E.04851
G1 X110.385 Y108.921 E.03822
G1 X110.377 Y101.403 E.23573
G1 X110.532 Y100.204 E.03791
G1 X111.221 Y98.455 E.05893
G1 X111.86 Y97.488 E.03633
G1 X112.166 Y97.698 F10800
G1 F1200
G1 X117.463 Y92.39 E.23512
G1 X118.355 Y91.701 E.03535
G1 X120.016 Y90.983 E.05674
G1 X121.088 Y90.762 E.03432
G1 X128.588 Y90.754 E.23515
G1 X129.399 Y90.825 E.02553
G1 X130.401 Y91.138 E.03291
G1 X131.642 Y91.7 E.0427
G1 X132.302 Y92.166 E.02536
G1 X137.61 Y97.463 E.23511
G1 X138.299 Y98.355 E.03533
G1 X139.017 Y100.016 E.05674
G1 X139.238 Y101.088 E.03431
G1 X139.246 Y108.588 E.23515
G1 X139.101 Y109.708 E.03542
G1 X138.436 Y111.388 E.05665
G1 X137.834 Y112.302 E.0343
G1 X132.305 Y117.831 E.24518
G1 X131.392 Y118.433 E.03428
G1 X129.984 Y119.017 E.04781
G1 X128.912 Y119.238 E.03431
G1 X121.412 Y119.246 E.23515
G1 X120.292 Y119.101 E.03542
M73 P1 R24
G1 X118.612 Y118.436 E.05665
G1 X117.698 Y117.834 E.03432
G1 X112.168 Y112.305 E.24517
G1 X111.567 Y111.392 E.03426
G1 X110.983 Y109.984 E.04781
G1 X110.762 Y108.912 E.03431
G1 X110.754 Y101.412 E.23515
G1 X110.898 Y100.295 E.03532
G1 X111.564 Y98.612 E.05674
G1 X112.133 Y97.748 E.03243
; printing object vice-thumb-knob-v20-_v016.stl id:0 copy 0
;WIPE_START
G1 F8640
G1 X114.454 Y95.415 E-.76
;WIPE_END
G1 E-.04 F2100
G1 Z.6 F10800
G1 X121.71 Y102.876
G1 Z.2
G1 E.8 F2100
;TYPE:Perimeter
G1 F1200
G1 X122.049 Y102.385 E.0187
G1 X122.76 Y101.755 E.0298
G1 X123.602 Y101.313 E.0298
G1 X124.525 Y101.086 E.0298
G1 X125.475 Y101.086 E.0298
G1 X126.398 Y101.313 E.0298
G1 X127.24 Y101.755 E.0298
G1 X127.951 Y102.385 E.0298
G1 X128.491 Y103.168 E.0298
G1 X128.828 Y104.056 E.0298
G1 X128.943 Y105 E.0298
G1 X128.828 Y105.944 E.0298
G1 X128.491 Y106.832 E.0298
G1 X127.951 Y107.615 E.0298
G1 X127.24 Y108.245 E.0298
G1 X126.398 Y108.687 E.0298
G1 X125.475 Y108.914 E.0298
G1 X124.525 Y108.914 E.0298
G1 X123.602 Y108.687 E.0298
G1 X122.76 Y108.245 E.0298
G1 X122.049 Y107.615 E.0298
G1 X121.509 Y106.832 E.0298
G1 X121.172 Y105.944 E.0298
G1 X121.057 Y105 E.0298
G1 X121.172 Y104.056 E.0298
G1 X121.509 Y103.168 E.0298
G1 X121.676 Y102.926 E.00922
G1 X121.845 Y103.344 F10800
;TYPE:External perimeter
G1 F1200
G1 X122.333 Y102.637 E.02693
G1 X122.976 Y102.068 E.02693
G1 X123.737 Y101.669 E.02693
G1 X124.571 Y101.463 E.02693
G1 X125.429 Y101.463 E.02693
G1 X126.263 Y101.669 E.02693
G1 X127.024 Y102.068 E.02693
G1 X127.667 Y102.637 E.02693
G1 X128.155 Y103.344 E.02693
G1 X128.46 Y104.147 E.02693
G1 X128.563 Y105 E.02693
G1 X128.46 Y105.853 E.02693
G1 X128.155 Y106.656 E.02693
G1 X127.667 Y107.363 E.02693
G1 X127.024 Y107.932 E.02693
G1 X126.263 Y108.331 E.02693
G1 X125.429 Y108.537 E.02693
G1 X124.571 Y108.537 E.02693
G1 X123.737 Y108.331 E.02693
G1 X122.976 Y107.932 E.02693
G1 X122.333 Y107.363 E.02693
G1 X121.845 Y106.656 E.02693
G1 X121.54 Y105.853 E.02693
G1 X121.437 Y105 E.02693
G1 X121.54 Y104.147 E.02693
G1 X121.824 Y103.4 E.02505
G1 X121.631 Y103.006 F10800
;WIPE_START
G1 F8640
G1 X122.333 Y102.637 E-.21182
G1 X122.976 Y102.068 E-.19833
G1 X123.737 Y101.669 E-.19834
G1 X124.374 Y101.511 E-.15152
;WIPE_END
G1 E-.04 F2100
G1 Z.6 F10800
G1 X118.709 Y98.211
G1 Z.2
G1 E.8 F2100
;TYPE:Perimeter
G1 F1200
G1 X119.044 Y97.785 E.01698
G1 X119.418 Y96.969 E.02814
G1 X119.591 Y96.084 E.0283
G1 X119.54 Y95.053 E.03235
G1 X119.564 Y94.898 E.00491
G1 X119.62 Y94.752 E.00493
G1 X119.708 Y94.621 E.00493
G1 X119.819 Y94.515 E.00481
G1 X119.971 Y94.422 E.00557
G1 X120.32 Y94.263 E.01203
G1 X121.082 Y93.963 E.02568
G1 X121.25 Y93.923 E.00541
G1 X121.403 Y93.919 E.00481
G1 X121.557 Y93.95 E.00493
G1 X121.701 Y94.013 E.00493
G1 X121.827 Y94.105 E.0049
G1 X122.518 Y94.87 E.03231
G1 X123.269 Y95.375 E.02836
G1 X124.11 Y95.687 E.02812
G1 X125 Y95.793 E.02811
G1 X125.89 Y95.687 E.02811
G1 X126.731 Y95.375 E.02814
G1 X127.48 Y94.87 E.0283
G1 X128.173 Y94.106 E.03235
G1 X128.299 Y94.013 E.0049
G1 X128.443 Y93.95 E.00493
G1 X128.597 Y93.919 E.00493
G1 X128.75 Y93.923 E.00481
G1 X128.923 Y93.964 E.00558
G1 X129.282 Y94.098 E.012
G1 X130.034 Y94.425 E.0257
G1 X130.181 Y94.515 E.00541
G1 X130.292 Y94.621 E.00481
G1 X130.38 Y94.752 E.00493
G1 X130.436 Y94.898 E.00493
G1 X130.459 Y95.046 E.00468
G1 X130.401 Y95.824 E.02447
G1 X130.515 Y96.737 E.02885
G1 X130.855 Y97.61 E.02938
G1 X131.398 Y98.373 E.02938
G1 X132.113 Y98.98 E.02937
G1 X132.954 Y99.393 E.02938
G1 X133.877 Y99.589 E.0296
G1 X134.946 Y99.54 E.03354
G1 X135.102 Y99.564 E.00494
G1 X135.248 Y99.62 E.00493
G1 X135.379 Y99.708 E.00493
G1 X135.485 Y99.819 E.00482
G1 X135.578 Y99.971 E.00558
G1 X135.737 Y100.319 E.012
G1 X136.037 Y101.082 E.0257
G1 X136.077 Y101.25 E.00541
G1 X136.081 Y101.403 E.00481
G1 X136.05 Y101.557 E.00493
G1 X135.987 Y101.701 E.00493
G1 X135.895 Y101.827 E.0049
G1 X135.13 Y102.519 E.03231
G1 X134.625 Y103.269 E.02836
G1 X134.313 Y104.11 E.02812
G1 X134.207 Y105 E.02812
G1 X134.313 Y105.89 E.02812
G1 X134.625 Y106.731 E.02812
G1 X135.13 Y107.48 E.02831
G1 X135.894 Y108.173 E.03235
G1 X135.987 Y108.299 E.0049
G1 X136.05 Y108.443 E.00493
G1 X136.081 Y108.597 E.00493
G1 X136.077 Y108.75 E.00481
G1 X136.037 Y108.918 E.00541
G1 X135.737 Y109.681 E.0257
G1 X135.578 Y110.029 E.012
G1 X135.485 Y110.181 E.00558
G1 X135.379 Y110.292 E.00482
G1 X135.248 Y110.38 E.00493
G1 X135.102 Y110.436 E.00493
G1 X134.946 Y110.46 E.00494
G1 X133.878 Y110.411 E.03351
G1 X132.954 Y110.607 E.02964
G1 X132.113 Y111.02 E.02937
G1 X131.399 Y111.626 E.02938
G1 X130.855 Y112.39 E.0294
G1 X130.515 Y113.263 E.02936
G1 X130.401 Y114.175 E.02884
G1 X130.459 Y114.954 E.02448
G1 X130.436 Y115.102 E.00468
G1 X130.38 Y115.248 E.00493
G1 X130.292 Y115.379 E.00493
G1 X130.181 Y115.485 E.00481
G1 X130.029 Y115.578 E.00557
G1 X129.681 Y115.737 E.012
G1 X128.918 Y116.037 E.0257
G1 X128.75 Y116.077 E.00541
G1 X128.597 Y116.081 E.00481
G1 X128.443 Y116.05 E.00493
G1 X128.299 Y115.987 E.00493
G1 X128.173 Y115.895 E.0049
G1 X127.481 Y115.13 E.03231
G1 X126.731 Y114.625 E.02836
G1 X125.89 Y114.313 E.02812
G1 X125 Y114.207 E.02811
G1 X124.11 Y114.313 E.02811
G1 X123.269 Y114.625 E.02813
G1 X122.52 Y115.13 E.02831
G1 X121.827 Y115.894 E.03235
G1 X121.701 Y115.987 E.0049
G1 X121.557 Y116.05 E.00493
G1 X121.403 Y116.081 E.00493
G1 X121.25 Y116.077 E.00481
G1 X121.082 Y116.037 E.00541
G1 X120.319 Y115.737 E.0257
G1 X119.971 Y115.578 E.012
G1 X119.819 Y115.485 E.00557
G1 X119.708 Y115.379 E.00482
G1 X119.62 Y115.248 E.00493
G1 X119.564 Y115.102 E.00493
G1 X119.54 Y114.947 E.0049
G1 X119.591 Y113.918 E.03231
G1 X119.418 Y113.03 E.02836
G1 X119.044 Y112.215 E.02812
G1 X118.49 Y111.511 E.02811
G1 X117.785 Y110.956 E.02811
G1 X116.969 Y110.582 E.02813
G1 X116.084 Y110.409 E.0283
G1 X115.053 Y110.46 E.03235
G1 X114.898 Y110.436 E.00491
G1 X114.752 Y110.38 E.00493
G1 X114.621 Y110.292 E.00493
G1 X114.515 Y110.181 E.00482
G1 X114.422 Y110.029 E.00558
G1 X114.263 Y109.681 E.012
G1 X113.963 Y108.918 E.0257
G1 X113.923 Y108.75 E.00541
G1 X113.919 Y108.597 E.00481
G1 X113.95 Y108.443 E.00493
G1 X114.013 Y108.299 E.00493
G1 X114.105 Y108.173 E.0049
G1 X114.87 Y107.481 E.03231
G1 X115.375 Y106.731 E.02836
G1 X115.687 Y105.89 E.02812
G1 X115.793 Y105 E.02811
G1 X115.687 Y104.11 E.02811
G1 X115.375 Y103.269 E.02813
G1 X114.87 Y102.52 E.02831
G1 X114.106 Y101.827 E.03235
G1 X114.013 Y101.701 E.0049
G1 X113.95 Y101.557 E.00493
G1 X113.919 Y101.403 E.00493
G1 X113.923 Y101.25 E.00481
G1 X113.963 Y101.082 E.00541
G1 X114.263 Y100.319 E.0257
G1 X114.422 Y99.971 E.012
G1 X114.515 Y99.819 E.00558
G1 X114.621 Y99.708 E.00482
G1 X114.752 Y99.62 E.00493
G1 X114.898 Y99.564 E.00493
G1 X115.053 Y99.54 E.0049
G1 X116.082 Y99.591 E.03231
G1 X116.97 Y99.418 E.02835
G1 X117.785 Y99.044 E.02812
G1 X118.489 Y98.49 E.02811
G1 X118.672 Y98.258 E.00925
G1 X118.221 Y98.221 F10800
;TYPE:External perimeter
G1 F1200
G1 X118.72 Y97.587 E.0253
G1 X119.057 Y96.853 E.02532
G1 X119.212 Y96.056 E.02545
G1 X119.161 Y95.034 E.03211
G1 X119.197 Y94.8 E.0074
G1 X119.284 Y94.576 E.00754
G1 X119.418 Y94.377 E.00754
G1 X119.588 Y94.215 E.00736
G1 X119.793 Y94.089 E.00755
G1 X120.172 Y93.916 E.01306
G1 X120.968 Y93.603 E.02682
G1 X121.2 Y93.547 E.00749
G1 X121.435 Y93.541 E.00736
G1 X121.671 Y93.588 E.00754
G1 X121.891 Y93.685 E.00754
G1 X122.081 Y93.824 E.00739
G1 X122.767 Y94.582 E.03206
G1 X123.442 Y95.037 E.02551
G1 X124.199 Y95.318 E.0253
G1 X125 Y95.413 E.0253
G1 X125.801 Y95.318 E.0253
G1 X126.558 Y95.037 E.02532
G1 X127.232 Y94.583 E.02545
G1 X127.919 Y93.824 E.03211
G1 X128.109 Y93.685 E.0074
G1 X128.329 Y93.588 E.00754
G1 X128.565 Y93.541 E.00754
G1 X128.8 Y93.547 E.00736
G1 X129.034 Y93.603 E.00755
G1 X129.423 Y93.748 E.01303
G1 X130.208 Y94.09 E.02685
G1 X130.412 Y94.215 E.00749
G1 X130.582 Y94.377 E.00736
G1 X130.716 Y94.576 E.00754
G1 X130.803 Y94.8 E.00754
G1 X130.838 Y95.031 E.00731
G1 X130.78 Y95.815 E.02464
G1 X130.883 Y96.644 E.02621
G1 X131.189 Y97.43 E.02644
G1 X131.678 Y98.116 E.02643
G1 X132.321 Y98.662 E.02643
G1 X133.078 Y99.034 E.02644
G1 X133.908 Y99.21 E.02661
G1 X134.966 Y99.161 E.0332
G1 X135.2 Y99.197 E.00741
G1 X135.424 Y99.284 E.00754
G1 X135.623 Y99.418 E.00754
G1 X135.785 Y99.588 E.00737
G1 X135.911 Y99.793 E.00755
G1 X136.084 Y100.171 E.01303
G1 X136.397 Y100.968 E.02685
G1 X136.453 Y101.2 E.00749
G1 X136.459 Y101.435 E.00736
G1 X136.412 Y101.671 E.00754
G1 X136.315 Y101.891 E.00754
G1 X136.176 Y102.081 E.00739
G1 X135.417 Y102.767 E.03207
G1 X134.963 Y103.442 E.02551
G1 X134.682 Y104.199 E.0253
G1 X134.587 Y105 E.0253
G1 X134.682 Y105.801 E.0253
G1 X134.963 Y106.558 E.0253
G1 X135.417 Y107.232 E.02546
G1 X136.176 Y107.919 E.0321
G1 X136.315 Y108.109 E.00739
G1 X136.412 Y108.329 E.00754
G1 X136.459 Y108.565 E.00754
G1 X136.453 Y108.8 E.00736
G1 X136.397 Y109.032 E.00749
G1 X136.084 Y109.829 E.02685
G1 X135.911 Y110.207 E.01304
G1 X135.785 Y110.412 E.00755
G1 X135.623 Y110.582 E.00737
G1 X135.424 Y110.716 E.00754
G1 X135.2 Y110.803 E.00754
G1 X134.966 Y110.839 E.00741
G1 X133.909 Y110.79 E.03316
G1 X133.078 Y110.966 E.02666
G1 X132.321 Y111.338 E.02642
G1 X131.679 Y111.883 E.02643
G1 X131.189 Y112.571 E.02646
G1 X130.883 Y113.356 E.02642
G1 X130.78 Y114.185 E.02619
G1 X130.838 Y114.969 E.02465
G1 X130.803 Y115.2 E.00731
G1 X130.716 Y115.424 E.00754
G1 X130.582 Y115.623 E.00754
G1 X130.412 Y115.785 E.00736
G1 X130.207 Y115.911 E.00755
G1 X129.829 Y116.084 E.01303
G1 X129.032 Y116.397 E.02685
G1 X128.8 Y116.453 E.00749
G1 X128.565 Y116.459 E.00736
G1 X128.329 Y116.412 E.00754
G1 X128.109 Y116.315 E.00754
G1 X127.919 Y116.176 E.00739
G1 X127.233 Y115.418 E.03206
G1 X126.558 Y114.963 E.02551
G1 X125.801 Y114.682 E.0253
G1 X125 Y114.587 E.0253
G1 X124.199 Y114.682 E.0253
G1 X123.442 Y114.963 E.02532
G1 X122.768 Y115.417 E.02546
G1 X122.081 Y116.176 E.03211
G1 X121.891 Y116.315 E.0074
G1 X121.671 Y116.412 E.00754
G1 X121.435 Y116.459 E.00754
G1 X121.2 Y116.453 E.00736
G1 X120.968 Y116.397 E.00749
G1 X120.171 Y116.084 E.02685
G1 X119.793 Y115.911 E.01303
G1 X119.588 Y115.785 E.00755
G1 X119.418 Y115.623 E.00736
G1 X119.284 Y115.424 E.00754
G1 X119.197 Y115.2 E.00754
G1 X119.161 Y114.966 E.0074
G1 X119.212 Y113.945 E.03206
G1 X119.056 Y113.147 E.02551
G1 X118.72 Y112.413 E.0253
G1 X118.221 Y111.779 E.0253
G1 X117.587 Y111.28 E.0253
G1 X116.853 Y110.943 E.02532
G1 X116.056 Y110.788 E.02545
G1 X115.034 Y110.839 E.03211
G1 X114.8 Y110.803 E.0074
G1 X114.576 Y110.716 E.00754
G1 X114.377 Y110.582 E.00754
G1 X114.215 Y110.412 E.00737
G1 X114.089 Y110.207 E.00755
G1 X113.916 Y109.829 E.01303
G1 X113.603 Y109.032 E.02685
G1 X113.547 Y108.8 E.00749
G1 X113.541 Y108.565 E.00736
G1 X113.588 Y108.329 E.00754
G1 X113.685 Y108.109 E.00754
G1 X113.824 Y107.919 E.00739
G1 X114.583 Y107.233 E.03206
G1 X115.037 Y106.558 E.02551
G1 X115.318 Y105.801 E.0253
G1 X115.413 Y105 E.0253
G1 X115.318 Y104.199 E.0253
G1 X115.037 Y103.442 E.02532
G1 X114.583 Y102.768 E.02546
G1 X113.824 Y102.081 E.0321
G1 X113.685 Y101.891 E.00739
G1 X113.588 Y101.671 E.00754
G1 X113.541 Y101.435 E.00754
G1 X113.547 Y101.2 E.00736
G1 X113.603 Y100.968 E.00749
G1 X113.916 Y100.171 E.02685
G1 X114.089 Y99.793 E.01303
G1 X114.215 Y99.588 E.00755
G1 X114.377 Y99.418 E.00737
G1 X114.576 Y99.284 E.00754
G1 X114.8 Y99.197 E.00754
G1 X115.034 Y99.161 E.0074
G1 X116.055 Y99.212 E.03207
G1 X116.853 Y99.057 E.0255
G1 X117.587 Y98.72 E.02531
G1 X118.174 Y98.258 E.02341
G1 X118.607 Y98.325 F10800
;WIPE_START
G1 F8640
G1 X118.72 Y97.587 E-.1998
G1 X119.057 Y96.853 E-.18647
G1 X119.212 Y96.056 E-.18744
G1 X119.172 Y95.251 E-.18629
;WIPE_END
G1 E-.04 F2100
G1 Z.6 F10800
G1 X134.923 Y99.654
G1 Z.2
G1 E.8 F2100
;TYPE:Solid infill
;WIDTH:0.421758
G1 F1200
G1 X135.259 Y99.993 E.01503
G1 X135.328 Y100.104 E.00412
G1 X135.68 Y100.946 E.02876
G1 X134.573 Y99.84 E.04929
G1 X134.061 Y99.863 E.01615
G1 X135.746 Y101.548 E.07505
G1 X135.684 Y101.637 E.00341
G1 X135.481 Y101.82 E.00859
G1 X133.229 Y99.567 E.10036
;WIPE_START
G1 F8640
G1 X135.481 Y101.82 E-.73562
G1 X135.56 Y101.749 E-.02438
;WIPE_END
G1 E-.04 F2100
G1 Z.6 F10800
G1 X130.343 Y95.074
G1 Z.2
G1 E.8 F2100
G1 F1200
M73 P2 R24
G1 X130.007 Y94.741 E.01492
G1 X129.903 Y94.677 E.00386
G1 X129.045 Y94.311 E.02937
G1 X130.148 Y95.415 E.04915
G1 X130.117 Y95.831 E.01316
G1 X130.13 Y95.932 E.0032
G1 X128.452 Y94.254 E.07473
G1 X128.363 Y94.317 E.00341
G1 X128.18 Y94.519 E.00859
G1 X130.401 Y96.739 E.09893
;WIPE_START
G1 F8640
G1 X128.18 Y94.519 E-.72516
G1 X128.282 Y94.407 E-.03484
;WIPE_END
G1 E-.04 F2100
G1 Z.6 F10800
G1 X127.806 Y94.68
G1 Z.2
G1 E.8 F2100
G1 F1200
G1 X130.433 Y97.307 E.11706
G1 X130.604 Y97.746 E.01483
G1 X131.189 Y98.566 E.03173
G1 X131.956 Y99.218 E.03173
G1 X132.719 Y99.593 E.02675
G1 X135.2 Y102.074 E.11055
G1 X134.919 Y102.329 E.01195
