; generated by PrusaSlicer 2.4.0+win64 on 2022-03-06 at 07:00:32 UTC

; 

; external perimeters extrusion width = 0.45mm
; perimeters extrusion width = 0.45mm
; infill extrusion width = 0.45mm
; solid infill extrusion width = 0.45mm
; top infill extrusion width = 0.40mm
; first layer extrusion width = 0.42mm

M73 P0 R181
M201 X9000 Y9000 Z500 E10000 ; sets maximum accelerations, mm/sec^2
M203 X500 Y500 Z12 E120 ; sets maximum feedrates, mm/sec
M204 P2000 R1500 T2000 ; sets acceleration (P, T) and retract acceleration (R), mm/sec^2
M205 X10.00 Y10.00 Z0.20 E2.50 ; sets the jerk limits, mm/sec
M205 S0 T0 ; sets the minimum extruding and travel feed rate, mm/sec
M107
;TYPE:Custom
M862.3 P "MK2S" ; printer model check
M862.1 P0.4 ; nozzle diameter check
M115 U3.2.3 ; tell printer latest fw version
G90 ; use absolute coordinates
M83 ; extruder relative mode
M204 S2000 T1500 ; MK2 firmware only supports the old M204 format
M104 S215 ; set extruder temp
M140 S60 ; set bed temp
M190 S60 ; wait for bed temp
M109 S215 ; wait for extruder temp
G28 W ; home all without mesh bed level
G80 ; mesh bed leveling
G1 Y-3.0 F1000.0 ; go outside print area
G92 E0.0
G1 X60.0 E9.0  F1000.0 ; intro line
G1 X100.0 E12.5 F1000.0 ; intro line
G92 E0.0
G21 ; set units to millimeters
G90 ; use absolute coordinates
M83 ; use relative distances for extrusion
M900 K0.05 ; Filament gcode LA 1.5
M900 K30 ; Filament gcode LA 1.0
M107
;LAYER_CHANGE
;Z:0.2
;HEIGHT:0.2
;BEFORE_LAYER_CHANGE
G92 E0.0
;0.2


G1 E-.8 F2100
G1 Z.4 F10800
;AFTER_LAYER_CHANGE
;0.2
G1 X97.794 Y66.301
G1 Z.2
G1 E.8 F2100
M204 S1000
;TYPE:Skirt/Brim
;WIDTH:0.42
G1 F1200
G1 X115.173 Y40.666 E.97106
G1 X116.231 Y39.804 E.04278
G1 X117.141 Y39.623 E.02909
G1 X153.597 Y39.624 E1.14307
G1 X157.963 Y39.776 E.13699
G1 X162.31 Y40.218 E.13699
G1 X166.617 Y40.95 E.13699
G1 X170.978 Y42.003 E.14065
G1 X175.037 Y43.268 E.13332
G1 X178.966 Y44.781 E.13201
G1 X182.932 Y46.615 E.13699
G1 X186.766 Y48.71 E.13699
G1 X190.451 Y51.057 E.13699
G1 X194.097 Y53.742 E.14197
G1 X197.43 Y56.567 E.13699
G1 X200.566 Y59.608 E.13699
G1 X203.493 Y62.852 E.13699
G1 X206.197 Y66.284 E.13699
G1 X208.665 Y69.889 E.13699
G1 X210.887 Y73.651 E.13699
G1 X212.853 Y77.553 E.13699
G1 X214.553 Y81.577 E.13698
G1 X215.982 Y85.707 E.13699
G1 X217.131 Y89.922 E.13699
G1 X217.999 Y94.228 E.13772
G1 X218.573 Y98.535 E.13625
G1 X218.854 Y102.736 E.13201
G1 X218.859 Y107.105 E.13699
G1 X218.573 Y111.465 E.13699
G1 X217.996 Y115.796 E.13699
G1 X217.131 Y120.078 E.13699
G1 X215.982 Y124.293 E.13699
G1 X214.496 Y128.571 E.14196
G1 X212.786 Y132.591 E.13699
G1 X210.811 Y136.488 E.13699
G1 X208.58 Y140.244 E.13699
G1 X206.103 Y143.844 E.13699
G1 X203.391 Y147.269 E.13699
G1 X200.566 Y150.392 E.13201
G1 X197.43 Y153.433 E.13699
G1 X194.097 Y156.258 E.13699
G1 X190.451 Y158.943 E.14197
G1 X186.704 Y161.324 E.13918
G1 X182.932 Y163.385 E.13479
G1 X179.113 Y165.157 E.13201
G1 X174.887 Y166.785 E.14197
G1 X170.713 Y168.074 E.13699
G1 X166.462 Y169.082 E.13699
G1 X162.31 Y169.782 E.13201
G1 X157.963 Y170.224 E.13699
G1 X153.518 Y170.377 E.13948
G1 X37.141 Y170.377 E3.64892
G1 X35.834 Y169.985 E.04278
G1 X34.957 Y168.94 E.04278
G1 X34.763 Y168 E.03008
G1 X34.763 Y160 E.25083
G1 X35.173 Y158.666 E.04375
G1 X97.76 Y66.35 E3.497
; printing object Vorhang-Halter.stl id:0 copy 0
;WIPE_START
G1 F8640
G1 X99.607 Y63.626 E-.76
;WIPE_END
G1 E-.04 F2100
G1 Z.6 F10800
G1 X119.289 Y48.813
G1 Z.2
G1 E.8 F2100
;TYPE:Perimeter
G1 F1200
G1 X119.289 Y42.787 E.18894
G1 X153.524 Y42.788 E1.07342
G1 X157.673 Y42.926 E.13014
G1 X161.81 Y43.343 E.13036
G1 X165.909 Y44.034 E.13036
G1 X169.954 Y44.998 E.13036
G1 X173.925 Y46.23 E.13036
G1 X177.805 Y47.724 E.13036
G1 X181.576 Y49.474 E.13036
G1 X185.222 Y51.472 E.13036
G1 X188.727 Y53.709 E.13036
G1 X192.074 Y56.176 E.13036
G1 X195.261 Y58.872 E.13088
G1 X198.237 Y61.75 E.12984
G1 X201.026 Y64.834 E.13036
G1 X203.603 Y68.097 E.13036
G1 X205.956 Y71.525 E.13036
G1 X208.075 Y75.102 E.13036
G1 X209.95 Y78.813 E.13036
G1 X211.573 Y82.64 E.13036
G1 X212.937 Y86.568 E.13036
G1 X214.035 Y90.578 E.13036
G1 X214.863 Y94.652 E.13036
G1 X215.418 Y98.773 E.13036
G1 X215.695 Y102.921 E.13036
G1 X215.695 Y107.079 E.13036
G1 X215.418 Y111.227 E.13036
G1 X214.86 Y115.364 E.13088
G1 X214.035 Y119.422 E.12984
G1 X212.937 Y123.432 E.13036
G1 X211.573 Y127.36 E.13036
G1 X209.95 Y131.187 E.13036
G1 X208.075 Y134.898 E.13036
G1 X205.956 Y138.475 E.13036
G1 X203.603 Y141.903 E.13036
G1 X201.026 Y145.166 E.13036
G1 X198.237 Y148.25 E.13036
G1 X195.249 Y151.14 E.13036
G1 X192.06 Y153.834 E.13088
G1 X188.727 Y156.291 E.12984
G1 X185.222 Y158.528 E.13036
G1 X181.576 Y160.526 E.13036
G1 X177.789 Y162.282 E.13088
G1 X173.925 Y163.77 E.12984
G1 X169.954 Y165.002 E.13036
G1 X165.909 Y165.966 E.13036
G1 X161.81 Y166.657 E.13036
G1 X157.673 Y167.074 E.13036
G1 X153.504 Y167.213 E.13077
G1 X39.289 Y167.213 E3.58113
G1 X39.289 Y160.787 E.20148
G1 X153.532 Y160.787 E3.58199
G1 X157.497 Y160.645 E.12442
M73 P0 R180
G1 X161.457 Y160.22 E.12486
G1 X165.376 Y159.513 E.12487
G1 X169.262 Y158.519 E.12577
G1 X173.013 Y157.27 E.12395
G1 X176.693 Y155.746 E.12486
G1 X180.254 Y153.964 E.12486
G1 X183.679 Y151.932 E.12486
G1 X186.95 Y149.66 E.12486
G1 X190.051 Y147.161 E.12486
G1 X192.965 Y144.448 E.12486
G1 X195.679 Y141.533 E.12486
G1 X198.178 Y138.432 E.12486
G1 X200.449 Y135.161 E.12487
G1 X202.481 Y131.736 E.12486
G1 X204.264 Y128.175 E.12486
G1 X205.788 Y124.496 E.12486
G1 X207.045 Y120.717 E.12487
G1 X208.03 Y116.858 E.12486
G1 X208.737 Y112.939 E.12486
G1 X209.163 Y108.98 E.12486
G1 X209.305 Y105 E.12486
G1 X209.163 Y101.02 E.12487
G1 X208.732 Y97.032 E.12577
G1 X208.03 Y93.142 E.12395
G1 X207.045 Y89.283 E.12486
G1 X205.788 Y85.504 E.12487
G1 X204.264 Y81.825 E.12486
G1 X202.481 Y78.264 E.12486
G1 X200.449 Y74.839 E.12486
G1 X198.178 Y71.568 E.12487
G1 X195.679 Y68.467 E.12486
G1 X192.965 Y65.552 E.12486
G1 X190.051 Y62.839 E.12486
G1 X186.95 Y60.34 E.12486
G1 X183.679 Y58.069 E.12486
G1 X180.254 Y56.036 E.12487
G1 X176.693 Y54.254 E.12486
G1 X173.013 Y52.73 E.12486
G1 X169.235 Y51.472 E.12487
G1 X165.376 Y50.487 E.12486
G1 X161.457 Y49.78 E.12486
G1 X157.497 Y49.355 E.12486
G1 X153.532 Y49.213 E.12442
G1 X119.289 Y49.213 E1.07364
G1 X119.289 Y48.873 E.01066
G1 X118.912 Y49.59 F10800
;TYPE:External perimeter
G1 F1200
G1 X118.912 Y42.41 E.22512
G1 X153.531 Y42.411 E1.08544
G1 X157.698 Y42.55 E.13074
G1 X161.86 Y42.969 E.13115
G1 X165.985 Y43.664 E.13115
G1 X170.054 Y44.634 E.13115
G1 X174.049 Y45.873 E.13115
G1 X177.952 Y47.377 E.13115
G1 X181.746 Y49.137 E.13115
G1 X185.414 Y51.148 E.13115
G1 X188.94 Y53.398 E.13115
G1 X192.308 Y55.88 E.13115
G1 X195.514 Y58.592 E.13167
G1 X198.509 Y61.488 E.13063
G1 X201.314 Y64.59 E.13115
G1 X203.907 Y67.873 E.13115
G1 X206.274 Y71.322 E.13115
G1 X208.406 Y74.92 E.13115
G1 X210.292 Y78.654 E.13115
G1 X211.925 Y82.505 E.13115
G1 X213.297 Y86.456 E.13115
G1 X214.402 Y90.49 E.13115
G1 X215.235 Y94.589 E.13115
G1 X215.793 Y98.735 E.13115
G1 X216.072 Y102.909 E.13115
G1 X216.072 Y107.091 E.13115
G1 X215.793 Y111.265 E.13115
G1 X215.232 Y115.427 E.13167
G1 X214.402 Y119.51 E.13063
G1 X213.297 Y123.544 E.13115
G1 X211.925 Y127.495 E.13115
G1 X210.292 Y131.346 E.13115
G1 X208.406 Y135.08 E.13115
G1 X206.274 Y138.678 E.13115
G1 X203.907 Y142.127 E.13115
G1 X201.314 Y145.41 E.13115
G1 X198.509 Y148.512 E.13115
G1 X195.502 Y151.42 E.13115
G1 X192.294 Y154.13 E.13167
G1 X188.94 Y156.602 E.13063
G1 X185.414 Y158.852 E.13115
G1 X181.746 Y160.863 E.13115
G1 X177.936 Y162.629 E.13167
G1 X174.049 Y164.127 E.13063
G1 X170.054 Y165.366 E.13115
G1 X165.985 Y166.336 E.13115
G1 X161.86 Y167.031 E.13115
G1 X157.698 Y167.45 E.13115
G1 X153.511 Y167.59 E.13137
G1 X38.912 Y167.59 E3.59315
G1 X38.912 Y160.41 E.22512
G1 X153.525 Y160.41 E3.5936
G1 X157.471 Y160.269 E.12379
G1 X161.403 Y159.846 E.12402
G1 X165.296 Y159.144 E.12402
G1 X169.156 Y158.157 E.12493
G1 X172.882 Y156.917 E.12311
G1 X176.536 Y155.403 E.12402
G1 X180.073 Y153.632 E.12402
G1 X183.475 Y151.614 E.12402
G1 X186.724 Y149.358 E.12402
G1 X189.804 Y146.876 E.12402
G1 X192.699 Y144.181 E.12402
G1 X195.394 Y141.286 E.12402
G1 X197.876 Y138.206 E.12402
G1 X200.132 Y134.957 E.12402
G1 X202.15 Y131.555 E.12402
G1 X203.921 Y128.018 E.12402
G1 X205.434 Y124.364 E.12402
G1 X206.683 Y120.611 E.12402
G1 X207.662 Y116.778 E.12402
G1 X208.364 Y112.886 E.12402
G1 X208.787 Y108.953 E.12402
G1 X208.928 Y105 E.12402
G1 X208.787 Y101.047 E.12402
G1 X208.359 Y97.086 E.12493
G1 X207.662 Y93.222 E.12311
G1 X206.683 Y89.389 E.12402
G1 X205.434 Y85.636 E.12402
G1 X203.921 Y81.982 E.12402
G1 X202.15 Y78.445 E.12402
G1 X200.132 Y75.043 E.12402
G1 X197.876 Y71.794 E.12402
G1 X195.394 Y68.714 E.12402
G1 X192.699 Y65.819 E.12402
G1 X189.804 Y63.124 E.12402
G1 X186.724 Y60.642 E.12402
G1 X183.475 Y58.386 E.12402
G1 X180.073 Y56.368 E.12402
G1 X176.536 Y54.597 E.12402
G1 X172.882 Y53.083 E.12402
G1 X169.128 Y51.834 E.12402
G1 X165.296 Y50.856 E.12402
G1 X161.403 Y50.154 E.12402
G1 X157.471 Y49.731 E.12402
G1 X153.525 Y49.59 E.12379
G1 X118.972 Y49.59 E1.08337
G1 X119.113 Y49.244 F10800
;WIPE_START
G1 F8640
G1 X118.945 Y46.299 E-.76
;WIPE_END
G1 E-.04 F2100
G1 Z.6 F10800
G1 X200.429 Y64.342
G1 Z.2
G1 E.8 F2100
;TYPE:Solid infill
;WIDTH:0.42017
G1 F1200
G1 X198.032 Y61.945 E.10636
G1 X195.071 Y59.081 E.1292
G1 X192.24 Y56.687 E.1163
G1 X201.713 Y66.159 E.4202
G1 X203.375 Y68.265 E.08416
G1 X203.574 Y68.554 E.01101
G1 X190.071 Y55.052 E.59899
G1 X188.566 Y53.943 E.05864
G1 X188.187 Y53.7 E.01414
G1 X204.742 Y70.256 E.73442
G1 X205.718 Y71.677 E.05408
G1 X205.845 Y71.892 E.00786
G1 X186.711 Y52.758 E.84882
G1 X185.236 Y51.817 E.0549
G1 X206.62 Y73.201 E.94865
G1 X207.395 Y74.51 E.04771
G1 X184.024 Y51.138 E1.0368
M73 P1 R180
G1 X182.844 Y50.491 E.04222
G1 X208.068 Y75.716 E1.11902
G1 X208.613 Y76.795 E.03791
M73 P1 R179
G1 X181.663 Y49.844 E1.19556
G1 X181.448 Y49.727 E.00768
G1 X180.634 Y49.349 E.02816
G1 X209.158 Y77.873 E1.26539
G1 X209.701 Y78.949 E.03779
G1 X179.639 Y48.887 E1.3336
G1 X178.643 Y48.425 E.03442
G1 X210.093 Y79.875 E1.39518
G1 X210.486 Y80.801 E.03156
G1 X177.654 Y47.969 E1.4565
G1 X176.786 Y47.635 E.02917
G1 X210.879 Y81.728 E1.51242
G1 X211.272 Y82.654 E.03156
G1 X175.918 Y47.301 E1.56834
G1 X175.051 Y46.966 E.02917
G1 X211.566 Y83.482 E1.61988
G1 X211.85 Y84.299 E.02714
G1 X196.145 Y68.594 E.6967
G1 X195.893 Y68.282 E.01258
G1 X193.165 Y65.352 E.12555
G1 X190.236 Y62.625 E.12555
G1 X189.924 Y62.373 E.01258
G1 X174.183 Y46.632 E.69829
G1 X173.832 Y46.497 E.01179
G1 X173.371 Y46.354 E.01513
G1 X187.176 Y60.159 E.61239
G1 X185.41 Y58.926 E.06755
G1 X172.598 Y46.114 E.56836
G1 X171.824 Y45.874 E.0254
G1 X183.706 Y57.756 E.52709
G1 X182.394 Y56.978 E.04785
G1 X171.051 Y45.634 E.5032
G1 X170.278 Y45.394 E.0254
G1 X181.082 Y56.199 E.47931
G1 X180.389 Y55.788 E.02527
G1 X179.885 Y55.536 E.01768
G1 X169.54 Y45.19 E.45896
G1 X168.839 Y45.023 E.02259
G1 X178.817 Y55.001 E.44264
G1 X177.749 Y54.466 E.03747
G1 X168.139 Y44.856 E.42633
G1 X167.438 Y44.689 E.02259
G1 X176.7 Y53.951 E.41086
G1 X175.789 Y53.573 E.03092
G1 X166.738 Y44.522 E.40153
G1 X166.037 Y44.355 E.02259
G1 X174.878 Y53.196 E.39219
G1 X173.967 Y52.819 E.03092
G1 X165.38 Y44.232 E.38095
G1 X164.738 Y44.123 E.02042
G1 X173.063 Y52.448 E.36931
G1 X172.264 Y52.182 E.02644
G1 X164.097 Y44.015 E.36231
G1 X163.455 Y43.907 E.02042
G1 X171.464 Y51.916 E.3553
G1 X170.664 Y51.65 E.02644
G1 X162.813 Y43.799 E.3483
G1 X162.171 Y43.69 E.02042
G1 X169.865 Y51.384 E.34129
G1 X169.091 Y51.144 E.02541
G1 X161.548 Y43.601 E.33463
G1 X160.955 Y43.541 E.0187
G1 X168.375 Y50.961 E.32916
G1 X167.658 Y50.778 E.02319
G1 X160.362 Y43.481 E.3237
G1 X159.768 Y43.421 E.0187
G1 X166.942 Y50.595 E.31824
G1 X166.226 Y50.412 E.02319
G1 X159.175 Y43.362 E.31277
G1 X158.582 Y43.302 E.0187
G1 X165.509 Y50.229 E.30731
G1 X164.852 Y50.105 E.02099
G1 X157.989 Y43.242 E.30445
G1 X157.654 Y43.209 E.01056
G1 X157.414 Y43.201 E.00755
G1 X164.201 Y49.988 E.30109
G1 X163.55 Y49.87 E.02075
G1 X156.862 Y43.182 E.2967
G1 X156.31 Y43.164 E.01732
G1 X162.899 Y49.753 E.29231
G1 X162.248 Y49.636 E.02075
G1 X155.758 Y43.145 E.28792
G1 X155.206 Y43.127 E.01732
G1 X161.597 Y49.518 E.28353
G1 X160.991 Y49.446 E.01914
G1 X154.654 Y43.108 E.28113
G1 X154.102 Y43.09 E.01732
G1 X160.393 Y49.381 E.2791
G1 X159.795 Y49.317 E.01886
G1 X153.55 Y43.072 E.27707
G1 X153.52 Y43.071 E.00094
G1 X153.015 Y43.071 E.01582
G1 X159.198 Y49.253 E.27426
G1 X158.6 Y49.189 E.01886
G1 X152.482 Y43.071 E.27141
G1 X151.948 Y43.071 E.01674
G1 X158.002 Y49.124 E.26856
G1 X157.413 Y49.069 E.01857
G1 X151.415 Y43.071 E.26608
G1 X150.881 Y43.07 E.01674
G1 X156.86 Y49.049 E.26521
G1 X156.306 Y49.029 E.01737
G1 X150.348 Y43.07 E.26433
G1 X149.814 Y43.07 E.01674
G1 X155.753 Y49.009 E.26346
G1 X155.2 Y48.99 E.01737
G1 X149.281 Y43.07 E.26258
G1 X148.747 Y43.07 E.01674
G1 X154.646 Y48.97 E.2617
G1 X154.093 Y48.95 E.01737
G1 X148.214 Y43.07 E.26083
G1 X147.68 Y43.07 E.01674
G1 X153.54 Y48.93 E.25995
G1 X153.006 Y48.93 E.01674
G1 X147.147 Y43.07 E.25995
G1 X146.613 Y43.07 E.01674
G1 X152.473 Y48.93 E.25995
G1 X151.939 Y48.93 E.01674
G1 X146.08 Y43.07 E.25995
G1 X145.546 Y43.07 E.01674
G1 X151.406 Y48.93 E.25995
G1 X150.872 Y48.93 E.01674
G1 X145.012 Y43.07 E.25995
G1 X144.479 Y43.07 E.01674
G1 X150.339 Y48.93 E.25995
G1 X149.805 Y48.93 E.01674
G1 X143.945 Y43.07 E.25995
G1 X143.412 Y43.07 E.01674
G1 X149.272 Y48.93 E.25995
G1 X148.738 Y48.93 E.01674
G1 X142.878 Y43.07 E.25995
G1 X142.345 Y43.07 E.01674
G1 X148.205 Y48.93 E.25995
G1 X147.671 Y48.93 E.01674
G1 X141.811 Y43.07 E.25995
G1 X141.278 Y43.07 E.01674
G1 X147.138 Y48.93 E.25995
G1 X146.604 Y48.93 E.01674
G1 X140.744 Y43.07 E.25995
G1 X140.211 Y43.07 E.01674
G1 X146.071 Y48.93 E.25995
G1 X145.537 Y48.93 E.01674
G1 X139.677 Y43.07 E.25995
G1 X139.144 Y43.07 E.01674
G1 X145.004 Y48.93 E.25995
G1 X144.47 Y48.93 E.01674
G1 X138.61 Y43.07 E.25995
G1 X138.077 Y43.07 E.01674
G1 X143.937 Y48.93 E.25995
G1 X143.403 Y48.93 E.01674
G1 X137.543 Y43.07 E.25995
G1 X137.01 Y43.07 E.01674
G1 X142.87 Y48.93 E.25995
G1 X142.336 Y48.93 E.01674
G1 X136.476 Y43.07 E.25996
G1 X135.943 Y43.07 E.01674
G1 X141.802 Y48.93 E.25996
G1 X141.269 Y48.93 E.01674
G1 X135.409 Y43.07 E.25996
G1 X134.876 Y43.07 E.01674
G1 X140.735 Y48.93 E.25996
G1 X140.202 Y48.93 E.01674
G1 X134.342 Y43.07 E.25996
G1 X133.808 Y43.07 E.01674
G1 X139.668 Y48.93 E.25996
G1 X139.135 Y48.93 E.01674
G1 X133.275 Y43.07 E.25996
G1 X132.741 Y43.07 E.01674
G1 X138.601 Y48.93 E.25996
G1 X138.068 Y48.93 E.01674
M73 P1 R178
G1 X132.208 Y43.07 E.25996
G1 X131.674 Y43.07 E.01674
G1 X137.534 Y48.93 E.25996
G1 X137.001 Y48.93 E.01674
G1 X131.141 Y43.07 E.25996
G1 X130.607 Y43.07 E.01674
G1 X136.467 Y48.93 E.25996
G1 X135.934 Y48.93 E.01674
G1 X130.074 Y43.07 E.25996
G1 X129.54 Y43.07 E.01674
G1 X135.4 Y48.93 E.25996
G1 X134.867 Y48.93 E.01674
G1 X129.007 Y43.07 E.25996
G1 X128.473 Y43.07 E.01674
G1 X134.333 Y48.93 E.25996
G1 X133.8 Y48.93 E.01674
G1 X127.94 Y43.07 E.25996
G1 X127.406 Y43.07 E.01674
G1 X133.266 Y48.93 E.25996
G1 X132.733 Y48.93 E.01674
G1 X126.873 Y43.07 E.25996
G1 X126.339 Y43.07 E.01674
G1 X132.199 Y48.93 E.25996
G1 X131.666 Y48.93 E.01674
G1 X125.806 Y43.07 E.25996
G1 X125.272 Y43.07 E.01674
G1 X131.132 Y48.93 E.25996
G1 X130.599 Y48.93 E.01674
G1 X124.739 Y43.07 E.25997
G1 X124.205 Y43.07 E.01674
G1 X130.065 Y48.93 E.25997
G1 X129.532 Y48.93 E.01674
G1 X123.672 Y43.07 E.25997
G1 X123.138 Y43.07 E.01674
G1 X128.998 Y48.93 E.25997
G1 X128.465 Y48.93 E.01674
G1 X122.605 Y43.07 E.25997
G1 X122.071 Y43.07 E.01674
G1 X127.931 Y48.93 E.25997
G1 X127.398 Y48.93 E.01674
G1 X121.537 Y43.07 E.25997
G1 X121.004 Y43.07 E.01674
G1 X126.864 Y48.93 E.25997
G1 X126.331 Y48.93 E.01674
G1 X120.47 Y43.07 E.25997
G1 X119.937 Y43.07 E.01674
G1 X125.797 Y48.93 E.25997
G1 X125.264 Y48.93 E.01674
G1 X119.572 Y43.239 E.25248
G1 X119.572 Y43.772 E.01674
G1 X124.73 Y48.93 E.22882
G1 X124.197 Y48.93 E.01674
G1 X119.572 Y44.306 E.20515
G1 X119.572 Y44.839 E.01674
G1 X123.663 Y48.93 E.18148
G1 X123.13 Y48.93 E.01674
