( Made using CamBam - http://www.cambam.co.uk )
( Firmanten_2013 10/6/2013 10:22:33 AM )
( T2 : 2.0 )
G21 G90 G64 G40
G0 Z3.0
( T2 : 2.0 )
T2 M6
( Gravieren1 )
G17
M3 S1000
G0 X7.4461 Y9.1406
G1 F15.0 Z-4.0
G3 F120.0 X7.3362 Y8.353 I4.9707 J-1.0952
G3 X7.2984 Y7.5586 I15.8926 J-1.153
G2 X7.2541 Y7.4008 I-0.2492 J-0.0151
G2 X7.1016 Y7.3406 I-0.1383 J0.1271
G2 X6.8273 Y7.5305 I-0.0118 J0.276
G3 X6.6551 Y7.9048 I-4.1223 J-1.6704
G3 X6.4266 Y8.2477 I-1.4746 J-0.7351
G3 X5.8289 Y8.5359 I-0.6934 J-0.6739
G3 X4.8312 Y8.5909 I-1.051 J-9.9912
G3 X3.832 Y8.5992 I-0.9369 J-52.6551
G3 X3.5886 Y8.5878 I-0.0155 J-2.273
G3 X3.3539 Y8.5219 I0.0334 J-0.5693
G3 X3.2953 Y8.4242 I0.1018 J-0.1275
G3 X3.2836 Y8.3109 I0.4705 J-0.1059
G1 Y5.1258
G3 X3.3471 Y4.9978 I0.1372 J-0.0117
G3 X3.4875 Y4.9711 I0.1179 J0.2371
G3 X5.3016 Y5.0555 I-0.8713 J38.2763
G3 X5.472 Y5.0963 I-0.0709 J0.6712
G3 X5.6109 Y5.2031 I-0.0988 J0.2724
G3 X5.7147 Y5.5173 I-1.0076 J0.5071
G3 X5.7727 Y5.843 I-5.3457 J1.119
G2 X5.8807 Y6.0386 I0.2808 J-0.0274
G2 X6.1031 Y6.0609 I0.1379 J-0.2554
G2 X6.2552 Y5.9988 I-0.0598 J-0.3635
G2 X6.307 Y5.843 I-0.0892 J-0.1162
G3 X6.1707 Y4.6022 I7.588 J-1.4614
G3 X6.1805 Y3.3539 I15.0739 J-0.5066
G2 X6.1103 Y3.2015 I-0.1618 J-0.0179
G2 X5.9484 Y3.157 I-0.1664 J0.2889
G2 X5.7023 Y3.368 I-0.027 J0.2175
G3 X5.505 Y3.9403 I-2.0047 J-0.371
G3 X5.308 Y4.1824 I-0.7318 J-0.3943
G3 X5.0203 Y4.3031 I-0.3473 J-0.4243
G3 X4.2161 Y4.3559 I-0.9934 J-8.9782
G3 X3.4102 Y4.3664 I-0.7665 J-27.9828
G3 X3.3257 Y4.35 I-0.0078 J-0.186
G3 X3.2836 Y4.275 I0.036 J-0.0695
G1 Y1.1109
G3 X3.3402 Y0.8319 I0.632 J-0.017
G3 X3.5438 Y0.6328 I0.3838 J0.1888
G3 X3.9772 Y0.5102 I0.7164 J1.7056
G3 X4.4227 Y0.443 I1.3826 J7.6483
G2 X4.6499 Y0.3679 I-0.0234 J-0.4524
G2 X4.725 Y0.1406 I-0.1419 J-0.1729
G2 X4.6133 Y0.0037 I-0.1857 J0.0374
G2 X4.3625 Y-0.0492 I-0.2589 J0.6077
G2 X4.1063 Y-0.0422 I-0.0749 J1.9615
G3 X2.7313 Y0.0211 I-1.5446 J-18.6028
G3 X1.357 Y-0.0563 I-0.1293 J-9.9538
G2 X1.1354 Y-0.0198 I-0.0652 J0.2961
G2 X1.0547 Y0.1898 I0.1705 J0.186
G2 X1.1648 Y0.3542 I0.1748 J0.0019
G2 X1.357 Y0.4008 I0.2288 J-0.5239
G3 X1.9354 Y0.8722 I-0.0667 J0.6723
G3 X2.0461 Y1.6102 I-1.995 J0.6764
G1 Y7.6289
G3 X2.0132 Y7.9962 I-1.8685 J0.0178
G3 X1.8773 Y8.3391 I-0.917 J-0.165
G3 X1.6027 Y8.6093 I-0.8221 J-0.5608
G3 X1.2656 Y8.7961 I-1.2094 J-1.7849
G2 X1.0873 Y8.9237 I0.174 J0.4315
G2 X1.0547 Y9.1406 I0.1764 J0.1374
G2 X1.0906 Y9.23 I0.3253 J-0.0787
G2 X1.1672 Y9.2883 I0.1022 J-0.0548
G2 X1.3544 Y9.2862 I0.0864 J-0.6587
G2 X1.5398 Y9.2602 I-0.4252 J-3.6949
G3 X2.5831 Y9.1993 I1.1157 J10.1528
G3 X3.6281 Y9.1898 I0.9751 J50.0225
G3 X6.982 Y9.2742 I0.2193 J57.9859
G2 X7.2247 Y9.279 I0.172 J-2.5797
G2 X7.3492 Y9.2665 I-0.023 J-0.8548
G2 X7.4118 Y9.2476 I-0.0469 J-0.2691
G2 X7.4531 Y9.1969 I-0.0184 J-0.0571
G2 X7.4461 Y9.1406 I-0.2313 J0.0003
G0 Z3.0
G0 X9.7588 Y8.2455
G1 F15.0 Z-4.0
G2 F120.0 X9.9563 Y8.543 I0.7741 J-0.2996
G2 X10.5117 Y8.8102 I0.5871 J-0.5095
G2 X10.7895 Y8.7783 I0.0136 J-1.1082
G2 X11.1318 Y8.5405 I-0.1165 J-0.533
G2 X11.2289 Y8.1352 I-0.6721 J-0.3753
G2 X10.9828 Y7.5305 I-0.9057 J0.0162
G2 X10.7497 Y7.3346 I-0.6837 J0.5773
G2 X10.4555 Y7.2563 I-0.2949 J0.5156
G2 X9.9141 Y7.4531 I-0.0289 J0.7634
G2 X9.7031 Y7.9664 I0.4593 J0.4887
G2 X9.7588 Y8.2455 I0.8298 J-0.0205
G0 Z3.0
G0 X10.606 Y5.5784
G1 F15.0 Z-4.0
G2 F120.0 X10.6523 Y5.5898 I0.1092 J-0.3437
G2 X10.878 Y5.4734 I0.0193 J-0.2395
G2 X10.9266 Y5.2242 I-0.4457 J-0.2163
G3 X10.8984 Y1.4695 I242.9931 J-3.6976
G3 X10.9217 Y1.1337 I2.1696 J-0.0187
G3 X11.032 Y0.8156 I0.7988 J0.099
G3 X11.2849 Y0.6094 I0.5145 J0.3726
G3 X11.5945 Y0.5063 I0.5924 J1.2625
G2 X11.8602 Y0.4141 I-0.2263 J-1.0817
G2 X11.9761 Y0.3208 I-0.1565 J-0.3133
G2 X12.0094 Y0.1758 I-0.1414 J-0.1087
G2 X11.9612 Y0.0334 I-0.4139 J0.0606
G2 X11.8406 Y-0.0563 I-0.1586 J0.0874
G2 X11.5031 Y-0.0422 I-0.0099 J3.8202
G3 X9.443 Y-0.0703 I-0.8591 J-12.5357
G2 X9.2694 Y-0.0805 I-0.1888 J1.7265
G2 X9.0984 Y-0.0492 I-0.0237 J0.3531
G2 X9.0393 Y0.0558 I0.1092 J0.1307
G2 X9.0281 Y0.1758 I0.5538 J0.112
G2 X9.079 Y0.2876 I0.1591 J-0.0049
G2 X9.4008 Y0.443 I0.4943 J-0.6127
G3 X9.7368 Y0.7642 I-0.1418 J0.4847
G3 X9.8086 Y1.2234 I-1.2103 J0.4244
G1 Y3.0656
G3 X9.7901 Y3.4613 I-3.7611 J0.0229
G3 X9.6961 Y3.8461 I-1.205 J-0.0906
G3 X9.4223 Y4.1442 I-0.698 J-0.3662
G3 X9.0563 Y4.3172 I-0.8272 J-1.2769
G2 X8.9095 Y4.3977 I0.1387 J0.427
G2 X8.8383 Y4.5492 I0.1247 J0.1511
G2 X8.9471 Y4.7521 I0.249 J-0.0029
G2 X9.1547 Y4.8516 I0.3926 J-0.5529
G3 X10.2023 Y5.3367 I-1.1706 J3.9015
G2 X10.4182 Y5.4795 I3.0289 J-4.347
G2 X10.5306 Y5.5445 I1.0201 J-1.6316
G2 X10.606 Y5.5784 I0.1846 J-0.3098
G0 Z3.0
G0 X12.8999 Y4.717
G1 F15.0 Z-4.0
G2 F120.0 X12.9999 Y4.8274 I0.1895 J-0.0712
G2 X13.1766 Y4.9078 I0.4362 J-0.7245
G3 X14.0625 Y5.3859 I-1.0165 J2.9434
G2 X14.2621 Y5.5345 I2.4435 J-3.0745
G2 X14.3676 Y5.6014 I0.8368 J-1.2023
G2 X14.4844 Y5.6461 I0.1651 J-0.2567
G2 X14.717 Y5.4846 I-0.0017 J-0.2507
G2 X14.7867 Y5.2102 I-0.8 J-0.3494
G3 X14.8272 Y4.9236 I4.6029 J0.5037
G3 X14.8589 Y4.7804 I1.5626 J0.2708
G3 X14.8834 Y4.7096 I0.5224 J0.1414
G3 X14.9344 Y4.6547 I0.0784 J0.0216
G3 X15.7219 Y5.182 I-40.1091 J60.7479
G2 X16.8469 Y5.5266 I1.1151 J-1.6322
G2 X17.2349 Y5.382 I0.0367 J-0.4946
G2 X17.3531 Y4.9852 I-0.4791 J-0.3588
G2 X17.2812 Y4.459 I-1.6287 J-0.0453
G2 X17.1278 Y4.2233 I-0.5071 J0.1623
G2 X16.8609 Y4.1344 I-0.2539 J0.3169
G2 X16.3477 Y4.2328 I0.7255 J5.1702
G3 X15.7078 Y4.3313 I-0.8504 J-3.3989
G3 X15.336 Y4.2519 I-0.02 J-0.8169
G3 X14.9933 Y3.8177 I0.3364 J-0.6178
G3 X14.9203 Y3.2695 I1.7393 J-0.5107
G1 Y1.1953
G3 X14.9753 Y0.9003 I0.7309 J-0.0164
G3 X15.1734 Y0.675 I0.4502 J0.1961
G3 X15.5367 Y0.5343 I0.8929 J1.7657
G3 X15.9117 Y0.4289 I2.7878 J9.2014
G2 X16.1066 Y0.3579 I-0.1754 J-0.7843
G2 X16.2281 Y0.1898 I-0.0775 J-0.1841
G2 X16.2207 Y0.0722 I-0.8038 J-0.0082
G2 X16.1719 Y-0.0352 I-0.1603 J0.0081
G2 X16.0432 Y-0.0632 I-0.1127 J0.2077
G2 X15.9117 Y-0.0563 I-0.001 J1.2233
G3 X14.6887 Y0.0259 I-1.6169 J-14.9273
G3 X13.4648 Y-0.0422 I-0.2313 J-6.8772
G2 X13.2855 Y-0.0651 I-0.3039 J1.6667
G2 X13.1063 Y-0.0422 I-0.0467 J0.3478
G2 X13.0517 Y0.075 I0.1243 J0.1292
G2 X13.043 Y0.2039 I0.8211 J0.1201
G2 X13.1931 Y0.4104 I0.2537 J-0.0266
G2 X13.4297 Y0.5063 I0.5171 J-0.9369
G3 X13.7472 Y0.7734 I-0.1217 J0.467
G3 X13.8234 Y1.1813 I-0.8883 J0.3771
G1 Y3.4383
G3 X13.8045 Y3.7453 I-2.191 J0.0189
G3 X13.7039 Y4.0359 I-0.648 J-0.0615
G3 X13.4049 Y4.2699 I-0.8487 J-0.7764
G3 X13.0711 Y4.4508 I-2.5665 J-4.3389
G1 X13.0289 Y4.4719
G2 X12.8883 Y4.6688 I0.0776 J0.2041
G2 X12.8999 Y4.717 I0.2011 J-0.0229
G0 Z3.0
G0 X18.2737 Y4.6224
G1 F15.0 Z-4.0
G2 F120.0 X18.2742 Y4.6336 I0.1783 J-0.0031
G2 X18.3365 Y4.7314 I0.1774 J-0.0442
G2 X18.6603 Y4.966 I1.43 J-1.633
G2 X19.0055 Y5.168 I4.5105 J-7.313
G2 X19.4663 Y5.416 I5.745 J-10.1209
G2 X19.7036 Y5.5279 I1.9949 J-3.9249
G2 X19.9547 Y5.6039 I0.3705 J-0.7708
G2 X20.0659 Y5.534 I-0.0135 J-0.1449
G2 X20.2008 Y5.175 I-0.9379 J-0.5573
G3 X20.2608 Y4.9561 I4.2434 J1.0455
G3 X20.2981 Y4.8478 I1.4241 J0.4309
G3 X20.3222 Y4.795 I0.4878 J0.1899
G3 X20.3625 Y4.7531 I0.0693 J0.0265
G3 X20.5841 Y4.8481 I-0.1965 J0.7645
G3 X20.7914 Y4.9711 I-2.6121 J4.6391
G2 X21.5789 Y5.3789 I2.5021 J-3.8673
G2 X22.7672 Y5.6039 I1.1866 J-3.0164
G2 X23.625 Y5.393 I0.0389 J-1.6916
G2 X24.082 Y5.0063 I-0.7938 J-1.4015
G1 X24.2508 Y4.7953
G1 X24.6164 Y5.0063
G2 X25.4531 Y5.393 I2.4672 J-4.2396
G2 X26.6133 Y5.6039 I1.1941 J-3.2718
G2 X27.4236 Y5.4832 I0.0418 J-2.4996
G2 X28.3205 Y4.6748 I-0.4582 J-1.4101
G2 X28.4935 Y4.0929 I-2.0743 J-0.9335
G2 X28.5398 Y3.4875 I-3.6469 J-0.5834
G1 Y1.2094
G3 X28.5757 Y0.9049 I1.1638 J-0.0174
G3 X28.7297 Y0.6398 I0.5212 J0.1256
G3 X29.0479 Y0.4865 I0.5867 J0.8108
G3 X29.3906 Y0.4008 I0.9625 J3.12
G2 X29.6043 Y0.3436 I-0.2159 J-1.2336
G2 X29.7058 Y0.2895 I-0.143 J-0.3907
G2 X29.7633 Y0.1898 I-0.0698 J-0.1067
G2 X29.7122 Y0.0229 I-0.2426 J-0.0171
G2 X29.5453 Y-0.0281 I-0.1371 J0.1499
G3 X26.8734 I-1.3359 J-16.919
G2 X26.6699 Y0.0209 I-0.0418 J0.2731
G2 X26.5992 Y0.218 I0.1816 J0.1764
G2 X26.7415 Y0.4035 I0.1926 J-0.0004
G2 X26.9719 Y0.443 I0.2387 J-0.7006
G3 X27.366 Y0.7287 I-0.0108 J0.4296
G3 X27.443 Y1.2094 I-1.2047 J0.4393
G1 Y3.0797
G3 X27.3918 Y3.6468 I-2.8748 J0.0263
G3 X27.253 Y4.0596 I-1.5918 J-0.3054
G3 X26.7982 Y4.5221 I-0.9149 J-0.4448
G3 X26.1633 Y4.6547 I-0.5979 J-1.2762
G3 X24.9258 Y4.4086 I-0.0352 J-3.0574
G3 X24.6171 Y4.2485 I0.7354 J-1.7959
G3 X24.4803 Y4.1343 I0.3896 J-0.6058
G3 X24.4055 Y3.9727 I0.1849 J-0.1838
G1 X24.3773 Y1.1813
G3 X24.3934 Y0.8863 I2.3861 J-0.0183
G3 X24.4828 Y0.6047 I0.6388 J0.0479
G3 X24.6438 Y0.5069 I0.2547 J0.2377
G3 X24.8273 Y0.4641 I0.3491 J1.0823
G2 X25.1608 Y0.3913 I-0.5076 J-3.1264
G2 X25.3254 Y0.331 I-0.2827 J-1.0257
G2 X25.4021 Y0.2829 I-0.1537 J-0.3308
G2 X25.4461 Y0.2039 I-0.0635 J-0.0872
G2 X25.4109 Y0.0211 I-0.3624 J-0.0251
G2 X25.2909 Y-0.0368 I-0.1271 J0.1102
G2 X25.1578 Y-0.0422 I-0.0979 J0.7681
G3 X22.8234 Y-0.0703 I-0.7221 J-36.9564
G2 X22.6808 Y-0.0686 I-0.0545 J1.3992
G2 X22.5422 Y-0.0352 I0.0055 J0.3268
G2 X22.4889 Y0.0563 I0.0908 J0.1141
G2 X22.4789 Y0.1617 I0.4737 J0.0983
G2 X22.6434 Y0.3382 I0.204 J-0.0252
G2 X22.8797 Y0.3867 I0.327 J-0.9933
G3 X23.2478 Y0.7016 I-0.0483 J0.4291
G3 X23.3156 Y1.1813 I-1.3815 J0.44
G1 Y3.0938
G3 X23.2436 Y3.7219 I-2.522 J0.029
G3 X22.9641 Y4.2891 I-1.397 J-0.3361
G3 X22.1766 Y4.6688 I-0.7709 J-0.5923
G3 X20.9109 Y4.3805 I-0.0419 J-2.7383
G3 X20.5524 Y4.15 I0.737 J-1.5407
G3 X20.3484 Y3.7758 I0.3097 J-0.4115
G1 Y1.2094
G3 X20.3909 Y0.881 I1.1386 J-0.0197
G3 X20.5734 Y0.6047 I0.5081 J0.1372
G3 X20.9307 Y0.4634 I0.5124 J0.7735
G3 X21.3117 Y0.4148 I0.5409 J2.7237
G2 X21.4968 Y0.3763 I-0.0084 J-0.5043
G2 X21.6 Y0.218 I-0.0612 J-0.1527
G2 X21.368 Y0.0141 I-0.1941 J-0.0131
G3 X20.094 Y-0.0024 I-0.0669 J-44.2393
G3 X18.8227 Y-0.0844 I0.3082 J-14.6722
G2 X18.6504 Y-0.1008 I-0.2864 J2.0939
G2 X18.4781 Y-0.0844 I-0.044 J0.4506
G2 X18.4148 Y0.0844 I0.1258 J0.1434
G2 X18.5004 Y0.2189 I0.1769 J-0.0181
G2 X18.9352 Y0.3867 I0.7026 J-1.1728
G3 X19.1223 Y0.5327 I-0.0871 J0.3045
G3 X19.2292 Y0.863 I-0.766 J0.4304
G3 X19.2516 Y1.2094 I-2.374 J0.3273
G1 Y3.368
G3 X19.1812 Y3.9131 I-1.8248 J0.0416
G3 X19.0477 Y4.1638 I-0.6954 J-0.2095
G3 X18.8086 Y4.3172 I-0.3691 J-0.3123
G2 X18.3516 Y4.4719 I0.8033 J3.1258
G2 X18.2737 Y4.6224 I0.1004 J0.1474
G0 Z3.0
G0 X30.9652 Y4.319
G1 F15.0 Z-4.0
G2 F120.0 X30.9656 Y4.3313 I0.5794 J-0.0139
G2 X31.0918 Y4.6067 I0.4427 J-0.0362
G2 X31.4364 Y4.8931 I1.268 J-1.1754
G2 X31.8234 Y5.1188 I2.4442 J-3.7466
G2 X32.6597 Y5.4592 I2.0896 J-3.9357
G2 X33.5531 Y5.5898 I0.9111 J-3.1097
G2 X34.1072 Y5.5253 I0.0275 J-2.1739
G2 X34.7841 Y5.0435 I-0.2327 J-1.0435
G2 X34.9664 Y4.2328 I-1.3706 J-0.734
G1 X34.9383 Y1.3359
G3 X35.0176 Y1.0109 I0.5437 J-0.0396
G3 X35.325 Y0.8789 I0.2787 J0.2251
G3 X35.6203 Y0.9141 I-0.1541 J2.5526
G2 X35.8734 Y0.9492 I0.6411 J-3.687
G2 X36.0397 Y0.86 I0.0129 J-0.1754
G2 X36.0773 Y0.675 I-0.352 J-0.1679
G2 X35.9807 Y0.5227 I-0.2558 J0.0554
G2 X35.5359 Y0.225 I-1.6395 J1.9689
G2 X35.1237 Y0.0288 I-1.6478 J2.9312
G2 X34.6781 Y-0.0703 I-0.5013 J1.2023
G2 X34.193 Y0.1969 I0.0224 J0.6148
G3 X34.0625 Y0.3494 I-1.7358 J-1.3526
G3 X33.9885 Y0.4189 I-0.5877 J-0.5523
G3 X33.8977 Y0.4641 I-0.1206 J-0.1284
G3 X33.5594 Y0.3299 I0.6995 J-2.2574
G3 X33.2297 Y0.1758 I7.922 J-17.3751
G2 X32.0133 Y-0.1125 I-1.2391 J2.518
G2 X31.05 Y0.225 I-0.0452 J1.4146
G2 X30.6281 Y1.2375 I0.8622 J0.9534
G2 X31.0095 Y2.0435 I1.0821 J-0.0188
G2 X31.5504 Y2.4094 I1.5979 J-1.7793
G2 X32.4622 Y2.7581 I2.3246 J-4.7123
G2 X33.4125 Y2.9813 I2.8257 J-9.8978
G3 X33.7232 Y3.0892 I-0.1548 J0.947
G3 X33.8977 Y3.368 I-0.1505 J0.2882
G1 X33.9117 Y3.818
G3 X33.8797 Y4.2565 I-1.8112 J0.0882
G3 X33.5291 Y4.8117 I-0.8308 J-0.1363
G3 X32.8922 Y4.9711 I-0.5876 J-0.9954
G3 X32.5362 Y4.7725 I0.0407 J-0.4912
G3 X32.3156 Y4.4297 I1.3133 J-1.0876
G2 X32.0103 Y4.03 I-1.0607 J0.4937
G2 X31.5422 Y3.8461 I-0.5272 J0.6544
G2 X31.3236 Y3.8491 I-0.0972 J0.8788
G2 X31.043 Y4.0147 I0.0391 J0.3867
G2 X30.9652 Y4.319 I0.5016 J0.2904
G0 Z3.0
G0 X32.3265 Y2.1326
G1 F15.0 Z-4.0
G3 F120.0 X32.0745 Y1.936 I0.8011 J-1.2867
G3 X31.8586 Y1.4273 I0.4951 J-0.5104
G3 X31.9081 Y1.0892 I1.0617 J-0.0174
G3 X32.2422 Y0.7119 I0.5913 J0.1869
G3 X32.7375 Y0.6188 I0.4595 J1.0799
G3 X33.4617 Y0.7523 I-0.021 J2.1436
G3 X33.7305 Y0.8793 I-0.4031 J1.2012
G3 X33.8977 Y1.125 I-0.145 J0.2784
G1 X33.9117 Y2.2781
G3 X33.9001 Y2.4053 I-0.4236 J0.0254
G3 X33.8273 Y2.5102 I-0.1663 J-0.0377
G3 X33.6921 Y2.5447 I-0.1281 J-0.2197
G3 X33.5531 Y2.5313 I-0.0014 J-0.7105
G3 X32.5353 Y2.2411 I0.6977 J-4.3771
G3 X32.3265 Y2.1326 I0.5923 J-1.3952
G0 Z3.0
G0 X37.1167 Y0.1427
G1 F15.0 Z-4.0
G2 F120.0 X37.1599 Y0.2036 I0.1563 J-0.0649
G2 X37.5047 Y0.3727 I0.5538 J-0.6935
G3 X37.7193 Y0.5376 I-0.1177 J0.3753
G3 X37.8497 Y0.9122 I-0.8191 J0.4949
G3 X37.8773 Y1.3078 I-2.4981 J0.3735
G1 Y3.4383
G3 X37.857 Y3.793 I-2.7022 J0.0231
G3 X37.8202 Y3.9686 I-1.1071 J-0.1406
G3 X37.7367 Y4.1273 I-0.3934 J-0.1055
G3 X37.4203 Y4.2982 I-0.7048 J-0.9266
G3 X37.0828 Y4.4227 I-2.431 J-6.0734
G2 X36.9422 Y4.6195 I0.051 J0.1851
G2 X37.0537 Y4.7808 I0.2075 J-0.0242
G2 X37.2305 Y4.8656 I0.4622 J-0.737
G3 X38.0953 Y5.3367 I-1.549 J3.8732
G2 X38.3373 Y5.4915 I2.5796 J-3.7665
G2 X38.4642 Y5.56 I0.8909 J-1.4978
G2 X38.6016 Y5.6039 I0.1861 J-0.3456
G2 X38.7253 Y5.5435 I-0.0019 J-0.161
G2 X38.8136 Y5.3639 I-0.3864 J-0.3014
G2 X38.8547 Y5.168 I-1.3619 J-0.3878
G3 X38.9005 Y4.9363 I2.0456 J0.2843
G3 X38.9412 Y4.8217 I0.6673 J0.1723
G3 X39.0305 Y4.7391 I0.117 J0.0369
G2 X39.0469 Y4.7596 I0.0267 J-0.0046
G2 X39.7477 Y5.1469 I6.7634 J-11.4084
G2 X41.2734 Y5.5617 I1.5821 J-2.8058
G2 X42.0563 Y5.4376 I0.0405 J-2.275
G2 X42.9009 Y4.6344 I-0.4826 J-1.3531
G2 X43.0624 Y4.0714 I-2.1424 J-0.9192
G2 X43.1086 Y3.4875 I-3.7267 J-0.5888
G1 X43.1227 Y1.2234
G3 X43.1667 Y0.8859 I1.1721 J-0.0187
G3 X43.3477 Y0.5977 I0.5716 J0.1579
G3 X43.6624 Y0.4446 I0.5869 J0.807
G3 X44.0016 Y0.3586 I0.9567 J3.0599
G2 X44.1978 Y0.2945 I-0.1292 J-0.728
G2 X44.318 Y0.1266 I-0.0721 J-0.1785
G2 X44.207 Y-0.0478 I-0.1709 J-0.0137
G2 X44.0016 Y-0.0703 I-0.1543 J0.4584
G3 X42.8558 Y-0.0276 I-1.9612 J-37.1951
G3 X41.7094 Y-0.0422 I-0.3866 J-14.6458
G2 X41.48 Y-0.0435 I-0.1234 J1.5183
G2 X41.3633 Y-0.0214 I0.0356 J0.5063
G2 X41.2734 Y0.0563 I0.0289 J0.1243
G2 X41.2594 Y0.1758 I0.3962 J0.1072
G2 X41.3252 Y0.2843 I0.1457 J-0.0143
G2 X41.6672 Y0.4289 I0.5862 J-0.9093
G3 X41.9757 Y0.7281 I-0.1265 J0.4391
G3 X42.0398 Y1.1531 I-1.1611 J0.3925
G1 Y3.0234
G3 X41.9796 Y3.6224 I-2.7238 J0.0285
G3 X41.8172 Y4.0519 I-1.5085 J-0.325
G3 X41.311 Y4.5089 I-0.9357 J-0.5275
G3 X40.6406 Y4.6336 I-0.6316 J-1.5312
G3 X39.4805 Y4.3383 I-0.017 J-2.3596
G3 X39.1538 Y4.1017 I0.7684 J-1.4047
G3 X38.9742 Y3.7406 I0.3391 J-0.3939
G1 Y1.1672
G3 X39.2458 Y0.6097 I0.6329 J-0.0366
G3 X39.8391 Y0.4289 I0.6526 J1.078
G2 X40.0435 Y0.3848 I-0.0412 J-0.6862
G2 X40.1695 Y0.218 I-0.0521 J-0.1705
G2 X40.1547 Y0.0991 I-0.4139 J-0.0086
G2 X40.0781 Y0.007 I-0.1299 J0.0302
G2 X39.8391 Y0.0 I-0.1553 J1.2142
G3 X37.5609 Y-0.1125 I-0.4759 J-13.4844
G2 X37.2445 Y-0.1336 I-0.2573 J1.4762
G2 X37.1039 Y0.0844 I0.0475 J0.185
G2 X37.1167 Y0.1427 I0.1692 J-0.0066
G0 Z3.0
G0 X45.598 Y1.1746
G1 F15.0 Z-4.0
G2 F120.0 X45.5836 Y1.4977 I2.1031 J0.2559
G1 Y4.043
G3 X45.5737 Y4.342 I-3.9221 J0.0193
G3 X45.5552 Y4.4914 I-1.5194 J-0.1117
G3 X45.5063 Y4.6336 I-0.3807 J-0.0515
G3 X45.3935 Y4.7192 I-0.2416 J-0.2012
G3 X44.993 Y4.8516 I-0.8317 J-1.8445
G2 X44.8993 Y4.9412 I0.033 J0.1283
G2 X44.8805 Y5.0695 I0.3593 J0.1183
G2 X44.893 Y5.2027 I0.6122 J0.0095
G2 X44.9648 Y5.3156 I0.1584 J-0.0215
G3 X45.7239 Y5.8865 I-1.2003 J2.3862
G3 X46.2867 Y6.6516 I-3.0491 J2.8325
G2 X46.4237 Y6.7446 I0.1635 J-0.0933
G2 X46.5891 Y6.7359 I0.0602 J-0.4323
G2 X46.7508 Y6.5531 I-0.0383 J-0.1968
G1 X46.7789 Y5.6742
G3 X46.8141 Y5.5336 I0.2306 J-0.0171
G3 X46.9204 Y5.4801 I0.1284 J0.1228
G3 X47.0391 Y5.4703 I0.1108 J0.62
G1 X48.607
G2 X48.6734 Y5.4006 I0.0033 J-0.0633
G2 X48.607 Y5.1398 I-0.7315 J0.0473
G2 X48.4325 Y4.8625 I-0.7503 J0.2787
G2 X48.1289 Y4.7391 I-0.2984 J0.2989
G1 X47.0672
G3 X46.8896 Y4.7259 I-0.0123 J-1.0409
G3 X46.7297 Y4.6477 I0.0224 J-0.2483
G3 X46.6869 Y4.478 I0.3527 J-0.1792
G3 X46.6805 Y4.3031 I2.0629 J-0.1634
G1 Y2.0039
G3 X46.7018 Y1.4441 I6.3862 J-0.0364
G3 X46.7406 Y1.1652 I2.5953 J0.2189
G3 X46.8352 Y0.9 I0.7867 J0.1309
G3 X47.0337 Y0.7347 I0.4238 J0.3071
G3 X47.402 Y0.6289 I0.513 J1.092
G3 X47.7844 Y0.6047 I0.3634 J2.7088
G3 X48.382 Y0.682 I-0.0724 J2.9069
G2 X48.7547 Y0.7664 I2.2077 J-8.8854
G2 X48.8391 Y0.6609 I0.0002 J-0.0863
G2 X48.6099 Y0.2866 I-0.4788 J0.0358
G2 X48.2203 Y0.0844 I-0.9752 J1.4023
G2 X47.1094 Y-0.1266 I-1.119 J2.8623
G2 X46.4786 Y-0.0375 I-0.0323 J2.0506
G2 X45.7634 Y0.574 I0.3338 J1.1144
G2 X45.598 Y1.1746 I1.9377 J0.8565
G0 Z3.0
G0 X49.828 Y1.9825
G1 F15.0 Z-4.0
G2 F120.0 X49.7742 Y2.5945 I2.9897 J0.571
G2 X49.9728 Y3.8029 I3.4963 J0.0458
G2 X50.6391 Y4.8305 I2.5695 J-0.9363
G2 X52.6219 Y5.618 I1.9206 J-1.9459
G2 X53.9227 Y5.175 I-0.01 J-2.1607
G2 X54.3506 Y4.7803 I-1.3571 J-1.9007
G2 X54.6398 Y4.275 I-1.2462 J-1.0488
G3 X54.8297 Y4.0781 I0.26 J0.0608
G2 X55.0125 Y3.832 I-0.0338 J-0.216
G2 X54.9157 Y3.6278 I-0.2885 J0.0117
G2 X54.6353 Y3.4516 I-0.6417 J0.7101
G2 X54.3234 Y3.3398 I-1.0348 J2.3959
G1 X51.082 Y2.3766
G3 X51.2618 Y1.7496 I3.1978 J0.5778
G3 X51.8543 Y0.9689 I1.598 J0.5977
G3 X52.7977 Y0.7031 I0.893 J1.3623
G3 X53.7561 Y0.8821 I-0.0524 J2.936
G3 X54.6398 Y1.2938 I-1.8139 J5.0489
G2 X54.9422 Y1.3852 I0.3175 J-0.5044
G2 X55.0389 Y1.3055 I-0.0006 J-0.0993
G2 X55.0547 Y1.1813 I-0.3974 J-0.1137
G2 X54.93 Y0.9222 I-0.42 J0.0427
G2 X54.6031 Y0.6495 I-1.3103 J1.2386
G2 X54.2391 Y0.4289 I-2.6138 J3.9018
G2 X52.3336 Y-0.0703 I-1.93 J3.4804
G2 X51.3706 Y0.0982 I-0.0276 J2.6784
G2 X50.5477 Y0.6258 I0.8761 J2.2722
G2 X49.9519 Y1.528 I1.639 J1.73
G2 X49.828 Y1.9825 I2.8657 J1.0255
G0 Z3.0
G0 X51.0117 Y2.9391
G1 F15.0 Z-4.0
G1 F120.0 X52.9242 Y3.5156
G3 X53.2428 Y3.6754 I-0.204 J0.8041
G3 X53.3883 Y4.0008 I-0.2697 J0.3158
G3 X53.0719 Y4.6758 I-0.8882 J-0.0047
G3 X52.3055 Y4.9711 I-0.7376 J-0.7721
G3 X51.6712 Y4.8186 I-0.0339 J-1.2545
G3 X51.3222 Y4.4863 I0.5278 J-0.9034
G3 X51.0707 Y3.8187 I1.5351 J-0.9595
G3 X51.0117 Y3.1078 I3.8264 J-0.6755
G1 Y2.9391
G0 Z3.0
G0 X56.1179 Y4.55
G1 F15.0 Z-4.0
G2 F120.0 X56.1094 Y4.6195 I0.1831 J0.0578
G2 X56.2209 Y4.7808 I0.2075 J-0.0242
G2 X56.3977 Y4.8656 I0.4622 J-0.737
G3 X57.2625 Y5.3367 I-1.549 J3.8732
G2 X57.5045 Y5.4915 I2.5796 J-3.7665
G2 X57.6314 Y5.56 I0.8909 J-1.4978
G2 X57.7688 Y5.6039 I0.1861 J-0.3456
G2 X57.8925 Y5.5435 I-0.0019 J-0.161
G2 X57.9808 Y5.3639 I-0.3864 J-0.3014
G2 X58.0219 Y5.168 I-1.3619 J-0.3878
G3 X58.0677 Y4.9363 I2.0456 J0.2843
G3 X58.1084 Y4.8217 I0.6673 J0.1723
G3 X58.1977 Y4.7391 I0.117 J0.0369
G2 X58.2141 Y4.7596 I0.0267 J-0.0046
G2 X58.9148 Y5.1469 I6.7634 J-11.4084
G2 X60.4406 Y5.5617 I1.5821 J-2.8058
G2 X61.2235 Y5.4376 I0.0405 J-2.275
G2 X62.0681 Y4.6344 I-0.4826 J-1.3531
G2 X62.2296 Y4.0714 I-2.1424 J-0.9192
G2 X62.2758 Y3.4875 I-3.7267 J-0.5888
G1 X62.2898 Y1.2234
G3 X62.3339 Y0.8859 I1.1721 J-0.0187
G3 X62.5148 Y0.5977 I0.5716 J0.1579
G3 X62.8296 Y0.4446 I0.5869 J0.807
G3 X63.1688 Y0.3586 I0.9567 J3.0599
G2 X63.365 Y0.2945 I-0.1292 J-0.728
G2 X63.4852 Y0.1266 I-0.0721 J-0.1785
G2 X63.3742 Y-0.0478 I-0.1709 J-0.0137
G2 X63.1688 Y-0.0703 I-0.1543 J0.4584
G3 X62.023 Y-0.0276 I-1.9612 J-37.1951
G3 X60.8766 Y-0.0422 I-0.3866 J-14.6458
G2 X60.6472 Y-0.0435 I-0.1234 J1.5183
G2 X60.5305 Y-0.0214 I0.0356 J0.5063
G2 X60.4406 Y0.0563 I0.0289 J0.1243
G2 X60.4266 Y0.1758 I0.3962 J0.1072
G2 X60.4924 Y0.2843 I0.1457 J-0.0143
G2 X60.8344 Y0.4289 I0.5862 J-0.9093
G3 X61.1429 Y0.7281 I-0.1265 J0.4391
G3 X61.207 Y1.1531 I-1.1611 J0.3925
G1 Y3.0234
G3 X61.1468 Y3.6224 I-2.7238 J0.0285
G3 X60.9843 Y4.0519 I-1.5085 J-0.325
G3 X60.4782 Y4.5089 I-0.9357 J-0.5275
G3 X59.8078 Y4.6336 I-0.6316 J-1.5312
G3 X58.6477 Y4.3383 I-0.017 J-2.3596
G3 X58.321 Y4.1017 I0.7684 J-1.4047
G3 X58.1414 Y3.7406 I0.3391 J-0.3939
G1 Y1.1672
G3 X58.413 Y0.6097 I0.6329 J-0.0366
G3 X59.0063 Y0.4289 I0.6526 J1.078
G2 X59.2106 Y0.3848 I-0.0412 J-0.6862
G2 X59.3367 Y0.218 I-0.0521 J-0.1705
G2 X59.3219 Y0.0991 I-0.4139 J-0.0086
G2 X59.2453 Y0.007 I-0.1299 J0.0302
G2 X59.0063 Y0.0 I-0.1553 J1.2142
G3 X56.7281 Y-0.1125 I-0.4759 J-13.4844
G2 X56.4117 Y-0.1336 I-0.2573 J1.4762
G2 X56.2711 Y0.0844 I0.0475 J0.185
G2 X56.3271 Y0.2036 I0.1692 J-0.0066
G2 X56.6719 Y0.3727 I0.5538 J-0.6935
G3 X56.8865 Y0.5376 I-0.1177 J0.3753
G3 X57.0169 Y0.9122 I-0.8191 J0.4949
G3 X57.0445 Y1.3078 I-2.4981 J0.3735
G1 Y3.4383
G3 X57.0242 Y3.793 I-2.7022 J0.0231
G3 X56.9874 Y3.9686 I-1.1071 J-0.1406
G3 X56.9039 Y4.1273 I-0.3934 J-0.1055
G3 X56.5874 Y4.2982 I-0.7048 J-0.9266
G3 X56.25 Y4.4227 I-2.431 J-6.0734
G2 X56.1179 Y4.55 I0.051 J0.1851
G0 Z3.0
G0 X68.3276 Y4.5703
G1 F15.0 Z-4.0
G2 F120.0 X68.3776 Y4.7108 I0.2601 J-0.0135
G2 X68.4752 Y4.8234 I0.565 J-0.3911
G2 X69.4805 Y5.5149 I2.3733 J-2.374
G2 X70.676 Y5.7586 I1.1773 J-2.721
G2 X71.3593 Y5.7035 I0.0307 J-3.8835
G2 X71.8631 Y5.5537 I-0.368 J-2.1602
G2 X72.4567 Y5.0394 I-0.48 J-1.1538
G2 X72.6377 Y4.275 I-1.335 J-0.7197
G2 X72.4233 Y3.4782 I-1.7598 J0.0464
G2 X71.9557 Y2.7984 I-3.199 J1.6997
G2 X71.0884 Y1.9265 I-7.3172 J6.4112
G2 X70.1557 Y1.125 I-17.8391 J19.8151
G3 X70.0904 Y1.0602 I0.3818 J-0.4498
G3 X70.0502 Y0.9773 I0.1056 J-0.1023
G3 X70.0882 Y0.9303 I0.0538 J0.0046
G3 X70.2612 Y0.907 I0.1508 J0.4656
G3 X71.9557 Y0.9211 I0.2749 J68.9731
G3 X72.9963 Y1.1531 I-0.0785 J2.8017
G2 X73.2846 Y1.1672 I0.1614 J-0.346
G2 X73.3907 Y1.0783 I-0.031 J-0.1448
G2 X73.3408 Y0.9492 I-0.1692 J-0.0089
G3 X72.9769 Y0.1868 I3.6811 J-2.2255
G3 X72.7221 Y-0.6188 I8.2925 J-3.0656
G2 X72.6085 Y-0.7517 I-0.1697 J0.03
G2 X72.4338 Y-0.7453 I-0.076 J0.3166
G2 X72.2887 Y-0.6076 I0.0228 J0.1693
G2 X72.3002 Y-0.4078 I0.464 J0.0734
G3 X72.2172 Y-0.1446 I-0.22 J0.0753
G3 X71.9557 Y-0.0563 I-0.3147 J-0.5003
G3 X71.08 Y0.0053 I-1.2021 J-10.8372
G3 X68.4471 Y0.0422 I-2.3565 J-74.2698
G2 X68.3276 Y0.1617 I0.0082 J0.1277
G2 X68.3698 Y0.3445 I0.1474 J0.0623
G3 X69.623 Y1.4189 I-19.1278 J23.5814
G3 X70.7674 Y2.6086 I-6.8297 J7.7147
G3 X71.1602 Y3.2513 I-2.3428 J1.873
G3 X71.3229 Y3.9867 I-1.6744 J0.7562
G3 X71.2698 Y4.3751 I-1.3039 J0.0197
G3 X70.9 Y4.8217 I-0.6933 J-0.1977
G3 X70.3315 Y4.9359 I-0.527 J-1.1512
G3 X69.4947 Y4.7339 I0.0645 J-2.1013
G3 X68.7494 Y4.3031 I1.8998 J-4.1463
G2 X68.5634 Y4.2664 I-0.1297 J0.1672
G2 X68.4119 Y4.3805 I0.1185 J0.315
G2 X68.3276 Y4.5703 I0.2425 J0.2215
G0 Z3.0
G0 X74.1828 Y3.4374
G1 F15.0 Z-4.0
G2 F120.0 X74.3239 Y3.9485 I3.3297 J-0.6443
G2 X74.9932 Y4.9641 I2.567 J-0.9635
G2 X77.0604 Y5.7586 I1.9851 J-2.0782
G2 X78.161 Y5.5749 I0.0388 J-3.1568
G2 X79.0994 Y4.9711 I-0.894 J-2.4205
G2 X79.7087 Y4.038 I-1.7767 J-1.8255
G2 X79.894 Y2.9391 I-2.933 J-1.0596
G2 X79.7127 Y1.7823 I-3.5189 J-0.0411
G2 X79.1065 Y0.7805 I-2.6198 J0.901
G2 X78.1311 Y0.1173 I-1.9202 J1.7753
G2 X76.969 Y-0.0844 I-1.1191 J2.9994
G2 X75.8671 Y0.107 I-0.0348 J3.0665
G2 X74.9299 Y0.7172 I0.9623 J2.503
G2 X74.1213 Y2.7492 I1.9478 J1.952
G2 X74.1828 Y3.4374 I3.3912 J0.0439
G1 F15.0 X75.3783 Y3.3136
G3 F120.0 X75.3588 Y2.8969 I3.6839 J-0.3814
G3 X75.4461 Y1.9909 I4.2946 J-0.0434
G3 X75.8018 Y1.1531 I2.1614 J0.4232
G3 X77.0323 Y0.5484 I1.1795 J0.8458
G3 X77.6952 Y0.6885 I0.0254 J1.519
G3 X78.2135 Y1.125 I-0.6134 J1.2542
G3 X78.5577 Y1.9321 I-1.7365 J1.2176
G3 X78.6424 Y2.8055 I-4.0313 J0.8316
G3 X78.5523 Y3.6856 I-3.977 J0.0376
G3 X78.2065 Y4.5 I-2.2652 J-0.4814
G3 X77.0323 Y5.1258 I-1.1398 J-0.7241
G3 X76.3207 Y4.973 I-0.0293 J-1.5969
G3 X75.7737 Y4.493 I0.6476 J-1.2897
G3 X75.4448 Y3.7265 I1.7975 J-1.225
G3 X75.3783 Y3.3136 I3.6174 J-0.7943
G0 Z3.0
G0 X81.1472 Y5.2815
G1 F15.0 Z-4.0
G2 F120.0 X81.1455 Y5.4141 I0.2018 J0.0688
G2 X81.1969 Y5.5513 I0.4252 J-0.0808
G2 X81.3143 Y5.6391 I0.1596 J-0.0912
G2 X81.6377 Y5.632 I0.1192 J-1.9611
G3 X83.6838 Y5.6602 I0.8503 J12.5837
G2 X83.8537 Y5.6671 I0.1702 J-2.0685
G2 X84.0213 Y5.6391 I0.0216 J-0.3857
G2 X84.076 Y5.533 I-0.096 J-0.1166
G2 X84.0846 Y5.4141 I-0.702 J-0.1106
G2 X83.9456 Y5.2197 I-0.242 J0.0262
G2 X83.726 Y5.1258 I-0.5067 J0.8808
G3 X83.308 Y4.8366 I0.1935 J-0.7264
G3 X83.1776 Y4.3453 I0.7357 J-0.4583
G1 Y1.5117
G3 X83.201 Y1.1793 I2.1091 J-0.0185
G3 X83.3112 Y0.8648 I0.7928 J0.1012
G3 X83.5512 Y0.6542 I0.506 J0.3346
G3 X83.8526 Y0.5484 I0.5648 J1.1267
G2 X84.1479 Y0.4641 I-0.3148 J-1.6609
G2 X84.2463 Y0.218 I-0.1248 J-0.1926
G2 X84.2022 Y0.0791 I-0.377 J0.0434
G2 X84.0846 Y-0.007 I-0.1525 J0.0849
G2 X83.7541 Y0.0 I-0.1226 J2.0087
G3 X81.708 Y-0.0281 I-0.8505 J-12.567
G2 X81.5569 Y-0.0377 I-0.2804 J3.2342
G2 X81.4057 Y-0.0281 I-0.0426 J0.527
G2 X81.3332 Y0.0845 I0.0758 J0.1285
G2 X81.3213 Y0.218 I0.6364 J0.1238
G2 X81.4527 Y0.4109 I0.24 J-0.0222
G2 X81.6658 Y0.5063 I0.4917 J-0.8136
G3 X82.0347 Y0.8109 I-0.1665 J0.5772
G3 X82.1299 Y1.2797 I-0.9389 J0.4348
G1 Y4.1203
G3 X82.1177 Y4.4295 I-3.4471 J0.0182
G3 X82.0526 Y4.732 I-1.0165 J-0.0604
G3 X81.8451 Y4.9676 I-0.4782 J-0.212
G3 X81.5533 Y5.0836 I-0.4953 J-0.8211
G2 X81.251 Y5.1609 I1.2497 J5.5147
G2 X81.1472 Y5.2815 I0.098 J0.1894
G0 Z3.0
G0 X85.4276 Y4.9641
G1 F15.0 Z-4.0
G2 F120.0 X85.5068 Y5.1059 I0.2313 J-0.0361
G2 X85.6315 Y5.2102 I0.7072 J-0.7191
G2 X87.6283 Y5.8922 I1.9915 J-2.5665
G2 X88.2863 Y5.8407 I0.0292 J-3.8566
G2 X88.7728 Y5.7008 I-0.3548 J-2.1491
G2 X89.3536 Y5.2146 I-0.4497 J-1.1271
G2 X89.5338 Y4.4789 I-1.2359 J-0.6927
G2 X89.3492 Y3.7724 I-1.4499 J0.0015
G2 X88.6097 Y2.9889 I-2.1163 J1.2567
G2 X87.6705 Y2.4609 I-3.1793 J4.556
G2 X88.3884 Y2.388 I0.1263 J-2.3269
G2 X89.0276 Y2.0531 I-0.428 J-1.5942
G2 X89.4287 Y1.4975 I-0.9053 J-1.0762
G2 X89.5479 Y0.8227 I-1.6913 J-0.6466
G2 X89.1787 Y-0.5656 I-2.6168 J-0.0474
G2 X88.4581 Y-1.3443 I-2.3918 J1.4905
G2 X87.0474 Y-2.0527 I-2.9077 J4.0318
G2 X85.5119 Y-2.4188 I-3.0331 J9.3197
G2 X85.3157 Y-2.3905 I-0.0625 J0.2619
G2 X85.2237 Y-2.2148 I0.1532 J0.1922
G2 X85.2245 Y-2.0872 I0.4366 J0.0609
G2 X85.2869 Y-1.9758 I0.1699 J-0.022
G2 X85.4437 Y-1.9025 I0.2949 J-0.4264
G2 X85.6104 Y-1.8563 I0.7071 J-2.2259
G3 X86.6396 Y-1.553 I-1.7589 J7.8674
G3 X87.5862 Y-1.0477 I-1.2064 J3.3989
G3 X88.3033 Y0.4781 I-1.1306 J1.4629
G3 X88.1968 Y1.0307 I-1.3742 J0.0216
G3 X87.8533 Y1.4766 I-1.0745 J-0.4725
G3 X86.8268 Y1.8141 I-0.9709 J-1.2233
G3 X86.3487 Y1.7859 I-0.0655 J-2.9651
G2 X86.1669 Y1.8279 I-0.0522 J0.1885
G2 X86.0744 Y1.9898 I0.2606 J0.2563
G2 X86.0901 Y2.1935 I0.22 J0.0855
G2 X86.2502 Y2.3203 I0.2937 J-0.2062
G3 X87.491 Y3.038 I-2.7104 J6.1171
G3 X88.0136 Y3.5548 I-1.5444 J2.0842
G3 X88.2612 Y4.2469 I-0.9288 J0.7226
G3 X88.2099 Y4.6101 I-1.182 J0.0186
G3 X87.8579 Y5.0222 I-0.642 J-0.1921
G3 X87.326 Y5.1258 I-0.4932 J-1.1149
G3 X85.8846 Y4.7391 I0.0069 J-2.9053
G2 X85.4979 Y4.8234 I-0.1502 J0.2398
G2 X85.4276 Y4.9641 I0.186 J0.1809
G0 Z3.0
M5
M30
