; generated by PrusaSlicer 2.5.0+win64 on 2022-09-21 at 16:22:25 UTC

; 

; external perimeters extrusion width = 0.45mm
; perimeters extrusion width = 0.45mm
; infill extrusion width = 0.45mm
; solid infill extrusion width = 0.45mm
; top infill extrusion width = 0.40mm
; first layer extrusion width = 0.42mm

; external perimeters extrusion width = 0.45mm
; perimeters extrusion width = 0.45mm
; infill extrusion width = 0.45mm
; solid infill extrusion width = 0.45mm
; top infill extrusion width = 0.40mm
; first layer extrusion width = 0.42mm

M73 P0 R141
M107
;TYPE:Custom
M862.3 P "MK2S" ; printer model check
M862.1 P0.4 ; nozzle diameter check
M115 U3.2.3 ; tell printer latest fw version
G90 ; use absolute coordinates
M83 ; extruder relative mode
M204 S2000 T1500 ; MK2 firmware only supports the old M204 format
M104 S215 ; set extruder temp
M140 S60 ; set bed temp
M190 S60 ; wait for bed temp
M109 S215 ; wait for extruder temp
G28 W ; home all without mesh bed level
G80 ; mesh bed leveling
G1 Y-3.0 F1000.0 ; go outside print area
G92 E0.0
G1 X60.0 E9.0  F1000.0 ; intro line
G1 X100.0 E12.5 F1000.0 ; intro line
G92 E0.0
G21 ; set units to millimeters
G90 ; use absolute coordinates
M83 ; use relative distances for extrusion
M900 K0.05 ; Filament gcode LA 1.5
M900 K30 ; Filament gcode LA 1.0
M107
;LAYER_CHANGE
;Z:0.2
;HEIGHT:0.2
;BEFORE_LAYER_CHANGE
G92 E0.0
;0.2


G1 E-.8 F2100
G1 Z.4 F10800
;AFTER_LAYER_CHANGE
;0.2
G1 X106.205 Y78.693
G1 Z.2
G1 E.8 F2100
M204 S1000
;TYPE:Skirt/Brim
;WIDTH:0.42
G1 F1200
G1 X106.731 Y78.124 E.02431
G1 X129.231 Y60.624 E.89373
G1 X130.69 Y60.123 E.04838
G1 X164.31 Y60.143 E1.05413
G1 X165.41 Y60.438 E.03569
G1 X165.958 Y60.757 E.0199
G1 X166.593 Y61.346 E.02715
G1 X167.162 Y62.331 E.03569
G1 X167.376 Y63.492 E.037
G1 X167.377 Y111.81 E1.51496
G1 X166.986 Y113.117 E.04278
G1 X166.459 Y113.686 E.02431
G1 X143.959 Y131.186 E.89373
G1 X142.5 Y131.687 E.04838
G1 X137.5 Y131.687 E.15677
G1 X136.193 Y131.295 E.04278
G1 X135.531 Y130.642 E.02915
G1 X106.222 Y87.332 E1.63968
G1 X105.813 Y86 E.04369
G1 X105.813 Y80 E.18813
G1 X106.188 Y78.75 E.0409
; printing object Deckenlampe-Sophia-Halter.stl id:0 copy 0
;WIPE_START
G1 F8640
G1 X106.731 Y78.124 E-.19154
G1 X108.674 Y76.612 E-.56846
;WIPE_END
G1 E-.04 F2100
G1 Z.6 F10800
G1 X109.694 Y80.787
G1 Z.2
G1 E.8 F2100
;TYPE:Perimeter
;WIDTH:0.419999
G1 F1200
G1 X141.43 Y80.787 E.99506
G1 X141.527 Y80.797 E.00305
G1 X141.662 Y80.876 E.0049
G1 X141.713 Y81.07 E.0063
G1 X141.713 Y127.806 E1.46537
G1 X138.287 Y127.806 E.10741
G1 X138.287 Y91.908 E1.12555
G1 X138.241 Y91.684 E.00719
G1 X138.121 Y91.508 E.00665
G1 X133.992 Y87.379 E.18312
G1 X133.816 Y87.259 E.00665
G1 X133.592 Y87.213 E.00719
G1 X118.287 Y87.213 E.47987
G1 X118.287 Y85.779 E.04497
G1 X118.221 Y85.512 E.0086
G1 X118.033 Y85.306 E.00874
G1 X117.721 Y85.213 E.01019
G1 X109.694 Y85.213 E.2517
G1 X109.694 Y80.847 E.13689
G1 X109.317 Y80.41 F10800
;TYPE:External perimeter
G1 F1200
G1 X141.43 Y80.41 E1.00688
G1 X141.652 Y80.434 E.007
G1 X141.915 Y80.585 E.00952
G1 X142.037 Y80.777 E.00715
G1 X142.09 Y81.07 E.00932
G1 X142.09 Y128.183 E1.47719
G1 X137.91 Y128.183 E.13106
G1 X137.91 Y91.908 E1.13737
G1 X137.855 Y91.775 E.00452
G1 X133.725 Y87.645 E.18312
G1 X133.592 Y87.59 E.00452
G1 X117.91 Y87.59 E.49169
G1 X117.91 Y85.779 E.0568
G1 X117.863 Y85.653 E.00419
G1 X117.721 Y85.59 E.00485
G1 X109.317 Y85.59 E.26352
G1 X109.317 Y80.47 E.16053
G1 X109.71 Y80.483 F10800
;WIPE_START
G1 F8640
G1 X112.608 Y80.464 E-.76
;WIPE_END
G1 E-.04 F2100
G1 Z.6 F10800
G1 X141.6 Y81.67
G1 Z.2
G1 E.8 F2100
;TYPE:Solid infill
;WIDTH:0.4236
G1 F1200
G1 X141 Y81.07 E.02687
G1 X140.461 Y81.07 E.01704
G1 X141.43 Y82.039 E.04337
G1 X141.43 Y82.577 E.01704
G1 X139.923 Y81.07 E.06747
G1 X139.384 Y81.07 E.01704
G1 X141.43 Y83.116 E.09157
G1 X141.43 Y83.654 E.01704
G1 X138.846 Y81.07 E.11567
G1 X138.308 Y81.07 E.01704
G1 X141.43 Y84.192 E.13977
G1 X141.43 Y84.731 E.01704
G1 X137.769 Y81.07 E.16387
G1 X137.231 Y81.07 E.01704
G1 X141.43 Y85.269 E.18797
G1 X141.43 Y85.807 E.01704
G1 X136.693 Y81.07 E.21207
G1 X136.154 Y81.07 E.01704
G1 X141.43 Y86.346 E.23617
G1 X141.43 Y86.884 E.01704
G1 X135.616 Y81.07 E.26027
G1 X135.078 Y81.07 E.01704
G1 X141.43 Y87.422 E.28437
G1 X141.43 Y87.961 E.01704
G1 X134.539 Y81.07 E.30847
G1 X134.001 Y81.07 E.01704
G1 X141.43 Y88.499 E.33257
G1 X141.43 Y89.037 E.01704
G1 X133.463 Y81.07 E.35667
G1 X132.924 Y81.07 E.01704
G1 X141.43 Y89.576 E.38077
G1 X141.43 Y90.114 E.01704
G1 X132.386 Y81.07 E.40487
G1 X131.847 Y81.07 E.01704
G1 X141.43 Y90.653 E.42897
G1 X141.43 Y91.191 E.01704
G1 X131.309 Y81.07 E.45307
G1 X130.771 Y81.07 E.01704
G1 X141.43 Y91.729 E.47717
G1 X141.43 Y92.268 E.01704
G1 X130.232 Y81.07 E.50127
G1 X129.694 Y81.07 E.01704
G1 X141.43 Y92.806 E.52537
G1 X141.43 Y93.344 E.01704
G1 X129.156 Y81.07 E.54947
G1 X128.617 Y81.07 E.01704
G1 X141.43 Y93.883 E.57357
G1 X141.43 Y94.421 E.01704
G1 X128.079 Y81.07 E.59767
G1 X127.541 Y81.07 E.01704
G1 X133.401 Y86.93 E.26233
G1 X132.862 Y86.93 E.01704
G1 X127.002 Y81.07 E.26233
G1 X126.464 Y81.07 E.01704
G1 X132.324 Y86.93 E.26233
G1 X131.786 Y86.93 E.01704
G1 X125.925 Y81.07 E.26233
G1 X125.387 Y81.07 E.01704
M73 P0 R140
G1 X131.247 Y86.93 E.26233
G1 X130.709 Y86.93 E.01704
G1 X124.849 Y81.07 E.26233
G1 X124.31 Y81.07 E.01704
G1 X130.171 Y86.93 E.26233
G1 X129.632 Y86.93 E.01704
G1 X123.772 Y81.07 E.26233
G1 X123.234 Y81.07 E.01704
G1 X129.094 Y86.93 E.26233
G1 X128.555 Y86.93 E.01704
G1 X122.695 Y81.07 E.26233
G1 X122.157 Y81.07 E.01704
G1 X128.017 Y86.93 E.26233
G1 X127.479 Y86.93 E.01704
G1 X121.619 Y81.07 E.26233
G1 X121.08 Y81.07 E.01704
G1 X126.94 Y86.93 E.26233
G1 X126.402 Y86.93 E.01704
G1 X120.542 Y81.07 E.26233
G1 X120.003 Y81.07 E.01704
G1 X125.864 Y86.93 E.26233
G1 X125.325 Y86.93 E.01704
G1 X119.465 Y81.07 E.26233
G1 X118.927 Y81.07 E.01704
G1 X124.787 Y86.93 E.26233
G1 X124.249 Y86.93 E.01704
G1 X118.388 Y81.07 E.26233
G1 X117.85 Y81.07 E.01704
G1 X123.71 Y86.93 E.26233
G1 X123.172 Y86.93 E.01704
G1 X117.312 Y81.07 E.26233
G1 X116.773 Y81.07 E.01704
G1 X122.634 Y86.93 E.26233
G1 X122.095 Y86.93 E.01704
G1 X116.235 Y81.07 E.26233
G1 X115.697 Y81.07 E.01704
G1 X121.557 Y86.93 E.26233
G1 X121.018 Y86.93 E.01704
G1 X115.158 Y81.07 E.26233
G1 X114.62 Y81.07 E.01704
G1 X120.48 Y86.93 E.26233
G1 X119.942 Y86.93 E.01704
G1 X114.081 Y81.07 E.26233
G1 X113.543 Y81.07 E.01704
G1 X117.403 Y84.93 E.1728
G1 X116.865 Y84.93 E.01704
G1 X113.005 Y81.07 E.1728
G1 X112.466 Y81.07 E.01704
G1 X116.327 Y84.93 E.1728
G1 X115.788 Y84.93 E.01704
G1 X111.928 Y81.07 E.1728
G1 X111.39 Y81.07 E.01704
G1 X115.25 Y84.93 E.1728
G1 X114.712 Y84.93 E.01704
G1 X110.851 Y81.07 E.1728
G1 X110.313 Y81.07 E.01704
G1 X114.173 Y84.93 E.1728
G1 X113.635 Y84.93 E.01704
G1 X109.977 Y81.272 E.16375
G1 X109.977 Y81.81 E.01704
G1 X113.096 Y84.93 E.13965
G1 X112.558 Y84.93 E.01704
G1 X109.977 Y82.349 E.11555
G1 X109.977 Y82.887 E.01704
G1 X112.02 Y84.93 E.09145
G1 X111.481 Y84.93 E.01704
G1 X109.977 Y83.426 E.06735
G1 X109.977 Y83.964 E.01704
G1 X110.943 Y84.93 E.04325
G1 X110.405 Y84.93 E.01704
G1 X109.807 Y84.333 E.02675
;WIPE_START
G1 F8640
G1 X110.405 Y84.93 E-.19514
G1 X110.943 Y84.93 E-.12431
G1 X109.977 Y83.964 E-.31553
G1 X109.977 Y83.426 E-.12431
G1 X109.979 Y83.428 E-.00072
;WIPE_END
G1 E-.04 F2100
G1 Z.6 F10800
G1 X118.4 Y85.927
G1 Z.2
G1 E.8 F2100
G1 F1200
G1 X119.403 Y86.93 E.04491
G1 X118.865 Y86.93 E.01704
G1 X118.4 Y86.465 E.02081
;WIPE_START
G1 F8640
G1 X118.865 Y86.93 E-.15177
G1 X119.403 Y86.93 E-.12431
G1 X118.4 Y85.927 E-.32757
;WIPE_END
G1 E-.19635 F2100
G1 Z.6 F10800
G1 X138.4 Y91.93
G1 Z.2
G1 E.8 F2100
G1 F1200
G1 X141.43 Y94.959 E.13564
G1 X141.43 Y95.498 E.01704
G1 X138.57 Y92.638 E.12804
G1 X138.57 Y93.176 E.01704
G1 X141.43 Y96.036 E.12804
G1 X141.43 Y96.575 E.01704
G1 X138.57 Y93.714 E.12804
G1 X138.57 Y94.253 E.01704
G1 X141.43 Y97.113 E.12804
G1 X141.43 Y97.651 E.01704
G1 X138.57 Y94.791 E.12804
G1 X138.57 Y95.329 E.01704
G1 X141.43 Y98.19 E.12804
G1 X141.43 Y98.728 E.01704
G1 X138.57 Y95.868 E.12804
G1 X138.57 Y96.406 E.01704
G1 X141.43 Y99.266 E.12804
G1 X141.43 Y99.805 E.01704
G1 X138.57 Y96.945 E.12804
G1 X138.57 Y97.483 E.01704
G1 X141.43 Y100.343 E.12804
G1 X141.43 Y100.881 E.01704
G1 X138.57 Y98.021 E.12804
G1 X138.57 Y98.56 E.01704
G1 X141.43 Y101.42 E.12804
G1 X141.43 Y101.958 E.01704
G1 X138.57 Y99.098 E.12804
G1 X138.57 Y99.636 E.01704
G1 X141.43 Y102.497 E.12804
G1 X141.43 Y103.035 E.01704
G1 X138.57 Y100.175 E.12804
G1 X138.57 Y100.713 E.01704
G1 X141.43 Y103.573 E.12804
G1 X141.43 Y104.112 E.01704
G1 X138.57 Y101.251 E.12804
G1 X138.57 Y101.79 E.01704
G1 X141.43 Y104.65 E.12804
G1 X141.43 Y105.188 E.01704
G1 X138.57 Y102.328 E.12804
G1 X138.57 Y102.866 E.01704
G1 X141.43 Y105.727 E.12804
G1 X141.43 Y106.265 E.01704
G1 X138.57 Y103.405 E.12804
G1 X138.57 Y103.943 E.01704
G1 X141.43 Y106.803 E.12804
G1 X141.43 Y107.342 E.01704
G1 X138.57 Y104.482 E.12804
G1 X138.57 Y105.02 E.01704
G1 X141.43 Y107.88 E.12804
G1 X141.43 Y108.419 E.01704
G1 X138.57 Y105.558 E.12804
G1 X138.57 Y106.097 E.01704
G1 X141.43 Y108.957 E.12804
G1 X141.43 Y109.495 E.01704
G1 X138.57 Y106.635 E.12804
G1 X138.57 Y107.173 E.01704
G1 X141.43 Y110.034 E.12804
G1 X141.43 Y110.572 E.01704
G1 X138.57 Y107.712 E.12804
G1 X138.57 Y108.25 E.01704
G1 X141.43 Y111.11 E.12804
G1 X141.43 Y111.649 E.01704
G1 X138.57 Y108.788 E.12804
G1 X138.57 Y109.327 E.01704
G1 X141.43 Y112.187 E.12804
G1 X141.43 Y112.725 E.01704
G1 X138.57 Y109.865 E.12804
G1 X138.57 Y110.404 E.01704
G1 X141.43 Y113.264 E.12804
G1 X141.43 Y113.802 E.01704
G1 X138.57 Y110.942 E.12804
G1 X138.57 Y111.48 E.01704
G1 X141.43 Y114.341 E.12804
G1 X141.43 Y114.879 E.01704
G1 X138.57 Y112.019 E.12804
G1 X138.57 Y112.557 E.01704
G1 X141.43 Y115.417 E.12804
G1 X141.43 Y115.956 E.01704
G1 X138.57 Y113.095 E.12804
G1 X138.57 Y113.634 E.01704
G1 X141.43 Y116.494 E.12804
G1 X141.43 Y117.032 E.01704
G1 X138.57 Y114.172 E.12804
G1 X138.57 Y114.71 E.01704
G1 X141.43 Y117.571 E.12804
G1 X141.43 Y118.109 E.01704
G1 X138.57 Y115.249 E.12804
G1 X138.57 Y115.787 E.01704
G1 X141.43 Y118.647 E.12804
G1 X141.43 Y119.186 E.01704
G1 X138.57 Y116.326 E.12804
G1 X138.57 Y116.864 E.01704
G1 X141.43 Y119.724 E.12804
G1 X141.43 Y120.263 E.01704
G1 X138.57 Y117.402 E.12804
G1 X138.57 Y117.941 E.01704
G1 X141.43 Y120.801 E.12804
G1 X141.43 Y121.339 E.01704
G1 X138.57 Y118.479 E.12804
G1 X138.57 Y119.017 E.01704
G1 X141.43 Y121.878 E.12804
G1 X141.43 Y122.416 E.01704
G1 X138.57 Y119.556 E.12804
G1 X138.57 Y120.094 E.01704
G1 X141.43 Y122.954 E.12804
G1 X141.43 Y123.493 E.01704
G1 X138.57 Y120.632 E.12804
G1 X138.57 Y121.171 E.01704
G1 X141.43 Y124.031 E.12804
G1 X141.43 Y124.569 E.01704
G1 X138.57 Y121.709 E.12804
G1 X138.57 Y122.248 E.01704
G1 X141.43 Y125.108 E.12804
G1 X141.43 Y125.646 E.01704
G1 X138.57 Y122.786 E.12804
G1 X138.57 Y123.324 E.01704
G1 X141.43 Y126.185 E.12804
G1 X141.43 Y126.723 E.01704
G1 X138.57 Y123.863 E.12804
G1 X138.57 Y124.401 E.01704
G1 X141.43 Y127.261 E.12804
G1 X141.43 Y127.523 E.00829
G1 X141.154 Y127.523 E.00875
G1 X138.57 Y124.939 E.11567
G1 X138.57 Y125.478 E.01704
G1 X140.615 Y127.523 E.09157
G1 X140.077 Y127.523 E.01704
G1 X138.57 Y126.016 E.06747
G1 X138.57 Y126.554 E.01704
G1 X139.539 Y127.523 E.04337
G1 X139 Y127.523 E.01704
G1 X138.4 Y126.923 E.02687
; stop printing object Deckenlampe-Sophia-Halter.stl id:0 copy 0
; printing object Deckenlampe-Sophia-Halter.stl id:1 copy 0
;WIPE_START
G1 F8640
G1 X139 Y127.523 E-.19597
G1 X139.539 Y127.523 E-.12431
G1 X138.57 Y126.554 E-.31636
G1 X138.57 Y126.02 E-.12335
;WIPE_END
G1 E-.04 F2100
G1 Z.6 F10800
G1 X140.767 Y68.198
G1 Z.2
G1 E.8 F2100
;TYPE:Perimeter
;WIDTH:0.419999
G1 F1200
G1 X140.721 Y68.012 E.006
G1 X140.533 Y67.806 E.00874
G1 X140.221 Y67.713 E.01019
G1 X132.194 Y67.713 E.2517
G1 X132.194 Y63.287 E.13877
G1 X163.93 Y63.287 E.99506
G1 X164.027 Y63.297 E.00305
G1 X164.162 Y63.376 E.0049
G1 X164.213 Y63.57 E.0063
G1 X164.213 Y110.306 E1.46537
G1 X160.787 Y110.306 E.10741
G1 X160.787 Y74.408 E1.12555
G1 X160.741 Y74.184 E.00719
M73 P1 R140
G1 X160.621 Y74.008 E.00665
G1 X156.492 Y69.879 E.18312
G1 X156.316 Y69.759 E.00665
G1 X156.092 Y69.713 E.00719
G1 X140.787 Y69.713 E.47987
G1 X140.781 Y68.256 E.04568
G1 X140.41 Y68.279 F10800
;TYPE:External perimeter
G1 F1200
G1 X140.363 Y68.153 E.00419
G1 X140.221 Y68.09 E.00485
G1 X131.817 Y68.09 E.26352
G1 X131.817 Y62.91 E.16242
G1 X163.93 Y62.91 E1.00688
G1 X164.152 Y62.934 E.007
G1 X164.415 Y63.085 E.00952
G1 X164.537 Y63.277 E.00715
G1 X164.59 Y63.57 E.00932
G1 X164.59 Y110.683 E1.47719
G1 X160.41 Y110.683 E.13106
G1 X160.41 Y74.408 E1.13737
G1 X160.355 Y74.275 E.00452
G1 X156.225 Y70.145 E.18312
G1 X156.092 Y70.09 E.00452
G1 X140.41 Y70.09 E.49169
G1 X140.41 Y68.339 E.05492
G1 X140.452 Y68.152 F10800
;WIPE_START
G1 F8640
G1 X140.363 Y68.153 E-.04411
G1 X140.221 Y68.09 E-.03573
G1 X137.276 Y68.09 E-.68016
;WIPE_END
G1 E-.04 F2100
G1 Z.6 F10800
G1 X164.1 Y64.17
G1 Z.2
G1 E.8 F2100
;TYPE:Solid infill
;WIDTH:0.4236
G1 F1200
G1 X163.5 Y63.57 E.02687
G1 X162.961 Y63.57 E.01704
G1 X163.93 Y64.539 E.04337
G1 X163.93 Y65.077 E.01704
G1 X162.423 Y63.57 E.06747
G1 X161.884 Y63.57 E.01704
G1 X163.93 Y65.616 E.09157
G1 X163.93 Y66.154 E.01704
G1 X161.346 Y63.57 E.11567
G1 X160.808 Y63.57 E.01704
G1 X163.93 Y66.692 E.13977
G1 X163.93 Y67.231 E.01704
G1 X160.269 Y63.57 E.16387
G1 X159.731 Y63.57 E.01704
G1 X163.93 Y67.769 E.18797
G1 X163.93 Y68.307 E.01704
G1 X159.193 Y63.57 E.21207
G1 X158.654 Y63.57 E.01704
G1 X163.93 Y68.846 E.23617
G1 X163.93 Y69.384 E.01704
G1 X158.116 Y63.57 E.26027
G1 X157.578 Y63.57 E.01704
G1 X163.93 Y69.922 E.28437
G1 X163.93 Y70.461 E.01704
G1 X157.039 Y63.57 E.30847
G1 X156.501 Y63.57 E.01704
G1 X163.93 Y70.999 E.33257
G1 X163.93 Y71.537 E.01704
G1 X155.963 Y63.57 E.35667
G1 X155.424 Y63.57 E.01704
G1 X163.93 Y72.076 E.38077
G1 X163.93 Y72.614 E.01704
G1 X154.886 Y63.57 E.40487
G1 X154.347 Y63.57 E.01704
G1 X163.93 Y73.153 E.42897
G1 X163.93 Y73.691 E.01704
G1 X153.809 Y63.57 E.45307
G1 X153.271 Y63.57 E.01704
G1 X163.93 Y74.229 E.47717
G1 X163.93 Y74.768 E.01704
G1 X152.732 Y63.57 E.50127
G1 X152.194 Y63.57 E.01704
G1 X163.93 Y75.306 E.52537
G1 X163.93 Y75.844 E.01704
G1 X151.656 Y63.57 E.54947
G1 X151.117 Y63.57 E.01704
G1 X163.93 Y76.383 E.57357
G1 X163.93 Y76.921 E.01704
G1 X150.579 Y63.57 E.59767
G1 X150.041 Y63.57 E.01704
G1 X155.901 Y69.43 E.26233
G1 X155.362 Y69.43 E.01704
M73 P1 R139
G1 X149.502 Y63.57 E.26233
G1 X148.964 Y63.57 E.01704
G1 X154.824 Y69.43 E.26233
G1 X154.286 Y69.43 E.01704
G1 X148.425 Y63.57 E.26233
G1 X147.887 Y63.57 E.01704
G1 X153.747 Y69.43 E.26233
G1 X153.209 Y69.43 E.01704
G1 X147.349 Y63.57 E.26233
G1 X146.81 Y63.57 E.01704
G1 X152.671 Y69.43 E.26233
G1 X152.132 Y69.43 E.01704
G1 X146.272 Y63.57 E.26233
G1 X145.734 Y63.57 E.01704
G1 X151.594 Y69.43 E.26233
G1 X151.055 Y69.43 E.01704
G1 X145.195 Y63.57 E.26233
G1 X144.657 Y63.57 E.01704
G1 X150.517 Y69.43 E.26233
G1 X149.979 Y69.43 E.01704
G1 X144.119 Y63.57 E.26233
G1 X143.58 Y63.57 E.01704
G1 X149.44 Y69.43 E.26233
G1 X148.902 Y69.43 E.01704
G1 X143.042 Y63.57 E.26233
G1 X142.503 Y63.57 E.01704
G1 X148.364 Y69.43 E.26233
G1 X147.825 Y69.43 E.01704
G1 X141.965 Y63.57 E.26233
G1 X141.427 Y63.57 E.01704
G1 X147.287 Y69.43 E.26233
G1 X146.749 Y69.43 E.01704
G1 X140.888 Y63.57 E.26233
G1 X140.35 Y63.57 E.01704
G1 X146.21 Y69.43 E.26233
G1 X145.672 Y69.43 E.01704
G1 X139.812 Y63.57 E.26233
G1 X139.273 Y63.57 E.01704
G1 X145.134 Y69.43 E.26233
G1 X144.595 Y69.43 E.01704
G1 X138.735 Y63.57 E.26233
G1 X138.197 Y63.57 E.01704
G1 X144.057 Y69.43 E.26233
G1 X143.518 Y69.43 E.01704
G1 X137.658 Y63.57 E.26233
G1 X137.12 Y63.57 E.01704
G1 X142.98 Y69.43 E.26233
G1 X142.442 Y69.43 E.01704
G1 X136.581 Y63.57 E.26233
G1 X136.043 Y63.57 E.01704
G1 X139.903 Y67.43 E.1728
G1 X139.365 Y67.43 E.01704
G1 X135.505 Y63.57 E.1728
G1 X134.966 Y63.57 E.01704
G1 X138.827 Y67.43 E.1728
G1 X138.288 Y67.43 E.01704
G1 X134.428 Y63.57 E.1728
G1 X133.89 Y63.57 E.01704
G1 X137.75 Y67.43 E.1728
G1 X137.212 Y67.43 E.01704
