; generated by PrusaSlicer 2.4.0+win64 on 2022-02-27 at 09:16:54 UTC

; 

; external perimeters extrusion width = 0.45mm
; perimeters extrusion width = 0.45mm
; infill extrusion width = 0.45mm
; solid infill extrusion width = 0.45mm
; top infill extrusion width = 0.40mm
; first layer extrusion width = 0.42mm

; external perimeters extrusion width = 0.45mm
; perimeters extrusion width = 0.45mm
; infill extrusion width = 0.45mm
; solid infill extrusion width = 0.45mm
; top infill extrusion width = 0.40mm
; first layer extrusion width = 0.42mm

; external perimeters extrusion width = 0.45mm
; perimeters extrusion width = 0.45mm
; infill extrusion width = 0.45mm
; solid infill extrusion width = 0.45mm
; top infill extrusion width = 0.40mm
; first layer extrusion width = 0.42mm

; external perimeters extrusion width = 0.45mm
; perimeters extrusion width = 0.45mm
; infill extrusion width = 0.45mm
; solid infill extrusion width = 0.45mm
; top infill extrusion width = 0.40mm
; first layer extrusion width = 0.42mm

; external perimeters extrusion width = 0.45mm
; perimeters extrusion width = 0.45mm
; infill extrusion width = 0.45mm
; solid infill extrusion width = 0.45mm
; top infill extrusion width = 0.40mm
; first layer extrusion width = 0.42mm

; external perimeters extrusion width = 0.45mm
; perimeters extrusion width = 0.45mm
; infill extrusion width = 0.45mm
; solid infill extrusion width = 0.45mm
; top infill extrusion width = 0.40mm
; first layer extrusion width = 0.42mm

M73 P0 R227
M201 X9000 Y9000 Z500 E10000 ; sets maximum accelerations, mm/sec^2
M203 X500 Y500 Z12 E120 ; sets maximum feedrates, mm/sec
M204 P2000 R1500 T2000 ; sets acceleration (P, T) and retract acceleration (R), mm/sec^2
M205 X10.00 Y10.00 Z0.20 E2.50 ; sets the jerk limits, mm/sec
M205 S0 T0 ; sets the minimum extruding and travel feed rate, mm/sec
M107
;TYPE:Custom
M862.3 P "MK2S" ; printer model check
M862.1 P0.4 ; nozzle diameter check
M115 U3.2.3 ; tell printer latest fw version
G90 ; use absolute coordinates
M83 ; extruder relative mode
M204 S2000 T1500 ; MK2 firmware only supports the old M204 format
M104 S215 ; set extruder temp
M140 S60 ; set bed temp
M190 S60 ; wait for bed temp
M109 S215 ; wait for extruder temp
G28 W ; home all without mesh bed level
G80 ; mesh bed leveling
G1 Y-3.0 F1000.0 ; go outside print area
G92 E0.0
G1 X60.0 E9.0  F1000.0 ; intro line
G1 X100.0 E12.5 F1000.0 ; intro line
G92 E0.0
G21 ; set units to millimeters
G90 ; use absolute coordinates
M83 ; use relative distances for extrusion
M900 K0.05 ; Filament gcode LA 1.5
M900 K30 ; Filament gcode LA 1.0
M107
;LAYER_CHANGE
;Z:0.2
;HEIGHT:0.2
;BEFORE_LAYER_CHANGE
G92 E0.0
;0.2


G1 E-.8 F2100
M73 P0 R226
G1 Z.4 F10800
;AFTER_LAYER_CHANGE
;0.2
G1 X46.198 Y44.117
G1 Z.2
G1 E.8 F2100
M204 S1000
;TYPE:Skirt/Brim
;WIDTH:0.42
G1 F1200
G1 X47.268 Y43.27 E.04278
G1 X48.146 Y43.102 E.02804
G1 X99.838 Y43.102 E1.62075
G1 X172.501 Y43.888 E2.27844
G1 X173.803 Y44.293 E.04278
G1 X174.826 Y45.916 E.06014
G1 X181.419 Y90.379 E1.40935
G1 X181.445 Y92.728 E.07364
G1 X180.875 Y147.414 E1.71473
G1 X180.04 Y170.475 E.72354
G1 X179.346 Y172.07 E.05454
G1 X174.346 Y177.07 E.22171
G1 X172.665 Y177.766 E.05704
G1 X132.548 Y177.763 E1.25784
G1 X51.181 Y173.75 E2.55428
G1 X49.618 Y173.056 E.05363
G1 X44.618 Y168.056 E.22171
G1 X43.923 Y166.462 E.05454
G1 X43.09 Y143.462 E.72162
G1 X43.089 Y141.376 E.06541
G1 X45.77 Y45.413 E3.01001
G1 X46.179 Y44.174 E.0409
; printing object Kabelklammer.stl id:5 copy 0
;WIPE_START
G1 F8640
G1 X47.268 Y43.27 E-.32671
G1 X48.146 Y43.102 E-.20651
G1 X49.128 Y43.102 E-.22678
;WIPE_END
G1 E-.04 F2100
G1 Z.6 F10800
G1 X128.685 Y146.176
G1 Z.2
G1 E.8 F2100
;TYPE:Perimeter
G1 F1200
G1 X177.044 Y146.176 E1.51626
G1 X177.044 Y146.602 E.01335
G1 X176.878 Y146.602 E.00522
G1 X176.878 Y170.063 E.73561
G1 X172.339 Y174.602 E.20126
G1 X157.99 Y174.602 E.44988
G1 X154.534 Y171.155 E.15306
G1 X154.139 Y170.815 E.01634
G1 X153.538 Y170.386 E.02316
G1 X154.03 Y170.034 E.01897
G1 X158.167 Y174.176 E.18354
G1 X172.162 Y174.176 E.43882
G1 X176.452 Y169.887 E.1902
G1 X176.452 Y146.602 E.73007
G1 X128.878 Y146.602 E1.49165
G1 X128.878 Y169.887 E.73007
G1 X133.167 Y174.176 E.1902
G1 X147.162 Y174.176 E.43881
G1 X151.278 Y170.06 E.1825
G1 X151.531 Y170.262 E.01016
G1 X151.63 Y170.32 E.00358
G1 X147.339 Y174.602 E.19008
G1 X132.991 Y174.602 E.44987
G1 X128.452 Y170.063 E.20126
G1 X128.452 Y146.602 E.73561
G1 X128.285 Y146.602 E.00522
G1 X128.285 Y146.176 E.01335
G1 X128.625 Y146.176 E.01066
G1 X127.908 Y145.799 F10800
;TYPE:External perimeter
G1 F1200
G1 X177.421 Y145.799 E1.55245
G1 X177.421 Y146.979 E.037
G1 X177.255 Y146.979 E.00522
G1 X177.255 Y170.219 E.72868
G1 X172.495 Y174.979 E.21106
G1 X157.834 Y174.979 E.45967
G1 X154.277 Y171.432 E.15751
G1 X153.906 Y171.112 E.01536
G1 X153.153 Y170.575 E.02899
G1 X153.023 Y170.37 E.00762
G1 X153.165 Y170.189 E.00723
G1 X154.062 Y169.533 E.03484
G1 X158.323 Y173.799 E.18907
G1 X172.006 Y173.799 E.42902
G1 X176.075 Y169.73 E.18041
G1 X176.075 Y146.979 E.71335
G1 X129.255 Y146.979 E1.46801
G1 X129.255 Y169.73 E.71335
G1 X133.323 Y173.799 E.18041
G1 X147.006 Y173.799 E.42901
G1 X151.257 Y169.548 E.18848
G1 X151.744 Y169.95 E.01982
G1 X152.171 Y170.197 E.01545
G1 X152.238 Y170.282 E.00339
G1 X151.71 Y170.765 E.02242
G1 X147.495 Y174.979 E.18689
G1 X132.835 Y174.979 E.45967
G1 X128.075 Y170.219 E.21106
G1 X128.075 Y146.979 E.72868
G1 X127.908 Y146.979 E.00522
G1 X127.908 Y145.859 E.03512
G1 X128.264 Y145.983 F10800
;WIPE_START
G1 F8640
G1 X131.2 Y145.855 E-.76
;WIPE_END
G1 E-.04 F2100
G1 Z.6 F10800
G1 X153.937 Y170.332
G1 Z.2
G1 E.8 F2100
;TYPE:Gap fill
;WIDTH:0.203921
G1 F1200
G1 X154.111 Y170.479 E.00304
;WIDTH:0.173039
G1 X154.284 Y170.626 E.00246
;WIDTH:0.142158
G1 X154.288 Y170.629 E.00004
;WIDTH:0.141612
G1 X154.681 Y170.994 E.00441
;WIDTH:0.101159
G1 X154.683 Y170.996 E.00001
;WIDTH:0.101076
G1 X157.585 Y173.896 E.01984
; stop printing object Kabelklammer.stl id:5 copy 0
; printing object Kabelklammer.stl id:2 copy 0
;WIPE_START
G1 F8640
G1 X155.257 Y171.569 E-.76
;WIPE_END
G1 E-.04 F2100
G1 Z.6 F10800
G1 X158.981 Y119.515
G1 Z.2
G1 E.8 F2100
;TYPE:Perimeter
;WIDTH:0.42
G1 F1200
M73 P0 R225
G1 X172.732 Y119.515 E.43117
G1 X177.022 Y115.225 E.1902
G1 X177.022 Y91.941 E.73007
G1 X129.448 Y91.941 E1.49165
G1 X129.448 Y115.225 E.73007
G1 X133.737 Y119.515 E.1902
G1 X147.732 Y119.515 E.43881
G1 X151.848 Y115.399 E.1825
G1 X152.101 Y115.601 E.01016
G1 X152.2 Y115.658 E.00358
G1 X147.909 Y119.941 E.19008
G1 X133.561 Y119.941 E.44987
G1 X129.022 Y115.402 E.20126
G1 X129.022 Y91.941 E.73561
G1 X128.855 Y91.941 E.00522
G1 X128.855 Y91.515 E.01335
G1 X177.614 Y91.515 E1.5288
G1 X177.614 Y91.941 E.01335
G1 X177.448 Y91.941 E.00522
G1 X177.448 Y115.402 E.73561
G1 X172.909 Y119.941 E.20126
G1 X158.56 Y119.941 E.44988
G1 X155.104 Y116.494 E.15306
G1 X154.709 Y116.154 E.01634
G1 X154.108 Y115.725 E.02316
G1 X154.6 Y115.373 E.01897
G1 X158.737 Y119.515 E.18354
G1 X158.921 Y119.515 E.00576
G1 X158.893 Y119.138 F10800
;TYPE:External perimeter
G1 F1200
G1 X172.576 Y119.138 E.42902
G1 X176.645 Y115.069 E.18041
G1 X176.645 Y92.318 E.71335
G1 X129.825 Y92.318 E1.46801
G1 X129.825 Y115.069 E.71335
G1 X133.893 Y119.138 E.18041
G1 X147.576 Y119.138 E.42901
G1 X151.827 Y114.887 E.18848
G1 X152.314 Y115.289 E.01982
G1 X152.741 Y115.536 E.01545
G1 X152.808 Y115.621 E.00339
G1 X152.28 Y116.103 E.02242
G1 X148.065 Y120.318 E.18689
G1 X133.405 Y120.318 E.45967
G1 X128.645 Y115.558 E.21106
G1 X128.645 Y92.318 E.72868
G1 X128.478 Y92.318 E.00522
G1 X128.478 Y91.138 E.037
G1 X177.991 Y91.138 E1.55245
G1 X177.991 Y92.318 E.037
G1 X177.825 Y92.318 E.00522
G1 X177.825 Y115.558 E.72868
G1 X173.065 Y120.318 E.21106
G1 X158.404 Y120.318 E.45967
G1 X154.847 Y116.77 E.15751
G1 X154.476 Y116.451 E.01536
G1 X153.723 Y115.914 E.02899
G1 X153.592 Y115.709 E.00762
G1 X153.735 Y115.528 E.00723
G1 X154.632 Y114.872 E.03484
G1 X158.851 Y119.095 E.18719
G1 X159.019 Y119.518 F10800
G1 X158.155 Y119.235
;TYPE:Gap fill
;WIDTH:0.101076
G1 F1200
G1 X155.253 Y116.335 E.01984
;WIDTH:0.101159
G1 X155.251 Y116.333 E.00001
;WIDTH:0.141612
G1 X154.858 Y115.968 E.00441
;WIDTH:0.142158
G1 X154.854 Y115.965 E.00004
;WIDTH:0.173039
G1 X154.681 Y115.818 E.00246
;WIDTH:0.203921
G1 X154.507 Y115.671 E.00304
; stop printing object Kabelklammer.stl id:2 copy 0
; printing object Kabelklammer.stl id:4 copy 0
;WIPE_START
G1 F8640
G1 X154.681 Y115.818 E-.05249
;WIPE_END
G1 E-.74751 F2100
G1 Z.6 F10800
G1 X152.388 Y75.052
G1 Z.2
G1 E.8 F2100
;TYPE:Perimeter
;WIDTH:0.42
G1 F1200
G1 X166.14 Y75.052 E.43117
G1 X170.429 Y70.762 E.1902
G1 X170.429 Y47.478 E.73007
G1 X122.855 Y47.478 E1.49165
G1 X122.855 Y70.762 E.73007
G1 X127.145 Y75.052 E.1902
G1 X141.14 Y75.052 E.43881
G1 X145.255 Y70.936 E.1825
G1 X145.508 Y71.138 E.01016
G1 X145.607 Y71.195 E.00358
G1 X141.316 Y75.478 E.19008
G1 X126.968 Y75.478 E.44987
G1 X122.429 Y70.939 E.20126
G1 X122.429 Y47.478 E.73561
G1 X122.263 Y47.478 E.00522
G1 X122.263 Y47.052 E.01335
G1 X171.022 Y47.052 E1.5288
G1 X171.022 Y47.478 E.01335
G1 X170.855 Y47.478 E.00522
G1 X170.855 Y70.939 E.73561
G1 X166.316 Y75.478 E.20126
G1 X151.968 Y75.478 E.44988
G1 X148.511 Y72.03 E.15306
G1 X148.117 Y71.691 E.01634
G1 X147.515 Y71.262 E.02316
G1 X148.007 Y70.91 E.01897
G1 X152.144 Y75.052 E.18354
G1 X152.328 Y75.052 E.00576
G1 X152.301 Y74.675 F10800
;TYPE:External perimeter
G1 F1200
G1 X165.984 Y74.675 E.42902
G1 X170.052 Y70.606 E.18041
G1 X170.052 Y47.855 E.71335
G1 X123.232 Y47.855 E1.46801
G1 X123.232 Y70.606 E.71335
G1 X127.301 Y74.675 E.18041
G1 X140.984 Y74.675 E.42901
G1 X145.234 Y70.424 E.18848
G1 X145.722 Y70.826 E.01982
G1 X146.148 Y71.073 E.01545
G1 X146.215 Y71.158 E.00339
G1 X145.688 Y71.64 E.02242
G1 X141.472 Y75.855 E.18689
G1 X126.812 Y75.855 E.45967
G1 X122.052 Y71.095 E.21106
G1 X122.052 Y47.855 E.72868
G1 X121.886 Y47.855 E.00522
G1 X121.886 Y46.675 E.037
G1 X171.399 Y46.675 E1.55245
G1 X171.399 Y47.855 E.037
G1 X171.232 Y47.855 E.00522
G1 X171.232 Y71.095 E.72868
G1 X166.472 Y75.855 E.21106
G1 X151.812 Y75.855 E.45967
G1 X148.255 Y72.307 E.15751
M73 P0 R224
G1 X147.884 Y71.988 E.01536
G1 X147.131 Y71.451 E.02899
G1 X147 Y71.246 E.00762
G1 X147.142 Y71.064 E.00723
G1 X148.039 Y70.408 E.03484
G1 X152.258 Y74.632 E.18719
G1 X152.427 Y75.054 F10800
G1 X151.562 Y74.771
;TYPE:Gap fill
;WIDTH:0.101076
G1 F1200
G1 X148.66 Y71.872 E.01984
;WIDTH:0.101159
G1 X148.659 Y71.87 E.00001
;WIDTH:0.141612
G1 X148.265 Y71.505 E.00441
;WIDTH:0.142158
G1 X148.262 Y71.502 E.00004
;WIDTH:0.173039
G1 X148.088 Y71.355 E.00246
;WIDTH:0.203921
G1 X147.915 Y71.208 E.00304
; stop printing object Kabelklammer.stl id:4 copy 0
; printing object Kabelklammer.stl id:3 copy 0
;WIPE_START
G1 F8640
G1 X148.088 Y71.355 E-.05249
;WIPE_END
G1 E-.74751 F2100
G1 Z.6 F10800
G1 X79.725 Y74.266
G1 Z.2
G1 E.8 F2100
;TYPE:Perimeter
;WIDTH:0.42
G1 F1200
G1 X93.477 Y74.266 E.43117
G1 X97.766 Y69.977 E.1902
G1 X97.766 Y46.692 E.73007
G1 X50.192 Y46.692 E1.49165
G1 X50.192 Y69.977 E.73007
G1 X54.481 Y74.266 E.1902
G1 X68.477 Y74.266 E.43881
G1 X72.592 Y70.15 E.1825
G1 X72.845 Y70.353 E.01016
G1 X72.944 Y70.41 E.00358
G1 X68.653 Y74.692 E.19008
G1 X54.305 Y74.692 E.44987
G1 X49.766 Y70.153 E.20126
G1 X49.766 Y46.692 E.73561
M73 P1 R224
G1 X49.6 Y46.692 E.00522
G1 X49.6 Y46.266 E.01335
G1 X98.359 Y46.266 E1.5288
G1 X98.359 Y46.692 E.01335
G1 X98.192 Y46.692 E.00522
G1 X98.192 Y70.153 E.73561
G1 X93.653 Y74.692 E.20126
G1 X79.305 Y74.692 E.44988
G1 X75.848 Y71.245 E.15306
G1 X75.453 Y70.905 E.01634
G1 X74.852 Y70.476 E.02316
G1 X75.344 Y70.125 E.01897
G1 X79.481 Y74.266 E.18354
G1 X79.665 Y74.266 E.00576
G1 X79.638 Y73.889 F10800
;TYPE:External perimeter
G1 F1200
G1 X93.32 Y73.889 E.42902
G1 X97.389 Y69.821 E.18041
G1 X97.389 Y47.069 E.71335
G1 X50.569 Y47.069 E1.46801
G1 X50.569 Y69.821 E.71335
G1 X54.638 Y73.889 E.18041
G1 X68.32 Y73.889 E.42901
G1 X72.571 Y69.638 E.18848
G1 X73.059 Y70.041 E.01982
G1 X73.485 Y70.287 E.01545
G1 X73.552 Y70.372 E.00339
G1 X73.025 Y70.855 E.02242
G1 X68.809 Y75.069 E.18689
G1 X54.149 Y75.069 E.45967
G1 X49.389 Y70.31 E.21106
G1 X49.389 Y47.069 E.72868
G1 X49.223 Y47.069 E.00522
G1 X49.223 Y45.889 E.037
G1 X98.736 Y45.889 E1.55245
G1 X98.736 Y47.069 E.037
G1 X98.569 Y47.069 E.00522
G1 X98.569 Y70.31 E.72868
G1 X93.809 Y75.069 E.21106
G1 X79.149 Y75.069 E.45967
G1 X75.592 Y71.522 E.15751
G1 X75.22 Y71.202 E.01536
G1 X74.468 Y70.665 E.02899
G1 X74.337 Y70.461 E.00762
G1 X74.479 Y70.279 E.00723
G1 X75.376 Y69.623 E.03484
G1 X79.595 Y73.847 E.18719
G1 X79.763 Y74.269 F10800
G1 X78.899 Y73.986
;TYPE:Gap fill
;WIDTH:0.101076
G1 F1200
G1 X75.997 Y71.086 E.01984
;WIDTH:0.101159
G1 X75.996 Y71.085 E.00001
;WIDTH:0.141612
G1 X75.602 Y70.719 E.00441
;WIDTH:0.142158
G1 X75.599 Y70.716 E.00004
;WIDTH:0.173039
G1 X75.425 Y70.569 E.00246
;WIDTH:0.203921
G1 X75.252 Y70.423 E.00304
; stop printing object Kabelklammer.stl id:3 copy 0
; printing object Kabelklammer.stl id:1 copy 0
;WIPE_START
G1 F8640
G1 X75.425 Y70.569 E-.05249
;WIPE_END
G1 E-.74751 F2100
G1 Z.6 F10800
G1 X98.309 Y94.354
G1 Z.2
G1 E.8 F2100
;TYPE:Perimeter
;WIDTH:0.42
G1 F1200
G1 X50.757 Y94.354 E1.49094
G1 X50.757 Y117.638 E.73007
G1 X55.047 Y121.928 E.1902
G1 X69.042 Y121.928 E.43881
G1 X73.158 Y117.812 E.1825
G1 X73.411 Y118.014 E.01016
G1 X73.509 Y118.071 E.00358
G1 X69.218 Y122.354 E.19008
G1 X54.87 Y122.354 E.44987
G1 X50.331 Y117.815 E.20126
G1 X50.331 Y94.354 E.73561
G1 X50.165 Y94.354 E.00522
G1 X50.165 Y93.928 E.01335
G1 X98.924 Y93.928 E1.5288
G1 X98.924 Y94.354 E.01335
G1 X98.757 Y94.354 E.00522
G1 X98.757 Y117.815 E.73561
G1 X94.218 Y122.354 E.20126
G1 X79.87 Y122.354 E.44988
G1 X76.414 Y118.907 E.15306
G1 X76.019 Y118.567 E.01634
G1 X75.417 Y118.138 E.02316
G1 X75.91 Y117.786 E.01897
G1 X80.047 Y121.928 E.18354
G1 X94.042 Y121.928 E.43882
G1 X98.331 Y117.638 E.1902
G1 X98.331 Y94.391 E.72891
G1 X97.954 Y94.731 F10800
;TYPE:External perimeter
G1 F1200
G1 X51.134 Y94.731 E1.46801
G1 X51.134 Y117.482 E.71335
G1 X55.203 Y121.551 E.18041
G1 X68.886 Y121.551 E.42901
G1 X73.136 Y117.3 E.18848
G1 X73.624 Y117.702 E.01982
G1 X74.051 Y117.949 E.01545
G1 X74.117 Y118.034 E.00339
G1 X73.59 Y118.516 E.02242
G1 X69.375 Y122.731 E.18689
G1 X54.714 Y122.731 E.45967
G1 X49.954 Y117.971 E.21106
G1 X49.954 Y94.731 E.72868
G1 X49.788 Y94.731 E.00522
G1 X49.788 Y93.551 E.037
G1 X99.301 Y93.551 E1.55245
G1 X99.301 Y94.731 E.037
G1 X99.134 Y94.731 E.00522
G1 X99.134 Y117.971 E.72868
G1 X94.375 Y122.731 E.21106
G1 X79.714 Y122.731 E.45967
G1 X76.157 Y119.183 E.15751
M73 P1 R223
G1 X75.786 Y118.864 E.01536
G1 X75.033 Y118.327 E.02899
G1 X74.902 Y118.122 E.00762
G1 X75.045 Y117.941 E.00723
G1 X75.941 Y117.285 E.03484
G1 X80.203 Y121.551 E.18907
G1 X93.886 Y121.551 E.42902
G1 X97.954 Y117.482 E.18041
G1 X97.954 Y94.791 E.71147
G1 X97.974 Y94.331 F10800
;WIPE_START
G1 F8640
G1 X94.663 Y94.787 E-.76
;WIPE_END
G1 E-.04 F2100
G1 Z.6 F10800
G1 X76.167 Y118.381
G1 Z.2
G1 E.8 F2100
;TYPE:Gap fill
;WIDTH:0.142158
G1 F1200
G1 X76.164 Y118.378 E.00004
;WIDTH:0.173039
G1 X75.99 Y118.231 E.00246
;WIDTH:0.203921
G1 X75.817 Y118.084 E.00304
G1 X76.167 Y118.381 F10800
;WIDTH:0.141612
G1 F1200
G1 X76.561 Y118.746 E.00441
;WIDTH:0.101159
G1 X76.562 Y118.748 E.00001
;WIDTH:0.101076
G1 X79.465 Y121.648 E.01984
; stop printing object Kabelklammer.stl id:1 copy 0
; printing object Kabelklammer.stl id:0 copy 0
;WIPE_START
G1 F8640
G1 X77.136 Y119.321 E-.76
;WIPE_END
G1 E-.04 F2100
G1 Z.6 F10800
G1 X95.063 Y142.588
G1 Z.2
G1 E.8 F2100
;TYPE:Perimeter
;WIDTH:0.42
G1 F1200
G1 X47.511 Y142.588 E1.49094
G1 X47.511 Y165.873 E.73007
G1 X51.801 Y170.163 E.1902
G1 X65.796 Y170.163 E.43881
G1 X69.912 Y166.047 E.1825
G1 X70.165 Y166.249 E.01016
G1 X70.264 Y166.306 E.00358
G1 X65.973 Y170.588 E.19008
G1 X51.625 Y170.588 E.44987
G1 X47.086 Y166.05 E.20126
G1 X47.086 Y142.588 E.73561
G1 X46.919 Y142.588 E.00522
G1 X46.919 Y142.163 E.01335
G1 X95.678 Y142.163 E1.5288
G1 X95.678 Y142.588 E.01335
G1 X95.511 Y142.588 E.00522
G1 X95.511 Y166.05 E.73561
