; generated by PrusaSlicer 2.4.0+win64 on 2022-02-27 at 08:28:00 UTC

; 

; external perimeters extrusion width = 0.45mm
; perimeters extrusion width = 0.45mm
; infill extrusion width = 0.45mm
; solid infill extrusion width = 0.45mm
; top infill extrusion width = 0.40mm
; first layer extrusion width = 0.42mm

M73 P0 R37
M201 X9000 Y9000 Z500 E10000 ; sets maximum accelerations, mm/sec^2
M203 X500 Y500 Z12 E120 ; sets maximum feedrates, mm/sec
M204 P2000 R1500 T2000 ; sets acceleration (P, T) and retract acceleration (R), mm/sec^2
M205 X10.00 Y10.00 Z0.20 E2.50 ; sets the jerk limits, mm/sec
M205 S0 T0 ; sets the minimum extruding and travel feed rate, mm/sec
M107
;TYPE:Custom
M862.3 P "MK2S" ; printer model check
M862.1 P0.4 ; nozzle diameter check
M115 U3.2.3 ; tell printer latest fw version
G90 ; use absolute coordinates
M83 ; extruder relative mode
M204 S2000 T1500 ; MK2 firmware only supports the old M204 format
M104 S215 ; set extruder temp
M140 S60 ; set bed temp
M190 S60 ; wait for bed temp
M109 S215 ; wait for extruder temp
G28 W ; home all without mesh bed level
G80 ; mesh bed leveling
G1 Y-3.0 F1000.0 ; go outside print area
G92 E0.0
G1 X60.0 E9.0  F1000.0 ; intro line
G1 X100.0 E12.5 F1000.0 ; intro line
G92 E0.0
G21 ; set units to millimeters
G90 ; use absolute coordinates
M83 ; use relative distances for extrusion
M900 K0.05 ; Filament gcode LA 1.5
M900 K30 ; Filament gcode LA 1.0
M107
;LAYER_CHANGE
;Z:0.2
;HEIGHT:0.2
;BEFORE_LAYER_CHANGE
G92 E0.0
;0.2


G1 E-.8 F2100
G1 Z.4 F10800
;AFTER_LAYER_CHANGE
;0.2
G1 X97.182 Y88.693
G1 Z.2
G1 E.8 F2100
M204 S1000
;TYPE:Skirt/Brim
;WIDTH:0.42
G1 F1200
G1 X98.227 Y87.817 E.04278
G1 X99.167 Y87.623 E.03008
G1 X150.833 Y87.623 E1.61994
G1 X152.14 Y88.015 E.04278
G1 X153.016 Y89.06 E.04278
G1 X153.21 Y90 E.03008
G1 X153.208 Y92.086 E.06541
G1 X152.376 Y115.086 E.72162
G1 X151.681 Y116.681 E.05454
G1 X146.681 Y121.681 E.22171
G1 X145 Y122.377 E.05704
G1 X105 Y122.377 E1.25417
G1 X103.319 Y121.681 E.05704
G1 X98.319 Y116.681 E.22171
G1 X97.624 Y115.086 E.05454
G1 X96.79 Y92 E.72432
G1 X96.79 Y90 E.06271
G1 X97.164 Y88.75 E.0409
; printing object Kabelklammer.stl id:0 copy 0
;WIPE_START
G1 F8640
G1 X98.227 Y87.817 E-.32671
G1 X99.167 Y87.623 E-.22155
G1 X100.084 Y87.623 E-.21174
;WIPE_END
G1 E-.04 F2100
G1 Z.6 F10800
G1 X101.021 Y90.787
G1 Z.2
G1 E.8 F2100
;TYPE:Perimeter
G1 F1200
G1 X149.379 Y90.787 E1.51626
G1 X149.379 Y91.213 E.01335
G1 X149.213 Y91.213 E.00522
G1 X149.213 Y114.674 E.73561
G1 X144.674 Y119.213 E.20126
G1 X130.326 Y119.213 E.44988
G1 X126.869 Y115.766 E.15306
G1 X126.474 Y115.426 E.01634
G1 X125.873 Y114.997 E.02316
G1 X126.365 Y114.645 E.01897
G1 X130.502 Y118.787 E.18354
G1 X144.498 Y118.787 E.43882
G1 X148.787 Y114.498 E.1902
G1 X148.787 Y91.213 E.73007
G1 X101.213 Y91.213 E1.49165
M73 P1 R37
G1 X101.213 Y114.498 E.73007
G1 X105.502 Y118.787 E.1902
G1 X119.498 Y118.787 E.43881
G1 X123.613 Y114.671 E.1825
G1 X123.866 Y114.873 E.01016
G1 X123.965 Y114.931 E.00358
G1 X119.674 Y119.213 E.19008
G1 X105.326 Y119.213 E.44987
G1 X100.787 Y114.674 E.20126
G1 X100.787 Y91.213 E.73561
G1 X100.621 Y91.213 E.00522
G1 X100.621 Y90.787 E.01335
G1 X100.961 Y90.787 E.01066
G1 X100.243 Y90.41 F10800
;TYPE:External perimeter
G1 F1200
G1 X149.757 Y90.41 E1.55245
G1 X149.757 Y91.59 E.037
G1 X149.59 Y91.59 E.00522
G1 X149.59 Y114.83 E.72868
G1 X144.83 Y119.59 E.21106
G1 X130.17 Y119.59 E.45967
G1 X126.613 Y116.043 E.15751
G1 X126.241 Y115.723 E.01536
G1 X125.488 Y115.186 E.02899
G1 X125.358 Y114.981 E.00762
G1 X125.5 Y114.8 E.00723
G1 X126.397 Y114.144 E.03484
G1 X130.659 Y118.41 E.18907
G1 X144.341 Y118.41 E.42902
G1 X148.41 Y114.341 E.18041
G1 X148.41 Y91.59 E.71335
G1 X101.59 Y91.59 E1.46801
G1 X101.59 Y114.341 E.71335
G1 X105.659 Y118.41 E.18041
G1 X119.341 Y118.41 E.42901
G1 X123.592 Y114.159 E.18848
G1 X124.08 Y114.561 E.01982
G1 X124.506 Y114.808 E.01545
G1 X124.573 Y114.893 E.00339
G1 X124.046 Y115.376 E.02242
G1 X119.83 Y119.59 E.18689
G1 X105.17 Y119.59 E.45967
G1 X100.41 Y114.83 E.21106
G1 X100.41 Y91.59 E.72868
G1 X100.243 Y91.59 E.00522
M73 P2 R36
G1 X100.243 Y90.47 E.03512
G1 X100.599 Y90.594 F10800
;WIPE_START
G1 F8640
G1 X103.535 Y90.466 E-.76
;WIPE_END
G1 E-.04 F2100
G1 Z.6 F10800
G1 X126.273 Y114.943
G1 Z.2
G1 E.8 F2100
;TYPE:Gap fill
;WIDTH:0.203921
G1 F1200
G1 X126.446 Y115.09 E.00304
;WIDTH:0.173039
G1 X126.62 Y115.237 E.00246
;WIDTH:0.142158
G1 X126.623 Y115.24 E.00004
;WIDTH:0.141612
G1 X127.016 Y115.605 E.00441
;WIDTH:0.101159
G1 X127.018 Y115.607 E.00001
;WIDTH:0.101076
G1 X129.92 Y118.507 E.01984
; stop printing object Kabelklammer.stl id:0 copy 0
M106 S255
;LAYER_CHANGE
;Z:0.4
;HEIGHT:0.2
;BEFORE_LAYER_CHANGE
G92 E0.0
;0.4


;WIPE_START
G1 F8640
G1 X127.592 Y116.18 E-.76
;WIPE_END
G1 E-.04 F2100
G1 Z.6 F10800
;AFTER_LAYER_CHANGE
;0.4
M104 S210 ; set temperature
G1 X127.592 Y122.377
G1 Z.4
G1 E.8 F2100
;TYPE:Skirt/Brim
;WIDTH:0.42
G1 F3000
G1 X105 Y122.377 E.70835
G1 X103.319 Y121.681 E.05704
G1 X98.319 Y116.681 E.22171
G1 X97.624 Y115.086 E.05454
G1 X96.79 Y92 E.72432
G1 X96.79 Y90 E.06271
G1 X97.182 Y88.693 E.04278
G1 X98.227 Y87.817 E.04278
G1 X99.167 Y87.623 E.03008
G1 X150.833 Y87.623 E1.61994
G1 X152.14 Y88.015 E.04278
G1 X153.016 Y89.06 E.04278
G1 X153.21 Y90 E.03008
G1 X153.208 Y92.086 E.06541
G1 X152.376 Y115.086 E.72162
G1 X151.681 Y116.681 E.05454
G1 X146.681 Y121.681 E.22171
G1 X145 Y122.377 E.05704
G1 X127.652 Y122.377 E.54394
; printing object Kabelklammer.stl id:0 copy 0
;WIPE_START
G1 F8640
G1 X124.36 Y122.377 E-.76
;WIPE_END
G1 E-.04 F2100
G1 Z.8 F10800
G1 X149.375 Y91.368
G1 Z.4
G1 E.8 F2100
M204 S800
;TYPE:Perimeter
;WIDTH:0.45
G1 F3000
G1 X149.368 Y114.738 E.79106
G1 X144.738 Y119.368 E.22162
G1 X130.262 Y119.368 E.49001
G1 X125.894 Y115 E.20909
G1 X126.414 Y114.48 E.02491
G1 X130.567 Y118.632 E.19877
G1 X144.433 Y118.632 E.46937
G1 X148.632 Y114.433 E.20099
G1 X148.632 Y91.368 E.78074
G1 X101.368 Y91.368 E1.59984
G1 X101.368 Y114.433 E.78074
G1 X105.567 Y118.632 E.20099
G1 X119.433 Y118.632 E.46937
G1 X123.586 Y114.48 E.19877
G1 X124.106 Y115 E.02491
G1 X119.738 Y119.368 E.20909
G1 X105.262 Y119.368 E.49001
G1 X100.632 Y114.738 E.22162
G1 X100.632 Y91.368 E.79106
G1 X100.132 Y91.368 E.01691
G1 X100.132 Y90.632 E.02491
G1 X149.868 Y90.632 E1.68348
G1 X149.868 Y91.368 E.02491
G1 X149.435 Y91.368 E.01464
M204 S1000
G1 X149.775 Y91.775 F10800
M204 S800
;TYPE:External perimeter
G1 F2400
G1 X149.775 Y114.907 E.78298
G1 X144.907 Y119.775 E.23304
G1 X130.093 Y119.775 E.50142
G1 X125.318 Y115 E.22858
G1 X126.414 Y113.904 E.05247
G1 X130.735 Y118.225 E.20684
G1 X144.265 Y118.225 E.45796
G1 X148.225 Y114.265 E.18957
G1 X148.225 Y91.775 E.76125
G1 X101.775 Y91.775 E1.57228
G1 X101.775 Y114.265 E.76125
G1 X105.735 Y118.225 E.18957
G1 X119.265 Y118.225 E.45796
G1 X123.586 Y113.904 E.20684
G1 X124.682 Y115 E.05247
G1 X119.907 Y119.775 E.22858
G1 X105.093 Y119.775 E.50142
G1 X100.225 Y114.907 E.23304
G1 X100.225 Y91.775 E.78298
G1 X99.725 Y91.775 E.01691
G1 X99.725 Y90.225 E.05247
G1 X150.275 Y90.225 E1.71104
G1 X150.275 Y91.775 E.05247
G1 X149.835 Y91.775 E.01488
M204 S1000
G1 X149.41 Y91.938 F10800
;WIPE_START
G1 F8640
G1 X149.826 Y95.066 E-.76
;WIPE_END
G1 E-.04 F2100
G1 Z.8 F10800
G1 X149 Y91.164
G1 Z.4
G1 E.8 F2100
;TYPE:Gap fill
;WIDTH:0.41278
G1 F2400
G1 X149 Y91.103 E.0019
G1 X149 Y91.041 E.0019
G1 X148.836 Y91 E.00521
;WIDTH:0.371684
G1 X101.164 Y91 E1.30318
;WIDTH:0.412779
G1 X101.082 Y91.021 E.00261
;WIDTH:0.41278
M73 P3 R36
G1 X101 Y91.041 E.00261
G1 X101 Y91.164 E.00379
;WIDTH:0.371684
G1 X101 Y114.518 E.63841
;WIDTH:0.38469
G1 X101.007 Y114.583 E.00187
;WIDTH:0.384692
G1 X101.048 Y114.634 E.00187
;WIDTH:0.371683
G1 X105.366 Y118.952 E.16693
;WIDTH:0.384691
G1 X105.417 Y118.993 E.00187
;WIDTH:0.384692
G1 X105.482 Y119 E.00187
;WIDTH:0.371684
G1 X119.518 Y119 E.38368
;WIDTH:0.384692
G1 X119.583 Y118.993 E.00187
;WIDTH:0.384691
G1 X119.634 Y118.952 E.00187
;WIDTH:0.371685
G1 X123.702 Y114.884 E.15727
;WIPE_START
G1 F8640
G1 X121.375 Y117.211 E-.76
;WIPE_END
G1 E-.04 F2100
G1 Z.8 F10800
G1 X126.298 Y114.884
G1 Z.4
G1 E.8 F2100
G1 F2400
G1 X130.366 Y118.952 E.15727
;WIDTH:0.384692
G1 X130.417 Y118.993 E.00187
;WIDTH:0.384692
G1 X130.482 Y119 E.00187
;WIDTH:0.371684
G1 X144.518 Y119 E.38368
;WIDTH:0.38469
G1 X144.583 Y118.993 E.00187
;WIDTH:0.384692
G1 X144.634 Y118.952 E.00187
;WIDTH:0.371683
G1 X148.952 Y114.634 E.16693
;WIDTH:0.384691
G1 X148.993 Y114.583 E.00187
;WIDTH:0.384692
G1 X149 Y114.518 E.00187
;WIDTH:0.371684
G1 X149 Y91.164 E.63841
; stop printing object Kabelklammer.stl id:0 copy 0
;LAYER_CHANGE
;Z:0.6
;HEIGHT:0.2
;BEFORE_LAYER_CHANGE
G92 E0.0
;0.6


;WIPE_START
G1 F8640
G1 X149 Y94.456 E-.76
;WIPE_END
G1 E-.04 F2100
G1 Z.8 F10800
;AFTER_LAYER_CHANGE
;0.6
G1 X153.117 Y94.605
G1 Z.6
G1 E.8 F2100
;TYPE:Skirt/Brim
;WIDTH:0.42
G1 F3000
G1 X152.376 Y115.086 E.64259
G1 X151.681 Y116.681 E.05454
G1 X146.681 Y121.681 E.22171
G1 X145 Y122.377 E.05704
G1 X105 Y122.377 E1.25417
G1 X103.319 Y121.681 E.05704
G1 X98.319 Y116.681 E.22171
G1 X97.624 Y115.086 E.05454
G1 X96.79 Y92 E.72432
G1 X96.79 Y90 E.06271
G1 X97.182 Y88.693 E.04278
G1 X98.227 Y87.817 E.04278
G1 X99.167 Y87.623 E.03008
G1 X150.833 Y87.623 E1.61994
G1 X152.14 Y88.015 E.04278
G1 X153.016 Y89.06 E.04278
G1 X153.21 Y90 E.03008
G1 X153.208 Y92.086 E.06541
G1 X153.119 Y94.545 E.07715
; printing object Kabelklammer.stl id:0 copy 0
;WIPE_START
G1 F8640
G1 X153 Y97.834 E-.76
;WIPE_END
G1 E-.04 F2100
G1 Z1 F10800
G1 X149.375 Y91.368
G1 Z.6
G1 E.8 F2100
M204 S800
;TYPE:Perimeter
;WIDTH:0.45
G1 F3000
G1 X149.368 Y114.738 E.79106
G1 X144.738 Y119.368 E.22162
G1 X130.262 Y119.368 E.49001
G1 X125.894 Y115 E.20909
G1 X126.414 Y114.48 E.02491
G1 X130.567 Y118.632 E.19877
G1 X144.433 Y118.632 E.46937
G1 X148.632 Y114.433 E.20099
G1 X148.632 Y91.368 E.78074
G1 X101.368 Y91.368 E1.59984
G1 X101.368 Y114.433 E.78074
G1 X105.567 Y118.632 E.20099
G1 X119.433 Y118.632 E.46937
G1 X123.586 Y114.48 E.19877
G1 X124.106 Y115 E.02491
G1 X119.738 Y119.368 E.20909
G1 X105.262 Y119.368 E.49001
G1 X100.632 Y114.738 E.22162
G1 X100.632 Y91.368 E.79106
G1 X99.799 Y91.368 E.02819
G1 X99.799 Y90.632 E.02491
G1 X150.201 Y90.632 E1.70603
G1 X150.201 Y91.368 E.02491
G1 X149.435 Y91.368 E.02592
M204 S1000
G1 X149.775 Y91.775 F10800
M204 S800
;TYPE:External perimeter
G1 F2400
G1 X149.775 Y114.907 E.78298
G1 X144.907 Y119.775 E.23304
G1 X130.093 Y119.775 E.50142
G1 X125.318 Y115 E.22858
G1 X126.414 Y113.904 E.05247
G1 X130.735 Y118.225 E.20684
G1 X144.265 Y118.225 E.45796
G1 X148.225 Y114.265 E.18957
G1 X148.225 Y91.775 E.76125
G1 X101.775 Y91.775 E1.57228
G1 X101.775 Y114.265 E.76125
G1 X105.735 Y118.225 E.18957
G1 X119.265 Y118.225 E.45796
G1 X123.586 Y113.904 E.20684
G1 X124.682 Y115 E.05247
G1 X119.907 Y119.775 E.22858
G1 X105.093 Y119.775 E.50142
G1 X100.225 Y114.907 E.23304
G1 X100.225 Y91.775 E.78298
G1 X99.392 Y91.775 E.02819
G1 X99.392 Y90.225 E.05247
G1 X150.608 Y90.225 E1.73359
G1 X150.608 Y91.775 E.05247
G1 X149.835 Y91.775 E.02616
M204 S1000
G1 X149.401 Y91.916 F10800
G1 X149.997 Y91
;TYPE:Gap fill
;WIDTH:0.371684
G1 F2400
G1 X149.164 Y91 E.02277
;WIDTH:0.412779
G1 X149 Y91.041 E.00521
;WIDTH:0.453876
G1 X149 Y91.103 E.00211
;WIDTH:0.41278
G1 X149 Y91.164 E.0019
;WIDTH:0.371684
G1 X149 Y114.518 E.63841
;WIDTH:0.384692
G1 X148.993 Y114.583 E.00187
;WIDTH:0.384691
M73 P4 R36
G1 X148.952 Y114.634 E.00187
;WIDTH:0.371683
G1 X144.634 Y118.952 E.16693
;WIDTH:0.384692
G1 X144.583 Y118.993 E.00187
;WIDTH:0.38469
G1 X144.518 Y119 E.00187
;WIDTH:0.371684
G1 X130.482 Y119 E.38368
;WIDTH:0.384692
G1 X130.417 Y118.993 E.00187
;WIDTH:0.384692
G1 X130.366 Y118.952 E.00187
;WIDTH:0.371685
G1 X126.298 Y114.884 E.15727
;WIPE_START
G1 F8640
G1 X128.625 Y117.211 E-.76
;WIPE_END
G1 E-.04 F2100
G1 Z1 F10800
G1 X123.702 Y114.884
G1 Z.6
G1 E.8 F2100
G1 F2400
G1 X119.634 Y118.952 E.15727
;WIDTH:0.384691
G1 X119.583 Y118.993 E.00187
;WIDTH:0.384692
G1 X119.518 Y119 E.00187
;WIDTH:0.371684
G1 X105.482 Y119 E.38368
;WIDTH:0.384692
G1 X105.417 Y118.993 E.00187
;WIDTH:0.384691
G1 X105.366 Y118.952 E.00187
;WIDTH:0.371683
G1 X101.048 Y114.634 E.16693
;WIDTH:0.384692
G1 X101.007 Y114.583 E.00187
;WIDTH:0.38469
G1 X101 Y114.518 E.00187
;WIDTH:0.371684
G1 X101 Y91.164 E.63841
;WIDTH:0.41278
G1 X101 Y91.103 E.0019
;WIDTH:0.453876
G1 X101 Y91.041 E.00211
G1 X100.003 Y91 F10800
;WIDTH:0.371684
G1 F2400
G1 X100.836 Y91 E.02277
;WIDTH:0.41278
G1 X100.918 Y91.021 E.00261
;WIDTH:0.453876
G1 X101 Y91.041 E.00289
;WIDTH:0.412779
G1 X101.164 Y91 E.00521
;WIDTH:0.371684
G1 X148.836 Y91 E1.30318
;WIDTH:0.41278
G1 X148.918 Y91.021 E.00261
;WIDTH:0.453876
G1 X149 Y91.041 E.00289
; stop printing object Kabelklammer.stl id:0 copy 0
;LAYER_CHANGE
;Z:0.8
;HEIGHT:0.2
;BEFORE_LAYER_CHANGE
G92 E0.0
;0.8


;WIPE_START
G1 F8640
G1 X148.918 Y91.021 E-.01956
;WIPE_END
G1 E-.78044 F2100
G1 Z1 F10800
;AFTER_LAYER_CHANGE
;0.8
; printing object Kabelklammer.stl id:0 copy 0
G1 X149.375 Y91.368
G1 Z.8
G1 E.8 F2100
M204 S800
;TYPE:Perimeter
;WIDTH:0.45
G1 F3000
G1 X149.368 Y114.738 E.79106
G1 X144.738 Y119.368 E.22162
G1 X130.262 Y119.368 E.49001
G1 X125.894 Y115 E.20909
G1 X126.414 Y114.48 E.02491
G1 X130.567 Y118.632 E.19877
G1 X144.433 Y118.632 E.46937
G1 X148.632 Y114.433 E.20099
G1 X148.632 Y91.368 E.78074
G1 X101.368 Y91.368 E1.59984
G1 X101.368 Y114.433 E.78074
G1 X105.567 Y118.632 E.20099
G1 X119.433 Y118.632 E.46937
G1 X123.586 Y114.48 E.19877
G1 X124.106 Y115 E.02491
G1 X119.738 Y119.368 E.20909
G1 X105.262 Y119.368 E.49001
G1 X100.632 Y114.738 E.22162
G1 X100.632 Y91.368 E.79106
G1 X99.466 Y91.368 E.03947
G1 X99.466 Y90.632 E.02491
G1 X150.534 Y90.632 E1.72858
G1 X150.534 Y91.368 E.02491
G1 X149.435 Y91.368 E.0372
M204 S1000
G1 X149.775 Y91.775 F10800
M204 S800
;TYPE:External perimeter
G1 F2400
G1 X149.775 Y114.907 E.78298
G1 X144.907 Y119.775 E.23304
G1 X130.093 Y119.775 E.50142
G1 X125.318 Y115 E.22858
G1 X126.414 Y113.904 E.05247
G1 X130.735 Y118.225 E.20684
G1 X144.265 Y118.225 E.45796
G1 X148.225 Y114.265 E.18957
G1 X148.225 Y91.775 E.76125
G1 X101.775 Y91.775 E1.57228
G1 X101.775 Y114.265 E.76125
M73 P4 R35
G1 X105.735 Y118.225 E.18957
G1 X119.265 Y118.225 E.45796
G1 X123.586 Y113.904 E.20684
G1 X124.682 Y115 E.05247
G1 X119.907 Y119.775 E.22858
G1 X105.093 Y119.775 E.50142
G1 X100.225 Y114.907 E.23304
G1 X100.225 Y91.775 E.78298
G1 X99.059 Y91.775 E.03947
G1 X99.059 Y90.225 E.05247
G1 X150.941 Y90.225 E1.75614
G1 X150.941 Y91.775 E.05247
G1 X149.835 Y91.775 E.03744
M204 S1000
G1 X149.394 Y91.896 F10800
G1 X150.33 Y91
;TYPE:Gap fill
;WIDTH:0.371684
G1 F2400
G1 X149.164 Y91 E.03187
;WIDTH:0.412779
G1 X149 Y91.041 E.00521
;WIDTH:0.453876
G1 X149 Y91.103 E.00211
;WIDTH:0.41278
G1 X149 Y91.164 E.0019
;WIDTH:0.371684
G1 X149 Y114.518 E.63841
;WIDTH:0.384692
G1 X148.993 Y114.583 E.00187
;WIDTH:0.384691
G1 X148.952 Y114.634 E.00187
;WIDTH:0.371683
G1 X144.634 Y118.952 E.16693
;WIDTH:0.384692
G1 X144.583 Y118.993 E.00187
;WIDTH:0.38469
G1 X144.518 Y119 E.00187
;WIDTH:0.371684
G1 X130.482 Y119 E.38368
;WIDTH:0.384692
G1 X130.417 Y118.993 E.00187
;WIDTH:0.384692
G1 X130.366 Y118.952 E.00187
;WIDTH:0.371685
G1 X126.298 Y114.884 E.15727
;WIPE_START
G1 F8640
G1 X128.625 Y117.211 E-.76
;WIPE_END
G1 E-.04 F2100
G1 Z1.2 F10800
G1 X123.702 Y114.884
G1 Z.8
G1 E.8 F2100
G1 F2400
G1 X119.634 Y118.952 E.15727
;WIDTH:0.384691
G1 X119.583 Y118.993 E.00187
;WIDTH:0.384692
G1 X119.518 Y119 E.00187
;WIDTH:0.371684
G1 X105.482 Y119 E.38368
;WIDTH:0.384692
G1 X105.417 Y118.993 E.00187
;WIDTH:0.384691
G1 X105.366 Y118.952 E.00187
;WIDTH:0.371683
G1 X101.048 Y114.634 E.16693
;WIDTH:0.384692
G1 X101.007 Y114.583 E.00187
;WIDTH:0.38469
G1 X101 Y114.518 E.00187
;WIDTH:0.371684
G1 X101 Y91.164 E.63841
;WIDTH:0.41278
G1 X101 Y91.103 E.0019
;WIDTH:0.453876
G1 X101 Y91.041 E.00211
;WIPE_START
G1 F8640
G1 X101 Y91.103 E-.01423
;WIPE_END
G1 E-.78577 F2100
G1 Z1.2 F10800
G1 X99.67 Y91
M73 P5 R35
G1 Z.8
G1 E.8 F2100
;WIDTH:0.371684
G1 F2400
G1 X100.836 Y91 E.03187
;WIDTH:0.41278
G1 X100.918 Y91.021 E.00261
;WIDTH:0.453876
G1 X101 Y91.041 E.00289
