; generated by Slic3r 1.33.8-prusa3d-win64 on 2017-04-09 at 11:11:00

; external perimeters extrusion width = 0.45mm
; perimeters extrusion width = 0.45mm
; infill extrusion width = 0.45mm
; solid infill extrusion width = 0.45mm
; top infill extrusion width = 0.40mm

M107
M115 U3.0.10 ; tell printer latest fw version
M83  ; extruder relative mode
M104 S215 ; set extruder temp
M140 S55 ; set bed temp
M190 S55 ; wait for bed temp
M109 S215 ; wait for extruder temp
G28 W ; home all without mesh bed level
G80 ; mesh bed leveling
G1 Y-3.0 F1000.0 ; go outside pritn area
G1 X60.0 E9.0  F1000.0 ; intro line
G1 X100.0 E12.5  F1000.0 ; intro line
G21 ; set units to millimeters
G90 ; use absolute coordinates
M83 ; use relative distances for extrusion
G1 E-0.80000 F2100.00000
G1 Z0.200 F7200.000
G1 X99.631 Y81.802 F7200.000
G1 E0.80000 F2100.00000
M204 S1000
G1 F2100
G1 X99.706 Y81.379 E0.01348
G1 X99.857 Y80.972 E0.01360
G1 X100.079 Y80.600 E0.01360
G1 X100.365 Y80.274 E0.01360
G1 X100.703 Y80.008 E0.01348
G1 X101.086 Y79.806 E0.01360
G1 X101.496 Y79.677 E0.01348
G1 X101.927 Y79.624 E0.01360
G1 X148.030 Y79.623 E1.44556
G1 X148.473 Y79.670 E0.01395
G1 X148.899 Y79.799 E0.01395
G1 X149.293 Y80.006 E0.01395
G1 X149.642 Y80.281 E0.01395
G1 X149.951 Y80.643 E0.01490
G1 X150.184 Y81.062 E0.01502
G1 X150.328 Y81.519 E0.01502
G1 X150.377 Y81.995 E0.01502
G1 X150.377 Y128.030 E1.44341
G1 X150.330 Y128.469 E0.01383
G1 X150.202 Y128.895 E0.01395
G1 X149.997 Y129.290 E0.01395
G1 X149.721 Y129.640 E0.01395
G1 X149.357 Y129.951 E0.01502
G1 X148.938 Y130.184 E0.01502
G1 X148.481 Y130.328 E0.01502
G1 X148.005 Y130.377 E0.01502
G1 X101.970 Y130.377 E1.44341
G1 X101.531 Y130.330 E0.01383
G1 X101.105 Y130.202 E0.01395
G1 X100.710 Y129.997 E0.01395
G1 X100.360 Y129.721 E0.01395
G1 X100.053 Y129.364 E0.01478
G1 X99.822 Y128.952 E0.01478
G1 X99.677 Y128.504 E0.01478
G1 X99.623 Y128.035 E0.01478
G1 X99.627 Y81.862 E1.44773
G1 F5760
G1 X99.706 Y81.379 E-0.16956
G1 F5760
G1 X99.857 Y80.972 E-0.15019
G1 F5760
G1 X100.079 Y80.600 E-0.15019
G1 F5760
G1 X100.365 Y80.274 E-0.15019
G1 F5760
G1 X100.682 Y80.024 E-0.13988
G1 E-0.04000 F2100.00000
G1 X107.534 Y118.563 F7200.000
G1 E0.80000 F2100.00000
G1 F840
G1 X108.129 Y118.537 E0.01866
G1 X108.768 Y118.618 E0.02019
G1 X109.363 Y118.811 E0.01962
G1 X109.911 Y119.106 E0.01949
G1 X110.397 Y119.493 E0.01949
G1 X110.806 Y119.962 E0.01949
G1 X111.125 Y120.495 E0.01949
G1 X111.343 Y121.077 E0.01949
G1 X111.454 Y121.689 E0.01949
G1 X111.454 Y122.311 E0.01949
G1 X111.343 Y122.923 E0.01949
G1 X111.125 Y123.505 E0.01949
G1 X110.806 Y124.038 E0.01949
G1 X110.414 Y124.487 E0.01866
G1 X109.914 Y124.892 E0.02019
G1 X109.363 Y125.189 E0.01962
G1 X108.772 Y125.381 E0.01949
G1 X108.156 Y125.465 E0.01949
G1 X107.534 Y125.437 E0.01949
G1 X106.928 Y125.298 E0.01949
G1 X106.357 Y125.054 E0.01949
G1 X105.838 Y124.711 E0.01949
G1 X105.388 Y124.282 E0.01949
G1 X105.023 Y123.779 E0.01949
G1 X104.765 Y123.243 E0.01866
G1 X104.588 Y122.623 E0.02019
G1 X104.532 Y122.000 E0.01962
G1 X104.588 Y121.381 E0.01949
G1 X104.753 Y120.781 E0.01949
G1 X105.023 Y120.221 E0.01949
G1 X105.388 Y119.718 E0.01949
G1 X105.838 Y119.289 E0.01949
G1 X106.357 Y118.946 E0.01949
G1 X106.928 Y118.702 E0.01949
G1 X107.476 Y118.577 E0.01761
G1 X107.585 Y118.939 F7200.000
G1 F840
G1 X108.114 Y118.915 E0.01658
G1 X108.685 Y118.987 E0.01806
G1 X109.214 Y119.159 E0.01745
G1 X109.702 Y119.422 E0.01737
G1 X110.135 Y119.767 E0.01737
G1 X110.499 Y120.184 E0.01737
G1 X110.783 Y120.660 E0.01737
G1 X110.978 Y121.178 E0.01737
G1 X111.077 Y121.723 E0.01737
G1 X111.077 Y122.277 E0.01737
G1 X110.978 Y122.822 E0.01737
G1 X110.783 Y123.340 E0.01737
G1 X110.499 Y123.816 E0.01737
G1 X110.151 Y124.214 E0.01658
G1 X109.704 Y124.577 E0.01806
G1 X109.214 Y124.841 E0.01745
G1 X108.687 Y125.012 E0.01737
G1 X108.139 Y125.086 E0.01737
G1 X107.585 Y125.061 E0.01737
G1 X107.045 Y124.938 E0.01737
G1 X106.536 Y124.721 E0.01737
G1 X106.074 Y124.415 E0.01737
G1 X105.673 Y124.033 E0.01737
G1 X105.348 Y123.585 E0.01737
G1 X105.118 Y123.108 E0.01658
G1 X104.960 Y122.554 E0.01806
G1 X104.911 Y122.000 E0.01745
G1 X104.960 Y121.448 E0.01737
G1 X105.108 Y120.914 E0.01737
G1 X105.348 Y120.415 E0.01737
G1 X105.673 Y119.967 E0.01737
G1 X106.074 Y119.585 E0.01737
G1 X106.536 Y119.279 E0.01737
G1 X107.045 Y119.062 E0.01737
G1 X107.527 Y118.952 E0.01548
G1 X107.636 Y119.314 F7200.000
G1 F840
G1 X108.098 Y119.293 E0.01451
G1 X108.602 Y119.357 E0.01593
G1 X109.065 Y119.507 E0.01527
G1 X109.493 Y119.738 E0.01524
G1 X109.873 Y120.041 E0.01524
G1 X110.193 Y120.407 E0.01524
G1 X110.442 Y120.824 E0.01524
G1 X110.613 Y121.279 E0.01524
G1 X110.700 Y121.757 E0.01524
G1 X110.700 Y122.243 E0.01524
G1 X110.613 Y122.721 E0.01524
G1 X110.442 Y123.176 E0.01524
G1 X110.193 Y123.593 E0.01524
G1 X109.889 Y123.942 E0.01451
G1 X109.494 Y124.262 E0.01593
G1 X109.065 Y124.493 E0.01527
G1 X108.603 Y124.643 E0.01524
G1 X108.122 Y124.708 E0.01524
G1 X107.636 Y124.686 E0.01524
G1 X107.162 Y124.578 E0.01524
G1 X106.715 Y124.387 E0.01524
G1 X106.310 Y124.119 E0.01524
G1 X105.959 Y123.784 E0.01524
G1 X105.673 Y123.390 E0.01524
G1 X105.472 Y122.974 E0.01451
G1 X105.333 Y122.485 E0.01593
G1 X105.289 Y122.000 E0.01527
G1 X105.333 Y121.516 E0.01524
G1 X105.462 Y121.047 E0.01524
G1 X105.673 Y120.610 E0.01524
G1 X105.959 Y120.216 E0.01524
G1 X106.310 Y119.881 E0.01524
G1 X106.715 Y119.613 E0.01524
G1 X107.162 Y119.422 E0.01524
G1 X107.578 Y119.327 E0.01336
G1 X107.788 Y118.944 F7200.000
G1 F5760
G1 X108.098 Y119.293 E-0.18074
G1 F5760
G1 X108.602 Y119.357 E-0.17597
G1 F5760
G1 X109.065 Y119.507 E-0.16864
G1 F5760
G1 X109.493 Y119.738 E-0.16833
G1 F5760
G1 X109.643 Y119.857 E-0.06632
G1 E-0.04000 F2100.00000
G1 X130.000 Y99.136 F7200.000
G1 E0.80000 F2100.00000
G1 F1680
G1 X132.899 Y102.036 E0.12856
G1 X141.147 Y102.036 E0.25860
G1 X141.337 Y104.054 E0.06355
G1 X141.363 Y105.238 E0.03714
G1 X141.301 Y106.433 E0.03752
G1 X141.158 Y107.596 E0.03673
G1 X140.928 Y108.758 E0.03713
G1 X140.614 Y109.900 E0.03713
G1 X140.219 Y111.016 E0.03713
G1 X139.744 Y112.101 E0.03713
G1 X139.192 Y113.149 E0.03714
G1 X138.558 Y114.164 E0.03752
G1 X137.868 Y115.111 E0.03673
G1 X137.103 Y116.015 E0.03713
G1 X136.274 Y116.861 E0.03713
G1 X135.387 Y117.646 E0.03713
G1 X134.445 Y118.364 E0.03713
G1 X133.454 Y119.012 E0.03713
G1 X132.419 Y119.587 E0.03713
G1 X131.344 Y120.085 E0.03714
G1 X130.225 Y120.508 E0.03752
G1 X129.102 Y120.842 E0.03673
G1 X127.945 Y121.098 E0.03713
G1 X126.773 Y121.268 E0.03713
G1 X125.592 Y121.354 E0.03713
G1 X124.408 Y121.354 E0.03713
G1 X123.227 Y121.268 E0.03713
G1 X122.055 Y121.098 E0.03713
G1 X120.898 Y120.842 E0.03713
G1 X119.763 Y120.504 E0.03713
G1 X118.656 Y120.085 E0.03713
G1 X117.581 Y119.587 E0.03713
G1 X116.546 Y119.012 E0.03714
G1 X115.544 Y118.356 E0.03752
G1 X114.613 Y117.646 E0.03673
G1 X113.726 Y116.861 E0.03713
G1 X112.897 Y116.015 E0.03713
G1 X112.132 Y115.111 E0.03713
G1 X111.435 Y114.154 E0.03713
G1 X110.808 Y113.149 E0.03713
G1 X110.256 Y112.101 E0.03713
G1 X109.781 Y111.016 E0.03713
G1 X109.386 Y109.900 E0.03713
G1 X109.072 Y108.758 E0.03713
G1 X108.842 Y107.596 E0.03713
G1 X108.697 Y106.421 E0.03713
G1 X108.637 Y105.238 E0.03713
G1 X108.663 Y104.054 E0.03713
G1 X108.853 Y102.036 E0.06355
G1 X117.101 Y102.036 E0.25860
G1 X120.000 Y99.136 E0.12856
G1 X122.500 Y101.636 E0.11085
G1 X125.000 Y99.136 E0.11085
G1 X127.500 Y101.636 E0.11085
G1 X129.958 Y99.179 E0.10897
G1 X130.000 Y99.670 F7200.000
G1 F1680
G1 X132.743 Y102.413 E0.12164
G1 X140.804 Y102.413 E0.25274
G1 X140.961 Y104.076 E0.05236
G1 X140.986 Y105.233 E0.03628
G1 X140.926 Y106.400 E0.03666
G1 X140.785 Y107.536 E0.03588
G1 X140.560 Y108.671 E0.03628
G1 X140.254 Y109.787 E0.03628
G1 X139.868 Y110.877 E0.03628
G1 X139.404 Y111.937 E0.03628
G1 X138.864 Y112.961 E0.03628
G1 X138.245 Y113.953 E0.03666
G1 X137.571 Y114.878 E0.03588
G1 X136.824 Y115.761 E0.03628
G1 X136.015 Y116.588 E0.03628
G1 X135.148 Y117.354 E0.03628
G1 X134.228 Y118.056 E0.03628
G1 X133.259 Y118.689 E0.03628
G1 X132.248 Y119.250 E0.03628
G1 X131.198 Y119.737 E0.03628
G1 X130.104 Y120.150 E0.03666
G1 X129.007 Y120.477 E0.03588
G1 X127.877 Y120.726 E0.03628
G1 X126.732 Y120.893 E0.03628
G1 X125.578 Y120.977 E0.03628
G1 X124.422 Y120.977 E0.03628
G1 X123.268 Y120.893 E0.03628
G1 X122.123 Y120.726 E0.03628
G1 X120.993 Y120.477 E0.03628
G1 X119.884 Y120.147 E0.03628
G1 X118.802 Y119.737 E0.03628
G1 X117.752 Y119.250 E0.03628
G1 X116.741 Y118.689 E0.03628
G1 X115.762 Y118.048 E0.03666
G1 X114.852 Y117.354 E0.03588
G1 X113.985 Y116.588 E0.03628
G1 X113.176 Y115.761 E0.03628
G1 X112.429 Y114.878 E0.03628
G1 X111.748 Y113.943 E0.03628
G1 X111.135 Y112.961 E0.03628
G1 X110.596 Y111.937 E0.03628
G1 X110.132 Y110.877 E0.03628
G1 X109.746 Y109.787 E0.03628
G1 X109.440 Y108.671 E0.03628
G1 X109.215 Y107.536 E0.03628
G1 X109.073 Y106.388 E0.03628
G1 X109.014 Y105.232 E0.03628
G1 X109.039 Y104.076 E0.03628
G1 X109.196 Y102.413 E0.05236
G1 X117.257 Y102.413 E0.25274
G1 X120.000 Y99.670 E0.12164
G1 X122.500 Y102.170 E0.11085
G1 X125.000 Y99.670 E0.11085
G1 X127.500 Y102.170 E0.11085
G1 X129.958 Y99.712 E0.10897
G1 X130.000 Y100.203 F7200.000
G1 F1260
G1 X132.587 Y102.790 E0.11471
G1 X140.461 Y102.790 E0.24687
G1 X140.584 Y104.097 E0.04117
G1 X140.608 Y105.227 E0.03542
G1 X140.550 Y106.367 E0.03581
G1 X140.412 Y107.476 E0.03503
G1 X140.193 Y108.584 E0.03542
G1 X139.894 Y109.674 E0.03542
G1 X139.517 Y110.739 E0.03542
G1 X139.064 Y111.774 E0.03542
G1 X138.537 Y112.773 E0.03542
G1 X137.932 Y113.742 E0.03581
G1 X137.274 Y114.645 E0.03503
G1 X136.545 Y115.507 E0.03542
G1 X135.755 Y116.314 E0.03542
G1 X134.908 Y117.063 E0.03542
G1 X134.010 Y117.748 E0.03542
G1 X133.064 Y118.366 E0.03542
G1 X132.077 Y118.914 E0.03542
G1 X131.052 Y119.389 E0.03542
G1 X129.983 Y119.793 E0.03581
G1 X128.913 Y120.112 E0.03503
G1 X127.809 Y120.355 E0.03542
G1 X126.692 Y120.518 E0.03542
G1 X125.565 Y120.600 E0.03542
G1 X124.435 Y120.600 E0.03542
G1 X123.308 Y120.518 E0.03542
G1 X122.191 Y120.355 E0.03542
G1 X121.087 Y120.112 E0.03542
G1 X120.005 Y119.789 E0.03542
G1 X118.948 Y119.389 E0.03542
G1 X117.923 Y118.914 E0.03542
G1 X116.936 Y118.366 E0.03542
G1 X115.980 Y117.740 E0.03581
G1 X115.092 Y117.063 E0.03503
G1 X114.245 Y116.314 E0.03542
G1 X113.455 Y115.507 E0.03542
G1 X112.726 Y114.645 E0.03542
G1 X112.060 Y113.732 E0.03542
G1 X111.463 Y112.773 E0.03542
G1 X110.936 Y111.774 E0.03542
G1 X110.483 Y110.739 E0.03542
G1 X110.106 Y109.674 E0.03542
G1 X109.807 Y108.584 E0.03542
G1 X109.588 Y107.476 E0.03542
G1 X109.449 Y106.355 E0.03542
G1 X109.392 Y105.227 E0.03542
G1 X109.416 Y104.097 E0.03542
G1 X109.539 Y102.790 E0.04117
G1 X117.413 Y102.790 E0.24687
G1 X120.000 Y100.203 E0.11471
G1 X122.500 Y102.703 E0.11085
G1 X125.000 Y100.203 E0.11085
G1 X127.500 Y102.703 E0.11085
G1 X129.958 Y100.245 E0.10897
G1 X130.346 Y100.003 F7200.000
G1 F5760
G1 X131.534 Y101.771 E-0.76000
G1 E-0.04000 F2100.00000
G1 X140.357 Y118.946 F7200.000
G1 E0.80000 F2100.00000
G1 F840
G1 X140.928 Y118.702 E0.01949
G1 X141.534 Y118.563 E0.01949
G1 X142.129 Y118.537 E0.01866
G1 X142.768 Y118.618 E0.02019
G1 X143.363 Y118.811 E0.01962
G1 X143.911 Y119.106 E0.01949
G1 X144.397 Y119.493 E0.01949
G1 X144.806 Y119.962 E0.01949
G1 X145.125 Y120.495 E0.01949
G1 X145.343 Y121.077 E0.01949
G1 X145.454 Y121.689 E0.01949
G1 X145.454 Y122.311 E0.01949
G1 X145.343 Y122.923 E0.01949
G1 X145.125 Y123.505 E0.01949
G1 X144.806 Y124.038 E0.01949
G1 X144.397 Y124.507 E0.01949
G1 X143.911 Y124.894 E0.01949
G1 X143.363 Y125.189 E0.01949
G1 X142.772 Y125.381 E0.01949
G1 X142.156 Y125.465 E0.01949
G1 X141.534 Y125.437 E0.01949
G1 X140.928 Y125.298 E0.01949
G1 X140.357 Y125.054 E0.01949
G1 X139.838 Y124.711 E0.01949
G1 X139.407 Y124.300 E0.01866
G1 X139.025 Y123.782 E0.02019
G1 X138.753 Y123.219 E0.01962
G1 X138.588 Y122.619 E0.01949
G1 X138.532 Y122.000 E0.01949
G1 X138.588 Y121.381 E0.01949
G1 X138.753 Y120.781 E0.01949
G1 X139.023 Y120.221 E0.01949
G1 X139.388 Y119.718 E0.01949
G1 X139.838 Y119.289 E0.01949
G1 X140.307 Y118.979 E0.01761
G1 X140.536 Y119.279 F7200.000
G1 F840
G1 X141.045 Y119.062 E0.01737
G1 X141.585 Y118.939 E0.01737
G1 X142.114 Y118.915 E0.01658
G1 X142.685 Y118.987 E0.01806
G1 X143.214 Y119.159 E0.01745
G1 X143.702 Y119.422 E0.01737
G1 X144.135 Y119.767 E0.01737
G1 X144.499 Y120.184 E0.01737
G1 X144.784 Y120.660 E0.01737
G1 X144.978 Y121.178 E0.01737
G1 X145.077 Y121.723 E0.01737
G1 X145.077 Y122.277 E0.01737
G1 X144.978 Y122.822 E0.01737
G1 X144.784 Y123.340 E0.01737
G1 X144.499 Y123.816 E0.01737
G1 X144.135 Y124.233 E0.01737
G1 X143.702 Y124.578 E0.01737
G1 X143.214 Y124.841 E0.01737
G1 X142.687 Y125.012 E0.01737
G1 X142.139 Y125.086 E0.01737
G1 X141.585 Y125.061 E0.01737
G1 X141.045 Y124.938 E0.01737
G1 X140.536 Y124.721 E0.01737
G1 X140.074 Y124.415 E0.01737
G1 X139.691 Y124.050 E0.01658
G1 X139.349 Y123.587 E0.01806
G1 X139.108 Y123.086 E0.01745
G1 X138.960 Y122.552 E0.01737
G1 X138.911 Y122.000 E0.01737
G1 X138.960 Y121.448 E0.01737
G1 X139.108 Y120.914 E0.01737
G1 X139.348 Y120.415 E0.01737
G1 X139.673 Y119.967 E0.01737
G1 X140.074 Y119.585 E0.01737
G1 X140.486 Y119.312 E0.01549
G1 X140.715 Y119.613 F7200.000
G1 F840
G1 X141.162 Y119.422 E0.01524
G1 X141.636 Y119.314 E0.01524
G1 X142.098 Y119.293 E0.01451
G1 X142.602 Y119.357 E0.01593
G1 X143.065 Y119.507 E0.01527
G1 X143.493 Y119.738 E0.01524
G1 X143.873 Y120.041 E0.01524
G1 X144.193 Y120.407 E0.01524
G1 X144.442 Y120.824 E0.01524
G1 X144.613 Y121.279 E0.01524
G1 X144.700 Y121.757 E0.01524
G1 X144.700 Y122.243 E0.01524
G1 X144.613 Y122.721 E0.01524
G1 X144.442 Y123.176 E0.01524
G1 X144.193 Y123.593 E0.01524
G1 X143.873 Y123.959 E0.01524
G1 X143.493 Y124.262 E0.01524
G1 X143.065 Y124.493 E0.01524
G1 X142.603 Y124.643 E0.01524
G1 X142.122 Y124.708 E0.01524
G1 X141.636 Y124.686 E0.01524
G1 X141.162 Y124.578 E0.01524
G1 X140.715 Y124.387 E0.01524
G1 X140.310 Y124.119 E0.01524
G1 X139.975 Y123.800 E0.01451
G1 X139.673 Y123.391 E0.01593
G1 X139.462 Y122.953 E0.01527
G1 X139.333 Y122.484 E0.01524
G1 X139.289 Y122.000 E0.01524
G1 X139.333 Y121.516 E0.01524
G1 X139.462 Y121.047 E0.01524
G1 X139.673 Y120.610 E0.01524
G1 X139.959 Y120.216 E0.01524
G1 X140.310 Y119.881 E0.01524
G1 X140.665 Y119.646 E0.01336
G1 X140.727 Y119.213 F7200.000
G1 F5760
G1 X141.162 Y119.422 E-0.18881
G1 F5760
G1 X141.636 Y119.314 E-0.16833
G1 F5760
G1 X142.098 Y119.293 E-0.16025
G1 F5760
G1 X142.602 Y119.357 E-0.17597
G1 F5760
G1 X142.785 Y119.416 E-0.06664
G1 E-0.04000 F2100.00000
G1 X142.156 Y91.465 F7200.000
G1 E0.80000 F2100.00000
G1 F840
G1 X141.534 Y91.437 E0.01949
G1 X140.928 Y91.298 E0.01949
G1 X140.357 Y91.054 E0.01949
G1 X139.838 Y90.711 E0.01949
G1 X139.407 Y90.300 E0.01866
G1 X139.025 Y89.782 E0.02019
G1 X138.753 Y89.219 E0.01962
G1 X138.588 Y88.619 E0.01949
G1 X138.532 Y88.000 E0.01949
G1 X138.588 Y87.381 E0.01949
G1 X138.753 Y86.781 E0.01949
G1 X139.023 Y86.221 E0.01949
G1 X139.388 Y85.718 E0.01949
G1 X139.838 Y85.289 E0.01949
G1 X140.357 Y84.946 E0.01949
G1 X140.928 Y84.702 E0.01949
G1 X141.534 Y84.563 E0.01949
G1 X142.129 Y84.537 E0.01866
G1 X142.768 Y84.618 E0.02019
G1 X143.363 Y84.811 E0.01962
G1 X143.911 Y85.106 E0.01949
G1 X144.397 Y85.493 E0.01949
G1 X144.806 Y85.962 E0.01949
G1 X145.125 Y86.495 E0.01949
G1 X145.343 Y87.077 E0.01949
G1 X145.454 Y87.689 E0.01949
G1 X145.454 Y88.311 E0.01949
G1 X145.343 Y88.923 E0.01949
G1 X145.125 Y89.505 E0.01949
G1 X144.806 Y90.038 E0.01949
G1 X144.397 Y90.507 E0.01949
G1 X143.911 Y90.894 E0.01949
G1 X143.363 Y91.189 E0.01949
G1 X142.772 Y91.381 E0.01949
G1 X142.215 Y91.457 E0.01761
G1 X142.139 Y91.086 F7200.000
G1 F840
G1 X141.585 Y91.061 E0.01737
G1 X141.045 Y90.938 E0.01737
G1 X140.536 Y90.721 E0.01737
G1 X140.074 Y90.415 E0.01737
G1 X139.691 Y90.050 E0.01658
G1 X139.349 Y89.587 E0.01806
G1 X139.108 Y89.086 E0.01745
G1 X138.960 Y88.552 E0.01737
G1 X138.911 Y88.000 E0.01737
G1 X138.960 Y87.448 E0.01737
G1 X139.108 Y86.914 E0.01737
G1 X139.348 Y86.415 E0.01737
G1 X139.673 Y85.967 E0.01737
G1 X140.074 Y85.585 E0.01737
G1 X140.536 Y85.279 E0.01737
G1 X141.045 Y85.062 E0.01737
