; generated by Slic3r 1.33.8-prusa3d-win64 on 2017-03-28 at 20:08:37

; external perimeters extrusion width = 0.45mm
; perimeters extrusion width = 0.45mm
; infill extrusion width = 0.45mm
; solid infill extrusion width = 0.45mm
; top infill extrusion width = 0.40mm

M107
M115 U3.0.10 ; tell printer latest fw version
M83  ; extruder relative mode
M104 S215 ; set extruder temp
M140 S55 ; set bed temp
M190 S55 ; wait for bed temp
M109 S215 ; wait for extruder temp
G28 W ; home all without mesh bed level
G80 ; mesh bed leveling
G1 Y-3.0 F1000.0 ; go outside pritn area
G1 X60.0 E9.0  F1000.0 ; intro line
G1 X100.0 E12.5  F1000.0 ; intro line
G21 ; set units to millimeters
G90 ; use absolute coordinates
M83 ; use relative distances for extrusion
G1 E-0.80000 F2100.00000
G1 Z0.200 F7200.000
G1 X103.880 Y90.580 F7200.000
G1 E0.80000 F2100.00000
M204 S1000
G1 F2100
G1 X104.067 Y90.407 E0.00800
G1 X104.555 Y90.020 E0.01952
G1 X105.303 Y89.615 E0.02667
G1 X105.532 Y89.531 E0.00764
G1 X106.126 Y89.361 E0.01940
G1 X106.953 Y89.273 E0.02607
G1 X145.027 Y89.273 E1.19376
G1 X145.394 Y89.306 E0.01157
G1 X145.749 Y89.394 E0.01145
G1 X146.086 Y89.535 E0.01145
G1 X146.400 Y89.729 E0.01157
G1 X146.603 Y89.895 E0.00824
G1 X146.787 Y90.083 E0.00824
G1 X146.949 Y90.289 E0.00824
G1 X147.087 Y90.513 E0.00824
G1 X147.199 Y90.747 E0.00812
G1 X147.285 Y90.995 E0.00824
G1 X147.343 Y91.251 E0.00824
G1 X147.373 Y91.512 E0.00824
G1 X147.369 Y106.544 E0.47132
G1 X147.308 Y106.920 E0.01193
G1 X144.302 Y118.948 E0.38876
G1 X144.150 Y119.367 E0.01395
G1 X143.923 Y119.749 E0.01395
G1 X143.746 Y119.964 E0.00871
G1 X143.546 Y120.157 E0.00871
G1 X143.325 Y120.325 E0.00871
G1 X143.085 Y120.466 E0.00871
G1 X142.831 Y120.578 E0.00871
G1 X142.565 Y120.659 E0.00871
G1 X142.292 Y120.709 E0.00871
G1 X142.011 Y120.727 E0.00883
G1 X106.950 Y120.727 E1.09928
G1 X106.181 Y120.650 E0.02425
G1 X105.508 Y120.461 E0.02190
G1 X105.143 Y120.309 E0.01241
G1 X104.708 Y120.076 E0.01546
G1 X104.491 Y119.936 E0.00812
G1 X104.011 Y119.545 E0.01940
G1 X103.769 Y119.297 E0.01086
G1 X103.363 Y118.786 E0.02047
G1 X103.050 Y118.226 E0.02011
G1 X102.906 Y117.894 E0.01133
G1 X102.724 Y117.283 E0.02000
G1 X102.677 Y117.009 E0.00871
G1 X102.624 Y116.404 E0.01904
G1 X102.625 Y93.540 E0.71691
G1 X102.713 Y92.767 E0.02437
G1 X102.957 Y91.972 E0.02607
G1 X103.347 Y91.238 E0.02607
G1 X103.839 Y90.624 E0.02467
G1 F5760
G1 X104.067 Y90.407 E-0.10909
G1 F5760
G1 X104.555 Y90.020 E-0.21558
G1 F5760
G1 X105.303 Y89.615 E-0.29457
G1 F5760
G1 X105.532 Y89.531 E-0.08440
G1 F5760
G1 X105.688 Y89.487 E-0.05637
G1 E-0.04000 F2100.00000
G1 X131.030 Y109.779 F7200.000
G1 E0.80000 F2100.00000
G1 F840
G1 X131.429 Y109.380 E0.01770
G1 X131.907 Y109.079 E0.01770
G1 X132.439 Y108.893 E0.01770
G1 X132.991 Y108.831 E0.01741
G1 X133.559 Y108.892 E0.01791
G1 X134.093 Y109.079 E0.01776
G1 X134.571 Y109.380 E0.01770
G1 X134.970 Y109.779 E0.01770
G1 X135.271 Y110.257 E0.01770
G1 X135.457 Y110.789 E0.01769
G1 X135.520 Y111.350 E0.01770
G1 X135.457 Y111.911 E0.01770
G1 X135.271 Y112.443 E0.01770
G1 X134.970 Y112.921 E0.01770
G1 X134.571 Y113.320 E0.01770
G1 X134.094 Y113.621 E0.01769
G1 X133.569 Y113.804 E0.01741
G1 X133.002 Y113.870 E0.01791
G1 X132.439 Y113.807 E0.01776
G1 X131.906 Y113.621 E0.01770
G1 X131.429 Y113.320 E0.01769
G1 X131.030 Y112.921 E0.01770
G1 X130.729 Y112.443 E0.01770
G1 X130.543 Y111.911 E0.01770
G1 X130.480 Y111.350 E0.01770
G1 X130.543 Y110.789 E0.01770
G1 X130.729 Y110.257 E0.01769
G1 X130.998 Y109.829 E0.01581
G1 X131.326 Y110.015 F7200.000
G1 F840
G1 X131.665 Y109.676 E0.01503
G1 X132.071 Y109.421 E0.01503
G1 X132.524 Y109.263 E0.01503
G1 X132.992 Y109.210 E0.01477
G1 X133.475 Y109.262 E0.01524
G1 X133.929 Y109.421 E0.01507
G1 X134.335 Y109.676 E0.01503
G1 X134.674 Y110.015 E0.01503
G1 X134.929 Y110.421 E0.01503
G1 X135.087 Y110.874 E0.01503
G1 X135.141 Y111.350 E0.01503
G1 X135.087 Y111.826 E0.01503
G1 X134.929 Y112.279 E0.01503
G1 X134.674 Y112.685 E0.01503
G1 X134.335 Y113.024 E0.01503
G1 X133.929 Y113.279 E0.01503
G1 X133.484 Y113.434 E0.01477
G1 X133.001 Y113.491 E0.01524
G1 X132.524 Y113.437 E0.01507
G1 X132.071 Y113.279 E0.01503
G1 X131.665 Y113.024 E0.01503
G1 X131.326 Y112.685 E0.01503
G1 X131.071 Y112.279 E0.01503
G1 X130.913 Y111.826 E0.01503
G1 X130.859 Y111.350 E0.01503
G1 X130.913 Y110.874 E0.01503
G1 X131.071 Y110.421 E0.01503
G1 X131.294 Y110.066 E0.01315
G1 X131.623 Y110.252 F7200.000
G1 F840
G1 X131.902 Y109.973 E0.01237
G1 X132.236 Y109.763 E0.01237
G1 X132.608 Y109.633 E0.01237
G1 X132.993 Y109.590 E0.01213
G1 X133.391 Y109.633 E0.01258
G1 X133.764 Y109.763 E0.01238
G1 X134.098 Y109.973 E0.01237
G1 X134.377 Y110.252 E0.01237
G1 X134.587 Y110.586 E0.01237
G1 X134.717 Y110.958 E0.01237
G1 X134.761 Y111.350 E0.01237
G1 X134.717 Y111.742 E0.01237
G1 X134.587 Y112.114 E0.01237
G1 X134.377 Y112.448 E0.01237
G1 X134.098 Y112.727 E0.01237
G1 X133.764 Y112.937 E0.01237
G1 X133.399 Y113.065 E0.01213
G1 X133.000 Y113.111 E0.01258
G1 X132.608 Y113.067 E0.01238
G1 X132.236 Y112.937 E0.01237
G1 X131.902 Y112.727 E0.01237
G1 X131.623 Y112.448 E0.01237
G1 X131.413 Y112.114 E0.01237
G1 X131.283 Y111.742 E0.01237
G1 X131.239 Y111.350 E0.01237
G1 X131.283 Y110.958 E0.01237
G1 X131.413 Y110.586 E0.01237
G1 X131.591 Y110.303 E0.01049
G1 X131.479 Y109.885 F7200.000
G1 F5760
G1 X131.902 Y109.973 E-0.15694
G1 F5760
G1 X132.236 Y109.763 E-0.13661
G1 F5760
G1 X132.608 Y109.633 E-0.13661
G1 F5760
G1 X132.993 Y109.590 E-0.13404
G1 F5760
G1 X133.391 Y109.633 E-0.13895
G1 F5760
G1 X133.546 Y109.687 E-0.05686
G1 E-0.04000 F2100.00000
G1 X132.439 Y100.807 F7200.000
G1 E0.80000 F2100.00000
G1 F840
G1 X131.906 Y100.621 E0.01770
G1 X131.429 Y100.320 E0.01769
G1 X131.036 Y99.928 E0.01741
G1 X130.730 Y99.446 E0.01791
G1 X130.543 Y98.911 E0.01776
G1 X130.480 Y98.350 E0.01770
G1 X130.543 Y97.789 E0.01770
G1 X130.729 Y97.257 E0.01769
G1 X131.030 Y96.779 E0.01770
G1 X131.429 Y96.380 E0.01770
G1 X131.907 Y96.079 E0.01770
G1 X132.439 Y95.893 E0.01770
G1 X132.991 Y95.831 E0.01741
G1 X133.559 Y95.892 E0.01791
G1 X134.093 Y96.079 E0.01776
G1 X134.571 Y96.380 E0.01770
G1 X134.970 Y96.779 E0.01770
G1 X135.271 Y97.257 E0.01770
G1 X135.457 Y97.789 E0.01769
G1 X135.520 Y98.350 E0.01770
G1 X135.457 Y98.911 E0.01770
G1 X135.271 Y99.443 E0.01769
G1 X134.970 Y99.921 E0.01770
G1 X134.571 Y100.320 E0.01770
G1 X134.094 Y100.621 E0.01770
G1 X133.561 Y100.807 E0.01770
G1 X133.000 Y100.870 E0.01770
G1 X132.499 Y100.814 E0.01581
G1 X132.524 Y100.437 F7200.000
G1 F840
G1 X132.071 Y100.279 E0.01503
G1 X131.665 Y100.024 E0.01503
G1 X131.332 Y99.691 E0.01477
G1 X131.072 Y99.280 E0.01524
G1 X130.913 Y98.826 E0.01507
G1 X130.859 Y98.350 E0.01503
G1 X130.913 Y97.874 E0.01503
G1 X131.071 Y97.421 E0.01503
G1 X131.326 Y97.015 E0.01503
G1 X131.665 Y96.676 E0.01503
G1 X132.071 Y96.421 E0.01503
G1 X132.524 Y96.263 E0.01503
G1 X132.992 Y96.210 E0.01477
G1 X133.475 Y96.262 E0.01524
G1 X133.929 Y96.421 E0.01507
G1 X134.335 Y96.676 E0.01503
G1 X134.674 Y97.015 E0.01503
G1 X134.929 Y97.421 E0.01503
G1 X135.087 Y97.874 E0.01503
G1 X135.141 Y98.350 E0.01503
G1 X135.087 Y98.826 E0.01503
G1 X134.929 Y99.279 E0.01503
G1 X134.674 Y99.685 E0.01503
G1 X134.335 Y100.024 E0.01503
G1 X133.929 Y100.279 E0.01503
G1 X133.476 Y100.437 E0.01503
G1 X133.000 Y100.491 E0.01503
G1 X132.583 Y100.444 E0.01315
G1 X132.608 Y100.067 F7200.000
G1 F840
G1 X132.236 Y99.937 E0.01237
G1 X131.902 Y99.727 E0.01237
G1 X131.628 Y99.453 E0.01213
G1 X131.413 Y99.115 E0.01258
G1 X131.283 Y98.742 E0.01238
G1 X131.239 Y98.350 E0.01237
G1 X131.283 Y97.958 E0.01237
G1 X131.413 Y97.586 E0.01237
G1 X131.623 Y97.252 E0.01237
G1 X131.902 Y96.973 E0.01237
G1 X132.236 Y96.763 E0.01237
G1 X132.608 Y96.633 E0.01237
G1 X132.993 Y96.590 E0.01213
G1 X133.391 Y96.633 E0.01258
G1 X133.764 Y96.763 E0.01238
G1 X134.098 Y96.973 E0.01237
G1 X134.377 Y97.252 E0.01237
G1 X134.587 Y97.586 E0.01237
G1 X134.717 Y97.958 E0.01237
G1 X134.761 Y98.350 E0.01237
G1 X134.717 Y98.742 E0.01237
G1 X134.587 Y99.114 E0.01237
G1 X134.377 Y99.448 E0.01237
G1 X134.098 Y99.727 E0.01237
G1 X133.764 Y99.937 E0.01237
G1 X133.392 Y100.067 E0.01237
G1 X133.000 Y100.111 E0.01237
G1 X132.668 Y100.074 E0.01049
G1 X132.340 Y100.356 F7200.000
G1 F5760
G1 X132.236 Y99.937 E-0.15693
G1 F5760
G1 X131.902 Y99.727 E-0.13661
G1 F5760
G1 X131.628 Y99.453 E-0.13404
G1 F5760
G1 X131.413 Y99.115 E-0.13895
G1 F5760
G1 X131.283 Y98.742 E-0.13677
G1 F5760
G1 X131.265 Y98.579 E-0.05670
G1 E-0.04000 F2100.00000
G1 X114.520 Y98.350 F7200.000
G1 E0.80000 F2100.00000
G1 F840
G1 X114.457 Y98.911 E0.01770
G1 X114.271 Y99.443 E0.01770
G1 X113.970 Y99.921 E0.01770
G1 X113.578 Y100.314 E0.01741
G1 X113.096 Y100.620 E0.01791
G1 X112.561 Y100.807 E0.01776
G1 X112.000 Y100.870 E0.01770
G1 X111.439 Y100.807 E0.01770
G1 X110.915 Y100.624 E0.01741
G1 X110.430 Y100.322 E0.01791
G1 X110.030 Y99.921 E0.01776
G1 X109.729 Y99.443 E0.01769
G1 X109.543 Y98.911 E0.01770
G1 X109.480 Y98.350 E0.01770
G1 X109.543 Y97.789 E0.01770
G1 X109.729 Y97.257 E0.01770
G1 X110.030 Y96.779 E0.01769
G1 X110.429 Y96.380 E0.01770
G1 X110.907 Y96.079 E0.01770
G1 X111.439 Y95.893 E0.01770
G1 X111.991 Y95.831 E0.01741
G1 X112.559 Y95.892 E0.01791
G1 X113.093 Y96.079 E0.01776
G1 X113.571 Y96.380 E0.01770
G1 X113.970 Y96.779 E0.01770
G1 X114.271 Y97.257 E0.01770
G1 X114.457 Y97.789 E0.01770
G1 X114.514 Y98.290 E0.01581
G1 X114.141 Y98.350 F7200.000
G1 F840
G1 X114.087 Y98.826 E0.01503
G1 X113.929 Y99.279 E0.01503
G1 X113.674 Y99.685 E0.01503
G1 X113.341 Y100.018 E0.01477
G1 X112.930 Y100.278 E0.01524
G1 X112.476 Y100.437 E0.01507
G1 X112.000 Y100.491 E0.01503
G1 X111.524 Y100.437 E0.01503
G1 X111.079 Y100.282 E0.01477
G1 X110.666 Y100.025 E0.01524
G1 X110.326 Y99.685 E0.01507
G1 X110.071 Y99.279 E0.01503
G1 X109.913 Y98.826 E0.01503
G1 X109.859 Y98.350 E0.01503
G1 X109.913 Y97.874 E0.01503
G1 X110.071 Y97.421 E0.01503
G1 X110.326 Y97.015 E0.01503
G1 X110.665 Y96.676 E0.01503
G1 X111.071 Y96.421 E0.01503
G1 X111.524 Y96.263 E0.01503
G1 X111.992 Y96.210 E0.01477
G1 X112.475 Y96.262 E0.01524
G1 X112.929 Y96.421 E0.01507
G1 X113.335 Y96.676 E0.01503
G1 X113.674 Y97.015 E0.01503
G1 X113.929 Y97.421 E0.01503
G1 X114.087 Y97.874 E0.01503
G1 X114.134 Y98.290 E0.01315
G1 X113.761 Y98.350 F7200.000
G1 F840
G1 X113.717 Y98.742 E0.01237
G1 X113.587 Y99.114 E0.01237
G1 X113.377 Y99.448 E0.01237
G1 X113.103 Y99.722 E0.01213
G1 X112.765 Y99.937 E0.01258
G1 X112.392 Y100.067 E0.01238
G1 X112.000 Y100.111 E0.01237
G1 X111.608 Y100.067 E0.01237
G1 X111.243 Y99.939 E0.01213
G1 X110.902 Y99.727 E0.01258
G1 X110.623 Y99.448 E0.01238
G1 X110.413 Y99.114 E0.01237
G1 X110.283 Y98.742 E0.01237
G1 X110.239 Y98.350 E0.01237
G1 X110.283 Y97.958 E0.01237
G1 X110.413 Y97.586 E0.01237
G1 X110.623 Y97.252 E0.01237
G1 X110.902 Y96.973 E0.01237
G1 X111.236 Y96.763 E0.01237
G1 X111.608 Y96.633 E0.01237
G1 X111.993 Y96.590 E0.01213
G1 X112.391 Y96.633 E0.01258
G1 X112.764 Y96.763 E0.01238
G1 X113.098 Y96.973 E0.01237
G1 X113.377 Y97.252 E0.01237
G1 X113.587 Y97.586 E0.01237
G1 X113.717 Y97.958 E0.01237
G1 X113.755 Y98.290 E0.01049
G1 X114.103 Y98.547 F7200.000
G1 F5760
G1 X113.717 Y98.742 E-0.15693
G1 F5760
G1 X113.587 Y99.114 E-0.13661
G1 F5760
G1 X113.377 Y99.448 E-0.13661
G1 F5760
G1 X113.103 Y99.722 E-0.13404
G1 F5760
G1 X112.765 Y99.937 E-0.13895
G1 F5760
G1 X112.610 Y99.991 E-0.05686
G1 E-0.04000 F2100.00000
G1 X112.559 Y108.892 F7200.000
G1 E0.80000 F2100.00000
G1 F840
G1 X113.093 Y109.079 E0.01776
G1 X113.571 Y109.380 E0.01770
G1 X113.970 Y109.779 E0.01770
G1 X114.271 Y110.257 E0.01770
G1 X114.457 Y110.789 E0.01770
G1 X114.520 Y111.350 E0.01770
G1 X114.457 Y111.911 E0.01770
G1 X114.271 Y112.444 E0.01770
G1 X113.970 Y112.921 E0.01770
G1 X113.578 Y113.314 E0.01741
G1 X113.096 Y113.620 E0.01791
G1 X112.561 Y113.807 E0.01776
G1 X112.000 Y113.870 E0.01770
G1 X111.439 Y113.807 E0.01770
G1 X110.906 Y113.621 E0.01770
G1 X110.429 Y113.320 E0.01769
G1 X110.030 Y112.921 E0.01770
G1 X109.729 Y112.444 E0.01770
G1 X109.543 Y111.911 E0.01770
G1 X109.480 Y111.350 E0.01770
G1 X109.543 Y110.789 E0.01770
G1 X109.729 Y110.257 E0.01770
G1 X110.030 Y109.779 E0.01770
G1 X110.429 Y109.380 E0.01770
G1 X110.907 Y109.079 E0.01770
G1 X111.439 Y108.893 E0.01770
G1 X111.991 Y108.831 E0.01741
G1 X112.499 Y108.886 E0.01603
G1 X112.475 Y109.262 F7200.000
G1 F840
G1 X112.929 Y109.421 E0.01507
G1 X113.335 Y109.676 E0.01503
G1 X113.674 Y110.015 E0.01503
G1 X113.929 Y110.421 E0.01503
G1 X114.087 Y110.874 E0.01503
G1 X114.141 Y111.350 E0.01503
G1 X114.087 Y111.826 E0.01503
G1 X113.929 Y112.279 E0.01503
G1 X113.674 Y112.685 E0.01503
G1 X113.341 Y113.018 E0.01477
G1 X112.930 Y113.278 E0.01524
G1 X112.476 Y113.437 E0.01507
G1 X112.000 Y113.491 E0.01503
G1 X111.524 Y113.437 E0.01503
G1 X111.071 Y113.279 E0.01503
G1 X110.665 Y113.024 E0.01503
G1 X110.326 Y112.685 E0.01503
G1 X110.071 Y112.279 E0.01503
G1 X109.913 Y111.826 E0.01503
G1 X109.859 Y111.350 E0.01503
G1 X109.913 Y110.874 E0.01503
G1 X110.071 Y110.421 E0.01503
G1 X110.326 Y110.015 E0.01503
G1 X110.665 Y109.676 E0.01503
G1 X111.071 Y109.421 E0.01503
G1 X111.524 Y109.263 E0.01503
G1 X111.992 Y109.210 E0.01477
G1 X112.415 Y109.256 E0.01336
G1 X112.391 Y109.633 F7200.000
G1 F840
G1 X112.764 Y109.763 E0.01238
G1 X113.098 Y109.973 E0.01237
G1 X113.377 Y110.252 E0.01237
G1 X113.587 Y110.586 E0.01237
G1 X113.717 Y110.958 E0.01237
G1 X113.761 Y111.350 E0.01237
G1 X113.717 Y111.742 E0.01237
G1 X113.587 Y112.114 E0.01237
G1 X113.377 Y112.448 E0.01237
G1 X113.103 Y112.722 E0.01213
G1 X112.765 Y112.937 E0.01258
G1 X112.392 Y113.067 E0.01238
G1 X112.000 Y113.111 E0.01237
G1 X111.608 Y113.067 E0.01237
G1 X111.236 Y112.937 E0.01237
G1 X110.902 Y112.727 E0.01237
G1 X110.623 Y112.448 E0.01237
G1 X110.413 Y112.114 E0.01237
G1 X110.283 Y111.742 E0.01237
G1 X110.239 Y111.350 E0.01237
G1 X110.283 Y110.958 E0.01237
G1 X110.413 Y110.586 E0.01237
G1 X110.623 Y110.252 E0.01237
G1 X110.902 Y109.973 E0.01237
G1 X111.236 Y109.763 E0.01237
G1 X111.608 Y109.633 E0.01237
G1 X111.993 Y109.590 E0.01213
G1 X112.332 Y109.626 E0.01070
G1 X112.660 Y109.343 F7200.000
G1 F5760
G1 X112.764 Y109.763 E-0.15708
G1 F5760
G1 X113.098 Y109.973 E-0.13661
G1 F5760
G1 X113.377 Y110.252 E-0.13661
G1 F5760
G1 X113.587 Y110.586 E-0.13661
G1 F5760
G1 X113.717 Y110.958 E-0.13661
G1 F5760
G1 X113.735 Y111.120 E-0.05650
G1 E-0.04000 F2100.00000
G1 X141.037 Y105.386 F7200.000
G1 E0.80000 F2100.00000
G1 F1680
G1 X141.037 Y117.386 E0.37625
G1 X107.047 Y117.386 E1.06572
G1 X106.799 Y117.361 E0.00783
G1 X106.608 Y117.304 E0.00624
G1 X106.419 Y117.201 E0.00674
G1 X106.271 Y117.079 E0.00602
G1 X106.143 Y116.923 E0.00634
G1 X106.047 Y116.745 E0.00634
G1 X105.989 Y116.551 E0.00634
G1 X105.964 Y116.303 E0.00783
G1 X105.964 Y93.697 E0.70877
G1 X105.989 Y93.449 E0.00783
G1 X106.047 Y93.255 E0.00634
G1 X106.143 Y93.077 E0.00634
G1 X106.271 Y92.921 E0.00634
G1 X106.427 Y92.793 E0.00634
G1 X106.605 Y92.697 E0.00634
G1 X106.799 Y92.639 E0.00634
G1 X107.047 Y92.614 E0.00783
G1 X144.036 Y92.614 E1.15975
G1 X144.036 Y105.386 E0.40045
G1 X141.097 Y105.386 E0.09214
G1 X141.414 Y105.763 F7200.000
G1 F1680
G1 X141.414 Y117.763 E0.37625
G1 X107.029 Y117.763 E1.07813
G1 X106.725 Y117.733 E0.00958
G1 X106.462 Y117.653 E0.00861
G1 X106.208 Y117.515 E0.00907
G1 X106.003 Y117.347 E0.00832
G1 X105.828 Y117.133 E0.00867
G1 X105.697 Y116.890 E0.00867
G1 X105.617 Y116.625 E0.00867
G1 X105.587 Y116.321 E0.00958
G1 X105.587 Y93.679 E0.70993
G1 X105.617 Y93.375 E0.00958
G1 X105.697 Y93.110 E0.00867
G1 X105.828 Y92.867 E0.00867
