( Made using CamBam - http://www.cambam.co.uk )
( BVB-Manuell 9/1/2013 11:51:22 AM )
( T3 : 3.0 )
( T4 : 4.0 )
( T8 : 8.0 )
G21 G90 G64 G40
G0 Z3.0
( T8 : 8.0 )
T8 M6
( Innenbereich )
G17
M3 S1000
G0 X164.0364 Y90.0
G0 Z1.0
G1 F15.0 Z-4.0
G2 F40.0 X163.5351 Y81.3993 I-74.0364 J0.0
G3 X160.2786 Y90.5593 I-27.1841 J-4.5056
G3 X163.455 Y99.26 I-23.9276 J13.6656
G2 X164.0364 Y90.0 I-73.455 J-9.26
G0 Z3.0
G0 X137.6475 Y138.0041
G0 Z1.0
G1 F15.0 Z-4.0
G1 F40.0 X124.9892
G1 X127.6708 Y146.1746
G2 X137.6475 Y138.0041 I-37.6708 J-56.1746
G1 F15.0 X139.9018 Y140.2752
G2 F40.0 X145.9507 Y133.4432 I-49.9018 J-50.2752
G3 X140.3828 Y134.7144 I-9.5997 J-29.2184
G3 X139.0203 Y134.8041 I-1.3625 J-10.3039
G1 X120.571
G1 X125.9067 Y151.0614
G2 X139.9018 Y140.2752 I-35.9067 J-61.0614
G1 F15.0 X142.1561 Y142.5464
G2 F40.0 X156.0039 Y123.539 I-52.1561 J-52.5464
G3 X139.9633 Y131.542 I-19.6529 J-19.3142
G3 X139.0203 Y131.6041 I-0.943 J-7.1315
G1 X116.5679
G3 X116.1488 Y131.5918 I0.0 J-7.1936
G1 X123.8634 Y155.0973
G3 X124.043 Y155.7454 I-6.8349 J2.2432
G2 X142.1561 Y142.5464 I-34.043 J-65.7454
G0 Z3.0
G0 X93.0157 Y157.6765
G0 Z1.0
G1 F15.0 Z-4.0
G1 F40.0 X90.4017 Y149.1865
G1 X87.0229 Y160.3511
G3 X86.8871 Y160.7679 I-9.948 J-3.0106
G2 X93.9605 Y160.7256 I3.1129 J-70.7679
G3 X93.854 Y160.399 I9.8269 J-3.385
G1 X93.0157 Y157.6765
G1 F15.0 X96.074 Y156.7348
G1 F40.0 X90.3753 Y138.2261
G1 X83.9601 Y159.4242
G3 X80.8435 Y163.468 I-6.8852 J-2.0837
G2 X99.872 Y163.3752 I9.1565 J-73.468
G3 X96.9123 Y159.4573 I3.9154 J-6.0347
G1 X96.074 Y156.7348
G0 Z3.0
G0 X53.7503 Y142.7716
G0 Z1.0
G1 F15.0 Z-4.0
G1 F40.0 X55.4805 Y137.527
G3 X53.3059 Y137.8867 I-6.6259 J-33.3022
G3 X51.5239 Y138.0041 I-1.782 J-13.4763
G1 X42.3525
G2 X52.5737 Y146.3378 I47.6475 J-48.0041
G1 X53.7503 Y142.7716
G1 F15.0 X56.7892 Y143.7742
G1 F40.0 X60.4377 Y132.7152
G3 X52.8864 Y134.7144 I-11.5831 J-28.4903
G3 X51.5239 Y134.8041 I-1.3625 J-10.3039
G1 X35.133
G2 X54.3378 Y151.2045 I54.867 J-44.8041
G1 X56.7892 Y143.7742
G1 F15.0 X59.8281 Y144.7767
G1 F40.0 X66.1224 Y125.698
G3 X52.4669 Y131.542 I-17.2678 J-21.4732
G3 X51.5239 Y131.6041 I-0.943 J-7.1315
G1 X29.0715
G3 X28.754 Y131.5971 I0.0 J-7.1936
G2 X52.9818 Y154.1174 I61.246 J-41.5971
G2 X56.2147 Y155.8782 I37.0182 J-64.1174
G3 X56.4266 Y155.0867 I7.0434 J1.4624
G1 X59.8281 Y144.7767
G0 Z3.0
G0 X21.8779 Y118.996
G0 Z1.0
G1 F15.0 Z-4.0
G1 F40.0 Y61.004
G2 Y118.996 I68.1221 J28.996
G0 Z3.0
G0 X88.1084 Y71.59
G0 Z1.0
G1 F15.0 Z-4.0
G1 F40.0 X91.132
G3 X89.6202 Y70.8719 I11.4668 J-26.0933
G3 X88.1084 Y71.59 I-12.9786 J-25.3753
G1 F15.0 Y73.19
G1 F40.0 X94.9216
G3 X99.7743 Y73.9064 I0.0 J16.7936
G1 Y72.2497
G3 X89.6202 Y69.0606 I2.8245 J-26.753
G3 X85.5214 Y70.8906 I-12.9786 J-23.5639
G3 X85.8245 Y73.19 I-36.6668 J6.0031
G1 X88.1084
G1 F15.0 Y76.39
G1 F40.0 X94.9216
G3 X102.9743 Y79.0319 I0.0 J13.5936
G1 Y69.1954
G3 X89.6202 Y65.3291 I-0.3755 J-23.6987
G3 X81.7893 Y68.6326 I-12.9786 J-19.8325
G3 X82.8087 Y76.655 I-32.9347 J8.2611
G3 X85.4801 Y76.39 I2.6714 J13.3285
G1 X88.1084
G1 F15.0 Y79.59
G1 F40.0 X94.9216
G3 X104.7969 Y86.7424 I0.0 J10.3936
G1 X106.1743 Y90.9393
G1 Y65.6842
G3 X89.6202 Y61.3673 I-3.5755 J-20.1875
G3 X77.6064 Y65.9757 I-12.9786 J-15.8706
G3 X79.2357 Y81.6749 I-28.7518 J10.918
G3 X85.4801 Y79.59 I6.2444 J8.3087
G1 X88.1084
G1 F15.0 Y82.79
G1 F40.0 X94.9216
G3 X101.7565 Y87.7403 I0.0 J7.1936
G1 X109.3743 Y110.951
G1 Y61.4165
G3 X89.6202 Y56.938 I-6.7755 J-15.9199
G3 X72.1719 Y62.2111 I-12.9786 J-11.4414
G3 X72.7822 Y90.5593 I-23.3173 J14.6827
G3 X75.5103 Y97.2426 I-23.9276 J13.6656
G1 X78.6487 Y87.7298
G3 X85.4801 Y82.79 I6.8314 J2.2538
G1 X88.1084
G0 Z3.0
G0 X50.0262 Y39.9145
G0 Z1.0
G1 F15.0 Z-4.0
G1 F40.0 Y39.4615
G2 X49.4601 Y39.9145 I39.9738 J50.5385
G1 X50.0262
G1 F15.0 Y43.1145
G1 F40.0 X51.5239
G3 X53.2262 Y43.2215 I0.0 J13.5936
G1 Y38.3711
G1 Y33.2341
G2 X41.2514 Y43.1145 I36.7738 J56.7659
G1 X50.0262
G1 F15.0 Y46.3145
G1 F40.0 X51.5239
G3 X52.8864 Y46.4042 I0.0 J10.3936
G3 X56.4262 Y47.0854 I-4.0318 J30.4895
G1 Y38.3711
G1 Y28.8567
G3 X56.5045 Y27.5833 I10.3936 J0.0
G2 X54.5818 Y28.6539 I33.4955 J62.4167
G2 X34.2383 Y46.3145 I35.4182 J61.3461
G1 X50.0262
G1 F15.0 Y49.5145
G1 F40.0 X51.5239
G3 X52.4669 Y49.5766 I0.0 J7.1936
G3 X60.5944 Y51.9647 I-3.6123 J27.3172
G3 X59.83 Y49.5855 I16.0472 J-6.4681
G3 X59.6262 Y47.8855 I6.9898 J-1.7
G1 Y38.3711
G1 Y28.8567
G3 X59.83 Y27.1567 I7.1936 J0.0
G3 X62.5167 Y21.2537 I16.8116 J4.0888
G2 X52.9818 Y25.8826 I27.4833 J68.7463
G2 X27.957 Y49.6013 I37.0182 J64.1174
G3 X29.0715 Y49.5145 I1.1145 J7.1067
G1 X50.0262
G0 Z3.0
G0 X85.0578 Y16.1288
G0 Z1.0
G1 F15.0 Z-4.0
G3 F40.0 X89.6202 Y19.8042 I-8.4162 J15.1168
G3 X94.2594 Y16.0863 I12.9786 J11.4414
G2 X85.0578 Y16.1288 I-4.2594 J73.9137
G0 Z3.0
G0 X129.2142 Y38.8699
G0 Z1.0
G1 F15.0 Z-4.0
G1 F40.0 Y39.9145
G1 X130.5399
G2 X129.2142 Y38.8699 I-40.5399 J50.0855
G1 F15.0 X126.0142
G1 F40.0 Y43.1145
G1 X138.7486
G2 X126.0142 Y32.7492 I-48.7486 J46.8855
G1 Y38.8699
G1 F15.0 X122.8142
G1 F40.0 Y46.3145
G1 X139.0203
G3 X140.3828 Y46.4042 I0.0 J10.3936
G3 X147.0994 Y48.0781 I-4.0318 J30.4895
G2 X122.6729 Y27.1488 I-57.0994 J41.9219
G3 X122.8142 Y28.8567 I-10.2523 J1.7079
G1 Y38.8699
G1 F15.0 X119.6142
G1 F40.0 Y47.8855
G3 X119.4274 Y49.5145 I-7.1936 J0.0
G1 X139.0203
G3 X139.9633 Y49.5766 I0.0 J7.1936
G3 X157.1506 Y58.8202 I-3.6123 J27.3172
G2 X116.4205 Y20.8383 I-67.1506 J31.1798
G3 X119.4105 Y27.1567 I-13.8217 J10.4072
G3 X119.6142 Y28.8567 I-6.9898 J1.7
G1 Y38.8699
G0 Z3.0
G0 X128.7105 Y23.1648
G0 Z1.0
G1 F15.0 Z-4.0
G2 F40.0 X51.3818 Y23.1114 I-38.7105 J66.8352
G2 Y156.8886 I38.6182 J66.8886
G2 X167.2364 Y90.0 I38.6182 J-66.8886
G2 X128.7105 Y23.1648 I-77.2364 J0.0
G0 Z3.0
G0 X116.0763 Y27.0747
G0 Z1.0
G1 F15.0 Z-4.0
G3 F40.0 X116.3073 Y27.9114 I-13.4775 J4.1709
G3 X116.4206 Y28.8567 I-3.8867 J0.9453
G1 Y47.8855
G3 X116.3073 Y48.8308 I-4.0 J0.0
G3 X114.2553 Y53.4444 I-13.7085 J-3.3341
G3 X116.5679 Y52.7081 I2.3127 J3.2637
G1 X139.0203
G3 X139.5446 Y52.7426 I0.0 J4.0
G3 X156.5185 Y90.5593 I-3.1936 J24.1511
G3 X139.5446 Y128.3759 I-20.1675 J13.6656
G3 X139.0203 Y128.4105 I-0.5244 J-3.9655
G1 X116.5679
G3 X112.5679 Y124.4105 I0.0 J-4.0
G1 Y56.7081
G3 X112.8811 Y55.1566 I4.0 J0.0
G3 X89.6202 Y51.0279 I-10.2822 J-9.6599
G3 X62.9331 Y48.8308 I-12.9786 J-5.5312
G3 X62.8198 Y47.8855 I3.8867 J-0.9453
G1 Y38.3711
G1 Y28.8567
G3 X62.9331 Y27.9114 I4.0 J0.0
G3 X89.6202 Y25.7143 I13.7085 J3.3341
G3 X116.0763 Y27.0747 I12.9786 J5.5312
G0 Z3.0
G0 X91.0236 Y35.9339
G0 Z1.0
G1 F15.0 Z-4.0
G2 F40.0 X90.4634 Y36.8043 I11.5752 J8.0655
G1 Y35.6017
G2 X91.0236 Y35.9339 I2.3136 J-3.263
G0 Z3.0
G0 X66.3294 Y59.92
G0 Z1.0
G1 F15.0 Z-4.0
G3 F40.0 X69.0221 Y90.5593 I-17.4748 J16.9737
G3 X52.0482 Y128.3759 I-20.1675 J13.6656
G3 X51.5239 Y128.4105 I-0.5244 J-3.9655
G1 X29.0715
G3 X25.0715 Y124.4105 I0.0 J-4.0
G1 Y56.7081
G3 X29.0715 Y52.7081 I4.0 J0.0
G1 X51.5239
G3 X52.0482 Y52.7426 I0.0 J4.0
G3 X66.3294 Y59.92 I-3.1936 J24.1511
G0 Z3.0
G0 X83.3311 Y86.6099
G0 Z1.0
G1 F15.0 Z-4.0
G3 F40.0 X85.4801 Y85.9836 I2.149 J3.3737
G1 X94.9216
G3 X98.7221 Y88.7362 I0.0 J4.0
G1 X120.829 Y156.0932
G3 X117.0285 Y161.3405 I-3.8005 J1.2474
G1 X103.7874
G3 X99.9645 Y158.5176 I0.0 J-4.0
G1 X90.349 Y127.2877
G1 X80.9034 Y158.4992
G3 X77.0749 Y161.3405 I-3.8285 J-1.1586
G1 X63.2581
G3 X59.4595 Y156.0873 I0.0 J-4.0
G1 X81.6815 Y88.7304
G3 X83.3311 Y86.6099 I3.7986 J1.2532
G0 Z3.0
M5
M30