( Made using CamBam - http://www.cambam.co.uk )
( BVB-Manuell 9/1/2013 3:45:00 PM )
( T4 : 4.0 )
G21 G90 G64 G40
G0 Z3.0
( T4 : 4.0 )
T4 M6
( 9-innen )
G17
M3 S1000
G0 X102.6643 Y44.7481
G0 Z1.0
G1 F15.0 Z-1.0
G1 F40.0 Y43.7384
G2 X102.5333 I-0.0655 J0.2567
G1 Y44.7481
G1 Y45.7577
G2 X102.6643 I0.0655 J-0.2567
G1 Y44.7481
G1 F15.0 X103.4643
G1 F40.0 Y43.3746
G2 X101.7333 I-0.8655 J0.6205
G1 Y44.7481
G1 Y46.1215
G2 X103.4643 I0.8655 J-0.6205
G1 Y44.7481
G1 F15.0 X102.6643
G1 Z-2.0
G1 F40.0 Y43.7384
G2 X102.5333 I-0.0655 J0.2567
G1 Y44.7481
G1 Y45.7577
G2 X102.6643 I0.0655 J-0.2567
G1 Y44.7481
G1 F15.0 X103.4643
G1 F40.0 Y43.3746
G2 X101.7333 I-0.8655 J0.6205
G1 Y44.7481
G1 Y46.1215
G2 X103.4643 I0.8655 J-0.6205
G1 Y44.7481
G1 F15.0 X102.6643
G1 Z-3.0
G1 F40.0 Y43.7384
G2 X102.5333 I-0.0655 J0.2567
G1 Y44.7481
G1 Y45.7577
G2 X102.6643 I0.0655 J-0.2567
G1 Y44.7481
G1 F15.0 X103.4643
G1 F40.0 Y43.3746
G2 X101.7333 I-0.8655 J0.6205
G1 Y44.7481
G1 Y46.1215
G2 X103.4643 I0.8655 J-0.6205
G1 Y44.7481
G0 Z3.0
M5
M30
