( Made using CamBam - http://www.cambam.co.uk )
( BVB-Manuell 9/1/2013 3:15:52 PM )
( T4 : 4.0 )
G21 G90 G64 G40
G0 Z3.0
( T4 : 4.0 )
T4 M6
( B-links-oben )
G17
M3 S1000
G0 X48.3067 Y104.7148
G0 Z1.0
G1 F15.0 Z-1.0
G1 F40.0 X50.2365
G2 Y103.2314 I-0.6508 J-0.7417
G1 X48.3067
G1 Y104.7148
G1 F15.0 X46.7067
G1 F40.0 Y106.3148
G1 X50.6847
G2 Y101.6314 I-1.099 J-2.3417
G1 X46.7067
G1 Y104.7148
G1 F15.0 X45.1067
G1 F40.0 Y107.9148
G1 X50.9971
G2 Y100.0314 I-1.4114 J-3.9417
G1 X45.1067
G1 Y104.7148
G1 F15.0 X43.5067
G1 F40.0 Y109.5148
G1 X51.2519
G2 Y98.4314 I-1.6662 J-5.5417
G1 X43.5067
G1 Y104.7148
G0 Z3.0
G0 X48.3067
G0 Z0.0
G1 F15.0 Z-2.0
G1 F40.0 X50.2365
G2 Y103.2314 I-0.6508 J-0.7417
G1 X48.3067
G1 Y104.7148
G1 F15.0 X46.7067
G1 F40.0 Y106.3148
G1 X50.6847
G2 Y101.6314 I-1.099 J-2.3417
G1 X46.7067
G1 Y104.7148
G1 F15.0 X45.1067
G1 F40.0 Y107.9148
G1 X50.9971
G2 Y100.0314 I-1.4114 J-3.9417
G1 X45.1067
G1 Y104.7148
G1 F15.0 X43.5067
G1 F40.0 Y109.5148
G1 X51.2519
G2 Y98.4314 I-1.6662 J-5.5417
G1 X43.5067
G1 Y104.7148
G0 Z3.0
G0 X48.3067
G0 Z-1.0
G1 F15.0 Z-3.0
G1 F40.0 X50.2365
G2 Y103.2314 I-0.6508 J-0.7417
G1 X48.3067
G1 Y104.7148
G1 F15.0 X46.7067
G1 F40.0 Y106.3148
G1 X50.6847
G2 Y101.6314 I-1.099 J-2.3417
G1 X46.7067
G1 Y104.7148
G1 F15.0 X45.1067
G1 F40.0 Y107.9148
G1 X50.9971
G2 Y100.0314 I-1.4114 J-3.9417
G1 X45.1067
G1 Y104.7148
G1 F15.0 X43.5067
G1 F40.0 Y109.5148
G1 X51.2519
G2 Y98.4314 I-1.6662 J-5.5417
G1 X43.5067
G1 Y104.7148
G0 Z3.0
M5
M30
