( Made using CamBam - http://www.cambam.co.uk )
( BVB-Manuell 9/1/2013 3:45:56 PM )
( T2 : 2.0 )
G21 G90 G64 G40
G0 Z3.0
( T2 : 2.0 )
T2 M6
( 9-aussen )
G17
M3 S1000
G0 X100.3579 Y33.1197
G0 Z1.0
G1 F15.0 Z-0.5
G3 F40.0 X104.4643 Y33.0491 I2.241 J10.8797
G1 Y30.3558
G2 X100.7333 I-1.8655 J0.8853
G1 Y32.3387
G3 X100.3579 Y33.1197 I-1.0 J0.0
G1 F15.0 X99.4781 Y33.3387
G2 F40.0 X91.8054 Y41.3743 I3.1207 J10.6607
G2 X91.777 Y41.6106 I0.9717 J0.2363
G1 Y44.7481
G1 Y47.8855
G2 X91.8054 Y48.1218 I1.0 J0.0
G2 X113.3923 I10.7935 J-2.6251
G2 X113.4206 Y47.8855 I-0.9717 J-0.2363
G1 Y28.8567
G2 X113.3923 Y28.6204 I-1.0 J0.0
G2 X91.8054 I-10.7935 J2.6251
G2 X91.777 Y28.8567 I0.9717 J0.2363
G1 Y32.3387
G2 X92.777 Y33.3387 I1.0 J0.0
G1 X99.4781
G1 F15.0 X100.3579 Y33.1197
G1 Z-1.0
G3 F40.0 X104.4643 Y33.0491 I2.241 J10.8797
G1 Y30.3558
G2 X100.7333 I-1.8655 J0.8853
G1 Y32.3387
G3 X100.3579 Y33.1197 I-1.0 J0.0
G1 F15.0 X99.4781 Y33.3387
G2 F40.0 X91.8054 Y41.3743 I3.1207 J10.6607
G2 X91.777 Y41.6106 I0.9717 J0.2363
G1 Y44.7481
G1 Y47.8855
G2 X91.8054 Y48.1218 I1.0 J0.0
G2 X113.3923 I10.7935 J-2.6251
G2 X113.4206 Y47.8855 I-0.9717 J-0.2363
G1 Y28.8567
G2 X113.3923 Y28.6204 I-1.0 J0.0
G2 X91.8054 I-10.7935 J2.6251
G2 X91.777 Y28.8567 I0.9717 J0.2363
G1 Y32.3387
G2 X92.777 Y33.3387 I1.0 J0.0
G1 X99.4781
G1 F15.0 X100.3579 Y33.1197
G1 Z-1.5
G3 F40.0 X104.4643 Y33.0491 I2.241 J10.8797
G1 Y30.3558
G2 X100.7333 I-1.8655 J0.8853
G1 Y32.3387
G3 X100.3579 Y33.1197 I-1.0 J0.0
G1 F15.0 X99.4781 Y33.3387
G2 F40.0 X91.8054 Y41.3743 I3.1207 J10.6607
G2 X91.777 Y41.6106 I0.9717 J0.2363
G1 Y44.7481
G1 Y47.8855
G2 X91.8054 Y48.1218 I1.0 J0.0
G2 X113.3923 I10.7935 J-2.6251
G2 X113.4206 Y47.8855 I-0.9717 J-0.2363
G1 Y28.8567
G2 X113.3923 Y28.6204 I-1.0 J0.0
G2 X91.8054 I-10.7935 J2.6251
G2 X91.777 Y28.8567 I0.9717 J0.2363
G1 Y32.3387
G2 X92.777 Y33.3387 I1.0 J0.0
G1 X99.4781
G1 F15.0 X100.3579 Y33.1197
G1 Z-2.0
G3 F40.0 X104.4643 Y33.0491 I2.241 J10.8797
G1 Y30.3558
G2 X100.7333 I-1.8655 J0.8853
G1 Y32.3387
G3 X100.3579 Y33.1197 I-1.0 J0.0
G1 F15.0 X99.4781 Y33.3387
G2 F40.0 X91.8054 Y41.3743 I3.1207 J10.6607
G2 X91.777 Y41.6106 I0.9717 J0.2363
G1 Y44.7481
G1 Y47.8855
G2 X91.8054 Y48.1218 I1.0 J0.0
G2 X113.3923 I10.7935 J-2.6251
G2 X113.4206 Y47.8855 I-0.9717 J-0.2363
G1 Y28.8567
G2 X113.3923 Y28.6204 I-1.0 J0.0
G2 X91.8054 I-10.7935 J2.6251
G2 X91.777 Y28.8567 I0.9717 J0.2363
G1 Y32.3387
G2 X92.777 Y33.3387 I1.0 J0.0
G1 X99.4781
G1 F15.0 X100.3579 Y33.1197
G1 Z-2.5
G3 F40.0 X104.4643 Y33.0491 I2.241 J10.8797
G1 Y30.3558
G2 X100.7333 I-1.8655 J0.8853
G1 Y32.3387
G3 X100.3579 Y33.1197 I-1.0 J0.0
G1 F15.0 X99.4781 Y33.3387
G2 F40.0 X91.8054 Y41.3743 I3.1207 J10.6607
G2 X91.777 Y41.6106 I0.9717 J0.2363
G1 Y44.7481
G1 Y47.8855
G2 X91.8054 Y48.1218 I1.0 J0.0
G2 X113.3923 I10.7935 J-2.6251
G2 X113.4206 Y47.8855 I-0.9717 J-0.2363
G1 Y28.8567
G2 X113.3923 Y28.6204 I-1.0 J0.0
G2 X91.8054 I-10.7935 J2.6251
G2 X91.777 Y28.8567 I0.9717 J0.2363
G1 Y32.3387
G2 X92.777 Y33.3387 I1.0 J0.0
G1 X99.4781
G1 F15.0 X100.3579 Y33.1197
G1 Z-3.0
G3 F40.0 X104.4643 Y33.0491 I2.241 J10.8797
G1 Y30.3558
G2 X100.7333 I-1.8655 J0.8853
G1 Y32.3387
G3 X100.3579 Y33.1197 I-1.0 J0.0
G1 F15.0 X99.4781 Y33.3387
G2 F40.0 X91.8054 Y41.3743 I3.1207 J10.6607
G2 X91.777 Y41.6106 I0.9717 J0.2363
G1 Y44.7481
G1 Y47.8855
G2 X91.8054 Y48.1218 I1.0 J0.0
G2 X113.3923 I10.7935 J-2.6251
G2 X113.4206 Y47.8855 I-0.9717 J-0.2363
G1 Y28.8567
G2 X113.3923 Y28.6204 I-1.0 J0.0
G2 X91.8054 I-10.7935 J2.6251
G2 X91.777 Y28.8567 I0.9717 J0.2363
G1 Y32.3387
G2 X92.777 Y33.3387 I1.0 J0.0
G1 X99.4781
G1 F15.0 X100.3579 Y33.1197
G1 Z-3.5
G3 F40.0 X104.4643 Y33.0491 I2.241 J10.8797
G1 Y30.3558
G2 X100.7333 I-1.8655 J0.8853
G1 Y32.3387
G3 X100.3579 Y33.1197 I-1.0 J0.0
G1 F15.0 X99.4781 Y33.3387
G2 F40.0 X91.8054 Y41.3743 I3.1207 J10.6607
G2 X91.777 Y41.6106 I0.9717 J0.2363
G1 Y44.7481
G1 Y47.8855
G2 X91.8054 Y48.1218 I1.0 J0.0
G2 X113.3923 I10.7935 J-2.6251
G2 X113.4206 Y47.8855 I-0.9717 J-0.2363
G1 Y28.8567
G2 X113.3923 Y28.6204 I-1.0 J0.0
G2 X91.8054 I-10.7935 J2.6251
G2 X91.777 Y28.8567 I0.9717 J0.2363
G1 Y32.3387
G2 X92.777 Y33.3387 I1.0 J0.0
G1 X99.4781
G1 F15.0 X100.3579 Y33.1197
G1 Z-4.0
G3 F40.0 X104.4643 Y33.0491 I2.241 J10.8797
G1 Y30.3558
G2 X100.7333 I-1.8655 J0.8853
G1 Y32.3387
G3 X100.3579 Y33.1197 I-1.0 J0.0
G1 F15.0 X99.4781 Y33.3387
G2 F40.0 X91.8054 Y41.3743 I3.1207 J10.6607
G2 X91.777 Y41.6106 I0.9717 J0.2363
G1 Y44.7481
G1 Y47.8855
G2 X91.8054 Y48.1218 I1.0 J0.0
G2 X113.3923 I10.7935 J-2.6251
G2 X113.4206 Y47.8855 I-0.9717 J-0.2363
G1 Y28.8567
G2 X113.3923 Y28.6204 I-1.0 J0.0
G2 X91.8054 I-10.7935 J2.6251
G2 X91.777 Y28.8567 I0.9717 J0.2363
G1 Y32.3387
G2 X92.777 Y33.3387 I1.0 J0.0
G1 X99.4781
G0 Z3.0
M5
M30
