( Made using CamBam - http://www.cambam.co.uk )
( BVB-Manuell 9/1/2013 3:16:07 PM )
( T4 : 4.0 )
G21 G90 G64 G40
G0 Z3.0
( T4 : 4.0 )
T4 M6
( B-rechts-unten )
G17
M3 S1000
G0 X135.8031 Y76.4038
G0 Z1.0
G1 F15.0 Z-1.0
G1 F40.0 Y77.8871
G1 X137.7329
G2 Y76.4038 I-0.6508 J-0.7417
G1 X135.8031
G1 F15.0 X134.2031
G1 F40.0 Y79.4871
G1 X138.1811
G2 Y74.8038 I-1.099 J-2.3417
G1 X134.2031
G1 Y76.4038
G1 F15.0 X132.6031
G1 F40.0 Y81.0871
G1 X138.4935
G2 Y73.2038 I-1.4114 J-3.9417
G1 X132.6031
G1 Y76.4038
G1 F15.0 X131.0031
G1 F40.0 Y82.6871
G1 X138.7483
G2 Y71.6038 I-1.6662 J-5.5417
G1 X131.0031
G1 Y76.4038
G0 Z3.0
G0 X135.8031
G0 Z0.0
G1 F15.0 Z-2.0
G1 F40.0 Y77.8871
G1 X137.7329
G2 Y76.4038 I-0.6508 J-0.7417
G1 X135.8031
G1 F15.0 X134.2031
G1 F40.0 Y79.4871
G1 X138.1811
G2 Y74.8038 I-1.099 J-2.3417
G1 X134.2031
G1 Y76.4038
G1 F15.0 X132.6031
G1 F40.0 Y81.0871
G1 X138.4935
G2 Y73.2038 I-1.4114 J-3.9417
G1 X132.6031
G1 Y76.4038
G1 F15.0 X131.0031
G1 F40.0 Y82.6871
G1 X138.7483
G2 Y71.6038 I-1.6662 J-5.5417
G1 X131.0031
G1 Y76.4038
G0 Z3.0
G0 X135.8031
G0 Z-1.0
G1 F15.0 Z-3.0
G1 F40.0 Y77.8871
G1 X137.7329
G2 Y76.4038 I-0.6508 J-0.7417
G1 X135.8031
G1 F15.0 X134.2031
G1 F40.0 Y79.4871
G1 X138.1811
G2 Y74.8038 I-1.099 J-2.3417
G1 X134.2031
G1 Y76.4038
G1 F15.0 X132.6031
G1 F40.0 Y81.0871
G1 X138.4935
G2 Y73.2038 I-1.4114 J-3.9417
G1 X132.6031
G1 Y76.4038
G1 F15.0 X131.0031
G1 F40.0 Y82.6871
G1 X138.7483
G2 Y71.6038 I-1.6662 J-5.5417
G1 X131.0031
G1 Y76.4038
G0 Z3.0
M5
M30
