( Made using CamBam - http://www.cambam.co.uk )
( BVB-Manuell 9/1/2013 11:51:22 AM )
( T3 : 3.0 )
( T4 : 4.0 )
( T8 : 8.0 )
G21 G90 G64 G40
G0 Z3.0
( T8 : 8.0 )
T8 M6
( Innenbereich )
G17
M3 S1000
G0 X164.0364 Y90.0
G0 Z1.0
G1 F15.0 Z-4.0
G2 F40.0 X163.5351 Y81.3993 I-74.0364 J0.0
G3 X160.2786 Y90.5593 I-27.1841 J-4.5056
G3 X163.455 Y99.26 I-23.9276 J13.6656
G2 X164.0364 Y90.0 I-73.455 J-9.26
G0 Z3.0
G0 X137.6475 Y138.0041
G0 Z1.0
G1 F15.0 Z-4.0
G1 F40.0 X124.9892
G1 X127.6708 Y146.1746
G2 X137.6475 Y138.0041 I-37.6708 J-56.1746
G1 F15.0 X139.9018 Y140.2752
G2 F40.0 X145.9507 Y133.4432 I-49.9018 J-50.2752
G3 X140.3828 Y134.7144 I-9.5997 J-29.2184
G3 X139.0203 Y134.8041 I-1.3625 J-10.3039
G1 X120.571
G1 X125.9067 Y151.0614
G2 X139.9018 Y140.2752 I-35.9067 J-61.0614
G1 F15.0 X142.1561 Y142.5464
G2 F40.0 X156.0039 Y123.539 I-52.1561 J-52.5464
G3 X139.9633 Y131.542 I-19.6529 J-19.3142
G3 X139.0203 Y131.6041 I-0.943 J-7.1315
G1 X116.5679
G3 X116.1488 Y131.5918 I0.0 J-7.1936
G1 X123.8634 Y155.0973
G3 X124.043 Y155.7454 I-6.8349 J2.2432
G2 X142.1561 Y142.5464 I-34.043 J-65.7454
G0 Z3.0
G0 X93.0157 Y157.6765
G0 Z1.0
G1 F15.0 Z-4.0
G1 F40.0 X90.4017 Y149.1865
G1 X87.0229 Y160.3511
G3 X86.8871 Y160.7679 I-9.948 J-3.0106
G2 X93.9605 Y160.7256 I3.1129 J-70.7679
G3 X93.854 Y160.399 I9.8269 J-3.385
G1 X93.0157 Y157.6765
G1 F15.0 X96.074 Y156.7348
G1 F40.0 X90.3753 Y138.2261
G1 X83.9601 Y159.4242
G3 X80.8435 Y163.468 I-6.8852 J-2.0837
G2 X99.872 Y163.3752 I9.1565 J-73.468
G3 X96.9123 Y159.4573 I3.9154 J-6.0347
G1 X96.074 Y156.7348
G0 Z3.0
G0 X53.7503 Y142.7716
G0 Z1.0
G1 F15.0 Z-4.0
G1 F40.0 X55.4805 Y137.527
G3 X53.3059 Y137.8867 I-6.6259 J-33.3022
G3 X51.5239 Y138.0041 I-1.782 J-13.4763
G1 X42.3525
G2 X52.5737 Y146.3378 I47.6475 J-48.0041
G1 X53.7503 Y142.7716
G1 F15.0 X56.7892 Y143.7742
G1 F40.0 X60.4377 Y132.7152
G3 X52.8864 Y134.7144 I-11.5831 J-28.4903
G3 X51.5239 Y134.8041 I-1.3625 J-10.3039
G1 X35.133
G2 X54.3378 Y151.2045 I54.867 J-44.8041
G1 X56.7892 Y143.7742
G1 F15.0 X59.8281 Y144.7767
G1 F40.0 X66.1224 Y125.698
G3 X52.4669 Y131.542 I-17.2678 J-21.4732
G3 X51.5239 Y131.6041 I-0.943 J-7.1315
G1 X29.0715
G3 X28.754 Y131.5971 I0.0 J-7.1936
G2 X52.9818 Y154.1174 I61.246 J-41.5971
G2 X56.2147 Y155.8782 I37.0182 J-64.1174
G3 X56.4266 Y155.0867 I7.0434 J1.4624
G1 X59.8281 Y144.7767
G0 Z3.0
G0 X21.8779 Y118.996
G0 Z1.0
G1 F15.0 Z-4.0
G1 F40.0 Y61.004
G2 Y118.996 I68.1221 J28.996
G0 Z3.0
G0 X88.1084 Y71.59
G0 Z1.0
G1 F15.0 Z-4.0
G1 F40.0 X91.132
G3 X89.6202 Y70.8719 I11.4668 J-26.0933
G3 X88.1084 Y71.59 I-12.9786 J-25.3753
G1 F15.0 Y73.19
G1 F40.0 X94.9216
G3 X99.7743 Y73.9064 I0.0 J16.7936
G1 Y72.2497
G3 X89.6202 Y69.0606 I2.8245 J-26.753
G3 X85.5214 Y70.8906 I-12.9786 J-23.5639
G3 X85.8245 Y73.19 I-36.6668 J6.0031
G1 X88.1084
G1 F15.0 Y76.39
G1 F40.0 X94.9216
G3 X102.9743 Y79.0319 I0.0 J13.5936
G1 Y69.1954
G3 X89.6202 Y65.3291 I-0.3755 J-23.6987
G3 X81.7893 Y68.6326 I-12.9786 J-19.8325
G3 X82.8087 Y76.655 I-32.9347 J8.2611
G3 X85.4801 Y76.39 I2.6714 J13.3285
G1 X88.1084
G1 F15.0 Y79.59
G1 F40.0 X94.9216
G3 X104.7969 Y86.7424 I0.0 J10.3936
G1 X106.1743 Y90.9393
G1 Y65.6842
G3 X89.6202 Y61.3673 I-3.5755 J-20.1875
G3 X77.6064 Y65.9757 I-12.9786 J-15.8706
G3 X79.2357 Y81.6749 I-28.7518 J10.918
G3 X85.4801 Y79.59 I6.2444 J8.3087
G1 X88.1084
G1 F15.0 Y82.79
G1 F40.0 X94.9216
G3 X101.7565 Y87.7403 I0.0 J7.1936
G1 X109.3743 Y110.951
G1 Y61.4165
G3 X89.6202 Y56.938 I-6.7755 J-15.9199
G3 X72.1719 Y62.2111 I-12.9786 J-11.4414
G3 X72.7822 Y90.5593 I-23.3173 J14.6827
G3 X75.5103 Y97.2426 I-23.9276 J13.6656
G1 X78.6487 Y87.7298
G3 X85.4801 Y82.79 I6.8314 J2.2538
G1 X88.1084
G0 Z3.0
G0 X50.0262 Y39.9145
G0 Z1.0
G1 F15.0 Z-4.0
G1 F40.0 Y39.4615
G2 X49.4601 Y39.9145 I39.9738 J50.5385
G1 X50.0262
G1 F15.0 Y43.1145
G1 F40.0 X51.5239
G3 X53.2262 Y43.2215 I0.0 J13.5936
G1 Y38.3711
G1 Y33.2341
G2 X41.2514 Y43.1145 I36.7738 J56.7659
G1 X50.0262
G1 F15.0 Y46.3145
G1 F40.0 X51.5239
G3 X52.8864 Y46.4042 I0.0 J10.3936
G3 X56.4262 Y47.0854 I-4.0318 J30.4895
G1 Y38.3711
G1 Y28.8567
G3 X56.5045 Y27.5833 I10.3936 J0.0
G2 X54.5818 Y28.6539 I33.4955 J62.4167
G2 X34.2383 Y46.3145 I35.4182 J61.3461
G1 X50.0262
G1 F15.0 Y49.5145
G1 F40.0 X51.5239
G3 X52.4669 Y49.5766 I0.0 J7.1936
G3 X60.5944 Y51.9647 I-3.6123 J27.3172
G3 X59.83 Y49.5855 I16.0472 J-6.4681
G3 X59.6262 Y47.8855 I6.9898 J-1.7
G1 Y38.3711
G1 Y28.8567
G3 X59.83 Y27.1567 I7.1936 J0.0
G3 X62.5167 Y21.2537 I16.8116 J4.0888
G2 X52.9818 Y25.8826 I27.4833 J68.7463
G2 X27.957 Y49.6013 I37.0182 J64.1174
G3 X29.0715 Y49.5145 I1.1145 J7.1067
G1 X50.0262
G0 Z3.0
G0 X85.0578 Y16.1288
G0 Z1.0
G1 F15.0 Z-4.0
G3 F40.0 X89.6202 Y19.8042 I-8.4162 J15.1168
G3 X94.2594 Y16.0863 I12.9786 J11.4414
G2 X85.0578 Y16.1288 I-4.2594 J73.9137
G0 Z3.0
G0 X129.2142 Y38.8699
G0 Z1.0
G1 F15.0 Z-4.0
G1 F40.0 Y39.9145
G1 X130.5399
G2 X129.2142 Y38.8699 I-40.5399 J50.0855
G1 F15.0 X126.0142
G1 F40.0 Y43.1145
G1 X138.7486
G2 X126.0142 Y32.7492 I-48.7486 J46.8855
G1 Y38.8699
G1 F15.0 X122.8142
G1 F40.0 Y46.3145
G1 X139.0203
G3 X140.3828 Y46.4042 I0.0 J10.3936
G3 X147.0994 Y48.0781 I-4.0318 J30.4895
G2 X122.6729 Y27.1488 I-57.0994 J41.9219
G3 X122.8142 Y28.8567 I-10.2523 J1.7079
G1 Y38.8699
G1 F15.0 X119.6142
G1 F40.0 Y47.8855
G3 X119.4274 Y49.5145 I-7.1936 J0.0
G1 X139.0203
G3 X139.9633 Y49.5766 I0.0 J7.1936
G3 X157.1506 Y58.8202 I-3.6123 J27.3172
G2 X116.4205 Y20.8383 I-67.1506 J31.1798
G3 X119.4105 Y27.1567 I-13.8217 J10.4072
G3 X119.6142 Y28.8567 I-6.9898 J1.7
G1 Y38.8699
G0 Z3.0
G0 X128.7105 Y23.1648
G0 Z1.0
G1 F15.0 Z-4.0
G2 F40.0 X51.3818 Y23.1114 I-38.7105 J66.8352
G2 Y156.8886 I38.6182 J66.8886
G2 X167.2364 Y90.0 I38.6182 J-66.8886
G2 X128.7105 Y23.1648 I-77.2364 J0.0
G0 Z3.0
G0 X116.0763 Y27.0747
G0 Z1.0
G1 F15.0 Z-4.0
G3 F40.0 X116.3073 Y27.9114 I-13.4775 J4.1709
G3 X116.4206 Y28.8567 I-3.8867 J0.9453
G1 Y47.8855
G3 X116.3073 Y48.8308 I-4.0 J0.0
G3 X114.2553 Y53.4444 I-13.7085 J-3.3341
G3 X116.5679 Y52.7081 I2.3127 J3.2637
G1 X139.0203
G3 X139.5446 Y52.7426 I0.0 J4.0
G3 X156.5185 Y90.5593 I-3.1936 J24.1511
G3 X139.5446 Y128.3759 I-20.1675 J13.6656
G3 X139.0203 Y128.4105 I-0.5244 J-3.9655
G1 X116.5679
G3 X112.5679 Y124.4105 I0.0 J-4.0
G1 Y56.7081
G3 X112.8811 Y55.1566 I4.0 J0.0
G3 X89.6202 Y51.0279 I-10.2822 J-9.6599
G3 X62.9331 Y48.8308 I-12.9786 J-5.5312
G3 X62.8198 Y47.8855 I3.8867 J-0.9453
G1 Y38.3711
G1 Y28.8567
G3 X62.9331 Y27.9114 I4.0 J0.0
G3 X89.6202 Y25.7143 I13.7085 J3.3341
G3 X116.0763 Y27.0747 I12.9786 J5.5312
G0 Z3.0
G0 X91.0236 Y35.9339
G0 Z1.0
G1 F15.0 Z-4.0
G2 F40.0 X90.4634 Y36.8043 I11.5752 J8.0655
G1 Y35.6017
G2 X91.0236 Y35.9339 I2.3136 J-3.263
G0 Z3.0
G0 X66.3294 Y59.92
G0 Z1.0
G1 F15.0 Z-4.0
G3 F40.0 X69.0221 Y90.5593 I-17.4748 J16.9737
G3 X52.0482 Y128.3759 I-20.1675 J13.6656
G3 X51.5239 Y128.4105 I-0.5244 J-3.9655
G1 X29.0715
G3 X25.0715 Y124.4105 I0.0 J-4.0
G1 Y56.7081
G3 X29.0715 Y52.7081 I4.0 J0.0
G1 X51.5239
G3 X52.0482 Y52.7426 I0.0 J4.0
G3 X66.3294 Y59.92 I-3.1936 J24.1511
G0 Z3.0
G0 X83.3311 Y86.6099
G0 Z1.0
G1 F15.0 Z-4.0
G3 F40.0 X85.4801 Y85.9836 I2.149 J3.3737
G1 X94.9216
G3 X98.7221 Y88.7362 I0.0 J4.0
G1 X120.829 Y156.0932
G3 X117.0285 Y161.3405 I-3.8005 J1.2474
G1 X103.7874
G3 X99.9645 Y158.5176 I0.0 J-4.0
G1 X90.349 Y127.2877
G1 X80.9034 Y158.4992
G3 X77.0749 Y161.3405 I-3.8285 J-1.1586
G1 X63.2581
G3 X59.4595 Y156.0873 I0.0 J-4.0
G1 X81.6815 Y88.7304
G3 X83.3311 Y86.6099 I3.7986 J1.2532
( Kreis-aussen )
G0 Z3.0
( T3 : 3.0 )
T3 M6
M3 S1000
G0 X179.1485 Y90.0
G0 Z1.0
G1 F15.0 Z-4.0
G2 F40.0 X45.4258 Y12.7951 I-89.1485 J0.0
G2 Y167.2049 I44.5742 J77.2049
G2 X179.1485 Y90.0 I44.5742 J-77.2049
G1 F15.0 X179.0127
G3 F40.0 X45.4937 Y167.0872 I-89.0127 J0.0
G3 Y12.9128 I44.5063 J-77.0872
G3 X179.0127 Y90.0 I44.5063 J77.0872
( B-links )
G0 Z3.0
( T8 : 8.0 )
T8 M6
M3 S1000
G0 X51.2461 Y115.5148
G0 Z1.0
G1 F15.0 Z-4.0
G1 F40.0 X41.5067
G3 X37.5067 Y111.5148 I0.0 J-4.0
G1 Y96.4314
G3 X41.5067 Y92.4314 I4.0 J0.0
G1 X51.5239
G3 X52.5195 Y92.5573 I0.0 J4.0
G3 Y115.3889 I-2.9338 J11.4158
G3 X51.5239 Y115.5148 I-0.9956 J-3.8741
G1 X51.2461
G0 Z3.0
G0 X37.1127 Y117.2105
G0 Z1.0
G1 F15.0 Z-4.0
G3 F40.0 X36.2715 Y116.4485 I4.394 J-5.6957
G1 Y117.2105
G1 X37.1127
G0 Z3.0
G0 X36.2715 Y91.4977
G0 Z1.0
G1 F15.0 Z-4.0
G3 F40.0 X37.3515 Y90.5593 I5.2351 J4.9337
G3 X36.2715 Y89.6208 I4.1552 J-5.8721
G1 Y91.4977
G0 Z3.0
G0 X56.255 Y90.5593
G0 Z1.0
G1 F15.0 Z-4.0
G3 F40.0 X56.7536 Y90.8189 I-6.6694 J13.4138
G3 Y90.2996 I7.1953 J-0.2597
G3 X56.255 Y90.5593 I-7.1679 J-13.1542
G0 Z3.0
G0 X36.2715 Y64.6701
G0 Z1.0
G1 F15.0 Z-4.0
G3 F40.0 X37.1127 Y63.9081 I5.2351 J4.9337
G1 X36.2715
G1 Y64.6701
G1 F15.0 X33.0715
G1 F40.0 Y120.4105
G1 X51.2461
G2 X60.9836 Y93.2439 I-2.3915 J-16.1856
G3 Y87.8747 I2.9653 J-2.6846
G2 X51.2461 Y60.7081 I-12.129 J-10.9809
G1 X33.0715
G1 Y64.6701
G0 Z3.0
G0 X38.0539 Y67.5843
G0 Z1.0
G1 F15.0 Z-4.0
G3 F40.0 X41.5067 Y65.6038 I3.4528 J2.0195
G1 X51.5239
G3 X52.5195 Y65.7297 I0.0 J4.0
G3 Y88.5612 I-2.9338 J11.4158
G3 X51.5239 Y88.6871 I-0.9956 J-3.8741
G1 X41.5067
G3 X37.5067 Y84.6871 I0.0 J-4.0
G1 Y69.6038
G3 X38.0539 Y67.5843 I4.0 J0.0
( B-rechts )
G0 Z3.0
( T4 : 4.0 )
T4 M6
M3 S1000
G0 X125.9966 Y63.5081
G0 Z1.0
G1 F15.0 Z-4.0
G1 F40.0 X123.3679
G1 Y65.8035
G3 X125.9966 Y63.5081 I5.6351 J3.8002
G0 Z3.0
G0 X124.1679 Y90.5466
G0 Z1.0
G1 F15.0 Z-4.0
G1 F40.0 Y90.572
G3 X124.1834 Y90.5593 I4.8351 J5.8594
G3 X124.1679 Y90.5466 I4.8197 J-5.8721
G1 F15.0 X124.6771 Y89.9295
G3 F40.0 X123.3679 Y88.4874 I4.326 J-5.2424
G1 Y92.6312
G3 X125.5804 Y90.5593 I5.6351 J3.8002
G3 X124.6771 Y89.9295 I3.4226 J-5.8721
G0 Z3.0
G0 X142.8048 Y90.5593
G0 Z1.0
G1 F15.0 Z-4.0
G3 F40.0 X144.7176 Y91.5482 I-5.7227 J13.4138
G3 Y89.5704 I6.7277 J-0.9889
G3 X142.8048 Y90.5593 I-7.6355 J-12.4249
G0 Z3.0
G0 X123.3679 Y115.315
G0 Z1.0
G1 F15.0 Z-4.0
G1 F40.0 Y117.6105
G1 X125.9966
G3 X123.3679 Y115.315 I3.0065 J-6.0957
G0 Z3.0
G0 X126.021 Y113.5258
G0 Z1.0
G1 F15.0 Z-4.0
G3 F40.0 X125.4063 Y111.5148 I2.9821 J-2.011
G1 Y96.4314
G3 X129.0031 Y92.8346 I3.5968 J0.0
G1 X139.0203
G3 X139.9155 Y92.9478 I0.0 J3.5968
G3 Y114.9984 I-2.8335 J11.0253
G3 X139.0203 Y115.1116 I-0.8953 J-3.4836
G1 X129.0031
G3 X126.021 Y113.5258 I0.0 J-3.5968
G1 F15.0 X127.3449 Y112.633
G3 F40.0 X127.0031 Y111.5148 I1.6582 J-1.1182
G1 Y96.4314
G3 X129.0031 Y94.4314 I2.0 J0.0
G1 X139.0203
G3 X139.5181 Y94.4944 I0.0 J2.0
G3 Y113.4518 I-2.436 J9.4787
G3 X139.0203 Y113.5148 I-0.4978 J-1.9371
G1 X129.0031
G3 X127.3449 Y112.633 I0.0 J-2.0
G0 Z3.0
G0 X124.6945 Y114.4204
G0 Z1.0
G1 F15.0 Z-4.0
G2 F40.0 X129.0031 Y116.7116 I4.3086 J-2.9056
G1 X139.0203
G2 X140.3138 Y116.548 I0.0 J-5.1968
G2 Y91.3982 I-3.2317 J-12.5749
G2 X139.0203 Y91.2346 I-1.2935 J5.0332
G1 X129.0031
G2 X123.8063 Y96.4314 I0.0 J5.1968
G1 Y111.5148
G2 X124.6945 Y114.4204 I5.1968 J0.0
G0 Z3.0
G0 X128.4872 Y88.2467
G0 Z1.0
G1 F15.0 Z-4.0
G3 F40.0 X125.4063 Y84.6871 I0.5158 J-3.5596
G1 Y69.6038
G3 X129.0031 Y66.007 I3.5968 J0.0
G1 X139.0203
G3 X139.9155 Y66.1202 I0.0 J3.5968
G3 Y88.1707 I-2.8335 J11.0253
G3 X139.0203 Y88.2839 I-0.8953 J-3.4836
G1 X129.0031
G3 X128.4872 Y88.2467 I0.0 J-3.5968
G1 F15.0 X128.7162 Y86.6665
G3 F40.0 X127.0031 Y84.6871 I0.2868 J-1.9793
G1 Y69.6038
G3 X129.0031 Y67.6038 I2.0 J0.0
G1 X139.0203
G3 X139.5181 Y67.6667 I0.0 J2.0
G3 Y86.6242 I-2.436 J9.4787
G3 X139.0203 Y86.6871 I-0.4978 J-1.9371
G1 X129.0031
G3 X128.7162 Y86.6665 I0.0 J-2.0
G0 Z3.0
G0 X128.2578 Y89.8302
G0 Z1.0
G1 F15.0 Z-4.0
G2 F40.0 X129.0031 Y89.8839 I0.7453 J-5.1431
G1 X139.0203
G2 X140.3138 Y89.7204 I0.0 J-5.1968
G2 Y64.5705 I-3.2317 J-12.5749
G2 X139.0203 Y64.407 I-1.2935 J5.0332
G1 X129.0031
G2 X123.8063 Y69.6038 I0.0 J5.1968
G1 Y84.6871
G2 X128.2578 Y89.8302 I5.1968 J0.0
G0 Z3.0
G0 X121.7679
G0 Z1.0
G1 F15.0 Z-4.0
G1 F40.0 Y119.2105
G1 X138.6526
G2 X147.5904 Y94.0493 I-2.3016 J-14.9856
G3 Y87.0693 I3.8549 J-3.49
G2 X138.6526 Y61.9081 I-11.2394 J-10.1756
G1 X121.7679
G1 Y89.8302
G1 F15.0 X120.1679
G1 F40.0 Y120.8105
G1 X138.7717
G2 X148.7765 Y92.9754 I-2.4207 J-16.5856
G3 Y88.1431 I2.6688 J-2.4161
G2 X138.7717 Y60.3081 I-12.4255 J-11.2494
G1 X120.1679
G1 Y89.8302
G1 F15.0 X118.5679
G1 F40.0 Y122.4105
G1 X138.8852
G2 X149.9626 Y91.9016 I-2.5342 J-18.1856
G3 Y89.217 I1.4826 J-1.3423
G2 X138.8852 Y58.7081 I-13.6116 J-12.3233
G1 X118.5679
G1 Y89.8302
( V )
S1000
G0 Z3.0
G0 X89.2887 Y105.2503
G0 Z1.0
G1 F15.0 Z-4.0
G3 F40.0 X91.0822 Y105.2223 I1.0273 J8.3369
G1 X90.1924 Y102.5112
G1 X89.2887 Y105.2503
G1 F15.0 X87.7693 Y104.7491
G1 F40.0 X86.7671 Y107.7869
G3 X93.548 Y107.6045 I3.5489 J5.8004
G1 X90.1963 Y97.3924
G1 X87.7693 Y104.7491
G1 F15.0 X86.2498 Y104.2478
G1 F40.0 X70.4493 Y152.1405
G1 X73.2157
G1 X85.3389 Y112.0811
G3 X95.2858 Y112.0571 I4.9771 J1.5062
G1 X107.6272 Y152.1405
G1 X109.8489
G1 X91.1554 Y95.1836
G1 X89.2402
G1 X86.2498 Y104.2478
G1 F15.0 X84.7304 Y103.7465
G1 F40.0 X68.2366 Y153.7405
G1 X74.4031
G1 X86.8703 Y112.5445
G3 X93.7566 Y112.5279 I3.4457 J1.0428
G1 X106.4457 Y153.7405
G1 X112.058
G1 X92.3142 Y93.5836
G1 X88.0833
G1 X84.7304 Y103.7465
G1 F15.0 X83.2109 Y103.2452
G1 F40.0 X66.0239 Y155.3405
G1 X75.5906
G1 X88.4017 Y113.008
G3 X92.2274 Y112.9988 I1.9143 J0.5793
G1 X105.2642 Y155.3405
G1 X114.2671
G1 X93.473 Y91.9836
G1 X86.9263
G1 X83.2109 Y103.2452
( 0 )
S1000
G0 Z3.0
G0 X84.4634 Y38.3711
G0 Z1.0
G1 F15.0 Z-4.0
G1 F40.0 Y29.1099
G2 X68.8198 I-7.8218 J2.1357
G1 Y38.3711
G1 Y47.6323
G2 X84.4634 I7.8218 J-2.1357
G1 Y38.3711
G1 F15.0 X82.3039
G1 F40.0 Y46.5885
G3 X82.1219 Y47.5809 I-2.7968 J0.0
G3 X71.1613 I-5.4803 J-2.0799
G3 X70.9793 Y46.5885 I2.6148 J-0.9924
G1 Y38.3711
G1 Y30.1537
G3 X71.1613 Y29.1613 I2.7968 J0.0
G3 X82.1219 I5.4803 J2.0799
G3 X82.3039 Y30.1537 I-2.6148 J0.9924
G1 Y38.3711
G1 F15.0 X81.5071
G1 F40.0 Y46.5885
G3 X81.377 Y47.2982 I-2.0 J0.0
G3 X71.9062 I-4.7354 J-1.7971
G3 X71.7761 Y46.5885 I1.8699 J-0.7096
G1 Y38.3711
G1 Y30.1537
G3 X71.9062 Y29.444 I2.0 J0.0
G3 X81.377 I4.7354 J1.7971
G3 X81.5071 Y30.1537 I-1.8699 J0.7096
G1 Y38.3711
G1 F15.0 X83.6634
G1 F40.0 Y47.5222
G3 X69.6198 I-7.0218 J-2.0256
G1 Y38.3711
G1 Y29.2199
G3 X83.6634 I7.0218 J2.0256
G1 Y38.3711
( 9 )
S1000
G0 Z3.0
G0 X97.7333 Y44.7481
G0 Z1.0
G1 F15.0 Z-4.0
G1 F40.0 Y42.9076
G3 X97.8635 Y42.1979 I2.0 J0.0
G3 X107.3342 I4.7354 J1.7971
G3 X107.4643 Y42.9076 I-1.8699 J0.7096
G1 Y44.7481
G1 Y46.5885
G3 X107.3342 Y47.2982 I-2.0 J0.0
G3 X97.8635 I-4.7354 J-1.7971
G3 X97.7333 Y46.5885 I1.8699 J-0.7096
G1 Y44.7481
G0 Z3.0
G0 X107.3805 Y38.2668
G0 Z1.0
G1 F15.0 Z-4.0
G3 F40.0 X108.0206 Y38.8686 I-4.7817 J5.7282
G1 Y37.8872
G3 X107.3805 Y38.2668 I-2.5563 J-3.5812
G1 F15.0 X107.0321 Y37.5467
G3 F40.0 X105.2916 Y37.9019 I-1.5678 J-3.2407
G3 X108.8206 Y41.6144 I-2.6928 J6.0932
G1 Y35.608
G3 X107.0321 Y37.5467 I-3.3563 J-1.302
G1 F15.0 X106.3353 Y36.1064
G3 F40.0 X104.8974 Y36.224 I-0.871 J-1.8004
G2 X94.777 Y41.8638 I-2.2985 J7.7755
G1 Y44.7481
G1 Y47.6323
G2 X110.4206 I7.8218 J-2.1357
G1 Y29.1099
G2 X94.777 I-7.8218 J2.1357
G1 Y30.3387
G1 X97.7333
G1 Y30.1537
G3 X97.8635 Y29.444 I2.0 J0.0
G3 X107.3342 I4.7354 J1.7971
G3 X107.4643 Y30.1537 I-1.8699 J0.7096
G1 Y34.306
G3 X106.3353 Y36.1064 I-2.0 J0.0
G0 Z3.0
M5
M30
