( Made using CamBam - http://www.cambam.co.uk )
( BVB-Manuell 9/1/2013 3:16:20 PM )
( T4 : 4.0 )
G21 G90 G64 G40
G0 Z3.0
( T4 : 4.0 )
T4 M6
( 0-aussen )
G17
M3 S1000
G0 X88.4634 Y38.3711
G0 Z1.0
G1 F15.0 Z-1.0
G1 F40.0 Y47.8855
G3 X88.4067 Y48.3581 I-2.0 J0.0
G3 X64.8765 I-11.7651 J-2.8615
G3 X64.8198 Y47.8855 I1.9433 J-0.4727
G1 Y38.3711
G1 Y28.8567
G3 X64.8765 Y28.3841 I2.0 J0.0
G3 X88.4067 I11.7651 J2.8615
G3 X88.4634 Y28.8567 I-1.9433 J0.4727
G1 Y38.3711
G1 F15.0 Z-2.0
G1 F40.0 Y47.8855
G3 X88.4067 Y48.3581 I-2.0 J0.0
G3 X64.8765 I-11.7651 J-2.8615
G3 X64.8198 Y47.8855 I1.9433 J-0.4727
G1 Y38.3711
G1 Y28.8567
G3 X64.8765 Y28.3841 I2.0 J0.0
G3 X88.4067 I11.7651 J2.8615
G3 X88.4634 Y28.8567 I-1.9433 J0.4727
G1 Y38.3711
G1 F15.0 Z-3.0
G1 F40.0 Y47.8855
G3 X88.4067 Y48.3581 I-2.0 J0.0
G3 X64.8765 I-11.7651 J-2.8615
G3 X64.8198 Y47.8855 I1.9433 J-0.4727
G1 Y38.3711
G1 Y28.8567
G3 X64.8765 Y28.3841 I2.0 J0.0
G3 X88.4067 I11.7651 J2.8615
G3 X88.4634 Y28.8567 I-1.9433 J0.4727
G1 Y38.3711
G1 F15.0 Z-4.0
G1 F40.0 Y47.8855
G3 X88.4067 Y48.3581 I-2.0 J0.0
G3 X64.8765 I-11.7651 J-2.8615
G3 X64.8198 Y47.8855 I1.9433 J-0.4727
G1 Y38.3711
G1 Y28.8567
G3 X64.8765 Y28.3841 I2.0 J0.0
G3 X88.4067 I11.7651 J2.8615
G3 X88.4634 Y28.8567 I-1.9433 J0.4727
G1 Y38.3711
G0 Z3.0
M5
M30
