( Made using CamBam - http://www.cambam.co.uk )
( BVB-Manuell 9/1/2013 3:15:44 PM )
( T3 : 3.0 )
G21 G90 G64 G40
G0 Z3.0
( T3 : 3.0 )
T3 M6
( Kreis-aussen )
G17
M3 S1000
G0 X179.1485 Y90.0
G0 Z1.0
G1 F15.0 Z-1.0
G2 F40.0 X45.4258 Y12.7951 I-89.1485 J0.0
G2 Y167.2049 I44.5742 J77.2049
G2 X179.1485 Y90.0 I44.5742 J-77.2049
G1 F15.0 X179.0127
G3 F40.0 X45.4937 Y167.0872 I-89.0127 J0.0
G3 Y12.9128 I44.5063 J-77.0872
G3 X179.0127 Y90.0 I44.5063 J77.0872
G1 F15.0 Z-2.0
G3 F40.0 X45.4937 Y167.0872 I-89.0127 J0.0
G3 Y12.9128 I44.5063 J-77.0872
G3 X179.0127 Y90.0 I44.5063 J77.0872
G1 F15.0 X179.1485
G2 F40.0 X45.4258 Y12.7951 I-89.1485 J0.0
G2 Y167.2049 I44.5742 J77.2049
G2 X179.1485 Y90.0 I44.5742 J-77.2049
G1 F15.0 Z-3.0
G2 F40.0 X45.4258 Y12.7951 I-89.1485 J0.0
G2 Y167.2049 I44.5742 J77.2049
G2 X179.1485 Y90.0 I44.5742 J-77.2049
G1 F15.0 X179.0127
G3 F40.0 X45.4937 Y167.0872 I-89.0127 J0.0
G3 Y12.9128 I44.5063 J-77.0872
G3 X179.0127 Y90.0 I44.5063 J77.0872
G0 Z3.0
M5
M30
