( Made using CamBam - http://www.cambam.co.uk )
( BVB-Manuell 9/1/2013 3:16:11 PM )
( T4 : 4.0 )
G21 G90 G64 G40
G0 Z3.0
( T4 : 4.0 )
T4 M6
( 0-innen )
G17
M3 S1000
G0 X76.7071 Y45.7577
G0 Z1.0
G1 F15.0 Z-1.0
G1 F40.0 Y38.3711
G1 Y30.9845
G2 X76.5761 I-0.0655 J0.2567
G1 Y38.3711
G1 Y45.7577
G2 X76.7071 I0.0655 J-0.2567
G1 F15.0 X76.9049 Y46.5329
G2 F40.0 X77.5071 Y46.1215 I-0.2633 J-1.0319
G1 Y38.3711
G1 Y30.6207
G2 X75.7761 I-0.8655 J0.6205
G1 Y38.3711
G1 Y46.1215
G2 X76.9049 Y46.5329 I0.8655 J-0.6205
G1 F15.0 X76.7071 Y45.7577
G1 Z-2.0
G1 F40.0 Y38.3711
G1 Y30.9845
G2 X76.5761 I-0.0655 J0.2567
G1 Y38.3711
G1 Y45.7577
G2 X76.7071 I0.0655 J-0.2567
G1 F15.0 X76.9049 Y46.5329
G2 F40.0 X77.5071 Y46.1215 I-0.2633 J-1.0319
G1 Y38.3711
G1 Y30.6207
G2 X75.7761 I-0.8655 J0.6205
G1 Y38.3711
G1 Y46.1215
G2 X76.9049 Y46.5329 I0.8655 J-0.6205
G1 F15.0 X76.7071 Y45.7577
G1 Z-3.0
G1 F40.0 Y38.3711
G1 Y30.9845
G2 X76.5761 I-0.0655 J0.2567
G1 Y38.3711
G1 Y45.7577
G2 X76.7071 I0.0655 J-0.2567
G1 F15.0 X76.9049 Y46.5329
G2 F40.0 X77.5071 Y46.1215 I-0.2633 J-1.0319
G1 Y38.3711
G1 Y30.6207
G2 X75.7761 I-0.8655 J0.6205
G1 Y38.3711
G1 Y46.1215
G2 X76.9049 Y46.5329 I0.8655 J-0.6205
G0 Z3.0
M5
M30
