( Made using CamBam - http://www.cambam.co.uk )
( Rechtecke 8/27/2017 10:45:06 AM )
( T2 : 2.0 )
( T4 : 4.0 )
( T6 : 6.0 )
G21 G90 G64 G40
G0 Z3.0
( T6 : 6.0 )
T6 M6
( Rechtecke-Tasche )
G17
M3 S1000
G0 X0.7142 Y110.24583
G0 Z1.0
G1 F300.0 Z-1.0
G1 F800.0 X-0.8858
G1 Y111.84583
G1 X0.7142
G1 Y110.24583
G1 F300.0 Y107.84583
G1 F800.0 X-3.2858
G1 Y114.24583
G1 X3.1142
G1 Y107.84583
G1 X0.7142
G1 F300.0 Y105.44583
G1 F800.0 X-5.6858
G1 Y116.64583
G1 X5.5142
G1 Y105.44583
G1 X0.7142
G1 F300.0 Y103.04583
G1 F800.0 X-8.0858
G1 Y119.04583
G1 X7.9142
G1 Y103.04583
G1 X0.7142
G0 Z3.0
G0 Y110.24583
G0 Z0.0
G1 F300.0 Z-2.0
G1 F800.0 X-0.8858
G1 Y111.84583
G1 X0.7142
G1 Y110.24583
G1 F300.0 Y107.84583
G1 F800.0 X-3.2858
G1 Y114.24583
G1 X3.1142
G1 Y107.84583
G1 X0.7142
G1 F300.0 Y105.44583
G1 F800.0 X-5.6858
G1 Y116.64583
G1 X5.5142
G1 Y105.44583
G1 X0.7142
G1 F300.0 Y103.04583
G1 F800.0 X-8.0858
G1 Y119.04583
G1 X7.9142
G1 Y103.04583
G1 X0.7142
G0 Z3.0
G0 Y110.24583
G0 Z-1.0
G1 F300.0 Z-3.0
G1 F800.0 X-0.8858
G1 Y111.84583
G1 X0.7142
G1 Y110.24583
G1 F300.0 Y107.84583
G1 F800.0 X-3.2858
G1 Y114.24583
G1 X3.1142
G1 Y107.84583
G1 X0.7142
G1 F300.0 Y105.44583
G1 F800.0 X-5.6858
G1 Y116.64583
G1 X5.5142
G1 Y105.44583
G1 X0.7142
G1 F300.0 Y103.04583
G1 F800.0 X-8.0858
G1 Y119.04583
G1 X7.9142
G1 Y103.04583
G1 X0.7142
G0 Z3.0
G0 Y110.24583
G0 Z-2.0
G1 F300.0 Z-4.0
G1 F800.0 X-0.8858
G1 Y111.84583
G1 X0.7142
G1 Y110.24583
G1 F300.0 Y107.84583
G1 F800.0 X-3.2858
G1 Y114.24583
G1 X3.1142
G1 Y107.84583
G1 X0.7142
G1 F300.0 Y105.44583
G1 F800.0 X-5.6858
G1 Y116.64583
G1 X5.5142
G1 Y105.44583
G1 X0.7142
G1 F300.0 Y103.04583
G1 F800.0 X-8.0858
G1 Y119.04583
G1 X7.9142
G1 Y103.04583
G1 X0.7142
G0 Z3.0
G0 Y110.24583
G0 Z-3.0
G1 F300.0 Z-5.0
G1 F800.0 X-0.8858
G1 Y111.84583
G1 X0.7142
G1 Y110.24583
G1 F300.0 Y107.84583
G1 F800.0 X-3.2858
G1 Y114.24583
G1 X3.1142
G1 Y107.84583
G1 X0.7142
G1 F300.0 Y105.44583
G1 F800.0 X-5.6858
G1 Y116.64583
G1 X5.5142
G1 Y105.44583
G1 X0.7142
G1 F300.0 Y103.04583
G1 F800.0 X-8.0858
G1 Y119.04583
G1 X7.9142
G1 Y103.04583
G1 X0.7142
G0 Z3.0
G0 Y110.24583
G0 Z-4.0
G1 F300.0 Z-6.0
G1 F800.0 X-0.8858
G1 Y111.84583
G1 X0.7142
G1 Y110.24583
G1 F300.0 Y107.84583
G1 F800.0 X-3.2858
G1 Y114.24583
G1 X3.1142
G1 Y107.84583
G1 X0.7142
G1 F300.0 Y105.44583
G1 F800.0 X-5.6858
G1 Y116.64583
G1 X5.5142
G1 Y105.44583
G1 X0.7142
G1 F300.0 Y103.04583
G1 F800.0 X-8.0858
G1 Y119.04583
G1 X7.9142
G1 Y103.04583
G1 X0.7142
G0 Z3.0
G0 Y110.24583
G0 Z-5.0
G1 F300.0 Z-7.0
G1 F800.0 X-0.8858
G1 Y111.84583
G1 X0.7142
G1 Y110.24583
G1 F300.0 Y107.84583
G1 F800.0 X-3.2858
G1 Y114.24583
G1 X3.1142
G1 Y107.84583
G1 X0.7142
G1 F300.0 Y105.44583
G1 F800.0 X-5.6858
G1 Y116.64583
G1 X5.5142
G1 Y105.44583
G1 X0.7142
G1 F300.0 Y103.04583
G1 F800.0 X-8.0858
G1 Y119.04583
G1 X7.9142
G1 Y103.04583
G1 X0.7142
G0 Z3.0
G0 Y110.24583
G0 Z-6.0
G1 F300.0 Z-8.0
G1 F800.0 X-0.8858
G1 Y111.84583
G1 X0.7142
G1 Y110.24583
G1 F300.0 Y107.84583
G1 F800.0 X-3.2858
G1 Y114.24583
G1 X3.1142
G1 Y107.84583
G1 X0.7142
G1 F300.0 Y105.44583
G1 F800.0 X-5.6858
G1 Y116.64583
G1 X5.5142
G1 Y105.44583
G1 X0.7142
G1 F300.0 Y103.04583
G1 F800.0 X-8.0858
G1 Y119.04583
G1 X7.9142
G1 Y103.04583
G1 X0.7142
G0 Z3.0
G0 Y110.24583
G0 Z-7.0
G1 F300.0 Z-9.0
G1 F800.0 X-0.8858
G1 Y111.84583
G1 X0.7142
G1 Y110.24583
G1 F300.0 Y107.84583
G1 F800.0 X-3.2858
G1 Y114.24583
G1 X3.1142
G1 Y107.84583
G1 X0.7142
G1 F300.0 Y105.44583
G1 F800.0 X-5.6858
G1 Y116.64583
G1 X5.5142
G1 Y105.44583
G1 X0.7142
G1 F300.0 Y103.04583
G1 F800.0 X-8.0858
G1 Y119.04583
G1 X7.9142
G1 Y103.04583
G1 X0.7142
G0 Z3.0
G0 Y110.24583
G0 Z-8.0
G1 F300.0 Z-10.0
G1 F800.0 X-0.8858
G1 Y111.84583
G1 X0.7142
G1 Y110.24583
G1 F300.0 Y107.84583
G1 F800.0 X-3.2858
G1 Y114.24583
G1 X3.1142
G1 Y107.84583
G1 X0.7142
G1 F300.0 Y105.44583
G1 F800.0 X-5.6858
G1 Y116.64583
G1 X5.5142
G1 Y105.44583
G1 X0.7142
G1 F300.0 Y103.04583
G1 F800.0 X-8.0858
G1 Y119.04583
G1 X7.9142
G1 Y103.04583
G1 X0.7142
G0 Z3.0
G0 Y110.24583
G0 Z-9.0
G1 F300.0 Z-11.0
G1 F800.0 X-0.8858
G1 Y111.84583
G1 X0.7142
G1 Y110.24583
G1 F300.0 Y107.84583
G1 F800.0 X-3.2858
G1 Y114.24583
G1 X3.1142
G1 Y107.84583
G1 X0.7142
G1 F300.0 Y105.44583
G1 F800.0 X-5.6858
G1 Y116.64583
G1 X5.5142
G1 Y105.44583
G1 X0.7142
G1 F300.0 Y103.04583
G1 F800.0 X-8.0858
G1 Y119.04583
G1 X7.9142
G1 Y103.04583
G1 X0.7142
G0 Z3.0
G0 Y110.24583
G0 Z-10.0
G1 F300.0 Z-12.0
G1 F800.0 X-0.8858
G1 Y111.84583
G1 X0.7142
G1 Y110.24583
G1 F300.0 Y107.84583
G1 F800.0 X-3.2858
G1 Y114.24583
G1 X3.1142
G1 Y107.84583
G1 X0.7142
G1 F300.0 Y105.44583
G1 F800.0 X-5.6858
G1 Y116.64583
G1 X5.5142
G1 Y105.44583
G1 X0.7142
G1 F300.0 Y103.04583
G1 F800.0 X-8.0858
G1 Y119.04583
G1 X7.9142
G1 Y103.04583
G1 X0.7142
G0 Z3.0
G0 X41.37088 Y102.19284
G0 Z1.0
G1 F300.0 Z-1.0
G1 F800.0 X41.98317 Y103.67105
G1 X43.46138 Y103.05876
G1 X42.84909 Y101.58055
G1 X41.37088 Y102.19284
G1 F300.0 X39.15357 Y103.11128
G1 F800.0 X40.6843 Y106.8068
G1 X46.59713 Y104.35763
G1 X44.14796 Y98.4448
G1 X38.23513 Y100.89397
G1 X39.15357 Y103.11128
G1 F300.0 X36.93626 Y104.02972
G1 F800.0 X39.38543 Y109.94255
G1 X49.73288 Y105.6565
G1 X45.44683 Y95.30905
G1 X35.09938 Y99.5951
G1 X36.93626 Y104.02972
G1 F300.0 X34.71895 Y104.94816
G1 F800.0 X38.08656 Y113.0783
G1 X52.86863 Y106.95537
G1 X46.7457 Y92.1733
G1 X31.96363 Y98.29623
G1 X34.71895 Y104.94816
G0 Z3.0
G0 X41.37088 Y102.19284
G0 Z0.0
G1 F300.0 Z-2.0
G1 F800.0 X41.98317 Y103.67105
G1 X43.46138 Y103.05876
G1 X42.84909 Y101.58055
G1 X41.37088 Y102.19284
G1 F300.0 X39.15357 Y103.11128
G1 F800.0 X40.6843 Y106.8068
G1 X46.59713 Y104.35763
G1 X44.14796 Y98.4448
G1 X38.23513 Y100.89397
G1 X39.15357 Y103.11128
G1 F300.0 X36.93626 Y104.02972
G1 F800.0 X39.38543 Y109.94255
G1 X49.73288 Y105.6565
G1 X45.44683 Y95.30905
G1 X35.09938 Y99.5951
G1 X36.93626 Y104.02972
G1 F300.0 X34.71895 Y104.94816
G1 F800.0 X38.08656 Y113.0783
G1 X52.86863 Y106.95537
G1 X46.7457 Y92.1733
G1 X31.96363 Y98.29623
G1 X34.71895 Y104.94816
G0 Z3.0
G0 X41.37088 Y102.19284
G0 Z-1.0
G1 F300.0 Z-3.0
G1 F800.0 X41.98317 Y103.67105
G1 X43.46138 Y103.05876
G1 X42.84909 Y101.58055
G1 X41.37088 Y102.19284
G1 F300.0 X39.15357 Y103.11128
G1 F800.0 X40.6843 Y106.8068
G1 X46.59713 Y104.35763
G1 X44.14796 Y98.4448
G1 X38.23513 Y100.89397
G1 X39.15357 Y103.11128
G1 F300.0 X36.93626 Y104.02972
G1 F800.0 X39.38543 Y109.94255
G1 X49.73288 Y105.6565
G1 X45.44683 Y95.30905
G1 X35.09938 Y99.5951
G1 X36.93626 Y104.02972
G1 F300.0 X34.71895 Y104.94816
G1 F800.0 X38.08656 Y113.0783
G1 X52.86863 Y106.95537
G1 X46.7457 Y92.1733
G1 X31.96363 Y98.29623
G1 X34.71895 Y104.94816
G0 Z3.0
G0 X41.37088 Y102.19284
G0 Z-2.0
G1 F300.0 Z-4.0
G1 F800.0 X41.98317 Y103.67105
G1 X43.46138 Y103.05876
G1 X42.84909 Y101.58055
G1 X41.37088 Y102.19284
G1 F300.0 X39.15357 Y103.11128
G1 F800.0 X40.6843 Y106.8068
G1 X46.59713 Y104.35763
G1 X44.14796 Y98.4448
G1 X38.23513 Y100.89397
G1 X39.15357 Y103.11128
G1 F300.0 X36.93626 Y104.02972
G1 F800.0 X39.38543 Y109.94255
G1 X49.73288 Y105.6565
G1 X45.44683 Y95.30905
G1 X35.09938 Y99.5951
G1 X36.93626 Y104.02972
G1 F300.0 X34.71895 Y104.94816
G1 F800.0 X38.08656 Y113.0783
G1 X52.86863 Y106.95537
G1 X46.7457 Y92.1733
G1 X31.96363 Y98.29623
G1 X34.71895 Y104.94816
G0 Z3.0
G0 X41.37088 Y102.19284
G0 Z-3.0
G1 F300.0 Z-5.0
G1 F800.0 X41.98317 Y103.67105
G1 X43.46138 Y103.05876
G1 X42.84909 Y101.58055
G1 X41.37088 Y102.19284
G1 F300.0 X39.15357 Y103.11128
G1 F800.0 X40.6843 Y106.8068
G1 X46.59713 Y104.35763
G1 X44.14796 Y98.4448
G1 X38.23513 Y100.89397
G1 X39.15357 Y103.11128
G1 F300.0 X36.93626 Y104.02972
G1 F800.0 X39.38543 Y109.94255
G1 X49.73288 Y105.6565
G1 X45.44683 Y95.30905
G1 X35.09938 Y99.5951
G1 X36.93626 Y104.02972
G1 F300.0 X34.71895 Y104.94816
G1 F800.0 X38.08656 Y113.0783
G1 X52.86863 Y106.95537
G1 X46.7457 Y92.1733
G1 X31.96363 Y98.29623
G1 X34.71895 Y104.94816
G0 Z3.0
G0 X41.37088 Y102.19284
G0 Z-4.0
G1 F300.0 Z-6.0
G1 F800.0 X41.98317 Y103.67105
G1 X43.46138 Y103.05876
G1 X42.84909 Y101.58055
G1 X41.37088 Y102.19284
G1 F300.0 X39.15357 Y103.11128
G1 F800.0 X40.6843 Y106.8068
G1 X46.59713 Y104.35763
G1 X44.14796 Y98.4448
G1 X38.23513 Y100.89397
G1 X39.15357 Y103.11128
G1 F300.0 X36.93626 Y104.02972
G1 F800.0 X39.38543 Y109.94255
G1 X49.73288 Y105.6565
G1 X45.44683 Y95.30905
G1 X35.09938 Y99.5951
G1 X36.93626 Y104.02972
G1 F300.0 X34.71895 Y104.94816
G1 F800.0 X38.08656 Y113.0783
G1 X52.86863 Y106.95537
G1 X46.7457 Y92.1733
G1 X31.96363 Y98.29623
G1 X34.71895 Y104.94816
G0 Z3.0
G0 X41.37088 Y102.19284
G0 Z-5.0
G1 F300.0 Z-7.0
G1 F800.0 X41.98317 Y103.67105
G1 X43.46138 Y103.05876
G1 X42.84909 Y101.58055
G1 X41.37088 Y102.19284
G1 F300.0 X39.15357 Y103.11128
G1 F800.0 X40.6843 Y106.8068
G1 X46.59713 Y104.35763
G1 X44.14796 Y98.4448
G1 X38.23513 Y100.89397
G1 X39.15357 Y103.11128
G1 F300.0 X36.93626 Y104.02972
G1 F800.0 X39.38543 Y109.94255
G1 X49.73288 Y105.6565
G1 X45.44683 Y95.30905
G1 X35.09938 Y99.5951
G1 X36.93626 Y104.02972
G1 F300.0 X34.71895 Y104.94816
G1 F800.0 X38.08656 Y113.0783
G1 X52.86863 Y106.95537
G1 X46.7457 Y92.1733
G1 X31.96363 Y98.29623
G1 X34.71895 Y104.94816
G0 Z3.0
G0 X41.37088 Y102.19284
G0 Z-6.0
G1 F300.0 Z-8.0
G1 F800.0 X41.98317 Y103.67105
G1 X43.46138 Y103.05876
G1 X42.84909 Y101.58055
G1 X41.37088 Y102.19284
G1 F300.0 X39.15357 Y103.11128
G1 F800.0 X40.6843 Y106.8068
G1 X46.59713 Y104.35763
G1 X44.14796 Y98.4448
G1 X38.23513 Y100.89397
G1 X39.15357 Y103.11128
G1 F300.0 X36.93626 Y104.02972
G1 F800.0 X39.38543 Y109.94255
G1 X49.73288 Y105.6565
G1 X45.44683 Y95.30905
G1 X35.09938 Y99.5951
G1 X36.93626 Y104.02972
G1 F300.0 X34.71895 Y104.94816
G1 F800.0 X38.08656 Y113.0783
G1 X52.86863 Y106.95537
G1 X46.7457 Y92.1733
G1 X31.96363 Y98.29623
G1 X34.71895 Y104.94816
G0 Z3.0
G0 X41.37088 Y102.19284
G0 Z-7.0
G1 F300.0 Z-9.0
G1 F800.0 X41.98317 Y103.67105
G1 X43.46138 Y103.05876
G1 X42.84909 Y101.58055
G1 X41.37088 Y102.19284
G1 F300.0 X39.15357 Y103.11128
G1 F800.0 X40.6843 Y106.8068
G1 X46.59713 Y104.35763
G1 X44.14796 Y98.4448
G1 X38.23513 Y100.89397
G1 X39.15357 Y103.11128
G1 F300.0 X36.93626 Y104.02972
G1 F800.0 X39.38543 Y109.94255
G1 X49.73288 Y105.6565
G1 X45.44683 Y95.30905
G1 X35.09938 Y99.5951
G1 X36.93626 Y104.02972
G1 F300.0 X34.71895 Y104.94816
G1 F800.0 X38.08656 Y113.0783
G1 X52.86863 Y106.95537
G1 X46.7457 Y92.1733
G1 X31.96363 Y98.29623
G1 X34.71895 Y104.94816
G0 Z3.0
G0 X41.37088 Y102.19284
G0 Z-8.0
G1 F300.0 Z-10.0
G1 F800.0 X41.98317 Y103.67105
G1 X43.46138 Y103.05876
G1 X42.84909 Y101.58055
G1 X41.37088 Y102.19284
G1 F300.0 X39.15357 Y103.11128
G1 F800.0 X40.6843 Y106.8068
G1 X46.59713 Y104.35763
G1 X44.14796 Y98.4448
G1 X38.23513 Y100.89397
G1 X39.15357 Y103.11128
G1 F300.0 X36.93626 Y104.02972
G1 F800.0 X39.38543 Y109.94255
G1 X49.73288 Y105.6565
G1 X45.44683 Y95.30905
G1 X35.09938 Y99.5951
G1 X36.93626 Y104.02972
G1 F300.0 X34.71895 Y104.94816
G1 F800.0 X38.08656 Y113.0783
G1 X52.86863 Y106.95537
G1 X46.7457 Y92.1733
G1 X31.96363 Y98.29623
G1 X34.71895 Y104.94816
G0 Z3.0
G0 X41.37088 Y102.19284
G0 Z-9.0
G1 F300.0 Z-11.0
G1 F800.0 X41.98317 Y103.67105
G1 X43.46138 Y103.05876
G1 X42.84909 Y101.58055
G1 X41.37088 Y102.19284
G1 F300.0 X39.15357 Y103.11128
G1 F800.0 X40.6843 Y106.8068
G1 X46.59713 Y104.35763
G1 X44.14796 Y98.4448
G1 X38.23513 Y100.89397
G1 X39.15357 Y103.11128
G1 F300.0 X36.93626 Y104.02972
G1 F800.0 X39.38543 Y109.94255
G1 X49.73288 Y105.6565
G1 X45.44683 Y95.30905
G1 X35.09938 Y99.5951
G1 X36.93626 Y104.02972
G1 F300.0 X34.71895 Y104.94816
G1 F800.0 X38.08656 Y113.0783
G1 X52.86863 Y106.95537
G1 X46.7457 Y92.1733
G1 X31.96363 Y98.29623
G1 X34.71895 Y104.94816
G0 Z3.0
G0 X41.37088 Y102.19284
G0 Z-10.0
G1 F300.0 Z-12.0
G1 F800.0 X41.98317 Y103.67105
G1 X43.46138 Y103.05876
G1 X42.84909 Y101.58055
G1 X41.37088 Y102.19284
G1 F300.0 X39.15357 Y103.11128
G1 F800.0 X40.6843 Y106.8068
G1 X46.59713 Y104.35763
G1 X44.14796 Y98.4448
G1 X38.23513 Y100.89397
G1 X39.15357 Y103.11128
G1 F300.0 X36.93626 Y104.02972
G1 F800.0 X39.38543 Y109.94255
G1 X49.73288 Y105.6565
G1 X45.44683 Y95.30905
G1 X35.09938 Y99.5951
G1 X36.93626 Y104.02972
G1 F300.0 X34.71895 Y104.94816
G1 F800.0 X38.08656 Y113.0783
G1 X52.86863 Y106.95537
G1 X46.7457 Y92.1733
G1 X31.96363 Y98.29623
G1 X34.71895 Y104.94816
G0 Z3.0
G0 X77.32922 Y78.58193
G0 Z1.0
G1 F300.0 Z-1.0
G1 F800.0 X78.46059 Y79.7133
G1 X79.59196 Y78.58193
G1 X78.46059 Y77.45056
G1 X77.32922 Y78.58193
G1 F300.0 X75.63216 Y76.88487
G1 F800.0 X73.93511 Y78.58193
G1 X78.46059 Y83.10741
G1 X82.98607 Y78.58193
G1 X78.46059 Y74.05644
G1 X75.63216 Y76.88487
G1 F300.0 X73.93511 Y75.18781
G1 F800.0 X70.54099 Y78.58193
G1 X78.46059 Y86.50152
G1 X86.38018 Y78.58193
G1 X78.46059 Y70.66233
G1 X73.93511 Y75.18781
G1 F300.0 X72.23805 Y73.49076
G1 F800.0 X67.14688 Y78.58193
G1 X78.46059 Y89.89563
G1 X89.7743 Y78.58193
G1 X78.46059 Y67.26822
G1 X72.23805 Y73.49076
G0 Z3.0
G0 X77.32922 Y78.58193
G0 Z0.0
G1 F300.0 Z-2.0
G1 F800.0 X78.46059 Y79.7133
G1 X79.59196 Y78.58193
G1 X78.46059 Y77.45056
G1 X77.32922 Y78.58193
G1 F300.0 X75.63216 Y76.88487
G1 F800.0 X73.93511 Y78.58193
G1 X78.46059 Y83.10741
G1 X82.98607 Y78.58193
G1 X78.46059 Y74.05644
G1 X75.63216 Y76.88487
G1 F300.0 X73.93511 Y75.18781
G1 F800.0 X70.54099 Y78.58193
G1 X78.46059 Y86.50152
G1 X86.38018 Y78.58193
G1 X78.46059 Y70.66233
G1 X73.93511 Y75.18781
G1 F300.0 X72.23805 Y73.49076
G1 F800.0 X67.14688 Y78.58193
G1 X78.46059 Y89.89563
G1 X89.7743 Y78.58193
G1 X78.46059 Y67.26822
G1 X72.23805 Y73.49076
G0 Z3.0
G0 X77.32922 Y78.58193
G0 Z-1.0
G1 F300.0 Z-3.0
G1 F800.0 X78.46059 Y79.7133
G1 X79.59196 Y78.58193
G1 X78.46059 Y77.45056
G1 X77.32922 Y78.58193
G1 F300.0 X75.63216 Y76.88487
G1 F800.0 X73.93511 Y78.58193
G1 X78.46059 Y83.10741
G1 X82.98607 Y78.58193
G1 X78.46059 Y74.05644
G1 X75.63216 Y76.88487
G1 F300.0 X73.93511 Y75.18781
G1 F800.0 X70.54099 Y78.58193
G1 X78.46059 Y86.50152
G1 X86.38018 Y78.58193
G1 X78.46059 Y70.66233
G1 X73.93511 Y75.18781
G1 F300.0 X72.23805 Y73.49076
G1 F800.0 X67.14688 Y78.58193
G1 X78.46059 Y89.89563
G1 X89.7743 Y78.58193
G1 X78.46059 Y67.26822
G1 X72.23805 Y73.49076
G0 Z3.0
G0 X77.32922 Y78.58193
G0 Z-2.0
G1 F300.0 Z-4.0
G1 F800.0 X78.46059 Y79.7133
G1 X79.59196 Y78.58193
G1 X78.46059 Y77.45056
G1 X77.32922 Y78.58193
G1 F300.0 X75.63216 Y76.88487
G1 F800.0 X73.93511 Y78.58193
G1 X78.46059 Y83.10741
G1 X82.98607 Y78.58193
G1 X78.46059 Y74.05644
G1 X75.63216 Y76.88487
G1 F300.0 X73.93511 Y75.18781
G1 F800.0 X70.54099 Y78.58193
G1 X78.46059 Y86.50152
G1 X86.38018 Y78.58193
G1 X78.46059 Y70.66233
G1 X73.93511 Y75.18781
G1 F300.0 X72.23805 Y73.49076
G1 F800.0 X67.14688 Y78.58193
G1 X78.46059 Y89.89563
G1 X89.7743 Y78.58193
G1 X78.46059 Y67.26822
G1 X72.23805 Y73.49076
G0 Z3.0
G0 X77.32922 Y78.58193
G0 Z-3.0
G1 F300.0 Z-5.0
G1 F800.0 X78.46059 Y79.7133
G1 X79.59196 Y78.58193
G1 X78.46059 Y77.45056
G1 X77.32922 Y78.58193
G1 F300.0 X75.63216 Y76.88487
G1 F800.0 X73.93511 Y78.58193
G1 X78.46059 Y83.10741
G1 X82.98607 Y78.58193
G1 X78.46059 Y74.05644
G1 X75.63216 Y76.88487
G1 F300.0 X73.93511 Y75.18781
G1 F800.0 X70.54099 Y78.58193
G1 X78.46059 Y86.50152
G1 X86.38018 Y78.58193
G1 X78.46059 Y70.66233
G1 X73.93511 Y75.18781
G1 F300.0 X72.23805 Y73.49076
G1 F800.0 X67.14688 Y78.58193
G1 X78.46059 Y89.89563
G1 X89.7743 Y78.58193
G1 X78.46059 Y67.26822
G1 X72.23805 Y73.49076
G0 Z3.0
G0 X77.32922 Y78.58193
G0 Z-4.0
G1 F300.0 Z-6.0
G1 F800.0 X78.46059 Y79.7133
G1 X79.59196 Y78.58193
G1 X78.46059 Y77.45056
G1 X77.32922 Y78.58193
G1 F300.0 X75.63216 Y76.88487
G1 F800.0 X73.93511 Y78.58193
G1 X78.46059 Y83.10741
G1 X82.98607 Y78.58193
G1 X78.46059 Y74.05644
G1 X75.63216 Y76.88487
G1 F300.0 X73.93511 Y75.18781
G1 F800.0 X70.54099 Y78.58193
G1 X78.46059 Y86.50152
G1 X86.38018 Y78.58193
G1 X78.46059 Y70.66233
G1 X73.93511 Y75.18781
G1 F300.0 X72.23805 Y73.49076
G1 F800.0 X67.14688 Y78.58193
G1 X78.46059 Y89.89563
G1 X89.7743 Y78.58193
G1 X78.46059 Y67.26822
G1 X72.23805 Y73.49076
G0 Z3.0
G0 X77.32922 Y78.58193
G0 Z-5.0
G1 F300.0 Z-7.0
G1 F800.0 X78.46059 Y79.7133
G1 X79.59196 Y78.58193
G1 X78.46059 Y77.45056
G1 X77.32922 Y78.58193
G1 F300.0 X75.63216 Y76.88487
G1 F800.0 X73.93511 Y78.58193
G1 X78.46059 Y83.10741
G1 X82.98607 Y78.58193
G1 X78.46059 Y74.05644
G1 X75.63216 Y76.88487
G1 F300.0 X73.93511 Y75.18781
G1 F800.0 X70.54099 Y78.58193
G1 X78.46059 Y86.50152
G1 X86.38018 Y78.58193
G1 X78.46059 Y70.66233
G1 X73.93511 Y75.18781
G1 F300.0 X72.23805 Y73.49076
G1 F800.0 X67.14688 Y78.58193
G1 X78.46059 Y89.89563
G1 X89.7743 Y78.58193
G1 X78.46059 Y67.26822
G1 X72.23805 Y73.49076
G0 Z3.0
G0 X77.32922 Y78.58193
G0 Z-6.0
G1 F300.0 Z-8.0
G1 F800.0 X78.46059 Y79.7133
G1 X79.59196 Y78.58193
G1 X78.46059 Y77.45056
G1 X77.32922 Y78.58193
G1 F300.0 X75.63216 Y76.88487
G1 F800.0 X73.93511 Y78.58193
G1 X78.46059 Y83.10741
G1 X82.98607 Y78.58193
G1 X78.46059 Y74.05644
G1 X75.63216 Y76.88487
G1 F300.0 X73.93511 Y75.18781
G1 F800.0 X70.54099 Y78.58193
G1 X78.46059 Y86.50152
G1 X86.38018 Y78.58193
G1 X78.46059 Y70.66233
G1 X73.93511 Y75.18781
G1 F300.0 X72.23805 Y73.49076
G1 F800.0 X67.14688 Y78.58193
G1 X78.46059 Y89.89563
G1 X89.7743 Y78.58193
G1 X78.46059 Y67.26822
G1 X72.23805 Y73.49076
G0 Z3.0
G0 X77.32922 Y78.58193
G0 Z-7.0
G1 F300.0 Z-9.0
G1 F800.0 X78.46059 Y79.7133
G1 X79.59196 Y78.58193
G1 X78.46059 Y77.45056
G1 X77.32922 Y78.58193
G1 F300.0 X75.63216 Y76.88487
G1 F800.0 X73.93511 Y78.58193
G1 X78.46059 Y83.10741
G1 X82.98607 Y78.58193
G1 X78.46059 Y74.05644
G1 X75.63216 Y76.88487
G1 F300.0 X73.93511 Y75.18781
G1 F800.0 X70.54099 Y78.58193
G1 X78.46059 Y86.50152
G1 X86.38018 Y78.58193
G1 X78.46059 Y70.66233
G1 X73.93511 Y75.18781
G1 F300.0 X72.23805 Y73.49076
G1 F800.0 X67.14688 Y78.58193
G1 X78.46059 Y89.89563
G1 X89.7743 Y78.58193
G1 X78.46059 Y67.26822
G1 X72.23805 Y73.49076
G0 Z3.0
G0 X77.32922 Y78.58193
G0 Z-8.0
G1 F300.0 Z-10.0
G1 F800.0 X78.46059 Y79.7133
G1 X79.59196 Y78.58193
G1 X78.46059 Y77.45056
G1 X77.32922 Y78.58193
G1 F300.0 X75.63216 Y76.88487
G1 F800.0 X73.93511 Y78.58193
G1 X78.46059 Y83.10741
G1 X82.98607 Y78.58193
G1 X78.46059 Y74.05644
G1 X75.63216 Y76.88487
G1 F300.0 X73.93511 Y75.18781
G1 F800.0 X70.54099 Y78.58193
G1 X78.46059 Y86.50152
G1 X86.38018 Y78.58193
G1 X78.46059 Y70.66233
G1 X73.93511 Y75.18781
G1 F300.0 X72.23805 Y73.49076
G1 F800.0 X67.14688 Y78.58193
G1 X78.46059 Y89.89563
G1 X89.7743 Y78.58193
G1 X78.46059 Y67.26822
G1 X72.23805 Y73.49076
G0 Z3.0
G0 X77.32922 Y78.58193
G0 Z-9.0
G1 F300.0 Z-11.0
G1 F800.0 X78.46059 Y79.7133
G1 X79.59196 Y78.58193
G1 X78.46059 Y77.45056
G1 X77.32922 Y78.58193
G1 F300.0 X75.63216 Y76.88487
G1 F800.0 X73.93511 Y78.58193
G1 X78.46059 Y83.10741
G1 X82.98607 Y78.58193
G1 X78.46059 Y74.05644
G1 X75.63216 Y76.88487
G1 F300.0 X73.93511 Y75.18781
G1 F800.0 X70.54099 Y78.58193
G1 X78.46059 Y86.50152
G1 X86.38018 Y78.58193
G1 X78.46059 Y70.66233
G1 X73.93511 Y75.18781
G1 F300.0 X72.23805 Y73.49076
G1 F800.0 X67.14688 Y78.58193
G1 X78.46059 Y89.89563
G1 X89.7743 Y78.58193
G1 X78.46059 Y67.26822
G1 X72.23805 Y73.49076
G0 Z3.0
G0 X77.32922 Y78.58193
G0 Z-10.0
G1 F300.0 Z-12.0
G1 F800.0 X78.46059 Y79.7133
G1 X79.59196 Y78.58193
G1 X78.46059 Y77.45056
G1 X77.32922 Y78.58193
G1 F300.0 X75.63216 Y76.88487
G1 F800.0 X73.93511 Y78.58193
G1 X78.46059 Y83.10741
G1 X82.98607 Y78.58193
G1 X78.46059 Y74.05644
G1 X75.63216 Y76.88487
G1 F300.0 X73.93511 Y75.18781
G1 F800.0 X70.54099 Y78.58193
G1 X78.46059 Y86.50152
G1 X86.38018 Y78.58193
G1 X78.46059 Y70.66233
G1 X73.93511 Y75.18781
G1 F300.0 X72.23805 Y73.49076
G1 F800.0 X67.14688 Y78.58193
G1 X78.46059 Y89.89563
G1 X89.7743 Y78.58193
G1 X78.46059 Y67.26822
G1 X72.23805 Y73.49076
G0 Z3.0
G0 X101.51488 Y43.00762
G0 Z1.0
G1 F300.0 Z-1.0
G1 F800.0 X102.99309 Y43.61992
G1 X103.60538 Y42.14171
G1 X102.12718 Y41.52942
G1 X101.51488 Y43.00762
G1 F300.0 X100.59644 Y45.22493
G1 F800.0 X104.29196 Y46.75567
G1 X106.74113 Y40.84284
G1 X100.82831 Y38.39366
G1 X98.37913 Y44.30649
G1 X100.59644 Y45.22493
G1 F300.0 X99.678 Y47.44224
G1 F800.0 X105.59083 Y49.89142
G1 X109.87689 Y39.54397
G1 X99.52944 Y35.25791
G1 X95.24338 Y45.60536
G1 X99.678 Y47.44224
G1 F300.0 X98.75956 Y49.65956
G1 F800.0 X106.8897 Y53.02717
G1 X113.01264 Y38.2451
G1 X98.23056 Y32.12216
G1 X92.10763 Y46.90423
G1 X98.75956 Y49.65956
G0 Z3.0
G0 X101.51488 Y43.00762
G0 Z0.0
G1 F300.0 Z-2.0
G1 F800.0 X102.99309 Y43.61992
G1 X103.60538 Y42.14171
G1 X102.12718 Y41.52942
G1 X101.51488 Y43.00762
G1 F300.0 X100.59644 Y45.22493
G1 F800.0 X104.29196 Y46.75567
G1 X106.74113 Y40.84284
G1 X100.82831 Y38.39366
G1 X98.37913 Y44.30649
G1 X100.59644 Y45.22493
G1 F300.0 X99.678 Y47.44224
G1 F800.0 X105.59083 Y49.89142
G1 X109.87689 Y39.54397
G1 X99.52944 Y35.25791
G1 X95.24338 Y45.60536
G1 X99.678 Y47.44224
G1 F300.0 X98.75956 Y49.65956
G1 F800.0 X106.8897 Y53.02717
G1 X113.01264 Y38.2451
G1 X98.23056 Y32.12216
G1 X92.10763 Y46.90423
G1 X98.75956 Y49.65956
G0 Z3.0
G0 X101.51488 Y43.00762
G0 Z-1.0
G1 F300.0 Z-3.0
G1 F800.0 X102.99309 Y43.61992
G1 X103.60538 Y42.14171
G1 X102.12718 Y41.52942
G1 X101.51488 Y43.00762
G1 F300.0 X100.59644 Y45.22493
G1 F800.0 X104.29196 Y46.75567
G1 X106.74113 Y40.84284
G1 X100.82831 Y38.39366
G1 X98.37913 Y44.30649
G1 X100.59644 Y45.22493
G1 F300.0 X99.678 Y47.44224
G1 F800.0 X105.59083 Y49.89142
G1 X109.87689 Y39.54397
G1 X99.52944 Y35.25791
G1 X95.24338 Y45.60536
G1 X99.678 Y47.44224
G1 F300.0 X98.75956 Y49.65956
G1 F800.0 X106.8897 Y53.02717
G1 X113.01264 Y38.2451
G1 X98.23056 Y32.12216
G1 X92.10763 Y46.90423
G1 X98.75956 Y49.65956
G0 Z3.0
G0 X101.51488 Y43.00762
G0 Z-2.0
G1 F300.0 Z-4.0
G1 F800.0 X102.99309 Y43.61992
G1 X103.60538 Y42.14171
G1 X102.12718 Y41.52942
G1 X101.51488 Y43.00762
G1 F300.0 X100.59644 Y45.22493
G1 F800.0 X104.29196 Y46.75567
G1 X106.74113 Y40.84284
G1 X100.82831 Y38.39366
G1 X98.37913 Y44.30649
G1 X100.59644 Y45.22493
G1 F300.0 X99.678 Y47.44224
G1 F800.0 X105.59083 Y49.89142
G1 X109.87689 Y39.54397
G1 X99.52944 Y35.25791
G1 X95.24338 Y45.60536
G1 X99.678 Y47.44224
G1 F300.0 X98.75956 Y49.65956
G1 F800.0 X106.8897 Y53.02717
G1 X113.01264 Y38.2451
G1 X98.23056 Y32.12216
G1 X92.10763 Y46.90423
G1 X98.75956 Y49.65956
G0 Z3.0
G0 X101.51488 Y43.00762
G0 Z-3.0
G1 F300.0 Z-5.0
G1 F800.0 X102.99309 Y43.61992
G1 X103.60538 Y42.14171
G1 X102.12718 Y41.52942
G1 X101.51488 Y43.00762
G1 F300.0 X100.59644 Y45.22493
G1 F800.0 X104.29196 Y46.75567
G1 X106.74113 Y40.84284
G1 X100.82831 Y38.39366
G1 X98.37913 Y44.30649
G1 X100.59644 Y45.22493
G1 F300.0 X99.678 Y47.44224
G1 F800.0 X105.59083 Y49.89142
G1 X109.87689 Y39.54397
G1 X99.52944 Y35.25791
G1 X95.24338 Y45.60536
G1 X99.678 Y47.44224
G1 F300.0 X98.75956 Y49.65956
G1 F800.0 X106.8897 Y53.02717
G1 X113.01264 Y38.2451
G1 X98.23056 Y32.12216
G1 X92.10763 Y46.90423
G1 X98.75956 Y49.65956
G0 Z3.0
G0 X101.51488 Y43.00762
G0 Z-4.0
G1 F300.0 Z-6.0
G1 F800.0 X102.99309 Y43.61992
G1 X103.60538 Y42.14171
G1 X102.12718 Y41.52942
G1 X101.51488 Y43.00762
G1 F300.0 X100.59644 Y45.22493
G1 F800.0 X104.29196 Y46.75567
G1 X106.74113 Y40.84284
G1 X100.82831 Y38.39366
G1 X98.37913 Y44.30649
G1 X100.59644 Y45.22493
G1 F300.0 X99.678 Y47.44224
G1 F800.0 X105.59083 Y49.89142
G1 X109.87689 Y39.54397
G1 X99.52944 Y35.25791
G1 X95.24338 Y45.60536
G1 X99.678 Y47.44224
G1 F300.0 X98.75956 Y49.65956
G1 F800.0 X106.8897 Y53.02717
G1 X113.01264 Y38.2451
G1 X98.23056 Y32.12216
G1 X92.10763 Y46.90423
G1 X98.75956 Y49.65956
G0 Z3.0
G0 X101.51488 Y43.00762
G0 Z-5.0
G1 F300.0 Z-7.0
G1 F800.0 X102.99309 Y43.61992
G1 X103.60538 Y42.14171
G1 X102.12718 Y41.52942
G1 X101.51488 Y43.00762
G1 F300.0 X100.59644 Y45.22493
G1 F800.0 X104.29196 Y46.75567
G1 X106.74113 Y40.84284
G1 X100.82831 Y38.39366
G1 X98.37913 Y44.30649
G1 X100.59644 Y45.22493
G1 F300.0 X99.678 Y47.44224
G1 F800.0 X105.59083 Y49.89142
G1 X109.87689 Y39.54397
G1 X99.52944 Y35.25791
G1 X95.24338 Y45.60536
G1 X99.678 Y47.44224
G1 F300.0 X98.75956 Y49.65956
G1 F800.0 X106.8897 Y53.02717
G1 X113.01264 Y38.2451
G1 X98.23056 Y32.12216
G1 X92.10763 Y46.90423
G1 X98.75956 Y49.65956
G0 Z3.0
G0 X101.51488 Y43.00762
G0 Z-6.0
G1 F300.0 Z-8.0
G1 F800.0 X102.99309 Y43.61992
G1 X103.60538 Y42.14171
G1 X102.12718 Y41.52942
G1 X101.51488 Y43.00762
G1 F300.0 X100.59644 Y45.22493
G1 F800.0 X104.29196 Y46.75567
G1 X106.74113 Y40.84284
G1 X100.82831 Y38.39366
G1 X98.37913 Y44.30649
G1 X100.59644 Y45.22493
G1 F300.0 X99.678 Y47.44224
G1 F800.0 X105.59083 Y49.89142
G1 X109.87689 Y39.54397
G1 X99.52944 Y35.25791
G1 X95.24338 Y45.60536
G1 X99.678 Y47.44224
G1 F300.0 X98.75956 Y49.65956
G1 F800.0 X106.8897 Y53.02717
G1 X113.01264 Y38.2451
G1 X98.23056 Y32.12216
G1 X92.10763 Y46.90423
G1 X98.75956 Y49.65956
G0 Z3.0
G0 X101.51488 Y43.00762
G0 Z-7.0
G1 F300.0 Z-9.0
G1 F800.0 X102.99309 Y43.61992
G1 X103.60538 Y42.14171
G1 X102.12718 Y41.52942
G1 X101.51488 Y43.00762
G1 F300.0 X100.59644 Y45.22493
G1 F800.0 X104.29196 Y46.75567
G1 X106.74113 Y40.84284
G1 X100.82831 Y38.39366
G1 X98.37913 Y44.30649
G1 X100.59644 Y45.22493
G1 F300.0 X99.678 Y47.44224
G1 F800.0 X105.59083 Y49.89142
G1 X109.87689 Y39.54397
G1 X99.52944 Y35.25791
G1 X95.24338 Y45.60536
G1 X99.678 Y47.44224
G1 F300.0 X98.75956 Y49.65956
G1 F800.0 X106.8897 Y53.02717
G1 X113.01264 Y38.2451
G1 X98.23056 Y32.12216
G1 X92.10763 Y46.90423
G1 X98.75956 Y49.65956
G0 Z3.0
G0 X101.51488 Y43.00762
G0 Z-8.0
G1 F300.0 Z-10.0
G1 F800.0 X102.99309 Y43.61992
G1 X103.60538 Y42.14171
G1 X102.12718 Y41.52942
G1 X101.51488 Y43.00762
G1 F300.0 X100.59644 Y45.22493
G1 F800.0 X104.29196 Y46.75567
G1 X106.74113 Y40.84284
G1 X100.82831 Y38.39366
G1 X98.37913 Y44.30649
G1 X100.59644 Y45.22493
G1 F300.0 X99.678 Y47.44224
G1 F800.0 X105.59083 Y49.89142
G1 X109.87689 Y39.54397
G1 X99.52944 Y35.25791
G1 X95.24338 Y45.60536
G1 X99.678 Y47.44224
G1 F300.0 X98.75956 Y49.65956
G1 F800.0 X106.8897 Y53.02717
G1 X113.01264 Y38.2451
G1 X98.23056 Y32.12216
G1 X92.10763 Y46.90423
G1 X98.75956 Y49.65956
G0 Z3.0
G0 X101.51488 Y43.00762
G0 Z-9.0
G1 F300.0 Z-11.0
G1 F800.0 X102.99309 Y43.61992
G1 X103.60538 Y42.14171
G1 X102.12718 Y41.52942
G1 X101.51488 Y43.00762
G1 F300.0 X100.59644 Y45.22493
G1 F800.0 X104.29196 Y46.75567
G1 X106.74113 Y40.84284
G1 X100.82831 Y38.39366
G1 X98.37913 Y44.30649
G1 X100.59644 Y45.22493
G1 F300.0 X99.678 Y47.44224
G1 F800.0 X105.59083 Y49.89142
G1 X109.87689 Y39.54397
G1 X99.52944 Y35.25791
G1 X95.24338 Y45.60536
G1 X99.678 Y47.44224
G1 F300.0 X98.75956 Y49.65956
G1 F800.0 X106.8897 Y53.02717
G1 X113.01264 Y38.2451
G1 X98.23056 Y32.12216
G1 X92.10763 Y46.90423
G1 X98.75956 Y49.65956
G0 Z3.0
G0 X101.51488 Y43.00762
G0 Z-10.0
G1 F300.0 Z-12.0
G1 F800.0 X102.99309 Y43.61992
G1 X103.60538 Y42.14171
G1 X102.12718 Y41.52942
G1 X101.51488 Y43.00762
G1 F300.0 X100.59644 Y45.22493
G1 F800.0 X104.29196 Y46.75567
G1 X106.74113 Y40.84284
G1 X100.82831 Y38.39366
G1 X98.37913 Y44.30649
G1 X100.59644 Y45.22493
G1 F300.0 X99.678 Y47.44224
G1 F800.0 X105.59083 Y49.89142
G1 X109.87689 Y39.54397
G1 X99.52944 Y35.25791
G1 X95.24338 Y45.60536
G1 X99.678 Y47.44224
G1 F300.0 X98.75956 Y49.65956
G1 F800.0 X106.8897 Y53.02717
G1 X113.01264 Y38.2451
G1 X98.23056 Y32.12216
G1 X92.10763 Y46.90423
G1 X98.75956 Y49.65956
G0 Z3.0
G0 X110.24583 Y0.8858
G0 Z1.0
G1 F300.0 Z-1.0
G1 F800.0 X111.84583
G1 Y-0.7142
G1 X110.24583
G1 Y0.8858
G1 F300.0 Y3.2858
G1 F800.0 X114.24583
G1 Y-3.1142
G1 X107.84583
G1 Y3.2858
G1 X110.24583
G1 F300.0 Y5.6858
G1 F800.0 X116.64583
G1 Y-5.5142
G1 X105.44583
G1 Y5.6858
G1 X110.24583
G1 F300.0 Y8.0858
G1 F800.0 X119.04583
G1 Y-7.9142
G1 X103.04583
G1 Y8.0858
G1 X110.24583
G0 Z3.0
G0 Y0.8858
G0 Z0.0
G1 F300.0 Z-2.0
G1 F800.0 X111.84583
G1 Y-0.7142
G1 X110.24583
G1 Y0.8858
G1 F300.0 Y3.2858
G1 F800.0 X114.24583
G1 Y-3.1142
G1 X107.84583
G1 Y3.2858
G1 X110.24583
G1 F300.0 Y5.6858
G1 F800.0 X116.64583
G1 Y-5.5142
G1 X105.44583
G1 Y5.6858
G1 X110.24583
G1 F300.0 Y8.0858
G1 F800.0 X119.04583
G1 Y-7.9142
G1 X103.04583
G1 Y8.0858
G1 X110.24583
G0 Z3.0
G0 Y0.8858
G0 Z-1.0
G1 F300.0 Z-3.0
G1 F800.0 X111.84583
G1 Y-0.7142
G1 X110.24583
G1 Y0.8858
G1 F300.0 Y3.2858
G1 F800.0 X114.24583
G1 Y-3.1142
G1 X107.84583
G1 Y3.2858
G1 X110.24583
G1 F300.0 Y5.6858
G1 F800.0 X116.64583
G1 Y-5.5142
G1 X105.44583
G1 Y5.6858
G1 X110.24583
G1 F300.0 Y8.0858
G1 F800.0 X119.04583
G1 Y-7.9142
G1 X103.04583
G1 Y8.0858
G1 X110.24583
G0 Z3.0
G0 Y0.8858
G0 Z-2.0
G1 F300.0 Z-4.0
G1 F800.0 X111.84583
G1 Y-0.7142
G1 X110.24583
G1 Y0.8858
G1 F300.0 Y3.2858
G1 F800.0 X114.24583
G1 Y-3.1142
G1 X107.84583
G1 Y3.2858
G1 X110.24583
G1 F300.0 Y5.6858
G1 F800.0 X116.64583
G1 Y-5.5142
G1 X105.44583
G1 Y5.6858
G1 X110.24583
G1 F300.0 Y8.0858
G1 F800.0 X119.04583
G1 Y-7.9142
G1 X103.04583
G1 Y8.0858
G1 X110.24583
G0 Z3.0
G0 Y0.8858
G0 Z-3.0
G1 F300.0 Z-5.0
G1 F800.0 X111.84583
G1 Y-0.7142
G1 X110.24583
G1 Y0.8858
G1 F300.0 Y3.2858
G1 F800.0 X114.24583
G1 Y-3.1142
G1 X107.84583
G1 Y3.2858
G1 X110.24583
G1 F300.0 Y5.6858
G1 F800.0 X116.64583
G1 Y-5.5142
G1 X105.44583
G1 Y5.6858
G1 X110.24583
G1 F300.0 Y8.0858
G1 F800.0 X119.04583
G1 Y-7.9142
G1 X103.04583
G1 Y8.0858
G1 X110.24583
G0 Z3.0
G0 Y0.8858
G0 Z-4.0
G1 F300.0 Z-6.0
G1 F800.0 X111.84583
G1 Y-0.7142
G1 X110.24583
G1 Y0.8858
G1 F300.0 Y3.2858
G1 F800.0 X114.24583
G1 Y-3.1142
G1 X107.84583
G1 Y3.2858
G1 X110.24583
G1 F300.0 Y5.6858
G1 F800.0 X116.64583
G1 Y-5.5142
G1 X105.44583
G1 Y5.6858
G1 X110.24583
G1 F300.0 Y8.0858
G1 F800.0 X119.04583
G1 Y-7.9142
G1 X103.04583
G1 Y8.0858
G1 X110.24583
G0 Z3.0
G0 Y0.8858
G0 Z-5.0
G1 F300.0 Z-7.0
G1 F800.0 X111.84583
G1 Y-0.7142
G1 X110.24583
G1 Y0.8858
G1 F300.0 Y3.2858
G1 F800.0 X114.24583
G1 Y-3.1142
G1 X107.84583
G1 Y3.2858
G1 X110.24583
G1 F300.0 Y5.6858
G1 F800.0 X116.64583
G1 Y-5.5142
G1 X105.44583
G1 Y5.6858
G1 X110.24583
G1 F300.0 Y8.0858
G1 F800.0 X119.04583
G1 Y-7.9142
G1 X103.04583
G1 Y8.0858
G1 X110.24583
G0 Z3.0
G0 Y0.8858
G0 Z-6.0
G1 F300.0 Z-8.0
G1 F800.0 X111.84583
G1 Y-0.7142
G1 X110.24583
G1 Y0.8858
G1 F300.0 Y3.2858
G1 F800.0 X114.24583
G1 Y-3.1142
G1 X107.84583
G1 Y3.2858
G1 X110.24583
G1 F300.0 Y5.6858
G1 F800.0 X116.64583
G1 Y-5.5142
G1 X105.44583
G1 Y5.6858
G1 X110.24583
G1 F300.0 Y8.0858
G1 F800.0 X119.04583
G1 Y-7.9142
G1 X103.04583
G1 Y8.0858
G1 X110.24583
G0 Z3.0
G0 Y0.8858
G0 Z-7.0
G1 F300.0 Z-9.0
G1 F800.0 X111.84583
G1 Y-0.7142
G1 X110.24583
G1 Y0.8858
G1 F300.0 Y3.2858
G1 F800.0 X114.24583
G1 Y-3.1142
G1 X107.84583
G1 Y3.2858
G1 X110.24583
G1 F300.0 Y5.6858
G1 F800.0 X116.64583
G1 Y-5.5142
G1 X105.44583
G1 Y5.6858
G1 X110.24583
G1 F300.0 Y8.0858
G1 F800.0 X119.04583
G1 Y-7.9142
G1 X103.04583
G1 Y8.0858
G1 X110.24583
G0 Z3.0
G0 Y0.8858
G0 Z-8.0
G1 F300.0 Z-10.0
G1 F800.0 X111.84583
G1 Y-0.7142
G1 X110.24583
G1 Y0.8858
G1 F300.0 Y3.2858
G1 F800.0 X114.24583
G1 Y-3.1142
G1 X107.84583
G1 Y3.2858
G1 X110.24583
G1 F300.0 Y5.6858
G1 F800.0 X116.64583
G1 Y-5.5142
G1 X105.44583
G1 Y5.6858
G1 X110.24583
G1 F300.0 Y8.0858
G1 F800.0 X119.04583
G1 Y-7.9142
G1 X103.04583
G1 Y8.0858
G1 X110.24583
G0 Z3.0
G0 Y0.8858
G0 Z-9.0
G1 F300.0 Z-11.0
G1 F800.0 X111.84583
G1 Y-0.7142
G1 X110.24583
G1 Y0.8858
G1 F300.0 Y3.2858
G1 F800.0 X114.24583
G1 Y-3.1142
G1 X107.84583
G1 Y3.2858
G1 X110.24583
G1 F300.0 Y5.6858
G1 F800.0 X116.64583
G1 Y-5.5142
G1 X105.44583
G1 Y5.6858
G1 X110.24583
G1 F300.0 Y8.0858
G1 F800.0 X119.04583
G1 Y-7.9142
G1 X103.04583
G1 Y8.0858
G1 X110.24583
G0 Z3.0
G0 Y0.8858
G0 Z-10.0
G1 F300.0 Z-12.0
G1 F800.0 X111.84583
G1 Y-0.7142
G1 X110.24583
G1 Y0.8858
G1 F300.0 Y3.2858
G1 F800.0 X114.24583
G1 Y-3.1142
G1 X107.84583
G1 Y3.2858
G1 X110.24583
G1 F300.0 Y5.6858
G1 F800.0 X116.64583
G1 Y-5.5142
G1 X105.44583
G1 Y5.6858
G1 X110.24583
G1 F300.0 Y8.0858
G1 F800.0 X119.04583
G1 Y-7.9142
G1 X103.04583
G1 Y8.0858
G1 X110.24583
G0 Z3.0
G0 X102.19284 Y-41.37088
G0 Z1.0
G1 F300.0 Z-1.0
G1 F800.0 X103.67105 Y-41.98317
G1 X103.05876 Y-43.46138
G1 X101.58055 Y-42.84909
G1 X102.19284 Y-41.37088
G1 F300.0 X103.11128 Y-39.15357
G1 F800.0 X106.8068 Y-40.6843
G1 X104.35763 Y-46.59713
G1 X98.4448 Y-44.14796
G1 X100.89397 Y-38.23513
G1 X103.11128 Y-39.15357
G1 F300.0 X104.02972 Y-36.93626
G1 F800.0 X109.94255 Y-39.38543
G1 X105.6565 Y-49.73288
G1 X95.30905 Y-45.44683
G1 X99.5951 Y-35.09938
G1 X104.02972 Y-36.93626
G1 F300.0 X104.94816 Y-34.71895
G1 F800.0 X113.0783 Y-38.08656
G1 X106.95537 Y-52.86863
G1 X92.1733 Y-46.7457
G1 X98.29623 Y-31.96363
G1 X104.94816 Y-34.71895
G0 Z3.0
G0 X102.19284 Y-41.37088
G0 Z0.0
G1 F300.0 Z-2.0
G1 F800.0 X103.67105 Y-41.98317
G1 X103.05876 Y-43.46138
G1 X101.58055 Y-42.84909
G1 X102.19284 Y-41.37088
G1 F300.0 X103.11128 Y-39.15357
G1 F800.0 X106.8068 Y-40.6843
G1 X104.35763 Y-46.59713
G1 X98.4448 Y-44.14796
G1 X100.89397 Y-38.23513
G1 X103.11128 Y-39.15357
G1 F300.0 X104.02972 Y-36.93626
G1 F800.0 X109.94255 Y-39.38543
G1 X105.6565 Y-49.73288
G1 X95.30905 Y-45.44683
G1 X99.5951 Y-35.09938
G1 X104.02972 Y-36.93626
G1 F300.0 X104.94816 Y-34.71895
G1 F800.0 X113.0783 Y-38.08656
G1 X106.95537 Y-52.86863
G1 X92.1733 Y-46.7457
G1 X98.29623 Y-31.96363
G1 X104.94816 Y-34.71895
G0 Z3.0
G0 X102.19284 Y-41.37088
G0 Z-1.0
G1 F300.0 Z-3.0
G1 F800.0 X103.67105 Y-41.98317
G1 X103.05876 Y-43.46138
G1 X101.58055 Y-42.84909
G1 X102.19284 Y-41.37088
G1 F300.0 X103.11128 Y-39.15357
G1 F800.0 X106.8068 Y-40.6843
G1 X104.35763 Y-46.59713
G1 X98.4448 Y-44.14796
G1 X100.89397 Y-38.23513
G1 X103.11128 Y-39.15357
G1 F300.0 X104.02972 Y-36.93626
G1 F800.0 X109.94255 Y-39.38543
G1 X105.6565 Y-49.73288
G1 X95.30905 Y-45.44683
G1 X99.5951 Y-35.09938
G1 X104.02972 Y-36.93626
G1 F300.0 X104.94816 Y-34.71895
G1 F800.0 X113.0783 Y-38.08656
G1 X106.95537 Y-52.86863
G1 X92.1733 Y-46.7457
G1 X98.29623 Y-31.96363
G1 X104.94816 Y-34.71895
G0 Z3.0
G0 X102.19284 Y-41.37088
G0 Z-2.0
G1 F300.0 Z-4.0
G1 F800.0 X103.67105 Y-41.98317
G1 X103.05876 Y-43.46138
G1 X101.58055 Y-42.84909
G1 X102.19284 Y-41.37088
G1 F300.0 X103.11128 Y-39.15357
G1 F800.0 X106.8068 Y-40.6843
G1 X104.35763 Y-46.59713
G1 X98.4448 Y-44.14796
G1 X100.89397 Y-38.23513
G1 X103.11128 Y-39.15357
G1 F300.0 X104.02972 Y-36.93626
G1 F800.0 X109.94255 Y-39.38543
G1 X105.6565 Y-49.73288
G1 X95.30905 Y-45.44683
G1 X99.5951 Y-35.09938
G1 X104.02972 Y-36.93626
G1 F300.0 X104.94816 Y-34.71895
G1 F800.0 X113.0783 Y-38.08656
G1 X106.95537 Y-52.86863
G1 X92.1733 Y-46.7457
G1 X98.29623 Y-31.96363
G1 X104.94816 Y-34.71895
G0 Z3.0
G0 X102.19284 Y-41.37088
G0 Z-3.0
G1 F300.0 Z-5.0
G1 F800.0 X103.67105 Y-41.98317
G1 X103.05876 Y-43.46138
G1 X101.58055 Y-42.84909
G1 X102.19284 Y-41.37088
G1 F300.0 X103.11128 Y-39.15357
G1 F800.0 X106.8068 Y-40.6843
G1 X104.35763 Y-46.59713
G1 X98.4448 Y-44.14796
G1 X100.89397 Y-38.23513
G1 X103.11128 Y-39.15357
G1 F300.0 X104.02972 Y-36.93626
G1 F800.0 X109.94255 Y-39.38543
G1 X105.6565 Y-49.73288
G1 X95.30905 Y-45.44683
G1 X99.5951 Y-35.09938
G1 X104.02972 Y-36.93626
G1 F300.0 X104.94816 Y-34.71895
G1 F800.0 X113.0783 Y-38.08656
G1 X106.95537 Y-52.86863
G1 X92.1733 Y-46.7457
G1 X98.29623 Y-31.96363
G1 X104.94816 Y-34.71895
G0 Z3.0
G0 X102.19284 Y-41.37088
G0 Z-4.0
G1 F300.0 Z-6.0
G1 F800.0 X103.67105 Y-41.98317
G1 X103.05876 Y-43.46138
G1 X101.58055 Y-42.84909
G1 X102.19284 Y-41.37088
G1 F300.0 X103.11128 Y-39.15357
G1 F800.0 X106.8068 Y-40.6843
G1 X104.35763 Y-46.59713
G1 X98.4448 Y-44.14796
G1 X100.89397 Y-38.23513
G1 X103.11128 Y-39.15357
G1 F300.0 X104.02972 Y-36.93626
G1 F800.0 X109.94255 Y-39.38543
G1 X105.6565 Y-49.73288
G1 X95.30905 Y-45.44683
G1 X99.5951 Y-35.09938
G1 X104.02972 Y-36.93626
G1 F300.0 X104.94816 Y-34.71895
G1 F800.0 X113.0783 Y-38.08656
G1 X106.95537 Y-52.86863
G1 X92.1733 Y-46.7457
G1 X98.29623 Y-31.96363
G1 X104.94816 Y-34.71895
G0 Z3.0
G0 X102.19284 Y-41.37088
G0 Z-5.0
G1 F300.0 Z-7.0
G1 F800.0 X103.67105 Y-41.98317
G1 X103.05876 Y-43.46138
G1 X101.58055 Y-42.84909
G1 X102.19284 Y-41.37088
G1 F300.0 X103.11128 Y-39.15357
G1 F800.0 X106.8068 Y-40.6843
G1 X104.35763 Y-46.59713
G1 X98.4448 Y-44.14796
G1 X100.89397 Y-38.23513
G1 X103.11128 Y-39.15357
G1 F300.0 X104.02972 Y-36.93626
G1 F800.0 X109.94255 Y-39.38543
G1 X105.6565 Y-49.73288
G1 X95.30905 Y-45.44683
G1 X99.5951 Y-35.09938
G1 X104.02972 Y-36.93626
G1 F300.0 X104.94816 Y-34.71895
G1 F800.0 X113.0783 Y-38.08656
G1 X106.95537 Y-52.86863
G1 X92.1733 Y-46.7457
G1 X98.29623 Y-31.96363
G1 X104.94816 Y-34.71895
G0 Z3.0
G0 X102.19284 Y-41.37088
G0 Z-6.0
G1 F300.0 Z-8.0
G1 F800.0 X103.67105 Y-41.98317
G1 X103.05876 Y-43.46138
G1 X101.58055 Y-42.84909
G1 X102.19284 Y-41.37088
G1 F300.0 X103.11128 Y-39.15357
G1 F800.0 X106.8068 Y-40.6843
G1 X104.35763 Y-46.59713
G1 X98.4448 Y-44.14796
G1 X100.89397 Y-38.23513
G1 X103.11128 Y-39.15357
G1 F300.0 X104.02972 Y-36.93626
G1 F800.0 X109.94255 Y-39.38543
G1 X105.6565 Y-49.73288
G1 X95.30905 Y-45.44683
G1 X99.5951 Y-35.09938
G1 X104.02972 Y-36.93626
G1 F300.0 X104.94816 Y-34.71895
G1 F800.0 X113.0783 Y-38.08656
G1 X106.95537 Y-52.86863
G1 X92.1733 Y-46.7457
G1 X98.29623 Y-31.96363
G1 X104.94816 Y-34.71895
G0 Z3.0
G0 X102.19284 Y-41.37088
G0 Z-7.0
G1 F300.0 Z-9.0
G1 F800.0 X103.67105 Y-41.98317
G1 X103.05876 Y-43.46138
G1 X101.58055 Y-42.84909
G1 X102.19284 Y-41.37088
G1 F300.0 X103.11128 Y-39.15357
G1 F800.0 X106.8068 Y-40.6843
G1 X104.35763 Y-46.59713
G1 X98.4448 Y-44.14796
G1 X100.89397 Y-38.23513
G1 X103.11128 Y-39.15357
G1 F300.0 X104.02972 Y-36.93626
G1 F800.0 X109.94255 Y-39.38543
G1 X105.6565 Y-49.73288
G1 X95.30905 Y-45.44683
G1 X99.5951 Y-35.09938
G1 X104.02972 Y-36.93626
G1 F300.0 X104.94816 Y-34.71895
G1 F800.0 X113.0783 Y-38.08656
G1 X106.95537 Y-52.86863
G1 X92.1733 Y-46.7457
G1 X98.29623 Y-31.96363
G1 X104.94816 Y-34.71895
G0 Z3.0
G0 X102.19284 Y-41.37088
G0 Z-8.0
G1 F300.0 Z-10.0
G1 F800.0 X103.67105 Y-41.98317
G1 X103.05876 Y-43.46138
G1 X101.58055 Y-42.84909
G1 X102.19284 Y-41.37088
G1 F300.0 X103.11128 Y-39.15357
G1 F800.0 X106.8068 Y-40.6843
G1 X104.35763 Y-46.59713
G1 X98.4448 Y-44.14796
G1 X100.89397 Y-38.23513
G1 X103.11128 Y-39.15357
G1 F300.0 X104.02972 Y-36.93626
G1 F800.0 X109.94255 Y-39.38543
G1 X105.6565 Y-49.73288
G1 X95.30905 Y-45.44683
G1 X99.5951 Y-35.09938
G1 X104.02972 Y-36.93626
G1 F300.0 X104.94816 Y-34.71895
G1 F800.0 X113.0783 Y-38.08656
G1 X106.95537 Y-52.86863
G1 X92.1733 Y-46.7457
G1 X98.29623 Y-31.96363
G1 X104.94816 Y-34.71895
G0 Z3.0
G0 X102.19284 Y-41.37088
G0 Z-9.0
G1 F300.0 Z-11.0
G1 F800.0 X103.67105 Y-41.98317
G1 X103.05876 Y-43.46138
G1 X101.58055 Y-42.84909
G1 X102.19284 Y-41.37088
G1 F300.0 X103.11128 Y-39.15357
G1 F800.0 X106.8068 Y-40.6843
G1 X104.35763 Y-46.59713
G1 X98.4448 Y-44.14796
G1 X100.89397 Y-38.23513
G1 X103.11128 Y-39.15357
G1 F300.0 X104.02972 Y-36.93626
G1 F800.0 X109.94255 Y-39.38543
G1 X105.6565 Y-49.73288
G1 X95.30905 Y-45.44683
G1 X99.5951 Y-35.09938
G1 X104.02972 Y-36.93626
G1 F300.0 X104.94816 Y-34.71895
G1 F800.0 X113.0783 Y-38.08656
G1 X106.95537 Y-52.86863
G1 X92.1733 Y-46.7457
G1 X98.29623 Y-31.96363
G1 X104.94816 Y-34.71895
G0 Z3.0
G0 X102.19284 Y-41.37088
G0 Z-10.0
G1 F300.0 Z-12.0
G1 F800.0 X103.67105 Y-41.98317
G1 X103.05876 Y-43.46138
G1 X101.58055 Y-42.84909
G1 X102.19284 Y-41.37088
G1 F300.0 X103.11128 Y-39.15357
G1 F800.0 X106.8068 Y-40.6843
G1 X104.35763 Y-46.59713
G1 X98.4448 Y-44.14796
G1 X100.89397 Y-38.23513
G1 X103.11128 Y-39.15357
G1 F300.0 X104.02972 Y-36.93626
G1 F800.0 X109.94255 Y-39.38543
G1 X105.6565 Y-49.73288
G1 X95.30905 Y-45.44683
G1 X99.5951 Y-35.09938
G1 X104.02972 Y-36.93626
G1 F300.0 X104.94816 Y-34.71895
G1 F800.0 X113.0783 Y-38.08656
G1 X106.95537 Y-52.86863
G1 X92.1733 Y-46.7457
G1 X98.29623 Y-31.96363
G1 X104.94816 Y-34.71895
G0 Z3.0
G0 X78.58193 Y-77.32922
G0 Z1.0
G1 F300.0 Z-1.0
G1 F800.0 X79.7133 Y-78.46059
G1 X78.58193 Y-79.59196
G1 X77.45056 Y-78.46059
G1 X78.58193 Y-77.32922
G1 F300.0 X76.88487 Y-75.63216
G1 F800.0 X78.58193 Y-73.93511
G1 X83.10741 Y-78.46059
G1 X78.58193 Y-82.98607
G1 X74.05644 Y-78.46059
G1 X76.88487 Y-75.63216
G1 F300.0 X75.18781 Y-73.93511
G1 F800.0 X78.58193 Y-70.54099
G1 X86.50152 Y-78.46059
G1 X78.58193 Y-86.38018
G1 X70.66233 Y-78.46059
G1 X75.18781 Y-73.93511
G1 F300.0 X73.49076 Y-72.23805
G1 F800.0 X78.58193 Y-67.14688
G1 X89.89563 Y-78.46059
G1 X78.58193 Y-89.7743
G1 X67.26822 Y-78.46059
G1 X73.49076 Y-72.23805
G0 Z3.0
G0 X78.58193 Y-77.32922
G0 Z0.0
G1 F300.0 Z-2.0
G1 F800.0 X79.7133 Y-78.46059
G1 X78.58193 Y-79.59196
G1 X77.45056 Y-78.46059
G1 X78.58193 Y-77.32922
G1 F300.0 X76.88487 Y-75.63216
G1 F800.0 X78.58193 Y-73.93511
G1 X83.10741 Y-78.46059
G1 X78.58193 Y-82.98607
G1 X74.05644 Y-78.46059
G1 X76.88487 Y-75.63216
G1 F300.0 X75.18781 Y-73.93511
G1 F800.0 X78.58193 Y-70.54099
G1 X86.50152 Y-78.46059
G1 X78.58193 Y-86.38018
G1 X70.66233 Y-78.46059
G1 X75.18781 Y-73.93511
G1 F300.0 X73.49076 Y-72.23805
G1 F800.0 X78.58193 Y-67.14688
G1 X89.89563 Y-78.46059
G1 X78.58193 Y-89.7743
G1 X67.26822 Y-78.46059
G1 X73.49076 Y-72.23805
G0 Z3.0
G0 X78.58193 Y-77.32922
G0 Z-1.0
G1 F300.0 Z-3.0
G1 F800.0 X79.7133 Y-78.46059
G1 X78.58193 Y-79.59196
G1 X77.45056 Y-78.46059
G1 X78.58193 Y-77.32922
G1 F300.0 X76.88487 Y-75.63216
G1 F800.0 X78.58193 Y-73.93511
G1 X83.10741 Y-78.46059
G1 X78.58193 Y-82.98607
G1 X74.05644 Y-78.46059
G1 X76.88487 Y-75.63216
G1 F300.0 X75.18781 Y-73.93511
G1 F800.0 X78.58193 Y-70.54099
G1 X86.50152 Y-78.46059
G1 X78.58193 Y-86.38018
G1 X70.66233 Y-78.46059
G1 X75.18781 Y-73.93511
G1 F300.0 X73.49076 Y-72.23805
G1 F800.0 X78.58193 Y-67.14688
G1 X89.89563 Y-78.46059
G1 X78.58193 Y-89.7743
G1 X67.26822 Y-78.46059
G1 X73.49076 Y-72.23805
G0 Z3.0
G0 X78.58193 Y-77.32922
G0 Z-2.0
G1 F300.0 Z-4.0
G1 F800.0 X79.7133 Y-78.46059
G1 X78.58193 Y-79.59196
G1 X77.45056 Y-78.46059
G1 X78.58193 Y-77.32922
G1 F300.0 X76.88487 Y-75.63216
G1 F800.0 X78.58193 Y-73.93511
G1 X83.10741 Y-78.46059
G1 X78.58193 Y-82.98607
G1 X74.05644 Y-78.46059
G1 X76.88487 Y-75.63216
G1 F300.0 X75.18781 Y-73.93511
G1 F800.0 X78.58193 Y-70.54099
G1 X86.50152 Y-78.46059
G1 X78.58193 Y-86.38018
G1 X70.66233 Y-78.46059
G1 X75.18781 Y-73.93511
G1 F300.0 X73.49076 Y-72.23805
G1 F800.0 X78.58193 Y-67.14688
G1 X89.89563 Y-78.46059
G1 X78.58193 Y-89.7743
G1 X67.26822 Y-78.46059
G1 X73.49076 Y-72.23805
G0 Z3.0
G0 X78.58193 Y-77.32922
G0 Z-3.0
G1 F300.0 Z-5.0
G1 F800.0 X79.7133 Y-78.46059
G1 X78.58193 Y-79.59196
G1 X77.45056 Y-78.46059
G1 X78.58193 Y-77.32922
G1 F300.0 X76.88487 Y-75.63216
G1 F800.0 X78.58193 Y-73.93511
G1 X83.10741 Y-78.46059
G1 X78.58193 Y-82.98607
G1 X74.05644 Y-78.46059
G1 X76.88487 Y-75.63216
G1 F300.0 X75.18781 Y-73.93511
G1 F800.0 X78.58193 Y-70.54099
G1 X86.50152 Y-78.46059
G1 X78.58193 Y-86.38018
G1 X70.66233 Y-78.46059
G1 X75.18781 Y-73.93511
G1 F300.0 X73.49076 Y-72.23805
G1 F800.0 X78.58193 Y-67.14688
G1 X89.89563 Y-78.46059
G1 X78.58193 Y-89.7743
G1 X67.26822 Y-78.46059
G1 X73.49076 Y-72.23805
G0 Z3.0
G0 X78.58193 Y-77.32922
G0 Z-4.0
G1 F300.0 Z-6.0
G1 F800.0 X79.7133 Y-78.46059
G1 X78.58193 Y-79.59196
G1 X77.45056 Y-78.46059
G1 X78.58193 Y-77.32922
G1 F300.0 X76.88487 Y-75.63216
G1 F800.0 X78.58193 Y-73.93511
G1 X83.10741 Y-78.46059
G1 X78.58193 Y-82.98607
G1 X74.05644 Y-78.46059
G1 X76.88487 Y-75.63216
G1 F300.0 X75.18781 Y-73.93511
G1 F800.0 X78.58193 Y-70.54099
G1 X86.50152 Y-78.46059
G1 X78.58193 Y-86.38018
G1 X70.66233 Y-78.46059
G1 X75.18781 Y-73.93511
G1 F300.0 X73.49076 Y-72.23805
G1 F800.0 X78.58193 Y-67.14688
G1 X89.89563 Y-78.46059
G1 X78.58193 Y-89.7743
G1 X67.26822 Y-78.46059
G1 X73.49076 Y-72.23805
G0 Z3.0
G0 X78.58193 Y-77.32922
G0 Z-5.0
G1 F300.0 Z-7.0
G1 F800.0 X79.7133 Y-78.46059
G1 X78.58193 Y-79.59196
G1 X77.45056 Y-78.46059
G1 X78.58193 Y-77.32922
G1 F300.0 X76.88487 Y-75.63216
G1 F800.0 X78.58193 Y-73.93511
G1 X83.10741 Y-78.46059
G1 X78.58193 Y-82.98607
G1 X74.05644 Y-78.46059
G1 X76.88487 Y-75.63216
G1 F300.0 X75.18781 Y-73.93511
G1 F800.0 X78.58193 Y-70.54099
G1 X86.50152 Y-78.46059
G1 X78.58193 Y-86.38018
G1 X70.66233 Y-78.46059
G1 X75.18781 Y-73.93511
G1 F300.0 X73.49076 Y-72.23805
G1 F800.0 X78.58193 Y-67.14688
G1 X89.89563 Y-78.46059
G1 X78.58193 Y-89.7743
G1 X67.26822 Y-78.46059
G1 X73.49076 Y-72.23805
G0 Z3.0
G0 X78.58193 Y-77.32922
G0 Z-6.0
G1 F300.0 Z-8.0
G1 F800.0 X79.7133 Y-78.46059
G1 X78.58193 Y-79.59196
G1 X77.45056 Y-78.46059
G1 X78.58193 Y-77.32922
G1 F300.0 X76.88487 Y-75.63216
G1 F800.0 X78.58193 Y-73.93511
G1 X83.10741 Y-78.46059
G1 X78.58193 Y-82.98607
G1 X74.05644 Y-78.46059
G1 X76.88487 Y-75.63216
G1 F300.0 X75.18781 Y-73.93511
G1 F800.0 X78.58193 Y-70.54099
G1 X86.50152 Y-78.46059
G1 X78.58193 Y-86.38018
G1 X70.66233 Y-78.46059
G1 X75.18781 Y-73.93511
G1 F300.0 X73.49076 Y-72.23805
G1 F800.0 X78.58193 Y-67.14688
G1 X89.89563 Y-78.46059
G1 X78.58193 Y-89.7743
G1 X67.26822 Y-78.46059
G1 X73.49076 Y-72.23805
G0 Z3.0
G0 X78.58193 Y-77.32922
G0 Z-7.0
G1 F300.0 Z-9.0
G1 F800.0 X79.7133 Y-78.46059
G1 X78.58193 Y-79.59196
G1 X77.45056 Y-78.46059
G1 X78.58193 Y-77.32922
G1 F300.0 X76.88487 Y-75.63216
G1 F800.0 X78.58193 Y-73.93511
G1 X83.10741 Y-78.46059
G1 X78.58193 Y-82.98607
G1 X74.05644 Y-78.46059
G1 X76.88487 Y-75.63216
G1 F300.0 X75.18781 Y-73.93511
G1 F800.0 X78.58193 Y-70.54099
G1 X86.50152 Y-78.46059
G1 X78.58193 Y-86.38018
G1 X70.66233 Y-78.46059
G1 X75.18781 Y-73.93511
G1 F300.0 X73.49076 Y-72.23805
G1 F800.0 X78.58193 Y-67.14688
G1 X89.89563 Y-78.46059
G1 X78.58193 Y-89.7743
G1 X67.26822 Y-78.46059
G1 X73.49076 Y-72.23805
G0 Z3.0
G0 X78.58193 Y-77.32922
G0 Z-8.0
G1 F300.0 Z-10.0
G1 F800.0 X79.7133 Y-78.46059
G1 X78.58193 Y-79.59196
G1 X77.45056 Y-78.46059
G1 X78.58193 Y-77.32922
G1 F300.0 X76.88487 Y-75.63216
G1 F800.0 X78.58193 Y-73.93511
G1 X83.10741 Y-78.46059
G1 X78.58193 Y-82.98607
G1 X74.05644 Y-78.46059
G1 X76.88487 Y-75.63216
G1 F300.0 X75.18781 Y-73.93511
G1 F800.0 X78.58193 Y-70.54099
G1 X86.50152 Y-78.46059
G1 X78.58193 Y-86.38018
G1 X70.66233 Y-78.46059
G1 X75.18781 Y-73.93511
G1 F300.0 X73.49076 Y-72.23805
G1 F800.0 X78.58193 Y-67.14688
G1 X89.89563 Y-78.46059
G1 X78.58193 Y-89.7743
G1 X67.26822 Y-78.46059
G1 X73.49076 Y-72.23805
G0 Z3.0
G0 X78.58193 Y-77.32922
G0 Z-9.0
G1 F300.0 Z-11.0
G1 F800.0 X79.7133 Y-78.46059
G1 X78.58193 Y-79.59196
G1 X77.45056 Y-78.46059
G1 X78.58193 Y-77.32922
G1 F300.0 X76.88487 Y-75.63216
G1 F800.0 X78.58193 Y-73.93511
G1 X83.10741 Y-78.46059
G1 X78.58193 Y-82.98607
G1 X74.05644 Y-78.46059
G1 X76.88487 Y-75.63216
G1 F300.0 X75.18781 Y-73.93511
G1 F800.0 X78.58193 Y-70.54099
G1 X86.50152 Y-78.46059
G1 X78.58193 Y-86.38018
G1 X70.66233 Y-78.46059
G1 X75.18781 Y-73.93511
G1 F300.0 X73.49076 Y-72.23805
G1 F800.0 X78.58193 Y-67.14688
G1 X89.89563 Y-78.46059
G1 X78.58193 Y-89.7743
G1 X67.26822 Y-78.46059
G1 X73.49076 Y-72.23805
G0 Z3.0
G0 X78.58193 Y-77.32922
G0 Z-10.0
G1 F300.0 Z-12.0
G1 F800.0 X79.7133 Y-78.46059
G1 X78.58193 Y-79.59196
G1 X77.45056 Y-78.46059
G1 X78.58193 Y-77.32922
G1 F300.0 X76.88487 Y-75.63216
G1 F800.0 X78.58193 Y-73.93511
G1 X83.10741 Y-78.46059
G1 X78.58193 Y-82.98607
G1 X74.05644 Y-78.46059
G1 X76.88487 Y-75.63216
G1 F300.0 X75.18781 Y-73.93511
G1 F800.0 X78.58193 Y-70.54099
G1 X86.50152 Y-78.46059
G1 X78.58193 Y-86.38018
G1 X70.66233 Y-78.46059
G1 X75.18781 Y-73.93511
G1 F300.0 X73.49076 Y-72.23805
G1 F800.0 X78.58193 Y-67.14688
G1 X89.89563 Y-78.46059
G1 X78.58193 Y-89.7743
G1 X67.26822 Y-78.46059
G1 X73.49076 Y-72.23805
G0 Z3.0
G0 X43.00762 Y-101.51488
G0 Z1.0
G1 F300.0 Z-1.0
G1 F800.0 X43.61992 Y-102.99309
G1 X42.14171 Y-103.60538
G1 X41.52942 Y-102.12718
G1 X43.00762 Y-101.51488
G1 F300.0 X42.08918 Y-99.29757
G1 F800.0 X44.30649 Y-98.37913
G1 X46.75567 Y-104.29196
G1 X40.84284 Y-106.74113
G1 X38.39366 Y-100.82831
G1 X42.08918 Y-99.29757
G1 F300.0 X41.17074 Y-97.08026
G1 F800.0 X45.60536 Y-95.24338
G1 X49.89142 Y-105.59083
G1 X39.54397 Y-109.87689
G1 X35.25791 Y-99.52944
G1 X41.17074 Y-97.08026
G1 F300.0 X40.2523 Y-94.86295
G1 F800.0 X46.90423 Y-92.10763
G1 X53.02717 Y-106.8897
G1 X38.2451 Y-113.01264
G1 X32.12216 Y-98.23056
G1 X40.2523 Y-94.86295
G0 Z3.0
G0 X43.00762 Y-101.51488
G0 Z0.0
G1 F300.0 Z-2.0
G1 F800.0 X43.61992 Y-102.99309
G1 X42.14171 Y-103.60538
G1 X41.52942 Y-102.12718
G1 X43.00762 Y-101.51488
G1 F300.0 X42.08918 Y-99.29757
G1 F800.0 X44.30649 Y-98.37913
G1 X46.75567 Y-104.29196
G1 X40.84284 Y-106.74113
G1 X38.39366 Y-100.82831
G1 X42.08918 Y-99.29757
G1 F300.0 X41.17074 Y-97.08026
G1 F800.0 X45.60536 Y-95.24338
G1 X49.89142 Y-105.59083
G1 X39.54397 Y-109.87689
G1 X35.25791 Y-99.52944
G1 X41.17074 Y-97.08026
G1 F300.0 X40.2523 Y-94.86295
G1 F800.0 X46.90423 Y-92.10763
G1 X53.02717 Y-106.8897
G1 X38.2451 Y-113.01264
G1 X32.12216 Y-98.23056
G1 X40.2523 Y-94.86295
G0 Z3.0
G0 X43.00762 Y-101.51488
G0 Z-1.0
G1 F300.0 Z-3.0
G1 F800.0 X43.61992 Y-102.99309
G1 X42.14171 Y-103.60538
G1 X41.52942 Y-102.12718
G1 X43.00762 Y-101.51488
G1 F300.0 X42.08918 Y-99.29757
G1 F800.0 X44.30649 Y-98.37913
G1 X46.75567 Y-104.29196
G1 X40.84284 Y-106.74113
G1 X38.39366 Y-100.82831
G1 X42.08918 Y-99.29757
G1 F300.0 X41.17074 Y-97.08026
G1 F800.0 X45.60536 Y-95.24338
G1 X49.89142 Y-105.59083
G1 X39.54397 Y-109.87689
G1 X35.25791 Y-99.52944
G1 X41.17074 Y-97.08026
G1 F300.0 X40.2523 Y-94.86295
G1 F800.0 X46.90423 Y-92.10763
G1 X53.02717 Y-106.8897
G1 X38.2451 Y-113.01264
G1 X32.12216 Y-98.23056
G1 X40.2523 Y-94.86295
G0 Z3.0
G0 X43.00762 Y-101.51488
G0 Z-2.0
G1 F300.0 Z-4.0
G1 F800.0 X43.61992 Y-102.99309
G1 X42.14171 Y-103.60538
G1 X41.52942 Y-102.12718
G1 X43.00762 Y-101.51488
G1 F300.0 X42.08918 Y-99.29757
G1 F800.0 X44.30649 Y-98.37913
G1 X46.75567 Y-104.29196
G1 X40.84284 Y-106.74113
G1 X38.39366 Y-100.82831
G1 X42.08918 Y-99.29757
G1 F300.0 X41.17074 Y-97.08026
G1 F800.0 X45.60536 Y-95.24338
G1 X49.89142 Y-105.59083
G1 X39.54397 Y-109.87689
G1 X35.25791 Y-99.52944
G1 X41.17074 Y-97.08026
G1 F300.0 X40.2523 Y-94.86295
G1 F800.0 X46.90423 Y-92.10763
G1 X53.02717 Y-106.8897
G1 X38.2451 Y-113.01264
G1 X32.12216 Y-98.23056
G1 X40.2523 Y-94.86295
G0 Z3.0
G0 X43.00762 Y-101.51488
G0 Z-3.0
G1 F300.0 Z-5.0
G1 F800.0 X43.61992 Y-102.99309
G1 X42.14171 Y-103.60538
G1 X41.52942 Y-102.12718
G1 X43.00762 Y-101.51488
G1 F300.0 X42.08918 Y-99.29757
G1 F800.0 X44.30649 Y-98.37913
G1 X46.75567 Y-104.29196
G1 X40.84284 Y-106.74113
G1 X38.39366 Y-100.82831
G1 X42.08918 Y-99.29757
G1 F300.0 X41.17074 Y-97.08026
G1 F800.0 X45.60536 Y-95.24338
G1 X49.89142 Y-105.59083
G1 X39.54397 Y-109.87689
G1 X35.25791 Y-99.52944
G1 X41.17074 Y-97.08026
G1 F300.0 X40.2523 Y-94.86295
G1 F800.0 X46.90423 Y-92.10763
G1 X53.02717 Y-106.8897
G1 X38.2451 Y-113.01264
G1 X32.12216 Y-98.23056
G1 X40.2523 Y-94.86295
G0 Z3.0
G0 X43.00762 Y-101.51488
G0 Z-4.0
G1 F300.0 Z-6.0
G1 F800.0 X43.61992 Y-102.99309
G1 X42.14171 Y-103.60538
G1 X41.52942 Y-102.12718
G1 X43.00762 Y-101.51488
G1 F300.0 X42.08918 Y-99.29757
G1 F800.0 X44.30649 Y-98.37913
G1 X46.75567 Y-104.29196
G1 X40.84284 Y-106.74113
G1 X38.39366 Y-100.82831
G1 X42.08918 Y-99.29757
G1 F300.0 X41.17074 Y-97.08026
G1 F800.0 X45.60536 Y-95.24338
G1 X49.89142 Y-105.59083
G1 X39.54397 Y-109.87689
G1 X35.25791 Y-99.52944
G1 X41.17074 Y-97.08026
G1 F300.0 X40.2523 Y-94.86295
G1 F800.0 X46.90423 Y-92.10763
G1 X53.02717 Y-106.8897
G1 X38.2451 Y-113.01264
G1 X32.12216 Y-98.23056
G1 X40.2523 Y-94.86295
G0 Z3.0
G0 X43.00762 Y-101.51488
G0 Z-5.0
G1 F300.0 Z-7.0
G1 F800.0 X43.61992 Y-102.99309
G1 X42.14171 Y-103.60538
G1 X41.52942 Y-102.12718
G1 X43.00762 Y-101.51488
G1 F300.0 X42.08918 Y-99.29757
G1 F800.0 X44.30649 Y-98.37913
G1 X46.75567 Y-104.29196
G1 X40.84284 Y-106.74113
G1 X38.39366 Y-100.82831
G1 X42.08918 Y-99.29757
G1 F300.0 X41.17074 Y-97.08026
G1 F800.0 X45.60536 Y-95.24338
G1 X49.89142 Y-105.59083
G1 X39.54397 Y-109.87689
G1 X35.25791 Y-99.52944
G1 X41.17074 Y-97.08026
G1 F300.0 X40.2523 Y-94.86295
G1 F800.0 X46.90423 Y-92.10763
G1 X53.02717 Y-106.8897
G1 X38.2451 Y-113.01264
G1 X32.12216 Y-98.23056
G1 X40.2523 Y-94.86295
G0 Z3.0
G0 X43.00762 Y-101.51488
G0 Z-6.0
G1 F300.0 Z-8.0
G1 F800.0 X43.61992 Y-102.99309
G1 X42.14171 Y-103.60538
G1 X41.52942 Y-102.12718
G1 X43.00762 Y-101.51488
G1 F300.0 X42.08918 Y-99.29757
G1 F800.0 X44.30649 Y-98.37913
G1 X46.75567 Y-104.29196
G1 X40.84284 Y-106.74113
G1 X38.39366 Y-100.82831
G1 X42.08918 Y-99.29757
G1 F300.0 X41.17074 Y-97.08026
G1 F800.0 X45.60536 Y-95.24338
G1 X49.89142 Y-105.59083
G1 X39.54397 Y-109.87689
G1 X35.25791 Y-99.52944
G1 X41.17074 Y-97.08026
G1 F300.0 X40.2523 Y-94.86295
G1 F800.0 X46.90423 Y-92.10763
G1 X53.02717 Y-106.8897
G1 X38.2451 Y-113.01264
G1 X32.12216 Y-98.23056
G1 X40.2523 Y-94.86295
G0 Z3.0
G0 X43.00762 Y-101.51488
G0 Z-7.0
G1 F300.0 Z-9.0
G1 F800.0 X43.61992 Y-102.99309
G1 X42.14171 Y-103.60538
G1 X41.52942 Y-102.12718
G1 X43.00762 Y-101.51488
G1 F300.0 X42.08918 Y-99.29757
G1 F800.0 X44.30649 Y-98.37913
G1 X46.75567 Y-104.29196
G1 X40.84284 Y-106.74113
G1 X38.39366 Y-100.82831
G1 X42.08918 Y-99.29757
G1 F300.0 X41.17074 Y-97.08026
G1 F800.0 X45.60536 Y-95.24338
G1 X49.89142 Y-105.59083
G1 X39.54397 Y-109.87689
G1 X35.25791 Y-99.52944
G1 X41.17074 Y-97.08026
G1 F300.0 X40.2523 Y-94.86295
G1 F800.0 X46.90423 Y-92.10763
G1 X53.02717 Y-106.8897
G1 X38.2451 Y-113.01264
G1 X32.12216 Y-98.23056
G1 X40.2523 Y-94.86295
G0 Z3.0
G0 X43.00762 Y-101.51488
G0 Z-8.0
G1 F300.0 Z-10.0
G1 F800.0 X43.61992 Y-102.99309
G1 X42.14171 Y-103.60538
G1 X41.52942 Y-102.12718
G1 X43.00762 Y-101.51488
G1 F300.0 X42.08918 Y-99.29757
G1 F800.0 X44.30649 Y-98.37913
G1 X46.75567 Y-104.29196
G1 X40.84284 Y-106.74113
G1 X38.39366 Y-100.82831
G1 X42.08918 Y-99.29757
G1 F300.0 X41.17074 Y-97.08026
G1 F800.0 X45.60536 Y-95.24338
G1 X49.89142 Y-105.59083
G1 X39.54397 Y-109.87689
G1 X35.25791 Y-99.52944
G1 X41.17074 Y-97.08026
G1 F300.0 X40.2523 Y-94.86295
G1 F800.0 X46.90423 Y-92.10763
G1 X53.02717 Y-106.8897
G1 X38.2451 Y-113.01264
G1 X32.12216 Y-98.23056
G1 X40.2523 Y-94.86295
G0 Z3.0
G0 X43.00762 Y-101.51488
G0 Z-9.0
G1 F300.0 Z-11.0
G1 F800.0 X43.61992 Y-102.99309
G1 X42.14171 Y-103.60538
G1 X41.52942 Y-102.12718
G1 X43.00762 Y-101.51488
G1 F300.0 X42.08918 Y-99.29757
G1 F800.0 X44.30649 Y-98.37913
G1 X46.75567 Y-104.29196
G1 X40.84284 Y-106.74113
G1 X38.39366 Y-100.82831
G1 X42.08918 Y-99.29757
G1 F300.0 X41.17074 Y-97.08026
G1 F800.0 X45.60536 Y-95.24338
G1 X49.89142 Y-105.59083
G1 X39.54397 Y-109.87689
G1 X35.25791 Y-99.52944
G1 X41.17074 Y-97.08026
G1 F300.0 X40.2523 Y-94.86295
G1 F800.0 X46.90423 Y-92.10763
G1 X53.02717 Y-106.8897
G1 X38.2451 Y-113.01264
G1 X32.12216 Y-98.23056
G1 X40.2523 Y-94.86295
G0 Z3.0
G0 X43.00762 Y-101.51488
G0 Z-10.0
G1 F300.0 Z-12.0
G1 F800.0 X43.61992 Y-102.99309
G1 X42.14171 Y-103.60538
G1 X41.52942 Y-102.12718
G1 X43.00762 Y-101.51488
G1 F300.0 X42.08918 Y-99.29757
G1 F800.0 X44.30649 Y-98.37913
G1 X46.75567 Y-104.29196
G1 X40.84284 Y-106.74113
G1 X38.39366 Y-100.82831
G1 X42.08918 Y-99.29757
G1 F300.0 X41.17074 Y-97.08026
G1 F800.0 X45.60536 Y-95.24338
G1 X49.89142 Y-105.59083
G1 X39.54397 Y-109.87689
G1 X35.25791 Y-99.52944
G1 X41.17074 Y-97.08026
G1 F300.0 X40.2523 Y-94.86295
G1 F800.0 X46.90423 Y-92.10763
G1 X53.02717 Y-106.8897
G1 X38.2451 Y-113.01264
G1 X32.12216 Y-98.23056
G1 X40.2523 Y-94.86295
G0 Z3.0
G0 X0.8858 Y-110.24583
G0 Z1.0
G1 F300.0 Z-1.0
G1 F800.0 Y-111.84583
G1 X-0.7142
G1 Y-110.24583
G1 X0.8858
G1 F300.0 Y-107.84583
G1 F800.0 X3.2858
G1 Y-114.24583
G1 X-3.1142
G1 Y-107.84583
G1 X0.8858
G1 F300.0 Y-105.44583
G1 F800.0 X5.6858
G1 Y-116.64583
G1 X-5.5142
G1 Y-105.44583
G1 X0.8858
G1 F300.0 Y-103.04583
G1 F800.0 X8.0858
G1 Y-119.04583
G1 X-7.9142
G1 Y-103.04583
G1 X0.8858
G0 Z3.0
G0 Y-110.24583
G0 Z0.0
G1 F300.0 Z-2.0
G1 F800.0 Y-111.84583
G1 X-0.7142
G1 Y-110.24583
G1 X0.8858
G1 F300.0 Y-107.84583
G1 F800.0 X3.2858
G1 Y-114.24583
G1 X-3.1142
G1 Y-107.84583
G1 X0.8858
G1 F300.0 Y-105.44583
G1 F800.0 X5.6858
G1 Y-116.64583
G1 X-5.5142
G1 Y-105.44583
G1 X0.8858
G1 F300.0 Y-103.04583
G1 F800.0 X8.0858
G1 Y-119.04583
G1 X-7.9142
G1 Y-103.04583
G1 X0.8858
G0 Z3.0
G0 Y-110.24583
G0 Z-1.0
G1 F300.0 Z-3.0
G1 F800.0 Y-111.84583
G1 X-0.7142
G1 Y-110.24583
G1 X0.8858
G1 F300.0 Y-107.84583
G1 F800.0 X3.2858
G1 Y-114.24583
G1 X-3.1142
G1 Y-107.84583
G1 X0.8858
G1 F300.0 Y-105.44583
G1 F800.0 X5.6858
G1 Y-116.64583
G1 X-5.5142
G1 Y-105.44583
G1 X0.8858
G1 F300.0 Y-103.04583
G1 F800.0 X8.0858
G1 Y-119.04583
G1 X-7.9142
G1 Y-103.04583
G1 X0.8858
G0 Z3.0
G0 Y-110.24583
G0 Z-2.0
G1 F300.0 Z-4.0
G1 F800.0 Y-111.84583
G1 X-0.7142
G1 Y-110.24583
G1 X0.8858
G1 F300.0 Y-107.84583
G1 F800.0 X3.2858
G1 Y-114.24583
G1 X-3.1142
G1 Y-107.84583
G1 X0.8858
G1 F300.0 Y-105.44583
G1 F800.0 X5.6858
G1 Y-116.64583
G1 X-5.5142
G1 Y-105.44583
G1 X0.8858
G1 F300.0 Y-103.04583
G1 F800.0 X8.0858
G1 Y-119.04583
G1 X-7.9142
G1 Y-103.04583
G1 X0.8858
G0 Z3.0
G0 Y-110.24583
G0 Z-3.0
G1 F300.0 Z-5.0
G1 F800.0 Y-111.84583
G1 X-0.7142
G1 Y-110.24583
G1 X0.8858
G1 F300.0 Y-107.84583
G1 F800.0 X3.2858
G1 Y-114.24583
G1 X-3.1142
G1 Y-107.84583
G1 X0.8858
G1 F300.0 Y-105.44583
G1 F800.0 X5.6858
G1 Y-116.64583
G1 X-5.5142
G1 Y-105.44583
G1 X0.8858
G1 F300.0 Y-103.04583
G1 F800.0 X8.0858
G1 Y-119.04583
G1 X-7.9142
G1 Y-103.04583
G1 X0.8858
G0 Z3.0
G0 Y-110.24583
G0 Z-4.0
G1 F300.0 Z-6.0
G1 F800.0 Y-111.84583
G1 X-0.7142
G1 Y-110.24583
G1 X0.8858
G1 F300.0 Y-107.84583
G1 F800.0 X3.2858
G1 Y-114.24583
G1 X-3.1142
G1 Y-107.84583
G1 X0.8858
G1 F300.0 Y-105.44583
G1 F800.0 X5.6858
G1 Y-116.64583
G1 X-5.5142
G1 Y-105.44583
G1 X0.8858
G1 F300.0 Y-103.04583
G1 F800.0 X8.0858
G1 Y-119.04583
G1 X-7.9142
G1 Y-103.04583
G1 X0.8858
G0 Z3.0
G0 Y-110.24583
G0 Z-5.0
G1 F300.0 Z-7.0
G1 F800.0 Y-111.84583
G1 X-0.7142
G1 Y-110.24583
G1 X0.8858
G1 F300.0 Y-107.84583
G1 F800.0 X3.2858
G1 Y-114.24583
G1 X-3.1142
G1 Y-107.84583
G1 X0.8858
G1 F300.0 Y-105.44583
G1 F800.0 X5.6858
G1 Y-116.64583
G1 X-5.5142
G1 Y-105.44583
G1 X0.8858
G1 F300.0 Y-103.04583
G1 F800.0 X8.0858
G1 Y-119.04583
G1 X-7.9142
G1 Y-103.04583
G1 X0.8858
G0 Z3.0
G0 Y-110.24583
G0 Z-6.0
G1 F300.0 Z-8.0
G1 F800.0 Y-111.84583
G1 X-0.7142
G1 Y-110.24583
G1 X0.8858
G1 F300.0 Y-107.84583
G1 F800.0 X3.2858
G1 Y-114.24583
G1 X-3.1142
G1 Y-107.84583
G1 X0.8858
G1 F300.0 Y-105.44583
G1 F800.0 X5.6858
G1 Y-116.64583
G1 X-5.5142
G1 Y-105.44583
G1 X0.8858
G1 F300.0 Y-103.04583
G1 F800.0 X8.0858
G1 Y-119.04583
G1 X-7.9142
G1 Y-103.04583
G1 X0.8858
G0 Z3.0
G0 Y-110.24583
G0 Z-7.0
G1 F300.0 Z-9.0
G1 F800.0 Y-111.84583
G1 X-0.7142
G1 Y-110.24583
G1 X0.8858
G1 F300.0 Y-107.84583
G1 F800.0 X3.2858
G1 Y-114.24583
G1 X-3.1142
G1 Y-107.84583
G1 X0.8858
G1 F300.0 Y-105.44583
G1 F800.0 X5.6858
G1 Y-116.64583
G1 X-5.5142
G1 Y-105.44583
G1 X0.8858
G1 F300.0 Y-103.04583
G1 F800.0 X8.0858
G1 Y-119.04583
G1 X-7.9142
G1 Y-103.04583
G1 X0.8858
G0 Z3.0
G0 Y-110.24583
G0 Z-8.0
G1 F300.0 Z-10.0
G1 F800.0 Y-111.84583
G1 X-0.7142
G1 Y-110.24583
G1 X0.8858
G1 F300.0 Y-107.84583
G1 F800.0 X3.2858
G1 Y-114.24583
G1 X-3.1142
G1 Y-107.84583
G1 X0.8858
G1 F300.0 Y-105.44583
G1 F800.0 X5.6858
G1 Y-116.64583
G1 X-5.5142
G1 Y-105.44583
G1 X0.8858
G1 F300.0 Y-103.04583
G1 F800.0 X8.0858
G1 Y-119.04583
G1 X-7.9142
G1 Y-103.04583
G1 X0.8858
G0 Z3.0
G0 Y-110.24583
G0 Z-9.0
G1 F300.0 Z-11.0
G1 F800.0 Y-111.84583
G1 X-0.7142
G1 Y-110.24583
G1 X0.8858
G1 F300.0 Y-107.84583
G1 F800.0 X3.2858
G1 Y-114.24583
G1 X-3.1142
G1 Y-107.84583
G1 X0.8858
G1 F300.0 Y-105.44583
G1 F800.0 X5.6858
G1 Y-116.64583
G1 X-5.5142
G1 Y-105.44583
G1 X0.8858
G1 F300.0 Y-103.04583
G1 F800.0 X8.0858
G1 Y-119.04583
G1 X-7.9142
G1 Y-103.04583
G1 X0.8858
G0 Z3.0
G0 Y-110.24583
G0 Z-10.0
G1 F300.0 Z-12.0
G1 F800.0 Y-111.84583
G1 X-0.7142
G1 Y-110.24583
G1 X0.8858
G1 F300.0 Y-107.84583
G1 F800.0 X3.2858
G1 Y-114.24583
G1 X-3.1142
G1 Y-107.84583
G1 X0.8858
G1 F300.0 Y-105.44583
G1 F800.0 X5.6858
G1 Y-116.64583
G1 X-5.5142
G1 Y-105.44583
G1 X0.8858
G1 F300.0 Y-103.04583
G1 F800.0 X8.0858
G1 Y-119.04583
G1 X-7.9142
G1 Y-103.04583
G1 X0.8858
G0 Z3.0
G0 X-41.37088 Y-102.19284
G0 Z1.0
G1 F300.0 Z-1.0
G1 F800.0 X-41.98317 Y-103.67105
G1 X-43.46138 Y-103.05876
G1 X-42.84909 Y-101.58055
G1 X-41.37088 Y-102.19284
G1 F300.0 X-40.45244 Y-99.97553
G1 F800.0 X-38.23513 Y-100.89397
G1 X-40.6843 Y-106.8068
G1 X-46.59713 Y-104.35763
G1 X-44.14796 Y-98.4448
G1 X-40.45244 Y-99.97553
G1 F300.0 X-39.534 Y-97.75822
G1 F800.0 X-35.09938 Y-99.5951
G1 X-39.38543 Y-109.94255
G1 X-49.73288 Y-105.6565
G1 X-45.44683 Y-95.30905
G1 X-39.534 Y-97.75822
G1 F300.0 X-38.61556 Y-95.54091
G1 F800.0 X-31.96363 Y-98.29623
G1 X-38.08656 Y-113.0783
G1 X-52.86863 Y-106.95537
G1 X-46.7457 Y-92.1733
G1 X-38.61556 Y-95.54091
G0 Z3.0
G0 X-41.37088 Y-102.19284
G0 Z0.0
G1 F300.0 Z-2.0
G1 F800.0 X-41.98317 Y-103.67105
G1 X-43.46138 Y-103.05876
G1 X-42.84909 Y-101.58055
G1 X-41.37088 Y-102.19284
G1 F300.0 X-40.45244 Y-99.97553
G1 F800.0 X-38.23513 Y-100.89397
G1 X-40.6843 Y-106.8068
G1 X-46.59713 Y-104.35763
G1 X-44.14796 Y-98.4448
G1 X-40.45244 Y-99.97553
G1 F300.0 X-39.534 Y-97.75822
G1 F800.0 X-35.09938 Y-99.5951
G1 X-39.38543 Y-109.94255
G1 X-49.73288 Y-105.6565
G1 X-45.44683 Y-95.30905
G1 X-39.534 Y-97.75822
G1 F300.0 X-38.61556 Y-95.54091
G1 F800.0 X-31.96363 Y-98.29623
G1 X-38.08656 Y-113.0783
G1 X-52.86863 Y-106.95537
G1 X-46.7457 Y-92.1733
G1 X-38.61556 Y-95.54091
G0 Z3.0
G0 X-41.37088 Y-102.19284
G0 Z-1.0
G1 F300.0 Z-3.0
G1 F800.0 X-41.98317 Y-103.67105
G1 X-43.46138 Y-103.05876
G1 X-42.84909 Y-101.58055
G1 X-41.37088 Y-102.19284
G1 F300.0 X-40.45244 Y-99.97553
G1 F800.0 X-38.23513 Y-100.89397
G1 X-40.6843 Y-106.8068
G1 X-46.59713 Y-104.35763
G1 X-44.14796 Y-98.4448
G1 X-40.45244 Y-99.97553
G1 F300.0 X-39.534 Y-97.75822
G1 F800.0 X-35.09938 Y-99.5951
G1 X-39.38543 Y-109.94255
G1 X-49.73288 Y-105.6565
G1 X-45.44683 Y-95.30905
G1 X-39.534 Y-97.75822
G1 F300.0 X-38.61556 Y-95.54091
G1 F800.0 X-31.96363 Y-98.29623
G1 X-38.08656 Y-113.0783
G1 X-52.86863 Y-106.95537
G1 X-46.7457 Y-92.1733
G1 X-38.61556 Y-95.54091
G0 Z3.0
G0 X-41.37088 Y-102.19284
G0 Z-2.0
G1 F300.0 Z-4.0
G1 F800.0 X-41.98317 Y-103.67105
G1 X-43.46138 Y-103.05876
G1 X-42.84909 Y-101.58055
G1 X-41.37088 Y-102.19284
G1 F300.0 X-40.45244 Y-99.97553
G1 F800.0 X-38.23513 Y-100.89397
G1 X-40.6843 Y-106.8068
G1 X-46.59713 Y-104.35763
G1 X-44.14796 Y-98.4448
G1 X-40.45244 Y-99.97553
G1 F300.0 X-39.534 Y-97.75822
G1 F800.0 X-35.09938 Y-99.5951
G1 X-39.38543 Y-109.94255
G1 X-49.73288 Y-105.6565
G1 X-45.44683 Y-95.30905
G1 X-39.534 Y-97.75822
G1 F300.0 X-38.61556 Y-95.54091
G1 F800.0 X-31.96363 Y-98.29623
G1 X-38.08656 Y-113.0783
G1 X-52.86863 Y-106.95537
G1 X-46.7457 Y-92.1733
G1 X-38.61556 Y-95.54091
G0 Z3.0
G0 X-41.37088 Y-102.19284
G0 Z-3.0
G1 F300.0 Z-5.0
G1 F800.0 X-41.98317 Y-103.67105
G1 X-43.46138 Y-103.05876
G1 X-42.84909 Y-101.58055
G1 X-41.37088 Y-102.19284
G1 F300.0 X-40.45244 Y-99.97553
G1 F800.0 X-38.23513 Y-100.89397
G1 X-40.6843 Y-106.8068
G1 X-46.59713 Y-104.35763
G1 X-44.14796 Y-98.4448
G1 X-40.45244 Y-99.97553
G1 F300.0 X-39.534 Y-97.75822
G1 F800.0 X-35.09938 Y-99.5951
G1 X-39.38543 Y-109.94255
G1 X-49.73288 Y-105.6565
G1 X-45.44683 Y-95.30905
G1 X-39.534 Y-97.75822
G1 F300.0 X-38.61556 Y-95.54091
G1 F800.0 X-31.96363 Y-98.29623
G1 X-38.08656 Y-113.0783
G1 X-52.86863 Y-106.95537
G1 X-46.7457 Y-92.1733
G1 X-38.61556 Y-95.54091
G0 Z3.0
G0 X-41.37088 Y-102.19284
G0 Z-4.0
G1 F300.0 Z-6.0
G1 F800.0 X-41.98317 Y-103.67105
G1 X-43.46138 Y-103.05876
G1 X-42.84909 Y-101.58055
G1 X-41.37088 Y-102.19284
G1 F300.0 X-40.45244 Y-99.97553
G1 F800.0 X-38.23513 Y-100.89397
G1 X-40.6843 Y-106.8068
G1 X-46.59713 Y-104.35763
G1 X-44.14796 Y-98.4448
G1 X-40.45244 Y-99.97553
G1 F300.0 X-39.534 Y-97.75822
G1 F800.0 X-35.09938 Y-99.5951
G1 X-39.38543 Y-109.94255
G1 X-49.73288 Y-105.6565
G1 X-45.44683 Y-95.30905
G1 X-39.534 Y-97.75822
G1 F300.0 X-38.61556 Y-95.54091
G1 F800.0 X-31.96363 Y-98.29623
G1 X-38.08656 Y-113.0783
G1 X-52.86863 Y-106.95537
G1 X-46.7457 Y-92.1733
G1 X-38.61556 Y-95.54091
G0 Z3.0
G0 X-41.37088 Y-102.19284
G0 Z-5.0
G1 F300.0 Z-7.0
G1 F800.0 X-41.98317 Y-103.67105
G1 X-43.46138 Y-103.05876
G1 X-42.84909 Y-101.58055
G1 X-41.37088 Y-102.19284
G1 F300.0 X-40.45244 Y-99.97553
G1 F800.0 X-38.23513 Y-100.89397
G1 X-40.6843 Y-106.8068
G1 X-46.59713 Y-104.35763
G1 X-44.14796 Y-98.4448
G1 X-40.45244 Y-99.97553
G1 F300.0 X-39.534 Y-97.75822
G1 F800.0 X-35.09938 Y-99.5951
G1 X-39.38543 Y-109.94255
G1 X-49.73288 Y-105.6565
G1 X-45.44683 Y-95.30905
G1 X-39.534 Y-97.75822
G1 F300.0 X-38.61556 Y-95.54091
G1 F800.0 X-31.96363 Y-98.29623
G1 X-38.08656 Y-113.0783
G1 X-52.86863 Y-106.95537
G1 X-46.7457 Y-92.1733
G1 X-38.61556 Y-95.54091
G0 Z3.0
G0 X-41.37088 Y-102.19284
G0 Z-6.0
G1 F300.0 Z-8.0
G1 F800.0 X-41.98317 Y-103.67105
G1 X-43.46138 Y-103.05876
G1 X-42.84909 Y-101.58055
G1 X-41.37088 Y-102.19284
G1 F300.0 X-40.45244 Y-99.97553
G1 F800.0 X-38.23513 Y-100.89397
G1 X-40.6843 Y-106.8068
G1 X-46.59713 Y-104.35763
G1 X-44.14796 Y-98.4448
G1 X-40.45244 Y-99.97553
G1 F300.0 X-39.534 Y-97.75822
G1 F800.0 X-35.09938 Y-99.5951
G1 X-39.38543 Y-109.94255
G1 X-49.73288 Y-105.6565
G1 X-45.44683 Y-95.30905
G1 X-39.534 Y-97.75822
G1 F300.0 X-38.61556 Y-95.54091
G1 F800.0 X-31.96363 Y-98.29623
G1 X-38.08656 Y-113.0783
G1 X-52.86863 Y-106.95537
G1 X-46.7457 Y-92.1733
G1 X-38.61556 Y-95.54091
G0 Z3.0
G0 X-41.37088 Y-102.19284
G0 Z-7.0
G1 F300.0 Z-9.0
G1 F800.0 X-41.98317 Y-103.67105
G1 X-43.46138 Y-103.05876
G1 X-42.84909 Y-101.58055
G1 X-41.37088 Y-102.19284
G1 F300.0 X-40.45244 Y-99.97553
G1 F800.0 X-38.23513 Y-100.89397
G1 X-40.6843 Y-106.8068
G1 X-46.59713 Y-104.35763
G1 X-44.14796 Y-98.4448
G1 X-40.45244 Y-99.97553
G1 F300.0 X-39.534 Y-97.75822
G1 F800.0 X-35.09938 Y-99.5951
G1 X-39.38543 Y-109.94255
G1 X-49.73288 Y-105.6565
G1 X-45.44683 Y-95.30905
G1 X-39.534 Y-97.75822
G1 F300.0 X-38.61556 Y-95.54091
G1 F800.0 X-31.96363 Y-98.29623
G1 X-38.08656 Y-113.0783
G1 X-52.86863 Y-106.95537
G1 X-46.7457 Y-92.1733
G1 X-38.61556 Y-95.54091
G0 Z3.0
G0 X-41.37088 Y-102.19284
G0 Z-8.0
G1 F300.0 Z-10.0
G1 F800.0 X-41.98317 Y-103.67105
G1 X-43.46138 Y-103.05876
G1 X-42.84909 Y-101.58055
G1 X-41.37088 Y-102.19284
G1 F300.0 X-40.45244 Y-99.97553
G1 F800.0 X-38.23513 Y-100.89397
G1 X-40.6843 Y-106.8068
G1 X-46.59713 Y-104.35763
G1 X-44.14796 Y-98.4448
G1 X-40.45244 Y-99.97553
G1 F300.0 X-39.534 Y-97.75822
G1 F800.0 X-35.09938 Y-99.5951
G1 X-39.38543 Y-109.94255
G1 X-49.73288 Y-105.6565
G1 X-45.44683 Y-95.30905
G1 X-39.534 Y-97.75822
G1 F300.0 X-38.61556 Y-95.54091
G1 F800.0 X-31.96363 Y-98.29623
G1 X-38.08656 Y-113.0783
G1 X-52.86863 Y-106.95537
G1 X-46.7457 Y-92.1733
G1 X-38.61556 Y-95.54091
G0 Z3.0
G0 X-41.37088 Y-102.19284
G0 Z-9.0
G1 F300.0 Z-11.0
G1 F800.0 X-41.98317 Y-103.67105
G1 X-43.46138 Y-103.05876
G1 X-42.84909 Y-101.58055
G1 X-41.37088 Y-102.19284
G1 F300.0 X-40.45244 Y-99.97553
G1 F800.0 X-38.23513 Y-100.89397
G1 X-40.6843 Y-106.8068
G1 X-46.59713 Y-104.35763
G1 X-44.14796 Y-98.4448
G1 X-40.45244 Y-99.97553
G1 F300.0 X-39.534 Y-97.75822
G1 F800.0 X-35.09938 Y-99.5951
G1 X-39.38543 Y-109.94255
G1 X-49.73288 Y-105.6565
G1 X-45.44683 Y-95.30905
G1 X-39.534 Y-97.75822
G1 F300.0 X-38.61556 Y-95.54091
G1 F800.0 X-31.96363 Y-98.29623
G1 X-38.08656 Y-113.0783
G1 X-52.86863 Y-106.95537
G1 X-46.7457 Y-92.1733
G1 X-38.61556 Y-95.54091
G0 Z3.0
G0 X-41.37088 Y-102.19284
G0 Z-10.0
G1 F300.0 Z-12.0
G1 F800.0 X-41.98317 Y-103.67105
G1 X-43.46138 Y-103.05876
G1 X-42.84909 Y-101.58055
G1 X-41.37088 Y-102.19284
G1 F300.0 X-40.45244 Y-99.97553
G1 F800.0 X-38.23513 Y-100.89397
G1 X-40.6843 Y-106.8068
G1 X-46.59713 Y-104.35763
G1 X-44.14796 Y-98.4448
G1 X-40.45244 Y-99.97553
G1 F300.0 X-39.534 Y-97.75822
G1 F800.0 X-35.09938 Y-99.5951
G1 X-39.38543 Y-109.94255
G1 X-49.73288 Y-105.6565
G1 X-45.44683 Y-95.30905
G1 X-39.534 Y-97.75822
G1 F300.0 X-38.61556 Y-95.54091
G1 F800.0 X-31.96363 Y-98.29623
G1 X-38.08656 Y-113.0783
G1 X-52.86863 Y-106.95537
G1 X-46.7457 Y-92.1733
G1 X-38.61556 Y-95.54091
G0 Z3.0
G0 X-77.32922 Y-78.58193
G0 Z1.0
G1 F300.0 Z-1.0
G1 F800.0 X-78.46059 Y-79.7133
G1 X-79.59196 Y-78.58193
G1 X-78.46059 Y-77.45056
G1 X-77.32922 Y-78.58193
G1 F300.0 X-75.63216 Y-76.88487
G1 F800.0 X-73.93511 Y-78.58193
G1 X-78.46059 Y-83.10741
G1 X-82.98607 Y-78.58193
G1 X-78.46059 Y-74.05644
G1 X-75.63216 Y-76.88487
G1 F300.0 X-73.93511 Y-75.18781
G1 F800.0 X-70.54099 Y-78.58193
G1 X-78.46059 Y-86.50152
G1 X-86.38018 Y-78.58193
G1 X-78.46059 Y-70.66233
G1 X-73.93511 Y-75.18781
G1 F300.0 X-72.23805 Y-73.49076
G1 F800.0 X-67.14688 Y-78.58193
G1 X-78.46059 Y-89.89563
G1 X-89.7743 Y-78.58193
G1 X-78.46059 Y-67.26822
G1 X-72.23805 Y-73.49076
G0 Z3.0
G0 X-77.32922 Y-78.58193
G0 Z0.0
G1 F300.0 Z-2.0
G1 F800.0 X-78.46059 Y-79.7133
G1 X-79.59196 Y-78.58193
G1 X-78.46059 Y-77.45056
G1 X-77.32922 Y-78.58193
G1 F300.0 X-75.63216 Y-76.88487
G1 F800.0 X-73.93511 Y-78.58193
G1 X-78.46059 Y-83.10741
G1 X-82.98607 Y-78.58193
G1 X-78.46059 Y-74.05644
G1 X-75.63216 Y-76.88487
G1 F300.0 X-73.93511 Y-75.18781
G1 F800.0 X-70.54099 Y-78.58193
G1 X-78.46059 Y-86.50152
G1 X-86.38018 Y-78.58193
G1 X-78.46059 Y-70.66233
G1 X-73.93511 Y-75.18781
G1 F300.0 X-72.23805 Y-73.49076
G1 F800.0 X-67.14688 Y-78.58193
G1 X-78.46059 Y-89.89563
G1 X-89.7743 Y-78.58193
G1 X-78.46059 Y-67.26822
G1 X-72.23805 Y-73.49076
G0 Z3.0
G0 X-77.32922 Y-78.58193
G0 Z-1.0
G1 F300.0 Z-3.0
G1 F800.0 X-78.46059 Y-79.7133
G1 X-79.59196 Y-78.58193
G1 X-78.46059 Y-77.45056
G1 X-77.32922 Y-78.58193
G1 F300.0 X-75.63216 Y-76.88487
G1 F800.0 X-73.93511 Y-78.58193
G1 X-78.46059 Y-83.10741
G1 X-82.98607 Y-78.58193
G1 X-78.46059 Y-74.05644
G1 X-75.63216 Y-76.88487
G1 F300.0 X-73.93511 Y-75.18781
G1 F800.0 X-70.54099 Y-78.58193
G1 X-78.46059 Y-86.50152
G1 X-86.38018 Y-78.58193
G1 X-78.46059 Y-70.66233
G1 X-73.93511 Y-75.18781
G1 F300.0 X-72.23805 Y-73.49076
G1 F800.0 X-67.14688 Y-78.58193
G1 X-78.46059 Y-89.89563
G1 X-89.7743 Y-78.58193
G1 X-78.46059 Y-67.26822
G1 X-72.23805 Y-73.49076
G0 Z3.0
G0 X-77.32922 Y-78.58193
G0 Z-2.0
G1 F300.0 Z-4.0
G1 F800.0 X-78.46059 Y-79.7133
G1 X-79.59196 Y-78.58193
G1 X-78.46059 Y-77.45056
G1 X-77.32922 Y-78.58193
G1 F300.0 X-75.63216 Y-76.88487
G1 F800.0 X-73.93511 Y-78.58193
G1 X-78.46059 Y-83.10741
G1 X-82.98607 Y-78.58193
G1 X-78.46059 Y-74.05644
G1 X-75.63216 Y-76.88487
G1 F300.0 X-73.93511 Y-75.18781
G1 F800.0 X-70.54099 Y-78.58193
G1 X-78.46059 Y-86.50152
G1 X-86.38018 Y-78.58193
G1 X-78.46059 Y-70.66233
G1 X-73.93511 Y-75.18781
G1 F300.0 X-72.23805 Y-73.49076
G1 F800.0 X-67.14688 Y-78.58193
G1 X-78.46059 Y-89.89563
G1 X-89.7743 Y-78.58193
G1 X-78.46059 Y-67.26822
G1 X-72.23805 Y-73.49076
G0 Z3.0
G0 X-77.32922 Y-78.58193
G0 Z-3.0
G1 F300.0 Z-5.0
G1 F800.0 X-78.46059 Y-79.7133
G1 X-79.59196 Y-78.58193
G1 X-78.46059 Y-77.45056
G1 X-77.32922 Y-78.58193
G1 F300.0 X-75.63216 Y-76.88487
G1 F800.0 X-73.93511 Y-78.58193
G1 X-78.46059 Y-83.10741
G1 X-82.98607 Y-78.58193
G1 X-78.46059 Y-74.05644
G1 X-75.63216 Y-76.88487
G1 F300.0 X-73.93511 Y-75.18781
G1 F800.0 X-70.54099 Y-78.58193
G1 X-78.46059 Y-86.50152
G1 X-86.38018 Y-78.58193
G1 X-78.46059 Y-70.66233
G1 X-73.93511 Y-75.18781
G1 F300.0 X-72.23805 Y-73.49076
G1 F800.0 X-67.14688 Y-78.58193
G1 X-78.46059 Y-89.89563
G1 X-89.7743 Y-78.58193
G1 X-78.46059 Y-67.26822
G1 X-72.23805 Y-73.49076
G0 Z3.0
G0 X-77.32922 Y-78.58193
G0 Z-4.0
G1 F300.0 Z-6.0
G1 F800.0 X-78.46059 Y-79.7133
G1 X-79.59196 Y-78.58193
G1 X-78.46059 Y-77.45056
G1 X-77.32922 Y-78.58193
G1 F300.0 X-75.63216 Y-76.88487
G1 F800.0 X-73.93511 Y-78.58193
G1 X-78.46059 Y-83.10741
G1 X-82.98607 Y-78.58193
G1 X-78.46059 Y-74.05644
G1 X-75.63216 Y-76.88487
G1 F300.0 X-73.93511 Y-75.18781
G1 F800.0 X-70.54099 Y-78.58193
G1 X-78.46059 Y-86.50152
G1 X-86.38018 Y-78.58193
G1 X-78.46059 Y-70.66233
G1 X-73.93511 Y-75.18781
G1 F300.0 X-72.23805 Y-73.49076
G1 F800.0 X-67.14688 Y-78.58193
G1 X-78.46059 Y-89.89563
G1 X-89.7743 Y-78.58193
G1 X-78.46059 Y-67.26822
G1 X-72.23805 Y-73.49076
G0 Z3.0
G0 X-77.32922 Y-78.58193
G0 Z-5.0
G1 F300.0 Z-7.0
G1 F800.0 X-78.46059 Y-79.7133
G1 X-79.59196 Y-78.58193
G1 X-78.46059 Y-77.45056
G1 X-77.32922 Y-78.58193
G1 F300.0 X-75.63216 Y-76.88487
G1 F800.0 X-73.93511 Y-78.58193
G1 X-78.46059 Y-83.10741
G1 X-82.98607 Y-78.58193
G1 X-78.46059 Y-74.05644
G1 X-75.63216 Y-76.88487
G1 F300.0 X-73.93511 Y-75.18781
G1 F800.0 X-70.54099 Y-78.58193
G1 X-78.46059 Y-86.50152
G1 X-86.38018 Y-78.58193
G1 X-78.46059 Y-70.66233
G1 X-73.93511 Y-75.18781
G1 F300.0 X-72.23805 Y-73.49076
G1 F800.0 X-67.14688 Y-78.58193
G1 X-78.46059 Y-89.89563
G1 X-89.7743 Y-78.58193
G1 X-78.46059 Y-67.26822
G1 X-72.23805 Y-73.49076
G0 Z3.0
G0 X-77.32922 Y-78.58193
G0 Z-6.0
G1 F300.0 Z-8.0
G1 F800.0 X-78.46059 Y-79.7133
G1 X-79.59196 Y-78.58193
G1 X-78.46059 Y-77.45056
G1 X-77.32922 Y-78.58193
G1 F300.0 X-75.63216 Y-76.88487
G1 F800.0 X-73.93511 Y-78.58193
G1 X-78.46059 Y-83.10741
G1 X-82.98607 Y-78.58193
G1 X-78.46059 Y-74.05644
G1 X-75.63216 Y-76.88487
G1 F300.0 X-73.93511 Y-75.18781
G1 F800.0 X-70.54099 Y-78.58193
G1 X-78.46059 Y-86.50152
G1 X-86.38018 Y-78.58193
G1 X-78.46059 Y-70.66233
G1 X-73.93511 Y-75.18781
G1 F300.0 X-72.23805 Y-73.49076
G1 F800.0 X-67.14688 Y-78.58193
G1 X-78.46059 Y-89.89563
G1 X-89.7743 Y-78.58193
G1 X-78.46059 Y-67.26822
G1 X-72.23805 Y-73.49076
G0 Z3.0
G0 X-77.32922 Y-78.58193
G0 Z-7.0
G1 F300.0 Z-9.0
G1 F800.0 X-78.46059 Y-79.7133
G1 X-79.59196 Y-78.58193
G1 X-78.46059 Y-77.45056
G1 X-77.32922 Y-78.58193
G1 F300.0 X-75.63216 Y-76.88487
G1 F800.0 X-73.93511 Y-78.58193
G1 X-78.46059 Y-83.10741
G1 X-82.98607 Y-78.58193
G1 X-78.46059 Y-74.05644
G1 X-75.63216 Y-76.88487
G1 F300.0 X-73.93511 Y-75.18781
G1 F800.0 X-70.54099 Y-78.58193
G1 X-78.46059 Y-86.50152
G1 X-86.38018 Y-78.58193
G1 X-78.46059 Y-70.66233
G1 X-73.93511 Y-75.18781
G1 F300.0 X-72.23805 Y-73.49076
G1 F800.0 X-67.14688 Y-78.58193
G1 X-78.46059 Y-89.89563
G1 X-89.7743 Y-78.58193
G1 X-78.46059 Y-67.26822
G1 X-72.23805 Y-73.49076
G0 Z3.0
G0 X-77.32922 Y-78.58193
G0 Z-8.0
G1 F300.0 Z-10.0
G1 F800.0 X-78.46059 Y-79.7133
G1 X-79.59196 Y-78.58193
G1 X-78.46059 Y-77.45056
G1 X-77.32922 Y-78.58193
G1 F300.0 X-75.63216 Y-76.88487
G1 F800.0 X-73.93511 Y-78.58193
G1 X-78.46059 Y-83.10741
G1 X-82.98607 Y-78.58193
G1 X-78.46059 Y-74.05644
G1 X-75.63216 Y-76.88487
G1 F300.0 X-73.93511 Y-75.18781
G1 F800.0 X-70.54099 Y-78.58193
G1 X-78.46059 Y-86.50152
G1 X-86.38018 Y-78.58193
G1 X-78.46059 Y-70.66233
G1 X-73.93511 Y-75.18781
G1 F300.0 X-72.23805 Y-73.49076
G1 F800.0 X-67.14688 Y-78.58193
G1 X-78.46059 Y-89.89563
G1 X-89.7743 Y-78.58193
G1 X-78.46059 Y-67.26822
G1 X-72.23805 Y-73.49076
G0 Z3.0
G0 X-77.32922 Y-78.58193
G0 Z-9.0
G1 F300.0 Z-11.0
G1 F800.0 X-78.46059 Y-79.7133
G1 X-79.59196 Y-78.58193
G1 X-78.46059 Y-77.45056
G1 X-77.32922 Y-78.58193
G1 F300.0 X-75.63216 Y-76.88487
G1 F800.0 X-73.93511 Y-78.58193
G1 X-78.46059 Y-83.10741
G1 X-82.98607 Y-78.58193
G1 X-78.46059 Y-74.05644
G1 X-75.63216 Y-76.88487
G1 F300.0 X-73.93511 Y-75.18781
G1 F800.0 X-70.54099 Y-78.58193
G1 X-78.46059 Y-86.50152
G1 X-86.38018 Y-78.58193
G1 X-78.46059 Y-70.66233
G1 X-73.93511 Y-75.18781
G1 F300.0 X-72.23805 Y-73.49076
G1 F800.0 X-67.14688 Y-78.58193
G1 X-78.46059 Y-89.89563
G1 X-89.7743 Y-78.58193
G1 X-78.46059 Y-67.26822
G1 X-72.23805 Y-73.49076
G0 Z3.0
G0 X-77.32922 Y-78.58193
G0 Z-10.0
G1 F300.0 Z-12.0
G1 F800.0 X-78.46059 Y-79.7133
G1 X-79.59196 Y-78.58193
G1 X-78.46059 Y-77.45056
G1 X-77.32922 Y-78.58193
G1 F300.0 X-75.63216 Y-76.88487
G1 F800.0 X-73.93511 Y-78.58193
G1 X-78.46059 Y-83.10741
G1 X-82.98607 Y-78.58193
G1 X-78.46059 Y-74.05644
G1 X-75.63216 Y-76.88487
G1 F300.0 X-73.93511 Y-75.18781
G1 F800.0 X-70.54099 Y-78.58193
G1 X-78.46059 Y-86.50152
G1 X-86.38018 Y-78.58193
G1 X-78.46059 Y-70.66233
G1 X-73.93511 Y-75.18781
G1 F300.0 X-72.23805 Y-73.49076
G1 F800.0 X-67.14688 Y-78.58193
G1 X-78.46059 Y-89.89563
G1 X-89.7743 Y-78.58193
G1 X-78.46059 Y-67.26822
G1 X-72.23805 Y-73.49076
G0 Z3.0
G0 X-101.51488 Y-43.00762
G0 Z1.0
G1 F300.0 Z-1.0
G1 F800.0 X-102.99309 Y-43.61992
G1 X-103.60538 Y-42.14171
G1 X-102.12718 Y-41.52942
G1 X-101.51488 Y-43.00762
G1 F300.0 X-100.59644 Y-45.22493
G1 F800.0 X-104.29196 Y-46.75567
G1 X-106.74113 Y-40.84284
G1 X-100.82831 Y-38.39366
G1 X-98.37913 Y-44.30649
G1 X-100.59644 Y-45.22493
G1 F300.0 X-99.678 Y-47.44224
G1 F800.0 X-105.59083 Y-49.89142
G1 X-109.87689 Y-39.54397
G1 X-99.52944 Y-35.25791
G1 X-95.24338 Y-45.60536
G1 X-99.678 Y-47.44224
G1 F300.0 X-98.75956 Y-49.65956
G1 F800.0 X-106.8897 Y-53.02717
G1 X-113.01264 Y-38.2451
G1 X-98.23056 Y-32.12216
G1 X-92.10763 Y-46.90423
G1 X-98.75956 Y-49.65956
G0 Z3.0
G0 X-101.51488 Y-43.00762
G0 Z0.0
G1 F300.0 Z-2.0
G1 F800.0 X-102.99309 Y-43.61992
G1 X-103.60538 Y-42.14171
G1 X-102.12718 Y-41.52942
G1 X-101.51488 Y-43.00762
G1 F300.0 X-100.59644 Y-45.22493
G1 F800.0 X-104.29196 Y-46.75567
G1 X-106.74113 Y-40.84284
G1 X-100.82831 Y-38.39366
G1 X-98.37913 Y-44.30649
G1 X-100.59644 Y-45.22493
G1 F300.0 X-99.678 Y-47.44224
G1 F800.0 X-105.59083 Y-49.89142
G1 X-109.87689 Y-39.54397
G1 X-99.52944 Y-35.25791
G1 X-95.24338 Y-45.60536
G1 X-99.678 Y-47.44224
G1 F300.0 X-98.75956 Y-49.65956
G1 F800.0 X-106.8897 Y-53.02717
G1 X-113.01264 Y-38.2451
G1 X-98.23056 Y-32.12216
G1 X-92.10763 Y-46.90423
G1 X-98.75956 Y-49.65956
G0 Z3.0
G0 X-101.51488 Y-43.00762
G0 Z-1.0
G1 F300.0 Z-3.0
G1 F800.0 X-102.99309 Y-43.61992
G1 X-103.60538 Y-42.14171
G1 X-102.12718 Y-41.52942
G1 X-101.51488 Y-43.00762
G1 F300.0 X-100.59644 Y-45.22493
G1 F800.0 X-104.29196 Y-46.75567
G1 X-106.74113 Y-40.84284
G1 X-100.82831 Y-38.39366
G1 X-98.37913 Y-44.30649
G1 X-100.59644 Y-45.22493
G1 F300.0 X-99.678 Y-47.44224
G1 F800.0 X-105.59083 Y-49.89142
G1 X-109.87689 Y-39.54397
G1 X-99.52944 Y-35.25791
G1 X-95.24338 Y-45.60536
G1 X-99.678 Y-47.44224
G1 F300.0 X-98.75956 Y-49.65956
G1 F800.0 X-106.8897 Y-53.02717
G1 X-113.01264 Y-38.2451
G1 X-98.23056 Y-32.12216
G1 X-92.10763 Y-46.90423
G1 X-98.75956 Y-49.65956
G0 Z3.0
G0 X-101.51488 Y-43.00762
G0 Z-2.0
G1 F300.0 Z-4.0
G1 F800.0 X-102.99309 Y-43.61992
G1 X-103.60538 Y-42.14171
G1 X-102.12718 Y-41.52942
G1 X-101.51488 Y-43.00762
G1 F300.0 X-100.59644 Y-45.22493
G1 F800.0 X-104.29196 Y-46.75567
G1 X-106.74113 Y-40.84284
G1 X-100.82831 Y-38.39366
G1 X-98.37913 Y-44.30649
G1 X-100.59644 Y-45.22493
G1 F300.0 X-99.678 Y-47.44224
G1 F800.0 X-105.59083 Y-49.89142
G1 X-109.87689 Y-39.54397
G1 X-99.52944 Y-35.25791
G1 X-95.24338 Y-45.60536
G1 X-99.678 Y-47.44224
G1 F300.0 X-98.75956 Y-49.65956
G1 F800.0 X-106.8897 Y-53.02717
G1 X-113.01264 Y-38.2451
G1 X-98.23056 Y-32.12216
G1 X-92.10763 Y-46.90423
G1 X-98.75956 Y-49.65956
G0 Z3.0
G0 X-101.51488 Y-43.00762
G0 Z-3.0
G1 F300.0 Z-5.0
G1 F800.0 X-102.99309 Y-43.61992
G1 X-103.60538 Y-42.14171
G1 X-102.12718 Y-41.52942
G1 X-101.51488 Y-43.00762
G1 F300.0 X-100.59644 Y-45.22493
G1 F800.0 X-104.29196 Y-46.75567
G1 X-106.74113 Y-40.84284
G1 X-100.82831 Y-38.39366
G1 X-98.37913 Y-44.30649
G1 X-100.59644 Y-45.22493
G1 F300.0 X-99.678 Y-47.44224
G1 F800.0 X-105.59083 Y-49.89142
G1 X-109.87689 Y-39.54397
G1 X-99.52944 Y-35.25791
G1 X-95.24338 Y-45.60536
G1 X-99.678 Y-47.44224
G1 F300.0 X-98.75956 Y-49.65956
G1 F800.0 X-106.8897 Y-53.02717
G1 X-113.01264 Y-38.2451
G1 X-98.23056 Y-32.12216
G1 X-92.10763 Y-46.90423
G1 X-98.75956 Y-49.65956
G0 Z3.0
G0 X-101.51488 Y-43.00762
G0 Z-4.0
G1 F300.0 Z-6.0
G1 F800.0 X-102.99309 Y-43.61992
G1 X-103.60538 Y-42.14171
G1 X-102.12718 Y-41.52942
G1 X-101.51488 Y-43.00762
G1 F300.0 X-100.59644 Y-45.22493
G1 F800.0 X-104.29196 Y-46.75567
G1 X-106.74113 Y-40.84284
G1 X-100.82831 Y-38.39366
G1 X-98.37913 Y-44.30649
G1 X-100.59644 Y-45.22493
G1 F300.0 X-99.678 Y-47.44224
G1 F800.0 X-105.59083 Y-49.89142
G1 X-109.87689 Y-39.54397
G1 X-99.52944 Y-35.25791
G1 X-95.24338 Y-45.60536
G1 X-99.678 Y-47.44224
G1 F300.0 X-98.75956 Y-49.65956
G1 F800.0 X-106.8897 Y-53.02717
G1 X-113.01264 Y-38.2451
G1 X-98.23056 Y-32.12216
G1 X-92.10763 Y-46.90423
G1 X-98.75956 Y-49.65956
G0 Z3.0
G0 X-101.51488 Y-43.00762
G0 Z-5.0
G1 F300.0 Z-7.0
G1 F800.0 X-102.99309 Y-43.61992
G1 X-103.60538 Y-42.14171
G1 X-102.12718 Y-41.52942
G1 X-101.51488 Y-43.00762
G1 F300.0 X-100.59644 Y-45.22493
G1 F800.0 X-104.29196 Y-46.75567
G1 X-106.74113 Y-40.84284
G1 X-100.82831 Y-38.39366
G1 X-98.37913 Y-44.30649
G1 X-100.59644 Y-45.22493
G1 F300.0 X-99.678 Y-47.44224
G1 F800.0 X-105.59083 Y-49.89142
G1 X-109.87689 Y-39.54397
G1 X-99.52944 Y-35.25791
G1 X-95.24338 Y-45.60536
G1 X-99.678 Y-47.44224
G1 F300.0 X-98.75956 Y-49.65956
G1 F800.0 X-106.8897 Y-53.02717
G1 X-113.01264 Y-38.2451
G1 X-98.23056 Y-32.12216
G1 X-92.10763 Y-46.90423
G1 X-98.75956 Y-49.65956
G0 Z3.0
G0 X-101.51488 Y-43.00762
G0 Z-6.0
G1 F300.0 Z-8.0
G1 F800.0 X-102.99309 Y-43.61992
G1 X-103.60538 Y-42.14171
G1 X-102.12718 Y-41.52942
G1 X-101.51488 Y-43.00762
G1 F300.0 X-100.59644 Y-45.22493
G1 F800.0 X-104.29196 Y-46.75567
G1 X-106.74113 Y-40.84284
G1 X-100.82831 Y-38.39366
G1 X-98.37913 Y-44.30649
G1 X-100.59644 Y-45.22493
G1 F300.0 X-99.678 Y-47.44224
G1 F800.0 X-105.59083 Y-49.89142
G1 X-109.87689 Y-39.54397
G1 X-99.52944 Y-35.25791
G1 X-95.24338 Y-45.60536
G1 X-99.678 Y-47.44224
G1 F300.0 X-98.75956 Y-49.65956
G1 F800.0 X-106.8897 Y-53.02717
G1 X-113.01264 Y-38.2451
G1 X-98.23056 Y-32.12216
G1 X-92.10763 Y-46.90423
G1 X-98.75956 Y-49.65956
G0 Z3.0
G0 X-101.51488 Y-43.00762
G0 Z-7.0
G1 F300.0 Z-9.0
G1 F800.0 X-102.99309 Y-43.61992
G1 X-103.60538 Y-42.14171
G1 X-102.12718 Y-41.52942
G1 X-101.51488 Y-43.00762
G1 F300.0 X-100.59644 Y-45.22493
G1 F800.0 X-104.29196 Y-46.75567
G1 X-106.74113 Y-40.84284
G1 X-100.82831 Y-38.39366
G1 X-98.37913 Y-44.30649
G1 X-100.59644 Y-45.22493
G1 F300.0 X-99.678 Y-47.44224
G1 F800.0 X-105.59083 Y-49.89142
G1 X-109.87689 Y-39.54397
G1 X-99.52944 Y-35.25791
G1 X-95.24338 Y-45.60536
G1 X-99.678 Y-47.44224
G1 F300.0 X-98.75956 Y-49.65956
G1 F800.0 X-106.8897 Y-53.02717
G1 X-113.01264 Y-38.2451
G1 X-98.23056 Y-32.12216
G1 X-92.10763 Y-46.90423
G1 X-98.75956 Y-49.65956
G0 Z3.0
G0 X-101.51488 Y-43.00762
G0 Z-8.0
G1 F300.0 Z-10.0
G1 F800.0 X-102.99309 Y-43.61992
G1 X-103.60538 Y-42.14171
G1 X-102.12718 Y-41.52942
G1 X-101.51488 Y-43.00762
G1 F300.0 X-100.59644 Y-45.22493
G1 F800.0 X-104.29196 Y-46.75567
G1 X-106.74113 Y-40.84284
G1 X-100.82831 Y-38.39366
G1 X-98.37913 Y-44.30649
G1 X-100.59644 Y-45.22493
G1 F300.0 X-99.678 Y-47.44224
G1 F800.0 X-105.59083 Y-49.89142
G1 X-109.87689 Y-39.54397
G1 X-99.52944 Y-35.25791
G1 X-95.24338 Y-45.60536
G1 X-99.678 Y-47.44224
G1 F300.0 X-98.75956 Y-49.65956
G1 F800.0 X-106.8897 Y-53.02717
G1 X-113.01264 Y-38.2451
G1 X-98.23056 Y-32.12216
G1 X-92.10763 Y-46.90423
G1 X-98.75956 Y-49.65956
G0 Z3.0
G0 X-101.51488 Y-43.00762
G0 Z-9.0
G1 F300.0 Z-11.0
G1 F800.0 X-102.99309 Y-43.61992
G1 X-103.60538 Y-42.14171
G1 X-102.12718 Y-41.52942
G1 X-101.51488 Y-43.00762
G1 F300.0 X-100.59644 Y-45.22493
G1 F800.0 X-104.29196 Y-46.75567
G1 X-106.74113 Y-40.84284
G1 X-100.82831 Y-38.39366
G1 X-98.37913 Y-44.30649
G1 X-100.59644 Y-45.22493
G1 F300.0 X-99.678 Y-47.44224
G1 F800.0 X-105.59083 Y-49.89142
G1 X-109.87689 Y-39.54397
G1 X-99.52944 Y-35.25791
G1 X-95.24338 Y-45.60536
G1 X-99.678 Y-47.44224
G1 F300.0 X-98.75956 Y-49.65956
G1 F800.0 X-106.8897 Y-53.02717
G1 X-113.01264 Y-38.2451
G1 X-98.23056 Y-32.12216
G1 X-92.10763 Y-46.90423
G1 X-98.75956 Y-49.65956
G0 Z3.0
G0 X-101.51488 Y-43.00762
G0 Z-10.0
G1 F300.0 Z-12.0
G1 F800.0 X-102.99309 Y-43.61992
G1 X-103.60538 Y-42.14171
G1 X-102.12718 Y-41.52942
G1 X-101.51488 Y-43.00762
G1 F300.0 X-100.59644 Y-45.22493
G1 F800.0 X-104.29196 Y-46.75567
G1 X-106.74113 Y-40.84284
G1 X-100.82831 Y-38.39366
G1 X-98.37913 Y-44.30649
G1 X-100.59644 Y-45.22493
G1 F300.0 X-99.678 Y-47.44224
G1 F800.0 X-105.59083 Y-49.89142
G1 X-109.87689 Y-39.54397
G1 X-99.52944 Y-35.25791
G1 X-95.24338 Y-45.60536
G1 X-99.678 Y-47.44224
G1 F300.0 X-98.75956 Y-49.65956
G1 F800.0 X-106.8897 Y-53.02717
G1 X-113.01264 Y-38.2451
G1 X-98.23056 Y-32.12216
G1 X-92.10763 Y-46.90423
G1 X-98.75956 Y-49.65956
G0 Z3.0
G0 X-110.24583 Y-0.8858
G0 Z1.0
G1 F300.0 Z-1.0
G1 F800.0 X-111.84583
G1 Y0.7142
G1 X-110.24583
G1 Y-0.8858
G1 F300.0 X-107.84583
G1 F800.0 Y-3.2858
G1 X-114.24583
G1 Y3.1142
G1 X-107.84583
G1 Y-0.8858
G1 F300.0 X-105.44583
G1 F800.0 Y-5.6858
G1 X-116.64583
G1 Y5.5142
G1 X-105.44583
G1 Y-0.8858
G1 F300.0 X-103.04583
G1 F800.0 Y-8.0858
G1 X-119.04583
G1 Y7.9142
G1 X-103.04583
G1 Y-0.8858
G0 Z3.0
G0 X-110.24583
G0 Z0.0
G1 F300.0 Z-2.0
G1 F800.0 X-111.84583
G1 Y0.7142
G1 X-110.24583
G1 Y-0.8858
G1 F300.0 X-107.84583
G1 F800.0 Y-3.2858
G1 X-114.24583
G1 Y3.1142
G1 X-107.84583
G1 Y-0.8858
G1 F300.0 X-105.44583
G1 F800.0 Y-5.6858
G1 X-116.64583
G1 Y5.5142
G1 X-105.44583
G1 Y-0.8858
G1 F300.0 X-103.04583
G1 F800.0 Y-8.0858
G1 X-119.04583
G1 Y7.9142
G1 X-103.04583
G1 Y-0.8858
G0 Z3.0
G0 X-110.24583
G0 Z-1.0
G1 F300.0 Z-3.0
G1 F800.0 X-111.84583
G1 Y0.7142
G1 X-110.24583
G1 Y-0.8858
G1 F300.0 X-107.84583
G1 F800.0 Y-3.2858
G1 X-114.24583
G1 Y3.1142
G1 X-107.84583
G1 Y-0.8858
G1 F300.0 X-105.44583
G1 F800.0 Y-5.6858
G1 X-116.64583
G1 Y5.5142
G1 X-105.44583
G1 Y-0.8858
G1 F300.0 X-103.04583
G1 F800.0 Y-8.0858
G1 X-119.04583
G1 Y7.9142
G1 X-103.04583
G1 Y-0.8858
G0 Z3.0
G0 X-110.24583
G0 Z-2.0
G1 F300.0 Z-4.0
G1 F800.0 X-111.84583
G1 Y0.7142
G1 X-110.24583
G1 Y-0.8858
G1 F300.0 X-107.84583
G1 F800.0 Y-3.2858
G1 X-114.24583
G1 Y3.1142
G1 X-107.84583
G1 Y-0.8858
G1 F300.0 X-105.44583
G1 F800.0 Y-5.6858
G1 X-116.64583
G1 Y5.5142
G1 X-105.44583
G1 Y-0.8858
G1 F300.0 X-103.04583
G1 F800.0 Y-8.0858
G1 X-119.04583
G1 Y7.9142
G1 X-103.04583
G1 Y-0.8858
G0 Z3.0
G0 X-110.24583
G0 Z-3.0
G1 F300.0 Z-5.0
G1 F800.0 X-111.84583
G1 Y0.7142
G1 X-110.24583
G1 Y-0.8858
G1 F300.0 X-107.84583
G1 F800.0 Y-3.2858
G1 X-114.24583
G1 Y3.1142
G1 X-107.84583
G1 Y-0.8858
G1 F300.0 X-105.44583
G1 F800.0 Y-5.6858
G1 X-116.64583
G1 Y5.5142
G1 X-105.44583
G1 Y-0.8858
G1 F300.0 X-103.04583
G1 F800.0 Y-8.0858
G1 X-119.04583
G1 Y7.9142
G1 X-103.04583
G1 Y-0.8858
G0 Z3.0
G0 X-110.24583
G0 Z-4.0
G1 F300.0 Z-6.0
G1 F800.0 X-111.84583
G1 Y0.7142
G1 X-110.24583
G1 Y-0.8858
G1 F300.0 X-107.84583
G1 F800.0 Y-3.2858
G1 X-114.24583
G1 Y3.1142
G1 X-107.84583
G1 Y-0.8858
G1 F300.0 X-105.44583
G1 F800.0 Y-5.6858
G1 X-116.64583
G1 Y5.5142
G1 X-105.44583
G1 Y-0.8858
G1 F300.0 X-103.04583
G1 F800.0 Y-8.0858
G1 X-119.04583
G1 Y7.9142
G1 X-103.04583
G1 Y-0.8858
G0 Z3.0
G0 X-110.24583
G0 Z-5.0
G1 F300.0 Z-7.0
G1 F800.0 X-111.84583
G1 Y0.7142
G1 X-110.24583
G1 Y-0.8858
G1 F300.0 X-107.84583
G1 F800.0 Y-3.2858
G1 X-114.24583
G1 Y3.1142
G1 X-107.84583
G1 Y-0.8858
G1 F300.0 X-105.44583
G1 F800.0 Y-5.6858
G1 X-116.64583
G1 Y5.5142
G1 X-105.44583
G1 Y-0.8858
G1 F300.0 X-103.04583
G1 F800.0 Y-8.0858
G1 X-119.04583
G1 Y7.9142
G1 X-103.04583
G1 Y-0.8858
G0 Z3.0
G0 X-110.24583
G0 Z-6.0
G1 F300.0 Z-8.0
G1 F800.0 X-111.84583
G1 Y0.7142
G1 X-110.24583
G1 Y-0.8858
G1 F300.0 X-107.84583
G1 F800.0 Y-3.2858
G1 X-114.24583
G1 Y3.1142
G1 X-107.84583
G1 Y-0.8858
G1 F300.0 X-105.44583
G1 F800.0 Y-5.6858
G1 X-116.64583
G1 Y5.5142
G1 X-105.44583
G1 Y-0.8858
G1 F300.0 X-103.04583
G1 F800.0 Y-8.0858
G1 X-119.04583
G1 Y7.9142
G1 X-103.04583
G1 Y-0.8858
G0 Z3.0
G0 X-110.24583
G0 Z-7.0
G1 F300.0 Z-9.0
G1 F800.0 X-111.84583
G1 Y0.7142
G1 X-110.24583
G1 Y-0.8858
G1 F300.0 X-107.84583
G1 F800.0 Y-3.2858
G1 X-114.24583
G1 Y3.1142
G1 X-107.84583
G1 Y-0.8858
G1 F300.0 X-105.44583
G1 F800.0 Y-5.6858
G1 X-116.64583
G1 Y5.5142
G1 X-105.44583
G1 Y-0.8858
G1 F300.0 X-103.04583
G1 F800.0 Y-8.0858
G1 X-119.04583
G1 Y7.9142
G1 X-103.04583
G1 Y-0.8858
G0 Z3.0
G0 X-110.24583
G0 Z-8.0
G1 F300.0 Z-10.0
G1 F800.0 X-111.84583
G1 Y0.7142
G1 X-110.24583
G1 Y-0.8858
G1 F300.0 X-107.84583
G1 F800.0 Y-3.2858
G1 X-114.24583
G1 Y3.1142
G1 X-107.84583
G1 Y-0.8858
G1 F300.0 X-105.44583
G1 F800.0 Y-5.6858
G1 X-116.64583
G1 Y5.5142
G1 X-105.44583
G1 Y-0.8858
G1 F300.0 X-103.04583
G1 F800.0 Y-8.0858
G1 X-119.04583
G1 Y7.9142
G1 X-103.04583
G1 Y-0.8858
G0 Z3.0
G0 X-110.24583
G0 Z-9.0
G1 F300.0 Z-11.0
G1 F800.0 X-111.84583
G1 Y0.7142
G1 X-110.24583
G1 Y-0.8858
G1 F300.0 X-107.84583
G1 F800.0 Y-3.2858
G1 X-114.24583
G1 Y3.1142
G1 X-107.84583
G1 Y-0.8858
G1 F300.0 X-105.44583
G1 F800.0 Y-5.6858
G1 X-116.64583
G1 Y5.5142
G1 X-105.44583
G1 Y-0.8858
G1 F300.0 X-103.04583
G1 F800.0 Y-8.0858
G1 X-119.04583
G1 Y7.9142
G1 X-103.04583
G1 Y-0.8858
G0 Z3.0
G0 X-110.24583
G0 Z-10.0
G1 F300.0 Z-12.0
G1 F800.0 X-111.84583
G1 Y0.7142
G1 X-110.24583
G1 Y-0.8858
G1 F300.0 X-107.84583
G1 F800.0 Y-3.2858
G1 X-114.24583
G1 Y3.1142
G1 X-107.84583
G1 Y-0.8858
G1 F300.0 X-105.44583
G1 F800.0 Y-5.6858
G1 X-116.64583
G1 Y5.5142
G1 X-105.44583
G1 Y-0.8858
G1 F300.0 X-103.04583
G1 F800.0 Y-8.0858
G1 X-119.04583
G1 Y7.9142
G1 X-103.04583
G1 Y-0.8858
G0 Z3.0
G0 X-102.19284 Y41.37088
G0 Z1.0
G1 F300.0 Z-1.0
G1 F800.0 X-103.67105 Y41.98317
G1 X-103.05876 Y43.46138
G1 X-101.58055 Y42.84909
G1 X-102.19284 Y41.37088
G1 F300.0 X-99.97553 Y40.45244
G1 F800.0 X-100.89397 Y38.23513
G1 X-106.8068 Y40.6843
G1 X-104.35763 Y46.59713
G1 X-98.4448 Y44.14796
G1 X-99.97553 Y40.45244
G1 F300.0 X-97.75822 Y39.534
G1 F800.0 X-99.5951 Y35.09938
G1 X-109.94255 Y39.38543
G1 X-105.6565 Y49.73288
G1 X-95.30905 Y45.44683
G1 X-97.75822 Y39.534
G1 F300.0 X-95.54091 Y38.61556
G1 F800.0 X-98.29623 Y31.96363
G1 X-113.0783 Y38.08656
G1 X-106.95537 Y52.86863
G1 X-92.1733 Y46.7457
G1 X-95.54091 Y38.61556
G0 Z3.0
G0 X-102.19284 Y41.37088
G0 Z0.0
G1 F300.0 Z-2.0
G1 F800.0 X-103.67105 Y41.98317
G1 X-103.05876 Y43.46138
G1 X-101.58055 Y42.84909
G1 X-102.19284 Y41.37088
G1 F300.0 X-99.97553 Y40.45244
G1 F800.0 X-100.89397 Y38.23513
G1 X-106.8068 Y40.6843
G1 X-104.35763 Y46.59713
G1 X-98.4448 Y44.14796
G1 X-99.97553 Y40.45244
G1 F300.0 X-97.75822 Y39.534
G1 F800.0 X-99.5951 Y35.09938
G1 X-109.94255 Y39.38543
G1 X-105.6565 Y49.73288
G1 X-95.30905 Y45.44683
G1 X-97.75822 Y39.534
G1 F300.0 X-95.54091 Y38.61556
G1 F800.0 X-98.29623 Y31.96363
G1 X-113.0783 Y38.08656
G1 X-106.95537 Y52.86863
G1 X-92.1733 Y46.7457
G1 X-95.54091 Y38.61556
G0 Z3.0
G0 X-102.19284 Y41.37088
G0 Z-1.0
G1 F300.0 Z-3.0
G1 F800.0 X-103.67105 Y41.98317
G1 X-103.05876 Y43.46138
G1 X-101.58055 Y42.84909
G1 X-102.19284 Y41.37088
G1 F300.0 X-99.97553 Y40.45244
G1 F800.0 X-100.89397 Y38.23513
G1 X-106.8068 Y40.6843
G1 X-104.35763 Y46.59713
G1 X-98.4448 Y44.14796
G1 X-99.97553 Y40.45244
G1 F300.0 X-97.75822 Y39.534
G1 F800.0 X-99.5951 Y35.09938
G1 X-109.94255 Y39.38543
G1 X-105.6565 Y49.73288
G1 X-95.30905 Y45.44683
G1 X-97.75822 Y39.534
G1 F300.0 X-95.54091 Y38.61556
G1 F800.0 X-98.29623 Y31.96363
G1 X-113.0783 Y38.08656
G1 X-106.95537 Y52.86863
G1 X-92.1733 Y46.7457
G1 X-95.54091 Y38.61556
G0 Z3.0
G0 X-102.19284 Y41.37088
G0 Z-2.0
G1 F300.0 Z-4.0
G1 F800.0 X-103.67105 Y41.98317
G1 X-103.05876 Y43.46138
G1 X-101.58055 Y42.84909
G1 X-102.19284 Y41.37088
G1 F300.0 X-99.97553 Y40.45244
G1 F800.0 X-100.89397 Y38.23513
G1 X-106.8068 Y40.6843
G1 X-104.35763 Y46.59713
G1 X-98.4448 Y44.14796
G1 X-99.97553 Y40.45244
G1 F300.0 X-97.75822 Y39.534
G1 F800.0 X-99.5951 Y35.09938
G1 X-109.94255 Y39.38543
G1 X-105.6565 Y49.73288
G1 X-95.30905 Y45.44683
G1 X-97.75822 Y39.534
G1 F300.0 X-95.54091 Y38.61556
G1 F800.0 X-98.29623 Y31.96363
G1 X-113.0783 Y38.08656
G1 X-106.95537 Y52.86863
G1 X-92.1733 Y46.7457
G1 X-95.54091 Y38.61556
G0 Z3.0
G0 X-102.19284 Y41.37088
G0 Z-3.0
G1 F300.0 Z-5.0
G1 F800.0 X-103.67105 Y41.98317
G1 X-103.05876 Y43.46138
G1 X-101.58055 Y42.84909
G1 X-102.19284 Y41.37088
G1 F300.0 X-99.97553 Y40.45244
G1 F800.0 X-100.89397 Y38.23513
G1 X-106.8068 Y40.6843
G1 X-104.35763 Y46.59713
G1 X-98.4448 Y44.14796
G1 X-99.97553 Y40.45244
G1 F300.0 X-97.75822 Y39.534
G1 F800.0 X-99.5951 Y35.09938
G1 X-109.94255 Y39.38543
G1 X-105.6565 Y49.73288
G1 X-95.30905 Y45.44683
G1 X-97.75822 Y39.534
G1 F300.0 X-95.54091 Y38.61556
G1 F800.0 X-98.29623 Y31.96363
G1 X-113.0783 Y38.08656
G1 X-106.95537 Y52.86863
G1 X-92.1733 Y46.7457
G1 X-95.54091 Y38.61556
G0 Z3.0
G0 X-102.19284 Y41.37088
G0 Z-4.0
G1 F300.0 Z-6.0
G1 F800.0 X-103.67105 Y41.98317
G1 X-103.05876 Y43.46138
G1 X-101.58055 Y42.84909
G1 X-102.19284 Y41.37088
G1 F300.0 X-99.97553 Y40.45244
G1 F800.0 X-100.89397 Y38.23513
G1 X-106.8068 Y40.6843
G1 X-104.35763 Y46.59713
G1 X-98.4448 Y44.14796
G1 X-99.97553 Y40.45244
G1 F300.0 X-97.75822 Y39.534
G1 F800.0 X-99.5951 Y35.09938
G1 X-109.94255 Y39.38543
G1 X-105.6565 Y49.73288
G1 X-95.30905 Y45.44683
G1 X-97.75822 Y39.534
G1 F300.0 X-95.54091 Y38.61556
G1 F800.0 X-98.29623 Y31.96363
G1 X-113.0783 Y38.08656
G1 X-106.95537 Y52.86863
G1 X-92.1733 Y46.7457
G1 X-95.54091 Y38.61556
G0 Z3.0
G0 X-102.19284 Y41.37088
G0 Z-5.0
G1 F300.0 Z-7.0
G1 F800.0 X-103.67105 Y41.98317
G1 X-103.05876 Y43.46138
G1 X-101.58055 Y42.84909
G1 X-102.19284 Y41.37088
G1 F300.0 X-99.97553 Y40.45244
G1 F800.0 X-100.89397 Y38.23513
G1 X-106.8068 Y40.6843
G1 X-104.35763 Y46.59713
G1 X-98.4448 Y44.14796
G1 X-99.97553 Y40.45244
G1 F300.0 X-97.75822 Y39.534
G1 F800.0 X-99.5951 Y35.09938
G1 X-109.94255 Y39.38543
G1 X-105.6565 Y49.73288
G1 X-95.30905 Y45.44683
G1 X-97.75822 Y39.534
G1 F300.0 X-95.54091 Y38.61556
G1 F800.0 X-98.29623 Y31.96363
G1 X-113.0783 Y38.08656
G1 X-106.95537 Y52.86863
G1 X-92.1733 Y46.7457
G1 X-95.54091 Y38.61556
G0 Z3.0
G0 X-102.19284 Y41.37088
G0 Z-6.0
G1 F300.0 Z-8.0
G1 F800.0 X-103.67105 Y41.98317
G1 X-103.05876 Y43.46138
G1 X-101.58055 Y42.84909
G1 X-102.19284 Y41.37088
G1 F300.0 X-99.97553 Y40.45244
G1 F800.0 X-100.89397 Y38.23513
G1 X-106.8068 Y40.6843
G1 X-104.35763 Y46.59713
G1 X-98.4448 Y44.14796
G1 X-99.97553 Y40.45244
G1 F300.0 X-97.75822 Y39.534
G1 F800.0 X-99.5951 Y35.09938
G1 X-109.94255 Y39.38543
G1 X-105.6565 Y49.73288
G1 X-95.30905 Y45.44683
G1 X-97.75822 Y39.534
G1 F300.0 X-95.54091 Y38.61556
G1 F800.0 X-98.29623 Y31.96363
G1 X-113.0783 Y38.08656
G1 X-106.95537 Y52.86863
G1 X-92.1733 Y46.7457
G1 X-95.54091 Y38.61556
G0 Z3.0
G0 X-102.19284 Y41.37088
G0 Z-7.0
G1 F300.0 Z-9.0
G1 F800.0 X-103.67105 Y41.98317
G1 X-103.05876 Y43.46138
G1 X-101.58055 Y42.84909
G1 X-102.19284 Y41.37088
G1 F300.0 X-99.97553 Y40.45244
G1 F800.0 X-100.89397 Y38.23513
G1 X-106.8068 Y40.6843
G1 X-104.35763 Y46.59713
G1 X-98.4448 Y44.14796
G1 X-99.97553 Y40.45244
G1 F300.0 X-97.75822 Y39.534
G1 F800.0 X-99.5951 Y35.09938
G1 X-109.94255 Y39.38543
G1 X-105.6565 Y49.73288
G1 X-95.30905 Y45.44683
G1 X-97.75822 Y39.534
G1 F300.0 X-95.54091 Y38.61556
G1 F800.0 X-98.29623 Y31.96363
G1 X-113.0783 Y38.08656
G1 X-106.95537 Y52.86863
G1 X-92.1733 Y46.7457
G1 X-95.54091 Y38.61556
G0 Z3.0
G0 X-102.19284 Y41.37088
G0 Z-8.0
G1 F300.0 Z-10.0
G1 F800.0 X-103.67105 Y41.98317
G1 X-103.05876 Y43.46138
G1 X-101.58055 Y42.84909
G1 X-102.19284 Y41.37088
G1 F300.0 X-99.97553 Y40.45244
G1 F800.0 X-100.89397 Y38.23513
G1 X-106.8068 Y40.6843
G1 X-104.35763 Y46.59713
G1 X-98.4448 Y44.14796
G1 X-99.97553 Y40.45244
G1 F300.0 X-97.75822 Y39.534
G1 F800.0 X-99.5951 Y35.09938
G1 X-109.94255 Y39.38543
G1 X-105.6565 Y49.73288
G1 X-95.30905 Y45.44683
G1 X-97.75822 Y39.534
G1 F300.0 X-95.54091 Y38.61556
G1 F800.0 X-98.29623 Y31.96363
G1 X-113.0783 Y38.08656
G1 X-106.95537 Y52.86863
G1 X-92.1733 Y46.7457
G1 X-95.54091 Y38.61556
G0 Z3.0
G0 X-102.19284 Y41.37088
G0 Z-9.0
G1 F300.0 Z-11.0
G1 F800.0 X-103.67105 Y41.98317
G1 X-103.05876 Y43.46138
G1 X-101.58055 Y42.84909
G1 X-102.19284 Y41.37088
G1 F300.0 X-99.97553 Y40.45244
G1 F800.0 X-100.89397 Y38.23513
G1 X-106.8068 Y40.6843
G1 X-104.35763 Y46.59713
G1 X-98.4448 Y44.14796
G1 X-99.97553 Y40.45244
G1 F300.0 X-97.75822 Y39.534
G1 F800.0 X-99.5951 Y35.09938
G1 X-109.94255 Y39.38543
G1 X-105.6565 Y49.73288
G1 X-95.30905 Y45.44683
G1 X-97.75822 Y39.534
G1 F300.0 X-95.54091 Y38.61556
G1 F800.0 X-98.29623 Y31.96363
G1 X-113.0783 Y38.08656
G1 X-106.95537 Y52.86863
G1 X-92.1733 Y46.7457
G1 X-95.54091 Y38.61556
G0 Z3.0
G0 X-102.19284 Y41.37088
G0 Z-10.0
G1 F300.0 Z-12.0
G1 F800.0 X-103.67105 Y41.98317
G1 X-103.05876 Y43.46138
G1 X-101.58055 Y42.84909
G1 X-102.19284 Y41.37088
G1 F300.0 X-99.97553 Y40.45244
G1 F800.0 X-100.89397 Y38.23513
G1 X-106.8068 Y40.6843
G1 X-104.35763 Y46.59713
G1 X-98.4448 Y44.14796
G1 X-99.97553 Y40.45244
G1 F300.0 X-97.75822 Y39.534
G1 F800.0 X-99.5951 Y35.09938
G1 X-109.94255 Y39.38543
G1 X-105.6565 Y49.73288
G1 X-95.30905 Y45.44683
G1 X-97.75822 Y39.534
G1 F300.0 X-95.54091 Y38.61556
G1 F800.0 X-98.29623 Y31.96363
G1 X-113.0783 Y38.08656
G1 X-106.95537 Y52.86863
G1 X-92.1733 Y46.7457
G1 X-95.54091 Y38.61556
G0 Z3.0
G0 X-78.58193 Y77.32922
G0 Z1.0
G1 F300.0 Z-1.0
G1 F800.0 X-79.7133 Y78.46059
G1 X-78.58193 Y79.59196
G1 X-77.45056 Y78.46059
G1 X-78.58193 Y77.32922
G1 F300.0 X-76.88487 Y75.63216
G1 F800.0 X-78.58193 Y73.93511
G1 X-83.10741 Y78.46059
G1 X-78.58193 Y82.98607
G1 X-74.05644 Y78.46059
G1 X-76.88487 Y75.63216
G1 F300.0 X-75.18781 Y73.93511
G1 F800.0 X-78.58193 Y70.54099
G1 X-86.50152 Y78.46059
G1 X-78.58193 Y86.38018
G1 X-70.66233 Y78.46059
G1 X-75.18781 Y73.93511
G1 F300.0 X-73.49076 Y72.23805
G1 F800.0 X-78.58193 Y67.14688
G1 X-89.89563 Y78.46059
G1 X-78.58193 Y89.7743
G1 X-67.26822 Y78.46059
G1 X-73.49076 Y72.23805
G0 Z3.0
G0 X-78.58193 Y77.32922
G0 Z0.0
G1 F300.0 Z-2.0
G1 F800.0 X-79.7133 Y78.46059
G1 X-78.58193 Y79.59196
G1 X-77.45056 Y78.46059
G1 X-78.58193 Y77.32922
G1 F300.0 X-76.88487 Y75.63216
G1 F800.0 X-78.58193 Y73.93511
G1 X-83.10741 Y78.46059
G1 X-78.58193 Y82.98607
G1 X-74.05644 Y78.46059
G1 X-76.88487 Y75.63216
G1 F300.0 X-75.18781 Y73.93511
G1 F800.0 X-78.58193 Y70.54099
G1 X-86.50152 Y78.46059
G1 X-78.58193 Y86.38018
G1 X-70.66233 Y78.46059
G1 X-75.18781 Y73.93511
G1 F300.0 X-73.49076 Y72.23805
G1 F800.0 X-78.58193 Y67.14688
G1 X-89.89563 Y78.46059
G1 X-78.58193 Y89.7743
G1 X-67.26822 Y78.46059
G1 X-73.49076 Y72.23805
G0 Z3.0
G0 X-78.58193 Y77.32922
G0 Z-1.0
G1 F300.0 Z-3.0
G1 F800.0 X-79.7133 Y78.46059
G1 X-78.58193 Y79.59196
G1 X-77.45056 Y78.46059
G1 X-78.58193 Y77.32922
G1 F300.0 X-76.88487 Y75.63216
G1 F800.0 X-78.58193 Y73.93511
G1 X-83.10741 Y78.46059
G1 X-78.58193 Y82.98607
G1 X-74.05644 Y78.46059
G1 X-76.88487 Y75.63216
G1 F300.0 X-75.18781 Y73.93511
G1 F800.0 X-78.58193 Y70.54099
G1 X-86.50152 Y78.46059
G1 X-78.58193 Y86.38018
G1 X-70.66233 Y78.46059
G1 X-75.18781 Y73.93511
G1 F300.0 X-73.49076 Y72.23805
G1 F800.0 X-78.58193 Y67.14688
G1 X-89.89563 Y78.46059
G1 X-78.58193 Y89.7743
G1 X-67.26822 Y78.46059
G1 X-73.49076 Y72.23805
G0 Z3.0
G0 X-78.58193 Y77.32922
G0 Z-2.0
G1 F300.0 Z-4.0
G1 F800.0 X-79.7133 Y78.46059
G1 X-78.58193 Y79.59196
G1 X-77.45056 Y78.46059
G1 X-78.58193 Y77.32922
G1 F300.0 X-76.88487 Y75.63216
G1 F800.0 X-78.58193 Y73.93511
G1 X-83.10741 Y78.46059
G1 X-78.58193 Y82.98607
G1 X-74.05644 Y78.46059
G1 X-76.88487 Y75.63216
G1 F300.0 X-75.18781 Y73.93511
G1 F800.0 X-78.58193 Y70.54099
G1 X-86.50152 Y78.46059
G1 X-78.58193 Y86.38018
G1 X-70.66233 Y78.46059
G1 X-75.18781 Y73.93511
G1 F300.0 X-73.49076 Y72.23805
G1 F800.0 X-78.58193 Y67.14688
G1 X-89.89563 Y78.46059
G1 X-78.58193 Y89.7743
G1 X-67.26822 Y78.46059
G1 X-73.49076 Y72.23805
G0 Z3.0
G0 X-78.58193 Y77.32922
G0 Z-3.0
G1 F300.0 Z-5.0
G1 F800.0 X-79.7133 Y78.46059
G1 X-78.58193 Y79.59196
G1 X-77.45056 Y78.46059
G1 X-78.58193 Y77.32922
G1 F300.0 X-76.88487 Y75.63216
G1 F800.0 X-78.58193 Y73.93511
G1 X-83.10741 Y78.46059
G1 X-78.58193 Y82.98607
G1 X-74.05644 Y78.46059
G1 X-76.88487 Y75.63216
G1 F300.0 X-75.18781 Y73.93511
G1 F800.0 X-78.58193 Y70.54099
G1 X-86.50152 Y78.46059
G1 X-78.58193 Y86.38018
G1 X-70.66233 Y78.46059
G1 X-75.18781 Y73.93511
G1 F300.0 X-73.49076 Y72.23805
G1 F800.0 X-78.58193 Y67.14688
G1 X-89.89563 Y78.46059
G1 X-78.58193 Y89.7743
G1 X-67.26822 Y78.46059
G1 X-73.49076 Y72.23805
G0 Z3.0
G0 X-78.58193 Y77.32922
G0 Z-4.0
G1 F300.0 Z-6.0
G1 F800.0 X-79.7133 Y78.46059
G1 X-78.58193 Y79.59196
G1 X-77.45056 Y78.46059
G1 X-78.58193 Y77.32922
G1 F300.0 X-76.88487 Y75.63216
G1 F800.0 X-78.58193 Y73.93511
G1 X-83.10741 Y78.46059
G1 X-78.58193 Y82.98607
G1 X-74.05644 Y78.46059
G1 X-76.88487 Y75.63216
G1 F300.0 X-75.18781 Y73.93511
G1 F800.0 X-78.58193 Y70.54099
G1 X-86.50152 Y78.46059
G1 X-78.58193 Y86.38018
G1 X-70.66233 Y78.46059
G1 X-75.18781 Y73.93511
G1 F300.0 X-73.49076 Y72.23805
G1 F800.0 X-78.58193 Y67.14688
G1 X-89.89563 Y78.46059
G1 X-78.58193 Y89.7743
G1 X-67.26822 Y78.46059
G1 X-73.49076 Y72.23805
G0 Z3.0
G0 X-78.58193 Y77.32922
G0 Z-5.0
G1 F300.0 Z-7.0
G1 F800.0 X-79.7133 Y78.46059
G1 X-78.58193 Y79.59196
G1 X-77.45056 Y78.46059
G1 X-78.58193 Y77.32922
G1 F300.0 X-76.88487 Y75.63216
G1 F800.0 X-78.58193 Y73.93511
G1 X-83.10741 Y78.46059
G1 X-78.58193 Y82.98607
G1 X-74.05644 Y78.46059
G1 X-76.88487 Y75.63216
G1 F300.0 X-75.18781 Y73.93511
G1 F800.0 X-78.58193 Y70.54099
G1 X-86.50152 Y78.46059
G1 X-78.58193 Y86.38018
G1 X-70.66233 Y78.46059
G1 X-75.18781 Y73.93511
G1 F300.0 X-73.49076 Y72.23805
G1 F800.0 X-78.58193 Y67.14688
G1 X-89.89563 Y78.46059
G1 X-78.58193 Y89.7743
G1 X-67.26822 Y78.46059
G1 X-73.49076 Y72.23805
G0 Z3.0
G0 X-78.58193 Y77.32922
G0 Z-6.0
G1 F300.0 Z-8.0
G1 F800.0 X-79.7133 Y78.46059
G1 X-78.58193 Y79.59196
G1 X-77.45056 Y78.46059
G1 X-78.58193 Y77.32922
G1 F300.0 X-76.88487 Y75.63216
G1 F800.0 X-78.58193 Y73.93511
G1 X-83.10741 Y78.46059
G1 X-78.58193 Y82.98607
G1 X-74.05644 Y78.46059
G1 X-76.88487 Y75.63216
G1 F300.0 X-75.18781 Y73.93511
G1 F800.0 X-78.58193 Y70.54099
G1 X-86.50152 Y78.46059
G1 X-78.58193 Y86.38018
G1 X-70.66233 Y78.46059
G1 X-75.18781 Y73.93511
