( Made using CamBam - http://www.cambam.co.uk )
( SC-Freiburg 8/27/2017 10:43:01 AM )
( T2 : 2.0 )
( T4 : 4.0 )
( T21 : 4.0 )
G21 G90 G64 G40
G0 Z3.0
( T4 : 4.0 )
T4 M6
( Tasche-Ring-Aussen )
G17
M3 S1000
G0 X-63.2479 Y0.0
G0 Z1.0
G1 F300.0 Z-1.0
G1 F800.0 X-63.16905 Y4.21323
G1 X-63.24473 Y0.05452
G3 Y-0.05452 I2.9963 J-0.05452
G1 X-63.16905 Y-4.21323
G1 X-63.2479 Y0.0
G0 Z3.0
G0 X-63.16129 Y4.62774
G0 Z1.0
G1 F300.0 Z-1.0
G1 F800.0 X-63.15921 Y4.73906
G1 X-63.04681 Y6.73741
G1 X-63.15818 Y4.70104
G3 X-63.16129 Y4.62774 I2.99233 J-0.16366
G0 Z3.0
G0 X-62.89745 Y9.39291
G0 Z1.0
G1 F300.0 Z-1.0
G1 F800.0 X-62.89341 Y9.46468
G1 X-62.80186 Y10.43769
G1 X-62.89745 Y9.39291
G0 Z3.0
G0 X-62.45266 Y14.14909
G0 Z1.0
G1 F300.0 Z-1.0
G1 F800.0 X-62.45131 Y14.16345
G1 X-62.43327 Y14.29964
G1 X-62.45266 Y14.14909
G0 Z3.0
G0 X-63.16129 Y-4.62774
G0 Z1.0
G1 F300.0 Z-1.0
G3 F800.0 X-63.15818 Y-4.70104 I2.99544 J0.09035
G1 X-63.04681 Y-6.73741
G1 X-63.15921 Y-4.73906
G1 X-63.16129 Y-4.62774
G0 Z3.0
G0 X-62.89745 Y-9.39291
G0 Z1.0
G1 F300.0 Z-1.0
G1 F800.0 X-62.80186 Y-10.43769
G1 X-62.89341 Y-9.46468
G1 X-62.89745 Y-9.39291
G0 Z3.0
G0 X-62.45266 Y-14.14909
G0 Z1.0
G1 F300.0 Z-1.0
G1 F800.0 X-62.43327 Y-14.29964
G1 X-62.45131 Y-14.16345
G1 X-62.45266 Y-14.14909
G0 Z3.0
G0 X-6.52639 Y-89.21242
G0 Z1.0
G1 F300.0 Z-1.0
G1 F800.0 X-5.62521 Y-89.31448
G1 X-6.48833 Y-89.21943
G1 X-6.52639 Y-89.21242
G0 Z3.0
G0 X-3.28207 Y-89.57252
G0 Z1.0
G1 F300.0 Z-1.0
G3 F800.0 X-3.266 Y-89.57316 I0.12891 J2.99403
G1 X-0.90278 Y-89.66221
G1 X-3.24777 Y-89.57629
G1 X-3.28207 Y-89.57252
G0 Z3.0
G0 X-0.0395 Y-89.69384
G0 Z1.0
G1 F300.0 Z-1.0
G3 F800.0 X0.0395 I0.0395 J2.99654
G1 X0.0 Y-89.69529
G1 X-0.0395 Y-89.69384
G1 F300.0 X0.90278 Y-89.66221
G1 F800.0 X3.266 Y-89.57316
G3 X3.28207 Y-89.57252 I-0.11284 J2.99467
G1 X3.24777 Y-89.57629
G1 X0.90278 Y-89.66221
G0 Z3.0
G0 X5.62521 Y-89.31448
G0 Z1.0
G1 F300.0 Z-1.0
G1 F800.0 X6.52639 Y-89.21242
G1 X6.48833 Y-89.21943
G1 X5.62521 Y-89.31448
G0 Z3.0
G0 X62.43327 Y-14.29964
G0 Z1.0
G1 F300.0 Z-1.0
G1 F800.0 X62.45266 Y-14.14909
G1 X62.45131 Y-14.16345
G1 X62.43327 Y-14.29964
G0 Z3.0
G0 X62.80186 Y-10.43769
G0 Z1.0
G1 F300.0 Z-1.0
G1 F800.0 X62.89745 Y-9.39291
G1 X62.89341 Y-9.46468
G1 X62.80186 Y-10.43769
G0 Z3.0
G0 X63.04681 Y-6.73741
G0 Z1.0
G1 F300.0 Z-1.0
G1 F800.0 X63.15818 Y-4.70104
G3 X63.16129 Y-4.62774 I-2.99233 J0.16366
G1 X63.15921 Y-4.73906
G1 X63.04681 Y-6.73741
G1 F300.0 X63.16905 Y-4.21323
G1 F800.0 X63.24473 Y-0.05452
G3 Y0.05452 I-2.9963 J0.05452
G1 X63.16905 Y4.21323
G1 X63.2479 Y0.0
G1 X63.16905 Y-4.21323
G0 Z3.0
G0 X63.16129 Y4.62774
G0 Z1.0
G1 F300.0 Z-1.0
G3 F800.0 X63.15818 Y4.70104 I-2.99544 J-0.09035
G1 X63.04681 Y6.73741
G1 X63.15921 Y4.73906
G1 X63.16129 Y4.62774
G0 Z3.0
G0 X62.89745 Y9.39291
G0 Z1.0
G1 F300.0 Z-1.0
G1 F800.0 X62.80186 Y10.43769
G1 X62.89341 Y9.46468
G1 X62.89745 Y9.39291
G0 Z3.0
G0 X62.45266 Y14.14909
G0 Z1.0
G1 F300.0 Z-1.0
G1 F800.0 X62.43327 Y14.29964
G1 X62.45131 Y14.16345
G1 X62.45266 Y14.14909
G0 Z3.0
G0 X6.52639 Y89.21242
G0 Z1.0
G1 F300.0 Z-1.0
G1 F800.0 X5.62521 Y89.31448
G1 X6.48833 Y89.21943
G1 X6.52639 Y89.21242
G0 Z3.0
G0 X3.28207 Y89.57252
G0 Z1.0
G1 F300.0 Z-1.0
G3 F800.0 X3.266 Y89.57316 I-0.12891 J-2.99403
G1 X0.90278 Y89.66221
G1 X3.24777 Y89.57629
G1 X3.28207 Y89.57252
G0 Z3.0
G0 X0.0395 Y89.69384
G0 Z1.0
G1 F300.0 Z-1.0
G3 F800.0 X-0.0395 I-0.0395 J-2.99654
G1 X0.0 Y89.69529
G1 X0.0395 Y89.69384
G1 F300.0 X-0.90278 Y89.66221
G1 F800.0 X-3.266 Y89.57316
G3 X-3.28207 Y89.57252 I0.11284 J-2.99467
G1 X-3.24777 Y89.57629
G1 X-0.90278 Y89.66221
G0 Z3.0
G0 X-5.62521 Y89.31448
G0 Z1.0
G1 F300.0 Z-1.0
G1 F800.0 X-6.52639 Y89.21242
G1 X-6.48833 Y89.21943
G1 X-5.62521 Y89.31448
G1 F300.0 X-5.71278 Y90.10968
G1 F800.0 X-3.30628 Y90.37469
G1 X0.0 Y90.49583
G1 X3.30628 Y90.37469
G1 X6.60474 Y90.01145
G1 X9.88751 Y89.40672
G1 X13.14663 Y88.56152
G1 X16.37398 Y87.47737
G1 X19.56131 Y86.15631
G1 X22.70023 Y84.60098
G1 X25.78227 Y82.81468
G1 X28.79889 Y80.80139
G1 X31.74155 Y78.56578
G1 X34.60178 Y76.11326
G1 X37.37124 Y73.44995
G1 X40.04176 Y70.58268
G1 X42.60542 Y67.51896
G1 X45.05454 Y64.26694
G1 X47.38182 Y60.8354
G1 X49.58026 Y57.23369
G1 X51.64329 Y53.47172
G1 X53.56471 Y49.55988
G1 X55.33879 Y45.50905
G1 X56.96021 Y41.33052
G1 X58.42415 Y37.03596
G1 X59.72625 Y32.63739
G1 X60.86264 Y28.14715
G1 X61.82995 Y23.57784
G1 X62.62531 Y18.94227
G1 X63.24637 Y14.25348
G1 X63.6913 Y9.52463
G1 X63.95879 Y4.76902
G1 X64.04804 Y0.0
G1 X63.95879 Y-4.76902
G1 X63.6913 Y-9.52463
G1 X63.24637 Y-14.25348
G1 X62.62531 Y-18.94227
G1 X61.82995 Y-23.57784
G1 X60.86264 Y-28.14715
G1 X59.72625 Y-32.63739
G1 X58.42415 Y-37.03596
G1 X56.96021 Y-41.33052
G1 X55.33879 Y-45.50905
G1 X53.56471 Y-49.55988
G1 X51.64329 Y-53.47172
G1 X49.58026 Y-57.23369
G1 X47.38182 Y-60.8354
G1 X45.05454 Y-64.26694
G1 X42.60542 Y-67.51896
G1 X40.04176 Y-70.58268
G1 X37.37124 Y-73.44995
G1 X34.60178 Y-76.11326
G1 X31.74155 Y-78.56578
G1 X28.79889 Y-80.80139
G1 X25.78227 Y-82.81468
G1 X22.70023 Y-84.60098
G1 X19.56131 Y-86.15631
G1 X16.37398 Y-87.47737
G1 X13.14663 Y-88.56152
G1 X9.88751 Y-89.40672
G1 X6.60474 Y-90.01145
G1 X3.30628 Y-90.37469
G1 X0.0 Y-90.49583
G1 X-3.30628 Y-90.37469
G1 X-6.60474 Y-90.01145
G1 X-9.88751 Y-89.40672
G1 X-13.14663 Y-88.56152
G1 X-16.37398 Y-87.47737
G1 X-19.56131 Y-86.15631
G1 X-22.70023 Y-84.60098
G1 X-25.78227 Y-82.81468
G1 X-28.79889 Y-80.80139
G1 X-31.74155 Y-78.56578
G1 X-34.60178 Y-76.11326
G1 X-37.37124 Y-73.44995
G1 X-40.04176 Y-70.58268
G1 X-42.60542 Y-67.51896
G1 X-45.05454 Y-64.26694
G1 X-47.38182 Y-60.8354
G1 X-49.58026 Y-57.23369
G1 X-51.64329 Y-53.47172
G1 X-53.56471 Y-49.55988
G1 X-55.33879 Y-45.50905
G1 X-56.96021 Y-41.33052
G1 X-58.42415 Y-37.03596
G1 X-59.72625 Y-32.63739
G1 X-60.86264 Y-28.14715
G1 X-61.82995 Y-23.57784
G1 X-62.62531 Y-18.94227
G1 X-63.24637 Y-14.25348
G1 X-63.6913 Y-9.52463
G1 X-63.95879 Y-4.76902
G1 X-64.04804 Y0.0
G1 X-63.95879 Y4.76902
G1 X-63.6913 Y9.52463
G1 X-63.24637 Y14.25348
G1 X-62.62531 Y18.94227
G1 X-61.82995 Y23.57784
G1 X-60.86264 Y28.14715
G1 X-59.72625 Y32.63739
G1 X-58.42415 Y37.03596
G1 X-56.96021 Y41.33052
G1 X-55.33879 Y45.50905
G1 X-53.56471 Y49.55988
G1 X-51.64329 Y53.47172
G1 X-49.58026 Y57.23369
G1 X-47.38182 Y60.8354
G1 X-45.05454 Y64.26694
G1 X-42.60542 Y67.51896
G1 X-40.04176 Y70.58268
G1 X-37.37124 Y73.44995
G1 X-34.60178 Y76.11326
G1 X-31.74155 Y78.56578
G1 X-28.79889 Y80.80139
G1 X-25.78227 Y82.81468
G1 X-22.70023 Y84.60098
G1 X-19.56131 Y86.15631
G1 X-16.37398 Y87.47737
G1 X-13.14663 Y88.56152
G1 X-9.88751 Y89.40672
G1 X-6.60474 Y90.01145
G1 X-5.71278 Y90.10968
G1 F300.0 X-5.53309 Y88.52302
G1 F800.0 X-6.54525 Y88.40839
G3 X-6.70718 Y88.38392 I0.24757 J-2.18603
G1 X-9.83443 Y87.79147
G3 X-9.99186 Y87.75561 I0.4095 J-2.16155
G1 X-13.09328 Y86.92846
G3 X-13.24473 Y86.88217 I0.56693 J-2.1257
G1 X-16.31182 Y85.82257
G3 X-16.45609 Y85.76698 I0.71838 J-2.07941
G1 X-19.48044 Y84.47785
G3 X-19.61664 Y84.41421 I0.86265 J-2.02382
G1 X-22.58996 Y82.89908
G3 X-22.7175 Y82.82867 I0.99886 J-1.96017
G1 X-25.63164 Y81.0917
G3 X-25.75021 Y81.01578 I1.1264 J-1.88977
G1 X-28.59718 Y79.06172
G3 X-28.70669 Y78.98147 I1.24497 J-1.81385
G1 X-31.47869 Y76.81567
G3 X-31.57928 Y76.73215 I1.35448 J-1.7336
G1 X-34.26871 Y74.36056
G3 X-34.36065 Y74.2747 I1.45507 J-1.65008
G1 X-36.96014 Y71.70381
G3 X-37.04379 Y71.6164 I1.547 J-1.56422
G1 X-39.54622 Y68.85326
G3 X-39.62205 Y68.76495 I1.63066 J-1.4768
G1 X-42.02055 Y65.81715
G3 X-42.08903 Y65.72846 I1.70648 J-1.38849
G1 X-44.37703 Y62.60406
G3 X-44.43866 Y62.51542 I1.77496 J-1.29981
G1 X-46.6099 Y59.22299
G3 X-46.66517 Y59.13469 I1.83659 J-1.21117
G1 X-48.71369 Y55.68325
G3 X-48.76307 Y55.59553 I1.89187 J-1.12287
G1 X-50.68325 Y51.99455
G3 X-50.7272 Y51.90755 I1.94125 J-1.03515
G1 X-52.51378 Y48.16689
G3 X-52.55269 Y48.08071 I1.9852 J-0.94815
G1 X-54.20077 Y44.21062
G3 X-54.23502 Y44.1253 I2.02411 J-0.86197
G1 X-55.74009 Y40.1364
G3 X-55.77001 Y40.05194 I2.05835 J-0.77665
G1 X-57.12794 Y35.95516
G3 X-57.15383 Y35.87153 I2.08827 J-0.69219
G1 X-58.36091 Y31.67809
G3 X-58.38301 Y31.59524 I2.11416 J-0.60856
G1 X-59.43592 Y27.31665
G3 X-59.45448 Y27.2345 I2.13627 J-0.52571
G1 X-60.35033 Y22.88248
G3 X-60.36551 Y22.80095 I2.15482 J-0.44356
G1 X-61.10186 Y18.38742
G3 X-61.11383 Y18.30642 I2.17001 J-0.36204
G1 X-61.68864 Y13.84348
G3 X-61.69752 Y13.76289 I2.18198 J-0.28103
G1 X-62.10923 Y9.26277
G3 X-62.11509 Y9.18248 I2.19085 J-0.20044
G1 X-62.36257 Y4.65753
G3 X-62.36549 Y4.57741 I2.19672 J-0.12014
G1 X-62.44806 Y0.04003
G3 Y-0.04003 I2.19964 J-0.04003
G1 X-62.36549 Y-4.57741
G3 X-62.36257 Y-4.65753 I2.19964 J0.04003
G1 X-62.11509 Y-9.18248
G3 X-62.10923 Y-9.26277 I2.19672 J0.12014
G1 X-61.69752 Y-13.76289
G3 X-61.68864 Y-13.84348 I2.19085 J0.20044
G1 X-61.11383 Y-18.30642
G3 X-61.10186 Y-18.38742 I2.18198 J0.28103
G1 X-60.36551 Y-22.80095
G3 X-60.35033 Y-22.88248 I2.17001 J0.36204
G1 X-59.45448 Y-27.2345
G3 X-59.43592 Y-27.31665 I2.15482 J0.44356
G1 X-58.38301 Y-31.59524
G3 X-58.36091 Y-31.67809 I2.13627 J0.52571
G1 X-57.15383 Y-35.87153
G3 X-57.12794 Y-35.95516 I2.11416 J0.60856
G1 X-55.77001 Y-40.05194
G3 X-55.74009 Y-40.1364 I2.08827 J0.69219
G1 X-54.23502 Y-44.1253
G3 X-54.20077 Y-44.21062 I2.05835 J0.77665
G1 X-52.55269 Y-48.08071
G3 X-52.51378 Y-48.16689 I2.02411 J0.86197
G1 X-50.7272 Y-51.90755
G3 X-50.68325 Y-51.99455 I1.9852 J0.94815
G1 X-48.76307 Y-55.59553
G3 X-48.71369 Y-55.68325 I1.94125 J1.03515
G1 X-46.66517 Y-59.13469
G3 X-46.6099 Y-59.22299 I1.89187 J1.12287
G1 X-44.43866 Y-62.51542
G3 X-44.37703 Y-62.60406 I1.83659 J1.21117
G1 X-42.08903 Y-65.72846
G3 X-42.02055 Y-65.81715 I1.77496 J1.29981
G1 X-39.62205 Y-68.76495
G3 X-39.54622 Y-68.85326 I1.70648 J1.38849
G1 X-37.04379 Y-71.6164
G3 X-36.96014 Y-71.70381 I1.63066 J1.4768
G1 X-34.36065 Y-74.2747
G3 X-34.26871 Y-74.36056 I1.547 J1.56422
G1 X-31.57928 Y-76.73215
G3 X-31.47869 Y-76.81567 I1.45507 J1.65008
G1 X-28.70669 Y-78.98147
G3 X-28.59718 Y-79.06172 I1.35448 J1.7336
G1 X-25.75021 Y-81.01578
G3 X-25.63164 Y-81.0917 I1.24497 J1.81385
G1 X-22.7175 Y-82.82867
G3 X-22.58996 Y-82.89908 I1.1264 J1.88977
G1 X-19.61664 Y-84.41421
G3 X-19.48044 Y-84.47785 I0.99886 J1.96017
G1 X-16.45609 Y-85.76698
G3 X-16.31182 Y-85.82257 I0.86265 J2.02382
G1 X-13.24473 Y-86.88217
G3 X-13.09328 Y-86.92846 I0.71838 J2.07941
G1 X-9.99186 Y-87.75561
G3 X-9.83443 Y-87.79147 I0.56693 J2.1257
G1 X-6.70718 Y-88.38392
G3 X-6.54525 Y-88.40839 I0.4095 J2.16155
G1 X-3.40073 Y-88.76451
G3 X-3.236 Y-88.77693 I0.24757 J2.18603
G1 X-0.08284 Y-88.89574
G3 X0.08284 I0.08284 J2.19844
G1 X3.236 Y-88.77693
G3 X3.40073 Y-88.76451 I-0.08284 J2.19844
G1 X6.54525 Y-88.40839
G3 X6.70718 Y-88.38392 I-0.24757 J2.18603
G1 X9.83443 Y-87.79147
G3 X9.99186 Y-87.75561 I-0.4095 J2.16155
G1 X13.09328 Y-86.92846
G3 X13.24473 Y-86.88217 I-0.56693 J2.1257
G1 X16.31182 Y-85.82257
G3 X16.45609 Y-85.76698 I-0.71838 J2.07941
G1 X19.48044 Y-84.47785
G3 X19.61664 Y-84.41421 I-0.86265 J2.02382
G1 X22.58996 Y-82.89908
G3 X22.7175 Y-82.82867 I-0.99886 J1.96017
G1 X25.63164 Y-81.0917
G3 X25.75021 Y-81.01578 I-1.1264 J1.88977
G1 X28.59718 Y-79.06172
G3 X28.70669 Y-78.98147 I-1.24497 J1.81385
G1 X31.47869 Y-76.81567
G3 X31.57928 Y-76.73215 I-1.35448 J1.7336
G1 X34.26871 Y-74.36056
G3 X34.36065 Y-74.2747 I-1.45507 J1.65008
G1 X36.96014 Y-71.70381
G3 X37.04379 Y-71.6164 I-1.547 J1.56422
G1 X39.54622 Y-68.85326
G3 X39.62205 Y-68.76495 I-1.63066 J1.4768
G1 X42.02055 Y-65.81715
G3 X42.08903 Y-65.72846 I-1.70648 J1.38849
G1 X44.37703 Y-62.60406
G3 X44.43866 Y-62.51542 I-1.77496 J1.29981
G1 X46.6099 Y-59.22299
G3 X46.66517 Y-59.13469 I-1.83659 J1.21117
G1 X48.71369 Y-55.68325
G3 X48.76307 Y-55.59553 I-1.89187 J1.12287
G1 X50.68325 Y-51.99455
G3 X50.7272 Y-51.90755 I-1.94125 J1.03515
G1 X52.51378 Y-48.16689
G3 X52.55269 Y-48.08071 I-1.9852 J0.94815
G1 X54.20077 Y-44.21062
G3 X54.23502 Y-44.1253 I-2.02411 J0.86197
G1 X55.74009 Y-40.1364
G3 X55.77001 Y-40.05194 I-2.05835 J0.77665
G1 X57.12794 Y-35.95516
G3 X57.15383 Y-35.87153 I-2.08827 J0.69219
G1 X58.36091 Y-31.67809
G3 X58.38301 Y-31.59524 I-2.11416 J0.60856
G1 X59.43592 Y-27.31665
G3 X59.45448 Y-27.2345 I-2.13627 J0.52571
G1 X60.35033 Y-22.88248
G3 X60.36551 Y-22.80095 I-2.15482 J0.44356
G1 X61.10186 Y-18.38742
G3 X61.11383 Y-18.30642 I-2.17001 J0.36204
G1 X61.68864 Y-13.84348
G3 X61.69752 Y-13.76289 I-2.18198 J0.28103
G1 X62.10923 Y-9.26277
G3 X62.11509 Y-9.18248 I-2.19085 J0.20044
G1 X62.36257 Y-4.65753
G3 X62.36549 Y-4.57741 I-2.19672 J0.12014
G1 X62.44806 Y-0.04003
G3 Y0.04003 I-2.19964 J0.04003
G1 X62.36549 Y4.57741
G3 X62.36257 Y4.65753 I-2.19964 J-0.04003
G1 X62.11509 Y9.18248
G3 X62.10923 Y9.26277 I-2.19672 J-0.12014
G1 X61.69752 Y13.76289
G3 X61.68864 Y13.84348 I-2.19085 J-0.20044
G1 X61.11383 Y18.30642
G3 X61.10186 Y18.38742 I-2.18198 J-0.28103
G1 X60.36551 Y22.80095
G3 X60.35033 Y22.88248 I-2.17001 J-0.36204
G1 X59.45448 Y27.2345
G3 X59.43592 Y27.31665 I-2.15482 J-0.44356
G1 X58.38301 Y31.59524
G3 X58.36091 Y31.67809 I-2.13627 J-0.52571
G1 X57.15383 Y35.87153
G3 X57.12794 Y35.95516 I-2.11416 J-0.60856
G1 X55.77001 Y40.05194
G3 X55.74009 Y40.1364 I-2.08827 J-0.69219
G1 X54.23502 Y44.1253
G3 X54.20077 Y44.21062 I-2.05835 J-0.77665
G1 X52.55269 Y48.08071
G3 X52.51378 Y48.16689 I-2.02411 J-0.86197
G1 X50.7272 Y51.90755
G3 X50.68325 Y51.99455 I-1.9852 J-0.94815
G1 X48.76307 Y55.59553
G3 X48.71369 Y55.68325 I-1.94125 J-1.03515
G1 X46.66517 Y59.13469
G3 X46.6099 Y59.22299 I-1.89187 J-1.12287
G1 X44.43866 Y62.51542
G3 X44.37703 Y62.60406 I-1.83659 J-1.21117
G1 X42.08903 Y65.72846
G3 X42.02055 Y65.81715 I-1.77496 J-1.29981
G1 X39.62205 Y68.76495
G3 X39.54622 Y68.85326 I-1.70648 J-1.38849
G1 X37.04379 Y71.6164
G3 X36.96014 Y71.70381 I-1.63066 J-1.4768
G1 X34.36065 Y74.2747
G3 X34.26871 Y74.36056 I-1.547 J-1.56422
G1 X31.57928 Y76.73215
G3 X31.47869 Y76.81567 I-1.45507 J-1.65008
G1 X28.70669 Y78.98147
G3 X28.59718 Y79.06172 I-1.35448 J-1.7336
G1 X25.75021 Y81.01578
G3 X25.63164 Y81.0917 I-1.24497 J-1.81385
G1 X22.7175 Y82.82867
G3 X22.58996 Y82.89908 I-1.1264 J-1.88977
G1 X19.61664 Y84.41421
G3 X19.48044 Y84.47785 I-0.99886 J-1.96017
G1 X16.45609 Y85.76698
G3 X16.31182 Y85.82257 I-0.86265 J-2.02382
G1 X13.24473 Y86.88217
G3 X13.09328 Y86.92846 I-0.71838 J-2.07941
G1 X9.99186 Y87.75561
G3 X9.83443 Y87.79147 I-0.56693 J-2.1257
G1 X6.70718 Y88.38392
G3 X6.54525 Y88.40839 I-0.4095 J-2.16155
G1 X3.40073 Y88.76451
G3 X3.236 Y88.77693 I-0.24757 J-2.18603
G1 X0.08284 Y88.89574
G3 X-0.08284 I-0.08284 J-2.19844
G1 X-3.236 Y88.77693
G3 X-3.40073 Y88.76451 I0.08284 J-2.19844
G1 X-5.53309 Y88.52302
G1 F300.0 Z-2.0
G1 F800.0 X-6.54525 Y88.40839
G3 X-6.70718 Y88.38392 I0.24757 J-2.18603
G1 X-9.83443 Y87.79147
G3 X-9.99186 Y87.75561 I0.4095 J-2.16155
G1 X-13.09328 Y86.92846
G3 X-13.24473 Y86.88217 I0.56693 J-2.1257
G1 X-16.31182 Y85.82257
G3 X-16.45609 Y85.76698 I0.71838 J-2.07941
G1 X-19.48044 Y84.47785
G3 X-19.61664 Y84.41421 I0.86265 J-2.02382
G1 X-22.58996 Y82.89908
G3 X-22.7175 Y82.82867 I0.99886 J-1.96017
G1 X-25.63164 Y81.0917
G3 X-25.75021 Y81.01578 I1.1264 J-1.88977
G1 X-28.59718 Y79.06172
G3 X-28.70669 Y78.98147 I1.24497 J-1.81385
G1 X-31.47869 Y76.81567
G3 X-31.57928 Y76.73215 I1.35448 J-1.7336
G1 X-34.26871 Y74.36056
G3 X-34.36065 Y74.2747 I1.45507 J-1.65008
G1 X-36.96014 Y71.70381
G3 X-37.04379 Y71.6164 I1.547 J-1.56422
G1 X-39.54622 Y68.85326
G3 X-39.62205 Y68.76495 I1.63066 J-1.4768
G1 X-42.02055 Y65.81715
G3 X-42.08903 Y65.72846 I1.70648 J-1.38849
G1 X-44.37703 Y62.60406
G3 X-44.43866 Y62.51542 I1.77496 J-1.29981
G1 X-46.6099 Y59.22299
G3 X-46.66517 Y59.13469 I1.83659 J-1.21117
G1 X-48.71369 Y55.68325
G3 X-48.76307 Y55.59553 I1.89187 J-1.12287
G1 X-50.68325 Y51.99455
G3 X-50.7272 Y51.90755 I1.94125 J-1.03515
G1 X-52.51378 Y48.16689
G3 X-52.55269 Y48.08071 I1.9852 J-0.94815
G1 X-54.20077 Y44.21062
G3 X-54.23502 Y44.1253 I2.02411 J-0.86197
G1 X-55.74009 Y40.1364
G3 X-55.77001 Y40.05194 I2.05835 J-0.77665
G1 X-57.12794 Y35.95516
G3 X-57.15383 Y35.87153 I2.08827 J-0.69219
G1 X-58.36091 Y31.67809
G3 X-58.38301 Y31.59524 I2.11416 J-0.60856
G1 X-59.43592 Y27.31665
G3 X-59.45448 Y27.2345 I2.13627 J-0.52571
G1 X-60.35033 Y22.88248
G3 X-60.36551 Y22.80095 I2.15482 J-0.44356
G1 X-61.10186 Y18.38742
G3 X-61.11383 Y18.30642 I2.17001 J-0.36204
G1 X-61.68864 Y13.84348
G3 X-61.69752 Y13.76289 I2.18198 J-0.28103
G1 X-62.10923 Y9.26277
G3 X-62.11509 Y9.18248 I2.19085 J-0.20044
G1 X-62.36257 Y4.65753
G3 X-62.36549 Y4.57741 I2.19672 J-0.12014
G1 X-62.44806 Y0.04003
G3 Y-0.04003 I2.19964 J-0.04003
G1 X-62.36549 Y-4.57741
G3 X-62.36257 Y-4.65753 I2.19964 J0.04003
G1 X-62.11509 Y-9.18248
G3 X-62.10923 Y-9.26277 I2.19672 J0.12014
G1 X-61.69752 Y-13.76289
G3 X-61.68864 Y-13.84348 I2.19085 J0.20044
G1 X-61.11383 Y-18.30642
G3 X-61.10186 Y-18.38742 I2.18198 J0.28103
G1 X-60.36551 Y-22.80095
G3 X-60.35033 Y-22.88248 I2.17001 J0.36204
G1 X-59.45448 Y-27.2345
G3 X-59.43592 Y-27.31665 I2.15482 J0.44356
G1 X-58.38301 Y-31.59524
G3 X-58.36091 Y-31.67809 I2.13627 J0.52571
G1 X-57.15383 Y-35.87153
G3 X-57.12794 Y-35.95516 I2.11416 J0.60856
G1 X-55.77001 Y-40.05194
G3 X-55.74009 Y-40.1364 I2.08827 J0.69219
G1 X-54.23502 Y-44.1253
G3 X-54.20077 Y-44.21062 I2.05835 J0.77665
G1 X-52.55269 Y-48.08071
G3 X-52.51378 Y-48.16689 I2.02411 J0.86197
G1 X-50.7272 Y-51.90755
G3 X-50.68325 Y-51.99455 I1.9852 J0.94815
G1 X-48.76307 Y-55.59553
G3 X-48.71369 Y-55.68325 I1.94125 J1.03515
G1 X-46.66517 Y-59.13469
G3 X-46.6099 Y-59.22299 I1.89187 J1.12287
G1 X-44.43866 Y-62.51542
G3 X-44.37703 Y-62.60406 I1.83659 J1.21117
G1 X-42.08903 Y-65.72846
G3 X-42.02055 Y-65.81715 I1.77496 J1.29981
G1 X-39.62205 Y-68.76495
G3 X-39.54622 Y-68.85326 I1.70648 J1.38849
G1 X-37.04379 Y-71.6164
G3 X-36.96014 Y-71.70381 I1.63066 J1.4768
G1 X-34.36065 Y-74.2747
G3 X-34.26871 Y-74.36056 I1.547 J1.56422
G1 X-31.57928 Y-76.73215
G3 X-31.47869 Y-76.81567 I1.45507 J1.65008
G1 X-28.70669 Y-78.98147
G3 X-28.59718 Y-79.06172 I1.35448 J1.7336
G1 X-25.75021 Y-81.01578
G3 X-25.63164 Y-81.0917 I1.24497 J1.81385
G1 X-22.7175 Y-82.82867
G3 X-22.58996 Y-82.89908 I1.1264 J1.88977
G1 X-19.61664 Y-84.41421
G3 X-19.48044 Y-84.47785 I0.99886 J1.96017
G1 X-16.45609 Y-85.76698
G3 X-16.31182 Y-85.82257 I0.86265 J2.02382
G1 X-13.24473 Y-86.88217
G3 X-13.09328 Y-86.92846 I0.71838 J2.07941
G1 X-9.99186 Y-87.75561
G3 X-9.83443 Y-87.79147 I0.56693 J2.1257
G1 X-6.70718 Y-88.38392
G3 X-6.54525 Y-88.40839 I0.4095 J2.16155
G1 X-3.40073 Y-88.76451
G3 X-3.236 Y-88.77693 I0.24757 J2.18603
G1 X-0.08284 Y-88.89574
G3 X0.08284 I0.08284 J2.19844
G1 X3.236 Y-88.77693
G3 X3.40073 Y-88.76451 I-0.08284 J2.19844
G1 X6.54525 Y-88.40839
G3 X6.70718 Y-88.38392 I-0.24757 J2.18603
G1 X9.83443 Y-87.79147
G3 X9.99186 Y-87.75561 I-0.4095 J2.16155
G1 X13.09328 Y-86.92846
G3 X13.24473 Y-86.88217 I-0.56693 J2.1257
G1 X16.31182 Y-85.82257
G3 X16.45609 Y-85.76698 I-0.71838 J2.07941
G1 X19.48044 Y-84.47785
G3 X19.61664 Y-84.41421 I-0.86265 J2.02382
G1 X22.58996 Y-82.89908
G3 X22.7175 Y-82.82867 I-0.99886 J1.96017
G1 X25.63164 Y-81.0917
G3 X25.75021 Y-81.01578 I-1.1264 J1.88977
G1 X28.59718 Y-79.06172
G3 X28.70669 Y-78.98147 I-1.24497 J1.81385
G1 X31.47869 Y-76.81567
G3 X31.57928 Y-76.73215 I-1.35448 J1.7336
G1 X34.26871 Y-74.36056
G3 X34.36065 Y-74.2747 I-1.45507 J1.65008
G1 X36.96014 Y-71.70381
G3 X37.04379 Y-71.6164 I-1.547 J1.56422
G1 X39.54622 Y-68.85326
G3 X39.62205 Y-68.76495 I-1.63066 J1.4768
G1 X42.02055 Y-65.81715
G3 X42.08903 Y-65.72846 I-1.70648 J1.38849
G1 X44.37703 Y-62.60406
G3 X44.43866 Y-62.51542 I-1.77496 J1.29981
G1 X46.6099 Y-59.22299
G3 X46.66517 Y-59.13469 I-1.83659 J1.21117
G1 X48.71369 Y-55.68325
G3 X48.76307 Y-55.59553 I-1.89187 J1.12287
G1 X50.68325 Y-51.99455
G3 X50.7272 Y-51.90755 I-1.94125 J1.03515
G1 X52.51378 Y-48.16689
G3 X52.55269 Y-48.08071 I-1.9852 J0.94815
G1 X54.20077 Y-44.21062
G3 X54.23502 Y-44.1253 I-2.02411 J0.86197
G1 X55.74009 Y-40.1364
G3 X55.77001 Y-40.05194 I-2.05835 J0.77665
G1 X57.12794 Y-35.95516
G3 X57.15383 Y-35.87153 I-2.08827 J0.69219
G1 X58.36091 Y-31.67809
G3 X58.38301 Y-31.59524 I-2.11416 J0.60856
G1 X59.43592 Y-27.31665
G3 X59.45448 Y-27.2345 I-2.13627 J0.52571
G1 X60.35033 Y-22.88248
G3 X60.36551 Y-22.80095 I-2.15482 J0.44356
G1 X61.10186 Y-18.38742
G3 X61.11383 Y-18.30642 I-2.17001 J0.36204
G1 X61.68864 Y-13.84348
G3 X61.69752 Y-13.76289 I-2.18198 J0.28103
G1 X62.10923 Y-9.26277
G3 X62.11509 Y-9.18248 I-2.19085 J0.20044
G1 X62.36257 Y-4.65753
G3 X62.36549 Y-4.57741 I-2.19672 J0.12014
G1 X62.44806 Y-0.04003
G3 Y0.04003 I-2.19964 J0.04003
G1 X62.36549 Y4.57741
G3 X62.36257 Y4.65753 I-2.19964 J-0.04003
G1 X62.11509 Y9.18248
G3 X62.10923 Y9.26277 I-2.19672 J-0.12014
G1 X61.69752 Y13.76289
G3 X61.68864 Y13.84348 I-2.19085 J-0.20044
G1 X61.11383 Y18.30642
G3 X61.10186 Y18.38742 I-2.18198 J-0.28103
G1 X60.36551 Y22.80095
G3 X60.35033 Y22.88248 I-2.17001 J-0.36204
G1 X59.45448 Y27.2345
G3 X59.43592 Y27.31665 I-2.15482 J-0.44356
G1 X58.38301 Y31.59524
G3 X58.36091 Y31.67809 I-2.13627 J-0.52571
G1 X57.15383 Y35.87153
G3 X57.12794 Y35.95516 I-2.11416 J-0.60856
G1 X55.77001 Y40.05194
G3 X55.74009 Y40.1364 I-2.08827 J-0.69219
G1 X54.23502 Y44.1253
G3 X54.20077 Y44.21062 I-2.05835 J-0.77665
G1 X52.55269 Y48.08071
G3 X52.51378 Y48.16689 I-2.02411 J-0.86197
G1 X50.7272 Y51.90755
G3 X50.68325 Y51.99455 I-1.9852 J-0.94815
G1 X48.76307 Y55.59553
G3 X48.71369 Y55.68325 I-1.94125 J-1.03515
G1 X46.66517 Y59.13469
G3 X46.6099 Y59.22299 I-1.89187 J-1.12287
G1 X44.43866 Y62.51542
G3 X44.37703 Y62.60406 I-1.83659 J-1.21117
G1 X42.08903 Y65.72846
G3 X42.02055 Y65.81715 I-1.77496 J-1.29981
G1 X39.62205 Y68.76495
G3 X39.54622 Y68.85326 I-1.70648 J-1.38849
G1 X37.04379 Y71.6164
G3 X36.96014 Y71.70381 I-1.63066 J-1.4768
G1 X34.36065 Y74.2747
G3 X34.26871 Y74.36056 I-1.547 J-1.56422
G1 X31.57928 Y76.73215
G3 X31.47869 Y76.81567 I-1.45507 J-1.65008
G1 X28.70669 Y78.98147
G3 X28.59718 Y79.06172 I-1.35448 J-1.7336
G1 X25.75021 Y81.01578
G3 X25.63164 Y81.0917 I-1.24497 J-1.81385
G1 X22.7175 Y82.82867
G3 X22.58996 Y82.89908 I-1.1264 J-1.88977
G1 X19.61664 Y84.41421
G3 X19.48044 Y84.47785 I-0.99886 J-1.96017
G1 X16.45609 Y85.76698
G3 X16.31182 Y85.82257 I-0.86265 J-2.02382
G1 X13.24473 Y86.88217
G3 X13.09328 Y86.92846 I-0.71838 J-2.07941
G1 X9.99186 Y87.75561
G3 X9.83443 Y87.79147 I-0.56693 J-2.1257
G1 X6.70718 Y88.38392
G3 X6.54525 Y88.40839 I-0.4095 J-2.16155
G1 X3.40073 Y88.76451
G3 X3.236 Y88.77693 I-0.24757 J-2.18603
G1 X0.08284 Y88.89574
G3 X-0.08284 I-0.08284 J-2.19844
G1 X-3.236 Y88.77693
G3 X-3.40073 Y88.76451 I0.08284 J-2.19844
G1 X-5.53309 Y88.52302
G1 F300.0 X-5.62521 Y89.31448
G1 F800.0 X-6.52639 Y89.21242
G1 X-6.48833 Y89.21943
G1 X-5.62521 Y89.31448
G1 F300.0 X-3.28207 Y89.57252
G1 F800.0 X-3.24777 Y89.57629
G1 X-0.90278 Y89.66221
G1 X-3.266 Y89.57316
G3 X-3.28207 Y89.57252 I0.11284 J-2.99467
G0 Z3.0
G0 X-0.0395 Y89.69384
G0 Z0.0
G1 F300.0 Z-2.0
G1 F800.0 X0.0 Y89.69529
G1 X0.0395 Y89.69384
G3 X-0.0395 I-0.0395 J-2.99654
G1 F300.0 X0.90278 Y89.66221
G1 F800.0 X3.24777 Y89.57629
G1 X3.28207 Y89.57252
G3 X3.266 Y89.57316 I-0.12891 J-2.99403
G1 X0.90278 Y89.66221
G0 Z3.0
G0 X5.62521 Y89.31448
G0 Z0.0
G1 F300.0 Z-2.0
G1 F800.0 X6.48833 Y89.21943
G1 X6.52639 Y89.21242
G1 X5.62521 Y89.31448
G0 Z3.0
G0 X62.43327 Y14.29964
G0 Z0.0
G1 F300.0 Z-2.0
G1 F800.0 X62.45131 Y14.16345
G1 X62.45266 Y14.14909
G1 X62.43327 Y14.29964
G0 Z3.0
G0 X62.80186 Y10.43769
G0 Z0.0
G1 F300.0 Z-2.0
G1 F800.0 X62.89341 Y9.46468
G1 X62.89745 Y9.39291
G1 X62.80186 Y10.43769
G0 Z3.0
G0 X63.04681 Y6.73741
G0 Z0.0
G1 F300.0 Z-2.0
G1 F800.0 X63.15921 Y4.73906
G1 X63.16129 Y4.62774
G3 X63.15818 Y4.70104 I-2.99544 J-0.09035
G1 X63.04681 Y6.73741
G1 F300.0 X63.16905 Y4.21323
G1 F800.0 X63.2479 Y0.0
G1 X63.16905 Y-4.21323
G1 X63.24473 Y-0.05452
G3 Y0.05452 I-2.9963 J0.05452
G1 X63.16905 Y4.21323
G0 Z3.0
G0 X63.16129 Y-4.62774
G0 Z0.0
G1 F300.0 Z-2.0
G1 F800.0 X63.15921 Y-4.73906
G1 X63.04681 Y-6.73741
G1 X63.15818 Y-4.70104
G3 X63.16129 Y-4.62774 I-2.99233 J0.16366
G0 Z3.0
G0 X62.89745 Y-9.39291
G0 Z0.0
G1 F300.0 Z-2.0
G1 F800.0 X62.89341 Y-9.46468
G1 X62.80186 Y-10.43769
G1 X62.89745 Y-9.39291
G0 Z3.0
G0 X62.45266 Y-14.14909
G0 Z0.0
G1 F300.0 Z-2.0
G1 F800.0 X62.45131 Y-14.16345
G1 X62.43327 Y-14.29964
G1 X62.45266 Y-14.14909
G0 Z3.0
G0 X6.52639 Y-89.21242
G0 Z0.0
G1 F300.0 Z-2.0
G1 F800.0 X6.48833 Y-89.21943
G1 X5.62521 Y-89.31448
G1 X6.52639 Y-89.21242
G0 Z3.0
G0 X3.28207 Y-89.57252
G0 Z0.0
G1 F300.0 Z-2.0
G1 F800.0 X3.24777 Y-89.57629
G1 X0.90278 Y-89.66221
G1 X3.266 Y-89.57316
G3 X3.28207 Y-89.57252 I-0.11284 J2.99467
G0 Z3.0
G0 X0.0395 Y-89.69384
G0 Z0.0
G1 F300.0 Z-2.0
G1 F800.0 X0.0 Y-89.69529
G1 X-0.0395 Y-89.69384
G3 X0.0395 I0.0395 J2.99654
G1 F300.0 X-0.90278 Y-89.66221
G1 F800.0 X-3.24777 Y-89.57629
G1 X-3.28207 Y-89.57252
G3 X-3.266 Y-89.57316 I0.12891 J2.99403
G1 X-0.90278 Y-89.66221
G0 Z3.0
G0 X-5.62521 Y-89.31448
G0 Z0.0
G1 F300.0 Z-2.0
G1 F800.0 X-6.48833 Y-89.21943
G1 X-6.52639 Y-89.21242
G1 X-5.62521 Y-89.31448
G0 Z3.0
G0 X-62.43327 Y-14.29964
G0 Z0.0
G1 F300.0 Z-2.0
G1 F800.0 X-62.45131 Y-14.16345
G1 X-62.45266 Y-14.14909
G1 X-62.43327 Y-14.29964
G0 Z3.0
G0 X-62.80186 Y-10.43769
G0 Z0.0
G1 F300.0 Z-2.0
G1 F800.0 X-62.89341 Y-9.46468
G1 X-62.89745 Y-9.39291
G1 X-62.80186 Y-10.43769
G0 Z3.0
G0 X-63.04681 Y-6.73741
G0 Z0.0
G1 F300.0 Z-2.0
G1 F800.0 X-63.15921 Y-4.73906
G1 X-63.16129 Y-4.62774
G3 X-63.15818 Y-4.70104 I2.99544 J0.09035
G1 X-63.04681 Y-6.73741
G1 F300.0 X-63.16905 Y-4.21323
G1 F800.0 X-63.2479 Y0.0
G1 X-63.16905 Y4.21323
G1 X-63.24473 Y0.05452
G3 Y-0.05452 I2.9963 J-0.05452
G1 X-63.16905 Y-4.21323
G0 Z3.0
G0 X-63.16129 Y4.62774
G0 Z0.0
G1 F300.0 Z-2.0
G1 F800.0 X-63.15921 Y4.73906
G1 X-63.04681 Y6.73741
G1 X-63.15818 Y4.70104
G3 X-63.16129 Y4.62774 I2.99233 J-0.16366
G0 Z3.0
G0 X-62.89745 Y9.39291
G0 Z0.0
G1 F300.0 Z-2.0
G1 F800.0 X-62.89341 Y9.46468
G1 X-62.80186 Y10.43769
G1 X-62.89745 Y9.39291
G0 Z3.0
G0 X-62.45266 Y14.14909
G0 Z0.0
G1 F300.0 Z-2.0
G1 F800.0 X-62.45131 Y14.16345
G1 X-62.43327 Y14.29964
G1 X-62.45266 Y14.14909
G1 F300.0 X-63.24914 Y14.22403
G1 F800.0 X-63.24637 Y14.25348
G1 X-62.62531 Y18.94227
G1 X-61.82995 Y23.57784
G1 X-60.86264 Y28.14715
G1 X-59.72625 Y32.63739
G1 X-58.42415 Y37.03596
G1 X-56.96021 Y41.33052
G1 X-55.33879 Y45.50905
G1 X-53.56471 Y49.55988
G1 X-51.64329 Y53.47172
G1 X-49.58026 Y57.23369
G1 X-47.38182 Y60.8354
G1 X-45.05454 Y64.26694
G1 X-42.60542 Y67.51896
G1 X-40.04176 Y70.58268
G1 X-37.37124 Y73.44995
G1 X-34.60178 Y76.11326
G1 X-31.74155 Y78.56578
G1 X-28.79889 Y80.80139
G1 X-25.78227 Y82.81468
G1 X-22.70023 Y84.60098
G1 X-19.56131 Y86.15631
G1 X-16.37398 Y87.47737
G1 X-13.14663 Y88.56152
G1 X-9.88751 Y89.40672
G1 X-6.60474 Y90.01145
G1 X-3.30628 Y90.37469
G1 X0.0 Y90.49583
G1 X3.30628 Y90.37469
G1 X6.60474 Y90.01145
G1 X9.88751 Y89.40672
G1 X13.14663 Y88.56152
G1 X16.37398 Y87.47737
G1 X19.56131 Y86.15631
G1 X22.70023 Y84.60098
G1 X25.78227 Y82.81468
G1 X28.79889 Y80.80139
G1 X31.74155 Y78.56578
G1 X34.60178 Y76.11326
G1 X37.37124 Y73.44995
G1 X40.04176 Y70.58268
G1 X42.60542 Y67.51896
G1 X45.05454 Y64.26694
G1 X47.38182 Y60.8354
G1 X49.58026 Y57.23369
G1 X51.64329 Y53.47172
G1 X53.56471 Y49.55988
G1 X55.33879 Y45.50905
G1 X56.96021 Y41.33052
G1 X58.42415 Y37.03596
G1 X59.72625 Y32.63739
G1 X60.86264 Y28.14715
G1 X61.82995 Y23.57784
G1 X62.62531 Y18.94227
G1 X63.24637 Y14.25348
G1 X63.6913 Y9.52463
G1 X63.95879 Y4.76902
G1 X64.04804 Y0.0
G1 X63.95879 Y-4.76902
G1 X63.6913 Y-9.52463
G1 X63.24637 Y-14.25348
G1 X62.62531 Y-18.94227
G1 X61.82995 Y-23.57784
G1 X60.86264 Y-28.14715
G1 X59.72625 Y-32.63739
G1 X58.42415 Y-37.03596
G1 X56.96021 Y-41.33052
G1 X55.33879 Y-45.50905
G1 X53.56471 Y-49.55988
G1 X51.64329 Y-53.47172
G1 X49.58026 Y-57.23369
G1 X47.38182 Y-60.8354
G1 X45.05454 Y-64.26694
G1 X42.60542 Y-67.51896
G1 X40.04176 Y-70.58268
G1 X37.37124 Y-73.44995
G1 X34.60178 Y-76.11326
G1 X31.74155 Y-78.56578
G1 X28.79889 Y-80.80139
G1 X25.78227 Y-82.81468
G1 X22.70023 Y-84.60098
G1 X19.56131 Y-86.15631
G1 X16.37398 Y-87.47737
G1 X13.14663 Y-88.56152
G1 X9.88751 Y-89.40672
G1 X6.60474 Y-90.01145
G1 X3.30628 Y-90.37469
G1 X0.0 Y-90.49583
G1 X-3.30628 Y-90.37469
G1 X-6.60474 Y-90.01145
G1 X-9.88751 Y-89.40672
G1 X-13.14663 Y-88.56152
G1 X-16.37398 Y-87.47737
G1 X-19.56131 Y-86.15631
G1 X-22.70023 Y-84.60098
G1 X-25.78227 Y-82.81468
G1 X-28.79889 Y-80.80139
G1 X-31.74155 Y-78.56578
G1 X-34.60178 Y-76.11326
G1 X-37.37124 Y-73.44995
G1 X-40.04176 Y-70.58268
G1 X-42.60542 Y-67.51896
G1 X-45.05454 Y-64.26694
G1 X-47.38182 Y-60.8354
G1 X-49.58026 Y-57.23369
G1 X-51.64329 Y-53.47172
G1 X-53.56471 Y-49.55988
G1 X-55.33879 Y-45.50905
G1 X-56.96021 Y-41.33052
G1 X-58.42415 Y-37.03596
G1 X-59.72625 Y-32.63739
G1 X-60.86264 Y-28.14715
G1 X-61.82995 Y-23.57784
G1 X-62.62531 Y-18.94227
G1 X-63.24637 Y-14.25348
G1 X-63.6913 Y-9.52463
G1 X-63.95879 Y-4.76902
G1 X-64.04804 Y0.0
G1 X-63.95879 Y4.76902
G1 X-63.6913 Y9.52463
G1 X-63.24914 Y14.22403
( Tasche-Ring-Innen )
G0 Z3.0
( T2 : 2.0 )
T2 M6
M3 S1000
G0 X-55.18528 Y0.0
G0 Z1.0
G1 F300.0 Z-1.0
G1 F800.0 X-55.10891 Y4.28912
G1 X-54.88003 Y8.56632
G1 X-54.49929 Y12.81973
G1 X-53.96778 Y17.03753
G1 X-53.287 Y21.208
G1 X-52.45892 Y25.31957
G1 X-51.48589 Y29.36081
G1 X-50.3707 Y33.3205
G1 X-49.11654 Y37.18766
G1 X-47.72703 Y40.95154
G1 X-46.20614 Y44.60171
G1 X-44.55827 Y48.12806
G1 X-42.78816 Y51.52085
G1 X-40.90093 Y54.77069
G1 X-38.90204 Y57.86866
G1 X-36.79726 Y60.80625
G1 X-34.59271 Y63.57547
G1 X-32.29475 Y66.16881
G1 X-29.91002 Y68.57932
G1 X-27.4454 Y70.80062
G1 X-24.90793 Y72.82691
G1 X-22.30483 Y74.65301
G1 X-19.64342 Y76.27434
G1 X-16.93108 Y77.68698
G1 X-14.17522 Y78.88758
G1 X-11.38324 Y79.87341
G1 X-8.56248 Y80.64231
G1 X-5.72022 Y81.19265
G1 X-2.86367 Y81.52329
G1 X0.0 Y81.63358
G1 X2.86367 Y81.52329
G1 X5.72022 Y81.19265
G1 X8.56248 Y80.64231
G1 X11.38324 Y79.87341
G1 X14.17522 Y78.88758
G1 X16.93108 Y77.68698
G1 X19.64342 Y76.27434
G1 X22.30483 Y74.65301
G1 X24.90793 Y72.82691
G1 X27.4454 Y70.80062
G1 X29.91002 Y68.57932
G1 X32.29475 Y66.16881
G1 X34.59271 Y63.57547
G1 X36.79726 Y60.80625
G1 X38.90204 Y57.86866
G1 X40.90093 Y54.77069
G1 X42.78816 Y51.52085
G1 X44.55827 Y48.12806
G1 X46.20614 Y44.60171
G1 X47.72703 Y40.95154
G1 X49.11654 Y37.18766
G1 X50.3707 Y33.3205
G1 X51.48589 Y29.36081
G1 X52.45892 Y25.31957
G1 X53.287 Y21.208
G1 X53.96778 Y17.03753
G1 X54.49929 Y12.81973
G1 X54.88003 Y8.56632
G1 X55.10891 Y4.28912
G1 X55.18528 Y0.0
G1 X55.10891 Y-4.28912
G1 X54.88003 Y-8.56632
G1 X54.49929 Y-12.81973
G1 X53.96778 Y-17.03753
G1 X53.287 Y-21.208
G1 X52.45892 Y-25.31957
G1 X51.48589 Y-29.36081
G1 X50.3707 Y-33.3205
G1 X49.11654 Y-37.18766
G1 X47.72703 Y-40.95154
G1 X46.20614 Y-44.60171
G1 X44.55827 Y-48.12806
G1 X42.78816 Y-51.52085
G1 X40.90093 Y-54.77069
G1 X38.90204 Y-57.86866
G1 X36.79726 Y-60.80625
G1 X34.59271 Y-63.57547
G1 X32.29475 Y-66.16881
G1 X29.91002 Y-68.57932
G1 X27.4454 Y-70.80062
G1 X24.90793 Y-72.82691
G1 X22.30483 Y-74.65301
G1 X19.64342 Y-76.27434
G1 X16.93108 Y-77.68698
G1 X14.17522 Y-78.88758
G1 X11.38324 Y-79.87341
G1 X8.56248 Y-80.64231
G1 X5.72022 Y-81.19265
G1 X2.86367 Y-81.52329
G1 X0.0 Y-81.63358
G1 X-2.86367 Y-81.52329
G1 X-5.72022 Y-81.19265
G1 X-8.56248 Y-80.64231
G1 X-11.38324 Y-79.87341
G1 X-14.17522 Y-78.88758
G1 X-16.93108 Y-77.68698
G1 X-19.64342 Y-76.27434
G1 X-22.30483 Y-74.65301
G1 X-24.90793 Y-72.82691
G1 X-27.4454 Y-70.80062
G1 X-29.91002 Y-68.57932
G1 X-32.29475 Y-66.16881
G1 X-34.59271 Y-63.57547
G1 X-36.79726 Y-60.80625
G1 X-38.90204 Y-57.86866
G1 X-40.90093 Y-54.77069
G1 X-42.78816 Y-51.52085
G1 X-44.55827 Y-48.12806
G1 X-46.20614 Y-44.60171
G1 X-47.72703 Y-40.95154
G1 X-49.11654 Y-37.18766
G1 X-50.3707 Y-33.3205
G1 X-51.48589 Y-29.36081
G1 X-52.45892 Y-25.31957
G1 X-53.287 Y-21.208
G1 X-53.96778 Y-17.03753
G1 X-54.49929 Y-12.81973
G1 X-54.88003 Y-8.56632
G1 X-55.10891 Y-4.28912
G1 X-55.18528 Y0.0
G1 F300.0 X-55.08544
G3 F800.0 X-55.08528 Y-0.01758 I1.0 J0.0
G1 X-55.01116 Y-4.23242
G3 X-55.00992 Y-4.26762 I0.99985 J0.01758
G1 X-54.78776 Y-8.47091
G3 X-54.78527 Y-8.5062 I0.99861 J0.05278
G1 X-54.41567 Y-12.68642
G3 X-54.4119 Y-12.72186 I0.99611 J0.08807
G1 X-53.89588 Y-16.86754
G3 X-53.89079 Y-16.9032 I0.99234 J0.12352
G1 X-53.22977 Y-21.00299
G3 X-53.2233 Y-21.03892 I0.98725 J0.15918
G1 X-52.41909 Y-25.08158
G3 X-52.41118 Y-25.11784 I0.98078 J0.19511
G1 X-51.46597 Y-29.09229
G3 X-51.45653 Y-29.12892 I0.97287 J0.23137
G1 X-50.37293 Y-33.02426
G3 X-50.36184 Y-33.06132 I0.96342 J0.268
G1 X-49.14281 Y-36.86688
G3 X-49.12997 Y-36.90439 I0.95233 J0.30506
G1 X-47.77885 Y-40.60974
G3 X-47.76411 Y-40.64774 I0.93949 J0.34258
G1 X-46.28461 Y-44.24271
G3 X-46.26782 Y-44.28121 I0.92475 J0.38058
G1 X-44.66399 Y-47.75596
G3 X-44.64495 Y-47.79496 I0.90795 J0.41908
G1 X-42.92119 Y-51.13997
G3 X-42.89972 Y-51.17944 I0.88891 J0.45808
G1 X-41.06075 Y-54.38553
G3 X-41.03661 Y-54.42542 I0.86744 J0.49755
G1 X-39.08748 Y-57.48381
G3 X-39.06045 Y-57.52404 I0.8433 J0.53744
G1 X-37.00649 Y-60.42634
G3 X-36.97631 Y-60.46678 I0.81627 J0.57767
G1 X-34.82316 Y-63.20504
G3 X-34.78956 Y-63.24552 I0.78609 J0.61812
G1 X-32.54312 Y-65.81223
G3 X-32.50585 Y-65.85252 I0.75249 J0.6586
G1 X-30.17227 Y-68.24066
G3 X-30.13108 Y-68.28046 I0.71523 J0.69889
G1 X-27.71676 Y-70.48346
G3 X-27.67142 Y-70.52241 I0.67404 J0.7387
G1 X-25.18298 Y-72.53425
G3 X-25.13332 Y-72.5719 I0.6287 J0.77764
G1 X-22.57757 Y-74.38706
G3 X-22.52348 Y-74.42289 I0.57904 J0.8153
G1 X-19.90744 Y-76.0364
G3 X-19.84891 Y-76.06983 I0.52495 J0.85113
G1 X-17.17974 Y-77.47725
G3 X-17.11688 Y-77.50764 I0.46642 J0.88456
G1 X-14.4019 Y-78.70513
G3 X-14.33496 Y-78.73182 I0.40356 J0.91495
G1 X-11.58161 Y-79.71609
G3 X-11.51102 Y-79.73842 I0.33662 J0.94164
G1 X-8.72686 Y-80.50677
G3 X-8.6532 Y-80.52413 I0.26603 J0.96397
G1 X-5.84584 Y-81.07447
G3 X-5.76986 Y-81.08635 I0.19237 J0.98132
G1 X-2.94701 Y-81.41715
G3 X-2.86957 Y-81.42319 I0.11639 J0.9932
G1 X-0.03896 Y-81.53356
G3 X0.03896 I0.03896 J0.99924
G1 X2.86957 Y-81.42319
G3 X2.94701 Y-81.41715 I-0.03896 J0.99924
G1 X5.76986 Y-81.08635
G3 X5.84584 Y-81.07447 I-0.11639 J0.9932
G1 X8.6532 Y-80.52413
G3 X8.72686 Y-80.50677 I-0.19237 J0.98132
G1 X11.51102 Y-79.73842
G3 X11.58161 Y-79.71609 I-0.26603 J0.96397
G1 X14.33496 Y-78.73182
G3 X14.4019 Y-78.70513 I-0.33662 J0.94164
G1 X17.11688 Y-77.50764
G3 X17.17974 Y-77.47725 I-0.40356 J0.91495
G1 X19.84891 Y-76.06983
G3 X19.90744 Y-76.0364 I-0.46642 J0.88456
G1 X22.52348 Y-74.42289
G3 X22.57757 Y-74.38706 I-0.52495 J0.85113
G1 X25.13332 Y-72.5719
G3 X25.18298 Y-72.53425 I-0.57904 J0.8153
G1 X27.67142 Y-70.52241
G3 X27.71676 Y-70.48346 I-0.6287 J0.77764
G1 X30.13108 Y-68.28046
G3 X30.17227 Y-68.24066 I-0.67404 J0.7387
G1 X32.50585 Y-65.85252
G3 X32.54312 Y-65.81223 I-0.71523 J0.69889
G1 X34.78956 Y-63.24552
G3 X34.82316 Y-63.20504 I-0.75249 J0.6586
G1 X36.97631 Y-60.46678
G3 X37.00649 Y-60.42634 I-0.78609 J0.61812
G1 X39.06045 Y-57.52404
G3 X39.08748 Y-57.48381 I-0.81627 J0.57767
G1 X41.03661 Y-54.42542
G3 X41.06075 Y-54.38553 I-0.8433 J0.53744
G1 X42.89972 Y-51.17944
G3 X42.92119 Y-51.13997 I-0.86744 J0.49755
G1 X44.64495 Y-47.79496
G3 X44.66399 Y-47.75596 I-0.88891 J0.45808
G1 X46.26782 Y-44.28121
G3 X46.28461 Y-44.24271 I-0.90795 J0.41908
G1 X47.76411 Y-40.64774
G3 X47.77885 Y-40.60974 I-0.92475 J0.38058
G1 X49.12997 Y-36.90439
G3 X49.14281 Y-36.86688 I-0.93949 J0.34258
G1 X50.36184 Y-33.06132
G3 X50.37293 Y-33.02426 I-0.95233 J0.30506
G1 X51.45653 Y-29.12892
G3 X51.46597 Y-29.09229 I-0.96342 J0.268
G1 X52.41118 Y-25.11784
G3 X52.41909 Y-25.08158 I-0.97287 J0.23137
G1 X53.2233 Y-21.03892
G3 X53.22977 Y-21.00299 I-0.98078 J0.19511
G1 X53.89079 Y-16.9032
G3 X53.89588 Y-16.86754 I-0.98725 J0.15918
G1 X54.4119 Y-12.72186
G3 X54.41567 Y-12.68642 I-0.99234 J0.12352
G1 X54.78527 Y-8.5062
G3 X54.78776 Y-8.47091 I-0.99611 J0.08807
G1 X55.00992 Y-4.26762
G3 X55.01116 Y-4.23242 I-0.99861 J0.05278
G1 X55.08528 Y-0.01758
G3 Y0.01758 I-0.99985 J0.01758
G1 X55.01116 Y4.23242
G3 X55.00992 Y4.26762 I-0.99985 J-0.01758
G1 X54.78776 Y8.47091
G3 X54.78527 Y8.5062 I-0.99861 J-0.05278
G1 X54.41567 Y12.68642
G3 X54.4119 Y12.72186 I-0.99611 J-0.08807
G1 X53.89588 Y16.86754
G3 X53.89079 Y16.9032 I-0.99234 J-0.12352
G1 X53.22977 Y21.00299
G3 X53.2233 Y21.03892 I-0.98725 J-0.15918
G1 X52.41909 Y25.08158
G3 X52.41118 Y25.11784 I-0.98078 J-0.19511
G1 X51.46597 Y29.09229
G3 X51.45653 Y29.12892 I-0.97287 J-0.23137
G1 X50.37293 Y33.02426
G3 X50.36184 Y33.06132 I-0.96342 J-0.268
G1 X49.14281 Y36.86688
G3 X49.12997 Y36.90439 I-0.95233 J-0.30506
G1 X47.77885 Y40.60974
G3 X47.76411 Y40.64774 I-0.93949 J-0.34258
G1 X46.28461 Y44.24271
G3 X46.26782 Y44.28121 I-0.92475 J-0.38058
G1 X44.66399 Y47.75596
G3 X44.64495 Y47.79496 I-0.90795 J-0.41908
G1 X42.92119 Y51.13997
G3 X42.89972 Y51.17944 I-0.88891 J-0.45808
G1 X41.06075 Y54.38553
G3 X41.03661 Y54.42542 I-0.86744 J-0.49755
G1 X39.08748 Y57.48381
G3 X39.06045 Y57.52404 I-0.8433 J-0.53744
G1 X37.00649 Y60.42634
G3 X36.97631 Y60.46678 I-0.81627 J-0.57767
G1 X34.82316 Y63.20504
G3 X34.78956 Y63.24552 I-0.78609 J-0.61812
G1 X32.54312 Y65.81223
G3 X32.50585 Y65.85252 I-0.75249 J-0.6586
G1 X30.17227 Y68.24066
G3 X30.13108 Y68.28046 I-0.71523 J-0.69889
G1 X27.71676 Y70.48346
G3 X27.67142 Y70.52241 I-0.67404 J-0.7387
G1 X25.18298 Y72.53425
G3 X25.13332 Y72.5719 I-0.6287 J-0.77764
G1 X22.57757 Y74.38706
G3 X22.52348 Y74.42289 I-0.57904 J-0.8153
G1 X19.90744 Y76.0364
G3 X19.84891 Y76.06983 I-0.52495 J-0.85113
G1 X17.17974 Y77.47725
G3 X17.11688 Y77.50764 I-0.46642 J-0.88456
G1 X14.4019 Y78.70513
G3 X14.33496 Y78.73182 I-0.40356 J-0.91495
G1 X11.58161 Y79.71609
G3 X11.51102 Y79.73842 I-0.33662 J-0.94164
G1 X8.72686 Y80.50677
G3 X8.6532 Y80.52413 I-0.26603 J-0.96397
G1 X5.84584 Y81.07447
G3 X5.76986 Y81.08635 I-0.19237 J-0.98132
G1 X2.94701 Y81.41715
G3 X2.86957 Y81.42319 I-0.11639 J-0.9932
G1 X0.03896 Y81.53356
G3 X-0.03896 I-0.03896 J-0.99924
G1 X-2.86957 Y81.42319
G3 X-2.94701 Y81.41715 I0.03896 J-0.99924
G1 X-5.76986 Y81.08635
G3 X-5.84584 Y81.07447 I0.11639 J-0.9932
G1 X-8.6532 Y80.52413
G3 X-8.72686 Y80.50677 I0.19237 J-0.98132
G1 X-11.51102 Y79.73842
G3 X-11.58161 Y79.71609 I0.26603 J-0.96397
G1 X-14.33496 Y78.73182
G3 X-14.4019 Y78.70513 I0.33662 J-0.94164
G1 X-17.11688 Y77.50764
G3 X-17.17974 Y77.47725 I0.40356 J-0.91495
G1 X-19.84891 Y76.06983
G3 X-19.90744 Y76.0364 I0.46642 J-0.88456
G1 X-22.52348 Y74.42289
G3 X-22.57757 Y74.38706 I0.52495 J-0.85113
G1 X-25.13332 Y72.5719
G3 X-25.18298 Y72.53425 I0.57904 J-0.8153
G1 X-27.67142 Y70.52241
G3 X-27.71676 Y70.48346 I0.6287 J-0.77764
G1 X-30.13108 Y68.28046
G3 X-30.17227 Y68.24066 I0.67404 J-0.7387
G1 X-32.50585 Y65.85252
G3 X-32.54312 Y65.81223 I0.71523 J-0.69889
G1 X-34.78956 Y63.24552
G3 X-34.82316 Y63.20504 I0.75249 J-0.6586
G1 X-36.97631 Y60.46678
G3 X-37.00649 Y60.42634 I0.78609 J-0.61812
G1 X-39.06045 Y57.52404
G3 X-39.08748 Y57.48381 I0.81627 J-0.57767
G1 X-41.03661 Y54.42542
G3 X-41.06075 Y54.38553 I0.8433 J-0.53744
G1 X-42.89972 Y51.17944
G3 X-42.92119 Y51.13997 I0.86744 J-0.49755
G1 X-44.64495 Y47.79496
G3 X-44.66399 Y47.75596 I0.88891 J-0.45808
G1 X-46.26782 Y44.28121
G3 X-46.28461 Y44.24271 I0.90795 J-0.41908
G1 X-47.76411 Y40.64774
G3 X-47.77885 Y40.60974 I0.92475 J-0.38058
G1 X-49.12997 Y36.90439
G3 X-49.14281 Y36.86688 I0.93949 J-0.34258
G1 X-50.36184 Y33.06132
G3 X-50.37293 Y33.02426 I0.95233 J-0.30506
G1 X-51.45653 Y29.12892
G3 X-51.46597 Y29.09229 I0.96342 J-0.268
G1 X-52.41118 Y25.11784
G3 X-52.41909 Y25.08158 I0.97287 J-0.23137
G1 X-53.2233 Y21.03892
G3 X-53.22977 Y21.00299 I0.98078 J-0.19511
G1 X-53.89079 Y16.9032
G3 X-53.89588 Y16.86754 I0.98725 J-0.15918
G1 X-54.4119 Y12.72186
G3 X-54.41567 Y12.68642 I0.99234 J-0.12352
G1 X-54.78527 Y8.5062
G3 X-54.78776 Y8.47091 I0.99611 J-0.08807
G1 X-55.00992 Y4.26762
G3 X-55.01116 Y4.23242 I0.99861 J-0.05278
G1 X-55.08528 Y0.01758
G3 X-55.08544 Y0.0 I0.99985 J-0.01758
G1 F300.0 Z-2.0
G3 F800.0 X-55.08528 Y-0.01758 I1.0 J0.0
G1 X-55.01116 Y-4.23242
G3 X-55.00992 Y-4.26762 I0.99985 J0.01758
G1 X-54.78776 Y-8.47091
G3 X-54.78527 Y-8.5062 I0.99861 J0.05278
G1 X-54.41567 Y-12.68642
G3 X-54.4119 Y-12.72186 I0.99611 J0.08807
G1 X-53.89588 Y-16.86754
G3 X-53.89079 Y-16.9032 I0.99234 J0.12352
G1 X-53.22977 Y-21.00299
G3 X-53.2233 Y-21.03892 I0.98725 J0.15918
G1 X-52.41909 Y-25.08158
G3 X-52.41118 Y-25.11784 I0.98078 J0.19511
G1 X-51.46597 Y-29.09229
G3 X-51.45653 Y-29.12892 I0.97287 J0.23137
G1 X-50.37293 Y-33.02426
G3 X-50.36184 Y-33.06132 I0.96342 J0.268
G1 X-49.14281 Y-36.86688
G3 X-49.12997 Y-36.90439 I0.95233 J0.30506
G1 X-47.77885 Y-40.60974
G3 X-47.76411 Y-40.64774 I0.93949 J0.34258
G1 X-46.28461 Y-44.24271
G3 X-46.26782 Y-44.28121 I0.92475 J0.38058
G1 X-44.66399 Y-47.75596
G3 X-44.64495 Y-47.79496 I0.90795 J0.41908
G1 X-42.92119 Y-51.13997
G3 X-42.89972 Y-51.17944 I0.88891 J0.45808
G1 X-41.06075 Y-54.38553
G3 X-41.03661 Y-54.42542 I0.86744 J0.49755
G1 X-39.08748 Y-57.48381
G3 X-39.06045 Y-57.52404 I0.8433 J0.53744
G1 X-37.00649 Y-60.42634
G3 X-36.97631 Y-60.46678 I0.81627 J0.57767
G1 X-34.82316 Y-63.20504
G3 X-34.78956 Y-63.24552 I0.78609 J0.61812
G1 X-32.54312 Y-65.81223
G3 X-32.50585 Y-65.85252 I0.75249 J0.6586
G1 X-30.17227 Y-68.24066
G3 X-30.13108 Y-68.28046 I0.71523 J0.69889
G1 X-27.71676 Y-70.48346
G3 X-27.67142 Y-70.52241 I0.67404 J0.7387
G1 X-25.18298 Y-72.53425
G3 X-25.13332 Y-72.5719 I0.6287 J0.77764
G1 X-22.57757 Y-74.38706
G3 X-22.52348 Y-74.42289 I0.57904 J0.8153
G1 X-19.90744 Y-76.0364
G3 X-19.84891 Y-76.06983 I0.52495 J0.85113
G1 X-17.17974 Y-77.47725
G3 X-17.11688 Y-77.50764 I0.46642 J0.88456
G1 X-14.4019 Y-78.70513
G3 X-14.33496 Y-78.73182 I0.40356 J0.91495
G1 X-11.58161 Y-79.71609
G3 X-11.51102 Y-79.73842 I0.33662 J0.94164
G1 X-8.72686 Y-80.50677
G3 X-8.6532 Y-80.52413 I0.26603 J0.96397
G1 X-5.84584 Y-81.07447
G3 X-5.76986 Y-81.08635 I0.19237 J0.98132
G1 X-2.94701 Y-81.41715
G3 X-2.86957 Y-81.42319 I0.11639 J0.9932
G1 X-0.03896 Y-81.53356
G3 X0.03896 I0.03896 J0.99924
G1 X2.86957 Y-81.42319
G3 X2.94701 Y-81.41715 I-0.03896 J0.99924
G1 X5.76986 Y-81.08635
G3 X5.84584 Y-81.07447 I-0.11639 J0.9932
G1 X8.6532 Y-80.52413
G3 X8.72686 Y-80.50677 I-0.19237 J0.98132
G1 X11.51102 Y-79.73842
G3 X11.58161 Y-79.71609 I-0.26603 J0.96397
G1 X14.33496 Y-78.73182
G3 X14.4019 Y-78.70513 I-0.33662 J0.94164
G1 X17.11688 Y-77.50764
G3 X17.17974 Y-77.47725 I-0.40356 J0.91495
G1 X19.84891 Y-76.06983
G3 X19.90744 Y-76.0364 I-0.46642 J0.88456
G1 X22.52348 Y-74.42289
G3 X22.57757 Y-74.38706 I-0.52495 J0.85113
G1 X25.13332 Y-72.5719
G3 X25.18298 Y-72.53425 I-0.57904 J0.8153
G1 X27.67142 Y-70.52241
G3 X27.71676 Y-70.48346 I-0.6287 J0.77764
G1 X30.13108 Y-68.28046
G3 X30.17227 Y-68.24066 I-0.67404 J0.7387
G1 X32.50585 Y-65.85252
G3 X32.54312 Y-65.81223 I-0.71523 J0.69889
G1 X34.78956 Y-63.24552
G3 X34.82316 Y-63.20504 I-0.75249 J0.6586
G1 X36.97631 Y-60.46678
G3 X37.00649 Y-60.42634 I-0.78609 J0.61812
G1 X39.06045 Y-57.52404
G3 X39.08748 Y-57.48381 I-0.81627 J0.57767
G1 X41.03661 Y-54.42542
G3 X41.06075 Y-54.38553 I-0.8433 J0.53744
G1 X42.89972 Y-51.17944
G3 X42.92119 Y-51.13997 I-0.86744 J0.49755
G1 X44.64495 Y-47.79496
G3 X44.66399 Y-47.75596 I-0.88891 J0.45808
G1 X46.26782 Y-44.28121
G3 X46.28461 Y-44.24271 I-0.90795 J0.41908
G1 X47.76411 Y-40.64774
G3 X47.77885 Y-40.60974 I-0.92475 J0.38058
G1 X49.12997 Y-36.90439
G3 X49.14281 Y-36.86688 I-0.93949 J0.34258
G1 X50.36184 Y-33.06132
G3 X50.37293 Y-33.02426 I-0.95233 J0.30506
G1 X51.45653 Y-29.12892
G3 X51.46597 Y-29.09229 I-0.96342 J0.268
G1 X52.41118 Y-25.11784
G3 X52.41909 Y-25.08158 I-0.97287 J0.23137
G1 X53.2233 Y-21.03892
G3 X53.22977 Y-21.00299 I-0.98078 J0.19511
G1 X53.89079 Y-16.9032
G3 X53.89588 Y-16.86754 I-0.98725 J0.15918
G1 X54.4119 Y-12.72186
G3 X54.41567 Y-12.68642 I-0.99234 J0.12352
G1 X54.78527 Y-8.5062
G3 X54.78776 Y-8.47091 I-0.99611 J0.08807
G1 X55.00992 Y-4.26762
G3 X55.01116 Y-4.23242 I-0.99861 J0.05278
G1 X55.08528 Y-0.01758
G3 Y0.01758 I-0.99985 J0.01758
G1 X55.01116 Y4.23242
G3 X55.00992 Y4.26762 I-0.99985 J-0.01758
G1 X54.78776 Y8.47091
G3 X54.78527 Y8.5062 I-0.99861 J-0.05278
G1 X54.41567 Y12.68642
G3 X54.4119 Y12.72186 I-0.99611 J-0.08807
G1 X53.89588 Y16.86754
G3 X53.89079 Y16.9032 I-0.99234 J-0.12352
G1 X53.22977 Y21.00299
G3 X53.2233 Y21.03892 I-0.98725 J-0.15918
G1 X52.41909 Y25.08158
G3 X52.41118 Y25.11784 I-0.98078 J-0.19511
G1 X51.46597 Y29.09229
G3 X51.45653 Y29.12892 I-0.97287 J-0.23137
G1 X50.37293 Y33.02426
G3 X50.36184 Y33.06132 I-0.96342 J-0.268
G1 X49.14281 Y36.86688
G3 X49.12997 Y36.90439 I-0.95233 J-0.30506
G1 X47.77885 Y40.60974
G3 X47.76411 Y40.64774 I-0.93949 J-0.34258
G1 X46.28461 Y44.24271
G3 X46.26782 Y44.28121 I-0.92475 J-0.38058
G1 X44.66399 Y47.75596
G3 X44.64495 Y47.79496 I-0.90795 J-0.41908
G1 X42.92119 Y51.13997
G3 X42.89972 Y51.17944 I-0.88891 J-0.45808
G1 X41.06075 Y54.38553
G3 X41.03661 Y54.42542 I-0.86744 J-0.49755
G1 X39.08748 Y57.48381
G3 X39.06045 Y57.52404 I-0.8433 J-0.53744
G1 X37.00649 Y60.42634
G3 X36.97631 Y60.46678 I-0.81627 J-0.57767
G1 X34.82316 Y63.20504
G3 X34.78956 Y63.24552 I-0.78609 J-0.61812
G1 X32.54312 Y65.81223
G3 X32.50585 Y65.85252 I-0.75249 J-0.6586
G1 X30.17227 Y68.24066
G3 X30.13108 Y68.28046 I-0.71523 J-0.69889
G1 X27.71676 Y70.48346
G3 X27.67142 Y70.52241 I-0.67404 J-0.7387
G1 X25.18298 Y72.53425
G3 X25.13332 Y72.5719 I-0.6287 J-0.77764
G1 X22.57757 Y74.38706
G3 X22.52348 Y74.42289 I-0.57904 J-0.8153
G1 X19.90744 Y76.0364
G3 X19.84891 Y76.06983 I-0.52495 J-0.85113
G1 X17.17974 Y77.47725
G3 X17.11688 Y77.50764 I-0.46642 J-0.88456
G1 X14.4019 Y78.70513
G3 X14.33496 Y78.73182 I-0.40356 J-0.91495
G1 X11.58161 Y79.71609
G3 X11.51102 Y79.73842 I-0.33662 J-0.94164
G1 X8.72686 Y80.50677
G3 X8.6532 Y80.52413 I-0.26603 J-0.96397
G1 X5.84584 Y81.07447
G3 X5.76986 Y81.08635 I-0.19237 J-0.98132
G1 X2.94701 Y81.41715
G3 X2.86957 Y81.42319 I-0.11639 J-0.9932
G1 X0.03896 Y81.53356
G3 X-0.03896 I-0.03896 J-0.99924
G1 X-2.86957 Y81.42319
G3 X-2.94701 Y81.41715 I0.03896 J-0.99924
G1 X-5.76986 Y81.08635
G3 X-5.84584 Y81.07447 I0.11639 J-0.9932
G1 X-8.6532 Y80.52413
G3 X-8.72686 Y80.50677 I0.19237 J-0.98132
G1 X-11.51102 Y79.73842
G3 X-11.58161 Y79.71609 I0.26603 J-0.96397
G1 X-14.33496 Y78.73182
G3 X-14.4019 Y78.70513 I0.33662 J-0.94164
G1 X-17.11688 Y77.50764
G3 X-17.17974 Y77.47725 I0.40356 J-0.91495
G1 X-19.84891 Y76.06983
G3 X-19.90744 Y76.0364 I0.46642 J-0.88456
G1 X-22.52348 Y74.42289
G3 X-22.57757 Y74.38706 I0.52495 J-0.85113
G1 X-25.13332 Y72.5719
G3 X-25.18298 Y72.53425 I0.57904 J-0.8153
G1 X-27.67142 Y70.52241
G3 X-27.71676 Y70.48346 I0.6287 J-0.77764
G1 X-30.13108 Y68.28046
G3 X-30.17227 Y68.24066 I0.67404 J-0.7387
G1 X-32.50585 Y65.85252
G3 X-32.54312 Y65.81223 I0.71523 J-0.69889
G1 X-34.78956 Y63.24552
G3 X-34.82316 Y63.20504 I0.75249 J-0.6586
G1 X-36.97631 Y60.46678
G3 X-37.00649 Y60.42634 I0.78609 J-0.61812
G1 X-39.06045 Y57.52404
G3 X-39.08748 Y57.48381 I0.81627 J-0.57767
G1 X-41.03661 Y54.42542
G3 X-41.06075 Y54.38553 I0.8433 J-0.53744
G1 X-42.89972 Y51.17944
G3 X-42.92119 Y51.13997 I0.86744 J-0.49755
G1 X-44.64495 Y47.79496
G3 X-44.66399 Y47.75596 I0.88891 J-0.45808
G1 X-46.26782 Y44.28121
G3 X-46.28461 Y44.24271 I0.90795 J-0.41908
G1 X-47.76411 Y40.64774
G3 X-47.77885 Y40.60974 I0.92475 J-0.38058
G1 X-49.12997 Y36.90439
G3 X-49.14281 Y36.86688 I0.93949 J-0.34258
G1 X-50.36184 Y33.06132
G3 X-50.37293 Y33.02426 I0.95233 J-0.30506
G1 X-51.45653 Y29.12892
G3 X-51.46597 Y29.09229 I0.96342 J-0.268
G1 X-52.41118 Y25.11784
G3 X-52.41909 Y25.08158 I0.97287 J-0.23137
G1 X-53.2233 Y21.03892
G3 X-53.22977 Y21.00299 I0.98078 J-0.19511
G1 X-53.89079 Y16.9032
G3 X-53.89588 Y16.86754 I0.98725 J-0.15918
G1 X-54.4119 Y12.72186
G3 X-54.41567 Y12.68642 I0.99234 J-0.12352
G1 X-54.78527 Y8.5062
G3 X-54.78776 Y8.47091 I0.99611 J-0.08807
G1 X-55.00992 Y4.26762
G3 X-55.01116 Y4.23242 I0.99861 J-0.05278
G1 X-55.08528 Y0.01758
G3 X-55.08544 Y0.0 I0.99985 J-0.01758
G1 F300.0 X-55.18525 Y-0.00178
G1 F800.0 X-55.18528 Y0.0
G1 X-55.10891 Y4.28912
G1 X-54.88003 Y8.56632
G1 X-54.49929 Y12.81973
G1 X-53.96778 Y17.03753
G1 X-53.287 Y21.208
G1 X-52.45892 Y25.31957
G1 X-51.48589 Y29.36081
G1 X-50.3707 Y33.3205
G1 X-49.11654 Y37.18766
G1 X-47.72703 Y40.95154
G1 X-46.20614 Y44.60171
G1 X-44.55827 Y48.12806
G1 X-42.78816 Y51.52085
G1 X-40.90093 Y54.77069
G1 X-38.90204 Y57.86866
G1 X-36.79726 Y60.80625
G1 X-34.59271 Y63.57547
G1 X-32.29475 Y66.16881
G1 X-29.91002 Y68.57932
G1 X-27.4454 Y70.80062
G1 X-24.90793 Y72.82691
G1 X-22.30483 Y74.65301
G1 X-19.64342 Y76.27434
G1 X-16.93108 Y77.68698
G1 X-14.17522 Y78.88758
G1 X-11.38324 Y79.87341
G1 X-8.56248 Y80.64231
G1 X-5.72022 Y81.19265
G1 X-2.86367 Y81.52329
G1 X0.0 Y81.63358
G1 X2.86367 Y81.52329
G1 X5.72022 Y81.19265
G1 X8.56248 Y80.64231
G1 X11.38324 Y79.87341
G1 X14.17522 Y78.88758
G1 X16.93108 Y77.68698
G1 X19.64342 Y76.27434
G1 X22.30483 Y74.65301
G1 X24.90793 Y72.82691
G1 X27.4454 Y70.80062
G1 X29.91002 Y68.57932
G1 X32.29475 Y66.16881
G1 X34.59271 Y63.57547
G1 X36.79726 Y60.80625
G1 X38.90204 Y57.86866
G1 X40.90093 Y54.77069
G1 X42.78816 Y51.52085
G1 X44.55827 Y48.12806
G1 X46.20614 Y44.60171
G1 X47.72703 Y40.95154
G1 X49.11654 Y37.18766
G1 X50.3707 Y33.3205
G1 X51.48589 Y29.36081
G1 X52.45892 Y25.31957
G1 X53.287 Y21.208
G1 X53.96778 Y17.03753
G1 X54.49929 Y12.81973
G1 X54.88003 Y8.56632
G1 X55.10891 Y4.28912
G1 X55.18528 Y0.0
G1 X55.10891 Y-4.28912
G1 X54.88003 Y-8.56632
G1 X54.49929 Y-12.81973
G1 X53.96778 Y-17.03753
G1 X53.287 Y-21.208
G1 X52.45892 Y-25.31957
G1 X51.48589 Y-29.36081
G1 X50.3707 Y-33.3205
G1 X49.11654 Y-37.18766
G1 X47.72703 Y-40.95154
G1 X46.20614 Y-44.60171
G1 X44.55827 Y-48.12806
G1 X42.78816 Y-51.52085
G1 X40.90093 Y-54.77069
G1 X38.90204 Y-57.86866
G1 X36.79726 Y-60.80625
G1 X34.59271 Y-63.57547
G1 X32.29475 Y-66.16881
G1 X29.91002 Y-68.57932
G1 X27.4454 Y-70.80062
G1 X24.90793 Y-72.82691
G1 X22.30483 Y-74.65301
G1 X19.64342 Y-76.27434
G1 X16.93108 Y-77.68698
G1 X14.17522 Y-78.88758
G1 X11.38324 Y-79.87341
G1 X8.56248 Y-80.64231
G1 X5.72022 Y-81.19265
G1 X2.86367 Y-81.52329
G1 X0.0 Y-81.63358
G1 X-2.86367 Y-81.52329
G1 X-5.72022 Y-81.19265
G1 X-8.56248 Y-80.64231
G1 X-11.38324 Y-79.87341
G1 X-14.17522 Y-78.88758
G1 X-16.93108 Y-77.68698
G1 X-19.64342 Y-76.27434
G1 X-22.30483 Y-74.65301
G1 X-24.90793 Y-72.82691
G1 X-27.4454 Y-70.80062
G1 X-29.91002 Y-68.57932
G1 X-32.29475 Y-66.16881
G1 X-34.59271 Y-63.57547
G1 X-36.79726 Y-60.80625
G1 X-38.90204 Y-57.86866
G1 X-40.90093 Y-54.77069
G1 X-42.78816 Y-51.52085
G1 X-44.55827 Y-48.12806
G1 X-46.20614 Y-44.60171
G1 X-47.72703 Y-40.95154
G1 X-49.11654 Y-37.18766
G1 X-50.3707 Y-33.3205
G1 X-51.48589 Y-29.36081
G1 X-52.45892 Y-25.31957
G1 X-53.287 Y-21.208
G1 X-53.96778 Y-17.03753
G1 X-54.49929 Y-12.81973
G1 X-54.88003 Y-8.56632
G1 X-55.10891 Y-4.28912
G1 X-55.18525 Y-0.00178
( Wappen )
G0 Z3.0
( T4 : 4.0 )
T4 M6
M3 S1000
G0 X-28.60752 Y42.99967
G0 Z1.0
G1 F300.0 Z-1.0
G3 F800.0 X-28.60626 Y42.99958 I0.27769 J3.78663
G1 X-28.18883 Y42.96911
G3 X-28.16001 Y42.96712 I0.27643 J3.78672
G1 X-27.7212 Y42.93844
G3 X-27.68428 Y42.93621 I0.24761 J3.78872
G1 X-27.29886 Y42.91479
G3 X-27.1377 Y42.90671 I0.28083 J3.99262
G1 X-26.70431 Y42.88741
G3 X-26.67594 Y42.88626 I0.16891 J3.79304
G1 X-26.49063 Y42.87939
G3 X-26.47455 Y42.87883 I0.14054 J3.7942
G1 X-26.28918 Y42.87275
G3 X-26.27539 Y42.87232 I0.12445 J3.79476
G1 X-26.15174 Y42.86872
G3 X-26.12111 Y42.86795 I0.11066 J3.79519
G1 X-25.61487 Y42.85728
G3 X-25.57964 Y42.8567 I0.08003 J3.79596
G1 X-25.47792 Y42.8555
G3 X-25.38879 Y42.85402 I0.11607 J4.30992
G3 X-25.25798 Y42.8535 I0.08295 J4.41736
G3 X-24.98749 Y42.85368 I0.12418 J16.10684
G1 X-24.95221 Y42.85399
G3 X-24.94127 Y41.56541 I4.01013 J-0.61026
G3 X-24.88596 Y41.29804 I3.74334 J0.63492
G3 X-24.81444 Y41.04247 I3.91669 J0.95824
G1 X-24.85682 Y41.04252
G2 X-25.10605 Y41.04758 I0.14168 J13.11221
G1 X-25.13122 Y41.04839
G1 X-25.30982 Y41.0557
G1 X-25.49965 Y41.06728
G1 X-25.62331 Y41.07702
G2 X-25.91241 Y41.1104 I0.38186 J4.57548
G2 X-26.16258 Y41.15472 I1.07324 J6.78715
G1 X-26.28888 Y41.18165
G3 X-26.47513 Y41.22105 I-4.61353 J-21.35154
G3 X-26.62212 Y41.24847 I-0.76951 J-3.718
G1 X-26.72228 Y41.26511
G3 X-26.73363 Y41.26698 I-0.62252 J-3.74542
G3 X-27.78352 Y41.3041 I-0.67107 J-4.11458
G3 X-29.20047 Y40.90167 I0.3435 J-3.90514
G3 X-28.60752 Y42.99967 I-3.38288 J2.08887
G0 Z3.0
G0 X-36.71204 Y32.42815
G0 Z1.0
G1 F300.0 Z-1.0
G3 F800.0 X-36.35105 Y31.66464 I11.58644 J5.01093
G3 X-35.59743 Y30.37086 I12.42617 J6.37184
G3 X-35.52177 Y30.25732 I8.52316 J5.59736
G3 X-34.55141 Y28.98663 I11.4821 J7.76241
G3 X-34.39071 Y28.80408 I7.7336 J6.64576
G1 X-34.31842 Y28.7239
G3 X-34.08784 Y28.47655 I7.57291 J6.82831
G1 X-34.01298 Y28.39887
G3 X-33.94736 Y28.3314 I7.34232 J7.07566
G3 X-33.94085 Y28.32477 I9.20469 J9.03573
G3 X-34.16153 Y28.19108 I6.28186 J-10.61776
G1 X-34.32162 Y28.09425
G3 X-34.33395 Y28.08679 I5.27686 J-8.72522
G1 X-34.41039 Y28.04041
G3 X-34.42381 Y28.03225 I5.28919 J-8.71775
G1 X-34.72911 Y27.84638
G3 X-34.74433 Y27.8371 I5.30261 J-8.7096
G1 X-34.94768 Y27.7128
G3 X-34.96489 Y27.70226 I5.31783 J-8.70031
G1 X-35.74866 Y27.22107
G3 X-35.75216 Y27.21892 I5.33503 J-8.68977
G1 X-36.12195 Y26.99169
G1 X-36.47527 Y26.77518
G1 X-37.11368 Y26.38737
G1 X-37.12218 Y26.38226
G1 X-37.69365 Y26.04161
G3 X-37.77178 Y25.99566 I5.13019 J-8.81226
G2 X-38.16106 Y25.76966 I-11.37121 J19.13931
G3 X-38.23522 Y25.7272 I5.03001 J-8.86982
G3 X-38.24532 Y25.72148 I5.02275 J-8.87393
G1 X-38.50201 Y25.5758
G1 X-38.51343 Y25.56937
G1 X-38.77387 Y25.42366
G1 X-38.3216 Y27.21146
G1 X-37.32771 Y30.59665
G1 X-36.71204 Y32.42815
G1 F300.0 X-35.24349 Y33.06327
G3 F800.0 X-34.92779 Y32.39562 I10.11789 J4.37581
G3 X-34.26004 Y31.24915 I11.00291 J5.64087
G3 X-34.19626 Y31.15343 I7.18578 J4.71907
G3 X-33.33791 Y30.02942 I10.15658 J6.8663
G3 X-33.20243 Y29.87552 I6.52011 J5.60296
G1 X-33.13014 Y29.79534
G3 X-32.93574 Y29.5868 I6.38463 J5.75687
G1 X-32.86088 Y29.50912
G3 X-32.80555 Y29.45224 I6.19023 J5.96541
G3 X-32.19076 Y28.87116 I8.06289 J7.91489
G3 X-31.19033 Y28.08006 I7.82222 J8.86396
G1 X-31.34257 Y27.99389
G3 X-31.41094 Y27.95478 I4.23458 J-7.48153
G1 X-32.06075 Y27.57908
G3 X-32.11045 Y27.55012 I4.30295 J-7.44242
G1 X-32.32623 Y27.42343
G3 X-32.37352 Y27.39546 I4.35265 J-7.41346
G1 X-33.05642 Y26.98862
G3 X-33.32557 Y26.8268 I5.39743 J-9.28161
G1 X-33.49362 Y26.72516
G3 X-33.50401 Y26.71887 I4.44886 J-7.35613
G1 X-33.58045 Y26.67249
G3 X-33.59177 Y26.66561 I4.45925 J-7.34983
G1 X-33.89706 Y26.47974
G3 X-33.9099 Y26.47191 I4.47057 J-7.34296
G1 X-34.11325 Y26.34762
G3 X-34.12776 Y26.33873 I4.4834 J-7.33513
G1 X-34.91153 Y25.85754
G3 X-34.91448 Y25.85573 I4.4979 J-7.32624
G1 X-35.28512 Y25.62797
G1 X-35.64195 Y25.40932
G1 X-36.28559 Y25.01833
G1 X-36.2998 Y25.00977
G1 X-36.87968 Y24.66411
G3 X-36.88179 Y24.66285 I4.40178 J-7.38439
G3 X-36.95453 Y24.62012 I4.31833 J-7.43351
G2 X-37.37179 Y24.37788 I-12.18846 J20.51485
G3 X-37.44068 Y24.3384 I4.24074 J-7.47804
G3 X-37.4556 Y24.32995 I4.22822 J-7.48513
G1 X-37.71438 Y24.18309
G1 X-37.73007 Y24.17425
G1 X-38.0111 Y24.01703
G1 X-38.24582 Y23.8871
G1 X-38.27076 Y23.87335
G1 X-38.56181 Y23.71346
G3 X-38.5675 Y23.71033 I4.13935 J-7.53464
G1 X-39.13848 Y23.39609
G3 X-39.19502 Y23.36469 I4.14504 J-7.53151
G1 X-39.47453 Y23.20811
G3 X-39.55051 Y23.16503 I4.20158 J-7.50011
G1 X-39.82838 Y23.00564
G3 X-39.93401 Y22.94404 I4.27757 J-7.45704
G1 X-40.21116 Y22.77978
G3 X-40.34386 Y22.69951 I4.3832 J-7.39544
G1 X-40.61796 Y22.53029
G3 X-40.72233 Y22.46483 I4.5159 J-7.31516
G1 X-40.82712 Y22.39804
G3 X-40.88947 Y22.35793 I4.62027 J-7.24969
G1 X-40.99372 Y22.29022
G3 X-41.09152 Y22.22574 I4.68262 J-7.20958
G1 X-41.1714 Y22.1723
G1 X-40.75824 Y24.10349
G1 X-39.86532 Y27.63318
G1 X-38.85418 Y31.0771
G1 X-37.7289 Y34.42459
G1 X-37.61163 Y34.73235
G3 X-37.46566 Y34.68631 I3.75757 J11.66038
G3 X-36.26218 Y34.37223 I4.09096 J13.21283
G3 X-36.22437 Y34.36425 I1.79466 J8.40739
G1 X-36.18374 Y34.35577
G3 X-36.1206 Y34.34284 I1.75684 J8.41537
G1 X-36.07988 Y34.33465
G3 X-35.98629 Y34.31638 I1.69371 J8.42831
G1 X-35.90465 Y34.30092
G3 X-35.72037 Y34.26808 I1.60011 J8.44657
G1 X-35.69063 Y34.26312
G3 X-35.49862 Y33.69897 I10.89819 J3.39456
G3 X-35.4873 Y33.66852 I8.06324 J2.98145
G1 X-35.47029 Y33.62304
G3 X-35.42488 Y33.50435 I8.05192 J3.0119
G1 X-35.40717 Y33.45904
G3 X-35.33695 Y33.28508 I8.00652 J3.1306
G1 X-35.29956 Y33.19529
G3 X-35.29011 Y33.17267 I7.9363 J3.30456
G3 X-35.24349 Y33.06327 I10.16451 J4.26641
G1 F300.0 X-33.77495 Y33.69839
G3 F800.0 X-33.50454 Y33.12661 I8.64935 J3.74069
G3 X-32.92265 Y32.12744 I9.57965 J4.90988
G3 X-32.87074 Y32.04954 I5.84839 J3.84077
G3 X-32.12442 Y31.07222 I8.83107 J5.9702
G3 X-32.01415 Y30.94696 I5.30661 J4.56016
G1 X-31.94186 Y30.86679
G3 X-31.78364 Y30.69706 I5.19635 J4.68542
G1 X-31.70878 Y30.61938
G3 X-31.66375 Y30.57308 I5.03813 J4.85515
G3 X-31.13405 Y30.07256 I6.92109 J6.79405
G3 X-30.10656 Y29.27568 I6.76551 J7.66255
G3 X-29.54361 Y28.91658 I5.62024 J8.18982
G3 X-29.12061 Y28.6764 I5.66938 J9.49201
G3 X-28.86283 Y28.54075 I3.86138 J7.02532
G3 X-28.52341 Y28.37614 I3.64266 J7.0786
G1 X-28.39464 Y28.31625
G3 X-28.38905 Y28.31366 I2.95024 J6.34439
G3 X-28.01214 Y28.14875 I3.94318 J8.49921
G3 X-27.83228 Y28.07504 I5.31362 J12.70924
G1 X-28.06106 Y27.95776
G3 X-28.11248 Y27.93113 I3.19176 J-6.22639
G1 X-28.56636 Y27.6937
G3 X-28.60544 Y27.6731 I3.24318 J-6.19976
G1 X-28.83113 Y27.55322
G3 X-28.85723 Y27.53928 I3.28226 J-6.17915
G1 X-29.08244 Y27.41843
G3 X-29.12137 Y27.39738 I3.30837 J-6.16522
G1 X-29.57027 Y27.15282
G3 X-29.62098 Y27.12492 I3.3473 J-6.14417
G1 X-30.06445 Y26.87855
G3 X-30.1129 Y26.85138 I3.398 J-6.11627
G1 X-30.55445 Y26.60146
G3 X-30.6101 Y26.56962 I3.44646 J-6.0891
G1 X-31.25991 Y26.19393
G3 X-31.30036 Y26.17036 I3.5021 J-6.05727
G1 X-31.51614 Y26.04367
G3 X-31.55463 Y26.02091 I3.54255 J-6.0337
G1 X-32.24508 Y25.60956
G3 X-32.48899 Y25.46289 I4.5861 J-7.90255
G1 X-32.66561 Y25.35607
G3 X-32.67407 Y25.35095 I3.62085 J-5.98704
G1 X-32.75051 Y25.30457
G3 X-32.75972 Y25.29897 I3.62931 J-5.98191
G1 X-33.06502 Y25.1131
G3 X-33.07546 Y25.10673 I3.63852 J-5.97632
G1 X-33.27882 Y24.98243
G3 X-33.29062 Y24.9752 I3.64897 J-5.96995
G1 X-34.0744 Y24.49401
G3 X-34.0768 Y24.49253 I3.66077 J-5.96271
G1 X-34.4483 Y24.26425
G1 X-34.80863 Y24.04345
G1 X-35.4575 Y23.64929
G1 X-35.47743 Y23.63729
G1 X-36.06044 Y23.28976
G3 X-36.07009 Y23.284 I3.58254 J-6.01004
G3 X-36.13728 Y23.24458 I3.50663 J-6.05465
G2 X-36.58253 Y22.9861 I-13.0057 J21.89039
G3 X-36.64614 Y22.94958 I3.45147 J-6.08626
G3 X-36.66589 Y22.93842 I3.43368 J-6.09632
G1 X-36.92674 Y22.79038
G1 X-36.94671 Y22.77913
G1 X-37.23307 Y22.61893
G1 X-37.47223 Y22.48654
G1 X-37.49942 Y22.47155
G1 X-37.79141 Y22.31114
G3 X-37.79604 Y22.3086 I3.36895 J-6.13232
G1 X-38.36702 Y21.99435
G3 X-38.41304 Y21.9688 I3.37358 J-6.12978
G1 X-38.69255 Y21.81222
G3 X-38.75439 Y21.77716 I3.4196 J-6.10422
G1 X-39.03226 Y21.61777
G3 X-39.11823 Y21.56764 I3.48145 J-6.06916
G1 X-39.39538 Y21.40337
G3 X-39.50338 Y21.33804 I3.56742 J-6.01903
G1 X-39.77748 Y21.16883
G3 X-39.86242 Y21.11554 I3.67542 J-5.9537
G1 X-39.96721 Y21.04876
G3 X-40.01796 Y21.01611 I3.76037 J-5.90041
G1 X-40.1222 Y20.9484
G3 X-40.20181 Y20.89593 I3.81111 J-5.86776
G1 X-40.40843 Y20.75768
G3 X-40.49989 Y20.69544 I3.89071 J-5.81529
G1 X-40.63618 Y20.6011
G3 X-40.69317 Y20.56124 I3.98217 J-5.75304
G1 X-40.76415 Y20.51105
G3 X-40.80373 Y20.48287 I4.03916 J-5.71318
G1 X-40.8744 Y20.43216
G3 X-40.93404 Y20.3889 I4.07874 J-5.68499
G1 X-41.07422 Y20.28607
G3 X-41.1706 Y20.21409 I4.13837 J-5.64173
G3 X-41.49189 Y19.96773 I30.0526 J-39.52659
G3 X-41.52327 Y19.94332 I4.28003 J-5.53503
G3 X-42.30454 Y19.29486 I10.83757 J-13.85203
G3 X-42.44695 Y19.16906 I6.06674 J-7.01081
G3 X-42.93507 Y18.71891 I11.26763 J-12.70803
G3 X-43.10231 Y18.5578 I11.03175 J-11.6179
G3 X-43.12262 Y18.53786 I4.89087 J-5.00346
G1 X-43.2631 Y18.39942
G3 X-43.32403 Y18.33863 I4.91119 J-4.98352
G1 X-43.43444 Y18.22711
G3 X-43.48659 Y18.17387 I4.97211 J-4.92273
G1 X-43.58087 Y18.0766
G1 X-43.10007 Y20.80527
G1 X-42.31664 Y24.46718
G1 X-41.40904 Y28.0549
G1 X-40.38066 Y31.55756
G1 X-39.23537 Y34.96457
G1 X-38.52768 Y36.82183
G3 X-38.27696 Y36.70361 I4.35815 J8.91742
G3 X-36.9932 Y36.21497 I4.4229 J9.68911
G3 X-35.92817 Y35.93698 I3.61851 J11.68418
G3 X-35.89739 Y35.93048 I1.46065 J6.84264
G1 X-35.85677 Y35.922
G3 X-35.80538 Y35.91148 I1.42987 J6.84914
G1 X-35.76466 Y35.90329
G3 X-35.68848 Y35.88842 I1.37848 J6.85966
G1 X-35.60684 Y35.87296
G3 X-35.45686 Y35.84623 I1.3023 J6.87453
G1 X-35.29291 Y35.81886
G3 X-35.12779 Y35.79331 I1.15232 J6.90126
G1 X-35.01813 Y35.77768
G3 X-35.0 Y35.77512 I0.9872 J6.92681
G3 X-34.41105 Y35.70794 I1.61789 J11.56876
G3 X-34.34142 Y35.38965 I8.40939 J1.67299
G3 X-33.99793 Y34.25387 I9.54897 J2.26803
G3 X-33.98871 Y34.22909 I6.56255 J2.42656
G1 X-33.9717 Y34.18361
G3 X-33.93474 Y34.087 I6.55333 J2.45134
G1 X-33.91703 Y34.0417
G3 X-33.85988 Y33.90011 I6.51638 J2.54794
G1 X-33.82249 Y33.81032
G3 X-33.8148 Y33.79191 I6.45923 J2.68953
G3 X-33.77495 Y33.69839 I8.6892 J3.64717
G1 F300.0 X-32.3064 Y34.33351
G3 F800.0 X-32.08128 Y33.85761 I7.1808 J3.10557
G3 X-31.58527 Y33.00573 I8.1564 J4.17888
G3 X-31.54523 Y32.94564 I4.511 J2.96248
G3 X-30.91092 Y32.11502 I7.50555 J5.07409
G3 X-30.82587 Y32.01841 I4.09312 J3.51736
G1 X-30.75358 Y31.93823
G3 X-30.63154 Y31.80732 I4.00807 J3.61398
G1 X-30.55668 Y31.72963
G3 X-30.52195 Y31.69392 I3.88603 J3.74489
G3 X-30.07735 Y31.27398 I5.77929 J5.67321
G3 X-29.20481 Y30.59737 I5.70881 J6.46113
G3 X-28.72608 Y30.29196 I4.71848 J6.86813
G3 X-28.35555 Y30.08165 I4.85184 J8.11664
G3 X-28.13714 Y29.96674 I3.09632 J5.62007
G3 X-27.85443 Y29.82958 I2.91697 J5.65261
G1 X-27.71999 Y29.76706
G3 X-27.71568 Y29.76506 I2.27559 J4.89358
G3 X-27.39911 Y29.62666 I3.26981 J7.04781
G3 X-26.83772 Y29.40787 I4.70059 J11.23133
G3 X-26.63619 Y29.33624 I2.83723 J7.66331
G3 X-26.39334 Y29.25478 I2.48393 J7.00229
G3 X-26.16663 Y29.18326 I2.80105 J8.48392
G1 X-25.91538 Y29.10744
G3 X-25.82056 Y29.07977 I1.55905 J5.1667
G1 X-25.65621 Y29.03344
G3 X-25.43037 Y28.97179 I1.595 J5.39759
G1 X-25.28999 Y28.93469
G3 X-25.05722 Y28.87524 I1.51393 J5.44194
G1 X-24.70682 Y28.78899
G3 X-24.46469 Y28.73152 I2.34136 J9.32575
G3 X-23.81068 Y28.58473 I7.49774 J31.87445
G3 X-23.79649 Y28.58172 I1.12796 J5.27761
G1 X-23.29796 Y28.47657
G1 X-23.91959 Y28.19224
G3 X-23.94731 Y28.17947 I2.24476 J-4.9078
G1 X-24.45932 Y27.94177
G3 X-24.47656 Y27.93373 I2.27248 J-4.89503
G1 X-24.64701 Y27.85387
G3 X-24.65823 Y27.8486 I2.28972 J-4.88698
G1 X-24.8852 Y27.74162
G3 X-24.90257 Y27.73339 I2.30094 J-4.88171
G1 X-25.24614 Y27.56995
G3 X-25.26879 Y27.55911 I2.31831 J-4.87349
G1 X-25.61165 Y27.39406
G3 X-25.63182 Y27.3843 I2.34096 J-4.86265
G1 X-25.85994 Y27.27331
G3 X-25.86724 Y27.26975 I2.36113 J-4.85289
G3 X-26.85541 Y26.77777 I31.83361 J-65.17861
G3 X-26.87533 Y26.76761 I2.44196 J-4.81272
G1 X-27.33118 Y26.53393
G3 X-27.37084 Y26.51339 I2.46188 J-4.80256
G1 X-27.82472 Y26.27597
G3 X-27.85486 Y26.26008 I2.50154 J-4.78202
G1 X-28.08055 Y26.14019
G3 X-28.10068 Y26.12945 I2.53169 J-4.76613
G1 X-28.32589 Y26.00859
G3 X-28.35592 Y25.99236 I2.55182 J-4.75538
G1 X-28.80483 Y25.7478
G3 X-28.84394 Y25.72628 I2.58185 J-4.73914
G1 X-29.2874 Y25.4799
G3 X-29.32478 Y25.45895 I2.62096 J-4.71763
G1 X-29.76633 Y25.20903
G3 X-29.80925 Y25.18447 I2.65833 J-4.69667
G1 X-30.45906 Y24.80877
G3 X-30.49026 Y24.7906 I2.70125 J-4.67212
G1 X-30.70604 Y24.6639
G3 X-30.73573 Y24.64635 I2.73245 J-4.65394
G1 X-31.43444 Y24.23009
G3 X-31.65162 Y24.09946 I3.77545 J-6.52308
G1 X-31.83761 Y23.98698
G3 X-31.84414 Y23.98303 I2.79285 J-4.61795
G1 X-31.92058 Y23.93665
G3 X-31.92768 Y23.93233 I2.79938 J-4.61399
G1 X-32.23298 Y23.74646
G3 X-32.24103 Y23.74155 I2.80648 J-4.60968
G1 X-32.44439 Y23.61725
G3 X-32.45349 Y23.61167 I2.81454 J-4.60476
G1 X-33.23727 Y23.13048
G3 X-33.23912 Y23.12934 I2.82364 J-4.59918
G1 X-33.61148 Y22.90053
G1 X-33.97531 Y22.67759
G1 X-34.62941 Y22.28025
G1 X-34.65505 Y22.26481
G1 X-35.24119 Y21.91541
G3 X-35.25838 Y21.90512 I2.7633 J-4.63569
G3 X-35.32004 Y21.86904 I2.69491 J-4.67578
G2 X-35.79326 Y21.59432 I-13.82295 J23.26593
G3 X-35.85159 Y21.56076 I2.6622 J-4.69448
G3 X-35.87617 Y21.54689 I2.63913 J-4.70749
G1 X-36.1391 Y21.39767
G1 X-36.16335 Y21.38401
G1 X-36.45504 Y21.22083
G1 X-36.69865 Y21.08598
G1 X-36.72808 Y21.06976
G1 X-37.02101 Y20.90883
G3 X-37.02458 Y20.90687 I2.59855 J-4.73001
G1 X-37.59556 Y20.59262
G3 X-37.63106 Y20.57291 I2.60213 J-4.72804
G1 X-37.91056 Y20.41633
G3 X-37.95827 Y20.38929 I2.63762 J-4.70833
G1 X-38.23613 Y20.2299
G3 X-38.30245 Y20.19123 I2.68532 J-4.68129
G1 X-38.57959 Y20.02697
G3 X-38.6629 Y19.97657 I2.75164 J-4.64262
G1 X-38.937 Y19.80736
G3 X-39.00252 Y19.76626 I2.83494 J-4.59223
G1 X-39.1073 Y19.69948
G3 X-39.14645 Y19.67429 I2.90046 J-4.55113
G1 X-39.25069 Y19.60659
G3 X-39.31209 Y19.56611 I2.9396 J-4.52595
G1 X-39.51872 Y19.42787
G3 X-39.58927 Y19.37986 I3.001 J-4.48547
G1 X-39.72556 Y19.28552
G3 X-39.76951 Y19.25477 I3.07155 J-4.43746
G1 X-39.84049 Y19.20459
G3 X-39.87102 Y19.18284 I3.1155 J-4.40671
G1 X-39.94169 Y19.13214
G3 X-39.98769 Y19.09877 I3.14603 J-4.38497
G1 X-40.12787 Y18.99594
G3 X-40.20221 Y18.94042 I3.19203 J-4.3516
G3 X-40.51315 Y18.702 I29.08421 J-38.25292
G3 X-40.53736 Y18.68318 I3.30129 J-4.2693
G3 X-41.25266 Y18.08921 I9.85165 J-12.59188
G3 X-41.3803 Y17.97645 I5.01485 J-5.80516
G3 X-41.83047 Y17.56138 I10.20098 J-11.51542
G3 X-41.98388 Y17.41363 I9.92715 J-10.46037
G3 X-41.99955 Y17.39825 I3.77245 J-3.85929
G1 X-42.14003 Y17.2598
G3 X-42.18702 Y17.21292 I3.78812 J-3.84391
G1 X-42.29743 Y17.1014
G3 X-42.33766 Y17.06034 I3.83511 J-3.79702
G1 X-42.44691 Y16.94762
G3 X-42.4718 Y16.92176 I3.87534 J-3.75596
G3 X-42.75258 Y16.6229 I16.64645 J-15.92033
G3 X-42.78139 Y16.59143 I3.96602 J-3.66008
G1 X-42.92217 Y16.43644
G3 X-42.92848 Y16.42949 I3.99483 J-3.62861
G3 X-43.57965 Y15.67079 I14.05489 J-12.72187
G3 X-43.64986 Y15.58517 I4.5431 J-3.79694
G3 X-43.73245 Y15.48199 I4.61384 J-3.77776
G3 X-44.41496 Y14.58429 I16.36057 J-13.14698
G3 X-44.44046 Y14.5485 I4.38234 J-3.14969
G1 X-44.62995 Y14.28028
G3 X-44.63529 Y14.2727 I4.40784 J-3.1139
G3 X-44.9328 Y13.83253 I11.45917 J-8.06579
G1 X-45.05088 Y13.65077
G3 X-45.06544 Y13.62823 I4.52565 J-2.94005
G3 X-45.66975 Y12.61505 I14.88235 J-9.56332
G3 X-46.03619 Y11.91041 I12.23636 J-6.81106
G1 X-45.87186 Y13.49654
G1 X-45.33712 Y17.32971
G1 X-44.67075 Y21.11155
G1 X-43.87504 Y24.83086
G1 X-42.95276 Y28.47662
G1 X-41.90713 Y32.03802
G1 X-40.74183 Y35.50454
G1 X-39.46101 Y38.86595
G1 X-39.31785 Y39.19989
G3 X-38.90967 Y38.8954 I4.84635 J6.07095
G3 X-38.86118 Y38.86204 I3.08336 J4.42926
G1 X-38.81657 Y38.8317
G3 X-38.75258 Y38.78885 I3.03487 J4.46262
G3 X-37.61369 Y38.15966 I4.58305 J6.9504
G3 X-36.52076 Y37.74363 I3.75963 J8.23307
G3 X-35.59415 Y37.50173 I3.14606 J10.15552
G3 X-35.57041 Y37.49672 I1.12663 J5.27789
G1 X-35.52979 Y37.48824
G3 X-35.49015 Y37.48012 I1.10289 J5.2829
G1 X-35.44943 Y37.47193
G3 X-35.39068 Y37.46046 I1.06325 J5.29102
G1 X-35.30904 Y37.445
G3 X-35.19335 Y37.42439 I1.0045 J5.30249
G1 X-35.0294 Y37.39701
G3 X-34.90204 Y37.3773 I0.88881 J5.32311
G1 X-34.79238 Y37.36168
G3 X-34.7784 Y37.3597 I0.76145 J5.34281
G3 X-33.95453 Y37.2788 I1.39629 J9.98418
G3 X-33.25343 Y37.26218 I0.58861 J10.02956
G3 X-32.97306 Y37.27005 I-0.09125 J8.24468
G3 X-32.9678 Y37.05206 I6.04726 J0.03709
G3 X-32.96147 Y36.93332 I5.392 J0.22764
G3 X-32.78494 Y35.76032 I6.95982 J0.44761
G3 X-32.49723 Y34.80877 I7.9925 J1.89736
G3 X-32.49012 Y34.78965 I5.06185 J1.87166
G1 X-32.47311 Y34.74417
G3 X-32.44461 Y34.66965 I5.05474 J1.89078
G1 X-32.42689 Y34.62435
G3 X-32.38281 Y34.51514 I5.02624 J1.96529
G1 X-32.34542 Y34.42535
G3 X-32.33949 Y34.41115 I4.98216 J2.0745
G3 X-32.3064 Y34.33351 I7.21389 J3.02793
G0 Z3.0
G0 X-45.06957 Y1.32878
G0 Z1.0
G1 F300.0 Z-1.0
G3 F800.0 X-44.15056 Y0.85273 I3.83523 J6.2788
G1 X-44.24938 Y0.67033
G3 X-44.27139 Y0.62937 I6.15195 J-3.33298
G1 X-44.3349 Y0.51027
G3 X-44.4463 Y0.29925 I14.75866 J-7.92684
G3 X-44.56795 Y0.06295 I8.1187 J-4.3291
G1 X-44.76078 Y-0.31792
G3 X-44.80755 Y-0.41205 I6.24238 J-3.16037
G1 X-45.01045 Y-0.82821
G3 X-45.02642 Y-0.86119 I6.28915 J-3.06624
G3 X-45.06637 Y-0.94451 I31.99589 J-15.39257
G1 X-45.06957 Y1.32878
G1 F300.0 X-44.23554 Y2.6942
G3 F800.0 X-42.5709 Y2.00739 I3.0012 J4.91337
G3 X-42.45581 Y1.98125 I1.25283 J5.24937
G3 X-41.69587 Y1.86933 I1.22419 J5.6763
G1 X-41.79835 Y1.7078
G3 X-41.84335 Y1.63563 I4.55708 J-2.8911
G1 X-42.05754 Y1.28595
G3 X-42.06513 Y1.27351 I4.60208 J-2.81892
G3 X-42.35977 Y0.77458 I18.40669 J-11.20646
G3 X-42.41918 Y0.67153 I14.01575 J-8.14856
G3 X-42.5131 Y0.50578 I4.92122 J-2.89807
G1 X-42.58858 Y0.37172
G3 X-42.61 Y0.33331 I4.70271 J-2.64764
G1 X-42.71654 Y0.14041
G3 X-42.73756 Y0.10199 I4.72413 J-2.60923
G1 X-42.84257 Y-0.09185
G3 X-42.85955 Y-0.12344 I4.74514 J-2.57081
G1 X-42.92422 Y-0.24472
G3 X-43.03034 Y-0.44582 I13.34799 J-7.17185
G3 X-43.13757 Y-0.65401 I6.70274 J-3.58403
G1 X-43.3333 Y-1.04062
G3 X-43.36937 Y-1.11322 I4.8149 J-2.43767
G1 X-43.57227 Y-1.52939
G3 X-43.58459 Y-1.55482 I4.85097 J-2.36507
G3 X-43.92604 Y-2.28678 I30.55406 J-14.69893
G3 X-44.00188 Y-2.45447 I6.76346 J-3.15964
G3 X-44.04277 Y-2.54602 I10.22489 J-4.62175
G3 X-44.22029 Y-2.95009 I15.71107 J-7.14351
G1 X-44.25864 Y-3.03872
G3 X-44.27463 Y-3.07606 I4.95303 J-2.14311
G1 X-44.45836 Y-3.5096
G3 X-44.47369 Y-3.54616 I4.96902 J-2.10577
G1 X-44.49941 Y-3.6081
G3 X-44.59305 Y-3.83569 I6.79342 J-2.92809
G1 X-44.66265 Y-4.00675
G3 X-44.67946 Y-4.04856 I4.99883 J-2.034
G1 X-44.84918 Y-4.47586
G3 X-44.87044 Y-4.53025 I5.01564 J-1.99219
G1 X-45.02755 Y-4.93862
G3 X-45.04801 Y-4.99267 I5.0369 J-1.93779
G1 X-45.20077 Y-5.40279
G3 X-45.22068 Y-5.45712 I5.05737 J-1.88374
G1 X-45.35793 Y-5.83805
G3 X-45.37783 Y-5.89424 I5.07728 J-1.82941
G1 X-45.51088 Y-6.27671
G3 X-45.52855 Y-6.32833 I5.09717 J-1.77322
G1 X-45.60127 Y-6.54439
G3 X-45.66677 Y-6.74107 I6.42251 J-2.24795
G3 X-45.80142 Y-7.16338 I17.24122 J-5.72979
G1 X-45.8935 Y-7.4646
G3 X-45.89397 Y-7.46612 I5.16101 J-1.5778
G3 X-46.02842 Y-7.93251 I14.76534 J-4.50923
G3 X-46.03176 Y-7.94489 I5.20847 J-1.41324
G1 X-46.09269 Y-8.17156
G3 X-46.19551 Y-8.58139 I9.60668 J-2.62792
G3 X-46.22216 Y-8.69772 I5.50052 J-1.32143
G3 X-46.23526 Y-8.75628 I7.97573 J-1.81558
G3 X-46.27559 Y-8.94736 I5.48825 J-1.25819
G1 X-46.29013 Y-9.01837
G3 X-46.30551 Y-9.09646 I5.28718 J-1.08219
G1 X-46.52303 Y-6.03844
G1 X-46.66472 Y-2.12079
G1 X-46.67024 Y1.80314
G1 X-46.55148 Y5.36418
G3 X-45.11587 Y3.35527 I5.42442 J2.359
G3 X-45.10194 Y3.34259 I3.63925 J3.98513
G3 X-44.23554 Y2.6942 I3.8676 J4.26498
G0 Z3.0
G0 X-6.679 Y-3.54688
G0 Z1.0
G1 F300.0 Z-1.0
G2 F800.0 X-6.5651 Y-2.94014 I52.48286 J-9.53847
G1 X-6.495 Y-2.58354
G1 X-6.42175 Y-2.22239
G3 X-6.41924 Y-2.20993 I-3.72104 J0.7547
G3 X-6.41661 Y-2.19746 I-3.7133 J0.7919
G1 X-6.33927 Y-1.82875
G1 X-6.25983 Y-1.46056
G3 X-6.25695 Y-1.4471 I-3.71139 J0.80078
G3 X-6.25377 Y-1.43294 I-3.7032 J0.83786
G1 X-6.17369 Y-1.0726
G3 X-6.17043 Y-1.05781 I-3.70637 J0.82371
G3 X-6.16729 Y-1.04418 I-3.69802 J0.86042
G1 X-6.0762 Y-0.64603
G1 X-5.93345 Y-0.042
G1 X-5.88658 Y0.15145
G1 X-5.83715 Y0.35306
G1 X-5.78774 Y0.55216
G1 X-5.68601 Y0.95503
G1 X-5.52608 Y1.57064
G1 X-5.47231 Y1.77302
G3 X-5.46831 Y1.78819 I-3.66949 J0.97495
G2 X-5.37045 Y2.15038 I21.80117 J-5.69603
G3 X-5.36782 Y2.15986 I-3.657 J1.02081
G1 X-5.2528 Y2.57609
G1 X-5.23337 Y2.64545
G1 X-5.21293 Y2.7181
G1 X-5.17158 Y2.86413
G1 X-5.08638 Y3.16112
G1 X-5.0309 Y3.35158
G1 X-4.91526 Y3.74139
G3 X-4.90941 Y3.7613 I-3.63999 J1.07989
G2 X-4.81601 Y4.06815 I12.26443 J-3.56574
G3 X-4.81039 Y4.08594 I-3.61807 J1.1512
G1 X-4.69295 Y4.46143
G1 X-4.69293 Y4.46149
G1 X-4.69296 Y4.46138
G1 X-4.69295 Y4.46143
G2 X-4.59332 Y4.77099 I18.94374 J-5.92586
G1 X-4.5054 Y5.03398
G3 X-3.37077 Y5.23227 I-0.11984 J4.031
G1 X-6.679 Y-3.54688
G0 Z3.0
G0 X-0.71889 Y12.26966
G0 Z1.0
G1 F300.0 Z-1.0
G3 F800.0 X-0.72128 Y12.28637 I-8.34312 J-1.18422
G1 X-0.74746 Y12.48397
G3 X-0.74893 Y12.49496 I-3.7639 J-0.49878
G1 X-0.7783 Y12.71173
G1 X-0.83875 Y13.16711
G1 X-0.88286 Y13.5311
G3 X-0.88615 Y13.55741 I-3.76922 J-0.45681
G3 X-0.88901 Y13.58672 I-3.78022 J-0.35444
G1 X-0.91378 Y13.83055
G1 X-0.93511 Y14.07409
G2 X-0.94691 Y14.23746 I5.49969 J0.47933
G3 X-0.94952 Y14.27898 I-3.79058 J-0.21731
G3 X-0.94973 Y14.28253 I-3.79047 J-0.2192
G1 X-0.95593 Y14.3881
G3 X-0.95665 Y14.39992 I-3.79026 J-0.22275
G2 X-0.95963 Y14.45733 I2.92425 J0.18101
G1 X-0.97011 Y14.73096
G2 X-0.97233 Y14.81473 I7.90476 J0.25128
G3 X0.26921 Y14.8918 I0.37669 J3.97074
G1 X-0.71889 Y12.26966
G0 Z3.0
G0 X3.72505 Y24.06267
G0 Z1.0
G1 F300.0 Z-1.0
G1 F800.0 X3.69812 Y24.27238
G3 X3.69683 Y24.28235 I-3.76588 J-0.48354
G1 X3.68411 Y24.37935
G3 X3.68361 Y24.38318 I-3.76459 J-0.49351
G1 X3.67078 Y24.48025
G3 X3.67057 Y24.48189 I-3.76409 J-0.49734
G1 X3.64515 Y24.67361
G1 X3.63341 Y24.76305
G1 X3.62308 Y24.84321
G1 X3.60095 Y25.02372
G2 X3.5978 Y25.05152 I1.54774 J0.1892
G3 X3.59218 Y25.1022 I-3.77641 J-0.39299
G1 X3.58019 Y25.23672
G1 X3.5746 Y25.32504
G1 X3.57064 Y25.4476
G3 X3.57334 Y25.51079 I-3.79188 J0.19331
G3 X3.57405 Y25.52291 I-3.7898 J0.23042
G2 X3.58852 Y25.6836 I2.49732 J-0.14382
G2 X3.60896 Y25.83039 I6.21834 J-0.7913
G3 X4.09038 Y25.85467 I0.04163 J3.95882
G3 X4.1081 Y25.8567 I-0.42177 J3.7733
G3 X4.41928 Y25.90497 I-0.4812 J4.12927
G1 X3.72505 Y24.06267
G0 Z3.0
G0 X10.25619 Y64.08169
G0 Z1.0
G1 F300.0 Z-1.0
G3 F800.0 X10.13676 Y64.18966 I-16.51119 J-18.14341
G3 X9.5709 Y64.68532 I-15.54543 J-17.1764
G1 X9.90644 Y64.5509
G1 X10.35144 Y64.33446
G1 X10.25619 Y64.08169
G1 F300.0 X9.1793 Y62.89834
G3 F800.0 X9.06538 Y63.00132 I-15.4343 J-16.96007
G3 X7.84217 Y64.02888 I-14.47405 J-15.98805
G3 X6.68756 Y64.87281 I-12.80506 J-16.30734
G1 X6.64897 Y64.89906
G3 X6.60971 Y64.92562 I-5.73435 J-8.4316
G1 X6.56544 Y64.95543
G3 X6.47587 Y65.01506 I-5.69509 J-8.45817
G1 X6.32653 Y65.11334
G3 X6.18511 Y65.20474 I-5.60553 J-8.51779
G1 X6.03412 Y65.30057
G3 X5.94095 Y65.359 I-5.46411 J-8.6092
G1 X5.8975 Y65.38593
G3 X5.79866 Y65.4464 I-5.37094 J-8.66763
G3 X5.25807 Y65.76507 I-15.12641 J-25.04216
G3 X5.08967 Y65.85981 I-5.08369 J-8.83917
G1 X4.91885 Y65.95379
G3 X4.74213 Y66.04877 I-4.91528 J-8.93391
G1 X4.56991 Y66.13915
G1 X4.56954 Y66.13935
G1 X4.57052 Y66.13884
G3 X4.56991 Y66.13915 I-7.72861 J-14.72228
G3 X3.6791 Y66.57339 I-7.72801 J-14.72259
G1 X3.56364 Y66.6257
G3 X3.42715 Y66.68633 I-4.20777 J-9.28813
G1 X3.30162 Y66.741
G3 X3.26075 Y66.75869 I-4.07128 J-9.34877
G3 X2.82197 Y66.94018 I-4.63946 J-10.59551
G1 X2.75303 Y66.96773
G3 X2.58402 Y67.03354 I-3.78423 J-9.4686
G1 X2.41063 Y67.09929
G3 X2.21963 Y67.16954 I-3.61522 J-9.53441
G1 X2.05356 Y67.22875
G3 X1.86506 Y67.29388 I-3.42422 J-9.60466
G1 X1.69782 Y67.34984
G3 X1.67013 Y67.35906 I-3.23571 J-9.66979
G3 X0.8199 Y67.61617 I-5.29529 J-15.97656
G3 X-0.10004 Y67.84698 I-5.71384 J-20.82483
G3 X-0.24722 Y67.87935 I-2.26365 J-9.94236
G1 X-0.41138 Y67.91418
G3 X-0.62331 Y67.95681 I-2.11648 J-9.97473
G1 X-0.84455 Y67.99887
G3 X-1.08403 Y68.04145 I-1.90455 J-10.01736
G1 X-1.30613 Y68.07821
G3 X-1.50208 Y68.10869 I-1.66507 J-10.05993
G1 X-1.65067 Y68.13032
G3 X-1.74845 Y68.14408 I-1.46912 J-10.09041
G1 X-1.76986 Y68.14698
G3 X-2.23854 Y68.20557 I-2.40202 J-17.31097
G1 X-1.03889 Y68.30421
G1 X0.88323 Y68.31036
G1 X2.80677 Y68.16452
G1 X4.7345 Y67.86525
G1 X6.6683 Y67.40977
G1 X8.60872 Y66.79436
G1 X10.55468 Y66.01483
G1 X12.36304 Y65.13528
G1 X10.87599 Y61.18905
G3 X10.19289 Y61.91728 I-17.73526 J-15.95173
G3 X9.1793 Y62.89834 I-16.44789 J-15.979
G1 F300.0 X8.10241 Y61.715
G3 F800.0 X7.99399 Y61.81298 I-14.35741 J-15.77672
G3 X6.85656 Y62.76849 I-13.40266 J-14.79972
G3 X5.78816 Y63.54953 I-11.81946 J-15.04695
G1 X5.74918 Y63.57604
G3 X5.71608 Y63.59844 I-4.83456 J-7.10858
G1 X5.67181 Y63.62824
G3 X5.5963 Y63.67851 I-4.80146 J-7.13098
G1 X5.44695 Y63.77679
G3 X5.32772 Y63.85386 I-4.72595 J-7.18125
G1 X5.17674 Y63.94968
G3 X5.09819 Y63.99894 I-4.60672 J-7.25831
G1 X5.05473 Y64.02587
G3 X4.9714 Y64.07685 I-4.52817 J-7.30757
G3 X4.46038 Y64.3781 I-14.29916 J-23.67262
G3 X4.3184 Y64.45798 I-4.286 J-7.4522
G1 X4.14758 Y64.55196
G3 X3.99859 Y64.63203 I-4.14401 J-7.53207
G1 X3.82633 Y64.72244
G1 X3.826 Y64.72261
G1 X3.82683 Y64.72218
G1 X3.82633 Y64.72244
G3 X3.02005 Y65.11543 I-6.98442 J-13.30588
G1 X2.90339 Y65.16828
G3 X2.78832 Y65.2194 I-3.54752 J-7.83071
G1 X2.66279 Y65.27407
G3 X2.62367 Y65.29098 I-3.43244 J-7.88183
G3 X2.23476 Y65.45181 I-4.00239 J-9.1278
G1 X2.15924 Y65.482
G3 X2.01675 Y65.53748 I-3.19044 J-7.98286
G1 X1.84336 Y65.60323
G3 X1.68233 Y65.66245 I-3.04795 J-8.03834
G1 X1.51626 Y65.72166
G3 X1.35733 Y65.77657 I-2.88692 J-8.09757
G1 X1.1901 Y65.83253
G3 X1.16675 Y65.84031 I-2.72799 J-8.15249
G3 X0.39694 Y66.07309 I-4.79192 J-14.45781
G3 X-0.45524 Y66.28691 I-5.29088 J-19.28174
G3 X-0.57932 Y66.31419 I-1.90846 J-8.38229
G1 X-0.74348 Y66.34903
G3 X-0.92216 Y66.38496 I-1.78438 J-8.40958
G1 X-1.1434 Y66.42703
G3 X-1.3453 Y66.46293 I-1.6057 J-8.44551
G1 X-1.5674 Y66.49969
G3 X-1.7326 Y66.52538 I-1.4038 J-8.48141
G1 X-1.88119 Y66.54702
G3 X-1.96363 Y66.55861 I-1.2386 J-8.50711
G1 X-1.98745 Y66.56184
G3 X-2.61803 Y66.63662 I-2.18442 J-15.72583
G3 X-2.95462 Y66.66727 I-1.15128 J-10.77901
G1 X-3.07206 Y66.67683
G3 X-3.24256 Y66.68901 I-0.69769 J-8.56844
G1 X-3.53759 Y66.70713
G3 X-3.74822 Y66.71748 I-0.52718 J-8.58062
G1 X-4.04354 Y66.72836
G3 X-4.20705 Y66.73283 I-0.31655 J-8.59097
G3 X-5.00462 Y66.73667 I-0.54657 J-30.69891
G3 X-5.11817 Y66.73499 I0.07028 J-8.59651
G1 X-5.35631 Y66.7299
G3 X-5.43449 Y66.72787 I0.18382 J-8.59483
G1 X-5.51388 Y66.72545
G3 X-5.55686 Y66.72403 I0.262 J-8.59281
G1 X-5.66267 Y66.72028
G3 X-5.71732 Y66.71816 I0.30497 J-8.59139
G1 X-5.85843 Y66.71226
G3 X-5.9449 Y66.7082 I0.35963 J-8.58927
G1 X-6.22658 Y66.69356
G3 X-6.32961 Y66.68759 I0.4461 J-8.58522
G1 X-6.58736 Y66.67109
G3 X-7.09307 Y66.6335 I1.00259 J-16.90678
G1 X-7.34998 Y66.61199
G3 X-7.41758 Y66.60606 I0.71708 J-8.56684
G1 X-7.67726 Y66.58226
G3 X-8.1451 Y66.53632 I1.4829 J-17.50399
G1 X-8.2556 Y66.52492
G3 X-8.27932 Y66.52244 I0.88172 J-8.55146
G1 X-8.43237 Y66.50623
G3 X-8.4643 Y66.50279 I0.90544 J-8.54899
G1 X-8.77027 Y66.46923
G3 X-8.82509 Y66.46304 I0.93736 J-8.54554
G1 X-9.46548 Y66.38863
G3 X-9.48398 Y66.38646 I0.99218 J-8.53935
G3 X-10.23355 Y66.29411 I9.34078 J-78.90108
G3 X-10.23692 Y66.29368 I1.09179 J-8.52719
G1 X-10.77691 Y66.22432
G3 X-10.89891 Y66.209 I1.06648 J-8.9858
G3 X-11.02839 Y66.19151 I1.15102 J-9.00847
G1 X-11.30879 Y66.15446
G3 X-11.325 Y66.15231 I1.12602 J-8.52274
G1 X-11.67539 Y66.10533
G3 X-11.696 Y66.10255 I1.14224 J-8.52058
G1 X-12.39085 Y66.00769
G3 X-12.41222 Y66.00474 I1.16284 J-8.51779
G1 X-13.08343 Y65.91139
G3 X-13.09498 Y65.90978 I1.18421 J-8.51485
G1 X-13.53847 Y65.84748
G3 X-13.5414 Y65.84707 I1.19577 J-8.51323
G1 X-13.68927 Y65.82625
G1 X-13.68948 Y65.82622
G1 X-13.72881 Y65.82068
G1 X-13.72898 Y65.82066
G1 X-13.83679 Y65.80548
G1 X-13.83699 Y65.80545
G1 X-13.83659 Y65.80551
G1 X-13.83679 Y65.80548
G1 X-13.87222 Y65.80049
G1 X-13.87272 Y65.80042
G1 X-13.87173 Y65.80056
G1 X-13.87222 Y65.80049
G1 X-14.01607 Y65.78026
G3 X-14.07296 Y65.77206 I1.19735 J-8.51301
G2 X-14.23825 Y65.74891 I-1.67885 J11.38407
G3 X-14.29068 Y65.74179 I1.13076 J-8.52211
G1 X-14.45735 Y65.71863
G1 X-14.47874 Y65.71567
G3 X-14.50788 Y65.71159 I1.17743 J-8.51579
G3 X-14.52527 Y65.70924 I1.14189 J-8.52063
G1 X-14.61353 Y65.69723
G1 X-13.41866 Y66.3932
G1 X-11.36911 Y67.40454
G1 X-9.31518 Y68.2414
G1 X-7.2605 Y68.90678
G1 X-5.20725 Y69.40385
G1 X-3.15623 Y69.73551
G1 X-1.10711 Y69.904
G1 X0.94125 Y69.91055
G1 X2.99026 Y69.7552
G1 X5.04109 Y69.43682
G1 X7.09417 Y68.95324
G1 X9.1488 Y68.30161
G1 X11.20291 Y67.47876
G1 X13.25298 Y66.48164
G1 X14.34381 Y65.85428
G1 X11.38479 Y58.00184
G3 X10.93406 Y58.61258 I-19.79146 J-14.13451
G3 X10.87522 Y58.68886 I-6.83656 J-5.21215
G1 X10.66147 Y58.96281
G3 X10.59181 Y59.05089 I-6.77772 J-5.28843
G3 X10.27131 Y59.44327 I-21.34378 J-17.10705
G3 X10.21874 Y59.50582 I-6.60733 J-5.49983
G1 X10.06884 Y59.68246
G3 X10.04396 Y59.71165 I-6.55476 J-5.56238
G3 X9.04718 Y60.80042 I-16.90323 J-14.47433
G3 X8.10241 Y61.715 I-15.30219 J-14.86214
G1 F300.0 X7.02552 Y60.53165
G3 F800.0 X6.9226 Y60.62465 I-13.28052 J-14.59337
G3 X5.87094 Y61.50811 I-12.33127 J-13.61139
G3 X4.88876 Y62.22624 I-10.83384 J-13.78656
G1 X4.84939 Y62.25302
G3 X4.82245 Y62.27125 I-3.93478 J-5.78556
G1 X4.77818 Y62.30106
G3 X4.71672 Y62.34197 I-3.90784 J-5.80379
G1 X4.56738 Y62.44025
G3 X4.47034 Y62.50297 I-3.84638 J-5.84471
G1 X4.31935 Y62.5988
G3 X4.25542 Y62.63889 I-3.74934 J-5.90743
G1 X4.21197 Y62.66582
G3 X4.14415 Y62.70731 I-3.68541 J-5.94752
G3 X3.66269 Y62.99113 I-13.4719 J-22.30307
G3 X3.54713 Y63.05614 I-3.4883 J-6.06522
G1 X3.37632 Y63.15012
G3 X3.25506 Y63.21529 I-3.37275 J-6.13023
G1 X3.08274 Y63.30572
G1 X3.08247 Y63.30587
G1 X3.08314 Y63.30552
G1 X3.08274 Y63.30572
G3 X2.36106 Y63.65744 I-6.24083 J-11.88916
G1 X2.24314 Y63.71086
G3 X2.14949 Y63.75247 I-2.88727 J-6.3733
G1 X2.02396 Y63.80713
G3 X1.98667 Y63.82324 I-2.79361 J-6.4149
G3 X1.64811 Y63.96322 I-3.36539 J-7.66006
G1 X1.56545 Y63.99626
G3 X1.44948 Y64.04142 I-2.59665 J-6.49712
G1 X1.27609 Y64.10716
G3 X1.14503 Y64.15537 I-2.48068 J-6.54228
G1 X0.97896 Y64.21457
G3 X0.84961 Y64.25927 I-2.34962 J-6.59049
G1 X0.68237 Y64.31523
G3 X0.66337 Y64.32156 I-2.22027 J-6.63518
G3 X-0.026 Y64.53 I-4.28854 J-12.93905
G3 X-0.81043 Y64.72683 I-4.86794 J-17.73866
G3 X-0.91142 Y64.74904 I-1.55327 J-6.82221
G1 X-1.07558 Y64.78387
G3 X-1.221 Y64.81312 I-1.45228 J-6.84442
G1 X-1.44225 Y64.85519
G3 X-1.60657 Y64.8844 I-1.30686 J-6.87367
G1 X-1.82867 Y64.92116
G3 X-1.96312 Y64.94208 I-1.14253 J-6.90289
G1 X-2.11171 Y64.96371
G3 X-2.17881 Y64.97315 I-1.00808 J-6.9238
G1 X-2.20518 Y64.97673
G3 X-2.78138 Y65.04496 I-1.9667 J-14.14072
G3 X-3.07948 Y65.07214 I-0.98793 J-9.18736
G1 X-3.20191 Y65.08211
G3 X-3.34068 Y65.09202 I-0.56783 J-6.97372
G1 X-3.63571 Y65.11015
G3 X-3.80713 Y65.11857 I-0.42906 J-6.98363
G1 X-4.10245 Y65.12945
G3 X-4.23554 Y65.13309 I-0.25764 J-6.99206
G3 X-4.99154 Y65.13673 I-0.51809 J-29.09916
G3 X-5.08395 Y65.13536 I0.0572 J-6.99657
G1 X-5.3221 Y65.13027
G3 X-5.38572 Y65.12862 I0.14961 J-6.9952
G1 X-5.46512 Y65.12619
G3 X-5.5001 Y65.12504 I0.21324 J-6.99355
G1 X-5.60591 Y65.12128
G3 X-5.65039 Y65.11956 I0.24821 J-6.9924
G1 X-5.7915 Y65.11366
G3 X-5.86188 Y65.11035 I0.2927 J-6.99068
G1 X-6.14355 Y65.09572
G3 X-6.22741 Y65.09086 I0.36307 J-6.98737
G1 X-6.489 Y65.07411
G3 X-6.95499 Y65.03946 I0.90422 J-15.3098
G1 X-7.21651 Y65.01757
G3 X-7.27154 Y65.01274 I0.58362 J-6.97242
G1 X-7.53683 Y64.98843
G3 X-7.97405 Y64.94547 I1.34247 J-15.91016
G1 X-8.09149 Y64.93336
G3 X-8.1108 Y64.93134 I0.71762 J-6.9599
G1 X-8.26386 Y64.91513
G3 X-8.28984 Y64.91233 I0.73692 J-6.95788
G1 X-8.59581 Y64.87877
G3 X-8.64043 Y64.87373 I0.76291 J-6.95508
G1 X-9.28082 Y64.79932
G3 X-9.29588 Y64.79756 I0.80752 J-6.95004
G3 X-10.03035 Y64.70706 I9.15267 J-77.31217
G3 X-10.03309 Y64.70671 I0.88859 J-6.94015
G1 X-10.58107 Y64.63633
G3 X-10.69244 Y64.62237 I0.87065 J-7.39781
G3 X-10.81041 Y64.60641 I0.94456 J-7.42185
G1 X-11.09922 Y64.56825
G3 X-11.11242 Y64.56649 I0.91645 J-6.93652
G1 X-11.4628 Y64.51952
G3 X-11.47957 Y64.51725 I0.92965 J-6.93477
G1 X-12.17443 Y64.42239
G3 X-12.19182 Y64.41999 I0.94642 J-6.9325
G1 X-12.86303 Y64.32664
G3 X-12.87243 Y64.32533 I0.96381 J-6.9301
G1 X-13.31592 Y64.26304
G3 X-13.3183 Y64.2627 I0.97322 J-6.92878
G1 X-13.46617 Y64.24188
G1 X-13.46634 Y64.24186
G1 X-13.5057 Y64.23631
G1 X-13.50584 Y64.23629
G1 X-13.61372 Y64.2211
G1 X-13.61388 Y64.22108
G1 X-13.61356 Y64.22113
G1 X-13.61372 Y64.2211
G1 X-13.64929 Y64.2161
G1 X-13.64969 Y64.21604
G1 X-13.64888 Y64.21615
G1 X-13.64929 Y64.2161
G1 X-13.79323 Y64.19585
G3 X-13.83953 Y64.18918 I0.9745 J-6.9286
G2 X-14.02779 Y64.16281 I-1.91229 J12.96695
G3 X-14.07047 Y64.15701 I0.92031 J-6.93601
G1 X-14.23767 Y64.13378
G1 X-14.25961 Y64.13075
G3 X-14.28933 Y64.12657 I0.95829 J-6.93086
G3 X-14.30951 Y64.12386 I0.92334 J-6.93561
G1 X-14.54512 Y64.09179
G1 X-14.95375 Y64.03894
G1 X-14.99334 Y64.03413
G1 X-15.04158 Y64.02843
G1 X-15.15429 Y64.0157
G1 X-15.21633 Y64.00913
G2 X-15.42947 Y63.99005 I-1.01796 J10.17027
G3 X-15.45026 Y63.98853 I0.49888 J-6.97899
G3 X-15.48066 Y63.98639 I0.47633 J-6.98057
G1 X-15.60854 Y63.97903
G1 X-15.75676 Y63.97275
G1 X-15.89179 Y63.9685
G1 X-16.30244 Y63.96054
G1 X-16.81359 Y63.95562
G1 X-17.035 Y63.95424
G1 X-17.10979 Y63.95382
G1 X-17.42245 Y63.9522
G1 X-17.42304 Y63.95219
G1 X-17.97491 Y63.94929
G3 X-18.14891 Y63.94852 I-0.04845 J-8.72949
G3 X-18.89876 Y63.94272 I0.1053 J-62.13982
G1 X-19.60709 Y63.93534
G3 X-19.90882 Y63.9316 I0.00397 J-12.48968
G1 X-19.98113 Y63.93062
G1 X-18.42103 Y65.13547
G1 X-16.31006 Y66.56069
G1 X-14.17621 Y67.80357
G1 X-12.02581 Y68.86469
G1 X-9.86425 Y69.74539
G1 X-7.69582 Y70.44761
G1 X-5.52366 Y70.97346
G1 X-3.3498 Y71.325
G1 X-1.17533 Y71.50379
G1 X0.99926 Y71.51074
G1 X3.17374 Y71.34588
G1 X5.34768 Y71.00839
G1 X7.52004 Y70.49672
G1 X9.68888 Y69.80887
G1 X11.85114 Y68.94269
G1 X14.00263 Y67.89624
G1 X16.13804 Y66.66811
G1 X16.31564 Y66.54957
G1 X11.73046 Y54.38172
G1 X11.67316 Y54.49195
G3 X11.63563 Y54.56315 I-6.20821 J-3.22698
G1 X11.55799 Y54.70842
G3 X11.52645 Y54.76676 I-6.17068 J-3.29818
G1 X11.47838 Y54.85468
G3 X11.1277 Y55.46909 I-14.99774 J-8.15269
G3 X10.52799 Y56.42513 I-19.29525 J-11.43767
G3 X10.39174 Y56.62823 I-6.37091 J-4.12668
G3 X9.66167 Y57.64251 I-18.79841 J-12.7609
G3 X9.61378 Y57.7046 I-5.56417 J-4.24208
G1 X9.40003 Y57.97855
G3 X9.34334 Y58.05024 I-5.51628 J-4.30417
G3 X9.04158 Y58.41966 I-20.0953 J-16.1064
G3 X8.99879 Y58.47057 I-5.3776 J-4.47623
G1 X8.84889 Y58.64722
G3 X8.82864 Y58.67097 I-5.33481 J-4.52714
G3 X7.90148 Y59.68356 I-15.68791 J-13.43365
G3 X7.02552 Y60.53165 I-14.15648 J-13.74529
G1 F300.0 X5.94863 Y59.34831
G3 F800.0 X5.8512 Y59.43633 I-12.20363 J-13.41003
G3 X4.88532 Y60.24772 I-11.25987 J-12.42306
G3 X3.98939 Y60.90294 I-9.84822 J-12.52618
G1 X3.9496 Y60.93
G3 X3.92882 Y60.94406 I-3.03499 J-4.46254
G1 X3.88455 Y60.97387
G3 X3.83715 Y61.00542 I-3.01421 J-4.47661
G1 X3.6878 Y61.10371
G3 X3.61296 Y61.15208 I-2.9668 J-4.50816
G1 X3.46197 Y61.24791
G3 X3.41266 Y61.27884 I-2.89195 J-4.55654
G1 X3.3692 Y61.30576
G3 X3.31689 Y61.33777 I-2.84264 J-4.58746
G3 X2.865 Y61.60416 I-12.64464 J-20.93353
G3 X2.77587 Y61.6543 I-2.69061 J-4.67825
G1 X2.60505 Y61.74828
G3 X2.51152 Y61.79855 I-2.60148 J-4.7284
G1 X2.33915 Y61.88901
G1 X2.33893 Y61.88913
G1 X2.33945 Y61.88886
G1 X2.33915 Y61.88901
G3 X1.70215 Y62.19941 I-5.49724 J-10.47245
G1 X1.58289 Y62.25344
G3 X1.51065 Y62.28553 I-2.22702 J-4.91588
G1 X1.38513 Y62.3402
G3 X1.34979 Y62.35543 I-2.15478 J-4.94797
G3 X1.06218 Y62.47435 I-2.72851 J-6.19225
G1 X0.97166 Y62.51052
G3 X0.88221 Y62.54535 I-2.00286 J-5.01139
G1 X0.70882 Y62.6111
G3 X0.60773 Y62.64828 I-1.91341 J-5.04622
G1 X0.44166 Y62.70749
G3 X0.34189 Y62.74196 I-1.81232 J-5.0834
G1 X0.17465 Y62.79792
G3 X0.16 Y62.8028 I-1.71255 J-5.11787
G3 X-0.44894 Y62.98691 I-3.78516 J-11.4203
G3 X-1.16562 Y63.16676 I-4.445 J-16.19557
G3 X-1.24352 Y63.18389 I-1.19807 J-5.26214
G1 X-1.40768 Y63.21872
G3 X-1.51985 Y63.24128 I-1.12018 J-5.27927
G1 X-1.74109 Y63.28334
G3 X-1.86784 Y63.30588 I-1.00801 J-5.30183
G1 X-2.08994 Y63.34264
G3 X-2.19365 Y63.35877 I-0.88126 J-5.32436
G1 X-2.34224 Y63.3804
G3 X-2.39399 Y63.38768 I-0.77755 J-5.34049
G1 X-2.42305 Y63.39163
G3 X-2.94497 Y63.45332 I-1.74882 J-12.55562
G3 X-3.20388 Y63.47697 I-0.82434 J-7.59572
G1 X-3.33176 Y63.48739
G3 X-3.43879 Y63.49503 I-0.43798 J-5.379
G1 X-3.73382 Y63.51316
G3 X-3.86605 Y63.51965 I-0.33095 J-5.38664
G1 X-4.16137 Y63.53053
G3 X-4.26402 Y63.53334 I-0.19872 J-5.39314
G3 X-4.97846 Y63.53678 I-0.4896 J-27.49941
G3 X-5.04974 Y63.53573 I0.04412 J-5.39662
G1 X-5.28788 Y63.53063
G3 X-5.33696 Y63.52936 I0.1154 J-5.39557
G1 X-5.41636 Y63.52694
G3 X-5.44334 Y63.52605 I0.16447 J-5.39429
G1 X-5.54915 Y63.52229
G3 X-5.58346 Y63.52096 I0.19145 J-5.3934
G1 X-5.72457 Y63.51506
G3 X-5.77885 Y63.51251 I0.22576 J-5.39208
G1 X-6.06053 Y63.49787
G3 X-6.12521 Y63.49412 I0.28004 J-5.38953
G1 X-6.39084 Y63.47712
G3 X-6.81665 Y63.44544 I0.80606 J-13.71281
G1 X-7.08305 Y63.42314
G3 X-7.1255 Y63.41942 I0.45016 J-5.37799
G1 X-7.3967 Y63.39456
G3 X-7.80264 Y63.35466 I1.20234 J-14.3163
G1 X-7.92739 Y63.3418
G3 X-7.94228 Y63.34024 I0.55352 J-5.36834
G1 X-8.09534 Y63.32403
G3 X-8.11538 Y63.32187 I0.56841 J-5.36678
G1 X-8.42135 Y63.28831
G3 X-8.45577 Y63.28442 I0.58845 J-5.36462
G1 X-9.09616 Y63.21002
G3 X-9.10777 Y63.20865 I0.62286 J-5.36074
G3 X-9.82715 Y63.12002 I8.96457 J-75.72327
G3 X-9.82927 Y63.11975 I0.68539 J-5.3531
G1 X-10.38616 Y63.04822
G3 X-10.48597 Y63.03574 I0.67573 J-5.8097
G3 X-10.59147 Y63.02143 I0.73809 J-5.83522
G1 X-10.88965 Y62.98203
G3 X-10.89983 Y62.98068 I0.70688 J-5.35031
G1 X-11.25021 Y62.93371
G3 X-11.26315 Y62.93196 I0.71706 J-5.34895
G1 X-11.958 Y62.8371
G3 X-11.97142 Y62.83525 I0.72999 J-5.3472
G1 X-12.64263 Y62.7419
G3 X-12.64988 Y62.74088 I0.74341 J-5.34535
G1 X-13.09337 Y62.67859
G3 X-13.09521 Y62.67833 I0.75067 J-5.34434
G1 X-13.24308 Y62.65751
G1 X-13.24321 Y62.65749
G1 X-13.2826 Y62.65195
G1 X-13.28271 Y62.65193
G1 X-13.39066 Y62.63673
G1 X-13.39078 Y62.63671
G1 X-13.39053 Y62.63675
G1 X-13.39066 Y62.63673
G1 X-13.42635 Y62.63171
G1 X-13.42666 Y62.63166
G1 X-13.42604 Y62.63175
G1 X-13.42635 Y62.63171
G1 X-13.57038 Y62.61145
G3 X-13.6061 Y62.6063 I0.75166 J-5.3442
G2 X-13.81734 Y62.57671 I-2.14572 J14.54983
G3 X-13.85026 Y62.57224 I0.70985 J-5.34991
G1 X-14.018 Y62.54893
G1 X-14.04047 Y62.54583
G3 X-14.07078 Y62.54155 I0.73915 J-5.34594
G3 X-14.09375 Y62.53847 I0.7048 J-5.35058
G1 X-14.33462 Y62.50569
G1 X-14.7547 Y62.45136
G1 X-14.80294 Y62.4455
G1 X-14.85786 Y62.439
G1 X-14.98024 Y62.42519
G1 X-15.05218 Y62.41756
G2 X-15.30953 Y62.39454 I-1.18211 J11.76183
G3 X-15.31003 Y62.3945 I0.42219 J-5.38026
G3 X-15.33638 Y62.39258 I0.37944 J-5.38344
G3 X-15.37598 Y62.38976 I0.36245 J-5.38462
G1 X-15.52425 Y62.38123
G1 X-15.53298 Y62.38079
G1 X-15.69775 Y62.37382
G1 X-15.85111 Y62.36899
G1 X-16.27924 Y62.36069
G1 X-16.80088 Y62.35567
G1 X-17.02552 Y62.35426
G1 X-17.10117 Y62.35384
G1 X-17.41416 Y62.35222
G1 X-17.41461
G1 X-17.97557 Y62.34926
G3 X-18.1356 Y62.34854 I-0.04778 J-7.12946
G3 X-18.87939 Y62.34284 I0.09199 J-60.53984
G1 X-19.59878 Y62.33534
G3 X-19.87814 Y62.33187 I-0.00435 J-10.88968
G1 X-20.03258 Y62.32978
G3 X-20.03934 Y62.32969 I0.07283 J-5.39631
G1 X-20.42248 Y62.32404
G3 X-20.43323 Y62.32387 I0.07959 J-5.39621
G1 X-21.18096 Y62.31135
G3 X-21.18493 Y62.31128 I0.09034 J-5.39604
G1 X-21.89033 Y62.29895
G1 X-22.21558 Y62.29391
G3 X-22.2338 Y62.2936 I0.08358 J-5.39615
G2 X-22.49052 Y62.29052 I-0.35333 J18.72845
G3 X-22.49744 Y62.29048 I0.02783 J-5.39673
G1 X-22.77909 Y62.28866
G1 X-23.04173 Y62.28908
G1 X-23.11884 Y62.28975
G1 X-23.14593 Y62.29006
G3 X-23.19455 Y62.29039 I-0.06153 J-5.39645
G3 X-23.20725 Y62.29073 I-0.15113 J-5.39468
G1 X-23.48027 Y62.29774
G2 X-23.71235 Y62.30932 I0.13835 J5.10383
G1 X-23.87379 Y62.32213
G1 X-24.04153 Y62.3388
G2 X-24.19102 Y62.35788 I0.32399 J3.13394
G3 X-24.19853 Y62.35902 I-0.81104 J-5.33551
G1 X-23.63432 Y62.91405
G1 X-21.51875 Y64.76474
G1 X-19.35862 Y66.43299
G1 X-17.16129 Y67.91651
G1 X-14.93377 Y69.21395
G1 X-12.68252 Y70.32483
G1 X-10.41332 Y71.24939
G1 X-8.13114 Y71.98844
G1 X-5.84007 Y72.54308
G1 X-3.54336 Y72.91448
G1 X-1.24356 Y73.10358
G1 X1.05727 Y73.11094
G1 X3.35723 Y72.93656
G1 X5.65428 Y72.57996
G1 X7.94592 Y72.04019
G1 X10.22896 Y71.31612
G1 X12.49938 Y70.40661
G1 X14.75229 Y69.31084
G1 X16.98196 Y68.0285
G1 X18.26105 Y67.17472
G1 X11.75128 Y49.89955
G1 X11.71182 Y50.05317
G3 X11.68283 Y50.16135 I-5.22708 J-1.34278
G1 X11.63449 Y50.33454
G3 X11.62952 Y50.35221 I-5.19809 J-1.45097
G3 X11.27193 Y51.4553 I-14.73312 J-4.16659
G3 X10.85053 Y52.5112 I-16.40323 J-5.9343
G3 X10.33507 Y53.59706 I-16.27559 J-7.06084
G3 X10.32944 Y53.60791 I-4.79417 J-2.47819
G1 X10.2535 Y53.75402
G3 X10.22455 Y53.80894 I-4.78854 J-2.48904
G1 X10.1469 Y53.9542
G3 X10.12258 Y53.9992 I-4.75959 J-2.54396
G1 X10.07355 Y54.08887
G3 X9.7531 Y54.65027 I-13.59291 J-7.38688
G3 X9.18952 Y55.54844 I-17.92065 J-10.61885
G3 X9.07291 Y55.72227 I-5.03244 J-3.24999
G3 X8.38928 Y56.67245 I-17.47958 J-11.85494
G3 X8.35234 Y56.72034 I-4.29177 J-3.27202
G1 X8.13859 Y56.99429
G3 X8.09486 Y57.04958 I-4.25484 J-3.31991
G3 X7.81185 Y57.39606 I-18.84682 J-15.10574
G3 X7.77885 Y57.43533 I-4.14787 J-3.45262
G1 X7.62895 Y57.61197
G3 X7.61333 Y57.63029 I-4.11487 J-3.49189
G3 X6.75577 Y58.56671 I-14.4726 J-12.39297
G3 X5.94863 Y59.34831 I-13.01077 J-12.62843
G1 F300.0 X4.87174 Y58.16496
G3 F800.0 X4.77978 Y58.24801 I-11.12674 J-12.22668
G3 X3.89969 Y58.98734 I-10.18846 J-11.23475
G3 X3.09004 Y59.57962 I-8.86259 J-11.2658
G1 X3.04981 Y59.60698
G3 X3.03519 Y59.61687 I-2.1352 J-3.13953
G1 X2.99092 Y59.64668
G3 X2.95757 Y59.66888 I-2.12058 J-3.14942
G1 X2.80823 Y59.76716
G3 X2.75557 Y59.8012 I-2.08723 J-3.17162
G1 X2.60459 Y59.89703
G3 X2.56989 Y59.91878 I-2.03457 J-3.20565
G1 X2.52644 Y59.94571
G3 X2.48964 Y59.96823 I-1.99988 J-3.22741
G3 X2.06731 Y60.21719 I-11.81739 J-19.56399
G3 X2.0046 Y60.25246 I-1.89292 J-3.29128
G1 X1.83378 Y60.34644
G3 X1.76798 Y60.38181 I-1.83022 J-3.32656
G1 X1.59555 Y60.4723
G1 X1.59539 Y60.47239
G1 X1.59576 Y60.4722
G1 X1.59555 Y60.4723
G3 X1.04334 Y60.74134 I-4.75365 J-9.05574
G1 X0.92264 Y60.79602
G3 X0.87182 Y60.8186 I-1.56677 J-3.45846
G1 X0.74629 Y60.87326
G3 X0.71321 Y60.88749 I-1.51595 J-3.48103
G1 X0.71318 Y60.8875
G3 X0.47725 Y60.98507 I-2.0919 J-4.72431
G1 X0.37787 Y61.02479
G3 X0.31494 Y61.04929 I-1.40907 J-3.52565
G1 X0.14155 Y61.11504
G3 X0.07043 Y61.1412 I-1.34613 J-3.55016
G1 X-0.09564 Y61.2004
G3 X-0.16583 Y61.22465 I-1.27501 J-3.57631
G1 X-0.33307 Y61.28062
G3 X-0.34338 Y61.28405 I-1.20483 J-3.60057
G3 X-0.87187 Y61.44382 I-3.28178 J-9.90155
G3 X-1.52082 Y61.60668 I-4.02207 J-14.65248
G3 X-1.57562 Y61.61873 I-0.84288 J-3.70206
G1 X-1.73978 Y61.65356
G3 X-1.8187 Y61.66944 I-0.78807 J-3.71411
G1 X-2.03994 Y61.7115
G3 X-2.12911 Y61.72735 I-0.70916 J-3.72998
G1 X-2.35121 Y61.76411
G3 X-2.42417 Y61.77546 I-0.61999 J-3.74584
G1 X-2.57276 Y61.7971
G3 X-2.60917 Y61.80222 I-0.54703 J-3.75719
G1 X-2.6411 Y61.80655
G3 X-3.10894 Y61.86172 I-1.53078 J-10.97054
G3 X-3.32768 Y61.88176 I-0.66037 J-6.00411
G1 X-3.46161 Y61.89266
G3 X-3.53691 Y61.89804 I-0.30813 J-3.78428
G1 X-3.83194 Y61.91617
G3 X-3.92497 Y61.92074 I-0.23283 J-3.78965
G1 X-4.22028 Y61.93162
G3 X-4.2925 Y61.93359 I-0.13981 J-3.79423
G3 X-4.96538 Y61.93683 I-0.46112 J-25.89967
G3 X-5.01553 Y61.93609 I0.03104 J-3.79667
G1 X-5.25367 Y61.931
G3 X-5.2882 Y61.9301 I0.08118 J-3.79593
G1 X-5.3676 Y61.92768
G3 X-5.38658 Y61.92705 I0.11571 J-3.79504
G1 X-5.49239 Y61.9233
G3 X-5.51653 Y61.92237 I0.13469 J-3.79441
G1 X-5.65764 Y61.91646
G3 X-5.69582 Y61.91467 I0.15883 J-3.79348
G1 X-5.9775 Y61.90003
G3 X-6.02301 Y61.89739 I0.19702 J-3.79168
G1 X-6.29292 Y61.88011
G3 X-6.67802 Y61.85145 I0.70815 J-12.1158
G1 X-6.94959 Y61.82872
G3 X-6.97945 Y61.8261 I0.3167 J-3.78357
G1 X-7.2569 Y61.80067
G3 X-7.6308 Y61.7639 I1.06254 J-12.7224
G1 X-7.76329 Y61.75024
G3 X-7.77377 Y61.74914 I0.38941 J-3.77678
G1 X-7.92683 Y61.73293
G3 X-7.94092 Y61.73141 I0.39989 J-3.77568
G1 X-8.24689 Y61.69785
G3 X-8.2711 Y61.69511 I0.41399 J-3.77416
G1 X-8.9115 Y61.62071
G3 X-8.91967 Y61.61975 I0.4382 J-3.77143
G3 X-9.62396 Y61.53298 I8.77647 J-74.13437
G3 X-9.62544 Y61.53278 I0.48219 J-3.76606
G1 X-10.19257 Y61.45995
G3 X-10.27949 Y61.44911 I0.48214 J-4.22142
G3 X-10.37115 Y61.43663 I0.53161 J-4.24858
G1 X-10.68008 Y61.39582
G3 X-10.68724 Y61.39486 I0.49731 J-3.76409
G1 X-11.03763 Y61.34789
G3 X-11.04673 Y61.34666 I0.50447 J-3.76314
G1 X-11.74158 Y61.2518
G3 X-11.75102 Y61.2505 I0.51357 J-3.76191
G1 X-12.42223 Y61.15715
G3 X-12.42733 Y61.15644 I0.52301 J-3.7606
G1 X-12.87082 Y61.09414
G3 X-12.87211 Y61.09396 I0.52811 J-3.75989
G1 X-13.01998 Y61.07314
G1 X-13.02007 Y61.07313
G1 X-13.0595 Y61.06758
G1 X-13.05957 Y61.06757
G1 X-13.16759 Y61.05236
G1 X-13.16768 Y61.05234
G1 X-13.1675 Y61.05237
G1 X-13.16759 Y61.05236
G1 X-13.20341 Y61.04731
G1 X-13.20363 Y61.04728
G1 X-13.20319 Y61.04734
G1 X-13.20341 Y61.04731
G1 X-13.34754 Y61.02704
G3 X-13.37266 Y61.02342 I0.52881 J-3.75979
G2 X-13.60689 Y60.99061 I-2.37915 J16.13271
G3 X-13.63005 Y60.98747 I0.4994 J-3.76381
G1 X-13.79832 Y60.96409
G1 X-13.82133 Y60.9609
G3 X-13.85224 Y60.9565 I0.52002 J-3.76102
G3 X-13.87799 Y60.95309 I0.48625 J-3.76554
G1 X-14.12411 Y60.91959
G1 X-14.55565 Y60.86377
G1 X-14.61253 Y60.85687
G1 X-14.67414 Y60.84958
G1 X-14.8062 Y60.83467
G1 X-14.88773 Y60.82603
G2 X-15.18437 Y60.79944 I-1.34655 J13.35337
G3 X-15.19112 Y60.7989 I0.29702 J-3.78516
G3 X-15.2225 Y60.79662 I0.26054 J-3.78785
G3 X-15.26974 Y60.79322 I0.24856 J-3.78865
G3 X-15.27874 Y60.79271 I0.20913 J-3.79104
G1 X-15.43822 Y60.78354
G1 X-15.45907 Y60.78249
G1 X-15.63873 Y60.77489
G1 X-15.81042 Y60.76948
G1 X-16.25603 Y60.76084
G1 X-16.78817 Y60.75572
G1 X-17.01604 Y60.75429
G1 X-17.09254 Y60.75386
G1 X-17.40587 Y60.75224
G1 X-17.40619
G1 X-17.97733 Y60.74923
G3 X-18.12114 Y60.74856 I-0.04603 J-5.52943
G3 X-18.85999 Y60.74295 I0.07753 J-58.93986
G1 X-19.5911 Y60.73533
G3 X-19.84676 Y60.73215 I-0.01202 J-9.28967
G1 X-20.01099 Y60.72993
G3 X-20.01574 Y60.72986 I0.05124 J-3.79645
G1 X-20.39888 Y60.72421
G3 X-20.40645 Y60.72409 I0.05599 J-3.79639
G1 X-21.15417 Y60.71157
G3 X-21.15697 Y60.71153 I0.06356 J-3.79627
G1 X-21.86396 Y60.69917
G1 X-22.1908 Y60.69411
G3 X-22.20362 Y60.69389 I0.0588 J-3.79634
G2 X-22.48227 Y60.69054 I-0.38351 J20.32816
G3 X-22.48714 Y60.69051 I0.01958 J-3.79675
G1 X-22.77521 Y60.68866
G1 X-23.04991 Y60.68909
G1 X-23.13486 Y60.68983
G1 X-23.16418 Y60.69016
G3 X-23.21536 Y60.6904 I-0.04329 J-3.79655
G2 X-23.22238 Y60.69051 I-0.00042 J0.20325
G3 X-23.24829 Y60.69126 I-0.1233 J-3.7948
G1 X-23.52239 Y60.69829
G2 X-23.83403 Y60.71394 I0.18047 J6.70328
G1 X-24.01622 Y60.7284
G1 X-24.2026 Y60.74693
G2 X-24.43147 Y60.77605 I0.48507 J4.72581
G3 X-24.44158 Y60.77757 I-0.57059 J-3.75368
G1 X-24.79421 Y60.83021
G3 X-25.03439 Y60.86538 I-1.2744 J-7.864
G3 X-25.29429 Y60.89816 I-1.10091 J-7.68278
G3 X-25.96911 Y60.94051 I-0.73931 J-6.38247
G3 X-26.98908 Y60.84549 I-0.05233 J-4.96008
G3 X-27.04984 Y60.83289 I0.74066 J-3.72386
G3 X-28.07938 Y60.48226 I0.9954 J-4.60953
G3 X-28.11319 Y60.46597 I1.63033 J-3.42895
G3 X-28.35361 Y60.34078 I2.25162 J-4.61743
G1 X-26.85176 Y61.99337
G1 X-24.72301 Y64.08748
G1 X-22.53541 Y66.00117
G1 X-20.2962 Y67.7305
G1 X-18.01252 Y69.27232
G1 X-15.69132 Y70.62433
G1 X-13.33922 Y71.78497
G1 X-10.96239 Y72.75339
G1 X-8.56647 Y73.52927
G1 X-6.15648 Y74.1127
G1 X-3.73692 Y74.50396
G1 X-1.31178 Y74.70337
G1 X1.11528 Y74.71113
G1 X3.54072 Y74.52724
G1 X5.96087 Y74.15153
G1 X8.37179 Y73.58367
G1 X10.76903 Y72.82337
G1 X13.14761 Y71.87054
G1 X15.50194 Y70.72544
G1 X17.82588 Y69.38888
G1 X20.11285 Y67.86235
G1 X20.2038 Y67.79284
G1 X8.65913 Y37.1564
G1 X8.6623 Y37.21301
G1 X8.67224 Y37.32901
G1 X8.67243 Y37.33071
G1 X8.67914 Y37.3735
G2 X8.68761 Y37.40713 I0.83599 J-0.19276
G3 X8.70604 Y37.46565 I-3.61218 J1.16955
G3 X8.72829 Y37.52985 I-3.57624 J1.27521
G2 X8.8011 Y37.73192 I4.79273 J-1.61291
G3 X8.81467 Y37.76775 I-3.54382 J1.36272
G1 X8.96192 Y38.16252
G3 X8.96924 Y38.18232 I-3.55739 J1.32689
G1 X9.13064 Y38.62247
G3 X9.14289 Y38.65639 I-3.56472 J1.30709
G1 X9.22828 Y38.89629
G3 X9.23821 Y38.92454 I-3.57697 J1.27317
G1 X9.32172 Y39.16514
G3 X9.33091 Y39.19195 I-3.5869 J1.24492
G1 X9.39556 Y39.3828
G3 X9.40379 Y39.4074 I-3.59609 J1.21811
G1 X9.46716 Y39.59877
G3 X9.47407 Y39.61982 I-3.60433 J1.19351
G1 X9.51556 Y39.74764
G3 X9.52405 Y39.77411 I-3.61124 J1.17246
G1 X9.60729 Y40.03704
G3 X9.61877 Y40.07392 I-3.61972 J1.14599
G1 X9.6993 Y40.3376
G3 X9.71091 Y40.37633 I-3.6312 J1.1091
G1 X9.78889 Y40.64172
G3 X9.80065 Y40.6826 I-3.6428 J1.07037
G1 X9.87567 Y40.9489
G3 X9.88305 Y40.97547 I-3.65457 J1.02949
G1 X9.90111 Y41.04144
G3 X9.90407 Y41.05228 I-3.66195 J1.00291
G1 X9.91248 Y41.08337
G3 X9.97241 Y41.30794 I-5.87567 J1.68812
G3 X10.04311 Y41.58517 I-15.43132 J4.08299
G3 X10.19687 Y42.24154 I-16.18779 J4.13835
G1 X10.19693 Y42.24182
G1 X10.25235 Y42.50204
G3 X10.26368 Y42.55723 I-3.7135 J0.79097
G1 X10.31522 Y42.81817
G3 X10.32435 Y42.86598 I-3.72483 J0.73578
G1 X10.3558 Y43.03666
G3 X10.36283 Y43.07598 I-3.73395 J0.68797
G1 X10.38698 Y43.21526
G3 X10.42081 Y43.41635 I-5.48139 J1.02555
G3 X10.4401 Y43.54368 I-4.72321 J0.78084
G1 X10.45859 Y43.66752
