; generated by PrusaSlicer 2.5.0+win64 on 2023-01-06 at 10:24:03 UTC

; 

; external perimeters extrusion width = 0.45mm
; perimeters extrusion width = 0.45mm
; infill extrusion width = 0.45mm
; solid infill extrusion width = 0.45mm
; top infill extrusion width = 0.40mm
; first layer extrusion width = 0.42mm

M73 P0 R139
M107
;TYPE:Custom
M862.3 P "MK2S" ; printer model check
M862.1 P0.4 ; nozzle diameter check
M115 U3.2.3 ; tell printer latest fw version
G90 ; use absolute coordinates
M83 ; extruder relative mode
M204 S2000 T1500 ; MK2 firmware only supports the old M204 format
M104 S215 ; set extruder temp
M140 S60 ; set bed temp
M190 S60 ; wait for bed temp
M109 S215 ; wait for extruder temp
G28 W ; home all without mesh bed level
G80 ; mesh bed leveling
G1 Y-3.0 F1000.0 ; go outside print area
G92 E0.0
G1 X60.0 E9.0  F1000.0 ; intro line
G1 X100.0 E12.5 F1000.0 ; intro line
G92 E0.0
G21 ; set units to millimeters
G90 ; use absolute coordinates
M83 ; use relative distances for extrusion
M900 K0.05 ; Filament gcode LA 1.5
M900 K30 ; Filament gcode LA 1.0
M107
;LAYER_CHANGE
;Z:0.2
;HEIGHT:0.2
;BEFORE_LAYER_CHANGE
G92 E0.0
;0.2


G1 E-.8 F2100
G1 Z.4 F10800
;AFTER_LAYER_CHANGE
;0.2
G1 X37.06 Y89.817
G1 Z.2
G1 E.8 F2100
M204 S1000
;TYPE:Skirt/Brim
;WIDTH:0.42
G1 F1200
G1 X38 Y89.623 E.03008
G1 X212 Y89.623 E5.45565
G1 X213.307 Y90.015 E.04278
G1 X214.183 Y91.06 E.04278
G1 X214.377 Y92 E.03008
G1 X214.377 Y118 E.81521
G1 X213.985 Y119.307 E.04278
G1 X212.94 Y120.183 E.04278
G1 X212 Y120.377 E.03008
G1 X38 Y120.377 E5.45565
G1 X36.693 Y119.985 E.04278
G1 X35.817 Y118.94 E.04278
G1 X35.623 Y118 E.03008
G1 X35.623 Y92 E.81521
G1 X36.015 Y90.693 E.04278
G1 X37.014 Y89.855 E.0409
; printing object Lager-Torx.stl id:0 copy 0
;WIPE_START
G1 F8640
G1 X38 Y89.623 E-.23384
G1 X40.279 Y89.623 E-.52616
;WIPE_END
G1 E-.04 F2100
G1 Z.6 F10800
G1 X38.787 Y92.787
G1 Z.2
G1 E.8 F2100
;TYPE:Perimeter
;WIDTH:0.419999
G1 F1200
G1 X51.213 Y92.787 E.3896
G1 X51.217 Y98.288 E.17248
G1 X51.313 Y98.542 E.00852
G1 X51.526 Y98.727 E.00884
G1 X51.779 Y98.787 E.00815
G1 X198.221 Y98.787 E4.59161
G1 X198.292 Y98.783 E.0022
G1 X198.521 Y98.701 E.00764
G1 X198.721 Y98.486 E.00922
G1 X198.787 Y98.221 E.00854
G1 X198.787 Y92.787 E.17039
G1 X211.213 Y92.787 E.3896
G1 X211.213 Y117.213 E.76585
G1 X198.787 Y117.213 E.3896
G1 X198.783 Y111.712 E.17248
G1 X198.687 Y111.458 E.00852
G1 X198.474 Y111.273 E.00884
G1 X198.221 Y111.213 E.00815
G1 X51.779 Y111.213 E4.59161
G1 X51.479 Y111.299 E.00978
G1 X51.279 Y111.514 E.00922
G1 X51.213 Y111.779 E.00854
G1 X51.213 Y117.213 E.17039
G1 X38.787 Y117.213 E.3896
G1 X38.787 Y92.847 E.76397
G1 X38.41 Y92.41 F10800
;TYPE:External perimeter
G1 F1200
G1 X51.59 Y92.41 E.41325
G1 X51.59 Y98.221 E.18221
G1 X51.636 Y98.345 E.00414
G1 X51.779 Y98.41 E.0049
G1 X198.221 Y98.41 E4.59161
G1 X198.35 Y98.36 E.00431
G1 X198.41 Y98.221 E.00473
G1 X198.41 Y92.41 E.18221
G1 X211.59 Y92.41 E.41325
G1 X211.59 Y117.59 E.7895
G1 X198.41 Y117.59 E.41325
G1 X198.41 Y111.779 E.18221
M73 P0 R138
G1 X198.364 Y111.655 E.00414
G1 X198.221 Y111.59 E.0049
G1 X51.779 Y111.59 E4.59161
G1 X51.65 Y111.64 E.00431
G1 X51.59 Y111.779 E.00473
G1 X51.59 Y117.59 E.18221
G1 X38.41 Y117.59 E.41325
G1 X38.41 Y92.47 E.78762
G1 X38.784 Y92.552 F10800
;WIPE_START
G1 F8640
G1 X41.701 Y92.455 E-.76
;WIPE_END
G1 E-.04 F2100
G1 Z.6 F10800
G1 X210.337 Y92.9
G1 Z.2
G1 E.8 F2100
;TYPE:Solid infill
;WIDTH:0.420443
G1 F1200
G1 X210.93 Y93.494 E.02635
G1 X210.93 Y94.028 E.01676
G1 X209.972 Y93.07 E.04252
G1 X209.438 Y93.07 E.01676
G1 X210.93 Y94.562 E.06622
G1 X210.93 Y95.095 E.01676
G1 X208.905 Y93.07 E.08992
G1 X208.371 Y93.07 E.01676
G1 X210.93 Y95.629 E.11362
G1 X210.93 Y96.163 E.01676
G1 X207.837 Y93.07 E.13732
G1 X207.303 Y93.07 E.01676
G1 X210.93 Y96.697 E.16103
G1 X210.93 Y97.231 E.01676
G1 X206.769 Y93.07 E.18473
G1 X206.235 Y93.07 E.01676
G1 X210.93 Y97.765 E.20843
G1 X210.93 Y98.299 E.01676
G1 X205.701 Y93.07 E.23213
G1 X205.167 Y93.07 E.01676
G1 X210.93 Y98.833 E.25583
G1 X210.93 Y99.367 E.01676
G1 X204.633 Y93.07 E.27954
G1 X204.1 Y93.07 E.01676
G1 X210.93 Y99.9 E.30324
G1 X210.93 Y100.434 E.01676
G1 X203.566 Y93.07 E.32694
G1 X203.032 Y93.07 E.01676
G1 X210.93 Y100.968 E.35064
G1 X210.93 Y101.502 E.01676
G1 X202.498 Y93.07 E.37434
G1 X201.964 Y93.07 E.01676
G1 X210.93 Y102.036 E.39804
G1 X210.93 Y102.57 E.01676
G1 X201.43 Y93.07 E.42175
G1 X200.896 Y93.07 E.01676
G1 X210.93 Y103.104 E.44545
G1 X210.93 Y103.638 E.01676
G1 X200.362 Y93.07 E.46915
G1 X199.828 Y93.07 E.01676
G1 X210.93 Y104.172 E.49285
G1 X210.93 Y104.706 E.01676
G1 X199.294 Y93.07 E.51655
G1 X199.07 Y93.07 E.00705
G1 X199.069 Y93.379 E.0097
G1 X210.93 Y105.239 E.52654
G1 X210.93 Y105.773 E.01676
G1 X199.069 Y93.912 E.52656
G1 X199.068 Y94.446 E.01674
G1 X210.93 Y106.307 E.52659
G1 X210.93 Y106.841 E.01676
M73 P1 R138
G1 X199.068 Y94.979 E.52661
G1 X199.067 Y95.512 E.01674
G1 X210.93 Y107.375 E.52663
G1 X210.93 Y107.909 E.01676
G1 X199.067 Y96.046 E.52666
G1 X199.066 Y96.579 E.01674
G1 X210.93 Y108.443 E.52668
G1 X210.93 Y108.977 E.01676
G1 X199.066 Y97.112 E.5267
G1 X199.065 Y97.646 E.01674
G1 X210.93 Y109.511 E.52673
G1 X210.93 Y110.045 E.01676
G1 X199.065 Y98.179 E.52675
G1 X199.065 Y98.325 E.00457
G1 X198.972 Y98.62 E.00971
G1 X210.93 Y110.578 E.53088
G1 X210.93 Y111.112 E.01676
G1 X198.721 Y98.903 E.54201
G1 X198.516 Y99.018 E.00737
G1 X198.335 Y99.051 E.00579
G1 X210.93 Y111.646 E.55916
G1 X210.93 Y112.18 E.01676
G1 X197.82 Y99.07 E.58202
G1 X197.286 Y99.07 E.01676
G1 X210.93 Y112.714 E.60572
G1 X210.93 Y113.248 E.01676
G1 X196.752 Y99.07 E.62942
G1 X196.218 Y99.07 E.01676
G1 X210.93 Y113.782 E.65312
G1 X210.93 Y114.316 E.01676
G1 X195.684 Y99.07 E.67682
G1 X195.15 Y99.07 E.01676
G1 X210.93 Y114.85 E.70052
G1 X210.93 Y115.384 E.01676
G1 X194.616 Y99.07 E.72423
G1 X194.083 Y99.07 E.01676
G1 X210.93 Y115.917 E.74793
G1 X210.93 Y116.451 E.01676
G1 X193.549 Y99.07 E.77163
G1 X193.015 Y99.07 E.01676
G1 X210.875 Y116.93 E.79288
G1 X210.341 Y116.93 E.01676
G1 X192.481 Y99.07 E.79288
G1 X191.947 Y99.07 E.01676
G1 X209.807 Y116.93 E.79288
G1 X209.273 Y116.93 E.01676
G1 X191.413 Y99.07 E.79288
G1 X190.879 Y99.07 E.01676
G1 X208.739 Y116.93 E.79288
G1 X208.206 Y116.93 E.01676
G1 X190.345 Y99.07 E.79288
G1 X189.811 Y99.07 E.01676
G1 X207.672 Y116.93 E.79288
G1 X207.138 Y116.93 E.01676
G1 X189.277 Y99.07 E.79288
G1 X188.744 Y99.07 E.01676
G1 X206.604 Y116.93 E.79288
G1 X206.07 Y116.93 E.01676
G1 X188.21 Y99.07 E.79288
G1 X187.676 Y99.07 E.01676
G1 X205.536 Y116.93 E.79288
G1 X205.002 Y116.93 E.01676
G1 X187.142 Y99.07 E.79288
G1 X186.608 Y99.07 E.01676
G1 X204.468 Y116.93 E.79288
G1 X203.934 Y116.93 E.01676
M73 P1 R137
G1 X199.065 Y112.061 E.21617
G1 X199.066 Y112.595 E.01678
G1 X203.4 Y116.93 E.19244
G1 X202.867 Y116.93 E.01676
G1 X199.066 Y113.13 E.16872
G1 X199.067 Y113.664 E.01678
G1 X202.333 Y116.93 E.14499
G1 X201.799 Y116.93 E.01676
G1 X199.067 Y114.198 E.12127
G1 X199.068 Y114.733 E.01678
G1 X201.265 Y116.93 E.09754
G1 X200.731 Y116.93 E.01676
G1 X199.068 Y115.267 E.07382
G1 X199.069 Y115.802 E.01678
G1 X200.197 Y116.93 E.05009
G1 X199.663 Y116.93 E.01676
G1 X199.069 Y116.336 E.02637
G1 X199.07 Y116.871 E.01678
G1 X199.299 Y117.1 E.01018
;WIPE_START
G1 F8640
G1 X199.07 Y116.871 E-.07485
G1 X199.069 Y116.336 E-.1234
G1 X199.663 Y116.93 E-.19395
G1 X200.197 Y116.93 E-.12328
G1 X199.448 Y116.181 E-.24452
;WIPE_END
G1 E-.04 F2100
G1 Z.6 F10800
G1 X198.104 Y111.1
G1 Z.2
G1 E.8 F2100
G1 F1200
G1 X186.074 Y99.07 E.53405
G1 X185.54 Y99.07 E.01676
G1 X197.4 Y110.93 E.52652
G1 X196.867 Y110.93 E.01676
G1 X185.006 Y99.07 E.52652
G1 X184.472 Y99.07 E.01676
G1 X196.333 Y110.93 E.52652
G1 X195.799 Y110.93 E.01676
G1 X183.938 Y99.07 E.52652
G1 X183.405 Y99.07 E.01676
G1 X195.265 Y110.93 E.52652
G1 X194.731 Y110.93 E.01676
G1 X182.871 Y99.07 E.52652
G1 X182.337 Y99.07 E.01676
G1 X194.197 Y110.93 E.52652
G1 X193.663 Y110.93 E.01676
G1 X181.803 Y99.07 E.52652
G1 X181.269 Y99.07 E.01676
G1 X193.129 Y110.93 E.52652
G1 X192.595 Y110.93 E.01676
G1 X180.735 Y99.07 E.52652
G1 X180.201 Y99.07 E.01676
G1 X192.061 Y110.93 E.52652
G1 X191.528 Y110.93 E.01676
G1 X179.667 Y99.07 E.52652
G1 X179.133 Y99.07 E.01676
G1 X190.994 Y110.93 E.52652
G1 X190.46 Y110.93 E.01676
G1 X178.6 Y99.07 E.52652
G1 X178.066 Y99.07 E.01676
G1 X189.926 Y110.93 E.52652
G1 X189.392 Y110.93 E.01676
G1 X177.532 Y99.07 E.52652
G1 X176.998 Y99.07 E.01676
G1 X188.858 Y110.93 E.52652
G1 X188.324 Y110.93 E.01676
G1 X176.464 Y99.07 E.52652
G1 X175.93 Y99.07 E.01676
G1 X187.79 Y110.93 E.52652
G1 X187.256 Y110.93 E.01676
G1 X175.396 Y99.07 E.52652
G1 X174.862 Y99.07 E.01676
G1 X186.722 Y110.93 E.52652
G1 X186.189 Y110.93 E.01676
G1 X174.328 Y99.07 E.52652
G1 X173.794 Y99.07 E.01676
G1 X185.655 Y110.93 E.52652
G1 X185.121 Y110.93 E.01676
G1 X173.261 Y99.07 E.52652
G1 X172.727 Y99.07 E.01676
G1 X184.587 Y110.93 E.52652
G1 X184.053 Y110.93 E.01676
G1 X172.193 Y99.07 E.52652
G1 X171.659 Y99.07 E.01676
G1 X183.519 Y110.93 E.52652
G1 X182.985 Y110.93 E.01676
G1 X171.125 Y99.07 E.52652
G1 X170.591 Y99.07 E.01676
G1 X182.451 Y110.93 E.52652
G1 X181.917 Y110.93 E.01676
G1 X170.057 Y99.07 E.52652
G1 X169.523 Y99.07 E.01676
G1 X181.383 Y110.93 E.52652
G1 X180.85 Y110.93 E.01676
G1 X168.989 Y99.07 E.52652
G1 X168.455 Y99.07 E.01676
G1 X180.316 Y110.93 E.52652
G1 X179.782 Y110.93 E.01676
G1 X167.922 Y99.07 E.52652
G1 X167.388 Y99.07 E.01676
G1 X179.248 Y110.93 E.52652
G1 X178.714 Y110.93 E.01676
G1 X166.854 Y99.07 E.52652
G1 X166.32 Y99.07 E.01676
G1 X178.18 Y110.93 E.52652
G1 X177.646 Y110.93 E.01676
G1 X165.786 Y99.07 E.52652
G1 X165.252 Y99.07 E.01676
G1 X177.112 Y110.93 E.52652
G1 X176.578 Y110.93 E.01676
G1 X164.718 Y99.07 E.52652
G1 X164.184 Y99.07 E.01676
G1 X176.045 Y110.93 E.52652
G1 X175.511 Y110.93 E.01676
G1 X163.65 Y99.07 E.52652
G1 X163.116 Y99.07 E.01676
G1 X174.977 Y110.93 E.52652
G1 X174.443 Y110.93 E.01676
G1 X162.583 Y99.07 E.52652
G1 X162.049 Y99.07 E.01676
G1 X173.909 Y110.93 E.52652
G1 X173.375 Y110.93 E.01676
G1 X161.515 Y99.07 E.52652
G1 X160.981 Y99.07 E.01676
G1 X172.841 Y110.93 E.52652
G1 X172.307 Y110.93 E.01676
G1 X160.447 Y99.07 E.52652
G1 X159.913 Y99.07 E.01676
G1 X171.773 Y110.93 E.52652
G1 X171.239 Y110.93 E.01676
G1 X159.379 Y99.07 E.52652
G1 X158.845 Y99.07 E.01676
G1 X170.706 Y110.93 E.52652
G1 X170.172 Y110.93 E.01676
G1 X158.311 Y99.07 E.52652
G1 X157.777 Y99.07 E.01676
M73 P2 R137
G1 X169.638 Y110.93 E.52652
G1 X169.104 Y110.93 E.01676
G1 X157.244 Y99.07 E.52652
G1 X156.71 Y99.07 E.01676
G1 X168.57 Y110.93 E.52652
G1 X168.036 Y110.93 E.01676
G1 X156.176 Y99.07 E.52652
G1 X155.642 Y99.07 E.01676
G1 X167.502 Y110.93 E.52652
G1 X166.968 Y110.93 E.01676
G1 X155.108 Y99.07 E.52652
G1 X154.574 Y99.07 E.01676
G1 X166.434 Y110.93 E.52652
G1 X165.9 Y110.93 E.01676
G1 X154.04 Y99.07 E.52652
G1 X153.506 Y99.07 E.01676
G1 X165.367 Y110.93 E.52652
G1 X164.833 Y110.93 E.01676
G1 X152.972 Y99.07 E.52652
G1 X152.439 Y99.07 E.01676
G1 X164.299 Y110.93 E.52652
G1 X163.765 Y110.93 E.01676
G1 X151.905 Y99.07 E.52652
G1 X151.371 Y99.07 E.01676
G1 X163.231 Y110.93 E.52652
G1 X162.697 Y110.93 E.01676
M73 P2 R136
G1 X150.837 Y99.07 E.52652
G1 X150.303 Y99.07 E.01676
G1 X162.163 Y110.93 E.52652
G1 X161.629 Y110.93 E.01676
G1 X149.769 Y99.07 E.52652
G1 X149.235 Y99.07 E.01676
G1 X161.095 Y110.93 E.52652
G1 X160.561 Y110.93 E.01676
G1 X148.701 Y99.07 E.52652
G1 X148.167 Y99.07 E.01676
G1 X160.028 Y110.93 E.52652
G1 X159.494 Y110.93 E.01676
G1 X147.633 Y99.07 E.52652
G1 X147.1 Y99.07 E.01676
G1 X158.96 Y110.93 E.52652
G1 X158.426 Y110.93 E.01676
G1 X146.566 Y99.07 E.52652
G1 X146.032 Y99.07 E.01676
G1 X157.892 Y110.93 E.52652
G1 X157.358 Y110.93 E.01676
G1 X145.498 Y99.07 E.52652
G1 X144.964 Y99.07 E.01676
G1 X156.824 Y110.93 E.52652
G1 X156.29 Y110.93 E.01676
G1 X144.43 Y99.07 E.52652
G1 X143.896 Y99.07 E.01676
G1 X155.756 Y110.93 E.52652
G1 X155.222 Y110.93 E.01676
G1 X143.362 Y99.07 E.52652
G1 X142.828 Y99.07 E.01676
G1 X154.689 Y110.93 E.52652
G1 X154.155 Y110.93 E.01676
G1 X142.294 Y99.07 E.52652
G1 X141.761 Y99.07 E.01676
G1 X153.621 Y110.93 E.52652
G1 X153.087 Y110.93 E.01676
G1 X141.227 Y99.07 E.52652
G1 X140.693 Y99.07 E.01676
G1 X152.553 Y110.93 E.52652
G1 X152.019 Y110.93 E.01676
G1 X140.159 Y99.07 E.52652
G1 X139.625 Y99.07 E.01676
G1 X151.485 Y110.93 E.52652
G1 X150.951 Y110.93 E.01676
G1 X139.091 Y99.07 E.52652
G1 X138.557 Y99.07 E.01676
G1 X150.417 Y110.93 E.52652
G1 X149.884 Y110.93 E.01676
G1 X138.023 Y99.07 E.52652
G1 X137.489 Y99.07 E.01676
G1 X149.35 Y110.93 E.52652
G1 X148.816 Y110.93 E.01676
G1 X136.955 Y99.07 E.52652
G1 X136.422 Y99.07 E.01676
G1 X148.282 Y110.93 E.52652
G1 X147.748 Y110.93 E.01676
G1 X135.888 Y99.07 E.52652
G1 X135.354 Y99.07 E.01676
G1 X147.214 Y110.93 E.52652
G1 X146.68 Y110.93 E.01676
G1 X134.82 Y99.07 E.52652
G1 X134.286 Y99.07 E.01676
G1 X146.146 Y110.93 E.52652
G1 X145.612 Y110.93 E.01676
G1 X133.752 Y99.07 E.52652
G1 X133.218 Y99.07 E.01676
G1 X145.078 Y110.93 E.52652
G1 X144.545 Y110.93 E.01676
G1 X132.684 Y99.07 E.52652
G1 X132.15 Y99.07 E.01676
G1 X144.011 Y110.93 E.52652
G1 X143.477 Y110.93 E.01676
G1 X131.616 Y99.07 E.52652
G1 X131.083 Y99.07 E.01676
G1 X142.943 Y110.93 E.52652
G1 X142.409 Y110.93 E.01676
G1 X130.549 Y99.07 E.52652
G1 X130.015 Y99.07 E.01676
G1 X141.875 Y110.93 E.52652
G1 X141.341 Y110.93 E.01676
G1 X129.481 Y99.07 E.52652
G1 X128.947 Y99.07 E.01676
G1 X140.807 Y110.93 E.52652
G1 X140.273 Y110.93 E.01676
G1 X128.413 Y99.07 E.52652
G1 X127.879 Y99.07 E.01676
G1 X139.739 Y110.93 E.52652
G1 X139.206 Y110.93 E.01676
G1 X127.345 Y99.07 E.52652
G1 X126.811 Y99.07 E.01676
G1 X138.672 Y110.93 E.52652
G1 X138.138 Y110.93 E.01676
G1 X126.277 Y99.07 E.52652
G1 X125.744 Y99.07 E.01676
G1 X137.604 Y110.93 E.52652
G1 X137.07 Y110.93 E.01676
G1 X125.21 Y99.07 E.52652
G1 X124.676 Y99.07 E.01676
G1 X136.536 Y110.93 E.52652
G1 X136.002 Y110.93 E.01676
G1 X124.142 Y99.07 E.52652
G1 X123.608 Y99.07 E.01676
G1 X135.468 Y110.93 E.52652
G1 X134.934 Y110.93 E.01676
G1 X123.074 Y99.07 E.52652
G1 X122.54 Y99.07 E.01676
G1 X134.4 Y110.93 E.52652
G1 X133.867 Y110.93 E.01676
G1 X122.006 Y99.07 E.52652
G1 X121.472 Y99.07 E.01676
G1 X133.333 Y110.93 E.52652
G1 X132.799 Y110.93 E.01676
G1 X120.939 Y99.07 E.52652
G1 X120.405 Y99.07 E.01676
G1 X132.265 Y110.93 E.52652
G1 X131.731 Y110.93 E.01676
G1 X119.871 Y99.07 E.52652
G1 X119.337 Y99.07 E.01676
G1 X131.197 Y110.93 E.52652
G1 X130.663 Y110.93 E.01676
G1 X118.803 Y99.07 E.52652
G1 X118.269 Y99.07 E.01676
G1 X130.129 Y110.93 E.52652
G1 X129.595 Y110.93 E.01676
G1 X117.735 Y99.07 E.52652
G1 X117.201 Y99.07 E.01676
G1 X129.061 Y110.93 E.52652
G1 X128.528 Y110.93 E.01676
G1 X116.667 Y99.07 E.52652
G1 X116.133 Y99.07 E.01676
G1 X127.994 Y110.93 E.52652
G1 X127.46 Y110.93 E.01676
G1 X115.6 Y99.07 E.52652
G1 X115.066 Y99.07 E.01676
G1 X126.926 Y110.93 E.52652
G1 X126.392 Y110.93 E.01676
G1 X114.532 Y99.07 E.52652
G1 X113.998 Y99.07 E.01676
M73 P2 R135
G1 X125.858 Y110.93 E.52652
G1 X125.324 Y110.93 E.01676
G1 X113.464 Y99.07 E.52652
G1 X112.93 Y99.07 E.01676
G1 X124.79 Y110.93 E.52652
G1 X124.256 Y110.93 E.01676
G1 X112.396 Y99.07 E.52652
G1 X111.862 Y99.07 E.01676
G1 X123.722 Y110.93 E.52652
G1 X123.189 Y110.93 E.01676
G1 X111.328 Y99.07 E.52652
G1 X110.794 Y99.07 E.01676
G1 X122.655 Y110.93 E.52652
G1 X122.121 Y110.93 E.01676
G1 X110.261 Y99.07 E.52652
G1 X109.727 Y99.07 E.01676
G1 X121.587 Y110.93 E.52652
G1 X121.053 Y110.93 E.01676
G1 X109.193 Y99.07 E.52652
G1 X108.659 Y99.07 E.01676
G1 X120.519 Y110.93 E.52652
G1 X119.985 Y110.93 E.01676
G1 X108.125 Y99.07 E.52652
G1 X107.591 Y99.07 E.01676
G1 X119.451 Y110.93 E.52652
G1 X118.917 Y110.93 E.01676
G1 X107.057 Y99.07 E.52652
G1 X106.523 Y99.07 E.01676
M73 P3 R135
G1 X118.384 Y110.93 E.52652
G1 X117.85 Y110.93 E.01676
G1 X105.989 Y99.07 E.52652
G1 X105.455 Y99.07 E.01676
G1 X117.316 Y110.93 E.52652
G1 X116.782 Y110.93 E.01676
G1 X104.922 Y99.07 E.52652
G1 X104.388 Y99.07 E.01676
G1 X116.248 Y110.93 E.52652
G1 X115.714 Y110.93 E.01676
G1 X103.854 Y99.07 E.52652
G1 X103.32 Y99.07 E.01676
