; generated by PrusaSlicer 2.2.0+win64 on 2021-06-06 at 11:16:54 UTC

; 

; external perimeters extrusion width = 0.45mm
; perimeters extrusion width = 0.45mm
; infill extrusion width = 0.45mm
; solid infill extrusion width = 0.45mm
; top infill extrusion width = 0.40mm
; first layer extrusion width = 0.42mm

M73 P0 R12
M201 X9000 Y9000 Z500 E10000 ; sets maximum accelerations, mm/sec^2
M203 X500 Y500 Z12 E120 ; sets maximum feedrates, mm/sec
M204 P2000 R1500 T2000 ; sets acceleration (P, T) and retract acceleration (R), mm/sec^2
M205 X10.00 Y10.00 Z0.20 E2.50 ; sets the jerk limits, mm/sec
M205 S0 T0 ; sets the minimum extruding and travel feed rate, mm/sec
M107
M862.3 P "MK2S" ; printer model check
M862.1 P0.4 ; nozzle diameter check
M115 U3.2.3 ; tell printer latest fw version
G90 ; use absolute coordinates
M83 ; extruder relative mode
M204 S2000 T1500 ; MK2 firmware only supports the old M204 format
M104 S265 ; set extruder temp
M140 S100 ; set bed temp
M190 S100 ; wait for bed temp
M109 S265 ; wait for extruder temp
G28 W ; home all without mesh bed level
G80 ; mesh bed leveling
G1 Y-3.0 F1000.0 ; go outside print area
G92 E0.0
G1 X60.0 E9.0  F1000.0 ; intro line
M73 P0 R12
G1 X100.0 E12.5 F1000.0 ; intro line
G92 E0.0
G21 ; set units to millimeters
G90 ; use absolute coordinates
M83 ; use relative distances for extrusion
M900 K0.04 ; Filament gcode LA 1.5
M900 K20 ; Filament gcode LA 1.0
;BEFORE_LAYER_CHANGE
G92 E0.0
;0.2


G1 E-0.80000 F2100.00000
G1 Z0.400 F10800.000
;AFTER_LAYER_CHANGE
;0.2
G1 X103.820 Y84.404
G1 Z0.200
G1 E0.80000 F2100.00000
M204 S1000
G1 F1200.000
G1 X104.709 Y84.117 E0.02931
G1 X106.452 Y84.102 E0.05466
G1 X120.176 Y84.112 E0.43028
G1 X150.277 Y85.460 E0.94477
G1 X150.875 Y85.571 E0.01906
G1 X151.422 Y85.827 E0.01894
G1 X151.871 Y86.196 E0.01823
G1 X152.217 Y86.663 E0.01823
G1 X152.438 Y87.197 E0.01811
G1 X152.524 Y87.772 E0.01823
G1 X152.511 Y111.826 E0.75422
G1 X152.412 Y112.468 E0.02036
G1 X152.142 Y113.063 E0.02048
G1 X151.790 Y113.496 E0.01752
G1 X151.346 Y113.836 E0.01752
G1 X150.835 Y114.062 E0.01752
G1 X150.286 Y114.163 E0.01752
G1 X135.001 Y114.159 E0.47923
G1 X104.839 Y112.808 E0.94668
G1 X104.241 Y112.698 E0.01906
G1 X103.694 Y112.442 E0.01894
G1 X103.250 Y112.078 E0.01799
G1 X102.909 Y111.622 E0.01787
G1 X102.684 Y111.094 E0.01799
G1 X102.593 Y110.531 E0.01787
G1 X102.616 Y86.248 E0.76137
G1 X102.739 Y85.692 E0.01787
G1 X102.993 Y85.177 E0.01799
G1 X103.360 Y84.741 E0.01787
G1 X103.771 Y84.440 E0.01599
; printing object Logitech_foot_replacement_V3.stl id:1 copy 0
G1 F8640.000
G1 X104.709 Y84.117 E-0.22902
G1 X106.452 Y84.102 E-0.40257
G1 X107.009 Y84.102 E-0.12841
G1 E-0.04000 F2100.00000
G1 Z0.600 F10800.000
G1 X105.769 Y87.973
G1 Z0.200
G1 E0.80000 F2100.00000
G1 F1200.000
G1 X106.157 Y87.973 E0.01219
G1 X106.153 Y95.549 E0.23756
G1 X109.740 Y95.552 E0.11249
G1 X109.745 Y87.975 E0.23756
G1 X115.318 Y87.978 E0.17475
G1 X115.314 Y95.619 E0.23957
G1 X117.309 Y95.620 E0.06256
G1 X118.901 Y95.621 E0.04993
G1 X118.906 Y87.981 E0.23957
G1 X119.295 Y87.981 E0.01219
G1 X119.282 Y109.656 E0.67962
G1 X105.756 Y109.648 E0.42411
G1 X105.768 Y88.033 E0.67773
G1 F8640.000
G1 X106.157 Y87.973 E-0.09086
G1 X106.156 Y90.871 E-0.66914
G1 E-0.04000 F2100.00000
G1 Z0.600 F10800.000
G1 X106.530 Y95.173
G1 Z0.200
G1 E0.80000 F2100.00000
G1 F1200.000
G1 X109.364 Y95.174 E0.08884
G1 X109.368 Y87.598 E0.23756
G1 X115.696 Y87.602 E0.19840
G1 X115.691 Y95.242 E0.23957
G1 X118.524 Y95.244 E0.08884
G1 X118.529 Y87.603 E0.23957
G1 X119.672 Y87.604 E0.03584
G1 X119.659 Y110.033 E0.70326
G1 X105.378 Y110.025 E0.44775
G1 X105.392 Y87.595 E0.70326
G1 X106.535 Y87.596 E0.03584
G1 X106.530 Y95.113 E0.23568
G1 X106.550 Y95.572 F10800.000
G1 F8640.000
G1 X109.364 Y95.174 E-0.65439
G1 X109.364 Y94.717 E-0.10561
G1 E-0.04000 F2100.00000
G1 Z0.600 F10800.000
G1 X115.576 Y95.732
G1 Z0.200
G1 E0.80000 F2100.00000
G1 F1200.000
G1 X119.005 Y99.162 E0.15436
G1 X119.006 Y98.621 E0.01722
G1 X116.287 Y95.902 E0.12236
G1 X116.829 Y95.903 E0.01724
G1 X119.006 Y98.080 E0.09799
G1 X119.006 Y97.539 E0.01722
G1 X117.371 Y95.903 E0.07363
G1 X117.912 Y95.903 E0.01724
G1 X119.007 Y96.998 E0.04926
G1 X119.007 Y96.457 E0.01722
G1 X118.454 Y95.904 E0.02489
G1 X118.996 Y95.904 E0.01724
G1 X119.177 Y96.085 E0.00816
G1 F8640.000
G1 X118.996 Y95.904 E-0.05921
G1 X118.454 Y95.904 E-0.12507
G1 X119.007 Y96.457 E-0.18060
G1 X119.007 Y96.998 E-0.12492
G1 X118.179 Y96.170 E-0.27020
G1 E-0.04000 F2100.00000
G1 Z0.600 F10800.000
G1 X115.205 Y88.865
G1 Z0.200
G1 E0.80000 F2100.00000
G1 F1200.000
G1 X114.600 Y88.261 E0.02721
G1 X114.058 Y88.260 E0.01724
G1 X115.035 Y89.237 E0.04394
G1 X115.034 Y89.778 E0.01722
G1 X113.517 Y88.260 E0.06831
G1 X112.975 Y88.260 E0.01724
G1 X115.034 Y90.319 E0.09268
G1 X115.034 Y90.860 E0.01722
G1 X112.434 Y88.259 E0.11704
G1 X111.892 Y88.259 E0.01724
G1 X115.033 Y91.401 E0.14141
G1 X115.033 Y91.942 E0.01722
G1 X111.350 Y88.259 E0.16577
G1 X110.809 Y88.258 E0.01724
G1 X115.033 Y92.483 E0.19014
G1 X115.033 Y93.024 E0.01722
G1 X110.267 Y88.258 E0.21450
G1 X110.028 Y88.258 E0.00762
G1 X110.027 Y88.560 E0.00961
G1 X115.032 Y93.565 E0.22527
G1 X115.032 Y94.106 E0.01722
G1 X110.027 Y89.101 E0.22527
G1 X110.027 Y89.642 E0.01722
G1 X115.032 Y94.647 E0.22527
G1 X115.031 Y95.188 E0.01722
G1 X110.026 Y90.183 E0.22527
G1 X110.026 Y90.724 E0.01722
G1 X119.005 Y99.703 E0.40415
G1 X119.005 Y100.244 E0.01722
G1 X110.026 Y91.265 E0.40415
G1 X110.025 Y91.806 E0.01722
G1 X119.004 Y100.785 E0.40415
G1 X119.004 Y101.326 E0.01722
G1 X110.025 Y92.347 E0.40415
G1 X110.025 Y92.888 E0.01722
G1 X119.004 Y101.867 E0.40415
G1 X119.003 Y102.408 E0.01722
G1 X110.024 Y93.429 E0.40415
G1 X110.024 Y93.970 E0.01722
G1 X119.003 Y102.949 E0.40415
G1 X119.003 Y103.490 E0.01722
G1 X110.024 Y94.511 E0.40415
G1 X110.024 Y95.052 E0.01722
G1 X119.002 Y104.031 E0.40415
G1 X119.002 Y104.572 E0.01722
G1 X110.023 Y95.593 E0.40415
G1 X110.023 Y95.835 E0.00769
G1 X109.723 Y95.834 E0.00954
G1 X119.002 Y105.113 E0.41763
G1 X119.001 Y105.654 E0.01722
G1 X109.182 Y95.834 E0.44200
G1 X108.640 Y95.834 E0.01724
G1 X119.001 Y106.195 E0.46636
G1 X119.001 Y106.736 E0.01722
G1 X108.098 Y95.833 E0.49073
G1 X107.557 Y95.833 E0.01724
G1 X119.000 Y107.277 E0.51509
G1 X119.000 Y107.818 E0.01722
G1 X107.015 Y95.833 E0.53946
G1 X106.473 Y95.832 E0.01724
G1 X119.000 Y108.359 E0.56383
G1 X118.999 Y108.900 E0.01722
G1 X106.047 Y95.947 E0.58303
G1 X106.046 Y96.488 E0.01722
G1 X118.932 Y109.373 E0.57998
G1 X118.390 Y109.373 E0.01724
G1 X106.046 Y97.029 E0.55562
G1 X106.046 Y97.570 E0.01722
G1 X117.848 Y109.372 E0.53125
G1 X117.307 Y109.372 E0.01724
G1 X106.045 Y98.111 E0.50689
G1 X106.045 Y98.652 E0.01722
G1 X116.765 Y109.372 E0.48252
G1 X116.223 Y109.371 E0.01724
G1 X106.045 Y99.193 E0.45816
G1 X106.044 Y99.734 E0.01722
G1 X115.682 Y109.371 E0.43379
G1 X115.140 Y109.371 E0.01724
G1 X106.044 Y100.275 E0.40942
G1 X106.044 Y100.816 E0.01722
G1 X114.598 Y109.371 E0.38506
G1 X114.057 Y109.370 E0.01724
G1 X106.043 Y101.357 E0.36069
G1 X106.043 Y101.898 E0.01722
G1 X113.515 Y109.370 E0.33633
G1 X112.973 Y109.370 E0.01724
G1 X106.043 Y102.439 E0.31196
G1 X106.042 Y102.980 E0.01722
G1 X112.432 Y109.369 E0.28760
G1 X111.890 Y109.369 E0.01724
G1 X106.042 Y103.521 E0.26323
G1 X106.042 Y104.062 E0.01722
G1 X111.348 Y109.369 E0.23886
G1 X110.807 Y109.368 E0.01724
G1 X106.041 Y104.603 E0.21450
G1 X106.041 Y105.144 E0.01722
G1 X110.265 Y109.368 E0.19013
G1 X109.724 Y109.368 E0.01724
G1 X106.041 Y105.685 E0.16577
G1 X106.040 Y106.226 E0.01722
G1 X109.182 Y109.367 E0.14140
G1 X108.640 Y109.367 E0.01724
G1 X106.040 Y106.767 E0.11704
G1 X106.040 Y107.308 E0.01722
G1 X108.099 Y109.367 E0.09267
G1 X107.557 Y109.366 E0.01724
G1 X106.039 Y107.849 E0.06831
G1 X106.039 Y108.390 E0.01722
G1 X107.015 Y109.366 E0.04394
G1 X106.474 Y109.366 E0.01724
G1 X105.869 Y108.761 E0.02721
; stop printing object Logitech_foot_replacement_V3.stl id:1 copy 0
; printing object Logitech_foot_replacement_V3.stl id:0 copy 0
G1 F8640.000
G1 X106.474 Y109.366 E-0.19739
G1 X107.015 Y109.366 E-0.12507
G1 X106.039 Y108.390 E-0.31878
G1 X106.039 Y107.875 E-0.11877
G1 E-0.04000 F2100.00000
G1 Z0.600 F10800.000
G1 X136.218 Y96.896
G1 Z0.200
G1 E0.80000 F2100.00000
G1 F1200.000
G1 X139.806 Y96.899 E0.11249
G1 X139.810 Y89.322 E0.23756
G1 X145.384 Y89.325 E0.17475
G1 X145.379 Y96.966 E0.23957
G1 X148.967 Y96.968 E0.11249
G1 X148.971 Y89.328 E0.23957
G1 X149.360 Y89.328 E0.01219
G1 X149.347 Y111.003 E0.67962
G1 X135.821 Y110.995 E0.42411
G1 X135.834 Y89.320 E0.67962
G1 X136.223 Y89.320 E0.01219
G1 X136.218 Y96.836 E0.23568
G1 X136.596 Y96.520 F10800.000
G1 F1200.000
G1 X139.429 Y96.521 E0.08884
G1 X139.433 Y88.945 E0.23756
G1 X145.761 Y88.949 E0.19840
G1 X145.756 Y96.589 E0.23957
G1 X148.590 Y96.591 E0.08884
M73 P8 R11
G1 X148.594 Y88.950 E0.23957
G1 X149.737 Y88.951 E0.03584
G1 X149.724 Y111.380 E0.70326
G1 X135.444 Y111.372 E0.44775
G1 X135.457 Y88.942 E0.70326
G1 X136.600 Y88.943 E0.03584
G1 X136.596 Y96.460 E0.23568
G1 X136.615 Y96.919 F10800.000
G1 F8640.000
G1 X139.429 Y96.521 E-0.65439
G1 X139.429 Y96.064 E-0.10561
G1 E-0.04000 F2100.00000
G1 Z0.600 F10800.000
G1 X145.641 Y97.079
G1 Z0.200
G1 E0.80000 F2100.00000
G1 F1200.000
G1 X149.071 Y100.509 E0.15436
G1 X149.071 Y99.968 E0.01722
G1 X146.353 Y97.249 E0.12236
G1 X146.894 Y97.250 E0.01724
G1 X149.071 Y99.427 E0.09799
G1 X149.072 Y98.886 E0.01722
G1 X147.436 Y97.250 E0.07363
G1 X147.978 Y97.250 E0.01724
G1 X149.072 Y98.345 E0.04926
G1 X149.072 Y97.804 E0.01722
G1 X148.519 Y97.251 E0.02489
G1 X149.061 Y97.251 E0.01724
G1 X149.242 Y97.432 E0.00816
G1 F8640.000
G1 X149.061 Y97.251 E-0.05921
G1 X148.519 Y97.251 E-0.12507
G1 X149.072 Y97.804 E-0.18060
G1 X149.072 Y98.345 E-0.12492
G1 X148.244 Y97.517 E-0.27020
G1 E-0.04000 F2100.00000
G1 Z0.600 F10800.000
G1 X145.270 Y90.212
G1 Z0.200
G1 E0.80000 F2100.00000
G1 F1200.000
G1 X144.665 Y89.608 E0.02721
G1 X144.124 Y89.607 E0.01724
G1 X145.100 Y90.584 E0.04394
G1 X145.100 Y91.125 E0.01722
G1 X143.582 Y89.607 E0.06831
G1 X143.041 Y89.607 E0.01724
G1 X145.099 Y91.666 E0.09268
G1 X145.099 Y92.207 E0.01722
G1 X142.499 Y89.606 E0.11704
G1 X141.957 Y89.606 E0.01724
G1 X145.099 Y92.748 E0.14141
G1 X145.099 Y93.289 E0.01722
G1 X141.416 Y89.606 E0.16577
G1 X140.874 Y89.605 E0.01724
G1 X145.098 Y93.830 E0.19014
G1 X145.098 Y94.371 E0.01722
G1 X140.332 Y89.605 E0.21450
G1 X140.093 Y89.605 E0.00762
G1 X140.093 Y89.907 E0.00961
G1 X145.098 Y94.912 E0.22527
G1 X145.097 Y95.453 E0.01722
G1 X140.092 Y90.448 E0.22527
G1 X140.092 Y90.989 E0.01722
G1 X145.097 Y95.994 E0.22527
G1 X145.097 Y96.535 E0.01722
G1 X140.092 Y91.530 E0.22527
G1 X140.091 Y92.071 E0.01722
G1 X149.070 Y101.050 E0.40415
G1 X149.070 Y101.591 E0.01722
G1 X140.091 Y92.612 E0.40415
G1 X140.091 Y93.153 E0.01722
G1 X149.070 Y102.132 E0.40415
G1 X149.069 Y102.673 E0.01722
G1 X140.090 Y93.694 E0.40415
G1 X140.090 Y94.235 E0.01722
G1 X149.069 Y103.214 E0.40415
G1 X149.069 Y103.755 E0.01722
G1 X140.090 Y94.776 E0.40415
G1 X140.090 Y95.317 E0.01722
G1 X149.068 Y104.296 E0.40415
G1 X149.068 Y104.837 E0.01722
G1 X140.089 Y95.858 E0.40415
G1 X140.089 Y96.399 E0.01722
G1 X149.068 Y105.378 E0.40415
G1 X149.067 Y105.919 E0.01722
G1 X140.089 Y96.940 E0.40415
G1 X140.088 Y97.182 E0.00769
G1 X139.789 Y97.181 E0.00954
G1 X149.067 Y106.460 E0.41763
G1 X149.067 Y107.001 E0.01722
G1 X139.247 Y97.181 E0.44200
G1 X138.705 Y97.181 E0.01724
G1 X149.066 Y107.542 E0.46636
G1 X149.066 Y108.083 E0.01722
G1 X138.164 Y97.180 E0.49073
G1 X137.622 Y97.180 E0.01724
G1 X149.066 Y108.624 E0.51509
G1 X149.065 Y109.165 E0.01722
G1 X137.080 Y97.180 E0.53946
G1 X136.539 Y97.179 E0.01724
G1 X149.065 Y109.706 E0.56383
G1 X149.065 Y110.247 E0.01722
G1 X136.112 Y97.294 E0.58303
G1 X136.112 Y97.835 E0.01722
G1 X148.997 Y110.720 E0.57998
G1 X148.455 Y110.720 E0.01724
G1 X136.111 Y98.376 E0.55562
G1 X136.111 Y98.917 E0.01722
G1 X147.914 Y110.719 E0.53125
G1 X147.372 Y110.719 E0.01724
G1 X136.111 Y99.458 E0.50689
G1 X136.110 Y99.999 E0.01722
G1 X146.830 Y110.719 E0.48252
G1 X146.289 Y110.719 E0.01724
G1 X136.110 Y100.540 E0.45816
G1 X136.110 Y101.081 E0.01722
G1 X145.747 Y110.718 E0.43379
G1 X145.205 Y110.718 E0.01724
G1 X136.109 Y101.622 E0.40942
G1 X136.109 Y102.163 E0.01722
G1 X144.664 Y110.718 E0.38506
G1 X144.122 Y110.717 E0.01724
G1 X136.109 Y102.704 E0.36069
G1 X136.108 Y103.245 E0.01722
G1 X143.580 Y110.717 E0.33633
G1 X143.039 Y110.717 E0.01724
G1 X136.108 Y103.786 E0.31196
G1 X136.108 Y104.327 E0.01722
G1 X142.497 Y110.716 E0.28760
G1 X141.955 Y110.716 E0.01724
G1 X136.107 Y104.868 E0.26323
G1 X136.107 Y105.409 E0.01722
G1 X141.414 Y110.716 E0.23886
G1 X140.872 Y110.715 E0.01724
G1 X136.107 Y105.950 E0.21450
G1 X136.106 Y106.491 E0.01722
G1 X140.331 Y110.715 E0.19013
G1 X139.789 Y110.715 E0.01724
G1 X136.106 Y107.032 E0.16577
G1 X136.106 Y107.573 E0.01722
G1 X139.247 Y110.714 E0.14140
G1 X138.706 Y110.714 E0.01724
G1 X136.105 Y108.114 E0.11704
G1 X136.105 Y108.655 E0.01722
G1 X138.164 Y110.714 E0.09267
G1 X137.622 Y110.713 E0.01724
G1 X136.105 Y109.196 E0.06831
G1 X136.104 Y109.737 E0.01722
G1 X137.081 Y110.713 E0.04394
G1 X136.539 Y110.713 E0.01724
G1 X135.935 Y110.108 E0.02721
; stop printing object Logitech_foot_replacement_V3.stl id:0 copy 0
;BEFORE_LAYER_CHANGE
G92 E0.0
;0.4


G1 F8640.000
G1 X136.539 Y110.713 E-0.19739
G1 X137.081 Y110.713 E-0.12507
G1 X136.104 Y109.737 E-0.31878
G1 X136.105 Y109.222 E-0.11877
G1 E-0.04000 F2100.00000
G1 Z0.600 F10800.000
;AFTER_LAYER_CHANGE
;0.4
M140 S110 ; set bed temperature
G1 X103.820 Y84.404
G1 Z0.400
G1 E0.80000 F2100.00000
G1 F3000.000
G1 X104.709 Y84.117 E0.02931
G1 X106.452 Y84.102 E0.05466
G1 X120.176 Y84.112 E0.43028
G1 X150.277 Y85.460 E0.94477
G1 X150.875 Y85.571 E0.01906
G1 X151.422 Y85.827 E0.01894
G1 X151.871 Y86.196 E0.01823
G1 X152.217 Y86.663 E0.01823
G1 X152.438 Y87.197 E0.01811
G1 X152.524 Y87.772 E0.01823
G1 X152.511 Y111.826 E0.75422
G1 X152.412 Y112.468 E0.02036
G1 X152.142 Y113.063 E0.02048
G1 X151.790 Y113.496 E0.01752
G1 X151.346 Y113.836 E0.01752
G1 X150.835 Y114.062 E0.01752
G1 X150.286 Y114.163 E0.01752
G1 X135.001 Y114.159 E0.47923
G1 X104.839 Y112.808 E0.94668
G1 X104.241 Y112.698 E0.01906
G1 X103.694 Y112.442 E0.01894
G1 X103.250 Y112.078 E0.01799
G1 X102.909 Y111.622 E0.01787
G1 X102.684 Y111.094 E0.01799
G1 X102.593 Y110.531 E0.01787
G1 X102.616 Y86.248 E0.76137
G1 X102.739 Y85.692 E0.01787
G1 X102.993 Y85.177 E0.01799
G1 X103.360 Y84.741 E0.01787
G1 X103.771 Y84.440 E0.01599
; printing object Logitech_foot_replacement_V3.stl id:1 copy 0
G1 F8640.000
G1 X104.709 Y84.117 E-0.22902
G1 X106.452 Y84.102 E-0.40257
G1 X107.009 Y84.102 E-0.12841
G1 E-0.04000 F2100.00000
G1 Z0.800 F10800.000
G1 X106.308 Y95.394
G1 Z0.400
G1 E0.80000 F2100.00000
M204 S800
G1 F3000.000
G1 X109.586 Y95.396 E0.11094
G1 X109.590 Y87.385 E0.27117
G1 X115.474 Y87.389 E0.19915
G1 X115.469 Y95.464 E0.27334
G1 X118.746 Y95.466 E0.11094
G1 X118.751 Y87.391 E0.27334
G1 X119.450 Y87.391 E0.02366
G1 X119.437 Y109.741 E0.75653
G1 X105.600 Y109.733 E0.46834
G1 X105.614 Y87.383 E0.75653
G1 X106.313 Y87.383 E0.02366
G1 X106.308 Y95.334 E0.26914
M204 S1000
G1 X106.715 Y94.988 F10800.000
M204 S800
G1 F2400.000
G1 X109.179 Y94.989 E0.08338
G1 X109.183 Y86.978 E0.27117
G1 X115.881 Y86.982 E0.22670
G1 X115.876 Y95.057 E0.27334
G1 X118.340 Y95.059 E0.08338
G1 X118.344 Y86.983 E0.27334
G1 X119.857 Y86.984 E0.05122
G1 X119.844 Y110.149 E0.78409
G1 X105.193 Y110.140 E0.49590
G1 X105.207 Y86.976 E0.78409
G1 X106.720 Y86.976 E0.05122
G1 X106.715 Y94.928 E0.26914
M204 S1000
G1 X106.740 Y95.387 F10800.000
G1 F8640.000
G1 X109.179 Y94.989 E-0.56897
G1 X109.179 Y94.162 E-0.19103
G1 E-0.04000 F2100.00000
G1 Z0.800 F10800.000
G1 X105.958 Y95.598
G1 Z0.400
G1 E0.80000 F2100.00000
G1 F2400.000
G1 X105.963 Y87.587 E0.19439
G1 F8640.000
G1 X105.961 Y90.878 E-0.76000
G1 E-0.04000 F2100.00000
G1 Z0.800 F10800.000
G1 X110.538 Y87.508
G1 Z0.400
G1 E0.80000 F2100.00000
M204 S2000
G1 F3000.000
G1 X109.895 Y88.151 E0.03091
G1 X109.895 Y88.730 E0.01966
G1 X110.933 Y87.691 E0.04990
