; generated by Slic3r 1.33.8-prusa3d-win64 on 2017-04-13 at 18:47:27

; external perimeters extrusion width = 0.45mm
; perimeters extrusion width = 0.45mm
; infill extrusion width = 0.45mm
; solid infill extrusion width = 0.45mm
; top infill extrusion width = 0.40mm

M107
M115 U3.0.10 ; tell printer latest fw version
M83  ; extruder relative mode
M104 S215 ; set extruder temp
M140 S55 ; set bed temp
M190 S55 ; wait for bed temp
M109 S215 ; wait for extruder temp
G28 W ; home all without mesh bed level
G80 ; mesh bed leveling
G1 Y-3.0 F1000.0 ; go outside pritn area
G1 X60.0 E9.0  F1000.0 ; intro line
G1 X100.0 E12.5  F1000.0 ; intro line
G21 ; set units to millimeters
G90 ; use absolute coordinates
M83 ; use relative distances for extrusion
G1 E-0.80000 F2100.00000
G1 Z0.200 F7200.000
G1 X81.131 Y78.302 F7200.000
G1 E0.80000 F2100.00000
M204 S1000
G1 F2100
G1 X81.215 Y77.846 E0.01455
G1 X81.385 Y77.414 E0.01455
G1 X81.629 Y77.033 E0.01419
G1 X81.968 Y76.671 E0.01554
G1 X82.309 Y76.404 E0.01360
G1 X82.694 Y76.203 E0.01360
G1 X83.108 Y76.074 E0.01360
G1 X83.542 Y76.024 E0.01371
G1 X166.408 Y76.023 E2.59818
G1 X166.659 Y76.037 E0.00788
G1 X166.910 Y76.078 E0.00800
G1 X167.156 Y76.146 E0.00800
G1 X167.393 Y76.240 E0.00800
G1 X167.684 Y76.399 E0.01038
G1 X167.952 Y76.600 E0.01050
G1 X168.260 Y76.902 E0.01352
G1 X168.469 Y77.168 E0.01062
G1 X168.637 Y77.458 E0.01050
G1 X168.763 Y77.772 E0.01062
G1 X168.843 Y78.098 E0.01050
G1 X168.876 Y78.431 E0.01050
G1 X168.877 Y89.706 E0.35351
G1 X168.810 Y117.517 E0.87201
G1 X168.795 Y117.768 E0.00788
G1 X168.754 Y118.016 E0.00788
G1 X168.686 Y118.258 E0.00788
G1 X168.594 Y118.491 E0.00788
G1 X168.473 Y118.721 E0.00812
G1 X168.328 Y118.935 E0.00812
G1 X167.943 Y119.349 E0.01774
G1 X167.559 Y119.637 E0.01502
G1 X167.126 Y119.841 E0.01502
G1 X125.352 Y133.855 E1.38152
G1 X125.028 Y133.938 E0.01050
G1 X124.691 Y133.975 E0.01062
G1 X113.381 Y133.977 E0.35463
G1 X113.058 Y133.952 E0.01014
G1 X112.738 Y133.883 E0.01026
G1 X82.611 Y121.761 E1.01823
G1 X82.317 Y121.601 E0.01050
G1 X82.051 Y121.403 E0.01038
G1 X81.745 Y121.104 E0.01341
G1 X81.535 Y120.838 E0.01062
G1 X81.367 Y120.549 E0.01050
G1 X81.241 Y120.238 E0.01050
G1 X81.159 Y119.914 E0.01050
G1 X81.124 Y119.581 E0.01050
G1 X81.127 Y78.362 E1.29238
G1 F5760
G1 X81.215 Y77.846 E-0.18136
G1 F5760
G1 X81.385 Y77.414 E-0.16069
G1 F5760
G1 X81.629 Y77.033 E-0.15675
G1 F5760
G1 X81.968 Y76.671 E-0.17171
G1 F5760
G1 X82.172 Y76.512 E-0.08948
G1 E-0.04000 F2100.00000
G1 X114.264 Y109.164 F7200.000
G1 E0.80000 F2100.00000
G1 F1680
G1 X135.736 Y109.164 E0.67323
G1 X135.736 Y124.636 E0.48510
G1 X132.264 Y124.636 E0.10885
G1 X132.264 Y113.901 E0.33660
G1 X130.999 Y112.636 E0.05608
G1 X119.001 Y112.636 E0.37621
G1 X117.736 Y113.901 E0.05608
G1 X117.736 Y125.899 E0.37621
G1 X119.001 Y127.164 E0.05608
G1 X123.736 Y127.164 E0.14847
G1 X123.736 Y130.636 E0.10885
G1 X114.264 Y130.636 E0.29698
G1 X114.264 Y109.224 E0.67135
G1 X113.887 Y108.787 F7200.000
G1 F1680
G1 X136.113 Y108.787 E0.69688
G1 X136.113 Y125.013 E0.50875
G1 X131.887 Y125.013 E0.13250
G1 X131.887 Y114.057 E0.34352
G1 X130.843 Y113.013 E0.04629
G1 X119.157 Y113.013 E0.36642
G1 X118.113 Y114.057 E0.04629
G1 X118.113 Y125.743 E0.36642
G1 X119.157 Y126.787 E0.04629
G1 X124.113 Y126.787 E0.15539
G1 X124.113 Y131.013 E0.13250
G1 X113.887 Y131.013 E0.32062
G1 X113.887 Y108.847 E0.69499
G1 X113.510 Y108.410 F7200.000
G1 F1260
G1 X136.490 Y108.410 E0.72052
G1 X136.490 Y125.390 E0.53240
G1 X131.510 Y125.390 E0.15614
G1 X131.510 Y114.213 E0.35045
G1 X130.687 Y113.390 E0.03649
G1 X119.313 Y113.390 E0.35662
G1 X118.490 Y114.213 E0.03649
G1 X118.490 Y125.587 E0.35662
G1 X119.313 Y126.410 E0.03649
G1 X124.490 Y126.410 E0.16232
G1 X124.490 Y131.390 E0.15614
G1 X113.510 Y131.390 E0.34427
G1 X113.510 Y108.470 E0.71864
G1 X113.882 Y108.557 F7200.000
G1 F5760
G1 X115.704 Y108.464 E-0.76000
G1 E-0.04000 F2100.00000
G1 X130.554 Y112.523 F7200.000
G1 E0.80000 F2100.00000
G1 F1680
G1 X127.478 Y109.447 E0.13780
G1 X126.940 Y109.447 E0.01707
G1 X129.846 Y112.353 E0.13020
G1 X129.307 Y112.353 E0.01707
G1 X126.401 Y109.447 E0.13020
G1 X125.862 Y109.447 E0.01707
G1 X128.768 Y112.353 E0.13020
G1 X128.229 Y112.353 E0.01707
G1 X125.323 Y109.447 E0.13020
G1 X124.784 Y109.447 E0.01707
G1 X127.690 Y112.353 E0.13020
G1 X127.152 Y112.353 E0.01707
G1 X124.246 Y109.447 E0.13020
G1 X123.707 Y109.447 E0.01707
G1 X126.613 Y112.353 E0.13020
G1 X126.074 Y112.353 E0.01707
G1 X123.168 Y109.447 E0.13020
G1 X122.629 Y109.447 E0.01707
G1 X125.535 Y112.353 E0.13020
G1 X124.996 Y112.353 E0.01707
G1 X122.090 Y109.447 E0.13020
G1 X121.551 Y109.447 E0.01707
G1 X124.458 Y112.353 E0.13020
G1 X123.919 Y112.353 E0.01707
G1 X121.013 Y109.447 E0.13020
G1 X120.474 Y109.447 E0.01707
G1 X123.380 Y112.353 E0.13020
G1 X122.841 Y112.353 E0.01707
G1 X119.935 Y109.447 E0.13020
G1 X119.396 Y109.447 E0.01707
G1 X122.302 Y112.353 E0.13020
G1 X121.764 Y112.353 E0.01707
G1 X118.857 Y109.447 E0.13020
G1 X118.319 Y109.447 E0.01707
G1 X121.225 Y112.353 E0.13020
G1 X120.686 Y112.353 E0.01707
G1 X117.780 Y109.447 E0.13020
G1 X117.241 Y109.447 E0.01707
G1 X120.147 Y112.353 E0.13020
G1 X119.608 Y112.353 E0.01707
G1 X116.702 Y109.447 E0.13020
G1 X116.163 Y109.447 E0.01707
G1 X119.069 Y112.353 E0.13020
G1 X118.884 Y112.353 E0.00589
G1 X118.707 Y112.529 E0.00790
G1 X115.625 Y109.447 E0.13811
G1 X115.086 Y109.447 E0.01707
G1 X118.438 Y112.799 E0.15018
G1 X118.168 Y113.068 E0.01207
G1 X114.547 Y109.447 E0.16224
G1 X114.547 Y109.986 E0.01707
G1 X117.899 Y113.338 E0.15017
G1 X117.629 Y113.607 E0.01207
G1 X114.547 Y110.525 E0.13810
G1 X114.547 Y111.063 E0.01707
G1 X117.453 Y113.970 E0.13020
G1 X117.453 Y114.508 E0.01707
G1 X114.547 Y111.602 E0.13020
G1 X114.547 Y112.141 E0.01707
G1 X117.453 Y115.047 E0.13020
G1 X117.453 Y115.586 E0.01707
G1 X114.547 Y112.680 E0.13020
G1 X114.547 Y113.219 E0.01707
G1 X117.453 Y116.125 E0.13020
G1 X117.453 Y116.664 E0.01707
G1 X114.547 Y113.757 E0.13020
G1 X114.547 Y114.296 E0.01707
G1 X117.453 Y117.202 E0.13020
G1 X117.453 Y117.741 E0.01707
G1 X114.547 Y114.835 E0.13020
G1 X114.547 Y115.374 E0.01707
G1 X117.453 Y118.280 E0.13020
G1 X117.453 Y118.819 E0.01707
G1 X114.547 Y115.913 E0.13020
G1 X114.547 Y116.452 E0.01707
G1 X117.453 Y119.358 E0.13020
G1 X117.453 Y119.896 E0.01707
G1 X114.547 Y116.990 E0.13020
G1 X114.547 Y117.529 E0.01707
G1 X117.453 Y120.435 E0.13020
G1 X117.453 Y120.974 E0.01707
G1 X114.547 Y118.068 E0.13020
G1 X114.547 Y118.607 E0.01707
G1 X117.453 Y121.513 E0.13020
G1 X117.453 Y122.052 E0.01707
G1 X114.547 Y119.146 E0.13020
G1 X114.547 Y119.684 E0.01707
G1 X117.453 Y122.591 E0.13020
G1 X117.453 Y123.129 E0.01707
G1 X114.547 Y120.223 E0.13020
G1 X114.547 Y120.762 E0.01707
G1 X117.453 Y123.668 E0.13020
G1 X117.453 Y124.207 E0.01707
G1 X114.547 Y121.301 E0.13020
G1 X114.547 Y121.840 E0.01707
G1 X117.453 Y124.746 E0.13020
G1 X117.453 Y125.285 E0.01707
G1 X114.547 Y122.379 E0.13020
G1 X114.547 Y122.917 E0.01707
G1 X121.983 Y130.353 E0.33314
G1 X122.521 Y130.353 E0.01707
G1 X119.615 Y127.447 E0.13020
G1 X120.154 Y127.447 E0.01707
G1 X123.060 Y130.353 E0.13020
G1 X123.453 Y130.353 E0.01244
G1 X123.453 Y130.207 E0.00463
G1 X120.693 Y127.447 E0.12366
G1 X121.232 Y127.447 E0.01707
G1 X123.453 Y129.668 E0.09952
G1 X123.453 Y129.129 E0.01707
G1 X121.771 Y127.447 E0.07538
G1 X122.309 Y127.447 E0.01707
G1 X123.453 Y128.591 E0.05124
G1 X123.453 Y128.052 E0.01707
G1 X122.848 Y127.447 E0.02710
G1 X123.387 Y127.447 E0.01707
G1 X123.623 Y127.683 E0.01056
G1 F5760
G1 X123.387 Y127.447 E-0.11544
G1 F5760
G1 X122.848 Y127.447 E-0.18662
G1 F5760
G1 X123.453 Y128.052 E-0.29624
G1 F5760
G1 X123.453 Y128.519 E-0.16170
G1 E-0.04000 F2100.00000
G1 X121.614 Y130.523 F7200.000
G1 E0.80000 F2100.00000
G1 F1680
G1 X114.547 Y123.456 E0.31660
G1 X114.547 Y123.995 E0.01707
G1 X120.905 Y130.353 E0.28486
G1 X120.366 Y130.353 E0.01707
G1 X114.547 Y124.534 E0.26072
G1 X114.547 Y125.073 E0.01707
G1 X119.827 Y130.353 E0.23658
G1 X119.289 Y130.353 E0.01707
G1 X114.547 Y125.611 E0.21244
G1 X114.547 Y126.150 E0.01707
G1 X118.750 Y130.353 E0.18830
G1 X118.211 Y130.353 E0.01707
G1 X114.547 Y126.689 E0.16416
G1 X114.547 Y127.228 E0.01707
G1 X117.672 Y130.353 E0.14002
G1 X117.133 Y130.353 E0.01707
G1 X114.547 Y127.767 E0.11588
G1 X114.547 Y128.305 E0.01707
G1 X116.595 Y130.353 E0.09174
G1 X116.056 Y130.353 E0.01707
G1 X114.547 Y128.844 E0.06760
G1 X114.547 Y129.383 E0.01707
G1 X115.517 Y130.353 E0.04346
G1 X114.978 Y130.353 E0.01707
G1 X114.377 Y129.752 E0.02692
G1 F5760
G1 X114.978 Y130.353 E-0.29430
G1 F5760
G1 X115.517 Y130.353 E-0.18662
G1 F5760
G1 X114.947 Y129.783 E-0.27908
G1 E-0.04000 F2100.00000
G1 X132.377 Y124.044 F7200.000
G1 E0.80000 F2100.00000
G1 F1680
G1 X132.686 Y124.353 E0.01383
G1 X133.225 Y124.353 E0.01707
G1 X132.547 Y123.675 E0.03037
G1 X132.547 Y123.136 E0.01707
G1 X133.764 Y124.353 E0.05451
G1 X134.302 Y124.353 E0.01707
G1 X132.547 Y122.598 E0.07865
G1 X132.547 Y122.059 E0.01707
G1 X134.841 Y124.353 E0.10279
G1 X135.380 Y124.353 E0.01707
G1 X132.547 Y121.520 E0.12693
G1 X132.547 Y120.981 E0.01707
G1 X135.453 Y123.887 E0.13020
G1 X135.453 Y123.349 E0.01707
G1 X132.547 Y120.442 E0.13020
G1 X132.547 Y119.904 E0.01707
G1 X135.453 Y122.810 E0.13020
G1 X135.453 Y122.271 E0.01707
G1 X132.547 Y119.365 E0.13020
G1 X132.547 Y118.826 E0.01707
G1 X135.453 Y121.732 E0.13020
G1 X135.453 Y121.193 E0.01707
G1 X132.547 Y118.287 E0.13020
G1 X132.547 Y117.748 E0.01707
G1 X135.453 Y120.654 E0.13020
G1 X135.453 Y120.116 E0.01707
G1 X132.547 Y117.210 E0.13020
G1 X132.547 Y116.671 E0.01707
G1 X135.453 Y119.577 E0.13020
G1 X135.453 Y119.038 E0.01707
G1 X132.547 Y116.132 E0.13020
G1 X132.547 Y115.593 E0.01707
G1 X135.453 Y118.499 E0.13020
G1 X135.453 Y117.960 E0.01707
G1 X132.547 Y115.054 E0.13020
G1 X132.547 Y114.515 E0.01707
G1 X135.453 Y117.422 E0.13020
G1 X135.453 Y116.883 E0.01707
G1 X128.017 Y109.447 E0.33314
G1 X128.556 Y109.447 E0.01707
G1 X135.453 Y116.344 E0.30900
G1 X135.453 Y115.805 E0.01707
G1 X129.095 Y109.447 E0.28486
G1 X129.634 Y109.447 E0.01707
G1 X135.453 Y115.266 E0.26072
G1 X135.453 Y114.727 E0.01707
G1 X130.173 Y109.447 E0.23658
G1 X130.711 Y109.447 E0.01707
G1 X135.453 Y114.189 E0.21244
G1 X135.453 Y113.650 E0.01707
G1 X131.250 Y109.447 E0.18830
G1 X131.789 Y109.447 E0.01707
G1 X135.453 Y113.111 E0.16416
G1 X135.453 Y112.572 E0.01707
G1 X132.328 Y109.447 E0.14002
G1 X132.867 Y109.447 E0.01707
G1 X135.453 Y112.033 E0.11588
G1 X135.453 Y111.495 E0.01707
G1 X133.405 Y109.447 E0.09174
G1 X133.944 Y109.447 E0.01707
G1 X135.453 Y110.956 E0.06760
G1 X135.453 Y110.417 E0.01707
G1 X134.483 Y109.447 E0.04346
G1 X135.022 Y109.447 E0.01707
G1 X135.623 Y110.048 E0.02692
G1 F5760
G1 X135.022 Y109.447 E-0.29433
G1 F5760
G1 X134.483 Y109.447 E-0.18662
G1 F5760
G1 X135.053 Y110.017 E-0.27905
G1 E-0.04000 F2100.00000
G1 X143.997 Y113.164 F7200.000
G1 E0.80000 F2100.00000
G1 F1680
G1 X148.733 Y113.164 E0.14847
G1 X149.997 Y111.899 E0.05608
G1 X149.997 Y107.164 E0.14847
G1 X153.469 Y107.164 E0.10885
G1 X153.469 Y111.899 E0.14847
G1 X154.734 Y113.164 E0.05608
G1 X160.733 Y113.164 E0.18809
G1 X161.997 Y111.899 E0.05608
G1 X161.997 Y107.164 E0.14847
G1 X165.469 Y107.164 E0.10885
G1 X165.469 Y116.636 E0.29698
G1 X143.997 Y116.636 E0.67323
G1 X143.997 Y113.224 E0.10697
G1 F5760
G1 X146.192 Y113.196 E-0.76000
G1 E-0.04000 F2100.00000
G1 X148.577 Y112.787 F7200.000
G1 E0.80000 F2100.00000
G1 F1680
G1 X149.620 Y111.743 E0.04629
G1 X149.620 Y106.787 E0.15539
G1 X153.846 Y106.787 E0.13250
G1 X153.846 Y111.743 E0.15539
G1 X154.890 Y112.787 E0.04629
G1 X160.577 Y112.787 E0.17829
G1 X161.620 Y111.743 E0.04629
G1 X161.620 Y106.787 E0.15539
G1 X165.846 Y106.787 E0.13250
G1 X165.846 Y117.013 E0.32062
G1 X143.620 Y117.013 E0.69688
G1 X143.620 Y112.787 E0.13250
G1 X148.517 Y112.787 E0.15351
G1 X148.420 Y112.410 F7200.000
G1 F1260
G1 X149.243 Y111.587 E0.03649
G1 X149.243 Y106.410 E0.16232
G1 X154.223 Y106.410 E0.15614
G1 X154.223 Y111.587 E0.16232
G1 X155.046 Y112.410 E0.03649
G1 X160.420 Y112.410 E0.16850
G1 X161.243 Y111.587 E0.03649
G1 X161.243 Y106.410 E0.16232
G1 X166.223 Y106.410 E0.15614
G1 X166.223 Y117.390 E0.34427
G1 X143.243 Y117.390 E0.72052
G1 X143.243 Y112.410 E0.15614
G1 X148.360 Y112.410 E0.16044
G1 X148.806 Y112.516 F7200.000
G1 F5760
G1 X149.243 Y111.587 E-0.41808
G1 F5760
G1 X149.243 Y110.600 E-0.34192
G1 E-0.04000 F2100.00000
G1 X144.877 Y116.523 F7200.000
G1 E0.80000 F2100.00000
G1 F1680
G1 X144.280 Y115.926 E0.02662
G1 X144.280 Y115.390 E0.01691
G1 X145.244 Y116.353 E0.04296
G1 X145.780 Y116.353 E0.01691
G1 X144.280 Y114.853 E0.06687
G1 X144.280 Y114.317 E0.01691
G1 X146.316 Y116.353 E0.09079
G1 X146.853 Y116.353 E0.01691
G1 X144.280 Y113.781 E0.11470
G1 X144.280 Y113.447 E0.01053
G1 X144.483 Y113.447 E0.00638
G1 X147.389 Y116.353 E0.12958
G1 X147.925 Y116.353 E0.01691
G1 X145.019 Y113.447 E0.12958
G1 X145.555 Y113.447 E0.01691
G1 X148.461 Y116.353 E0.12958
G1 X148.998 Y116.353 E0.01691
G1 X146.091 Y113.447 E0.12958
G1 X146.628 Y113.447 E0.01691
G1 X149.534 Y116.353 E0.12958
G1 X150.070 Y116.353 E0.01691
G1 X147.164 Y113.447 E0.12958
G1 X147.700 Y113.447 E0.01691
G1 X150.606 Y116.353 E0.12958
G1 X151.143 Y116.353 E0.01691
G1 X148.236 Y113.447 E0.12958
G1 X148.773 Y113.447 E0.01691
G1 X151.679 Y116.353 E0.12958
G1 X152.215 Y116.353 E0.01691
G1 X149.079 Y113.217 E0.13982
G1 X149.348 Y112.949 E0.01196
G1 X152.751 Y116.353 E0.15177
G1 X153.288 Y116.353 E0.01691
G1 X149.616 Y112.681 E0.16373
G1 X149.884 Y112.413 E0.01196
G1 X153.824 Y116.353 E0.17568
G1 X154.360 Y116.353 E0.01691
G1 X150.152 Y112.145 E0.18764
G1 X150.280 Y112.016 E0.00572
G1 X150.280 Y111.737 E0.00881
G1 X154.896 Y116.353 E0.20583
G1 X155.433 Y116.353 E0.01691
G1 X150.280 Y111.201 E0.22974
G1 X150.280 Y110.664 E0.01691
G1 X155.969 Y116.353 E0.25365
G1 X156.505 Y116.353 E0.01691
G1 X150.280 Y110.128 E0.27756
G1 X150.280 Y109.592 E0.01691
G1 X157.211 Y116.523 E0.30904
G1 F5760
G1 X155.659 Y114.971 E-0.76000
G1 E-0.04000 F2100.00000
G1 X152.792 Y107.277 F7200.000
G1 E0.80000 F2100.00000
G1 F1680
G1 X153.186 Y107.672 E0.01759
G1 X153.186 Y108.208 E0.01691
G1 X152.425 Y107.447 E0.03394
G1 X151.889 Y107.447 E0.01691
G1 X153.186 Y108.744 E0.05785
G1 X153.186 Y109.281 E0.01691
G1 X151.353 Y107.447 E0.08176
G1 X150.816 Y107.447 E0.01691
G1 X153.186 Y109.817 E0.10567
G1 X153.186 Y110.353 E0.01691
G1 X150.280 Y107.447 E0.12958
G1 X150.280 Y107.983 E0.01691
G1 X153.186 Y110.889 E0.12958
G1 X153.186 Y111.426 E0.01691
G1 X150.280 Y108.519 E0.12958
G1 X150.280 Y109.056 E0.01691
G1 X157.578 Y116.353 E0.32538
G1 X158.114 Y116.353 E0.01691
G1 X155.208 Y113.447 E0.12958
G1 X155.744 Y113.447 E0.01691
G1 X158.650 Y116.353 E0.12958
G1 X159.186 Y116.353 E0.01691
G1 X156.280 Y113.447 E0.12958
G1 X156.816 Y113.447 E0.01691
G1 X159.723 Y116.353 E0.12958
G1 X160.259 Y116.353 E0.01691
G1 X157.353 Y113.447 E0.12958
G1 X157.889 Y113.447 E0.01691
G1 X160.795 Y116.353 E0.12958
G1 X161.331 Y116.353 E0.01691
G1 X158.425 Y113.447 E0.12958
G1 X158.961 Y113.447 E0.01691
G1 X161.868 Y116.353 E0.12958
G1 X162.404 Y116.353 E0.01691
G1 X159.498 Y113.447 E0.12958
G1 X160.034 Y113.447 E0.01691
G1 X162.940 Y116.353 E0.12958
G1 X163.476 Y116.353 E0.01691
G1 X160.570 Y113.447 E0.12958
G1 X160.850 Y113.447 E0.00882
G1 X160.978 Y113.319 E0.00572
G1 X164.013 Y116.353 E0.13530
G1 X164.549 Y116.353 E0.01691
G1 X161.246 Y113.050 E0.14726
G1 X161.514 Y112.782 E0.01196
G1 X165.085 Y116.353 E0.15922
G1 X165.186 Y116.353 E0.00319
G1 X165.186 Y115.918 E0.01371
G1 X161.783 Y112.514 E0.15178
