( Made using CamBam - http://www.cambam.co.uk )
( Beate_und_Kathi 3/29/2020 1:31:01 PM )
( T2 : 2.0 )
( T6 : 6.0 )
G21 G90 G64 G40
G0 Z3.0
( T6 : 6.0 )
T6 M6
( Tasche6mm )
G17
M3 S1000
G0 X-264.69617 Y-78.2
G0 Z1.0
G1 F300.0 Z-2.5
G3 F800.0 X-261.81657 Y-76.56982 I-44.7778 J82.45524
G3 X-259.49818 Y-78.2 I46.66973 J63.90851
G1 X-264.69617
G1 F300.0 Y-80.6
G1 F800.0 X-275.43155
G3 X-261.67455 Y-73.68392 I-34.04242 J84.85524
G3 X-260.73516 Y-74.38633 I39.98253 J52.49253
G3 X-250.82047 Y-80.6 I45.58832 J61.72502
G1 X-264.69617
G1 F300.0 Y-83.0
G1 F800.0 X-291.04648
G3 X-278.10988 Y-79.06052 I-33.18681 J132.19071
G3 X-277.41685 Y-78.8022 I-10.82762 J30.1074
G3 X-261.52159 Y-70.75654 I-32.05712 J83.05744
G3 X-259.31221 Y-72.45366 I39.82958 J49.56515
G3 X-239.19208 Y-83.0 I44.16536 J59.79235
G1 X-264.69617
G0 Z3.0
G0 X-168.85308 Y-80.6
G0 Z1.0
G1 F300.0 Z-2.5
G3 F800.0 X-167.05696 Y-79.66189 I-29.26011 J58.21026
G3 X-165.54968 Y-80.6 I34.71016 J54.08981
G1 X-168.85308
G1 F300.0 Y-83.0
G1 F800.0 X-181.07731
G3 X-174.29475 Y-80.44409 I-28.42 J85.69486
G3 X-166.95341 Y-76.85711 I-23.81844 J58.05436
G3 X-155.36432 Y-83.0 I34.60661 J51.28503
G1 X-168.85308
G0 Z3.0
G0 X-118.97342 Y-85.4
G0 Z1.0
G1 F300.0 Z-2.5
G3 F800.0 X-107.11056 Y-82.61779 I-7.91768 J60.44118
G3 X-97.92155 Y-85.4 I15.34763 J34.12399
G1 X-118.97342
G0 Z3.0
G0 X-71.58582 Y-83.0
G0 Z1.0
G1 F300.0 Z-2.5
G3 F800.0 X-67.02177 Y-80.09612 I-20.58858 J37.39776
G3 X-62.72353 Y-83.0 I26.22678 J34.18709
G1 X-71.58582
G1 F300.0 X-72.74328 Y-80.89755
G3 F800.0 X-66.99012 Y-77.05188 I-19.43112 J35.29531
G3 X-66.61894 Y-77.35201 I24.28199 J29.65117
G3 X-50.59296 Y-85.4 I25.82395 J31.44298
G1 X-85.89223
G3 X-72.74328 Y-80.89755 I-6.28217 J39.79776
G0 Z3.0
G0 X-30.48804 Y-85.4
G0 Z1.0
G1 F300.0 Z-2.5
G3 F800.0 X-29.6 Y-85.16262 I-9.62578 J37.78969
G1 Y-85.4
G1 X-30.48804
G0 Z3.0
G0 X-68.5977 Y-32.55044
G0 Z1.0
G1 F300.0 Z-2.5
G3 F800.0 X-68.89149 Y-31.9091 I-179.05935 J-81.63674
G3 X-68.91196 Y-31.86479 I-15.98351 J-7.35652
G2 X-71.80005 Y-25.43515 I267.5624 J124.0481
G2 X-72.65643 Y-19.67558 I30.22606 J7.43772
G3 X-72.67347 Y-19.40008 I-17.56961 J-0.94859
G2 X-72.98307 Y-9.96181 I127.89963 J8.91959
G3 X-72.98313 Y-9.80528 I-17.59506 J0.07118
G2 X-72.92676 Y-5.5539 I117.3928 J0.56939
G3 X-69.2873 Y-6.17558 I7.48557 J32.85833
G2 X-69.09991 Y-10.8838 I-3013.87618 J-122.31216
G3 X-69.09755 Y-10.94168 I17.58182 J0.68601
G2 X-68.56505 Y-30.45335 I-649.78686 J-27.49666
G2 X-68.5977 Y-32.55044 I-218.56487 J2.35387
G0 Z3.0
G0 X-92.58136 Y69.83423
G0 Z1.0
G1 F300.0 Z-2.5
G3 F800.0 X-95.68325 Y70.73278 I-30.52633 J-99.57693
G3 X-96.6785 Y71.0 I-20.91116 J-75.89537
G1 X-92.01783
G3 X-92.58136 Y69.83423 I47.76293 J-23.80765
G0 Z3.0
G0 X-32.1972 Y85.4
G0 Z1.0
G1 F300.0 Z-2.5
G1 F800.0 X-29.6
G1 Y84.60697
G3 X-32.1972 Y85.4 I-12.77968 J-37.20436
G0 Z3.0
G0 X-158.49191 Y67.4
G0 Z1.0
G1 F300.0 Z-2.5
G3 F800.0 X-162.89415 Y65.06973 I41.66938 J-84.04323
G3 X-167.14124 Y67.4 I-35.52959 J-59.71982
G1 X-158.49191
G1 F300.0 Y68.6
G1 F800.0 X-153.00953
G3 X-162.91126 Y63.67947 I36.187 J-85.24323
G3 X-169.73903 Y67.32297 I-35.51248 J-58.32956
G3 X-172.59055 Y68.6 I-37.40313 J-79.69667
G1 X-158.49191
G1 F300.0 Y71.0
G1 F800.0 X-138.17251
G3 X-162.95161 Y60.87622 I21.34998 J-87.64323
G3 X-170.7529 Y65.14763 I-35.47213 J-55.52631
G3 X-187.58299 Y71.0 I-36.38925 J-77.52133
G1 X-158.49191
G0 Z3.0
G0 X-233.41389
G0 Z1.0
G1 F300.0 Z-2.5
G3 F800.0 X-235.29628 Y70.4927 I20.87926 J-81.22034
G3 X-235.58809 Y71.0 I-64.42646 J-36.72172
G1 X-233.41389
G1 F300.0 Y73.4
G1 F800.0 X-87.96824
G3 X-91.06591 Y67.35236 I43.71335 J-26.20765
G3 X-91.66237 Y67.02738 I24.49889 J-45.67452
G3 X-96.31798 Y68.41823 I-31.44532 J-96.77008
G3 X-115.52877 Y71.15343 I-20.27643 J-73.58082
G3 X-163.00105 Y58.03924 I-1.29376 J-87.79666
G3 X-171.76676 Y62.97228 I-35.42269 J-52.68934
G3 X-193.542 Y69.74494 I-35.3754 J-75.34598
G3 X-211.73417 Y71.23684 I-17.94733 J-107.18578
G3 X-236.46524 Y67.64647 I-0.80046 J-81.45719
G3 X-238.32416 Y70.90956 I-63.2575 J-33.87549
G3 X-238.75798 Y71.61097 I-35.59078 J-21.52805
G3 X-239.92223 Y73.4 I-68.90508 J-43.56812
G1 X-233.41389
G1 F300.0 Y75.8
G1 F800.0 X-83.50302
G3 X-89.18733 Y65.62844 I39.24812 J-28.60765
G3 X-91.40497 Y64.41435 I22.6203 J-43.95059
G3 X-96.95273 Y66.10369 I-31.70271 J-94.15705
G3 X-115.5632 Y68.75368 I-19.64168 J-71.26628
G3 X-163.06089 Y55.16368 I-1.25933 J-85.39691
G3 X-172.78058 Y60.79692 I-35.36285 J-49.81377
G3 X-193.93623 Y67.37754 I-34.36158 J-73.17062
G3 X-211.74329 Y68.83682 I-17.5531 J-104.81838
G3 X-237.66422 Y64.74074 I-0.79134 J-79.05716
G3 X-240.37771 Y69.66742 I-62.05852 J-30.96977
G3 X-240.7865 Y70.32836 I-33.53723 J-20.2859
G3 X-244.57746 Y75.8 I-66.87656 J-42.2855
G1 X-233.41389
G1 F300.0 Y78.2
G1 F800.0 X-78.45978
G3 X-87.29589 Y63.89327 I34.20488 J-31.00765
G3 X-91.13106 Y61.78316 I20.72887 J-42.21543
G3 X-97.58749 Y63.78915 I-31.97663 J-91.52586
G3 X-115.59763 Y66.35393 I-19.00692 J-68.95174
G3 X-163.13273 Y52.24359 I-1.22489 J-82.99715
G3 X-173.79437 Y58.62154 I-35.29101 J-46.89368
G3 X-194.33046 Y65.01014 I-33.34778 J-70.99524
G3 X-211.75246 Y66.43679 I-17.15887 J-102.45098
G3 X-238.8986 Y61.76485 I-0.78217 J-76.65713
G3 X-242.43126 Y68.42527 I-60.82414 J-27.99388
G3 X-242.81502 Y69.04574 I-31.48368 J-19.04376
G3 X-249.60477 Y78.2 I-64.84804 J-41.00289
G1 X-233.41389
G1 F300.0 Y80.6
G1 F800.0 X-72.53853
G3 X-73.30792 Y79.92651 I29.60716 J-34.59951
G3 X-85.38918 Y62.14475 I29.05302 J-32.73417
G3 X-90.83824 Y59.13118 I18.82216 J-40.46691
G3 X-98.22227 Y61.47462 I-32.26945 J-88.87388
G3 X-115.63206 Y63.95417 I-18.37214 J-66.63721
G3 X-163.21855 Y49.27162 I-1.19046 J-80.5974
G3 X-174.80813 Y56.44614 I-35.20519 J-43.92171
G3 X-194.72468 Y62.64274 I-32.33402 J-68.81984
G3 X-211.7617 Y64.03676 I-16.76465 J-100.08358
G3 X-240.17533 Y58.70502 I-0.77293 J-74.2571
G3 X-244.48481 Y67.18312 I-59.5474 J-24.93405
G3 X-244.84354 Y67.76312 I-29.43013 J-17.80161
G3 X-255.11082 Y80.6 I-62.81952 J-39.72027
G1 X-233.41389
G1 F300.0 Y83.0
G1 F800.0 X-65.11072
G3 X-71.71088 Y78.13501 I22.17935 J-36.99951
G3 X-83.46409 Y60.38015 I27.45599 J-30.94266
G3 X-90.52358 Y56.45518 I16.89707 J-38.70231
G3 X-98.85705 Y59.16009 I-32.58411 J-86.19788
G3 X-115.66649 Y61.55442 I-17.73735 J-64.32267
G3 X-163.32085 Y46.23852 I-1.15603 J-78.19765
G3 X-175.82186 Y54.27073 I-35.10289 J-40.88862
G3 X-195.11889 Y60.27534 I-31.3203 J-66.64443
G3 X-211.771 Y61.63672 I-16.37044 J-97.71617
G3 X-241.50362 Y55.54301 I-0.76363 J-71.85706
G3 X-246.53837 Y65.94098 I-58.21911 J-21.77203
G3 X-246.87206 Y66.48051 I-27.37658 J-16.55946
G3 X-261.26575 Y83.0 I-60.791 J-38.43765
G1 X-233.41389
G1 F300.0 Y85.4
G1 F800.0 X-53.28818
G3 X-70.11384 Y76.3435 I10.35681 J-39.39951
G3 X-81.51657 Y58.59594 I25.85895 J-29.15115
G3 X-90.18346 Y53.75119 I14.94955 J-36.9181
G3 X-99.49186 Y56.84556 I-32.92423 J-83.49389
G3 X-115.70092 Y59.15467 I-17.10255 J-62.00815
G3 X-163.44282 Y43.13241 I-1.12161 J-75.79789
G3 X-176.83554 Y52.0953 I-34.98092 J-37.7825
G3 X-195.51309 Y57.90793 I-30.30662 J-64.469
G3 X-211.78038 Y59.23668 I-15.97624 J-95.34877
G3 X-241.86236 Y52.74577 I-0.75425 J-69.45703
G3 X-242.42625 Y52.47584 I12.49562 J-26.82788
G3 X-242.89286 Y52.24415 I29.76447 J-60.5293
G3 X-248.59192 Y64.69883 I-56.82988 J-18.47318
G3 X-248.90058 Y65.19789 I-25.32303 J-15.31732
G3 X-268.37333 Y85.4 I-58.76248 J-37.15504
G1 X-233.41389
G1 F300.0 Y87.8
G1 F800.0 X-27.2
G1 Y81.07751
G3 X-42.80193 Y84.33828 I-15.17968 J-33.67491
G3 X-68.51682 Y74.55198 I-0.12944 J-38.33778
G3 X-79.54123 Y56.7874 I24.26192 J-27.35963
G3 X-89.81332 Y51.01418 I12.9742 J-35.10956
G3 X-100.12668 Y54.53104 I-33.29437 J-80.75688
G3 X-115.73534 Y56.75491 I-16.46773 J-59.69362
G3 X-163.58869 Y39.93764 I-1.08719 J-73.39814
G3 X-177.84917 Y49.91984 I-34.83505 J-34.58773
G3 X-195.90728 Y55.54052 I-29.29299 J-62.29354
G3 X-211.78984 Y56.83664 I-15.58205 J-92.98136
G3 X-240.84904 Y50.57018 I-0.74479 J-67.05699
G3 X-241.3672 Y50.32215 I11.4823 J-24.6523
G3 X-244.35736 Y48.75413 I28.70542 J-58.3756
G3 X-250.64547 Y63.45669 I-55.36538 J-14.98316
G3 X-250.9291 Y63.91527 I-23.26947 J-14.07517
G3 X-269.91745 Y83.54818 I-56.73396 J-35.87242
G3 X-276.58105 Y87.8 I-47.04557 J-66.38382
G1 X-233.41389
G1 F300.0 Y90.2
G1 F800.0 X-24.8
G1 Y77.13195
G3 X-42.79225 Y81.93822 I-17.57968 J-29.72935
G3 X-66.91979 Y72.76045 I-0.13912 J-35.93773
G3 X-77.53064 Y54.94803 I22.6649 J-25.56811
G3 X-89.4073 Y48.23774 I10.96361 J-33.27019
G3 X-100.76152 Y52.21652 I-33.70038 J-77.98044
G3 X-115.76976 Y54.35516 I-15.83289 J-57.37911
G3 X-163.76416 Y36.63305 I-1.05277 J-70.99839
G3 X-178.86275 Y47.74435 I-34.65958 J-31.28315
G3 X-196.30146 Y53.17311 I-28.27941 J-60.11805
G3 X-211.79939 Y54.4366 I-15.18787 J-90.61395
G3 X-239.83571 Y48.3946 I-0.73524 J-64.65694
G3 X-240.30815 Y48.16845 I10.46898 J-22.47671
G3 X-245.93234 Y45.03415 I27.64637 J-56.22191
G3 X-252.69902 Y62.21454 I-53.7904 J-11.26318
G3 X-252.95763 Y62.63266 I-21.21592 J-12.83302
G3 X-271.2862 Y81.57661 I-54.70544 J-34.5898
G3 X-286.9446 Y90.2 I-45.67682 J-64.41225
G1 X-233.41389
G1 F300.0 Y92.6
G1 F800.0 X-22.4
G1 Y72.57015
G3 X-23.01287 Y73.04989 I-14.1085 J-17.39239
G3 X-42.78255 Y79.53816 I-19.36681 J-25.64728
G3 X-65.32278 Y70.96892 I-0.14882 J-33.53767
G3 X-75.47428 Y53.06865 I21.06788 J-23.77658
G3 X-88.9395 Y45.43062 I8.90726 J-31.39081
G3 X-90.24354 Y45.98449 I-22.3374 J-50.77882
G3 X-101.39639 Y49.90201 I-32.86415 J-75.72719
G3 X-115.80417 Y51.95541 I-15.19802 J-55.0646
G3 X-163.97724 Y33.18891 I-1.01835 J-68.59863
G3 X-179.87627 Y45.56884 I-34.4465 J-27.83901
G3 X-196.69563 Y50.8057 I-27.26589 J-57.94254
G3 X-211.80903 Y52.03655 I-14.7937 J-88.24654
G3 X-238.82239 Y46.21901 I-0.72559 J-62.25689
G3 X-239.2491 Y46.01475 I9.45566 J-20.30112
G3 X-247.66374 Y40.98856 I26.58732 J-54.06821
G3 X-254.75257 Y60.97239 I-52.059 J-7.21759
G3 X-254.98615 Y61.35004 I-19.16237 J-11.59088
G3 X-272.65489 Y79.60499 I-52.67692 J-33.30719
G3 X-291.30523 Y89.30118 I-44.30813 J-62.44063
G3 X-291.40286 Y89.33565 I-7.50498 J-21.10024
G3 X-305.26526 Y92.6 I-22.2953 J-63.61307
G1 X-233.41389
G0 Z3.0
G0 X-176.11069 Y-15.60169
G0 Z1.0
G1 F300.0 Z-2.5
G3 F800.0 X-176.10848 Y-16.05296 I55.82386 J0.0482
G3 X-176.11059 Y-16.28106 I74.8507 J-0.80826
G3 X-176.75643 Y-16.14653 I-5.40304 J-24.32143
G3 X-176.11069 Y-15.60169 I-25.03975 J30.33186
G1 F300.0 X-173.71069 Y-15.59962
G3 F800.0 X-173.70836 Y-16.05512 I53.42386 J0.04613
G3 X-173.66381 Y-19.52633 I72.45058 J-0.80611
G3 X-175.96328 Y-18.78301 I-6.22618 J-15.33253
G3 X-181.80761 Y-18.09006 I-5.55035 J-21.81947
G3 X-182.16597 Y-18.10092 I0.13573 J-10.39431
G3 X-184.08301 Y-18.26521 I1.20554 J-25.33473
G3 X-181.52184 Y-16.68332 I-43.24545 J72.88137
G3 X-181.39965 Y-16.6036 I-5.61879 J8.74582
G3 X-173.35175 Y-9.3708 I-20.39654 J30.78893
G3 X-173.71069 Y-15.59962 I53.06491 J-6.18269
G0 Z3.0
G0 X-364.55362 Y-79.15662
G0 Z1.0
G1 F300.0 Z-2.5
G2 F800.0 X-372.67597 Y-70.28923 I6.55362 J14.15662
G3 X-368.6845 Y-75.15516 I39.81867 J28.59272
G3 X-364.55362 Y-79.15662 I33.9252 J30.88944
G1 F300.0 X-362.99511 Y-77.33151
G3 F800.0 X-354.51438 Y-83.0 I28.23581 J33.06579
G1 X-358.0
G2 X-376.0 Y-65.0 I0.0 J18.0
G1 Y-59.3349
G3 X-374.98335 Y-61.66907 I39.60036 J15.85944
G3 X-374.89104 Y-61.86315 I28.93928 J13.64592
G3 X-366.9201 Y-73.52816 I42.03374 J20.16665
G3 X-362.99511 Y-77.33151 I32.1608 J29.26244
G1 F300.0 X-361.4366 Y-75.5064
G3 F800.0 X-335.45254 Y-85.34099 I26.67729 J31.24068
G3 X-335.09631 Y-85.34485 I0.49941 J29.59099
G3 X-308.01534 Y-83.71633 I1.01195 J209.15284
G3 X-278.92207 Y-76.80213 I-16.21795 J132.90704
G3 X-278.28103 Y-76.56319 I-10.01543 J27.849
G3 X-261.3545 Y-67.78041 I-31.19294 J80.81842
G3 X-257.88926 Y-70.52098 I39.66249 J46.58901
G3 X-233.2445 Y-82.28265 I42.74242 J57.85967
G3 X-233.19814 Y-82.29466 I7.44565 J28.64329
G3 X-209.72938 Y-85.18941 I22.80762 J88.32717
G3 X-175.21812 Y-78.22879 I0.23207 J87.88427
G3 X-166.84782 Y-74.01009 I-22.89507 J55.83905
G3 X-149.27202 Y-82.58171 I34.50102 J48.438
G3 X-149.24838 Y-82.58872 I8.42296 J28.37128
G3 X-135.34532 Y-85.4 I22.8388 J77.16405
G1 X-358.0
G2 X-378.4 Y-65.0 I0.0 J20.4
G1 Y65.0
G2 X-368.44637 Y82.52236 I20.4 J0.0
G3 X-376.23221 Y65.10976 I30.10478 J-23.90796
G3 X-376.41095 Y63.92309 I29.16971 J-5.00039
G3 X-377.02626 Y48.77242 I84.93853 J-11.03743
G3 X-376.6577 Y38.68547 I778.06422 J23.37908
G1 Y-43.48438
G3 X-376.65769 Y-43.50912 I29.5952 J0.0
G3 X-372.81258 Y-60.64548 I40.25805 J0.03366
G3 X-372.72719 Y-60.82499 I26.76851 J12.62232
G3 X-365.15568 Y-71.90118 I39.86989 J19.12849
G3 X-361.4366 Y-75.5064 I30.39637 J27.63546
G1 F300.0 X-359.87808 Y-73.68129
G3 F800.0 X-335.41204 Y-82.94133 I25.11878 J29.41557
G3 X-335.0847 Y-82.94488 I0.45891 J27.19133
G3 X-308.31025 Y-81.33451 I1.00034 J206.75287
G3 X-279.73426 Y-74.54374 I-15.92304 J130.52522
G3 X-279.14521 Y-74.32417 I-9.20324 J25.59061
G3 X-261.17095 Y-64.74748 I-30.32877 J78.57941
G3 X-256.46633 Y-68.5883 I39.47894 J43.55609
G3 X-232.6407 Y-79.95984 I41.31948 J55.92699
G3 X-232.5981 Y-79.97088 I6.84185 J26.32049
G3 X-209.7349 Y-82.78939 I22.20758 J86.00339
G3 X-176.14141 Y-76.01345 I0.2376 J85.48424
G3 X-166.73981 Y-71.11317 I-21.97178 J53.62371
G3 X-148.58896 Y-80.28096 I34.39301 J45.54108
G3 X-148.56724 Y-80.2874 I7.73991 J26.07053
G3 X-125.25358 Y-83.48909 I22.15766 J74.86274
G3 X-124.58548 Y-83.47099 I-0.40267 J27.19222
G3 X-107.5662 Y-80.23574 I-2.30562 J58.51217
G3 X-106.96973 Y-80.036 I-40.01071 J120.47139
G3 X-94.15342 Y-83.42863 I15.20679 J31.5422
G3 X-92.60831 Y-83.49029 I1.85654 J27.13176
G3 X-67.52002 Y-74.3747 I0.43392 J37.88805
G3 X-66.96172 Y-73.90298 I-22.66678 J27.393
G3 X-65.10859 Y-75.48676 I24.25359 J26.50227
G3 X-40.95597 Y-84.19698 I24.3136 J29.57773
G3 X-27.2 Y-81.85249 I0.84215 J36.58667
G1 Y-87.8
G1 X-358.0
G2 X-380.8 Y-65.0 I0.0 J22.8
G1 Y65.0
G2 X-359.56564 Y87.74618 I22.8 J0.0
G3 X-373.86671 Y64.70426 I21.22404 J-29.13178
G3 X-374.03096 Y63.61382 I26.80421 J-4.59488
G3 X-374.628 Y48.86623 I82.55854 J-10.72816
G3 X-374.2577 Y38.73713 I775.66596 J23.28527
G1 Y-43.48438
G3 X-374.25769 Y-43.50711 I27.1952 J0.0
G3 X-370.64181 Y-59.62188 I37.85805 J0.03165
G3 X-370.56335 Y-59.78684 I24.59773 J11.59872
G3 X-363.39122 Y-70.27422 I37.70605 J18.09034
G3 X-359.87808 Y-73.68129 I28.63192 J26.0085
G1 F300.0 X-358.31957 Y-71.85618
G3 F800.0 X-335.37154 Y-80.54167 I23.56026 J27.59046
G3 X-335.07309 Y-80.54491 I0.41841 J24.79167
G3 X-308.60515 Y-78.95269 I0.98873 J204.3529
G3 X-280.54646 Y-72.28534 I-15.62814 J128.1434
G3 X-280.00939 Y-72.08515 I-8.39104 J23.33222
G3 X-260.968 Y-61.64763 I-29.46459 J76.34039
G3 X-255.0434 Y-66.65561 I39.27598 J40.45623
G3 X-232.0369 Y-77.63704 I39.89656 J53.9943
G3 X-231.99806 Y-77.6471 I6.23805 J23.99768
G3 X-209.74042 Y-80.38936 I21.60754 J83.67961
G3 X-177.06461 Y-73.79807 I0.24312 J83.08422
G3 X-166.62891 Y-68.15653 I-21.04858 J51.40833
G3 X-147.90591 Y-77.98022 I34.28211 J42.58445
G3 X-147.8861 Y-77.98609 I7.05686 J23.76979
G3 X-125.28912 Y-81.08936 I21.47653 J72.56142
G3 X-124.67997 Y-81.07285 I-0.36713 J24.79248
G3 X-108.34059 Y-77.96403 I-2.21113 J56.11403
G3 X-106.79519 Y-77.43976 I-39.23631 J118.19968
G3 X-93.98958 Y-81.03423 I15.03225 J28.94597
G3 X-92.58083 Y-81.09045 I1.6927 J24.73735
G3 X-69.06595 Y-72.53879 I0.40643 J35.48821
G3 X-66.91383 Y-70.59577 I-21.12086 J25.55708
G3 X-63.59826 Y-73.62149 I24.2057 J23.19506
G3 X-40.92329 Y-81.79709 I22.80327 J27.71246
G3 X-24.8 Y-78.18609 I0.80947 J34.18678
G1 Y-90.2
G1 X-358.0
G2 X-383.2 Y-65.0 I0.0 J25.2
G1 Y65.0
G2 X-358.0 Y90.2 I25.2 J0.0
G1 X-350.02419
G3 X-351.51413 Y89.57174 I19.28463 J-47.81501
G3 X-371.50122 Y64.29876 I13.17253 J-30.95734
G3 X-371.65097 Y63.30455 I24.43872 J-4.18938
G3 X-372.22974 Y48.96032 I80.17855 J-10.41889
G3 X-371.8577 Y38.78886 I773.2677 J23.19118
G1 Y-43.48438
G3 X-371.85769 Y-43.50511 I24.7952 J0.0
G3 X-368.47104 Y-58.59828 I35.45805 J0.02965
G3 X-368.3995 Y-58.74868 I22.42696 J10.57512
G3 X-361.62673 Y-68.64729 I35.5422 J17.05218
G3 X-358.31957 Y-71.85618 I26.86743 J24.38157
G1 F300.0 X-356.76105 Y-70.03106
G3 F800.0 X-335.33104 Y-78.14201 I22.00175 J25.76535
G3 X-335.06148 Y-78.14494 I0.37791 J22.39201
G3 X-308.90004 Y-76.57087 I0.97711 J201.95293
G3 X-281.35865 Y-70.02695 I-15.33326 J125.76158
G3 X-280.87356 Y-69.84614 I-7.57885 J21.07382
G3 X-260.74186 Y-58.46779 I-28.60041 J74.10137
G3 X-253.62049 Y-64.7229 I39.04984 J37.27639
G3 X-231.4331 Y-75.31423 I38.47364 J52.06159
G3 X-231.39802 Y-75.32332 I5.63425 J21.67487
G3 X-209.74593 Y-77.98934 I21.0075 J81.35583
G3 X-177.98772 Y-71.58264 I0.24863 J80.68419
G3 X-166.5145 Y-65.1273 I-20.12547 J49.19291
G3 X-147.22285 Y-75.67947 I34.1677 J39.55522
G3 X-147.20497 Y-75.68477 I6.3738 J21.46904
G3 X-125.32465 Y-78.68962 I20.79539 J70.26011
G3 X-124.77447 Y-78.67471 I-0.3316 J22.39274
G3 X-109.11521 Y-75.69238 I-2.11663 J53.71589
G3 X-106.58817 Y-74.82318 I-38.4617 J115.92803
G3 X-106.41119 Y-74.92233 I11.03364 J19.48855
G3 X-93.82573 Y-78.63983 I14.64825 J26.42853
G3 X-92.55334 Y-78.69061 I1.52886 J22.34295
G3 X-70.61184 Y-70.70284 I0.37895 J33.08837
G3 X-66.86365 Y-67.02919 I-19.57496 J23.72113
G3 X-62.08796 Y-71.75618 I24.15552 J19.62848
G3 X-40.89057 Y-79.39718 I21.29297 J25.84715
G3 X-22.4 Y-74.01541 I0.77675 J31.78687
G1 Y-92.6
G1 X-358.0
G2 X-385.6 Y-65.0 I0.0 J27.6
G1 Y65.0
G2 X-358.0 Y92.6 I27.6 J0.0
G1 X-327.84899
G3 X-337.32049 Y91.09995 I6.58224 J-72.21347
G3 X-350.56081 Y87.36915 I6.58093 J-48.71496
G3 X-369.13572 Y63.89325 I12.21921 J-28.75475
G3 X-369.27098 Y62.99528 I22.07322 J-3.78388
G3 X-369.83149 Y49.05471 I77.79856 J-10.10962
G3 X-369.4577 Y38.84068 I770.86945 J23.09678
G1 Y-43.48438
G3 X-369.45769 Y-43.5031 I22.3952 J0.0
G3 X-366.30027 Y-57.57468 I33.05805 J0.02764
G3 X-366.23565 Y-57.71053 I20.25619 J9.55153
G3 X-359.8622 Y-67.02038 I33.37835 J16.01403
G3 X-356.76105 Y-70.03106 I25.1029 J22.75466
G1 F300.0 X-355.20254 Y-68.20595
G3 F800.0 X-335.29054 Y-75.74235 I20.44324 J23.94023
G3 X-335.04987 Y-75.74497 I0.33742 J19.99235
G3 X-309.1949 Y-74.18905 I0.9655 J199.55296
G3 X-282.17084 Y-67.76855 I-15.03839 J123.37976
G3 X-281.73774 Y-67.60712 I-6.76666 J18.81543
G3 X-260.48755 Y-55.19076 I-27.73623 J71.86236
G3 X-252.19759 Y-62.79019 I38.79553 J33.99937
G3 X-230.8293 Y-72.99143 I37.05074 J50.12888
G3 X-230.79798 Y-72.99954 I5.03045 J19.35207
G3 X-209.75144 Y-75.58931 I20.40746 J79.03205
G3 X-178.91071 Y-69.36717 I0.25413 J78.28416
G3 X-166.39574 Y-62.00813 I-19.20248 J46.97743
G3 X-146.5398 Y-73.37872 I34.04894 J36.43605
G3 X-146.52383 Y-73.38346 I5.69075 J19.16829
G3 X-125.36019 Y-76.28988 I20.11425 J67.95879
G3 X-124.86897 Y-76.27657 I-0.29606 J19.99301
G3 X-109.89006 Y-73.42082 I-2.02213 J51.31775
G3 X-106.35385 Y-72.18655 I-37.68685 J113.65646
G3 X-105.41329 Y-72.7304 I31.91363 J54.10809
G3 X-105.24772 Y-72.82319 I9.85876 J17.39577
G3 X-93.66189 Y-76.24543 I13.48479 J24.3294
G3 X-92.52586 Y-76.29076 I1.36502 J19.94855
G3 X-72.15769 Y-68.86682 I0.35146 J30.68853
G3 X-66.80965 Y-63.029 I-18.02911 J21.88511
G3 X-60.5777 Y-69.89082 I24.10152 J15.62829
G3 X-40.8578 Y-76.99726 I19.78271 J23.98179
G3 X-20.0 Y-69.04814 I0.74398 J29.38694
G1 Y-95.0
G1 X-358.0
G2 X-388.0 Y-65.0 I0.0 J30.0
G1 Y65.0
G2 X-358.0 Y95.0 I30.0 J0.0
G1 X-20.0
G1 Y66.91338
G3 X-23.91112 Y70.70561 I-23.35221 J-20.17136
G3 X-24.45914 Y71.13461 I-12.59738 J-15.52785
G3 X-42.77281 Y77.13809 I-17.92054 J-23.732
G3 X-63.72577 Y69.17738 I-0.15856 J-31.1376
G3 X-73.35657 Y51.13561 I19.47088 J-21.98503
G3 X-88.07927 Y42.91651 I6.78954 J-29.45776
G3 X-88.42922 Y42.55705 I21.48744 J-21.26884
G3 X-91.17627 Y43.77301 I-22.84768 J-47.90525
G3 X-102.03127 Y47.5875 I-31.93142 J-73.51571
G3 X-115.83858 Y49.55565 I-14.56314 J-52.75009
G3 X-163.22752 Y30.57792 I-0.98394 J-66.19888
G3 X-164.26251 Y29.59238 I42.94068 J-46.13141
G3 X-164.39106 Y29.77362 I-16.37339 J-11.47694
G3 X-180.88972 Y43.39329 I-34.03268 J-24.42371
G3 X-197.08978 Y48.43829 I-26.25244 J-55.76699
G3 X-211.81879 Y49.6365 I-14.39955 J-85.87912
G3 X-237.80907 Y44.04342 I-0.71584 J-59.85684
G3 X-238.19005 Y43.86105 I8.44233 J-18.12554
G3 X-249.63684 Y36.43984 I25.52827 J-51.91451
G3 X-256.80612 Y59.73025 I-50.08589 J-2.66887
G3 X-257.01467 Y60.06742 I-17.10882 J-10.34873
G3 X-274.02351 Y77.63331 I-50.6484 J-32.02457
G3 X-292.10951 Y87.03996 I-42.93951 J-60.46895
G3 X-292.19667 Y87.07073 I-6.7007 J-18.83902
G3 X-313.66519 Y90.72957 I-21.50148 J-61.34815
G3 X-324.68072 Y90.4162 I-0.59896 J-172.71056
G3 X-336.89374 Y88.73568 I3.41397 J-70.02966
G3 X-349.60769 Y85.16646 I6.15418 J-46.35069
G3 X-366.77023 Y63.48775 I11.26609 J-26.55206
G3 X-366.89099 Y62.68601 I19.70773 J-3.37838
G3 X-367.43325 Y49.14942 I75.41857 J-9.80035
G3 X-367.0577 Y38.89257 I768.47121 J23.00208
G1 Y-43.48438
G3 X-367.05769 Y-43.50109 I19.9952 J0.0
G3 X-364.12949 Y-56.55109 I30.65805 J0.02563
G3 X-364.07181 Y-56.67237 I18.08542 J8.52793
G3 X-358.09762 Y-65.39352 I31.2145 J14.97587
G3 X-355.20254 Y-68.20595 I23.33831 J21.1278
G1 F300.0 X-353.64402 Y-66.38084
G3 F800.0 X-335.25004 Y-73.34269 I18.88472 J22.11512
G3 X-335.03826 Y-73.34499 I0.29692 J17.59269
G3 X-309.48976 Y-71.80723 I0.95389 J197.15298
G3 X-282.98304 Y-65.51016 I-14.74353 J120.99794
G3 X-282.60192 Y-65.3681 I-5.95446 J16.55704
G3 X-261.99193 Y-53.32056 I-26.87205 J69.62334
G3 X-260.1837 Y-51.8115 I-34.34956 J42.99738
G3 X-250.7747 Y-60.85747 I38.49168 J30.62011
G3 X-230.2255 Y-70.66862 I35.62786 J48.19616
G3 X-230.19794 Y-70.67576 I4.42666 J17.02926
G3 X-209.75693 Y-73.18928 I19.80742 J76.70827
G3 X-179.83359 Y-67.15164 I0.25963 J75.88413
G3 X-166.43919 Y-58.92095 I-18.2796 J44.7619
G3 X-166.27051 Y-58.77579 I-19.43383 J22.75341
G3 X-145.85675 Y-71.07797 I33.92371 J33.20371
G3 X-145.84269 Y-71.08214 I5.0077 J16.86754
G3 X-125.39572 Y-73.89015 I19.43311 J65.65748
G3 X-124.96346 Y-73.87843 I-0.26053 J17.59327
G3 X-110.66517 Y-71.14933 I-1.92764 J48.91962
G3 X-106.10658 Y-69.53366 I-36.91174 J111.38498
G3 X-104.22995 Y-70.6424 I31.66635 J51.4552
G3 X-104.08426 Y-70.72406 I8.67542 J15.30778
G3 X-93.49805 Y-73.85103 I12.32133 J22.23027
G3 X-92.49837 Y-73.89092 I1.20118 J17.55415
G3 X-73.7035 Y-67.03074 I0.32398 J28.28868
G3 X-66.7477 Y-58.12942 I-16.4833 J20.04903
G3 X-59.06748 Y-68.02541 I24.03958 J10.72871
G3 X-40.82497 Y-74.5973 I18.27249 J22.11638
G3 X-18.41079 Y-63.6659 I0.71115 J26.98699
G3 X-17.86639 Y-62.88685 I-14.14521 J10.46442
G3 X-17.6 Y-62.47679 I-30.02657 J19.79757
G1 Y-97.4
G1 X-358.0
G2 X-390.4 Y-65.0 I0.0 J32.4
G1 Y65.0
G2 X-358.0 Y97.4 I32.4 J0.0
G1 X-17.6
G1 Y58.85176
G3 X-17.66392 Y58.98752 I-36.32272 J-17.01887
G3 X-17.72196 Y59.10899 I-15.90494 J-7.52489
G3 X-25.42317 Y68.84182 I-25.63025 J-12.36696
G3 X-25.90541 Y69.21932 I-11.08533 J-13.66406
G3 X-42.76304 Y74.738 I-16.47427 J-21.81672
G3 X-62.12878 Y67.38582 I-0.16834 J-28.73751
G3 X-71.15299 Y49.12747 I17.87389 J-20.19348
G3 X-86.37248 Y41.22925 I4.58596 J-27.44963
G3 X-87.86645 Y39.59489 I19.78064 J-19.58158
G3 X-92.10882 Y41.56145 I-23.41045 J-44.94309
G3 X-102.66619 Y45.27301 I-30.99887 J-71.30415
G3 X-115.87299 Y47.1559 I-13.92822 J-50.43559
G3 X-161.56851 Y28.84333 I-0.94954 J-63.79913
G3 X-164.67918 Y25.733 I41.28168 J-44.39682
G3 X-165.94929 Y27.80536 I-31.6613 J-17.97913
G3 X-166.34091 Y28.3743 I-14.68661 J-9.68992
G3 X-181.90309 Y41.2177 I-32.08283 J-23.02439
G3 X-197.48392 Y46.07087 I-25.23907 J-53.5914
G3 X-211.82866 Y47.23644 I-14.00541 J-83.5117
G3 X-236.79574 Y41.86784 I-0.70597 J-57.45679
G3 X-237.13099 Y41.70736 I7.42901 J-15.94995
G3 X-252.00822 Y31.02005 I24.46921 J-49.76082
G3 X-251.96692 Y33.44131 I-57.36364 J2.18937
G3 X-258.85967 Y58.4881 I-47.75581 J0.32967
G3 X-259.04319 Y58.78481 I-15.05527 J-9.10659
G3 X-275.39205 Y75.66157 I-48.61988 J-30.74195
G3 X-292.91379 Y84.77873 I-41.57096 J-58.49721
G3 X-292.99049 Y84.80581 I-5.89643 J-16.57779
G3 X-313.66994 Y88.32957 I-20.70767 J-59.08323
G3 X-324.54998 Y88.01972 I-0.59421 J-170.31056
G3 X-336.46789 Y86.37102 I3.28323 J-67.63319
G3 X-348.65482 Y82.96366 I5.72833 J-43.98603
G3 X-364.40473 Y63.08225 I10.31322 J-24.34925
G3 X-364.511 Y62.37674 I17.34223 J-2.97287
G3 X-365.03502 Y49.24445 I73.03858 J-9.49108
G3 X-364.6577 Y38.94455 I766.07298 J22.90705
G1 Y-43.48438
G3 X-364.65769 Y-43.49909 I17.5952 J0.0
G3 X-361.95872 Y-55.52749 I28.25805 J0.02363
G3 X-361.90796 Y-55.63422 I15.91465 J7.50433
G3 X-356.33297 Y-63.76669 I29.05066 J13.93772
G3 X-353.64402 Y-66.38084 I21.57367 J19.50098
G1 F300.0 X-352.08551 Y-64.55573
G3 F800.0 X-335.20954 Y-70.94304 I17.32621 J20.29001
G3 X-335.02664 Y-70.94502 I0.25642 J15.19304
G3 X-309.78459 Y-69.4254 I0.94228 J194.75301
G3 X-283.79523 Y-63.25177 I-14.4487 J118.61611
G3 X-283.4661 Y-63.12909 I-5.14227 J14.29864
G3 X-263.50446 Y-51.45706 I-26.00787 J67.38432
G3 X-259.85414 Y-48.25655 I-32.83703 J41.13389
G3 X-249.35183 Y-58.92474 I38.16213 J27.06515
G3 X-229.6217 Y-68.34582 I34.20499 J46.26343
G3 X-229.5979 Y-68.35198 I3.82286 J14.70646
G3 X-209.76242 Y-70.78924 I19.20738 J74.38449
G3 X-180.75632 Y-64.93605 I0.26512 J73.4841
G3 X-168.00462 Y-57.10174 I-17.35686 J42.54631
G3 X-166.13481 Y-55.34888 I-17.8684 J20.9342
G3 X-165.25107 Y-56.36258 I36.84763 J31.23179
G3 X-164.91954 Y-56.72061 I11.31357 J10.14383
G3 X-145.17369 Y-68.77723 I32.57274 J31.14852
G3 X-145.16156 Y-68.78082 I4.32464 J14.5668
G3 X-125.43126 Y-71.49041 I18.75198 J63.35616
G3 X-125.05796 Y-71.48029 I-0.22499 J15.19353
G3 X-111.44058 Y-68.87794 I-1.83314 J46.52148
G3 X-105.84485 Y-66.86265 I-36.13633 J109.11359
G3 X-103.04662 Y-68.55441 I31.40462 J48.78419
G3 X-102.9208 Y-68.62493 I7.49209 J13.21978
G3 X-93.33421 Y-71.45663 I11.15786 J20.13113
G3 X-92.47089 Y-71.49108 I1.03733 J15.15975
G3 X-75.24924 Y-65.19456 I0.2965 J25.88884
G3 X-66.63499 Y-46.59299 I-14.93756 J18.21285
G3 X-66.90031 Y-44.00571 I-15.19313 J-0.25076
G3 X-68.36557 Y-39.12924 I-24.08885 J-4.57971
G3 X-69.25633 Y-36.97871 I-74.31497 J-29.52197
G3 X-69.26414 Y-36.96063 I-13.95245 J-6.01857
G3 X-71.07165 Y-32.91254 I-178.39291 J-77.22656
G3 X-71.08933 Y-32.87427 I-13.80335 J-6.35309
G2 X-74.08056 Y-26.20902 I269.73977 J125.05758
G2 X-75.05294 Y-19.80497 I32.50657 J8.2116
G3 X-75.06766 Y-19.56704 I-15.1731 J-0.8192
G2 X-75.38305 Y-9.9521 I130.29381 J9.08656
G3 X-75.3831 Y-9.81692 I-15.19508 J0.06147
G2 X-75.1915 Y-2.43836 I119.79277 J0.58103
G3 X-68.65719 Y-3.83011 I9.75032 J29.7428
G3 X-66.97398 Y-4.0085 I35.64944 J328.34065
G2 X-66.70173 Y-10.79022 I-3016.1895 J-124.47923
G3 X-66.6997 Y-10.84021 I15.18365 J0.59244
G2 X-66.16489 Y-30.45148 I-652.18472 J-27.59813
G2 X-66.3824 Y-38.1796 I-220.96503 J2.35201
G3 X-66.63197 Y-47.16357 I247.37098 J-11.36717
G3 X-57.55732 Y-66.15992 I23.92384 J-0.23714
G3 X-40.79205 Y-72.19732 I16.76233 J20.25089
G3 X-20.3402 Y-62.23854 I0.67824 J24.58701
G3 X-19.87006 Y-61.56576 I-12.21579 J9.03706
G3 X-15.2 Y-50.69411 I-28.02289 J18.47647
G1 Y-99.8
G1 X-358.0
G2 X-392.8 Y-65.0 I0.0 J34.8
G1 Y65.0
G2 X-358.0 Y99.8 I34.8 J0.0
G1 X-15.2
G1 Y46.90555
G3 X-16.42377 Y46.97905 I-3.05998 J-40.7227
G3 X-16.56454 Y46.98755 I-6.59715 J-108.02412
G3 X-19.83337 Y57.96112 I-37.35817 J-5.15467
G3 X-19.88349 Y58.06602 I-13.73549 J-6.49849
G3 X-26.93522 Y66.97803 I-23.46872 J-11.32399
G3 X-27.35168 Y67.30404 I-9.57328 J-11.80027
G3 X-42.75321 Y72.33789 I-15.028 J-19.90144
G3 X-60.5318 Y65.59425 I-0.17816 J-26.3374
G3 X-68.82181 Y47.00776 I16.27691 J-18.4019
G3 X-84.66568 Y39.54199 I2.25479 J-25.32992
G3 X-87.23028 Y36.51122 I18.07385 J-17.89432
G3 X-93.04117 Y39.34978 I-24.04662 J-41.85942
G3 X-103.30113 Y42.95852 I-30.06652 J-69.09248
G3 X-115.90739 Y44.75615 I-13.29328 J-48.1211
G3 X-159.90952 Y27.10871 I-0.91514 J-61.39937
G3 X-165.22048 Y21.47336 I39.62268 J-42.6622
G3 X-167.95256 Y26.48364 I-31.12 J-13.71949
G3 X-168.29076 Y26.97498 I-12.68334 J-8.36821
G3 X-182.91636 Y39.04207 I-30.13298 J-21.62508
G3 X-197.87803 Y43.70345 I-24.22579 J-51.41577
G3 X-211.83866 Y44.83638 I-13.61129 J-81.14428
G3 X-235.78242 Y39.69225 I-0.69597 J-55.05672
G3 X-236.07194 Y39.55366 I6.41569 J-13.77436
G3 X-255.20507 Y23.64105 I23.41016 J-47.60712
G3 X-254.36696 Y33.44477 I-54.16679 J9.56837
G3 X-260.91323 Y57.24596 I-45.35578 J0.3262
G3 X-261.07171 Y57.50219 I-13.00172 J-7.86444
G3 X-276.76051 Y73.68975 I-46.59136 J-29.45933
G3 X-293.71807 Y82.51751 I-40.20251 J-56.52539
G3 X-293.7843 Y82.54089 I-5.09215 J-14.31657
G3 X-313.67464 Y85.92957 I-19.91385 J-56.81831
G3 X-324.4194 Y85.62323 I-0.5895 J-167.91056
G3 X-336.04307 Y84.00592 I3.15265 J-65.2367
G3 X-347.70225 Y80.76071 I5.30351 J-41.62093
G3 X-362.03924 Y62.67675 I9.36066 J-22.14631
G3 X-362.13101 Y62.06747 I14.97674 J-2.56737
G3 X-362.6368 Y49.33982 I70.65859 J-9.18181
G3 X-362.2577 Y38.99661 I763.67476 J22.81168
G1 Y-43.48438
G3 X-362.25769 Y-43.49708 I15.1952 J0.0
G3 X-359.78795 Y-54.50389 I25.85805 J0.02162
G3 X-359.74411 Y-54.59606 I13.74388 J6.48074
G3 X-354.56825 Y-62.13993 I26.88681 J12.89956
G3 X-352.08551 Y-64.55573 I19.80895 J17.87421
G1 F300.0 X-350.527 Y-62.73062
G3 F800.0 X-335.16904 Y-68.54338 I15.76769 J18.4649
G3 X-335.01503 Y-68.54505 I0.21592 J12.79338
G3 X-310.07941 Y-67.04358 I0.93067 J192.35304
G3 X-284.60743 Y-60.99337 I-14.15388 J116.23428
G3 X-284.33028 Y-60.89007 I-4.33007 J12.04025
G3 X-265.0169 Y-49.59349 I-25.1437 J65.1453
G3 X-259.48939 Y-44.45981 I-31.32459 J39.27031
G3 X-247.92898 Y-56.99199 I37.79737 J23.26842
G3 X-229.0179 Y-66.02301 I32.78213 J44.33068
G3 X-228.99786 Y-66.0282 I3.21906 J12.38365
G3 X-209.7679 Y-68.3892 I18.60734 J72.06071
G3 X-181.67891 Y-62.72038 I0.27059 J71.08406
G3 X-169.56992 Y-55.28242 I-16.43428 J40.33065
G3 X-166.05113 Y-51.60329 I-16.3031 J19.11488
G3 X-163.46415 Y-54.76042 I36.76394 J27.48619
G3 X-163.18498 Y-55.06189 I9.52665 J8.54167
G3 X-144.49064 Y-66.47648 I30.83818 J29.48981
G3 X-144.48042 Y-66.47951 I3.64159 J12.26605
G3 X-125.4668 Y-69.09067 I18.07084 J61.05484
G3 X-125.15246 Y-69.08215 I-0.18945 J12.7938
G3 X-112.21631 Y-66.60665 I-1.73864 J44.12334
G3 X-105.5669 Y-64.17129 I-35.3606 J106.8423
G3 X-101.86328 Y-66.46642 I31.12667 J46.09283
G3 X-101.75733 Y-66.5258 I6.30875 J11.13179
G3 X-93.17037 Y-69.06222 I9.9944 J18.032
G3 X-92.4434 Y-69.09124 I0.87349 J12.76535
G3 X-76.7949 Y-63.35827 I0.26901 J23.489
G3 X-69.03467 Y-46.6326 I-13.39191 J16.37656
G3 X-69.25808 Y-44.45396 I-12.79346 J-0.21115
G3 X-70.588 Y-40.03547 I-21.73108 J-4.13146
G3 X-71.46004 Y-37.92931 I-72.09253 J-28.61573
G3 X-71.46662 Y-37.91408 I-11.74874 J-5.06797
G3 X-73.25182 Y-33.91597 I-176.19043 J-76.2731
G3 X-73.2667 Y-33.88375 I-11.62318 J-5.34965
G2 X-76.35846 Y-26.98859 I271.91714 J126.06706
G2 X-77.44945 Y-19.93436 I34.78447 J8.99116
G3 X-77.46184 Y-19.73401 I-12.77659 J-0.68982
G2 X-77.78303 Y-9.94239 I132.688 J9.25353
G3 X-77.78308 Y-9.82857 I-12.7951 J0.05176
G2 X-77.43551 Y-0.00709 I122.19274 J0.59267
G2 X-77.33464 Y0.97986 I41.45085 J-3.73789
G3 X-75.0856 Y0.06096 I9.23021 J19.37937
G3 X-68.40447 Y-1.44345 I9.64441 J27.24348
G3 X-64.66264 Y-1.82808 I35.39673 J325.95398
G2 X-64.30356 Y-10.69665 I-3018.50084 J-126.65965
G3 X-64.30184 Y-10.73875 I12.78547 J0.49887
G2 X-63.76474 Y-30.44953 I-654.58257 J-27.6996
G2 X-63.98492 Y-38.28943 I-223.36519 J2.35005
G3 X-64.23208 Y-47.18702 I244.9735 J-11.25735
G3 X-56.04723 Y-64.29434 I21.52396 J-0.21369
G3 X-40.75903 Y-69.79729 I15.25224 J18.38531
G3 X-22.26962 Y-60.81119 I0.64522 J22.18698
G3 X-21.87374 Y-60.24467 I-10.28637 J7.60971
G3 X-16.88959 Y-46.26706 I-26.01922 J17.15538
G3 X-16.45496 Y-38.9664 I-55.93062 J6.99297
G3 X-16.53876 Y-34.19158 I-184.96841 J-0.85819
G2 X-16.6118 Y-30.61129 I187.28621 J5.61149
G3 X-16.61191 Y-30.60136 I-12.79445 J-0.13871
G3 X-17.16969 Y-9.60793 I-702.54712 J-8.16185
G3 X-17.47602 Y-1.88629 I-3355.7061 J-129.25881
G3 X-15.85903 Y-1.90385 I2.23203 J131.08549
G3 X-12.8 Y-1.77652 I0.55687 J23.4314
G1 Y-102.2
G1 X-358.0
G2 X-395.2 Y-65.0 I0.0 J37.2
G1 Y65.0
G2 X-358.0 Y102.2 I37.2 J0.0
G1 X-12.8
G1 Y44.23058
G3 X-16.55071 Y44.58233 I-5.45998 J-38.04773
G3 X-18.69456 Y44.69184 I-6.47022 J-105.6274
G3 X-18.90964 Y46.4187 I-60.58463 J-6.66883
G3 X-22.00281 Y56.93472 I-35.01308 J-4.58582
G3 X-22.04502 Y57.02305 I-11.56605 J-5.47209
G3 X-28.44726 Y65.11424 I-21.30719 J-10.28102
G3 X-28.79795 Y65.38876 I-8.06123 J-9.93648
G3 X-42.74331 Y69.93776 I-13.58173 J-17.98615
G3 X-58.93484 Y63.80265 I-0.18806 J-23.93726
G3 X-66.41859 Y46.77538 I14.67995 J-16.6103
G3 X-66.37816 Y44.70715 I150.88596 J1.91498
G3 X-82.95888 Y37.85473 I-0.18887 J-23.02931
G3 X-86.48842 Y33.25263 I16.36705 J-16.20706
G3 X-93.9733 Y37.13801 I-24.78848 J-38.60082
G3 X-103.9361 Y40.64403 I-29.13439 J-66.88071
G3 X-115.94178 Y42.35639 I-12.65831 J-45.80662
G3 X-158.25053 Y25.37404 I-0.88074 J-58.99962
G3 X-165.97229 Y16.52679 I37.9637 J-40.92753
G3 X-169.95582 Y25.16193 I-30.36819 J-8.77292
G3 X-170.2406 Y25.57566 I-10.68008 J-7.0465
G3 X-183.92953 Y36.86638 I-28.18314 J-20.22576
G3 X-198.27213 Y41.33602 I-23.21263 J-49.24008
G3 X-211.84881 Y42.43631 I-13.21719 J-78.77686
G3 X-234.7691 Y37.51667 I-0.68582 J-52.65666
G3 X-235.01289 Y37.39996 I5.40236 J-11.59878
G3 X-253.31384 Y22.16236 I22.35111 J-45.45342
G3 X-261.34851 Y7.99319 I49.23675 J-37.28247
G3 X-263.03967 Y9.73408 I-37.71522 J-34.94582
G3 X-261.56727 Y12.26616 I-35.91933 J22.58117
G3 X-261.49795 Y12.39727 I-11.27648 J6.04634
G3 X-257.71176 Y23.28156 I-35.16228 J18.33217
G3 X-256.767 Y33.4483 I-51.6601 J9.92787
G3 X-262.96678 Y56.00381 I-42.95574 J0.32267
G3 X-263.10023 Y56.21957 I-10.94817 J-6.62229
G3 X-278.12888 Y71.71786 I-44.56283 J-28.17672
G3 X-294.52234 Y80.25628 I-38.83414 J-54.5535
G3 X-294.57812 Y80.27597 I-4.28787 J-12.05534
G3 X-313.6793 Y83.52957 I-19.12004 J-54.5534
G3 X-324.28898 Y83.22673 I-0.58485 J-165.51056
G3 X-335.61943 Y81.64031 I3.02223 J-62.8402
G3 X-346.75007 Y78.55759 I4.87987 J-39.25532
G3 X-359.67374 Y62.27124 I8.40847 J-19.94318
G3 X-359.75102 Y61.7582 I12.61124 J-2.16187
G3 X-360.23859 Y49.43557 I68.2786 J-8.87254
G3 X-359.8577 Y39.04875 I761.27655 J22.71593
G1 Y-43.48438
G3 Y-43.49507 I12.7952 J0.0
G3 X-357.61718 Y-53.4803 I23.45805 J0.01961
G3 X-357.58026 Y-53.55791 I11.57311 J5.45714
G3 X-352.80343 Y-60.51324 I24.72296 J11.86141
G3 X-350.527 Y-62.73062 I18.04413 J16.24752
G1 F300.0 X-348.96848 Y-60.90551
G3 F800.0 X-335.12854 Y-66.14372 I14.20918 J16.63979
G3 X-335.00342 Y-66.14508 I0.17542 J10.39372
G3 X-310.37421 Y-64.66175 I0.91905 J189.95307
G3 X-285.41962 Y-58.73498 I-13.85908 J113.85245
G3 X-285.19446 Y-58.65105 I-3.51788 J9.78186
G3 X-266.52924 Y-47.72982 I-24.27952 J62.90629
G3 X-259.07292 Y-40.30785 I-29.81225 J37.40664
G3 X-246.50615 Y-55.05922 I37.3809 J19.11646
G3 X-228.4141 Y-63.70021 I31.3593 J42.39791
G3 X-228.39782 Y-63.70442 I2.61526 J10.06085
G3 X-209.77336 Y-65.98917 I18.0073 J69.73693
G3 X-182.60131 Y-60.50464 I0.27606 J68.68402
G3 X-171.13507 Y-53.46296 I-15.51188 J38.11491
G3 X-166.08004 Y-47.32894 I-14.73795 J17.29542
G3 X-161.67723 Y-53.15825 I36.79285 J23.21185
G3 X-161.45043 Y-53.40318 I7.73973 J6.9395
G3 X-143.80759 Y-64.17573 I29.10363 J27.8311
G3 X-143.79928 Y-64.17819 I2.95853 J9.9653
G3 X-125.50233 Y-66.69094 I17.3897 J58.75353
G3 X-125.24695 Y-66.68401 I-0.15392 J10.39406
G3 X-112.9924 Y-64.33548 I-1.64415 J41.7252
G3 X-105.27064 Y-61.45697 I-34.58451 J104.57113
G3 X-100.67995 Y-64.37842 I30.83042 J43.37851
G3 X-100.59387 Y-64.42667 I5.12542 J9.0438
G3 X-93.00653 Y-66.66782 I8.83094 J15.93287
G3 X-92.41592 Y-66.69139 I0.70965 J10.37095
G3 X-78.34044 Y-61.5218 I0.24153 J21.08916
G3 X-71.43434 Y-46.6722 I-11.84636 J14.54009
G3 X-71.61585 Y-44.90222 I-10.39378 J-0.17155
G3 X-72.81012 Y-40.94254 I-19.37331 J-3.68321
G3 X-73.66376 Y-38.87991 I-69.87042 J-27.70867
G3 X-73.6691 Y-38.86754 I-9.54502 J-4.11737
G3 X-75.43198 Y-34.91941 I-173.98795 J-75.31964
G3 X-75.44407 Y-34.89323 I-9.44302 J-4.34621
G2 X-78.63404 Y-27.77321 I274.09452 J127.07654
G2 X-79.84596 Y-20.06375 I37.06005 J9.77579
G3 X-79.85603 Y-19.90098 I-10.38008 J-0.56043
G2 X-80.18301 Y-9.93268 I135.08218 J9.4205
G3 X-80.18305 Y-9.84021 I-10.39511 J0.04205
G2 X-79.82737 Y0.19117 I124.59271 J0.60431
G2 X-79.21048 Y4.57395 I43.8427 J-3.93615
G3 X-79.09164 Y4.77832 I-15.28632 J9.02582
G3 X-74.29493 Y2.327 I10.98721 J15.58091
G3 X-68.15201 Y0.94325 I8.85374 J24.97743
G3 X-62.35332 Y0.3659 I35.14426 J323.56729
G2 X-61.90538 Y-10.60308 I-3020.81016 J-128.85363
G3 X-61.90399 Y-10.63728 I10.3873 J0.4053
G2 X-61.36459 Y-30.44747 I-656.98042 J-27.80107
G2 X-61.58743 Y-38.39925 I-225.76534 J2.348
G3 X-61.8322 Y-47.21049 I242.57601 J-11.14752
G3 X-54.53725 Y-62.42863 I19.12407 J-0.19022
G3 X-40.72587 Y-67.39721 I13.74225 J16.5196
G3 X-24.19904 Y-59.38383 I0.61205 J19.7869
G3 X-23.87741 Y-58.92357 I-8.35695 J6.18235
G3 X-19.2744 Y-45.99604 I-24.01554 J15.83429
G3 X-18.85493 Y-38.97853 I-53.54581 J6.72195
G3 X-18.93767 Y-34.26407 I-182.56844 J-0.84606
G2 X-19.01166 Y-30.63731 I189.68511 J5.68398
G3 X-19.01175 Y-30.62924 I-10.39459 J-0.11269
G3 X-19.56777 Y-9.70391 I-700.14728 J-8.13397
G3 X-19.97976 Y0.58193 I-3353.30802 J-129.16282
G3 X-19.94194 Y0.58048 I0.41726 J10.38682
G3 X-15.82437 Y0.49602 I4.69796 J128.61872
G3 X-10.4 Y1.06864 I0.52221 J21.03153
G1 Y-104.6
G1 X-358.0
G2 X-397.6 Y-65.0 I0.0 J39.6
G1 Y65.0
G2 X-358.0 Y104.6 I39.6 J0.0
G1 X-10.4
G1 Y41.35275
G3 X-16.67724 Y42.18558 I-7.85998 J-35.1699
G3 X-20.88935 Y42.35834 I-6.34369 J-103.23065
G3 X-21.28808 Y46.09764 I-58.38984 J-4.33533
G3 X-24.17226 Y55.90831 I-32.63463 J-4.26475
G3 X-24.20655 Y55.98008 I-9.3966 J-4.44569
G3 X-29.95931 Y63.25045 I-19.14566 J-9.23805
G3 X-30.24422 Y63.47348 I-6.54918 J-8.07269
G3 X-42.73333 Y67.53758 I-12.13546 J-16.07087
G3 X-57.33791 Y62.01102 I-0.19804 J-21.53709
G3 X-64.01887 Y46.81336 I13.08302 J-14.81868
G3 X-63.8891 Y42.20603 I148.48624 J1.877
G3 X-65.76589 Y42.29225 I-12.17554 J-244.54877
G3 X-65.83352 Y42.29488 I-0.43723 J-10.386
G3 X-81.25209 Y36.16747 I-0.7335 J-20.61704
G3 X-85.58095 Y29.7199 I14.66025 J-14.5198
G3 X-94.90518 Y34.92612 I-25.69595 J-35.0681
G3 X-104.57112 Y38.32956 I-28.20251 J-64.66882
G3 X-115.97617 Y39.95664 I-12.02329 J-43.49215
G3 X-156.59157 Y23.63933 I-0.84636 J-56.59986
G3 X-167.21526 Y9.97754 I36.30473 J-39.19282
G3 X-171.95909 Y23.84022 I-29.12522 J-2.22367
G3 X-172.19045 Y24.17635 I-8.67681 J-5.72478
G3 X-184.94257 Y34.69063 I-26.23329 J-18.82644
G3 X-198.66621 Y38.9686 I-22.19959 J-47.06433
G3 X-211.85912 Y40.03624 I-12.82311 J-76.40943
G3 X-233.75578 Y35.34108 I-0.6755 J-50.25658
G3 X-233.95384 Y35.24627 I4.38904 J-9.42319
G3 X-251.39401 Y20.7221 I21.29206 J-43.29973
G3 X-260.50358 Y3.3083 I47.31692 J-35.84221
G3 X-266.15676 Y9.3756 I-38.56015 J-30.26093
G3 X-263.68241 Y13.40027 I-32.80224 J22.93965
G3 X-263.62609 Y13.50679 I-9.16134 J4.91223
G3 X-260.06884 Y23.7334 I-33.03415 J17.22265
G3 X-259.16704 Y33.4519 I-49.30302 J9.47602
G3 X-265.02033 Y54.76166 I-40.5557 J0.31907
G3 X-265.12875 Y54.93696 I-8.89462 J-5.38015
G3 X-279.49714 Y69.74587 I-42.53431 J-26.8941
G3 X-295.32662 Y77.99506 I-37.46588 J-52.58151
G3 X-295.37194 Y78.01106 I-3.48359 J-9.79412
G3 X-313.68391 Y81.12957 I-18.32622 J-52.28848
G3 X-324.15874 Y80.83022 I-0.58024 J-163.11056
G3 X-335.19715 Y79.27411 I2.89199 J-60.44368
G3 X-345.79837 Y76.35424 I4.45759 J-36.88912
G3 X-357.30825 Y61.86574 I7.45677 J-17.73983
G3 X-357.37103 Y61.44893 I10.24575 J-1.75637
G3 X-357.84039 Y49.53169 I65.89861 J-8.56327
G3 X-357.4577 Y39.10097 I758.87835 J22.61981
G1 Y-43.48438
G3 Y-43.49307 I10.3952 J0.0
G3 X-355.44641 Y-52.4567 I21.05805 J0.01761
G3 X-355.41642 Y-52.51975 I9.40233 J4.43354
G3 X-351.03848 Y-58.88665 I22.55912 J10.82325
G3 X-348.96848 Y-60.90551 I16.27918 J14.62093
G1 F300.0 X-347.40997 Y-59.08039
G3 F800.0 X-335.08804 Y-63.74406 I12.65067 J14.81468
G3 X-334.99181 Y-63.74511 I0.13492 J7.99406
G3 X-310.66899 Y-62.27991 I0.90744 J187.5531
G3 X-286.23181 Y-56.47659 I-13.56431 J111.47062
G3 X-286.05863 Y-56.41204 I-2.70569 J7.52346
G3 X-268.04146 Y-45.86605 I-23.41534 J60.66727
G3 X-258.55105 Y-35.5436 I-28.30003 J35.54287
G3 X-257.68572 Y-37.66406 I42.10774 J15.94678
G3 X-257.61864 Y-37.81304 I7.32332 J3.20816
G3 X-245.08334 Y-53.12644 I35.92662 J16.62164
G3 X-227.8103 Y-61.3774 I29.9365 J40.46513
G3 X-227.79778 Y-61.38064 I2.01146 J7.73804
G3 X-209.77882 Y-63.58912 I17.40725 J67.41315
G3 X-183.52351 Y-58.28881 I0.28151 J66.28398
G3 X-172.70002 Y-51.64333 I-14.58968 J35.89907
G3 X-166.36339 Y-41.85985 I-13.173 J15.47579
G3 X-159.89032 Y-51.55609 I37.0762 J17.74275
G3 X-159.71588 Y-51.74447 I5.95282 J5.33734
G3 X-143.12453 Y-61.87499 I27.36908 J26.17239
G3 X-143.11815 Y-61.87688 I2.27548 J7.66456
G3 X-125.53787 Y-64.2912 I16.70857 J56.45221
G3 X-125.34145 Y-64.28588 I-0.11838 J7.99432
G3 X-113.7689 Y-62.06443 I-1.54965 J39.32706
G3 X-104.95359 Y-58.71656 I-33.80801 J102.30008
G3 X-99.49661 Y-62.29043 I30.51336 J40.6381
G3 X-99.43041 Y-62.32753 I3.94208 J6.9558
G3 X-92.84269 Y-64.27342 I7.66747 J13.83374
G3 X-92.38844 Y-64.29155 I0.54581 J7.97655
G3 X-79.88582 Y-59.68511 I0.21404 J18.68931
G3 X-73.83401 Y-46.71181 I-10.30098 J12.7034
G3 X-73.97361 Y-45.35047 I-7.99411 J-0.13194
G3 X-75.03183 Y-41.85064 I-17.01554 J-3.23495
G3 X-75.86747 Y-39.83051 I-67.6487 J-26.80057
G3 X-75.87158 Y-39.821 I-7.34131 J-3.16677
G3 X-77.61215 Y-35.92285 I-171.78546 J-74.36619
G3 X-77.62145 Y-35.90271 I-7.26285 J-3.34278
G2 X-80.90754 Y-28.56237 I276.27189 J128.08602
G2 X-82.24247 Y-20.19314 I39.33355 J10.56494
G3 X-82.25021 Y-20.06795 I-7.98357 J-0.43104
G2 X-82.58299 Y-9.92297 I137.47637 J9.58746
G3 X-82.58302 Y-9.85185 I-7.99513 J0.03234
G2 X-82.21924 Y0.38913 I126.99268 J0.61595
G2 X-81.48265 Y5.45614 I46.23458 J-4.13412
G3 X-79.96412 Y8.6512 I-13.01415 J8.14364
G3 X-73.50445 Y4.59313 I11.8597 J11.70803
G3 X-67.89983 Y3.32997 I8.06327 J22.71131
G3 X-60.04604 Y2.57368 I34.89208 J321.18056
G2 X-59.5072 Y-10.50951 I-3023.11743 J-131.06141
G3 X-59.50614 Y-10.53581 I7.98912 J0.31172
G2 X-58.96444 Y-30.44532 I-659.37828 J-27.90254
G2 X-59.18995 Y-38.50909 I-228.16549 J2.34585
G3 X-59.43231 Y-47.23398 I240.17853 J-11.03769
G3 X-53.0274 Y-60.56273 I16.72419 J-0.16673
G3 X-40.69251 Y-64.99704 I12.23241 J14.6537
G3 X-26.12846 Y-57.95648 I0.57869 J17.38673
G3 X-25.88109 Y-57.60248 I-6.42754 J4.755
G3 X-21.65929 Y-45.72556 I-22.01187 J14.5132
G3 X-21.2549 Y-38.99067 I-51.16092 J6.45147
G3 X-21.33657 Y-34.33657 I-180.16847 J-0.83392
G2 X-21.41152 Y-30.66333 I192.08402 J5.75648
G3 X-21.41159 Y-30.65712 I-7.99473 J-0.08667
G3 X-21.96585 Y-9.79991 I-697.74744 J-8.10609
G3 X-22.48821 Y3.11461 I-3350.90994 J-129.06683
G2 X-20.16592 Y2.99635 I-1.23556 J-47.12435
G3 X-19.85434 Y2.97888 I0.60342 J7.9724
G3 X-15.78855 Y2.89588 I4.61036 J126.22032
G3 X-8.0 Y4.37954 I0.48639 J18.63167
G1 Y-107.0
G1 X-358.0
G2 X-400.0 Y-65.0 I0.0 J42.0
G1 Y65.0
G2 X-358.0 Y107.0 I42.0 J0.0
G1 X-8.0
G1 Y38.19331
G3 X-8.73758 Y38.44293 I-5.77068 J-15.83666
G3 X-8.90033 Y38.49196 I-2.38742 J-7.63043
G3 X-16.80332 Y39.7888 I-9.35965 J-32.30911
G3 X-23.16275 Y39.98021 I-6.21761 J-100.83387
G3 X-23.66656 Y45.77673 I-56.11644 J-1.9572
G3 X-26.34171 Y54.88191 I-30.25616 J-3.94384
G3 X-26.36808 Y54.93711 I-7.22715 J-3.41928
G3 X-31.47136 Y61.38666 I-16.98412 J-8.19508
G3 X-31.69049 Y61.5582 I-5.03714 J-6.2089
G3 X-42.72322 Y65.13736 I-10.68919 J-14.15559
G3 X-55.74102 Y60.21935 I-0.20815 J-19.13687
G3 X-61.61917 Y46.85176 I11.48613 J-13.027
G3 X-61.35152 Y39.66209 I146.08654 J1.8386
G3 X-65.86684 Y39.89437 I-14.71312 J-242.00483
G3 X-65.91886 Y39.89639 I-0.33629 J-7.98812
G3 X-79.54529 Y34.48021 I-0.64817 J-18.21855
G3 X-84.40144 Y25.55715 I12.95346 J-12.83253
G3 X-86.59713 Y27.48499 I-15.24328 J-15.14686
G3 X-86.65987 Y27.53245 I-4.85444 J-6.35276
G3 X-95.83677 Y32.71408 I-24.61703 J-32.88065
G3 X-105.20617 Y36.0151 I-27.27092 J-62.45678
G3 X-116.01055 Y37.55688 I-11.38823 J-41.17769
G3 X-154.93261 Y21.90457 I-0.81198 J-54.20011
G3 X-171.30823 Y-16.05712 I34.64578 J-37.45805
G3 X-170.95988 Y-23.8847 I70.05045 J-0.8041
G3 X-176.54375 Y-21.11179 I-8.93011 J-10.97416
G3 X-181.77627 Y-20.48986 I-4.96988 J-19.49069
G3 X-182.05189 Y-20.49821 I0.1044 J-7.99452
G3 X-190.28946 Y-22.45264 I1.09147 J-22.93745
G3 X-196.12974 Y-25.42893 I18.79978 J-44.10857
G2 X-202.34572 Y-27.84369 I-10.81553 J18.633
G2 X-209.74042 Y-28.61437 I-7.15751 J32.81504
G3 X-209.93169 Y-28.61531 I-0.05646 J-7.995
G2 X-211.52242 Y-28.59371 I-0.44068 J26.1311
G1 X-201.48872 Y-24.15745
G3 X-192.33031 Y-19.92223 I-115.18981 J261.11143
G3 X-182.81908 Y-14.66412 I-34.99815 J74.53839
G3 X-182.7251 Y-14.60281 I-4.32154 J6.72662
G3 X-173.9728 Y-6.2676 I-19.07109 J28.78814
G3 X-173.94368 Y-6.22773 I-6.44194 J4.73546
G3 X-169.53656 Y7.18383 I-18.714 J13.57942
G3 X-173.96235 Y22.5185 I-26.80392 J0.57003
G3 X-174.1403 Y22.77703 I-6.67355 J-4.40307
G3 X-185.95545 Y32.51481 I-24.28344 J-17.42712
G3 X-199.06027 Y36.60117 I-21.1867 J-44.88851
G3 X-211.86962 Y37.63616 I-12.42906 J-74.042
G3 X-232.74245 Y33.16549 I-0.66501 J-47.8565
G3 X-232.89479 Y33.09257 I3.37572 J-7.2476
G3 X-249.47414 Y19.28187 I20.23301 J-41.14603
G3 X-258.74306 Y0.88054 I45.39705 J-34.40198
G3 X-258.75407 Y0.84256 I7.67326 J-2.24595
G3 X-259.52498 Y-2.07711 I67.03001 J-19.26015
G3 X-262.12177 Y1.47942 I-35.02655 J-22.84816
G3 X-269.41158 Y9.01736 I-36.94196 J-28.43206
G3 X-265.79754 Y14.53439 I-29.54742 J23.29789
G3 X-265.75422 Y14.61631 I-7.04621 J3.77811
G3 X-262.42592 Y24.18524 I-30.90601 J16.11313
G3 X-261.56709 Y33.45559 I-46.94594 J9.02418
G3 X-267.07388 Y53.51952 I-38.15565 J0.31538
G3 X-267.15727 Y53.65434 I-6.84106 J-4.138
G3 X-280.86527 Y67.77378 I-40.50579 J-25.61148
G3 X-296.1309 Y75.73383 I-36.09775 J-50.60942
G3 X-296.16575 Y75.74614 I-2.67932 J-7.53289
G3 X-313.68846 Y78.72957 I-17.53241 J-50.02356
G3 X-324.02869 Y78.43369 I-0.57569 J-160.71056
G3 X-334.77646 Y76.90723 I2.76194 J-58.04716
G3 X-344.8473 Y74.15059 I4.0369 J-34.52223
G3 X-354.94275 Y61.46024 I6.5057 J-15.53618
G3 X-354.99104 Y61.13966 I7.88025 J-1.35086
G3 X-355.4422 Y49.62823 I63.51862 J-8.254
G3 X-355.0577 Y39.15328 I756.48016 J22.52327
G1 Y-43.48438
G3 Y-43.49106 I7.9952 J0.0
G3 X-353.27564 Y-51.4331 I18.65805 J0.0156
G3 X-353.25257 Y-51.4816 I7.23156 J3.40994
G3 X-349.27336 Y-57.26018 I20.39527 J9.7851
G3 X-347.40997 Y-59.08039 I14.51405 J12.99447
G1 F300.0 X-345.85145 Y-57.25528
G3 F800.0 X-335.04754 Y-61.3444 I11.09215 J12.98956
G3 X-334.9802 Y-61.34513 I0.09442 J5.5944
G3 X-310.96374 Y-59.89808 I0.89583 J185.15312
G3 X-287.04401 Y-54.21819 I-13.26955 J109.08879
G3 X-286.92281 Y-54.17302 I-1.89349 J5.26507
G3 X-269.55356 Y-44.00216 I-22.55116 J58.42825
G3 X-260.53736 Y-34.19641 I-26.78794 J33.67898
G3 X-257.95915 Y-29.26281 I-21.66793 J14.46374
G3 X-255.48741 Y-36.70104 I41.51583 J9.66599
G3 X-255.44046 Y-36.80529 I5.125 J2.24513
G3 X-243.66057 Y-51.19363 I33.74845 J15.6139
G3 X-227.2065 Y-59.05459 I28.51372 J38.53232
G3 X-227.19774 Y-59.05686 I1.40766 J5.41523
G3 X-209.78425 Y-61.18908 I16.80721 J65.08938
G3 X-184.44548 Y-56.07287 I0.28695 J63.88393
G3 X-174.26471 Y-49.82347 I-13.66771 J33.68313
G3 X-167.95348 Y-36.52449 I-11.60831 J13.65593
G3 X-169.65477 Y-29.10013 I-14.89201 J0.49461
G3 X-169.80513 Y-28.83208 I-4.95326 J-2.6022
G3 X-177.12389 Y-23.44066 I-10.08486 J-6.02678
G3 X-181.74493 Y-22.88965 I-4.38974 J-17.16182
G3 X-181.93782 Y-22.8955 I0.07306 J-5.59472
G3 X-189.33113 Y-24.65309 I0.97739 J-20.54016
G3 X-194.91004 Y-27.49595 I17.84146 J-41.90812
G2 X-201.83381 Y-30.18846 I-12.03523 J20.70003
G2 X-209.75736 Y-31.01431 I-7.66943 J35.15981
G3 X-209.89122 Y-31.01497 I-0.03951 J-5.59506
G2 X-219.52949 Y-29.50981 I-0.48115 J28.53076
G1 X-202.45832 Y-21.96202
G3 X-193.36315 Y-17.7558 I-114.22022 J258.91601
G3 X-184.11632 Y-12.64493 I-33.96531 J72.37196
G3 X-184.05055 Y-12.60202 I-3.0243 J4.70743
G3 X-175.90654 Y-4.84611 I-17.74564 J26.78735
G3 X-175.88616 Y-4.81821 I-4.5082 J3.31397
G3 X-171.93638 Y7.21799 I-16.77151 J12.16989
G3 X-175.96562 Y21.19679 I-24.4041 J0.53587
G3 X-176.09015 Y21.37771 I-4.67028 J-3.08136
G3 X-186.96815 Y30.33889 I-22.33359 J-16.0278
G3 X-199.4543 Y34.23373 I-20.174 J-42.71259
G3 X-211.88032 Y35.23607 I-12.03503 J-71.67457
G3 X-231.72913 Y30.98991 I-0.6543 J-45.45641
G3 X-231.83574 Y30.93887 I2.36239 J-5.07202
G3 X-247.55424 Y17.84169 I19.17396 J-38.99233
G3 X-256.4397 Y0.20635 I43.47715 J-32.9618
G3 X-256.44741 Y0.17977 I5.3699 J-1.57176
G3 X-258.42579 Y-9.15192 I64.72334 J-18.59736
G3 X-258.54319 Y-8.88402 I-25.43799 J-10.98785
G3 X-258.54531 Y-8.87926 I-5.1128 J-2.27279
G3 X-264.00362 Y-0.01047 I-36.00622 J-16.04601
G3 X-272.85404 Y8.65837 I-35.06011 J-26.94216
G3 X-272.68294 Y8.8513 I-45.9802 J40.95075
G3 X-267.91267 Y15.6685 I-26.27607 J23.46396
G3 X-267.88236 Y15.72583 I-4.93108 J2.644
G3 X-264.78301 Y24.63707 I-28.77788 J15.00361
G3 X-263.96714 Y33.45939 I-44.58885 J8.57235
G3 X-269.12743 Y52.27737 I-35.75559 J0.31159
G3 X-269.18579 Y52.37172 I-4.78751 J-2.89586
G3 X-282.23327 Y65.80157 I-38.47727 J-24.32887
G3 X-296.93518 Y73.47261 I-34.72975 J-48.63721
G3 X-296.95957 Y73.48122 I-1.87504 J-5.27167
G3 X-313.69294 Y76.32958 I-16.73859 J-47.75864
G3 X-323.89885 Y76.03715 I-0.57121 J-158.31057
G3 X-334.35764 Y74.53954 I2.6321 J-55.65062
G3 X-343.8971 Y71.94653 I3.61808 J-32.15455
G3 X-352.57726 Y61.05474 I5.55551 J-13.33213
G3 X-352.61105 Y60.83039 I5.51476 J-0.94536
G3 X-353.04402 Y49.7252 I61.13863 J-7.94473
G3 X-352.6577 Y39.20567 I754.08199 J22.4263
G1 Y-43.48438
G3 Y-43.48905 I5.5952 J0.0
G3 X-351.10487 Y-50.4095 I16.25806 J0.01359
G3 X-351.08872 Y-50.44344 I5.06079 J2.38635
G3 X-347.50799 Y-55.6339 I18.23142 J8.74694
G3 X-345.85145 Y-57.25528 I12.74869 J11.36818
G1 F300.0 X-344.29606 Y-55.43382
G3 F800.0 X-335.00712 Y-58.94954 I9.53675 J11.1681
G3 X-334.96861 Y-58.94996 I0.054 J3.19954
G3 X-311.25789 Y-57.521 I0.88424 J182.75795
G3 X-287.85458 Y-51.96432 I-12.9754 J106.71171
G3 X-287.78526 Y-51.93848 I-1.08292 J3.01119
G3 X-271.06247 Y-42.14186 I-21.68871 J56.19372
G3 X-262.52984 Y-32.86713 I-25.27902 J31.81869
G3 X-258.55021 Y-20.00568 I-19.67544 J13.13446
G3 X-258.5501 Y-19.944 I-3.19979 J0.03693
G3 X-260.73188 Y-9.85696 I-25.31369 J-0.19578
G3 X-260.73309 Y-9.85424 I-2.9241 J-1.29985
G3 X-265.88165 Y-1.4975 I-33.81844 J-15.07103
G3 X-276.50041 Y8.25974 I-33.18208 J-25.45514
G3 X-274.47385 Y10.44178 I-42.33382 J41.34938
G3 X-270.02357 Y16.80035 I-24.48515 J21.87347
G3 X-270.00624 Y16.83314 I-2.82018 J1.51215
G3 X-267.13538 Y25.08798 I-26.654 J13.8963
G3 X-266.3624 Y33.4633 I-42.23648 J8.12144
G3 X-271.17687 Y51.03771 I-33.36033 J0.30768
G3 X-271.21025 Y51.09167 I-2.73807 J-1.65619
G3 X-283.59838 Y63.83316 I-36.45281 J-23.04882
G3 X-297.73785 Y71.2159 I-33.36464 J-46.66881
G3 X-297.75179 Y71.22083 I-1.07237 J-3.01497
G3 X-313.69735 Y73.93438 I-15.94636 J-45.49825
G3 X-323.76949 Y73.64539 I-0.5668 J-155.91537
G3 X-333.94187 Y72.17564 I2.50274 J-53.25886
G3 X-342.95002 Y69.74631 I3.2023 J-29.79064
G3 X-350.21649 Y60.65005 I4.60842 J-11.13191
G3 X-350.23582 Y60.52174 I3.15399 J-0.54067
G3 X-350.65066 Y49.82244 I58.7634 J-7.63608
G3 X-350.2625 Y39.25803 I751.68862 J22.32906
G1 Y-43.48438
G3 Y-43.48705 I3.2 J0.0
G3 X-348.93844 Y-49.38795 I13.86286 J0.01159
G3 X-348.9292 Y-49.40736 I2.89436 J1.3648
G3 X-345.7458 Y-54.01113 I16.0719 J7.71086
G3 X-344.29606 Y-55.43382 I10.9865 J9.74541
G0 Z3.0
G0 X-255.18134 Y-30.45505
G0 Z1.0
G1 F300.0 Z-2.5
G3 F800.0 X-253.29349 Y-35.73994 I38.73802 J10.85823
G3 X-253.26664 Y-35.79956 I2.93108 J1.28403
G3 X-242.24067 Y-49.26466 I31.57463 J14.60817
G3 X-226.60391 Y-56.73643 I27.09383 J36.60335
G3 X-226.5989 Y-56.73773 I0.80507 J3.09707
G3 X-209.78967 Y-58.79382 I16.20837 J62.77024
G3 X-185.36533 Y-53.86123 I0.29237 J61.48868
G3 X-175.82593 Y-48.00694 I-12.74786 J31.4715
G3 X-170.3479 Y-36.46075 I-10.04709 J11.8394
G3 X-171.77517 Y-30.21408 I-12.49759 J0.43087
G3 X-171.86116 Y-30.06078 I-2.83286 J-1.48825
G3 X-177.70235 Y-25.76502 I-8.02882 J-4.79808
G3 X-181.71366 Y-25.28465 I-3.81128 J-14.83746
G3 X-181.82397 Y-25.28799 I0.04178 J-3.19973
G3 X-188.37413 Y-26.8489 I0.86355 J-18.14767
G3 X-193.69172 Y-29.55822 I16.88445 J-39.71231
G2 X-201.32293 Y-32.52855 I-13.25354 J22.76229
G2 X-209.77428 Y-33.40945 I-8.18031 J37.49989
G3 X-209.85083 Y-33.40983 I-0.0226 J-3.19992
G2 X-220.87782 Y-31.57547 I-0.52154 J30.92562
G2 X-225.13895 Y-29.37109 I7.19536 J19.12944
G1 X-203.42597 Y-19.77099
G3 X-194.39378 Y-15.59362 I-113.25257 J256.72497
G3 X-185.41097 Y-10.62977 I-32.93467 J70.20978
G3 X-185.37335 Y-10.60522 I-1.72966 J2.69227
G3 X-177.83642 Y-3.42746 I-16.42283 J24.79055
G3 X-177.82476 Y-3.41151 I-2.57832 J1.89532
G3 X-174.33142 Y7.25192 I-14.83291 J10.76319
G3 X-177.96488 Y19.87772 I-22.00906 J0.50194
G3 X-178.0361 Y19.98119 I-2.67102 J-1.76229
G3 X-187.9786 Y28.16721 I-20.38764 J-14.63129
G3 X-199.84751 Y31.87102 I-19.16355 J-40.54091
G3 X-211.89124 Y32.84077 I-11.64182 J-69.31186
G3 X-230.71783 Y28.81867 I-0.64339 J-43.06112
G3 X-230.7788 Y28.78948 I1.3511 J-2.90078
G3 X-245.63813 Y16.40445 I18.11702 J-36.84294
G3 X-254.14094 Y-0.46649 I41.56105 J-31.52456
G3 X-254.14535 Y-0.4817 I3.07115 J-0.89892
G3 X-256.66898 Y-18.93952 I62.42129 J-17.9359
G3 X-255.18134 Y-30.45505 I40.22566 J-0.6573
G0 Z3.0
G0 X-168.65053 Y-22.81304
G0 Z1.0
G1 F300.0 Z-2.5
G3 F800.0 X-166.86868 Y-33.36627 I67.39275 J5.95182
G3 X-158.1034 Y-49.95393 I37.58149 J9.24918
G3 X-157.98132 Y-50.08576 I4.1659 J3.73518
G3 X-142.44148 Y-59.57424 I25.63452 J24.51368
G3 X-142.43701 Y-59.57556 I1.59243 J5.36381
G3 X-125.5734 Y-61.89146 I16.02743 J54.1509
G3 X-125.43595 Y-61.88774 I-0.08285 J5.59459
G3 X-114.54586 Y-59.79353 I-1.45515 J36.92892
G3 X-104.61271 Y-55.94629 I-33.03105 J100.02918
G3 X-98.31328 Y-60.20244 I30.17249 J37.86783
G3 X-98.26695 Y-60.2284 I2.75875 J4.86781
G3 X-92.67884 Y-61.87902 I6.50401 J11.73461
G3 X-92.36095 Y-61.89171 I0.38197 J5.58215
G3 X-81.43096 Y-57.84807 I0.18656 J16.28947
G3 X-76.23369 Y-46.75141 I-8.75584 J10.86636
G3 X-76.33138 Y-45.79872 I-5.59444 J-0.09234
G3 X-77.25303 Y-42.76006 I-14.65778 J-2.7867
G3 X-78.07119 Y-40.78111 I-65.4275 J-25.89115
G3 X-78.07406 Y-40.77445 I-5.13759 J-2.21617
G3 X-79.79231 Y-36.92628 I-169.58298 J-73.41273
G3 X-79.79882 Y-36.91219 I-5.08269 J-2.33934
G2 X-83.17917 Y-29.35561 I278.44926 J129.0955
G2 X-84.63898 Y-20.32253 I41.60518 J11.35819
G3 X-84.6444 Y-20.23492 I-5.58706 J-0.30165
G2 X-84.98297 Y-9.91326 I139.87055 J9.75443
G3 X-84.98299 Y-9.86349 I-5.59515 J0.02264
G2 X-84.61114 Y0.58684 I129.39265 J0.62759
G2 X-83.74158 Y6.38298 I48.62647 J-4.33182
G3 X-81.54573 Y13.76328 I-10.75522 J7.2168
G3 X-83.77496 Y21.01911 I-13.30669 J-0.11788
G3 X-83.7836 Y21.03206 I-4.65767 J-3.10038
G3 X-88.05434 Y25.57802 I-15.86111 J-10.62178
G3 X-88.09825 Y25.61123 I-3.39724 J-4.44579
G3 X-96.76802 Y30.50189 I-23.17865 J-30.95943
G3 X-105.84128 Y33.70066 I-26.33966 J-60.24459
G3 X-116.04492 Y35.15713 I-10.75313 J-38.86324
G3 X-153.27368 Y20.16974 I-0.77761 J-51.80035
G3 X-168.90808 Y-16.05897 I32.98685 J-35.72323
G3 X-168.65053 Y-22.81304 I67.6503 J-0.80225
G1 F300.0 X-166.26462 Y-22.60233
G3 F800.0 X-164.54434 Y-32.78794 I65.00684 J5.74111
G3 X-156.32006 Y-48.35497 I35.25715 J8.67085
G3 X-156.25024 Y-48.43037 I2.38256 J2.13622
G3 X-141.75979 Y-57.27809 I23.90344 J22.85828
G3 X-141.75723 Y-57.27885 I0.91074 J3.06766
G3 X-125.60887 Y-59.49652 I15.34766 J51.85419
G3 X-125.53025 Y-59.49439 I-0.04738 J3.19965
G3 X-115.32179 Y-57.52734 I-1.36085 J34.53558
G3 X-104.2451 Y-53.14717 I-32.25512 J97.76299
G3 X-97.13231 Y-58.11862 I29.80488 J35.06871
G3 X-97.10581 Y-58.13347 I1.57778 J2.78399
G3 X-92.51533 Y-59.48941 I5.34288 J9.63967
G3 X-92.33352 Y-59.49667 I0.21846 J3.19253
G3 X-82.97264 Y-56.01416 I0.15913 J13.89443
G3 X-78.62856 Y-46.79094 I-7.21416 J9.03245
G3 X-78.68443 Y-46.24608 I-3.19956 J-0.05281
G3 X-79.46912 Y-43.66939 I-12.30472 J-2.33934
G3 X-80.27049 Y-41.72981 I-63.21142 J-24.98182
G3 X-80.27214 Y-41.726 I-2.93829 J-1.26747
G3 X-81.96811 Y-37.92771 I-167.38491 J-72.46118
G3 X-81.97184 Y-37.91965 I-2.90689 J-1.33791
G2 X-85.44456 Y-30.15096 I280.62228 J130.10296
G2 X-87.0307 Y-20.45166 I43.87057 J12.15354
G3 X-87.0338 Y-20.40155 I-3.19535 J-0.17252
G2 X-87.37815 Y-9.90357 I142.25995 J9.92107
G3 X-87.37816 Y-9.8751 I-3.19997 J0.01295
G2 X-86.99826 Y0.78391 I131.78783 J0.63921
G2 X-85.98006 Y7.36173 I51.0136 J-4.52889
G3 X-83.9408 Y13.73754 I-8.51675 J6.23805
G3 X-85.76882 Y19.6919 I-10.91162 J-0.09215
G3 X-85.77376 Y19.6993 I-2.66381 J-1.77317
G3 X-89.50863 Y23.67486 I-13.87095 J-9.28902
G3 X-89.53374 Y23.69385 I-1.94294 J-2.54263
G3 X-97.69704 Y28.29393 I-21.74316 J-29.04205
G3 X-106.47517 Y31.39085 I-25.41065 J-58.03663
G3 X-116.07921 Y32.76217 I-10.11924 J-36.55344
G3 X-151.61809 Y18.43832 I-0.74332 J-49.4054
G3 X-166.51273 Y-16.06062 I31.33126 J-33.99181
G3 X-166.26462 Y-22.60233 I65.25495 J-0.8006
G0 Z3.0
G0 Y-109.4
G0 Z1.0
G1 F300.0 Z-2.5
G1 F800.0 X-358.0
G2 X-402.4 Y-65.0 I0.0 J44.4
G1 Y65.0
G2 X-358.0 Y109.4 I44.4 J0.0
G1 X-5.6
G1 Y34.28121
G3 X-9.45424 Y36.15243 I-8.17068 J-11.92456
G3 X-9.56813 Y36.18674 I-1.67076 J-5.33993
G3 X-16.92887 Y37.39198 I-8.69185 J-30.00389
G3 X-23.41286 Y37.57953 I-6.09205 J-98.43705
G3 X-23.51141 Y37.57827 I0.02224 J-5.59516
G3 X-25.53264 Y37.50291 I1.39251 J-64.49223
G1 X-25.53146 Y37.55107
G3 X-25.52994 Y37.64852 I-5.59354 J0.13643
G3 X-26.04506 Y45.45601 I-53.74925 J0.37449
G3 X-28.51116 Y53.85551 I-27.87766 J-3.62313
G3 X-28.52961 Y53.89414 I-5.0577 J-2.39288
G3 X-32.98341 Y59.52287 I-14.82259 J-7.15211
G3 X-33.13676 Y59.64292 I-3.52509 J-4.34511
G3 X-42.71292 Y62.73707 I-9.24292 J-12.24031
G3 X-54.14419 Y58.42762 I-0.21845 J-16.73658
G3 X-59.21947 Y46.89067 I9.8893 J-11.23527
G3 X-58.89687 Y38.90054 I143.68684 J1.79969
G2 X-58.79789 Y37.08714 I-425.49437 J-24.13428
G3 X-65.96778 Y37.4965 I-17.26675 J-239.42988
G3 X-66.00419 Y37.49791 I-0.23534 J-5.59025
G3 X-77.83849 Y32.79294 I-0.56284 J-15.82007
G3 X-82.42453 Y21.47445 I11.24666 J-11.14527
G3 X-80.34424 Y13.04083 I16.50617 J-0.40186
G3 X-80.19977 Y12.79618 I4.88858 J2.72177
G3 X-72.71427 Y6.85936 I12.09535 J7.56306
G3 X-67.64798 Y5.71673 I7.27308 J20.44508
G3 X-57.74085 Y4.79549 I34.64023 J318.7938
G2 X-57.10903 Y-10.41593 I-3025.42262 J-133.28323
G3 X-57.10828 Y-10.43434 I5.59095 J0.21815
G2 X-56.56429 Y-30.44308 I-661.77613 J-28.004
G2 X-56.79246 Y-38.61892 I-230.56564 J2.3436
G3 X-57.03243 Y-47.2575 I237.78104 J-10.92785
G3 X-51.51777 Y-58.69656 I14.3243 J-0.14321
G3 X-40.65886 Y-62.59676 I10.72278 J12.78753
G3 X-28.05788 Y-56.52912 I0.54504 J14.98645
G3 X-27.88476 Y-56.28139 I-4.49812 J3.32764
G3 X-24.04428 Y-45.45576 I-20.00819 J13.1921
G3 X-23.65487 Y-39.00283 I-48.77593 J6.18167
G3 X-23.73548 Y-34.40907 I-177.7685 J-0.82176
G2 X-23.81138 Y-30.68934 I194.48292 J5.82898
G3 X-23.81143 Y-30.685 I-5.59487 J-0.06066
G3 X-24.36393 Y-9.8959 I-695.3476 J-8.07821
G3 X-24.9915 Y5.47966 I-3348.51186 J-128.97083
G2 X-23.37315 Y5.52957 I2.23759 J-46.29558
G2 X-19.98479 Y5.38951 I-0.35062 J-49.5393
G3 X-19.76674 Y5.37728 I0.42229 J5.57924
G3 X-15.75128 Y5.29575 I4.52275 J123.82192
G3 X-5.6 Y8.50675 I0.44912 J16.2318
G1 Y-109.4
G1 X-166.26462
G1 F300.0 Y-111.8
G1 F800.0 X-358.0
G2 X-404.8 Y-65.0 I0.0 J46.8
G1 Y65.0
G2 X-358.0 Y111.8 I46.8 J0.0
G1 X-3.2
G1 Y28.1027
G3 X-3.53744 Y28.73184 I-12.75406 J-6.43563
G3 X-3.62734 Y28.88031 I-2.78131 J-1.5825
G3 X-10.16946 Y33.8665 I-10.14334 J-6.52366
G3 X-10.2346 Y33.88613 I-0.95554 J-3.054
G3 X-17.05358 Y34.99991 I-8.02538 J-27.70328
G3 X-23.40334 Y35.18435 I-5.96735 J-96.04498
G3 X-23.4597 Y35.18363 I0.01272 J-3.19997
G3 X-27.99155 Y34.91985 I1.3408 J-62.09759
G1 X-27.92595 Y37.60947
G3 X-27.92508 Y37.6652 I-3.19905 J0.07803
G3 X-28.41883 Y45.13617 I-51.35411 J0.35781
G3 X-30.67626 Y52.83116 I-25.50388 J-3.30328
G3 X-30.68682 Y52.85326 I-2.8926 J-1.36853
G3 X-34.49243 Y57.66281 I-12.66539 J-6.11123
G3 X-34.58014 Y57.73147 I-2.01606 J-2.48505
G3 X-42.70237 Y60.34147 I-7.79954 J-10.32886
G3 X-52.55063 Y56.63937 I-0.229 J-14.34097
G3 X-56.82457 Y46.93017 I8.29574 J-9.44703
G3 X-56.5063 Y39.05003 I141.29194 J1.76019
G2 X-56.27178 Y34.48809 I-427.88494 J-24.28378
G3 X-66.06853 Y35.10342 I-19.79286 J-236.83083
G3 X-66.08935 Y35.10423 I-0.1346 J-3.19717
G3 X-76.13511 Y31.10906 I-0.47768 J-13.42639
G3 X-80.02895 Y21.45848 I9.54327 J-9.46139
G3 X-78.25153 Y14.20597 I14.11059 J-0.38588
G3 X-78.16891 Y14.06605 I2.79587 J1.55663
G3 X-71.92607 Y9.12122 I10.06448 J6.29319
G3 X-67.39702 Y8.09876 I6.48489 J18.18322
G3 X-55.44239 Y7.02712 I34.38927 J316.41177
G2 X-54.71565 Y-10.32255 I-3027.72108 J-135.51486
G3 X-54.71522 Y-10.33307 I3.19757 J0.12476
G2 X-54.16894 Y-30.44075 I-664.16919 J-28.10527
G2 X-54.39977 Y-38.72854 I-232.96098 J2.34128
G3 X-54.63735 Y-47.28101 I235.38835 J-10.81823
G3 X-50.01149 Y-56.83371 I11.92922 J-0.1197
G3 X-40.62483 Y-60.20111 I9.21649 J10.92468
G3 X-29.98344 Y-55.10462 I0.51101 J12.59079
G3 X-29.88443 Y-54.96294 I-2.57256 J1.90314
G3 X-26.42463 Y-45.18732 I-18.00852 J11.87365
G3 X-26.05004 Y-39.01498 I-46.39558 J5.91323
G3 X-26.12959 Y-34.48143 I-175.37333 J-0.80961
G2 X-26.20644 Y-30.71531 I196.87703 J5.90134
G3 X-26.20647 Y-30.71283 I-3.19981 J-0.03469
G3 X-26.75722 Y-9.99171 I-692.95256 J-8.05038
G3 X-27.48541 Y7.69872 I-3346.11857 J-128.87502
G2 X-23.38065 Y7.92487 I4.7315 J-48.51464
G2 X-19.80401 Y7.77788 I-0.34312 J-51.93461
G3 X-19.67931 Y7.77088 I0.24151 J3.19087
G3 X-15.71226 Y7.69081 I4.43532 J121.42831
G3 X-5.70334 Y11.55327 I0.4101 J13.83674
G3 X-3.2 Y14.87361 I-9.108 J9.47076
G1 Y-111.8
G1 X-166.26462
G0 Z3.0
G0 Y-80.6
G0 Z-1.5
G1 F300.0 Z-5.0
G1 F800.0 X-168.85308
G3 X-167.05696 Y-79.66189 I-29.26011 J58.21026
G3 X-165.54968 Y-80.6 I34.71016 J54.08981
G1 X-166.26462
G1 F300.0 Y-83.0
G1 F800.0 X-181.07731
G3 X-174.29475 Y-80.44409 I-28.42 J85.69486
G3 X-166.95341 Y-76.85711 I-23.81844 J58.05436
G3 X-155.36432 Y-83.0 I34.60661 J51.28503
G1 X-166.26462
G0 Z3.0
G0 X-118.97342 Y-85.4
G0 Z-1.5
G1 F300.0 Z-5.0
G3 F800.0 X-107.11056 Y-82.61779 I-7.91768 J60.44118
G3 X-97.92155 Y-85.4 I15.34763 J34.12399
G1 X-118.97342
G0 Z3.0
G0 X-71.58582 Y-83.0
G0 Z-1.5
G1 F300.0 Z-5.0
G3 F800.0 X-67.02177 Y-80.09612 I-20.58858 J37.39776
G3 X-62.72353 Y-83.0 I26.22678 J34.18709
G1 X-71.58582
G1 F300.0 X-72.74328 Y-80.89755
G3 F800.0 X-66.99012 Y-77.05188 I-19.43112 J35.29531
G3 X-66.61894 Y-77.35201 I24.28199 J29.65117
G3 X-50.59296 Y-85.4 I25.82395 J31.44298
G1 X-85.89223
G3 X-72.74328 Y-80.89755 I-6.28217 J39.79776
G0 Z3.0
G0 X-30.48804 Y-85.4
G0 Z-1.5
G1 F300.0 Z-5.0
G3 F800.0 X-29.6 Y-85.16262 I-9.62578 J37.78969
G1 Y-85.4
G1 X-30.48804
G0 Z3.0
G0 X-68.5977 Y-32.55044
G0 Z-1.5
G1 F300.0 Z-5.0
G3 F800.0 X-68.89149 Y-31.9091 I-179.05935 J-81.63674
G3 X-68.91196 Y-31.86479 I-15.98351 J-7.35652
G2 X-71.80005 Y-25.43515 I267.5624 J124.0481
G2 X-72.65643 Y-19.67558 I30.22606 J7.43772
G3 X-72.67347 Y-19.40008 I-17.56961 J-0.94859
G2 X-72.98307 Y-9.96181 I127.89963 J8.91959
G3 X-72.98313 Y-9.80528 I-17.59506 J0.07118
G2 X-72.92676 Y-5.5539 I117.3928 J0.56939
G3 X-69.2873 Y-6.17558 I7.48557 J32.85833
G2 X-69.09991 Y-10.8838 I-3013.87618 J-122.31216
G3 X-69.09755 Y-10.94168 I17.58182 J0.68601
G2 X-68.56505 Y-30.45335 I-649.78686 J-27.49666
G2 X-68.5977 Y-32.55044 I-218.56487 J2.35387
G0 Z3.0
G0 X-92.58136 Y69.83423
G0 Z-1.5
G1 F300.0 Z-5.0
G3 F800.0 X-95.68325 Y70.73278 I-30.52633 J-99.57693
G3 X-96.6785 Y71.0 I-20.91116 J-75.89537
G1 X-92.01783
G3 X-92.58136 Y69.83423 I47.76293 J-23.80765
G0 Z3.0
G0 X-32.1972 Y85.4
G0 Z-1.5
G1 F300.0 Z-5.0
G1 F800.0 X-29.6
G1 Y84.60697
G3 X-32.1972 Y85.4 I-12.77968 J-37.20436
G0 Z3.0
G0 X-158.49191 Y67.4
G0 Z-1.5
G1 F300.0 Z-5.0
G3 F800.0 X-162.89415 Y65.06973 I41.66938 J-84.04323
G3 X-167.14124 Y67.4 I-35.52959 J-59.71982
G1 X-158.49191
G1 F300.0 Y68.6
G1 F800.0 X-153.00953
G3 X-162.91126 Y63.67947 I36.187 J-85.24323
G3 X-169.73903 Y67.32297 I-35.51248 J-58.32956
G3 X-172.59055 Y68.6 I-37.40313 J-79.69667
G1 X-158.49191
G1 F300.0 Y71.0
G1 F800.0 X-138.17251
G3 X-162.95161 Y60.87622 I21.34998 J-87.64323
G3 X-170.7529 Y65.14763 I-35.47213 J-55.52631
G3 X-187.58299 Y71.0 I-36.38925 J-77.52133
G1 X-158.49191
G0 Z3.0
G0 X-233.41389
G0 Z-1.5
G1 F300.0 Z-5.0
G3 F800.0 X-235.29628 Y70.4927 I20.87926 J-81.22034
G3 X-235.58809 Y71.0 I-64.42646 J-36.72172
G1 X-233.41389
G1 F300.0 Y73.4
G1 F800.0 X-87.96824
G3 X-91.06591 Y67.35236 I43.71335 J-26.20765
G3 X-91.66237 Y67.02738 I24.49889 J-45.67452
G3 X-96.31798 Y68.41823 I-31.44532 J-96.77008
G3 X-115.52877 Y71.15343 I-20.27643 J-73.58082
G3 X-163.00105 Y58.03924 I-1.29376 J-87.79666
G3 X-171.76676 Y62.97228 I-35.42269 J-52.68934
G3 X-193.542 Y69.74494 I-35.3754 J-75.34598
G3 X-211.73417 Y71.23684 I-17.94733 J-107.18578
G3 X-236.46524 Y67.64647 I-0.80046 J-81.45719
G3 X-238.32416 Y70.90956 I-63.2575 J-33.87549
G3 X-238.75798 Y71.61097 I-35.59078 J-21.52805
G3 X-239.92223 Y73.4 I-68.90508 J-43.56812
G1 X-233.41389
G1 F300.0 Y75.8
G1 F800.0 X-83.50302
G3 X-89.18733 Y65.62844 I39.24812 J-28.60765
G3 X-91.40497 Y64.41435 I22.6203 J-43.95059
G3 X-96.95273 Y66.10369 I-31.70271 J-94.15705
G3 X-115.5632 Y68.75368 I-19.64168 J-71.26628
G3 X-163.06089 Y55.16368 I-1.25933 J-85.39691
G3 X-172.78058 Y60.79692 I-35.36285 J-49.81377
G3 X-193.93623 Y67.37754 I-34.36158 J-73.17062
G3 X-211.74329 Y68.83682 I-17.5531 J-104.81838
G3 X-237.66422 Y64.74074 I-0.79134 J-79.05716
G3 X-240.37771 Y69.66742 I-62.05852 J-30.96977
G3 X-240.7865 Y70.32836 I-33.53723 J-20.2859
G3 X-244.57746 Y75.8 I-66.87656 J-42.2855
G1 X-233.41389
G1 F300.0 Y78.2
G1 F800.0 X-78.45978
G3 X-87.29589 Y63.89327 I34.20488 J-31.00765
G3 X-91.13106 Y61.78316 I20.72887 J-42.21543
G3 X-97.58749 Y63.78915 I-31.97663 J-91.52586
G3 X-115.59763 Y66.35393 I-19.00692 J-68.95174
G3 X-163.13273 Y52.24359 I-1.22489 J-82.99715
G3 X-173.79437 Y58.62154 I-35.29101 J-46.89368
G3 X-194.33046 Y65.01014 I-33.34778 J-70.99524
G3 X-211.75246 Y66.43679 I-17.15887 J-102.45098
G3 X-238.8986 Y61.76485 I-0.78217 J-76.65713
G3 X-242.43126 Y68.42527 I-60.82414 J-27.99388
G3 X-242.81502 Y69.04574 I-31.48368 J-19.04376
G3 X-249.60477 Y78.2 I-64.84804 J-41.00289
G1 X-233.41389
G1 F300.0 Y80.6
G1 F800.0 X-72.53853
G3 X-73.30792 Y79.92651 I29.60716 J-34.59951
G3 X-85.38918 Y62.14475 I29.05302 J-32.73417
G3 X-90.83824 Y59.13118 I18.82216 J-40.46691
G3 X-98.22227 Y61.47462 I-32.26945 J-88.87388
G3 X-115.63206 Y63.95417 I-18.37214 J-66.63721
G3 X-163.21855 Y49.27162 I-1.19046 J-80.5974
G3 X-174.80813 Y56.44614 I-35.20519 J-43.92171
G3 X-194.72468 Y62.64274 I-32.33402 J-68.81984
G3 X-211.7617 Y64.03676 I-16.76465 J-100.08358
G3 X-240.17533 Y58.70502 I-0.77293 J-74.2571
G3 X-244.48481 Y67.18312 I-59.5474 J-24.93405
G3 X-244.84354 Y67.76312 I-29.43013 J-17.80161
G3 X-255.11082 Y80.6 I-62.81952 J-39.72027
G1 X-233.41389
G1 F300.0 Y83.0
G1 F800.0 X-65.11072
G3 X-71.71088 Y78.13501 I22.17935 J-36.99951
G3 X-83.46409 Y60.38015 I27.45599 J-30.94266
G3 X-90.52358 Y56.45518 I16.89707 J-38.70231
G3 X-98.85705 Y59.16009 I-32.58411 J-86.19788
G3 X-115.66649 Y61.55442 I-17.73735 J-64.32267
G3 X-163.32085 Y46.23852 I-1.15603 J-78.19765
G3 X-175.82186 Y54.27073 I-35.10289 J-40.88862
G3 X-195.11889 Y60.27534 I-31.3203 J-66.64443
G3 X-211.771 Y61.63672 I-16.37044 J-97.71617
G3 X-241.50362 Y55.54301 I-0.76363 J-71.85706
G3 X-246.53837 Y65.94098 I-58.21911 J-21.77203
G3 X-246.87206 Y66.48051 I-27.37658 J-16.55946
G3 X-261.26575 Y83.0 I-60.791 J-38.43765
G1 X-233.41389
G1 F300.0 Y85.4
G1 F800.0 X-53.28818
G3 X-70.11384 Y76.3435 I10.35681 J-39.39951
G3 X-81.51657 Y58.59594 I25.85895 J-29.15115
G3 X-90.18346 Y53.75119 I14.94955 J-36.9181
G3 X-99.49186 Y56.84556 I-32.92423 J-83.49389
G3 X-115.70092 Y59.15467 I-17.10255 J-62.00815
G3 X-163.44282 Y43.13241 I-1.12161 J-75.79789
G3 X-176.83554 Y52.0953 I-34.98092 J-37.7825
G3 X-195.51309 Y57.90793 I-30.30662 J-64.469
G3 X-211.78038 Y59.23668 I-15.97624 J-95.34877
G3 X-241.86236 Y52.74577 I-0.75425 J-69.45703
G3 X-242.42625 Y52.47584 I12.49562 J-26.82788
G3 X-242.89286 Y52.24415 I29.76447 J-60.5293
G3 X-248.59192 Y64.69883 I-56.82988 J-18.47318
G3 X-248.90058 Y65.19789 I-25.32303 J-15.31732
G3 X-268.37333 Y85.4 I-58.76248 J-37.15504
G1 X-233.41389
G1 F300.0 Y87.8
G1 F800.0 X-27.2
G1 Y81.07751
G3 X-42.80193 Y84.33828 I-15.17968 J-33.67491
G3 X-68.51682 Y74.55198 I-0.12944 J-38.33778
G3 X-79.54123 Y56.7874 I24.26192 J-27.35963
G3 X-89.81332 Y51.01418 I12.9742 J-35.10956
G3 X-100.12668 Y54.53104 I-33.29437 J-80.75688
G3 X-115.73534 Y56.75491 I-16.46773 J-59.69362
G3 X-163.58869 Y39.93764 I-1.08719 J-73.39814
G3 X-177.84917 Y49.91984 I-34.83505 J-34.58773
G3 X-195.90728 Y55.54052 I-29.29299 J-62.29354
G3 X-211.78984 Y56.83664 I-15.58205 J-92.98136
G3 X-240.84904 Y50.57018 I-0.74479 J-67.05699
G3 X-241.3672 Y50.32215 I11.4823 J-24.6523
G3 X-244.35736 Y48.75413 I28.70542 J-58.3756
G3 X-250.64547 Y63.45669 I-55.36538 J-14.98316
G3 X-250.9291 Y63.91527 I-23.26947 J-14.07517
G3 X-269.91745 Y83.54818 I-56.73396 J-35.87242
G3 X-276.58105 Y87.8 I-47.04557 J-66.38382
G1 X-233.41389
G1 F300.0 Y90.2
G1 F800.0 X-24.8
G1 Y77.13195
G3 X-42.79225 Y81.93822 I-17.57968 J-29.72935
G3 X-66.91979 Y72.76045 I-0.13912 J-35.93773
G3 X-77.53064 Y54.94803 I22.6649 J-25.56811
G3 X-89.4073 Y48.23774 I10.96361 J-33.27019
G3 X-100.76152 Y52.21652 I-33.70038 J-77.98044
G3 X-115.76976 Y54.35516 I-15.83289 J-57.37911
G3 X-163.76416 Y36.63305 I-1.05277 J-70.99839
G3 X-178.86275 Y47.74435 I-34.65958 J-31.28315
G3 X-196.30146 Y53.17311 I-28.27941 J-60.11805
G3 X-211.79939 Y54.4366 I-15.18787 J-90.61395
G3 X-239.83571 Y48.3946 I-0.73524 J-64.65694
G3 X-240.30815 Y48.16845 I10.46898 J-22.47671
G3 X-245.93234 Y45.03415 I27.64637 J-56.22191
G3 X-252.69902 Y62.21454 I-53.7904 J-11.26318
G3 X-252.95763 Y62.63266 I-21.21592 J-12.83302
G3 X-271.2862 Y81.57661 I-54.70544 J-34.5898
G3 X-286.9446 Y90.2 I-45.67682 J-64.41225
G1 X-233.41389
G1 F300.0 Y92.6
G1 F800.0 X-22.4
G1 Y72.57015
G3 X-23.01287 Y73.04989 I-14.1085 J-17.39239
G3 X-42.78255 Y79.53816 I-19.36681 J-25.64728
G3 X-65.32278 Y70.96892 I-0.14882 J-33.53767
G3 X-75.47428 Y53.06865 I21.06788 J-23.77658
G3 X-88.9395 Y45.43062 I8.90726 J-31.39081
G3 X-90.24354 Y45.98449 I-22.3374 J-50.77882
G3 X-101.39639 Y49.90201 I-32.86415 J-75.72719
G3 X-115.80417 Y51.95541 I-15.19802 J-55.0646
G3 X-163.97724 Y33.18891 I-1.01835 J-68.59863
G3 X-179.87627 Y45.56884 I-34.4465 J-27.83901
G3 X-196.69563 Y50.8057 I-27.26589 J-57.94254
G3 X-211.80903 Y52.03655 I-14.7937 J-88.24654
G3 X-238.82239 Y46.21901 I-0.72559 J-62.25689
G3 X-239.2491 Y46.01475 I9.45566 J-20.30112
G3 X-247.66374 Y40.98856 I26.58732 J-54.06821
G3 X-254.75257 Y60.97239 I-52.059 J-7.21759
G3 X-254.98615 Y61.35004 I-19.16237 J-11.59088
G3 X-272.65489 Y79.60499 I-52.67692 J-33.30719
G3 X-291.30523 Y89.30118 I-44.30813 J-62.44063
G3 X-291.40286 Y89.33565 I-7.50498 J-21.10024
G3 X-305.26526 Y92.6 I-22.2953 J-63.61307
G1 X-233.41389
G0 Z3.0
G0 X-176.11069 Y-15.60169
G0 Z-1.5
G1 F300.0 Z-5.0
G3 F800.0 X-176.10848 Y-16.05296 I55.82386 J0.0482
G3 X-176.11059 Y-16.28106 I74.8507 J-0.80826
G3 X-176.75643 Y-16.14653 I-5.40304 J-24.32143
G3 X-176.11069 Y-15.60169 I-25.03975 J30.33186
G1 F300.0 X-173.71069 Y-15.59962
G3 F800.0 X-173.70836 Y-16.05512 I53.42386 J0.04613
G3 X-173.66381 Y-19.52633 I72.45058 J-0.80611
G3 X-175.96328 Y-18.78301 I-6.22618 J-15.33253
G3 X-181.80761 Y-18.09006 I-5.55035 J-21.81947
G3 X-182.16597 Y-18.10092 I0.13573 J-10.39431
G3 X-184.08301 Y-18.26521 I1.20554 J-25.33473
G3 X-181.52184 Y-16.68332 I-43.24545 J72.88137
G3 X-181.39965 Y-16.6036 I-5.61879 J8.74582
G3 X-173.35175 Y-9.3708 I-20.39654 J30.78893
G3 X-173.71069 Y-15.59962 I53.06491 J-6.18269
G0 Z3.0
G0 X-259.49818 Y-78.2
G0 Z-1.5
G1 F300.0 Z-5.0
G1 F800.0 X-264.69617
G3 X-261.81657 Y-76.56982 I-44.7778 J82.45524
G3 X-259.49818 Y-78.2 I46.66973 J63.90851
G1 F300.0 Y-80.6
G1 F800.0 X-275.43155
G3 X-261.67455 Y-73.68392 I-34.04242 J84.85524
G3 X-260.73516 Y-74.38633 I39.98253 J52.49253
G3 X-250.82047 Y-80.6 I45.58832 J61.72502
G1 X-259.49818
G1 F300.0 Y-83.0
G1 F800.0 X-291.04648
G3 X-278.10988 Y-79.06052 I-33.18681 J132.19071
G3 X-277.41685 Y-78.8022 I-10.82762 J30.1074
G3 X-261.52159 Y-70.75654 I-32.05712 J83.05744
G3 X-259.31221 Y-72.45366 I39.82958 J49.56515
G3 X-239.19208 Y-83.0 I44.16536 J59.79235
G1 X-259.49818
G0 Z3.0
G0 X-364.55362 Y-79.15662
G0 Z-1.5
G1 F300.0 Z-5.0
G2 F800.0 X-372.67597 Y-70.28923 I6.55362 J14.15662
G3 X-368.6845 Y-75.15516 I39.81867 J28.59272
G3 X-364.55362 Y-79.15662 I33.9252 J30.88944
G1 F300.0 X-362.99511 Y-77.33151
G3 F800.0 X-354.51438 Y-83.0 I28.23581 J33.06579
G1 X-358.0
G2 X-376.0 Y-65.0 I0.0 J18.0
G1 Y-59.3349
G3 X-374.98335 Y-61.66907 I39.60036 J15.85944
G3 X-374.89104 Y-61.86315 I28.93928 J13.64592
G3 X-366.9201 Y-73.52816 I42.03374 J20.16665
G3 X-362.99511 Y-77.33151 I32.1608 J29.26244
G1 F300.0 X-361.4366 Y-75.5064
G3 F800.0 X-335.45254 Y-85.34099 I26.67729 J31.24068
G3 X-335.09631 Y-85.34485 I0.49941 J29.59099
G3 X-308.01534 Y-83.71633 I1.01195 J209.15284
G3 X-278.92207 Y-76.80213 I-16.21795 J132.90704
G3 X-278.28103 Y-76.56319 I-10.01543 J27.849
G3 X-261.3545 Y-67.78041 I-31.19294 J80.81842
G3 X-257.88926 Y-70.52098 I39.66249 J46.58901
G3 X-233.2445 Y-82.28265 I42.74242 J57.85967
G3 X-233.19814 Y-82.29466 I7.44565 J28.64329
G3 X-209.72938 Y-85.18941 I22.80762 J88.32717
G3 X-175.21812 Y-78.22879 I0.23207 J87.88427
G3 X-166.84782 Y-74.01009 I-22.89507 J55.83905
G3 X-149.27202 Y-82.58171 I34.50102 J48.438
G3 X-149.24838 Y-82.58872 I8.42296 J28.37128
G3 X-135.34532 Y-85.4 I22.8388 J77.16405
G1 X-358.0
G2 X-378.4 Y-65.0 I0.0 J20.4
G1 Y65.0
G2 X-368.44637 Y82.52236 I20.4 J0.0
G3 X-376.23221 Y65.10976 I30.10478 J-23.90796
G3 X-376.41095 Y63.92309 I29.16971 J-5.00039
G3 X-377.02626 Y48.77242 I84.93853 J-11.03743
G3 X-376.6577 Y38.68547 I778.06422 J23.37908
G1 Y-43.48438
G3 X-376.65769 Y-43.50912 I29.5952 J0.0
G3 X-372.81258 Y-60.64548 I40.25805 J0.03366
G3 X-372.72719 Y-60.82499 I26.76851 J12.62232
G3 X-365.15568 Y-71.90118 I39.86989 J19.12849
G3 X-361.4366 Y-75.5064 I30.39637 J27.63546
G1 F300.0 X-359.87808 Y-73.68129
G3 F800.0 X-335.41204 Y-82.94133 I25.11878 J29.41557
G3 X-335.0847 Y-82.94488 I0.45891 J27.19133
G3 X-308.31025 Y-81.33451 I1.00034 J206.75287
G3 X-279.73426 Y-74.54374 I-15.92304 J130.52522
G3 X-279.14521 Y-74.32417 I-9.20324 J25.59061
G3 X-261.17095 Y-64.74748 I-30.32877 J78.57941
G3 X-256.46633 Y-68.5883 I39.47894 J43.55609
G3 X-232.6407 Y-79.95984 I41.31948 J55.92699
G3 X-232.5981 Y-79.97088 I6.84185 J26.32049
G3 X-209.7349 Y-82.78939 I22.20758 J86.00339
G3 X-176.14141 Y-76.01345 I0.2376 J85.48424
G3 X-166.73981 Y-71.11317 I-21.97178 J53.62371
G3 X-148.58896 Y-80.28096 I34.39301 J45.54108
G3 X-148.56724 Y-80.2874 I7.73991 J26.07053
G3 X-125.25358 Y-83.48909 I22.15766 J74.86274
G3 X-124.58548 Y-83.47099 I-0.40267 J27.19222
G3 X-107.5662 Y-80.23574 I-2.30562 J58.51217
G3 X-106.96973 Y-80.036 I-40.01071 J120.47139
G3 X-94.15342 Y-83.42863 I15.20679 J31.5422
G3 X-92.60831 Y-83.49029 I1.85654 J27.13176
G3 X-67.52002 Y-74.3747 I0.43392 J37.88805
G3 X-66.96172 Y-73.90298 I-22.66678 J27.393
G3 X-65.10859 Y-75.48676 I24.25359 J26.50227
G3 X-40.95597 Y-84.19698 I24.3136 J29.57773
G3 X-27.2 Y-81.85249 I0.84215 J36.58667
G1 Y-87.8
G1 X-358.0
G2 X-380.8 Y-65.0 I0.0 J22.8
G1 Y65.0
G2 X-359.56564 Y87.74618 I22.8 J0.0
G3 X-373.86671 Y64.70426 I21.22404 J-29.13178
G3 X-374.03096 Y63.61382 I26.80421 J-4.59488
G3 X-374.628 Y48.86623 I82.55854 J-10.72816
G3 X-374.2577 Y38.73713 I775.66596 J23.28527
G1 Y-43.48438
G3 X-374.25769 Y-43.50711 I27.1952 J0.0
G3 X-370.64181 Y-59.62188 I37.85805 J0.03165
G3 X-370.56335 Y-59.78684 I24.59773 J11.59872
G3 X-363.39122 Y-70.27422 I37.70605 J18.09034
G3 X-359.87808 Y-73.68129 I28.63192 J26.0085
G1 F300.0 X-358.31957 Y-71.85618
G3 F800.0 X-335.37154 Y-80.54167 I23.56026 J27.59046
G3 X-335.07309 Y-80.54491 I0.41841 J24.79167
G3 X-308.60515 Y-78.95269 I0.98873 J204.3529
G3 X-280.54646 Y-72.28534 I-15.62814 J128.1434
G3 X-280.00939 Y-72.08515 I-8.39104 J23.33222
G3 X-260.968 Y-61.64763 I-29.46459 J76.34039
G3 X-255.0434 Y-66.65561 I39.27598 J40.45623
G3 X-232.0369 Y-77.63704 I39.89656 J53.9943
G3 X-231.99806 Y-77.6471 I6.23805 J23.99768
G3 X-209.74042 Y-80.38936 I21.60754 J83.67961
G3 X-177.06461 Y-73.79807 I0.24312 J83.08422
G3 X-166.62891 Y-68.15653 I-21.04858 J51.40833
G3 X-147.90591 Y-77.98022 I34.28211 J42.58445
G3 X-147.8861 Y-77.98609 I7.05686 J23.76979
G3 X-125.28912 Y-81.08936 I21.47653 J72.56142
G3 X-124.67997 Y-81.07285 I-0.36713 J24.79248
G3 X-108.34059 Y-77.96403 I-2.21113 J56.11403
G3 X-106.79519 Y-77.43976 I-39.23631 J118.19968
G3 X-93.98958 Y-81.03423 I15.03225 J28.94597
G3 X-92.58083 Y-81.09045 I1.6927 J24.73735
G3 X-69.06595 Y-72.53879 I0.40643 J35.48821
G3 X-66.91383 Y-70.59577 I-21.12086 J25.55708
G3 X-63.59826 Y-73.62149 I24.2057 J23.19506
G3 X-40.92329 Y-81.79709 I22.80327 J27.71246
G3 X-24.8 Y-78.18609 I0.80947 J34.18678
G1 Y-90.2
G1 X-358.0
G2 X-383.2 Y-65.0 I0.0 J25.2
G1 Y65.0
G2 X-358.0 Y90.2 I25.2 J0.0
G1 X-350.02419
G3 X-351.51413 Y89.57174 I19.28463 J-47.81501
G3 X-371.50122 Y64.29876 I13.17253 J-30.95734
G3 X-371.65097 Y63.30455 I24.43872 J-4.18938
G3 X-372.22974 Y48.96032 I80.17855 J-10.41889
G3 X-371.8577 Y38.78886 I773.2677 J23.19118
G1 Y-43.48438
G3 X-371.85769 Y-43.50511 I24.7952 J0.0
G3 X-368.47104 Y-58.59828 I35.45805 J0.02965
G3 X-368.3995 Y-58.74868 I22.42696 J10.57512
G3 X-361.62673 Y-68.64729 I35.5422 J17.05218
G3 X-358.31957 Y-71.85618 I26.86743 J24.38157
G1 F300.0 X-356.76105 Y-70.03106
G3 F800.0 X-335.33104 Y-78.14201 I22.00175 J25.76535
G3 X-335.06148 Y-78.14494 I0.37791 J22.39201
G3 X-308.90004 Y-76.57087 I0.97711 J201.95293
G3 X-281.35865 Y-70.02695 I-15.33326 J125.76158
G3 X-280.87356 Y-69.84614 I-7.57885 J21.07382
G3 X-260.74186 Y-58.46779 I-28.60041 J74.10137
G3 X-253.62049 Y-64.7229 I39.04984 J37.27639
G3 X-231.4331 Y-75.31423 I38.47364 J52.06159
G3 X-231.39802 Y-75.32332 I5.63425 J21.67487
G3 X-209.74593 Y-77.98934 I21.0075 J81.35583
G3 X-177.98772 Y-71.58264 I0.24863 J80.68419
G3 X-166.5145 Y-65.1273 I-20.12547 J49.19291
G3 X-147.22285 Y-75.67947 I34.1677 J39.55522
G3 X-147.20497 Y-75.68477 I6.3738 J21.46904
G3 X-125.32465 Y-78.68962 I20.79539 J70.26011
G3 X-124.77447 Y-78.67471 I-0.3316 J22.39274
G3 X-109.11521 Y-75.69238 I-2.11663 J53.71589
G3 X-106.58817 Y-74.82318 I-38.4617 J115.92803
G3 X-106.41119 Y-74.92233 I11.03364 J19.48855
G3 X-93.82573 Y-78.63983 I14.64825 J26.42853
G3 X-92.55334 Y-78.69061 I1.52886 J22.34295
G3 X-70.61184 Y-70.70284 I0.37895 J33.08837
G3 X-66.86365 Y-67.02919 I-19.57496 J23.72113
G3 X-62.08796 Y-71.75618 I24.15552 J19.62848
G3 X-40.89057 Y-79.39718 I21.29297 J25.84715
G3 X-22.4 Y-74.01541 I0.77675 J31.78687
G1 Y-92.6
G1 X-358.0
G2 X-385.6 Y-65.0 I0.0 J27.6
G1 Y65.0
G2 X-358.0 Y92.6 I27.6 J0.0
G1 X-327.84899
G3 X-337.32049 Y91.09995 I6.58224 J-72.21347
G3 X-350.56081 Y87.36915 I6.58093 J-48.71496
G3 X-369.13572 Y63.89325 I12.21921 J-28.75475
G3 X-369.27098 Y62.99528 I22.07322 J-3.78388
G3 X-369.83149 Y49.05471 I77.79856 J-10.10962
G3 X-369.4577 Y38.84068 I770.86945 J23.09678
G1 Y-43.48438
G3 X-369.45769 Y-43.5031 I22.3952 J0.0
G3 X-366.30027 Y-57.57468 I33.05805 J0.02764
G3 X-366.23565 Y-57.71053 I20.25619 J9.55153
G3 X-359.8622 Y-67.02038 I33.37835 J16.01403
G3 X-356.76105 Y-70.03106 I25.1029 J22.75466
G1 F300.0 X-355.20254 Y-68.20595
G3 F800.0 X-335.29054 Y-75.74235 I20.44324 J23.94023
G3 X-335.04987 Y-75.74497 I0.33742 J19.99235
G3 X-309.1949 Y-74.18905 I0.9655 J199.55296
G3 X-282.17084 Y-67.76855 I-15.03839 J123.37976
G3 X-281.73774 Y-67.60712 I-6.76666 J18.81543
G3 X-260.48755 Y-55.19076 I-27.73623 J71.86236
G3 X-252.19759 Y-62.79019 I38.79553 J33.99937
G3 X-230.8293 Y-72.99143 I37.05074 J50.12888
G3 X-230.79798 Y-72.99954 I5.03045 J19.35207
G3 X-209.75144 Y-75.58931 I20.40746 J79.03205
G3 X-178.91071 Y-69.36717 I0.25413 J78.28416
G3 X-166.39574 Y-62.00813 I-19.20248 J46.97743
G3 X-146.5398 Y-73.37872 I34.04894 J36.43605
G3 X-146.52383 Y-73.38346 I5.69075 J19.16829
G3 X-125.36019 Y-76.28988 I20.11425 J67.95879
G3 X-124.86897 Y-76.27657 I-0.29606 J19.99301
G3 X-109.89006 Y-73.42082 I-2.02213 J51.31775
G3 X-106.35385 Y-72.18655 I-37.68685 J113.65646
G3 X-105.41329 Y-72.7304 I31.91363 J54.10809
G3 X-105.24772 Y-72.82319 I9.85876 J17.39577
G3 X-93.66189 Y-76.24543 I13.48479 J24.3294
G3 X-92.52586 Y-76.29076 I1.36502 J19.94855
G3 X-72.15769 Y-68.86682 I0.35146 J30.68853
G3 X-66.80965 Y-63.029 I-18.02911 J21.88511
G3 X-60.5777 Y-69.89082 I24.10152 J15.62829
G3 X-40.8578 Y-76.99726 I19.78271 J23.98179
G3 X-20.0 Y-69.04814 I0.74398 J29.38694
G1 Y-95.0
G1 X-358.0
G2 X-388.0 Y-65.0 I0.0 J30.0
G1 Y65.0
G2 X-358.0 Y95.0 I30.0 J0.0
G1 X-20.0
G1 Y66.91338
G3 X-23.91112 Y70.70561 I-23.35221 J-20.17136
G3 X-24.45914 Y71.13461 I-12.59738 J-15.52785
G3 X-42.77281 Y77.13809 I-17.92054 J-23.732
G3 X-63.72577 Y69.17738 I-0.15856 J-31.1376
G3 X-73.35657 Y51.13561 I19.47088 J-21.98503
G3 X-88.07927 Y42.91651 I6.78954 J-29.45776
G3 X-88.42922 Y42.55705 I21.48744 J-21.26884
G3 X-91.17627 Y43.77301 I-22.84768 J-47.90525
G3 X-102.03127 Y47.5875 I-31.93142 J-73.51571
G3 X-115.83858 Y49.55565 I-14.56314 J-52.75009
G3 X-163.22752 Y30.57792 I-0.98394 J-66.19888
G3 X-164.26251 Y29.59238 I42.94068 J-46.13141
G3 X-164.39106 Y29.77362 I-16.37339 J-11.47694
G3 X-180.88972 Y43.39329 I-34.03268 J-24.42371
G3 X-197.08978 Y48.43829 I-26.25244 J-55.76699
G3 X-211.81879 Y49.6365 I-14.39955 J-85.87912
G3 X-237.80907 Y44.04342 I-0.71584 J-59.85684
G3 X-238.19005 Y43.86105 I8.44233 J-18.12554
G3 X-249.63684 Y36.43984 I25.52827 J-51.91451
G3 X-256.80612 Y59.73025 I-50.08589 J-2.66887
G3 X-257.01467 Y60.06742 I-17.10882 J-10.34873
G3 X-274.02351 Y77.63331 I-50.6484 J-32.02457
G3 X-292.10951 Y87.03996 I-42.93951 J-60.46895
G3 X-292.19667 Y87.07073 I-6.7007 J-18.83902
G3 X-313.66519 Y90.72957 I-21.50148 J-61.34815
G3 X-324.68072 Y90.4162 I-0.59896 J-172.71056
G3 X-336.89374 Y88.73568 I3.41397 J-70.02966
G3 X-349.60769 Y85.16646 I6.15418 J-46.35069
G3 X-366.77023 Y63.48775 I11.26609 J-26.55206
G3 X-366.89099 Y62.68601 I19.70773 J-3.37838
G3 X-367.43325 Y49.14942 I75.41857 J-9.80035
G3 X-367.0577 Y38.89257 I768.47121 J23.00208
G1 Y-43.48438
G3 X-367.05769 Y-43.50109 I19.9952 J0.0
G3 X-364.12949 Y-56.55109 I30.65805 J0.02563
G3 X-364.07181 Y-56.67237 I18.08542 J8.52793
G3 X-358.09762 Y-65.39352 I31.2145 J14.97587
G3 X-355.20254 Y-68.20595 I23.33831 J21.1278
G1 F300.0 X-353.64402 Y-66.38084
G3 F800.0 X-335.25004 Y-73.34269 I18.88472 J22.11512
G3 X-335.03826 Y-73.34499 I0.29692 J17.59269
G3 X-309.48976 Y-71.80723 I0.95389 J197.15298
G3 X-282.98304 Y-65.51016 I-14.74353 J120.99794
G3 X-282.60192 Y-65.3681 I-5.95446 J16.55704
G3 X-261.99193 Y-53.32056 I-26.87205 J69.62334
G3 X-260.1837 Y-51.8115 I-34.34956 J42.99738
G3 X-250.7747 Y-60.85747 I38.49168 J30.62011
G3 X-230.2255 Y-70.66862 I35.62786 J48.19616
G3 X-230.19794 Y-70.67576 I4.42666 J17.02926
G3 X-209.75693 Y-73.18928 I19.80742 J76.70827
G3 X-179.83359 Y-67.15164 I0.25963 J75.88413
G3 X-166.43919 Y-58.92095 I-18.2796 J44.7619
G3 X-166.27051 Y-58.77579 I-19.43383 J22.75341
G3 X-145.85675 Y-71.07797 I33.92371 J33.20371
G3 X-145.84269 Y-71.08214 I5.0077 J16.86754
G3 X-125.39572 Y-73.89015 I19.43311 J65.65748
G3 X-124.96346 Y-73.87843 I-0.26053 J17.59327
G3 X-110.66517 Y-71.14933 I-1.92764 J48.91962
G3 X-106.10658 Y-69.53366 I-36.91174 J111.38498
G3 X-104.22995 Y-70.6424 I31.66635 J51.4552
G3 X-104.08426 Y-70.72406 I8.67542 J15.30778
G3 X-93.49805 Y-73.85103 I12.32133 J22.23027
G3 X-92.49837 Y-73.89092 I1.20118 J17.55415
G3 X-73.7035 Y-67.03074 I0.32398 J28.28868
G3 X-66.7477 Y-58.12942 I-16.4833 J20.04903
G3 X-59.06748 Y-68.02541 I24.03958 J10.72871
G3 X-40.82497 Y-74.5973 I18.27249 J22.11638
G3 X-18.41079 Y-63.6659 I0.71115 J26.98699
G3 X-17.86639 Y-62.88685 I-14.14521 J10.46442
G3 X-17.6 Y-62.47679 I-30.02657 J19.79757
G1 Y-97.4
G1 X-358.0
G2 X-390.4 Y-65.0 I0.0 J32.4
G1 Y65.0
G2 X-358.0 Y97.4 I32.4 J0.0
G1 X-17.6
G1 Y58.85176
G3 X-17.66392 Y58.98752 I-36.32272 J-17.01887
G3 X-17.72196 Y59.10899 I-15.90494 J-7.52489
G3 X-25.42317 Y68.84182 I-25.63025 J-12.36696
G3 X-25.90541 Y69.21932 I-11.08533 J-13.66406
G3 X-42.76304 Y74.738 I-16.47427 J-21.81672
G3 X-62.12878 Y67.38582 I-0.16834 J-28.73751
G3 X-71.15299 Y49.12747 I17.87389 J-20.19348
G3 X-86.37248 Y41.22925 I4.58596 J-27.44963
G3 X-87.86645 Y39.59489 I19.78064 J-19.58158
G3 X-92.10882 Y41.56145 I-23.41045 J-44.94309
G3 X-102.66619 Y45.27301 I-30.99887 J-71.30415
G3 X-115.87299 Y47.1559 I-13.92822 J-50.43559
G3 X-161.56851 Y28.84333 I-0.94954 J-63.79913
G3 X-164.67918 Y25.733 I41.28168 J-44.39682
G3 X-165.94929 Y27.80536 I-31.6613 J-17.97913
G3 X-166.34091 Y28.3743 I-14.68661 J-9.68992
G3 X-181.90309 Y41.2177 I-32.08283 J-23.02439
G3 X-197.48392 Y46.07087 I-25.23907 J-53.5914
G3 X-211.82866 Y47.23644 I-14.00541 J-83.5117
G3 X-236.79574 Y41.86784 I-0.70597 J-57.45679
G3 X-237.13099 Y41.70736 I7.42901 J-15.94995
G3 X-252.00822 Y31.02005 I24.46921 J-49.76082
G3 X-251.96692 Y33.44131 I-57.36364 J2.18937
G3 X-258.85967 Y58.4881 I-47.75581 J0.32967
G3 X-259.04319 Y58.78481 I-15.05527 J-9.10659
G3 X-275.39205 Y75.66157 I-48.61988 J-30.74195
G3 X-292.91379 Y84.77873 I-41.57096 J-58.49721
G3 X-292.99049 Y84.80581 I-5.89643 J-16.57779
G3 X-313.66994 Y88.32957 I-20.70767 J-59.08323
G3 X-324.54998 Y88.01972 I-0.59421 J-170.31056
G3 X-336.46789 Y86.37102 I3.28323 J-67.63319
G3 X-348.65482 Y82.96366 I5.72833 J-43.98603
G3 X-364.40473 Y63.08225 I10.31322 J-24.34925
G3 X-364.511 Y62.37674 I17.34223 J-2.97287
G3 X-365.03502 Y49.24445 I73.03858 J-9.49108
G3 X-364.6577 Y38.94455 I766.07298 J22.90705
G1 Y-43.48438
G3 X-364.65769 Y-43.49909 I17.5952 J0.0
G3 X-361.95872 Y-55.52749 I28.25805 J0.02363
G3 X-361.90796 Y-55.63422 I15.91465 J7.50433
G3 X-356.33297 Y-63.76669 I29.05066 J13.93772
G3 X-353.64402 Y-66.38084 I21.57367 J19.50098
G1 F300.0 X-352.08551 Y-64.55573
G3 F800.0 X-335.20954 Y-70.94304 I17.32621 J20.29001
G3 X-335.02664 Y-70.94502 I0.25642 J15.19304
G3 X-309.78459 Y-69.4254 I0.94228 J194.75301
G3 X-283.79523 Y-63.25177 I-14.4487 J118.61611
G3 X-283.4661 Y-63.12909 I-5.14227 J14.29864
G3 X-263.50446 Y-51.45706 I-26.00787 J67.38432
G3 X-259.85414 Y-48.25655 I-32.83703 J41.13389
G3 X-249.35183 Y-58.92474 I38.16213 J27.06515
G3 X-229.6217 Y-68.34582 I34.20499 J46.26343
G3 X-229.5979 Y-68.35198 I3.82286 J14.70646
G3 X-209.76242 Y-70.78924 I19.20738 J74.38449
G3 X-180.75632 Y-64.93605 I0.26512 J73.4841
G3 X-168.00462 Y-57.10174 I-17.35686 J42.54631
G3 X-166.13481 Y-55.34888 I-17.8684 J20.9342
G3 X-165.25107 Y-56.36258 I36.84763 J31.23179
G3 X-164.91954 Y-56.72061 I11.31357 J10.14383
G3 X-145.17369 Y-68.77723 I32.57274 J31.14852
G3 X-145.16156 Y-68.78082 I4.32464 J14.5668
G3 X-125.43126 Y-71.49041 I18.75198 J63.35616
G3 X-125.05796 Y-71.48029 I-0.22499 J15.19353
G3 X-111.44058 Y-68.87794 I-1.83314 J46.52148
G3 X-105.84485 Y-66.86265 I-36.13633 J109.11359
G3 X-103.04662 Y-68.55441 I31.40462 J48.78419
G3 X-102.9208 Y-68.62493 I7.49209 J13.21978
G3 X-93.33421 Y-71.45663 I11.15786 J20.13113
G3 X-92.47089 Y-71.49108 I1.03733 J15.15975
G3 X-75.24924 Y-65.19456 I0.2965 J25.88884
G3 X-66.63499 Y-46.59299 I-14.93756 J18.21285
G3 X-66.90031 Y-44.00571 I-15.19313 J-0.25076
G3 X-68.36557 Y-39.12924 I-24.08885 J-4.57971
G3 X-69.25633 Y-36.97871 I-74.31497 J-29.52197
G3 X-69.26414 Y-36.96063 I-13.95245 J-6.01857
G3 X-71.07165 Y-32.91254 I-178.39291 J-77.22656
G3 X-71.08933 Y-32.87427 I-13.80335 J-6.35309
G2 X-74.08056 Y-26.20902 I269.73977 J125.05758
G2 X-75.05294 Y-19.80497 I32.50657 J8.2116
G3 X-75.06766 Y-19.56704 I-15.1731 J-0.8192
G2 X-75.38305 Y-9.9521 I130.29381 J9.08656
G3 X-75.3831 Y-9.81692 I-15.19508 J0.06147
G2 X-75.1915 Y-2.43836 I119.79277 J0.58103
G3 X-68.65719 Y-3.83011 I9.75032 J29.7428
G3 X-66.97398 Y-4.0085 I35.64944 J328.34065
G2 X-66.70173 Y-10.79022 I-3016.1895 J-124.47923
G3 X-66.6997 Y-10.84021 I15.18365 J0.59244
G2 X-66.16489 Y-30.45148 I-652.18472 J-27.59813
G2 X-66.3824 Y-38.1796 I-220.96503 J2.35201
G3 X-66.63197 Y-47.16357 I247.37098 J-11.36717
G3 X-57.55732 Y-66.15992 I23.92384 J-0.23714
G3 X-40.79205 Y-72.19732 I16.76233 J20.25089
G3 X-20.3402 Y-62.23854 I0.67824 J24.58701
G3 X-19.87006 Y-61.56576 I-12.21579 J9.03706
G3 X-15.2 Y-50.69411 I-28.02289 J18.47647
G1 Y-99.8
G1 X-358.0
G2 X-392.8 Y-65.0 I0.0 J34.8
G1 Y65.0
G2 X-358.0 Y99.8 I34.8 J0.0
G1 X-15.2
G1 Y46.90555
G3 X-16.42377 Y46.97905 I-3.05998 J-40.7227
G3 X-16.56454 Y46.98755 I-6.59715 J-108.02412
G3 X-19.83337 Y57.96112 I-37.35817 J-5.15467
G3 X-19.88349 Y58.06602 I-13.73549 J-6.49849
G3 X-26.93522 Y66.97803 I-23.46872 J-11.32399
G3 X-27.35168 Y67.30404 I-9.57328 J-11.80027
G3 X-42.75321 Y72.33789 I-15.028 J-19.90144
G3 X-60.5318 Y65.59425 I-0.17816 J-26.3374
G3 X-68.82181 Y47.00776 I16.27691 J-18.4019
G3 X-84.66568 Y39.54199 I2.25479 J-25.32992
G3 X-87.23028 Y36.51122 I18.07385 J-17.89432
G3 X-93.04117 Y39.34978 I-24.04662 J-41.85942
G3 X-103.30113 Y42.95852 I-30.06652 J-69.09248
G3 X-115.90739 Y44.75615 I-13.29328 J-48.1211
G3 X-159.90952 Y27.10871 I-0.91514 J-61.39937
G3 X-165.22048 Y21.47336 I39.62268 J-42.6622
G3 X-167.95256 Y26.48364 I-31.12 J-13.71949
G3 X-168.29076 Y26.97498 I-12.68334 J-8.36821
G3 X-182.91636 Y39.04207 I-30.13298 J-21.62508
G3 X-197.87803 Y43.70345 I-24.22579 J-51.41577
G3 X-211.83866 Y44.83638 I-13.61129 J-81.14428
G3 X-235.78242 Y39.69225 I-0.69597 J-55.05672
G3 X-236.07194 Y39.55366 I6.41569 J-13.77436
G3 X-255.20507 Y23.64105 I23.41016 J-47.60712
G3 X-254.36696 Y33.44477 I-54.16679 J9.56837
G3 X-260.91323 Y57.24596 I-45.35578 J0.3262
G3 X-261.07171 Y57.50219 I-13.00172 J-7.86444
G3 X-276.76051 Y73.68975 I-46.59136 J-29.45933
G3 X-293.71807 Y82.51751 I-40.20251 J-56.52539
G3 X-293.7843 Y82.54089 I-5.09215 J-14.31657
G3 X-313.67464 Y85.92957 I-19.91385 J-56.81831
G3 X-324.4194 Y85.62323 I-0.5895 J-167.91056
G3 X-336.04307 Y84.00592 I3.15265 J-65.2367
G3 X-347.70225 Y80.76071 I5.30351 J-41.62093
G3 X-362.03924 Y62.67675 I9.36066 J-22.14631
G3 X-362.13101 Y62.06747 I14.97674 J-2.56737
G3 X-362.6368 Y49.33982 I70.65859 J-9.18181
G3 X-362.2577 Y38.99661 I763.67476 J22.81168
G1 Y-43.48438
G3 X-362.25769 Y-43.49708 I15.1952 J0.0
G3 X-359.78795 Y-54.50389 I25.85805 J0.02162
G3 X-359.74411 Y-54.59606 I13.74388 J6.48074
G3 X-354.56825 Y-62.13993 I26.88681 J12.89956
G3 X-352.08551 Y-64.55573 I19.80895 J17.87421
G1 F300.0 X-350.527 Y-62.73062
G3 F800.0 X-335.16904 Y-68.54338 I15.76769 J18.4649
G3 X-335.01503 Y-68.54505 I0.21592 J12.79338
G3 X-310.07941 Y-67.04358 I0.93067 J192.35304
G3 X-284.60743 Y-60.99337 I-14.15388 J116.23428
G3 X-284.33028 Y-60.89007 I-4.33007 J12.04025
G3 X-265.0169 Y-49.59349 I-25.1437 J65.1453
G3 X-259.48939 Y-44.45981 I-31.32459 J39.27031
G3 X-247.92898 Y-56.99199 I37.79737 J23.26842
G3 X-229.0179 Y-66.02301 I32.78213 J44.33068
G3 X-228.99786 Y-66.0282 I3.21906 J12.38365
G3 X-209.7679 Y-68.3892 I18.60734 J72.06071
G3 X-181.67891 Y-62.72038 I0.27059 J71.08406
G3 X-169.56992 Y-55.28242 I-16.43428 J40.33065
G3 X-166.05113 Y-51.60329 I-16.3031 J19.11488
G3 X-163.46415 Y-54.76042 I36.76394 J27.48619
G3 X-163.18498 Y-55.06189 I9.52665 J8.54167
G3 X-144.49064 Y-66.47648 I30.83818 J29.48981
G3 X-144.48042 Y-66.47951 I3.64159 J12.26605
G3 X-125.4668 Y-69.09067 I18.07084 J61.05484
G3 X-125.15246 Y-69.08215 I-0.18945 J12.7938
G3 X-112.21631 Y-66.60665 I-1.73864 J44.12334
G3 X-105.5669 Y-64.17129 I-35.3606 J106.8423
G3 X-101.86328 Y-66.46642 I31.12667 J46.09283
G3 X-101.75733 Y-66.5258 I6.30875 J11.13179
G3 X-93.17037 Y-69.06222 I9.9944 J18.032
G3 X-92.4434 Y-69.09124 I0.87349 J12.76535
G3 X-76.7949 Y-63.35827 I0.26901 J23.489
G3 X-69.03467 Y-46.6326 I-13.39191 J16.37656
G3 X-69.25808 Y-44.45396 I-12.79346 J-0.21115
G3 X-70.588 Y-40.03547 I-21.73108 J-4.13146
G3 X-71.46004 Y-37.92931 I-72.09253 J-28.61573
G3 X-71.46662 Y-37.91408 I-11.74874 J-5.06797
G3 X-73.25182 Y-33.91597 I-176.19043 J-76.2731
G3 X-73.2667 Y-33.88375 I-11.62318 J-5.34965
G2 X-76.35846 Y-26.98859 I271.91714 J126.06706
G2 X-77.44945 Y-19.93436 I34.78447 J8.99116
G3 X-77.46184 Y-19.73401 I-12.77659 J-0.68982
G2 X-77.78303 Y-9.94239 I132.688 J9.25353
G3 X-77.78308 Y-9.82857 I-12.7951 J0.05176
G2 X-77.43551 Y-0.00709 I122.19274 J0.59267
G2 X-77.33464 Y0.97986 I41.45085 J-3.73789
G3 X-75.0856 Y0.06096 I9.23021 J19.37937
G3 X-68.40447 Y-1.44345 I9.64441 J27.24348
G3 X-64.66264 Y-1.82808 I35.39673 J325.95398
G2 X-64.30356 Y-10.69665 I-3018.50084 J-126.65965
G3 X-64.30184 Y-10.73875 I12.78547 J0.49887
G2 X-63.76474 Y-30.44953 I-654.58257 J-27.6996
G2 X-63.98492 Y-38.28943 I-223.36519 J2.35005
G3 X-64.23208 Y-47.18702 I244.9735 J-11.25735
G3 X-56.04723 Y-64.29434 I21.52396 J-0.21369
G3 X-40.75903 Y-69.79729 I15.25224 J18.38531
G3 X-22.26962 Y-60.81119 I0.64522 J22.18698
G3 X-21.87374 Y-60.24467 I-10.28637 J7.60971
G3 X-16.88959 Y-46.26706 I-26.01922 J17.15538
G3 X-16.45496 Y-38.9664 I-55.93062 J6.99297
G3 X-16.53876 Y-34.19158 I-184.96841 J-0.85819
G2 X-16.6118 Y-30.61129 I187.28621 J5.61149
G3 X-16.61191 Y-30.60136 I-12.79445 J-0.13871
G3 X-17.16969 Y-9.60793 I-702.54712 J-8.16185
G3 X-17.47602 Y-1.88629 I-3355.7061 J-129.25881
G3 X-15.85903 Y-1.90385 I2.23203 J131.08549
G3 X-12.8 Y-1.77652 I0.55687 J23.4314
G1 Y-102.2
G1 X-358.0
G2 X-395.2 Y-65.0 I0.0 J37.2
G1 Y65.0
G2 X-358.0 Y102.2 I37.2 J0.0
G1 X-12.8
G1 Y44.23058
G3 X-16.55071 Y44.58233 I-5.45998 J-38.04773
G3 X-18.69456 Y44.69184 I-6.47022 J-105.6274
G3 X-18.90964 Y46.4187 I-60.58463 J-6.66883
G3 X-22.00281 Y56.93472 I-35.01308 J-4.58582
G3 X-22.04502 Y57.02305 I-11.56605 J-5.47209
G3 X-28.44726 Y65.11424 I-21.30719 J-10.28102
G3 X-28.79795 Y65.38876 I-8.06123 J-9.93648
G3 X-42.74331 Y69.93776 I-13.58173 J-17.98615
G3 X-58.93484 Y63.80265 I-0.18806 J-23.93726
G3 X-66.41859 Y46.77538 I14.67995 J-16.6103
G3 X-66.37816 Y44.70715 I150.88596 J1.91498
G3 X-82.95888 Y37.85473 I-0.18887 J-23.02931
G3 X-86.48842 Y33.25263 I16.36705 J-16.20706
G3 X-93.9733 Y37.13801 I-24.78848 J-38.60082
G3 X-103.9361 Y40.64403 I-29.13439 J-66.88071
G3 X-115.94178 Y42.35639 I-12.65831 J-45.80662
G3 X-158.25053 Y25.37404 I-0.88074 J-58.99962
G3 X-165.97229 Y16.52679 I37.9637 J-40.92753
G3 X-169.95582 Y25.16193 I-30.36819 J-8.77292
G3 X-170.2406 Y25.57566 I-10.68008 J-7.0465
G3 X-183.92953 Y36.86638 I-28.18314 J-20.22576
G3 X-198.27213 Y41.33602 I-23.21263 J-49.24008
G3 X-211.84881 Y42.43631 I-13.21719 J-78.77686
G3 X-234.7691 Y37.51667 I-0.68582 J-52.65666
G3 X-235.01289 Y37.39996 I5.40236 J-11.59878
G3 X-253.31384 Y22.16236 I22.35111 J-45.45342
G3 X-261.34851 Y7.99319 I49.23675 J-37.28247
G3 X-263.03967 Y9.73408 I-37.71522 J-34.94582
G3 X-261.56727 Y12.26616 I-35.91933 J22.58117
G3 X-261.49795 Y12.39727 I-11.27648 J6.04634
G3 X-257.71176 Y23.28156 I-35.16228 J18.33217
G3 X-256.767 Y33.4483 I-51.6601 J9.92787
G3 X-262.96678 Y56.00381 I-42.95574 J0.32267
G3 X-263.10023 Y56.21957 I-10.94817 J-6.62229
G3 X-278.12888 Y71.71786 I-44.56283 J-28.17672
G3 X-294.52234 Y80.25628 I-38.83414 J-54.5535
G3 X-294.57812 Y80.27597 I-4.28787 J-12.05534
G3 X-313.6793 Y83.52957 I-19.12004 J-54.5534
G3 X-324.28898 Y83.22673 I-0.58485 J-165.51056
G3 X-335.61943 Y81.64031 I3.02223 J-62.8402
G3 X-346.75007 Y78.55759 I4.87987 J-39.25532
G3 X-359.67374 Y62.27124 I8.40847 J-19.94318
G3 X-359.75102 Y61.7582 I12.61124 J-2.16187
G3 X-360.23859 Y49.43557 I68.2786 J-8.87254
G3 X-359.8577 Y39.04875 I761.27655 J22.71593
G1 Y-43.48438
G3 Y-43.49507 I12.7952 J0.0
G3 X-357.61718 Y-53.4803 I23.45805 J0.01961
G3 X-357.58026 Y-53.55791 I11.57311 J5.45714
G3 X-352.80343 Y-60.51324 I24.72296 J11.86141
G3 X-350.527 Y-62.73062 I18.04413 J16.24752
G1 F300.0 X-348.96848 Y-60.90551
G3 F800.0 X-335.12854 Y-66.14372 I14.20918 J16.63979
G3 X-335.00342 Y-66.14508 I0.17542 J10.39372
G3 X-310.37421 Y-64.66175 I0.91905 J189.95307
G3 X-285.41962 Y-58.73498 I-13.85908 J113.85245
G3 X-285.19446 Y-58.65105 I-3.51788 J9.78186
G3 X-266.52924 Y-47.72982 I-24.27952 J62.90629
G3 X-259.07292 Y-40.30785 I-29.81225 J37.40664
G3 X-246.50615 Y-55.05922 I37.3809 J19.11646
G3 X-228.4141 Y-63.70021 I31.3593 J42.39791
G3 X-228.39782 Y-63.70442 I2.61526 J10.06085
G3 X-209.77336 Y-65.98917 I18.0073 J69.73693
G3 X-182.60131 Y-60.50464 I0.27606 J68.68402
G3 X-171.13507 Y-53.46296 I-15.51188 J38.11491
G3 X-166.08004 Y-47.32894 I-14.73795 J17.29542
G3 X-161.67723 Y-53.15825 I36.79285 J23.21185
G3 X-161.45043 Y-53.40318 I7.73973 J6.9395
G3 X-143.80759 Y-64.17573 I29.10363 J27.8311
G3 X-143.79928 Y-64.17819 I2.95853 J9.9653
G3 X-125.50233 Y-66.69094 I17.3897 J58.75353
G3 X-125.24695 Y-66.68401 I-0.15392 J10.39406
G3 X-112.9924 Y-64.33548 I-1.64415 J41.7252
G3 X-105.27064 Y-61.45697 I-34.58451 J104.57113
G3 X-100.67995 Y-64.37842 I30.83042 J43.37851
G3 X-100.59387 Y-64.42667 I5.12542 J9.0438
G3 X-93.00653 Y-66.66782 I8.83094 J15.93287
G3 X-92.41592 Y-66.69139 I0.70965 J10.37095
G3 X-78.34044 Y-61.5218 I0.24153 J21.08916
G3 X-71.43434 Y-46.6722 I-11.84636 J14.54009
G3 X-71.61585 Y-44.90222 I-10.39378 J-0.17155
G3 X-72.81012 Y-40.94254 I-19.37331 J-3.68321
G3 X-73.66376 Y-38.87991 I-69.87042 J-27.70867
G3 X-73.6691 Y-38.86754 I-9.54502 J-4.11737
G3 X-75.43198 Y-34.91941 I-173.98795 J-75.31964
G3 X-75.44407 Y-34.89323 I-9.44302 J-4.34621
G2 X-78.63404 Y-27.77321 I274.09452 J127.07654
G2 X-79.84596 Y-20.06375 I37.06005 J9.77579
G3 X-79.85603 Y-19.90098 I-10.38008 J-0.56043
G2 X-80.18301 Y-9.93268 I135.08218 J9.4205
G3 X-80.18305 Y-9.84021 I-10.39511 J0.04205
G2 X-79.82737 Y0.19117 I124.59271 J0.60431
G2 X-79.21048 Y4.57395 I43.8427 J-3.93615
G3 X-79.09164 Y4.77832 I-15.28632 J9.02582
G3 X-74.29493 Y2.327 I10.98721 J15.58091
G3 X-68.15201 Y0.94325 I8.85374 J24.97743
G3 X-62.35332 Y0.3659 I35.14426 J323.56729
G2 X-61.90538 Y-10.60308 I-3020.81016 J-128.85363
G3 X-61.90399 Y-10.63728 I10.3873 J0.4053
G2 X-61.36459 Y-30.44747 I-656.98042 J-27.80107
G2 X-61.58743 Y-38.39925 I-225.76534 J2.348
G3 X-61.8322 Y-47.21049 I242.57601 J-11.14752
G3 X-54.53725 Y-62.42863 I19.12407 J-0.19022
G3 X-40.72587 Y-67.39721 I13.74225 J16.5196
G3 X-24.19904 Y-59.38383 I0.61205 J19.7869
G3 X-23.87741 Y-58.92357 I-8.35695 J6.18235
G3 X-19.2744 Y-45.99604 I-24.01554 J15.83429
G3 X-18.85493 Y-38.97853 I-53.54581 J6.72195
G3 X-18.93767 Y-34.26407 I-182.56844 J-0.84606
G2 X-19.01166 Y-30.63731 I189.68511 J5.68398
G3 X-19.01175 Y-30.62924 I-10.39459 J-0.11269
G3 X-19.56777 Y-9.70391 I-700.14728 J-8.13397
G3 X-19.97976 Y0.58193 I-3353.30802 J-129.16282
G3 X-19.94194 Y0.58048 I0.41726 J10.38682
G3 X-15.82437 Y0.49602 I4.69796 J128.61872
G3 X-10.4 Y1.06864 I0.52221 J21.03153
G1 Y-104.6
G1 X-358.0
G2 X-397.6 Y-65.0 I0.0 J39.6
G1 Y65.0
G2 X-358.0 Y104.6 I39.6 J0.0
G1 X-10.4
G1 Y41.35275
G3 X-16.67724 Y42.18558 I-7.85998 J-35.1699
G3 X-20.88935 Y42.35834 I-6.34369 J-103.23065
G3 X-21.28808 Y46.09764 I-58.38984 J-4.33533
G3 X-24.17226 Y55.90831 I-32.63463 J-4.26475
G3 X-24.20655 Y55.98008 I-9.3966 J-4.44569
G3 X-29.95931 Y63.25045 I-19.14566 J-9.23805
G3 X-30.24422 Y63.47348 I-6.54918 J-8.07269
G3 X-42.73333 Y67.53758 I-12.13546 J-16.07087
G3 X-57.33791 Y62.01102 I-0.19804 J-21.53709
G3 X-64.01887 Y46.81336 I13.08302 J-14.81868
G3 X-63.8891 Y42.20603 I148.48624 J1.877
G3 X-65.76589 Y42.29225 I-12.17554 J-244.54877
G3 X-65.83352 Y42.29488 I-0.43723 J-10.386
G3 X-81.25209 Y36.16747 I-0.7335 J-20.61704
G3 X-85.58095 Y29.7199 I14.66025 J-14.5198
G3 X-94.90518 Y34.92612 I-25.69595 J-35.0681
G3 X-104.57112 Y38.32956 I-28.20251 J-64.66882
G3 X-115.97617 Y39.95664 I-12.02329 J-43.49215
G3 X-156.59157 Y23.63933 I-0.84636 J-56.59986
G3 X-167.21526 Y9.97754 I36.30473 J-39.19282
G3 X-171.95909 Y23.84022 I-29.12522 J-2.22367
G3 X-172.19045 Y24.17635 I-8.67681 J-5.72478
G3 X-184.94257 Y34.69063 I-26.23329 J-18.82644
G3 X-198.66621 Y38.9686 I-22.19959 J-47.06433
G3 X-211.85912 Y40.03624 I-12.82311 J-76.40943
G3 X-233.75578 Y35.34108 I-0.6755 J-50.25658
G3 X-233.95384 Y35.24627 I4.38904 J-9.42319
G3 X-251.39401 Y20.7221 I21.29206 J-43.29973
G3 X-260.50358 Y3.3083 I47.31692 J-35.84221
G3 X-266.15676 Y9.3756 I-38.56015 J-30.26093
G3 X-263.68241 Y13.40027 I-32.80224 J22.93965
G3 X-263.62609 Y13.50679 I-9.16134 J4.91223
G3 X-260.06884 Y23.7334 I-33.03415 J17.22265
G3 X-259.16704 Y33.4519 I-49.30302 J9.47602
G3 X-265.02033 Y54.76166 I-40.5557 J0.31907
G3 X-265.12875 Y54.93696 I-8.89462 J-5.38015
G3 X-279.49714 Y69.74587 I-42.53431 J-26.8941
G3 X-295.32662 Y77.99506 I-37.46588 J-52.58151
G3 X-295.37194 Y78.01106 I-3.48359 J-9.79412
G3 X-313.68391 Y81.12957 I-18.32622 J-52.28848
G3 X-324.15874 Y80.83022 I-0.58024 J-163.11056
G3 X-335.19715 Y79.27411 I2.89199 J-60.44368
G3 X-345.79837 Y76.35424 I4.45759 J-36.88912
G3 X-357.30825 Y61.86574 I7.45677 J-17.73983
G3 X-357.37103 Y61.44893 I10.24575 J-1.75637
G3 X-357.84039 Y49.53169 I65.89861 J-8.56327
G3 X-357.4577 Y39.10097 I758.87835 J22.61981
G1 Y-43.48438
G3 Y-43.49307 I10.3952 J0.0
G3 X-355.44641 Y-52.4567 I21.05805 J0.01761
G3 X-355.41642 Y-52.51975 I9.40233 J4.43354
G3 X-351.03848 Y-58.88665 I22.55912 J10.82325
