( Made using CamBam - http://www.cambam.co.uk )
( Beate_und_Kathi 3/29/2020 1:17:53 PM )
( T2 : 2.0 )
( T4 : 4.0 )
( T6 : 6.0 )
G21 G90 G64 G40
G0 Z3.0
( T6 : 6.0 )
T6 M6
( Vertiefung-Datum )
G17
M3 S1000
G0 X-11.84877 Y59.4743
G0 Z1.0
G1 F300.0 Z-2.0
G1 F800.0 Y61.72133
G1 X55.75123
G1 Y59.4743
G1 X-11.84877
G1 F300.0 Y58.2743
G1 F800.0 X-13.04877
G1 Y62.92133
G1 X56.95123
G1 Y58.2743
G1 X-11.84877
G1 F300.0 Y55.8743
G1 F800.0 X-15.44877
G1 Y65.32133
G1 X59.35123
G1 Y55.8743
G1 X-11.84877
G1 F300.0 Y53.4743
G1 F800.0 X-17.84877
G1 Y67.72133
G1 X61.75123
G1 Y53.4743
G1 X-11.84877
G1 F300.0 Y51.0743
G1 F800.0 X-20.24877
G1 Y70.12133
G1 X64.15123
G1 Y51.0743
G1 X-11.84877
G1 F300.0 Y48.6743
G1 F800.0 X-22.64877
G1 Y72.52133
G1 X66.55123
G1 Y48.6743
G1 X-11.84877
G1 F300.0 Y46.2743
G1 F800.0 X-25.04877
G1 Y74.92133
G1 X68.95123
G1 Y46.2743
G1 X-11.84877
G0 Z3.0
G0 X-8.84877 Y-69.50089
G0 Z1.0
G1 F300.0 Z-2.0
G1 F800.0 X51.77987
G1 Y-71.74792
G1 X-8.84877
G1 Y-69.50089
G1 F300.0 Y-68.30089
G1 F800.0 X52.97987
G1 Y-72.94792
G1 X-10.04877
G1 Y-68.30089
G1 X-8.84877
G1 F300.0 Y-65.90089
G1 F800.0 X55.37987
G1 Y-75.34792
G1 X-12.44877
G1 Y-65.90089
G1 X-8.84877
G1 F300.0 Y-63.50089
G1 F800.0 X57.77987
G1 Y-77.74792
G1 X-14.84877
G1 Y-63.50089
G1 X-8.84877
G1 F300.0 Y-61.10089
G1 F800.0 X60.17987
G1 Y-80.14792
G1 X-17.24877
G1 Y-61.10089
G1 X-8.84877
G1 F300.0 Y-58.70089
G1 F800.0 X62.57987
G1 Y-82.54792
G1 X-19.64877
G1 Y-58.70089
G1 X-8.84877
G1 F300.0 Y-56.30089
G1 F800.0 X64.97987
G1 Y-84.94792
G1 X-22.04877
G1 Y-56.30089
G1 X-8.84877
( Tasche6mm )
S1000
G0 Z3.0
G0 X12.04525 Y-74.02957
G0 Z1.0
G1 F300.0 Z-2.5
G2 F800.0 X11.97311 Y-73.84826 I2.22598 J0.99068
G2 X11.59612 Y-71.95064 I8.32012 J2.6392
G3 X11.5922 Y-71.90727 I-4.38409 J-0.37382
G2 X11.47808 Y-69.38006 I25.28025 J2.40781
G3 X11.47718 Y-69.26815 I-4.39995 J0.02069
G2 X12.20007 Y-66.5363 I5.12199 J0.10621
G3 X12.23094 Y-66.48375 I-3.77819 J2.25505
G2 X12.38024 Y-66.277 I1.09309 J-0.63206
G2 X12.56882 Y-66.98241 I-2.93723 J-1.16317
G3 X12.57867 Y-67.04634 I4.35356 J0.63757
G2 X12.74079 Y-69.18121 I-12.54776 J-2.02644
G3 X12.74066 Y-69.23535 I4.39984 J-0.03754
G2 X12.63605 Y-71.48661 I-22.45376 J-0.08472
G3 X12.63433 Y-71.50473 I4.37947 J-0.42455
G2 X12.29029 Y-73.38276 I-10.73305 J0.99568
G2 X12.04525 Y-74.02957 I-3.75169 J1.05145
G1 F300.0 X10.94893 Y-74.5175
G2 F800.0 X10.83462 Y-74.22786 I3.3223 J1.47861
G2 X10.40046 Y-72.05259 I9.45862 J3.0188
G3 X10.39761 Y-72.02105 I-3.18843 J-0.27187
G2 X10.27809 Y-69.37442 I26.47484 J2.52159
G3 X10.27744 Y-69.29303 I-3.19996 J0.01505
G2 X11.16965 Y-65.92129 I6.32173 J0.13109
G3 X11.19211 Y-65.88307 I-2.74778 J1.64004
G2 X11.88599 Y-65.11661 I2.13193 J-1.23274
G2 X12.44 Y-64.96532 I0.53963 J-0.88604
G3 X12.55253 Y-64.9649 I0.04437 J3.19969
G2 X13.01616 Y-65.05706 I0.02333 J-1.09489
G2 X13.21603 Y-65.25693 I-0.32624 J-0.52611
G2 X13.75616 Y-66.80853 I-3.77302 J-2.18325
G3 X13.76332 Y-66.85503 I3.16623 J0.46368
G2 X13.94074 Y-69.19145 I-13.73241 J-2.21776
G3 X13.94065 Y-69.23082 I3.19988 J-0.0273
G2 X13.83045 Y-71.60239 I-23.65375 J-0.08925
G3 X13.8292 Y-71.61557 I3.18507 J-0.30876
G2 X13.44634 Y-73.70456 I-11.92792 J1.10652
G2 X13.03563 Y-74.7289 I-4.90774 J1.37325
G3 X13.01973 Y-74.7591 I2.82374 J-1.50548
G2 X12.59783 Y-75.24263 I-1.20623 J0.62667
G2 X12.08685 Y-75.36329 I-0.48775 J0.9232
G3 X11.94896 Y-75.36319 I-0.07122 J-3.19921
G2 X11.48009 Y-75.26232 I-0.02166 J1.03946
G2 X11.16706 Y-74.93396 I0.52595 J0.81478
G3 X11.14749 Y-74.90066 I-2.76838 J-1.60501
G2 X10.94893 Y-74.5175 I3.12374 J1.86177
G1 F300.0 X12.04525 Y-74.02957
G1 Z-5.0
G2 F800.0 X11.97311 Y-73.84826 I2.22598 J0.99068
G2 X11.59612 Y-71.95064 I8.32012 J2.6392
G3 X11.5922 Y-71.90727 I-4.38409 J-0.37382
G2 X11.47808 Y-69.38006 I25.28025 J2.40781
G3 X11.47718 Y-69.26815 I-4.39995 J0.02069
G2 X12.20007 Y-66.5363 I5.12199 J0.10621
G3 X12.23094 Y-66.48375 I-3.77819 J2.25505
G2 X12.38024 Y-66.277 I1.09309 J-0.63206
G2 X12.56882 Y-66.98241 I-2.93723 J-1.16317
G3 X12.57867 Y-67.04634 I4.35356 J0.63757
G2 X12.74079 Y-69.18121 I-12.54776 J-2.02644
G3 X12.74066 Y-69.23535 I4.39984 J-0.03754
G2 X12.63605 Y-71.48661 I-22.45376 J-0.08472
G3 X12.63433 Y-71.50473 I4.37947 J-0.42455
G2 X12.29029 Y-73.38276 I-10.73305 J0.99568
G2 X12.04525 Y-74.02957 I-3.75169 J1.05145
G1 F300.0 X10.94893 Y-74.5175
G2 F800.0 X10.83462 Y-74.22786 I3.3223 J1.47861
G2 X10.40046 Y-72.05259 I9.45862 J3.0188
G3 X10.39761 Y-72.02105 I-3.18843 J-0.27187
G2 X10.27809 Y-69.37442 I26.47484 J2.52159
G3 X10.27744 Y-69.29303 I-3.19996 J0.01505
G2 X11.16965 Y-65.92129 I6.32173 J0.13109
G3 X11.19211 Y-65.88307 I-2.74778 J1.64004
G2 X11.88599 Y-65.11661 I2.13193 J-1.23274
G2 X12.44 Y-64.96532 I0.53963 J-0.88604
G3 X12.55253 Y-64.9649 I0.04437 J3.19969
G2 X13.01616 Y-65.05706 I0.02333 J-1.09489
G2 X13.21603 Y-65.25693 I-0.32624 J-0.52611
G2 X13.75616 Y-66.80853 I-3.77302 J-2.18325
G3 X13.76332 Y-66.85503 I3.16623 J0.46368
G2 X13.94074 Y-69.19145 I-13.73241 J-2.21776
G3 X13.94065 Y-69.23082 I3.19988 J-0.0273
G2 X13.83045 Y-71.60239 I-23.65375 J-0.08925
G3 X13.8292 Y-71.61557 I3.18507 J-0.30876
G2 X13.44634 Y-73.70456 I-11.92792 J1.10652
G2 X13.03563 Y-74.7289 I-4.90774 J1.37325
G3 X13.01973 Y-74.7591 I2.82374 J-1.50548
G2 X12.59783 Y-75.24263 I-1.20623 J0.62667
G2 X12.08685 Y-75.36329 I-0.48775 J0.9232
G3 X11.94896 Y-75.36319 I-0.07122 J-3.19921
G2 X11.48009 Y-75.26232 I-0.02166 J1.03946
G2 X11.16706 Y-74.93396 I0.52595 J0.81478
G3 X11.14749 Y-74.90066 I-2.76838 J-1.60501
G2 X10.94893 Y-74.5175 I3.12374 J1.86177
G0 Z3.0
G0 X23.13938 Y-50.51535
G0 Z1.0
G1 F300.0 Z-2.5
G3 F800.0 X21.39734 Y-49.45323 I-10.51867 J-15.2925
G3 X22.98654 Y-48.4875 I-26.4108 J45.25182
G3 X24.78894 Y-49.57699 I28.0 J44.28608
G3 X24.80782 Y-49.58788 I26.1976 J45.37557
G3 X23.9481 Y-50.04175 I8.4655 J-17.0766
G3 X23.13938 Y-50.51535 I11.93029 J-21.29941
G1 F300.0 X21.77926 Y-52.49275
G3 F800.0 X20.18889 Y-51.52872 I-9.15856 J-13.31511
G3 X20.0079 Y-51.43572 I-3.74419 J-7.06429
G3 X15.24019 Y-49.91038 I-7.3534 J-14.77053
G3 X22.98654 Y-45.62025 I-20.25365 J45.70897
G3 X25.98894 Y-47.49853 I28.0 J41.41884
G3 X31.23553 Y-50.12981 I24.9976 J43.29711
G3 X25.12164 Y-52.13527 I2.03779 J-16.53467
G3 X23.04338 Y-53.45718 I10.75674 J-19.20589
G3 X21.77926 Y-52.49275 I-10.42267 J-12.35067
G0 Z3.0
G0 X-59.56133 Y-70.68227
G0 Z1.0
G1 F300.0 Z-2.5
G3 F800.0 X-59.6062 Y-71.0 I54.0474 J-7.7949
G1 X-69.86254
G3 X-65.77338 Y-65.05704 I-44.26048 J34.83246
G3 X-59.56133 Y-70.68227 I60.75992 J60.85562
G1 F300.0 X-58.03898 Y-68.82689
G3 F800.0 X-57.251 Y-69.46547 I53.02552 J64.62547
G3 X-57.09768 Y-70.43681 I42.70859 J6.24353
G3 X-57.47308 Y-73.4 I51.58375 J-8.04036
G1 X-75.11733
G3 X-66.29085 Y-61.06299 I-39.00569 J37.23246
G3 X-58.03898 Y-68.82689 I61.27739 J56.86157
G1 F300.0 X-56.51663 Y-66.9715
G3 F800.0 X-55.00175 Y-68.18447 I51.50317 J62.77009
G3 X-54.66446 Y-70.4196 I40.45934 J4.96252
G3 X-55.24854 Y-75.8 I49.15053 J-8.05756
G1 X-81.19221
G3 X-80.59724 Y-75.29108 I-45.17098 J53.41026
G3 X-66.8969 Y-56.76662 I-33.52578 J39.12354
G3 X-56.51663 Y-66.9715 I61.88344 J52.5652
G1 F300.0 X-54.99428 Y-65.11612
G3 F800.0 X-52.7275 Y-66.9075 I49.98082 J60.9147
G3 X-52.2274 Y-70.40012 I38.1851 J3.68556
G3 X-52.91973 Y-78.2 I46.71347 J-8.07704
G1 X-88.30684
G3 X-82.16318 Y-73.47232 I-38.05635 J55.81026
G3 X-67.63173 Y-52.03065 I-31.95984 J37.30478
G3 X-54.99428 Y-65.11612 I62.61827 J47.82923
G1 F300.0 X-53.47193 Y-63.26074
G3 F800.0 X-50.42389 Y-65.63528 I48.45847 J59.05932
G3 X-49.78579 Y-70.37795 I35.88148 J2.41333
G3 X-50.52036 Y-78.60503 I44.27186 J-8.09921
G3 X-50.47648 Y-80.6 I44.66123 J-0.01553
G1 X-97.10308
G3 X-83.7291 Y-71.65355 I-29.26011 J58.21026
G3 X-68.57538 Y-46.58194 I-30.39393 J35.48601
G3 X-53.47193 Y-63.26074 I63.56192 J42.38052
G1 F300.0 X-51.94958 Y-61.40535
G3 F800.0 X-48.08536 Y-64.36869 I46.93612 J57.20394
G3 X-47.33873 Y-70.35255 I33.54295 J1.14675
G3 X-48.12036 Y-78.60204 I41.8248 J-8.12461
G3 X-47.9125 Y-82.80692 I42.26123 J-0.01852
G3 X-47.89326 Y-83.0 I35.79292 J3.47081
G1 X-109.32731
G3 X-102.54475 Y-80.44409 I-28.42 J85.69486
G3 X-85.29498 Y-69.83474 I-23.81844 J58.05436
G3 X-69.94049 Y-39.69466 I-28.82805 J33.6672
G3 X-51.94958 Y-61.40535 I64.92703 J35.49324
G0 Z3.0
G0 X6.96802 Y44.33686
G0 Z1.0
G1 F300.0 Z-2.5
G3 F800.0 X7.4328 Y44.61402 I-12.60132 J21.6598
G3 X7.83621 Y44.11428 I8.25212 J6.24858
G3 X6.96802 Y44.33686 I-12.84967 J-48.31569
G0 Z3.0
G0 X17.44182 Y40.46715
G0 Z1.0
G1 F300.0 Z-2.5
G3 F800.0 X22.84463 Y42.80178 I-1.36756 J10.5837
G3 X23.12029 Y43.03071 I-6.18585 J7.72884
G3 X26.48987 Y41.84371 I6.7738 J13.85276
G3 X30.48125 Y41.39522 I3.99267 J17.54819
G3 X25.98894 Y39.0957 I20.50529 J-45.59663
G3 X22.98654 Y37.21742 I24.9976 J-43.29711
G3 X17.44182 Y40.46715 I-28.0 J-41.41884
G1 F300.0 X16.36386 Y38.32285
G3 F800.0 X-1.51797 Y43.26525 I-21.37732 J-42.52426
G3 X-1.44842 Y43.28415 I-2.6402 J9.85469
G3 X0.04086 Y43.7523 I-4.61762 J17.29251
G3 X0.05271 Y43.75662 I-1.90907 J5.25944
G3 X2.47789 Y44.75294 I-11.43762 J31.29027
G3 X4.62714 Y45.79414 I-20.09012 J44.2089
G3 X7.05506 Y47.2237 I-10.26044 J20.20252
G3 X7.17436 Y47.30662 I-3.13318 J4.63567
G3 X8.23579 Y48.12905 I-10.03895 J14.0523
G3 X8.79807 Y46.88926 I6.83467 J2.35235
G3 X8.82837 Y46.83702 I4.85535 J2.78062
G3 X10.61124 Y44.74089 I6.85655 J4.02558
G3 X16.00543 Y42.77944 I5.35528 J6.32957
G3 X21.33348 Y44.66638 I0.06884 J8.2714
G3 X22.67233 Y46.04961 I-4.6747 J5.86424
G3 X27.021 Y44.1842 I7.22175 J10.83386
G3 X30.50956 Y43.79524 I3.46154 J15.2077
G3 X36.8268 Y45.07827 I0.22607 J15.08047
G3 X36.94184 Y45.13062 I-2.25971 J5.11859
G3 X41.49483 Y48.65208 I-5.59711 J11.94072
G3 X43.31129 Y45.35887 I7.37931 J1.9227
G3 X46.80896 Y43.21009 I5.57751 J5.15772
G3 X27.18894 Y37.01724 I4.17758 J-47.41151
G3 X22.98654 Y34.28628 I23.7976 J-41.21865
G3 X16.36386 Y38.32285 I-28.0 J-38.4877
G0 Z3.0
G0 X14.47821 Y58.10025
G0 Z1.0
G1 F300.0 Z-2.5
G3 F800.0 X15.56399 Y65.45223 I-23.81369 J7.27309
G3 X14.47477 Y70.93924 I-14.1444 J0.04383
G3 X14.4464 Y71.00607 I-5.1643 J-2.15319
G3 X11.30445 Y75.56165 I-13.05657 J-5.64373
G3 X7.15895 Y78.44675 I-10.09655 J-10.08657
G3 X7.10198 Y78.4725 I-2.33311 J-5.08555
G3 X1.79665 Y79.59528 I-5.28144 J-11.86
G3 X-3.00476 Y78.99691 I-0.14414 J-18.4061
G3 X-3.01329 Y78.99467 I1.4157 J-5.41314
G3 X-8.03157 Y76.54434 I3.63407 J-13.80647
G3 X-8.03272 Y76.54346 I3.39095 J-4.45059
G3 X-10.35724 Y74.24136 I7.6961 J-10.09565
G3 X-10.68909 Y75.46553 I-7.97578 J-1.50504
G3 X-10.69045 Y75.46932 I-5.2694 J-1.88141
G3 X-14.48493 Y79.43254 I-6.33466 J-2.26689
G3 X-14.60627 Y79.48037 I-2.11246 J-5.1811
G3 X-17.29832 Y79.95403 I-2.57966 J-6.77447
G3 X-20.55183 Y79.28758 I0.11106 J-8.81705
G3 X-22.79675 Y78.025 I4.06012 J-9.84609
G3 X-22.98838 Y77.87776 I3.31237 J-4.50938
G1 X-24.78775 Y76.43236
G1 X-26.44242 Y75.23163
G3 X-26.75419 Y74.98811 I3.28617 J-4.5285
G3 X-28.42611 Y73.17031 I6.18642 J-7.36774
G3 X-29.79562 Y69.11142 I6.01021 J-4.28839
G3 X-29.79832 Y68.93318 I5.5925 J-0.17392
G3 X-27.42528 Y63.43607 I7.56702 J0.00585
G3 X-25.86083 Y62.26833 I5.37878 J5.57422
G1 Y58.49032
G3 X-29.84596 Y51.81332 I3.38775 J-6.54971
G3 X-28.62789 Y47.79022 I7.24008 J-0.00387
G3 X-28.46909 Y47.56456 I4.65386 J3.10609
G3 X-25.15131 Y45.05799 I5.92179 J4.38924
G3 X-25.04786 Y45.02009 I1.97663 J5.23442
G3 X-21.2311 Y44.40462 I3.58527 J10.09125
G1 X-15.1578 Y44.38932
G3 X-10.21966 Y46.07468 I0.12438 J7.71265
G3 X-9.62621 Y45.35887 I6.1563 J4.5001
G3 X-6.61602 Y43.3668 I5.57751 J5.15772
G3 X-28.81106 Y37.01724 I1.60256 J-47.56821
G3 Y-45.42007 I23.7976 J-41.21865
G3 X22.98654 Y-42.68912 I23.7976 J41.21865
G3 X27.18894 Y-45.42007 I28.0 J38.4877
G3 X98.58174 Y-4.20142 I23.7976 J41.21865
G3 X51.85444 Y43.38587 I-47.5952 J0.0
G3 X52.97836 Y43.7523 I-4.98298 J17.19079
G3 X52.99021 Y43.75662 I-1.90907 J5.25944
G3 X55.41539 Y44.75294 I-11.43762 J31.29027
G3 X57.56464 Y45.79414 I-20.09012 J44.2089
G3 X59.66862 Y47.00879 I-10.26044 J20.20252
G3 X59.73557 Y46.88926 I6.33934 J3.47262
G3 X59.76587 Y46.83702 I4.85535 J2.78062
G3 X61.54874 Y44.74089 I6.85655 J4.02558
G3 X66.94293 Y42.77944 I5.35528 J6.32957
G3 X72.27098 Y44.66638 I0.06884 J8.2714
G3 X75.09355 Y50.34849 I-4.6747 J5.86424
G3 X75.09499 Y50.43563 I-5.59355 J0.13588
G3 X72.3452 Y56.32896 I-7.5492 J0.06577
G3 X67.45435 Y58.22799 I-5.29179 J-6.38114
G3 X68.50149 Y65.45223 I-23.85233 J7.14536
G3 X67.41227 Y70.93924 I-14.1444 J0.04383
G3 X67.3839 Y71.00607 I-5.1643 J-2.15319
G3 X64.24195 Y75.56165 I-13.05657 J-5.64373
G3 X60.09645 Y78.44675 I-10.09655 J-10.08657
G3 X60.03948 Y78.4725 I-2.33311 J-5.08555
G3 X54.73415 Y79.59528 I-5.28144 J-11.86
G3 X49.93274 Y78.99691 I-0.14414 J-18.4061
G3 X49.92421 Y78.99467 I1.4157 J-5.41314
G3 X44.90593 Y76.54434 I3.63407 J-13.80647
G3 X44.90478 Y76.54346 I3.39095 J-4.45059
G3 X42.4417 Y74.05986 I7.6961 J-10.09565
G3 X37.5962 Y78.35072 I-11.28975 J-7.86772
G3 X37.46955 Y78.4158 I-2.62026 J-4.94373
G3 X31.02814 Y79.8926 I-6.28379 J-12.62205
G3 X24.12536 Y78.19265 I-0.14435 J-14.27846
G3 X23.99779 Y78.12195 I2.64824 J-4.9288
G3 X18.92112 Y73.32809 I7.35718 J-12.87624
G3 X16.476 Y68.00273 I15.43224 J-10.30966
G3 X16.46948 Y67.97912 I5.38964 J-1.50266
G3 X15.73283 Y62.40844 I19.97818 J-5.47588
G3 X15.99605 Y58.23683 I30.46342 J-0.17198
G3 X15.95899 Y58.23621 I0.11986 J-8.289
G3 X14.47821 Y58.10025 I0.01115 J-8.2536
G1 F300.0 X14.91117 Y55.74451
G3 F800.0 X12.16581 Y54.43771 I1.05897 J-5.7619
G3 X10.23901 Y50.58267 I3.20885 J-4.01287
G3 X10.23751 Y50.4902 I3.19849 J-0.09829
G3 X10.87656 Y48.07959 I4.83295 J-0.00879
G3 X10.89388 Y48.04971 I2.77687 J1.59029
G3 X12.149 Y46.57732 I4.79104 J2.81289
G3 X16.00978 Y45.17471 I3.81752 J4.49314
G3 X19.82557 Y46.52748 I0.06449 J5.87613
G3 X21.74257 Y50.07373 I-3.16679 J4.00314
G3 X23.09652 Y48.7178 I9.04333 J7.67609
G3 X23.13532 Y48.68529 I2.07438 J2.43659
G3 X27.55105 Y46.52001 I6.75876 J8.19819
G3 X30.52547 Y46.19049 I2.93149 J12.87188
G3 X35.85946 Y47.26945 I0.21016 J12.68522
G3 X35.92525 Y47.29939 I-1.29237 J2.92742
G3 X40.33513 Y51.10099 I-4.58052 J9.77195
G3 X41.90707 Y54.23132 I-11.80126 J7.88603
G3 X42.74657 Y57.35583 I-18.83187 J6.73482
G3 X42.75032 Y57.37666 I-3.14743 J0.57765
G3 X43.16193 Y60.68439 I-32.13376 J5.67818
G3 X46.38169 Y56.89077 I8.8754 J4.26966
G3 X48.20163 Y55.81335 I6.95211 J9.66745
G2 X47.37768 Y55.55069 I-68.81239 J214.43401
G3 X47.14267 Y55.46604 I0.96607 J-3.05069
G3 X44.9715 Y53.98648 I2.32808 J-5.74913
G3 X44.92074 Y53.93173 I2.32121 J-2.20272
G3 X43.64367 Y50.58667 I3.65857 J-3.31306
G3 X45.06423 Y46.99114 I5.23046 J-0.01189
G3 X49.01535 Y45.31657 I3.82458 J3.52545
G3 X49.04736 Y45.31751 I-0.07785 J3.19905
G3 X50.86173 Y45.59576 I-0.26803 J7.80243
G3 X52.16113 Y46.00377 I-3.99027 J14.9809
G3 X52.1679 Y46.00624 I-1.09183 J3.00797
G3 X54.42157 Y46.93223 I-10.61531 J29.04065
G3 X56.47394 Y47.92661 I-19.09629 J42.02961
G3 X58.6513 Y49.20815 I-9.16975 J18.07005
G3 X58.71953 Y49.25557 I-1.79193 J2.65123
G3 X61.31462 Y51.61832 I-8.64662 J12.10335
G3 X61.17651 Y50.58267 I4.99755 J-1.19348
G3 X61.17501 Y50.4902 I3.19849 J-0.09829
G3 X61.81406 Y48.07959 I4.83295 J-0.00879
G3 X61.83138 Y48.04971 I2.77687 J1.59029
G3 X63.0865 Y46.57732 I4.79104 J2.81289
G3 X66.94728 Y45.17471 I3.81752 J4.49314
G3 X70.76307 Y46.52748 I0.06449 J5.87613
G3 X72.69906 Y50.40666 I-3.16679 J4.00314
G3 X72.69988 Y50.4565 I-3.19906 J0.07771
G3 X70.8194 Y54.48263 I-5.15409 J0.0449
G3 X66.92077 Y55.841 I-3.76599 J-4.5348
G3 X63.41254 Y54.68422 I-0.01313 J-5.85839
G3 X64.34704 Y56.65027 I-17.00552 J9.28815
G3 X66.10628 Y65.4523 I-20.74502 J8.72307
G3 X65.20153 Y70.0175 I-11.74918 J0.04375
G3 X65.1853 Y70.05572 I-2.95356 J-1.23145
G3 X62.55984 Y73.8564 I-10.85797 J-4.69338
G3 X59.09769 Y76.26972 I-8.41444 J-8.38132
G3 X59.06511 Y76.28445 I-1.33435 J-2.90852
G3 X54.72716 Y77.20006 I-4.30707 J-9.67194
G3 X50.53877 Y76.67965 I-0.13715 J-16.01088
G3 X50.5339 Y76.67837 I0.80967 J-3.09587
G3 X46.35753 Y74.63913 I3.02438 J-11.49017
G3 X46.35687 Y74.63862 I1.93935 J-2.54538
G3 X43.04636 Y70.29336 I6.24401 J-8.19081
G3 X43.02894 Y70.24914 I2.96858 J-1.19481
G3 X42.5038 Y68.54784 I12.15463 J-4.68351
G3 X40.62816 Y72.46735 I-14.03163 J-4.30614
G3 X36.47452 Y76.2344 I-9.47621 J-6.2752
G3 X36.40208 Y76.27163 I-1.49858 J-2.82741
G3 X31.02943 Y77.49723 I-5.21633 J-10.47787
G3 X25.25902 Y76.08272 I-0.14565 J-11.8831
G3 X25.18606 Y76.04229 I1.51458 J-2.81887
G3 X20.92121 Y72.01018 I6.16891 J-10.79657
G3 X18.78321 Y67.35947 I13.43215 J-8.99175
G3 X18.77948 Y67.34597 I3.08244 J-0.8594
G3 X18.12807 Y62.40729 I17.66818 J-4.84273
G3 X18.53048 Y57.49752 I28.06818 J-0.17082
G3 X19.13183 Y55.01254 I17.65893 J2.95805
G3 X15.98327 Y55.841 I-3.01592 J-5.06472
G3 X14.91117 Y55.74451 I-0.01313 J-5.85839
G1 F300.0 X11.58003 Y57.06737
G3 F800.0 X13.16878 Y65.4523 I-20.91551 J8.30597
G3 X12.26403 Y70.0175 I-11.74918 J0.04375
G3 X12.2478 Y70.05572 I-2.95356 J-1.23145
G3 X9.62234 Y73.8564 I-10.85797 J-4.69338
G3 X6.16019 Y76.26972 I-8.41444 J-8.38132
G3 X6.12761 Y76.28445 I-1.33435 J-2.90852
G3 X1.78966 Y77.20006 I-4.30707 J-9.67194
G3 X-2.39873 Y76.67965 I-0.13715 J-16.01088
G3 X-2.4036 Y76.67837 I0.80967 J-3.09587
G3 X-6.57997 Y74.63913 I3.02438 J-11.49017
G3 X-6.58063 Y74.63862 I1.93935 J-2.54538
G3 X-9.89114 Y70.29336 I6.24401 J-8.19081
G3 X-9.90856 Y70.24914 I2.96858 J-1.19481
G3 X-10.7785 Y65.39034 I12.15463 J-4.68351
G3 X-9.80982 Y60.75759 I10.89303 J-0.13997
G3 X-9.77961 Y60.69281 I2.91519 J1.31972
G3 X-6.55581 Y56.89077 I8.87944 J4.26124
G3 X-4.73587 Y55.81335 I6.95211 J9.66745
G2 X-5.55982 Y55.55069 I-68.81239 J214.43401
G3 X-5.79483 Y55.46604 I0.96607 J-3.05069
G3 X-7.966 Y53.98648 I2.32808 J-5.74913
G3 X-8.01676 Y53.93173 I2.32121 J-2.20272
G3 X-9.29383 Y50.58667 I3.65857 J-3.31306
G3 X-7.87327 Y46.99114 I5.23046 J-0.01189
G3 X-3.92215 Y45.31657 I3.82458 J3.52545
G3 X-3.89014 Y45.31751 I-0.07785 J3.19905
G3 X-2.07577 Y45.59576 I-0.26803 J7.80243
G3 X-0.77637 Y46.00377 I-3.99027 J14.9809
G3 X-0.7696 Y46.00624 I-1.09183 J3.00797
G3 X1.48407 Y46.93223 I-10.61531 J29.04065
G3 X3.53644 Y47.92661 I-19.09629 J42.02961
G3 X5.7138 Y49.20815 I-9.16975 J18.07005
G3 X5.78203 Y49.25557 I-1.79193 J2.65123
G3 X9.21367 Y52.67729 I-8.64662 J12.10335
G3 X9.21569 Y52.68009 I-2.59841 J1.86769
G3 X11.40954 Y56.65027 I-15.74617 J11.29227
G3 X11.58003 Y57.06737 I-20.74502 J8.72307
G0 Z3.0
G0 X6.80243 Y39.42684
G0 Z1.0
G1 F300.0 Z-2.5
G3 F800.0 X-27.61346 Y34.94293 I-11.81589 J-43.62826
G3 Y-43.34576 I22.6 J-39.14435
G3 X22.98654 Y-39.68437 I22.6 J39.14435
G3 X28.38654 Y-43.34576 I28.0 J35.48295
G3 X96.18654 Y-4.20142 I22.6 J39.14435
G3 X28.38654 Y34.94293 I-45.2 J0.0
G3 X22.98654 Y31.28154 I22.6 J-39.14435
G3 X6.80243 Y39.42684 I-28.0 J-35.48295
G0 Z3.0
G0 X-10.43706 Y49.41587
G0 Z1.0
G1 F300.0 Z-2.5
G3 F800.0 X-9.75288 Y51.99998 I-4.39402 J2.54601
G3 X-11.41085 Y55.79199 I-5.07815 J0.03816
G3 X-12.925 Y56.78071 I-3.62256 J-3.89393
G1 Y57.79688
G3 X-12.92503 Y57.81103 I-3.2 J0.0
G2 X-12.77172 Y67.29791 I230.50073 J1.01973
G3 X-12.61283 Y72.62155 I-129.39565 J6.52623
G3 X-12.94482 Y74.66014 I-5.72019 J0.11477
G3 X-12.9456 Y74.6623 I-3.01367 J-1.07601
G3 X-15.38924 Y77.21461 I-4.07951 J-1.45987
G3 X-15.45863 Y77.24196 I-1.20816 J-2.96317
G3 X-17.26459 Y77.55906 I-1.72729 J-4.53607
G3 X-19.63831 Y77.07343 I0.07734 J-6.42208
G3 X-21.37878 Y76.09462 I3.1466 J-7.63194
G3 X-21.48838 Y76.01041 I1.89441 J-2.579
G1 X-23.33351 Y74.52826
G1 X-25.03567 Y73.29306
G3 X-25.21398 Y73.15379 I1.87942 J-2.58994
G3 X-26.47307 Y71.78371 I4.64621 J-5.53342
G3 X-27.40158 Y69.03697 I4.05718 J-2.90179
G3 X-27.40312 Y68.93503 I3.19845 J-0.09947
G3 X-25.77163 Y65.1689 I5.17182 J0.004
G3 X-23.46563 Y63.85093 I3.72513 J3.8414
G1 Y56.85426
G3 X-24.18182 Y56.61698 I1.95303 J-7.09426
G3 X-27.4507 Y51.8333 I1.70874 J-4.67637
G3 X-26.63566 Y49.11988 I4.84482 J-0.02386
G3 X-26.54484 Y48.99082 I2.66163 J1.77643
G3 X-24.30515 Y47.29875 I3.99753 J2.96298
G3 X-24.24599 Y47.27707 I1.13047 J2.99367
G3 X-21.2558 Y46.79989 I2.78339 J7.83426
G1 X-15.13396 Y46.78447
G3 X-11.41084 Y48.20802 I0.10054 J5.3175
G3 X-10.43706 Y49.41587 I-3.42024 J3.75386
G0 Z3.0
G0 X-76.08125 Y59.74981
G0 Z1.0
G1 F300.0 Z-2.5
G3 F800.0 X-79.33057 Y62.6 I-50.59249 J-54.3999
G1 X-76.22751
G3 X-75.95279 Y60.58586 I53.99621 J6.33902
G3 X-76.08125 Y59.74981 I53.47971 J-8.64526
G1 F300.0 X-74.89378 Y59.57683
G3 F800.0 X-75.18304 Y57.22285 I52.42071 J-7.63622
G3 X-82.79116 Y63.8 I-51.4907 J-51.87294
G1 X-75.14938
G3 X-74.73745 Y60.58221 I52.91808 J5.13902
G3 X-74.89378 Y59.57683 I52.26438 J-8.6416
G1 F300.0 X-72.51885 Y59.23086
G3 F800.0 X-72.87404 Y56.1203 I50.04578 J-7.29026
G3 X-75.02318 Y53.61214 I67.86058 J-60.32172
G3 X-90.6975 Y66.2 I-51.65056 J-48.26224
G1 X-72.92438
G3 X-72.30456 Y60.57486 I50.69308 J2.73902
G3 X-72.51885 Y59.23086 I49.83149 J-8.63426
G1 F300.0 X-70.14392 Y58.8849
G3 F800.0 X-70.54161 Y55.12626 I47.67084 J-6.9443
G3 X-74.9179 Y49.90108 I65.52815 J-59.32767
G3 X-97.98903 Y67.32297 I-51.75584 J-44.55117
G3 X-100.84055 Y68.6 I-37.40313 J-79.69667
G1 X-70.59714
G3 X-69.86832 Y60.56746 I48.36584 J0.33902
G3 X-70.14392 Y58.8849 I47.39525 J-8.62686
G1 F300.0 X-67.76898 Y58.53894
G3 F800.0 X-68.19434 Y54.13683 I45.29591 J-6.59834
G3 X-74.82668 Y46.01102 I63.18088 J-58.33825
G3 X-99.0029 Y65.14763 I-51.84706 J-40.66111
G3 X-115.83299 Y71.0 I-36.38925 J-77.52133
G1 X-68.15017
G3 X-68.17707 Y70.30506 I45.73427 J-2.11808
G3 X-68.19831 Y68.90351 I43.97394 J-1.36756
G3 X-67.4282 Y60.56001 I45.96701 J0.03551
G3 X-67.76898 Y58.53894 I44.95512 J-8.61941
G1 F300.0 X-65.39405 Y58.19298
G3 F800.0 X-65.83012 Y53.15267 I42.92097 J-6.25238
G3 X-74.75438 Y41.88938 I60.81666 J-57.35409
G3 X-75.09242 Y42.36748 I-34.13152 J-23.77394
G3 X-100.01676 Y62.97228 I-51.58132 J-37.01757
G3 X-121.792 Y69.74494 I-35.3754 J-75.34598
G3 X-139.98417 Y71.23684 I-17.94733 J-107.18578
G3 X-144.4 Y71.16051 I-0.80046 J-81.45719
G1 Y73.4
G1 X-65.56328
G3 X-65.77822 Y70.23045 I43.14739 J-4.51808
G3 X-65.79831 Y68.90537 I41.5751 J-1.29295
G3 X-64.98351 Y60.55249 I43.56701 J0.03366
G3 X-65.39405 Y58.19298 I42.51044 J-8.61189
G1 F300.0 X-63.01911 Y57.84702
G3 F800.0 X-63.44639 Y52.17458 I40.54604 J-5.90642
G3 X-74.73469 Y37.41121 I58.43293 J-56.376
G3 X-76.1699 Y39.70078 I-49.8558 J-29.65734
G3 X-77.04227 Y40.96816 I-32.716 J-21.58535
G3 X-101.03058 Y60.79692 I-49.63147 J-35.61825
G3 X-122.18623 Y67.37754 I-34.36158 J-73.17062
G3 X-139.99329 Y68.83682 I-17.5531 J-104.81838
G3 X-146.8 Y68.61161 I-0.79134 J-79.05716
G1 Y75.8
G1 X-62.81107
G3 X-63.37938 Y70.15585 I40.39518 J-6.91808
G3 X-63.39831 Y68.90722 I39.17626 J-1.21835
G3 X-62.53344 Y60.5449 I41.16701 J0.0318
G3 X-63.01911 Y57.84702 I40.06037 J-8.6043
G1 F300.0 X-60.64418 Y57.50106
G3 F800.0 X-61.04509 Y51.55133 I38.17111 J-5.56046
G3 X-61.04116 Y51.20237 I38.43921 J0.25811
G3 X-74.76532 Y32.45049 I56.02771 J-55.40379
G3 X-78.17317 Y38.37907 I-49.82517 J-24.69662
G3 X-78.99212 Y39.56884 I-30.71273 J-20.26363
G3 X-102.04437 Y58.62154 I-47.68162 J-34.21894
G3 X-122.58046 Y65.01014 I-33.34778 J-70.99524
G3 X-140.00246 Y66.43679 I-17.15887 J-102.45098
G3 X-149.2 Y65.97748 I-0.78217 J-76.65713
G1 Y78.2
G1 X-59.8571
G3 X-60.98054 Y70.08125 I37.4412 J-9.31808
G3 X-60.99831 Y68.90907 I36.77742 J-1.14375
G3 X-60.07693 Y60.53722 I38.76701 J0.02995
G3 X-60.64418 Y57.50106 I37.60386 J-8.59662
G1 F300.0 X-58.26925 Y57.1551
G3 F800.0 X-58.64517 Y51.5715 I35.79617 J-5.2145
G3 X-58.61161 Y50.2363 I36.03929 J0.23795
G3 X-74.87342 Y26.71479 I53.59815 J-54.43772
G3 X-80.17643 Y37.05736 I-49.71706 J-18.96092
G3 X-80.94197 Y38.16952 I-28.70947 J-18.94192
G3 X-103.05813 Y56.44614 I-45.73177 J-32.81962
G3 X-122.97468 Y62.64274 I-32.33402 J-68.81984
G3 X-140.0117 Y64.03676 I-16.76465 J-100.08358
G3 X-151.6 Y63.24898 I-0.77293 J-74.2571
G1 Y80.6
G1 X-56.64917
G3 X-58.5817 Y70.00665 I34.23328 J-11.71808
G3 X-58.59831 Y68.91093 I34.37858 J-1.06915
G3 X-57.61264 Y60.52942 I36.36701 J0.0281
G3 X-58.26925 Y57.1551 I35.13957 J-8.58882
G1 F300.0 X-55.89431 Y56.80914
G3 F800.0 X-56.24525 Y51.59167 I33.42124 J-4.86854
G3 X-56.15073 Y49.28007 I33.63937 J0.21778
G3 X-75.13756 Y19.41848 I51.13727 J-53.48148
G3 X-82.1797 Y35.73564 I-49.45292 J-11.66461
G3 X-82.89182 Y36.77021 I-26.7062 J-17.62021
G3 X-104.07186 Y54.27073 I-43.78192 J-31.4203
G3 X-123.36889 Y60.27534 I-31.3203 J-66.64443
G3 X-140.021 Y61.63672 I-16.37044 J-97.71617
G3 X-154.0 Y60.41516 I-0.76363 J-71.85706
G1 Y83.0
G1 X-53.10776
G3 X-56.18286 Y69.93205 I30.69186 J-14.11808
G3 X-56.19832 Y68.91278 I31.97974 J-0.99455
G3 X-55.13881 Y60.52149 I33.96701 J0.02624
G3 X-55.89431 Y56.80914 I32.66573 J-8.58089
G1 F300.0 X-53.51938 Y56.46318
G3 F800.0 X-53.84533 Y51.61183 I31.04631 J-4.52257
G3 X-53.65222 Y48.33565 I31.23945 J0.19761
G3 X-45.70475 Y-63.1089 I48.63876 J-52.53707
G3 X-44.88505 Y-70.32323 I31.16234 J-0.11305
G3 X-45.72036 Y-78.59905 I39.37112 J-8.15393
G3 X-45.524 Y-82.57224 I39.86123 J-0.02151
G3 X-45.12802 Y-85.4 I33.40442 J3.23612
G1 X-156.4
G1 Y-83.44641
G3 X-137.97938 Y-85.18941 I17.75948 J89.47892
G3 X-103.46812 Y-78.22879 I0.23207 J87.88427
G3 X-86.86082 Y-68.0159 I-22.89507 J55.83905
G3 X-72.21162 Y-37.15745 I-27.2622 J31.84836
G3 X-76.65828 Y-17.93828 I-38.88387 J1.12757
G3 X-77.45357 Y-16.52046 I-26.19975 J-13.76405
G3 X-80.61359 Y-12.04986 I-30.68641 J-18.3384
G3 X-76.18851 Y6.87319 I-40.29408 J19.40154
G3 X-84.18296 Y34.41393 I-48.40197 J0.88068
G3 X-84.84166 Y35.37089 I-24.70293 J-16.29849
G3 X-105.08554 Y52.0953 I-41.83208 J-30.02098
G3 X-123.76309 Y57.90793 I-30.30662 J-64.469
G3 X-140.03038 Y59.23668 I-15.97624 J-95.34877
G3 X-156.4 Y57.4628 I-0.75425 J-69.45703
G1 Y85.4
G1 X-49.10042
G3 X-53.78402 Y69.85744 I26.68453 J-16.51808
G3 X-53.79832 Y68.91464 I29.5809 J-0.91994
G3 X-52.6531 Y60.51339 I31.56702 J0.02439
G3 X-53.51938 Y56.46318 I30.18003 J-8.57279
G1 F300.0 X-51.14444 Y56.11721
G3 F800.0 X-51.44541 Y51.632 I28.67137 J-4.17661
G3 X-51.10775 Y47.40567 I28.83953 J0.17745
G3 X-43.27423 Y-61.85633 I46.0943 J-51.60709
G3 X-43.30308 Y-62.89346 I29.2831 J-1.33353
G3 X-42.42322 Y-70.28909 I28.76067 J-0.32849
G3 X-43.32036 Y-78.59606 I36.90928 J-8.18807
G3 X-43.1355 Y-82.33758 I37.46123 J-0.0245
G3 X-42.10889 Y-87.8 I31.01592 J3.00146
G1 X-158.8
G1 Y-80.47388
G3 X-137.9849 Y-82.78939 I20.15948 J86.50639
G3 X-104.39141 Y-76.01345 I0.2376 J85.48424
G3 X-88.42661 Y-66.19702 I-21.97178 J53.62371
G3 X-74.6108 Y-37.09432 I-25.69641 J30.02948
G3 X-78.78293 Y-19.05447 I-36.4847 J1.06444
G3 X-79.51373 Y-17.75162 I-24.0751 J-12.64786
G3 X-83.48151 Y-12.40713 I-28.62626 J-17.10723
G3 X-78.58828 Y6.90785 I-37.42616 J19.75882
G3 X-86.18623 Y33.09221 I-46.00221 J0.84602
G3 X-86.79151 Y33.97157 I-22.69967 J-14.97678
G3 X-106.09917 Y49.91984 I-39.88223 J-28.62167
G3 X-124.15728 Y55.54052 I-29.29299 J-62.29354
G3 X-140.03984 Y56.83664 I-15.58205 J-92.98136
G3 X-158.8 Y54.37563 I-0.74479 J-67.05699
G1 Y87.8
G1 X-44.39017
G3 X-46.04086 Y85.67157 I23.8224 J-20.17963
G3 X-51.38518 Y69.78284 I23.62496 J-16.78965
G3 X-51.39832 Y68.91649 I27.18206 J-0.84534
G3 X-50.15233 Y60.50508 I29.16702 J0.02253
G3 X-51.14444 Y56.11721 I27.67926 J-8.56448
G1 F300.0 X-48.76951 Y55.77125
G3 F800.0 X-49.04549 Y51.65216 I26.29644 J-3.83065
G3 X-48.50608 Y46.49366 I26.43961 J0.15728
G3 X-40.78095 Y-60.61317 I43.49262 J-50.69508
G3 X-40.90322 Y-62.9193 I26.78981 J-2.5767
G3 X-39.95117 Y-70.24892 I26.36081 J-0.30265
G3 X-39.95329 Y-70.25779 I31.41866 J-7.51846
G3 X-39.95944 Y-70.28355 I24.11599 J-5.76374
G3 X-40.92035 Y-78.59307 I34.4455 J-8.19361
G3 X-40.747 Y-82.10294 I35.06123 J-0.02749
G3 X-38.90269 Y-89.81703 I28.62741 J2.76682
G3 X-38.77021 Y-90.14851 I23.09019 J9.03578
G3 X-38.74914 Y-90.2 I24.62374 J10.04703
G1 X-161.2
G1 Y-77.39281
G3 X-160.2869 Y-77.63704 I17.80316 J64.7315
G3 X-160.24806 Y-77.6471 I6.23805 J23.99768
G3 X-137.99042 Y-80.38936 I21.60754 J83.67961
G3 X-105.31461 Y-73.79807 I0.24312 J83.08422
G3 X-89.99236 Y-64.37809 I-21.04858 J51.40833
G3 X-77.00998 Y-37.03118 I-24.13066 J28.21055
G3 X-80.90758 Y-20.17065 I-34.08552 J1.0013
G3 X-81.57388 Y-18.98278 I-21.95045 J-11.53168
G3 X-86.44065 Y-12.792 I-26.5661 J-15.87607
G3 X-80.98805 Y6.94249 I-34.46703 J20.14368
G3 X-88.18949 Y31.7705 I-43.60244 J0.81138
G3 X-88.74136 Y32.57225 I-20.6964 J-13.65507
G3 X-107.11275 Y47.74435 I-37.93238 J-27.22235
G3 X-124.55146 Y53.17311 I-28.27941 J-60.11805
G3 X-140.04939 Y54.4366 I-15.18787 J-90.61395
G3 X-161.2 Y51.13333 I-0.73524 J-64.65694
G1 Y90.2
G1 X-38.47532
G3 X-39.10058 Y89.69208 I15.31907 J-19.49687
G3 X-44.08362 Y84.2826 I18.53281 J-22.07171
G3 X-48.98634 Y69.70824 I21.66773 J-15.40068
G3 X-48.99832 Y68.91834 I24.78322 J-0.77074
G3 X-47.63203 Y60.49649 I26.76702 J0.02068
G3 X-48.76951 Y55.77125 I25.15896 J-8.55589
G1 F300.0 X-46.39458 Y55.42529
G3 F800.0 X-46.64557 Y51.67232 I23.9215 J-3.48469
G3 X-45.8314 Y45.60458 I24.03969 J0.13712
G3 X-38.20706 Y-59.38227 I40.81795 J-49.806
G3 X-38.50335 Y-62.94514 I24.21593 J-3.80759
G3 X-37.46564 Y-70.20257 I23.96095 J-0.27681
G3 X-37.61904 Y-70.81568 I28.93313 J-7.56481
G3 X-37.62458 Y-70.83895 I21.78174 J-5.20585
G3 X-38.52035 Y-78.59009 I32.11065 J-7.63822
G3 X-38.35849 Y-81.86832 I32.66122 J-0.03047
G3 X-36.66772 Y-88.94243 I26.23891 J2.5322
G3 X-36.54807 Y-89.24182 I20.85522 J8.16118
G3 X-34.86275 Y-92.6 I22.40159 J9.14035
G1 X-163.6
G1 Y-74.16304
G3 X-159.6831 Y-75.31423 I20.20316 J61.50173
G3 X-159.64802 Y-75.32332 I5.63425 J21.67487
G3 X-137.99593 Y-77.98934 I21.0075 J81.35583
G3 X-106.23772 Y-71.58264 I0.24863 J80.68419
G3 X-91.55805 Y-62.55911 I-20.12547 J49.19291
G3 X-79.40916 Y-36.96801 I-22.56498 J26.39157
G3 X-83.03223 Y-21.28684 I-31.68634 J0.93813
G3 X-83.63404 Y-20.21395 I-19.8258 J-10.41549
G3 X-89.52441 Y-13.21457 I-24.50595 J-14.64491
G3 X-83.38782 Y6.9771 I-31.38326 J20.56625
G3 X-90.19276 Y30.44879 I-41.20266 J0.77676
G3 X-90.69121 Y31.17294 I-18.69314 J-12.33335
G3 X-108.12627 Y45.56884 I-35.98253 J-25.82303
G3 X-124.94563 Y50.8057 I-27.26589 J-57.94254
G3 X-140.05903 Y52.03655 I-14.7937 J-88.24654
G3 X-163.6 Y47.70984 I-0.72559 J-62.25689
G1 Y92.6
G1 X-31.22961
G3 X-32.74238 Y91.56473 I14.73789 J-23.15851
G3 X-33.50942 Y90.97538 I13.25801 J-18.04911
G1 X-34.98788 Y89.78777
G1 X-36.30939 Y88.82879
G3 X-37.55728 Y87.85408 I13.15314 J-18.12567
G3 X-42.12639 Y82.89363 I16.98951 J-20.23372
G3 X-46.5875 Y69.63364 I19.71049 J-14.01171
G3 X-46.59832 Y68.9202 I22.38438 J-0.69614
G3 X-45.08571 Y60.48753 I24.36702 J0.01882
G3 X-46.39458 Y55.42529 I22.61264 J-8.54693
G0 Z3.0
G0 X108.66954 Y71.0
G0 Z1.0
G1 F300.0 Z-2.5
G1 F800.0 X109.13753
G3 X108.97576 Y70.37382 I52.41849 J-13.87621
G3 X108.66954 Y71.0 I-41.42997 J-19.87242
G1 F300.0 Y73.4
G1 F800.0 X112.35422
G3 X109.86197 Y60.79211 I49.2018 J-16.27621
G3 X104.58917 Y73.4 I-42.31618 J-10.29071
G1 X108.66954
G1 F300.0 Y75.8
G1 F800.0 X115.79648
G3 X112.13209 Y57.01803 I45.75954 J-18.67621
G2 X112.05824 Y49.30473 I-1876.41226 J14.10785
G3 X108.61985 Y52.99179 I-61.0717 J-53.50615
G3 X101.34241 Y73.97625 I-41.07406 J-2.49039
G3 X100.97643 Y75.8 I-46.98532 J-8.48019
G1 X108.66954
G1 F300.0 Y78.2
G1 F800.0 X119.51967
G3 X114.53211 Y57.01172 I42.03635 J-21.07621
G2 X114.36873 Y42.61078 I-1878.81228 J14.11416
G3 X106.26831 Y51.94669 I-63.38219 J-46.8122
G3 X99.07068 Y73.03369 I-38.72253 J-1.44529
G3 X97.88559 Y78.2 I-44.71358 J-7.53764
G1 X108.66954
G1 F300.0 Y80.6
G1 F800.0 X123.60641
G3 X116.93213 Y57.00573 I37.94961 J-23.47621
G2 X116.63569 Y34.86796 I-1881.21231 J14.12015
G3 X103.89299 Y50.90878 I-65.64915 J-39.06938
G3 X96.79294 Y72.08586 I-36.34721 J-0.40738
G3 X94.55781 Y80.6 I-42.43585 J-6.58981
G1 X108.66954
G1 F300.0 Y83.0
G1 F800.0 X128.18999
G3 X119.33216 Y57.00007 I33.36603 J-25.87621
G2 X118.82861 Y25.34082 I-1883.61233 J14.12581
G3 X101.48948 Y49.87947 I-67.84206 J-29.54224
G3 X101.49399 Y50.20563 I-31.98948 J0.6049
G3 X94.50798 Y71.13167 I-33.9482 J0.29577
G3 X91.77917 Y81.09869 I-40.15088 J-5.63561
G3 X91.61691 Y81.48084 I-29.5312 J-12.31264
G3 X90.92285 Y83.0 I-37.28958 J-16.1185
G1 X108.66954
G1 F300.0 Y85.4
G1 F800.0 X133.513
G3 X121.73218 Y56.99477 I28.04302 J-28.27621
G2 X120.84194 Y11.48602 I-1886.01236 J14.13111
G3 X99.05149 Y48.86113 I-69.8554 J-15.68744
G3 X99.08647 Y49.76565 I-31.4552 J1.66949
G3 X99.09408 Y50.22654 I-29.58647 J0.71873
G3 X92.21416 Y70.16969 I-31.54829 J0.27486
G3 X89.56399 Y80.1751 I-37.85706 J-4.67364
G3 X89.41391 Y80.52859 I-27.31603 J-11.38905
G3 X86.87845 Y85.4 I-35.08658 J-15.16625
G1 X108.66954
G0 Z3.0
G0 X190.94012
G0 Z1.0
G1 F300.0 Z-2.5
G1 F800.0 X193.05515
G3 X191.95217 Y84.35903 I27.303 J-30.03428
G3 X190.94012 Y85.4 I-29.05495 J-27.23519
G1 F300.0 Y87.8
G1 F800.0 X200.19731
G3 X191.87542 Y80.80537 I20.16084 J-32.43428
G3 X189.1883 Y83.75709 I-28.9782 J-23.68153
G3 X184.42947 Y87.8 I-26.60403 J-26.49286
G1 X190.94012
G1 F300.0 Y90.2
G1 F800.0 X212.14445
G3 X193.41479 Y78.92304 I8.2137 J-34.83428
G2 X191.70067 Y77.04963 I-3236.44482 J2959.55402
G3 X187.49494 Y82.05631 I-28.80345 J-19.92579
G3 X174.849 Y90.2 I-24.91067 J-24.79208
G1 X190.94012
G0 Z3.0
G0 X219.6 Y5.13197
G0 Z1.0
G1 F300.0 Z-2.5
G1 F800.0 Y-1.83559
G2 X216.159 Y1.30753 I139.63101 J156.3192
G1 X216.01847 Y1.4392
G3 X219.6 Y5.13197 I-474.55574 J463.844
G1 F300.0 X222.0
G1 F800.0 Y-7.10848
G2 X214.51943 Y-0.44513 I137.23101 J161.59209
G2 X212.58582 Y1.3673 I4025.95041 J4297.07702
G3 X222.0 Y11.1259 I-471.12309 J463.91589
G1 Y5.13197
G1 F300.0 X224.4
G1 F800.0 Y-12.21467
G2 X212.87986 Y-2.19778 I134.83101 J166.69828
G2 X209.14721 Y1.3024 I4027.58999 J4298.82967
G3 X224.4 Y17.2 I-467.68448 J463.9808
G1 Y5.13197
G1 F300.0 X226.8
G1 F800.0 Y-17.16903
G2 X211.24028 Y-3.95043 I132.43101 J171.65264
G2 X205.70259 Y1.24455 I4029.22957 J4300.58232
G3 X223.88 Y20.17187 I-464.23986 J464.03865
G3 X226.8 Y23.36414 I-184.77795 J171.94997
G1 Y5.13197
G1 F300.0 X229.2
G1 F800.0 Y-21.54883
G2 X226.45703 Y-19.92991 I7.56379 J15.94869
G2 X209.60069 Y-5.70307 I132.77398 J174.41352
G2 X202.2519 Y1.19384 I4030.86916 J4302.33496
G3 X222.11958 Y21.80311 I-460.78917 J464.08936
G3 X229.2 Y29.74372 I-183.01753 J170.31873
G1 Y5.13197
G1 F300.0 X231.6
G1 F800.0 Y-24.99742
G3 X230.46161 Y-24.63539 I-7.75086 J-22.40167
G2 X225.02846 Y-21.85869 I6.30218 J19.03525
G2 X207.96109 Y-7.4557 I134.20255 J176.3423
G2 X198.79507 Y1.15033 I4032.50876 J4304.0876
G3 X220.35917 Y23.43437 I-457.33234 J464.13287
G3 X231.6 Y36.38441 I-181.25712 J168.68748
G1 Y5.13197
G1 F300.0 X234.0
G1 F800.0 Y-28.66814
G3 X229.75179 Y-26.92845 I-10.15086 J-18.73095
G2 X223.59857 Y-23.78646 I7.012 J21.32831
G2 X206.32149 Y-9.20833 I135.63244 J178.27007
G2 X195.33204 Y1.11409 I4034.14836 J4305.84022
G3 X218.59877 Y25.06563 I-453.86932 J464.16911
G3 X232.43597 Y41.29463 I-179.49672 J167.05621
G3 X232.45759 Y41.32248 I-6.30381 J4.91784
G3 X234.0 Y43.40832 I-48.00533 J37.11142
G1 Y5.13197
G1 F300.0 X236.4
G1 F800.0 Y-33.26184
G3 X229.04664 Y-29.22295 I-12.55086 J-14.13725
G2 X222.16759 Y-25.71339 I7.71715 J23.62281
G2 X204.68188 Y-10.96095 I137.06342 J180.197
G2 X191.86275 Y1.08521 I4035.78797 J4307.59284
G3 X216.83838 Y26.69691 I-450.40003 J464.19798
G3 X230.54369 Y42.77087 I-177.73633 J165.42494
G3 X230.55882 Y42.79036 I-4.41153 J3.44161
G3 X234.77094 Y49.0348 I-46.10656 J35.64354
G3 X236.4 Y52.67968 I-12.65185 J7.84114
G1 Y5.13197
G0 Z3.0
G0 X193.55939 Y-77.8261
G0 Z1.0
G1 F300.0 Z-2.5
G3 F800.0 X204.06067 Y-83.0 I43.63303 J75.31641
G1 X188.4016
G3 X193.55939 Y-77.8261 I-26.38669 J31.46236
G1 F300.0 X191.7157 Y-76.28961
G3 F800.0 X192.98055 Y-74.68773 I-29.70079 J24.75197
G3 X206.92947 Y-81.55722 I44.21188 J72.17803
G3 X212.4 Y-83.32348 I19.2505 J50.26863
G1 Y-85.4
G1 X180.67336
G3 X191.7157 Y-76.28961 I-18.65844 J33.86236
G1 F300.0 X189.87201 Y-74.75312
G3 F800.0 X191.99878 Y-71.93236 I-27.8571 J23.21548
G3 X192.33061 Y-71.43902 I-31.58377 J21.60211
G3 X207.78767 Y-79.31591 I44.86182 J68.92932
G3 X214.8 Y-81.44232 I18.3923 J48.02731
G1 Y-87.8
G1 X162.14778
G3 X189.87201 Y-74.75312 I-0.13286 J36.26236
G0 Z3.0
G0 X110.23328 Y-71.0
G0 Z1.0
G1 F300.0 Z-2.5
G1 F800.0 X106.54584
G3 X106.56939 Y-69.81941 I-73.39803 J2.05484
G3 X108.90223 Y-67.76986 I-55.58285 J65.618
G3 X110.23328 Y-71.0 I54.55803 J20.59258
G1 F300.0 X112.42388 Y-70.01956
G3 F800.0 X114.07554 Y-73.4 I51.03638 J22.84227
G1 X104.03475
G3 X104.17415 Y-68.69355 I-70.88694 J4.45484
G3 X109.96408 Y-63.44504 I-53.18761 J64.49214
G3 X112.42388 Y-70.01956 I53.49618 J16.26776
G1 F300.0 X114.61448 Y-69.03911
G3 F800.0 X118.24312 Y-75.8 I48.84578 J21.86183
G1 X101.43139
G3 X101.77374 Y-68.60327 I-68.28358 J6.85484
G3 X101.76452 Y-67.55958 I-53.99053 J0.04497
G3 X111.19541 Y-58.67666 I-50.77798 J63.35817
G3 X114.61448 Y-69.03911 I52.26484 J11.49938
G1 F300.0 X116.80508 Y-68.05867
G3 F800.0 X121.6767 Y-76.61997 I46.65518 J20.88139
G3 X122.81274 Y-78.2 I39.53162 J27.22475
G1 X98.72475
G3 X99.37374 Y-68.60823 I-65.57694 J9.25484
G3 X99.32959 Y-66.42387 I-51.59052 J0.04993
G3 X112.70043 Y-53.19203 I-48.34305 J62.22245
G3 X116.80508 Y-68.05867 I50.75983 J6.01475
G1 F300.0 X118.99568 Y-67.07823
G3 F800.0 X123.646 Y-75.2481 I44.46457 J19.90094
G3 X127.95834 Y-80.6 I37.56232 J25.85287
G1 X95.89989
G3 X95.96055 Y-80.27539 I-50.29344 J9.56614
G3 X96.00086 Y-80.05158 I-33.83016 J6.20888
G3 X96.97373 Y-68.61315 I-62.85305 J11.10642
G3 X96.86484 Y-65.28667 I-49.19052 J0.05485
G3 X114.75171 Y-46.27552 I-45.8783 J61.08525
G3 X114.74637 Y-46.97984 I1952.57253 J-15.15441
G3 X114.7457 Y-47.37151 I34.39426 J-0.25454
G3 X118.99568 Y-67.07823 I48.71456 J0.19423
G1 F300.0 X121.18628 Y-66.09778
G3 F800.0 X125.61531 Y-73.87624 I42.27397 J18.9205
G3 X134.0624 Y-83.0 I35.593 J24.48102
G1 X92.91159
G3 X93.59997 Y-79.84216 I-47.30514 J11.96614
G3 X93.63747 Y-79.63396 I-31.46959 J5.77564
G3 X94.57372 Y-68.61804 I-60.48967 J10.6888
G3 X94.36542 Y-64.14774 I-46.79051 J0.05973
G3 X117.24412 Y-37.14414 I-43.37888 J59.94633
G3 X117.1463 Y-46.9976 I1950.08011 J-24.28579
G3 X117.14568 Y-47.36194 I31.99432 J-0.23677
G3 X121.18628 Y-66.09778 I46.31458 J0.18466
G1 F300.0 X123.37688 Y-65.11734
G3 F800.0 X127.58465 Y-72.50441 I40.08337 J17.94006
G3 X142.0187 Y-85.4 I33.62366 J23.10918
G1 X89.72132
G3 X91.2394 Y-79.40892 I-44.11487 J14.36614
G3 X91.27409 Y-79.21634 I-29.10901 J5.3424
G3 X92.17371 Y-68.62287 I-58.12628 J10.27118
G3 X91.82525 Y-63.00679 I-44.3905 J0.06457
G3 X119.8571 Y-23.76461 I-40.83871 J58.80537
G3 X119.54624 Y-47.01536 I1947.46713 J-37.66532
G3 X119.54566 Y-47.35237 I29.59439 J-0.21901
G3 X123.37688 Y-65.11734 I43.9146 J0.17509
G1 F300.0 X125.56748 Y-64.13689
G3 F800.0 X129.55401 Y-71.13259 I37.89277 J16.95961
G3 X161.35642 Y-87.79426 I31.65431 J21.73737
G3 X161.88205 Y-87.8 I0.65849 J36.25663
G1 X86.27493
G3 X87.03898 Y-85.82969 I-35.20981 J14.78702
G3 X88.87883 Y-78.97568 I-41.43253 J14.79583
G3 X88.9107 Y-78.79872 I-26.74844 J4.90916
G3 X89.7737 Y-68.62765 I-55.7629 J9.85356
G3 X89.23662 Y-61.86343 I-41.99049 J0.06934
G3 X120.18174 Y-4.20142 I-38.25008 J57.66201
G3 X96.57251 Y47.85523 I-69.1952 J0.0
G3 X96.68718 Y49.82393 I-28.97623 J2.67539
G3 X96.69417 Y50.24745 I-27.18718 J0.66044
G3 X89.90934 Y69.19804 I-29.14838 J0.25395
G3 X87.34882 Y79.25151 I-35.55224 J-3.70198
G3 X87.21091 Y79.57634 I-25.10086 J-10.46546
G3 X82.25436 Y87.8 I-32.88358 J-14.214
G1 X140.04925
G3 X135.36428 Y83.8549 I21.92566 J-30.79196
G3 X124.13221 Y56.98987 I26.19174 J-26.7311
G2 X123.05544 Y5.81551 I-1888.41239 J14.13601
G1 X123.05543 Y5.81502
G3 X121.94617 Y-47.03312 I1944.26881 J-67.24495
G3 X121.94564 Y-47.3428 I27.19446 J-0.20125
G3 X125.56748 Y-64.13689 I41.51462 J0.16552
G1 F300.0 X127.75808 Y-63.15645
G3 F800.0 X131.52339 Y-69.76081 I35.70217 J15.97917
G3 X161.37361 Y-85.39417 I29.68492 J20.36558
G3 X190.01606 Y-70.58 I0.6413 J33.85653
G3 X191.58819 Y-68.06462 I-29.60106 J20.24975
G3 X192.84222 Y-68.90163 I77.05248 J114.08364
G3 X208.64586 Y-77.07459 I44.35021 J66.39194
G3 X217.2 Y-79.48779 I17.5341 J45.786
G1 Y-90.2
G1 X82.45695
G3 X84.77848 Y-85.02339 I-31.39183 J17.18702
G3 X86.51825 Y-78.54244 I-39.17203 J13.98953
G3 X86.54732 Y-78.3811 I-24.38787 J4.47593
G3 X87.37369 Y-68.63236 I-53.39951 J9.43594
G3 X86.5895 Y-60.71715 I-39.59048 J0.07406
G3 X117.78174 Y-4.20142 I-35.60296 J56.51573
G3 X94.04289 Y46.86471 I-66.7952 J0.0
G3 X94.28789 Y49.88222 I-26.44661 J3.66591
G3 X94.29426 Y50.26836 I-24.78789 J0.60216
G3 X87.59059 Y68.21414 I-26.74848 J0.23304
G3 X85.13365 Y78.32793 I-33.2335 J-2.71808
G3 X85.00791 Y78.62408 I-22.88568 J-9.54188
G3 X77.72557 Y89.2306 I-30.68058 J-13.26174
G3 X76.70704 Y90.2 I-23.58017 J-23.75552
G1 X149.66675
G3 X137.0489 Y82.14548 I12.30815 J-33.19196
G3 X126.53225 Y56.98541 I24.50712 J-25.02169
G2 X125.45401 Y5.73251 I-1890.81242 J14.14047
G1 X125.45399 Y5.73206
G3 X124.3461 Y-47.05088 I1941.87024 J-67.16199
G3 X124.34562 Y-47.33323 I24.79452 J-0.18349
G3 X127.75808 Y-63.15645 I39.11464 J0.15595
G1 F300.0 X129.94868 Y-62.17601
G3 F800.0 X133.49281 Y-68.38905 I33.51157 J14.99872
G3 X161.39086 Y-82.99405 I27.7155 J18.99383
G3 X188.03335 Y-69.22765 I0.62405 J31.45642
G3 X190.71123 Y-64.54374 I-27.61834 J18.8974
G3 X194.16952 Y-66.90205 I77.92944 J110.56276
G3 X209.50406 Y-74.83328 I43.0229 J64.39236
G3 X219.6 Y-77.45058 I16.6759 J43.54468
G1 Y-92.6
G1 X78.10344
G3 X78.84088 Y-91.54191 I-24.22746 J17.67134
G3 X82.51797 Y-84.21709 I-27.77576 J18.52893
G3 X84.15768 Y-78.1092 I-36.91152 J13.18323
G3 X84.18393 Y-77.96348 I-22.02729 J4.04269
G3 X84.97368 Y-68.637 I-51.03612 J9.01831
G3 X83.87059 Y-59.5673 I-37.19047 J0.0787
G3 X115.38174 Y-4.20142 I-32.88405 J55.36588
G3 X91.44923 Y45.89362 I-64.3952 J0.0
G3 X91.88859 Y49.9405 I-23.85294 J4.637
G3 X91.89435 Y50.28927 I-22.38859 J0.54387
G3 X85.25381 Y67.21437 I-24.34857 J0.21214
G3 X82.91848 Y77.40434 I-30.89672 J-1.71832
G3 X82.80491 Y77.67183 I-20.67051 J-8.61829
G3 X76.04013 Y87.522 I-28.47758 J-12.30949
G3 X69.30074 Y92.6 I-21.89473 J-22.04692
G1 X219.6
G1 Y88.74666
G3 X195.20429 Y77.32353 I0.75815 J-33.38094
G2 X191.33989 Y73.10306 I-3238.23431 J2961.15354
G3 X185.80158 Y80.35553 I-28.44267 J-15.97922
G3 X162.23052 Y90.00757 I-23.21731 J-23.0913
G3 X138.73352 Y80.43606 I-0.25562 J-32.99953
G3 X128.93229 Y56.98142 I22.8225 J-23.31227
G2 X127.85257 Y5.64951 I-1893.21246 J14.14446
G1 X127.85256 Y5.6491
G3 X126.74604 Y-47.06864 I1939.47167 J-67.07904
G3 X126.7456 Y-47.32367 I22.39459 J-0.16573
G3 X129.94868 Y-62.17601 I36.71465 J0.14638
G1 F300.0 X132.13928 Y-61.19556
G3 F800.0 X135.46227 Y-67.01734 I31.32097 J14.01828
G3 X161.40818 Y-80.59391 I25.74605 J17.62212
G3 X186.05063 Y-67.87531 I0.60673 J29.05627
G3 X189.65465 Y-60.82108 I-25.63562 J17.54506
G3 X195.49687 Y-64.9025 I78.98602 J106.8401
G3 X210.36227 Y-72.59196 I41.69555 J62.39281
G3 X222.0 Y-75.31922 I15.8177 J41.30337
G1 Y-95.0
G1 X72.80236
G3 X76.8436 Y-90.21117 I-18.92637 J20.07134
G3 X80.25746 Y-83.4108 I-25.77848 J17.19819
G3 X81.79711 Y-77.67597 I-34.65102 J12.37694
G3 X81.82054 Y-77.54586 I-19.66672 J3.60945
G3 X82.57366 Y-68.64155 I-48.67274 J8.60069
G3 X81.45303 Y-59.799 I-34.79045 J0.08324
G3 X81.43692 Y-59.73744 I-19.35108 J-5.03424
G3 X81.05739 Y-58.41534 I-30.4335 J-8.02085
G3 X112.98174 Y-4.20142 I-30.07084 J54.21392
G3 X88.7722 Y44.94783 I-61.9952 J0.0
G3 X89.4893 Y49.99879 I-21.17592 J5.58279
G3 X89.49444 Y50.31017 I-19.9893 J0.48559
G3 X82.89304 Y66.1935 I-21.94866 J0.19123
G3 X80.7033 Y76.48076 I-28.53594 J-0.69744
G3 X80.60191 Y76.71958 I-18.45534 J-7.69471
G3 X74.35468 Y85.81339 I-26.27457 J-11.35724
G3 X66.10104 Y91.5351 I-20.20928 J-20.33831
G3 X65.89744 Y91.62713 I-8.3377 J-18.1739
G3 X54.78021 Y93.9953 I-11.1394 J-25.01463
G3 X46.28924 Y92.92834 I-0.1902 J-32.80612
G3 X46.25877 Y92.92035 I5.0592 J-19.34457
G3 X42.85776 Y91.79372 I7.29951 J-27.73215
G3 X31.02068 Y94.293 I-11.67201 J-25.99997
G3 X17.30976 Y90.87759 I-0.1369 J-28.67886
G3 X16.85388 Y90.62493 I9.46384 J-17.61374
G3 X15.93337 Y90.07635 I14.50109 J-25.37922
G3 X13.16354 Y91.5351 I-14.72547 J-24.60127
G3 X12.95994 Y91.62713 I-8.3377 J-18.1739
G3 X1.84271 Y93.9953 I-11.1394 J-25.01463
G3 X-6.64826 Y92.92834 I-0.1902 J-32.80612
G3 X-6.67873 Y92.92035 I5.0592 J-19.34457
G3 X-8.29659 Y92.44321 I7.29951 J-27.73215
G3 X-9.04822 Y92.76678 I-8.72852 J-19.24078
G3 X-9.48183 Y92.93771 I-7.54917 J-18.51534
G3 X-17.49997 Y94.35262 I-7.70409 J-20.23182
G3 X-26.04383 Y92.59916 I0.31272 J-23.21564
G3 X-31.32158 Y89.63048 I9.55212 J-23.15766
G3 X-32.00642 Y89.10429 I11.8372 J-16.11486
G1 X-33.53072 Y87.87985
G1 X-34.89982 Y86.88634
G3 X-36.01398 Y86.01609 I11.74357 J-16.18322
G3 X-40.16916 Y81.50465 I15.44621 J-18.39572
G3 X-44.18866 Y69.55904 I17.75326 J-12.62273
G3 X-44.19832 Y68.92205 I19.98554 J-0.62154
G3 X-42.5035 Y60.47806 I21.96702 J0.01697
G3 X-44.24564 Y51.69249 I20.03043 J-8.53746
G3 X-43.06062 Y44.74568 I21.63976 J0.11696
G3 X-36.01106 Y-57.89083 I38.04716 J-48.9471
G3 X-35.52671 Y-58.16758 I30.9976 J53.68942
G3 X-36.10349 Y-62.97098 I21.53558 J-5.02229
G3 X-34.96207 Y-70.14877 I21.56109 J-0.25097
G3 X-35.28478 Y-71.37357 I26.42956 J-7.61861
G3 X-35.28973 Y-71.39434 I19.44748 J-4.64796
G3 X-36.12035 Y-78.5871 I29.7758 J-7.08282
G3 X-35.96998 Y-81.63374 I30.26122 J-0.03346
G3 X-34.43275 Y-88.06783 I23.85039 J2.29763
G3 X-34.32592 Y-88.33514 I18.62025 J7.28658
G3 X-30.05362 Y-95.0 I20.17945 J8.23366
G1 X-166.0
G1 Y-70.75399
G3 X-159.0793 Y-72.99143 I22.60316 J58.09268
G3 X-159.04798 Y-72.99954 I5.03045 J19.35207
G3 X-138.00144 Y-75.58931 I20.40746 J79.03205
G3 X-107.16071 Y-69.36717 I0.25413 J78.28416
G3 X-93.12366 Y-60.74007 I-19.20248 J46.97743
G3 X-81.80834 Y-36.90482 I-20.99936 J24.57253
G3 X-85.15688 Y-22.40302 I-29.28715 J0.87494
G3 X-85.69419 Y-21.44511 I-17.70116 J-9.29931
G3 X-92.78848 Y-13.69111 I-22.44579 J-13.41375
G3 X-92.55409 Y-13.37506 I-37.25771 J27.87644
G3 X-92.48126 Y-13.27535 I-16.11066 J11.84292
G3 X-85.7876 Y7.01169 I-28.42642 J20.62703
G3 X-92.19602 Y29.12707 I-38.80289 J0.74218
G3 X-92.64106 Y29.77362 I-16.68987 J-11.01164
G3 X-109.13972 Y43.39329 I-34.03268 J-24.42371
G3 X-125.33978 Y48.43829 I-26.25244 J-55.76699
G3 X-140.06879 Y49.6365 I-14.39955 J-85.87912
G3 X-166.0 Y44.0709 I-0.71584 J-59.85684
G1 Y95.0
G1 X222.0
G1 Y86.31109
G3 X220.01922 Y86.35342 I-1.64892 J-30.79667
G3 X220.00927 Y86.35331 I0.21515 J-19.99404
G3 X196.99446 Y75.72475 I0.34888 J-30.98759
G2 X190.7351 Y68.89409 I-3240.02448 J2962.75231
G3 X184.10822 Y78.65474 I-27.83788 J-11.77025
G3 X162.2342 Y87.60746 I-21.52395 J-21.39051
G3 X140.41814 Y78.72664 I-0.25929 J-30.59942
G3 X131.33233 Y56.97797 I21.13788 J-21.60285
G2 X130.25114 Y5.56651 I-1895.6125 J14.14791
G1 X130.25112 Y5.56615
G3 X129.14597 Y-47.0864 I1937.07311 J-66.99608
G3 X129.14558 Y-47.3141 I19.99465 J-0.14797
G3 X132.13928 Y-61.19556 I34.31467 J0.13682
G1 F300.0 X134.32989 Y-60.21512
G3 F800.0 X137.43177 Y-65.64568 I29.13037 J13.03784
G3 X161.4256 Y-78.19373 I23.77654 J16.25046
G3 X184.0679 Y-66.52298 I0.58931 J26.65609
G3 X188.33844 Y-56.8068 I-23.65289 J16.19273
G3 X196.82426 Y-62.90298 I80.30223 J102.82582
G3 X211.22047 Y-70.35065 I40.36816 J60.39329
G3 X224.4 Y-73.07929 I14.9595 J39.06205
G1 Y-97.4
G1 X65.2534
G3 X74.84631 Y-88.88044 I-11.37741 J22.47134
G3 X77.99695 Y-82.60451 I-23.78119 J15.86745
G3 X79.43654 Y-77.24273 I-32.39051 J11.57065
G3 X79.45716 Y-77.12823 I-17.30615 J3.17621
G3 X80.17364 Y-68.64599 I-46.30935 J8.18307
G3 X79.13035 Y-60.40325 I-32.39043 J0.08769
G3 X79.11616 Y-60.34909 I-17.0284 J-4.42999
G3 X78.11583 Y-57.26354 I-28.11275 J-7.40921
G3 X110.58174 Y-4.20142 I-27.12929 J53.06213
G3 X85.98249 Y44.03624 I-59.5952 J0.0
G3 X87.09001 Y50.05707 I-18.38621 J6.49438
G3 X87.09453 Y50.33108 I-17.59001 J0.42731
G3 X80.50089 Y65.14202 I-19.54875 J0.17032
G3 X80.50153 Y65.45472 I-36.89887 J0.23132
G3 X78.48813 Y75.55717 I-26.14443 J0.04133
G3 X78.3989 Y75.76733 I-16.24017 J-6.77112
G3 X72.66923 Y84.10478 I-24.07157 J-10.40499
G3 X65.10027 Y89.35371 I-18.52384 J-18.6297
G3 X64.92111 Y89.43469 I-7.33693 J-15.99251
G3 X54.7723 Y91.5953 I-10.16307 J-22.82219
G3 X46.89649 Y90.60644 I-0.18229 J-30.40612
G3 X46.86967 Y90.5994 I4.45195 J-17.02267
G3 X42.80558 Y89.16415 I6.68861 J-25.4112
G3 X31.0219 Y91.89296 I-11.61983 J-23.37039
G3 X18.44569 Y88.76343 I-0.13812 J-26.27883
G3 X18.04453 Y88.5411 I8.32791 J-15.49958
G3 X15.95605 Y87.21652 I13.31044 J-23.29539
G3 X12.16277 Y89.35371 I-14.74815 J-21.74144
G3 X11.98361 Y89.43469 I-7.33693 J-15.99251
G3 X1.8348 Y91.5953 I-10.16307 J-22.82219
G3 X-6.04101 Y90.60644 I-0.18229 J-30.40612
G3 X-6.06783 Y90.5994 I4.45195 J-17.02267
G3 X-8.44737 Y89.85063 I6.68861 J-25.4112
G3 X-9.95434 Y90.54441 I-8.57773 J-16.6482
G3 X-10.3359 Y90.69482 I-6.64306 J-16.29297
G3 X-17.4664 Y91.95286 I-6.85002 J-17.98893
G3 X-25.1285 Y90.38056 I0.27915 J-20.81587
G3 X-29.90077 Y87.69624 I8.63679 J-20.93907
G3 X-30.50341 Y87.2332 I10.4164 J-14.18061
G1 X-32.07356 Y85.97194
G1 X-33.49026 Y84.94389
G3 X-34.47068 Y84.17809 I10.33401 J-14.24076
G3 X-38.21194 Y80.11566 I13.90291 J-16.55772
G3 X-41.78982 Y69.48443 I15.79604 J-11.23374
G3 X-41.79832 Y68.92391 I17.5867 J-0.54693
G3 X-39.86955 Y60.46785 I19.56702 J0.01512
G3 X-41.84571 Y51.71264 I17.39647 J-8.52725
G3 X-40.15774 Y43.92828 I19.23983 J0.0968
G3 X-34.81106 Y-55.81237 I35.14428 J-48.12969
G3 X-32.69938 Y-56.97525 I29.7976 J51.61096
G3 X-33.70363 Y-62.99683 I18.70825 J-6.21461
G3 X-32.43387 Y-70.08479 I19.16122 J-0.22512
G3 X-32.95052 Y-71.93146 I23.90136 J-7.68259
G3 X-32.95488 Y-71.94974 I17.11322 J-4.09007
G3 X-33.72034 Y-78.58412 I27.44095 J-6.52743
G3 X-33.58146 Y-81.39921 I27.86121 J-0.03644
G3 X-32.19779 Y-87.19323 I21.46188 J2.06309
G3 X-32.10378 Y-87.42845 I16.38529 J6.41198
G3 X-23.82483 Y-96.90858 I17.9573 J7.32698
G3 X-23.18167 Y-97.2613 I8.78042 J15.24779
G3 X-22.91073 Y-97.4 I9.20654 J17.6505
G1 X-168.4
G1 Y-67.132
G3 X-158.4755 Y-70.66862 I25.00316 J54.47069
G3 X-158.44794 Y-70.67576 I4.42666 J17.02926
G3 X-138.00693 Y-73.18928 I19.80742 J76.70827
G3 X-108.08359 Y-67.15164 I0.25963 J75.88413
G3 X-94.68919 Y-58.92095 I-18.2796 J44.7619
G3 X-84.20752 Y-36.8416 I-19.43383 J22.75341
G3 X-87.28153 Y-23.51921 I-26.88797 J0.81172
G3 X-87.75435 Y-22.67627 I-15.57651 J-8.18312
G3 X-96.31004 Y-14.26658 I-20.38564 J-12.18259
G3 X-94.48783 Y-11.95357 I-33.73615 J28.45191
G3 X-94.42374 Y-11.86582 I-14.17691 J10.42143
G3 X-88.18738 Y7.04623 I-26.48393 J19.21751
G3 X-94.19929 Y27.80536 I-36.40311 J0.70764
G3 X-94.59091 Y28.3743 I-14.68661 J-9.68992
G3 X-110.15309 Y41.2177 I-32.08283 J-23.02439
G3 X-125.73392 Y46.07087 I-25.23907 J-53.5914
G3 X-140.07866 Y47.23644 I-14.00541 J-83.5117
G3 X-165.04574 Y41.86784 I-0.70597 J-57.45679
G3 X-165.38099 Y41.70736 I7.42901 J-15.94995
G3 X-168.4 Y40.10544 I24.46921 J-49.76082
G1 Y97.4
G1 X224.4
G1 Y83.66552
G3 X220.04505 Y83.95356 I-4.04892 J-28.1511
G3 X220.03629 Y83.95346 I0.18933 J-17.59418
G3 X198.78539 Y74.12681 I0.32186 J-28.58774
G2 X189.77811 Y64.30639 I-3241.81541 J2964.35026
G3 X182.41485 Y76.95395 I-26.88089 J-7.18255
G3 X162.23788 Y85.20733 I-19.83058 J-19.68972
G3 X142.10276 Y77.01721 I-0.26297 J-28.19929
G3 X133.73237 Y56.97511 I19.45327 J-19.89342
G2 X132.6497 Y5.48351 I-1898.01255 J14.15077
G1 X132.64969 Y5.48319
G3 X131.54591 Y-47.10416 I1934.67454 J-66.91312
G3 X131.54556 Y-47.30453 I17.59472 J-0.13021
G3 X134.32989 Y-60.21512 I31.91469 J0.12725
G0 Z3.0
G0 X68.07967 Y-66.6017
G0 Z1.0
G1 F300.0 Z-2.5
G3 F800.0 X67.51691 Y-63.42452 I-20.29646 J-1.9566
G3 X67.5124 Y-63.4073 I-5.41496 J-1.40872
G3 X65.14977 Y-58.20014 I-16.50898 J-4.351
G3 X60.12745 Y-53.64928 I-11.46656 J-7.60772
G3 X60.0008 Y-53.5842 I-2.62026 J-4.94373
G3 X53.55939 Y-52.1074 I-6.28379 J-12.62205
G3 X46.65661 Y-53.80735 I-0.14435 J-14.27846
G3 X46.52904 Y-53.87805 I2.64824 J-4.9288
G3 X43.23953 Y-56.43084 I7.35718 J-12.87624
G3 X41.12655 Y-54.70967 I-8.21168 J-7.92344
G3 X33.18798 Y-52.40497 I-7.78694 J-11.99761
G3 X26.2952 Y-54.22877 I0.08533 J-14.25952
G3 X23.91204 Y-55.8016 I9.58319 J-17.11239
G3 X22.87317 Y-56.62928 I20.05543 J-26.23865
G3 X19.06495 Y-53.64928 I-10.25247 J-9.17858
G3 X18.9383 Y-53.5842 I-2.62026 J-4.94373
G3 X12.49689 Y-52.1074 I-6.28379 J-12.62205
G3 X5.59411 Y-53.80735 I-0.14435 J-14.27846
G3 X5.46654 Y-53.87805 I2.64824 J-4.9288
G3 X2.17703 Y-56.43084 I7.35718 J-12.87624
G3 X0.06405 Y-54.70967 I-8.21168 J-7.92344
G3 X-7.87452 Y-52.40497 I-7.78694 J-11.99761
G3 X-14.7673 Y-54.22877 I0.08533 J-14.25952
G3 X-17.15046 Y-55.8016 I9.58319 J-17.11239
G3 X-18.98001 Y-57.30698 I20.05543 J-26.23865
G3 X-21.70431 Y-63.1262 I4.98888 J-5.88288
G3 X-18.45414 Y-69.22198 I7.16191 J-0.09574
G3 X-19.45047 Y-70.51907 I10.98777 J-9.47119
G3 X-19.51824 Y-70.6208 I4.62235 J-3.15281
G3 X-21.27923 Y-74.7209 I10.98573 J-7.14658
G3 X-21.28062 Y-74.72672 I5.44193 J-1.30063
G3 X-21.72028 Y-78.56929 I15.76669 J-3.75045
G3 X-21.63868 Y-80.2282 I15.86115 J-0.05127
G3 X-21.02295 Y-82.82023 I9.5191 J0.89209
G3 X-20.99306 Y-82.89503 I5.21045 J2.03898
G3 X-17.83654 Y-86.50952 I6.84658 J2.79356
G3 X-17.63202 Y-86.62169 I2.79214 J4.84873
G3 X-14.28894 Y-87.51187 I3.6569 J7.01089
G3 X-13.13999 Y-87.63719 I1.5103 J8.51716
G3 X-12.75528 Y-87.64004 I0.23374 J5.59032
G3 X-10.3802 Y-87.45576 I-0.63735 J23.613
G3 X-10.30098 Y-87.445 I-0.71355 J5.54951
G2 X-9.2086 Y-87.34553 I1.5137 J-10.57551
G1 X-4.88546 Y-87.36024
G2 X-4.58422 Y-87.40148 I-0.23611 J-2.84561
G3 X-4.45124 Y-87.4253 I1.05297 J5.49523
G3 X-2.53199 Y-87.62214 I2.52061 J15.12117
G3 X-2.42841 Y-87.62525 I0.21949 J5.59089
G3 X3.2174 Y-85.27419 I0.15701 J7.5774
G3 X8.48975 Y-87.8158 I8.14543 J10.15767
G3 X11.97831 Y-88.20476 I3.46154 J15.2077
G3 X18.29555 Y-86.92173 I0.22607 J15.08047
G3 X18.41059 Y-86.86938 I-2.25971 J5.11859
G3 X21.35537 Y-84.97577 I-5.59711 J11.94072
G3 X23.22596 Y-86.50952 I5.56065 J4.8743
G3 X23.43048 Y-86.62169 I2.79214 J4.84873
G3 X26.77356 Y-87.51187 I3.6569 J7.01089
G3 X27.92251 Y-87.63719 I1.5103 J8.51716
G3 X28.30722 Y-87.64004 I0.23374 J5.59032
G3 X30.6823 Y-87.45576 I-0.63735 J23.613
G3 X30.76152 Y-87.445 I-0.71355 J5.54951
G2 X31.8539 Y-87.34553 I1.5137 J-10.57551
G1 X36.17704 Y-87.36024
G2 X36.47828 Y-87.40148 I-0.23611 J-2.84561
G3 X36.61126 Y-87.4253 I1.05297 J5.49523
G3 X38.53051 Y-87.62214 I2.52061 J15.12117
G3 X38.63409 Y-87.62525 I0.21949 J5.59089
G3 X44.2799 Y-85.27419 I0.15701 J7.5774
G3 X49.55225 Y-87.8158 I8.14543 J10.15767
G3 X53.04081 Y-88.20476 I3.46154 J15.2077
G3 X59.35805 Y-86.92173 I0.22607 J15.08047
G3 X59.47309 Y-86.86938 I-2.25971 J5.11859
G3 X64.85975 Y-82.22696 I-5.59711 J11.94072
G3 X66.69435 Y-78.57325 I-13.79463 J9.21397
G3 X67.63367 Y-75.07654 I-21.0879 J7.53939
G3 X67.64023 Y-75.04013 I-5.50328 J1.01002
G3 X68.17348 Y-68.66563 I-34.49242 J6.09497
G3 X68.07967 Y-66.6017 I-20.39027 J0.10733
G1 F300.0 X65.69552 Y-66.83154
G3 F800.0 X65.19887 Y-64.02757 I-17.91231 J-1.72676
G3 X65.19629 Y-64.01772 I-3.09692 J-0.80567
G3 X63.15941 Y-59.53265 I-14.19287 J-3.74058
G3 X59.00577 Y-55.7656 I-9.47621 J-6.2752
G3 X58.93333 Y-55.72837 I-1.49858 J-2.82741
G3 X53.56068 Y-54.50277 I-5.21633 J-10.47787
G3 X47.79027 Y-55.91728 I-0.14565 J-11.8831
G3 X47.71731 Y-55.95771 I1.51458 J-2.81887
G3 X43.45246 Y-59.98982 I6.16891 J-10.79657
G3 X43.13865 Y-60.47729 I13.43215 J-8.99175
G3 X42.65628 Y-59.54987 I-7.15467 J-3.13208
G3 X42.61562 Y-59.48481 I-2.73378 J-1.66326
G3 X39.83459 Y-56.72662 I-7.58777 J-4.86946
G3 X33.20784 Y-54.80009 I-6.49498 J-9.98066
G3 X27.46642 Y-56.31808 I0.06547 J-11.86439
G3 X25.37004 Y-57.70193 I8.41196 J-15.02308
G3 X23.64947 Y-59.11871 I18.59742 J-24.33832
G3 X22.59397 Y-60.31991 I3.4219 J-4.07116
G3 X22.09691 Y-59.53265 I-12.65306 J-7.43839
G3 X17.94327 Y-55.7656 I-9.47621 J-6.2752
G3 X17.87083 Y-55.72837 I-1.49858 J-2.82741
G3 X12.49818 Y-54.50277 I-5.21633 J-10.47787
G3 X6.72777 Y-55.91728 I-0.14565 J-11.8831
G3 X6.65481 Y-55.95771 I1.51458 J-2.81887
G3 X2.38996 Y-59.98982 I6.16891 J-10.79657
G3 X2.07615 Y-60.47729 I13.43215 J-8.99175
G3 X1.59378 Y-59.54987 I-7.15467 J-3.13208
G3 X1.55312 Y-59.48481 I-2.73378 J-1.66326
G3 X-1.22791 Y-56.72662 I-7.58777 J-4.86946
G3 X-7.85466 Y-54.80009 I-6.49498 J-9.98066
G3 X-13.59608 Y-56.31808 I0.06547 J-11.86439
G3 X-15.69246 Y-57.70193 I8.41196 J-15.02308
G3 X-17.41303 Y-59.11871 I18.59742 J-24.33832
G3 X-19.30924 Y-63.15215 I3.4219 J-4.07116
G3 X-16.99275 Y-67.31137 I4.76684 J-0.0698
G3 X-13.80919 Y-68.1837 I3.06406 J4.93695
G3 X-13.66036 Y-68.17717 I-0.06581 J3.19932
G3 X-15.47515 Y-69.60804 I11.11927 J-15.96909
G3 X-17.47173 Y-71.86873 I8.00878 J-9.08513
G3 X-17.51049 Y-71.92691 I2.64361 J-1.80315
G3 X-18.94964 Y-75.27768 I8.97798 J-5.84047
G3 X-18.95043 Y-75.281 I3.11234 J-0.74385
G3 X-19.32506 Y-78.56636 I13.4365 J-3.19616
G3 X-19.2548 Y-79.99537 I13.46593 J-0.0542
G3 X-18.79246 Y-81.94738 I7.13522 J0.65925
G3 X-18.77536 Y-81.99016 I2.97996 J1.16613
G3 X-16.64128 Y-84.43387 I4.62888 J1.88869
G3 X-16.52431 Y-84.49802 I1.59688 J2.77308
G3 X-14.03236 Y-85.1226 I2.54919 J4.88722
G3 X-13.03993 Y-85.24408 I1.25373 J6.1279
G3 X-12.81991 Y-85.24571 I0.13368 J3.19721
G3 X-10.68566 Y-85.08012 I-0.57273 J21.21867
G3 X-10.64035 Y-85.07397 I-0.40809 J3.17387
G2 X-9.24918 Y-84.95018 I1.85307 J-12.94655
G1 X-4.79659 Y-84.96533
G2 X-4.13346 Y-85.04907 I-0.32499 J-5.24052
G3 X-4.05741 Y-85.0627 I0.60221 J3.14282
G3 X-2.43803 Y-85.22879 I2.12678 J12.75857
G3 X-2.37879 Y-85.23056 I0.12553 J3.19754
G3 X1.53094 Y-83.57123 I0.10739 J5.18271
G3 X2.78287 Y-81.39087 I-3.75097 J3.60334
G3 X4.56527 Y-83.2822 I9.47178 J7.14069
G3 X4.60407 Y-83.31471 I2.07438 J2.43659
G3 X9.0198 Y-85.47999 I6.75876 J8.19819
G3 X11.99422 Y-85.80951 I2.93149 J12.87188
G3 X17.32821 Y-84.73055 I0.21016 J12.68522
G3 X17.394 Y-84.70061 I-1.29237 J2.92742
G3 X21.80388 Y-80.89901 I-4.58052 J9.77195
G3 X21.9144 Y-80.73106 I-11.80126 J7.88603
G3 X22.27004 Y-81.94738 I7.02852 J1.39494
G3 X22.28714 Y-81.99016 I2.97996 J1.16613
G3 X24.42122 Y-84.43387 I4.62888 J1.88869
G3 X24.53819 Y-84.49802 I1.59688 J2.77308
G3 X27.03014 Y-85.1226 I2.54919 J4.88722
G3 X28.02257 Y-85.24408 I1.25373 J6.1279
G3 X28.24259 Y-85.24571 I0.13368 J3.19721
G3 X30.37684 Y-85.08012 I-0.57273 J21.21867
G3 X30.42215 Y-85.07397 I-0.40809 J3.17387
G2 X31.81332 Y-84.95018 I1.85307 J-12.94655
G1 X36.26591 Y-84.96533
G2 X36.92904 Y-85.04907 I-0.32499 J-5.24052
G3 X37.00509 Y-85.0627 I0.60221 J3.14282
G3 X38.62447 Y-85.22879 I2.12678 J12.75857
G3 X38.68371 Y-85.23056 I0.12553 J3.19754
G3 X42.59344 Y-83.57123 I0.10739 J5.18271
G3 X43.84537 Y-81.39087 I-3.75097 J3.60334
G3 X45.62777 Y-83.2822 I9.47178 J7.14069
G3 X45.66657 Y-83.31471 I2.07438 J2.43659
G3 X50.0823 Y-85.47999 I6.75876 J8.19819
G3 X53.05672 Y-85.80951 I2.93149 J12.87188
G3 X58.39071 Y-84.73055 I0.21016 J12.68522
G3 X58.4565 Y-84.70061 I-1.29237 J2.92742
G3 X62.86638 Y-80.89901 I-4.58052 J9.77195
G3 X64.43832 Y-77.76868 I-11.80126 J7.88603
G3 X65.27782 Y-74.64417 I-18.83187 J6.73482
G3 X65.28157 Y-74.62334 I-3.14743 J0.57765
G3 X65.77822 Y-68.66867 I-32.13376 J5.67818
G3 X65.69552 Y-66.83154 I-17.99501 J0.11037
G0 Z3.0
G0 X40.71938 Y-71.60669
G0 Z1.0
G1 F300.0 Z-2.5
G2 F800.0 X40.16252 Y-72.14697 I-8.33308 J8.03166
G2 X38.14741 Y-73.73198 I-11.75548 J12.87192
G2 X38.06902 Y-73.78314 I-1.78804 J2.65385
G2 X37.16759 Y-74.35203 I-429.16273 J679.02617
G2 X40.4923 Y-75.17348 I-0.63705 J-9.71732
G2 X41.27234 Y-75.56239 I-2.7445 J-6.48133
G2 X41.06173 Y-74.50248 I17.44832 J4.01796
G2 X40.71938 Y-71.60669 I27.66576 J4.73895
G0 Z3.0
G0 X27.40214 Y-68.17717
G0 Z1.0
G1 F300.0 Z-2.5
G2 F800.0 X27.25331 Y-68.1837 I-0.21464 J3.19279
G2 X24.69299 Y-67.64741 I-0.11949 J5.80928
G2 X24.71572 Y-68.66867 I-17.97228 J-0.9109
G2 X24.67999 Y-70.49666 I-32.63042 J-0.27649
G2 X25.58735 Y-69.60804 I8.91613 J-8.19651
G2 X27.40214 Y-68.17717 I12.93407 J-14.53822
G0 Z3.0
G0 X-0.34312 Y-71.60669
G0 Z1.0
G1 F300.0 Z-2.5
G2 F800.0 X-0.89998 Y-72.14697 I-8.33308 J8.03166
G2 X-2.91509 Y-73.73198 I-11.75548 J12.87192
G2 X-2.99348 Y-73.78314 I-1.78804 J2.65385
G2 X-3.89491 Y-74.35203 I-429.16273 J679.02617
G2 X-0.5702 Y-75.17348 I-0.63705 J-9.71732
G2 X0.20984 Y-75.56239 I-2.7445 J-6.48133
G2 X-0.00077 Y-74.50248 I17.44832 J4.01796
G2 X-0.34312 Y-71.60669 I27.66576 J4.73895
G0 Z3.0
G0 X3.35114 Y-88.29211
G0 Z1.0
G1 F300.0 Z-2.5
G2 F800.0 X-2.47813 Y-90.02473 I-5.62255 J8.24426
G2 X-2.62613 Y-90.0203 I0.16563 J7.99348
G2 X-4.84586 Y-89.79263 I0.6955 J17.71617
G2 X-5.02978 Y-89.75976 I1.31461 J7.88638
G1 X-9.16207 Y-89.7457
G3 X-9.96092 Y-89.82079 I0.37479 J-8.27481
G2 X-10.07413 Y-89.83617 I-1.13283 J7.91454
G2 X-12.69052 Y-90.03916 I-3.3185 J25.80913
G2 X-13.24025 Y-90.0351 I-0.21573 J7.99229
G2 X-14.54796 Y-89.90217 I0.46161 J11.04039
G2 X-18.74195 Y-88.74961 I0.57283 J10.29137
G2 X-19.0342 Y-88.58934 I3.69755 J7.08882
G2 X-23.2152 Y-83.80172 I4.88772 J8.48786
G2 X-23.25792 Y-83.69483 I7.4027 J3.02047
G2 X-24.02728 Y-80.462 I11.13834 J4.35872
G2 X-24.1203 Y-78.57224 I18.16816 J1.84144
G2 X-23.61547 Y-74.17132 I18.60637 J0.09507
G2 X-23.61349 Y-74.16301 I7.77817 J-1.85021
G2 X-21.6941 Y-69.56982 I15.08098 J-3.60437
G2 X-24.10418 Y-63.10028 I7.15169 J6.34788
G2 X-20.55246 Y-55.49371 I10.11305 J-0.08958
G2 X-18.6113 Y-53.8974 I23.45742 J-26.54654
G2 X-16.96636 Y-52.74674 I13.42718 J-17.44375
G2 X-30.01106 Y-47.49853 I11.9529 J48.54532
G2 Y39.0957 I24.9976 J43.29711
G2 X-23.65785 Y42.18723 I24.9976 J-43.29711
G2 X-25.85134 Y42.75858 I2.19526 J12.9241
G2 X-25.99917 Y42.81275 I2.67666 J7.53384
G2 X-30.39721 Y46.13544 I3.45186 J9.14106
G2 X-30.62411 Y46.4579 I6.42318 J4.76088
G2 X-32.24594 Y51.79322 I8.01823 J5.35155
G2 X-28.26083 Y59.81668 I9.77287 J0.14738
G1 Y60.98988
G2 X-29.08227 Y61.69984 I6.21433 J8.02041
G2 X-32.19832 Y68.93132 I6.85097 J7.23919
G2 X-32.19446 Y69.18602 I7.9952 J0.00618
G2 X-30.3832 Y74.5595 I9.77856 J-0.30411
G2 X-28.29749 Y76.8261 I9.81543 J-6.93913
G2 X-27.85199 Y77.17408 I5.14124 J-6.12298
G1 X-26.24491 Y78.34028
G1 X-24.49139 Y79.74885
G2 X-24.21755 Y79.95925 I5.00701 J-6.23322
G2 X-21.46717 Y81.50618 I7.72584 J-10.51776
G2 X-17.332 Y82.3538 I4.27992 J-10.36919
G2 X-13.75219 Y81.72326 I0.14607 J-9.6479
G2 X-13.57881 Y81.65491 I-2.8452 J-7.47182
G2 X-9.5333 Y78.41724 I-3.44629 J-8.45248
G2 X-9.48773 Y78.45212 I9.19668 J-11.96943
G2 X-9.48608 Y78.45337 I4.8471 J-6.35837
G2 X-3.6242 Y81.31562 I10.10686 J-13.26517
G2 X-3.61201 Y81.31881 I2.03514 J-7.73185
G2 X1.80397 Y81.9953 I5.26452 J-20.12963
G2 X8.07831 Y80.66494 I0.01657 J-15.38279
G2 X8.15972 Y80.62814 I-3.25247 J-7.30374
G2 X12.98992 Y77.27029 I-6.95182 J-15.15306
G2 X16.04204 Y73.21563 I-11.60009 J-11.90795
G2 X16.91716 Y74.64884 I18.31132 J-10.19719
G2 X22.80714 Y80.20578 I14.43781 J-9.40312
G2 X22.98943 Y80.30681 I3.96646 J-6.94193
G2 X31.02686 Y82.29271 I7.89436 J-14.69267
G2 X38.53915 Y80.56428 I0.15889 J-16.49896
G2 X38.72014 Y80.47128 I-3.5632 J-7.15729
G2 X42.51785 Y77.68073 I-7.56818 J-14.27914
G2 X43.44977 Y78.45212 I10.08303 J-11.23292
G2 X43.45142 Y78.45337 I4.8471 J-6.35837
G2 X49.3133 Y81.31562 I10.10686 J-13.26517
G2 X49.32549 Y81.31881 I2.03514 J-7.73185
G2 X54.74147 Y81.9953 I5.26452 J-20.12963
G2 X61.01581 Y80.66494 I0.01657 J-15.38279
G2 X61.09722 Y80.62814 I-3.25247 J-7.30374
G2 X65.92742 Y77.27029 I-6.95182 J-15.15306
G2 X69.5869 Y71.95832 I-11.60009 J-11.90795
G2 X69.62744 Y71.86282 I-7.33893 J-3.17227
G2 X70.9015 Y65.45244 I-15.27035 J-6.36677
G2 X70.38828 Y60.1042 I-27.29948 J-0.07909
G2 X73.8741 Y58.17895 I-3.33487 J-10.15637
G2 X77.4949 Y50.41472 I-6.32832 J-7.67755
G2 X77.49284 Y50.29021 I-7.9949 J0.06965
G2 X73.78213 Y42.80178 I-9.89656 J0.24041
G2 X71.52477 Y41.38039 I-6.77037 J8.24906
G2 X100.98174 Y-4.20142 I-20.53823 J-45.58181
G2 X63.13386 Y-52.69845 I-49.9952 J0.0
G2 X67.144 Y-56.86481 I-9.45065 J-13.1094
G2 X69.83315 Y-62.79566 I-16.14059 J-10.89349
G2 X69.8396 Y-62.82027 I-7.7312 J-2.03758
G2 X70.57352 Y-68.66219 I-22.05638 J-5.73803
G2 X70.00361 Y-75.45775 I-37.42572 J-0.28297
G2 X69.99424 Y-75.50978 I-7.87323 J1.39123
G2 X68.95488 Y-79.37947 I-24.3878 J4.47591
G2 X66.85709 Y-83.55761 I-17.88976 J6.36648
G2 X60.49172 Y-89.04249 I-12.98111 J8.62895
G2 X60.32733 Y-89.11729 I-3.39338 J7.23935
G2 X53.02492 Y-90.60478 I-7.06045 J15.993
G2 X49.02112 Y-90.15629 I-0.01113 J17.99667
G2 X44.41364 Y-88.29211 I3.40422 J15.03977
G2 X38.58437 Y-90.02473 I-5.62255 J8.24426
G2 X38.43637 Y-90.0203 I0.16563 J7.99348
G2 X36.21664 Y-89.79263 I0.6955 J17.71617
G2 X36.03272 Y-89.75976 I1.31461 J7.88638
G1 X31.90043 Y-89.7457
G3 X31.10158 Y-89.82079 I0.37479 J-8.27481
G2 X30.98837 Y-89.83617 I-1.13283 J7.91454
G2 X28.37198 Y-90.03916 I-3.3185 J25.80913
G2 X27.82225 Y-90.0351 I-0.21573 J7.99229
G2 X26.51454 Y-89.90217 I0.46161 J11.04039
G2 X22.32055 Y-88.74961 I0.57283 J10.29137
G2 X22.0283 Y-88.58934 I3.69755 J7.08882
G2 X21.20926 Y-88.06178 I4.88772 J8.48786
G2 X19.42922 Y-89.04249 I-8.39578 J13.13312
G2 X19.26483 Y-89.11729 I-3.39338 J7.23935
G2 X11.96242 Y-90.60478 I-7.06045 J15.993
G2 X7.95862 Y-90.15629 I-0.01113 J17.99667
G2 X3.35114 Y-88.29211 I3.40422 J15.03977
G1 F300.0 X3.39266 Y-91.05506
G2 F800.0 X-2.52784 Y-92.42422 I-5.66407 J11.00721
G2 X-2.72028 Y-92.41845 I0.21534 J10.39297
G2 X-5.24048 Y-92.15997 I0.78965 J20.11433
G2 X-5.24604 Y-92.15904 I1.70923 J10.25372
G1 X-9.10684 Y-92.14591
G3 X-9.62087 Y-92.19658 I0.31956 J-5.87461
G2 X-9.76806 Y-92.21657 I-1.47288 J10.29033
G2 X-12.62577 Y-92.43829 I-3.62457 J28.18953
G2 X-13.34051 Y-92.433 I-0.28048 J10.39142
G2 X-14.80784 Y-92.29079 I0.56187 J13.43829
G2 X-19.85188 Y-90.87753 I0.83272 J12.67999
G2 X-20.23186 Y-90.66915 I4.80747 J9.21674
G2 X-25.43735 Y-84.7084 I6.08538 J10.56767
G2 X-25.49289 Y-84.56943 I9.62485 J3.92715
G2 X-26.41585 Y-80.69609 I13.3733 J5.23331
G2 X-26.52031 Y-78.5752 I20.55672 J2.07553
G2 X-25.95032 Y-73.61593 I21.00638 J0.09803
G2 X-25.94775 Y-73.60512 I10.11302 J-2.4056
G2 X-24.5533 Y-69.77057 I17.41524 J-4.16226
G2 X-26.50404 Y-63.0744 I10.0109 J6.54862
G2 X-22.16076 Y-53.71128 I12.51291 J-0.11546
G2 X-31.21106 Y-49.57699 I17.1473 J49.50987
G2 Y41.17416 I26.1976 J45.37557
G2 X-29.62615 Y42.05302 I26.1976 J-45.37557
G2 X-32.32532 Y44.70632 I7.07884 J9.90079
G2 X-32.62034 Y45.12557 I8.35129 J6.19
G2 X-34.6459 Y51.77309 I10.01445 J6.68387
G2 X-31.20223 Y60.42634 I12.17283 J0.16751
G2 X-34.59832 Y68.92947 I8.97093 J8.51268
G2 X-34.5933 Y69.26063 I10.3952 J0.00803
G2 X-32.34035 Y75.94859 I12.1774 J-0.37871
G2 X-29.84079 Y78.6641 I11.77258 J-8.32823
G2 X-29.26155 Y79.11653 I6.68454 J-7.96098
G1 X-27.70207 Y80.24819
G1 X-25.99439 Y81.61993
G2 X-25.63836 Y81.8935 I6.51002 J-8.10431
G2 X-22.38251 Y83.72477 I9.14664 J-12.452
G2 X-17.36563 Y84.75356 I5.19525 J-12.58779
G2 X-12.89812 Y83.96615 I0.1797 J-12.04767
G2 X-12.67269 Y83.87729 I-3.69927 J-9.71471
G2 X-9.1183 Y81.59162 I-4.35241 J-10.67485
G2 X-4.2351 Y83.63656 I9.73908 J-16.40341
G2 X-4.21926 Y83.64072 I2.64604 J-10.05279
G2 X1.81151 Y84.3953 I5.87177 J-22.45154
G2 X9.05463 Y82.85738 I0.00903 J-17.7828
G2 X9.16048 Y82.80953 I-4.2288 J-9.49618
G2 X14.67538 Y78.97892 I-7.95258 J-17.33445
G2 X16.0292 Y77.51165 I-13.28555 J-13.61658
G2 X21.61649 Y82.28961 I15.32577 J-12.26594
G2 X21.85349 Y82.42096 I5.15711 J-9.02576
G2 X31.02561 Y84.6928 I9.03029 J-16.80683
G2 X39.60875 Y82.71276 I0.16014 J-18.89905
G2 X39.84407 Y82.59184 I-4.63281 J-9.30577
G2 X42.59893 Y80.80275 I-8.69211 J-16.3997
G2 X48.7024 Y83.63656 I10.95935 J-15.61455
G2 X48.71824 Y83.64072 I2.64604 J-10.05279
G2 X54.74901 Y84.3953 I5.87177 J-22.45154
G2 X61.99213 Y82.85738 I0.00903 J-17.7828
G2 X62.09798 Y82.80953 I-4.2288 J-9.49618
G2 X67.61288 Y78.97892 I-7.95258 J-17.33445
G2 X71.7899 Y72.91057 I-13.28555 J-13.61658
G2 X71.84262 Y72.78641 I-9.54193 J-4.12452
G2 X73.30151 Y65.45283 I-17.48552 J-7.29035
G2 X73.05825 Y61.5791 I-29.69949 J-0.07949
G2 X75.40303 Y60.02892 I-6.00484 J-11.63127
G2 X79.89481 Y50.39381 I-7.85725 J-9.52752
G2 X79.89213 Y50.23192 I-10.39481 J0.09056
G2 X76.19152 Y41.73295 I-12.29585 J0.2987
G2 X103.38174 Y-4.20142 I-25.20498 J-45.93437
G2 X67.8452 Y-53.81031 I-52.3952 J0.0
G2 X69.13818 Y-55.52939 I-14.16199 J-11.99754
G2 X72.1539 Y-62.18401 I-18.13476 J-12.22891
G2 X72.16228 Y-62.21601 I-10.05195 J-2.64923
G2 X72.97356 Y-68.65845 I-24.37907 J-6.34229
G2 X72.367 Y-75.87537 I-39.82576 J-0.28671
G2 X72.35482 Y-75.94301 I-10.23661 J1.80886
G2 X71.21541 Y-80.18571 I-26.74837 J4.90915
G2 X68.85441 Y-84.88829 I-20.15029 J7.17272
G2 X61.51035 Y-91.21559 I-14.97843 J9.95963
G2 X61.2966 Y-91.31285 I-4.41201 J9.41246
G2 X53.00907 Y-93.00478 I-8.02973 J18.18856
G2 X48.48997 Y-92.49678 I0.00472 J20.39668
G2 X44.45516 Y-91.05506 I3.93536 J17.38026
G2 X38.53466 Y-92.42422 I-5.66407 J11.00721
G2 X38.34222 Y-92.41845 I0.21534 J10.39297
G2 X35.82202 Y-92.15997 I0.78965 J20.11433
G2 X35.81646 Y-92.15904 I1.70923 J10.25372
G1 X31.95566 Y-92.14591
G3 X31.44163 Y-92.19658 I0.31956 J-5.87461
G2 X31.29444 Y-92.21657 I-1.47288 J10.29033
G2 X28.43673 Y-92.43829 I-3.62457 J28.18953
G2 X27.72199 Y-92.433 I-0.28048 J10.39142
G2 X26.25466 Y-92.29079 I0.56187 J13.43829
G2 X21.21062 Y-90.87753 I0.83272 J12.67999
G2 X21.17086 Y-90.85668 I4.80747 J9.21674
G2 X20.44785 Y-91.21559 I-8.35738 J15.92802
G2 X20.2341 Y-91.31285 I-4.41201 J9.41246
G2 X11.94657 Y-93.00478 I-8.02973 J18.18856
G2 X7.42747 Y-92.49678 I0.00472 J20.39668
G2 X3.39266 Y-91.05506 I3.93536 J17.38026
G1 F300.0 X3.39116 Y-93.69904
G2 F800.0 X-2.57756 Y-94.8237 I-5.66256 J13.65119
G2 X-2.81443 Y-94.8166 I0.26506 J12.79245
G2 X-5.44358 Y-94.55838 I0.8838 J22.51248
G1 X-9.03665 Y-94.54616
G3 X-9.28082 Y-94.57236 I0.24937 J-3.47435
G2 X-9.46199 Y-94.59698 I-1.81293 J12.66611
G2 X-12.56101 Y-94.83742 I-3.93064 J30.56994
G2 X-13.44077 Y-94.83091 I-0.34524 J12.79054
G2 X-15.06819 Y-94.67851 I0.66213 J15.8362
G2 X-20.96181 Y-93.00546 I1.09307 J15.06771
G2 X-21.42951 Y-92.74896 I5.9174 J11.34467
G2 X-27.65949 Y-85.61509 I7.28304 J12.64748
G2 X-27.72785 Y-85.44403 I11.84699 J4.83384
G2 X-28.8044 Y-80.93036 I15.60827 J6.10791
G2 X-28.92033 Y-78.57817 I22.94527 J2.3098
G2 X-28.28517 Y-73.06053 I23.40639 J0.101
G2 X-28.282 Y-73.04723 I12.44788 J-2.961
G2 X-27.25478 Y-69.90614 I19.74949 J-4.72015
G2 X-28.90391 Y-63.04853 I12.71237 J6.68419
G2 X-26.25919 Y-54.71015 I14.91278 J-0.14133
G2 X-32.41106 Y-51.65545 I21.24574 J50.50874
G2 X-33.64893 Y42.51607 I27.3976 J47.45404
G2 X-34.25343 Y43.2772 I11.10162 J9.43773
G2 X-34.61656 Y43.79325 I10.27941 J7.61912
G2 X-37.04585 Y51.75295 I12.01068 J8.0162
G2 X-34.30969 Y60.44328 I14.57277 J0.18765
G2 X-36.99832 Y68.92762 I12.07839 J8.49574
G2 X-36.99214 Y69.33523 I12.7952 J0.00988
G2 X-34.29753 Y77.33764 I14.57624 J-0.45331
G2 X-31.38409 Y80.5021 I13.72976 J-9.71728
G2 X-30.67112 Y81.05899 I8.22784 J-9.79897
G1 X-29.15923 Y82.15611
G1 X-27.4974 Y83.49102
G2 X-27.05916 Y83.82774 I8.01302 J-9.9754
G2 X-23.29784 Y85.94336 I10.56745 J-14.38625
G2 X-17.39923 Y87.15333 I6.11058 J-14.80638
G2 X-12.04405 Y86.20904 I0.21331 J-14.44743
G2 X-11.76658 Y86.09966 I-4.55335 J-11.9576
G2 X-8.83773 Y84.46997 I-5.25853 J-12.89723
G2 X-4.84601 Y85.95751 I9.45851 J-19.28177
G2 X-4.82651 Y85.96263 I3.25695 J-12.37374
G2 X1.81918 Y86.7953 I6.47902 J-24.77345
G2 X10.03096 Y85.04982 I0.00136 J-20.1828
G2 X10.16124 Y84.99092 I-5.20512 J-11.68862
G2 X15.99795 Y81.04058 I-8.95334 J-19.51585
G2 X20.42584 Y84.37344 I15.35702 J-15.79487
G2 X20.71756 Y84.53512 I6.34776 J-11.10959
G2 X31.02437 Y87.09287 I10.16622 J-18.92098
G2 X40.67835 Y84.86123 I0.16138 J-21.29911
G2 X40.968 Y84.71241 I-5.70241 J-11.45424
G2 X42.67358 Y83.70234 I-9.81604 J-18.52026
G2 X48.09149 Y85.95751 I10.8847 J-18.51414
G2 X48.11099 Y85.96263 I3.25695 J-12.37374
G2 X54.75668 Y86.7953 I6.47902 J-24.77345
G2 X62.96846 Y85.04982 I0.00136 J-20.1828
G2 X63.09874 Y84.99092 I-5.20512 J-11.68862
G2 X69.29833 Y80.68755 I-8.95334 J-19.51585
G2 X73.9929 Y73.86282 I-14.971 J-15.32521
G2 X74.05779 Y73.71 I-11.74494 J-5.07677
G2 X75.70152 Y65.45337 I-19.70069 J-8.21394
G2 X75.6034 Y62.86423 I-32.09949 J-0.08002
G2 X76.93197 Y61.87888 I-8.54999 J-12.91641
G2 X82.29471 Y50.3729 I-9.38618 J-11.37748
G2 X82.29143 Y50.17364 I-12.79471 J0.11147
G2 X79.83312 Y42.38602 I-14.69514 J0.35698
G2 X105.78174 Y-4.20142 I-28.84658 J-46.58743
G2 X71.62795 Y-54.96012 I-54.7952 J0.0
G2 X74.47466 Y-61.57237 I-20.62454 J-12.79818
G2 X74.48497 Y-61.61176 I-12.37271 J-3.26087
G2 X75.37359 Y-68.65448 I-26.70176 J-6.94654
G2 X74.73039 Y-76.29299 I-42.22579 J-0.29069
G2 X74.71539 Y-76.37625 I-12.6 J2.22648
G2 X73.47593 Y-80.99196 I-29.10894 J5.34239
G2 X70.85172 Y-86.219 I-22.41081 J7.97898
G2 X62.52897 Y-93.3887 I-16.97574 J11.29033
G2 X62.26588 Y-93.50842 I-5.43064 J11.58557
G2 X52.99324 Y-95.40477 I-8.99901 J20.38413
G2 X47.95881 Y-94.83727 I0.02055 J22.79667
G2 X44.45366 Y-93.69904 I4.46652 J19.72074
G2 X38.48494 Y-94.8237 I-5.66256 J13.65119
G2 X38.24807 Y-94.8166 I0.26506 J12.79245
G2 X35.61892 Y-94.55838 I0.8838 J22.51248
G1 X32.02585 Y-94.54616
G3 X31.78168 Y-94.57236 I0.24937 J-3.47435
G2 X31.60051 Y-94.59698 I-1.81293 J12.66611
G2 X28.50149 Y-94.83742 I-3.93064 J30.56994
G2 X27.62173 Y-94.83091 I-0.34524 J12.79054
G2 X25.99431 Y-94.67851 I0.66213 J15.8362
G2 X21.18403 Y-93.51695 I1.09307 J15.06771
G2 X11.93074 Y-95.40477 I-8.97965 J20.39266
G2 X6.89631 Y-94.83727 I0.02055 J22.79667
G2 X3.39116 Y-93.69904 I4.46652 J19.72074
G1 F300.0 X3.36533 Y-96.27579
G2 F800.0 X-2.62728 Y-97.22319 I-5.63674 J16.22794
G2 X-2.90858 Y-97.21475 I0.31478 J15.19194
G2 X-5.63121 Y-96.95776 I0.97794 J24.91063
G1 X-8.92905 Y-96.94654
G3 X-8.94077 Y-96.94815 I0.14177 J-1.07397
G2 X-9.15592 Y-96.97738 I-2.15298 J15.0419
G2 X-12.49626 Y-97.23654 I-4.23671 J32.95034
G2 X-13.54102 Y-97.22881 I-0.40999 J15.18967
G2 X-15.32882 Y-97.06569 I0.76239 J18.2341
G2 X-22.07174 Y-95.13338 I1.35369 J17.45489
G2 X-22.62717 Y-94.82877 I7.02733 J13.47259
G2 X-29.88163 Y-86.52177 I8.4807 J14.7273
G2 X-29.96282 Y-86.31863 I14.06913 J5.74052
G2 X-31.19293 Y-81.16474 I17.84324 J6.98251
G2 X-31.32033 Y-78.58114 I25.33381 J2.54418
G2 X-30.62003 Y-72.50514 I25.8064 J0.10397
G2 X-30.61626 Y-72.48934 I14.78273 J-3.51639
G2 X-29.87065 Y-70.00634 I22.08375 J-5.27803
G2 X-31.30377 Y-63.02268 I15.32824 J6.7844
G2 X-29.65572 Y-55.81585 I17.31264 J-0.16719
G2 X-33.61106 Y-53.73391 I24.64226 J51.61443
G2 X-37.06182 Y43.1715 I28.5976 J49.5325
G2 X-39.44578 Y51.7328 I14.45594 J8.63794
G2 X-37.15624 Y60.45651 I16.97271 J0.2078
G2 X-39.39832 Y68.92576 I14.92494 J8.48251
G2 X-39.39098 Y69.40983 I15.1952 J0.01174
G2 X-36.25473 Y78.72666 I16.97508 J-0.52791
G2 X-32.92739 Y82.34009 I15.68696 J-11.1063
G2 X-32.08069 Y83.00144 I9.77114 J-11.63697
G1 X-30.6164 Y84.06402
G1 X-29.00041 Y85.36211
G2 X-28.47997 Y85.76199 I9.51603 J-11.84649
G2 X-24.21317 Y88.16196 I11.98825 J-16.3205
G2 X-17.43282 Y89.55309 I7.02591 J-17.02498
G2 X-11.18998 Y88.45193 I0.2469 J-16.8472
G2 X-10.86046 Y88.32203 I-5.40742 J-14.20049
G2 X-8.6232 Y87.2029 I-6.16464 J-15.1196
G2 X-5.45692 Y88.27846 I9.24398 J-22.0147
G2 X-5.43376 Y88.28453 I3.86786 J-14.69468
G2 X1.82695 Y89.1953 I7.08627 J-27.09535
G2 X11.00729 Y87.24225 I-0.00641 J-22.5828
G2 X11.16201 Y87.17232 I-6.18145 J-13.88106
G2 X15.97777 Y84.22889 I-9.95411 J-21.69724
G2 X19.23519 Y86.45727 I15.37721 J-18.98317
G2 X19.58163 Y86.64927 I7.53841 J-13.19342
G2 X31.02313 Y89.49292 I11.30216 J-21.03514
G2 X41.74796 Y87.00971 I0.16262 J-23.69917
G2 X42.09193 Y86.83297 I-6.77201 J-13.60272
G2 X42.74254 Y86.47477 I-10.93998 J-20.64082
G2 X47.48058 Y88.27846 I10.81574 J-21.28657
G2 X47.50374 Y88.28453 I3.86786 J-14.69468
G2 X54.76445 Y89.1953 I7.08627 J-27.09535
G2 X63.94479 Y87.24225 I-0.00641 J-22.5828
G2 X64.09951 Y87.17232 I-6.18145 J-13.88106
G2 X70.98379 Y82.39616 I-9.95411 J-21.69724
G2 X76.1959 Y74.81507 I-16.65645 J-17.03382
G2 X76.27296 Y74.63358 I-13.94794 J-6.02903
G2 X78.10152 Y65.45401 I-21.91587 J-9.13753
G2 X78.07579 Y64.03876 I-34.4995 J-0.08066
G2 X78.46091 Y63.72884 I-11.02238 J-14.09094
G2 X84.69462 Y50.35199 I-10.91513 J-13.22743
G2 X84.69072 Y50.11535 I-15.19462 J0.13238
G2 X83.03208 Y43.17341 I-17.09443 J0.41527
G2 X108.18174 Y-4.20142 I-32.04553 J-47.37483
G2 X74.9991 Y-56.1118 I-57.1952 J0.0
G2 X76.79541 Y-60.96073 I-23.99569 J-11.6465
G2 X76.80766 Y-61.00751 I-14.69346 J-3.87251
G2 X77.77362 Y-68.65031 I-29.02445 J-7.5508
G2 X77.09377 Y-76.71061 I-44.62581 J-0.29485
G2 X77.07596 Y-76.80949 I-14.96338 J2.6441
G2 X75.73644 Y-81.79823 I-31.46951 J5.77563
G2 X72.84902 Y-87.54971 I-24.67132 J8.78525
G2 X63.5476 Y-95.56181 I-18.97303 J12.62105
G2 X63.23516 Y-95.70398 I-6.44926 J13.75867
G2 X52.97743 Y-97.80476 I-9.96828 J22.57969
G2 X47.42764 Y-97.17775 I0.03636 J25.19665
G2 X44.42783 Y-96.27579 I4.99769 J22.06123
G2 X38.43522 Y-97.22319 I-5.63674 J16.22794
G2 X38.15392 Y-97.21475 I0.31478 J15.19194
G2 X35.43129 Y-96.95776 I0.97794 J24.91063
G1 X32.13345 Y-96.94654
G3 X32.12173 Y-96.94815 I0.14177 J-1.07397
G2 X31.90658 Y-96.97738 I-2.15298 J15.0419
G2 X28.56624 Y-97.23654 I-4.23671 J32.95034
G2 X27.52148 Y-97.22881 I-0.40999 J15.18967
G2 X25.73368 Y-97.06569 I0.76239 J18.2341
G2 X21.21376 Y-96.10341 I1.35369 J17.45489
G2 X11.91493 Y-97.80476 I-9.00939 J22.97912
G2 X6.36514 Y-97.17775 I0.03636 J25.19665
G2 X3.36533 Y-96.27579 I4.99769 J22.06123
G1 F300.0 Y-99.8
G1 F800.0 X-170.8
G1 Y-63.25136
G3 X-157.8717 Y-68.34582 I27.40316 J50.59005
G3 X-157.8479 Y-68.35198 I3.82286 J14.70646
G3 X-138.01242 Y-70.78924 I19.20738 J74.38449
G3 X-109.00632 Y-64.93605 I0.26512 J73.4841
G3 X-96.25462 Y-57.10174 I-17.35686 J42.54631
G3 X-86.60671 Y-36.77833 I-17.8684 J20.9342
G3 X-89.40618 Y-24.63539 I-24.48879 J0.74845
G3 X-89.8145 Y-23.90743 I-13.45186 J-7.06694
G3 X-100.24167 Y-15.02521 I-18.32548 J-10.95142
G3 X-96.42157 Y-10.53208 I-29.80452 J29.21054
G3 X-96.36623 Y-10.4563 I-12.24317 J8.99994
G3 X-90.58716 Y7.08073 I-24.54145 J17.80798
G3 X-96.20256 Y26.48364 I-34.00332 J0.67313
G3 X-96.54076 Y26.97498 I-12.68334 J-8.36821
G3 X-111.16636 Y39.04207 I-30.13298 J-21.62508
G3 X-126.12803 Y43.70345 I-24.22579 J-51.41577
G3 X-140.08866 Y44.83638 I-13.61129 J-81.14428
G3 X-164.03242 Y39.69225 I-0.69597 J-55.05672
G3 X-164.32194 Y39.55366 I6.41569 J-13.77436
G3 X-170.8 Y35.77767 I23.41016 J-47.60712
G1 Y99.8
G1 X226.8
G1 Y80.74404
G3 X220.07087 Y81.5537 I-6.44892 J-25.22962
G3 X220.06331 Y81.55361 I0.1635 J-15.19432
G3 X200.57717 Y72.5298 I0.29484 J-26.18789
G2 X188.24435 Y59.09848 I-3243.6072 J2965.94727
G3 X180.72148 Y75.25315 I-25.34714 J-1.97464
G3 X162.24157 Y82.80718 I-18.13721 J-17.98892
G3 X143.78737 Y75.30778 I-0.26666 J-25.79914
G3 X136.13242 Y56.97293 I17.76865 J-18.18398
G2 X135.04826 Y5.40051 I-1900.4126 J14.15295
G1 Y5.40023
G3 X133.94584 Y-47.12193 I1932.27598 J-66.83016
G3 X133.94555 Y-47.29496 I15.19478 J-0.11245
G3 X139.40134 Y-64.27408 I29.51471 J0.11768
G3 X161.44314 Y-75.79351 I21.80697 J14.87886
G3 X182.08516 Y-65.17065 I0.57177 J24.25587
G3 X186.60453 Y-52.31578 I-21.67015 J14.8404
G3 X186.66726 Y-52.37037 I232.12626 J266.6963
G3 X186.94771 Y-52.60845 I9.97337 J11.46412
G3 X198.1517 Y-60.90349 I81.69296 J98.62747
G3 X212.07867 Y-68.10933 I39.04072 J58.3938
G3 X225.21343 Y-70.70533 I14.1013 J36.82074
G3 X226.8 Y-70.69995 I0.71046 J24.40331
G1 Y-99.8
G1 X3.36533
G1 F300.0 Y-102.2
G1 F800.0 X-173.2
G1 Y-59.04718
G3 X-157.2679 Y-66.02301 I29.80316 J46.38587
G3 X-157.24786 Y-66.0282 I3.21906 J12.38365
G3 X-138.0179 Y-68.3892 I18.60734 J72.06071
G3 X-109.92891 Y-62.72038 I0.27059 J71.08406
G3 X-97.81992 Y-55.28242 I-16.43428 J40.33065
G3 X-89.0059 Y-36.71501 I-16.3031 J19.11488
G3 X-91.53083 Y-25.75158 I-22.0896 J0.68513
G3 X-91.87466 Y-25.13859 I-11.32721 J-5.95075
G3 X-103.63261 Y-16.4543 I-16.26533 J-9.72026
G3 X-105.00643 Y-16.14653 I-6.13102 J-24.14819
G3 X-98.35531 Y-9.11059 I-25.03975 J30.33186
G3 X-98.30871 Y-9.04678 I-10.30943 J7.57845
G3 X-92.98695 Y7.11518 I-22.59896 J16.39846
G3 X-98.20582 Y25.16193 I-31.60353 J0.63869
G3 X-98.4906 Y25.57566 I-10.68008 J-7.0465
G3 X-112.17953 Y36.86638 I-28.18314 J-20.22576
G3 X-126.52213 Y41.33602 I-23.21263 J-49.24008
G3 X-140.09881 Y42.43631 I-13.21719 J-78.77686
G3 X-163.0191 Y37.51667 I-0.68582 J-52.65666
G3 X-163.26289 Y37.39996 I5.40236 J-11.59878
G3 X-173.2 Y30.9729 I22.35111 J-45.45342
G1 Y102.2
G1 X229.2
G1 Y77.43663
G3 X220.0967 Y79.15383 I-8.84892 J-21.9222
G3 X220.09033 Y79.15376 I0.13768 J-12.79446
G3 X202.36993 Y70.93385 I0.26782 J-23.78804
G2 X185.86008 Y52.9784 I-3245.39996 J2967.54321
G3 X185.91937 Y56.83749 I-364.53677 J7.53046
G3 X179.02811 Y73.55235 I-23.02215 J0.28635
G3 X162.24527 Y80.407 I-16.44384 J-16.28811
G3 X145.47199 Y73.59833 I-0.27036 J-23.39895
G3 X138.53248 Y56.97152 I16.08404 J-16.47454
G2 X137.44683 Y5.31751 I-1902.81265 J14.15436
G1 X137.44682 Y5.31727
G3 X136.34578 Y-47.13969 I1929.87741 J-66.74721
G3 X136.34553 Y-47.28539 I12.79485 J-0.09469
G3 X141.37098 Y-62.90256 I27.11473 J0.10811
G3 X161.46084 Y-73.39322 I19.83733 J13.50733
G3 X180.10242 Y-63.81834 I0.55408 J21.85559
G3 X184.27962 Y-50.27638 I-19.68741 J13.48809
G1 X184.28725 Y-47.0662
G3 X188.2425 Y-50.55967 I234.44354 J261.44672
G3 X188.47866 Y-50.76015 I8.39813 J9.65342
G3 X199.47919 Y-58.90403 I80.16202 J96.77917
G3 X212.93688 Y-65.86802 I37.71323 J56.39434
G3 X225.27783 Y-68.30619 I13.24309 J34.57943
G3 X229.2 Y-68.07053 I0.64606 J22.00417
G1 Y-102.2
G1 X3.36533
G1 F300.0 Y-104.6
G1 F800.0 X-175.6
G1 Y-54.42449
G3 X-174.75615 Y-55.05922 I25.65798 J33.2331
G3 X-156.6641 Y-63.70021 I31.3593 J42.39791
G3 X-156.64782 Y-63.70442 I2.61526 J10.06085
G3 X-138.02336 Y-65.98917 I18.0073 J69.73693
G3 X-110.85131 Y-60.50464 I0.27606 J68.68402
G3 X-99.38507 Y-53.46296 I-15.51188 J38.11491
G3 X-91.40509 Y-36.65162 I-14.73795 J17.29542
G3 X-93.65547 Y-26.86776 I-19.69041 J0.62174
G3 X-93.93482 Y-26.36976 I-9.20256 J-4.83457
G3 X-104.21328 Y-18.78301 I-14.20517 J-8.4891
G3 X-110.05761 Y-18.09006 I-5.55035 J-21.81947
G3 X-110.41597 Y-18.10092 I0.13573 J-10.39431
G3 X-112.33301 Y-18.26521 I1.20554 J-25.33473
G3 X-109.77184 Y-16.68332 I-43.24545 J72.88137
G3 X-109.64965 Y-16.6036 I-5.61879 J8.74582
G3 X-100.28906 Y-7.6891 I-20.39654 J30.78893
G3 X-100.2512 Y-7.63725 I-8.37569 J6.15695
G3 X-95.38675 Y7.14955 I-20.65648 J14.98894
G3 X-100.20909 Y23.84022 I-29.20373 J0.60432
G3 X-100.44045 Y24.17635 I-8.67681 J-5.72478
G3 X-113.19257 Y34.69063 I-26.23329 J-18.82644
G3 X-126.91621 Y38.9686 I-22.19959 J-47.06433
G3 X-140.10912 Y40.03624 I-12.82311 J-76.40943
G3 X-162.00578 Y35.34108 I-0.6755 J-50.25658
G3 X-162.20384 Y35.24627 I4.38904 J-9.42319
G3 X-175.6 Y25.48675 I21.29206 J-43.29973
G1 Y104.6
G1 X231.6
G1 Y73.53198
G3 X220.12252 Y76.75397 I-11.24892 J-18.01756
G3 X220.11734 Y76.75392 I0.11186 J-10.3946
G3 X204.16381 Y69.33914 I0.24081 J-21.38819
G2 X183.27269 Y46.65177 I-3247.19384 J2969.13793
G3 X183.51952 Y56.86457 I-361.94938 J13.85709
G3 X177.33473 Y71.85153 I-20.62231 J0.25927
G3 X162.24899 Y78.00677 I-14.75046 J-14.5873
G3 X147.1566 Y71.88888 I-0.27409 J-20.99873
G3 X140.93254 Y56.971 I14.39942 J-14.76509
G2 X139.84539 Y5.23451 I-1905.21272 J14.15488
G1 Y5.23432
G3 X138.74571 Y-47.15745 I1927.47884 J-66.66425
G3 X138.74551 Y-47.27582 I10.39492 J-0.07693
G3 X143.34073 Y-61.53114 I24.71475 J0.09854
G3 X161.47874 Y-70.99286 I17.86758 J12.13592
G3 X178.11966 Y-62.46605 I0.53617 J19.45522
G3 X181.87962 Y-50.27639 I-17.70465 J12.1358
G1 X181.90012 Y-41.64594
G3 X189.81774 Y-48.74898 I236.83067 J256.02647
G3 X190.0096 Y-48.91185 I6.82289 J7.84273
G3 X200.80673 Y-56.9046 I78.63107 J94.93087
G3 X213.79508 Y-63.62671 I36.38569 J54.39491
G3 X225.34235 Y-65.90705 I12.38488 J32.33812
G3 X231.6 Y-65.07639 I0.58154 J19.60503
G1 Y-104.6
G1 X3.36533
G1 F300.0 Y-107.0
G1 F800.0 X-178.0
G1 Y-49.11541
G3 X-173.33334 Y-53.12644 I28.05798 J27.92402
G3 X-156.0603 Y-61.3774 I29.9365 J40.46513
G3 X-156.04778 Y-61.38064 I2.01146 J7.73804
G3 X-138.02882 Y-63.58912 I17.40725 J67.41315
G3 X-111.77351 Y-58.28881 I0.28151 J66.28398
G3 X-100.95002 Y-51.64333 I-14.58968 J35.89907
G3 X-93.80428 Y-36.58813 I-13.173 J15.47579
G3 X-95.78012 Y-27.98395 I-17.29121 J0.55825
G3 X-95.99497 Y-27.60092 I-7.07791 J-3.71838
G3 X-104.79375 Y-21.11179 I-12.14502 J-7.25794
G3 X-110.02627 Y-20.48986 I-4.96988 J-19.49069
G3 X-110.30189 Y-20.49821 I0.1044 J-7.99452
G3 X-118.53946 Y-22.45264 I1.09147 J-22.93745
G3 X-124.37974 Y-25.42893 I18.79978 J-44.10857
G2 X-130.59572 Y-27.84369 I-10.81553 J18.633
G2 X-137.99042 Y-28.61437 I-7.15751 J32.81504
G3 X-138.18169 Y-28.61531 I-0.05646 J-7.995
G2 X-139.77242 Y-28.59371 I-0.44068 J26.1311
G1 X-129.73872 Y-24.15745
G3 X-120.58031 Y-19.92223 I-115.18981 J261.11143
G3 X-111.06908 Y-14.66412 I-34.99815 J74.53839
G3 X-110.9751 Y-14.60281 I-4.32154 J6.72662
G3 X-102.2228 Y-6.2676 I-19.07109 J28.78814
G3 X-102.19368 Y-6.22773 I-6.44194 J4.73546
G3 X-97.78656 Y7.18383 I-18.714 J13.57942
G3 X-102.21235 Y22.5185 I-26.80392 J0.57003
G3 X-102.3903 Y22.77703 I-6.67355 J-4.40307
G3 X-114.20545 Y32.51481 I-24.28344 J-17.42712
G3 X-127.31027 Y36.60117 I-21.1867 J-44.88851
G3 X-140.11962 Y37.63616 I-12.42906 J-74.042
G3 X-160.99245 Y33.16549 I-0.66501 J-47.8565
G3 X-161.14479 Y33.09257 I3.37572 J-7.2476
G3 X-177.72414 Y19.28187 I20.23301 J-41.14603
G3 X-178.0 Y18.91479 I45.39705 J-34.40198
G1 Y107.0
G1 X234.0
G1 Y68.5356
G3 X233.43156 Y69.07451 I-12.64196 J-12.76541
G3 X220.14834 Y74.35411 I-13.08049 J-13.56008
G3 X220.14436 Y74.35407 I0.08603 J-7.99474
G3 X205.95902 Y67.74587 I0.21379 J-18.98835
G2 X180.56477 Y40.2092 I-3248.98904 J2970.7312
G3 X181.11967 Y56.89182 I-359.24146 J20.29966
G3 X175.64135 Y70.15069 I-18.22246 J0.23202
G3 X162.25274 Y75.60649 I-13.05708 J-12.88646
G3 X148.8412 Y70.17942 I-0.27783 J-18.59844
G3 X143.33261 Y56.97153 I12.71482 J-13.05562
G2 X142.24396 Y5.1515 I-1907.61279 J14.15435
G1 X142.24395 Y5.15136
G3 X141.14564 Y-47.17521 I1925.08028 J-66.58129
G3 X141.14549 Y-47.26625 I7.99498 J-0.05917
G3 X145.31062 Y-60.15987 I22.31477 J0.08897
G3 X161.49695 Y-68.59238 I15.89769 J10.76464
G3 X176.13688 Y-61.11379 I0.51796 J17.05474
G3 X179.47961 Y-50.27672 I-15.72187 J10.78354
G1 X179.51326 Y-36.10894
G3 X191.39298 Y-46.93828 I239.21753 J250.48947
G3 X191.54054 Y-47.06355 I5.24765 J6.03203
G3 X202.13433 Y-54.90522 I77.10013 J93.08257
G3 X214.65329 Y-61.3854 I35.05809 J52.39553
G3 X225.40706 Y-63.50791 I11.52667 J30.0968
G3 X234.0 Y-61.50354 I0.51683 J17.20589
G1 Y-107.0
G1 X3.36533
G1 F300.0 Y-109.4
G1 F800.0 X-180.4
G1 Y-42.52359
G3 X-171.91057 Y-51.19363 I30.45798 J21.3322
G3 X-155.4565 Y-59.05459 I28.51372 J38.53232
G3 X-155.44774 Y-59.05686 I1.40766 J5.41523
G3 X-138.03425 Y-61.18908 I16.80721 J65.08938
G3 X-112.69548 Y-56.07287 I0.28695 J63.88393
G3 X-102.51471 Y-49.82347 I-13.66771 J33.68313
G3 X-96.20348 Y-36.52449 I-11.60831 J13.65593
G3 X-97.90477 Y-29.10013 I-14.89201 J0.49461
G3 X-98.05513 Y-28.83208 I-4.95326 J-2.6022
G3 X-105.37389 Y-23.44066 I-10.08486 J-6.02678
G3 X-109.99493 Y-22.88965 I-4.38974 J-17.16182
G3 X-110.18782 Y-22.8955 I0.07306 J-5.59472
G3 X-117.58113 Y-24.65309 I0.97739 J-20.54016
G3 X-123.16004 Y-27.49595 I17.84146 J-41.90812
G2 X-130.08381 Y-30.18846 I-12.03523 J20.70003
G2 X-138.00736 Y-31.01431 I-7.66943 J35.15981
G3 X-138.14122 Y-31.01497 I-0.03951 J-5.59506
G2 X-147.77949 Y-29.50981 I-0.48115 J28.53076
G1 X-130.70832 Y-21.96202
G3 X-121.61315 Y-17.7558 I-114.22022 J258.91601
G3 X-112.36632 Y-12.64493 I-33.96531 J72.37196
G3 X-112.30055 Y-12.60202 I-3.0243 J4.70743
G3 X-104.15654 Y-4.84611 I-17.74564 J26.78735
G3 X-104.13616 Y-4.81821 I-4.5082 J3.31397
G3 X-100.18638 Y7.21799 I-16.77151 J12.16989
G3 X-104.21562 Y21.19679 I-24.4041 J0.53587
G3 X-104.34015 Y21.37771 I-4.67028 J-3.08136
G3 X-115.21815 Y30.33889 I-22.33359 J-16.0278
G3 X-127.7043 Y34.23373 I-20.174 J-42.71259
G3 X-140.13032 Y35.23607 I-12.03503 J-71.67457
G3 X-159.97913 Y30.98991 I-0.6543 J-45.45641
G3 X-160.08574 Y30.93887 I2.36239 J-5.07202
G3 X-175.80424 Y17.84169 I19.17396 J-38.99233
G3 X-180.4 Y10.6818 I43.47715 J-32.9618
G1 Y109.4
G1 X236.4
G1 Y59.77491
G3 X231.79166 Y67.32173 I-15.04196 J-4.00472
G3 X220.17417 Y71.95425 I-11.44058 J-11.8073
G3 X220.17138 Y71.95422 I0.06021 J-5.59488
G3 X207.7558 Y66.15432 I0.18677 J-16.5885
G2 X177.75683 Y33.67374 I-3250.78582 J2972.32274
G2 X178.00524 Y37.6363 I812.32573 J-48.93626
G3 X178.00561 Y37.64203 I-5.58337 J0.3637
G3 X178.71983 Y56.91926 I-356.6823 J22.86683
G3 X173.94795 Y68.44983 I-15.82261 J0.20458
G3 X162.25652 Y73.20611 I-11.36368 J-11.1856
G3 X150.5258 Y68.46993 I-0.28162 J-16.19807
G3 X145.73269 Y56.97332 I11.03022 J-11.34613
G2 X144.64252 Y5.0685 I-1910.01286 J14.15256
G1 Y5.0684
G3 X143.54558 Y-47.19297 I1922.68171 J-66.49834
G3 X143.54547 Y-47.25668 I5.59505 J-0.04141
G3 X147.2807 Y-58.78879 I19.91479 J0.0794
G3 X161.5156 Y-66.19174 I13.92761 J9.39357
G3 X174.15407 Y-59.76156 I0.49932 J14.6541
G3 X177.0796 Y-50.27745 I-13.73906 J9.43131
G1 X177.12655 Y-30.51083
G3 X180.09247 Y-33.33898 I1289.92744 J1349.79743
G3 X192.96822 Y-45.12759 I238.63831 J247.7195
G3 X193.07149 Y-45.21525 I3.67241 J4.22134
G3 X203.462 Y-52.90587 I75.56919 J91.23427
G3 X215.51151 Y-59.14409 I33.73043 J50.39618
G3 X225.472 Y-61.10878 I10.66846 J27.85549
G3 X236.4 Y-56.77558 I0.45189 J14.80676
G1 Y-109.4
G1 X3.36533
G1 F300.0 Y-111.8
G1 F800.0 X-182.8
G1 Y-32.49707
G3 X-181.54349 Y-35.73994 I38.10668 J12.90025
G3 X-181.51664 Y-35.79956 I2.93108 J1.28403
G3 X-170.49067 Y-49.26466 I31.57463 J14.60817
G3 X-154.85391 Y-56.73643 I27.09383 J36.60335
G3 X-154.8489 Y-56.73773 I0.80507 J3.09707
G3 X-138.03967 Y-58.79382 I16.20837 J62.77024
G3 X-113.61533 Y-53.86123 I0.29237 J61.48868
G3 X-104.07593 Y-48.00694 I-12.74786 J31.4715
G3 X-98.5979 Y-36.46075 I-10.04709 J11.8394
G3 X-100.02517 Y-30.21408 I-12.49759 J0.43087
G3 X-100.11116 Y-30.06078 I-2.83286 J-1.48825
G3 X-105.95235 Y-25.76502 I-8.02882 J-4.79808
G3 X-109.96366 Y-25.28465 I-3.81128 J-14.83746
G3 X-110.07397 Y-25.28799 I0.04178 J-3.19973
G3 X-116.62413 Y-26.8489 I0.86355 J-18.14767
G3 X-121.94172 Y-29.55822 I16.88445 J-39.71231
G2 X-129.57293 Y-32.52855 I-13.25354 J22.76229
G2 X-138.02428 Y-33.40945 I-8.18031 J37.49989
G3 X-138.10083 Y-33.40983 I-0.0226 J-3.19992
G2 X-149.12782 Y-31.57547 I-0.52154 J30.92562
G2 X-153.38895 Y-29.37109 I7.19536 J19.12944
G1 X-131.67597 Y-19.77099
G3 X-122.64378 Y-15.59362 I-113.25257 J256.72497
G3 X-113.66097 Y-10.62977 I-32.93467 J70.20978
G3 X-113.62335 Y-10.60522 I-1.72966 J2.69227
G3 X-106.08642 Y-3.42746 I-16.42283 J24.79055
G3 X-106.07476 Y-3.41151 I-2.57832 J1.89532
G3 X-102.58142 Y7.25192 I-14.83291 J10.76319
G3 X-106.21488 Y19.87772 I-22.00906 J0.50194
G3 X-106.2861 Y19.98119 I-2.67102 J-1.76229
G3 X-116.2286 Y28.16721 I-20.38764 J-14.63129
G3 X-128.09751 Y31.87102 I-19.16355 J-40.54091
G3 X-140.14124 Y32.84077 I-11.64182 J-69.31186
G3 X-158.96783 Y28.81867 I-0.64339 J-43.06112
G3 X-159.0288 Y28.78948 I1.3511 J-2.90078
G3 X-173.88813 Y16.40445 I18.11702 J-36.84294
G3 X-182.39094 Y-0.46649 I41.56105 J-31.52456
G3 X-182.39535 Y-0.4817 I3.07115 J-0.89892
G3 X-182.8 Y-1.95504 I62.42129 J-17.9359
G1 Y111.8
G1 X238.8
G1 Y-42.29324
G3 X235.87803 Y-36.09679 I-12.66407 J-2.18465
G3 X235.76106 Y-35.96807 I-2.42584 J-2.08694
G3 X228.34766 Y-31.51434 I-11.91192 J-11.43102
G2 X220.73855 Y-27.63576 I8.41613 J25.9142
G2 X203.04554 Y-12.71006 I138.49246 J182.11937
G2 X188.39409 Y1.0638 I4037.42431 J4309.34196
G3 X215.08153 Y28.32493 I-446.93137 J464.2194
G3 X228.6552 Y44.24416 I-175.97947 J163.79691
G3 X228.66385 Y44.2553 I-2.52304 J1.96832
G3 X232.71912 Y50.27095 I-44.21159 J34.17859
G3 X234.50042 Y55.2361 I-10.60002 J6.60499
G3 X234.52792 Y55.61968 I-3.1723 J0.42015
G3 X230.15508 Y65.57225 I-13.16987 J0.15051
G3 X220.19994 Y69.55919 I-9.804 J-10.05782
G3 X220.19835 Y69.55917 I0.03443 J-3.19981
G3 X209.55091 Y64.56807 I0.1598 J-14.19345
G2 X179.37468 Y31.89672 I-3252.58094 J2973.909
G3 X179.36686 Y31.8883 I2.33974 J-2.18303
G2 X174.99689 Y27.25056 I-274.7508 J254.50958
G2 X175.61511 Y37.79199 I815.08567 J-42.51308
G3 X175.61532 Y37.79527 I-3.19323 J0.20801
G3 X176.32479 Y56.94691 I-354.292 J22.71359
G3 X172.25793 Y66.75234 I-13.42757 J0.17693
G3 X162.26035 Y70.81041 I-9.67366 J-9.48811
G3 X152.20703 Y66.76383 I-0.28545 J-13.80236
G3 X148.12798 Y56.97668 I9.34899 J-9.64003
G2 X147.03629 Y4.98567 I-1912.40816 J14.1492
G1 Y4.98561
G3 X145.94071 Y-47.21069 I1920.28794 J-66.41554
G3 X145.94065 Y-47.24713 I3.19991 J-0.02368
G3 X149.24713 Y-57.42074 I17.51961 J0.06985
G3 X161.53487 Y-63.79565 I11.96118 J8.02552
G3 X172.17518 Y-58.4121 I0.48004 J12.25801
G3 X174.68439 Y-50.27866 I-11.76017 J8.08185
G1 X174.74465 Y-24.90993
G3 X181.74888 Y-31.60885 I1292.30934 J1344.19653
G3 X194.54031 Y-43.32051 I236.98191 J245.98937
G3 X194.59937 Y-43.37065 I2.10032 J2.41426
G3 X204.78708 Y-50.91058 I74.0413 J89.38967
G3 X216.36801 Y-56.90726 I32.40534 J48.40088
G3 X225.53714 Y-58.71445 I9.81196 J25.61867
G3 X236.32256 Y-53.09066 I0.38675 J12.41243
G3 X238.8 Y-46.97464 I-11.99665 J8.41932
G1 Y-111.8
G1 X3.36533
G0 Z3.0
G0 X53.10775 Y-74.02957
G0 Z1.0
G1 F300.0 Z-2.5
G2 F800.0 X53.03561 Y-73.84826 I2.22598 J0.99068
G2 X52.65862 Y-71.95064 I8.32012 J2.6392
G3 X52.6547 Y-71.90727 I-4.38409 J-0.37382
G2 X52.54058 Y-69.38006 I25.28025 J2.40781
G3 X52.53968 Y-69.26815 I-4.39995 J0.02069
G2 X53.26257 Y-66.5363 I5.12199 J0.10621
G3 X53.29344 Y-66.48375 I-3.77819 J2.25505
G2 X53.44274 Y-66.277 I1.09309 J-0.63206
G2 X53.63132 Y-66.98241 I-2.93723 J-1.16317
G3 X53.64117 Y-67.04634 I4.35356 J0.63757
G2 X53.80329 Y-69.18121 I-12.54776 J-2.02644
G3 X53.80316 Y-69.23535 I4.39984 J-0.03754
G2 X53.69855 Y-71.48661 I-22.45376 J-0.08472
G3 X53.69683 Y-71.50473 I4.37947 J-0.42455
G2 X53.35279 Y-73.38276 I-10.73305 J0.99568
G2 X53.10775 Y-74.02957 I-3.75169 J1.05145
G1 F300.0 X52.01143 Y-74.5175
G2 F800.0 X51.89712 Y-74.22786 I3.3223 J1.47861
G2 X51.46296 Y-72.05259 I9.45862 J3.0188
G3 X51.46011 Y-72.02105 I-3.18843 J-0.27187
G2 X51.34059 Y-69.37442 I26.47484 J2.52159
G3 X51.33994 Y-69.29303 I-3.19996 J0.01505
G2 X52.23215 Y-65.92129 I6.32173 J0.13109
G3 X52.25461 Y-65.88307 I-2.74778 J1.64004
G2 X52.94849 Y-65.11661 I2.13193 J-1.23274
G2 X53.5025 Y-64.96532 I0.53963 J-0.88604
G3 X53.61503 Y-64.9649 I0.04437 J3.19969
G2 X54.07866 Y-65.05706 I0.02333 J-1.09489
G2 X54.27853 Y-65.25693 I-0.32624 J-0.52611
G2 X54.81866 Y-66.80853 I-3.77302 J-2.18325
G3 X54.82582 Y-66.85503 I3.16623 J0.46368
G2 X55.00324 Y-69.19145 I-13.73241 J-2.21776
G3 X55.00315 Y-69.23082 I3.19988 J-0.0273
G2 X54.89295 Y-71.60239 I-23.65375 J-0.08925
G3 X54.8917 Y-71.61557 I3.18507 J-0.30876
G2 X54.50884 Y-73.70456 I-11.92792 J1.10652
G2 X54.09813 Y-74.7289 I-4.90774 J1.37325
G3 X54.08223 Y-74.7591 I2.82374 J-1.50548
G2 X53.66033 Y-75.24263 I-1.20623 J0.62667
G2 X53.14935 Y-75.36329 I-0.48775 J0.9232
G3 X53.01146 Y-75.36319 I-0.07122 J-3.19921
G2 X52.54259 Y-75.26232 I-0.02166 J1.03946
G2 X52.22956 Y-74.93396 I0.52595 J0.81478
G3 X52.20999 Y-74.90066 I-2.76838 J-1.60501
G2 X52.01143 Y-74.5175 I3.12374 J1.86177
G1 F300.0 X53.10775 Y-74.02957
G1 Z-5.0
G2 F800.0 X53.03561 Y-73.84826 I2.22598 J0.99068
G2 X52.65862 Y-71.95064 I8.32012 J2.6392
G3 X52.6547 Y-71.90727 I-4.38409 J-0.37382
G2 X52.54058 Y-69.38006 I25.28025 J2.40781
G3 X52.53968 Y-69.26815 I-4.39995 J0.02069
G2 X53.26257 Y-66.5363 I5.12199 J0.10621
G3 X53.29344 Y-66.48375 I-3.77819 J2.25505
G2 X53.44274 Y-66.277 I1.09309 J-0.63206
G2 X53.63132 Y-66.98241 I-2.93723 J-1.16317
G3 X53.64117 Y-67.04634 I4.35356 J0.63757
G2 X53.80329 Y-69.18121 I-12.54776 J-2.02644
G3 X53.80316 Y-69.23535 I4.39984 J-0.03754
G2 X53.69855 Y-71.48661 I-22.45376 J-0.08472
G3 X53.69683 Y-71.50473 I4.37947 J-0.42455
G2 X53.35279 Y-73.38276 I-10.73305 J0.99568
G2 X53.10775 Y-74.02957 I-3.75169 J1.05145
G1 F300.0 X52.01143 Y-74.5175
G2 F800.0 X51.89712 Y-74.22786 I3.3223 J1.47861
G2 X51.46296 Y-72.05259 I9.45862 J3.0188
G3 X51.46011 Y-72.02105 I-3.18843 J-0.27187
G2 X51.34059 Y-69.37442 I26.47484 J2.52159
G3 X51.33994 Y-69.29303 I-3.19996 J0.01505
G2 X52.23215 Y-65.92129 I6.32173 J0.13109
G3 X52.25461 Y-65.88307 I-2.74778 J1.64004
G2 X52.94849 Y-65.11661 I2.13193 J-1.23274
G2 X53.5025 Y-64.96532 I0.53963 J-0.88604
G3 X53.61503 Y-64.9649 I0.04437 J3.19969
G2 X54.07866 Y-65.05706 I0.02333 J-1.09489
G2 X54.27853 Y-65.25693 I-0.32624 J-0.52611
G2 X54.81866 Y-66.80853 I-3.77302 J-2.18325
G3 X54.82582 Y-66.85503 I3.16623 J0.46368
G2 X55.00324 Y-69.19145 I-13.73241 J-2.21776
G3 X55.00315 Y-69.23082 I3.19988 J-0.0273
G2 X54.89295 Y-71.60239 I-23.65375 J-0.08925
G3 X54.8917 Y-71.61557 I3.18507 J-0.30876
G2 X54.50884 Y-73.70456 I-11.92792 J1.10652
G2 X54.09813 Y-74.7289 I-4.90774 J1.37325
G3 X54.08223 Y-74.7591 I2.82374 J-1.50548
G2 X53.66033 Y-75.24263 I-1.20623 J0.62667
G2 X53.14935 Y-75.36329 I-0.48775 J0.9232
G3 X53.01146 Y-75.36319 I-0.07122 J-3.19921
G2 X52.54259 Y-75.26232 I-0.02166 J1.03946
G2 X52.22956 Y-74.93396 I0.52595 J0.81478
G3 X52.20999 Y-74.90066 I-2.76838 J-1.60501
G2 X52.01143 Y-74.5175 I3.12374 J1.86177
G0 Z3.0
G0 X24.80782 Y-49.58788
G0 Z-1.5
G1 F300.0 Z-5.0
G3 F800.0 X23.9481 Y-50.04175 I8.4655 J-17.0766
G3 X23.13938 Y-50.51535 I11.93029 J-21.29941
G3 X21.39734 Y-49.45323 I-10.51867 J-15.2925
G3 X22.98654 Y-48.4875 I-26.4108 J45.25182
G3 X24.78894 Y-49.57699 I28.0 J44.28608
G3 X24.80782 Y-49.58788 I26.1976 J45.37557
G1 F300.0 X26.00695 Y-47.50892
G3 F800.0 X31.23553 Y-50.12981 I24.97959 J43.30751
G3 X25.12164 Y-52.13527 I2.03779 J-16.53467
G3 X23.04338 Y-53.45718 I10.75674 J-19.20589
G3 X20.18889 Y-51.52872 I-10.42267 J-12.35067
G3 X20.0079 Y-51.43572 I-3.74419 J-7.06429
G3 X15.24019 Y-49.91038 I-7.3534 J-14.77053
G3 X22.98654 Y-45.62025 I-20.25365 J45.70897
G3 X25.98894 Y-47.49853 I28.0 J41.41884
G3 X26.00695 Y-47.50892 I24.9976 J43.29711
G0 Z3.0
G0 X106.56939 Y-69.81941
G0 Z-1.5
G1 F300.0 Z-5.0
G3 F800.0 X108.90223 Y-67.76986 I-55.58285 J65.618
G3 X110.23328 Y-71.0 I54.55803 J20.59258
G1 X106.54584
G3 X106.56939 Y-69.81941 I-73.39803 J2.05484
G1 F300.0 X104.16956 Y-69.79084
G3 F800.0 X104.17415 Y-68.69355 I-71.02175 J0.84568
G3 X109.96408 Y-63.44504 I-53.18761 J64.49214
G3 X114.07554 Y-73.4 I53.49618 J16.26776
G1 X104.03475
G3 X104.16956 Y-69.79084 I-70.88694 J4.45484
G1 F300.0 X101.76973 Y-69.76226
G3 F800.0 X101.77374 Y-68.60327 I-68.62192 J0.8171
G3 X101.76452 Y-67.55958 I-53.99053 J0.04497
G3 X111.19541 Y-58.67666 I-50.77798 J63.35817
G3 X118.24312 Y-75.8 I52.26484 J11.49938
G1 X101.43139
G3 X101.76973 Y-69.76226 I-68.28358 J6.85484
G1 F300.0 X99.3699 Y-69.73369
G3 F800.0 X99.37374 Y-68.60823 I-66.22209 J0.78852
G3 X99.32959 Y-66.42387 I-51.59052 J0.04993
G3 X112.70043 Y-53.19203 I-48.34305 J62.22245
G3 X121.6767 Y-76.61997 I50.75983 J6.01475
G3 X122.81274 Y-78.2 I39.53162 J27.22475
G1 X98.72475
G3 X99.3699 Y-69.73369 I-65.57694 J9.25484
G1 F300.0 X96.97007 Y-69.70511
G3 F800.0 X96.97373 Y-68.61315 I-63.82226 J0.75995
G3 X96.86484 Y-65.28667 I-49.19052 J0.05485
G3 X114.75171 Y-46.27552 I-45.8783 J61.08525
G3 X114.74637 Y-46.97984 I1952.57253 J-15.15441
G3 X114.7457 Y-47.37151 I34.39426 J-0.25454
G3 X123.646 Y-75.2481 I48.71456 J0.19423
G3 X127.95834 Y-80.6 I37.56232 J25.85287
G1 X95.89989
G3 X95.96055 Y-80.27539 I-50.29344 J9.56614
G3 X96.00086 Y-80.05158 I-33.83016 J6.20888
G3 X96.97007 Y-69.70511 I-62.85305 J11.10642
G1 F300.0 X94.57024 Y-69.67654
G3 F800.0 X94.57372 Y-68.61804 I-61.42243 J0.73137
G3 X94.36542 Y-64.14774 I-46.79051 J0.05973
G3 X117.24412 Y-37.14414 I-43.37888 J59.94633
G3 X117.1463 Y-46.9976 I1950.08011 J-24.28579
G3 X117.14568 Y-47.36194 I31.99432 J-0.23677
G3 X125.61531 Y-73.87624 I46.31458 J0.18466
G3 X134.0624 Y-83.0 I35.593 J24.48102
G1 X92.91159
G3 X93.59997 Y-79.84216 I-47.30514 J11.96614
G3 X93.63747 Y-79.63396 I-31.46959 J5.77564
G3 X94.57024 Y-69.67654 I-60.48967 J10.6888
G1 F300.0 X92.17041 Y-69.64796
G3 F800.0 X92.17371 Y-68.62287 I-59.0226 J0.7028
G3 X91.82525 Y-63.00679 I-44.3905 J0.06457
G3 X119.8571 Y-23.76461 I-40.83871 J58.80537
G3 X119.54624 Y-47.01536 I1947.46713 J-37.66532
G3 X119.54566 Y-47.35237 I29.59439 J-0.21901
G3 X127.58465 Y-72.50441 I43.9146 J0.17509
G3 X142.0187 Y-85.4 I33.62366 J23.10918
G1 X89.72132
G3 X91.2394 Y-79.40892 I-44.11487 J14.36614
G3 X91.27409 Y-79.21634 I-29.10901 J5.3424
G3 X92.17041 Y-69.64796 I-58.12628 J10.27118
G0 Z3.0
G0 X188.4016 Y-83.0
G0 Z-1.5
G1 F300.0 Z-5.0
G3 F800.0 X193.55939 Y-77.8261 I-26.38669 J31.46236
G3 X204.06067 Y-83.0 I43.63303 J75.31641
G1 X188.4016
G1 F300.0 Y-85.4
G1 F800.0 X180.67336
G3 X192.98055 Y-74.68773 I-18.65844 J33.86236
G3 X206.92947 Y-81.55722 I44.21188 J72.17803
G3 X212.4 Y-83.32348 I19.2505 J50.26863
G1 Y-85.4
G1 X188.4016
G1 F300.0 Y-87.8
G1 F800.0 X162.14778
G3 X191.99878 Y-71.93236 I-0.13286 J36.26236
G3 X192.33061 Y-71.43902 I-31.58377 J21.60211
G3 X207.78767 Y-79.31591 I44.86182 J68.92932
G3 X214.8 Y-81.44232 I18.3923 J48.02731
G1 Y-87.8
G1 X188.4016
G0 Z3.0
G0 X219.6 Y-1.83559
G0 Z-1.5
G1 F300.0 Z-5.0
G2 F800.0 X216.159 Y1.30753 I139.63101 J156.3192
G1 X216.01847 Y1.4392
G3 X219.6 Y5.13197 I-474.55574 J463.844
G1 Y-1.83559
