( Made using CamBam - http://www.cambam.co.uk )
( Beate_und_Kathi 3/29/2020 1:30:53 PM )
( T2 : 2.0 )
( T6 : 6.0 )
G21 G90 G64 G40
G0 Z3.0
( T6 : 6.0 )
T6 M6
( Tasche6mm )
G17
M3 S1000
G0 X73.4465 Y71.0
G0 Z1.0
G1 F300.0 Z-2.5
G1 F800.0 X78.10717
G3 X77.54364 Y69.83423 I47.76293 J-23.80765
G3 X74.44175 Y70.73278 I-30.52633 J-99.57693
G3 X73.4465 Y71.0 I-20.91116 J-75.89537
G1 F300.0 Y73.4
G1 F800.0 X82.15676
G3 X79.05909 Y67.35236 I43.71335 J-26.20765
G3 X78.46263 Y67.02738 I24.49889 J-45.67452
G3 X73.80702 Y68.41823 I-31.44532 J-96.77008
G3 X54.59623 Y71.15343 I-20.27643 J-73.58082
G3 X41.6 Y70.37964 I-1.29376 J-87.79666
G1 Y73.4
G1 X73.4465
G1 F300.0 Y75.8
G1 F800.0 X86.62198
G3 X80.93767 Y65.62844 I39.24812 J-28.60765
G3 X78.72003 Y64.41435 I22.6203 J-43.95059
G3 X73.17227 Y66.10369 I-31.70271 J-94.15705
G3 X54.5618 Y68.75368 I-19.64168 J-71.26628
G3 X39.2 Y67.5906 I-1.25933 J-85.39691
G1 Y75.8
G1 X73.4465
G1 F300.0 Y78.2
G1 F800.0 X91.66522
G3 X82.82911 Y63.89327 I34.20488 J-31.00765
G3 X78.99394 Y61.78316 I20.72887 J-42.21543
G3 X72.53751 Y63.78915 I-31.97663 J-91.52586
G3 X54.52737 Y66.35393 I-19.00692 J-68.95174
G3 X36.8 Y64.706 I-1.22489 J-82.99715
G1 Y78.2
G1 X73.4465
G1 F300.0 Y80.6
G1 F800.0 X97.58647
G3 X96.81708 Y79.92651 I29.60716 J-34.59951
G3 X84.73582 Y62.14475 I29.05302 J-32.73417
G3 X79.28676 Y59.13118 I18.82216 J-40.46691
G3 X71.90273 Y61.47462 I-32.26945 J-88.87388
G3 X54.49294 Y63.95417 I-18.37214 J-66.63721
G3 X34.4 Y61.71527 I-1.19046 J-80.5974
G1 Y80.6
G1 X73.4465
G1 F300.0 Y83.0
G1 F800.0 X105.01428
G3 X98.41412 Y78.13501 I22.17935 J-36.99951
G3 X86.66091 Y60.38015 I27.45599 J-30.94266
G3 X79.60142 Y56.45518 I16.89707 J-38.70231
G3 X71.26795 Y59.16009 I-32.58411 J-86.19788
G3 X54.45851 Y61.55442 I-17.73735 J-64.32267
G3 X32.0 Y58.60578 I-1.15603 J-78.19765
G1 Y83.0
G1 X73.4465
G1 F300.0 Y85.4
G1 F800.0 X116.83682
G3 X100.01116 Y76.3435 I10.35681 J-39.39951
G3 X88.60843 Y58.59594 I25.85895 J-29.15115
G3 X79.94154 Y53.75119 I14.94955 J-36.9181
G3 X70.63314 Y56.84556 I-32.92423 J-83.49389
G3 X54.42408 Y59.15467 I-17.10255 J-62.00815
G3 X29.6 Y55.36213 I-1.12161 J-75.79789
G1 Y85.4
G1 X73.4465
G0 Z3.0
G0 X137.9278
G0 Z1.0
G1 F300.0 Z-2.5
G1 F800.0 X153.3549
G3 X150.10911 Y79.76533 I31.89721 J-22.12623
G3 X137.9278 Y85.4 I-22.36379 J-32.36272
G1 F300.0 X137.30657 Y83.08179
G3 F800.0 X127.32307 Y84.33828 I-9.56125 J-35.67919
G3 X101.60818 Y74.55198 I-0.12944 J-38.33778
G3 X90.58377 Y56.7874 I24.26192 J-27.35963
G3 X80.31168 Y51.01418 I12.9742 J-35.10956
G3 X69.99832 Y54.53104 I-33.29437 J-80.75688
G3 X54.38966 Y56.75491 I-16.46773 J-59.69362
G3 X27.2 Y51.9653 I-1.08719 J-73.39814
G1 Y87.8
G1 X158.32834
G3 X151.12395 Y75.98966 I26.92377 J-24.52623
G3 X150.75002 Y76.29698 I-24.35115 J-29.24763
G3 X150.00467 Y76.88045 I-17.13352 J-21.11922
G3 X137.30657 Y83.08179 I-22.25935 J-29.47784
G1 F300.0 X136.68534 Y80.76359
G3 F800.0 X127.33275 Y81.93822 I-8.94002 J-33.36098
G3 X103.20521 Y72.76045 I-0.13912 J-35.93773
G3 X92.59436 Y54.94803 I22.6649 J-25.56811
G3 X80.7177 Y48.23774 I10.96361 J-33.27019
G3 X69.36348 Y52.21652 I-33.70038 J-77.98044
G3 X54.35524 Y54.35516 I-15.83289 J-57.37911
G3 X24.8 Y48.39129 I-1.05277 J-70.99839
G1 Y90.2
G1 X164.4267
G3 X162.80285 Y88.83545 I22.29818 J-28.18388
G3 X152.28129 Y71.65791 I22.44926 J-25.56168
G3 X149.23798 Y74.43319 I-25.5085 J-24.91589
G3 X148.5584 Y74.96517 I-15.62147 J-19.25543
G3 X136.68534 Y80.76359 I-20.81308 J-27.56256
G1 F300.0 X136.06411 Y78.44538
G3 F800.0 X127.34245 Y79.53816 I-8.31879 J-31.04278
G3 X104.80222 Y70.96892 I-0.14882 J-33.53767
G3 X94.65072 Y53.06865 I21.06788 J-23.77658
G3 X81.1855 Y45.43062 I8.90726 J-31.39081
G3 X79.88146 Y45.98449 I-22.3374 J-50.77882
G3 X68.72861 Y49.90201 I-32.86415 J-75.72719
G3 X54.32083 Y51.95541 I-15.19802 J-55.0646
G3 X22.4 Y44.60909 I-1.01835 J-68.59863
G1 Y92.6
G1 X172.96175
G3 X164.3935 Y87.03825 I13.76313 J-30.58388
G3 X153.76505 Y66.17152 I20.8586 J-23.76448
G3 X147.72593 Y72.5694 I-26.99225 J-19.4295
G3 X147.11213 Y73.04989 I-14.10942 J-17.39164
G3 X136.06411 Y78.44538 I-19.36681 J-25.64728
G0 Z3.0
G0 X157.64062 Y-6.56953
G0 Z1.0
G1 F300.0 Z-2.5
G3 F800.0 X159.02524 Y-6.39601 I-2.81778 J28.09707
G3 X159.13716 Y-18.44494 I1638.83296 J9.19828
G2 X158.68455 Y-33.57779 I-622.59719 J11.04832
G3 X158.67555 Y-33.83725 I17.57964 J-0.73979
G2 X158.54774 Y-35.78412 I-25.50017 J0.69638
G3 X158.43713 Y-36.18515 I31.60168 J-8.93233
G3 X158.38405 Y-34.04663 I-189.73549 J-3.63944
G2 X158.31292 Y-30.55926 I182.4884 J5.46654
G3 X158.31276 Y-30.5456 I-17.59417 J-0.19074
G3 X157.75148 Y-9.41597 I-707.34679 J-8.21761
G3 X157.64062 Y-6.56953 I-3360.50227 J-129.45077
G0 Z3.0
G0 X100.94389 Y-8.82061
G0 Z1.0
G1 F300.0 Z-2.5
G2 F800.0 X101.02509 Y-10.8838 I-3013.98236 J-119.66712
G3 X101.02745 Y-10.94168 I17.58182 J0.68601
G2 X101.55995 Y-30.45335 I-649.78686 J-27.49666
G2 X101.5273 Y-32.55044 I-218.56487 J2.35387
G3 X101.23351 Y-31.9091 I-179.05935 J-81.63674
G3 X101.21304 Y-31.86479 I-15.98351 J-7.35652
G2 X98.32495 Y-25.43515 I267.5624 J124.0481
G2 X97.46857 Y-19.67558 I30.22606 J7.43772
G3 X97.45153 Y-19.40008 I-17.56961 J-0.94859
G2 X97.14193 Y-9.96181 I127.89963 J8.91959
G3 X97.14187 Y-9.80528 I-17.59506 J0.07118
G2 X97.19824 Y-5.5539 I117.3928 J0.56939
G3 X100.8377 Y-6.17558 I7.48557 J32.85833
G2 X100.94389 Y-8.82061 I-3013.87618 J-122.31216
G0 Z3.0
G0 X103.10323 Y-80.09612
G0 Z1.0
G1 F300.0 Z-2.5
G3 F800.0 X107.40147 Y-83.0 I26.22678 J34.18709
G1 X98.53918
G3 X103.10323 Y-80.09612 I-20.58858 J37.39776
G1 F300.0 X104.56405 Y-78.19191
G3 F800.0 X119.53204 Y-85.4 I24.76596 J32.28288
G1 X84.23277
G3 X103.13488 Y-77.05188 I-6.28217 J39.79776
G3 X103.50606 Y-77.35201 I24.28199 J29.65117
G3 X104.56405 Y-78.19191 I25.82395 J31.44298
G0 Z3.0
G0 X72.20345 Y-85.4
G0 Z1.0
G1 F300.0 Z-2.5
G1 F800.0 X51.15158
G3 X63.01444 Y-82.61779 I-7.91768 J60.44118
G3 X72.20345 Y-85.4 I15.34763 J34.12399
G0 Z3.0
G0 X34.77968
G0 Z1.0
G1 F300.0 Z-2.5
G1 F800.0 X29.6
G1 Y-84.65002
G3 X34.77968 Y-85.4 I14.11542 J79.22535
G0 Z3.0
G0 X158.81746 Y-80.6
G0 Z1.0
G1 F300.0 Z-2.5
G3 F800.0 X159.56322 Y-79.93365 I-28.80628 J32.98969
G3 X160.54281 Y-80.6 I26.47351 J37.86507
G1 X158.81746
G1 F300.0 Y-83.0
G1 F800.0 X151.48742
G3 X159.35705 Y-76.80755 I-21.47623 J35.38969
G3 X170.44121 Y-83.0 I26.67968 J34.73897
G1 X158.81746
G0 Z3.0
G0 X211.36374 Y-80.6
G0 Z1.0
G1 F300.0 Z-2.5
G3 F800.0 X212.07231 Y-80.10279 I-19.40094 J28.40129
G3 X212.62013 Y-79.70182 I-26.90122 J37.32832
G3 X213.61869 Y-80.6 I31.01604 J33.47832
G1 X211.36374
G1 F300.0 X210.01 Y-78.61824
G3 F800.0 X210.66912 Y-78.15572 I-18.04719 J26.41953
G3 X212.79222 Y-76.52437 I-25.49804 J35.38125
G3 X215.86352 Y-79.36218 I30.84395 J30.30087
G3 X217.53295 Y-80.6696 I20.55135 J24.52213
G3 X221.08052 Y-83.0 I25.04266 J34.25715
G1 X201.66512
G3 X209.58585 Y-78.90303 I-15.29678 J39.27862
G3 X210.01 Y-78.61824 I-17.62305 J26.70433
G1 F300.0 X208.65625 Y-76.63648
G3 F800.0 X209.26594 Y-76.20865 I-16.69345 J24.43777
G3 X212.97323 Y-73.19563 I-24.09485 J33.43418
G3 X217.4051 Y-77.52274 I30.66294 J26.97213
G3 X218.9493 Y-78.7321 I19.00977 J22.68269
G3 X233.47986 Y-85.4 I23.6263 J32.31964
G1 X139.63696
G3 X159.13699 Y-73.54105 I-9.62578 J37.78969
G3 X185.83594 Y-83.46994 I26.89974 J31.47247
G3 X208.26392 Y-76.89991 I0.5324 J39.74856
G3 X208.65625 Y-76.63648 I-16.30112 J24.7012
G0 Z3.0
G0 X308.5403 Y-79.92467
G0 Z1.0
G1 F300.0 Z-2.5
G3 F800.0 X312.51467 Y-76.62768 I-26.82559 J36.38103
G3 X313.01627 Y-76.1512 I-23.43654 J25.17456
G3 X319.13388 Y-68.78492 I-30.92285 J31.9045
G2 X308.5403 Y-79.92467 I-15.13388 J3.78492
G1 F300.0 X309.2388 Y-82.22077
G2 F800.0 X304.0 Y-83.0 I-5.2388 J17.22077
G1 X298.30323
G3 X310.87933 Y-74.87107 I-16.58853 J39.45636
G3 X311.34594 Y-74.42784 I-21.80121 J23.41795
G3 X322.0 Y-57.44048 I-29.25251 J30.18114
G1 Y-65.0
G2 X309.2388 Y-82.22077 I-18.0 J0.0
G1 F300.0 X309.93731 Y-84.51687
G2 F800.0 X304.0 Y-85.4 I-5.93731 J19.51687
G1 X252.32848
G3 X264.50055 Y-80.43483 I-9.16808 J39.87791
G3 X281.34369 Y-83.94362 I16.47229 J36.89129
G3 X309.244 Y-73.11446 I0.37101 J40.39997
G3 X309.6756 Y-72.70447 I-20.16587 J21.66134
G3 X321.71719 Y-43.48574 I-27.58217 J28.45778
G3 X321.39421 Y-28.75381 I-578.89047 J-5.32205
G2 X321.1743 Y-15.40842 I689.93047 J18.0432
G2 X321.85946 Y-0.30832 I216.89552 J-2.27594
G1 X321.85958 Y-0.30687
G3 X322.73213 Y18.96531 I-275.55261 J22.13156
G3 X320.76493 Y32.12383 I-39.37232 J0.84013
G3 X324.4 Y39.63788 I-34.26038 J21.21044
G1 Y-65.0
G2 X309.93731 Y-84.51687 I-20.4 J0.0
G0 Z3.0
G0 X324.20197 Y67.83555
G0 Z1.0
G1 F300.0 Z-2.5
G3 F800.0 X314.75853 Y82.33246 I-37.69764 J-14.23242
G2 X324.20197 Y67.83555 I-10.75853 J-17.33246
G1 F300.0 X321.95666 Y66.98786
G3 F800.0 X311.8673 Y81.75874 I-35.45233 J-13.38473
G3 X303.2766 Y87.8 I-26.72426 J-28.8734
G1 X304.0
G2 X326.8 Y65.0 I0.0 J-22.8
G1 Y-65.0
G2 X304.0 Y-87.8 I-22.8 J0.0
G1 X27.2
G1 Y-81.73084
G3 X44.87142 Y-83.48909 I16.51542 J76.30617
G3 X45.53952 Y-83.47099 I-0.40267 J27.19222
G3 X62.5588 Y-80.23574 I-2.30562 J58.51217
G3 X63.15527 Y-80.036 I-40.01071 J120.47139
G3 X75.97158 Y-83.42863 I15.20679 J31.5422
G3 X77.51669 Y-83.49029 I1.85654 J27.13176
G3 X102.60498 Y-74.3747 I0.43392 J37.88805
G3 X103.16328 Y-73.90298 I-22.66678 J27.393
G3 X105.01641 Y-75.48676 I24.25359 J26.50227
G3 X129.16903 Y-84.19698 I24.3136 J29.57773
G3 X158.89237 Y-70.08632 I0.84215 J36.58667
G3 X160.66925 Y-71.69347 I25.37981 J26.27416
G3 X185.85784 Y-81.07001 I25.36749 J29.62489
G3 X206.942 Y-74.89678 I0.5105 J37.34863
G3 X207.86275 Y-74.26158 I-14.97919 J22.69808
G3 X213.16671 Y-69.6556 I-22.69167 J31.48712
G3 X218.94668 Y-75.68331 I30.46946 J23.4321
G3 X220.36566 Y-76.79459 I17.46818 J20.84326
G3 X243.29479 Y-84.04008 I22.20994 J30.38213
G3 X264.32491 Y-77.70465 I-0.13439 J38.518
G3 X281.3437 Y-81.54351 I16.64793 J34.16112
G3 X307.60866 Y-71.35785 I0.371 J37.99986
G3 X308.00526 Y-70.98111 I-18.53054 J19.90473
G3 X319.3174 Y-43.51999 I-25.91184 J26.73442
G3 X318.99529 Y-28.82677 I-576.49069 J-5.2878
G2 X318.77422 Y-15.40404 I692.32938 J18.11616
G2 X319.46717 Y-0.11606 I219.2956 J-2.28032
G1 X319.46728 Y-0.11473
G3 X320.3324 Y19.0035 I-273.16032 J21.93942
G3 X318.11674 Y32.43758 I-36.97259 J0.80194
G3 X324.39893 Y53.46888 I-31.61219 J20.89669
G3 X321.95666 Y66.98786 I-37.8946 J0.13425
G0 Z3.0
G0 X238.60702 Y75.8
G0 Z1.0
G1 F300.0 Z-2.5
G3 F800.0 X236.32408 Y70.4394 I44.6853 J-22.19677
G3 X235.07891 Y75.52869 I-71.78764 J-14.86692
G3 X235.00157 Y75.8 I-50.17962 J-14.15643
G1 X238.60702
G1 F300.0 Y78.2
G1 F800.0 X242.66305
G3 X237.51613 Y66.26337 I40.62927 J-24.59677
G3 X234.56067 Y66.75124 I-12.85988 J-68.7071
G3 X232.7693 Y74.87621 I-70.02424 J-11.17876
G3 X231.70444 Y78.2 I-47.87002 J-13.50396
G1 X238.60702
G1 F300.0 Y80.6
G1 F800.0 X247.17171
G3 X239.28633 Y63.45196 I36.12062 J-26.99677
G3 X232.4493 Y64.60513 I-14.63008 J-65.89569
G3 X230.4597 Y74.22375 I-67.91287 J-9.03265
G3 X228.15672 Y80.6 I-45.56041 J-12.85149
G1 X238.60702
G1 F300.0 Y83.0
G1 F800.0 X252.33008
G3 X241.16318 Y60.52897 I30.96224 J-29.39677
G3 X230.29261 Y62.41204 I-16.50693 J-62.97271
G3 X228.15009 Y73.57129 I-65.75617 J-6.83956
G3 X224.29077 Y83.0 I-43.2508 J-12.19903
G1 X238.60702
G1 F300.0 Y85.4
G1 F800.0 X258.48913
G3 X256.41077 Y83.62053 I26.27367 J-32.79024
G3 X243.18242 Y57.45702 I26.88155 J-30.01731
G3 X228.08177 Y60.16286 I-18.52616 J-59.90076
G3 X225.84047 Y72.91883 I-63.54534 J-4.59037
G3 X220.00159 Y85.4 I-40.94119 J-11.54658
G1 X238.60702
G1 F300.0 Y87.8
G1 F800.0 X266.56317
G3 X258.02107 Y81.8409 I18.19963 J-35.19024
G3 X245.40166 Y54.15096 I25.27125 J-28.23767
G3 X242.71196 Y55.08982 I-16.27212 J-42.29525
G3 X242.69774 Y55.09428 I-8.15087 J-25.94499
G3 X225.83278 Y57.84502 I-18.04148 J-57.53802
G3 X225.71182 Y59.64688 I-117.33946 J-6.97191
G3 X223.53086 Y72.26639 I-61.17539 J-4.0744
G3 X215.10947 Y87.8 I-38.63157 J-10.89414
G1 X238.60702
G1 F300.0 Y90.2
G1 F800.0 X304.0
G2 X329.2 Y65.0 I0.0 J-25.2
G1 Y-65.0
G2 X304.0 Y-90.2 I-25.2 J0.0
G1 X24.8
G1 Y-78.69545
G3 X44.83588 Y-81.08936 I18.91542 J73.27078
G3 X45.44503 Y-81.07285 I-0.36713 J24.79248
G3 X61.78441 Y-77.96403 I-2.21113 J56.11403
G3 X63.32981 Y-77.43976 I-39.23631 J118.19968
G3 X76.13542 Y-81.03423 I15.03225 J28.94597
G3 X77.54417 Y-81.09045 I1.6927 J24.73735
G3 X101.05905 Y-72.53879 I0.40643 J35.48821
G3 X103.21117 Y-70.59577 I-21.12086 J25.55708
G3 X106.52674 Y-73.62149 I24.2057 J23.19506
G3 X129.20171 Y-81.79709 I22.80327 J27.71246
G3 X157.50247 Y-67.94797 I0.80947 J34.18678
G3 X158.26964 Y-66.85013 I-19.93347 J14.74649
G3 X158.61432 Y-66.31893 I-36.03759 J23.76085
G3 X162.2251 Y-69.86608 I25.65786 J22.50677
G3 X185.87975 Y-78.67009 I23.81164 J27.7975
G3 X205.62007 Y-72.89366 I0.48859 J34.94871
G3 X206.45957 Y-72.31452 I-13.65727 J20.69495
G3 X213.37886 Y-65.79914 I-21.28849 J29.54005
G3 X220.48826 Y-73.84387 I30.25731 J19.57564
G3 X221.78202 Y-74.85708 I15.9266 J19.00382
G3 X243.26766 Y-81.64016 I20.79359 J28.44463
G3 X264.14632 Y-74.91797 I-0.10726 J36.11807
G3 X281.3437 Y-79.14339 I16.82652 J31.37443
G3 X305.97332 Y-69.60124 I0.371 J35.59974
G3 X306.33493 Y-69.25775 I-16.8952 J18.14812
G3 X316.91762 Y-43.55461 I-24.2415 J25.01106
G3 X316.59638 Y-28.89977 I-574.0909 J-5.25318
G2 X316.37413 Y-15.39973 I694.72829 J18.18916
G2 X317.07489 Y0.0762 I221.69569 J-2.28463
G1 X317.07499 Y0.07742
G3 X317.93267 Y19.04208 I-270.76802 J21.74728
G3 X315.42478 Y32.75545 I-34.57286 J0.76336
G3 X321.99891 Y53.46887 I-28.92023 J20.57883
G3 X310.24895 Y79.98639 I-35.49458 J0.13426
G3 X284.90351 Y89.82741 I-25.10591 J-27.10104
G3 X259.63136 Y80.06125 I-0.14071 J-37.21765
G3 X247.79796 Y53.46863 I23.66096 J-26.45802
G3 X247.91566 Y50.44312 I35.49458 J-0.13426
G3 X241.99263 Y52.80015 I-18.78611 J-38.58741
G3 X241.97967 Y52.80422 I-7.43154 J-23.65532
G3 X223.93743 Y55.45204 I-17.32341 J-55.24795
G3 X223.54867 Y55.45122 I-0.06901 J-59.92603
G3 X223.31778 Y59.47761 I-115.05535 J-4.57811
G3 X221.22124 Y71.61396 I-58.78134 J-3.90513
G3 X210.45258 Y89.14286 I-36.32196 J-10.2417
G3 X209.38146 Y90.07329 I-16.7893 J-18.24614
G3 X209.22596 Y90.2 I-22.05695 J-26.91001
G1 X238.60702
G1 F300.0 Y92.6
G1 F800.0 X304.0
G2 X331.6 Y65.0 I0.0 J-27.6
G1 Y-65.0
G2 X304.0 Y-92.6 I-27.6 J0.0
G1 X22.4
G1 Y-75.52764
G3 X22.90215 Y-75.67947 I15.3782 J49.95556
G3 X22.92003 Y-75.68477 I6.3738 J21.46904
G3 X44.80035 Y-78.68962 I20.79539 J70.26011
G3 X45.35053 Y-78.67471 I-0.3316 J22.39274
G3 X61.00979 Y-75.69238 I-2.11663 J53.71589
G3 X63.53683 Y-74.82318 I-38.4617 J115.92803
G3 X63.71381 Y-74.92233 I11.03364 J19.48855
G3 X76.29927 Y-78.63983 I14.64825 J26.42853
G3 X77.57166 Y-78.69061 I1.52886 J22.34295
G3 X99.51316 Y-70.70284 I0.37895 J33.08837
G3 X103.26135 Y-67.02919 I-19.57496 J23.72113
G3 X108.03704 Y-71.75618 I24.15552 J19.62848
G3 X129.23443 Y-79.39718 I21.29297 J25.84715
G3 X155.57305 Y-66.52061 I0.77675 J31.78687
G3 X156.26596 Y-65.52904 I-18.00405 J13.31913
G3 X158.3144 Y-62.06068 I-34.03392 J22.43975
G3 X163.78094 Y-68.03867 I25.95778 J18.24852
G3 X185.90169 Y-76.27016 I22.2558 J25.97009
G3 X204.29814 Y-70.89053 I0.46666 J32.54878
G3 X205.05638 Y-70.36745 I-12.33534 J18.69183
G3 X213.62237 Y-61.41105 I-19.8853 J27.59298
G3 X222.02985 Y-72.00443 I30.0138 J15.18755
G3 X223.19837 Y-72.91957 I14.38502 J17.16439
G3 X243.24052 Y-79.24022 I19.37723 J26.50712
G3 X263.96387 Y-72.05763 I-0.08012 J33.71814
G3 X281.34371 Y-76.74325 I17.00897 J28.51409
G3 X304.33799 Y-67.84463 I0.37099 J33.1996
G3 X304.66459 Y-67.53439 I-15.25986 J16.39151
G3 X314.51784 Y-43.58966 I-22.57117 J23.28769
G3 X314.19747 Y-28.97281 I-571.69112 J-5.21814
G2 X313.97405 Y-15.3955 I697.1272 J18.2622
G2 X314.6826 Y0.26846 I224.09577 J-2.28886
G1 X314.68269 Y0.26956
G3 X315.53294 Y19.08109 I-268.37573 J21.55514
G3 X312.67633 Y33.07861 I-32.17313 J0.72435
G3 X319.5989 Y53.46885 I-26.17178 J20.25567
G3 X308.63062 Y78.21402 I-33.09457 J0.13427
G3 X284.90676 Y87.42738 I-23.48758 J-25.32867
G3 X261.24164 Y78.28158 I-0.14395 J-34.81762
G3 X250.19798 Y53.46865 I22.05068 J-24.67836
G3 X251.03393 Y45.94178 I33.09457 J-0.13427
G3 X241.27331 Y50.51048 I-21.90439 J-34.08608
G3 X241.2616 Y50.51416 I-6.71222 J-21.36565
G3 X223.95095 Y53.05202 I-16.60535 J-52.95789
G3 X221.21983 Y52.99107 I-0.08253 J-57.52601
G3 X220.92373 Y59.30844 I-112.7265 J-2.11796
G3 X218.91162 Y70.96154 I-56.38729 J-3.73596
G3 X208.82749 Y87.37676 I-34.01233 J-9.58928
G3 X207.86006 Y88.21713 I-15.16421 J-16.48004
G3 X200.84795 Y92.6 I-20.53554 J-25.05386
G1 X238.60702
G1 F300.0 Y95.0
G1 F800.0 X304.0
G2 X334.0 Y65.0 I0.0 J-30.0
G1 Y-65.0
G2 X304.0 Y-95.0 I-30.0 J0.0
G1 X20.0
G1 Y-72.16448
G3 X23.5852 Y-73.37872 I17.7782 J46.5924
G3 X23.60117 Y-73.38346 I5.69075 J19.16829
G3 X44.76481 Y-76.28988 I20.11425 J67.95879
G3 X45.25603 Y-76.27657 I-0.29606 J19.99301
G3 X60.23494 Y-73.42082 I-2.02213 J51.31775
G3 X63.77115 Y-72.18655 I-37.68685 J113.65646
G3 X64.71171 Y-72.7304 I31.91363 J54.10809
G3 X64.87728 Y-72.82319 I9.85876 J17.39577
G3 X76.46311 Y-76.24543 I13.48479 J24.3294
G3 X77.59914 Y-76.29076 I1.36502 J19.94855
G3 X97.96731 Y-68.86682 I0.35146 J30.68853
G3 X103.31535 Y-63.029 I-18.02911 J21.88511
G3 X109.5473 Y-69.89082 I24.10152 J15.62829
G3 X129.2672 Y-76.99726 I19.78271 J23.98179
G3 X153.64363 Y-65.09325 I0.74398 J29.38694
G3 X154.26229 Y-64.20795 I-16.07463 J11.89178
G3 X158.02497 Y-56.90235 I-32.03024 J21.11866
G3 X165.33676 Y-66.21124 I26.24721 J13.0902
G3 X185.92364 Y-73.87022 I20.69998 J24.14266
G3 X202.97622 Y-68.88741 I0.4447 J30.14884
G3 X203.6532 Y-68.42038 I-11.01341 J16.6887
G3 X213.93258 Y-55.89231 I-18.48212 J25.64591
G3 X223.57143 Y-70.165 I29.70359 J9.66881
G3 X224.61473 Y-70.98207 I12.84344 J15.32495
G3 X243.21335 Y-76.84027 I17.96088 J24.56961
G3 X263.66173 Y-69.19754 I-0.05295 J31.31819
G3 X263.77865 Y-69.09955 I-18.53934 J22.23893
G3 X281.34371 Y-74.34308 I17.19419 J25.55601
G3 X302.70265 Y-66.08802 I0.37099 J30.79944
G3 X302.99426 Y-65.81103 I-13.62453 J14.6349
G3 X312.11806 Y-43.62516 I-20.90083 J21.56433
G3 X311.79856 Y-29.04589 I-569.29135 J-5.18263
G2 X311.57397 Y-15.39134 I699.52611 J18.33528
G2 X312.29031 Y0.46072 I226.49585 J-2.29302
G1 X312.29039 Y0.4617
G3 X313.13322 Y19.12058 I-265.98343 J21.36299
G3 X309.8527 Y33.40882 I-29.77341 J0.68486
G3 X317.19888 Y53.46884 I-23.34815 J19.92546
G3 X307.01229 Y76.44162 I-30.69454 J0.13429
G3 X284.91001 Y85.02734 I-21.86926 J-23.55627
G3 X262.8519 Y76.50189 I-0.1472 J-32.41759
G3 X252.598 Y53.46866 I20.44042 J-22.89867
G3 X256.46301 Y38.423 I30.69454 J-0.13429
G3 X240.55399 Y48.22081 I-27.33346 J-26.56729
G3 X240.54354 Y48.2241 I-5.9929 J-19.07598
G3 X223.96448 Y50.65199 I-15.88728 J-50.66783
G3 X218.8389 Y50.42216 I-0.09607 J-55.12599
G3 X218.83893 Y50.45472 I-293.29369 J0.21902
G3 X218.52966 Y59.13939 I-110.34561 J0.4184
G3 X216.60199 Y70.30913 I-53.99323 J-3.5669
G3 X207.20241 Y85.61066 I-31.70271 J-8.93688
G3 X206.33865 Y86.36097 I-13.53913 J-14.71394
G3 X186.84196 Y93.1539 I-19.01413 J-23.1977
G3 X165.98414 Y85.24104 I-0.11708 J-31.13778
G3 X156.04486 Y62.4066 I19.26797 J-21.96727
G3 X156.04754 Y62.32232 I19.98639 J0.5934
G3 X156.66353 Y54.87772 I76.74949 J2.60272
G3 X154.63053 Y60.01392 I-40.46124 J-13.04483
G3 X154.56457 Y60.15196 I-18.07439 J-8.55129
G3 X146.21388 Y70.70561 I-27.79178 J-13.40993
G3 X145.66586 Y71.13461 I-12.59738 J-15.52785
G3 X127.35219 Y77.13809 I-17.92054 J-23.732
G3 X106.39923 Y69.17738 I-0.15856 J-31.1376
G3 X96.76843 Y51.13561 I19.47088 J-21.98503
G3 X82.04573 Y42.91651 I6.78954 J-29.45776
G3 X81.69578 Y42.55705 I21.48744 J-21.26884
G3 X78.94873 Y43.77301 I-22.84768 J-47.90525
G3 X68.09373 Y47.5875 I-31.93142 J-73.51571
G3 X54.28642 Y49.55565 I-14.56314 J-52.75009
G3 X20.0 Y40.57744 I-0.98394 J-66.19888
G1 Y95.0
G1 X238.60702
G1 F300.0 Y97.4
G1 F800.0 X304.0
G2 X336.4 Y65.0 I0.0 J-32.4
G1 Y-65.0
G2 X304.0 Y-97.4 I-32.4 J0.0
G1 X17.6
G1 Y-68.53887
G3 X24.26825 Y-71.07797 I20.1782 J42.96679
G3 X24.28231 Y-71.08214 I5.0077 J16.86754
G3 X44.72928 Y-73.89015 I19.43311 J65.65748
G3 X45.16154 Y-73.87843 I-0.26053 J17.59327
G3 X59.45983 Y-71.14933 I-1.92764 J48.91962
G3 X64.01842 Y-69.53366 I-36.91174 J111.38498
G3 X65.89505 Y-70.6424 I31.66635 J51.4552
G3 X66.04074 Y-70.72406 I8.67542 J15.30778
G3 X76.62695 Y-73.85103 I12.32133 J22.23027
G3 X77.62663 Y-73.89092 I1.20118 J17.55415
G3 X96.4215 Y-67.03074 I0.32398 J28.28868
G3 X103.3773 Y-58.12942 I-16.4833 J20.04903
G3 X111.05752 Y-68.02541 I24.03958 J10.72871
G3 X129.30003 Y-74.5973 I18.27249 J22.11638
G3 X151.71421 Y-63.6659 I0.71115 J26.98699
G3 X152.25861 Y-62.88685 I-14.14521 J10.46442
G3 X157.77209 Y-48.60684 I-30.02657 J19.79757
G3 X166.89256 Y-64.3838 I26.50009 J4.79468
G3 X185.94562 Y-71.47028 I19.14417 J22.31522
G3 X201.65429 Y-66.88428 I0.42272 J27.7489
G3 X202.25002 Y-66.47331 I-9.69149 J14.68558
G3 X211.89144 Y-54.57903 I-17.07893 J23.69884
G3 X212.05378 Y-54.19957 I-16.09456 J7.11028
G3 X214.1739 Y-47.06116 I-33.18907 J13.74122
G3 X215.73276 Y-53.50419 I144.86505 J31.6394
G3 X225.11301 Y-68.32556 I27.90341 J7.28069
G3 X226.03108 Y-69.04456 I11.30186 J13.48552
G3 X243.18616 Y-74.44031 I16.54452 J22.6321
G3 X262.10769 Y-67.36847 I-0.02576 J28.91822
G3 X263.60899 Y-66.01926 I-16.9853 J20.40986
G3 X281.34372 Y-71.9429 I17.36385 J22.47572
G3 X301.06732 Y-64.33141 I0.37099 J28.39925
G3 X301.32392 Y-64.08767 I-11.98919 J12.87829
G3 X309.71829 Y-43.6612 I-19.23049 J19.84097
G3 X309.39966 Y-29.11901 I-566.89158 J-5.14659
G2 X309.17389 Y-15.38726 I701.92502 J18.4084
G2 X309.89803 Y0.65298 I228.89593 J-2.2971
G1 X309.8981 Y0.65384
G3 X310.7335 Y19.16063 I-263.59113 J21.17085
G3 X306.92499 Y33.74879 I-27.37369 J0.64481
G3 X314.79885 Y53.46883 I-20.42044 J19.58548
G3 X305.39399 Y74.66918 I-28.29452 J0.1343
G3 X284.91326 Y82.6273 I-20.25095 J-21.78383
G3 X264.46215 Y74.72217 I-0.15046 J-30.01754
G3 X254.99802 Y53.46867 I18.83018 J-21.11895
G3 X260.12411 Y37.09178 I28.29452 J-0.1343
G3 X257.59632 Y33.40962 I21.23455 J-17.28623
G3 X257.50189 Y33.53934 I-33.19954 J-24.06831
G3 X257.05218 Y34.12815 I-14.20502 J-10.38309
G3 X239.83467 Y45.93115 I-27.92264 J-22.27244
G3 X239.82547 Y45.93403 I-5.27358 J-16.78632
G3 X223.97803 Y48.25196 I-15.16922 J-48.37777
G3 X216.42436 Y47.72394 I-0.10962 J-52.72596
G3 X216.43893 Y50.46004 I-290.87914 J2.91723
G3 X216.13559 Y58.97045 I-107.94561 J0.41307
G3 X214.29236 Y69.65675 I-51.59916 J-3.39797
G3 X205.57732 Y83.84457 I-29.39308 J-8.28449
G3 X204.81724 Y84.50482 I-11.91404 J-12.94785
G3 X186.85677 Y90.75382 I-17.49272 J-21.34155
G3 X167.57476 Y83.4438 I-0.13189 J-28.7377
G3 X158.4438 Y62.47783 I17.67735 J-20.17004
G3 X158.44616 Y62.40366 I17.58745 J0.52217
G3 X159.3671 Y52.98959 I74.35087 J2.52137
G3 X159.42809 Y52.63705 I17.36727 J2.82291
G2 X159.90342 Y48.66656 I-31.57752 J-5.79401
G3 X155.62139 Y49.25687 I-8.0384 J-42.48371
G3 X152.46108 Y58.98752 I-39.41911 J-7.42399
G3 X152.40304 Y59.10899 I-15.90494 J-7.52489
G3 X144.70183 Y68.84182 I-25.63025 J-12.36696
G3 X144.21959 Y69.21932 I-11.08533 J-13.66406
G3 X127.36196 Y74.738 I-16.47427 J-21.81672
G3 X107.99622 Y67.38582 I-0.16834 J-28.73751
G3 X98.97201 Y49.12747 I17.87389 J-20.19348
G3 X83.75252 Y41.22925 I4.58596 J-27.44963
G3 X82.25855 Y39.59489 I19.78064 J-19.58158
G3 X78.01618 Y41.56145 I-23.41045 J-44.94309
G3 X67.45881 Y45.27301 I-30.99887 J-71.30415
G3 X54.25201 Y47.1559 I-13.92822 J-50.43559
G3 X17.6 Y36.23932 I-0.94954 J-63.79913
G1 Y97.4
G1 X238.60702
G1 F300.0 Y99.8
G1 F800.0 X304.0
G2 X338.8 Y65.0 I0.0 J-34.8
G1 Y-65.0
G2 X304.0 Y-99.8 I-34.8 J0.0
G1 X15.2
G1 Y-64.5777
G3 X24.95131 Y-68.77723 I22.5782 J39.00562
G3 X24.96344 Y-68.78082 I4.32464 J14.5668
G3 X44.69374 Y-71.49041 I18.75198 J63.35616
G3 X45.06704 Y-71.48029 I-0.22499 J15.19353
G3 X58.68442 Y-68.87794 I-1.83314 J46.52148
G3 X64.28015 Y-66.86265 I-36.13633 J109.11359
G3 X67.07838 Y-68.55441 I31.40462 J48.78419
G3 X67.2042 Y-68.62493 I7.49209 J13.21978
G3 X76.79079 Y-71.45663 I11.15786 J20.13113
G3 X77.65411 Y-71.49108 I1.03733 J15.15975
G3 X94.87576 Y-65.19456 I0.2965 J25.88884
G3 X103.49001 Y-46.59299 I-14.93756 J18.21285
G3 X103.22469 Y-44.00571 I-15.19313 J-0.25076
G3 X101.75943 Y-39.12924 I-24.08885 J-4.57971
G3 X100.86867 Y-36.97871 I-74.31497 J-29.52197
G3 X100.86086 Y-36.96063 I-13.95245 J-6.01857
G3 X99.05335 Y-32.91254 I-178.39291 J-77.22656
G3 X99.03567 Y-32.87427 I-13.80335 J-6.35309
G2 X96.04444 Y-26.20902 I269.73977 J125.05758
G2 X95.07206 Y-19.80497 I32.50657 J8.2116
G3 X95.05734 Y-19.56704 I-15.1731 J-0.8192
G2 X94.74195 Y-9.9521 I130.29381 J9.08656
G3 X94.7419 Y-9.81692 I-15.19508 J0.06147
G2 X94.9335 Y-2.43836 I119.79277 J0.58103
G3 X101.46781 Y-3.83011 I9.75032 J29.7428
G3 X103.15102 Y-4.0085 I35.64944 J328.34065
G2 X103.42327 Y-10.79022 I-3016.1895 J-124.47923
G3 X103.4253 Y-10.84021 I15.18365 J0.59244
G2 X103.96011 Y-30.45148 I-652.18472 J-27.59813
G2 X103.7426 Y-38.1796 I-220.96503 J2.35201
G3 X103.49303 Y-47.16357 I247.37098 J-11.36717
G3 X112.56768 Y-66.15992 I23.92384 J-0.23714
G3 X129.33295 Y-72.19732 I16.76233 J20.25089
G3 X149.7848 Y-62.23854 I0.67824 J24.58701
G3 X150.25494 Y-61.56576 I-12.21579 J9.03706
G3 X155.62015 Y-46.53854 I-28.02289 J18.47647
G3 X156.07001 Y-38.95429 I-58.31536 J7.26445
G3 X155.98514 Y-34.11911 I-187.36838 J-0.8703
G2 X155.91306 Y-30.58528 I184.8873 J5.53902
G3 X155.91292 Y-30.57348 I-15.19431 J-0.16472
G3 X155.35339 Y-9.51194 I-704.94696 J-8.18973
G3 X155.14892 Y-4.30841 I-3358.10419 J-129.35479
G3 X161.41139 Y-3.45633 I-0.32608 J25.83596
G3 X161.53744 Y-18.45063 I1636.44681 J6.25859
G2 X161.08243 Y-33.6787 I-624.99746 J11.05401
G3 X161.07465 Y-33.90277 I15.18176 J-0.63888
G2 X160.91171 Y-36.24661 I-27.89927 J0.7619
G3 X159.77488 Y-42.72429 I29.2377 J-8.46984
G3 X159.74306 Y-43.56671 I15.16262 J-0.99446
G3 X168.44834 Y-62.55633 I24.52912 J-0.24545
G3 X185.96764 Y-69.07034 I17.58839 J20.48775
G3 X200.33236 Y-64.88116 I0.4007 J25.34896
G3 X200.84683 Y-64.52624 I-8.36956 J12.68245
G3 X209.69613 Y-53.60919 I-15.67575 J21.75178
G3 X209.83633 Y-53.28148 I-13.89925 J6.14044
G3 X211.94663 Y-45.86764 I-30.97162 J12.82313
G3 X212.67771 Y-40.66032 I-74.06183 J13.05289
G3 X212.68023 Y-40.63614 I-15.11228 J1.58524
G3 X213.37367 Y-31.18089 I-158.74745 J16.39546
G3 X213.37422 Y-31.16814 I-15.18083 J0.6608
G3 X213.52542 Y-27.1355 I-388.76888 J16.59559
G3 X214.24357 Y-33.177 I166.46948 J16.72468
G3 X218.05367 Y-52.89312 I144.79538 J17.75524
G3 X226.65459 Y-66.48613 I25.5825 J6.66962
G3 X227.44744 Y-67.10705 I9.76027 J11.64608
G3 X243.15894 Y-72.04032 I15.12816 J20.6946
G3 X260.55371 Y-65.53932 I0.00147 J26.51823
G3 X263.41902 Y-62.72572 I-15.43132 J18.58071
G3 X281.34372 Y-69.54267 I17.55382 J19.18218
G3 X299.43198 Y-62.5748 I0.37098 J25.99903
G3 X299.65358 Y-62.3643 I-10.35386 J11.12168
G3 X307.31852 Y-43.69784 I-17.56016 J18.11761
G3 X307.00075 Y-29.19216 I-564.49181 J-5.10996
G2 X306.77381 Y-15.38324 I704.32392 J18.48155
G2 X307.50574 Y0.84524 I231.29601 J-2.30112
G1 X307.5058 Y0.84598
G3 X308.33379 Y19.20131 I-261.19884 J20.97871
G3 X303.845 Y34.10305 I-24.97398 J0.60413
G3 X312.39882 Y53.46882 I-17.34045 J19.23123
G3 X303.77571 Y72.89671 I-25.89449 J0.13431
G3 X284.91652 Y80.22725 I-18.63267 J-20.01136
G3 X266.07236 Y72.94242 I-0.15372 J-27.61749
G3 X257.39805 Y53.46868 I17.21996 J-19.33919
G3 X263.21672 Y36.97882 I25.89449 J-0.13431
G3 X257.92925 Y28.47237 I18.14194 J-17.17326
G3 X255.56432 Y32.12308 I-33.53247 J-19.13105
G3 X255.17595 Y32.63157 I-12.26744 J-8.96683
G3 X239.11535 Y43.64148 I-26.0464 J-20.77586
G3 X239.10741 Y43.64397 I-4.55426 J-14.49665
G3 X223.9916 Y45.85193 I-14.45115 J-46.08771
G3 X213.98128 Y44.8713 I-0.12318 J-50.32592
G3 X214.03893 Y50.4654 I-288.43606 J5.76988
G3 X213.74151 Y58.80165 I-105.54561 J0.40772
G3 X211.98273 Y69.00438 I-49.20507 J-3.22917
G3 X203.95224 Y82.07847 I-27.08344 J-7.63213
G3 X203.29583 Y82.64866 I-10.28896 J-11.18175
G3 X186.87163 Y88.35371 I-15.97131 J-19.48539
G3 X169.16536 Y81.64654 I-0.14675 J-26.33759
G3 X160.84274 Y62.54905 I16.08675 J-18.37277
G3 X160.84478 Y62.485 I15.18851 J0.45095
G3 X161.73601 Y53.37464 I71.95225 J2.44003
G3 X161.78868 Y53.07018 I14.99836 J2.43786
G2 X162.31378 Y48.53403 I-33.93811 J-6.22715
G2 X162.24072 Y45.68027 I-323.83583 J6.86317
G3 X153.70123 Y46.97905 I-10.3757 J-39.49742
G3 X153.56046 Y46.98755 I-6.59715 J-108.02412
G3 X150.29163 Y57.96112 I-37.35817 J-5.15467
G3 X150.24151 Y58.06602 I-13.73549 J-6.49849
G3 X143.18978 Y66.97803 I-23.46872 J-11.32399
G3 X142.77332 Y67.30404 I-9.57328 J-11.80027
G3 X127.37179 Y72.33789 I-15.028 J-19.90144
G3 X109.5932 Y65.59425 I-0.17816 J-26.3374
G3 X101.30319 Y47.00776 I16.27691 J-18.4019
G3 X85.45932 Y39.54199 I2.25479 J-25.32992
G3 X82.89472 Y36.51122 I18.07385 J-17.89432
G3 X77.08383 Y39.34978 I-24.04662 J-41.85942
G3 X66.82387 Y42.95852 I-30.06652 J-69.09248
G3 X54.21761 Y44.75615 I-13.29328 J-48.1211
G3 X15.2 Y31.51196 I-0.91514 J-61.39937
G1 Y99.8
G1 X238.60702
G1 F300.0 Y102.2
G1 F800.0 X304.0
G2 X341.2 Y65.0 I0.0 J-37.2
G1 Y-65.0
G2 X304.0 Y-102.2 I-37.2 J0.0
G1 X12.8
G1 Y-60.1659
G3 X25.63436 Y-66.47648 I24.9782 J34.59382
G3 X25.64458 Y-66.47951 I3.64159 J12.26605
G3 X44.6582 Y-69.09067 I18.07084 J61.05484
G3 X44.97254 Y-69.08215 I-0.18945 J12.7938
G3 X57.90869 Y-66.60665 I-1.73864 J44.12334
G3 X64.5581 Y-64.17129 I-35.3606 J106.8423
G3 X68.26172 Y-66.46642 I31.12667 J46.09283
G3 X68.36767 Y-66.5258 I6.30875 J11.13179
G3 X76.95463 Y-69.06222 I9.9944 J18.032
G3 X77.6816 Y-69.09124 I0.87349 J12.76535
G3 X93.3301 Y-63.35827 I0.26901 J23.489
G3 X101.09033 Y-46.6326 I-13.39191 J16.37656
G3 X100.86692 Y-44.45396 I-12.79346 J-0.21115
G3 X99.537 Y-40.03547 I-21.73108 J-4.13146
G3 X98.66496 Y-37.92931 I-72.09253 J-28.61573
G3 X98.65838 Y-37.91408 I-11.74874 J-5.06797
G3 X96.87318 Y-33.91597 I-176.19043 J-76.2731
G3 X96.8583 Y-33.88375 I-11.62318 J-5.34965
G2 X93.76654 Y-26.98859 I271.91714 J126.06706
G2 X92.67555 Y-19.93436 I34.78447 J8.99116
G3 X92.66316 Y-19.73401 I-12.77659 J-0.68982
G2 X92.34197 Y-9.94239 I132.688 J9.25353
G3 X92.34192 Y-9.82857 I-12.7951 J0.05176
G2 X92.68949 Y-0.00709 I122.19274 J0.59267
G2 X92.79036 Y0.97986 I41.45085 J-3.73789
G3 X95.0394 Y0.06096 I9.23021 J19.37937
G3 X101.72053 Y-1.44345 I9.64441 J27.24348
G3 X105.46236 Y-1.82808 I35.39673 J325.95398
G2 X105.82144 Y-10.69665 I-3018.50084 J-126.65965
G3 X105.82316 Y-10.73875 I12.78547 J0.49887
G2 X106.36026 Y-30.44953 I-654.58257 J-27.6996
G2 X106.14008 Y-38.28943 I-223.36519 J2.35005
G3 X105.89292 Y-47.18702 I244.9735 J-11.25735
G3 X114.07777 Y-64.29434 I21.52396 J-0.21369
G3 X129.36597 Y-69.79729 I15.25224 J18.38531
G3 X147.85538 Y-60.81119 I0.64522 J22.18698
G3 X148.25126 Y-60.24467 I-10.28637 J7.60971
G3 X153.23541 Y-46.26706 I-26.01922 J17.15538
G3 X153.67004 Y-38.9664 I-55.93062 J6.99297
G3 X153.58624 Y-34.19158 I-184.96841 J-0.85819
G2 X153.5132 Y-30.61129 I187.28621 J5.61149
G3 X153.51309 Y-30.60136 I-12.79445 J-0.13871
G3 X152.95531 Y-9.60793 I-702.54712 J-8.16185
G3 X152.64898 Y-1.88629 I-3355.7061 J-129.25881
G3 X154.26597 Y-1.90385 I2.23203 J131.08549
G3 X163.80204 Y-0.12227 I0.55687 J23.4314
G3 X163.93771 Y-18.45622 I1634.05616 J2.92453
G2 X163.4803 Y-33.77961 I-627.39774 J11.0596
G3 X163.47376 Y-33.96829 I12.78389 J-0.53797
G2 X163.27231 Y-36.72575 I-30.29838 J0.82742
G3 X162.16973 Y-42.88136 I26.87711 J-7.9907
G3 X162.14294 Y-43.59072 I12.76777 J-0.83739
G3 X170.00409 Y-60.72883 I22.12924 J-0.22143
G3 X185.9897 Y-66.67038 I16.03264 J18.66025
G3 X199.01044 Y-62.87803 I0.37864 J22.949
G3 X199.44365 Y-62.57918 I-7.04763 J10.67933
G3 X207.50081 Y-52.63934 I-14.27256 J19.80471
G3 X207.61887 Y-52.36339 I-11.70394 J5.17059
G3 X209.58045 Y-45.46585 I-28.75416 J11.90504
G3 X210.29081 Y-40.40994 I-71.69565 J12.65111
G3 X210.29293 Y-40.38958 I-12.72538 J1.33486
G3 X210.97594 Y-31.07652 I-156.36015 J16.1489
G3 X210.9764 Y-31.06579 I-12.7831 J0.55643
G3 X211.32189 Y-16.79307 I-386.37106 J16.49323
G2 X213.98713 Y-12.35114 I152.47507 J-88.46707
G3 X214.07274 Y-12.2111 I-10.8738 J6.74371
G2 X215.15133 Y-10.50879 I38.42296 J-23.15201
G3 X215.11161 Y-12.97435 I181.88494 J-4.16333
G3 X215.11304 Y-13.31943 I12.79464 J-0.1194
G3 X216.62361 Y-32.86765 I164.88185 J2.90861
G3 X220.37463 Y-52.28225 I142.41533 J17.44589
G3 X228.19618 Y-64.64669 I23.26153 J6.05875
G3 X228.8638 Y-65.16954 I8.21869 J9.80664
G3 X243.13167 Y-69.6403 I13.71181 J18.75709
G3 X258.99979 Y-63.71007 I0.02873 J24.11822
G3 X263.20847 Y-59.04528 I-13.87741 J16.75146
G3 X264.70418 Y-60.64087 I17.38579 J14.79866
G3 X264.89089 Y-60.81823 I8.90519 J9.18775
G3 X281.34373 Y-67.1424 I16.08195 J17.27469
G3 X297.79665 Y-60.8182 I0.37098 J23.59876
G3 X297.98325 Y-60.64094 I-8.71852 J9.36507
G3 X304.91876 Y-43.73517 I-15.88982 J16.39425
G3 X304.60184 Y-29.26536 I-562.09205 J-5.07262
G2 X304.37373 Y-15.3793 I706.72283 J18.55475
G2 X305.11345 Y1.0375 I233.69609 J-2.30506
G1 X305.1135 Y1.03813
G3 X305.93408 Y19.24274 I-258.80654 J20.78657
G3 X300.55596 Y34.44125 I-22.57427 J0.5627
G3 X302.15744 Y35.81331 I-15.41285 J19.61072
G3 X309.99878 Y53.46881 I-15.65289 J17.52096
G3 X302.15746 Y71.12418 I-23.49445 J0.13432
G3 X284.91978 Y77.82719 I-17.01442 J-18.23883
G3 X267.68255 Y71.16262 I-0.15698 J-25.21743
G3 X259.79809 Y53.46869 I15.60978 J-17.55939
G3 X266.54622 Y36.85505 I23.49445 J-0.13432
G3 X265.78586 Y36.15762 I15.45907 J-17.61697
G3 X258.79324 Y20.64436 I15.5728 J-16.35206
G3 X253.62674 Y30.70682 I-34.39646 J-11.30305
G3 X253.29971 Y31.135 I-10.32986 J-7.55057
G3 X238.39603 Y41.35181 I-24.17017 J-19.27929
G3 X238.38934 Y41.35391 I-3.83494 J-12.20698
G3 X224.00519 Y43.45188 I-13.73308 J-43.79765
G3 X211.50325 Y41.82947 I-0.13677 J-47.92588
G3 X211.63894 Y50.47078 I-285.95804 J8.8117
G3 X211.34741 Y58.63299 I-103.14561 J0.40234
G3 X209.67308 Y68.35204 I-46.81098 J-3.06051
G3 X202.32715 Y80.31237 I-24.7738 J-6.97978
G3 X201.77442 Y80.79251 I-8.66387 J-9.41565
G3 X186.88655 Y85.95357 I-14.4499 J-17.62923
G3 X170.75593 Y79.84925 I-0.16167 J-23.93746
G3 X163.24169 Y62.62028 I14.49618 J-16.57548
G3 X163.2434 Y62.56634 I12.78956 J0.37972
G3 X164.10492 Y53.75968 I69.55363 J2.35869
G3 X164.14927 Y53.50332 I12.62945 J2.05282
G2 X164.71499 Y48.56619 I-36.29871 J-6.66028
G2 X164.52796 Y42.41015 I-326.23704 J6.83101
G3 X162.82073 Y43.02394 I-8.17364 J-20.0535
G3 X162.56027 Y43.1024 I-3.82073 J-12.21144
G3 X153.57429 Y44.58233 I-10.69525 J-36.91955
G3 X151.43044 Y44.69184 I-6.47022 J-105.6274
G3 X151.21536 Y46.4187 I-60.58463 J-6.66883
G3 X148.12219 Y56.93472 I-35.01308 J-4.58582
G3 X148.07998 Y57.02305 I-11.56605 J-5.47209
G3 X141.67774 Y65.11424 I-21.30719 J-10.28102
G3 X141.32705 Y65.38876 I-8.06123 J-9.93648
G3 X127.38169 Y69.93776 I-13.58173 J-17.98615
G3 X111.19016 Y63.80265 I-0.18806 J-23.93726
G3 X103.70641 Y46.77538 I14.67995 J-16.6103
G3 X103.74684 Y44.70715 I150.88596 J1.91498
G3 X87.16612 Y37.85473 I-0.18887 J-23.02931
G3 X83.63658 Y33.25263 I16.36705 J-16.20706
G3 X76.1517 Y37.13801 I-24.78848 J-38.60082
G3 X66.1889 Y40.64403 I-29.13439 J-66.88071
G3 X54.18322 Y42.35639 I-12.65831 J-45.80662
G3 X12.8 Y26.26691 I-0.88074 J-58.99962
G1 Y102.2
G1 X238.60702
G1 F300.0 Y104.6
G1 F800.0 X304.0
G2 X343.6 Y65.0 I0.0 J-39.6
G1 Y-65.0
G2 X304.0 Y-104.6 I-39.6 J0.0
G1 X10.4
G1 Y-55.10216
G3 X26.31741 Y-64.17573 I27.3782 J29.53008
G3 X26.32572 Y-64.17819 I2.95853 J9.9653
G3 X44.62267 Y-66.69094 I17.3897 J58.75353
G3 X44.87805 Y-66.68401 I-0.15392 J10.39406
G3 X57.1326 Y-64.33548 I-1.64415 J41.7252
G3 X64.85436 Y-61.45697 I-34.58451 J104.57113
G3 X69.44505 Y-64.37842 I30.83042 J43.37851
G3 X69.53113 Y-64.42667 I5.12542 J9.0438
G3 X77.11847 Y-66.66782 I8.83094 J15.93287
G3 X77.70908 Y-66.69139 I0.70965 J10.37095
G3 X91.78456 Y-61.5218 I0.24153 J21.08916
G3 X98.69066 Y-46.6722 I-11.84636 J14.54009
G3 X98.50915 Y-44.90222 I-10.39378 J-0.17155
G3 X97.31488 Y-40.94254 I-19.37331 J-3.68321
G3 X96.46124 Y-38.87991 I-69.87042 J-27.70867
G3 X96.4559 Y-38.86754 I-9.54502 J-4.11737
G3 X94.69302 Y-34.91941 I-173.98795 J-75.31964
G3 X94.68093 Y-34.89323 I-9.44302 J-4.34621
G2 X91.49096 Y-27.77321 I274.09452 J127.07654
G2 X90.27904 Y-20.06375 I37.06005 J9.77579
G3 X90.26897 Y-19.90098 I-10.38008 J-0.56043
G2 X89.94199 Y-9.93268 I135.08218 J9.4205
G3 X89.94195 Y-9.84021 I-10.39511 J0.04205
G2 X90.29763 Y0.19117 I124.59271 J0.60431
G2 X90.91452 Y4.57395 I43.8427 J-3.93615
G3 X91.03336 Y4.77832 I-15.28632 J9.02582
G3 X95.83007 Y2.327 I10.98721 J15.58091
G3 X101.97299 Y0.94325 I8.85374 J24.97743
G3 X107.77168 Y0.3659 I35.14426 J323.56729
G2 X108.21962 Y-10.60308 I-3020.81016 J-128.85363
G3 X108.22101 Y-10.63728 I10.3873 J0.4053
G2 X108.76041 Y-30.44747 I-656.98042 J-27.80107
G2 X108.53757 Y-38.39925 I-225.76534 J2.348
G3 X108.2928 Y-47.21049 I242.57601 J-11.14752
G3 X115.58775 Y-62.42863 I19.12407 J-0.19022
G3 X129.39913 Y-67.39721 I13.74225 J16.5196
G3 X145.92596 Y-59.38383 I0.61205 J19.7869
G3 X146.24759 Y-58.92357 I-8.35695 J6.18235
G3 X150.8506 Y-45.99604 I-24.01554 J15.83429
G3 X151.27007 Y-38.97853 I-53.54581 J6.72195
G3 X151.18733 Y-34.26407 I-182.56844 J-0.84606
G2 X151.11334 Y-30.63731 I189.68511 J5.68398
G3 X151.11325 Y-30.62924 I-10.39459 J-0.11269
G3 X150.55723 Y-9.70391 I-700.14728 J-8.13397
G3 X150.14524 Y0.58193 I-3353.30802 J-129.16282
G3 X150.18306 Y0.58048 I0.41726 J10.38682
G3 X154.30063 Y0.49602 I4.69796 J128.61872
G3 X166.19975 Y3.83111 I0.52221 J21.03153
G3 X166.33799 Y-18.46171 I1631.65845 J-1.02885
G2 X165.87818 Y-33.88052 I-629.79801 J11.06509
G3 X165.87286 Y-34.0338 I10.38601 J-0.43707
G2 X165.62952 Y-37.22153 I-32.69748 J0.89294
G3 X164.56459 Y-43.03843 I24.5199 J-7.49492
G3 X164.54282 Y-43.61474 I10.37291 J-0.68032
G3 X171.5598 Y-58.90129 I19.72936 J-0.19742
G3 X186.01183 Y-64.27041 I14.47694 J16.83271
G3 X197.68851 Y-60.87491 I0.35651 J20.54903
G3 X198.04046 Y-60.63211 I-5.72571 J8.6762
G3 X205.3055 Y-51.66949 I-12.86938 J17.85764
G3 X205.40142 Y-51.4453 I-9.50863 J4.20074
G3 X207.21421 Y-45.0644 I-26.5367 J10.98695
G3 X207.9039 Y-40.15956 I-69.32941 J12.24966
G3 X207.90563 Y-40.14302 I-10.33848 J1.08448
G3 X208.57821 Y-30.97215 I-153.97284 J15.90234
G3 X208.57858 Y-30.96343 I-10.38537 J0.45206
G3 X208.92506 Y-16.14409 I-383.97324 J16.39088
G2 X211.94753 Y-11.08622 I154.87191 J-89.11606
G3 X212.01708 Y-10.97244 I-8.8342 J5.47879
G2 X216.30075 Y-4.97646 I40.47862 J-24.39066
G2 X217.84637 Y-3.41719 I11.73298 J-10.08461
G2 X217.68898 Y-6.5633 I-107.69308 J3.8105
G3 X217.67736 Y-6.77725 I10.37352 J-0.67108
G3 X217.5115 Y-12.99674 I179.35891 J-7.89486
G3 X217.51267 Y-13.2771 I10.39475 J-0.09701
G3 X219.00366 Y-32.55832 I162.48223 J2.86628
G3 X222.69566 Y-51.67163 I140.03528 J17.13656
G3 X229.73776 Y-62.80726 I20.9405 J5.44813
G3 X230.28015 Y-63.23204 I6.67711 J7.96721
G3 X243.10434 Y-67.24025 I12.29545 J16.81958
G3 X257.44598 Y-61.88069 I0.05606 J21.71816
G3 X262.9357 Y-54.52335 I-12.32359 J14.92207
G3 X266.37453 Y-58.91752 I17.65856 J10.27673
G3 X266.52622 Y-59.06161 I7.23484 J7.4644
G3 X281.34373 Y-64.74207 I14.44662 J15.51808
G3 X296.16131 Y-59.06159 I0.37097 J21.19843
G3 X296.31291 Y-58.91758 I-7.08318 J7.60846
G3 X302.51901 Y-43.77331 I-14.21948 J14.67089
G3 X302.20294 Y-29.33859 I-559.6923 J-5.03448
G2 X301.97365 Y-15.37542 I709.12173 J18.62798
G2 X302.72117 Y1.22976 I236.09617 J-2.30894
G1 X302.72121 Y1.23027
G3 X303.53438 Y19.28504 I-256.41424 J20.59443
G3 X297.275 Y34.42227 I-20.17457 J0.5204
G3 X296.87059 Y34.80002 I-14.5614 J-15.18385
G3 X300.53923 Y37.58592 I-11.72748 J19.25195
G3 X307.59874 Y53.4688 I-14.03468 J15.74836
G3 X300.53924 Y69.35157 I-21.09441 J0.13433
G3 X284.92306 Y75.42712 I-15.3962 J-16.46622
G3 X269.29269 Y69.38275 I-0.16026 J-22.81736
G3 X262.19813 Y53.4687 I13.99963 J-15.77952
G3 X269.29266 Y37.55478 I21.09441 J-0.13433
G3 X270.27302 Y36.70095 I15.47014 J16.77296
G3 X267.44385 Y34.42237 I11.73227 J-17.46288
G3 X261.18164 Y19.40437 I13.91482 J-14.61681
G2 X260.43508 Y2.89524 I-236.09521 J2.40499
G1 X260.43504 Y2.89473
G3 X259.71989 Y-10.15867 I256.41424 J-20.59443
G2 X258.99609 Y6.31057 I2345.04417 J111.31169
G3 X258.9781 Y6.63208 I-10.38671 J-0.41995
G3 X257.22321 Y17.4204 I-60.74067 J-4.34351
G3 X251.68916 Y29.29055 I-32.82643 J-8.07909
G3 X251.42348 Y29.63842 I-8.39229 J-6.1343
G3 X237.67671 Y39.06214 I-22.29393 J-17.78271
G3 X237.67127 Y39.06385 I-3.11562 J-9.91731
G3 X224.0188 Y41.05183 I-13.01502 J-41.50759
G3 X208.98117 Y38.54917 I-0.15038 J-45.52583
G3 X209.23894 Y50.47619 I-283.43595 J12.092
G3 X208.9533 Y58.46451 I-100.74562 J0.39693
G3 X207.36343 Y67.69973 I-44.41687 J-2.89203
G3 X200.70207 Y78.54628 I-22.46415 J-6.32747
G3 X200.25301 Y78.93635 I-7.03879 J-7.64955
G3 X186.90155 Y83.55339 I-12.9285 J-15.77308
G3 X172.34645 Y78.0519 I-0.17667 J-21.53728
G3 X165.64063 Y62.6915 I12.90566 J-14.77813
G3 X165.64202 Y62.64768 I10.39062 J0.3085
G3 X166.47383 Y54.14473 I67.15501 J2.27735
G3 X166.50986 Y53.93645 I10.26054 J1.66777
G2 X167.11614 Y48.596 I-38.6593 J-7.09341
G2 X166.75507 Y38.56129 I-328.63818 J6.8012
G3 X162.10407 Y40.73343 I-10.40074 J-16.20464
G3 X161.89247 Y40.79718 I-3.10407 J-9.92093
G3 X153.44776 Y42.18558 I-10.02745 J-34.61433
G3 X149.23565 Y42.35834 I-6.34369 J-103.23065
G3 X148.83692 Y46.09764 I-58.38984 J-4.33533
G3 X145.95274 Y55.90831 I-32.63463 J-4.26475
G3 X145.91845 Y55.98008 I-9.3966 J-4.44569
G3 X140.16569 Y63.25045 I-19.14566 J-9.23805
G3 X139.88078 Y63.47348 I-6.54918 J-8.07269
G3 X127.39167 Y67.53758 I-12.13546 J-16.07087
G3 X112.78709 Y62.01102 I-0.19804 J-21.53709
G3 X106.10613 Y46.81336 I13.08302 J-14.81868
G3 X106.2359 Y42.20603 I148.48624 J1.877
G3 X104.35911 Y42.29225 I-12.17554 J-244.54877
G3 X104.29148 Y42.29488 I-0.43723 J-10.386
G3 X88.87291 Y36.16747 I-0.7335 J-20.61704
G3 X84.54405 Y29.7199 I14.66025 J-14.5198
G3 X75.21982 Y34.92612 I-25.69595 J-35.0681
G3 X65.55388 Y38.32956 I-28.20251 J-64.66882
G3 X54.14883 Y39.95664 I-12.02329 J-43.49215
G3 X13.53343 Y23.63933 I-0.84636 J-56.59986
G3 X10.4 Y20.48457 I36.30473 J-39.19282
G1 Y104.6
G1 X238.60702
G0 Z3.0
G0 X199.34087 Y72.99585
G0 Z1.0
G1 F300.0 Z-2.5
G3 F800.0 X197.4519 Y75.01408 I-14.44158 J-11.6236
G3 X197.21019 Y75.22404 I-3.78861 J-4.11736
G3 X186.93192 Y78.75284 I-9.88568 J-12.06077
G3 X175.52731 Y74.45698 I-0.20705 J-16.73672
G3 X170.43851 Y62.83395 I9.7248 J-11.18321
G3 X170.43926 Y62.81037 I5.59274 J0.16605
G3 X171.21165 Y54.91483 I62.35776 J2.11467
G3 X171.23105 Y54.80272 I5.52272 J0.89767
G2 X171.91824 Y48.64949 I-43.38048 J-7.95968
G2 X171.46118 Y36.68563 I-333.44028 J6.74771
G1 X171.30567 Y34.11973
G3 X171.29645 Y33.88816 I5.58495 J-0.33848
G3 X171.13854 Y-18.4724 I1626.56175 J-31.0859
G2 X170.67394 Y-34.08233 I-634.59856 J11.07578
G3 X170.67107 Y-34.16484 I5.59025 J-0.23525
G2 X170.33344 Y-38.26476 I-37.49569 J1.02397
G3 X169.3543 Y-43.35257 I19.81598 J-6.45169
G3 X169.34258 Y-43.66276 I5.5832 J-0.36618
G3 X174.67101 Y-55.246 I14.9296 J-0.14939
G3 X186.05637 Y-59.47041 I11.36573 J13.17742
G3 X195.04466 Y-56.86866 I0.31197 J15.74903
G3 X195.23409 Y-56.73797 I-3.08185 J4.66995
G3 X200.91488 Y-49.72979 I-10.06301 J13.9635
G3 X200.9665 Y-49.60912 I-5.118 J2.26104
G3 X202.48148 Y-44.26281 I-22.10179 J9.15077
G3 X203.1301 Y-39.6588 I-64.59668 J11.44806
G3 X203.13102 Y-39.6499 I-5.56467 J0.58372
G3 X203.78275 Y-30.76341 I-149.19824 J15.40921
G3 X203.78295 Y-30.75872 I-5.58991 J0.24332
G3 X204.12816 Y-14.86528 I-379.17761 J16.18616
G2 X207.86832 Y-8.55638 I159.66881 J-90.39486
G3 X207.90576 Y-8.49514 I-4.75499 J2.94895
G2 X212.64165 Y-1.86975 I44.58994 J-26.86797
G2 X218.06288 Y2.58856 I15.39208 J-13.19132
G2 X222.61125 Y4.03908 I5.99845 J-10.95284
G2 X222.70218 Y-1.22134 I-87.79025 J-4.14862
G2 X222.47897 Y-6.87317 I-112.54889 J1.61465
G3 X222.47271 Y-6.98833 I5.58353 J-0.36121
G3 X222.31129 Y-13.04154 I174.56356 J-7.68378
G3 X222.31192 Y-13.19244 I5.59496 J-0.05221
G3 X223.76377 Y-31.93972 I157.68297 J2.78162
G3 X227.33797 Y-50.45132 I135.27517 J16.51796
G3 X232.82092 Y-59.12839 I16.29819 J4.22782
G3 X233.11287 Y-59.35702 I3.59394 J4.28834
G3 X243.04941 Y-62.43995 I9.46274 J12.94457
G3 X254.33883 Y-58.22127 I0.11099 J16.91787
G3 X259.67211 Y-46.64889 I-9.21644 J11.26266
G3 X259.12643 Y-42.56082 I-18.4016 J-0.37579
G2 X256.59132 Y-28.09156 I132.61948 J30.69251
G2 X255.05063 Y-12.99626 I2087.61509 J220.69808
G2 X254.20001 Y6.11666 I2349.71343 J114.14928
G3 X254.19032 Y6.28971 I-5.59063 J-0.22604
G3 X252.56781 Y16.25085 I-55.9529 J-4.00114
G3 X247.81401 Y26.45803 I-28.17103 J-6.90953
G3 X247.67101 Y26.64527 I-4.51714 J-3.30178
G3 X236.23807 Y34.48281 I-18.54146 J-14.78956
G3 X236.23514 Y34.48373 I-1.67698 J-5.33798
G3 X224.0461 Y36.25169 I-11.57889 J-36.92746
G3 X207.8999 Y32.99091 I-0.17768 J-40.72569
G3 X207.85943 Y32.97348 I2.19385 J-5.14716
G3 X203.77644 Y30.94092 I17.82501 J-40.92412
G2 X203.95964 Y34.29698 I242.43591 J-11.55074
G3 X203.9606 Y34.31305 I-5.58464 J0.34365
G3 X204.43894 Y50.4871 I-278.41538 J16.32813
G3 X204.16503 Y58.12813 I-95.94562 J0.38601
G3 X202.74409 Y66.39524 I-39.6286 J-2.55565
G3 X199.34087 Y72.99585 I-17.8448 J-5.02299
G1 F300.0 X197.47497 Y71.49405
G3 F800.0 X195.83006 Y73.25152 I-12.57569 J-10.12179
G3 X195.69183 Y73.3716 I-2.16678 J-2.3548
G3 X186.9474 Y76.35719 I-8.36731 J-10.20832
G3 X177.11439 Y72.66292 I-0.22253 J-14.34108
G3 X172.83266 Y62.90503 I8.13772 J-9.38915
G3 X172.83309 Y62.89154 I3.19859 J0.09497
G3 X173.57583 Y55.2991 I59.96394 J2.03349
G3 X173.58692 Y55.23499 I3.15855 J0.5134
G2 X174.3144 Y48.6735 I-45.73635 J-8.39195
G2 X173.85231 Y36.54598 I-335.83645 J6.7237
G1 X173.69649 Y33.97483
G3 X173.69121 Y33.8424 I3.19414 J-0.19358
G3 X173.53401 Y-18.47759 I1624.16699 J-31.04013
G2 X173.06702 Y-34.18304 I-636.99403 J11.08097
G3 X173.06538 Y-34.23022 I3.19717 J-0.13454
G2 X172.67507 Y-38.81301 I-39.89 J1.08936
G3 X171.74436 Y-43.50932 I17.47435 J-5.90343
G3 X171.73766 Y-43.68673 I3.19314 J-0.20943
G3 X176.22333 Y-53.42183 I12.53452 J-0.12543
G3 X186.07885 Y-57.07516 I9.81341 J11.35325
G3 X193.72537 Y-54.86954 I0.28949 J13.35379
G3 X193.83372 Y-54.7948 I-1.76257 J2.67083
G3 X198.72396 Y-48.76188 I-8.66263 J12.02033
G3 X198.75348 Y-48.69287 I-2.92708 J1.29313
G3 X200.1197 Y-43.86364 I-19.88877 J8.23451
G3 X200.74797 Y-39.40892 I-62.2349 J11.0489
G3 X200.7485 Y-39.40383 I-3.18254 J0.33384
G3 X201.38982 Y-30.65925 I-146.81572 J15.16315
G3 X201.38993 Y-30.65656 I-3.19697 J0.13916
G3 X201.73292 Y-14.23657 I-376.78459 J16.08401
G2 X205.8328 Y-7.29399 I162.06405 J-91.02357
G3 X205.85421 Y-7.25897 I-2.71947 J1.68656
G2 X210.81532 Y-0.32004 I46.64149 J-28.10414
G2 X216.89829 Y4.68163 I17.21842 J-14.74103
G2 X224.07515 Y6.51875 I7.16304 J-13.04591
G3 X224.22662 Y6.5222 I0.00297 J3.2
G2 X224.4466 Y6.44384 I0.0143 J-0.30783
G2 X224.95312 Y5.11498 I-2.7787 J-1.82012
G2 X225.09717 Y-1.25367 I-90.13213 J-5.22452
G2 X224.86917 Y-7.0278 I-114.94387 J1.64698
G3 X224.8656 Y-7.09366 I3.19333 J-0.20658
G3 X224.70639 Y-13.06389 I172.17067 J-7.57846
G3 X224.70675 Y-13.15019 I3.19986 J-0.02986
G3 X226.13907 Y-31.63107 I155.28814 J2.73937
G3 X229.65465 Y-49.84301 I132.89987 J16.20931
G3 X234.35942 Y-57.29263 I13.98151 J3.61951
G3 X234.52639 Y-57.42339 I2.05544 J2.45258
G3 X243.02177 Y-60.04446 I8.04921 J11.01094
G3 X252.78877 Y-56.39466 I0.13863 J14.52237
G3 X257.27743 Y-46.69884 I-7.66638 J9.43605
G3 X256.79784 Y-43.12214 I-16.00692 J-0.32584
G2 X254.21117 Y-28.36014 I134.94807 J31.25384
G2 X252.66113 Y-13.17177 I2089.99525 J220.96666
G2 X251.80676 Y6.0199 I2352.10292 J114.32479
G3 X251.80122 Y6.11887 I-3.19739 J-0.12927
G3 X250.24467 Y15.6676 I-53.5638 J-3.8303
G3 X245.88031 Y25.0446 I-25.84789 J-6.32629
G3 X245.79852 Y25.15168 I-2.58343 J-1.88835
G3 X235.52018 Y32.19772 I-16.66898 J-13.29598
G3 X235.51851 Y32.19825 I-0.95909 J-3.05289
G3 X224.05978 Y33.8564 I-10.86226 J-34.64198
G3 X208.83904 Y30.78751 I-0.19136 J-38.3304
G3 X208.8159 Y30.77754 I1.25471 J-2.94376
G3 X201.20875 Y26.47841 I16.86855 J-38.72818
G2 X201.56896 Y34.44409 I245.0036 J-7.08823
G3 X201.56951 Y34.45328 I-3.19396 J0.19654
G3 X202.04375 Y50.4926 I-276.02429 J16.1879
G3 X201.77566 Y57.96062 I-93.55043 J0.38052
G3 X200.43901 Y65.74439 I-37.23922 J-2.38814
G3 X197.47497 Y71.49405 I-15.53973 J-4.37214
G0 Z3.0
G0 X165.63136 Y33.4423
G0 Z1.0
G1 F300.0 Z-2.5
G3 F800.0 X160.67076 Y36.15243 I-9.27703 J-11.08565
G3 X160.55687 Y36.18674 I-1.67076 J-5.33993
G3 X153.19613 Y37.39198 I-8.69185 J-30.00389
G3 X146.71214 Y37.57953 I-6.09205 J-98.43705
G3 X146.61359 Y37.57827 I0.02224 J-5.59516
G3 X144.59236 Y37.50291 I1.39251 J-64.49223
G1 X144.59354 Y37.55107
G3 X144.59506 Y37.64852 I-5.59354 J0.13643
G3 X144.07994 Y45.45601 I-53.74925 J0.37449
G3 X141.61384 Y53.85551 I-27.87766 J-3.62313
G3 X141.59539 Y53.89414 I-5.0577 J-2.39288
G3 X137.14159 Y59.52287 I-14.82259 J-7.15211
G3 X136.98824 Y59.64292 I-3.52509 J-4.34511
G3 X127.41208 Y62.73707 I-9.24292 J-12.24031
G3 X115.98081 Y58.42762 I-0.21845 J-16.73658
G3 X110.90553 Y46.89067 I9.8893 J-11.23527
G3 X111.22813 Y38.90054 I143.68684 J1.79969
G2 X111.32711 Y37.08714 I-425.49437 J-24.13428
G3 X104.15722 Y37.4965 I-17.26675 J-239.42988
G3 X104.12081 Y37.49791 I-0.23534 J-5.59025
G3 X92.28651 Y32.79294 I-0.56284 J-15.82007
G3 X87.70047 Y21.47445 I11.24666 J-11.14527
G3 X89.78076 Y13.04083 I16.50617 J-0.40186
G3 X89.92523 Y12.79618 I4.88858 J2.72177
G3 X97.41073 Y6.85936 I12.09535 J7.56306
G3 X102.47702 Y5.71673 I7.27308 J20.44508
G3 X112.38415 Y4.79549 I34.64023 J318.7938
G2 X113.01597 Y-10.41593 I-3025.42262 J-133.28323
G3 X113.01672 Y-10.43434 I5.59095 J0.21815
G2 X113.56071 Y-30.44308 I-661.77613 J-28.004
G2 X113.33254 Y-38.61892 I-230.56564 J2.3436
G3 X113.09257 Y-47.2575 I237.78104 J-10.92785
G3 X118.60723 Y-58.69656 I14.3243 J-0.14321
G3 X129.46614 Y-62.59676 I10.72278 J12.78753
G3 X142.06712 Y-56.52912 I0.54504 J14.98645
G3 X142.24024 Y-56.28139 I-4.49812 J3.32764
G3 X146.08072 Y-45.45576 I-20.00819 J13.1921
G3 X146.47013 Y-39.00283 I-48.77593 J6.18167
G3 X146.38952 Y-34.40907 I-177.7685 J-0.82176
G2 X146.31362 Y-30.68934 I194.48292 J5.82898
G3 X146.31357 Y-30.685 I-5.59487 J-0.06066
G3 X145.76107 Y-9.8959 I-695.3476 J-8.07821
G3 X145.1335 Y5.47966 I-3348.51186 J-128.97083
G2 X146.75185 Y5.52957 I2.23759 J-46.29558
G2 X150.14021 Y5.38951 I-0.35062 J-49.5393
G3 X150.35826 Y5.37728 I0.42229 J5.57924
G3 X154.37372 Y5.29575 I4.52275 J123.82192
G3 X166.08223 Y9.82715 I0.44912 J16.2318
G3 X170.84682 Y21.25465 I-10.76857 J11.19688
G3 X168.66937 Y29.91634 I-16.67588 J0.41241
G3 X168.51219 Y30.17595 I-4.86312 J-2.76701
G3 X165.63136 Y33.4423 I-12.15786 J-7.8193
G1 F300.0 X164.09418 Y31.60544
G3 F800.0 X159.95554 Y33.8665 I-7.73986 J-9.24879
G3 X159.8904 Y33.88613 I-0.95554 J-3.054
G3 X153.07142 Y34.99991 I-8.02538 J-27.70328
G3 X146.72166 Y35.18435 I-5.96735 J-96.04498
G3 X146.6653 Y35.18363 I0.01272 J-3.19997
G3 X142.13345 Y34.91985 I1.3408 J-62.09759
G1 X142.19905 Y37.60947
G3 X142.19992 Y37.6652 I-3.19905 J0.07803
G3 X141.70617 Y45.13617 I-51.35411 J0.35781
G3 X139.44874 Y52.83116 I-25.50388 J-3.30328
G3 X139.43818 Y52.85326 I-2.8926 J-1.36853
G3 X135.63257 Y57.66281 I-12.66539 J-6.11123
G3 X135.54486 Y57.73147 I-2.01606 J-2.48505
G3 X127.42263 Y60.34147 I-7.79954 J-10.32886
G3 X117.57437 Y56.63937 I-0.229 J-14.34097
G3 X113.30043 Y46.93017 I8.29574 J-9.44703
G3 X113.6187 Y39.05003 I141.29194 J1.76019
G2 X113.85322 Y34.48809 I-427.88494 J-24.28378
G3 X104.05647 Y35.10342 I-19.79286 J-236.83083
G3 X104.03565 Y35.10423 I-0.1346 J-3.19717
G3 X93.98989 Y31.10906 I-0.47768 J-13.42639
G3 X90.09605 Y21.45848 I9.54327 J-9.46139
G3 X91.87347 Y14.20597 I14.11059 J-0.38588
G3 X91.95609 Y14.06605 I2.79587 J1.55663
G3 X98.19893 Y9.12122 I10.06448 J6.29319
G3 X102.72798 Y8.09876 I6.48489 J18.18322
G3 X114.68261 Y7.02712 I34.38927 J316.41177
G2 X115.40935 Y-10.32255 I-3027.72108 J-135.51486
G3 X115.40978 Y-10.33307 I3.19757 J0.12476
G2 X115.95606 Y-30.44075 I-664.16919 J-28.10527
G2 X115.72523 Y-38.72854 I-232.96098 J2.34128
G3 X115.48765 Y-47.28101 I235.38835 J-10.81823
G3 X120.11351 Y-56.83371 I11.92922 J-0.1197
G3 X129.50017 Y-60.20111 I9.21649 J10.92468
G3 X140.14156 Y-55.10462 I0.51101 J12.59079
G3 X140.24057 Y-54.96294 I-2.57256 J1.90314
G3 X143.70037 Y-45.18732 I-18.00852 J11.87365
G3 X144.07496 Y-39.01498 I-46.39558 J5.91323
G3 X143.99541 Y-34.48143 I-175.37333 J-0.80961
G2 X143.91856 Y-30.71531 I196.87703 J5.90134
G3 X143.91853 Y-30.71283 I-3.19981 J-0.03469
G3 X143.36778 Y-9.99171 I-692.95256 J-8.05038
G3 X142.63959 Y7.69872 I-3346.11857 J-128.87502
G2 X146.74435 Y7.92487 I4.7315 J-48.51464
G2 X150.32099 Y7.77788 I-0.34312 J-51.93461
G3 X150.44569 Y7.77088 I0.24151 J3.19087
G3 X154.41274 Y7.69081 I4.43532 J121.42831
G3 X164.42166 Y11.55327 I0.4101 J13.83674
G3 X168.45109 Y21.26634 I-9.108 J9.47076
G3 X166.58756 Y28.73184 I-14.28015 J0.40073
G3 X166.49766 Y28.88031 I-2.78131 J-1.5825
G3 X164.09418 Y31.60544 I-10.14334 J-6.52366
G0 Z3.0
G0 X266.05494 Y21.34551
G0 Z1.0
G1 F300.0 Z-2.5
G3 F800.0 X265.98217 Y19.4329 I15.30373 J-1.53996
G2 X265.21966 Y2.51072 I-240.89574 J2.37646
G1 X265.21963 Y2.51045
G3 X264.42068 Y-15.30633 I251.62965 J-20.21014
G3 X264.42055 Y-15.39622 I5.59495 J-0.05305
G3 X264.65672 Y-29.80282 I734.63672 J4.83799
G3 X264.65826 Y-29.85288 I5.59328 J0.14657
G2 X264.96669 Y-43.90718 I-531.87213 J-18.70307
G3 X269.71523 Y-55.47082 I15.62756 J-0.33944
G3 X269.79688 Y-55.54838 I3.89414 J4.0177
G3 X281.34374 Y-59.94112 I11.17596 J12.00484
G3 X292.89064 Y-55.54837 I0.37096 J16.39748
G3 X292.97224 Y-55.47086 I-3.81251 J4.09524
G3 X297.71953 Y-43.85271 I-10.87881 J11.22416
G3 X297.40514 Y-29.48518 I-554.89281 J-4.95508
G2 X297.1735 Y-15.36786 I713.91954 J18.77457
G2 X297.93659 Y1.61428 I240.89632 J-2.3165
G1 X297.93662 Y1.61455
G3 X298.73501 Y19.37304 I-251.62965 J20.21014
G3 X293.959 Y30.95179 I-15.37521 J0.4324
G3 X282.35934 Y35.47223 I-11.24541 J-11.71337
G3 X270.7598 Y30.95184 I-0.35405 J-16.23415
G3 X266.05494 Y21.34551 I10.59887 J-11.14628
G1 F300.0 X268.4381 Y21.1057
G3 F800.0 X268.37767 Y19.45193 I12.92056 J-1.30015
G2 X267.60716 Y2.31885 I-243.29124 J2.35743
G1 X267.60715 Y2.31869
G3 X266.81577 Y-15.32904 I249.24214 J-20.01838
G3 X266.81569 Y-15.38045 I3.19986 J-0.03034
G3 X267.0511 Y-29.74008 I732.24157 J4.82222
G3 X267.05198 Y-29.76871 I3.1989 J0.08383
G2 X267.36213 Y-43.92429 I-534.26585 J-18.78724
G3 X271.38224 Y-53.75092 I13.23212 J-0.32233
G3 X271.42894 Y-53.79528 I2.22713 J2.2978
G3 X281.34374 Y-57.54521 I9.5439 J10.25174
G3 X291.25857 Y-53.79527 I0.37096 J14.00156
G3 X291.30524 Y-53.75094 I-2.18045 J2.34215
G3 X295.3246 Y-43.89439 I-9.21181 J9.50425
G3 X295.01103 Y-29.55839 I-552.49789 J-4.91341
G2 X294.77822 Y-15.36419 I716.31364 J18.84778
G2 X295.54909 Y1.80615 I243.2916 J-2.32017
G1 X295.5491 Y1.80631
G3 X296.34015 Y19.41922 I-249.24214 J20.01838
G3 X292.30434 Y29.21999 I-12.98034 J0.38622
G3 X282.35935 Y33.07636 I-9.59075 J-9.98157
G3 X272.41444 Y29.22002 I-0.35407 J-13.83829
G3 X268.4381 Y21.1057 I8.94423 J-9.41446
G0 Z3.0
G0 X276.81663 Y38.15666
G0 Z1.0
G1 F300.0 Z-2.5
G3 F800.0 X284.92964 Y36.31059 I7.94617 J16.17108
G3 X297.30299 Y41.13147 I0.21347 J17.74137
G3 X302.79861 Y53.46878 I-10.79844 J12.2028
G3 X297.30299 Y65.80602 I-16.29428 J0.13435
G3 X284.92966 Y70.62691 I-12.15996 J-12.92067
G3 X272.51278 Y65.82272 I-0.16686 J-18.01715
G3 X266.99826 Y53.46872 I10.77954 J-12.2195
G3 X272.51276 Y41.11479 I16.29428 J-0.13435
G3 X276.81663 Y38.15666 I12.25004 J13.21295
G1 F300.0 X277.87295 Y40.30635
G3 F800.0 X284.93297 Y38.70595 I6.88985 J14.02139
G3 X295.68825 Y42.90098 I0.21013 J15.34602
G3 X300.40332 Y53.46877 I-9.1837 J10.43329
G3 X295.68825 Y64.03651 I-13.89899 J0.13436
G3 X284.93298 Y68.23155 I-10.54522 J-11.15116
G3 X274.11944 Y64.04603 I-0.17018 J-15.62179
G3 X269.39356 Y53.46873 I9.17288 J-10.4428
G3 X274.11943 Y42.89148 I13.89899 J-0.13436
G3 X277.87295 Y40.30635 I10.64337 J11.43626
G0 Z3.0
G0 X274.88066 Y36.4606
G0 Z1.0
G1 F300.0 Z-2.5
G2 F800.0 X270.90275 Y39.33473 I9.88214 J17.86715
G2 X264.59819 Y53.46871 I12.38979 J13.99964
G2 X270.90278 Y67.6028 I18.69414 J0.13451
G2 X284.92635 Y73.02702 I13.86002 J-14.99304
G2 X298.92108 Y67.57887 I0.21669 J-20.14167
G2 X305.19869 Y53.46879 I-12.41675 J-13.97574
G2 X298.92107 Y39.35862 I-18.69414 J-0.13451
G2 X292.29797 Y35.22288 I-13.77796 J14.69334
G2 X295.61699 Y32.68704 I-9.58437 J-15.98446
G2 X301.13469 Y19.32839 I-12.25719 J-12.88159
G2 X300.32891 Y1.42241 I-254.82773 J2.4963
G1 X300.32888 Y1.42202
G3 X299.57357 Y-15.37161 I237.74094 J-19.10638
G3 X299.80404 Y-29.41187 I711.7511 J4.661
G2 X300.11926 Y-43.81243 I-556.97732 J-19.39593
G2 X294.64257 Y-57.19422 I-18.02584 J-0.43427
G2 X294.52597 Y-57.30498 I-5.56445 J5.74109
G2 X281.34373 Y-62.34166 I-12.81127 J13.76133
G2 X268.16155 Y-57.305 I-0.3709 J18.79812
G2 X268.04488 Y-57.19417 I5.44783 J5.85187
G2 X262.56648 Y-43.89295 I12.54938 J12.94755
G3 X262.25974 Y-29.93722 I-529.78035 J-4.663
G2 X262.25754 Y-29.86569 I7.99026 J0.28097
G2 X262.0206 Y-15.41203 I736.79972 J19.30746
G2 X262.02078 Y-15.28357 I7.99503 J0.05265
G2 X262.82734 Y2.70259 I254.8285 J-2.41612
G1 X262.82737 Y2.70298
G3 X263.58189 Y19.41724 I-237.74094 J19.10638
G2 X269.10183 Y32.68711 I17.77677 J0.38831
G2 X274.88066 Y36.4606 I12.90346 J-13.44903
G0 Z3.0
G0 X252.06357 Y24.20355
G0 Z1.0
G1 F300.0 Z-2.5
G3 F800.0 X249.75159 Y27.87429 I-27.66679 J-14.86224
G3 X249.54724 Y28.14184 I-6.45471 J-4.71804
G3 X236.95739 Y36.77248 I-20.4177 J-16.28614
G3 X236.95321 Y36.77379 I-2.3963 J-7.62765
G3 X224.03243 Y38.65176 I-12.29695 J-39.21752
G3 X206.95887 Y35.19873 I-0.16402 J-43.12576
G3 X206.90105 Y35.17382 I3.13488 J-7.35498
G3 X206.40115 Y34.95261 I18.7834 J-43.12446
G3 X206.83894 Y50.48163 I-280.85593 J15.68856
G3 X206.55918 Y58.29621 I-98.34562 J0.39149
G3 X205.05377 Y67.04746 I-42.02274 J-2.72373
G3 X199.07698 Y76.78018 I-20.15448 J-5.67521
G3 X198.7316 Y77.08019 I-5.4137 J-5.88346
G3 X186.91666 Y81.15316 I-11.40709 J-13.91692
G3 X173.93692 Y76.25449 I-0.19178 J-19.13704
G3 X168.03957 Y62.76273 I11.31519 J-12.98072
G3 X168.04064 Y62.72902 I7.99168 J0.23727
G3 X168.84274 Y54.52978 I64.75638 J2.19601
G3 X168.87046 Y54.36959 I7.89163 J1.28272
G2 X169.51721 Y48.6237 I-41.01989 J-7.52655
G2 X169.06526 Y36.82554 I-331.03926 J6.7735
G1 X168.91007 Y34.26492
G3 X168.89688 Y33.93402 I7.98056 J-0.48367
G3 X168.89097 Y33.6231 I1628.96132 J-31.13176
G3 X161.38742 Y38.44293 I-12.53665 J-11.26645
G3 X161.22467 Y38.49196 I-2.38742 J-7.63043
G3 X153.32168 Y39.7888 I-9.35965 J-32.30911
G3 X146.96225 Y39.98021 I-6.21761 J-100.83387
G3 X146.45844 Y45.77673 I-56.11644 J-1.9572
G3 X143.78329 Y54.88191 I-30.25616 J-3.94384
G3 X143.75692 Y54.93711 I-7.22715 J-3.41928
G3 X138.65364 Y61.38666 I-16.98412 J-8.19508
G3 X138.43451 Y61.5582 I-5.03714 J-6.2089
G3 X127.40178 Y65.13736 I-10.68919 J-14.15559
G3 X114.38398 Y60.21935 I-0.20815 J-19.13687
G3 X108.50583 Y46.85176 I11.48613 J-13.027
G3 X108.77348 Y39.66209 I146.08654 J1.8386
G3 X104.25816 Y39.89437 I-14.71312 J-242.00483
G3 X104.20614 Y39.89639 I-0.33629 J-7.98812
G3 X90.57971 Y34.48021 I-0.64817 J-18.21855
G3 X85.72356 Y25.55715 I12.95346 J-12.83253
G3 X83.52787 Y27.48499 I-15.24328 J-15.14686
G3 X83.46513 Y27.53245 I-4.85444 J-6.35276
G3 X74.28823 Y32.71408 I-24.61703 J-32.88065
G3 X64.91883 Y36.0151 I-27.27092 J-62.45678
G3 X54.11445 Y37.55688 I-11.38823 J-41.17769
G3 X15.19239 Y21.90457 I-0.81198 J-54.20011
G3 X8.0 Y13.65274 I34.64578 J-37.45805
G1 Y107.0
G1 X304.0
G2 X346.0 Y65.0 I0.0 J-42.0
G1 Y-65.0
G2 X304.0 Y-107.0 I-42.0 J0.0
G1 X8.0
G1 Y-48.8381
G3 X10.23468 Y-51.55609 I32.83781 J24.72101
G3 X10.40912 Y-51.74447 I5.95282 J5.33734
G3 X27.00047 Y-61.87499 I27.36908 J26.17239
G3 X27.00685 Y-61.87688 I2.27548 J7.66456
G3 X44.58713 Y-64.2912 I16.70857 J56.45221
G3 X44.78355 Y-64.28588 I-0.11838 J7.99432
G3 X56.3561 Y-62.06443 I-1.54965 J39.32706
G3 X65.17141 Y-58.71656 I-33.80801 J102.30008
G3 X70.62839 Y-62.29043 I30.51336 J40.6381
G3 X70.69459 Y-62.32753 I3.94208 J6.9558
G3 X77.28231 Y-64.27342 I7.66747 J13.83374
G3 X77.73656 Y-64.29155 I0.54581 J7.97655
G3 X90.23918 Y-59.68511 I0.21404 J18.68931
G3 X96.29099 Y-46.71181 I-10.30098 J12.7034
G3 X96.15139 Y-45.35047 I-7.99411 J-0.13194
G3 X95.09317 Y-41.85064 I-17.01554 J-3.23495
G3 X94.25753 Y-39.83051 I-67.6487 J-26.80057
G3 X94.25342 Y-39.821 I-7.34131 J-3.16677
G3 X92.51285 Y-35.92285 I-171.78546 J-74.36619
G3 X92.50355 Y-35.90271 I-7.26285 J-3.34278
G2 X89.21746 Y-28.56237 I276.27189 J128.08602
G2 X87.88253 Y-20.19314 I39.33355 J10.56494
G3 X87.87479 Y-20.06795 I-7.98357 J-0.43104
G2 X87.54201 Y-9.92297 I137.47637 J9.58746
G3 X87.54198 Y-9.85185 I-7.99513 J0.03234
G2 X87.90576 Y0.38913 I126.99268 J0.61595
G2 X88.64235 Y5.45614 I46.23458 J-4.13412
G3 X90.16088 Y8.6512 I-13.01415 J8.14364
G3 X96.62055 Y4.59313 I11.8597 J11.70803
G3 X102.22517 Y3.32997 I8.06327 J22.71131
G3 X110.07896 Y2.57368 I34.89208 J321.18056
G2 X110.6178 Y-10.50951 I-3023.11743 J-131.06141
G3 X110.61886 Y-10.53581 I7.98912 J0.31172
G2 X111.16056 Y-30.44532 I-659.37828 J-27.90254
G2 X110.93505 Y-38.50909 I-228.16549 J2.34585
G3 X110.69269 Y-47.23398 I240.17853 J-11.03769
G3 X117.0976 Y-60.56273 I16.72419 J-0.16673
G3 X129.43249 Y-64.99704 I12.23241 J14.6537
G3 X143.99654 Y-57.95648 I0.57869 J17.38673
G3 X144.24391 Y-57.60248 I-6.42754 J4.755
G3 X148.46571 Y-45.72556 I-22.01187 J14.5132
G3 X148.8701 Y-38.99067 I-51.16092 J6.45147
G3 X148.78843 Y-34.33657 I-180.16847 J-0.83392
G2 X148.71348 Y-30.66333 I192.08402 J5.75648
G3 X148.71341 Y-30.65712 I-7.99473 J-0.08667
G3 X148.15915 Y-9.79991 I-697.74744 J-8.10609
G3 X147.63679 Y3.11461 I-3350.90994 J-129.06683
G2 X149.95908 Y2.99635 I-1.23556 J-47.12435
G3 X150.27066 Y2.97888 I0.60342 J7.9724
G3 X154.33645 Y2.89588 I4.61036 J126.22032
G3 X167.74613 Y8.09758 I0.48639 J18.63167
G3 X168.61117 Y8.98926 I-12.43247 J12.92645
G3 X168.73826 Y-18.4671 I1629.24703 J-6.187
G2 X168.27606 Y-33.98142 I-632.19829 J11.07048
G3 X168.27197 Y-34.09932 I7.98813 J-0.33616
G2 X167.98328 Y-37.73429 I-35.09659 J0.95845
G3 X166.95944 Y-43.1955 I22.16614 J-6.98215
G3 X166.9427 Y-43.63875 I7.97806 J-0.52325
G3 X173.11544 Y-57.07369 I17.32948 J-0.17341
G3 X186.03404 Y-61.87042 I12.92129 J15.00511
G3 X196.36658 Y-58.87178 I0.3343 J18.14904
G3 X196.63728 Y-58.68504 I-4.40378 J6.67308
G3 X203.11019 Y-50.69964 I-11.4662 J15.91057
G3 X203.18396 Y-50.52721 I-7.31331 J3.23089
G3 X204.84789 Y-44.66336 I-24.31925 J10.06886
G3 X205.517 Y-39.90918 I-66.96309 J11.84862
G3 X205.51832 Y-39.89646 I-7.95157 J0.8341
G3 X206.18048 Y-30.86778 I-151.58554 J15.65577
G3 X206.18077 Y-30.86107 I-7.98764 J0.34769
G3 X206.52714 Y-15.50151 I-381.57543 J16.28852
G2 X209.90792 Y-9.8213 I157.26983 J-89.75863
G3 X209.96142 Y-9.73379 I-6.7946 J4.21387
G2 X214.47137 Y-3.42289 I42.53428 J-25.62932
G2 X219.22929 Y0.49099 I13.56236 J-11.63817
G2 X220.30205 Y0.99693 I4.83205 J-8.85528
G2 X220.3024 Y-1.18895 I-85.48106 J-1.10647
G2 X220.08398 Y-6.71823 I-110.14911 J1.58226
G3 X220.07503 Y-6.88279 I7.97852 J-0.51614
G3 X219.9114 Y-13.01914 I176.96123 J-7.78932
G3 X219.91229 Y-13.23477 I7.99485 J-0.07461
G3 X221.38371 Y-32.24901 I160.0826 J2.82395
G3 X225.01677 Y-51.0613 I137.65523 J16.82725
G3 X231.27934 Y-60.96782 I18.6194 J4.8378
G3 X231.69651 Y-61.29453 I5.13553 J6.12777
G3 X243.07694 Y-64.84014 I10.87909 J14.88208
G3 X255.89231 Y-60.05112 I0.08347 J19.31805
G3 X262.07159 Y-46.59886 I-10.76992 J13.0925
G3 X261.46005 Y-41.99989 I-20.80108 J-0.42582
G2 X258.97623 Y-27.8223 I130.28586 J30.13158
G2 X257.44491 Y-12.82039 I2085.23018 J220.42882
G2 X256.59805 Y6.21362 I2347.31914 J113.97341
G3 X256.58421 Y6.4609 I-7.98867 J-0.32299
G3 X254.89554 Y16.83552 I-58.34679 J-4.17233
G3 X252.06357 Y24.20355 I-30.49876 J-7.4942
G0 Z3.0
G0 Y109.4
G0 Z1.0
G1 F300.0 Z-2.5
G1 F800.0 X304.0
G2 X348.4 Y65.0 I0.0 J-44.4
G1 Y-65.0
G2 X304.0 Y-109.4 I-44.4 J0.0
G1 X5.6
G1 Y-40.12374
G3 X12.0216 Y-49.95393 I35.23781 J16.00664
G3 X12.14368 Y-50.08576 I4.1659 J3.73518
G3 X27.68352 Y-59.57424 I25.63452 J24.51368
G3 X27.68799 Y-59.57556 I1.59243 J5.36381
G3 X44.5516 Y-61.89146 I16.02743 J54.1509
G3 X44.68905 Y-61.88774 I-0.08285 J5.59459
G3 X55.57914 Y-59.79353 I-1.45515 J36.92892
G3 X65.51229 Y-55.94629 I-33.03105 J100.02918
G3 X71.81172 Y-60.20244 I30.17249 J37.86783
G3 X71.85805 Y-60.2284 I2.75875 J4.86781
G3 X77.44616 Y-61.87902 I6.50401 J11.73461
G3 X77.76405 Y-61.89171 I0.38197 J5.58215
G3 X88.69404 Y-57.84807 I0.18656 J16.28947
G3 X93.89131 Y-46.75141 I-8.75584 J10.86636
G3 X93.79362 Y-45.79872 I-5.59444 J-0.09234
G3 X92.87197 Y-42.76006 I-14.65778 J-2.7867
G3 X92.05381 Y-40.78111 I-65.4275 J-25.89115
G3 X92.05094 Y-40.77445 I-5.13759 J-2.21617
G3 X90.33269 Y-36.92628 I-169.58298 J-73.41273
G3 X90.32618 Y-36.91219 I-5.08269 J-2.33934
G2 X86.94583 Y-29.35561 I278.44926 J129.0955
G2 X85.48602 Y-20.32253 I41.60518 J11.35819
G3 X85.4806 Y-20.23492 I-5.58706 J-0.30165
G2 X85.14203 Y-9.91326 I139.87055 J9.75443
G3 X85.14201 Y-9.86349 I-5.59515 J0.02264
G2 X85.51386 Y0.58684 I129.39265 J0.62759
G2 X86.38342 Y6.38298 I48.62647 J-4.33182
G3 X88.57927 Y13.76328 I-10.75522 J7.2168
G3 X86.35004 Y21.01911 I-13.30669 J-0.11788
G3 X86.3414 Y21.03206 I-4.65767 J-3.10038
G3 X82.07066 Y25.57802 I-15.86111 J-10.62178
G3 X82.02675 Y25.61123 I-3.39724 J-4.44579
G3 X73.35698 Y30.50189 I-23.17865 J-30.95943
G3 X64.28372 Y33.70066 I-26.33966 J-60.24459
G3 X54.08008 Y35.15713 I-10.75313 J-38.86324
G3 X16.85132 Y20.16974 I-0.77761 J-51.80035
G3 X5.6 Y4.62735 I32.98685 J-35.72323
G1 Y109.4
G1 X252.06357
G1 F300.0 Y111.8
G1 F800.0 X304.0
G2 X350.8 Y65.0 I0.0 J-46.8
G1 Y-65.0
G2 X304.0 Y-111.8 I-46.8 J0.0
G1 X3.2
G1 Y111.8
G1 X252.06357
G0 Z3.0
G0 X84.81283 Y18.94215
G0 Z1.0
G1 F300.0 Z-2.5
G3 F800.0 X84.35618 Y19.6919 I-9.54024 J-5.29676
G3 X84.35124 Y19.6993 I-2.66381 J-1.77317
G3 X80.61637 Y23.67486 I-13.87095 J-9.28902
G3 X80.59126 Y23.69385 I-1.94294 J-2.54263
G3 X72.42796 Y28.29393 I-21.74316 J-29.04205
G3 X63.64983 Y31.39085 I-25.41065 J-58.03663
G3 X54.04579 Y32.76217 I-10.11924 J-36.55344
G3 X18.50691 Y18.43832 I-0.74332 J-49.4054
G3 X3.61227 Y-16.06062 I31.33126 J-33.99181
G3 X5.58066 Y-32.78794 I65.25495 J-0.8006
G3 X13.80494 Y-48.35497 I35.25715 J8.67085
G3 X13.87476 Y-48.43037 I2.38256 J2.13622
G3 X28.36521 Y-57.27809 I23.90344 J22.85828
G3 X28.36777 Y-57.27885 I0.91074 J3.06766
G3 X44.51613 Y-59.49652 I15.34766 J51.85419
G3 X44.59475 Y-59.49439 I-0.04738 J3.19965
G3 X54.80321 Y-57.52734 I-1.36085 J34.53558
G3 X65.8799 Y-53.14717 I-32.25512 J97.76299
G3 X72.99269 Y-58.11862 I29.80488 J35.06871
G3 X73.01919 Y-58.13347 I1.57778 J2.78399
G3 X77.60967 Y-59.48941 I5.34288 J9.63967
G3 X77.79148 Y-59.49667 I0.21846 J3.19253
G3 X87.15236 Y-56.01416 I0.15913 J13.89443
G3 X91.49644 Y-46.79094 I-7.21416 J9.03245
G3 X91.44057 Y-46.24608 I-3.19956 J-0.05281
G3 X90.65588 Y-43.66939 I-12.30472 J-2.33934
G3 X89.85451 Y-41.72981 I-63.21142 J-24.98182
G3 X89.85286 Y-41.726 I-2.93829 J-1.26747
G3 X88.15689 Y-37.92771 I-167.38491 J-72.46118
G3 X88.15316 Y-37.91965 I-2.90689 J-1.33791
G2 X84.68044 Y-30.15096 I280.62228 J130.10296
G2 X83.0943 Y-20.45166 I43.87057 J12.15354
G3 X83.0912 Y-20.40155 I-3.19535 J-0.17252
G2 X82.74685 Y-9.90357 I142.25995 J9.92107
G3 X82.74684 Y-9.8751 I-3.19997 J0.01295
G2 X83.12674 Y0.78391 I131.78783 J0.63921
G2 X84.14494 Y7.36173 I51.0136 J-4.52889
G3 X86.1842 Y13.73754 I-8.51675 J6.23805
G3 X84.81283 Y18.94215 I-10.91162 J-0.09215
G1 F300.0 Z-5.0
G3 F800.0 X84.35618 Y19.6919 I-9.54024 J-5.29676
G3 X84.35124 Y19.6993 I-2.66381 J-1.77317
G3 X80.61637 Y23.67486 I-13.87095 J-9.28902
G3 X80.59126 Y23.69385 I-1.94294 J-2.54263
G3 X72.42796 Y28.29393 I-21.74316 J-29.04205
G3 X63.64983 Y31.39085 I-25.41065 J-58.03663
G3 X54.04579 Y32.76217 I-10.11924 J-36.55344
G3 X18.50691 Y18.43832 I-0.74332 J-49.4054
G3 X3.61227 Y-16.06062 I31.33126 J-33.99181
G3 X5.58066 Y-32.78794 I65.25495 J-0.8006
G3 X13.80494 Y-48.35497 I35.25715 J8.67085
G3 X13.87476 Y-48.43037 I2.38256 J2.13622
G3 X28.36521 Y-57.27809 I23.90344 J22.85828
G3 X28.36777 Y-57.27885 I0.91074 J3.06766
G3 X44.51613 Y-59.49652 I15.34766 J51.85419
G3 X44.59475 Y-59.49439 I-0.04738 J3.19965
G3 X54.80321 Y-57.52734 I-1.36085 J34.53558
G3 X65.8799 Y-53.14717 I-32.25512 J97.76299
G3 X72.99269 Y-58.11862 I29.80488 J35.06871
G3 X73.01919 Y-58.13347 I1.57778 J2.78399
G3 X77.60967 Y-59.48941 I5.34288 J9.63967
G3 X77.79148 Y-59.49667 I0.21846 J3.19253
G3 X87.15236 Y-56.01416 I0.15913 J13.89443
G3 X91.49644 Y-46.79094 I-7.21416 J9.03245
G3 X91.44057 Y-46.24608 I-3.19956 J-0.05281
G3 X90.65588 Y-43.66939 I-12.30472 J-2.33934
G3 X89.85451 Y-41.72981 I-63.21142 J-24.98182
G3 X89.85286 Y-41.726 I-2.93829 J-1.26747
G3 X88.15689 Y-37.92771 I-167.38491 J-72.46118
G3 X88.15316 Y-37.91965 I-2.90689 J-1.33791
G2 X84.68044 Y-30.15096 I280.62228 J130.10296
G2 X83.0943 Y-20.45166 I43.87057 J12.15354
G3 X83.0912 Y-20.40155 I-3.19535 J-0.17252
G2 X82.74685 Y-9.90357 I142.25995 J9.92107
G3 X82.74684 Y-9.8751 I-3.19997 J0.01295
G2 X83.12674 Y0.78391 I131.78783 J0.63921
G2 X84.14494 Y7.36173 I51.0136 J-4.52889
G3 X86.1842 Y13.73754 I-8.51675 J6.23805
G3 X84.81283 Y18.94215 I-10.91162 J-0.09215
G0 Z3.0
G0 X97.19824 Y-5.5539
G0 Z-1.5
G1 F300.0 Z-5.0
G3 F800.0 X100.8377 Y-6.17558 I7.48557 J32.85833
G2 X101.02509 Y-10.8838 I-3013.87618 J-122.31216
G3 X101.02745 Y-10.94168 I17.58182 J0.68601
G2 X101.55995 Y-30.45335 I-649.78686 J-27.49666
G2 X101.5273 Y-32.55044 I-218.56487 J2.35387
G3 X101.23351 Y-31.9091 I-179.05935 J-81.63674
G3 X101.21304 Y-31.86479 I-15.98351 J-7.35652
G2 X98.32495 Y-25.43515 I267.5624 J124.0481
G2 X97.46857 Y-19.67558 I30.22606 J7.43772
G3 X97.45153 Y-19.40008 I-17.56961 J-0.94859
G2 X97.14193 Y-9.96181 I127.89963 J8.91959
G3 X97.14187 Y-9.80528 I-17.59506 J0.07118
G2 X97.19824 Y-5.5539 I117.3928 J0.56939
G0 Z3.0
G0 X157.64062 Y-6.56953
G0 Z-1.5
G1 F300.0 Z-5.0
G3 F800.0 X159.02524 Y-6.39601 I-2.81778 J28.09707
G3 X159.13716 Y-18.44494 I1638.83296 J9.19828
G2 X158.68455 Y-33.57779 I-622.59719 J11.04832
G3 X158.67555 Y-33.83725 I17.57964 J-0.73979
G2 X158.54774 Y-35.78412 I-25.50017 J0.69638
G3 X158.43713 Y-36.18515 I31.60168 J-8.93233
G3 X158.38405 Y-34.04663 I-189.73549 J-3.63944
G2 X158.31292 Y-30.55926 I182.4884 J5.46654
G3 X158.31276 Y-30.5456 I-17.59417 J-0.19074
G3 X157.75148 Y-9.41597 I-707.34679 J-8.21761
G3 X157.64062 Y-6.56953 I-3360.50227 J-129.45077
G0 Z3.0
G0 X159.56322 Y-79.93365
G0 Z-1.5
G1 F300.0 Z-5.0
G3 F800.0 X160.54281 Y-80.6 I26.47351 J37.86507
G1 X158.81746
G3 X159.56322 Y-79.93365 I-28.80628 J32.98969
G1 F300.0 X157.9438 Y-78.16236
G3 F800.0 X159.35705 Y-76.80755 I-27.93261 J30.55205
G3 X170.44121 Y-83.0 I26.67968 J34.73897
G1 X151.48742
G3 X157.9438 Y-78.16236 I-21.47623 J35.38969
G0 Z3.0
G0 X107.40147 Y-83.0
G0 Z-1.5
G1 F300.0 Z-5.0
G1 F800.0 X98.53918
G3 X103.10323 Y-80.09612 I-20.58858 J37.39776
G3 X107.40147 Y-83.0 I26.22678 J34.18709
G1 F300.0 X108.62288 Y-80.93405
G3 F800.0 X119.53204 Y-85.4 I20.70713 J35.02502
G1 X84.23277
G3 X103.13488 Y-77.05188 I-6.28217 J39.79776
G3 X103.50606 Y-77.35201 I24.28199 J29.65117
G3 X108.62288 Y-80.93405 I25.82395 J31.44298
G0 Z3.0
G0 X72.20345 Y-85.4
G0 Z-1.5
G1 F300.0 Z-5.0
G1 F800.0 X51.15158
G3 X63.01444 Y-82.61779 I-7.91768 J60.44118
G3 X72.20345 Y-85.4 I15.34763 J34.12399
G0 Z3.0
G0 X34.77968
G0 Z-1.5
G1 F300.0 Z-5.0
G1 F800.0 X29.6
G1 Y-84.65002
G3 X34.77968 Y-85.4 I14.11542 J79.22535
G0 Z3.0
G0 X77.54364 Y69.83423
G0 Z-1.5
G1 F300.0 Z-5.0
G3 F800.0 X74.44175 Y70.73278 I-30.52633 J-99.57693
G3 X73.4465 Y71.0 I-20.91116 J-75.89537
G1 X78.10717
G3 X77.54364 Y69.83423 I47.76293 J-23.80765
G1 F300.0 X79.71693 Y68.816
G3 F800.0 X79.05909 Y67.35236 I46.15317 J-21.62365
G3 X78.46263 Y67.02738 I24.49889 J-45.67452
G3 X73.80702 Y68.41823 I-31.44532 J-96.77008
G3 X54.59623 Y71.15343 I-20.27643 J-73.58082
G3 X41.6 Y70.37964 I-1.29376 J-87.79666
G1 Y73.4
G1 X82.15676
G3 X79.71693 Y68.816 I43.71335 J-26.20765
G1 F300.0 X81.89023 Y67.79777
G3 F800.0 X80.93767 Y65.62844 I43.97988 J-20.60542
G3 X78.72003 Y64.41435 I22.6203 J-43.95059
G3 X73.17227 Y66.10369 I-31.70271 J-94.15705
G3 X54.5618 Y68.75368 I-19.64168 J-71.26628
G3 X39.2 Y67.5906 I-1.25933 J-85.39691
G1 Y75.8
G1 X86.62198
G3 X81.89023 Y67.79777 I39.24812 J-28.60765
G1 F300.0 X84.06352 Y66.77954
G3 F800.0 X82.82911 Y63.89327 I41.80658 J-19.58719
G3 X78.99394 Y61.78316 I20.72887 J-42.21543
G3 X72.53751 Y63.78915 I-31.97663 J-91.52586
G3 X54.52737 Y66.35393 I-19.00692 J-68.95174
G3 X36.8 Y64.706 I-1.22489 J-82.99715
G1 Y78.2
G1 X91.66522
G3 X84.06352 Y66.77954 I34.20488 J-31.00765
G1 F300.0 X86.23682 Y65.76131
G3 F800.0 X84.73582 Y62.14475 I39.63329 J-18.56896
G3 X79.28676 Y59.13118 I18.82216 J-40.46691
G3 X71.90273 Y61.47462 I-32.26945 J-88.87388
G3 X54.49294 Y63.95417 I-18.37214 J-66.63721
G3 X34.4 Y61.71527 I-1.19046 J-80.5974
G1 Y80.6
G1 X97.58647
G3 X96.81708 Y79.92651 I29.60716 J-34.59951
G3 X86.23682 Y65.76131 I29.05302 J-32.73417
G1 F300.0 X88.41011 Y64.74308
G3 F800.0 X86.66091 Y60.38015 I37.46 J-17.55073
G3 X79.60142 Y56.45518 I16.89707 J-38.70231
G3 X71.26795 Y59.16009 I-32.58411 J-86.19788
G3 X54.45851 Y61.55442 I-17.73735 J-64.32267
G3 X32.0 Y58.60578 I-1.15603 J-78.19765
G1 Y83.0
G1 X105.01428
G3 X98.41412 Y78.13501 I22.17935 J-36.99951
G3 X88.41011 Y64.74308 I27.45599 J-30.94266
G1 F300.0 X90.5834 Y63.72485
G3 F800.0 X88.60843 Y58.59594 I35.2867 J-16.5325
G3 X79.94154 Y53.75119 I14.94955 J-36.9181
G3 X70.63314 Y56.84556 I-32.92423 J-83.49389
G3 X54.42408 Y59.15467 I-17.10255 J-62.00815
G3 X29.6 Y55.36213 I-1.12161 J-75.79789
G1 Y85.4
G1 X116.83682
G3 X100.01116 Y76.3435 I10.35681 J-39.39951
G3 X90.5834 Y63.72485 I25.85895 J-29.15115
G0 Z3.0
G0 X137.9278 Y85.4
G0 Z-1.5
G1 F300.0 Z-5.0
G1 F800.0 X153.3549
G3 X150.10911 Y79.76533 I31.89721 J-22.12623
G3 X137.9278 Y85.4 I-22.36379 J-32.36272
G1 F300.0 X137.30657 Y83.08179
G3 F800.0 X127.32307 Y84.33828 I-9.56125 J-35.67919
G3 X101.60818 Y74.55198 I-0.12944 J-38.33778
G3 X90.58377 Y56.7874 I24.26192 J-27.35963
G3 X80.31168 Y51.01418 I12.9742 J-35.10956
G3 X69.99832 Y54.53104 I-33.29437 J-80.75688
G3 X54.38966 Y56.75491 I-16.46773 J-59.69362
G3 X27.2 Y51.9653 I-1.08719 J-73.39814
G1 Y87.8
G1 X158.32834
G3 X151.12395 Y75.98966 I26.92377 J-24.52623
G3 X150.75002 Y76.29698 I-24.35115 J-29.24763
G3 X150.00467 Y76.88045 I-17.13352 J-21.11922
G3 X137.30657 Y83.08179 I-22.25935 J-29.47784
G1 F300.0 X136.68534 Y80.76359
G3 F800.0 X127.33275 Y81.93822 I-8.94002 J-33.36098
G3 X103.20521 Y72.76045 I-0.13912 J-35.93773
G3 X92.59436 Y54.94803 I22.6649 J-25.56811
G3 X80.7177 Y48.23774 I10.96361 J-33.27019
G3 X69.36348 Y52.21652 I-33.70038 J-77.98044
G3 X54.35524 Y54.35516 I-15.83289 J-57.37911
G3 X24.8 Y48.39129 I-1.05277 J-70.99839
G1 Y90.2
G1 X164.4267
G3 X162.80285 Y88.83545 I22.29818 J-28.18388
G3 X152.28129 Y71.65791 I22.44926 J-25.56168
G3 X149.23798 Y74.43319 I-25.5085 J-24.91589
G3 X148.5584 Y74.96517 I-15.62147 J-19.25543
G3 X136.68534 Y80.76359 I-20.81308 J-27.56256
G1 F300.0 X136.06411 Y78.44538
G3 F800.0 X127.34245 Y79.53816 I-8.31879 J-31.04278
G3 X104.80222 Y70.96892 I-0.14882 J-33.53767
G3 X94.65072 Y53.06865 I21.06788 J-23.77658
G3 X81.1855 Y45.43062 I8.90726 J-31.39081
G3 X79.88146 Y45.98449 I-22.3374 J-50.77882
G3 X68.72861 Y49.90201 I-32.86415 J-75.72719
G3 X54.32083 Y51.95541 I-15.19802 J-55.0646
G3 X22.4 Y44.60909 I-1.01835 J-68.59863
G1 Y92.6
G1 X172.96175
G3 X164.3935 Y87.03825 I13.76313 J-30.58388
G3 X153.76505 Y66.17152 I20.8586 J-23.76448
G3 X147.72593 Y72.5694 I-26.99225 J-19.4295
G3 X147.11213 Y73.04989 I-14.10942 J-17.39164
G3 X136.06411 Y78.44538 I-19.36681 J-25.64728
G0 Z3.0
G0 X235.00157 Y75.8
G0 Z-1.5
G1 F300.0 Z-5.0
G1 F800.0 X238.60702
G3 X236.32408 Y70.4394 I44.6853 J-22.19677
G3 X235.07891 Y75.52869 I-71.78764 J-14.86692
G3 X235.00157 Y75.8 I-50.17962 J-14.15643
G1 F300.0 Y78.2
G1 F800.0 X242.66305
G3 X237.51613 Y66.26337 I40.62927 J-24.59677
G3 X234.56067 Y66.75124 I-12.85988 J-68.7071
G3 X232.7693 Y74.87621 I-70.02424 J-11.17876
G3 X231.70444 Y78.2 I-47.87002 J-13.50396
G1 X235.00157
G1 F300.0 Y80.6
G1 F800.0 X247.17171
G3 X239.28633 Y63.45196 I36.12062 J-26.99677
G3 X232.4493 Y64.60513 I-14.63008 J-65.89569
G3 X230.4597 Y74.22375 I-67.91287 J-9.03265
G3 X228.15672 Y80.6 I-45.56041 J-12.85149
G1 X235.00157
G1 F300.0 Y83.0
G1 F800.0 X252.33008
G3 X241.16318 Y60.52897 I30.96224 J-29.39677
G3 X230.29261 Y62.41204 I-16.50693 J-62.97271
G3 X228.15009 Y73.57129 I-65.75617 J-6.83956
G3 X224.29077 Y83.0 I-43.2508 J-12.19903
G1 X235.00157
G1 F300.0 Y85.4
G1 F800.0 X258.48913
G3 X256.41077 Y83.62053 I26.27367 J-32.79024
G3 X243.18242 Y57.45702 I26.88155 J-30.01731
G3 X228.08177 Y60.16286 I-18.52616 J-59.90076
G3 X225.84047 Y72.91883 I-63.54534 J-4.59037
G3 X220.00159 Y85.4 I-40.94119 J-11.54658
G1 X235.00157
G1 F300.0 Y87.8
G1 F800.0 X266.56317
G3 X258.02107 Y81.8409 I18.19963 J-35.19024
G3 X245.40166 Y54.15096 I25.27125 J-28.23767
G3 X242.71196 Y55.08982 I-16.27212 J-42.29525
G3 X242.69774 Y55.09428 I-8.15087 J-25.94499
G3 X225.83278 Y57.84502 I-18.04148 J-57.53802
G3 X225.71182 Y59.64688 I-117.33946 J-6.97191
G3 X223.53086 Y72.26639 I-61.17539 J-4.0744
G3 X215.10947 Y87.8 I-38.63157 J-10.89414
G1 X235.00157
G0 Z3.0
G0 X314.75853 Y82.33246
G0 Z-1.5
G1 F300.0 Z-5.0
G2 F800.0 X324.20197 Y67.83555 I-10.75853 J-17.33246
G3 X314.75853 Y82.33246 I-37.69764 J-14.23242
G0 Z3.0
G0 X319.13388 Y-68.78492
G0 Z-1.5
G1 F300.0 Z-5.0
G2 F800.0 X308.5403 Y-79.92467 I-15.13388 J3.78492
G3 X312.51467 Y-76.62768 I-26.82559 J36.38103
G3 X313.01627 Y-76.1512 I-23.43654 J25.17456
G3 X319.13388 Y-68.78492 I-30.92285 J31.9045
G1 F300.0 X321.46217 Y-69.36721
G2 F800.0 X304.0 Y-83.0 I-17.46217 J4.36721
G1 X298.30323
G3 X310.87933 Y-74.87107 I-16.58853 J39.45636
G3 X311.34594 Y-74.42784 I-21.80121 J23.41795
G3 X322.0 Y-57.44048 I-29.25251 J30.18114
G1 Y-65.0
G2 X321.46217 Y-69.36721 I-18.0 J0.0
G1 F300.0 X323.79046 Y-69.94951
G2 F800.0 X304.0 Y-85.4 I-19.79046 J4.94951
G1 X252.32848
G3 X264.50055 Y-80.43483 I-9.16808 J39.87791
G3 X281.34369 Y-83.94362 I16.47229 J36.89129
G3 X309.244 Y-73.11446 I0.37101 J40.39997
G3 X309.6756 Y-72.70447 I-20.16587 J21.66134
G3 X321.71719 Y-43.48574 I-27.58217 J28.45778
G3 X321.39421 Y-28.75381 I-578.89047 J-5.32205
G2 X321.1743 Y-15.40842 I689.93047 J18.0432
G2 X321.85946 Y-0.30832 I216.89552 J-2.27594
G1 X321.85958 Y-0.30687
G3 X322.73213 Y18.96531 I-275.55261 J22.13156
G3 X320.76493 Y32.12383 I-39.37232 J0.84013
G3 X324.4 Y39.63788 I-34.26038 J21.21044
G1 Y-65.0
G2 X323.79046 Y-69.94951 I-20.4 J0.0
G0 Z3.0
G0 X213.61869 Y-80.6
G0 Z-1.5
G1 F300.0 Z-5.0
G1 F800.0 X211.36374
G3 X212.07231 Y-80.10279 I-19.40094 J28.40129
G3 X212.62013 Y-79.70182 I-26.90122 J37.32832
G3 X213.61869 Y-80.6 I31.01604 J33.47832
G1 F300.0 Y-83.0
G1 F800.0 X201.66512
G3 X209.58585 Y-78.90303 I-15.29678 J39.27862
G3 X210.66912 Y-78.15572 I-17.62305 J26.70433
G3 X212.79222 Y-76.52437 I-25.49804 J35.38125
G3 X215.86352 Y-79.36218 I30.84395 J30.30087
G3 X217.53295 Y-80.6696 I20.55135 J24.52213
G3 X221.08052 Y-83.0 I25.04266 J34.25715
G1 X213.61869
G1 F300.0 Y-85.4
G1 F800.0 X139.63696
G3 X159.13699 Y-73.54105 I-9.62578 J37.78969
G3 X185.83594 Y-83.46994 I26.89974 J31.47247
G3 X208.26392 Y-76.89991 I0.5324 J39.74856
G3 X209.26594 Y-76.20865 I-16.30112 J24.7012
G3 X212.97323 Y-73.19563 I-24.09485 J33.43418
G3 X217.4051 Y-77.52274 I30.66294 J26.97213
G3 X218.9493 Y-78.7321 I19.00977 J22.68269
G3 X233.47986 Y-85.4 I23.6263 J32.31964
G1 X213.61869
G1 F300.0 Y-87.8
G1 F800.0 X27.2
G1 Y-81.73084
G3 X44.87142 Y-83.48909 I16.51542 J76.30617
G3 X45.53952 Y-83.47099 I-0.40267 J27.19222
G3 X62.5588 Y-80.23574 I-2.30562 J58.51217
G3 X63.15527 Y-80.036 I-40.01071 J120.47139
G3 X75.97158 Y-83.42863 I15.20679 J31.5422
G3 X77.51669 Y-83.49029 I1.85654 J27.13176
G3 X102.60498 Y-74.3747 I0.43392 J37.88805
G3 X103.16328 Y-73.90298 I-22.66678 J27.393
G3 X105.01641 Y-75.48676 I24.25359 J26.50227
G3 X129.16903 Y-84.19698 I24.3136 J29.57773
G3 X158.89237 Y-70.08632 I0.84215 J36.58667
G3 X160.66925 Y-71.69347 I25.37981 J26.27416
G3 X185.85784 Y-81.07001 I25.36749 J29.62489
G3 X206.942 Y-74.89678 I0.5105 J37.34863
G3 X207.86275 Y-74.26158 I-14.97919 J22.69808
G3 X213.16671 Y-69.6556 I-22.69167 J31.48712
G3 X218.94668 Y-75.68331 I30.46946 J23.4321
G3 X220.36566 Y-76.79459 I17.46818 J20.84326
G3 X243.29479 Y-84.04008 I22.20994 J30.38213
G3 X264.32491 Y-77.70465 I-0.13439 J38.518
G3 X281.3437 Y-81.54351 I16.64793 J34.16112
G3 X307.60866 Y-71.35785 I0.371 J37.99986
G3 X308.00526 Y-70.98111 I-18.53054 J19.90473
G3 X319.3174 Y-43.51999 I-25.91184 J26.73442
G3 X318.99529 Y-28.82677 I-576.49069 J-5.2878
G2 X318.77422 Y-15.40404 I692.32938 J18.11616
G2 X319.46717 Y-0.11606 I219.2956 J-2.28032
G1 X319.46728 Y-0.11473
G3 X320.3324 Y19.0035 I-273.16032 J21.93942
G3 X318.11674 Y32.43758 I-36.97259 J0.80194
G3 X324.39893 Y53.46888 I-31.61219 J20.89669
G3 X311.8673 Y81.75874 I-37.8946 J0.13425
G3 X303.2766 Y87.8 I-26.72426 J-28.8734
G1 X304.0
G2 X326.8 Y65.0 I0.0 J-22.8
G1 Y-65.0
G2 X304.0 Y-87.8 I-22.8 J0.0
G1 X213.61869
G1 F300.0 Y-90.2
G1 F800.0 X24.8
G1 Y-78.69545
G3 X44.83588 Y-81.08936 I18.91542 J73.27078
G3 X45.44503 Y-81.07285 I-0.36713 J24.79248
G3 X61.78441 Y-77.96403 I-2.21113 J56.11403
G3 X63.32981 Y-77.43976 I-39.23631 J118.19968
G3 X76.13542 Y-81.03423 I15.03225 J28.94597
G3 X77.54417 Y-81.09045 I1.6927 J24.73735
G3 X101.05905 Y-72.53879 I0.40643 J35.48821
G3 X103.21117 Y-70.59577 I-21.12086 J25.55708
G3 X106.52674 Y-73.62149 I24.2057 J23.19506
G3 X129.20171 Y-81.79709 I22.80327 J27.71246
G3 X157.50247 Y-67.94797 I0.80947 J34.18678
G3 X158.26964 Y-66.85013 I-19.93347 J14.74649
G3 X158.61432 Y-66.31893 I-36.03759 J23.76085
G3 X162.2251 Y-69.86608 I25.65786 J22.50677
G3 X185.87975 Y-78.67009 I23.81164 J27.7975
G3 X205.62007 Y-72.89366 I0.48859 J34.94871
G3 X206.45957 Y-72.31452 I-13.65727 J20.69495
G3 X213.37886 Y-65.79914 I-21.28849 J29.54005
G3 X220.48826 Y-73.84387 I30.25731 J19.57564
G3 X221.78202 Y-74.85708 I15.9266 J19.00382
G3 X243.26766 Y-81.64016 I20.79359 J28.44463
G3 X264.14632 Y-74.91797 I-0.10726 J36.11807
G3 X281.3437 Y-79.14339 I16.82652 J31.37443
G3 X305.97332 Y-69.60124 I0.371 J35.59974
G3 X306.33493 Y-69.25775 I-16.8952 J18.14812
G3 X316.91762 Y-43.55461 I-24.2415 J25.01106
G3 X316.59638 Y-28.89977 I-574.0909 J-5.25318
G2 X316.37413 Y-15.39973 I694.72829 J18.18916
G2 X317.07489 Y0.0762 I221.69569 J-2.28463
G1 X317.07499 Y0.07742
G3 X317.93267 Y19.04208 I-270.76802 J21.74728
G3 X315.42478 Y32.75545 I-34.57286 J0.76336
G3 X321.99891 Y53.46887 I-28.92023 J20.57883
G3 X310.24895 Y79.98639 I-35.49458 J0.13426
G3 X284.90351 Y89.82741 I-25.10591 J-27.10104
G3 X259.63136 Y80.06125 I-0.14071 J-37.21765
G3 X247.79796 Y53.46863 I23.66096 J-26.45802
G3 X247.91566 Y50.44312 I35.49458 J-0.13426
G3 X241.99263 Y52.80015 I-18.78611 J-38.58741
G3 X241.97967 Y52.80422 I-7.43154 J-23.65532
G3 X223.93743 Y55.45204 I-17.32341 J-55.24795
G3 X223.54867 Y55.45122 I-0.06901 J-59.92603
G3 X223.31778 Y59.47761 I-115.05535 J-4.57811
G3 X221.22124 Y71.61396 I-58.78134 J-3.90513
G3 X210.45258 Y89.14286 I-36.32196 J-10.2417
G3 X209.38146 Y90.07329 I-16.7893 J-18.24614
G3 X209.22596 Y90.2 I-22.05695 J-26.91001
G1 X304.0
G2 X329.2 Y65.0 I0.0 J-25.2
G1 Y-65.0
G2 X304.0 Y-90.2 I-25.2 J0.0
G1 X213.61869
G1 F300.0 Y-92.6
G1 F800.0 X22.4
G1 Y-75.52764
G3 X22.90215 Y-75.67947 I15.3782 J49.95556
G3 X22.92003 Y-75.68477 I6.3738 J21.46904
G3 X44.80035 Y-78.68962 I20.79539 J70.26011
G3 X45.35053 Y-78.67471 I-0.3316 J22.39274
G3 X61.00979 Y-75.69238 I-2.11663 J53.71589
G3 X63.53683 Y-74.82318 I-38.4617 J115.92803
G3 X63.71381 Y-74.92233 I11.03364 J19.48855
G3 X76.29927 Y-78.63983 I14.64825 J26.42853
G3 X77.57166 Y-78.69061 I1.52886 J22.34295
G3 X99.51316 Y-70.70284 I0.37895 J33.08837
G3 X103.26135 Y-67.02919 I-19.57496 J23.72113
G3 X108.03704 Y-71.75618 I24.15552 J19.62848
G3 X129.23443 Y-79.39718 I21.29297 J25.84715
G3 X155.57305 Y-66.52061 I0.77675 J31.78687
G3 X156.26596 Y-65.52904 I-18.00405 J13.31913
G3 X158.3144 Y-62.06068 I-34.03392 J22.43975
G3 X163.78094 Y-68.03867 I25.95778 J18.24852
G3 X185.90169 Y-76.27016 I22.2558 J25.97009
G3 X204.29814 Y-70.89053 I0.46666 J32.54878
G3 X205.05638 Y-70.36745 I-12.33534 J18.69183
G3 X213.62237 Y-61.41105 I-19.8853 J27.59298
G3 X222.02985 Y-72.00443 I30.0138 J15.18755
G3 X223.19837 Y-72.91957 I14.38502 J17.16439
G3 X243.24052 Y-79.24022 I19.37723 J26.50712
G3 X263.96387 Y-72.05763 I-0.08012 J33.71814
G3 X281.34371 Y-76.74325 I17.00897 J28.51409
G3 X304.33799 Y-67.84463 I0.37099 J33.1996
G3 X304.66459 Y-67.53439 I-15.25986 J16.39151
G3 X314.51784 Y-43.58966 I-22.57117 J23.28769
G3 X314.19747 Y-28.97281 I-571.69112 J-5.21814
G2 X313.97405 Y-15.3955 I697.1272 J18.2622
G2 X314.6826 Y0.26846 I224.09577 J-2.28886
G1 X314.68269 Y0.26956
G3 X315.53294 Y19.08109 I-268.37573 J21.55514
G3 X312.67633 Y33.07861 I-32.17313 J0.72435
G3 X319.5989 Y53.46885 I-26.17178 J20.25567
G3 X308.63062 Y78.21402 I-33.09457 J0.13427
G3 X284.90676 Y87.42738 I-23.48758 J-25.32867
G3 X261.24164 Y78.28158 I-0.14395 J-34.81762
G3 X250.19798 Y53.46865 I22.05068 J-24.67836
G3 X251.03393 Y45.94178 I33.09457 J-0.13427
G3 X241.27331 Y50.51048 I-21.90439 J-34.08608
G3 X241.2616 Y50.51416 I-6.71222 J-21.36565
G3 X223.95095 Y53.05202 I-16.60535 J-52.95789
G3 X221.21983 Y52.99107 I-0.08253 J-57.52601
G3 X220.92373 Y59.30844 I-112.7265 J-2.11796
G3 X218.91162 Y70.96154 I-56.38729 J-3.73596
G3 X208.82749 Y87.37676 I-34.01233 J-9.58928
G3 X207.86006 Y88.21713 I-15.16421 J-16.48004
G3 X200.84795 Y92.6 I-20.53554 J-25.05386
G1 X304.0
G2 X331.6 Y65.0 I0.0 J-27.6
G1 Y-65.0
G2 X304.0 Y-92.6 I-27.6 J0.0
G1 X213.61869
G1 F300.0 Y-95.0
G1 F800.0 X20.0
G1 Y-72.16448
G3 X23.5852 Y-73.37872 I17.7782 J46.5924
G3 X23.60117 Y-73.38346 I5.69075 J19.16829
G3 X44.76481 Y-76.28988 I20.11425 J67.95879
G3 X45.25603 Y-76.27657 I-0.29606 J19.99301
G3 X60.23494 Y-73.42082 I-2.02213 J51.31775
G3 X63.77115 Y-72.18655 I-37.68685 J113.65646
G3 X64.71171 Y-72.7304 I31.91363 J54.10809
G3 X64.87728 Y-72.82319 I9.85876 J17.39577
G3 X76.46311 Y-76.24543 I13.48479 J24.3294
G3 X77.59914 Y-76.29076 I1.36502 J19.94855
G3 X97.96731 Y-68.86682 I0.35146 J30.68853
G3 X103.31535 Y-63.029 I-18.02911 J21.88511
G3 X109.5473 Y-69.89082 I24.10152 J15.62829
G3 X129.2672 Y-76.99726 I19.78271 J23.98179
G3 X153.64363 Y-65.09325 I0.74398 J29.38694
G3 X154.26229 Y-64.20795 I-16.07463 J11.89178
G3 X158.02497 Y-56.90235 I-32.03024 J21.11866
G3 X165.33676 Y-66.21124 I26.24721 J13.0902
G3 X185.92364 Y-73.87022 I20.69998 J24.14266
G3 X202.97622 Y-68.88741 I0.4447 J30.14884
G3 X203.6532 Y-68.42038 I-11.01341 J16.6887
G3 X213.93258 Y-55.89231 I-18.48212 J25.64591
G3 X223.57143 Y-70.165 I29.70359 J9.66881
G3 X224.61473 Y-70.98207 I12.84344 J15.32495
G3 X243.21335 Y-76.84027 I17.96088 J24.56961
G3 X263.66173 Y-69.19754 I-0.05295 J31.31819
G3 X263.77865 Y-69.09955 I-18.53934 J22.23893
G3 X281.34371 Y-74.34308 I17.19419 J25.55601
G3 X302.70265 Y-66.08802 I0.37099 J30.79944
G3 X302.99426 Y-65.81103 I-13.62453 J14.6349
G3 X312.11806 Y-43.62516 I-20.90083 J21.56433
G3 X311.79856 Y-29.04589 I-569.29135 J-5.18263
G2 X311.57397 Y-15.39134 I699.52611 J18.33528
G2 X312.29031 Y0.46072 I226.49585 J-2.29302
G1 X312.29039 Y0.4617
G3 X313.13322 Y19.12058 I-265.98343 J21.36299
G3 X309.8527 Y33.40882 I-29.77341 J0.68486
G3 X317.19888 Y53.46884 I-23.34815 J19.92546
G3 X307.01229 Y76.44162 I-30.69454 J0.13429
G3 X284.91001 Y85.02734 I-21.86926 J-23.55627
G3 X262.8519 Y76.50189 I-0.1472 J-32.41759
G3 X252.598 Y53.46866 I20.44042 J-22.89867
G3 X256.46301 Y38.423 I30.69454 J-0.13429
G3 X240.55399 Y48.22081 I-27.33346 J-26.56729
G3 X240.54354 Y48.2241 I-5.9929 J-19.07598
G3 X223.96448 Y50.65199 I-15.88728 J-50.66783
G3 X218.8389 Y50.42216 I-0.09607 J-55.12599
G3 X218.83893 Y50.45472 I-293.29369 J0.21902
G3 X218.52966 Y59.13939 I-110.34561 J0.4184
G3 X216.60199 Y70.30913 I-53.99323 J-3.5669
G3 X207.20241 Y85.61066 I-31.70271 J-8.93688
G3 X206.33865 Y86.36097 I-13.53913 J-14.71394
G3 X186.84196 Y93.1539 I-19.01413 J-23.1977
G3 X165.98414 Y85.24104 I-0.11708 J-31.13778
G3 X156.04486 Y62.4066 I19.26797 J-21.96727
G3 X156.04754 Y62.32232 I19.98639 J0.5934
G3 X156.66353 Y54.87772 I76.74949 J2.60272
G3 X154.63053 Y60.01392 I-40.46124 J-13.04483
G3 X154.56457 Y60.15196 I-18.07439 J-8.55129
G3 X146.21388 Y70.70561 I-27.79178 J-13.40993
G3 X145.66586 Y71.13461 I-12.59738 J-15.52785
G3 X127.35219 Y77.13809 I-17.92054 J-23.732
G3 X106.39923 Y69.17738 I-0.15856 J-31.1376
G3 X96.76843 Y51.13561 I19.47088 J-21.98503
G3 X82.04573 Y42.91651 I6.78954 J-29.45776
G3 X81.69578 Y42.55705 I21.48744 J-21.26884
G3 X78.94873 Y43.77301 I-22.84768 J-47.90525
G3 X68.09373 Y47.5875 I-31.93142 J-73.51571
G3 X54.28642 Y49.55565 I-14.56314 J-52.75009
G3 X20.0 Y40.57744 I-0.98394 J-66.19888
G1 Y95.0
G1 X304.0
G2 X334.0 Y65.0 I0.0 J-30.0
G1 Y-65.0
G2 X304.0 Y-95.0 I-30.0 J0.0
G1 X213.61869
G1 F300.0 Y-97.4
G1 F800.0 X17.6
G1 Y-68.53887
G3 X24.26825 Y-71.07797 I20.1782 J42.96679
G3 X24.28231 Y-71.08214 I5.0077 J16.86754
G3 X44.72928 Y-73.89015 I19.43311 J65.65748
G3 X45.16154 Y-73.87843 I-0.26053 J17.59327
G3 X59.45983 Y-71.14933 I-1.92764 J48.91962
G3 X64.01842 Y-69.53366 I-36.91174 J111.38498
G3 X65.89505 Y-70.6424 I31.66635 J51.4552
G3 X66.04074 Y-70.72406 I8.67542 J15.30778
G3 X76.62695 Y-73.85103 I12.32133 J22.23027
G3 X77.62663 Y-73.89092 I1.20118 J17.55415
G3 X96.4215 Y-67.03074 I0.32398 J28.28868
G3 X103.3773 Y-58.12942 I-16.4833 J20.04903
G3 X111.05752 Y-68.02541 I24.03958 J10.72871
G3 X129.30003 Y-74.5973 I18.27249 J22.11638
G3 X151.71421 Y-63.6659 I0.71115 J26.98699
G3 X152.25861 Y-62.88685 I-14.14521 J10.46442
G3 X157.77209 Y-48.60684 I-30.02657 J19.79757
G3 X166.89256 Y-64.3838 I26.50009 J4.79468
G3 X185.94562 Y-71.47028 I19.14417 J22.31522
G3 X201.65429 Y-66.88428 I0.42272 J27.7489
G3 X202.25002 Y-66.47331 I-9.69149 J14.68558
G3 X211.89144 Y-54.57903 I-17.07893 J23.69884
G3 X212.05378 Y-54.19957 I-16.09456 J7.11028
G3 X214.1739 Y-47.06116 I-33.18907 J13.74122
G3 X215.73276 Y-53.50419 I144.86505 J31.6394
G3 X225.11301 Y-68.32556 I27.90341 J7.28069
G3 X226.03108 Y-69.04456 I11.30186 J13.48552
G3 X243.18616 Y-74.44031 I16.54452 J22.6321
G3 X262.10769 Y-67.36847 I-0.02576 J28.91822
G3 X263.60899 Y-66.01926 I-16.9853 J20.40986
G3 X281.34372 Y-71.9429 I17.36385 J22.47572
G3 X301.06732 Y-64.33141 I0.37099 J28.39925
G3 X301.32392 Y-64.08767 I-11.98919 J12.87829
G3 X309.71829 Y-43.6612 I-19.23049 J19.84097
G3 X309.39966 Y-29.11901 I-566.89158 J-5.14659
G2 X309.17389 Y-15.38726 I701.92502 J18.4084
G2 X309.89803 Y0.65298 I228.89593 J-2.2971
G1 X309.8981 Y0.65384
G3 X310.7335 Y19.16063 I-263.59113 J21.17085
G3 X306.92499 Y33.74879 I-27.37369 J0.64481
G3 X314.79885 Y53.46883 I-20.42044 J19.58548
G3 X305.39399 Y74.66918 I-28.29452 J0.1343
G3 X284.91326 Y82.6273 I-20.25095 J-21.78383
G3 X264.46215 Y74.72217 I-0.15046 J-30.01754
G3 X254.99802 Y53.46867 I18.83018 J-21.11895
G3 X260.12411 Y37.09178 I28.29452 J-0.1343
G3 X257.59632 Y33.40962 I21.23455 J-17.28623
G3 X257.50189 Y33.53934 I-33.19954 J-24.06831
G3 X257.05218 Y34.12815 I-14.20502 J-10.38309
G3 X239.83467 Y45.93115 I-27.92264 J-22.27244
G3 X239.82547 Y45.93403 I-5.27358 J-16.78632
G3 X223.97803 Y48.25196 I-15.16922 J-48.37777
G3 X216.42436 Y47.72394 I-0.10962 J-52.72596
G3 X216.43893 Y50.46004 I-290.87914 J2.91723
G3 X216.13559 Y58.97045 I-107.94561 J0.41307
G3 X214.29236 Y69.65675 I-51.59916 J-3.39797
G3 X205.57732 Y83.84457 I-29.39308 J-8.28449
G3 X204.81724 Y84.50482 I-11.91404 J-12.94785
G3 X186.85677 Y90.75382 I-17.49272 J-21.34155
G3 X167.57476 Y83.4438 I-0.13189 J-28.7377
G3 X158.4438 Y62.47783 I17.67735 J-20.17004
G3 X158.44616 Y62.40366 I17.58745 J0.52217
G3 X159.3671 Y52.98959 I74.35087 J2.52137
G3 X159.42809 Y52.63705 I17.36727 J2.82291
G2 X159.90342 Y48.66656 I-31.57752 J-5.79401
G3 X155.62139 Y49.25687 I-8.0384 J-42.48371
G3 X152.46108 Y58.98752 I-39.41911 J-7.42399
G3 X152.40304 Y59.10899 I-15.90494 J-7.52489
G3 X144.70183 Y68.84182 I-25.63025 J-12.36696
G3 X144.21959 Y69.21932 I-11.08533 J-13.66406
G3 X127.36196 Y74.738 I-16.47427 J-21.81672
G3 X107.99622 Y67.38582 I-0.16834 J-28.73751
G3 X98.97201 Y49.12747 I17.87389 J-20.19348
G3 X83.75252 Y41.22925 I4.58596 J-27.44963
G3 X82.25855 Y39.59489 I19.78064 J-19.58158
G3 X78.01618 Y41.56145 I-23.41045 J-44.94309
G3 X67.45881 Y45.27301 I-30.99887 J-71.30415
G3 X54.25201 Y47.1559 I-13.92822 J-50.43559
G3 X17.6 Y36.23932 I-0.94954 J-63.79913
G1 Y97.4
G1 X304.0
G2 X336.4 Y65.0 I0.0 J-32.4
G1 Y-65.0
G2 X304.0 Y-97.4 I-32.4 J0.0
G1 X213.61869
G1 F300.0 Y-99.8
G1 F800.0 X15.2
G1 Y-64.5777
G3 X24.95131 Y-68.77723 I22.5782 J39.00562
G3 X24.96344 Y-68.78082 I4.32464 J14.5668
G3 X44.69374 Y-71.49041 I18.75198 J63.35616
G3 X45.06704 Y-71.48029 I-0.22499 J15.19353
G3 X58.68442 Y-68.87794 I-1.83314 J46.52148
G3 X64.28015 Y-66.86265 I-36.13633 J109.11359
G3 X67.07838 Y-68.55441 I31.40462 J48.78419
G3 X67.2042 Y-68.62493 I7.49209 J13.21978
G3 X76.79079 Y-71.45663 I11.15786 J20.13113
G3 X77.65411 Y-71.49108 I1.03733 J15.15975
G3 X94.87576 Y-65.19456 I0.2965 J25.88884
G3 X103.49001 Y-46.59299 I-14.93756 J18.21285
G3 X103.22469 Y-44.00571 I-15.19313 J-0.25076
G3 X101.75943 Y-39.12924 I-24.08885 J-4.57971
G3 X100.86867 Y-36.97871 I-74.31497 J-29.52197
G3 X100.86086 Y-36.96063 I-13.95245 J-6.01857
G3 X99.05335 Y-32.91254 I-178.39291 J-77.22656
G3 X99.03567 Y-32.87427 I-13.80335 J-6.35309
G2 X96.04444 Y-26.20902 I269.73977 J125.05758
G2 X95.07206 Y-19.80497 I32.50657 J8.2116
G3 X95.05734 Y-19.56704 I-15.1731 J-0.8192
G2 X94.74195 Y-9.9521 I130.29381 J9.08656
G3 X94.7419 Y-9.81692 I-15.19508 J0.06147
G2 X94.9335 Y-2.43836 I119.79277 J0.58103
G3 X101.46781 Y-3.83011 I9.75032 J29.7428
G3 X103.15102 Y-4.0085 I35.64944 J328.34065
G2 X103.42327 Y-10.79022 I-3016.1895 J-124.47923
G3 X103.4253 Y-10.84021 I15.18365 J0.59244
G2 X103.96011 Y-30.45148 I-652.18472 J-27.59813
G2 X103.7426 Y-38.1796 I-220.96503 J2.35201
G3 X103.49303 Y-47.16357 I247.37098 J-11.36717
G3 X112.56768 Y-66.15992 I23.92384 J-0.23714
G3 X129.33295 Y-72.19732 I16.76233 J20.25089
G3 X149.7848 Y-62.23854 I0.67824 J24.58701
G3 X150.25494 Y-61.56576 I-12.21579 J9.03706
G3 X155.62015 Y-46.53854 I-28.02289 J18.47647
G3 X156.07001 Y-38.95429 I-58.31536 J7.26445
G3 X155.98514 Y-34.11911 I-187.36838 J-0.8703
G2 X155.91306 Y-30.58528 I184.8873 J5.53902
G3 X155.91292 Y-30.57348 I-15.19431 J-0.16472
G3 X155.35339 Y-9.51194 I-704.94696 J-8.18973
G3 X155.14892 Y-4.30841 I-3358.10419 J-129.35479
G3 X161.41139 Y-3.45633 I-0.32608 J25.83596
G3 X161.53744 Y-18.45063 I1636.44681 J6.25859
G2 X161.08243 Y-33.6787 I-624.99746 J11.05401
G3 X161.07465 Y-33.90277 I15.18176 J-0.63888
G2 X160.91171 Y-36.24661 I-27.89927 J0.7619
G3 X159.77488 Y-42.72429 I29.2377 J-8.46984
G3 X159.74306 Y-43.56671 I15.16262 J-0.99446
G3 X168.44834 Y-62.55633 I24.52912 J-0.24545
G3 X185.96764 Y-69.07034 I17.58839 J20.48775
G3 X200.33236 Y-64.88116 I0.4007 J25.34896
G3 X200.84683 Y-64.52624 I-8.36956 J12.68245
G3 X209.69613 Y-53.60919 I-15.67575 J21.75178
G3 X209.83633 Y-53.28148 I-13.89925 J6.14044
G3 X211.94663 Y-45.86764 I-30.97162 J12.82313
G3 X212.67771 Y-40.66032 I-74.06183 J13.05289
G3 X212.68023 Y-40.63614 I-15.11228 J1.58524
G3 X213.37367 Y-31.18089 I-158.74745 J16.39546
G3 X213.37422 Y-31.16814 I-15.18083 J0.6608
G3 X213.52542 Y-27.1355 I-388.76888 J16.59559
G3 X214.24357 Y-33.177 I166.46948 J16.72468
G3 X218.05367 Y-52.89312 I144.79538 J17.75524
G3 X226.65459 Y-66.48613 I25.5825 J6.66962
G3 X227.44744 Y-67.10705 I9.76027 J11.64608
G3 X243.15894 Y-72.04032 I15.12816 J20.6946
G3 X260.55371 Y-65.53932 I0.00147 J26.51823
G3 X263.41902 Y-62.72572 I-15.43132 J18.58071
G3 X281.34372 Y-69.54267 I17.55382 J19.18218
G3 X299.43198 Y-62.5748 I0.37098 J25.99903
G3 X299.65358 Y-62.3643 I-10.35386 J11.12168
G3 X307.31852 Y-43.69784 I-17.56016 J18.11761
G3 X307.00075 Y-29.19216 I-564.49181 J-5.10996
G2 X306.77381 Y-15.38324 I704.32392 J18.48155
G2 X307.50574 Y0.84524 I231.29601 J-2.30112
G1 X307.5058 Y0.84598
G3 X308.33379 Y19.20131 I-261.19884 J20.97871
G3 X303.845 Y34.10305 I-24.97398 J0.60413
G3 X312.39882 Y53.46882 I-17.34045 J19.23123
G3 X303.77571 Y72.89671 I-25.89449 J0.13431
G3 X284.91652 Y80.22725 I-18.63267 J-20.01136
G3 X266.07236 Y72.94242 I-0.15372 J-27.61749
G3 X257.39805 Y53.46868 I17.21996 J-19.33919
G3 X263.21672 Y36.97882 I25.89449 J-0.13431
G3 X257.92925 Y28.47237 I18.14194 J-17.17326
G3 X255.56432 Y32.12308 I-33.53247 J-19.13105
G3 X255.17595 Y32.63157 I-12.26744 J-8.96683
G3 X239.11535 Y43.64148 I-26.0464 J-20.77586
G3 X239.10741 Y43.64397 I-4.55426 J-14.49665
G3 X223.9916 Y45.85193 I-14.45115 J-46.08771
G3 X213.98128 Y44.8713 I-0.12318 J-50.32592
G3 X214.03893 Y50.4654 I-288.43606 J5.76988
G3 X213.74151 Y58.80165 I-105.54561 J0.40772
G3 X211.98273 Y69.00438 I-49.20507 J-3.22917
G3 X203.95224 Y82.07847 I-27.08344 J-7.63213
G3 X203.29583 Y82.64866 I-10.28896 J-11.18175
G3 X186.87163 Y88.35371 I-15.97131 J-19.48539
G3 X169.16536 Y81.64654 I-0.14675 J-26.33759
G3 X160.84274 Y62.54905 I16.08675 J-18.37277
G3 X160.84478 Y62.485 I15.18851 J0.45095
G3 X161.73601 Y53.37464 I71.95225 J2.44003
G3 X161.78868 Y53.07018 I14.99836 J2.43786
G2 X162.31378 Y48.53403 I-33.93811 J-6.22715
G2 X162.24072 Y45.68027 I-323.83583 J6.86317
G3 X153.70123 Y46.97905 I-10.3757 J-39.49742
G3 X153.56046 Y46.98755 I-6.59715 J-108.02412
G3 X150.29163 Y57.96112 I-37.35817 J-5.15467
G3 X150.24151 Y58.06602 I-13.73549 J-6.49849
G3 X143.18978 Y66.97803 I-23.46872 J-11.32399
G3 X142.77332 Y67.30404 I-9.57328 J-11.80027
G3 X127.37179 Y72.33789 I-15.028 J-19.90144
G3 X109.5932 Y65.59425 I-0.17816 J-26.3374
G3 X101.30319 Y47.00776 I16.27691 J-18.4019
G3 X85.45932 Y39.54199 I2.25479 J-25.32992
G3 X82.89472 Y36.51122 I18.07385 J-17.89432
G3 X77.08383 Y39.34978 I-24.04662 J-41.85942
G3 X66.82387 Y42.95852 I-30.06652 J-69.09248
G3 X54.21761 Y44.75615 I-13.29328 J-48.1211
G3 X15.2 Y31.51196 I-0.91514 J-61.39937
G1 Y99.8
G1 X304.0
G2 X338.8 Y65.0 I0.0 J-34.8
G1 Y-65.0
G2 X304.0 Y-99.8 I-34.8 J0.0
G1 X213.61869
G1 F300.0 Y-102.2
G1 F800.0 X12.8
G1 Y-60.1659
G3 X25.63436 Y-66.47648 I24.9782 J34.59382
G3 X25.64458 Y-66.47951 I3.64159 J12.26605
G3 X44.6582 Y-69.09067 I18.07084 J61.05484
G3 X44.97254 Y-69.08215 I-0.18945 J12.7938
G3 X57.90869 Y-66.60665 I-1.73864 J44.12334
G3 X64.5581 Y-64.17129 I-35.3606 J106.8423
G3 X68.26172 Y-66.46642 I31.12667 J46.09283
G3 X68.36767 Y-66.5258 I6.30875 J11.13179
G3 X76.95463 Y-69.06222 I9.9944 J18.032
G3 X77.6816 Y-69.09124 I0.87349 J12.76535
G3 X93.3301 Y-63.35827 I0.26901 J23.489
G3 X101.09033 Y-46.6326 I-13.39191 J16.37656
G3 X100.86692 Y-44.45396 I-12.79346 J-0.21115
G3 X99.537 Y-40.03547 I-21.73108 J-4.13146
G3 X98.66496 Y-37.92931 I-72.09253 J-28.61573
G3 X98.65838 Y-37.91408 I-11.74874 J-5.06797
G3 X96.87318 Y-33.91597 I-176.19043 J-76.2731
G3 X96.8583 Y-33.88375 I-11.62318 J-5.34965
G2 X93.76654 Y-26.98859 I271.91714 J126.06706
G2 X92.67555 Y-19.93436 I34.78447 J8.99116
G3 X92.66316 Y-19.73401 I-12.77659 J-0.68982
G2 X92.34197 Y-9.94239 I132.688 J9.25353
G3 X92.34192 Y-9.82857 I-12.7951 J0.05176
G2 X92.68949 Y-0.00709 I122.19274 J0.59267
G2 X92.79036 Y0.97986 I41.45085 J-3.73789
G3 X95.0394 Y0.06096 I9.23021 J19.37937
G3 X101.72053 Y-1.44345 I9.64441 J27.24348
G3 X105.46236 Y-1.82808 I35.39673 J325.95398
G2 X105.82144 Y-10.69665 I-3018.50084 J-126.65965
G3 X105.82316 Y-10.73875 I12.78547 J0.49887
G2 X106.36026 Y-30.44953 I-654.58257 J-27.6996
G2 X106.14008 Y-38.28943 I-223.36519 J2.35005
G3 X105.89292 Y-47.18702 I244.9735 J-11.25735
G3 X114.07777 Y-64.29434 I21.52396 J-0.21369
G3 X129.36597 Y-69.79729 I15.25224 J18.38531
G3 X147.85538 Y-60.81119 I0.64522 J22.18698
G3 X148.25126 Y-60.24467 I-10.28637 J7.60971
G3 X153.23541 Y-46.26706 I-26.01922 J17.15538
G3 X153.67004 Y-38.9664 I-55.93062 J6.99297
G3 X153.58624 Y-34.19158 I-184.96841 J-0.85819
G2 X153.5132 Y-30.61129 I187.28621 J5.61149
G3 X153.51309 Y-30.60136 I-12.79445 J-0.13871
G3 X152.95531 Y-9.60793 I-702.54712 J-8.16185
G3 X152.64898 Y-1.88629 I-3355.7061 J-129.25881
G3 X154.26597 Y-1.90385 I2.23203 J131.08549
G3 X163.80204 Y-0.12227 I0.55687 J23.4314
G3 X163.93771 Y-18.45622 I1634.05616 J2.92453
G2 X163.4803 Y-33.77961 I-627.39774 J11.0596
G3 X163.47376 Y-33.96829 I12.78389 J-0.53797
G2 X163.27231 Y-36.72575 I-30.29838 J0.82742
G3 X162.16973 Y-42.88136 I26.87711 J-7.9907
G3 X162.14294 Y-43.59072 I12.76777 J-0.83739
G3 X170.00409 Y-60.72883 I22.12924 J-0.22143
G3 X185.9897 Y-66.67038 I16.03264 J18.66025
G3 X199.01044 Y-62.87803 I0.37864 J22.949
G3 X199.44365 Y-62.57918 I-7.04763 J10.67933
G3 X207.50081 Y-52.63934 I-14.27256 J19.80471
G3 X207.61887 Y-52.36339 I-11.70394 J5.17059
G3 X209.58045 Y-45.46585 I-28.75416 J11.90504
G3 X210.29081 Y-40.40994 I-71.69565 J12.65111
G3 X210.29293 Y-40.38958 I-12.72538 J1.33486
G3 X210.97594 Y-31.07652 I-156.36015 J16.1489
G3 X210.9764 Y-31.06579 I-12.7831 J0.55643
