( Made using CamBam - http://www.cambam.co.uk )
( Rechtecke 9/3/2017 9:52:32 AM )
( T2 : 2.0 )
( T4 : 4.0 )
( T6 : 6.0 )
G21 G90 G64 G40
G0 Z3.0
( T6 : 6.0 )
T6 M6
( Tasche1-Rechtecke-6mm )
G17
M3 S1000
G0 X-0.8 Y-94.2
G0 Z1.0
G1 F300.0 Z-1.0
G1 F800.0 X0.8
G1 Y-95.8
G1 X-0.8
G1 Y-94.2
G1 F300.0 Y-91.8
G1 F800.0 X3.2
G1 Y-98.2
G1 X-3.2
G1 Y-91.8
G1 X-0.8
G1 F300.0 Y-89.4
G1 F800.0 X5.6
G1 Y-100.6
G1 X-5.6
G1 Y-89.4
G1 X-0.8
G1 F300.0 Y-87.0
G1 F800.0 X8.0
G1 Y-103.0
G1 X-8.0
G1 Y-87.0
G1 X-0.8
G0 Z3.0
G0 Y-94.2
G0 Z0.0
G1 F300.0 Z-2.0
G1 F800.0 X0.8
G1 Y-95.8
G1 X-0.8
G1 Y-94.2
G1 F300.0 Y-91.8
G1 F800.0 X3.2
G1 Y-98.2
G1 X-3.2
G1 Y-91.8
G1 X-0.8
G1 F300.0 Y-89.4
G1 F800.0 X5.6
G1 Y-100.6
G1 X-5.6
G1 Y-89.4
G1 X-0.8
G1 F300.0 Y-87.0
G1 F800.0 X8.0
G1 Y-103.0
G1 X-8.0
G1 Y-87.0
G1 X-0.8
G0 Z3.0
G0 Y-94.2
G0 Z-1.0
G1 F300.0 Z-3.0
G1 F800.0 X0.8
G1 Y-95.8
G1 X-0.8
G1 Y-94.2
G1 F300.0 Y-91.8
G1 F800.0 X3.2
G1 Y-98.2
G1 X-3.2
G1 Y-91.8
G1 X-0.8
G1 F300.0 Y-89.4
G1 F800.0 X5.6
G1 Y-100.6
G1 X-5.6
G1 Y-89.4
G1 X-0.8
G1 F300.0 Y-87.0
G1 F800.0 X8.0
G1 Y-103.0
G1 X-8.0
G1 Y-87.0
G1 X-0.8
G0 Z3.0
G0 Y-94.2
G0 Z-2.0
G1 F300.0 Z-4.0
G1 F800.0 X0.8
G1 Y-95.8
G1 X-0.8
G1 Y-94.2
G1 F300.0 Y-91.8
G1 F800.0 X3.2
G1 Y-98.2
G1 X-3.2
G1 Y-91.8
G1 X-0.8
G1 F300.0 Y-89.4
G1 F800.0 X5.6
G1 Y-100.6
G1 X-5.6
G1 Y-89.4
G1 X-0.8
G1 F300.0 Y-87.0
G1 F800.0 X8.0
G1 Y-103.0
G1 X-8.0
G1 Y-87.0
G1 X-0.8
G0 Z3.0
G0 Y-94.2
G0 Z-3.0
G1 F300.0 Z-5.0
G1 F800.0 X0.8
G1 Y-95.8
G1 X-0.8
G1 Y-94.2
G1 F300.0 Y-91.8
G1 F800.0 X3.2
G1 Y-98.2
G1 X-3.2
G1 Y-91.8
G1 X-0.8
G1 F300.0 Y-89.4
G1 F800.0 X5.6
G1 Y-100.6
G1 X-5.6
G1 Y-89.4
G1 X-0.8
G1 F300.0 Y-87.0
G1 F800.0 X8.0
G1 Y-103.0
G1 X-8.0
G1 Y-87.0
G1 X-0.8
G0 Z3.0
G0 Y-94.2
G0 Z-4.0
G1 F300.0 Z-6.0
G1 F800.0 X0.8
G1 Y-95.8
G1 X-0.8
G1 Y-94.2
G1 F300.0 Y-91.8
G1 F800.0 X3.2
G1 Y-98.2
G1 X-3.2
G1 Y-91.8
G1 X-0.8
G1 F300.0 Y-89.4
G1 F800.0 X5.6
G1 Y-100.6
G1 X-5.6
G1 Y-89.4
G1 X-0.8
G1 F300.0 Y-87.0
G1 F800.0 X8.0
G1 Y-103.0
G1 X-8.0
G1 Y-87.0
G1 X-0.8
G0 Z3.0
G0 Y-94.2
G0 Z-5.0
G1 F300.0 Z-7.0
G1 F800.0 X0.8
G1 Y-95.8
G1 X-0.8
G1 Y-94.2
G1 F300.0 Y-91.8
G1 F800.0 X3.2
G1 Y-98.2
G1 X-3.2
G1 Y-91.8
G1 X-0.8
G1 F300.0 Y-89.4
G1 F800.0 X5.6
G1 Y-100.6
G1 X-5.6
G1 Y-89.4
G1 X-0.8
G1 F300.0 Y-87.0
G1 F800.0 X8.0
G1 Y-103.0
G1 X-8.0
G1 Y-87.0
G1 X-0.8
G0 Z3.0
G0 Y-94.2
G0 Z-6.0
G1 F300.0 Z-8.0
G1 F800.0 X0.8
G1 Y-95.8
G1 X-0.8
G1 Y-94.2
G1 F300.0 Y-91.8
G1 F800.0 X3.2
G1 Y-98.2
G1 X-3.2
G1 Y-91.8
G1 X-0.8
G1 F300.0 Y-89.4
G1 F800.0 X5.6
G1 Y-100.6
G1 X-5.6
G1 Y-89.4
G1 X-0.8
G1 F300.0 Y-87.0
G1 F800.0 X8.0
G1 Y-103.0
G1 X-8.0
G1 Y-87.0
G1 X-0.8
G0 Z3.0
G0 Y-94.2
G0 Z-7.0
G1 F300.0 Z-9.0
G1 F800.0 X0.8
G1 Y-95.8
G1 X-0.8
G1 Y-94.2
G1 F300.0 Y-91.8
G1 F800.0 X3.2
G1 Y-98.2
G1 X-3.2
G1 Y-91.8
G1 X-0.8
G1 F300.0 Y-89.4
G1 F800.0 X5.6
G1 Y-100.6
G1 X-5.6
G1 Y-89.4
G1 X-0.8
G1 F300.0 Y-87.0
G1 F800.0 X8.0
G1 Y-103.0
G1 X-8.0
G1 Y-87.0
G1 X-0.8
G0 Z3.0
G0 Y-94.2
G0 Z-8.0
G1 F300.0 Z-10.0
G1 F800.0 X0.8
G1 Y-95.8
G1 X-0.8
G1 Y-94.2
G1 F300.0 Y-91.8
G1 F800.0 X3.2
G1 Y-98.2
G1 X-3.2
G1 Y-91.8
G1 X-0.8
G1 F300.0 Y-89.4
G1 F800.0 X5.6
G1 Y-100.6
G1 X-5.6
G1 Y-89.4
G1 X-0.8
G1 F300.0 Y-87.0
G1 F800.0 X8.0
G1 Y-103.0
G1 X-8.0
G1 Y-87.0
G1 X-0.8
G0 Z3.0
G0 Y-94.2
G0 Z-9.0
G1 F300.0 Z-11.0
G1 F800.0 X0.8
G1 Y-95.8
G1 X-0.8
G1 Y-94.2
G1 F300.0 Y-91.8
G1 F800.0 X3.2
G1 Y-98.2
G1 X-3.2
G1 Y-91.8
G1 X-0.8
G1 F300.0 Y-89.4
G1 F800.0 X5.6
G1 Y-100.6
G1 X-5.6
G1 Y-89.4
G1 X-0.8
G1 F300.0 Y-87.0
G1 F800.0 X8.0
G1 Y-103.0
G1 X-8.0
G1 Y-87.0
G1 X-0.8
G0 Z3.0
G0 Y-94.2
G0 Z-10.0
G1 F300.0 Z-12.0
G1 F800.0 X0.8
G1 Y-95.8
G1 X-0.8
G1 Y-94.2
G1 F300.0 Y-91.8
G1 F800.0 X3.2
G1 Y-98.2
G1 X-3.2
G1 Y-91.8
G1 X-0.8
G1 F300.0 Y-89.4
G1 F800.0 X5.6
G1 Y-100.6
G1 X-5.6
G1 Y-89.4
G1 X-0.8
G1 F300.0 Y-87.0
G1 F800.0 X8.0
G1 Y-103.0
G1 X-8.0
G1 Y-87.0
G1 X-0.8
G0 Z3.0
G0 X-48.41308 Y-85.45391
G0 Z1.0
G1 F300.0 Z-1.0
G1 F800.0 X-49.21308 Y-86.83956
G1 X-50.59872 Y-86.03956
G1 X-49.79872 Y-84.65391
G1 X-48.41308 Y-85.45391
G1 F300.0 X-47.21308 Y-83.37545
G1 F800.0 X-45.13462 Y-84.57545
G1 X-48.33462 Y-90.11802
G1 X-53.87718 Y-86.91802
G1 X-50.67718 Y-81.37545
G1 X-47.21308 Y-83.37545
G1 F300.0 X-46.01308 Y-81.29699
G1 F800.0 X-41.85616 Y-83.69699
G1 X-47.45616 Y-93.39648
G1 X-57.15564 Y-87.79648
G1 X-51.55564 Y-78.09699
G1 X-46.01308 Y-81.29699
G1 F300.0 X-44.81308 Y-79.21853
G1 F800.0 X-38.5777 Y-82.81853
G1 X-46.5777 Y-96.67494
G1 X-60.4341 Y-88.67494
G1 X-52.4341 Y-74.81853
G1 X-44.81308 Y-79.21853
G0 Z3.0
G0 X-48.41308 Y-85.45391
G0 Z0.0
G1 F300.0 Z-2.0
G1 F800.0 X-49.21308 Y-86.83956
G1 X-50.59872 Y-86.03956
G1 X-49.79872 Y-84.65391
G1 X-48.41308 Y-85.45391
G1 F300.0 X-47.21308 Y-83.37545
G1 F800.0 X-45.13462 Y-84.57545
G1 X-48.33462 Y-90.11802
G1 X-53.87718 Y-86.91802
G1 X-50.67718 Y-81.37545
G1 X-47.21308 Y-83.37545
G1 F300.0 X-46.01308 Y-81.29699
G1 F800.0 X-41.85616 Y-83.69699
G1 X-47.45616 Y-93.39648
G1 X-57.15564 Y-87.79648
G1 X-51.55564 Y-78.09699
G1 X-46.01308 Y-81.29699
G1 F300.0 X-44.81308 Y-79.21853
G1 F800.0 X-38.5777 Y-82.81853
G1 X-46.5777 Y-96.67494
G1 X-60.4341 Y-88.67494
G1 X-52.4341 Y-74.81853
G1 X-44.81308 Y-79.21853
G0 Z3.0
G0 X-48.41308 Y-85.45391
G0 Z-1.0
G1 F300.0 Z-3.0
G1 F800.0 X-49.21308 Y-86.83956
G1 X-50.59872 Y-86.03956
G1 X-49.79872 Y-84.65391
G1 X-48.41308 Y-85.45391
G1 F300.0 X-47.21308 Y-83.37545
G1 F800.0 X-45.13462 Y-84.57545
G1 X-48.33462 Y-90.11802
G1 X-53.87718 Y-86.91802
G1 X-50.67718 Y-81.37545
G1 X-47.21308 Y-83.37545
G1 F300.0 X-46.01308 Y-81.29699
G1 F800.0 X-41.85616 Y-83.69699
G1 X-47.45616 Y-93.39648
G1 X-57.15564 Y-87.79648
G1 X-51.55564 Y-78.09699
G1 X-46.01308 Y-81.29699
G1 F300.0 X-44.81308 Y-79.21853
G1 F800.0 X-38.5777 Y-82.81853
G1 X-46.5777 Y-96.67494
G1 X-60.4341 Y-88.67494
G1 X-52.4341 Y-74.81853
G1 X-44.81308 Y-79.21853
G0 Z3.0
G0 X-48.41308 Y-85.45391
G0 Z-2.0
G1 F300.0 Z-4.0
G1 F800.0 X-49.21308 Y-86.83956
G1 X-50.59872 Y-86.03956
G1 X-49.79872 Y-84.65391
G1 X-48.41308 Y-85.45391
G1 F300.0 X-47.21308 Y-83.37545
G1 F800.0 X-45.13462 Y-84.57545
G1 X-48.33462 Y-90.11802
G1 X-53.87718 Y-86.91802
G1 X-50.67718 Y-81.37545
G1 X-47.21308 Y-83.37545
G1 F300.0 X-46.01308 Y-81.29699
G1 F800.0 X-41.85616 Y-83.69699
G1 X-47.45616 Y-93.39648
G1 X-57.15564 Y-87.79648
G1 X-51.55564 Y-78.09699
G1 X-46.01308 Y-81.29699
G1 F300.0 X-44.81308 Y-79.21853
G1 F800.0 X-38.5777 Y-82.81853
G1 X-46.5777 Y-96.67494
G1 X-60.4341 Y-88.67494
G1 X-52.4341 Y-74.81853
G1 X-44.81308 Y-79.21853
G0 Z3.0
G0 X-48.41308 Y-85.45391
G0 Z-3.0
G1 F300.0 Z-5.0
G1 F800.0 X-49.21308 Y-86.83956
G1 X-50.59872 Y-86.03956
G1 X-49.79872 Y-84.65391
G1 X-48.41308 Y-85.45391
G1 F300.0 X-47.21308 Y-83.37545
G1 F800.0 X-45.13462 Y-84.57545
G1 X-48.33462 Y-90.11802
G1 X-53.87718 Y-86.91802
G1 X-50.67718 Y-81.37545
G1 X-47.21308 Y-83.37545
G1 F300.0 X-46.01308 Y-81.29699
G1 F800.0 X-41.85616 Y-83.69699
G1 X-47.45616 Y-93.39648
G1 X-57.15564 Y-87.79648
G1 X-51.55564 Y-78.09699
G1 X-46.01308 Y-81.29699
G1 F300.0 X-44.81308 Y-79.21853
G1 F800.0 X-38.5777 Y-82.81853
G1 X-46.5777 Y-96.67494
G1 X-60.4341 Y-88.67494
G1 X-52.4341 Y-74.81853
G1 X-44.81308 Y-79.21853
G0 Z3.0
G0 X-48.41308 Y-85.45391
G0 Z-4.0
G1 F300.0 Z-6.0
G1 F800.0 X-49.21308 Y-86.83956
G1 X-50.59872 Y-86.03956
G1 X-49.79872 Y-84.65391
G1 X-48.41308 Y-85.45391
G1 F300.0 X-47.21308 Y-83.37545
G1 F800.0 X-45.13462 Y-84.57545
G1 X-48.33462 Y-90.11802
G1 X-53.87718 Y-86.91802
G1 X-50.67718 Y-81.37545
G1 X-47.21308 Y-83.37545
G1 F300.0 X-46.01308 Y-81.29699
G1 F800.0 X-41.85616 Y-83.69699
G1 X-47.45616 Y-93.39648
G1 X-57.15564 Y-87.79648
G1 X-51.55564 Y-78.09699
G1 X-46.01308 Y-81.29699
G1 F300.0 X-44.81308 Y-79.21853
G1 F800.0 X-38.5777 Y-82.81853
G1 X-46.5777 Y-96.67494
G1 X-60.4341 Y-88.67494
G1 X-52.4341 Y-74.81853
G1 X-44.81308 Y-79.21853
G0 Z3.0
G0 X-48.41308 Y-85.45391
G0 Z-5.0
G1 F300.0 Z-7.0
G1 F800.0 X-49.21308 Y-86.83956
G1 X-50.59872 Y-86.03956
G1 X-49.79872 Y-84.65391
G1 X-48.41308 Y-85.45391
G1 F300.0 X-47.21308 Y-83.37545
G1 F800.0 X-45.13462 Y-84.57545
G1 X-48.33462 Y-90.11802
G1 X-53.87718 Y-86.91802
G1 X-50.67718 Y-81.37545
G1 X-47.21308 Y-83.37545
G1 F300.0 X-46.01308 Y-81.29699
G1 F800.0 X-41.85616 Y-83.69699
G1 X-47.45616 Y-93.39648
G1 X-57.15564 Y-87.79648
G1 X-51.55564 Y-78.09699
G1 X-46.01308 Y-81.29699
G1 F300.0 X-44.81308 Y-79.21853
G1 F800.0 X-38.5777 Y-82.81853
G1 X-46.5777 Y-96.67494
G1 X-60.4341 Y-88.67494
G1 X-52.4341 Y-74.81853
G1 X-44.81308 Y-79.21853
G0 Z3.0
G0 X-48.41308 Y-85.45391
G0 Z-6.0
G1 F300.0 Z-8.0
G1 F800.0 X-49.21308 Y-86.83956
G1 X-50.59872 Y-86.03956
G1 X-49.79872 Y-84.65391
G1 X-48.41308 Y-85.45391
G1 F300.0 X-47.21308 Y-83.37545
G1 F800.0 X-45.13462 Y-84.57545
G1 X-48.33462 Y-90.11802
G1 X-53.87718 Y-86.91802
G1 X-50.67718 Y-81.37545
G1 X-47.21308 Y-83.37545
G1 F300.0 X-46.01308 Y-81.29699
G1 F800.0 X-41.85616 Y-83.69699
G1 X-47.45616 Y-93.39648
G1 X-57.15564 Y-87.79648
G1 X-51.55564 Y-78.09699
G1 X-46.01308 Y-81.29699
G1 F300.0 X-44.81308 Y-79.21853
G1 F800.0 X-38.5777 Y-82.81853
G1 X-46.5777 Y-96.67494
G1 X-60.4341 Y-88.67494
G1 X-52.4341 Y-74.81853
G1 X-44.81308 Y-79.21853
G0 Z3.0
G0 X-48.41308 Y-85.45391
G0 Z-7.0
G1 F300.0 Z-9.0
G1 F800.0 X-49.21308 Y-86.83956
G1 X-50.59872 Y-86.03956
G1 X-49.79872 Y-84.65391
G1 X-48.41308 Y-85.45391
G1 F300.0 X-47.21308 Y-83.37545
G1 F800.0 X-45.13462 Y-84.57545
G1 X-48.33462 Y-90.11802
G1 X-53.87718 Y-86.91802
G1 X-50.67718 Y-81.37545
G1 X-47.21308 Y-83.37545
G1 F300.0 X-46.01308 Y-81.29699
G1 F800.0 X-41.85616 Y-83.69699
G1 X-47.45616 Y-93.39648
G1 X-57.15564 Y-87.79648
G1 X-51.55564 Y-78.09699
G1 X-46.01308 Y-81.29699
G1 F300.0 X-44.81308 Y-79.21853
G1 F800.0 X-38.5777 Y-82.81853
G1 X-46.5777 Y-96.67494
G1 X-60.4341 Y-88.67494
G1 X-52.4341 Y-74.81853
G1 X-44.81308 Y-79.21853
G0 Z3.0
G0 X-48.41308 Y-85.45391
G0 Z-8.0
G1 F300.0 Z-10.0
G1 F800.0 X-49.21308 Y-86.83956
G1 X-50.59872 Y-86.03956
G1 X-49.79872 Y-84.65391
G1 X-48.41308 Y-85.45391
G1 F300.0 X-47.21308 Y-83.37545
G1 F800.0 X-45.13462 Y-84.57545
G1 X-48.33462 Y-90.11802
G1 X-53.87718 Y-86.91802
G1 X-50.67718 Y-81.37545
G1 X-47.21308 Y-83.37545
G1 F300.0 X-46.01308 Y-81.29699
G1 F800.0 X-41.85616 Y-83.69699
G1 X-47.45616 Y-93.39648
G1 X-57.15564 Y-87.79648
G1 X-51.55564 Y-78.09699
G1 X-46.01308 Y-81.29699
G1 F300.0 X-44.81308 Y-79.21853
G1 F800.0 X-38.5777 Y-82.81853
G1 X-46.5777 Y-96.67494
G1 X-60.4341 Y-88.67494
G1 X-52.4341 Y-74.81853
G1 X-44.81308 Y-79.21853
G0 Z3.0
G0 X-48.41308 Y-85.45391
G0 Z-9.0
G1 F300.0 Z-11.0
G1 F800.0 X-49.21308 Y-86.83956
G1 X-50.59872 Y-86.03956
G1 X-49.79872 Y-84.65391
G1 X-48.41308 Y-85.45391
G1 F300.0 X-47.21308 Y-83.37545
G1 F800.0 X-45.13462 Y-84.57545
G1 X-48.33462 Y-90.11802
G1 X-53.87718 Y-86.91802
G1 X-50.67718 Y-81.37545
G1 X-47.21308 Y-83.37545
G1 F300.0 X-46.01308 Y-81.29699
G1 F800.0 X-41.85616 Y-83.69699
G1 X-47.45616 Y-93.39648
G1 X-57.15564 Y-87.79648
G1 X-51.55564 Y-78.09699
G1 X-46.01308 Y-81.29699
G1 F300.0 X-44.81308 Y-79.21853
G1 F800.0 X-38.5777 Y-82.81853
G1 X-46.5777 Y-96.67494
G1 X-60.4341 Y-88.67494
G1 X-52.4341 Y-74.81853
G1 X-44.81308 Y-79.21853
G0 Z3.0
G0 X-48.41308 Y-85.45391
G0 Z-10.0
G1 F300.0 Z-12.0
G1 F800.0 X-49.21308 Y-86.83956
G1 X-50.59872 Y-86.03956
G1 X-49.79872 Y-84.65391
G1 X-48.41308 Y-85.45391
G1 F300.0 X-47.21308 Y-83.37545
G1 F800.0 X-45.13462 Y-84.57545
G1 X-48.33462 Y-90.11802
G1 X-53.87718 Y-86.91802
G1 X-50.67718 Y-81.37545
G1 X-47.21308 Y-83.37545
G1 F300.0 X-46.01308 Y-81.29699
G1 F800.0 X-41.85616 Y-83.69699
G1 X-47.45616 Y-93.39648
G1 X-57.15564 Y-87.79648
G1 X-51.55564 Y-78.09699
G1 X-46.01308 Y-81.29699
G1 F300.0 X-44.81308 Y-79.21853
G1 F800.0 X-38.5777 Y-82.81853
G1 X-46.5777 Y-96.67494
G1 X-60.4341 Y-88.67494
G1 X-52.4341 Y-74.81853
G1 X-44.81308 Y-79.21853
G0 Z3.0
G0 X-93.16764 Y-54.71412
G0 Z1.0
G1 F300.0 Z-1.0
G1 F800.0 X-94.55328 Y-55.51412
G1 X-95.35328 Y-54.12848
G1 X-93.96764 Y-53.32848
G1 X-93.16764 Y-54.71412
G1 F300.0 X-91.08918 Y-53.51412
G1 F800.0 X-89.88918 Y-55.59258
G1 X-95.43174 Y-58.79258
G1 X-98.63174 Y-53.25002
G1 X-93.08918 Y-50.05002
G1 X-91.08918 Y-53.51412
G1 F300.0 X-89.01072 Y-52.31412
G1 F800.0 X-86.61072 Y-56.47104
G1 X-96.3102 Y-62.07104
G1 X-101.9102 Y-52.37156
G1 X-92.21072 Y-46.77156
G1 X-89.01072 Y-52.31412
G1 F300.0 X-86.93226 Y-51.11412
G1 F800.0 X-83.33226 Y-57.3495
G1 X-97.18866 Y-65.3495
G1 X-105.18866 Y-51.4931
G1 X-91.33226 Y-43.4931
G1 X-86.93226 Y-51.11412
G0 Z3.0
G0 X-93.16764 Y-54.71412
G0 Z0.0
G1 F300.0 Z-2.0
G1 F800.0 X-94.55328 Y-55.51412
G1 X-95.35328 Y-54.12848
G1 X-93.96764 Y-53.32848
G1 X-93.16764 Y-54.71412
G1 F300.0 X-91.08918 Y-53.51412
G1 F800.0 X-89.88918 Y-55.59258
G1 X-95.43174 Y-58.79258
G1 X-98.63174 Y-53.25002
G1 X-93.08918 Y-50.05002
G1 X-91.08918 Y-53.51412
G1 F300.0 X-89.01072 Y-52.31412
G1 F800.0 X-86.61072 Y-56.47104
G1 X-96.3102 Y-62.07104
G1 X-101.9102 Y-52.37156
G1 X-92.21072 Y-46.77156
G1 X-89.01072 Y-52.31412
G1 F300.0 X-86.93226 Y-51.11412
G1 F800.0 X-83.33226 Y-57.3495
G1 X-97.18866 Y-65.3495
G1 X-105.18866 Y-51.4931
G1 X-91.33226 Y-43.4931
G1 X-86.93226 Y-51.11412
G0 Z3.0
G0 X-93.16764 Y-54.71412
G0 Z-1.0
G1 F300.0 Z-3.0
G1 F800.0 X-94.55328 Y-55.51412
G1 X-95.35328 Y-54.12848
G1 X-93.96764 Y-53.32848
G1 X-93.16764 Y-54.71412
G1 F300.0 X-91.08918 Y-53.51412
G1 F800.0 X-89.88918 Y-55.59258
G1 X-95.43174 Y-58.79258
G1 X-98.63174 Y-53.25002
G1 X-93.08918 Y-50.05002
G1 X-91.08918 Y-53.51412
G1 F300.0 X-89.01072 Y-52.31412
G1 F800.0 X-86.61072 Y-56.47104
G1 X-96.3102 Y-62.07104
G1 X-101.9102 Y-52.37156
G1 X-92.21072 Y-46.77156
G1 X-89.01072 Y-52.31412
G1 F300.0 X-86.93226 Y-51.11412
G1 F800.0 X-83.33226 Y-57.3495
G1 X-97.18866 Y-65.3495
G1 X-105.18866 Y-51.4931
G1 X-91.33226 Y-43.4931
G1 X-86.93226 Y-51.11412
G0 Z3.0
G0 X-93.16764 Y-54.71412
G0 Z-2.0
G1 F300.0 Z-4.0
G1 F800.0 X-94.55328 Y-55.51412
G1 X-95.35328 Y-54.12848
G1 X-93.96764 Y-53.32848
G1 X-93.16764 Y-54.71412
G1 F300.0 X-91.08918 Y-53.51412
G1 F800.0 X-89.88918 Y-55.59258
G1 X-95.43174 Y-58.79258
G1 X-98.63174 Y-53.25002
G1 X-93.08918 Y-50.05002
G1 X-91.08918 Y-53.51412
G1 F300.0 X-89.01072 Y-52.31412
G1 F800.0 X-86.61072 Y-56.47104
G1 X-96.3102 Y-62.07104
G1 X-101.9102 Y-52.37156
G1 X-92.21072 Y-46.77156
G1 X-89.01072 Y-52.31412
G1 F300.0 X-86.93226 Y-51.11412
G1 F800.0 X-83.33226 Y-57.3495
G1 X-97.18866 Y-65.3495
G1 X-105.18866 Y-51.4931
G1 X-91.33226 Y-43.4931
G1 X-86.93226 Y-51.11412
G0 Z3.0
G0 X-93.16764 Y-54.71412
G0 Z-3.0
G1 F300.0 Z-5.0
G1 F800.0 X-94.55328 Y-55.51412
G1 X-95.35328 Y-54.12848
G1 X-93.96764 Y-53.32848
G1 X-93.16764 Y-54.71412
G1 F300.0 X-91.08918 Y-53.51412
G1 F800.0 X-89.88918 Y-55.59258
G1 X-95.43174 Y-58.79258
G1 X-98.63174 Y-53.25002
G1 X-93.08918 Y-50.05002
G1 X-91.08918 Y-53.51412
G1 F300.0 X-89.01072 Y-52.31412
G1 F800.0 X-86.61072 Y-56.47104
G1 X-96.3102 Y-62.07104
G1 X-101.9102 Y-52.37156
G1 X-92.21072 Y-46.77156
G1 X-89.01072 Y-52.31412
G1 F300.0 X-86.93226 Y-51.11412
G1 F800.0 X-83.33226 Y-57.3495
G1 X-97.18866 Y-65.3495
G1 X-105.18866 Y-51.4931
G1 X-91.33226 Y-43.4931
G1 X-86.93226 Y-51.11412
G0 Z3.0
G0 X-93.16764 Y-54.71412
G0 Z-4.0
G1 F300.0 Z-6.0
G1 F800.0 X-94.55328 Y-55.51412
G1 X-95.35328 Y-54.12848
G1 X-93.96764 Y-53.32848
G1 X-93.16764 Y-54.71412
G1 F300.0 X-91.08918 Y-53.51412
G1 F800.0 X-89.88918 Y-55.59258
G1 X-95.43174 Y-58.79258
G1 X-98.63174 Y-53.25002
G1 X-93.08918 Y-50.05002
G1 X-91.08918 Y-53.51412
G1 F300.0 X-89.01072 Y-52.31412
G1 F800.0 X-86.61072 Y-56.47104
G1 X-96.3102 Y-62.07104
G1 X-101.9102 Y-52.37156
G1 X-92.21072 Y-46.77156
G1 X-89.01072 Y-52.31412
G1 F300.0 X-86.93226 Y-51.11412
G1 F800.0 X-83.33226 Y-57.3495
G1 X-97.18866 Y-65.3495
G1 X-105.18866 Y-51.4931
G1 X-91.33226 Y-43.4931
G1 X-86.93226 Y-51.11412
G0 Z3.0
G0 X-93.16764 Y-54.71412
G0 Z-5.0
G1 F300.0 Z-7.0
G1 F800.0 X-94.55328 Y-55.51412
G1 X-95.35328 Y-54.12848
G1 X-93.96764 Y-53.32848
G1 X-93.16764 Y-54.71412
G1 F300.0 X-91.08918 Y-53.51412
G1 F800.0 X-89.88918 Y-55.59258
G1 X-95.43174 Y-58.79258
G1 X-98.63174 Y-53.25002
G1 X-93.08918 Y-50.05002
G1 X-91.08918 Y-53.51412
G1 F300.0 X-89.01072 Y-52.31412
G1 F800.0 X-86.61072 Y-56.47104
G1 X-96.3102 Y-62.07104
G1 X-101.9102 Y-52.37156
G1 X-92.21072 Y-46.77156
G1 X-89.01072 Y-52.31412
G1 F300.0 X-86.93226 Y-51.11412
G1 F800.0 X-83.33226 Y-57.3495
G1 X-97.18866 Y-65.3495
G1 X-105.18866 Y-51.4931
G1 X-91.33226 Y-43.4931
G1 X-86.93226 Y-51.11412
G0 Z3.0
G0 X-93.16764 Y-54.71412
G0 Z-6.0
G1 F300.0 Z-8.0
G1 F800.0 X-94.55328 Y-55.51412
G1 X-95.35328 Y-54.12848
G1 X-93.96764 Y-53.32848
G1 X-93.16764 Y-54.71412
G1 F300.0 X-91.08918 Y-53.51412
G1 F800.0 X-89.88918 Y-55.59258
G1 X-95.43174 Y-58.79258
G1 X-98.63174 Y-53.25002
G1 X-93.08918 Y-50.05002
G1 X-91.08918 Y-53.51412
G1 F300.0 X-89.01072 Y-52.31412
G1 F800.0 X-86.61072 Y-56.47104
G1 X-96.3102 Y-62.07104
G1 X-101.9102 Y-52.37156
G1 X-92.21072 Y-46.77156
G1 X-89.01072 Y-52.31412
G1 F300.0 X-86.93226 Y-51.11412
G1 F800.0 X-83.33226 Y-57.3495
G1 X-97.18866 Y-65.3495
G1 X-105.18866 Y-51.4931
G1 X-91.33226 Y-43.4931
G1 X-86.93226 Y-51.11412
G0 Z3.0
G0 X-93.16764 Y-54.71412
G0 Z-7.0
G1 F300.0 Z-9.0
G1 F800.0 X-94.55328 Y-55.51412
G1 X-95.35328 Y-54.12848
G1 X-93.96764 Y-53.32848
G1 X-93.16764 Y-54.71412
G1 F300.0 X-91.08918 Y-53.51412
G1 F800.0 X-89.88918 Y-55.59258
G1 X-95.43174 Y-58.79258
G1 X-98.63174 Y-53.25002
G1 X-93.08918 Y-50.05002
G1 X-91.08918 Y-53.51412
G1 F300.0 X-89.01072 Y-52.31412
G1 F800.0 X-86.61072 Y-56.47104
G1 X-96.3102 Y-62.07104
G1 X-101.9102 Y-52.37156
G1 X-92.21072 Y-46.77156
G1 X-89.01072 Y-52.31412
G1 F300.0 X-86.93226 Y-51.11412
G1 F800.0 X-83.33226 Y-57.3495
G1 X-97.18866 Y-65.3495
G1 X-105.18866 Y-51.4931
G1 X-91.33226 Y-43.4931
G1 X-86.93226 Y-51.11412
G0 Z3.0
G0 X-93.16764 Y-54.71412
G0 Z-8.0
G1 F300.0 Z-10.0
G1 F800.0 X-94.55328 Y-55.51412
G1 X-95.35328 Y-54.12848
G1 X-93.96764 Y-53.32848
G1 X-93.16764 Y-54.71412
G1 F300.0 X-91.08918 Y-53.51412
G1 F800.0 X-89.88918 Y-55.59258
G1 X-95.43174 Y-58.79258
G1 X-98.63174 Y-53.25002
G1 X-93.08918 Y-50.05002
G1 X-91.08918 Y-53.51412
G1 F300.0 X-89.01072 Y-52.31412
G1 F800.0 X-86.61072 Y-56.47104
G1 X-96.3102 Y-62.07104
G1 X-101.9102 Y-52.37156
G1 X-92.21072 Y-46.77156
G1 X-89.01072 Y-52.31412
G1 F300.0 X-86.93226 Y-51.11412
G1 F800.0 X-83.33226 Y-57.3495
G1 X-97.18866 Y-65.3495
G1 X-105.18866 Y-51.4931
G1 X-91.33226 Y-43.4931
G1 X-86.93226 Y-51.11412
G0 Z3.0
G0 X-93.16764 Y-54.71412
G0 Z-9.0
G1 F300.0 Z-11.0
G1 F800.0 X-94.55328 Y-55.51412
G1 X-95.35328 Y-54.12848
G1 X-93.96764 Y-53.32848
G1 X-93.16764 Y-54.71412
G1 F300.0 X-91.08918 Y-53.51412
G1 F800.0 X-89.88918 Y-55.59258
G1 X-95.43174 Y-58.79258
G1 X-98.63174 Y-53.25002
G1 X-93.08918 Y-50.05002
G1 X-91.08918 Y-53.51412
G1 F300.0 X-89.01072 Y-52.31412
G1 F800.0 X-86.61072 Y-56.47104
G1 X-96.3102 Y-62.07104
G1 X-101.9102 Y-52.37156
G1 X-92.21072 Y-46.77156
G1 X-89.01072 Y-52.31412
G1 F300.0 X-86.93226 Y-51.11412
G1 F800.0 X-83.33226 Y-57.3495
G1 X-97.18866 Y-65.3495
G1 X-105.18866 Y-51.4931
G1 X-91.33226 Y-43.4931
G1 X-86.93226 Y-51.11412
G0 Z3.0
G0 X-93.16764 Y-54.71412
G0 Z-10.0
G1 F300.0 Z-12.0
G1 F800.0 X-94.55328 Y-55.51412
G1 X-95.35328 Y-54.12848
G1 X-93.96764 Y-53.32848
G1 X-93.16764 Y-54.71412
G1 F300.0 X-91.08918 Y-53.51412
G1 F800.0 X-89.88918 Y-55.59258
G1 X-95.43174 Y-58.79258
G1 X-98.63174 Y-53.25002
G1 X-93.08918 Y-50.05002
G1 X-91.08918 Y-53.51412
G1 F300.0 X-89.01072 Y-52.31412
G1 F800.0 X-86.61072 Y-56.47104
G1 X-96.3102 Y-62.07104
G1 X-101.9102 Y-52.37156
G1 X-92.21072 Y-46.77156
G1 X-89.01072 Y-52.31412
G1 F300.0 X-86.93226 Y-51.11412
G1 F800.0 X-83.33226 Y-57.3495
G1 X-97.18866 Y-65.3495
G1 X-105.18866 Y-51.4931
G1 X-91.33226 Y-43.4931
G1 X-86.93226 Y-51.11412
G0 Z3.0
G0 X-114.2 Y-0.8
G0 Z1.0
G1 F300.0 Z-1.0
G1 F800.0 X-115.8
G1 Y0.8
G1 X-114.2
G1 Y-0.8
G1 F300.0 Y-3.2
G1 F800.0 X-118.2
G1 Y3.2
G1 X-111.8
G1 Y-3.2
G1 X-114.2
G1 F300.0 Y-5.6
G1 F800.0 X-120.6
G1 Y5.6
G1 X-109.4
G1 Y-5.6
G1 X-114.2
G1 F300.0 Y-8.0
G1 F800.0 X-123.0
G1 Y8.0
G1 X-107.0
G1 Y-8.0
G1 X-114.2
G0 Z3.0
G0 Y-0.8
G0 Z0.0
G1 F300.0 Z-2.0
G1 F800.0 X-115.8
G1 Y0.8
G1 X-114.2
G1 Y-0.8
G1 F300.0 Y-3.2
G1 F800.0 X-118.2
G1 Y3.2
G1 X-111.8
G1 Y-3.2
G1 X-114.2
G1 F300.0 Y-5.6
G1 F800.0 X-120.6
G1 Y5.6
G1 X-109.4
G1 Y-5.6
G1 X-114.2
G1 F300.0 Y-8.0
G1 F800.0 X-123.0
G1 Y8.0
G1 X-107.0
G1 Y-8.0
G1 X-114.2
G0 Z3.0
G0 Y-0.8
G0 Z-1.0
G1 F300.0 Z-3.0
G1 F800.0 X-115.8
G1 Y0.8
G1 X-114.2
G1 Y-0.8
G1 F300.0 Y-3.2
G1 F800.0 X-118.2
G1 Y3.2
G1 X-111.8
G1 Y-3.2
G1 X-114.2
G1 F300.0 Y-5.6
G1 F800.0 X-120.6
G1 Y5.6
G1 X-109.4
G1 Y-5.6
G1 X-114.2
G1 F300.0 Y-8.0
G1 F800.0 X-123.0
G1 Y8.0
G1 X-107.0
G1 Y-8.0
G1 X-114.2
G0 Z3.0
G0 Y-0.8
G0 Z-2.0
G1 F300.0 Z-4.0
G1 F800.0 X-115.8
G1 Y0.8
G1 X-114.2
G1 Y-0.8
G1 F300.0 Y-3.2
G1 F800.0 X-118.2
G1 Y3.2
G1 X-111.8
G1 Y-3.2
G1 X-114.2
G1 F300.0 Y-5.6
G1 F800.0 X-120.6
G1 Y5.6
G1 X-109.4
G1 Y-5.6
G1 X-114.2
G1 F300.0 Y-8.0
G1 F800.0 X-123.0
G1 Y8.0
G1 X-107.0
G1 Y-8.0
G1 X-114.2
G0 Z3.0
G0 Y-0.8
G0 Z-3.0
G1 F300.0 Z-5.0
G1 F800.0 X-115.8
G1 Y0.8
G1 X-114.2
G1 Y-0.8
G1 F300.0 Y-3.2
G1 F800.0 X-118.2
G1 Y3.2
G1 X-111.8
G1 Y-3.2
G1 X-114.2
G1 F300.0 Y-5.6
G1 F800.0 X-120.6
G1 Y5.6
G1 X-109.4
G1 Y-5.6
G1 X-114.2
G1 F300.0 Y-8.0
G1 F800.0 X-123.0
G1 Y8.0
G1 X-107.0
G1 Y-8.0
G1 X-114.2
G0 Z3.0
G0 Y-0.8
G0 Z-4.0
G1 F300.0 Z-6.0
G1 F800.0 X-115.8
G1 Y0.8
G1 X-114.2
G1 Y-0.8
G1 F300.0 Y-3.2
G1 F800.0 X-118.2
G1 Y3.2
G1 X-111.8
G1 Y-3.2
G1 X-114.2
G1 F300.0 Y-5.6
G1 F800.0 X-120.6
G1 Y5.6
G1 X-109.4
G1 Y-5.6
G1 X-114.2
G1 F300.0 Y-8.0
G1 F800.0 X-123.0
G1 Y8.0
G1 X-107.0
G1 Y-8.0
G1 X-114.2
G0 Z3.0
G0 Y-0.8
G0 Z-5.0
G1 F300.0 Z-7.0
G1 F800.0 X-115.8
G1 Y0.8
G1 X-114.2
G1 Y-0.8
G1 F300.0 Y-3.2
G1 F800.0 X-118.2
G1 Y3.2
G1 X-111.8
G1 Y-3.2
G1 X-114.2
G1 F300.0 Y-5.6
G1 F800.0 X-120.6
G1 Y5.6
G1 X-109.4
G1 Y-5.6
G1 X-114.2
G1 F300.0 Y-8.0
G1 F800.0 X-123.0
G1 Y8.0
G1 X-107.0
G1 Y-8.0
G1 X-114.2
G0 Z3.0
G0 Y-0.8
G0 Z-6.0
G1 F300.0 Z-8.0
G1 F800.0 X-115.8
G1 Y0.8
G1 X-114.2
G1 Y-0.8
G1 F300.0 Y-3.2
G1 F800.0 X-118.2
G1 Y3.2
G1 X-111.8
G1 Y-3.2
G1 X-114.2
G1 F300.0 Y-5.6
G1 F800.0 X-120.6
G1 Y5.6
G1 X-109.4
G1 Y-5.6
G1 X-114.2
G1 F300.0 Y-8.0
G1 F800.0 X-123.0
G1 Y8.0
G1 X-107.0
G1 Y-8.0
G1 X-114.2
G0 Z3.0
G0 Y-0.8
G0 Z-7.0
G1 F300.0 Z-9.0
G1 F800.0 X-115.8
G1 Y0.8
G1 X-114.2
G1 Y-0.8
G1 F300.0 Y-3.2
G1 F800.0 X-118.2
G1 Y3.2
G1 X-111.8
G1 Y-3.2
G1 X-114.2
G1 F300.0 Y-5.6
G1 F800.0 X-120.6
G1 Y5.6
G1 X-109.4
G1 Y-5.6
G1 X-114.2
G1 F300.0 Y-8.0
G1 F800.0 X-123.0
G1 Y8.0
G1 X-107.0
G1 Y-8.0
G1 X-114.2
G0 Z3.0
G0 Y-0.8
G0 Z-8.0
G1 F300.0 Z-10.0
G1 F800.0 X-115.8
G1 Y0.8
G1 X-114.2
G1 Y-0.8
G1 F300.0 Y-3.2
G1 F800.0 X-118.2
G1 Y3.2
G1 X-111.8
G1 Y-3.2
G1 X-114.2
G1 F300.0 Y-5.6
G1 F800.0 X-120.6
G1 Y5.6
G1 X-109.4
G1 Y-5.6
G1 X-114.2
G1 F300.0 Y-8.0
G1 F800.0 X-123.0
G1 Y8.0
G1 X-107.0
G1 Y-8.0
G1 X-114.2
G0 Z3.0
G0 Y-0.8
G0 Z-9.0
G1 F300.0 Z-11.0
G1 F800.0 X-115.8
G1 Y0.8
G1 X-114.2
G1 Y-0.8
G1 F300.0 Y-3.2
G1 F800.0 X-118.2
G1 Y3.2
G1 X-111.8
G1 Y-3.2
G1 X-114.2
G1 F300.0 Y-5.6
G1 F800.0 X-120.6
G1 Y5.6
G1 X-109.4
G1 Y-5.6
G1 X-114.2
G1 F300.0 Y-8.0
G1 F800.0 X-123.0
G1 Y8.0
G1 X-107.0
G1 Y-8.0
G1 X-114.2
G0 Z3.0
G0 Y-0.8
G0 Z-10.0
G1 F300.0 Z-12.0
G1 F800.0 X-115.8
G1 Y0.8
G1 X-114.2
G1 Y-0.8
G1 F300.0 Y-3.2
G1 F800.0 X-118.2
G1 Y3.2
G1 X-111.8
G1 Y-3.2
G1 X-114.2
G1 F300.0 Y-5.6
G1 F800.0 X-120.6
G1 Y5.6
G1 X-109.4
G1 Y-5.6
G1 X-114.2
G1 F300.0 Y-8.0
G1 F800.0 X-123.0
G1 Y8.0
G1 X-107.0
G1 Y-8.0
G1 X-114.2
G0 Z3.0
G0 X-94.31406 Y53.32848
G0 Z1.0
G1 F300.0 Z-1.0
G1 F800.0 X-95.6997 Y54.12848
G1 X-94.8997 Y55.51412
G1 X-93.51406 Y54.71412
G1 X-94.31406 Y53.32848
G1 F300.0 X-92.2356 Y52.12848
G1 F800.0 X-93.4356 Y50.05002
G1 X-98.97817 Y53.25002
G1 X-95.77817 Y58.79258
G1 X-90.2356 Y55.59258
G1 X-92.2356 Y52.12848
G1 F300.0 X-90.15714 Y50.92848
G1 F800.0 X-92.55714 Y46.77156
G1 X-102.25663 Y52.37156
G1 X-96.65663 Y62.07104
G1 X-86.95714 Y56.47104
G1 X-90.15714 Y50.92848
G1 F300.0 X-88.07868 Y49.72848
G1 F800.0 X-91.67868 Y43.4931
G1 X-105.53509 Y51.4931
G1 X-97.53509 Y65.3495
G1 X-83.67868 Y57.3495
G1 X-88.07868 Y49.72848
G0 Z3.0
G0 X-94.31406 Y53.32848
G0 Z0.0
G1 F300.0 Z-2.0
G1 F800.0 X-95.6997 Y54.12848
G1 X-94.8997 Y55.51412
G1 X-93.51406 Y54.71412
G1 X-94.31406 Y53.32848
G1 F300.0 X-92.2356 Y52.12848
G1 F800.0 X-93.4356 Y50.05002
G1 X-98.97817 Y53.25002
G1 X-95.77817 Y58.79258
G1 X-90.2356 Y55.59258
G1 X-92.2356 Y52.12848
G1 F300.0 X-90.15714 Y50.92848
G1 F800.0 X-92.55714 Y46.77156
G1 X-102.25663 Y52.37156
G1 X-96.65663 Y62.07104
G1 X-86.95714 Y56.47104
G1 X-90.15714 Y50.92848
G1 F300.0 X-88.07868 Y49.72848
G1 F800.0 X-91.67868 Y43.4931
G1 X-105.53509 Y51.4931
G1 X-97.53509 Y65.3495
G1 X-83.67868 Y57.3495
G1 X-88.07868 Y49.72848
G0 Z3.0
G0 X-94.31406 Y53.32848
G0 Z-1.0
G1 F300.0 Z-3.0
G1 F800.0 X-95.6997 Y54.12848
G1 X-94.8997 Y55.51412
G1 X-93.51406 Y54.71412
G1 X-94.31406 Y53.32848
G1 F300.0 X-92.2356 Y52.12848
G1 F800.0 X-93.4356 Y50.05002
G1 X-98.97817 Y53.25002
G1 X-95.77817 Y58.79258
G1 X-90.2356 Y55.59258
G1 X-92.2356 Y52.12848
G1 F300.0 X-90.15714 Y50.92848
G1 F800.0 X-92.55714 Y46.77156
G1 X-102.25663 Y52.37156
G1 X-96.65663 Y62.07104
G1 X-86.95714 Y56.47104
G1 X-90.15714 Y50.92848
G1 F300.0 X-88.07868 Y49.72848
G1 F800.0 X-91.67868 Y43.4931
G1 X-105.53509 Y51.4931
G1 X-97.53509 Y65.3495
G1 X-83.67868 Y57.3495
G1 X-88.07868 Y49.72848
G0 Z3.0
G0 X-94.31406 Y53.32848
G0 Z-2.0
G1 F300.0 Z-4.0
G1 F800.0 X-95.6997 Y54.12848
G1 X-94.8997 Y55.51412
G1 X-93.51406 Y54.71412
G1 X-94.31406 Y53.32848
G1 F300.0 X-92.2356 Y52.12848
G1 F800.0 X-93.4356 Y50.05002
G1 X-98.97817 Y53.25002
G1 X-95.77817 Y58.79258
G1 X-90.2356 Y55.59258
G1 X-92.2356 Y52.12848
G1 F300.0 X-90.15714 Y50.92848
G1 F800.0 X-92.55714 Y46.77156
G1 X-102.25663 Y52.37156
G1 X-96.65663 Y62.07104
G1 X-86.95714 Y56.47104
G1 X-90.15714 Y50.92848
G1 F300.0 X-88.07868 Y49.72848
G1 F800.0 X-91.67868 Y43.4931
G1 X-105.53509 Y51.4931
G1 X-97.53509 Y65.3495
G1 X-83.67868 Y57.3495
G1 X-88.07868 Y49.72848
G0 Z3.0
G0 X-94.31406 Y53.32848
G0 Z-3.0
G1 F300.0 Z-5.0
G1 F800.0 X-95.6997 Y54.12848
G1 X-94.8997 Y55.51412
G1 X-93.51406 Y54.71412
G1 X-94.31406 Y53.32848
G1 F300.0 X-92.2356 Y52.12848
G1 F800.0 X-93.4356 Y50.05002
G1 X-98.97817 Y53.25002
G1 X-95.77817 Y58.79258
G1 X-90.2356 Y55.59258
G1 X-92.2356 Y52.12848
G1 F300.0 X-90.15714 Y50.92848
G1 F800.0 X-92.55714 Y46.77156
G1 X-102.25663 Y52.37156
G1 X-96.65663 Y62.07104
G1 X-86.95714 Y56.47104
G1 X-90.15714 Y50.92848
G1 F300.0 X-88.07868 Y49.72848
G1 F800.0 X-91.67868 Y43.4931
G1 X-105.53509 Y51.4931
G1 X-97.53509 Y65.3495
G1 X-83.67868 Y57.3495
G1 X-88.07868 Y49.72848
G0 Z3.0
G0 X-94.31406 Y53.32848
G0 Z-4.0
G1 F300.0 Z-6.0
G1 F800.0 X-95.6997 Y54.12848
G1 X-94.8997 Y55.51412
G1 X-93.51406 Y54.71412
G1 X-94.31406 Y53.32848
G1 F300.0 X-92.2356 Y52.12848
G1 F800.0 X-93.4356 Y50.05002
G1 X-98.97817 Y53.25002
G1 X-95.77817 Y58.79258
G1 X-90.2356 Y55.59258
G1 X-92.2356 Y52.12848
G1 F300.0 X-90.15714 Y50.92848
G1 F800.0 X-92.55714 Y46.77156
G1 X-102.25663 Y52.37156
G1 X-96.65663 Y62.07104
G1 X-86.95714 Y56.47104
G1 X-90.15714 Y50.92848
G1 F300.0 X-88.07868 Y49.72848
G1 F800.0 X-91.67868 Y43.4931
G1 X-105.53509 Y51.4931
G1 X-97.53509 Y65.3495
G1 X-83.67868 Y57.3495
G1 X-88.07868 Y49.72848
G0 Z3.0
G0 X-94.31406 Y53.32848
G0 Z-5.0
G1 F300.0 Z-7.0
G1 F800.0 X-95.6997 Y54.12848
G1 X-94.8997 Y55.51412
G1 X-93.51406 Y54.71412
G1 X-94.31406 Y53.32848
G1 F300.0 X-92.2356 Y52.12848
G1 F800.0 X-93.4356 Y50.05002
G1 X-98.97817 Y53.25002
G1 X-95.77817 Y58.79258
G1 X-90.2356 Y55.59258
G1 X-92.2356 Y52.12848
G1 F300.0 X-90.15714 Y50.92848
G1 F800.0 X-92.55714 Y46.77156
G1 X-102.25663 Y52.37156
G1 X-96.65663 Y62.07104
G1 X-86.95714 Y56.47104
G1 X-90.15714 Y50.92848
G1 F300.0 X-88.07868 Y49.72848
G1 F800.0 X-91.67868 Y43.4931
G1 X-105.53509 Y51.4931
G1 X-97.53509 Y65.3495
G1 X-83.67868 Y57.3495
G1 X-88.07868 Y49.72848
G0 Z3.0
G0 X-94.31406 Y53.32848
G0 Z-6.0
G1 F300.0 Z-8.0
G1 F800.0 X-95.6997 Y54.12848
G1 X-94.8997 Y55.51412
G1 X-93.51406 Y54.71412
G1 X-94.31406 Y53.32848
G1 F300.0 X-92.2356 Y52.12848
G1 F800.0 X-93.4356 Y50.05002
G1 X-98.97817 Y53.25002
G1 X-95.77817 Y58.79258
G1 X-90.2356 Y55.59258
G1 X-92.2356 Y52.12848
G1 F300.0 X-90.15714 Y50.92848
G1 F800.0 X-92.55714 Y46.77156
G1 X-102.25663 Y52.37156
G1 X-96.65663 Y62.07104
G1 X-86.95714 Y56.47104
G1 X-90.15714 Y50.92848
G1 F300.0 X-88.07868 Y49.72848
G1 F800.0 X-91.67868 Y43.4931
G1 X-105.53509 Y51.4931
G1 X-97.53509 Y65.3495
G1 X-83.67868 Y57.3495
G1 X-88.07868 Y49.72848
G0 Z3.0
G0 X-94.31406 Y53.32848
G0 Z-7.0
G1 F300.0 Z-9.0
G1 F800.0 X-95.6997 Y54.12848
G1 X-94.8997 Y55.51412
G1 X-93.51406 Y54.71412
G1 X-94.31406 Y53.32848
G1 F300.0 X-92.2356 Y52.12848
G1 F800.0 X-93.4356 Y50.05002
G1 X-98.97817 Y53.25002
G1 X-95.77817 Y58.79258
G1 X-90.2356 Y55.59258
G1 X-92.2356 Y52.12848
G1 F300.0 X-90.15714 Y50.92848
G1 F800.0 X-92.55714 Y46.77156
G1 X-102.25663 Y52.37156
G1 X-96.65663 Y62.07104
G1 X-86.95714 Y56.47104
G1 X-90.15714 Y50.92848
G1 F300.0 X-88.07868 Y49.72848
G1 F800.0 X-91.67868 Y43.4931
G1 X-105.53509 Y51.4931
G1 X-97.53509 Y65.3495
G1 X-83.67868 Y57.3495
G1 X-88.07868 Y49.72848
G0 Z3.0
G0 X-94.31406 Y53.32848
G0 Z-8.0
G1 F300.0 Z-10.0
G1 F800.0 X-95.6997 Y54.12848
G1 X-94.8997 Y55.51412
G1 X-93.51406 Y54.71412
G1 X-94.31406 Y53.32848
G1 F300.0 X-92.2356 Y52.12848
G1 F800.0 X-93.4356 Y50.05002
G1 X-98.97817 Y53.25002
G1 X-95.77817 Y58.79258
G1 X-90.2356 Y55.59258
G1 X-92.2356 Y52.12848
G1 F300.0 X-90.15714 Y50.92848
G1 F800.0 X-92.55714 Y46.77156
G1 X-102.25663 Y52.37156
G1 X-96.65663 Y62.07104
G1 X-86.95714 Y56.47104
G1 X-90.15714 Y50.92848
G1 F300.0 X-88.07868 Y49.72848
G1 F800.0 X-91.67868 Y43.4931
G1 X-105.53509 Y51.4931
G1 X-97.53509 Y65.3495
G1 X-83.67868 Y57.3495
G1 X-88.07868 Y49.72848
G0 Z3.0
G0 X-94.31406 Y53.32848
G0 Z-9.0
G1 F300.0 Z-11.0
G1 F800.0 X-95.6997 Y54.12848
G1 X-94.8997 Y55.51412
G1 X-93.51406 Y54.71412
G1 X-94.31406 Y53.32848
G1 F300.0 X-92.2356 Y52.12848
G1 F800.0 X-93.4356 Y50.05002
G1 X-98.97817 Y53.25002
G1 X-95.77817 Y58.79258
G1 X-90.2356 Y55.59258
G1 X-92.2356 Y52.12848
G1 F300.0 X-90.15714 Y50.92848
G1 F800.0 X-92.55714 Y46.77156
G1 X-102.25663 Y52.37156
G1 X-96.65663 Y62.07104
G1 X-86.95714 Y56.47104
G1 X-90.15714 Y50.92848
G1 F300.0 X-88.07868 Y49.72848
G1 F800.0 X-91.67868 Y43.4931
G1 X-105.53509 Y51.4931
G1 X-97.53509 Y65.3495
G1 X-83.67868 Y57.3495
G1 X-88.07868 Y49.72848
G0 Z3.0
G0 X-94.31406 Y53.32848
G0 Z-10.0
G1 F300.0 Z-12.0
G1 F800.0 X-95.6997 Y54.12848
G1 X-94.8997 Y55.51412
G1 X-93.51406 Y54.71412
G1 X-94.31406 Y53.32848
G1 F300.0 X-92.2356 Y52.12848
G1 F800.0 X-93.4356 Y50.05002
G1 X-98.97817 Y53.25002
G1 X-95.77817 Y58.79258
G1 X-90.2356 Y55.59258
G1 X-92.2356 Y52.12848
G1 F300.0 X-90.15714 Y50.92848
G1 F800.0 X-92.55714 Y46.77156
G1 X-102.25663 Y52.37156
G1 X-96.65663 Y62.07104
G1 X-86.95714 Y56.47104
G1 X-90.15714 Y50.92848
G1 F300.0 X-88.07868 Y49.72848
G1 F800.0 X-91.67868 Y43.4931
G1 X-105.53509 Y51.4931
G1 X-97.53509 Y65.3495
G1 X-83.67868 Y57.3495
G1 X-88.07868 Y49.72848
G0 Z3.0
G0 X-49.49776 Y84.65391
G0 Z1.0
G1 F300.0 Z-1.0
G1 F800.0 X-50.29776 Y86.03955
G1 X-48.91212 Y86.83955
G1 X-48.11212 Y85.45391
G1 X-49.49776 Y84.65391
G1 F300.0 X-51.57622 Y83.45391
G1 F800.0 X-53.57622 Y86.91801
G1 X-48.03365 Y90.11801
G1 X-44.83365 Y84.57545
G1 X-50.37622 Y81.37545
G1 X-51.57622 Y83.45391
G1 F300.0 X-53.65468 Y82.25391
G1 F800.0 X-56.85468 Y87.79648
G1 X-47.15519 Y93.39648
G1 X-41.55519 Y83.69699
G1 X-51.25468 Y78.09699
G1 X-53.65468 Y82.25391
G1 F300.0 X-55.73314 Y81.05391
G1 F800.0 X-60.13314 Y88.67494
G1 X-46.27673 Y96.67494
G1 X-38.27673 Y82.81853
G1 X-52.13314 Y74.81853
G1 X-55.73314 Y81.05391
G0 Z3.0
G0 X-49.49776 Y84.65391
G0 Z0.0
G1 F300.0 Z-2.0
G1 F800.0 X-50.29776 Y86.03955
G1 X-48.91212 Y86.83955
G1 X-48.11212 Y85.45391
G1 X-49.49776 Y84.65391
G1 F300.0 X-51.57622 Y83.45391
G1 F800.0 X-53.57622 Y86.91801
G1 X-48.03365 Y90.11801
G1 X-44.83365 Y84.57545
G1 X-50.37622 Y81.37545
G1 X-51.57622 Y83.45391
G1 F300.0 X-53.65468 Y82.25391
G1 F800.0 X-56.85468 Y87.79648
G1 X-47.15519 Y93.39648
G1 X-41.55519 Y83.69699
G1 X-51.25468 Y78.09699
G1 X-53.65468 Y82.25391
G1 F300.0 X-55.73314 Y81.05391
G1 F800.0 X-60.13314 Y88.67494
G1 X-46.27673 Y96.67494
G1 X-38.27673 Y82.81853
G1 X-52.13314 Y74.81853
G1 X-55.73314 Y81.05391
G0 Z3.0
G0 X-49.49776 Y84.65391
G0 Z-1.0
G1 F300.0 Z-3.0
G1 F800.0 X-50.29776 Y86.03955
G1 X-48.91212 Y86.83955
G1 X-48.11212 Y85.45391
G1 X-49.49776 Y84.65391
G1 F300.0 X-51.57622 Y83.45391
G1 F800.0 X-53.57622 Y86.91801
G1 X-48.03365 Y90.11801
G1 X-44.83365 Y84.57545
G1 X-50.37622 Y81.37545
G1 X-51.57622 Y83.45391
G1 F300.0 X-53.65468 Y82.25391
G1 F800.0 X-56.85468 Y87.79648
G1 X-47.15519 Y93.39648
G1 X-41.55519 Y83.69699
G1 X-51.25468 Y78.09699
G1 X-53.65468 Y82.25391
G1 F300.0 X-55.73314 Y81.05391
G1 F800.0 X-60.13314 Y88.67494
G1 X-46.27673 Y96.67494
G1 X-38.27673 Y82.81853
G1 X-52.13314 Y74.81853
G1 X-55.73314 Y81.05391
G0 Z3.0
G0 X-49.49776 Y84.65391
G0 Z-2.0
G1 F300.0 Z-4.0
G1 F800.0 X-50.29776 Y86.03955
G1 X-48.91212 Y86.83955
G1 X-48.11212 Y85.45391
G1 X-49.49776 Y84.65391
G1 F300.0 X-51.57622 Y83.45391
G1 F800.0 X-53.57622 Y86.91801
G1 X-48.03365 Y90.11801
G1 X-44.83365 Y84.57545
G1 X-50.37622 Y81.37545
G1 X-51.57622 Y83.45391
G1 F300.0 X-53.65468 Y82.25391
G1 F800.0 X-56.85468 Y87.79648
G1 X-47.15519 Y93.39648
G1 X-41.55519 Y83.69699
G1 X-51.25468 Y78.09699
G1 X-53.65468 Y82.25391
G1 F300.0 X-55.73314 Y81.05391
G1 F800.0 X-60.13314 Y88.67494
G1 X-46.27673 Y96.67494
G1 X-38.27673 Y82.81853
G1 X-52.13314 Y74.81853
G1 X-55.73314 Y81.05391
G0 Z3.0
G0 X-49.49776 Y84.65391
G0 Z-3.0
G1 F300.0 Z-5.0
G1 F800.0 X-50.29776 Y86.03955
G1 X-48.91212 Y86.83955
G1 X-48.11212 Y85.45391
G1 X-49.49776 Y84.65391
G1 F300.0 X-51.57622 Y83.45391
G1 F800.0 X-53.57622 Y86.91801
G1 X-48.03365 Y90.11801
G1 X-44.83365 Y84.57545
G1 X-50.37622 Y81.37545
G1 X-51.57622 Y83.45391
G1 F300.0 X-53.65468 Y82.25391
G1 F800.0 X-56.85468 Y87.79648
G1 X-47.15519 Y93.39648
G1 X-41.55519 Y83.69699
G1 X-51.25468 Y78.09699
G1 X-53.65468 Y82.25391
G1 F300.0 X-55.73314 Y81.05391
G1 F800.0 X-60.13314 Y88.67494
G1 X-46.27673 Y96.67494
G1 X-38.27673 Y82.81853
G1 X-52.13314 Y74.81853
G1 X-55.73314 Y81.05391
G0 Z3.0
G0 X-49.49776 Y84.65391
G0 Z-4.0
G1 F300.0 Z-6.0
G1 F800.0 X-50.29776 Y86.03955
G1 X-48.91212 Y86.83955
G1 X-48.11212 Y85.45391
G1 X-49.49776 Y84.65391
G1 F300.0 X-51.57622 Y83.45391
G1 F800.0 X-53.57622 Y86.91801
G1 X-48.03365 Y90.11801
G1 X-44.83365 Y84.57545
G1 X-50.37622 Y81.37545
G1 X-51.57622 Y83.45391
G1 F300.0 X-53.65468 Y82.25391
G1 F800.0 X-56.85468 Y87.79648
G1 X-47.15519 Y93.39648
G1 X-41.55519 Y83.69699
G1 X-51.25468 Y78.09699
G1 X-53.65468 Y82.25391
G1 F300.0 X-55.73314 Y81.05391
G1 F800.0 X-60.13314 Y88.67494
G1 X-46.27673 Y96.67494
G1 X-38.27673 Y82.81853
G1 X-52.13314 Y74.81853
G1 X-55.73314 Y81.05391
G0 Z3.0
G0 X-49.49776 Y84.65391
G0 Z-5.0
G1 F300.0 Z-7.0
G1 F800.0 X-50.29776 Y86.03955
G1 X-48.91212 Y86.83955
G1 X-48.11212 Y85.45391
G1 X-49.49776 Y84.65391
G1 F300.0 X-51.57622 Y83.45391
G1 F800.0 X-53.57622 Y86.91801
G1 X-48.03365 Y90.11801
G1 X-44.83365 Y84.57545
G1 X-50.37622 Y81.37545
G1 X-51.57622 Y83.45391
G1 F300.0 X-53.65468 Y82.25391
G1 F800.0 X-56.85468 Y87.79648
G1 X-47.15519 Y93.39648
G1 X-41.55519 Y83.69699
G1 X-51.25468 Y78.09699
G1 X-53.65468 Y82.25391
G1 F300.0 X-55.73314 Y81.05391
G1 F800.0 X-60.13314 Y88.67494
G1 X-46.27673 Y96.67494
G1 X-38.27673 Y82.81853
G1 X-52.13314 Y74.81853
G1 X-55.73314 Y81.05391
G0 Z3.0
G0 X-49.49776 Y84.65391
G0 Z-6.0
G1 F300.0 Z-8.0
G1 F800.0 X-50.29776 Y86.03955
G1 X-48.91212 Y86.83955
G1 X-48.11212 Y85.45391
G1 X-49.49776 Y84.65391
G1 F300.0 X-51.57622 Y83.45391
G1 F800.0 X-53.57622 Y86.91801
G1 X-48.03365 Y90.11801
G1 X-44.83365 Y84.57545
G1 X-50.37622 Y81.37545
G1 X-51.57622 Y83.45391
G1 F300.0 X-53.65468 Y82.25391
G1 F800.0 X-56.85468 Y87.79648
G1 X-47.15519 Y93.39648
G1 X-41.55519 Y83.69699
G1 X-51.25468 Y78.09699
G1 X-53.65468 Y82.25391
G1 F300.0 X-55.73314 Y81.05391
G1 F800.0 X-60.13314 Y88.67494
G1 X-46.27673 Y96.67494
G1 X-38.27673 Y82.81853
G1 X-52.13314 Y74.81853
G1 X-55.73314 Y81.05391
G0 Z3.0
G0 X-49.49776 Y84.65391
G0 Z-7.0
G1 F300.0 Z-9.0
G1 F800.0 X-50.29776 Y86.03955
G1 X-48.91212 Y86.83955
G1 X-48.11212 Y85.45391
G1 X-49.49776 Y84.65391
G1 F300.0 X-51.57622 Y83.45391
G1 F800.0 X-53.57622 Y86.91801
G1 X-48.03365 Y90.11801
G1 X-44.83365 Y84.57545
G1 X-50.37622 Y81.37545
G1 X-51.57622 Y83.45391
G1 F300.0 X-53.65468 Y82.25391
G1 F800.0 X-56.85468 Y87.79648
G1 X-47.15519 Y93.39648
G1 X-41.55519 Y83.69699
G1 X-51.25468 Y78.09699
G1 X-53.65468 Y82.25391
G1 F300.0 X-55.73314 Y81.05391
G1 F800.0 X-60.13314 Y88.67494
G1 X-46.27673 Y96.67494
G1 X-38.27673 Y82.81853
G1 X-52.13314 Y74.81853
G1 X-55.73314 Y81.05391
G0 Z3.0
G0 X-49.49776 Y84.65391
G0 Z-8.0
G1 F300.0 Z-10.0
G1 F800.0 X-50.29776 Y86.03955
G1 X-48.91212 Y86.83955
G1 X-48.11212 Y85.45391
G1 X-49.49776 Y84.65391
G1 F300.0 X-51.57622 Y83.45391
G1 F800.0 X-53.57622 Y86.91801
G1 X-48.03365 Y90.11801
G1 X-44.83365 Y84.57545
G1 X-50.37622 Y81.37545
G1 X-51.57622 Y83.45391
G1 F300.0 X-53.65468 Y82.25391
G1 F800.0 X-56.85468 Y87.79648
G1 X-47.15519 Y93.39648
G1 X-41.55519 Y83.69699
G1 X-51.25468 Y78.09699
G1 X-53.65468 Y82.25391
G1 F300.0 X-55.73314 Y81.05391
G1 F800.0 X-60.13314 Y88.67494
G1 X-46.27673 Y96.67494
G1 X-38.27673 Y82.81853
G1 X-52.13314 Y74.81853
G1 X-55.73314 Y81.05391
G0 Z3.0
G0 X-49.49776 Y84.65391
G0 Z-9.0
G1 F300.0 Z-11.0
G1 F800.0 X-50.29776 Y86.03955
G1 X-48.91212 Y86.83955
G1 X-48.11212 Y85.45391
G1 X-49.49776 Y84.65391
G1 F300.0 X-51.57622 Y83.45391
G1 F800.0 X-53.57622 Y86.91801
G1 X-48.03365 Y90.11801
G1 X-44.83365 Y84.57545
G1 X-50.37622 Y81.37545
G1 X-51.57622 Y83.45391
G1 F300.0 X-53.65468 Y82.25391
G1 F800.0 X-56.85468 Y87.79648
G1 X-47.15519 Y93.39648
G1 X-41.55519 Y83.69699
G1 X-51.25468 Y78.09699
G1 X-53.65468 Y82.25391
G1 F300.0 X-55.73314 Y81.05391
G1 F800.0 X-60.13314 Y88.67494
G1 X-46.27673 Y96.67494
G1 X-38.27673 Y82.81853
G1 X-52.13314 Y74.81853
G1 X-55.73314 Y81.05391
G0 Z3.0
G0 X-49.49776 Y84.65391
G0 Z-10.0
G1 F300.0 Z-12.0
G1 F800.0 X-50.29776 Y86.03955
G1 X-48.91212 Y86.83955
G1 X-48.11212 Y85.45391
G1 X-49.49776 Y84.65391
G1 F300.0 X-51.57622 Y83.45391
G1 F800.0 X-53.57622 Y86.91801
G1 X-48.03365 Y90.11801
G1 X-44.83365 Y84.57545
G1 X-50.37622 Y81.37545
G1 X-51.57622 Y83.45391
G1 F300.0 X-53.65468 Y82.25391
G1 F800.0 X-56.85468 Y87.79648
G1 X-47.15519 Y93.39648
G1 X-41.55519 Y83.69699
G1 X-51.25468 Y78.09699
G1 X-53.65468 Y82.25391
G1 F300.0 X-55.73314 Y81.05391
G1 F800.0 X-60.13314 Y88.67494
G1 X-46.27673 Y96.67494
G1 X-38.27673 Y82.81853
G1 X-52.13314 Y74.81853
G1 X-55.73314 Y81.05391
G0 Z3.0
G0 X-0.8 Y94.2
G0 Z1.0
G1 F300.0 Z-1.0
G1 F800.0 Y95.8
G1 X0.8
G1 Y94.2
G1 X-0.8
G1 F300.0 Y91.8
G1 F800.0 X-3.2
G1 Y98.2
G1 X3.2
G1 Y91.8
G1 X-0.8
G1 F300.0 Y89.4
G1 F800.0 X-5.6
G1 Y100.6
G1 X5.6
G1 Y89.4
G1 X-0.8
G1 F300.0 Y87.0
G1 F800.0 X-8.0
G1 Y103.0
G1 X8.0
G1 Y87.0
G1 X-0.8
G0 Z3.0
G0 Y94.2
G0 Z0.0
G1 F300.0 Z-2.0
G1 F800.0 Y95.8
G1 X0.8
G1 Y94.2
G1 X-0.8
G1 F300.0 Y91.8
G1 F800.0 X-3.2
G1 Y98.2
G1 X3.2
G1 Y91.8
G1 X-0.8
G1 F300.0 Y89.4
G1 F800.0 X-5.6
G1 Y100.6
G1 X5.6
G1 Y89.4
G1 X-0.8
G1 F300.0 Y87.0
G1 F800.0 X-8.0
G1 Y103.0
G1 X8.0
G1 Y87.0
G1 X-0.8
G0 Z3.0
G0 Y94.2
G0 Z-1.0
G1 F300.0 Z-3.0
G1 F800.0 Y95.8
G1 X0.8
G1 Y94.2
G1 X-0.8
G1 F300.0 Y91.8
G1 F800.0 X-3.2
G1 Y98.2
G1 X3.2
G1 Y91.8
G1 X-0.8
G1 F300.0 Y89.4
G1 F800.0 X-5.6
G1 Y100.6
G1 X5.6
G1 Y89.4
G1 X-0.8
G1 F300.0 Y87.0
G1 F800.0 X-8.0
G1 Y103.0
G1 X8.0
G1 Y87.0
G1 X-0.8
G0 Z3.0
G0 Y94.2
G0 Z-2.0
G1 F300.0 Z-4.0
G1 F800.0 Y95.8
G1 X0.8
G1 Y94.2
G1 X-0.8
G1 F300.0 Y91.8
G1 F800.0 X-3.2
G1 Y98.2
G1 X3.2
G1 Y91.8
G1 X-0.8
G1 F300.0 Y89.4
G1 F800.0 X-5.6
G1 Y100.6
G1 X5.6
G1 Y89.4
G1 X-0.8
G1 F300.0 Y87.0
G1 F800.0 X-8.0
G1 Y103.0
G1 X8.0
G1 Y87.0
G1 X-0.8
G0 Z3.0
G0 Y94.2
G0 Z-3.0
G1 F300.0 Z-5.0
G1 F800.0 Y95.8
G1 X0.8
G1 Y94.2
G1 X-0.8
G1 F300.0 Y91.8
G1 F800.0 X-3.2
G1 Y98.2
G1 X3.2
G1 Y91.8
G1 X-0.8
G1 F300.0 Y89.4
G1 F800.0 X-5.6
G1 Y100.6
G1 X5.6
G1 Y89.4
G1 X-0.8
G1 F300.0 Y87.0
G1 F800.0 X-8.0
G1 Y103.0
G1 X8.0
G1 Y87.0
G1 X-0.8
G0 Z3.0
G0 Y94.2
G0 Z-4.0
G1 F300.0 Z-6.0
G1 F800.0 Y95.8
G1 X0.8
G1 Y94.2
G1 X-0.8
G1 F300.0 Y91.8
G1 F800.0 X-3.2
G1 Y98.2
G1 X3.2
G1 Y91.8
G1 X-0.8
G1 F300.0 Y89.4
G1 F800.0 X-5.6
G1 Y100.6
G1 X5.6
G1 Y89.4
G1 X-0.8
G1 F300.0 Y87.0
G1 F800.0 X-8.0
G1 Y103.0
G1 X8.0
G1 Y87.0
G1 X-0.8
G0 Z3.0
G0 Y94.2
G0 Z-5.0
G1 F300.0 Z-7.0
G1 F800.0 Y95.8
G1 X0.8
G1 Y94.2
G1 X-0.8
G1 F300.0 Y91.8
G1 F800.0 X-3.2
G1 Y98.2
G1 X3.2
G1 Y91.8
G1 X-0.8
G1 F300.0 Y89.4
G1 F800.0 X-5.6
G1 Y100.6
G1 X5.6
G1 Y89.4
G1 X-0.8
G1 F300.0 Y87.0
G1 F800.0 X-8.0
G1 Y103.0
G1 X8.0
G1 Y87.0
G1 X-0.8
G0 Z3.0
G0 Y94.2
G0 Z-6.0
G1 F300.0 Z-8.0
G1 F800.0 Y95.8
G1 X0.8
G1 Y94.2
G1 X-0.8
G1 F300.0 Y91.8
G1 F800.0 X-3.2
G1 Y98.2
G1 X3.2
G1 Y91.8
G1 X-0.8
G1 F300.0 Y89.4
G1 F800.0 X-5.6
G1 Y100.6
G1 X5.6
G1 Y89.4
G1 X-0.8
G1 F300.0 Y87.0
G1 F800.0 X-8.0
G1 Y103.0
G1 X8.0
G1 Y87.0
G1 X-0.8
G0 Z3.0
G0 Y94.2
G0 Z-7.0
G1 F300.0 Z-9.0
G1 F800.0 Y95.8
G1 X0.8
G1 Y94.2
G1 X-0.8
G1 F300.0 Y91.8
G1 F800.0 X-3.2
G1 Y98.2
G1 X3.2
G1 Y91.8
G1 X-0.8
G1 F300.0 Y89.4
G1 F800.0 X-5.6
G1 Y100.6
G1 X5.6
G1 Y89.4
G1 X-0.8
G1 F300.0 Y87.0
G1 F800.0 X-8.0
G1 Y103.0
G1 X8.0
G1 Y87.0
G1 X-0.8
G0 Z3.0
G0 Y94.2
G0 Z-8.0
G1 F300.0 Z-10.0
G1 F800.0 Y95.8
G1 X0.8
G1 Y94.2
G1 X-0.8
G1 F300.0 Y91.8
G1 F800.0 X-3.2
G1 Y98.2
G1 X3.2
G1 Y91.8
G1 X-0.8
G1 F300.0 Y89.4
G1 F800.0 X-5.6
G1 Y100.6
G1 X5.6
G1 Y89.4
G1 X-0.8
G1 F300.0 Y87.0
G1 F800.0 X-8.0
G1 Y103.0
G1 X8.0
G1 Y87.0
G1 X-0.8
G0 Z3.0
G0 Y94.2
G0 Z-9.0
G1 F300.0 Z-11.0
G1 F800.0 Y95.8
G1 X0.8
G1 Y94.2
G1 X-0.8
G1 F300.0 Y91.8
G1 F800.0 X-3.2
G1 Y98.2
G1 X3.2
G1 Y91.8
G1 X-0.8
G1 F300.0 Y89.4
G1 F800.0 X-5.6
G1 Y100.6
G1 X5.6
G1 Y89.4
G1 X-0.8
G1 F300.0 Y87.0
G1 F800.0 X-8.0
G1 Y103.0
G1 X8.0
G1 Y87.0
G1 X-0.8
G0 Z3.0
G0 Y94.2
G0 Z-10.0
G1 F300.0 Z-12.0
G1 F800.0 Y95.8
G1 X0.8
G1 Y94.2
G1 X-0.8
G1 F300.0 Y91.8
G1 F800.0 X-3.2
G1 Y98.2
G1 X3.2
G1 Y91.8
G1 X-0.8
G1 F300.0 Y89.4
G1 F800.0 X-5.6
G1 Y100.6
G1 X5.6
G1 Y89.4
G1 X-0.8
G1 F300.0 Y87.0
G1 F800.0 X-8.0
G1 Y103.0
G1 X8.0
G1 Y87.0
G1 X-0.8
G0 Z3.0
G0 X48.41308 Y85.45391
G0 Z1.0
G1 F300.0 Z-1.0
G1 F800.0 X49.21308 Y86.83956
G1 X50.59872 Y86.03956
G1 X49.79872 Y84.65391
G1 X48.41308 Y85.45391
G1 F300.0 X46.33462 Y86.65391
G1 F800.0 X48.33462 Y90.11802
G1 X53.87718 Y86.91802
G1 X50.67718 Y81.37545
G1 X45.13462 Y84.57545
G1 X46.33462 Y86.65391
G1 F300.0 X44.25616 Y87.85391
G1 F800.0 X47.45616 Y93.39648
G1 X57.15564 Y87.79648
G1 X51.55564 Y78.09699
G1 X41.85616 Y83.69699
G1 X44.25616 Y87.85391
G1 F300.0 X42.1777 Y89.05391
G1 F800.0 X46.5777 Y96.67494
G1 X60.4341 Y88.67494
G1 X52.4341 Y74.81853
G1 X38.5777 Y82.81853
G1 X42.1777 Y89.05391
G0 Z3.0
G0 X48.41308 Y85.45391
G0 Z0.0
G1 F300.0 Z-2.0
G1 F800.0 X49.21308 Y86.83956
G1 X50.59872 Y86.03956
G1 X49.79872 Y84.65391
G1 X48.41308 Y85.45391
G1 F300.0 X46.33462 Y86.65391
G1 F800.0 X48.33462 Y90.11802
G1 X53.87718 Y86.91802
G1 X50.67718 Y81.37545
G1 X45.13462 Y84.57545
G1 X46.33462 Y86.65391
G1 F300.0 X44.25616 Y87.85391
G1 F800.0 X47.45616 Y93.39648
G1 X57.15564 Y87.79648
G1 X51.55564 Y78.09699
G1 X41.85616 Y83.69699
G1 X44.25616 Y87.85391
G1 F300.0 X42.1777 Y89.05391
G1 F800.0 X46.5777 Y96.67494
G1 X60.4341 Y88.67494
G1 X52.4341 Y74.81853
G1 X38.5777 Y82.81853
G1 X42.1777 Y89.05391
G0 Z3.0
G0 X48.41308 Y85.45391
G0 Z-1.0
G1 F300.0 Z-3.0
G1 F800.0 X49.21308 Y86.83956
G1 X50.59872 Y86.03956
G1 X49.79872 Y84.65391
G1 X48.41308 Y85.45391
G1 F300.0 X46.33462 Y86.65391
G1 F800.0 X48.33462 Y90.11802
G1 X53.87718 Y86.91802
G1 X50.67718 Y81.37545
G1 X45.13462 Y84.57545
G1 X46.33462 Y86.65391
G1 F300.0 X44.25616 Y87.85391
G1 F800.0 X47.45616 Y93.39648
G1 X57.15564 Y87.79648
G1 X51.55564 Y78.09699
G1 X41.85616 Y83.69699
G1 X44.25616 Y87.85391
G1 F300.0 X42.1777 Y89.05391
G1 F800.0 X46.5777 Y96.67494
G1 X60.4341 Y88.67494
G1 X52.4341 Y74.81853
G1 X38.5777 Y82.81853
G1 X42.1777 Y89.05391
G0 Z3.0
G0 X48.41308 Y85.45391
G0 Z-2.0
G1 F300.0 Z-4.0
G1 F800.0 X49.21308 Y86.83956
G1 X50.59872 Y86.03956
G1 X49.79872 Y84.65391
G1 X48.41308 Y85.45391
G1 F300.0 X46.33462 Y86.65391
G1 F800.0 X48.33462 Y90.11802
G1 X53.87718 Y86.91802
G1 X50.67718 Y81.37545
G1 X45.13462 Y84.57545
G1 X46.33462 Y86.65391
G1 F300.0 X44.25616 Y87.85391
G1 F800.0 X47.45616 Y93.39648
G1 X57.15564 Y87.79648
G1 X51.55564 Y78.09699
G1 X41.85616 Y83.69699
G1 X44.25616 Y87.85391
G1 F300.0 X42.1777 Y89.05391
G1 F800.0 X46.5777 Y96.67494
G1 X60.4341 Y88.67494
G1 X52.4341 Y74.81853
G1 X38.5777 Y82.81853
G1 X42.1777 Y89.05391
G0 Z3.0
G0 X48.41308 Y85.45391
G0 Z-3.0
G1 F300.0 Z-5.0
G1 F800.0 X49.21308 Y86.83956
G1 X50.59872 Y86.03956
G1 X49.79872 Y84.65391
G1 X48.41308 Y85.45391
G1 F300.0 X46.33462 Y86.65391
G1 F800.0 X48.33462 Y90.11802
G1 X53.87718 Y86.91802
G1 X50.67718 Y81.37545
G1 X45.13462 Y84.57545
G1 X46.33462 Y86.65391
G1 F300.0 X44.25616 Y87.85391
G1 F800.0 X47.45616 Y93.39648
G1 X57.15564 Y87.79648
G1 X51.55564 Y78.09699
G1 X41.85616 Y83.69699
G1 X44.25616 Y87.85391
G1 F300.0 X42.1777 Y89.05391
G1 F800.0 X46.5777 Y96.67494
G1 X60.4341 Y88.67494
G1 X52.4341 Y74.81853
G1 X38.5777 Y82.81853
G1 X42.1777 Y89.05391
G0 Z3.0
G0 X48.41308 Y85.45391
G0 Z-4.0
G1 F300.0 Z-6.0
G1 F800.0 X49.21308 Y86.83956
G1 X50.59872 Y86.03956
G1 X49.79872 Y84.65391
G1 X48.41308 Y85.45391
G1 F300.0 X46.33462 Y86.65391
G1 F800.0 X48.33462 Y90.11802
G1 X53.87718 Y86.91802
G1 X50.67718 Y81.37545
G1 X45.13462 Y84.57545
G1 X46.33462 Y86.65391
G1 F300.0 X44.25616 Y87.85391
G1 F800.0 X47.45616 Y93.39648
G1 X57.15564 Y87.79648
G1 X51.55564 Y78.09699
G1 X41.85616 Y83.69699
G1 X44.25616 Y87.85391
G1 F300.0 X42.1777 Y89.05391
G1 F800.0 X46.5777 Y96.67494
G1 X60.4341 Y88.67494
G1 X52.4341 Y74.81853
G1 X38.5777 Y82.81853
G1 X42.1777 Y89.05391
G0 Z3.0
G0 X48.41308 Y85.45391
G0 Z-5.0
G1 F300.0 Z-7.0
G1 F800.0 X49.21308 Y86.83956
G1 X50.59872 Y86.03956
G1 X49.79872 Y84.65391
G1 X48.41308 Y85.45391
G1 F300.0 X46.33462 Y86.65391
G1 F800.0 X48.33462 Y90.11802
G1 X53.87718 Y86.91802
G1 X50.67718 Y81.37545
G1 X45.13462 Y84.57545
G1 X46.33462 Y86.65391
G1 F300.0 X44.25616 Y87.85391
G1 F800.0 X47.45616 Y93.39648
G1 X57.15564 Y87.79648
G1 X51.55564 Y78.09699
G1 X41.85616 Y83.69699
G1 X44.25616 Y87.85391
G1 F300.0 X42.1777 Y89.05391
G1 F800.0 X46.5777 Y96.67494
G1 X60.4341 Y88.67494
G1 X52.4341 Y74.81853
G1 X38.5777 Y82.81853
G1 X42.1777 Y89.05391
G0 Z3.0
G0 X48.41308 Y85.45391
G0 Z-6.0
G1 F300.0 Z-8.0
G1 F800.0 X49.21308 Y86.83956
G1 X50.59872 Y86.03956
G1 X49.79872 Y84.65391
G1 X48.41308 Y85.45391
G1 F300.0 X46.33462 Y86.65391
G1 F800.0 X48.33462 Y90.11802
G1 X53.87718 Y86.91802
G1 X50.67718 Y81.37545
G1 X45.13462 Y84.57545
G1 X46.33462 Y86.65391
G1 F300.0 X44.25616 Y87.85391
G1 F800.0 X47.45616 Y93.39648
G1 X57.15564 Y87.79648
G1 X51.55564 Y78.09699
G1 X41.85616 Y83.69699
G1 X44.25616 Y87.85391
G1 F300.0 X42.1777 Y89.05391
G1 F800.0 X46.5777 Y96.67494
G1 X60.4341 Y88.67494
G1 X52.4341 Y74.81853
G1 X38.5777 Y82.81853
G1 X42.1777 Y89.05391
G0 Z3.0
G0 X48.41308 Y85.45391
G0 Z-7.0
G1 F300.0 Z-9.0
G1 F800.0 X49.21308 Y86.83956
G1 X50.59872 Y86.03956
G1 X49.79872 Y84.65391
G1 X48.41308 Y85.45391
G1 F300.0 X46.33462 Y86.65391
G1 F800.0 X48.33462 Y90.11802
G1 X53.87718 Y86.91802
G1 X50.67718 Y81.37545
G1 X45.13462 Y84.57545
G1 X46.33462 Y86.65391
G1 F300.0 X44.25616 Y87.85391
G1 F800.0 X47.45616 Y93.39648
G1 X57.15564 Y87.79648
G1 X51.55564 Y78.09699
G1 X41.85616 Y83.69699
G1 X44.25616 Y87.85391
G1 F300.0 X42.1777 Y89.05391
G1 F800.0 X46.5777 Y96.67494
G1 X60.4341 Y88.67494
G1 X52.4341 Y74.81853
G1 X38.5777 Y82.81853
G1 X42.1777 Y89.05391
G0 Z3.0
G0 X48.41308 Y85.45391
G0 Z-8.0
G1 F300.0 Z-10.0
G1 F800.0 X49.21308 Y86.83956
G1 X50.59872 Y86.03956
G1 X49.79872 Y84.65391
G1 X48.41308 Y85.45391
G1 F300.0 X46.33462 Y86.65391
G1 F800.0 X48.33462 Y90.11802
G1 X53.87718 Y86.91802
G1 X50.67718 Y81.37545
G1 X45.13462 Y84.57545
G1 X46.33462 Y86.65391
G1 F300.0 X44.25616 Y87.85391
G1 F800.0 X47.45616 Y93.39648
G1 X57.15564 Y87.79648
G1 X51.55564 Y78.09699
G1 X41.85616 Y83.69699
G1 X44.25616 Y87.85391
G1 F300.0 X42.1777 Y89.05391
G1 F800.0 X46.5777 Y96.67494
G1 X60.4341 Y88.67494
G1 X52.4341 Y74.81853
G1 X38.5777 Y82.81853
G1 X42.1777 Y89.05391
G0 Z3.0
G0 X48.41308 Y85.45391
G0 Z-9.0
G1 F300.0 Z-11.0
G1 F800.0 X49.21308 Y86.83956
G1 X50.59872 Y86.03956
G1 X49.79872 Y84.65391
G1 X48.41308 Y85.45391
G1 F300.0 X46.33462 Y86.65391
G1 F800.0 X48.33462 Y90.11802
G1 X53.87718 Y86.91802
G1 X50.67718 Y81.37545
G1 X45.13462 Y84.57545
G1 X46.33462 Y86.65391
G1 F300.0 X44.25616 Y87.85391
G1 F800.0 X47.45616 Y93.39648
G1 X57.15564 Y87.79648
G1 X51.55564 Y78.09699
G1 X41.85616 Y83.69699
G1 X44.25616 Y87.85391
G1 F300.0 X42.1777 Y89.05391
G1 F800.0 X46.5777 Y96.67494
G1 X60.4341 Y88.67494
G1 X52.4341 Y74.81853
G1 X38.5777 Y82.81853
G1 X42.1777 Y89.05391
G0 Z3.0
G0 X48.41308 Y85.45391
G0 Z-10.0
G1 F300.0 Z-12.0
G1 F800.0 X49.21308 Y86.83956
G1 X50.59872 Y86.03956
G1 X49.79872 Y84.65391
G1 X48.41308 Y85.45391
G1 F300.0 X46.33462 Y86.65391
G1 F800.0 X48.33462 Y90.11802
G1 X53.87718 Y86.91802
G1 X50.67718 Y81.37545
G1 X45.13462 Y84.57545
G1 X46.33462 Y86.65391
G1 F300.0 X44.25616 Y87.85391
G1 F800.0 X47.45616 Y93.39648
G1 X57.15564 Y87.79648
G1 X51.55564 Y78.09699
G1 X41.85616 Y83.69699
G1 X44.25616 Y87.85391
G1 F300.0 X42.1777 Y89.05391
G1 F800.0 X46.5777 Y96.67494
G1 X60.4341 Y88.67494
G1 X52.4341 Y74.81853
G1 X38.5777 Y82.81853
G1 X42.1777 Y89.05391
G0 Z3.0
G0 X93.16764 Y54.71412
G0 Z1.0
G1 F300.0 Z-1.0
G1 F800.0 X94.55328 Y55.51412
G1 X95.35328 Y54.12848
G1 X93.96764 Y53.32848
G1 X93.16764 Y54.71412
G1 F300.0 X91.08918 Y53.51412
G1 F800.0 X89.88918 Y55.59258
G1 X95.43174 Y58.79258
G1 X98.63174 Y53.25002
G1 X93.08918 Y50.05002
G1 X91.08918 Y53.51412
G1 F300.0 X89.01072 Y52.31412
G1 F800.0 X86.61072 Y56.47104
G1 X96.3102 Y62.07104
G1 X101.9102 Y52.37156
G1 X92.21072 Y46.77156
G1 X89.01072 Y52.31412
G1 F300.0 X86.93226 Y51.11412
G1 F800.0 X83.33226 Y57.3495
G1 X97.18866 Y65.3495
G1 X105.18866 Y51.4931
G1 X91.33226 Y43.4931
G1 X86.93226 Y51.11412
G0 Z3.0
G0 X93.16764 Y54.71412
G0 Z0.0
G1 F300.0 Z-2.0
G1 F800.0 X94.55328 Y55.51412
G1 X95.35328 Y54.12848
G1 X93.96764 Y53.32848
G1 X93.16764 Y54.71412
G1 F300.0 X91.08918 Y53.51412
G1 F800.0 X89.88918 Y55.59258
G1 X95.43174 Y58.79258
G1 X98.63174 Y53.25002
G1 X93.08918 Y50.05002
G1 X91.08918 Y53.51412
G1 F300.0 X89.01072 Y52.31412
G1 F800.0 X86.61072 Y56.47104
G1 X96.3102 Y62.07104
G1 X101.9102 Y52.37156
G1 X92.21072 Y46.77156
G1 X89.01072 Y52.31412
G1 F300.0 X86.93226 Y51.11412
G1 F800.0 X83.33226 Y57.3495
G1 X97.18866 Y65.3495
G1 X105.18866 Y51.4931
G1 X91.33226 Y43.4931
G1 X86.93226 Y51.11412
G0 Z3.0
G0 X93.16764 Y54.71412
G0 Z-1.0
G1 F300.0 Z-3.0
G1 F800.0 X94.55328 Y55.51412
G1 X95.35328 Y54.12848
G1 X93.96764 Y53.32848
G1 X93.16764 Y54.71412
G1 F300.0 X91.08918 Y53.51412
G1 F800.0 X89.88918 Y55.59258
G1 X95.43174 Y58.79258
G1 X98.63174 Y53.25002
G1 X93.08918 Y50.05002
G1 X91.08918 Y53.51412
G1 F300.0 X89.01072 Y52.31412
G1 F800.0 X86.61072 Y56.47104
G1 X96.3102 Y62.07104
G1 X101.9102 Y52.37156
G1 X92.21072 Y46.77156
G1 X89.01072 Y52.31412
G1 F300.0 X86.93226 Y51.11412
G1 F800.0 X83.33226 Y57.3495
G1 X97.18866 Y65.3495
G1 X105.18866 Y51.4931
G1 X91.33226 Y43.4931
G1 X86.93226 Y51.11412
G0 Z3.0
G0 X93.16764 Y54.71412
G0 Z-2.0
G1 F300.0 Z-4.0
G1 F800.0 X94.55328 Y55.51412
G1 X95.35328 Y54.12848
G1 X93.96764 Y53.32848
G1 X93.16764 Y54.71412
G1 F300.0 X91.08918 Y53.51412
G1 F800.0 X89.88918 Y55.59258
G1 X95.43174 Y58.79258
G1 X98.63174 Y53.25002
G1 X93.08918 Y50.05002
G1 X91.08918 Y53.51412
G1 F300.0 X89.01072 Y52.31412
G1 F800.0 X86.61072 Y56.47104
G1 X96.3102 Y62.07104
G1 X101.9102 Y52.37156
G1 X92.21072 Y46.77156
G1 X89.01072 Y52.31412
G1 F300.0 X86.93226 Y51.11412
G1 F800.0 X83.33226 Y57.3495
G1 X97.18866 Y65.3495
G1 X105.18866 Y51.4931
G1 X91.33226 Y43.4931
G1 X86.93226 Y51.11412
G0 Z3.0
G0 X93.16764 Y54.71412
G0 Z-3.0
G1 F300.0 Z-5.0
G1 F800.0 X94.55328 Y55.51412
G1 X95.35328 Y54.12848
G1 X93.96764 Y53.32848
G1 X93.16764 Y54.71412
G1 F300.0 X91.08918 Y53.51412
G1 F800.0 X89.88918 Y55.59258
G1 X95.43174 Y58.79258
G1 X98.63174 Y53.25002
G1 X93.08918 Y50.05002
G1 X91.08918 Y53.51412
G1 F300.0 X89.01072 Y52.31412
G1 F800.0 X86.61072 Y56.47104
G1 X96.3102 Y62.07104
G1 X101.9102 Y52.37156
G1 X92.21072 Y46.77156
G1 X89.01072 Y52.31412
G1 F300.0 X86.93226 Y51.11412
G1 F800.0 X83.33226 Y57.3495
G1 X97.18866 Y65.3495
G1 X105.18866 Y51.4931
G1 X91.33226 Y43.4931
G1 X86.93226 Y51.11412
G0 Z3.0
G0 X93.16764 Y54.71412
G0 Z-4.0
G1 F300.0 Z-6.0
G1 F800.0 X94.55328 Y55.51412
G1 X95.35328 Y54.12848
G1 X93.96764 Y53.32848
G1 X93.16764 Y54.71412
G1 F300.0 X91.08918 Y53.51412
G1 F800.0 X89.88918 Y55.59258
G1 X95.43174 Y58.79258
G1 X98.63174 Y53.25002
G1 X93.08918 Y50.05002
G1 X91.08918 Y53.51412
G1 F300.0 X89.01072 Y52.31412
G1 F800.0 X86.61072 Y56.47104
G1 X96.3102 Y62.07104
G1 X101.9102 Y52.37156
G1 X92.21072 Y46.77156
G1 X89.01072 Y52.31412
G1 F300.0 X86.93226 Y51.11412
G1 F800.0 X83.33226 Y57.3495
G1 X97.18866 Y65.3495
G1 X105.18866 Y51.4931
G1 X91.33226 Y43.4931
G1 X86.93226 Y51.11412
G0 Z3.0
G0 X93.16764 Y54.71412
G0 Z-5.0
G1 F300.0 Z-7.0
G1 F800.0 X94.55328 Y55.51412
G1 X95.35328 Y54.12848
G1 X93.96764 Y53.32848
G1 X93.16764 Y54.71412
G1 F300.0 X91.08918 Y53.51412
G1 F800.0 X89.88918 Y55.59258
G1 X95.43174 Y58.79258
G1 X98.63174 Y53.25002
G1 X93.08918 Y50.05002
G1 X91.08918 Y53.51412
G1 F300.0 X89.01072 Y52.31412
G1 F800.0 X86.61072 Y56.47104
G1 X96.3102 Y62.07104
G1 X101.9102 Y52.37156
G1 X92.21072 Y46.77156
G1 X89.01072 Y52.31412
G1 F300.0 X86.93226 Y51.11412
G1 F800.0 X83.33226 Y57.3495
G1 X97.18866 Y65.3495
G1 X105.18866 Y51.4931
G1 X91.33226 Y43.4931
G1 X86.93226 Y51.11412
G0 Z3.0
G0 X93.16764 Y54.71412
G0 Z-6.0
G1 F300.0 Z-8.0
G1 F800.0 X94.55328 Y55.51412
G1 X95.35328 Y54.12848
G1 X93.96764 Y53.32848
G1 X93.16764 Y54.71412
G1 F300.0 X91.08918 Y53.51412
G1 F800.0 X89.88918 Y55.59258
G1 X95.43174 Y58.79258
G1 X98.63174 Y53.25002
G1 X93.08918 Y50.05002
G1 X91.08918 Y53.51412
G1 F300.0 X89.01072 Y52.31412
G1 F800.0 X86.61072 Y56.47104
G1 X96.3102 Y62.07104
G1 X101.9102 Y52.37156
G1 X92.21072 Y46.77156
G1 X89.01072 Y52.31412
G1 F300.0 X86.93226 Y51.11412
G1 F800.0 X83.33226 Y57.3495
G1 X97.18866 Y65.3495
G1 X105.18866 Y51.4931
G1 X91.33226 Y43.4931
G1 X86.93226 Y51.11412
G0 Z3.0
G0 X93.16764 Y54.71412
G0 Z-7.0
G1 F300.0 Z-9.0
G1 F800.0 X94.55328 Y55.51412
G1 X95.35328 Y54.12848
G1 X93.96764 Y53.32848
G1 X93.16764 Y54.71412
G1 F300.0 X91.08918 Y53.51412
G1 F800.0 X89.88918 Y55.59258
G1 X95.43174 Y58.79258
G1 X98.63174 Y53.25002
G1 X93.08918 Y50.05002
G1 X91.08918 Y53.51412
G1 F300.0 X89.01072 Y52.31412
G1 F800.0 X86.61072 Y56.47104
G1 X96.3102 Y62.07104
G1 X101.9102 Y52.37156
G1 X92.21072 Y46.77156
G1 X89.01072 Y52.31412
G1 F300.0 X86.93226 Y51.11412
G1 F800.0 X83.33226 Y57.3495
G1 X97.18866 Y65.3495
G1 X105.18866 Y51.4931
G1 X91.33226 Y43.4931
G1 X86.93226 Y51.11412
G0 Z3.0
G0 X93.16764 Y54.71412
G0 Z-8.0
G1 F300.0 Z-10.0
G1 F800.0 X94.55328 Y55.51412
G1 X95.35328 Y54.12848
G1 X93.96764 Y53.32848
G1 X93.16764 Y54.71412
G1 F300.0 X91.08918 Y53.51412
G1 F800.0 X89.88918 Y55.59258
G1 X95.43174 Y58.79258
G1 X98.63174 Y53.25002
G1 X93.08918 Y50.05002
G1 X91.08918 Y53.51412
G1 F300.0 X89.01072 Y52.31412
G1 F800.0 X86.61072 Y56.47104
G1 X96.3102 Y62.07104
G1 X101.9102 Y52.37156
G1 X92.21072 Y46.77156
G1 X89.01072 Y52.31412
G1 F300.0 X86.93226 Y51.11412
G1 F800.0 X83.33226 Y57.3495
G1 X97.18866 Y65.3495
G1 X105.18866 Y51.4931
G1 X91.33226 Y43.4931
G1 X86.93226 Y51.11412
G0 Z3.0
G0 X93.16764 Y54.71412
G0 Z-9.0
G1 F300.0 Z-11.0
G1 F800.0 X94.55328 Y55.51412
G1 X95.35328 Y54.12848
G1 X93.96764 Y53.32848
G1 X93.16764 Y54.71412
G1 F300.0 X91.08918 Y53.51412
G1 F800.0 X89.88918 Y55.59258
G1 X95.43174 Y58.79258
G1 X98.63174 Y53.25002
G1 X93.08918 Y50.05002
G1 X91.08918 Y53.51412
G1 F300.0 X89.01072 Y52.31412
G1 F800.0 X86.61072 Y56.47104
G1 X96.3102 Y62.07104
G1 X101.9102 Y52.37156
G1 X92.21072 Y46.77156
G1 X89.01072 Y52.31412
G1 F300.0 X86.93226 Y51.11412
G1 F800.0 X83.33226 Y57.3495
G1 X97.18866 Y65.3495
G1 X105.18866 Y51.4931
G1 X91.33226 Y43.4931
G1 X86.93226 Y51.11412
G0 Z3.0
G0 X93.16764 Y54.71412
G0 Z-10.0
G1 F300.0 Z-12.0
G1 F800.0 X94.55328 Y55.51412
G1 X95.35328 Y54.12848
G1 X93.96764 Y53.32848
G1 X93.16764 Y54.71412
G1 F300.0 X91.08918 Y53.51412
G1 F800.0 X89.88918 Y55.59258
G1 X95.43174 Y58.79258
G1 X98.63174 Y53.25002
G1 X93.08918 Y50.05002
G1 X91.08918 Y53.51412
G1 F300.0 X89.01072 Y52.31412
G1 F800.0 X86.61072 Y56.47104
G1 X96.3102 Y62.07104
G1 X101.9102 Y52.37156
G1 X92.21072 Y46.77156
G1 X89.01072 Y52.31412
G1 F300.0 X86.93226 Y51.11412
G1 F800.0 X83.33226 Y57.3495
G1 X97.18866 Y65.3495
G1 X105.18866 Y51.4931
G1 X91.33226 Y43.4931
G1 X86.93226 Y51.11412
G0 Z3.0
G0 X114.2 Y0.8
G0 Z1.0
G1 F300.0 Z-1.0
G1 F800.0 X115.8
G1 Y-0.8
G1 X114.2
G1 Y0.8
G1 F300.0 X111.8
G1 F800.0 Y3.2
G1 X118.2
G1 Y-3.2
G1 X111.8
G1 Y0.8
G1 F300.0 X109.4
G1 F800.0 Y5.6
G1 X120.6
G1 Y-5.6
G1 X109.4
G1 Y0.8
G1 F300.0 X107.0
G1 F800.0 Y8.0
G1 X123.0
G1 Y-8.0
G1 X107.0
G1 Y0.8
G0 Z3.0
G0 X114.2
G0 Z0.0
G1 F300.0 Z-2.0
G1 F800.0 X115.8
G1 Y-0.8
G1 X114.2
G1 Y0.8
G1 F300.0 X111.8
G1 F800.0 Y3.2
G1 X118.2
G1 Y-3.2
G1 X111.8
G1 Y0.8
G1 F300.0 X109.4
G1 F800.0 Y5.6
G1 X120.6
G1 Y-5.6
G1 X109.4
G1 Y0.8
G1 F300.0 X107.0
G1 F800.0 Y8.0
G1 X123.0
G1 Y-8.0
G1 X107.0
G1 Y0.8
G0 Z3.0
G0 X114.2
G0 Z-1.0
G1 F300.0 Z-3.0
G1 F800.0 X115.8
G1 Y-0.8
G1 X114.2
G1 Y0.8
G1 F300.0 X111.8
G1 F800.0 Y3.2
G1 X118.2
G1 Y-3.2
G1 X111.8
G1 Y0.8
G1 F300.0 X109.4
G1 F800.0 Y5.6
G1 X120.6
G1 Y-5.6
G1 X109.4
G1 Y0.8
G1 F300.0 X107.0
G1 F800.0 Y8.0
G1 X123.0
G1 Y-8.0
G1 X107.0
G1 Y0.8
G0 Z3.0
G0 X114.2
G0 Z-2.0
G1 F300.0 Z-4.0
G1 F800.0 X115.8
G1 Y-0.8
G1 X114.2
G1 Y0.8
G1 F300.0 X111.8
G1 F800.0 Y3.2
G1 X118.2
G1 Y-3.2
G1 X111.8
G1 Y0.8
G1 F300.0 X109.4
G1 F800.0 Y5.6
G1 X120.6
G1 Y-5.6
G1 X109.4
G1 Y0.8
G1 F300.0 X107.0
G1 F800.0 Y8.0
G1 X123.0
G1 Y-8.0
G1 X107.0
G1 Y0.8
G0 Z3.0
G0 X114.2
G0 Z-3.0
G1 F300.0 Z-5.0
G1 F800.0 X115.8
G1 Y-0.8
G1 X114.2
G1 Y0.8
G1 F300.0 X111.8
G1 F800.0 Y3.2
G1 X118.2
G1 Y-3.2
G1 X111.8
G1 Y0.8
G1 F300.0 X109.4
G1 F800.0 Y5.6
G1 X120.6
G1 Y-5.6
G1 X109.4
G1 Y0.8
G1 F300.0 X107.0
G1 F800.0 Y8.0
G1 X123.0
G1 Y-8.0
G1 X107.0
G1 Y0.8
G0 Z3.0
G0 X114.2
G0 Z-4.0
G1 F300.0 Z-6.0
G1 F800.0 X115.8
G1 Y-0.8
G1 X114.2
G1 Y0.8
G1 F300.0 X111.8
G1 F800.0 Y3.2
G1 X118.2
G1 Y-3.2
G1 X111.8
G1 Y0.8
G1 F300.0 X109.4
G1 F800.0 Y5.6
G1 X120.6
G1 Y-5.6
G1 X109.4
G1 Y0.8
G1 F300.0 X107.0
G1 F800.0 Y8.0
G1 X123.0
G1 Y-8.0
G1 X107.0
G1 Y0.8
G0 Z3.0
G0 X114.2
G0 Z-5.0
G1 F300.0 Z-7.0
G1 F800.0 X115.8
G1 Y-0.8
G1 X114.2
G1 Y0.8
G1 F300.0 X111.8
G1 F800.0 Y3.2
G1 X118.2
G1 Y-3.2
G1 X111.8
G1 Y0.8
G1 F300.0 X109.4
G1 F800.0 Y5.6
G1 X120.6
G1 Y-5.6
G1 X109.4
G1 Y0.8
G1 F300.0 X107.0
G1 F800.0 Y8.0
G1 X123.0
G1 Y-8.0
G1 X107.0
G1 Y0.8
G0 Z3.0
G0 X114.2
G0 Z-6.0
G1 F300.0 Z-8.0
G1 F800.0 X115.8
G1 Y-0.8
G1 X114.2
G1 Y0.8
G1 F300.0 X111.8
G1 F800.0 Y3.2
G1 X118.2
G1 Y-3.2
G1 X111.8
G1 Y0.8
G1 F300.0 X109.4
G1 F800.0 Y5.6
G1 X120.6
G1 Y-5.6
G1 X109.4
G1 Y0.8
G1 F300.0 X107.0
G1 F800.0 Y8.0
G1 X123.0
G1 Y-8.0
G1 X107.0
G1 Y0.8
G0 Z3.0
G0 X114.2
G0 Z-7.0
G1 F300.0 Z-9.0
G1 F800.0 X115.8
G1 Y-0.8
G1 X114.2
G1 Y0.8
G1 F300.0 X111.8
G1 F800.0 Y3.2
G1 X118.2
G1 Y-3.2
G1 X111.8
G1 Y0.8
G1 F300.0 X109.4
G1 F800.0 Y5.6
G1 X120.6
G1 Y-5.6
G1 X109.4
G1 Y0.8
G1 F300.0 X107.0
G1 F800.0 Y8.0
G1 X123.0
G1 Y-8.0
G1 X107.0
G1 Y0.8
G0 Z3.0
G0 X114.2
G0 Z-8.0
G1 F300.0 Z-10.0
G1 F800.0 X115.8
G1 Y-0.8
G1 X114.2
G1 Y0.8
G1 F300.0 X111.8
G1 F800.0 Y3.2
G1 X118.2
G1 Y-3.2
G1 X111.8
G1 Y0.8
G1 F300.0 X109.4
G1 F800.0 Y5.6
G1 X120.6
G1 Y-5.6
G1 X109.4
G1 Y0.8
G1 F300.0 X107.0
G1 F800.0 Y8.0
G1 X123.0
G1 Y-8.0
G1 X107.0
G1 Y0.8
G0 Z3.0
G0 X114.2
G0 Z-9.0
G1 F300.0 Z-11.0
G1 F800.0 X115.8
G1 Y-0.8
G1 X114.2
G1 Y0.8
G1 F300.0 X111.8
G1 F800.0 Y3.2
G1 X118.2
G1 Y-3.2
G1 X111.8
G1 Y0.8
G1 F300.0 X109.4
G1 F800.0 Y5.6
G1 X120.6
G1 Y-5.6
G1 X109.4
G1 Y0.8
G1 F300.0 X107.0
G1 F800.0 Y8.0
G1 X123.0
G1 Y-8.0
G1 X107.0
G1 Y0.8
G0 Z3.0
G0 X114.2
G0 Z-10.0
G1 F300.0 Z-12.0
G1 F800.0 X115.8
G1 Y-0.8
G1 X114.2
G1 Y0.8
G1 F300.0 X111.8
G1 F800.0 Y3.2
G1 X118.2
G1 Y-3.2
G1 X111.8
G1 Y0.8
G1 F300.0 X109.4
G1 F800.0 Y5.6
G1 X120.6
G1 Y-5.6
G1 X109.4
G1 Y0.8
G1 F300.0 X107.0
G1 F800.0 Y8.0
G1 X123.0
G1 Y-8.0
G1 X107.0
G1 Y0.8
G0 Z3.0
G0 X93.96764 Y-53.32848
G0 Z1.0
G1 F300.0 Z-1.0
G1 F800.0 X95.35328 Y-54.12848
G1 X94.55328 Y-55.51412
G1 X93.16764 Y-54.71412
G1 X93.96764 Y-53.32848
G1 F300.0 X91.88918 Y-52.12848
G1 F800.0 X93.08918 Y-50.05002
G1 X98.63174 Y-53.25002
G1 X95.43174 Y-58.79258
G1 X89.88918 Y-55.59258
G1 X91.88918 Y-52.12848
G1 F300.0 X89.81072 Y-50.92848
G1 F800.0 X92.21072 Y-46.77156
G1 X101.9102 Y-52.37156
G1 X96.3102 Y-62.07104
G1 X86.61072 Y-56.47104
G1 X89.81072 Y-50.92848
G1 F300.0 X87.73226 Y-49.72848
G1 F800.0 X91.33226 Y-43.4931
G1 X105.18866 Y-51.4931
G1 X97.18866 Y-65.3495
G1 X83.33226 Y-57.3495
G1 X87.73226 Y-49.72848
G0 Z3.0
G0 X93.96764 Y-53.32848
G0 Z0.0
G1 F300.0 Z-2.0
G1 F800.0 X95.35328 Y-54.12848
G1 X94.55328 Y-55.51412
G1 X93.16764 Y-54.71412
G1 X93.96764 Y-53.32848
G1 F300.0 X91.88918 Y-52.12848
G1 F800.0 X93.08918 Y-50.05002
G1 X98.63174 Y-53.25002
G1 X95.43174 Y-58.79258
G1 X89.88918 Y-55.59258
G1 X91.88918 Y-52.12848
G1 F300.0 X89.81072 Y-50.92848
G1 F800.0 X92.21072 Y-46.77156
G1 X101.9102 Y-52.37156
G1 X96.3102 Y-62.07104
G1 X86.61072 Y-56.47104
G1 X89.81072 Y-50.92848
G1 F300.0 X87.73226 Y-49.72848
G1 F800.0 X91.33226 Y-43.4931
G1 X105.18866 Y-51.4931
G1 X97.18866 Y-65.3495
G1 X83.33226 Y-57.3495
G1 X87.73226 Y-49.72848
G0 Z3.0
G0 X93.96764 Y-53.32848
G0 Z-1.0
G1 F300.0 Z-3.0
G1 F800.0 X95.35328 Y-54.12848
G1 X94.55328 Y-55.51412
G1 X93.16764 Y-54.71412
G1 X93.96764 Y-53.32848
G1 F300.0 X91.88918 Y-52.12848
G1 F800.0 X93.08918 Y-50.05002
G1 X98.63174 Y-53.25002
G1 X95.43174 Y-58.79258
G1 X89.88918 Y-55.59258
G1 X91.88918 Y-52.12848
G1 F300.0 X89.81072 Y-50.92848
G1 F800.0 X92.21072 Y-46.77156
G1 X101.9102 Y-52.37156
G1 X96.3102 Y-62.07104
G1 X86.61072 Y-56.47104
G1 X89.81072 Y-50.92848
G1 F300.0 X87.73226 Y-49.72848
G1 F800.0 X91.33226 Y-43.4931
G1 X105.18866 Y-51.4931
G1 X97.18866 Y-65.3495
G1 X83.33226 Y-57.3495
G1 X87.73226 Y-49.72848
G0 Z3.0
G0 X93.96764 Y-53.32848
G0 Z-2.0
G1 F300.0 Z-4.0
G1 F800.0 X95.35328 Y-54.12848
G1 X94.55328 Y-55.51412
G1 X93.16764 Y-54.71412
G1 X93.96764 Y-53.32848
G1 F300.0 X91.88918 Y-52.12848
G1 F800.0 X93.08918 Y-50.05002
G1 X98.63174 Y-53.25002
G1 X95.43174 Y-58.79258
G1 X89.88918 Y-55.59258
G1 X91.88918 Y-52.12848
G1 F300.0 X89.81072 Y-50.92848
G1 F800.0 X92.21072 Y-46.77156
G1 X101.9102 Y-52.37156
G1 X96.3102 Y-62.07104
G1 X86.61072 Y-56.47104
G1 X89.81072 Y-50.92848
G1 F300.0 X87.73226 Y-49.72848
G1 F800.0 X91.33226 Y-43.4931
G1 X105.18866 Y-51.4931
G1 X97.18866 Y-65.3495
G1 X83.33226 Y-57.3495
G1 X87.73226 Y-49.72848
G0 Z3.0
G0 X93.96764 Y-53.32848
G0 Z-3.0
G1 F300.0 Z-5.0
G1 F800.0 X95.35328 Y-54.12848
G1 X94.55328 Y-55.51412
G1 X93.16764 Y-54.71412
G1 X93.96764 Y-53.32848
G1 F300.0 X91.88918 Y-52.12848
G1 F800.0 X93.08918 Y-50.05002
G1 X98.63174 Y-53.25002
G1 X95.43174 Y-58.79258
G1 X89.88918 Y-55.59258
G1 X91.88918 Y-52.12848
G1 F300.0 X89.81072 Y-50.92848
G1 F800.0 X92.21072 Y-46.77156
G1 X101.9102 Y-52.37156
G1 X96.3102 Y-62.07104
G1 X86.61072 Y-56.47104
G1 X89.81072 Y-50.92848
G1 F300.0 X87.73226 Y-49.72848
G1 F800.0 X91.33226 Y-43.4931
G1 X105.18866 Y-51.4931
G1 X97.18866 Y-65.3495
G1 X83.33226 Y-57.3495
G1 X87.73226 Y-49.72848
G0 Z3.0
G0 X93.96764 Y-53.32848
G0 Z-4.0
G1 F300.0 Z-6.0
G1 F800.0 X95.35328 Y-54.12848
G1 X94.55328 Y-55.51412
G1 X93.16764 Y-54.71412
G1 X93.96764 Y-53.32848
G1 F300.0 X91.88918 Y-52.12848
G1 F800.0 X93.08918 Y-50.05002
G1 X98.63174 Y-53.25002
G1 X95.43174 Y-58.79258
G1 X89.88918 Y-55.59258
G1 X91.88918 Y-52.12848
G1 F300.0 X89.81072 Y-50.92848
G1 F800.0 X92.21072 Y-46.77156
G1 X101.9102 Y-52.37156
G1 X96.3102 Y-62.07104
G1 X86.61072 Y-56.47104
G1 X89.81072 Y-50.92848
G1 F300.0 X87.73226 Y-49.72848
G1 F800.0 X91.33226 Y-43.4931
G1 X105.18866 Y-51.4931
G1 X97.18866 Y-65.3495
G1 X83.33226 Y-57.3495
G1 X87.73226 Y-49.72848
G0 Z3.0
G0 X93.96764 Y-53.32848
G0 Z-5.0
G1 F300.0 Z-7.0
G1 F800.0 X95.35328 Y-54.12848
G1 X94.55328 Y-55.51412
G1 X93.16764 Y-54.71412
G1 X93.96764 Y-53.32848
G1 F300.0 X91.88918 Y-52.12848
G1 F800.0 X93.08918 Y-50.05002
G1 X98.63174 Y-53.25002
G1 X95.43174 Y-58.79258
G1 X89.88918 Y-55.59258
G1 X91.88918 Y-52.12848
G1 F300.0 X89.81072 Y-50.92848
G1 F800.0 X92.21072 Y-46.77156
G1 X101.9102 Y-52.37156
G1 X96.3102 Y-62.07104
G1 X86.61072 Y-56.47104
G1 X89.81072 Y-50.92848
G1 F300.0 X87.73226 Y-49.72848
G1 F800.0 X91.33226 Y-43.4931
G1 X105.18866 Y-51.4931
G1 X97.18866 Y-65.3495
G1 X83.33226 Y-57.3495
G1 X87.73226 Y-49.72848
G0 Z3.0
G0 X93.96764 Y-53.32848
G0 Z-6.0
G1 F300.0 Z-8.0
G1 F800.0 X95.35328 Y-54.12848
G1 X94.55328 Y-55.51412
G1 X93.16764 Y-54.71412
G1 X93.96764 Y-53.32848
G1 F300.0 X91.88918 Y-52.12848
G1 F800.0 X93.08918 Y-50.05002
G1 X98.63174 Y-53.25002
G1 X95.43174 Y-58.79258
G1 X89.88918 Y-55.59258
G1 X91.88918 Y-52.12848
G1 F300.0 X89.81072 Y-50.92848
G1 F800.0 X92.21072 Y-46.77156
G1 X101.9102 Y-52.37156
G1 X96.3102 Y-62.07104
G1 X86.61072 Y-56.47104
G1 X89.81072 Y-50.92848
G1 F300.0 X87.73226 Y-49.72848
G1 F800.0 X91.33226 Y-43.4931
G1 X105.18866 Y-51.4931
G1 X97.18866 Y-65.3495
G1 X83.33226 Y-57.3495
G1 X87.73226 Y-49.72848
G0 Z3.0
G0 X93.96764 Y-53.32848
G0 Z-7.0
G1 F300.0 Z-9.0
G1 F800.0 X95.35328 Y-54.12848
G1 X94.55328 Y-55.51412
G1 X93.16764 Y-54.71412
G1 X93.96764 Y-53.32848
G1 F300.0 X91.88918 Y-52.12848
G1 F800.0 X93.08918 Y-50.05002
G1 X98.63174 Y-53.25002
G1 X95.43174 Y-58.79258
G1 X89.88918 Y-55.59258
G1 X91.88918 Y-52.12848
G1 F300.0 X89.81072 Y-50.92848
G1 F800.0 X92.21072 Y-46.77156
G1 X101.9102 Y-52.37156
G1 X96.3102 Y-62.07104
G1 X86.61072 Y-56.47104
G1 X89.81072 Y-50.92848
G1 F300.0 X87.73226 Y-49.72848
G1 F800.0 X91.33226 Y-43.4931
G1 X105.18866 Y-51.4931
G1 X97.18866 Y-65.3495
G1 X83.33226 Y-57.3495
G1 X87.73226 Y-49.72848
G0 Z3.0
G0 X93.96764 Y-53.32848
G0 Z-8.0
G1 F300.0 Z-10.0
G1 F800.0 X95.35328 Y-54.12848
G1 X94.55328 Y-55.51412
G1 X93.16764 Y-54.71412
G1 X93.96764 Y-53.32848
G1 F300.0 X91.88918 Y-52.12848
G1 F800.0 X93.08918 Y-50.05002
G1 X98.63174 Y-53.25002
G1 X95.43174 Y-58.79258
G1 X89.88918 Y-55.59258
G1 X91.88918 Y-52.12848
G1 F300.0 X89.81072 Y-50.92848
G1 F800.0 X92.21072 Y-46.77156
G1 X101.9102 Y-52.37156
G1 X96.3102 Y-62.07104
G1 X86.61072 Y-56.47104
G1 X89.81072 Y-50.92848
G1 F300.0 X87.73226 Y-49.72848
G1 F800.0 X91.33226 Y-43.4931
G1 X105.18866 Y-51.4931
G1 X97.18866 Y-65.3495
G1 X83.33226 Y-57.3495
G1 X87.73226 Y-49.72848
G0 Z3.0
G0 X93.96764 Y-53.32848
G0 Z-9.0
G1 F300.0 Z-11.0
G1 F800.0 X95.35328 Y-54.12848
G1 X94.55328 Y-55.51412
G1 X93.16764 Y-54.71412
G1 X93.96764 Y-53.32848
G1 F300.0 X91.88918 Y-52.12848
G1 F800.0 X93.08918 Y-50.05002
G1 X98.63174 Y-53.25002
G1 X95.43174 Y-58.79258
G1 X89.88918 Y-55.59258
G1 X91.88918 Y-52.12848
G1 F300.0 X89.81072 Y-50.92848
G1 F800.0 X92.21072 Y-46.77156
G1 X101.9102 Y-52.37156
G1 X96.3102 Y-62.07104
G1 X86.61072 Y-56.47104
G1 X89.81072 Y-50.92848
G1 F300.0 X87.73226 Y-49.72848
G1 F800.0 X91.33226 Y-43.4931
G1 X105.18866 Y-51.4931
G1 X97.18866 Y-65.3495
G1 X83.33226 Y-57.3495
G1 X87.73226 Y-49.72848
G0 Z3.0
G0 X93.96764 Y-53.32848
G0 Z-10.0
G1 F300.0 Z-12.0
G1 F800.0 X95.35328 Y-54.12848
G1 X94.55328 Y-55.51412
G1 X93.16764 Y-54.71412
G1 X93.96764 Y-53.32848
G1 F300.0 X91.88918 Y-52.12848
G1 F800.0 X93.08918 Y-50.05002
G1 X98.63174 Y-53.25002
G1 X95.43174 Y-58.79258
G1 X89.88918 Y-55.59258
G1 X91.88918 Y-52.12848
G1 F300.0 X89.81072 Y-50.92848
G1 F800.0 X92.21072 Y-46.77156
G1 X101.9102 Y-52.37156
G1 X96.3102 Y-62.07104
G1 X86.61072 Y-56.47104
G1 X89.81072 Y-50.92848
G1 F300.0 X87.73226 Y-49.72848
G1 F800.0 X91.33226 Y-43.4931
G1 X105.18866 Y-51.4931
G1 X97.18866 Y-65.3495
G1 X83.33226 Y-57.3495
G1 X87.73226 Y-49.72848
G0 Z3.0
G0 X49.79872 Y-84.65391
G0 Z1.0
G1 F300.0 Z-1.0
G1 F800.0 X50.59872 Y-86.03956
G1 X49.21308 Y-86.83956
G1 X48.41308 Y-85.45391
G1 X49.79872 Y-84.65391
G1 F300.0 X48.59872 Y-82.57545
G1 F800.0 X50.67718 Y-81.37545
G1 X53.87718 Y-86.91802
G1 X48.33462 Y-90.11802
G1 X45.13462 Y-84.57545
G1 X48.59872 Y-82.57545
G1 F300.0 X47.39872 Y-80.49699
G1 F800.0 X51.55564 Y-78.09699
G1 X57.15564 Y-87.79648
G1 X47.45616 Y-93.39648
G1 X41.85616 Y-83.69699
G1 X47.39872 Y-80.49699
G1 F300.0 X46.19872 Y-78.41853
G1 F800.0 X52.4341 Y-74.81853
G1 X60.4341 Y-88.67494
G1 X46.5777 Y-96.67494
G1 X38.5777 Y-82.81853
G1 X46.19872 Y-78.41853
G0 Z3.0
G0 X49.79872 Y-84.65391
G0 Z0.0
G1 F300.0 Z-2.0
G1 F800.0 X50.59872 Y-86.03956
G1 X49.21308 Y-86.83956
G1 X48.41308 Y-85.45391
G1 X49.79872 Y-84.65391
G1 F300.0 X48.59872 Y-82.57545
G1 F800.0 X50.67718 Y-81.37545
G1 X53.87718 Y-86.91802
G1 X48.33462 Y-90.11802
G1 X45.13462 Y-84.57545
G1 X48.59872 Y-82.57545
G1 F300.0 X47.39872 Y-80.49699
G1 F800.0 X51.55564 Y-78.09699
G1 X57.15564 Y-87.79648
G1 X47.45616 Y-93.39648
G1 X41.85616 Y-83.69699
G1 X47.39872 Y-80.49699
G1 F300.0 X46.19872 Y-78.41853
G1 F800.0 X52.4341 Y-74.81853
G1 X60.4341 Y-88.67494
G1 X46.5777 Y-96.67494
G1 X38.5777 Y-82.81853
G1 X46.19872 Y-78.41853
G0 Z3.0
G0 X49.79872 Y-84.65391
G0 Z-1.0
G1 F300.0 Z-3.0
G1 F800.0 X50.59872 Y-86.03956
G1 X49.21308 Y-86.83956
G1 X48.41308 Y-85.45391
G1 X49.79872 Y-84.65391
G1 F300.0 X48.59872 Y-82.57545
G1 F800.0 X50.67718 Y-81.37545
G1 X53.87718 Y-86.91802
G1 X48.33462 Y-90.11802
G1 X45.13462 Y-84.57545
G1 X48.59872 Y-82.57545
G1 F300.0 X47.39872 Y-80.49699
G1 F800.0 X51.55564 Y-78.09699
G1 X57.15564 Y-87.79648
G1 X47.45616 Y-93.39648
G1 X41.85616 Y-83.69699
G1 X47.39872 Y-80.49699
G1 F300.0 X46.19872 Y-78.41853
G1 F800.0 X52.4341 Y-74.81853
G1 X60.4341 Y-88.67494
G1 X46.5777 Y-96.67494
G1 X38.5777 Y-82.81853
G1 X46.19872 Y-78.41853
G0 Z3.0
G0 X49.79872 Y-84.65391
G0 Z-2.0
G1 F300.0 Z-4.0
G1 F800.0 X50.59872 Y-86.03956
G1 X49.21308 Y-86.83956
G1 X48.41308 Y-85.45391
G1 X49.79872 Y-84.65391
G1 F300.0 X48.59872 Y-82.57545
G1 F800.0 X50.67718 Y-81.37545
G1 X53.87718 Y-86.91802
G1 X48.33462 Y-90.11802
G1 X45.13462 Y-84.57545
G1 X48.59872 Y-82.57545
G1 F300.0 X47.39872 Y-80.49699
G1 F800.0 X51.55564 Y-78.09699
G1 X57.15564 Y-87.79648
G1 X47.45616 Y-93.39648
G1 X41.85616 Y-83.69699
G1 X47.39872 Y-80.49699
G1 F300.0 X46.19872 Y-78.41853
G1 F800.0 X52.4341 Y-74.81853
G1 X60.4341 Y-88.67494
G1 X46.5777 Y-96.67494
G1 X38.5777 Y-82.81853
G1 X46.19872 Y-78.41853
G0 Z3.0
G0 X49.79872 Y-84.65391
G0 Z-3.0
G1 F300.0 Z-5.0
G1 F800.0 X50.59872 Y-86.03956
G1 X49.21308 Y-86.83956
G1 X48.41308 Y-85.45391
G1 X49.79872 Y-84.65391
G1 F300.0 X48.59872 Y-82.57545
G1 F800.0 X50.67718 Y-81.37545
G1 X53.87718 Y-86.91802
G1 X48.33462 Y-90.11802
G1 X45.13462 Y-84.57545
G1 X48.59872 Y-82.57545
G1 F300.0 X47.39872 Y-80.49699
G1 F800.0 X51.55564 Y-78.09699
G1 X57.15564 Y-87.79648
G1 X47.45616 Y-93.39648
G1 X41.85616 Y-83.69699
G1 X47.39872 Y-80.49699
G1 F300.0 X46.19872 Y-78.41853
G1 F800.0 X52.4341 Y-74.81853
G1 X60.4341 Y-88.67494
G1 X46.5777 Y-96.67494
G1 X38.5777 Y-82.81853
G1 X46.19872 Y-78.41853
G0 Z3.0
G0 X49.79872 Y-84.65391
G0 Z-4.0
G1 F300.0 Z-6.0
G1 F800.0 X50.59872 Y-86.03956
G1 X49.21308 Y-86.83956
G1 X48.41308 Y-85.45391
G1 X49.79872 Y-84.65391
G1 F300.0 X48.59872 Y-82.57545
G1 F800.0 X50.67718 Y-81.37545
G1 X53.87718 Y-86.91802
G1 X48.33462 Y-90.11802
G1 X45.13462 Y-84.57545
G1 X48.59872 Y-82.57545
G1 F300.0 X47.39872 Y-80.49699
G1 F800.0 X51.55564 Y-78.09699
G1 X57.15564 Y-87.79648
G1 X47.45616 Y-93.39648
G1 X41.85616 Y-83.69699
G1 X47.39872 Y-80.49699
G1 F300.0 X46.19872 Y-78.41853
G1 F800.0 X52.4341 Y-74.81853
G1 X60.4341 Y-88.67494
G1 X46.5777 Y-96.67494
G1 X38.5777 Y-82.81853
G1 X46.19872 Y-78.41853
G0 Z3.0
G0 X49.79872 Y-84.65391
G0 Z-5.0
G1 F300.0 Z-7.0
G1 F800.0 X50.59872 Y-86.03956
G1 X49.21308 Y-86.83956
G1 X48.41308 Y-85.45391
G1 X49.79872 Y-84.65391
G1 F300.0 X48.59872 Y-82.57545
G1 F800.0 X50.67718 Y-81.37545
G1 X53.87718 Y-86.91802
G1 X48.33462 Y-90.11802
G1 X45.13462 Y-84.57545
G1 X48.59872 Y-82.57545
G1 F300.0 X47.39872 Y-80.49699
G1 F800.0 X51.55564 Y-78.09699
G1 X57.15564 Y-87.79648
G1 X47.45616 Y-93.39648
G1 X41.85616 Y-83.69699
G1 X47.39872 Y-80.49699
G1 F300.0 X46.19872 Y-78.41853
G1 F800.0 X52.4341 Y-74.81853
G1 X60.4341 Y-88.67494
G1 X46.5777 Y-96.67494
G1 X38.5777 Y-82.81853
G1 X46.19872 Y-78.41853
G0 Z3.0
G0 X49.79872 Y-84.65391
G0 Z-6.0
G1 F300.0 Z-8.0
G1 F800.0 X50.59872 Y-86.03956
G1 X49.21308 Y-86.83956
G1 X48.41308 Y-85.45391
G1 X49.79872 Y-84.65391
G1 F300.0 X48.59872 Y-82.57545
G1 F800.0 X50.67718 Y-81.37545
G1 X53.87718 Y-86.91802
G1 X48.33462 Y-90.11802
G1 X45.13462 Y-84.57545
G1 X48.59872 Y-82.57545
G1 F300.0 X47.39872 Y-80.49699
G1 F800.0 X51.55564 Y-78.09699
G1 X57.15564 Y-87.79648
G1 X47.45616 Y-93.39648
G1 X41.85616 Y-83.69699
G1 X47.39872 Y-80.49699
G1 F300.0 X46.19872 Y-78.41853
G1 F800.0 X52.4341 Y-74.81853
G1 X60.4341 Y-88.67494
G1 X46.5777 Y-96.67494
G1 X38.5777 Y-82.81853
G1 X46.19872 Y-78.41853
G0 Z3.0
G0 X49.79872 Y-84.65391
G0 Z-7.0
G1 F300.0 Z-9.0
G1 F800.0 X50.59872 Y-86.03956
G1 X49.21308 Y-86.83956
G1 X48.41308 Y-85.45391
G1 X49.79872 Y-84.65391
G1 F300.0 X48.59872 Y-82.57545
G1 F800.0 X50.67718 Y-81.37545
G1 X53.87718 Y-86.91802
G1 X48.33462 Y-90.11802
G1 X45.13462 Y-84.57545
G1 X48.59872 Y-82.57545
G1 F300.0 X47.39872 Y-80.49699
G1 F800.0 X51.55564 Y-78.09699
G1 X57.15564 Y-87.79648
G1 X47.45616 Y-93.39648
G1 X41.85616 Y-83.69699
G1 X47.39872 Y-80.49699
G1 F300.0 X46.19872 Y-78.41853
G1 F800.0 X52.4341 Y-74.81853
G1 X60.4341 Y-88.67494
G1 X46.5777 Y-96.67494
G1 X38.5777 Y-82.81853
G1 X46.19872 Y-78.41853
G0 Z3.0
G0 X49.79872 Y-84.65391
G0 Z-8.0
G1 F300.0 Z-10.0
G1 F800.0 X50.59872 Y-86.03956
G1 X49.21308 Y-86.83956
G1 X48.41308 Y-85.45391
G1 X49.79872 Y-84.65391
G1 F300.0 X48.59872 Y-82.57545
G1 F800.0 X50.67718 Y-81.37545
G1 X53.87718 Y-86.91802
G1 X48.33462 Y-90.11802
G1 X45.13462 Y-84.57545
G1 X48.59872 Y-82.57545
G1 F300.0 X47.39872 Y-80.49699
G1 F800.0 X51.55564 Y-78.09699
G1 X57.15564 Y-87.79648
G1 X47.45616 Y-93.39648
G1 X41.85616 Y-83.69699
G1 X47.39872 Y-80.49699
G1 F300.0 X46.19872 Y-78.41853
G1 F800.0 X52.4341 Y-74.81853
G1 X60.4341 Y-88.67494
G1 X46.5777 Y-96.67494
G1 X38.5777 Y-82.81853
G1 X46.19872 Y-78.41853
G0 Z3.0
G0 X49.79872 Y-84.65391
G0 Z-9.0
G1 F300.0 Z-11.0
G1 F800.0 X50.59872 Y-86.03956
G1 X49.21308 Y-86.83956
G1 X48.41308 Y-85.45391
G1 X49.79872 Y-84.65391
G1 F300.0 X48.59872 Y-82.57545
G1 F800.0 X50.67718 Y-81.37545
G1 X53.87718 Y-86.91802
G1 X48.33462 Y-90.11802
G1 X45.13462 Y-84.57545
G1 X48.59872 Y-82.57545
G1 F300.0 X47.39872 Y-80.49699
G1 F800.0 X51.55564 Y-78.09699
G1 X57.15564 Y-87.79648
G1 X47.45616 Y-93.39648
G1 X41.85616 Y-83.69699
G1 X47.39872 Y-80.49699
G1 F300.0 X46.19872 Y-78.41853
G1 F800.0 X52.4341 Y-74.81853
G1 X60.4341 Y-88.67494
G1 X46.5777 Y-96.67494
G1 X38.5777 Y-82.81853
G1 X46.19872 Y-78.41853
G0 Z3.0
G0 X49.79872 Y-84.65391
G0 Z-10.0
G1 F300.0 Z-12.0
G1 F800.0 X50.59872 Y-86.03956
G1 X49.21308 Y-86.83956
G1 X48.41308 Y-85.45391
G1 X49.79872 Y-84.65391
G1 F300.0 X48.59872 Y-82.57545
G1 F800.0 X50.67718 Y-81.37545
G1 X53.87718 Y-86.91802
G1 X48.33462 Y-90.11802
G1 X45.13462 Y-84.57545
G1 X48.59872 Y-82.57545
G1 F300.0 X47.39872 Y-80.49699
G1 F800.0 X51.55564 Y-78.09699
G1 X57.15564 Y-87.79648
G1 X47.45616 Y-93.39648
G1 X41.85616 Y-83.69699
G1 X47.39872 Y-80.49699
G1 F300.0 X46.19872 Y-78.41853
G1 F800.0 X52.4341 Y-74.81853
G1 X60.4341 Y-88.67494
G1 X46.5777 Y-96.67494
G1 X38.5777 Y-82.81853
G1 X46.19872 Y-78.41853
G0 Z3.0
G0 X239.44381 Y-0.22505
G0 Z1.0
G1 F300.0 Z-1.0
G2 F800.0 X239.7 Y0.51962 I0.55619 J0.22505
G2 X240.6 Y0.0 I0.3 J-0.51962
G2 X239.7 Y-0.51962 I-0.6 J0.0
G2 X239.44381 Y-0.22505 I0.3 J0.51962
G1 F300.0 X238.33142 Y-0.67516
G2 F800.0 X239.1 Y1.55885 I1.66858 J0.67516
G2 X241.8 Y0.0 I0.9 J-1.55885
G2 X239.1 Y-1.55885 I-1.8 J0.0
G2 X238.33142 Y-0.67516 I0.9 J1.55885
G1 F300.0 X239.44381 Y-0.22505
G1 Z-2.0
G2 F800.0 X239.7 Y0.51962 I0.55619 J0.22505
G2 X240.6 Y0.0 I0.3 J-0.51962
G2 X239.7 Y-0.51962 I-0.6 J0.0
G2 X239.44381 Y-0.22505 I0.3 J0.51962
G1 F300.0 X238.33142 Y-0.67516
G2 F800.0 X239.1 Y1.55885 I1.66858 J0.67516
G2 X241.8 Y0.0 I0.9 J-1.55885
G2 X239.1 Y-1.55885 I-1.8 J0.0
G2 X238.33142 Y-0.67516 I0.9 J1.55885
G1 F300.0 X239.44381 Y-0.22505
G1 Z-3.0
G2 F800.0 X239.7 Y0.51962 I0.55619 J0.22505
G2 X240.6 Y0.0 I0.3 J-0.51962
G2 X239.7 Y-0.51962 I-0.6 J0.0
G2 X239.44381 Y-0.22505 I0.3 J0.51962
G1 F300.0 X238.33142 Y-0.67516
G2 F800.0 X239.1 Y1.55885 I1.66858 J0.67516
G2 X241.8 Y0.0 I0.9 J-1.55885
G2 X239.1 Y-1.55885 I-1.8 J0.0
G2 X238.33142 Y-0.67516 I0.9 J1.55885
G1 F300.0 X239.44381 Y-0.22505
G1 Z-4.0
G2 F800.0 X239.7 Y0.51962 I0.55619 J0.22505
G2 X240.6 Y0.0 I0.3 J-0.51962
G2 X239.7 Y-0.51962 I-0.6 J0.0
G2 X239.44381 Y-0.22505 I0.3 J0.51962
G1 F300.0 X238.33142 Y-0.67516
G2 F800.0 X239.1 Y1.55885 I1.66858 J0.67516
G2 X241.8 Y0.0 I0.9 J-1.55885
G2 X239.1 Y-1.55885 I-1.8 J0.0
G2 X238.33142 Y-0.67516 I0.9 J1.55885
G1 F300.0 X239.44381 Y-0.22505
G1 Z-5.0
G2 F800.0 X239.7 Y0.51962 I0.55619 J0.22505
G2 X240.6 Y0.0 I0.3 J-0.51962
G2 X239.7 Y-0.51962 I-0.6 J0.0
G2 X239.44381 Y-0.22505 I0.3 J0.51962
G1 F300.0 X238.33142 Y-0.67516
G2 F800.0 X239.1 Y1.55885 I1.66858 J0.67516
G2 X241.8 Y0.0 I0.9 J-1.55885
G2 X239.1 Y-1.55885 I-1.8 J0.0
G2 X238.33142 Y-0.67516 I0.9 J1.55885
G1 F300.0 X239.44381 Y-0.22505
G1 Z-6.0
G2 F800.0 X239.7 Y0.51962 I0.55619 J0.22505
G2 X240.6 Y0.0 I0.3 J-0.51962
G2 X239.7 Y-0.51962 I-0.6 J0.0
G2 X239.44381 Y-0.22505 I0.3 J0.51962
G1 F300.0 X238.33142 Y-0.67516
G2 F800.0 X239.1 Y1.55885 I1.66858 J0.67516
G2 X241.8 Y0.0 I0.9 J-1.55885
G2 X239.1 Y-1.55885 I-1.8 J0.0
G2 X238.33142 Y-0.67516 I0.9 J1.55885
G1 F300.0 X239.44381 Y-0.22505
G1 Z-7.0
G2 F800.0 X239.7 Y0.51962 I0.55619 J0.22505
G2 X240.6 Y0.0 I0.3 J-0.51962
G2 X239.7 Y-0.51962 I-0.6 J0.0
G2 X239.44381 Y-0.22505 I0.3 J0.51962
G1 F300.0 X238.33142 Y-0.67516
G2 F800.0 X239.1 Y1.55885 I1.66858 J0.67516
G2 X241.8 Y0.0 I0.9 J-1.55885
G2 X239.1 Y-1.55885 I-1.8 J0.0
G2 X238.33142 Y-0.67516 I0.9 J1.55885
G1 F300.0 X239.44381 Y-0.22505
G1 Z-8.0
G2 F800.0 X239.7 Y0.51962 I0.55619 J0.22505
G2 X240.6 Y0.0 I0.3 J-0.51962
G2 X239.7 Y-0.51962 I-0.6 J0.0
G2 X239.44381 Y-0.22505 I0.3 J0.51962
G1 F300.0 X238.33142 Y-0.67516
G2 F800.0 X239.1 Y1.55885 I1.66858 J0.67516
G2 X241.8 Y0.0 I0.9 J-1.55885
G2 X239.1 Y-1.55885 I-1.8 J0.0
G2 X238.33142 Y-0.67516 I0.9 J1.55885
G1 F300.0 X239.44381 Y-0.22505
G1 Z-9.0
G2 F800.0 X239.7 Y0.51962 I0.55619 J0.22505
G2 X240.6 Y0.0 I0.3 J-0.51962
G2 X239.7 Y-0.51962 I-0.6 J0.0
G2 X239.44381 Y-0.22505 I0.3 J0.51962
G1 F300.0 X238.33142 Y-0.67516
G2 F800.0 X239.1 Y1.55885 I1.66858 J0.67516
G2 X241.8 Y0.0 I0.9 J-1.55885
G2 X239.1 Y-1.55885 I-1.8 J0.0
G2 X238.33142 Y-0.67516 I0.9 J1.55885
G1 F300.0 X239.44381 Y-0.22505
G1 Z-10.0
G2 F800.0 X239.7 Y0.51962 I0.55619 J0.22505
G2 X240.6 Y0.0 I0.3 J-0.51962
G2 X239.7 Y-0.51962 I-0.6 J0.0
G2 X239.44381 Y-0.22505 I0.3 J0.51962
G1 F300.0 X238.33142 Y-0.67516
G2 F800.0 X239.1 Y1.55885 I1.66858 J0.67516
G2 X241.8 Y0.0 I0.9 J-1.55885
G2 X239.1 Y-1.55885 I-1.8 J0.0
G2 X238.33142 Y-0.67516 I0.9 J1.55885
G1 F300.0 X239.44381 Y-0.22505
G1 Z-11.0
G2 F800.0 X239.7 Y0.51962 I0.55619 J0.22505
G2 X240.6 Y0.0 I0.3 J-0.51962
G2 X239.7 Y-0.51962 I-0.6 J0.0
G2 X239.44381 Y-0.22505 I0.3 J0.51962
G1 F300.0 X238.33142 Y-0.67516
G2 F800.0 X239.1 Y1.55885 I1.66858 J0.67516
G2 X241.8 Y0.0 I0.9 J-1.55885
G2 X239.1 Y-1.55885 I-1.8 J0.0
G2 X238.33142 Y-0.67516 I0.9 J1.55885
G1 F300.0 X239.44381 Y-0.22505
G1 Z-12.0
G2 F800.0 X239.7 Y0.51962 I0.55619 J0.22505
G2 X240.6 Y0.0 I0.3 J-0.51962
G2 X239.7 Y-0.51962 I-0.6 J0.0
G2 X239.44381 Y-0.22505 I0.3 J0.51962
G1 F300.0 X238.33142 Y-0.67516
G2 F800.0 X239.1 Y1.55885 I1.66858 J0.67516
G2 X241.8 Y0.0 I0.9 J-1.55885
G2 X239.1 Y-1.55885 I-1.8 J0.0
G2 X238.33142 Y-0.67516 I0.9 J1.55885
( Profil-Rechtecke-2mm )
G0 Z3.0
( T2 : 2.0 )
T2 M6
M3 S1000
G0 X-10.2 Y-84.8
G0 Z1.0
G1 F300.0 Z-1.0
G1 F800.0 X10.2
G1 Y-105.2
G1 X-10.2
G1 Y-84.8
G1 F300.0 Z-2.0
G1 F800.0 X10.2
G1 Y-105.2
G1 X-10.2
G1 Y-84.8
G1 F300.0 Z-3.0
G1 F800.0 X10.2
G1 Y-105.2
G1 X-10.2
G1 Y-84.8
G1 F300.0 Z-4.0
G1 F800.0 X10.2
G1 Y-105.2
G1 X-10.2
G1 Y-84.8
G1 F300.0 Z-5.0
G1 F800.0 X10.2
G1 Y-105.2
G1 X-10.2
G1 Y-84.8
G1 F300.0 Z-6.0
G1 F800.0 X10.2
G1 Y-105.2
G1 X-10.2
G1 Y-84.8
G1 F300.0 Z-7.0
G1 F800.0 X10.2
G1 Y-105.2
G1 X-10.2
G1 Y-84.8
G1 F300.0 Z-8.0
G1 F800.0 X10.2
G1 Y-105.2
G1 X-10.2
G1 Y-84.8
G1 F300.0 Z-9.0
G1 F800.0 X10.2
G1 Y-105.2
G1 X-10.2
G1 Y-84.8
G1 F300.0 Z-10.0
G1 F800.0 X10.2
G1 Y-105.2
G1 X-10.2
G1 Y-84.8
G1 F300.0 Z-11.0
G1 F800.0 X10.2
G1 Y-105.2
G1 X-10.2
G1 Y-84.8
G1 F300.0 Z-12.0
G1 F800.0 X10.2
G1 Y-105.2
G1 X-10.2
G1 Y-84.8
G0 Z3.0
G0 X-35.57244 Y-82.01328
G0 Z1.0
G1 F300.0 Z-1.0
G1 F800.0 X-45.77244 Y-99.68019
G1 X-63.43936 Y-89.48019
G1 X-53.23936 Y-71.81328
G1 X-35.57244 Y-82.01328
G1 F300.0 Z-2.0
G1 F800.0 X-45.77244 Y-99.68019
G1 X-63.43936 Y-89.48019
G1 X-53.23936 Y-71.81328
G1 X-35.57244 Y-82.01328
G1 F300.0 Z-3.0
G1 F800.0 X-45.77244 Y-99.68019
G1 X-63.43936 Y-89.48019
G1 X-53.23936 Y-71.81328
G1 X-35.57244 Y-82.01328
G1 F300.0 Z-4.0
G1 F800.0 X-45.77244 Y-99.68019
G1 X-63.43936 Y-89.48019
G1 X-53.23936 Y-71.81328
G1 X-35.57244 Y-82.01328
G1 F300.0 Z-5.0
G1 F800.0 X-45.77244 Y-99.68019
G1 X-63.43936 Y-89.48019
G1 X-53.23936 Y-71.81328
G1 X-35.57244 Y-82.01328
G1 F300.0 Z-6.0
G1 F800.0 X-45.77244 Y-99.68019
G1 X-63.43936 Y-89.48019
G1 X-53.23936 Y-71.81328
G1 X-35.57244 Y-82.01328
G1 F300.0 Z-7.0
G1 F800.0 X-45.77244 Y-99.68019
G1 X-63.43936 Y-89.48019
G1 X-53.23936 Y-71.81328
G1 X-35.57244 Y-82.01328
G1 F300.0 Z-8.0
G1 F800.0 X-45.77244 Y-99.68019
G1 X-63.43936 Y-89.48019
G1 X-53.23936 Y-71.81328
G1 X-35.57244 Y-82.01328
G1 F300.0 Z-9.0
G1 F800.0 X-45.77244 Y-99.68019
G1 X-63.43936 Y-89.48019
G1 X-53.23936 Y-71.81328
G1 X-35.57244 Y-82.01328
G1 F300.0 Z-10.0
G1 F800.0 X-45.77244 Y-99.68019
G1 X-63.43936 Y-89.48019
G1 X-53.23936 Y-71.81328
G1 X-35.57244 Y-82.01328
G1 F300.0 Z-11.0
G1 F800.0 X-45.77244 Y-99.68019
G1 X-63.43936 Y-89.48019
G1 X-53.23936 Y-71.81328
G1 X-35.57244 Y-82.01328
G1 F300.0 Z-12.0
G1 F800.0 X-45.77244 Y-99.68019
G1 X-63.43936 Y-89.48019
G1 X-53.23936 Y-71.81328
G1 X-35.57244 Y-82.01328
G0 Z3.0
G0 X-80.327 Y-58.15476
G0 Z1.0
G1 F300.0 Z-1.0
G1 F800.0 X-97.99392 Y-68.35476
G1 X-108.19392 Y-50.68784
G1 X-90.527 Y-40.48784
G1 X-80.327 Y-58.15476
G1 F300.0 Z-2.0
G1 F800.0 X-97.99392 Y-68.35476
G1 X-108.19392 Y-50.68784
G1 X-90.527 Y-40.48784
G1 X-80.327 Y-58.15476
G1 F300.0 Z-3.0
G1 F800.0 X-97.99392 Y-68.35476
G1 X-108.19392 Y-50.68784
G1 X-90.527 Y-40.48784
G1 X-80.327 Y-58.15476
G1 F300.0 Z-4.0
G1 F800.0 X-97.99392 Y-68.35476
G1 X-108.19392 Y-50.68784
G1 X-90.527 Y-40.48784
G1 X-80.327 Y-58.15476
G1 F300.0 Z-5.0
G1 F800.0 X-97.99392 Y-68.35476
G1 X-108.19392 Y-50.68784
G1 X-90.527 Y-40.48784
G1 X-80.327 Y-58.15476
G1 F300.0 Z-6.0
G1 F800.0 X-97.99392 Y-68.35476
G1 X-108.19392 Y-50.68784
G1 X-90.527 Y-40.48784
G1 X-80.327 Y-58.15476
G1 F300.0 Z-7.0
G1 F800.0 X-97.99392 Y-68.35476
G1 X-108.19392 Y-50.68784
G1 X-90.527 Y-40.48784
G1 X-80.327 Y-58.15476
G1 F300.0 Z-8.0
G1 F800.0 X-97.99392 Y-68.35476
G1 X-108.19392 Y-50.68784
G1 X-90.527 Y-40.48784
G1 X-80.327 Y-58.15476
G1 F300.0 Z-9.0
G1 F800.0 X-97.99392 Y-68.35476
G1 X-108.19392 Y-50.68784
G1 X-90.527 Y-40.48784
G1 X-80.327 Y-58.15476
G1 F300.0 Z-10.0
G1 F800.0 X-97.99392 Y-68.35476
G1 X-108.19392 Y-50.68784
G1 X-90.527 Y-40.48784
G1 X-80.327 Y-58.15476
G1 F300.0 Z-11.0
G1 F800.0 X-97.99392 Y-68.35476
G1 X-108.19392 Y-50.68784
G1 X-90.527 Y-40.48784
G1 X-80.327 Y-58.15476
G1 F300.0 Z-12.0
G1 F800.0 X-97.99392 Y-68.35476
G1 X-108.19392 Y-50.68784
G1 X-90.527 Y-40.48784
G1 X-80.327 Y-58.15476
G0 Z3.0
G0 X-104.8 Y-10.2
G0 Z1.0
G1 F300.0 Z-1.0
G1 F800.0 X-125.2
G1 Y10.2
G1 X-104.8
G1 Y-10.2
G1 F300.0 Z-2.0
G1 F800.0 X-125.2
G1 Y10.2
G1 X-104.8
G1 Y-10.2
G1 F300.0 Z-3.0
G1 F800.0 X-125.2
G1 Y10.2
G1 X-104.8
G1 Y-10.2
G1 F300.0 Z-4.0
G1 F800.0 X-125.2
G1 Y10.2
G1 X-104.8
G1 Y-10.2
G1 F300.0 Z-5.0
G1 F800.0 X-125.2
G1 Y10.2
G1 X-104.8
G1 Y-10.2
G1 F300.0 Z-6.0
G1 F800.0 X-125.2
G1 Y10.2
G1 X-104.8
G1 Y-10.2
G1 F300.0 Z-7.0
G1 F800.0 X-125.2
G1 Y10.2
G1 X-104.8
G1 Y-10.2
G1 F300.0 Z-8.0
G1 F800.0 X-125.2
G1 Y10.2
G1 X-104.8
G1 Y-10.2
G1 F300.0 Z-9.0
G1 F800.0 X-125.2
G1 Y10.2
G1 X-104.8
G1 Y-10.2
G1 F300.0 Z-10.0
G1 F800.0 X-125.2
G1 Y10.2
G1 X-104.8
G1 Y-10.2
G1 F300.0 Z-11.0
G1 F800.0 X-125.2
G1 Y10.2
G1 X-104.8
G1 Y-10.2
G1 F300.0 Z-12.0
G1 F800.0 X-125.2
G1 Y10.2
G1 X-104.8
G1 Y-10.2
G0 Z3.0
G0 X-90.87343 Y40.48784
G0 Z1.0
G1 F300.0 Z-1.0
G1 F800.0 X-108.54034 Y50.68784
G1 X-98.34034 Y68.35476
G1 X-80.67343 Y58.15476
G1 X-90.87343 Y40.48784
G1 F300.0 Z-2.0
G1 F800.0 X-108.54034 Y50.68784
G1 X-98.34034 Y68.35476
G1 X-80.67343 Y58.15476
G1 X-90.87343 Y40.48784
G1 F300.0 Z-3.0
G1 F800.0 X-108.54034 Y50.68784
G1 X-98.34034 Y68.35476
G1 X-80.67343 Y58.15476
G1 X-90.87343 Y40.48784
G1 F300.0 Z-4.0
G1 F800.0 X-108.54034 Y50.68784
G1 X-98.34034 Y68.35476
G1 X-80.67343 Y58.15476
G1 X-90.87343 Y40.48784
G1 F300.0 Z-5.0
G1 F800.0 X-108.54034 Y50.68784
G1 X-98.34034 Y68.35476
G1 X-80.67343 Y58.15476
G1 X-90.87343 Y40.48784
G1 F300.0 Z-6.0
G1 F800.0 X-108.54034 Y50.68784
G1 X-98.34034 Y68.35476
G1 X-80.67343 Y58.15476
G1 X-90.87343 Y40.48784
G1 F300.0 Z-7.0
G1 F800.0 X-108.54034 Y50.68784
G1 X-98.34034 Y68.35476
G1 X-80.67343 Y58.15476
G1 X-90.87343 Y40.48784
G1 F300.0 Z-8.0
G1 F800.0 X-108.54034 Y50.68784
G1 X-98.34034 Y68.35476
G1 X-80.67343 Y58.15476
G1 X-90.87343 Y40.48784
G1 F300.0 Z-9.0
G1 F800.0 X-108.54034 Y50.68784
G1 X-98.34034 Y68.35476
G1 X-80.67343 Y58.15476
G1 X-90.87343 Y40.48784
G1 F300.0 Z-10.0
G1 F800.0 X-108.54034 Y50.68784
G1 X-98.34034 Y68.35476
G1 X-80.67343 Y58.15476
G1 X-90.87343 Y40.48784
G1 F300.0 Z-11.0
G1 F800.0 X-108.54034 Y50.68784
G1 X-98.34034 Y68.35476
G1 X-80.67343 Y58.15476
G1 X-90.87343 Y40.48784
G1 F300.0 Z-12.0
G1 F800.0 X-108.54034 Y50.68784
G1 X-98.34034 Y68.35476
G1 X-80.67343 Y58.15476
G1 X-90.87343 Y40.48784
G0 Z3.0
G0 X-52.9384 Y71.81327
G0 Z1.0
G1 F300.0 Z-1.0
G1 F800.0 X-63.1384 Y89.48019
G1 X-45.47148 Y99.68019
G1 X-35.27148 Y82.01327
G1 X-52.9384 Y71.81327
G1 F300.0 Z-2.0
G1 F800.0 X-63.1384 Y89.48019
G1 X-45.47148 Y99.68019
G1 X-35.27148 Y82.01327
G1 X-52.9384 Y71.81327
G1 F300.0 Z-3.0
G1 F800.0 X-63.1384 Y89.48019
G1 X-45.47148 Y99.68019
G1 X-35.27148 Y82.01327
G1 X-52.9384 Y71.81327
G1 F300.0 Z-4.0
G1 F800.0 X-63.1384 Y89.48019
G1 X-45.47148 Y99.68019
G1 X-35.27148 Y82.01327
G1 X-52.9384 Y71.81327
G1 F300.0 Z-5.0
G1 F800.0 X-63.1384 Y89.48019
G1 X-45.47148 Y99.68019
G1 X-35.27148 Y82.01327
G1 X-52.9384 Y71.81327
G1 F300.0 Z-6.0
G1 F800.0 X-63.1384 Y89.48019
G1 X-45.47148 Y99.68019
G1 X-35.27148 Y82.01327
G1 X-52.9384 Y71.81327
G1 F300.0 Z-7.0
G1 F800.0 X-63.1384 Y89.48019
G1 X-45.47148 Y99.68019
G1 X-35.27148 Y82.01327
G1 X-52.9384 Y71.81327
G1 F300.0 Z-8.0
G1 F800.0 X-63.1384 Y89.48019
G1 X-45.47148 Y99.68019
G1 X-35.27148 Y82.01327
G1 X-52.9384 Y71.81327
G1 F300.0 Z-9.0
G1 F800.0 X-63.1384 Y89.48019
G1 X-45.47148 Y99.68019
G1 X-35.27148 Y82.01327
G1 X-52.9384 Y71.81327
G1 F300.0 Z-10.0
G1 F800.0 X-63.1384 Y89.48019
G1 X-45.47148 Y99.68019
G1 X-35.27148 Y82.01327
G1 X-52.9384 Y71.81327
G1 F300.0 Z-11.0
G1 F800.0 X-63.1384 Y89.48019
G1 X-45.47148 Y99.68019
G1 X-35.27148 Y82.01327
G1 X-52.9384 Y71.81327
G1 F300.0 Z-12.0
G1 F800.0 X-63.1384 Y89.48019
G1 X-45.47148 Y99.68019
G1 X-35.27148 Y82.01327
G1 X-52.9384 Y71.81327
G0 Z3.0
G0 X-10.2 Y84.8
G0 Z1.0
G1 F300.0 Z-1.0
G1 F800.0 Y105.2
G1 X10.2
G1 Y84.8
G1 X-10.2
G1 F300.0 Z-2.0
G1 F800.0 Y105.2
G1 X10.2
G1 Y84.8
G1 X-10.2
G1 F300.0 Z-3.0
G1 F800.0 Y105.2
G1 X10.2
G1 Y84.8
G1 X-10.2
G1 F300.0 Z-4.0
G1 F800.0 Y105.2
G1 X10.2
G1 Y84.8
G1 X-10.2
G1 F300.0 Z-5.0
G1 F800.0 Y105.2
G1 X10.2
G1 Y84.8
G1 X-10.2
G1 F300.0 Z-6.0
G1 F800.0 Y105.2
G1 X10.2
G1 Y84.8
G1 X-10.2
G1 F300.0 Z-7.0
G1 F800.0 Y105.2
G1 X10.2
G1 Y84.8
G1 X-10.2
G1 F300.0 Z-8.0
G1 F800.0 Y105.2
G1 X10.2
G1 Y84.8
G1 X-10.2
G1 F300.0 Z-9.0
G1 F800.0 Y105.2
G1 X10.2
G1 Y84.8
G1 X-10.2
G1 F300.0 Z-10.0
G1 F800.0 Y105.2
G1 X10.2
G1 Y84.8
G1 X-10.2
G1 F300.0 Z-11.0
G1 F800.0 Y105.2
G1 X10.2
G1 Y84.8
G1 X-10.2
G1 F300.0 Z-12.0
G1 F800.0 Y105.2
G1 X10.2
G1 Y84.8
G1 X-10.2
G0 Z3.0
G0 X35.57244 Y82.01328
G0 Z1.0
G1 F300.0 Z-1.0
G1 F800.0 X45.77244 Y99.68019
G1 X63.43936 Y89.48019
G1 X53.23936 Y71.81328
G1 X35.57244 Y82.01328
G1 F300.0 Z-2.0
G1 F800.0 X45.77244 Y99.68019
G1 X63.43936 Y89.48019
G1 X53.23936 Y71.81328
G1 X35.57244 Y82.01328
G1 F300.0 Z-3.0
G1 F800.0 X45.77244 Y99.68019
G1 X63.43936 Y89.48019
G1 X53.23936 Y71.81328
G1 X35.57244 Y82.01328
G1 F300.0 Z-4.0
G1 F800.0 X45.77244 Y99.68019
G1 X63.43936 Y89.48019
G1 X53.23936 Y71.81328
G1 X35.57244 Y82.01328
G1 F300.0 Z-5.0
G1 F800.0 X45.77244 Y99.68019
G1 X63.43936 Y89.48019
G1 X53.23936 Y71.81328
G1 X35.57244 Y82.01328
G1 F300.0 Z-6.0
G1 F800.0 X45.77244 Y99.68019
G1 X63.43936 Y89.48019
G1 X53.23936 Y71.81328
G1 X35.57244 Y82.01328
G1 F300.0 Z-7.0
G1 F800.0 X45.77244 Y99.68019
G1 X63.43936 Y89.48019
G1 X53.23936 Y71.81328
G1 X35.57244 Y82.01328
G1 F300.0 Z-8.0
G1 F800.0 X45.77244 Y99.68019
G1 X63.43936 Y89.48019
G1 X53.23936 Y71.81328
G1 X35.57244 Y82.01328
G1 F300.0 Z-9.0
G1 F800.0 X45.77244 Y99.68019
G1 X63.43936 Y89.48019
G1 X53.23936 Y71.81328
G1 X35.57244 Y82.01328
G1 F300.0 Z-10.0
G1 F800.0 X45.77244 Y99.68019
G1 X63.43936 Y89.48019
G1 X53.23936 Y71.81328
G1 X35.57244 Y82.01328
G1 F300.0 Z-11.0
G1 F800.0 X45.77244 Y99.68019
G1 X63.43936 Y89.48019
G1 X53.23936 Y71.81328
G1 X35.57244 Y82.01328
G1 F300.0 Z-12.0
G1 F800.0 X45.77244 Y99.68019
G1 X63.43936 Y89.48019
G1 X53.23936 Y71.81328
G1 X35.57244 Y82.01328
G0 Z3.0
G0 X80.327 Y58.15476
G0 Z1.0
G1 F300.0 Z-1.0
G1 F800.0 X97.99392 Y68.35476
G1 X108.19392 Y50.68784
G1 X90.527 Y40.48784
G1 X80.327 Y58.15476
G1 F300.0 Z-2.0
G1 F800.0 X97.99392 Y68.35476
G1 X108.19392 Y50.68784
G1 X90.527 Y40.48784
G1 X80.327 Y58.15476
G1 F300.0 Z-3.0
G1 F800.0 X97.99392 Y68.35476
G1 X108.19392 Y50.68784
G1 X90.527 Y40.48784
G1 X80.327 Y58.15476
G1 F300.0 Z-4.0
G1 F800.0 X97.99392 Y68.35476
G1 X108.19392 Y50.68784
G1 X90.527 Y40.48784
G1 X80.327 Y58.15476
G1 F300.0 Z-5.0
G1 F800.0 X97.99392 Y68.35476
G1 X108.19392 Y50.68784
G1 X90.527 Y40.48784
G1 X80.327 Y58.15476
G1 F300.0 Z-6.0
G1 F800.0 X97.99392 Y68.35476
G1 X108.19392 Y50.68784
G1 X90.527 Y40.48784
G1 X80.327 Y58.15476
G1 F300.0 Z-7.0
G1 F800.0 X97.99392 Y68.35476
G1 X108.19392 Y50.68784
G1 X90.527 Y40.48784
G1 X80.327 Y58.15476
G1 F300.0 Z-8.0
G1 F800.0 X97.99392 Y68.35476
G1 X108.19392 Y50.68784
G1 X90.527 Y40.48784
G1 X80.327 Y58.15476
G1 F300.0 Z-9.0
G1 F800.0 X97.99392 Y68.35476
G1 X108.19392 Y50.68784
G1 X90.527 Y40.48784
G1 X80.327 Y58.15476
G1 F300.0 Z-10.0
G1 F800.0 X97.99392 Y68.35476
G1 X108.19392 Y50.68784
G1 X90.527 Y40.48784
G1 X80.327 Y58.15476
G1 F300.0 Z-11.0
G1 F800.0 X97.99392 Y68.35476
G1 X108.19392 Y50.68784
G1 X90.527 Y40.48784
G1 X80.327 Y58.15476
G1 F300.0 Z-12.0
G1 F800.0 X97.99392 Y68.35476
G1 X108.19392 Y50.68784
G1 X90.527 Y40.48784
G1 X80.327 Y58.15476
G0 Z3.0
G0 X104.8 Y10.2
G0 Z1.0
G1 F300.0 Z-1.0
G1 F800.0 X125.2
G1 Y-10.2
G1 X104.8
G1 Y10.2
G1 F300.0 Z-2.0
G1 F800.0 X125.2
G1 Y-10.2
G1 X104.8
G1 Y10.2
G1 F300.0 Z-3.0
G1 F800.0 X125.2
G1 Y-10.2
G1 X104.8
G1 Y10.2
G1 F300.0 Z-4.0
G1 F800.0 X125.2
G1 Y-10.2
G1 X104.8
G1 Y10.2
G1 F300.0 Z-5.0
G1 F800.0 X125.2
G1 Y-10.2
G1 X104.8
G1 Y10.2
G1 F300.0 Z-6.0
G1 F800.0 X125.2
G1 Y-10.2
G1 X104.8
G1 Y10.2
G1 F300.0 Z-7.0
G1 F800.0 X125.2
G1 Y-10.2
G1 X104.8
G1 Y10.2
G1 F300.0 Z-8.0
G1 F800.0 X125.2
G1 Y-10.2
G1 X104.8
G1 Y10.2
G1 F300.0 Z-9.0
G1 F800.0 X125.2
G1 Y-10.2
G1 X104.8
G1 Y10.2
G1 F300.0 Z-10.0
G1 F800.0 X125.2
G1 Y-10.2
G1 X104.8
G1 Y10.2
G1 F300.0 Z-11.0
G1 F800.0 X125.2
G1 Y-10.2
G1 X104.8
G1 Y10.2
G1 F300.0 Z-12.0
G1 F800.0 X125.2
G1 Y-10.2
G1 X104.8
G1 Y10.2
G0 Z3.0
G0 X90.527 Y-40.48784
G0 Z1.0
G1 F300.0 Z-1.0
G1 F800.0 X108.19392 Y-50.68784
G1 X97.99392 Y-68.35476
G1 X80.327 Y-58.15476
G1 X90.527 Y-40.48784
G1 F300.0 Z-2.0
G1 F800.0 X108.19392 Y-50.68784
G1 X97.99392 Y-68.35476
G1 X80.327 Y-58.15476
G1 X90.527 Y-40.48784
G1 F300.0 Z-3.0
G1 F800.0 X108.19392 Y-50.68784
G1 X97.99392 Y-68.35476
G1 X80.327 Y-58.15476
G1 X90.527 Y-40.48784
G1 F300.0 Z-4.0
G1 F800.0 X108.19392 Y-50.68784
G1 X97.99392 Y-68.35476
G1 X80.327 Y-58.15476
G1 X90.527 Y-40.48784
G1 F300.0 Z-5.0
G1 F800.0 X108.19392 Y-50.68784
G1 X97.99392 Y-68.35476
G1 X80.327 Y-58.15476
G1 X90.527 Y-40.48784
G1 F300.0 Z-6.0
G1 F800.0 X108.19392 Y-50.68784
G1 X97.99392 Y-68.35476
G1 X80.327 Y-58.15476
G1 X90.527 Y-40.48784
G1 F300.0 Z-7.0
G1 F800.0 X108.19392 Y-50.68784
G1 X97.99392 Y-68.35476
G1 X80.327 Y-58.15476
G1 X90.527 Y-40.48784
G1 F300.0 Z-8.0
G1 F800.0 X108.19392 Y-50.68784
G1 X97.99392 Y-68.35476
G1 X80.327 Y-58.15476
G1 X90.527 Y-40.48784
G1 F300.0 Z-9.0
G1 F800.0 X108.19392 Y-50.68784
G1 X97.99392 Y-68.35476
G1 X80.327 Y-58.15476
G1 X90.527 Y-40.48784
G1 F300.0 Z-10.0
G1 F800.0 X108.19392 Y-50.68784
G1 X97.99392 Y-68.35476
G1 X80.327 Y-58.15476
G1 X90.527 Y-40.48784
G1 F300.0 Z-11.0
G1 F800.0 X108.19392 Y-50.68784
G1 X97.99392 Y-68.35476
G1 X80.327 Y-58.15476
G1 X90.527 Y-40.48784
G1 F300.0 Z-12.0
G1 F800.0 X108.19392 Y-50.68784
G1 X97.99392 Y-68.35476
G1 X80.327 Y-58.15476
G1 X90.527 Y-40.48784
G0 Z3.0
G0 X53.23936 Y-71.81328
G0 Z1.0
G1 F300.0 Z-1.0
G1 F800.0 X63.43936 Y-89.48019
G1 X45.77244 Y-99.68019
G1 X35.57244 Y-82.01328
G1 X53.23936 Y-71.81328
G1 F300.0 Z-2.0
G1 F800.0 X63.43936 Y-89.48019
G1 X45.77244 Y-99.68019
G1 X35.57244 Y-82.01328
G1 X53.23936 Y-71.81328
G1 F300.0 Z-3.0
G1 F800.0 X63.43936 Y-89.48019
G1 X45.77244 Y-99.68019
G1 X35.57244 Y-82.01328
G1 X53.23936 Y-71.81328
G1 F300.0 Z-4.0
G1 F800.0 X63.43936 Y-89.48019
G1 X45.77244 Y-99.68019
G1 X35.57244 Y-82.01328
G1 X53.23936 Y-71.81328
G1 F300.0 Z-5.0
G1 F800.0 X63.43936 Y-89.48019
G1 X45.77244 Y-99.68019
G1 X35.57244 Y-82.01328
G1 X53.23936 Y-71.81328
G1 F300.0 Z-6.0
G1 F800.0 X63.43936 Y-89.48019
G1 X45.77244 Y-99.68019
G1 X35.57244 Y-82.01328
G1 X53.23936 Y-71.81328
G1 F300.0 Z-7.0
G1 F800.0 X63.43936 Y-89.48019
G1 X45.77244 Y-99.68019
G1 X35.57244 Y-82.01328
G1 X53.23936 Y-71.81328
G1 F300.0 Z-8.0
G1 F800.0 X63.43936 Y-89.48019
G1 X45.77244 Y-99.68019
G1 X35.57244 Y-82.01328
G1 X53.23936 Y-71.81328
G1 F300.0 Z-9.0
G1 F800.0 X63.43936 Y-89.48019
G1 X45.77244 Y-99.68019
G1 X35.57244 Y-82.01328
G1 X53.23936 Y-71.81328
G1 F300.0 Z-10.0
G1 F800.0 X63.43936 Y-89.48019
G1 X45.77244 Y-99.68019
G1 X35.57244 Y-82.01328
G1 X53.23936 Y-71.81328
G1 F300.0 Z-11.0
G1 F800.0 X63.43936 Y-89.48019
G1 X45.77244 Y-99.68019
G1 X35.57244 Y-82.01328
G1 X53.23936 Y-71.81328
G1 F300.0 Z-12.0
G1 F800.0 X63.43936 Y-89.48019
G1 X45.77244 Y-99.68019
G1 X35.57244 Y-82.01328
G1 X53.23936 Y-71.81328
G0 Z3.0
G0 X236.2665 Y-1.43561
G0 Z1.0
G1 F300.0 Z-1.0
G2 F800.0 X238.0 Y3.4641 I3.7335 J1.43561
G2 X244.0 Y0.0 I2.0 J-3.4641
G2 X238.0 Y-3.4641 I-4.0 J0.0
G2 X236.2665 Y-1.43561 I2.0 J3.4641
G1 F300.0 Z-2.0
G2 F800.0 X238.0 Y3.4641 I3.7335 J1.43561
G2 X244.0 Y0.0 I2.0 J-3.4641
G2 X238.0 Y-3.4641 I-4.0 J0.0
G2 X236.2665 Y-1.43561 I2.0 J3.4641
G1 F300.0 Z-3.0
G2 F800.0 X238.0 Y3.4641 I3.7335 J1.43561
G2 X244.0 Y0.0 I2.0 J-3.4641
G2 X238.0 Y-3.4641 I-4.0 J0.0
G2 X236.2665 Y-1.43561 I2.0 J3.4641
G1 F300.0 Z-4.0
G2 F800.0 X238.0 Y3.4641 I3.7335 J1.43561
G2 X244.0 Y0.0 I2.0 J-3.4641
G2 X238.0 Y-3.4641 I-4.0 J0.0
G2 X236.2665 Y-1.43561 I2.0 J3.4641
G1 F300.0 Z-5.0
G2 F800.0 X238.0 Y3.4641 I3.7335 J1.43561
G2 X244.0 Y0.0 I2.0 J-3.4641
G2 X238.0 Y-3.4641 I-4.0 J0.0
G2 X236.2665 Y-1.43561 I2.0 J3.4641
G1 F300.0 Z-6.0
G2 F800.0 X238.0 Y3.4641 I3.7335 J1.43561
G2 X244.0 Y0.0 I2.0 J-3.4641
G2 X238.0 Y-3.4641 I-4.0 J0.0
G2 X236.2665 Y-1.43561 I2.0 J3.4641
G1 F300.0 Z-7.0
G2 F800.0 X238.0 Y3.4641 I3.7335 J1.43561
G2 X244.0 Y0.0 I2.0 J-3.4641
G2 X238.0 Y-3.4641 I-4.0 J0.0
G2 X236.2665 Y-1.43561 I2.0 J3.4641
G1 F300.0 Z-8.0
G2 F800.0 X238.0 Y3.4641 I3.7335 J1.43561
G2 X244.0 Y0.0 I2.0 J-3.4641
