( Made using CamBam - http://www.cambam.co.uk )
( Rechtecke 8/27/2017 10:45:06 AM )
( T2 : 2.0 )
( T4 : 4.0 )
( T6 : 6.0 )
G21 G90 G64 G40
( Rechtecke-Profil )
G0 Z3.0
( T2 : 2.0 )
T2 M6
M3 S1000
G0 X10.1142 Y100.84583
G0 Z1.0
G1 F300.0 Z-1.0
G1 F800.0 X-10.2858
G1 Y121.24583
G1 X10.1142
G1 Y100.84583
G1 F300.0 Z-2.0
G1 F800.0 X-10.2858
G1 Y121.24583
G1 X10.1142
G1 Y100.84583
G1 F300.0 Z-3.0
G1 F800.0 X-10.2858
G1 Y121.24583
G1 X10.1142
G1 Y100.84583
G1 F300.0 Z-4.0
G1 F800.0 X-10.2858
G1 Y121.24583
G1 X10.1142
G1 Y100.84583
G1 F300.0 Z-5.0
G1 F800.0 X-10.2858
G1 Y121.24583
G1 X10.1142
G1 Y100.84583
G1 F300.0 Z-6.0
G1 F800.0 X-10.2858
G1 Y121.24583
G1 X10.1142
G1 Y100.84583
G1 F300.0 Z-7.0
G1 F800.0 X-10.2858
G1 Y121.24583
G1 X10.1142
G1 Y100.84583
G1 F300.0 Z-8.0
G1 F800.0 X-10.2858
G1 Y121.24583
G1 X10.1142
G1 Y100.84583
G1 F300.0 Z-9.0
G1 F800.0 X-10.2858
G1 Y121.24583
G1 X10.1142
G1 Y100.84583
G1 F300.0 Z-10.0
G1 F800.0 X-10.2858
G1 Y121.24583
G1 X10.1142
G1 Y100.84583
G1 F300.0 Z-11.0
G1 F800.0 X-10.2858
G1 Y121.24583
G1 X10.1142
G1 Y100.84583
G1 F300.0 Z-12.0
G1 F800.0 X-10.2858
G1 Y121.24583
G1 X10.1142
G1 Y100.84583
G0 Z3.0
G0 X29.08919 Y97.1056
G0 Z1.0
G1 F300.0 Z-1.0
G1 F800.0 X36.89593 Y115.95274
G1 X55.74307 Y108.146
G1 X47.93633 Y89.29886
G1 X29.08919 Y97.1056
G1 F300.0 Z-2.0
G1 F800.0 X36.89593 Y115.95274
G1 X55.74307 Y108.146
G1 X47.93633 Y89.29886
G1 X29.08919 Y97.1056
G1 F300.0 Z-3.0
G1 F800.0 X36.89593 Y115.95274
G1 X55.74307 Y108.146
G1 X47.93633 Y89.29886
G1 X29.08919 Y97.1056
G1 F300.0 Z-4.0
G1 F800.0 X36.89593 Y115.95274
G1 X55.74307 Y108.146
G1 X47.93633 Y89.29886
G1 X29.08919 Y97.1056
G1 F300.0 Z-5.0
G1 F800.0 X36.89593 Y115.95274
G1 X55.74307 Y108.146
G1 X47.93633 Y89.29886
G1 X29.08919 Y97.1056
G1 F300.0 Z-6.0
G1 F800.0 X36.89593 Y115.95274
G1 X55.74307 Y108.146
G1 X47.93633 Y89.29886
G1 X29.08919 Y97.1056
G1 F300.0 Z-7.0
G1 F800.0 X36.89593 Y115.95274
G1 X55.74307 Y108.146
G1 X47.93633 Y89.29886
G1 X29.08919 Y97.1056
G1 F300.0 Z-8.0
G1 F800.0 X36.89593 Y115.95274
G1 X55.74307 Y108.146
G1 X47.93633 Y89.29886
G1 X29.08919 Y97.1056
G1 F300.0 Z-9.0
G1 F800.0 X36.89593 Y115.95274
G1 X55.74307 Y108.146
G1 X47.93633 Y89.29886
G1 X29.08919 Y97.1056
G1 F300.0 Z-10.0
G1 F800.0 X36.89593 Y115.95274
G1 X55.74307 Y108.146
G1 X47.93633 Y89.29886
G1 X29.08919 Y97.1056
G1 F300.0 Z-11.0
G1 F800.0 X36.89593 Y115.95274
G1 X55.74307 Y108.146
G1 X47.93633 Y89.29886
G1 X29.08919 Y97.1056
G1 F300.0 Z-12.0
G1 F800.0 X36.89593 Y115.95274
G1 X55.74307 Y108.146
G1 X47.93633 Y89.29886
G1 X29.08919 Y97.1056
G0 Z3.0
G0 X64.03561 Y78.58193
G0 Z1.0
G1 F300.0 Z-1.0
G1 F800.0 X78.46059 Y93.0069
G1 X92.88557 Y78.58193
G1 X78.46059 Y64.15695
G1 X64.03561 Y78.58193
G1 F300.0 Z-2.0
G1 F800.0 X78.46059 Y93.0069
G1 X92.88557 Y78.58193
G1 X78.46059 Y64.15695
G1 X64.03561 Y78.58193
G1 F300.0 Z-3.0
G1 F800.0 X78.46059 Y93.0069
G1 X92.88557 Y78.58193
G1 X78.46059 Y64.15695
G1 X64.03561 Y78.58193
G1 F300.0 Z-4.0
G1 F800.0 X78.46059 Y93.0069
G1 X92.88557 Y78.58193
G1 X78.46059 Y64.15695
G1 X64.03561 Y78.58193
G1 F300.0 Z-5.0
G1 F800.0 X78.46059 Y93.0069
G1 X92.88557 Y78.58193
G1 X78.46059 Y64.15695
G1 X64.03561 Y78.58193
G1 F300.0 Z-6.0
G1 F800.0 X78.46059 Y93.0069
G1 X92.88557 Y78.58193
G1 X78.46059 Y64.15695
G1 X64.03561 Y78.58193
G1 F300.0 Z-7.0
G1 F800.0 X78.46059 Y93.0069
G1 X92.88557 Y78.58193
G1 X78.46059 Y64.15695
G1 X64.03561 Y78.58193
G1 F300.0 Z-8.0
G1 F800.0 X78.46059 Y93.0069
G1 X92.88557 Y78.58193
G1 X78.46059 Y64.15695
G1 X64.03561 Y78.58193
G1 F300.0 Z-9.0
G1 F800.0 X78.46059 Y93.0069
G1 X92.88557 Y78.58193
G1 X78.46059 Y64.15695
G1 X64.03561 Y78.58193
G1 F300.0 Z-10.0
G1 F800.0 X78.46059 Y93.0069
G1 X92.88557 Y78.58193
G1 X78.46059 Y64.15695
G1 X64.03561 Y78.58193
G1 F300.0 Z-11.0
G1 F800.0 X78.46059 Y93.0069
G1 X92.88557 Y78.58193
G1 X78.46059 Y64.15695
G1 X64.03561 Y78.58193
G1 F300.0 Z-12.0
G1 F800.0 X78.46059 Y93.0069
G1 X92.88557 Y78.58193
G1 X78.46059 Y64.15695
G1 X64.03561 Y78.58193
G0 Z3.0
G0 X89.23319 Y48.09487
G0 Z1.0
G1 F300.0 Z-1.0
G1 F800.0 X108.08033 Y55.90161
G1 X115.88708 Y37.05447
G1 X97.03993 Y29.24772
G1 X89.23319 Y48.09487
G1 F300.0 Z-2.0
G1 F800.0 X108.08033 Y55.90161
G1 X115.88708 Y37.05447
G1 X97.03993 Y29.24772
G1 X89.23319 Y48.09487
G1 F300.0 Z-3.0
G1 F800.0 X108.08033 Y55.90161
G1 X115.88708 Y37.05447
G1 X97.03993 Y29.24772
G1 X89.23319 Y48.09487
G1 F300.0 Z-4.0
G1 F800.0 X108.08033 Y55.90161
G1 X115.88708 Y37.05447
G1 X97.03993 Y29.24772
G1 X89.23319 Y48.09487
G1 F300.0 Z-5.0
G1 F800.0 X108.08033 Y55.90161
G1 X115.88708 Y37.05447
G1 X97.03993 Y29.24772
G1 X89.23319 Y48.09487
G1 F300.0 Z-6.0
G1 F800.0 X108.08033 Y55.90161
G1 X115.88708 Y37.05447
G1 X97.03993 Y29.24772
G1 X89.23319 Y48.09487
G1 F300.0 Z-7.0
G1 F800.0 X108.08033 Y55.90161
G1 X115.88708 Y37.05447
G1 X97.03993 Y29.24772
G1 X89.23319 Y48.09487
G1 F300.0 Z-8.0
G1 F800.0 X108.08033 Y55.90161
G1 X115.88708 Y37.05447
G1 X97.03993 Y29.24772
G1 X89.23319 Y48.09487
G1 F300.0 Z-9.0
G1 F800.0 X108.08033 Y55.90161
G1 X115.88708 Y37.05447
G1 X97.03993 Y29.24772
G1 X89.23319 Y48.09487
G1 F300.0 Z-10.0
G1 F800.0 X108.08033 Y55.90161
G1 X115.88708 Y37.05447
G1 X97.03993 Y29.24772
G1 X89.23319 Y48.09487
G1 F300.0 Z-11.0
G1 F800.0 X108.08033 Y55.90161
G1 X115.88708 Y37.05447
G1 X97.03993 Y29.24772
G1 X89.23319 Y48.09487
G1 F300.0 Z-12.0
G1 F800.0 X108.08033 Y55.90161
G1 X115.88708 Y37.05447
G1 X97.03993 Y29.24772
G1 X89.23319 Y48.09487
G0 Z3.0
G0 X100.84583 Y10.2858
G0 Z1.0
G1 F300.0 Z-1.0
G1 F800.0 X121.24583
G1 Y-10.1142
G1 X100.84583
G1 Y10.2858
G1 F300.0 Z-2.0
G1 F800.0 X121.24583
G1 Y-10.1142
G1 X100.84583
G1 Y10.2858
G1 F300.0 Z-3.0
G1 F800.0 X121.24583
G1 Y-10.1142
G1 X100.84583
G1 Y10.2858
G1 F300.0 Z-4.0
G1 F800.0 X121.24583
G1 Y-10.1142
G1 X100.84583
G1 Y10.2858
G1 F300.0 Z-5.0
G1 F800.0 X121.24583
G1 Y-10.1142
G1 X100.84583
G1 Y10.2858
G1 F300.0 Z-6.0
G1 F800.0 X121.24583
G1 Y-10.1142
G1 X100.84583
G1 Y10.2858
G1 F300.0 Z-7.0
G1 F800.0 X121.24583
G1 Y-10.1142
G1 X100.84583
G1 Y10.2858
G1 F300.0 Z-8.0
G1 F800.0 X121.24583
G1 Y-10.1142
G1 X100.84583
G1 Y10.2858
G1 F300.0 Z-9.0
G1 F800.0 X121.24583
G1 Y-10.1142
G1 X100.84583
G1 Y10.2858
G1 F300.0 Z-10.0
G1 F800.0 X121.24583
G1 Y-10.1142
G1 X100.84583
G1 Y10.2858
G1 F300.0 Z-11.0
G1 F800.0 X121.24583
G1 Y-10.1142
G1 X100.84583
G1 Y10.2858
G1 F300.0 Z-12.0
G1 F800.0 X121.24583
G1 Y-10.1142
G1 X100.84583
G1 Y10.2858
G0 Z3.0
G0 X97.1056 Y-29.08919
G0 Z1.0
G1 F300.0 Z-1.0
G1 F800.0 X115.95274 Y-36.89593
G1 X108.146 Y-55.74307
G1 X89.29886 Y-47.93633
G1 X97.1056 Y-29.08919
G1 F300.0 Z-2.0
G1 F800.0 X115.95274 Y-36.89593
G1 X108.146 Y-55.74307
G1 X89.29886 Y-47.93633
G1 X97.1056 Y-29.08919
G1 F300.0 Z-3.0
G1 F800.0 X115.95274 Y-36.89593
G1 X108.146 Y-55.74307
G1 X89.29886 Y-47.93633
G1 X97.1056 Y-29.08919
G1 F300.0 Z-4.0
G1 F800.0 X115.95274 Y-36.89593
G1 X108.146 Y-55.74307
G1 X89.29886 Y-47.93633
G1 X97.1056 Y-29.08919
G1 F300.0 Z-5.0
G1 F800.0 X115.95274 Y-36.89593
G1 X108.146 Y-55.74307
G1 X89.29886 Y-47.93633
G1 X97.1056 Y-29.08919
G1 F300.0 Z-6.0
G1 F800.0 X115.95274 Y-36.89593
G1 X108.146 Y-55.74307
G1 X89.29886 Y-47.93633
G1 X97.1056 Y-29.08919
G1 F300.0 Z-7.0
G1 F800.0 X115.95274 Y-36.89593
G1 X108.146 Y-55.74307
G1 X89.29886 Y-47.93633
G1 X97.1056 Y-29.08919
G1 F300.0 Z-8.0
G1 F800.0 X115.95274 Y-36.89593
G1 X108.146 Y-55.74307
G1 X89.29886 Y-47.93633
G1 X97.1056 Y-29.08919
G1 F300.0 Z-9.0
G1 F800.0 X115.95274 Y-36.89593
G1 X108.146 Y-55.74307
G1 X89.29886 Y-47.93633
G1 X97.1056 Y-29.08919
G1 F300.0 Z-10.0
G1 F800.0 X115.95274 Y-36.89593
G1 X108.146 Y-55.74307
G1 X89.29886 Y-47.93633
G1 X97.1056 Y-29.08919
G1 F300.0 Z-11.0
G1 F800.0 X115.95274 Y-36.89593
G1 X108.146 Y-55.74307
G1 X89.29886 Y-47.93633
G1 X97.1056 Y-29.08919
G1 F300.0 Z-12.0
G1 F800.0 X115.95274 Y-36.89593
G1 X108.146 Y-55.74307
G1 X89.29886 Y-47.93633
G1 X97.1056 Y-29.08919
G0 Z3.0
G0 X78.58193 Y-64.03561
G0 Z1.0
G1 F300.0 Z-1.0
G1 F800.0 X93.0069 Y-78.46059
G1 X78.58193 Y-92.88557
G1 X64.15695 Y-78.46059
G1 X78.58193 Y-64.03561
G1 F300.0 Z-2.0
G1 F800.0 X93.0069 Y-78.46059
G1 X78.58193 Y-92.88557
G1 X64.15695 Y-78.46059
G1 X78.58193 Y-64.03561
G1 F300.0 Z-3.0
G1 F800.0 X93.0069 Y-78.46059
G1 X78.58193 Y-92.88557
G1 X64.15695 Y-78.46059
G1 X78.58193 Y-64.03561
G1 F300.0 Z-4.0
G1 F800.0 X93.0069 Y-78.46059
G1 X78.58193 Y-92.88557
G1 X64.15695 Y-78.46059
G1 X78.58193 Y-64.03561
G1 F300.0 Z-5.0
G1 F800.0 X93.0069 Y-78.46059
G1 X78.58193 Y-92.88557
G1 X64.15695 Y-78.46059
G1 X78.58193 Y-64.03561
G1 F300.0 Z-6.0
G1 F800.0 X93.0069 Y-78.46059
G1 X78.58193 Y-92.88557
G1 X64.15695 Y-78.46059
G1 X78.58193 Y-64.03561
G1 F300.0 Z-7.0
G1 F800.0 X93.0069 Y-78.46059
G1 X78.58193 Y-92.88557
G1 X64.15695 Y-78.46059
G1 X78.58193 Y-64.03561
G1 F300.0 Z-8.0
G1 F800.0 X93.0069 Y-78.46059
G1 X78.58193 Y-92.88557
G1 X64.15695 Y-78.46059
G1 X78.58193 Y-64.03561
G1 F300.0 Z-9.0
G1 F800.0 X93.0069 Y-78.46059
G1 X78.58193 Y-92.88557
G1 X64.15695 Y-78.46059
G1 X78.58193 Y-64.03561
G1 F300.0 Z-10.0
G1 F800.0 X93.0069 Y-78.46059
G1 X78.58193 Y-92.88557
G1 X64.15695 Y-78.46059
G1 X78.58193 Y-64.03561
G1 F300.0 Z-11.0
G1 F800.0 X93.0069 Y-78.46059
G1 X78.58193 Y-92.88557
G1 X64.15695 Y-78.46059
G1 X78.58193 Y-64.03561
G1 F300.0 Z-12.0
G1 F800.0 X93.0069 Y-78.46059
G1 X78.58193 Y-92.88557
G1 X64.15695 Y-78.46059
G1 X78.58193 Y-64.03561
G0 Z3.0
M5
M30
