( Made using CamBam - http://www.cambam.co.uk )
( Loipenhiesli 9/20/2021 11:23:46 AM )
( Post processor: Default )
( T2 : 2.0 )
( T4 : 4.0 )
G21 G90 G64 G40
G0 Z3.0
( T4 : 4.0 )
T4 M6
( Text-Loipenhiesli )
G17
M3 S1000
G0 X-178.1757 Y12.8782
G0 Z1.0
G1 F300.0 Z-2.0
G2 F800.0 X-178.7503 Y13.7311 I1.9368 J1.9246
G2 X-179.1204 Y15.8178 I5.0907 J1.9791
G3 X-179.1197 Y15.8978 I-3.5993 J0.0709
G2 X-178.6792 Y17.8069 I4.3096 J0.0109
G3 X-178.6737 Y17.8181 I-3.232 J1.5857
G2 X-177.066 Y20.9901 I97.2733 J-47.3084
G3 X-175.4332 Y24.2544 I-70.7723 J37.4418
G3 X-174.3585 Y28.7197 I-9.4904 J4.6459
G3 X-174.3588 Y28.8574 I-3.5995 J0.0615
G3 X-174.4707 Y30.0339 I-8.024 J-0.1697
G2 X-174.2161 Y29.5543 I-9.4539 J-5.3258
G3 X-174.2146 Y29.5512 I3.221 J1.6078
G2 X-173.2025 Y25.2745 I-8.5618 J-4.2841
G3 X-173.2022 Y25.2287 I3.6 J0.0028
G2 X-173.7768 Y22.2653 I-7.4137 J-0.1001
G3 X-173.7958 Y22.219 I3.3207 J-1.3903
G2 X-175.313 Y19.2225 I-18.1192 J7.2919
G3 X-175.3152 Y19.219 I3.06 J-1.8963
G3 X-176.9686 Y16.5378 I1280.8811 J-791.7413
G3 X-178.1757 Y12.8782 I6.7278 J-4.2482
G0 Z3.0
G0 X-195.9615 Y6.3732
G0 Z1.0
G1 F300.0 Z-2.0
G2 F800.0 X-195.5125 Y4.7918 I-10.4464 J-3.8206
G3 X-195.91 Y5.6068 I-16.5068 J-7.5463
G3 X-199.2096 Y11.877 I-102.4422 J-49.9049
G2 X-202.2981 Y17.9268 I82.5311 J45.9476
G2 X-202.8792 Y19.4976 I10.7618 J4.8739
G3 X-199.8023 Y14.0094 I206.4574 J112.1415
G2 X-196.517 Y7.6488 I-68.7807 J-39.5545
G3 X-196.4495 Y7.5077 I4.7231 J2.1755
G2 X-195.9615 Y6.3732 I-9.9585 J-4.9551
G1 F300.0 X-194.4589 Y6.9228
G2 F800.0 X-193.6864 Y2.7582 I-11.9491 J-4.3702
G3 X-193.6862 Y2.7471 I3.5995 J0.0582
G2 X-194.8337 Y-2.808 I-12.8247 J-0.247
G2 X-195.5653 Y-4.224 I-21.5769 J10.2524
G3 X-195.4719 Y-2.4616 I-12.033 J1.5215
G3 X-197.3393 Y4.8874 I-16.5474 J-0.2929
G3 X-200.6046 Y11.0934 I-101.0129 J-49.1856
G2 X-203.752 Y17.2586 I83.9261 J46.7312
G2 X-204.9499 Y22.9116 I12.2156 J5.5421
G3 Y22.9731 I-3.5999 J0.0298
G2 X-203.9724 Y27.9548 I12.6165 J0.1112
G3 X-203.974 Y27.8009 I9.6537 J-0.1751
G3 X-203.9722 Y27.6776 I3.6 J-0.0079
G3 X-203.2183 Y23.937 I11.4837 J0.3682
G3 X-201.9217 Y21.0909 I20.2966 J7.528
G3 X-198.4163 Y14.8088 I205.4998 J110.5482
G2 X-195.0638 Y8.3181 I-70.1667 J-40.3539
G3 X-195.017 Y8.2205 I3.2698 J1.5061
G2 X-194.4589 Y6.9228 I-11.391 J-5.6679
G0 Z3.0
G0 X-193.8408 Y-17.768
G0 Z1.0
G1 F300.0 Z-2.0
G2 F800.0 X-193.6151 Y-17.7643 I0.3312 J-13.2319
G2 X-189.0139 Y-18.7131 I-0.2792 J-12.9847
G3 X-188.939 Y-18.7425 I1.3528 J3.3362
G2 X-183.012 Y-21.2765 I-27.823 J-73.2762
G3 X-182.9773 Y-21.2929 I1.5501 J3.2492
G3 X-176.9584 Y-23.8858 I49.7729 J107.2556
G3 X-170.5656 Y-25.2194 I6.9514 J17.3326
G3 X-166.2978 Y-24.5673 I0.3673 J11.8864
G2 X-168.3803 Y-25.9485 I-8.3226 J10.2875
G3 X-168.4344 Y-25.978 I1.6977 J-3.1746
G2 X-173.4017 Y-27.2306 I-4.827 J8.6662
G2 X-178.4666 Y-26.1307 I0.2888 J13.5412
G3 X-178.5495 Y-26.0962 I-1.423 J-3.3068
G2 X-185.3722 Y-23.1911 I65.3677 J162.9795
G3 X-192.4864 Y-20.2069 I-59.4184 J-131.6796
G3 X-198.5257 Y-18.7373 I-8.001 J-19.7357
G2 X-197.8971 Y-18.5092 I2.3758 J-5.566
G3 X-197.7761 Y-18.4703 I-1.0394 J3.4467
G2 X-193.8408 Y-17.768 I4.2665 J-12.5296
G0 Z3.0
G0 X-202.3198 Y-18.7899
G0 Z1.0
G1 F300.0 Z-2.0
G3 F800.0 X-203.3753 Y-18.9727 I2.0602 J-15.0388
G3 X-206.2962 Y-20.0644 I2.0394 J-9.9097
G2 X-203.8835 Y-16.9062 I33.7966 J-23.318
G3 X-202.3198 Y-18.7899 I3.3868 J1.2205
G1 F300.0 X-201.5096 Y-17.4103
G3 F800.0 X-199.596 Y-17.4714 I1.0128 J1.7246
G2 X-198.3591 Y-16.9773 I3.4461 J-6.832
G3 X-198.2918 Y-16.9557 I-0.5774 J1.9148
G2 X-193.6043 Y-16.1642 I4.7822 J-14.0442
G2 X-188.4127 Y-17.2304 I-0.29 J-14.5849
G3 X-188.3711 Y-17.2467 I0.7515 J1.8534
G2 X-182.3231 Y-19.8324 I-28.391 J-74.772
G3 X-182.3038 Y-19.8415 I0.8612 J1.8051
G3 X-176.3645 Y-22.4001 I49.0994 J105.8043
G3 X-170.5169 Y-23.6202 I6.3575 J15.8469
G3 X-163.2699 Y-20.9438 I0.3186 J10.2872
G3 X-163.2292 Y-20.9057 I-1.3464 J1.479
G3 X-160.5514 Y-16.7739 I-7.5085 J7.7999
G3 X-159.7715 Y-14.1875 I-19.675 J7.3431
G1 X-159.2389
G2 X-160.2097 Y-18.5648 I-18.1183 J1.7218
G2 X-163.1023 Y-23.6252 I-16.0037 J5.7911
G3 X-163.1131 Y-23.6385 I1.5407 J-1.2752
G2 X-167.6258 Y-27.3594 I-11.5072 J9.3587
G3 X-167.6558 Y-27.3758 I0.9431 J-1.7637
G2 X-173.4302 Y-28.8304 I-5.6056 J10.064
G2 X-179.0991 Y-27.6004 I0.3173 J15.1409
G3 X-179.1451 Y-27.5812 I-0.7906 J-1.8371
G2 X-186.0301 Y-24.6496 I65.9633 J164.4645
G3 X-193.0768 Y-21.694 I-58.7604 J-130.2212
G3 X-200.1112 Y-20.2504 I-7.4105 J-18.2486
G3 X-200.1304 Y-20.2501 I-0.0382 J-1.9996
G3 X-203.0499 Y-20.5393 I-0.1292 J-13.5787
G3 X-206.067 Y-21.7998 I1.714 J-8.3432
G3 X-206.1919 Y-21.8904 I1.1109 J-1.6631
G3 X-208.7942 Y-24.88 I6.5366 J-8.3172
G3 X-209.7368 Y-26.5428 I23.6137 J-14.4852
G1 X-210.1952 Y-26.4655
G2 X-209.7544 Y-23.8348 I23.8722 J-2.6481
G3 X-209.7511 Y-23.82 I-1.9511 J0.4396
G2 X-208.2134 Y-20.0497 I11.5434 J-2.5093
G2 X-203.8029 Y-14.3998 I35.7139 J-23.3326
G3 X-203.8003 Y-14.3969 I-1.4676 J1.3588
G3 X-199.4043 Y-9.3141 I-77.4232 J71.403
G3 X-199.4009 Y-9.3098 I-1.5537 J1.2594
G3 X-197.0716 Y-2.4917 I-8.1975 J6.6073
G3 X-198.7682 Y4.1672 I-14.9477 J-0.2629
G3 X-201.9995 Y10.3098 I-99.584 J-48.4654
G2 X-205.2056 Y16.59 I85.3211 J47.5149
G2 X-206.5499 Y22.9249 I13.6692 J6.2107
G3 Y22.959 I-1.9999 J0.0165
G2 X-205.2503 Y29.0238 I14.2164 J0.1253
G3 X-205.2471 Y29.0308 I-1.8171 J0.8356
G2 X-201.652 Y34.0647 I14.6748 J-6.6796
G2 X-196.2913 Y37.4246 I11.1854 J-11.8898
G3 X-196.2612 Y37.4364 I-0.7136 J1.8684
G2 X-189.6928 Y38.6856 I6.4793 J-16.1753
G3 X-189.6597 Y38.6857 I0.0102 J2.0
G2 X-182.0135 Y37.5637 I0.2827 J-24.6886
G3 X-182.0104 Y37.5627 I0.5965 J1.909
G2 X-176.281 Y34.5366 I-5.2351 J-16.8487
G3 X-176.268 Y34.5264 I1.2429 J1.5669
G2 X-172.7846 Y30.2689 I-7.6566 J-9.8183
G3 X-172.7837 Y30.2671 I1.7894 J0.8932
G2 X-171.6025 Y25.2758 I-9.9926 J-5.0001
G3 X-171.6024 Y25.2503 I2.0 J0.0016
G2 X-172.3009 Y21.6474 I-9.0135 J-0.1217
G3 X-172.3114 Y21.6217 I1.8448 J-0.7724
G2 X-173.953 Y18.3797 I-19.6035 J7.8892
G3 X-173.9542 Y18.3777 I1.7 J-1.0535
G3 X-175.611 Y15.691 I1279.5201 J-790.9
G3 X-176.5849 Y12.6906 I5.3703 J-3.4014
G3 X-176.5868 Y12.4726 I1.996 J-0.1261
G3 X-176.4235 Y11.6562 I2.7561 J0.1267
G3 X-176.2279 Y11.2608 I1.8795 J0.6837
G3 X-175.6843 Y10.6085 I2.8697 J1.8387
G3 X-175.5861 Y10.5227 I1.365 J1.4618
G3 X-174.1685 Y9.8138 I2.2769 J2.7817
G3 X-173.8882 Y9.7657 I0.4781 J1.942
G3 X-173.4443 Y9.7263 I2.0803 J20.9313
G1 Y9.6583
G2 X-175.4127 Y9.9374 I1.7913 J19.715
G3 X-175.4317 Y9.941 I-0.3798 J-1.9636
G2 X-178.7246 Y11.2567 I1.6201 J8.833
G2 X-180.2326 Y13.1283 I2.4856 J3.546
G2 X-180.7201 Y15.8493 I6.573 J2.5819
G3 X-180.7197 Y15.8937 I-1.9996 J0.0394
G2 X-180.1156 Y18.5116 I5.9096 J0.0149
G3 X-180.1126 Y18.5179 I-1.7955 J0.8809
G2 X-178.4807 Y21.7375 I98.7121 J-48.0082
G3 X-176.875 Y24.948 I-69.3576 J36.6943
G3 X-175.9583 Y28.7471 I-8.0485 J3.9523
G3 X-175.9585 Y28.8235 I-1.9997 J0.0342
G3 X-177.3796 Y32.7199 I-6.4244 J-0.1359
G3 X-180.5836 Y35.4279 I-8.0691 J-6.2975
G3 X-184.7731 Y37.095 I-8.1427 J-14.3651
G3 X-189.499 Y37.7441 I-4.7608 J-17.1332
G3 X-189.5022 I-0.0039 J-2.0
G3 X-194.3233 Y36.9791 I-0.0057 J-15.5365
G3 X-198.4041 Y34.9372 I3.837 J-12.7673
G3 X-201.277 Y31.8374 I6.0662 J-8.5034
G3 X-201.2984 Y31.8012 I1.7116 J-1.0346
G3 X-202.374 Y27.7974 I6.9796 J-4.0215
G3 X-202.373 Y27.7289 I2.0 J-0.0044
G3 X-201.7211 Y24.5015 I9.8845 J0.3169
G3 X-200.515 Y21.8533 I18.7995 J6.9636
G3 X-197.0303 Y15.6082 I204.0932 J109.7858
G2 X-193.6105 Y8.9875 I-71.5527 J-41.1533
G3 X-193.5845 Y8.9333 I1.8166 J0.8367
G2 X-192.0867 Y2.7841 I-12.8234 J-6.3807
G3 X-192.0865 Y2.7779 I1.9997 J0.0323
G2 X-193.3828 Y-3.4826 I-14.4244 J-0.2778
G2 X-196.6657 Y-8.6745 I-23.0278 J10.927
G2 X-200.8763 Y-13.2755 I-44.8399 J36.8075
G3 X-200.9157 Y-13.3153 I1.4007 J-1.4276
G2 X-201.8281 Y-14.1933 I-12.0874 J11.6484
G3 X-201.5096 Y-17.4103 I1.3314 J-1.4924
G1 F300.0 X-202.3198 Y-18.7899
G1 Z-4.0
G3 F800.0 X-203.3753 Y-18.9727 I2.0602 J-15.0388
G3 X-206.2962 Y-20.0644 I2.0394 J-9.9097
G2 X-203.8835 Y-16.9062 I33.7966 J-23.318
G3 X-202.3198 Y-18.7899 I3.3868 J1.2205
G0 Z3.0
G0 X-198.5257 Y-18.7373
G0 Z-1.0
G1 F300.0 Z-4.0
G2 F800.0 X-197.8971 Y-18.5092 I2.3758 J-5.566
G3 X-197.7761 Y-18.4703 I-1.0394 J3.4467
G2 X-193.6151 Y-17.7643 I4.2665 J-12.5296
G2 X-189.0139 Y-18.7131 I-0.2792 J-12.9847
G3 X-188.939 Y-18.7425 I1.3528 J3.3362
G2 X-183.012 Y-21.2765 I-27.823 J-73.2762
G3 X-182.9773 Y-21.2929 I1.5501 J3.2492
G3 X-176.9584 Y-23.8858 I49.7729 J107.2556
G3 X-170.5656 Y-25.2194 I6.9514 J17.3326
G3 X-166.2978 Y-24.5673 I0.3673 J11.8864
G2 X-168.3803 Y-25.9485 I-8.3226 J10.2875
G3 X-168.4344 Y-25.978 I1.6977 J-3.1746
G2 X-173.4017 Y-27.2306 I-4.827 J8.6662
G2 X-178.4666 Y-26.1307 I0.2888 J13.5412
G3 X-178.5495 Y-26.0962 I-1.423 J-3.3068
G2 X-185.3722 Y-23.1911 I65.3677 J162.9795
G3 X-192.4864 Y-20.2069 I-59.4184 J-131.6796
G3 X-198.5257 Y-18.7373 I-8.001 J-19.7357
G0 Z3.0
G0 X-195.5125 Y4.7918
G0 Z-1.0
G1 F300.0 Z-4.0
G3 F800.0 X-195.91 Y5.6068 I-16.5068 J-7.5463
G3 X-199.2096 Y11.877 I-102.4422 J-49.9049
G2 X-202.2981 Y17.9268 I82.5311 J45.9476
G2 X-202.8792 Y19.4976 I10.7618 J4.8739
G3 X-199.8023 Y14.0094 I206.4574 J112.1415
G2 X-196.517 Y7.6488 I-68.7807 J-39.5545
G3 X-196.4495 Y7.5077 I4.7231 J2.1755
G2 X-195.5125 Y4.7918 I-9.9585 J-4.9551
G1 F300.0 X-193.9453 Y5.1139
G2 F800.0 X-193.6864 Y2.7582 I-12.4627 J-2.5614
G3 X-193.6862 Y2.7471 I3.5995 J0.0582
G2 X-194.8337 Y-2.808 I-12.8247 J-0.247
G2 X-195.5653 Y-4.224 I-21.5769 J10.2524
G3 X-195.4719 Y-2.4616 I-12.033 J1.5215
G3 X-197.3393 Y4.8874 I-16.5474 J-0.2929
G3 X-200.6046 Y11.0934 I-101.0129 J-49.1856
G2 X-203.752 Y17.2586 I83.9261 J46.7312
G2 X-204.9499 Y22.9116 I12.2156 J5.5421
G3 Y22.9731 I-3.5999 J0.0298
G2 X-203.9724 Y27.9548 I12.6165 J0.1112
G3 X-203.974 Y27.8009 I9.6537 J-0.1751
G3 X-203.9722 Y27.6776 I3.6 J-0.0079
G3 X-203.2183 Y23.937 I11.4837 J0.3682
G3 X-201.9217 Y21.0909 I20.2966 J7.528
G3 X-198.4163 Y14.8088 I205.4998 J110.5482
G2 X-195.0638 Y8.3181 I-70.1667 J-40.3539
G3 X-195.017 Y8.2205 I3.2698 J1.5061
G2 X-193.9453 Y5.1139 I-11.391 J-5.6679
G0 Z3.0
G0 X-178.6342 Y13.4921
G0 Z-1.0
G1 F300.0 Z-4.0
G2 F800.0 X-178.7503 Y13.7311 I2.3953 J1.3107
G2 X-179.1204 Y15.8178 I5.0907 J1.9791
G3 X-179.1197 Y15.8978 I-3.5993 J0.0709
G2 X-178.6792 Y17.8069 I4.3096 J0.0109
G3 X-178.6737 Y17.8181 I-3.232 J1.5857
G2 X-177.066 Y20.9901 I97.2733 J-47.3084
G3 X-175.4332 Y24.2544 I-70.7723 J37.4418
G3 X-174.3585 Y28.7197 I-9.4904 J4.6459
G3 X-174.3588 Y28.8574 I-3.5995 J0.0615
G3 X-174.4707 Y30.0339 I-8.024 J-0.1697
G2 X-174.2161 Y29.5543 I-9.4539 J-5.3258
G3 X-174.2146 Y29.5512 I3.221 J1.6078
G2 X-173.2025 Y25.2745 I-8.5618 J-4.2841
G3 X-173.2022 Y25.2287 I3.6 J0.0028
G2 X-173.7768 Y22.2653 I-7.4137 J-0.1001
G3 X-173.7958 Y22.219 I3.3207 J-1.3903
G2 X-175.313 Y19.2225 I-18.1192 J7.2919
G3 X-175.3152 Y19.219 I3.06 J-1.8963
G3 X-176.9686 Y16.5378 I1280.8811 J-791.7413
G3 X-178.1757 Y12.8782 I6.7278 J-4.2482
G2 X-178.6342 Y13.4921 I1.9368 J1.9246
G1 F300.0 X-180.0378 Y12.724
G2 F800.0 X-180.2326 Y13.1283 I3.7989 J2.0787
G2 X-180.7201 Y15.8493 I6.573 J2.5819
G3 X-180.7197 Y15.8937 I-1.9996 J0.0394
G2 X-180.1156 Y18.5116 I5.9096 J0.0149
G3 X-180.1126 Y18.5179 I-1.7955 J0.8809
G2 X-178.4807 Y21.7375 I98.7121 J-48.0082
G3 X-176.875 Y24.948 I-69.3576 J36.6943
G3 X-175.9583 Y28.7471 I-8.0485 J3.9523
G3 X-175.9585 Y28.8235 I-1.9997 J0.0342
G3 X-177.3796 Y32.7199 I-6.4244 J-0.1359
G3 X-180.5836 Y35.4279 I-8.0691 J-6.2975
G3 X-184.7731 Y37.095 I-8.1427 J-14.3651
G3 X-189.499 Y37.7441 I-4.7608 J-17.1332
G3 X-189.5022 I-0.0039 J-2.0
G3 X-194.3233 Y36.9791 I-0.0057 J-15.5365
G3 X-198.4041 Y34.9372 I3.837 J-12.7673
G3 X-201.277 Y31.8374 I6.0662 J-8.5034
G3 X-201.2984 Y31.8012 I1.7116 J-1.0346
G3 X-202.374 Y27.7974 I6.9796 J-4.0215
G3 X-202.373 Y27.7289 I2.0 J-0.0044
G3 X-201.7211 Y24.5015 I9.8845 J0.3169
G3 X-200.515 Y21.8533 I18.7995 J6.9636
G3 X-197.0303 Y15.6082 I204.0932 J109.7858
G2 X-193.6105 Y8.9875 I-71.5527 J-41.1533
G3 X-193.5845 Y8.9333 I1.8166 J0.8367
G2 X-192.0867 Y2.7841 I-12.8234 J-6.3807
G3 X-192.0865 Y2.7779 I1.9997 J0.0323
G2 X-193.3828 Y-3.4826 I-14.4244 J-0.2778
G2 X-196.6657 Y-8.6745 I-23.0278 J10.927
G2 X-200.8763 Y-13.2755 I-44.8399 J36.8075
G3 X-200.9157 Y-13.3153 I1.4007 J-1.4276
G2 X-201.8281 Y-14.1933 I-12.0874 J11.6484
G3 X-199.596 Y-17.4714 I1.3314 J-1.4924
G2 X-198.3591 Y-16.9773 I3.4461 J-6.832
G3 X-198.2918 Y-16.9557 I-0.5774 J1.9148
G2 X-193.6043 Y-16.1642 I4.7822 J-14.0442
G2 X-188.4127 Y-17.2304 I-0.29 J-14.5849
G3 X-188.3711 Y-17.2467 I0.7515 J1.8534
G2 X-182.3231 Y-19.8324 I-28.391 J-74.772
G3 X-182.3038 Y-19.8415 I0.8612 J1.8051
G3 X-176.3645 Y-22.4001 I49.0994 J105.8043
G3 X-170.5169 Y-23.6202 I6.3575 J15.8469
G3 X-163.2699 Y-20.9438 I0.3186 J10.2872
G3 X-163.2292 Y-20.9057 I-1.3464 J1.479
G3 X-160.5514 Y-16.7739 I-7.5085 J7.7999
G3 X-159.7715 Y-14.1875 I-19.675 J7.3431
G1 X-159.2389
G2 X-160.2097 Y-18.5648 I-18.1183 J1.7218
G2 X-163.1023 Y-23.6252 I-16.0037 J5.7911
G3 X-163.1131 Y-23.6385 I1.5407 J-1.2752
G2 X-167.6258 Y-27.3594 I-11.5072 J9.3587
G3 X-167.6558 Y-27.3758 I0.9431 J-1.7637
G2 X-173.4302 Y-28.8304 I-5.6056 J10.064
G2 X-179.0991 Y-27.6004 I0.3173 J15.1409
G3 X-179.1451 Y-27.5812 I-0.7906 J-1.8371
G2 X-186.0301 Y-24.6496 I65.9633 J164.4645
G3 X-193.0768 Y-21.694 I-58.7604 J-130.2212
G3 X-200.1112 Y-20.2504 I-7.4105 J-18.2486
G3 X-200.1304 Y-20.2501 I-0.0382 J-1.9996
G3 X-203.0499 Y-20.5393 I-0.1292 J-13.5787
G3 X-206.067 Y-21.7998 I1.714 J-8.3432
G3 X-206.1919 Y-21.8904 I1.1109 J-1.6631
G3 X-208.7942 Y-24.88 I6.5366 J-8.3172
G3 X-209.7368 Y-26.5428 I23.6137 J-14.4852
G1 X-210.1952 Y-26.4655
G2 X-209.7544 Y-23.8348 I23.8722 J-2.6481
G3 X-209.7511 Y-23.82 I-1.9511 J0.4396
G2 X-208.2134 Y-20.0497 I11.5434 J-2.5093
G2 X-203.8029 Y-14.3998 I35.7139 J-23.3326
G3 X-203.8003 Y-14.3969 I-1.4676 J1.3588
G3 X-199.4043 Y-9.3141 I-77.4232 J71.403
G3 X-199.4009 Y-9.3098 I-1.5537 J1.2594
G3 X-197.0716 Y-2.4917 I-8.1975 J6.6073
G3 X-198.7682 Y4.1672 I-14.9477 J-0.2629
G3 X-201.9995 Y10.3098 I-99.584 J-48.4654
G2 X-205.2056 Y16.59 I85.3211 J47.5149
G2 X-206.5499 Y22.9249 I13.6692 J6.2107
G3 Y22.959 I-1.9999 J0.0165
G2 X-205.2503 Y29.0238 I14.2164 J0.1253
G3 X-205.2471 Y29.0308 I-1.8171 J0.8356
G2 X-201.652 Y34.0647 I14.6748 J-6.6796
G2 X-196.2913 Y37.4246 I11.1854 J-11.8898
G3 X-196.2612 Y37.4364 I-0.7136 J1.8684
G2 X-189.6928 Y38.6856 I6.4793 J-16.1753
G3 X-189.6597 Y38.6857 I0.0102 J2.0
G2 X-182.0135 Y37.5637 I0.2827 J-24.6886
G3 X-182.0104 Y37.5627 I0.5965 J1.909
G2 X-176.281 Y34.5366 I-5.2351 J-16.8487
G3 X-176.268 Y34.5264 I1.2429 J1.5669
G2 X-172.7846 Y30.2689 I-7.6566 J-9.8183
G3 X-172.7837 Y30.2671 I1.7894 J0.8932
G2 X-171.6025 Y25.2758 I-9.9926 J-5.0001
G3 X-171.6024 Y25.2503 I2.0 J0.0016
G2 X-172.3009 Y21.6474 I-9.0135 J-0.1217
G3 X-172.3114 Y21.6217 I1.8448 J-0.7724
G2 X-173.953 Y18.3797 I-19.6035 J7.8892
G3 X-173.9542 Y18.3777 I1.7 J-1.0535
G3 X-175.611 Y15.691 I1279.5201 J-790.9
G3 X-176.5849 Y12.6906 I5.3703 J-3.4014
G3 X-176.5868 Y12.4726 I1.996 J-0.1261
G3 X-176.4235 Y11.6562 I2.7561 J0.1267
G3 X-176.2279 Y11.2608 I1.8795 J0.6837
G3 X-175.6843 Y10.6085 I2.8697 J1.8387
G3 X-175.5861 Y10.5227 I1.365 J1.4618
G3 X-174.1685 Y9.8138 I2.2769 J2.7817
G3 X-173.8882 Y9.7657 I0.4781 J1.942
G3 X-173.4443 Y9.7263 I2.0803 J20.9313
G1 Y9.6583
G2 X-175.4127 Y9.9374 I1.7913 J19.715
G3 X-175.4317 Y9.941 I-0.3798 J-1.9636
G2 X-178.7246 Y11.2567 I1.6201 J8.833
G2 X-180.0378 Y12.724 I2.4856 J3.546
G0 Z3.0
G0 X-145.4952 Y9.685
G0 Z1.0
G1 F300.0 Z-2.0
G3 F800.0 X-145.5029 Y9.5098 I1.9923 J-0.1753
G1 Y-16.9941
G3 X-144.5732 Y-18.6836 I2.0 J0.0
G1 X-135.9932 Y-24.1192
G3 X-133.1857 Y-23.4208 I1.0703 J1.6895
G3 X-130.8576 Y-18.4828 I-30.4494 J17.3735
G3 X-129.453 Y-13.5883 I-23.7794 J9.473
G3 X-128.9705 Y-9.1901 I-26.9892 J5.186
G3 X-128.9703 Y-9.1793 I-1.9992 J0.0573
G3 X-128.9248 Y-5.4062 I-168.4365 J3.9163
G3 X-129.3508 Y0.0116 I-34.2134 J0.0352
G3 X-130.9548 Y5.4153 I-18.6349 J-2.5914
G3 X-134.3721 Y10.2152 I-14.6759 J-6.8321
G3 X-139.5056 Y13.8345 I-12.8862 J-12.8275
G3 X-141.6078 Y13.5871 I-0.8528 J-1.8091
G1 X-144.7523 Y11.0715
G3 X-145.4952 Y9.685 I1.2494 J-1.5617
G0 Z3.0
G0 X-137.4019 Y14.5361
G0 Z1.0
G1 F300.0 Z-2.0
G3 F800.0 X-134.7985 Y15.8571 I-119.6097 J238.942
G2 X-131.7883 Y13.9522 I-2.8904 J-7.8985
G3 X-131.7379 Y13.9035 I2.5256 J2.5654
G2 X-128.018 Y8.9436 I-12.6592 J-13.3693
G3 X-128.0014 Y8.9116 I3.2026 J1.6443
G2 X-125.4911 Y2.1778 I-25.0052 J-13.1563
G3 X-125.4776 Y2.1218 I3.5058 J0.8183
G2 X-124.5521 Y-5.4023 I-29.9838 J-7.5068
G3 X-124.5519 Y-5.45 I3.6 J-0.002
G2 X-125.1251 Y-12.8571 I-41.3503 J-0.5256
G2 X-127.0263 Y-17.2657 I-10.8194 J2.0516
G2 X-129.855 Y-20.2747 I-16.4965 J12.6741
G3 X-129.3693 Y-19.0614 I-33.7801 J14.2274
G3 X-127.8834 Y-13.8818 I-25.2677 J10.0517
G3 X-127.3744 Y-9.2359 I-28.5588 J5.4795
G3 X-127.3739 Y-9.2164 I-3.5953 J0.1031
G3 X-127.328 Y-5.4077 I-170.0328 J3.9534
G3 X-127.7715 Y0.2474 I-35.8102 J0.0367
G3 X-129.5083 Y6.0916 I-20.2143 J-2.8271
G3 X-133.2509 Y11.3523 I-16.1224 J-7.5083
G3 X-137.4019 Y14.5361 I-14.0075 J-13.9645
G0 Z3.0
G0 X-148.3187 Y-18.9474
G0 Z1.0
G1 F300.0 Z-2.0
G3 F800.0 X-147.774 Y-19.9547 I4.8158 J1.9533
G1 X-148.6914 Y-19.4476
G3 X-148.3187 Y-18.9474 I-3.9756 J3.3518
G1 F300.0 X-146.836 Y-18.346
G3 F800.0 X-145.4278 Y-20.0325 I3.3331 J1.3519
G1 X-137.0957 Y-25.311
G2 X-139.1028 Y-26.576 I-90.8936 J141.987
G1 X-151.2129 Y-19.8819
G1 X-149.9735 Y-18.4843
G3 X-149.067 Y-16.0957 I-2.6935 J2.3886
G1 Y8.8733
G2 X-147.0851 Y9.834 I1178.5206 J-2428.9457
G3 X-147.0997 Y9.5098 I3.5822 J-0.3242
G1 Y-16.9941
G3 X-146.836 Y-18.346 I3.5968 J0.0
G0 Z3.0
G0 X-150.8011 Y-16.8158
G0 Z1.0
G1 F300.0 Z-2.0
G3 F800.0 X-150.667 Y-16.0957 I-1.8659 J0.7201
G1 Y9.8752
G2 X-140.9294 Y14.5803 I1180.1206 J-2429.9475
G3 X-140.9218 Y14.584 I-0.8665 J1.8025
G3 X-134.94 Y17.5845 I-116.0898 J238.8941
G2 X-130.6658 Y15.0924 I-2.749 J-9.6259
G3 X-130.6378 Y15.0653 I1.4031 J1.4252
G2 X-126.5946 Y9.6744 I-13.7593 J-14.5311
G3 X-126.5854 Y9.6566 I1.7792 J0.9135
G2 X-123.933 Y2.5415 I-26.4212 J-13.9013
G3 X-123.9255 Y2.5104 I1.9476 J0.4546
G2 X-122.9521 Y-5.4032 I-31.5359 J-7.8954
G3 X-122.952 Y-5.4297 I2.0 J-0.0011
G2 X-123.55 Y-13.1389 I-42.9501 J-0.5459
G2 X-125.744 Y-18.2229 I-12.3945 J2.3334
G2 X-130.6774 Y-22.9462 I-17.7788 J13.6313
G2 X-139.0587 Y-28.4285 I-97.312 J139.6223
G1 X-153.7359 Y-20.3155
G1 X-151.1706 Y-17.4227
G3 X-150.8011 Y-16.8158 I-1.4964 J1.327
G0 Z3.0
G0 X-148.3187 Y-18.9474
G0 Z-1.0
G1 F300.0 Z-4.0
G3 F800.0 X-147.774 Y-19.9547 I4.8158 J1.9533
G1 X-148.6914 Y-19.4476
G3 X-148.3187 Y-18.9474 I-3.9756 J3.3518
G1 F300.0 X-146.836 Y-18.346
G3 F800.0 X-145.4278 Y-20.0325 I3.3331 J1.3519
G1 X-137.0957 Y-25.311
G2 X-139.1028 Y-26.576 I-90.8936 J141.987
G1 X-151.2129 Y-19.8819
G1 X-149.9735 Y-18.4843
G3 X-149.067 Y-16.0957 I-2.6935 J2.3886
G1 Y8.8733
G2 X-147.0851 Y9.834 I1178.5206 J-2428.9457
G3 X-147.0997 Y9.5098 I3.5822 J-0.3242
G1 Y-16.9941
G3 X-146.836 Y-18.346 I3.5968 J0.0
G0 Z3.0
G0 X-129.855 Y-20.2747
G0 Z-1.0
G1 F300.0 Z-4.0
G3 F800.0 X-129.3693 Y-19.0614 I-33.7801 J14.2274
G3 X-127.8834 Y-13.8818 I-25.2677 J10.0517
G3 X-127.3744 Y-9.2359 I-28.5588 J5.4795
G3 X-127.3739 Y-9.2164 I-3.5953 J0.1031
G3 X-127.328 Y-5.4077 I-170.0328 J3.9534
G3 X-127.7715 Y0.2474 I-35.8102 J0.0367
G3 X-129.5083 Y6.0916 I-20.2143 J-2.8271
G3 X-133.2509 Y11.3523 I-16.1224 J-7.5083
G3 X-137.4019 Y14.5361 I-14.0075 J-13.9645
G3 X-134.7985 Y15.8571 I-119.6097 J238.942
G2 X-131.7883 Y13.9522 I-2.8904 J-7.8985
G3 X-131.7379 Y13.9035 I2.5256 J2.5654
G2 X-128.018 Y8.9436 I-12.6592 J-13.3693
G3 X-128.0014 Y8.9116 I3.2026 J1.6443
G2 X-125.4911 Y2.1778 I-25.0052 J-13.1563
G3 X-125.4776 Y2.1218 I3.5058 J0.8183
G2 X-124.5521 Y-5.4023 I-29.9838 J-7.5068
G3 X-124.5519 Y-5.45 I3.6 J-0.002
G2 X-125.1251 Y-12.8571 I-41.3503 J-0.5256
G2 X-127.0263 Y-17.2657 I-10.8194 J2.0516
G2 X-129.855 Y-20.2747 I-16.4965 J12.6741
G1 F300.0 X-128.8038 Y-21.4809
G2 F800.0 X-130.6774 Y-22.9462 I-14.719 J16.8893
G2 X-139.0587 Y-28.4285 I-97.312 J139.6223
G1 X-153.7359 Y-20.3155
G1 X-151.1706 Y-17.4227
G3 X-150.667 Y-16.0957 I-1.4964 J1.327
G1 Y9.8752
G2 X-140.9294 Y14.5803 I1180.1206 J-2429.9475
G3 X-140.9218 Y14.584 I-0.8665 J1.8025
G3 X-134.94 Y17.5845 I-116.0898 J238.8941
G2 X-130.6658 Y15.0924 I-2.749 J-9.6259
G3 X-130.6378 Y15.0653 I1.4031 J1.4252
G2 X-126.5946 Y9.6744 I-13.7593 J-14.5311
G3 X-126.5854 Y9.6566 I1.7792 J0.9135
G2 X-123.933 Y2.5415 I-26.4212 J-13.9013
G3 X-123.9255 Y2.5104 I1.9476 J0.4546
G2 X-122.9521 Y-5.4032 I-31.5359 J-7.8954
G3 X-122.952 Y-5.4297 I2.0 J-0.0011
G2 X-123.55 Y-13.1389 I-42.9501 J-0.5459
G2 X-125.744 Y-18.2229 I-12.3945 J2.3334
G2 X-128.8038 Y-21.4809 I-17.7788 J13.6313
G0 Z3.0
G0 X-131.5834 Y-20.2493
G0 Z-1.0
G1 F300.0 Z-4.0
G3 F800.0 X-130.8576 Y-18.4828 I-32.0517 J14.2019
G3 X-129.453 Y-13.5883 I-23.7794 J9.473
G3 X-128.9705 Y-9.1901 I-26.9892 J5.186
G3 X-128.9703 Y-9.1793 I-1.9992 J0.0573
G3 X-128.9248 Y-5.4062 I-168.4365 J3.9163
G3 X-129.3508 Y0.0116 I-34.2134 J0.0352
G3 X-130.9548 Y5.4153 I-18.6349 J-2.5914
G3 X-134.3721 Y10.2152 I-14.6759 J-6.8321
G3 X-139.5056 Y13.8345 I-12.8862 J-12.8275
G3 X-141.6078 Y13.5871 I-0.8528 J-1.8091
G1 X-144.7523 Y11.0715
G3 X-145.5029 Y9.5098 I1.2494 J-1.5617
G1 Y-16.9941
G3 X-144.5732 Y-18.6836 I2.0 J0.0
G1 X-135.9932 Y-24.1192
G3 X-133.1857 Y-23.4208 I1.0703 J1.6895
G3 X-131.5834 Y-20.2493 I-30.4494 J17.3735
G0 Z3.0
G0 X-105.6257 Y11.1825
G0 Z1.0
G1 F300.0 Z-2.0
G3 F800.0 X-105.6628 Y11.2517 I-5.3088 J-2.7958
G1 X-105.6097 Y11.1992
G1 X-105.6257 Y11.1825
G1 F300.0 X-105.0476 Y10.6295
G1 F800.0 X-105.2587 Y10.4088
G3 X-105.8819 Y9.6158 I3.7577 J-3.5944
G3 X-107.0968 Y11.8955 I-5.0527 J-1.2291
G1 X-107.4949 Y12.331
G3 X-106.3964 Y13.1027 I-384.2201 J548.0309
G1 X-104.4878 Y11.2147
G1 X-105.0476 Y10.6295
G1 F300.0 X-103.8914 Y9.5235
G1 F800.0 X-104.1025 Y9.3029
G3 X-105.101 Y6.8145 I2.6015 J-2.4884
G1 Y-17.3879
G3 X-105.0225 Y-19.2294 I19.1517 J-0.1063
G3 X-104.3122 Y-21.9794 I7.7003 J0.5222
G3 X-104.0766 Y-22.4052 I3.2604 J1.5263
G3 X-101.9495 Y-24.4291 I5.2504 J3.3882
G3 X-104.7632 Y-26.2454 I37.3647 J-60.9706
G2 X-105.8532 Y-25.0926 I16.7143 J16.8955
G2 X-106.8721 Y-23.2759 I6.4588 J4.8164
G2 X-107.2478 Y-21.1578 I7.6578 J2.4506
G3 X-107.2482 Y-21.1476 I-3.5969 J-0.1489
G2 X-107.3346 Y-16.8731 I88.97 J3.9355
G3 Y-16.8594 I-3.6 J0.0137
G1 Y8.3867
G3 X-108.2777 Y10.8159 I-3.6 J0.0
G1 X-109.7152 Y12.3882
G3 X-109.9431 Y12.616 I-2.6569 J-2.4292
G3 X-109.2045 Y13.0902 I-72.8288 J114.2556
G3 X-109.0962 Y13.163 I-1.9547 J3.0231
G3 X-107.0134 Y14.6253 I-382.6188 J547.1989
G2 X-106.1992 Y15.1582 I37.9902 J-57.1549
G1 X-102.272 Y11.2734
G2 X-103.1414 Y10.3076 I-59.6853 J52.8526
G1 X-103.8914 Y9.5235
G1 F300.0 X-102.7352 Y8.4176
G1 F800.0 X-102.9463 Y8.1969
G3 X-103.501 Y6.8145 I1.4453 J-1.3824
G1 Y-17.3925
G3 X-103.4273 Y-19.1035 I17.5517 J-0.1017
G3 X-102.8631 Y-21.3011 I6.1051 J0.3963
G3 X-102.7322 Y-21.5376 I1.8113 J0.8479
G3 X-100.2881 Y-23.4298 I3.906 J2.5207
G3 X-99.0452 Y-23.4347 I0.629 J1.8985
G1 X-96.6935 Y-22.676
G1 X-96.5102 Y-23.1726
G2 X-98.7362 Y-24.4042 I-12.6942 J20.317
G3 X-98.8424 Y-24.4597 I0.8739 J-1.799
G3 X-104.9148 Y-28.2967 I34.2576 J-60.94
G2 X-107.0947 Y-26.1039 I16.8659 J18.9468
G2 X-108.3783 Y-23.8183 I7.7002 J5.8278
G2 X-108.8464 Y-21.2239 I9.164 J2.993
G3 X-108.8467 Y-21.2183 I-1.9983 J-0.0827
G2 X-108.9346 Y-16.867 I90.5685 J4.0062
G3 Y-16.8594 I-2.0 J0.0076
G1 Y8.3867
G3 X-109.4585 Y9.7363 I-2.0 J0.0
G1 X-110.896 Y11.3085
G3 X-113.09 Y11.8257 I-1.4761 J-1.3495
G1 X-113.8055 Y11.5505
G1 X-114.0258 Y11.9459
G2 X-112.313 Y13.0169 I70.8159 J-111.3475
G3 X-112.3078 Y13.0201 I-1.0473 J1.7038
G3 X-110.0733 Y14.4338 I-70.4641 J113.8516
G3 X-110.0131 Y14.4742 I-1.0859 J1.6795
G3 X-107.9175 Y15.9456 I-381.702 J545.8876
G2 X-105.9782 Y17.1901 I38.8943 J-58.4752
G1 X-100.0805 Y11.3561
G2 X-101.973 Y9.2144 I-61.8768 J52.7699
G1 X-102.7352 Y8.4176
G0 Z3.0
G0 X-105.6257 Y11.1825
G0 Z-1.0
G1 F300.0 Z-4.0
G3 F800.0 X-105.6628 Y11.2517 I-5.3088 J-2.7958
G1 X-105.6097 Y11.1992
G1 X-105.6257 Y11.1825
G1 F300.0 X-105.0476 Y10.6295
G1 F800.0 X-105.2587 Y10.4088
G3 X-105.8819 Y9.6158 I3.7577 J-3.5944
G3 X-107.0968 Y11.8955 I-5.0527 J-1.2291
G1 X-107.4949 Y12.331
G3 X-106.3964 Y13.1027 I-384.2201 J548.0309
G1 X-104.4878 Y11.2147
G1 X-105.0476 Y10.6295
G1 F300.0 X-103.8914 Y9.5235
G1 F800.0 X-104.1025 Y9.3029
G3 X-105.101 Y6.8145 I2.6015 J-2.4884
G1 Y-17.3879
G3 X-105.0225 Y-19.2294 I19.1517 J-0.1063
G3 X-104.3122 Y-21.9794 I7.7003 J0.5222
G3 X-104.0766 Y-22.4052 I3.2604 J1.5263
G3 X-101.9495 Y-24.4291 I5.2504 J3.3882
G3 X-104.7632 Y-26.2454 I37.3647 J-60.9706
G2 X-105.8532 Y-25.0926 I16.7143 J16.8955
G2 X-106.8721 Y-23.2759 I6.4588 J4.8164
G2 X-107.2478 Y-21.1578 I7.6578 J2.4506
G3 X-107.2482 Y-21.1476 I-3.5969 J-0.1489
G2 X-107.3346 Y-16.8731 I88.97 J3.9355
G3 Y-16.8594 I-3.6 J0.0137
G1 Y8.3867
G3 X-108.2777 Y10.8159 I-3.6 J0.0
G1 X-109.7152 Y12.3882
G3 X-109.9431 Y12.616 I-2.6569 J-2.4292
G3 X-109.2045 Y13.0902 I-72.8288 J114.2556
G3 X-109.0962 Y13.163 I-1.9547 J3.0231
G3 X-107.0134 Y14.6253 I-382.6188 J547.1989
G2 X-106.1992 Y15.1582 I37.9902 J-57.1549
G1 X-102.272 Y11.2734
G2 X-103.1414 Y10.3076 I-59.6853 J52.8526
G1 X-103.8914 Y9.5235
G1 F300.0 X-102.7352 Y8.4176
G1 F800.0 X-102.9463 Y8.1969
G3 X-103.501 Y6.8145 I1.4453 J-1.3824
G1 Y-17.3925
G3 X-103.4273 Y-19.1035 I17.5517 J-0.1017
G3 X-102.8631 Y-21.3011 I6.1051 J0.3963
G3 X-102.7322 Y-21.5376 I1.8113 J0.8479
G3 X-100.2881 Y-23.4298 I3.906 J2.5207
G3 X-99.0452 Y-23.4347 I0.629 J1.8985
G1 X-96.6935 Y-22.676
G1 X-96.5102 Y-23.1726
G2 X-98.7362 Y-24.4042 I-12.6942 J20.317
G3 X-98.8424 Y-24.4597 I0.8739 J-1.799
G3 X-104.9148 Y-28.2967 I34.2576 J-60.94
G2 X-107.0947 Y-26.1039 I16.8659 J18.9468
G2 X-108.3783 Y-23.8183 I7.7002 J5.8278
G2 X-108.8464 Y-21.2239 I9.164 J2.993
G3 X-108.8467 Y-21.2183 I-1.9983 J-0.0827
G2 X-108.9346 Y-16.867 I90.5685 J4.0062
G3 Y-16.8594 I-2.0 J0.0076
G1 Y8.3867
G3 X-109.4585 Y9.7363 I-2.0 J0.0
G1 X-110.896 Y11.3085
G3 X-113.09 Y11.8257 I-1.4761 J-1.3495
G1 X-113.8055 Y11.5505
G1 X-114.0258 Y11.9459
G2 X-112.313 Y13.0169 I70.8159 J-111.3475
G3 X-112.3078 Y13.0201 I-1.0473 J1.7038
G3 X-110.0733 Y14.4338 I-70.4641 J113.8516
G3 X-110.0131 Y14.4742 I-1.0859 J1.6795
G3 X-107.9175 Y15.9456 I-381.702 J545.8876
G2 X-105.9782 Y17.1901 I38.8943 J-58.4752
G1 X-100.0805 Y11.3561
G2 X-101.973 Y9.2144 I-61.8768 J52.7699
G1 X-102.7352 Y8.4176
G0 Z3.0
G0 X-85.4997 Y10.1032
G0 Z1.0
G1 F300.0 Z-2.0
G2 F800.0 X-84.8221 Y9.3841 I-19.0115 J-18.5898
G3 X-84.5869 Y9.1413 I3.8505 J3.4948
G2 X-84.2448 Y8.534 I-0.8503 J-0.8791
G3 X-82.8956 Y6.0568 I5.07 J1.1555
G3 X-83.5747 Y4.2536 I4.4395 J-2.7014
G3 X-84.1685 Y6.7637 I-40.1283 J-8.1675
G3 X-85.4997 Y10.1032 I-14.4294 J-3.8169
G0 Z3.0
G0 X-70.9159 Y13.5091
G0 Z1.0
G1 F300.0 Z-2.0
G2 F800.0 X-70.2542 Y14.1934 I651.9628 J-629.7739
G3 X-70.2236 Y14.2254 I-2.5866 J2.5039
G3 X-69.251 Y15.3308 I-15.1704 J14.3274
G2 X-67.7707 Y14.7621 I-5.5978 J-16.7826
G3 X-67.7573 Y14.7563 I1.4403 J3.2993
G2 X-65.0451 Y12.9296 I-3.5196 J-8.1521
G2 X-61.7269 Y7.8794 I-10.5405 J-10.541
G2 X-60.3015 Y1.71 I-20.5267 J-7.9917
G3 X-60.2946 Y1.6363 I3.5877 J0.2978
G2 X-59.9544 Y-4.394 I-63.9036 J-6.63
G2 X-60.1724 Y-11.9682 I-117.7579 J-0.4013
G3 X-60.1764 Y-12.0492 I3.5933 J-0.2193
G2 X-60.8498 Y-17.0799 I-26.8345 J1.0316
G3 X-60.8603 Y-17.1266 I3.5071 J-0.8127
G2 X-61.9714 Y-19.6963 I-7.1068 J1.5476
G2 X-64.1685 Y-21.7851 I-7.3811 J5.5638
G3 X-64.1896 Y-21.7995 I2.019 J-2.9805
G2 X-65.1167 Y-22.4164 I-20.5227 J29.8372
G3 X-64.8065 Y-21.7081 I-18.2237 J8.4021
G3 X-63.3868 Y-17.0399 I-21.4954 J9.0874
G3 X-62.6497 Y-11.8608 I-35.8974 J7.7508
G3 X-62.4608 Y-6.7636 I-70.4831 J5.164
G3 X-62.7395 Y0.1579 I-75.658 J0.42
G3 X-63.9245 Y5.9027 I-20.5316 J-1.2403
G3 X-66.574 Y10.389 I-12.4179 J-4.3083
G3 X-66.5946 Y10.4117 I-2.6731 J-2.4066
G3 X-70.1884 Y13.2137 I-10.1038 J-9.2535
G3 X-70.9159 Y13.5091 I-1.709 J-3.1648
G0 Z3.0
G0 X-81.9703 Y-21.8533
G0 Z1.0
G1 F300.0 Z-2.0
G3 F800.0 X-81.8891 Y-21.911 I3.5143 J4.8592
G3 X-81.9555 Y-21.9474 I2.8491 J-5.2804
G3 X-81.9703 Y-21.8533 I-5.9341 J-0.8866
G1 F300.0 X-81.5015 Y-21.2051
G3 F800.0 X-81.3437 Y-21.3148 I3.0455 J4.2109
G1 X-80.1515 Y-22.1116
G3 X-82.5562 Y-23.3604 I1.1115 J-5.0798
G1 X-82.745 Y-22.0771
G3 X-83.6979 Y-19.7568 I-5.1446 J-0.7569
G3 X-83.2437 Y-19.0153 I-4.1918 J3.0771
G3 X-81.5015 Y-21.2051 I4.7876 J2.0212
G1 F300.0 X-80.5639 Y-19.9086
G3 F800.0 X-80.4547 Y-19.9845 I2.1078 J2.9145
G1 X-71.6424 Y-25.8741
G2 X-73.2669 Y-26.6409 I-90.8625 J190.3927
G1 X-77.0833 Y-24.1696
G3 X-82.608 Y-26.7118 I-1.9567 J-3.0218
G1 X-83.12 Y-30.5211
G1 X-84.328 Y-22.31
G3 X-85.8755 Y-19.8501 I-3.5617 J-0.524
G1 X-85.9179 Y-19.8215
G1 X-85.2977 Y-19.178
G3 X-84.2896 Y-16.6797 I-2.592 J2.4983
G1 Y-5.6037
G3 X-84.726 Y1.4986 I-49.3833 J0.5308
G3 X-84.7284 Y1.5163 I-3.568 J-0.479
G3 X-85.7142 Y6.3506 I-38.9746 J-5.4303
G3 X-87.3112 Y10.031 I-12.8836 J-3.4038
G3 X-87.3461 Y10.0855 I-3.0492 J-1.9138
G2 X-88.5029 Y11.9433 I42.5724 J27.7988
G2 X-89.3078 Y13.5449 I16.1265 J9.1078
G2 X-89.502 Y14.8013 I3.3394 J1.1591
G3 X-89.5007 Y14.8693 I-3.5986 J0.0991
G2 X-89.4211 Y16.0364 I9.8419 J-0.0851
G3 X-88.6135 Y15.1643 I5.0551 J3.8714
G3 X-86.2957 Y13.0294 I82.7321 J87.4927
G3 X-86.2266 Y12.969 I2.4041 J2.6796
G2 X-83.6374 Y10.4594 I-18.2846 J-21.4556
G3 X-83.4746 Y10.2913 I2.6657 J2.4195
G2 X-82.6848 Y8.8895 I-1.9627 J-2.0291
G3 X-80.5467 Y6.3611 I3.51 J0.7999
G1 X-81.0251 Y5.8728
G3 X-82.0529 Y3.3555 I2.5691 J-2.5173
G1 Y-16.9941
G3 X-80.5639 Y-19.9086 I3.5968 J0.0
G0 Z3.0
G0 X-79.4496 Y-25.2338
G0 Z1.0
G1 F300.0 Z-2.0
G3 F800.0 X-81.0222 Y-26.925 I0.4096 J-1.9576
G1 X-83.0353 Y-41.9023
G1 X-83.0628
G1 X-85.9109 Y-22.5429
G3 X-86.7707 Y-21.1763 I-1.9787 J-0.2911
G1 X-88.3915 Y-20.0823
G1 X-86.4497 Y-18.0676
G3 X-85.8896 Y-16.6797 I-1.44 J1.388
G1 Y-5.595
G3 X-86.3117 Y1.2857 I-47.7833 J0.5221
G3 X-86.3131 Y1.2955 I-1.9822 J-0.2661
G3 X-87.26 Y5.9377 I-37.3899 J-5.2095
G3 X-88.6664 Y9.1804 I-11.3378 J-2.9908
G3 X-88.6857 Y9.2107 I-1.694 J-1.0632
G2 X-89.8876 Y11.1415 I43.9121 J28.6736
G2 X-90.7955 Y12.9529 I17.5112 J9.9096
G2 X-91.1013 Y14.8453 I4.8271 J1.7511
G3 X-91.1007 Y14.8831 I-1.9992 J0.0551
G2 X-90.5362 Y18.3351 I11.4418 J-0.0989
G2 X-89.3034 Y21.153 I22.8412 J-8.3141
G1 X-88.9069 Y20.9677
G2 X-88.908 Y20.963 I-11.4482 J2.716
G3 X-89.1256 Y19.7448 I3.7165 J-1.2924
G3 X-89.1207 Y19.5619 I1.9996 J-0.0377
G3 X-87.5311 Y16.3428 I4.7547 J0.3459
G3 X-85.2272 Y14.2203 I81.6497 J86.3142
G3 X-85.1888 Y14.1868 I1.3356 J1.4887
G2 X-82.4526 Y11.5347 I-19.3224 J-22.6733
G3 X-82.3622 Y11.4414 I1.4809 J1.3442
G2 X-81.1248 Y9.245 I-3.0751 J-3.1791
G3 X-77.3436 Y8.8852 I1.95 J0.4444
G2 X-76.2428 Y10.3835 I3.9037 J-1.7145
G3 X-76.1998 Y10.4222 I-1.3148 J1.5071
G3 X-73.8112 Y12.8097 I-29.4748 J31.8764
G2 X-71.4038 Y15.3062 I654.8582 J-629.0744
G3 X-71.3868 Y15.324 I-1.437 J1.391
G3 X-69.8428 Y17.179 I-14.0072 J13.2288
G2 X-67.1305 Y16.2285 I-5.006 J-18.6307
G3 X-67.1231 Y16.2253 I0.8002 J1.833
G2 X-63.9179 Y14.0651 I-4.1538 J-9.6211
G2 X-60.2376 Y8.4643 I-11.6677 J-11.6765
G2 X-58.707 Y1.8424 I-22.016 J-8.5766
G3 X-58.7032 Y1.8014 I1.9931 J0.1655
G2 X-58.3545 Y-4.3838 I-65.495 J-6.7951
G2 X-58.5754 Y-12.0657 I-119.3579 J-0.4114
G3 X-58.5776 Y-12.1107 I1.9963 J-0.1218
G2 X-59.2911 Y-17.4411 I-28.4333 J1.0931
G3 X-59.297 Y-17.467 I1.9484 J-0.4515
G2 X-60.6727 Y-20.6314 I-8.6702 J1.8881
G2 X-63.2711 Y-23.1098 I-8.6798 J6.4989
G3 X-63.2828 Y-23.1178 I1.1217 J-1.6558
G2 X-67.4988 Y-25.631 I-21.4294 J31.1554
G2 X-73.3947 Y-28.4643 I-95.0062 J190.1496
G1 X-77.953 Y-25.5126
G3 X-79.4496 Y-25.2338 I-1.0871 J-1.6788
G0 Z3.0
G0 X-76.4476 Y-20.742
G0 Z1.0
G1 F300.0 Z-2.0
G1 F800.0 X-70.6279 Y-24.6316
G3 X-67.838 Y-24.0561 I1.1113 J1.6628
G3 X-66.2793 Y-21.0911 I-15.5024 J10.0417
G3 X-64.9514 Y-16.7203 I-20.0226 J8.4704
G3 X-64.2424 Y-11.7466 I-34.3328 J7.4312
G3 X-64.0576 Y-6.7584 I-68.8904 J5.0498
G3 X-64.3322 Y0.0414 I-74.0612 J0.4148
G3 X-65.4298 Y5.37 I-18.939 J-1.1238
G3 X-67.7607 Y9.3206 I-10.9126 J-3.7755
G3 X-67.7722 Y9.3332 I-1.4864 J-1.3382
G3 X-70.9472 Y11.8086 I-8.9263 J-8.175
G3 X-73.326 Y11.4486 I-0.9503 J-1.7598
G1 X-79.8846 Y4.7552
G3 X-80.4561 Y3.3555 I1.4285 J-1.3998
G1 Y-16.9941
G3 X-79.5674 Y-18.657 I2.0 J0.0
G1 X-76.4476 Y-20.742
G1 F300.0 Z-4.0
G1 F800.0 X-70.6279 Y-24.6316
G3 X-67.838 Y-24.0561 I1.1113 J1.6628
G3 X-66.2793 Y-21.0911 I-15.5024 J10.0417
G3 X-64.9514 Y-16.7203 I-20.0226 J8.4704
G3 X-64.2424 Y-11.7466 I-34.3328 J7.4312
G3 X-64.0576 Y-6.7584 I-68.8904 J5.0498
G3 X-64.3322 Y0.0414 I-74.0612 J0.4148
G3 X-65.4298 Y5.37 I-18.939 J-1.1238
G3 X-67.7607 Y9.3206 I-10.9126 J-3.7755
G3 X-67.7722 Y9.3332 I-1.4864 J-1.3382
G3 X-70.9472 Y11.8086 I-8.9263 J-8.175
G3 X-73.326 Y11.4486 I-0.9503 J-1.7598
G1 X-79.8846 Y4.7552
G3 X-80.4561 Y3.3555 I1.4285 J-1.3998
G1 Y-16.9941
G3 X-79.5674 Y-18.657 I2.0 J0.0
G1 X-76.4476 Y-20.742
G0 Z3.0
G0 X-81.8891 Y-21.911
G0 Z-1.0
G1 F300.0 Z-4.0
G3 F800.0 X-81.9555 Y-21.9474 I2.8491 J-5.2804
G3 X-81.9703 Y-21.8533 I-5.9341 J-0.8866
G3 X-81.8891 Y-21.911 I3.5143 J4.8592
G1 F300.0 X-81.5093 Y-22.6151
G3 F800.0 X-82.5562 Y-23.3604 I2.4692 J-4.5763
G1 X-82.745 Y-22.0771
G3 X-83.6979 Y-19.7568 I-5.1446 J-0.7569
G3 X-83.2437 Y-19.0153 I-4.1918 J3.0771
G3 X-81.3437 Y-21.3148 I4.7876 J2.0212
G1 X-80.1515 Y-22.1116
G3 X-81.5093 Y-22.6151 I1.1115 J-5.0798
G0 Z3.0
G0 X-65.1167 Y-22.4164
G0 Z-1.0
G1 F300.0 Z-4.0
G3 F800.0 X-64.8065 Y-21.7081 I-18.2237 J8.4021
G3 X-63.3868 Y-17.0399 I-21.4954 J9.0874
G3 X-62.6497 Y-11.8608 I-35.8974 J7.7508
G3 X-62.4608 Y-6.7636 I-70.4831 J5.164
G3 X-62.7395 Y0.1579 I-75.658 J0.42
G3 X-63.9245 Y5.9027 I-20.5316 J-1.2403
G3 X-66.574 Y10.389 I-12.4179 J-4.3083
G3 X-66.5946 Y10.4117 I-2.6731 J-2.4066
G3 X-70.1884 Y13.2137 I-10.1038 J-9.2535
G3 X-70.9159 Y13.5091 I-1.709 J-3.1648
G2 X-70.2542 Y14.1934 I651.9628 J-629.7739
G3 X-70.2236 Y14.2254 I-2.5866 J2.5039
G3 X-69.251 Y15.3308 I-15.1704 J14.3274
G2 X-67.7707 Y14.7621 I-5.5978 J-16.7826
G3 X-67.7573 Y14.7563 I1.4403 J3.2993
G2 X-65.0451 Y12.9296 I-3.5196 J-8.1521
G2 X-61.7269 Y7.8794 I-10.5405 J-10.541
G2 X-60.3015 Y1.71 I-20.5267 J-7.9917
G3 X-60.2946 Y1.6363 I3.5877 J0.2978
G2 X-59.9544 Y-4.394 I-63.9036 J-6.63
G2 X-60.1724 Y-11.9682 I-117.7579 J-0.4013
G3 X-60.1764 Y-12.0492 I3.5933 J-0.2193
G2 X-60.8498 Y-17.0799 I-26.8345 J1.0316
G3 X-60.8603 Y-17.1266 I3.5071 J-0.8127
G2 X-61.9714 Y-19.6963 I-7.1068 J1.5476
G2 X-64.1685 Y-21.7851 I-7.3811 J5.5638
G3 X-64.1896 Y-21.7995 I2.019 J-2.9805
G2 X-65.1167 Y-22.4164 I-20.5227 J29.8372
G0 Z3.0
G0 X-83.5747 Y4.2536
G0 Z-1.0
G1 F300.0 Z-4.0
G3 F800.0 X-84.1685 Y6.7637 I-40.1283 J-8.1675
G3 X-85.4997 Y10.1032 I-14.4294 J-3.8169
G2 X-84.8221 Y9.3841 I-19.0115 J-18.5898
G3 X-84.5869 Y9.1413 I3.8505 J3.4948
G2 X-84.2448 Y8.534 I-0.8503 J-0.8791
G3 X-82.8956 Y6.0568 I5.07 J1.1555
G3 X-83.5747 Y4.2536 I4.4395 J-2.7014
G1 F300.0 X-85.1425 Y3.9345
G3 F800.0 X-85.7142 Y6.3506 I-38.5604 J-7.8484
G3 X-87.3112 Y10.031 I-12.8836 J-3.4038
G3 X-87.3461 Y10.0855 I-3.0492 J-1.9138
G2 X-88.5029 Y11.9433 I42.5724 J27.7988
G2 X-89.3078 Y13.5449 I16.1265 J9.1078
G2 X-89.502 Y14.8013 I3.3394 J1.1591
G3 X-89.5007 Y14.8693 I-3.5986 J0.0991
G2 X-89.4211 Y16.0364 I9.8419 J-0.0851
G3 X-88.6135 Y15.1643 I5.0551 J3.8714
G3 X-86.2957 Y13.0294 I82.7321 J87.4927
G3 X-86.2266 Y12.969 I2.4041 J2.6796
G2 X-83.6374 Y10.4594 I-18.2846 J-21.4556
G3 X-83.4746 Y10.2913 I2.6657 J2.4195
G2 X-82.6848 Y8.8895 I-1.9627 J-2.0291
G3 X-80.5467 Y6.3611 I3.51 J0.7999
G1 X-81.0251 Y5.8728
G3 X-82.0529 Y3.3555 I2.5691 J-2.5173
G1 Y-16.9941
G3 X-80.4547 Y-19.9845 I3.5968 J0.0
G1 X-71.6424 Y-25.8741
G2 X-73.2669 Y-26.6409 I-90.8625 J190.3927
G1 X-77.0833 Y-24.1696
G3 X-82.608 Y-26.7118 I-1.9567 J-3.0218
G1 X-83.12 Y-30.5211
G1 X-84.328 Y-22.31
G3 X-85.8755 Y-19.8501 I-3.5617 J-0.524
G1 X-85.9179 Y-19.8215
G1 X-85.2977 Y-19.178
G3 X-84.2896 Y-16.6797 I-2.592 J2.4983
G1 Y-5.6037
G3 X-84.726 Y1.4986 I-49.3833 J0.5308
G3 X-84.7284 Y1.5163 I-3.568 J-0.479
G3 X-85.1425 Y3.9345 I-38.9746 J-5.4303
G1 F300.0 X-86.7104 Y3.6153
G3 F800.0 X-87.26 Y5.9377 I-36.9926 J-7.5293
G3 X-88.6664 Y9.1804 I-11.3378 J-2.9908
G3 X-88.6857 Y9.2107 I-1.694 J-1.0632
G2 X-89.8876 Y11.1415 I43.9121 J28.6736
G2 X-90.7955 Y12.9529 I17.5112 J9.9096
G2 X-91.1013 Y14.8453 I4.8271 J1.7511
G3 X-91.1007 Y14.8831 I-1.9992 J0.0551
G2 X-90.5362 Y18.3351 I11.4418 J-0.0989
G2 X-89.3034 Y21.153 I22.8412 J-8.3141
G1 X-88.9069 Y20.9677
G2 X-88.908 Y20.963 I-11.4482 J2.716
G3 X-89.1256 Y19.7448 I3.7165 J-1.2924
G3 X-89.1207 Y19.5619 I1.9996 J-0.0377
G3 X-87.5311 Y16.3428 I4.7547 J0.3459
G3 X-85.2272 Y14.2203 I81.6497 J86.3142
G3 X-85.1888 Y14.1868 I1.3356 J1.4887
G2 X-82.4526 Y11.5347 I-19.3224 J-22.6733
G3 X-82.3622 Y11.4414 I1.4809 J1.3442
G2 X-81.1248 Y9.245 I-3.0751 J-3.1791
G3 X-77.3436 Y8.8852 I1.95 J0.4444
G2 X-76.2428 Y10.3835 I3.9037 J-1.7145
G3 X-76.1998 Y10.4222 I-1.3148 J1.5071
G3 X-73.8112 Y12.8097 I-29.4748 J31.8764
G2 X-71.4038 Y15.3062 I654.8582 J-629.0744
G3 X-71.3868 Y15.324 I-1.437 J1.391
G3 X-69.8428 Y17.179 I-14.0072 J13.2288
G2 X-67.1305 Y16.2285 I-5.006 J-18.6307
G3 X-67.1231 Y16.2253 I0.8002 J1.833
G2 X-63.9179 Y14.0651 I-4.1538 J-9.6211
G2 X-60.2376 Y8.4643 I-11.6677 J-11.6765
G2 X-58.707 Y1.8424 I-22.016 J-8.5766
G3 X-58.7032 Y1.8014 I1.9931 J0.1655
G2 X-58.3545 Y-4.3838 I-65.495 J-6.7951
G2 X-58.5754 Y-12.0657 I-119.3579 J-0.4114
G3 X-58.5776 Y-12.1107 I1.9963 J-0.1218
G2 X-59.2911 Y-17.4411 I-28.4333 J1.0931
G3 X-59.297 Y-17.467 I1.9484 J-0.4515
G2 X-60.6727 Y-20.6314 I-8.6702 J1.8881
G2 X-63.2711 Y-23.1098 I-8.6798 J6.4989
G3 X-63.2828 Y-23.1178 I1.1217 J-1.6558
G2 X-67.4988 Y-25.631 I-21.4294 J31.1554
G2 X-73.3947 Y-28.4643 I-95.0062 J190.1496
G1 X-77.953 Y-25.5126
G3 X-81.0222 Y-26.925 I-1.0871 J-1.6788
G1 X-83.0353 Y-41.9023
G1 X-83.0628
G1 X-85.9109 Y-22.5429
G3 X-86.7707 Y-21.1763 I-1.9787 J-0.2911
G1 X-88.3915 Y-20.0823
G1 X-86.4497 Y-18.0676
G3 X-85.8896 Y-16.6797 I-1.44 J1.388
G1 Y-5.595
G3 X-86.3117 Y1.2857 I-47.7833 J0.5221
G3 X-86.3131 Y1.2955 I-1.9822 J-0.2661
G3 X-86.7104 Y3.6153 I-37.3899 J-5.2095
G0 Z3.0
G0 X-105.7982 Y33.873
G0 Z1.0
G1 F300.0 Z-2.0
G2 F800.0 X-105.9144 Y35.1507 I7.5448 J1.3299
G3 X-105.9176 Y35.3018 I-5.1999 J-0.0354
G2 X-105.9019 Y35.4052 I0.2819 J0.0101
G2 X-105.7188 Y34.6881 I-2.0553 J-0.9066
G2 X-105.7982 Y33.873 I-11.8539 J0.7436
G1 F300.0 X-104.2121 Y33.663
G2 F800.0 X-104.6371 Y31.6495 I-13.3607 J1.7687
G2 X-105.8055 Y28.7661 I-16.3274 J4.9379
G3 X-105.8235 Y28.7309 I3.1993 J-1.6507
G2 X-105.8805 Y28.6177 I-45.394 J22.7938
G2 X-106.5543 Y30.5712 I32.2246 J12.2076
G3 X-106.5553 Y30.5745 I-3.4369 J-1.0712
G2 X-107.2965 Y33.2053 I45.8224 J14.3306
G2 X-107.5143 Y35.1398 I9.0431 J1.9976
G3 X-107.5166 Y35.2444 I-3.5999 J-0.0245
G2 X-106.9768 Y36.6324 I1.8808 J0.0675
G3 X-106.9111 Y36.7009 I-2.5652 J2.5258
G2 X-105.929 Y37.1305 I0.9893 J-0.924
G3 X-105.6905 Y37.1397 I-0.0192 J3.5999
G2 X-104.8082 Y36.7081 I0.07 J-0.9747
G3 X-104.7847 Y36.6735 I2.9928 J2.0008
G2 X-104.1158 Y34.6935 I-3.1725 J-2.1749
G2 X-104.2121 Y33.663 I-13.457 J0.7382
G1 F300.0 X-102.6259 Y33.453
G2 F800.0 X-103.1035 Y31.1933 I-14.9468 J1.9787
G2 X-104.3836 Y28.0325 I-17.861 J5.394
G3 X-104.3936 Y28.0129 I1.7774 J-0.917
G2 X-105.5748 Y25.7949 I-46.8239 J23.5118
G1 X-106.4178
G3 X-107.1601 Y27.493 I-111.868 J-47.8867
G2 X-108.0818 Y30.0951 I33.5042 J13.3322
G3 X-108.0824 Y30.097 I-1.9094 J-0.5951
G2 X-108.8537 Y32.837 I47.3495 J14.8081
G2 X-109.1143 Y35.1289 I10.6003 J2.3659
G3 X-109.1155 Y35.187 I-2.0 J-0.0136
G2 X-108.1169 Y37.755 I3.4798 J0.1249
G3 X-108.0804 Y37.793 I-1.4251 J1.4032
G2 X-105.9376 Y38.7305 I2.1586 J-2.0162
G3 X-105.8051 Y38.7356 I-0.0107 J2.0
G2 X-103.4781 Y37.5974 I0.1845 J-2.5706
G3 X-103.465 Y37.5781 I1.6626 J1.1116
G2 X-102.514 Y34.6852 I-4.4922 J-3.0795
G2 X-102.6259 Y33.453 I-15.0587 J0.7465
G0 Z3.0
G0 X-105.7982 Y33.873
G0 Z-1.0
G1 F300.0 Z-4.0
G2 F800.0 X-105.9144 Y35.1507 I7.5448 J1.3299
G3 X-105.9176 Y35.3018 I-5.1999 J-0.0354
G2 X-105.9019 Y35.4052 I0.2819 J0.0101
G2 X-105.7188 Y34.6881 I-2.0553 J-0.9066
G2 X-105.7982 Y33.873 I-11.8539 J0.7436
G1 F300.0 X-104.2121 Y33.663
G2 F800.0 X-104.6371 Y31.6495 I-13.3607 J1.7687
G2 X-105.8055 Y28.7661 I-16.3274 J4.9379
G3 X-105.8235 Y28.7309 I3.1993 J-1.6507
G2 X-105.8805 Y28.6177 I-45.394 J22.7938
G2 X-106.5543 Y30.5712 I32.2246 J12.2076
G3 X-106.5553 Y30.5745 I-3.4369 J-1.0712
G2 X-107.2965 Y33.2053 I45.8224 J14.3306
G2 X-107.5143 Y35.1398 I9.0431 J1.9976
G3 X-107.5166 Y35.2444 I-3.5999 J-0.0245
G2 X-106.9768 Y36.6324 I1.8808 J0.0675
G3 X-106.9111 Y36.7009 I-2.5652 J2.5258
G2 X-105.929 Y37.1305 I0.9893 J-0.924
G3 X-105.6905 Y37.1397 I-0.0192 J3.5999
G2 X-104.8082 Y36.7081 I0.07 J-0.9747
G3 X-104.7847 Y36.6735 I2.9928 J2.0008
G2 X-104.1158 Y34.6935 I-3.1725 J-2.1749
G2 X-104.2121 Y33.663 I-13.457 J0.7382
G1 F300.0 X-102.6259 Y33.453
G2 F800.0 X-103.1035 Y31.1933 I-14.9468 J1.9787
G2 X-104.3836 Y28.0325 I-17.861 J5.394
G3 X-104.3936 Y28.0129 I1.7774 J-0.917
G2 X-105.5748 Y25.7949 I-46.8239 J23.5118
G1 X-106.4178
G3 X-107.1601 Y27.493 I-111.868 J-47.8867
G2 X-108.0818 Y30.0951 I33.5042 J13.3322
G3 X-108.0824 Y30.097 I-1.9094 J-0.5951
G2 X-108.8537 Y32.837 I47.3495 J14.8081
G2 X-109.1143 Y35.1289 I10.6003 J2.3659
G3 X-109.1155 Y35.187 I-2.0 J-0.0136
G2 X-108.1169 Y37.755 I3.4798 J0.1249
G3 X-108.0804 Y37.793 I-1.4251 J1.4032
G2 X-105.9376 Y38.7305 I2.1586 J-2.0162
G3 X-105.8051 Y38.7356 I-0.0107 J2.0
G2 X-103.4781 Y37.5974 I0.1845 J-2.5706
G3 X-103.465 Y37.5781 I1.6626 J1.1116
G2 X-102.514 Y34.6852 I-4.4922 J-3.0795
G2 X-102.6259 Y33.453 I-15.0587 J0.7465
G0 Z3.0
G0 X-39.2064 Y7.1117
G0 Z1.0
G1 F300.0 Z-2.0
G3 F800.0 X-39.9118 Y5.0467 I15.6359 J-6.4944
G3 X-39.9176 Y5.0249 I1.9303 J-0.5232
G3 X-40.6533 Y0.1199 I23.0071 J-5.9587
G3 X-40.6548 Y0.0752 I1.998 J-0.0887
G3 X-40.7002 Y-3.5564 I192.0172 J-4.2163
G3 X-37.8177 Y-5.3572 I2.0 J-0.0061
G1 X-26.9466 Y-0.0115
G3 X-26.3029 Y3.0757 I-0.8825 J1.7947
G2 X-28.3086 Y5.8559 I16.8456 J14.2664
G2 X-29.7028 Y8.2957 I583.0663 J334.8151
G1 X-30.8337 Y10.5575
G2 X-31.5235 Y12.4029 I11.8702 J5.4887
G3 X-34.7379 Y13.3711 I-1.9208 J-0.5572
G3 X-37.7877 Y9.8113 I9.5708 J-11.286
G3 X-39.2064 Y7.1117 I14.2172 J-9.194
G0 Z3.0
G0 X-29.4669 Y11.4104
G0 Z1.0
G1 F300.0 Z-2.0
G2 F800.0 X-29.9899 Y12.8477 I10.5034 J4.6359
G3 X-30.8268 Y14.3125 I-3.4544 J-1.002
G1 X-29.3666 Y15.0224
G2 X-28.2652 Y12.9814 I-211.9612 J-115.6978
G3 X-28.2101 Y12.882 I3.1763 J1.6944
G1 X-25.964 Y8.9738
G3 X-25.8942 Y8.8573 I3.1213 J1.7938
G2 X-23.8461 Y5.4585 I-98.7287 J-61.8068
G3 X-23.8006 Y5.3822 I3.1147 J1.8052
G3 X-22.328 Y3.0382 I107.2123 J65.7245
G1 X-24.2469 Y2.1074
G3 X-25.0844 Y4.1077 I-3.5822 J-0.3242
G2 X-26.9343 Y6.6694 I15.6271 J13.2344
G2 X-28.2937 Y9.048 I581.6921 J334.0017
G1 X-29.3942 Y11.2491
G2 X-29.4669 Y11.4104 I10.4307 J4.7971
G0 Z3.0
G0 X-43.374 Y-5.8346
G0 Z1.0
G1 F300.0 Z-2.0
G3 F800.0 X-43.0559 Y-6.397 I4.6738 J2.2721
G3 X-43.3289 Y-7.0279 I4.6252 J-2.3764
G2 X-43.374 Y-5.8346 I43.1033 J2.2252
G1 F300.0 X-44.9735 Y-5.8728
G2 F800.0 X-44.9833 Y-4.2785 I44.7479 J1.0702
G3 Y-4.19 I-3.5998 J0.0422
G2 X-44.5742 Y2.4112 I44.2643 J0.5699
G2 X-43.1735 Y5.7954 I8.064 J-1.3557
G2 X-40.2461 Y8.692 I12.0505 J-9.251
G3 X-41.453 Y5.4644 I16.6757 J-8.0747
G3 X-41.4634 Y5.4252 I3.4715 J-0.941
G3 X-42.2485 Y0.1907 I24.5529 J-6.3591
G3 X-42.2512 Y0.1102 I3.5933 J-0.1595
G3 X-42.297 Y-3.5515 I193.6136 J-4.2513
G3 X-41.0405 Y-6.2938 I3.5968 J-0.011
G3 X-42.0306 Y-8.7999 I2.6098 J-2.4797
G3 X-41.5266 Y-12.8496 I17.5596 J0.1289
G3 X-39.5318 Y-18.2599 I23.1296 J5.4554
G3 X-36.0854 Y-23.0381 I16.2616 J8.0971
G3 X-31.8852 Y-25.4179 I6.3015 J6.2253
G1 X-34.6911 Y-26.9168
G2 X-37.8095 Y-25.3249 I3.0526 J9.8294
G2 X-41.3025 Y-21.2218 I8.4468 J10.7293
G3 X-41.3059 Y-21.2156 I-3.1477 J-1.7469
G2 X-43.989 Y-14.199 I22.9527 J12.798
G2 X-44.9735 Y-5.8728 I43.7633 J9.3964
G1 F300.0 X-46.5731 Y-5.9111
G2 F800.0 X-46.5831 Y-4.2597 I46.3474 J1.1084
G3 X-46.5832 Y-4.2106 I-1.9999 J0.0234
G2 X-46.1561 Y2.652 I45.8641 J0.5905
G2 X-44.46 Y6.747 I9.6459 J-1.5965
G2 X-40.5861 Y10.4159 I13.337 J-10.2026
G2 X-33.5051 Y14.7896 I56.211 J-83.0873
G1 X-28.6975 Y17.1266
G2 X-28.5546 Y16.868 I-14.9176 J-8.4133
G3 X-28.5466 Y16.8533 I1.7587 J0.9523
G2 X-26.8535 Y13.7345 I-212.7812 J-117.5288
G3 X-26.8229 Y13.6792 I1.7646 J0.9413
G1 X-24.5768 Y9.771
G3 X-24.538 Y9.7063 I1.734 J0.9966
G2 X-22.4618 Y6.2608 I-100.0849 J-62.6558
G3 X-22.4366 Y6.2184 I1.7304 J1.0029
G3 X-20.1993 Y2.7028 I105.8482 J64.8883
G3 X-20.1595 Y2.6446 I1.6691 J1.1019
G2 X-19.991 Y2.3935 I-4.4257 J-3.1513
G1 X-39.3035 Y-6.9739
G3 X-40.4306 Y-8.7881 I0.8728 J-1.7995
G3 X-39.9709 Y-12.4756 I15.9596 J0.1172
G3 X-38.1041 Y-17.5375 I21.574 J5.0813
G3 X-34.9517 Y-21.909 I14.8339 J7.3747
G3 X-29.876 Y-24.0702 I5.1679 J5.0962
G3 X-29.1696 Y-23.9508 I0.0254 J1.9998
G1 X-19.9102 Y-20.5976
G1 X-19.8148 Y-20.7837
G1 X-34.5023 Y-28.63
G2 X-38.7842 Y-26.5938 I2.8638 J11.5425
G2 X-42.7014 Y-21.9982 I9.4215 J11.9982
G3 X-42.7034 Y-21.9948 I-1.7487 J-0.9705
G2 X-45.5516 Y-14.5429 I24.3501 J13.5772
G2 X-46.5731 Y-5.9111 I45.3259 J9.7403
G0 Z3.0
G0 X-43.374 Y-5.8346
G0 Z-1.0
G1 F300.0 Z-4.0
G3 F800.0 X-43.0559 Y-6.397 I4.6738 J2.2721
G3 X-43.3289 Y-7.0279 I4.6252 J-2.3764
G2 X-43.374 Y-5.8346 I43.1033 J2.2252
G1 F300.0 X-44.9735 Y-5.8728
G2 F800.0 X-44.9833 Y-4.2785 I44.7479 J1.0702
G3 Y-4.19 I-3.5998 J0.0422
G2 X-44.5742 Y2.4112 I44.2643 J0.5699
G2 X-43.1735 Y5.7954 I8.064 J-1.3557
G2 X-40.2461 Y8.692 I12.0505 J-9.251
G3 X-41.453 Y5.4644 I16.6757 J-8.0747
G3 X-41.4634 Y5.4252 I3.4715 J-0.941
G3 X-42.2485 Y0.1907 I24.5529 J-6.3591
G3 X-42.2512 Y0.1102 I3.5933 J-0.1595
G3 X-42.297 Y-3.5515 I193.6136 J-4.2513
G3 X-41.0405 Y-6.2938 I3.5968 J-0.011
G3 X-42.0306 Y-8.7999 I2.6098 J-2.4797
G3 X-41.5266 Y-12.8496 I17.5596 J0.1289
G3 X-39.5318 Y-18.2599 I23.1296 J5.4554
G3 X-36.0854 Y-23.0381 I16.2616 J8.0971
G3 X-31.8852 Y-25.4179 I6.3015 J6.2253
G1 X-34.6911 Y-26.9168
G2 X-37.8095 Y-25.3249 I3.0526 J9.8294
G2 X-41.3025 Y-21.2218 I8.4468 J10.7293
G3 X-41.3059 Y-21.2156 I-3.1477 J-1.7469
G2 X-43.989 Y-14.199 I22.9527 J12.798
G2 X-44.9735 Y-5.8728 I43.7633 J9.3964
G0 Z3.0
G0 X-26.5985 Y6.1379
G0 Z-1.0
G1 F300.0 Z-4.0
G2 F800.0 X-26.9343 Y6.6694 I17.1412 J11.2043
G2 X-28.2937 Y9.048 I581.6921 J334.0017
G1 X-29.3942 Y11.2491
G2 X-29.9899 Y12.8477 I10.4307 J4.7971
G3 X-30.8268 Y14.3125 I-3.4544 J-1.002
G1 X-29.3666 Y15.0224
G2 X-28.2652 Y12.9814 I-211.9612 J-115.6978
G3 X-28.2101 Y12.882 I3.1763 J1.6944
G1 X-25.964 Y8.9738
G3 X-25.8942 Y8.8573 I3.1213 J1.7938
G2 X-23.8461 Y5.4585 I-98.7287 J-61.8068
G3 X-23.8006 Y5.3822 I3.1147 J1.8052
G3 X-22.328 Y3.0382 I107.2123 J65.7245
G1 X-24.2469 Y2.1074
G3 X-25.0844 Y4.1077 I-3.5822 J-0.3242
G2 X-26.5985 Y6.1379 I15.6271 J13.2344
G0 Z3.0
G0 X-23.495 Y8.0086
G0 Z-1.0
G1 F300.0 Z-4.0
G2 F800.0 X-22.4618 Y6.2608 I-101.1278 J-60.9581
G3 X-22.4366 Y6.2184 I1.7304 J1.0029
G3 X-20.1993 Y2.7028 I105.8482 J64.8883
G3 X-20.1595 Y2.6446 I1.6691 J1.1019
G2 X-19.991 Y2.3935 I-4.4257 J-3.1513
G1 X-39.3035 Y-6.9739
G3 X-40.4306 Y-8.7881 I0.8728 J-1.7995
G3 X-39.9709 Y-12.4756 I15.9596 J0.1172
G3 X-38.1041 Y-17.5375 I21.574 J5.0813
G3 X-34.9517 Y-21.909 I14.8339 J7.3747
G3 X-29.876 Y-24.0702 I5.1679 J5.0962
G3 X-29.1696 Y-23.9508 I0.0254 J1.9998
G1 X-19.9102 Y-20.5976
G1 X-19.8148 Y-20.7837
G1 X-34.5023 Y-28.63
G2 X-38.7842 Y-26.5938 I2.8638 J11.5425
G2 X-42.7014 Y-21.9982 I9.4215 J11.9982
G3 X-42.7034 Y-21.9948 I-1.7487 J-0.9705
G2 X-45.5516 Y-14.5429 I24.3501 J13.5772
G2 X-46.5831 Y-4.2597 I45.3259 J9.7403
G3 X-46.5832 Y-4.2106 I-1.9999 J0.0234
G2 X-46.1561 Y2.652 I45.8641 J0.5905
G2 X-44.46 Y6.747 I9.6459 J-1.5965
G2 X-40.5861 Y10.4159 I13.337 J-10.2026
G2 X-33.5051 Y14.7896 I56.211 J-83.0873
G1 X-28.6975 Y17.1266
G2 X-28.5546 Y16.868 I-14.9176 J-8.4133
G3 X-28.5466 Y16.8533 I1.7587 J0.9523
G2 X-26.8535 Y13.7345 I-212.7812 J-117.5288
G3 X-26.8229 Y13.6792 I1.7646 J0.9413
G1 X-24.5768 Y9.771
G3 X-24.538 Y9.7063 I1.734 J0.9966
G2 X-23.495 Y8.0086 I-100.0849 J-62.6558
G0 Z3.0
G0 X-27.8398 Y5.1198
G0 Z-1.0
G1 F300.0 Z-4.0
G2 F800.0 X-28.3086 Y5.8559 I18.3826 J12.2224
G2 X-29.7028 Y8.2957 I583.0663 J334.8151
G1 X-30.8337 Y10.5575
G2 X-31.5235 Y12.4029 I11.8702 J5.4887
G3 X-34.7379 Y13.3711 I-1.9208 J-0.5572
G3 X-37.7877 Y9.8113 I9.5708 J-11.286
G3 X-39.9118 Y5.0467 I14.2172 J-9.194
G3 X-39.9176 Y5.0249 I1.9303 J-0.5232
G3 X-40.6533 Y0.1199 I23.0071 J-5.9587
G3 X-40.6548 Y0.0752 I1.998 J-0.0887
G3 X-40.7002 Y-3.5564 I192.0172 J-4.2163
G3 X-37.8177 Y-5.3572 I2.0 J-0.0061
G1 X-26.9466 Y-0.0115
G3 X-26.3029 Y3.0757 I-0.8825 J1.7947
G2 X-27.8398 Y5.1198 I16.8456 J14.2664
G0 Z3.0
G0 X-6.3266 Y13.1939
G0 Z1.0
G1 F300.0 Z-2.0
G3 F800.0 X-6.1722 Y13.3389 I-58.0027 J61.9362
G2 X-5.8842 Y12.8851 I-2.1 J-1.6506
G3 X-5.8444 Y12.8072 I4.6489 J2.3298
G2 X-5.6342 Y12.3248 I-3.3124 J-1.7303
G3 X-6.3266 Y13.1939 I-6.2553 J-4.2731
G0 Z3.0
G0 X15.3417 Y13.0972
G0 Z1.0
G1 F300.0 Z-2.0
G3 F800.0 X16.6046 Y12.1966 I32.3519 J44.0284
G3 X16.9312 Y11.9881 I2.9589 J4.2761
G1 X17.575 Y11.6102
G3 X17.0941 Y10.7488 I4.2795 J-2.954
G3 X15.776 Y12.6947 I-4.8529 J-1.868
G1 X15.3417 Y13.0972
G0 Z3.0
G0 X18.1184 Y-23.1856
G0 Z1.0
G1 F300.0 Z-2.0
G3 F800.0 X18.7995 Y-24.0215 I6.4109 J4.5281
G3 X18.7242 Y-24.0713 I62.3647 J-94.2742
G2 X18.6354 Y-23.9711 I17.2529 J15.3808
G2 X18.1184 Y-23.1856 I5.4653 J4.1598
G1 F300.0 X16.7248 Y-23.9716
G2 F800.0 X16.3212 Y-23.1568 I7.3759 J4.1603
G2 X15.9277 Y-21.062 I7.0955 J2.4172
G3 X15.9275 Y-21.0577 I-3.5967 J-0.1548
G2 X15.8412 Y-16.7832 I88.97 J3.9355
G3 Y-16.7695 I-3.6 J0.0137
G1 Y8.8809
G3 X14.6884 Y11.5212 I-3.6 J0.0
G1 X12.8466 Y13.2282
G3 X12.5095 Y13.5047 I-2.4472 J-2.6403
G3 X15.0275 Y15.2962 I-31.2944 J46.652
G2 X15.8043 Y14.7471 I-20.1113 J-29.2755
G3 X17.515 Y13.5123 I31.8893 J42.3786
G3 X17.7412 Y13.368 I2.0485 J2.9604
G1 X19.7841 Y12.1688
G2 X20.0355 Y12.0155 I-44.2066 J-72.7483
G1 X19.1801 Y11.0661
G3 X18.2545 Y8.6563 I2.6744 J-2.4099
G1 Y-17.1178
G3 X18.3358 Y-18.9344 I17.9847 J-0.1052
G3 X19.0542 Y-21.6432 I7.5689 J0.5578
G3 X19.2789 Y-22.0458 I3.2495 J1.5495
G3 X21.5472 Y-24.1488 I5.2504 J3.3882
G3 X18.4913 Y-26.1548 I59.617 J-94.1469
G2 X17.3984 Y-24.9874 I17.4858 J17.4643
G2 X16.7248 Y-23.9716 I6.7023 J5.176
G0 Z3.0
G0 X-2.7231 Y-23.3993
G0 Z1.0
G1 F300.0 Z-2.0
G1 F800.0 X-3.7235 Y-24.233
G3 X-5.117 Y-23.2071 I-16.7922 J-21.3504
G3 X-5.365 Y-23.0293 I-49.3898 J-68.6248
G1 X-4.9445 Y-22.5693
G3 X-4.1485 Y-21.4203 I-3.8377 J3.5088
G3 X-3.0256 Y-23.0969 I4.7998 J2.0004
G1 X-2.7231 Y-23.3993
G1 F300.0 X-1.5918 Y-22.268
G1 F800.0 X-0.3381 Y-23.5216
G3 X-1.6097 Y-24.5542 I10.9791 J-14.8193
G1 X-3.1709 Y-25.8552
G2 X-3.7156 Y-26.2916 I-18.5103 J22.5437
G2 X-4.1628 Y-25.9355 I26.4515 J33.6748
G3 X-6.0378 Y-24.5157 I-16.3529 J-19.6478
G3 X-7.7774 Y-23.2967 I-48.469 J-67.3162
G1 X-6.1253 Y-21.4897
G3 X-5.1822 Y-19.0605 I-2.6569 J2.4292
G1 Y0.5703
G1 Y3.3523
G3 X-5.4347 Y6.8636 I-23.9763 J0.0405
G3 X-6.3679 Y10.3361 I-11.6939 J-1.2809
G3 X-8.7995 Y13.1662 I-5.5216 J-2.2844
G3 X-7.4567 Y14.3278 I-15.9851 J19.8367
G3 X-7.4456 Y14.3381 I-2.4486 J2.639
G3 X-6.2337 Y15.4952 I-56.8837 J60.792
G2 X-5.5494 Y14.9821 I-2.3052 J-3.7873
G3 X-5.4776 Y14.9182 I2.4274 J2.6585
G2 X-4.4538 Y13.6019 I-2.7946 J-3.2298
G3 X-4.4262 Y13.548 I3.2185 J1.6129
G2 X-3.8897 Y11.9384 I-4.7306 J-2.4711
G3 X-3.8855 Y11.9132 I3.5528 J0.5811
G2 X-3.6574 Y10.0506 I-19.5199 J-3.3354
G3 X-2.0958 Y7.3442 I3.59 J0.2678
G3 X-2.9486 Y5.0176 I2.7471 J-2.3266
G1 Y-19.4199
G3 X-1.8942 Y-21.9655 I3.6 J0.0
G1 X-1.5918 Y-22.268
G1 F300.0 X-0.4604 Y-21.1366
G1 F800.0 X2.094 Y-23.6909
G2 X1.1903 Y-24.3989 I-32.254 J40.2368
G3 X-0.5655 Y-25.7667 I9.4506 J-13.942
G1 X-2.151 Y-27.088
G2 X-3.7244 Y-28.2976 I-19.5302 J23.7765
G2 X-5.1774 Y-27.1728 I26.4603 J35.6808
G3 X-6.9583 Y-25.8245 I-15.3383 J-18.4106
G3 X-8.7503 Y-24.5699 I-47.5485 J-66.0073
G2 X-10.1523 Y-23.523 I70.9194 J96.4409
G1 X-7.3062 Y-20.4101
G3 X-6.7822 Y-19.0605 I-1.4761 J1.3495
G1 Y0.5703
G1 Y3.3537
G3 X-7.0222 Y6.6612 I-22.3763 J0.0391
G3 X-7.8395 Y9.7076 I-10.1065 J-1.0785
G3 X-9.978 Y11.9876 I-4.0501 J-1.6559
G3 X-11.9063 Y11.8879 I-0.8737 J-1.799
G2 X-13.4501 Y11.2878 I-57.915 J146.718
G3 X-13.4941 Y11.2704 I0.7148 J-1.8679
G2 X-13.5685 Y11.2405 I-2.138 J5.2144
G1 X-13.7563 Y11.8527
G3 X-12.626 Y12.4736 I-93.4791 J171.5123
G3 X-10.7322 Y13.7005 I-7.1406 J13.0973
G3 X-8.5449 Y15.5007 I-14.0525 J19.3025
G3 X-8.5388 Y15.5064 I-1.3603 J1.4661
G3 X-6.54 Y17.4416 I-55.7906 J59.6237
G2 X-5.8805 Y17.1245 I-6.5341 J-14.4363
G3 X-5.8604 Y17.1144 I0.9079 J1.782
G2 X-4.4706 Y16.1637 I-2.6785 J-5.4065
G3 X-4.4307 Y16.1282 I1.3485 J1.477
G2 X-3.0234 Y14.3188 I-3.8415 J-4.4398
G3 X-3.0081 Y14.2888 I1.788 J0.8961
G2 X-2.3107 Y12.1967 I-6.1488 J-3.2119
G3 X-2.3083 Y12.1827 I1.9738 J0.3228
G2 X-2.0618 Y10.1696 I-21.097 J-3.6049
G3 X1.0225 Y8.6414 I1.9945 J0.1488
G2 X7.2003 Y12.1654 I33.4825 J-51.5206
G3 X7.2662 Y12.1996 I-0.8888 J1.7917
G3 X14.9585 Y17.2623 I-26.0511 J47.9571
G2 X16.756 Y16.0333 I-20.0423 J-31.2417
G3 X18.4254 Y14.828 I30.9375 J41.0923
G3 X18.5511 Y14.7478 I1.138 J1.6447
G1 X20.6045 Y13.5425
G2 X22.4983 Y12.3584 I-45.027 J-74.1221
G1 X20.3687 Y9.9951
G3 X19.8545 Y8.6563 I1.4858 J-1.3388
G1 Y-17.1226
G3 X19.9303 Y-18.8001 I16.3847 J-0.1004
G3 X20.4984 Y-20.9546 I5.9745 J0.4234
G3 X20.6233 Y-21.1782 I1.8053 J0.8608
G3 X23.0673 Y-23.0704 I3.906 J2.5207
G3 X24.2729 Y-23.087 I0.629 J1.8985
G1 X26.6354 Y-22.3757
G1 X26.8175 Y-22.881
G2 X24.3659 Y-24.2871 I-476.8804 J828.6137
G3 X24.3234 Y-24.3121 I0.9925 J-1.7364
G3 X18.3297 Y-28.2089 I56.8408 J-93.9836
G2 X16.1635 Y-26.0059 I17.6474 J19.5184
G2 X14.8271 Y-23.7319 I7.9371 J6.1945
G2 X14.3292 Y-21.1308 I8.5897 J2.9923
G3 X14.3291 Y-21.1284 I-1.9981 J-0.086
G2 X14.2412 Y-16.7771 I90.5685 J4.0062
G3 Y-16.7695 I-2.0 J0.0076
G1 Y8.8809
G3 X13.6007 Y10.3477 I-2.0 J0.0
G1 X11.7589 Y12.0548
G3 X9.3179 Y12.2702 I-1.3595 J-1.4669
G1 X8.7349 Y11.8955
G2 X6.5114 Y10.7226 I-20.1854 J35.5742
G3 X6.494 Y10.714 I0.8783 J-1.7968
G3 X2.7716 Y8.7379 I39.8068 J-79.4789
G3 X2.7638 Y8.7335 I0.9794 J-1.7438
G3 X-0.5093 Y6.6464 I18.63 J-32.8252
G3 X-1.3486 Y5.0176 I1.1606 J-1.6288
G1 Y-19.4199
G3 X-0.7628 Y-20.8341 I2.0 J0.0
G1 X-0.4604 Y-21.1366
G0 Z3.0
G0 X-2.7231 Y-23.3993
G0 Z-1.0
G1 F300.0 Z-4.0
G1 F800.0 X-3.7235 Y-24.233
G3 X-5.117 Y-23.2071 I-16.7922 J-21.3504
G3 X-5.365 Y-23.0293 I-49.3898 J-68.6248
G1 X-4.9445 Y-22.5693
G3 X-4.1485 Y-21.4203 I-3.8377 J3.5088
G3 X-3.0256 Y-23.0969 I4.7998 J2.0004
G1 X-2.7231 Y-23.3993
G0 Z3.0
G0 X18.1184 Y-23.1856
G0 Z-1.0
G1 F300.0 Z-4.0
G3 F800.0 X18.7995 Y-24.0215 I6.4109 J4.5281
G3 X18.7242 Y-24.0713 I62.3647 J-94.2742
G2 X18.6354 Y-23.9711 I17.2529 J15.3808
G2 X18.1184 Y-23.1856 I5.4653 J4.1598
G0 Z3.0
G0 X17.0941 Y10.7488
G0 Z-1.0
G1 F300.0 Z-4.0
G3 F800.0 X15.776 Y12.6947 I-4.8529 J-1.868
G1 X15.3417 Y13.0972
G3 X16.6046 Y12.1966 I32.3519 J44.0284
G3 X16.9312 Y11.9881 I2.9589 J4.2761
G1 X17.575 Y11.6102
G3 X17.0941 Y10.7488 I4.2795 J-2.954
G1 F300.0 X18.5588 Y10.105
G3 F800.0 X18.2545 Y8.6563 I3.2956 J-1.4487
G1 Y-17.1178
G3 X18.3358 Y-18.9344 I17.9847 J-0.1052
G3 X19.0542 Y-21.6432 I7.5689 J0.5578
G3 X19.2789 Y-22.0458 I3.2495 J1.5495
G3 X21.5472 Y-24.1488 I5.2504 J3.3882
G3 X18.4913 Y-26.1548 I59.617 J-94.1469
G2 X17.3984 Y-24.9874 I17.4858 J17.4643
G2 X16.3212 Y-23.1568 I6.7023 J5.176
G2 X15.9277 Y-21.062 I7.0955 J2.4172
G3 X15.9275 Y-21.0577 I-3.5967 J-0.1548
G2 X15.8412 Y-16.7832 I88.97 J3.9355
G3 Y-16.7695 I-3.6 J0.0137
G1 Y8.8809
G3 X14.6884 Y11.5212 I-3.6 J0.0
G1 X12.8466 Y13.2282
G3 X12.5095 Y13.5047 I-2.4472 J-2.6403
G3 X15.0275 Y15.2962 I-31.2944 J46.652
G2 X15.8043 Y14.7471 I-20.1113 J-29.2755
G3 X17.515 Y13.5123 I31.8893 J42.3786
G3 X17.7412 Y13.368 I2.0485 J2.9604
G1 X19.7841 Y12.1688
G2 X20.0355 Y12.0155 I-44.2066 J-72.7483
G1 X19.1801 Y11.0661
G3 X18.5588 Y10.105 I2.6744 J-2.4099
G0 Z3.0
G0 X-5.6342 Y12.3248
G0 Z-1.0
G1 F300.0 Z-4.0
G3 F800.0 X-6.3266 Y13.1939 I-6.2553 J-4.2731
G3 X-6.1722 Y13.3389 I-58.0027 J61.9362
G2 X-5.8842 Y12.8851 I-2.1 J-1.6506
G3 X-5.8444 Y12.8072 I4.6489 J2.3298
G2 X-5.6342 Y12.3248 I-3.3124 J-1.7303
G1 F300.0 X-6.9554 Y11.4223
G3 F800.0 X-8.7995 Y13.1662 I-4.9341 J-3.3706
G3 X-7.4567 Y14.3278 I-15.9851 J19.8367
G3 X-7.4456 Y14.3381 I-2.4486 J2.639
G3 X-6.2337 Y15.4952 I-56.8837 J60.792
G2 X-5.5494 Y14.9821 I-2.3052 J-3.7873
G3 X-5.4776 Y14.9182 I2.4274 J2.6585
G2 X-4.4538 Y13.6019 I-2.7946 J-3.2298
G3 X-4.4262 Y13.548 I3.2185 J1.6129
G2 X-3.8897 Y11.9384 I-4.7306 J-2.4711
G3 X-3.8855 Y11.9132 I3.5528 J0.5811
G2 X-3.6574 Y10.0506 I-19.5199 J-3.3354
G3 X-2.0958 Y7.3442 I3.59 J0.2678
G3 X-2.9486 Y5.0176 I2.7471 J-2.3266
G1 Y-19.4199
G3 X-1.8942 Y-21.9655 I3.6 J0.0
G1 X-0.3381 Y-23.5216
G3 X-1.6097 Y-24.5542 I10.9791 J-14.8193
G1 X-3.1709 Y-25.8552
G2 X-3.7156 Y-26.2916 I-18.5103 J22.5437
G2 X-4.1628 Y-25.9355 I26.4515 J33.6748
G3 X-6.0378 Y-24.5157 I-16.3529 J-19.6478
G3 X-7.7774 Y-23.2967 I-48.469 J-67.3162
G1 X-6.1253 Y-21.4897
G3 X-5.1822 Y-19.0605 I-2.6569 J2.4292
G1 Y0.5703
G1 Y3.3523
G3 X-5.4347 Y6.8636 I-23.9763 J0.0405
G3 X-6.3679 Y10.3361 I-11.6939 J-1.2809
G3 X-6.9554 Y11.4223 I-5.5216 J-2.2844
G1 F300.0 X-8.2765 Y10.5198
G3 F800.0 X-9.978 Y11.9876 I-3.613 J-2.4681
G3 X-11.9063 Y11.8879 I-0.8737 J-1.799
G2 X-13.4501 Y11.2878 I-57.915 J146.718
G3 X-13.4941 Y11.2704 I0.7148 J-1.8679
G2 X-13.5685 Y11.2405 I-2.138 J5.2144
G1 X-13.7563 Y11.8527
G3 X-12.626 Y12.4736 I-93.4791 J171.5123
G3 X-10.7322 Y13.7005 I-7.1406 J13.0973
G3 X-8.5449 Y15.5007 I-14.0525 J19.3025
G3 X-8.5388 Y15.5064 I-1.3603 J1.4661
G3 X-6.54 Y17.4416 I-55.7906 J59.6237
G2 X-5.8805 Y17.1245 I-6.5341 J-14.4363
G3 X-5.8604 Y17.1144 I0.9079 J1.782
G2 X-4.4706 Y16.1637 I-2.6785 J-5.4065
G3 X-4.4307 Y16.1282 I1.3485 J1.477
G2 X-3.0234 Y14.3188 I-3.8415 J-4.4398
G3 X-3.0081 Y14.2888 I1.788 J0.8961
G2 X-2.3107 Y12.1967 I-6.1488 J-3.2119
G3 X-2.3083 Y12.1827 I1.9738 J0.3228
G2 X-2.0618 Y10.1696 I-21.097 J-3.6049
G3 X1.0225 Y8.6414 I1.9945 J0.1488
G2 X7.2003 Y12.1654 I33.4825 J-51.5206
G3 X7.2662 Y12.1996 I-0.8888 J1.7917
G3 X14.9585 Y17.2623 I-26.0511 J47.9571
G2 X16.756 Y16.0333 I-20.0423 J-31.2417
G3 X18.4254 Y14.828 I30.9375 J41.0923
G3 X18.5511 Y14.7478 I1.138 J1.6447
G1 X20.6045 Y13.5425
G2 X22.4983 Y12.3584 I-45.027 J-74.1221
G1 X20.3687 Y9.9951
G3 X19.8545 Y8.6563 I1.4858 J-1.3388
G1 Y-17.1226
G3 X19.9303 Y-18.8001 I16.3847 J-0.1004
G3 X20.4984 Y-20.9546 I5.9745 J0.4234
G3 X20.6233 Y-21.1782 I1.8053 J0.8608
G3 X23.0673 Y-23.0704 I3.906 J2.5207
G3 X24.2729 Y-23.087 I0.629 J1.8985
G1 X26.6354 Y-22.3757
G1 X26.8175 Y-22.881
G2 X24.3659 Y-24.2871 I-476.8804 J828.6137
G3 X24.3234 Y-24.3121 I0.9925 J-1.7364
G3 X18.3297 Y-28.2089 I56.8408 J-93.9836
G2 X16.1635 Y-26.0059 I17.6474 J19.5184
G2 X14.8271 Y-23.7319 I7.9371 J6.1945
G2 X14.3292 Y-21.1308 I8.5897 J2.9923
G3 X14.3291 Y-21.1284 I-1.9981 J-0.086
G2 X14.2412 Y-16.7771 I90.5685 J4.0062
G3 Y-16.7695 I-2.0 J0.0076
G1 Y8.8809
G3 X13.6007 Y10.3477 I-2.0 J0.0
G1 X11.7589 Y12.0548
G3 X9.3179 Y12.2702 I-1.3595 J-1.4669
G1 X8.7349 Y11.8955
G2 X6.5114 Y10.7226 I-20.1854 J35.5742
G3 X6.494 Y10.714 I0.8783 J-1.7968
G3 X2.7716 Y8.7379 I39.8068 J-79.4789
G3 X2.7638 Y8.7335 I0.9794 J-1.7438
G3 X-0.5093 Y6.6464 I18.63 J-32.8252
G3 X-1.3486 Y5.0176 I1.1606 J-1.6288
G1 Y-19.4199
G3 X-0.7628 Y-20.8341 I2.0 J0.0
G1 X2.094 Y-23.6909
G2 X1.1903 Y-24.3989 I-32.254 J40.2368
G3 X-0.5655 Y-25.7667 I9.4506 J-13.942
G1 X-2.151 Y-27.088
G2 X-3.7244 Y-28.2976 I-19.5302 J23.7765
G2 X-5.1774 Y-27.1728 I26.4603 J35.6808
G3 X-6.9583 Y-25.8245 I-15.3383 J-18.4106
G3 X-8.7503 Y-24.5699 I-47.5485 J-66.0073
G2 X-10.1523 Y-23.523 I70.9194 J96.4409
G1 X-7.3062 Y-20.4101
G3 X-6.7822 Y-19.0605 I-1.4761 J1.3495
G1 Y0.5703
G1 Y3.3537
G3 X-7.0222 Y6.6612 I-22.3763 J0.0391
G3 X-7.8395 Y9.7076 I-10.1065 J-1.0785
G3 X-8.2765 Y10.5198 I-4.0501 J-1.6559
G0 Z3.0
G0 X40.8455 Y7.5685
G0 Z1.0
G1 F300.0 Z-2.0
G3 F800.0 X41.1812 Y7.146 I4.2336 J3.0194
G3 X40.8455 Y6.6513 I22.2818 J-15.484
G1 Y7.5685
G0 Z3.0
G0 X52.4173 Y13.9377
G0 Z1.0
G1 F300.0 Z-2.0
G2 F800.0 X52.6744 Y14.2199 I47.2036 J-42.7459
G3 X52.6884 Y14.2353 I-2.6539 J2.4324
G2 X54.0064 Y15.6351 I37.1349 J-33.6432
G2 X57.4101 Y13.4837 I-8.7344 J-17.5868
G2 X61.1587 Y8.9676 I-9.101 J-11.3681
G2 X63.4773 Y1.9161 I-21.4737 J-10.9675
G3 X63.4805 Y1.8969 I3.5522 J0.5847
G2 X64.1198 Y-6.0059 I-44.5514 J-7.5814
G2 X63.5658 Y-14.0592 I-66.6099 J0.5367
G3 X63.5621 Y-14.0883 I3.5699 J-0.4642
G2 X61.523 Y-23.0771 I-44.9686 J5.4755
G3 X61.5184 Y-23.091 I3.4116 J-1.1495
G2 X59.1491 Y-28.8067 I-40.781 J13.5556
G3 X59.2839 Y-28.3354 I-32.0146 J9.4095
G3 X59.2847 Y-28.3326 I-3.4684 J0.9643
G3 X60.7048 Y-20.4481 I-41.951 J11.6265
G3 X60.7057 Y-20.4384 I-3.5867 J0.3095
G3 X61.0776 Y-10.8771 I-107.2078 J8.9578
G3 X60.9408 Y-3.3073 I-194.454 J0.2729
G3 X59.9898 Y3.6126 I-32.6842 J-0.9667
G3 X57.346 Y9.5261 I-16.5366 J-3.8453
G3 X52.9226 Y13.6916 I-11.3497 J-7.6208
G3 X52.4173 Y13.9377 I-1.8239 J-3.1038
G0 Z3.0
G0 X40.2434 Y23.9411
G0 Z1.0
G1 F300.0 Z-2.0
G3 F800.0 X40.2245 Y24.0218 I-18.1541 J-4.2058
G3 X40.2561 Y24.0374 I-2.288 J4.6696
G3 X40.2434 Y23.9411 I26.823 J-3.607
G0 Z3.0
G0 X40.2587 Y-21.6398
G0 Z1.0
G1 F300.0 Z-2.0
G3 F800.0 X41.4866 Y-23.449 I4.8204 J1.9504
G1 X42.4011 Y-24.3228
G1 X42.2412 Y-24.4412
G1 X39.5134 Y-22.7166
G1 X39.5613 Y-22.6618
G3 X40.2587 Y-21.6398 I-3.9158 J3.4215
G1 F300.0 X41.7419 Y-21.0397
G3 F800.0 X42.592 Y-22.2922 I3.3372 J1.3503
G1 X44.6135 Y-24.2239
G3 X44.8951 Y-24.4664 I2.4871 J2.6028
G1 X42.3127 Y-26.3794
G1 X37.0793 Y-23.0706
G1 X38.3564 Y-21.609
G3 X39.2455 Y-19.2402 I-2.7109 J2.3688
G1 Y15.6079
G3 X39.1055 Y20.5321 I-71.236 J0.4391
G3 X38.3097 Y24.9397 I-17.0163 J-0.7968
G3 X38.3004 Y24.9684 I-3.4279 J-1.0998
G3 X38.2545 Y25.1055 I-17.2207 J-5.6849
G3 X41.2744 Y27.3428 I-0.318 J3.5859
G2 X42.9917 Y30.3604 I12.1019 J-4.8897
G2 X44.7004 Y32.2435 I13.0829 J-10.1542
G3 X42.9903 Y28.6857 I15.8495 J-9.8081
G3 X42.974 Y28.639 I3.3916 J-1.2072
G3 X41.666 Y22.0469 I24.1051 J-8.2086
G3 X41.6639 Y22.0097 I3.5927 J-0.2285
G3 X41.4791 Y14.5342 I131.1859 J-6.9826
G1 Y10.5879
G3 X43.3711 Y7.4189 I3.6 J0.0
G3 X42.0617 Y5.5885 I20.0919 J-15.7569
G3 X41.4791 Y3.625 I3.0174 J-1.9635
G1 Y-19.6895
G3 X41.7419 Y-21.0397 I3.6 J0.0
G1 F300.0 X43.2251 Y-20.4396
G3 F800.0 X43.6974 Y-21.1354 I1.854 J0.7502
G1 X45.7189 Y-23.0671
G3 X48.1919 Y-23.2971 I1.3817 J1.446
G1 X50.4164 Y-21.8486
G1 X50.6519 Y-22.1933
G1 X42.3842 Y-28.3175
G1 X34.6452 Y-23.4246
G1 X37.1516 Y-20.5562
G3 X37.6455 Y-19.2402 I-1.5061 J1.316
G1 Y15.6129
G3 X37.5079 Y20.4446 I-69.636 J0.4341
G3 X36.7862 Y24.4509 I-15.4186 J-0.7092
G3 X36.781 Y24.4668 I-1.9044 J-0.611
G3 X34.8589 Y28.423 I-15.7013 J-5.1833
G3 X32.3564 Y32.4114 I-280.1054 J-172.9724
G1 X32.6823 Y32.6806
G2 X33.7433 Y31.5846 I-93.0402 J-91.125
G2 X34.6435 Y30.5611 I-16.4413 J-15.369
G3 X34.6693 Y30.5305 I1.5411 J1.2748
G2 X35.4505 Y29.489 I-7.2954 J-6.2852
G3 X35.5158 Y29.3945 I1.6775 J1.0891
G2 X35.9676 Y28.3403 I-2.0414 J-1.4988
G3 X39.7909 Y27.9422 I1.9689 J0.3511
G2 X41.7232 Y31.3356 I13.5854 J-5.4891
G2 X44.5512 Y34.2432 I14.3514 J-11.1294
G3 X44.5704 Y34.2592 I-1.269 J1.5458
G2 X47.8691 Y36.4083 I10.3826 J-12.3303
G2 X51.5981 Y37.8601 I13.7113 J-29.702
G1 X51.8954 Y37.1418
G3 X50.3453 Y36.0196 I20.8534 J-30.4357
G3 X47.5414 Y33.4387 I11.8395 J-15.6763
G3 X47.5005 Y33.3915 I1.4908 J-1.3332
G3 X44.4976 Y28.1492 I13.0494 J-10.9561
G3 X44.4886 Y28.1232 I1.8842 J-0.6707
G3 X43.2628 Y21.9453 I22.5905 J-7.6928
G3 X43.2616 Y21.9247 I1.996 J-0.127
G3 X43.0791 Y14.5372 I129.5882 J-6.8976
G1 Y10.5879
G3 X46.7004 Y9.4168 I2.0 J0.0
G2 X51.4949 Y15.301 I52.9205 J-38.225
G3 X51.5027 Y15.3095 I-1.4744 J1.3513
G2 X53.6646 Y17.5559 I38.3207 J-34.7175
G2 X58.4046 Y14.7371 I-8.3926 J-19.5076
G2 X62.5773 Y9.7078 I-10.0955 J-12.6215
G2 X65.056 Y2.176 I-22.8922 J-11.7078
G3 X65.0578 Y2.1653 I1.9734 J0.3248
G2 X65.7198 Y-6.018 I-46.1287 J-7.8498
G2 X65.1524 Y-14.2655 I-68.2099 J0.5489
G3 X65.1504 Y-14.2817 I1.9833 J-0.2579
G2 X63.0393 Y-23.588 I-46.5569 J5.6689
G3 X63.0367 Y-23.5957 I1.8953 J-0.6386
G2 X58.5288 Y-33.1729 I-42.2993 J14.0602
G2 X51.4702 Y-41.299 I-31.6164 J20.3344
G1 X51.2527 Y-41.116
G3 X54.9197 Y-34.7996 I-99.0466 J61.7261
G3 X57.7423 Y-27.9068 I-27.7852 J15.4024
G3 X57.7428 Y-27.9052 I-1.9269 J0.5357
G3 X59.1108 Y-20.3106 I-40.4092 J11.1992
G3 X59.1112 Y-20.3052 I-1.9926 J0.1719
G3 X59.4775 Y-10.8805 I-105.6134 J8.8246
G3 X59.3417 Y-3.3609 I-192.854 J0.2763
G3 X58.434 Y3.2385 I-31.0851 J-0.9131
G3 X56.027 Y8.6203 I-14.9809 J-3.4713
G3 X52.1119 Y12.3122 I-10.0307 J-6.715
G3 X49.612 Y11.9258 I-1.0133 J-1.7243
G1 X49.2077 Y11.4766
G3 X49.1863 Y11.4523 I1.4866 J-1.3379
G2 X47.7694 Y9.9521 I-19.348 J16.8539
G3 X47.7474 Y9.9303 I1.3976 J-1.4306
G3 X45.3062 Y7.2552 I30.7096 J-30.4752
G3 X43.4028 Y4.7158 I18.1568 J-15.5932
G3 X43.0791 Y3.625 I1.6763 J-1.0908
G1 Y-19.6895
G3 X43.2251 Y-20.4396 I2.0 J0.0
G0 Z3.0
G0 X40.2587 Y-21.6398
G0 Z-1.0
G1 F300.0 Z-4.0
G3 F800.0 X41.4866 Y-23.449 I4.8204 J1.9504
G1 X42.4011 Y-24.3228
G1 X42.2412 Y-24.4412
G1 X39.5134 Y-22.7166
G1 X39.5613 Y-22.6618
G3 X40.2587 Y-21.6398 I-3.9158 J3.4215
G0 Z3.0
G0 X59.8916 Y-25.8651
G0 Z-1.0
G1 F300.0 Z-4.0
G3 F800.0 X60.7048 Y-20.4481 I-42.5579 J9.1591
G3 X60.7057 Y-20.4384 I-3.5867 J0.3095
G3 X61.0776 Y-10.8771 I-107.2078 J8.9578
G3 X60.9408 Y-3.3073 I-194.454 J0.2729
G3 X59.9898 Y3.6126 I-32.6842 J-0.9667
G3 X57.346 Y9.5261 I-16.5366 J-3.8453
G3 X52.9226 Y13.6916 I-11.3497 J-7.6208
G3 X52.4173 Y13.9377 I-1.8239 J-3.1038
G2 X52.6744 Y14.2199 I47.2036 J-42.7459
G3 X52.6884 Y14.2353 I-2.6539 J2.4324
G2 X54.0064 Y15.6351 I37.1349 J-33.6432
G2 X57.4101 Y13.4837 I-8.7344 J-17.5868
G2 X61.1587 Y8.9676 I-9.101 J-11.3681
G2 X63.4773 Y1.9161 I-21.4737 J-10.9675
G3 X63.4805 Y1.8969 I3.5522 J0.5847
G2 X64.1198 Y-6.0059 I-44.5514 J-7.5814
G2 X63.5658 Y-14.0592 I-66.6099 J0.5367
G3 X63.5621 Y-14.0883 I3.5699 J-0.4642
G2 X61.523 Y-23.0771 I-44.9686 J5.4755
G3 X61.5184 Y-23.091 I3.4116 J-1.1495
G2 X59.1491 Y-28.8067 I-40.781 J13.5556
G3 X59.2839 Y-28.3354 I-32.0146 J9.4095
G3 X59.2847 Y-28.3326 I-3.4684 J0.9643
G3 X59.8916 Y-25.8651 I-41.951 J11.6265
G0 Z3.0
G0 X40.8455 Y6.6513
G0 Z-1.0
G1 F300.0 Z-4.0
G1 F800.0 Y7.5685
G3 X41.1812 Y7.146 I4.2336 J3.0194
G3 X40.8455 Y6.6513 I22.2818 J-15.484
G0 Z3.0
G0 X40.2434 Y23.9411
G0 Z-1.0
G1 F300.0 Z-4.0
G3 F800.0 X40.2245 Y24.0218 I-18.1541 J-4.2058
G3 X40.2561 Y24.0374 I-2.288 J4.6696
G3 X40.2434 Y23.9411 I26.823 J-3.607
G1 F300.0 X38.6846 Y23.58
G3 F800.0 X38.3097 Y24.9397 I-16.5954 J-3.8447
G3 X38.3004 Y24.9684 I-3.4279 J-1.0998
G3 X38.2545 Y25.1055 I-17.2207 J-5.6849
G3 X41.2744 Y27.3428 I-0.318 J3.5859
G2 X42.9917 Y30.3604 I12.1019 J-4.8897
G2 X44.7004 Y32.2435 I13.0829 J-10.1542
G3 X42.9903 Y28.6857 I15.8495 J-9.8081
G3 X42.974 Y28.639 I3.3916 J-1.2072
G3 X41.666 Y22.0469 I24.1051 J-8.2086
G3 X41.6639 Y22.0097 I3.5927 J-0.2285
G3 X41.4791 Y14.5342 I131.1859 J-6.9826
G1 Y10.5879
G3 X43.3711 Y7.4189 I3.6 J0.0
G3 X42.0617 Y5.5885 I20.0919 J-15.7569
G3 X41.4791 Y3.625 I3.0174 J-1.9635
G1 Y-19.6895
G3 X42.592 Y-22.2922 I3.6 J0.0
G1 X44.6135 Y-24.2239
G3 X44.8951 Y-24.4664 I2.4871 J2.6028
G1 X42.3127 Y-26.3794
G1 X37.0793 Y-23.0706
G1 X38.3564 Y-21.609
G3 X39.2455 Y-19.2402 I-2.7109 J2.3688
G1 Y15.6079
G3 X39.1055 Y20.5321 I-71.236 J0.4391
G3 X38.6846 Y23.58 I-17.0163 J-0.7968
G1 F300.0 X37.1259 Y23.2189
G3 F800.0 X36.7862 Y24.4509 I-15.0367 J-3.4836
G3 X36.781 Y24.4668 I-1.9044 J-0.611
G3 X34.8589 Y28.423 I-15.7013 J-5.1833
G3 X32.3564 Y32.4114 I-280.1054 J-172.9724
G1 X32.6823 Y32.6806
G2 X33.7433 Y31.5846 I-93.0402 J-91.125
G2 X34.6435 Y30.5611 I-16.4413 J-15.369
G3 X34.6693 Y30.5305 I1.5411 J1.2748
G2 X35.4505 Y29.489 I-7.2954 J-6.2852
G3 X35.5158 Y29.3945 I1.6775 J1.0891
G2 X35.9676 Y28.3403 I-2.0414 J-1.4988
G3 X39.7909 Y27.9422 I1.9689 J0.3511
G2 X41.7232 Y31.3356 I13.5854 J-5.4891
G2 X44.5512 Y34.2432 I14.3514 J-11.1294
G3 X44.5704 Y34.2592 I-1.269 J1.5458
G2 X47.8691 Y36.4083 I10.3826 J-12.3303
G2 X51.5981 Y37.8601 I13.7113 J-29.702
G1 X51.8954 Y37.1418
G3 X50.3453 Y36.0196 I20.8534 J-30.4357
G3 X47.5414 Y33.4387 I11.8395 J-15.6763
G3 X47.5005 Y33.3915 I1.4908 J-1.3332
G3 X44.4976 Y28.1492 I13.0494 J-10.9561
G3 X44.4886 Y28.1232 I1.8842 J-0.6707
G3 X43.2628 Y21.9453 I22.5905 J-7.6928
G3 X43.2616 Y21.9247 I1.996 J-0.127
G3 X43.0791 Y14.5372 I129.5882 J-6.8976
G1 Y10.5879
G3 X46.7004 Y9.4168 I2.0 J0.0
G2 X51.4949 Y15.301 I52.9205 J-38.225
G3 X51.5027 Y15.3095 I-1.4744 J1.3513
G2 X53.6646 Y17.5559 I38.3207 J-34.7175
G2 X58.4046 Y14.7371 I-8.3926 J-19.5076
G2 X62.5773 Y9.7078 I-10.0955 J-12.6215
G2 X65.056 Y2.176 I-22.8922 J-11.7078
G3 X65.0578 Y2.1653 I1.9734 J0.3248
G2 X65.7198 Y-6.018 I-46.1287 J-7.8498
G2 X65.1524 Y-14.2655 I-68.2099 J0.5489
G3 X65.1504 Y-14.2817 I1.9833 J-0.2579
G2 X63.0393 Y-23.588 I-46.5569 J5.6689
G3 X63.0367 Y-23.5957 I1.8953 J-0.6386
G2 X58.5288 Y-33.1729 I-42.2993 J14.0602
G2 X51.4702 Y-41.299 I-31.6164 J20.3344
G1 X51.2527 Y-41.116
G3 X54.9197 Y-34.7996 I-99.0466 J61.7261
G3 X57.7423 Y-27.9068 I-27.7852 J15.4024
G3 X57.7428 Y-27.9052 I-1.9269 J0.5357
G3 X59.1108 Y-20.3106 I-40.4092 J11.1992
G3 X59.1112 Y-20.3052 I-1.9926 J0.1719
G3 X59.4775 Y-10.8805 I-105.6134 J8.8246
G3 X59.3417 Y-3.3609 I-192.854 J0.2763
G3 X58.434 Y3.2385 I-31.0851 J-0.9131
G3 X56.027 Y8.6203 I-14.9809 J-3.4713
G3 X52.1119 Y12.3122 I-10.0307 J-6.715
G3 X49.612 Y11.9258 I-1.0133 J-1.7243
G1 X49.2077 Y11.4766
G3 X49.1863 Y11.4523 I1.4866 J-1.3379
G2 X47.7694 Y9.9521 I-19.348 J16.8539
G3 X47.7474 Y9.9303 I1.3976 J-1.4306
G3 X45.3062 Y7.2552 I30.7096 J-30.4752
G3 X43.4028 Y4.7158 I18.1568 J-15.5932
G3 X43.0791 Y3.625 I1.6763 J-1.0908
G1 Y-19.6895
G3 X43.6974 Y-21.1354 I2.0 J0.0
G1 X45.7189 Y-23.0671
G3 X48.1919 Y-23.2971 I1.3817 J1.446
G1 X50.4164 Y-21.8486
G1 X50.6519 Y-22.1933
G1 X42.3842 Y-28.3175
G1 X34.6452 Y-23.4246
G1 X37.1516 Y-20.5562
G3 X37.6455 Y-19.2402 I-1.5061 J1.316
G1 Y15.6129
G3 X37.5079 Y20.4446 I-69.636 J0.4341
G3 X37.1259 Y23.2189 I-15.4186 J-0.7092
G0 Z3.0
G0 X83.5924 Y33.873
G0 Z1.0
G1 F300.0 Z-2.0
G2 F800.0 X83.4762 Y35.1507 I7.5448 J1.3299
G3 X83.473 Y35.3018 I-5.1999 J-0.0354
G2 X83.4887 Y35.4052 I0.2819 J0.0101
G2 X83.6718 Y34.6881 I-2.0553 J-0.9066
G2 X83.5924 Y33.873 I-11.8539 J0.7436
G1 F300.0 X82.0167 Y33.5953
G2 F800.0 X81.8763 Y35.1398 I9.1205 J1.6076
G3 X81.874 Y35.2444 I-3.5999 J-0.0245
G2 X82.4138 Y36.6324 I1.8808 J0.0675
G3 X82.4795 Y36.7009 I-2.5652 J2.5258
G2 X83.4616 Y37.1305 I0.9893 J-0.924
G3 X83.7001 Y37.1397 I-0.0192 J3.5999
G2 X84.5824 Y36.7081 I0.07 J-0.9747
G3 X84.6059 Y36.6735 I2.9928 J2.0008
G2 X85.2749 Y34.6935 I-3.1725 J-2.1749
G2 X84.7535 Y31.6495 I-13.457 J0.7382
G2 X83.5851 Y28.7661 I-16.3274 J4.9379
G3 X83.5672 Y28.7309 I3.1993 J-1.6507
G2 X83.5101 Y28.6177 I-45.394 J22.7938
G2 X82.8363 Y30.5712 I32.2246 J12.2076
G3 X82.8353 Y30.5745 I-3.4369 J-1.0712
G2 X82.0941 Y33.2053 I45.8224 J14.3306
G2 X82.0167 Y33.5953 I9.0431 J1.9976
G1 F300.0 X80.441 Y33.3175
G2 F800.0 X80.2763 Y35.1289 I10.6962 J1.8854
G3 X80.2751 Y35.187 I-2.0 J-0.0136
G2 X81.2737 Y37.755 I3.4798 J0.1249
G3 X81.3102 Y37.793 I-1.4251 J1.4032
G2 X83.453 Y38.7305 I2.1586 J-2.0162
G3 X83.5856 Y38.7356 I-0.0107 J2.0
G2 X85.9125 Y37.5974 I0.1845 J-2.5706
G3 X85.9256 Y37.5781 I1.6626 J1.1116
G2 X86.8766 Y34.6852 I-4.4922 J-3.0795
G2 X86.2871 Y31.1933 I-15.0587 J0.7465
G2 X85.007 Y28.0325 I-17.861 J5.394
G3 X84.997 Y28.0129 I1.7774 J-0.917
G2 X83.8159 Y25.7949 I-46.8239 J23.5118
G1 X82.9728
G3 X82.2305 Y27.493 I-111.868 J-47.8867
G2 X81.3088 Y30.0951 I33.5042 J13.3322
G3 X81.3082 Y30.097 I-1.9094 J-0.5951
G2 X80.5369 Y32.837 I47.3495 J14.8081
G2 X80.441 Y33.3175 I10.6003 J2.3659
G0 Z3.0
G0 X83.5924 Y33.873
G0 Z-1.0
G1 F300.0 Z-4.0
G2 F800.0 X83.4762 Y35.1507 I7.5448 J1.3299
G3 X83.473 Y35.3018 I-5.1999 J-0.0354
G2 X83.4887 Y35.4052 I0.2819 J0.0101
G2 X83.6718 Y34.6881 I-2.0553 J-0.9066
G2 X83.5924 Y33.873 I-11.8539 J0.7436
G1 F300.0 X82.0167 Y33.5953
G2 F800.0 X81.8763 Y35.1398 I9.1205 J1.6076
G3 X81.874 Y35.2444 I-3.5999 J-0.0245
G2 X82.4138 Y36.6324 I1.8808 J0.0675
G3 X82.4795 Y36.7009 I-2.5652 J2.5258
G2 X83.4616 Y37.1305 I0.9893 J-0.924
G3 X83.7001 Y37.1397 I-0.0192 J3.5999
G2 X84.5824 Y36.7081 I0.07 J-0.9747
G3 X84.6059 Y36.6735 I2.9928 J2.0008
G2 X85.2749 Y34.6935 I-3.1725 J-2.1749
G2 X84.7535 Y31.6495 I-13.457 J0.7382
G2 X83.5851 Y28.7661 I-16.3274 J4.9379
G3 X83.5672 Y28.7309 I3.1993 J-1.6507
G2 X83.5101 Y28.6177 I-45.394 J22.7938
G2 X82.8363 Y30.5712 I32.2246 J12.2076
G3 X82.8353 Y30.5745 I-3.4369 J-1.0712
G2 X82.0941 Y33.2053 I45.8224 J14.3306
G2 X82.0167 Y33.5953 I9.0431 J1.9976
G1 F300.0 X80.441 Y33.3175
G2 F800.0 X80.2763 Y35.1289 I10.6962 J1.8854
G3 X80.2751 Y35.187 I-2.0 J-0.0136
G2 X81.2737 Y37.755 I3.4798 J0.1249
G3 X81.3102 Y37.793 I-1.4251 J1.4032
G2 X83.453 Y38.7305 I2.1586 J-2.0162
G3 X83.5856 Y38.7356 I-0.0107 J2.0
G2 X85.9125 Y37.5974 I0.1845 J-2.5706
G3 X85.9256 Y37.5781 I1.6626 J1.1116
G2 X86.8766 Y34.6852 I-4.4922 J-3.0795
G2 X86.2871 Y31.1933 I-15.0587 J0.7465
G2 X85.007 Y28.0325 I-17.861 J5.394
G3 X84.997 Y28.0129 I1.7774 J-0.917
G2 X83.8159 Y25.7949 I-46.8239 J23.5118
G1 X82.9728
G3 X82.2305 Y27.493 I-111.868 J-47.8867
G2 X81.3088 Y30.0951 I33.5042 J13.3322
G3 X81.3082 Y30.097 I-1.9094 J-0.5951
G2 X80.5369 Y32.837 I47.3495 J14.8081
G2 X80.441 Y33.3175 I10.6003 J2.3659
G0 Z3.0
G0 X83.7278 Y11.2517
G0 Z1.0
G1 F300.0 Z-2.0
G1 F800.0 X83.7809 Y11.1992
G1 X83.7649 Y11.1825
G3 X83.7278 Y11.2517 I-5.3088 J-2.7958
G1 F300.0 X83.0249 Y10.8697
G3 F800.0 X82.2938 Y11.8955 I-4.5689 J-2.483
G1 X81.8957 Y12.331
G3 X82.9942 Y13.1027 I-384.2201 J548.0309
G1 X84.9028 Y11.2147
G1 X84.1319 Y10.4088
G3 X83.5087 Y9.6158 I3.7577 J-3.5944
G3 X83.0249 Y10.8697 I-5.0527 J-1.2291
G1 F300.0 X81.6191 Y10.1057
G3 F800.0 X81.113 Y10.8159 I-3.1631 J-1.719
G1 X79.6755 Y12.3882
G3 X79.4476 Y12.616 I-2.6569 J-2.4292
G3 X80.1861 Y13.0902 I-72.8288 J114.2556
G3 X80.2944 Y13.163 I-1.9547 J3.0231
G3 X82.3772 Y14.6253 I-382.6188 J547.1989
G2 X83.1914 Y15.1582 I37.9902 J-57.1549
G1 X87.1186 Y11.2734
G2 X86.2492 Y10.3076 I-59.6853 J52.8526
G1 X85.2881 Y9.3029
G3 X84.2896 Y6.8145 I2.6015 J-2.4884
G1 Y-17.3879
G3 X84.3681 Y-19.2294 I19.1517 J-0.1063
G3 X85.0784 Y-21.9794 I7.7003 J0.5222
G3 X85.314 Y-22.4052 I3.2604 J1.5263
G3 X87.4412 Y-24.4291 I5.2504 J3.3882
G3 X84.6274 Y-26.2454 I37.3647 J-60.9706
G2 X83.5374 Y-25.0926 I16.7143 J16.8955
G2 X82.5185 Y-23.2759 I6.4588 J4.8164
G2 X82.1428 Y-21.1578 I7.6578 J2.4506
G3 X82.1424 Y-21.1476 I-3.5969 J-0.1489
G2 X82.056 Y-16.8731 I88.97 J3.9355
G3 X82.0561 Y-16.8594 I-3.6 J0.0137
G1 Y8.3867
G3 X81.6191 Y10.1057 I-3.6 J0.0
G1 F300.0 X80.2133 Y9.3417
G3 F800.0 X79.9321 Y9.7363 I-1.7573 J-0.955
G1 X78.4946 Y11.3085
G3 X76.3006 Y11.8257 I-1.4761 J-1.3495
G1 X75.5851 Y11.5505
G1 X75.3649 Y11.9459
G2 X77.0776 Y13.0169 I70.8159 J-111.3475
G3 X77.0828 Y13.0201 I-1.0473 J1.7038
G3 X79.3174 Y14.4338 I-70.4641 J113.8516
G3 X79.3775 Y14.4742 I-1.0859 J1.6795
G3 X81.4732 Y15.9456 I-381.702 J545.8876
G2 X83.4125 Y17.1901 I38.8943 J-58.4752
G1 X89.3102 Y11.3561
G2 X87.4176 Y9.2144 I-61.8768 J52.7699
G1 X86.4444 Y8.1969
G3 X85.8896 Y6.8145 I1.4453 J-1.3824
G1 Y-17.3925
G3 X85.9633 Y-19.1035 I17.5517 J-0.1017
G3 X86.5275 Y-21.3011 I6.1051 J0.3963
G3 X86.6584 Y-21.5376 I1.8113 J0.8479
G3 X89.1025 Y-23.4298 I3.906 J2.5207
G3 X90.3455 Y-23.4347 I0.629 J1.8985
G1 X92.6972 Y-22.676
G1 X92.8804 Y-23.1726
G2 X90.6544 Y-24.4042 I-12.6942 J20.317
G3 X90.5483 Y-24.4597 I0.8739 J-1.799
G3 X84.4758 Y-28.2967 I34.2576 J-60.94
G2 X82.2959 Y-26.1039 I16.8659 J18.9468
G2 X81.0123 Y-23.8183 I7.7002 J5.8278
G2 X80.5442 Y-21.2239 I9.164 J2.993
G3 X80.5439 Y-21.2183 I-1.9983 J-0.0827
G2 X80.456 Y-16.867 I90.5685 J4.0062
G3 X80.4561 Y-16.8594 I-2.0 J0.0076
G1 Y8.3867
G3 X80.2133 Y9.3417 I-2.0 J0.0
G0 Z3.0
G0 X83.7278 Y11.2517
G0 Z-1.0
G1 F300.0 Z-4.0
G1 F800.0 X83.7809 Y11.1992
G1 X83.7649 Y11.1825
G3 X83.7278 Y11.2517 I-5.3088 J-2.7958
G1 F300.0 X83.0249 Y10.8697
G3 F800.0 X82.2938 Y11.8955 I-4.5689 J-2.483
G1 X81.8957 Y12.331
G3 X82.9942 Y13.1027 I-384.2201 J548.0309
G1 X84.9028 Y11.2147
G1 X84.1319 Y10.4088
G3 X83.5087 Y9.6158 I3.7577 J-3.5944
G3 X83.0249 Y10.8697 I-5.0527 J-1.2291
G1 F300.0 X81.6191 Y10.1057
G3 F800.0 X81.113 Y10.8159 I-3.1631 J-1.719
G1 X79.6755 Y12.3882
G3 X79.4476 Y12.616 I-2.6569 J-2.4292
G3 X80.1861 Y13.0902 I-72.8288 J114.2556
G3 X80.2944 Y13.163 I-1.9547 J3.0231
G3 X82.3772 Y14.6253 I-382.6188 J547.1989
G2 X83.1914 Y15.1582 I37.9902 J-57.1549
G1 X87.1186 Y11.2734
G2 X86.2492 Y10.3076 I-59.6853 J52.8526
G1 X85.2881 Y9.3029
G3 X84.2896 Y6.8145 I2.6015 J-2.4884
G1 Y-17.3879
G3 X84.3681 Y-19.2294 I19.1517 J-0.1063
G3 X85.0784 Y-21.9794 I7.7003 J0.5222
G3 X85.314 Y-22.4052 I3.2604 J1.5263
G3 X87.4412 Y-24.4291 I5.2504 J3.3882
G3 X84.6274 Y-26.2454 I37.3647 J-60.9706
G2 X83.5374 Y-25.0926 I16.7143 J16.8955
G2 X82.5185 Y-23.2759 I6.4588 J4.8164
G2 X82.1428 Y-21.1578 I7.6578 J2.4506
G3 X82.1424 Y-21.1476 I-3.5969 J-0.1489
G2 X82.056 Y-16.8731 I88.97 J3.9355
G3 X82.0561 Y-16.8594 I-3.6 J0.0137
G1 Y8.3867
G3 X81.6191 Y10.1057 I-3.6 J0.0
G1 F300.0 X80.2133 Y9.3417
G3 F800.0 X79.9321 Y9.7363 I-1.7573 J-0.955
G1 X78.4946 Y11.3085
G3 X76.3006 Y11.8257 I-1.4761 J-1.3495
G1 X75.5851 Y11.5505
G1 X75.3649 Y11.9459
G2 X77.0776 Y13.0169 I70.8159 J-111.3475
G3 X77.0828 Y13.0201 I-1.0473 J1.7038
G3 X79.3174 Y14.4338 I-70.4641 J113.8516
G3 X79.3775 Y14.4742 I-1.0859 J1.6795
G3 X81.4732 Y15.9456 I-381.702 J545.8876
G2 X83.4125 Y17.1901 I38.8943 J-58.4752
G1 X89.3102 Y11.3561
G2 X87.4176 Y9.2144 I-61.8768 J52.7699
G1 X86.4444 Y8.1969
G3 X85.8896 Y6.8145 I1.4453 J-1.3824
G1 Y-17.3925
G3 X85.9633 Y-19.1035 I17.5517 J-0.1017
G3 X86.5275 Y-21.3011 I6.1051 J0.3963
G3 X86.6584 Y-21.5376 I1.8113 J0.8479
G3 X89.1025 Y-23.4298 I3.906 J2.5207
G3 X90.3455 Y-23.4347 I0.629 J1.8985
G1 X92.6972 Y-22.676
G1 X92.8804 Y-23.1726
G2 X90.6544 Y-24.4042 I-12.6942 J20.317
G3 X90.5483 Y-24.4597 I0.8739 J-1.799
G3 X84.4758 Y-28.2967 I34.2576 J-60.94
G2 X82.2959 Y-26.1039 I16.8659 J18.9468
G2 X81.0123 Y-23.8183 I7.7002 J5.8278
G2 X80.5442 Y-21.2239 I9.164 J2.993
G3 X80.5439 Y-21.2183 I-1.9983 J-0.0827
G2 X80.456 Y-16.867 I90.5685 J4.0062
G3 X80.4561 Y-16.8594 I-2.0 J0.0076
G1 Y8.3867
G3 X80.2133 Y9.3417 I-2.0 J0.0
G0 Z3.0
G0 X107.0172 Y3.8426
G0 Z1.0
G1 F300.0 Z-2.0
G3 F800.0 X106.5557 Y0.1199 I23.2813 J-4.7764
G3 X106.5542 Y0.0752 I1.998 J-0.0887
G3 X106.5088 Y-3.5564 I192.0172 J-4.2163
G3 X109.3913 Y-5.3572 I2.0 J-0.0061
G1 X120.2624 Y-0.0115
G3 X120.9061 Y3.0757 I-0.8825 J1.7947
G2 X118.9004 Y5.8559 I16.8456 J14.2664
G2 X117.5062 Y8.2957 I583.0663 J334.8151
G1 X116.3753 Y10.5575
G2 X115.6855 Y12.4029 I11.8702 J5.4887
G3 X112.4711 Y13.3711 I-1.9208 J-0.5572
G3 X109.4213 Y9.8113 I9.5708 J-11.286
G3 X107.2972 Y5.0467 I14.2172 J-9.194
G3 X107.2914 Y5.0249 I1.9303 J-0.5232
G3 X107.0172 Y3.8426 I23.0071 J-5.9587
G0 Z3.0
G0 X103.835 Y-5.8346
G0 Z1.0
G1 F300.0 Z-2.0
G3 F800.0 X104.1531 Y-6.397 I4.6738 J2.2721
G3 X103.8801 Y-7.0279 I4.6252 J-2.3764
G2 X103.835 Y-5.8346 I43.1033 J2.2252
G1 F300.0 X102.2355 Y-5.8728
G2 F800.0 X102.2257 Y-4.2785 I44.7479 J1.0702
G3 Y-4.19 I-3.5998 J0.0422
G2 X102.6348 Y2.4112 I44.2643 J0.5699
G2 X104.0355 Y5.7954 I8.064 J-1.3557
G2 X106.9628 Y8.692 I12.0505 J-9.251
G3 X105.756 Y5.4644 I16.6757 J-8.0747
G3 X105.7456 Y5.4252 I3.4715 J-0.941
G3 X104.9604 Y0.1907 I24.5529 J-6.3591
G3 X104.9578 Y0.1102 I3.5933 J-0.1595
G3 X104.912 Y-3.5515 I193.6136 J-4.2513
G3 X106.1685 Y-6.2938 I3.5968 J-0.011
G3 X105.1784 Y-8.7999 I2.6098 J-2.4797
G3 X105.6824 Y-12.8496 I17.5596 J0.1289
G3 X107.6772 Y-18.2599 I23.1296 J5.4554
G3 X111.1236 Y-23.0381 I16.2616 J8.0971
G3 X115.3238 Y-25.4179 I6.3015 J6.2253
G1 X112.5179 Y-26.9168
G2 X109.3995 Y-25.3249 I3.0526 J9.8294
G2 X105.9065 Y-21.2218 I8.4468 J10.7293
G3 X105.903 Y-21.2156 I-3.1477 J-1.7469
G2 X103.22 Y-14.199 I22.9527 J12.798
G2 X102.2355 Y-5.8728 I43.7633 J9.3964
G0 Z3.0
G0 X120.6105 Y6.1379
G0 Z1.0
G1 F300.0 Z-2.0
G2 F800.0 X120.2747 Y6.6694 I17.1412 J11.2043
G2 X118.9153 Y9.048 I581.6921 J334.0017
G1 X117.8147 Y11.2491
G2 X117.219 Y12.8477 I10.4307 J4.7971
G3 X116.3822 Y14.3125 I-3.4544 J-1.002
G1 X117.8424 Y15.0224
G2 X118.9438 Y12.9814 I-211.9612 J-115.6978
G3 X118.9989 Y12.882 I3.1763 J1.6944
G1 X121.245 Y8.9738
G3 X121.3148 Y8.8573 I3.1213 J1.7938
G2 X123.3629 Y5.4585 I-98.7287 J-61.8068
G3 X123.4084 Y5.3822 I3.1147 J1.8052
G3 X124.881 Y3.0382 I107.2123 J65.7245
G1 X122.962 Y2.1074
G3 X122.1246 Y4.1077 I-3.5822 J-0.3242
G2 X120.6105 Y6.1379 I15.6271 J13.2344
G0 Z3.0
G0 X123.714 Y8.0086
G0 Z1.0
G1 F300.0 Z-2.0
G2 F800.0 X124.7472 Y6.2608 I-101.1278 J-60.9581
G3 X124.7724 Y6.2184 I1.7304 J1.0029
G3 X127.0096 Y2.7028 I105.8482 J64.8883
G3 X127.0495 Y2.6446 I1.6691 J1.1019
G2 X127.218 Y2.3935 I-4.4257 J-3.1513
G1 X107.9055 Y-6.9739
G3 X106.7784 Y-8.7881 I0.8728 J-1.7995
G3 X107.2381 Y-12.4756 I15.9596 J0.1172
G3 X109.1049 Y-17.5375 I21.574 J5.0813
G3 X112.2572 Y-21.909 I14.8339 J7.3747
G3 X117.333 Y-24.0702 I5.1679 J5.0962
G3 X118.0394 Y-23.9508 I0.0254 J1.9998
G1 X127.2988 Y-20.5976
G1 X127.3942 Y-20.7837
G1 X112.7067 Y-28.63
G2 X108.4248 Y-26.5938 I2.8638 J11.5425
G2 X104.5075 Y-21.9982 I9.4215 J11.9982
G3 X104.5056 Y-21.9948 I-1.7487 J-0.9705
G2 X101.6574 Y-14.5429 I24.3501 J13.5772
G2 X100.6258 Y-4.2597 I45.3259 J9.7403
G3 Y-4.2106 I-1.9999 J0.0234
G2 X101.0529 Y2.652 I45.8641 J0.5905
G2 X102.749 Y6.747 I9.6459 J-1.5965
G2 X106.6228 Y10.4159 I13.337 J-10.2026
G2 X113.7039 Y14.7896 I56.211 J-83.0873
G1 X118.5114 Y17.1266
G2 X118.6544 Y16.868 I-14.9176 J-8.4133
G3 X118.6624 Y16.8533 I1.7587 J0.9523
G2 X120.3555 Y13.7345 I-212.7812 J-117.5288
G3 X120.3861 Y13.6792 I1.7646 J0.9413
G1 X122.6322 Y9.771
G3 X122.671 Y9.7063 I1.734 J0.9966
G2 X123.714 Y8.0086 I-100.0849 J-62.6558
G1 F300.0 X122.3437 Y7.1826
G1 Z-4.0
G2 F800.0 X123.3629 Y5.4585 I-99.7575 J-60.1321
G3 X123.4084 Y5.3822 I3.1147 J1.8052
G3 X124.881 Y3.0382 I107.2123 J65.7245
G1 X122.962 Y2.1074
G3 X122.1246 Y4.1077 I-3.5822 J-0.3242
G2 X120.2747 Y6.6694 I15.6271 J13.2344
G2 X118.9153 Y9.048 I581.6921 J334.0017
G1 X117.8147 Y11.2491
G2 X117.219 Y12.8477 I10.4307 J4.7971
G3 X116.3822 Y14.3125 I-3.4544 J-1.002
G1 X117.8424 Y15.0224
G2 X118.9438 Y12.9814 I-211.9612 J-115.6978
G3 X118.9989 Y12.882 I3.1763 J1.6944
G1 X121.245 Y8.9738
G3 X121.3148 Y8.8573 I3.1213 J1.7938
G2 X122.3437 Y7.1826 I-98.7287 J-61.8068
G0 Z3.0
G0 X103.835 Y-5.8346
G0 Z-1.0
G1 F300.0 Z-4.0
G3 F800.0 X104.1531 Y-6.397 I4.6738 J2.2721
G3 X103.8801 Y-7.0279 I4.6252 J-2.3764
G2 X103.835 Y-5.8346 I43.1033 J2.2252
G1 F300.0 X102.2355 Y-5.8728
G2 F800.0 X102.2257 Y-4.2785 I44.7479 J1.0702
G3 Y-4.19 I-3.5998 J0.0422
G2 X102.6348 Y2.4112 I44.2643 J0.5699
G2 X104.0355 Y5.7954 I8.064 J-1.3557
G2 X106.9628 Y8.692 I12.0505 J-9.251
G3 X105.756 Y5.4644 I16.6757 J-8.0747
G3 X105.7456 Y5.4252 I3.4715 J-0.941
G3 X104.9604 Y0.1907 I24.5529 J-6.3591
G3 X104.9578 Y0.1102 I3.5933 J-0.1595
G3 X104.912 Y-3.5515 I193.6136 J-4.2513
G3 X106.1685 Y-6.2938 I3.5968 J-0.011
G3 X105.1784 Y-8.7999 I2.6098 J-2.4797
G3 X105.6824 Y-12.8496 I17.5596 J0.1289
G3 X107.6772 Y-18.2599 I23.1296 J5.4554
G3 X111.1236 Y-23.0381 I16.2616 J8.0971
G3 X115.3238 Y-25.4179 I6.3015 J6.2253
G1 X112.5179 Y-26.9168
G2 X109.3995 Y-25.3249 I3.0526 J9.8294
G2 X105.9065 Y-21.2218 I8.4468 J10.7293
G3 X105.903 Y-21.2156 I-3.1477 J-1.7469
G2 X103.22 Y-14.199 I22.9527 J12.798
G2 X102.2355 Y-5.8728 I43.7633 J9.3964
G1 F300.0 X100.6359 Y-5.9111
G2 F800.0 X100.6258 Y-4.2597 I46.3474 J1.1084
G3 Y-4.2106 I-1.9999 J0.0234
G2 X101.0529 Y2.652 I45.8641 J0.5905
G2 X102.749 Y6.747 I9.6459 J-1.5965
G2 X106.6228 Y10.4159 I13.337 J-10.2026
G2 X113.7039 Y14.7896 I56.211 J-83.0873
G1 X118.5114 Y17.1266
G2 X118.6544 Y16.868 I-14.9176 J-8.4133
G3 X118.6624 Y16.8533 I1.7587 J0.9523
G2 X120.3555 Y13.7345 I-212.7812 J-117.5288
G3 X120.3861 Y13.6792 I1.7646 J0.9413
G1 X122.6322 Y9.771
G3 X122.671 Y9.7063 I1.734 J0.9966
G2 X124.7472 Y6.2608 I-100.0849 J-62.6558
G3 X124.7724 Y6.2184 I1.7304 J1.0029
G3 X127.0096 Y2.7028 I105.8482 J64.8883
G3 X127.0495 Y2.6446 I1.6691 J1.1019
G2 X127.218 Y2.3935 I-4.4257 J-3.1513
G1 X107.9055 Y-6.9739
G3 X106.7784 Y-8.7881 I0.8728 J-1.7995
G3 X107.2381 Y-12.4756 I15.9596 J0.1172
G3 X109.1049 Y-17.5375 I21.574 J5.0813
G3 X112.2572 Y-21.909 I14.8339 J7.3747
G3 X117.333 Y-24.0702 I5.1679 J5.0962
G3 X118.0394 Y-23.9508 I0.0254 J1.9998
G1 X127.2988 Y-20.5976
G1 X127.3942 Y-20.7837
G1 X112.7067 Y-28.63
G2 X108.4248 Y-26.5938 I2.8638 J11.5425
G2 X104.5075 Y-21.9982 I9.4215 J11.9982
G3 X104.5056 Y-21.9948 I-1.7487 J-0.9705
G2 X101.6574 Y-14.5429 I24.3501 J13.5772
G2 X100.6359 Y-5.9111 I45.3259 J9.7403
G0 Z3.0
G0 X106.5923 Y-4.1342
G0 Z-1.0
G1 F300.0 Z-4.0
G3 F800.0 X109.3913 Y-5.3572 I1.9165 J0.5717
G1 X120.2624 Y-0.0115
G3 X120.9061 Y3.0757 I-0.8825 J1.7947
G2 X118.9004 Y5.8559 I16.8456 J14.2664
G2 X117.5062 Y8.2957 I583.0663 J334.8151
G1 X116.3753 Y10.5575
G2 X115.6855 Y12.4029 I11.8702 J5.4887
G3 X112.4711 Y13.3711 I-1.9208 J-0.5572
G3 X109.4213 Y9.8113 I9.5708 J-11.286
G3 X107.2972 Y5.0467 I14.2172 J-9.194
G3 X107.2914 Y5.0249 I1.9303 J-0.5232
G3 X106.5557 Y0.1199 I23.0071 J-5.9587
G3 X106.5542 Y0.0752 I1.998 J-0.0887
G3 X106.5088 Y-3.5564 I192.0172 J-4.2163
G3 X106.5923 Y-4.1342 I2.0 J-0.0061
G0 Z3.0
G0 X137.5116 Y-0.2811
G0 Z1.0
G1 F300.0 Z-2.0
G2 F800.0 X137.4443 Y0.9625 I8.8452 J1.1023
G3 X137.4438 Y1.1007 I-3.5995 J0.0571
G2 X137.7846 Y3.7936 I9.175 J0.2069
G2 X138.5146 Y5.2369 I5.0738 J-1.6599
G3 X138.4659 Y4.4025 I9.9118 J-0.997
G3 X138.4655 Y4.3619 I3.5995 J-0.0587
G3 X139.049 Y1.3607 I7.8064 J-0.0394
G3 X139.1441 Y1.1487 I3.3308 J1.3658
G3 X140.6863 Y-1.2679 I11.2928 J5.5067
G2 X141.9291 Y-3.0998 I-13.8167 J-10.7105
G3 X142.0669 Y-3.3156 I3.1012 J1.8283
G3 X144.3891 Y-5.8379 I10.0922 J6.9614
G3 X146.5066 Y-7.5072 I22.5653 J26.4468
G3 X146.7762 Y-7.6853 I2.1174 J2.9115
G1 X144.5396 Y-9.9676
G2 X143.1408 Y-8.817 I37.107 J46.5376
G2 X140.1508 Y-5.8296 I17.5485 J20.5541
G2 X138.1293 Y-2.6082 I11.4625 J9.4378
G2 X137.5116 Y-0.2811 I8.2275 J3.4294
G0 Z3.0
G0 X146.1767 Y13.6571
G0 Z1.0
G1 F300.0 Z-2.0
G1 F800.0 X147.8601 Y15.4651
G3 X150.6175 Y14.034 I52.9717 J98.6951
G3 X157.0324 Y12.3794 I6.7291 J12.8262
G3 X162.7535 Y14.4724 I0.1969 J8.3276
G3 X163.7412 Y15.4892 I-4.8478 J5.697
G2 X162.1657 Y12.8176 I-7.8969 J2.8568
G2 X159.4101 Y10.8361 I-6.275 J5.8195
G2 X155.2974 Y10.0544 I-3.9151 J9.3882
G3 X155.2094 Y10.055 I-0.0699 J-3.5993
G2 X151.1417 Y10.8778 I-0.0515 J10.2112
G2 X146.6588 Y13.3793 I11.4544 J25.7951
G3 X146.1767 Y13.6571 I-2.0328 J-2.9711
G0 Z3.0
G0 X160.2034 Y-0.1089
G0 Z1.0
G1 F300.0 Z-2.0
G2 F800.0 X160.5449 Y-0.3791 I-15.1432 J-19.4867
G3 X160.5954 Y-0.4193 I3.2627 J4.049
G2 X163.2196 Y-2.9744 I-10.6723 J-13.5859
G3 X163.3103 Y-3.0808 I4.0021 J3.3201
G2 X164.1947 Y-4.2444 I-7.9175 J-6.936
G3 X160.0574 Y-0.2598 I-27.7773 J-24.7021
G1 X160.2034 Y-0.1089
G1 F300.0 X161.1852 Y1.1545
G2 F800.0 X161.5488 Y0.8667 I-16.1249 J-20.7501
G3 X161.5838 Y0.8389 I2.2588 J2.8032
G2 X164.451 Y-1.9528 I-11.6607 J-14.8441
G3 X164.5138 Y-2.0265 I2.7707 J2.2985
G2 X166.4189 Y-4.9708 I-9.121 J-7.9903
G3 X166.4559 Y-5.0491 I3.2735 J1.4981
G2 X167.0808 Y-7.7908 I-5.5653 J-2.7107
G2 X166.2461 Y-11.8346 I-11.0879 J0.1809
G3 X165.3899 Y-8.7636 I-8.9388 J-0.837
G3 X163.6507 Y-6.0614 I-11.7133 J-5.6284
G3 X163.643 Y-6.0522 I-2.763 J-2.3077
G3 X158.0452 Y-0.7043 I-27.2256 J-22.8943
G3 X157.6533 Y-0.443 I-2.1888 J-2.8582
G1 X160.0243 Y2.0067
G2 X161.1852 Y1.1545 I-14.964 J-21.6023
G0 Z3.0
G0 X150.5622 Y-21.9209
G0 Z1.0
G1 F300.0 Z-2.0
G2 F800.0 X156.3998 Y-24.9864 I-26.4666 J-57.4911
G3 X156.5597 Y-25.0758 I1.8375 J3.0958
G2 X154.844 Y-26.594 I-36.0601 J39.0224
G1 X154.7746 Y-26.5654
G2 X150.626 Y-24.731 I55.7761 J131.75
G3 X150.5751 Y-24.708 I-1.5079 J-3.269
G3 X145.0705 Y-22.441 I-46.3554 J-104.7392
G3 X142.7019 Y-21.5196 I-217.8966 J-556.6411
G2 X143.0123 Y-20.9421 I67.379 J-35.8322
G2 X143.9215 Y-19.3629 I118.9215 J-67.4161
G2 X149.7211 Y-21.541 I-15.4191 J-49.8652
G3 X149.7267 Y-21.5435 I1.4635 J3.2891
G2 X150.5622 Y-21.9209 I-25.631 J-57.8685
G1 F300.0 X151.2313 Y-20.4675
G2 F800.0 X157.2165 Y-23.6105 I-27.1357 J-58.9445
G3 X159.8455 Y-23.0796 I1.0208 J1.7199
G3 X163.0179 Y-18.185 I-38.1007 J28.1698
G3 X164.6828 Y-12.6749 I-9.8727 J5.9898
G3 X164.6843 Y-12.5621 I-1.9983 J0.0831
G3 X163.9486 Y-9.4583 I-7.3771 J-0.1095
G3 X162.4227 Y-7.0871 I-10.272 J-4.9336
G3 X162.4184 Y-7.0819 I-1.535 J-1.2821
G3 X157.0724 Y-1.9746 I-26.001 J-21.8645
G3 X154.428 Y-2.1627 I-1.216 J-1.5879
G1 X144.6835 Y-12.1068
G2 X142.1038 Y-10.0355 I36.9632 J48.6768
G2 X138.9252 Y-6.8583 I18.5855 J21.7726
G2 X136.6641 Y-3.2516 I12.6881 J10.4666
G2 X135.8445 Y0.9878 I9.6927 J4.0728
G3 X135.8442 Y1.0646 I-1.9997 J0.0317
G2 X136.2533 Y4.2584 I10.7746 J0.243
G2 X137.4656 Y6.4994 I6.6051 J-2.1247
G3 X137.4841 Y6.5226 I-1.5545 J1.2584
G2 X139.9437 Y9.3214 I26.5186 J-20.8241
G3 X139.956 Y9.334 I-1.4271 J1.4012
G3 X143.7642 Y13.4139 I-121.8783 J117.5807
G1 X147.5345 Y17.4635
G3 X151.3482 Y15.4575 I53.2973 J96.6967
G3 X157.0687 Y13.979 I5.9984 J11.4027
G3 X161.7045 Y15.6806 I0.1606 J6.728
G3 X163.7861 Y20.1495 I-3.7988 J4.4888
G3 X163.7859 Y20.185 I-2.0 J0.0068
G3 X163.0424 Y22.9211 I-5.7079 J-0.0821
G3 X161.137 Y25.1863 I-6.3731 J-3.4266
G3 X158.5197 Y26.6172 I-5.5085 J-6.9669
G3 X155.5073 Y27.1875 I-3.0558 J-7.9002
G3 X155.4626 Y27.1872 I-0.0102 J-2.0
G3 X150.8188 Y26.0948 I0.1935 J-11.239
G3 X147.6396 Y24.2833 I10.6429 J-22.3741
G3 X146.1447 Y23.2727 I38.7461 J-58.9239
G1 X146.01 Y23.3986
G2 X147.4176 Y24.7745 I17.5201 J-16.5154
G3 X147.4292 Y24.785 I-1.3384 J1.4862
G2 X150.3658 Y26.7431 I7.8244 J-8.5531
G3 X150.3766 Y26.7482 I-0.8433 J1.8135
G2 X155.5863 Y27.9491 I5.3589 J-11.347
G2 X159.1682 Y27.3361 I-0.1456 J-11.6221
G3 X159.1926 Y27.328 I0.6414 J1.8944
G2 X162.5568 Y25.5136 I-3.2747 J-10.098
G3 X162.5757 Y25.4986 I1.2508 J1.5606
G2 X165.0147 Y22.6162 I-5.7134 J-7.3075
G3 X165.0403 Y22.5705 I1.7578 J0.9541
G2 X165.9856 Y18.9294 I-6.1184 J-3.5317
G3 X165.9854 Y18.9069 I1.9998 J-0.031
G2 X165.2994 Y15.0957 I-11.1926 J0.0473
G3 X165.2877 Y15.063 I1.8774 J-0.6895
G2 X163.3546 Y11.7468 I-9.4434 J3.283
G2 X160.0469 Y9.3682 I-7.464 J6.8904
G2 X155.2664 Y8.4547 I-4.552 J10.8561
G3 X155.2174 Y8.4551 I-0.0388 J-1.9996
G2 X150.5021 Y9.4112 I-0.0596 J11.8111
G2 X145.7553 Y12.0588 I12.094 J27.2617
G3 X142.9305 Y11.469 I-1.1293 J-1.6506
G3 X141.0614 Y8.1993 I40.1645 J-25.1287
G3 X140.0657 Y4.3764 I7.365 J-3.9594
G3 X140.0655 Y4.3538 I1.9997 J-0.0326
G3 X140.5294 Y1.9678 I6.2064 J-0.0313
G3 X140.5822 Y1.85 I1.8505 J0.7588
G3 X141.939 Y-0.2723 I9.8547 J4.8054
G2 X143.3074 Y-2.2872 I-15.0693 J-11.7061
G3 X143.3839 Y-2.4071 I1.7229 J1.0157
G3 X145.4152 Y-4.6101 I8.7751 J6.0529
G3 X147.4477 Y-6.2132 I21.5392 J25.219
G3 X150.0611 Y-5.9866 I1.1763 J1.6175
G1 X159.7955 Y4.0709
G2 X162.5527 Y2.1126 I-14.7353 J-23.6665
G3 X162.5721 Y2.0972 I1.2549 J1.5573
G2 X165.6824 Y-0.9313 I-12.6491 J-16.1023
G3 X165.7173 Y-0.9722 I1.5393 J1.277
G2 X167.8738 Y-4.3049 I-10.3245 J-9.0446
G3 X167.8943 Y-4.3484 I1.8186 J0.8323
G2 X168.6808 Y-7.8081 I-7.0038 J-3.4113
G2 X167.5167 Y-12.9225 I-12.6879 J0.1981
G3 X167.4976 Y-12.9653 I1.8163 J-0.8373
G2 X164.2877 Y-18.667 I-28.8482 J12.4861
G3 X164.2721 Y-18.6894 I1.6312 J-1.1572
G2 X159.7672 Y-24.181 I-35.0016 J24.1188
G1 X159.7673
G1 X159.7672
G2 X155.1252 Y-28.4413 I-39.2677 J38.1276
G1 X154.1573 Y-28.0415
G2 X149.9559 Y-26.1839 I56.3934 J133.2262
G3 X149.9276 Y-26.1711 I-0.8377 J-1.8161
G3 X144.4936 Y-23.9333 I-45.7078 J-103.2761
G3 X140.4605 Y-22.3714 I-217.3197 J-555.1487
G2 X141.6131 Y-20.1658 I69.6205 J-34.9804
G2 X143.1789 Y-17.4742 I120.3206 J-68.1924
G2 X150.3715 Y-20.0792 I-14.6766 J-51.7539
G3 X150.3746 Y-20.0806 I0.8131 J1.8273
G2 X151.2313 Y-20.4675 I-26.279 J-59.3314
G1 F300.0 X150.5622 Y-21.9209
G1 Z-4.0
G2 F800.0 X156.3998 Y-24.9864 I-26.4666 J-57.4911
G3 X156.5597 Y-25.0758 I1.8375 J3.0958
G2 X154.844 Y-26.594 I-36.0601 J39.0224
G1 X154.7746 Y-26.5654
G2 X150.626 Y-24.731 I55.7761 J131.75
G3 X150.5751 Y-24.708 I-1.5079 J-3.269
G3 X145.0705 Y-22.441 I-46.3554 J-104.7392
G3 X142.7019 Y-21.5196 I-217.8966 J-556.6411
G2 X143.0123 Y-20.9421 I67.379 J-35.8322
G2 X143.9215 Y-19.3629 I118.9215 J-67.4161
G2 X149.7211 Y-21.541 I-15.4191 J-49.8652
G3 X149.7267 Y-21.5435 I1.4635 J3.2891
G2 X150.5622 Y-21.9209 I-25.631 J-57.8685
G0 Z3.0
G0 X144.5396 Y-9.9676
G0 Z-1.0
G1 F300.0 Z-4.0
G2 F800.0 X143.1408 Y-8.817 I37.107 J46.5376
G2 X140.1508 Y-5.8296 I17.5485 J20.5541
G2 X138.1293 Y-2.6082 I11.4625 J9.4378
G2 X137.4443 Y0.9625 I8.2275 J3.4294
G3 X137.4438 Y1.1007 I-3.5995 J0.0571
G2 X137.7846 Y3.7936 I9.175 J0.2069
G2 X138.5146 Y5.2369 I5.0738 J-1.6599
G3 X138.4659 Y4.4025 I9.9118 J-0.997
G3 X138.4655 Y4.3619 I3.5995 J-0.0587
G3 X139.049 Y1.3607 I7.8064 J-0.0394
G3 X139.1441 Y1.1487 I3.3308 J1.3658
G3 X140.6863 Y-1.2679 I11.2928 J5.5067
G2 X141.9291 Y-3.0998 I-13.8167 J-10.7105
G3 X142.0669 Y-3.3156 I3.1012 J1.8283
G3 X144.3891 Y-5.8379 I10.0922 J6.9614
G3 X146.5066 Y-7.5072 I22.5653 J26.4468
G3 X146.7762 Y-7.6853 I2.1174 J2.9115
G1 X144.5396 Y-9.9676
G0 Z3.0
G0 X160.0574 Y-0.2598
G0 Z-1.0
G1 F300.0 Z-4.0
G1 F800.0 X160.2034 Y-0.1089
G2 X160.5449 Y-0.3791 I-15.1432 J-19.4867
G3 X160.5954 Y-0.4193 I3.2627 J4.049
G2 X163.2196 Y-2.9744 I-10.6723 J-13.5859
G3 X163.3103 Y-3.0808 I4.0021 J3.3201
G2 X164.1947 Y-4.2444 I-7.9175 J-6.936
G3 X160.0574 Y-0.2598 I-27.7773 J-24.7021
G1 F300.0 X158.9077 Y0.853
G1 F800.0 X160.0243 Y2.0067
G2 X161.5488 Y0.8667 I-14.964 J-21.6023
G3 X161.5838 Y0.8389 I2.2588 J2.8032
G2 X164.451 Y-1.9528 I-11.6607 J-14.8441
G3 X164.5138 Y-2.0265 I2.7707 J2.2985
G2 X166.4189 Y-4.9708 I-9.121 J-7.9903
G3 X166.4559 Y-5.0491 I3.2735 J1.4981
G2 X167.0808 Y-7.7908 I-5.5653 J-2.7107
G2 X166.2461 Y-11.8346 I-11.0879 J0.1809
G3 X165.3899 Y-8.7636 I-8.9388 J-0.837
G3 X163.6507 Y-6.0614 I-11.7133 J-5.6284
G3 X163.643 Y-6.0522 I-2.763 J-2.3077
G3 X158.0452 Y-0.7043 I-27.2256 J-22.8943
G3 X157.6533 Y-0.443 I-2.1888 J-2.8582
G1 X158.9077 Y0.853
G0 Z3.0
G0 X157.2598 Y10.2068
G0 Z-1.0
G1 F300.0 Z-4.0
G2 F800.0 X155.2974 Y10.0544 I-1.7648 J10.0176
G3 X155.2094 Y10.055 I-0.0699 J-3.5993
G2 X151.1417 Y10.8778 I-0.0515 J10.2112
G2 X146.6588 Y13.3793 I11.4544 J25.7951
G3 X146.1767 Y13.6571 I-2.0328 J-2.9711
G1 X147.8601 Y15.4651
G3 X150.6175 Y14.034 I52.9717 J98.6951
G3 X157.0324 Y12.3794 I6.7291 J12.8262
G3 X162.7535 Y14.4724 I0.1969 J8.3276
G3 X163.7412 Y15.4892 I-4.8478 J5.697
G2 X162.1657 Y12.8176 I-7.8969 J2.8568
G2 X159.4101 Y10.8361 I-6.275 J5.8195
G2 X157.2598 Y10.2068 I-3.9151 J9.3882
G1 F300.0 X157.5374 Y8.631
G2 F800.0 X155.2664 Y8.4547 I-2.0424 J11.5933
G3 X155.2174 Y8.4551 I-0.0388 J-1.9996
G2 X150.5021 Y9.4112 I-0.0596 J11.8111
G2 X145.7553 Y12.0588 I12.094 J27.2617
G3 X142.9305 Y11.469 I-1.1293 J-1.6506
G3 X141.0614 Y8.1993 I40.1645 J-25.1287
G3 X140.0657 Y4.3764 I7.365 J-3.9594
G3 X140.0655 Y4.3538 I1.9997 J-0.0326
G3 X140.5294 Y1.9678 I6.2064 J-0.0313
G3 X140.5822 Y1.85 I1.8505 J0.7588
G3 X141.939 Y-0.2723 I9.8547 J4.8054
G2 X143.3074 Y-2.2872 I-15.0693 J-11.7061
G3 X143.3839 Y-2.4071 I1.7229 J1.0157
G3 X145.4152 Y-4.6101 I8.7751 J6.0529
G3 X147.4477 Y-6.2132 I21.5392 J25.219
G3 X150.0611 Y-5.9866 I1.1763 J1.6175
G1 X159.7955 Y4.0709
G2 X162.5527 Y2.1126 I-14.7353 J-23.6665
G3 X162.5721 Y2.0972 I1.2549 J1.5573
G2 X165.6824 Y-0.9313 I-12.6491 J-16.1023
G3 X165.7173 Y-0.9722 I1.5393 J1.277
G2 X167.8738 Y-4.3049 I-10.3245 J-9.0446
G3 X167.8943 Y-4.3484 I1.8186 J0.8323
G2 X168.6808 Y-7.8081 I-7.0038 J-3.4113
G2 X167.5167 Y-12.9225 I-12.6879 J0.1981
G3 X167.4976 Y-12.9653 I1.8163 J-0.8373
G2 X164.2877 Y-18.667 I-28.8482 J12.4861
G3 X164.2721 Y-18.6894 I1.6312 J-1.1572
G2 X159.7672 Y-24.181 I-35.0016 J24.1188
G1 X159.7673
G1 X159.7672
G2 X155.1252 Y-28.4413 I-39.2677 J38.1276
G1 X154.1573 Y-28.0415
G2 X149.9559 Y-26.1839 I56.3934 J133.2262
G3 X149.9276 Y-26.1711 I-0.8377 J-1.8161
G3 X144.4936 Y-23.9333 I-45.7078 J-103.2761
G3 X140.4605 Y-22.3714 I-217.3197 J-555.1487
G2 X141.6131 Y-20.1658 I69.6205 J-34.9804
G2 X143.1789 Y-17.4742 I120.3206 J-68.1924
G2 X150.3715 Y-20.0792 I-14.6766 J-51.7539
G3 X150.3746 Y-20.0806 I0.8131 J1.8273
G2 X157.2165 Y-23.6105 I-26.279 J-59.3314
G3 X159.8455 Y-23.0796 I1.0208 J1.7199
G3 X163.0179 Y-18.185 I-38.1007 J28.1698
G3 X164.6828 Y-12.6749 I-9.8727 J5.9898
G3 X164.6843 Y-12.5621 I-1.9983 J0.0831
G3 X163.9486 Y-9.4583 I-7.3771 J-0.1095
G3 X162.4227 Y-7.0871 I-10.272 J-4.9336
G3 X162.4184 Y-7.0819 I-1.535 J-1.2821
G3 X157.0724 Y-1.9746 I-26.001 J-21.8645
G3 X154.428 Y-2.1627 I-1.216 J-1.5879
G1 X144.6835 Y-12.1068
G2 X142.1038 Y-10.0355 I36.9632 J48.6768
G2 X138.9252 Y-6.8583 I18.5855 J21.7726
G2 X136.6641 Y-3.2516 I12.6881 J10.4666
G2 X135.8445 Y0.9878 I9.6927 J4.0728
G3 X135.8442 Y1.0646 I-1.9997 J0.0317
G2 X136.2533 Y4.2584 I10.7746 J0.243
G2 X137.4656 Y6.4994 I6.6051 J-2.1247
G3 X137.4841 Y6.5226 I-1.5545 J1.2584
G2 X139.9437 Y9.3214 I26.5186 J-20.8241
G3 X139.956 Y9.334 I-1.4271 J1.4012
G3 X143.7642 Y13.4139 I-121.8783 J117.5807
G1 X147.5345 Y17.4635
G3 X151.3482 Y15.4575 I53.2973 J96.6967
G3 X157.0687 Y13.979 I5.9984 J11.4027
G3 X161.7045 Y15.6806 I0.1606 J6.728
G3 X163.7861 Y20.1495 I-3.7988 J4.4888
G3 X163.7859 Y20.185 I-2.0 J0.0068
G3 X163.0424 Y22.9211 I-5.7079 J-0.0821
G3 X161.137 Y25.1863 I-6.3731 J-3.4266
G3 X158.5197 Y26.6172 I-5.5085 J-6.9669
G3 X155.5073 Y27.1875 I-3.0558 J-7.9002
G3 X155.4626 Y27.1872 I-0.0102 J-2.0
G3 X150.8188 Y26.0948 I0.1935 J-11.239
G3 X147.6396 Y24.2833 I10.6429 J-22.3741
G3 X146.1447 Y23.2727 I38.7461 J-58.9239
G1 X146.01 Y23.3986
G2 X147.4176 Y24.7745 I17.5201 J-16.5154
G3 X147.4292 Y24.785 I-1.3384 J1.4862
G2 X150.3658 Y26.7431 I7.8244 J-8.5531
G3 X150.3766 Y26.7482 I-0.8433 J1.8135
G2 X155.5863 Y27.9491 I5.3589 J-11.347
G2 X159.1682 Y27.3361 I-0.1456 J-11.6221
G3 X159.1926 Y27.328 I0.6414 J1.8944
G2 X162.5568 Y25.5136 I-3.2747 J-10.098
G3 X162.5757 Y25.4986 I1.2508 J1.5606
G2 X165.0147 Y22.6162 I-5.7134 J-7.3075
G3 X165.0403 Y22.5705 I1.7578 J0.9541
G2 X165.9856 Y18.9294 I-6.1184 J-3.5317
G3 X165.9854 Y18.9069 I1.9998 J-0.031
G2 X165.2994 Y15.0957 I-11.1926 J0.0473
G3 X165.2877 Y15.063 I1.8774 J-0.6895
G2 X163.3546 Y11.7468 I-9.4434 J3.283
G2 X160.0469 Y9.3682 I-7.464 J6.8904
G2 X157.5374 Y8.631 I-4.552 J10.8561
G0 Z3.0
G0 X184.5028 Y-21.4459
G0 Z1.0
G1 F300.0 Z-2.0
G3 F800.0 X186.3086 Y-23.906 I4.9103 J1.7115
G1 X186.7762 Y-24.2539
G3 X186.7188 Y-24.3079 I31.7958 J-33.8455
G1 X183.7991 Y-22.4124
G1 X183.8952 Y-22.3024
G3 X184.5028 Y-21.4459 I-3.9158 J3.4215
G1 F300.0 X183.111 Y-20.6567
G3 F800.0 X183.5795 Y-18.8809 I-3.1315 J1.7758
G1 Y15.2535
G3 X183.4869 Y20.4322 I-121.2852 J0.4212
G3 X183.4867 Y20.4361 I-3.5972 J-0.1412
G3 X182.7064 Y25.0624 I-18.5346 J-0.7473
G3 X182.6949 Y25.0997 I-3.4456 J-1.0429
G3 X182.6033 Y25.3829 I-17.455 J-5.4902
G3 X186.0002 Y27.5704 I0.0852 J3.599
G2 X186.9089 Y29.3824 I15.0551 J-6.4161
G3 X185.9943 Y24.082 I17.509 J-5.7503
G3 X185.8151 Y18.8827 I1860.3613 J-66.7422
G3 X185.8131 Y18.7637 I3.598 J-0.119
G1 Y-19.7344
G3 X187.2638 Y-22.6224 I3.6 J0.0
G1 X189.1955 Y-24.0599
G3 X189.3 Y-24.1348 I2.1492 J2.888
G3 X187.2583 Y-26.0073 I29.2721 J-33.9646
G3 X187.2257 Y-26.0396 I2.5141 J-2.5766
G2 X186.9129 Y-26.3415 I-8.4629 J8.455
G1 X181.3798 Y-22.7495
G1 X182.6904 Y-21.2496
G3 X183.111 Y-20.6567 I-2.7109 J2.3688
G1 F300.0 X181.7192 Y-19.8674
G3 F800.0 X181.9795 Y-18.8809 I-1.7397 J0.9866
G1 Y15.2563
G3 X181.8881 Y20.3695 I-119.6852 J0.4184
G3 X181.888 Y20.3716 I-1.9985 J-0.0785
G3 X181.175 Y24.5989 I-16.9359 J-0.6829
G3 X181.1686 Y24.6196 I-1.9142 J-0.5794
G3 X179.191 Y28.7851 I-15.9287 J-5.0101
G3 X176.6588 Y32.7295 I-198.9838 J-124.9557
G3 X176.8163 Y32.5404 I47.6647 J39.5268
G3 X178.7443 Y30.5688 I10.5949 J8.4324
G3 X178.9457 Y30.4213 I1.2801 J1.5367
G2 X179.8566 Y29.538 I-1.7193 J-2.6844
G3 X179.9304 Y29.4371 I1.6502 J1.13
G2 X180.8397 Y28.1326 I-11.5596 J-9.0258
G3 X181.0009 Y27.9084 I1.7004 J1.053
G3 X184.5283 Y28.1977 I1.6875 J1.0735
G2 X186.335 Y31.4531 I16.527 J-7.0434
G3 X186.3401 Y31.4603 I-1.6387 J1.1465
G2 X189.0231 Y34.5938 I16.6467 J-11.5381
G2 X192.3657 Y36.9157 I10.542 J-11.6092
G2 X196.756 Y38.618 I14.0627 J-29.7559
G2 X196.9263 Y38.2389 I-2.7212 J-1.4502
G3 X196.9817 Y38.1046 I1.8755 J0.6947
G2 X197.1271 Y37.7778 I-18.9167 J-8.6164
G3 X195.0778 Y36.5215 I25.7618 J-44.3233
G3 X191.7772 Y33.9721 I12.0012 J-18.9488
G3 X191.7718 Y33.967 I1.3644 J-1.4623
G3 X188.5974 Y29.3641 I9.0767 J-9.6559
G3 X188.5619 Y29.2718 I1.8489 J-0.7626
G3 X187.5936 Y24.034 I15.8559 J-5.6397
G3 X187.4142 Y18.8298 I1858.762 J-66.6942
G3 X187.4131 Y18.7637 I1.9989 J-0.0661
G1 Y-19.7344
G3 X188.2191 Y-21.3388 I2.0 J0.0
G1 X190.1507 Y-22.7763
