; generated by PrusaSlicer 2.0.0+win64 on 2019-12-27 at 17:15:39

; 

; external perimeters extrusion width = 0.45mm
; perimeters extrusion width = 0.45mm
; infill extrusion width = 0.45mm
; solid infill extrusion width = 0.45mm
; top infill extrusion width = 0.40mm
; first layer extrusion width = 0.42mm

M73 P0 R22
M201 X9000 Y9000 Z500 E10000 ; sets maximum accelerations, mm/sec^2
M203 X500 Y500 Z12 E120 ; sets maximum feedrates, mm/sec
M204 P2000 R1500 T2000 ; sets acceleration (P, T) and retract acceleration (R), mm/sec^2
M205 X10.00 Y10.00 Z0.20 E2.50 ; sets the jerk limits, mm/sec
M205 S0 T0 ; sets the minimum extruding and travel feed rate, mm/sec
M107
M115 U3.2.3 ; tell printer latest fw version
G90 ; use absolute coordinates
M83 ; extruder relative mode
M204 S2000 T1500 ; MK2 firmware only supports the old M204 format
M104 S215 ; set extruder temp
M140 S60 ; set bed temp
M190 S60 ; wait for bed temp
M109 S215 ; wait for extruder temp
G28 W ; home all without mesh bed level
G80 ; mesh bed leveling
G1 Y-3.0 F1000.0 ; go outside print area
G92 E0.0
G1 X60.0 E9.0  F1000.0 ; intro line
M73 P0 R21
G1 X100.0 E12.5 F1000.0 ; intro line
G92 E0.0
M900 K30 ; Filament gcode
G21 ; set units to millimeters
G90 ; use absolute coordinates
M83 ; use relative distances for extrusion
;BEFORE_LAYER_CHANGE
G92 E0.0
;0.2


G1 E-0.80000 F2100.00000
G1 Z0.600 F10800.000
;AFTER_LAYER_CHANGE
;0.2
G1 X104.380 Y92.883
G1 Z0.200
G1 E0.80000 F2100.00000
M204 S1000
G1 F1200
G1 X105.481 Y91.909 E0.04609
G1 X106.146 Y91.509 E0.02435
G1 X106.919 Y91.174 E0.02640
G1 X108.131 Y90.875 E0.03913
G1 X108.934 Y90.812 E0.02526
G1 X141.004 Y90.811 E1.00553
G1 X142.352 Y90.964 E0.04254
G1 X143.194 Y91.213 E0.02754
G1 X143.991 Y91.585 E0.02758
G1 X145.103 Y92.367 E0.04263
G1 X145.717 Y92.998 E0.02758
G1 X146.478 Y94.120 E0.04252
G1 X146.828 Y94.926 E0.02754
G1 X147.142 Y96.239 E0.04233
G1 X147.144 Y113.742 E0.54879
G1 X146.822 Y115.094 E0.04358
G1 X146.415 Y115.991 E0.03089
G1 X145.618 Y117.120 E0.04332
G1 X144.519 Y118.091 E0.04598
G1 X143.854 Y118.491 E0.02435
G1 X143.081 Y118.826 E0.02640
G1 X141.869 Y119.125 E0.03913
G1 X141.066 Y119.188 E0.02525
G1 X108.916 Y119.187 E1.00805
G1 X107.502 Y119.004 E0.04471
G1 X106.112 Y118.473 E0.04666
G1 X104.894 Y117.630 E0.04643
G1 X103.909 Y116.519 E0.04655
G1 X103.510 Y115.857 E0.02423
G1 X103.176 Y115.088 E0.02628
G1 X102.964 Y114.352 E0.02403
G1 X102.814 Y113.114 E0.03909
G1 X102.845 Y96.378 E0.52473
G1 X103.025 Y95.396 E0.03131
G1 X103.573 Y94.029 E0.04619
G1 X104.345 Y92.932 E0.04204
G1 F8640
G1 X105.481 Y91.909 E-0.35295
G1 X106.146 Y91.509 E-0.17931
G1 X106.919 Y91.174 E-0.19440
G1 X107.059 Y91.140 E-0.03335
G1 E-0.04000 F2100.00000
G1 Z0.800 F10800.000
G1 X123.627 Y109.500
G1 Z0.200
G1 E0.80000 F2100.00000
G1 F1200
G1 X123.939 Y109.235 E0.01282
G1 X124.300 Y109.044 E0.01282
G1 X124.694 Y108.934 E0.01282
G1 X125.102 Y108.912 E0.01282
G1 X125.506 Y108.978 E0.01282
G1 X125.886 Y109.130 E0.01282
G1 X126.224 Y109.359 E0.01282
G1 X126.505 Y109.656 E0.01282
G1 X126.716 Y110.006 E0.01282
G1 X126.846 Y110.394 E0.01282
G1 X126.891 Y110.800 E0.01282
G1 X126.846 Y111.206 E0.01282
G1 X126.716 Y111.594 E0.01282
G1 X126.505 Y111.944 E0.01282
G1 X126.224 Y112.241 E0.01282
G1 X125.886 Y112.470 E0.01282
G1 X125.506 Y112.622 E0.01282
G1 X125.102 Y112.688 E0.01282
G1 X124.694 Y112.666 E0.01282
G1 X124.300 Y112.556 E0.01282
G1 X123.939 Y112.365 E0.01282
G1 X123.627 Y112.100 E0.01282
G1 X123.380 Y111.775 E0.01282
G1 X123.208 Y111.404 E0.01282
G1 X123.121 Y111.004 E0.01282
G1 X123.121 Y110.596 E0.01282
G1 X123.208 Y110.196 E0.01282
G1 X123.380 Y109.825 E0.01282
G1 X123.591 Y109.548 E0.01094
G1 X123.891 Y109.776 F10800.000
G1 F1200
G1 X124.152 Y109.549 E0.01083
G1 X124.441 Y109.396 E0.01025
G1 X124.756 Y109.309 E0.01025
G1 X125.082 Y109.291 E0.01025
G1 X125.404 Y109.344 E0.01025
G1 X125.708 Y109.465 E0.01025
G1 X125.978 Y109.648 E0.01025
G1 X126.203 Y109.885 E0.01025
G1 X126.372 Y110.165 E0.01025
G1 X126.476 Y110.475 E0.01025
G1 X126.511 Y110.800 E0.01025
G1 X126.476 Y111.125 E0.01025
G1 X126.372 Y111.435 E0.01025
G1 X126.203 Y111.715 E0.01025
G1 X125.978 Y111.952 E0.01025
G1 X125.708 Y112.135 E0.01025
G1 X125.404 Y112.256 E0.01025
G1 X125.082 Y112.309 E0.01025
G1 X124.756 Y112.291 E0.01025
G1 X124.441 Y112.204 E0.01025
G1 X124.152 Y112.051 E0.01025
G1 X123.903 Y111.839 E0.01025
G1 X123.705 Y111.579 E0.01025
G1 X123.568 Y111.283 E0.01025
G1 X123.498 Y110.963 E0.01025
G1 X123.498 Y110.637 E0.01025
G1 X123.568 Y110.317 E0.01025
G1 X123.705 Y110.021 E0.01025
G1 X123.855 Y109.824 E0.00777
G1 X123.790 Y109.446 F10800.000
G1 F8640
G1 X124.152 Y109.549 E-0.09335
G1 X124.441 Y109.396 E-0.07546
G1 X124.756 Y109.309 E-0.07546
G1 X125.082 Y109.291 E-0.07546
G1 X125.404 Y109.344 E-0.07545
G1 X125.708 Y109.465 E-0.07546
G1 X125.978 Y109.648 E-0.07546
G1 X126.203 Y109.885 E-0.07546
G1 X126.372 Y110.165 E-0.07546
G1 X126.459 Y110.424 E-0.06300
G1 E-0.04000 F2100.00000
G1 Z0.800 F10800.000
G1 X113.818 Y103.810
G1 Z0.200
G1 E0.80000 F2100.00000
G1 F1200
G1 X113.610 Y104.170 E0.01305
G1 X113.332 Y104.479 E0.01305
G1 X112.995 Y104.724 E0.01305
G1 X112.615 Y104.893 E0.01305
G1 X112.208 Y104.979 E0.01305
G1 X111.792 Y104.979 E0.01305
G1 X111.385 Y104.893 E0.01305
G1 X111.005 Y104.724 E0.01305
G1 X110.668 Y104.479 E0.01305
G1 X110.390 Y104.170 E0.01305
G1 X110.182 Y103.810 E0.01305
G1 X110.053 Y103.414 E0.01305
G1 X110.011 Y103.012 E0.01268
G1 X110.053 Y102.588 E0.01335
G1 X110.182 Y102.190 E0.01311
G1 X110.390 Y101.830 E0.01305
G1 X110.668 Y101.521 E0.01305
G1 X111.005 Y101.276 E0.01305
G1 X111.385 Y101.107 E0.01305
G1 X111.792 Y101.021 E0.01305
G1 X112.208 Y101.021 E0.01305
G1 X112.615 Y101.107 E0.01305
G1 X112.995 Y101.276 E0.01305
G1 X113.332 Y101.521 E0.01305
G1 X113.610 Y101.830 E0.01305
G1 X113.818 Y102.190 E0.01305
G1 X113.947 Y102.586 E0.01305
G1 X113.990 Y103.000 E0.01305
G1 X113.947 Y103.414 E0.01305
G1 X113.837 Y103.752 E0.01116
G1 X113.478 Y103.636 F10800.000
G1 F1200
G1 X113.303 Y103.947 E0.01119
G1 X113.078 Y104.197 E0.01056
G1 X112.806 Y104.395 E0.01056
G1 X112.498 Y104.532 E0.01056
G1 X112.168 Y104.602 E0.01056
G1 X111.832 Y104.602 E0.01056
G1 X111.502 Y104.532 E0.01056
G1 X111.194 Y104.395 E0.01056
G1 X110.922 Y104.197 E0.01056
G1 X110.697 Y103.947 E0.01056
G1 X110.528 Y103.655 E0.01056
G1 X110.424 Y103.335 E0.01056
G1 X110.390 Y103.010 E0.01023
G1 X110.424 Y102.666 E0.01086
G1 X110.528 Y102.345 E0.01058
G1 X110.697 Y102.053 E0.01056
G1 X110.922 Y101.803 E0.01056
G1 X111.194 Y101.605 E0.01056
G1 X111.502 Y101.468 E0.01056
G1 X111.832 Y101.398 E0.01056
G1 X112.168 Y101.398 E0.01056
G1 X112.498 Y101.468 E0.01056
G1 X112.806 Y101.605 E0.01056
G1 X113.078 Y101.803 E0.01056
G1 X113.303 Y102.053 E0.01056
G1 X113.472 Y102.345 E0.01056
G1 X113.576 Y102.665 E0.01056
G1 X113.611 Y103.000 E0.01056
G1 X113.576 Y103.335 E0.01056
G1 X113.497 Y103.579 E0.00804
G1 X113.690 Y103.923 F10800.000
G1 F8640
G1 X113.303 Y103.947 E-0.09600
G1 X113.078 Y104.197 E-0.07777
G1 X112.806 Y104.395 E-0.07777
G1 X112.498 Y104.532 E-0.07777
G1 X112.168 Y104.602 E-0.07777
G1 X111.832 Y104.602 E-0.07777
G1 X111.502 Y104.532 E-0.07777
G1 X111.194 Y104.395 E-0.07777
G1 X110.922 Y104.197 E-0.07777
G1 X110.801 Y104.063 E-0.04181
G1 E-0.04000 F2100.00000
G1 Z0.800 F10800.000
G1 X136.010 Y103.000
G1 Z0.200
G1 E0.80000 F2100.00000
G1 F1200
G1 X136.053 Y102.586 E0.01305
G1 X136.182 Y102.190 E0.01305
G1 X136.390 Y101.830 E0.01305
G1 X136.668 Y101.521 E0.01305
G1 X137.005 Y101.276 E0.01305
G1 X137.385 Y101.107 E0.01305
G1 X137.792 Y101.021 E0.01305
G1 X138.208 Y101.021 E0.01305
G1 X138.615 Y101.107 E0.01305
G1 X138.995 Y101.276 E0.01305
G1 X139.332 Y101.521 E0.01305
G1 X139.610 Y101.830 E0.01305
G1 X139.818 Y102.190 E0.01305
G1 X139.947 Y102.586 E0.01305
G1 X139.990 Y103.000 E0.01305
G1 X139.947 Y103.414 E0.01305
G1 X139.818 Y103.810 E0.01305
G1 X139.610 Y104.170 E0.01305
G1 X139.332 Y104.479 E0.01305
G1 X138.995 Y104.724 E0.01305
G1 X138.615 Y104.893 E0.01305
G1 X138.208 Y104.979 E0.01305
G1 X137.792 Y104.979 E0.01305
G1 X137.385 Y104.893 E0.01305
G1 X137.005 Y104.724 E0.01305
G1 X136.668 Y104.479 E0.01305
G1 X136.390 Y104.170 E0.01305
G1 X136.182 Y103.810 E0.01305
G1 X136.053 Y103.414 E0.01305
G1 X136.016 Y103.060 E0.01116
G1 X136.391 Y103.020 F10800.000
G1 F1200
G1 X136.424 Y102.665 E0.01119
G1 X136.528 Y102.345 E0.01056
G1 X136.697 Y102.053 E0.01056
G1 X136.922 Y101.803 E0.01056
G1 X137.194 Y101.605 E0.01056
G1 X137.502 Y101.468 E0.01056
G1 X137.832 Y101.398 E0.01056
G1 X138.168 Y101.398 E0.01056
G1 X138.498 Y101.468 E0.01056
G1 X138.806 Y101.605 E0.01056
G1 X139.078 Y101.803 E0.01056
G1 X139.303 Y102.053 E0.01056
G1 X139.472 Y102.345 E0.01056
G1 X139.576 Y102.665 E0.01056
G1 X139.611 Y103.000 E0.01056
G1 X139.576 Y103.335 E0.01056
G1 X139.472 Y103.655 E0.01056
G1 X139.303 Y103.947 E0.01056
G1 X139.078 Y104.197 E0.01056
G1 X138.806 Y104.395 E0.01056
G1 X138.498 Y104.532 E0.01056
G1 X138.168 Y104.602 E0.01056
G1 X137.832 Y104.602 E0.01056
G1 X137.502 Y104.532 E0.01056
G1 X137.194 Y104.395 E0.01056
G1 X136.922 Y104.197 E0.01056
G1 X136.697 Y103.947 E0.01056
G1 X136.528 Y103.655 E0.01056
G1 X136.424 Y103.335 E0.01056
G1 X136.397 Y103.080 E0.00804
G1 X136.080 Y102.845 F10800.000
G1 F8640
G1 X136.424 Y102.665 E-0.09600
G1 X136.528 Y102.345 E-0.07777
G1 X136.697 Y102.053 E-0.07777
G1 X136.922 Y101.803 E-0.07777
G1 X137.194 Y101.605 E-0.07777
G1 X137.502 Y101.468 E-0.07777
G1 X137.832 Y101.398 E-0.07777
G1 X138.168 Y101.398 E-0.07777
G1 X138.498 Y101.468 E-0.07777
G1 X138.663 Y101.541 E-0.04181
G1 E-0.04000 F2100.00000
G1 Z0.800 F10800.000
G1 X122.948 Y107.587
G1 Z0.200
G1 E0.80000 F2100.00000
G1 F1200
G1 X127.052 Y107.587 E0.12865
G1 X127.052 Y93.587 E0.43896
G1 X140.982 Y93.587 E0.43678
G1 X141.411 Y93.613 E0.01348
G1 X141.817 Y93.687 E0.01292
G1 X142.210 Y93.810 E0.01292
G1 X142.586 Y93.979 E0.01292
G1 X142.938 Y94.192 E0.01292
G1 X143.262 Y94.446 E0.01292
G1 X143.554 Y94.738 E0.01292
G1 X143.808 Y95.062 E0.01292
G1 X144.021 Y95.414 E0.01292
G1 X144.190 Y95.790 E0.01292
G1 X144.313 Y96.183 E0.01292
G1 X144.387 Y96.589 E0.01292
G1 X144.413 Y97.018 E0.01348
G1 X144.413 Y112.982 E0.50056
G1 X144.387 Y113.411 E0.01348
G1 X144.313 Y113.817 E0.01292
G1 X144.190 Y114.210 E0.01292
G1 X144.021 Y114.586 E0.01292
G1 X143.808 Y114.938 E0.01292
G1 X143.554 Y115.262 E0.01292
G1 X143.262 Y115.554 E0.01292
G1 X142.938 Y115.808 E0.01292
G1 X142.586 Y116.021 E0.01292
G1 X142.210 Y116.190 E0.01292
G1 X141.817 Y116.313 E0.01292
G1 X141.426 Y116.384 E0.01245
G1 X140.981 Y116.413 E0.01398
G1 X109.018 Y116.413 E1.00219
G1 X108.589 Y116.387 E0.01348
G1 X108.183 Y116.313 E0.01292
G1 X107.790 Y116.190 E0.01292
G1 X107.428 Y116.027 E0.01245
G1 X107.061 Y115.807 E0.01342
G1 X106.738 Y115.554 E0.01288
G1 X106.446 Y115.262 E0.01292
G1 X106.192 Y114.938 E0.01292
G1 X105.987 Y114.598 E0.01245
G1 X105.810 Y114.209 E0.01342
G1 X105.687 Y113.817 E0.01288
G1 X105.613 Y113.411 E0.01292
G1 X105.587 Y112.982 E0.01348
G1 X105.587 Y97.018 E0.50056
G1 X105.613 Y96.589 E0.01348
G1 X105.687 Y96.183 E0.01292
G1 X105.810 Y95.790 E0.01292
G1 X105.979 Y95.414 E0.01292
G1 X106.192 Y95.062 E0.01292
G1 X106.446 Y94.738 E0.01292
G1 X106.738 Y94.446 E0.01292
G1 X107.062 Y94.192 E0.01292
G1 X107.414 Y93.979 E0.01292
G1 X107.790 Y93.810 E0.01292
G1 X108.183 Y93.687 E0.01292
G1 X108.589 Y93.613 E0.01292
G1 X109.018 Y93.587 E0.01348
G1 X122.948 Y93.587 E0.43679
G1 X122.948 Y107.527 E0.43708
G1 X123.326 Y107.210 F10800.000
G1 F1200
G1 X126.674 Y107.210 E0.10500
G1 X126.675 Y93.210 E0.43896
G1 X140.994 Y93.210 E0.44896
G1 X141.457 Y93.238 E0.01455
G1 X141.907 Y93.321 E0.01435
G1 X142.344 Y93.457 E0.01435
G1 X142.761 Y93.644 E0.01435
G1 X143.153 Y93.881 E0.01435
G1 X143.513 Y94.163 E0.01435
G1 X143.837 Y94.487 E0.01435
G1 X144.119 Y94.847 E0.01435
G1 X144.356 Y95.239 E0.01435
G1 X144.543 Y95.656 E0.01435
G1 X144.679 Y96.093 E0.01435
G1 X144.762 Y96.543 E0.01435
G1 X144.790 Y97.006 E0.01455
G1 X144.790 Y112.994 E0.50127
G1 X144.762 Y113.457 E0.01455
G1 X144.679 Y113.907 E0.01435
G1 X144.543 Y114.344 E0.01435
G1 X144.356 Y114.761 E0.01435
G1 X144.119 Y115.153 E0.01435
G1 X143.837 Y115.513 E0.01435
G1 X143.513 Y115.837 E0.01435
G1 X143.153 Y116.119 E0.01435
G1 X142.761 Y116.356 E0.01435
G1 X142.344 Y116.543 E0.01435
G1 X141.907 Y116.679 E0.01435
G1 X141.472 Y116.759 E0.01386
G1 X140.993 Y116.790 E0.01505
G1 X109.006 Y116.790 E1.00293
G1 X108.543 Y116.762 E0.01455
G1 X108.093 Y116.679 E0.01435
G1 X107.656 Y116.543 E0.01435
G1 X107.253 Y116.362 E0.01386
G1 X106.847 Y116.119 E0.01485
G1 X106.487 Y115.837 E0.01434
G1 X106.163 Y115.513 E0.01435
G1 X105.881 Y115.153 E0.01435
G1 X105.653 Y114.775 E0.01386
G1 X105.457 Y114.343 E0.01485
G1 X105.321 Y113.907 E0.01434
G1 X105.238 Y113.457 E0.01435
G1 X105.210 Y112.994 E0.01455
G1 X105.210 Y97.006 E0.50127
G1 X105.238 Y96.543 E0.01455
G1 X105.321 Y96.093 E0.01435
G1 X105.457 Y95.656 E0.01435
G1 X105.644 Y95.239 E0.01435
G1 X105.881 Y94.847 E0.01435
G1 X106.163 Y94.487 E0.01435
G1 X106.487 Y94.163 E0.01435
G1 X106.847 Y93.881 E0.01435
G1 X107.239 Y93.644 E0.01435
G1 X107.656 Y93.457 E0.01435
G1 X108.093 Y93.321 E0.01435
G1 X108.543 Y93.238 E0.01435
G1 X109.006 Y93.210 E0.01455
G1 X123.325 Y93.210 E0.44897
G1 X123.326 Y107.150 E0.43708
G1 X123.431 Y107.596 F10800.000
G1 F8640
G1 X126.616 Y107.209 E-0.76000
G1 E-0.04000 F2100.00000
G1 Z0.800 F10800.000
G1 X124.163 Y108.988
G1 Z0.200
G1 E0.80000 F2100.00000
G1 F1200
G1 X123.045 Y107.870 E0.04986
G1 X123.581 Y107.870 E0.01690
G1 X124.426 Y108.715 E0.03769
G1 X124.648 Y108.654 E0.00726
G1 X124.888 Y108.641 E0.00756
G1 X124.117 Y107.870 E0.03436
G1 X124.653 Y107.870 E0.01690
G1 X125.729 Y108.945 E0.04795
G1 F8640
G1 X124.653 Y107.870 E-0.35121
G1 X124.117 Y107.870 E-0.12379
G1 X124.888 Y108.641 E-0.25170
G1 X124.744 Y108.648 E-0.03329
G1 E-0.04000 F2100.00000
G1 Z0.800 F10800.000
G1 X122.958 Y111.536
G1 Z0.200
G1 E0.80000 F2100.00000
G1 F1200
G1 X114.257 Y102.835 E0.38788
G1 X114.275 Y103.000 E0.00522
G1 X114.238 Y103.352 E0.01115
G1 X127.016 Y116.130 E0.56965
G1 X126.480 Y116.130 E0.01690
G1 X114.126 Y103.777 E0.55071
G1 X114.078 Y103.925 E0.00492
G1 X113.954 Y104.140 E0.00783
G1 X125.944 Y116.130 E0.53450
G1 X125.408 Y116.130 E0.01690
G1 X113.733 Y104.456 E0.52043
G1 X113.470 Y104.728 E0.01195
G1 X124.871 Y116.130 E0.50828
G1 X124.335 Y116.130 E0.01690
G1 X113.159 Y104.954 E0.49822
G1 X112.792 Y105.123 E0.01273
G1 X123.799 Y116.130 E0.49067
G1 X123.263 Y116.130 E0.01690
G1 X112.367 Y105.235 E0.48572
G1 X112.238 Y105.262 E0.00418
G1 X111.859 Y105.262 E0.01194
G1 X122.727 Y116.130 E0.48449
G1 X122.191 Y116.130 E0.01690
G1 X111.165 Y105.105 E0.49151
G1 F8640
G1 X113.493 Y107.432 E-0.76000
G1 E-0.04000 F2100.00000
G1 Z0.800 F10800.000
G1 X109.891 Y103.831
G1 Z0.200
G1 E0.80000 F2100.00000
G1 F1200
G1 X105.870 Y99.809 E0.17927
G1 X105.870 Y99.273 E0.01690
G1 X109.740 Y103.144 E0.17255
G1 X109.727 Y103.013 E0.00415
G1 X109.764 Y102.631 E0.01208
G1 X105.870 Y98.737 E0.17361
G1 X105.870 Y98.201 E0.01690
G1 X109.878 Y102.209 E0.17869
G1 X109.922 Y102.075 E0.00446
G1 X110.053 Y101.848 E0.00826
G1 X105.870 Y97.665 E0.18648
G1 X105.870 Y97.129 E0.01690
G1 X110.276 Y101.534 E0.19640
G1 X110.478 Y101.310 E0.00953
G1 X110.541 Y101.264 E0.00246
G1 X105.895 Y96.618 E0.20711
G1 X105.987 Y96.173 E0.01431
G1 X110.852 Y101.038 E0.21688
G1 X111.220 Y100.871 E0.01277
G1 X106.126 Y95.776 E0.22710
G1 X106.306 Y95.420 E0.01258
G1 X111.648 Y100.762 E0.23814
G1 X111.762 Y100.738 E0.00369
G1 X112.160 Y100.738 E0.01253
G1 X106.522 Y95.100 E0.25134
G1 X106.771 Y94.813 E0.01198
G1 X112.868 Y100.910 E0.27182
G1 F8640
G1 X110.541 Y98.583 E-0.76000
G1 E-0.04000 F2100.00000
G1 Z0.800 F10800.000
G1 X114.100 Y102.142
G1 Z0.200
G1 E0.80000 F2100.00000
G1 F1200
G1 X122.838 Y110.880 E0.38954
G1 X122.838 Y110.565 E0.00993
G1 X122.878 Y110.384 E0.00585
G1 X107.053 Y94.559 E0.70547
G1 X107.368 Y94.338 E0.01213
G1 X123.001 Y109.971 E0.69692
G1 X123.136 Y109.679 E0.01015
G1 X123.183 Y109.617 E0.00245
G1 X107.719 Y94.152 E0.68941
G1 X108.109 Y94.007 E0.01314
