; generated by PrusaSlicer 2.0.0+win64 on 2019-12-27 at 17:59:50

; 

; external perimeters extrusion width = 0.45mm
; perimeters extrusion width = 0.45mm
; infill extrusion width = 0.45mm
; solid infill extrusion width = 0.45mm
; top infill extrusion width = 0.40mm
; first layer extrusion width = 0.42mm

M73 P0 R44
M201 X9000 Y9000 Z500 E10000 ; sets maximum accelerations, mm/sec^2
M203 X500 Y500 Z12 E120 ; sets maximum feedrates, mm/sec
M204 P2000 R1500 T2000 ; sets acceleration (P, T) and retract acceleration (R), mm/sec^2
M205 X10.00 Y10.00 Z0.20 E2.50 ; sets the jerk limits, mm/sec
M205 S0 T0 ; sets the minimum extruding and travel feed rate, mm/sec
M107
M115 U3.2.3 ; tell printer latest fw version
G90 ; use absolute coordinates
M83 ; extruder relative mode
M204 S2000 T1500 ; MK2 firmware only supports the old M204 format
M104 S215 ; set extruder temp
M140 S60 ; set bed temp
M190 S60 ; wait for bed temp
M109 S215 ; wait for extruder temp
G28 W ; home all without mesh bed level
G80 ; mesh bed leveling
G1 Y-3.0 F1000.0 ; go outside print area
G92 E0.0
G1 X60.0 E9.0  F1000.0 ; intro line
M73 P0 R44
G1 X100.0 E12.5 F1000.0 ; intro line
G92 E0.0
M900 K30 ; Filament gcode
G21 ; set units to millimeters
G90 ; use absolute coordinates
M83 ; use relative distances for extrusion
;BEFORE_LAYER_CHANGE
G92 E0.0
;0.2


G1 E-0.80000 F2100.00000
G1 Z0.600 F10800.000
;AFTER_LAYER_CHANGE
;0.2
G1 X106.255 Y100.695
G1 Z0.200
G1 E0.80000 F2100.00000
M204 S1000
G1 F1200
G1 X107.382 Y99.700 E0.04712
G1 X108.707 Y99.008 E0.04689
G1 X110.212 Y98.650 E0.04848
G1 X142.889 Y98.612 E1.02458
G1 X144.237 Y98.764 E0.04254
G1 X145.083 Y99.015 E0.02765
G1 X146.293 Y99.638 E0.04267
G1 X146.997 Y100.175 E0.02777
G1 X147.902 Y101.181 E0.04244
G1 X148.372 Y101.937 E0.02789
G1 X148.863 Y103.206 E0.04267
G1 X149.035 Y104.116 E0.02903
G1 X149.418 Y141.864 E1.18362
G1 X149.418 Y157.891 E0.50253
G1 X149.237 Y159.364 E0.04653
G1 X148.702 Y160.769 E0.04712
G1 X147.857 Y161.989 E0.04655
G1 X146.724 Y162.987 E0.04734
G1 X145.397 Y163.677 E0.04689
G1 X144.682 Y163.896 E0.02343
G1 X143.852 Y164.035 E0.02640
G1 X111.185 Y164.068 E1.02424
G1 X109.738 Y163.887 E0.04573
G1 X108.341 Y163.353 E0.04689
G1 X107.107 Y162.496 E0.04712
G1 X106.578 Y161.963 E0.02355
G1 X106.073 Y161.298 E0.02617
G1 X105.692 Y160.637 E0.02392
G1 X105.256 Y159.489 E0.03852
G1 X105.043 Y157.983 E0.04767
G1 X104.697 Y120.814 E1.16548
G1 X104.697 Y104.786 E0.50253
G1 X104.878 Y103.313 E0.04653
G1 X105.412 Y101.912 E0.04701
G1 X106.221 Y100.744 E0.04456
G1 F8640
G1 X107.382 Y99.700 E-0.36045
G1 X108.707 Y99.008 E-0.34531
G1 X108.936 Y98.954 E-0.05424
G1 E-0.04000 F2100.00000
G1 Z0.800 F10800.000
G1 X126.529 Y153.924
G1 Z0.200
G1 E0.80000 F2100.00000
G1 F1200
G1 X126.923 Y153.815 E0.01282
G1 X127.332 Y153.793 E0.01282
G1 X127.735 Y153.859 E0.01282
G1 X128.115 Y154.010 E0.01282
G1 X128.453 Y154.239 E0.01282
G1 X128.734 Y154.536 E0.01282
G1 X128.945 Y154.886 E0.01282
G1 X129.076 Y155.274 E0.01282
G1 X129.120 Y155.680 E0.01282
G1 X129.076 Y156.087 E0.01282
G1 X128.945 Y156.474 E0.01282
G1 X128.734 Y156.824 E0.01282
G1 X128.453 Y157.121 E0.01282
G1 X128.115 Y157.351 E0.01282
G1 X127.735 Y157.502 E0.01282
G1 X127.332 Y157.568 E0.01282
G1 X126.923 Y157.546 E0.01282
G1 X126.529 Y157.437 E0.01282
G1 X126.168 Y157.245 E0.01282
G1 X125.857 Y156.980 E0.01282
G1 X125.609 Y156.655 E0.01282
G1 X125.438 Y156.284 E0.01282
G1 X125.350 Y155.885 E0.01282
G1 X125.350 Y155.476 E0.01282
G1 X125.438 Y155.077 E0.01282
G1 X125.609 Y154.706 E0.01282
G1 X125.857 Y154.380 E0.01282
G1 X126.168 Y154.116 E0.01282
G1 X126.476 Y153.952 E0.01094
G1 X126.653 Y154.285 F10800.000
G1 F1200
G1 X126.985 Y154.189 E0.01083
G1 X127.311 Y154.171 E0.01025
G1 X127.633 Y154.224 E0.01025
G1 X127.937 Y154.345 E0.01025
G1 X128.208 Y154.528 E0.01025
G1 X128.432 Y154.766 E0.01025
G1 X128.601 Y155.046 E0.01025
G1 X128.705 Y155.355 E0.01025
G1 X128.740 Y155.680 E0.01025
G1 X128.705 Y156.005 E0.01025
G1 X128.601 Y156.315 E0.01025
G1 X128.432 Y156.595 E0.01025
G1 X128.208 Y156.832 E0.01025
G1 X127.937 Y157.015 E0.01025
G1 X127.633 Y157.136 E0.01025
G1 X127.311 Y157.189 E0.01025
G1 X126.985 Y157.172 E0.01025
G1 X126.670 Y157.084 E0.01025
G1 X126.381 Y156.931 E0.01025
G1 X126.132 Y156.720 E0.01025
G1 X125.934 Y156.459 E0.01025
G1 X125.797 Y156.163 E0.01025
G1 X125.727 Y155.844 E0.01025
G1 X125.727 Y155.517 E0.01025
G1 X125.797 Y155.198 E0.01025
G1 X125.934 Y154.901 E0.01025
G1 X126.132 Y154.641 E0.01025
G1 X126.381 Y154.429 E0.01025
G1 X126.600 Y154.313 E0.00777
G1 X126.700 Y153.943 F10800.000
G1 F8640
G1 X126.985 Y154.189 E-0.09335
G1 X127.311 Y154.171 E-0.07546
G1 X127.633 Y154.224 E-0.07545
G1 X127.937 Y154.345 E-0.07546
G1 X128.208 Y154.528 E-0.07546
G1 X128.432 Y154.766 E-0.07546
G1 X128.601 Y155.046 E-0.07546
G1 X128.705 Y155.355 E-0.07546
G1 X128.740 Y155.680 E-0.07546
G1 X128.711 Y155.952 E-0.06300
G1 E-0.04000 F2100.00000
G1 Z0.800 F10800.000
G1 X116.047 Y148.690
G1 Z0.200
G1 E0.80000 F2100.00000
G1 F1200
G1 X115.839 Y149.050 E0.01305
G1 X115.561 Y149.359 E0.01305
G1 X115.224 Y149.604 E0.01305
G1 X114.844 Y149.773 E0.01305
G1 X114.437 Y149.860 E0.01305
G1 X114.021 Y149.860 E0.01305
G1 X113.614 Y149.773 E0.01305
G1 X113.234 Y149.604 E0.01305
G1 X112.897 Y149.359 E0.01305
G1 X112.619 Y149.050 E0.01305
G1 X112.411 Y148.690 E0.01305
G1 X112.282 Y148.294 E0.01305
G1 X112.240 Y147.892 E0.01268
G1 X112.282 Y147.468 E0.01335
G1 X112.411 Y147.071 E0.01311
G1 X112.619 Y146.710 E0.01305
G1 X112.897 Y146.401 E0.01305
G1 X113.234 Y146.157 E0.01305
G1 X113.614 Y145.987 E0.01305
G1 X114.021 Y145.901 E0.01305
G1 X114.437 Y145.901 E0.01305
G1 X114.844 Y145.987 E0.01305
G1 X115.224 Y146.157 E0.01305
G1 X115.561 Y146.401 E0.01305
G1 X115.839 Y146.710 E0.01305
G1 X116.047 Y147.071 E0.01305
G1 X116.176 Y147.466 E0.01305
G1 X116.220 Y147.880 E0.01305
G1 X116.176 Y148.294 E0.01305
G1 X116.066 Y148.633 E0.01116
G1 X115.707 Y148.516 F10800.000
G1 F1200
G1 X115.533 Y148.827 E0.01119
G1 X115.307 Y149.078 E0.01056
G1 X115.035 Y149.276 E0.01056
G1 X114.727 Y149.413 E0.01056
G1 X114.398 Y149.483 E0.01056
G1 X114.061 Y149.483 E0.01056
G1 X113.731 Y149.413 E0.01056
G1 X113.424 Y149.276 E0.01056
G1 X113.151 Y149.078 E0.01056
G1 X112.926 Y148.827 E0.01056
G1 X112.757 Y148.536 E0.01056
G1 X112.653 Y148.215 E0.01056
G1 X112.619 Y147.891 E0.01023
G1 X112.653 Y147.546 E0.01086
G1 X112.757 Y147.225 E0.01058
G1 X112.926 Y146.933 E0.01056
G1 X113.151 Y146.683 E0.01056
G1 X113.424 Y146.485 E0.01056
G1 X113.731 Y146.348 E0.01056
G1 X114.061 Y146.278 E0.01056
G1 X114.398 Y146.278 E0.01056
G1 X114.727 Y146.348 E0.01056
G1 X115.035 Y146.485 E0.01056
G1 X115.307 Y146.683 E0.01056
G1 X115.533 Y146.933 E0.01056
G1 X115.701 Y147.225 E0.01056
G1 X115.805 Y147.545 E0.01056
G1 X115.840 Y147.880 E0.01056
G1 X115.805 Y148.215 E0.01056
G1 X115.726 Y148.459 E0.00804
G1 X115.920 Y148.803 F10800.000
G1 F8640
G1 X115.533 Y148.827 E-0.09600
G1 X115.307 Y149.078 E-0.07777
G1 X115.035 Y149.276 E-0.07777
G1 X114.727 Y149.413 E-0.07777
G1 X114.398 Y149.483 E-0.07777
G1 X114.061 Y149.483 E-0.07777
G1 X113.731 Y149.413 E-0.07777
G1 X113.424 Y149.276 E-0.07777
G1 X113.151 Y149.078 E-0.07777
G1 X113.030 Y148.943 E-0.04181
G1 E-0.04000 F2100.00000
G1 Z0.800 F10800.000
G1 X138.239 Y147.880
G1 Z0.200
G1 E0.80000 F2100.00000
G1 F1200
G1 X138.282 Y147.466 E0.01305
G1 X138.411 Y147.071 E0.01305
G1 X138.619 Y146.710 E0.01305
G1 X138.897 Y146.401 E0.01305
G1 X139.234 Y146.157 E0.01305
G1 X139.614 Y145.987 E0.01305
G1 X140.021 Y145.901 E0.01305
G1 X140.437 Y145.901 E0.01305
G1 X140.844 Y145.987 E0.01305
G1 X141.224 Y146.157 E0.01305
G1 X141.561 Y146.401 E0.01305
G1 X141.839 Y146.710 E0.01305
G1 X142.047 Y147.071 E0.01305
G1 X142.176 Y147.466 E0.01305
G1 X142.220 Y147.880 E0.01305
G1 X142.176 Y148.294 E0.01305
G1 X142.047 Y148.690 E0.01305
G1 X141.839 Y149.050 E0.01305
G1 X141.561 Y149.359 E0.01305
G1 X141.224 Y149.604 E0.01305
G1 X140.844 Y149.773 E0.01305
G1 X140.437 Y149.860 E0.01305
G1 X140.021 Y149.860 E0.01305
G1 X139.614 Y149.773 E0.01305
G1 X139.234 Y149.604 E0.01305
G1 X138.897 Y149.359 E0.01305
G1 X138.619 Y149.050 E0.01305
G1 X138.411 Y148.690 E0.01305
G1 X138.282 Y148.294 E0.01305
G1 X138.245 Y147.940 E0.01116
G1 X138.620 Y147.901 F10800.000
G1 F1200
G1 X138.653 Y147.545 E0.01119
G1 X138.757 Y147.225 E0.01056
G1 X138.926 Y146.933 E0.01056
G1 X139.151 Y146.683 E0.01056
G1 X139.424 Y146.485 E0.01056
G1 X139.731 Y146.348 E0.01056
G1 X140.061 Y146.278 E0.01056
G1 X140.398 Y146.278 E0.01056
G1 X140.727 Y146.348 E0.01056
G1 X141.035 Y146.485 E0.01056
G1 X141.307 Y146.683 E0.01056
G1 X141.533 Y146.933 E0.01056
G1 X141.701 Y147.225 E0.01056
G1 X141.805 Y147.545 E0.01056
G1 X141.840 Y147.880 E0.01056
G1 X141.805 Y148.215 E0.01056
G1 X141.701 Y148.536 E0.01056
G1 X141.533 Y148.827 E0.01056
G1 X141.307 Y149.078 E0.01056
G1 X141.035 Y149.276 E0.01056
G1 X140.727 Y149.413 E0.01056
G1 X140.398 Y149.483 E0.01056
G1 X140.061 Y149.483 E0.01056
G1 X139.731 Y149.413 E0.01056
G1 X139.424 Y149.276 E0.01056
G1 X139.151 Y149.078 E0.01056
G1 X138.926 Y148.827 E0.01056
G1 X138.757 Y148.536 E0.01056
G1 X138.653 Y148.215 E0.01056
G1 X138.626 Y147.960 E0.00804
G1 X138.310 Y147.725 F10800.000
G1 F8640
G1 X138.653 Y147.545 E-0.09600
G1 X138.757 Y147.225 E-0.07777
G1 X138.926 Y146.933 E-0.07777
G1 X139.151 Y146.683 E-0.07777
G1 X139.424 Y146.485 E-0.07777
G1 X139.731 Y146.348 E-0.07777
G1 X140.061 Y146.278 E-0.07777
G1 X140.398 Y146.278 E-0.07777
G1 X140.727 Y146.348 E-0.07777
G1 X140.892 Y146.422 E-0.04181
G1 E-0.04000 F2100.00000
G1 Z0.800 F10800.000
G1 X125.178 Y152.467
G1 Z0.200
G1 E0.80000 F2100.00000
G1 F1200
G1 X129.281 Y152.467 E0.12865
G1 X129.281 Y138.467 E0.43896
G1 X143.211 Y138.467 E0.43678
G1 X143.640 Y138.493 E0.01348
G1 X144.046 Y138.568 E0.01292
G1 X144.439 Y138.690 E0.01292
G1 X144.815 Y138.859 E0.01292
G1 X145.167 Y139.072 E0.01292
G1 X145.492 Y139.326 E0.01292
G1 X145.783 Y139.618 E0.01292
G1 X146.037 Y139.942 E0.01292
G1 X146.250 Y140.295 E0.01292
G1 X146.419 Y140.670 E0.01292
G1 X146.542 Y141.064 E0.01292
G1 X146.616 Y141.469 E0.01292
G1 X146.642 Y141.898 E0.01348
G1 X146.642 Y157.863 E0.50056
G1 X146.616 Y158.292 E0.01348
G1 X146.542 Y158.697 E0.01292
G1 X146.419 Y159.090 E0.01292
G1 X146.250 Y159.466 E0.01292
G1 X146.037 Y159.818 E0.01292
G1 X145.783 Y160.143 E0.01292
G1 X145.492 Y160.434 E0.01292
G1 X145.167 Y160.688 E0.01292
G1 X144.815 Y160.901 E0.01292
G1 X144.439 Y161.070 E0.01292
G1 X144.046 Y161.193 E0.01292
G1 X143.655 Y161.265 E0.01245
G1 X143.210 Y161.293 E0.01398
G1 X111.247 Y161.293 E1.00219
G1 X110.818 Y161.267 E0.01348
G1 X110.413 Y161.193 E0.01292
G1 X110.019 Y161.070 E0.01292
G1 X109.657 Y160.907 E0.01245
G1 X109.290 Y160.687 E0.01342
G1 X108.967 Y160.434 E0.01288
G1 X108.675 Y160.143 E0.01292
G1 X108.421 Y159.818 E0.01292
G1 X108.216 Y159.479 E0.01245
G1 X108.039 Y159.089 E0.01342
G1 X107.916 Y158.697 E0.01288
G1 X107.842 Y158.292 E0.01292
G1 X107.816 Y157.863 E0.01348
G1 X107.816 Y141.898 E0.50056
G1 X107.842 Y141.469 E0.01348
G1 X107.916 Y141.064 E0.01292
G1 X108.039 Y140.670 E0.01292
G1 X108.208 Y140.295 E0.01292
G1 X108.421 Y139.942 E0.01292
G1 X108.675 Y139.618 E0.01292
G1 X108.967 Y139.326 E0.01292
G1 X109.291 Y139.072 E0.01292
G1 X109.644 Y138.859 E0.01292
G1 X110.019 Y138.690 E0.01292
G1 X110.413 Y138.568 E0.01292
G1 X110.818 Y138.493 E0.01292
G1 X111.247 Y138.467 E0.01348
G1 X125.178 Y138.467 E0.43679
G1 X125.178 Y152.407 E0.43708
G1 X125.555 Y152.090 F10800.000
G1 F1200
G1 X128.904 Y152.090 E0.10500
G1 X128.904 Y138.090 E0.43896
G1 X143.223 Y138.090 E0.44896
G1 X143.686 Y138.118 E0.01455
G1 X144.136 Y138.201 E0.01435
G1 X144.573 Y138.337 E0.01435
G1 X144.990 Y138.525 E0.01435
G1 X145.382 Y138.762 E0.01435
G1 X145.742 Y139.044 E0.01435
G1 X146.066 Y139.367 E0.01435
G1 X146.348 Y139.728 E0.01435
G1 X146.585 Y140.119 E0.01435
G1 X146.773 Y140.536 E0.01435
G1 X146.909 Y140.973 E0.01435
G1 X146.991 Y141.424 E0.01435
G1 X147.019 Y141.887 E0.01455
G1 X147.019 Y157.874 E0.50127
G1 X146.991 Y158.337 E0.01455
G1 X146.909 Y158.787 E0.01435
G1 X146.773 Y159.224 E0.01435
G1 X146.585 Y159.641 E0.01435
G1 X146.348 Y160.033 E0.01435
G1 X146.066 Y160.393 E0.01435
G1 X145.742 Y160.717 E0.01435
G1 X145.382 Y160.999 E0.01435
G1 X144.990 Y161.236 E0.01435
G1 X144.573 Y161.424 E0.01435
G1 X144.136 Y161.560 E0.01435
G1 X143.701 Y161.639 E0.01386
G1 X143.222 Y161.670 E0.01505
G1 X111.236 Y161.670 E1.00293
G1 X110.772 Y161.642 E0.01455
G1 X110.322 Y161.560 E0.01435
G1 X109.885 Y161.424 E0.01435
G1 X109.482 Y161.242 E0.01386
G1 X109.076 Y160.999 E0.01485
G1 X108.716 Y160.717 E0.01434
G1 X108.393 Y160.393 E0.01435
G1 X108.110 Y160.033 E0.01435
G1 X107.882 Y159.655 E0.01386
G1 X107.686 Y159.224 E0.01485
G1 X107.550 Y158.787 E0.01434
G1 X107.467 Y158.337 E0.01435
G1 X107.439 Y157.874 E0.01455
G1 X107.439 Y141.887 E0.50127
G1 X107.467 Y141.424 E0.01455
G1 X107.550 Y140.973 E0.01435
G1 X107.686 Y140.536 E0.01435
G1 X107.874 Y140.119 E0.01435
G1 X108.110 Y139.728 E0.01435
G1 X108.393 Y139.367 E0.01435
G1 X108.716 Y139.044 E0.01435
G1 X109.076 Y138.762 E0.01435
G1 X109.468 Y138.525 E0.01435
G1 X109.885 Y138.337 E0.01435
G1 X110.322 Y138.201 E0.01435
G1 X110.772 Y138.118 E0.01435
G1 X111.236 Y138.090 E0.01455
G1 X125.555 Y138.090 E0.44897
G1 X125.555 Y152.030 E0.43708
G1 X125.660 Y152.476 F10800.000
G1 F8640
G1 X128.846 Y152.089 E-0.76000
G1 E-0.04000 F2100.00000
G1 Z0.800 F10800.000
G1 X126.392 Y153.869
G1 Z0.200
G1 E0.80000 F2100.00000
G1 F1200
G1 X125.274 Y152.750 E0.04986
G1 X125.810 Y152.750 E0.01690
G1 X126.655 Y153.596 E0.03769
G1 X126.877 Y153.534 E0.00726
G1 X127.117 Y153.521 E0.00756
G1 X126.346 Y152.750 E0.03436
G1 X126.882 Y152.750 E0.01690
G1 X127.958 Y153.826 E0.04795
G1 F8640
G1 X126.882 Y152.750 E-0.35121
G1 X126.346 Y152.750 E-0.12379
G1 X127.117 Y153.521 E-0.25170
G1 X126.973 Y153.529 E-0.03329
G1 E-0.04000 F2100.00000
G1 Z0.800 F10800.000
G1 X125.187 Y156.417
G1 Z0.200
G1 E0.80000 F2100.00000
G1 F1200
G1 X116.487 Y147.716 E0.38788
G1 X116.504 Y147.880 E0.00522
G1 X116.467 Y148.232 E0.01115
G1 X129.245 Y161.010 E0.56965
G1 X128.709 Y161.010 E0.01690
G1 X116.355 Y148.657 E0.55071
G1 X116.307 Y148.805 E0.00492
G1 X116.183 Y149.021 E0.00783
G1 X128.173 Y161.010 E0.53450
G1 X127.637 Y161.010 E0.01690
G1 X115.962 Y149.336 E0.52043
G1 X115.699 Y149.609 E0.01195
G1 X127.101 Y161.010 E0.50828
G1 X126.564 Y161.010 E0.01690
G1 X115.388 Y149.834 E0.49822
G1 X115.022 Y150.004 E0.01273
G1 X126.028 Y161.010 E0.49067
G1 X125.492 Y161.010 E0.01690
G1 X114.597 Y150.115 E0.48572
G1 X114.467 Y150.142 E0.00418
G1 X114.088 Y150.142 E0.01194
G1 X124.956 Y161.010 E0.48449
G1 X124.420 Y161.010 E0.01690
G1 X113.394 Y149.985 E0.49151
G1 F8640
G1 X115.722 Y152.312 E-0.76000
G1 E-0.04000 F2100.00000
G1 Z0.800 F10800.000
G1 X112.120 Y148.711
G1 Z0.200
G1 E0.80000 F2100.00000
G1 F1200
G1 X108.099 Y144.690 E0.17927
G1 X108.099 Y144.153 E0.01690
G1 X111.970 Y148.024 E0.17255
G1 X111.956 Y147.893 E0.00415
G1 X111.993 Y147.512 E0.01208
G1 X108.099 Y143.617 E0.17361
G1 X108.099 Y143.081 E0.01690
G1 X112.107 Y147.090 E0.17869
G1 X112.151 Y146.955 E0.00446
G1 X112.282 Y146.728 E0.00826
G1 X108.099 Y142.545 E0.18648
G1 X108.099 Y142.009 E0.01690
G1 X112.505 Y146.415 E0.19640
G1 X112.707 Y146.190 E0.00953
G1 X112.770 Y146.144 E0.00246
G1 X108.124 Y141.498 E0.20711
G1 X108.216 Y141.053 E0.01431
G1 X113.081 Y145.918 E0.21688
G1 X113.450 Y145.751 E0.01277
G1 X108.355 Y140.657 E0.22710
G1 X108.535 Y140.300 E0.01258
G1 X113.877 Y145.642 E0.23814
G1 X113.991 Y145.618 E0.00369
G1 X114.389 Y145.618 E0.01253
G1 X108.751 Y139.980 E0.25134
G1 X109.000 Y139.693 E0.01198
G1 X115.098 Y145.791 E0.27182
G1 F8640
G1 X112.770 Y143.463 E-0.76000
G1 E-0.04000 F2100.00000
G1 Z0.800 F10800.000
G1 X116.329 Y147.022
G1 Z0.200
G1 E0.80000 F2100.00000
G1 F1200
G1 X125.067 Y155.760 E0.38954
G1 X125.067 Y155.445 E0.00993
G1 X125.107 Y155.264 E0.00585
G1 X109.282 Y139.439 E0.70547
G1 X109.597 Y139.218 E0.01213
G1 X125.230 Y154.851 E0.69692
G1 X125.366 Y154.559 E0.01015
G1 X125.413 Y154.497 E0.00245
G1 X109.948 Y139.032 E0.68941
