; generated by PrusaSlicer 2.1.1+win64 on 2020-03-11 at 17:21:07 UTC

; 

; external perimeters extrusion width = 0.45mm
; perimeters extrusion width = 0.45mm
; infill extrusion width = 0.45mm
; solid infill extrusion width = 0.45mm
; top infill extrusion width = 0.40mm
; first layer extrusion width = 0.42mm

M73 P0 R117
M201 X9000 Y9000 Z500 E10000 ; sets maximum accelerations, mm/sec^2
M203 X500 Y500 Z12 E120 ; sets maximum feedrates, mm/sec
M204 P2000 R1500 T2000 ; sets acceleration (P, T) and retract acceleration (R), mm/sec^2
M205 X10.00 Y10.00 Z0.20 E2.50 ; sets the jerk limits, mm/sec
M205 S0 T0 ; sets the minimum extruding and travel feed rate, mm/sec
M107
M862.3 P "MK2S" ; printer model check
M862.1 P0.4 ; nozzle diameter check
M115 U3.2.3 ; tell printer latest fw version
G90 ; use absolute coordinates
M83 ; extruder relative mode
M204 S2000 T1500 ; MK2 firmware only supports the old M204 format
M104 S215 ; set extruder temp
M140 S60 ; set bed temp
M190 S60 ; wait for bed temp
M109 S215 ; wait for extruder temp
G28 W ; home all without mesh bed level
G80 ; mesh bed leveling
G1 Y-3.0 F1000.0 ; go outside print area
G92 E0.0
G1 X60.0 E9.0  F1000.0 ; intro line
M73 P0 R117
G1 X100.0 E12.5 F1000.0 ; intro line
G92 E0.0
G21 ; set units to millimeters
G90 ; use absolute coordinates
M83 ; use relative distances for extrusion
M900 K30 ; Filament gcode
;BEFORE_LAYER_CHANGE
G92 E0.0
;0.2


G1 E-0.80000 F2100.00000
G1 Z0.600 F10800.000
;AFTER_LAYER_CHANGE
;0.2
G1 X66.192 Y120.437
G1 Z0.200
G1 E0.80000 F2100.00000
M204 S1000
G1 F1200
G1 X65.741 Y119.889 E0.02225
G1 X65.522 Y119.365 E0.01783
G1 X65.445 Y118.798 E0.01794
G1 X65.449 Y69.993 E1.53025
G1 X65.581 Y68.234 E0.05528
G1 X66.092 Y66.128 E0.06795
G1 X66.767 Y64.519 E0.05471
G1 X67.737 Y62.934 E0.05827
G1 X69.096 Y61.369 E0.06499
G1 X70.419 Y60.248 E0.05437
G1 X71.923 Y59.320 E0.05540
G1 X73.927 Y58.495 E0.06795
G1 X75.622 Y58.096 E0.05460
G1 X77.471 Y57.949 E0.05815
G1 X172.504 Y57.945 E2.97969
G1 X174.404 Y58.097 E0.05977
G1 X176.386 Y58.595 E0.06410
G1 X177.973 Y59.259 E0.05392
G1 X179.455 Y60.160 E0.05439
G1 X181.016 Y61.468 E0.06386
G1 X182.263 Y62.929 E0.06022
G1 X183.308 Y64.673 E0.06375
G1 X183.965 Y66.275 E0.05427
G1 X184.373 Y67.949 E0.05404
G1 X184.551 Y69.868 E0.06043
G1 X184.555 Y140.004 E2.19904
G1 X184.426 Y141.719 E0.05393
G1 X183.912 Y143.869 E0.06932
G1 X183.236 Y145.482 E0.05485
G1 X182.267 Y147.065 E0.05817
G1 X180.906 Y148.633 E0.06512
G1 X179.583 Y149.754 E0.05439
G1 X178.079 Y150.683 E0.05542
G1 X176.078 Y151.507 E0.06785
G1 X174.382 Y151.907 E0.05462
G1 X172.580 Y152.053 E0.05668
G1 X143.493 Y152.055 E0.91203
G1 X142.922 Y151.977 E0.01805
G1 X66.794 Y120.812 E2.57920
G1 X66.243 Y120.469 E0.02037
G1 F8640
G1 X65.741 Y119.889 E-0.17702
G1 X65.522 Y119.365 E-0.13128
G1 X65.445 Y118.798 E-0.13211
G1 X65.446 Y117.414 E-0.31959
G1 E-0.04000 F2100.00000
G1 Z0.800 F10800.000
G1 X72.913 Y114.895
G1 Z0.200
G1 E0.80000 F2100.00000
G1 F1200
G1 X72.913 Y79.720 E1.10286
G1 X133.587 Y79.720 E1.90240
G1 X133.587 Y114.895 E1.10286
G1 X72.973 Y114.895 E1.90051
G1 X73.290 Y114.517 F10800.000
G1 F1200
G1 X73.290 Y80.097 E1.07921
G1 X133.210 Y80.097 E1.87875
G1 X133.210 Y114.517 E1.07921
G1 X73.350 Y114.517 E1.87687
G1 X72.896 Y114.587 F10800.000
G1 F8640
G1 X73.344 Y111.226 E-0.76000
G1 E-0.04000 F2100.00000
G1 Z0.800 F10800.000
G1 X144.087 Y118.204
G1 Z0.200
G1 E0.80000 F2100.00000
G1 F1200
G1 X68.660 Y118.204 E2.36497
G1 X68.655 Y70.023 E1.51068
G1 X68.765 Y68.617 E0.04423
G1 X69.089 Y67.267 E0.04351
G1 X69.620 Y65.985 E0.04351
G1 X70.346 Y64.802 E0.04351
G1 X71.247 Y63.747 E0.04351
G1 X72.302 Y62.846 E0.04351
G1 X73.485 Y62.120 E0.04351
G1 X74.767 Y61.589 E0.04351
G1 X76.117 Y61.265 E0.04351
G1 X77.523 Y61.155 E0.04423
G1 X172.477 Y61.160 E2.97721
G1 X173.883 Y61.271 E0.04421
G1 X175.231 Y61.594 E0.04348
G1 X176.512 Y62.125 E0.04348
G1 X177.695 Y62.850 E0.04348
G1 X178.750 Y63.750 E0.04348
G1 X179.650 Y64.805 E0.04348
G1 X180.375 Y65.988 E0.04348
G1 X180.906 Y67.269 E0.04348
G1 X181.229 Y68.617 E0.04348
G1 X181.340 Y70.023 E0.04421
G1 X181.340 Y139.977 E2.19335
G1 X181.229 Y141.383 E0.04421
G1 X180.906 Y142.731 E0.04348
G1 X180.375 Y144.012 E0.04348
G1 X179.650 Y145.195 E0.04348
G1 X178.750 Y146.250 E0.04348
G1 X177.695 Y147.150 E0.04348
G1 X176.512 Y147.875 E0.04348
G1 X175.231 Y148.406 E0.04348
G1 X173.883 Y148.729 E0.04348
G1 X172.477 Y148.840 E0.04421
G1 X144.087 Y148.840 E0.89014
M73 P0 R116
G1 X144.087 Y118.264 E0.95869
G1 X143.710 Y118.581 F10800.000
G1 F1200
G1 X68.283 Y118.581 E2.36497
G1 X68.278 Y70.008 E1.52297
G1 X68.392 Y68.557 E0.04563
G1 X68.730 Y67.150 E0.04537
G1 X69.283 Y65.813 E0.04537
G1 X70.040 Y64.580 E0.04537
G1 X70.979 Y63.479 E0.04537
G1 X72.080 Y62.540 E0.04537
G1 X73.313 Y61.783 E0.04537
G1 X74.650 Y61.230 E0.04537
G1 X76.057 Y60.892 E0.04537
G1 X77.508 Y60.778 E0.04563
G1 X172.492 Y60.783 E2.97814
G1 X173.942 Y60.897 E0.04560
G1 X175.348 Y61.235 E0.04535
G1 X176.684 Y61.788 E0.04535
G1 X177.917 Y62.544 E0.04535
G1 X179.017 Y63.483 E0.04535
G1 X179.956 Y64.583 E0.04535
G1 X180.712 Y65.816 E0.04535
G1 X181.265 Y67.152 E0.04535
G1 X181.603 Y68.558 E0.04535
G1 X181.717 Y70.008 E0.04561
G1 X181.717 Y139.992 E2.19428
G1 X181.603 Y141.442 E0.04560
G1 X181.265 Y142.848 E0.04535
G1 X180.712 Y144.184 E0.04535
G1 X179.956 Y145.417 E0.04535
G1 X179.017 Y146.517 E0.04535
G1 X177.917 Y147.456 E0.04535
G1 X176.684 Y148.212 E0.04535
G1 X175.348 Y148.765 E0.04535
G1 X173.942 Y149.103 E0.04535
G1 X172.492 Y149.217 E0.04561
G1 X143.710 Y149.217 E0.90243
G1 X143.710 Y118.641 E0.95869
G1 X143.610 Y118.194 F10800.000
G1 X143.892 Y118.091
G1 F1200
G1 X133.870 Y108.069 E0.44577
G1 X133.870 Y108.604 E0.01682
G1 X143.187 Y117.921 E0.41443
G1 X142.652 Y117.921 E0.01682
G1 X133.870 Y109.139 E0.39063
G1 X133.870 Y109.674 E0.01682
G1 X142.117 Y117.921 E0.36684
G1 X141.582 Y117.921 E0.01682
G1 X133.870 Y110.209 E0.34305
G1 X133.870 Y110.744 E0.01682
G1 X141.048 Y117.921 E0.31925
G1 X140.513 Y117.921 E0.01682
G1 X133.870 Y111.279 E0.29546
G1 X133.870 Y111.813 E0.01682
G1 X139.978 Y117.921 E0.27167
G1 X139.443 Y117.921 E0.01682
G1 X133.870 Y112.348 E0.24788
G1 X133.870 Y112.883 E0.01682
G1 X138.908 Y117.921 E0.22408
G1 X138.373 Y117.921 E0.01682
G1 X133.870 Y113.418 E0.20029
G1 X133.870 Y113.953 E0.01682
G1 X137.838 Y117.921 E0.17650
G1 X137.303 Y117.921 E0.01682
G1 X133.870 Y114.488 E0.15270
G1 X133.870 Y115.023 E0.01682
G1 X136.768 Y117.921 E0.12891
G1 X136.233 Y117.921 E0.01682
G1 X133.489 Y115.177 E0.12205
G1 X132.954 Y115.177 E0.01682
G1 X135.698 Y117.921 E0.12205
G1 X135.163 Y117.921 E0.01682
G1 X132.419 Y115.177 E0.12205
G1 X131.885 Y115.177 E0.01682
G1 X134.628 Y117.921 E0.12205
G1 X134.094 Y117.921 E0.01682
G1 X131.350 Y115.177 E0.12205
G1 X130.815 Y115.177 E0.01682
G1 X133.559 Y117.921 E0.12205
G1 X133.024 Y117.921 E0.01682
G1 X130.280 Y115.177 E0.12205
G1 X129.745 Y115.177 E0.01682
G1 X132.489 Y117.921 E0.12205
G1 X131.954 Y117.921 E0.01682
G1 X129.210 Y115.177 E0.12205
G1 X128.675 Y115.177 E0.01682
G1 X131.419 Y117.921 E0.12205
G1 X130.884 Y117.921 E0.01682
G1 X128.140 Y115.177 E0.12205
G1 X127.605 Y115.177 E0.01682
G1 X130.349 Y117.921 E0.12205
G1 X129.814 Y117.921 E0.01682
G1 X127.070 Y115.177 E0.12205
G1 X126.535 Y115.177 E0.01682
G1 X129.279 Y117.921 E0.12205
G1 X128.744 Y117.921 E0.01682
G1 X126.000 Y115.177 E0.12205
G1 X125.465 Y115.177 E0.01682
G1 X128.209 Y117.921 E0.12205
G1 X127.674 Y117.921 E0.01682
G1 X124.931 Y115.177 E0.12205
G1 X124.396 Y115.177 E0.01682
G1 X127.140 Y117.921 E0.12205
G1 X126.605 Y117.921 E0.01682
G1 X123.861 Y115.177 E0.12205
G1 X123.326 Y115.177 E0.01682
G1 X126.070 Y117.921 E0.12205
G1 X125.535 Y117.921 E0.01682
G1 X122.791 Y115.177 E0.12205
G1 X122.256 Y115.177 E0.01682
G1 X125.000 Y117.921 E0.12205
G1 X124.465 Y117.921 E0.01682
G1 X121.721 Y115.177 E0.12205
G1 X121.186 Y115.177 E0.01682
G1 X123.930 Y117.921 E0.12205
G1 X123.395 Y117.921 E0.01682
G1 X120.651 Y115.177 E0.12205
G1 X120.116 Y115.177 E0.01682
G1 X122.860 Y117.921 E0.12205
G1 X122.325 Y117.921 E0.01682
G1 X119.581 Y115.177 E0.12205
G1 X119.046 Y115.177 E0.01682
G1 X121.790 Y117.921 E0.12205
G1 X121.255 Y117.921 E0.01682
G1 X118.511 Y115.177 E0.12205
G1 X117.977 Y115.177 E0.01682
G1 X120.720 Y117.921 E0.12205
G1 X120.186 Y117.921 E0.01682
G1 X117.442 Y115.177 E0.12205
G1 X116.907 Y115.177 E0.01682
G1 X119.651 Y117.921 E0.12205
G1 X119.116 Y117.921 E0.01682
G1 X116.372 Y115.177 E0.12205
G1 X115.837 Y115.177 E0.01682
G1 X118.581 Y117.921 E0.12205
G1 X118.046 Y117.921 E0.01682
G1 X115.302 Y115.177 E0.12205
G1 X114.767 Y115.177 E0.01682
G1 X117.511 Y117.921 E0.12205
G1 X116.976 Y117.921 E0.01682
G1 X114.232 Y115.177 E0.12205
G1 X113.697 Y115.177 E0.01682
G1 X116.441 Y117.921 E0.12205
G1 X115.906 Y117.921 E0.01682
G1 X113.162 Y115.177 E0.12205
G1 X112.627 Y115.177 E0.01682
G1 X115.371 Y117.921 E0.12205
G1 X114.836 Y117.921 E0.01682
G1 X112.092 Y115.177 E0.12205
G1 X111.558 Y115.177 E0.01682
G1 X114.301 Y117.921 E0.12205
G1 X113.766 Y117.921 E0.01682
G1 X111.023 Y115.177 E0.12205
G1 X110.488 Y115.177 E0.01682
G1 X113.232 Y117.921 E0.12205
G1 X112.697 Y117.921 E0.01682
G1 X109.953 Y115.177 E0.12205
G1 X109.418 Y115.177 E0.01682
G1 X112.162 Y117.921 E0.12205
G1 X111.627 Y117.921 E0.01682
G1 X108.883 Y115.177 E0.12205
G1 X108.348 Y115.177 E0.01682
G1 X111.092 Y117.921 E0.12205
G1 X110.557 Y117.921 E0.01682
G1 X107.813 Y115.177 E0.12205
G1 X107.278 Y115.177 E0.01682
G1 X110.022 Y117.921 E0.12205
G1 X109.487 Y117.921 E0.01682
G1 X106.743 Y115.177 E0.12205
G1 X106.208 Y115.177 E0.01682
G1 X108.952 Y117.921 E0.12205
G1 X108.417 Y117.921 E0.01682
G1 X105.673 Y115.177 E0.12205
G1 X105.138 Y115.177 E0.01682
G1 X107.882 Y117.921 E0.12205
G1 X107.347 Y117.921 E0.01682
G1 X104.604 Y115.177 E0.12205
G1 X104.069 Y115.177 E0.01682
G1 X106.812 Y117.921 E0.12205
G1 X106.278 Y117.921 E0.01682
G1 X103.534 Y115.177 E0.12205
G1 X102.999 Y115.177 E0.01682
G1 X105.743 Y117.921 E0.12205
G1 X105.208 Y117.921 E0.01682
G1 X102.464 Y115.177 E0.12205
G1 X101.929 Y115.177 E0.01682
G1 X104.673 Y117.921 E0.12205
G1 X104.138 Y117.921 E0.01682
G1 X101.394 Y115.177 E0.12205
G1 X100.859 Y115.177 E0.01682
G1 X103.603 Y117.921 E0.12205
G1 X103.068 Y117.921 E0.01682
G1 X100.324 Y115.177 E0.12205
G1 X99.789 Y115.177 E0.01682
G1 X102.533 Y117.921 E0.12205
G1 X101.998 Y117.921 E0.01682
G1 X99.254 Y115.177 E0.12205
G1 X98.719 Y115.177 E0.01682
G1 X101.463 Y117.921 E0.12205
G1 X100.928 Y117.921 E0.01682
G1 X98.184 Y115.177 E0.12205
G1 X97.650 Y115.177 E0.01682
G1 X100.393 Y117.921 E0.12205
G1 X99.859 Y117.921 E0.01682
G1 X97.115 Y115.177 E0.12205
G1 X96.580 Y115.177 E0.01682
G1 X99.324 Y117.921 E0.12205
G1 X98.789 Y117.921 E0.01682
G1 X96.045 Y115.177 E0.12205
G1 X95.510 Y115.177 E0.01682
G1 X98.254 Y117.921 E0.12205
G1 X97.719 Y117.921 E0.01682
G1 X94.975 Y115.177 E0.12205
G1 X94.440 Y115.177 E0.01682
G1 X97.184 Y117.921 E0.12205
G1 X96.649 Y117.921 E0.01682
G1 X93.905 Y115.177 E0.12205
G1 X93.370 Y115.177 E0.01682
G1 X96.114 Y117.921 E0.12205
G1 X95.579 Y117.921 E0.01682
G1 X92.835 Y115.177 E0.12205
G1 X92.300 Y115.177 E0.01682
G1 X95.044 Y117.921 E0.12205
G1 X94.509 Y117.921 E0.01682
G1 X91.765 Y115.177 E0.12205
G1 X91.230 Y115.177 E0.01682
G1 X93.974 Y117.921 E0.12205
G1 X93.439 Y117.921 E0.01682
G1 X90.696 Y115.177 E0.12205
G1 X90.161 Y115.177 E0.01682
G1 X92.905 Y117.921 E0.12205
G1 X92.370 Y117.921 E0.01682
G1 X89.626 Y115.177 E0.12205
G1 X89.091 Y115.177 E0.01682
G1 X91.835 Y117.921 E0.12205
G1 X91.300 Y117.921 E0.01682
G1 X88.556 Y115.177 E0.12205
G1 X88.021 Y115.177 E0.01682
G1 X90.765 Y117.921 E0.12205
G1 X90.230 Y117.921 E0.01682
G1 X87.486 Y115.177 E0.12205
G1 X86.951 Y115.177 E0.01682
G1 X89.695 Y117.921 E0.12205
G1 X89.160 Y117.921 E0.01682
G1 X86.416 Y115.177 E0.12205
G1 X85.881 Y115.177 E0.01682
G1 X88.625 Y117.921 E0.12205
G1 X88.090 Y117.921 E0.01682
G1 X85.346 Y115.177 E0.12205
G1 X84.811 Y115.177 E0.01682
G1 X87.555 Y117.921 E0.12205
G1 X87.020 Y117.921 E0.01682
G1 X84.276 Y115.177 E0.12205
G1 X83.742 Y115.177 E0.01682
G1 X86.485 Y117.921 E0.12205
G1 X85.951 Y117.921 E0.01682
G1 X83.207 Y115.177 E0.12205
G1 X82.672 Y115.177 E0.01682
G1 X85.416 Y117.921 E0.12205
G1 X84.881 Y117.921 E0.01682
G1 X82.137 Y115.177 E0.12205
G1 X81.602 Y115.177 E0.01682
G1 X84.346 Y117.921 E0.12205
G1 X83.811 Y117.921 E0.01682
G1 X81.067 Y115.177 E0.12205
G1 X80.532 Y115.177 E0.01682
G1 X83.276 Y117.921 E0.12205
G1 X82.741 Y117.921 E0.01682
G1 X79.997 Y115.177 E0.12205
G1 X79.462 Y115.177 E0.01682
G1 X82.206 Y117.921 E0.12205
G1 X81.671 Y117.921 E0.01682
G1 X78.927 Y115.177 E0.12205
G1 X78.392 Y115.177 E0.01682
G1 X81.136 Y117.921 E0.12205
G1 X80.601 Y117.921 E0.01682
G1 X77.857 Y115.177 E0.12205
G1 X77.322 Y115.177 E0.01682
G1 X80.066 Y117.921 E0.12205
G1 X79.531 Y117.921 E0.01682
G1 X76.788 Y115.177 E0.12205
G1 X76.253 Y115.177 E0.01682
G1 X78.997 Y117.921 E0.12205
G1 X78.462 Y117.921 E0.01682
G1 X75.718 Y115.177 E0.12205
G1 X75.183 Y115.177 E0.01682
G1 X77.927 Y117.921 E0.12205
G1 X77.392 Y117.921 E0.01682
G1 X74.648 Y115.177 E0.12205
G1 X74.113 Y115.177 E0.01682
G1 X76.857 Y117.921 E0.12205
G1 X76.322 Y117.921 E0.01682
G1 X73.578 Y115.177 E0.12205
G1 X73.043 Y115.177 E0.01682
G1 X75.787 Y117.921 E0.12205
G1 X75.252 Y117.921 E0.01682
G1 X68.942 Y111.611 E0.28067
G1 X68.942 Y111.076 E0.01683
G1 X72.630 Y114.764 E0.16405
G1 X72.630 Y114.229 E0.01682
G1 X68.942 Y110.541 E0.16405
G1 X68.942 Y110.006 E0.01683
G1 X72.630 Y113.695 E0.16405
G1 X72.630 Y113.160 E0.01682
G1 X68.942 Y109.471 E0.16406
G1 X68.942 Y108.936 E0.01683
G1 X72.630 Y112.625 E0.16406
G1 X72.630 Y112.090 E0.01682
G1 X68.942 Y108.401 E0.16406
G1 X68.942 Y107.866 E0.01683
G1 X72.630 Y111.555 E0.16406
G1 X72.630 Y111.020 E0.01682
G1 X68.942 Y107.331 E0.16407
G1 X68.941 Y106.796 E0.01683
G1 X72.630 Y110.485 E0.16407
G1 X72.630 Y109.950 E0.01682
G1 X68.941 Y106.261 E0.16407
G1 X68.941 Y105.726 E0.01683
G1 X72.630 Y109.415 E0.16407
G1 X72.630 Y108.880 E0.01682
G1 X68.941 Y105.191 E0.16408
G1 X68.941 Y104.656 E0.01683
G1 X72.630 Y108.345 E0.16408
G1 X72.630 Y107.810 E0.01682
G1 X68.941 Y104.121 E0.16408
G1 X68.941 Y103.586 E0.01683
G1 X72.630 Y107.275 E0.16408
G1 X72.630 Y106.741 E0.01682
G1 X68.941 Y103.051 E0.16409
G1 X68.941 Y102.517 E0.01683
G1 X72.630 Y106.206 E0.16409
G1 X72.630 Y105.671 E0.01682
G1 X68.941 Y101.982 E0.16409
G1 X68.941 Y101.447 E0.01683
G1 X72.630 Y105.136 E0.16409
G1 X72.630 Y104.601 E0.01682
M73 P1 R115
G1 X68.941 Y100.912 E0.16410
G1 X68.941 Y100.377 E0.01683
G1 X72.630 Y104.066 E0.16410
G1 X72.630 Y103.531 E0.01682
G1 X68.941 Y99.842 E0.16410
G1 X68.941 Y99.307 E0.01683
G1 X72.630 Y102.996 E0.16410
G1 X72.630 Y102.461 E0.01682
G1 X68.941 Y98.772 E0.16411
G1 X68.941 Y98.237 E0.01683
G1 X72.630 Y101.926 E0.16411
G1 X72.630 Y101.391 E0.01682
G1 X68.941 Y97.702 E0.16411
G1 X68.940 Y97.167 E0.01683
G1 X72.630 Y100.856 E0.16411
G1 X72.630 Y100.321 E0.01682
G1 X68.940 Y96.632 E0.16412
G1 X68.940 Y96.097 E0.01683
G1 X72.630 Y99.787 E0.16412
G1 X72.630 Y99.252 E0.01682
G1 X68.940 Y95.562 E0.16412
G1 X68.940 Y95.027 E0.01683
G1 X72.630 Y98.717 E0.16412
G1 X72.630 Y98.182 E0.01682
G1 X68.940 Y94.492 E0.16413
G1 X68.940 Y93.957 E0.01683
G1 X72.630 Y97.647 E0.16413
G1 X72.630 Y97.112 E0.01682
G1 X68.940 Y93.422 E0.16413
G1 X68.940 Y92.887 E0.01683
G1 X72.630 Y96.577 E0.16413
G1 X72.630 Y96.042 E0.01682
G1 X68.940 Y92.352 E0.16414
G1 X68.940 Y91.817 E0.01683
G1 X72.630 Y95.507 E0.16414
G1 X72.630 Y94.972 E0.01682
G1 X68.940 Y91.282 E0.16414
G1 X68.940 Y90.747 E0.01683
G1 X72.630 Y94.437 E0.16414
G1 X72.630 Y93.902 E0.01682
G1 X68.940 Y90.212 E0.16415
G1 X68.940 Y89.677 E0.01683
G1 X72.630 Y93.367 E0.16415
G1 X72.630 Y92.833 E0.01682
G1 X68.940 Y89.142 E0.16415
G1 X68.940 Y88.607 E0.01683
G1 X72.630 Y92.298 E0.16415
G1 X72.630 Y91.763 E0.01682
G1 X68.939 Y88.072 E0.16416
G1 X68.939 Y87.537 E0.01683
G1 X72.630 Y91.228 E0.16416
G1 X72.630 Y90.693 E0.01682
G1 X68.939 Y87.002 E0.16416
G1 X68.939 Y86.467 E0.01683
G1 X72.630 Y90.158 E0.16416
G1 X72.630 Y89.623 E0.01682
G1 X68.939 Y85.932 E0.16417
