; generated by PrusaSlicer 2.1.1+win64 on 2020-03-11 at 17:22:02 UTC

; 

; external perimeters extrusion width = 0.45mm
; perimeters extrusion width = 0.45mm
; infill extrusion width = 0.45mm
; solid infill extrusion width = 0.45mm
; top infill extrusion width = 0.40mm
; first layer extrusion width = 0.42mm

M73 P0 R179
M201 X9000 Y9000 Z500 E10000 ; sets maximum accelerations, mm/sec^2
M203 X500 Y500 Z12 E120 ; sets maximum feedrates, mm/sec
M204 P2000 R1500 T2000 ; sets acceleration (P, T) and retract acceleration (R), mm/sec^2
M205 X10.00 Y10.00 Z0.20 E2.50 ; sets the jerk limits, mm/sec
M205 S0 T0 ; sets the minimum extruding and travel feed rate, mm/sec
M107
M862.3 P "MK2S" ; printer model check
M862.1 P0.4 ; nozzle diameter check
M115 U3.2.3 ; tell printer latest fw version
G90 ; use absolute coordinates
M83 ; extruder relative mode
M204 S2000 T1500 ; MK2 firmware only supports the old M204 format
M104 S215 ; set extruder temp
M140 S60 ; set bed temp
M190 S60 ; wait for bed temp
M109 S215 ; wait for extruder temp
G28 W ; home all without mesh bed level
G80 ; mesh bed leveling
G1 Y-3.0 F1000.0 ; go outside print area
G92 E0.0
G1 X60.0 E9.0  F1000.0 ; intro line
M73 P0 R178
G1 X100.0 E12.5 F1000.0 ; intro line
G92 E0.0
G21 ; set units to millimeters
G90 ; use absolute coordinates
M83 ; use relative distances for extrusion
M900 K30 ; Filament gcode
;BEFORE_LAYER_CHANGE
G92 E0.0
;0.2


G1 E-0.80000 F2100.00000
G1 Z0.600 F10800.000
;AFTER_LAYER_CHANGE
;0.2
G1 X80.123 Y76.529
G1 Z0.200
G1 E0.80000 F2100.00000
M204 S1000
G1 F1200
G1 X81.595 Y75.307 E0.05998
G1 X83.064 Y74.414 E0.05392
G1 X84.658 Y73.747 E0.05416
G1 X86.626 Y73.253 E0.06363
G1 X88.464 Y73.101 E0.05782
G1 X183.541 Y73.100 E2.98107
G1 X185.441 Y73.251 E0.05976
G1 X187.410 Y73.744 E0.06364
G1 X189.160 Y74.498 E0.05975
G1 X190.623 Y75.402 E0.05392
G1 X191.946 Y76.524 E0.05439
G1 X193.279 Y78.054 E0.06363
G1 X194.278 Y79.682 E0.05988
G1 X195.006 Y81.443 E0.05977
G1 X195.461 Y83.410 E0.06330
G1 X195.592 Y85.151 E0.05473
G1 X195.590 Y155.250 E2.19790
G1 X195.411 Y157.205 E0.06157
G1 X195.002 Y158.879 E0.05404
G1 X194.341 Y160.491 E0.05462
G1 X193.290 Y162.240 E0.06398
G1 X191.952 Y163.781 E0.06398
G1 X190.480 Y165.002 E0.05998
G1 X189.010 Y165.895 E0.05392
G1 X187.417 Y166.562 E0.05416
G1 X185.448 Y167.057 E0.06363
G1 X183.610 Y167.208 E0.05782
G1 X88.534 Y167.209 E2.98107
G1 X86.494 Y167.030 E0.06420
G1 X84.812 Y166.619 E0.05427
G1 X83.207 Y165.962 E0.05439
G1 X81.452 Y164.907 E0.06421
G1 X79.911 Y163.569 E0.06398
G1 X78.689 Y162.097 E0.05998
G1 X77.797 Y160.627 E0.05392
G1 X77.131 Y159.038 E0.05404
G1 X76.635 Y157.066 E0.06375
G1 X76.485 Y155.250 E0.05713
G1 X76.483 Y85.151 E2.19790
G1 X76.662 Y83.111 E0.06420
G1 X77.073 Y81.430 E0.05427
G1 X77.730 Y79.824 E0.05439
G1 X78.785 Y78.069 E0.06421
G1 X80.083 Y76.574 E0.06210
G1 F8640
G1 X81.595 Y75.307 E-0.45536
G1 X82.722 Y74.622 E-0.30464
G1 E-0.04000 F2100.00000
G1 Z0.800 F10800.000
G1 X183.864 Y155.912
G1 Z0.200
G1 E0.80000 F2100.00000
G1 F1200
G1 X184.294 Y155.482 E0.01907
G1 X184.793 Y155.133 E0.01907
G1 X185.344 Y154.876 E0.01907
G1 X185.931 Y154.718 E0.01907
G1 X186.518 Y154.667 E0.01847
G1 X187.141 Y154.718 E0.01961
G1 X187.731 Y154.876 E0.01912
G1 X188.282 Y155.133 E0.01907
G1 X188.780 Y155.482 E0.01907
G1 X189.210 Y155.912 E0.01907
G1 X189.559 Y156.410 E0.01907
G1 X189.816 Y156.961 E0.01907
G1 X189.973 Y157.549 E0.01907
G1 X190.027 Y158.155 E0.01907
G1 X189.973 Y158.760 E0.01907
G1 X189.816 Y159.348 E0.01907
G1 X189.559 Y159.899 E0.01907
G1 X189.210 Y160.397 E0.01907
G1 X188.780 Y160.828 E0.01907
G1 X188.282 Y161.176 E0.01907
G1 X187.731 Y161.433 E0.01907
G1 X187.143 Y161.591 E0.01907
G1 X186.537 Y161.644 E0.01907
G1 X185.931 Y161.591 E0.01907
G1 X185.344 Y161.433 E0.01907
G1 X184.793 Y161.176 E0.01907
G1 X184.294 Y160.828 E0.01907
G1 X183.864 Y160.397 E0.01907
G1 X183.515 Y159.899 E0.01907
G1 X183.258 Y159.348 E0.01907
G1 X183.101 Y158.760 E0.01907
G1 X183.048 Y158.155 E0.01907
G1 X183.101 Y157.549 E0.01907
G1 X183.258 Y156.961 E0.01907
G1 X183.515 Y156.410 E0.01907
G1 X183.830 Y155.961 E0.01719
G1 X184.139 Y156.177 F10800.000
G1 F1200
G1 X184.538 Y155.772 E0.01784
G1 X184.982 Y155.461 E0.01700
G1 X185.473 Y155.231 E0.01700
G1 X185.997 Y155.091 E0.01700
G1 X186.519 Y155.045 E0.01644
G1 X187.077 Y155.091 E0.01754
G1 X187.601 Y155.231 E0.01702
G1 X188.093 Y155.461 E0.01700
G1 X188.537 Y155.772 E0.01700
G1 X188.920 Y156.155 E0.01700
G1 X189.231 Y156.599 E0.01700
G1 X189.460 Y157.091 E0.01700
G1 X189.601 Y157.614 E0.01700
G1 X189.648 Y158.155 E0.01700
G1 X189.601 Y158.695 E0.01700
G1 X189.460 Y159.218 E0.01700
G1 X189.231 Y159.710 E0.01700
G1 X188.920 Y160.154 E0.01700
G1 X188.537 Y160.538 E0.01700
G1 X188.093 Y160.849 E0.01700
G1 X187.601 Y161.078 E0.01700
G1 X187.077 Y161.218 E0.01700
G1 X186.537 Y161.265 E0.01700
G1 X185.997 Y161.218 E0.01700
G1 X185.473 Y161.078 E0.01700
G1 X184.982 Y160.849 E0.01700
G1 X184.538 Y160.538 E0.01700
G1 X184.154 Y160.154 E0.01700
G1 X183.843 Y159.710 E0.01700
G1 X183.614 Y159.218 E0.01700
G1 X183.474 Y158.695 E0.01700
G1 X183.426 Y158.155 E0.01700
G1 X183.474 Y157.614 E0.01700
G1 X183.614 Y157.091 E0.01700
G1 X183.843 Y156.599 E0.01700
G1 X184.104 Y156.226 E0.01427
G1 X184.000 Y155.802 F10800.000
G1 F8640
G1 X184.538 Y155.772 E-0.14503
G1 X184.982 Y155.461 E-0.12521
G1 X185.473 Y155.231 E-0.12521
G1 X185.997 Y155.091 E-0.12521
G1 X186.519 Y155.045 E-0.12104
G1 X187.030 Y155.087 E-0.11831
G1 E-0.04000 F2100.00000
G1 Z0.800 F10800.000
G1 X186.537 Y85.644
G1 Z0.200
G1 E0.80000 F2100.00000
G1 F1200
G1 X185.931 Y85.591 E0.01907
G1 X185.344 Y85.433 E0.01907
G1 X184.793 Y85.176 E0.01907
G1 X184.294 Y84.828 E0.01907
G1 X183.864 Y84.397 E0.01907
G1 X183.515 Y83.899 E0.01907
G1 X183.258 Y83.348 E0.01907
G1 X183.101 Y82.760 E0.01907
G1 X183.048 Y82.155 E0.01907
G1 X183.101 Y81.549 E0.01907
G1 X183.258 Y80.961 E0.01907
G1 X183.515 Y80.410 E0.01907
G1 X183.864 Y79.912 E0.01907
G1 X184.294 Y79.482 E0.01907
G1 X184.793 Y79.133 E0.01907
G1 X185.344 Y78.876 E0.01907
G1 X185.931 Y78.718 E0.01907
G1 X186.518 Y78.667 E0.01847
G1 X187.141 Y78.718 E0.01961
G1 X187.731 Y78.876 E0.01912
G1 X188.282 Y79.133 E0.01907
G1 X188.780 Y79.482 E0.01907
G1 X189.210 Y79.912 E0.01907
G1 X189.559 Y80.410 E0.01907
G1 X189.816 Y80.961 E0.01907
G1 X189.973 Y81.549 E0.01907
G1 X190.027 Y82.155 E0.01907
G1 X189.973 Y82.760 E0.01907
G1 X189.816 Y83.348 E0.01907
G1 X189.559 Y83.899 E0.01907
G1 X189.210 Y84.397 E0.01907
G1 X188.780 Y84.828 E0.01907
G1 X188.282 Y85.176 E0.01907
G1 X187.731 Y85.433 E0.01907
G1 X187.143 Y85.591 E0.01907
G1 X186.597 Y85.639 E0.01719
G1 X186.564 Y85.263 F10800.000
G1 F1200
G1 X185.997 Y85.218 E0.01784
G1 X185.473 Y85.078 E0.01700
G1 X184.982 Y84.849 E0.01700
G1 X184.538 Y84.538 E0.01700
G1 X184.154 Y84.154 E0.01700
G1 X183.843 Y83.710 E0.01700
G1 X183.614 Y83.219 E0.01700
G1 X183.474 Y82.695 E0.01700
G1 X183.426 Y82.155 E0.01700
G1 X183.474 Y81.614 E0.01700
G1 X183.614 Y81.091 E0.01700
G1 X183.843 Y80.599 E0.01700
G1 X184.154 Y80.155 E0.01700
G1 X184.538 Y79.772 E0.01700
G1 X184.982 Y79.461 E0.01700
G1 X185.473 Y79.231 E0.01700
G1 X185.997 Y79.091 E0.01700
G1 X186.519 Y79.045 E0.01644
G1 X187.077 Y79.091 E0.01754
G1 X187.601 Y79.231 E0.01702
G1 X188.093 Y79.461 E0.01700
G1 X188.537 Y79.772 E0.01700
G1 X188.920 Y80.155 E0.01700
G1 X189.231 Y80.599 E0.01700
G1 X189.460 Y81.091 E0.01700
G1 X189.601 Y81.614 E0.01700
G1 X189.648 Y82.155 E0.01700
G1 X189.601 Y82.695 E0.01700
G1 X189.460 Y83.219 E0.01700
G1 X189.231 Y83.710 E0.01700
G1 X188.920 Y84.154 E0.01700
G1 X188.537 Y84.538 E0.01700
G1 X188.093 Y84.849 E0.01700
G1 X187.601 Y85.078 E0.01700
G1 X187.077 Y85.218 E0.01700
G1 X186.624 Y85.258 E0.01427
G1 X186.366 Y85.611 F10800.000
G1 F8640
G1 X185.997 Y85.218 E-0.14504
G1 X185.473 Y85.078 E-0.12521
G1 X184.982 Y84.849 E-0.12521
G1 X184.538 Y84.538 E-0.12521
G1 X184.154 Y84.154 E-0.12521
G1 X183.871 Y83.749 E-0.11413
G1 E-0.04000 F2100.00000
G1 Z0.800 F10800.000
G1 X89.027 Y82.155
G1 Z0.200
G1 E0.80000 F2100.00000
G1 F1200
G1 X88.973 Y82.760 E0.01907
G1 X88.816 Y83.348 E0.01907
G1 X88.559 Y83.899 E0.01907
G1 X88.210 Y84.397 E0.01907
G1 X87.794 Y84.814 E0.01847
G1 X87.283 Y85.176 E0.01961
G1 X86.731 Y85.433 E0.01912
G1 X86.143 Y85.591 E0.01907
G1 X85.537 Y85.644 E0.01907
G1 X84.931 Y85.591 E0.01907
G1 X84.344 Y85.433 E0.01907
G1 X83.793 Y85.176 E0.01907
G1 X83.294 Y84.828 E0.01907
G1 X82.864 Y84.397 E0.01907
G1 X82.515 Y83.899 E0.01907
G1 X82.258 Y83.348 E0.01907
G1 X82.101 Y82.760 E0.01907
G1 X82.048 Y82.155 E0.01907
G1 X82.101 Y81.549 E0.01907
G1 X82.258 Y80.961 E0.01907
G1 X82.515 Y80.410 E0.01907
G1 X82.864 Y79.912 E0.01907
G1 X83.294 Y79.482 E0.01907
G1 X83.793 Y79.133 E0.01907
G1 X84.344 Y78.876 E0.01907
G1 X84.931 Y78.718 E0.01907
G1 X85.518 Y78.667 E0.01847
G1 X86.141 Y78.718 E0.01961
G1 X86.731 Y78.876 E0.01912
G1 X87.282 Y79.133 E0.01907
G1 X87.780 Y79.482 E0.01907
G1 X88.210 Y79.912 E0.01907
G1 X88.559 Y80.410 E0.01907
G1 X88.816 Y80.961 E0.01907
G1 X88.973 Y81.549 E0.01907
G1 X89.021 Y82.095 E0.01719
G1 X88.646 Y82.128 F10800.000
G1 F1200
G1 X88.601 Y82.695 E0.01784
G1 X88.460 Y83.219 E0.01700
G1 X88.231 Y83.710 E0.01700
G1 X87.920 Y84.154 E0.01700
G1 X87.550 Y84.525 E0.01644
G1 X87.093 Y84.848 E0.01754
G1 X86.601 Y85.078 E0.01702
G1 X86.077 Y85.218 E0.01700
G1 X85.537 Y85.265 E0.01700
G1 X84.997 Y85.218 E0.01700
G1 X84.473 Y85.078 E0.01700
G1 X83.982 Y84.849 E0.01700
G1 X83.538 Y84.538 E0.01700
G1 X83.154 Y84.154 E0.01700
G1 X82.843 Y83.710 E0.01700
G1 X82.614 Y83.219 E0.01700
G1 X82.474 Y82.695 E0.01700
G1 X82.426 Y82.155 E0.01700
G1 X82.474 Y81.614 E0.01700
G1 X82.614 Y81.091 E0.01700
G1 X82.843 Y80.599 E0.01700
G1 X83.154 Y80.155 E0.01700
G1 X83.538 Y79.772 E0.01700
G1 X83.982 Y79.461 E0.01700
G1 X84.473 Y79.231 E0.01700
G1 X84.997 Y79.091 E0.01700
G1 X85.519 Y79.045 E0.01644
G1 X86.077 Y79.091 E0.01754
G1 X86.601 Y79.231 E0.01702
G1 X87.093 Y79.461 E0.01700
G1 X87.537 Y79.772 E0.01700
G1 X87.920 Y80.155 E0.01700
G1 X88.231 Y80.599 E0.01700
G1 X88.460 Y81.091 E0.01700
G1 X88.601 Y81.614 E0.01700
G1 X88.640 Y82.068 E0.01427
G1 X88.993 Y82.325 F10800.000
G1 F8640
G1 X88.601 Y82.695 E-0.14503
G1 X88.460 Y83.219 E-0.12521
G1 X88.231 Y83.710 E-0.12520
G1 X87.920 Y84.154 E-0.12521
G1 X87.550 Y84.525 E-0.12104
G1 X87.132 Y84.821 E-0.11831
G1 E-0.04000 F2100.00000
G1 Z0.800 F10800.000
G1 X85.518 Y154.667
G1 Z0.200
G1 E0.80000 F2100.00000
G1 F1200
G1 X86.141 Y154.718 E0.01961
G1 X86.731 Y154.876 E0.01912
G1 X87.282 Y155.133 E0.01907
G1 X87.780 Y155.482 E0.01907
G1 X88.210 Y155.912 E0.01907
G1 X88.559 Y156.410 E0.01907
G1 X88.816 Y156.961 E0.01907
G1 X88.973 Y157.549 E0.01907
G1 X89.027 Y158.155 E0.01907
G1 X88.973 Y158.760 E0.01907
G1 X88.816 Y159.348 E0.01907
G1 X88.559 Y159.899 E0.01907
G1 X88.210 Y160.397 E0.01907
G1 X87.794 Y160.814 E0.01847
G1 X87.283 Y161.176 E0.01961
G1 X86.731 Y161.433 E0.01912
G1 X86.143 Y161.591 E0.01907
G1 X85.537 Y161.644 E0.01907
G1 X84.931 Y161.591 E0.01907
G1 X84.344 Y161.433 E0.01907
G1 X83.793 Y161.176 E0.01907
G1 X83.294 Y160.828 E0.01907
G1 X82.864 Y160.397 E0.01907
G1 X82.515 Y159.899 E0.01907
G1 X82.258 Y159.348 E0.01907
G1 X82.101 Y158.760 E0.01907
G1 X82.048 Y158.155 E0.01907
G1 X82.101 Y157.549 E0.01907
G1 X82.258 Y156.961 E0.01907
G1 X82.515 Y156.410 E0.01907
G1 X82.864 Y155.912 E0.01907
G1 X83.294 Y155.482 E0.01907
G1 X83.793 Y155.133 E0.01907
G1 X84.344 Y154.876 E0.01907
G1 X84.931 Y154.718 E0.01907
G1 X85.458 Y154.672 E0.01659
G1 X85.491 Y155.048 F10800.000
G1 F1200
G1 X86.077 Y155.091 E0.01841
G1 X86.601 Y155.231 E0.01702
G1 X87.093 Y155.461 E0.01700
G1 X87.537 Y155.772 E0.01700
G1 X87.920 Y156.155 E0.01700
G1 X88.231 Y156.599 E0.01700
G1 X88.460 Y157.091 E0.01700
G1 X88.601 Y157.614 E0.01700
G1 X88.648 Y158.155 E0.01700
G1 X88.601 Y158.695 E0.01700
G1 X88.460 Y159.218 E0.01700
G1 X88.231 Y159.710 E0.01700
G1 X87.920 Y160.154 E0.01700
G1 X87.550 Y160.525 E0.01644
G1 X87.093 Y160.848 E0.01754
G1 X86.601 Y161.078 E0.01702
G1 X86.077 Y161.218 E0.01700
G1 X85.537 Y161.265 E0.01700
G1 X84.997 Y161.218 E0.01700
G1 X84.473 Y161.078 E0.01700
G1 X83.982 Y160.849 E0.01700
G1 X83.538 Y160.538 E0.01700
G1 X83.154 Y160.154 E0.01700
G1 X82.843 Y159.710 E0.01700
G1 X82.614 Y159.218 E0.01700
G1 X82.474 Y158.695 E0.01700
G1 X82.426 Y158.155 E0.01700
G1 X82.474 Y157.614 E0.01700
G1 X82.614 Y157.091 E0.01700
G1 X82.843 Y156.599 E0.01700
G1 X83.154 Y156.155 E0.01700
G1 X83.538 Y155.772 E0.01700
G1 X83.982 Y155.461 E0.01700
G1 X84.473 Y155.231 E0.01700
G1 X84.997 Y155.091 E0.01700
G1 X85.431 Y155.053 E0.01367
G1 X85.688 Y154.699 F10800.000
G1 F8640
G1 X86.077 Y155.091 E-0.14927
G1 X86.601 Y155.231 E-0.12535
G1 X87.093 Y155.461 E-0.12521
G1 X87.537 Y155.772 E-0.12521
G1 X87.920 Y156.155 E-0.12521
G1 X88.193 Y156.544 E-0.10976
G1 E-0.04000 F2100.00000
G1 Z0.800 F10800.000
G1 X79.808 Y156.537
G1 Z0.200
G1 E0.80000 F2100.00000
G1 F1200
G1 X79.697 Y155.131 E0.04421
G1 X79.697 Y85.178 E2.19335
G1 X79.808 Y83.772 E0.04421
G1 X80.132 Y82.423 E0.04348
G1 X80.662 Y81.142 E0.04348
G1 X81.387 Y79.960 E0.04348
G1 X82.288 Y78.905 E0.04348
G1 X83.342 Y78.004 E0.04348
G1 X84.525 Y77.280 E0.04348
G1 X85.806 Y76.749 E0.04348
G1 X87.155 Y76.425 E0.04348
G1 X88.560 Y76.314 E0.04421
G1 X183.514 Y76.314 E2.97721
G1 X184.920 Y76.425 E0.04421
G1 X186.268 Y76.749 E0.04348
G1 X187.550 Y77.280 E0.04348
G1 X188.732 Y78.004 E0.04348
G1 X189.787 Y78.905 E0.04348
G1 X190.687 Y79.960 E0.04348
G1 X191.412 Y81.142 E0.04348
G1 X191.943 Y82.423 E0.04348
G1 X192.267 Y83.772 E0.04348
G1 X192.377 Y85.178 E0.04421
G1 X192.377 Y155.131 E2.19335
G1 X192.267 Y156.537 E0.04421
G1 X191.943 Y157.886 E0.04348
G1 X191.412 Y159.167 E0.04348
G1 X190.687 Y160.350 E0.04348
G1 X189.787 Y161.404 E0.04348
G1 X188.732 Y162.305 E0.04348
G1 X187.550 Y163.029 E0.04348
G1 X186.268 Y163.560 E0.04348
G1 X184.920 Y163.884 E0.04348
G1 X183.514 Y163.995 E0.04421
G1 X88.560 Y163.995 E2.97721
G1 X87.155 Y163.884 E0.04421
G1 X85.806 Y163.560 E0.04348
G1 X84.525 Y163.029 E0.04348
G1 X83.342 Y162.305 E0.04348
G1 X82.288 Y161.404 E0.04348
G1 X81.387 Y160.350 E0.04348
G1 X80.662 Y159.167 E0.04348
G1 X80.132 Y157.886 E0.04348
G1 X79.822 Y156.595 E0.04160
G1 X79.455 Y156.684 F10800.000
G1 F1200
G1 X79.434 Y156.596 E0.00281
G1 X79.320 Y155.146 E0.04560
G1 X79.320 Y85.163 E2.19428
G1 X79.434 Y83.713 E0.04560
G1 X79.772 Y82.306 E0.04535
G1 X80.325 Y80.970 E0.04535
G1 X81.081 Y79.737 E0.04535
G1 X82.020 Y78.638 E0.04535
G1 X83.120 Y77.698 E0.04535
G1 X84.353 Y76.943 E0.04535
G1 X85.689 Y76.389 E0.04535
G1 X87.095 Y76.052 E0.04535
G1 X88.545 Y75.937 E0.04561
G1 X183.529 Y75.937 E2.97814
M73 P0 R177
G1 X184.979 Y76.052 E0.04561
G1 X186.385 Y76.389 E0.04535
G1 X187.721 Y76.943 E0.04535
G1 X188.954 Y77.698 E0.04535
G1 X190.054 Y78.638 E0.04535
G1 X190.993 Y79.737 E0.04535
G1 X191.749 Y80.970 E0.04535
G1 X192.303 Y82.306 E0.04535
G1 X192.640 Y83.713 E0.04535
G1 X192.754 Y85.163 E0.04560
G1 X192.754 Y155.146 E2.19428
G1 X192.640 Y156.596 E0.04560
G1 X192.303 Y158.003 E0.04535
G1 X191.749 Y159.339 E0.04535
G1 X190.993 Y160.572 E0.04535
G1 X190.054 Y161.672 E0.04535
G1 X188.954 Y162.611 E0.04535
G1 X187.721 Y163.366 E0.04535
G1 X186.385 Y163.920 E0.04535
G1 X184.979 Y164.258 E0.04535
G1 X183.529 Y164.372 E0.04561
G1 X88.545 Y164.372 E2.97814
G1 X87.095 Y164.258 E0.04561
G1 X85.689 Y163.920 E0.04535
G1 X84.353 Y163.366 E0.04535
G1 X83.120 Y162.611 E0.04535
G1 X82.020 Y161.672 E0.04535
G1 X81.081 Y160.572 E0.04535
G1 X80.325 Y159.339 E0.04535
G1 X79.772 Y158.003 E0.04535
G1 X79.469 Y156.742 E0.04065
G1 X79.518 Y156.620 F10800.000
G1 F8640
G1 X79.434 Y156.596 E-0.03456
G1 X79.320 Y155.146 E-0.33585
G1 X79.320 Y153.459 E-0.38959
G1 E-0.04000 F2100.00000
G1 Z0.800 F10800.000
G1 X80.642 Y158.823
G1 Z0.200
G1 E0.80000 F2100.00000
G1 F1200
G1 X84.869 Y163.049 E0.18782
G1 F8640
G1 X82.541 Y160.722 E-0.76000
G1 E-0.04000 F2100.00000
G1 Z0.800 F10800.000
G1 X83.885 Y161.532
G1 Z0.200
G1 E0.80000 F2100.00000
G1 F1200
G1 X85.467 Y163.114 E0.07032
G1 X85.894 Y163.290 E0.01450
G1 X86.268 Y163.380 E0.01211
