; generated by PrusaSlicer 2.2.0+win64 on 2021-09-02 at 12:07:14 UTC

; 

; external perimeters extrusion width = 0.45mm
; perimeters extrusion width = 0.45mm
; infill extrusion width = 0.45mm
; solid infill extrusion width = 0.45mm
; top infill extrusion width = 0.40mm
; first layer extrusion width = 0.42mm

M73 P0 R93
M201 X9000 Y9000 Z500 E10000 ; sets maximum accelerations, mm/sec^2
M203 X500 Y500 Z12 E120 ; sets maximum feedrates, mm/sec
M204 P2000 R1500 T2000 ; sets acceleration (P, T) and retract acceleration (R), mm/sec^2
M205 X10.00 Y10.00 Z0.20 E2.50 ; sets the jerk limits, mm/sec
M205 S0 T0 ; sets the minimum extruding and travel feed rate, mm/sec
M107
M862.3 P "MK2S" ; printer model check
M862.1 P0.4 ; nozzle diameter check
M115 U3.2.3 ; tell printer latest fw version
G90 ; use absolute coordinates
M83 ; extruder relative mode
M204 S2000 T1500 ; MK2 firmware only supports the old M204 format
M104 S215 ; set extruder temp
M140 S60 ; set bed temp
M190 S60 ; wait for bed temp
M109 S215 ; wait for extruder temp
G28 W ; home all without mesh bed level
G80 ; mesh bed leveling
G1 Y-3.0 F1000.0 ; go outside print area
G92 E0.0
G1 X60.0 E9.0  F1000.0 ; intro line
M73 P0 R93
G1 X100.0 E12.5 F1000.0 ; intro line
G92 E0.0
G21 ; set units to millimeters
G90 ; use absolute coordinates
M83 ; use relative distances for extrusion
M900 K0.05 ; Filament gcode LA 1.5
M900 K30 ; Filament gcode LA 1.0
;BEFORE_LAYER_CHANGE
G92 E0.0
;0.2


G1 E-0.80000 F2100.00000
G1 Z0.400 F10800.000
;AFTER_LAYER_CHANGE
;0.2
G1 X108.810 Y72.077
G1 Z0.200
G1 E0.80000 F2100.00000
M204 S1000
G1 F1200.000
G1 X109.151 Y71.506 E0.02083
G1 X109.636 Y71.053 E0.02083
G1 X110.232 Y70.750 E0.02095
G1 X110.885 Y70.626 E0.02083
G1 X139.004 Y70.623 E0.88166
G1 X139.892 Y70.797 E0.02837
G1 X140.653 Y71.292 E0.02849
G1 X141.173 Y72.037 E0.02849
G1 X141.376 Y72.923 E0.02849
G1 X141.377 Y137.008 E2.00934
G1 X141.190 Y137.923 E0.02931
G1 X140.847 Y138.497 E0.02095
G1 X140.354 Y138.954 E0.02107
G1 X139.757 Y139.253 E0.02095
G1 X139.096 Y139.375 E0.02107
G1 X110.985 Y139.377 E0.88142
G1 X110.077 Y139.190 E0.02907
G1 X109.492 Y138.837 E0.02142
G1 X109.031 Y138.332 E0.02142
G1 X108.734 Y137.717 E0.02142
G1 X108.623 Y137.043 E0.02142
G1 X108.623 Y72.992 E2.00826
G1 X108.798 Y72.135 E0.02743
; printing object CornerFoot1.stl id:0 copy 0
G1 F8640.000
G1 X109.151 Y71.506 E-0.16654
G1 X109.636 Y71.053 E-0.15341
G1 X110.232 Y70.750 E-0.15428
G1 X110.885 Y70.626 E-0.15341
G1 X111.458 Y70.626 E-0.13235
G1 E-0.04000 F2100.00000
G1 Z0.600 F10800.000
G1 X112.213 Y78.213
G1 Z0.200
G1 E0.80000 F2100.00000
G1 F1200.000
G1 X123.787 Y78.213 E0.36290
G1 X123.787 Y85.187 E0.21867
G1 X112.213 Y85.187 E0.36290
G1 X112.213 Y78.273 E0.21679
G1 X112.590 Y78.590 F10800.000
G1 F1200.000
G1 X123.410 Y78.590 E0.33925
G1 X123.410 Y84.810 E0.19502
G1 X112.590 Y84.810 E0.33925
G1 X112.590 Y78.650 E0.19314
G1 X112.453 Y78.214 F10800.000
G1 F8640.000
G1 X115.881 Y78.632 E-0.76000
G1 E-0.04000 F2100.00000
G1 Z0.600 F10800.000
G1 X111.787 Y73.787
G1 Z0.200
G1 E0.80000 F2100.00000
G1 F1200.000
G1 X138.213 Y73.787 E0.82856
G1 X138.213 Y136.213 E1.95732
G1 X111.787 Y136.213 E0.82856
G1 X111.787 Y73.847 E1.95544
G1 X111.410 Y73.410 F10800.000
G1 F1200.000
G1 X138.590 Y73.410 E0.85221
G1 X138.590 Y136.590 E1.98096
G1 X111.410 Y136.590 E0.85221
G1 X111.410 Y73.470 E1.97908
G1 X111.780 Y73.561 F10800.000
G1 F8640.000
G1 X114.701 Y73.463 E-0.76000
G1 E-0.04000 F2100.00000
G1 Z0.600 F10800.000
G1 X111.900 Y77.423
G1 Z0.200
G1 E0.80000 F2100.00000
G1 F1200.000
G1 X112.408 Y77.930 E0.02263
G1 X112.944 Y77.930 E0.01691
G1 X112.070 Y77.056 E0.03897
G1 X112.070 Y76.520 E0.01691
G1 X113.480 Y77.930 E0.06288
G1 X114.016 Y77.930 E0.01691
G1 X112.070 Y75.984 E0.08679
G1 X112.070 Y75.447 E0.01691
G1 X114.553 Y77.930 E0.11070
G1 X115.089 Y77.930 E0.01691
G1 X112.070 Y74.911 E0.13460
G1 X112.070 Y74.375 E0.01691
G1 X115.625 Y77.930 E0.15851
G1 X116.161 Y77.930 E0.01691
G1 X112.301 Y74.070 E0.17211
G1 X112.837 Y74.070 E0.01691
G1 X116.697 Y77.930 E0.17211
G1 X117.234 Y77.930 E0.01691
G1 X113.373 Y74.070 E0.17211
G1 X113.910 Y74.070 E0.01691
G1 X117.770 Y77.930 E0.17211
G1 X118.306 Y77.930 E0.01691
G1 X114.446 Y74.070 E0.17211
G1 X114.982 Y74.070 E0.01691
G1 X118.842 Y77.930 E0.17211
G1 X119.378 Y77.930 E0.01691
G1 X115.518 Y74.070 E0.17211
G1 X116.054 Y74.070 E0.01691
G1 X119.915 Y77.930 E0.17211
G1 X120.451 Y77.930 E0.01691
G1 X116.591 Y74.070 E0.17211
G1 X117.127 Y74.070 E0.01691
G1 X120.987 Y77.930 E0.17211
G1 X121.523 Y77.930 E0.01691
G1 X117.663 Y74.070 E0.17211
G1 X118.199 Y74.070 E0.01691
G1 X122.060 Y77.930 E0.17211
G1 X122.596 Y77.930 E0.01691
G1 X118.736 Y74.070 E0.17211
G1 X119.272 Y74.070 E0.01691
G1 X123.132 Y77.930 E0.17211
G1 X123.668 Y77.930 E0.01691
G1 X119.808 Y74.070 E0.17211
G1 X120.344 Y74.070 E0.01691
G1 X137.930 Y91.656 E0.78409
G1 X137.930 Y91.120 E0.01691
G1 X120.880 Y74.070 E0.76018
G1 X121.417 Y74.070 E0.01691
G1 X137.930 Y90.583 E0.73627
G1 X137.930 Y90.047 E0.01691
G1 X121.953 Y74.070 E0.71237
G1 X122.489 Y74.070 E0.01691
G1 X137.930 Y89.511 E0.68846
G1 X137.930 Y88.975 E0.01691
G1 X123.025 Y74.070 E0.66455
G1 X123.561 Y74.070 E0.01691
G1 X137.930 Y88.439 E0.64064
G1 X137.930 Y87.902 E0.01691
G1 X124.098 Y74.070 E0.61674
G1 X124.634 Y74.070 E0.01691
G1 X137.930 Y87.366 E0.59283
G1 X137.930 Y86.830 E0.01691
G1 X125.170 Y74.070 E0.56892
G1 X125.706 Y74.070 E0.01691
G1 X137.930 Y86.294 E0.54501
G1 X137.930 Y85.758 E0.01691
G1 X126.242 Y74.070 E0.52111
G1 X126.779 Y74.070 E0.01691
G1 X137.930 Y85.221 E0.49720
G1 X137.930 Y84.685 E0.01691
G1 X127.315 Y74.070 E0.47329
G1 X127.851 Y74.070 E0.01691
G1 X137.930 Y84.149 E0.44938
G1 X137.930 Y83.613 E0.01691
G1 X128.387 Y74.070 E0.42548
G1 X128.923 Y74.070 E0.01691
G1 X137.930 Y83.077 E0.40157
G1 X137.930 Y82.540 E0.01691
G1 X129.460 Y74.070 E0.37766
G1 X129.996 Y74.070 E0.01691
G1 X137.930 Y82.004 E0.35376
G1 X137.930 Y81.468 E0.01691
G1 X130.532 Y74.070 E0.32985
M73 P1 R92
G1 X131.068 Y74.070 E0.01691
G1 X137.930 Y80.932 E0.30594
G1 X137.930 Y80.395 E0.01691
G1 X131.605 Y74.070 E0.28203
G1 X132.141 Y74.070 E0.01691
G1 X137.930 Y79.859 E0.25813
G1 X137.930 Y79.323 E0.01691
G1 X132.677 Y74.070 E0.23422
G1 X133.213 Y74.070 E0.01691
G1 X137.930 Y78.787 E0.21031
G1 X137.930 Y78.251 E0.01691
G1 X133.749 Y74.070 E0.18640
G1 X134.286 Y74.070 E0.01691
G1 X137.930 Y77.714 E0.16250
G1 X137.930 Y77.178 E0.01691
G1 X134.822 Y74.070 E0.13859
G1 X135.358 Y74.070 E0.01691
G1 X137.930 Y76.642 E0.11468
G1 X137.930 Y76.106 E0.01691
G1 X135.894 Y74.070 E0.09077
G1 X136.430 Y74.070 E0.01691
G1 X137.930 Y75.570 E0.06687
G1 X137.930 Y75.033 E0.01691
G1 X136.967 Y74.070 E0.04296
G1 X137.503 Y74.070 E0.01691
G1 X138.100 Y74.667 E0.02662
G1 F8640.000
G1 X137.503 Y74.070 E-0.19495
G1 X136.967 Y74.070 E-0.12381
G1 X137.930 Y75.033 E-0.31463
G1 X137.930 Y75.570 E-0.12381
G1 X137.922 Y75.561 E-0.00280
G1 E-0.04000 F2100.00000
G1 Z0.600 F10800.000
G1 X138.100 Y92.362
G1 Z0.200
G1 E0.80000 F2100.00000
G1 F1200.000
G1 X124.070 Y78.332 E0.62554
G1 X124.070 Y78.868 E0.01691
G1 X137.930 Y92.728 E0.61797
G1 X137.930 Y93.264 E0.01691
G1 X124.070 Y79.404 E0.61797
G1 X124.070 Y79.940 E0.01691
G1 X137.930 Y93.801 E0.61797
G1 X137.930 Y94.337 E0.01691
G1 X124.070 Y80.477 E0.61797
G1 X124.070 Y81.013 E0.01691
G1 X137.930 Y94.873 E0.61797
G1 X137.930 Y95.409 E0.01691
G1 X124.070 Y81.549 E0.61797
G1 X124.070 Y82.085 E0.01691
G1 X137.930 Y95.946 E0.61797
G1 X137.930 Y96.482 E0.01691
G1 X124.070 Y82.622 E0.61797
G1 X124.070 Y83.158 E0.01691
G1 X137.930 Y97.018 E0.61797
G1 X137.930 Y97.554 E0.01691
G1 X124.070 Y83.694 E0.61797
G1 X124.070 Y84.230 E0.01691
G1 X137.930 Y98.090 E0.61797
G1 X137.930 Y98.627 E0.01691
G1 X124.070 Y84.766 E0.61797
G1 X124.070 Y85.303 E0.01691
G1 X137.930 Y99.163 E0.61797
G1 X137.930 Y99.699 E0.01691
G1 X123.701 Y85.470 E0.63442
G1 X123.165 Y85.470 E0.01691
G1 X137.930 Y100.235 E0.65833
G1 X137.930 Y100.771 E0.01691
G1 X122.629 Y85.470 E0.68223
G1 X122.092 Y85.470 E0.01691
G1 X137.930 Y101.308 E0.70614
G1 X137.930 Y101.844 E0.01691
G1 X121.556 Y85.470 E0.73005
G1 X121.020 Y85.470 E0.01691
G1 X137.930 Y102.380 E0.75396
G1 X137.930 Y102.916 E0.01691
G1 X120.484 Y85.470 E0.77786
G1 X119.948 Y85.470 E0.01691
G1 X137.930 Y103.452 E0.80177
G1 X137.930 Y103.989 E0.01691
G1 X119.411 Y85.470 E0.82568
G1 X118.875 Y85.470 E0.01691
G1 X137.930 Y104.525 E0.84959
G1 X137.930 Y105.061 E0.01691
G1 X118.339 Y85.470 E0.87349
G1 X117.803 Y85.470 E0.01691
G1 X137.930 Y105.597 E0.89740
G1 X137.930 Y106.134 E0.01691
G1 X117.266 Y85.470 E0.92131
G1 X116.730 Y85.470 E0.01691
G1 X137.930 Y106.670 E0.94522
G1 X137.930 Y107.206 E0.01691
G1 X116.194 Y85.470 E0.96912
G1 X115.658 Y85.470 E0.01691
G1 X137.930 Y107.742 E0.99303
G1 X137.930 Y108.278 E0.01691
G1 X115.122 Y85.470 E1.01694
G1 X114.585 Y85.470 E0.01691
G1 X137.930 Y108.815 E1.04084
G1 X137.930 Y109.351 E0.01691
G1 X114.049 Y85.470 E1.06475
G1 X113.513 Y85.470 E0.01691
G1 X137.930 Y109.887 E1.08866
G1 X137.930 Y110.423 E0.01691
G1 X112.977 Y85.470 E1.11257
G1 X112.441 Y85.470 E0.01691
G1 X137.930 Y110.959 E1.13647
G1 X137.930 Y111.496 E0.01691
G1 X112.070 Y85.635 E1.15300
G1 X112.070 Y86.172 E0.01691
G1 X137.930 Y112.032 E1.15300
G1 X137.930 Y112.568 E0.01691
G1 X112.070 Y86.708 E1.15300
G1 X112.070 Y87.244 E0.01691
G1 X137.930 Y113.104 E1.15300
G1 X137.930 Y113.640 E0.01691
G1 X112.070 Y87.780 E1.15300
G1 X112.070 Y88.316 E0.01691
G1 X137.930 Y114.177 E1.15300
M73 P2 R91
G1 X137.930 Y114.713 E0.01691
G1 X112.070 Y88.853 E1.15300
G1 X112.070 Y89.389 E0.01691
G1 X137.930 Y115.249 E1.15300
G1 X137.930 Y115.785 E0.01691
G1 X112.070 Y89.925 E1.15300
G1 X112.070 Y90.461 E0.01691
G1 X137.930 Y116.321 E1.15300
G1 X137.930 Y116.858 E0.01691
G1 X112.070 Y90.997 E1.15300
G1 X112.070 Y91.534 E0.01691
G1 X137.930 Y117.394 E1.15300
G1 X137.930 Y117.930 E0.01691
G1 X112.070 Y92.070 E1.15300
G1 X112.070 Y92.606 E0.01691
G1 X137.930 Y118.466 E1.15300
G1 X137.930 Y119.003 E0.01691
G1 X112.070 Y93.142 E1.15300
G1 X112.070 Y93.678 E0.01691
G1 X137.930 Y119.539 E1.15300
G1 X137.930 Y120.075 E0.01691
G1 X112.070 Y94.215 E1.15300
G1 X112.070 Y94.751 E0.01691
G1 X137.930 Y120.611 E1.15300
G1 X137.930 Y121.147 E0.01691
G1 X112.070 Y95.287 E1.15300
G1 X112.070 Y95.823 E0.01691
G1 X137.930 Y121.684 E1.15300
G1 X137.930 Y122.220 E0.01691
G1 X112.070 Y96.360 E1.15300
G1 X112.070 Y96.896 E0.01691
G1 X137.930 Y122.756 E1.15300
G1 X137.930 Y123.292 E0.01691
G1 X112.070 Y97.432 E1.15300
G1 X112.070 Y97.968 E0.01691
G1 X137.930 Y123.828 E1.15300
G1 X137.930 Y124.365 E0.01691
G1 X112.070 Y98.504 E1.15300
G1 X112.070 Y99.041 E0.01691
G1 X137.930 Y124.901 E1.15300
G1 X137.930 Y125.437 E0.01691
G1 X112.070 Y99.577 E1.15300
G1 X112.070 Y100.113 E0.01691
G1 X137.930 Y125.973 E1.15300
G1 X137.930 Y126.509 E0.01691
G1 X112.070 Y100.649 E1.15300
G1 X112.070 Y101.185 E0.01691
G1 X137.930 Y127.046 E1.15300
G1 X137.930 Y127.582 E0.01691
G1 X112.070 Y101.722 E1.15300
G1 X112.070 Y102.258 E0.01691
G1 X137.930 Y128.118 E1.15300
G1 X137.930 Y128.654 E0.01691
G1 X112.070 Y102.794 E1.15300
G1 X112.070 Y103.330 E0.01691
G1 X137.930 Y129.190 E1.15300
G1 X137.930 Y129.727 E0.01691
G1 X112.070 Y103.866 E1.15300
G1 X112.070 Y104.403 E0.01691
G1 X137.930 Y130.263 E1.15300
G1 X137.930 Y130.799 E0.01691
G1 X112.070 Y104.939 E1.15300
G1 X112.070 Y105.475 E0.01691
G1 X137.930 Y131.335 E1.15300
G1 X137.930 Y131.872 E0.01691
G1 X112.070 Y106.011 E1.15300
M73 P3 R90
G1 X112.070 Y106.548 E0.01691
G1 X137.930 Y132.408 E1.15300
G1 X137.930 Y132.944 E0.01691
G1 X112.070 Y107.084 E1.15300
G1 X112.070 Y107.620 E0.01691
G1 X137.930 Y133.480 E1.15300
G1 X137.930 Y134.016 E0.01691
G1 X112.070 Y108.156 E1.15300
G1 X112.070 Y108.692 E0.01691
G1 X137.930 Y134.553 E1.15300
G1 X137.930 Y135.089 E0.01691
G1 X112.070 Y109.229 E1.15300
G1 X112.070 Y109.765 E0.01691
G1 X137.930 Y135.625 E1.15300
G1 X137.930 Y135.930 E0.00962
G1 X137.699 Y135.930 E0.00729
G1 X112.070 Y110.301 E1.14270
G1 X112.070 Y110.837 E0.01691
G1 X137.163 Y135.930 E1.11879
G1 X136.627 Y135.930 E0.01691
G1 X112.070 Y111.373 E1.09489
G1 X112.070 Y111.910 E0.01691
G1 X136.090 Y135.930 E1.07098
G1 X135.554 Y135.930 E0.01691
G1 X112.070 Y112.446 E1.04707
G1 X112.070 Y112.982 E0.01691
G1 X135.018 Y135.930 E1.02316
G1 X134.482 Y135.930 E0.01691
G1 X112.070 Y113.518 E0.99926
G1 X112.070 Y114.054 E0.01691
G1 X133.946 Y135.930 E0.97535
G1 X133.409 Y135.930 E0.01691
G1 X112.070 Y114.591 E0.95144
G1 X112.070 Y115.127 E0.01691
G1 X132.873 Y135.930 E0.92753
G1 X132.337 Y135.930 E0.01691
G1 X112.070 Y115.663 E0.90363
G1 X112.070 Y116.199 E0.01691
G1 X131.801 Y135.930 E0.87972
G1 X131.265 Y135.930 E0.01691
G1 X112.070 Y116.735 E0.85581
G1 X112.070 Y117.272 E0.01691
G1 X130.728 Y135.930 E0.83190
G1 X130.192 Y135.930 E0.01691
G1 X112.070 Y117.808 E0.80800
G1 X112.070 Y118.344 E0.01691
G1 X129.656 Y135.930 E0.78409
G1 X129.120 Y135.930 E0.01691
G1 X112.070 Y118.880 E0.76018
G1 X112.070 Y119.417 E0.01691
G1 X128.583 Y135.930 E0.73627
G1 X128.047 Y135.930 E0.01691
G1 X112.070 Y119.953 E0.71237
G1 X112.070 Y120.489 E0.01691
G1 X127.511 Y135.930 E0.68846
G1 X126.975 Y135.930 E0.01691
G1 X112.070 Y121.025 E0.66455
G1 X112.070 Y121.561 E0.01691
G1 X126.439 Y135.930 E0.64065
G1 X125.902 Y135.930 E0.01691
G1 X112.070 Y122.098 E0.61674
G1 X112.070 Y122.634 E0.01691
G1 X125.366 Y135.930 E0.59283
G1 X124.830 Y135.930 E0.01691
G1 X112.070 Y123.170 E0.56892
G1 X112.070 Y123.706 E0.01691
G1 X124.294 Y135.930 E0.54502
G1 X123.758 Y135.930 E0.01691
G1 X112.070 Y124.242 E0.52111
G1 X112.070 Y124.779 E0.01691
G1 X123.221 Y135.930 E0.49720
G1 X122.685 Y135.930 E0.01691
G1 X112.070 Y125.315 E0.47329
G1 X112.070 Y125.851 E0.01691
G1 X122.149 Y135.930 E0.44939
G1 X121.613 Y135.930 E0.01691
G1 X112.070 Y126.387 E0.42548
G1 X112.070 Y126.923 E0.01691
G1 X121.077 Y135.930 E0.40157
G1 X120.540 Y135.930 E0.01691
G1 X112.070 Y127.460 E0.37766
G1 X112.070 Y127.996 E0.01691
G1 X120.004 Y135.930 E0.35376
G1 X119.468 Y135.930 E0.01691
G1 X112.070 Y128.532 E0.32985
G1 X112.070 Y129.068 E0.01691
G1 X118.932 Y135.930 E0.30594
G1 X118.396 Y135.930 E0.01691
G1 X112.070 Y129.604 E0.28203
G1 X112.070 Y130.141 E0.01691
G1 X117.859 Y135.930 E0.25813
G1 X117.323 Y135.930 E0.01691
G1 X112.070 Y130.677 E0.23422
G1 X112.070 Y131.213 E0.01691
G1 X116.787 Y135.930 E0.21031
G1 X116.251 Y135.930 E0.01691
G1 X112.070 Y131.749 E0.18640
G1 X112.070 Y132.286 E0.01691
G1 X115.714 Y135.930 E0.16250
G1 X115.178 Y135.930 E0.01691
G1 X112.070 Y132.822 E0.13859
G1 X112.070 Y133.358 E0.01691
G1 X114.642 Y135.930 E0.11468
G1 X114.106 Y135.930 E0.01691
G1 X112.070 Y133.894 E0.09078
G1 X112.070 Y134.430 E0.01691
G1 X113.570 Y135.930 E0.06687
G1 X113.033 Y135.930 E0.01691
G1 X112.070 Y134.967 E0.04296
G1 X112.070 Y135.503 E0.01691
G1 X112.667 Y136.100 E0.02662
; stop printing object CornerFoot1.stl id:0 copy 0
M106 S255
;BEFORE_LAYER_CHANGE
G92 E0.0
;0.4


G1 F8640.000
G1 X112.070 Y135.503 E-0.19495
G1 X112.070 Y134.967 E-0.12381
G1 X113.033 Y135.930 E-0.31464
G1 X113.570 Y135.930 E-0.12381
G1 X113.561 Y135.922 E-0.00278
G1 E-0.04000 F2100.00000
G1 Z0.600 F10800.000
;AFTER_LAYER_CHANGE
;0.4
M104 S210 ; set temperature
G1 X110.077 Y139.190
G1 Z0.400
G1 E0.80000 F2100.00000
G1 F3000.000
G1 X109.492 Y138.837 E0.02142
G1 X109.031 Y138.332 E0.02142
G1 X108.734 Y137.717 E0.02142
G1 X108.623 Y137.043 E0.02142
G1 X108.623 Y72.992 E2.00826
M73 P4 R89
G1 X108.810 Y72.077 E0.02931
G1 X109.151 Y71.506 E0.02083
G1 X109.636 Y71.053 E0.02083
G1 X110.232 Y70.750 E0.02095
G1 X110.885 Y70.626 E0.02083
G1 X139.004 Y70.623 E0.88166
G1 X139.892 Y70.797 E0.02837
G1 X140.653 Y71.292 E0.02849
G1 X141.173 Y72.037 E0.02849
G1 X141.376 Y72.923 E0.02849
G1 X141.377 Y137.008 E2.00934
G1 X141.190 Y137.923 E0.02931
G1 X140.847 Y138.497 E0.02095
G1 X140.354 Y138.954 E0.02107
G1 X139.757 Y139.253 E0.02095
G1 X139.096 Y139.375 E0.02107
G1 X110.985 Y139.377 E0.88142
G1 X110.135 Y139.202 E0.02719
; printing object CornerFoot1.stl id:0 copy 0
G1 F8640.000
G1 X109.492 Y138.837 E-0.17088
G1 X109.031 Y138.332 E-0.15776
G1 X108.734 Y137.717 E-0.15776
