; generated by PrusaSlicer 2.2.0+win64 on 2021-09-04 at 12:14:50 UTC

; 

; external perimeters extrusion width = 0.45mm
; perimeters extrusion width = 0.45mm
; infill extrusion width = 0.45mm
; solid infill extrusion width = 0.45mm
; top infill extrusion width = 0.40mm
; first layer extrusion width = 0.42mm

M73 P0 R78
M201 X9000 Y9000 Z500 E10000 ; sets maximum accelerations, mm/sec^2
M203 X500 Y500 Z12 E120 ; sets maximum feedrates, mm/sec
M204 P2000 R1500 T2000 ; sets acceleration (P, T) and retract acceleration (R), mm/sec^2
M205 X10.00 Y10.00 Z0.20 E2.50 ; sets the jerk limits, mm/sec
M205 S0 T0 ; sets the minimum extruding and travel feed rate, mm/sec
M107
M862.3 P "MK2S" ; printer model check
M862.1 P0.4 ; nozzle diameter check
M115 U3.2.3 ; tell printer latest fw version
G90 ; use absolute coordinates
M83 ; extruder relative mode
M204 S2000 T1500 ; MK2 firmware only supports the old M204 format
M104 S220 ; set extruder temp
M140 S80 ; set bed temp
M190 S80 ; wait for bed temp
M109 S220 ; wait for extruder temp
G28 W ; home all without mesh bed level
G80 ; mesh bed leveling
G1 Y-3.0 F1000.0 ; go outside print area
G92 E0.0
G1 X60.0 E9.0  F1000.0 ; intro line
M73 P0 R78
G1 X100.0 E12.5 F1000.0 ; intro line
G92 E0.0
G21 ; set units to millimeters
G90 ; use absolute coordinates
M83 ; use relative distances for extrusion
M900 K45 ; Filament gcode
;BEFORE_LAYER_CHANGE
G92 E0.0
;0.2


G1 E-0.80000 F2100.00000
G1 Z0.400 F10800.000
;AFTER_LAYER_CHANGE
;0.2
G1 X92.529 Y98.554
G1 Z0.200
G1 E0.80000 F2100.00000
M204 S1000
G1 F1200.000
G1 X93.009 Y97.881 E0.02590
G1 X137.096 Y55.329 E1.92117
G1 X137.685 Y55.005 E0.02107
G1 X138.340 Y54.859 E0.02107
G1 X152.510 Y54.121 E0.44489
G1 X153.377 Y54.286 E0.02767
G1 X154.124 Y54.757 E0.02767
G1 X154.647 Y55.467 E0.02767
G1 X154.875 Y56.319 E0.02767
G1 X159.780 Y150.592 E2.95984
G1 X159.583 Y151.340 E0.02426
G1 X159.157 Y151.985 E0.02426
G1 X158.546 Y152.459 E0.02426
G1 X157.818 Y152.712 E0.02414
G1 X143.210 Y153.467 E0.45864
G1 X142.560 Y153.312 E0.02095
G1 X141.979 Y152.982 E0.02095
G1 X93.675 Y115.186 E1.92307
G1 X93.236 Y114.526 E0.02484
G1 X93.038 Y113.763 E0.02473
G1 X92.309 Y99.354 E0.45237
G1 X92.513 Y98.612 E0.02414
; printing object Coupler.stl id:0 copy 0
G1 F8640.000
G1 X93.009 Y97.881 E-0.20383
G1 X94.742 Y96.208 E-0.55617
G1 E-0.04000 F2100.00000
G1 Z0.600 F10800.000
G1 X144.621 Y117.993
G1 Z0.200
G1 E0.80000 F2100.00000
G1 F1200.000
G1 X146.476 Y114.354 E0.12806
G1 X150.057 Y114.167 E0.11246
G1 X150.554 Y114.141 E0.01560
G1 X152.778 Y117.567 E0.12806
G1 X150.924 Y121.206 E0.12806
G1 X146.845 Y121.419 E0.12806
G1 X144.654 Y118.044 E0.12618
G1 X145.056 Y117.971 F10800.000
G1 F1200.000
G1 X146.713 Y114.720 E0.11441
G1 X150.077 Y114.544 E0.10563
G1 X150.357 Y114.529 E0.00877
G1 X152.343 Y117.589 E0.11441
G1 X150.687 Y120.840 E0.11441
G1 X147.043 Y121.031 E0.11441
G1 X145.088 Y118.021 E0.11253
G1 X144.699 Y117.789 F10800.000
G1 F8640.000
G1 X146.541 Y115.068 E-0.76000
G1 E-0.04000 F2100.00000
G1 Z0.600 F10800.000
G1 X147.833 Y140.319
G1 Z0.200
G1 E0.80000 F2100.00000
G1 F1200.000
G1 X151.912 Y140.106 E0.12806
G1 X154.136 Y143.531 E0.12806
G1 X152.281 Y147.170 E0.12806
G1 X148.202 Y147.383 E0.12806
G1 X145.978 Y143.958 E0.12806
G1 X147.806 Y140.372 E0.12618
G1 X148.070 Y140.684 F10800.000
G1 F1200.000
G1 X151.714 Y140.494 E0.11441
G1 X153.701 Y143.554 E0.11441
G1 X152.044 Y146.805 E0.11441
G1 X148.400 Y146.995 E0.11441
G1 X146.413 Y143.935 E0.11441
G1 X148.043 Y140.738 E0.11253
G1 X148.049 Y140.285 F10800.000
G1 F8640.000
G1 X151.327 Y140.519 E-0.76000
G1 E-0.04000 F2100.00000
G1 Z0.600 F10800.000
G1 X145.570 Y93.447
G1 Z0.200
G1 E0.80000 F2100.00000
G1 F1200.000
G1 X145.383 Y93.457 E0.00589
G1 X143.159 Y90.031 E0.12806
G1 X145.014 Y86.393 E0.12806
G1 X149.092 Y86.179 E0.12806
G1 X151.316 Y89.605 E0.12806
G1 X149.462 Y93.244 E0.12806
G1 X145.630 Y93.444 E0.12029
G1 X145.611 Y93.068 F10800.000
G1 F1200.000
G1 X145.581 Y93.069 E0.00094
G1 X143.594 Y90.009 E0.11441
G1 X145.251 Y86.758 E0.11441
G1 X148.895 Y86.567 E0.11441
G1 X150.882 Y89.628 E0.11441
G1 X149.225 Y92.879 E0.11441
G1 X145.671 Y93.064 E0.11159
G1 X145.602 Y93.096 F10800.000
G1 F8640.000
G1 X145.581 Y93.069 E-0.02078
G1 X143.837 Y90.384 E-0.73922
G1 E-0.04000 F2100.00000
G1 Z0.600 F10800.000
G1 X147.735 Y60.215
G1 Z0.200
G1 E0.80000 F2100.00000
G1 F1200.000
G1 X149.959 Y63.640 E0.12806
G1 X148.104 Y67.279 E0.12806
G1 X144.025 Y67.493 E0.12806
G1 X141.801 Y64.067 E0.12806
G1 X143.656 Y60.428 E0.12806
G1 X147.675 Y60.218 E0.12618
G1 X147.537 Y60.603 F10800.000
G1 F1200.000
G1 X149.524 Y63.663 E0.11441
G1 X147.867 Y66.914 E0.11441
G1 X144.223 Y67.105 E0.11441
G1 X142.236 Y64.044 E0.11441
G1 X143.893 Y60.793 E0.11441
G1 X147.477 Y60.606 E0.11253
G1 X147.873 Y60.385 F10800.000
G1 F8640.000
G1 X149.308 Y63.341 E-0.76000
G1 E-0.04000 F2100.00000
G1 Z0.600 F10800.000
G1 X142.089 Y110.328
G1 Z0.200
G1 E0.80000 F2100.00000
G1 F1200.000
G1 X96.151 Y112.730 E1.44230
G1 X95.503 Y100.321 E0.38960
G1 X98.698 Y100.154 E0.10033
G1 X98.693 Y100.054 E0.00314
G1 X109.903 Y99.468 E0.35198
G1 X109.909 Y99.568 E0.00314
G1 X141.440 Y97.919 E0.98999
G1 X139.351 Y57.974 E1.25417
G1 X151.760 Y57.325 E0.38960
G1 X156.586 Y149.625 E2.89795
G1 X144.177 Y150.273 E0.38960
G1 X142.092 Y110.388 E1.25229
G1 X141.732 Y110.724 F10800.000
G1 F1200.000
G1 X95.794 Y113.126 E1.44230
G1 X95.106 Y99.964 E0.41325
G1 X98.302 Y99.797 E0.10033
G1 X98.297 Y99.697 E0.00314
G1 X110.260 Y99.072 E0.37562
G1 X110.266 Y99.171 E0.00314
G1 X141.044 Y97.562 E0.96634
G1 X138.955 Y57.617 E1.25417
G1 X152.117 Y56.929 E0.41325
G1 X156.982 Y149.981 E2.92159
G1 X143.820 Y150.670 E0.41325
G1 X141.735 Y110.784 E1.25229
M73 P1 R77
G1 X141.669 Y110.329 F10800.000
G1 F8640.000
G1 X138.448 Y110.952 E-0.76000
G1 E-0.04000 F2100.00000
G1 Z0.600 F10800.000
G1 X146.344 Y114.364
G1 Z0.200
G1 E0.80000 F2100.00000
G1 F1200.000
G1 X142.375 Y110.395 E0.17637
G1 X142.405 Y110.959 E0.01775
G1 X146.037 Y114.592 E0.16144
G1 X145.857 Y114.946 E0.01249
G1 X142.434 Y111.523 E0.15211
G1 X142.464 Y112.087 E0.01775
G1 X145.676 Y115.300 E0.14278
G1 X145.496 Y115.654 E0.01249
G1 X142.493 Y112.651 E0.13345
G1 X142.523 Y113.215 E0.01775
G1 X145.315 Y116.008 E0.12412
G1 X145.135 Y116.362 E0.01249
G1 X142.552 Y113.779 E0.11479
G1 X142.582 Y114.343 E0.01775
G1 X144.955 Y116.716 E0.10546
G1 X144.774 Y117.070 E0.01249
G1 X142.611 Y114.907 E0.09613
G1 X142.641 Y115.471 E0.01775
G1 X144.594 Y117.424 E0.08680
G1 X144.413 Y117.778 E0.01249
G1 X142.670 Y116.035 E0.07747
G1 X142.700 Y116.599 E0.01775
G1 X144.635 Y118.534 E0.08600
G1 X145.624 Y120.058 E0.05709
G1 X142.729 Y117.163 E0.12865
G1 X142.759 Y117.727 E0.01775
G1 X155.290 Y130.258 E0.55693
G1 X155.320 Y130.822 E0.01775
G1 X142.788 Y118.291 E0.55693
G1 X142.818 Y118.855 E0.01775
G1 X155.349 Y131.386 E0.55693
G1 X155.379 Y131.950 E0.01775
G1 X142.847 Y119.419 E0.55693
G1 X142.877 Y119.983 E0.01775
G1 X155.408 Y132.514 E0.55693
G1 X155.438 Y133.078 E0.01775
G1 X142.906 Y120.547 E0.55693
G1 X142.936 Y121.110 E0.01775
G1 X155.467 Y133.642 E0.55693
G1 X155.497 Y134.206 E0.01775
G1 X142.965 Y121.674 E0.55693
G1 X142.994 Y122.238 E0.01775
G1 X155.526 Y134.770 E0.55693
G1 X155.556 Y135.334 E0.01775
G1 X143.024 Y122.802 E0.55693
G1 X143.053 Y123.366 E0.01775
G1 X155.585 Y135.898 E0.55693
G1 X155.615 Y136.462 E0.01775
G1 X143.083 Y123.930 E0.55693
G1 X143.112 Y124.494 E0.01775
G1 X155.644 Y137.026 E0.55693
G1 X155.674 Y137.590 E0.01775
G1 X143.142 Y125.058 E0.55693
G1 X143.171 Y125.622 E0.01775
G1 X155.703 Y138.154 E0.55693
G1 X155.733 Y138.718 E0.01775
G1 X143.201 Y126.186 E0.55693
G1 X143.230 Y126.750 E0.01775
G1 X155.762 Y139.282 E0.55693
G1 X155.792 Y139.846 E0.01775
G1 X143.260 Y127.314 E0.55693
G1 X143.289 Y127.878 E0.01775
G1 X155.821 Y140.410 E0.55693
G1 X155.851 Y140.974 E0.01775
G1 X143.319 Y128.442 E0.55693
G1 X143.348 Y129.006 E0.01775
G1 X155.880 Y141.538 E0.55693
G1 X155.909 Y142.102 E0.01775
G1 X143.378 Y129.570 E0.55693
G1 X143.407 Y130.134 E0.01775
G1 X155.939 Y142.666 E0.55693
G1 X155.968 Y143.230 E0.01775
G1 X143.437 Y130.698 E0.55693
G1 X143.466 Y131.262 E0.01775
G1 X155.998 Y143.794 E0.55693
G1 X156.027 Y144.357 E0.01775
G1 X153.125 Y141.455 E0.12898
G1 X154.114 Y142.979 E0.05709
G1 X156.057 Y144.921 E0.08633
G1 X156.086 Y145.485 E0.01775
G1 X154.345 Y143.744 E0.07740
G1 X154.164 Y144.098 E0.01249
G1 X156.116 Y146.049 E0.08673
G1 X156.145 Y146.613 E0.01775
G1 X153.984 Y144.452 E0.09606
G1 X153.804 Y144.806 E0.01249
G1 X156.175 Y147.177 E0.10539
G1 X156.204 Y147.741 E0.01775
G1 X153.623 Y145.160 E0.11472
G1 X153.443 Y145.514 E0.01249
G1 X156.234 Y148.305 E0.12405
G1 X156.263 Y148.869 E0.01775
G1 X153.262 Y145.868 E0.13338
G1 X153.082 Y146.222 E0.01249
G1 X156.220 Y149.361 E0.13948
G1 X155.712 Y149.387 E0.01598
G1 X152.901 Y146.576 E0.12492
G1 X152.721 Y146.930 E0.01249
G1 X155.204 Y149.414 E0.11037
G1 X154.696 Y149.440 E0.01598
G1 X152.540 Y147.284 E0.09581
G1 X152.459 Y147.444 E0.00564
G1 X152.180 Y147.459 E0.00877
G1 X154.188 Y149.467 E0.08925
G1 X153.681 Y149.493 E0.01598
G1 X151.672 Y147.485 E0.08925
G1 X151.164 Y147.512 E0.01598
G1 X153.173 Y149.520 E0.08925
G1 X152.665 Y149.546 E0.01598
G1 X150.657 Y147.538 E0.08925
G1 X150.149 Y147.565 E0.01598
G1 X152.157 Y149.573 E0.08925
G1 X151.649 Y149.600 E0.01598
G1 X149.641 Y147.591 E0.08925
G1 X149.133 Y147.618 E0.01598
G1 X151.141 Y149.626 E0.08925
G1 X150.633 Y149.653 E0.01598
G1 X148.463 Y147.483 E0.09642
G1 F8640.000
G1 X150.633 Y149.653 E-0.70848
G1 X150.856 Y149.641 E-0.05152
G1 E-0.04000 F2100.00000
G1 Z0.600 F10800.000
G1 X144.260 Y149.693
G1 Z0.200
G1 E0.80000 F2100.00000
G1 F1200.000
G1 X144.538 Y149.971 E0.01235
G1 X145.046 Y149.945 E0.01598
G1 X144.410 Y149.309 E0.02826
G1 X144.380 Y148.745 E0.01775
G1 X145.554 Y149.918 E0.05215
G1 X146.062 Y149.892 E0.01598
G1 X144.351 Y148.181 E0.07603
G1 X144.321 Y147.617 E0.01775
G1 X146.570 Y149.865 E0.09992
G1 X147.078 Y149.839 E0.01598
G1 X144.292 Y147.053 E0.12380
G1 X144.262 Y146.489 E0.01775
G1 X147.585 Y149.812 E0.14768
G1 X148.093 Y149.785 E0.01598
G1 X144.233 Y145.925 E0.17157
G1 X144.203 Y145.361 E0.01775
G1 X148.601 Y149.759 E0.19545
G1 X149.109 Y149.732 E0.01598
G1 X144.174 Y144.797 E0.21933
G1 X144.144 Y144.233 E0.01775
G1 X149.617 Y149.706 E0.24322
G1 X150.125 Y149.679 E0.01598
G1 X144.115 Y143.669 E0.26710
G1 X144.086 Y143.105 E0.01775
G1 X146.943 Y145.962 E0.12698
G1 X145.953 Y144.439 E0.05709
G1 X144.056 Y142.541 E0.08433
G1 X144.027 Y141.977 E0.01775
G1 X145.778 Y143.729 E0.07783
G1 X145.958 Y143.375 E0.01249
G1 X143.997 Y141.413 E0.08716
G1 X143.968 Y140.849 E0.01775
G1 X146.139 Y143.020 E0.09649
G1 X146.319 Y142.666 E0.01249
G1 X143.938 Y140.285 E0.10582
G1 X143.909 Y139.721 E0.01775
G1 X146.500 Y142.312 E0.11515
G1 X146.680 Y141.958 E0.01249
G1 X143.879 Y139.157 E0.12448
G1 X143.850 Y138.593 E0.01775
G1 X146.861 Y141.604 E0.13381
G1 X147.041 Y141.250 E0.01249
G1 X143.820 Y138.029 E0.14314
G1 X143.791 Y137.465 E0.01775
G1 X147.221 Y140.896 E0.15247
G1 X147.402 Y140.542 E0.01249
G1 X143.761 Y136.902 E0.16180
G1 X143.732 Y136.338 E0.01775
G1 X147.582 Y140.188 E0.17113
G1 X147.655 Y140.045 E0.00505
G1 X147.958 Y140.029 E0.00952
G1 X143.702 Y135.774 E0.18913
G1 X143.673 Y135.210 E0.01775
G1 X148.466 Y140.003 E0.21301
G1 X148.974 Y139.976 E0.01598
G1 X143.643 Y134.646 E0.23690
G1 X143.614 Y134.082 E0.01775
G1 X149.482 Y139.950 E0.26078
G1 X149.989 Y139.923 E0.01598
G1 X143.584 Y133.518 E0.28466
G1 X143.555 Y132.954 E0.01775
G1 X150.497 Y139.896 E0.30855
G1 X151.005 Y139.870 E0.01598
G1 X143.525 Y132.390 E0.33243
G1 X143.496 Y131.826 E0.01775
G1 X151.675 Y140.005 E0.36349
G1 F8640.000
G1 X149.347 Y137.677 E-0.76000
G1 E-0.04000 F2100.00000
G1 Z0.600 F10800.000
G1 X147.086 Y121.520
G1 Z0.200
G1 E0.80000 F2100.00000
G1 F1200.000
G1 X155.261 Y129.694 E0.36331
G1 X155.231 Y129.130 E0.01775
G1 X147.755 Y121.654 E0.33225
G1 X148.263 Y121.628 E0.01598
G1 X155.202 Y128.566 E0.30836
G1 X155.172 Y128.002 E0.01775
G1 X148.771 Y121.601 E0.28448
G1 X149.279 Y121.575 E0.01598
G1 X155.143 Y127.439 E0.26060
G1 X155.113 Y126.875 E0.01775
G1 X149.787 Y121.548 E0.23671
G1 X150.295 Y121.522 E0.01598
G1 X155.084 Y126.311 E0.21283
G1 X155.054 Y125.747 E0.01775
G1 X150.803 Y121.495 E0.18894
G1 X151.101 Y121.480 E0.00940
G1 X151.176 Y121.334 E0.00515
G1 X155.025 Y125.183 E0.17106
G1 X154.995 Y124.619 E0.01775
G1 X151.356 Y120.980 E0.16173
G1 X151.537 Y120.626 E0.01249
G1 X154.966 Y124.055 E0.15240
G1 X154.936 Y123.491 E0.01775
G1 X151.717 Y120.271 E0.14307
G1 X151.898 Y119.917 E0.01249
G1 X155.086 Y123.106 E0.14171
G1 X155.057 Y122.542 F10800.000
G1 F1200.000
G1 X152.078 Y119.563 E0.13238
G1 X152.258 Y119.209 E0.01249
G1 X154.848 Y121.799 E0.11508
G1 X154.818 Y121.235 E0.01775
G1 X152.439 Y118.855 E0.10575
G1 X152.619 Y118.501 E0.01249
G1 X154.789 Y120.671 E0.09642
G1 X154.759 Y120.107 E0.01775
G1 X152.800 Y118.147 E0.08709
G1 X152.980 Y117.793 E0.01249
G1 X154.730 Y119.543 E0.07776
G1 X154.701 Y118.979 E0.01775
G1 X152.796 Y117.074 E0.08466
G1 X151.806 Y115.550 E0.05709
G1 X154.850 Y118.594 E0.13528
G1 F8640.000
G1 X152.523 Y116.267 E-0.76000
G1 E-0.04000 F2100.00000
G1 Z0.600 F10800.000
G1 X96.216 Y111.805
G1 Z0.200
G1 E0.80000 F2100.00000
G1 F1200.000
G1 X96.823 Y112.411 E0.02696
G1 X97.331 Y112.385 E0.01598
G1 X96.366 Y111.420 E0.04288
G1 X96.337 Y110.856 E0.01775
G1 X97.839 Y112.358 E0.06676
G1 X98.347 Y112.332 E0.01598
G1 X96.307 Y110.292 E0.09065
G1 X96.278 Y109.728 E0.01775
G1 X98.855 Y112.305 E0.11453
G1 X99.363 Y112.279 E0.01598
G1 X96.248 Y109.164 E0.13841
G1 X96.219 Y108.600 E0.01775
G1 X99.870 Y112.252 E0.16230
G1 X100.378 Y112.226 E0.01598
G1 X96.189 Y108.036 E0.18618
G1 X96.160 Y107.472 E0.01775
G1 X100.886 Y112.199 E0.21006
G1 X101.394 Y112.172 E0.01598
G1 X96.130 Y106.908 E0.23395
G1 X96.101 Y106.344 E0.01775
G1 X101.902 Y112.146 E0.25783
G1 X102.410 Y112.119 E0.01598
G1 X96.071 Y105.780 E0.28172
G1 X96.042 Y105.216 E0.01775
G1 X102.918 Y112.093 E0.30560
G1 X103.426 Y112.066 E0.01598
G1 X96.012 Y104.652 E0.32948
G1 X95.983 Y104.089 E0.01775
G1 X103.934 Y112.040 E0.35337
G1 X104.442 Y112.013 E0.01598
G1 X95.953 Y103.525 E0.37725
G1 X95.924 Y102.961 E0.01775
G1 X104.950 Y111.987 E0.40113
G1 X105.458 Y111.960 E0.01598
G1 X95.894 Y102.397 E0.42502
G1 X95.865 Y101.833 E0.01775
G1 X105.966 Y111.933 E0.44890
G1 X106.473 Y111.907 E0.01598
G1 X95.835 Y101.269 E0.47278
G1 X95.806 Y100.705 E0.01775
G1 X106.981 Y111.880 E0.49667
G1 X107.489 Y111.854 E0.01598
G1 X96.203 Y100.567 E0.50159
G1 X96.711 Y100.541 E0.01598
G1 X107.997 Y111.827 E0.50159
G1 X108.505 Y111.801 E0.01598
G1 X97.219 Y100.514 E0.50159
M73 P2 R76
G1 X97.727 Y100.488 E0.01598
G1 X109.013 Y111.774 E0.50159
G1 X109.521 Y111.748 E0.01598
G1 X98.235 Y100.461 E0.50159
G1 X98.743 Y100.435 E0.01598
G1 X110.029 Y111.721 E0.50159
G1 X110.537 Y111.694 E0.01598
G1 X99.155 Y100.313 E0.50582
G1 X99.663 Y100.286 E0.01598
G1 X111.045 Y111.668 E0.50582
G1 X111.553 Y111.641 E0.01598
G1 X100.171 Y100.260 E0.50582
G1 X100.679 Y100.233 E0.01598
G1 X112.061 Y111.615 E0.50582
G1 X112.569 Y111.588 E0.01598
G1 X101.187 Y100.207 E0.50582
G1 X101.695 Y100.180 E0.01598
G1 X113.076 Y111.562 E0.50582
G1 X113.584 Y111.535 E0.01598
G1 X102.203 Y100.154 E0.50582
G1 X102.711 Y100.127 E0.01598
G1 X114.092 Y111.509 E0.50582
G1 X114.600 Y111.482 E0.01598
G1 X103.219 Y100.100 E0.50582
G1 X103.727 Y100.074 E0.01598
G1 X115.108 Y111.455 E0.50582
G1 X115.616 Y111.429 E0.01598
G1 X104.235 Y100.047 E0.50582
G1 X104.742 Y100.021 E0.01598
G1 X116.124 Y111.402 E0.50582
G1 X116.632 Y111.376 E0.01598
G1 X105.250 Y99.994 E0.50582
G1 X105.758 Y99.968 E0.01598
G1 X117.140 Y111.349 E0.50582
G1 X117.648 Y111.323 E0.01598
G1 X106.266 Y99.941 E0.50582
G1 X106.774 Y99.915 E0.01598
G1 X118.156 Y111.296 E0.50582
G1 X118.664 Y111.270 E0.01598
G1 X107.282 Y99.888 E0.50582
G1 X107.790 Y99.861 E0.01598
G1 X119.172 Y111.243 E0.50582
G1 X119.679 Y111.216 E0.01598
G1 X108.298 Y99.835 E0.50582
G1 X108.806 Y99.808 E0.01598
G1 X120.187 Y111.190 E0.50582
G1 X120.695 Y111.163 E0.01598
G1 X109.314 Y99.782 E0.50582
