; generated by PrusaSlicer 2.2.0+win64 on 2021-09-02 at 13:35:06 UTC

; 

; external perimeters extrusion width = 0.45mm
; perimeters extrusion width = 0.45mm
; infill extrusion width = 0.45mm
; solid infill extrusion width = 0.45mm
; top infill extrusion width = 0.40mm
; first layer extrusion width = 0.42mm

M73 P0 R180
M201 X9000 Y9000 Z500 E10000 ; sets maximum accelerations, mm/sec^2
M203 X500 Y500 Z12 E120 ; sets maximum feedrates, mm/sec
M204 P2000 R1500 T2000 ; sets acceleration (P, T) and retract acceleration (R), mm/sec^2
M205 X10.00 Y10.00 Z0.20 E2.50 ; sets the jerk limits, mm/sec
M205 S0 T0 ; sets the minimum extruding and travel feed rate, mm/sec
M107
M862.3 P "MK2S" ; printer model check
M862.1 P0.4 ; nozzle diameter check
M115 U3.2.3 ; tell printer latest fw version
G90 ; use absolute coordinates
M83 ; extruder relative mode
M204 S2000 T1500 ; MK2 firmware only supports the old M204 format
M104 S215 ; set extruder temp
M140 S60 ; set bed temp
M190 S60 ; wait for bed temp
M109 S215 ; wait for extruder temp
G28 W ; home all without mesh bed level
G80 ; mesh bed leveling
G1 Y-3.0 F1000.0 ; go outside print area
G92 E0.0
G1 X60.0 E9.0  F1000.0 ; intro line
M73 P0 R180
G1 X100.0 E12.5 F1000.0 ; intro line
G92 E0.0
G21 ; set units to millimeters
G90 ; use absolute coordinates
M83 ; use relative distances for extrusion
M900 K0.05 ; Filament gcode LA 1.5
M900 K30 ; Filament gcode LA 1.0
;BEFORE_LAYER_CHANGE
G92 E0.0
;0.2


G1 E-0.80000 F2100.00000
G1 Z0.400 F10800.000
;AFTER_LAYER_CHANGE
;0.2
G1 X30.271 Y20.754
G1 Z0.200
G1 E0.80000 F2100.00000
M204 S1000
G1 F1200.000
G1 X31.725 Y19.145 E0.06800
G1 X46.407 Y5.528 E0.62786
G1 X47.937 Y4.330 E0.06091
G1 X50.192 Y3.140 E0.07996
G1 X52.086 Y2.542 E0.06228
G1 X54.316 Y2.251 E0.07049
G1 X56.549 Y2.368 E0.07012
G1 X58.459 Y2.789 E0.06133
G1 X60.277 Y3.519 E0.06144
G1 X62.266 Y4.736 E0.07309
G1 X63.857 Y6.170 E0.06717
G1 X218.931 Y173.370 E7.15015
G1 X220.178 Y174.963 E0.06342
G1 X221.328 Y177.159 E0.07772
G1 X221.924 Y179.046 E0.06204
G1 X222.216 Y181.172 E0.06729
G1 X222.136 Y183.313 E0.06717
G1 X221.730 Y185.249 E0.06204
G1 X220.798 Y187.558 E0.07807
G1 X219.715 Y189.264 E0.06335
G1 X218.305 Y190.826 E0.06598
G1 X203.593 Y204.472 E0.62917
G1 X202.011 Y205.709 E0.06294
G1 X200.011 Y206.784 E0.07120
G1 X197.958 Y207.448 E0.06765
G1 X195.806 Y207.746 E0.06812
G1 X193.669 Y207.668 E0.06705
G1 X191.541 Y207.211 E0.06824
G1 X189.550 Y206.402 E0.06741
G1 X187.722 Y205.255 E0.06765
G1 X186.185 Y203.873 E0.06479
G1 X31.069 Y36.630 E7.15206
G1 X29.822 Y35.037 E0.06342
G1 X28.751 Y33.047 E0.07085
G1 X28.131 Y31.160 E0.06228
G1 X27.782 Y28.638 E0.07984
G1 X27.867 Y26.657 E0.06216
G1 X28.324 Y24.552 E0.06753
G1 X29.132 Y22.569 E0.06717
G1 X30.239 Y20.805 E0.06529
; printing object MotorHolder.stl id:0 copy 0
G1 F8640.000
G1 X31.725 Y19.145 E-0.51444
G1 X32.505 Y18.422 E-0.24556
G1 E-0.04000 F2100.00000
G1 Z0.600 F10800.000
G1 X120.901 Y100.905
G1 Z0.200
G1 E0.80000 F2100.00000
G1 F1200.000
G1 X122.103 Y99.982 E0.04751
G1 X123.500 Y99.404 E0.04742
G1 X124.949 Y99.213 E0.04582
G1 X126.497 Y99.403 E0.04889
G1 X127.897 Y99.982 E0.04751
G1 X129.097 Y100.903 E0.04742
G1 X130.018 Y102.103 E0.04742
G1 X130.596 Y103.500 E0.04742
G1 X130.794 Y105.000 E0.04742
G1 X130.596 Y106.500 E0.04742
G1 X130.018 Y107.897 E0.04742
G1 X129.097 Y109.097 E0.04742
G1 X127.897 Y110.018 E0.04742
G1 X126.547 Y110.577 E0.04582
G1 X125.003 Y110.794 E0.04889
G1 X123.500 Y110.596 E0.04751
G1 X122.103 Y110.018 E0.04742
G1 X120.903 Y109.097 E0.04742
G1 X119.982 Y107.897 E0.04742
G1 X119.423 Y106.547 E0.04582
G1 X119.206 Y105.003 E0.04889
G1 X119.404 Y103.500 E0.04751
G1 X119.963 Y102.150 E0.04582
G1 X120.865 Y100.953 E0.04701
G1 X121.166 Y101.180 F10800.000
G1 F1200.000
G1 X122.293 Y100.312 E0.04460
G1 X123.599 Y99.771 E0.04431
G1 X124.951 Y99.593 E0.04276
G1 X126.400 Y99.771 E0.04578
G1 X127.707 Y100.312 E0.04434
G1 X128.828 Y101.172 E0.04431
G1 X129.688 Y102.293 E0.04431
G1 X130.229 Y103.599 E0.04431
G1 X130.414 Y105.000 E0.04431
G1 X130.229 Y106.401 E0.04431
G1 X129.688 Y107.707 E0.04431
G1 X128.828 Y108.828 E0.04431
G1 X127.707 Y109.688 E0.04431
G1 X126.447 Y110.210 E0.04276
G1 X125.001 Y110.414 E0.04578
G1 X123.599 Y110.229 E0.04434
G1 X122.293 Y109.688 E0.04431
G1 X121.172 Y108.828 E0.04431
G1 X120.312 Y107.707 E0.04431
G1 X119.790 Y106.447 E0.04276
G1 X119.586 Y105.001 E0.04578
G1 X119.771 Y103.599 E0.04434
G1 X120.293 Y102.339 E0.04276
G1 X121.130 Y101.227 E0.04363
G1 X121.062 Y100.793 F10800.000
G1 F8640.000
G1 X122.293 Y100.312 E-0.34183
G1 X123.599 Y99.771 E-0.32632
G1 X123.993 Y99.719 E-0.09185
G1 E-0.04000 F2100.00000
G1 Z0.600 F10800.000
G1 X124.165 Y93.520
G1 Z0.200
G1 E0.80000 F2100.00000
G1 F1200.000
G1 X123.566 Y93.060 E0.02369
G1 X123.106 Y92.460 E0.02369
G1 X122.817 Y91.762 E0.02369
G1 X122.718 Y91.013 E0.02369
G1 X122.817 Y90.264 E0.02369
G1 X123.092 Y89.601 E0.02252
G1 X123.563 Y88.970 E0.02469
G1 X124.165 Y88.507 E0.02381
G1 X124.863 Y88.218 E0.02369
G1 X125.575 Y88.124 E0.02252
G1 X126.357 Y88.217 E0.02469
G1 X127.059 Y88.507 E0.02381
G1 X127.658 Y88.967 E0.02369
G1 X128.118 Y89.566 E0.02369
G1 X128.407 Y90.264 E0.02369
G1 X128.506 Y91.013 E0.02369
G1 X128.407 Y91.762 E0.02369
G1 X128.133 Y92.426 E0.02252
G1 X127.662 Y93.057 E0.02469
G1 X127.059 Y93.520 E0.02381
G1 X126.361 Y93.809 E0.02369
G1 X125.612 Y93.907 E0.02369
G1 X124.863 Y93.809 E0.02369
G1 X124.221 Y93.543 E0.02181
G1 X124.365 Y93.194 F10800.000
G1 F1200.000
G1 X123.835 Y92.791 E0.02089
G1 X123.435 Y92.270 E0.02057
G1 X123.184 Y91.664 E0.02057
G1 X123.099 Y91.013 E0.02057
G1 X123.184 Y90.363 E0.02057
G1 X123.422 Y89.789 E0.01949
G1 X123.834 Y89.237 E0.02158
G1 X124.355 Y88.837 E0.02062
G1 X124.962 Y88.586 E0.02057
G1 X125.578 Y88.504 E0.01949
G1 X126.261 Y88.585 E0.02158
G1 X126.869 Y88.837 E0.02062
G1 X127.390 Y89.236 E0.02057
G1 X127.789 Y89.757 E0.02057
G1 X128.040 Y90.363 E0.02057
G1 X128.126 Y91.013 E0.02057
G1 X128.040 Y91.664 E0.02057
G1 X127.802 Y92.238 E0.01949
G1 X127.391 Y92.790 E0.02158
G1 X126.869 Y93.190 E0.02062
G1 X126.263 Y93.441 E0.02057
G1 X125.612 Y93.527 E0.02057
G1 X124.962 Y93.441 E0.02057
G1 X124.420 Y93.217 E0.01837
G1 X124.019 Y93.395 F10800.000
G1 F8640.000
G1 X123.835 Y92.791 E-0.16726
G1 X123.435 Y92.270 E-0.15151
G1 X123.184 Y91.664 E-0.15151
G1 X123.099 Y91.013 E-0.15151
G1 X123.177 Y90.420 E-0.13821
G1 E-0.04000 F2100.00000
G1 Z0.600 F10800.000
G1 X136.947 Y103.394
G1 Z0.200
G1 E0.80000 F2100.00000
G1 F1200.000
G1 X137.546 Y102.934 E0.02369
G1 X138.244 Y102.645 E0.02369
G1 X138.956 Y102.552 E0.02252
G1 X139.738 Y102.644 E0.02469
G1 X140.440 Y102.934 E0.02381
G1 X141.039 Y103.394 E0.02369
G1 X141.499 Y103.994 E0.02369
G1 X141.788 Y104.692 E0.02369
G1 X141.887 Y105.441 E0.02369
G1 X141.788 Y106.190 E0.02369
G1 X141.499 Y106.888 E0.02369
G1 X141.039 Y107.487 E0.02369
G1 X140.440 Y107.947 E0.02369
G1 X139.742 Y108.236 E0.02369
G1 X138.993 Y108.335 E0.02369
G1 X138.244 Y108.236 E0.02369
G1 X137.546 Y107.947 E0.02369
G1 X136.947 Y107.487 E0.02369
G1 X136.487 Y106.888 E0.02369
G1 X136.212 Y106.224 E0.02252
G1 X136.099 Y105.445 E0.02469
G1 X136.198 Y104.692 E0.02381
G1 X136.487 Y103.994 E0.02369
G1 X136.910 Y103.442 E0.02181
G1 X137.209 Y103.672 F10800.000
G1 F1200.000
G1 X137.736 Y103.264 E0.02089
G1 X138.343 Y103.013 E0.02057
G1 X138.959 Y102.932 E0.01949
G1 X139.642 Y103.012 E0.02158
G1 X140.250 Y103.264 E0.02062
G1 X140.770 Y103.663 E0.02057
G1 X141.170 Y104.184 E0.02057
G1 X141.421 Y104.790 E0.02057
G1 X141.507 Y105.441 E0.02057
G1 X141.421 Y106.091 E0.02057
G1 X141.170 Y106.697 E0.02057
G1 X140.770 Y107.218 E0.02057
G1 X140.250 Y107.617 E0.02057
G1 X139.644 Y107.869 E0.02057
G1 X138.993 Y107.954 E0.02057
G1 X138.343 Y107.869 E0.02057
G1 X137.736 Y107.617 E0.02057
G1 X137.216 Y107.218 E0.02057
G1 X136.816 Y106.697 E0.02057
G1 X136.578 Y106.123 E0.01949
G1 X136.479 Y105.442 E0.02158
G1 X136.565 Y104.790 E0.02062
G1 X136.816 Y104.184 E0.02057
G1 X137.173 Y103.719 E0.01837
G1 X137.105 Y103.285 F10800.000
G1 F8640.000
G1 X137.736 Y103.264 E-0.16726
G1 X138.343 Y103.013 E-0.15151
G1 X138.959 Y102.932 E-0.14352
G1 X139.642 Y103.012 E-0.15892
G1 X140.198 Y103.242 E-0.13880
G1 E-0.04000 F2100.00000
G1 Z0.600 F10800.000
G1 X126.434 Y116.940
G1 Z0.200
G1 E0.80000 F2100.00000
G1 F1200.000
G1 X126.894 Y117.540 E0.02369
G1 X127.183 Y118.238 E0.02369
G1 X127.282 Y118.987 E0.02369
G1 X127.183 Y119.736 E0.02369
G1 X126.894 Y120.434 E0.02369
G1 X126.434 Y121.033 E0.02369
G1 X125.835 Y121.493 E0.02369
G1 X125.171 Y121.768 E0.02252
G1 X124.392 Y121.881 E0.02469
G1 X123.639 Y121.782 E0.02381
G1 X122.941 Y121.493 E0.02369
G1 X122.342 Y121.033 E0.02369
G1 X121.882 Y120.434 E0.02369
G1 X121.593 Y119.736 E0.02369
G1 X121.494 Y118.987 E0.02369
G1 X121.593 Y118.238 E0.02369
G1 X121.882 Y117.540 E0.02369
G1 X122.342 Y116.940 E0.02369
G1 X122.941 Y116.480 E0.02369
G1 X123.639 Y116.191 E0.02369
G1 X124.351 Y116.098 E0.02252
G1 X125.133 Y116.190 E0.02469
G1 X125.835 Y116.480 E0.02381
G1 X126.386 Y116.904 E0.02181
G1 X126.157 Y117.203 F10800.000
G1 F1200.000
G1 X126.565 Y117.730 E0.02089
G1 X126.816 Y118.336 E0.02057
G1 X126.901 Y118.987 E0.02057
G1 X126.816 Y119.637 E0.02057
G1 X126.565 Y120.243 E0.02057
G1 X126.165 Y120.764 E0.02057
G1 X125.645 Y121.163 E0.02057
G1 X125.070 Y121.401 E0.01949
G1 X124.389 Y121.500 E0.02158
G1 X123.737 Y121.414 E0.02062
G1 X123.131 Y121.163 E0.02057
G1 X122.610 Y120.764 E0.02057
G1 X122.211 Y120.243 E0.02057
G1 X121.960 Y119.637 E0.02057
G1 X121.874 Y118.987 E0.02057
G1 X121.960 Y118.336 E0.02057
G1 X122.211 Y117.730 E0.02057
G1 X122.610 Y117.209 E0.02057
G1 X123.131 Y116.810 E0.02057
G1 X123.737 Y116.559 E0.02057
G1 X124.353 Y116.478 E0.01949
G1 X125.037 Y116.558 E0.02158
G1 X125.645 Y116.810 E0.02062
G1 X126.109 Y117.166 E0.01837
G1 X126.543 Y117.098 F10800.000
G1 F8640.000
G1 X126.565 Y117.730 E-0.16726
G1 X126.816 Y118.336 E-0.15151
G1 X126.901 Y118.987 E-0.15151
G1 X126.816 Y119.637 E-0.15151
G1 X126.587 Y120.190 E-0.13821
G1 E-0.04000 F2100.00000
G1 Z0.600 F10800.000
G1 X113.053 Y106.606
G1 Z0.200
G1 E0.80000 F2100.00000
G1 F1200.000
G1 X112.454 Y107.066 E0.02369
G1 X111.756 Y107.355 E0.02369
G1 X111.007 Y107.453 E0.02369
G1 X110.258 Y107.355 E0.02369
G1 X109.560 Y107.066 E0.02369
G1 X108.961 Y106.606 E0.02369
G1 X108.501 Y106.006 E0.02369
G1 X108.212 Y105.308 E0.02369
G1 X108.113 Y104.559 E0.02369
G1 X108.212 Y103.810 E0.02369
G1 X108.501 Y103.112 E0.02369
G1 X108.961 Y102.513 E0.02369
G1 X109.560 Y102.053 E0.02369
G1 X110.258 Y101.764 E0.02369
G1 X110.970 Y101.670 E0.02252
G1 X111.752 Y101.763 E0.02469
G1 X112.454 Y102.053 E0.02381
G1 X113.053 Y102.513 E0.02369
G1 X113.513 Y103.112 E0.02369
G1 X113.788 Y103.776 E0.02252
G1 X113.901 Y104.555 E0.02469
G1 X113.802 Y105.308 E0.02381
G1 X113.513 Y106.006 E0.02369
G1 X113.090 Y106.558 E0.02181
G1 X112.791 Y106.328 F10800.000
G1 F1200.000
G1 X112.264 Y106.736 E0.02089
G1 X111.657 Y106.987 E0.02057
G1 X111.007 Y107.073 E0.02057
G1 X110.356 Y106.987 E0.02057
G1 X109.750 Y106.736 E0.02057
G1 X109.230 Y106.337 E0.02057
G1 X108.830 Y105.816 E0.02057
G1 X108.579 Y105.210 E0.02057
G1 X108.493 Y104.559 E0.02057
G1 X108.579 Y103.909 E0.02057
G1 X108.830 Y103.303 E0.02057
G1 X109.230 Y102.782 E0.02057
G1 X109.750 Y102.383 E0.02057
G1 X110.356 Y102.131 E0.02057
G1 X110.973 Y102.050 E0.01949
G1 X111.656 Y102.131 E0.02158
G1 X112.264 Y102.383 E0.02062
G1 X112.784 Y102.782 E0.02057
G1 X113.184 Y103.303 E0.02057
G1 X113.422 Y103.877 E0.01949
G1 X113.521 Y104.558 E0.02158
G1 X113.435 Y105.210 E0.02062
G1 X113.184 Y105.816 E0.02057
G1 X112.827 Y106.281 E0.01837
G1 X112.895 Y106.715 F10800.000
G1 F8640.000
G1 X112.264 Y106.736 E-0.16726
G1 X111.657 Y106.987 E-0.15151
G1 X111.007 Y107.073 E-0.15151
G1 X110.356 Y106.987 E-0.15151
G1 X109.803 Y106.758 E-0.13821
G1 E-0.04000 F2100.00000
G1 Z0.600 F10800.000
G1 X148.416 Y139.492
G1 Z0.200
G1 E0.80000 F2100.00000
G1 F1200.000
G1 X157.635 Y130.942 E0.39425
G1 X185.906 Y161.424 E1.30353
G1 X176.687 Y169.974 E0.39425
G1 X148.457 Y139.536 E1.30165
G1 X148.949 Y139.512 F10800.000
G1 F1200.000
G1 X157.615 Y131.475 E0.37061
G1 X185.373 Y161.404 E1.27988
G1 X176.707 Y169.442 E0.37061
G1 X148.990 Y139.556 E1.27800
G1 X148.650 Y139.246 F10800.000
G1 F8640.000
G1 X151.391 Y137.306 E-0.76000
G1 E-0.04000 F2100.00000
G1 Z0.600 F10800.000
G1 X199.968 Y186.055
G1 Z0.200
G1 E0.80000 F2100.00000
G1 F1200.000
G1 X200.797 Y185.419 E0.03279
G1 X201.760 Y185.020 E0.03269
G1 X202.755 Y184.889 E0.03144
G1 X203.825 Y185.019 E0.03381
G1 X204.791 Y185.419 E0.03279
G1 X205.618 Y186.053 E0.03269
G1 X206.253 Y186.881 E0.03269
G1 X206.652 Y187.844 E0.03269
G1 X206.788 Y188.878 E0.03269
G1 X206.652 Y189.911 E0.03269
G1 X206.452 Y190.393 E0.01635
G1 X206.253 Y190.874 E0.01635
G1 X205.618 Y191.702 E0.03269
G1 X204.791 Y192.336 E0.03269
G1 X203.828 Y192.735 E0.03269
G1 X202.794 Y192.871 E0.03269
G1 X201.760 Y192.735 E0.03269
G1 X200.834 Y192.352 E0.03144
G1 X199.972 Y191.704 E0.03381
G1 X199.335 Y190.874 E0.03279
G1 X198.936 Y189.911 E0.03269
G1 X198.800 Y188.878 E0.03269
G1 X198.936 Y187.844 E0.03269
G1 X199.320 Y186.917 E0.03144
G1 X199.932 Y186.103 E0.03192
G1 X200.233 Y186.330 F10800.000
G1 F1200.000
G1 X200.987 Y185.748 E0.02986
G1 X201.859 Y185.387 E0.02958
G1 X202.757 Y185.269 E0.02839
G1 X203.728 Y185.387 E0.03069
G1 X204.601 Y185.748 E0.02961
G1 X205.349 Y186.322 E0.02958
G1 X205.924 Y187.071 E0.02958
G1 X206.285 Y187.942 E0.02958
G1 X206.408 Y188.878 E0.02958
G1 X206.285 Y189.813 E0.02958
G1 X206.104 Y190.249 E0.01479
G1 X205.924 Y190.684 E0.01479
G1 X205.349 Y191.433 E0.02958
G1 X204.601 Y192.007 E0.02958
G1 X203.729 Y192.368 E0.02958
G1 X202.794 Y192.491 E0.02958
G1 X201.859 Y192.368 E0.02958
G1 X201.022 Y192.021 E0.02839
G1 X200.240 Y191.434 E0.03069
G1 X199.665 Y190.684 E0.02961
G1 X199.304 Y189.813 E0.02958
G1 X199.181 Y188.878 E0.02958
M73 P0 R179
G1 X199.304 Y187.942 E0.02958
G1 X199.650 Y187.106 E0.02839
G1 X200.197 Y186.378 E0.02855
G1 X200.129 Y185.944 F10800.000
G1 F8640.000
G1 X200.987 Y185.748 E-0.23332
G1 X201.859 Y185.387 E-0.21781
G1 X202.757 Y185.269 E-0.20907
G1 X203.186 Y185.321 E-0.09980
G1 E-0.04000 F2100.00000
G1 Z0.600 F10800.000
G1 X73.313 Y40.026
G1 Z0.200
G1 E0.80000 F2100.00000
G1 F1200.000
G1 X101.584 Y70.508 E1.30353
G1 X92.365 Y79.058 E0.39425
G1 X64.094 Y48.576 E1.30353
G1 X73.269 Y40.066 E0.39237
G1 X73.293 Y40.558 F10800.000
G1 F1200.000
G1 X101.051 Y70.488 E1.27988
G1 X92.385 Y78.525 E0.37061
G1 X64.627 Y48.596 E1.27988
G1 X73.249 Y40.599 E0.36873
G1 X73.446 Y40.189 F10800.000
G1 F8640.000
G1 X75.491 Y43.009 E-0.76000
G1 E-0.04000 F2100.00000
G1 Z0.600 F10800.000
G1 X50.032 Y23.945
G1 Z0.200
G1 E0.80000 F2100.00000
G1 F1200.000
G1 X49.203 Y24.581 E0.03279
G1 X48.240 Y24.980 E0.03269
G1 X47.206 Y25.116 E0.03269
G1 X46.172 Y24.980 E0.03269
G1 X45.209 Y24.581 E0.03269
G1 X44.382 Y23.947 E0.03269
G1 X43.747 Y23.119 E0.03269
G1 X43.348 Y22.156 E0.03269
G1 X43.212 Y21.122 E0.03269
G1 X43.348 Y20.089 E0.03269
G1 X43.747 Y19.126 E0.03269
G1 X44.382 Y18.298 E0.03269
G1 X45.209 Y17.664 E0.03269
G1 X46.172 Y17.265 E0.03269
G1 X47.166 Y17.134 E0.03144
G1 X48.237 Y17.264 E0.03381
G1 X49.203 Y17.664 E0.03279
G1 X50.030 Y18.298 E0.03269
G1 X50.665 Y19.126 E0.03269
G1 X51.064 Y20.089 E0.03269
G1 X51.200 Y21.122 E0.03269
G1 X51.064 Y22.156 E0.03269
G1 X50.680 Y23.083 E0.03144
G1 X50.068 Y23.897 E0.03192
G1 X49.767 Y23.670 F10800.000
G1 F1200.000
G1 X49.013 Y24.252 E0.02986
G1 X48.141 Y24.613 E0.02958
G1 X47.206 Y24.736 E0.02958
G1 X46.271 Y24.613 E0.02958
G1 X45.399 Y24.252 E0.02958
G1 X44.651 Y23.678 E0.02958
G1 X44.076 Y22.929 E0.02958
G1 X43.715 Y22.058 E0.02958
G1 X43.592 Y21.122 E0.02958
G1 X43.715 Y20.187 E0.02958
G1 X44.076 Y19.316 E0.02958
G1 X44.651 Y18.567 E0.02958
G1 X45.399 Y17.993 E0.02958
G1 X46.271 Y17.632 E0.02958
G1 X47.168 Y17.514 E0.02839
G1 X48.140 Y17.632 E0.03069
G1 X49.013 Y17.993 E0.02961
G1 X49.761 Y18.567 E0.02958
G1 X50.335 Y19.316 E0.02958
G1 X50.696 Y20.187 E0.02958
G1 X50.819 Y21.122 E0.02958
G1 X50.696 Y22.058 E0.02958
G1 X50.350 Y22.894 E0.02839
