; generated by PrusaSlicer 2.2.0+win64 on 2021-09-02 at 14:15:29 UTC

; 

; external perimeters extrusion width = 0.45mm
; perimeters extrusion width = 0.45mm
; infill extrusion width = 0.45mm
; solid infill extrusion width = 0.45mm
; top infill extrusion width = 0.40mm
; first layer extrusion width = 0.42mm

M73 P0 R181
M201 X9000 Y9000 Z500 E10000 ; sets maximum accelerations, mm/sec^2
M203 X500 Y500 Z12 E120 ; sets maximum feedrates, mm/sec
M204 P2000 R1500 T2000 ; sets acceleration (P, T) and retract acceleration (R), mm/sec^2
M205 X10.00 Y10.00 Z0.20 E2.50 ; sets the jerk limits, mm/sec
M205 S0 T0 ; sets the minimum extruding and travel feed rate, mm/sec
M107
M862.3 P "MK2S" ; printer model check
M862.1 P0.4 ; nozzle diameter check
M115 U3.2.3 ; tell printer latest fw version
G90 ; use absolute coordinates
M83 ; extruder relative mode
M204 S2000 T1500 ; MK2 firmware only supports the old M204 format
M104 S215 ; set extruder temp
M140 S60 ; set bed temp
M190 S60 ; wait for bed temp
M109 S215 ; wait for extruder temp
G28 W ; home all without mesh bed level
G80 ; mesh bed leveling
G1 Y-3.0 F1000.0 ; go outside print area
G92 E0.0
G1 X60.0 E9.0  F1000.0 ; intro line
M73 P0 R181
G1 X100.0 E12.5 F1000.0 ; intro line
G92 E0.0
G21 ; set units to millimeters
G90 ; use absolute coordinates
M83 ; use relative distances for extrusion
M900 K0.05 ; Filament gcode LA 1.5
M900 K30 ; Filament gcode LA 1.0
;BEFORE_LAYER_CHANGE
G92 E0.0
;0.2


G1 E-0.80000 F2100.00000
G1 Z0.400 F10800.000
;AFTER_LAYER_CHANGE
;0.2
G1 X34.238 Y16.975
G1 Z0.200
G1 E0.80000 F2100.00000
M204 S1000
G1 F1200.000
G1 X36.165 Y15.978 E0.06800
G1 X38.232 Y15.334 E0.06788
G1 X40.463 Y15.058 E0.07050
G1 X42.527 Y15.162 E0.06479
G1 X44.628 Y15.635 E0.06753
G1 X46.611 Y16.464 E0.06741
G1 X48.407 Y17.612 E0.06681
G1 X228.920 Y156.945 E7.14979
G1 X230.426 Y158.324 E0.06402
G1 X231.910 Y160.290 E0.07725
G1 X232.809 Y162.053 E0.06204
G1 X233.446 Y164.098 E0.06717
G1 X233.720 Y166.223 E0.06717
G1 X233.638 Y168.200 E0.06204
G1 X233.100 Y170.631 E0.07807
G1 X232.314 Y172.492 E0.06335
G1 X231.181 Y174.265 E0.06598
G1 X218.920 Y190.151 E0.62917
G1 X217.550 Y191.644 E0.06354
G1 X215.765 Y193.023 E0.07073
G1 X213.850 Y194.016 E0.06765
G1 X211.780 Y194.664 E0.06800
G1 X209.659 Y194.939 E0.06705
G1 X207.485 Y194.840 E0.06824
G1 X205.391 Y194.370 E0.06729
G1 X203.395 Y193.539 E0.06776
G1 X201.652 Y192.431 E0.06479
G1 X21.083 Y53.057 E7.15194
G1 X19.574 Y51.676 E0.06414
G1 X18.204 Y49.904 E0.07026
G1 X17.279 Y48.141 E0.06240
G1 X16.520 Y45.703 E0.08008
G1 X16.279 Y43.747 E0.06180
G1 X16.383 Y41.584 E0.06788
G1 X16.855 Y39.495 E0.06717
G1 X17.725 Y37.438 E0.07002
G1 X18.848 Y35.697 E0.06496
G1 X31.080 Y19.849 E0.62768
G1 X32.463 Y18.342 E0.06414
G1 X34.191 Y17.011 E0.06838
; printing object MotorHolder.stl id:0 copy 0
G1 F8640.000
G1 X36.165 Y15.978 E-0.51443
G1 X37.180 Y15.662 E-0.24557
G1 E-0.04000 F2100.00000
G1 Z0.600 F10800.000
G1 X121.315 Y100.529
G1 Z0.200
G1 E0.80000 F2100.00000
G1 F1200.000
G1 X122.598 Y99.727 E0.04742
G1 X124.045 Y99.285 E0.04742
G1 X125.505 Y99.235 E0.04582
G1 X127.028 Y99.572 E0.04889
G1 X128.365 Y100.284 E0.04751
G1 X129.471 Y101.315 E0.04742
G1 X130.273 Y102.598 E0.04742
G1 X130.715 Y104.045 E0.04742
G1 X130.767 Y105.556 E0.04742
G1 X130.427 Y107.030 E0.04742
G1 X129.716 Y108.365 E0.04742
G1 X128.685 Y109.471 E0.04742
G1 X127.402 Y110.273 E0.04742
G1 X125.955 Y110.715 E0.04742
G1 X124.444 Y110.767 E0.04742
G1 X122.970 Y110.427 E0.04742
G1 X121.635 Y109.716 E0.04742
G1 X120.529 Y108.685 E0.04742
G1 X119.727 Y107.402 E0.04742
G1 X119.300 Y106.004 E0.04582
G1 X119.232 Y104.446 E0.04889
G1 X119.573 Y102.970 E0.04751
G1 X120.284 Y101.635 E0.04742
G1 X121.274 Y100.573 E0.04554
G1 X121.550 Y100.830 F10800.000
G1 F1200.000
G1 X122.756 Y100.074 E0.04462
G1 X124.107 Y99.661 E0.04431
G1 X125.470 Y99.613 E0.04276
G1 X126.896 Y99.929 E0.04578
G1 X128.144 Y100.593 E0.04434
G1 X129.178 Y101.557 E0.04431
G1 X129.926 Y102.756 E0.04431
G1 X130.339 Y104.107 E0.04431
G1 X130.389 Y105.520 E0.04431
G1 X130.070 Y106.897 E0.04431
G1 X129.407 Y108.144 E0.04431
G1 X128.443 Y109.178 E0.04431
G1 X127.244 Y109.926 E0.04431
G1 X125.893 Y110.339 E0.04431
G1 X124.480 Y110.389 E0.04431
G1 X123.103 Y110.070 E0.04431
G1 X121.856 Y109.407 E0.04431
G1 X120.822 Y108.443 E0.04431
G1 X120.074 Y107.244 E0.04431
G1 X119.675 Y105.940 E0.04276
G1 X119.611 Y104.481 E0.04578
G1 X119.930 Y103.103 E0.04434
G1 X120.593 Y101.856 E0.04431
G1 X121.509 Y100.874 E0.04210
G1 X121.484 Y100.435 F10800.000
G1 F8640.000
G1 X122.756 Y100.074 E-0.34203
G1 X124.107 Y99.661 E-0.32632
G1 X124.504 Y99.647 E-0.09165
G1 E-0.04000 F2100.00000
G1 Z0.600 F10800.000
G1 X123.020 Y93.984
G1 Z0.200
G1 E0.80000 F2100.00000
G1 F1200.000
G1 X122.284 Y93.814 E0.02369
G1 X121.617 Y93.460 E0.02369
G1 X121.064 Y92.944 E0.02369
G1 X120.664 Y92.304 E0.02369
G1 X120.454 Y91.617 E0.02252
G1 X120.416 Y90.830 E0.02469
G1 X120.587 Y90.090 E0.02381
G1 X120.942 Y89.423 E0.02369
G1 X121.457 Y88.871 E0.02369
G1 X122.098 Y88.470 E0.02369
G1 X122.820 Y88.250 E0.02369
G1 X123.538 Y88.225 E0.02252
G1 X124.308 Y88.392 E0.02469
G1 X124.978 Y88.748 E0.02381
G1 X125.531 Y89.264 E0.02369
G1 X125.931 Y89.904 E0.02369
G1 X126.152 Y90.627 E0.02369
G1 X126.178 Y91.382 E0.02369
G1 X126.008 Y92.118 E0.02369
G1 X125.653 Y92.785 E0.02369
G1 X125.138 Y93.337 E0.02369
G1 X124.497 Y93.737 E0.02369
G1 X123.775 Y93.958 E0.02369
G1 X123.080 Y93.982 E0.02181
G1 X123.066 Y93.605 F10800.000
G1 F1200.000
G1 X122.417 Y93.458 E0.02089
G1 X121.837 Y93.150 E0.02057
G1 X121.358 Y92.702 E0.02057
G1 X121.010 Y92.146 E0.02057
G1 X120.828 Y91.551 E0.01949
G1 X120.795 Y90.864 E0.02158
G1 X120.943 Y90.223 E0.02062
G1 X121.251 Y89.644 E0.02057
G1 X121.699 Y89.164 E0.02057
G1 X122.255 Y88.817 E0.02057
G1 X122.883 Y88.625 E0.02057
G1 X123.504 Y88.603 E0.01949
G1 X124.177 Y88.749 E0.02158
G1 X124.757 Y89.058 E0.02062
G1 X125.237 Y89.505 E0.02057
G1 X125.585 Y90.062 E0.02057
G1 X125.777 Y90.689 E0.02057
G1 X125.799 Y91.345 E0.02057
G1 X125.652 Y91.985 E0.02057
G1 X125.344 Y92.564 E0.02057
G1 X124.896 Y93.044 E0.02057
G1 X124.339 Y93.391 E0.02057
G1 X123.712 Y93.583 E0.02057
G1 X123.126 Y93.603 E0.01837
G1 X122.835 Y93.932 F10800.000
G1 F8640.000
G1 X122.417 Y93.458 E-0.16726
G1 X121.837 Y93.150 E-0.15151
G1 X121.358 Y92.702 E-0.15151
G1 X121.010 Y92.146 E-0.15151
G1 X120.835 Y91.573 E-0.13821
G1 E-0.04000 F2100.00000
G1 Z0.600 F10800.000
G1 X136.518 Y101.446
G1 Z0.200
G1 E0.80000 F2100.00000
G1 F1200.000
G1 X137.034 Y100.894 E0.02369
G1 X137.674 Y100.494 E0.02369
G1 X138.397 Y100.273 E0.02369
G1 X139.115 Y100.248 E0.02252
G1 X139.884 Y100.415 E0.02469
G1 X140.555 Y100.771 E0.02381
G1 X141.107 Y101.287 E0.02369
G1 X141.508 Y101.928 E0.02369
G1 X141.728 Y102.650 E0.02369
G1 X141.755 Y103.405 E0.02369
G1 X141.585 Y104.141 E0.02369
G1 X141.230 Y104.808 E0.02369
G1 X140.715 Y105.360 E0.02369
G1 X140.074 Y105.761 E0.02369
G1 X139.351 Y105.981 E0.02369
G1 X138.596 Y106.008 E0.02369
G1 X137.860 Y105.838 E0.02369
G1 X137.193 Y105.483 E0.02369
G1 X136.641 Y104.968 E0.02369
G1 X136.241 Y104.327 E0.02369
G1 X136.020 Y103.604 E0.02369
G1 X135.994 Y102.849 E0.02369
G1 X136.164 Y102.113 E0.02369
G1 X136.490 Y101.499 E0.02181
G1 X136.823 Y101.676 F10800.000
G1 F1200.000
G1 X137.276 Y101.187 E0.02089
G1 X137.832 Y100.840 E0.02057
G1 X138.460 Y100.648 E0.02057
G1 X139.081 Y100.626 E0.01949
G1 X139.753 Y100.772 E0.02158
G1 X140.334 Y101.081 E0.02062
G1 X140.814 Y101.529 E0.02057
G1 X141.162 Y102.085 E0.02057
G1 X141.353 Y102.713 E0.02057
G1 X141.376 Y103.368 E0.02057
G1 X141.228 Y104.008 E0.02057
G1 X140.920 Y104.587 E0.02057
G1 X140.473 Y105.067 E0.02057
G1 X139.916 Y105.415 E0.02057
G1 X139.289 Y105.606 E0.02057
G1 X138.633 Y105.629 E0.02057
G1 X137.994 Y105.481 E0.02057
G1 X137.414 Y105.173 E0.02057
G1 X136.934 Y104.726 E0.02057
G1 X136.587 Y104.169 E0.02057
G1 X136.395 Y103.542 E0.02057
G1 X136.372 Y102.886 E0.02057
G1 X136.520 Y102.247 E0.02057
G1 X136.795 Y101.729 E0.01837
G1 X136.656 Y101.313 F10800.000
G1 F8640.000
G1 X137.276 Y101.187 E-0.16726
G1 X137.832 Y100.840 E-0.15151
G1 X138.460 Y100.648 E-0.15151
G1 X139.081 Y100.626 E-0.14351
G1 X139.700 Y100.761 E-0.14621
G1 E-0.04000 F2100.00000
G1 Z0.600 F10800.000
G1 X128.383 Y116.540
G1 Z0.200
G1 E0.80000 F2100.00000
G1 F1200.000
G1 X128.936 Y117.056 E0.02369
G1 X129.336 Y117.696 E0.02369
G1 X129.557 Y118.419 E0.02369
G1 X129.583 Y119.174 E0.02369
G1 X129.413 Y119.910 E0.02369
G1 X129.058 Y120.577 E0.02369
G1 X128.543 Y121.129 E0.02369
G1 X127.902 Y121.530 E0.02369
G1 X127.180 Y121.750 E0.02369
G1 X126.425 Y121.777 E0.02369
G1 X125.689 Y121.607 E0.02369
G1 X125.022 Y121.252 E0.02369
G1 X124.469 Y120.736 E0.02369
G1 X124.069 Y120.096 E0.02369
G1 X123.848 Y119.373 E0.02369
G1 X123.822 Y118.618 E0.02369
G1 X123.992 Y117.882 E0.02369
G1 X124.347 Y117.215 E0.02369
G1 X124.862 Y116.663 E0.02369
G1 X125.503 Y116.263 E0.02369
G1 X126.225 Y116.042 E0.02369
G1 X126.943 Y116.017 E0.02252
G1 X127.713 Y116.184 E0.02469
G1 X128.330 Y116.512 E0.02193
G1 X128.153 Y116.845 F10800.000
G1 F1200.000
G1 X128.642 Y117.298 E0.02089
G1 X128.990 Y117.854 E0.02057
G1 X129.182 Y118.482 E0.02057
G1 X129.204 Y119.137 E0.02057
G1 X129.057 Y119.777 E0.02057
G1 X128.749 Y120.356 E0.02057
G1 X128.301 Y120.836 E0.02057
G1 X127.745 Y121.183 E0.02057
G1 X127.117 Y121.375 E0.02057
G1 X126.461 Y121.398 E0.02057
G1 X125.822 Y121.250 E0.02057
G1 X125.243 Y120.942 E0.02057
G1 X124.763 Y120.495 E0.02057
G1 X124.415 Y119.938 E0.02057
G1 X124.223 Y119.311 E0.02057
G1 X124.201 Y118.655 E0.02057
G1 X124.348 Y118.015 E0.02057
G1 X124.656 Y117.436 E0.02057
G1 X125.104 Y116.956 E0.02057
G1 X125.661 Y116.609 E0.02057
G1 X126.288 Y116.417 E0.02057
G1 X126.909 Y116.395 E0.01949
G1 X127.582 Y116.541 E0.02158
G1 X128.100 Y116.817 E0.01841
G1 X128.516 Y116.677 F10800.000
G1 F8640.000
G1 X128.642 Y117.298 E-0.16726
G1 X128.990 Y117.854 E-0.15151
G1 X129.182 Y118.482 E-0.15151
G1 X129.204 Y119.137 E-0.15151
G1 X129.070 Y119.721 E-0.13821
G1 E-0.04000 F2100.00000
G1 Z0.600 F10800.000
G1 X113.482 Y108.554
G1 Z0.200
G1 E0.80000 F2100.00000
G1 F1200.000
G1 X112.966 Y109.106 E0.02369
G1 X112.326 Y109.506 E0.02369
G1 X111.603 Y109.727 E0.02369
G1 X110.848 Y109.753 E0.02369
G1 X110.112 Y109.583 E0.02369
G1 X109.445 Y109.229 E0.02369
G1 X108.893 Y108.713 E0.02369
G1 X108.492 Y108.072 E0.02369
G1 X108.272 Y107.350 E0.02369
G1 X108.245 Y106.595 E0.02369
G1 X108.415 Y105.859 E0.02369
G1 X108.770 Y105.192 E0.02369
G1 X109.285 Y104.640 E0.02369
G1 X109.926 Y104.239 E0.02369
G1 X110.649 Y104.019 E0.02369
G1 X111.366 Y103.994 E0.02252
G1 X112.136 Y104.160 E0.02469
G1 X112.807 Y104.517 E0.02381
G1 X113.359 Y105.032 E0.02369
G1 X113.759 Y105.673 E0.02369
G1 X113.980 Y106.396 E0.02369
G1 X114.006 Y107.151 E0.02369
G1 X113.836 Y107.887 E0.02369
G1 X113.510 Y108.501 E0.02181
G1 X113.177 Y108.324 F10800.000
G1 F1200.000
G1 X112.724 Y108.813 E0.02089
G1 X112.168 Y109.160 E0.02057
G1 X111.540 Y109.352 E0.02057
G1 X110.885 Y109.375 E0.02057
G1 X110.245 Y109.227 E0.02057
G1 X109.666 Y108.919 E0.02057
G1 X109.186 Y108.471 E0.02057
G1 X108.838 Y107.915 E0.02057
G1 X108.647 Y107.287 E0.02057
G1 X108.624 Y106.632 E0.02057
G1 X108.772 Y105.992 E0.02057
G1 X109.080 Y105.413 E0.02057
G1 X109.527 Y104.933 E0.02057
G1 X110.084 Y104.585 E0.02057
G1 X110.711 Y104.394 E0.02057
G1 X111.333 Y104.372 E0.01949
G1 X112.005 Y104.518 E0.02158
G1 X112.586 Y104.827 E0.02062
G1 X113.066 Y105.274 E0.02057
G1 X113.413 Y105.831 E0.02057
G1 X113.605 Y106.458 E0.02057
G1 X113.628 Y107.114 E0.02057
G1 X113.480 Y107.753 E0.02057
G1 X113.205 Y108.271 E0.01837
G1 X113.344 Y108.687 F10800.000
G1 F8640.000
G1 X112.724 Y108.813 E-0.16726
G1 X112.168 Y109.160 E-0.15151
G1 X111.540 Y109.352 E-0.15151
G1 X110.885 Y109.375 E-0.15151
G1 X110.301 Y109.240 E-0.13821
G1 E-0.04000 F2100.00000
G1 Z0.600 F10800.000
G1 X153.783 Y135.159
G1 Z0.200
G1 E0.80000 F2100.00000
G1 F1200.000
G1 X161.466 Y125.205 E0.39425
G1 X194.377 Y150.608 E1.30353
G1 X186.694 Y160.562 E0.39425
G1 X153.831 Y135.196 E1.30165
G1 X154.312 Y135.091 F10800.000
G1 F1200.000
G1 X161.534 Y125.734 E0.37061
G1 X193.848 Y150.676 E1.27988
G1 X186.626 Y160.033 E0.37061
G1 X154.359 Y135.128 E1.27800
G1 X153.974 Y134.877 F10800.000
G1 F8640.000
G1 X156.357 Y132.512 E-0.76000
G1 E-0.04000 F2100.00000
G1 Z0.600 F10800.000
G1 X212.309 Y172.581
G1 Z0.200
G1 E0.80000 F2100.00000
G1 F1200.000
G1 X213.020 Y171.819 E0.03269
G1 X213.905 Y171.267 E0.03269
G1 X214.902 Y170.962 E0.03269
G1 X215.904 Y170.927 E0.03144
G1 X216.957 Y171.159 E0.03381
G1 X217.880 Y171.650 E0.03279
G1 X218.643 Y172.361 E0.03269
G1 X219.195 Y173.245 E0.03269
G1 X219.500 Y174.243 E0.03269
G1 X219.536 Y175.285 E0.03269
G1 X219.301 Y176.300 E0.03269
G1 X218.812 Y177.221 E0.03269
G1 X218.100 Y177.983 E0.03269
G1 X217.216 Y178.536 E0.03269
G1 X216.257 Y178.829 E0.03144
G1 X215.180 Y178.877 E0.03381
G1 X214.161 Y178.642 E0.03279
G1 X213.241 Y178.152 E0.03269
G1 X212.478 Y177.441 E0.03269
G1 X211.926 Y176.557 E0.03269
G1 X211.621 Y175.560 E0.03269
G1 X211.585 Y174.518 E0.03269
G1 X211.820 Y173.502 E0.03269
G1 X212.281 Y172.634 E0.03081
G1 X212.614 Y172.811 F10800.000
G1 F1200.000
G1 X213.262 Y172.112 E0.02989
G1 X214.062 Y171.613 E0.02958
G1 X214.965 Y171.337 E0.02958
G1 X215.869 Y171.306 E0.02839
G1 X216.825 Y171.516 E0.03069
G1 X217.659 Y171.960 E0.02961
G1 X218.349 Y172.603 E0.02958
G1 X218.849 Y173.403 E0.02958
G1 X219.124 Y174.305 E0.02958
G1 X219.157 Y175.248 E0.02958
G1 X218.945 Y176.167 E0.02958
G1 X218.502 Y177.000 E0.02958
G1 X217.859 Y177.690 E0.02958
G1 X217.058 Y178.190 E0.02958
G1 X216.193 Y178.454 E0.02839
G1 X215.215 Y178.498 E0.03069
G1 X214.294 Y178.286 E0.02961
G1 X213.462 Y177.843 E0.02958
G1 X212.772 Y177.199 E0.02958
G1 X212.272 Y176.399 E0.02958
G1 X211.996 Y175.497 E0.02958
G1 X211.964 Y174.554 E0.02958
M73 P0 R180
G1 X212.176 Y173.635 E0.02958
G1 X212.586 Y172.864 E0.02737
G1 X212.447 Y172.448 F10800.000
G1 F8640.000
G1 X213.262 Y172.112 E-0.23355
G1 X214.062 Y171.613 E-0.21781
G1 X214.965 Y171.337 E-0.21782
G1 X215.358 Y171.323 E-0.09082
G1 E-0.04000 F2100.00000
G1 Z0.600 F10800.000
G1 X63.306 Y49.438
G1 Z0.200
G1 E0.80000 F2100.00000
G1 F1200.000
G1 X96.217 Y74.841 E1.30353
G1 X88.534 Y84.795 E0.39425
G1 X55.623 Y59.392 E1.30353
G1 X63.270 Y49.486 E0.39237
G1 X63.374 Y49.967 F10800.000
G1 F1200.000
G1 X95.688 Y74.909 E1.27988
G1 X88.466 Y84.266 E0.37061
G1 X56.152 Y59.324 E1.27988
G1 X63.338 Y50.015 E0.36873
G1 X63.465 Y49.577 F10800.000
G1 F8640.000
G1 X65.946 Y52.022 E-0.76000
G1 E-0.04000 F2100.00000
G1 Z0.600 F10800.000
G1 X38.180 Y36.498
G1 Z0.200
G1 E0.80000 F2100.00000
G1 F1200.000
G1 X37.709 Y37.383 E0.03144
G1 X36.982 Y38.179 E0.03381
G1 X36.095 Y38.733 E0.03279
G1 X35.098 Y39.038 E0.03269
G1 X34.056 Y39.074 E0.03269
G1 X33.040 Y38.840 E0.03269
G1 X32.120 Y38.350 E0.03269
G1 X31.357 Y37.639 E0.03269
G1 X30.805 Y36.755 E0.03269
G1 X30.500 Y35.757 E0.03269
G1 X30.464 Y34.715 E0.03269
G1 X30.699 Y33.700 E0.03269
G1 X31.188 Y32.779 E0.03269
G1 X31.900 Y32.017 E0.03269
G1 X32.784 Y31.464 E0.03269
G1 X33.781 Y31.160 E0.03269
G1 X34.783 Y31.125 E0.03144
G1 X35.836 Y31.357 E0.03381
G1 X36.759 Y31.848 E0.03279
G1 X37.522 Y32.559 E0.03269
G1 X38.074 Y33.443 E0.03269
G1 X38.379 Y34.440 E0.03269
G1 X38.415 Y35.482 E0.03269
G1 X38.194 Y36.440 E0.03081
G1 X37.826 Y36.355 F10800.000
G1 F1200.000
G1 X37.399 Y37.164 E0.02870
G1 X36.739 Y37.887 E0.03069
G1 X35.938 Y38.387 E0.02961
G1 X35.035 Y38.663 E0.02958
G1 X34.093 Y38.696 E0.02958
G1 X33.174 Y38.483 E0.02958
G1 X32.341 Y38.040 E0.02958
G1 X31.651 Y37.397 E0.02958
G1 X31.151 Y36.597 E0.02958
G1 X30.875 Y35.695 E0.02958
G1 X30.843 Y34.752 E0.02958
G1 X31.055 Y33.833 E0.02958
G1 X31.498 Y33.000 E0.02958
G1 X32.141 Y32.310 E0.02958
G1 X32.942 Y31.810 E0.02958
G1 X33.844 Y31.535 E0.02958
G1 X34.749 Y31.503 E0.02839
G1 X35.705 Y31.714 E0.03069
G1 X36.538 Y32.157 E0.02961
G1 X37.228 Y32.801 E0.02958
G1 X37.728 Y33.601 E0.02958
G1 X38.004 Y34.503 E0.02958
G1 X38.036 Y35.446 E0.02958
G1 X37.840 Y36.296 E0.02737
G1 X38.081 Y36.663 F10800.000
G1 F8640.000
