; generated by PrusaSlicer 2.2.0+win64 on 2021-09-03 at 08:14:37 UTC

; 

; external perimeters extrusion width = 0.45mm
; perimeters extrusion width = 0.45mm
; infill extrusion width = 0.45mm
; solid infill extrusion width = 0.45mm
; top infill extrusion width = 0.40mm
; first layer extrusion width = 0.42mm

M73 P0 R56
M201 X9000 Y9000 Z500 E10000 ; sets maximum accelerations, mm/sec^2
M203 X500 Y500 Z12 E120 ; sets maximum feedrates, mm/sec
M204 P2000 R1500 T2000 ; sets acceleration (P, T) and retract acceleration (R), mm/sec^2
M205 X10.00 Y10.00 Z0.20 E2.50 ; sets the jerk limits, mm/sec
M205 S0 T0 ; sets the minimum extruding and travel feed rate, mm/sec
M107
M862.3 P "MK2S" ; printer model check
M862.1 P0.4 ; nozzle diameter check
M115 U3.2.3 ; tell printer latest fw version
G90 ; use absolute coordinates
M83 ; extruder relative mode
M204 S2000 T1500 ; MK2 firmware only supports the old M204 format
M104 S265 ; set extruder temp
M140 S100 ; set bed temp
M190 S100 ; wait for bed temp
M109 S265 ; wait for extruder temp
G28 W ; home all without mesh bed level
G80 ; mesh bed leveling
G1 Y-3.0 F1000.0 ; go outside print area
G92 E0.0
G1 X60.0 E9.0  F1000.0 ; intro line
M73 P0 R56
G1 X100.0 E12.5 F1000.0 ; intro line
G92 E0.0
G21 ; set units to millimeters
G90 ; use absolute coordinates
M83 ; use relative distances for extrusion
M900 K0.04 ; Filament gcode LA 1.5
M900 K20 ; Filament gcode LA 1.0
;BEFORE_LAYER_CHANGE
G92 E0.0
;0.2


G1 E-0.80000 F2100.00000
G1 Z0.400 F10800.000
;AFTER_LAYER_CHANGE
;0.2
G1 X111.218 Y96.901
G1 Z0.200
G1 E0.80000 F2100.00000
M204 S1000
G1 F1200.000
G1 X111.591 Y96.351 E0.02083
G1 X119.931 Y87.268 E0.38664
G1 X120.342 Y86.919 E0.01692
G1 X120.819 Y86.673 E0.01680
G1 X121.642 Y86.518 E0.02626
G1 X170.731 Y86.250 E1.53920
G1 X173.170 Y86.567 E0.07709
G1 X173.979 Y86.889 E0.02731
G1 X174.455 Y87.285 E0.01941
G1 X174.815 Y87.794 E0.01953
G1 X175.030 Y88.378 E0.01953
G1 X175.086 Y88.995 E0.01941
G1 X170.827 Y120.021 E0.98192
G1 X170.645 Y120.605 E0.01917
G1 X170.320 Y121.123 E0.01917
G1 X169.874 Y121.540 E0.01917
G1 X169.332 Y121.832 E0.01929
G1 X168.505 Y121.987 E0.02637
G1 X119.426 Y122.256 E1.53886
G1 X116.958 Y121.934 E0.07805
G1 X116.483 Y121.782 E0.01562
G1 X116.054 Y121.537 E0.01550
G1 X115.682 Y121.206 E0.01562
G1 X115.389 Y120.808 E0.01550
G1 X109.659 Y109.492 E0.39771
G1 X109.521 Y108.931 E0.01811
G1 X109.522 Y108.353 E0.01811
G1 X111.001 Y97.597 E0.34045
G1 X111.200 Y96.958 E0.02096
; printing object PodHolder1.stl id:1 copy 0
G1 F8640.000
G1 X111.591 Y96.351 E-0.16672
G1 X113.328 Y94.459 E-0.59328
G1 E-0.04000 F2100.00000
G1 Z0.600 F10800.000
G1 X168.768 Y108.659
G1 Z0.200
G1 E0.80000 F2100.00000
G1 F1200.000
G1 X161.833 Y107.706 E0.21948
G1 X163.090 Y98.566 E0.28927
G1 X170.025 Y99.520 E0.21948
G1 X171.401 Y89.514 E0.31668
G1 X171.823 Y89.572 E0.01335
G1 X167.814 Y118.723 E0.92263
G1 X167.392 Y118.665 E0.01335
G1 X168.760 Y108.719 E0.31480
G1 X168.343 Y108.982 F10800.000
G1 F1200.000
G1 X161.408 Y108.028 E0.21948
G1 X162.768 Y98.141 E0.31292
G1 X169.703 Y99.095 E0.21948
G1 X171.079 Y89.089 E0.31668
G1 X172.248 Y89.250 E0.03700
G1 X168.136 Y119.148 E0.94627
G1 X166.967 Y118.987 E0.03700
G1 X168.335 Y109.041 E0.31480
G1 X168.382 Y108.584 F10800.000
G1 F8640.000
G1 X165.078 Y108.565 E-0.76000
G1 E-0.04000 F2100.00000
G1 Z0.600 F10800.000
G1 X170.246 Y100.212
G1 Z0.200
G1 E0.80000 F2100.00000
G1 F1200.000
G1 X169.809 Y99.775 E0.01940
G1 X169.189 Y99.690 E0.01967
G1 X170.030 Y100.531 E0.03740
G1 X169.966 Y101.001 E0.01492
G1 X168.569 Y99.605 E0.06209
G1 X167.949 Y99.520 E0.01967
G1 X169.901 Y101.471 E0.08678
G1 X169.836 Y101.941 E0.01492
G1 X167.329 Y99.434 E0.11147
G1 X166.709 Y99.349 E0.01967
G1 X169.772 Y102.411 E0.13616
G1 X169.707 Y102.882 E0.01492
G1 X166.089 Y99.264 E0.16085
G1 X165.469 Y99.178 E0.01967
G1 X169.642 Y103.352 E0.18554
G1 X169.578 Y103.822 E0.01492
G1 X164.849 Y99.093 E0.21023
G1 X164.229 Y99.008 E0.01967
G1 X169.513 Y104.292 E0.23492
G1 X169.449 Y104.762 E0.01492
G1 X163.609 Y98.923 E0.25961
G1 X163.332 Y98.885 E0.00880
G1 X163.296 Y99.144 E0.00824
G1 X169.384 Y105.232 E0.27065
G1 X169.319 Y105.702 E0.01492
G1 X163.232 Y99.614 E0.27065
G1 X163.167 Y100.084 E0.01492
G1 X169.255 Y106.172 E0.27065
G1 X169.190 Y106.642 E0.01492
G1 X163.102 Y100.554 E0.27065
G1 X163.038 Y101.024 E0.01492
G1 X169.125 Y107.112 E0.27065
G1 X169.061 Y107.582 E0.01492
G1 X162.973 Y101.494 E0.27065
G1 X162.908 Y101.965 E0.01492
G1 X168.996 Y108.052 E0.27065
G1 X168.948 Y108.399 E0.01100
G1 X168.786 Y108.376 E0.00516
G1 X162.844 Y102.435 E0.26418
G1 X162.779 Y102.905 E0.01492
G1 X168.166 Y108.291 E0.23949
G1 X167.546 Y108.206 E0.01967
G1 X162.714 Y103.375 E0.21480
G1 X162.650 Y103.845 E0.01492
G1 X166.926 Y108.121 E0.19011
G1 X166.306 Y108.035 E0.01967
G1 X162.585 Y104.315 E0.16542
G1 X162.520 Y104.785 E0.01492
G1 X165.686 Y107.950 E0.14073
G1 X165.066 Y107.865 E0.01967
G1 X162.456 Y105.255 E0.11604
G1 X162.391 Y105.725 E0.01492
G1 X164.446 Y107.779 E0.09135
G1 X163.826 Y107.694 E0.01967
G1 X162.327 Y106.195 E0.06666
G1 X162.262 Y106.665 E0.01492
G1 X163.206 Y107.609 E0.04197
G1 X162.586 Y107.524 E0.01967
G1 X162.047 Y106.984 E0.02397
; stop printing object PodHolder1.stl id:1 copy 0
; printing object PodHolder1.stl id:0 copy 0
G1 F8640.000
G1 X162.586 Y107.524 E-0.17607
G1 X163.206 Y107.609 E-0.14450
G1 X162.262 Y106.665 E-0.30824
G1 X162.327 Y106.195 E-0.10956
G1 X162.393 Y106.261 E-0.02164
G1 E-0.04000 F2100.00000
G1 Z0.600 F10800.000
G1 X119.702 Y108.928
G1 Z0.200
G1 E0.80000 F2100.00000
G1 F1200.000
G1 X112.768 Y107.974 E0.21948
G1 X114.025 Y98.834 E0.28927
G1 X120.960 Y99.788 E0.21948
G1 X122.336 Y89.782 E0.31668
G1 X122.758 Y89.840 E0.01335
G1 X118.748 Y118.991 E0.92263
G1 X118.326 Y118.933 E0.01335
G1 X119.694 Y108.987 E0.31480
G1 X119.277 Y109.250 F10800.000
G1 F1200.000
G1 X112.343 Y108.296 E0.21948
G1 X113.703 Y98.409 E0.31292
G1 X120.637 Y99.363 E0.21948
G1 X122.014 Y89.357 E0.31668
G1 X123.183 Y89.518 E0.03700
G1 X119.070 Y119.416 E0.94627
G1 X117.901 Y119.256 E0.03700
G1 X119.269 Y109.309 E0.31480
G1 X119.317 Y108.852 F10800.000
G1 F8640.000
G1 X116.013 Y108.833 E-0.76000
G1 E-0.04000 F2100.00000
G1 Z0.600 F10800.000
G1 X121.180 Y100.480
G1 Z0.200
G1 E0.80000 F2100.00000
G1 F1200.000
G1 X120.744 Y100.044 E0.01940
G1 X120.124 Y99.958 E0.01967
G1 X120.965 Y100.799 E0.03740
G1 X120.900 Y101.270 E0.01492
G1 X119.504 Y99.873 E0.06209
G1 X118.884 Y99.788 E0.01967
G1 X120.836 Y101.740 E0.08678
G1 X120.771 Y102.210 E0.01492
G1 X118.264 Y99.703 E0.11147
G1 X117.644 Y99.617 E0.01967
G1 X120.706 Y102.680 E0.13616
G1 X120.642 Y103.150 E0.01492
G1 X117.024 Y99.532 E0.16085
G1 X116.404 Y99.447 E0.01967
G1 X120.577 Y103.620 E0.18554
G1 X120.512 Y104.090 E0.01492
G1 X115.784 Y99.361 E0.21023
G1 X115.164 Y99.276 E0.01967
G1 X120.448 Y104.560 E0.23492
G1 X120.383 Y105.030 E0.01492
G1 X114.544 Y99.191 E0.25961
G1 X114.267 Y99.153 E0.00880
G1 X114.231 Y99.412 E0.00824
G1 X120.318 Y105.500 E0.27065
G1 X120.254 Y105.970 E0.01492
G1 X114.166 Y99.882 E0.27065
G1 X114.102 Y100.353 E0.01492
G1 X120.189 Y106.440 E0.27065
G1 X120.124 Y106.910 E0.01492
G1 X114.037 Y100.823 E0.27065
G1 X113.972 Y101.293 E0.01492
G1 X120.060 Y107.380 E0.27065
G1 X119.995 Y107.850 E0.01492
G1 X113.908 Y101.763 E0.27065
G1 X113.843 Y102.233 E0.01492
G1 X119.930 Y108.320 E0.27065
G1 X119.883 Y108.667 E0.01100
G1 X119.720 Y108.645 E0.00516
G1 X113.778 Y102.703 E0.26418
G1 X113.714 Y103.173 E0.01492
G1 X119.100 Y108.559 E0.23949
G1 X118.480 Y108.474 E0.01967
G1 X113.649 Y103.643 E0.21480
G1 X113.584 Y104.113 E0.01492
G1 X117.860 Y108.389 E0.19011
G1 X117.240 Y108.304 E0.01967
G1 X113.520 Y104.583 E0.16542
G1 X113.455 Y105.053 E0.01492
G1 X116.620 Y108.218 E0.14073
G1 X116.000 Y108.133 E0.01967
G1 X113.390 Y105.523 E0.11604
G1 X113.326 Y105.993 E0.01492
G1 X115.380 Y108.048 E0.09135
G1 X114.760 Y107.962 E0.01967
G1 X113.261 Y106.463 E0.06666
G1 X113.196 Y106.933 E0.01492
G1 X114.140 Y107.877 E0.04197
G1 X113.520 Y107.792 E0.01967
G1 X112.981 Y107.253 E0.02397
; stop printing object PodHolder1.stl id:0 copy 0
;BEFORE_LAYER_CHANGE
G92 E0.0
;0.4


G1 F8640.000
G1 X113.520 Y107.792 E-0.17607
G1 X114.140 Y107.877 E-0.14450
G1 X113.196 Y106.933 E-0.30824
G1 X113.261 Y106.463 E-0.10956
G1 X113.327 Y106.529 E-0.02164
G1 E-0.04000 F2100.00000
G1 Z0.600 F10800.000
;AFTER_LAYER_CHANGE
;0.4
M140 S110 ; set bed temperature
G1 X111.218 Y96.901
G1 Z0.400
G1 E0.80000 F2100.00000
G1 F3000.000
G1 X111.591 Y96.351 E0.02083
G1 X119.931 Y87.268 E0.38664
G1 X120.342 Y86.919 E0.01692
G1 X120.819 Y86.673 E0.01680
G1 X121.642 Y86.518 E0.02626
G1 X170.731 Y86.250 E1.53920
G1 X173.170 Y86.567 E0.07709
G1 X173.979 Y86.889 E0.02731
G1 X174.455 Y87.285 E0.01941
G1 X174.815 Y87.794 E0.01953
G1 X175.030 Y88.378 E0.01953
G1 X175.086 Y88.995 E0.01941
G1 X170.827 Y120.021 E0.98192
G1 X170.645 Y120.605 E0.01917
G1 X170.320 Y121.123 E0.01917
G1 X169.874 Y121.540 E0.01917
G1 X169.332 Y121.832 E0.01929
G1 X168.505 Y121.987 E0.02637
G1 X119.426 Y122.256 E1.53886
G1 X116.958 Y121.934 E0.07805
G1 X116.483 Y121.782 E0.01562
G1 X116.054 Y121.537 E0.01550
G1 X115.682 Y121.206 E0.01562
G1 X115.389 Y120.808 E0.01550
G1 X109.659 Y109.492 E0.39771
G1 X109.521 Y108.931 E0.01811
G1 X109.522 Y108.353 E0.01811
G1 X111.001 Y97.597 E0.34045
G1 X111.200 Y96.958 E0.02096
; printing object PodHolder1.stl id:1 copy 0
G1 F8640.000
G1 X111.591 Y96.351 E-0.16672
G1 X113.328 Y94.459 E-0.59328
G1 E-0.04000 F2100.00000
G1 Z0.800 F10800.000
G1 X168.593 Y108.792
G1 Z0.400
G1 E0.80000 F2100.00000
M204 S800
G1 F3000.000
G1 X161.659 Y107.838 E0.23694
G1 X162.958 Y98.391 E0.32278
G1 X169.893 Y99.345 E0.23694
G1 X171.269 Y89.339 E0.34187
G1 X171.998 Y89.440 E0.02491
G1 X167.946 Y118.898 E1.00652
G1 X167.217 Y118.798 E0.02491
G1 X168.585 Y108.851 E0.33984
M204 S1000
G1 X168.135 Y109.140 F10800.000
M204 S800
G1 F2400.000
G1 X161.200 Y108.186 E0.23694
G1 X162.610 Y97.932 E0.35034
G1 X169.545 Y98.886 E0.23694
G1 X170.921 Y88.880 E0.34187
G1 X172.457 Y89.092 E0.05247
G1 X168.294 Y119.357 E1.03408
G1 X166.758 Y119.145 E0.05247
G1 X168.126 Y109.199 E0.33984
M204 S1000
G1 X168.169 Y108.741 F10800.000
G1 X168.333 Y108.633
M204 S2000
G1 F3000.000
G1 X169.164 Y107.802 E0.04018
G1 X169.257 Y107.128 E0.02329
G1 X167.985 Y108.400 E0.06154
G1 X167.473 Y108.330 E0.01766
G1 X169.350 Y106.453 E0.09076
G1 X169.442 Y105.779 E0.02329
G1 X166.962 Y108.259 E0.11998
G1 X166.450 Y108.189 E0.01766
G1 X169.535 Y105.104 E0.14921
G1 X169.628 Y104.430 E0.02329
G1 X165.939 Y108.119 E0.17843
G1 X165.428 Y108.048 E0.01766
G1 X169.721 Y103.755 E0.20765
G1 X169.813 Y103.081 E0.02329
G1 X164.916 Y107.978 E0.23688
G1 X164.405 Y107.908 E0.01766
G1 X169.906 Y102.406 E0.26610
G1 X169.999 Y101.732 E0.02329
G1 X163.894 Y107.837 E0.29532
G1 X163.382 Y107.767 E0.01766
G1 X170.092 Y101.057 E0.32454
G1 X170.185 Y100.383 E0.02329
G1 X162.871 Y107.697 E0.35377
G1 X162.359 Y107.626 E0.01766
G1 X170.099 Y99.887 E0.37435
G1 X169.701 Y99.832 E0.01372
G1 X169.722 Y99.682 E0.00519
G1 X162.031 Y107.373 E0.37203
G1 X162.123 Y106.699 E0.02329
G1 X169.257 Y99.566 E0.34503
G1 X168.745 Y99.495 E0.01766
G1 X162.216 Y106.024 E0.31580
G1 X162.309 Y105.350 E0.02329
G1 X168.234 Y99.425 E0.28658
G1 X167.722 Y99.355 E0.01766
G1 X162.402 Y104.675 E0.25736
G1 X162.495 Y104.001 E0.02329
G1 X167.211 Y99.284 E0.22813
M73 P1 R55
G1 X166.700 Y99.214 E0.01766
G1 X162.587 Y103.326 E0.19891
G1 X162.680 Y102.652 E0.02329
G1 X166.188 Y99.144 E0.16969
G1 X165.677 Y99.073 E0.01766
G1 X162.773 Y101.977 E0.14047
G1 X162.866 Y101.303 E0.02329
G1 X165.166 Y99.003 E0.11124
G1 X164.654 Y98.933 E0.01766
G1 X162.958 Y100.628 E0.08202
G1 X163.051 Y99.954 E0.02329
G1 X164.143 Y98.862 E0.05280
G1 X163.631 Y98.792 E0.01766
G1 X162.930 Y99.494 E0.03394
M204 S1000
G1 F8640.000
G1 X163.631 Y98.792 E-0.22916
G1 X164.143 Y98.862 E-0.11919
G1 X163.051 Y99.954 E-0.35643
G1 X163.019 Y100.191 E-0.05522
G1 E-0.04000 F2100.00000
G1 Z0.800 F10800.000
G1 X170.229 Y99.597
G1 Z0.400
G1 E0.80000 F2100.00000
G1 F2400.000
G1 X171.606 Y89.591 E0.27610
G1 F8640.000
G1 X171.157 Y92.852 E-0.76000
G1 E-0.04000 F2100.00000
G1 Z0.800 F10800.000
G1 X168.986 Y108.640
G1 Z0.400
G1 E0.80000 F2100.00000
G1 F2400.000
G1 X167.609 Y118.646 E0.27610
; stop printing object PodHolder1.stl id:1 copy 0
; printing object PodHolder1.stl id:0 copy 0
G1 F8640.000
G1 X168.058 Y115.385 E-0.76000
G1 E-0.04000 F2100.00000
G1 Z0.800 F10800.000
G1 X119.528 Y109.060
G1 Z0.400
G1 E0.80000 F2100.00000
M204 S800
G1 F3000.000
G1 X112.593 Y108.106 E0.23694
G1 X113.893 Y98.659 E0.32278
G1 X120.827 Y99.613 E0.23694
G1 X122.204 Y89.607 E0.34187
G1 X122.933 Y89.708 E0.02491
G1 X118.880 Y119.166 E1.00652
G1 X118.151 Y119.066 E0.02491
G1 X119.520 Y109.120 E0.33984
M204 S1000
G1 X119.069 Y109.408 F10800.000
M204 S800
G1 F2400.000
G1 X112.134 Y108.454 E0.23694
G1 X113.545 Y98.201 E0.35034
G1 X120.479 Y99.154 E0.23694
G1 X121.856 Y89.149 E0.34187
G1 X123.391 Y89.360 E0.05247
G1 X119.228 Y119.625 E1.03408
G1 X117.693 Y119.414 E0.05247
G1 X119.061 Y109.467 E0.33984
M204 S1000
G1 X119.103 Y109.009 F10800.000
G1 X119.268 Y108.901
M204 S2000
G1 F3000.000
G1 X120.098 Y108.070 E0.04018
G1 X120.191 Y107.396 E0.02329
G1 X118.919 Y108.668 E0.06154
G1 X118.408 Y108.598 E0.01766
G1 X120.284 Y106.721 E0.09076
G1 X120.377 Y106.047 E0.02329
G1 X117.896 Y108.527 E0.11998
G1 X117.385 Y108.457 E0.01766
G1 X120.470 Y105.372 E0.14921
G1 X120.562 Y104.698 E0.02329
G1 X116.874 Y108.387 E0.17843
G1 X116.362 Y108.316 E0.01766
G1 X120.655 Y104.023 E0.20765
G1 X120.748 Y103.349 E0.02329
G1 X115.851 Y108.246 E0.23688
G1 X115.339 Y108.176 E0.01766
G1 X120.841 Y102.674 E0.26610
G1 X120.933 Y102.000 E0.02329
G1 X114.828 Y108.105 E0.29532
G1 X114.317 Y108.035 E0.01766
G1 X121.026 Y101.325 E0.32454
G1 X121.119 Y100.651 E0.02329
G1 X113.805 Y107.965 E0.35377
G1 X113.294 Y107.894 E0.01766
G1 X121.033 Y100.155 E0.37435
G1 X120.636 Y100.101 E0.01372
G1 X120.656 Y99.950 E0.00519
G1 X112.965 Y107.641 E0.37203
G1 X113.058 Y106.967 E0.02329
G1 X120.191 Y99.834 E0.34503
G1 X119.680 Y99.764 E0.01766
G1 X113.151 Y106.292 E0.31580
G1 X113.244 Y105.618 E0.02329
G1 X119.168 Y99.693 E0.28658
G1 X118.657 Y99.623 E0.01766
G1 X113.336 Y104.943 E0.25736
G1 X113.429 Y104.269 E0.02329
G1 X118.146 Y99.553 E0.22813
G1 X117.634 Y99.482 E0.01766
G1 X113.522 Y103.594 E0.19891
G1 X113.615 Y102.920 E0.02329
G1 X117.123 Y99.412 E0.16969
G1 X116.611 Y99.341 E0.01766
G1 X113.707 Y102.245 E0.14047
G1 X113.800 Y101.571 E0.02329
G1 X116.100 Y99.271 E0.11124
G1 X115.589 Y99.201 E0.01766
G1 X113.893 Y100.896 E0.08202
G1 X113.986 Y100.222 E0.02329
G1 X115.077 Y99.130 E0.05280
G1 X114.566 Y99.060 E0.01766
G1 X113.864 Y99.762 E0.03394
M204 S1000
G1 F8640.000
G1 X114.566 Y99.060 E-0.22916
G1 X115.077 Y99.130 E-0.11919
G1 X113.986 Y100.222 E-0.35643
G1 X113.953 Y100.459 E-0.05522
G1 E-0.04000 F2100.00000
G1 Z0.800 F10800.000
G1 X121.164 Y99.865
G1 Z0.400
G1 E0.80000 F2100.00000
G1 F2400.000
G1 X122.540 Y89.859 E0.27610
G1 F8640.000
G1 X122.092 Y93.120 E-0.76000
G1 E-0.04000 F2100.00000
G1 Z0.800 F10800.000
G1 X119.920 Y108.909
G1 Z0.400
G1 E0.80000 F2100.00000
G1 F2400.000
G1 X118.544 Y118.914 E0.27610
; stop printing object PodHolder1.stl id:0 copy 0
;BEFORE_LAYER_CHANGE
G92 E0.0
;0.6


G1 F8640.000
G1 X118.992 Y115.654 E-0.76000
G1 E-0.04000 F2100.00000
G1 Z0.800 F10800.000
;AFTER_LAYER_CHANGE
;0.6
G1 X115.682 Y121.206
G1 Z0.600
G1 E0.80000 F2100.00000
G1 F3000.000
G1 X115.389 Y120.808 E0.01550
G1 X109.659 Y109.492 E0.39771
G1 X109.521 Y108.931 E0.01811
G1 X109.522 Y108.353 E0.01811
G1 X111.001 Y97.597 E0.34045
G1 X111.218 Y96.901 E0.02284
G1 X111.591 Y96.351 E0.02083
G1 X119.931 Y87.268 E0.38664
G1 X120.342 Y86.919 E0.01692
G1 X120.819 Y86.673 E0.01680
G1 X121.642 Y86.518 E0.02626
G1 X170.731 Y86.250 E1.53920
G1 X173.170 Y86.567 E0.07709
G1 X173.979 Y86.889 E0.02731
G1 X174.455 Y87.285 E0.01941
G1 X174.815 Y87.794 E0.01953
G1 X175.030 Y88.378 E0.01953
G1 X175.086 Y88.995 E0.01941
G1 X170.827 Y120.021 E0.98192
G1 X170.645 Y120.605 E0.01917
G1 X170.320 Y121.123 E0.01917
G1 X169.874 Y121.540 E0.01917
