; generated by PrusaSlicer 2.2.0+win64 on 2021-09-02 at 13:28:45 UTC

; 

; external perimeters extrusion width = 0.45mm
; perimeters extrusion width = 0.45mm
; infill extrusion width = 0.45mm
; solid infill extrusion width = 0.45mm
; top infill extrusion width = 0.40mm
; first layer extrusion width = 0.42mm

M73 P0 R56
M201 X9000 Y9000 Z500 E10000 ; sets maximum accelerations, mm/sec^2
M203 X500 Y500 Z12 E120 ; sets maximum feedrates, mm/sec
M204 P2000 R1500 T2000 ; sets acceleration (P, T) and retract acceleration (R), mm/sec^2
M205 X10.00 Y10.00 Z0.20 E2.50 ; sets the jerk limits, mm/sec
M205 S0 T0 ; sets the minimum extruding and travel feed rate, mm/sec
M107
M862.3 P "MK2S" ; printer model check
M862.1 P0.4 ; nozzle diameter check
M115 U3.2.3 ; tell printer latest fw version
G90 ; use absolute coordinates
M83 ; extruder relative mode
M204 S2000 T1500 ; MK2 firmware only supports the old M204 format
M104 S215 ; set extruder temp
M140 S60 ; set bed temp
M190 S60 ; wait for bed temp
M109 S215 ; wait for extruder temp
G28 W ; home all without mesh bed level
G80 ; mesh bed leveling
G1 Y-3.0 F1000.0 ; go outside print area
G92 E0.0
G1 X60.0 E9.0  F1000.0 ; intro line
M73 P0 R56
G1 X100.0 E12.5 F1000.0 ; intro line
G92 E0.0
G21 ; set units to millimeters
G90 ; use absolute coordinates
M83 ; use relative distances for extrusion
M900 K0.05 ; Filament gcode LA 1.5
M900 K30 ; Filament gcode LA 1.0
;BEFORE_LAYER_CHANGE
G92 E0.0
;0.2


G1 E-0.80000 F2100.00000
G1 Z0.400 F10800.000
;AFTER_LAYER_CHANGE
;0.2
G1 X107.085 Y99.234
G1 Z0.200
G1 E0.80000 F2100.00000
M204 S1000
G1 F1200.000
G1 X107.485 Y98.554 E0.02473
G1 X107.873 Y98.185 E0.01680
G1 X117.926 Y90.665 E0.39365
G1 X118.437 Y90.439 E0.01752
G1 X118.990 Y90.338 E0.01763
G1 X129.932 Y89.930 E0.34331
G1 X180.986 Y90.169 E1.60076
G1 X181.815 Y90.491 E0.02790
G1 X192.522 Y97.378 E0.39914
G1 X192.986 Y97.968 E0.02355
G1 X193.245 Y98.677 E0.02367
G1 X193.361 Y101.058 E0.07474
G1 X193.323 Y101.551 E0.01550
G1 X193.066 Y102.272 E0.02402
G1 X192.590 Y102.877 E0.02414
G1 X191.949 Y103.297 E0.02402
G1 X191.208 Y103.491 E0.02402
G1 X160.053 Y104.658 E0.97751
G1 X109.317 Y104.457 E1.59080
G1 X108.724 Y104.366 E0.01882
G1 X108.173 Y104.129 E0.01882
G1 X107.701 Y103.764 E0.01870
G1 X107.333 Y103.290 E0.01882
G1 X107.129 Y102.844 E0.01538
G1 X107.021 Y102.369 E0.01526
G1 X106.930 Y100.007 E0.07411
G1 X107.073 Y99.293 E0.02285
; printing object PodHolder1.stl id:1 copy 0
G1 F8640.000
G1 X107.485 Y98.554 E-0.19524
G1 X107.873 Y98.185 E-0.12375
G1 X109.403 Y97.041 E-0.44102
G1 E-0.04000 F2100.00000
G1 Z0.600 F10800.000
G1 X160.748 Y101.040
G1 Z0.200
G1 E0.80000 F2100.00000
G1 F1200.000
G1 X170.841 Y100.663 E0.31668
G1 X170.579 Y93.668 E0.21948
G1 X179.799 Y93.323 E0.28927
G1 X180.060 Y100.318 E0.21948
G1 X190.153 Y99.941 E0.31668
G1 X190.169 Y100.367 E0.01335
G1 X160.763 Y101.465 E0.92263
G1 X160.750 Y101.100 E0.01147
G1 F8640.000
G1 X164.038 Y100.957 E-0.76000
G1 E-0.04000 F2100.00000
G1 Z0.600 F10800.000
G1 X180.423 Y99.927
G1 Z0.200
G1 E0.80000 F2100.00000
G1 F1200.000
G1 X190.516 Y99.550 E0.31668
G1 X190.560 Y100.729 E0.03700
G1 X160.401 Y101.856 E0.94627
G1 X160.357 Y100.677 E0.03700
G1 X170.450 Y100.300 E0.31668
G1 X170.188 Y93.305 E0.21948
G1 X180.161 Y92.932 E0.31292
G1 X180.420 Y99.867 E0.21760
G1 X180.563 Y100.302 F10800.000
G1 F8640.000
G1 X183.710 Y99.764 E-0.76000
G1 E-0.04000 F2100.00000
G1 Z0.600 F10800.000
G1 X170.947 Y100.478
G1 Z0.200
G1 E0.80000 F2100.00000
G1 F1200.000
G1 X171.259 Y100.790 E0.01392
G1 X171.776 Y100.771 E0.01628
G1 X171.102 Y100.098 E0.02999
G1 X171.082 Y99.541 E0.01754
G1 X172.292 Y100.752 E0.05392
G1 X172.809 Y100.732 E0.01628
G1 X171.061 Y98.985 E0.07785
G1 X171.040 Y98.428 E0.01754
G1 X173.325 Y100.713 E0.10178
G1 X173.841 Y100.694 E0.01628
G1 X171.019 Y97.872 E0.12572
G1 X170.999 Y97.315 E0.01754
G1 X174.358 Y100.674 E0.14965
G1 X174.874 Y100.655 E0.01628
G1 X170.978 Y96.759 E0.17358
G1 X170.957 Y96.202 E0.01754
G1 X175.391 Y100.636 E0.19751
G1 X175.907 Y100.617 E0.01628
G1 X170.936 Y95.645 E0.22144
G1 X170.915 Y95.089 E0.01754
G1 X176.424 Y100.597 E0.24537
G1 X176.940 Y100.578 E0.01628
G1 X170.895 Y94.532 E0.26930
G1 X170.874 Y93.976 E0.01754
G1 X177.456 Y100.559 E0.29324
G1 X177.973 Y100.539 E0.01628
G1 X171.355 Y93.922 E0.29480
G1 X171.872 Y93.902 E0.01628
G1 X178.489 Y100.520 E0.29480
G1 X179.006 Y100.501 E0.01628
G1 X172.388 Y93.883 E0.29480
G1 X172.904 Y93.864 E0.01628
G1 X179.522 Y100.481 E0.29480
G1 X179.783 Y100.472 E0.00821
G1 X179.772 Y100.196 E0.00869
G1 X173.421 Y93.844 E0.28294
G1 X173.937 Y93.825 E0.01628
G1 X179.752 Y99.639 E0.25901
G1 X179.731 Y99.083 E0.01754
G1 X174.454 Y93.806 E0.23507
G1 X174.970 Y93.786 E0.01628
G1 X179.710 Y98.526 E0.21114
G1 X179.689 Y97.970 E0.01754
G1 X175.487 Y93.767 E0.18721
G1 X176.003 Y93.748 E0.01628
G1 X179.668 Y97.413 E0.16328
G1 X179.648 Y96.857 E0.01754
G1 X176.520 Y93.729 E0.13935
G1 X177.036 Y93.709 E0.01628
G1 X179.627 Y96.300 E0.11542
G1 X179.606 Y95.744 E0.01754
G1 X177.552 Y93.690 E0.09148
G1 X178.069 Y93.671 E0.01628
G1 X179.585 Y95.187 E0.06755
G1 X179.565 Y94.631 E0.01754
G1 X178.585 Y93.651 E0.04362
G1 X179.102 Y93.632 E0.01628
G1 X179.720 Y94.251 E0.02755
; stop printing object PodHolder1.stl id:1 copy 0
; printing object PodHolder1.stl id:0 copy 0
G1 F8640.000
G1 X179.102 Y93.632 E-0.20194
G1 X178.585 Y93.651 E-0.11933
G1 X179.565 Y94.631 E-0.31977
G1 X179.584 Y95.146 E-0.11896
G1 E-0.04000 F2100.00000
G1 Z0.600 F10800.000
G1 X139.527 Y99.741
G1 Z0.200
G1 E0.80000 F2100.00000
G1 F1200.000
G1 X139.543 Y100.167 E0.01335
G1 X110.137 Y101.265 E0.92263
G1 X110.121 Y100.840 E0.01335
G1 X120.214 Y100.463 E0.31668
G1 X119.953 Y93.467 E0.21948
G1 X129.172 Y93.123 E0.28927
G1 X129.434 Y100.118 E0.21948
G1 X139.467 Y99.743 E0.31480
G1 F8640.000
G1 X139.543 Y100.167 E-0.09930
G1 X136.683 Y100.273 E-0.66070
G1 E-0.04000 F2100.00000
G1 Z0.600 F10800.000
G1 X129.797 Y99.727
G1 Z0.200
G1 E0.80000 F2100.00000
G1 F1200.000
G1 X139.889 Y99.350 E0.31668
G1 X139.934 Y100.529 E0.03700
G1 X109.775 Y101.656 E0.94627
G1 X109.731 Y100.477 E0.03700
G1 X119.823 Y100.100 E0.31668
G1 X119.562 Y93.105 E0.21948
G1 X129.535 Y92.732 E0.31292
G1 X129.794 Y99.667 E0.21760
G1 X129.936 Y100.102 F10800.000
G1 F8640.000
G1 X133.084 Y99.564 E-0.76000
G1 E-0.04000 F2100.00000
G1 Z0.600 F10800.000
G1 X120.321 Y100.278
G1 Z0.200
G1 E0.80000 F2100.00000
G1 F1200.000
G1 X120.633 Y100.590 E0.01392
G1 X121.149 Y100.571 E0.01628
G1 X120.476 Y99.898 E0.02999
G1 X120.455 Y99.341 E0.01754
G1 X121.666 Y100.551 E0.05392
G1 X122.182 Y100.532 E0.01628
G1 X120.435 Y98.785 E0.07785
G1 X120.414 Y98.228 E0.01754
G1 X122.699 Y100.513 E0.10178
G1 X123.215 Y100.494 E0.01628
G1 X120.393 Y97.671 E0.12572
G1 X120.372 Y97.115 E0.01754
G1 X123.732 Y100.474 E0.14965
G1 X124.248 Y100.455 E0.01628
G1 X120.352 Y96.558 E0.17358
G1 X120.331 Y96.002 E0.01754
G1 X124.765 Y100.436 E0.19751
G1 X125.281 Y100.416 E0.01628
G1 X120.310 Y95.445 E0.22144
G1 X120.289 Y94.889 E0.01754
G1 X125.797 Y100.397 E0.24537
G1 X126.314 Y100.378 E0.01628
G1 X120.268 Y94.332 E0.26930
G1 X120.248 Y93.776 E0.01754
G1 X126.830 Y100.359 E0.29324
G1 X127.347 Y100.339 E0.01628
G1 X120.729 Y93.721 E0.29480
G1 X121.245 Y93.702 E0.01628
G1 X127.863 Y100.320 E0.29480
G1 X128.380 Y100.301 E0.01628
G1 X121.762 Y93.683 E0.29480
G1 X122.278 Y93.664 E0.01628
G1 X128.896 Y100.281 E0.29480
G1 X129.157 Y100.272 E0.00821
G1 X129.146 Y99.996 E0.00869
G1 X122.795 Y93.644 E0.28294
G1 X123.311 Y93.625 E0.01628
G1 X129.125 Y99.439 E0.25901
G1 X129.105 Y98.883 E0.01754
G1 X123.828 Y93.606 E0.23507
G1 X124.344 Y93.586 E0.01628
G1 X129.084 Y98.326 E0.21114
G1 X129.063 Y97.770 E0.01754
G1 X124.860 Y93.567 E0.18721
G1 X125.377 Y93.548 E0.01628
G1 X129.042 Y97.213 E0.16328
G1 X129.021 Y96.657 E0.01754
G1 X125.893 Y93.529 E0.13935
G1 X126.410 Y93.509 E0.01628
G1 X129.001 Y96.100 E0.11542
G1 X128.980 Y95.544 E0.01754
G1 X126.926 Y93.490 E0.09148
G1 X127.443 Y93.471 E0.01628
G1 X128.959 Y94.987 E0.06755
G1 X128.938 Y94.431 E0.01754
G1 X127.959 Y93.451 E0.04362
G1 X128.476 Y93.432 E0.01628
G1 X129.094 Y94.050 E0.02755
; stop printing object PodHolder1.stl id:0 copy 0
M106 S255
;BEFORE_LAYER_CHANGE
G92 E0.0
;0.4


G1 F8640.000
G1 X128.476 Y93.432 E-0.20194
G1 X127.959 Y93.451 E-0.11933
G1 X128.938 Y94.431 E-0.31977
G1 X128.958 Y94.945 E-0.11896
G1 E-0.04000 F2100.00000
G1 Z0.600 F10800.000
;AFTER_LAYER_CHANGE
;0.4
M104 S210 ; set temperature
G1 X180.986 Y90.169
G1 Z0.400
G1 E0.80000 F2100.00000
G1 F3000.000
G1 X181.815 Y90.491 E0.02790
G1 X192.522 Y97.378 E0.39914
G1 X192.986 Y97.968 E0.02355
G1 X193.245 Y98.677 E0.02367
G1 X193.361 Y101.058 E0.07474
G1 X193.323 Y101.551 E0.01550
G1 X193.066 Y102.272 E0.02402
G1 X192.590 Y102.877 E0.02414
G1 X191.949 Y103.297 E0.02402
G1 X191.208 Y103.491 E0.02402
G1 X160.053 Y104.658 E0.97751
G1 X109.317 Y104.457 E1.59080
G1 X108.724 Y104.366 E0.01882
G1 X108.173 Y104.129 E0.01882
G1 X107.701 Y103.764 E0.01870
G1 X107.333 Y103.290 E0.01882
G1 X107.129 Y102.844 E0.01538
G1 X107.021 Y102.369 E0.01526
G1 X106.930 Y100.007 E0.07411
G1 X107.085 Y99.234 E0.02473
G1 X107.485 Y98.554 E0.02473
G1 X107.873 Y98.185 E0.01680
G1 X117.926 Y90.665 E0.39365
G1 X118.437 Y90.439 E0.01752
G1 X118.990 Y90.338 E0.01763
G1 X129.932 Y89.930 E0.34331
G1 X180.926 Y90.169 E1.59888
; printing object PodHolder1.stl id:1 copy 0
G1 F8640.000
G1 X181.815 Y90.491 E-0.21846
G1 X183.788 Y91.760 E-0.54154
G1 E-0.04000 F2100.00000
G1 Z0.800 F10800.000
G1 X179.948 Y93.162
G1 Z0.400
G1 E0.80000 F2100.00000
M204 S800
G1 F3000.000
G1 X180.209 Y100.158 E0.23694
G1 X190.302 Y99.781 E0.34187
G1 X190.330 Y100.516 E0.02491
G1 X160.614 Y101.626 E1.00652
G1 X160.587 Y100.891 E0.02491
G1 X170.680 Y100.514 E0.34187
G1 X170.419 Y93.518 E0.23694
G1 X179.888 Y93.165 E0.32075
M204 S1000
G1 F8640.000
G1 X180.039 Y96.453 E-0.76000
G1 E-0.04000 F2100.00000
G1 Z0.800 F10800.000
G1 X180.601 Y99.736
G1 Z0.400
G1 E0.80000 F2100.00000
M204 S800
G1 F2400.000
G1 X190.694 Y99.359 E0.34187
G1 X190.751 Y100.907 E0.05247
G1 X160.223 Y102.048 E1.03408
G1 X160.165 Y100.499 E0.05247
G1 X170.258 Y100.122 E0.34187
G1 X169.997 Y93.127 E0.23694
G1 X180.339 Y92.740 E0.35034
G1 X180.598 Y99.676 E0.23491
M204 S1000
G1 X180.743 Y100.110 F10800.000
G1 F8640.000
G1 X183.888 Y99.572 E-0.76000
G1 E-0.04000 F2100.00000
G1 Z0.800 F10800.000
G1 X180.019 Y100.533
G1 Z0.400
G1 E0.80000 F2100.00000
G1 F2400.000
G1 X190.112 Y100.156 E0.27610
G1 F8640.000
G1 X186.823 Y100.279 E-0.76000
G1 E-0.04000 F2100.00000
G1 Z0.800 F10800.000
G1 X179.026 Y100.816
G1 Z0.400
G1 E0.80000 F2100.00000
M204 S2000
G1 F3000.000
G1 X179.896 Y99.946 E0.04287
G1 X179.874 Y99.375 E0.01991
G1 X178.600 Y100.648 E0.06276
G1 X177.985 Y100.671 E0.02146
G1 X179.853 Y98.803 E0.09203
G1 X179.832 Y98.232 E0.01991
G1 X177.369 Y100.694 E0.12130
G1 X176.754 Y100.717 E0.02146
G1 X179.810 Y97.661 E0.15057
G1 X179.789 Y97.090 E0.01991
G1 X176.139 Y100.740 E0.17984
G1 X175.523 Y100.763 E0.02146
G1 X179.768 Y96.519 E0.20912
M73 P1 R55
G1 X179.746 Y95.948 E0.01991
G1 X174.908 Y100.786 E0.23839
G1 X174.292 Y100.809 E0.02146
G1 X179.725 Y95.377 E0.26766
G1 X179.704 Y94.805 E0.01991
G1 X173.677 Y100.832 E0.29693
G1 X173.061 Y100.855 E0.02146
G1 X179.682 Y94.234 E0.32620
G1 X179.661 Y93.663 E0.01991
G1 X172.446 Y100.878 E0.35547
G1 X171.830 Y100.901 E0.02146
G1 X179.237 Y93.495 E0.36491
G1 X178.622 Y93.518 E0.02146
G1 X171.215 Y100.924 E0.36491
G1 X171.175 Y100.372 E0.01930
G1 X178.006 Y93.541 E0.33655
G1 X177.391 Y93.564 E0.02146
G1 X170.966 Y99.988 E0.31652
G1 X170.944 Y99.417 E0.01991
G1 X176.775 Y93.586 E0.28725
G1 X176.160 Y93.609 E0.02146
G1 X170.923 Y98.846 E0.25798
G1 X170.902 Y98.275 E0.01991
G1 X175.544 Y93.632 E0.22871
G1 X174.929 Y93.655 E0.02146
G1 X170.880 Y97.704 E0.19944
G1 X170.859 Y97.132 E0.01991
G1 X174.313 Y93.678 E0.17016
G1 X173.698 Y93.701 E0.02146
G1 X170.838 Y96.561 E0.14089
G1 X170.816 Y95.990 E0.01991
G1 X173.082 Y93.724 E0.11162
G1 X172.467 Y93.747 E0.02146
G1 X170.795 Y95.419 E0.08235
G1 X170.774 Y94.848 E0.01991
G1 X171.851 Y93.770 E0.05308
G1 X171.236 Y93.793 E0.02146
G1 X170.576 Y94.453 E0.03251
M204 S1000
G1 F8640.000
G1 X171.236 Y93.793 E-0.21550
G1 X171.851 Y93.770 E-0.14222
G1 X170.774 Y94.848 E-0.35182
G1 X170.782 Y95.066 E-0.05046
G1 E-0.04000 F2100.00000
G1 Z0.800 F10800.000
G1 X170.897 Y100.874
G1 Z0.400
G1 E0.80000 F2100.00000
G1 F2400.000
G1 X160.804 Y101.251 E0.27610
; stop printing object PodHolder1.stl id:1 copy 0
; printing object PodHolder1.stl id:0 copy 0
G1 F8640.000
G1 X164.093 Y101.128 E-0.76000
G1 E-0.04000 F2100.00000
G1 Z0.800 F10800.000
G1 X139.703 Y100.316
G1 Z0.400
G1 E0.80000 F2100.00000
M204 S800
G1 F3000.000
G1 X109.988 Y101.426 E1.00652
G1 X109.961 Y100.690 E0.02491
G1 X120.054 Y100.313 E0.34187
G1 X119.792 Y93.318 E0.23694
G1 X129.322 Y92.962 E0.32278
G1 X129.583 Y99.957 E0.23694
G1 X139.676 Y99.580 E0.34187
G1 X139.701 Y100.256 E0.02288
M204 S1000
G1 F8640.000
G1 X136.412 Y100.385 E-0.76000
G1 E-0.04000 F2100.00000
G1 Z0.800 F10800.000
G1 X129.974 Y99.535
G1 Z0.400
G1 E0.80000 F2100.00000
M204 S800
G1 F2400.000
G1 X140.067 Y99.158 E0.34187
G1 X140.125 Y100.707 E0.05247
G1 X109.597 Y101.848 E1.03408
G1 X109.539 Y100.299 E0.05247
G1 X119.632 Y99.922 E0.34187
G1 X119.370 Y92.927 E0.23694
G1 X129.713 Y92.540 E0.35034
G1 X129.972 Y99.476 E0.23491
M204 S1000
G1 X130.116 Y99.909 F10800.000
G1 F8640.000
G1 X133.262 Y99.372 E-0.76000
G1 E-0.04000 F2100.00000
G1 Z0.800 F10800.000
G1 X129.393 Y100.333
G1 Z0.400
G1 E0.80000 F2100.00000
G1 F2400.000
G1 X139.486 Y99.956 E0.27610
G1 F8640.000
G1 X136.197 Y100.079 E-0.76000
G1 E-0.04000 F2100.00000
G1 Z0.800 F10800.000
G1 X128.399 Y100.616
G1 Z0.400
G1 E0.80000 F2100.00000
M204 S2000
G1 F3000.000
G1 X129.269 Y99.746 E0.04287
G1 X129.248 Y99.175 E0.01991
G1 X127.974 Y100.448 E0.06276
G1 X127.359 Y100.471 E0.02146
G1 X129.227 Y98.603 E0.09203
G1 X129.205 Y98.032 E0.01991
G1 X126.743 Y100.494 E0.12130
G1 X126.128 Y100.517 E0.02146
G1 X129.184 Y97.461 E0.15057
G1 X129.163 Y96.890 E0.01991
G1 X125.512 Y100.540 E0.17984
G1 X124.897 Y100.563 E0.02146
G1 X129.141 Y96.319 E0.20912
G1 X129.120 Y95.748 E0.01991
G1 X124.281 Y100.586 E0.23839
G1 X123.666 Y100.609 E0.02146
G1 X129.099 Y95.176 E0.26766
G1 X129.077 Y94.605 E0.01991
G1 X123.050 Y100.632 E0.29693
G1 X122.435 Y100.655 E0.02146
G1 X129.056 Y94.034 E0.32620
G1 X129.035 Y93.463 E0.01991
G1 X121.819 Y100.678 E0.35547
G1 X121.204 Y100.701 E0.02146
G1 X128.611 Y93.294 E0.36491
G1 X127.995 Y93.317 E0.02146
G1 X120.588 Y100.724 E0.36491
G1 X120.549 Y100.172 E0.01930
G1 X127.380 Y93.340 E0.33655
G1 X126.764 Y93.363 E0.02146
G1 X120.340 Y99.788 E0.31652
G1 X120.318 Y99.217 E0.01991
G1 X126.149 Y93.386 E0.28725
G1 X125.533 Y93.409 E0.02146
G1 X120.297 Y98.646 E0.25798
G1 X120.276 Y98.075 E0.01991
G1 X124.918 Y93.432 E0.22871
G1 X124.302 Y93.455 E0.02146
G1 X120.254 Y97.504 E0.19944
G1 X120.233 Y96.932 E0.01991
G1 X123.687 Y93.478 E0.17016
G1 X123.071 Y93.501 E0.02146
G1 X120.212 Y96.361 E0.14089
G1 X120.190 Y95.790 E0.01991
G1 X122.456 Y93.524 E0.11162
G1 X121.840 Y93.547 E0.02146
G1 X120.169 Y95.219 E0.08235
G1 X120.148 Y94.648 E0.01991
G1 X121.225 Y93.570 E0.05308
G1 X120.609 Y93.593 E0.02146
G1 X119.950 Y94.253 E0.03251
M204 S1000
G1 F8640.000
G1 X120.609 Y93.593 E-0.21550
G1 X121.225 Y93.570 E-0.14222
G1 X120.148 Y94.648 E-0.35182
G1 X120.156 Y94.866 E-0.05046
G1 E-0.04000 F2100.00000
G1 Z0.800 F10800.000
G1 X120.271 Y100.674
G1 Z0.400
G1 E0.80000 F2100.00000
G1 F2400.000
G1 X110.178 Y101.051 E0.27610
; stop printing object PodHolder1.stl id:0 copy 0
;BEFORE_LAYER_CHANGE
G92 E0.0
;0.6


G1 F8640.000
G1 X113.467 Y100.928 E-0.76000
G1 E-0.04000 F2100.00000
G1 Z0.800 F10800.000
;AFTER_LAYER_CHANGE
;0.6
G1 X107.085 Y99.234
G1 Z0.600
G1 E0.80000 F2100.00000
G1 F3000.000
G1 X107.485 Y98.554 E0.02473
G1 X107.873 Y98.185 E0.01680
G1 X117.926 Y90.665 E0.39365
G1 X118.437 Y90.439 E0.01752
G1 X118.990 Y90.338 E0.01763
G1 X129.932 Y89.930 E0.34331
G1 X180.986 Y90.169 E1.60076
G1 X181.815 Y90.491 E0.02790
G1 X192.522 Y97.378 E0.39914
G1 X192.986 Y97.968 E0.02355
