; generated by PrusaSlicer 2.2.0+win64 on 2021-08-27 at 09:27:45 UTC

; 

; external perimeters extrusion width = 0.45mm
; perimeters extrusion width = 0.45mm
; infill extrusion width = 0.45mm
; solid infill extrusion width = 0.45mm
; top infill extrusion width = 0.40mm
; first layer extrusion width = 0.42mm

M73 P0 R10
M201 X9000 Y9000 Z500 E10000 ; sets maximum accelerations, mm/sec^2
M203 X500 Y500 Z12 E120 ; sets maximum feedrates, mm/sec
M204 P2000 R1500 T2000 ; sets acceleration (P, T) and retract acceleration (R), mm/sec^2
M205 X10.00 Y10.00 Z0.20 E2.50 ; sets the jerk limits, mm/sec
M205 S0 T0 ; sets the minimum extruding and travel feed rate, mm/sec
M107
M862.3 P "MK2S" ; printer model check
M862.1 P0.4 ; nozzle diameter check
M115 U3.2.3 ; tell printer latest fw version
G90 ; use absolute coordinates
M83 ; extruder relative mode
M204 S2000 T1500 ; MK2 firmware only supports the old M204 format
M104 S215 ; set extruder temp
M140 S60 ; set bed temp
M190 S60 ; wait for bed temp
M109 S215 ; wait for extruder temp
G28 W ; home all without mesh bed level
G80 ; mesh bed leveling
G1 Y-3.0 F1000.0 ; go outside print area
G92 E0.0
G1 X60.0 E9.0  F1000.0 ; intro line
M73 P0 R10
G1 X100.0 E12.5 F1000.0 ; intro line
G92 E0.0
G21 ; set units to millimeters
G90 ; use absolute coordinates
M83 ; use relative distances for extrusion
M900 K0.05 ; Filament gcode LA 1.5
M900 K30 ; Filament gcode LA 1.0
;BEFORE_LAYER_CHANGE
G92 E0.0
;0.2


G1 E-0.80000 F2100.00000
G1 Z0.400 F10800.000
;AFTER_LAYER_CHANGE
;0.2
G1 X107.149 Y94.961
G1 Z0.200
G1 E0.80000 F2100.00000
M204 S1000
G1 F1200.000
G1 X107.726 Y94.558 E0.02205
G1 X108.334 Y94.328 E0.02039
G1 X108.975 Y94.246 E0.02026
G1 X141.004 Y94.246 E1.00426
G1 X142.013 Y94.439 E0.03221
G1 X142.884 Y94.991 E0.03233
G1 X143.489 Y95.821 E0.03221
G1 X143.748 Y96.819 E0.03233
G1 X143.743 Y111.175 E0.45013
G1 X143.597 Y111.847 E0.02154
G1 X143.289 Y112.461 E0.02154
G1 X142.839 Y112.980 E0.02154
G1 X142.274 Y113.371 E0.02154
G1 X141.666 Y113.602 E0.02039
G1 X141.025 Y113.684 E0.02026
G1 X108.910 Y113.682 E1.00696
G1 X108.192 Y113.563 E0.02282
G1 X107.534 Y113.261 E0.02269
G1 X106.977 Y112.799 E0.02269
G1 X106.558 Y112.204 E0.02282
G1 X106.332 Y111.612 E0.01988
G1 X106.246 Y110.984 E0.01988
G1 X106.252 Y96.820 E0.44410
G1 X106.387 Y96.130 E0.02205
G1 X106.693 Y95.496 E0.02205
G1 X107.110 Y95.007 E0.02017
G1 X107.395 Y95.251 F10800.000
G1 F1200.000
G1 X107.920 Y94.882 E0.02013
G1 X108.437 Y94.691 E0.01728
G1 X108.980 Y94.623 E0.01716
G1 X141.004 Y94.623 E1.00409
G1 X141.881 Y94.792 E0.02802
G1 X142.634 Y95.274 E0.02802
G1 X143.154 Y95.995 E0.02790
G1 X143.373 Y96.862 E0.02802
G1 X143.369 Y111.120 E0.44705
G1 X143.245 Y111.711 E0.01894
G1 X142.976 Y112.251 E0.01894
G1 X142.579 Y112.707 E0.01894
G1 X142.080 Y113.047 E0.01894
G1 X141.563 Y113.239 E0.01728
G1 X141.020 Y113.307 E0.01716
G1 X108.931 Y113.306 E1.00612
G1 X108.306 Y113.203 E0.01989
G1 X107.729 Y112.938 E0.01989
G1 X107.243 Y112.531 E0.01989
G1 X106.882 Y112.009 E0.01989
G1 X106.693 Y111.504 E0.01692
G1 X106.623 Y110.969 E0.01692
G1 X106.627 Y96.855 E0.44251
G1 X106.744 Y96.251 E0.01929
G1 X107.012 Y95.697 E0.01929
G1 X107.356 Y95.297 E0.01655
; printing object PT1000-Bracket.stl id:0 copy 0
G1 F8640.000
G1 X107.920 Y94.882 E-0.16171
G1 X108.437 Y94.691 E-0.12724
G1 X108.980 Y94.623 E-0.12637
G1 X110.473 Y94.623 E-0.34468
G1 E-0.04000 F2100.00000
G1 Z0.600 F10800.000
G1 X109.787 Y97.787
G1 Z0.200
G1 E0.80000 F2100.00000
G1 F1200.000
G1 X117.213 Y97.787 E0.23283
G1 X117.213 Y99.163 E0.04315
G1 X117.030 Y98.874 E0.01071
G1 X116.759 Y98.568 E0.01281
G1 X116.443 Y98.310 E0.01281
G1 X116.089 Y98.106 E0.01281
G1 X115.707 Y97.961 E0.01281
G1 X115.303 Y97.878 E0.01292
G1 X114.871 Y97.866 E0.01353
G1 X114.492 Y97.912 E0.01199
G1 X114.099 Y98.025 E0.01281
G1 X113.730 Y98.201 E0.01281
G1 X113.394 Y98.433 E0.01281
G1 X113.099 Y98.716 E0.01281
G1 X112.852 Y99.045 E0.01292
G1 X112.655 Y99.430 E0.01353
G1 X112.534 Y99.792 E0.01199
G1 X112.469 Y100.196 E0.01281
G1 X112.469 Y100.604 E0.01281
G1 X112.534 Y101.008 E0.01281
G1 X112.664 Y101.395 E0.01281
G1 X112.854 Y101.757 E0.01281
G1 X113.099 Y102.084 E0.01281
G1 X113.394 Y102.367 E0.01281
G1 X113.730 Y102.599 E0.01281
G1 X114.099 Y102.775 E0.01281
G1 X114.492 Y102.888 E0.01281
G1 X114.898 Y102.938 E0.01281
G1 X115.306 Y102.921 E0.01281
G1 X115.707 Y102.839 E0.01281
G1 X116.089 Y102.694 E0.01281
G1 X116.443 Y102.490 E0.01281
G1 X116.759 Y102.232 E0.01281
G1 X117.030 Y101.926 E0.01281
G1 X117.249 Y101.580 E0.01281
G1 X117.409 Y101.204 E0.01281
G1 X117.508 Y100.787 E0.01345
G1 X132.498 Y100.787 E0.47000
G1 X132.534 Y101.008 E0.00701
G1 X132.664 Y101.395 E0.01281
G1 X132.854 Y101.757 E0.01281
G1 X133.099 Y102.084 E0.01282
G1 X133.394 Y102.367 E0.01281
G1 X133.730 Y102.599 E0.01281
G1 X134.099 Y102.775 E0.01281
G1 X134.492 Y102.888 E0.01281
G1 X134.898 Y102.938 E0.01281
G1 X135.306 Y102.921 E0.01281
G1 X135.710 Y102.839 E0.01292
G1 X136.112 Y102.681 E0.01353
G1 X136.443 Y102.490 E0.01199
G1 X136.759 Y102.232 E0.01281
G1 X137.030 Y101.926 E0.01281
G1 X137.250 Y101.577 E0.01292
G1 X137.415 Y101.179 E0.01353
G1 X137.507 Y100.807 E0.01199
G1 X137.540 Y100.400 E0.01281
G1 X137.507 Y99.993 E0.01281
G1 X137.408 Y99.593 E0.01292
G1 X137.235 Y99.197 E0.01353
G1 X137.030 Y98.874 E0.01199
G1 X136.759 Y98.568 E0.01281
G1 X136.443 Y98.310 E0.01281
G1 X136.089 Y98.106 E0.01281
G1 X135.707 Y97.961 E0.01282
G1 X135.303 Y97.878 E0.01292
G1 X134.871 Y97.866 E0.01353
G1 X134.492 Y97.912 E0.01199
G1 X134.099 Y98.025 E0.01281
G1 X133.730 Y98.201 E0.01281
G1 X133.394 Y98.433 E0.01281
G1 X133.099 Y98.716 E0.01281
G1 X132.854 Y99.043 E0.01281
G1 X132.787 Y99.169 E0.00448
G1 X132.787 Y97.787 E0.04334
G1 X140.213 Y97.787 E0.23283
G1 X140.213 Y109.092 E0.35444
G1 X109.787 Y109.092 E0.95398
G1 X109.787 Y97.847 E0.35256
G1 F8640.000
G1 X113.078 Y97.820 E-0.76000
G1 E-0.04000 F2100.00000
G1 Z0.600 F10800.000
G1 X113.173 Y99.246
G1 Z0.200
G1 E0.80000 F2100.00000
G1 F1200.000
G1 X113.382 Y98.967 E0.01094
G1 X113.633 Y98.726 E0.01091
G1 X113.919 Y98.528 E0.01091
G1 X114.234 Y98.379 E0.01091
G1 X114.568 Y98.282 E0.01091
G1 X114.889 Y98.243 E0.01014
G1 X115.259 Y98.254 E0.01162
G1 X115.601 Y98.324 E0.01094
G1 X115.927 Y98.447 E0.01091
G1 X116.228 Y98.621 E0.01091
G1 X116.497 Y98.841 E0.01091
G1 X116.728 Y99.102 E0.01091
G1 X116.914 Y99.396 E0.01091
G1 X117.050 Y99.716 E0.01091
G1 X117.133 Y100.053 E0.01091
G1 X117.161 Y100.400 E0.01091
G1 X117.133 Y100.747 E0.01091
G1 X117.050 Y101.084 E0.01091
G1 X116.914 Y101.404 E0.01091
G1 X116.728 Y101.698 E0.01091
G1 X116.497 Y101.959 E0.01091
G1 X116.228 Y102.179 E0.01091
G1 X115.927 Y102.353 E0.01091
G1 X115.601 Y102.476 E0.01091
G1 X115.261 Y102.546 E0.01091
G1 X114.913 Y102.560 E0.01091
G1 X114.568 Y102.518 E0.01091
G1 X114.234 Y102.421 E0.01091
G1 X113.919 Y102.272 E0.01091
G1 X113.633 Y102.074 E0.01091
G1 X113.382 Y101.833 E0.01091
G1 X113.173 Y101.555 E0.01091
G1 X113.012 Y101.247 E0.01091
G1 X112.901 Y100.917 E0.01091
G1 X112.846 Y100.574 E0.01091
G1 X112.846 Y100.226 E0.01091
G1 X112.901 Y99.883 E0.01091
G1 X113.004 Y99.576 E0.01014
G1 X113.145 Y99.299 E0.00974
G1 X113.010 Y98.937 F10800.000
G1 F8640.000
G1 X113.382 Y98.967 E-0.09426
G1 X113.633 Y98.726 E-0.08032
G1 X113.919 Y98.528 E-0.08031
G1 X114.234 Y98.379 E-0.08031
G1 X114.568 Y98.282 E-0.08032
G1 X114.889 Y98.243 E-0.07469
G1 X115.259 Y98.254 E-0.08561
G1 X115.601 Y98.324 E-0.08058
G1 X115.927 Y98.447 E-0.08031
G1 X116.014 Y98.498 E-0.02328
G1 E-0.04000 F2100.00000
G1 Z0.600 F10800.000
G1 X132.846 Y100.226
G1 Z0.200
G1 E0.80000 F2100.00000
G1 F1200.000
G1 X132.901 Y99.883 E0.01091
G1 X133.012 Y99.553 E0.01091
G1 X133.173 Y99.245 E0.01091
G1 X133.382 Y98.967 E0.01091
G1 X133.633 Y98.726 E0.01091
G1 X133.919 Y98.528 E0.01091
G1 X134.234 Y98.379 E0.01091
G1 X134.568 Y98.282 E0.01091
G1 X134.889 Y98.243 E0.01014
G1 X135.259 Y98.254 E0.01162
G1 X135.601 Y98.324 E0.01094
G1 X135.927 Y98.447 E0.01091
G1 X136.228 Y98.621 E0.01091
G1 X136.497 Y98.841 E0.01091
G1 X136.728 Y99.102 E0.01091
G1 X136.901 Y99.375 E0.01014
G1 X137.050 Y99.714 E0.01162
G1 X137.133 Y100.053 E0.01094
G1 X137.161 Y100.400 E0.01091
G1 X137.133 Y100.747 E0.01091
G1 X137.056 Y101.061 E0.01014
G1 X136.914 Y101.403 E0.01162
G1 X136.728 Y101.698 E0.01094
G1 X136.497 Y101.959 E0.01091
G1 X136.228 Y102.179 E0.01091
G1 X135.948 Y102.340 E0.01014
G1 X135.602 Y102.476 E0.01162
G1 X135.261 Y102.546 E0.01094
G1 X134.913 Y102.560 E0.01091
G1 X134.568 Y102.518 E0.01091
G1 X134.234 Y102.421 E0.01091
G1 X133.919 Y102.272 E0.01091
G1 X133.633 Y102.074 E0.01091
G1 X133.382 Y101.833 E0.01091
G1 X133.173 Y101.555 E0.01091
G1 X133.012 Y101.247 E0.01091
G1 X132.901 Y100.917 E0.01091
G1 X132.846 Y100.574 E0.01091
G1 X132.846 Y100.286 E0.00902
G1 X132.559 Y100.028 F10800.000
G1 X132.410 Y100.286
G1 F1200.000
G1 X132.410 Y97.410 E0.09018
G1 X140.590 Y97.410 E0.25648
G1 X140.590 Y109.469 E0.37809
G1 X109.410 Y109.469 E0.97763
G1 X109.410 Y97.410 E0.37809
G1 X117.590 Y97.410 E0.25648
G1 X117.590 Y100.410 E0.09406
G1 X132.410 Y100.410 E0.46467
G1 X132.410 Y100.346 E0.00200
G1 X132.810 Y100.285 F10800.000
G1 X132.628 Y100.206
G1 F1200.000
G1 X132.643 Y100.017 E0.00141
G1 X132.660 Y99.818 E0.00203
G1 X132.679 Y99.701 E0.00158
G1 X132.717 Y99.468 E0.00363
G1 X132.877 Y99.386 E0.00277
G1 X132.976 Y98.565 F10800.000
G1 F1200.000
G1 X133.154 Y98.154 E0.01330
G1 X133.666 Y97.976 E0.01608
G1 X133.677 Y97.995 F10800.000
G1 F1200.000
G1 X132.976 Y98.181 E0.00388
G1 F8640.000
G1 X133.677 Y97.995 E-0.16759
G1 E-0.63241 F2100.00000
G1 Z0.600 F10800.000
G1 X132.628 Y100.206
G1 Z0.200
G1 E0.80000 F2100.00000
G1 F1200.000
G1 X132.628 Y100.599 E0.00192
G1 F8640.000
G1 X132.628 Y100.206 E-0.09060
G1 E-0.70940 F2100.00000
G1 Z0.600 F10800.000
G1 X140.100 Y98.668
G1 Z0.200
G1 E0.80000 F2100.00000
G1 F1200.000
G1 X139.502 Y98.070 E0.02672
G1 X138.964 Y98.070 E0.01696
G1 X139.930 Y99.036 E0.04312
G1 X139.930 Y99.573 E0.01696
G1 X138.427 Y98.070 E0.06710
G1 X137.890 Y98.070 E0.01696
G1 X139.930 Y100.110 E0.09109
G1 X139.930 Y100.647 E0.01696
G1 X137.353 Y98.070 E0.11507
G1 X136.816 Y98.070 E0.01696
G1 X139.930 Y101.184 E0.13905
G1 X139.930 Y101.721 E0.01696
G1 X137.651 Y99.441 E0.10180
G1 X137.787 Y99.947 E0.01654
G1 X137.801 Y100.129 E0.00577
G1 X139.930 Y102.258 E0.09506
G1 X139.930 Y102.795 E0.01696
G1 X137.802 Y100.667 E0.09504
G1 X137.787 Y100.853 E0.00590
G1 X137.720 Y101.122 E0.00876
G1 X139.930 Y103.332 E0.09868
G1 X139.930 Y103.869 E0.01696
G1 X137.580 Y101.519 E0.10493
G1 X137.503 Y101.708 E0.00645
G1 X137.398 Y101.874 E0.00619
G1 X139.930 Y104.406 E0.11309
G1 X139.930 Y104.943 E0.01696
G1 X137.175 Y102.188 E0.12302
G1 X136.917 Y102.468 E0.01200
G1 X139.930 Y105.480 E0.13453
G1 X139.930 Y106.017 E0.01696
G1 X136.622 Y102.709 E0.14774
G1 X136.284 Y102.908 E0.01238
G1 X139.930 Y106.554 E0.16282
G1 X139.930 Y107.091 E0.01696
G1 X135.905 Y103.066 E0.17976
G1 X135.790 Y103.111 E0.00389
G1 X135.477 Y103.175 E0.01011
G1 X139.930 Y107.628 E0.19887
G1 X139.930 Y108.165 E0.01696
G1 X134.982 Y103.217 E0.22097
G1 X134.886 Y103.221 E0.00302
G1 X134.377 Y103.149 E0.01624
G1 X139.930 Y108.702 E0.24798
G1 X139.930 Y108.809 E0.00336
G1 X139.499 Y108.809 E0.01360
G1 X131.760 Y101.070 E0.34559
G1 X131.223 Y101.070 E0.01696
G1 X138.962 Y108.809 E0.34559
G1 X138.425 Y108.809 E0.01696
G1 X130.686 Y101.070 E0.34559
G1 X130.149 Y101.070 E0.01696
G1 X137.888 Y108.809 E0.34559
G1 X137.351 Y108.809 E0.01696
G1 X129.612 Y101.070 E0.34559
G1 X129.075 Y101.070 E0.01696
G1 X136.814 Y108.809 E0.34559
G1 X136.277 Y108.809 E0.01696
G1 X128.538 Y101.070 E0.34559
G1 X128.001 Y101.070 E0.01696
G1 X135.740 Y108.809 E0.34559
G1 X135.203 Y108.809 E0.01696
G1 X127.464 Y101.070 E0.34559
G1 X126.927 Y101.070 E0.01696
G1 X134.666 Y108.809 E0.34559
G1 X134.129 Y108.809 E0.01696
G1 X126.390 Y101.070 E0.34559
G1 X125.853 Y101.070 E0.01696
G1 X133.592 Y108.809 E0.34559
G1 X133.055 Y108.809 E0.01696
G1 X125.316 Y101.070 E0.34559
G1 X124.779 Y101.070 E0.01696
G1 X132.518 Y108.809 E0.34559
G1 X131.981 Y108.809 E0.01696
G1 X124.242 Y101.070 E0.34559
G1 X123.705 Y101.070 E0.01696
G1 X131.444 Y108.809 E0.34559
G1 X130.906 Y108.809 E0.01696
G1 X123.168 Y101.070 E0.34559
G1 X122.631 Y101.070 E0.01696
G1 X130.369 Y108.809 E0.34559
G1 X129.832 Y108.809 E0.01696
G1 X122.093 Y101.070 E0.34559
G1 X121.556 Y101.070 E0.01696
G1 X129.295 Y108.809 E0.34559
G1 X128.758 Y108.809 E0.01696
G1 X121.019 Y101.070 E0.34559
G1 X120.482 Y101.070 E0.01696
G1 X128.221 Y108.809 E0.34559
G1 X127.684 Y108.809 E0.01696
G1 X119.945 Y101.070 E0.34559
G1 X119.408 Y101.070 E0.01696
G1 X127.147 Y108.809 E0.34559
G1 X126.610 Y108.809 E0.01696
G1 X118.871 Y101.070 E0.34559
G1 X118.334 Y101.070 E0.01696
G1 X126.073 Y108.809 E0.34559
G1 X125.536 Y108.809 E0.01696
G1 X117.797 Y101.070 E0.34559
G1 X117.732 Y101.070 E0.00206
G1 X117.678 Y101.293 E0.00725
G1 X117.620 Y101.430 E0.00470
G1 X124.999 Y108.809 E0.32951
G1 X124.462 Y108.809 E0.01696
G1 X117.448 Y101.795 E0.31322
G1 X117.236 Y102.120 E0.01226
G1 X123.925 Y108.809 E0.29870
G1 X123.388 Y108.809 E0.01696
G1 X116.984 Y102.405 E0.28598
G1 X116.693 Y102.651 E0.01203
G1 X122.851 Y108.809 E0.27499
G1 X122.314 Y108.809 E0.01696
G1 X116.366 Y102.861 E0.26560
G1 X116.210 Y102.951 E0.00567
G1 X115.999 Y103.031 E0.00715
G1 X121.777 Y108.809 E0.25801
G1 X121.239 Y108.809 E0.01696
G1 X115.584 Y103.153 E0.25256
G1 X115.340 Y103.203 E0.00785
G1 X115.106 Y103.212 E0.00741
G1 X120.702 Y108.809 E0.24992
G1 X120.165 Y108.809 E0.01696
G1 X114.310 Y102.953 E0.26148
G1 F8640.000
G1 X116.637 Y105.281 E-0.76000
G1 E-0.04000 F2100.00000
G1 Z0.600 F10800.000
G1 X117.368 Y100.599
G1 Z0.200
G1 E0.80000 F2100.00000
G1 F1200.000
G1 X117.376 Y100.402 E0.00105
G1 X117.337 Y99.824 E0.00246
G1 X117.267 Y99.344 E0.00704
G1 X117.024 Y98.561 F10800.000
G1 F1200.000
G1 X116.775 Y97.976 E0.00869
G1 X117.024 Y98.204 F10800.000
G1 F1200.000
G1 X116.314 Y97.983 E0.01247
G1 F8640.000
G1 X117.024 Y98.204 E-0.17194
G1 E-0.62806 F2100.00000
G1 Z0.600 F10800.000
G1 X113.677 Y97.995
G1 Z0.200
G1 E0.80000 F2100.00000
G1 F1200.000
G1 X113.612 Y98.011 E0.00036
G1 X113.497 Y98.104 E0.00079
G1 X113.119 Y98.540 F10800.000
G1 F1200.000
G1 X112.649 Y98.070 E0.02099
G1 X112.112 Y98.070 E0.01696
G1 X112.751 Y98.709 E0.02853
G1 X112.611 Y98.895 E0.00735
G1 X112.539 Y99.035 E0.00495
G1 X111.575 Y98.070 E0.04308
G1 X111.038 Y98.070 E0.01696
G1 X112.367 Y99.399 E0.05937
G1 X112.244 Y99.813 E0.01364
G1 X110.501 Y98.070 E0.07786
G1 X110.070 Y98.070 E0.01360
G1 X110.070 Y98.176 E0.00336
G1 X112.186 Y100.292 E0.09449
G1 X112.186 Y100.627 E0.01058
G1 X112.225 Y100.868 E0.00772
G1 X110.070 Y98.713 E0.09624
G1 X110.070 Y99.250 E0.01696
G1 X119.628 Y108.809 E0.42684
G1 X119.091 Y108.809 E0.01696
G1 X110.070 Y99.787 E0.40286
G1 X110.070 Y100.324 E0.01696
G1 X118.554 Y108.809 E0.37888
G1 X118.017 Y108.809 E0.01696
G1 X110.070 Y100.861 E0.35490
G1 X110.070 Y101.399 E0.01696
G1 X117.480 Y108.809 E0.33091
G1 X116.943 Y108.809 E0.01696
G1 X110.070 Y101.936 E0.30693
G1 X110.070 Y102.473 E0.01696
G1 X116.406 Y108.809 E0.28295
G1 X115.869 Y108.809 E0.01696
G1 X110.070 Y103.010 E0.25896
G1 X110.070 Y103.547 E0.01696
G1 X115.332 Y108.809 E0.23498
G1 X114.795 Y108.809 E0.01696
M73 P10 R9
G1 X110.070 Y104.084 E0.21100
G1 X110.070 Y104.621 E0.01696
G1 X114.258 Y108.809 E0.18702
G1 X113.721 Y108.809 E0.01696
G1 X110.070 Y105.158 E0.16303
G1 X110.070 Y105.695 E0.01696
G1 X113.184 Y108.809 E0.13905
G1 X112.647 Y108.809 E0.01696
G1 X110.070 Y106.232 E0.11507
G1 X110.070 Y106.769 E0.01696
G1 X112.110 Y108.809 E0.09108
G1 X111.572 Y108.809 E0.01696
G1 X110.070 Y107.306 E0.06710
G1 X110.070 Y107.843 E0.01696
G1 X111.035 Y108.809 E0.04312
G1 X110.498 Y108.809 E0.01696
G1 X109.900 Y108.211 E0.02671
; stop printing object PT1000-Bracket.stl id:0 copy 0
M106 S255
;BEFORE_LAYER_CHANGE
G92 E0.0
;0.4


G1 F8640.000
G1 X110.498 Y108.809 E-0.19534
G1 X111.035 Y108.809 E-0.12401
G1 X110.070 Y107.843 E-0.31530
G1 X110.070 Y107.306 E-0.12401
G1 X110.074 Y107.310 E-0.00135
G1 E-0.04000 F2100.00000
G1 Z0.600 F10800.000
