; generated by PrusaSlicer 2.2.0+win64 on 2021-09-04 at 13:17:39 UTC

; 

; external perimeters extrusion width = 0.45mm
; perimeters extrusion width = 0.45mm
; infill extrusion width = 0.45mm
; solid infill extrusion width = 0.45mm
; top infill extrusion width = 0.40mm
; first layer extrusion width = 0.42mm

M73 P0 R117
M201 X9000 Y9000 Z500 E10000 ; sets maximum accelerations, mm/sec^2
M203 X500 Y500 Z12 E120 ; sets maximum feedrates, mm/sec
M204 P2000 R1500 T2000 ; sets acceleration (P, T) and retract acceleration (R), mm/sec^2
M205 X10.00 Y10.00 Z0.20 E2.50 ; sets the jerk limits, mm/sec
M205 S0 T0 ; sets the minimum extruding and travel feed rate, mm/sec
M107
M862.3 P "MK2S" ; printer model check
M862.1 P0.4 ; nozzle diameter check
M115 U3.2.3 ; tell printer latest fw version
G90 ; use absolute coordinates
M83 ; extruder relative mode
M204 S2000 T1500 ; MK2 firmware only supports the old M204 format
M104 S220 ; set extruder temp
M140 S80 ; set bed temp
M190 S80 ; wait for bed temp
M109 S220 ; wait for extruder temp
G28 W ; home all without mesh bed level
G80 ; mesh bed leveling
G1 Y-3.0 F1000.0 ; go outside print area
G92 E0.0
G1 X60.0 E9.0  F1000.0 ; intro line
M73 P0 R116
G1 X100.0 E12.5 F1000.0 ; intro line
G92 E0.0
G21 ; set units to millimeters
G90 ; use absolute coordinates
M83 ; use relative distances for extrusion
M900 K45 ; Filament gcode
;BEFORE_LAYER_CHANGE
G92 E0.0
;0.2


G1 E-0.80000 F2100.00000
G1 Z0.400 F10800.000
;AFTER_LAYER_CHANGE
;0.2
G1 X47.297 Y74.595
G1 Z0.200
G1 E0.80000 F2100.00000
M204 S1000
G1 F1200.000
G1 X48.846 Y73.747 E0.05537
G1 X50.370 Y73.171 E0.05107
G1 X52.221 Y72.751 E0.05953
G1 X53.990 Y72.623 E0.05561
G1 X196.004 Y72.623 E4.45274
G1 X197.917 Y72.777 E0.06017
G1 X199.489 Y73.125 E0.05048
G1 X200.999 Y73.682 E0.05048
G1 X202.693 Y74.589 E0.06024
G1 X204.221 Y75.753 E0.06024
G1 X205.355 Y76.896 E0.05048
G1 X206.322 Y78.178 E0.05036
G1 X207.259 Y79.860 E0.06036
G1 X207.915 Y81.666 E0.06024
G1 X208.251 Y83.240 E0.05048
G1 X208.373 Y84.865 E0.05107
G1 X208.377 Y125.008 E1.25866
G1 X208.243 Y126.816 E0.05685
G1 X207.874 Y128.492 E0.05382
G1 X207.256 Y130.147 E0.05537
G1 X206.413 Y131.690 E0.05513
G1 X205.360 Y133.098 E0.05513
G1 X204.107 Y134.353 E0.05561
G1 X202.703 Y135.405 E0.05501
G1 X201.154 Y136.253 E0.05537
G1 X199.630 Y136.829 E0.05107
G1 X197.779 Y137.249 E0.05953
G1 X196.010 Y137.377 E0.05561
G1 X53.874 Y137.374 E4.45656
G1 X52.226 Y137.249 E0.05184
G1 X50.486 Y136.868 E0.05585
G1 X48.840 Y136.250 E0.05513
G1 X47.172 Y135.318 E0.05988
G1 X45.771 Y134.238 E0.05548
G1 X44.645 Y133.104 E0.05011
G1 X43.685 Y131.831 E0.05000
G1 X42.755 Y130.171 E0.05964
G1 X42.171 Y128.630 E0.05167
G1 X41.751 Y126.779 E0.05953
G1 X41.623 Y125.021 E0.05525
G1 X41.623 Y84.992 E1.25507
G1 X41.750 Y83.229 E0.05542
G1 X42.125 Y81.511 E0.05513
G1 X42.741 Y79.860 E0.05525
G1 X43.587 Y78.310 E0.05537
G1 X44.637 Y76.905 E0.05501
G1 X45.893 Y75.647 E0.05573
G1 X47.249 Y74.631 E0.05313
; printing object Schaber.stl id:0 copy 0
G1 F8640.000
G1 X48.846 Y73.747 E-0.42148
G1 X50.217 Y73.229 E-0.33852
G1 E-0.04000 F2100.00000
G1 Z0.600 F10800.000
G1 X118.692 Y102.489
G1 Z0.200
G1 E0.80000 F2100.00000
G1 F1200.000
G1 X119.281 Y101.340 E0.04047
G1 X120.077 Y100.324 E0.04047
G1 X121.051 Y99.477 E0.04047
G1 X122.167 Y98.829 E0.04047
G1 X123.387 Y98.404 E0.04047
G1 X124.664 Y98.218 E0.04047
G1 X125.953 Y98.277 E0.04047
G1 X127.208 Y98.579 E0.04047
G1 X128.384 Y99.113 E0.04047
G1 X129.437 Y99.860 E0.04047
G1 X130.329 Y100.792 E0.04047
G1 X131.029 Y101.877 E0.04047
G1 X131.511 Y103.075 E0.04047
G1 X131.758 Y104.342 E0.04047
G1 X131.761 Y105.632 E0.04047
G1 X131.519 Y106.900 E0.04047
G1 X131.041 Y108.100 E0.04047
G1 X130.345 Y109.187 E0.04047
G1 X129.456 Y110.123 E0.04047
G1 X128.406 Y110.874 E0.04047
G1 X127.233 Y111.412 E0.04047
G1 X125.979 Y111.719 E0.04047
G1 X124.690 Y111.783 E0.04047
G1 X123.412 Y111.602 E0.04047
G1 X122.191 Y111.182 E0.04047
G1 X121.072 Y110.539 E0.04047
G1 X120.095 Y109.695 E0.04047
G1 X119.295 Y108.682 E0.04047
G1 X118.700 Y107.534 E0.04053
G1 X118.328 Y106.249 E0.04197
G1 X118.210 Y105.012 E0.03893
G1 X118.330 Y103.728 E0.04046
G1 X118.675 Y102.546 E0.03859
G1 X119.037 Y102.652 F10800.000
G1 F1200.000
G1 X119.600 Y101.544 E0.03896
G1 X120.351 Y100.585 E0.03822
G1 X121.271 Y99.785 E0.03822
G1 X122.325 Y99.173 E0.03822
G1 X123.477 Y98.772 E0.03822
G1 X124.683 Y98.597 E0.03822
G1 X125.900 Y98.652 E0.03822
G1 X127.085 Y98.937 E0.03822
G1 X128.195 Y99.442 E0.03822
G1 X129.189 Y100.147 E0.03822
G1 X130.032 Y101.027 E0.03822
G1 X130.693 Y102.051 E0.03822
G1 X131.148 Y103.182 E0.03822
G1 X131.381 Y104.378 E0.03822
G1 X131.383 Y105.597 E0.03822
G1 X131.155 Y106.794 E0.03822
G1 X130.704 Y107.927 E0.03822
G1 X130.047 Y108.953 E0.03822
G1 X129.208 Y109.837 E0.03822
G1 X128.216 Y110.546 E0.03822
G1 X127.109 Y111.055 E0.03822
G1 X125.925 Y111.344 E0.03822
G1 X124.707 Y111.405 E0.03822
G1 X123.500 Y111.233 E0.03822
G1 X122.348 Y110.837 E0.03822
G1 X121.291 Y110.230 E0.03822
G1 X120.368 Y109.433 E0.03822
G1 X119.613 Y108.477 E0.03822
G1 X119.052 Y107.394 E0.03823
G1 X118.700 Y106.178 E0.03970
G1 X118.589 Y105.012 E0.03671
G1 X118.702 Y103.799 E0.03821
G1 X119.020 Y102.709 E0.03558
G1 X118.788 Y102.338 F10800.000
G1 F8640.000
G1 X119.600 Y101.544 E-0.30050
G1 X120.351 Y100.585 E-0.28144
G1 X120.933 Y100.079 E-0.17806
G1 E-0.04000 F2100.00000
G1 Z0.600 F10800.000
G1 X114.231 Y114.587
G1 Z0.200
G1 E0.80000 F2100.00000
G1 F1200.000
G1 X115.403 Y115.124 E0.04043
G1 X116.453 Y115.874 E0.04043
G1 X117.342 Y116.808 E0.04043
G1 X118.038 Y117.893 E0.04042
G1 X118.516 Y119.090 E0.04042
G1 X118.760 Y120.356 E0.04042
G1 X118.760 Y121.644 E0.04040
G1 X118.516 Y122.910 E0.04041
G1 X118.038 Y124.107 E0.04041
G1 X117.343 Y125.191 E0.04040
G1 X116.455 Y126.125 E0.04040
G1 X115.407 Y126.874 E0.04039
G1 X114.236 Y127.411 E0.04039
G1 X112.985 Y127.718 E0.04039
G1 X111.698 Y127.783 E0.04039
G1 X110.422 Y127.604 E0.04040
G1 X109.203 Y127.187 E0.04041
G1 X108.084 Y126.546 E0.04041
G1 X107.106 Y125.706 E0.04042
G1 X106.305 Y124.696 E0.04043
G1 X105.708 Y123.551 E0.04048
G1 X105.328 Y122.252 E0.04244
G1 X105.211 Y120.968 E0.04041
G1 X105.339 Y119.687 E0.04038
G1 X105.707 Y118.452 E0.04039
G1 X106.301 Y117.309 E0.04040
G1 X107.101 Y116.299 E0.04040
G1 X108.078 Y115.458 E0.04041
G1 X109.196 Y114.816 E0.04041
G1 X110.414 Y114.398 E0.04040
G1 X111.638 Y114.222 E0.03878
G1 X112.977 Y114.280 E0.04202
G1 X114.173 Y114.573 E0.03860
G1 X114.084 Y114.939 F10800.000
G1 F1200.000
G1 X115.214 Y115.452 E0.03891
G1 X116.204 Y116.159 E0.03817
G1 X117.044 Y117.041 E0.03817
G1 X117.701 Y118.066 E0.03817
G1 X118.153 Y119.196 E0.03817
G1 X118.383 Y120.392 E0.03817
G1 X118.383 Y121.608 E0.03814
G1 X118.153 Y122.803 E0.03816
G1 X117.701 Y123.933 E0.03815
G1 X117.045 Y124.957 E0.03815
G1 X116.206 Y125.839 E0.03814
G1 X115.217 Y126.546 E0.03814
G1 X114.111 Y127.054 E0.03814
G1 X112.930 Y127.343 E0.03814
G1 X111.715 Y127.405 E0.03814
G1 X110.510 Y127.235 E0.03815
G1 X109.359 Y126.841 E0.03815
G1 X108.303 Y126.237 E0.03816
G1 X107.379 Y125.444 E0.03817
G1 X106.623 Y124.490 E0.03817
G1 X106.060 Y123.409 E0.03820
G1 X105.700 Y122.181 E0.04013
G1 X105.590 Y120.970 E0.03813
G1 X105.711 Y119.760 E0.03813
G1 X106.058 Y118.594 E0.03813
G1 X106.619 Y117.515 E0.03814
G1 X107.375 Y116.561 E0.03815
G1 X108.297 Y115.767 E0.03815
G1 X109.352 Y115.161 E0.03816
G1 X110.503 Y114.766 E0.03816
G1 X111.657 Y114.600 E0.03656
G1 X112.924 Y114.656 E0.03975
G1 X114.025 Y114.925 E0.03555
G1 X114.385 Y114.676 F10800.000
G1 F8640.000
G1 X115.214 Y115.452 E-0.30018
G1 X116.204 Y116.159 E-0.28111
G1 X116.738 Y116.720 E-0.17871
G1 E-0.04000 F2100.00000
G1 Z0.600 F10800.000
G1 X108.529 Y111.123
G1 Z0.200
G1 E0.80000 F2100.00000
G1 F1200.000
G1 X107.831 Y112.205 E0.04037
G1 X106.943 Y113.135 E0.04034
G1 X105.895 Y113.881 E0.04031
G1 X104.726 Y114.415 E0.04031
G1 X103.476 Y114.720 E0.04033
G1 X102.191 Y114.783 E0.04033
G1 X100.918 Y114.603 E0.04033
G1 X99.700 Y114.185 E0.04036
G1 X98.544 Y113.518 E0.04186
G1 X97.573 Y112.672 E0.04036
G1 X96.780 Y111.659 E0.04033
G1 X96.192 Y110.511 E0.04045
G1 X95.830 Y109.272 E0.04047
G1 X95.710 Y107.987 E0.04047
G1 X95.835 Y106.702 E0.04047
G1 X96.201 Y105.464 E0.04047
G1 X96.795 Y104.318 E0.04047
G1 X97.595 Y103.305 E0.04047
G1 X98.572 Y102.461 E0.04047
G1 X99.691 Y101.818 E0.04047
G1 X100.911 Y101.398 E0.04046
G1 X102.140 Y101.222 E0.03893
G1 X103.478 Y101.281 E0.04197
G1 X104.733 Y101.588 E0.04053
G1 X105.906 Y102.126 E0.04047
G1 X106.956 Y102.877 E0.04047
G1 X107.845 Y103.813 E0.04047
G1 X108.541 Y104.900 E0.04047
G1 X109.019 Y106.100 E0.04047
G1 X109.261 Y107.368 E0.04047
G1 X109.258 Y108.658 E0.04047
G1 X109.011 Y109.925 E0.04047
G1 X108.552 Y111.067 E0.03859
G1 X108.202 Y110.926 F10800.000
G1 F1200.000
G1 X107.534 Y111.970 E0.03886
G1 X106.695 Y112.849 E0.03809
G1 X105.706 Y113.553 E0.03806
G1 X104.602 Y114.057 E0.03806
G1 X103.422 Y114.345 E0.03808
G1 X102.209 Y114.405 E0.03808
G1 X101.006 Y114.234 E0.03808
G1 X99.857 Y113.840 E0.03809
G1 X98.764 Y113.209 E0.03957
G1 X97.848 Y112.411 E0.03809
G1 X97.100 Y111.455 E0.03808
G1 X96.543 Y110.371 E0.03819
G1 X96.202 Y109.201 E0.03822
G1 X96.089 Y107.988 E0.03822
G1 X96.207 Y106.775 E0.03822
G1 X96.553 Y105.606 E0.03822
G1 X97.113 Y104.523 E0.03822
G1 X97.868 Y103.567 E0.03822
G1 X98.791 Y102.770 E0.03822
G1 X99.848 Y102.163 E0.03822
G1 X101.000 Y101.767 E0.03821
G1 X102.159 Y101.600 E0.03671
G1 X103.424 Y101.656 E0.03970
G1 X104.609 Y101.945 E0.03823
G1 X105.716 Y102.454 E0.03822
G1 X106.708 Y103.163 E0.03822
G1 X107.547 Y104.047 E0.03822
G1 X108.204 Y105.073 E0.03822
G1 X108.655 Y106.206 E0.03822
G1 X108.883 Y107.403 E0.03822
G1 X108.881 Y108.622 E0.03822
G1 X108.648 Y109.818 E0.03822
G1 X108.224 Y110.871 E0.03558
G1 X108.419 Y111.263 F10800.000
G1 F8640.000
G1 X107.534 Y111.970 E-0.29981
G1 X106.695 Y112.849 E-0.28050
G1 X106.061 Y113.300 E-0.17969
G1 E-0.04000 F2100.00000
G1 Z0.600 F10800.000
G1 X98.342 Y116.808
G1 Z0.200
G1 E0.80000 F2100.00000
G1 F1200.000
G1 X99.038 Y117.893 E0.04042
G1 X99.516 Y119.090 E0.04042
G1 X99.760 Y120.356 E0.04042
G1 X99.760 Y121.644 E0.04040
G1 X99.516 Y122.910 E0.04041
G1 X99.038 Y124.107 E0.04041
G1 X98.343 Y125.191 E0.04040
G1 X97.455 Y126.125 E0.04040
G1 X96.407 Y126.874 E0.04039
G1 X95.236 Y127.411 E0.04039
G1 X93.985 Y127.718 E0.04039
G1 X92.698 Y127.783 E0.04039
G1 X91.422 Y127.604 E0.04040
G1 X90.203 Y127.187 E0.04041
G1 X89.084 Y126.546 E0.04041
G1 X88.106 Y125.706 E0.04042
G1 X87.305 Y124.696 E0.04043
G1 X86.708 Y123.551 E0.04048
G1 X86.328 Y122.252 E0.04244
G1 X86.211 Y120.968 E0.04041
G1 X86.339 Y119.687 E0.04038
G1 X86.707 Y118.452 E0.04039
G1 X87.301 Y117.309 E0.04040
G1 X88.101 Y116.299 E0.04040
G1 X89.078 Y115.458 E0.04041
G1 X90.196 Y114.816 E0.04041
G1 X91.414 Y114.398 E0.04040
G1 X92.638 Y114.222 E0.03878
G1 X93.977 Y114.280 E0.04202
G1 X95.231 Y114.587 E0.04048
G1 X96.403 Y115.124 E0.04043
G1 X97.453 Y115.874 E0.04043
G1 X98.300 Y116.764 E0.03854
G1 X98.027 Y117.024 F10800.000
G1 F1200.000
G1 X98.701 Y118.066 E0.03891
G1 X99.153 Y119.196 E0.03817
G1 X99.383 Y120.392 E0.03817
G1 X99.383 Y121.608 E0.03814
G1 X99.153 Y122.803 E0.03816
G1 X98.701 Y123.933 E0.03815
G1 X98.045 Y124.957 E0.03815
G1 X97.206 Y125.839 E0.03814
G1 X96.217 Y126.546 E0.03814
G1 X95.111 Y127.054 E0.03814
G1 X93.930 Y127.343 E0.03814
G1 X92.715 Y127.405 E0.03814
G1 X91.510 Y127.235 E0.03814
G1 X90.359 Y126.841 E0.03815
G1 X89.303 Y126.237 E0.03816
G1 X88.379 Y125.444 E0.03817
G1 X87.623 Y124.490 E0.03817
G1 X87.060 Y123.409 E0.03820
G1 X86.700 Y122.181 E0.04013
G1 X86.590 Y120.970 E0.03813
G1 X86.711 Y119.760 E0.03813
G1 X87.058 Y118.594 E0.03813
G1 X87.619 Y117.515 E0.03814
G1 X88.375 Y116.561 E0.03815
G1 X89.297 Y115.767 E0.03815
G1 X90.352 Y115.161 E0.03816
G1 X91.503 Y114.766 E0.03816
G1 X92.657 Y114.600 E0.03656
G1 X93.924 Y114.656 E0.03975
G1 X95.107 Y114.945 E0.03819
G1 X96.214 Y115.452 E0.03817
G1 X97.204 Y116.159 E0.03817
G1 X97.986 Y116.981 E0.03554
G1 X98.423 Y116.966 F10800.000
G1 F8640.000
G1 X98.701 Y118.066 E-0.30017
G1 X99.153 Y119.196 E-0.28108
G1 X99.299 Y119.957 E-0.17875
G1 E-0.04000 F2100.00000
G1 Z0.600 F10800.000
G1 X80.749 Y120.298
G1 Z0.200
G1 E0.80000 F2100.00000
G1 F1200.000
G1 X80.760 Y121.644 E0.04222
G1 X80.516 Y122.910 E0.04041
G1 X80.038 Y124.107 E0.04041
G1 X79.343 Y125.191 E0.04040
G1 X78.455 Y126.125 E0.04040
G1 X77.407 Y126.874 E0.04039
G1 X76.236 Y127.411 E0.04039
G1 X74.985 Y127.718 E0.04039
G1 X73.698 Y127.783 E0.04039
G1 X72.422 Y127.604 E0.04040
G1 X71.203 Y127.187 E0.04041
G1 X70.084 Y126.546 E0.04041
G1 X69.106 Y125.706 E0.04042
G1 X68.305 Y124.696 E0.04043
G1 X67.708 Y123.551 E0.04048
G1 X67.328 Y122.252 E0.04244
G1 X67.211 Y120.968 E0.04041
G1 X67.339 Y119.687 E0.04038
G1 X67.707 Y118.452 E0.04039
G1 X68.301 Y117.309 E0.04040
G1 X69.101 Y116.299 E0.04040
G1 X70.078 Y115.458 E0.04041
G1 X71.196 Y114.816 E0.04041
G1 X72.414 Y114.398 E0.04040
G1 X73.638 Y114.222 E0.03878
G1 X74.977 Y114.280 E0.04202
G1 X76.231 Y114.587 E0.04048
G1 X77.403 Y115.124 E0.04043
G1 X78.453 Y115.874 E0.04043
G1 X79.342 Y116.808 E0.04043
G1 X80.038 Y117.893 E0.04042
G1 X80.516 Y119.090 E0.04042
G1 X80.737 Y120.239 E0.03669
G1 X80.367 Y120.310 F10800.000
G1 F1200.000
G1 X80.383 Y120.392 E0.00260
G1 X80.383 Y121.608 E0.03814
G1 X80.153 Y122.803 E0.03816
G1 X79.701 Y123.933 E0.03815
G1 X79.045 Y124.957 E0.03815
G1 X78.206 Y125.839 E0.03814
G1 X77.217 Y126.546 E0.03814
G1 X76.111 Y127.054 E0.03814
G1 X74.930 Y127.343 E0.03814
G1 X73.715 Y127.405 E0.03814
G1 X72.510 Y127.235 E0.03815
G1 X71.359 Y126.841 E0.03815
G1 X70.303 Y126.237 E0.03816
G1 X69.379 Y125.444 E0.03817
G1 X68.623 Y124.490 E0.03817
G1 X68.060 Y123.409 E0.03820
G1 X67.700 Y122.181 E0.04013
G1 X67.590 Y120.970 E0.03813
G1 X67.711 Y119.760 E0.03813
G1 X68.058 Y118.594 E0.03813
G1 X68.619 Y117.515 E0.03814
G1 X69.375 Y116.561 E0.03815
G1 X70.297 Y115.767 E0.03815
G1 X71.352 Y115.161 E0.03816
G1 X72.503 Y114.766 E0.03816
G1 X73.657 Y114.600 E0.03656
G1 X74.924 Y114.656 E0.03975
G1 X76.107 Y114.945 E0.03819
G1 X77.214 Y115.452 E0.03817
G1 X78.204 Y116.159 E0.03817
G1 X79.044 Y117.041 E0.03817
G1 X79.701 Y118.066 E0.03817
G1 X80.153 Y119.196 E0.03817
G1 X80.356 Y120.251 E0.03368
G1 X80.446 Y120.335 F10800.000
G1 F8640.000
G1 X80.383 Y120.392 E-0.03302
G1 X80.383 Y121.608 E-0.28091
G1 X80.153 Y122.803 E-0.28101
G1 X79.888 Y123.467 E-0.16506
G1 E-0.04000 F2100.00000
G1 Z0.600 F10800.000
G1 X81.918 Y114.603
G1 Z0.200
G1 E0.80000 F2100.00000
G1 F1200.000
G1 X80.700 Y114.185 E0.04036
G1 X79.544 Y113.518 E0.04186
G1 X78.573 Y112.672 E0.04036
G1 X77.780 Y111.659 E0.04033
G1 X77.192 Y110.511 E0.04045
G1 X76.830 Y109.272 E0.04047
G1 X76.710 Y107.987 E0.04047
G1 X76.835 Y106.702 E0.04047
G1 X77.201 Y105.464 E0.04047
G1 X77.795 Y104.318 E0.04047
G1 X78.595 Y103.305 E0.04047
G1 X79.572 Y102.461 E0.04047
G1 X80.691 Y101.818 E0.04047
G1 X81.911 Y101.398 E0.04046
G1 X83.140 Y101.222 E0.03893
G1 X84.478 Y101.281 E0.04197
G1 X85.733 Y101.588 E0.04053
G1 X86.906 Y102.126 E0.04047
G1 X87.956 Y102.877 E0.04047
G1 X88.845 Y103.813 E0.04047
G1 X89.541 Y104.900 E0.04047
G1 X90.019 Y106.100 E0.04047
G1 X90.261 Y107.368 E0.04047
G1 X90.258 Y108.658 E0.04047
G1 X90.011 Y109.925 E0.04047
G1 X89.529 Y111.123 E0.04047
G1 X88.831 Y112.205 E0.04037
G1 X87.943 Y113.135 E0.04034
G1 X86.895 Y113.881 E0.04031
G1 X85.726 Y114.415 E0.04031
G1 X84.476 Y114.720 E0.04033
G1 X83.191 Y114.783 E0.04033
G1 X81.977 Y114.611 E0.03845
G1 X82.030 Y114.238 F10800.000
G1 F1200.000
G1 X80.857 Y113.840 E0.03884
G1 X79.764 Y113.209 E0.03957
G1 X78.848 Y112.411 E0.03809
G1 X78.100 Y111.455 E0.03808
G1 X77.543 Y110.371 E0.03819
G1 X77.202 Y109.201 E0.03822
G1 X77.089 Y107.988 E0.03822
G1 X77.207 Y106.775 E0.03822
G1 X77.553 Y105.606 E0.03822
G1 X78.113 Y104.523 E0.03822
G1 X78.868 Y103.567 E0.03822
G1 X79.791 Y102.770 E0.03822
G1 X80.848 Y102.163 E0.03822
G1 X82.000 Y101.767 E0.03821
G1 X83.159 Y101.600 E0.03671
G1 X84.424 Y101.656 E0.03970
G1 X85.609 Y101.945 E0.03823
G1 X86.716 Y102.454 E0.03822
G1 X87.708 Y103.163 E0.03822
