; generated by PrusaSlicer 2.2.0+win64 on 2021-09-05 at 07:58:23 UTC

; 

; external perimeters extrusion width = 0.45mm
; perimeters extrusion width = 0.45mm
; infill extrusion width = 0.45mm
; solid infill extrusion width = 0.45mm
; top infill extrusion width = 0.40mm
; first layer extrusion width = 0.42mm

M73 P0 R112
M201 X9000 Y9000 Z500 E10000 ; sets maximum accelerations, mm/sec^2
M203 X500 Y500 Z12 E120 ; sets maximum feedrates, mm/sec
M204 P2000 R1500 T2000 ; sets acceleration (P, T) and retract acceleration (R), mm/sec^2
M205 X10.00 Y10.00 Z0.20 E2.50 ; sets the jerk limits, mm/sec
M205 S0 T0 ; sets the minimum extruding and travel feed rate, mm/sec
M107
M862.3 P "MK2S" ; printer model check
M862.1 P0.4 ; nozzle diameter check
M115 U3.2.3 ; tell printer latest fw version
G90 ; use absolute coordinates
M83 ; extruder relative mode
M204 S2000 T1500 ; MK2 firmware only supports the old M204 format
M104 S220 ; set extruder temp
M140 S80 ; set bed temp
M190 S80 ; wait for bed temp
M109 S220 ; wait for extruder temp
G28 W ; home all without mesh bed level
G80 ; mesh bed leveling
G1 Y-3.0 F1000.0 ; go outside print area
G92 E0.0
G1 X60.0 E9.0  F1000.0 ; intro line
M73 P0 R112
G1 X100.0 E12.5 F1000.0 ; intro line
G92 E0.0
G21 ; set units to millimeters
G90 ; use absolute coordinates
M83 ; use relative distances for extrusion
M900 K45 ; Filament gcode
;BEFORE_LAYER_CHANGE
G92 E0.0
;0.2


G1 E-0.80000 F2100.00000
G1 Z0.400 F10800.000
;AFTER_LAYER_CHANGE
;0.2
G1 X48.426 Y74.319
G1 Z0.200
G1 E0.80000 F2100.00000
M204 S1000
G1 F1200.000
G1 X50.122 Y73.422 E0.06013
G1 X51.623 Y72.875 E0.05011
G1 X53.196 Y72.532 E0.05048
G1 X55.104 Y72.386 E0.06000
G1 X195.128 Y72.861 E4.39038
G1 X197.026 Y73.021 E0.05970
G1 X198.596 Y73.374 E0.05048
G1 X200.101 Y73.935 E0.05036
G1 X201.767 Y74.831 E0.05929
G1 X203.073 Y75.804 E0.05107
G1 X204.550 Y77.290 E0.06570
G1 X205.509 Y78.592 E0.05072
G1 X206.352 Y80.153 E0.05561
G1 X206.957 Y81.800 E0.05501
G1 X207.334 Y83.591 E0.05739
G1 X207.444 Y85.274 E0.05287
G1 X207.308 Y125.329 E1.25591
G1 X207.148 Y127.199 E0.05886
G1 X206.795 Y128.766 E0.05036
G1 X206.234 Y130.271 E0.05036
G1 X205.333 Y131.946 E0.05965
G1 X204.270 Y133.361 E0.05549
G1 X203.010 Y134.615 E0.05573
G1 X201.609 Y135.659 E0.05477
G1 X200.037 Y136.512 E0.05608
G1 X198.391 Y137.121 E0.05501
G1 X196.661 Y137.493 E0.05549
G1 X194.987 Y137.613 E0.05263
G1 X54.872 Y137.139 E4.39325
G1 X52.974 Y136.979 E0.05970
G1 X51.407 Y136.627 E0.05036
G1 X49.899 Y136.065 E0.05048
G1 X48.067 Y135.055 E0.06560
G1 X46.774 Y134.070 E0.05094
G1 X45.455 Y132.716 E0.05929
G1 X44.491 Y131.408 E0.05095
G1 X43.651 Y129.854 E0.05537
G1 X43.045 Y128.208 E0.05501
G1 X42.673 Y126.466 E0.05585
G1 X42.556 Y124.720 E0.05484
G1 X42.691 Y84.713 E1.25441
G1 X42.806 Y83.113 E0.05029
G1 X43.204 Y81.237 E0.06012
G1 X43.894 Y79.449 E0.06012
G1 X44.678 Y78.038 E0.05060
G1 X45.642 Y76.748 E0.05048
G1 X46.982 Y75.393 E0.05976
G1 X48.378 Y74.354 E0.05456
; printing object Schaber.stl id:0 copy 0
G1 F8640.000
G1 X50.122 Y73.422 E-0.45654
G1 X51.356 Y72.972 E-0.30346
G1 E-0.04000 F2100.00000
G1 Z0.600 F10800.000
G1 X118.669 Y102.549
G1 Z0.200
G1 E0.80000 F2100.00000
G1 F1200.000
G1 X119.227 Y101.428 E0.03925
G1 X119.981 Y100.428 E0.03928
G1 X120.907 Y99.584 E0.03928
G1 X121.972 Y98.924 E0.03928
G1 X123.140 Y98.471 E0.03928
G1 X124.371 Y98.240 E0.03928
G1 X125.625 Y98.240 E0.03932
G1 X126.903 Y98.483 E0.04079
G1 X128.069 Y98.944 E0.03932
G1 X129.130 Y99.612 E0.03928
G1 X130.050 Y100.462 E0.03928
G1 X130.797 Y101.467 E0.03928
G1 X131.348 Y102.593 E0.03928
G1 X131.682 Y103.800 E0.03928
G1 X131.789 Y105.048 E0.03928
G1 X131.664 Y106.295 E0.03928
G1 X131.313 Y107.497 E0.03928
G1 X130.747 Y108.615 E0.03928
G1 X129.984 Y109.609 E0.03928
G1 X129.053 Y110.447 E0.03928
G1 X127.984 Y111.098 E0.03925
G1 X126.859 Y111.529 E0.03777
G1 X125.629 Y111.760 E0.03925
G1 X124.376 Y111.760 E0.03928
G1 X123.143 Y111.530 E0.03932
G1 X121.932 Y111.056 E0.04079
G1 X120.870 Y110.388 E0.03932
G1 X119.950 Y109.538 E0.03928
G1 X119.203 Y108.533 E0.03928
G1 X118.652 Y107.407 E0.03928
G1 X118.318 Y106.201 E0.03925
G1 X118.211 Y105.003 E0.03771
G1 X118.252 Y104.534 E0.01477
G1 X118.336 Y103.706 E0.02610
G1 X118.653 Y102.606 E0.03587
G1 X119.015 Y102.711 F10800.000
G1 F1200.000
G1 X119.549 Y101.627 E0.03787
G1 X120.261 Y100.683 E0.03709
G1 X121.135 Y99.886 E0.03709
G1 X122.141 Y99.263 E0.03709
G1 X123.244 Y98.835 E0.03709
G1 X124.406 Y98.617 E0.03709
G1 X125.590 Y98.617 E0.03710
G1 X126.798 Y98.847 E0.03856
G1 X127.898 Y99.282 E0.03710
G1 X128.899 Y99.912 E0.03709
G1 X129.768 Y100.715 E0.03709
G1 X130.474 Y101.664 E0.03709
G1 X130.994 Y102.727 E0.03709
G1 X131.309 Y103.867 E0.03709
G1 X131.410 Y105.046 E0.03709
G1 X131.293 Y106.223 E0.03709
G1 X130.961 Y107.358 E0.03709
G1 X130.426 Y108.413 E0.03709
G1 X129.706 Y109.352 E0.03709
G1 X128.827 Y110.143 E0.03709
G1 X127.817 Y110.758 E0.03708
G1 X126.756 Y111.165 E0.03562
G1 X125.594 Y111.383 E0.03708
G1 X124.411 Y111.383 E0.03709
G1 X123.247 Y111.166 E0.03710
G1 X122.102 Y110.718 E0.03856
G1 X121.101 Y110.088 E0.03710
G1 X120.232 Y109.285 E0.03709
G1 X119.526 Y108.336 E0.03709
G1 X119.006 Y107.273 E0.03709
G1 X118.691 Y106.133 E0.03708
G1 X118.590 Y105.002 E0.03560
G1 X118.627 Y104.569 E0.01364
G1 X118.707 Y103.778 E0.02494
G1 X118.998 Y102.768 E0.03293
G1 X118.765 Y102.398 F10800.000
G1 F8640.000
G1 X119.549 Y101.627 E-0.29255
G1 X120.261 Y100.683 E-0.27315
G1 X120.883 Y100.116 E-0.19430
G1 E-0.04000 F2100.00000
G1 Z0.600 F10800.000
G1 X132.924 Y116.475
G1 Z0.200
G1 E0.80000 F2100.00000
G1 F1200.000
G1 X133.850 Y115.630 E0.03930
G1 X134.915 Y114.969 E0.03930
G1 X136.083 Y114.516 E0.03929
G1 X137.314 Y114.285 E0.03929
G1 X138.567 Y114.284 E0.03928
G1 X139.799 Y114.513 E0.03928
G1 X140.967 Y114.965 E0.03927
G1 X142.033 Y115.623 E0.03927
G1 X142.959 Y116.466 E0.03926
G1 X143.714 Y117.465 E0.03926
G1 X144.274 Y118.586 E0.03930
G1 X144.629 Y119.850 E0.04118
G1 X144.734 Y121.102 E0.03937
G1 X144.608 Y122.349 E0.03933
G1 X144.254 Y123.553 E0.03933
G1 X143.684 Y124.671 E0.03933
G1 X142.919 Y125.665 E0.03933
G1 X141.984 Y126.501 E0.03933
G1 X140.913 Y127.149 E0.03925
G1 X139.822 Y127.568 E0.03665
G1 X138.592 Y127.802 E0.03925
G1 X137.254 Y127.797 E0.04195
G1 X136.024 Y127.555 E0.03931
G1 X134.861 Y127.091 E0.03924
G1 X133.804 Y126.422 E0.03923
G1 X132.887 Y125.571 E0.03922
G1 X132.142 Y124.566 E0.03922
G1 X131.594 Y123.441 E0.03923
G1 X131.262 Y122.235 E0.03923
G1 X131.157 Y120.990 E0.03919
G1 X131.271 Y119.805 E0.03731
G1 X131.612 Y118.600 E0.03927
G1 X132.170 Y117.477 E0.03931
G1 X132.888 Y116.523 E0.03743
G1 X133.189 Y116.750 F10800.000
G1 F1200.000
G1 X134.078 Y115.932 E0.03788
G1 X135.084 Y115.308 E0.03711
G1 X136.187 Y114.880 E0.03710
G1 X137.350 Y114.662 E0.03710
G1 X138.533 Y114.661 E0.03709
G1 X139.696 Y114.877 E0.03709
G1 X140.799 Y115.304 E0.03708
G1 X141.805 Y115.926 E0.03708
G1 X142.679 Y116.721 E0.03707
G1 X143.392 Y117.664 E0.03707
G1 X143.921 Y118.722 E0.03708
G1 X144.256 Y119.918 E0.03893
G1 X144.355 Y121.098 E0.03715
G1 X144.236 Y122.277 E0.03714
G1 X143.902 Y123.413 E0.03714
G1 X143.364 Y124.468 E0.03714
G1 X142.641 Y125.407 E0.03714
G1 X141.759 Y126.196 E0.03713
G1 X140.746 Y126.809 E0.03710
G1 X139.718 Y127.204 E0.03453
G1 X138.557 Y127.424 E0.03706
G1 X137.291 Y127.420 E0.03968
G1 X136.131 Y127.191 E0.03708
G1 X135.033 Y126.754 E0.03705
G1 X134.035 Y126.122 E0.03704
G1 X133.169 Y125.319 E0.03704
G1 X132.466 Y124.370 E0.03703
G1 X131.949 Y123.308 E0.03704
G1 X131.635 Y122.169 E0.03704
G1 X131.536 Y120.992 E0.03703
G1 X131.643 Y119.875 E0.03518
G1 X131.965 Y118.736 E0.03711
G1 X132.492 Y117.676 E0.03712
G1 X133.153 Y116.798 E0.03445
G1 X133.066 Y116.370 F10800.000
G1 F8640.000
G1 X134.078 Y115.932 E-0.29262
G1 X135.084 Y115.308 E-0.27326
G1 X135.867 Y115.004 E-0.19412
G1 E-0.04000 F2100.00000
G1 Z0.600 F10800.000
G1 X141.700 Y111.624
G1 Z0.200
G1 E0.80000 F2100.00000
G1 F1200.000
G1 X141.147 Y110.500 E0.03925
G1 X140.810 Y109.294 E0.03926
G1 X140.700 Y108.047 E0.03927
G1 X140.820 Y106.800 E0.03927
G1 X141.168 Y105.597 E0.03927
G1 X141.731 Y104.479 E0.03927
G1 X142.489 Y103.482 E0.03927
G1 X143.418 Y102.642 E0.03927
G1 X144.485 Y101.987 E0.03927
G1 X145.655 Y101.539 E0.03927
G1 X146.839 Y101.321 E0.03777
G1 X148.137 Y101.317 E0.04068
G1 X149.369 Y101.551 E0.03932
G1 X150.535 Y102.007 E0.03927
G1 X151.598 Y102.670 E0.03927
G1 X152.521 Y103.516 E0.03927
G1 X153.273 Y104.518 E0.03927
G1 X153.829 Y105.642 E0.03932
G1 X154.173 Y106.893 E0.04069
G1 X154.280 Y108.093 E0.03777
G1 X154.161 Y109.340 E0.03926
G1 X153.816 Y110.543 E0.03927
G1 X153.255 Y111.663 E0.03925
G1 X152.500 Y112.659 E0.03919
G1 X151.575 Y113.499 E0.03919
G1 X150.512 Y114.156 E0.03919
G1 X149.346 Y114.607 E0.03918
G1 X148.116 Y114.837 E0.03922
G1 X146.817 Y114.832 E0.04074
G1 X145.589 Y114.594 E0.03922
G1 X144.427 Y114.136 E0.03918
G1 X143.368 Y113.472 E0.03919
G1 X142.448 Y112.625 E0.03919
G1 X141.736 Y111.672 E0.03731
G1 X142.038 Y111.446 F10800.000
G1 F1200.000
G1 X141.501 Y110.365 E0.03784
G1 X141.182 Y109.226 E0.03707
G1 X141.078 Y108.049 E0.03708
G1 X141.192 Y106.872 E0.03708
G1 X141.521 Y105.736 E0.03708
G1 X142.052 Y104.679 E0.03708
G1 X142.768 Y103.738 E0.03708
G1 X143.645 Y102.945 E0.03708
G1 X144.653 Y102.326 E0.03708
G1 X145.757 Y101.903 E0.03708
G1 X146.874 Y101.698 E0.03562
G1 X148.102 Y101.694 E0.03849
G1 X149.264 Y101.915 E0.03709
G1 X150.365 Y102.346 E0.03708
G1 X151.369 Y102.971 E0.03708
G1 X152.240 Y103.771 E0.03708
G1 X152.950 Y104.716 E0.03708
G1 X153.475 Y105.777 E0.03710
G1 X153.800 Y106.961 E0.03850
G1 X153.901 Y108.092 E0.03562
G1 X153.789 Y109.269 E0.03707
G1 X153.463 Y110.406 E0.03708
G1 X152.934 Y111.463 E0.03706
G1 X152.221 Y112.403 E0.03701
G1 X151.347 Y113.197 E0.03700
G1 X150.343 Y113.817 E0.03700
G1 X149.243 Y114.243 E0.03700
G1 X148.082 Y114.459 E0.03701
G1 X146.854 Y114.455 E0.03851
G1 X145.695 Y114.231 E0.03701
G1 X144.597 Y113.798 E0.03700
G1 X143.598 Y113.171 E0.03700
G1 X142.730 Y112.371 E0.03700
G1 X142.074 Y111.494 E0.03434
G1 X141.638 Y111.457 F10800.000
G1 F8640.000
G1 X141.501 Y110.365 E-0.29229
G1 X141.182 Y109.226 E-0.27303
G1 X141.108 Y108.387 E-0.19468
G1 E-0.04000 F2100.00000
G1 Z0.600 F10800.000
G1 X152.923 Y100.514
G1 Z0.200
G1 E0.80000 F2100.00000
G1 F1200.000
G1 X152.000 Y99.666 E0.03929
G1 X151.248 Y98.664 E0.03929
G1 X150.694 Y97.540 E0.03929
G1 X150.355 Y96.334 E0.03929
G1 X150.243 Y95.086 E0.03929
G1 X150.363 Y93.838 E0.03929
G1 X150.710 Y92.634 E0.03929
G1 X151.273 Y91.514 E0.03929
G1 X152.031 Y90.517 E0.03929
G1 X152.960 Y89.676 E0.03929
G1 X154.028 Y89.020 E0.03929
G1 X155.198 Y88.571 E0.03929
G1 X156.430 Y88.345 E0.03929
G1 X157.683 Y88.349 E0.03929
G1 X158.914 Y88.584 E0.03929
G1 X160.081 Y89.040 E0.03929
G1 X161.144 Y89.704 E0.03929
G1 X162.067 Y90.551 E0.03929
G1 X162.819 Y91.554 E0.03929
G1 X163.374 Y92.677 E0.03929
G1 X163.713 Y93.884 E0.03929
G1 X163.824 Y95.132 E0.03929
G1 X163.704 Y96.379 E0.03929
G1 X163.357 Y97.583 E0.03929
G1 X162.795 Y98.703 E0.03929
G1 X162.036 Y99.700 E0.03929
G1 X161.107 Y100.541 E0.03929
G1 X160.040 Y101.197 E0.03929
G1 X158.870 Y101.646 E0.03929
G1 X157.637 Y101.872 E0.03929
G1 X156.384 Y101.868 E0.03929
G1 X155.153 Y101.633 E0.03929
G1 X153.986 Y101.177 E0.03929
G1 X152.974 Y100.545 E0.03741
G1 X153.174 Y100.225 F10800.000
G1 F1200.000
G1 X152.281 Y99.412 E0.03787
G1 X151.571 Y98.465 E0.03710
G1 X151.047 Y97.405 E0.03710
G1 X150.727 Y96.265 E0.03710
G1 X150.622 Y95.087 E0.03710
G1 X150.735 Y93.909 E0.03710
G1 X151.063 Y92.772 E0.03710
G1 X151.594 Y91.715 E0.03710
G1 X152.310 Y90.773 E0.03710
G1 X153.187 Y89.979 E0.03710
G1 X154.195 Y89.359 E0.03710
G1 X155.300 Y88.936 E0.03710
G1 X156.464 Y88.722 E0.03710
G1 X157.647 Y88.726 E0.03710
G1 X158.809 Y88.948 E0.03710
G1 X159.911 Y89.379 E0.03710
G1 X160.915 Y90.005 E0.03710
G1 X161.787 Y90.805 E0.03710
G1 X162.497 Y91.752 E0.03710
G1 X163.020 Y92.813 E0.03710
G1 X163.340 Y93.952 E0.03710
G1 X163.445 Y95.130 E0.03710
G1 X163.332 Y96.308 E0.03710
G1 X163.005 Y97.445 E0.03710
G1 X162.474 Y98.502 E0.03710
G1 X161.757 Y99.444 E0.03710
G1 X160.880 Y100.238 E0.03710
G1 X159.872 Y100.858 E0.03710
G1 X158.767 Y101.282 E0.03710
G1 X157.604 Y101.495 E0.03710
G1 X156.420 Y101.491 E0.03710
G1 X155.258 Y101.270 E0.03710
G1 X154.156 Y100.838 E0.03710
G1 X153.225 Y100.257 E0.03443
G1 X152.805 Y100.381 F10800.000
G1 F8640.000
G1 X152.281 Y99.412 E-0.29253
G1 X151.571 Y98.465 E-0.27321
G1 X151.198 Y97.711 E-0.19426
G1 E-0.04000 F2100.00000
G1 Z0.600 F10800.000
G1 X163.373 Y86.827
G1 Z0.200
G1 E0.80000 F2100.00000
G1 F1200.000
G1 X162.990 Y86.326 E0.01977
G1 X162.753 Y85.748 E0.01959
G1 X162.680 Y85.179 E0.01796
G1 X162.701 Y79.076 E0.19136
G1 X162.778 Y78.508 E0.01796
G1 X163.019 Y77.932 E0.01959
G1 X163.401 Y77.437 E0.01959
G1 X163.898 Y77.059 E0.01959
G1 X164.476 Y76.821 E0.01959
G1 X165.054 Y76.747 E0.01827
G1 X165.710 Y76.823 E0.02071
G1 X166.292 Y77.067 E0.01977
G1 X166.786 Y77.449 E0.01959
G1 X167.165 Y77.946 E0.01959
G1 X167.402 Y78.524 E0.01959
G1 X167.475 Y79.092 E0.01796
G1 X167.455 Y85.195 E0.19136
G1 X167.378 Y85.763 E0.01796
G1 X167.137 Y86.340 E0.01959
G1 X166.755 Y86.834 E0.01959
G1 X166.258 Y87.213 E0.01959
G1 X165.679 Y87.450 E0.01959
G1 X165.060 Y87.530 E0.01959
G1 X164.440 Y87.446 E0.01959
G1 X163.903 Y87.221 E0.01827
G1 X163.421 Y86.863 E0.01883
G1 X163.646 Y86.560 F10800.000
G1 F1200.000
G1 X163.320 Y86.137 E0.01675
G1 X163.121 Y85.650 E0.01648
G1 X163.058 Y85.156 E0.01563
G1 X163.078 Y79.102 E0.18981
G1 X163.145 Y78.608 E0.01563
G1 X163.348 Y78.123 E0.01648
G1 X163.669 Y77.707 E0.01648
G1 X164.087 Y77.389 E0.01648
G1 X164.573 Y77.189 E0.01648
G1 X165.056 Y77.127 E0.01527
G1 X165.614 Y77.192 E0.01760
G1 X166.101 Y77.395 E0.01654
G1 X166.517 Y77.717 E0.01648
G1 X166.835 Y78.135 E0.01648
G1 X167.035 Y78.621 E0.01648
G1 X167.098 Y79.116 E0.01563
G1 X167.078 Y85.170 E0.18981
G1 X167.011 Y85.664 E0.01563
G1 X166.808 Y86.148 E0.01648
G1 X166.487 Y86.564 E0.01648
G1 X166.068 Y86.883 E0.01648
G1 X165.582 Y87.082 E0.01648
G1 X165.061 Y87.149 E0.01648
G1 X164.540 Y87.079 E0.01648
G1 X164.091 Y86.891 E0.01527
G1 X163.694 Y86.596 E0.01550
G1 X163.259 Y86.664 F10800.000
G1 F8640.000
G1 X163.320 Y86.137 E-0.13671
G1 X163.121 Y85.650 E-0.12137
G1 X163.058 Y85.156 E-0.11511
G1 X163.063 Y83.481 E-0.38680
G1 E-0.04000 F2100.00000
G1 Z0.600 F10800.000
G1 X170.272 Y91.579
G1 Z0.200
G1 E0.80000 F2100.00000
G1 F1200.000
G1 X171.031 Y90.581 E0.03929
G1 X171.960 Y89.740 E0.03929
G1 X173.028 Y89.084 E0.03929
G1 X174.198 Y88.636 E0.03929
G1 X175.430 Y88.409 E0.03929
G1 X176.683 Y88.414 E0.03929
G1 X177.914 Y88.648 E0.03929
G1 X179.081 Y89.105 E0.03929
G1 X180.144 Y89.768 E0.03929
G1 X181.067 Y90.615 E0.03929
G1 X181.819 Y91.618 E0.03929
G1 X182.374 Y92.742 E0.03929
G1 X182.713 Y93.948 E0.03929
G1 X182.824 Y95.196 E0.03929
G1 X182.704 Y96.443 E0.03929
G1 X182.357 Y97.648 E0.03929
G1 X181.795 Y98.767 E0.03929
G1 X181.036 Y99.765 E0.03929
G1 X180.107 Y100.606 E0.03929
G1 X179.040 Y101.262 E0.03929
G1 X177.870 Y101.711 E0.03929
G1 X176.637 Y101.937 E0.03929
G1 X175.384 Y101.932 E0.03929
G1 X174.153 Y101.698 E0.03929
G1 X172.986 Y101.241 E0.03929
G1 X171.923 Y100.578 E0.03929
G1 X171.000 Y99.731 E0.03929
G1 X170.248 Y98.728 E0.03929
G1 X169.693 Y97.605 E0.03929
G1 X169.355 Y96.398 E0.03929
G1 X169.243 Y95.150 E0.03929
G1 X169.363 Y93.903 E0.03929
G1 X169.710 Y92.699 E0.03929
G1 X170.246 Y91.632 E0.03741
G1 X170.582 Y91.802 F10800.000
G1 F1200.000
G1 X171.310 Y90.837 E0.03787
G1 X172.187 Y90.043 E0.03710
G1 X173.195 Y89.424 E0.03710
G1 X174.300 Y89.000 E0.03710
G1 X175.464 Y88.787 E0.03710
G1 X176.647 Y88.791 E0.03710
G1 X177.809 Y89.012 E0.03710
G1 X178.911 Y89.443 E0.03710
G1 X179.915 Y90.070 E0.03710
G1 X180.787 Y90.870 E0.03710
G1 X181.496 Y91.816 E0.03710
G1 X182.020 Y92.877 E0.03710
G1 X182.340 Y94.016 E0.03710
G1 X182.445 Y95.195 E0.03710
G1 X182.332 Y96.373 E0.03710
G1 X182.005 Y97.510 E0.03710
G1 X181.474 Y98.567 E0.03710
G1 X180.757 Y99.509 E0.03710
G1 X179.880 Y100.303 E0.03710
G1 X178.872 Y100.922 E0.03710
G1 X177.767 Y101.346 E0.03710
