; generated by PrusaSlicer 2.2.0+win64 on 2021-08-25 at 10:26:57 UTC

; 

; external perimeters extrusion width = 0.45mm
; perimeters extrusion width = 0.45mm
; infill extrusion width = 0.45mm
; solid infill extrusion width = 0.45mm
; top infill extrusion width = 0.40mm
; first layer extrusion width = 0.42mm

M73 P0 R214
M201 X9000 Y9000 Z500 E10000 ; sets maximum accelerations, mm/sec^2
M203 X500 Y500 Z12 E120 ; sets maximum feedrates, mm/sec
M204 P2000 R1500 T2000 ; sets acceleration (P, T) and retract acceleration (R), mm/sec^2
M205 X10.00 Y10.00 Z0.20 E2.50 ; sets the jerk limits, mm/sec
M205 S0 T0 ; sets the minimum extruding and travel feed rate, mm/sec
M107
M862.3 P "MK2S" ; printer model check
M862.1 P0.4 ; nozzle diameter check
M115 U3.2.3 ; tell printer latest fw version
G90 ; use absolute coordinates
M83 ; extruder relative mode
M204 S2000 T1500 ; MK2 firmware only supports the old M204 format
M104 S215 ; set extruder temp
M140 S60 ; set bed temp
M190 S60 ; wait for bed temp
M109 S215 ; wait for extruder temp
G28 W ; home all without mesh bed level
G80 ; mesh bed leveling
G1 Y-3.0 F1000.0 ; go outside print area
G92 E0.0
G1 X60.0 E9.0  F1000.0 ; intro line
M73 P0 R214
G1 X100.0 E12.5 F1000.0 ; intro line
G92 E0.0
G21 ; set units to millimeters
G90 ; use absolute coordinates
M83 ; use relative distances for extrusion
M900 K0.05 ; Filament gcode LA 1.5
M900 K30 ; Filament gcode LA 1.0
;BEFORE_LAYER_CHANGE
G92 E0.0
;0.2


G1 E-0.80000 F2100.00000
G1 Z0.400 F10800.000
;AFTER_LAYER_CHANGE
;0.2
G1 X71.293 Y41.346
G1 Z0.200
G1 E0.80000 F2100.00000
M204 S1000
G1 F1200.000
G1 X88.666 Y29.301 E0.66282
G1 X89.762 Y28.803 E0.03776
G1 X90.994 Y28.623 E0.03902
G1 X159.004 Y28.623 E2.13241
G1 X160.167 Y28.781 E0.03681
G1 X161.290 Y29.272 E0.03843
G1 X178.699 Y41.338 E0.66413
G1 X179.004 Y41.722 E0.01538
G1 X190.625 Y60.013 E0.67945
G1 X191.199 Y61.507 E0.05019
G1 X191.377 Y62.996 E0.04703
G1 X191.377 Y147.011 E2.63424
G1 X191.218 Y148.415 E0.04430
G1 X190.763 Y149.729 E0.04359
G1 X178.707 Y168.654 E0.70357
G1 X161.334 Y180.699 E0.66282
G1 X160.212 Y181.205 E0.03860
G1 X159.006 Y181.377 E0.03819
G1 X90.989 Y181.377 E2.13265
G1 X89.918 Y181.241 E0.03385
G1 X89.007 Y180.892 E0.03059
G1 X71.647 Y168.954 E0.66058
G1 X71.261 Y168.621 E0.01597
G1 X59.375 Y149.987 E0.69299
G1 X58.793 Y148.460 E0.05126
G1 X58.623 Y147.004 E0.04596
G1 X58.623 Y62.989 E2.63424
G1 X58.782 Y61.585 E0.04430
G1 X59.237 Y60.271 E0.04359
G1 X71.261 Y41.396 E0.70169
; printing object Sockel.stl id:0 copy 0
G1 F8640.000
G1 X73.964 Y39.518 E-0.76000
G1 E-0.04000 F2100.00000
G1 Z0.600 F10800.000
G1 X121.652 Y101.856
G1 Z0.200
G1 E0.80000 F2100.00000
G1 F1200.000
G1 X122.539 Y101.122 E0.03610
G1 X123.581 Y100.631 E0.03610
G1 X124.662 Y100.425 E0.03453
G1 X125.858 Y100.487 E0.03753
G1 X126.956 Y100.844 E0.03621
G1 X127.928 Y101.461 E0.03610
G1 X128.716 Y102.300 E0.03610
G1 X129.271 Y103.309 E0.03610
G1 X129.557 Y104.424 E0.03610
G1 X129.557 Y105.576 E0.03610
G1 X129.271 Y106.691 E0.03610
G1 X128.716 Y107.700 E0.03610
G1 X127.928 Y108.539 E0.03610
G1 X126.956 Y109.156 E0.03610
G1 X125.861 Y109.512 E0.03610
G1 X124.712 Y109.584 E0.03610
G1 X123.581 Y109.369 E0.03610
G1 X122.539 Y108.878 E0.03610
G1 X121.652 Y108.144 E0.03610
G1 X121.004 Y107.253 E0.03453
G1 X120.551 Y106.146 E0.03753
G1 X120.407 Y105.000 E0.03621
G1 X120.551 Y103.858 E0.03610
G1 X120.975 Y102.787 E0.03610
G1 X121.616 Y101.904 E0.03422
G1 X121.921 Y102.126 F10800.000
G1 F1200.000
G1 X122.742 Y101.443 E0.03349
G1 X123.698 Y100.993 E0.03311
G1 X124.688 Y100.804 E0.03161
G1 X125.788 Y100.861 E0.03454
G1 X126.794 Y101.188 E0.03315
G1 X127.686 Y101.754 E0.03311
G1 X128.409 Y102.524 E0.03311
G1 X128.917 Y103.449 E0.03311
G1 X129.180 Y104.472 E0.03311
G1 X129.180 Y105.528 E0.03311
G1 X128.917 Y106.551 E0.03311
G1 X128.409 Y107.476 E0.03311
G1 X127.686 Y108.246 E0.03311
G1 X126.794 Y108.812 E0.03311
G1 X125.789 Y109.139 E0.03311
G1 X124.735 Y109.205 E0.03311
G1 X123.698 Y109.007 E0.03311
G1 X122.742 Y108.557 E0.03311
G1 X121.929 Y107.884 E0.03311
G1 X121.336 Y107.069 E0.03161
G1 X120.919 Y106.049 E0.03454
G1 X120.787 Y105.000 E0.03315
G1 X120.919 Y103.952 E0.03311
G1 X121.308 Y102.970 E0.03311
G1 X121.886 Y102.174 E0.03085
G1 X121.805 Y101.743 F10800.000
G1 F8640.000
G1 X122.742 Y101.443 E-0.26008
G1 X123.698 Y100.993 E-0.24386
G1 X124.688 Y100.804 E-0.23276
G1 X124.789 Y100.809 E-0.02330
G1 E-0.04000 F2100.00000
G1 Z0.600 F10800.000
G1 X116.213 Y110.213
G1 Z0.200
G1 E0.80000 F2100.00000
G1 F1200.000
G1 X133.787 Y110.213 E0.55103
G1 X133.787 Y139.787 E0.92728
G1 X116.213 Y139.787 E0.55103
G1 X116.213 Y110.273 E0.92540
G1 X116.590 Y110.590 F10800.000
G1 F1200.000
G1 X133.410 Y110.590 E0.52738
G1 X133.410 Y139.410 E0.90363
G1 X116.590 Y139.410 E0.52738
G1 X116.590 Y110.650 E0.90175
G1 X116.520 Y110.196 F10800.000
G1 F8640.000
G1 X119.881 Y110.638 E-0.76000
G1 E-0.04000 F2100.00000
G1 Z0.600 F10800.000
G1 X136.213 Y110.213
G1 Z0.200
G1 E0.80000 F2100.00000
G1 F1200.000
G1 X173.787 Y110.213 E1.17811
G1 X173.787 Y139.787 E0.92728
G1 X136.213 Y139.787 E1.17811
G1 X136.213 Y110.273 E0.92540
G1 X136.590 Y110.590 F10800.000
G1 F1200.000
G1 X173.410 Y110.590 E1.15447
G1 X173.410 Y139.410 E0.90363
G1 X136.590 Y139.410 E1.15447
G1 X136.590 Y110.650 E0.90175
G1 X136.471 Y110.208 F10800.000
G1 F8640.000
G1 X139.881 Y110.645 E-0.76000
G1 E-0.04000 F2100.00000
G1 Z0.600 F10800.000
G1 X136.213 Y70.213
G1 Z0.200
G1 E0.80000 F2100.00000
G1 F1200.000
G1 X173.787 Y70.213 E1.17811
G1 X173.787 Y99.787 E0.92728
G1 X136.213 Y99.787 E1.17811
M73 P0 R213
G1 X136.213 Y70.273 E0.92540
G1 X136.590 Y70.590 F10800.000
G1 F1200.000
G1 X173.410 Y70.590 E1.15447
G1 X173.410 Y99.410 E0.90363
G1 X136.590 Y99.410 E1.15447
G1 X136.590 Y70.650 E0.90175
G1 X136.471 Y70.208 F10800.000
G1 F8640.000
G1 X139.881 Y70.645 E-0.76000
G1 E-0.04000 F2100.00000
G1 Z0.600 F10800.000
G1 X129.271 Y66.691
G1 Z0.200
G1 E0.80000 F2100.00000
G1 F1200.000
G1 X128.716 Y67.700 E0.03610
G1 X127.928 Y68.539 E0.03610
G1 X126.998 Y69.129 E0.03453
G1 X125.864 Y69.512 E0.03753
G1 X124.712 Y69.584 E0.03621
G1 X123.581 Y69.369 E0.03610
G1 X122.539 Y68.878 E0.03610
G1 X121.652 Y68.144 E0.03610
G1 X120.975 Y67.213 E0.03610
G1 X120.551 Y66.142 E0.03610
G1 X120.407 Y65.000 E0.03610
G1 X120.551 Y63.858 E0.03610
G1 X120.975 Y62.787 E0.03610
G1 X121.652 Y61.856 E0.03610
G1 X122.539 Y61.122 E0.03610
G1 X123.581 Y60.631 E0.03610
G1 X124.662 Y60.425 E0.03453
G1 X125.858 Y60.487 E0.03753
G1 X126.956 Y60.844 E0.03621
G1 X127.928 Y61.461 E0.03610
G1 X128.716 Y62.300 E0.03610
G1 X129.247 Y63.265 E0.03453
G1 X129.557 Y64.421 E0.03753
G1 X129.557 Y65.576 E0.03621
G1 X129.286 Y66.633 E0.03422
G1 X128.920 Y66.539 F10800.000
G1 F1200.000
G1 X128.409 Y67.476 E0.03349
G1 X127.686 Y68.246 E0.03311
G1 X126.835 Y68.786 E0.03161
G1 X125.791 Y69.139 E0.03454
G1 X124.735 Y69.205 E0.03315
G1 X123.698 Y69.007 E0.03311
G1 X122.742 Y68.557 E0.03311
G1 X121.929 Y67.884 E0.03311
G1 X121.308 Y67.030 E0.03311
G1 X120.919 Y66.048 E0.03311
G1 X120.787 Y65.000 E0.03311
G1 X120.919 Y63.952 E0.03311
G1 X121.308 Y62.970 E0.03311
G1 X121.929 Y62.116 E0.03311
G1 X122.742 Y61.443 E0.03311
G1 X123.698 Y60.993 E0.03311
G1 X124.688 Y60.804 E0.03161
G1 X125.788 Y60.861 E0.03454
G1 X126.794 Y61.188 E0.03315
G1 X127.686 Y61.754 E0.03311
G1 X128.409 Y62.524 E0.03311
G1 X128.894 Y63.407 E0.03161
G1 X129.180 Y64.471 E0.03454
G1 X129.180 Y65.528 E0.03315
G1 X128.935 Y66.481 E0.03085
G1 X129.170 Y66.852 F10800.000
G1 F8640.000
G1 X128.409 Y67.476 E-0.26008
G1 X127.686 Y68.246 E-0.24386
G1 X126.835 Y68.786 E-0.23276
G1 X126.739 Y68.819 E-0.02331
G1 E-0.04000 F2100.00000
G1 Z0.600 F10800.000
G1 X116.213 Y70.213
G1 Z0.200
G1 E0.80000 F2100.00000
G1 F1200.000
G1 X133.787 Y70.213 E0.55103
G1 X133.787 Y99.787 E0.92728
G1 X116.213 Y99.787 E0.55103
G1 X116.213 Y70.273 E0.92540
G1 X116.590 Y70.590 F10800.000
G1 F1200.000
G1 X133.410 Y70.590 E0.52738
G1 X133.410 Y99.410 E0.90363
G1 X116.590 Y99.410 E0.52738
G1 X116.590 Y70.650 E0.90175
G1 X116.520 Y70.196 F10800.000
G1 F8640.000
G1 X119.881 Y70.638 E-0.76000
G1 E-0.04000 F2100.00000
G1 Z0.600 F10800.000
G1 X116.213 Y46.213
G1 Z0.200
G1 E0.80000 F2100.00000
G1 F1200.000
G1 X133.787 Y46.213 E0.55103
G1 X133.787 Y59.787 E0.42561
G1 X116.213 Y59.787 E0.55103
G1 X116.213 Y46.273 E0.42373
G1 X116.590 Y46.590 F10800.000
G1 F1200.000
G1 X133.410 Y46.590 E0.52738
G1 X133.410 Y59.410 E0.40196
G1 X116.590 Y59.410 E0.52738
G1 X116.590 Y46.650 E0.40008
G1 X116.469 Y46.209 F10800.000
G1 F8640.000
G1 X119.881 Y46.638 E-0.76000
G1 E-0.04000 F2100.00000
G1 Z0.600 F10800.000
G1 X136.213 Y46.213
G1 Z0.200
G1 E0.80000 F2100.00000
G1 F1200.000
G1 X173.787 Y46.213 E1.17811
G1 X173.787 Y59.787 E0.42561
G1 X136.213 Y59.787 E1.17811
G1 X136.213 Y46.273 E0.42373
G1 X136.590 Y46.590 F10800.000
G1 F1200.000
G1 X173.410 Y46.590 E1.15447
G1 X173.410 Y59.410 E0.40196
G1 X136.590 Y59.410 E1.15447
G1 X136.590 Y46.650 E0.40008
G1 X136.430 Y46.223 F10800.000
G1 F8640.000
G1 X139.881 Y46.645 E-0.76000
G1 E-0.04000 F2100.00000
G1 Z0.600 F10800.000
G1 X152.494 Y38.447
G1 Z0.200
G1 E0.80000 F2100.00000
G1 F1200.000
G1 X152.205 Y37.749 E0.02369
G1 X152.106 Y37.000 E0.02369
G1 X152.205 Y36.251 E0.02369
G1 X152.494 Y35.553 E0.02369
G1 X152.954 Y34.954 E0.02369
G1 X153.553 Y34.494 E0.02369
G1 X154.251 Y34.205 E0.02369
G1 X154.950 Y34.113 E0.02212
G1 X155.744 Y34.203 E0.02504
G1 X156.447 Y34.494 E0.02385
G1 X157.046 Y34.954 E0.02369
G1 X157.506 Y35.553 E0.02369
G1 X157.795 Y36.251 E0.02369
G1 X157.894 Y37.000 E0.02369
G1 X157.795 Y37.749 E0.02369
G1 X157.506 Y38.447 E0.02369
G1 X157.046 Y39.046 E0.02369
G1 X156.447 Y39.506 E0.02369
G1 X155.749 Y39.795 E0.02369
G1 X155.000 Y39.894 E0.02369
G1 X154.251 Y39.795 E0.02369
G1 X153.553 Y39.506 E0.02369
G1 X152.954 Y39.046 E0.02369
G1 X152.530 Y38.495 E0.02181
G1 X152.830 Y38.265 F10800.000
G1 F1200.000
G1 X152.572 Y37.651 E0.02089
G1 X152.486 Y37.000 E0.02057
G1 X152.572 Y36.349 E0.02057
G1 X152.823 Y35.743 E0.02057
G1 X153.223 Y35.223 E0.02057
G1 X153.743 Y34.823 E0.02057
G1 X154.349 Y34.572 E0.02057
G1 X154.954 Y34.493 E0.01912
G1 X155.649 Y34.571 E0.02193
G1 X156.257 Y34.823 E0.02063
G1 X156.777 Y35.223 E0.02057
G1 X157.177 Y35.743 E0.02057
G1 X157.428 Y36.349 E0.02057
G1 X157.514 Y37.000 E0.02057
G1 X157.428 Y37.651 E0.02057
G1 X157.177 Y38.257 E0.02057
G1 X156.777 Y38.777 E0.02057
G1 X156.257 Y39.177 E0.02057
G1 X155.651 Y39.428 E0.02057
G1 X155.000 Y39.514 E0.02057
G1 X154.349 Y39.428 E0.02057
G1 X153.743 Y39.177 E0.02057
G1 X153.223 Y38.777 E0.02057
G1 X152.866 Y38.313 E0.01837
G1 X152.430 Y38.266 F10800.000
G1 F8640.000
G1 X152.572 Y37.651 E-0.16726
G1 X152.486 Y37.000 E-0.15151
G1 X152.572 Y36.349 E-0.15151
G1 X152.823 Y35.743 E-0.15151
G1 X153.188 Y35.268 E-0.13821
G1 E-0.04000 F2100.00000
G1 Z0.600 F10800.000
G1 X179.652 Y61.856
G1 Z0.200
G1 E0.80000 F2100.00000
G1 F1200.000
G1 X180.539 Y61.122 E0.03610
G1 X181.581 Y60.631 E0.03610
G1 X182.662 Y60.425 E0.03453
G1 X183.858 Y60.487 E0.03753
G1 X184.956 Y60.844 E0.03621
G1 X185.928 Y61.461 E0.03610
G1 X186.716 Y62.300 E0.03610
G1 X187.271 Y63.309 E0.03610
G1 X187.557 Y64.424 E0.03610
G1 X187.557 Y65.576 E0.03610
G1 X187.271 Y66.691 E0.03610
G1 X186.716 Y67.700 E0.03610
G1 X185.928 Y68.539 E0.03610
G1 X184.956 Y69.156 E0.03610
G1 X183.861 Y69.512 E0.03610
G1 X182.712 Y69.584 E0.03610
G1 X181.581 Y69.369 E0.03610
G1 X180.539 Y68.878 E0.03610
G1 X179.652 Y68.144 E0.03610
G1 X178.975 Y67.213 E0.03610
G1 X178.551 Y66.142 E0.03610
G1 X178.407 Y65.000 E0.03610
G1 X178.551 Y63.858 E0.03610
G1 X178.975 Y62.787 E0.03610
G1 X179.616 Y61.904 E0.03422
G1 X179.921 Y62.126 F10800.000
G1 F1200.000
G1 X180.742 Y61.443 E0.03349
G1 X181.698 Y60.993 E0.03311
G1 X182.688 Y60.804 E0.03161
G1 X183.788 Y60.861 E0.03454
G1 X184.794 Y61.188 E0.03315
G1 X185.686 Y61.754 E0.03311
G1 X186.409 Y62.524 E0.03311
G1 X186.917 Y63.449 E0.03311
G1 X187.180 Y64.472 E0.03311
G1 X187.180 Y65.528 E0.03311
G1 X186.917 Y66.551 E0.03311
G1 X186.409 Y67.476 E0.03311
G1 X185.686 Y68.246 E0.03311
G1 X184.794 Y68.812 E0.03311
G1 X183.789 Y69.139 E0.03311
G1 X182.735 Y69.205 E0.03311
G1 X181.698 Y69.007 E0.03311
G1 X180.742 Y68.557 E0.03311
G1 X179.929 Y67.884 E0.03311
G1 X179.308 Y67.030 E0.03311
G1 X178.919 Y66.048 E0.03311
G1 X178.787 Y65.000 E0.03311
G1 X178.919 Y63.952 E0.03311
G1 X179.308 Y62.970 E0.03311
G1 X179.886 Y62.174 E0.03084
G1 X179.805 Y61.743 F10800.000
G1 F8640.000
G1 X180.742 Y61.443 E-0.26008
G1 X181.698 Y60.993 E-0.24386
G1 X182.688 Y60.804 E-0.23275
G1 X182.789 Y60.809 E-0.02330
G1 E-0.04000 F2100.00000
G1 Z0.600 F10800.000
G1 X182.662 Y100.425
G1 Z0.200
G1 E0.80000 F2100.00000
G1 F1200.000
G1 X183.858 Y100.487 E0.03753
G1 X184.956 Y100.844 E0.03621
G1 X185.928 Y101.461 E0.03610
G1 X186.716 Y102.300 E0.03610
G1 X187.271 Y103.309 E0.03610
G1 X187.557 Y104.424 E0.03610
G1 X187.557 Y105.576 E0.03610
G1 X187.271 Y106.691 E0.03610
G1 X186.716 Y107.700 E0.03610
G1 X185.928 Y108.539 E0.03610
G1 X184.956 Y109.156 E0.03610
G1 X183.861 Y109.512 E0.03610
G1 X182.712 Y109.584 E0.03610
G1 X181.581 Y109.369 E0.03610
G1 X180.539 Y108.878 E0.03610
G1 X179.652 Y108.144 E0.03610
G1 X178.975 Y107.213 E0.03610
G1 X178.551 Y106.142 E0.03610
G1 X178.407 Y105.000 E0.03610
G1 X178.551 Y103.858 E0.03610
G1 X178.975 Y102.787 E0.03610
G1 X179.652 Y101.856 E0.03610
G1 X180.539 Y101.122 E0.03610
G1 X181.581 Y100.631 E0.03610
G1 X182.603 Y100.436 E0.03265
G1 X182.674 Y100.807 F10800.000
G1 F1200.000
G1 X183.788 Y100.861 E0.03498
G1 X184.794 Y101.188 E0.03315
G1 X185.686 Y101.754 E0.03311
G1 X186.409 Y102.524 E0.03311
G1 X186.917 Y103.449 E0.03311
G1 X187.180 Y104.472 E0.03311
G1 X187.180 Y105.528 E0.03311
G1 X186.917 Y106.551 E0.03311
G1 X186.409 Y107.476 E0.03311
G1 X185.686 Y108.246 E0.03311
G1 X184.794 Y108.812 E0.03311
G1 X183.789 Y109.139 E0.03311
G1 X182.735 Y109.205 E0.03311
G1 X181.698 Y109.007 E0.03311
G1 X180.742 Y108.557 E0.03311
G1 X179.929 Y107.884 E0.03311
G1 X179.308 Y107.030 E0.03311
G1 X178.919 Y106.048 E0.03311
G1 X178.787 Y105.000 E0.03311
G1 X178.919 Y103.952 E0.03311
G1 X179.308 Y102.970 E0.03311
G1 X179.929 Y102.116 E0.03311
G1 X180.742 Y101.443 E0.03311
G1 X181.698 Y100.993 E0.03311
G1 X182.615 Y100.818 E0.02927
G1 X182.848 Y100.447 F10800.000
G1 F8640.000
G1 X183.788 Y100.861 E-0.27111
G1 X184.794 Y101.188 E-0.24414
G1 X185.686 Y101.754 E-0.24386
G1 X185.688 Y101.756 E-0.00090
G1 E-0.04000 F2100.00000
G1 Z0.600 F10800.000
G1 X182.662 Y140.425
G1 Z0.200
G1 E0.80000 F2100.00000
G1 F1200.000
G1 X183.858 Y140.487 E0.03753
G1 X184.956 Y140.844 E0.03621
G1 X185.928 Y141.461 E0.03610
G1 X186.716 Y142.300 E0.03610
G1 X187.271 Y143.309 E0.03610
G1 X187.557 Y144.424 E0.03610
G1 X187.557 Y145.576 E0.03610
G1 X187.271 Y146.691 E0.03610
G1 X186.716 Y147.700 E0.03610
G1 X185.928 Y148.539 E0.03610
G1 X184.956 Y149.156 E0.03610
G1 X183.861 Y149.512 E0.03610
G1 X182.712 Y149.584 E0.03610
G1 X181.581 Y149.369 E0.03610
G1 X180.539 Y148.878 E0.03610
G1 X179.652 Y148.144 E0.03610
G1 X178.975 Y147.213 E0.03610
G1 X178.551 Y146.142 E0.03610
G1 X178.407 Y145.000 E0.03610
G1 X178.479 Y144.429 E0.01805
G1 X178.551 Y143.858 E0.01805
G1 X178.975 Y142.787 E0.03610
G1 X179.652 Y141.856 E0.03610
G1 X180.539 Y141.122 E0.03610
G1 X181.581 Y140.631 E0.03610
G1 X182.603 Y140.436 E0.03264
G1 X182.674 Y140.807 F10800.000
G1 F1200.000
G1 X183.788 Y140.861 E0.03498
G1 X184.794 Y141.188 E0.03315
G1 X185.686 Y141.754 E0.03311
G1 X186.409 Y142.524 E0.03311
G1 X186.917 Y143.449 E0.03311
G1 X187.180 Y144.472 E0.03311
G1 X187.180 Y145.528 E0.03311
G1 X186.917 Y146.551 E0.03311
G1 X186.409 Y147.476 E0.03311
G1 X185.686 Y148.246 E0.03311
G1 X184.794 Y148.812 E0.03311
G1 X183.789 Y149.139 E0.03311
G1 X182.735 Y149.205 E0.03311
G1 X181.698 Y149.007 E0.03311
G1 X180.742 Y148.557 E0.03311
G1 X179.929 Y147.884 E0.03311
G1 X179.308 Y147.030 E0.03311
G1 X178.919 Y146.048 E0.03311
G1 X178.787 Y145.000 E0.03311
G1 X178.919 Y143.952 E0.03311
G1 X179.308 Y142.970 E0.03311
G1 X179.929 Y142.116 E0.03311
G1 X180.742 Y141.443 E0.03311
G1 X181.698 Y140.993 E0.03311
G1 X182.615 Y140.818 E0.02927
