; generated by Slic3r 1.33.8-prusa3d-win64 on 2017-04-01 at 10:58:14

; external perimeters extrusion width = 0.45mm
; perimeters extrusion width = 0.45mm
; infill extrusion width = 0.45mm
; solid infill extrusion width = 0.45mm
; top infill extrusion width = 0.45mm

M115 U3.0.10 ; tell printer latest fw version
M83  ; extruder relative mode
M104 S255 ; set extruder temp
M140 S100 ; set bed temp
M190 S100 ; wait for bed temp
M109 S255 ; wait for extruder temp
G28 W ; home all without mesh bed level
G80 ; mesh bed leveling
G1 Y-3.0 F1000.0 ; go outside pritn area
G1 X60.0 E9.0  F1000.0 ; intro line
G1 X100.0 E12.5  F1000.0 ; intro line
G21 ; set units to millimeters
G90 ; use absolute coordinates
M83 ; use relative distances for extrusion
G1 E-0.80000 F2100.00000
G1 Z0.200 F7200.000
G1 X110.304 Y93.343 F7200.000
G1 E0.80000 F2100.00000
M204 S1000
G1 F2100
G1 X111.229 Y92.266 E0.04451
G1 X112.093 Y91.389 E0.03862
G1 X113.076 Y90.520 E0.04112
G1 X114.208 Y89.660 E0.04459
G1 X115.239 Y88.983 E0.03868
G1 X116.307 Y88.381 E0.03842
G1 X117.587 Y87.771 E0.04446
G1 X118.906 Y87.263 E0.04433
G1 X120.089 Y86.899 E0.03881
G1 X121.286 Y86.618 E0.03855
G1 X122.685 Y86.389 E0.04446
G1 X124.100 Y86.269 E0.04451
G1 X125.331 Y86.249 E0.03862
G1 X126.641 Y86.318 E0.04112
G1 X128.052 Y86.498 E0.04459
G1 X129.262 Y86.738 E0.03868
G1 X130.445 Y87.057 E0.03842
G1 X131.789 Y87.520 E0.04459
G1 X133.086 Y88.082 E0.04433
G1 X134.181 Y88.650 E0.03868
G1 X135.236 Y89.290 E0.03868
G1 X136.394 Y90.108 E0.04446
G1 X137.484 Y91.011 E0.04438
G1 X138.376 Y91.860 E0.03862
G1 X139.262 Y92.827 E0.04112
G1 X140.142 Y93.944 E0.04459
G1 X140.837 Y94.963 E0.03868
G1 X141.458 Y96.020 E0.03842
G1 X142.091 Y97.289 E0.04446
G1 X142.623 Y98.603 E0.04446
G1 X143.006 Y99.771 E0.03855
G1 X143.309 Y100.967 E0.03868
G1 X143.563 Y102.366 E0.04459
G1 X143.708 Y103.774 E0.04438
G1 X143.749 Y105.005 E0.03862
G1 X143.703 Y106.316 E0.04112
G1 X143.548 Y107.729 E0.04459
G1 X143.330 Y108.944 E0.03868
G1 X143.031 Y110.136 E0.03855
G1 X142.592 Y111.485 E0.04446
G1 X142.053 Y112.791 E0.04433
G1 X141.507 Y113.893 E0.03855
G1 X140.883 Y114.962 E0.03881
G1 X140.059 Y116.171 E0.04587
G1 X139.268 Y117.165 E0.03983
G1 X138.437 Y118.076 E0.03868
G1 X137.414 Y119.053 E0.04433
G1 X136.316 Y119.950 E0.04446
G1 X135.310 Y120.663 E0.03868
G1 X134.261 Y121.304 E0.03855
G1 X133.003 Y121.958 E0.04446
G1 X131.702 Y122.512 E0.04433
G1 X130.537 Y122.917 E0.03868
G1 X129.347 Y123.241 E0.03868
G1 X127.952 Y123.520 E0.04459
G1 X126.651 Y123.681 E0.04112
G1 X125.423 Y123.748 E0.03855
G1 X124.009 Y123.728 E0.04433
G1 X122.593 Y123.598 E0.04459
G1 X121.376 Y123.402 E0.03868
G1 X120.174 Y123.123 E0.03868
G1 X118.745 Y122.681 E0.04690
G1 X117.588 Y122.230 E0.03893
G1 X116.480 Y121.708 E0.03842
G1 X115.237 Y121.016 E0.04459
G1 X114.055 Y120.231 E0.04451
G1 X113.081 Y119.483 E0.03849
G1 X112.155 Y118.668 E0.03868
G1 X111.158 Y117.659 E0.04446
G1 X110.307 Y116.662 E0.04112
G1 X109.574 Y115.670 E0.03868
G1 X108.808 Y114.471 E0.04458
G1 X108.140 Y113.219 E0.04451
G1 X107.635 Y112.095 E0.03862
G1 X107.182 Y110.865 E0.04112
G1 X106.790 Y109.498 E0.04459
G1 X106.532 Y108.292 E0.03868
G1 X106.357 Y107.075 E0.03855
G1 X106.252 Y105.661 E0.04446
G1 X106.258 Y104.241 E0.04451
G1 X106.346 Y103.017 E0.03849
G1 X106.519 Y101.791 E0.03881
G1 X106.833 Y100.329 E0.04690
G1 X107.180 Y99.141 E0.03880
G1 X107.603 Y97.986 E0.03855
G1 X108.182 Y96.692 E0.04446
G1 X108.856 Y95.449 E0.04433
G1 X109.518 Y94.408 E0.03868
G1 X110.267 Y93.390 E0.03962
G1 X110.598 Y93.578 F7200.000
G1 F2100
G1 X111.495 Y92.533 E0.04317
G1 X112.349 Y91.666 E0.03816
G1 X113.260 Y90.859 E0.03816
G1 X114.351 Y90.019 E0.04317
G1 X115.507 Y89.263 E0.04330
G1 X116.565 Y88.670 E0.03804
G1 X117.665 Y88.149 E0.03816
G1 X118.951 Y87.645 E0.04329
G1 X120.183 Y87.264 E0.04043
G1 X121.368 Y86.986 E0.03816
G1 X122.730 Y86.763 E0.04329
G1 X124.106 Y86.646 E0.04330
G1 X125.323 Y86.626 E0.03816
G1 X126.611 Y86.694 E0.04043
G1 X127.981 Y86.868 E0.04329
G1 X129.174 Y87.104 E0.03816
G1 X130.346 Y87.421 E0.03804
G1 X131.651 Y87.871 E0.04329
G1 X132.911 Y88.417 E0.04306
G1 X133.996 Y88.978 E0.03828
G1 X135.036 Y89.610 E0.03816
G1 X136.164 Y90.406 E0.04329
G1 X137.224 Y91.285 E0.04318
G1 X138.106 Y92.123 E0.03816
G1 X138.977 Y93.074 E0.04043
G1 X139.832 Y94.159 E0.04329
G1 X140.518 Y95.164 E0.03816
G1 X141.132 Y96.210 E0.03804
G1 X141.748 Y97.446 E0.04329
G1 X142.265 Y98.722 E0.04317
G1 X142.644 Y99.879 E0.03816
G1 X142.943 Y101.059 E0.03816
G1 X143.190 Y102.418 E0.04329
G1 X143.331 Y103.787 E0.04318
G1 X143.372 Y105.004 E0.03816
G1 X143.327 Y106.292 E0.04043
G1 X143.177 Y107.665 E0.04329
G1 X142.962 Y108.863 E0.03816
G1 X142.665 Y110.044 E0.03816
G1 X142.239 Y111.353 E0.04318
G1 X141.714 Y112.626 E0.04317
G1 X141.173 Y113.716 E0.03816
G1 X140.558 Y114.771 E0.03828
G1 X139.758 Y115.943 E0.04449
G1 X138.980 Y116.923 E0.03924
G1 X138.159 Y117.821 E0.03816
G1 X137.166 Y118.769 E0.04306
G1 X136.097 Y119.643 E0.04329
G1 X135.104 Y120.347 E0.03816
G1 X134.065 Y120.982 E0.03816
G1 X132.843 Y121.617 E0.04317
G1 X131.576 Y122.157 E0.04317
G1 X130.427 Y122.556 E0.03816
G1 X129.252 Y122.876 E0.03816
G1 X127.894 Y123.147 E0.04341
G1 X126.619 Y123.305 E0.04031
G1 X125.403 Y123.371 E0.03816
G1 X124.026 Y123.352 E0.04317
G1 X122.651 Y123.226 E0.04329
G1 X121.450 Y123.032 E0.03816
G1 X120.260 Y122.756 E0.03828
G1 X118.879 Y122.329 E0.04532
G1 X117.738 Y121.884 E0.03840
G1 X116.641 Y121.367 E0.03804
G1 X115.435 Y120.694 E0.04329
G1 X114.284 Y119.931 E0.04330
G1 X113.321 Y119.193 E0.03804
G1 X112.408 Y118.388 E0.03816
G1 X111.437 Y117.406 E0.04329
G1 X110.601 Y116.425 E0.04043
G1 X109.877 Y115.446 E0.03816
G1 X109.134 Y114.282 E0.04329
G1 X108.483 Y113.064 E0.04330
G1 X107.985 Y111.954 E0.03816
G1 X107.539 Y110.744 E0.04043
G1 X107.158 Y109.417 E0.04329
G1 X106.903 Y108.227 E0.03816
G1 X106.731 Y107.026 E0.03804
G1 X106.629 Y105.649 E0.04329
G1 X106.634 Y104.268 E0.04330
G1 X106.721 Y103.058 E0.03804
G1 X106.892 Y101.845 E0.03840
G1 X107.196 Y100.432 E0.04532
G1 X107.537 Y99.260 E0.03828
G1 X107.957 Y98.117 E0.03816
G1 X108.519 Y96.860 E0.04317
G1 X109.176 Y95.650 E0.04318
G1 X109.829 Y94.622 E0.03816
G1 X110.562 Y93.626 E0.03879
G1 F5760
G1 X111.495 Y92.533 E-0.49768
G1 F5760
G1 X112.026 Y91.994 E-0.26232
G1 E-0.04000 F2100.00000
G1 X119.000 Y99.755 F7200.000
G1 E0.80000 F2100.00000
G1 F1680
G1 X119.592 Y99.147 E0.02658
G1 X120.245 Y98.606 E0.02658
G1 X120.951 Y98.137 E0.02658
G1 X121.704 Y97.746 E0.02658
G1 X122.493 Y97.438 E0.02658
G1 X123.311 Y97.214 E0.02658
G1 X124.148 Y97.080 E0.02658
G1 X124.942 Y97.037 E0.02493
G1 X125.839 Y97.079 E0.02813
G1 X126.679 Y97.214 E0.02669
G1 X127.497 Y97.438 E0.02658
G1 X128.286 Y97.746 E0.02658
G1 X129.039 Y98.137 E0.02658
G1 X129.745 Y98.606 E0.02658
G1 X130.398 Y99.147 E0.02658
G1 X130.990 Y99.755 E0.02659
G1 X131.513 Y100.422 E0.02658
G1 X131.963 Y101.140 E0.02659
G1 X132.334 Y101.903 E0.02658
G1 X132.621 Y102.700 E0.02658
G1 X132.823 Y103.524 E0.02659
G1 X132.935 Y104.364 E0.02658
G1 X132.958 Y105.212 E0.02658
G1 X132.890 Y106.057 E0.02658
G1 X132.733 Y106.890 E0.02658
G1 X132.488 Y107.702 E0.02658
G1 X132.159 Y108.483 E0.02659
G1 X131.748 Y109.225 E0.02658
G1 X131.260 Y109.919 E0.02658
G1 X130.702 Y110.557 E0.02659
G1 X130.079 Y111.132 E0.02658
G1 X129.398 Y111.638 E0.02658
G1 X128.668 Y112.068 E0.02659
G1 X127.896 Y112.419 E0.02658
G1 X127.091 Y112.685 E0.02659
G1 X126.262 Y112.864 E0.02658
G1 X125.419 Y112.954 E0.02659
G1 X124.571 Y112.954 E0.02658
G1 X123.728 Y112.864 E0.02659
G1 X122.899 Y112.685 E0.02658
G1 X122.094 Y112.419 E0.02658
G1 X121.322 Y112.068 E0.02659
G1 X120.592 Y111.638 E0.02658
G1 X119.911 Y111.132 E0.02658
G1 X119.288 Y110.557 E0.02658
G1 X118.730 Y109.919 E0.02659
G1 X118.242 Y109.225 E0.02658
G1 X117.832 Y108.483 E0.02658
G1 X117.502 Y107.702 E0.02658
G1 X117.257 Y106.890 E0.02658
G1 X117.100 Y106.057 E0.02658
G1 X117.032 Y105.212 E0.02658
G1 X117.055 Y104.364 E0.02658
G1 X117.167 Y103.524 E0.02658
G1 X117.369 Y102.700 E0.02658
G1 X117.656 Y101.903 E0.02658
G1 X118.027 Y101.140 E0.02658
G1 X118.477 Y100.422 E0.02658
G1 X118.963 Y99.802 E0.02470
G1 X119.285 Y100.003 F7200.000
G1 F1680
G1 X119.848 Y99.425 E0.02532
G1 X120.470 Y98.909 E0.02532
G1 X121.143 Y98.463 E0.02532
G1 X121.860 Y98.090 E0.02532
G1 X122.612 Y97.796 E0.02532
G1 X123.391 Y97.584 E0.02532
G1 X124.188 Y97.455 E0.02532
G1 X124.943 Y97.415 E0.02371
G1 X125.800 Y97.455 E0.02687
G1 X126.599 Y97.584 E0.02539
G1 X127.378 Y97.796 E0.02532
G1 X128.130 Y98.090 E0.02532
G1 X128.847 Y98.463 E0.02532
G1 X129.520 Y98.909 E0.02532
G1 X130.142 Y99.425 E0.02532
G1 X130.705 Y100.003 E0.02532
G1 X131.204 Y100.639 E0.02532
G1 X131.633 Y101.323 E0.02532
G1 X131.986 Y102.050 E0.02532
G1 X132.260 Y102.809 E0.02532
G1 X132.452 Y103.594 E0.02532
G1 X132.559 Y104.395 E0.02532
G1 X132.580 Y105.202 E0.02532
G1 X132.516 Y106.007 E0.02532
G1 X132.366 Y106.801 E0.02532
G1 X132.133 Y107.574 E0.02532
G1 X131.819 Y108.318 E0.02532
G1 X131.428 Y109.025 E0.02532
G1 X130.963 Y109.686 E0.02532
G1 X130.431 Y110.294 E0.02533
G1 X129.838 Y110.841 E0.02532
G1 X129.190 Y111.323 E0.02532
G1 X128.494 Y111.733 E0.02532
G1 X127.758 Y112.067 E0.02532
G1 X126.991 Y112.321 E0.02532
G1 X126.202 Y112.491 E0.02532
G1 X125.399 Y112.577 E0.02532
G1 X124.591 Y112.577 E0.02532
G1 X123.788 Y112.491 E0.02532
G1 X122.999 Y112.321 E0.02532
G1 X122.232 Y112.067 E0.02532
G1 X121.496 Y111.733 E0.02532
G1 X120.800 Y111.323 E0.02532
G1 X120.152 Y110.841 E0.02532
G1 X119.559 Y110.294 E0.02532
G1 X119.027 Y109.686 E0.02532
G1 X118.562 Y109.025 E0.02532
G1 X118.171 Y108.318 E0.02532
G1 X117.857 Y107.574 E0.02532
G1 X117.624 Y106.801 E0.02532
G1 X117.474 Y106.007 E0.02532
G1 X117.410 Y105.202 E0.02532
G1 X117.431 Y104.395 E0.02532
G1 X117.538 Y103.594 E0.02532
G1 X117.730 Y102.809 E0.02532
G1 X118.004 Y102.050 E0.02532
G1 X118.357 Y101.323 E0.02532
G1 X118.786 Y100.639 E0.02532
G1 X119.248 Y100.050 E0.02344
G1 X119.569 Y100.252 F7200.000
G1 F1050
G1 X120.104 Y99.702 E0.02406
G1 X120.695 Y99.212 E0.02406
G1 X121.335 Y98.788 E0.02406
G1 X122.016 Y98.434 E0.02406
G1 X122.730 Y98.155 E0.02406
G1 X123.471 Y97.953 E0.02406
G1 X124.229 Y97.831 E0.02406
G1 X124.945 Y97.792 E0.02248
G1 X125.761 Y97.830 E0.02561
G1 X126.519 Y97.953 E0.02409
G1 X127.260 Y98.155 E0.02406
G1 X127.974 Y98.434 E0.02406
G1 X128.655 Y98.788 E0.02406
G1 X129.295 Y99.212 E0.02406
G1 X129.886 Y99.702 E0.02406
G1 X130.421 Y100.252 E0.02406
G1 X130.895 Y100.856 E0.02406
G1 X131.302 Y101.506 E0.02406
G1 X131.638 Y102.196 E0.02406
G1 X131.898 Y102.918 E0.02406
G1 X132.080 Y103.664 E0.02406
G1 X132.182 Y104.425 E0.02406
G1 X132.203 Y105.192 E0.02406
G1 X132.142 Y105.957 E0.02406
G1 X131.999 Y106.711 E0.02406
G1 X131.778 Y107.446 E0.02406
G1 X131.479 Y108.153 E0.02406
G1 X131.107 Y108.824 E0.02406
G1 X130.666 Y109.453 E0.02406
G1 X130.161 Y110.030 E0.02406
G1 X129.597 Y110.551 E0.02406
G1 X128.981 Y111.008 E0.02406
G1 X128.320 Y111.398 E0.02406
G1 X127.621 Y111.715 E0.02406
G1 X126.892 Y111.956 E0.02406
G1 X126.142 Y112.119 E0.02406
G1 X125.379 Y112.200 E0.02406
G1 X124.611 Y112.200 E0.02406
G1 X123.848 Y112.119 E0.02406
G1 X123.098 Y111.956 E0.02406
G1 X122.369 Y111.715 E0.02406
G1 X121.670 Y111.398 E0.02406
G1 X121.009 Y111.008 E0.02406
G1 X120.393 Y110.551 E0.02406
G1 X119.829 Y110.030 E0.02406
G1 X119.324 Y109.453 E0.02406
G1 X118.883 Y108.824 E0.02406
G1 X118.511 Y108.153 E0.02406
G1 X118.212 Y107.446 E0.02406
G1 X117.991 Y106.711 E0.02406
G1 X117.849 Y105.957 E0.02406
G1 X117.787 Y105.192 E0.02406
G1 X117.808 Y104.425 E0.02406
G1 X117.910 Y103.664 E0.02406
G1 X118.092 Y102.918 E0.02406
G1 X118.352 Y102.196 E0.02406
G1 X118.688 Y101.506 E0.02406
G1 X119.095 Y100.856 E0.02406
G1 X119.532 Y100.299 E0.02218
G1 X119.440 Y99.873 F7200.000
G1 F5760
G1 X120.104 Y99.702 E-0.28650
G1 F5760
G1 X120.695 Y99.212 E-0.26582
G1 F5760
G1 X121.195 Y98.881 E-0.20768
G1 E-0.04000 F2100.00000
G1 X113.907 Y94.846 F7200.000
G1 E0.80000 F2100.00000
G1 F1680
G1 X114.649 Y94.091 E0.03318
G1 X115.444 Y93.388 E0.03327
G1 X116.200 Y92.810 E0.02983
G1 X117.176 Y92.158 E0.03681
G1 X118.098 Y91.640 E0.03318
G1 X119.058 Y91.187 E0.03327
G1 X120.047 Y90.802 E0.03327
G1 X121.061 Y90.489 E0.03327
G1 X122.094 Y90.247 E0.03327
G1 X123.142 Y90.079 E0.03327
G1 X124.199 Y89.986 E0.03327
G1 X125.260 Y89.967 E0.03327
G1 X126.210 Y90.017 E0.02983
G1 X127.376 Y90.155 E0.03681
G1 X128.415 Y90.359 E0.03318
G1 X129.439 Y90.636 E0.03327
G1 X130.441 Y90.986 E0.03327
G1 X131.416 Y91.405 E0.03327
G1 X132.359 Y91.892 E0.03327
G1 X133.171 Y92.387 E0.02983
G1 X134.133 Y93.060 E0.03681
G1 X134.950 Y93.732 E0.03318
G1 X135.720 Y94.463 E0.03327
G1 X136.437 Y95.245 E0.03327
G1 X137.096 Y96.077 E0.03327
G1 X137.695 Y96.953 E0.03327
G1 X138.231 Y97.869 E0.03327
G1 X138.701 Y98.820 E0.03327
G1 X139.103 Y99.802 E0.03327
G1 X139.435 Y100.810 E0.03327
G1 X139.694 Y101.839 E0.03327
G1 X139.881 Y102.884 E0.03327
G1 X139.981 Y103.830 E0.02983
G1 X140.030 Y105.003 E0.03681
G1 X139.993 Y106.061 E0.03318
G1 X139.881 Y107.116 E0.03327
G1 X139.714 Y108.052 E0.02983
G1 X139.434 Y109.193 E0.03681
G1 X139.103 Y110.198 E0.03318
G1 X138.701 Y111.180 E0.03327
G1 X138.231 Y112.131 E0.03327
G1 X137.695 Y113.047 E0.03327
G1 X137.096 Y113.923 E0.03327
G1 X136.437 Y114.755 E0.03327
G1 X135.720 Y115.537 E0.03327
G1 X134.950 Y116.268 E0.03327
G1 X134.130 Y116.942 E0.03327
G1 X133.265 Y117.556 E0.03327
G1 X132.359 Y118.108 E0.03327
G1 X131.416 Y118.595 E0.03327
G1 X130.542 Y118.971 E0.02983
G1 X129.436 Y119.364 E0.03681
G1 X128.415 Y119.641 E0.03318
G1 X127.373 Y119.846 E0.03327
G1 X126.320 Y119.977 E0.03327
G1 X125.260 Y120.033 E0.03327
G1 X124.199 Y120.014 E0.03327
G1 X123.142 Y119.921 E0.03327
G1 X122.094 Y119.753 E0.03327
G1 X121.061 Y119.511 E0.03327
G1 X120.047 Y119.198 E0.03327
G1 X119.058 Y118.813 E0.03327
G1 X118.098 Y118.360 E0.03327
G1 X117.173 Y117.840 E0.03327
G1 X116.287 Y117.257 E0.03327
G1 X115.531 Y116.679 E0.02983
G1 X114.646 Y115.907 E0.03681
G1 X113.905 Y115.152 E0.03318
G1 X113.216 Y114.345 E0.03327
G1 X112.587 Y113.491 E0.03327
G1 X112.019 Y112.594 E0.03327
G1 X111.515 Y111.660 E0.03327
G1 X111.079 Y110.692 E0.03327
G1 X110.712 Y109.697 E0.03327
G1 X110.416 Y108.677 E0.03327
G1 X110.193 Y107.640 E0.03327
G1 X110.044 Y106.589 E0.03327
G1 X109.969 Y105.531 E0.03327
G1 X109.969 Y104.469 E0.03327
G1 X110.044 Y103.411 E0.03327
G1 X110.193 Y102.360 E0.03327
G1 X110.416 Y101.323 E0.03327
G1 X110.712 Y100.303 E0.03327
G1 X111.079 Y99.308 E0.03327
G1 X111.515 Y98.340 E0.03327
G1 X112.019 Y97.406 E0.03327
G1 X112.587 Y96.509 E0.03327
G1 X113.151 Y95.744 E0.02983
G1 X113.868 Y94.891 E0.03493
G1 X113.628 Y94.592 F7200.000
G1 F1680
G1 X114.389 Y93.817 E0.03405
G1 X115.204 Y93.097 E0.03411
G1 X115.980 Y92.503 E0.03063
G1 X116.978 Y91.836 E0.03764
G1 X117.925 Y91.305 E0.03405
G1 X118.909 Y90.840 E0.03411
G1 X119.923 Y90.446 E0.03411
G1 X120.962 Y90.124 E0.03411
G1 X122.022 Y89.877 E0.03411
G1 X123.096 Y89.705 E0.03411
G1 X124.179 Y89.609 E0.03411
G1 X125.267 Y89.590 E0.03411
G1 X126.242 Y89.642 E0.03063
G1 X127.435 Y89.782 E0.03764
G1 X128.500 Y89.991 E0.03405
G1 X129.550 Y90.276 E0.03411
G1 X130.578 Y90.634 E0.03411
G1 X131.577 Y91.064 E0.03411
G1 X132.544 Y91.563 E0.03411
G1 X133.378 Y92.071 E0.03063
G1 X134.361 Y92.760 E0.03764
G1 X135.200 Y93.450 E0.03405
G1 X135.989 Y94.198 E0.03411
G1 X136.724 Y95.001 E0.03411
G1 X137.400 Y95.853 E0.03411
G1 X138.014 Y96.751 E0.03411
G1 X138.564 Y97.690 E0.03411
G1 X139.045 Y98.665 E0.03411
G1 X139.457 Y99.672 E0.03411
G1 X139.797 Y100.705 E0.03411
G1 X140.063 Y101.760 E0.03411
G1 X140.254 Y102.831 E0.03411
G1 X140.357 Y103.802 E0.03063
G1 X140.407 Y105.002 E0.03764
G1 X140.369 Y106.087 E0.03405
G1 X140.254 Y107.169 E0.03411
G1 X140.083 Y108.131 E0.03063
G1 X139.797 Y109.297 E0.03764
G1 X139.457 Y110.328 E0.03405
G1 X139.045 Y111.335 E0.03411
G1 X138.564 Y112.310 E0.03411
G1 X138.014 Y113.249 E0.03411
G1 X137.400 Y114.147 E0.03411
G1 X136.724 Y114.999 E0.03411
G1 X135.989 Y115.802 E0.03411
G1 X135.200 Y116.550 E0.03411
G1 X134.360 Y117.241 E0.03411
