; generated by Slic3r 1.33.8-prusa3d-win64 on 2017-04-02 at 08:17:25

; external perimeters extrusion width = 0.45mm
; perimeters extrusion width = 0.45mm
; infill extrusion width = 0.45mm
; solid infill extrusion width = 0.45mm
; top infill extrusion width = 0.45mm

M115 U3.0.10 ; tell printer latest fw version
M83  ; extruder relative mode
M104 S255 ; set extruder temp
M140 S100 ; set bed temp
M190 S100 ; wait for bed temp
M109 S255 ; wait for extruder temp
G28 W ; home all without mesh bed level
G80 ; mesh bed leveling
G1 Y-3.0 F1000.0 ; go outside pritn area
G1 X60.0 E9.0  F1000.0 ; intro line
G1 X100.0 E12.5  F1000.0 ; intro line
G21 ; set units to millimeters
G90 ; use absolute coordinates
M83 ; use relative distances for extrusion
G1 E-0.80000 F2100.00000
G1 Z0.200 F7200.000
G1 X110.528 Y107.132 F7200.000
G1 E0.80000 F2100.00000
M204 S1000
G1 F2100
G1 X118.696 Y98.705 E0.36797
G1 X119.085 Y98.338 E0.01677
G1 X119.444 Y98.037 E0.01469
G1 X119.955 Y97.657 E0.01996
G1 X120.383 Y97.381 E0.01597
G1 X120.790 Y97.149 E0.01469
G1 X121.358 Y96.870 E0.01983
G1 X121.836 Y96.672 E0.01623
G1 X122.286 Y96.515 E0.01495
G1 X122.947 Y96.332 E0.02150
G1 X123.405 Y96.235 E0.01469
G1 X123.925 Y96.156 E0.01649
G1 X124.453 Y96.108 E0.01662
G1 X124.925 Y96.092 E0.01482
G1 X125.606 Y96.112 E0.02137
G1 X126.077 Y96.156 E0.01482
G1 X126.580 Y96.233 E0.01597
G1 X127.139 Y96.352 E0.01790
G1 X127.716 Y96.516 E0.01880
G1 X128.236 Y96.701 E0.01733
G1 X128.655 Y96.876 E0.01423
G1 X129.073 Y97.078 E0.01456
G1 X129.597 Y97.369 E0.01880
G1 X130.060 Y97.667 E0.01726
G1 X130.503 Y97.994 E0.01726
G1 X130.964 Y98.383 E0.01893
G1 X131.299 Y98.700 E0.01444
G1 X131.612 Y99.031 E0.01430
G1 X143.545 Y111.757 E0.54700
G1 X143.967 Y112.264 E0.02069
G1 X144.247 Y112.645 E0.01482
G1 X144.509 Y113.048 E0.01507
G1 X144.798 Y113.555 E0.01829
G1 X145.035 Y114.042 E0.01700
G1 X145.245 Y114.547 E0.01713
G1 X145.422 Y115.060 E0.01700
G1 X145.566 Y115.578 E0.01687
G1 X145.680 Y116.112 E0.01713
G1 X145.761 Y116.648 E0.01700
G1 X145.812 Y117.246 E0.01880
G1 X145.823 Y117.790 E0.01707
G1 X145.768 Y118.698 E0.02852
G1 X145.683 Y119.288 E0.01867
G1 X145.581 Y119.770 E0.01546
G1 X145.425 Y120.345 E0.01867
G1 X145.249 Y120.858 E0.01700
G1 X145.040 Y121.362 E0.01713
G1 X144.802 Y121.850 E0.01701
G1 X144.497 Y122.385 E0.01931
G1 X144.243 Y122.774 E0.01456
G1 X143.944 Y123.181 E0.01584
G1 X133.131 Y137.037 E0.55107
G1 X132.818 Y137.412 E0.01533
G1 X132.500 Y137.751 E0.01456
G1 X132.055 Y138.176 E0.01931
G1 X131.582 Y138.565 E0.01919
G1 X131.208 Y138.840 E0.01456
G1 X130.808 Y139.099 E0.01495
G1 X130.298 Y139.391 E0.01841
G1 X129.800 Y139.634 E0.01739
G1 X129.295 Y139.842 E0.01713
G1 X128.727 Y140.035 E0.01880
G1 X128.199 Y140.177 E0.01713
G1 X127.753 Y140.271 E0.01430
G1 X127.294 Y140.342 E0.01456
G1 X126.697 Y140.400 E0.01880
G1 X126.151 Y140.417 E0.01713
G1 X125.597 Y140.400 E0.01739
G1 X125.000 Y140.343 E0.01880
G1 X124.461 Y140.256 E0.01713
G1 X124.015 Y140.159 E0.01430
G1 X123.571 Y140.036 E0.01443
G1 X123.003 Y139.845 E0.01880
G1 X122.498 Y139.636 E0.01713
G1 X122.003 Y139.395 E0.01726
G1 X121.503 Y139.112 E0.01803
G1 X121.083 Y138.839 E0.01572
G1 X120.656 Y138.525 E0.01662
G1 X120.245 Y138.183 E0.01675
G1 X119.903 Y137.863 E0.01469
G1 X105.994 Y124.472 E0.60538
G1 X105.600 Y124.056 E0.01796
G1 X105.261 Y123.649 E0.01662
G1 X104.938 Y123.213 E0.01700
G1 X104.672 Y122.803 E0.01533
G1 X104.381 Y122.293 E0.01841
G1 X104.148 Y121.817 E0.01661
G1 X103.937 Y121.313 E0.01713
G1 X103.783 Y120.871 E0.01469
G1 X103.594 Y120.194 E0.02201
G1 X103.496 Y119.724 E0.01507
G1 X103.411 Y119.147 E0.01829
G1 X103.369 Y118.668 E0.01507
G1 X103.354 Y118.130 E0.01687
G1 X103.370 Y117.600 E0.01662
G1 X103.420 Y117.060 E0.01700
G1 X103.500 Y116.532 E0.01674
G1 X103.612 Y116.010 E0.01675
G1 X103.756 Y115.496 E0.01674
G1 X103.926 Y114.999 E0.01649
G1 X104.171 Y114.415 E0.01983
G1 X104.377 Y113.995 E0.01469
G1 X104.632 Y113.544 E0.01623
G1 X104.970 Y113.025 E0.01944
G1 X105.249 Y112.648 E0.01469
G1 X105.545 Y112.290 E0.01456
G1 X110.486 Y107.175 E0.22300
G1 X110.757 Y107.437 F7200.000
G1 F2100
G1 X118.962 Y98.972 E0.36965
G1 X119.397 Y98.567 E0.01862
G1 X119.745 Y98.279 E0.01416
G1 X120.157 Y97.976 E0.01604
G1 X120.580 Y97.702 E0.01580
G1 X120.975 Y97.478 E0.01425
G1 X121.509 Y97.215 E0.01866
G1 X121.968 Y97.025 E0.01556
G1 X122.404 Y96.873 E0.01449
G1 X123.026 Y96.701 E0.02022
G1 X123.470 Y96.607 E0.01425
G1 X123.972 Y96.530 E0.01592
G1 X124.478 Y96.484 E0.01592
G1 X124.936 Y96.469 E0.01437
G1 X125.573 Y96.488 E0.01998
G1 X126.033 Y96.531 E0.01449
G1 X126.516 Y96.604 E0.01532
G1 X127.050 Y96.718 E0.01712
G1 X127.600 Y96.875 E0.01795
G1 X128.439 Y97.193 E0.02813
G1 X128.952 Y97.439 E0.01783
G1 X129.421 Y97.703 E0.01687
G1 X129.897 Y98.014 E0.01783
G1 X130.316 Y98.327 E0.01640
G1 X130.981 Y98.917 E0.02789
G1 X143.269 Y112.014 E0.56308
G1 X143.667 Y112.491 E0.01947
G1 X143.937 Y112.861 E0.01437
G1 X144.191 Y113.252 E0.01461
G1 X144.465 Y113.733 E0.01735
G1 X144.693 Y114.199 E0.01627
G1 X144.893 Y114.682 E0.01640
G1 X145.061 Y115.169 E0.01616
G1 X145.199 Y115.666 E0.01616
G1 X145.309 Y116.177 E0.01640
G1 X145.386 Y116.691 E0.01628
G1 X145.435 Y117.257 E0.01783
G1 X145.446 Y117.776 E0.01627
G1 X145.393 Y118.664 E0.02789
G1 X145.311 Y119.227 E0.01783
G1 X145.213 Y119.690 E0.01485
G1 X145.064 Y120.235 E0.01771
G1 X144.895 Y120.726 E0.01628
G1 X144.695 Y121.209 E0.01640
G1 X144.464 Y121.683 E0.01652
G1 X144.180 Y122.180 E0.01794
G1 X143.934 Y122.557 E0.01413
G1 X143.645 Y122.951 E0.01532
G1 X132.839 Y136.799 E0.55076
G1 X132.534 Y137.164 E0.01489
G1 X132.226 Y137.493 E0.01413
G1 X131.806 Y137.892 E0.01818
G1 X131.356 Y138.264 E0.01831
G1 X130.992 Y138.530 E0.01413
G1 X130.604 Y138.782 E0.01449
G1 X130.117 Y139.060 E0.01759
G1 X129.647 Y139.289 E0.01640
G1 X129.160 Y139.490 E0.01652
G1 X128.621 Y139.672 E0.01783
G1 X127.754 Y139.886 E0.02801
G1 X127.238 Y139.969 E0.01640
G1 X126.672 Y140.024 E0.01783
G1 X126.149 Y140.040 E0.01640
G1 X125.623 Y140.024 E0.01652
G1 X125.057 Y139.970 E0.01783
G1 X124.538 Y139.886 E0.01648
G1 X123.669 Y139.672 E0.02804
G1 X123.131 Y139.490 E0.01783
G1 X122.647 Y139.290 E0.01640
G1 X122.174 Y139.059 E0.01652
G1 X121.693 Y138.785 E0.01735
G1 X121.296 Y138.527 E0.01485
G1 X120.887 Y138.227 E0.01592
G1 X120.496 Y137.902 E0.01592
G1 X120.162 Y137.589 E0.01437
G1 X106.256 Y124.200 E0.60523
G1 X105.881 Y123.804 E0.01711
G1 X105.553 Y123.411 E0.01604
G1 X105.245 Y122.994 E0.01628
G1 X104.989 Y122.600 E0.01473
G1 X104.713 Y122.116 E0.01747
G1 X104.490 Y121.660 E0.01592
G1 X104.289 Y121.177 E0.01640
G1 X104.140 Y120.748 E0.01425
G1 X103.963 Y120.116 E0.02057
G1 X103.868 Y119.664 E0.01449
G1 X103.786 Y119.108 E0.01759
G1 X103.746 Y118.648 E0.01449
G1 X103.731 Y118.133 E0.01616
G1 X103.746 Y117.625 E0.01592
G1 X103.794 Y117.105 E0.01640
G1 X103.871 Y116.603 E0.01592
G1 X103.979 Y116.099 E0.01616
G1 X104.117 Y115.602 E0.01616
G1 X104.284 Y115.119 E0.01604
G1 X104.512 Y114.577 E0.01843
G1 X104.712 Y114.169 E0.01425
G1 X104.958 Y113.733 E0.01568
G1 X105.277 Y113.244 E0.01831
G1 X105.547 Y112.879 E0.01425
G1 X105.837 Y112.529 E0.01425
G1 X110.715 Y107.480 E0.22013
G1 F5760
G1 X112.242 Y105.905 E-0.76000
G1 E-0.04000 F2100.00000
G1 X119.844 Y106.177 F7200.000
G1 E0.80000 F2100.00000
G1 F840
G1 X119.733 Y105.466 E0.02258
G1 X119.713 Y105.091 E0.01176
G1 X119.720 Y104.716 E0.01176
G1 X119.805 Y104.012 E0.02224
G1 X119.891 Y103.636 E0.01208
G1 X120.123 Y102.955 E0.02256
G1 X120.446 Y102.312 E0.02256
G1 X120.654 Y101.988 E0.01208
G1 X121.103 Y101.425 E0.02256
G1 X121.624 Y100.930 E0.02256
G1 X121.930 Y100.695 E0.01208
G1 X122.534 Y100.323 E0.02224
G1 X122.872 Y100.160 E0.01176
G1 X123.220 Y100.021 E0.01176
G1 X123.903 Y99.827 E0.02224
G1 X124.282 Y99.761 E0.01207
G1 X124.985 Y99.712 E0.02211
G1 X125.717 Y99.761 E0.02300
G1 X126.097 Y99.827 E0.01210
G1 X126.790 Y100.024 E0.02256
G1 X127.448 Y100.313 E0.02256
G1 X127.783 Y100.504 E0.01208
G1 X128.360 Y100.917 E0.02224
G1 X128.641 Y101.166 E0.01176
G1 X128.904 Y101.433 E0.01176
G1 X129.352 Y101.996 E0.02256
G1 X129.719 Y102.615 E0.02256
G1 X129.880 Y102.965 E0.01208
G1 X130.112 Y103.646 E0.02256
G1 X130.248 Y104.353 E0.02256
G1 X130.281 Y104.736 E0.01208
G1 X130.269 Y105.446 E0.02224
G1 X130.223 Y105.828 E0.01208
G1 X130.065 Y106.520 E0.02224
G1 X129.941 Y106.885 E0.01208
G1 X129.644 Y107.529 E0.02224
G1 X129.447 Y107.860 E0.01208
G1 X129.024 Y108.430 E0.02224
G1 X128.764 Y108.714 E0.01208
G1 X128.225 Y109.191 E0.02256
G1 X127.626 Y109.589 E0.02256
G1 X127.294 Y109.764 E0.01176
G1 X126.951 Y109.915 E0.01176
G1 X126.266 Y110.135 E0.02256
G1 X125.557 Y110.258 E0.02256
G1 X125.173 Y110.285 E0.01207
G1 X124.478 Y110.262 E0.02178
G1 X124.083 Y110.208 E0.01252
G1 X123.393 Y110.038 E0.02227
G1 X123.030 Y109.907 E0.01208
G1 X122.391 Y109.600 E0.02224
G1 X122.063 Y109.397 E0.01208
G1 X121.501 Y108.965 E0.02224
G1 X121.229 Y108.706 E0.01176
G1 X120.976 Y108.430 E0.01176
G1 X120.553 Y107.860 E0.02224
G1 X120.356 Y107.529 E0.01207
G1 X120.061 Y106.889 E0.02211
G1 X119.862 Y106.235 E0.02144
G1 X120.213 Y106.093 F7200.000
G1 F840
G1 X120.108 Y105.427 E0.02114
G1 X120.091 Y105.085 E0.01074
G1 X120.097 Y104.742 E0.01074
G1 X120.177 Y104.077 E0.02102
G1 X120.254 Y103.739 E0.01086
G1 X120.471 Y103.101 E0.02113
G1 X120.774 Y102.499 E0.02113
G1 X120.961 Y102.208 E0.01086
G1 X121.381 Y101.681 E0.02113
G1 X121.870 Y101.217 E0.02113
G1 X122.144 Y101.006 E0.01086
G1 X122.715 Y100.654 E0.02102
G1 X123.024 Y100.505 E0.01074
G1 X123.342 Y100.378 E0.01074
G1 X123.987 Y100.195 E0.02102
G1 X124.328 Y100.136 E0.01085
G1 X124.986 Y100.090 E0.02069
G1 X125.672 Y100.136 E0.02156
G1 X126.013 Y100.195 E0.01086
G1 X126.662 Y100.379 E0.02113
G1 X127.279 Y100.651 E0.02113
G1 X127.580 Y100.822 E0.01086
G1 X128.125 Y101.212 E0.02102
G1 X128.381 Y101.439 E0.01074
G1 X128.621 Y101.684 E0.01074
G1 X129.041 Y102.211 E0.02113
G1 X129.385 Y102.790 E0.02113
G1 X129.530 Y103.105 E0.01086
G1 X129.747 Y103.743 E0.02113
G1 X129.874 Y104.405 E0.02113
G1 X129.904 Y104.749 E0.01086
G1 X129.892 Y105.420 E0.02102
G1 X129.851 Y105.763 E0.01086
G1 X129.701 Y106.417 E0.02102
G1 X129.590 Y106.745 E0.01086
G1 X129.310 Y107.353 E0.02102
G1 X129.133 Y107.651 E0.01086
G1 X128.733 Y108.189 E0.02102
G1 X128.499 Y108.445 E0.01086
G1 X127.995 Y108.891 E0.02113
G1 X127.434 Y109.265 E0.02113
G1 X127.130 Y109.424 E0.01074
G1 X126.817 Y109.562 E0.01074
G1 X126.175 Y109.768 E0.02113
G1 X125.511 Y109.884 E0.02113
G1 X125.166 Y109.907 E0.01085
G1 X124.510 Y109.885 E0.02057
G1 X124.153 Y109.837 E0.01129
G1 X123.502 Y109.676 E0.02103
G1 X123.176 Y109.559 E0.01086
G1 X122.573 Y109.268 E0.02102
G1 X122.278 Y109.087 E0.01086
G1 X121.747 Y108.678 E0.02102
G1 X121.267 Y108.189 E0.02147
G1 X120.867 Y107.651 E0.02102
G1 X120.691 Y107.353 E0.01085
G1 X120.414 Y106.754 E0.02069
G1 X120.230 Y106.150 E0.01980
G1 X119.830 Y105.975 F7200.000
G1 X119.685 Y106.656 F7200.000
G1 F840
G1 X119.523 Y105.995 E0.02134
G1 X119.474 Y105.669 E0.01036
G1 X119.433 Y104.992 E0.02126
G1 X119.444 Y104.661 E0.01037
G1 X119.525 Y103.997 E0.02099
G1 X119.685 Y103.344 E0.02108
G1 X119.924 Y102.715 E0.02108
G1 X120.240 Y102.112 E0.02136
G1 X120.418 Y101.838 E0.01025
G1 X120.619 Y101.565 E0.01064
G1 X121.064 Y101.064 E0.02099
G1 X121.574 Y100.612 E0.02136
G1 X121.830 Y100.423 E0.00999
G1 X122.413 Y100.071 E0.02136
G1 X123.034 Y99.792 E0.02136
G1 X123.335 Y99.688 E0.00999
G1 X123.997 Y99.525 E0.02136
G1 X124.672 Y99.443 E0.02134
G1 X125.002 Y99.433 E0.01036
G1 X125.671 Y99.474 E0.02099
G1 X126.341 Y99.597 E0.02136
G1 X126.648 Y99.682 E0.00999
G1 X127.293 Y99.927 E0.02163
G1 X127.579 Y100.066 E0.00999
G1 X128.162 Y100.419 E0.02136
G1 X128.698 Y100.839 E0.02135
G1 X129.168 Y101.310 E0.02088
G1 X129.587 Y101.845 E0.02127
G1 X129.760 Y102.112 E0.00999
G1 X130.076 Y102.715 E0.02136
G1 X130.315 Y103.344 E0.02108
G1 X130.478 Y104.005 E0.02136
G1 X130.525 Y104.320 E0.00999
G1 X130.567 Y105.000 E0.02136
G1 X130.525 Y105.680 E0.02136
G1 X130.478 Y105.995 E0.00999
G1 X130.315 Y106.656 E0.02136
G1 X130.076 Y107.285 E0.02108
G1 X129.760 Y107.888 E0.02136
G1 X129.582 Y108.163 E0.01027
G1 X129.388 Y108.426 E0.01027
G1 X128.930 Y108.943 E0.02163
G1 X128.698 Y109.161 E0.00999
G1 X128.162 Y109.581 E0.02135
G1 X127.579 Y109.934 E0.02136
G1 X127.293 Y110.073 E0.00999
G1 X126.656 Y110.315 E0.02136
G1 X126.003 Y110.475 E0.02108
G1 X125.327 Y110.557 E0.02136
G1 X124.661 Y110.556 E0.02088
G1 X123.997 Y110.475 E0.02099
G1 X123.344 Y110.315 E0.02108
G1 X122.715 Y110.076 E0.02108
G1 X122.112 Y109.760 E0.02136
G1 X121.837 Y109.582 E0.01027
G1 X121.574 Y109.388 E0.01027
G1 X121.064 Y108.936 E0.02136
G1 X120.612 Y108.426 E0.02136
G1 X120.240 Y107.888 E0.02052
G1 X119.924 Y107.285 E0.02136
G1 X119.707 Y106.712 E0.01920
G1 X119.325 Y106.768 F7200.000
G1 F840
G1 X119.152 Y106.069 E0.02260
G1 X119.098 Y105.708 E0.01144
G1 X119.055 Y104.997 E0.02233
G1 X119.067 Y104.632 E0.01144
G1 X119.153 Y103.929 E0.02223
G1 X119.325 Y103.232 E0.02251
G1 X119.579 Y102.560 E0.02251
G1 X119.914 Y101.922 E0.02261
G1 X120.108 Y101.623 E0.01115
G1 X120.326 Y101.327 E0.01154
G1 X120.797 Y100.797 E0.02223
G1 X121.336 Y100.319 E0.02261
G1 X121.621 Y100.110 E0.01106
G1 X122.238 Y99.737 E0.02261
G1 X122.895 Y99.441 E0.02261
G1 X123.228 Y99.326 E0.01106
G1 X123.929 Y99.153 E0.02261
G1 X124.644 Y99.066 E0.02260
G1 X125.009 Y99.056 E0.01144
G1 X125.716 Y99.099 E0.02223
G1 X126.426 Y99.229 E0.02261
G1 X126.765 Y99.324 E0.01106
G1 X127.443 Y99.581 E0.02271
G1 X127.760 Y99.735 E0.01106
G1 X128.377 Y100.108 E0.02261
G1 X128.944 Y100.553 E0.02261
G1 X129.455 Y101.065 E0.02268
G1 X129.894 Y101.626 E0.02233
G1 X130.086 Y101.922 E0.01106
G1 X130.421 Y102.560 E0.02261
G1 X130.675 Y103.232 E0.02251
G1 X130.848 Y103.932 E0.02261
G1 X130.901 Y104.280 E0.01106
G1 X130.944 Y105.000 E0.02261
G1 X130.901 Y105.720 E0.02261
G1 X130.848 Y106.068 E0.01106
G1 X130.675 Y106.768 E0.02261
G1 X130.421 Y107.440 E0.02251
G1 X130.086 Y108.078 E0.02261
G1 X129.892 Y108.377 E0.01116
G1 X129.681 Y108.664 E0.01116
G1 X129.201 Y109.206 E0.02271
G1 X128.944 Y109.447 E0.01106
G1 X128.377 Y109.892 E0.02261
G1 X127.760 Y110.265 E0.02261
G1 X127.443 Y110.419 E0.01106
G1 X126.768 Y110.675 E0.02261
G1 X126.071 Y110.847 E0.02251
G1 X125.356 Y110.934 E0.02261
G1 X124.632 Y110.933 E0.02268
G1 X123.929 Y110.847 E0.02223
G1 X123.232 Y110.675 E0.02251
G1 X122.560 Y110.421 E0.02251
G1 X121.922 Y110.086 E0.02261
G1 X121.623 Y109.892 E0.01116
G1 X121.336 Y109.681 E0.01116
G1 X120.797 Y109.203 E0.02261
G1 X120.319 Y108.664 E0.02261
G1 X119.914 Y108.078 E0.02231
G1 X119.579 Y107.440 E0.02261
G1 X119.346 Y106.825 E0.02063
G1 X119.596 Y106.474 F7200.000
G1 F5760
G1 X119.152 Y106.069 E-0.27029
G1 F5760
G1 X119.098 Y105.708 E-0.12633
G1 F5760
G1 X119.055 Y104.997 E-0.24664
G1 F5760
G1 X119.066 Y104.660 E-0.11674
G1 E-0.04000 F2100.00000
G1 X132.038 Y115.662 F7200.000
G1 E0.80000 F2100.00000
G1 F840
G1 X132.362 Y115.019 E0.02256
G1 X132.569 Y114.695 E0.01208
G1 X133.018 Y114.132 E0.02256
G1 X133.540 Y113.637 E0.02256
G1 X133.845 Y113.402 E0.01208
G1 X134.449 Y113.030 E0.02224
G1 X134.787 Y112.867 E0.01176
G1 X135.135 Y112.728 E0.01176
G1 X135.818 Y112.535 E0.02224
G1 X136.197 Y112.468 E0.01207
G1 X136.901 Y112.419 E0.02211
G1 X137.633 Y112.468 E0.02300
G1 X138.013 Y112.535 E0.01210
G1 X138.705 Y112.731 E0.02256
G1 X139.364 Y113.020 E0.02256
G1 X139.699 Y113.211 E0.01208
G1 X140.275 Y113.624 E0.02224
G1 X140.556 Y113.873 E0.01176
G1 X140.819 Y114.140 E0.01176
G1 X141.268 Y114.703 E0.02256
G1 X141.635 Y115.322 E0.02256
