( Made using CamBam - http://www.cambam.co.uk )
( Rudis_Garderobe 3/20/2021 10:40:34 AM )
( T3 : 3.0 )
G21 G90 G64 G40
G0 Z3.0
( T3 : 3.0 )
T3 M6
( Text )
G17
M3 S1000
G0 X-28.60056 Y23.12357
G0 Z1.0
G1 F300.0 Z-2.0
G2 F800.0 X-28.80947 Y24.09817 I4.67171 J1.5111
G3 X-28.8253 Y24.21757 I-2.68383 J-0.29502
G2 X-29.93569 Y37.62865 I93.08062 J14.45828
G2 X-29.10018 Y46.29083 I52.49807 J-0.69234
G3 X-29.07359 Y46.47284 I-2.6568 J0.48107
G2 X-29.03689 Y46.62146 I0.58193 J-0.06485
G3 X-28.90059 Y46.62171 I0.06312 J2.69926
G2 X-28.74181 Y46.55997 I0.00596 J-0.2197
G3 X-28.71364 Y46.5331 I1.87741 J1.94044
G2 X-29.11856 Y42.58051 I-32.73409 J1.3564
G3 X-29.12342 Y42.54981 I2.66431 J-0.43752
G3 X-29.56318 Y37.71245 I39.65031 J-6.04324
G3 X-29.56435 Y37.6477 I2.69878 J-0.08118
G3 X-29.2337 Y29.03892 I96.88017 J-0.58977
G3 X-28.17967 Y22.94432 I32.25834 J2.44046
G3 X-26.88119 Y21.29345 I2.60434 J0.71234
G3 X-24.49129 Y20.26396 I6.42673 J11.63045
G3 X-24.41564 Y20.24105 I0.82025 J2.57239
G3 X-21.8372 Y19.8727 I2.62019 J9.13264
G3 X-21.79677 Y19.87283 I0.01187 J2.69997
G3 X-15.38829 Y20.57611 I-0.34594 J32.70178
G2 X-21.7725 Y19.32489 I-6.08325 J14.1262
G3 X-21.8483 Y19.32531 I-0.05283 J-2.69948
G2 X-24.50713 Y19.62505 I-0.09446 J11.10452
G2 X-26.68073 Y20.56829 I1.56929 J6.59229
G2 X-28.60056 Y23.12357 I2.75189 J4.06638
G0 Z3.0
G0 X-11.49844 Y21.23529
G0 Z1.0
G1 F300.0 Z-2.0
G3 F800.0 X-11.06835 Y21.6395 I-2.03588 J2.59715
G3 X-11.02867 Y20.83716 I37.64101 J1.45918
G3 X-11.49844 Y21.23529 I-2.35916 J-2.30745
G1 F300.0 X-11.84197 Y20.74337
G3 F800.0 X-12.94044 Y21.19238 I-1.54587 J-2.21366
G3 X-12.75966 Y21.24596 I-9.20228 J31.38222
G3 X-10.83435 Y23.84574 I-0.77466 J2.58648
G1 X-10.86365 Y29.79301
G3 X-10.86376 Y29.80754 I-2.69997 J-0.0133
G1 X-10.92231 Y35.48699
G2 X-10.38145 Y46.15724 I92.37431 J0.66649
G3 X-10.37155 Y46.27001 I-2.68412 J0.29239
G2 X-10.33293 Y46.44715 I0.61295 J-0.04087
G3 X-10.15059 Y46.44593 I0.10916 J2.69779
G2 X-10.02008 Y46.40731 I0.00596 J-0.2197
G3 X-10.02033 Y46.40227 I2.6967 J-0.13347
G1 X-10.54767 Y35.32805
G3 X-10.55072 Y35.19373 I2.69694 J-0.12843
G3 X-10.52136 Y28.8524 I1296.81125 J2.83302
G3 X-10.52134 Y28.84962 I2.69993 J0.0191
G2 X-10.49213 Y22.54026 I-907.5296 J-7.35627
G3 X-10.49178 Y22.49975 I2.7 J0.00311
G3 X-10.39698 Y20.38266 I37.06445 J0.59893
G3 X-10.39139 Y20.31739 I2.69274 J0.19783
G2 X-10.28642 Y18.55911 I-23.0922 J-2.26092
G3 X-10.28577 Y18.53425 I2.69937 J0.05849
G3 X-10.32396 Y18.49765 I1.8491 J-1.96744
G2 X-10.45541 Y18.44581 I-0.12732 J0.13025
G3 X-10.51445 Y18.4465 I-0.06133 J-2.6993
G2 X-10.73122 Y19.01179 I1.38824 J0.85655
G3 X-11.84197 Y20.74337 I-2.65661 J-0.48209
G1 F300.0 X-12.52902 Y19.75952
G3 F800.0 X-14.05848 Y19.87143 I-0.85882 J-1.22981
G2 X-21.79598 Y18.12512 I-7.41306 J14.83087
G3 X-21.83809 Y18.12535 I-0.02935 J-1.49971
G2 X-24.78463 Y18.45758 I-0.10467 J12.30448
G2 X-27.34836 Y19.57115 I1.84679 J7.75976
G2 X-30.00229 Y23.96705 I3.41951 J5.06353
G3 X-30.01108 Y24.03338 I-1.49102 J-0.1639
G2 X-31.13578 Y37.62986 I94.2664 J14.64246
G2 X-30.28098 Y46.50464 I53.69816 J-0.69355
G3 X-30.26621 Y46.60575 I-1.476 J0.26726
G2 X-29.85167 Y47.56492 I1.77455 J-0.19777
G2 X-29.05364 Y47.82285 I0.73562 J-0.9125
G3 X-28.93311 Y47.82127 I0.07987 J1.49787
G2 X-27.90741 Y47.42239 I0.03848 J-1.41926
G3 X-27.88741 Y47.4034 I1.04301 J1.07802
G2 X-27.51376 Y46.50531 I-0.80266 J-0.86072
G2 X-27.93442 Y42.38606 I-33.93396 J1.38418
G3 X-27.93712 Y42.369 I1.48017 J-0.24307
G3 X-28.36372 Y37.67637 I38.46401 J-5.86243
G3 X-28.36437 Y37.6404 I1.49932 J-0.0451
G3 X-28.03745 Y29.13382 I95.68019 J-0.58247
G3 X-27.02219 Y23.26091 I31.06209 J2.34556
G3 X-26.30081 Y22.34377 I1.44685 J0.39575
G3 X-24.12673 Y21.40724 I5.84635 J10.58013
G3 X-24.08471 Y21.39451 I0.45569 J1.42911
G3 X-21.83193 Y21.07269 I2.28926 J7.97918
G3 X-21.80947 Y21.07276 I0.00659 J1.49999
G3 X-13.10395 Y22.39551 I-0.33325 J31.50185
G3 X-12.03434 Y23.83983 I-0.43037 J1.43694
G1 X-12.06363 Y29.7871
G3 X-12.0637 Y29.79517 I-1.49998 J-0.00739
G1 X-12.12227 Y35.47647
G2 X-11.57439 Y46.28719 I93.57426 J0.67701
G3 X-11.56889 Y46.34984 I-1.49118 J0.16244
G2 X-11.16961 Y47.36966 I1.8103 J-0.1207
G2 X-10.31108 Y47.64748 I0.78614 J-0.96391
G3 X-10.18311 Y47.64549 I0.0873 J1.49746
G2 X-9.15741 Y47.2466 I0.03848 J-1.41926
G3 X-9.14515 Y47.23488 I1.04301 J1.07802
G2 X-8.81894 Y46.38916 I-0.7234 J-0.7648
G3 X-8.82168 Y46.34519 I1.49556 J-0.11531
G1 X-9.34903 Y35.27098
G3 X-9.35072 Y35.19635 I1.4983 J-0.07135
G3 X-9.32139 Y28.86089 I1295.61125 J2.8304
G3 X-9.32138 Y28.85934 I1.49996 J0.01061
G2 X-9.29213 Y22.54165 I-908.72956 J-7.366
G3 X-9.29194 Y22.51914 I1.5 J0.00173
G3 X-9.20021 Y20.47058 I35.8646 J0.57955
G3 X-9.1971 Y20.43432 I1.49597 J0.1099
G2 X-9.0867 Y18.5851 I-24.28649 J-2.37785
G3 X-9.08615 Y18.56545 I1.49965 J0.03249
G2 X-9.45967 Y17.66383 I-1.17617 J-0.04091
G3 X-9.48516 Y17.6395 I1.02301 J-1.09702
G2 X-10.48267 Y17.24612 I-0.96612 J0.9884
G3 X-10.5772 Y17.24528 I-0.03407 J-1.49961
G2 X-11.3553 Y17.55749 I-0.04126 J1.02288
G2 X-11.91194 Y18.79753 I2.22909 J1.74556
G3 X-12.52902 Y19.75952 I-1.4759 J-0.26783
G1 F300.0 X-11.49844 Y21.23529
G1 Z-4.0
G3 F800.0 X-11.06835 Y21.6395 I-2.03588 J2.59715
G3 X-11.02867 Y20.83716 I37.64101 J1.45918
G3 X-11.49844 Y21.23529 I-2.35916 J-2.30745
G1 F300.0 X-11.84197 Y20.74337
G3 F800.0 X-12.94044 Y21.19238 I-1.54587 J-2.21366
G3 X-12.75966 Y21.24596 I-9.20228 J31.38222
G3 X-10.83435 Y23.84574 I-0.77466 J2.58648
G1 X-10.86365 Y29.79301
G3 X-10.86376 Y29.80754 I-2.69997 J-0.0133
G1 X-10.92231 Y35.48699
G2 X-10.38145 Y46.15724 I92.37431 J0.66649
G3 X-10.37155 Y46.27001 I-2.68412 J0.29239
G2 X-10.33293 Y46.44715 I0.61295 J-0.04087
G3 X-10.15059 Y46.44593 I0.10916 J2.69779
G2 X-10.02008 Y46.40731 I0.00596 J-0.2197
G3 X-10.02033 Y46.40227 I2.6967 J-0.13347
G1 X-10.54767 Y35.32805
G3 X-10.55072 Y35.19373 I2.69694 J-0.12843
G3 X-10.52136 Y28.8524 I1296.81125 J2.83302
G3 X-10.52134 Y28.84962 I2.69993 J0.0191
G2 X-10.49213 Y22.54026 I-907.5296 J-7.35627
G3 X-10.49178 Y22.49975 I2.7 J0.00311
G3 X-10.39698 Y20.38266 I37.06445 J0.59893
G3 X-10.39139 Y20.31739 I2.69274 J0.19783
G2 X-10.28642 Y18.55911 I-23.0922 J-2.26092
G3 X-10.28577 Y18.53425 I2.69937 J0.05849
G3 X-10.32396 Y18.49765 I1.8491 J-1.96744
G2 X-10.45541 Y18.44581 I-0.12732 J0.13025
G3 X-10.51445 Y18.4465 I-0.06133 J-2.6993
G2 X-10.73122 Y19.01179 I1.38824 J0.85655
G3 X-11.84197 Y20.74337 I-2.65661 J-0.48209
G0 Z3.0
G0 X-15.38829 Y20.57611
G0 Z-1.0
G1 F300.0 Z-4.0
G2 F800.0 X-21.7725 Y19.32489 I-6.08325 J14.1262
G3 X-21.8483 Y19.32531 I-0.05283 J-2.69948
G2 X-24.50713 Y19.62505 I-0.09446 J11.10452
G2 X-26.68073 Y20.56829 I1.56929 J6.59229
G2 X-28.80947 Y24.09817 I2.75189 J4.06638
G3 X-28.8253 Y24.21757 I-2.68383 J-0.29502
G2 X-29.93569 Y37.62865 I93.08062 J14.45828
G2 X-29.10018 Y46.29083 I52.49807 J-0.69234
G3 X-29.07359 Y46.47284 I-2.6568 J0.48107
G2 X-29.03689 Y46.62146 I0.58193 J-0.06485
G3 X-28.90059 Y46.62171 I0.06312 J2.69926
G2 X-28.74181 Y46.55997 I0.00596 J-0.2197
G3 X-28.71364 Y46.5331 I1.87741 J1.94044
G2 X-29.11856 Y42.58051 I-32.73409 J1.3564
G3 X-29.12342 Y42.54981 I2.66431 J-0.43752
G3 X-29.56318 Y37.71245 I39.65031 J-6.04324
G3 X-29.56435 Y37.6477 I2.69878 J-0.08118
G3 X-29.2337 Y29.03892 I96.88017 J-0.58977
G3 X-28.17967 Y22.94432 I32.25834 J2.44046
G3 X-26.88119 Y21.29345 I2.60434 J0.71234
G3 X-24.49129 Y20.26396 I6.42673 J11.63045
G3 X-24.41564 Y20.24105 I0.82025 J2.57239
G3 X-21.8372 Y19.8727 I2.62019 J9.13264
G3 X-21.79677 Y19.87283 I0.01187 J2.69997
G3 X-15.38829 Y20.57611 I-0.34594 J32.70178
G1 F300.0 X-14.91367 Y19.47396
G2 F800.0 X-21.79598 Y18.12512 I-6.55788 J15.22835
G3 X-21.83809 Y18.12535 I-0.02935 J-1.49971
G2 X-24.78463 Y18.45758 I-0.10467 J12.30448
G2 X-27.34836 Y19.57115 I1.84679 J7.75976
G2 X-30.00229 Y23.96705 I3.41951 J5.06353
G3 X-30.01108 Y24.03338 I-1.49102 J-0.1639
G2 X-31.13578 Y37.62986 I94.2664 J14.64246
G2 X-30.28098 Y46.50464 I53.69816 J-0.69355
G3 X-30.26621 Y46.60575 I-1.476 J0.26726
G2 X-29.85167 Y47.56492 I1.77455 J-0.19777
G2 X-29.05364 Y47.82285 I0.73562 J-0.9125
G3 X-28.93311 Y47.82127 I0.07987 J1.49787
G2 X-27.90741 Y47.42239 I0.03848 J-1.41926
G3 X-27.88741 Y47.4034 I1.04301 J1.07802
G2 X-27.51376 Y46.50531 I-0.80266 J-0.86072
G2 X-27.93442 Y42.38606 I-33.93396 J1.38418
G3 X-27.93712 Y42.369 I1.48017 J-0.24307
G3 X-28.36372 Y37.67637 I38.46401 J-5.86243
G3 X-28.36437 Y37.6404 I1.49932 J-0.0451
G3 X-28.03745 Y29.13382 I95.68019 J-0.58247
G3 X-27.02219 Y23.26091 I31.06209 J2.34556
G3 X-26.30081 Y22.34377 I1.44685 J0.39575
G3 X-24.12673 Y21.40724 I5.84635 J10.58013
G3 X-24.08471 Y21.39451 I0.45569 J1.42911
G3 X-21.83193 Y21.07269 I2.28926 J7.97918
G3 X-21.80947 Y21.07276 I0.00659 J1.49999
G3 X-13.10395 Y22.39551 I-0.33325 J31.50185
G3 X-12.03434 Y23.83983 I-0.43037 J1.43694
G1 X-12.06363 Y29.7871
G3 X-12.0637 Y29.79517 I-1.49998 J-0.00739
G1 X-12.12227 Y35.47647
G2 X-11.57439 Y46.28719 I93.57426 J0.67701
G3 X-11.56889 Y46.34984 I-1.49118 J0.16244
G2 X-11.16961 Y47.36966 I1.8103 J-0.1207
G2 X-10.31108 Y47.64748 I0.78614 J-0.96391
G3 X-10.18311 Y47.64549 I0.0873 J1.49746
G2 X-9.15741 Y47.2466 I0.03848 J-1.41926
G3 X-9.14515 Y47.23488 I1.04301 J1.07802
G2 X-8.81894 Y46.38916 I-0.7234 J-0.7648
G3 X-8.82168 Y46.34519 I1.49556 J-0.11531
G1 X-9.34903 Y35.27098
G3 X-9.35072 Y35.19635 I1.4983 J-0.07135
G3 X-9.32139 Y28.86089 I1295.61125 J2.8304
G3 X-9.32138 Y28.85934 I1.49996 J0.01061
G2 X-9.29213 Y22.54165 I-908.72956 J-7.366
G3 X-9.29194 Y22.51914 I1.5 J0.00173
G3 X-9.20021 Y20.47058 I35.8646 J0.57955
G3 X-9.1971 Y20.43432 I1.49597 J0.1099
G2 X-9.0867 Y18.5851 I-24.28649 J-2.37785
G3 X-9.08615 Y18.56545 I1.49965 J0.03249
G2 X-9.45967 Y17.66383 I-1.17617 J-0.04091
G3 X-9.48516 Y17.6395 I1.02301 J-1.09702
G2 X-10.48267 Y17.24612 I-0.96612 J0.9884
G3 X-10.5772 Y17.24528 I-0.03407 J-1.49961
G2 X-11.3553 Y17.55749 I-0.04126 J1.02288
G2 X-11.91194 Y18.79753 I2.22909 J1.74556
G3 X-14.05848 Y19.87143 I-1.4759 J-0.26783
G2 X-14.91367 Y19.47396 I-7.41306 J14.83087
G0 Z3.0
G0 X2.93969 Y27.21945
G0 Z1.0
G1 F300.0 Z-2.0
G3 F800.0 X5.17463 Y23.94935 I9.61023 J4.1693
G3 X8.48774 Y21.61931 I7.79191 J7.55891
G3 X8.50482 Y21.6117 I0.61885 J1.36639
G3 X12.52324 Y20.77959 I3.97455 J9.07486
G3 X17.36494 Y21.84332 I0.27501 J10.29894
G3 X17.45369 Y21.89098 I-0.66488 J1.34459
G3 X19.30627 Y23.16067 I-7.58683 J13.0561
G3 X20.92209 Y24.47546 I-31.666 J40.56653
G3 X20.94243 Y24.49303 I-0.97008 J1.14409
G3 X21.9916 Y25.61454 I-5.20722 J5.92277
G3 X22.30139 Y26.55376 I-1.18998 J0.91321
G1 X22.21384 Y31.60265
G1 X22.24291 Y34.97537
G1 X22.3014 Y38.42616
G3 X22.17746 Y39.04913 I-1.49978 J0.02542
G3 X18.67646 Y43.24339 I-8.88689 J-3.85969
G3 X18.63591 Y43.26957 I-0.83383 J-1.24689
G3 X13.41141 Y44.69796 I-5.00235 J-8.02787
G3 X8.91534 Y43.99313 I-0.1906 J-13.47658
G3 X8.90489 Y43.98956 I0.47917 J-1.42141
G3 X4.88955 Y41.23528 I2.99309 J-8.66754
G3 X4.86846 Y41.20972 I1.14645 J-0.9673
G3 X2.58765 Y36.41843 I8.88936 J-7.17014
G3 X2.07495 Y31.50905 I21.0153 J-4.67613
G3 X2.93969 Y27.21945 I10.47498 J-0.12031
G0 Z3.0
G0 X9.81691 Y45.4967
G0 Z1.0
G1 F300.0 Z-2.0
G2 F800.0 X13.26584 Y45.94713 I3.28734 J-11.74158
G3 X13.32274 Y45.94698 I0.03578 J2.69976
G2 X15.5609 Y45.77731 I0.10529 J-13.4586
G3 X15.58896 Y45.77296 I0.42787 J2.66588
G2 X16.96766 Y45.36317 I-0.7616 J-5.08651
G3 X13.406 Y45.89574 I-3.3341 J-10.12147
G3 X9.81691 Y45.4967 I-0.18519 J-14.67436
G0 Z3.0
G0 X22.22851 Y42.40414
G0 Z1.0
G1 F300.0 Z-2.0
G3 F800.0 X23.02752 Y42.75922 I-0.92885 J3.16658
G3 X22.9442 Y41.41408 I108.86895 J-7.41854
G3 X22.22851 Y42.40414 I-9.65363 J-6.22464
G1 F300.0 X22.05963 Y42.97988
G3 F800.0 X23.75912 Y44.45669 I-0.75997 J2.59084
G2 X23.73633 Y44.18825 I-734.635 J62.22399
G3 X23.73559 Y44.1793 I2.69028 J-0.22886
G3 X23.43761 Y39.02482 I108.16088 J-8.83861
G3 X23.27593 Y39.52621 I-2.63599 J-0.57324
G3 X20.98689 Y42.8889 I-9.98536 J-4.33677
G3 X22.05963 Y42.97988 I0.31278 J2.68182
G0 Z3.0
G0 X24.11851 Y48.85626
G0 Z1.0
G1 F300.0 Z-2.0
G2 F800.0 X24.33451 Y53.75234 I489.2607 J-19.13219
G3 X24.33533 Y53.77022 I-2.69675 J0.1325
G2 X24.87848 Y61.21216 I122.6651 J-5.212
G2 X24.44442 Y53.15914 I-158.94183 J4.5289
G3 X24.44308 Y53.14157 I2.69153 J-0.21365
G2 X24.11851 Y48.85626 I-735.31896 J53.53911
G0 Z3.0
G0 X23.18456 Y24.22823
G0 Z1.0
G1 F300.0 Z-2.0
G3 F800.0 X23.35074 Y22.70608 I62.70373 J6.07575
G3 X22.12891 Y23.14261 I-1.69951 J-2.82872
G3 X22.12936 Y23.143 I-2.1769 J2.47694
G3 X23.18456 Y24.22823 I-6.39415 J7.27279
G1 F300.0 X22.72301 Y24.6116
G3 F800.0 X22.94168 Y24.88544 I-6.98779 J5.80419
G3 X23.49881 Y26.57453 I-2.14006 J1.64231
G1 X23.41186 Y31.58888
G3 X23.53938 Y27.84451 I154.71442 J3.39456
G3 X24.24665 Y20.62179 I62.34891 J2.45947
G2 X24.24261 Y20.63548 I2.55751 J0.76308
G3 X20.03628 Y22.04114 I-2.59138 J-0.75812
G2 X16.36305 Y20.08144 I-8.27339 J11.0851
G2 X12.54974 Y19.44258 I-3.77158 J10.8122
G3 X12.50882 Y19.44242 I-0.00984 J-2.69998
G2 X8.07196 Y20.2309 I-0.13921 J12.09424
G2 X4.42749 Y22.66713 I3.87849 J9.7461
G3 X4.398 Y22.69701 I-1.93642 J-1.88157
G2 X1.88784 Y26.5954 I7.69199 J7.71019
G2 X1.81605 Y26.80082 I12.83212 J4.59977
G3 X4.32317 Y23.1071 I10.73387 J4.58793
G3 X7.99365 Y20.52838 I8.64337 J8.40116
G3 X8.02436 Y20.5147 I1.11294 J2.45732
G3 X12.50988 Y19.58193 I4.45501 J10.17185
G3 X17.89578 Y20.76979 I0.28836 J11.49659
G3 X18.0554 Y20.85551 I-1.19573 J2.41811
G3 X20.04899 Y22.22117 I-8.18853 J14.09157
G3 X21.6966 Y23.56202 I-32.40872 J41.50603
G3 X21.73319 Y23.59361 I-1.74459 J2.05753
G3 X22.72301 Y24.6116 I-5.99798 J6.82218
G0 Z3.0
G0 X24.93789 Y24.8112
G0 Z1.0
G1 F300.0 Z-2.0
G3 F800.0 X25.50188 Y20.37406 I60.9504 J5.49277
G2 X25.54215 Y19.90585 I-3.53566 J-0.54
G3 X25.54243 Y19.89429 I1.4997 J0.03011
G2 X25.20949 Y19.1095 I-1.02431 J-0.02846
G3 X25.17937 Y19.08119 I1.01205 J-1.10714
G2 X24.3279 Y18.74061 I-0.84285 J0.87249
G3 X24.31482 Y18.74064 I-0.01066 J-1.49996
G2 X23.7379 Y19.02549 I-0.00117 J0.72428
G3 X23.73533 Y19.02886 I-1.19238 J-0.91007
G2 X23.09088 Y20.29854 I3.06884 J2.35602
G3 X20.75404 Y21.07946 I-1.43966 J-0.42118
G2 X16.76022 Y18.94907 I-8.99115 J12.04678
G2 X12.54537 Y18.24259 I-4.16875 J11.94457
G3 X12.52264 Y18.2425 I-0.00547 J-1.49999
G2 X7.63692 Y19.1125 I-0.15302 J13.29417
G2 X3.56686 Y21.83088 I4.31353 J10.8645
G3 X3.55048 Y21.84748 I-1.07579 J-1.04531
G2 X0.76092 Y26.18296 I8.53951 J8.55972
G2 X-0.1106 Y31.37305 I13.95905 J5.01221
G3 X-0.11059 Y31.40839 I-1.49989 J0.01799
G2 X0.73674 Y37.62058 I21.38198 J0.24742
G2 X3.65298 Y42.94663 I13.70696 J-4.04373
G3 X3.65505 Y42.94903 I-1.13261 J0.98346
G2 X7.9669 Y46.12372 I9.1485 J-7.90994
G2 X13.28174 Y47.14703 I5.13734 J-12.36861
G3 X13.31335 Y47.14694 I0.01988 J1.49987
G2 X15.75107 Y46.96215 I0.11467 J-14.65856
G3 X15.76666 Y46.95973 I0.23771 J1.48105
G2 X17.747 Y46.3178 I-0.9393 J-6.27328
G1 X20.41206 Y44.36152
G3 X22.79889 Y45.52244 I0.8876 J1.2092
G2 X23.13595 Y53.81123 I490.58031 J-15.79837
G3 X23.13641 Y53.82116 I-1.49819 J0.07361
G2 X23.75759 Y62.01918 I123.86402 J-5.26294
G3 X23.75923 Y62.03489 I-1.49113 J0.16287
G2 X24.15776 Y63.04669 I1.97893 J-0.19509
G2 X24.8502 Y63.29173 I0.6401 J-0.70792
G3 X24.95617 Y63.28966 I0.08227 J1.49774
G2 X25.59672 Y63.19905 I0.03281 J-2.07755
G3 X25.60369 Y63.19694 I0.43874 J1.4344
G2 X25.92326 Y62.93244 I-0.15352 J-0.51079
G2 X26.09924 Y61.99514 I-2.03515 J-0.86728
G3 X26.09891 Y61.98286 I1.49925 J-0.04747
G2 X25.64065 Y53.06419 I-160.16225 J3.7582
G3 X25.63991 Y53.05442 I1.4953 J-0.11869
G2 X24.93202 Y44.08654 I-736.51579 J53.62625
G3 X24.9316 Y44.08156 I1.4946 J-0.12714
G3 X24.57506 Y35.34794 I106.96487 J-8.74088
G3 X24.73829 Y27.89583 I153.55123 J-0.36449
G3 X24.93789 Y24.8112 I61.15 J2.40815
G1 F300.0 X23.18456 Y24.22823
G1 Z-4.0
G3 F800.0 X23.35074 Y22.70608 I62.70373 J6.07575
G3 X22.12891 Y23.14261 I-1.69951 J-2.82872
G3 X22.12936 Y23.143 I-2.1769 J2.47694
G3 X23.18456 Y24.22823 I-6.39415 J7.27279
G1 F300.0 X22.72301 Y24.6116
G3 F800.0 X22.94168 Y24.88544 I-6.98779 J5.80419
G3 X23.49881 Y26.57453 I-2.14006 J1.64231
G1 X23.41186 Y31.58888
G3 X23.53938 Y27.84451 I154.71442 J3.39456
G3 X24.24665 Y20.62179 I62.34891 J2.45947
G2 X24.24261 Y20.63548 I2.55751 J0.76308
G3 X20.03628 Y22.04114 I-2.59138 J-0.75812
G2 X16.36305 Y20.08144 I-8.27339 J11.0851
G2 X12.54974 Y19.44258 I-3.77158 J10.8122
G3 X12.50882 Y19.44242 I-0.00984 J-2.69998
G2 X8.07196 Y20.2309 I-0.13921 J12.09424
G2 X4.42749 Y22.66713 I3.87849 J9.7461
G3 X4.398 Y22.69701 I-1.93642 J-1.88157
G2 X1.88784 Y26.5954 I7.69199 J7.71019
G2 X1.81605 Y26.80082 I12.83212 J4.59977
G3 X4.32317 Y23.1071 I10.73387 J4.58793
G3 X7.99365 Y20.52838 I8.64337 J8.40116
G3 X8.02436 Y20.5147 I1.11294 J2.45732
G3 X12.50988 Y19.58193 I4.45501 J10.17185
G3 X17.89578 Y20.76979 I0.28836 J11.49659
G3 X18.0554 Y20.85551 I-1.19573 J2.41811
G3 X20.04899 Y22.22117 I-8.18853 J14.09157
G3 X21.6966 Y23.56202 I-32.40872 J41.50603
G3 X21.73319 Y23.59361 I-1.74459 J2.05753
G3 X22.72301 Y24.6116 I-5.99798 J6.82218
G0 Z3.0
G0 X22.9442 Y41.41408
G0 Z-1.0
G1 F300.0 Z-4.0
G3 F800.0 X22.22851 Y42.40414 I-9.65363 J-6.22464
G3 X23.02752 Y42.75922 I-0.92885 J3.16658
G3 X22.9442 Y41.41408 I108.86895 J-7.41854
G1 F300.0 X23.54327 Y41.38069
G3 F800.0 X23.43761 Y39.02482 I108.3532 J-6.04
G3 X23.27593 Y39.52621 I-2.63599 J-0.57324
G3 X20.98689 Y42.8889 I-9.98536 J-4.33677
G3 X23.75912 Y44.45669 I0.31278 J2.68182
G2 X23.73633 Y44.18825 I-734.635 J62.22399
G3 X23.73559 Y44.1793 I2.69028 J-0.22886
G3 X23.54327 Y41.38069 I108.16088 J-8.83861
G0 Z3.0
G0 X24.11851 Y48.85626
G0 Z-1.0
G1 F300.0 Z-4.0
G2 F800.0 X24.33451 Y53.75234 I489.2607 J-19.13219
G3 X24.33533 Y53.77022 I-2.69675 J0.1325
G2 X24.87848 Y61.21216 I122.6651 J-5.212
G2 X24.44442 Y53.15914 I-158.94183 J4.5289
G3 X24.44308 Y53.14157 I2.69153 J-0.21365
G2 X24.11851 Y48.85626 I-735.31896 J53.53911
G0 Z3.0
G0 X16.96766 Y45.36317
G0 Z-1.0
G1 F300.0 Z-4.0
G3 F800.0 X13.406 Y45.89574 I-3.3341 J-10.12147
G3 X9.81691 Y45.4967 I-0.18519 J-14.67436
G2 X13.26584 Y45.94713 I3.28734 J-11.74158
G3 X13.32274 Y45.94698 I0.03578 J2.69976
G2 X15.5609 Y45.77731 I0.10529 J-13.4586
G3 X15.58896 Y45.77296 I0.42787 J2.66588
G2 X16.96766 Y45.36317 I-0.7616 J-5.08651
G1 F300.0 X17.46704 Y46.45433
G2 F800.0 X17.747 Y46.3178 I-2.63968 J-5.76788
G1 X20.41206 Y44.36152
G3 X22.79889 Y45.52244 I0.8876 J1.2092
G2 X23.13595 Y53.81123 I490.58031 J-15.79837
G3 X23.13641 Y53.82116 I-1.49819 J0.07361
G2 X23.75759 Y62.01918 I123.86402 J-5.26294
G3 X23.75923 Y62.03489 I-1.49113 J0.16287
G2 X24.15776 Y63.04669 I1.97893 J-0.19509
G2 X24.8502 Y63.29173 I0.6401 J-0.70792
G3 X24.95617 Y63.28966 I0.08227 J1.49774
G2 X25.59672 Y63.19905 I0.03281 J-2.07755
G3 X25.60369 Y63.19694 I0.43874 J1.4344
G2 X25.92326 Y62.93244 I-0.15352 J-0.51079
G2 X26.09924 Y61.99514 I-2.03515 J-0.86728
G3 X26.09891 Y61.98286 I1.49925 J-0.04747
G2 X25.64065 Y53.06419 I-160.16225 J3.7582
G3 X25.63991 Y53.05442 I1.4953 J-0.11869
G2 X24.93202 Y44.08654 I-736.51579 J53.62625
G3 X24.9316 Y44.08156 I1.4946 J-0.12714
G3 X24.57506 Y35.34794 I106.96487 J-8.74088
G3 X24.73829 Y27.89583 I153.55123 J-0.36449
G3 X25.50188 Y20.37406 I61.15 J2.40815
G2 X25.54215 Y19.90585 I-3.53566 J-0.54
G3 X25.54243 Y19.89429 I1.4997 J0.03011
G2 X25.20949 Y19.1095 I-1.02431 J-0.02846
G3 X25.17937 Y19.08119 I1.01205 J-1.10714
G2 X24.3279 Y18.74061 I-0.84285 J0.87249
G3 X24.31482 Y18.74064 I-0.01066 J-1.49996
G2 X23.7379 Y19.02549 I-0.00117 J0.72428
G3 X23.73533 Y19.02886 I-1.19238 J-0.91007
G2 X23.09088 Y20.29854 I3.06884 J2.35602
G3 X20.75404 Y21.07946 I-1.43966 J-0.42118
G2 X16.76022 Y18.94907 I-8.99115 J12.04678
G2 X12.54537 Y18.24259 I-4.16875 J11.94457
G3 X12.52264 Y18.2425 I-0.00547 J-1.49999
G2 X7.63692 Y19.1125 I-0.15302 J13.29417
G2 X3.56686 Y21.83088 I4.31353 J10.8645
G3 X3.55048 Y21.84748 I-1.07579 J-1.04531
G2 X0.76092 Y26.18296 I8.53951 J8.55972
G2 X-0.1106 Y31.37305 I13.95905 J5.01221
G3 X-0.11059 Y31.40839 I-1.49989 J0.01799
G2 X0.73674 Y37.62058 I21.38198 J0.24742
G2 X3.65298 Y42.94663 I13.70696 J-4.04373
G3 X3.65505 Y42.94903 I-1.13261 J0.98346
G2 X7.9669 Y46.12372 I9.1485 J-7.90994
G2 X13.28174 Y47.14703 I5.13734 J-12.36861
G3 X13.31335 Y47.14694 I0.01988 J1.49987
G2 X15.75107 Y46.96215 I0.11467 J-14.65856
G3 X15.76666 Y46.95973 I0.23771 J1.48105
G2 X17.46704 Y46.45433 I-0.9393 J-6.27328
G0 Z3.0
G0 X16.69355 Y44.19194
G0 Z-1.0
G1 F300.0 Z-4.0
G3 F800.0 X13.41141 Y44.69796 I-3.05999 J-8.95024
G3 X8.91534 Y43.99313 I-0.1906 J-13.47658
G3 X8.90489 Y43.98956 I0.47917 J-1.42141
G3 X4.88955 Y41.23528 I2.99309 J-8.66754
G3 X4.86846 Y41.20972 I1.14645 J-0.9673
G3 X2.58765 Y36.41843 I8.88936 J-7.17014
G3 X2.07495 Y31.50905 I21.0153 J-4.67613
G3 X5.17463 Y23.94935 I10.47498 J-0.12031
G3 X8.48774 Y21.61931 I7.79191 J7.55891
G3 X8.50482 Y21.6117 I0.61885 J1.36639
G3 X12.52324 Y20.77959 I3.97455 J9.07486
G3 X17.36494 Y21.84332 I0.27501 J10.29894
G3 X17.45369 Y21.89098 I-0.66488 J1.34459
G3 X19.30627 Y23.16067 I-7.58683 J13.0561
G3 X20.92209 Y24.47546 I-31.666 J40.56653
G3 X20.94243 Y24.49303 I-0.97008 J1.14409
G3 X21.9916 Y25.61454 I-5.20722 J5.92277
G3 X22.30139 Y26.55376 I-1.18998 J0.91321
G1 X22.21384 Y31.60265
G1 X22.24291 Y34.97537
G1 X22.3014 Y38.42616
G3 X22.17746 Y39.04913 I-1.49978 J0.02542
G3 X18.67646 Y43.24339 I-8.88689 J-3.85969
G3 X18.63591 Y43.26957 I-0.83383 J-1.24689
G3 X16.69355 Y44.19194 I-5.00235 J-8.02787
G0 Z3.0
G0 X39.12388 Y43.69003
G0 Z1.0
G1 F300.0 Z-2.0
G3 F800.0 X39.14604 Y45.10725 I-105.13667 J2.35258
G3 X39.14389 Y45.24174 I-2.69989 J0.02401
G2 X39.17733 Y45.38079 I0.26133 J0.0107
G2 X39.23148 Y45.39162 I0.05029 J-0.11067
G3 X39.41611 Y45.39206 I0.08576 J2.69864
G2 X39.43514 Y45.38474 I0.00095 J-0.0259
G2 X39.49047 Y45.23852 I-0.14454 J-0.13828
G3 X39.48844 Y45.15525 I2.69787 J-0.10725
G2 X39.20325 Y38.45266 I-99.71748 J0.88559
G3 X38.9025 Y31.4146 I103.37386 J-7.94279
G3 X38.90245 Y31.37513 I2.6999 J-0.02356
G3 X38.99131 Y26.04352 I247.49169 J1.45832
G3 X38.99212 Y26.01823 I2.69898 J0.07407
G2 X39.10756 Y20.85219 I-178.46287 J-6.5723
G3 X39.10935 Y20.77281 I2.69992 J0.02126
G2 X39.07556 Y20.64727 I-0.21964 J-0.00819
G2 X39.04624 Y20.64153 I-0.02669 J0.05868
G3 X38.85057 Y20.6424 I-0.10986 J-2.69776
G2 X38.79247 Y20.65513 I-0.00386 J0.12137
G2 X38.76341 Y20.77282 I0.19061 J0.1095
G3 X38.76521 Y20.89408 I-2.69812 J0.10064
G3 X38.64673 Y26.20467 I-181.07276 J-1.38323
G2 X38.56028 Y31.3869 I240.1016 J6.59705
G2 X38.84526 Y38.03988 I98.53691 J-0.88823
G3 X38.84535 Y38.04107 I-2.69208 J0.20663
G3 X39.12388 Y43.69003 I-104.85814 J8.00154
G1 F300.0 X37.92418 Y43.71687
G3 F800.0 X37.94609 Y45.11793 I-103.93697 J2.32573
G3 X37.94489 Y45.19264 I-1.49994 J0.01334
G2 X38.31565 Y46.22658 I1.46033 J0.0598
G2 X39.2696 Y46.59101 I0.91197 J-0.95647
G3 X39.37217 Y46.59126 I0.04765 J1.49924
G2 X40.29399 Y46.22282 I0.04489 J-1.22509
G2 X40.68952 Y45.19085 I-1.0034 J-0.97636
G3 X40.6884 Y45.14459 I1.49882 J-0.05958
G2 X40.39975 Y38.36104 I-100.91743 J0.89625
G3 X40.10246 Y31.40412 I102.17737 J-7.85117
G3 X40.10243 Y31.3822 I1.49994 J-0.01309
G3 X40.19085 Y26.07645 I246.29171 J1.45125
G3 X40.19131 Y26.06239 I1.49944 J0.04115
G2 X40.30752 Y20.86164 I-179.66205 J-6.61647
G3 X40.30852 Y20.81754 I1.49995 J0.01181
G2 X39.93631 Y19.80521 I-1.4188 J-0.05293
G2 X38.99742 Y19.44253 I-0.88744 J0.90073
G3 X38.88871 Y19.44301 I-0.06103 J-1.49876
G2 X37.93198 Y19.81012 I-0.042 J1.32076
G2 X37.56425 Y20.81755 I1.0511 J0.95451
G3 X37.56525 Y20.88491 I-1.49896 J0.05591
G3 X37.44734 Y26.16599 I-179.87279 J-1.37406
G2 X37.36025 Y31.38876 I241.30099 J6.63573
G2 X37.64878 Y38.13171 I99.73694 J-0.89009
G3 X37.64883 Y38.13237 I-1.4956 J0.11479
G3 X37.92418 Y43.71687 I-103.66162 J7.91023
G1 F300.0 X39.12388 Y43.69003
G1 Z-4.0
G3 F800.0 X39.14604 Y45.10725 I-105.13667 J2.35258
G3 X39.14389 Y45.24174 I-2.69989 J0.02401
G2 X39.17733 Y45.38079 I0.26133 J0.0107
G2 X39.23148 Y45.39162 I0.05029 J-0.11067
G3 X39.41611 Y45.39206 I0.08576 J2.69864
G2 X39.43514 Y45.38474 I0.00095 J-0.0259
G2 X39.49047 Y45.23852 I-0.14454 J-0.13828
G3 X39.48844 Y45.15525 I2.69787 J-0.10725
G2 X39.20325 Y38.45266 I-99.71748 J0.88559
G3 X38.9025 Y31.4146 I103.37386 J-7.94279
G3 X38.90245 Y31.37513 I2.6999 J-0.02356
G3 X38.99131 Y26.04352 I247.49169 J1.45832
G3 X38.99212 Y26.01823 I2.69898 J0.07407
G2 X39.10756 Y20.85219 I-178.46287 J-6.5723
G3 X39.10935 Y20.77281 I2.69992 J0.02126
G2 X39.07556 Y20.64727 I-0.21964 J-0.00819
G2 X39.04624 Y20.64153 I-0.02669 J0.05868
G3 X38.85057 Y20.6424 I-0.10986 J-2.69776
G2 X38.79247 Y20.65513 I-0.00386 J0.12137
G2 X38.76341 Y20.77282 I0.19061 J0.1095
G3 X38.76521 Y20.89408 I-2.69812 J0.10064
G3 X38.64673 Y26.20467 I-181.07276 J-1.38323
G2 X38.56028 Y31.3869 I240.1016 J6.59705
G2 X38.84526 Y38.03988 I98.53691 J-0.88823
G3 X38.84535 Y38.04107 I-2.69208 J0.20663
G3 X39.12388 Y43.69003 I-104.85814 J8.00154
G1 F300.0 X37.92418 Y43.71687
G3 F800.0 X37.94609 Y45.11793 I-103.93697 J2.32573
G3 X37.94489 Y45.19264 I-1.49994 J0.01334
G2 X38.31565 Y46.22658 I1.46033 J0.0598
G2 X39.2696 Y46.59101 I0.91197 J-0.95647
G3 X39.37217 Y46.59126 I0.04765 J1.49924
G2 X40.29399 Y46.22282 I0.04489 J-1.22509
G2 X40.68952 Y45.19085 I-1.0034 J-0.97636
G3 X40.6884 Y45.14459 I1.49882 J-0.05958
G2 X40.39975 Y38.36104 I-100.91743 J0.89625
G3 X40.10246 Y31.40412 I102.17737 J-7.85117
G3 X40.10243 Y31.3822 I1.49994 J-0.01309
G3 X40.19085 Y26.07645 I246.29171 J1.45125
G3 X40.19131 Y26.06239 I1.49944 J0.04115
G2 X40.30752 Y20.86164 I-179.66205 J-6.61647
G3 X40.30852 Y20.81754 I1.49995 J0.01181
G2 X39.93631 Y19.80521 I-1.4188 J-0.05293
G2 X38.99742 Y19.44253 I-0.88744 J0.90073
G3 X38.88871 Y19.44301 I-0.06103 J-1.49876
G2 X37.93198 Y19.81012 I-0.042 J1.32076
G2 X37.56425 Y20.81755 I1.0511 J0.95451
G3 X37.56525 Y20.88491 I-1.49896 J0.05591
G3 X37.44734 Y26.16599 I-179.87279 J-1.37406
G2 X37.36025 Y31.38876 I241.30099 J6.63573
G2 X37.64878 Y38.13171 I99.73694 J-0.89009
G3 X37.64883 Y38.13237 I-1.4956 J0.11479
G3 X37.92418 Y43.71687 I-103.66162 J7.91023
G0 Z3.0
G0 X40.23421 Y58.48074
G0 Z1.0
G1 F300.0 Z-2.0
G2 F800.0 X40.19439 Y58.50107 I0.01109 J0.07087
G3 X40.12699 Y58.56706 I-2.34199 J-2.32488
G3 Y58.59001 I-3.29998 J0.01148
G3 X40.19439 Y58.656 I-2.27459 J2.39087
G2 X40.24613 Y58.67719 I0.05091 J-0.05054
G3 X40.32352 Y58.67721 I0.03791 J3.29978
G3 X40.41179 Y58.59001 I2.36286 J2.30367
G3 Y58.56706 I3.29998 J-0.01148
G3 X40.32352 Y58.47986 I2.27459 J-2.39087
G3 X40.24612 Y58.47988 I-0.03948 J-3.29976
G2 X40.23421 Y58.48074 I-0.00082 J0.07173
G1 F300.0 X40.14146 Y57.88795
G2 F800.0 X39.76858 Y58.07836 I0.10384 J0.66366
G3 X39.69444 Y58.15024 I-1.91618 J-1.90217
G2 X39.52678 Y58.54306 I0.36007 J0.38588
G3 Y58.61399 I-2.69977 J0.03548
G2 X39.69446 Y59.00684 I0.5278 J0.00693
G3 X39.76857 Y59.0787 I-1.84206 J1.97404
G2 X40.25302 Y59.27715 I0.47673 J-0.47325
G3 X40.32556 Y59.27729 I0.03102 J2.69982
G2 X40.74671 Y59.10267 I0.00883 J-0.57389
G3 X40.84434 Y59.00682 I1.93967 J1.87821
G2 X41.01201 Y58.61401 I-0.36007 J-0.38588
G3 Y58.54308 I2.69977 J-0.03548
G2 X40.84433 Y58.15023 I-0.5278 J-0.00693
G3 X40.7467 Y58.05439 I1.84206 J-1.97404
G2 X40.32557 Y57.87978 I-0.4123 J0.39924
G3 X40.25302 Y57.87992 I-0.04153 J-2.69968
G2 X40.14146 Y57.88795 I-0.00772 J0.67169
G1 F300.0 X39.95596 Y56.70237
G2 F800.0 X38.91694 Y57.23295 I0.28934 J1.84923
G3 X38.87575 Y57.27289 I-1.06454 J-1.05676
G2 X38.32688 Y58.55882 I1.17875 J1.26323
G3 Y58.59823 I-1.49987 J0.01971
G2 X38.87576 Y59.88419 I1.7277 J0.02269
G3 X38.91694 Y59.92411 I-1.02337 J1.09669
G2 X40.26681 Y60.47707 I1.32836 J-1.31866
G3 X40.30711 Y60.47715 I0.01723 J1.4999
G2 X41.60879 Y59.93743 I0.02728 J-1.77375
G3 X41.66303 Y59.88418 I1.07759 J1.04345
G2 X42.2119 Y58.59824 I-1.17875 J-1.26323
G3 Y58.55884 I1.49987 J-0.01971
G2 X41.66302 Y57.27288 I-1.7277 J-0.02269
G3 X41.60878 Y57.21964 I1.02337 J-1.09669
G2 X40.30711 Y56.67992 I-1.27438 J1.23399
G3 X40.26681 Y56.68 I-0.02307 J-1.49982
G2 X39.95596 Y56.70237 I-0.02151 J1.87161
G1 F300.0 X40.23421 Y58.48074
G1 Z-4.0
G2 F800.0 X40.19439 Y58.50107 I0.01109 J0.07087
G3 X40.12699 Y58.56706 I-2.34199 J-2.32488
G3 Y58.59001 I-3.29998 J0.01148
G3 X40.19439 Y58.656 I-2.27459 J2.39087
G2 X40.24613 Y58.67719 I0.05091 J-0.05054
G3 X40.32352 Y58.67721 I0.03791 J3.29978
G3 X40.41179 Y58.59001 I2.36286 J2.30367
G3 Y58.56706 I3.29998 J-0.01148
G3 X40.32352 Y58.47986 I2.27459 J-2.39087
G3 X40.24612 Y58.47988 I-0.03948 J-3.29976
G2 X40.23421 Y58.48074 I-0.00082 J0.07173
G1 F300.0 X40.14146 Y57.88795
G2 F800.0 X39.76858 Y58.07836 I0.10384 J0.66366
G3 X39.69444 Y58.15024 I-1.91618 J-1.90217
G2 X39.52678 Y58.54306 I0.36007 J0.38588
G3 Y58.61399 I-2.69977 J0.03548
G2 X39.69446 Y59.00684 I0.5278 J0.00693
G3 X39.76857 Y59.0787 I-1.84206 J1.97404
G2 X40.25302 Y59.27715 I0.47673 J-0.47325
G3 X40.32556 Y59.27729 I0.03102 J2.69982
G2 X40.74671 Y59.10267 I0.00883 J-0.57389
G3 X40.84434 Y59.00682 I1.93967 J1.87821
G2 X41.01201 Y58.61401 I-0.36007 J-0.38588
G3 Y58.54308 I2.69977 J-0.03548
G2 X40.84433 Y58.15023 I-0.5278 J-0.00693
G3 X40.7467 Y58.05439 I1.84206 J-1.97404
G2 X40.32557 Y57.87978 I-0.4123 J0.39924
G3 X40.25302 Y57.87992 I-0.04153 J-2.69968
G2 X40.14146 Y57.88795 I-0.00772 J0.67169
G1 F300.0 X39.95596 Y56.70237
G2 F800.0 X38.91694 Y57.23295 I0.28934 J1.84923
G3 X38.87575 Y57.27289 I-1.06454 J-1.05676
G2 X38.32688 Y58.55882 I1.17875 J1.26323
G3 Y58.59823 I-1.49987 J0.01971
G2 X38.87576 Y59.88419 I1.7277 J0.02269
G3 X38.91694 Y59.92411 I-1.02337 J1.09669
G2 X40.26681 Y60.47707 I1.32836 J-1.31866
G3 X40.30711 Y60.47715 I0.01723 J1.4999
G2 X41.60879 Y59.93743 I0.02728 J-1.77375
G3 X41.66303 Y59.88418 I1.07759 J1.04345
G2 X42.2119 Y58.59824 I-1.17875 J-1.26323
G3 Y58.55884 I1.49987 J-0.01971
G2 X41.66302 Y57.27288 I-1.7277 J-0.02269
G3 X41.60878 Y57.21964 I1.02337 J-1.09669
G2 X40.30711 Y56.67992 I-1.27438 J1.23399
G3 X40.26681 Y56.68 I-0.02307 J-1.49982
G2 X39.95596 Y56.70237 I-0.02151 J1.87161
G0 Z3.0
G0 X-56.39095 Y33.7989
G0 Z1.0
G1 F300.0 Z-2.0
G3 F800.0 X-56.41704 Y33.59774 I4.44842 J-0.67935
G3 X-56.78932 Y33.7579 I-20.22663 J-46.50127
G3 X-56.39095 Y33.7989 I-4.3834 J44.54913
G1 F300.0 X-56.45504 Y34.39547
G3 F800.0 X-55.59121 Y34.49689 I-4.71768 J43.91157
G3 X-55.8169 Y32.6732 I3.64869 J-1.37734
G3 X-59.4802 Y34.17521 I-20.82678 J-45.57673
G3 X-56.45504 Y34.39547 I-1.69252 J44.13182
G1 F300.0 X-56.58323 Y35.5886
G3 F800.0 X-55.39307 Y35.73329 I-4.58949 J42.71843
G3 X-55.38013 Y35.73508 I-0.36289 J2.67308
G3 X-52.23446 Y36.3861 I-3.48235 J24.75183
G3 X-49.02513 Y37.64178 I-4.19738 J15.45697
G3 X-48.9532 Y37.6807 I-1.24747 J2.39183
G3 X-45.27724 Y40.54102 I-7.61245 J13.57542
G3 X-43.98502 Y42.14759 I-8.20901 J7.92574
G3 X-42.9814 Y45.00993 I-4.65961 J3.24093
G3 X-42.97558 Y45.22139 I-2.69159 J0.17993
G3 X-44.89742 Y51.09739 I-10.31234 J-0.12054
G3 X-48.68319 Y54.93592 I-13.88498 J-9.90801
G3 X-53.41958 Y57.72651 I-13.82089 J-18.04305
G3 X-53.42618 Y57.72938 I-1.07824 J-2.47274
G3 X-58.91695 Y59.18029 I-7.53944 J-17.41691
G3 X-58.99014 Y59.18723 I-0.29119 J-2.68184
G1 X-63.32608 Y59.53879
G3 X-66.23252 Y56.62783 I-0.21801 J-2.68878
G1 X-65.93955 Y53.08291
G3 X-65.93469 Y53.03036 I2.68843 J0.22218
G2 X-65.7439 Y49.75988 I-37.25543 J-3.81417
G2 X-66.10606 Y44.24498 I-53.76018 J0.76103
G3 X-66.1096 Y44.2132 I2.67916 J-0.31488
G1 X-66.72484 Y38.38312
G3 X-64.06468 Y35.40251 I2.6827 J-0.2831
G2 X-62.88524 Y35.37508 I-0.3311 J-39.60901
G3 X-62.88102 Y35.37493 I0.10287 J2.69564
G3 X-61.4852 Y35.34391 I1.77771 J48.57553
G3 X-61.48352 Y35.3439 I0.02119 J2.69752
G3 X-56.58323 Y35.5886 I0.31081 J42.96314
G1 F300.0 X-56.71115 Y36.77935
G3 F800.0 X-55.55417 Y36.92001 I-4.46156 J41.52768
G3 X-55.54697 Y36.921 I-0.20178 J1.48637
G3 X-52.55016 Y37.54134 I-3.3155 J23.56591
G3 X-49.57895 Y38.70363 I-3.88169 J14.30172
G3 X-49.53895 Y38.72527 I-0.69365 J1.32998
G3 X-46.14231 Y41.36923 I-7.0267 J12.53084
G3 X-44.9751 Y42.82152 I-7.34394 J7.09753
G3 X-44.17633 Y45.08981 I-3.66954 J2.567
G3 X-44.17309 Y45.20739 I-1.49666 J0.10005
G3 X-45.87202 Y50.4014 I-9.11483 J-0.10654
G3 X-49.40188 Y53.97785 I-12.91038 J-9.21201
G3 X-53.89827 Y56.62874 I-13.10221 J-17.08498
G3 X-53.90193 Y56.63033 I-0.59955 J-1.37497
G3 X-59.04623 Y57.98969 I-7.06369 J-16.31786
G3 X-59.08692 Y57.99355 I-0.16192 J-1.49124
G1 X-63.42286 Y58.34511
G3 X-65.03899 Y56.72647 I-0.12122 J-1.49509
G1 X-64.74602 Y53.18155
G3 X-64.74332 Y53.15233 I1.4949 J0.12355
G2 X-64.54618 Y49.76006 I-38.4468 J-3.93614
G2 X-64.91664 Y44.10519 I-54.9579 J0.76085
G3 X-64.91861 Y44.08751 I1.48975 J-0.17509
G1 X-65.53385 Y38.25744
G3 X-64.05467 Y36.60007 I1.49172 J-0.15742
G2 X-62.83957 Y36.57181 I-0.34111 J-40.80657
G3 X-62.83722 Y36.57173 I0.0572 J1.49891
G3 X-61.47579 Y36.54147 I1.73391 J47.37873
G3 X-61.47486 Y36.54146 I0.01178 J1.49995
G3 X-56.71115 Y36.77935 I0.30214 J41.76557
G0 Z3.0
G0 X-54.08442 Y34.7634
G0 Z1.0
G1 F300.0 Z-2.0
G3 F800.0 X-53.20715 Y30.73403 I2.1419 J-1.64385
G2 X-46.23005 Y26.40277 I-28.26041 J-53.30907
G3 X-46.21846 Y26.39447 I1.57684 J2.19171
G2 X-40.36974 Y21.05024 I-18.87498 J-26.52923
G3 X-40.35948 Y21.03832 I2.05027 J1.75681
G2 X-40.2579 Y20.78597 I-0.31565 J-0.27368
G2 X-40.3281 Y20.63129 I-0.22669 J0.00962
G3 X-40.45644 Y20.50047 I1.86214 J-1.9551
G2 X-40.50667 Y20.47078 I-0.07393 J0.06775
G2 X-40.65569 Y20.55141 I0.04629 J0.2636
G3 X-40.71924 Y20.61699 I-1.97042 J-1.84592
G3 X-51.16295 Y28.84454 I-40.24348 J-40.34118
G3 X-51.16865 Y28.84803 I-1.41201 J-2.30135
G3 X-63.46088 Y34.19619 I-25.47503 J-41.75156
G3 X-66.88637 Y31.486 I-0.72774 J-2.60008
G1 X-66.65284 Y25.76461
G1 X-66.50689 Y20.01393
G3 X-66.50658 Y20.00265 I2.69913 J0.06851
G2 X-66.56571 Y19.8538 I-0.20189 J-0.00597
G3 X-66.64491 Y19.77124 I1.90834 J-1.91003
G2 X-66.66248 Y19.76382 I-0.01693 J0.01557
G3 X-66.79968 Y19.76414 I-0.07497 J-2.69896
G2 X-66.88635 Y19.80026 I-0.00267 J0.11565
G3 X-66.89676 Y19.81119 I-1.96047 J-1.85649
G2 X-66.96845 Y19.9981 I0.18675 J0.17884
G3 X-66.96732 Y20.11419 I-2.69868 J0.08434
G3 X-67.20522 Y27.10915 I-157.35585 J-1.85026
G2 X-67.40622 Y33.86074 I176.33257 J8.62831
G2 X-66.84018 Y41.58442 I82.10201 J-2.13437
G1 X-66.84017 Y41.58453
G1 X-66.84019 Y41.58431
G1 X-66.84018 Y41.58442
G3 X-66.23561 Y49.83686 I-86.91763 J10.5159
G3 X-66.23541 Y49.968 I-2.6991 J0.0698
G3 X-66.54221 Y54.6106 I-53.76915 J-1.22183
G2 X-66.79184 Y58.80585 I53.77643 J5.30494
G2 X-66.38427 Y60.07686 I2.07589 J0.03518
G3 X-66.31756 Y60.17105 I-2.16958 J1.60714
G2 X-65.79669 Y60.40917 I0.45585 J-0.3084
G3 X-65.68988 Y60.3986 I0.31901 J2.68109
G1 X-58.68518 Y59.84637
G2 X-55.65267 Y59.2525 I-2.60333 J-21.33324
G3 X-55.64773 Y59.25116 I0.70804 J2.60551
G2 X-52.90225 Y58.17891 I-3.53114 J-13.09239
G2 X-48.91293 Y55.71781 I-15.77554 J-30.03513
G3 X-48.8822 Y55.69611 I1.57298 J2.19448
G2 X-44.22341 Y50.98617 I-10.40358 J-14.94969
G2 X-42.48432 Y45.19247 I-8.74749 J-5.78358
G3 X-42.4843 Y45.1794 I2.7 J-0.00261
G2 X-43.26314 Y42.10021 I-6.37854 J-0.02473
G2 X-45.54019 Y39.3961 I-8.41643 J4.77645
G3 X-45.56368 Y39.3766 I1.7129 J-2.0871
G2 X-48.87104 Y37.207 I-10.80619 J12.8674
G1 X-48.87117 Y37.20694
G1 X-48.87091 Y37.20706
G1 X-48.87104 Y37.207
G2 X-52.69545 Y35.71244 I-10.19876 J20.45715
G3 X-54.08442 Y34.7634 I0.75293 J-2.59289
G1 F300.0 X-53.13247 Y34.0328
G3 F800.0 X-52.64509 Y31.79426 I1.18995 J-0.91325
G2 X-45.52923 Y27.37686 I-28.82246 J-54.3693
G3 X-45.52279 Y27.37225 I0.87602 J1.21761
G2 X-39.45851 Y21.83104 I-19.57065 J-27.50701
G3 X-39.45281 Y21.82442 I1.13904 J0.97601
G2 X-39.0577 Y20.79795 I-1.22232 J-1.05978
G2 X-39.50048 Y19.76236 I-1.42689 J-0.00237
G3 X-39.57178 Y19.68968 I1.03452 J-1.08617
G2 X-40.52046 Y19.26798 I-0.95859 J0.87854
G2 X-41.53144 Y19.731 I0.06009 J1.46641
G3 X-41.56674 Y19.76743 I-1.09468 J-1.02551
G3 X-51.79051 Y27.82172 I-39.39598 J-39.49162
G3 X-51.79367 Y27.82366 I-0.78445 J-1.27853
G3 X-63.78432 Y33.0406 I-24.85 J-40.72719
G3 X-65.68737 Y31.53494 I-0.4043 J-1.44449
G1 X-65.45346 Y25.80431
G1 X-65.30727 Y20.04438
G3 X-65.3071 Y20.03811 I1.49952 J0.03806
G2 X-65.71756 Y19.0049 I-1.40136 J-0.04143
G3 X-65.76156 Y18.95903 I1.06019 J-1.06113
G2 X-66.6958 Y18.56428 I-0.90028 J0.82778
G3 X-66.77202 Y18.56446 I-0.04165 J-1.49942
G2 X-67.75767 Y18.97515 I-0.03033 J1.31533
G3 X-67.76345 Y18.98122 I-1.08915 J-1.03138
G2 X-68.16786 Y20.03559 I1.05345 J1.0088
G3 X-68.16724 Y20.10008 I-1.49927 J0.04685
G3 X-68.40357 Y27.04608 I-156.15594 J-1.83615
G2 X-68.60638 Y33.86992 I177.53092 J8.69137
G2 X-68.0315 Y41.72851 I83.30218 J-2.14355
G1 X-68.03149 Y41.72857
G1 X-68.03151 Y41.72844
G1 X-68.0315 Y41.72851
G3 X-67.43521 Y49.86788 I-85.72632 J10.37181
G3 X-67.4351 Y49.94074 I-1.4995 J0.03878
G3 X-67.73576 Y54.48619 I-52.56946 J-1.19457
G2 X-67.99163 Y58.78313 I54.96998 J5.42934
G2 X-67.34853 Y60.79114 I3.27567 J0.0579
G3 X-67.31147 Y60.84347 I-1.20532 J0.89286
G2 X-65.65491 Y61.60076 I1.44975 J-0.98082
G3 X-65.59557 Y61.59489 I0.17723 J1.48949
G1 X-58.56564 Y61.04067
G2 X-55.33799 Y60.41051 I-2.72288 J-22.52754
G3 X-55.33524 Y60.40976 I0.39335 J1.44751
G2 X-52.34552 Y59.24195 I-3.84363 J-14.25099
G2 X-48.21383 Y56.69313 I-16.33228 J-31.09817
G3 X-48.19676 Y56.68107 I0.87388 J1.21915
G2 X-43.22672 Y51.65451 I-11.08903 J-15.93466
G2 X-41.28432 Y45.19131 I-9.74417 J-6.45192
G3 X-41.28431 Y45.18405 I1.5 J-0.00145
G2 X-42.21458 Y41.51659 I-7.57853 J-0.02938
G2 X-44.7789 Y38.4685 I-9.46499 J5.36008
G3 X-44.79195 Y38.45767 I0.95161 J-1.1595
G2 X-48.33557 Y36.13309 I-11.57792 J13.78633
G1 X-48.33564 Y36.13306
G1 X-48.3355 Y36.13313
G1 X-48.33557 Y36.13309
G2 X-52.36081 Y34.56005 I-10.73423 J21.53106
G3 X-53.13247 Y34.0328 I0.41829 J-1.4405
G0 Z3.0
G0 X-56.39095 Y33.7989
G0 Z-1.0
G1 F300.0 Z-4.0
G3 F800.0 X-56.41704 Y33.59774 I4.44842 J-0.67935
G3 X-56.78932 Y33.7579 I-20.22663 J-46.50127
G3 X-56.39095 Y33.7989 I-4.3834 J44.54913
G1 F300.0 X-56.45504 Y34.39547
G3 F800.0 X-55.59121 Y34.49689 I-4.71768 J43.91157
G3 X-55.8169 Y32.6732 I3.64869 J-1.37734
G3 X-59.4802 Y34.17521 I-20.82678 J-45.57673
G3 X-56.45504 Y34.39547 I-1.69252 J44.13182
G1 F300.0 X-56.58323 Y35.5886
G3 F800.0 X-55.39307 Y35.73329 I-4.58949 J42.71843
G3 X-55.38013 Y35.73508 I-0.36289 J2.67308
G3 X-52.23446 Y36.3861 I-3.48235 J24.75183
G3 X-49.02513 Y37.64178 I-4.19738 J15.45697
G3 X-48.9532 Y37.6807 I-1.24747 J2.39183
G3 X-45.27724 Y40.54102 I-7.61245 J13.57542
G3 X-43.98502 Y42.14759 I-8.20901 J7.92574
G3 X-42.9814 Y45.00993 I-4.65961 J3.24093
G3 X-42.97558 Y45.22139 I-2.69159 J0.17993
G3 X-44.89742 Y51.09739 I-10.31234 J-0.12054
G3 X-48.68319 Y54.93592 I-13.88498 J-9.90801
G3 X-53.41958 Y57.72651 I-13.82089 J-18.04305
G3 X-53.42618 Y57.72938 I-1.07824 J-2.47274
G3 X-58.91695 Y59.18029 I-7.53944 J-17.41691
G3 X-58.99014 Y59.18723 I-0.29119 J-2.68184
G1 X-63.32608 Y59.53879
G3 X-66.23252 Y56.62783 I-0.21801 J-2.68878
G1 X-65.93955 Y53.08291
G3 X-65.93469 Y53.03036 I2.68843 J0.22218
G2 X-65.7439 Y49.75988 I-37.25543 J-3.81417
G2 X-66.10606 Y44.24498 I-53.76018 J0.76103
G3 X-66.1096 Y44.2132 I2.67916 J-0.31488
G1 X-66.72484 Y38.38312
G3 X-64.06468 Y35.40251 I2.6827 J-0.2831
G2 X-62.88524 Y35.37508 I-0.3311 J-39.60901
G3 X-62.88102 Y35.37493 I0.10287 J2.69564
G3 X-61.4852 Y35.34391 I1.77771 J48.57553
G3 X-61.48352 Y35.3439 I0.02119 J2.69752
G3 X-56.58323 Y35.5886 I0.31081 J42.96314
G1 F300.0 X-56.71115 Y36.77935
G3 F800.0 X-55.55417 Y36.92001 I-4.46156 J41.52768
G3 X-55.54697 Y36.921 I-0.20178 J1.48637
G3 X-52.55016 Y37.54134 I-3.3155 J23.56591
G3 X-49.57895 Y38.70363 I-3.88169 J14.30172
G3 X-49.53895 Y38.72527 I-0.69365 J1.32998
G3 X-46.14231 Y41.36923 I-7.0267 J12.53084
G3 X-44.9751 Y42.82152 I-7.34394 J7.09753
G3 X-44.17633 Y45.08981 I-3.66954 J2.567
G3 X-44.17309 Y45.20739 I-1.49666 J0.10005
G3 X-45.87202 Y50.4014 I-9.11483 J-0.10654
G3 X-49.40188 Y53.97785 I-12.91038 J-9.21201
G3 X-53.89827 Y56.62874 I-13.10221 J-17.08498
G3 X-53.90193 Y56.63033 I-0.59955 J-1.37497
G3 X-59.04623 Y57.98969 I-7.06369 J-16.31786
G3 X-59.08692 Y57.99355 I-0.16192 J-1.49124
G1 X-63.42286 Y58.34511
G3 X-65.03899 Y56.72647 I-0.12122 J-1.49509
G1 X-64.74602 Y53.18155
G3 X-64.74332 Y53.15233 I1.4949 J0.12355
G2 X-64.54618 Y49.76006 I-38.4468 J-3.93614
G2 X-64.91664 Y44.10519 I-54.9579 J0.76085
G3 X-64.91861 Y44.08751 I1.48975 J-0.17509
G1 X-65.53385 Y38.25744
G3 X-64.05467 Y36.60007 I1.49172 J-0.15742
G2 X-62.83957 Y36.57181 I-0.34111 J-40.80657
G3 X-62.83722 Y36.57173 I0.0572 J1.49891
G3 X-61.47579 Y36.54147 I1.73391 J47.37873
G3 X-61.47486 Y36.54146 I0.01178 J1.49995
G3 X-56.71115 Y36.77935 I0.30214 J41.76557
G0 Z3.0
G0 X-54.08442 Y34.7634
G0 Z-1.0
G1 F300.0 Z-4.0
G3 F800.0 X-53.20715 Y30.73403 I2.1419 J-1.64385
G2 X-46.23005 Y26.40277 I-28.26041 J-53.30907
G3 X-46.21846 Y26.39447 I1.57684 J2.19171
G2 X-40.36974 Y21.05024 I-18.87498 J-26.52923
G3 X-40.35948 Y21.03832 I2.05027 J1.75681
G2 X-40.2579 Y20.78597 I-0.31565 J-0.27368
G2 X-40.3281 Y20.63129 I-0.22669 J0.00962
G3 X-40.45644 Y20.50047 I1.86214 J-1.9551
G2 X-40.50667 Y20.47078 I-0.07393 J0.06775
G2 X-40.65569 Y20.55141 I0.04629 J0.2636
G3 X-40.71924 Y20.61699 I-1.97042 J-1.84592
G3 X-51.16295 Y28.84454 I-40.24348 J-40.34118
G3 X-51.16865 Y28.84803 I-1.41201 J-2.30135
G3 X-63.46088 Y34.19619 I-25.47503 J-41.75156
G3 X-66.88637 Y31.486 I-0.72774 J-2.60008
G1 X-66.65284 Y25.76461
G1 X-66.50689 Y20.01393
G3 X-66.50658 Y20.00265 I2.69913 J0.06851
G2 X-66.56571 Y19.8538 I-0.20189 J-0.00597
G3 X-66.64491 Y19.77124 I1.90834 J-1.91003
G2 X-66.66248 Y19.76382 I-0.01693 J0.01557
G3 X-66.79968 Y19.76414 I-0.07497 J-2.69896
G2 X-66.88635 Y19.80026 I-0.00267 J0.11565
G3 X-66.89676 Y19.81119 I-1.96047 J-1.85649
G2 X-66.96845 Y19.9981 I0.18675 J0.17884
G3 X-66.96732 Y20.11419 I-2.69868 J0.08434
G3 X-67.20522 Y27.10915 I-157.35585 J-1.85026
G2 X-67.40622 Y33.86074 I176.33257 J8.62831
G2 X-66.84018 Y41.58442 I82.10201 J-2.13437
G1 X-66.84017 Y41.58453
G1 X-66.84019 Y41.58431
G1 X-66.84018 Y41.58442
G3 X-66.23561 Y49.83686 I-86.91763 J10.5159
G3 X-66.23541 Y49.968 I-2.6991 J0.0698
G3 X-66.54221 Y54.6106 I-53.76915 J-1.22183
G2 X-66.79184 Y58.80585 I53.77643 J5.30494
G2 X-66.38427 Y60.07686 I2.07589 J0.03518
G3 X-66.31756 Y60.17105 I-2.16958 J1.60714
G2 X-65.79669 Y60.40917 I0.45585 J-0.3084
G3 X-65.68988 Y60.3986 I0.31901 J2.68109
G1 X-58.68518 Y59.84637
G2 X-55.65267 Y59.2525 I-2.60333 J-21.33324
G3 X-55.64773 Y59.25116 I0.70804 J2.60551
G2 X-52.90225 Y58.17891 I-3.53114 J-13.09239
G2 X-48.91293 Y55.71781 I-15.77554 J-30.03513
G3 X-48.8822 Y55.69611 I1.57298 J2.19448
G2 X-44.22341 Y50.98617 I-10.40358 J-14.94969
G2 X-42.48432 Y45.19247 I-8.74749 J-5.78358
G3 X-42.4843 Y45.1794 I2.7 J-0.00261
G2 X-43.26314 Y42.10021 I-6.37854 J-0.02473
G2 X-45.54019 Y39.3961 I-8.41643 J4.77645
G3 X-45.56368 Y39.3766 I1.7129 J-2.0871
G2 X-48.87104 Y37.207 I-10.80619 J12.8674
G1 X-48.87117 Y37.20694
G1 X-48.87091 Y37.20706
G1 X-48.87104 Y37.207
G2 X-52.69545 Y35.71244 I-10.19876 J20.45715
G3 X-54.08442 Y34.7634 I0.75293 J-2.59289
G1 F300.0 X-53.13247 Y34.0328
G3 F800.0 X-52.64509 Y31.79426 I1.18995 J-0.91325
G2 X-45.52923 Y27.37686 I-28.82246 J-54.3693
G3 X-45.52279 Y27.37225 I0.87602 J1.21761
G2 X-39.45851 Y21.83104 I-19.57065 J-27.50701
G3 X-39.45281 Y21.82442 I1.13904 J0.97601
G2 X-39.0577 Y20.79795 I-1.22232 J-1.05978
G2 X-39.50048 Y19.76236 I-1.42689 J-0.00237
G3 X-39.57178 Y19.68968 I1.03452 J-1.08617
G2 X-40.52046 Y19.26798 I-0.95859 J0.87854
G2 X-41.53144 Y19.731 I0.06009 J1.46641
G3 X-41.56674 Y19.76743 I-1.09468 J-1.02551
G3 X-51.79051 Y27.82172 I-39.39598 J-39.49162
G3 X-51.79367 Y27.82366 I-0.78445 J-1.27853
G3 X-63.78432 Y33.0406 I-24.85 J-40.72719
G3 X-65.68737 Y31.53494 I-0.4043 J-1.44449
G1 X-65.45346 Y25.80431
G1 X-65.30727 Y20.04438
G3 X-65.3071 Y20.03811 I1.49952 J0.03806
G2 X-65.71756 Y19.0049 I-1.40136 J-0.04143
G3 X-65.76156 Y18.95903 I1.06019 J-1.06113
G2 X-66.6958 Y18.56428 I-0.90028 J0.82778
G3 X-66.77202 Y18.56446 I-0.04165 J-1.49942
G2 X-67.75767 Y18.97515 I-0.03033 J1.31533
G3 X-67.76345 Y18.98122 I-1.08915 J-1.03138
G2 X-68.16786 Y20.03559 I1.05345 J1.0088
G3 X-68.16724 Y20.10008 I-1.49927 J0.04685
G3 X-68.40357 Y27.04608 I-156.15594 J-1.83615
G2 X-68.60638 Y33.86992 I177.53092 J8.69137
G2 X-68.0315 Y41.72851 I83.30218 J-2.14355
G1 X-68.03149 Y41.72857
G1 X-68.03151 Y41.72844
G1 X-68.0315 Y41.72851
G3 X-67.43521 Y49.86788 I-85.72632 J10.37181
G3 X-67.4351 Y49.94074 I-1.4995 J0.03878
G3 X-67.73576 Y54.48619 I-52.56946 J-1.19457
G2 X-67.99163 Y58.78313 I54.96998 J5.42934
G2 X-67.34853 Y60.79114 I3.27567 J0.0579
G3 X-67.31147 Y60.84347 I-1.20532 J0.89286
G2 X-65.65491 Y61.60076 I1.44975 J-0.98082
G3 X-65.59557 Y61.59489 I0.17723 J1.48949
G1 X-58.56564 Y61.04067
G2 X-55.33799 Y60.41051 I-2.72288 J-22.52754
G3 X-55.33524 Y60.40976 I0.39335 J1.44751
G2 X-52.34552 Y59.24195 I-3.84363 J-14.25099
G2 X-48.21383 Y56.69313 I-16.33228 J-31.09817
G3 X-48.19676 Y56.68107 I0.87388 J1.21915
G2 X-43.22672 Y51.65451 I-11.08903 J-15.93466
G2 X-41.28432 Y45.19131 I-9.74417 J-6.45192
G3 X-41.28431 Y45.18405 I1.5 J-0.00145
G2 X-42.21458 Y41.51659 I-7.57853 J-0.02938
G2 X-44.7789 Y38.4685 I-9.46499 J5.36008
G3 X-44.79195 Y38.45767 I0.95161 J-1.1595
G2 X-48.33557 Y36.13309 I-11.57792 J13.78633
G1 X-48.33564 Y36.13306
G1 X-48.3355 Y36.13313
G1 X-48.33557 Y36.13309
G2 X-52.36081 Y34.56005 I-10.73423 J21.53106
G3 X-53.13247 Y34.0328 I0.41829 J-1.4405
G0 Z3.0
M5
M30
