( Made using CamBam - http://www.cambam.co.uk )
( Rudis_Garderobe 3/21/2021 8:47:51 AM )
( T3 : 3.0 )
G21 G90 G64 G40
G0 Z3.0
( T3 : 3.0 )
T3 M6
( Text )
G17
M3 S1000
G0 X-15.15673 Y-17.05249
G0 Z1.0
G1 F300.0 Z-2.0
G2 F800.0 X-15.36565 Y-16.0779 I4.67171 J1.5111
G3 X-15.38147 Y-15.9585 I-2.68383 J-0.29502
G2 X-16.49187 Y-2.54741 I93.08062 J14.45828
G2 X-15.65635 Y6.11476 I52.49807 J-0.69234
G3 X-15.62976 Y6.29677 I-2.6568 J0.48107
G2 X-15.59307 Y6.44539 I0.58193 J-0.06485
G3 X-15.45676 Y6.44565 I0.06312 J2.69926
G2 X-15.29799 Y6.3839 I0.00596 J-0.2197
G3 X-15.26981 Y6.35703 I1.87741 J1.94044
G2 X-15.67473 Y2.40445 I-32.73409 J1.3564
G3 X-15.67959 Y2.37374 I2.66431 J-0.43752
G3 X-16.11935 Y-2.46362 I39.65031 J-6.04324
G3 X-16.12052 Y-2.52836 I2.69878 J-0.08118
G3 X-15.78988 Y-11.13714 I96.88017 J-0.58977
G3 X-14.73585 Y-17.23175 I32.25834 J2.44046
G3 X-13.43737 Y-18.88261 I2.60434 J0.71234
G3 X-11.04746 Y-19.91211 I6.42673 J11.63045
G3 X-10.97182 Y-19.93502 I0.82025 J2.57239
G3 X-8.39338 Y-20.30337 I2.62019 J9.13264
G3 X-8.35295 Y-20.30324 I0.01187 J2.69997
G3 X-1.94447 Y-19.59996 I-0.34594 J32.70178
G2 X-8.32868 Y-20.85117 I-6.08325 J14.1262
G3 X-8.40448 Y-20.85075 I-0.05283 J-2.69948
G2 X-11.06331 Y-20.55102 I-0.09446 J11.10452
G2 X-13.23691 Y-19.60777 I1.56929 J6.59229
G2 X-15.15673 Y-17.05249 I2.75189 J4.06638
G0 Z3.0
G0 X1.94539 Y-18.94078
G0 Z1.0
G1 F300.0 Z-2.0
G3 F800.0 X2.37548 Y-18.53656 I-2.03588 J2.59715
G3 X2.41515 Y-19.33891 I37.64101 J1.45918
G3 X1.94539 Y-18.94078 I-2.35916 J-2.30745
G1 F300.0 X1.60186 Y-19.4327
G3 F800.0 X0.50339 Y-18.98369 I-1.54587 J-2.21366
G3 X0.68417 Y-18.93011 I-9.20228 J31.38222
G3 X2.60947 Y-16.33033 I-0.77466 J2.58648
G1 X2.58018 Y-10.38306
G3 X2.58006 Y-10.36853 I-2.69997 J-0.0133
G1 X2.52151 Y-4.68908
G2 X3.06238 Y5.98117 I92.37431 J0.66649
G3 X3.07227 Y6.09394 I-2.68412 J0.29239
G2 X3.1109 Y6.27108 I0.61295 J-0.04087
G3 X3.29324 Y6.26987 I0.10916 J2.69779
G2 X3.42374 Y6.23125 I0.00596 J-0.2197
G3 X3.4235 Y6.22621 I2.6967 J-0.13347
G1 X2.89615 Y-4.84801
G3 X2.89311 Y-4.98234 I2.69694 J-0.12843
G3 X2.92246 Y-11.32366 I1296.81125 J2.83302
G3 X2.92248 Y-11.32645 I2.69993 J0.0191
G2 X2.95169 Y-17.6358 I-907.5296 J-7.35627
G3 X2.95204 Y-17.67631 I2.7 J0.00311
G3 X3.04684 Y-19.7934 I37.06445 J0.59893
G3 X3.05243 Y-19.85867 I2.69274 J0.19783
G2 X3.1574 Y-21.61696 I-23.0922 J-2.26092
G3 X3.15806 Y-21.64181 I2.69937 J0.05849
G3 X3.11987 Y-21.67842 I1.8491 J-1.96744
G2 X2.98841 Y-21.73026 I-0.12732 J0.13025
G3 X2.92937 Y-21.72956 I-0.06133 J-2.6993
G2 X2.7126 Y-21.16427 I1.38824 J0.85655
G3 X1.60186 Y-19.4327 I-2.65661 J-0.48209
G1 F300.0 X0.91481 Y-20.41655
G3 F800.0 X-0.61466 Y-20.30463 I-0.85882 J-1.22981
G2 X-8.35216 Y-22.05094 I-7.41306 J14.83087
G3 X-8.39427 Y-22.05071 I-0.02935 J-1.49971
G2 X-11.3408 Y-21.71849 I-0.10467 J12.30448
G2 X-13.90453 Y-20.60492 I1.84679 J7.75976
G2 X-16.55846 Y-16.20902 I3.41951 J5.06353
G3 X-16.56725 Y-16.14269 I-1.49102 J-0.1639
G2 X-17.69195 Y-2.54621 I94.2664 J14.64246
G2 X-16.83715 Y6.32857 I53.69816 J-0.69355
G3 X-16.82238 Y6.42969 I-1.476 J0.26726
G2 X-16.40785 Y7.38885 I1.77455 J-0.19777
G2 X-15.60981 Y7.64678 I0.73562 J-0.9125
G3 X-15.48929 Y7.64521 I0.07987 J1.49787
G2 X-14.46358 Y7.24632 I0.03848 J-1.41926
G3 X-14.44359 Y7.22733 I1.04301 J1.07802
G2 X-14.06994 Y6.32924 I-0.80266 J-0.86072
G2 X-14.49059 Y2.20999 I-33.93396 J1.38418
G3 X-14.49329 Y2.19293 I1.48017 J-0.24307
G3 X-14.9199 Y-2.4997 I38.46401 J-5.86243
G3 X-14.92055 Y-2.53567 I1.49932 J-0.0451
G3 X-14.59363 Y-11.04224 I95.68019 J-0.58247
G3 X-13.57836 Y-16.91515 I31.06209 J2.34556
G3 X-12.85699 Y-17.8323 I1.44685 J0.39575
G3 X-10.68291 Y-18.76883 I5.84635 J10.58013
G3 X-10.64088 Y-18.78155 I0.45569 J1.42911
G3 X-8.3881 Y-19.10338 I2.28926 J7.97918
G3 X-8.36564 Y-19.10331 I0.00659 J1.49999
G3 X0.33987 Y-17.78056 I-0.33325 J31.50185
G3 X1.40949 Y-16.33624 I-0.43037 J1.43694
G1 X1.38019 Y-10.38897
G3 X1.38013 Y-10.3809 I-1.49998 J-0.00739
G1 X1.32156 Y-4.6996
G2 X1.86943 Y6.11112 I93.57426 J0.67701
G3 X1.87493 Y6.17377 I-1.49118 J0.16244
G2 X2.27421 Y7.19359 I1.8103 J-0.1207
G2 X3.13275 Y7.47142 I0.78614 J-0.96391
G3 X3.26071 Y7.46943 I0.0873 J1.49746
G2 X4.28642 Y7.07054 I0.03848 J-1.41926
G3 X4.29867 Y7.05882 I1.04301 J1.07802
G2 X4.62488 Y6.21309 I-0.7234 J-0.7648
G3 X4.62214 Y6.16913 I1.49556 J-0.11531
G1 X4.0948 Y-4.90509
G3 X4.0931 Y-4.97971 I1.4983 J-0.07135
G3 X4.12243 Y-11.31517 I1295.61125 J2.8304
G3 X4.12244 Y-11.31672 I1.49996 J0.01061
G2 X4.15169 Y-17.63442 I-908.72956 J-7.366
G3 X4.15189 Y-17.65692 I1.5 J0.00173
G3 X4.24361 Y-19.70548 I35.8646 J0.57955
G3 X4.24672 Y-19.74174 I1.49597 J0.1099
G2 X4.35712 Y-21.59096 I-24.28649 J-2.37785
G3 X4.35768 Y-21.61061 I1.49965 J0.03249
G2 X3.98415 Y-22.51223 I-1.17617 J-0.04091
G3 X3.95866 Y-22.53657 I1.02301 J-1.09702
G2 X2.96115 Y-22.92995 I-0.96612 J0.9884
G3 X2.86662 Y-22.93078 I-0.03407 J-1.49961
G2 X2.08852 Y-22.61858 I-0.04126 J1.02288
G2 X1.53189 Y-21.37853 I2.22909 J1.74556
G3 X0.91481 Y-20.41655 I-1.4759 J-0.26783
G1 F300.0 X1.94539 Y-18.94078
G1 Z-4.0
G3 F800.0 X2.37548 Y-18.53656 I-2.03588 J2.59715
G3 X2.41515 Y-19.33891 I37.64101 J1.45918
G3 X1.94539 Y-18.94078 I-2.35916 J-2.30745
G1 F300.0 X1.60186 Y-19.4327
G3 F800.0 X0.50339 Y-18.98369 I-1.54587 J-2.21366
G3 X0.68417 Y-18.93011 I-9.20228 J31.38222
G3 X2.60947 Y-16.33033 I-0.77466 J2.58648
G1 X2.58018 Y-10.38306
G3 X2.58006 Y-10.36853 I-2.69997 J-0.0133
G1 X2.52151 Y-4.68908
G2 X3.06238 Y5.98117 I92.37431 J0.66649
G3 X3.07227 Y6.09394 I-2.68412 J0.29239
G2 X3.1109 Y6.27108 I0.61295 J-0.04087
G3 X3.29324 Y6.26987 I0.10916 J2.69779
G2 X3.42374 Y6.23125 I0.00596 J-0.2197
G3 X3.4235 Y6.22621 I2.6967 J-0.13347
G1 X2.89615 Y-4.84801
G3 X2.89311 Y-4.98234 I2.69694 J-0.12843
G3 X2.92246 Y-11.32366 I1296.81125 J2.83302
G3 X2.92248 Y-11.32645 I2.69993 J0.0191
G2 X2.95169 Y-17.6358 I-907.5296 J-7.35627
G3 X2.95204 Y-17.67631 I2.7 J0.00311
G3 X3.04684 Y-19.7934 I37.06445 J0.59893
G3 X3.05243 Y-19.85867 I2.69274 J0.19783
G2 X3.1574 Y-21.61696 I-23.0922 J-2.26092
G3 X3.15806 Y-21.64181 I2.69937 J0.05849
G3 X3.11987 Y-21.67842 I1.8491 J-1.96744
G2 X2.98841 Y-21.73026 I-0.12732 J0.13025
G3 X2.92937 Y-21.72956 I-0.06133 J-2.6993
G2 X2.7126 Y-21.16427 I1.38824 J0.85655
G3 X1.60186 Y-19.4327 I-2.65661 J-0.48209
G0 Z3.0
G0 X-1.94447 Y-19.59996
G0 Z-1.0
G1 F300.0 Z-4.0
G2 F800.0 X-8.32868 Y-20.85117 I-6.08325 J14.1262
G3 X-8.40448 Y-20.85075 I-0.05283 J-2.69948
G2 X-11.06331 Y-20.55102 I-0.09446 J11.10452
G2 X-13.23691 Y-19.60777 I1.56929 J6.59229
G2 X-15.36565 Y-16.0779 I2.75189 J4.06638
G3 X-15.38147 Y-15.9585 I-2.68383 J-0.29502
G2 X-16.49187 Y-2.54741 I93.08062 J14.45828
G2 X-15.65635 Y6.11476 I52.49807 J-0.69234
G3 X-15.62976 Y6.29677 I-2.6568 J0.48107
G2 X-15.59307 Y6.44539 I0.58193 J-0.06485
G3 X-15.45676 Y6.44565 I0.06312 J2.69926
G2 X-15.29799 Y6.3839 I0.00596 J-0.2197
G3 X-15.26981 Y6.35703 I1.87741 J1.94044
G2 X-15.67473 Y2.40445 I-32.73409 J1.3564
G3 X-15.67959 Y2.37374 I2.66431 J-0.43752
G3 X-16.11935 Y-2.46362 I39.65031 J-6.04324
G3 X-16.12052 Y-2.52836 I2.69878 J-0.08118
G3 X-15.78988 Y-11.13714 I96.88017 J-0.58977
G3 X-14.73585 Y-17.23175 I32.25834 J2.44046
G3 X-13.43737 Y-18.88261 I2.60434 J0.71234
G3 X-11.04746 Y-19.91211 I6.42673 J11.63045
G3 X-10.97182 Y-19.93502 I0.82025 J2.57239
G3 X-8.39338 Y-20.30337 I2.62019 J9.13264
G3 X-8.35295 Y-20.30324 I0.01187 J2.69997
G3 X-1.94447 Y-19.59996 I-0.34594 J32.70178
G1 F300.0 X-1.46984 Y-20.70211
G2 F800.0 X-8.35216 Y-22.05094 I-6.55788 J15.22835
G3 X-8.39427 Y-22.05071 I-0.02935 J-1.49971
G2 X-11.3408 Y-21.71849 I-0.10467 J12.30448
G2 X-13.90453 Y-20.60492 I1.84679 J7.75976
G2 X-16.55846 Y-16.20902 I3.41951 J5.06353
G3 X-16.56725 Y-16.14269 I-1.49102 J-0.1639
G2 X-17.69195 Y-2.54621 I94.2664 J14.64246
G2 X-16.83715 Y6.32857 I53.69816 J-0.69355
G3 X-16.82238 Y6.42969 I-1.476 J0.26726
G2 X-16.40785 Y7.38885 I1.77455 J-0.19777
G2 X-15.60981 Y7.64678 I0.73562 J-0.9125
G3 X-15.48929 Y7.64521 I0.07987 J1.49787
G2 X-14.46358 Y7.24632 I0.03848 J-1.41926
G3 X-14.44359 Y7.22733 I1.04301 J1.07802
G2 X-14.06994 Y6.32924 I-0.80266 J-0.86072
G2 X-14.49059 Y2.20999 I-33.93396 J1.38418
G3 X-14.49329 Y2.19293 I1.48017 J-0.24307
G3 X-14.9199 Y-2.4997 I38.46401 J-5.86243
G3 X-14.92055 Y-2.53567 I1.49932 J-0.0451
G3 X-14.59363 Y-11.04224 I95.68019 J-0.58247
G3 X-13.57836 Y-16.91515 I31.06209 J2.34556
G3 X-12.85699 Y-17.8323 I1.44685 J0.39575
G3 X-10.68291 Y-18.76883 I5.84635 J10.58013
G3 X-10.64088 Y-18.78155 I0.45569 J1.42911
G3 X-8.3881 Y-19.10338 I2.28926 J7.97918
G3 X-8.36564 Y-19.10331 I0.00659 J1.49999
G3 X0.33987 Y-17.78056 I-0.33325 J31.50185
G3 X1.40949 Y-16.33624 I-0.43037 J1.43694
G1 X1.38019 Y-10.38897
G3 X1.38013 Y-10.3809 I-1.49998 J-0.00739
G1 X1.32156 Y-4.6996
G2 X1.86943 Y6.11112 I93.57426 J0.67701
G3 X1.87493 Y6.17377 I-1.49118 J0.16244
G2 X2.27421 Y7.19359 I1.8103 J-0.1207
G2 X3.13275 Y7.47142 I0.78614 J-0.96391
G3 X3.26071 Y7.46943 I0.0873 J1.49746
G2 X4.28642 Y7.07054 I0.03848 J-1.41926
G3 X4.29867 Y7.05882 I1.04301 J1.07802
G2 X4.62488 Y6.21309 I-0.7234 J-0.7648
G3 X4.62214 Y6.16913 I1.49556 J-0.11531
G1 X4.0948 Y-4.90509
G3 X4.0931 Y-4.97971 I1.4983 J-0.07135
G3 X4.12243 Y-11.31517 I1295.61125 J2.8304
G3 X4.12244 Y-11.31672 I1.49996 J0.01061
G2 X4.15169 Y-17.63442 I-908.72956 J-7.366
G3 X4.15189 Y-17.65692 I1.5 J0.00173
G3 X4.24361 Y-19.70548 I35.8646 J0.57955
G3 X4.24672 Y-19.74174 I1.49597 J0.1099
G2 X4.35712 Y-21.59096 I-24.28649 J-2.37785
G3 X4.35768 Y-21.61061 I1.49965 J0.03249
G2 X3.98415 Y-22.51223 I-1.17617 J-0.04091
G3 X3.95866 Y-22.53657 I1.02301 J-1.09702
G2 X2.96115 Y-22.92995 I-0.96612 J0.9884
G3 X2.86662 Y-22.93078 I-0.03407 J-1.49961
G2 X2.08852 Y-22.61858 I-0.04126 J1.02288
G2 X1.53189 Y-21.37853 I2.22909 J1.74556
G3 X-0.61466 Y-20.30463 I-1.4759 J-0.26783
G2 X-1.46984 Y-20.70211 I-7.41306 J14.83087
G0 Z3.0
G0 X16.38352 Y-12.95662
G0 Z1.0
G1 F300.0 Z-2.0
G3 F800.0 X18.61845 Y-16.22671 I9.61023 J4.1693
G3 X21.93157 Y-18.55676 I7.79191 J7.55891
G3 X21.94864 Y-18.56436 I0.61885 J1.36639
G3 X25.96706 Y-19.39648 I3.97455 J9.07486
G3 X30.80876 Y-18.33275 I0.27501 J10.29894
G3 X30.89752 Y-18.28509 I-0.66488 J1.34459
G3 X32.75009 Y-17.0154 I-7.58683 J13.0561
G3 X34.36591 Y-15.70061 I-31.666 J40.56653
G3 X34.38626 Y-15.68304 I-0.97008 J1.14409
G3 X35.43542 Y-14.56152 I-5.20722 J5.92277
G3 X35.74522 Y-13.62231 I-1.18998 J0.91321
G1 X35.65766 Y-8.57341
G1 X35.68674 Y-5.20069
G1 X35.74523 Y-1.7499
G3 X35.62128 Y-1.12694 I-1.49978 J0.02542
G3 X32.12029 Y3.06733 I-8.88689 J-3.85969
G3 X32.07974 Y3.09351 I-0.83383 J-1.24689
G3 X26.85523 Y4.5219 I-5.00235 J-8.02787
G3 X22.35916 Y3.81706 I-0.1906 J-13.47658
G3 X22.34872 Y3.8135 I0.47917 J-1.42141
G3 X18.33337 Y1.05922 I2.99309 J-8.66754
G3 X18.31228 Y1.03365 I1.14645 J-0.9673
G3 X16.03147 Y-3.75764 I8.88936 J-7.17014
G3 X15.51878 Y-8.66701 I21.0153 J-4.67613
G3 X16.38352 Y-12.95662 I10.47498 J-0.12031
G0 Z3.0
G0 X23.26073 Y5.32063
G0 Z1.0
G1 F300.0 Z-2.0
G2 F800.0 X26.70966 Y5.77106 I3.28734 J-11.74158
G3 X26.76656 Y5.77091 I0.03578 J2.69976
G2 X29.00473 Y5.60125 I0.10529 J-13.4586
G3 X29.03279 Y5.59689 I0.42787 J2.66588
G2 X30.41149 Y5.1871 I-0.7616 J-5.08651
G3 X26.84983 Y5.71968 I-3.3341 J-10.12147
G3 X23.26073 Y5.32063 I-0.18519 J-14.67436
G0 Z3.0
G0 X35.67234 Y2.22807
G0 Z1.0
G1 F300.0 Z-2.0
G3 F800.0 X36.47134 Y2.58316 I-0.92885 J3.16658
G3 X36.38802 Y1.23801 I108.86895 J-7.41854
G3 X35.67234 Y2.22807 I-9.65363 J-6.22464
G1 F300.0 X35.50346 Y2.80382
G3 F800.0 X37.20295 Y4.28062 I-0.75997 J2.59084
G2 X37.18016 Y4.01219 I-734.635 J62.22399
G3 X37.17941 Y4.00323 I2.69028 J-0.22886
G3 X36.88143 Y-1.15125 I108.16088 J-8.83861
G3 X36.71976 Y-0.64986 I-2.63599 J-0.57324
G3 X34.43071 Y2.71283 I-9.98536 J-4.33677
G3 X35.50346 Y2.80382 I0.31278 J2.68182
G0 Z3.0
G0 X37.56233 Y8.68019
G0 Z1.0
G1 F300.0 Z-2.0
G2 F800.0 X37.77833 Y13.57628 I489.2607 J-19.13219
G3 X37.77915 Y13.59416 I-2.69675 J0.1325
G2 X38.32231 Y21.0361 I122.6651 J-5.212
G2 X37.88824 Y12.98308 I-158.94183 J4.5289
G3 X37.8869 Y12.9655 I2.69153 J-0.21365
G2 X37.56233 Y8.68019 I-735.31896 J53.53911
G0 Z3.0
G0 X36.62838 Y-15.94784
G0 Z1.0
G1 F300.0 Z-2.0
G3 F800.0 X36.79457 Y-17.46998 I62.70373 J6.07575
G3 X35.57274 Y-17.03346 I-1.69951 J-2.82872
G3 X35.57318 Y-17.03307 I-2.1769 J2.47694
G3 X36.62838 Y-15.94784 I-6.39415 J7.27279
G1 F300.0 X36.16683 Y-15.56447
G3 F800.0 X36.3855 Y-15.29063 I-6.98779 J5.80419
G3 X36.94264 Y-13.60154 I-2.14006 J1.64231
G1 X36.85568 Y-8.58718
G3 X36.9832 Y-12.33156 I154.71442 J3.39456
G3 X37.69048 Y-19.55428 I62.34891 J2.45947
G2 X37.68643 Y-19.54059 I2.55751 J0.76308
G3 X33.48011 Y-18.13492 I-2.59138 J-0.75812
G2 X29.80687 Y-20.09463 I-8.27339 J11.0851
G2 X25.99356 Y-20.73349 I-3.77158 J10.8122
G3 X25.95265 Y-20.73365 I-0.00984 J-2.69998
G2 X21.51579 Y-19.94517 I-0.13921 J12.09424
G2 X17.87131 Y-17.50893 I3.87849 J9.7461
G3 X17.84183 Y-17.47906 I-1.93642 J-1.88157
G2 X15.33166 Y-13.58066 I7.69199 J7.71019
G2 X15.25988 Y-13.37525 I12.83212 J4.59977
G3 X17.767 Y-17.06897 I10.73387 J4.58793
G3 X21.43747 Y-19.64768 I8.64337 J8.40116
G3 X21.46818 Y-19.66136 I1.11294 J2.45732
G3 X25.95371 Y-20.59414 I4.45501 J10.17185
G3 X31.33961 Y-19.40627 I0.28836 J11.49659
G3 X31.49922 Y-19.32056 I-1.19573 J2.41811
G3 X33.49281 Y-17.9549 I-8.18853 J14.09157
G3 X35.14043 Y-16.61405 I-32.40872 J41.50603
G3 X35.17701 Y-16.58246 I-1.74459 J2.05753
G3 X36.16683 Y-15.56447 I-5.99798 J6.82218
G0 Z3.0
G0 X38.38171 Y-15.36486
G0 Z1.0
G1 F300.0 Z-2.0
G3 F800.0 X38.9457 Y-19.80201 I60.9504 J5.49277
G2 X38.98598 Y-20.27022 I-3.53566 J-0.54
G3 X38.98626 Y-20.28178 I1.4997 J0.03011
G2 X38.65331 Y-21.06657 I-1.02431 J-0.02846
G3 X38.62319 Y-21.09487 I1.01205 J-1.10714
G2 X37.77173 Y-21.43546 I-0.84285 J0.87249
G3 X37.75865 Y-21.43542 I-0.01066 J-1.49996
G2 X37.18173 Y-21.15057 I-0.00117 J0.72428
G3 X37.17915 Y-21.14721 I-1.19238 J-0.91007
G2 X36.53471 Y-19.87753 I3.06884 J2.35602
G3 X34.19786 Y-19.0966 I-1.43966 J-0.42118
G2 X30.20404 Y-21.227 I-8.99115 J12.04678
G2 X25.98919 Y-21.93348 I-4.16875 J11.94457
G3 X25.96646 Y-21.93357 I-0.00547 J-1.49999
G2 X21.08075 Y-21.06357 I-0.15302 J13.29417
G2 X17.01068 Y-18.34519 I4.31353 J10.8645
G3 X16.9943 Y-18.32859 I-1.07579 J-1.04531
G2 X14.20474 Y-13.9931 I8.53951 J8.55972
G2 X13.33323 Y-8.80302 I13.95905 J5.01221
G3 Y-8.76768 I-1.49989 J0.01799
G2 X14.18057 Y-2.55548 I21.38198 J0.24742
G2 X17.0968 Y2.77057 I13.70696 J-4.04373
G3 X17.09888 Y2.77296 I-1.13261 J0.98346
G2 X21.41073 Y5.94766 I9.1485 J-7.90994
G2 X26.72556 Y6.97096 I5.13734 J-12.36861
G3 X26.75718 Y6.97087 I0.01988 J1.49987
G2 X29.19489 Y6.78608 I0.11467 J-14.65856
G3 X29.21048 Y6.78366 I0.23771 J1.48105
G2 X31.19082 Y6.14173 I-0.9393 J-6.27328
G1 X33.85589 Y4.18546
G3 X36.24271 Y5.34638 I0.8876 J1.2092
G2 X36.57978 Y13.63517 I490.58031 J-15.79837
G3 X36.58023 Y13.6451 I-1.49819 J0.07361
G2 X37.20142 Y21.84312 I123.86402 J-5.26294
G3 X37.20305 Y21.85882 I-1.49113 J0.16287
G2 X37.60158 Y22.87062 I1.97893 J-0.19509
G2 X38.29403 Y23.11566 I0.6401 J-0.70792
G3 X38.39999 Y23.11359 I0.08227 J1.49774
G2 X39.04055 Y23.02299 I0.03281 J-2.07755
G3 X39.04752 Y23.02087 I0.43874 J1.4344
G2 X39.36708 Y22.75637 I-0.15352 J-0.51079
G2 X39.54307 Y21.81908 I-2.03515 J-0.86728
G3 X39.54273 Y21.8068 I1.49925 J-0.04747
G2 X39.08448 Y12.88812 I-160.16225 J3.7582
G3 X39.08374 Y12.87836 I1.4953 J-0.11869
G2 X38.37584 Y3.91047 I-736.51579 J53.62625
G3 X38.37543 Y3.9055 I1.4946 J-0.12714
G3 X38.01888 Y-4.82812 I106.96487 J-8.74088
G3 X38.18211 Y-12.28024 I153.55123 J-0.36449
G3 X38.38171 Y-15.36486 I61.15 J2.40815
G1 F300.0 X36.62838 Y-15.94784
G1 Z-4.0
G3 F800.0 X36.79457 Y-17.46998 I62.70373 J6.07575
G3 X35.57274 Y-17.03346 I-1.69951 J-2.82872
G3 X35.57318 Y-17.03307 I-2.1769 J2.47694
G3 X36.62838 Y-15.94784 I-6.39415 J7.27279
G1 F300.0 X36.16683 Y-15.56447
G3 F800.0 X36.3855 Y-15.29063 I-6.98779 J5.80419
G3 X36.94264 Y-13.60154 I-2.14006 J1.64231
G1 X36.85568 Y-8.58718
G3 X36.9832 Y-12.33156 I154.71442 J3.39456
G3 X37.69048 Y-19.55428 I62.34891 J2.45947
G2 X37.68643 Y-19.54059 I2.55751 J0.76308
G3 X33.48011 Y-18.13492 I-2.59138 J-0.75812
G2 X29.80687 Y-20.09463 I-8.27339 J11.0851
G2 X25.99356 Y-20.73349 I-3.77158 J10.8122
G3 X25.95265 Y-20.73365 I-0.00984 J-2.69998
G2 X21.51579 Y-19.94517 I-0.13921 J12.09424
G2 X17.87131 Y-17.50893 I3.87849 J9.7461
G3 X17.84183 Y-17.47906 I-1.93642 J-1.88157
G2 X15.33166 Y-13.58066 I7.69199 J7.71019
G2 X15.25988 Y-13.37525 I12.83212 J4.59977
G3 X17.767 Y-17.06897 I10.73387 J4.58793
G3 X21.43747 Y-19.64768 I8.64337 J8.40116
G3 X21.46818 Y-19.66136 I1.11294 J2.45732
G3 X25.95371 Y-20.59414 I4.45501 J10.17185
G3 X31.33961 Y-19.40627 I0.28836 J11.49659
G3 X31.49922 Y-19.32056 I-1.19573 J2.41811
G3 X33.49281 Y-17.9549 I-8.18853 J14.09157
G3 X35.14043 Y-16.61405 I-32.40872 J41.50603
G3 X35.17701 Y-16.58246 I-1.74459 J2.05753
G3 X36.16683 Y-15.56447 I-5.99798 J6.82218
G0 Z3.0
G0 X36.38802 Y1.23801
G0 Z-1.0
G1 F300.0 Z-4.0
G3 F800.0 X35.67234 Y2.22807 I-9.65363 J-6.22464
G3 X36.47134 Y2.58316 I-0.92885 J3.16658
G3 X36.38802 Y1.23801 I108.86895 J-7.41854
G1 F300.0 X36.98709 Y1.20462
G3 F800.0 X36.88143 Y-1.15125 I108.3532 J-6.04
G3 X36.71976 Y-0.64986 I-2.63599 J-0.57324
G3 X34.43071 Y2.71283 I-9.98536 J-4.33677
G3 X37.20295 Y4.28062 I0.31278 J2.68182
G2 X37.18016 Y4.01219 I-734.635 J62.22399
G3 X37.17941 Y4.00323 I2.69028 J-0.22886
G3 X36.98709 Y1.20462 I108.16088 J-8.83861
G0 Z3.0
G0 X37.56233 Y8.68019
G0 Z-1.0
G1 F300.0 Z-4.0
G2 F800.0 X37.77833 Y13.57628 I489.2607 J-19.13219
G3 X37.77915 Y13.59416 I-2.69675 J0.1325
G2 X38.32231 Y21.0361 I122.6651 J-5.212
G2 X37.88824 Y12.98308 I-158.94183 J4.5289
G3 X37.8869 Y12.9655 I2.69153 J-0.21365
G2 X37.56233 Y8.68019 I-735.31896 J53.53911
G0 Z3.0
G0 X30.41149 Y5.1871
G0 Z-1.0
G1 F300.0 Z-4.0
G3 F800.0 X26.84983 Y5.71968 I-3.3341 J-10.12147
G3 X23.26073 Y5.32063 I-0.18519 J-14.67436
G2 X26.70966 Y5.77106 I3.28734 J-11.74158
G3 X26.76656 Y5.77091 I0.03578 J2.69976
G2 X29.00473 Y5.60125 I0.10529 J-13.4586
G3 X29.03279 Y5.59689 I0.42787 J2.66588
G2 X30.41149 Y5.1871 I-0.7616 J-5.08651
G1 F300.0 X30.91086 Y6.27826
G2 F800.0 X31.19082 Y6.14173 I-2.63968 J-5.76788
G1 X33.85589 Y4.18546
G3 X36.24271 Y5.34638 I0.8876 J1.2092
G2 X36.57978 Y13.63517 I490.58031 J-15.79837
G3 X36.58023 Y13.6451 I-1.49819 J0.07361
G2 X37.20142 Y21.84312 I123.86402 J-5.26294
G3 X37.20305 Y21.85882 I-1.49113 J0.16287
G2 X37.60158 Y22.87062 I1.97893 J-0.19509
G2 X38.29403 Y23.11566 I0.6401 J-0.70792
G3 X38.39999 Y23.11359 I0.08227 J1.49774
G2 X39.04055 Y23.02299 I0.03281 J-2.07755
G3 X39.04752 Y23.02087 I0.43874 J1.4344
G2 X39.36708 Y22.75637 I-0.15352 J-0.51079
G2 X39.54307 Y21.81908 I-2.03515 J-0.86728
G3 X39.54273 Y21.8068 I1.49925 J-0.04747
G2 X39.08448 Y12.88812 I-160.16225 J3.7582
G3 X39.08374 Y12.87836 I1.4953 J-0.11869
G2 X38.37584 Y3.91047 I-736.51579 J53.62625
G3 X38.37543 Y3.9055 I1.4946 J-0.12714
G3 X38.01888 Y-4.82812 I106.96487 J-8.74088
G3 X38.18211 Y-12.28024 I153.55123 J-0.36449
G3 X38.9457 Y-19.80201 I61.15 J2.40815
G2 X38.98598 Y-20.27022 I-3.53566 J-0.54
G3 X38.98626 Y-20.28178 I1.4997 J0.03011
G2 X38.65331 Y-21.06657 I-1.02431 J-0.02846
G3 X38.62319 Y-21.09487 I1.01205 J-1.10714
G2 X37.77173 Y-21.43546 I-0.84285 J0.87249
G3 X37.75865 Y-21.43542 I-0.01066 J-1.49996
G2 X37.18173 Y-21.15057 I-0.00117 J0.72428
G3 X37.17915 Y-21.14721 I-1.19238 J-0.91007
G2 X36.53471 Y-19.87753 I3.06884 J2.35602
G3 X34.19786 Y-19.0966 I-1.43966 J-0.42118
G2 X30.20404 Y-21.227 I-8.99115 J12.04678
G2 X25.98919 Y-21.93348 I-4.16875 J11.94457
G3 X25.96646 Y-21.93357 I-0.00547 J-1.49999
G2 X21.08075 Y-21.06357 I-0.15302 J13.29417
G2 X17.01068 Y-18.34519 I4.31353 J10.8645
G3 X16.9943 Y-18.32859 I-1.07579 J-1.04531
G2 X14.20474 Y-13.9931 I8.53951 J8.55972
G2 X13.33323 Y-8.80302 I13.95905 J5.01221
G3 Y-8.76768 I-1.49989 J0.01799
G2 X14.18057 Y-2.55548 I21.38198 J0.24742
G2 X17.0968 Y2.77057 I13.70696 J-4.04373
G3 X17.09888 Y2.77296 I-1.13261 J0.98346
G2 X21.41073 Y5.94766 I9.1485 J-7.90994
G2 X26.72556 Y6.97096 I5.13734 J-12.36861
G3 X26.75718 Y6.97087 I0.01988 J1.49987
G2 X29.19489 Y6.78608 I0.11467 J-14.65856
G3 X29.21048 Y6.78366 I0.23771 J1.48105
G2 X30.91086 Y6.27826 I-0.9393 J-6.27328
G0 Z3.0
G0 X30.13737 Y4.01587
G0 Z-1.0
G1 F300.0 Z-4.0
G3 F800.0 X26.85523 Y4.5219 I-3.05999 J-8.95024
G3 X22.35916 Y3.81706 I-0.1906 J-13.47658
G3 X22.34872 Y3.8135 I0.47917 J-1.42141
G3 X18.33337 Y1.05922 I2.99309 J-8.66754
G3 X18.31228 Y1.03365 I1.14645 J-0.9673
G3 X16.03147 Y-3.75764 I8.88936 J-7.17014
G3 X15.51878 Y-8.66701 I21.0153 J-4.67613
G3 X18.61845 Y-16.22671 I10.47498 J-0.12031
G3 X21.93157 Y-18.55676 I7.79191 J7.55891
G3 X21.94864 Y-18.56436 I0.61885 J1.36639
G3 X25.96706 Y-19.39648 I3.97455 J9.07486
G3 X30.80876 Y-18.33275 I0.27501 J10.29894
G3 X30.89752 Y-18.28509 I-0.66488 J1.34459
G3 X32.75009 Y-17.0154 I-7.58683 J13.0561
G3 X34.36591 Y-15.70061 I-31.666 J40.56653
G3 X34.38626 Y-15.68304 I-0.97008 J1.14409
G3 X35.43542 Y-14.56152 I-5.20722 J5.92277
G3 X35.74522 Y-13.62231 I-1.18998 J0.91321
G1 X35.65766 Y-8.57341
G1 X35.68674 Y-5.20069
G1 X35.74523 Y-1.7499
G3 X35.62128 Y-1.12694 I-1.49978 J0.02542
G3 X32.12029 Y3.06733 I-8.88689 J-3.85969
G3 X32.07974 Y3.09351 I-0.83383 J-1.24689
G3 X30.13737 Y4.01587 I-5.00235 J-8.02787
G0 Z3.0
G0 X52.56771 Y3.51396
G0 Z1.0
G1 F300.0 Z-2.0
G3 F800.0 X52.58987 Y4.93119 I-105.13667 J2.35258
G3 X52.58771 Y5.06567 I-2.69989 J0.02401
G2 X52.62115 Y5.20472 I0.26133 J0.0107
G2 X52.6753 Y5.21555 I0.05029 J-0.11067
G3 X52.85994 Y5.216 I0.08576 J2.69864
G2 X52.87896 Y5.20867 I0.00095 J-0.0259
G2 X52.93429 Y5.06245 I-0.14454 J-0.13828
G3 X52.93227 Y4.97918 I2.69787 J-0.10725
G2 X52.64707 Y-1.7234 I-99.71748 J0.88559
G3 X52.34633 Y-8.76147 I103.37386 J-7.94279
G3 X52.34627 Y-8.80094 I2.6999 J-0.02356
G3 X52.43513 Y-14.13254 I247.49169 J1.45832
G3 X52.43594 Y-14.15784 I2.69898 J0.07407
G2 X52.55139 Y-19.32387 I-178.46287 J-6.5723
G3 X52.55318 Y-19.40326 I2.69992 J0.02126
G2 X52.51938 Y-19.5288 I-0.21964 J-0.00819
G2 X52.49007 Y-19.53453 I-0.02669 J0.05868
G3 X52.29439 Y-19.53366 I-0.10986 J-2.69776
G2 X52.2363 Y-19.52094 I-0.00386 J0.12137
G2 X52.20724 Y-19.40324 I0.19061 J0.1095
G3 X52.20904 Y-19.28198 I-2.69812 J0.10064
G3 X52.09055 Y-13.9714 I-181.07276 J-1.38323
G2 X52.00411 Y-8.78917 I240.1016 J6.59705
G2 X52.28909 Y-2.13619 I98.53691 J-0.88823
G3 X52.28918 Y-2.135 I-2.69208 J0.20663
G3 X52.56771 Y3.51396 I-104.85814 J8.00154
G1 F300.0 X51.36801 Y3.54081
G3 F800.0 X51.38991 Y4.94186 I-103.93697 J2.32573
G3 X51.38872 Y5.01657 I-1.49994 J0.01334
G2 X51.75947 Y6.05052 I1.46033 J0.0598
G2 X52.71342 Y6.41494 I0.91197 J-0.95647
G3 X52.81599 Y6.41519 I0.04765 J1.49924
G2 X53.73781 Y6.04676 I0.04489 J-1.22509
G2 X54.13335 Y5.01478 I-1.0034 J-0.97636
G3 X54.13222 Y4.96852 I1.49882 J-0.05958
G2 X53.84357 Y-1.81503 I-100.91743 J0.89625
G3 X53.54628 Y-8.77194 I102.17737 J-7.85117
G3 X53.54625 Y-8.79387 I1.49994 J-0.01309
G3 X53.63468 Y-14.09962 I246.29171 J1.45125
G3 X53.63513 Y-14.11367 I1.49944 J0.04115
G2 X53.75135 Y-19.31442 I-179.66205 J-6.61647
G3 X53.75234 Y-19.35853 I1.49995 J0.01181
G2 X53.38013 Y-20.37085 I-1.4188 J-0.05293
G2 X52.44124 Y-20.73354 I-0.88744 J0.90073
G3 X52.33253 Y-20.73306 I-0.06103 J-1.49876
G2 X51.37581 Y-20.36595 I-0.042 J1.32076
G2 X51.00807 Y-19.35852 I1.0511 J0.95451
G3 X51.00907 Y-19.29115 I-1.49896 J0.05591
G3 X50.89116 Y-14.01008 I-179.87279 J-1.37406
G2 X50.80407 Y-8.78731 I241.30099 J6.63573
G2 X51.09261 Y-2.04436 I99.73694 J-0.89009
G3 X51.09266 Y-2.04369 I-1.4956 J0.11479
G3 X51.36801 Y3.54081 I-103.66162 J7.91023
G1 F300.0 X52.56771 Y3.51396
G1 Z-4.0
G3 F800.0 X52.58987 Y4.93119 I-105.13667 J2.35258
G3 X52.58771 Y5.06567 I-2.69989 J0.02401
G2 X52.62115 Y5.20472 I0.26133 J0.0107
G2 X52.6753 Y5.21555 I0.05029 J-0.11067
G3 X52.85994 Y5.216 I0.08576 J2.69864
G2 X52.87896 Y5.20867 I0.00095 J-0.0259
G2 X52.93429 Y5.06245 I-0.14454 J-0.13828
G3 X52.93227 Y4.97918 I2.69787 J-0.10725
G2 X52.64707 Y-1.7234 I-99.71748 J0.88559
G3 X52.34633 Y-8.76147 I103.37386 J-7.94279
G3 X52.34627 Y-8.80094 I2.6999 J-0.02356
G3 X52.43513 Y-14.13254 I247.49169 J1.45832
G3 X52.43594 Y-14.15784 I2.69898 J0.07407
G2 X52.55139 Y-19.32387 I-178.46287 J-6.5723
G3 X52.55318 Y-19.40326 I2.69992 J0.02126
G2 X52.51938 Y-19.5288 I-0.21964 J-0.00819
G2 X52.49007 Y-19.53453 I-0.02669 J0.05868
G3 X52.29439 Y-19.53366 I-0.10986 J-2.69776
G2 X52.2363 Y-19.52094 I-0.00386 J0.12137
G2 X52.20724 Y-19.40324 I0.19061 J0.1095
G3 X52.20904 Y-19.28198 I-2.69812 J0.10064
G3 X52.09055 Y-13.9714 I-181.07276 J-1.38323
G2 X52.00411 Y-8.78917 I240.1016 J6.59705
G2 X52.28909 Y-2.13619 I98.53691 J-0.88823
G3 X52.28918 Y-2.135 I-2.69208 J0.20663
G3 X52.56771 Y3.51396 I-104.85814 J8.00154
G1 F300.0 X51.36801 Y3.54081
G3 F800.0 X51.38991 Y4.94186 I-103.93697 J2.32573
G3 X51.38872 Y5.01657 I-1.49994 J0.01334
G2 X51.75947 Y6.05052 I1.46033 J0.0598
G2 X52.71342 Y6.41494 I0.91197 J-0.95647
G3 X52.81599 Y6.41519 I0.04765 J1.49924
G2 X53.73781 Y6.04676 I0.04489 J-1.22509
G2 X54.13335 Y5.01478 I-1.0034 J-0.97636
G3 X54.13222 Y4.96852 I1.49882 J-0.05958
G2 X53.84357 Y-1.81503 I-100.91743 J0.89625
G3 X53.54628 Y-8.77194 I102.17737 J-7.85117
G3 X53.54625 Y-8.79387 I1.49994 J-0.01309
G3 X53.63468 Y-14.09962 I246.29171 J1.45125
G3 X53.63513 Y-14.11367 I1.49944 J0.04115
G2 X53.75135 Y-19.31442 I-179.66205 J-6.61647
G3 X53.75234 Y-19.35853 I1.49995 J0.01181
G2 X53.38013 Y-20.37085 I-1.4188 J-0.05293
G2 X52.44124 Y-20.73354 I-0.88744 J0.90073
G3 X52.33253 Y-20.73306 I-0.06103 J-1.49876
G2 X51.37581 Y-20.36595 I-0.042 J1.32076
G2 X51.00807 Y-19.35852 I1.0511 J0.95451
G3 X51.00907 Y-19.29115 I-1.49896 J0.05591
G3 X50.89116 Y-14.01008 I-179.87279 J-1.37406
G2 X50.80407 Y-8.78731 I241.30099 J6.63573
G2 X51.09261 Y-2.04436 I99.73694 J-0.89009
G3 X51.09266 Y-2.04369 I-1.4956 J0.11479
G3 X51.36801 Y3.54081 I-103.66162 J7.91023
G0 Z3.0
G0 X53.67804 Y18.30467
G0 Z1.0
G1 F300.0 Z-2.0
G2 F800.0 X53.63822 Y18.325 I0.01109 J0.07087
G3 X53.57081 Y18.39099 I-2.34199 J-2.32488
G3 Y18.41395 I-3.29998 J0.01148
G3 X53.63821 Y18.47993 I-2.27459 J2.39087
G2 X53.68995 Y18.50112 I0.05091 J-0.05054
G3 X53.76735 Y18.50114 I0.03791 J3.29978
G3 X53.85562 Y18.41395 I2.36286 J2.30367
G3 Y18.39099 I3.29998 J-0.01148
G3 X53.76735 Y18.30379 I2.27459 J-2.39087
G3 X53.68995 Y18.30381 I-0.03948 J-3.29976
G2 X53.67804 Y18.30467 I-0.00082 J0.07173
G1 F300.0 X53.58529 Y17.71188
G2 F800.0 X53.2124 Y17.9023 I0.10384 J0.66366
G3 X53.13826 Y17.97418 I-1.91618 J-1.90217
G2 X52.9706 Y18.36699 I0.36007 J0.38588
G3 Y18.43792 I-2.69977 J0.03548
G2 X53.13828 Y18.83077 I0.5278 J0.00693
G3 X53.2124 Y18.90264 I-1.84206 J1.97404
G2 X53.69685 Y19.10108 I0.47673 J-0.47325
G3 X53.76938 Y19.10123 I0.03102 J2.69982
G2 X54.19054 Y18.9266 I0.00883 J-0.57389
G3 X54.28817 Y18.83076 I1.93967 J1.87821
G2 X54.45583 Y18.43795 I-0.36007 J-0.38588
G3 Y18.36701 I2.69977 J-0.03548
G2 X54.28815 Y17.97416 I-0.5278 J-0.00693
G3 X54.19053 Y17.87833 I1.84206 J-1.97404
G2 X53.7694 Y17.70371 I-0.4123 J0.39924
G3 X53.69684 Y17.70385 I-0.04153 J-2.69968
G2 X53.58529 Y17.71188 I-0.00772 J0.67169
G1 F300.0 X53.39978 Y16.52631
G2 F800.0 X52.36077 Y17.05689 I0.28934 J1.84923
G3 X52.31958 Y17.09682 I-1.06454 J-1.05676
G2 X51.7707 Y18.38276 I1.17875 J1.26323
G3 Y18.42216 I-1.49987 J0.01971
G2 X52.31959 Y19.70812 I1.7277 J0.02269
G3 X52.36077 Y19.74805 I-1.02337 J1.09669
G2 X53.71063 Y20.301 I1.32836 J-1.31866
G3 X53.75093 Y20.30108 I0.01723 J1.4999
G2 X55.05261 Y19.76136 I0.02728 J-1.77375
G3 X55.10685 Y19.70812 I1.07759 J1.04345
G2 X55.65573 Y18.42218 I-1.17875 J-1.26323
G3 Y18.38277 I1.49987 J-0.01971
G2 X55.10684 Y17.09681 I-1.7277 J-0.02269
G3 X55.05261 Y17.04357 I1.02337 J-1.09669
G2 X53.75094 Y16.50385 I-1.27438 J1.23399
G3 X53.71063 Y16.50393 I-0.02307 J-1.49982
G2 X53.39978 Y16.52631 I-0.02151 J1.87161
G1 F300.0 X53.67804 Y18.30467
G1 Z-4.0
G2 F800.0 X53.63822 Y18.325 I0.01109 J0.07087
G3 X53.57081 Y18.39099 I-2.34199 J-2.32488
G3 Y18.41395 I-3.29998 J0.01148
G3 X53.63821 Y18.47993 I-2.27459 J2.39087
G2 X53.68995 Y18.50112 I0.05091 J-0.05054
G3 X53.76735 Y18.50114 I0.03791 J3.29978
G3 X53.85562 Y18.41395 I2.36286 J2.30367
G3 Y18.39099 I3.29998 J-0.01148
G3 X53.76735 Y18.30379 I2.27459 J-2.39087
G3 X53.68995 Y18.30381 I-0.03948 J-3.29976
G2 X53.67804 Y18.30467 I-0.00082 J0.07173
G1 F300.0 X53.58529 Y17.71188
G2 F800.0 X53.2124 Y17.9023 I0.10384 J0.66366
G3 X53.13826 Y17.97418 I-1.91618 J-1.90217
G2 X52.9706 Y18.36699 I0.36007 J0.38588
G3 Y18.43792 I-2.69977 J0.03548
G2 X53.13828 Y18.83077 I0.5278 J0.00693
G3 X53.2124 Y18.90264 I-1.84206 J1.97404
G2 X53.69685 Y19.10108 I0.47673 J-0.47325
G3 X53.76938 Y19.10123 I0.03102 J2.69982
G2 X54.19054 Y18.9266 I0.00883 J-0.57389
G3 X54.28817 Y18.83076 I1.93967 J1.87821
G2 X54.45583 Y18.43795 I-0.36007 J-0.38588
G3 Y18.36701 I2.69977 J-0.03548
G2 X54.28815 Y17.97416 I-0.5278 J-0.00693
G3 X54.19053 Y17.87833 I1.84206 J-1.97404
G2 X53.7694 Y17.70371 I-0.4123 J0.39924
G3 X53.69684 Y17.70385 I-0.04153 J-2.69968
G2 X53.58529 Y17.71188 I-0.00772 J0.67169
G1 F300.0 X53.39978 Y16.52631
G2 F800.0 X52.36077 Y17.05689 I0.28934 J1.84923
G3 X52.31958 Y17.09682 I-1.06454 J-1.05676
G2 X51.7707 Y18.38276 I1.17875 J1.26323
G3 Y18.42216 I-1.49987 J0.01971
G2 X52.31959 Y19.70812 I1.7277 J0.02269
G3 X52.36077 Y19.74805 I-1.02337 J1.09669
G2 X53.71063 Y20.301 I1.32836 J-1.31866
G3 X53.75093 Y20.30108 I0.01723 J1.4999
G2 X55.05261 Y19.76136 I0.02728 J-1.77375
G3 X55.10685 Y19.70812 I1.07759 J1.04345
G2 X55.65573 Y18.42218 I-1.17875 J-1.26323
G3 Y18.38277 I1.49987 J-0.01971
G2 X55.10684 Y17.09681 I-1.7277 J-0.02269
G3 X55.05261 Y17.04357 I1.02337 J-1.09669
G2 X53.75094 Y16.50385 I-1.27438 J1.23399
G3 X53.71063 Y16.50393 I-0.02307 J-1.49982
G2 X53.39978 Y16.52631 I-0.02151 J1.87161
G0 Z3.0
G0 X-42.94712 Y-6.37717
G0 Z1.0
G1 F300.0 Z-2.0
G3 F800.0 X-42.97322 Y-6.57832 I4.44842 J-0.67935
G3 X-43.34549 Y-6.41816 I-20.22663 J-46.50127
G3 X-42.94712 Y-6.37717 I-4.3834 J44.54913
G1 F300.0 X-43.01122 Y-5.7806
G3 F800.0 X-42.14739 Y-5.67918 I-4.71768 J43.91157
G3 X-42.37307 Y-7.50286 I3.64869 J-1.37734
G3 X-46.03637 Y-6.00085 I-20.82678 J-45.57673
G3 X-43.01122 Y-5.7806 I-1.69252 J44.13182
G1 F300.0 X-43.1394 Y-4.58746
G3 F800.0 X-41.94924 Y-4.44277 I-4.58949 J42.71843
G3 X-41.9363 Y-4.44099 I-0.36289 J2.67308
G3 X-38.79064 Y-3.78997 I-3.48235 J24.75183
G3 X-35.58131 Y-2.53429 I-4.19738 J15.45697
G3 X-35.50937 Y-2.49537 I-1.24747 J2.39183
G3 X-31.83341 Y0.36495 I-7.61245 J13.57542
G3 X-30.5412 Y1.97152 I-8.20901 J7.92574
G3 X-29.53757 Y4.83387 I-4.65961 J3.24093
G3 X-29.53175 Y5.04533 I-2.69159 J0.17993
G3 X-31.4536 Y10.92133 I-10.31234 J-0.12054
G3 X-35.23937 Y14.75985 I-13.88498 J-9.90801
G3 X-39.97576 Y17.55044 I-13.82089 J-18.04305
G3 X-39.98235 Y17.55331 I-1.07824 J-2.47274
G3 X-45.47313 Y19.00423 I-7.53944 J-17.41691
G3 X-45.54631 Y19.01117 I-0.29119 J-2.68184
G1 X-49.88225 Y19.36273
G3 X-52.7887 Y16.45177 I-0.21801 J-2.68878
G1 X-52.49573 Y12.90685
G3 X-52.49086 Y12.85429 I2.68843 J0.22218
G2 X-52.30008 Y9.58382 I-37.25543 J-3.81417
G2 X-52.66223 Y4.06892 I-53.76018 J0.76103
G3 X-52.66578 Y4.03713 I2.67916 J-0.31488
G1 X-53.28101 Y-1.79295
G3 X-50.62086 Y-4.77355 I2.6827 J-0.2831
G2 X-49.44141 Y-4.80098 I-0.3311 J-39.60901
G3 X-49.4372 Y-4.80114 I0.10287 J2.69564
G3 X-48.04138 Y-4.83216 I1.77771 J48.57553
G3 X-48.0397 Y-4.83217 I0.02119 J2.69752
G3 X-43.1394 Y-4.58746 I0.31081 J42.96314
G1 F300.0 X-43.26733 Y-3.39672
G3 F800.0 X-42.11034 Y-3.25606 I-4.46156 J41.52768
G3 X-42.10315 Y-3.25507 I-0.20178 J1.48637
G3 X-39.10633 Y-2.63473 I-3.3155 J23.56591
G3 X-36.13512 Y-1.47243 I-3.88169 J14.30172
G3 X-36.09512 Y-1.45079 I-0.69365 J1.32998
G3 X-32.69849 Y1.19316 I-7.0267 J12.53084
G3 X-31.53127 Y2.64545 I-7.34394 J7.09753
G3 X-30.73251 Y4.91375 I-3.66954 J2.567
G3 X-30.72927 Y5.03133 I-1.49666 J0.10005
G3 X-32.42819 Y10.22533 I-9.11483 J-0.10654
G3 X-35.95805 Y13.80179 I-12.91038 J-9.21201
G3 X-40.45444 Y16.45267 I-13.10221 J-17.08498
G3 X-40.45811 Y16.45426 I-0.59955 J-1.37497
G3 X-45.60241 Y17.81363 I-7.06369 J-16.31786
G3 X-45.6431 Y17.81748 I-0.16192 J-1.49124
G1 X-49.97904 Y18.16905
G3 X-51.59516 Y16.55041 I-0.12122 J-1.49509
G1 X-51.3022 Y13.00549
G3 X-51.29949 Y12.97626 I1.4949 J0.12355
G2 X-51.10236 Y9.58399 I-38.4468 J-3.93614
G2 X-51.47282 Y3.92912 I-54.9579 J0.76085
G3 X-51.47479 Y3.91145 I1.48975 J-0.17509
G1 X-52.09002 Y-1.91863
G3 X-50.61085 Y-3.57599 I1.49172 J-0.15742
G2 X-49.39574 Y-3.60425 I-0.34111 J-40.80657
G3 X-49.3934 Y-3.60434 I0.0572 J1.49891
G3 X-48.03197 Y-3.63459 I1.73391 J47.37873
G3 X-48.03103 Y-3.6346 I0.01178 J1.49995
G3 X-43.26733 Y-3.39672 I0.30214 J41.76557
G0 Z3.0
G0 X-40.6406 Y-5.41266
G0 Z1.0
G1 F300.0 Z-2.0
G3 F800.0 X-39.76332 Y-9.44204 I2.1419 J-1.64385
G2 X-32.78623 Y-13.7733 I-28.26041 J-53.30907
G3 X-32.77463 Y-13.78159 I1.57684 J2.19171
G2 X-26.92592 Y-19.12583 I-18.87498 J-26.52923
G3 X-26.91565 Y-19.13774 I2.05027 J1.75681
G2 X-26.81407 Y-19.39009 I-0.31565 J-0.27368
G2 X-26.88428 Y-19.54477 I-0.22669 J0.00962
G3 X-27.01262 Y-19.6756 I1.86214 J-1.9551
G2 X-27.06284 Y-19.70528 I-0.07393 J0.06775
G2 X-27.21187 Y-19.62465 I0.04629 J0.2636
G3 X-27.27542 Y-19.55908 I-1.97042 J-1.84592
G3 X-37.71912 Y-11.33153 I-40.24348 J-40.34118
G3 X-37.72482 Y-11.32804 I-1.41201 J-2.30135
G3 X-50.01705 Y-5.97988 I-25.47503 J-41.75156
G3 X-53.44255 Y-8.69007 I-0.72774 J-2.60008
G1 X-53.20902 Y-14.41146
G1 X-53.06306 Y-20.16213
G3 X-53.06275 Y-20.17341 I2.69913 J0.06851
G2 X-53.12189 Y-20.32226 I-0.20189 J-0.00597
G3 X-53.20109 Y-20.40482 I1.90834 J-1.91003
G2 X-53.21865 Y-20.41224 I-0.01693 J0.01557
G3 X-53.35586 Y-20.41192 I-0.07497 J-2.69896
G2 X-53.44252 Y-20.37581 I-0.00267 J0.11565
G3 X-53.45293 Y-20.36488 I-1.96047 J-1.85649
G2 X-53.52463 Y-20.17796 I0.18675 J0.17884
G3 X-53.52349 Y-20.06188 I-2.69868 J0.08434
G3 X-53.7614 Y-13.06692 I-157.35585 J-1.85026
G2 X-53.9624 Y-6.31532 I176.33257 J8.62831
G2 X-53.39636 Y1.40835 I82.10201 J-2.13437
G1 X-53.39634 Y1.40846
G1 X-53.39637 Y1.40824
G1 X-53.39636 Y1.40835
G3 X-52.79179 Y9.66079 I-86.91763 J10.5159
G3 X-52.79158 Y9.79193 I-2.6991 J0.0698
G3 X-53.09838 Y14.43453 I-53.76915 J-1.22183
G2 X-53.34802 Y18.62979 I53.77643 J5.30494
G2 X-52.94044 Y19.90079 I2.07589 J0.03518
G3 X-52.87374 Y19.99499 I-2.16958 J1.60714
G2 X-52.35287 Y20.2331 I0.45585 J-0.3084
G3 X-52.24606 Y20.22254 I0.31901 J2.68109
G1 X-45.24136 Y19.6703
G2 X-42.20885 Y19.07644 I-2.60333 J-21.33324
G3 X-42.2039 Y19.0751 I0.70804 J2.60551
G2 X-39.45843 Y18.00285 I-3.53114 J-13.09239
G2 X-35.46911 Y15.54174 I-15.77554 J-30.03513
G3 X-35.43838 Y15.52004 I1.57298 J2.19448
G2 X-30.77958 Y10.8101 I-10.40358 J-14.94969
G2 X-29.04049 Y5.0164 I-8.74749 J-5.78358
G3 X-29.04047 Y5.00333 I2.7 J-0.00261
G2 X-29.81931 Y1.92414 I-6.37854 J-0.02473
G2 X-32.09637 Y-0.77997 I-8.41643 J4.77645
G3 X-32.11985 Y-0.79947 I1.7129 J-2.0871
G2 X-35.42722 Y-2.96907 I-10.80619 J12.8674
G1 X-35.42734 Y-2.96913
G1 X-35.42709 Y-2.969
G1 X-35.42722 Y-2.96907
G2 X-39.25162 Y-4.46362 I-10.19876 J20.45715
G3 X-40.6406 Y-5.41266 I0.75293 J-2.59289
G1 F300.0 X-39.68864 Y-6.14326
G3 F800.0 X-39.20127 Y-8.38181 I1.18995 J-0.91325
G2 X-32.08541 Y-12.79921 I-28.82246 J-54.3693
G3 X-32.07897 Y-12.80382 I0.87602 J1.21761
G2 X-26.01469 Y-18.34502 I-19.57065 J-27.50701
G3 X-26.00898 Y-18.35164 I1.13904 J0.97601
G2 X-25.61387 Y-19.37811 I-1.22232 J-1.05978
G2 X-26.05666 Y-20.41371 I-1.42689 J-0.00237
G3 X-26.12796 Y-20.48639 I1.03452 J-1.08617
G2 X-27.07664 Y-20.90808 I-0.95859 J0.87854
G2 X-28.08761 Y-20.44507 I0.06009 J1.46641
G3 X-28.12292 Y-20.40863 I-1.09468 J-1.02551
G3 X-38.34668 Y-12.35435 I-39.39598 J-39.49162
G3 X-38.34985 Y-12.35241 I-0.78445 J-1.27853
G3 X-50.34049 Y-7.13547 I-24.85 J-40.72719
G3 X-52.24354 Y-8.64113 I-0.4043 J-1.44449
G1 X-52.00964 Y-14.37176
G1 X-51.86345 Y-20.13168
G3 X-51.86328 Y-20.13795 I1.49952 J0.03806
G2 X-52.27373 Y-21.17117 I-1.40136 J-0.04143
G3 X-52.31773 Y-21.21703 I1.06019 J-1.06113
G2 X-53.25197 Y-21.61178 I-0.90028 J0.82778
G3 X-53.3282 Y-21.6116 I-0.04165 J-1.49942
G2 X-54.31384 Y-21.20092 I-0.03033 J1.31533
G3 X-54.31963 Y-21.19484 I-1.08915 J-1.03138
G2 X-54.72404 Y-20.14048 I1.05345 J1.0088
G3 X-54.72341 Y-20.07599 I-1.49927 J0.04685
G3 X-54.95975 Y-13.12998 I-156.15594 J-1.83615
G2 X-55.16256 Y-6.30615 I177.53092 J8.69137
G2 X-54.58768 Y1.55244 I83.30218 J-2.14355
G1 X-54.58767 Y1.5525
G1 X-54.58768 Y1.55238
G1 Y1.55244
G3 X-53.99139 Y9.69181 I-85.72632 J10.37181
G3 X-53.99127 Y9.76467 I-1.4995 J0.03878
G3 X-54.29194 Y14.31013 I-52.56946 J-1.19457
G2 X-54.5478 Y18.60707 I54.96998 J5.42934
G2 X-53.9047 Y20.61508 I3.27567 J0.0579
G3 X-53.86764 Y20.66741 I-1.20532 J0.89286
G2 X-52.21108 Y21.42469 I1.44975 J-0.98082
G3 X-52.15175 Y21.41883 I0.17723 J1.48949
G1 X-45.12182 Y20.8646
G2 X-41.89417 Y20.23444 I-2.72288 J-22.52754
G3 X-41.89142 Y20.2337 I0.39335 J1.44751
G2 X-38.90169 Y19.06588 I-3.84363 J-14.25099
G2 X-34.77001 Y16.51707 I-16.33228 J-31.09817
G3 X-34.75293 Y16.50501 I0.87388 J1.21915
G2 X-29.7829 Y11.47844 I-11.08903 J-15.93466
G2 X-27.84049 Y5.01524 I-9.74417 J-6.45192
G3 X-27.84048 Y5.00798 I1.5 J-0.00145
G2 X-28.77075 Y1.34052 I-7.57853 J-0.02938
G2 X-31.33508 Y-1.70757 I-9.46499 J5.36008
G3 X-31.34813 Y-1.7184 I0.95161 J-1.1595
G2 X-34.89175 Y-4.04297 I-11.57792 J13.78633
G1 X-34.89182 Y-4.04301
G1 X-34.89168 Y-4.04294
G1 X-34.89175 Y-4.04297
G2 X-38.91699 Y-5.61602 I-10.73423 J21.53106
G3 X-39.68864 Y-6.14326 I0.41829 J-1.4405
G0 Z3.0
G0 X-42.94712 Y-6.37717
G0 Z-1.0
G1 F300.0 Z-4.0
G3 F800.0 X-42.97322 Y-6.57832 I4.44842 J-0.67935
G3 X-43.34549 Y-6.41816 I-20.22663 J-46.50127
G3 X-42.94712 Y-6.37717 I-4.3834 J44.54913
G1 F300.0 X-43.01122 Y-5.7806
G3 F800.0 X-42.14739 Y-5.67918 I-4.71768 J43.91157
G3 X-42.37307 Y-7.50286 I3.64869 J-1.37734
G3 X-46.03637 Y-6.00085 I-20.82678 J-45.57673
G3 X-43.01122 Y-5.7806 I-1.69252 J44.13182
G1 F300.0 X-43.1394 Y-4.58746
G3 F800.0 X-41.94924 Y-4.44277 I-4.58949 J42.71843
G3 X-41.9363 Y-4.44099 I-0.36289 J2.67308
G3 X-38.79064 Y-3.78997 I-3.48235 J24.75183
G3 X-35.58131 Y-2.53429 I-4.19738 J15.45697
G3 X-35.50937 Y-2.49537 I-1.24747 J2.39183
G3 X-31.83341 Y0.36495 I-7.61245 J13.57542
G3 X-30.5412 Y1.97152 I-8.20901 J7.92574
G3 X-29.53757 Y4.83387 I-4.65961 J3.24093
G3 X-29.53175 Y5.04533 I-2.69159 J0.17993
G3 X-31.4536 Y10.92133 I-10.31234 J-0.12054
G3 X-35.23937 Y14.75985 I-13.88498 J-9.90801
G3 X-39.97576 Y17.55044 I-13.82089 J-18.04305
G3 X-39.98235 Y17.55331 I-1.07824 J-2.47274
G3 X-45.47313 Y19.00423 I-7.53944 J-17.41691
G3 X-45.54631 Y19.01117 I-0.29119 J-2.68184
G1 X-49.88225 Y19.36273
G3 X-52.7887 Y16.45177 I-0.21801 J-2.68878
G1 X-52.49573 Y12.90685
G3 X-52.49086 Y12.85429 I2.68843 J0.22218
G2 X-52.30008 Y9.58382 I-37.25543 J-3.81417
G2 X-52.66223 Y4.06892 I-53.76018 J0.76103
G3 X-52.66578 Y4.03713 I2.67916 J-0.31488
G1 X-53.28101 Y-1.79295
G3 X-50.62086 Y-4.77355 I2.6827 J-0.2831
G2 X-49.44141 Y-4.80098 I-0.3311 J-39.60901
G3 X-49.4372 Y-4.80114 I0.10287 J2.69564
G3 X-48.04138 Y-4.83216 I1.77771 J48.57553
G3 X-48.0397 Y-4.83217 I0.02119 J2.69752
G3 X-43.1394 Y-4.58746 I0.31081 J42.96314
G1 F300.0 X-43.26733 Y-3.39672
G3 F800.0 X-42.11034 Y-3.25606 I-4.46156 J41.52768
G3 X-42.10315 Y-3.25507 I-0.20178 J1.48637
G3 X-39.10633 Y-2.63473 I-3.3155 J23.56591
G3 X-36.13512 Y-1.47243 I-3.88169 J14.30172
G3 X-36.09512 Y-1.45079 I-0.69365 J1.32998
G3 X-32.69849 Y1.19316 I-7.0267 J12.53084
G3 X-31.53127 Y2.64545 I-7.34394 J7.09753
G3 X-30.73251 Y4.91375 I-3.66954 J2.567
G3 X-30.72927 Y5.03133 I-1.49666 J0.10005
G3 X-32.42819 Y10.22533 I-9.11483 J-0.10654
G3 X-35.95805 Y13.80179 I-12.91038 J-9.21201
G3 X-40.45444 Y16.45267 I-13.10221 J-17.08498
G3 X-40.45811 Y16.45426 I-0.59955 J-1.37497
G3 X-45.60241 Y17.81363 I-7.06369 J-16.31786
G3 X-45.6431 Y17.81748 I-0.16192 J-1.49124
G1 X-49.97904 Y18.16905
G3 X-51.59516 Y16.55041 I-0.12122 J-1.49509
G1 X-51.3022 Y13.00549
G3 X-51.29949 Y12.97626 I1.4949 J0.12355
G2 X-51.10236 Y9.58399 I-38.4468 J-3.93614
G2 X-51.47282 Y3.92912 I-54.9579 J0.76085
G3 X-51.47479 Y3.91145 I1.48975 J-0.17509
G1 X-52.09002 Y-1.91863
G3 X-50.61085 Y-3.57599 I1.49172 J-0.15742
G2 X-49.39574 Y-3.60425 I-0.34111 J-40.80657
G3 X-49.3934 Y-3.60434 I0.0572 J1.49891
G3 X-48.03197 Y-3.63459 I1.73391 J47.37873
G3 X-48.03103 Y-3.6346 I0.01178 J1.49995
G3 X-43.26733 Y-3.39672 I0.30214 J41.76557
G0 Z3.0
G0 X-40.6406 Y-5.41266
G0 Z-1.0
G1 F300.0 Z-4.0
G3 F800.0 X-39.76332 Y-9.44204 I2.1419 J-1.64385
G2 X-32.78623 Y-13.7733 I-28.26041 J-53.30907
G3 X-32.77463 Y-13.78159 I1.57684 J2.19171
G2 X-26.92592 Y-19.12583 I-18.87498 J-26.52923
G3 X-26.91565 Y-19.13774 I2.05027 J1.75681
G2 X-26.81407 Y-19.39009 I-0.31565 J-0.27368
G2 X-26.88428 Y-19.54477 I-0.22669 J0.00962
G3 X-27.01262 Y-19.6756 I1.86214 J-1.9551
G2 X-27.06284 Y-19.70528 I-0.07393 J0.06775
G2 X-27.21187 Y-19.62465 I0.04629 J0.2636
G3 X-27.27542 Y-19.55908 I-1.97042 J-1.84592
G3 X-37.71912 Y-11.33153 I-40.24348 J-40.34118
G3 X-37.72482 Y-11.32804 I-1.41201 J-2.30135
G3 X-50.01705 Y-5.97988 I-25.47503 J-41.75156
G3 X-53.44255 Y-8.69007 I-0.72774 J-2.60008
G1 X-53.20902 Y-14.41146
G1 X-53.06306 Y-20.16213
G3 X-53.06275 Y-20.17341 I2.69913 J0.06851
G2 X-53.12189 Y-20.32226 I-0.20189 J-0.00597
G3 X-53.20109 Y-20.40482 I1.90834 J-1.91003
G2 X-53.21865 Y-20.41224 I-0.01693 J0.01557
G3 X-53.35586 Y-20.41192 I-0.07497 J-2.69896
G2 X-53.44252 Y-20.37581 I-0.00267 J0.11565
G3 X-53.45293 Y-20.36488 I-1.96047 J-1.85649
G2 X-53.52463 Y-20.17796 I0.18675 J0.17884
G3 X-53.52349 Y-20.06188 I-2.69868 J0.08434
G3 X-53.7614 Y-13.06692 I-157.35585 J-1.85026
G2 X-53.9624 Y-6.31532 I176.33257 J8.62831
G2 X-53.39636 Y1.40835 I82.10201 J-2.13437
G1 X-53.39634 Y1.40846
G1 X-53.39637 Y1.40824
G1 X-53.39636 Y1.40835
G3 X-52.79179 Y9.66079 I-86.91763 J10.5159
G3 X-52.79158 Y9.79193 I-2.6991 J0.0698
G3 X-53.09838 Y14.43453 I-53.76915 J-1.22183
G2 X-53.34802 Y18.62979 I53.77643 J5.30494
G2 X-52.94044 Y19.90079 I2.07589 J0.03518
G3 X-52.87374 Y19.99499 I-2.16958 J1.60714
G2 X-52.35287 Y20.2331 I0.45585 J-0.3084
G3 X-52.24606 Y20.22254 I0.31901 J2.68109
G1 X-45.24136 Y19.6703
G2 X-42.20885 Y19.07644 I-2.60333 J-21.33324
G3 X-42.2039 Y19.0751 I0.70804 J2.60551
G2 X-39.45843 Y18.00285 I-3.53114 J-13.09239
G2 X-35.46911 Y15.54174 I-15.77554 J-30.03513
G3 X-35.43838 Y15.52004 I1.57298 J2.19448
G2 X-30.77958 Y10.8101 I-10.40358 J-14.94969
G2 X-29.04049 Y5.0164 I-8.74749 J-5.78358
G3 X-29.04047 Y5.00333 I2.7 J-0.00261
G2 X-29.81931 Y1.92414 I-6.37854 J-0.02473
G2 X-32.09637 Y-0.77997 I-8.41643 J4.77645
G3 X-32.11985 Y-0.79947 I1.7129 J-2.0871
G2 X-35.42722 Y-2.96907 I-10.80619 J12.8674
G1 X-35.42734 Y-2.96913
G1 X-35.42709 Y-2.969
G1 X-35.42722 Y-2.96907
G2 X-39.25162 Y-4.46362 I-10.19876 J20.45715
G3 X-40.6406 Y-5.41266 I0.75293 J-2.59289
G1 F300.0 X-39.68864 Y-6.14326
G3 F800.0 X-39.20127 Y-8.38181 I1.18995 J-0.91325
G2 X-32.08541 Y-12.79921 I-28.82246 J-54.3693
G3 X-32.07897 Y-12.80382 I0.87602 J1.21761
G2 X-26.01469 Y-18.34502 I-19.57065 J-27.50701
G3 X-26.00898 Y-18.35164 I1.13904 J0.97601
G2 X-25.61387 Y-19.37811 I-1.22232 J-1.05978
G2 X-26.05666 Y-20.41371 I-1.42689 J-0.00237
G3 X-26.12796 Y-20.48639 I1.03452 J-1.08617
G2 X-27.07664 Y-20.90808 I-0.95859 J0.87854
G2 X-28.08761 Y-20.44507 I0.06009 J1.46641
G3 X-28.12292 Y-20.40863 I-1.09468 J-1.02551
G3 X-38.34668 Y-12.35435 I-39.39598 J-39.49162
G3 X-38.34985 Y-12.35241 I-0.78445 J-1.27853
G3 X-50.34049 Y-7.13547 I-24.85 J-40.72719
G3 X-52.24354 Y-8.64113 I-0.4043 J-1.44449
G1 X-52.00964 Y-14.37176
G1 X-51.86345 Y-20.13168
G3 X-51.86328 Y-20.13795 I1.49952 J0.03806
G2 X-52.27373 Y-21.17117 I-1.40136 J-0.04143
G3 X-52.31773 Y-21.21703 I1.06019 J-1.06113
G2 X-53.25197 Y-21.61178 I-0.90028 J0.82778
G3 X-53.3282 Y-21.6116 I-0.04165 J-1.49942
G2 X-54.31384 Y-21.20092 I-0.03033 J1.31533
G3 X-54.31963 Y-21.19484 I-1.08915 J-1.03138
G2 X-54.72404 Y-20.14048 I1.05345 J1.0088
G3 X-54.72341 Y-20.07599 I-1.49927 J0.04685
G3 X-54.95975 Y-13.12998 I-156.15594 J-1.83615
G2 X-55.16256 Y-6.30615 I177.53092 J8.69137
G2 X-54.58768 Y1.55244 I83.30218 J-2.14355
G1 X-54.58767 Y1.5525
G1 X-54.58768 Y1.55238
G1 Y1.55244
G3 X-53.99139 Y9.69181 I-85.72632 J10.37181
G3 X-53.99127 Y9.76467 I-1.4995 J0.03878
G3 X-54.29194 Y14.31013 I-52.56946 J-1.19457
G2 X-54.5478 Y18.60707 I54.96998 J5.42934
G2 X-53.9047 Y20.61508 I3.27567 J0.0579
G3 X-53.86764 Y20.66741 I-1.20532 J0.89286
G2 X-52.21108 Y21.42469 I1.44975 J-0.98082
G3 X-52.15175 Y21.41883 I0.17723 J1.48949
G1 X-45.12182 Y20.8646
G2 X-41.89417 Y20.23444 I-2.72288 J-22.52754
G3 X-41.89142 Y20.2337 I0.39335 J1.44751
G2 X-38.90169 Y19.06588 I-3.84363 J-14.25099
G2 X-34.77001 Y16.51707 I-16.33228 J-31.09817
G3 X-34.75293 Y16.50501 I0.87388 J1.21915
G2 X-29.7829 Y11.47844 I-11.08903 J-15.93466
G2 X-27.84049 Y5.01524 I-9.74417 J-6.45192
G3 X-27.84048 Y5.00798 I1.5 J-0.00145
G2 X-28.77075 Y1.34052 I-7.57853 J-0.02938
G2 X-31.33508 Y-1.70757 I-9.46499 J5.36008
G3 X-31.34813 Y-1.7184 I0.95161 J-1.1595
G2 X-34.89175 Y-4.04297 I-11.57792 J13.78633
G1 X-34.89182 Y-4.04301
G1 X-34.89168 Y-4.04294
G1 X-34.89175 Y-4.04297
G2 X-38.91699 Y-5.61602 I-10.73423 J21.53106
G3 X-39.68864 Y-6.14326 I0.41829 J-1.4405
G0 Z3.0
M5
M30
