; generated by Slic3r Prusa Edition 1.40.1+win64 on 2019-07-27 at 15:50:30

; 

; external perimeters extrusion width = 0.45mm
; perimeters extrusion width = 0.45mm
; infill extrusion width = 0.45mm
; solid infill extrusion width = 0.45mm
; top infill extrusion width = 0.40mm
; first layer extrusion width = 0.42mm

M107
M115 U3.1.0 ; tell printer latest fw version
M201 X9000 Y9000 Z500 E10000 ; sets maximum accelerations, mm/sec^2
M203 X500 Y500 Z12 E120 ; sets maximum feedrates, mm/sec
M204 S1500 T1500 ; sets acceleration (S) and retract acceleration (T)
M205 X10 Y10 Z0.2 E2.5 ; sets the jerk limits, mm/sec
M205 S0 T0 ; sets the minimum extruding and travel feed rate, mm/sec
M83  ; extruder relative mode
M104 S215 ; set extruder temp
M140 S60 ; set bed temp
M190 S60 ; wait for bed temp
M109 S215 ; wait for extruder temp
G28 W ; home all without mesh bed level
G80 ; mesh bed leveling
G1 Y-3.0 F1000.0 ; go outside print area
G92 E0.0
G1 X60.0 E9.0  F1000.0 ; intro line
G1 X100.0 E12.5  F1000.0 ; intro line
G92 E0.0
M900 K30; Filament gcode
G21 ; set units to millimeters
G90 ; use absolute coordinates
M83 ; use relative distances for extrusion
;BEFORE_LAYER_CHANGE
G92 E0.0
;0.2


G1 E-0.80000 F2100.00000
G1 Z0.600 F10800.000
;AFTER_LAYER_CHANGE
;0.2
G1 X72.290 Y71.987
G1 Z0.200
G1 E0.80000 F2100.00000
M204 S1000
G1 F1800
G1 X73.169 Y71.146 E0.03814
G1 X73.934 Y70.625 E0.02902
G1 X74.907 Y70.176 E0.03359
G1 X75.924 Y69.906 E0.03302
G1 X76.970 Y69.812 E0.03291
G1 X173.004 Y69.811 E3.01107
G1 X174.074 Y69.905 E0.03368
G1 X175.116 Y70.184 E0.03382
G1 X176.093 Y70.640 E0.03382
G1 X176.972 Y71.254 E0.03359
G1 X177.738 Y72.019 E0.03394
G1 X178.355 Y72.899 E0.03371
G1 X178.812 Y73.876 E0.03382
G1 X179.086 Y74.881 E0.03268
G1 X179.189 Y75.992 E0.03496
G1 X179.185 Y101.117 E0.78778
G1 X179.093 Y102.081 E0.03036
G1 X171.340 Y144.596 E1.35503
G1 X170.997 Y145.569 E0.03234
G1 X170.506 Y146.449 E0.03160
G1 X169.535 Y147.577 E0.04666
G1 X168.792 Y148.161 E0.02965
G1 X167.964 Y148.627 E0.02977
G1 X167.136 Y148.941 E0.02775
G1 X166.259 Y149.135 E0.02817
G1 X165.389 Y149.201 E0.02736
G1 X69.325 Y149.200 E3.01202
G1 X68.497 Y149.140 E0.02602
G1 X67.748 Y148.984 E0.02399
G1 X66.653 Y148.573 E0.03667
G1 X65.994 Y148.204 E0.02369
G1 X65.300 Y147.682 E0.02723
G1 X64.693 Y147.075 E0.02691
G1 X64.212 Y146.443 E0.02491
G1 X63.747 Y145.615 E0.02977
G1 X63.435 Y144.794 E0.02753
G1 X63.240 Y143.921 E0.02806
G1 X63.174 Y143.094 E0.02600
G1 X63.173 Y118.009 E0.78653
G1 X63.229 Y117.188 E0.02580
G1 X70.922 Y74.842 E1.34944
G1 X71.193 Y73.860 E0.03195
G1 X71.666 Y72.863 E0.03462
G1 X72.255 Y72.036 E0.03183
G1 F8640
G1 X73.169 Y71.146 E-0.29450
G1 X73.934 Y70.625 E-0.21368
G1 X74.907 Y70.176 E-0.24740
G1 X74.925 Y70.171 E-0.00442
G1 E-0.04000 F2100.00000
G1 Z0.800 F10800.000
G1 X143.769 Y99.036
G1 Z0.200
G1 E0.80000 F2100.00000
G1 F1800
G1 X143.948 Y98.604 E0.01467
G1 X144.233 Y98.233 E0.01467
G1 X144.604 Y97.948 E0.01467
G1 X145.036 Y97.769 E0.01467
G1 X145.475 Y97.711 E0.01386
G1 X145.959 Y97.767 E0.01530
G1 X146.396 Y97.948 E0.01482
G1 X146.767 Y98.233 E0.01467
G1 X147.052 Y98.604 E0.01467
G1 X147.231 Y99.036 E0.01467
G1 X147.292 Y99.500 E0.01467
G1 X147.231 Y99.964 E0.01467
G1 X147.052 Y100.396 E0.01467
G1 X146.767 Y100.767 E0.01467
G1 X146.396 Y101.052 E0.01467
G1 X145.988 Y101.221 E0.01386
G1 X145.505 Y101.293 E0.01530
G1 X145.036 Y101.231 E0.01482
G1 X144.604 Y101.052 E0.01467
G1 X144.233 Y100.767 E0.01467
G1 X143.948 Y100.396 E0.01467
G1 X143.769 Y99.964 E0.01467
G1 X143.708 Y99.500 E0.01467
G1 X143.761 Y99.096 E0.01279
G1 X144.135 Y99.145 F10800.000
G1 F1800
G1 X144.277 Y98.794 E0.01187
G1 X144.502 Y98.502 E0.01156
G1 X144.794 Y98.277 E0.01156
G1 X145.135 Y98.136 E0.01156
G1 X145.478 Y98.091 E0.01085
G1 X145.864 Y98.136 E0.01219
G1 X146.206 Y98.277 E0.01161
G1 X146.498 Y98.502 E0.01156
G1 X146.723 Y98.794 E0.01156
G1 X146.864 Y99.135 E0.01156
G1 X146.912 Y99.500 E0.01156
G1 X146.864 Y99.865 E0.01156
G1 X146.723 Y100.206 E0.01156
G1 X146.498 Y100.498 E0.01156
G1 X146.206 Y100.723 E0.01156
G1 X145.886 Y100.855 E0.01085
G1 X145.502 Y100.912 E0.01219
G1 X145.135 Y100.864 E0.01161
G1 X144.794 Y100.723 E0.01156
G1 X144.502 Y100.498 E0.01156
G1 X144.277 Y100.206 E0.01156
G1 X144.136 Y99.865 E0.01156
G1 X144.088 Y99.500 E0.01156
G1 X144.127 Y99.204 E0.00935
G1 X143.866 Y98.879 F10800.000
G1 F8640
G1 X144.277 Y98.794 E-0.10088
G1 X144.502 Y98.502 E-0.08510
G1 X144.794 Y98.277 E-0.08510
G1 X145.135 Y98.136 E-0.08510
G1 X145.478 Y98.091 E-0.07988
G1 X145.864 Y98.136 E-0.08977
G1 X146.206 Y98.277 E-0.08550
G1 X146.498 Y98.502 E-0.08510
G1 X146.666 Y98.720 E-0.06357
G1 E-0.04000 F2100.00000
G1 Z0.800 F10800.000
G1 X145.505 Y79.293
G1 Z0.200
G1 E0.80000 F2100.00000
G1 F1800
G1 X145.036 Y79.231 E0.01482
G1 X144.604 Y79.052 E0.01467
G1 X144.233 Y78.767 E0.01467
G1 X143.948 Y78.396 E0.01467
G1 X143.769 Y77.964 E0.01467
G1 X143.708 Y77.500 E0.01467
G1 X143.769 Y77.036 E0.01467
G1 X143.948 Y76.604 E0.01467
G1 X144.233 Y76.233 E0.01467
G1 X144.604 Y75.948 E0.01467
G1 X145.036 Y75.769 E0.01467
G1 X145.475 Y75.711 E0.01386
G1 X145.959 Y75.767 E0.01530
G1 X146.396 Y75.948 E0.01482
G1 X146.767 Y76.233 E0.01467
G1 X147.052 Y76.604 E0.01467
G1 X147.231 Y77.036 E0.01467
G1 X147.292 Y77.500 E0.01467
G1 X147.231 Y77.964 E0.01467
G1 X147.052 Y78.396 E0.01467
G1 X146.767 Y78.767 E0.01467
G1 X146.396 Y79.052 E0.01467
G1 X145.988 Y79.221 E0.01386
G1 X145.564 Y79.284 E0.01342
G1 X145.509 Y78.911 F10800.000
G1 F1800
G1 X145.135 Y78.864 E0.01183
G1 X144.794 Y78.723 E0.01156
G1 X144.502 Y78.498 E0.01156
G1 X144.277 Y78.206 E0.01156
G1 X144.136 Y77.865 E0.01156
G1 X144.088 Y77.500 E0.01156
G1 X144.136 Y77.135 E0.01156
G1 X144.277 Y76.794 E0.01156
G1 X144.502 Y76.502 E0.01156
G1 X144.794 Y76.277 E0.01156
G1 X145.135 Y76.136 E0.01156
G1 X145.478 Y76.091 E0.01085
G1 X145.864 Y76.136 E0.01219
G1 X146.206 Y76.277 E0.01161
G1 X146.498 Y76.502 E0.01156
G1 X146.723 Y76.794 E0.01156
G1 X146.864 Y77.135 E0.01156
G1 X146.912 Y77.500 E0.01156
G1 X146.864 Y77.865 E0.01156
G1 X146.723 Y78.206 E0.01156
G1 X146.498 Y78.498 E0.01156
G1 X146.206 Y78.723 E0.01156
G1 X145.886 Y78.855 E0.01085
G1 X145.568 Y78.902 E0.01008
G1 X145.322 Y79.238 F10800.000
G1 F8640
G1 X145.135 Y78.864 E-0.10052
G1 X144.794 Y78.723 E-0.08510
G1 X144.502 Y78.498 E-0.08510
G1 X144.277 Y78.206 E-0.08510
G1 X144.136 Y77.865 E-0.08510
G1 X144.088 Y77.500 E-0.08510
G1 X144.136 Y77.135 E-0.08510
G1 X144.277 Y76.794 E-0.08510
G1 X144.445 Y76.575 E-0.06377
G1 E-0.04000 F2100.00000
G1 Z0.800 F10800.000
G1 X110.413 Y75.913
G1 Z0.200
G1 E0.80000 F2100.00000
G1 F1800
G1 X139.587 Y75.913 E0.91474
G1 X139.587 Y101.087 E0.78932
G1 X110.413 Y101.087 E0.91474
G1 X110.413 Y75.973 E0.78744
G1 X110.790 Y76.290 F10800.000
G1 F1800
G1 X139.210 Y76.290 E0.89109
G1 X139.210 Y100.710 E0.76567
G1 X110.790 Y100.710 E0.89109
G1 X110.790 Y76.350 E0.76379
G1 X110.677 Y75.906 F10800.000
G1 F8640
G1 X114.081 Y76.343 E-0.76000
G1 E-0.04000 F2100.00000
G1 Z0.800 F10800.000
G1 X95.292 Y77.500
G1 Z0.200
G1 E0.80000 F2100.00000
G1 F1800
G1 X95.231 Y77.964 E0.01467
G1 X95.052 Y78.396 E0.01467
G1 X94.767 Y78.767 E0.01467
G1 X94.396 Y79.052 E0.01467
G1 X93.964 Y79.231 E0.01467
G1 X93.500 Y79.292 E0.01467
G1 X93.036 Y79.231 E0.01467
G1 X92.604 Y79.052 E0.01467
G1 X92.233 Y78.767 E0.01467
G1 X91.948 Y78.396 E0.01467
G1 X91.769 Y77.964 E0.01467
G1 X91.708 Y77.500 E0.01467
G1 X91.769 Y77.036 E0.01467
G1 X91.948 Y76.604 E0.01467
G1 X92.233 Y76.233 E0.01467
G1 X92.604 Y75.948 E0.01467
G1 X93.036 Y75.769 E0.01467
G1 X93.475 Y75.711 E0.01386
G1 X93.959 Y75.767 E0.01530
G1 X94.396 Y75.948 E0.01482
G1 X94.767 Y76.233 E0.01467
G1 X95.052 Y76.604 E0.01467
G1 X95.231 Y77.036 E0.01467
G1 X95.284 Y77.441 E0.01279
G1 X94.910 Y77.490 F10800.000
G1 F1800
G1 X94.864 Y77.865 E0.01187
G1 X94.723 Y78.206 E0.01156
G1 X94.498 Y78.498 E0.01156
G1 X94.206 Y78.723 E0.01156
G1 X93.865 Y78.864 E0.01156
G1 X93.500 Y78.912 E0.01156
G1 X93.135 Y78.864 E0.01156
G1 X92.794 Y78.723 E0.01156
G1 X92.502 Y78.498 E0.01156
G1 X92.277 Y78.206 E0.01156
G1 X92.136 Y77.865 E0.01156
G1 X92.088 Y77.500 E0.01156
G1 X92.136 Y77.135 E0.01156
G1 X92.277 Y76.794 E0.01156
G1 X92.502 Y76.502 E0.01156
G1 X92.794 Y76.277 E0.01156
G1 X93.135 Y76.136 E0.01156
G1 X93.478 Y76.091 E0.01085
G1 X93.864 Y76.136 E0.01219
G1 X94.206 Y76.277 E0.01161
G1 X94.498 Y76.502 E0.01156
G1 X94.723 Y76.794 E0.01156
G1 X94.864 Y77.135 E0.01156
G1 X94.903 Y77.430 E0.00935
G1 X95.239 Y77.677 F10800.000
G1 F8640
G1 X94.864 Y77.865 E-0.10088
G1 X94.723 Y78.206 E-0.08510
G1 X94.498 Y78.498 E-0.08510
G1 X94.206 Y78.723 E-0.08510
G1 X93.865 Y78.864 E-0.08510
G1 X93.500 Y78.912 E-0.08510
G1 X93.135 Y78.864 E-0.08510
G1 X92.794 Y78.723 E-0.08510
G1 X92.576 Y78.555 E-0.06341
G1 E-0.04000 F2100.00000
G1 Z0.800 F10800.000
G1 X94.903 Y72.587
G1 Z0.200
G1 E0.80000 F2100.00000
G1 F1800
G1 X172.974 Y72.587 E2.44788
G1 X173.549 Y72.637 E0.01809
G1 X174.169 Y72.796 E0.02008
G1 X174.705 Y73.046 E0.01854
G1 X175.192 Y73.387 E0.01864
G1 X175.613 Y73.808 E0.01864
G1 X175.954 Y74.295 E0.01864
G1 X176.205 Y74.833 E0.01864
G1 X176.359 Y75.408 E0.01864
G1 X176.413 Y76.026 E0.01945
G1 X176.413 Y100.974 E0.78225
G1 X176.359 Y101.592 E0.01945
G1 X176.205 Y102.167 E0.01864
G1 X175.972 Y102.666 E0.01728
G1 X175.610 Y103.195 E0.02008
G1 X175.192 Y103.613 E0.01854
G1 X174.705 Y103.954 E0.01864
G1 X174.167 Y104.205 E0.01864
G1 X173.592 Y104.359 E0.01864
G1 X172.974 Y104.413 E0.01945
G1 X77.026 Y104.413 E3.00841
G1 X76.408 Y104.359 E0.01945
G1 X75.833 Y104.205 E0.01864
G1 X75.295 Y103.954 E0.01864
G1 X74.843 Y103.638 E0.01728
G1 X74.385 Y103.190 E0.02008
G1 X74.046 Y102.705 E0.01854
G1 X73.795 Y102.167 E0.01864
G1 X73.641 Y101.592 E0.01864
G1 X73.587 Y100.974 E0.01945
G1 X73.587 Y76.026 E0.78225
G1 X73.641 Y75.408 E0.01945
G1 X73.784 Y74.875 E0.01728
G1 X74.048 Y74.292 E0.02008
G1 X74.387 Y73.808 E0.01854
G1 X74.808 Y73.387 E0.01864
G1 X75.295 Y73.046 E0.01864
G1 X75.833 Y72.795 E0.01864
G1 X76.408 Y72.641 E0.01864
G1 X77.026 Y72.587 E0.01945
G1 X94.843 Y72.587 E0.55864
G1 X94.843 Y72.210 F10800.000
G1 F1800
G1 X172.991 Y72.210 E2.45028
G1 X173.613 Y72.264 E0.01958
G1 X174.297 Y72.440 E0.02215
G1 X174.895 Y72.718 E0.02067
G1 X175.436 Y73.097 E0.02071
G1 X175.903 Y73.564 E0.02071
G1 X176.282 Y74.105 E0.02071
G1 X176.561 Y74.704 E0.02071
G1 X176.732 Y75.342 E0.02071
G1 X176.790 Y76.009 E0.02100
G1 X176.790 Y100.991 E0.78328
G1 X176.732 Y101.658 E0.02100
G1 X176.561 Y102.296 E0.02071
G1 X176.301 Y102.854 E0.01929
G1 X175.902 Y103.436 E0.02215
G1 X175.436 Y103.903 E0.02067
G1 X174.895 Y104.282 E0.02071
G1 X174.296 Y104.561 E0.02071
G1 X173.658 Y104.732 E0.02071
G1 X172.991 Y104.790 E0.02100
G1 X77.009 Y104.790 E3.00944
G1 X76.342 Y104.732 E0.02100
G1 X75.704 Y104.561 E0.02071
G1 X75.105 Y104.282 E0.02071
G1 X74.601 Y103.929 E0.01929
G1 X74.097 Y103.435 E0.02215
G1 X73.718 Y102.895 E0.02067
G1 X73.439 Y102.296 E0.02071
G1 X73.268 Y101.658 E0.02071
G1 X73.210 Y100.991 E0.02100
G1 X73.210 Y76.009 E0.78328
G1 X73.268 Y75.342 E0.02100
G1 X73.428 Y74.748 E0.01929
G1 X73.719 Y74.104 E0.02215
G1 X74.097 Y73.564 E0.02067
G1 X74.564 Y73.097 E0.02071
G1 X75.105 Y72.718 E0.02071
G1 X75.704 Y72.439 E0.02071
G1 X76.342 Y72.268 E0.02071
G1 X77.009 Y72.210 E0.02100
G1 X94.783 Y72.210 E0.55727
G1 X95.043 Y72.556 F10800.000
G1 F8640
G1 X98.074 Y72.210 E-0.76000
G1 E-0.04000 F2100.00000
G1 Z0.800 F10800.000
G1 X91.305 Y72.700
G1 Z0.200
G1 E0.80000 F2100.00000
G1 F1800
G1 X94.141 Y75.536 E0.12598
G1 X94.031 Y75.491 E0.00375
G1 X93.500 Y75.430 E0.01678
G1 X90.941 Y72.870 E0.11370
G1 X90.407 Y72.870 E0.01678
G1 X93.022 Y75.486 E0.11618
G1 X92.962 Y75.493 E0.00190
G1 X92.632 Y75.630 E0.01121
G1 X89.872 Y72.870 E0.12260
G1 X89.338 Y72.870 E0.01678
G1 X92.296 Y75.828 E0.13138
G1 X92.002 Y76.068 E0.01192
G1 X88.804 Y72.870 E0.14207
G1 X88.270 Y72.870 E0.01678
G1 X91.771 Y76.371 E0.15550
G1 X91.701 Y76.461 E0.00359
G1 X91.591 Y76.726 E0.00899
G1 X87.736 Y72.870 E0.17127
G1 X87.201 Y72.870 E0.01678
G1 X91.470 Y77.139 E0.18961
G1 X91.423 Y77.500 E0.01145
G1 X91.442 Y77.644 E0.00457
G1 X86.667 Y72.870 E0.21207
G1 X86.133 Y72.870 E0.01678
G1 X110.130 Y96.867 E1.06591
G1 X110.130 Y96.333 E0.01678
G1 X93.356 Y79.558 E0.74509
G1 X93.500 Y79.577 E0.00457
G1 X93.861 Y79.530 E0.01145
G1 X110.130 Y95.799 E0.72263
G1 X110.130 Y95.264 E0.01678
G1 X94.274 Y79.409 E0.70429
G1 X94.539 Y79.299 E0.00899
G1 X94.629 Y79.229 E0.00359
G1 X110.130 Y94.730 E0.68852
G1 X110.130 Y94.196 E0.01678
G1 X94.932 Y78.998 E0.67509
G1 X95.172 Y78.704 E0.01192
G1 X110.130 Y93.662 E0.66440
G1 X110.130 Y93.128 E0.01678
G1 X95.370 Y78.368 E0.65562
G1 X95.507 Y78.038 E0.01121
G1 X95.514 Y77.978 E0.00190
G1 X110.130 Y92.593 E0.64920
G1 X110.130 Y92.059 E0.01678
G1 X95.577 Y77.506 E0.64644
G1 X95.507 Y76.962 E0.01721
G1 X95.464 Y76.859 E0.00353
G1 X110.130 Y91.525 E0.65146
G1 X110.130 Y90.991 E0.01678
G1 X92.009 Y72.870 E0.80490
G1 X92.543 Y72.870 E0.01678
G1 X110.130 Y90.457 E0.78118
G1 X110.130 Y89.923 E0.01678
G1 X93.077 Y72.870 E0.75745
G1 X93.612 Y72.870 E0.01678
G1 X110.130 Y89.388 E0.73372
G1 X110.130 Y88.854 E0.01678
G1 X94.146 Y72.870 E0.70999
G1 X94.680 Y72.870 E0.01678
G1 X110.130 Y88.320 E0.68626
G1 X110.130 Y87.786 E0.01678
G1 X95.214 Y72.870 E0.66254
G1 X95.748 Y72.870 E0.01678
G1 X110.130 Y87.252 E0.63881
G1 X110.130 Y86.717 E0.01678
G1 X96.283 Y72.870 E0.61508
G1 X96.817 Y72.870 E0.01678
G1 X110.130 Y86.183 E0.59135
G1 X110.130 Y85.649 E0.01678
G1 X97.351 Y72.870 E0.56763
G1 X97.885 Y72.870 E0.01678
G1 X110.130 Y85.115 E0.54390
G1 X110.130 Y84.581 E0.01678
G1 X98.419 Y72.870 E0.52017
G1 X98.954 Y72.870 E0.01678
G1 X110.130 Y84.046 E0.49644
G1 X110.130 Y83.512 E0.01678
G1 X99.488 Y72.870 E0.47271
G1 X100.022 Y72.870 E0.01678
G1 X110.130 Y82.978 E0.44899
G1 X110.130 Y82.444 E0.01678
G1 X100.556 Y72.870 E0.42526
G1 X101.090 Y72.870 E0.01678
G1 X110.130 Y81.910 E0.40153
G1 X110.130 Y81.375 E0.01678
G1 X101.625 Y72.870 E0.37780
G1 X102.159 Y72.870 E0.01678
G1 X110.130 Y80.841 E0.35408
G1 X110.130 Y80.307 E0.01678
G1 X102.693 Y72.870 E0.33035
G1 X103.227 Y72.870 E0.01678
G1 X110.130 Y79.773 E0.30662
G1 X110.130 Y79.239 E0.01678
G1 X103.761 Y72.870 E0.28289
G1 X104.295 Y72.870 E0.01678
G1 X110.130 Y78.705 E0.25916
G1 X110.130 Y78.170 E0.01678
G1 X104.830 Y72.870 E0.23544
G1 X105.364 Y72.870 E0.01678
G1 X110.130 Y77.636 E0.21171
G1 X110.130 Y77.102 E0.01678
G1 X105.898 Y72.870 E0.18798
G1 X106.432 Y72.870 E0.01678
G1 X110.130 Y76.568 E0.16425
G1 X110.130 Y76.034 E0.01678
G1 X106.966 Y72.870 E0.14053
G1 X107.501 Y72.870 E0.01678
G1 X110.261 Y75.630 E0.12261
G1 X110.795 Y75.630 E0.01678
G1 X108.035 Y72.870 E0.12261
G1 X108.569 Y72.870 E0.01678
G1 X111.329 Y75.630 E0.12261
G1 X111.863 Y75.630 E0.01678
G1 X109.103 Y72.870 E0.12261
G1 X109.637 Y72.870 E0.01678
G1 X112.398 Y75.630 E0.12261
G1 X112.932 Y75.630 E0.01678
G1 X110.172 Y72.870 E0.12261
G1 X110.706 Y72.870 E0.01678
G1 X113.466 Y75.630 E0.12261
G1 X114.000 Y75.630 E0.01678
G1 X111.240 Y72.870 E0.12261
G1 X111.774 Y72.870 E0.01678
G1 X114.534 Y75.630 E0.12261
G1 X115.069 Y75.630 E0.01678
G1 X112.308 Y72.870 E0.12261
G1 X112.843 Y72.870 E0.01678
G1 X115.603 Y75.630 E0.12261
G1 X116.137 Y75.630 E0.01678
G1 X113.377 Y72.870 E0.12261
G1 X113.911 Y72.870 E0.01678
G1 X116.671 Y75.630 E0.12261
G1 X117.205 Y75.630 E0.01678
G1 X114.445 Y72.870 E0.12261
G1 X114.979 Y72.870 E0.01678
G1 X117.740 Y75.630 E0.12261
G1 X118.274 Y75.630 E0.01678
G1 X115.513 Y72.870 E0.12261
G1 X116.048 Y72.870 E0.01678
G1 X118.808 Y75.630 E0.12261
G1 X119.342 Y75.630 E0.01678
G1 X116.582 Y72.870 E0.12261
G1 X117.116 Y72.870 E0.01678
G1 X119.876 Y75.630 E0.12261
G1 X120.411 Y75.630 E0.01678
G1 X117.650 Y72.870 E0.12261
G1 X118.184 Y72.870 E0.01678
G1 X120.945 Y75.630 E0.12261
G1 X121.479 Y75.630 E0.01678
G1 X118.719 Y72.870 E0.12261
G1 X119.253 Y72.870 E0.01678
G1 X122.013 Y75.630 E0.12261
G1 X122.547 Y75.630 E0.01678
G1 X119.787 Y72.870 E0.12261
G1 X120.321 Y72.870 E0.01678
G1 X123.081 Y75.630 E0.12261
G1 X123.616 Y75.630 E0.01678
G1 X120.855 Y72.870 E0.12261
G1 X121.390 Y72.870 E0.01678
