( Made using CamBam - http://www.cambam.co.uk )
( SVS-mit-Label 10/8/2017 1:21:55 PM )
( T1 : 1.0 )
( T2 : 2.0 )
G21 G90 G64 G40
G0 Z3.0
( T2 : 2.0 )
T2 M6
( Buche-Tasche-2mm )
G17
M3 S1000
G0 X13.3569 Y-23.20854
G0 Z1.0
G1 F300.0 Z-1.0
G3 F800.0 X13.12334 Y-23.37301 I1.74023 J-2.7194
G2 X12.48344 Y-23.84354 I-18.93746 J25.08388
G3 X12.4692 Y-23.85392 I0.58217 J-0.81306
G2 X12.03649 Y-24.05029 I-0.67029 J0.9021
G2 X11.66087 Y-24.01401 I-0.09038 J1.02704
G2 X10.21017 Y-23.49976 I155.54157 J441.08367
G3 X10.40716 Y-23.54231 I2.28086 J10.08343
G3 X12.3938 Y-23.55716 I1.02722 J4.52677
G3 X12.49558 Y-23.52999 I-0.20669 J0.97841
G3 X13.3569 Y-23.20854 I-3.25222 J10.02907
G0 Z3.0
G0 X22.72074 Y-27.59957
G0 Z1.0
G1 F300.0 Z-1.0
G3 F800.0 X23.61901 Y-27.94717 I1.62785 J2.87224
G3 X22.53116 Y-28.91197 I8.19706 J-10.33817
G3 X22.37132 Y-29.0679 I3.1383 J-3.37687
G3 X22.70892 Y-27.68826 I-5.02654 J1.96114
G3 X22.72074 Y-27.59957 I-5.01644 J0.71371
G0 Z3.0
G0 X29.44765 Y-24.22501
G0 Z1.0
G1 F300.0 Z-1.0
G3 F800.0 X30.36262 Y-22.17974 I-3.94858 J2.99371
G3 X30.3681 Y-22.15032 I-1.76672 J0.34453
G2 X30.45155 Y-21.78647 I3.71545 J-0.66062
G3 X31.17579 Y-22.0691 I1.88909 J3.77155
G3 X30.59747 Y-22.76177 I6.24384 J-5.80082
G3 X30.57325 Y-22.79491 I1.44086 J-1.07886
G2 X29.5843 Y-24.08625 I-19.67318 J14.04192
G2 X29.44765 Y-24.22501 I-11.55206 J11.23931
G0 Z3.0
G0 X36.63866 Y-19.09687
G0 Z1.0
G1 F300.0 Z-1.0
G3 F800.0 X37.08644 Y-18.64508 I-112.78794 J112.23428
G3 X38.408 Y-17.09867 I-8.69924 J8.77222
G3 X39.4045 Y-18.09116 I2.37038 J1.38346
G3 X39.47196 Y-18.12827 I0.90104 J1.55824
G3 X40.27741 Y-18.4551 I2.09955 J4.0182
G3 X36.63866 Y-19.09687 I1.50271 J-19.15659
G0 Z3.0
G0 X39.16885 Y-9.96498
G0 Z1.0
G1 F300.0 Z-1.0
G3 F800.0 X39.07052 Y-9.80455 I-1.58174 J-0.85912
G3 X39.17585 Y-9.9294 I1.42701 J1.09711
G3 X39.16885 Y-9.96498 I3.75001 J-0.75597
G1 F300.0 X39.01412 Y-9.727
G3 F800.0 X38.49098 Y-9.2675 I-1.42701 J-1.09711
G3 X38.69882 Y-8.91822 I-1.43303 J1.08923
G2 X38.7433 Y-9.11079 I-95.68701 J-22.20381
G3 X39.01412 Y-9.727 I1.75423 J0.40334
G0 Z3.0
G0 X37.01623 Y0.13454
G0 Z1.0
G1 F300.0 Z-1.0
G3 F800.0 X36.41908 Y0.80515 I-7.80378 J-6.34775
G3 X37.16217 Y0.81643 I0.30787 J4.20222
G3 X37.15408 Y0.78383 I15.57537 J-3.88128
G3 X37.14707 Y0.75472 I2.52416 J-0.6234
G3 X37.01623 Y0.13454 I13.59711 J-3.19243
G1 F300.0 X37.80255 Y-0.01279
G3 F800.0 X37.57847 Y-2.26394 I12.94163 J-2.42491
G3 X37.44197 Y-1.97078 I-10.76891 J-4.83575
G3 X37.41535 Y-1.91783 I-1.62123 J-0.78206
G3 X34.9791 Y1.03134 I-8.2029 J-4.29537
G3 X33.40504 Y2.24577 I-26.7081 J-32.99013
G3 X33.37258 Y2.26907 I-1.06585 J-1.4505
G2 X32.21605 Y3.29096 I3.95822 J5.64513
G3 X31.71255 Y3.85623 I-12.04414 J-10.22123
G3 X32.79255 Y3.19244 I9.34903 J14.0007
G3 X32.79715 Y3.18986 I0.88412 J1.56791
G3 X34.14723 Y2.47636 I15.33545 J27.38368
G3 X35.37746 Y1.87197 I4.97304 J8.56833
G3 X37.3102 Y1.64409 I1.34949 J3.13541
G3 X37.59336 Y1.71731 I-0.30756 J1.77353
G3 X38.38714 Y2.1004 I-1.25739 J3.61926
G3 X37.93075 Y0.59202 I14.35039 J-5.16525
G3 X37.92589 Y0.57186 I1.74749 J-0.43158
G3 X37.80255 Y-0.01279 I12.81829 J-3.00957
G0 Z3.0
G0 X29.74727 Y5.39056
G0 Z1.0
G1 F300.0 Z-1.0
G3 F800.0 X29.50679 Y5.49287 I-2.08158 J-4.55894
G3 X29.32082 Y5.55485 I-0.66125 J-1.67414
G3 X28.33662 Y5.75249 I-1.92143 J-7.01868
G3 X29.0623 Y6.0484 I-3.11735 J8.68281
G3 X29.74727 Y5.39056 I11.99928 J11.80852
G0 Z3.0
G0 X46.79239 Y18.64951
G0 Z1.0
G1 F300.0 Z-1.0
G3 F800.0 X46.78842 Y18.70346 I-1.79694 J-0.10487
G3 X46.479 Y20.43723 I-9.95113 J-0.88144
G2 X46.7844 Y19.75109 I-32.94982 J-15.0768
G3 X46.79779 Y19.72091 I1.65196 J0.71486
G2 X47.22514 Y18.30914 I-5.06995 J-2.30525
G2 X47.24462 Y18.10857 I-6.0708 J-0.69082
G3 X46.79239 Y18.64951 I-2.62801 J-1.73754
G0 Z3.0
G0 X44.70365 Y23.83376
G0 Z1.0
G1 F300.0 Z-1.0
G3 F800.0 X44.63384 Y23.91001 I-5.41493 J-4.88747
G3 X44.62022 Y23.92451 I-1.31898 J-1.22486
G3 X42.79381 Y25.21502 I-4.15966 J-3.94933
G3 X42.74432 Y25.23617 I-0.73221 J-1.64434
G3 X41.01653 Y25.77978 I-4.08397 J-9.96285
G3 X41.15752 Y28.07274 I-1.31276 J1.23153
G3 X40.51842 Y28.89999 I-15.5676 J-11.36643
G3 X41.97039 Y28.09334 I6.46977 J9.93558
G3 X43.3448 Y25.68667 I9.94003 J4.08078
G2 X44.54711 Y24.05931 I-1698.11343 J-1255.84961
G2 X44.70365 Y23.83376 I-7.87537 J-5.63271
G0 Z3.0
G0 X3.67095 Y-12.84251
G0 Z1.0
G1 F300.0 Z-1.0
G3 F800.0 X3.39708 Y-12.71426 I-4.49603 J-9.24461
G3 X3.34628 Y-12.69231 I-0.73929 J-1.64117
G3 X1.31792 Y-12.35494 I-1.74223 J-4.20859
G2 X1.90563 Y-12.10122 I2.08842 J-4.02999
G2 X2.34687 Y-12.11649 I0.19834 J-0.65139
G3 X2.3893 Y-12.13208 I0.64212 J1.68157
G2 X3.28194 Y-12.5819 I-1.31349 J-3.7172
G3 X3.29175 Y-12.58847 I1.00726 J1.49179
G2 X3.67095 Y-12.84251 I-43.41435 J-65.2165
G0 Z3.0
G0 X-0.52204 Y-30.54296
G0 Z1.0
G1 F300.0 Z-1.0
G3 F800.0 X1.11495 Y-31.17544 I3.0504 J5.46046
G3 X2.45942 Y-31.33748 I1.34466 J5.4983
G3 X2.11849 Y-32.44143 I4.49151 J-1.9917
G3 X2.11232 Y-32.47702 I1.77037 J-0.32523
G3 X2.06383 Y-32.79856 I13.42935 J-2.18945
G3 X0.95922 Y-31.62335 I-3.15415 J-1.85794
G3 X0.84639 Y-31.55304 I-1.00778 J-1.49144
G3 X-1.22143 Y-31.08176 I-1.80584 J-3.15132
G3 X-1.30586 Y-31.08742 I0.33402 J-5.61475
G3 X-0.87533 Y-30.78548 I-4.72914 J7.20102
G2 X-0.58562 Y-30.58654 I4.6093 J-6.40214
G3 X-0.52204 Y-30.54296 I-0.98561 J1.50618
G0 Z3.0
G0 X-4.41743 Y-31.89417
G0 Z1.0
G1 F300.0 Z-1.0
G2 F800.0 X-4.45082 Y-31.89876 I-0.47296 J3.31315
G2 X-4.73481 Y-31.88352 I-0.08654 J1.04091
G2 X-5.14374 Y-31.7811 I2.73348 J11.78195
G3 X-5.08522 Y-31.79263 I3.20475 J16.11984
G3 X-4.41743 Y-31.89417 I1.40512 J6.99434
G0 Z3.0
G0 X-8.88915 Y-30.54549
G0 Z1.0
G1 F300.0 Z-1.0
G3 F800.0 X-10.70198 Y-30.29731 I-1.98268 J-7.73742
G3 X-10.72781 Y-30.29695 I-0.03828 J-1.79959
G3 X-12.06379 Y-30.45744 I-0.03687 J-5.33378
G3 X-12.09086 Y-30.46446 I0.4384 J-1.7458
G3 X-14.66673 Y-31.56856 I2.53609 J-9.4735
G2 X-13.00278 Y-30.48222 I5.93395 J-7.27151
G2 X-11.74306 Y-30.03894 I2.67976 J-5.60383
G3 X-10.65758 Y-29.28614 I-0.4115 J1.75233
G3 X-9.73067 Y-30.05212 I10.183 J11.37871
G3 X-9.58833 Y-30.15017 I1.0911 J1.43161
G3 X-8.88915 Y-30.54549 I5.2191 J8.41453
G0 Z3.0
G0 X-19.01283 Y-35.25097
G0 Z1.0
G1 F300.0 Z-1.0
G3 F800.0 X-19.15283 Y-35.38782 I109.98997 J-112.66745
G3 X-19.13548 Y-35.32113 I-1.73297 J0.48662
G3 X-19.01283 Y-35.25097 I-5.73895 J10.17422
G0 Z3.0
G0 X7.08222 Y-48.42498
G0 Z1.0
G1 F300.0 Z-1.0
G3 F800.0 X7.18882 Y-48.41209 I-0.83408 J7.34377
G3 X7.06474 Y-48.50362 I5.71767 J-7.88113
G3 X7.08222 Y-48.42498 I-12.16264 J2.74525
G0 Z3.0
G0 X3.15621 Y-55.63038
G0 Z1.0
G1 F300.0 Z-1.0
G3 F800.0 X2.83941 Y-55.9739 I4.69036 J-4.64333
G3 X1.94998 Y-57.26628 I5.58439 J-4.79548
G3 X1.87396 Y-56.32788 I-8.51616 J-0.21762
G3 X2.60002 Y-55.95313 I-7.65196 J15.71618
G3 X3.15621 Y-55.63038 I-4.73933 J8.80763
G1 F300.0 X3.72474 Y-56.1932
G3 F800.0 X3.44634 Y-56.49509 I4.12184 J-4.0805
G3 X2.03542 Y-59.27499 I4.97746 J-4.2743
G3 X1.85038 Y-59.10539 I-8.65753 J-9.25987
G3 X1.7367 Y-59.00589 I-3.87645 J-4.31429
G3 X1.08922 Y-58.45537 I-211.90759 J-248.57138
G3 X1.12156 Y-58.1682 I-9.51556 J1.21711
G3 X1.13714 Y-57.97484 I-5.77268 J0.56225
G3 X0.98028 Y-55.86124 I-7.70331 J0.49094
G3 X2.21878 Y-55.24981 I-6.75828 J15.24954
G3 X3.92006 Y-54.07059 I-4.35809 J8.10431
G3 X3.91079 Y-54.32199 I7.08154 J-0.3869
G3 X4.06439 Y-55.87635 I6.4509 J-0.14729
G3 X3.99971 Y-55.93301 I4.89995 J-5.65861
G3 X3.72474 Y-56.1932 I3.84687 J-4.34069
G1 F300.0 X4.29327 Y-56.75603
G3 F800.0 X4.05327 Y-57.01627 I3.55331 J-3.51767
G3 X2.67519 Y-61.14463 I4.37053 J-3.75311
G3 X1.3157 Y-59.70047 I-9.29731 J-7.39023
G3 X1.2177 Y-59.61469 I-3.34177 J-3.71922
G3 X0.23107 Y-58.77696 I-211.38859 J-247.96258
G3 X0.32533 Y-58.09064 I-8.65741 J1.53871
G3 X0.33875 Y-57.92396 I-4.97645 J0.48469
G3 X0.02892 Y-55.39191 I-6.90493 J0.44006
G3 X1.83759 Y-54.54646 I-5.80692 J14.7802
G3 X5.35347 Y-50.94658 I-3.9769 J7.40096
G3 X5.38737 Y-50.87848 I-4.45904 J2.26207
G3 X6.41303 Y-47.67013 I-10.48527 J5.12011
G3 X8.6041 Y-47.23674 I-0.16489 J6.58892
G3 X8.23515 Y-48.67457 I8.65826 J-2.98794
G3 X6.60444 Y-49.95688 I4.67134 J-7.61865
G3 X4.71061 Y-54.33876 I4.39716 J-4.50061
G3 X4.9719 Y-56.17275 I5.65107 J-0.13051
G3 X4.53031 Y-56.53173 I3.99245 J-5.36221
G3 X4.29327 Y-56.75603 I3.31627 J-3.74198
G0 Z3.0
G0 X7.6394 Y-69.77695
G0 Z1.0
G1 F300.0 Z-1.0
G3 F800.0 X7.8829 Y-70.21395 I11.12838 J5.91445
G2 X7.61709 Y-70.21144 I0.05595 J20.02893
G3 X7.6394 Y-69.77695 I-12.52947 J0.8612
G1 F300.0 X8.34582 Y-69.4015
G3 F800.0 X9.38225 Y-71.01857 I10.42195 J5.53901
G2 X8.17528 Y-71.0137 I-0.18141 J104.54202
G3 X8.07928 Y-71.01355 I-0.0569 J-5.79972
G2 X6.73329 Y-70.97911 I-0.14043 J20.82854
G3 X6.6901 Y-67.43784 I-11.64567 J1.62887
G3 X7.43148 Y-67.78069 I6.95299 J14.06218
G3 X7.52486 Y-67.81999 I2.2966 J5.32594
G2 X7.54106 Y-67.82666 I-4.7687 J-11.61261
G2 X8.17966 Y-69.07685 I-93.13436 J-48.36152
G3 X8.34582 Y-69.4015 I10.58811 J5.21436
G1 F300.0 X9.05225 Y-69.02605
G3 F800.0 X11.1212 Y-71.77347 I9.71552 J5.16356
G3 X11.1496 Y-71.8007 I3.47495 J3.5951
G2 X8.16743 Y-71.81366 I-1.94876 J105.32415
G3 X8.08467 Y-71.81354 I-0.04905 J-4.99976
G2 X6.1048 Y-71.73613 I-0.14583 J21.62852
G3 X5.97257 Y-71.72664 I-0.42398 J-4.98199
G3 X5.79756 Y-71.66605 I-1.72295 J-4.69376
G3 X5.90248 Y-71.12128 I-11.86119 J2.56674
G3 X5.91004 Y-71.07524 I-4.93011 J0.83307
G3 X5.4596 Y-65.81155 I-10.82242 J1.72499
G3 X5.51462 Y-65.84793 I2.78504 J4.15254
G3 X7.74826 Y-67.04608 I8.12847 J12.47226
G3 X7.82875 Y-67.07996 I1.97983 J4.59133
G2 X8.11808 Y-67.20278 I-5.07259 J-12.35264
G2 X8.89597 Y-68.72061 I-93.71138 J-48.9854
G3 X9.05225 Y-69.02605 I9.8718 J4.85812
G1 F300.0 X9.75868 Y-68.6506
G3 F800.0 X11.67719 Y-71.19825 I9.0091 J4.78811
G3 X11.8774 Y-71.37969 I2.91895 J3.01988
G3 X13.51151 Y-72.53116 I7.18099 J8.45562
G2 X8.15959 Y-72.61362 I-4.31068 J106.0546
G3 X8.09007 Y-72.61352 I-0.0412 J-4.1998
G2 X6.03696 Y-72.53325 I-0.15122 J22.4285
G3 X5.8411 Y-72.52118 I-0.35614 J-4.18487
G2 X5.80498 Y-72.51902 I0.03189 J0.83499
G3 X4.82955 Y-72.26064 I-1.55537 J-3.90139
G3 X4.82265 Y-72.25967 I-2.75049 J-19.72847
G3 X5.11366 Y-70.98799 I-10.88627 J3.16036
G3 X5.12001 Y-70.94931 I-4.14129 J0.69978
G3 X4.34604 Y-65.16844 I-10.03239 J1.59907
G3 X4.32519 Y-65.123 I-3.82767 J-1.72886
G3 X2.31415 Y-61.98994 I-12.58276 J-5.86467
G3 X0.78102 Y-60.29554 I-8.93626 J-6.54492
G3 X0.6987 Y-60.22349 I-2.80708 J-3.12414
G3 X-0.60992 Y-59.11385 I-210.86959 J-247.35378
G3 X-0.6487 Y-59.08153 I-2.70785 J-3.21053
G3 X-0.4709 Y-58.01309 I-7.77764 J1.84328
G3 X-0.45963 Y-57.87308 I-4.18022 J0.40714
G3 X-0.94771 Y-55.0602 I-6.10655 J0.38918
G3 X-0.99797 Y-54.94463 I-10.06362 J-4.30717
G2 X-0.58177 Y-54.76818 I9.86957 J-22.70129
G3 X1.45645 Y-53.84309 I-5.19623 J14.15648
G3 X4.64002 Y-50.58465 I-3.59576 J6.69758
G3 X4.6685 Y-50.52745 I-3.74559 J1.90014
G3 X5.68712 Y-47.10373 I-9.7664 J4.76908
G3 X5.72085 Y-46.84814 I-10.28696 J1.48762
G3 X8.75123 Y-46.30328 I0.52729 J5.76693
G3 X10.2554 Y-45.46975 I-5.70665 J12.07194
G3 X10.28127 Y-45.45302 I-2.26809 J3.53493
G2 X10.51561 Y-45.30577 I4.49531 J-6.89436
G3 X10.14171 Y-45.85006 I9.53035 J-6.94751
G3 X10.04006 Y-46.01556 I3.52707 J-2.2803
G3 X9.01178 Y-48.88069 I7.2223 J-4.20912
G2 X8.95741 Y-49.17447 I-11.05607 J1.89425
G2 X8.82369 Y-49.25496 I-6.16296 J10.0881
G3 X7.16603 Y-50.52664 I4.0828 J-7.03826
G3 X5.51044 Y-54.35555 I3.83557 J-3.93085
G3 X5.94638 Y-56.48239 I4.85124 J-0.11372
G3 X5.06092 Y-57.13044 I3.01796 J-5.05256
G3 X4.6602 Y-57.53746 I2.78566 J-3.14326
G3 X4.31702 Y-63.55224 I3.7636 J-3.23192
G3 X5.86428 Y-65.11935 I4.86524 J3.25625
G3 X5.95142 Y-65.1777 I2.38036 J3.46033
G3 X8.06503 Y-66.31147 I7.69166 J11.80204
G3 X8.13264 Y-66.33993 I1.66306 J3.85671
G2 X8.69318 Y-66.58439 I-5.37649 J-13.09267
G2 X8.71623 Y-66.62072 I-1.06825 J-0.70336
G2 X9.61235 Y-68.36448 I-94.30953 J-49.56746
G3 X9.75868 Y-68.6506 I9.15543 J4.50199
G1 F300.0 X10.4651 Y-68.27515
G3 F800.0 X12.23318 Y-70.62304 I8.30267 J4.41266
G3 X12.39526 Y-70.76991 I2.36296 J2.44467
G3 X14.94984 Y-72.36199 I6.66313 J7.84584
G3 X15.03676 Y-72.39841 I1.35708 J3.11742
G3 X16.61948 Y-73.02481 I52.93216 J131.43093
G3 X16.66683 Y-73.04281 I1.23219 J3.16887
G2 X16.68138 Y-73.04825 I-1.45073 J-3.90204
G3 X15.70747 Y-73.22061 I1.76396 J-12.80509
G2 X8.15174 Y-73.41359 I-6.50663 J106.74405
G3 X8.09546 Y-73.4135 I-0.03335 J-3.39984
G2 X5.96912 Y-73.33036 I-0.15661 J23.22848
G3 X5.81057 Y-73.3206 I-0.28831 J-3.38775
G2 X5.59529 Y-73.29804 I0.06242 J1.6344
G3 X4.71909 Y-73.05297 I-1.34568 J-3.12236
G3 X3.74609 Y-72.94264 I-2.64002 J-18.93614
G3 X4.32484 Y-70.8547 I-9.80972 J3.84333
G3 X4.32998 Y-70.82339 I-3.35248 J0.56648
G3 X3.61696 Y-65.49775 I-9.24236 J1.47315
G3 X3.60008 Y-65.46096 I-3.09859 J-1.39956
G3 X1.6859 Y-62.48614 I-11.85766 J-5.5267
G3 X0.24633 Y-60.89062 I-8.30801 J-6.04872
G3 X0.17969 Y-60.83229 I-2.2724 J-2.52907
G3 X-1.1257 Y-59.72538 I-210.35058 J-246.74498
G3 X-1.16913 Y-59.68936 I-2.19207 J-2.599
G2 X-1.54728 Y-59.34039 I2.65827 J3.26001
G3 X-1.26713 Y-57.93554 I-6.87906 J2.10214
G3 X-1.25801 Y-57.8222 I-3.38399 J0.32959
G3 X-1.68273 Y-55.37605 I-5.30817 J0.3383
G3 X-2.07768 Y-54.55662 I-9.32861 J-3.99133
G2 X-2.07672 Y-54.55615 I1.26826 J-2.58639
G2 X-0.87215 Y-54.02257 I10.94833 J-23.08977
G3 X1.07538 Y-53.13967 I-4.90585 J13.41087
G3 X3.92658 Y-50.22272 I-3.21469 J5.99417
G3 X3.94963 Y-50.17641 I-3.03215 J1.53821
G3 X4.89423 Y-46.99695 I-9.04753 J4.41804
G3 X4.98959 Y-45.91091 I-9.49407 J1.38084
G3 X8.40734 Y-45.58096 I1.25854 J4.8297
G3 X9.82338 Y-44.79643 I-5.36276 J11.34962
G3 X9.84432 Y-44.78288 I-1.83608 J2.86161
G2 X10.20439 Y-44.55996 I4.93225 J-7.56449
G3 X10.23237 Y-44.54335 I-1.72145 J2.932
G3 X14.58179 Y-41.44116 I-17.39596 J28.99009
G3 X15.39321 Y-40.74958 I-29.98285 J36.00026
G2 X15.95336 Y-40.39198 I2.86826 J-3.87538
G3 X16.03275 Y-40.3506 I-3.45341 J6.72248
G3 X13.49209 Y-43.23681 I132.64048 J-119.32157
G2 X12.63168 Y-44.13579 I-15.86971 J14.32763
G3 X10.81353 Y-46.2844 I7.41428 J-8.11749
G3 X10.73124 Y-46.41838 I2.85525 J-1.84595
G3 X9.80087 Y-49.01241 I6.53112 J-3.8063
G2 X9.66906 Y-49.67157 I-11.84516 J2.02597
G2 X9.22828 Y-49.94512 I-6.8746 J10.58519
G3 X7.72756 Y-51.09646 I3.67822 J-6.3481
G3 X6.31027 Y-54.37236 I3.27404 J-3.36103
G3 X7.06027 Y-56.8196 I4.05142 J-0.09691
G3 X5.59152 Y-57.72916 I1.90407 J-4.71535
G3 X5.26713 Y-58.05865 I2.25506 J-2.54454
G3 X4.98057 Y-63.10536 I3.15667 J-2.71073
G3 X6.31768 Y-64.46023 I4.20169 J2.80936
G3 X6.38823 Y-64.50748 I1.92696 J2.80122
G3 X8.3818 Y-65.57686 I7.25486 J11.13181
G3 X8.43654 Y-65.5999 I1.34628 J3.1221
G2 X9.21137 Y-65.94406 I-5.68038 J-13.8327
G2 X9.41376 Y-66.22833 I-1.58644 J-1.34369
G2 X10.32878 Y-68.00849 I-95.00706 J-49.95985
G3 X10.4651 Y-68.27515 I8.43899 J4.146
G0 Z3.0
G0 X20.16329 Y-35.12309
G0 Z1.0
G1 F300.0 Z-1.0
G3 F800.0 X20.16555 Y-34.77032 I-13.89428 J0.26577
G3 X20.31321 Y-35.00674 I4.40405 J2.58628
G3 X20.16329 Y-35.12309 I7.65321 J-10.01627
G1 F300.0 X20.65851 Y-35.75139
G3 F800.0 X20.29706 Y-36.04807 I7.30792 J-9.27162
G3 X20.19586 Y-36.1381 I2.2088 J-2.5848
G3 X18.95081 Y-37.32101 I45.40586 J-49.0377
G3 X19.33388 Y-35.75544 I-5.01263 J2.05615
G3 X19.34154 Y-35.65454 I-3.38603 J0.30786
G3 X19.28234 Y-33.38088 I-13.07253 J0.79722
G2 X19.27829 Y-33.32914 I2.75023 J0.2412
G2 X19.78417 Y-32.97638 I5.20938 J-6.93149
G3 X20.28729 Y-32.64731 I-6.88992 J11.08334
G3 X21.46462 Y-35.16932 I4.28232 J0.46328
G3 X20.65851 Y-35.75139 I6.5018 J-9.85368
G1 F300.0 X21.15373 Y-36.37968
G3 F800.0 X20.81678 Y-36.65626 I6.81269 J-8.64332
G3 X20.73939 Y-36.72511 I1.68908 J-1.97662
G3 X16.64175 Y-40.86982 I44.86232 J-48.4507
G3 X16.63674 Y-40.87537 I1.92782 J-1.74457
G3 X14.09221 Y-43.7659 I132.03648 J-118.79681
G2 X13.18213 Y-44.71651 I-16.46983 J14.85672
G3 X11.48535 Y-46.71875 I6.86382 J-7.53677
G3 X11.42243 Y-46.8212 I2.18343 J-1.41161
G3 X10.59001 Y-49.14385 I5.83993 J-3.40348
G2 X10.3728 Y-50.16382 I-12.63429 J2.15741
G2 X9.63257 Y-50.63545 I-7.57834 J11.07744
G3 X8.28899 Y-51.6664 I3.27392 J-5.65776
G3 X7.11009 Y-54.38921 I2.71261 J-2.79109
G3 X8.64176 Y-57.22991 I3.25159 J-0.08007
G3 X8.28796 Y-57.3034 I5.31946 J-26.49986
G3 X6.12212 Y-58.32787 I0.67638 J-4.23156
G3 X5.87406 Y-58.57984 I1.72446 J-1.94583
G3 X5.64409 Y-62.65843 I2.54974 J-2.18954
G3 X6.77108 Y-63.80112 I3.53816 J2.36244
G3 X6.82503 Y-63.83725 I1.47356 J2.14211
G3 X8.69857 Y-64.84225 I6.81806 J10.46158
G3 X8.74043 Y-64.85986 I1.02951 J2.38749
G2 X9.63853 Y-65.26189 I-5.98428 J-14.57274
G3 X9.69777 Y-65.28974 I1.13588 J2.33876
G2 X10.11316 Y-65.8395 I-2.07284 J-1.99801
G2 X11.04529 Y-67.65264 I-95.70645 J-50.34868
G3 X12.78917 Y-70.04782 I7.72248 J3.79015
G3 X12.91311 Y-70.16014 I1.80697 J1.86945
G3 X15.26916 Y-71.62848 I6.14528 J7.23607
G3 X15.33562 Y-71.65633 I1.03777 J2.38391
G3 X16.90941 Y-72.27919 I52.6333 J130.68885
G3 X16.94562 Y-72.29296 I0.94226 J2.42325
G2 X17.88514 Y-72.76065 I-1.72952 J-4.65189
G2 X18.48299 Y-73.68402 I-0.92746 J-1.25572
G3 X18.48685 Y-73.71035 I32.98829 J4.8223
G3 X17.59674 Y-73.75706 I0.62429 J-20.40276
G3 X15.86778 Y-74.00444 I0.8486 J-12.09629
G3 X15.8197 Y-74.01538 I0.55267 J-2.54058
G3 X15.79257 Y-74.0169 I0.13195 J-2.59665
G2 X8.14389 Y-74.21355 I-6.59174 J107.54034
G3 X8.10085 Y-74.21348 I-0.02551 J-2.59987
G2 X5.90129 Y-74.12748 I-0.16201 J24.02847
G3 X5.78004 Y-74.12001 I-0.22047 J-2.59064
G2 X5.35095 Y-74.06518 I0.09295 J2.43382
G3 X4.60862 Y-73.84531 I-1.10133 J-2.35522
G3 X2.52964 Y-73.67537 I-2.52956 J-18.1438
G3 X3.53602 Y-70.72141 I-8.59327 J4.57606
G3 X3.53995 Y-70.69747 I-2.56366 J0.43319
G3 X2.88788 Y-65.82705 I-8.45234 J1.34722
G3 X2.87497 Y-65.79892 I-2.36951 J-1.07025
G3 X1.05742 Y-62.98219 I-11.13255 J-5.18874
G3 X-0.28835 Y-61.48569 I-7.67953 J-5.55267
G3 X-0.33931 Y-61.44109 I-1.73772 J-1.93399
G3 X-1.64148 Y-60.33691 I-209.83158 J-246.13618
G3 X-1.67469 Y-60.30937 I-1.67629 J-1.98747
G2 X-2.44088 Y-59.53084 I3.16383 J3.88001
G2 X-2.34834 Y-59.21982 I4.37488 J-1.1325
G3 X-2.33473 Y-59.17832 I-2.46379 J0.83051
G3 X-2.06337 Y-57.85799 I-6.09161 J1.94006
G3 X-2.05639 Y-57.77132 I-2.58775 J0.25204
G3 X-2.41772 Y-55.69194 I-4.50979 J0.28742
G3 X-3.0694 Y-54.43943 I-8.59361 J-3.67544
G3 X-3.07095 Y-54.43692 I-2.20926 J-1.37084
G2 X-3.14941 Y-54.302 I2.22625 J1.38488
G2 X-2.42384 Y-53.83536 I2.33999 J-2.84101
G2 X-1.16187 Y-53.2767 I11.29545 J-23.81056
G3 X0.6944 Y-52.4362 I-4.61612 J12.66499
G3 X3.21313 Y-49.86079 I-2.83371 J5.2907
G3 X3.23076 Y-49.82538 I-2.3187 J1.17628
G3 X4.10135 Y-46.89015 I-8.32866 J4.06701
G3 X4.14192 Y-44.6593 I-8.70119 J1.27404
G3 X4.92628 Y-45.05326 I2.22783 J3.4578
G3 X5.16955 Y-45.13103 I0.9124 J2.43465
G3 X8.06335 Y-44.85869 I1.07859 J4.04981
G3 X9.39136 Y-44.12311 I-5.01876 J10.62735
G3 X9.40738 Y-44.11275 I-1.40406 J2.18829
G2 X9.79935 Y-43.87008 I5.3692 J-8.23463
G3 X9.82074 Y-43.85738 I-1.3164 J2.24212
G3 X14.06852 Y-40.82751 I-16.98433 J28.30411
G3 X14.89049 Y-40.1265 I-29.46958 J35.38662
G2 X15.57962 Y-39.68458 I3.37098 J-4.49846
G3 X17.32271 Y-38.40306 I-3.07967 J6.01509
G3 X17.43713 Y-38.27864 I-1.85556 J1.82124
G3 X18.53717 Y-35.683 I-3.49895 J3.01378
G3 X18.54302 Y-35.60584 I-2.58932 J0.23542
G3 X18.48638 Y-33.46173 I-12.27402 J0.74852
G2 X18.47731 Y-32.94133 I3.5462 J0.32205
G2 X19.35619 Y-32.30045 I6.01036 J-7.31929
G3 X20.80482 Y-31.24685 I-6.46195 J10.40741
G3 X21.32341 Y-30.7513 I-3.46004 J4.14009
G3 X21.11068 Y-31.60353 I4.34605 J-1.53754
G3 X22.79902 Y-35.21161 I3.45893 J-0.58051
G3 X22.86278 Y-35.24835 I2.32635 J3.96368
G2 X22.53373 Y-35.45192 I-6.76002 J10.55887
G3 X21.15373 Y-36.37968 I5.4327 J-9.57108
G1 F300.0 X21.64896 Y-37.00798
G3 F800.0 X21.3365 Y-37.26445 I6.31747 J-8.01503
G3 X21.28292 Y-37.31211 I1.16936 J-1.36843
G3 X17.23493 Y-41.40661 I44.31879 J-47.86369
G3 X17.23146 Y-41.41045 I1.33464 J-1.20778
G3 X14.69245 Y-44.29486 I131.44177 J-118.26172
G2 X13.73194 Y-45.29785 I-17.07007 J15.38568
G3 X12.15718 Y-47.15309 I6.31401 J-6.95543
G3 X12.11361 Y-47.22401 I1.5116 J-0.97727
G3 X11.37919 Y-49.27499 I5.14875 J-3.00066
G2 X11.13808 Y-50.4 I-13.42348 J2.28855
G2 X11.04322 Y-50.64083 I-1.53453 J0.46535
G2 X10.91856 Y-50.75942 I-0.41306 J0.30941
G3 X10.89868 Y-50.773 I1.00586 J-1.49273
G2 X10.03655 Y-51.32597 I-8.10423 J11.68663
G3 X8.85026 Y-52.23649 I2.86994 J-4.96724
G3 X7.90992 Y-54.40611 I2.15134 J-2.221
G3 X9.79208 Y-56.85479 I2.45176 J-0.06317
G3 X9.8917 Y-56.87562 I0.41804 J1.75078
G3 X11.31747 Y-56.96429 I1.0943 J6.08821
G3 X11.43812 Y-56.95374 I-0.09646 J1.79741
G2 X12.20174 Y-57.02041 I0.22386 J-1.84252
G2 X13.5622 Y-57.571 I-3.01396 J-9.40335
G3 X15.05838 Y-58.26715 I7.77477 J14.75379
G3 X17.18439 Y-58.77206 I2.58954 J6.17527
G3 X17.22394 Y-58.77437 I0.1246 J1.79568
G3 X18.67346 Y-58.64549 I0.25368 J5.36274
G3 X18.70189 Y-58.63875 I-0.40094 J1.75478
G3 X21.18586 Y-57.68483 I-2.52924 J10.29707
G3 X21.62478 Y-57.83312 I0.79083 J1.61697
G3 X21.00826 Y-58.20282 I22.55791 J-38.31738
G3 X20.98044 Y-58.22016 I0.93814 J-1.53619
G2 X18.85183 Y-59.38191 I-9.73903 J15.31333
G3 X18.82592 Y-59.39413 I0.75484 J-1.63408
G2 X17.29356 Y-59.8422 I-2.11846 J4.40069
G2 X17.06751 Y-59.80532 I-0.03536 J0.49448
G2 X16.35383 Y-59.353 I1.85344 J3.71362
G3 X15.14122 Y-58.44724 I-9.61168 J-11.60332
G3 X12.4627 Y-57.60624 I-2.69341 J-3.89234
G3 X10.58422 Y-57.71959 I-0.16662 J-12.86057
G3 X8.43425 Y-58.09023 I3.377 J-26.01018
G3 X6.65272 Y-58.92659 I0.5301 J-3.44473
G3 X6.48099 Y-59.10103 I1.19386 J-1.34711
G3 X6.30757 Y-62.21143 I1.94281 J-1.66835
G3 X7.22448 Y-63.14201 I2.87468 J1.91544
G3 X7.26183 Y-63.16702 I1.02015 J1.483
G3 X9.01535 Y-64.10763 I6.38126 J9.79136
G3 X9.04433 Y-64.11983 I0.71274 J1.65288
G2 X9.98804 Y-64.54227 I-6.28817 J-15.31277
G3 X10.06894 Y-64.57912 I0.78638 J1.61914
G2 X10.18324 Y-64.64385 I-0.22915 J-0.53789
G2 X10.81366 Y-65.45278 I-2.55831 J-2.6439
G2 X11.76188 Y-67.29696 I-96.40696 J-50.7354
G3 X13.34516 Y-69.4726 I7.00589 J3.43447
G3 X13.43097 Y-69.55036 I1.25098 J1.29424
G3 X15.58847 Y-70.89497 I5.62742 J6.62629
G3 X15.63449 Y-70.91425 I0.71846 J1.6504
G3 X17.19934 Y-71.53358 I52.33444 J129.94677
G3 X17.2244 Y-71.54311 I0.65233 J1.67763
G2 X18.33687 Y-72.09997 I-2.00831 J-5.40175
G2 X19.27101 Y-73.54383 I-1.3792 J-1.91641
G3 X19.40802 Y-74.40495 I32.20027 J4.68211
G3 X19.42157 Y-74.50326 I3.31181 J0.40635
G3 X17.6544 Y-74.55498 I-0.31044 J-19.60985
G3 X16.03783 Y-74.78616 I0.79094 J-11.29837
G3 X15.93357 Y-74.81212 I0.38262 J-1.75886
G3 X15.84152 Y-74.8154 I0.01807 J-1.79991
G2 X8.13604 Y-75.01351 I-6.64068 J108.33884
G3 X8.10625 Y-75.01346 I-0.01766 J-1.79991
G2 X5.83345 Y-74.9246 I-0.1674 J24.82845
G3 X5.74951 Y-74.91943 I-0.15263 J-1.79352
G2 X5.07895 Y-74.82284 I0.12348 J3.23324
G3 X4.49816 Y-74.63765 I-0.82934 J-1.59756
G3 X1.7294 Y-74.47332 I-2.41909 J-17.35146
G3 X1.69559 Y-74.47431 I0.03593 J-1.79964
G3 X1.05523 Y-74.50017 I7.72379 J-199.22505
G3 X2.74721 Y-70.58812 I-7.11886 J5.40086
G3 X2.74993 Y-70.57154 I-1.77484 J0.2999
G3 X2.1588 Y-66.15636 I-7.66231 J1.2213
G3 X2.14987 Y-66.13689 I-1.64043 J-0.74094
G3 X0.42865 Y-63.47804 I-10.40744 J-4.85078
G3 X-0.82303 Y-62.08077 I-7.05077 J-5.05682
G3 X-0.85831 Y-62.04989 I-1.20304 J-1.33892
G3 X-2.15726 Y-60.94844 I-209.31258 J-245.52738
G3 X-2.18025 Y-60.92937 I-1.16051 J-1.37594
G2 X-3.10976 Y-59.97402 I3.6694 J4.50002
G2 X-3.29094 Y-59.667 I1.5415 J1.11664
G2 X-3.10643 Y-58.96428 I5.22494 J-0.99634
G3 X-3.09701 Y-58.93554 I-1.7057 J0.57497
G3 X-2.8596 Y-57.78044 I-5.32933 J1.69729
G3 X-2.85477 Y-57.72043 I-1.79152 J0.17449
G3 X-3.15269 Y-56.00789 I-3.71141 J0.23653
G3 X-3.74917 Y-54.86122 I-7.85864 J-3.35949
G3 X-3.75024 Y-54.85949 I-1.52948 J-0.94904
G2 X-4.04186 Y-54.27155 I2.90554 J1.80745
G3 X-4.0486 Y-54.25415 I-1.68181 J-0.6415
G2 X-4.05102 Y-54.24454 I0.036 J0.01416
G2 X-3.80343 Y-53.80958 I0.86878 J-0.20658
G2 X-2.77058 Y-53.1144 I2.99401 J-3.33343
G2 X-1.45091 Y-52.53055 I11.64219 J-24.53152
G3 X0.31354 Y-51.73267 I-4.32708 J11.91885
G3 X2.49968 Y-49.49886 I-2.45285 J4.58716
G3 X2.51189 Y-49.47434 I-1.60525 J0.81434
G3 X3.30845 Y-46.78333 I-7.60979 J3.71597
G3 X2.87714 Y-42.788 I-7.90829 J1.16722
G3 X3.20609 Y-42.33589 I-1.27336 J1.27222
G3 X3.67883 Y-43.13469 I4.60936 J2.18857
G3 X5.20702 Y-44.30413 I2.69092 J1.93319
G3 X5.37544 Y-44.35798 I0.63166 J1.68553
G3 X7.7192 Y-44.1365 I0.8727 J3.27676
G3 X8.95934 Y-43.44979 I-4.67461 J9.90515
G3 X8.97043 Y-43.44261 I-0.97204 J1.51497
G2 X9.3943 Y-43.1802 I5.80614 J-8.90476
G3 X9.40911 Y-43.1714 I-0.91135 J1.55223
G3 X13.55525 Y-40.21387 I-16.5727 J27.61814
G3 X14.38595 Y-39.50498 I-28.95631 J34.77297
G2 X15.20699 Y-38.9766 I3.87553 J-5.11998
G3 X16.75177 Y-37.84268 I-2.70704 J5.30711
G3 X16.83098 Y-37.75654 I-1.28462 J1.26086
G3 X17.74045 Y-35.61056 I-2.8928 J2.49168
G3 X17.74451 Y-35.55715 I-1.79261 J0.16298
G3 X17.69056 Y-33.54394 I-11.4755 J0.69983
G2 X17.68451 Y-32.8067 I4.34201 J0.40426
G3 X17.68559 Y-32.79186 I-1.79474 J0.13744
G2 X17.89025 Y-32.38891 I0.57648 J-0.03936
G2 X18.92865 Y-31.62424 I6.59742 J-7.87171
G3 X20.29005 Y-30.63446 I-6.03441 J9.7312
G3 X21.915 Y-27.58874 I-2.94527 J3.5277
G3 X21.73155 Y-25.59874 I-4.22252 J0.61419
G3 X21.69275 Y-25.49534 I-1.70386 J-0.58038
G3 X20.18353 Y-23.61249 I-3.95574 J-1.62448
G3 X20.74161 Y-21.54297 I-1.11725 J1.4113
G3 X19.09119 Y-19.21533 I-5.53174 J-2.17335
G3 X19.07728 Y-19.20345 I-1.17549 J-1.36317
G3 X17.20276 Y-17.98295 I-5.82183 J-6.89173
G3 X17.19598 Y-17.97966 I-0.78757 J-1.61856
G3 X14.86889 Y-17.05579 I-7.68222 J-15.95747
G3 X14.96346 Y-17.07732 I17.76713 J77.7927
G3 X15.87019 Y-17.04883 I0.39865 J1.7553
G3 X17.43285 Y-18.00711 I7.43374 J10.36886
G3 X19.00301 Y-18.57301 I2.39542 J4.18513
G3 X19.9668 Y-18.62191 I0.65308 J3.34972
G3 X20.10952 Y-19.49277 I4.82999 J0.34443
G3 X20.11685 Y-19.52016 I1.74239 J0.45176
G3 X21.01256 Y-22.12337 I21.43066 J5.91813
G3 X21.01498 Y-22.12918 I1.66254 J0.6899
G2 X21.44949 Y-23.3016 I-13.75792 J-5.76552
G2 X21.60634 Y-24.11258 I-5.90484 J-1.56274
G3 X21.94283 Y-25.52025 I5.31062 J0.52537
G3 X21.95844 Y-25.55907 I1.67776 J0.65201
G3 X22.49817 Y-26.41053 I2.73426 J1.13643
G3 X22.50716 Y-26.42039 I1.33405 J1.20843
G3 X24.48506 Y-27.22507 I1.84143 J1.69305
G3 X24.62923 Y-27.21135 I-0.0982 J1.79732
G3 X26.10575 Y-26.7132 I-0.55457 J4.08097
G3 X26.1604 Y-26.68093 I-0.88769 J1.56589
G2 X27.46313 Y-25.89367 I53.8728 J-87.67504
G3 X27.62303 Y-25.80027 I-3.64687 J6.42717
G2 X27.55373 Y-25.8513 I-9.59079 J12.95334
G3 X25.27337 Y-27.59139 I37.44067 J-51.42947
G3 X25.25857 Y-27.60335 I1.12393 J-1.40598
G3 X24.14273 Y-28.55293 I23.02023 J-28.1813
G3 X23.08482 Y-29.48959 I7.67334 J-9.7324
G3 X21.90076 Y-31.72932 I2.58465 J-2.79925
G3 X23.20342 Y-34.52134 I2.66884 J-0.45471
G3 X24.42619 Y-34.97892 I1.92196 J3.27341
G2 X24.00001 Y-35.43754 I-1.49119 J0.9584
G2 X22.93615 Y-36.1434 I-7.89725 J10.74807
G3 X21.64896 Y-37.00798 I5.03028 J-8.87961
G1 F300.0 X22.14418 Y-37.63627
G2 F800.0 X23.33803 Y-36.83519 I5.82225 J-7.38673
G3 X24.47692 Y-36.07986 I-7.23526 J12.14571
G3 X25.16921 Y-35.29594 I-1.54192 J2.05933
G3 X25.28856 Y-34.50914 I-1.68792 J0.6585
G2 X25.28663 Y-34.47218 I0.99749 J0.07081
G3 X25.27895 Y-34.28014 I-15.75134 J-0.5336
G2 X24.65761 Y-34.20709 I0.81269 J9.59179
G2 X24.64685 Y-34.20541 I0.14897 J0.98884
G2 X23.60778 Y-33.83106 I0.47852 J2.95748
G2 X22.69081 Y-31.85551 I0.96183 J1.64703
G2 X23.63773 Y-30.06798 I2.97865 J-0.43333
G2 X24.65594 Y-29.16707 I8.17835 J-8.21735
G2 X25.76467 Y-28.22292 I23.62287 J-26.61758
G2 X25.7729 Y-28.21627 I0.63263 J-0.77446
G2 X28.02545 Y-26.49743 I39.22151 J-49.06449
G3 X30.18134 Y-24.61977 I-9.9932 J13.65049
G3 X31.2244 Y-23.25967 I-19.28128 J15.86678
G2 X31.23785 Y-23.24126 I0.81394 J-0.58095
G2 X33.05322 Y-21.5002 I6.18178 J-4.62866
G2 X33.09361 Y-21.47392 I0.56541 J-0.82481
G2 X35.43698 Y-20.32321 I7.12961 J-11.55772
G2 X35.44545 Y-20.32007 I0.35245 J-0.93583
G2 X41.84603 Y-19.19637 I6.33467 J-17.29163
G2 X48.70533 Y-20.11288 I0.19837 J-24.64174
G2 X48.72577 Y-20.11885 I-0.2703 J-0.96278
G2 X50.85336 Y-20.96703 I-3.95229 J-13.00654
G3 X52.04021 Y-21.50705 I10.09474 J20.61206
G2 X52.72739 Y-21.11952 I1.33506 J-1.56434
G2 X53.51006 Y-20.935 I1.16255 J-3.17904
G2 X51.36931 Y-20.4438 I1.70957 J12.36112
G2 X48.29851 Y-19.45662 I22.04111 J73.83291
G3 X45.03878 Y-18.50661 I-11.76819 J-34.31198
G3 X41.07418 Y-17.81045 I-11.74624 J-55.25752
G2 X39.84244 Y-17.41922 I0.49733 J3.70039
G2 X39.80496 Y-17.39861 I0.4631 J0.8863
G2 X38.89566 Y-16.20175 I0.97341 J1.68339
G2 X38.8875 Y-16.16776 I0.96819 J0.2502
G2 X38.95443 Y-14.75412 I2.6355 J0.58365
G2 X39.63329 Y-13.06441 I9.00495 J-2.63664
G3 X39.83607 Y-12.44122 I-2.70454 J1.22462
G3 X39.87266 Y-11.61502 I-5.10049 J0.63978
G2 X39.87209 Y-11.59198 I0.99934 J0.03627
G2 X39.91355 Y-10.40448 I12.34738 J0.1633
G2 X39.91489 Y-10.3897 I0.99655 J-0.08294
G2 X40.09339 Y-9.62214 I3.01097 J-0.29566
G2 X39.52296 Y-8.93152 I0.40414 J0.9147
G3 X39.10304 Y-7.17844 I-96.51115 J-22.19051
G2 X38.55585 Y-4.53144 I29.26727 J7.43021
G2 X38.70471 Y0.38901 I12.18832 J2.09374
G2 X38.70741 Y0.4002 I0.97353 J-0.22857
G2 X39.99484 Y3.75238 I14.03012 J-3.46505
G2 X42.92313 Y7.85148 I16.80414 J-8.90894
G2 X42.96629 Y7.89479 I0.72955 J-0.68393
G1 X46.07868 Y10.83242
G3 X46.3273 Y11.29199 I-2.85473 J1.8414
G2 X46.33331 Y11.30522 I0.91353 J-0.40677
G3 X47.21558 Y13.56856 I-17.85815 J8.26489
G2 X47.22012 Y13.5824 I0.95236 J-0.30499
G3 X47.97001 Y16.48061 I-19.91114 J6.69798
G3 X48.01783 Y18.41854 I-6.81568 J1.13771
G3 X47.52605 Y20.05204 I-6.28998 J-1.00288
G2 X47.51861 Y20.0688 I0.91032 J0.41391
G3 X46.19044 Y22.82067 I-33.98943 J-14.70837
G2 X46.16655 Y22.86838 I0.88189 J0.47145
G3 X45.19426 Y24.52967 I-9.4948 J-4.44177
G3 X43.98524 Y26.1661 I-1699.96289 J-1254.69261
G2 X42.67158 Y28.49327 I7.92518 J6.00802
G2 X42.65393 Y28.54107 I0.92899 J0.37012
G2 X42.60271 Y28.696 I8.65745 J2.94782
G2 X42.47014 Y28.74445 I0.27606 J0.96114
G2 X40.12989 Y30.16336 I4.51806 J10.09112
G3 X36.94763 Y32.366 I-33.03536 J-44.32761
G2 X36.94092 Y32.37035 I0.54 J0.84167
G2 X33.06906 Y34.90693 I817.13206 J1251.49712
G2 X32.6249 Y35.85672 I0.5493 J0.83563
G2 X32.0137 Y35.8414 I-0.32945 J0.94417
G2 X30.75975 Y36.29143 I3.18471 J10.84579
G2 X30.74618 Y36.29734 I0.39267 J0.91968
G2 X28.35092 Y37.51551 I10.4721 J23.55505
G3 X26.18439 Y38.6084 I-11.25431 J-19.61651
G3 X24.42994 Y39.11643 I-2.86162 J-6.59893
G3 X23.06703 Y39.14974 I-0.88594 J-8.35127
G2 X23.05044 Y39.14893 I-0.0568 J0.99839
G2 X20.88988 Y39.11797 I-1.6784 J41.71362
G2 X20.8436 Y39.11957 I0.01155 J0.99993
G2 X20.3308 Y39.17118 I0.35124 J6.06339
G2 X19.60415 Y38.22021 I-0.99994 J0.01096
G3 X18.60249 Y37.92967 I25.93448 J-91.28383
G3 X14.75198 Y36.76506 I189.22747 J-632.58148
G3 X15.30247 Y36.90892 I-14.81278 J57.80581
G2 X15.31026 Y36.91096 I0.25746 J-0.96629
G2 X18.60956 Y37.71672 I33.12249 J-128.46822
G2 X18.61577 Y37.71813 I0.22479 J-0.97441
G2 X22.50154 Y38.26477 I5.32667 J-23.7802
G2 X24.23171 Y38.18395 I0.50609 J-7.72627
G2 X24.26437 Y38.17817 I-0.15809 J-0.98742
G2 X26.62112 Y37.39018 I-1.81783 J-9.35521
G2 X28.52476 Y36.42913 I-16.78665 J-35.61675
G2 X33.53187 Y33.67149 I-35.53 J-70.43711
G2 X33.54191 Y33.66539 I-0.51384 J-0.85789
G2 X37.41768 Y30.89956 I-18.24644 J-29.66725
G2 X37.42299 Y30.89516 I-0.63516 J-0.77238
G2 X40.51141 Y27.60099 I-11.83307 J-14.18886
G2 X39.70349 Y26.01131 I-0.80764 J-0.58968
G2 X37.91988 Y26.04969 I0.01198 J42.01414
G2 X37.91603 Y26.04987 I0.04274 J0.99909
G2 X33.1155 Y26.41275 I3.88998 J83.39311
G2 X33.08709 Y26.41614 I0.1041 J0.99457
G3 X32.61769 Y26.46894 I-1.4986 J-11.20984
G2 X33.89568 Y26.23858 I-6.81494 J-41.46772
G2 X38.29149 Y25.41623 I-106.5293 J-581.6085
G3 X40.23731 Y25.11507 I16.24886 J98.54686
G2 X40.25399 Y25.11251 I-0.14321 J-0.98969
G2 X42.44089 Y24.49595 I-1.59364 J-9.83919
G2 X42.46839 Y24.4842 I-0.37929 J-0.92528
G2 X44.04006 Y23.37368 I-2.00782 J-4.50902
G2 X44.04762 Y23.36562 I-0.7252 J-0.68853
G2 X45.28722 Y21.43541 I-4.75891 J-4.41933
G2 X45.99154 Y18.63287 I-8.44992 J-3.61339
G2 X45.96425 Y18.2968 I-0.9961 J-0.08823
G2 X46.73207 Y17.3955 I-1.34764 J-1.92577
G2 X47.25063 Y14.92271 I-4.41767 J-2.21718
G2 X46.85955 Y13.28151 I-4.17064 J0.12663
G2 X46.85525 Y13.27244 I-0.90581 J0.42368
G2 X45.65806 Y11.50419 I-6.54441 J3.14147
G2 X43.61706 Y9.37677 I-48.02095 J44.02746
G3 X40.19222 Y5.56067 I42.95526 J-41.99601
G3 X39.59108 Y4.67482 I5.06181 J-4.08184
G2 X39.57003 Y4.63925 I-0.87088 J0.4915
G2 X38.54124 Y3.25758 I-8.63275 J5.3541
G2 X38.50977 Y3.22367 I-0.74855 J0.66308
G2 X37.33082 Y2.473 I-2.1738 J2.11289
G2 X37.17351 Y2.43232 I-0.32817 J0.94462
G2 X35.68707 Y2.60968 I-0.44656 J2.57505
G2 X34.52699 Y3.18097 I3.4332 J8.43502
G2 X33.18805 Y3.88785 I13.60562 J27.39256
G2 X33.18549 Y3.88929 I0.48862 J0.8725
G2 X29.50293 Y6.74274 I7.87609 J13.96763
G2 X29.49068 Y6.75571 I0.72083 J0.69311
G3 X29.23443 Y7.02809 I-19.77857 J-18.35003
G2 X27.75555 Y6.40065 I-4.01516 J7.40721
G2 X27.73991 Y6.39586 I-0.30103 J0.95362
G2 X24.35618 Y5.95194 I-3.07642 J10.33168
G2 X24.35373 Y5.95201 I0.02851 J0.99959
G2 X20.89092 Y6.15431 I1.96012 J63.29177
G3 X18.3798 Y6.12325 I-1.06803 J-15.17883
G3 X17.15646 Y5.81973 I0.62097 J-5.1199
G2 X17.15332 Y5.81853 I-0.3576 J0.93387
G3 X15.65973 Y5.10065 I3.43118 J-9.05141
G2 X16.26157 Y5.31867 I11.21323 J-30.01365
G2 X16.266 Y5.32022 I0.33119 J-0.94356
G2 X18.41137 Y5.67943 I2.13832 J-6.18479
G2 X18.42981 Y5.67924 I-0.00108 J-1.0
G2 X20.98935 Y5.37265 I-0.25266 J-12.94689
G3 X23.0096 Y4.95074 I143.77588 J683.39096
G2 X23.02929 Y4.94645 I-0.20299 J-0.97918
G3 X25.00155 Y4.82436 I1.35793 J5.94513
G2 X25.01203 Y4.82537 I0.10074 J-0.99491
G2 X26.9115 Y4.99462 I56.74595 J-626.11939
G2 X26.92559 Y4.99575 I0.08724 J-0.99619
G2 X29.10959 Y4.78324 I0.4738 J-6.45959
G2 X29.2129 Y4.74881 I-0.26404 J-0.96451
G2 X30.74387 Y3.70617 I-1.54721 J-3.91719
G2 X31.61385 Y2.76417 I-10.57196 J-10.63643
G3 X32.9133 Y1.61404 I5.71695 J5.15003
G2 X32.93133 Y1.6011 I-0.57411 J-0.81878
G2 X34.47833 Y0.40745 I-24.66033 J-33.55988
G2 X36.70663 Y-2.28895 I-5.26588 J-6.62066
G2 X36.72143 Y-2.31836 I-0.88589 J-0.46389
G2 X37.62553 Y-5.06966 I-9.91186 J-4.78134
G2 X37.62569 Y-5.07051 I-0.98284 J-0.18447
G2 X38.0532 Y-8.08096 I-34.29088 J-6.40517
G2 X37.26106 Y-9.15743 I-0.99525 J-0.09731
G2 X37.18207 Y-9.63348 I-0.99686 J-0.07918
G2 X37.24685 Y-9.84492 I-0.91787 J-0.39688
G2 X37.54583 Y-9.82496 I0.54277 J-5.88031
G2 X38.58556 Y-10.76835 I0.04128 J-0.99915
G3 X38.64062 Y-11.286 I5.18129 J0.28937
G2 X38.90657 Y-12.84694 I-68.85001 J-12.53385
G2 X38.90713 Y-12.85052 I-0.98763 J-0.1568
G2 X38.88691 Y-14.33746 I-4.40925 J-0.68365
G2 X38.88089 Y-14.36774 I-0.98366 J0.18003
G2 X38.33176 Y-15.75568 I-4.446 J0.95642
G2 X36.52015 Y-18.07999 I-9.94456 J5.88282
G2 X34.51359 Y-20.07672 I-112.66943 J111.2174
G2 X33.62518 Y-20.86356 I-5.09254 J4.85497
G2 X32.07834 Y-21.41718 I-1.58255 J1.98392
G2 X31.94998 Y-21.41073 I-0.01407 J0.9999
G2 X30.6623 Y-20.99272 I0.39066 J3.39581
G3 X30.10788 Y-20.75869 I-1.99143 J-3.9439
G3 X29.81855 Y-21.15591 I0.47126 J-0.64722
G2 X29.80419 Y-21.19661 I-0.95 J0.31226
G3 X29.58045 Y-22.01027 I4.27936 J-1.61433
G2 X29.57741 Y-22.02662 I-0.98456 J0.17506
G2 X28.58573 Y-24.01301 I-4.07834 J0.79532
G2 X28.56324 Y-24.03715 I-0.74285 J0.66946
G2 X27.06155 Y-25.20171 I-4.74697 J4.57066
G3 X25.74158 Y-25.99932 I52.97165 J-89.15426
G2 X25.71122 Y-26.01725 I-0.52353 J0.85201
G2 X24.52151 Y-26.41864 I-1.63655 J2.88687
G2 X24.44141 Y-26.42626 I-0.13465 J0.99089
G2 X23.09608 Y-25.87892 I-0.09282 J1.69893
G2 X23.09108 Y-25.87345 I0.73614 J0.67683
G2 X22.69717 Y-25.25203 I1.60162 J1.4508
G2 X22.6885 Y-25.23047 I0.92342 J0.3838
G2 X22.40156 Y-24.02466 I4.22847 J1.64326
G3 X22.21717 Y-23.07557 I-6.85691 J-0.83969
G3 X21.75281 Y-21.81997 I-14.96012 J-4.81913
G2 X21.75147 Y-21.81675 I0.92229 J0.3865
G2 X20.88798 Y-19.30721 I19.79604 J8.21472
G2 X20.88391 Y-19.29199 I0.96392 J0.26619
G2 X20.8199 Y-17.55348 I3.91288 J1.01451
G2 X20.73562 Y-17.60014 I-0.93041 J1.58109
G2 X20.65777 Y-17.63645 I-0.46122 J0.88729
G2 X19.1482 Y-17.78625 I-1.00168 J2.41316
G2 X17.81623 Y-17.30473 I0.68007 J3.96427
G2 X15.96399 Y-16.12061 I5.4877 J10.62477
G2 X15.14064 Y-16.29719 I-0.60188 J0.79859
G2 X10.40981 Y-15.06768 I17.49539 J77.0341
G2 X10.40164 Y-15.06525 I0.28136 J0.9596
G2 X6.76551 Y-13.74921 I10.46151 J34.58565
G2 X5.1756 Y-12.90415 I3.65989 J8.80394
G2 X5.15415 Y-12.8896 I0.55062 J0.83476
G3 X3.73506 Y-11.92253 I-45.27675 J-64.91538
G2 X3.72961 Y-11.91888 I0.55414 J0.83242
G3 X2.65583 Y-11.37779 I-2.65381 J-3.9304
G2 X2.63226 Y-11.36913 I0.33317 J0.94287
G3 X1.65438 Y-11.34159 I-0.52829 J-1.38348
G3 X0.9308 Y-11.65456 I1.75196 J-5.04334
G2 X-1.22496 Y-12.33154 I-2.7937 J5.12532
G2 X-1.25666 Y-12.33451 I-0.10929 J0.99401
G2 X-4.37449 Y-12.21049 I-1.03321 J13.27726
G2 X-4.40215 Y-12.2057 I0.15653 J0.98767
G2 X-5.80907 Y-11.89281 I3.95421 J21.09941
G2 X-4.80712 Y-12.78956 I-4.33436 J-5.85097
G2 X-4.62957 Y-13.05621 I-0.73286 J-0.68038
G2 X-3.17098 Y-13.17343 I0.22038 J-6.39101
G2 X-1.63388 Y-13.4597 I-24.87343 J-137.8284
G3 X-0.28518 Y-13.43705 I0.60783 J3.97208
G2 X0.95919 Y-13.20173 I11.14604 J-55.53454
G2 X0.96339 Y-13.201 I0.17481 J-0.9846
G2 X3.04028 Y-13.43147 I0.64065 J-3.6999
G2 X3.06851 Y-13.44367 I-0.38249 J-0.92396
G2 X4.65628 Y-14.35252 I-3.89359 J-8.64345
G3 X7.15079 Y-15.58493 I6.1482 J9.30375
G2 X7.16856 Y-15.59128 I-0.32764 J-0.9448
G3 X11.12225 Y-16.84853 I16.00351 J43.48125
G2 X14.30447 Y-17.71963 I-51.19992 J-193.28685
G2 X14.31651 Y-17.72312 I-0.27197 J-0.9623
G2 X16.84896 Y-18.70048 I-4.80275 J-16.21402
G2 X16.85273 Y-18.70231 I-0.43377 J-0.90102
G2 X18.56102 Y-19.81458 I-3.59728 J-7.39288
G2 X18.56875 Y-19.82118 I-0.64532 J-0.76391
G2 X19.99702 Y-21.83551 I-3.35888 J-3.89515
G2 X19.00674 Y-23.19942 I-0.93074 J-0.36568
G2 X16.70876 Y-22.8675 I0.82494 J13.83225
G3 X15.10417 Y-22.66523 I-1.97584 J-9.20869
G3 X14.11892 Y-22.85115 I-0.05643 J-2.40454
G2 X14.33109 Y-22.79159 I0.97821 J-3.07679
G2 X14.39212 Y-22.77868 I0.23727 J-0.97144
G2 X16.01882 Y-22.85673 I0.64295 J-3.59095
G2 X17.23576 Y-23.20718 I-2.9533 J-12.54337
G2 X19.41327 Y-24.07435 I-2.2811 J-8.89547
G2 X20.95272 Y-25.79924 I-1.67626 J-3.04547
G2 X20.97428 Y-25.85668 I-0.92504 J-0.37988
G2 X21.12104 Y-27.48911 I-3.28179 J-1.11787
G2 X19.77538 Y-30.02199 I-3.77627 J0.38234
G2 X18.50153 Y-30.94777 I-6.88114 J8.12895
G3 X17.37601 Y-31.77608 I5.98614 J-9.31285
G3 X16.88745 Y-32.73737 I0.88605 J-1.05513
G2 X16.88685 Y-32.74562 I-0.99768 J0.06811
G3 X16.89487 Y-33.62724 I5.14572 J-0.39406
G2 X16.94599 Y-35.50845 I-10.62586 J-1.23008
G2 X16.94374 Y-35.53813 I-0.99815 J0.06087
G2 X16.22484 Y-37.23444 I-3.00555 J0.27326
G2 X16.18083 Y-37.2823 I-0.75768 J0.65262
G2 X14.83547 Y-38.26803 I-3.68088 J3.6128
G3 X13.87987 Y-38.88479 I3.426 J-6.35693
G2 X13.04198 Y-39.60023 I-29.28093 J33.44389
G2 X8.99748 Y-42.48543 I-20.20557 J24.04696
G2 X8.98925 Y-42.49031 I-0.51454 J0.85747
G3 X8.53349 Y-42.77248 I5.78732 J-9.85706
G2 X8.52733 Y-42.77646 I-0.54618 J0.83767
G2 X7.37481 Y-43.41441 I-5.48274 J8.54512
G2 X5.58132 Y-43.58492 I-1.12667 J2.33319
G2 X5.48776 Y-43.55501 I0.25736 J0.96632
G2 X4.32799 Y-42.66715 I0.88199 J2.3535
G2 X3.70206 Y-41.40903 I3.48747 J2.51983
G2 X3.36762 Y-39.20676 I6.80065 J2.15929
G2 X3.84014 Y-37.20829 I4.48346 J-0.00498
G2 X4.76182 Y-35.60693 I13.57037 J-6.74465
G3 X4.05232 Y-35.84451 I7.47538 J-23.50228
G2 X2.72124 Y-34.86141 I-0.33188 J0.94332
G3 X2.7416 Y-34.25605 I-49.10553 J1.95515
G2 X2.74175 Y-34.25108 I0.99962 J-0.02747
G2 X2.9019 Y-32.60575 I12.79992 J-0.41538
G2 X2.90532 Y-32.58597 I0.98697 J-0.16091
G2 X3.58749 Y-30.96137 I4.0456 J-0.74321
G2 X3.62556 Y-30.91077 I0.8177 J-0.57565
G2 X4.29889 Y-30.20028 I4.66867 J-3.75017
G2 X3.67609 Y-30.38223 I-45.46763 J154.47642
G2 X3.64058 Y-30.39182 I-0.27849 J0.96044
G2 X1.30039 Y-30.39721 I-1.18096 J4.71468
G2 X-0.66556 Y-29.50437 I1.22797 J5.31471
G2 X-1.02366 Y-29.91712 I-0.90566 J0.42401
G3 X-1.34894 Y-30.14069 I4.75763 J-7.27049
G2 X-2.45657 Y-30.83408 I-4.68607 J6.25428
G2 X-2.47491 Y-30.84328 I-0.45789 J0.88901
G2 X-3.76816 Y-31.13176 I-1.24739 J2.54901
G2 X-4.92983 Y-31.00786 I0.08806 J6.33348
G2 X-7.16665 Y-30.39676 I2.99083 J15.34659
G2 X-9.16666 Y-29.47032 I2.79741 J8.66113
G2 X-9.24573 Y-29.41585 I0.52709 J0.84981
G2 X-10.67534 Y-28.17004 I8.77115 J11.50841
G3 X-11.45805 Y-27.56906 I-3.76768 J-4.09675
G2 X-11.92594 Y-29.26013 I-0.69651 J-0.71755
G3 X-13.35748 Y-29.76508 I1.60293 J-6.82592
G3 X-15.95448 Y-31.65743 I4.6247 J-9.07499
G2 X-15.96765 Y-31.67043 I-0.70902 J0.70519
G2 X-17.26941 Y-32.92921 I-637.52199 J657.98868
G2 X-19.77297 Y-34.75813 I-7.60501 J7.7823
G2 X-19.78985 Y-34.76689 I-0.46883 J0.88329
G2 X-19.88945 Y-34.81594 I-2.22443 J4.39056
G2 X-20.071 Y-35.48092 I-0.99636 J-0.08525
G2 X-21.90919 Y-37.61085 I-12.26209 J8.72441
G2 X-24.2062 Y-39.70293 I-38.28535 J39.72838
G3 X-26.30987 Y-41.82372 I16.78466 J-18.75294
G3 X-27.39866 Y-43.09577 I94.81421 J-82.25608
G2 X-26.37328 Y-42.48014 I5.44948 J-7.91473
G2 X-25.6601 Y-42.40034 I0.4604 J-0.88771
G2 X-24.92104 Y-41.18439 I4.27529 J-1.76599
G2 X-24.9166 Y-41.17916 I0.76448 J-0.64465
G2 X-22.80927 Y-39.30874 I7.814 J-6.68137
G2 X-20.84209 Y-37.95364 I85.66019 J-122.24589
G3 X-18.90674 Y-36.26759 I-9.01618 J12.30316
G2 X-18.8901 Y-36.25082 I0.71798 J-0.69606
G2 X-16.58066 Y-34.0247 I109.86724 J-111.66759
G2 X-16.57422 Y-34.01867 I0.68659 J-0.72704
G2 X-14.32227 Y-32.29606 I10.16711 J-10.95816
G2 X-14.32204 Y-32.29592 I0.5295 J-0.84831
G2 X-11.88399 Y-31.23725 I4.76727 J-7.64204
G2 X-11.86895 Y-31.23335 I0.2586 J-0.96599
G2 X-10.73334 Y-31.09693 I1.10426 J-4.39737
G2 X-10.71899 Y-31.09713 I-0.00691 J-0.99998
G2 X-9.01325 Y-31.33997 I-0.15285 J-7.18578
G2 X-9.00824 Y-31.34132 I-0.25859 J-0.96599
G2 X-6.56382 Y-32.16232 I-5.93679 J-21.72546
G3 X-4.90273 Y-32.6658 I4.56249 J12.06075
G3 X-4.36338 Y-32.69413 I0.36538 J1.80795
G3 X-3.61649 Y-32.52724 I-0.52701 J4.11311
G2 X-2.33967 Y-32.09572 I36.22481 J-105.08212
G2 X-2.32275 Y-32.09028 I0.31442 J-0.94928
G2 X-1.1687 Y-31.88004 I1.43534 J-4.60623
G2 X0.44863 Y-32.24715 I0.20925 J-2.82432
G2 X0.51131 Y-32.28621 I-0.49719 J-0.86764
G2 X1.46761 Y-33.37568 I-1.60163 J-2.37029
G2 X1.46882 Y-33.37809 I-0.89417 J-0.44773
G2 X2.0301 Y-34.8913 I-6.80687 J-3.38552
G2 X2.70428 Y-37.70111 I-18.92529 J-6.02669
G2 X2.7053 Y-37.70746 I-0.9868 J-0.16196
G2 X2.58 Y-41.73253 I-10.67779 J-1.68209
G2 X1.87389 Y-42.4786 I-0.97623 J0.21675
G2 X2.51555 Y-46.67648 I-6.47373 J-3.13751
G2 X1.79302 Y-49.12331 I-7.61345 J0.91811
G2 X1.78624 Y-49.13693 I-0.89859 J0.43879
G2 X-0.06716 Y-51.02904 I-3.92555 J1.99143
G2 X-1.73923 Y-51.78412 I-5.71084 J10.41734
G3 X-3.11705 Y-52.3933 I10.61084 J-25.86179
G3 X-4.34783 Y-53.22325 I2.30762 J-4.7497
G3 X-4.84295 Y-54.12202 I1.16558 J-1.22787
G3 X-4.79308 Y-54.547 I0.83034 J-0.11797
G2 X-4.78933 Y-54.55666 I-0.93059 J-0.36605
G3 X-4.42954 Y-55.28206 I3.94463 J1.50462
G2 X-4.42894 Y-55.28302 I-0.84912 J-0.52821
G2 X-3.88762 Y-56.32393 I-6.5824 J-4.08436
G2 X-3.65315 Y-57.66955 I-2.67856 J-1.15997
G2 X-3.65583 Y-57.70289 I-0.99798 J0.0636
G2 X-3.85928 Y-58.69277 I-4.77051 J0.46464
G2 X-3.86452 Y-58.70874 I-0.95284 J0.30346
G3 X-4.0976 Y-59.63227 I5.79851 J-1.9546
G3 X-4.05515 Y-59.91758 I0.62371 J-0.05302
G3 X-3.75025 Y-60.45349 I2.48688 J1.0602
G3 X-2.68582 Y-61.54937 I5.2394 J4.02413
G2 X-2.67304 Y-61.55997 I-0.63195 J-0.77501
G2 X-1.37731 Y-62.65869 I-207.49785 J-246.0173
G2 X-1.35771 Y-62.67584 I-0.64875 J-0.761
G2 X-0.20047 Y-63.97366 I-5.26441 J-5.85902
G2 X1.42476 Y-66.47485 I-8.0571 J-7.014
G2 X1.42972 Y-66.48567 I-0.90638 J-0.42245
G2 X1.9599 Y-70.44562 I-6.34211 J-2.86458
G2 X1.95839 Y-70.45483 I-0.98753 J0.1574
G2 X0.24489 Y-74.2367 I-8.02202 J1.35552
G2 X0.23432 Y-74.24947 I-0.77541 J0.63146
G2 X-1.2986 Y-75.4113 I-3.33732 J2.81105
G3 X-0.98918 Y-75.39762 I-1.33614 J33.7141
G2 X1.72658 Y-75.27371 I10.40855 J-198.30174
G2 X1.74536 Y-75.27316 I0.03874 J-0.99925
G2 X4.38769 Y-75.42998 I0.3337 J-16.71595
G2 X4.76552 Y-75.56376 I-0.13808 J-0.99042
G3 X4.78913 Y-75.57367 I0.04582 J0.07608
G2 X4.80402 Y-75.57764 I-0.25 J-0.96825
G3 X5.71898 Y-75.71885 I1.06897 J3.89144
G2 X5.76561 Y-75.72172 I-0.03816 J-0.99927
G3 X8.11164 Y-75.81345 I2.17323 J25.53671
G2 X8.12819 Y-75.81347 I0.00674 J-0.99998
G3 X15.89046 Y-75.6139 I1.07264 J109.33691
G2 X15.97389 Y-75.61228 I0.06118 J-0.99813
G3 X16.11902 Y-75.59153 I0.00998 J0.44831
G2 X16.20788 Y-75.56788 I0.30142 J-0.95349
G2 X17.71203 Y-75.3529 I2.23746 J-10.28547
G2 X20.38087 Y-75.3437 I1.39911 J-18.76021
G3 X20.57582 Y-75.35425 I3.88371 J69.9634
G2 X20.19989 Y-74.28922 I2.14401 J1.35565
G2 X20.05966 Y-73.40789 I31.27139 J5.4275
G3 X18.78671 Y-71.43816 I-3.10198 J-0.60848
G3 X17.50319 Y-70.79326 I-3.57062 J-5.50669
G2 X17.48926 Y-70.78796 I0.34848 J0.93732
G2 X15.93335 Y-70.17217 I50.47966 J129.82048
G2 X15.90779 Y-70.16146 I0.37358 J0.9276
G2 X13.94882 Y-68.94059 I3.1506 J7.23739
G2 X13.90115 Y-68.89739 I0.64732 J0.76222
G2 X12.47857 Y-66.94147 I4.86662 J5.0349
G3 X11.51491 Y-65.06748 I-98.07187 J-49.24671
G3 X10.70548 Y-64.03632 I-3.88998 J-2.22027
G3 X10.38248 Y-63.84313 I-0.86569 J-1.08069
G2 X10.33754 Y-63.82265 I0.39193 J0.91999
G3 X9.34822 Y-63.3798 I-7.58138 J-15.60995
G2 X9.33212 Y-63.37302 I0.37987 J0.92504
G2 X7.69863 Y-62.4968 I4.31097 J9.99736
G2 X7.67788 Y-62.4829 I0.546 J0.83778
G2 X6.97096 Y-61.76428 I1.50437 J2.18691
G2 X7.08792 Y-59.62222 I1.45284 J0.99489
G2 X7.18332 Y-59.52531 I0.75866 J-0.65149
G2 X8.57817 Y-58.87759 I1.78102 J-2.00965
G2 X10.68898 Y-58.5127 I5.38306 J-24.85218
G2 X12.45638 Y-58.40622 I1.6071 J-11.9541
G2 X14.69046 Y-59.10819 I-0.00857 J-3.93336
G2 X15.85073 Y-59.97508 I-7.94831 J-11.84813
G3 X16.72994 Y-60.53089 I3.07022 J3.88339
G3 X17.37401 Y-60.63827 I0.52825 J1.18317
G3 X19.17292 Y-60.11495 I-0.66655 J5.64483
G2 X19.18732 Y-60.10816 I0.43375 J-0.90103
G3 X21.40976 Y-58.8952 I-7.94592 J17.20134
G2 X21.42521 Y-58.88557 I0.53665 J-0.84381
G2 X23.63172 Y-57.62473 I22.75748 J-37.26494
G2 X23.63626 Y-57.62232 I0.47066 J-0.88232
G2 X25.97297 Y-56.74246 I4.67582 J-8.87511
G2 X25.98481 Y-56.7397 I0.23318 J-0.97243
G2 X28.14318 Y-56.64958 I1.32478 J-5.83695
G2 X28.51255 Y-56.06759 I0.97726 J-0.21203
G3 X29.10695 Y-55.57994 I-6.9456 J9.07209
G2 X29.11671 Y-55.57147 I0.65992 J-0.75133
G3 X30.04657 Y-54.5077 I-3.18564 J3.72287
G3 X30.44856 Y-52.7971 I-2.29998 J1.44302
G3 X30.22451 Y-51.62152 I-15.3816 J-2.32231
G2 X30.12087 Y-49.87159 I5.07576 J1.17865
G2 X30.12685 Y-49.82671 I0.99397 J-0.10963
G2 X30.30902 Y-49.20678 I2.4496 J-0.38309
G2 X30.20797 Y-49.17555 I0.90282 J3.10121
G2 X30.15594 Y-49.15693 I0.3108 J0.95047
G2 X28.74871 Y-48.2889 I1.66262 J4.27009
G3 X27.80922 Y-47.56154 I-6.72456 J-7.71526
G3 X27.08909 Y-47.38959 I-0.63987 J-1.08588
G3 X25.13362 Y-47.94798 I0.59943 J-5.80238
G2 X25.10607 Y-47.96089 I-0.43799 J0.89898
G3 X23.67957 Y-48.6605 I9.87166 J-21.9324
G2 X23.6635 Y-48.66886 I-0.46975 J0.8828
G2 X23.29957 Y-48.84907 I-8.29451 J16.29315
G3 X23.59773 Y-48.76855 I-1.80788 J7.28688
G2 X23.62269 Y-48.76161 I0.28051 J-0.95985
G2 X25.28548 Y-48.45331 I2.88051 J-10.89754
G2 X26.98569 Y-48.58537 I0.517 J-4.35463
G2 X27.00974 Y-48.59243 I-0.26982 J-0.96291
G2 X29.39393 Y-51.81959 I-0.99222 J-3.22733
G2 X29.3939 Y-51.82763 I-1.0 J-0.00005
G2 X28.73113 Y-54.14042 I-4.49194 J0.03589
G2 X26.31655 Y-56.09211 I-3.69123 J2.09722
G2 X24.32403 Y-56.56435 I-3.93628 J12.16868
G3 X22.24592 Y-57.03093 I3.46689 J-20.30214
G2 X21.23382 Y-56.73729 I-0.26923 J0.96308
G2 X18.51107 Y-57.86184 I-5.06117 J8.39561
G2 X18.49527 Y-57.86559 I-0.23854 J0.97113
G2 X17.26174 Y-57.97526 I-1.01765 J4.45395
G2 X17.23977 Y-57.97398 I0.04725 J0.99888
G2 X15.36375 Y-57.52771 I0.40816 J5.8821
G2 X13.92624 Y-56.85855 I5.97322 J14.71051
G3 X12.44057 Y-56.25687 I-4.73845 J-9.56522
G3 X11.34163 Y-56.15958 I-0.77859 J-2.53939
G2 X11.2746 Y-56.16544 I-0.12061 J0.9927
G2 X10.03322 Y-56.08824 I-0.28861 J5.37803
G2 X9.97788 Y-56.07667 I0.17691 J0.98423
G2 X8.70975 Y-54.42314 I0.38381 J1.60739
G2 X9.41126 Y-52.80687 I2.29185 J-0.03434
G2 X10.44018 Y-52.0167 I3.49524 J-3.48635
G3 X11.35456 Y-51.4304 I-7.64573 J12.93032
G2 X11.3656 Y-51.42285 I0.56985 J-0.82175
G3 X11.73208 Y-51.05105 I-0.73545 J1.09143
G3 X11.90877 Y-50.61506 I-2.12853 J1.1164
G3 X12.16844 Y-49.40578 I-13.95306 J3.62862
G2 X12.8048 Y-47.62683 I5.09392 J-0.81889
G2 X12.829 Y-47.58743 I0.86398 J-0.50352
G2 X14.28107 Y-45.87984 I7.21695 J-4.66585
G3 X15.29281 Y-44.82368 I-16.65869 J16.97066
G2 X17.82618 Y-41.94553 I133.38042 J-114.8485
G2 X17.8281 Y-41.9434 I0.74339 J-0.66885
G2 X21.82645 Y-37.89912 I47.77361 J-43.23241
G2 X21.85622 Y-37.87264 I0.67941 J-0.73376
G2 X22.14418 Y-37.63627 I6.11021 J-7.15037
G0 Z3.0
G0 X12.44618 Y-23.87058
G0 Z0.0
G1 F300.0 Z-2.0
G2 F800.0 X12.03649 Y-24.05029 I-0.64727 J0.91875
G2 X11.66087 Y-24.01401 I-0.09038 J1.02704
G2 X10.21017 Y-23.49976 I155.54157 J441.08367
G3 X10.40716 Y-23.54231 I2.28086 J10.08343
G3 X12.3938 Y-23.55716 I1.02722 J4.52677
G3 X12.49558 Y-23.52999 I-0.20669 J0.97841
G3 X13.3569 Y-23.20854 I-3.25222 J10.02907
G3 X13.12334 Y-23.37301 I1.74023 J-2.7194
G2 X12.48344 Y-23.84354 I-18.93746 J25.08388
G3 X12.4692 Y-23.85392 I0.58217 J-0.81306
G2 X12.44618 Y-23.87058 I-0.67029 J0.9021
G0 Z3.0
G0 X54.80638 Y-21.04004
G0 Z1.0
G1 F300.0 Z-1.0
G3 F800.0 X55.38124 Y-21.07288 I3.90064 J63.23675
G3 X55.38919 Y-21.07326 I0.05249 J0.99862
G2 X56.47478 Y-21.18635 I-0.41052 J-9.2075
G3 X56.5106 Y-21.19158 I0.16233 J0.98674
G2 X57.26135 Y-21.32277 I-1.04526 J-8.19565
G3 X55.64681 Y-21.48346 I-0.28333 J-5.34463
G3 X54.89647 Y-21.06694 I-1.46991 J-1.76387
G3 X54.87371 Y-21.05973 I-0.3134 J-0.94962
G3 X54.80638 Y-21.04004 I-0.98376 J-3.23883
G1 F300.0 Z-2.0
G3 F800.0 X55.38124 Y-21.07288 I3.90064 J63.23675
G3 X55.38919 Y-21.07326 I0.05249 J0.99862
G2 X56.47478 Y-21.18635 I-0.41052 J-9.2075
G3 X56.5106 Y-21.19158 I0.16233 J0.98674
G2 X57.26135 Y-21.32277 I-1.04526 J-8.19565
G3 X55.64681 Y-21.48346 I-0.28333 J-5.34463
G3 X54.89647 Y-21.06694 I-1.46991 J-1.76387
G3 X54.87371 Y-21.05973 I-0.3134 J-0.94962
G3 X54.80638 Y-21.04004 I-0.98376 J-3.23883
G0 Z3.0
G0 X40.27741 Y-18.4551
G0 Z0.0
G1 F300.0 Z-2.0
G3 F800.0 X36.63866 Y-19.09687 I1.50271 J-19.15659
G3 X37.08644 Y-18.64508 I-112.78794 J112.23428
G3 X38.408 Y-17.09867 I-8.69924 J8.77222
G3 X39.4045 Y-18.09116 I2.37038 J1.38346
G3 X39.47196 Y-18.12827 I0.90104 J1.55824
G3 X40.27741 Y-18.4551 I2.09955 J4.0182
G0 Z3.0
G0 X39.16885 Y-9.96498
G0 Z0.0
G1 F300.0 Z-2.0
G3 F800.0 X39.07052 Y-9.80455 I-1.58174 J-0.85912
G3 X39.17585 Y-9.9294 I1.42701 J1.09711
G3 X39.16885 Y-9.96498 I3.75001 J-0.75597
G1 F300.0 X39.01412 Y-9.727
G3 F800.0 X38.49098 Y-9.2675 I-1.42701 J-1.09711
G3 X38.69882 Y-8.91822 I-1.43303 J1.08923
G2 X38.7433 Y-9.11079 I-95.68701 J-22.20381
G3 X39.01412 Y-9.727 I1.75423 J0.40334
G0 Z3.0
G0 X37.01623 Y0.13454
G0 Z0.0
G1 F300.0 Z-2.0
G3 F800.0 X36.41908 Y0.80515 I-7.80378 J-6.34775
G3 X37.16217 Y0.81643 I0.30787 J4.20222
G3 X37.15408 Y0.78383 I15.57537 J-3.88128
G3 X37.14707 Y0.75472 I2.52416 J-0.6234
G3 X37.01623 Y0.13454 I13.59711 J-3.19243
G1 F300.0 X37.80255 Y-0.01279
G3 F800.0 X37.57847 Y-2.26394 I12.94163 J-2.42491
G3 X37.44197 Y-1.97078 I-10.76891 J-4.83575
G3 X37.41535 Y-1.91783 I-1.62123 J-0.78206
G3 X34.9791 Y1.03134 I-8.2029 J-4.29537
G3 X33.40504 Y2.24577 I-26.7081 J-32.99013
G3 X33.37258 Y2.26907 I-1.06585 J-1.4505
G2 X32.21605 Y3.29096 I3.95822 J5.64513
G3 X31.71255 Y3.85623 I-12.04414 J-10.22123
G3 X32.79255 Y3.19244 I9.34903 J14.0007
G3 X32.79715 Y3.18986 I0.88412 J1.56791
G3 X34.14723 Y2.47636 I15.33545 J27.38368
G3 X35.37746 Y1.87197 I4.97304 J8.56833
G3 X37.3102 Y1.64409 I1.34949 J3.13541
G3 X37.59336 Y1.71731 I-0.30756 J1.77353
G3 X38.38714 Y2.1004 I-1.25739 J3.61926
G3 X37.93075 Y0.59202 I14.35039 J-5.16525
G3 X37.92589 Y0.57186 I1.74749 J-0.43158
G3 X37.80255 Y-0.01279 I12.81829 J-3.00957
G0 Z3.0
G0 X29.74727 Y5.39056
G0 Z0.0
G1 F300.0 Z-2.0
G3 F800.0 X29.50679 Y5.49287 I-2.08158 J-4.55894
G3 X29.32082 Y5.55485 I-0.66125 J-1.67414
G3 X28.33662 Y5.75249 I-1.92143 J-7.01868
G3 X29.0623 Y6.0484 I-3.11735 J8.68281
G3 X29.74727 Y5.39056 I11.99928 J11.80852
G0 Z3.0
G0 X46.79239 Y18.64951
G0 Z0.0
G1 F300.0 Z-2.0
G3 F800.0 X46.78842 Y18.70346 I-1.79694 J-0.10487
G3 X46.479 Y20.43723 I-9.95113 J-0.88144
G2 X46.7844 Y19.75109 I-32.94982 J-15.0768
G3 X46.79779 Y19.72091 I1.65196 J0.71486
G2 X47.22514 Y18.30914 I-5.06995 J-2.30525
G2 X47.24462 Y18.10857 I-6.0708 J-0.69082
G3 X46.79239 Y18.64951 I-2.62801 J-1.73754
G0 Z3.0
G0 X44.70365 Y23.83376
G0 Z0.0
G1 F300.0 Z-2.0
G3 F800.0 X44.63384 Y23.91001 I-5.41493 J-4.88747
G3 X44.62022 Y23.92451 I-1.31898 J-1.22486
G3 X42.79381 Y25.21502 I-4.15966 J-3.94933
G3 X42.74432 Y25.23617 I-0.73221 J-1.64434
G3 X41.01653 Y25.77978 I-4.08397 J-9.96285
G3 X41.15752 Y28.07274 I-1.31276 J1.23153
G3 X40.51842 Y28.89999 I-15.5676 J-11.36643
G3 X41.97039 Y28.09334 I6.46977 J9.93558
G3 X43.3448 Y25.68667 I9.94003 J4.08078
G2 X44.54711 Y24.05931 I-1698.11343 J-1255.84961
G2 X44.70365 Y23.83376 I-7.87537 J-5.63271
G0 Z3.0
G0 X30.45155 Y-21.78647
G0 Z0.0
G1 F300.0 Z-2.0
G3 F800.0 X31.17579 Y-22.0691 I1.88909 J3.77155
G3 X30.59747 Y-22.76177 I6.24384 J-5.80082
G3 X30.57325 Y-22.79491 I1.44086 J-1.07886
G2 X29.5843 Y-24.08625 I-19.67318 J14.04192
G2 X29.44765 Y-24.22501 I-11.55206 J11.23931
G3 X30.36262 Y-22.17974 I-3.94858 J2.99371
G3 X30.3681 Y-22.15032 I-1.76672 J0.34453
G2 X30.45155 Y-21.78647 I3.71545 J-0.66062
G0 Z3.0
G0 X23.61901 Y-27.94717
G0 Z0.0
G1 F300.0 Z-2.0
G3 F800.0 X22.53116 Y-28.91197 I8.19706 J-10.33817
G3 X22.37132 Y-29.0679 I3.1383 J-3.37687
G3 X22.70892 Y-27.68826 I-5.02654 J1.96114
G3 X22.72074 Y-27.59957 I-5.01644 J0.71371
G3 X23.61901 Y-27.94717 I1.62785 J2.87224
G0 Z3.0
G0 X20.16555 Y-34.77032
G0 Z0.0
G1 F300.0 Z-2.0
G3 F800.0 X20.31321 Y-35.00674 I4.40405 J2.58628
G3 X20.16329 Y-35.12309 I7.65321 J-10.01627
G3 X20.16555 Y-34.77032 I-13.89428 J0.26577
G1 F300.0 X20.8554 Y-34.36521
G3 F800.0 X21.46462 Y-35.16932 I3.71421 J2.18117
G3 X20.29706 Y-36.04807 I6.5018 J-9.85368
G3 X20.19586 Y-36.1381 I2.2088 J-2.5848
G3 X18.95081 Y-37.32101 I45.40586 J-49.0377
G3 X19.33388 Y-35.75544 I-5.01263 J2.05615
G3 X19.34154 Y-35.65454 I-3.38603 J0.30786
G3 X19.28234 Y-33.38088 I-13.07253 J0.79722
G2 X19.27829 Y-33.32914 I2.75023 J0.2412
G2 X19.78417 Y-32.97638 I5.20938 J-6.93149
G3 X20.28729 Y-32.64731 I-6.88992 J11.08334
G3 X20.8554 Y-34.36521 I4.28232 J0.46328
G0 Z3.0
G0 X2.45942 Y-31.33748
G0 Z0.0
G1 F300.0 Z-2.0
G3 F800.0 X2.11849 Y-32.44143 I4.49151 J-1.9917
G3 X2.11232 Y-32.47702 I1.77037 J-0.32523
G3 X2.06383 Y-32.79856 I13.42935 J-2.18945
G3 X0.95922 Y-31.62335 I-3.15415 J-1.85794
G3 X0.84639 Y-31.55304 I-1.00778 J-1.49144
G3 X-1.22143 Y-31.08176 I-1.80584 J-3.15132
G3 X-1.30586 Y-31.08742 I0.33402 J-5.61475
G3 X-0.87533 Y-30.78548 I-4.72914 J7.20102
G2 X-0.58562 Y-30.58654 I4.6093 J-6.40214
G3 X-0.52204 Y-30.54296 I-0.98561 J1.50618
G3 X1.11495 Y-31.17544 I3.0504 J5.46046
G3 X2.45942 Y-31.33748 I1.34466 J5.4983
G0 Z3.0
G0 X-4.41743 Y-31.89417
G0 Z0.0
G1 F300.0 Z-2.0
G2 F800.0 X-4.45082 Y-31.89876 I-0.47296 J3.31315
G2 X-4.73481 Y-31.88352 I-0.08654 J1.04091
G2 X-5.14374 Y-31.7811 I2.73348 J11.78195
G3 X-5.08522 Y-31.79263 I3.20475 J16.11984
G3 X-4.41743 Y-31.89417 I1.40512 J6.99434
G0 Z3.0
G0 X-8.88915 Y-30.54549
G0 Z0.0
G1 F300.0 Z-2.0
G3 F800.0 X-10.70198 Y-30.29731 I-1.98268 J-7.73742
G3 X-10.72781 Y-30.29695 I-0.03828 J-1.79959
G3 X-12.06379 Y-30.45744 I-0.03687 J-5.33378
G3 X-12.09086 Y-30.46446 I0.4384 J-1.7458
G3 X-14.66673 Y-31.56856 I2.53609 J-9.4735
G2 X-13.00278 Y-30.48222 I5.93395 J-7.27151
G2 X-11.74306 Y-30.03894 I2.67976 J-5.60383
G3 X-10.65758 Y-29.28614 I-0.4115 J1.75233
G3 X-9.73067 Y-30.05212 I10.183 J11.37871
G3 X-9.58833 Y-30.15017 I1.0911 J1.43161
G3 X-8.88915 Y-30.54549 I5.2191 J8.41453
G0 Z3.0
G0 X-19.01283 Y-35.25097
G0 Z0.0
G1 F300.0 Z-2.0
G3 F800.0 X-19.15283 Y-35.38782 I109.98997 J-112.66745
G3 X-19.13548 Y-35.32113 I-1.73297 J0.48662
G3 X-19.01283 Y-35.25097 I-5.73895 J10.17422
G0 Z3.0
G0 X7.08222 Y-48.42498
G0 Z0.0
G1 F300.0 Z-2.0
G3 F800.0 X7.18882 Y-48.41209 I-0.83408 J7.34377
G3 X7.06474 Y-48.50362 I5.71767 J-7.88113
G3 X7.08222 Y-48.42498 I-12.16264 J2.74525
G0 Z3.0
G0 X3.15621 Y-55.63038
G0 Z0.0
G1 F300.0 Z-2.0
G3 F800.0 X2.83941 Y-55.9739 I4.69036 J-4.64333
G3 X1.94998 Y-57.26628 I5.58439 J-4.79548
G3 X1.87396 Y-56.32788 I-8.51616 J-0.21762
G3 X2.60002 Y-55.95313 I-7.65196 J15.71618
G3 X3.15621 Y-55.63038 I-4.73933 J8.80763
G1 F300.0 X3.72474 Y-56.1932
G3 F800.0 X3.44634 Y-56.49509 I4.12184 J-4.0805
G3 X2.03542 Y-59.27499 I4.97746 J-4.2743
G3 X1.85038 Y-59.10539 I-8.65753 J-9.25987
G3 X1.7367 Y-59.00589 I-3.87645 J-4.31429
G3 X1.08922 Y-58.45537 I-211.90759 J-248.57138
G3 X1.12156 Y-58.1682 I-9.51556 J1.21711
G3 X1.13714 Y-57.97484 I-5.77268 J0.56225
G3 X0.98028 Y-55.86124 I-7.70331 J0.49094
G3 X2.21878 Y-55.24981 I-6.75828 J15.24954
G3 X3.92006 Y-54.07059 I-4.35809 J8.10431
G3 X3.91079 Y-54.32199 I7.08154 J-0.3869
G3 X4.06439 Y-55.87635 I6.4509 J-0.14729
G3 X3.99971 Y-55.93301 I4.89995 J-5.65861
G3 X3.72474 Y-56.1932 I3.84687 J-4.34069
G1 F300.0 X4.29327 Y-56.75603
G3 F800.0 X4.05327 Y-57.01627 I3.55331 J-3.51767
G3 X2.67519 Y-61.14463 I4.37053 J-3.75311
G3 X1.3157 Y-59.70047 I-9.29731 J-7.39023
G3 X1.2177 Y-59.61469 I-3.34177 J-3.71922
G3 X0.23107 Y-58.77696 I-211.38859 J-247.96258
G3 X0.32533 Y-58.09064 I-8.65741 J1.53871
G3 X0.33875 Y-57.92396 I-4.97645 J0.48469
G3 X0.02892 Y-55.39191 I-6.90493 J0.44006
G3 X1.83759 Y-54.54646 I-5.80692 J14.7802
G3 X5.35347 Y-50.94658 I-3.9769 J7.40096
G3 X5.38737 Y-50.87848 I-4.45904 J2.26207
G3 X6.41303 Y-47.67013 I-10.48527 J5.12011
G3 X8.6041 Y-47.23674 I-0.16489 J6.58892
G3 X8.23515 Y-48.67457 I8.65826 J-2.98794
G3 X6.60444 Y-49.95688 I4.67134 J-7.61865
G3 X4.71061 Y-54.33876 I4.39716 J-4.50061
G3 X4.9719 Y-56.17275 I5.65107 J-0.13051
G3 X4.53031 Y-56.53173 I3.99245 J-5.36221
G3 X4.29327 Y-56.75603 I3.31627 J-3.74198
G0 Z3.0
G0 X7.6394 Y-69.77695
G0 Z0.0
G1 F300.0 Z-2.0
G3 F800.0 X7.8829 Y-70.21395 I11.12838 J5.91445
G2 X7.61709 Y-70.21144 I0.05595 J20.02893
G3 X7.6394 Y-69.77695 I-12.52947 J0.8612
G1 F300.0 X8.34582 Y-69.4015
G3 F800.0 X9.38225 Y-71.01857 I10.42195 J5.53901
G2 X8.17528 Y-71.0137 I-0.18141 J104.54202
G3 X8.07928 Y-71.01355 I-0.0569 J-5.79972
G2 X6.73329 Y-70.97911 I-0.14043 J20.82854
G3 X6.6901 Y-67.43784 I-11.64567 J1.62887
G3 X7.43148 Y-67.78069 I6.95299 J14.06218
G3 X7.52486 Y-67.81999 I2.2966 J5.32594
G2 X7.54106 Y-67.82666 I-4.7687 J-11.61261
G2 X8.17966 Y-69.07685 I-93.13436 J-48.36152
G3 X8.34582 Y-69.4015 I10.58811 J5.21436
G1 F300.0 X9.05225 Y-69.02605
G3 F800.0 X11.1212 Y-71.77347 I9.71552 J5.16356
G3 X11.1496 Y-71.8007 I3.47495 J3.5951
G2 X8.16743 Y-71.81366 I-1.94876 J105.32415
G3 X8.08467 Y-71.81354 I-0.04905 J-4.99976
G2 X6.1048 Y-71.73613 I-0.14583 J21.62852
G3 X5.97257 Y-71.72664 I-0.42398 J-4.98199
G3 X5.79756 Y-71.66605 I-1.72295 J-4.69376
G3 X5.90248 Y-71.12128 I-11.86119 J2.56674
G3 X5.91004 Y-71.07524 I-4.93011 J0.83307
G3 X5.4596 Y-65.81155 I-10.82242 J1.72499
G3 X5.51462 Y-65.84793 I2.78504 J4.15254
G3 X7.74826 Y-67.04608 I8.12847 J12.47226
G3 X7.82875 Y-67.07996 I1.97983 J4.59133
G2 X8.11808 Y-67.20278 I-5.07259 J-12.35264
G2 X8.89597 Y-68.72061 I-93.71138 J-48.9854
G3 X9.05225 Y-69.02605 I9.8718 J4.85812
G1 F300.0 X9.75868 Y-68.6506
G3 F800.0 X11.67719 Y-71.19825 I9.0091 J4.78811
G3 X11.8774 Y-71.37969 I2.91895 J3.01988
G3 X13.51151 Y-72.53116 I7.18099 J8.45562
G2 X8.15959 Y-72.61362 I-4.31068 J106.0546
G3 X8.09007 Y-72.61352 I-0.0412 J-4.1998
G2 X6.03696 Y-72.53325 I-0.15122 J22.4285
G3 X5.8411 Y-72.52118 I-0.35614 J-4.18487
G2 X5.80498 Y-72.51902 I0.03189 J0.83499
G3 X4.82955 Y-72.26064 I-1.55537 J-3.90139
G3 X4.82265 Y-72.25967 I-2.75049 J-19.72847
G3 X5.11366 Y-70.98799 I-10.88627 J3.16036
G3 X5.12001 Y-70.94931 I-4.14129 J0.69978
G3 X4.34604 Y-65.16844 I-10.03239 J1.59907
G3 X4.32519 Y-65.123 I-3.82767 J-1.72886
G3 X2.31415 Y-61.98994 I-12.58276 J-5.86467
G3 X0.78102 Y-60.29554 I-8.93626 J-6.54492
G3 X0.6987 Y-60.22349 I-2.80708 J-3.12414
G3 X-0.60992 Y-59.11385 I-210.86959 J-247.35378
G3 X-0.6487 Y-59.08153 I-2.70785 J-3.21053
G3 X-0.4709 Y-58.01309 I-7.77764 J1.84328
G3 X-0.45963 Y-57.87308 I-4.18022 J0.40714
G3 X-0.94771 Y-55.0602 I-6.10655 J0.38918
G3 X-0.99797 Y-54.94463 I-10.06362 J-4.30717
G2 X-0.58177 Y-54.76818 I9.86957 J-22.70129
G3 X1.45645 Y-53.84309 I-5.19623 J14.15648
G3 X4.64002 Y-50.58465 I-3.59576 J6.69758
G3 X4.6685 Y-50.52745 I-3.74559 J1.90014
G3 X5.68712 Y-47.10373 I-9.7664 J4.76908
G3 X5.72085 Y-46.84814 I-10.28696 J1.48762
G3 X8.75123 Y-46.30328 I0.52729 J5.76693
G3 X10.2554 Y-45.46975 I-5.70665 J12.07194
G3 X10.28127 Y-45.45302 I-2.26809 J3.53493
G2 X10.51561 Y-45.30577 I4.49531 J-6.89436
G3 X10.14171 Y-45.85006 I9.53035 J-6.94751
G3 X10.04006 Y-46.01556 I3.52707 J-2.2803
G3 X9.01178 Y-48.88069 I7.2223 J-4.20912
G2 X8.95741 Y-49.17447 I-11.05607 J1.89425
G2 X8.82369 Y-49.25496 I-6.16296 J10.0881
G3 X7.16603 Y-50.52664 I4.0828 J-7.03826
G3 X5.51044 Y-54.35555 I3.83557 J-3.93085
G3 X5.94638 Y-56.48239 I4.85124 J-0.11372
G3 X5.06092 Y-57.13044 I3.01796 J-5.05256
G3 X4.6602 Y-57.53746 I2.78566 J-3.14326
G3 X4.31702 Y-63.55224 I3.7636 J-3.23192
G3 X5.86428 Y-65.11935 I4.86524 J3.25625
G3 X5.95142 Y-65.1777 I2.38036 J3.46033
G3 X8.06503 Y-66.31147 I7.69166 J11.80204
G3 X8.13264 Y-66.33993 I1.66306 J3.85671
G2 X8.69318 Y-66.58439 I-5.37649 J-13.09267
G2 X8.71623 Y-66.62072 I-1.06825 J-0.70336
G2 X9.61235 Y-68.36448 I-94.30953 J-49.56746
G3 X9.75868 Y-68.6506 I9.15543 J4.50199
G1 F300.0 X10.4651 Y-68.27515
G3 F800.0 X12.23318 Y-70.62304 I8.30267 J4.41266
G3 X12.39526 Y-70.76991 I2.36296 J2.44467
G3 X14.94984 Y-72.36199 I6.66313 J7.84584
G3 X15.03676 Y-72.39841 I1.35708 J3.11742
G3 X16.61948 Y-73.02481 I52.93216 J131.43093
G3 X16.66683 Y-73.04281 I1.23219 J3.16887
G2 X16.68138 Y-73.04825 I-1.45073 J-3.90204
G3 X15.70747 Y-73.22061 I1.76396 J-12.80509
G2 X8.15174 Y-73.41359 I-6.50663 J106.74405
G3 X8.09546 Y-73.4135 I-0.03335 J-3.39984
G2 X5.96912 Y-73.33036 I-0.15661 J23.22848
G3 X5.81057 Y-73.3206 I-0.28831 J-3.38775
G2 X5.59529 Y-73.29804 I0.06242 J1.6344
G3 X4.71909 Y-73.05297 I-1.34568 J-3.12236
G3 X3.74609 Y-72.94264 I-2.64002 J-18.93614
G3 X4.32484 Y-70.8547 I-9.80972 J3.84333
G3 X4.32998 Y-70.82339 I-3.35248 J0.56648
G3 X3.61696 Y-65.49775 I-9.24236 J1.47315
G3 X3.60008 Y-65.46096 I-3.09859 J-1.39956
G3 X1.6859 Y-62.48614 I-11.85766 J-5.5267
G3 X0.24633 Y-60.89062 I-8.30801 J-6.04872
G3 X0.17969 Y-60.83229 I-2.2724 J-2.52907
G3 X-1.1257 Y-59.72538 I-210.35058 J-246.74498
G3 X-1.16913 Y-59.68936 I-2.19207 J-2.599
G2 X-1.54728 Y-59.34039 I2.65827 J3.26001
G3 X-1.26713 Y-57.93554 I-6.87906 J2.10214
G3 X-1.25801 Y-57.8222 I-3.38399 J0.32959
G3 X-1.68273 Y-55.37605 I-5.30817 J0.3383
G3 X-2.07768 Y-54.55662 I-9.32861 J-3.99133
G2 X-2.07672 Y-54.55615 I1.26826 J-2.58639
G2 X-0.87215 Y-54.02257 I10.94833 J-23.08977
G3 X1.07538 Y-53.13967 I-4.90585 J13.41087
G3 X3.92658 Y-50.22272 I-3.21469 J5.99417
G3 X3.94963 Y-50.17641 I-3.03215 J1.53821
G3 X4.89423 Y-46.99695 I-9.04753 J4.41804
G3 X4.98959 Y-45.91091 I-9.49407 J1.38084
G3 X8.40734 Y-45.58096 I1.25854 J4.8297
G3 X9.82338 Y-44.79643 I-5.36276 J11.34962
G3 X9.84432 Y-44.78288 I-1.83608 J2.86161
G2 X10.20439 Y-44.55996 I4.93225 J-7.56449
G3 X10.23237 Y-44.54335 I-1.72145 J2.932
G3 X14.58179 Y-41.44116 I-17.39596 J28.99009
G3 X15.39321 Y-40.74958 I-29.98285 J36.00026
G2 X15.95336 Y-40.39198 I2.86826 J-3.87538
G3 X16.03275 Y-40.3506 I-3.45341 J6.72248
G3 X13.49209 Y-43.23681 I132.64048 J-119.32157
G2 X12.63168 Y-44.13579 I-15.86971 J14.32763
G3 X10.81353 Y-46.2844 I7.41428 J-8.11749
G3 X10.73124 Y-46.41838 I2.85525 J-1.84595
G3 X9.80087 Y-49.01241 I6.53112 J-3.8063
G2 X9.66906 Y-49.67157 I-11.84516 J2.02597
G2 X9.22828 Y-49.94512 I-6.8746 J10.58519
G3 X7.72756 Y-51.09646 I3.67822 J-6.3481
G3 X6.31027 Y-54.37236 I3.27404 J-3.36103
G3 X7.06027 Y-56.8196 I4.05142 J-0.09691
G3 X5.59152 Y-57.72916 I1.90407 J-4.71535
G3 X5.26713 Y-58.05865 I2.25506 J-2.54454
G3 X4.98057 Y-63.10536 I3.15667 J-2.71073
G3 X6.31768 Y-64.46023 I4.20169 J2.80936
G3 X6.38823 Y-64.50748 I1.92696 J2.80122
G3 X8.3818 Y-65.57686 I7.25486 J11.13181
G3 X8.43654 Y-65.5999 I1.34628 J3.1221
G2 X9.21137 Y-65.94406 I-5.68038 J-13.8327
G2 X9.41376 Y-66.22833 I-1.58644 J-1.34369
G2 X10.32878 Y-68.00849 I-95.00706 J-49.95985
G3 X10.4651 Y-68.27515 I8.43899 J4.146
G1 F300.0 X11.17153 Y-67.8997
G3 F800.0 X12.78917 Y-70.04782 I7.59624 J4.03721
G3 X12.91311 Y-70.16014 I1.80697 J1.86945
G3 X15.26916 Y-71.62848 I6.14528 J7.23607
G3 X15.33562 Y-71.65633 I1.03777 J2.38391
G3 X16.90941 Y-72.27919 I52.6333 J130.68885
G3 X16.94562 Y-72.29296 I0.94226 J2.42325
G2 X17.88514 Y-72.76065 I-1.72952 J-4.65189
G2 X18.48299 Y-73.68402 I-0.92746 J-1.25572
G3 X18.48685 Y-73.71035 I32.98829 J4.8223
G3 X17.59674 Y-73.75706 I0.62429 J-20.40276
G3 X15.86778 Y-74.00444 I0.8486 J-12.09629
G3 X15.8197 Y-74.01538 I0.55267 J-2.54058
G3 X15.79257 Y-74.0169 I0.13195 J-2.59665
G2 X8.14389 Y-74.21355 I-6.59174 J107.54034
G3 X8.10085 Y-74.21348 I-0.02551 J-2.59987
G2 X5.90129 Y-74.12748 I-0.16201 J24.02847
G3 X5.78004 Y-74.12001 I-0.22047 J-2.59064
G2 X5.35095 Y-74.06518 I0.09295 J2.43382
G3 X4.60862 Y-73.84531 I-1.10133 J-2.35522
G3 X2.52964 Y-73.67537 I-2.52956 J-18.1438
G3 X3.53602 Y-70.72141 I-8.59327 J4.57606
G3 X3.53995 Y-70.69747 I-2.56366 J0.43319
G3 X2.88788 Y-65.82705 I-8.45234 J1.34722
G3 X2.87497 Y-65.79892 I-2.36951 J-1.07025
G3 X1.05742 Y-62.98219 I-11.13255 J-5.18874
G3 X-0.28835 Y-61.48569 I-7.67953 J-5.55267
G3 X-0.33931 Y-61.44109 I-1.73772 J-1.93399
G3 X-1.64148 Y-60.33691 I-209.83158 J-246.13618
G3 X-1.67469 Y-60.30937 I-1.67629 J-1.98747
G2 X-2.44088 Y-59.53084 I3.16383 J3.88001
G2 X-2.34834 Y-59.21982 I4.37488 J-1.1325
G3 X-2.33473 Y-59.17832 I-2.46379 J0.83051
G3 X-2.06337 Y-57.85799 I-6.09161 J1.94006
G3 X-2.05639 Y-57.77132 I-2.58775 J0.25204
G3 X-2.41772 Y-55.69194 I-4.50979 J0.28742
G3 X-3.0694 Y-54.43943 I-8.59361 J-3.67544
G3 X-3.07095 Y-54.43692 I-2.20926 J-1.37084
G2 X-3.14941 Y-54.302 I2.22625 J1.38488
G2 X-2.42384 Y-53.83536 I2.33999 J-2.84101
G2 X-1.16187 Y-53.2767 I11.29545 J-23.81056
G3 X0.6944 Y-52.4362 I-4.61612 J12.66499
G3 X3.21313 Y-49.86079 I-2.83371 J5.2907
G3 X3.23076 Y-49.82538 I-2.3187 J1.17628
G3 X4.10135 Y-46.89015 I-8.32866 J4.06701
G3 X4.14192 Y-44.6593 I-8.70119 J1.27404
G3 X4.92628 Y-45.05326 I2.22783 J3.4578
G3 X5.16955 Y-45.13103 I0.9124 J2.43465
G3 X8.06335 Y-44.85869 I1.07859 J4.04981
G3 X9.39136 Y-44.12311 I-5.01876 J10.62735
G3 X9.40738 Y-44.11275 I-1.40406 J2.18829
G2 X9.79935 Y-43.87008 I5.3692 J-8.23463
G3 X9.82074 Y-43.85738 I-1.3164 J2.24212
G3 X14.06852 Y-40.82751 I-16.98433 J28.30411
G3 X14.89049 Y-40.1265 I-29.46958 J35.38662
G2 X15.57962 Y-39.68458 I3.37098 J-4.49846
G3 X17.32271 Y-38.40306 I-3.07967 J6.01509
G3 X17.43713 Y-38.27864 I-1.85556 J1.82124
G3 X18.53717 Y-35.683 I-3.49895 J3.01378
G3 X18.54302 Y-35.60584 I-2.58932 J0.23542
G3 X18.48638 Y-33.46173 I-12.27402 J0.74852
G2 X18.47731 Y-32.94133 I3.5462 J0.32205
G2 X19.35619 Y-32.30045 I6.01036 J-7.31929
G3 X20.80482 Y-31.24685 I-6.46195 J10.40741
G3 X21.32341 Y-30.7513 I-3.46004 J4.14009
G3 X21.11068 Y-31.60353 I4.34605 J-1.53754
G3 X22.79902 Y-35.21161 I3.45893 J-0.58051
G3 X22.86278 Y-35.24835 I2.32635 J3.96368
G2 X22.53373 Y-35.45192 I-6.76002 J10.55887
G3 X20.81678 Y-36.65626 I5.4327 J-9.57108
G3 X20.73939 Y-36.72511 I1.68908 J-1.97662
G3 X16.64175 Y-40.86982 I44.86232 J-48.4507
G3 X16.63674 Y-40.87537 I1.92782 J-1.74457
G3 X14.09221 Y-43.7659 I132.03648 J-118.79681
G2 X13.18213 Y-44.71651 I-16.46983 J14.85672
G3 X11.48535 Y-46.71875 I6.86382 J-7.53677
G3 X11.42243 Y-46.8212 I2.18343 J-1.41161
G3 X10.59001 Y-49.14385 I5.83993 J-3.40348
G2 X10.3728 Y-50.16382 I-12.63429 J2.15741
G2 X9.63257 Y-50.63545 I-7.57834 J11.07744
G3 X8.28899 Y-51.6664 I3.27392 J-5.65776
G3 X7.11009 Y-54.38921 I2.71261 J-2.79109
G3 X8.64176 Y-57.22991 I3.25159 J-0.08007
G3 X8.28796 Y-57.3034 I5.31946 J-26.49986
G3 X6.12212 Y-58.32787 I0.67638 J-4.23156
G3 X5.87406 Y-58.57984 I1.72446 J-1.94583
G3 X5.64409 Y-62.65843 I2.54974 J-2.18954
G3 X6.77108 Y-63.80112 I3.53816 J2.36244
G3 X6.82503 Y-63.83725 I1.47356 J2.14211
G3 X8.69857 Y-64.84225 I6.81806 J10.46158
G3 X8.74043 Y-64.85986 I1.02951 J2.38749
G2 X9.63853 Y-65.26189 I-5.98428 J-14.57274
G3 X9.69777 Y-65.28974 I1.13588 J2.33876
G2 X10.11316 Y-65.8395 I-2.07284 J-1.99801
G2 X11.04529 Y-67.65264 I-95.70645 J-50.34868
G3 X11.17153 Y-67.8997 I7.72248 J3.79015
G1 F300.0 X11.87796 Y-67.52426
G3 F800.0 X13.34516 Y-69.4726 I6.88982 J3.66177
G3 X13.43097 Y-69.55036 I1.25098 J1.29424
G3 X15.58847 Y-70.89497 I5.62742 J6.62629
G3 X15.63449 Y-70.91425 I0.71846 J1.6504
G3 X17.19934 Y-71.53358 I52.33444 J129.94677
G3 X17.2244 Y-71.54311 I0.65233 J1.67763
G2 X18.33687 Y-72.09997 I-2.00831 J-5.40175
G2 X19.27101 Y-73.54383 I-1.3792 J-1.91641
G3 X19.40802 Y-74.40495 I32.20027 J4.68211
G3 X19.42157 Y-74.50326 I3.31181 J0.40635
G3 X17.6544 Y-74.55498 I-0.31044 J-19.60985
G3 X16.03783 Y-74.78616 I0.79094 J-11.29837
G3 X15.93357 Y-74.81212 I0.38262 J-1.75886
G3 X15.84152 Y-74.8154 I0.01807 J-1.79991
G2 X8.13604 Y-75.01351 I-6.64068 J108.33884
G3 X8.10625 Y-75.01346 I-0.01766 J-1.79991
G2 X5.83345 Y-74.9246 I-0.1674 J24.82845
G3 X5.74951 Y-74.91943 I-0.15263 J-1.79352
G2 X5.07895 Y-74.82284 I0.12348 J3.23324
G3 X4.49816 Y-74.63765 I-0.82934 J-1.59756
G3 X1.7294 Y-74.47332 I-2.41909 J-17.35146
G3 X1.69559 Y-74.47431 I0.03593 J-1.79964
G3 X1.05523 Y-74.50017 I7.72379 J-199.22505
G3 X2.74721 Y-70.58812 I-7.11886 J5.40086
G3 X2.74993 Y-70.57154 I-1.77484 J0.2999
G3 X2.1588 Y-66.15636 I-7.66231 J1.2213
G3 X2.14987 Y-66.13689 I-1.64043 J-0.74094
G3 X0.42865 Y-63.47804 I-10.40744 J-4.85078
G3 X-0.82303 Y-62.08077 I-7.05077 J-5.05682
G3 X-0.85831 Y-62.04989 I-1.20304 J-1.33892
G3 X-2.15726 Y-60.94844 I-209.31258 J-245.52738
G3 X-2.18025 Y-60.92937 I-1.16051 J-1.37594
G2 X-3.10976 Y-59.97402 I3.6694 J4.50002
G2 X-3.29094 Y-59.667 I1.5415 J1.11664
G2 X-3.10643 Y-58.96428 I5.22494 J-0.99634
G3 X-3.09701 Y-58.93554 I-1.7057 J0.57497
G3 X-2.8596 Y-57.78044 I-5.32933 J1.69729
G3 X-2.85477 Y-57.72043 I-1.79152 J0.17449
G3 X-3.15269 Y-56.00789 I-3.71141 J0.23653
G3 X-3.74917 Y-54.86122 I-7.85864 J-3.35949
G3 X-3.75024 Y-54.85949 I-1.52948 J-0.94904
G2 X-4.04186 Y-54.27155 I2.90554 J1.80745
G3 X-4.0486 Y-54.25415 I-1.68181 J-0.6415
G2 X-4.05102 Y-54.24454 I0.036 J0.01416
G2 X-3.80343 Y-53.80958 I0.86878 J-0.20658
G2 X-2.77058 Y-53.1144 I2.99401 J-3.33343
G2 X-1.45091 Y-52.53055 I11.64219 J-24.53152
G3 X0.31354 Y-51.73267 I-4.32708 J11.91885
G3 X2.49968 Y-49.49886 I-2.45285 J4.58716
G3 X2.51189 Y-49.47434 I-1.60525 J0.81434
G3 X3.30845 Y-46.78333 I-7.60979 J3.71597
G3 X2.87714 Y-42.788 I-7.90829 J1.16722
G3 X3.20609 Y-42.33589 I-1.27336 J1.27222
G3 X3.67883 Y-43.13469 I4.60936 J2.18857
G3 X5.20702 Y-44.30413 I2.69092 J1.93319
G3 X5.37544 Y-44.35798 I0.63166 J1.68553
G3 X7.7192 Y-44.1365 I0.8727 J3.27676
G3 X8.95934 Y-43.44979 I-4.67461 J9.90515
G3 X8.97043 Y-43.44261 I-0.97204 J1.51497
G2 X9.3943 Y-43.1802 I5.80614 J-8.90476
G3 X9.40911 Y-43.1714 I-0.91135 J1.55223
G3 X13.55525 Y-40.21387 I-16.5727 J27.61814
G3 X14.38595 Y-39.50498 I-28.95631 J34.77297
G2 X15.20699 Y-38.9766 I3.87553 J-5.11998
G3 X16.75177 Y-37.84268 I-2.70704 J5.30711
G3 X16.83098 Y-37.75654 I-1.28462 J1.26086
G3 X17.74045 Y-35.61056 I-2.8928 J2.49168
G3 X17.74451 Y-35.55715 I-1.79261 J0.16298
G3 X17.69056 Y-33.54394 I-11.4755 J0.69983
G2 X17.68451 Y-32.8067 I4.34201 J0.40426
G3 X17.68559 Y-32.79186 I-1.79474 J0.13744
G2 X17.89025 Y-32.38891 I0.57648 J-0.03936
G2 X18.92865 Y-31.62424 I6.59742 J-7.87171
G3 X20.29005 Y-30.63446 I-6.03441 J9.7312
G3 X21.915 Y-27.58874 I-2.94527 J3.5277
G3 X21.73155 Y-25.59874 I-4.22252 J0.61419
G3 X21.69275 Y-25.49534 I-1.70386 J-0.58038
G3 X20.18353 Y-23.61249 I-3.95574 J-1.62448
G3 X20.74161 Y-21.54297 I-1.11725 J1.4113
G3 X19.09119 Y-19.21533 I-5.53174 J-2.17335
G3 X19.07728 Y-19.20345 I-1.17549 J-1.36317
G3 X17.20276 Y-17.98295 I-5.82183 J-6.89173
G3 X17.19598 Y-17.97966 I-0.78757 J-1.61856
G3 X14.86889 Y-17.05579 I-7.68222 J-15.95747
G3 X14.96346 Y-17.07732 I17.76713 J77.7927
G3 X15.87019 Y-17.04883 I0.39865 J1.7553
G3 X17.43285 Y-18.00711 I7.43374 J10.36886
G3 X19.00301 Y-18.57301 I2.39542 J4.18513
G3 X19.9668 Y-18.62191 I0.65308 J3.34972
G3 X20.10952 Y-19.49277 I4.82999 J0.34443
G3 X20.11685 Y-19.52016 I1.74239 J0.45176
G3 X21.01256 Y-22.12337 I21.43066 J5.91813
G3 X21.01498 Y-22.12918 I1.66254 J0.6899
G2 X21.44949 Y-23.3016 I-13.75792 J-5.76552
G2 X21.60634 Y-24.11258 I-5.90484 J-1.56274
G3 X21.94283 Y-25.52025 I5.31062 J0.52537
G3 X21.95844 Y-25.55907 I1.67776 J0.65201
G3 X22.49817 Y-26.41053 I2.73426 J1.13643
G3 X22.50716 Y-26.42039 I1.33405 J1.20843
G3 X24.48506 Y-27.22507 I1.84143 J1.69305
G3 X24.62923 Y-27.21135 I-0.0982 J1.79732
G3 X26.10575 Y-26.7132 I-0.55457 J4.08097
G3 X26.1604 Y-26.68093 I-0.88769 J1.56589
G2 X27.46313 Y-25.89367 I53.8728 J-87.67504
G3 X27.62303 Y-25.80027 I-3.64687 J6.42717
G2 X27.55373 Y-25.8513 I-9.59079 J12.95334
G3 X25.27337 Y-27.59139 I37.44067 J-51.42947
G3 X25.25857 Y-27.60335 I1.12393 J-1.40598
G3 X24.14273 Y-28.55293 I23.02023 J-28.1813
G3 X23.08482 Y-29.48959 I7.67334 J-9.7324
G3 X21.90076 Y-31.72932 I2.58465 J-2.79925
G3 X23.20342 Y-34.52134 I2.66884 J-0.45471
G3 X24.42619 Y-34.97892 I1.92196 J3.27341
G2 X24.00001 Y-35.43754 I-1.49119 J0.9584
G2 X22.93615 Y-36.1434 I-7.89725 J10.74807
G3 X21.3365 Y-37.26445 I5.03028 J-8.87961
G3 X21.28292 Y-37.31211 I1.16936 J-1.36843
G3 X17.23493 Y-41.40661 I44.31879 J-47.86369
G3 X17.23146 Y-41.41045 I1.33464 J-1.20778
G3 X14.69245 Y-44.29486 I131.44177 J-118.26172
G2 X13.73194 Y-45.29785 I-17.07007 J15.38568
G3 X12.15718 Y-47.15309 I6.31401 J-6.95543
G3 X12.11361 Y-47.22401 I1.5116 J-0.97727
G3 X11.37919 Y-49.27499 I5.14875 J-3.00066
G2 X11.13808 Y-50.4 I-13.42348 J2.28855
G2 X11.04322 Y-50.64083 I-1.53453 J0.46535
G2 X10.91856 Y-50.75942 I-0.41306 J0.30941
G3 X10.89868 Y-50.773 I1.00586 J-1.49273
G2 X10.03655 Y-51.32597 I-8.10423 J11.68663
G3 X8.85026 Y-52.23649 I2.86994 J-4.96724
G3 X7.90992 Y-54.40611 I2.15134 J-2.221
G3 X9.79208 Y-56.85479 I2.45176 J-0.06317
G3 X9.8917 Y-56.87562 I0.41804 J1.75078
G3 X11.31747 Y-56.96429 I1.0943 J6.08821
G3 X11.43812 Y-56.95374 I-0.09646 J1.79741
G2 X12.20174 Y-57.02041 I0.22386 J-1.84252
G2 X13.5622 Y-57.571 I-3.01396 J-9.40335
G3 X15.05838 Y-58.26715 I7.77477 J14.75379
G3 X17.18439 Y-58.77206 I2.58954 J6.17527
G3 X17.22394 Y-58.77437 I0.1246 J1.79568
G3 X18.67346 Y-58.64549 I0.25368 J5.36274
G3 X18.70189 Y-58.63875 I-0.40094 J1.75478
G3 X21.18586 Y-57.68483 I-2.52924 J10.29707
G3 X21.62478 Y-57.83312 I0.79083 J1.61697
G3 X21.00826 Y-58.20282 I22.55791 J-38.31738
G3 X20.98044 Y-58.22016 I0.93814 J-1.53619
G2 X18.85183 Y-59.38191 I-9.73903 J15.31333
G3 X18.82592 Y-59.39413 I0.75484 J-1.63408
G2 X17.29356 Y-59.8422 I-2.11846 J4.40069
G2 X17.06751 Y-59.80532 I-0.03536 J0.49448
G2 X16.35383 Y-59.353 I1.85344 J3.71362
G3 X15.14122 Y-58.44724 I-9.61168 J-11.60332
G3 X12.4627 Y-57.60624 I-2.69341 J-3.89234
G3 X10.58422 Y-57.71959 I-0.16662 J-12.86057
G3 X8.43425 Y-58.09023 I3.377 J-26.01018
G3 X6.65272 Y-58.92659 I0.5301 J-3.44473
G3 X6.48099 Y-59.10103 I1.19386 J-1.34711
G3 X6.30757 Y-62.21143 I1.94281 J-1.66835
G3 X7.22448 Y-63.14201 I2.87468 J1.91544
G3 X7.26183 Y-63.16702 I1.02015 J1.483
G3 X9.01535 Y-64.10763 I6.38126 J9.79136
G3 X9.04433 Y-64.11983 I0.71274 J1.65288
G2 X9.98804 Y-64.54227 I-6.28817 J-15.31277
G3 X10.06894 Y-64.57912 I0.78638 J1.61914
G2 X10.18324 Y-64.64385 I-0.22915 J-0.53789
G2 X10.81366 Y-65.45278 I-2.55831 J-2.6439
G2 X11.76188 Y-67.29696 I-96.40696 J-50.7354
G3 X11.87796 Y-67.52426 I7.00589 J3.43447
G0 Z3.0
G0 X3.67095 Y-12.84251
G0 Z0.0
G1 F300.0 Z-2.0
G3 F800.0 X3.39708 Y-12.71426 I-4.49603 J-9.24461
G3 X3.34628 Y-12.69231 I-0.73929 J-1.64117
G3 X1.31792 Y-12.35494 I-1.74223 J-4.20859
G2 X1.90563 Y-12.10122 I2.08842 J-4.02999
G2 X2.34687 Y-12.11649 I0.19834 J-0.65139
G3 X2.3893 Y-12.13208 I0.64212 J1.68157
G2 X3.28194 Y-12.5819 I-1.31349 J-3.7172
G3 X3.29175 Y-12.58847 I1.00726 J1.49179
G2 X3.67095 Y-12.84251 I-43.41435 J-65.2165
G1 F300.0 X4.11814 Y-12.17916
G3 F800.0 X3.73506 Y-11.92253 I-44.24074 J-65.62581
G2 X3.72961 Y-11.91888 I0.55414 J0.83242
G3 X2.65583 Y-11.37779 I-2.65381 J-3.9304
G2 X2.63226 Y-11.36913 I0.33317 J0.94287
G3 X1.65438 Y-11.34159 I-0.52829 J-1.38348
G3 X0.9308 Y-11.65456 I1.75196 J-5.04334
G2 X-1.22496 Y-12.33154 I-2.7937 J5.12532
G2 X-1.25666 Y-12.33451 I-0.10929 J0.99401
G2 X-4.37449 Y-12.21049 I-1.03321 J13.27726
G2 X-4.40215 Y-12.2057 I0.15653 J0.98767
G2 X-5.80907 Y-11.89281 I3.95421 J21.09941
G2 X-4.80712 Y-12.78956 I-4.33436 J-5.85097
G2 X-4.62957 Y-13.05621 I-0.73286 J-0.68038
G2 X-3.17098 Y-13.17343 I0.22038 J-6.39101
G2 X-1.63388 Y-13.4597 I-24.87343 J-137.8284
G3 X-0.28518 Y-13.43705 I0.60783 J3.97208
G2 X0.95919 Y-13.20173 I11.14604 J-55.53454
G2 X0.96339 Y-13.201 I0.17481 J-0.9846
G2 X3.04028 Y-13.43147 I0.64065 J-3.6999
G2 X3.06851 Y-13.44367 I-0.38249 J-0.92396
G2 X4.65628 Y-14.35252 I-3.89359 J-8.64345
G3 X7.15079 Y-15.58493 I6.1482 J9.30375
G2 X7.16856 Y-15.59128 I-0.32764 J-0.9448
G3 X11.12225 Y-16.84853 I16.00351 J43.48125
G2 X14.30447 Y-17.71963 I-51.19992 J-193.28685
G2 X14.31651 Y-17.72312 I-0.27197 J-0.9623
G2 X16.84896 Y-18.70048 I-4.80275 J-16.21402
G2 X16.85273 Y-18.70231 I-0.43377 J-0.90102
G2 X18.56102 Y-19.81458 I-3.59728 J-7.39288
G2 X18.56875 Y-19.82118 I-0.64532 J-0.76391
G2 X19.99702 Y-21.83551 I-3.35888 J-3.89515
G2 X19.00674 Y-23.19942 I-0.93074 J-0.36568
G2 X16.70876 Y-22.8675 I0.82494 J13.83225
G3 X15.10417 Y-22.66523 I-1.97584 J-9.20869
G3 X14.11892 Y-22.85115 I-0.05643 J-2.40454
G2 X14.33109 Y-22.79159 I0.97821 J-3.07679
G2 X14.39212 Y-22.77868 I0.23727 J-0.97144
G2 X16.01882 Y-22.85673 I0.64295 J-3.59095
G2 X17.23576 Y-23.20718 I-2.9533 J-12.54337
G2 X19.41327 Y-24.07435 I-2.2811 J-8.89547
G2 X20.95272 Y-25.79924 I-1.67626 J-3.04547
G2 X20.97428 Y-25.85668 I-0.92504 J-0.37988
G2 X21.12104 Y-27.48911 I-3.28179 J-1.11787
G2 X19.77538 Y-30.02199 I-3.77627 J0.38234
G2 X18.50153 Y-30.94777 I-6.88114 J8.12895
G3 X17.37601 Y-31.77608 I5.98614 J-9.31285
G3 X16.88745 Y-32.73737 I0.88605 J-1.05513
G2 X16.88685 Y-32.74562 I-0.99768 J0.06811
G3 X16.89487 Y-33.62724 I5.14572 J-0.39406
G2 X16.94599 Y-35.50845 I-10.62586 J-1.23008
G2 X16.94374 Y-35.53813 I-0.99815 J0.06087
G2 X16.22484 Y-37.23444 I-3.00555 J0.27326
G2 X16.18083 Y-37.2823 I-0.75768 J0.65262
G2 X14.83547 Y-38.26803 I-3.68088 J3.6128
G3 X13.87987 Y-38.88479 I3.426 J-6.35693
G2 X13.04198 Y-39.60023 I-29.28093 J33.44389
G2 X8.99748 Y-42.48543 I-20.20557 J24.04696
G2 X8.98925 Y-42.49031 I-0.51454 J0.85747
G3 X8.53349 Y-42.77248 I5.78732 J-9.85706
G2 X8.52733 Y-42.77646 I-0.54618 J0.83767
G2 X7.37481 Y-43.41441 I-5.48274 J8.54512
G2 X5.58132 Y-43.58492 I-1.12667 J2.33319
G2 X5.48776 Y-43.55501 I0.25736 J0.96632
G2 X4.32799 Y-42.66715 I0.88199 J2.3535
G2 X3.70206 Y-41.40903 I3.48747 J2.51983
G2 X3.36762 Y-39.20676 I6.80065 J2.15929
G2 X3.84014 Y-37.20829 I4.48346 J-0.00498
G2 X4.76182 Y-35.60693 I13.57037 J-6.74465
G3 X4.05232 Y-35.84451 I7.47538 J-23.50228
G2 X2.72124 Y-34.86141 I-0.33188 J0.94332
G3 X2.7416 Y-34.25605 I-49.10553 J1.95515
G2 X2.74175 Y-34.25108 I0.99962 J-0.02747
G2 X2.9019 Y-32.60575 I12.79992 J-0.41538
G2 X2.90532 Y-32.58597 I0.98697 J-0.16091
G2 X3.58749 Y-30.96137 I4.0456 J-0.74321
G2 X3.62556 Y-30.91077 I0.8177 J-0.57565
G2 X4.29889 Y-30.20028 I4.66867 J-3.75017
G2 X3.67609 Y-30.38223 I-45.46763 J154.47642
G2 X3.64058 Y-30.39182 I-0.27849 J0.96044
G2 X1.30039 Y-30.39721 I-1.18096 J4.71468
G2 X-0.66556 Y-29.50437 I1.22797 J5.31471
G2 X-1.02366 Y-29.91712 I-0.90566 J0.42401
G3 X-1.34894 Y-30.14069 I4.75763 J-7.27049
G2 X-2.45657 Y-30.83408 I-4.68607 J6.25428
G2 X-2.47491 Y-30.84328 I-0.45789 J0.88901
G2 X-3.76816 Y-31.13176 I-1.24739 J2.54901
G2 X-4.92983 Y-31.00786 I0.08806 J6.33348
G2 X-7.16665 Y-30.39676 I2.99083 J15.34659
G2 X-9.16666 Y-29.47032 I2.79741 J8.66113
G2 X-9.24573 Y-29.41585 I0.52709 J0.84981
G2 X-10.67534 Y-28.17004 I8.77115 J11.50841
G3 X-11.45805 Y-27.56906 I-3.76768 J-4.09675
G2 X-11.92594 Y-29.26013 I-0.69651 J-0.71755
G3 X-13.35748 Y-29.76508 I1.60293 J-6.82592
G3 X-15.95448 Y-31.65743 I4.6247 J-9.07499
G2 X-15.96765 Y-31.67043 I-0.70902 J0.70519
G2 X-17.26941 Y-32.92921 I-637.52199 J657.98868
G2 X-19.77297 Y-34.75813 I-7.60501 J7.7823
G2 X-19.78985 Y-34.76689 I-0.46883 J0.88329
G2 X-19.88945 Y-34.81594 I-2.22443 J4.39056
G2 X-20.071 Y-35.48092 I-0.99636 J-0.08525
G2 X-21.90919 Y-37.61085 I-12.26209 J8.72441
G2 X-24.2062 Y-39.70293 I-38.28535 J39.72838
G3 X-26.30987 Y-41.82372 I16.78466 J-18.75294
G3 X-27.39866 Y-43.09577 I94.81421 J-82.25608
G2 X-26.37328 Y-42.48014 I5.44948 J-7.91473
G2 X-25.6601 Y-42.40034 I0.4604 J-0.88771
G2 X-24.92104 Y-41.18439 I4.27529 J-1.76599
G2 X-24.9166 Y-41.17916 I0.76448 J-0.64465
G2 X-22.80927 Y-39.30874 I7.814 J-6.68137
G2 X-20.84209 Y-37.95364 I85.66019 J-122.24589
G3 X-18.90674 Y-36.26759 I-9.01618 J12.30316
G2 X-18.8901 Y-36.25082 I0.71798 J-0.69606
G2 X-16.58066 Y-34.0247 I109.86724 J-111.66759
G2 X-16.57422 Y-34.01867 I0.68659 J-0.72704
G2 X-14.32227 Y-32.29606 I10.16711 J-10.95816
G2 X-14.32204 Y-32.29592 I0.5295 J-0.84831
G2 X-11.88399 Y-31.23725 I4.76727 J-7.64204
G2 X-11.86895 Y-31.23335 I0.2586 J-0.96599
G2 X-10.73334 Y-31.09693 I1.10426 J-4.39737
G2 X-10.71899 Y-31.09713 I-0.00691 J-0.99998
G2 X-9.01325 Y-31.33997 I-0.15285 J-7.18578
G2 X-9.00824 Y-31.34132 I-0.25859 J-0.96599
G2 X-6.56382 Y-32.16232 I-5.93679 J-21.72546
G3 X-4.90273 Y-32.6658 I4.56249 J12.06075
G3 X-4.36338 Y-32.69413 I0.36538 J1.80795
G3 X-3.61649 Y-32.52724 I-0.52701 J4.11311
G2 X-2.33967 Y-32.09572 I36.22481 J-105.08212
G2 X-2.32275 Y-32.09028 I0.31442 J-0.94928
G2 X-1.1687 Y-31.88004 I1.43534 J-4.60623
G2 X0.44863 Y-32.24715 I0.20925 J-2.82432
G2 X0.51131 Y-32.28621 I-0.49719 J-0.86764
G2 X1.46761 Y-33.37568 I-1.60163 J-2.37029
G2 X1.46882 Y-33.37809 I-0.89417 J-0.44773
G2 X2.0301 Y-34.8913 I-6.80687 J-3.38552
G2 X2.70428 Y-37.70111 I-18.92529 J-6.02669
G2 X2.7053 Y-37.70746 I-0.9868 J-0.16196
G2 X2.58 Y-41.73253 I-10.67779 J-1.68209
G2 X1.87389 Y-42.4786 I-0.97623 J0.21675
G2 X2.51555 Y-46.67648 I-6.47373 J-3.13751
G2 X1.79302 Y-49.12331 I-7.61345 J0.91811
G2 X1.78624 Y-49.13693 I-0.89859 J0.43879
G2 X-0.06716 Y-51.02904 I-3.92555 J1.99143
G2 X-1.73923 Y-51.78412 I-5.71084 J10.41734
G3 X-3.11705 Y-52.3933 I10.61084 J-25.86179
G3 X-4.34783 Y-53.22325 I2.30762 J-4.7497
G3 X-4.84295 Y-54.12202 I1.16558 J-1.22787
G3 X-4.79308 Y-54.547 I0.83034 J-0.11797
G2 X-4.78933 Y-54.55666 I-0.93059 J-0.36605
G3 X-4.42954 Y-55.28206 I3.94463 J1.50462
G2 X-4.42894 Y-55.28302 I-0.84912 J-0.52821
G2 X-3.88762 Y-56.32393 I-6.5824 J-4.08436
G2 X-3.65315 Y-57.66955 I-2.67856 J-1.15997
G2 X-3.65583 Y-57.70289 I-0.99798 J0.0636
G2 X-3.85928 Y-58.69277 I-4.77051 J0.46464
G2 X-3.86452 Y-58.70874 I-0.95284 J0.30346
G3 X-4.0976 Y-59.63227 I5.79851 J-1.9546
G3 X-4.05515 Y-59.91758 I0.62371 J-0.05302
G3 X-3.75025 Y-60.45349 I2.48688 J1.0602
G3 X-2.68582 Y-61.54937 I5.2394 J4.02413
G2 X-2.67304 Y-61.55997 I-0.63195 J-0.77501
G2 X-1.37731 Y-62.65869 I-207.49785 J-246.0173
G2 X-1.35771 Y-62.67584 I-0.64875 J-0.761
G2 X-0.20047 Y-63.97366 I-5.26441 J-5.85902
G2 X1.42476 Y-66.47485 I-8.0571 J-7.014
G2 X1.42972 Y-66.48567 I-0.90638 J-0.42245
G2 X1.9599 Y-70.44562 I-6.34211 J-2.86458
G2 X1.95839 Y-70.45483 I-0.98753 J0.1574
G2 X0.24489 Y-74.2367 I-8.02202 J1.35552
G2 X0.23432 Y-74.24947 I-0.77541 J0.63146
G2 X-1.2986 Y-75.4113 I-3.33732 J2.81105
G3 X-0.98918 Y-75.39762 I-1.33614 J33.7141
G2 X1.72658 Y-75.27371 I10.40855 J-198.30174
G2 X1.74536 Y-75.27316 I0.03874 J-0.99925
G2 X4.38769 Y-75.42998 I0.3337 J-16.71595
G2 X4.76552 Y-75.56376 I-0.13808 J-0.99042
G3 X4.78913 Y-75.57367 I0.04582 J0.07608
G2 X4.80402 Y-75.57764 I-0.25 J-0.96825
G3 X5.71898 Y-75.71885 I1.06897 J3.89144
G2 X5.76561 Y-75.72172 I-0.03816 J-0.99927
G3 X8.11164 Y-75.81345 I2.17323 J25.53671
G2 X8.12819 Y-75.81347 I0.00674 J-0.99998
G3 X15.89046 Y-75.6139 I1.07264 J109.33691
G2 X15.97389 Y-75.61228 I0.06118 J-0.99813
G3 X16.11902 Y-75.59153 I0.00998 J0.44831
G2 X16.20788 Y-75.56788 I0.30142 J-0.95349
G2 X17.71203 Y-75.3529 I2.23746 J-10.28547
G2 X20.38087 Y-75.3437 I1.39911 J-18.76021
G3 X20.57582 Y-75.35425 I3.88371 J69.9634
G2 X20.19989 Y-74.28922 I2.14401 J1.35565
G2 X20.05966 Y-73.40789 I31.27139 J5.4275
G3 X18.78671 Y-71.43816 I-3.10198 J-0.60848
G3 X17.50319 Y-70.79326 I-3.57062 J-5.50669
G2 X17.48926 Y-70.78796 I0.34848 J0.93732
G2 X15.93335 Y-70.17217 I50.47966 J129.82048
G2 X15.90779 Y-70.16146 I0.37358 J0.9276
G2 X13.94882 Y-68.94059 I3.1506 J7.23739
G2 X13.90115 Y-68.89739 I0.64732 J0.76222
G2 X12.47857 Y-66.94147 I4.86662 J5.0349
G3 X11.51491 Y-65.06748 I-98.07187 J-49.24671
G3 X10.70548 Y-64.03632 I-3.88998 J-2.22027
G3 X10.38248 Y-63.84313 I-0.86569 J-1.08069
G2 X10.33754 Y-63.82265 I0.39193 J0.91999
G3 X9.34822 Y-63.3798 I-7.58138 J-15.60995
G2 X9.33212 Y-63.37302 I0.37987 J0.92504
G2 X7.69863 Y-62.4968 I4.31097 J9.99736
G2 X7.67788 Y-62.4829 I0.546 J0.83778
G2 X6.97096 Y-61.76428 I1.50437 J2.18691
G2 X7.08792 Y-59.62222 I1.45284 J0.99489
G2 X7.18332 Y-59.52531 I0.75866 J-0.65149
G2 X8.57817 Y-58.87759 I1.78102 J-2.00965
G2 X10.68898 Y-58.5127 I5.38306 J-24.85218
G2 X12.45638 Y-58.40622 I1.6071 J-11.9541
G2 X14.69046 Y-59.10819 I-0.00857 J-3.93336
G2 X15.85073 Y-59.97508 I-7.94831 J-11.84813
G3 X16.72994 Y-60.53089 I3.07022 J3.88339
G3 X17.37401 Y-60.63827 I0.52825 J1.18317
G3 X19.17292 Y-60.11495 I-0.66655 J5.64483
G2 X19.18732 Y-60.10816 I0.43375 J-0.90103
G3 X21.40976 Y-58.8952 I-7.94592 J17.20134
G2 X21.42521 Y-58.88557 I0.53665 J-0.84381
G2 X23.63172 Y-57.62473 I22.75748 J-37.26494
G2 X23.63626 Y-57.62232 I0.47066 J-0.88232
G2 X25.97297 Y-56.74246 I4.67582 J-8.87511
G2 X25.98481 Y-56.7397 I0.23318 J-0.97243
G2 X28.14318 Y-56.64958 I1.32478 J-5.83695
G2 X28.51255 Y-56.06759 I0.97726 J-0.21203
G3 X29.10695 Y-55.57994 I-6.9456 J9.07209
G2 X29.11671 Y-55.57147 I0.65992 J-0.75133
G3 X30.04657 Y-54.5077 I-3.18564 J3.72287
G3 X30.44856 Y-52.7971 I-2.29998 J1.44302
G3 X30.22451 Y-51.62152 I-15.3816 J-2.32231
G2 X30.12087 Y-49.87159 I5.07576 J1.17865
G2 X30.12685 Y-49.82671 I0.99397 J-0.10963
G2 X30.30902 Y-49.20678 I2.4496 J-0.38309
G2 X30.20797 Y-49.17555 I0.90282 J3.10121
G2 X30.15594 Y-49.15693 I0.3108 J0.95047
G2 X28.74871 Y-48.2889 I1.66262 J4.27009
G3 X27.80922 Y-47.56154 I-6.72456 J-7.71526
G3 X27.08909 Y-47.38959 I-0.63987 J-1.08588
G3 X25.13362 Y-47.94798 I0.59943 J-5.80238
G2 X25.10607 Y-47.96089 I-0.43799 J0.89898
G3 X23.67957 Y-48.6605 I9.87166 J-21.9324
G2 X23.6635 Y-48.66886 I-0.46975 J0.8828
G2 X23.29957 Y-48.84907 I-8.29451 J16.29315
G3 X23.59773 Y-48.76855 I-1.80788 J7.28688
G2 X23.62269 Y-48.76161 I0.28051 J-0.95985
G2 X25.28548 Y-48.45331 I2.88051 J-10.89754
G2 X26.98569 Y-48.58537 I0.517 J-4.35463
G2 X27.00974 Y-48.59243 I-0.26982 J-0.96291
G2 X29.39393 Y-51.81959 I-0.99222 J-3.22733
G2 X29.3939 Y-51.82763 I-1.0 J-0.00005
G2 X28.73113 Y-54.14042 I-4.49194 J0.03589
G2 X26.31655 Y-56.09211 I-3.69123 J2.09722
G2 X24.32403 Y-56.56435 I-3.93628 J12.16868
G3 X22.24592 Y-57.03093 I3.46689 J-20.30214
G2 X21.23382 Y-56.73729 I-0.26923 J0.96308
G2 X18.51107 Y-57.86184 I-5.06117 J8.39561
G2 X18.49527 Y-57.86559 I-0.23854 J0.97113
G2 X17.26174 Y-57.97526 I-1.01765 J4.45395
G2 X17.23977 Y-57.97398 I0.04725 J0.99888
G2 X15.36375 Y-57.52771 I0.40816 J5.8821
G2 X13.92624 Y-56.85855 I5.97322 J14.71051
G3 X12.44057 Y-56.25687 I-4.73845 J-9.56522
G3 X11.34163 Y-56.15958 I-0.77859 J-2.53939
G2 X11.2746 Y-56.16544 I-0.12061 J0.9927
G2 X10.03322 Y-56.08824 I-0.28861 J5.37803
G2 X9.97788 Y-56.07667 I0.17691 J0.98423
G2 X8.70975 Y-54.42314 I0.38381 J1.60739
G2 X9.41126 Y-52.80687 I2.29185 J-0.03434
G2 X10.44018 Y-52.0167 I3.49524 J-3.48635
G3 X11.35456 Y-51.4304 I-7.64573 J12.93032
G2 X11.3656 Y-51.42285 I0.56985 J-0.82175
G3 X11.73208 Y-51.05105 I-0.73545 J1.09143
G3 X11.90877 Y-50.61506 I-2.12853 J1.1164
G3 X12.16844 Y-49.40578 I-13.95306 J3.62862
G2 X12.8048 Y-47.62683 I5.09392 J-0.81889
G2 X12.829 Y-47.58743 I0.86398 J-0.50352
G2 X14.28107 Y-45.87984 I7.21695 J-4.66585
G3 X15.29281 Y-44.82368 I-16.65869 J16.97066
G2 X17.82618 Y-41.94553 I133.38042 J-114.8485
G2 X17.8281 Y-41.9434 I0.74339 J-0.66885
G2 X21.82645 Y-37.89912 I47.77361 J-43.23241
G2 X21.85622 Y-37.87264 I0.67941 J-0.73376
G2 X23.33803 Y-36.83519 I6.11021 J-7.15037
G3 X24.47692 Y-36.07986 I-7.23526 J12.14571
G3 X25.16921 Y-35.29594 I-1.54192 J2.05933
G3 X25.28856 Y-34.50914 I-1.68792 J0.6585
G2 X25.28663 Y-34.47218 I0.99749 J0.07081
G3 X25.27895 Y-34.28014 I-15.75134 J-0.5336
G2 X24.65761 Y-34.20709 I0.81269 J9.59179
G2 X24.64685 Y-34.20541 I0.14897 J0.98884
G2 X23.60778 Y-33.83106 I0.47852 J2.95748
G2 X22.69081 Y-31.85551 I0.96183 J1.64703
G2 X23.63773 Y-30.06798 I2.97865 J-0.43333
G2 X24.65594 Y-29.16707 I8.17835 J-8.21735
G2 X25.76467 Y-28.22292 I23.62287 J-26.61758
G2 X25.7729 Y-28.21627 I0.63263 J-0.77446
G2 X28.02545 Y-26.49743 I39.22151 J-49.06449
G3 X30.18134 Y-24.61977 I-9.9932 J13.65049
G3 X31.2244 Y-23.25967 I-19.28128 J15.86678
G2 X31.23785 Y-23.24126 I0.81394 J-0.58095
G2 X33.05322 Y-21.5002 I6.18178 J-4.62866
G2 X33.09361 Y-21.47392 I0.56541 J-0.82481
G2 X35.43698 Y-20.32321 I7.12961 J-11.55772
G2 X35.44545 Y-20.32007 I0.35245 J-0.93583
G2 X41.84603 Y-19.19637 I6.33467 J-17.29163
G2 X48.70533 Y-20.11288 I0.19837 J-24.64174
G2 X48.72577 Y-20.11885 I-0.2703 J-0.96278
G2 X50.85336 Y-20.96703 I-3.95229 J-13.00654
G3 X52.04021 Y-21.50705 I10.09474 J20.61206
G2 X52.72739 Y-21.11952 I1.33506 J-1.56434
G2 X53.51006 Y-20.935 I1.16255 J-3.17904
G2 X51.36931 Y-20.4438 I1.70957 J12.36112
G2 X48.29851 Y-19.45662 I22.04111 J73.83291
G3 X45.03878 Y-18.50661 I-11.76819 J-34.31198
G3 X41.07418 Y-17.81045 I-11.74624 J-55.25752
G2 X39.84244 Y-17.41922 I0.49733 J3.70039
G2 X39.80496 Y-17.39861 I0.4631 J0.8863
G2 X38.89566 Y-16.20175 I0.97341 J1.68339
G2 X38.8875 Y-16.16776 I0.96819 J0.2502
G2 X38.95443 Y-14.75412 I2.6355 J0.58365
G2 X39.63329 Y-13.06441 I9.00495 J-2.63664
G3 X39.83607 Y-12.44122 I-2.70454 J1.22462
G3 X39.87266 Y-11.61502 I-5.10049 J0.63978
G2 X39.87209 Y-11.59198 I0.99934 J0.03627
G2 X39.91355 Y-10.40448 I12.34738 J0.1633
G2 X39.91489 Y-10.3897 I0.99655 J-0.08294
G2 X40.09339 Y-9.62214 I3.01097 J-0.29566
G2 X39.52296 Y-8.93152 I0.40414 J0.9147
G3 X39.10304 Y-7.17844 I-96.51115 J-22.19051
G2 X38.55585 Y-4.53144 I29.26727 J7.43021
G2 X38.70471 Y0.38901 I12.18832 J2.09374
G2 X38.70741 Y0.4002 I0.97353 J-0.22857
G2 X39.99484 Y3.75238 I14.03012 J-3.46505
G2 X42.92313 Y7.85148 I16.80414 J-8.90894
G2 X42.96629 Y7.89479 I0.72955 J-0.68393
G1 X46.07868 Y10.83242
G3 X46.3273 Y11.29199 I-2.85473 J1.8414
G2 X46.33331 Y11.30522 I0.91353 J-0.40677
G3 X47.21558 Y13.56856 I-17.85815 J8.26489
G2 X47.22012 Y13.5824 I0.95236 J-0.30499
G3 X47.97001 Y16.48061 I-19.91114 J6.69798
G3 X48.01783 Y18.41854 I-6.81568 J1.13771
G3 X47.52605 Y20.05204 I-6.28998 J-1.00288
G2 X47.51861 Y20.0688 I0.91032 J0.41391
G3 X46.19044 Y22.82067 I-33.98943 J-14.70837
G2 X46.16655 Y22.86838 I0.88189 J0.47145
G3 X45.19426 Y24.52967 I-9.4948 J-4.44177
G3 X43.98524 Y26.1661 I-1699.96289 J-1254.69261
G2 X42.67158 Y28.49327 I7.92518 J6.00802
G2 X42.65393 Y28.54107 I0.92899 J0.37012
G2 X42.60271 Y28.696 I8.65745 J2.94782
G2 X42.47014 Y28.74445 I0.27606 J0.96114
G2 X40.12989 Y30.16336 I4.51806 J10.09112
G3 X36.94763 Y32.366 I-33.03536 J-44.32761
G2 X36.94092 Y32.37035 I0.54 J0.84167
G2 X33.06906 Y34.90693 I817.13206 J1251.49712
G2 X32.6249 Y35.85672 I0.5493 J0.83563
G2 X32.0137 Y35.8414 I-0.32945 J0.94417
G2 X30.75975 Y36.29143 I3.18471 J10.84579
G2 X30.74618 Y36.29734 I0.39267 J0.91968
G2 X28.35092 Y37.51551 I10.4721 J23.55505
G3 X26.18439 Y38.6084 I-11.25431 J-19.61651
G3 X24.42994 Y39.11643 I-2.86162 J-6.59893
G3 X23.06703 Y39.14974 I-0.88594 J-8.35127
G2 X23.05044 Y39.14893 I-0.0568 J0.99839
G2 X20.88988 Y39.11797 I-1.6784 J41.71362
G2 X20.8436 Y39.11957 I0.01155 J0.99993
G2 X20.3308 Y39.17118 I0.35124 J6.06339
G2 X19.60415 Y38.22021 I-0.99994 J0.01096
G3 X18.60249 Y37.92967 I25.93448 J-91.28383
G3 X14.75198 Y36.76506 I189.22747 J-632.58148
G3 X15.30247 Y36.90892 I-14.81278 J57.80581
G2 X15.31026 Y36.91096 I0.25746 J-0.96629
G2 X18.60956 Y37.71672 I33.12249 J-128.46822
G2 X18.61577 Y37.71813 I0.22479 J-0.97441
G2 X22.50154 Y38.26477 I5.32667 J-23.7802
G2 X24.23171 Y38.18395 I0.50609 J-7.72627
G2 X24.26437 Y38.17817 I-0.15809 J-0.98742
G2 X26.62112 Y37.39018 I-1.81783 J-9.35521
G2 X28.52476 Y36.42913 I-16.78665 J-35.61675
G2 X33.53187 Y33.67149 I-35.53 J-70.43711
G2 X33.54191 Y33.66539 I-0.51384 J-0.85789
G2 X37.41768 Y30.89956 I-18.24644 J-29.66725
G2 X37.42299 Y30.89516 I-0.63516 J-0.77238
G2 X40.51141 Y27.60099 I-11.83307 J-14.18886
G2 X39.70349 Y26.01131 I-0.80764 J-0.58968
G2 X37.91988 Y26.04969 I0.01198 J42.01414
G2 X37.91603 Y26.04987 I0.04274 J0.99909
G2 X33.1155 Y26.41275 I3.88998 J83.39311
G2 X33.08709 Y26.41614 I0.1041 J0.99457
G3 X32.61769 Y26.46894 I-1.4986 J-11.20984
G2 X33.89568 Y26.23858 I-6.81494 J-41.46772
G2 X38.29149 Y25.41623 I-106.5293 J-581.6085
G3 X40.23731 Y25.11507 I16.24886 J98.54686
G2 X40.25399 Y25.11251 I-0.14321 J-0.98969
G2 X42.44089 Y24.49595 I-1.59364 J-9.83919
G2 X42.46839 Y24.4842 I-0.37929 J-0.92528
G2 X44.04006 Y23.37368 I-2.00782 J-4.50902
G2 X44.04762 Y23.36562 I-0.7252 J-0.68853
G2 X45.28722 Y21.43541 I-4.75891 J-4.41933
G2 X45.99154 Y18.63287 I-8.44992 J-3.61339
G2 X45.96425 Y18.2968 I-0.9961 J-0.08823
G2 X46.73207 Y17.3955 I-1.34764 J-1.92577
G2 X47.25063 Y14.92271 I-4.41767 J-2.21718
G2 X46.85955 Y13.28151 I-4.17064 J0.12663
G2 X46.85525 Y13.27244 I-0.90581 J0.42368
G2 X45.65806 Y11.50419 I-6.54441 J3.14147
G2 X43.61706 Y9.37677 I-48.02095 J44.02746
G3 X40.19222 Y5.56067 I42.95526 J-41.99601
G3 X39.59108 Y4.67482 I5.06181 J-4.08184
G2 X39.57003 Y4.63925 I-0.87088 J0.4915
G2 X38.54124 Y3.25758 I-8.63275 J5.3541
G2 X38.50977 Y3.22367 I-0.74855 J0.66308
G2 X37.33082 Y2.473 I-2.1738 J2.11289
G2 X37.17351 Y2.43232 I-0.32817 J0.94462
G2 X35.68707 Y2.60968 I-0.44656 J2.57505
G2 X34.52699 Y3.18097 I3.4332 J8.43502
G2 X33.18805 Y3.88785 I13.60562 J27.39256
G2 X33.18549 Y3.88929 I0.48862 J0.8725
G2 X29.50293 Y6.74274 I7.87609 J13.96763
G2 X29.49068 Y6.75571 I0.72083 J0.69311
G3 X29.23443 Y7.02809 I-19.77857 J-18.35003
G2 X27.75555 Y6.40065 I-4.01516 J7.40721
G2 X27.73991 Y6.39586 I-0.30103 J0.95362
G2 X24.35618 Y5.95194 I-3.07642 J10.33168
G2 X24.35373 Y5.95201 I0.02851 J0.99959
G2 X20.89092 Y6.15431 I1.96012 J63.29177
G3 X18.3798 Y6.12325 I-1.06803 J-15.17883
G3 X17.15646 Y5.81973 I0.62097 J-5.1199
G2 X17.15332 Y5.81853 I-0.3576 J0.93387
G3 X15.65973 Y5.10065 I3.43118 J-9.05141
G2 X16.26157 Y5.31867 I11.21323 J-30.01365
G2 X16.266 Y5.32022 I0.33119 J-0.94356
G2 X18.41137 Y5.67943 I2.13832 J-6.18479
G2 X18.42981 Y5.67924 I-0.00108 J-1.0
G2 X20.98935 Y5.37265 I-0.25266 J-12.94689
G3 X23.0096 Y4.95074 I143.77588 J683.39096
G2 X23.02929 Y4.94645 I-0.20299 J-0.97918
G3 X25.00155 Y4.82436 I1.35793 J5.94513
G2 X25.01203 Y4.82537 I0.10074 J-0.99491
G2 X26.9115 Y4.99462 I56.74595 J-626.11939
G2 X26.92559 Y4.99575 I0.08724 J-0.99619
G2 X29.10959 Y4.78324 I0.4738 J-6.45959
G2 X29.2129 Y4.74881 I-0.26404 J-0.96451
G2 X30.74387 Y3.70617 I-1.54721 J-3.91719
G2 X31.61385 Y2.76417 I-10.57196 J-10.63643
G3 X32.9133 Y1.61404 I5.71695 J5.15003
G2 X32.93133 Y1.6011 I-0.57411 J-0.81878
G2 X34.47833 Y0.40745 I-24.66033 J-33.55988
G2 X36.70663 Y-2.28895 I-5.26588 J-6.62066
G2 X36.72143 Y-2.31836 I-0.88589 J-0.46389
G2 X37.62553 Y-5.06966 I-9.91186 J-4.78134
G2 X37.62569 Y-5.07051 I-0.98284 J-0.18447
G2 X38.0532 Y-8.08096 I-34.29088 J-6.40517
G2 X37.26106 Y-9.15743 I-0.99525 J-0.09731
G2 X37.18207 Y-9.63348 I-0.99686 J-0.07918
G2 X37.24685 Y-9.84492 I-0.91787 J-0.39688
G2 X37.54583 Y-9.82496 I0.54277 J-5.88031
G2 X38.58556 Y-10.76835 I0.04128 J-0.99915
G3 X38.64062 Y-11.286 I5.18129 J0.28937
G2 X38.90657 Y-12.84694 I-68.85001 J-12.53385
G2 X38.90713 Y-12.85052 I-0.98763 J-0.1568
G2 X38.88691 Y-14.33746 I-4.40925 J-0.68365
G2 X38.88089 Y-14.36774 I-0.98366 J0.18003
G2 X38.33176 Y-15.75568 I-4.446 J0.95642
G2 X36.52015 Y-18.07999 I-9.94456 J5.88282
G2 X34.51359 Y-20.07672 I-112.66943 J111.2174
G2 X33.62518 Y-20.86356 I-5.09254 J4.85497
G2 X32.07834 Y-21.41718 I-1.58255 J1.98392
G2 X31.94998 Y-21.41073 I-0.01407 J0.9999
G2 X30.6623 Y-20.99272 I0.39066 J3.39581
G3 X30.10788 Y-20.75869 I-1.99143 J-3.9439
G3 X29.81855 Y-21.15591 I0.47126 J-0.64722
G2 X29.80419 Y-21.19661 I-0.95 J0.31226
G3 X29.58045 Y-22.01027 I4.27936 J-1.61433
G2 X29.57741 Y-22.02662 I-0.98456 J0.17506
G2 X28.58573 Y-24.01301 I-4.07834 J0.79532
G2 X28.56324 Y-24.03715 I-0.74285 J0.66946
G2 X27.06155 Y-25.20171 I-4.74697 J4.57066
G3 X25.74158 Y-25.99932 I52.97165 J-89.15426
G2 X25.71122 Y-26.01725 I-0.52353 J0.85201
G2 X24.52151 Y-26.41864 I-1.63655 J2.88687
G2 X24.44141 Y-26.42626 I-0.13465 J0.99089
G2 X23.09608 Y-25.87892 I-0.09282 J1.69893
G2 X23.09108 Y-25.87345 I0.73614 J0.67683
G2 X22.69717 Y-25.25203 I1.60162 J1.4508
G2 X22.6885 Y-25.23047 I0.92342 J0.3838
G2 X22.40156 Y-24.02466 I4.22847 J1.64326
G3 X22.21717 Y-23.07557 I-6.85691 J-0.83969
G3 X21.75281 Y-21.81997 I-14.96012 J-4.81913
G2 X21.75147 Y-21.81675 I0.92229 J0.3865
G2 X20.88798 Y-19.30721 I19.79604 J8.21472
G2 X20.88391 Y-19.29199 I0.96392 J0.26619
G2 X20.8199 Y-17.55348 I3.91288 J1.01451
G2 X20.73562 Y-17.60014 I-0.93041 J1.58109
G2 X20.65777 Y-17.63645 I-0.46122 J0.88729
G2 X19.1482 Y-17.78625 I-1.00168 J2.41316
G2 X17.81623 Y-17.30473 I0.68007 J3.96427
G2 X15.96399 Y-16.12061 I5.4877 J10.62477
G2 X15.14064 Y-16.29719 I-0.60188 J0.79859
G2 X10.40981 Y-15.06768 I17.49539 J77.0341
G2 X10.40164 Y-15.06525 I0.28136 J0.9596
G2 X6.76551 Y-13.74921 I10.46151 J34.58565
G2 X5.1756 Y-12.90415 I3.65989 J8.80394
G2 X5.15415 Y-12.8896 I0.55062 J0.83476
G3 X4.11814 Y-12.17916 I-45.27675 J-64.91538
G1 F300.0 X3.67095 Y-12.84251
G1 Z-3.0
G3 F800.0 X3.39708 Y-12.71426 I-4.49603 J-9.24461
G3 X3.34628 Y-12.69231 I-0.73929 J-1.64117
G3 X1.31792 Y-12.35494 I-1.74223 J-4.20859
G2 X1.90563 Y-12.10122 I2.08842 J-4.02999
G2 X2.34687 Y-12.11649 I0.19834 J-0.65139
G3 X2.3893 Y-12.13208 I0.64212 J1.68157
G2 X3.28194 Y-12.5819 I-1.31349 J-3.7172
G3 X3.29175 Y-12.58847 I1.00726 J1.49179
G2 X3.67095 Y-12.84251 I-43.41435 J-65.2165
G0 Z3.0
G0 X-0.52204 Y-30.54296
G0 Z-1.0
G1 F300.0 Z-3.0
G3 F800.0 X1.11495 Y-31.17544 I3.0504 J5.46046
G3 X2.45942 Y-31.33748 I1.34466 J5.4983
G3 X2.11849 Y-32.44143 I4.49151 J-1.9917
G3 X2.11232 Y-32.47702 I1.77037 J-0.32523
G3 X2.06383 Y-32.79856 I13.42935 J-2.18945
G3 X0.95922 Y-31.62335 I-3.15415 J-1.85794
G3 X0.84639 Y-31.55304 I-1.00778 J-1.49144
G3 X-1.22143 Y-31.08176 I-1.80584 J-3.15132
G3 X-1.30586 Y-31.08742 I0.33402 J-5.61475
G3 X-0.87533 Y-30.78548 I-4.72914 J7.20102
G2 X-0.58562 Y-30.58654 I4.6093 J-6.40214
G3 X-0.52204 Y-30.54296 I-0.98561 J1.50618
G0 Z3.0
G0 X-4.41743 Y-31.89417
G0 Z-1.0
G1 F300.0 Z-3.0
G2 F800.0 X-4.45082 Y-31.89876 I-0.47296 J3.31315
G2 X-4.73481 Y-31.88352 I-0.08654 J1.04091
G2 X-5.14374 Y-31.7811 I2.73348 J11.78195
G3 X-5.08522 Y-31.79263 I3.20475 J16.11984
G3 X-4.41743 Y-31.89417 I1.40512 J6.99434
G0 Z3.0
G0 X-8.88915 Y-30.54549
G0 Z-1.0
G1 F300.0 Z-3.0
G3 F800.0 X-10.70198 Y-30.29731 I-1.98268 J-7.73742
G3 X-10.72781 Y-30.29695 I-0.03828 J-1.79959
G3 X-12.06379 Y-30.45744 I-0.03687 J-5.33378
G3 X-12.09086 Y-30.46446 I0.4384 J-1.7458
G3 X-14.66673 Y-31.56856 I2.53609 J-9.4735
G2 X-13.00278 Y-30.48222 I5.93395 J-7.27151
G2 X-11.74306 Y-30.03894 I2.67976 J-5.60383
G3 X-10.65758 Y-29.28614 I-0.4115 J1.75233
G3 X-9.73067 Y-30.05212 I10.183 J11.37871
G3 X-9.58833 Y-30.15017 I1.0911 J1.43161
G3 X-8.88915 Y-30.54549 I5.2191 J8.41453
G0 Z3.0
G0 X-19.01283 Y-35.25097
G0 Z-1.0
G1 F300.0 Z-3.0
G3 F800.0 X-19.15283 Y-35.38782 I109.98997 J-112.66745
G3 X-19.13548 Y-35.32113 I-1.73297 J0.48662
G3 X-19.01283 Y-35.25097 I-5.73895 J10.17422
G0 Z3.0
G0 X7.08222 Y-48.42498
G0 Z-1.0
G1 F300.0 Z-3.0
G3 F800.0 X7.18882 Y-48.41209 I-0.83408 J7.34377
G3 X7.06474 Y-48.50362 I5.71767 J-7.88113
G3 X7.08222 Y-48.42498 I-12.16264 J2.74525
G0 Z3.0
G0 X3.15621 Y-55.63038
G0 Z-1.0
G1 F300.0 Z-3.0
G3 F800.0 X2.83941 Y-55.9739 I4.69036 J-4.64333
G3 X1.94998 Y-57.26628 I5.58439 J-4.79548
G3 X1.87396 Y-56.32788 I-8.51616 J-0.21762
G3 X2.60002 Y-55.95313 I-7.65196 J15.71618
G3 X3.15621 Y-55.63038 I-4.73933 J8.80763
G1 F300.0 X3.72474 Y-56.1932
G3 F800.0 X3.44634 Y-56.49509 I4.12184 J-4.0805
G3 X2.03542 Y-59.27499 I4.97746 J-4.2743
G3 X1.85038 Y-59.10539 I-8.65753 J-9.25987
G3 X1.7367 Y-59.00589 I-3.87645 J-4.31429
