; generated by PrusaSlicer 2.6.0+win64 on 2023-09-03 at 08:40:42 UTC

; 

; external perimeters extrusion width = 0.45mm
; perimeters extrusion width = 0.45mm
; infill extrusion width = 0.45mm
; solid infill extrusion width = 0.45mm
; top infill extrusion width = 0.40mm
; first layer extrusion width = 0.42mm

M73 P0 R33
;TYPE:Custom
M862.3 P "MK2S" ; printer model check
M862.1 P0.4 ; nozzle diameter check
M115 U3.2.3 ; tell printer latest fw version
G90 ; use absolute coordinates
M83 ; extruder relative mode
M204 S2000 T1500 ; MK2 firmware only supports the old M204 format
M104 S240 ; set extruder temp
M140 S100 ; set bed temp
M190 S100 ; wait for bed temp
M109 S240 ; wait for extruder temp
G28 W ; home all without mesh bed level
G80 ; mesh bed leveling
G1 Y-3.0 F1000.0 ; go outside print area
G92 E0.0
G1 X60.0 E9.0  F1000.0 ; intro line
G1 X100.0 E12.5 F1000.0 ; intro line
G92 E0.0
G21 ; set units to millimeters
G90 ; use absolute coordinates
M83 ; use relative distances for extrusion
M900 K0.04 ; Filament gcode LA 1.5
M900 K20 ; Filament gcode LA 1.0
M107
;LAYER_CHANGE
;Z:0.2
;HEIGHT:0.2
;BEFORE_LAYER_CHANGE
G92 E0.0
;0.2


G1 E-.8 F2100
G1 Z.4 F10800
;AFTER_LAYER_CHANGE
;0.2
G1 X101.701 Y84.758
G1 Z.2
G1 E.8 F2100
M204 S1000
;TYPE:Skirt/Brim
;WIDTH:0.42
G1 F1200
G1 X103.068 Y83.284 E.06303
G1 X104.314 Y82.093 E.05404
G1 X105.722 Y80.896 E.05794
G1 X107.199 Y79.785 E.05795
G1 X108.704 Y78.788 E.0566
G1 X110.445 Y77.782 E.06305
G1 X111.992 Y77.008 E.05424
G1 X113.691 Y76.28 E.05796
G1 X115.43 Y75.654 E.05795
G1 X117.155 Y75.147 E.05637
G1 X119.115 Y74.699 E.06304
G1 X120.829 Y74.415 E.05447
G1 X122.667 Y74.219 E.05796
G1 X124.514 Y74.135 E.05797
G1 X126.305 Y74.159 E.05616
G1 X128.309 Y74.309 E.06301
G1 X130.037 Y74.543 E.05467
G1 X131.851 Y74.899 E.05796
G1 X133.641 Y75.363 E.05798
G1 X135.338 Y75.912 E.05592
G1 X137.21 Y76.646 E.06305
G1 X138.798 Y77.383 E.05489
G1 X140.427 Y78.258 E.05798
G1 X141.999 Y79.229 E.05793
G1 X143.454 Y80.25 E.05573
G1 X145.026 Y81.504 E.06305
G1 X146.331 Y82.68 E.05508
G1 X147.629 Y83.997 E.05798
G1 X148.9 Y85.456 E.06067
G1 X149.977 Y86.851 E.05526
G1 X151.018 Y88.378 E.05795
G1 X151.967 Y89.964 E.05795
G1 X152.782 Y91.532 E.05541
G1 X153.6 Y93.368 E.06302
G1 X154.22 Y95.025 E.05547
G1 X154.764 Y96.791 E.05794
G1 X155.202 Y98.587 E.05796
G1 X155.518 Y100.318 E.05517
G1 X155.758 Y102.314 E.06303
G1 X155.862 Y104.086 E.05566
G1 X155.862 Y105.914 E.05732
G1 X155.752 Y107.759 E.05795
G1 X155.542 Y109.52 E.05561
G1 X155.183 Y111.498 E.06303
G1 X154.764 Y113.209 E.05523
G1 X154.22 Y114.975 E.05794
G1 X153.57 Y116.706 E.05797
G1 X152.853 Y118.321 E.0554
G1 X151.926 Y120.105 E.06304
G1 X151.018 Y121.622 E.05543
G1 X149.977 Y123.149 E.05795
G1 X148.846 Y124.611 E.05796
G1 X147.688 Y125.938 E.05522
G1 X146.331 Y127.32 E.06073
G1 X144.957 Y128.556 E.05795
G1 X143.585 Y129.652 E.05506
G1 X141.941 Y130.809 E.06303
G1 X140.427 Y131.742 E.05576
G1 X138.798 Y132.617 E.05798
G1 X137.12 Y133.393 E.05797
G1 X135.492 Y134.033 E.05485
G1 X133.58 Y134.654 E.06303
G1 X131.851 Y135.101 E.05599
G1 X130.037 Y135.457 E.05796
G1 X128.205 Y135.703 E.05796
G1 X126.468 Y135.834 E.05462
G1 X124.514 Y135.865 E.06127
G1 X122.667 Y135.781 E.05797
G1 X120.938 Y135.599 E.05451
G1 X118.955 Y135.269 E.06303
G1 X117.204 Y134.867 E.05633
G1 X115.43 Y134.346 E.05797
G1 X113.691 Y133.72 E.05795
G1 X112.099 Y133.04 E.05428
G1 X110.301 Y132.14 E.06304
G1 X108.741 Y131.236 E.05653
G1 X107.199 Y130.215 E.05799
G1 X105.722 Y129.104 E.05795
G1 X104.406 Y127.989 E.05408
G1 X102.98 Y126.627 E.06183
G1 X101.725 Y125.27 E.05795
G1 X100.632 Y123.941 E.05395
G1 X99.451 Y122.314 E.06304
G1 X98.477 Y120.783 E.05689
G1 X97.58 Y119.167 E.05795
G1 X96.782 Y117.5 E.05795
G1 X96.132 Y115.914 E.05374
G1 X95.483 Y114.011 E.06304
G1 X95.002 Y112.255 E.05709
G1 X94.622 Y110.446 E.05796
G1 X94.35 Y108.617 E.05798
G1 X94.197 Y106.917 E.05352
G1 X94.138 Y104.929 E.06236
G1 X94.189 Y103.224 E.05348
G1 X94.35 Y101.383 E.05794
G1 X94.647 Y99.418 E.06231
G1 X95.002 Y97.745 E.05362
G1 X95.49 Y95.962 E.05796
G1 X96.084 Y94.212 E.05794
G1 X96.774 Y92.519 E.05732
G1 X97.641 Y90.716 E.06273
G1 X98.477 Y89.217 E.05382
G1 X99.47 Y87.657 E.05798
G1 X100.553 Y86.16 E.05793
G1 X101.663 Y84.805 E.05492
; printing object Brunnen-Dichtung.stl id:0 copy 0
;WIPE_START
G1 F8640
G1 X103.068 Y83.284 E-.47811
G1 X104.076 Y82.321 E-.32189
;WIPE_END
G1 Z.6 F10800
G1 X104.134 Y86.782
G1 Z.2
G1 E.8 F2100
;TYPE:Perimeter
;WIDTH:0.419999
G1 F1200
G1 X105.271 Y85.555 E.05245
G1 X106.47 Y84.41 E.05198
G1 X107.723 Y83.348 E.0515
G1 X109.061 Y82.344 E.05245
G1 X110.444 Y81.431 E.05196
G1 X111.88 Y80.602 E.05199
G1 X113.363 Y79.86 E.05199
G1 X114.873 Y79.215 E.05148
G1 X116.448 Y78.65 E.05246
G1 X118.039 Y78.185 E.05197
G1 X119.655 Y77.817 E.05197
G1 X121.291 Y77.545 E.052
G1 X122.925 Y77.373 E.05152
G1 X124.581 Y77.298 E.05198
G1 X126.253 Y77.323 E.05243
G1 X127.906 Y77.447 E.05197
G1 X129.549 Y77.67 E.05199
G1 X131.161 Y77.987 E.05151
G1 X132.78 Y78.408 E.05245
G1 X134.356 Y78.92 E.05196
G1 X135.899 Y79.526 E.05198
G1 X137.404 Y80.223 E.052
G1 X138.85 Y81.002 E.0515
G1 X140.273 Y81.881 E.05244
G1 X141.629 Y82.835 E.05198
G1 X142.925 Y83.869 E.05198
G1 X144.156 Y84.979 E.05197
G1 X145.309 Y86.149 E.0515
G1 X146.41 Y87.409 E.05246
G1 X147.424 Y88.72 E.05197
G1 X148.357 Y90.09 E.05197
G1 X149.207 Y91.513 E.05197
G1 X149.964 Y92.972 E.05154
G1 X150.644 Y94.5 E.05244
G1 X151.227 Y96.052 E.05198
G1 X151.711 Y97.622 E.05151
G1 X152.107 Y99.247 E.05244
G1 X152.403 Y100.878 E.05197
G1 X152.6 Y102.524 E.05198
G1 X152.699 Y104.277 E.05505
M73 P1 R33
G1 X152.699 Y105.821 E.04841
G1 X152.599 Y107.491 E.05246
G1 X152.403 Y109.122 E.05151
G1 X152.107 Y110.754 E.052
G1 X151.715 Y112.364 E.05196
G1 X151.227 Y113.948 E.05197
G1 X150.639 Y115.514 E.05245
G1 X149.971 Y117.015 E.05151
G1 X149.207 Y118.487 E.052
G1 X148.357 Y119.91 E.05197
G1 X147.424 Y121.28 E.05197
G1 X146.4 Y122.603 E.05246
G1 X145.319 Y123.84 E.05151
G1 X144.156 Y125.021 E.05197
G1 X142.913 Y126.14 E.05244
G1 X141.629 Y127.165 E.05151
G1 X140.273 Y128.119 E.05198
G1 X138.863 Y128.991 E.05198
G1 X137.404 Y129.777 E.05196
G1 X135.886 Y130.479 E.05244
G1 X134.356 Y131.08 E.05154
G1 X132.78 Y131.592 E.05196
G1 X131.175 Y132.009 E.05199
G1 X129.549 Y132.33 E.05197
G1 X127.891 Y132.554 E.05246
G1 X126.253 Y132.677 E.0515
G1 X124.596 Y132.702 E.05196
G1 X122.925 Y132.627 E.05245
G1 X121.291 Y132.455 E.05152
G1 X119.655 Y132.183 E.052
G1 X118.039 Y131.815 E.05197
G1 X116.448 Y131.35 E.05197
G1 X114.873 Y130.785 E.05246
G1 X113.363 Y130.14 E.05148
G1 X111.88 Y129.398 E.05199
G1 X110.444 Y128.569 E.05199
G1 X109.061 Y127.656 E.05196
G1 X107.723 Y126.652 E.05245
G1 X106.47 Y125.59 E.0515
G1 X105.271 Y124.445 E.05198
G1 X104.134 Y123.218 E.05245
G1 X103.091 Y121.949 E.0515
G1 X102.116 Y120.608 E.05198
G1 X101.224 Y119.211 E.05197
G1 X100.417 Y117.764 E.05195
G1 X99.691 Y116.256 E.05248
G1 X99.068 Y114.736 E.05151
G1 X98.532 Y113.167 E.05199
G1 X98.091 Y111.569 E.05198
G1 X97.747 Y109.948 E.05196
G1 X97.498 Y108.293 E.05248
G1 X97.351 Y106.657 E.0515
G1 X97.301 Y105 E.05198
G1 X97.351 Y103.343 E.05198
G1 X97.498 Y101.707 E.0515
G1 X97.747 Y100.052 E.05248
G1 X98.091 Y98.431 E.05196
G1 X98.532 Y96.833 E.05198
G1 X99.068 Y95.264 E.05199
G1 X99.691 Y93.744 E.05151
G1 X100.417 Y92.236 E.05248
G1 X101.224 Y90.789 E.05195
G1 X102.116 Y89.392 E.05197
G1 X103.091 Y88.051 E.05198
G1 X104.096 Y86.828 E.04963
G1 X103.85 Y86.534 F10800
;TYPE:External perimeter
G1 F1200
G1 X105.003 Y85.291 E.05316
G1 X106.217 Y84.129 E.05269
G1 X107.487 Y83.053 E.05219
G1 X108.844 Y82.035 E.05319
G1 X110.246 Y81.11 E.05266
G1 X111.701 Y80.27 E.05268
G1 X113.204 Y79.518 E.05269
G1 X114.735 Y78.864 E.0522
G1 X116.331 Y78.291 E.05317
G1 X117.944 Y77.82 E.05269
G1 X119.583 Y77.446 E.05271
G1 X121.24 Y77.171 E.05266
G1 X122.896 Y76.997 E.05221
G1 X124.575 Y76.921 E.0527
G1 X126.27 Y76.946 E.05315
G1 X127.946 Y77.072 E.0527
G1 X129.611 Y77.298 E.05268
G1 X131.245 Y77.62 E.05222
G1 X132.886 Y78.046 E.05316
G1 X134.484 Y78.565 E.05268
G1 X136.048 Y79.179 E.05268
G1 X137.572 Y79.886 E.05268
G1 X139.039 Y80.675 E.05223
G1 X140.481 Y81.566 E.05315
G1 X141.855 Y82.534 E.0527
G1 X143.169 Y83.582 E.0527
G1 X144.417 Y84.706 E.05266
G1 X145.586 Y85.892 E.05221
G1 X146.701 Y87.169 E.05315
G1 X147.729 Y88.498 E.05268
G1 X148.675 Y89.887 E.05269
G1 X149.537 Y91.33 E.0527
G1 X150.304 Y92.808 E.05221
G1 X150.994 Y94.357 E.05317
G1 X151.584 Y95.93 E.05268
G1 X152.074 Y97.521 E.0522
G1 X152.476 Y99.168 E.05316
G1 X152.776 Y100.822 E.05271
G1 X152.976 Y102.49 E.05267
G1 X153.076 Y104.277 E.05612
G1 X153.076 Y105.833 E.04879
G1 X152.975 Y107.525 E.05315
G1 X152.776 Y109.178 E.0522
G1 X152.476 Y110.832 E.05271
G1 X152.078 Y112.464 E.05267
G1 X151.584 Y114.07 E.05268
G1 X150.988 Y115.657 E.05315
G1 X150.31 Y117.179 E.05224
G1 X149.537 Y118.67 E.05266
G1 X148.675 Y120.113 E.0527
G1 X147.729 Y121.502 E.05269
G1 X146.692 Y122.843 E.05315
G1 X145.596 Y124.097 E.05222
G1 X144.417 Y125.294 E.05268
G1 X143.157 Y126.428 E.05315
G1 X141.855 Y127.466 E.05221
G1 X140.481 Y128.434 E.0527
G1 X139.052 Y129.317 E.05267
G1 X137.572 Y130.114 E.05271
G1 X136.034 Y130.826 E.05314
G1 X134.484 Y131.435 E.05222
G1 X132.886 Y131.954 E.05268
G1 X131.259 Y132.377 E.05271
G1 X129.611 Y132.702 E.05267
G1 X127.931 Y132.929 E.05315
G1 X126.27 Y133.054 E.05223
G1 X124.59 Y133.079 E.05268
G1 X122.896 Y133.003 E.05317
G1 X121.24 Y132.829 E.05221
G1 X119.583 Y132.554 E.05266
G1 X117.944 Y132.18 E.05271
G1 X116.331 Y131.709 E.05269
G1 X114.735 Y131.136 E.05317
G1 X113.204 Y130.482 E.0522
G1 X111.701 Y129.73 E.05269
G1 X110.246 Y128.89 E.05268
G1 X108.844 Y127.965 E.05266
G1 X107.487 Y126.947 E.05319
G1 X106.217 Y125.871 E.05219
G1 X105.003 Y124.709 E.05269
G1 X103.85 Y123.466 E.05316
G1 X102.792 Y122.18 E.05221
G1 X101.804 Y120.821 E.05268
G1 X100.9 Y119.405 E.05267
G1 X100.082 Y117.937 E.05269
G1 X99.347 Y116.409 E.05316
G1 X98.715 Y114.869 E.05219
G1 X98.172 Y113.278 E.05271
G1 X97.725 Y111.659 E.05266
G1 X97.375 Y110.015 E.0527
G1 X97.124 Y108.338 E.05317
G1 X96.974 Y106.68 E.0522
G1 X96.924 Y105 E.0527
G1 X96.974 Y103.32 E.0527
G1 X97.124 Y101.662 E.0522
G1 X97.375 Y99.985 E.05317
G1 X97.725 Y98.341 E.0527
G1 X98.172 Y96.722 E.05266
G1 X98.715 Y95.131 E.05271
G1 X99.347 Y93.591 E.05219
G1 X100.082 Y92.063 E.05316
G1 X100.9 Y90.595 E.05269
G1 X101.804 Y89.179 E.05267
G1 X102.792 Y87.82 E.05268
G1 X103.812 Y86.58 E.05034
G1 X104.242 Y86.611 F10800
;WIPE_START
G1 F8640
G1 X105.003 Y85.291 E-.40523
G1 X106.217 Y84.129 E-.38803
G1 X106.239 Y84.11 E-.00674
;WIPE_END
G1 Z.6 F10800
G1 X109.947 Y90.197
G1 Z.2
G1 E.8 F2100
;TYPE:Perimeter
G1 F1200
G1 X110.989 Y89.209 E.04502
G1 X112.168 Y88.234 E.04797
G1 X113.385 Y87.369 E.04681
G1 X114.591 Y86.633 E.0443
G1 X116.047 Y85.879 E.05141
G1 X117.357 Y85.317 E.04469
G1 X118.687 Y84.853 E.04417
G1 X120.199 Y84.438 E.04916
G1 X121.664 Y84.149 E.04682
G1 X122.137 Y84.09 E.01495
G1 X123.144 Y83.966 E.03181
G1 X124.559 Y83.889 E.04443
G1 X126.165 Y83.915 E.05036
G1 X127.61 Y84.045 E.04549
G1 X128.483 Y84.184 E.02772
G1 X129.083 Y84.281 E.01906
G1 X130.459 Y84.601 E.04429
G1 X132.047 Y85.093 E.05213
G1 X133.351 Y85.602 E.04389
G1 X134.627 Y86.204 E.04424
G1 X135.997 Y86.969 E.0492
G1 X137.243 Y87.791 E.0468
G1 X138.366 Y88.648 E.04429
G1 X139.548 Y89.688 E.04936
G1 X140.616 Y90.779 E.04787
G1 X141.556 Y91.885 E.04551
G1 X142.395 Y93.021 E.04428
G1 X143.237 Y94.345 E.0492
G1 X143.987 Y95.752 E.04999
G1 X144.557 Y97.021 E.04362
G1 X145.046 Y98.344 E.04422
G1 X145.485 Y99.851 E.04921
G1 X145.798 Y101.31 E.04679
G1 X146.006 Y102.787 E.04677
G1 X146.107 Y104.195 E.04426
G1 X146.107 Y105.805 E.05048
G1 X146.01 Y107.174 E.04303
G1 X145.801 Y108.673 E.04745
G1 X145.495 Y110.109 E.04604
G1 X145.014 Y111.743 E.05341
G1 X144.57 Y112.948 E.04027
G1 X143.962 Y114.305 E.04662
G1 X143.258 Y115.619 E.04674
G1 X142.418 Y116.947 E.04927
G1 X142.098 Y117.382 E.01693
G1 X141.58 Y118.084 E.02735
G1 X140.616 Y119.221 E.04674
G1 X139.487 Y120.369 E.05048
G1 X138.458 Y121.278 E.04305
G1 X137.641 Y121.906 E.03231
G1 X136.635 Y122.611 E.03852
G1 X136.032 Y123.009 E.02265
G1 X134.521 Y123.847 E.05417
G1 X133.382 Y124.385 E.0395
G1 X131.998 Y124.926 E.04659
G1 X130.574 Y125.369 E.04676
G1 X129.044 Y125.726 E.04926
G1 X128.487 Y125.816 E.01769
G1 X127.649 Y125.951 E.02661
G1 X126.165 Y126.085 E.04672
G1 X124.555 Y126.111 E.05049
G1 X123.144 Y126.034 E.04431
G1 X121.704 Y125.857 E.04549
G1 X120.24 Y125.572 E.04676
G1 X118.724 Y125.159 E.04927
G1 X117.385 Y124.694 E.04444
G1 X115.983 Y124.092 E.04784
G1 X114.693 Y123.427 E.0455
G1 X113.904 Y122.945 E.02899
G1 X113.352 Y122.608 E.02028
G1 X112.201 Y121.791 E.04426
G1 X110.95 Y120.755 E.05093
G1 X109.91 Y119.762 E.04509
G1 X108.956 Y118.722 E.04425
G1 X108.027 Y117.555 E.04677
G1 X107.183 Y116.325 E.04677
G1 X106.392 Y114.967 E.04928
G1 X105.764 Y113.697 E.04442
G1 X105.2 Y112.323 E.04657
G1 X104.732 Y110.907 E.04676
G1 X104.352 Y109.382 E.04928
M73 P2 R33
G1 X104.103 Y107.993 E.04425
G1 X103.944 Y106.51 E.04676
G1 X103.889 Y105.017 E.04684
G1 X103.941 Y103.57 E.0454
G1 X104.097 Y102.049 E.04794
G1 X104.358 Y100.578 E.04684
G1 X104.721 Y99.131 E.04678
G1 X104.817 Y98.835 E.00976
G1 X105.161 Y97.789 E.03452
G1 X105.75 Y96.333 E.04925
G1 X106.41 Y94.996 E.04675
G1 X107.162 Y93.708 E.04676
G1 X107.566 Y93.115 E.0225
G1 X107.959 Y92.542 E.02179
G1 X108.929 Y91.31 E.04916
G1 X109.906 Y90.241 E.04541
G1 X110.215 Y90.462 F10800
;TYPE:External perimeter
G1 F1200
G1 X111.229 Y89.5 E.04382
G1 X112.408 Y88.525 E.04797
G1 X113.603 Y87.676 E.04596
G1 X114.787 Y86.955 E.04346
G1 X116.196 Y86.226 E.04974
G1 X117.503 Y85.665 E.0446
G1 X118.811 Y85.209 E.04343
G1 X120.299 Y84.801 E.04838
G1 X121.737 Y84.52 E.04594
G1 X123.194 Y84.339 E.04603
G1 X124.576 Y84.266 E.04339
G1 X126.131 Y84.291 E.04876
G1 X127.577 Y84.42 E.04552
G1 X128.423 Y84.556 E.02687
G1 X129.023 Y84.653 E.01906
G1 X130.373 Y84.968 E.04347
G1 X131.91 Y85.445 E.05046
G1 X133.216 Y85.954 E.04395
G1 X134.466 Y86.545 E.04335
G1 X135.813 Y87.298 E.04839
G1 X137.035 Y88.105 E.04592
G1 X138.137 Y88.947 E.04348
G1 X139.296 Y89.968 E.04843
G1 X140.329 Y91.023 E.0463
G1 X141.269 Y92.129 E.04551
G1 X142.092 Y93.245 E.04348
G1 X142.919 Y94.547 E.04836
G1 X143.643 Y95.906 E.04828
G1 X144.213 Y97.174 E.04359
G1 X144.692 Y98.474 E.04344
G1 X145.123 Y99.956 E.04839
G1 X145.429 Y101.389 E.04594
G1 X145.633 Y102.839 E.04591
G1 X145.731 Y104.224 E.04353
G1 X145.731 Y105.778 E.04872
G1 X145.634 Y107.148 E.04306
G1 X145.498 Y108.12 E.03077
G1 X145.282 Y109.301 E.03764
G1 X145.126 Y110.031 E.02341
G1 X144.66 Y111.613 E.05171
G1 X144.217 Y112.815 E.04017
G1 X143.618 Y114.15 E.04588
G1 X142.926 Y115.441 E.04593
G1 X142.099 Y116.745 E.04842
G1 X141.277 Y117.861 E.04346
G1 X140.327 Y118.979 E.046
G1 X139.237 Y120.086 E.04871
G1 X138.208 Y120.995 E.04305
G1 X137.411 Y121.607 E.03151
G1 X135.824 Y122.695 E.06033
G1 X134.36 Y123.506 E.05248
G1 X133.223 Y124.042 E.03941
G1 X131.861 Y124.574 E.04585
G1 X130.462 Y125.009 E.04594
G1 X128.958 Y125.359 E.04842
G1 X127.59 Y125.578 E.04344
M73 P2 R32
G1 X126.128 Y125.71 E.04603
G1 X124.575 Y125.734 E.0487
G1 X123.19 Y125.66 E.04349
G1 X121.75 Y125.483 E.04549
G1 X120.312 Y125.202 E.04594
G1 X118.676 Y124.744 E.05327
G1 X117.513 Y124.339 E.03861
G1 X116.168 Y123.762 E.04589
G1 X114.866 Y123.092 E.04591
G1 X113.549 Y122.286 E.04841
G1 X112.419 Y121.484 E.04345
G1 X111.285 Y120.552 E.04602
G1 X110.161 Y119.48 E.0487
G1 X109.225 Y118.457 E.04348
G1 X108.323 Y117.321 E.04548
G1 X107.495 Y116.112 E.04595
G1 X106.717 Y114.775 E.0485
G1 X106.103 Y113.534 E.04341
G1 X105.549 Y112.18 E.04587
G1 X105.091 Y110.789 E.04592
G1 X104.718 Y109.291 E.0484
G1 X104.474 Y107.927 E.04345
G1 X104.313 Y106.33 E.05033
G1 X104.266 Y105.006 E.04154
G1 X104.315 Y103.621 E.04345
G1 X104.472 Y102.087 E.04835
G1 X104.729 Y100.644 E.04596
G1 X105.087 Y99.224 E.04592
G1 X105.52 Y97.904 E.04356
G1 X106.104 Y96.464 E.04872
G1 X106.748 Y95.163 E.04552
G1 X107.487 Y93.899 E.04591
G1 X108.27 Y92.754 E.04349
