; generated by Slic3r 1.33.8-prusa3d-win64 on 2018-05-11 at 21:52:05

; external perimeters extrusion width = 0.45mm
; perimeters extrusion width = 0.45mm
; infill extrusion width = 0.45mm
; solid infill extrusion width = 0.45mm
; top infill extrusion width = 0.45mm

M115 U3.0.10 ; tell printer latest fw version
M83  ; extruder relative mode
M104 S255 ; set extruder temp
M140 S100 ; set bed temp
M190 S100 ; wait for bed temp
M109 S255 ; wait for extruder temp
G28 W ; home all without mesh bed level
G80 ; mesh bed leveling
G1 Y-3.0 F1000.0 ; go outside pritn area
G1 X60.0 E9.0  F1000.0 ; intro line
G1 X100.0 E12.5  F1000.0 ; intro line
G21 ; set units to millimeters
G90 ; use absolute coordinates
M83 ; use relative distances for extrusion
G1 E-0.80000 F2100.00000
G1 Z0.200 F7200.000
G1 X101.762 Y84.687 F7200.000
G1 E0.80000 F2100.00000
M204 S1000
G1 F2100
G1 X103.014 Y83.337 E0.05772
G1 X104.288 Y82.118 E0.05529
G1 X105.815 Y80.822 E0.06278
G1 X107.243 Y79.754 E0.05593
G1 X108.779 Y78.740 E0.05772
G1 X110.380 Y77.815 E0.05796
G1 X111.951 Y77.029 E0.05507
G1 X113.794 Y76.240 E0.06287
G1 X115.474 Y75.639 E0.05593
G1 X117.241 Y75.123 E0.05772
G1 X119.043 Y74.712 E0.05796
G1 X120.776 Y74.423 E0.05509
G1 X122.705 Y74.216 E0.06082
G1 X124.548 Y74.134 E0.05784
G1 X126.308 Y74.159 E0.05521
G1 X128.304 Y74.308 E0.06274
G1 X130.071 Y74.549 E0.05593
G1 X131.881 Y74.906 E0.05784
G1 X133.666 Y75.370 E0.05784
G1 X135.338 Y75.912 E0.05511
G1 X137.208 Y76.645 E0.06295
G1 X138.822 Y77.395 E0.05581
G1 X140.443 Y78.267 E0.05772
G1 X142.015 Y79.239 E0.05795
G1 X143.454 Y80.250 E0.05514
G1 X144.975 Y81.459 E0.06090
G1 X146.342 Y82.691 E0.05772
G1 X147.580 Y83.945 E0.05525
G1 X148.898 Y85.454 E0.06281
G1 X149.986 Y86.863 E0.05581
G1 X151.024 Y88.387 E0.05784
G1 X151.970 Y89.971 E0.05785
G1 X152.782 Y91.532 E0.05515
G1 X153.598 Y93.364 E0.06290
G1 X154.223 Y95.035 E0.05594
G1 X154.765 Y96.795 E0.05772
G1 X155.202 Y98.587 E0.05784
G1 X155.518 Y100.318 E0.05517
G1 X155.753 Y102.245 E0.06087
G1 X155.862 Y104.063 E0.05711
G1 X155.863 Y105.846 E0.05589
G1 X155.743 Y107.849 E0.06291
G1 X155.532 Y109.592 E0.05507
G1 X155.203 Y111.410 E0.05792
G1 X154.767 Y113.201 E0.05780
G1 X154.243 Y114.904 E0.05589
G1 X153.539 Y116.778 E0.06276
G1 X152.822 Y118.387 E0.05522
G1 X151.974 Y120.023 E0.05780
G1 X151.027 Y121.609 E0.05792
G1 X150.026 Y123.080 E0.05577
G1 X148.817 Y124.645 E0.06201
G1 X147.643 Y125.989 E0.05597
G1 X146.393 Y127.260 E0.05589
G1 X144.901 Y128.602 E0.06291
G1 X143.528 Y129.696 E0.05507
G1 X142.017 Y130.760 E0.05792
G1 X140.449 Y131.729 E0.05780
G1 X138.884 Y132.573 E0.05577
G1 X137.062 Y133.417 E0.06296
G1 X135.424 Y134.058 E0.05514
G1 X133.671 Y134.628 E0.05780
G1 X131.791 Y135.113 E0.06088
G1 X130.068 Y135.452 E0.05507
G1 X128.234 Y135.700 E0.05804
G1 X126.399 Y135.838 E0.05768
G1 X124.617 Y135.866 E0.05589
G1 X122.616 Y135.776 E0.06282
G1 X120.866 Y135.591 E0.05516
G1 X119.044 Y135.288 E0.05792
G1 X117.247 Y134.878 E0.05780
G1 X115.535 Y134.380 E0.05589
G1 X113.650 Y133.703 E0.06280
G1 X112.032 Y133.011 E0.05518
G1 X110.380 Y132.185 E0.05792
G1 X108.784 Y131.263 E0.05780
G1 X107.296 Y130.282 E0.05589
G1 X105.691 Y129.078 E0.06291
G1 X104.352 Y127.942 E0.05507
G1 X103.017 Y126.665 E0.05792
G1 X101.763 Y125.314 E0.05780
G1 X100.630 Y123.938 E0.05589
G1 X99.454 Y122.319 E0.06274
G1 X98.507 Y120.833 E0.05524
G1 X97.607 Y119.220 E0.05792
G1 X96.807 Y117.559 E0.05780
G1 X96.130 Y115.911 E0.05589
G1 X95.484 Y114.014 E0.06284
G1 X95.017 Y112.318 E0.05514
G1 X94.633 Y110.511 E0.05792
G1 X94.358 Y108.689 E0.05780
G1 X94.197 Y106.917 E0.05577
G1 X94.138 Y104.934 E0.06221
G1 X94.192 Y103.152 E0.05591
G1 X94.358 Y101.315 E0.05784
G1 X94.632 Y99.490 E0.05784
G1 X94.997 Y97.771 E0.05512
G1 X95.528 Y95.839 E0.06282
G1 X96.106 Y94.151 E0.05593
G1 X96.806 Y92.444 E0.05784
G1 X97.606 Y90.782 E0.05784
G1 X98.461 Y89.245 E0.05514
G1 X99.538 Y87.557 E0.06280
G1 X100.588 Y86.114 E0.05593
G1 X101.723 Y84.732 E0.05608
G1 F5760
G1 X103.014 Y83.337 E-0.65836
G1 F5760
G1 X103.226 Y83.134 E-0.10164
G1 E-0.04000 F2100.00000
G1 X109.200 Y91.304 F7200.000
G1 E0.80000 F2100.00000
G1 F1680
G1 X110.217 Y90.211 E0.04681
G1 X111.310 Y89.194 E0.04681
G1 X112.473 Y88.257 E0.04681
G1 X113.699 Y87.405 E0.04681
G1 X114.983 Y86.644 E0.04681
G1 X116.318 Y85.975 E0.04681
G1 X117.697 Y85.404 E0.04681
G1 X119.114 Y84.932 E0.04681
G1 X120.561 Y84.563 E0.04681
G1 X122.030 Y84.298 E0.04681
G1 X123.514 Y84.139 E0.04681
G1 X124.988 Y84.086 E0.04624
G1 X126.498 Y84.138 E0.04737
G1 X128.010 Y84.301 E0.04769
G1 X129.453 Y84.563 E0.04597
G1 X130.899 Y84.932 E0.04679
G1 X132.315 Y85.404 E0.04681
G1 X133.695 Y85.975 E0.04681
G1 X135.030 Y86.644 E0.04681
G1 X136.314 Y87.405 E0.04681
G1 X137.540 Y88.257 E0.04681
G1 X138.688 Y89.182 E0.04624
G1 X139.795 Y90.211 E0.04737
G1 X140.813 Y91.304 E0.04682
G1 X141.738 Y92.452 E0.04624
G1 X142.601 Y93.692 E0.04737
G1 X143.363 Y94.977 E0.04683
G1 X144.031 Y96.312 E0.04681
G1 X144.602 Y97.691 E0.04681
G1 X145.074 Y99.108 E0.04681
G1 X145.443 Y100.554 E0.04681
G1 X145.705 Y102.006 E0.04624
G1 X145.868 Y103.508 E0.04737
G1 X145.921 Y105.000 E0.04682
G1 X145.868 Y106.492 E0.04681
G1 X145.708 Y107.976 E0.04681
G1 X145.443 Y109.446 E0.04681
G1 X145.078 Y110.875 E0.04624
G1 X144.603 Y112.309 E0.04737
G1 X144.031 Y113.688 E0.04683
G1 X143.363 Y115.023 E0.04681
G1 X142.601 Y116.307 E0.04681
G1 X141.750 Y117.534 E0.04681
G1 X140.813 Y118.696 E0.04681
G1 X139.795 Y119.789 E0.04681
G1 X138.703 Y120.806 E0.04681
G1 X137.554 Y121.732 E0.04624
G1 X136.314 Y122.594 E0.04737
G1 X135.030 Y123.356 E0.04683
G1 X133.695 Y124.025 E0.04681
G1 X132.332 Y124.589 E0.04624
G1 X130.899 Y125.067 E0.04737
G1 X129.452 Y125.437 E0.04683
G1 X127.983 Y125.702 E0.04681
G1 X126.498 Y125.861 E0.04681
G1 X125.006 Y125.915 E0.04681
G1 X123.514 Y125.861 E0.04681
G1 X122.048 Y125.704 E0.04624
G1 X120.561 Y125.437 E0.04737
G1 X119.114 Y125.068 E0.04683
G1 X117.697 Y124.596 E0.04681
G1 X116.318 Y124.025 E0.04681
G1 X114.983 Y123.356 E0.04681
G1 X113.699 Y122.595 E0.04681
G1 X112.473 Y121.743 E0.04681
G1 X111.310 Y120.806 E0.04681
G1 X110.217 Y119.789 E0.04681
G1 X109.200 Y118.696 E0.04681
G1 X108.263 Y117.534 E0.04681
G1 X107.412 Y116.307 E0.04681
G1 X106.650 Y115.023 E0.04681
G1 X105.982 Y113.688 E0.04681
G1 X105.417 Y112.326 E0.04624
G1 X104.939 Y110.893 E0.04737
G1 X104.570 Y109.446 E0.04683
G1 X104.304 Y107.976 E0.04681
G1 X104.145 Y106.492 E0.04681
G1 X104.092 Y105.000 E0.04681
G1 X104.145 Y103.508 E0.04681
G1 X104.304 Y102.024 E0.04681
G1 X104.570 Y100.554 E0.04681
G1 X104.939 Y99.108 E0.04681
G1 X105.410 Y97.691 E0.04681
G1 X105.982 Y96.312 E0.04681
G1 X106.650 Y94.977 E0.04681
G1 X107.412 Y93.693 E0.04681
G1 X108.263 Y92.466 E0.04681
G1 X109.162 Y91.350 E0.04493
G1 X109.485 Y91.551 F7200.000
G1 F1680
G1 X110.484 Y90.478 E0.04597
G1 X111.557 Y89.479 E0.04597
G1 X112.699 Y88.559 E0.04597
G1 X113.903 Y87.723 E0.04597
G1 X115.164 Y86.975 E0.04597
G1 X116.475 Y86.318 E0.04597
G1 X117.829 Y85.757 E0.04597
G1 X119.220 Y85.294 E0.04597
G1 X120.641 Y84.932 E0.04597
G1 X122.084 Y84.672 E0.04597
G1 X123.541 Y84.515 E0.04597
G1 X124.988 Y84.463 E0.04540
G1 X126.471 Y84.515 E0.04652
G1 X127.956 Y84.675 E0.04684
G1 X129.372 Y84.932 E0.04512
G1 X130.792 Y85.294 E0.04595
G1 X132.183 Y85.757 E0.04597
G1 X133.538 Y86.318 E0.04597
G1 X134.849 Y86.975 E0.04597
G1 X136.110 Y87.723 E0.04597
G1 X137.314 Y88.559 E0.04597
G1 X138.441 Y89.467 E0.04540
G1 X139.528 Y90.478 E0.04652
G1 X140.528 Y91.551 E0.04598
G1 X141.436 Y92.678 E0.04540
G1 X142.283 Y93.896 E0.04652
G1 X143.032 Y95.157 E0.04598
G1 X143.688 Y96.468 E0.04597
G1 X144.249 Y97.823 E0.04597
G1 X144.712 Y99.214 E0.04597
G1 X145.074 Y100.634 E0.04597
G1 X145.332 Y102.059 E0.04540
G1 X145.491 Y103.535 E0.04652
G1 X145.544 Y105.000 E0.04598
G1 X145.492 Y106.465 E0.04597
G1 X145.335 Y107.923 E0.04597
G1 X145.074 Y109.366 E0.04597
G1 X144.716 Y110.769 E0.04540
G1 X144.249 Y112.177 E0.04652
G1 X143.688 Y113.532 E0.04598
G1 X143.032 Y114.843 E0.04597
G1 X142.284 Y116.103 E0.04597
G1 X141.447 Y117.308 E0.04597
G1 X140.528 Y118.449 E0.04597
G1 X139.529 Y119.522 E0.04597
G1 X138.456 Y120.521 E0.04597
G1 X137.328 Y121.430 E0.04540
G1 X136.110 Y122.277 E0.04652
G1 X134.849 Y123.025 E0.04598
G1 X133.538 Y123.682 E0.04597
G1 X132.200 Y124.236 E0.04540
G1 X130.793 Y124.705 E0.04652
G1 X129.372 Y125.068 E0.04598
G1 X127.929 Y125.328 E0.04597
G1 X126.472 Y125.485 E0.04597
G1 X125.006 Y125.537 E0.04597
G1 X123.541 Y125.485 E0.04597
G1 X122.102 Y125.330 E0.04540
G1 X120.641 Y125.068 E0.04652
G1 X119.220 Y124.706 E0.04598
G1 X117.829 Y124.243 E0.04597
G1 X116.475 Y123.682 E0.04597
G1 X115.164 Y123.025 E0.04597
G1 X113.903 Y122.277 E0.04597
G1 X112.699 Y121.441 E0.04597
G1 X111.557 Y120.521 E0.04597
G1 X110.484 Y119.522 E0.04597
G1 X109.485 Y118.449 E0.04597
G1 X108.565 Y117.308 E0.04597
G1 X107.729 Y116.103 E0.04597
G1 X106.981 Y114.843 E0.04597
G1 X106.325 Y113.532 E0.04597
G1 X105.771 Y112.194 E0.04540
G1 X105.301 Y110.786 E0.04652
G1 X104.938 Y109.366 E0.04598
G1 X104.678 Y107.923 E0.04597
G1 X104.521 Y106.465 E0.04597
G1 X104.469 Y105.000 E0.04597
G1 X104.521 Y103.535 E0.04597
G1 X104.678 Y102.077 E0.04597
G1 X104.938 Y100.634 E0.04597
G1 X105.301 Y99.214 E0.04597
G1 X105.764 Y97.823 E0.04597
G1 X106.325 Y96.468 E0.04597
G1 X106.981 Y95.157 E0.04597
G1 X107.729 Y93.897 E0.04597
G1 X108.565 Y92.692 E0.04597
G1 X109.448 Y91.598 E0.04409
G1 X109.770 Y91.798 F7200.000
G1 F1050
G1 X110.751 Y90.745 E0.04512
G1 X111.804 Y89.764 E0.04512
G1 X112.925 Y88.861 E0.04512
G1 X114.107 Y88.040 E0.04512
G1 X115.345 Y87.306 E0.04512
G1 X116.632 Y86.662 E0.04512
G1 X117.961 Y86.111 E0.04512
G1 X119.327 Y85.656 E0.04512
G1 X120.721 Y85.301 E0.04512
G1 X122.137 Y85.045 E0.04512
G1 X123.568 Y84.891 E0.04512
G1 X124.988 Y84.841 E0.04456
G1 X126.444 Y84.891 E0.04568
G1 X127.902 Y85.048 E0.04598
G1 X129.292 Y85.301 E0.04428
G1 X130.686 Y85.656 E0.04512
G1 X132.052 Y86.111 E0.04512
G1 X133.381 Y86.662 E0.04512
G1 X134.668 Y87.306 E0.04512
G1 X135.906 Y88.040 E0.04512
G1 X137.088 Y88.861 E0.04512
G1 X138.195 Y89.753 E0.04456
G1 X139.262 Y90.745 E0.04568
G1 X140.242 Y91.798 E0.04513
G1 X141.134 Y92.905 E0.04456
G1 X141.966 Y94.101 E0.04568
G1 X142.701 Y95.338 E0.04513
G1 X143.345 Y96.625 E0.04512
G1 X143.895 Y97.955 E0.04512
G1 X144.350 Y99.320 E0.04512
G1 X144.706 Y100.715 E0.04512
G1 X144.958 Y102.113 E0.04456
G1 X145.115 Y103.562 E0.04568
G1 X145.167 Y105.000 E0.04513
G1 X145.115 Y106.438 E0.04512
G1 X144.961 Y107.869 E0.04512
G1 X144.706 Y109.285 E0.04512
G1 X144.354 Y110.662 E0.04456
G1 X143.895 Y112.045 E0.04568
G1 X143.345 Y113.375 E0.04513
G1 X142.701 Y114.662 E0.04512
G1 X141.966 Y115.899 E0.04512
G1 X141.145 Y117.082 E0.04512
G1 X140.242 Y118.202 E0.04512
G1 X139.262 Y119.255 E0.04512
G1 X138.208 Y120.236 E0.04512
G1 X137.102 Y121.128 E0.04456
G1 X135.906 Y121.960 E0.04568
G1 X134.668 Y122.694 E0.04513
G1 X133.381 Y123.338 E0.04512
G1 X132.068 Y123.882 E0.04456
G1 X130.686 Y124.343 E0.04568
G1 X129.292 Y124.699 E0.04513
G1 X127.875 Y124.955 E0.04512
G1 X126.445 Y125.109 E0.04512
G1 X125.006 Y125.160 E0.04512
G1 X123.568 Y125.109 E0.04512
G1 X122.155 Y124.957 E0.04456
G1 X120.721 Y124.699 E0.04568
G1 X119.327 Y124.344 E0.04513
G1 X117.961 Y123.889 E0.04512
G1 X116.632 Y123.338 E0.04512
G1 X115.345 Y122.694 E0.04512
G1 X114.107 Y121.960 E0.04512
G1 X112.925 Y121.139 E0.04512
G1 X111.804 Y120.236 E0.04512
G1 X110.751 Y119.255 E0.04512
G1 X109.770 Y118.202 E0.04512
G1 X108.867 Y117.082 E0.04512
G1 X108.047 Y115.899 E0.04512
G1 X107.312 Y114.662 E0.04512
G1 X106.668 Y113.375 E0.04512
G1 X106.124 Y112.062 E0.04456
G1 X105.663 Y110.680 E0.04568
G1 X105.307 Y109.285 E0.04513
G1 X105.051 Y107.869 E0.04512
G1 X104.898 Y106.438 E0.04512
G1 X104.846 Y105.000 E0.04512
G1 X104.898 Y103.562 E0.04512
G1 X105.051 Y102.131 E0.04512
G1 X105.307 Y100.715 E0.04512
G1 X105.663 Y99.320 E0.04512
G1 X106.117 Y97.955 E0.04512
G1 X106.668 Y96.625 E0.04512
G1 X107.312 Y95.338 E0.04512
G1 X108.047 Y94.101 E0.04512
G1 X108.867 Y92.918 E0.04512
G1 X109.733 Y91.845 E0.04324
G1 X109.640 Y91.420 F7200.000
G1 F5760
G1 X110.751 Y90.745 E-0.51918
G1 F5760
G1 X111.260 Y90.271 E-0.24082
G1 E-0.04000 F2100.00000
G1 X104.264 Y86.902 F7200.000
G1 E0.80000 F2100.00000
G1 F1680
G1 X105.398 Y85.679 E0.05231
G1 X106.589 Y84.541 E0.05164
G1 X107.845 Y83.476 E0.05165
G1 X109.163 Y82.488 E0.05165
G1 X110.521 Y81.592 E0.05100
G1 X111.965 Y80.757 E0.05231
G1 X113.438 Y80.021 E0.05164
G1 X114.953 Y79.374 E0.05165
G1 X116.504 Y78.818 E0.05165
G1 X118.065 Y78.362 E0.05100
G1 X119.691 Y77.990 E0.05230
G1 X121.316 Y77.721 E0.05164
G1 X122.954 Y77.549 E0.05165
G1 X124.600 Y77.475 E0.05165
G1 X126.226 Y77.499 E0.05099
G1 X127.889 Y77.624 E0.05230
G1 X129.521 Y77.845 E0.05164
G1 X131.138 Y78.164 E0.05165
G1 X132.732 Y78.578 E0.05165
G1 X134.279 Y79.081 E0.05099
G1 X135.832 Y79.690 E0.05230
G1 X137.326 Y80.383 E0.05164
G1 X138.776 Y81.164 E0.05165
G1 X140.177 Y82.030 E0.05165
G1 X141.507 Y82.966 E0.05099
G1 X142.812 Y84.006 E0.05230
G1 X144.035 Y85.108 E0.05164
G1 X145.191 Y86.282 E0.05165
G1 X146.274 Y87.523 E0.05165
G1 X147.269 Y88.809 E0.05099
G1 X148.209 Y90.188 E0.05230
G1 X149.054 Y91.602 E0.05165
G1 X149.803 Y93.045 E0.05099
G1 X150.481 Y94.569 E0.05230
G1 X151.060 Y96.112 E0.05165
G1 X151.539 Y97.666 E0.05099
G1 X151.935 Y99.286 E0.05230
G1 X152.228 Y100.907 E0.05164
G1 X152.424 Y102.542 E0.05165
G1 X152.522 Y104.187 E0.05165
G1 X152.522 Y105.813 E0.05099
G1 X152.422 Y107.478 E0.05231
G1 X152.228 Y109.093 E0.05099
G1 X151.935 Y110.714 E0.05165
G1 X151.545 Y112.314 E0.05165
G1 X151.060 Y113.888 E0.05164
G1 X150.473 Y115.450 E0.05230
G1 X149.812 Y116.936 E0.05099
G1 X149.054 Y118.398 E0.05165
G1 X148.209 Y119.813 E0.05165
G1 X147.282 Y121.174 E0.05164
G1 X146.261 Y122.493 E0.05230
G1 X145.191 Y123.718 E0.05099
G1 X144.035 Y124.892 E0.05164
G1 X142.796 Y126.008 E0.05230
G1 X141.524 Y127.022 E0.05099
G1 X140.177 Y127.970 E0.05165
G1 X138.776 Y128.836 E0.05165
G1 X137.326 Y129.617 E0.05164
G1 X135.812 Y130.318 E0.05230
G1 X134.298 Y130.912 E0.05099
G1 X132.732 Y131.422 E0.05165
G1 X131.138 Y131.836 E0.05165
G1 X129.522 Y132.155 E0.05164
G1 X127.869 Y132.378 E0.05230
G1 X126.247 Y132.500 E0.05099
G1 X124.600 Y132.525 E0.05164
G1 X122.933 Y132.449 E0.05230
G1 X121.316 Y132.279 E0.05100
G1 X119.691 Y132.010 E0.05165
G1 X118.085 Y131.644 E0.05165
G1 X116.504 Y131.182 E0.05164
G1 X114.934 Y130.618 E0.05230
G1 X113.438 Y129.979 E0.05100
G1 X111.965 Y129.243 E0.05165
G1 X110.538 Y128.419 E0.05165
G1 X109.164 Y127.512 E0.05164
G1 X107.829 Y126.511 E0.05231
G1 X106.589 Y125.459 E0.05100
G1 X105.398 Y124.321 E0.05164
G1 X104.264 Y123.098 E0.05231
G1 X103.231 Y121.841 E0.05100
G1 X102.263 Y120.509 E0.05165
G1 X101.376 Y119.121 E0.05165
G1 X100.574 Y117.682 E0.05164
G1 X99.851 Y116.179 E0.05231
G1 X99.234 Y114.674 E0.05100
G1 X98.702 Y113.115 E0.05165
G1 X98.263 Y111.527 E0.05165
G1 X97.921 Y109.916 E0.05164
G1 X97.674 Y108.266 E0.05231
G1 X97.528 Y106.646 E0.05100
G1 X97.478 Y105.000 E0.05165
G1 X97.528 Y103.354 E0.05165
G1 X97.674 Y101.734 E0.05100
G1 X97.921 Y100.084 E0.05231
G1 X98.263 Y98.473 E0.05164
G1 X98.702 Y96.885 E0.05165
G1 X99.234 Y95.326 E0.05165
G1 X99.851 Y93.821 E0.05100
G1 X100.574 Y92.318 E0.05231
G1 X101.376 Y90.879 E0.05164
G1 X102.263 Y89.491 E0.05165
G1 X103.231 Y88.159 E0.05165
G1 X104.226 Y86.949 E0.04912
G1 X103.980 Y86.654 F7200.000
G1 F1680
G1 X105.129 Y85.414 E0.05301
G1 X106.336 Y84.261 E0.05235
G1 X107.610 Y83.181 E0.05236
G1 X108.946 Y82.180 E0.05236
G1 X110.322 Y81.271 E0.05170
G1 X111.786 Y80.425 E0.05301
G1 X113.280 Y79.678 E0.05235
G1 X114.815 Y79.022 E0.05235
G1 X116.387 Y78.459 E0.05236
G1 X117.970 Y77.997 E0.05170
G1 X119.618 Y77.620 E0.05301
G1 X121.265 Y77.347 E0.05235
G1 X122.926 Y77.173 E0.05235
G1 X124.594 Y77.098 E0.05236
G1 X126.243 Y77.123 E0.05170
G1 X127.929 Y77.248 E0.05301
G1 X129.583 Y77.473 E0.05235
G1 X131.222 Y77.796 E0.05235
G1 X132.838 Y78.216 E0.05236
G1 X134.406 Y78.726 E0.05170
G1 X135.980 Y79.343 E0.05301
G1 X137.495 Y80.045 E0.05235
G1 X138.965 Y80.837 E0.05235
