( Made using CamBam - http://www.cambam.co.uk )
( wasserrad_seite2 7/8/2018 1:09:32 PM )
( T3 : 3.0 )
( T4 : 4.0 )
G21 G90 G64 G40
G0 Z3.0
( T3 : 3.0 )
T3 M6
( Vertiefung )
G17
M3 S1000
G0 X-54.6954 Y27.00766
G0 Z1.0
G1 F300.0 Z-2.0
G2 F800.0 X-37.0463 Y48.46207 I54.6954 J-27.00766
G0 Z3.0
G0 X-35.36068 Y53.34149
G0 Z1.0
G1 F300.0 Z-2.0
G1 F800.0 X-80.28543 Y89.72084
G1 X-79.53198 Y90.39746
G1 X-34.47991 Y53.91502
G3 X-35.36068 Y53.34149 I34.47991 J-53.91502
G1 F300.0 X-35.73827 Y52.87521
G1 F800.0 X-81.20971 Y89.69725
G1 X-79.5521 Y91.18581
G1 X-33.4513 Y53.85412
G3 X-35.39701 Y52.5957 I33.4513 J-53.85412
G3 X-35.50292 Y52.68462 I-2.56027 J-2.94194
G1 X-35.73827 Y52.87521
G1 F300.0 X-36.49346 Y51.94263
G1 F800.0 X-36.25811 Y51.75205
G2 X-35.61276 Y50.99287 I-1.69917 J-2.09829
G2 X-31.36597 Y53.70957 I35.61276 J-50.99287
G1 X-79.59235 Y92.76252
G1 X-83.05826 Y89.65006
G1 X-36.49346 Y51.94263
G0 Z3.0
G0 X-28.3748 Y53.9988
G0 Z1.0
G1 F300.0 Z-2.0
G3 F800.0 X-30.5 Y52.82755 I28.3748 J-53.9988
G3 X-37.0463 Y48.46207 I30.5 J-52.82755
G3 X-37.01329 Y50.81947 I-0.91098 J1.19169
G1 X-84.90681 Y89.60288
G1 X-79.63259 Y94.33922
G1 X-30.01653 Y54.16092
G3 X-28.3748 Y53.9988 I0.94398 J1.16572
G2 X-1.4858 Y60.9819 I28.3748 J-53.9988
G3 X-0.07345 Y62.86969 I-0.03654 J1.49955
G1 X-16.0238 Y122.39722
G1 X-8.97292 Y123.1289
G1 X7.55111 Y61.46038
G3 X8.784 Y60.36424 I1.44889 J0.38823
G2 X34.64223 Y50.20873 I-8.784 J-60.36424
G3 X36.89446 Y50.90581 I0.85186 J1.23464
G1 X58.97975 Y108.43998
G1 X65.11411 Y104.88752
G1 X42.23448 Y45.28406
G3 X42.58761 Y43.67259 I1.40037 J-0.53755
G2 X57.5381 Y20.25752 I-42.58761 J-43.67259
G3 X59.76993 Y19.49765 I1.41487 J0.49814
G1 X111.45505 Y53.06236
G1 X114.32975 Y46.58267
G1 X60.78571 Y11.81077
G3 X60.12421 Y10.2995 I0.81696 J-1.25801
G2 X61.0 Y0.0 I-60.12421 J-10.2995
G2 X58.45637 Y-17.43137 I-61.0 J0.0
G3 X59.81532 Y-19.35795 I1.43745 J-0.42864
G1 X121.3583 Y-22.58328
G1 X119.87532 Y-29.51517
G1 X56.11887 Y-26.17383
G3 X54.6954 Y-27.00765 I-0.0785 J-1.49794
G3 X58.45637 Y-17.43137 I-54.6954 J27.00765
G0 Z3.0
G0 X59.96074 Y-22.36969
G0 Z1.0
G1 F300.0 Z-2.0
G1 F800.0 X117.68887 Y-25.39509
G1 X117.47702 Y-26.38536
G1 X59.58528 Y-23.35138
G3 X59.96074 Y-22.36969 I-59.58528 J23.35138
G1 F300.0 X59.39858 Y-22.15997
G3 F800.0 X59.55176 Y-21.74498 I-59.39858 J22.15997
G3 X59.68971 Y-21.75466 I0.34207 J3.88497
G1 X118.42276 Y-24.83273
G1 X117.95668 Y-27.01132
G1 X58.71733 Y-23.90672
G3 X59.39858 Y-22.15997 I-58.71733 J23.90672
G1 F300.0 X58.27428 Y-21.74052
G2 F800.0 X56.94529 Y-25.0155 I-58.27428 J21.74052
G1 X118.916 Y-28.26325
G1 X119.89053 Y-23.70801
G1 X59.75252 Y-20.55631
G2 X58.78418 Y-20.32145 I0.14131 J2.6963
G2 X58.27428 Y-21.74052 I-58.78418 J20.32145
G1 F300.0 X59.96074 Y-22.36969
G1 Z-4.0
G1 F800.0 X117.68887 Y-25.39509
G1 X117.47702 Y-26.38536
G1 X59.58528 Y-23.35138
G3 X59.96074 Y-22.36969 I-59.58528 J23.35138
G1 F300.0 X59.39858 Y-22.15997
G3 F800.0 X59.55176 Y-21.74498 I-59.39858 J22.15997
G3 X59.68971 Y-21.75466 I0.34207 J3.88497
G1 X118.42276 Y-24.83273
G1 X117.95668 Y-27.01132
G1 X58.71733 Y-23.90672
G3 X59.39858 Y-22.15997 I-58.71733 J23.90672
G1 F300.0 X58.27428 Y-21.74052
G2 F800.0 X56.94529 Y-25.0155 I-58.27428 J21.74052
G1 X118.916 Y-28.26325
G1 X119.89053 Y-23.70801
G1 X59.75252 Y-20.55631
G2 X58.78418 Y-20.32145 I0.14131 J2.6963
G2 X58.27428 Y-21.74052 I-58.78418 J20.32145
G0 Z3.0
G0 X-34.47991 Y53.91502
G0 Z-1.0
G1 F300.0 Z-4.0
G3 F800.0 X-35.36068 Y53.34149 I34.47991 J-53.91502
G1 X-80.28543 Y89.72084
G1 X-79.53198 Y90.39746
G1 X-34.47991 Y53.91502
G1 F300.0 X-34.10231 Y54.3813
G1 F800.0 X-33.4513 Y53.85412
G3 X-35.39701 Y52.5957 I33.4513 J-53.85412
G3 X-35.50292 Y52.68462 I-2.56027 J-2.94194
G1 X-81.20971 Y89.69725
G1 X-79.5521 Y91.18581
G1 X-34.10231 Y54.3813
G1 F300.0 X-33.34713 Y55.31388
G1 F800.0 X-79.59235 Y92.76252
G1 X-83.05826 Y89.65006
G1 X-36.25811 Y51.75205
G2 X-35.61276 Y50.99287 I-1.69917 J-2.09829
G2 X-31.36597 Y53.70957 I35.61276 J-50.99287
G1 X-33.34713 Y55.31388
G0 Z3.0
G0 X2.48437 Y64.9149
G0 Z1.0
G1 F300.0 Z-2.0
G1 F800.0 X-12.21569 Y119.77628
G1 X-11.20842 Y119.88081
G1 X3.79562 Y63.88494
G3 X2.74595 Y63.93866 I-3.79562 J-63.88494
G1 X2.48437 Y64.9149
G1 F300.0 X1.90481 Y64.75961
G1 F800.0 X-12.97731 Y120.30047
G1 X-10.76132 Y120.53042
G1 X4.59199 Y63.23108
G3 X2.2782 Y63.35665 I-4.59199 J-63.23108
G3 X2.24478 Y63.49085 I-3.80053 J-0.8752
G1 X1.90481 Y64.75961
G1 F300.0 X0.7457 Y64.44903
G1 F800.0 X1.08567 Y63.18027
G2 X1.16153 Y62.18675 I-2.608 J-0.69881
G2 X6.19409 Y61.88841 I-1.16153 J-62.18675
G1 X-9.86712 Y121.82966
G1 X-14.50056 Y121.34884
G1 X0.7457 Y64.44903
G0 Z3.0
G0 X8.784 Y60.36424
G0 Z-1.0
G1 F300.0 Z-2.0
G3 F800.0 X-1.4858 Y60.9819 I-8.784 J-60.36424
G0 Z3.0
G0 X2.74595 Y63.93866
G0 Z-1.0
G1 F300.0 Z-4.0
G1 F800.0 X-12.21569 Y119.77628
G1 X-11.20842 Y119.88081
G1 X3.79562 Y63.88494
G3 X2.74595 Y63.93866 I-3.79562 J-63.88494
G1 F300.0 X2.1664 Y63.78337
G1 F800.0 X-12.97731 Y120.30047
G1 X-10.76132 Y120.53042
G1 X4.59199 Y63.23108
G3 X2.2782 Y63.35665 I-4.59199 J-63.23108
G3 X2.24478 Y63.49085 I-3.80053 J-0.8752
G1 X2.1664 Y63.78337
G1 F300.0 X1.00729 Y63.47279
G1 F800.0 X1.08567 Y63.18027
G2 X1.16153 Y62.18675 I-2.608 J-0.69881
G2 X6.19409 Y61.88841 I-1.16153 J-62.18675
G1 X-9.86712 Y121.82966
G1 X-14.50056 Y121.34884
G1 X1.00729 Y63.47279
G0 Z3.0
G0 X8.784 Y60.36424
G0 Z-1.0
G1 F300.0 Z-4.0
G3 F800.0 X-1.4858 Y60.9819 I-8.784 J-60.36424
G0 Z3.0
G0 X39.80372 Y50.11343
G0 Z1.0
G1 F300.0 Z-2.0
G1 F800.0 X60.52003 Y104.08125
G1 X61.39636 Y103.57376
G1 X40.62135 Y49.45299
G3 X39.80372 Y50.11343 I-40.62135 J-49.45299
G1 F300.0 X39.43055 Y49.6436
G3 F800.0 X39.08321 Y49.91752 I-39.43055 J-49.6436
G3 X39.13505 Y50.04573 I-3.58912 J1.52585
G1 X60.21197 Y104.953
G1 X62.13991 Y103.83651
G1 X40.88129 Y48.45591
G3 X39.43055 Y49.6436 I-40.88129 J-48.45591
G1 F300.0 X38.6842 Y48.70394
G2 F800.0 X41.38822 Y46.42798 I-38.6842 J-48.70394
G1 X63.62701 Y104.36201
G1 X59.59586 Y106.69649
G1 X38.01475 Y50.47577
G2 X37.49216 Y49.62741 I-2.52067 J0.96759
G2 X38.6842 Y48.70394 I-37.49216 J-49.62741
G0 Z3.0
G0 X42.58761 Y43.67259
G0 Z-1.0
G1 F300.0 Z-2.0
G3 F800.0 X34.64223 Y50.20873 I-42.58761 J-43.67259
G0 Z3.0
G0 X39.80372 Y50.11343
G0 Z-1.0
G1 F300.0 Z-4.0
G1 F800.0 X60.52003 Y104.08125
G1 X61.39636 Y103.57376
G1 X40.62135 Y49.45299
G3 X39.80372 Y50.11343 I-40.62135 J-49.45299
G1 F300.0 X39.43055 Y49.6436
G3 F800.0 X39.08321 Y49.91752 I-39.43055 J-49.6436
G3 X39.13505 Y50.04573 I-3.58912 J1.52585
G1 X60.21197 Y104.953
G1 X62.13991 Y103.83651
G1 X40.88129 Y48.45591
G3 X39.43055 Y49.6436 I-40.88129 J-48.45591
G1 F300.0 X38.6842 Y48.70394
G2 F800.0 X41.38822 Y46.42798 I-38.6842 J-48.70394
G1 X63.62701 Y104.36201
G1 X59.59586 Y106.69649
G1 X38.01475 Y50.47577
G2 X37.49216 Y49.62741 I-2.52067 J0.96759
G2 X38.6842 Y48.70394 I-37.49216 J-49.62741
G0 Z3.0
G0 X42.58761 Y43.67259
G0 Z-1.0
G1 F300.0 Z-4.0
G3 F800.0 X34.64223 Y50.20873 I-42.58761 J-43.67259
G0 Z3.0
G0 X61.65783 Y17.14658
G0 Z1.0
G1 F300.0 Z-2.0
G1 F800.0 X110.13916 Y48.63072
G1 X110.54983 Y47.70505
G1 X61.9311 Y16.13168
G3 X61.65783 Y17.14658 I-61.9311 J-16.13168
G1 F300.0 X61.33104 Y17.64978
G1 F800.0 X110.40233 Y49.51705
G1 X111.30581 Y47.48058
G1 X61.55533 Y15.17224
G3 X60.95976 Y17.41159 I-61.55533 J-15.17224
G3 X61.07706 Y17.48484 I-2.00679 J3.34407
G1 X61.33104 Y17.64978
G1 F300.0 X60.67748 Y18.65618
G1 F800.0 X60.4235 Y18.49125
G2 X59.50205 Y18.11208 I-1.47053 J2.26441
G2 X60.77345 Y13.23364 I-59.50205 J-18.11208
G1 X112.81778 Y47.03163
G1 X110.92869 Y51.2897
G1 X60.67748 Y18.65618
G0 Z3.0
G0 X60.12421 Y10.2995
G0 Z-1.0
G1 F300.0 Z-2.0
G3 F800.0 X57.5381 Y20.25752 I-60.12421 J-10.2995
G0 Z3.0
G0 X61.65783 Y17.14658
G0 Z-1.0
G1 F300.0 Z-4.0
G1 F800.0 X110.13916 Y48.63072
G1 X110.54983 Y47.70505
G1 X61.9311 Y16.13168
G3 X61.65783 Y17.14658 I-61.9311 J-16.13168
G1 F300.0 X61.33104 Y17.64978
G1 F800.0 X110.40233 Y49.51705
G1 X111.30581 Y47.48058
G1 X61.55533 Y15.17224
G3 X60.95976 Y17.41159 I-61.55533 J-15.17224
G3 X61.07706 Y17.48484 I-2.00679 J3.34407
G1 X61.33104 Y17.64978
G1 F300.0 X60.67748 Y18.65618
G1 F800.0 X60.4235 Y18.49125
G2 X59.50205 Y18.11208 I-1.47053 J2.26441
G2 X60.77345 Y13.23364 I-59.50205 J-18.11208
G1 X112.81778 Y47.03163
G1 X110.92869 Y51.2897
G1 X60.67748 Y18.65618
G0 Z3.0
G0 X60.12421 Y10.2995
G0 Z-1.0
G1 F300.0 Z-4.0
G3 F800.0 X57.5381 Y20.25752 I-60.12421 J-10.2995
G0 Z3.0
G0 X54.6954 Y-27.00766
G0 Z1.0
G1 F300.0 Z-2.0
G2 F800.0 X37.0463 Y-48.46207 I-54.6954 J27.00766
G0 Z3.0
G0 X35.36068 Y-53.34149
G0 Z1.0
G1 F300.0 Z-2.0
G1 F800.0 X80.28543 Y-89.72084
G1 X79.53198 Y-90.39746
G1 X34.47991 Y-53.91502
G3 X35.36068 Y-53.34149 I-34.47991 J53.91502
G1 F300.0 X35.73827 Y-52.87521
G1 F800.0 X81.20971 Y-89.69725
G1 X79.5521 Y-91.18581
G1 X33.4513 Y-53.85412
G3 X35.39701 Y-52.5957 I-33.4513 J53.85412
G3 X35.50292 Y-52.68462 I2.56027 J2.94194
G1 X35.73827 Y-52.87521
G1 F300.0 X36.49346 Y-51.94263
G1 F800.0 X83.05826 Y-89.65006
G1 X79.59235 Y-92.76252
G1 X31.36597 Y-53.70957
G3 X35.61276 Y-50.99287 I-31.36597 J53.70957
G3 X36.25811 Y-51.75205 I2.34452 J1.33912
G1 X36.49346 Y-51.94263
G1 F300.0 X37.24864 Y-51.01006
G1 F800.0 X84.90681 Y-89.60288
G1 X79.63259 Y-94.33922
G1 X30.01653 Y-54.16092
G3 X28.37481 Y-53.9988 I-0.94398 J-1.16572
G3 X37.04629 Y-48.46207 I-28.37481 J53.9988
G3 X37.01329 Y-50.81947 I0.91098 J-1.19168
G1 X37.24864 Y-51.01006
G0 Z3.0
G0 X28.3748 Y-53.9988
G0 Z1.0
G1 F300.0 Z-2.0
G2 F800.0 X1.4858 Y-60.9819 I-28.3748 J53.9988
G0 Z3.0
G0 X-2.74595 Y-63.93866
G0 Z1.0
G1 F300.0 Z-2.0
G1 F800.0 X12.21569 Y-119.77628
G1 X11.20842 Y-119.88081
G1 X-3.79562 Y-63.88494
G3 X-2.74595 Y-63.93866 I3.79562 J63.88494
G1 F300.0 X-2.1664 Y-63.78337
G1 F800.0 X12.97731 Y-120.30047
G1 X10.76132 Y-120.53042
G1 X-4.59199 Y-63.23108
G3 X-2.2782 Y-63.35665 I4.59199 J63.23108
G3 X-2.24478 Y-63.49085 I3.80053 J0.8752
G1 X-2.1664 Y-63.78337
G1 F300.0 X-1.00729 Y-63.47279
G1 F800.0 X14.50056 Y-121.34884
G1 X9.86712 Y-121.82966
G1 X-6.19409 Y-61.88841
G3 X-1.16153 Y-62.18675 I6.19409 J61.88841
G3 X-1.08567 Y-63.18027 I2.68387 J-0.2947
G1 X-1.00729 Y-63.47279
G1 F300.0 X0.15183 Y-63.16221
G1 F800.0 X16.0238 Y-122.39722
G1 X8.97292 Y-123.1289
G1 X-7.55111 Y-61.46038
G3 X-8.784 Y-60.36424 I-1.44889 J-0.38823
G3 X1.48579 Y-60.9819 I8.784 J60.36424
G3 X0.07345 Y-62.86969 I0.03655 J-1.49955
G1 X0.15183 Y-63.16221
G0 Z3.0
G0 X-8.784 Y-60.36424
G0 Z-1.0
G1 F300.0 Z-2.0
G2 F800.0 X-30.5 Y-52.82755 I8.784 J60.36424
G2 X-34.64223 Y-50.20873 I30.5 J52.82755
G0 Z3.0
G0 X-39.80372 Y-50.11343
G0 Z1.0
G1 F300.0 Z-2.0
G1 F800.0 X-60.52003 Y-104.08125
G1 X-61.39636 Y-103.57376
G1 X-40.62135 Y-49.45299
G3 X-39.80372 Y-50.11343 I40.62135 J49.45299
G1 F300.0 X-39.24358 Y-50.32846
G1 F800.0 X-60.21197 Y-104.953
G1 X-62.13991 Y-103.83651
G1 X-40.88129 Y-48.45591
G3 X-39.08321 Y-49.91752 I40.88129 J48.45591
G3 X-39.13505 Y-50.04573 I3.58912 J-1.52585
G1 X-39.24358 Y-50.32846
G1 F300.0 X-38.12328 Y-50.7585
G1 F800.0 X-59.59586 Y-106.69649
G1 X-63.62701 Y-104.36201
G1 X-41.38822 Y-46.42798
G3 X-37.49216 Y-49.62741 I41.38822 J46.42798
G3 X-38.01475 Y-50.47577 I1.99807 J-1.81596
G1 X-38.12328 Y-50.7585
G1 F300.0 X-37.00298 Y-51.18854
G1 F800.0 X-58.97975 Y-108.43998
G1 X-65.11411 Y-104.88752
G1 X-42.23448 Y-45.28406
G3 X-42.58761 Y-43.6726 I-1.40037 J0.53755
G3 X-34.64223 Y-50.20872 I42.58761 J43.6726
G3 X-36.89446 Y-50.90581 I-0.85186 J-1.23464
G1 X-37.00298 Y-51.18854
G0 Z3.0
G0 X-42.58761 Y-43.67259
G0 Z1.0
G1 F300.0 Z-2.0
G2 F800.0 X-57.5381 Y-20.25752 I42.58761 J43.67259
G3 X-59.76993 Y-19.49765 I-1.41487 J-0.49814
G1 X-111.45505 Y-53.06236
G1 X-114.32975 Y-46.58267
G1 X-60.78571 Y-11.81077
G3 X-60.12421 Y-10.2995 I-0.81696 J1.25801
G2 X-58.45637 Y17.43137 I60.12421 J10.2995
G3 X-59.81532 Y19.35795 I-1.43745 J0.42864
G1 X-121.3583 Y22.58328
G1 X-119.87532 Y29.51517
G1 X-56.11887 Y26.17383
G3 X-54.6954 Y27.00765 I0.0785 J1.49794
G3 X-58.45637 Y17.43137 I54.6954 J-27.00765
G0 Z3.0
G0 X-59.96074 Y22.36969
G0 Z1.0
G1 F300.0 Z-2.0
G1 F800.0 X-117.68887 Y25.39509
G1 X-117.47702 Y26.38536
G1 X-59.58528 Y23.35138
G3 X-59.96074 Y22.36969 I59.58528 J-23.35138
G1 F300.0 X-59.99214 Y21.77051
G1 F800.0 X-118.42276 Y24.83273
G1 X-117.95668 Y27.01132
G1 X-58.71733 Y23.90672
G3 X-59.55176 Y21.74498 I58.71733 J-23.90672
G3 X-59.68971 Y21.75466 I-0.34207 J-3.88497
G1 X-59.99214 Y21.77051
G1 F300.0 X-60.05494 Y20.57216
G1 F800.0 X-59.75252 Y20.55631
G2 X-58.78418 Y20.32145 I-0.14131 J-2.6963
G2 X-56.94529 Y25.0155 I58.78418 J-20.32145
G1 X-118.916 Y28.26325
G1 X-119.89053 Y23.70801
G1 X-60.05494 Y20.57216
G1 F300.0 X-59.96074 Y22.36969
G1 Z-4.0
G1 F800.0 X-117.68887 Y25.39509
G1 X-117.47702 Y26.38536
G1 X-59.58528 Y23.35138
G3 X-59.96074 Y22.36969 I59.58528 J-23.35138
G1 F300.0 X-59.99214 Y21.77051
G1 F800.0 X-118.42276 Y24.83273
G1 X-117.95668 Y27.01132
G1 X-58.71733 Y23.90672
G3 X-59.55176 Y21.74498 I58.71733 J-23.90672
G3 X-59.68971 Y21.75466 I-0.34207 J-3.88497
G1 X-59.99214 Y21.77051
G1 F300.0 X-60.05494 Y20.57216
G1 F800.0 X-59.75252 Y20.55631
G2 X-58.78418 Y20.32145 I-0.14131 J-2.6963
G2 X-56.94529 Y25.0155 I58.78418 J-20.32145
G1 X-118.916 Y28.26325
G1 X-119.89053 Y23.70801
G1 X-60.05494 Y20.57216
G0 Z3.0
G0 X-54.6954 Y27.00766
G0 Z-1.0
G1 F300.0 Z-4.0
G2 F800.0 X-37.0463 Y48.46207 I54.6954 J-27.00766
G0 Z3.0
G0 X-28.3748 Y53.9988
G0 Z-1.0
G1 F300.0 Z-4.0
G3 F800.0 X-30.5 Y52.82755 I28.3748 J-53.9988
G3 X-37.0463 Y48.46207 I30.5 J-52.82755
G3 X-37.01329 Y50.81947 I-0.91098 J1.19169
G1 X-84.90681 Y89.60288
G1 X-79.63259 Y94.33922
G1 X-30.01653 Y54.16092
G3 X-28.3748 Y53.9988 I0.94398 J1.16572
G2 X-1.4858 Y60.9819 I28.3748 J-53.9988
G3 X-0.07345 Y62.86969 I-0.03654 J1.49955
G1 X-16.0238 Y122.39722
G1 X-8.97292 Y123.1289
G1 X7.55111 Y61.46038
G3 X8.784 Y60.36424 I1.44889 J0.38823
G2 X34.64223 Y50.20873 I-8.784 J-60.36424
G3 X36.89446 Y50.90581 I0.85186 J1.23464
G1 X58.97975 Y108.43998
G1 X65.11411 Y104.88752
G1 X42.23448 Y45.28406
G3 X42.58761 Y43.67259 I1.40037 J-0.53755
G2 X57.5381 Y20.25752 I-42.58761 J-43.67259
G3 X59.76993 Y19.49765 I1.41487 J0.49814
G1 X111.45505 Y53.06236
G1 X114.32975 Y46.58267
G1 X60.78571 Y11.81077
G3 X60.12421 Y10.2995 I0.81696 J-1.25801
G2 X61.0 Y0.0 I-60.12421 J-10.2995
G2 X58.45637 Y-17.43137 I-61.0 J0.0
G3 X59.81532 Y-19.35795 I1.43745 J-0.42864
G1 X121.3583 Y-22.58328
G1 X119.87532 Y-29.51517
G1 X56.11887 Y-26.17383
G3 X54.6954 Y-27.00765 I-0.0785 J-1.49794
G3 X58.45637 Y-17.43137 I-54.6954 J27.00765
G0 Z3.0
G0 X54.6954 Y-27.00766
G0 Z-1.0
G1 F300.0 Z-4.0
G2 F800.0 X37.0463 Y-48.46207 I-54.6954 J27.00766
G0 Z3.0
G0 X35.36068 Y-53.34149
G0 Z-1.0
G1 F300.0 Z-4.0
G1 F800.0 X80.28543 Y-89.72084
G1 X79.53198 Y-90.39746
G1 X34.47991 Y-53.91502
G3 X35.36068 Y-53.34149 I-34.47991 J53.91502
G1 F300.0 X35.73827 Y-52.87521
G1 F800.0 X81.20971 Y-89.69725
G1 X79.5521 Y-91.18581
G1 X33.4513 Y-53.85412
G3 X35.39701 Y-52.5957 I-33.4513 J53.85412
G3 X35.50292 Y-52.68462 I2.56027 J2.94194
G1 X35.73827 Y-52.87521
G1 F300.0 X36.49346 Y-51.94263
G1 F800.0 X83.05826 Y-89.65006
G1 X79.59235 Y-92.76252
G1 X31.36597 Y-53.70957
G3 X35.61276 Y-50.99287 I-31.36597 J53.70957
G3 X36.25811 Y-51.75205 I2.34452 J1.33912
G1 X36.49346 Y-51.94263
G1 F300.0 X37.24864 Y-51.01006
G1 F800.0 X84.90681 Y-89.60288
G1 X79.63259 Y-94.33922
G1 X30.01653 Y-54.16092
G3 X28.37481 Y-53.9988 I-0.94398 J-1.16572
G3 X37.04629 Y-48.46207 I-28.37481 J53.9988
G3 X37.01329 Y-50.81947 I0.91098 J-1.19168
G1 X37.24864 Y-51.01006
G0 Z3.0
G0 X28.3748 Y-53.9988
G0 Z-1.0
G1 F300.0 Z-4.0
G2 F800.0 X1.4858 Y-60.9819 I-28.3748 J53.9988
G0 Z3.0
G0 X-2.74595 Y-63.93866
G0 Z-1.0
G1 F300.0 Z-4.0
G1 F800.0 X12.21569 Y-119.77628
G1 X11.20842 Y-119.88081
G1 X-3.79562 Y-63.88494
G3 X-2.74595 Y-63.93866 I3.79562 J63.88494
G1 F300.0 X-2.1664 Y-63.78337
G1 F800.0 X12.97731 Y-120.30047
G1 X10.76132 Y-120.53042
G1 X-4.59199 Y-63.23108
G3 X-2.2782 Y-63.35665 I4.59199 J63.23108
G3 X-2.24478 Y-63.49085 I3.80053 J0.8752
G1 X-2.1664 Y-63.78337
G1 F300.0 X-1.00729 Y-63.47279
G1 F800.0 X14.50056 Y-121.34884
G1 X9.86712 Y-121.82966
G1 X-6.19409 Y-61.88841
G3 X-1.16153 Y-62.18675 I6.19409 J61.88841
G3 X-1.08567 Y-63.18027 I2.68387 J-0.2947
G1 X-1.00729 Y-63.47279
G1 F300.0 X0.15183 Y-63.16221
G1 F800.0 X16.0238 Y-122.39722
G1 X8.97292 Y-123.1289
G1 X-7.55111 Y-61.46038
G3 X-8.784 Y-60.36424 I-1.44889 J-0.38823
G3 X1.48579 Y-60.9819 I8.784 J60.36424
G3 X0.07345 Y-62.86969 I0.03655 J-1.49955
G1 X0.15183 Y-63.16221
G0 Z3.0
G0 X-8.784 Y-60.36424
G0 Z-3.0
G1 F300.0 Z-4.0
G2 F800.0 X-30.5 Y-52.82755 I8.784 J60.36424
G2 X-34.64223 Y-50.20873 I30.5 J52.82755
G0 Z3.0
G0 X-39.80372 Y-50.11343
G0 Z-1.0
G1 F300.0 Z-4.0
G1 F800.0 X-60.52003 Y-104.08125
G1 X-61.39636 Y-103.57376
G1 X-40.62135 Y-49.45299
G3 X-39.80372 Y-50.11343 I40.62135 J49.45299
G1 F300.0 X-39.24358 Y-50.32846
G1 F800.0 X-60.21197 Y-104.953
G1 X-62.13991 Y-103.83651
G1 X-40.88129 Y-48.45591
G3 X-39.08321 Y-49.91752 I40.88129 J48.45591
G3 X-39.13505 Y-50.04573 I3.58912 J-1.52585
G1 X-39.24358 Y-50.32846
G1 F300.0 X-38.12328 Y-50.7585
G1 F800.0 X-59.59586 Y-106.69649
G1 X-63.62701 Y-104.36201
G1 X-41.38822 Y-46.42798
G3 X-37.49216 Y-49.62741 I41.38822 J46.42798
G3 X-38.01475 Y-50.47577 I1.99807 J-1.81596
G1 X-38.12328 Y-50.7585
G1 F300.0 X-37.00298 Y-51.18854
G1 F800.0 X-58.97975 Y-108.43998
G1 X-65.11411 Y-104.88752
G1 X-42.23448 Y-45.28406
G3 X-42.58761 Y-43.6726 I-1.40037 J0.53755
G3 X-34.64223 Y-50.20872 I42.58761 J43.6726
G3 X-36.89446 Y-50.90581 I-0.85186 J-1.23464
G1 X-37.00298 Y-51.18854
G0 Z3.0
G0 X-61.65783 Y-17.14658
G0 Z1.0
G1 F300.0 Z-2.0
G1 F800.0 X-110.13916 Y-48.63072
G1 X-110.54983 Y-47.70505
G1 X-61.9311 Y-16.13168
G3 X-61.65783 Y-17.14658 I61.9311 J16.13168
G1 F300.0 X-61.33104 Y-17.64978
G1 F800.0 X-110.40233 Y-49.51705
G1 X-111.30581 Y-47.48058
G1 X-61.55533 Y-15.17224
G3 X-60.95976 Y-17.41159 I61.55533 J15.17224
G3 X-61.07706 Y-17.48484 I2.00679 J-3.34407
G1 X-61.33104 Y-17.64978
G1 F300.0 X-60.67748 Y-18.65618
G1 F800.0 X-60.4235 Y-18.49125
G2 X-59.50205 Y-18.11208 I1.47053 J-2.26441
G2 X-60.77345 Y-13.23364 I59.50205 J18.11208
G1 X-112.81778 Y-47.03163
G1 X-110.92869 Y-51.2897
G1 X-60.67748 Y-18.65618
G0 Z3.0
G0 X-60.12421 Y-10.2995
G0 Z-1.0
G1 F300.0 Z-2.0
G3 F800.0 X-57.5381 Y-20.25752 I60.12421 J10.2995
G0 Z3.0
G0 X-61.65783 Y-17.14658
G0 Z-1.0
G1 F300.0 Z-4.0
G1 F800.0 X-110.13916 Y-48.63072
G1 X-110.54983 Y-47.70505
G1 X-61.9311 Y-16.13168
G3 X-61.65783 Y-17.14658 I61.9311 J16.13168
G1 F300.0 X-61.33104 Y-17.64978
G1 F800.0 X-110.40233 Y-49.51705
G1 X-111.30581 Y-47.48058
G1 X-61.55533 Y-15.17224
G3 X-60.95976 Y-17.41159 I61.55533 J15.17224
G3 X-61.07706 Y-17.48484 I2.00679 J-3.34407
G1 X-61.33104 Y-17.64978
G1 F300.0 X-60.67748 Y-18.65618
G1 F800.0 X-60.4235 Y-18.49125
G2 X-59.50205 Y-18.11208 I1.47053 J-2.26441
G2 X-60.77345 Y-13.23364 I59.50205 J18.11208
G1 X-112.81778 Y-47.03163
G1 X-110.92869 Y-51.2897
G1 X-60.67748 Y-18.65618
G0 Z3.0
G0 X-60.12421 Y-10.2995
G0 Z-1.0
G1 F300.0 Z-4.0
G3 F800.0 X-57.5381 Y-20.25752 I60.12421 J10.2995
G0 Z3.0
G0 X-42.58761 Y-43.67259
G0 Z-1.0
G1 F300.0 Z-4.0
G2 F800.0 X-57.5381 Y-20.25752 I42.58761 J43.67259
G3 X-59.76993 Y-19.49765 I-1.41487 J-0.49814
G1 X-111.45505 Y-53.06236
G1 X-114.32975 Y-46.58267
G1 X-60.78571 Y-11.81077
G3 X-60.12421 Y-10.2995 I-0.81696 J1.25801
G2 X-58.45637 Y17.43137 I60.12421 J10.2995
G3 X-59.81532 Y19.35795 I-1.43745 J0.42864
G1 X-121.3583 Y22.58328
G1 X-119.87532 Y29.51517
G1 X-56.11887 Y26.17383
G3 X-54.6954 Y27.00765 I0.0785 J1.49794
G3 X-58.45637 Y17.43137 I54.6954 J-27.00765
( Veriefung-Rohr )
S1000
G0 Z3.0
G0 X13.5 Y0.0
G0 Z1.0
G1 F300.0 Z-2.0
G2 F800.0 X-6.75 Y-11.69134 I-13.5 J0.0
G2 Y11.69134 I6.75 J11.69134
G2 X13.5 Y0.0 I6.75 J-11.69134
G1 F300.0 X12.5
G3 F800.0 X-6.25 Y10.82532 I-12.5 J0.0
G3 Y-10.82532 I6.25 J-10.82532
G3 X12.5 Y0.0 I6.25 J10.82532
G1 F300.0 Z-4.0
G3 F800.0 X-6.25 Y10.82532 I-12.5 J0.0
G3 Y-10.82532 I6.25 J-10.82532
G3 X12.5 Y0.0 I6.25 J10.82532
G1 F300.0 X13.5
G2 F800.0 X-6.75 Y-11.69134 I-13.5 J0.0
G2 Y11.69134 I6.75 J11.69134
G2 X13.5 Y0.0 I6.75 J-11.69134
( Bohrung )
G0 Z3.0
( T4 : 4.0 )
T4 M6
M3 S1000
G0 X3.0
G0 Z1.0
G1 F300.0 Z-2.0
G2 F800.0 X-1.5 Y-2.59808 I-3.0 J0.0
G2 Y2.59808 I1.5 J2.59808
G2 X3.0 Y0.0 I1.5 J-2.59808
G1 F300.0 Z-4.0
G2 F800.0 X-1.5 Y-2.59808 I-3.0 J0.0
G2 Y2.59808 I1.5 J2.59808
G2 X3.0 Y0.0 I1.5 J-2.59808
G1 F300.0 Z-6.0
G2 F800.0 X-1.5 Y-2.59808 I-3.0 J0.0
G2 Y2.59808 I1.5 J2.59808
G2 X3.0 Y0.0 I1.5 J-2.59808
G1 F300.0 Z-8.0
G2 F800.0 X-1.5 Y-2.59808 I-3.0 J0.0
G2 Y2.59808 I1.5 J2.59808
G2 X3.0 Y0.0 I1.5 J-2.59808
G1 F300.0 Z-10.0
G2 F800.0 X-1.5 Y-2.59808 I-3.0 J0.0
G2 Y2.59808 I1.5 J2.59808
G2 X3.0 Y0.0 I1.5 J-2.59808
G1 F300.0 Z-12.0
G2 F800.0 X-1.5 Y-2.59808 I-3.0 J0.0
G2 Y2.59808 I1.5 J2.59808
G2 X3.0 Y0.0 I1.5 J-2.59808
G1 F300.0 Z-14.0
G2 F800.0 X-1.5 Y-2.59808 I-3.0 J0.0
G2 Y2.59808 I1.5 J2.59808
G2 X3.0 Y0.0 I1.5 J-2.59808
G1 F300.0 Z-16.0
G2 F800.0 X-1.5 Y-2.59808 I-3.0 J0.0
G2 Y2.59808 I1.5 J2.59808
G2 X3.0 Y0.0 I1.5 J-2.59808
G1 F300.0 Z-18.0
G2 F800.0 X-1.5 Y-2.59808 I-3.0 J0.0
G2 Y2.59808 I1.5 J2.59808
G2 X3.0 Y0.0 I1.5 J-2.59808
G1 F300.0 Z-19.0
G2 F800.0 X-1.5 Y-2.59808 I-3.0 J0.0
G2 Y2.59808 I1.5 J2.59808
G2 X3.0 Y0.0 I1.5 J-2.59808
( Oeffnungen )
S1000
G0 Z3.0
G0 X-18.20027 Y-7.0
G0 Z1.0
G1 F300.0 Z-2.0
G3 F800.0 X-17.81929 Y-7.91979 I18.20027 J7.0
G1 X-39.22984 Y-29.33035
G2 X-43.8573 Y-28.85806 I-2.12132 J2.12132
G2 X-51.41752 Y-10.60606 I43.8573 J28.85806
G2 X-48.47938 Y-7.0 I2.93814 J0.60606
G1 X-18.20027
G1 F300.0 Z-4.0
G3 F800.0 X-17.81929 Y-7.91979 I18.20027 J7.0
G1 X-39.22984 Y-29.33035
G2 X-43.8573 Y-28.85806 I-2.12132 J2.12132
G2 X-51.41752 Y-10.60606 I43.8573 J28.85806
G2 X-48.47938 Y-7.0 I2.93814 J0.60606
G1 X-18.20027
G1 F300.0 Z-6.0
G3 F800.0 X-17.81929 Y-7.91979 I18.20027 J7.0
G1 X-39.22984 Y-29.33035
G2 X-43.8573 Y-28.85806 I-2.12132 J2.12132
G2 X-51.41752 Y-10.60606 I43.8573 J28.85806
G2 X-48.47938 Y-7.0 I2.93814 J0.60606
G1 X-18.20027
G1 F300.0 Z-8.0
G3 F800.0 X-17.81929 Y-7.91979 I18.20027 J7.0
G1 X-39.22984 Y-29.33035
G2 X-43.8573 Y-28.85806 I-2.12132 J2.12132
G2 X-51.41752 Y-10.60606 I43.8573 J28.85806
G2 X-48.47938 Y-7.0 I2.93814 J0.60606
G1 X-18.20027
G1 F300.0 Z-10.0
G3 F800.0 X-17.81929 Y-7.91979 I18.20027 J7.0
G1 X-39.22984 Y-29.33035
G2 X-43.8573 Y-28.85806 I-2.12132 J2.12132
G2 X-51.41752 Y-10.60606 I43.8573 J28.85806
G2 X-48.47938 Y-7.0 I2.93814 J0.60606
G1 X-18.20027
G1 F300.0 Z-12.0
G3 F800.0 X-17.81929 Y-7.91979 I18.20027 J7.0
G1 X-39.22984 Y-29.33035
G2 X-43.8573 Y-28.85806 I-2.12132 J2.12132
G2 X-51.41752 Y-10.60606 I43.8573 J28.85806
G2 X-48.47938 Y-7.0 I2.93814 J0.60606
G1 X-18.20027
G1 F300.0 Z-14.0
G3 F800.0 X-17.81929 Y-7.91979 I18.20027 J7.0
G1 X-39.22984 Y-29.33035
G2 X-43.8573 Y-28.85806 I-2.12132 J2.12132
G2 X-51.41752 Y-10.60606 I43.8573 J28.85806
G2 X-48.47938 Y-7.0 I2.93814 J0.60606
G1 X-18.20027
G1 F300.0 Z-16.0
G3 F800.0 X-17.81929 Y-7.91979 I18.20027 J7.0
G1 X-39.22984 Y-29.33035
G2 X-43.8573 Y-28.85806 I-2.12132 J2.12132
G2 X-51.41752 Y-10.60606 I43.8573 J28.85806
G2 X-48.47938 Y-7.0 I2.93814 J0.60606
G1 X-18.20027
G1 F300.0 Z-18.0
G3 F800.0 X-17.81929 Y-7.91979 I18.20027 J7.0
G1 X-25.34231 Y-15.44281
G1 X-26.40297 Y-16.50347 Z-16.0
G1 X-29.23139 Y-19.3319
G1 X-30.29205 Y-20.39256 Z-18.0
G1 X-39.22984 Y-29.33035
G2 X-43.8573 Y-28.85806 I-2.12132 J2.12132
G2 X-46.86396 Y-23.66473 I43.8573 J28.85806
G2 X-47.52177 Y-22.31438 Z-16.0 I46.86396 J23.66473
G2 X-49.08275 Y-18.63153 I47.52177 J22.31438
G2 X-49.59567 Y-17.21976 Z-18.0 I49.08275 J18.63153
G2 X-51.41752 Y-10.60606 I49.59567 J17.21976
G2 X-48.47938 Y-7.0 I2.93814 J0.60606
G1 X-36.73299
G1 X-35.23299 Z-16.0
G1 X-31.23299
G1 X-29.73299 Z-18.0
G1 X-18.20027
G1 F300.0 Z-19.0
G3 F800.0 X-17.81929 Y-7.91979 I18.20027 J7.0
G1 X-25.34231 Y-15.44281
G1 X-26.40297 Y-16.50347 Z-16.0
G1 X-29.23139 Y-19.3319
G1 X-30.29205 Y-20.39256 Z-19.0
G1 X-39.22984 Y-29.33035
G2 X-43.8573 Y-28.85806 I-2.12132 J2.12132
G2 X-46.86396 Y-23.66473 I43.8573 J28.85806
G2 X-47.52177 Y-22.31438 Z-16.0 I46.86396 J23.66473
G2 X-49.08275 Y-18.63153 I47.52177 J22.31438
G2 X-49.59567 Y-17.21976 Z-19.0 I49.08275 J18.63153
G2 X-51.41752 Y-10.60606 I49.59567 J17.21976
G2 X-48.47938 Y-7.0 I2.93814 J0.60606
G1 X-36.73299
G1 X-35.23299 Z-16.0
G1 X-31.23299
G1 X-29.73299 Z-19.0
G1 X-18.20027
G0 Z3.0
G0 Y7.0
G0 Z1.0
G1 F300.0 Z-2.0
G1 F800.0 X-48.47938
G2 X-51.41752 Y10.60606 I0.0 J3.0
G2 X-43.8573 Y28.85806 I51.41752 J-10.60606
G2 X-39.22984 Y29.33035 I2.50613 J-1.64903
G1 X-17.81929 Y7.91979
G3 X-18.20027 Y7.0 I17.81929 J-7.91979
G1 F300.0 Z-4.0
G1 F800.0 X-48.47938
G2 X-51.41752 Y10.60606 I0.0 J3.0
G2 X-43.8573 Y28.85806 I51.41752 J-10.60606
G2 X-39.22984 Y29.33035 I2.50613 J-1.64903
G1 X-17.81929 Y7.91979
G3 X-18.20027 Y7.0 I17.81929 J-7.91979
G1 F300.0 Z-6.0
G1 F800.0 X-48.47938
G2 X-51.41752 Y10.60606 I0.0 J3.0
G2 X-43.8573 Y28.85806 I51.41752 J-10.60606
G2 X-39.22984 Y29.33035 I2.50613 J-1.64903
G1 X-17.81929 Y7.91979
G3 X-18.20027 Y7.0 I17.81929 J-7.91979
G1 F300.0 Z-8.0
G1 F800.0 X-48.47938
G2 X-51.41752 Y10.60606 I0.0 J3.0
G2 X-43.8573 Y28.85806 I51.41752 J-10.60606
G2 X-39.22984 Y29.33035 I2.50613 J-1.64903
G1 X-17.81929 Y7.91979
G3 X-18.20027 Y7.0 I17.81929 J-7.91979
G1 F300.0 Z-10.0
G1 F800.0 X-48.47938
G2 X-51.41752 Y10.60606 I0.0 J3.0
G2 X-43.8573 Y28.85806 I51.41752 J-10.60606
G2 X-39.22984 Y29.33035 I2.50613 J-1.64903
G1 X-17.81929 Y7.91979
G3 X-18.20027 Y7.0 I17.81929 J-7.91979
G1 F300.0 Z-12.0
G1 F800.0 X-48.47938
G2 X-51.41752 Y10.60606 I0.0 J3.0
G2 X-43.8573 Y28.85806 I51.41752 J-10.60606
G2 X-39.22984 Y29.33035 I2.50613 J-1.64903
G1 X-17.81929 Y7.91979
G3 X-18.20027 Y7.0 I17.81929 J-7.91979
G1 F300.0 Z-14.0
G1 F800.0 X-48.47938
G2 X-51.41752 Y10.60606 I0.0 J3.0
G2 X-43.8573 Y28.85806 I51.41752 J-10.60606
G2 X-39.22984 Y29.33035 I2.50613 J-1.64903
G1 X-17.81929 Y7.91979
G3 X-18.20027 Y7.0 I17.81929 J-7.91979
G1 F300.0 Z-16.0
G1 F800.0 X-48.47938
G2 X-51.41752 Y10.60606 I0.0 J3.0
G2 X-43.8573 Y28.85806 I51.41752 J-10.60606
G2 X-39.22984 Y29.33035 I2.50613 J-1.64903
G1 X-17.81929 Y7.91979
G3 X-18.20027 Y7.0 I17.81929 J-7.91979
G1 F300.0 Z-18.0
G1 F800.0 X-28.83943
G1 X-30.33943 Z-16.0
G1 X-34.33943
G1 X-35.83943 Z-18.0
G1 X-48.47938
G2 X-51.41752 Y10.60606 I0.0 J3.0
G2 X-49.87132 Y16.40433 I51.41752 J-10.60606
G2 X-49.38161 Y17.82432 Z-16.0 I49.87132 J-16.40433
G2 X-47.88122 Y21.53226 I49.38161 J-17.82432
G2 X-47.24564 Y22.89323 Z-18.0 I47.88122 J-21.53226
G2 X-43.8573 Y28.85806 I47.24564 J-22.89323
G2 X-39.22984 Y29.33035 I2.50613 J-1.64903
G1 X-30.9239 Y21.0244
G1 X-29.86324 Y19.96374 Z-16.0
G1 X-27.03481 Y17.13531
G1 X-25.97415 Y16.07465 Z-18.0
G1 X-17.81929 Y7.91979
G3 X-18.20027 Y7.0 I17.81929 J-7.91979
G1 F300.0 Z-19.0
G1 F800.0 X-28.83943
G1 X-30.33943 Z-16.0
G1 X-34.33943
G1 X-35.83943 Z-19.0
G1 X-48.47938
G2 X-51.41752 Y10.60606 I0.0 J3.0
G2 X-49.87132 Y16.40433 I51.41752 J-10.60606
G2 X-49.38161 Y17.82432 Z-16.0 I49.87132 J-16.40433
G2 X-47.88122 Y21.53226 I49.38161 J-17.82432
G2 X-47.24564 Y22.89323 Z-19.0 I47.88122 J-21.53226
G2 X-43.8573 Y28.85806 I47.24564 J-22.89323
G2 X-39.22984 Y29.33035 I2.50613 J-1.64903
G1 X-30.9239 Y21.0244
G1 X-29.86324 Y19.96374 Z-16.0
G1 X-27.03481 Y17.13531
G1 X-25.97415 Y16.07465 Z-19.0
G1 X-17.81929 Y7.91979
G3 X-18.20027 Y7.0 I17.81929 J-7.91979
G0 Z3.0
G0 X-7.91979 Y17.81929
G0 Z1.0
G1 F300.0 Z-2.0
G1 F800.0 X-29.33035 Y39.22984
G2 X-28.85806 Y43.8573 I2.12132 J2.12132
G2 X-10.60606 Y51.41752 I28.85806 J-43.8573
G2 X-7.0 Y48.47938 I0.60606 J-2.93814
G1 Y18.20027
G3 X-7.91979 Y17.81929 I7.0 J-18.20027
G1 F300.0 Z-4.0
G1 F800.0 X-29.33035 Y39.22984
G2 X-28.85806 Y43.8573 I2.12132 J2.12132
G2 X-10.60606 Y51.41752 I28.85806 J-43.8573
G2 X-7.0 Y48.47938 I0.60606 J-2.93814
G1 Y18.20027
G3 X-7.91979 Y17.81929 I7.0 J-18.20027
G1 F300.0 Z-6.0
G1 F800.0 X-29.33035 Y39.22984
G2 X-28.85806 Y43.8573 I2.12132 J2.12132
G2 X-10.60606 Y51.41752 I28.85806 J-43.8573
G2 X-7.0 Y48.47938 I0.60606 J-2.93814
G1 Y18.20027
G3 X-7.91979 Y17.81929 I7.0 J-18.20027
G1 F300.0 Z-8.0
G1 F800.0 X-29.33035 Y39.22984
G2 X-28.85806 Y43.8573 I2.12132 J2.12132
G2 X-10.60606 Y51.41752 I28.85806 J-43.8573
G2 X-7.0 Y48.47938 I0.60606 J-2.93814
G1 Y18.20027
G3 X-7.91979 Y17.81929 I7.0 J-18.20027
G1 F300.0 Z-10.0
G1 F800.0 X-29.33035 Y39.22984
G2 X-28.85806 Y43.8573 I2.12132 J2.12132
G2 X-10.60606 Y51.41752 I28.85806 J-43.8573
G2 X-7.0 Y48.47938 I0.60606 J-2.93814
G1 Y18.20027
G3 X-7.91979 Y17.81929 I7.0 J-18.20027
G1 F300.0 Z-12.0
G1 F800.0 X-29.33035 Y39.22984
G2 X-28.85806 Y43.8573 I2.12132 J2.12132
G2 X-10.60606 Y51.41752 I28.85806 J-43.8573
G2 X-7.0 Y48.47938 I0.60606 J-2.93814
G1 Y18.20027
G3 X-7.91979 Y17.81929 I7.0 J-18.20027
G1 F300.0 Z-14.0
G1 F800.0 X-29.33035 Y39.22984
G2 X-28.85806 Y43.8573 I2.12132 J2.12132
G2 X-10.60606 Y51.41752 I28.85806 J-43.8573
G2 X-7.0 Y48.47938 I0.60606 J-2.93814
G1 Y18.20027
G3 X-7.91979 Y17.81929 I7.0 J-18.20027
G1 F300.0 Z-16.0
G1 F800.0 X-29.33035 Y39.22984
G2 X-28.85806 Y43.8573 I2.12132 J2.12132
G2 X-10.60606 Y51.41752 I28.85806 J-43.8573
G2 X-7.0 Y48.47938 I0.60606 J-2.93814
G1 Y18.20027
G3 X-7.91979 Y17.81929 I7.0 J-18.20027
G1 F300.0 Z-18.0
G1 F800.0 X-15.44281 Y25.34231
G1 X-16.50347 Y26.40297 Z-16.0
G1 X-19.3319 Y29.23139
G1 X-20.39256 Y30.29205 Z-18.0
G1 X-29.33035 Y39.22984
G2 X-28.85806 Y43.8573 I2.12132 J2.12132
G2 X-23.66473 Y46.86396 I28.85806 J-43.8573
G2 X-22.31438 Y47.52177 Z-16.0 I23.66473 J-46.86396
G2 X-18.63153 Y49.08275 I22.31438 J-47.52177
G2 X-17.21976 Y49.59567 Z-18.0 I18.63153 J-49.08275
G2 X-10.60606 Y51.41752 I17.21976 J-49.59567
G2 X-7.0 Y48.47938 I0.60606 J-2.93814
G1 Y36.73299
G1 Y35.23299 Z-16.0
G1 Y31.23299
G1 Y29.73299 Z-18.0
G1 Y18.20027
G3 X-7.91979 Y17.81929 I7.0 J-18.20027
G1 F300.0 Z-19.0
G1 F800.0 X-15.44281 Y25.34231
G1 X-16.50347 Y26.40297 Z-16.0
G1 X-19.3319 Y29.23139
G1 X-20.39256 Y30.29205 Z-19.0
G1 X-29.33035 Y39.22984
G2 X-28.85806 Y43.8573 I2.12132 J2.12132
G2 X-23.66473 Y46.86396 I28.85806 J-43.8573
G2 X-22.31438 Y47.52177 Z-16.0 I23.66473 J-46.86396
G2 X-18.63153 Y49.08275 I22.31438 J-47.52177
G2 X-17.21976 Y49.59567 Z-19.0 I18.63153 J-49.08275
G2 X-10.60606 Y51.41752 I17.21976 J-49.59567
G2 X-7.0 Y48.47938 I0.60606 J-2.93814
G1 Y36.73299
G1 Y35.23299 Z-16.0
G1 Y31.23299
G1 Y29.73299 Z-19.0
G1 Y18.20027
G3 X-7.91979 Y17.81929 I7.0 J-18.20027
G0 Z3.0
G0 X7.0 Y18.20027
G0 Z1.0
G1 F300.0 Z-2.0
G1 F800.0 Y48.47938
G2 X10.60606 Y51.41752 I3.0 J0.0
G2 X28.85806 Y43.8573 I-10.60606 J-51.41752
G2 X29.33035 Y39.22984 I-1.64903 J-2.50613
G1 X7.91979 Y17.81929
G3 X7.0 Y18.20027 I-7.91979 J-17.81929
G1 F300.0 Z-4.0
G1 F800.0 Y48.47938
G2 X10.60606 Y51.41752 I3.0 J0.0
G2 X28.85806 Y43.8573 I-10.60606 J-51.41752
G2 X29.33035 Y39.22984 I-1.64903 J-2.50613
G1 X7.91979 Y17.81929
G3 X7.0 Y18.20027 I-7.91979 J-17.81929
G1 F300.0 Z-6.0
G1 F800.0 Y48.47938
G2 X10.60606 Y51.41752 I3.0 J0.0
G2 X28.85806 Y43.8573 I-10.60606 J-51.41752
G2 X29.33035 Y39.22984 I-1.64903 J-2.50613
G1 X7.91979 Y17.81929
G3 X7.0 Y18.20027 I-7.91979 J-17.81929
G1 F300.0 Z-8.0
G1 F800.0 Y48.47938
G2 X10.60606 Y51.41752 I3.0 J0.0
G2 X28.85806 Y43.8573 I-10.60606 J-51.41752
G2 X29.33035 Y39.22984 I-1.64903 J-2.50613
G1 X7.91979 Y17.81929
G3 X7.0 Y18.20027 I-7.91979 J-17.81929
G1 F300.0 Z-10.0
G1 F800.0 Y48.47938
G2 X10.60606 Y51.41752 I3.0 J0.0
G2 X28.85806 Y43.8573 I-10.60606 J-51.41752
G2 X29.33035 Y39.22984 I-1.64903 J-2.50613
G1 X7.91979 Y17.81929
G3 X7.0 Y18.20027 I-7.91979 J-17.81929
G1 F300.0 Z-12.0
G1 F800.0 Y48.47938
G2 X10.60606 Y51.41752 I3.0 J0.0
G2 X28.85806 Y43.8573 I-10.60606 J-51.41752
G2 X29.33035 Y39.22984 I-1.64903 J-2.50613
G1 X7.91979 Y17.81929
G3 X7.0 Y18.20027 I-7.91979 J-17.81929
G1 F300.0 Z-14.0
G1 F800.0 Y48.47938
G2 X10.60606 Y51.41752 I3.0 J0.0
G2 X28.85806 Y43.8573 I-10.60606 J-51.41752
G2 X29.33035 Y39.22984 I-1.64903 J-2.50613
G1 X7.91979 Y17.81929
G3 X7.0 Y18.20027 I-7.91979 J-17.81929
G1 F300.0 Z-16.0
G1 F800.0 Y48.47938
G2 X10.60606 Y51.41752 I3.0 J0.0
G2 X28.85806 Y43.8573 I-10.60606 J-51.41752
G2 X29.33035 Y39.22984 I-1.64903 J-2.50613
G1 X7.91979 Y17.81929
G3 X7.0 Y18.20027 I-7.91979 J-17.81929
G1 F300.0 Z-18.0
G1 F800.0 Y29.73299
G1 Y31.23299 Z-16.0
G1 Y35.23299
G1 Y36.73299 Z-18.0
G1 Y48.47938
G2 X10.60606 Y51.41752 I3.0 J0.0
G2 X17.21976 Y49.59567 I-10.60606 J-51.41752
G2 X18.63153 Y49.08275 Z-16.0 I-17.21976 J-49.59567
G2 X22.31438 Y47.52177 I-18.63153 J-49.08275
G2 X23.66473 Y46.86396 Z-18.0 I-22.31438 J-47.52177
G2 X28.85806 Y43.8573 I-23.66473 J-46.86396
G2 X29.33035 Y39.22984 I-1.64903 J-2.50613
G1 X20.39256 Y30.29205
G1 X19.3319 Y29.23139 Z-16.0
G1 X16.50347 Y26.40297
G1 X15.44281 Y25.34231 Z-18.0
G1 X7.91979 Y17.81929
G3 X7.0 Y18.20027 I-7.91979 J-17.81929
G1 F300.0 Z-19.0
G1 F800.0 Y29.73299
G1 Y31.23299 Z-16.0
G1 Y35.23299
G1 Y36.73299 Z-19.0
G1 Y48.47938
G2 X10.60606 Y51.41752 I3.0 J0.0
G2 X17.21976 Y49.59567 I-10.60606 J-51.41752
G2 X18.63153 Y49.08275 Z-16.0 I-17.21976 J-49.59567
G2 X22.31438 Y47.52177 I-18.63153 J-49.08275
G2 X23.66473 Y46.86396 Z-19.0 I-22.31438 J-47.52177
G2 X28.85806 Y43.8573 I-23.66473 J-46.86396
G2 X29.33035 Y39.22984 I-1.64903 J-2.50613
G1 X20.39256 Y30.29205
G1 X19.3319 Y29.23139 Z-16.0
G1 X16.50347 Y26.40297
G1 X15.44281 Y25.34231 Z-19.0
G1 X7.91979 Y17.81929
G3 X7.0 Y18.20027 I-7.91979 J-17.81929
G0 Z3.0
G0 X17.81929 Y7.91979
G0 Z1.0
G1 F300.0 Z-2.0
G1 F800.0 X39.22984 Y29.33035
G2 X43.8573 Y28.85806 I2.12132 J-2.12132
G2 X51.41752 Y10.60606 I-43.8573 J-28.85806
G2 X48.47938 Y7.0 I-2.93814 J-0.60606
G1 X18.20027
G3 X17.81929 Y7.91979 I-18.20027 J-7.0
G1 F300.0 Z-4.0
G1 F800.0 X39.22984 Y29.33035
G2 X43.8573 Y28.85806 I2.12132 J-2.12132
G2 X51.41752 Y10.60606 I-43.8573 J-28.85806
G2 X48.47938 Y7.0 I-2.93814 J-0.60606
G1 X18.20027
G3 X17.81929 Y7.91979 I-18.20027 J-7.0
G1 F300.0 Z-6.0
G1 F800.0 X39.22984 Y29.33035
G2 X43.8573 Y28.85806 I2.12132 J-2.12132
G2 X51.41752 Y10.60606 I-43.8573 J-28.85806
G2 X48.47938 Y7.0 I-2.93814 J-0.60606
G1 X18.20027
G3 X17.81929 Y7.91979 I-18.20027 J-7.0
G1 F300.0 Z-8.0
G1 F800.0 X39.22984 Y29.33035
G2 X43.8573 Y28.85806 I2.12132 J-2.12132
G2 X51.41752 Y10.60606 I-43.8573 J-28.85806
G2 X48.47938 Y7.0 I-2.93814 J-0.60606
G1 X18.20027
G3 X17.81929 Y7.91979 I-18.20027 J-7.0
G1 F300.0 Z-10.0
G1 F800.0 X39.22984 Y29.33035
G2 X43.8573 Y28.85806 I2.12132 J-2.12132
G2 X51.41752 Y10.60606 I-43.8573 J-28.85806
G2 X48.47938 Y7.0 I-2.93814 J-0.60606
G1 X18.20027
G3 X17.81929 Y7.91979 I-18.20027 J-7.0
G1 F300.0 Z-12.0
G1 F800.0 X39.22984 Y29.33035
G2 X43.8573 Y28.85806 I2.12132 J-2.12132
G2 X51.41752 Y10.60606 I-43.8573 J-28.85806
G2 X48.47938 Y7.0 I-2.93814 J-0.60606
G1 X18.20027
G3 X17.81929 Y7.91979 I-18.20027 J-7.0
G1 F300.0 Z-14.0
G1 F800.0 X39.22984 Y29.33035
G2 X43.8573 Y28.85806 I2.12132 J-2.12132
G2 X51.41752 Y10.60606 I-43.8573 J-28.85806
G2 X48.47938 Y7.0 I-2.93814 J-0.60606
G1 X18.20027
G3 X17.81929 Y7.91979 I-18.20027 J-7.0
G1 F300.0 Z-16.0
G1 F800.0 X39.22984 Y29.33035
G2 X43.8573 Y28.85806 I2.12132 J-2.12132
G2 X51.41752 Y10.60606 I-43.8573 J-28.85806
G2 X48.47938 Y7.0 I-2.93814 J-0.60606
G1 X18.20027
G3 X17.81929 Y7.91979 I-18.20027 J-7.0
G1 F300.0 Z-18.0
G1 F800.0 X25.97415 Y16.07465
G1 X27.03481 Y17.13531 Z-16.0
G1 X29.86324 Y19.96374
G1 X30.9239 Y21.0244 Z-18.0
G1 X39.22984 Y29.33035
G2 X43.8573 Y28.85806 I2.12132 J-2.12132
G2 X47.24564 Y22.89323 I-43.8573 J-28.85806
G2 X47.88122 Y21.53226 Z-16.0 I-47.24564 J-22.89323
G2 X49.38161 Y17.82432 I-47.88122 J-21.53226
G2 X49.87132 Y16.40433 Z-18.0 I-49.38161 J-17.82432
G2 X51.41752 Y10.60606 I-49.87132 J-16.40433
G2 X48.47938 Y7.0 I-2.93814 J-0.60606
G1 X35.83943
G1 X34.33943 Z-16.0
G1 X30.33943
G1 X28.83943 Z-18.0
G1 X18.20027
G3 X17.81929 Y7.91979 I-18.20027 J-7.0
G1 F300.0 Z-19.0
G1 F800.0 X25.97415 Y16.07465
G1 X27.03481 Y17.13531 Z-16.0
G1 X29.86324 Y19.96374
G1 X30.9239 Y21.0244 Z-19.0
G1 X39.22984 Y29.33035
G2 X43.8573 Y28.85806 I2.12132 J-2.12132
G2 X47.24564 Y22.89323 I-43.8573 J-28.85806
G2 X47.88122 Y21.53226 Z-16.0 I-47.24564 J-22.89323
G2 X49.38161 Y17.82432 I-47.88122 J-21.53226
G2 X49.87132 Y16.40433 Z-19.0 I-49.38161 J-17.82432
G2 X51.41752 Y10.60606 I-49.87132 J-16.40433
G2 X48.47938 Y7.0 I-2.93814 J-0.60606
G1 X35.83943
G1 X34.33943 Z-16.0
G1 X30.33943
G1 X28.83943 Z-19.0
G1 X18.20027
G3 X17.81929 Y7.91979 I-18.20027 J-7.0
G0 Z3.0
G0 X18.20027 Y-7.0
G0 Z1.0
G1 F300.0 Z-2.0
G1 F800.0 X48.47938
G2 X51.41752 Y-10.60606 I0.0 J-3.0
G2 X43.8573 Y-28.85806 I-51.41752 J10.60606
G2 X39.22984 Y-29.33035 I-2.50613 J1.64903
G1 X17.81929 Y-7.91979
G3 X18.20027 Y-7.0 I-17.81929 J7.91979
G1 F300.0 Z-4.0
G1 F800.0 X48.47938
G2 X51.41752 Y-10.60606 I0.0 J-3.0
G2 X43.8573 Y-28.85806 I-51.41752 J10.60606
G2 X39.22984 Y-29.33035 I-2.50613 J1.64903
G1 X17.81929 Y-7.91979
G3 X18.20027 Y-7.0 I-17.81929 J7.91979
G1 F300.0 Z-6.0
G1 F800.0 X48.47938
G2 X51.41752 Y-10.60606 I0.0 J-3.0
G2 X43.8573 Y-28.85806 I-51.41752 J10.60606
G2 X39.22984 Y-29.33035 I-2.50613 J1.64903
G1 X17.81929 Y-7.91979
G3 X18.20027 Y-7.0 I-17.81929 J7.91979
G1 F300.0 Z-8.0
G1 F800.0 X48.47938
G2 X51.41752 Y-10.60606 I0.0 J-3.0
G2 X43.8573 Y-28.85806 I-51.41752 J10.60606
G2 X39.22984 Y-29.33035 I-2.50613 J1.64903
G1 X17.81929 Y-7.91979
G3 X18.20027 Y-7.0 I-17.81929 J7.91979
G1 F300.0 Z-10.0
G1 F800.0 X48.47938
G2 X51.41752 Y-10.60606 I0.0 J-3.0
G2 X43.8573 Y-28.85806 I-51.41752 J10.60606
G2 X39.22984 Y-29.33035 I-2.50613 J1.64903
G1 X17.81929 Y-7.91979
G3 X18.20027 Y-7.0 I-17.81929 J7.91979
G1 F300.0 Z-12.0
G1 F800.0 X48.47938
G2 X51.41752 Y-10.60606 I0.0 J-3.0
G2 X43.8573 Y-28.85806 I-51.41752 J10.60606
G2 X39.22984 Y-29.33035 I-2.50613 J1.64903
G1 X17.81929 Y-7.91979
G3 X18.20027 Y-7.0 I-17.81929 J7.91979
G1 F300.0 Z-14.0
G1 F800.0 X48.47938
G2 X51.41752 Y-10.60606 I0.0 J-3.0
G2 X43.8573 Y-28.85806 I-51.41752 J10.60606
G2 X39.22984 Y-29.33035 I-2.50613 J1.64903
G1 X17.81929 Y-7.91979
G3 X18.20027 Y-7.0 I-17.81929 J7.91979
G1 F300.0 Z-16.0
G1 F800.0 X48.47938
G2 X51.41752 Y-10.60606 I0.0 J-3.0
G2 X43.8573 Y-28.85806 I-51.41752 J10.60606
G2 X39.22984 Y-29.33035 I-2.50613 J1.64903
G1 X17.81929 Y-7.91979
G3 X18.20027 Y-7.0 I-17.81929 J7.91979
G1 F300.0 Z-18.0
G1 F800.0 X29.73299
G1 X31.23299 Z-16.0
G1 X35.23299
G1 X36.73299 Z-18.0
G1 X48.47938
G2 X51.41752 Y-10.60606 I0.0 J-3.0
G2 X49.59567 Y-17.21976 I-51.41752 J10.60606
G2 X49.08275 Y-18.63153 Z-16.0 I-49.59567 J17.21976
G2 X47.52177 Y-22.31438 I-49.08275 J18.63153
G2 X46.86396 Y-23.66473 Z-18.0 I-47.52177 J22.31438
G2 X43.8573 Y-28.85806 I-46.86396 J23.66473
G2 X39.22984 Y-29.33035 I-2.50613 J1.64903
G1 X30.29205 Y-20.39256
G1 X29.23139 Y-19.3319 Z-16.0
G1 X26.40297 Y-16.50347
G1 X25.34231 Y-15.44281 Z-18.0
G1 X17.81929 Y-7.91979
G3 X18.20027 Y-7.0 I-17.81929 J7.91979
G1 F300.0 Z-19.0
G1 F800.0 X29.73299
G1 X31.23299 Z-16.0
G1 X35.23299
G1 X36.73299 Z-19.0
G1 X48.47938
G2 X51.41752 Y-10.60606 I0.0 J-3.0
G2 X49.59567 Y-17.21976 I-51.41752 J10.60606
G2 X49.08275 Y-18.63153 Z-16.0 I-49.59567 J17.21976
G2 X47.52177 Y-22.31438 I-49.08275 J18.63153
G2 X46.86396 Y-23.66473 Z-19.0 I-47.52177 J22.31438
G2 X43.8573 Y-28.85806 I-46.86396 J23.66473
G2 X39.22984 Y-29.33035 I-2.50613 J1.64903
G1 X30.29205 Y-20.39256
G1 X29.23139 Y-19.3319 Z-16.0
G1 X26.40297 Y-16.50347
G1 X25.34231 Y-15.44281 Z-19.0
G1 X17.81929 Y-7.91979
G3 X18.20027 Y-7.0 I-17.81929 J7.91979
G0 Z3.0
G0 X7.91979 Y-17.81929
G0 Z1.0
G1 F300.0 Z-2.0
G1 F800.0 X29.33035 Y-39.22984
G2 X28.85806 Y-43.8573 I-2.12132 J-2.12132
G2 X10.60606 Y-51.41752 I-28.85806 J43.8573
G2 X7.0 Y-48.47938 I-0.60606 J2.93814
G1 Y-18.20027
G3 X7.91979 Y-17.81929 I-7.0 J18.20027
G1 F300.0 Z-4.0
G1 F800.0 X29.33035 Y-39.22984
G2 X28.85806 Y-43.8573 I-2.12132 J-2.12132
G2 X10.60606 Y-51.41752 I-28.85806 J43.8573
G2 X7.0 Y-48.47938 I-0.60606 J2.93814
G1 Y-18.20027
G3 X7.91979 Y-17.81929 I-7.0 J18.20027
G1 F300.0 Z-6.0
G1 F800.0 X29.33035 Y-39.22984
G2 X28.85806 Y-43.8573 I-2.12132 J-2.12132
G2 X10.60606 Y-51.41752 I-28.85806 J43.8573
G2 X7.0 Y-48.47938 I-0.60606 J2.93814
G1 Y-18.20027
G3 X7.91979 Y-17.81929 I-7.0 J18.20027
G1 F300.0 Z-8.0
G1 F800.0 X29.33035 Y-39.22984
G2 X28.85806 Y-43.8573 I-2.12132 J-2.12132
G2 X10.60606 Y-51.41752 I-28.85806 J43.8573
G2 X7.0 Y-48.47938 I-0.60606 J2.93814
G1 Y-18.20027
G3 X7.91979 Y-17.81929 I-7.0 J18.20027
G1 F300.0 Z-10.0
G1 F800.0 X29.33035 Y-39.22984
G2 X28.85806 Y-43.8573 I-2.12132 J-2.12132
G2 X10.60606 Y-51.41752 I-28.85806 J43.8573
G2 X7.0 Y-48.47938 I-0.60606 J2.93814
G1 Y-18.20027
G3 X7.91979 Y-17.81929 I-7.0 J18.20027
G1 F300.0 Z-12.0
G1 F800.0 X29.33035 Y-39.22984
G2 X28.85806 Y-43.8573 I-2.12132 J-2.12132
G2 X10.60606 Y-51.41752 I-28.85806 J43.8573
G2 X7.0 Y-48.47938 I-0.60606 J2.93814
G1 Y-18.20027
G3 X7.91979 Y-17.81929 I-7.0 J18.20027
G1 F300.0 Z-14.0
G1 F800.0 X29.33035 Y-39.22984
G2 X28.85806 Y-43.8573 I-2.12132 J-2.12132
G2 X10.60606 Y-51.41752 I-28.85806 J43.8573
G2 X7.0 Y-48.47938 I-0.60606 J2.93814
G1 Y-18.20027
G3 X7.91979 Y-17.81929 I-7.0 J18.20027
G1 F300.0 Z-16.0
G1 F800.0 X29.33035 Y-39.22984
G2 X28.85806 Y-43.8573 I-2.12132 J-2.12132
G2 X10.60606 Y-51.41752 I-28.85806 J43.8573
G2 X7.0 Y-48.47938 I-0.60606 J2.93814
G1 Y-18.20027
G3 X7.91979 Y-17.81929 I-7.0 J18.20027
G1 F300.0 Z-18.0
G1 F800.0 X16.07465 Y-25.97415
G1 X17.13531 Y-27.03481 Z-16.0
G1 X19.96374 Y-29.86324
G1 X21.0244 Y-30.9239 Z-18.0
G1 X29.33035 Y-39.22984
G2 X28.85806 Y-43.8573 I-2.12132 J-2.12132
G2 X22.89323 Y-47.24564 I-28.85806 J43.8573
G2 X21.53226 Y-47.88122 Z-16.0 I-22.89323 J47.24564
G2 X17.82432 Y-49.38161 I-21.53226 J47.88122
G2 X16.40433 Y-49.87132 Z-18.0 I-17.82432 J49.38161
G2 X10.60606 Y-51.41752 I-16.40433 J49.87132
G2 X7.0 Y-48.47938 I-0.60606 J2.93814
G1 Y-35.83943
G1 Y-34.33943 Z-16.0
G1 Y-30.33943
G1 Y-28.83943 Z-18.0
G1 Y-18.20027
G3 X7.91979 Y-17.81929 I-7.0 J18.20027
G1 F300.0 Z-19.0
G1 F800.0 X16.07465 Y-25.97415
G1 X17.13531 Y-27.03481 Z-16.0
G1 X19.96374 Y-29.86324
G1 X21.0244 Y-30.9239 Z-19.0
G1 X29.33035 Y-39.22984
G2 X28.85806 Y-43.8573 I-2.12132 J-2.12132
G2 X22.89323 Y-47.24564 I-28.85806 J43.8573
G2 X21.53226 Y-47.88122 Z-16.0 I-22.89323 J47.24564
G2 X17.82432 Y-49.38161 I-21.53226 J47.88122
G2 X16.40433 Y-49.87132 Z-19.0 I-17.82432 J49.38161
G2 X10.60606 Y-51.41752 I-16.40433 J49.87132
G2 X7.0 Y-48.47938 I-0.60606 J2.93814
G1 Y-35.83943
G1 Y-34.33943 Z-16.0
G1 Y-30.33943
G1 Y-28.83943 Z-19.0
G1 Y-18.20027
G3 X7.91979 Y-17.81929 I-7.0 J18.20027
G0 Z3.0
G0 X-7.0 Y-18.20027
G0 Z1.0
G1 F300.0 Z-2.0
G1 F800.0 Y-48.47938
G2 X-10.60606 Y-51.41752 I-3.0 J0.0
G2 X-28.85806 Y-43.8573 I10.60606 J51.41752
G2 X-29.33035 Y-39.22984 I1.64903 J2.50613
G1 X-7.91979 Y-17.81929
G3 X-7.0 Y-18.20027 I7.91979 J17.81929
G1 F300.0 Z-4.0
G1 F800.0 Y-48.47938
G2 X-10.60606 Y-51.41752 I-3.0 J0.0
G2 X-28.85806 Y-43.8573 I10.60606 J51.41752
G2 X-29.33035 Y-39.22984 I1.64903 J2.50613
G1 X-7.91979 Y-17.81929
G3 X-7.0 Y-18.20027 I7.91979 J17.81929
G1 F300.0 Z-6.0
G1 F800.0 Y-48.47938
G2 X-10.60606 Y-51.41752 I-3.0 J0.0
G2 X-28.85806 Y-43.8573 I10.60606 J51.41752
G2 X-29.33035 Y-39.22984 I1.64903 J2.50613
G1 X-7.91979 Y-17.81929
G3 X-7.0 Y-18.20027 I7.91979 J17.81929
G1 F300.0 Z-8.0
G1 F800.0 Y-48.47938
G2 X-10.60606 Y-51.41752 I-3.0 J0.0
G2 X-28.85806 Y-43.8573 I10.60606 J51.41752
G2 X-29.33035 Y-39.22984 I1.64903 J2.50613
G1 X-7.91979 Y-17.81929
G3 X-7.0 Y-18.20027 I7.91979 J17.81929
G1 F300.0 Z-10.0
G1 F800.0 Y-48.47938
G2 X-10.60606 Y-51.41752 I-3.0 J0.0
G2 X-28.85806 Y-43.8573 I10.60606 J51.41752
G2 X-29.33035 Y-39.22984 I1.64903 J2.50613
G1 X-7.91979 Y-17.81929
G3 X-7.0 Y-18.20027 I7.91979 J17.81929
G1 F300.0 Z-12.0
G1 F800.0 Y-48.47938
G2 X-10.60606 Y-51.41752 I-3.0 J0.0
G2 X-28.85806 Y-43.8573 I10.60606 J51.41752
G2 X-29.33035 Y-39.22984 I1.64903 J2.50613
G1 X-7.91979 Y-17.81929
G3 X-7.0 Y-18.20027 I7.91979 J17.81929
G1 F300.0 Z-14.0
G1 F800.0 Y-48.47938
G2 X-10.60606 Y-51.41752 I-3.0 J0.0
G2 X-28.85806 Y-43.8573 I10.60606 J51.41752
G2 X-29.33035 Y-39.22984 I1.64903 J2.50613
G1 X-7.91979 Y-17.81929
G3 X-7.0 Y-18.20027 I7.91979 J17.81929
G1 F300.0 Z-16.0
G1 F800.0 Y-48.47938
G2 X-10.60606 Y-51.41752 I-3.0 J0.0
G2 X-28.85806 Y-43.8573 I10.60606 J51.41752
G2 X-29.33035 Y-39.22984 I1.64903 J2.50613
G1 X-7.91979 Y-17.81929
G3 X-7.0 Y-18.20027 I7.91979 J17.81929
G1 F300.0 Z-18.0
G1 F800.0 Y-29.73299
G1 Y-31.23299 Z-16.0
G1 Y-35.23299
G1 Y-36.73299 Z-18.0
G1 Y-48.47938
G2 X-10.60606 Y-51.41752 I-3.0 J0.0
G2 X-17.21976 Y-49.59567 I10.60606 J51.41752
G2 X-18.63153 Y-49.08275 Z-16.0 I17.21976 J49.59567
G2 X-22.31438 Y-47.52177 I18.63153 J49.08275
G2 X-23.66473 Y-46.86396 Z-18.0 I22.31438 J47.52177
G2 X-28.85806 Y-43.8573 I23.66473 J46.86396
G2 X-29.33035 Y-39.22984 I1.64903 J2.50613
G1 X-20.39256 Y-30.29205
G1 X-19.3319 Y-29.23139 Z-16.0
G1 X-16.50347 Y-26.40297
G1 X-15.44281 Y-25.34231 Z-18.0
G1 X-7.91979 Y-17.81929
G3 X-7.0 Y-18.20027 I7.91979 J17.81929
G1 F300.0 Z-19.0
G1 F800.0 Y-29.73299
G1 Y-31.23299 Z-16.0
G1 Y-35.23299
G1 Y-36.73299 Z-19.0
G1 Y-48.47938
G2 X-10.60606 Y-51.41752 I-3.0 J0.0
G2 X-17.21976 Y-49.59567 I10.60606 J51.41752
G2 X-18.63153 Y-49.08275 Z-16.0 I17.21976 J49.59567
G2 X-22.31438 Y-47.52177 I18.63153 J49.08275
G2 X-23.66473 Y-46.86396 Z-19.0 I22.31438 J47.52177
G2 X-28.85806 Y-43.8573 I23.66473 J46.86396
G2 X-29.33035 Y-39.22984 I1.64903 J2.50613
G1 X-20.39256 Y-30.29205
G1 X-19.3319 Y-29.23139 Z-16.0
G1 X-16.50347 Y-26.40297
G1 X-15.44281 Y-25.34231 Z-19.0
G1 X-7.91979 Y-17.81929
G3 X-7.0 Y-18.20027 I7.91979 J17.81929
( Aussenkreis )
S1000
G0 Z3.0
G0 X123.03022 Y-31.49848
G0 Z1.0
G1 F300.0 Z-2.0
G1 F800.0 X125.14876 Y-21.59578
G3 X125.1641 Y-21.51621 I-1.95575 J0.4184
G3 X123.01167 Y-31.57735 I-125.1641 J21.51621
G3 X123.03022 Y-31.49848 I-1.93719 J0.49728
G1 F300.0 Z-4.0
G1 F800.0 X125.14876 Y-21.59578
G3 X125.1641 Y-21.51621 I-1.95575 J0.4184
G3 X123.01167 Y-31.57735 I-125.1641 J21.51621
G3 X123.03022 Y-31.49848 I-1.93719 J0.49728
G1 F300.0 Z-6.0
G1 F800.0 X125.14876 Y-21.59578
G3 X125.1641 Y-21.51621 I-1.95575 J0.4184
G3 X123.01167 Y-31.57735 I-125.1641 J21.51621
G3 X123.03022 Y-31.49848 I-1.93719 J0.49728
G1 F300.0 Z-8.0
G1 F800.0 X125.14876 Y-21.59578
G3 X125.1641 Y-21.51621 I-1.95575 J0.4184
G3 X123.01167 Y-31.57735 I-125.1641 J21.51621
G3 X123.03022 Y-31.49848 I-1.93719 J0.49728
G1 F300.0 Z-10.0
G1 F800.0 X125.14876 Y-21.59578
G3 X125.1641 Y-21.51621 I-1.95575 J0.4184
G3 X123.01167 Y-31.57735 I-125.1641 J21.51621
G3 X123.03022 Y-31.49848 I-1.93719 J0.49728
G1 F300.0 Z-12.0
G1 F800.0 X125.14876 Y-21.59578
G3 X125.1641 Y-21.51621 I-1.95575 J0.4184
G3 X123.01167 Y-31.57735 I-125.1641 J21.51621
G3 X123.03022 Y-31.49848 I-1.93719 J0.49728
G1 F300.0 Z-14.0
G1 F800.0 X125.14876 Y-21.59578
G3 X125.1641 Y-21.51621 I-1.95575 J0.4184
G3 X123.01167 Y-31.57735 I-125.1641 J21.51621
G3 X123.03022 Y-31.49848 I-1.93719 J0.49728
G1 F300.0 Z-16.0
G1 F800.0 X125.14876 Y-21.59578
G3 X125.1641 Y-21.51621 I-1.95575 J0.4184
G3 X123.01167 Y-31.57735 I-125.1641 J21.51621
G3 X123.03022 Y-31.49848 I-1.93719 J0.49728
G1 F300.0 Z-18.0
G1 F800.0 X125.14876 Y-21.59578
G3 X125.1641 Y-21.51621 I-1.95575 J0.4184
G3 X126.17737 Y14.43162 I-125.1641 J21.51621
G3 X125.99807 Y15.92122 Z-16.0 I-126.17737 J-14.43162
G3 X125.43419 Y19.88128 I-125.99807 J-15.92122
G3 X125.19056 Y21.36172 Z-18.0 I-125.43419 J-19.88128
G3 X79.01645 Y99.42535 I-125.19056 J-21.36172
G3 X77.83637 Y100.35188 Z-16.0 I-79.01645 J-99.42535
G3 X74.63746 Y102.75334 I-77.83637 J-100.35188
G3 X73.41837 Y103.62791 Z-18.0 I-74.63746 J-102.75334
G3 X-14.43092 Y126.17745 I-73.41837 J-103.62791
G3 X-15.92053 Y125.99816 Z-16.0 I14.43092 J-126.17745
G3 X-19.88058 Y125.4343 I15.92053 J-125.99816
G3 X-21.36102 Y125.19068 Z-18.0 I19.88058 J-125.4343
G3 X-99.42491 Y79.017 I21.36102 J-125.19068
G3 X-100.35145 Y77.83692 Z-16.0 I99.42491 J-79.017
G3 X-102.75293 Y74.63803 I100.35145 J-77.83692
G3 X-103.6275 Y73.41894 Z-18.0 I102.75293 J-74.63803
G3 X-126.17753 Y-14.43022 I103.6275 J-73.41894
G3 X-125.99825 Y-15.91983 Z-16.0 I126.17753 J14.43022
G3 X-125.43441 Y-19.87989 I125.99825 J15.91983
G3 X-125.1908 Y-21.36033 Z-18.0 I125.43441 J19.87989
G3 X-79.01755 Y-99.42448 I125.1908 J21.36033
G3 X-77.83748 Y-100.35102 Z-16.0 I79.01755 J99.42448
G3 X-74.6386 Y-102.75251 I77.83748 J100.35102
G3 X-73.41952 Y-103.62709 Z-18.0 I74.6386 J102.75251
G3 X14.42953 Y-126.17761 I73.41952 J103.62709
G3 X15.91913 Y-125.99834 Z-16.0 I-14.42953 J126.17761
G3 X19.87919 Y-125.43452 I-15.91913 J125.99834
G3 X21.35964 Y-125.19092 Z-18.0 I-19.87919 J125.43452
G3 X99.42404 Y-79.0181 I-21.35964 J125.19092
G3 X100.35059 Y-77.83803 Z-16.0 I-99.42404 J79.0181
G3 X102.7521 Y-74.63917 I-100.35059 J77.83803
G3 X103.62669 Y-73.42009 Z-18.0 I-102.7521 J74.63917
G3 X123.01167 Y-31.57735 I-103.62669 J73.42009
G3 X123.03022 Y-31.49848 I-1.93719 J0.49728
G1 F300.0 Z-19.0
G1 F800.0 X125.14876 Y-21.59578
G3 X125.1641 Y-21.51621 I-1.95575 J0.4184
G3 X126.17737 Y14.43162 I-125.1641 J21.51621
G3 X125.99807 Y15.92122 Z-16.0 I-126.17737 J-14.43162
G3 X125.43419 Y19.88128 I-125.99807 J-15.92122
G3 X125.19056 Y21.36172 Z-19.0 I-125.43419 J-19.88128
G3 X79.01645 Y99.42535 I-125.19056 J-21.36172
G3 X77.83637 Y100.35188 Z-16.0 I-79.01645 J-99.42535
G3 X74.63746 Y102.75334 I-77.83637 J-100.35188
G3 X73.41837 Y103.62791 Z-19.0 I-74.63746 J-102.75334
G3 X-14.43092 Y126.17745 I-73.41837 J-103.62791
G3 X-15.92053 Y125.99816 Z-16.0 I14.43092 J-126.17745
G3 X-19.88058 Y125.4343 I15.92053 J-125.99816
G3 X-21.36102 Y125.19068 Z-19.0 I19.88058 J-125.4343
G3 X-99.42491 Y79.017 I21.36102 J-125.19068
G3 X-100.35145 Y77.83692 Z-16.0 I99.42491 J-79.017
G3 X-102.75293 Y74.63803 I100.35145 J-77.83692
G3 X-103.6275 Y73.41894 Z-19.0 I102.75293 J-74.63803
G3 X-126.17753 Y-14.43022 I103.6275 J-73.41894
G3 X-125.99825 Y-15.91983 Z-16.0 I126.17753 J14.43022
G3 X-125.43441 Y-19.87989 I125.99825 J15.91983
G3 X-125.1908 Y-21.36033 Z-19.0 I125.43441 J19.87989
G3 X-79.01755 Y-99.42448 I125.1908 J21.36033
G3 X-77.83748 Y-100.35102 Z-16.0 I79.01755 J99.42448
G3 X-74.6386 Y-102.75251 I77.83748 J100.35102
G3 X-73.41952 Y-103.62709 Z-19.0 I74.6386 J102.75251
G3 X14.42953 Y-126.17761 I73.41952 J103.62709
G3 X15.91913 Y-125.99834 Z-16.0 I-14.42953 J126.17761
G3 X19.87919 Y-125.43452 I-15.91913 J125.99834
G3 X21.35964 Y-125.19092 Z-19.0 I-19.87919 J125.43452
G3 X99.42404 Y-79.0181 I-21.35964 J125.19092
G3 X100.35059 Y-77.83803 Z-16.0 I-99.42404 J79.0181
G3 X102.7521 Y-74.63917 I-100.35059 J77.83803
G3 X103.62669 Y-73.42009 Z-19.0 I-102.7521 J74.63917
G3 X123.01167 Y-31.57735 I-103.62669 J73.42009
G3 X123.03022 Y-31.49848 I-1.93719 J0.49728
G0 Z3.0
M5
M30
