( Made using CamBam - http://www.cambam.co.uk )
( wasserrad_seite2 7/8/2018 2:42:48 PM )
( T3 : 3.0 )
G21 G90 G64 G40
G0 Z3.0
( T3 : 3.0 )
T3 M6
( PVC-Rohr-Korrektur )
G17
M3 S1000
G0 X61.2 Y0.0
G0 Z1.0
G1 F300.0 Z-2.0
G3 F800.0 X-30.6 Y53.00075 I-61.2 J0.0
G3 Y-53.00075 I30.6 J-53.00075
G3 X61.2 Y0.0 I30.6 J53.00075
G1 F300.0 Z-4.0
G3 F800.0 X-30.6 Y53.00075 I-61.2 J0.0
G3 Y-53.00075 I30.6 J-53.00075
G3 X61.2 Y0.0 I30.6 J53.00075
G0 Z3.0
M5
M30
