( Made using CamBam - http://www.cambam.co.uk )
( wasserrad_seite1 7/8/2018 1:10:35 PM )
( T3 : 3.0 )
( T4 : 4.0 )
G21 G90 G64 G40
G0 Z3.0
( T3 : 3.0 )
T3 M6
( Vertiefung )
G17
M3 S1000
G0 X1.4858 Y60.9819
G0 Z1.0
G1 F300.0 Z-2.0
G2 F800.0 X28.3748 Y53.9988 I-1.4858 J-60.9819
G0 Z3.0
G0 X34.47991 Y53.91502
G0 Z1.0
G1 F300.0 Z-2.0
G1 F800.0 X79.53198 Y90.39746
G1 X80.28543 Y89.72084
G1 X35.36068 Y53.34149
G3 X34.47991 Y53.91502 I-35.36068 J-53.34149
G1 F300.0 X34.10231 Y54.3813
G1 F800.0 X79.5521 Y91.18581
G1 X81.20971 Y89.69725
G1 X35.50292 Y52.68462
G3 X35.39701 Y52.5957 I2.45435 J-3.03087
G3 X33.4513 Y53.85412 I-35.39701 J-52.5957
G1 X34.10231 Y54.3813
G1 F300.0 X33.34713 Y55.31388
G1 F800.0 X79.59235 Y92.76252
G1 X83.05826 Y89.65006
G1 X36.25811 Y51.75205
G3 X35.61276 Y50.99287 I1.69917 J-2.09829
G3 X31.36597 Y53.70957 I-35.61276 J-50.99287
G1 X33.34713 Y55.31388
G1 F300.0 X32.59194 Y56.24645
G1 F800.0 X79.63259 Y94.33922
G1 X84.90681 Y89.60288
G1 X37.01329 Y50.81947
G3 X37.04629 Y48.46207 I0.94398 J-1.16572
G3 X28.37481 Y53.9988 I-37.04629 J-48.46207
G3 X30.01653 Y54.16092 I0.69773 J1.32784
G1 X32.59194 Y56.24645
G0 Z3.0
G0 X37.0463 Y48.46207
G0 Z1.0
G1 F300.0 Z-2.0
G2 F800.0 X54.6954 Y27.00766 I-37.0463 J-48.46207
G0 Z3.0
G0 X59.58528 Y23.35138
G0 Z1.0
G1 F300.0 Z-2.0
G1 F800.0 X117.47702 Y26.38536
G1 X117.68887 Y25.39509
G1 X59.96074 Y22.36969
G3 X59.58528 Y23.35138 I-59.96074 J-22.36969
G1 F300.0 X59.55388 Y23.95056
G1 F800.0 X117.95668 Y27.01132
G1 X118.42276 Y24.83273
G1 X59.68971 Y21.75466
G3 X59.55176 Y21.74498 I0.20411 J-3.89466
G3 X58.71733 Y23.90672 I-59.55176 J-21.74498
G1 X59.55388 Y23.95056
G1 F300.0 X59.49108 Y25.14892
G1 F800.0 X56.94529 Y25.0155
G2 X58.78418 Y20.32145 I-56.94529 J-25.0155
G2 X59.75252 Y20.55631 I1.10964 J-2.46144
G1 X119.89053 Y23.70801
G1 X118.916 Y28.26325
G1 X59.49108 Y25.14892
G0 Z3.0
G0 X58.45637 Y17.43137
G0 Z1.0
G1 F300.0 Z-2.0
G3 F800.0 X54.6954 Y27.00765 I-58.45637 J-17.43137
G3 X56.11887 Y26.17383 I1.34496 J0.66413
G1 X119.87532 Y29.51517
G1 X121.3583 Y22.58328
G1 X59.81532 Y19.35795
G3 X58.45637 Y17.43137 I0.0785 J-1.49794
G2 X61.0 Y0.0 I-58.45637 J-17.43137
G2 X60.12421 Y-10.2995 I-61.0 J0.0
G3 X60.78571 Y-11.81077 I1.47846 J-0.25327
G1 X114.32975 Y-46.58267
G1 X111.45505 Y-53.06236
G1 X59.76993 Y-19.49765
G3 X57.5381 Y-20.25752 I-0.81696 J-1.25801
G2 X42.58761 Y-43.67259 I-57.5381 J20.25752
G3 X42.23448 Y-45.28406 I1.04724 J-1.07392
G1 X65.11411 Y-104.88752
G1 X58.97975 Y-108.43998
G1 X36.89446 Y-50.90581
G3 X34.64223 Y-50.20873 I-1.40037 J-0.53755
G2 X8.784 Y-60.36424 I-34.64223 J50.20873
G3 X7.55111 Y-61.46038 I0.216 J-1.48437
G1 X-8.97292 Y-123.1289
G1 X-16.0238 Y-122.39722
G1 X-0.07345 Y-62.86969
G3 X-1.4858 Y-60.9819 I-1.44889 J0.38823
G2 X-28.3748 Y-53.9988 I1.4858 J60.9819
G3 X-30.01653 Y-54.16092 I-0.69774 J-1.32784
G1 X-79.63259 Y-94.33922
G1 X-84.90681 Y-89.60288
G1 X-37.01329 Y-50.81947
G3 X-37.0463 Y-48.46207 I-0.94398 J1.16572
G3 X-30.5 Y-52.82755 I37.0463 J48.46207
G3 X-28.3748 Y-53.9988 I30.5 J52.82755
G0 Z3.0
G0 X-34.47991 Y-53.91502
G0 Z1.0
G1 F300.0 Z-2.0
G1 F800.0 X-79.53198 Y-90.39746
G1 X-80.28543 Y-89.72084
G1 X-35.36068 Y-53.34149
G3 X-34.47991 Y-53.91502 I35.36068 J53.34149
G1 F300.0 X-34.15664 Y-53.40954
G3 F800.0 X-33.4513 Y-53.85412 I34.15664 J53.40954
G1 X-79.5521 Y-91.18581
G1 X-81.20971 Y-89.69725
G1 X-35.50292 Y-52.68462
G3 X-35.39701 Y-52.5957 I-2.45435 J3.03087
G3 X-34.15664 Y-53.40954 I35.39701 J52.5957
G1 F300.0 X-33.51012 Y-52.3986
G2 F800.0 X-35.61276 Y-50.99287 I33.51012 J52.3986
G2 X-36.25811 Y-51.75205 I-2.34452 J1.33912
G1 X-83.05826 Y-89.65006
G1 X-79.59235 Y-92.76252
G1 X-31.36597 Y-53.70957
G2 X-33.51012 Y-52.3986 I31.36597 J53.70957
G1 F300.0 X-34.47991 Y-53.91502
G1 Z-4.0
G1 F800.0 X-79.53198 Y-90.39746
G1 X-80.28543 Y-89.72084
G1 X-35.36068 Y-53.34149
G3 X-34.47991 Y-53.91502 I35.36068 J53.34149
G1 F300.0 X-34.15664 Y-53.40954
G3 F800.0 X-33.4513 Y-53.85412 I34.15664 J53.40954
G1 X-79.5521 Y-91.18581
G1 X-81.20971 Y-89.69725
G1 X-35.50292 Y-52.68462
G3 X-35.39701 Y-52.5957 I-2.45435 J3.03087
G3 X-34.15664 Y-53.40954 I35.39701 J52.5957
G1 F300.0 X-33.51012 Y-52.3986
G2 F800.0 X-35.61276 Y-50.99287 I33.51012 J52.3986
G2 X-36.25811 Y-51.75205 I-2.34452 J1.33912
G1 X-83.05826 Y-89.65006
G1 X-79.59235 Y-92.76252
G1 X-31.36597 Y-53.70957
G2 X-33.51012 Y-52.3986 I31.36597 J53.70957
G0 Z3.0
G0 X59.96074 Y22.36969
G0 Z-1.0
G1 F300.0 Z-4.0
G3 F800.0 X59.58528 Y23.35138 I-59.96074 J-22.36969
G1 X117.47702 Y26.38536
G1 X117.68887 Y25.39509
G1 X59.96074 Y22.36969
G1 F300.0 X59.99214 Y21.77051
G1 F800.0 X59.68971 Y21.75466
G3 X59.55176 Y21.74498 I0.20411 J-3.89466
G3 X58.71733 Y23.90672 I-59.55176 J-21.74498
G1 X117.95668 Y27.01132
G1 X118.42276 Y24.83273
G1 X59.99214 Y21.77051
G1 F300.0 X60.05494 Y20.57216
G1 F800.0 X119.89053 Y23.70801
G1 X118.916 Y28.26325
G1 X56.94529 Y25.0155
G2 X58.78418 Y20.32145 I-56.94529 J-25.0155
G2 X59.75252 Y20.55631 I1.10964 J-2.46144
G1 X60.05494 Y20.57216
G0 Z3.0
G0 X37.0463 Y48.46207
G0 Z-1.0
G1 F300.0 Z-4.0
G2 F800.0 X54.6954 Y27.00766 I-37.0463 J-48.46207
G0 Z3.0
G0 X35.36068 Y53.34149
G0 Z-1.0
G1 F300.0 Z-4.0
G3 F800.0 X34.47991 Y53.91502 I-35.36068 J-53.34149
G1 X79.53198 Y90.39746
G1 X80.28543 Y89.72084
G1 X35.36068 Y53.34149
G1 F300.0 X35.73827 Y52.87521
G1 F800.0 X35.50292 Y52.68462
G3 X35.39701 Y52.5957 I2.45435 J-3.03087
G3 X33.4513 Y53.85412 I-35.39701 J-52.5957
G1 X79.5521 Y91.18581
G1 X81.20971 Y89.69725
G1 X35.73827 Y52.87521
G1 F300.0 X36.49346 Y51.94263
G1 F800.0 X36.25811 Y51.75205
G3 X35.61276 Y50.99287 I1.69917 J-2.09829
G3 X31.36597 Y53.70957 I-35.61276 J-50.99287
G1 X79.59235 Y92.76252
G1 X83.05826 Y89.65006
G1 X36.49346 Y51.94263
G1 F300.0 X37.24864 Y51.01006
G1 F800.0 X37.01329 Y50.81947
G3 X37.04629 Y48.46207 I0.94398 J-1.16572
G3 X28.37481 Y53.9988 I-37.04629 J-48.46207
G3 X30.01653 Y54.16092 I0.69773 J1.32784
G1 X79.63259 Y94.33922
G1 X84.90681 Y89.60288
G1 X37.24864 Y51.01006
G0 Z3.0
G0 X-2.74595 Y63.93866
G0 Z1.0
G1 F300.0 Z-2.0
G3 F800.0 X-3.79562 Y63.88494 I2.74595 J-63.93866
G1 X11.20842 Y119.88081
G1 X12.21569 Y119.77628
G1 X-2.74595 Y63.93866
G1 F300.0 X-2.1664 Y63.78337
G1 F800.0 X-2.24478 Y63.49085
G3 X-2.2782 Y63.35665 I3.76711 J-1.00939
G3 X-4.59199 Y63.23108 I2.2782 J-63.35665
G1 X10.76132 Y120.53042
G1 X12.97731 Y120.30047
G1 X-2.1664 Y63.78337
G1 F300.0 X-1.00729 Y63.47279
G1 F800.0 X-1.08567 Y63.18027
G3 X-1.16153 Y62.18675 I2.608 J-0.69881
G3 X-6.19409 Y61.88841 I1.16153 J-62.18675
G1 X9.86712 Y121.82966
G1 X14.50056 Y121.34884
G1 X-1.00729 Y63.47279
G1 F300.0 X0.15183 Y63.16221
G1 F800.0 X0.07345 Y62.86969
G3 X1.48579 Y60.9819 I1.44889 J-0.38823
G3 X-8.784 Y60.36424 I-1.48579 J-60.9819
G3 X-7.55111 Y61.46038 I-0.216 J1.48437
G1 X8.97292 Y123.1289
G1 X16.0238 Y122.39722
G1 X0.15183 Y63.16221
G0 Z3.0
G0 X1.4858 Y60.9819
G0 Z-1.0
G1 F300.0 Z-4.0
G2 F800.0 X28.3748 Y53.9988 I-1.4858 J-60.9819
G0 Z3.0
G0 X-34.64223 Y50.20873
G0 Z1.0
G1 F300.0 Z-2.0
G2 F800.0 X-30.5 Y52.82755 I34.64223 J-50.20873
G2 X-8.784 Y60.36424 I30.5 J-52.82755
G0 Z3.0
G0 X-3.79562 Y63.88494
G0 Z-1.0
G1 F300.0 Z-4.0
G1 F800.0 X11.20842 Y119.88081
G1 X12.21569 Y119.77628
G1 X-2.74595 Y63.93866
G3 X-3.79562 Y63.88494 I2.74595 J-63.93866
G1 F300.0 X-4.37518 Y64.04024
G1 F800.0 X10.76132 Y120.53042
G1 X12.97731 Y120.30047
G1 X-2.24478 Y63.49085
G3 X-2.2782 Y63.35665 I3.76711 J-1.00939
G3 X-4.59199 Y63.23108 I2.2782 J-63.35665
G1 X-4.37518 Y64.04024
G1 F300.0 X-5.53429 Y64.35082
G1 F800.0 X9.86712 Y121.82966
G1 X14.50056 Y121.34884
G1 X-1.08567 Y63.18027
G3 X-1.16153 Y62.18675 I2.608 J-0.69881
G3 X-6.19409 Y61.88841 I1.16153 J-62.18675
G1 X-5.53429 Y64.35082
G1 F300.0 X-6.6934 Y64.6614
G1 F800.0 X8.97292 Y123.1289
G1 X16.0238 Y122.39722
G1 X0.07345 Y62.86969
G3 X1.48579 Y60.9819 I1.44889 J-0.38823
G3 X-8.784 Y60.36424 I-1.48579 J-60.9819
G3 X-7.55111 Y61.46038 I-0.216 J1.48437
G1 X-6.6934 Y64.6614
G0 Z3.0
G0 X-40.41869 Y51.71547
G0 Z1.0
G1 F300.0 Z-2.0
G1 F800.0 X-39.80372 Y50.11343
G3 X-40.62135 Y49.45299 I39.80372 J-50.11343
G1 X-61.39636 Y103.57376
G1 X-60.52003 Y104.08125
G1 X-40.41869 Y51.71547
G1 F300.0 X-39.85854 Y51.9305
G1 F800.0 X-39.13505 Y50.04573
G3 X-39.08321 Y49.91752 I3.64096 J1.39764
G3 X-40.88129 Y48.45591 I39.08321 J-49.91752
G1 X-62.13991 Y103.83651
G1 X-60.21197 Y104.953
G1 X-39.85854 Y51.9305
G1 F300.0 X-38.73825 Y52.36054
G1 F800.0 X-38.01475 Y50.47577
G3 X-37.49216 Y49.62741 I2.52067 J0.96759
G3 X-41.38822 Y46.42798 I37.49216 J-49.62741
G1 X-63.62701 Y104.36201
G1 X-59.59586 Y106.69649
G1 X-38.73825 Y52.36054
G1 F300.0 X-37.61795 Y52.79058
G1 F800.0 X-36.89446 Y50.90581
G3 X-34.64223 Y50.20872 I1.40037 J0.53755
G3 X-42.58761 Y43.6726 I34.64223 J-50.20872
G3 X-42.23448 Y45.28406 I-1.04725 J1.07391
G1 X-65.11411 Y104.88752
G1 X-58.97975 Y108.43998
G1 X-37.61795 Y52.79058
G0 Z3.0
G0 X-34.64223 Y50.20873
G0 Z-1.0
G1 F300.0 Z-4.0
G2 F800.0 X-30.5 Y52.82755 I34.64223 J-50.20873
G2 X-8.784 Y60.36424 I30.5 J-52.82755
G0 Z3.0
G0 X-57.5381 Y20.25752
G0 Z1.0
G1 F300.0 Z-2.0
G3 F800.0 X-60.12421 Y10.2995 I57.5381 J-20.25752
G0 Z3.0
G0 X-61.9311 Y16.13168
G0 Z1.0
G1 F300.0 Z-2.0
G1 F800.0 X-110.54983 Y47.70505
G1 X-110.13916 Y48.63072
G1 X-61.65783 Y17.14658
G3 X-61.9311 Y16.13168 I61.65783 J-17.14658
G1 F300.0 X-62.25789 Y15.62848
G1 F800.0 X-111.30581 Y47.48058
G1 X-110.40233 Y49.51705
G1 X-61.07706 Y17.48484
G3 X-60.95976 Y17.41159 I2.12409 J3.27082
G3 X-61.55533 Y15.17224 I60.95976 J-17.41159
G1 X-62.25789 Y15.62848
G1 F300.0 X-62.91145 Y14.62208
G1 F800.0 X-60.77345 Y13.23364
G2 X-59.50205 Y18.11208 I60.77345 J-13.23364
G2 X-60.4235 Y18.49125 I0.54908 J2.64358
G1 X-110.92869 Y51.2897
G1 X-112.81778 Y47.03163
G1 X-62.91145 Y14.62208
G0 Z3.0
G0 X-58.45637 Y-17.43137
G0 Z1.0
G1 F300.0 Z-2.0
G3 F800.0 X-54.6954 Y-27.00765 I58.45637 J17.43137
G3 X-56.11887 Y-26.17383 I-1.34497 J-0.66412
G1 X-119.87532 Y-29.51517
G1 X-121.3583 Y-22.58328
G1 X-59.81532 Y-19.35795
G3 X-58.45637 Y-17.43137 I-0.0785 J1.49794
G2 X-60.12421 Y10.2995 I58.45637 J17.43137
G3 X-60.78571 Y11.81077 I-1.47846 J0.25327
G1 X-114.32975 Y46.58267
G1 X-111.45505 Y53.06236
G1 X-59.76993 Y19.49765
G3 X-57.5381 Y20.25752 I0.81696 J1.25801
G2 X-42.58761 Y43.67259 I57.5381 J-20.25752
G0 Z3.0
G0 X-40.62135 Y49.45299
G0 Z-1.0
G1 F300.0 Z-4.0
G1 F800.0 X-61.39636 Y103.57376
G1 X-60.52003 Y104.08125
G1 X-39.80372 Y50.11343
G3 X-40.62135 Y49.45299 I39.80372 J-50.11343
G1 F300.0 X-41.1815 Y49.23797
G1 F800.0 X-62.13991 Y103.83651
G1 X-60.21197 Y104.953
G1 X-39.13505 Y50.04573
G3 X-39.08321 Y49.91752 I3.64096 J1.39764
G3 X-40.88129 Y48.45591 I39.08321 J-49.91752
G1 X-41.1815 Y49.23797
G1 F300.0 X-42.3018 Y48.80793
G1 F800.0 X-63.62701 Y104.36201
G1 X-59.59586 Y106.69649
G1 X-38.01475 Y50.47577
G3 X-37.49216 Y49.62741 I2.52067 J0.96759
G3 X-41.38822 Y46.42798 I37.49216 J-49.62741
G1 X-42.3018 Y48.80793
G1 F300.0 X-43.42209 Y48.37789
G1 F800.0 X-65.11411 Y104.88752
G1 X-58.97975 Y108.43998
G1 X-36.89446 Y50.90581
G3 X-34.64223 Y50.20872 I1.40037 J0.53755
G3 X-42.58761 Y43.6726 I34.64223 J-50.20872
G3 X-42.23448 Y45.28406 I-1.04725 J1.07391
G1 X-43.42209 Y48.37789
G0 Z3.0
G0 X-57.5381 Y20.25752
G0 Z-1.0
G1 F300.0 Z-4.0
G3 F800.0 X-60.12421 Y10.2995 I57.5381 J-20.25752
G0 Z3.0
G0 X-61.9311 Y16.13168
G0 Z-1.0
G1 F300.0 Z-4.0
G1 F800.0 X-110.54983 Y47.70505
G1 X-110.13916 Y48.63072
G1 X-61.65783 Y17.14658
G3 X-61.9311 Y16.13168 I61.65783 J-17.14658
G1 F300.0 X-62.25789 Y15.62848
G1 F800.0 X-111.30581 Y47.48058
G1 X-110.40233 Y49.51705
G1 X-61.07706 Y17.48484
G3 X-60.95976 Y17.41159 I2.12409 J3.27082
G3 X-61.55533 Y15.17224 I60.95976 J-17.41159
G1 X-62.25789 Y15.62848
G1 F300.0 X-62.91145 Y14.62208
G1 F800.0 X-60.77345 Y13.23364
G2 X-59.50205 Y18.11208 I60.77345 J-13.23364
G2 X-60.4235 Y18.49125 I0.54908 J2.64358
G1 X-110.92869 Y51.2897
G1 X-112.81778 Y47.03163
G1 X-62.91145 Y14.62208
G0 Z3.0
G0 X-60.97003 Y-22.42258
G0 Z1.0
G1 F300.0 Z-2.0
G1 F800.0 X-59.96074 Y-22.36969
G3 X-59.58528 Y-23.35138 I59.96074 J22.36969
G1 X-117.47702 Y-26.38536
G1 X-117.68887 Y-25.39509
G1 X-60.97003 Y-22.42258
G1 F300.0 X-61.00143 Y-21.82341
G1 F800.0 X-59.68971 Y-21.75466
G3 X-59.55176 Y-21.74498 I-0.20411 J3.89466
G3 X-58.71733 Y-23.90672 I59.55176 J21.74498
G1 X-117.95668 Y-27.01132
G1 X-118.42276 Y-24.83273
G1 X-61.00143 Y-21.82341
G1 F300.0 X-61.06423 Y-20.62505
G1 F800.0 X-119.89053 Y-23.70801
G1 X-118.916 Y-28.26325
G1 X-56.94529 Y-25.0155
G2 X-58.78418 Y-20.32145 I56.94529 J25.0155
G2 X-59.75252 Y-20.55631 I-1.10964 J2.46144
G1 X-61.06423 Y-20.62505
G1 F300.0 X-60.97003 Y-22.42258
G1 Z-4.0
G1 F800.0 X-59.96074 Y-22.36969
G3 X-59.58528 Y-23.35138 I59.96074 J22.36969
G1 X-117.47702 Y-26.38536
G1 X-117.68887 Y-25.39509
G1 X-60.97003 Y-22.42258
G1 F300.0 X-61.00143 Y-21.82341
G1 F800.0 X-59.68971 Y-21.75466
G3 X-59.55176 Y-21.74498 I-0.20411 J3.89466
G3 X-58.71733 Y-23.90672 I59.55176 J21.74498
G1 X-117.95668 Y-27.01132
G1 X-118.42276 Y-24.83273
G1 X-61.00143 Y-21.82341
G1 F300.0 X-61.06423 Y-20.62505
G1 F800.0 X-119.89053 Y-23.70801
G1 X-118.916 Y-28.26325
G1 X-56.94529 Y-25.0155
G2 X-58.78418 Y-20.32145 I56.94529 J25.0155
G2 X-59.75252 Y-20.55631 I-1.10964 J2.46144
G1 X-61.06423 Y-20.62505
G0 Z3.0
G0 X-37.0463 Y-48.46207
G0 Z-1.0
G1 F300.0 Z-2.0
G2 F800.0 X-54.6954 Y-27.00766 I37.0463 J48.46207
G0 Z3.0
G0 X-58.45637 Y-17.43137
G0 Z-1.0
G1 F300.0 Z-4.0
G3 F800.0 X-54.6954 Y-27.00765 I58.45637 J17.43137
G3 X-56.11887 Y-26.17383 I-1.34497 J-0.66412
G1 X-119.87532 Y-29.51517
G1 X-121.3583 Y-22.58328
G1 X-59.81532 Y-19.35795
G3 X-58.45637 Y-17.43137 I-0.0785 J1.49794
G2 X-60.12421 Y10.2995 I58.45637 J17.43137
G3 X-60.78571 Y11.81077 I-1.47846 J0.25327
G1 X-114.32975 Y46.58267
G1 X-111.45505 Y53.06236
G1 X-59.76993 Y19.49765
G3 X-57.5381 Y20.25752 I0.81696 J1.25801
G2 X-42.58761 Y43.67259 I57.5381 J-20.25752
G0 Z3.0
G0 X-37.0463 Y-48.46207
G0 Z-1.0
G1 F300.0 Z-4.0
G2 F800.0 X-54.6954 Y-27.00766 I37.0463 J48.46207
G0 Z3.0
G0 X-1.4858 Y-60.9819
G0 Z-1.0
G1 F300.0 Z-2.0
G3 F800.0 X8.784 Y-60.36424 I1.4858 J60.9819
G0 Z3.0
G0 X3.79562 Y-63.88494
G0 Z1.0
G1 F300.0 Z-2.0
G1 F800.0 X-11.20842 Y-119.88081
G1 X-12.21569 Y-119.77628
G1 X2.74595 Y-63.93866
G3 X3.79562 Y-63.88494 I-2.74595 J63.93866
G1 F300.0 X4.37518 Y-64.04024
G1 F800.0 X-10.76132 Y-120.53042
G1 X-12.97731 Y-120.30047
G1 X2.24478 Y-63.49085
G3 X2.2782 Y-63.35665 I-3.76711 J1.00939
G3 X4.59199 Y-63.23108 I-2.2782 J63.35665
G1 X4.37518 Y-64.04024
G1 F300.0 X5.53429 Y-64.35082
G1 F800.0 X6.19409 Y-61.88841
G2 X1.16153 Y-62.18675 I-6.19409 J61.88841
G2 X1.08567 Y-63.18027 I-2.68387 J-0.2947
G1 X-14.50056 Y-121.34884
G1 X-9.86712 Y-121.82966
G1 X5.53429 Y-64.35082
G1 F300.0 X3.79562 Y-63.88494
G1 Z-4.0
G1 F800.0 X-11.20842 Y-119.88081
G1 X-12.21569 Y-119.77628
G1 X2.74595 Y-63.93866
G3 X3.79562 Y-63.88494 I-2.74595 J63.93866
G1 F300.0 X4.37518 Y-64.04024
G1 F800.0 X-10.76132 Y-120.53042
G1 X-12.97731 Y-120.30047
G1 X2.24478 Y-63.49085
G3 X2.2782 Y-63.35665 I-3.76711 J1.00939
G3 X4.59199 Y-63.23108 I-2.2782 J63.35665
G1 X4.37518 Y-64.04024
G1 F300.0 X5.53429 Y-64.35082
G1 F800.0 X6.19409 Y-61.88841
G2 X1.16153 Y-62.18675 I-6.19409 J61.88841
G2 X1.08567 Y-63.18027 I-2.68387 J-0.2947
G1 X-14.50056 Y-121.34884
G1 X-9.86712 Y-121.82966
G1 X5.53429 Y-64.35082
G0 Z3.0
G0 X-1.4858 Y-60.9819
G0 Z-1.0
G1 F300.0 Z-4.0
G3 F800.0 X8.784 Y-60.36424 I1.4858 J60.9819
G0 Z3.0
G0 X34.64223 Y-50.20873
G0 Z-1.0
G1 F300.0 Z-2.0
G3 F800.0 X42.58761 Y-43.67259 I-34.64223 J50.20873
G0 Z3.0
G0 X40.62135 Y-49.45299
G0 Z1.0
G1 F300.0 Z-2.0
G1 F800.0 X61.39636 Y-103.57376
G1 X60.52003 Y-104.08125
G1 X39.80372 Y-50.11343
G3 X40.62135 Y-49.45299 I-39.80372 J50.11343
G1 F300.0 X41.1815 Y-49.23797
G1 F800.0 X62.13991 Y-103.83651
G1 X60.21197 Y-104.953
G1 X39.13505 Y-50.04573
G3 X39.08321 Y-49.91752 I-3.64096 J-1.39764
G3 X40.88129 Y-48.45591 I-39.08321 J49.91752
G1 X41.1815 Y-49.23797
G1 F300.0 X42.3018 Y-48.80793
G1 F800.0 X41.38822 Y-46.42798
G2 X37.49216 Y-49.62741 I-41.38822 J46.42798
G2 X38.01475 Y-50.47577 I-1.99807 J-1.81596
G1 X59.59586 Y-106.69649
G1 X63.62701 Y-104.36201
G1 X42.3018 Y-48.80793
G1 F300.0 X40.62135 Y-49.45299
G1 Z-4.0
G1 F800.0 X61.39636 Y-103.57376
G1 X60.52003 Y-104.08125
G1 X39.80372 Y-50.11343
G3 X40.62135 Y-49.45299 I-39.80372 J50.11343
G1 F300.0 X41.1815 Y-49.23797
G1 F800.0 X62.13991 Y-103.83651
G1 X60.21197 Y-104.953
G1 X39.13505 Y-50.04573
G3 X39.08321 Y-49.91752 I-3.64096 J-1.39764
G3 X40.88129 Y-48.45591 I-39.08321 J49.91752
G1 X41.1815 Y-49.23797
G1 F300.0 X42.3018 Y-48.80793
G1 F800.0 X41.38822 Y-46.42798
G2 X37.49216 Y-49.62741 I-41.38822 J46.42798
G2 X38.01475 Y-50.47577 I-1.99807 J-1.81596
G1 X59.59586 Y-106.69649
G1 X63.62701 Y-104.36201
G1 X42.3018 Y-48.80793
G0 Z3.0
G0 X34.64223 Y-50.20873
G0 Z-1.0
G1 F300.0 Z-4.0
G3 F800.0 X42.58761 Y-43.67259 I-34.64223 J50.20873
G0 Z3.0
G0 X57.5381 Y-20.25752
G0 Z-1.0
G1 F300.0 Z-2.0
G3 F800.0 X60.12421 Y-10.2995 I-57.5381 J20.25752
G0 Z3.0
G0 X61.9311 Y-16.13168
G0 Z1.0
G1 F300.0 Z-2.0
G1 F800.0 X110.54983 Y-47.70505
G1 X110.13916 Y-48.63072
G1 X61.65783 Y-17.14658
G3 X61.9311 Y-16.13168 I-61.65783 J17.14658
G1 F300.0 X61.35048 Y-15.98044
G3 F800.0 X61.55533 Y-15.17224 I-61.35048 J15.98044
G1 X111.30581 Y-47.48058
G1 X110.40233 Y-49.51705
G1 X61.07706 Y-17.48484
G3 X60.95976 Y-17.41159 I-2.12409 J-3.27082
G3 X61.35048 Y-15.98044 I-60.95976 J17.41159
G1 F300.0 X60.18923 Y-15.67796
G2 F800.0 X59.50205 Y-18.11208 I-60.18923 J15.67796
G2 X60.4235 Y-18.49125 I-0.54908 J-2.64358
G1 X110.92869 Y-51.2897
G1 X112.81778 Y-47.03163
G1 X60.77345 Y-13.23364
G2 X60.18923 Y-15.67796 I-60.77345 J13.23364
G1 F300.0 X61.9311 Y-16.13168
G1 Z-4.0
G1 F800.0 X110.54983 Y-47.70505
G1 X110.13916 Y-48.63072
G1 X61.65783 Y-17.14658
G3 X61.9311 Y-16.13168 I-61.65783 J17.14658
G1 F300.0 X61.35048 Y-15.98044
G3 F800.0 X61.55533 Y-15.17224 I-61.35048 J15.98044
G1 X111.30581 Y-47.48058
G1 X110.40233 Y-49.51705
G1 X61.07706 Y-17.48484
G3 X60.95976 Y-17.41159 I-2.12409 J-3.27082
G3 X61.35048 Y-15.98044 I-60.95976 J17.41159
G1 F300.0 X60.18923 Y-15.67796
G2 F800.0 X59.50205 Y-18.11208 I-60.18923 J15.67796
G2 X60.4235 Y-18.49125 I-0.54908 J-2.64358
G1 X110.92869 Y-51.2897
G1 X112.81778 Y-47.03163
G1 X60.77345 Y-13.23364
G2 X60.18923 Y-15.67796 I-60.77345 J13.23364
G0 Z3.0
G0 X57.5381 Y-20.25752
G0 Z-1.0
G1 F300.0 Z-4.0
G3 F800.0 X60.12421 Y-10.2995 I-57.5381 J20.25752
G0 Z3.0
G0 X58.45637 Y17.43137
G0 Z-1.0
G1 F300.0 Z-4.0
G3 F800.0 X54.6954 Y27.00765 I-58.45637 J-17.43137
G3 X56.11887 Y26.17383 I1.34496 J0.66413
G1 X119.87532 Y29.51517
G1 X121.3583 Y22.58328
G1 X59.81532 Y19.35795
G3 X58.45637 Y17.43137 I0.0785 J-1.49794
G2 X61.0 Y0.0 I-58.45637 J-17.43137
G2 X60.12421 Y-10.2995 I-61.0 J0.0
G3 X60.78571 Y-11.81077 I1.47846 J-0.25327
G1 X114.32975 Y-46.58267
G1 X111.45505 Y-53.06236
G1 X59.76993 Y-19.49765
G3 X57.5381 Y-20.25752 I-0.81696 J-1.25801
G2 X42.58761 Y-43.67259 I-57.5381 J20.25752
G3 X42.23448 Y-45.28406 I1.04724 J-1.07392
G1 X65.11411 Y-104.88752
G1 X58.97975 Y-108.43998
G1 X36.89446 Y-50.90581
G3 X34.64223 Y-50.20873 I-1.40037 J-0.53755
G2 X8.784 Y-60.36424 I-34.64223 J50.20873
G3 X7.55111 Y-61.46038 I0.216 J-1.48437
G1 X-8.97292 Y-123.1289
G1 X-16.0238 Y-122.39722
G1 X-0.07345 Y-62.86969
G3 X-1.4858 Y-60.9819 I-1.44889 J0.38823
G2 X-28.3748 Y-53.9988 I1.4858 J60.9819
G3 X-30.01653 Y-54.16092 I-0.69774 J-1.32784
G1 X-79.63259 Y-94.33922
G1 X-84.90681 Y-89.60288
G1 X-37.01329 Y-50.81947
G3 X-37.0463 Y-48.46207 I-0.94398 J1.16572
G3 X-30.5 Y-52.82755 I37.0463 J48.46207
G3 X-28.3748 Y-53.9988 I30.5 J52.82755
( Veriefung-Rohr )
S1000
G0 Z3.0
G0 X13.5 Y0.0
G0 Z1.0
G1 F300.0 Z-2.0
G2 F800.0 X-6.75 Y-11.69134 I-13.5 J0.0
G2 Y11.69134 I6.75 J11.69134
G2 X13.5 Y0.0 I6.75 J-11.69134
G1 F300.0 X12.5
G3 F800.0 X-6.25 Y10.82532 I-12.5 J0.0
G3 Y-10.82532 I6.25 J-10.82532
G3 X12.5 Y0.0 I6.25 J10.82532
G1 F300.0 Z-4.0
G3 F800.0 X-6.25 Y10.82532 I-12.5 J0.0
G3 Y-10.82532 I6.25 J-10.82532
G3 X12.5 Y0.0 I6.25 J10.82532
G1 F300.0 X13.5
G2 F800.0 X-6.75 Y-11.69134 I-13.5 J0.0
G2 Y11.69134 I6.75 J11.69134
G2 X13.5 Y0.0 I6.75 J-11.69134
( Bohrung )
G0 Z3.0
( T4 : 4.0 )
T4 M6
M3 S1000
G0 X3.0
G0 Z1.0
G1 F300.0 Z-2.0
G2 F800.0 X-1.5 Y-2.59808 I-3.0 J0.0
G2 Y2.59808 I1.5 J2.59808
G2 X3.0 Y0.0 I1.5 J-2.59808
G1 F300.0 Z-4.0
G2 F800.0 X-1.5 Y-2.59808 I-3.0 J0.0
G2 Y2.59808 I1.5 J2.59808
G2 X3.0 Y0.0 I1.5 J-2.59808
G1 F300.0 Z-6.0
G2 F800.0 X-1.5 Y-2.59808 I-3.0 J0.0
G2 Y2.59808 I1.5 J2.59808
G2 X3.0 Y0.0 I1.5 J-2.59808
G1 F300.0 Z-8.0
G2 F800.0 X-1.5 Y-2.59808 I-3.0 J0.0
G2 Y2.59808 I1.5 J2.59808
G2 X3.0 Y0.0 I1.5 J-2.59808
G1 F300.0 Z-10.0
G2 F800.0 X-1.5 Y-2.59808 I-3.0 J0.0
G2 Y2.59808 I1.5 J2.59808
G2 X3.0 Y0.0 I1.5 J-2.59808
G1 F300.0 Z-12.0
G2 F800.0 X-1.5 Y-2.59808 I-3.0 J0.0
G2 Y2.59808 I1.5 J2.59808
G2 X3.0 Y0.0 I1.5 J-2.59808
G1 F300.0 Z-14.0
G2 F800.0 X-1.5 Y-2.59808 I-3.0 J0.0
G2 Y2.59808 I1.5 J2.59808
G2 X3.0 Y0.0 I1.5 J-2.59808
G1 F300.0 Z-16.0
G2 F800.0 X-1.5 Y-2.59808 I-3.0 J0.0
G2 Y2.59808 I1.5 J2.59808
G2 X3.0 Y0.0 I1.5 J-2.59808
G1 F300.0 Z-18.0
G2 F800.0 X-1.5 Y-2.59808 I-3.0 J0.0
G2 Y2.59808 I1.5 J2.59808
G2 X3.0 Y0.0 I1.5 J-2.59808
G1 F300.0 Z-19.0
G2 F800.0 X-1.5 Y-2.59808 I-3.0 J0.0
G2 Y2.59808 I1.5 J2.59808
G2 X3.0 Y0.0 I1.5 J-2.59808
( Oeffnungen )
S1000
G0 Z3.0
G0 X-18.20027 Y7.0
G0 Z1.0
G1 F300.0 Z-2.0
G1 F800.0 X-48.47938
G2 X-51.41752 Y10.60606 I0.0 J3.0
G2 X-43.8573 Y28.85806 I51.41752 J-10.60606
G2 X-39.22984 Y29.33035 I2.50613 J-1.64903
G1 X-17.81929 Y7.91979
G3 X-18.20027 Y7.0 I17.81929 J-7.91979
G1 F300.0 Z-4.0
G1 F800.0 X-48.47938
G2 X-51.41752 Y10.60606 I0.0 J3.0
G2 X-43.8573 Y28.85806 I51.41752 J-10.60606
G2 X-39.22984 Y29.33035 I2.50613 J-1.64903
G1 X-17.81929 Y7.91979
G3 X-18.20027 Y7.0 I17.81929 J-7.91979
G1 F300.0 Z-6.0
G1 F800.0 X-48.47938
G2 X-51.41752 Y10.60606 I0.0 J3.0
G2 X-43.8573 Y28.85806 I51.41752 J-10.60606
G2 X-39.22984 Y29.33035 I2.50613 J-1.64903
G1 X-17.81929 Y7.91979
G3 X-18.20027 Y7.0 I17.81929 J-7.91979
G1 F300.0 Z-8.0
G1 F800.0 X-48.47938
G2 X-51.41752 Y10.60606 I0.0 J3.0
G2 X-43.8573 Y28.85806 I51.41752 J-10.60606
G2 X-39.22984 Y29.33035 I2.50613 J-1.64903
G1 X-17.81929 Y7.91979
G3 X-18.20027 Y7.0 I17.81929 J-7.91979
G1 F300.0 Z-10.0
G1 F800.0 X-48.47938
G2 X-51.41752 Y10.60606 I0.0 J3.0
G2 X-43.8573 Y28.85806 I51.41752 J-10.60606
G2 X-39.22984 Y29.33035 I2.50613 J-1.64903
G1 X-17.81929 Y7.91979
G3 X-18.20027 Y7.0 I17.81929 J-7.91979
G1 F300.0 Z-12.0
G1 F800.0 X-48.47938
G2 X-51.41752 Y10.60606 I0.0 J3.0
G2 X-43.8573 Y28.85806 I51.41752 J-10.60606
G2 X-39.22984 Y29.33035 I2.50613 J-1.64903
G1 X-17.81929 Y7.91979
G3 X-18.20027 Y7.0 I17.81929 J-7.91979
G1 F300.0 Z-14.0
G1 F800.0 X-48.47938
G2 X-51.41752 Y10.60606 I0.0 J3.0
G2 X-43.8573 Y28.85806 I51.41752 J-10.60606
G2 X-39.22984 Y29.33035 I2.50613 J-1.64903
G1 X-17.81929 Y7.91979
G3 X-18.20027 Y7.0 I17.81929 J-7.91979
G1 F300.0 Z-16.0
G1 F800.0 X-48.47938
G2 X-51.41752 Y10.60606 I0.0 J3.0
G2 X-43.8573 Y28.85806 I51.41752 J-10.60606
G2 X-39.22984 Y29.33035 I2.50613 J-1.64903
G1 X-17.81929 Y7.91979
G3 X-18.20027 Y7.0 I17.81929 J-7.91979
G1 F300.0 Z-18.0
G1 F800.0 X-29.73299
G1 X-31.23299 Z-16.0
G1 X-35.23299
G1 X-36.73299 Z-18.0
G1 X-48.47938
G2 X-51.41752 Y10.60606 I0.0 J3.0
G2 X-49.59567 Y17.21976 I51.41752 J-10.60606
G2 X-49.08275 Y18.63153 Z-16.0 I49.59567 J-17.21976
G2 X-47.52177 Y22.31438 I49.08275 J-18.63153
G2 X-46.86396 Y23.66473 Z-18.0 I47.52177 J-22.31438
G2 X-43.8573 Y28.85806 I46.86396 J-23.66473
G2 X-39.22984 Y29.33035 I2.50613 J-1.64903
G1 X-30.29205 Y20.39256
G1 X-29.23139 Y19.3319 Z-16.0
G1 X-26.40297 Y16.50347
G1 X-25.34231 Y15.44281 Z-18.0
G1 X-17.81929 Y7.91979
G3 X-18.20027 Y7.0 I17.81929 J-7.91979
G1 F300.0 Z-19.0
G1 F800.0 X-29.73299
G1 X-31.23299 Z-16.0
G1 X-35.23299
G1 X-36.73299 Z-19.0
G1 X-48.47938
G2 X-51.41752 Y10.60606 I0.0 J3.0
G2 X-49.59567 Y17.21976 I51.41752 J-10.60606
G2 X-49.08275 Y18.63153 Z-16.0 I49.59567 J-17.21976
G2 X-47.52177 Y22.31438 I49.08275 J-18.63153
G2 X-46.86396 Y23.66473 Z-19.0 I47.52177 J-22.31438
G2 X-43.8573 Y28.85806 I46.86396 J-23.66473
G2 X-39.22984 Y29.33035 I2.50613 J-1.64903
G1 X-30.29205 Y20.39256
G1 X-29.23139 Y19.3319 Z-16.0
G1 X-26.40297 Y16.50347
G1 X-25.34231 Y15.44281 Z-19.0
G1 X-17.81929 Y7.91979
G3 X-18.20027 Y7.0 I17.81929 J-7.91979
G0 Z3.0
G0 Y-7.0
G0 Z1.0
G1 F300.0 Z-2.0
G3 F800.0 X-17.81929 Y-7.91979 I18.20027 J7.0
G1 X-39.22984 Y-29.33035
G2 X-43.8573 Y-28.85806 I-2.12132 J2.12132
G2 X-51.41752 Y-10.60606 I43.8573 J28.85806
G2 X-48.47938 Y-7.0 I2.93814 J0.60606
G1 X-18.20027
G1 F300.0 Z-4.0
G3 F800.0 X-17.81929 Y-7.91979 I18.20027 J7.0
G1 X-39.22984 Y-29.33035
G2 X-43.8573 Y-28.85806 I-2.12132 J2.12132
G2 X-51.41752 Y-10.60606 I43.8573 J28.85806
G2 X-48.47938 Y-7.0 I2.93814 J0.60606
G1 X-18.20027
G1 F300.0 Z-6.0
G3 F800.0 X-17.81929 Y-7.91979 I18.20027 J7.0
G1 X-39.22984 Y-29.33035
G2 X-43.8573 Y-28.85806 I-2.12132 J2.12132
G2 X-51.41752 Y-10.60606 I43.8573 J28.85806
G2 X-48.47938 Y-7.0 I2.93814 J0.60606
G1 X-18.20027
G1 F300.0 Z-8.0
G3 F800.0 X-17.81929 Y-7.91979 I18.20027 J7.0
G1 X-39.22984 Y-29.33035
G2 X-43.8573 Y-28.85806 I-2.12132 J2.12132
G2 X-51.41752 Y-10.60606 I43.8573 J28.85806
G2 X-48.47938 Y-7.0 I2.93814 J0.60606
G1 X-18.20027
G1 F300.0 Z-10.0
G3 F800.0 X-17.81929 Y-7.91979 I18.20027 J7.0
G1 X-39.22984 Y-29.33035
G2 X-43.8573 Y-28.85806 I-2.12132 J2.12132
G2 X-51.41752 Y-10.60606 I43.8573 J28.85806
G2 X-48.47938 Y-7.0 I2.93814 J0.60606
G1 X-18.20027
G1 F300.0 Z-12.0
G3 F800.0 X-17.81929 Y-7.91979 I18.20027 J7.0
G1 X-39.22984 Y-29.33035
G2 X-43.8573 Y-28.85806 I-2.12132 J2.12132
G2 X-51.41752 Y-10.60606 I43.8573 J28.85806
G2 X-48.47938 Y-7.0 I2.93814 J0.60606
G1 X-18.20027
G1 F300.0 Z-14.0
G3 F800.0 X-17.81929 Y-7.91979 I18.20027 J7.0
G1 X-39.22984 Y-29.33035
G2 X-43.8573 Y-28.85806 I-2.12132 J2.12132
G2 X-51.41752 Y-10.60606 I43.8573 J28.85806
G2 X-48.47938 Y-7.0 I2.93814 J0.60606
G1 X-18.20027
G1 F300.0 Z-16.0
G3 F800.0 X-17.81929 Y-7.91979 I18.20027 J7.0
G1 X-39.22984 Y-29.33035
G2 X-43.8573 Y-28.85806 I-2.12132 J2.12132
G2 X-51.41752 Y-10.60606 I43.8573 J28.85806
G2 X-48.47938 Y-7.0 I2.93814 J0.60606
G1 X-18.20027
G1 F300.0 Z-18.0
G3 F800.0 X-17.81929 Y-7.91979 I18.20027 J7.0
G1 X-25.97415 Y-16.07465
G1 X-27.03481 Y-17.13531 Z-16.0
G1 X-29.86324 Y-19.96374
G1 X-30.9239 Y-21.0244 Z-18.0
G1 X-39.22984 Y-29.33035
G2 X-43.8573 Y-28.85806 I-2.12132 J2.12132
G2 X-47.24564 Y-22.89323 I43.8573 J28.85806
G2 X-47.88122 Y-21.53226 Z-16.0 I47.24564 J22.89323
G2 X-49.38161 Y-17.82432 I47.88122 J21.53226
G2 X-49.87132 Y-16.40433 Z-18.0 I49.38161 J17.82432
G2 X-51.41752 Y-10.60606 I49.87132 J16.40433
G2 X-48.47938 Y-7.0 I2.93814 J0.60606
G1 X-35.83943
G1 X-34.33943 Z-16.0
G1 X-30.33943
G1 X-28.83943 Z-18.0
G1 X-18.20027
G1 F300.0 Z-19.0
G3 F800.0 X-17.81929 Y-7.91979 I18.20027 J7.0
G1 X-25.97415 Y-16.07465
G1 X-27.03481 Y-17.13531 Z-16.0
G1 X-29.86324 Y-19.96374
G1 X-30.9239 Y-21.0244 Z-19.0
G1 X-39.22984 Y-29.33035
G2 X-43.8573 Y-28.85806 I-2.12132 J2.12132
G2 X-47.24564 Y-22.89323 I43.8573 J28.85806
G2 X-47.88122 Y-21.53226 Z-16.0 I47.24564 J22.89323
G2 X-49.38161 Y-17.82432 I47.88122 J21.53226
G2 X-49.87132 Y-16.40433 Z-19.0 I49.38161 J17.82432
G2 X-51.41752 Y-10.60606 I49.87132 J16.40433
G2 X-48.47938 Y-7.0 I2.93814 J0.60606
G1 X-35.83943
G1 X-34.33943 Z-16.0
G1 X-30.33943
G1 X-28.83943 Z-19.0
G1 X-18.20027
G0 Z3.0
G0 X-7.91979 Y-17.81929
G0 Z1.0
G1 F300.0 Z-2.0
G3 F800.0 X-7.0 Y-18.20027 I7.91979 J17.81929
G1 Y-48.47938
G2 X-10.60606 Y-51.41752 I-3.0 J0.0
G2 X-28.85806 Y-43.8573 I10.60606 J51.41752
G2 X-29.33035 Y-39.22984 I1.64903 J2.50613
G1 X-7.91979 Y-17.81929
G1 F300.0 Z-4.0
G3 F800.0 X-7.0 Y-18.20027 I7.91979 J17.81929
G1 Y-48.47938
G2 X-10.60606 Y-51.41752 I-3.0 J0.0
G2 X-28.85806 Y-43.8573 I10.60606 J51.41752
G2 X-29.33035 Y-39.22984 I1.64903 J2.50613
G1 X-7.91979 Y-17.81929
G1 F300.0 Z-6.0
G3 F800.0 X-7.0 Y-18.20027 I7.91979 J17.81929
G1 Y-48.47938
G2 X-10.60606 Y-51.41752 I-3.0 J0.0
G2 X-28.85806 Y-43.8573 I10.60606 J51.41752
G2 X-29.33035 Y-39.22984 I1.64903 J2.50613
G1 X-7.91979 Y-17.81929
G1 F300.0 Z-8.0
G3 F800.0 X-7.0 Y-18.20027 I7.91979 J17.81929
G1 Y-48.47938
G2 X-10.60606 Y-51.41752 I-3.0 J0.0
G2 X-28.85806 Y-43.8573 I10.60606 J51.41752
G2 X-29.33035 Y-39.22984 I1.64903 J2.50613
G1 X-7.91979 Y-17.81929
G1 F300.0 Z-10.0
G3 F800.0 X-7.0 Y-18.20027 I7.91979 J17.81929
G1 Y-48.47938
G2 X-10.60606 Y-51.41752 I-3.0 J0.0
G2 X-28.85806 Y-43.8573 I10.60606 J51.41752
G2 X-29.33035 Y-39.22984 I1.64903 J2.50613
G1 X-7.91979 Y-17.81929
G1 F300.0 Z-12.0
G3 F800.0 X-7.0 Y-18.20027 I7.91979 J17.81929
G1 Y-48.47938
G2 X-10.60606 Y-51.41752 I-3.0 J0.0
G2 X-28.85806 Y-43.8573 I10.60606 J51.41752
G2 X-29.33035 Y-39.22984 I1.64903 J2.50613
G1 X-7.91979 Y-17.81929
G1 F300.0 Z-14.0
G3 F800.0 X-7.0 Y-18.20027 I7.91979 J17.81929
G1 Y-48.47938
G2 X-10.60606 Y-51.41752 I-3.0 J0.0
G2 X-28.85806 Y-43.8573 I10.60606 J51.41752
G2 X-29.33035 Y-39.22984 I1.64903 J2.50613
G1 X-7.91979 Y-17.81929
G1 F300.0 Z-16.0
G3 F800.0 X-7.0 Y-18.20027 I7.91979 J17.81929
G1 Y-48.47938
G2 X-10.60606 Y-51.41752 I-3.0 J0.0
G2 X-28.85806 Y-43.8573 I10.60606 J51.41752
G2 X-29.33035 Y-39.22984 I1.64903 J2.50613
G1 X-7.91979 Y-17.81929
G1 F300.0 Z-18.0
G3 F800.0 X-7.0 Y-18.20027 I7.91979 J17.81929
G1 Y-29.73299
G1 Y-31.23299 Z-16.0
G1 Y-35.23299
G1 Y-36.73299 Z-18.0
G1 Y-48.47938
G2 X-10.60606 Y-51.41752 I-3.0 J0.0
G2 X-17.21976 Y-49.59567 I10.60606 J51.41752
G2 X-18.63153 Y-49.08275 Z-16.0 I17.21976 J49.59567
G2 X-22.31438 Y-47.52177 I18.63153 J49.08275
G2 X-23.66473 Y-46.86396 Z-18.0 I22.31438 J47.52177
G2 X-28.85806 Y-43.8573 I23.66473 J46.86396
G2 X-29.33035 Y-39.22984 I1.64903 J2.50613
G1 X-20.39256 Y-30.29205
G1 X-19.3319 Y-29.23139 Z-16.0
G1 X-16.50347 Y-26.40297
G1 X-15.44281 Y-25.34231 Z-18.0
G1 X-7.91979 Y-17.81929
G1 F300.0 Z-19.0
G3 F800.0 X-7.0 Y-18.20027 I7.91979 J17.81929
G1 Y-29.73299
G1 Y-31.23299 Z-16.0
G1 Y-35.23299
G1 Y-36.73299 Z-19.0
G1 Y-48.47938
G2 X-10.60606 Y-51.41752 I-3.0 J0.0
G2 X-17.21976 Y-49.59567 I10.60606 J51.41752
G2 X-18.63153 Y-49.08275 Z-16.0 I17.21976 J49.59567
G2 X-22.31438 Y-47.52177 I18.63153 J49.08275
G2 X-23.66473 Y-46.86396 Z-19.0 I22.31438 J47.52177
G2 X-28.85806 Y-43.8573 I23.66473 J46.86396
G2 X-29.33035 Y-39.22984 I1.64903 J2.50613
G1 X-20.39256 Y-30.29205
G1 X-19.3319 Y-29.23139 Z-16.0
G1 X-16.50347 Y-26.40297
G1 X-15.44281 Y-25.34231 Z-19.0
G1 X-7.91979 Y-17.81929
G0 Z3.0
G0 X7.0 Y-18.20027
G0 Z1.0
G1 F300.0 Z-2.0
G3 F800.0 X7.91979 Y-17.81929 I-7.0 J18.20027
G1 X29.33035 Y-39.22984
G2 X28.85806 Y-43.8573 I-2.12132 J-2.12132
G2 X10.60606 Y-51.41752 I-28.85806 J43.8573
G2 X7.0 Y-48.47938 I-0.60606 J2.93814
G1 Y-18.20027
G1 F300.0 Z-4.0
G3 F800.0 X7.91979 Y-17.81929 I-7.0 J18.20027
G1 X29.33035 Y-39.22984
G2 X28.85806 Y-43.8573 I-2.12132 J-2.12132
G2 X10.60606 Y-51.41752 I-28.85806 J43.8573
G2 X7.0 Y-48.47938 I-0.60606 J2.93814
G1 Y-18.20027
G1 F300.0 Z-6.0
G3 F800.0 X7.91979 Y-17.81929 I-7.0 J18.20027
G1 X29.33035 Y-39.22984
G2 X28.85806 Y-43.8573 I-2.12132 J-2.12132
G2 X10.60606 Y-51.41752 I-28.85806 J43.8573
G2 X7.0 Y-48.47938 I-0.60606 J2.93814
G1 Y-18.20027
G1 F300.0 Z-8.0
G3 F800.0 X7.91979 Y-17.81929 I-7.0 J18.20027
G1 X29.33035 Y-39.22984
G2 X28.85806 Y-43.8573 I-2.12132 J-2.12132
G2 X10.60606 Y-51.41752 I-28.85806 J43.8573
G2 X7.0 Y-48.47938 I-0.60606 J2.93814
G1 Y-18.20027
G1 F300.0 Z-10.0
G3 F800.0 X7.91979 Y-17.81929 I-7.0 J18.20027
G1 X29.33035 Y-39.22984
G2 X28.85806 Y-43.8573 I-2.12132 J-2.12132
G2 X10.60606 Y-51.41752 I-28.85806 J43.8573
G2 X7.0 Y-48.47938 I-0.60606 J2.93814
G1 Y-18.20027
G1 F300.0 Z-12.0
G3 F800.0 X7.91979 Y-17.81929 I-7.0 J18.20027
G1 X29.33035 Y-39.22984
G2 X28.85806 Y-43.8573 I-2.12132 J-2.12132
G2 X10.60606 Y-51.41752 I-28.85806 J43.8573
G2 X7.0 Y-48.47938 I-0.60606 J2.93814
G1 Y-18.20027
G1 F300.0 Z-14.0
G3 F800.0 X7.91979 Y-17.81929 I-7.0 J18.20027
G1 X29.33035 Y-39.22984
G2 X28.85806 Y-43.8573 I-2.12132 J-2.12132
G2 X10.60606 Y-51.41752 I-28.85806 J43.8573
G2 X7.0 Y-48.47938 I-0.60606 J2.93814
G1 Y-18.20027
G1 F300.0 Z-16.0
G3 F800.0 X7.91979 Y-17.81929 I-7.0 J18.20027
G1 X29.33035 Y-39.22984
G2 X28.85806 Y-43.8573 I-2.12132 J-2.12132
G2 X10.60606 Y-51.41752 I-28.85806 J43.8573
G2 X7.0 Y-48.47938 I-0.60606 J2.93814
G1 Y-18.20027
G1 F300.0 Z-18.0
G3 F800.0 X7.91979 Y-17.81929 I-7.0 J18.20027
G1 X15.44281 Y-25.34231
G1 X16.50347 Y-26.40297 Z-16.0
G1 X19.3319 Y-29.23139
G1 X20.39256 Y-30.29205 Z-18.0
G1 X29.33035 Y-39.22984
G2 X28.85806 Y-43.8573 I-2.12132 J-2.12132
G2 X23.66473 Y-46.86396 I-28.85806 J43.8573
G2 X22.31438 Y-47.52177 Z-16.0 I-23.66473 J46.86396
G2 X18.63153 Y-49.08275 I-22.31438 J47.52177
G2 X17.21976 Y-49.59567 Z-18.0 I-18.63153 J49.08275
G2 X10.60606 Y-51.41752 I-17.21976 J49.59567
G2 X7.0 Y-48.47938 I-0.60606 J2.93814
G1 Y-36.73299
G1 Y-35.23299 Z-16.0
G1 Y-31.23299
G1 Y-29.73299 Z-18.0
G1 Y-18.20027
G1 F300.0 Z-19.0
G3 F800.0 X7.91979 Y-17.81929 I-7.0 J18.20027
G1 X15.44281 Y-25.34231
G1 X16.50347 Y-26.40297 Z-16.0
G1 X19.3319 Y-29.23139
G1 X20.39256 Y-30.29205 Z-19.0
G1 X29.33035 Y-39.22984
G2 X28.85806 Y-43.8573 I-2.12132 J-2.12132
G2 X23.66473 Y-46.86396 I-28.85806 J43.8573
G2 X22.31438 Y-47.52177 Z-16.0 I-23.66473 J46.86396
G2 X18.63153 Y-49.08275 I-22.31438 J47.52177
G2 X17.21976 Y-49.59567 Z-19.0 I-18.63153 J49.08275
G2 X10.60606 Y-51.41752 I-17.21976 J49.59567
G2 X7.0 Y-48.47938 I-0.60606 J2.93814
G1 Y-36.73299
G1 Y-35.23299 Z-16.0
G1 Y-31.23299
G1 Y-29.73299 Z-19.0
G1 Y-18.20027
G0 Z3.0
G0 X17.81929 Y-7.91979
G0 Z1.0
G1 F300.0 Z-2.0
G3 F800.0 X18.20027 Y-7.0 I-17.81929 J7.91979
G1 X48.47938
G2 X51.41752 Y-10.60606 I0.0 J-3.0
G2 X43.8573 Y-28.85806 I-51.41752 J10.60606
G2 X39.22984 Y-29.33035 I-2.50613 J1.64903
G1 X17.81929 Y-7.91979
G1 F300.0 Z-4.0
G3 F800.0 X18.20027 Y-7.0 I-17.81929 J7.91979
G1 X48.47938
G2 X51.41752 Y-10.60606 I0.0 J-3.0
G2 X43.8573 Y-28.85806 I-51.41752 J10.60606
G2 X39.22984 Y-29.33035 I-2.50613 J1.64903
G1 X17.81929 Y-7.91979
G1 F300.0 Z-6.0
G3 F800.0 X18.20027 Y-7.0 I-17.81929 J7.91979
G1 X48.47938
G2 X51.41752 Y-10.60606 I0.0 J-3.0
G2 X43.8573 Y-28.85806 I-51.41752 J10.60606
G2 X39.22984 Y-29.33035 I-2.50613 J1.64903
G1 X17.81929 Y-7.91979
G1 F300.0 Z-8.0
G3 F800.0 X18.20027 Y-7.0 I-17.81929 J7.91979
G1 X48.47938
G2 X51.41752 Y-10.60606 I0.0 J-3.0
G2 X43.8573 Y-28.85806 I-51.41752 J10.60606
G2 X39.22984 Y-29.33035 I-2.50613 J1.64903
G1 X17.81929 Y-7.91979
G1 F300.0 Z-10.0
G3 F800.0 X18.20027 Y-7.0 I-17.81929 J7.91979
G1 X48.47938
G2 X51.41752 Y-10.60606 I0.0 J-3.0
G2 X43.8573 Y-28.85806 I-51.41752 J10.60606
G2 X39.22984 Y-29.33035 I-2.50613 J1.64903
G1 X17.81929 Y-7.91979
G1 F300.0 Z-12.0
G3 F800.0 X18.20027 Y-7.0 I-17.81929 J7.91979
G1 X48.47938
G2 X51.41752 Y-10.60606 I0.0 J-3.0
G2 X43.8573 Y-28.85806 I-51.41752 J10.60606
G2 X39.22984 Y-29.33035 I-2.50613 J1.64903
G1 X17.81929 Y-7.91979
G1 F300.0 Z-14.0
G3 F800.0 X18.20027 Y-7.0 I-17.81929 J7.91979
G1 X48.47938
G2 X51.41752 Y-10.60606 I0.0 J-3.0
G2 X43.8573 Y-28.85806 I-51.41752 J10.60606
G2 X39.22984 Y-29.33035 I-2.50613 J1.64903
G1 X17.81929 Y-7.91979
G1 F300.0 Z-16.0
G3 F800.0 X18.20027 Y-7.0 I-17.81929 J7.91979
G1 X48.47938
G2 X51.41752 Y-10.60606 I0.0 J-3.0
G2 X43.8573 Y-28.85806 I-51.41752 J10.60606
G2 X39.22984 Y-29.33035 I-2.50613 J1.64903
G1 X17.81929 Y-7.91979
G1 F300.0 Z-18.0
G3 F800.0 X18.20027 Y-7.0 I-17.81929 J7.91979
G1 X28.83943
G1 X30.33943 Z-16.0
G1 X34.33943
G1 X35.83943 Z-18.0
G1 X48.47938
G2 X51.41752 Y-10.60606 I0.0 J-3.0
G2 X49.87132 Y-16.40433 I-51.41752 J10.60606
G2 X49.38161 Y-17.82432 Z-16.0 I-49.87132 J16.40433
G2 X47.88122 Y-21.53226 I-49.38161 J17.82432
G2 X47.24564 Y-22.89323 Z-18.0 I-47.88122 J21.53226
G2 X43.8573 Y-28.85806 I-47.24564 J22.89323
G2 X39.22984 Y-29.33035 I-2.50613 J1.64903
G1 X30.9239 Y-21.0244
G1 X29.86324 Y-19.96374 Z-16.0
G1 X27.03481 Y-17.13531
G1 X25.97415 Y-16.07465 Z-18.0
G1 X17.81929 Y-7.91979
G1 F300.0 Z-19.0
G3 F800.0 X18.20027 Y-7.0 I-17.81929 J7.91979
G1 X28.83943
G1 X30.33943 Z-16.0
G1 X34.33943
G1 X35.83943 Z-19.0
G1 X48.47938
G2 X51.41752 Y-10.60606 I0.0 J-3.0
G2 X49.87132 Y-16.40433 I-51.41752 J10.60606
G2 X49.38161 Y-17.82432 Z-16.0 I-49.87132 J16.40433
G2 X47.88122 Y-21.53226 I-49.38161 J17.82432
G2 X47.24564 Y-22.89323 Z-19.0 I-47.88122 J21.53226
G2 X43.8573 Y-28.85806 I-47.24564 J22.89323
G2 X39.22984 Y-29.33035 I-2.50613 J1.64903
G1 X30.9239 Y-21.0244
G1 X29.86324 Y-19.96374 Z-16.0
G1 X27.03481 Y-17.13531
G1 X25.97415 Y-16.07465 Z-19.0
G1 X17.81929 Y-7.91979
G0 Z3.0
G0 X18.20027 Y7.0
G0 Z1.0
G1 F300.0 Z-2.0
G3 F800.0 X17.81929 Y7.91979 I-18.20027 J-7.0
G1 X39.22984 Y29.33035
G2 X43.8573 Y28.85806 I2.12132 J-2.12132
G2 X51.41752 Y10.60606 I-43.8573 J-28.85806
G2 X48.47938 Y7.0 I-2.93814 J-0.60606
G1 X18.20027
G1 F300.0 Z-4.0
G3 F800.0 X17.81929 Y7.91979 I-18.20027 J-7.0
G1 X39.22984 Y29.33035
G2 X43.8573 Y28.85806 I2.12132 J-2.12132
G2 X51.41752 Y10.60606 I-43.8573 J-28.85806
G2 X48.47938 Y7.0 I-2.93814 J-0.60606
G1 X18.20027
G1 F300.0 Z-6.0
G3 F800.0 X17.81929 Y7.91979 I-18.20027 J-7.0
G1 X39.22984 Y29.33035
G2 X43.8573 Y28.85806 I2.12132 J-2.12132
G2 X51.41752 Y10.60606 I-43.8573 J-28.85806
G2 X48.47938 Y7.0 I-2.93814 J-0.60606
G1 X18.20027
G1 F300.0 Z-8.0
G3 F800.0 X17.81929 Y7.91979 I-18.20027 J-7.0
G1 X39.22984 Y29.33035
G2 X43.8573 Y28.85806 I2.12132 J-2.12132
G2 X51.41752 Y10.60606 I-43.8573 J-28.85806
G2 X48.47938 Y7.0 I-2.93814 J-0.60606
G1 X18.20027
G1 F300.0 Z-10.0
G3 F800.0 X17.81929 Y7.91979 I-18.20027 J-7.0
G1 X39.22984 Y29.33035
G2 X43.8573 Y28.85806 I2.12132 J-2.12132
G2 X51.41752 Y10.60606 I-43.8573 J-28.85806
G2 X48.47938 Y7.0 I-2.93814 J-0.60606
G1 X18.20027
G1 F300.0 Z-12.0
G3 F800.0 X17.81929 Y7.91979 I-18.20027 J-7.0
G1 X39.22984 Y29.33035
G2 X43.8573 Y28.85806 I2.12132 J-2.12132
G2 X51.41752 Y10.60606 I-43.8573 J-28.85806
G2 X48.47938 Y7.0 I-2.93814 J-0.60606
G1 X18.20027
G1 F300.0 Z-14.0
G3 F800.0 X17.81929 Y7.91979 I-18.20027 J-7.0
G1 X39.22984 Y29.33035
G2 X43.8573 Y28.85806 I2.12132 J-2.12132
G2 X51.41752 Y10.60606 I-43.8573 J-28.85806
G2 X48.47938 Y7.0 I-2.93814 J-0.60606
G1 X18.20027
G1 F300.0 Z-16.0
G3 F800.0 X17.81929 Y7.91979 I-18.20027 J-7.0
G1 X39.22984 Y29.33035
G2 X43.8573 Y28.85806 I2.12132 J-2.12132
G2 X51.41752 Y10.60606 I-43.8573 J-28.85806
G2 X48.47938 Y7.0 I-2.93814 J-0.60606
G1 X18.20027
G1 F300.0 Z-18.0
G3 F800.0 X17.81929 Y7.91979 I-18.20027 J-7.0
G1 X25.34231 Y15.44281
G1 X26.40297 Y16.50347 Z-16.0
G1 X29.23139 Y19.3319
G1 X30.29205 Y20.39256 Z-18.0
G1 X39.22984 Y29.33035
G2 X43.8573 Y28.85806 I2.12132 J-2.12132
G2 X46.86396 Y23.66473 I-43.8573 J-28.85806
G2 X47.52177 Y22.31438 Z-16.0 I-46.86396 J-23.66473
G2 X49.08275 Y18.63153 I-47.52177 J-22.31438
G2 X49.59567 Y17.21976 Z-18.0 I-49.08275 J-18.63153
G2 X51.41752 Y10.60606 I-49.59567 J-17.21976
G2 X48.47938 Y7.0 I-2.93814 J-0.60606
G1 X36.73299
G1 X35.23299 Z-16.0
G1 X31.23299
G1 X29.73299 Z-18.0
G1 X18.20027
G1 F300.0 Z-19.0
G3 F800.0 X17.81929 Y7.91979 I-18.20027 J-7.0
G1 X25.34231 Y15.44281
G1 X26.40297 Y16.50347 Z-16.0
G1 X29.23139 Y19.3319
G1 X30.29205 Y20.39256 Z-19.0
G1 X39.22984 Y29.33035
G2 X43.8573 Y28.85806 I2.12132 J-2.12132
G2 X46.86396 Y23.66473 I-43.8573 J-28.85806
G2 X47.52177 Y22.31438 Z-16.0 I-46.86396 J-23.66473
G2 X49.08275 Y18.63153 I-47.52177 J-22.31438
G2 X49.59567 Y17.21976 Z-19.0 I-49.08275 J-18.63153
G2 X51.41752 Y10.60606 I-49.59567 J-17.21976
G2 X48.47938 Y7.0 I-2.93814 J-0.60606
G1 X36.73299
G1 X35.23299 Z-16.0
G1 X31.23299
G1 X29.73299 Z-19.0
G1 X18.20027
G0 Z3.0
G0 X7.91979 Y17.81929
G0 Z1.0
G1 F300.0 Z-2.0
G3 F800.0 X7.0 Y18.20027 I-7.91979 J-17.81929
G1 Y48.47938
G2 X10.60606 Y51.41752 I3.0 J0.0
G2 X28.85806 Y43.8573 I-10.60606 J-51.41752
G2 X29.33035 Y39.22984 I-1.64903 J-2.50613
G1 X7.91979 Y17.81929
G1 F300.0 Z-4.0
G3 F800.0 X7.0 Y18.20027 I-7.91979 J-17.81929
G1 Y48.47938
G2 X10.60606 Y51.41752 I3.0 J0.0
G2 X28.85806 Y43.8573 I-10.60606 J-51.41752
G2 X29.33035 Y39.22984 I-1.64903 J-2.50613
G1 X7.91979 Y17.81929
G1 F300.0 Z-6.0
G3 F800.0 X7.0 Y18.20027 I-7.91979 J-17.81929
G1 Y48.47938
G2 X10.60606 Y51.41752 I3.0 J0.0
G2 X28.85806 Y43.8573 I-10.60606 J-51.41752
G2 X29.33035 Y39.22984 I-1.64903 J-2.50613
G1 X7.91979 Y17.81929
G1 F300.0 Z-8.0
G3 F800.0 X7.0 Y18.20027 I-7.91979 J-17.81929
G1 Y48.47938
G2 X10.60606 Y51.41752 I3.0 J0.0
G2 X28.85806 Y43.8573 I-10.60606 J-51.41752
G2 X29.33035 Y39.22984 I-1.64903 J-2.50613
G1 X7.91979 Y17.81929
G1 F300.0 Z-10.0
G3 F800.0 X7.0 Y18.20027 I-7.91979 J-17.81929
G1 Y48.47938
G2 X10.60606 Y51.41752 I3.0 J0.0
G2 X28.85806 Y43.8573 I-10.60606 J-51.41752
G2 X29.33035 Y39.22984 I-1.64903 J-2.50613
G1 X7.91979 Y17.81929
G1 F300.0 Z-12.0
G3 F800.0 X7.0 Y18.20027 I-7.91979 J-17.81929
G1 Y48.47938
G2 X10.60606 Y51.41752 I3.0 J0.0
G2 X28.85806 Y43.8573 I-10.60606 J-51.41752
G2 X29.33035 Y39.22984 I-1.64903 J-2.50613
G1 X7.91979 Y17.81929
G1 F300.0 Z-14.0
G3 F800.0 X7.0 Y18.20027 I-7.91979 J-17.81929
G1 Y48.47938
G2 X10.60606 Y51.41752 I3.0 J0.0
G2 X28.85806 Y43.8573 I-10.60606 J-51.41752
G2 X29.33035 Y39.22984 I-1.64903 J-2.50613
G1 X7.91979 Y17.81929
G1 F300.0 Z-16.0
G3 F800.0 X7.0 Y18.20027 I-7.91979 J-17.81929
G1 Y48.47938
G2 X10.60606 Y51.41752 I3.0 J0.0
G2 X28.85806 Y43.8573 I-10.60606 J-51.41752
G2 X29.33035 Y39.22984 I-1.64903 J-2.50613
G1 X7.91979 Y17.81929
G1 F300.0 Z-18.0
G3 F800.0 X7.0 Y18.20027 I-7.91979 J-17.81929
G1 Y28.83943
G1 Y30.33943 Z-16.0
G1 Y34.33943
G1 Y35.83943 Z-18.0
G1 Y48.47938
G2 X10.60606 Y51.41752 I3.0 J0.0
G2 X16.40433 Y49.87132 I-10.60606 J-51.41752
G2 X17.82432 Y49.38161 Z-16.0 I-16.40433 J-49.87132
G2 X21.53226 Y47.88122 I-17.82432 J-49.38161
G2 X22.89323 Y47.24564 Z-18.0 I-21.53226 J-47.88122
G2 X28.85806 Y43.8573 I-22.89323 J-47.24564
G2 X29.33035 Y39.22984 I-1.64903 J-2.50613
G1 X21.0244 Y30.9239
G1 X19.96374 Y29.86324 Z-16.0
G1 X17.13531 Y27.03481
G1 X16.07465 Y25.97415 Z-18.0
G1 X7.91979 Y17.81929
G1 F300.0 Z-19.0
G3 F800.0 X7.0 Y18.20027 I-7.91979 J-17.81929
G1 Y28.83943
G1 Y30.33943 Z-16.0
G1 Y34.33943
G1 Y35.83943 Z-19.0
G1 Y48.47938
G2 X10.60606 Y51.41752 I3.0 J0.0
G2 X16.40433 Y49.87132 I-10.60606 J-51.41752
G2 X17.82432 Y49.38161 Z-16.0 I-16.40433 J-49.87132
G2 X21.53226 Y47.88122 I-17.82432 J-49.38161
G2 X22.89323 Y47.24564 Z-19.0 I-21.53226 J-47.88122
G2 X28.85806 Y43.8573 I-22.89323 J-47.24564
G2 X29.33035 Y39.22984 I-1.64903 J-2.50613
G1 X21.0244 Y30.9239
G1 X19.96374 Y29.86324 Z-16.0
G1 X17.13531 Y27.03481
G1 X16.07465 Y25.97415 Z-19.0
G1 X7.91979 Y17.81929
G0 Z3.0
G0 X-7.0 Y18.20027
G0 Z1.0
G1 F300.0 Z-2.0
G3 F800.0 X-7.91979 Y17.81929 I7.0 J-18.20027
G1 X-29.33035 Y39.22984
G2 X-28.85806 Y43.8573 I2.12132 J2.12132
G2 X-10.60606 Y51.41752 I28.85806 J-43.8573
G2 X-7.0 Y48.47938 I0.60606 J-2.93814
G1 Y18.20027
G1 F300.0 Z-4.0
G3 F800.0 X-7.91979 Y17.81929 I7.0 J-18.20027
G1 X-29.33035 Y39.22984
G2 X-28.85806 Y43.8573 I2.12132 J2.12132
G2 X-10.60606 Y51.41752 I28.85806 J-43.8573
G2 X-7.0 Y48.47938 I0.60606 J-2.93814
G1 Y18.20027
G1 F300.0 Z-6.0
G3 F800.0 X-7.91979 Y17.81929 I7.0 J-18.20027
G1 X-29.33035 Y39.22984
G2 X-28.85806 Y43.8573 I2.12132 J2.12132
G2 X-10.60606 Y51.41752 I28.85806 J-43.8573
G2 X-7.0 Y48.47938 I0.60606 J-2.93814
G1 Y18.20027
G1 F300.0 Z-8.0
G3 F800.0 X-7.91979 Y17.81929 I7.0 J-18.20027
G1 X-29.33035 Y39.22984
G2 X-28.85806 Y43.8573 I2.12132 J2.12132
G2 X-10.60606 Y51.41752 I28.85806 J-43.8573
G2 X-7.0 Y48.47938 I0.60606 J-2.93814
G1 Y18.20027
G1 F300.0 Z-10.0
G3 F800.0 X-7.91979 Y17.81929 I7.0 J-18.20027
G1 X-29.33035 Y39.22984
G2 X-28.85806 Y43.8573 I2.12132 J2.12132
G2 X-10.60606 Y51.41752 I28.85806 J-43.8573
G2 X-7.0 Y48.47938 I0.60606 J-2.93814
G1 Y18.20027
G1 F300.0 Z-12.0
G3 F800.0 X-7.91979 Y17.81929 I7.0 J-18.20027
G1 X-29.33035 Y39.22984
G2 X-28.85806 Y43.8573 I2.12132 J2.12132
G2 X-10.60606 Y51.41752 I28.85806 J-43.8573
G2 X-7.0 Y48.47938 I0.60606 J-2.93814
G1 Y18.20027
G1 F300.0 Z-14.0
G3 F800.0 X-7.91979 Y17.81929 I7.0 J-18.20027
G1 X-29.33035 Y39.22984
G2 X-28.85806 Y43.8573 I2.12132 J2.12132
G2 X-10.60606 Y51.41752 I28.85806 J-43.8573
G2 X-7.0 Y48.47938 I0.60606 J-2.93814
G1 Y18.20027
G1 F300.0 Z-16.0
G3 F800.0 X-7.91979 Y17.81929 I7.0 J-18.20027
G1 X-29.33035 Y39.22984
G2 X-28.85806 Y43.8573 I2.12132 J2.12132
G2 X-10.60606 Y51.41752 I28.85806 J-43.8573
G2 X-7.0 Y48.47938 I0.60606 J-2.93814
G1 Y18.20027
G1 F300.0 Z-18.0
G3 F800.0 X-7.91979 Y17.81929 I7.0 J-18.20027
G1 X-15.44281 Y25.34231
G1 X-16.50347 Y26.40297 Z-16.0
G1 X-19.3319 Y29.23139
G1 X-20.39256 Y30.29205 Z-18.0
G1 X-29.33035 Y39.22984
G2 X-28.85806 Y43.8573 I2.12132 J2.12132
G2 X-23.66473 Y46.86396 I28.85806 J-43.8573
G2 X-22.31438 Y47.52177 Z-16.0 I23.66473 J-46.86396
G2 X-18.63153 Y49.08275 I22.31438 J-47.52177
G2 X-17.21976 Y49.59567 Z-18.0 I18.63153 J-49.08275
G2 X-10.60606 Y51.41752 I17.21976 J-49.59567
G2 X-7.0 Y48.47938 I0.60606 J-2.93814
G1 Y36.73299
G1 Y35.23299 Z-16.0
G1 Y31.23299
G1 Y29.73299 Z-18.0
G1 Y18.20027
G1 F300.0 Z-19.0
G3 F800.0 X-7.91979 Y17.81929 I7.0 J-18.20027
G1 X-15.44281 Y25.34231
G1 X-16.50347 Y26.40297 Z-16.0
G1 X-19.3319 Y29.23139
G1 X-20.39256 Y30.29205 Z-19.0
G1 X-29.33035 Y39.22984
G2 X-28.85806 Y43.8573 I2.12132 J2.12132
G2 X-23.66473 Y46.86396 I28.85806 J-43.8573
G2 X-22.31438 Y47.52177 Z-16.0 I23.66473 J-46.86396
G2 X-18.63153 Y49.08275 I22.31438 J-47.52177
G2 X-17.21976 Y49.59567 Z-19.0 I18.63153 J-49.08275
G2 X-10.60606 Y51.41752 I17.21976 J-49.59567
G2 X-7.0 Y48.47938 I0.60606 J-2.93814
G1 Y36.73299
G1 Y35.23299 Z-16.0
G1 Y31.23299
G1 Y29.73299 Z-19.0
G1 Y18.20027
( Aussenkreis )
S1000
G0 Z3.0
G0 X123.01167 Y31.57735
G0 Z1.0
G1 F300.0 Z-2.0
G3 F800.0 X125.1641 Y21.51621 I-123.01167 J-31.57735
G3 X125.14876 Y21.59578 I-1.97109 J-0.33884
G1 X123.03022 Y31.49848
G3 X123.01167 Y31.57735 I-1.95575 J-0.4184
G1 F300.0 Z-4.0
G3 F800.0 X125.1641 Y21.51621 I-123.01167 J-31.57735
G3 X125.14876 Y21.59578 I-1.97109 J-0.33884
G1 X123.03022 Y31.49848
G3 X123.01167 Y31.57735 I-1.95575 J-0.4184
G1 F300.0 Z-6.0
G3 F800.0 X125.1641 Y21.51621 I-123.01167 J-31.57735
G3 X125.14876 Y21.59578 I-1.97109 J-0.33884
G1 X123.03022 Y31.49848
G3 X123.01167 Y31.57735 I-1.95575 J-0.4184
G1 F300.0 Z-8.0
G3 F800.0 X125.1641 Y21.51621 I-123.01167 J-31.57735
G3 X125.14876 Y21.59578 I-1.97109 J-0.33884
G1 X123.03022 Y31.49848
G3 X123.01167 Y31.57735 I-1.95575 J-0.4184
G1 F300.0 Z-10.0
G3 F800.0 X125.1641 Y21.51621 I-123.01167 J-31.57735
G3 X125.14876 Y21.59578 I-1.97109 J-0.33884
G1 X123.03022 Y31.49848
G3 X123.01167 Y31.57735 I-1.95575 J-0.4184
G1 F300.0 Z-12.0
G3 F800.0 X125.1641 Y21.51621 I-123.01167 J-31.57735
G3 X125.14876 Y21.59578 I-1.97109 J-0.33884
G1 X123.03022 Y31.49848
G3 X123.01167 Y31.57735 I-1.95575 J-0.4184
G1 F300.0 Z-14.0
G3 F800.0 X125.1641 Y21.51621 I-123.01167 J-31.57735
G3 X125.14876 Y21.59578 I-1.97109 J-0.33884
G1 X123.03022 Y31.49848
G3 X123.01167 Y31.57735 I-1.95575 J-0.4184
G1 F300.0 Z-16.0
G3 F800.0 X125.1641 Y21.51621 I-123.01167 J-31.57735
G3 X125.14876 Y21.59578 I-1.97109 J-0.33884
G1 X123.03022 Y31.49848
G3 X123.01167 Y31.57735 I-1.95575 J-0.4184
G1 F300.0 Z-18.0
G3 F800.0 X103.62669 Y73.42009 I-123.01167 J-31.57735
G3 X102.7521 Y74.63917 Z-16.0 I-103.62669 J-73.42009
G3 X100.35059 Y77.83803 I-102.7521 J-74.63917
G3 X99.42404 Y79.0181 Z-18.0 I-100.35059 J-77.83803
G3 X21.35964 Y125.19092 I-99.42404 J-79.0181
G3 X19.87919 Y125.43452 Z-16.0 I-21.35964 J-125.19092
G3 X15.91913 Y125.99834 I-19.87919 J-125.43452
G3 X14.42953 Y126.17761 Z-18.0 I-15.91913 J-125.99834
G3 X-73.41952 Y103.62709 I-14.42953 J-126.17761
G3 X-74.6386 Y102.75251 Z-16.0 I73.41952 J-103.62709
G3 X-77.83748 Y100.35102 I74.6386 J-102.75251
G3 X-79.01755 Y99.42448 Z-18.0 I77.83748 J-100.35102
G3 X-125.1908 Y21.36033 I79.01755 J-99.42448
G3 X-125.43441 Y19.87989 Z-16.0 I125.1908 J-21.36033
G3 X-125.99825 Y15.91983 I125.43441 J-19.87989
G3 X-126.17753 Y14.43022 Z-18.0 I125.99825 J-15.91983
G3 X-103.6275 Y-73.41894 I126.17753 J-14.43022
G3 X-102.75293 Y-74.63803 Z-16.0 I103.6275 J73.41894
G3 X-100.35145 Y-77.83692 I102.75293 J74.63803
G3 X-99.42491 Y-79.017 Z-18.0 I100.35145 J77.83692
G3 X-21.36102 Y-125.19068 I99.42491 J79.017
G3 X-19.88058 Y-125.4343 Z-16.0 I21.36102 J125.19068
G3 X-15.92053 Y-125.99816 I19.88058 J125.4343
G3 X-14.43092 Y-126.17745 Z-18.0 I15.92053 J125.99816
G3 X73.41837 Y-103.62791 I14.43092 J126.17745
G3 X74.63746 Y-102.75334 Z-16.0 I-73.41837 J103.62791
G3 X77.83637 Y-100.35188 I-74.63746 J102.75334
G3 X79.01645 Y-99.42535 Z-18.0 I-77.83637 J100.35188
G3 X125.19056 Y-21.36172 I-79.01645 J99.42535
G3 X125.43419 Y-19.88128 Z-16.0 I-125.19056 J21.36172
G3 X125.99807 Y-15.92122 I-125.43419 J19.88128
G3 X126.17737 Y-14.43162 Z-18.0 I-125.99807 J15.92122
G3 X125.1641 Y21.51621 I-126.17737 J14.43162
G3 X125.14876 Y21.59578 I-1.97109 J-0.33884
G1 X123.03022 Y31.49848
G3 X123.01167 Y31.57735 I-1.95575 J-0.4184
G1 F300.0 Z-19.0
G3 F800.0 X103.62669 Y73.42009 I-123.01167 J-31.57735
G3 X102.7521 Y74.63917 Z-16.0 I-103.62669 J-73.42009
G3 X100.35059 Y77.83803 I-102.7521 J-74.63917
G3 X99.42404 Y79.0181 Z-19.0 I-100.35059 J-77.83803
G3 X21.35964 Y125.19092 I-99.42404 J-79.0181
G3 X19.87919 Y125.43452 Z-16.0 I-21.35964 J-125.19092
G3 X15.91913 Y125.99834 I-19.87919 J-125.43452
G3 X14.42953 Y126.17761 Z-19.0 I-15.91913 J-125.99834
G3 X-73.41952 Y103.62709 I-14.42953 J-126.17761
G3 X-74.6386 Y102.75251 Z-16.0 I73.41952 J-103.62709
G3 X-77.83748 Y100.35102 I74.6386 J-102.75251
G3 X-79.01755 Y99.42448 Z-19.0 I77.83748 J-100.35102
G3 X-125.1908 Y21.36033 I79.01755 J-99.42448
G3 X-125.43441 Y19.87989 Z-16.0 I125.1908 J-21.36033
G3 X-125.99825 Y15.91983 I125.43441 J-19.87989
G3 X-126.17753 Y14.43022 Z-19.0 I125.99825 J-15.91983
G3 X-103.6275 Y-73.41894 I126.17753 J-14.43022
G3 X-102.75293 Y-74.63803 Z-16.0 I103.6275 J73.41894
G3 X-100.35145 Y-77.83692 I102.75293 J74.63803
G3 X-99.42491 Y-79.017 Z-19.0 I100.35145 J77.83692
G3 X-21.36102 Y-125.19068 I99.42491 J79.017
G3 X-19.88058 Y-125.4343 Z-16.0 I21.36102 J125.19068
G3 X-15.92053 Y-125.99816 I19.88058 J125.4343
G3 X-14.43092 Y-126.17745 Z-19.0 I15.92053 J125.99816
G3 X73.41837 Y-103.62791 I14.43092 J126.17745
G3 X74.63746 Y-102.75334 Z-16.0 I-73.41837 J103.62791
G3 X77.83637 Y-100.35188 I-74.63746 J102.75334
G3 X79.01645 Y-99.42535 Z-19.0 I-77.83637 J100.35188
G3 X125.19056 Y-21.36172 I-79.01645 J99.42535
G3 X125.43419 Y-19.88128 Z-16.0 I-125.19056 J21.36172
G3 X125.99807 Y-15.92122 I-125.43419 J19.88128
G3 X126.17737 Y-14.43162 Z-19.0 I-125.99807 J15.92122
G3 X125.1641 Y21.51621 I-126.17737 J14.43162
G3 X125.14876 Y21.59578 I-1.97109 J-0.33884
G1 X123.03022 Y31.49848
G3 X123.01167 Y31.57735 I-1.95575 J-0.4184
G0 Z3.0
M5
M30
