( Made using CamBam - http://www.cambam.co.uk )
( SC-Freiburg 8/27/2017 7:33:29 PM )
( T2 : 2.0 )
( T4 : 4.0 )
( T21 : 4.0 )
G21 G90 G64 G40
G0 Z3.0
( T4 : 4.0 )
T4 M6
( Tasche-Ring-Aussen )
G17
M3 S1000
G0 X0.0 Y-63.2479
G0 Z1.0
G1 F300.0 Z-1.0
G1 F800.0 X-4.21323 Y-63.16905
G1 X-0.05452 Y-63.24473
G3 X0.05452 I0.05452 J2.9963
G1 X4.21323 Y-63.16905
G1 X0.0 Y-63.2479
G0 Z3.0
G0 X4.62774 Y-63.16129
G0 Z1.0
G1 F300.0 Z-1.0
G3 F800.0 X4.70104 Y-63.15818 I-0.09035 J2.99544
G1 X6.73741 Y-63.04681
G1 X4.73906 Y-63.15921
G1 X4.62774 Y-63.16129
G0 Z3.0
G0 X9.39291 Y-62.89745
G0 Z1.0
G1 F300.0 Z-1.0
G1 F800.0 X10.43769 Y-62.80186
G1 X9.46468 Y-62.89341
G1 X9.39291 Y-62.89745
G0 Z3.0
G0 X14.14909 Y-62.45266
G0 Z1.0
G1 F300.0 Z-1.0
G1 F800.0 X14.29964 Y-62.43327
G1 X14.16345 Y-62.45131
G1 X14.14909 Y-62.45266
G0 Z3.0
G0 X-4.62774 Y-63.16129
G0 Z1.0
G1 F300.0 Z-1.0
G1 F800.0 X-4.73906 Y-63.15921
G1 X-6.73741 Y-63.04681
G1 X-4.70104 Y-63.15818
G3 X-4.62774 Y-63.16129 I0.16366 J2.99233
G0 Z3.0
G0 X-9.39291 Y-62.89745
G0 Z1.0
G1 F300.0 Z-1.0
G1 F800.0 X-9.46468 Y-62.89341
G1 X-10.43769 Y-62.80186
G1 X-9.39291 Y-62.89745
G0 Z3.0
G0 X-14.14909 Y-62.45266
G0 Z1.0
G1 F300.0 Z-1.0
G1 F800.0 X-14.16345 Y-62.45131
G1 X-14.29964 Y-62.43327
G1 X-14.14909 Y-62.45266
G0 Z3.0
G0 X-89.21242 Y-6.52639
G0 Z1.0
G1 F300.0 Z-1.0
G1 F800.0 X-89.21943 Y-6.48833
G1 X-89.31448 Y-5.62521
G1 X-89.21242 Y-6.52639
G0 Z3.0
G0 X-89.57252 Y-3.28207
G0 Z1.0
G1 F300.0 Z-1.0
G1 F800.0 X-89.57629 Y-3.24777
G1 X-89.66221 Y-0.90278
G1 X-89.57316 Y-3.266
G3 X-89.57252 Y-3.28207 I2.99467 J0.11284
G0 Z3.0
G0 X-89.69384 Y-0.0395
G0 Z1.0
G1 F300.0 Z-1.0
G1 F800.0 X-89.69529 Y0.0
G1 X-89.69384 Y0.0395
G3 Y-0.0395 I2.99654 J-0.0395
G1 F300.0 X-89.66221 Y0.90278
G1 F800.0 X-89.57629 Y3.24777
G1 X-89.57252 Y3.28207
G3 X-89.57316 Y3.266 I2.99403 J-0.12891
G1 X-89.66221 Y0.90278
G0 Z3.0
G0 X-89.31448 Y5.62521
G0 Z1.0
G1 F300.0 Z-1.0
G1 F800.0 X-89.21943 Y6.48833
G1 X-89.21242 Y6.52639
G1 X-89.31448 Y5.62521
G0 Z3.0
G0 X-14.29964 Y62.43327
G0 Z1.0
G1 F300.0 Z-1.0
G1 F800.0 X-14.16345 Y62.45131
G1 X-14.14909 Y62.45266
G1 X-14.29964 Y62.43327
G0 Z3.0
G0 X-10.43769 Y62.80186
G0 Z1.0
G1 F300.0 Z-1.0
G1 F800.0 X-9.46468 Y62.89341
G1 X-9.39291 Y62.89745
G1 X-10.43769 Y62.80186
G0 Z3.0
G0 X-6.73741 Y63.04681
G0 Z1.0
G1 F300.0 Z-1.0
G1 F800.0 X-4.73906 Y63.15921
G1 X-4.62774 Y63.16129
G3 X-4.70104 Y63.15818 I0.09035 J-2.99544
G1 X-6.73741 Y63.04681
G1 F300.0 X-4.21323 Y63.16905
G1 F800.0 X0.0 Y63.2479
G1 X4.21323 Y63.16905
G1 X0.05452 Y63.24473
G3 X-0.05452 I-0.05452 J-2.9963
G1 X-4.21323 Y63.16905
G0 Z3.0
G0 X4.62774 Y63.16129
G0 Z1.0
G1 F300.0 Z-1.0
G1 F800.0 X4.73906 Y63.15921
G1 X6.73741 Y63.04681
G1 X4.70104 Y63.15818
G3 X4.62774 Y63.16129 I-0.16366 J-2.99233
G0 Z3.0
G0 X9.39291 Y62.89745
G0 Z1.0
G1 F300.0 Z-1.0
G1 F800.0 X9.46468 Y62.89341
G1 X10.43769 Y62.80186
G1 X9.39291 Y62.89745
G0 Z3.0
G0 X14.14909 Y62.45266
G0 Z1.0
G1 F300.0 Z-1.0
G1 F800.0 X14.16345 Y62.45131
G1 X14.29964 Y62.43327
G1 X14.14909 Y62.45266
G0 Z3.0
G0 X89.21242 Y6.52639
G0 Z1.0
G1 F300.0 Z-1.0
G1 F800.0 X89.21943 Y6.48833
G1 X89.31448 Y5.62521
G1 X89.21242 Y6.52639
G0 Z3.0
G0 X89.57252 Y3.28207
G0 Z1.0
G1 F300.0 Z-1.0
G1 F800.0 X89.57629 Y3.24777
G1 X89.66221 Y0.90278
G1 X89.57316 Y3.266
G3 X89.57252 Y3.28207 I-2.99467 J-0.11284
G0 Z3.0
G0 X89.69384 Y0.0395
G0 Z1.0
G1 F300.0 Z-1.0
G1 F800.0 X89.69529 Y0.0
G1 X89.69384 Y-0.0395
G3 Y0.0395 I-2.99654 J0.0395
G1 F300.0 X89.66221 Y-0.90278
G1 F800.0 X89.57629 Y-3.24777
G1 X89.57252 Y-3.28207
G3 X89.57316 Y-3.266 I-2.99403 J0.12891
G1 X89.66221 Y-0.90278
G0 Z3.0
G0 X89.31448 Y-5.62521
G0 Z1.0
G1 F300.0 Z-1.0
G1 F800.0 X89.21943 Y-6.48833
G1 X89.21242 Y-6.52639
G1 X89.31448 Y-5.62521
G1 F300.0 X90.10968 Y-5.71278
G1 F800.0 X90.01145 Y-6.60474
G1 X89.40672 Y-9.88751
G1 X88.56152 Y-13.14663
G1 X87.47737 Y-16.37398
G1 X86.15631 Y-19.56131
G1 X84.60098 Y-22.70023
G1 X82.81468 Y-25.78227
G1 X80.80139 Y-28.79889
G1 X78.56578 Y-31.74155
G1 X76.11326 Y-34.60178
G1 X73.44995 Y-37.37124
G1 X70.58268 Y-40.04176
G1 X67.51896 Y-42.60542
G1 X64.26694 Y-45.05454
G1 X60.8354 Y-47.38182
G1 X57.23369 Y-49.58026
G1 X53.47172 Y-51.64329
G1 X49.55988 Y-53.56471
G1 X45.50905 Y-55.33879
G1 X41.33052 Y-56.96021
G1 X37.03596 Y-58.42415
G1 X32.63739 Y-59.72625
G1 X28.14715 Y-60.86264
G1 X23.57784 Y-61.82995
G1 X18.94227 Y-62.62531
G1 X14.25348 Y-63.24637
G1 X9.52463 Y-63.6913
G1 X4.76902 Y-63.95879
G1 X0.0 Y-64.04804
G1 X-4.76902 Y-63.95879
G1 X-9.52463 Y-63.6913
G1 X-14.25348 Y-63.24637
G1 X-18.94227 Y-62.62531
G1 X-23.57784 Y-61.82995
G1 X-28.14715 Y-60.86264
G1 X-32.63739 Y-59.72625
G1 X-37.03596 Y-58.42415
G1 X-41.33052 Y-56.96021
G1 X-45.50905 Y-55.33879
G1 X-49.55988 Y-53.56471
G1 X-53.47172 Y-51.64329
G1 X-57.23369 Y-49.58026
G1 X-60.8354 Y-47.38182
G1 X-64.26694 Y-45.05454
G1 X-67.51896 Y-42.60542
G1 X-70.58268 Y-40.04176
G1 X-73.44995 Y-37.37124
G1 X-76.11326 Y-34.60178
G1 X-78.56578 Y-31.74155
G1 X-80.80139 Y-28.79889
G1 X-82.81468 Y-25.78227
G1 X-84.60098 Y-22.70023
G1 X-86.15631 Y-19.56131
G1 X-87.47737 Y-16.37398
G1 X-88.56152 Y-13.14663
G1 X-89.40672 Y-9.88751
G1 X-90.01145 Y-6.60474
G1 X-90.37469 Y-3.30628
G1 X-90.49583 Y0.0
G1 X-90.37469 Y3.30628
G1 X-90.01145 Y6.60474
G1 X-89.40672 Y9.88751
G1 X-88.56152 Y13.14663
G1 X-87.47737 Y16.37398
G1 X-86.15631 Y19.56131
G1 X-84.60098 Y22.70023
G1 X-82.81468 Y25.78227
G1 X-80.80139 Y28.79889
G1 X-78.56578 Y31.74155
G1 X-76.11326 Y34.60178
G1 X-73.44995 Y37.37124
G1 X-70.58268 Y40.04176
G1 X-67.51896 Y42.60542
G1 X-64.26694 Y45.05454
G1 X-60.8354 Y47.38182
G1 X-57.23369 Y49.58026
G1 X-53.47172 Y51.64329
G1 X-49.55988 Y53.56471
G1 X-45.50905 Y55.33879
G1 X-41.33052 Y56.96021
G1 X-37.03596 Y58.42415
G1 X-32.63739 Y59.72625
G1 X-28.14715 Y60.86264
G1 X-23.57784 Y61.82995
G1 X-18.94227 Y62.62531
G1 X-14.25348 Y63.24637
G1 X-9.52463 Y63.6913
G1 X-4.76902 Y63.95879
G1 X0.0 Y64.04804
G1 X4.76902 Y63.95879
G1 X9.52463 Y63.6913
G1 X14.25348 Y63.24637
G1 X18.94227 Y62.62531
G1 X23.57784 Y61.82995
G1 X28.14715 Y60.86264
G1 X32.63739 Y59.72625
G1 X37.03596 Y58.42415
G1 X41.33052 Y56.96021
G1 X45.50905 Y55.33879
G1 X49.55988 Y53.56471
G1 X53.47172 Y51.64329
G1 X57.23369 Y49.58026
G1 X60.8354 Y47.38182
G1 X64.26694 Y45.05454
G1 X67.51896 Y42.60542
G1 X70.58268 Y40.04176
G1 X73.44995 Y37.37124
G1 X76.11326 Y34.60178
G1 X78.56578 Y31.74155
G1 X80.80139 Y28.79889
G1 X82.81468 Y25.78227
G1 X84.60098 Y22.70023
G1 X86.15631 Y19.56131
G1 X87.47737 Y16.37398
G1 X88.56152 Y13.14663
G1 X89.40672 Y9.88751
G1 X90.01145 Y6.60474
G1 X90.37469 Y3.30628
G1 X90.49583 Y0.0
G1 X90.37469 Y-3.30628
G1 X90.10968 Y-5.71278
G1 F300.0 X88.52302 Y-5.53309
G1 F800.0 X88.76451 Y-3.40073
G3 X88.77693 Y-3.236 I-2.18603 J0.24757
G1 X88.89574 Y-0.08284
G3 Y0.08284 I-2.19844 J0.08284
G1 X88.77693 Y3.236
G3 X88.76451 Y3.40073 I-2.19844 J-0.08284
G1 X88.40839 Y6.54525
G3 X88.38392 Y6.70718 I-2.18603 J-0.24757
G1 X87.79147 Y9.83443
G3 X87.75561 Y9.99186 I-2.16155 J-0.4095
G1 X86.92846 Y13.09328
G3 X86.88217 Y13.24473 I-2.1257 J-0.56693
G1 X85.82257 Y16.31182
G3 X85.76698 Y16.45609 I-2.07941 J-0.71838
G1 X84.47785 Y19.48044
G3 X84.41421 Y19.61664 I-2.02382 J-0.86265
G1 X82.89908 Y22.58996
G3 X82.82867 Y22.7175 I-1.96017 J-0.99886
G1 X81.0917 Y25.63164
G3 X81.01578 Y25.75021 I-1.88977 J-1.1264
G1 X79.06172 Y28.59718
G3 X78.98147 Y28.70669 I-1.81385 J-1.24497
G1 X76.81567 Y31.47869
G3 X76.73215 Y31.57928 I-1.7336 J-1.35448
G1 X74.36056 Y34.26871
G3 X74.2747 Y34.36065 I-1.65008 J-1.45507
G1 X71.70381 Y36.96014
G3 X71.6164 Y37.04379 I-1.56422 J-1.547
G1 X68.85326 Y39.54622
G3 X68.76495 Y39.62205 I-1.4768 J-1.63066
G1 X65.81715 Y42.02055
G3 X65.72846 Y42.08903 I-1.38849 J-1.70648
G1 X62.60406 Y44.37703
G3 X62.51542 Y44.43866 I-1.29981 J-1.77496
G1 X59.22299 Y46.6099
G3 X59.13469 Y46.66517 I-1.21117 J-1.83659
G1 X55.68325 Y48.71369
G3 X55.59553 Y48.76307 I-1.12287 J-1.89187
G1 X51.99455 Y50.68325
G3 X51.90755 Y50.7272 I-1.03515 J-1.94125
G1 X48.16689 Y52.51378
G3 X48.08071 Y52.55269 I-0.94815 J-1.9852
G1 X44.21062 Y54.20077
G3 X44.1253 Y54.23502 I-0.86197 J-2.02411
G1 X40.1364 Y55.74009
G3 X40.05194 Y55.77001 I-0.77665 J-2.05835
G1 X35.95516 Y57.12794
G3 X35.87153 Y57.15383 I-0.69219 J-2.08827
G1 X31.67809 Y58.36091
G3 X31.59524 Y58.38301 I-0.60856 J-2.11416
G1 X27.31665 Y59.43592
G3 X27.2345 Y59.45448 I-0.52571 J-2.13627
G1 X22.88248 Y60.35033
G3 X22.80095 Y60.36551 I-0.44356 J-2.15482
G1 X18.38742 Y61.10186
G3 X18.30642 Y61.11383 I-0.36204 J-2.17001
G1 X13.84348 Y61.68864
G3 X13.76289 Y61.69752 I-0.28103 J-2.18198
G1 X9.26277 Y62.10923
G3 X9.18248 Y62.11509 I-0.20044 J-2.19085
G1 X4.65753 Y62.36257
G3 X4.57741 Y62.36549 I-0.12014 J-2.19672
G1 X0.04003 Y62.44806
G3 X-0.04003 I-0.04003 J-2.19964
G1 X-4.57741 Y62.36549
G3 X-4.65753 Y62.36257 I0.04003 J-2.19964
G1 X-9.18248 Y62.11509
G3 X-9.26277 Y62.10923 I0.12014 J-2.19672
G1 X-13.76289 Y61.69752
G3 X-13.84348 Y61.68864 I0.20044 J-2.19085
G1 X-18.30642 Y61.11383
G3 X-18.38742 Y61.10186 I0.28103 J-2.18198
G1 X-22.80095 Y60.36551
G3 X-22.88248 Y60.35033 I0.36204 J-2.17001
G1 X-27.2345 Y59.45448
G3 X-27.31665 Y59.43592 I0.44356 J-2.15482
G1 X-31.59524 Y58.38301
G3 X-31.67809 Y58.36091 I0.52571 J-2.13627
G1 X-35.87153 Y57.15383
G3 X-35.95516 Y57.12794 I0.60856 J-2.11416
G1 X-40.05194 Y55.77001
G3 X-40.1364 Y55.74009 I0.69219 J-2.08827
G1 X-44.1253 Y54.23502
G3 X-44.21062 Y54.20077 I0.77665 J-2.05835
G1 X-48.08071 Y52.55269
G3 X-48.16689 Y52.51378 I0.86197 J-2.02411
G1 X-51.90755 Y50.7272
G3 X-51.99455 Y50.68325 I0.94815 J-1.9852
G1 X-55.59553 Y48.76307
G3 X-55.68325 Y48.71369 I1.03515 J-1.94125
G1 X-59.13469 Y46.66517
G3 X-59.22299 Y46.6099 I1.12287 J-1.89187
G1 X-62.51542 Y44.43866
G3 X-62.60406 Y44.37703 I1.21117 J-1.83659
G1 X-65.72846 Y42.08903
G3 X-65.81715 Y42.02055 I1.29981 J-1.77496
G1 X-68.76495 Y39.62205
G3 X-68.85326 Y39.54622 I1.38849 J-1.70648
G1 X-71.6164 Y37.04379
G3 X-71.70381 Y36.96014 I1.4768 J-1.63066
G1 X-74.2747 Y34.36065
G3 X-74.36056 Y34.26871 I1.56422 J-1.547
G1 X-76.73215 Y31.57928
G3 X-76.81567 Y31.47869 I1.65008 J-1.45507
G1 X-78.98147 Y28.70669
G3 X-79.06172 Y28.59718 I1.7336 J-1.35448
G1 X-81.01578 Y25.75021
G3 X-81.0917 Y25.63164 I1.81385 J-1.24497
G1 X-82.82867 Y22.7175
G3 X-82.89908 Y22.58996 I1.88977 J-1.1264
G1 X-84.41421 Y19.61664
G3 X-84.47785 Y19.48044 I1.96017 J-0.99886
G1 X-85.76698 Y16.45609
G3 X-85.82257 Y16.31182 I2.02382 J-0.86265
G1 X-86.88217 Y13.24473
G3 X-86.92846 Y13.09328 I2.07941 J-0.71838
G1 X-87.75561 Y9.99186
G3 X-87.79147 Y9.83443 I2.1257 J-0.56693
G1 X-88.38392 Y6.70718
G3 X-88.40839 Y6.54525 I2.16155 J-0.4095
G1 X-88.76451 Y3.40073
G3 X-88.77693 Y3.236 I2.18603 J-0.24757
G1 X-88.89574 Y0.08284
G3 Y-0.08284 I2.19844 J-0.08284
G1 X-88.77693 Y-3.236
G3 X-88.76451 Y-3.40073 I2.19844 J0.08284
G1 X-88.40839 Y-6.54525
G3 X-88.38392 Y-6.70718 I2.18603 J0.24757
G1 X-87.79147 Y-9.83443
G3 X-87.75561 Y-9.99186 I2.16155 J0.4095
G1 X-86.92846 Y-13.09328
G3 X-86.88217 Y-13.24473 I2.1257 J0.56693
G1 X-85.82257 Y-16.31182
G3 X-85.76698 Y-16.45609 I2.07941 J0.71838
G1 X-84.47785 Y-19.48044
G3 X-84.41421 Y-19.61664 I2.02382 J0.86265
G1 X-82.89908 Y-22.58996
G3 X-82.82867 Y-22.7175 I1.96017 J0.99886
G1 X-81.0917 Y-25.63164
G3 X-81.01578 Y-25.75021 I1.88977 J1.1264
G1 X-79.06172 Y-28.59718
G3 X-78.98147 Y-28.70669 I1.81385 J1.24497
G1 X-76.81567 Y-31.47869
G3 X-76.73215 Y-31.57928 I1.7336 J1.35448
G1 X-74.36056 Y-34.26871
G3 X-74.2747 Y-34.36065 I1.65008 J1.45507
G1 X-71.70381 Y-36.96014
G3 X-71.6164 Y-37.04379 I1.56422 J1.547
G1 X-68.85326 Y-39.54622
G3 X-68.76495 Y-39.62205 I1.4768 J1.63066
G1 X-65.81715 Y-42.02055
G3 X-65.72846 Y-42.08903 I1.38849 J1.70648
G1 X-62.60406 Y-44.37703
G3 X-62.51542 Y-44.43866 I1.29981 J1.77496
G1 X-59.22299 Y-46.6099
G3 X-59.13469 Y-46.66517 I1.21117 J1.83659
G1 X-55.68325 Y-48.71369
G3 X-55.59553 Y-48.76307 I1.12287 J1.89187
G1 X-51.99455 Y-50.68325
G3 X-51.90755 Y-50.7272 I1.03515 J1.94125
G1 X-48.16689 Y-52.51378
G3 X-48.08071 Y-52.55269 I0.94815 J1.9852
G1 X-44.21062 Y-54.20077
G3 X-44.1253 Y-54.23502 I0.86197 J2.02411
G1 X-40.1364 Y-55.74009
G3 X-40.05194 Y-55.77001 I0.77665 J2.05835
G1 X-35.95516 Y-57.12794
G3 X-35.87153 Y-57.15383 I0.69219 J2.08827
G1 X-31.67809 Y-58.36091
G3 X-31.59524 Y-58.38301 I0.60856 J2.11416
G1 X-27.31665 Y-59.43592
G3 X-27.2345 Y-59.45448 I0.52571 J2.13627
G1 X-22.88248 Y-60.35033
G3 X-22.80095 Y-60.36551 I0.44356 J2.15482
G1 X-18.38742 Y-61.10186
G3 X-18.30642 Y-61.11383 I0.36204 J2.17001
G1 X-13.84348 Y-61.68864
G3 X-13.76289 Y-61.69752 I0.28103 J2.18198
G1 X-9.26277 Y-62.10923
G3 X-9.18248 Y-62.11509 I0.20044 J2.19085
G1 X-4.65753 Y-62.36257
G3 X-4.57741 Y-62.36549 I0.12014 J2.19672
G1 X-0.04003 Y-62.44806
G3 X0.04003 I0.04003 J2.19964
G1 X4.57741 Y-62.36549
G3 X4.65753 Y-62.36257 I-0.04003 J2.19964
G1 X9.18248 Y-62.11509
G3 X9.26277 Y-62.10923 I-0.12014 J2.19672
G1 X13.76289 Y-61.69752
G3 X13.84348 Y-61.68864 I-0.20044 J2.19085
G1 X18.30642 Y-61.11383
G3 X18.38742 Y-61.10186 I-0.28103 J2.18198
G1 X22.80095 Y-60.36551
G3 X22.88248 Y-60.35033 I-0.36204 J2.17001
G1 X27.2345 Y-59.45448
G3 X27.31665 Y-59.43592 I-0.44356 J2.15482
G1 X31.59524 Y-58.38301
G3 X31.67809 Y-58.36091 I-0.52571 J2.13627
G1 X35.87153 Y-57.15383
G3 X35.95516 Y-57.12794 I-0.60856 J2.11416
G1 X40.05194 Y-55.77001
G3 X40.1364 Y-55.74009 I-0.69219 J2.08827
G1 X44.1253 Y-54.23502
G3 X44.21062 Y-54.20077 I-0.77665 J2.05835
G1 X48.08071 Y-52.55269
G3 X48.16689 Y-52.51378 I-0.86197 J2.02411
G1 X51.90755 Y-50.7272
G3 X51.99455 Y-50.68325 I-0.94815 J1.9852
G1 X55.59553 Y-48.76307
G3 X55.68325 Y-48.71369 I-1.03515 J1.94125
G1 X59.13469 Y-46.66517
G3 X59.22299 Y-46.6099 I-1.12287 J1.89187
G1 X62.51542 Y-44.43866
G3 X62.60406 Y-44.37703 I-1.21117 J1.83659
G1 X65.72846 Y-42.08903
G3 X65.81715 Y-42.02055 I-1.29981 J1.77496
G1 X68.76495 Y-39.62205
G3 X68.85326 Y-39.54622 I-1.38849 J1.70648
G1 X71.6164 Y-37.04379
G3 X71.70381 Y-36.96014 I-1.4768 J1.63066
G1 X74.2747 Y-34.36065
G3 X74.36056 Y-34.26871 I-1.56422 J1.547
G1 X76.73215 Y-31.57928
G3 X76.81567 Y-31.47869 I-1.65008 J1.45507
G1 X78.98147 Y-28.70669
G3 X79.06172 Y-28.59718 I-1.7336 J1.35448
G1 X81.01578 Y-25.75021
G3 X81.0917 Y-25.63164 I-1.81385 J1.24497
G1 X82.82867 Y-22.7175
G3 X82.89908 Y-22.58996 I-1.88977 J1.1264
G1 X84.41421 Y-19.61664
G3 X84.47785 Y-19.48044 I-1.96017 J0.99886
G1 X85.76698 Y-16.45609
G3 X85.82257 Y-16.31182 I-2.02382 J0.86265
G1 X86.88217 Y-13.24473
G3 X86.92846 Y-13.09328 I-2.07941 J0.71838
G1 X87.75561 Y-9.99186
G3 X87.79147 Y-9.83443 I-2.1257 J0.56693
G1 X88.38392 Y-6.70718
G3 X88.40839 Y-6.54525 I-2.16155 J0.4095
G1 X88.52302 Y-5.53309
G1 F300.0 Z-2.0
G1 F800.0 X88.76451 Y-3.40073
G3 X88.77693 Y-3.236 I-2.18603 J0.24757
G1 X88.89574 Y-0.08284
G3 Y0.08284 I-2.19844 J0.08284
G1 X88.77693 Y3.236
G3 X88.76451 Y3.40073 I-2.19844 J-0.08284
G1 X88.40839 Y6.54525
G3 X88.38392 Y6.70718 I-2.18603 J-0.24757
G1 X87.79147 Y9.83443
G3 X87.75561 Y9.99186 I-2.16155 J-0.4095
G1 X86.92846 Y13.09328
G3 X86.88217 Y13.24473 I-2.1257 J-0.56693
G1 X85.82257 Y16.31182
G3 X85.76698 Y16.45609 I-2.07941 J-0.71838
G1 X84.47785 Y19.48044
G3 X84.41421 Y19.61664 I-2.02382 J-0.86265
G1 X82.89908 Y22.58996
G3 X82.82867 Y22.7175 I-1.96017 J-0.99886
G1 X81.0917 Y25.63164
G3 X81.01578 Y25.75021 I-1.88977 J-1.1264
G1 X79.06172 Y28.59718
G3 X78.98147 Y28.70669 I-1.81385 J-1.24497
G1 X76.81567 Y31.47869
G3 X76.73215 Y31.57928 I-1.7336 J-1.35448
G1 X74.36056 Y34.26871
G3 X74.2747 Y34.36065 I-1.65008 J-1.45507
G1 X71.70381 Y36.96014
G3 X71.6164 Y37.04379 I-1.56422 J-1.547
G1 X68.85326 Y39.54622
G3 X68.76495 Y39.62205 I-1.4768 J-1.63066
G1 X65.81715 Y42.02055
G3 X65.72846 Y42.08903 I-1.38849 J-1.70648
G1 X62.60406 Y44.37703
G3 X62.51542 Y44.43866 I-1.29981 J-1.77496
G1 X59.22299 Y46.6099
G3 X59.13469 Y46.66517 I-1.21117 J-1.83659
G1 X55.68325 Y48.71369
G3 X55.59553 Y48.76307 I-1.12287 J-1.89187
G1 X51.99455 Y50.68325
G3 X51.90755 Y50.7272 I-1.03515 J-1.94125
G1 X48.16689 Y52.51378
G3 X48.08071 Y52.55269 I-0.94815 J-1.9852
G1 X44.21062 Y54.20077
G3 X44.1253 Y54.23502 I-0.86197 J-2.02411
G1 X40.1364 Y55.74009
G3 X40.05194 Y55.77001 I-0.77665 J-2.05835
G1 X35.95516 Y57.12794
G3 X35.87153 Y57.15383 I-0.69219 J-2.08827
G1 X31.67809 Y58.36091
G3 X31.59524 Y58.38301 I-0.60856 J-2.11416
G1 X27.31665 Y59.43592
G3 X27.2345 Y59.45448 I-0.52571 J-2.13627
G1 X22.88248 Y60.35033
G3 X22.80095 Y60.36551 I-0.44356 J-2.15482
G1 X18.38742 Y61.10186
G3 X18.30642 Y61.11383 I-0.36204 J-2.17001
G1 X13.84348 Y61.68864
G3 X13.76289 Y61.69752 I-0.28103 J-2.18198
G1 X9.26277 Y62.10923
G3 X9.18248 Y62.11509 I-0.20044 J-2.19085
G1 X4.65753 Y62.36257
G3 X4.57741 Y62.36549 I-0.12014 J-2.19672
G1 X0.04003 Y62.44806
G3 X-0.04003 I-0.04003 J-2.19964
G1 X-4.57741 Y62.36549
G3 X-4.65753 Y62.36257 I0.04003 J-2.19964
G1 X-9.18248 Y62.11509
G3 X-9.26277 Y62.10923 I0.12014 J-2.19672
G1 X-13.76289 Y61.69752
G3 X-13.84348 Y61.68864 I0.20044 J-2.19085
G1 X-18.30642 Y61.11383
G3 X-18.38742 Y61.10186 I0.28103 J-2.18198
G1 X-22.80095 Y60.36551
G3 X-22.88248 Y60.35033 I0.36204 J-2.17001
G1 X-27.2345 Y59.45448
G3 X-27.31665 Y59.43592 I0.44356 J-2.15482
G1 X-31.59524 Y58.38301
G3 X-31.67809 Y58.36091 I0.52571 J-2.13627
G1 X-35.87153 Y57.15383
G3 X-35.95516 Y57.12794 I0.60856 J-2.11416
G1 X-40.05194 Y55.77001
G3 X-40.1364 Y55.74009 I0.69219 J-2.08827
G1 X-44.1253 Y54.23502
G3 X-44.21062 Y54.20077 I0.77665 J-2.05835
G1 X-48.08071 Y52.55269
G3 X-48.16689 Y52.51378 I0.86197 J-2.02411
G1 X-51.90755 Y50.7272
G3 X-51.99455 Y50.68325 I0.94815 J-1.9852
G1 X-55.59553 Y48.76307
G3 X-55.68325 Y48.71369 I1.03515 J-1.94125
G1 X-59.13469 Y46.66517
G3 X-59.22299 Y46.6099 I1.12287 J-1.89187
G1 X-62.51542 Y44.43866
G3 X-62.60406 Y44.37703 I1.21117 J-1.83659
G1 X-65.72846 Y42.08903
G3 X-65.81715 Y42.02055 I1.29981 J-1.77496
G1 X-68.76495 Y39.62205
G3 X-68.85326 Y39.54622 I1.38849 J-1.70648
G1 X-71.6164 Y37.04379
G3 X-71.70381 Y36.96014 I1.4768 J-1.63066
G1 X-74.2747 Y34.36065
G3 X-74.36056 Y34.26871 I1.56422 J-1.547
G1 X-76.73215 Y31.57928
G3 X-76.81567 Y31.47869 I1.65008 J-1.45507
G1 X-78.98147 Y28.70669
G3 X-79.06172 Y28.59718 I1.7336 J-1.35448
G1 X-81.01578 Y25.75021
G3 X-81.0917 Y25.63164 I1.81385 J-1.24497
G1 X-82.82867 Y22.7175
G3 X-82.89908 Y22.58996 I1.88977 J-1.1264
G1 X-84.41421 Y19.61664
G3 X-84.47785 Y19.48044 I1.96017 J-0.99886
G1 X-85.76698 Y16.45609
G3 X-85.82257 Y16.31182 I2.02382 J-0.86265
G1 X-86.88217 Y13.24473
G3 X-86.92846 Y13.09328 I2.07941 J-0.71838
G1 X-87.75561 Y9.99186
G3 X-87.79147 Y9.83443 I2.1257 J-0.56693
G1 X-88.38392 Y6.70718
G3 X-88.40839 Y6.54525 I2.16155 J-0.4095
G1 X-88.76451 Y3.40073
G3 X-88.77693 Y3.236 I2.18603 J-0.24757
G1 X-88.89574 Y0.08284
G3 Y-0.08284 I2.19844 J-0.08284
G1 X-88.77693 Y-3.236
G3 X-88.76451 Y-3.40073 I2.19844 J0.08284
G1 X-88.40839 Y-6.54525
G3 X-88.38392 Y-6.70718 I2.18603 J0.24757
G1 X-87.79147 Y-9.83443
G3 X-87.75561 Y-9.99186 I2.16155 J0.4095
G1 X-86.92846 Y-13.09328
G3 X-86.88217 Y-13.24473 I2.1257 J0.56693
G1 X-85.82257 Y-16.31182
G3 X-85.76698 Y-16.45609 I2.07941 J0.71838
G1 X-84.47785 Y-19.48044
G3 X-84.41421 Y-19.61664 I2.02382 J0.86265
G1 X-82.89908 Y-22.58996
G3 X-82.82867 Y-22.7175 I1.96017 J0.99886
G1 X-81.0917 Y-25.63164
G3 X-81.01578 Y-25.75021 I1.88977 J1.1264
G1 X-79.06172 Y-28.59718
G3 X-78.98147 Y-28.70669 I1.81385 J1.24497
G1 X-76.81567 Y-31.47869
G3 X-76.73215 Y-31.57928 I1.7336 J1.35448
G1 X-74.36056 Y-34.26871
G3 X-74.2747 Y-34.36065 I1.65008 J1.45507
G1 X-71.70381 Y-36.96014
G3 X-71.6164 Y-37.04379 I1.56422 J1.547
G1 X-68.85326 Y-39.54622
G3 X-68.76495 Y-39.62205 I1.4768 J1.63066
G1 X-65.81715 Y-42.02055
G3 X-65.72846 Y-42.08903 I1.38849 J1.70648
G1 X-62.60406 Y-44.37703
G3 X-62.51542 Y-44.43866 I1.29981 J1.77496
G1 X-59.22299 Y-46.6099
G3 X-59.13469 Y-46.66517 I1.21117 J1.83659
G1 X-55.68325 Y-48.71369
G3 X-55.59553 Y-48.76307 I1.12287 J1.89187
G1 X-51.99455 Y-50.68325
G3 X-51.90755 Y-50.7272 I1.03515 J1.94125
G1 X-48.16689 Y-52.51378
G3 X-48.08071 Y-52.55269 I0.94815 J1.9852
G1 X-44.21062 Y-54.20077
G3 X-44.1253 Y-54.23502 I0.86197 J2.02411
G1 X-40.1364 Y-55.74009
G3 X-40.05194 Y-55.77001 I0.77665 J2.05835
G1 X-35.95516 Y-57.12794
G3 X-35.87153 Y-57.15383 I0.69219 J2.08827
G1 X-31.67809 Y-58.36091
G3 X-31.59524 Y-58.38301 I0.60856 J2.11416
G1 X-27.31665 Y-59.43592
G3 X-27.2345 Y-59.45448 I0.52571 J2.13627
G1 X-22.88248 Y-60.35033
G3 X-22.80095 Y-60.36551 I0.44356 J2.15482
G1 X-18.38742 Y-61.10186
G3 X-18.30642 Y-61.11383 I0.36204 J2.17001
G1 X-13.84348 Y-61.68864
G3 X-13.76289 Y-61.69752 I0.28103 J2.18198
G1 X-9.26277 Y-62.10923
G3 X-9.18248 Y-62.11509 I0.20044 J2.19085
G1 X-4.65753 Y-62.36257
G3 X-4.57741 Y-62.36549 I0.12014 J2.19672
G1 X-0.04003 Y-62.44806
G3 X0.04003 I0.04003 J2.19964
G1 X4.57741 Y-62.36549
G3 X4.65753 Y-62.36257 I-0.04003 J2.19964
G1 X9.18248 Y-62.11509
G3 X9.26277 Y-62.10923 I-0.12014 J2.19672
G1 X13.76289 Y-61.69752
G3 X13.84348 Y-61.68864 I-0.20044 J2.19085
G1 X18.30642 Y-61.11383
G3 X18.38742 Y-61.10186 I-0.28103 J2.18198
G1 X22.80095 Y-60.36551
G3 X22.88248 Y-60.35033 I-0.36204 J2.17001
G1 X27.2345 Y-59.45448
G3 X27.31665 Y-59.43592 I-0.44356 J2.15482
G1 X31.59524 Y-58.38301
G3 X31.67809 Y-58.36091 I-0.52571 J2.13627
G1 X35.87153 Y-57.15383
G3 X35.95516 Y-57.12794 I-0.60856 J2.11416
G1 X40.05194 Y-55.77001
G3 X40.1364 Y-55.74009 I-0.69219 J2.08827
G1 X44.1253 Y-54.23502
G3 X44.21062 Y-54.20077 I-0.77665 J2.05835
G1 X48.08071 Y-52.55269
G3 X48.16689 Y-52.51378 I-0.86197 J2.02411
G1 X51.90755 Y-50.7272
G3 X51.99455 Y-50.68325 I-0.94815 J1.9852
G1 X55.59553 Y-48.76307
G3 X55.68325 Y-48.71369 I-1.03515 J1.94125
G1 X59.13469 Y-46.66517
G3 X59.22299 Y-46.6099 I-1.12287 J1.89187
G1 X62.51542 Y-44.43866
G3 X62.60406 Y-44.37703 I-1.21117 J1.83659
G1 X65.72846 Y-42.08903
G3 X65.81715 Y-42.02055 I-1.29981 J1.77496
G1 X68.76495 Y-39.62205
G3 X68.85326 Y-39.54622 I-1.38849 J1.70648
G1 X71.6164 Y-37.04379
G3 X71.70381 Y-36.96014 I-1.4768 J1.63066
G1 X74.2747 Y-34.36065
G3 X74.36056 Y-34.26871 I-1.56422 J1.547
G1 X76.73215 Y-31.57928
G3 X76.81567 Y-31.47869 I-1.65008 J1.45507
G1 X78.98147 Y-28.70669
G3 X79.06172 Y-28.59718 I-1.7336 J1.35448
G1 X81.01578 Y-25.75021
G3 X81.0917 Y-25.63164 I-1.81385 J1.24497
G1 X82.82867 Y-22.7175
G3 X82.89908 Y-22.58996 I-1.88977 J1.1264
G1 X84.41421 Y-19.61664
G3 X84.47785 Y-19.48044 I-1.96017 J0.99886
G1 X85.76698 Y-16.45609
G3 X85.82257 Y-16.31182 I-2.02382 J0.86265
G1 X86.88217 Y-13.24473
G3 X86.92846 Y-13.09328 I-2.07941 J0.71838
G1 X87.75561 Y-9.99186
G3 X87.79147 Y-9.83443 I-2.1257 J0.56693
G1 X88.38392 Y-6.70718
G3 X88.40839 Y-6.54525 I-2.16155 J0.4095
G1 X88.52302 Y-5.53309
G1 F300.0 X89.31448 Y-5.62521
G1 F800.0 X89.21943 Y-6.48833
G1 X89.21242 Y-6.52639
G1 X89.31448 Y-5.62521
G1 F300.0 X89.57252 Y-3.28207
G3 F800.0 X89.57316 Y-3.266 I-2.99403 J0.12891
G1 X89.66221 Y-0.90278
G1 X89.57629 Y-3.24777
G1 X89.57252 Y-3.28207
G0 Z3.0
G0 X89.69384 Y-0.0395
G0 Z0.0
G1 F300.0 Z-2.0
G3 F800.0 Y0.0395 I-2.99654 J0.0395
G1 X89.69529 Y0.0
G1 X89.69384 Y-0.0395
G1 F300.0 X89.66221 Y0.90278
G1 F800.0 X89.57316 Y3.266
G3 X89.57252 Y3.28207 I-2.99467 J-0.11284
G1 X89.57629 Y3.24777
G1 X89.66221 Y0.90278
G0 Z3.0
G0 X89.31448 Y5.62521
G0 Z0.0
G1 F300.0 Z-2.0
G1 F800.0 X89.21242 Y6.52639
G1 X89.21943 Y6.48833
G1 X89.31448 Y5.62521
G0 Z3.0
G0 X14.29964 Y62.43327
G0 Z0.0
G1 F300.0 Z-2.0
G1 F800.0 X14.14909 Y62.45266
G1 X14.16345 Y62.45131
G1 X14.29964 Y62.43327
G0 Z3.0
G0 X10.43769 Y62.80186
G0 Z0.0
G1 F300.0 Z-2.0
G1 F800.0 X9.39291 Y62.89745
G1 X9.46468 Y62.89341
G1 X10.43769 Y62.80186
G0 Z3.0
G0 X6.73741 Y63.04681
G0 Z0.0
G1 F300.0 Z-2.0
G1 F800.0 X4.70104 Y63.15818
G3 X4.62774 Y63.16129 I-0.16366 J-2.99233
G1 X4.73906 Y63.15921
G1 X6.73741 Y63.04681
G1 F300.0 X4.21323 Y63.16905
G1 F800.0 X0.05452 Y63.24473
G3 X-0.05452 I-0.05452 J-2.9963
G1 X-4.21323 Y63.16905
G1 X0.0 Y63.2479
G1 X4.21323 Y63.16905
G0 Z3.0
G0 X-4.62774 Y63.16129
G0 Z0.0
G1 F300.0 Z-2.0
G3 F800.0 X-4.70104 Y63.15818 I0.09035 J-2.99544
G1 X-6.73741 Y63.04681
G1 X-4.73906 Y63.15921
G1 X-4.62774 Y63.16129
G0 Z3.0
G0 X-9.39291 Y62.89745
G0 Z0.0
G1 F300.0 Z-2.0
G1 F800.0 X-10.43769 Y62.80186
G1 X-9.46468 Y62.89341
G1 X-9.39291 Y62.89745
G0 Z3.0
G0 X-14.14909 Y62.45266
G0 Z0.0
G1 F300.0 Z-2.0
G1 F800.0 X-14.29964 Y62.43327
G1 X-14.16345 Y62.45131
G1 X-14.14909 Y62.45266
G0 Z3.0
G0 X-89.21242 Y6.52639
G0 Z0.0
G1 F300.0 Z-2.0
G1 F800.0 X-89.31448 Y5.62521
G1 X-89.21943 Y6.48833
G1 X-89.21242 Y6.52639
G0 Z3.0
G0 X-89.57252 Y3.28207
G0 Z0.0
G1 F300.0 Z-2.0
G3 F800.0 X-89.57316 Y3.266 I2.99403 J-0.12891
G1 X-89.66221 Y0.90278
G1 X-89.57629 Y3.24777
G1 X-89.57252 Y3.28207
G0 Z3.0
G0 X-89.69384 Y0.0395
G0 Z0.0
G1 F300.0 Z-2.0
G3 F800.0 Y-0.0395 I2.99654 J-0.0395
G1 X-89.69529 Y0.0
G1 X-89.69384 Y0.0395
G1 F300.0 X-89.66221 Y-0.90278
G1 F800.0 X-89.57316 Y-3.266
G3 X-89.57252 Y-3.28207 I2.99467 J0.11284
G1 X-89.57629 Y-3.24777
G1 X-89.66221 Y-0.90278
G0 Z3.0
G0 X-89.31448 Y-5.62521
G0 Z0.0
G1 F300.0 Z-2.0
G1 F800.0 X-89.21242 Y-6.52639
G1 X-89.21943 Y-6.48833
G1 X-89.31448 Y-5.62521
G0 Z3.0
G0 X-14.29964 Y-62.43327
G0 Z0.0
G1 F300.0 Z-2.0
G1 F800.0 X-14.14909 Y-62.45266
G1 X-14.16345 Y-62.45131
G1 X-14.29964 Y-62.43327
G0 Z3.0
G0 X-10.43769 Y-62.80186
G0 Z0.0
G1 F300.0 Z-2.0
G1 F800.0 X-9.39291 Y-62.89745
G1 X-9.46468 Y-62.89341
G1 X-10.43769 Y-62.80186
G0 Z3.0
G0 X-6.73741 Y-63.04681
G0 Z0.0
G1 F300.0 Z-2.0
G1 F800.0 X-4.70104 Y-63.15818
G3 X-4.62774 Y-63.16129 I0.16366 J2.99233
G1 X-4.73906 Y-63.15921
G1 X-6.73741 Y-63.04681
G1 F300.0 X-4.21323 Y-63.16905
G1 F800.0 X-0.05452 Y-63.24473
G3 X0.05452 I0.05452 J2.9963
G1 X4.21323 Y-63.16905
G1 X0.0 Y-63.2479
G1 X-4.21323 Y-63.16905
G0 Z3.0
G0 X4.62774 Y-63.16129
G0 Z0.0
G1 F300.0 Z-2.0
G3 F800.0 X4.70104 Y-63.15818 I-0.09035 J2.99544
G1 X6.73741 Y-63.04681
G1 X4.73906 Y-63.15921
G1 X4.62774 Y-63.16129
G0 Z3.0
G0 X9.39291 Y-62.89745
G0 Z0.0
G1 F300.0 Z-2.0
G1 F800.0 X10.43769 Y-62.80186
G1 X9.46468 Y-62.89341
G1 X9.39291 Y-62.89745
G0 Z3.0
G0 X14.14909 Y-62.45266
G0 Z0.0
G1 F300.0 Z-2.0
G1 F800.0 X14.29964 Y-62.43327
G1 X14.16345 Y-62.45131
G1 X14.14909 Y-62.45266
G1 F300.0 X14.22403 Y-63.24914
G1 F800.0 X9.52463 Y-63.6913
G1 X4.76902 Y-63.95879
G1 X0.0 Y-64.04804
G1 X-4.76902 Y-63.95879
G1 X-9.52463 Y-63.6913
G1 X-14.25348 Y-63.24637
G1 X-18.94227 Y-62.62531
G1 X-23.57784 Y-61.82995
G1 X-28.14715 Y-60.86264
G1 X-32.63739 Y-59.72625
G1 X-37.03596 Y-58.42415
G1 X-41.33052 Y-56.96021
G1 X-45.50905 Y-55.33879
G1 X-49.55988 Y-53.56471
G1 X-53.47172 Y-51.64329
G1 X-57.23369 Y-49.58026
G1 X-60.8354 Y-47.38182
G1 X-64.26694 Y-45.05454
G1 X-67.51896 Y-42.60542
G1 X-70.58268 Y-40.04176
G1 X-73.44995 Y-37.37124
G1 X-76.11326 Y-34.60178
G1 X-78.56578 Y-31.74155
G1 X-80.80139 Y-28.79889
G1 X-82.81468 Y-25.78227
G1 X-84.60098 Y-22.70023
G1 X-86.15631 Y-19.56131
G1 X-87.47737 Y-16.37398
G1 X-88.56152 Y-13.14663
G1 X-89.40672 Y-9.88751
G1 X-90.01145 Y-6.60474
G1 X-90.37469 Y-3.30628
G1 X-90.49583 Y0.0
G1 X-90.37469 Y3.30628
G1 X-90.01145 Y6.60474
G1 X-89.40672 Y9.88751
G1 X-88.56152 Y13.14663
G1 X-87.47737 Y16.37398
G1 X-86.15631 Y19.56131
G1 X-84.60098 Y22.70023
G1 X-82.81468 Y25.78227
G1 X-80.80139 Y28.79889
G1 X-78.56578 Y31.74155
G1 X-76.11326 Y34.60178
G1 X-73.44995 Y37.37124
G1 X-70.58268 Y40.04176
G1 X-67.51896 Y42.60542
G1 X-64.26694 Y45.05454
G1 X-60.8354 Y47.38182
G1 X-57.23369 Y49.58026
G1 X-53.47172 Y51.64329
G1 X-49.55988 Y53.56471
G1 X-45.50905 Y55.33879
G1 X-41.33052 Y56.96021
G1 X-37.03596 Y58.42415
G1 X-32.63739 Y59.72625
G1 X-28.14715 Y60.86264
G1 X-23.57784 Y61.82995
G1 X-18.94227 Y62.62531
G1 X-14.25348 Y63.24637
G1 X-9.52463 Y63.6913
G1 X-4.76902 Y63.95879
G1 X0.0 Y64.04804
G1 X4.76902 Y63.95879
G1 X9.52463 Y63.6913
G1 X14.25348 Y63.24637
G1 X18.94227 Y62.62531
G1 X23.57784 Y61.82995
G1 X28.14715 Y60.86264
G1 X32.63739 Y59.72625
G1 X37.03596 Y58.42415
G1 X41.33052 Y56.96021
G1 X45.50905 Y55.33879
G1 X49.55988 Y53.56471
G1 X53.47172 Y51.64329
G1 X57.23369 Y49.58026
G1 X60.8354 Y47.38182
G1 X64.26694 Y45.05454
G1 X67.51896 Y42.60542
G1 X70.58268 Y40.04176
G1 X73.44995 Y37.37124
G1 X76.11326 Y34.60178
G1 X78.56578 Y31.74155
G1 X80.80139 Y28.79889
G1 X82.81468 Y25.78227
G1 X84.60098 Y22.70023
G1 X86.15631 Y19.56131
G1 X87.47737 Y16.37398
G1 X88.56152 Y13.14663
G1 X89.40672 Y9.88751
G1 X90.01145 Y6.60474
G1 X90.37469 Y3.30628
G1 X90.49583 Y0.0
G1 X90.37469 Y-3.30628
G1 X90.01145 Y-6.60474
G1 X89.40672 Y-9.88751
G1 X88.56152 Y-13.14663
G1 X87.47737 Y-16.37398
G1 X86.15631 Y-19.56131
G1 X84.60098 Y-22.70023
G1 X82.81468 Y-25.78227
G1 X80.80139 Y-28.79889
G1 X78.56578 Y-31.74155
G1 X76.11326 Y-34.60178
G1 X73.44995 Y-37.37124
G1 X70.58268 Y-40.04176
G1 X67.51896 Y-42.60542
G1 X64.26694 Y-45.05454
G1 X60.8354 Y-47.38182
G1 X57.23369 Y-49.58026
G1 X53.47172 Y-51.64329
G1 X49.55988 Y-53.56471
G1 X45.50905 Y-55.33879
G1 X41.33052 Y-56.96021
G1 X37.03596 Y-58.42415
G1 X32.63739 Y-59.72625
G1 X28.14715 Y-60.86264
G1 X23.57784 Y-61.82995
G1 X18.94227 Y-62.62531
G1 X14.25348 Y-63.24637
G1 X14.22403 Y-63.24914
( Tasche-Ring-Innen )
G0 Z3.0
( T2 : 2.0 )
T2 M6
M3 S1000
G0 X0.0 Y-55.18528
G0 Z1.0
G1 F300.0 Z-1.0
G1 F800.0 X-4.28912 Y-55.10891
G1 X-8.56632 Y-54.88003
G1 X-12.81973 Y-54.49929
G1 X-17.03753 Y-53.96778
G1 X-21.208 Y-53.287
G1 X-25.31957 Y-52.45892
G1 X-29.36081 Y-51.48589
G1 X-33.3205 Y-50.3707
G1 X-37.18766 Y-49.11654
G1 X-40.95154 Y-47.72703
G1 X-44.60171 Y-46.20614
G1 X-48.12806 Y-44.55827
G1 X-51.52085 Y-42.78816
G1 X-54.77069 Y-40.90093
G1 X-57.86866 Y-38.90204
G1 X-60.80625 Y-36.79726
G1 X-63.57547 Y-34.59271
G1 X-66.16881 Y-32.29475
G1 X-68.57932 Y-29.91002
G1 X-70.80062 Y-27.4454
G1 X-72.82691 Y-24.90793
G1 X-74.65301 Y-22.30483
G1 X-76.27434 Y-19.64342
G1 X-77.68698 Y-16.93108
G1 X-78.88758 Y-14.17522
G1 X-79.87341 Y-11.38324
G1 X-80.64231 Y-8.56248
G1 X-81.19265 Y-5.72022
G1 X-81.52329 Y-2.86367
G1 X-81.63358 Y0.0
G1 X-81.52329 Y2.86367
G1 X-81.19265 Y5.72022
G1 X-80.64231 Y8.56248
G1 X-79.87341 Y11.38324
G1 X-78.88758 Y14.17522
G1 X-77.68698 Y16.93108
G1 X-76.27434 Y19.64342
G1 X-74.65301 Y22.30483
G1 X-72.82691 Y24.90793
G1 X-70.80062 Y27.4454
G1 X-68.57932 Y29.91002
G1 X-66.16881 Y32.29475
G1 X-63.57547 Y34.59271
G1 X-60.80625 Y36.79726
G1 X-57.86866 Y38.90204
G1 X-54.77069 Y40.90093
G1 X-51.52085 Y42.78816
G1 X-48.12806 Y44.55827
G1 X-44.60171 Y46.20614
G1 X-40.95154 Y47.72703
G1 X-37.18766 Y49.11654
G1 X-33.3205 Y50.3707
G1 X-29.36081 Y51.48589
G1 X-25.31957 Y52.45892
G1 X-21.208 Y53.287
G1 X-17.03753 Y53.96778
G1 X-12.81973 Y54.49929
G1 X-8.56632 Y54.88003
G1 X-4.28912 Y55.10891
G1 X0.0 Y55.18528
G1 X4.28912 Y55.10891
G1 X8.56632 Y54.88003
G1 X12.81973 Y54.49929
G1 X17.03753 Y53.96778
G1 X21.208 Y53.287
G1 X25.31957 Y52.45892
G1 X29.36081 Y51.48589
G1 X33.3205 Y50.3707
G1 X37.18766 Y49.11654
G1 X40.95154 Y47.72703
G1 X44.60171 Y46.20614
G1 X48.12806 Y44.55827
G1 X51.52085 Y42.78816
G1 X54.77069 Y40.90093
G1 X57.86866 Y38.90204
G1 X60.80625 Y36.79726
G1 X63.57547 Y34.59271
G1 X66.16881 Y32.29475
G1 X68.57932 Y29.91002
G1 X70.80062 Y27.4454
G1 X72.82691 Y24.90793
G1 X74.65301 Y22.30483
G1 X76.27434 Y19.64342
G1 X77.68698 Y16.93108
G1 X78.88758 Y14.17522
G1 X79.87341 Y11.38324
G1 X80.64231 Y8.56248
G1 X81.19265 Y5.72022
G1 X81.52329 Y2.86367
G1 X81.63358 Y0.0
G1 X81.52329 Y-2.86367
G1 X81.19265 Y-5.72022
G1 X80.64231 Y-8.56248
G1 X79.87341 Y-11.38324
G1 X78.88758 Y-14.17522
G1 X77.68698 Y-16.93108
G1 X76.27434 Y-19.64342
G1 X74.65301 Y-22.30483
G1 X72.82691 Y-24.90793
G1 X70.80062 Y-27.4454
G1 X68.57932 Y-29.91002
G1 X66.16881 Y-32.29475
G1 X63.57547 Y-34.59271
G1 X60.80625 Y-36.79726
G1 X57.86866 Y-38.90204
G1 X54.77069 Y-40.90093
G1 X51.52085 Y-42.78816
G1 X48.12806 Y-44.55827
G1 X44.60171 Y-46.20614
G1 X40.95154 Y-47.72703
G1 X37.18766 Y-49.11654
G1 X33.3205 Y-50.3707
G1 X29.36081 Y-51.48589
G1 X25.31957 Y-52.45892
G1 X21.208 Y-53.287
G1 X17.03753 Y-53.96778
G1 X12.81973 Y-54.49929
G1 X8.56632 Y-54.88003
G1 X4.28912 Y-55.10891
G1 X0.0 Y-55.18528
G1 F300.0 Y-55.08544
G3 F800.0 X0.01758 Y-55.08528 I0.0 J1.0
G1 X4.23242 Y-55.01116
G3 X4.26762 Y-55.00992 I-0.01758 J0.99985
G1 X8.47091 Y-54.78776
G3 X8.5062 Y-54.78527 I-0.05278 J0.99861
G1 X12.68642 Y-54.41567
G3 X12.72186 Y-54.4119 I-0.08807 J0.99611
G1 X16.86754 Y-53.89588
G3 X16.9032 Y-53.89079 I-0.12352 J0.99234
G1 X21.00299 Y-53.22977
G3 X21.03892 Y-53.2233 I-0.15918 J0.98725
G1 X25.08158 Y-52.41909
G3 X25.11784 Y-52.41118 I-0.19511 J0.98078
G1 X29.09229 Y-51.46597
G3 X29.12892 Y-51.45653 I-0.23137 J0.97287
G1 X33.02426 Y-50.37293
G3 X33.06132 Y-50.36184 I-0.268 J0.96342
G1 X36.86688 Y-49.14281
G3 X36.90439 Y-49.12997 I-0.30506 J0.95233
G1 X40.60974 Y-47.77885
G3 X40.64774 Y-47.76411 I-0.34258 J0.93949
G1 X44.24271 Y-46.28461
G3 X44.28121 Y-46.26782 I-0.38058 J0.92475
G1 X47.75596 Y-44.66399
G3 X47.79496 Y-44.64495 I-0.41908 J0.90795
G1 X51.13997 Y-42.92119
G3 X51.17944 Y-42.89972 I-0.45808 J0.88891
G1 X54.38553 Y-41.06075
G3 X54.42542 Y-41.03661 I-0.49755 J0.86744
G1 X57.48381 Y-39.08748
G3 X57.52404 Y-39.06045 I-0.53744 J0.8433
G1 X60.42634 Y-37.00649
G3 X60.46678 Y-36.97631 I-0.57767 J0.81627
G1 X63.20504 Y-34.82316
G3 X63.24552 Y-34.78956 I-0.61812 J0.78609
G1 X65.81223 Y-32.54312
G3 X65.85252 Y-32.50585 I-0.6586 J0.75249
G1 X68.24066 Y-30.17227
G3 X68.28046 Y-30.13108 I-0.69889 J0.71523
G1 X70.48346 Y-27.71676
G3 X70.52241 Y-27.67142 I-0.7387 J0.67404
G1 X72.53425 Y-25.18298
G3 X72.5719 Y-25.13332 I-0.77764 J0.6287
G1 X74.38706 Y-22.57757
G3 X74.42289 Y-22.52348 I-0.8153 J0.57904
G1 X76.0364 Y-19.90744
G3 X76.06983 Y-19.84891 I-0.85113 J0.52495
G1 X77.47725 Y-17.17974
G3 X77.50764 Y-17.11688 I-0.88456 J0.46642
G1 X78.70513 Y-14.4019
G3 X78.73182 Y-14.33496 I-0.91495 J0.40356
G1 X79.71609 Y-11.58161
G3 X79.73842 Y-11.51102 I-0.94164 J0.33662
G1 X80.50677 Y-8.72686
G3 X80.52413 Y-8.6532 I-0.96397 J0.26603
G1 X81.07447 Y-5.84584
G3 X81.08635 Y-5.76986 I-0.98132 J0.19237
G1 X81.41715 Y-2.94701
G3 X81.42319 Y-2.86957 I-0.9932 J0.11639
G1 X81.53356 Y-0.03896
G3 Y0.03896 I-0.99924 J0.03896
G1 X81.42319 Y2.86957
G3 X81.41715 Y2.94701 I-0.99924 J-0.03896
G1 X81.08635 Y5.76986
G3 X81.07447 Y5.84584 I-0.9932 J-0.11639
G1 X80.52413 Y8.6532
G3 X80.50677 Y8.72686 I-0.98132 J-0.19237
G1 X79.73842 Y11.51102
G3 X79.71609 Y11.58161 I-0.96397 J-0.26603
G1 X78.73182 Y14.33496
G3 X78.70513 Y14.4019 I-0.94164 J-0.33662
G1 X77.50764 Y17.11688
G3 X77.47725 Y17.17974 I-0.91495 J-0.40356
G1 X76.06983 Y19.84891
G3 X76.0364 Y19.90744 I-0.88456 J-0.46642
G1 X74.42289 Y22.52348
G3 X74.38706 Y22.57757 I-0.85113 J-0.52495
G1 X72.5719 Y25.13332
G3 X72.53425 Y25.18298 I-0.8153 J-0.57904
G1 X70.52241 Y27.67142
G3 X70.48346 Y27.71676 I-0.77764 J-0.6287
G1 X68.28046 Y30.13108
G3 X68.24066 Y30.17227 I-0.7387 J-0.67404
G1 X65.85252 Y32.50585
G3 X65.81223 Y32.54312 I-0.69889 J-0.71523
G1 X63.24552 Y34.78956
G3 X63.20504 Y34.82316 I-0.6586 J-0.75249
G1 X60.46678 Y36.97631
G3 X60.42634 Y37.00649 I-0.61812 J-0.78609
G1 X57.52404 Y39.06045
G3 X57.48381 Y39.08748 I-0.57767 J-0.81627
G1 X54.42542 Y41.03661
G3 X54.38553 Y41.06075 I-0.53744 J-0.8433
G1 X51.17944 Y42.89972
G3 X51.13997 Y42.92119 I-0.49755 J-0.86744
G1 X47.79496 Y44.64495
G3 X47.75596 Y44.66399 I-0.45808 J-0.88891
G1 X44.28121 Y46.26782
G3 X44.24271 Y46.28461 I-0.41908 J-0.90795
G1 X40.64774 Y47.76411
G3 X40.60974 Y47.77885 I-0.38058 J-0.92475
G1 X36.90439 Y49.12997
G3 X36.86688 Y49.14281 I-0.34258 J-0.93949
G1 X33.06132 Y50.36184
G3 X33.02426 Y50.37293 I-0.30506 J-0.95233
G1 X29.12892 Y51.45653
G3 X29.09229 Y51.46597 I-0.268 J-0.96342
G1 X25.11784 Y52.41118
G3 X25.08158 Y52.41909 I-0.23137 J-0.97287
G1 X21.03892 Y53.2233
G3 X21.00299 Y53.22977 I-0.19511 J-0.98078
G1 X16.9032 Y53.89079
G3 X16.86754 Y53.89588 I-0.15918 J-0.98725
G1 X12.72186 Y54.4119
G3 X12.68642 Y54.41567 I-0.12352 J-0.99234
G1 X8.5062 Y54.78527
G3 X8.47091 Y54.78776 I-0.08807 J-0.99611
G1 X4.26762 Y55.00992
G3 X4.23242 Y55.01116 I-0.05278 J-0.99861
G1 X0.01758 Y55.08528
G3 X-0.01758 I-0.01758 J-0.99985
G1 X-4.23242 Y55.01116
G3 X-4.26762 Y55.00992 I0.01758 J-0.99985
G1 X-8.47091 Y54.78776
G3 X-8.5062 Y54.78527 I0.05278 J-0.99861
G1 X-12.68642 Y54.41567
G3 X-12.72186 Y54.4119 I0.08807 J-0.99611
G1 X-16.86754 Y53.89588
G3 X-16.9032 Y53.89079 I0.12352 J-0.99234
G1 X-21.00299 Y53.22977
G3 X-21.03892 Y53.2233 I0.15918 J-0.98725
G1 X-25.08158 Y52.41909
G3 X-25.11784 Y52.41118 I0.19511 J-0.98078
G1 X-29.09229 Y51.46597
G3 X-29.12892 Y51.45653 I0.23137 J-0.97287
G1 X-33.02426 Y50.37293
G3 X-33.06132 Y50.36184 I0.268 J-0.96342
G1 X-36.86688 Y49.14281
G3 X-36.90439 Y49.12997 I0.30506 J-0.95233
G1 X-40.60974 Y47.77885
G3 X-40.64774 Y47.76411 I0.34258 J-0.93949
G1 X-44.24271 Y46.28461
G3 X-44.28121 Y46.26782 I0.38058 J-0.92475
G1 X-47.75596 Y44.66399
G3 X-47.79496 Y44.64495 I0.41908 J-0.90795
G1 X-51.13997 Y42.92119
G3 X-51.17944 Y42.89972 I0.45808 J-0.88891
G1 X-54.38553 Y41.06075
G3 X-54.42542 Y41.03661 I0.49755 J-0.86744
G1 X-57.48381 Y39.08748
G3 X-57.52404 Y39.06045 I0.53744 J-0.8433
G1 X-60.42634 Y37.00649
G3 X-60.46678 Y36.97631 I0.57767 J-0.81627
G1 X-63.20504 Y34.82316
G3 X-63.24552 Y34.78956 I0.61812 J-0.78609
G1 X-65.81223 Y32.54312
G3 X-65.85252 Y32.50585 I0.6586 J-0.75249
G1 X-68.24066 Y30.17227
G3 X-68.28046 Y30.13108 I0.69889 J-0.71523
G1 X-70.48346 Y27.71676
G3 X-70.52241 Y27.67142 I0.7387 J-0.67404
G1 X-72.53425 Y25.18298
G3 X-72.5719 Y25.13332 I0.77764 J-0.6287
G1 X-74.38706 Y22.57757
G3 X-74.42289 Y22.52348 I0.8153 J-0.57904
G1 X-76.0364 Y19.90744
G3 X-76.06983 Y19.84891 I0.85113 J-0.52495
G1 X-77.47725 Y17.17974
G3 X-77.50764 Y17.11688 I0.88456 J-0.46642
G1 X-78.70513 Y14.4019
G3 X-78.73182 Y14.33496 I0.91495 J-0.40356
G1 X-79.71609 Y11.58161
G3 X-79.73842 Y11.51102 I0.94164 J-0.33662
G1 X-80.50677 Y8.72686
G3 X-80.52413 Y8.6532 I0.96397 J-0.26603
G1 X-81.07447 Y5.84584
G3 X-81.08635 Y5.76986 I0.98132 J-0.19237
G1 X-81.41715 Y2.94701
G3 X-81.42319 Y2.86957 I0.9932 J-0.11639
G1 X-81.53356 Y0.03896
G3 Y-0.03896 I0.99924 J-0.03896
G1 X-81.42319 Y-2.86957
G3 X-81.41715 Y-2.94701 I0.99924 J0.03896
G1 X-81.08635 Y-5.76986
G3 X-81.07447 Y-5.84584 I0.9932 J0.11639
G1 X-80.52413 Y-8.6532
G3 X-80.50677 Y-8.72686 I0.98132 J0.19237
G1 X-79.73842 Y-11.51102
G3 X-79.71609 Y-11.58161 I0.96397 J0.26603
G1 X-78.73182 Y-14.33496
G3 X-78.70513 Y-14.4019 I0.94164 J0.33662
G1 X-77.50764 Y-17.11688
G3 X-77.47725 Y-17.17974 I0.91495 J0.40356
G1 X-76.06983 Y-19.84891
G3 X-76.0364 Y-19.90744 I0.88456 J0.46642
G1 X-74.42289 Y-22.52348
G3 X-74.38706 Y-22.57757 I0.85113 J0.52495
G1 X-72.5719 Y-25.13332
G3 X-72.53425 Y-25.18298 I0.8153 J0.57904
G1 X-70.52241 Y-27.67142
G3 X-70.48346 Y-27.71676 I0.77764 J0.6287
G1 X-68.28046 Y-30.13108
G3 X-68.24066 Y-30.17227 I0.7387 J0.67404
G1 X-65.85252 Y-32.50585
G3 X-65.81223 Y-32.54312 I0.69889 J0.71523
G1 X-63.24552 Y-34.78956
G3 X-63.20504 Y-34.82316 I0.6586 J0.75249
G1 X-60.46678 Y-36.97631
G3 X-60.42634 Y-37.00649 I0.61812 J0.78609
G1 X-57.52404 Y-39.06045
G3 X-57.48381 Y-39.08748 I0.57767 J0.81627
G1 X-54.42542 Y-41.03661
G3 X-54.38553 Y-41.06075 I0.53744 J0.8433
G1 X-51.17944 Y-42.89972
G3 X-51.13997 Y-42.92119 I0.49755 J0.86744
G1 X-47.79496 Y-44.64495
G3 X-47.75596 Y-44.66399 I0.45808 J0.88891
G1 X-44.28121 Y-46.26782
G3 X-44.24271 Y-46.28461 I0.41908 J0.90795
G1 X-40.64774 Y-47.76411
G3 X-40.60974 Y-47.77885 I0.38058 J0.92475
G1 X-36.90439 Y-49.12997
G3 X-36.86688 Y-49.14281 I0.34258 J0.93949
G1 X-33.06132 Y-50.36184
G3 X-33.02426 Y-50.37293 I0.30506 J0.95233
G1 X-29.12892 Y-51.45653
G3 X-29.09229 Y-51.46597 I0.268 J0.96342
G1 X-25.11784 Y-52.41118
G3 X-25.08158 Y-52.41909 I0.23137 J0.97287
G1 X-21.03892 Y-53.2233
G3 X-21.00299 Y-53.22977 I0.19511 J0.98078
G1 X-16.9032 Y-53.89079
G3 X-16.86754 Y-53.89588 I0.15918 J0.98725
G1 X-12.72186 Y-54.4119
G3 X-12.68642 Y-54.41567 I0.12352 J0.99234
G1 X-8.5062 Y-54.78527
G3 X-8.47091 Y-54.78776 I0.08807 J0.99611
G1 X-4.26762 Y-55.00992
G3 X-4.23242 Y-55.01116 I0.05278 J0.99861
G1 X-0.01758 Y-55.08528
G3 X0.0 Y-55.08544 I0.01758 J0.99985
G1 F300.0 Z-2.0
G3 F800.0 X0.01758 Y-55.08528 I0.0 J1.0
G1 X4.23242 Y-55.01116
G3 X4.26762 Y-55.00992 I-0.01758 J0.99985
G1 X8.47091 Y-54.78776
G3 X8.5062 Y-54.78527 I-0.05278 J0.99861
G1 X12.68642 Y-54.41567
G3 X12.72186 Y-54.4119 I-0.08807 J0.99611
G1 X16.86754 Y-53.89588
G3 X16.9032 Y-53.89079 I-0.12352 J0.99234
G1 X21.00299 Y-53.22977
G3 X21.03892 Y-53.2233 I-0.15918 J0.98725
G1 X25.08158 Y-52.41909
G3 X25.11784 Y-52.41118 I-0.19511 J0.98078
G1 X29.09229 Y-51.46597
G3 X29.12892 Y-51.45653 I-0.23137 J0.97287
G1 X33.02426 Y-50.37293
G3 X33.06132 Y-50.36184 I-0.268 J0.96342
G1 X36.86688 Y-49.14281
G3 X36.90439 Y-49.12997 I-0.30506 J0.95233
G1 X40.60974 Y-47.77885
G3 X40.64774 Y-47.76411 I-0.34258 J0.93949
G1 X44.24271 Y-46.28461
G3 X44.28121 Y-46.26782 I-0.38058 J0.92475
G1 X47.75596 Y-44.66399
G3 X47.79496 Y-44.64495 I-0.41908 J0.90795
G1 X51.13997 Y-42.92119
G3 X51.17944 Y-42.89972 I-0.45808 J0.88891
G1 X54.38553 Y-41.06075
G3 X54.42542 Y-41.03661 I-0.49755 J0.86744
G1 X57.48381 Y-39.08748
G3 X57.52404 Y-39.06045 I-0.53744 J0.8433
G1 X60.42634 Y-37.00649
G3 X60.46678 Y-36.97631 I-0.57767 J0.81627
G1 X63.20504 Y-34.82316
G3 X63.24552 Y-34.78956 I-0.61812 J0.78609
G1 X65.81223 Y-32.54312
G3 X65.85252 Y-32.50585 I-0.6586 J0.75249
G1 X68.24066 Y-30.17227
G3 X68.28046 Y-30.13108 I-0.69889 J0.71523
G1 X70.48346 Y-27.71676
G3 X70.52241 Y-27.67142 I-0.7387 J0.67404
G1 X72.53425 Y-25.18298
G3 X72.5719 Y-25.13332 I-0.77764 J0.6287
G1 X74.38706 Y-22.57757
G3 X74.42289 Y-22.52348 I-0.8153 J0.57904
G1 X76.0364 Y-19.90744
G3 X76.06983 Y-19.84891 I-0.85113 J0.52495
G1 X77.47725 Y-17.17974
G3 X77.50764 Y-17.11688 I-0.88456 J0.46642
G1 X78.70513 Y-14.4019
G3 X78.73182 Y-14.33496 I-0.91495 J0.40356
G1 X79.71609 Y-11.58161
G3 X79.73842 Y-11.51102 I-0.94164 J0.33662
G1 X80.50677 Y-8.72686
G3 X80.52413 Y-8.6532 I-0.96397 J0.26603
G1 X81.07447 Y-5.84584
G3 X81.08635 Y-5.76986 I-0.98132 J0.19237
G1 X81.41715 Y-2.94701
G3 X81.42319 Y-2.86957 I-0.9932 J0.11639
G1 X81.53356 Y-0.03896
G3 Y0.03896 I-0.99924 J0.03896
G1 X81.42319 Y2.86957
G3 X81.41715 Y2.94701 I-0.99924 J-0.03896
G1 X81.08635 Y5.76986
G3 X81.07447 Y5.84584 I-0.9932 J-0.11639
G1 X80.52413 Y8.6532
G3 X80.50677 Y8.72686 I-0.98132 J-0.19237
G1 X79.73842 Y11.51102
G3 X79.71609 Y11.58161 I-0.96397 J-0.26603
G1 X78.73182 Y14.33496
G3 X78.70513 Y14.4019 I-0.94164 J-0.33662
G1 X77.50764 Y17.11688
G3 X77.47725 Y17.17974 I-0.91495 J-0.40356
G1 X76.06983 Y19.84891
G3 X76.0364 Y19.90744 I-0.88456 J-0.46642
G1 X74.42289 Y22.52348
G3 X74.38706 Y22.57757 I-0.85113 J-0.52495
G1 X72.5719 Y25.13332
G3 X72.53425 Y25.18298 I-0.8153 J-0.57904
G1 X70.52241 Y27.67142
G3 X70.48346 Y27.71676 I-0.77764 J-0.6287
G1 X68.28046 Y30.13108
G3 X68.24066 Y30.17227 I-0.7387 J-0.67404
G1 X65.85252 Y32.50585
G3 X65.81223 Y32.54312 I-0.69889 J-0.71523
G1 X63.24552 Y34.78956
G3 X63.20504 Y34.82316 I-0.6586 J-0.75249
G1 X60.46678 Y36.97631
G3 X60.42634 Y37.00649 I-0.61812 J-0.78609
G1 X57.52404 Y39.06045
G3 X57.48381 Y39.08748 I-0.57767 J-0.81627
G1 X54.42542 Y41.03661
G3 X54.38553 Y41.06075 I-0.53744 J-0.8433
G1 X51.17944 Y42.89972
G3 X51.13997 Y42.92119 I-0.49755 J-0.86744
G1 X47.79496 Y44.64495
G3 X47.75596 Y44.66399 I-0.45808 J-0.88891
G1 X44.28121 Y46.26782
G3 X44.24271 Y46.28461 I-0.41908 J-0.90795
G1 X40.64774 Y47.76411
G3 X40.60974 Y47.77885 I-0.38058 J-0.92475
G1 X36.90439 Y49.12997
G3 X36.86688 Y49.14281 I-0.34258 J-0.93949
G1 X33.06132 Y50.36184
G3 X33.02426 Y50.37293 I-0.30506 J-0.95233
G1 X29.12892 Y51.45653
G3 X29.09229 Y51.46597 I-0.268 J-0.96342
G1 X25.11784 Y52.41118
G3 X25.08158 Y52.41909 I-0.23137 J-0.97287
G1 X21.03892 Y53.2233
G3 X21.00299 Y53.22977 I-0.19511 J-0.98078
G1 X16.9032 Y53.89079
G3 X16.86754 Y53.89588 I-0.15918 J-0.98725
G1 X12.72186 Y54.4119
G3 X12.68642 Y54.41567 I-0.12352 J-0.99234
G1 X8.5062 Y54.78527
G3 X8.47091 Y54.78776 I-0.08807 J-0.99611
G1 X4.26762 Y55.00992
G3 X4.23242 Y55.01116 I-0.05278 J-0.99861
G1 X0.01758 Y55.08528
G3 X-0.01758 I-0.01758 J-0.99985
G1 X-4.23242 Y55.01116
G3 X-4.26762 Y55.00992 I0.01758 J-0.99985
G1 X-8.47091 Y54.78776
G3 X-8.5062 Y54.78527 I0.05278 J-0.99861
G1 X-12.68642 Y54.41567
G3 X-12.72186 Y54.4119 I0.08807 J-0.99611
G1 X-16.86754 Y53.89588
G3 X-16.9032 Y53.89079 I0.12352 J-0.99234
G1 X-21.00299 Y53.22977
G3 X-21.03892 Y53.2233 I0.15918 J-0.98725
G1 X-25.08158 Y52.41909
G3 X-25.11784 Y52.41118 I0.19511 J-0.98078
G1 X-29.09229 Y51.46597
G3 X-29.12892 Y51.45653 I0.23137 J-0.97287
G1 X-33.02426 Y50.37293
G3 X-33.06132 Y50.36184 I0.268 J-0.96342
G1 X-36.86688 Y49.14281
G3 X-36.90439 Y49.12997 I0.30506 J-0.95233
G1 X-40.60974 Y47.77885
G3 X-40.64774 Y47.76411 I0.34258 J-0.93949
G1 X-44.24271 Y46.28461
G3 X-44.28121 Y46.26782 I0.38058 J-0.92475
G1 X-47.75596 Y44.66399
G3 X-47.79496 Y44.64495 I0.41908 J-0.90795
G1 X-51.13997 Y42.92119
G3 X-51.17944 Y42.89972 I0.45808 J-0.88891
G1 X-54.38553 Y41.06075
G3 X-54.42542 Y41.03661 I0.49755 J-0.86744
G1 X-57.48381 Y39.08748
G3 X-57.52404 Y39.06045 I0.53744 J-0.8433
G1 X-60.42634 Y37.00649
G3 X-60.46678 Y36.97631 I0.57767 J-0.81627
G1 X-63.20504 Y34.82316
G3 X-63.24552 Y34.78956 I0.61812 J-0.78609
G1 X-65.81223 Y32.54312
G3 X-65.85252 Y32.50585 I0.6586 J-0.75249
G1 X-68.24066 Y30.17227
G3 X-68.28046 Y30.13108 I0.69889 J-0.71523
G1 X-70.48346 Y27.71676
G3 X-70.52241 Y27.67142 I0.7387 J-0.67404
G1 X-72.53425 Y25.18298
G3 X-72.5719 Y25.13332 I0.77764 J-0.6287
G1 X-74.38706 Y22.57757
G3 X-74.42289 Y22.52348 I0.8153 J-0.57904
G1 X-76.0364 Y19.90744
G3 X-76.06983 Y19.84891 I0.85113 J-0.52495
G1 X-77.47725 Y17.17974
G3 X-77.50764 Y17.11688 I0.88456 J-0.46642
G1 X-78.70513 Y14.4019
G3 X-78.73182 Y14.33496 I0.91495 J-0.40356
G1 X-79.71609 Y11.58161
G3 X-79.73842 Y11.51102 I0.94164 J-0.33662
G1 X-80.50677 Y8.72686
G3 X-80.52413 Y8.6532 I0.96397 J-0.26603
G1 X-81.07447 Y5.84584
G3 X-81.08635 Y5.76986 I0.98132 J-0.19237
G1 X-81.41715 Y2.94701
G3 X-81.42319 Y2.86957 I0.9932 J-0.11639
G1 X-81.53356 Y0.03896
G3 Y-0.03896 I0.99924 J-0.03896
G1 X-81.42319 Y-2.86957
G3 X-81.41715 Y-2.94701 I0.99924 J0.03896
G1 X-81.08635 Y-5.76986
G3 X-81.07447 Y-5.84584 I0.9932 J0.11639
G1 X-80.52413 Y-8.6532
G3 X-80.50677 Y-8.72686 I0.98132 J0.19237
G1 X-79.73842 Y-11.51102
G3 X-79.71609 Y-11.58161 I0.96397 J0.26603
G1 X-78.73182 Y-14.33496
G3 X-78.70513 Y-14.4019 I0.94164 J0.33662
G1 X-77.50764 Y-17.11688
G3 X-77.47725 Y-17.17974 I0.91495 J0.40356
G1 X-76.06983 Y-19.84891
G3 X-76.0364 Y-19.90744 I0.88456 J0.46642
G1 X-74.42289 Y-22.52348
G3 X-74.38706 Y-22.57757 I0.85113 J0.52495
G1 X-72.5719 Y-25.13332
G3 X-72.53425 Y-25.18298 I0.8153 J0.57904
G1 X-70.52241 Y-27.67142
G3 X-70.48346 Y-27.71676 I0.77764 J0.6287
G1 X-68.28046 Y-30.13108
G3 X-68.24066 Y-30.17227 I0.7387 J0.67404
G1 X-65.85252 Y-32.50585
G3 X-65.81223 Y-32.54312 I0.69889 J0.71523
G1 X-63.24552 Y-34.78956
G3 X-63.20504 Y-34.82316 I0.6586 J0.75249
G1 X-60.46678 Y-36.97631
G3 X-60.42634 Y-37.00649 I0.61812 J0.78609
G1 X-57.52404 Y-39.06045
G3 X-57.48381 Y-39.08748 I0.57767 J0.81627
G1 X-54.42542 Y-41.03661
G3 X-54.38553 Y-41.06075 I0.53744 J0.8433
G1 X-51.17944 Y-42.89972
G3 X-51.13997 Y-42.92119 I0.49755 J0.86744
G1 X-47.79496 Y-44.64495
G3 X-47.75596 Y-44.66399 I0.45808 J0.88891
G1 X-44.28121 Y-46.26782
G3 X-44.24271 Y-46.28461 I0.41908 J0.90795
G1 X-40.64774 Y-47.76411
G3 X-40.60974 Y-47.77885 I0.38058 J0.92475
G1 X-36.90439 Y-49.12997
G3 X-36.86688 Y-49.14281 I0.34258 J0.93949
G1 X-33.06132 Y-50.36184
G3 X-33.02426 Y-50.37293 I0.30506 J0.95233
G1 X-29.12892 Y-51.45653
G3 X-29.09229 Y-51.46597 I0.268 J0.96342
G1 X-25.11784 Y-52.41118
G3 X-25.08158 Y-52.41909 I0.23137 J0.97287
G1 X-21.03892 Y-53.2233
G3 X-21.00299 Y-53.22977 I0.19511 J0.98078
G1 X-16.9032 Y-53.89079
G3 X-16.86754 Y-53.89588 I0.15918 J0.98725
G1 X-12.72186 Y-54.4119
G3 X-12.68642 Y-54.41567 I0.12352 J0.99234
G1 X-8.5062 Y-54.78527
G3 X-8.47091 Y-54.78776 I0.08807 J0.99611
G1 X-4.26762 Y-55.00992
G3 X-4.23242 Y-55.01116 I0.05278 J0.99861
G1 X-0.01758 Y-55.08528
G3 X0.0 Y-55.08544 I0.01758 J0.99985
G1 F300.0 X-0.00178 Y-55.18525
G1 F800.0 X-4.28912 Y-55.10891
G1 X-8.56632 Y-54.88003
G1 X-12.81973 Y-54.49929
G1 X-17.03753 Y-53.96778
G1 X-21.208 Y-53.287
G1 X-25.31957 Y-52.45892
G1 X-29.36081 Y-51.48589
G1 X-33.3205 Y-50.3707
G1 X-37.18766 Y-49.11654
G1 X-40.95154 Y-47.72703
G1 X-44.60171 Y-46.20614
G1 X-48.12806 Y-44.55827
G1 X-51.52085 Y-42.78816
G1 X-54.77069 Y-40.90093
G1 X-57.86866 Y-38.90204
G1 X-60.80625 Y-36.79726
G1 X-63.57547 Y-34.59271
G1 X-66.16881 Y-32.29475
G1 X-68.57932 Y-29.91002
G1 X-70.80062 Y-27.4454
G1 X-72.82691 Y-24.90793
G1 X-74.65301 Y-22.30483
G1 X-76.27434 Y-19.64342
G1 X-77.68698 Y-16.93108
G1 X-78.88758 Y-14.17522
G1 X-79.87341 Y-11.38324
G1 X-80.64231 Y-8.56248
G1 X-81.19265 Y-5.72022
G1 X-81.52329 Y-2.86367
G1 X-81.63358 Y0.0
G1 X-81.52329 Y2.86367
G1 X-81.19265 Y5.72022
G1 X-80.64231 Y8.56248
G1 X-79.87341 Y11.38324
G1 X-78.88758 Y14.17522
G1 X-77.68698 Y16.93108
G1 X-76.27434 Y19.64342
G1 X-74.65301 Y22.30483
G1 X-72.82691 Y24.90793
G1 X-70.80062 Y27.4454
G1 X-68.57932 Y29.91002
G1 X-66.16881 Y32.29475
G1 X-63.57547 Y34.59271
G1 X-60.80625 Y36.79726
G1 X-57.86866 Y38.90204
G1 X-54.77069 Y40.90093
G1 X-51.52085 Y42.78816
G1 X-48.12806 Y44.55827
G1 X-44.60171 Y46.20614
G1 X-40.95154 Y47.72703
G1 X-37.18766 Y49.11654
G1 X-33.3205 Y50.3707
G1 X-29.36081 Y51.48589
G1 X-25.31957 Y52.45892
G1 X-21.208 Y53.287
G1 X-17.03753 Y53.96778
G1 X-12.81973 Y54.49929
G1 X-8.56632 Y54.88003
G1 X-4.28912 Y55.10891
G1 X0.0 Y55.18528
G1 X4.28912 Y55.10891
G1 X8.56632 Y54.88003
G1 X12.81973 Y54.49929
G1 X17.03753 Y53.96778
G1 X21.208 Y53.287
G1 X25.31957 Y52.45892
G1 X29.36081 Y51.48589
G1 X33.3205 Y50.3707
G1 X37.18766 Y49.11654
G1 X40.95154 Y47.72703
G1 X44.60171 Y46.20614
G1 X48.12806 Y44.55827
G1 X51.52085 Y42.78816
G1 X54.77069 Y40.90093
G1 X57.86866 Y38.90204
G1 X60.80625 Y36.79726
G1 X63.57547 Y34.59271
G1 X66.16881 Y32.29475
G1 X68.57932 Y29.91002
G1 X70.80062 Y27.4454
G1 X72.82691 Y24.90793
G1 X74.65301 Y22.30483
G1 X76.27434 Y19.64342
G1 X77.68698 Y16.93108
G1 X78.88758 Y14.17522
G1 X79.87341 Y11.38324
G1 X80.64231 Y8.56248
G1 X81.19265 Y5.72022
G1 X81.52329 Y2.86367
G1 X81.63358 Y0.0
G1 X81.52329 Y-2.86367
G1 X81.19265 Y-5.72022
G1 X80.64231 Y-8.56248
G1 X79.87341 Y-11.38324
G1 X78.88758 Y-14.17522
G1 X77.68698 Y-16.93108
G1 X76.27434 Y-19.64342
G1 X74.65301 Y-22.30483
G1 X72.82691 Y-24.90793
G1 X70.80062 Y-27.4454
G1 X68.57932 Y-29.91002
G1 X66.16881 Y-32.29475
G1 X63.57547 Y-34.59271
G1 X60.80625 Y-36.79726
G1 X57.86866 Y-38.90204
G1 X54.77069 Y-40.90093
G1 X51.52085 Y-42.78816
G1 X48.12806 Y-44.55827
G1 X44.60171 Y-46.20614
G1 X40.95154 Y-47.72703
G1 X37.18766 Y-49.11654
G1 X33.3205 Y-50.3707
G1 X29.36081 Y-51.48589
G1 X25.31957 Y-52.45892
G1 X21.208 Y-53.287
G1 X17.03753 Y-53.96778
G1 X12.81973 Y-54.49929
G1 X8.56632 Y-54.88003
G1 X4.28912 Y-55.10891
G1 X0.0 Y-55.18528
G1 X-0.00178 Y-55.18525
( Wappen )
G0 Z3.0
( T4 : 4.0 )
T4 M6
M3 S1000
G0 X-42.99967 Y-28.60752
G0 Z1.0
G1 F300.0 Z-1.0
G3 F800.0 X-42.99958 Y-28.60626 I-3.78663 J0.27769
G1 X-42.96911 Y-28.18883
G3 X-42.96712 Y-28.16001 I-3.78672 J0.27643
G1 X-42.93844 Y-27.7212
G3 X-42.93621 Y-27.68428 I-3.78872 J0.24761
G1 X-42.91479 Y-27.29886
G3 X-42.90671 Y-27.1377 I-3.99262 J0.28083
G1 X-42.88741 Y-26.70431
G3 X-42.88626 Y-26.67594 I-3.79304 J0.16891
G1 X-42.87939 Y-26.49063
G3 X-42.87883 Y-26.47455 I-3.7942 J0.14054
G1 X-42.87275 Y-26.28918
G3 X-42.87232 Y-26.27539 I-3.79476 J0.12445
G1 X-42.86872 Y-26.15174
G3 X-42.86795 Y-26.12111 I-3.79519 J0.11066
G1 X-42.85728 Y-25.61487
G3 X-42.8567 Y-25.57964 I-3.79596 J0.08003
G1 X-42.8555 Y-25.47792
G3 X-42.85402 Y-25.38879 I-4.30992 J0.11607
G3 X-42.8535 Y-25.25798 I-4.41736 J0.08295
G3 X-42.85368 Y-24.98749 I-16.10684 J0.12418
G1 X-42.85399 Y-24.95221
G3 X-41.56541 Y-24.94127 I0.61026 J4.01013
G3 X-41.29804 Y-24.88596 I-0.63492 J3.74334
G3 X-41.04247 Y-24.81444 I-0.95824 J3.91669
G1 X-41.04252 Y-24.85682
G2 X-41.04758 Y-25.10605 I-13.11221 J0.14168
G1 X-41.04839 Y-25.13122
G1 X-41.0557 Y-25.30982
G1 X-41.06728 Y-25.49965
G1 X-41.07702 Y-25.62331
G2 X-41.1104 Y-25.91241 I-4.57548 J0.38186
G2 X-41.15472 Y-26.16258 I-6.78715 J1.07324
G1 X-41.18165 Y-26.28888
G3 X-41.22105 Y-26.47513 I21.35154 J-4.61353
G3 X-41.24847 Y-26.62212 I3.718 J-0.76951
G1 X-41.26511 Y-26.72228
G3 X-41.26698 Y-26.73363 I3.74542 J-0.62252
G3 X-41.3041 Y-27.78352 I4.11458 J-0.67107
G3 X-40.90167 Y-29.20047 I3.90514 J0.3435
G3 X-42.99967 Y-28.60752 I-2.08887 J-3.38288
G0 Z3.0
G0 X-32.42815 Y-36.71204
G0 Z1.0
G1 F300.0 Z-1.0
G3 F800.0 X-31.66464 Y-36.35105 I-5.01093 J11.58644
G3 X-30.37086 Y-35.59743 I-6.37184 J12.42617
G3 X-30.25732 Y-35.52177 I-5.59736 J8.52316
G3 X-28.98663 Y-34.55141 I-7.76241 J11.4821
G3 X-28.80408 Y-34.39071 I-6.64576 J7.7336
G1 X-28.7239 Y-34.31842
G3 X-28.47655 Y-34.08784 I-6.82831 J7.57291
G1 X-28.39887 Y-34.01298
G3 X-28.3314 Y-33.94736 I-7.07566 J7.34232
G3 X-28.32477 Y-33.94085 I-9.03573 J9.20469
G3 X-28.19108 Y-34.16153 I10.61776 J6.28186
G1 X-28.09425 Y-34.32162
G3 X-28.08679 Y-34.33395 I8.72522 J5.27686
G1 X-28.04041 Y-34.41039
G3 X-28.03225 Y-34.42381 I8.71775 J5.28919
G1 X-27.84638 Y-34.72911
G3 X-27.8371 Y-34.74433 I8.7096 J5.30261
G1 X-27.7128 Y-34.94768
G3 X-27.70226 Y-34.96489 I8.70031 J5.31783
G1 X-27.22107 Y-35.74866
G3 X-27.21892 Y-35.75216 I8.68977 J5.33503
G1 X-26.99169 Y-36.12195
G1 X-26.77518 Y-36.47527
G1 X-26.38737 Y-37.11368
G1 X-26.38226 Y-37.12218
G1 X-26.04161 Y-37.69365
G3 X-25.99566 Y-37.77178 I8.81226 J5.13019
G2 X-25.76966 Y-38.16106 I-19.13931 J-11.37121
G3 X-25.7272 Y-38.23522 I8.86982 J5.03001
G3 X-25.72148 Y-38.24532 I8.87393 J5.02275
G1 X-25.5758 Y-38.50201
G1 X-25.56937 Y-38.51343
G1 X-25.42366 Y-38.77387
G1 X-27.21146 Y-38.3216
G1 X-30.59665 Y-37.32771
G1 X-32.42815 Y-36.71204
G1 F300.0 X-32.93797 Y-38.22864
G1 F800.0 X-34.42459 Y-37.7289
G1 X-34.73235 Y-37.61163
G3 X-34.68631 Y-37.46566 I-11.66038 J3.75757
G3 X-34.37223 Y-36.26218 I-13.21283 J4.09096
G3 X-34.36425 Y-36.22437 I-8.40739 J1.79466
G1 X-34.35577 Y-36.18374
G3 X-34.34284 Y-36.1206 I-8.41537 J1.75684
G1 X-34.33465 Y-36.07988
G3 X-34.31638 Y-35.98629 I-8.42831 J1.69371
G1 X-34.30092 Y-35.90465
G3 X-34.26808 Y-35.72037 I-8.44657 J1.60011
G1 X-34.26312 Y-35.69063
G3 X-33.69897 Y-35.49862 I-3.39456 J10.89819
G3 X-33.66852 Y-35.4873 I-2.98145 J8.06324
G1 X-33.62304 Y-35.47029
G3 X-33.50435 Y-35.42488 I-3.0119 J8.05192
G1 X-33.45904 Y-35.40717
G3 X-33.28508 Y-35.33695 I-3.1306 J8.00652
G1 X-33.19529 Y-35.29956
G3 X-33.17267 Y-35.29011 I-3.30456 J7.9363
G3 X-32.39562 Y-34.92779 I-4.26641 J10.16451
G3 X-31.24915 Y-34.26004 I-5.64087 J11.00291
G3 X-31.15343 Y-34.19626 I-4.71907 J7.18578
G3 X-30.02942 Y-33.33791 I-6.8663 J10.15658
G3 X-29.87552 Y-33.20243 I-5.60296 J6.52011
G1 X-29.79534 Y-33.13014
G3 X-29.5868 Y-32.93574 I-5.75687 J6.38463
G1 X-29.50912 Y-32.86088
G3 X-29.45224 Y-32.80555 I-5.96541 J6.19023
G3 X-28.87116 Y-32.19076 I-7.91489 J8.06289
G3 X-28.08006 Y-31.19033 I-8.86396 J7.82222
G1 X-27.99389 Y-31.34257
G3 X-27.95478 Y-31.41094 I7.48153 J4.23458
G1 X-27.57908 Y-32.06075
G3 X-27.55012 Y-32.11045 I7.44242 J4.30295
G1 X-27.42343 Y-32.32623
G3 X-27.39546 Y-32.37352 I7.41346 J4.35265
G1 X-26.98862 Y-33.05642
G3 X-26.8268 Y-33.32557 I9.28161 J5.39743
G1 X-26.72516 Y-33.49362
G3 X-26.71887 Y-33.50401 I7.35613 J4.44886
G1 X-26.67249 Y-33.58045
G3 X-26.66561 Y-33.59177 I7.34983 J4.45925
G1 X-26.47974 Y-33.89706
G3 X-26.47191 Y-33.9099 I7.34296 J4.47057
G1 X-26.34762 Y-34.11325
G3 X-26.33873 Y-34.12776 I7.33513 J4.4834
G1 X-25.85754 Y-34.91153
G3 X-25.85573 Y-34.91448 I7.32624 J4.4979
G1 X-25.62797 Y-35.28512
G1 X-25.40932 Y-35.64195
G1 X-25.01833 Y-36.28559
G1 X-25.00977 Y-36.2998
G1 X-24.66411 Y-36.87968
G3 X-24.66285 Y-36.88179 I7.38439 J4.40178
G3 X-24.62012 Y-36.95453 I7.43351 J4.31833
G2 X-24.37788 Y-37.37179 I-20.51485 J-12.18846
G3 X-24.3384 Y-37.44068 I7.47804 J4.24074
G3 X-24.32995 Y-37.4556 I7.48513 J4.22822
G1 X-24.18309 Y-37.71438
G1 X-24.17425 Y-37.73007
G1 X-24.01703 Y-38.0111
G1 X-23.8871 Y-38.24582
G1 X-23.87335 Y-38.27076
G1 X-23.71346 Y-38.56181
G3 X-23.71033 Y-38.5675 I7.53464 J4.13935
G1 X-23.39609 Y-39.13848
G3 X-23.36469 Y-39.19502 I7.53151 J4.14504
G1 X-23.20811 Y-39.47453
G3 X-23.16503 Y-39.55051 I7.50011 J4.20158
G1 X-23.00564 Y-39.82838
G3 X-22.94404 Y-39.93401 I7.45704 J4.27757
G1 X-22.77978 Y-40.21116
G3 X-22.69951 Y-40.34386 I7.39544 J4.3832
G1 X-22.53029 Y-40.61796
G3 X-22.46483 Y-40.72233 I7.31516 J4.5159
G1 X-22.39804 Y-40.82712
G3 X-22.35793 Y-40.88947 I7.24969 J4.62027
G1 X-22.29022 Y-40.99372
G3 X-22.22574 Y-41.09152 I7.20958 J4.68262
G1 X-22.1723 Y-41.1714
G1 X-24.10349 Y-40.75824
G1 X-27.63318 Y-39.86532
G1 X-31.0771 Y-38.85418
G1 X-32.93797 Y-38.22864
G1 F300.0 X-33.44779 Y-39.74524
G1 F800.0 X-34.96457 Y-39.23537
G1 X-36.82183 Y-38.52768
G3 X-36.70361 Y-38.27696 I-8.91742 J4.35815
G3 X-36.21497 Y-36.9932 I-9.68911 J4.4229
G3 X-35.93698 Y-35.92817 I-11.68418 J3.61851
G3 X-35.93048 Y-35.89739 I-6.84264 J1.46065
G1 X-35.922 Y-35.85677
G3 X-35.91148 Y-35.80538 I-6.84914 J1.42987
G1 X-35.90329 Y-35.76466
G3 X-35.88842 Y-35.68848 I-6.85966 J1.37848
G1 X-35.87296 Y-35.60684
G3 X-35.84623 Y-35.45686 I-6.87453 J1.3023
G1 X-35.81886 Y-35.29291
G3 X-35.79331 Y-35.12779 I-6.90126 J1.15232
G1 X-35.77768 Y-35.01813
G3 X-35.77512 Y-35.0 I-6.92681 J0.9872
G3 X-35.70794 Y-34.41105 I-11.56876 J1.61789
G3 X-35.38965 Y-34.34142 I-1.67299 J8.40939
G3 X-34.25387 Y-33.99793 I-2.26803 J9.54897
G3 X-34.22909 Y-33.98871 I-2.42656 J6.56255
G1 X-34.18361 Y-33.9717
G3 X-34.087 Y-33.93474 I-2.45134 J6.55333
G1 X-34.0417 Y-33.91703
G3 X-33.90011 Y-33.85988 I-2.54794 J6.51638
G1 X-33.81032 Y-33.82249
G3 X-33.79191 Y-33.8148 I-2.68953 J6.45923
G3 X-33.12661 Y-33.50454 I-3.64717 J8.6892
G3 X-32.12744 Y-32.92265 I-4.90988 J9.57965
G3 X-32.04954 Y-32.87074 I-3.84077 J5.84839
G3 X-31.07222 Y-32.12442 I-5.9702 J8.83107
G3 X-30.94696 Y-32.01415 I-4.56016 J5.30661
G1 X-30.86679 Y-31.94186
G3 X-30.69706 Y-31.78364 I-4.68542 J5.19635
G1 X-30.61938 Y-31.70878
G3 X-30.57308 Y-31.66375 I-4.85515 J5.03813
G3 X-30.07256 Y-31.13405 I-6.79405 J6.92109
G3 X-29.27568 Y-30.10656 I-7.66255 J6.76551
G3 X-28.91658 Y-29.54361 I-8.18982 J5.62024
G3 X-28.6764 Y-29.12061 I-9.49201 J5.66938
G3 X-28.54075 Y-28.86283 I-7.02532 J3.86138
G3 X-28.37614 Y-28.52341 I-7.0786 J3.64266
G1 X-28.31625 Y-28.39464
G3 X-28.31366 Y-28.38905 I-6.34439 J2.95024
G3 X-28.14875 Y-28.01214 I-8.49921 J3.94318
G3 X-28.07504 Y-27.83228 I-12.70924 J5.31362
G1 X-27.95776 Y-28.06106
G3 X-27.93113 Y-28.11248 I6.22639 J3.19176
G1 X-27.6937 Y-28.56636
G3 X-27.6731 Y-28.60544 I6.19976 J3.24318
G1 X-27.55322 Y-28.83113
G3 X-27.53928 Y-28.85723 I6.17915 J3.28226
G1 X-27.41843 Y-29.08244
G3 X-27.39738 Y-29.12137 I6.16522 J3.30837
G1 X-27.15282 Y-29.57027
G3 X-27.12492 Y-29.62098 I6.14417 J3.3473
G1 X-26.87855 Y-30.06445
G3 X-26.85138 Y-30.1129 I6.11627 J3.398
G1 X-26.60146 Y-30.55445
G3 X-26.56962 Y-30.6101 I6.0891 J3.44646
G1 X-26.19393 Y-31.25991
G3 X-26.17036 Y-31.30036 I6.05727 J3.5021
G1 X-26.04367 Y-31.51614
G3 X-26.02091 Y-31.55463 I6.0337 J3.54255
G1 X-25.60956 Y-32.24508
G3 X-25.46289 Y-32.48899 I7.90255 J4.5861
G1 X-25.35607 Y-32.66561
G3 X-25.35095 Y-32.67407 I5.98704 J3.62085
G1 X-25.30457 Y-32.75051
G3 X-25.29897 Y-32.75972 I5.98191 J3.62931
G1 X-25.1131 Y-33.06502
G3 X-25.10673 Y-33.07546 I5.97632 J3.63852
G1 X-24.98243 Y-33.27882
G3 X-24.9752 Y-33.29062 I5.96995 J3.64897
G1 X-24.49401 Y-34.0744
G3 X-24.49253 Y-34.0768 I5.96271 J3.66077
G1 X-24.26425 Y-34.4483
G1 X-24.04345 Y-34.80863
G1 X-23.64929 Y-35.4575
G1 X-23.63729 Y-35.47743
G1 X-23.28976 Y-36.06044
G3 X-23.284 Y-36.07009 I6.01004 J3.58254
G3 X-23.24458 Y-36.13728 I6.05465 J3.50663
G2 X-22.9861 Y-36.58253 I-21.89039 J-13.0057
G3 X-22.94958 Y-36.64614 I6.08626 J3.45147
G3 X-22.93842 Y-36.66589 I6.09632 J3.43368
G1 X-22.79038 Y-36.92674
G1 X-22.77913 Y-36.94671
G1 X-22.61893 Y-37.23307
G1 X-22.48654 Y-37.47223
G1 X-22.47155 Y-37.49942
G1 X-22.31114 Y-37.79141
G3 X-22.3086 Y-37.79604 I6.13232 J3.36895
G1 X-21.99435 Y-38.36702
G3 X-21.9688 Y-38.41304 I6.12978 J3.37358
G1 X-21.81222 Y-38.69255
G3 X-21.77716 Y-38.75439 I6.10422 J3.4196
G1 X-21.61777 Y-39.03226
G3 X-21.56764 Y-39.11823 I6.06916 J3.48145
G1 X-21.40337 Y-39.39538
G3 X-21.33804 Y-39.50338 I6.01903 J3.56742
G1 X-21.16883 Y-39.77748
G3 X-21.11554 Y-39.86242 I5.9537 J3.67542
G1 X-21.04876 Y-39.96721
G3 X-21.01611 Y-40.01796 I5.90041 J3.76037
G1 X-20.9484 Y-40.1222
G3 X-20.89593 Y-40.20181 I5.86776 J3.81111
G1 X-20.75768 Y-40.40843
G3 X-20.69544 Y-40.49989 I5.81529 J3.89071
G1 X-20.6011 Y-40.63618
G3 X-20.56124 Y-40.69317 I5.75304 J3.98217
G1 X-20.51105 Y-40.76415
G3 X-20.48287 Y-40.80373 I5.71318 J4.03916
G1 X-20.43216 Y-40.8744
G3 X-20.3889 Y-40.93404 I5.68499 J4.07874
G1 X-20.28607 Y-41.07422
G3 X-20.21409 Y-41.1706 I5.64173 J4.13837
G3 X-19.96773 Y-41.49189 I39.52659 J30.0526
G3 X-19.94332 Y-41.52327 I5.53503 J4.28003
G3 X-19.29486 Y-42.30454 I13.85203 J10.83757
G3 X-19.16906 Y-42.44695 I7.01081 J6.06674
G3 X-18.71891 Y-42.93507 I12.70803 J11.26763
G3 X-18.5578 Y-43.10231 I11.6179 J11.03175
G3 X-18.53786 Y-43.12262 I5.00346 J4.89087
G1 X-18.39942 Y-43.2631
G3 X-18.33863 Y-43.32403 I4.98352 J4.91119
G1 X-18.22711 Y-43.43444
G3 X-18.17387 Y-43.48659 I4.92273 J4.97211
G1 X-18.0766 Y-43.58087
G1 X-20.80527 Y-43.10007
G1 X-24.46718 Y-42.31664
G1 X-28.0549 Y-41.40904
G1 X-31.55756 Y-40.38066
G1 X-33.44779 Y-39.74524
G1 F300.0 X-33.9576 Y-41.26185
G1 F800.0 X-35.50454 Y-40.74183
G1 X-38.86595 Y-39.46101
G1 X-39.19989 Y-39.31785
G3 X-38.8954 Y-38.90967 I-6.07095 J4.84635
G3 X-38.86204 Y-38.86118 I-4.42926 J3.08336
G1 X-38.8317 Y-38.81657
G3 X-38.78885 Y-38.75258 I-4.46262 J3.03487
G3 X-38.15966 Y-37.61369 I-6.9504 J4.58305
G3 X-37.74363 Y-36.52076 I-8.23307 J3.75963
G3 X-37.50173 Y-35.59415 I-10.15552 J3.14606
G3 X-37.49672 Y-35.57041 I-5.27789 J1.12663
G1 X-37.48824 Y-35.52979
G3 X-37.48012 Y-35.49015 I-5.2829 J1.10289
G1 X-37.47193 Y-35.44943
G3 X-37.46046 Y-35.39068 I-5.29102 J1.06325
G1 X-37.445 Y-35.30904
G3 X-37.42439 Y-35.19335 I-5.30249 J1.0045
G1 X-37.39701 Y-35.0294
G3 X-37.3773 Y-34.90204 I-5.32311 J0.88881
G1 X-37.36168 Y-34.79238
G3 X-37.3597 Y-34.7784 I-5.34281 J0.76145
G3 X-37.2788 Y-33.95453 I-9.98418 J1.39629
G3 X-37.26218 Y-33.25343 I-10.02956 J0.58861
G3 X-37.27005 Y-32.97306 I-8.24468 J-0.09125
G3 X-37.05206 Y-32.9678 I-0.03709 J6.04726
G3 X-36.93332 Y-32.96147 I-0.22764 J5.392
G3 X-35.76032 Y-32.78494 I-0.44761 J6.95982
G3 X-34.80877 Y-32.49723 I-1.89736 J7.9925
G3 X-34.78965 Y-32.49012 I-1.87166 J5.06185
G1 X-34.74417 Y-32.47311
G3 X-34.66965 Y-32.44461 I-1.89078 J5.05474
G1 X-34.62435 Y-32.42689
G3 X-34.51514 Y-32.38281 I-1.96529 J5.02624
G1 X-34.42535 Y-32.34542
G3 X-34.41115 Y-32.33949 I-2.0745 J4.98216
G3 X-33.85761 Y-32.08128 I-3.02793 J7.21389
G3 X-33.00573 Y-31.58527 I-4.17888 J8.1564
G3 X-32.94564 Y-31.54523 I-2.96248 J4.511
G3 X-32.11502 Y-30.91092 I-5.07409 J7.50555
G3 X-32.01841 Y-30.82587 I-3.51736 J4.09312
G1 X-31.93823 Y-30.75358
G3 X-31.80732 Y-30.63154 I-3.61398 J4.00807
G1 X-31.72963 Y-30.55668
G3 X-31.69392 Y-30.52195 I-3.74489 J3.88603
G3 X-31.27398 Y-30.07735 I-5.67321 J5.77929
G3 X-30.59737 Y-29.20481 I-6.46113 J5.70881
G3 X-30.29196 Y-28.72608 I-6.86813 J4.71848
G3 X-30.08165 Y-28.35555 I-8.11664 J4.85184
G3 X-29.96674 Y-28.13714 I-5.62007 J3.09632
G3 X-29.82958 Y-27.85443 I-5.65261 J2.91697
G1 X-29.76706 Y-27.71999
G3 X-29.76506 Y-27.71568 I-4.89358 J2.27559
G3 X-29.62666 Y-27.39911 I-7.04781 J3.26981
G3 X-29.40787 Y-26.83772 I-11.23133 J4.70059
G3 X-29.33624 Y-26.63619 I-7.66331 J2.83723
G3 X-29.25478 Y-26.39334 I-7.00229 J2.48393
G3 X-29.18326 Y-26.16663 I-8.48392 J2.80105
G1 X-29.10744 Y-25.91538
G3 X-29.07977 Y-25.82056 I-5.1667 J1.55905
G1 X-29.03344 Y-25.65621
G3 X-28.97179 Y-25.43037 I-5.39759 J1.595
G1 X-28.93469 Y-25.28999
G3 X-28.87524 Y-25.05722 I-5.44194 J1.51393
G1 X-28.78899 Y-24.70682
G3 X-28.73152 Y-24.46469 I-9.32575 J2.34136
G3 X-28.58473 Y-23.81068 I-31.87445 J7.49774
G3 X-28.58172 Y-23.79649 I-5.27761 J1.12796
G1 X-28.47657 Y-23.29796
G1 X-28.19224 Y-23.91959
G3 X-28.17947 Y-23.94731 I4.9078 J2.24476
G1 X-27.94177 Y-24.45932
G3 X-27.93373 Y-24.47656 I4.89503 J2.27248
G1 X-27.85387 Y-24.64701
G3 X-27.8486 Y-24.65823 I4.88698 J2.28972
G1 X-27.74162 Y-24.8852
G3 X-27.73339 Y-24.90257 I4.88171 J2.30094
G1 X-27.56995 Y-25.24614
G3 X-27.55911 Y-25.26879 I4.87349 J2.31831
G1 X-27.39406 Y-25.61165
G3 X-27.3843 Y-25.63182 I4.86265 J2.34096
G1 X-27.27331 Y-25.85994
G3 X-27.26975 Y-25.86724 I4.85289 J2.36113
G3 X-26.77777 Y-26.85541 I65.17861 J31.83361
G3 X-26.76761 Y-26.87533 I4.81272 J2.44196
G1 X-26.53393 Y-27.33118
G3 X-26.51339 Y-27.37084 I4.80256 J2.46188
G1 X-26.27597 Y-27.82472
G3 X-26.26008 Y-27.85486 I4.78202 J2.50154
G1 X-26.14019 Y-28.08055
G3 X-26.12945 Y-28.10068 I4.76613 J2.53169
G1 X-26.00859 Y-28.32589
G3 X-25.99236 Y-28.35592 I4.75538 J2.55182
G1 X-25.7478 Y-28.80483
G3 X-25.72628 Y-28.84394 I4.73914 J2.58185
G1 X-25.4799 Y-29.2874
G3 X-25.45895 Y-29.32478 I4.71763 J2.62096
G1 X-25.20903 Y-29.76633
G3 X-25.18447 Y-29.80925 I4.69667 J2.65833
G1 X-24.80877 Y-30.45906
G3 X-24.7906 Y-30.49026 I4.67212 J2.70125
G1 X-24.6639 Y-30.70604
G3 X-24.64635 Y-30.73573 I4.65394 J2.73245
G1 X-24.23009 Y-31.43444
G3 X-24.09946 Y-31.65162 I6.52308 J3.77545
G1 X-23.98698 Y-31.83761
G3 X-23.98303 Y-31.84414 I4.61795 J2.79285
G1 X-23.93665 Y-31.92058
G3 X-23.93233 Y-31.92768 I4.61399 J2.79938
G1 X-23.74646 Y-32.23298
G3 X-23.74155 Y-32.24103 I4.60968 J2.80648
G1 X-23.61725 Y-32.44439
G3 X-23.61167 Y-32.45349 I4.60476 J2.81454
G1 X-23.13048 Y-33.23727
G3 X-23.12934 Y-33.23912 I4.59918 J2.82364
G1 X-22.90053 Y-33.61148
G1 X-22.67759 Y-33.97531
G1 X-22.28025 Y-34.62941
G1 X-22.26481 Y-34.65505
G1 X-21.91541 Y-35.24119
G3 X-21.90512 Y-35.25838 I4.63569 J2.7633
G3 X-21.86904 Y-35.32004 I4.67578 J2.69491
G2 X-21.59432 Y-35.79326 I-23.26593 J-13.82295
G3 X-21.56076 Y-35.85159 I4.69448 J2.6622
G3 X-21.54689 Y-35.87617 I4.70749 J2.63913
G1 X-21.39767 Y-36.1391
G1 X-21.38401 Y-36.16335
G1 X-21.22083 Y-36.45504
G1 X-21.08598 Y-36.69865
G1 X-21.06976 Y-36.72808
G1 X-20.90883 Y-37.02101
G3 X-20.90687 Y-37.02458 I4.73001 J2.59855
G1 X-20.59262 Y-37.59556
G3 X-20.57291 Y-37.63106 I4.72804 J2.60213
G1 X-20.41633 Y-37.91056
G3 X-20.38929 Y-37.95827 I4.70833 J2.63762
G1 X-20.2299 Y-38.23613
G3 X-20.19123 Y-38.30245 I4.68129 J2.68532
G1 X-20.02697 Y-38.57959
G3 X-19.97657 Y-38.6629 I4.64262 J2.75164
G1 X-19.80736 Y-38.937
G3 X-19.76626 Y-39.00252 I4.59223 J2.83494
G1 X-19.69948 Y-39.1073
G3 X-19.67429 Y-39.14645 I4.55113 J2.90046
G1 X-19.60659 Y-39.25069
G3 X-19.56611 Y-39.31209 I4.52595 J2.9396
G1 X-19.42787 Y-39.51872
G3 X-19.37986 Y-39.58927 I4.48547 J3.001
G1 X-19.28552 Y-39.72556
G3 X-19.25477 Y-39.76951 I4.43746 J3.07155
G1 X-19.20459 Y-39.84049
G3 X-19.18284 Y-39.87102 I4.40671 J3.1155
G1 X-19.13214 Y-39.94169
G3 X-19.09877 Y-39.98769 I4.38497 J3.14603
G1 X-18.99594 Y-40.12787
G3 X-18.94042 Y-40.20221 I4.3516 J3.19203
G3 X-18.702 Y-40.51315 I38.25292 J29.08421
G3 X-18.68318 Y-40.53736 I4.2693 J3.30129
G3 X-18.08921 Y-41.25266 I12.59188 J9.85165
G3 X-17.97645 Y-41.3803 I5.80516 J5.01485
G3 X-17.56138 Y-41.83047 I11.51542 J10.20098
G3 X-17.41363 Y-41.98388 I10.46037 J9.92715
G3 X-17.39825 Y-41.99955 I3.85929 J3.77245
G1 X-17.2598 Y-42.14003
G3 X-17.21292 Y-42.18702 I3.84391 J3.78812
G1 X-17.1014 Y-42.29743
G3 X-17.06034 Y-42.33766 I3.79702 J3.83511
G1 X-16.94762 Y-42.44691
G3 X-16.92176 Y-42.4718 I3.75596 J3.87534
G3 X-16.6229 Y-42.75258 I15.92033 J16.64645
G3 X-16.59143 Y-42.78139 I3.66008 J3.96602
G1 X-16.43644 Y-42.92217
G3 X-16.42949 Y-42.92848 I3.62861 J3.99483
G3 X-15.67079 Y-43.57965 I12.72187 J14.05489
G3 X-15.58517 Y-43.64986 I3.79694 J4.5431
G3 X-15.48199 Y-43.73245 I3.77776 J4.61384
G3 X-14.58429 Y-44.41496 I13.14698 J16.36057
G3 X-14.5485 Y-44.44046 I3.14969 J4.38234
G1 X-14.28028 Y-44.62995
G3 X-14.2727 Y-44.63529 I3.1139 J4.40784
G3 X-13.83253 Y-44.9328 I8.06579 J11.45917
G1 X-13.65077 Y-45.05088
G3 X-13.62823 Y-45.06544 I2.94005 J4.52565
G3 X-12.61505 Y-45.66975 I9.56332 J14.88235
G3 X-11.91041 Y-46.03619 I6.81106 J12.23636
G1 X-13.49654 Y-45.87186
G1 X-17.32971 Y-45.33712
G1 X-21.11155 Y-44.67075
G1 X-24.83086 Y-43.87504
G1 X-28.47662 Y-42.95276
G1 X-32.03802 Y-41.90713
G1 X-33.9576 Y-41.26185
G0 Z3.0
G0 X-1.32878 Y-45.06957
G0 Z1.0
G1 F300.0 Z-1.0
G3 F800.0 X-0.85273 Y-44.15056 I-6.2788 J3.83523
G1 X-0.67033 Y-44.24938
G3 X-0.62937 Y-44.27139 I3.33298 J6.15195
G1 X-0.51027 Y-44.3349
G3 X-0.29925 Y-44.4463 I7.92684 J14.75866
G3 X-0.06295 Y-44.56795 I4.3291 J8.1187
G1 X0.31792 Y-44.76078
G3 X0.41205 Y-44.80755 I3.16037 J6.24238
G1 X0.82821 Y-45.01045
G3 X0.86119 Y-45.02642 I3.06624 J6.28915
G3 X0.94451 Y-45.06637 I15.39257 J31.99589
G1 X-1.32878 Y-45.06957
G1 F300.0 X-2.6942 Y-44.23554
G3 F800.0 X-2.00739 Y-42.5709 I-4.91337 J3.0012
G3 X-1.98125 Y-42.45581 I-5.24937 J1.25283
G3 X-1.86933 Y-41.69587 I-5.6763 J1.22419
G1 X-1.7078 Y-41.79835
G3 X-1.63563 Y-41.84335 I2.8911 J4.55708
G1 X-1.28595 Y-42.05754
G3 X-1.27351 Y-42.06513 I2.81892 J4.60208
G3 X-0.77458 Y-42.35977 I11.20646 J18.40669
G3 X-0.67153 Y-42.41918 I8.14856 J14.01575
G3 X-0.50578 Y-42.5131 I2.89807 J4.92122
G1 X-0.37172 Y-42.58858
G3 X-0.33331 Y-42.61 I2.64764 J4.70271
G1 X-0.14041 Y-42.71654
G3 X-0.10199 Y-42.73756 I2.60923 J4.72413
G1 X0.09185 Y-42.84257
G3 X0.12344 Y-42.85955 I2.57081 J4.74514
G1 X0.24472 Y-42.92422
G3 X0.44582 Y-43.03034 I7.17185 J13.34799
G3 X0.65401 Y-43.13757 I3.58403 J6.70274
G1 X1.04062 Y-43.3333
G3 X1.11322 Y-43.36937 I2.43767 J4.8149
G1 X1.52939 Y-43.57227
G3 X1.55482 Y-43.58459 I2.36507 J4.85097
G3 X2.28678 Y-43.92604 I14.69893 J30.55406
G3 X2.45447 Y-44.00188 I3.15964 J6.76346
G3 X2.54602 Y-44.04277 I4.62175 J10.22489
G3 X2.95009 Y-44.22029 I7.14351 J15.71107
G1 X3.03872 Y-44.25864
G3 X3.07606 Y-44.27463 I2.14311 J4.95303
G1 X3.5096 Y-44.45836
G3 X3.54616 Y-44.47369 I2.10577 J4.96902
G1 X3.6081 Y-44.49941
G3 X3.83569 Y-44.59305 I2.92809 J6.79342
G1 X4.00675 Y-44.66265
G3 X4.04856 Y-44.67946 I2.034 J4.99883
G1 X4.47586 Y-44.84918
G3 X4.53025 Y-44.87044 I1.99219 J5.01564
G1 X4.93862 Y-45.02755
G3 X4.99267 Y-45.04801 I1.93779 J5.0369
G1 X5.40279 Y-45.20077
G3 X5.45712 Y-45.22068 I1.88374 J5.05737
G1 X5.83805 Y-45.35793
G3 X5.89424 Y-45.37783 I1.82941 J5.07728
G1 X6.27671 Y-45.51088
G3 X6.32833 Y-45.52855 I1.77322 J5.09717
G1 X6.54439 Y-45.60127
G3 X6.74107 Y-45.66677 I2.24795 J6.42251
G3 X7.16338 Y-45.80142 I5.72979 J17.24122
G1 X7.4646 Y-45.8935
G3 X7.46612 Y-45.89397 I1.5778 J5.16101
G3 X7.93251 Y-46.02842 I4.50923 J14.76534
G3 X7.94489 Y-46.03176 I1.41324 J5.20847
G1 X8.17156 Y-46.09269
G3 X8.58139 Y-46.19551 I2.62792 J9.60668
G3 X8.69772 Y-46.22216 I1.32143 J5.50052
G3 X8.75628 Y-46.23526 I1.81558 J7.97573
G3 X8.94736 Y-46.27559 I1.25819 J5.48825
G1 X9.01837 Y-46.29013
G3 X9.09646 Y-46.30551 I1.08219 J5.28718
G1 X6.03844 Y-46.52303
G1 X2.12079 Y-46.66472
G1 X-1.80314 Y-46.67024
G1 X-5.36418 Y-46.55148
G3 X-3.35527 Y-45.11587 I-2.359 J5.42442
G3 X-3.34259 Y-45.10194 I-3.98513 J3.63925
G3 X-2.6942 Y-44.23554 I-4.26498 J3.8676
G0 Z3.0
G0 X3.54688 Y-6.679
G0 Z1.0
G1 F300.0 Z-1.0
G2 F800.0 X2.94014 Y-6.5651 I9.53847 J52.48286
G1 X2.58354 Y-6.495
G1 X2.22239 Y-6.42175
G3 X2.20993 Y-6.41924 I-0.7547 J-3.72104
G3 X2.19746 Y-6.41661 I-0.7919 J-3.7133
G1 X1.82875 Y-6.33927
G1 X1.46056 Y-6.25983
G3 X1.4471 Y-6.25695 I-0.80078 J-3.71139
G3 X1.43294 Y-6.25377 I-0.83786 J-3.7032
G1 X1.0726 Y-6.17369
G3 X1.05781 Y-6.17043 I-0.82371 J-3.70637
G3 X1.04418 Y-6.16729 I-0.86042 J-3.69802
G1 X0.64603 Y-6.0762
G1 X0.042 Y-5.93345
G1 X-0.15145 Y-5.88658
G1 X-0.35306 Y-5.83715
G1 X-0.55216 Y-5.78774
G1 X-0.95503 Y-5.68601
G1 X-1.57064 Y-5.52608
G1 X-1.77302 Y-5.47231
G3 X-1.78819 Y-5.46831 I-0.97495 J-3.66949
G2 X-2.15038 Y-5.37045 I5.69603 J21.80117
G3 X-2.15986 Y-5.36782 I-1.02081 J-3.657
G1 X-2.57609 Y-5.2528
G1 X-2.64545 Y-5.23337
G1 X-2.7181 Y-5.21293
G1 X-2.86413 Y-5.17158
G1 X-3.16112 Y-5.08638
G1 X-3.35158 Y-5.0309
G1 X-3.74139 Y-4.91526
G3 X-3.7613 Y-4.90941 I-1.07989 J-3.63999
G2 X-4.06815 Y-4.81601 I3.56574 J12.26443
G3 X-4.08594 Y-4.81039 I-1.1512 J-3.61807
G1 X-4.46143 Y-4.69295
G1 X-4.46149 Y-4.69293
G1 X-4.46138 Y-4.69296
G1 X-4.46143 Y-4.69295
G2 X-4.77099 Y-4.59332 I5.92586 J18.94374
G1 X-5.03398 Y-4.5054
G3 X-5.23227 Y-3.37077 I-4.031 J-0.11984
G1 X3.54688 Y-6.679
G0 Z3.0
G0 X-12.26966 Y-0.71889
G0 Z1.0
G1 F300.0 Z-1.0
G3 F800.0 X-12.28637 Y-0.72128 I1.18422 J-8.34312
G1 X-12.48397 Y-0.74746
G3 X-12.49496 Y-0.74893 I0.49878 J-3.7639
G1 X-12.71173 Y-0.7783
G1 X-13.16711 Y-0.83875
G1 X-13.5311 Y-0.88286
G3 X-13.55741 Y-0.88615 I0.45681 J-3.76922
G3 X-13.58672 Y-0.88901 I0.35444 J-3.78022
G1 X-13.83055 Y-0.91378
G1 X-14.07409 Y-0.93511
G2 X-14.23746 Y-0.94691 I-0.47933 J5.49969
G3 X-14.27898 Y-0.94952 I0.21731 J-3.79058
G3 X-14.28253 Y-0.94973 I0.2192 J-3.79047
G1 X-14.3881 Y-0.95593
G3 X-14.39992 Y-0.95665 I0.22275 J-3.79026
G2 X-14.45733 Y-0.95963 I-0.18101 J2.92425
G1 X-14.73096 Y-0.97011
G2 X-14.81473 Y-0.97233 I-0.25128 J7.90476
G3 X-14.8918 Y0.26921 I-3.97074 J0.37669
G1 X-12.26966 Y-0.71889
G0 Z3.0
G0 X-24.06267 Y3.72505
G0 Z1.0
G1 F300.0 Z-1.0
G1 F800.0 X-24.27238 Y3.69812
G3 X-24.28235 Y3.69683 I0.48354 J-3.76588
G1 X-24.37935 Y3.68411
G3 X-24.38318 Y3.68361 I0.49351 J-3.76459
G1 X-24.48025 Y3.67078
G3 X-24.48189 Y3.67057 I0.49734 J-3.76409
G1 X-24.67361 Y3.64515
G1 X-24.76305 Y3.63341
G1 X-24.84321 Y3.62308
G1 X-25.02372 Y3.60095
G2 X-25.05152 Y3.5978 I-0.1892 J1.54774
G3 X-25.1022 Y3.59218 I0.39299 J-3.77641
G1 X-25.23672 Y3.58019
G1 X-25.32504 Y3.5746
G1 X-25.4476 Y3.57064
G3 X-25.51079 Y3.57334 I-0.19331 J-3.79188
G3 X-25.52291 Y3.57405 I-0.23042 J-3.7898
G2 X-25.6836 Y3.58852 I0.14382 J2.49732
G2 X-25.83039 Y3.60896 I0.7913 J6.21834
G3 X-25.85467 Y4.09038 I-3.95882 J0.04163
G3 X-25.8567 Y4.1081 I-3.7733 J-0.42177
G3 X-25.90497 Y4.41928 I-4.12927 J-0.4812
G1 X-24.06267 Y3.72505
G0 Z3.0
G0 X-64.08169 Y10.25619
G0 Z1.0
G1 F300.0 Z-1.0
G3 F800.0 X-64.18966 Y10.13676 I18.14341 J-16.51119
G3 X-64.68532 Y9.5709 I17.1764 J-15.54543
G1 X-64.5509 Y9.90644
G1 X-64.33446 Y10.35144
G1 X-64.08169 Y10.25619
G1 F300.0 X-63.51749 Y11.75341
G1 F800.0 X-61.18905 Y10.87599
G3 X-61.91728 Y10.19289 I15.95173 J-17.73526
G3 X-63.00132 Y9.06538 I15.979 J-16.44789
G3 X-64.02888 Y7.84217 I15.98805 J-14.47405
G3 X-64.87281 Y6.68756 I16.30734 J-12.80506
G1 X-64.89906 Y6.64897
G3 X-64.92562 Y6.60971 I8.4316 J-5.73435
G1 X-64.95543 Y6.56544
G3 X-65.01506 Y6.47587 I8.45817 J-5.69509
G1 X-65.11334 Y6.32653
G3 X-65.20474 Y6.18511 I8.51779 J-5.60553
G1 X-65.30057 Y6.03412
G3 X-65.359 Y5.94095 I8.6092 J-5.46411
G1 X-65.38593 Y5.8975
G3 X-65.4464 Y5.79866 I8.66763 J-5.37094
G3 X-65.76507 Y5.25807 I25.04216 J-15.12641
G3 X-65.85981 Y5.08967 I8.83917 J-5.08369
G1 X-65.95379 Y4.91885
G3 X-66.04877 Y4.74213 I8.93391 J-4.91528
G1 X-66.13915 Y4.56991
G1 X-66.13935 Y4.56954
G1 X-66.13884 Y4.57052
G3 X-66.13915 Y4.56991 I14.72228 J-7.72861
G3 X-66.57339 Y3.6791 I14.72259 J-7.72801
G1 X-66.6257 Y3.56364
G3 X-66.68633 Y3.42715 I9.28813 J-4.20777
G1 X-66.741 Y3.30162
G3 X-66.75869 Y3.26075 I9.34877 J-4.07128
G3 X-66.94018 Y2.82197 I10.59551 J-4.63946
G1 X-66.96773 Y2.75303
G3 X-67.03354 Y2.58402 I9.4686 J-3.78423
G1 X-67.09929 Y2.41063
G3 X-67.16954 Y2.21963 I9.53441 J-3.61522
G1 X-67.22875 Y2.05356
G3 X-67.29388 Y1.86506 I9.60466 J-3.42422
G1 X-67.34984 Y1.69782
G3 X-67.35906 Y1.67013 I9.66979 J-3.23571
G3 X-67.61617 Y0.8199 I15.97656 J-5.29529
G3 X-67.84698 Y-0.10004 I20.82483 J-5.71384
G3 X-67.87935 Y-0.24722 I9.94236 J-2.26365
G1 X-67.91418 Y-0.41138
G3 X-67.95681 Y-0.62331 I9.97473 J-2.11648
G1 X-67.99887 Y-0.84455
G3 X-68.04145 Y-1.08403 I10.01736 J-1.90455
G1 X-68.07821 Y-1.30613
G3 X-68.10869 Y-1.50208 I10.05993 J-1.66507
G1 X-68.13032 Y-1.65067
G3 X-68.14408 Y-1.74845 I10.09041 J-1.46912
G1 X-68.14698 Y-1.76986
G3 X-68.20557 Y-2.23854 I17.31097 J-2.40202
G1 X-68.30421 Y-1.03889
G1 X-68.31036 Y0.88323
G1 X-68.16452 Y2.80677
G1 X-67.86525 Y4.7345
G1 X-67.40977 Y6.6683
G1 X-66.79436 Y8.60872
G1 X-66.01483 Y10.55468
G1 X-65.13528 Y12.36304
G1 X-63.51749 Y11.75341
G1 F300.0 X-62.9533 Y13.25064
G1 F800.0 X-58.00184 Y11.38479
G3 X-58.61258 Y10.93406 I14.13451 J-19.79146
G3 X-58.68886 Y10.87522 I5.21215 J-6.83656
G1 X-58.96281 Y10.66147
G3 X-59.05089 Y10.59181 I5.28843 J-6.77772
G3 X-59.44327 Y10.27131 I17.10705 J-21.34378
G3 X-59.50582 Y10.21874 I5.49983 J-6.60733
G1 X-59.68246 Y10.06884
G3 X-59.71165 Y10.04396 I5.56238 J-6.55476
G3 X-60.80042 Y9.04718 I14.47433 J-16.90323
G3 X-61.81298 Y7.99399 I14.86214 J-15.30219
G3 X-62.76849 Y6.85656 I14.79972 J-13.40266
G3 X-63.54953 Y5.78816 I15.04695 J-11.81946
G1 X-63.57604 Y5.74918
G3 X-63.59844 Y5.71608 I7.10858 J-4.83456
G1 X-63.62824 Y5.67181
G3 X-63.67851 Y5.5963 I7.13098 J-4.80146
G1 X-63.77679 Y5.44695
G3 X-63.85386 Y5.32772 I7.18125 J-4.72595
G1 X-63.94968 Y5.17674
G3 X-63.99894 Y5.09819 I7.25831 J-4.60672
G1 X-64.02587 Y5.05473
G3 X-64.07685 Y4.9714 I7.30757 J-4.52817
G3 X-64.3781 Y4.46038 I23.67262 J-14.29916
G3 X-64.45798 Y4.3184 I7.4522 J-4.286
G1 X-64.55196 Y4.14758
G3 X-64.63203 Y3.99859 I7.53207 J-4.14401
G1 X-64.72244 Y3.82633
G1 X-64.72261 Y3.826
G1 X-64.72218 Y3.82683
G1 X-64.72244 Y3.82633
G3 X-65.11543 Y3.02005 I13.30588 J-6.98442
G1 X-65.16828 Y2.90339
G3 X-65.2194 Y2.78832 I7.83071 J-3.54752
G1 X-65.27407 Y2.66279
G3 X-65.29098 Y2.62367 I7.88183 J-3.43244
G3 X-65.45181 Y2.23476 I9.1278 J-4.00239
G1 X-65.482 Y2.15924
G3 X-65.53748 Y2.01675 I7.98286 J-3.19044
G1 X-65.60323 Y1.84336
G3 X-65.66245 Y1.68233 I8.03834 J-3.04795
G1 X-65.72166 Y1.51626
G3 X-65.77657 Y1.35733 I8.09757 J-2.88692
G1 X-65.83253 Y1.1901
G3 X-65.84031 Y1.16675 I8.15249 J-2.72799
G3 X-66.07309 Y0.39694 I14.45781 J-4.79192
G3 X-66.28691 Y-0.45524 I19.28174 J-5.29088
G3 X-66.31419 Y-0.57932 I8.38229 J-1.90846
G1 X-66.34903 Y-0.74348
G3 X-66.38496 Y-0.92216 I8.40958 J-1.78438
G1 X-66.42703 Y-1.1434
G3 X-66.46293 Y-1.3453 I8.44551 J-1.6057
G1 X-66.49969 Y-1.5674
G3 X-66.52538 Y-1.7326 I8.48141 J-1.4038
G1 X-66.54702 Y-1.88119
G3 X-66.55861 Y-1.96363 I8.50711 J-1.2386
G1 X-66.56184 Y-1.98745
G3 X-66.63662 Y-2.61803 I15.72583 J-2.18442
G3 X-66.66727 Y-2.95462 I10.77901 J-1.15128
G1 X-66.67683 Y-3.07206
G3 X-66.68901 Y-3.24256 I8.56844 J-0.69769
G1 X-66.70713 Y-3.53759
G3 X-66.71748 Y-3.74822 I8.58062 J-0.52718
G1 X-66.72836 Y-4.04354
G3 X-66.73283 Y-4.20705 I8.59097 J-0.31655
G3 X-66.73667 Y-5.00462 I30.69891 J-0.54657
G3 X-66.73499 Y-5.11817 I8.59651 J0.07028
G1 X-66.7299 Y-5.35631
G3 X-66.72787 Y-5.43449 I8.59483 J0.18382
G1 X-66.72545 Y-5.51388
G3 X-66.72403 Y-5.55686 I8.59281 J0.262
G1 X-66.72028 Y-5.66267
G3 X-66.71816 Y-5.71732 I8.59139 J0.30497
G1 X-66.71226 Y-5.85843
G3 X-66.7082 Y-5.9449 I8.58927 J0.35963
G1 X-66.69356 Y-6.22658
G3 X-66.68759 Y-6.32961 I8.58522 J0.4461
G1 X-66.67109 Y-6.58736
G3 X-66.6335 Y-7.09307 I16.90678 J1.00259
G1 X-66.61199 Y-7.34998
G3 X-66.60606 Y-7.41758 I8.56684 J0.71708
G1 X-66.58226 Y-7.67726
G3 X-66.53632 Y-8.1451 I17.50399 J1.4829
G1 X-66.52492 Y-8.2556
G3 X-66.52244 Y-8.27932 I8.55146 J0.88172
G1 X-66.50623 Y-8.43237
G3 X-66.50279 Y-8.4643 I8.54899 J0.90544
G1 X-66.46923 Y-8.77027
G3 X-66.46304 Y-8.82509 I8.54554 J0.93736
G1 X-66.38863 Y-9.46548
G3 X-66.38646 Y-9.48398 I8.53935 J0.99218
G3 X-66.29411 Y-10.23355 I78.90108 J9.34078
G3 X-66.29368 Y-10.23692 I8.52719 J1.09179
G1 X-66.22432 Y-10.77691
G3 X-66.209 Y-10.89891 I8.9858 J1.06648
G3 X-66.19151 Y-11.02839 I9.00847 J1.15102
G1 X-66.15446 Y-11.30879
G3 X-66.15231 Y-11.325 I8.52274 J1.12602
G1 X-66.10533 Y-11.67539
G3 X-66.10255 Y-11.696 I8.52058 J1.14224
G1 X-66.00769 Y-12.39085
G3 X-66.00474 Y-12.41222 I8.51779 J1.16284
G1 X-65.91139 Y-13.08343
G3 X-65.90978 Y-13.09498 I8.51485 J1.18421
G1 X-65.84748 Y-13.53847
G3 X-65.84707 Y-13.5414 I8.51323 J1.19577
G1 X-65.82625 Y-13.68927
G1 X-65.82622 Y-13.68948
G1 X-65.82068 Y-13.72881
G1 X-65.82066 Y-13.72898
G1 X-65.80548 Y-13.83679
G1 X-65.80545 Y-13.83699
G1 X-65.80551 Y-13.83659
G1 X-65.80548 Y-13.83679
G1 X-65.80049 Y-13.87222
G1 X-65.80042 Y-13.87272
G1 X-65.80056 Y-13.87173
G1 X-65.80049 Y-13.87222
G1 X-65.78026 Y-14.01607
G3 X-65.77206 Y-14.07296 I8.51301 J1.19735
G2 X-65.74891 Y-14.23825 I-11.38407 J-1.67885
G3 X-65.74179 Y-14.29068 I8.52211 J1.13076
G1 X-65.71863 Y-14.45735
G1 X-65.71567 Y-14.47874
G3 X-65.71159 Y-14.50788 I8.51579 J1.17743
G3 X-65.70924 Y-14.52527 I8.52063 J1.14189
G1 X-65.69723 Y-14.61353
G1 X-66.3932 Y-13.41866
G1 X-67.40454 Y-11.36911
G1 X-68.2414 Y-9.31518
G1 X-68.90678 Y-7.2605
G1 X-69.40385 Y-5.20725
G1 X-69.73551 Y-3.15623
G1 X-69.904 Y-1.10711
G1 X-69.91055 Y0.94125
G1 X-69.7552 Y2.99026
G1 X-69.43682 Y5.04109
G1 X-68.95324 Y7.09417
G1 X-68.30161 Y9.1488
G1 X-67.47876 Y11.20291
G1 X-66.48164 Y13.25298
G1 X-65.85428 Y14.34381
G1 X-62.9533 Y13.25064
G1 F300.0 X-62.3891 Y14.74786
G1 F800.0 X-54.38172 Y11.73046
G1 X-54.49195 Y11.67316
G3 X-54.56315 Y11.63563 I3.22698 J-6.20821
G1 X-54.70842 Y11.55799
G3 X-54.76676 Y11.52645 I3.29818 J-6.17068
G1 X-54.85468 Y11.47838
G3 X-55.46909 Y11.1277 I8.15269 J-14.99774
G3 X-56.42513 Y10.52799 I11.43767 J-19.29525
G3 X-56.62823 Y10.39174 I4.12668 J-6.37091
G3 X-57.64251 Y9.66167 I12.7609 J-18.79841
G3 X-57.7046 Y9.61378 I4.24208 J-5.56417
G1 X-57.97855 Y9.40003
G3 X-58.05024 Y9.34334 I4.30417 J-5.51628
G3 X-58.41966 Y9.04158 I16.1064 J-20.0953
G3 X-58.47057 Y8.99879 I4.47623 J-5.3776
G1 X-58.64722 Y8.84889
G3 X-58.67097 Y8.82864 I4.52714 J-5.33481
G3 X-59.68356 Y7.90148 I13.43365 J-15.68791
G3 X-60.62465 Y6.9226 I13.74529 J-14.15648
G3 X-61.50811 Y5.87094 I13.61139 J-12.33127
G3 X-62.22624 Y4.88876 I13.78656 J-10.83384
G1 X-62.25302 Y4.84939
G3 X-62.27125 Y4.82245 I5.78556 J-3.93478
G1 X-62.30106 Y4.77818
G3 X-62.34197 Y4.71672 I5.80379 J-3.90784
G1 X-62.44025 Y4.56738
G3 X-62.50297 Y4.47034 I5.84471 J-3.84638
G1 X-62.5988 Y4.31935
G3 X-62.63889 Y4.25542 I5.90743 J-3.74934
G1 X-62.66582 Y4.21197
G3 X-62.70731 Y4.14415 I5.94752 J-3.68541
G3 X-62.99113 Y3.66269 I22.30307 J-13.4719
G3 X-63.05614 Y3.54713 I6.06522 J-3.4883
G1 X-63.15012 Y3.37632
G3 X-63.21529 Y3.25506 I6.13023 J-3.37275
G1 X-63.30572 Y3.08274
G1 X-63.30587 Y3.08247
G1 X-63.30552 Y3.08314
G1 X-63.30572 Y3.08274
G3 X-63.65744 Y2.36106 I11.88916 J-6.24083
G1 X-63.71086 Y2.24314
G3 X-63.75247 Y2.14949 I6.3733 J-2.88727
G1 X-63.80713 Y2.02396
G3 X-63.82324 Y1.98667 I6.4149 J-2.79361
G3 X-63.96322 Y1.64811 I7.66006 J-3.36539
G1 X-63.99626 Y1.56545
G3 X-64.04142 Y1.44948 I6.49712 J-2.59665
G1 X-64.10716 Y1.27609
G3 X-64.15537 Y1.14503 I6.54228 J-2.48068
G1 X-64.21457 Y0.97896
G3 X-64.25927 Y0.84961 I6.59049 J-2.34962
G1 X-64.31523 Y0.68237
G3 X-64.32156 Y0.66337 I6.63518 J-2.22027
G3 X-64.53 Y-0.026 I12.93905 J-4.28854
G3 X-64.72683 Y-0.81043 I17.73866 J-4.86794
G3 X-64.74904 Y-0.91142 I6.82221 J-1.55327
G1 X-64.78387 Y-1.07558
G3 X-64.81312 Y-1.221 I6.84442 J-1.45228
G1 X-64.85519 Y-1.44225
G3 X-64.8844 Y-1.60657 I6.87367 J-1.30686
G1 X-64.92116 Y-1.82867
G3 X-64.94208 Y-1.96312 I6.90289 J-1.14253
G1 X-64.96371 Y-2.11171
G3 X-64.97315 Y-2.17881 I6.9238 J-1.00808
G1 X-64.97673 Y-2.20518
G3 X-65.04496 Y-2.78138 I14.14072 J-1.9667
G3 X-65.07214 Y-3.07948 I9.18736 J-0.98793
G1 X-65.08211 Y-3.20191
G3 X-65.09202 Y-3.34068 I6.97372 J-0.56783
G1 X-65.11015 Y-3.63571
G3 X-65.11857 Y-3.80713 I6.98363 J-0.42906
G1 X-65.12945 Y-4.10245
G3 X-65.13309 Y-4.23554 I6.99206 J-0.25764
G3 X-65.13673 Y-4.99154 I29.09916 J-0.51809
G3 X-65.13536 Y-5.08395 I6.99657 J0.0572
G1 X-65.13027 Y-5.3221
G3 X-65.12862 Y-5.38572 I6.9952 J0.14961
G1 X-65.12619 Y-5.46512
G3 X-65.12504 Y-5.5001 I6.99355 J0.21324
G1 X-65.12128 Y-5.60591
G3 X-65.11956 Y-5.65039 I6.9924 J0.24821
G1 X-65.11366 Y-5.7915
G3 X-65.11035 Y-5.86188 I6.99068 J0.2927
G1 X-65.09572 Y-6.14355
G3 X-65.09086 Y-6.22741 I6.98737 J0.36307
G1 X-65.07411 Y-6.489
G3 X-65.03946 Y-6.95499 I15.3098 J0.90422
G1 X-65.01757 Y-7.21651
G3 X-65.01274 Y-7.27154 I6.97242 J0.58362
G1 X-64.98843 Y-7.53683
G3 X-64.94547 Y-7.97405 I15.91016 J1.34247
G1 X-64.93336 Y-8.09149
G3 X-64.93134 Y-8.1108 I6.9599 J0.71762
G1 X-64.91513 Y-8.26386
G3 X-64.91233 Y-8.28984 I6.95788 J0.73692
G1 X-64.87877 Y-8.59581
G3 X-64.87373 Y-8.64043 I6.95508 J0.76291
G1 X-64.79932 Y-9.28082
G3 X-64.79756 Y-9.29588 I6.95004 J0.80752
G3 X-64.70706 Y-10.03035 I77.31217 J9.15267
G3 X-64.70671 Y-10.03309 I6.94015 J0.88859
G1 X-64.63633 Y-10.58107
G3 X-64.62237 Y-10.69244 I7.39781 J0.87065
G3 X-64.60641 Y-10.81041 I7.42185 J0.94456
G1 X-64.56825 Y-11.09922
G3 X-64.56649 Y-11.11242 I6.93652 J0.91645
G1 X-64.51952 Y-11.4628
G3 X-64.51725 Y-11.47957 I6.93477 J0.92965
G1 X-64.42239 Y-12.17443
G3 X-64.41999 Y-12.19182 I6.9325 J0.94642
G1 X-64.32664 Y-12.86303
G3 X-64.32533 Y-12.87243 I6.9301 J0.96381
G1 X-64.26304 Y-13.31592
G3 X-64.2627 Y-13.3183 I6.92878 J0.97322
G1 X-64.24188 Y-13.46617
G1 X-64.24186 Y-13.46634
G1 X-64.23631 Y-13.5057
G1 X-64.23629 Y-13.50584
G1 X-64.2211 Y-13.61372
G1 X-64.22108 Y-13.61388
G1 X-64.22113 Y-13.61356
G1 X-64.2211 Y-13.61372
G1 X-64.2161 Y-13.64929
G1 X-64.21604 Y-13.64969
G1 X-64.21615 Y-13.64888
G1 X-64.2161 Y-13.64929
G1 X-64.19585 Y-13.79323
G3 X-64.18918 Y-13.83953 I6.9286 J0.9745
G2 X-64.16281 Y-14.02779 I-12.96695 J-1.91229
G3 X-64.15701 Y-14.07047 I6.93601 J0.92031
G1 X-64.13378 Y-14.23767
G1 X-64.13075 Y-14.25961
G3 X-64.12657 Y-14.28933 I6.93086 J0.95829
G3 X-64.12386 Y-14.30951 I6.93561 J0.92334
G1 X-64.09179 Y-14.54512
G1 X-64.03894 Y-14.95375
G1 X-64.03413 Y-14.99334
G1 X-64.02843 Y-15.04158
G1 X-64.0157 Y-15.15429
G1 X-64.00913 Y-15.21633
G2 X-63.99005 Y-15.42947 I-10.17027 J-1.01796
G3 X-63.98853 Y-15.45026 I6.97899 J0.49888
G3 X-63.98639 Y-15.48066 I6.98057 J0.47633
G1 X-63.97903 Y-15.60854
G1 X-63.97275 Y-15.75676
G1 X-63.9685 Y-15.89179
G1 X-63.96054 Y-16.30244
G1 X-63.95562 Y-16.81359
G1 X-63.95424 Y-17.035
G1 X-63.95382 Y-17.10979
G1 X-63.9522 Y-17.42245
G1 X-63.95219 Y-17.42304
G1 X-63.94929 Y-17.97491
G3 X-63.94852 Y-18.14891 I8.72949 J-0.04845
G3 X-63.94272 Y-18.89876 I62.13982 J0.1053
G1 X-63.93534 Y-19.60709
G3 X-63.9316 Y-19.90882 I12.48968 J0.00397
G1 X-63.93062 Y-19.98113
G1 X-65.13547 Y-18.42103
G1 X-66.56069 Y-16.31006
G1 X-67.80357 Y-14.17621
G1 X-68.86469 Y-12.02581
G1 X-69.74539 Y-9.86425
G1 X-70.44761 Y-7.69582
G1 X-70.97346 Y-5.52366
G1 X-71.325 Y-3.3498
G1 X-71.50379 Y-1.17533
G1 X-71.51074 Y0.99926
G1 X-71.34588 Y3.17374
G1 X-71.00839 Y5.34768
G1 X-70.49672 Y7.52004
G1 X-69.80887 Y9.68888
G1 X-68.94269 Y11.85114
G1 X-67.89624 Y14.00263
G1 X-66.66811 Y16.13804
G1 X-66.54957 Y16.31564
G1 X-62.3891 Y14.74786
G1 F300.0 X-61.8249 Y16.24509
G1 F800.0 X-49.89955 Y11.75128
G1 X-50.05317 Y11.71182
G3 X-50.16135 Y11.68283 I1.34278 J-5.22708
G1 X-50.33454 Y11.63449
G3 X-50.35221 Y11.62952 I1.45097 J-5.19809
G3 X-51.4553 Y11.27193 I4.16659 J-14.73312
G3 X-52.5112 Y10.85053 I5.9343 J-16.40323
G3 X-53.59706 Y10.33507 I7.06084 J-16.27559
G3 X-53.60791 Y10.32944 I2.47819 J-4.79417
G1 X-53.75402 Y10.2535
G3 X-53.80894 Y10.22455 I2.48904 J-4.78854
G1 X-53.9542 Y10.1469
G3 X-53.9992 Y10.12258 I2.54396 J-4.75959
G1 X-54.08887 Y10.07355
G3 X-54.65027 Y9.7531 I7.38688 J-13.59291
G3 X-55.54844 Y9.18952 I10.61885 J-17.92065
G3 X-55.72227 Y9.07291 I3.24999 J-5.03244
G3 X-56.67245 Y8.38928 I11.85494 J-17.47958
G3 X-56.72034 Y8.35234 I3.27202 J-4.29177
G1 X-56.99429 Y8.13859
G3 X-57.04958 Y8.09486 I3.31991 J-4.25484
G3 X-57.39606 Y7.81185 I15.10574 J-18.84682
G3 X-57.43533 Y7.77885 I3.45262 J-4.14787
G1 X-57.61197 Y7.62895
G3 X-57.63029 Y7.61333 I3.49189 J-4.11487
G3 X-58.56671 Y6.75577 I12.39297 J-14.4726
G3 X-59.43633 Y5.8512 I12.62843 J-13.01077
G3 X-60.24772 Y4.88532 I12.42306 J-11.25987
G3 X-60.90294 Y3.98939 I12.52618 J-9.84822
G1 X-60.93 Y3.9496
G3 X-60.94406 Y3.92882 I4.46254 J-3.03499
G1 X-60.97387 Y3.88455
G3 X-61.00542 Y3.83715 I4.47661 J-3.01421
G1 X-61.10371 Y3.6878
G3 X-61.15208 Y3.61296 I4.50816 J-2.9668
G1 X-61.24791 Y3.46197
G3 X-61.27884 Y3.41266 I4.55654 J-2.89195
G1 X-61.30576 Y3.3692
G3 X-61.33777 Y3.31689 I4.58746 J-2.84264
G3 X-61.60416 Y2.865 I20.93353 J-12.64464
G3 X-61.6543 Y2.77587 I4.67825 J-2.69061
G1 X-61.74828 Y2.60505
G3 X-61.79855 Y2.51152 I4.7284 J-2.60148
G1 X-61.88901 Y2.33915
G1 X-61.88913 Y2.33893
G1 X-61.88886 Y2.33945
G1 X-61.88901 Y2.33915
G3 X-62.19941 Y1.70215 I10.47245 J-5.49724
G1 X-62.25344 Y1.58289
G3 X-62.28553 Y1.51065 I4.91588 J-2.22702
G1 X-62.3402 Y1.38513
G3 X-62.35543 Y1.34979 I4.94797 J-2.15478
G3 X-62.47435 Y1.06218 I6.19225 J-2.72851
G1 X-62.51052 Y0.97166
G3 X-62.54535 Y0.88221 I5.01139 J-2.00286
G1 X-62.6111 Y0.70882
G3 X-62.64828 Y0.60773 I5.04622 J-1.91341
G1 X-62.70749 Y0.44166
G3 X-62.74196 Y0.34189 I5.0834 J-1.81232
G1 X-62.79792 Y0.17465
G3 X-62.8028 Y0.16 I5.11787 J-1.71255
G3 X-62.98691 Y-0.44894 I11.4203 J-3.78516
G3 X-63.16676 Y-1.16562 I16.19557 J-4.445
G3 X-63.18389 Y-1.24352 I5.26214 J-1.19807
G1 X-63.21872 Y-1.40768
G3 X-63.24128 Y-1.51985 I5.27927 J-1.12018
G1 X-63.28334 Y-1.74109
G3 X-63.30588 Y-1.86784 I5.30183 J-1.00801
G1 X-63.34264 Y-2.08994
G3 X-63.35877 Y-2.19365 I5.32436 J-0.88126
G1 X-63.3804 Y-2.34224
G3 X-63.38768 Y-2.39399 I5.34049 J-0.77755
G1 X-63.39163 Y-2.42305
G3 X-63.45332 Y-2.94497 I12.55562 J-1.74882
G3 X-63.47697 Y-3.20388 I7.59572 J-0.82434
G1 X-63.48739 Y-3.33176
G3 X-63.49503 Y-3.43879 I5.379 J-0.43798
G1 X-63.51316 Y-3.73382
G3 X-63.51965 Y-3.86605 I5.38664 J-0.33095
G1 X-63.53053 Y-4.16137
G3 X-63.53334 Y-4.26402 I5.39314 J-0.19872
G3 X-63.53678 Y-4.97846 I27.49941 J-0.4896
G3 X-63.53573 Y-5.04974 I5.39662 J0.04412
G1 X-63.53063 Y-5.28788
G3 X-63.52936 Y-5.33696 I5.39557 J0.1154
G1 X-63.52694 Y-5.41636
G3 X-63.52605 Y-5.44334 I5.39429 J0.16447
G1 X-63.52229 Y-5.54915
G3 X-63.52096 Y-5.58346 I5.3934 J0.19145
G1 X-63.51506 Y-5.72457
G3 X-63.51251 Y-5.77885 I5.39208 J0.22576
G1 X-63.49787 Y-6.06053
G3 X-63.49412 Y-6.12521 I5.38953 J0.28004
G1 X-63.47712 Y-6.39084
G3 X-63.44544 Y-6.81665 I13.71281 J0.80606
G1 X-63.42314 Y-7.08305
G3 X-63.41942 Y-7.1255 I5.37799 J0.45016
G1 X-63.39456 Y-7.3967
G3 X-63.35466 Y-7.80264 I14.3163 J1.20234
G1 X-63.3418 Y-7.92739
G3 X-63.34024 Y-7.94228 I5.36834 J0.55352
G1 X-63.32403 Y-8.09534
G3 X-63.32187 Y-8.11538 I5.36678 J0.56841
G1 X-63.28831 Y-8.42135
G3 X-63.28442 Y-8.45577 I5.36462 J0.58845
G1 X-63.21002 Y-9.09616
G3 X-63.20865 Y-9.10777 I5.36074 J0.62286
G3 X-63.12002 Y-9.82715 I75.72327 J8.96457
G3 X-63.11975 Y-9.82927 I5.3531 J0.68539
G1 X-63.04822 Y-10.38616
G3 X-63.03574 Y-10.48597 I5.8097 J0.67573
G3 X-63.02143 Y-10.59147 I5.83522 J0.73809
G1 X-62.98203 Y-10.88965
G3 X-62.98068 Y-10.89983 I5.35031 J0.70688
G1 X-62.93371 Y-11.25021
G3 X-62.93196 Y-11.26315 I5.34895 J0.71706
G1 X-62.8371 Y-11.958
G3 X-62.83525 Y-11.97142 I5.3472 J0.72999
G1 X-62.7419 Y-12.64263
G3 X-62.74088 Y-12.64988 I5.34535 J0.74341
G1 X-62.67859 Y-13.09337
G3 X-62.67833 Y-13.09521 I5.34434 J0.75067
G1 X-62.65751 Y-13.24308
G1 X-62.65749 Y-13.24321
G1 X-62.65195 Y-13.2826
G1 X-62.65193 Y-13.28271
G1 X-62.63673 Y-13.39066
G1 X-62.63671 Y-13.39078
G1 X-62.63675 Y-13.39053
G1 X-62.63673 Y-13.39066
G1 X-62.63171 Y-13.42635
G1 X-62.63166 Y-13.42666
G1 X-62.63175 Y-13.42604
G1 X-62.63171 Y-13.42635
G1 X-62.61145 Y-13.57038
G3 X-62.6063 Y-13.6061 I5.3442 J0.75166
G2 X-62.57671 Y-13.81734 I-14.54983 J-2.14572
G3 X-62.57224 Y-13.85026 I5.34991 J0.70985
G1 X-62.54893 Y-14.018
G1 X-62.54583 Y-14.04047
G3 X-62.54155 Y-14.07078 I5.34594 J0.73915
G3 X-62.53847 Y-14.09375 I5.35058 J0.7048
G1 X-62.50569 Y-14.33462
G1 X-62.45136 Y-14.7547
G1 X-62.4455 Y-14.80294
G1 X-62.439 Y-14.85786
G1 X-62.42519 Y-14.98024
G1 X-62.41756 Y-15.05218
G2 X-62.39454 Y-15.30953 I-11.76183 J-1.18211
G3 X-62.3945 Y-15.31003 I5.38026 J0.42219
G3 X-62.39258 Y-15.33638 I5.38344 J0.37944
G3 X-62.38976 Y-15.37598 I5.38462 J0.36245
G1 X-62.38123 Y-15.52425
G1 X-62.38079 Y-15.53298
G1 X-62.37382 Y-15.69775
G1 X-62.36899 Y-15.85111
G1 X-62.36069 Y-16.27924
G1 X-62.35567 Y-16.80088
G1 X-62.35426 Y-17.02552
G1 X-62.35384 Y-17.10117
G1 X-62.35222 Y-17.41416
G1 Y-17.41461
G1 X-62.34926 Y-17.97557
G3 X-62.34854 Y-18.1356 I7.12946 J-0.04778
G3 X-62.34284 Y-18.87939 I60.53984 J0.09199
G1 X-62.33534 Y-19.59878
G3 X-62.33187 Y-19.87814 I10.88968 J-0.00435
G1 X-62.32978 Y-20.03258
G3 X-62.32969 Y-20.03934 I5.39631 J0.07283
G1 X-62.32404 Y-20.42248
G3 X-62.32387 Y-20.43323 I5.39621 J0.07959
G1 X-62.31135 Y-21.18096
G3 X-62.31128 Y-21.18493 I5.39604 J0.09034
G1 X-62.29895 Y-21.89033
G1 X-62.29391 Y-22.21558
G3 X-62.2936 Y-22.2338 I5.39615 J0.08358
G2 X-62.29052 Y-22.49052 I-18.72845 J-0.35333
G3 X-62.29048 Y-22.49744 I5.39673 J0.02783
G1 X-62.28866 Y-22.77909
G1 X-62.28908 Y-23.04173
G1 X-62.28975 Y-23.11884
G1 X-62.29006 Y-23.14593
G3 X-62.29039 Y-23.19455 I5.39645 J-0.06153
G3 X-62.29073 Y-23.20725 I5.39468 J-0.15113
G1 X-62.29774 Y-23.48027
G2 X-62.30932 Y-23.71235 I-5.10383 J0.13835
G1 X-62.32213 Y-23.87379
G1 X-62.3388 Y-24.04153
G2 X-62.35788 Y-24.19102 I-3.13394 J0.32399
G3 X-62.35902 Y-24.19853 I5.33551 J-0.81104
G1 X-62.91405 Y-23.63432
G1 X-64.76474 Y-21.51875
G1 X-66.43299 Y-19.35862
G1 X-67.91651 Y-17.16129
G1 X-69.21395 Y-14.93377
G1 X-70.32483 Y-12.68252
G1 X-71.24939 Y-10.41332
G1 X-71.98844 Y-8.13114
G1 X-72.54308 Y-5.84007
G1 X-72.91448 Y-3.54336
G1 X-73.10358 Y-1.24356
G1 X-73.11094 Y1.05727
G1 X-72.93656 Y3.35723
G1 X-72.57996 Y5.65428
G1 X-72.04019 Y7.94592
G1 X-71.31612 Y10.22896
G1 X-70.40661 Y12.49938
G1 X-69.31084 Y14.75229
G1 X-68.0285 Y16.98196
G1 X-67.17472 Y18.26105
G1 X-61.8249 Y16.24509
G1 F300.0 X-61.26071 Y17.74231
G1 F800.0 X-37.1564 Y8.65913
G1 X-37.21301 Y8.6623
G1 X-37.32901 Y8.67224
G1 X-37.33071 Y8.67243
G1 X-37.3735 Y8.67914
G2 X-37.40713 Y8.68761 I0.19276 J0.83599
G3 X-37.46565 Y8.70604 I-1.16955 J-3.61218
G3 X-37.52985 Y8.72829 I-1.27521 J-3.57624
G2 X-37.73192 Y8.8011 I1.61291 J4.79273
G3 X-37.76775 Y8.81467 I-1.36272 J-3.54382
G1 X-38.16252 Y8.96192
G3 X-38.18232 Y8.96924 I-1.32689 J-3.55739
G1 X-38.62247 Y9.13064
G3 X-38.65639 Y9.14289 I-1.30709 J-3.56472
G1 X-38.89629 Y9.22828
G3 X-38.92454 Y9.23821 I-1.27317 J-3.57697
G1 X-39.16514 Y9.32172
G3 X-39.19195 Y9.33091 I-1.24492 J-3.5869
G1 X-39.3828 Y9.39556
G3 X-39.4074 Y9.40379 I-1.21811 J-3.59609
G1 X-39.59877 Y9.46716
G3 X-39.61982 Y9.47407 I-1.19351 J-3.60433
G1 X-39.74764 Y9.51556
G3 X-39.77411 Y9.52405 I-1.17246 J-3.61124
G1 X-40.03704 Y9.60729
G3 X-40.07392 Y9.61877 I-1.14599 J-3.61972
G1 X-40.3376 Y9.6993
G3 X-40.37633 Y9.71091 I-1.1091 J-3.6312
G1 X-40.64172 Y9.78889
G3 X-40.6826 Y9.80065 I-1.07037 J-3.6428
G1 X-40.9489 Y9.87567
G3 X-40.97547 Y9.88305 I-1.02949 J-3.65457
G1 X-41.04144 Y9.90111
G3 X-41.05228 Y9.90407 I-1.00291 J-3.66195
G1 X-41.08337 Y9.91248
G3 X-41.30794 Y9.97241 I-1.68812 J-5.87567
G3 X-41.58517 Y10.04311 I-4.08299 J-15.43132
G3 X-42.24154 Y10.19687 I-4.13835 J-16.18779
G1 X-42.24182 Y10.19693
G1 X-42.50204 Y10.25235
G3 X-42.55723 Y10.26368 I-0.79097 J-3.7135
G1 X-42.81817 Y10.31522
G3 X-42.86598 Y10.32435 I-0.73578 J-3.72483
G1 X-43.03666 Y10.3558
G3 X-43.07598 Y10.36283 I-0.68797 J-3.73395
G1 X-43.21526 Y10.38698
G3 X-43.41635 Y10.42081 I-1.02555 J-5.48139
G3 X-43.54368 Y10.4401 I-0.78084 J-4.72321
G1 X-43.66752 Y10.45859
G3 X-43.89596 Y10.49044 I-0.72715 J-4.38067
G1 X-44.11791 Y10.51897
G3 X-44.1904 Y10.52758 I-0.48415 J-3.7658
G1 X-44.45944 Y10.55693
G3 X-44.53679 Y10.56456 I-0.41166 J-3.77442
G1 X-44.8064 Y10.5884
G3 X-44.86786 Y10.59333 I-0.33431 J-3.78205
G1 X-44.97573 Y10.6011
G3 X-45.27903 Y10.61907 I-0.49932 J-5.85827
G1 X-45.53522 Y10.63001
G3 X-45.5998 Y10.63222 I-0.16195 J-3.79334
G1 X-45.65861 Y10.63372
G3 X-45.8491 Y10.63724 I-0.17001 J-4.04485
G1 X-45.94561 Y10.63829
G3 X-46.02255 Y10.63835 I-0.04123 J-3.79658
G1 X-46.31231 Y10.63562
G3 X-46.40619 Y10.63358 I0.03571 J-3.79663
G1 X-46.63381 Y10.62581
G3 X-46.68985 Y10.62348 I0.12958 J-3.79459
G1 X-46.75367 Y10.62035
G3 X-47.23793 Y10.58716 I0.41687 J-9.6325
G3 X-47.23908 Y10.58706 I0.35487 J-3.78018
G1 X-47.46323 Y10.56595
G3 X-47.50705 Y10.56156 I0.35601 J-3.78007
G3 X-47.75694 Y10.53285 I1.48781 J-14.0494
G3 X-47.92926 Y10.5101 I0.43795 J-3.98098
G1 X-48.04398 Y10.49409
G3 X-48.0958 Y10.48649 I0.52473 J-3.76037
G3 X-48.96926 Y10.32748 I2.43967 J-15.88009
G3 X-49.03722 Y10.31251 I0.78296 J-3.71519
G1 X-49.30009 Y10.25206
G3 X-49.39386 Y10.22924 I0.85091 J-3.70022
G1 X-49.65507 Y10.16214
G3 X-49.73118 Y10.14174 I0.94469 J-3.6774
G1 X-49.90437 Y10.0934
G3 X-49.9168 Y10.0899 I1.02079 J-3.657
G3 X-50.90779 Y9.76852 I3.73118 J-13.1935
G3 X-51.87222 Y9.38366 I5.38679 J-14.89982
G3 X-52.86234 Y8.91373 I6.42186 J-14.80872
G3 X-52.86998 Y8.90977 I1.74348 J-3.37283
G1 X-53.01609 Y8.83383
G3 X-53.05472 Y8.81346 I1.75111 J-3.36887
G1 X-53.19999 Y8.73582
G3 X-53.23165 Y8.7187 I1.78975 J-3.34851
G1 X-53.32315 Y8.66868
G3 X-53.8314 Y8.37852 I6.62116 J-12.18803
G3 X-54.67255 Y7.85051 I9.79998 J-16.54606
G3 X-54.81549 Y7.75462 I2.37411 J-3.69343
G3 X-55.70239 Y7.11689 I10.94817 J-16.16129
G3 X-55.73608 Y7.0909 I2.30196 J-3.01938
G1 X-56.01003 Y6.87715
G3 X-56.04893 Y6.84639 I2.33565 J-2.9934
G3 X-56.37245 Y6.58212 I14.10509 J-17.59835
G3 X-56.40008 Y6.5589 I2.42902 J-2.91815
G1 X-56.57672 Y6.40901
G3 X-56.58961 Y6.39802 I2.45664 J-2.89493
G3 X-57.44986 Y5.61005 I11.35229 J-13.25729
G3 X-58.24801 Y4.77978 I11.51159 J-11.86506
G3 X-58.98734 Y3.89969 I11.23475 J-10.18846
G3 X-59.57962 Y3.09004 I11.2658 J-8.86259
G1 X-59.60698 Y3.04981
G3 X-59.61687 Y3.03519 I3.13953 J-2.1352
G1 X-59.64668 Y2.99092
G3 X-59.66888 Y2.95757 I3.14942 J-2.12058
G1 X-59.76716 Y2.80823
G3 X-59.8012 Y2.75557 I3.17162 J-2.08723
G1 X-59.89703 Y2.60459
G3 X-59.91878 Y2.56989 I3.20565 J-2.03457
G1 X-59.94571 Y2.52644
G3 X-59.96823 Y2.48964 I3.22741 J-1.99988
G3 X-60.21719 Y2.06731 I19.56399 J-11.81739
G3 X-60.25246 Y2.0046 I3.29128 J-1.89292
G1 X-60.34644 Y1.83378
G3 X-60.38181 Y1.76798 I3.32656 J-1.83022
G1 X-60.4723 Y1.59555
G1 X-60.47239 Y1.59539
G1 X-60.4722 Y1.59576
G1 X-60.4723 Y1.59555
G3 X-60.74134 Y1.04334 I9.05574 J-4.75365
G1 X-60.79602 Y0.92264
G3 X-60.8186 Y0.87182 I3.45846 J-1.56677
G1 X-60.87326 Y0.74629
G3 X-60.88749 Y0.71321 I3.48103 J-1.51595
G1 X-60.8875 Y0.71318
G3 X-60.98507 Y0.47725 I4.72431 J-2.0919
G1 X-61.02479 Y0.37787
G3 X-61.04929 Y0.31494 I3.52565 J-1.40907
G1 X-61.11504 Y0.14155
G3 X-61.1412 Y0.07043 I3.55016 J-1.34613
G1 X-61.2004 Y-0.09564
G3 X-61.22465 Y-0.16583 I3.57631 J-1.27501
G1 X-61.28062 Y-0.33307
G3 X-61.28405 Y-0.34338 I3.60057 J-1.20483
G3 X-61.44382 Y-0.87187 I9.90155 J-3.28178
G3 X-61.60668 Y-1.52082 I14.65248 J-4.02207
G3 X-61.61873 Y-1.57562 I3.70206 J-0.84288
G1 X-61.65356 Y-1.73978
G3 X-61.66944 Y-1.8187 I3.71411 J-0.78807
G1 X-61.7115 Y-2.03994
G3 X-61.72735 Y-2.12911 I3.72998 J-0.70916
G1 X-61.76411 Y-2.35121
G3 X-61.77546 Y-2.42417 I3.74584 J-0.61999
G1 X-61.7971 Y-2.57276
G3 X-61.80222 Y-2.60917 I3.75719 J-0.54703
G1 X-61.80655 Y-2.6411
G3 X-61.86172 Y-3.10894 I10.97054 J-1.53078
G3 X-61.88176 Y-3.32768 I6.00411 J-0.66037
G1 X-61.89266 Y-3.46161
G3 X-61.89804 Y-3.53691 I3.78428 J-0.30813
G1 X-61.91617 Y-3.83194
G3 X-61.92074 Y-3.92497 I3.78965 J-0.23283
G1 X-61.93162 Y-4.22028
G3 X-61.93359 Y-4.2925 I3.79423 J-0.13981
G3 X-61.93683 Y-4.96538 I25.89967 J-0.46112
G3 X-61.93609 Y-5.01553 I3.79667 J0.03104
G1 X-61.931 Y-5.25367
G3 X-61.9301 Y-5.2882 I3.79593 J0.08118
G1 X-61.92768 Y-5.3676
G3 X-61.92705 Y-5.38658 I3.79504 J0.11571
G1 X-61.9233 Y-5.49239
G3 X-61.92237 Y-5.51653 I3.79441 J0.13469
G1 X-61.91646 Y-5.65764
G3 X-61.91467 Y-5.69582 I3.79348 J0.15883
G1 X-61.90003 Y-5.9775
G3 X-61.89739 Y-6.02301 I3.79168 J0.19702
G1 X-61.88011 Y-6.29292
G3 X-61.85145 Y-6.67802 I12.1158 J0.70815
G1 X-61.82872 Y-6.94959
G3 X-61.8261 Y-6.97945 I3.78357 J0.3167
G1 X-61.80067 Y-7.2569
G3 X-61.7639 Y-7.6308 I12.7224 J1.06254
G1 X-61.75024 Y-7.76329
G3 X-61.74914 Y-7.77377 I3.77678 J0.38941
G1 X-61.73293 Y-7.92683
G3 X-61.73141 Y-7.94092 I3.77568 J0.39989
G1 X-61.69785 Y-8.24689
G3 X-61.69511 Y-8.2711 I3.77416 J0.41399
G1 X-61.62071 Y-8.9115
G3 X-61.61975 Y-8.91967 I3.77143 J0.4382
G3 X-61.53298 Y-9.62396 I74.13437 J8.77647
G3 X-61.53278 Y-9.62544 I3.76606 J0.48219
G1 X-61.45995 Y-10.19257
G3 X-61.44911 Y-10.27949 I4.22142 J0.48214
G3 X-61.43663 Y-10.37115 I4.24858 J0.53161
G1 X-61.39582 Y-10.68008
G3 X-61.39486 Y-10.68724 I3.76409 J0.49731
G1 X-61.34789 Y-11.03763
G3 X-61.34666 Y-11.04673 I3.76314 J0.50447
G1 X-61.2518 Y-11.74158
G3 X-61.2505 Y-11.75102 I3.76191 J0.51357
G1 X-61.15715 Y-12.42223
G3 X-61.15644 Y-12.42733 I3.7606 J0.52301
G1 X-61.09414 Y-12.87082
G3 X-61.09396 Y-12.87211 I3.75989 J0.52811
G1 X-61.07314 Y-13.01998
G1 X-61.07313 Y-13.02007
G1 X-61.06758 Y-13.0595
G1 X-61.06757 Y-13.05957
G1 X-61.05236 Y-13.16759
G1 X-61.05234 Y-13.16768
