; generated by Slic3r 1.31.6-prusa3d-win64 on 2017-02-28 at 15:57:41

; external perimeters extrusion width = 0.45mm
; perimeters extrusion width = 0.45mm
; infill extrusion width = 0.45mm
; solid infill extrusion width = 0.45mm
; top infill extrusion width = 0.45mm

M115 U3.0.9 ; tell printer latest fw version
M83  ; extruder relative mode
M104 S255 ; set extruder temp
M140 S100 ; set bed temp
M190 S100 ; wait for bed temp
M109 S255 ; wait for extruder temp
G28 W ; home all without mesh bed level
G80 ; mesh bed leveling
G1 Y-3.0 F1000.0 ; go outside pritn area
G1 X60.0 E9.0  F1000.0 ; intro line
G1 X100.0 E12.5  F1000.0 ; intro line
G21 ; set units to millimeters
G90 ; use absolute coordinates
M83 ; use relative distances for extrusion
G1 E-0.80000 F2100.00000
G1 Z0.150 F7200.000
G1 X89.358 Y73.879 F7200.000
G1 E0.80000 F2100.00000
M204 S1000
G1 F2100
G1 X90.561 Y72.658 E0.04148
G1 X90.759 Y72.480 E0.00642
G1 X92.088 Y71.421 E0.04110
G1 X93.533 Y70.498 E0.04148
G1 X95.067 Y69.731 E0.04148
G1 X96.673 Y69.129 E0.04148
G1 X98.333 Y68.698 E0.04147
G1 X100.029 Y68.442 E0.04148
G1 X101.617 Y68.362 E0.03847
G1 X148.383 Y68.362 E1.13102
G1 X150.220 Y68.468 E0.04450
G1 X151.911 Y68.749 E0.04148
G1 X153.565 Y69.206 E0.04148
G1 X154.933 Y69.731 E0.03544
G1 X156.467 Y70.498 E0.04148
G1 X157.912 Y71.421 E0.04148
G1 X158.114 Y71.568 E0.00604
G1 X159.439 Y72.657 E0.04147
G1 X160.642 Y73.879 E0.04148
G1 X161.711 Y75.220 E0.04148
G1 X162.635 Y76.666 E0.04148
G1 X163.300 Y77.972 E0.03544
G1 X163.927 Y79.568 E0.04148
G1 X164.383 Y81.221 E0.04148
G1 X164.435 Y81.466 E0.00604
G1 X164.691 Y83.161 E0.04147
G1 X164.767 Y84.875 E0.04149
G1 X164.664 Y86.587 E0.04148
G1 X164.435 Y88.034 E0.03544
G1 X164.004 Y89.694 E0.04148
G1 X163.402 Y91.300 E0.04148
G1 X162.575 Y92.944 E0.04450
G1 X139.192 Y133.444 E1.13101
G1 X138.182 Y134.982 E0.04450
G1 X137.092 Y136.306 E0.04148
G1 X135.871 Y137.510 E0.04148
G1 X134.530 Y138.579 E0.04148
G1 X133.084 Y139.502 E0.04148
G1 X131.550 Y140.269 E0.04148
G1 X129.944 Y140.871 E0.04147
G1 X128.284 Y141.302 E0.04148
G1 X126.589 Y141.558 E0.04148
G1 X125.125 Y141.635 E0.03545
G1 X123.412 Y141.558 E0.04148
G1 X121.716 Y141.302 E0.04148
G1 X120.056 Y140.871 E0.04148
G1 X119.803 Y140.788 E0.00642
G1 X118.222 Y140.167 E0.04110
G1 X116.700 Y139.377 E0.04148
G1 X115.268 Y138.432 E0.04148
G1 X113.944 Y137.342 E0.04148
G1 X112.740 Y136.121 E0.04148
G1 X111.671 Y134.780 E0.04148
G1 X110.808 Y133.444 E0.03846
G1 X87.425 Y92.944 E1.13101
G1 X86.700 Y91.528 E0.03846
G1 X86.073 Y89.932 E0.04148
G1 X85.992 Y89.679 E0.00642
G1 X85.565 Y88.034 E0.04110
G1 X85.309 Y86.338 E0.04148
G1 X85.234 Y84.610 E0.04185
G1 X85.336 Y82.913 E0.04110
G1 X85.565 Y81.466 E0.03544
G1 X85.617 Y81.221 E0.00604
G1 X86.073 Y79.568 E0.04148
G1 X86.700 Y77.972 E0.04148
G1 X87.490 Y76.450 E0.04148
G1 X88.288 Y75.221 E0.03544
G1 X89.320 Y73.926 E0.04003
G1 F5760
G1 X89.525 Y73.694 E-0.10733
G1 F5760
G1 X90.561 Y72.658 E-0.50755
G1 F5760
G1 X90.747 Y72.490 E-0.08652
G1 F5760
G1 X90.759 Y72.480 E-0.00544
G1 F5760
G1 X90.759 Y72.480 E-0.00004
G1 F5760
G1 X90.878 Y72.384 E-0.05312
G1 E-0.04000 F2100.00000
G1 X117.842 Y115.635 F7200.000
G1 E0.80000 F2100.00000
G1 F1680
G1 X119.006 Y114.869 E0.03371
G1 X120.252 Y114.243 E0.03371
G1 X121.562 Y113.766 E0.03371
G1 X122.904 Y113.448 E0.03337
G1 X124.302 Y113.283 E0.03404
G1 X125.697 Y113.283 E0.03373
G1 X127.082 Y113.445 E0.03371
G1 X128.438 Y113.766 E0.03371
G1 X129.748 Y114.243 E0.03371
G1 X130.994 Y114.869 E0.03371
G1 X132.158 Y115.635 E0.03371
G1 X133.226 Y116.531 E0.03371
G1 X134.183 Y117.545 E0.03371
G1 X135.015 Y118.663 E0.03371
G1 X135.712 Y119.870 E0.03371
G1 X136.264 Y121.150 E0.03371
G1 X136.664 Y122.486 E0.03371
G1 X136.906 Y123.858 E0.03371
G1 X136.986 Y125.236 E0.03337
G1 X136.906 Y126.641 E0.03404
G1 X136.664 Y128.014 E0.03373
G1 X136.264 Y129.350 E0.03371
G1 X135.712 Y130.630 E0.03371
G1 X135.015 Y131.837 E0.03371
G1 X134.183 Y132.955 E0.03371
G1 X133.226 Y133.969 E0.03371
G1 X132.158 Y134.865 E0.03371
G1 X130.994 Y135.631 E0.03371
G1 X129.748 Y136.257 E0.03371
G1 X128.438 Y136.734 E0.03371
G1 X127.095 Y137.052 E0.03337
G1 X125.698 Y137.217 E0.03404
G1 X124.303 Y137.217 E0.03373
G1 X122.918 Y137.055 E0.03371
G1 X121.562 Y136.734 E0.03371
G1 X120.231 Y136.249 E0.03425
G1 X119.006 Y135.631 E0.03320
G1 X117.842 Y134.865 E0.03369
G1 X116.774 Y133.969 E0.03371
G1 X115.817 Y132.955 E0.03371
G1 X114.985 Y131.837 E0.03371
G1 X114.288 Y130.630 E0.03371
G1 X113.736 Y129.350 E0.03371
G1 X113.336 Y128.014 E0.03371
G1 X113.094 Y126.642 E0.03371
G1 X113.014 Y125.264 E0.03337
G1 X113.094 Y123.859 E0.03404
G1 X113.336 Y122.486 E0.03373
G1 X113.736 Y121.150 E0.03371
G1 X114.288 Y119.870 E0.03371
G1 X114.985 Y118.663 E0.03371
G1 X115.817 Y117.545 E0.03371
G1 X116.774 Y116.531 E0.03371
G1 X117.796 Y115.673 E0.03226
G1 X118.074 Y115.946 F7200.000
G1 F1680
G1 X119.201 Y115.205 E0.03262
G1 X120.406 Y114.600 E0.03262
G1 X121.673 Y114.138 E0.03262
G1 X122.972 Y113.831 E0.03228
G1 X124.325 Y113.671 E0.03295
G1 X125.674 Y113.671 E0.03263
G1 X127.014 Y113.827 E0.03262
G1 X128.327 Y114.138 E0.03262
G1 X129.594 Y114.600 E0.03262
G1 X130.799 Y115.205 E0.03262
G1 X131.926 Y115.946 E0.03262
G1 X132.960 Y116.813 E0.03262
G1 X133.885 Y117.794 E0.03262
G1 X134.691 Y118.876 E0.03262
G1 X135.365 Y120.044 E0.03262
G1 X135.899 Y121.283 E0.03262
G1 X136.286 Y122.575 E0.03262
G1 X136.520 Y123.903 E0.03262
G1 X136.598 Y125.236 E0.03228
G1 X136.520 Y126.596 E0.03295
G1 X136.286 Y127.925 E0.03263
G1 X135.899 Y129.217 E0.03262
G1 X135.365 Y130.456 E0.03262
G1 X134.691 Y131.624 E0.03262
G1 X133.885 Y132.706 E0.03262
G1 X132.960 Y133.687 E0.03262
G1 X131.926 Y134.554 E0.03262
G1 X130.799 Y135.295 E0.03262
G1 X129.594 Y135.900 E0.03262
G1 X128.327 Y136.362 E0.03262
G1 X127.028 Y136.669 E0.03228
G1 X125.675 Y136.829 E0.03295
G1 X124.326 Y136.829 E0.03263
G1 X122.986 Y136.673 E0.03262
G1 X121.673 Y136.362 E0.03262
G1 X120.385 Y135.893 E0.03315
G1 X119.200 Y135.295 E0.03211
G1 X118.074 Y134.554 E0.03261
G1 X117.040 Y133.687 E0.03262
G1 X116.115 Y132.706 E0.03262
G1 X115.309 Y131.624 E0.03262
G1 X114.635 Y130.456 E0.03262
G1 X114.101 Y129.217 E0.03262
G1 X113.714 Y127.925 E0.03262
G1 X113.480 Y126.597 E0.03262
G1 X113.402 Y125.264 E0.03228
G1 X113.480 Y123.904 E0.03295
G1 X113.714 Y122.575 E0.03263
G1 X114.101 Y121.283 E0.03262
G1 X114.635 Y120.044 E0.03262
G1 X115.309 Y118.876 E0.03262
G1 X116.115 Y117.794 E0.03262
G1 X117.040 Y116.813 E0.03262
G1 X118.028 Y115.985 E0.03117
G1 X118.306 Y116.258 F7200.000
G1 F1050
G1 X119.395 Y115.542 E0.03153
G1 X120.560 Y114.956 E0.03153
G1 X121.785 Y114.511 E0.03153
G1 X123.040 Y114.213 E0.03119
G1 X124.348 Y114.059 E0.03186
G1 X125.652 Y114.059 E0.03153
G1 X126.947 Y114.210 E0.03153
G1 X128.215 Y114.511 E0.03153
G1 X129.440 Y114.956 E0.03153
G1 X130.605 Y115.542 E0.03153
G1 X131.694 Y116.258 E0.03153
G1 X132.693 Y117.096 E0.03153
G1 X133.588 Y118.044 E0.03153
G1 X134.366 Y119.090 E0.03153
G1 X135.018 Y120.219 E0.03153
G1 X135.534 Y121.416 E0.03153
G1 X135.908 Y122.665 E0.03153
G1 X136.135 Y123.949 E0.03153
G1 X136.210 Y125.236 E0.03119
G1 X136.135 Y126.551 E0.03186
G1 X135.908 Y127.835 E0.03153
G1 X135.534 Y129.084 E0.03153
G1 X135.018 Y130.281 E0.03153
G1 X134.366 Y131.410 E0.03153
G1 X133.588 Y132.456 E0.03153
G1 X132.693 Y133.404 E0.03153
G1 X131.694 Y134.242 E0.03153
G1 X130.605 Y134.958 E0.03153
G1 X129.440 Y135.544 E0.03153
G1 X128.215 Y135.989 E0.03153
G1 X126.960 Y136.287 E0.03119
G1 X125.652 Y136.441 E0.03186
G1 X124.348 Y136.441 E0.03153
G1 X123.053 Y136.290 E0.03153
G1 X121.785 Y135.989 E0.03153
G1 X120.540 Y135.536 E0.03205
G1 X119.395 Y134.958 E0.03102
G1 X118.306 Y134.242 E0.03152
G1 X117.307 Y133.404 E0.03153
G1 X116.412 Y132.456 E0.03153
G1 X115.634 Y131.410 E0.03153
G1 X114.982 Y130.281 E0.03153
G1 X114.466 Y129.084 E0.03153
G1 X114.092 Y127.835 E0.03153
G1 X113.865 Y126.551 E0.03153
G1 X113.790 Y125.264 E0.03119
G1 X113.865 Y123.949 E0.03186
G1 X114.092 Y122.665 E0.03153
G1 X114.466 Y121.416 E0.03153
G1 X114.982 Y120.219 E0.03153
G1 X115.634 Y119.090 E0.03153
G1 X116.412 Y118.044 E0.03153
G1 X117.307 Y117.096 E0.03153
G1 X118.260 Y116.296 E0.03008
G1 X118.259 Y115.861 F7200.000
G1 F5760
G1 X119.395 Y115.542 E-0.47217
G1 F5760
G1 X120.137 Y115.169 E-0.28783
G1 E-0.04000 F2100.00000
G1 X137.460 Y94.325 F7200.000
G1 E0.80000 F2100.00000
G1 F1680
G1 X138.754 Y93.578 E0.03614
G1 X140.265 Y94.921 E0.04890
G1 X141.382 Y95.719 E0.03320
G1 X142.577 Y96.396 E0.03320
G1 X143.836 Y96.943 E0.03320
G1 X145.146 Y97.354 E0.03320
G1 X149.101 Y98.150 E0.09758
G1 X136.986 Y105.145 E0.33834
G1 X136.986 Y119.209 E0.34013
G1 X134.316 Y116.164 E0.09793
G1 X133.303 Y115.230 E0.03333
G1 X132.196 Y114.408 E0.03333
G1 X131.009 Y113.707 E0.03333
G1 X129.755 Y113.137 E0.03333
G1 X127.831 Y112.497 E0.04903
G1 X127.831 Y111.003 E0.03613
G1 X129.755 Y110.363 E0.04903
G1 X131.009 Y109.793 E0.03333
G1 X132.196 Y109.092 E0.03333
G1 X133.303 Y108.270 E0.03333
G1 X134.316 Y107.336 E0.03333
G1 X136.485 Y104.863 E0.07956
G1 X137.534 Y101.749 E0.07947
G1 X137.833 Y100.409 E0.03320
G1 X137.989 Y99.045 E0.03320
G1 X138.000 Y97.672 E0.03320
G1 X137.867 Y96.306 E0.03320
G1 X137.472 Y94.384 E0.04745
G1 F5760
G1 X138.754 Y93.578 E-0.52443
G1 F5760
G1 X139.262 Y94.030 E-0.23557
G1 E-0.04000 F2100.00000
G1 X136.598 Y105.322 F7200.000
G1 E0.80000 F2100.00000
G1 F840
G1 X136.598 Y118.178 E0.31093
G1 X134.594 Y115.893 E0.07351
G1 X133.550 Y114.931 E0.03433
G1 X132.411 Y114.084 E0.03433
G1 X131.188 Y113.363 E0.03433
G1 X129.896 Y112.775 E0.03433
G1 X128.219 Y112.217 E0.04276
G1 X128.219 Y111.283 E0.02260
G1 X129.896 Y110.725 E0.04276
G1 X131.188 Y110.137 E0.03433
G1 X132.411 Y109.416 E0.03433
G1 X133.550 Y108.569 E0.03433
G1 X134.594 Y107.607 E0.03433
G1 X136.558 Y105.367 E0.07206
G1 F5760
G1 X136.565 Y107.561 E-0.76000
G1 E-0.04000 F2100.00000
G1 X136.210 Y106.352 F7200.000
G1 E0.80000 F2100.00000
G1 F840
G1 X136.210 Y117.148 E0.26109
G1 X134.872 Y115.622 E0.04909
G1 X133.798 Y114.632 E0.03532
G1 X132.626 Y113.761 E0.03532
G1 X131.368 Y113.019 E0.03532
G1 X130.038 Y112.414 E0.03532
G1 X128.606 Y111.937 E0.03650
G1 X128.606 Y111.563 E0.00907
G1 X130.038 Y111.086 E0.03650
G1 X131.368 Y110.481 E0.03532
G1 X132.626 Y109.739 E0.03532
G1 X133.798 Y108.868 E0.03532
G1 X134.872 Y107.878 E0.03532
G1 X136.170 Y106.397 E0.04764
G1 X136.596 Y106.246 F7200.000
G1 F5760
G1 X136.179 Y108.592 E-0.76000
G1 E-0.04000 F2100.00000
G1 X137.896 Y94.521 F7200.000
G1 E0.80000 F2100.00000
G1 F840
G1 X138.705 Y94.054 E0.02260
G1 X140.023 Y95.224 E0.04263
G1 X141.173 Y96.047 E0.03419
G1 X142.403 Y96.743 E0.03419
G1 X143.700 Y97.307 E0.03419
G1 X145.049 Y97.730 E0.03419
G1 X148.018 Y98.328 E0.07324
G1 X136.941 Y104.723 E0.30934
G1 X137.908 Y101.853 E0.07324
G1 X138.216 Y100.473 E0.03419
G1 X138.376 Y99.068 E0.03419
G1 X138.388 Y97.655 E0.03419
G1 X138.251 Y96.248 E0.03419
G1 X137.908 Y94.580 E0.04118
G1 X138.332 Y94.717 F7200.000
G1 F840
G1 X138.657 Y94.530 E0.00907
G1 X139.781 Y95.528 E0.03636
G1 X140.964 Y96.374 E0.03518
G1 X142.230 Y97.091 E0.03518
G1 X143.564 Y97.671 E0.03518
G1 X144.953 Y98.106 E0.03518
G1 X146.935 Y98.505 E0.04890
G1 X137.636 Y103.874 E0.25967
G1 X138.282 Y101.958 E0.04890
G1 X138.599 Y100.538 E0.03518
G1 X138.764 Y99.092 E0.03518
G1 X138.776 Y97.637 E0.03518
G1 X138.635 Y96.189 E0.03518
G1 X138.344 Y94.776 E0.03491
G1 X138.186 Y94.372 F7200.000
G1 F5760
G1 X138.657 Y94.530 E-0.13786
G1 F5760
G1 X139.781 Y95.528 E-0.52066
G1 F5760
G1 X140.019 Y95.698 E-0.10148
G1 E-0.04000 F2100.00000
G1 X136.664 Y95.486 F7200.000
G1 E0.80000 F2100.00000
G1 F1680
G1 X136.906 Y96.858 E0.03371
G1 X136.986 Y98.236 E0.03337
G1 X136.906 Y99.641 E0.03404
G1 X136.664 Y101.014 E0.03373
G1 X136.264 Y102.350 E0.03371
G1 X135.712 Y103.630 E0.03371
G1 X135.015 Y104.837 E0.03371
G1 X134.183 Y105.955 E0.03371
G1 X133.226 Y106.969 E0.03371
G1 X132.158 Y107.865 E0.03371
G1 X130.994 Y108.631 E0.03371
G1 X129.748 Y109.257 E0.03371
G1 X128.438 Y109.734 E0.03371
G1 X127.082 Y110.055 E0.03371
G1 X125.697 Y110.217 E0.03371
G1 X124.303 Y110.217 E0.03371
G1 X122.918 Y110.055 E0.03371
G1 X121.562 Y109.734 E0.03371
G1 X120.231 Y109.249 E0.03425
G1 X119.006 Y108.631 E0.03320
G1 X117.842 Y107.865 E0.03369
G1 X116.774 Y106.969 E0.03371
G1 X115.817 Y105.955 E0.03371
G1 X114.985 Y104.837 E0.03371
G1 X114.288 Y103.630 E0.03371
G1 X113.736 Y102.350 E0.03371
G1 X113.336 Y101.014 E0.03371
G1 X113.094 Y99.642 E0.03371
G1 X113.014 Y98.264 E0.03337
G1 X113.094 Y96.859 E0.03404
G1 X113.336 Y95.486 E0.03373
G1 X113.736 Y94.150 E0.03371
G1 X114.288 Y92.870 E0.03371
G1 X114.985 Y91.663 E0.03371
G1 X115.817 Y90.545 E0.03371
G1 X116.774 Y89.531 E0.03371
G1 X117.842 Y88.635 E0.03371
G1 X119.006 Y87.869 E0.03371
G1 X120.252 Y87.243 E0.03371
G1 X121.562 Y86.766 E0.03371
G1 X122.918 Y86.445 E0.03371
G1 X124.303 Y86.283 E0.03371
G1 X125.697 Y86.283 E0.03371
G1 X127.082 Y86.445 E0.03371
G1 X128.438 Y86.766 E0.03371
G1 X129.734 Y87.238 E0.03337
G1 X130.993 Y87.868 E0.03404
G1 X132.158 Y88.635 E0.03373
G1 X133.226 Y89.531 E0.03371
G1 X134.183 Y90.545 E0.03371
G1 X135.015 Y91.663 E0.03371
G1 X135.712 Y92.870 E0.03371
G1 X136.264 Y94.150 E0.03371
G1 X136.647 Y95.428 E0.03226
G1 X136.286 Y95.575 F7200.000
G1 F1680
G1 X136.520 Y96.903 E0.03262
G1 X136.598 Y98.236 E0.03228
G1 X136.520 Y99.596 E0.03295
G1 X136.286 Y100.925 E0.03263
G1 X135.899 Y102.217 E0.03262
G1 X135.365 Y103.456 E0.03262
G1 X134.691 Y104.624 E0.03262
G1 X133.885 Y105.706 E0.03262
G1 X132.960 Y106.687 E0.03262
G1 X131.926 Y107.554 E0.03262
G1 X130.799 Y108.295 E0.03262
G1 X129.594 Y108.900 E0.03262
G1 X128.327 Y109.362 E0.03262
G1 X127.014 Y109.673 E0.03262
G1 X125.674 Y109.829 E0.03262
G1 X124.326 Y109.829 E0.03262
G1 X122.986 Y109.673 E0.03262
G1 X121.673 Y109.362 E0.03262
G1 X120.385 Y108.893 E0.03315
G1 X119.200 Y108.295 E0.03211
G1 X118.074 Y107.554 E0.03261
G1 X117.040 Y106.687 E0.03262
G1 X116.115 Y105.706 E0.03262
G1 X115.309 Y104.624 E0.03262
G1 X114.635 Y103.456 E0.03262
G1 X114.101 Y102.217 E0.03262
G1 X113.714 Y100.925 E0.03262
G1 X113.480 Y99.597 E0.03262
G1 X113.402 Y98.264 E0.03228
G1 X113.480 Y96.904 E0.03295
G1 X113.714 Y95.575 E0.03263
G1 X114.101 Y94.283 E0.03262
G1 X114.635 Y93.044 E0.03262
G1 X115.309 Y91.876 E0.03262
G1 X116.115 Y90.794 E0.03262
G1 X117.040 Y89.813 E0.03262
G1 X118.074 Y88.946 E0.03262
G1 X119.201 Y88.205 E0.03262
G1 X120.406 Y87.600 E0.03262
G1 X121.673 Y87.138 E0.03262
G1 X122.986 Y86.827 E0.03262
G1 X124.326 Y86.671 E0.03262
G1 X125.674 Y86.671 E0.03262
G1 X127.014 Y86.827 E0.03262
G1 X128.327 Y87.138 E0.03262
G1 X129.581 Y87.595 E0.03228
G1 X130.799 Y88.205 E0.03295
G1 X131.926 Y88.946 E0.03263
G1 X132.960 Y89.813 E0.03262
G1 X133.885 Y90.794 E0.03262
G1 X134.691 Y91.876 E0.03262
G1 X135.365 Y93.044 E0.03262
G1 X135.899 Y94.283 E0.03262
G1 X136.269 Y95.518 E0.03117
G1 X135.908 Y95.665 F7200.000
G1 F1050
G1 X136.135 Y96.949 E0.03153
G1 X136.210 Y98.236 E0.03119
G1 X136.135 Y99.551 E0.03186
G1 X135.908 Y100.835 E0.03153
G1 X135.534 Y102.084 E0.03153
G1 X135.018 Y103.281 E0.03153
G1 X134.366 Y104.410 E0.03153
G1 X133.588 Y105.456 E0.03153
G1 X132.693 Y106.404 E0.03153
G1 X131.694 Y107.242 E0.03153
G1 X130.605 Y107.958 E0.03153
G1 X129.440 Y108.544 E0.03153
G1 X128.215 Y108.989 E0.03153
G1 X126.947 Y109.290 E0.03153
G1 X125.652 Y109.441 E0.03153
G1 X124.348 Y109.441 E0.03153
G1 X123.053 Y109.290 E0.03153
G1 X121.785 Y108.989 E0.03153
G1 X120.540 Y108.536 E0.03205
G1 X119.395 Y107.958 E0.03102
G1 X118.306 Y107.242 E0.03152
G1 X117.307 Y106.404 E0.03153
G1 X116.412 Y105.456 E0.03153
G1 X115.634 Y104.410 E0.03153
G1 X114.982 Y103.281 E0.03153
G1 X114.466 Y102.084 E0.03153
G1 X114.092 Y100.835 E0.03153
G1 X113.865 Y99.551 E0.03153
G1 X113.790 Y98.264 E0.03119
G1 X113.865 Y96.949 E0.03186
G1 X114.092 Y95.665 E0.03153
G1 X114.466 Y94.416 E0.03153
G1 X114.982 Y93.219 E0.03153
G1 X115.634 Y92.090 E0.03153
G1 X116.412 Y91.044 E0.03153
G1 X117.307 Y90.096 E0.03153
G1 X118.306 Y89.258 E0.03153
G1 X119.395 Y88.542 E0.03153
G1 X120.560 Y87.956 E0.03153
G1 X121.785 Y87.511 E0.03153
