( Made using CamBam - http://www.cambam.co.uk )
( Display-Gehaeuse 7/20/2014 2:41:27 PM )
( T6 : 6.0 )
G21 G90 G64 G40
G0 Z3.0
( T6 : 6.0 )
T6 M6
( Schalter )
G17
M3 S1000
G0 X171.0 Y173.0
G0 Z1.0
G1 F300.0 Z-0.5
G1 F800.0 Y196.9
G1 X187.0
G1 Y173.0
G1 X171.0
G1 F300.0 Z-1.0
G1 F800.0 Y196.9
G1 X187.0
G1 Y173.0
G1 X171.0
G1 F300.0 Z-1.5
G1 F800.0 Y196.9
G1 X187.0
G1 Y173.0
G1 X171.0
G1 F300.0 Z-2.0
G1 F800.0 Y196.9
G1 X187.0
G1 Y173.0
G1 X171.0
G1 F300.0 Z-2.5
G1 F800.0 Y196.9
G1 X187.0
G1 Y173.0
G1 X171.0
G1 F300.0 Z-3.0
G1 F800.0 Y196.9
G1 X187.0
G1 Y173.0
G1 X171.0
G1 F300.0 Z-3.5
G1 F800.0 Y196.9
G1 X187.0
G1 Y173.0
G1 X171.0
G1 F300.0 Z-4.0
G1 F800.0 Y196.9
G1 X187.0
G1 Y173.0
G1 X171.0
G1 F300.0 Z-4.5
G1 F800.0 Y196.9
G1 X187.0
G1 Y173.0
G1 X171.0
G1 F300.0 Z-5.0
G1 F800.0 Y196.9
G1 X187.0
G1 Y173.0
G1 X171.0
G1 F300.0 Z-5.5
G1 F800.0 Y196.9
G1 X187.0
G1 Y173.0
G1 X171.0
G1 F300.0 Z-6.0
G1 F800.0 Y196.9
G1 X187.0
G1 Y173.0
G1 X171.0
G1 F300.0 Z-6.5
G1 F800.0 Y196.9
G1 X187.0
G1 Y173.0
G1 X171.0
G1 F300.0 Z-7.0
G1 F800.0 Y196.9
G1 X187.0
G1 Y173.0
G1 X171.0
G1 F300.0 Z-7.5
G1 F800.0 Y196.9
G1 X187.0
G1 Y173.0
G1 X171.0
G1 F300.0 Z-8.0
G1 F800.0 Y196.9
G1 X187.0
G1 Y173.0
G1 X171.0
G1 F300.0 Z-8.5
G1 F800.0 Y196.9
G1 X187.0
G1 Y173.0
G1 X171.0
G1 F300.0 Z-9.0
G1 F800.0 Y196.9
G1 X187.0
G1 Y173.0
G1 X171.0
G1 F300.0 Z-9.5
G1 F800.0 Y196.9
G1 X187.0
G1 Y173.0
G1 X171.0
G1 F300.0 Z-10.0
G1 F800.0 Y196.9
G1 X187.0
G1 Y173.0
G1 X171.0
G1 F300.0 Z-10.1
G1 F800.0 Y196.9
G1 X187.0
G1 Y173.0
G1 X171.0
G0 Z3.0
M5
M30
