( Made using CamBam - http://www.cambam.co.uk )
( Display-Gehaeuse 7/20/2014 11:42:23 AM )
( T0 : 0.0 )
( T3 : 3.0 )
( T6 : 6.0 )
G21 G90 G64 G40
G0 Z3.0
( T6 : 6.0 )
T6 M6
( DisplayRahmen )
G17
M3 S1000
G0 X17.0 Y17.0
G0 Z1.0
G1 F300.0 Z-0.5
G1 F800.0 Y111.0
G1 X176.0
G1 Y17.0
G1 X17.0
G1 F300.0 Z-1.0
G1 F800.0 Y111.0
G1 X176.0
G1 Y17.0
G1 X17.0
G1 F300.0 Z-1.5
G1 F800.0 Y111.0
G1 X176.0
G1 Y17.0
G1 X17.0
G1 F300.0 Z-2.0
G1 F800.0 Y111.0
G1 X176.0
G1 Y17.0
G1 X17.0
G1 F300.0 Z-2.5
G1 F800.0 Y111.0
G1 X176.0
G1 Y17.0
G1 X17.0
G1 F300.0 Z-3.0
G1 F800.0 Y111.0
G1 X176.0
G1 Y17.0
G1 X17.0
G1 F300.0 Z-3.5
G1 F800.0 Y111.0
G1 X176.0
G1 Y17.0
G1 X17.0
G1 F300.0 Z-4.0
G1 F800.0 Y111.0
G1 X176.0
G1 Y17.0
G1 X17.0
G1 F300.0 Z-4.5
G1 F800.0 Y111.0
G1 X176.0
G1 Y17.0
G1 X17.0
G1 F300.0 Z-5.0
G1 F800.0 Y111.0
G1 X176.0
G1 Y17.0
G1 X17.0
G1 F300.0 Z-5.5
G1 F800.0 Y111.0
G1 X176.0
G1 Y17.0
G1 X17.0
G1 F300.0 Z-6.0
G1 F800.0 Y111.0
G1 X176.0
G1 Y17.0
G1 X17.0
( Ausschnitt )
S1000
G0 Z-0.5
G1 F300.0 X19.5 Y19.5
G1 F800.0 Y105.2
G1 X170.2
G1 Y19.5
G1 X19.5
G1 F300.0 Z-1.0
G1 F800.0 Y105.2
G1 X170.2
G1 Y19.5
G1 X19.5
G1 F300.0 Z-1.5
G1 F800.0 Y105.2
G1 X170.2
G1 Y19.5
G1 X19.5
G1 F300.0 Z-2.0
G1 F800.0 Y105.2
G1 X170.2
G1 Y19.5
G1 X19.5
G1 F300.0 Z-2.5
G1 F800.0 Y105.2
G1 X170.2
G1 Y19.5
G1 X19.5
G1 F300.0 Z-3.0
G1 F800.0 Y105.2
G1 X170.2
G1 Y19.5
G1 X19.5
G1 F300.0 Z-3.5
G1 F800.0 Y105.2
G1 X170.2
G1 Y19.5
G1 X19.5
G1 F300.0 Z-4.0
G1 F800.0 Y105.2
G1 X170.2
G1 Y19.5
G1 X19.5
G1 F300.0 Z-4.5
G1 F800.0 Y105.2
G1 X170.2
G1 Y19.5
G1 X19.5
G1 F300.0 Z-5.0
G1 F800.0 Y105.2
G1 X170.2
G1 Y19.5
G1 X19.5
G1 F300.0 Z-5.5
G1 F800.0 Y105.2
G1 X170.2
G1 Y19.5
G1 X19.5
G1 F300.0 Z-6.0
G1 F800.0 Y105.2
G1 X170.2
G1 Y19.5
G1 X19.5
G1 F300.0 Z-6.5
G1 F800.0 Y105.2
G1 X170.2
G1 Y19.5
G1 X19.5
G1 F300.0 Z-7.0
G1 F800.0 Y105.2
G1 X170.2
G1 Y19.5
G1 X19.5
G1 F300.0 Z-7.5
G1 F800.0 Y105.2
G1 X170.2
G1 Y19.5
G1 X19.5
G1 F300.0 Z-8.0
G1 F800.0 Y105.2
G1 X170.2
G1 Y19.5
G1 X19.5
G1 F300.0 Z-8.5
G1 F800.0 Y53.4
G1 Y54.9 Z-8.1
G1 Y60.9
G1 Y62.4 Z-8.5
G1 Y105.2
G1 X44.5
G1 X46.0 Z-8.1
G1 X52.0
G1 X53.5 Z-8.5
G1 X127.3
G1 X128.8 Z-8.1
G1 X134.8
G1 X136.3 Z-8.5
G1 X170.2
G1 Y71.3
G1 Y69.8 Z-8.1
G1 Y63.8
G1 Y62.3 Z-8.5
G1 Y19.5
G1 X145.2
G1 X143.7 Z-8.1
G1 X137.7
G1 X136.2 Z-8.5
G1 X62.4
G1 X60.9 Z-8.1
G1 X54.9
G1 X53.4 Z-8.5
G1 X19.5
G1 F300.0 Z-9.0
G1 F800.0 Y53.4
G1 Y54.9 Z-8.1
G1 Y60.9
G1 Y62.4 Z-9.0
G1 Y105.2
G1 X44.5
G1 X46.0 Z-8.1
G1 X52.0
G1 X53.5 Z-9.0
G1 X127.3
G1 X128.8 Z-8.1
G1 X134.8
G1 X136.3 Z-9.0
G1 X170.2
G1 Y71.3
G1 Y69.8 Z-8.1
G1 Y63.8
G1 Y62.3 Z-9.0
G1 Y19.5
G1 X145.2
G1 X143.7 Z-8.1
G1 X137.7
G1 X136.2 Z-9.0
G1 X62.4
G1 X60.9 Z-8.1
G1 X54.9
G1 X53.4 Z-9.0
G1 X19.5
G1 F300.0 Z-9.5
G1 F800.0 Y53.4
G1 Y54.9 Z-8.1
G1 Y60.9
G1 Y62.4 Z-9.5
G1 Y105.2
G1 X44.5
G1 X46.0 Z-8.1
G1 X52.0
G1 X53.5 Z-9.5
G1 X127.3
G1 X128.8 Z-8.1
G1 X134.8
G1 X136.3 Z-9.5
G1 X170.2
G1 Y71.3
G1 Y69.8 Z-8.1
G1 Y63.8
G1 Y62.3 Z-9.5
G1 Y19.5
G1 X145.2
G1 X143.7 Z-8.1
G1 X137.7
G1 X136.2 Z-9.5
G1 X62.4
G1 X60.9 Z-8.1
G1 X54.9
G1 X53.4 Z-9.5
G1 X19.5
G1 F300.0 Z-10.0
G1 F800.0 Y53.4
G1 Y54.9 Z-8.1
G1 Y60.9
G1 Y62.4 Z-10.0
G1 Y105.2
G1 X44.5
G1 X46.0 Z-8.1
G1 X52.0
G1 X53.5 Z-10.0
G1 X127.3
G1 X128.8 Z-8.1
G1 X134.8
G1 X136.3 Z-10.0
G1 X170.2
G1 Y71.3
G1 Y69.8 Z-8.1
G1 Y63.8
G1 Y62.3 Z-10.0
G1 Y19.5
G1 X145.2
G1 X143.7 Z-8.1
G1 X137.7
G1 X136.2 Z-10.0
G1 X62.4
G1 X60.9 Z-8.1
G1 X54.9
G1 X53.4 Z-10.0
G1 X19.5
G1 F300.0 Z-10.1
G1 F800.0 Y53.4
G1 Y54.9 Z-8.1
G1 Y60.9
G1 Y62.4 Z-10.1
G1 Y105.2
G1 X44.5
G1 X46.0 Z-8.1
G1 X52.0
G1 X53.5 Z-10.1
G1 X127.3
G1 X128.8 Z-8.1
G1 X134.8
G1 X136.3 Z-10.1
G1 X170.2
G1 Y71.3
G1 Y69.8 Z-8.1
G1 Y63.8
G1 Y62.3 Z-10.1
G1 Y19.5
G1 X145.2
G1 X143.7 Z-8.1
G1 X137.7
G1 X136.2 Z-10.1
G1 X62.4
G1 X60.9 Z-8.1
G1 X54.9
G1 X53.4 Z-10.1
G1 X19.5
( Display-Besfestigungen )
S1000
G0 Z3.0
G0 X32.0 Y116.5
G0 Z3.0
G0 X33.25 Y116.5
G0 Z1.0
G1 F300.0 Z0.0
G2 F800.0 X31.375 Y115.4175 Z-0.1333 I-1.25 J0.0
G2 Y117.5825 Z-0.2667 I0.625 J1.0825
G2 X33.25 Y116.5 Z-0.4 I0.625 J-1.0825
G2 X31.375 Y115.4175 Z-0.5333 I-1.25 J0.0
G2 Y117.5825 Z-0.6667 I0.625 J1.0825
G2 X33.25 Y116.5 Z-0.8 I0.625 J-1.0825
G2 X31.375 Y115.4175 Z-0.9333 I-1.25 J0.0
G2 Y117.5825 Z-1.0667 I0.625 J1.0825
G2 X33.25 Y116.5 Z-1.2 I0.625 J-1.0825
G2 X31.375 Y115.4175 Z-1.3333 I-1.25 J0.0
G2 Y117.5825 Z-1.4667 I0.625 J1.0825
G2 X33.25 Y116.5 Z-1.6 I0.625 J-1.0825
G2 X31.375 Y115.4175 Z-1.7333 I-1.25 J0.0
G2 Y117.5825 Z-1.8667 I0.625 J1.0825
G2 X33.25 Y116.5 Z-2.0 I0.625 J-1.0825
G2 X31.375 Y115.4175 Z-2.1333 I-1.25 J0.0
G2 Y117.5825 Z-2.2667 I0.625 J1.0825
G2 X33.25 Y116.5 Z-2.4 I0.625 J-1.0825
G2 X31.375 Y115.4175 Z-2.5333 I-1.25 J0.0
G2 Y117.5825 Z-2.6667 I0.625 J1.0825
G2 X33.25 Y116.5 Z-2.8 I0.625 J-1.0825
G2 X31.375 Y115.4175 Z-2.9333 I-1.25 J0.0
G2 Y117.5825 Z-3.0667 I0.625 J1.0825
G2 X33.25 Y116.5 Z-3.2 I0.625 J-1.0825
G2 X31.375 Y115.4175 Z-3.3333 I-1.25 J0.0
G2 Y117.5825 Z-3.4667 I0.625 J1.0825
G2 X33.25 Y116.5 Z-3.6 I0.625 J-1.0825
G2 X31.375 Y115.4175 Z-3.7333 I-1.25 J0.0
G2 Y117.5825 Z-3.8667 I0.625 J1.0825
G2 X33.25 Y116.5 Z-4.0 I0.625 J-1.0825
G2 X31.375 Y115.4175 Z-4.1333 I-1.25 J0.0
G2 Y117.5825 Z-4.2667 I0.625 J1.0825
G2 X33.25 Y116.5 Z-4.4 I0.625 J-1.0825
G2 X31.375 Y115.4175 Z-4.5333 I-1.25 J0.0
G2 Y117.5825 Z-4.6667 I0.625 J1.0825
G2 X33.25 Y116.5 Z-4.8 I0.625 J-1.0825
G2 X31.375 Y115.4175 Z-4.9333 I-1.25 J0.0
G2 Y117.5825 Z-5.0667 I0.625 J1.0825
G2 X33.25 Y116.5 Z-5.2 I0.625 J-1.0825
G2 X31.375 Y115.4175 Z-5.3333 I-1.25 J0.0
G2 Y117.5825 Z-5.4667 I0.625 J1.0825
G2 X33.25 Y116.5 Z-5.6 I0.625 J-1.0825
G2 X31.375 Y115.4175 Z-5.7333 I-1.25 J0.0
G2 Y117.5825 Z-5.8667 I0.625 J1.0825
G2 X33.25 Y116.5 Z-6.0 I0.625 J-1.0825
G2 X31.375 Y115.4175 Z-6.1333 I-1.25 J0.0
G2 Y117.5825 Z-6.2667 I0.625 J1.0825
G2 X33.25 Y116.5 Z-6.4 I0.625 J-1.0825
G2 X31.375 Y115.4175 Z-6.5333 I-1.25 J0.0
G2 Y117.5825 Z-6.6667 I0.625 J1.0825
G2 X33.25 Y116.5 Z-6.8 I0.625 J-1.0825
G2 X31.375 Y115.4175 Z-6.9333 I-1.25 J0.0
G2 Y117.5825 Z-7.0667 I0.625 J1.0825
G2 X33.25 Y116.5 Z-7.2 I0.625 J-1.0825
G2 X31.375 Y115.4175 Z-7.3333 I-1.25 J0.0
G2 Y117.5825 Z-7.4667 I0.625 J1.0825
G2 X33.25 Y116.5 Z-7.6 I0.625 J-1.0825
G2 X31.375 Y115.4175 Z-7.7333 I-1.25 J0.0
G2 Y117.5825 Z-7.8667 I0.625 J1.0825
G2 X33.25 Y116.5 Z-8.0 I0.625 J-1.0825
G2 X31.375 Y115.4175 Z-8.1333 I-1.25 J0.0
G2 Y117.5825 Z-8.2667 I0.625 J1.0825
G2 X33.25 Y116.5 Z-8.4 I0.625 J-1.0825
G2 X31.375 Y115.4175 Z-8.5333 I-1.25 J0.0
G2 Y117.5825 Z-8.6667 I0.625 J1.0825
G2 X33.25 Y116.5 Z-8.8 I0.625 J-1.0825
G2 X31.375 Y115.4175 Z-8.9333 I-1.25 J0.0
G2 Y117.5825 Z-9.0667 I0.625 J1.0825
G2 X33.25 Y116.5 Z-9.2 I0.625 J-1.0825
G2 X31.375 Y115.4175 Z-9.3333 I-1.25 J0.0
G2 Y117.5825 Z-9.4667 I0.625 J1.0825
G2 X33.25 Y116.5 Z-9.6 I0.625 J-1.0825
G2 X31.375 Y115.4175 Z-9.7333 I-1.25 J0.0
G2 Y117.5825 Z-9.8667 I0.625 J1.0825
G2 X33.25 Y116.5 Z-10.0 I0.625 J-1.0825
G2 X31.375 Y115.4175 Z-10.1333 I-1.25 J0.0
G2 Y117.5825 Z-10.2667 I0.625 J1.0825
G2 X33.25 Y116.5 Z-10.4 I0.625 J-1.0825
G2 X32.0 Y115.25 Z-10.5 I-1.25 J0.0
G2 X30.9175 Y117.125 I0.0 J1.25
G2 X33.0825 I1.0825 J-0.625
G2 X32.0 Y115.25 I-1.0825 J-0.625
G0 Z3.0
G0 X33.25 Y11.5
G0 Z1.0
G1 F300.0 Z0.0
G2 F800.0 X31.375 Y10.4175 Z-0.1333 I-1.25 J0.0
G2 Y12.5825 Z-0.2667 I0.625 J1.0825
G2 X33.25 Y11.5 Z-0.4 I0.625 J-1.0825
G2 X31.375 Y10.4175 Z-0.5333 I-1.25 J0.0
G2 Y12.5825 Z-0.6667 I0.625 J1.0825
G2 X33.25 Y11.5 Z-0.8 I0.625 J-1.0825
G2 X31.375 Y10.4175 Z-0.9333 I-1.25 J0.0
G2 Y12.5825 Z-1.0667 I0.625 J1.0825
G2 X33.25 Y11.5 Z-1.2 I0.625 J-1.0825
G2 X31.375 Y10.4175 Z-1.3333 I-1.25 J0.0
G2 Y12.5825 Z-1.4667 I0.625 J1.0825
G2 X33.25 Y11.5 Z-1.6 I0.625 J-1.0825
G2 X31.375 Y10.4175 Z-1.7333 I-1.25 J0.0
G2 Y12.5825 Z-1.8667 I0.625 J1.0825
G2 X33.25 Y11.5 Z-2.0 I0.625 J-1.0825
G2 X31.375 Y10.4175 Z-2.1333 I-1.25 J0.0
G2 Y12.5825 Z-2.2667 I0.625 J1.0825
G2 X33.25 Y11.5 Z-2.4 I0.625 J-1.0825
G2 X31.375 Y10.4175 Z-2.5333 I-1.25 J0.0
G2 Y12.5825 Z-2.6667 I0.625 J1.0825
G2 X33.25 Y11.5 Z-2.8 I0.625 J-1.0825
G2 X31.375 Y10.4175 Z-2.9333 I-1.25 J0.0
G2 Y12.5825 Z-3.0667 I0.625 J1.0825
G2 X33.25 Y11.5 Z-3.2 I0.625 J-1.0825
G2 X31.375 Y10.4175 Z-3.3333 I-1.25 J0.0
G2 Y12.5825 Z-3.4667 I0.625 J1.0825
G2 X33.25 Y11.5 Z-3.6 I0.625 J-1.0825
G2 X31.375 Y10.4175 Z-3.7333 I-1.25 J0.0
G2 Y12.5825 Z-3.8667 I0.625 J1.0825
G2 X33.25 Y11.5 Z-4.0 I0.625 J-1.0825
G2 X31.375 Y10.4175 Z-4.1333 I-1.25 J0.0
G2 Y12.5825 Z-4.2667 I0.625 J1.0825
G2 X33.25 Y11.5 Z-4.4 I0.625 J-1.0825
G2 X31.375 Y10.4175 Z-4.5333 I-1.25 J0.0
G2 Y12.5825 Z-4.6667 I0.625 J1.0825
G2 X33.25 Y11.5 Z-4.8 I0.625 J-1.0825
G2 X31.375 Y10.4175 Z-4.9333 I-1.25 J0.0
G2 Y12.5825 Z-5.0667 I0.625 J1.0825
G2 X33.25 Y11.5 Z-5.2 I0.625 J-1.0825
G2 X31.375 Y10.4175 Z-5.3333 I-1.25 J0.0
G2 Y12.5825 Z-5.4667 I0.625 J1.0825
G2 X33.25 Y11.5 Z-5.6 I0.625 J-1.0825
G2 X31.375 Y10.4175 Z-5.7333 I-1.25 J0.0
G2 Y12.5825 Z-5.8667 I0.625 J1.0825
G2 X33.25 Y11.5 Z-6.0 I0.625 J-1.0825
G2 X31.375 Y10.4175 Z-6.1333 I-1.25 J0.0
G2 Y12.5825 Z-6.2667 I0.625 J1.0825
G2 X33.25 Y11.5 Z-6.4 I0.625 J-1.0825
G2 X31.375 Y10.4175 Z-6.5333 I-1.25 J0.0
G2 Y12.5825 Z-6.6667 I0.625 J1.0825
G2 X33.25 Y11.5 Z-6.8 I0.625 J-1.0825
G2 X31.375 Y10.4175 Z-6.9333 I-1.25 J0.0
G2 Y12.5825 Z-7.0667 I0.625 J1.0825
G2 X33.25 Y11.5 Z-7.2 I0.625 J-1.0825
G2 X31.375 Y10.4175 Z-7.3333 I-1.25 J0.0
G2 Y12.5825 Z-7.4667 I0.625 J1.0825
G2 X33.25 Y11.5 Z-7.6 I0.625 J-1.0825
G2 X31.375 Y10.4175 Z-7.7333 I-1.25 J0.0
G2 Y12.5825 Z-7.8667 I0.625 J1.0825
G2 X33.25 Y11.5 Z-8.0 I0.625 J-1.0825
G2 X31.375 Y10.4175 Z-8.1333 I-1.25 J0.0
G2 Y12.5825 Z-8.2667 I0.625 J1.0825
G2 X33.25 Y11.5 Z-8.4 I0.625 J-1.0825
G2 X31.375 Y10.4175 Z-8.5333 I-1.25 J0.0
G2 Y12.5825 Z-8.6667 I0.625 J1.0825
G2 X33.25 Y11.5 Z-8.8 I0.625 J-1.0825
G2 X31.375 Y10.4175 Z-8.9333 I-1.25 J0.0
G2 Y12.5825 Z-9.0667 I0.625 J1.0825
G2 X33.25 Y11.5 Z-9.2 I0.625 J-1.0825
G2 X31.375 Y10.4175 Z-9.3333 I-1.25 J0.0
G2 Y12.5825 Z-9.4667 I0.625 J1.0825
G2 X33.25 Y11.5 Z-9.6 I0.625 J-1.0825
G2 X31.375 Y10.4175 Z-9.7333 I-1.25 J0.0
G2 Y12.5825 Z-9.8667 I0.625 J1.0825
G2 X33.25 Y11.5 Z-10.0 I0.625 J-1.0825
G2 X31.375 Y10.4175 Z-10.1333 I-1.25 J0.0
G2 Y12.5825 Z-10.2667 I0.625 J1.0825
G2 X33.25 Y11.5 Z-10.4 I0.625 J-1.0825
G2 X32.0 Y10.25 Z-10.5 I-1.25 J0.0
G2 X30.9175 Y12.125 I0.0 J1.25
G2 X33.0825 I1.0825 J-0.625
G2 X32.0 Y10.25 I-1.0825 J-0.625
G0 Z3.0
G0 X162.25 Y11.5
G0 Z1.0
G1 F300.0 Z0.0
G2 F800.0 X160.375 Y10.4175 Z-0.1333 I-1.25 J0.0
G2 Y12.5825 Z-0.2667 I0.625 J1.0825
G2 X162.25 Y11.5 Z-0.4 I0.625 J-1.0825
G2 X160.375 Y10.4175 Z-0.5333 I-1.25 J0.0
G2 Y12.5825 Z-0.6667 I0.625 J1.0825
G2 X162.25 Y11.5 Z-0.8 I0.625 J-1.0825
G2 X160.375 Y10.4175 Z-0.9333 I-1.25 J0.0
G2 Y12.5825 Z-1.0667 I0.625 J1.0825
G2 X162.25 Y11.5 Z-1.2 I0.625 J-1.0825
G2 X160.375 Y10.4175 Z-1.3333 I-1.25 J0.0
G2 Y12.5825 Z-1.4667 I0.625 J1.0825
G2 X162.25 Y11.5 Z-1.6 I0.625 J-1.0825
G2 X160.375 Y10.4175 Z-1.7333 I-1.25 J0.0
G2 Y12.5825 Z-1.8667 I0.625 J1.0825
G2 X162.25 Y11.5 Z-2.0 I0.625 J-1.0825
G2 X160.375 Y10.4175 Z-2.1333 I-1.25 J0.0
G2 Y12.5825 Z-2.2667 I0.625 J1.0825
G2 X162.25 Y11.5 Z-2.4 I0.625 J-1.0825
G2 X160.375 Y10.4175 Z-2.5333 I-1.25 J0.0
G2 Y12.5825 Z-2.6667 I0.625 J1.0825
G2 X162.25 Y11.5 Z-2.8 I0.625 J-1.0825
G2 X160.375 Y10.4175 Z-2.9333 I-1.25 J0.0
G2 Y12.5825 Z-3.0667 I0.625 J1.0825
G2 X162.25 Y11.5 Z-3.2 I0.625 J-1.0825
G2 X160.375 Y10.4175 Z-3.3333 I-1.25 J0.0
G2 Y12.5825 Z-3.4667 I0.625 J1.0825
G2 X162.25 Y11.5 Z-3.6 I0.625 J-1.0825
G2 X160.375 Y10.4175 Z-3.7333 I-1.25 J0.0
G2 Y12.5825 Z-3.8667 I0.625 J1.0825
G2 X162.25 Y11.5 Z-4.0 I0.625 J-1.0825
G2 X160.375 Y10.4175 Z-4.1333 I-1.25 J0.0
G2 Y12.5825 Z-4.2667 I0.625 J1.0825
G2 X162.25 Y11.5 Z-4.4 I0.625 J-1.0825
G2 X160.375 Y10.4175 Z-4.5333 I-1.25 J0.0
G2 Y12.5825 Z-4.6667 I0.625 J1.0825
G2 X162.25 Y11.5 Z-4.8 I0.625 J-1.0825
G2 X160.375 Y10.4175 Z-4.9333 I-1.25 J0.0
G2 Y12.5825 Z-5.0667 I0.625 J1.0825
G2 X162.25 Y11.5 Z-5.2 I0.625 J-1.0825
G2 X160.375 Y10.4175 Z-5.3333 I-1.25 J0.0
G2 Y12.5825 Z-5.4667 I0.625 J1.0825
G2 X162.25 Y11.5 Z-5.6 I0.625 J-1.0825
G2 X160.375 Y10.4175 Z-5.7333 I-1.25 J0.0
G2 Y12.5825 Z-5.8667 I0.625 J1.0825
G2 X162.25 Y11.5 Z-6.0 I0.625 J-1.0825
G2 X160.375 Y10.4175 Z-6.1333 I-1.25 J0.0
G2 Y12.5825 Z-6.2667 I0.625 J1.0825
G2 X162.25 Y11.5 Z-6.4 I0.625 J-1.0825
G2 X160.375 Y10.4175 Z-6.5333 I-1.25 J0.0
G2 Y12.5825 Z-6.6667 I0.625 J1.0825
G2 X162.25 Y11.5 Z-6.8 I0.625 J-1.0825
G2 X160.375 Y10.4175 Z-6.9333 I-1.25 J0.0
G2 Y12.5825 Z-7.0667 I0.625 J1.0825
G2 X162.25 Y11.5 Z-7.2 I0.625 J-1.0825
G2 X160.375 Y10.4175 Z-7.3333 I-1.25 J0.0
G2 Y12.5825 Z-7.4667 I0.625 J1.0825
G2 X162.25 Y11.5 Z-7.6 I0.625 J-1.0825
G2 X160.375 Y10.4175 Z-7.7333 I-1.25 J0.0
G2 Y12.5825 Z-7.8667 I0.625 J1.0825
G2 X162.25 Y11.5 Z-8.0 I0.625 J-1.0825
G2 X160.375 Y10.4175 Z-8.1333 I-1.25 J0.0
G2 Y12.5825 Z-8.2667 I0.625 J1.0825
G2 X162.25 Y11.5 Z-8.4 I0.625 J-1.0825
G2 X160.375 Y10.4175 Z-8.5333 I-1.25 J0.0
G2 Y12.5825 Z-8.6667 I0.625 J1.0825
G2 X162.25 Y11.5 Z-8.8 I0.625 J-1.0825
G2 X160.375 Y10.4175 Z-8.9333 I-1.25 J0.0
G2 Y12.5825 Z-9.0667 I0.625 J1.0825
G2 X162.25 Y11.5 Z-9.2 I0.625 J-1.0825
G2 X160.375 Y10.4175 Z-9.3333 I-1.25 J0.0
G2 Y12.5825 Z-9.4667 I0.625 J1.0825
G2 X162.25 Y11.5 Z-9.6 I0.625 J-1.0825
G2 X160.375 Y10.4175 Z-9.7333 I-1.25 J0.0
G2 Y12.5825 Z-9.8667 I0.625 J1.0825
G2 X162.25 Y11.5 Z-10.0 I0.625 J-1.0825
G2 X160.375 Y10.4175 Z-10.1333 I-1.25 J0.0
G2 Y12.5825 Z-10.2667 I0.625 J1.0825
G2 X162.25 Y11.5 Z-10.4 I0.625 J-1.0825
G2 X161.0 Y10.25 Z-10.5 I-1.25 J0.0
G2 X159.9175 Y12.125 I0.0 J1.25
G2 X162.0825 I1.0825 J-0.625
G2 X161.0 Y10.25 I-1.0825 J-0.625
G0 Z3.0
G0 X162.25 Y116.5
G0 Z1.0
G1 F300.0 Z0.0
G2 F800.0 X160.375 Y115.4175 Z-0.1333 I-1.25 J0.0
G2 Y117.5825 Z-0.2667 I0.625 J1.0825
G2 X162.25 Y116.5 Z-0.4 I0.625 J-1.0825
G2 X160.375 Y115.4175 Z-0.5333 I-1.25 J0.0
G2 Y117.5825 Z-0.6667 I0.625 J1.0825
G2 X162.25 Y116.5 Z-0.8 I0.625 J-1.0825
G2 X160.375 Y115.4175 Z-0.9333 I-1.25 J0.0
G2 Y117.5825 Z-1.0667 I0.625 J1.0825
G2 X162.25 Y116.5 Z-1.2 I0.625 J-1.0825
G2 X160.375 Y115.4175 Z-1.3333 I-1.25 J0.0
G2 Y117.5825 Z-1.4667 I0.625 J1.0825
G2 X162.25 Y116.5 Z-1.6 I0.625 J-1.0825
G2 X160.375 Y115.4175 Z-1.7333 I-1.25 J0.0
G2 Y117.5825 Z-1.8667 I0.625 J1.0825
G2 X162.25 Y116.5 Z-2.0 I0.625 J-1.0825
G2 X160.375 Y115.4175 Z-2.1333 I-1.25 J0.0
G2 Y117.5825 Z-2.2667 I0.625 J1.0825
G2 X162.25 Y116.5 Z-2.4 I0.625 J-1.0825
G2 X160.375 Y115.4175 Z-2.5333 I-1.25 J0.0
G2 Y117.5825 Z-2.6667 I0.625 J1.0825
G2 X162.25 Y116.5 Z-2.8 I0.625 J-1.0825
G2 X160.375 Y115.4175 Z-2.9333 I-1.25 J0.0
G2 Y117.5825 Z-3.0667 I0.625 J1.0825
G2 X162.25 Y116.5 Z-3.2 I0.625 J-1.0825
G2 X160.375 Y115.4175 Z-3.3333 I-1.25 J0.0
G2 Y117.5825 Z-3.4667 I0.625 J1.0825
G2 X162.25 Y116.5 Z-3.6 I0.625 J-1.0825
G2 X160.375 Y115.4175 Z-3.7333 I-1.25 J0.0
G2 Y117.5825 Z-3.8667 I0.625 J1.0825
G2 X162.25 Y116.5 Z-4.0 I0.625 J-1.0825
G2 X160.375 Y115.4175 Z-4.1333 I-1.25 J0.0
G2 Y117.5825 Z-4.2667 I0.625 J1.0825
G2 X162.25 Y116.5 Z-4.4 I0.625 J-1.0825
G2 X160.375 Y115.4175 Z-4.5333 I-1.25 J0.0
G2 Y117.5825 Z-4.6667 I0.625 J1.0825
G2 X162.25 Y116.5 Z-4.8 I0.625 J-1.0825
G2 X160.375 Y115.4175 Z-4.9333 I-1.25 J0.0
G2 Y117.5825 Z-5.0667 I0.625 J1.0825
G2 X162.25 Y116.5 Z-5.2 I0.625 J-1.0825
G2 X160.375 Y115.4175 Z-5.3333 I-1.25 J0.0
G2 Y117.5825 Z-5.4667 I0.625 J1.0825
G2 X162.25 Y116.5 Z-5.6 I0.625 J-1.0825
G2 X160.375 Y115.4175 Z-5.7333 I-1.25 J0.0
G2 Y117.5825 Z-5.8667 I0.625 J1.0825
G2 X162.25 Y116.5 Z-6.0 I0.625 J-1.0825
G2 X160.375 Y115.4175 Z-6.1333 I-1.25 J0.0
G2 Y117.5825 Z-6.2667 I0.625 J1.0825
G2 X162.25 Y116.5 Z-6.4 I0.625 J-1.0825
G2 X160.375 Y115.4175 Z-6.5333 I-1.25 J0.0
G2 Y117.5825 Z-6.6667 I0.625 J1.0825
G2 X162.25 Y116.5 Z-6.8 I0.625 J-1.0825
G2 X160.375 Y115.4175 Z-6.9333 I-1.25 J0.0
G2 Y117.5825 Z-7.0667 I0.625 J1.0825
G2 X162.25 Y116.5 Z-7.2 I0.625 J-1.0825
G2 X160.375 Y115.4175 Z-7.3333 I-1.25 J0.0
G2 Y117.5825 Z-7.4667 I0.625 J1.0825
G2 X162.25 Y116.5 Z-7.6 I0.625 J-1.0825
G2 X160.375 Y115.4175 Z-7.7333 I-1.25 J0.0
G2 Y117.5825 Z-7.8667 I0.625 J1.0825
G2 X162.25 Y116.5 Z-8.0 I0.625 J-1.0825
G2 X160.375 Y115.4175 Z-8.1333 I-1.25 J0.0
G2 Y117.5825 Z-8.2667 I0.625 J1.0825
G2 X162.25 Y116.5 Z-8.4 I0.625 J-1.0825
G2 X160.375 Y115.4175 Z-8.5333 I-1.25 J0.0
G2 Y117.5825 Z-8.6667 I0.625 J1.0825
G2 X162.25 Y116.5 Z-8.8 I0.625 J-1.0825
G2 X160.375 Y115.4175 Z-8.9333 I-1.25 J0.0
G2 Y117.5825 Z-9.0667 I0.625 J1.0825
G2 X162.25 Y116.5 Z-9.2 I0.625 J-1.0825
G2 X160.375 Y115.4175 Z-9.3333 I-1.25 J0.0
G2 Y117.5825 Z-9.4667 I0.625 J1.0825
G2 X162.25 Y116.5 Z-9.6 I0.625 J-1.0825
G2 X160.375 Y115.4175 Z-9.7333 I-1.25 J0.0
G2 Y117.5825 Z-9.8667 I0.625 J1.0825
G2 X162.25 Y116.5 Z-10.0 I0.625 J-1.0825
G2 X160.375 Y115.4175 Z-10.1333 I-1.25 J0.0
G2 Y117.5825 Z-10.2667 I0.625 J1.0825
G2 X162.25 Y116.5 Z-10.4 I0.625 J-1.0825
G2 X161.0 Y115.25 Z-10.5 I-1.25 J0.0
G2 X159.9175 Y117.125 I0.0 J1.25
G2 X162.0825 I1.0825 J-0.625
G2 X161.0 Y115.25 I-1.0825 J-0.625
( Besfestigungen )
G0 Z3.0
( T3 : 3.0 )
T3 M6
M3 S1000
G0 X62.0 Y152.35
G98
G81 X62.0 Y152.35 Z-10.2 R3.0 F300.0
G81 X62.7 Y212.25 Z-10.2
G81 X148.65 Y211.95 Z-10.2
G81 X137.8 Y151.35 Z-10.2
G81 X205.1 Y150.0 Z-10.2
G81 Y16.0 Z-10.2
G81 X5.0 Z-10.2
G81 Y284.0 Z-10.2
G81 X205.1 Z-10.2
G80
( Bedienelemente )
G0 Z3.0
( T6 : 6.0 )
T6 M6
M3 S1000
G0 X30.0 Y270.0
G98
G81 X30.0 Y270.0 Z-10.2 R3.0 F300.0
G81 X105.0 Z-10.2
G81 X180.1 Z-10.2
G80
( Schalter )
S1000
G0 Z3.0
G0 X171.0 Y173.0
G0 Z1.0
G1 F300.0 Z-0.5
G1 F800.0 Y196.9
G1 X187.0
G1 Y173.0
G1 X171.0
G1 F300.0 Z-1.0
G1 F800.0 Y196.9
G1 X187.0
G1 Y173.0
G1 X171.0
G1 F300.0 Z-1.5
G1 F800.0 Y196.9
G1 X187.0
G1 Y173.0
G1 X171.0
G1 F300.0 Z-2.0
G1 F800.0 Y196.9
G1 X187.0
G1 Y173.0
G1 X171.0
G1 F300.0 Z-2.5
G1 F800.0 Y196.9
G1 X187.0
G1 Y173.0
G1 X171.0
G1 F300.0 Z-3.0
G1 F800.0 Y196.9
G1 X187.0
G1 Y173.0
G1 X171.0
G1 F300.0 Z-3.5
G1 F800.0 Y196.9
G1 X187.0
G1 Y173.0
G1 X171.0
G1 F300.0 Z-4.0
G1 F800.0 Y196.9
G1 X187.0
G1 Y173.0
G1 X171.0
G1 F300.0 Z-4.5
G1 F800.0 Y196.9
G1 X187.0
G1 Y173.0
G1 X171.0
G1 F300.0 Z-5.0
G1 F800.0 Y196.9
G1 X187.0
G1 Y173.0
G1 X171.0
G1 F300.0 Z-5.5
G1 F800.0 Y196.9
G1 X187.0
G1 Y173.0
G1 X171.0
G1 F300.0 Z-6.0
G1 F800.0 Y196.9
G1 X187.0
G1 Y173.0
G1 X171.0
G1 F300.0 Z-6.5
G1 F800.0 Y196.9
G1 X187.0
G1 Y173.0
G1 X171.0
G1 F300.0 Z-7.0
G1 F800.0 Y196.9
G1 X187.0
G1 Y173.0
G1 X171.0
G1 F300.0 Z-7.5
G1 F800.0 Y196.9
G1 X187.0
G1 Y173.0
G1 X171.0
G1 F300.0 Z-8.0
G1 F800.0 Y196.9
G1 X187.0
G1 Y173.0
G1 X171.0
G1 F300.0 Z-8.5
G1 F800.0 Y196.9
G1 X187.0
G1 Y173.0
G1 X171.0
G1 F300.0 Z-9.0
G1 F800.0 Y196.9
G1 X187.0
G1 Y173.0
G1 X171.0
G1 F300.0 Z-9.5
G1 F800.0 Y196.9
G1 X187.0
G1 Y173.0
G1 X171.0
G1 F300.0 Z-10.0
G1 F800.0 Y196.9
G1 X187.0
G1 Y173.0
G1 X171.0
G1 F300.0 Z-10.1
G1 F800.0 Y196.9
G1 X187.0
G1 Y173.0
G1 X171.0
G0 Z3.0
M5
M30
