( Made using CamBam - http://www.cambam.co.uk )
( Dorfschild-Hofsgrund 6/29/2022 7:54:12 AM )
( Post processor: Default )
( T0 : 8.0 )
( T8 : 8.0 )
G21 G90 G64 G40
G0 Z3.0
( T0 : 8.0 )
T0 M6
( Rahmen )
G17
M3 S1000
G0 X8.087 Y720.1838
G0 Z1.0
G1 F300.0 Z-2.5
G1 F800.0 X439.087 Y529.6364
G2 X451.0 Y511.3444 I-8.087 J-18.2921
G1 Y44.0
G2 X431.0 Y24.0 I-20.0 J0.0
G1 X-431.0
G2 X-451.0 Y44.0 I0.0 J20.0
G1 Y511.3444
G2 X-439.087 Y529.6364 I20.0 J0.0
G1 X-8.087 Y720.1838
G2 X8.087 I8.087 J-18.2921
G1 F300.0 X7.114 Y717.9829
G3 F800.0 X-7.114 I-7.114 J-16.0912
G1 X-438.114 Y527.4355
G3 X-448.5936 Y511.3444 I7.114 J-16.0912
G1 Y44.0
G3 X-431.0 Y26.4064 I17.5936 J0.0
G1 X431.0
G3 X448.5936 Y44.0 I0.0 J17.5936
G1 Y511.3444
G3 X438.114 Y527.4355 I-17.5936 J0.0
G1 X7.114 Y717.9829
G1 F300.0 X6.4696 Y716.5254
G3 F800.0 X-6.4696 I-6.4696 J-14.6337
G1 X-437.4696 Y525.978
G3 X-447.0 Y511.3444 I6.4696 J-14.6337
G1 Y44.0
G3 X-431.0 Y28.0 I16.0 J0.0
G1 X431.0
G3 X447.0 Y44.0 I0.0 J16.0
G1 Y511.3444
G3 X437.4696 Y525.978 I-16.0 J0.0
G1 X6.4696 Y716.5254
G1 F300.0 X7.4401 Y718.7204
G3 F800.0 X-7.4401 I-7.4401 J-16.8287
G1 X-438.4401 Y528.1731
G3 X-449.4 Y511.3444 I7.4401 J-16.8287
G1 Y44.0
G3 X-431.0 Y25.6 I18.4 J0.0
G1 X431.0
G3 X449.4 Y44.0 I0.0 J18.4
G1 Y511.3444
G3 X438.4401 Y528.1731 I-18.4 J0.0
G1 X7.4401 Y718.7204
G1 F300.0 X8.087 Y720.1838
G1 Z-5.0
G1 F800.0 X439.087 Y529.6364
G2 X451.0 Y511.3444 I-8.087 J-18.2921
G1 Y44.0
G2 X431.0 Y24.0 I-20.0 J0.0
G1 X-431.0
G2 X-451.0 Y44.0 I0.0 J20.0
G1 Y511.3444
G2 X-439.087 Y529.6364 I20.0 J0.0
G1 X-8.087 Y720.1838
G2 X8.087 I8.087 J-18.2921
G1 F300.0 X7.114 Y717.9829
G3 F800.0 X-7.114 I-7.114 J-16.0912
G1 X-438.114 Y527.4355
G3 X-448.5936 Y511.3444 I7.114 J-16.0912
G1 Y44.0
G3 X-431.0 Y26.4064 I17.5936 J0.0
G1 X431.0
G3 X448.5936 Y44.0 I0.0 J17.5936
G1 Y511.3444
G3 X438.114 Y527.4355 I-17.5936 J0.0
G1 X7.114 Y717.9829
G1 F300.0 X6.4696 Y716.5254
G3 F800.0 X-6.4696 I-6.4696 J-14.6337
G1 X-437.4696 Y525.978
G3 X-447.0 Y511.3444 I6.4696 J-14.6337
G1 Y44.0
G3 X-431.0 Y28.0 I16.0 J0.0
G1 X431.0
G3 X447.0 Y44.0 I0.0 J16.0
G1 Y511.3444
G3 X437.4696 Y525.978 I-16.0 J0.0
G1 X6.4696 Y716.5254
G1 F300.0 X7.4401 Y718.7204
G3 F800.0 X-7.4401 I-7.4401 J-16.8287
G1 X-438.4401 Y528.1731
G3 X-449.4 Y511.3444 I7.4401 J-16.8287
G1 Y44.0
G3 X-431.0 Y25.6 I18.4 J0.0
G1 X431.0
G3 X449.4 Y44.0 I0.0 J18.4
G1 Y511.3444
G3 X438.4401 Y528.1731 I-18.4 J0.0
G1 X7.4401 Y718.7204
( Text-Wiedersehen-aussen )
G0 Z3.0
( T8 : 8.0 )
T8 M6
M3 S1000
G0 X-198.4683 Y132.496
G0 Z1.0
G1 F300.0 Z-2.5
G2 F800.0 X-192.751 Y134.7235 I5.6591 J-6.0742
G2 X-189.8553 Y133.9852 I-0.3259 J-7.3261
G2 X-187.1567 Y129.3449 I-5.2072 J-6.1333
G3 X-187.1377 Y129.2508 I3.9305 J0.7422
G2 X-186.4369 Y120.0138 I-33.6819 J-7.2008
G3 X-186.4436 Y119.7367 I3.993 J-0.2365
G2 X-189.7237 Y111.4637 I-11.7717 J-0.1195
G3 X-189.8009 Y111.381 I2.8853 J-2.7704
G2 X-202.3076 Y114.4177 I-5.4266 J4.923
G3 X-202.3081 Y114.4196 I-3.8652 J-1.0297
G2 X-200.345 Y129.9244 I20.0139 J5.3426
G3 X-200.2469 Y130.1098 I-3.4856 J1.9623
G2 X-198.4683 Y132.496 I7.4378 J-3.688
G1 F300.0 Z-5.0
G2 F800.0 X-192.751 Y134.7235 I5.6591 J-6.0742
G2 X-189.8553 Y133.9852 I-0.3259 J-7.3261
G2 X-187.1567 Y129.3449 I-5.2072 J-6.1333
G3 X-187.1377 Y129.2508 I3.9305 J0.7422
G2 X-186.4369 Y120.0138 I-33.6819 J-7.2008
G3 X-186.4436 Y119.7367 I3.993 J-0.2365
G2 X-189.7237 Y111.4637 I-11.7717 J-0.1195
G3 X-189.8009 Y111.381 I2.8853 J-2.7704
G2 X-202.3076 Y114.4177 I-5.4266 J4.923
G3 X-202.3081 Y114.4196 I-3.8652 J-1.0297
G2 X-200.345 Y129.9244 I20.0139 J5.3426
G3 X-200.2469 Y130.1098 I-3.4856 J1.9623
G2 X-198.4683 Y132.496 I7.4378 J-3.688
G0 Z3.0
G0 X-6.496 Y120.7146
G0 Z1.0
G1 F300.0 Z-2.5
G2 F800.0 X-5.6635 Y125.8192 I25.7621 J-1.581
G3 X-5.6499 Y125.8715 I-3.8635 J1.0361
G2 X8.1888 Y136.1908 I13.2794 J-3.3694
G3 X8.3452 Y136.1875 I0.1633 J3.9967
G2 X12.5286 Y135.1967 I-0.016 J-9.3942
G2 X10.6105 Y121.3308 I-217.675 J23.0455
G3 X10.6063 Y121.3057 I3.9427 J-0.6745
G2 X3.3542 Y109.9702 I-16.8086 J2.766
G3 X3.3348 Y109.9569 I2.244 J-3.3113
G2 X0.1298 Y108.933 I-3.3042 J4.8145
G3 X-0.0454 Y108.9262 I0.068 J-3.9994
G2 X-6.0496 Y114.0213 I-0.3458 J5.6777
G3 X-6.0978 Y114.3526 I-3.979 J-0.4096
G2 X-6.496 Y120.7146 I25.3639 J4.781
G1 F300.0 Z-5.0
G2 F800.0 X-5.6635 Y125.8192 I25.7621 J-1.581
G3 X-5.6499 Y125.8715 I-3.8635 J1.0361
G2 X8.1888 Y136.1908 I13.2794 J-3.3694
G3 X8.3452 Y136.1875 I0.1633 J3.9967
G2 X12.5286 Y135.1967 I-0.016 J-9.3942
G2 X10.6105 Y121.3308 I-217.675 J23.0455
G3 X10.6063 Y121.3057 I3.9427 J-0.6745
G2 X3.3542 Y109.9702 I-16.8086 J2.766
G3 X3.3348 Y109.9569 I2.244 J-3.3113
G2 X0.1298 Y108.933 I-3.3042 J4.8145
G3 X-0.0454 Y108.9262 I0.068 J-3.9994
G2 X-6.0496 Y114.0213 I-0.3458 J5.6777
G3 X-6.0978 Y114.3526 I-3.979 J-0.4096
G2 X-6.496 Y120.7146 I25.3639 J4.781
G0 Z3.0
G0 X4.6526 Y299.398
G0 Z1.0
G1 F300.0 Z-2.5
G2 F800.0 X2.0136 Y299.995 I0.5282 J8.466
G2 X-2.9532 Y307.718 I3.623 J7.7886
G3 X-2.9534 Y307.7342 I-3.9999 J-0.0305
G2 X-2.4112 Y312.9389 I22.7041 J0.2654
G3 X-2.3752 Y313.1199 I-3.9042 J0.8702
G2 X5.7704 Y319.2936 I7.3925 J-1.2931
G3 X6.3269 Y319.2764 I0.4014 J3.9798
G2 X11.9954 Y316.0908 I0.2408 J-6.2075
G3 X11.9816 Y302.5937 I337.0085 J-7.0947
G2 X8.7189 Y300.1546 I-11.1725 J11.5434
G2 X4.6526 Y299.398 I-3.5381 J7.7094
G1 F300.0 Z-5.0
G2 F800.0 X2.0136 Y299.995 I0.5282 J8.466
G2 X-2.9532 Y307.718 I3.623 J7.7886
G3 X-2.9534 Y307.7342 I-3.9999 J-0.0305
G2 X-2.4112 Y312.9389 I22.7041 J0.2654
G3 X-2.3752 Y313.1199 I-3.9042 J0.8702
G2 X5.7704 Y319.2936 I7.3925 J-1.2931
G3 X6.3269 Y319.2764 I0.4014 J3.9798
G2 X11.9954 Y316.0908 I0.2408 J-6.2075
G3 X11.9816 Y302.5937 I337.0085 J-7.0947
G2 X8.7189 Y300.1546 I-11.1725 J11.5434
G2 X4.6526 Y299.398 I-3.5381 J7.7094
G0 Z3.0
G0 X55.7803 Y316.6204
G0 Z1.0
G1 F300.0 Z-2.5
G2 F800.0 X56.3418 Y317.4137 I17.7427 J-11.9633
G2 X61.0541 Y319.5864 I4.6177 J-3.8187
G3 X61.3457 Y319.5925 I0.0631 J3.9995
G2 X61.652 Y319.605 I0.5399 J-9.4342
G2 X55.7803 Y316.6204 I-116.9333 J222.7789
G1 F300.0 Z-5.0
G2 F800.0 X56.3418 Y317.4137 I17.7427 J-11.9633
G2 X61.0541 Y319.5864 I4.6177 J-3.8187
G3 X61.3457 Y319.5925 I0.0631 J3.9995
G2 X61.652 Y319.605 I0.5399 J-9.4342
G2 X55.7803 Y316.6204 I-116.9333 J222.7789
G0 Z3.0
G0 X-47.3324 Y319.605
G0 Z1.0
G1 F300.0 Z-2.5
G2 F800.0 X-53.204 Y316.6204 I-116.9333 J222.7789
G2 X-52.6425 Y317.4137 I17.7427 J-11.9633
G2 X-47.9303 Y319.5864 I4.6177 J-3.8187
G3 X-47.6387 Y319.5925 I0.0631 J3.9995
G2 X-47.3324 Y319.605 I0.5399 J-9.4342
G1 F300.0 Z-5.0
G2 F800.0 X-53.204 Y316.6204 I-116.9333 J222.7789
G2 X-52.6425 Y317.4137 I17.7427 J-11.9633
G2 X-47.9303 Y319.5864 I4.6177 J-3.8187
G3 X-47.6387 Y319.5925 I0.0631 J3.9995
G2 X-47.3324 Y319.605 I0.5399 J-9.4342
G0 Z3.0
G0 X201.2335 Y316.6204
G0 Z1.0
G1 F300.0 Z-2.5
G2 F800.0 X201.795 Y317.4137 I17.7427 J-11.9633
G2 X206.5072 Y319.5864 I4.6177 J-3.8187
G3 X206.7988 Y319.5925 I0.0631 J3.9995
G2 X207.1051 Y319.605 I0.5399 J-9.4342
G2 X201.2335 Y316.6204 I-116.9333 J222.7789
G1 F300.0 Z-5.0
G2 F800.0 X201.795 Y317.4137 I17.7427 J-11.9633
G2 X206.5072 Y319.5864 I4.6177 J-3.8187
G3 X206.7988 Y319.5925 I0.0631 J3.9995
G2 X207.1051 Y319.605 I0.5399 J-9.4342
G2 X201.2335 Y316.6204 I-116.9333 J222.7789
G0 Z3.0
G0 X309.2803
G0 Z1.0
G1 F300.0 Z-2.5
G2 F800.0 X309.8418 Y317.4137 I17.7427 J-11.9633
G2 X314.5541 Y319.5864 I4.6177 J-3.8187
G3 X314.8457 Y319.5925 I0.0631 J3.9995
G2 X315.152 Y319.605 I0.5399 J-9.4342
G2 X309.2803 Y316.6204 I-116.9333 J222.7789
G1 F300.0 Z-5.0
G2 F800.0 X309.8418 Y317.4137 I17.7427 J-11.9633
G2 X314.5541 Y319.5864 I4.6177 J-3.8187
G3 X314.8457 Y319.5925 I0.0631 J3.9995
G2 X315.152 Y319.605 I0.5399 J-9.4342
G2 X309.2803 Y316.6204 I-116.9333 J222.7789
G0 Z3.0
G0 X276.3073 Y135.7132
G0 Z1.0
G1 F300.0 Z-2.5
G2 F800.0 X282.5255 Y131.1082 I-1.5717 J-8.6231
G3 X282.511 Y113.5865 I420.2552 J-9.1092
G2 X277.8804 Y110.0562 I-14.9738 J14.8387
G2 X268.645 Y109.8299 I-4.8785 J10.5277
G2 X261.8344 Y120.3938 I4.9265 J10.6536
G3 X261.8342 Y120.41 I-3.9999 J-0.0305
G2 X262.5358 Y127.1451 I29.3801 J0.3434
G3 X262.5445 Y127.1847 I-3.9042 J0.8702
G2 X264.9649 Y132.3456 I12.2613 J-2.6025
G2 X273.9643 Y135.8553 I8.2176 J-7.7784
G3 X274.3958 Y135.8487 I0.2764 J3.9904
G2 X276.3073 Y135.7132 I0.3398 J-8.7586
G1 F300.0 Z-5.0
G2 F800.0 X282.5255 Y131.1082 I-1.5717 J-8.6231
G3 X282.511 Y113.5865 I420.2552 J-9.1092
G2 X277.8804 Y110.0562 I-14.9738 J14.8387
G2 X268.645 Y109.8299 I-4.8785 J10.5277
G2 X261.8344 Y120.3938 I4.9265 J10.6536
G3 X261.8342 Y120.41 I-3.9999 J-0.0305
G2 X262.5358 Y127.1451 I29.3801 J0.3434
G3 X262.5445 Y127.1847 I-3.9042 J0.8702
G2 X264.9649 Y132.3456 I12.2613 J-2.6025
G2 X273.9643 Y135.8553 I8.2176 J-7.7784
G3 X274.3958 Y135.8487 I0.2764 J3.9904
G2 X276.3073 Y135.7132 I0.3398 J-8.7586
G0 Z3.0
G0 X280.8155 Y152.153
G0 Z1.0
G1 F300.0 Z-2.5
G3 F800.0 X274.0147 Y152.9302 I-5.906 J-21.5372
G3 X253.056 Y143.6885 I-0.6799 J-26.8446
G3 X252.9751 Y143.5923 I3.0207 J-2.6221
G3 X245.1888 Y120.1495 I26.986 J-21.9777
G3 X262.1448 Y93.6876 I27.7294 J-0.8952
G3 X262.2873 Y93.6308 I1.5533 J3.6861
G3 X286.5318 Y95.2933 I10.3046 J27.3391
G3 X292.3983 Y92.584 I5.867 J4.9979
G3 X300.788 Y102.9108 I0.0278 J8.5488
G2 X299.9039 Y140.7524 I166.9825 J22.8322
G3 X301.8639 Y170.7663 I-549.2124 J50.9365
G3 X293.3342 Y179.8342 I-8.0978 J0.9284
G3 X284.988 Y171.6852 I-0.0441 J-8.3034
G3 X283.6118 Y151.1828 I398.7084 J-37.0611
G3 X280.8155 Y152.153 I-8.7023 J-20.567
G1 F300.0 Z-5.0
G3 F800.0 X274.0147 Y152.9302 I-5.906 J-21.5372
G3 X253.056 Y143.6885 I-0.6799 J-26.8446
G3 X252.9751 Y143.5923 I3.0207 J-2.6221
G3 X245.1888 Y120.1495 I26.986 J-21.9777
G3 X262.1448 Y93.6876 I27.7294 J-0.8952
G3 X262.2873 Y93.6308 I1.5533 J3.6861
G3 X286.5318 Y95.2933 I10.3046 J27.3391
G3 X292.3983 Y92.584 I5.867 J4.9979
G3 X300.788 Y102.9108 I0.0278 J8.5488
G2 X299.9039 Y140.7524 I166.9825 J22.8322
G3 X301.8639 Y170.7663 I-549.2124 J50.9365
G3 X293.3342 Y179.8342 I-8.0978 J0.9284
G3 X284.988 Y171.6852 I-0.0441 J-8.3034
G3 X283.6118 Y151.1828 I398.7084 J-37.0611
G3 X280.8155 Y152.153 I-8.7023 J-20.567
G0 Z3.0
G0 X226.1481 Y139.6362
G0 Z1.0
G1 F300.0 Z-2.5
G3 F800.0 X224.6449 Y144.6942 I-40.3369 J-9.2356
G3 X224.6054 Y144.7971 I-3.7538 J-1.3817
G3 X209.8246 Y154.1938 I-13.9126 J-5.5608
G3 X197.8507 Y149.8108 I0.6138 J-20.2239
G3 X196.4303 Y148.6555 I24.7158 J-31.837
G3 X195.4673 Y151.0423 I-13.333 J-3.9919
G3 X195.2441 Y151.4222 I-3.5552 J-1.8333
G3 X179.2449 Y146.4865 I-7.271 J-4.8295
G3 X179.246 Y146.4299 I3.9997 J0.0487
G3 X179.5849 Y137.195 I445.4293 J11.7235
G2 X178.87 Y123.6498 I-185.3597 J2.9927
G3 X178.868 Y123.6278 I3.9841 J-0.3568
G3 X178.1708 Y109.4344 I203.9229 J-17.1311
G3 X178.1779 Y109.1329 I3.9996 J-0.0574
G3 X178.8014 Y100.4673 I401.8685 J24.5621
G3 X181.1953 Y94.2985 I8.9356 J-0.0814
G3 X181.3437 Y94.1473 I2.9283 J2.7249
G3 X196.3751 Y100.6401 I6.1635 J6.377
G3 X196.3744 Y100.6819 I-3.9997 J-0.0522
G3 X196.0585 Y105.42 I-55.1384 J-1.2963
G1 Y105.4201
G1 Y105.42
G2 X195.7919 Y109.332 I46.8863 J5.1602
G2 X196.4644 Y118.1438 I156.0575 J-7.4784
G2 X198.9856 Y125.053 I47.9561 J-13.5847
G3 X199.0414 Y125.1826 I-3.6462 J1.6447
G2 X206.4639 Y135.1219 I22.9356 J-9.3868
G2 X209.145 Y136.2485 I3.7286 J-5.1197
G2 X209.9214 Y130.1053 I-14.3589 J-4.9354
G3 X209.9132 Y129.9764 I3.9873 J-0.3182
G3 X209.5683 Y120.615 I445.0844 J-21.0849
G3 X209.569 Y120.3807 I3.9986 J-0.1052
G3 X211.6172 Y98.8095 I173.6652 J5.6069
G3 X220.5145 Y90.5359 I8.4556 J0.1722
G3 X229.2353 Y99.2561 I-0.2487 J8.9694
G3 X229.2355 Y99.4685 I-3.9985 J0.1111
G3 X228.1011 Y110.4665 I-71.4263 J-1.81
G2 X227.138 Y120.2826 I66.7008 J11.4999
G3 X227.1862 Y129.7151 I-444.4549 J6.9899
G3 X226.1481 Y139.6362 I-41.3751 J0.6855
G1 F300.0 Z-5.0
G3 F800.0 X224.6449 Y144.6942 I-40.3369 J-9.2356
G3 X224.6054 Y144.7971 I-3.7538 J-1.3817
G3 X209.8246 Y154.1938 I-13.9126 J-5.5608
G3 X197.8507 Y149.8108 I0.6138 J-20.2239
G3 X196.4303 Y148.6555 I24.7158 J-31.837
G3 X195.4673 Y151.0423 I-13.333 J-3.9919
G3 X195.2441 Y151.4222 I-3.5552 J-1.8333
G3 X179.2449 Y146.4865 I-7.271 J-4.8295
G3 X179.246 Y146.4299 I3.9997 J0.0487
G3 X179.5849 Y137.195 I445.4293 J11.7235
G2 X178.87 Y123.6498 I-185.3597 J2.9927
G3 X178.868 Y123.6278 I3.9841 J-0.3568
G3 X178.1708 Y109.4344 I203.9229 J-17.1311
G3 X178.1779 Y109.1329 I3.9996 J-0.0574
G3 X178.8014 Y100.4673 I401.8685 J24.5621
G3 X181.1953 Y94.2985 I8.9356 J-0.0814
G3 X181.3437 Y94.1473 I2.9283 J2.7249
G3 X196.3751 Y100.6401 I6.1635 J6.377
G3 X196.3744 Y100.6819 I-3.9997 J-0.0522
G3 X196.0585 Y105.42 I-55.1384 J-1.2963
G1 Y105.4201
G1 Y105.42
G2 X195.7919 Y109.332 I46.8863 J5.1602
G2 X196.4644 Y118.1438 I156.0575 J-7.4784
G2 X198.9856 Y125.053 I47.9561 J-13.5847
G3 X199.0414 Y125.1826 I-3.6462 J1.6447
G2 X206.4639 Y135.1219 I22.9356 J-9.3868
G2 X209.145 Y136.2485 I3.7286 J-5.1197
G2 X209.9214 Y130.1053 I-14.3589 J-4.9354
G3 X209.9132 Y129.9764 I3.9873 J-0.3182
G3 X209.5683 Y120.615 I445.0844 J-21.0849
G3 X209.569 Y120.3807 I3.9986 J-0.1052
G3 X211.6172 Y98.8095 I173.6652 J5.6069
G3 X220.5145 Y90.5359 I8.4556 J0.1722
G3 X229.2353 Y99.2561 I-0.2487 J8.9694
G3 X229.2355 Y99.4685 I-3.9985 J0.1111
G3 X228.1011 Y110.4665 I-71.4263 J-1.81
G2 X227.138 Y120.2826 I66.7008 J11.4999
G3 X227.1862 Y129.7151 I-444.4549 J6.9899
G3 X226.1481 Y139.6362 I-41.3751 J0.6855
G0 Z3.0
G0 X159.9235 Y142.7898
G0 Z1.0
G1 F300.0 Z-2.5
G1 F800.0 X160.0184 Y144.7824
G3 X160.0195 Y144.8075 I-3.9955 J0.1903
G3 X151.2323 Y153.7617 I-8.5939 J0.3551
G3 X142.4526 Y145.481 I-0.3684 J-8.4042
G3 X141.525 Y126.926 I161.5293 J-17.3756
G3 X141.5252 Y126.9033 I3.9999 J0.029
G2 X141.6621 Y110.6445 I-1796.5158 J-23.2471
G2 X131.8691 Y109.4711 I-10.338 J44.8294
G2 X129.0317 Y110.0314 I0.1895 J8.4248
G2 X127.9804 Y116.904 I44.2379 J10.2838
G3 X127.9779 Y116.935 I-3.9887 J-0.3004
G2 X127.4542 Y130.4956 I152.4437 J12.6778
G2 X128.0892 Y137.4632 I58.3192 J-1.8017
G3 X128.8673 Y145.1032 I-62.2735 J10.2022
G3 X128.8705 Y145.2389 I-3.9967 J0.1624
G3 X119.985 Y154.0531 I-8.7564 J0.0584
G3 X111.3186 Y146.2609 I-0.3117 J-8.3688
G3 X109.8358 Y130.6187 I94.514 J-16.8508
G3 X109.8357 Y130.5252 I3.9997 J-0.0504
G3 X111.7815 Y106.9438 I165.4851 J1.7841
G3 X125.5353 Y92.2623 I17.2506 J2.3775
G3 X143.8736 Y93.5225 I6.9191 J33.3724
G3 X144.2953 Y92.9666 I9.1446 J6.4988
G3 X144.5915 Y92.6391 I3.1101 J2.5154
G3 X159.5835 Y98.8665 I6.1913 J6.2547
G3 X159.5742 Y99.1521 I-4.0 J0.0124
G2 X159.1918 Y115.8782 I183.4957 J12.5616
G3 X159.1928 Y115.997 I-3.999 J0.0906
G2 X159.1443 Y126.4249 I2152.8034 J15.2305
G1 X159.9235 Y142.7898
G1 F300.0 Z-5.0
G1 F800.0 X160.0184 Y144.7824
G3 X160.0195 Y144.8075 I-3.9955 J0.1903
G3 X151.2323 Y153.7617 I-8.5939 J0.3551
G3 X142.4526 Y145.481 I-0.3684 J-8.4042
G3 X141.525 Y126.926 I161.5293 J-17.3756
G3 X141.5252 Y126.9033 I3.9999 J0.029
G2 X141.6621 Y110.6445 I-1796.5158 J-23.2471
G2 X131.8691 Y109.4711 I-10.338 J44.8294
G2 X129.0317 Y110.0314 I0.1895 J8.4248
G2 X127.9804 Y116.904 I44.2379 J10.2838
G3 X127.9779 Y116.935 I-3.9887 J-0.3004
G2 X127.4542 Y130.4956 I152.4437 J12.6778
G2 X128.0892 Y137.4632 I58.3192 J-1.8017
G3 X128.8673 Y145.1032 I-62.2735 J10.2022
G3 X128.8705 Y145.2389 I-3.9967 J0.1624
G3 X119.985 Y154.0531 I-8.7564 J0.0584
G3 X111.3186 Y146.2609 I-0.3117 J-8.3688
G3 X109.8358 Y130.6187 I94.514 J-16.8508
G3 X109.8357 Y130.5252 I3.9997 J-0.0504
G3 X111.7815 Y106.9438 I165.4851 J1.7841
G3 X125.5353 Y92.2623 I17.2506 J2.3775
G3 X143.8736 Y93.5225 I6.9191 J33.3724
G3 X144.2953 Y92.9666 I9.1446 J6.4988
G3 X144.5915 Y92.6391 I3.1101 J2.5154
G3 X159.5835 Y98.8665 I6.1913 J6.2547
G3 X159.5742 Y99.1521 I-4.0 J0.0124
G2 X159.1918 Y115.8782 I183.4957 J12.5616
G3 X159.1928 Y115.997 I-3.999 J0.0906
G2 X159.1443 Y126.4249 I2152.8034 J15.2305
G1 X159.9235 Y142.7898
G0 Z3.0
G0 X94.8776 Y139.5348
G0 Z1.0
G1 F300.0 Z-2.5
G3 F800.0 X92.4624 Y148.3505 I-21.1622 J-1.059
G3 X92.272 Y148.6741 I-3.5391 J-1.8641
G3 X82.8781 Y153.4632 I-8.873 J-5.7968
G3 X64.8254 Y147.8111 I0.5526 J-33.4209
G3 X62.6401 Y150.6737 I-8.8969 J-4.5262
G3 X62.2374 Y150.9947 I-2.6895 J-2.9609
G3 X51.1352 Y149.9052 I-4.9126 J-7.0505
G3 X50.6589 Y149.3048 I2.8811 J-2.7747
G3 X49.0803 Y143.5851 I8.2814 J-5.3633
G3 X48.8398 Y133.9981 I482.7385 J-16.906
G3 X48.8394 Y133.9375 I3.9995 J-0.0606
G1 Y99.7093
G3 X49.5746 Y95.5043 I11.001 J-0.2432
G3 X49.6798 Y95.2568 I3.7317 J1.4402
G3 X57.0566 Y90.7183 I7.1243 J3.3153
G3 X65.9693 Y99.9083 I0.6121 J8.3233
G1 X65.8756 Y125.5963
G2 X71.4581 Y132.7538 I17.8383 J-8.1572
G2 X77.5897 Y135.58 I12.1753 J-18.3505
G3 X78.3017 Y129.2622 I28.1687 J-0.0243
G3 X78.5682 Y128.4808 I3.8989 J0.8937
G3 X85.9897 Y123.9753 I7.0529 J3.2523
G3 X93.1452 Y127.8369 I0.2126 J8.1664
G3 X93.2613 Y128.0369 I-3.3996 J2.1078
G3 X94.8265 Y133.9834 I-11.3777 J6.174
G3 X94.877 Y137.4055 I-88.5528 J3.0179
G3 X94.8776 Y139.5348 I-21.1616 J1.0703
G1 F300.0 Z-5.0
G3 F800.0 X92.4624 Y148.3505 I-21.1622 J-1.059
G3 X92.272 Y148.6741 I-3.5391 J-1.8641
G3 X82.8781 Y153.4632 I-8.873 J-5.7968
G3 X64.8254 Y147.8111 I0.5526 J-33.4209
G3 X62.6401 Y150.6737 I-8.8969 J-4.5262
G3 X62.2374 Y150.9947 I-2.6895 J-2.9609
G3 X51.1352 Y149.9052 I-4.9126 J-7.0505
G3 X50.6589 Y149.3048 I2.8811 J-2.7747
G3 X49.0803 Y143.5851 I8.2814 J-5.3633
G3 X48.8398 Y133.9981 I482.7385 J-16.906
G3 X48.8394 Y133.9375 I3.9995 J-0.0606
G1 Y99.7093
G3 X49.5746 Y95.5043 I11.001 J-0.2432
G3 X49.6798 Y95.2568 I3.7317 J1.4402
G3 X57.0566 Y90.7183 I7.1243 J3.3153
G3 X65.9693 Y99.9083 I0.6121 J8.3233
G1 X65.8756 Y125.5963
G2 X71.4581 Y132.7538 I17.8383 J-8.1572
G2 X77.5897 Y135.58 I12.1753 J-18.3505
G3 X78.3017 Y129.2622 I28.1687 J-0.0243
G3 X78.5682 Y128.4808 I3.8989 J0.8937
G3 X85.9897 Y123.9753 I7.0529 J3.2523
G3 X93.1452 Y127.8369 I0.2126 J8.1664
G3 X93.2613 Y128.0369 I-3.3996 J2.1078
G3 X94.8265 Y133.9834 I-11.3777 J6.174
G3 X94.877 Y137.4055 I-88.5528 J3.0179
G3 X94.8776 Y139.5348 I-21.1616 J1.0703
G0 Z3.0
G0 X30.4188 Y138.3812
G0 Z1.0
G1 F300.0 Z-2.5
G3 F800.0 X23.169 Y147.1263 I-9.0958 J-0.1628
G3 X17.778 Y150.6039 I-9.9111 J-9.4472
G3 X17.7543 Y150.6121 I-1.3205 J-3.7758
G3 X8.8198 Y152.0006 I-8.3713 J-24.4263
G3 X-4.012 Y149.9003 I-0.4503 J-37.4969
G3 X-4.0777 Y149.8767 I1.3207 J-3.7757
G3 X-22.1138 Y131.0628 I10.3304 J-27.9554
G3 X-22.6111 Y109.0061 I35.695 J-11.8387
G3 X-22.5788 Y108.8976 I3.8495 J1.0868
G3 X-0.072 Y92.7785 I21.9475 J6.8726
G3 X9.7554 Y95.466 I0.2261 J18.4851
G2 X8.238 Y89.5538 I-35.4806 J5.9551
G3 X8.2119 Y89.4765 I3.7761 J-1.3194
G2 X-0.8011 Y83.1504 I-8.7279 J2.8513
G3 X-1.0406 Y83.1507 I-0.1242 J-3.9981
G2 X-9.1731 Y83.8458 I-1.0334 J35.8276
G3 X-15.6064 Y84.7552 I-8.9373 J-40.0153
G3 X-21.7666 Y82.6129 I-0.5667 J-8.2987
G3 X-22.1775 Y82.1793 I2.6899 J-2.9605
G3 X-20.0885 Y69.3891 I6.7116 J-5.4695
G3 X-19.9426 Y69.3013 I2.1356 J3.3822
G3 X-14.6586 Y67.4008 I8.0036 J13.9573
G3 X6.4684 Y67.4244 I10.4993 J57.5004
G3 X21.8197 Y78.333 I-3.7117 J21.4792
G3 X21.8766 Y78.4393 I-3.4982 J1.9398
G3 X26.3449 Y94.3074 I-36.5721 J18.8616
G3 X26.3463 Y94.3272 I-3.9894 J0.291
G1 X28.0106 Y118.6854
G2 X29.2783 Y127.5004 I142.122 J-15.9393
G3 X30.3617 Y137.1885 I-61.1205 J11.7402
G3 X30.4188 Y138.3812 I-9.0388 J1.0298
G1 F300.0 Z-5.0
G3 F800.0 X23.169 Y147.1263 I-9.0958 J-0.1628
G3 X17.778 Y150.6039 I-9.9111 J-9.4472
G3 X17.7543 Y150.6121 I-1.3205 J-3.7758
G3 X8.8198 Y152.0006 I-8.3713 J-24.4263
G3 X-4.012 Y149.9003 I-0.4503 J-37.4969
G3 X-4.0777 Y149.8767 I1.3207 J-3.7757
G3 X-22.1138 Y131.0628 I10.3304 J-27.9554
G3 X-22.6111 Y109.0061 I35.695 J-11.8387
G3 X-22.5788 Y108.8976 I3.8495 J1.0868
G3 X-0.072 Y92.7785 I21.9475 J6.8726
G3 X9.7554 Y95.466 I0.2261 J18.4851
G2 X8.238 Y89.5538 I-35.4806 J5.9551
G3 X8.2119 Y89.4765 I3.7761 J-1.3194
G2 X-0.8011 Y83.1504 I-8.7279 J2.8513
G3 X-1.0406 Y83.1507 I-0.1242 J-3.9981
G2 X-9.1731 Y83.8458 I-1.0334 J35.8276
G3 X-15.6064 Y84.7552 I-8.9373 J-40.0153
G3 X-21.7666 Y82.6129 I-0.5667 J-8.2987
G3 X-22.1775 Y82.1793 I2.6899 J-2.9605
G3 X-20.0885 Y69.3891 I6.7116 J-5.4695
G3 X-19.9426 Y69.3013 I2.1356 J3.3822
G3 X-14.6586 Y67.4008 I8.0036 J13.9573
G3 X6.4684 Y67.4244 I10.4993 J57.5004
G3 X21.8197 Y78.333 I-3.7117 J21.4792
G3 X21.8766 Y78.4393 I-3.4982 J1.9398
G3 X26.3449 Y94.3074 I-36.5721 J18.8616
G3 X26.3463 Y94.3272 I-3.9894 J0.291
G1 X28.0106 Y118.6854
G2 X29.2783 Y127.5004 I142.122 J-15.9393
G3 X30.3617 Y137.1885 I-61.1205 J11.7402
G3 X30.4188 Y138.3812 I-9.0388 J1.0298
G0 Z3.0
G0 X27.2186 Y186.4643
G0 Z1.0
G1 F300.0 Z-2.5
G3 F800.0 X34.664 Y194.2034 I-0.5298 J7.9607
G3 X34.6642 Y194.4158 I-3.9985 J0.1111
G3 X33.7447 Y203.3335 I-57.9408 J-1.4683
G2 X32.9866 Y211.0505 I52.5729 J9.0603
G3 X33.0251 Y218.5884 I-356.3641 J5.5882
G3 X30.9428 Y230.8524 I-33.9001 J0.5528
G3 X30.8856 Y230.9988 I-3.7538 J-1.3817
G3 X25.9031 Y236.9915 I-12.1221 J-5.011
G3 X25.5965 Y237.1716 I-2.1772 J-3.3556
G3 X8.2004 Y235.2502 I-7.2837 J-13.7664
G3 X7.9928 Y235.0868 I20.3288 J-26.0504
G3 X7.5609 Y236.0212 I-11.0389 J-4.5352
G3 X7.3377 Y236.4011 I-3.5552 J-1.8333
G3 X-6.928 Y232.0035 I-6.4832 J-4.3062
G3 X-6.8055 Y228.1284 I93.1394 J1.003
G3 X-6.8024 Y228.0756 I3.9945 J0.2095
G2 X-7.2103 Y213.9472 I-74.7507 J-4.9119
G3 X-7.2267 Y213.7899 I3.9696 J-0.4921
G3 X-7.7872 Y202.3797 I163.9355 J-13.7719
G3 X-7.7801 Y202.0782 I3.9996 J-0.0574
G3 X-7.283 Y195.1642 I322.2933 J19.6985
G3 X-5.1534 Y189.7145 I7.9487 J-0.0347
G3 X-5.0049 Y189.5633 I2.9283 J2.7249
G3 X8.3761 Y195.3433 I5.4867 J5.6769
G3 X8.3754 Y195.385 I-3.9997 J-0.0522
G3 X8.1181 Y199.2443 I-44.9105 J-1.0558
G1 Y199.2442
G1 Y199.2443
G2 X7.9101 Y202.2778 I36.7138 J4.0407
G2 X8.4361 Y209.1836 I124.0455 J-5.9743
G2 X10.3938 Y214.5342 I37.5764 J-10.7157
G3 X10.4495 Y214.6638 I-3.6462 J1.6447
G2 X16.1328 Y222.2822 I17.6081 J-7.2064
G2 X17.2509 Y222.8603 I2.4972 J-3.4597
G2 X17.6157 Y218.9686 I-10.946 J-2.9891
G3 X17.6075 Y218.8397 I3.9873 J-0.3182
G3 X17.331 Y211.3338 I356.8666 J-16.9058
G3 X17.3317 Y211.0994 I3.9986 J-0.1052
G3 X18.9713 Y193.7958 I139.7317 J4.5113
G3 X26.9197 Y186.45 I7.563 J0.2103
G3 X27.2186 Y186.4643 I-0.2309 J7.9749
G0 Z3.0
G0 X-12.3178 Y195.2137
G0 Z1.0
G1 F300.0 Z-2.5
G3 F800.0 X-12.1314 Y196.944 I-7.7083 J1.7059
G3 X-12.1326 Y197.0323 I-4.0 J-0.0124
G2 X-12.4036 Y210.8972 I1230.8466 J30.9915
G1 X-11.6272 Y229.1037
G3 X-27.2822 Y229.3034 I-7.8244 J0.3389
G1 X-28.0574 Y211.1262
G3 X-28.0607 Y210.8998 I3.9963 J-0.1711
G3 X-27.7889 Y196.9341 I1239.1184 J17.124
G3 X-25.6465 Y191.3785 I7.8917 J-0.1476
G3 X-25.5128 Y191.243 I2.9136 J2.7406
G3 X-12.3178 Y195.2137 I5.4867 J5.6766
G1 F300.0 X-7.3204 Y195.6199
G1 Z-5.0
G3 F800.0 X-7.283 Y195.1642 I321.8336 J26.1568
G3 X-5.1534 Y189.7145 I7.9487 J-0.0347
G3 X-5.0049 Y189.5633 I2.9283 J2.7249
G3 X8.3761 Y195.3433 I5.4867 J5.6769
G3 X8.3754 Y195.385 I-3.9997 J-0.0522
G3 X8.1181 Y199.2443 I-44.9105 J-1.0558
G1 Y199.2442
G1 Y199.2443
G2 X7.9101 Y202.2778 I36.7138 J4.0407
G2 X8.4361 Y209.1836 I124.0455 J-5.9743
G2 X10.3938 Y214.5342 I37.5764 J-10.7157
G3 X10.4495 Y214.6638 I-3.6462 J1.6447
G2 X16.1328 Y222.2822 I17.6081 J-7.2064
G2 X17.2509 Y222.8603 I2.4972 J-3.4597
G2 X17.6157 Y218.9686 I-10.946 J-2.9891
G3 X17.6075 Y218.8397 I3.9873 J-0.3182
G3 X17.331 Y211.3338 I356.8666 J-16.9058
G3 X17.3317 Y211.0994 I3.9986 J-0.1052
G3 X18.9713 Y193.7958 I139.7317 J4.5113
G3 X26.9197 Y186.45 I7.563 J0.2103
G3 X34.664 Y194.2034 I-0.2309 J7.9749
G3 X34.6642 Y194.4158 I-3.9985 J0.1111
G3 X33.7447 Y203.3335 I-57.9408 J-1.4683
G2 X32.9866 Y211.0505 I52.5729 J9.0603
G3 X33.0251 Y218.5884 I-356.3641 J5.5882
G3 X30.9428 Y230.8524 I-33.9001 J0.5528
G3 X30.8856 Y230.9988 I-3.7538 J-1.3817
G3 X25.9031 Y236.9915 I-12.1221 J-5.011
G3 X25.5965 Y237.1716 I-2.1772 J-3.3556
G3 X8.2004 Y235.2502 I-7.2837 J-13.7664
G3 X7.9928 Y235.0868 I20.3288 J-26.0504
G3 X7.5609 Y236.0212 I-11.0389 J-4.5352
G3 X7.3377 Y236.4011 I-3.5552 J-1.8333
G3 X-6.928 Y232.0035 I-6.4832 J-4.3062
G3 X-6.8055 Y228.1284 I93.1394 J1.003
G3 X-6.8024 Y228.0756 I3.9945 J0.2095
G2 X-7.2103 Y213.9472 I-74.7507 J-4.9119
G3 X-7.2267 Y213.7899 I3.9696 J-0.4921
G3 X-7.7872 Y202.3797 I163.9355 J-13.7719
G3 X-7.7801 Y202.0782 I3.9996 J-0.0574
G3 X-7.3204 Y195.6199 I322.2933 J19.6985
G0 Z3.0
G0 X-16.4326 Y238.8574
G0 Z1.0
G1 F300.0 Z-2.5
G3 F800.0 X-12.1116 Y253.2171 I-1.7619 J8.3601
G3 X-12.1302 Y253.2358 I-2.8478 J-2.8089
G3 X-18.1609 Y238.6738 I-6.0343 J-6.0307
G3 X-18.1345 Y238.6739 I-0.0017 J4.0
G3 X-16.4326 Y238.8574 I-0.0599 J8.5436
G1 F300.0 Z-5.0
G3 F800.0 X-12.1116 Y253.2171 I-1.7619 J8.3601
G3 X-12.1302 Y253.2358 I-2.8478 J-2.8089
G3 X-18.1609 Y238.6738 I-6.0343 J-6.0307
G3 X-18.1345 Y238.6739 I-0.0017 J4.0
G3 X-16.4326 Y238.8574 I-0.0599 J8.5436
G1 F300.0 X-17.0602 Y236.9003
G3 F800.0 X-27.2822 Y229.3034 I-2.3915 J-7.4577
G1 X-28.0574 Y211.1262
G3 X-28.0607 Y210.8998 I3.9963 J-0.1711
G3 X-27.7889 Y196.9341 I1239.1184 J17.124
G3 X-25.6465 Y191.3785 I7.8917 J-0.1476
G3 X-25.5128 Y191.243 I2.9136 J2.7406
G3 X-12.1314 Y196.944 I5.4867 J5.6766
G3 X-12.1326 Y197.0323 I-4.0 J-0.0124
G2 X-12.4036 Y210.8972 I1230.8466 J30.9915
G1 X-11.6272 Y229.1037
G3 X-17.0602 Y236.9003 I-7.8244 J0.3389
G0 Z3.0
G0 X-2.2512 Y285.0669
G0 Z1.0
G1 F300.0 Z-2.5
G3 F800.0 X15.8779 Y286.6601 I7.104 J23.1059
G3 X20.1553 Y284.7018 I5.3966 J6.1366
G3 X20.6844 Y284.6641 I0.5478 J3.9623
G3 X28.1984 Y293.8622 I0.0358 J7.639
G2 X27.4991 Y323.9262 I132.7972 J18.1291
G3 X29.0687 Y347.95 I-440.1666 J40.8218
G3 X21.4276 Y356.0643 I-7.2766 J0.8027
G3 X13.9705 Y348.7904 I-0.0162 J-7.4428
G3 X12.9175 Y333.4918 I319.766 J-29.6942
G3 X5.9852 Y334.5414 I-6.2107 J-17.6023
G3 X-11.3801 Y326.8721 I-0.5381 J-22.2761
G3 X-11.4609 Y326.7759 I3.0207 J-2.6221
G3 X-17.8702 Y307.5125 I22.2091 J-18.0873
G3 X-3.8155 Y285.6097 I22.9841 J-0.7122
G3 X-3.6731 Y285.5529 I1.5533 J3.6861
G3 X-2.2512 Y285.0669 I8.5258 J22.6198
G1 F300.0 Z-5.0
G3 F800.0 X15.8779 Y286.6601 I7.104 J23.1059
G3 X20.1553 Y284.7018 I5.3966 J6.1366
G3 X20.6844 Y284.6641 I0.5478 J3.9623
G3 X28.1984 Y293.8622 I0.0358 J7.639
G2 X27.4991 Y323.9262 I132.7972 J18.1291
G3 X29.0687 Y347.95 I-440.1666 J40.8218
G3 X21.4276 Y356.0643 I-7.2766 J0.8027
G3 X13.9705 Y348.7904 I-0.0162 J-7.4428
G3 X12.9175 Y333.4918 I319.766 J-29.6942
G3 X5.9852 Y334.5414 I-6.2107 J-17.6023
G3 X-11.3801 Y326.8721 I-0.5381 J-22.2761
G3 X-11.4609 Y326.7759 I3.0207 J-2.6221
G3 X-17.8702 Y307.5125 I22.2091 J-18.0873
G3 X-3.8155 Y285.6097 I22.9841 J-0.7122
G3 X-3.6731 Y285.5529 I1.5533 J3.6861
G3 X-2.2512 Y285.0669 I8.5258 J22.6198
G0 Z3.0
G0 X-24.7863 Y294.6608
G0 Z1.0
G1 F300.0 Z-2.5
G3 F800.0 X-31.3815 Y305.5424 I-7.21 J3.0695
G3 X-32.284 Y305.5111 I-0.3139 J-3.9877
G3 X-37.9175 Y301.6296 I1.1441 J-7.6894
G2 X-38.853 Y300.9426 I-2.0121 J1.7593
G3 X-38.8769 Y300.932 I1.6113 J-3.6611
G2 X-46.9443 Y299.0681 I-8.7746 J19.5887
G3 X-47.0389 Y299.0639 I0.1318 J-3.9978
G2 X-52.9005 Y300.4319 I-0.604 J10.6543
G3 X-39.0845 Y307.062 I-448.0469 J951.3584
G3 X-30.4521 Y313.5667 I-8.2455 J19.9232
G3 X-30.2217 Y313.8879 I-3.1311 J2.4893
G3 X-35.6097 Y332.064 I-10.5016 J6.7736
G3 X-47.8994 Y334.6184 I-11.4377 J-24.188
G3 X-65.4877 Y325.3429 I-0.3136 J-20.7187
G3 X-71.0888 Y306.1169 I27.0251 J-18.302
G3 X-63.674 Y289.3444 I20.6957 J-0.876
G3 X-63.507 Y289.2123 I2.5646 J3.0697
G3 X-46.708 Y284.0008 I15.7205 J20.9935
G3 X-33.6149 Y286.9686 I-0.347 J31.8967
G3 X-25.6261 Y293.1668 I-6.2558 J16.3106
G3 X-24.7863 Y294.6608 I-6.3703 J4.5635
G1 F300.0 Z-5.0
G3 F800.0 X-31.3815 Y305.5424 I-7.21 J3.0695
G3 X-32.284 Y305.5111 I-0.3139 J-3.9877
G3 X-37.9175 Y301.6296 I1.1441 J-7.6894
G2 X-38.853 Y300.9426 I-2.0121 J1.7593
G3 X-38.8769 Y300.932 I1.6113 J-3.6611
G2 X-46.9443 Y299.0681 I-8.7746 J19.5887
G3 X-47.0389 Y299.0639 I0.1318 J-3.9978
G2 X-52.9005 Y300.4319 I-0.604 J10.6543
G3 X-39.0845 Y307.062 I-448.0469 J951.3584
G3 X-30.4521 Y313.5667 I-8.2455 J19.9232
G3 X-30.2217 Y313.8879 I-3.1311 J2.4893
G3 X-35.6097 Y332.064 I-10.5016 J6.7736
G3 X-47.8994 Y334.6184 I-11.4377 J-24.188
G3 X-65.4877 Y325.3429 I-0.3136 J-20.7187
G3 X-71.0888 Y306.1169 I27.0251 J-18.302
G3 X-63.674 Y289.3444 I20.6957 J-0.876
G3 X-63.507 Y289.2123 I2.5646 J3.0697
G3 X-46.708 Y284.0008 I15.7205 J20.9935
G3 X-33.6149 Y286.9686 I-0.347 J31.8967
G3 X-25.6261 Y293.1668 I-6.2558 J16.3106
G3 X-24.7863 Y294.6608 I-6.3703 J4.5635
G0 Z3.0
G0 X-78.4695 Y293.5878
G0 Z1.0
G1 F300.0 Z-2.5
G3 F800.0 X-78.47 Y293.6085 I-3.9992 J-0.0799
G2 X-78.741 Y307.4734 I1230.8466 J30.9915
G1 X-77.9646 Y325.6799
G3 X-93.6196 Y325.8796 I-7.8244 J0.3389
G1 X-94.3948 Y307.7024
G3 X-94.3981 Y307.476 I3.9963 J-0.1711
G3 X-94.1263 Y293.5103 I1239.1184 J17.124
G3 X-91.9839 Y287.9547 I7.8917 J-0.1476
G3 X-91.8502 Y287.8192 I2.9136 J2.7406
G3 X-78.4688 Y293.5202 I5.4867 J5.6766
G3 X-78.4695 Y293.5878 I-4.0 J-0.0124
G0 Z3.0
G0 X-83.5077 Y335.3115
G0 Z1.0
G1 F300.0 Z-2.5
G3 F800.0 X-78.449 Y349.7932 I-1.0242 J8.4822
G3 X-78.4676 Y349.812 I-2.8478 J-2.8089
G3 X-84.4983 Y335.25 I-6.0343 J-6.0307
G3 X-84.472 Y335.2501 I-0.0017 J4.0
G3 X-83.5077 Y335.3115 I-0.0599 J8.5436
G1 F300.0 Z-5.0
G3 F800.0 X-78.449 Y349.7932 I-1.0242 J8.4822
G3 X-78.4676 Y349.812 I-2.8478 J-2.8089
G3 X-84.4983 Y335.25 I-6.0343 J-6.0307
G3 X-84.472 Y335.2501 I-0.0017 J4.0
G3 X-83.5077 Y335.3115 I-0.0599 J8.5436
G1 F300.0 X-83.9218 Y333.6247
G3 F800.0 X-93.6196 Y325.8796 I-1.8673 J-7.6059
G1 X-94.3948 Y307.7024
G3 X-94.3981 Y307.476 I3.9963 J-0.1711
G3 X-94.1263 Y293.5103 I1239.1184 J17.124
G3 X-91.9839 Y287.9547 I7.8917 J-0.1476
G3 X-91.8502 Y287.8192 I2.9136 J2.7406
G3 X-78.4688 Y293.5202 I5.4867 J5.6766
G3 X-78.47 Y293.6085 I-4.0 J-0.0124
G2 X-78.741 Y307.4734 I1230.8466 J30.9915
G1 X-77.9646 Y325.6799
G3 X-83.9218 Y333.6247 I-7.8244 J0.3389
G0 Z3.0
G0 X-111.7524 Y342.9205
G0 Z1.0
G1 F300.0 Z-2.5
G3 F800.0 X-112.2568 Y349.5787 I-8.1709 J2.7292
G3 X-112.5979 Y350.1293 I-3.5597 J-1.8244
G3 X-123.5359 Y352.1567 I-6.5531 J-4.8354
G3 X-123.8723 Y351.9163 I2.1537 J-3.3707
G3 X-128.4454 Y344.8631 I8.2283 J-10.3441
G3 X-131.4933 Y333.8783 I159.6549 J-50.2147
G2 X-139.6544 Y312.2084 I-853.3657 J309.0133
G2 X-142.7892 Y329.953 I340.8738 J69.3693
G3 X-144.5959 Y342.2655 I-155.5793 J-16.5406
G3 X-145.8194 Y346.744 I-27.5267 J-5.1136
G3 X-159.0105 Y349.6585 I-7.4422 J-2.375
G3 X-159.0637 Y349.5995 I2.9436 J-2.7084
G3 X-164.0844 Y340.9344 I18.9961 J-16.7936
G3 X-168.0222 Y328.955 I162.4466 J-60.0364
G2 X-171.4581 Y318.1627 I-206.3971 J59.7656
G1 X-172.3812 Y322.3691
G3 X-180.0096 Y348.0503 I-175.3792 J-38.1215
G3 X-187.3187 Y353.3957 I-7.7519 J-2.9298
G3 X-195.2029 Y342.7252 I-0.8718 J-7.6039
G2 X-186.7028 Y315.4971 I-437.9383 J-151.6562
G3 X-181.3442 Y291.849 I593.5881 J122.0742
G3 X-179.9948 Y287.3385 I9.12 J0.2714
G3 X-179.5381 Y286.7335 I3.4066 J2.0964
G3 X-166.5808 Y285.3813 I7.2413 J6.631
G3 X-163.5609 Y293.5091 I-4.2038 J6.1869
G2 X-158.1733 Y307.8293 I94.9056 J-27.5318
G3 X-158.1203 Y307.9479 I-3.6235 J1.6941
G3 X-155.6656 Y314.0236 I-144.0506 J61.7314
G3 X-155.6062 Y313.7213 I221.5395 J43.3519
G2 X-152.5338 Y296.9587 I-1049.3899 J-201.005
G3 X-152.521 Y296.889 I3.9401 J0.6897
G3 X-150.2098 Y288.8918 I45.3066 J8.761
G3 X-141.3927 Y282.0518 I8.2809 J1.5717
G3 X-133.856 Y286.7769 I-0.3628 J8.9519
G3 X-133.7357 Y287.0214 I-3.5269 J1.8871
G3 X-128.1458 Y300.7307 I-187.3971 J84.4035
G1 X-116.5742 Y328.8611
G3 X-116.4192 Y329.3128 I-3.6992 J1.5217
G2 X-112.2043 Y341.8247 I117.5877 J-32.6457
G3 X-111.7524 Y342.9205 I-7.719 J3.8249
G1 F300.0 Z-5.0
G3 F800.0 X-112.2568 Y349.5787 I-8.1709 J2.7292
G3 X-112.5979 Y350.1293 I-3.5597 J-1.8244
G3 X-123.5359 Y352.1567 I-6.5531 J-4.8354
G3 X-123.8723 Y351.9163 I2.1537 J-3.3707
G3 X-128.4454 Y344.8631 I8.2283 J-10.3441
G3 X-131.4933 Y333.8783 I159.6549 J-50.2147
G2 X-139.6544 Y312.2084 I-853.3657 J309.0133
G2 X-142.7892 Y329.953 I340.8738 J69.3693
G3 X-144.5959 Y342.2655 I-155.5793 J-16.5406
G3 X-145.8194 Y346.744 I-27.5267 J-5.1136
G3 X-159.0105 Y349.6585 I-7.4422 J-2.375
G3 X-159.0637 Y349.5995 I2.9436 J-2.7084
G3 X-164.0844 Y340.9344 I18.9961 J-16.7936
G3 X-168.0222 Y328.955 I162.4466 J-60.0364
G2 X-171.4581 Y318.1627 I-206.3971 J59.7656
G1 X-172.3812 Y322.3691
G3 X-180.0096 Y348.0503 I-175.3792 J-38.1215
G3 X-187.3187 Y353.3957 I-7.7519 J-2.9298
G3 X-195.2029 Y342.7252 I-0.8718 J-7.6039
G2 X-186.7028 Y315.4971 I-437.9383 J-151.6562
G3 X-181.3442 Y291.849 I593.5881 J122.0742
G3 X-179.9948 Y287.3385 I9.12 J0.2714
G3 X-179.5381 Y286.7335 I3.4066 J2.0964
G3 X-166.5808 Y285.3813 I7.2413 J6.631
G3 X-163.5609 Y293.5091 I-4.2038 J6.1869
G2 X-158.1733 Y307.8293 I94.9056 J-27.5318
G3 X-158.1203 Y307.9479 I-3.6235 J1.6941
G3 X-155.6656 Y314.0236 I-144.0506 J61.7314
G3 X-155.6062 Y313.7213 I221.5395 J43.3519
G2 X-152.5338 Y296.9587 I-1049.3899 J-201.005
G3 X-152.521 Y296.889 I3.9401 J0.6897
G3 X-150.2098 Y288.8918 I45.3066 J8.761
G3 X-141.3927 Y282.0518 I8.2809 J1.5717
G3 X-133.856 Y286.7769 I-0.3628 J8.9519
G3 X-133.7357 Y287.0214 I-3.5269 J1.8871
G3 X-128.1458 Y300.7307 I-187.3971 J84.4035
G1 X-116.5742 Y328.8611
G3 X-116.4192 Y329.3128 I-3.6992 J1.5217
G2 X-112.2043 Y341.8247 I117.5877 J-32.6457
G3 X-111.7524 Y342.9205 I-7.719 J3.8249
G0 Z3.0
G0 X-228.114 Y348.1051
G0 Z1.0
G1 F300.0 Z-2.5
G3 F800.0 X-232.4368 Y355.243 I-7.5026 J0.3343
G3 X-233.0089 Y355.4588 I-1.6936 J-3.6238
G3 X-246.015 Y355.004 I-5.8148 J-19.907
G3 X-253.5496 Y349.8503 I5.2436 J-15.7509
G3 X-253.6399 Y349.7374 I3.079 J-2.5534
G3 X-257.3717 Y342.2771 I17.2822 J-13.3084
G3 X-257.3955 Y342.1876 I3.8536 J-1.0724
G3 X-259.134 Y332.4722 I67.242 J-17.0459
G1 X-259.2288 Y332.4692
G3 X-265.5088 Y331.2314 I-0.0821 J-16.133
G3 X-265.5273 Y331.2236 I1.5367 J-3.693
G3 X-270.0162 Y324.6114 I2.8567 J-6.7691
G3 X-261.7244 Y316.6278 I7.4077 J-0.604
G3 X-259.9155 Y316.7132 I-5.242 J130.27
G3 X-259.783 Y298.9722 I1004.7182 J-1.3694
G2 X-260.5433 Y288.6579 I-65.6709 J-0.3444
G3 X-252.8167 Y279.5439 I7.5278 J-1.4503
G3 X-245.2233 Y286.0759 I0.1985 J7.4489
G3 X-244.4881 Y292.2256 I-45.3919 J8.5455
G3 X-244.4876 Y292.2348 I-3.9946 J0.2075
G3 X-244.4831 Y305.6525 I-136.0975 J6.7548
G2 X-244.5168 Y317.9198 I138.8534 J6.5149
G2 X-239.5615 Y318.1349 I7.6855 J-119.8582
G3 X-231.6777 Y320.1307 I1.3372 J11.2871
G3 X-230.888 Y320.865 I-2.3039 J3.2698
G3 X-233.9431 Y332.7407 I-5.8789 J4.8184
G3 X-234.0921 Y332.7969 I-1.4859 J-3.7138
G3 X-239.5044 Y333.6386 I-4.9364 J-13.92
G3 X-243.5773 Y333.4668 I6.0056 J-190.7747
G2 X-243.082 Y335.7217 I26.1355 J-4.5584
G3 X-243.0177 Y336.0048 I-3.8658 J1.0272
G2 X-237.3144 Y340.7189 I5.6904 J-1.0773
G3 X-233.5384 Y341.2226 I0.2259 J12.7111
G3 X-228.114 Y348.1051 I-2.0781 J7.2167
G1 F300.0 Z-5.0
G3 F800.0 X-232.4368 Y355.243 I-7.5026 J0.3343
G3 X-233.0089 Y355.4588 I-1.6936 J-3.6238
G3 X-246.015 Y355.004 I-5.8148 J-19.907
G3 X-253.5496 Y349.8503 I5.2436 J-15.7509
G3 X-253.6399 Y349.7374 I3.079 J-2.5534
G3 X-257.3717 Y342.2771 I17.2822 J-13.3084
G3 X-257.3955 Y342.1876 I3.8536 J-1.0724
G3 X-259.134 Y332.4722 I67.242 J-17.0459
G1 X-259.2288 Y332.4692
G3 X-265.5088 Y331.2314 I-0.0821 J-16.133
G3 X-265.5273 Y331.2236 I1.5367 J-3.693
G3 X-270.0162 Y324.6114 I2.8567 J-6.7691
G3 X-261.7244 Y316.6278 I7.4077 J-0.604
G3 X-259.9155 Y316.7132 I-5.242 J130.27
G3 X-259.783 Y298.9722 I1004.7182 J-1.3694
G2 X-260.5433 Y288.6579 I-65.6709 J-0.3444
G3 X-252.8167 Y279.5439 I7.5278 J-1.4503
G3 X-245.2233 Y286.0759 I0.1985 J7.4489
G3 X-244.4881 Y292.2256 I-45.3919 J8.5455
G3 X-244.4876 Y292.2348 I-3.9946 J0.2075
G3 X-244.4831 Y305.6525 I-136.0975 J6.7548
G2 X-244.5168 Y317.9198 I138.8534 J6.5149
G2 X-239.5615 Y318.1349 I7.6855 J-119.8582
G3 X-231.6777 Y320.1307 I1.3372 J11.2871
G3 X-230.888 Y320.865 I-2.3039 J3.2698
G3 X-233.9431 Y332.7407 I-5.8789 J4.8184
G3 X-234.0921 Y332.7969 I-1.4859 J-3.7138
G3 X-239.5044 Y333.6386 I-4.9364 J-13.92
G3 X-243.5773 Y333.4668 I6.0056 J-190.7747
G2 X-243.082 Y335.7217 I26.1355 J-4.5584
G3 X-243.0177 Y336.0048 I-3.8658 J1.0272
G2 X-237.3144 Y340.7189 I5.6904 J-1.0773
G3 X-233.5384 Y341.2226 I0.2259 J12.7111
G3 X-228.114 Y348.1051 I-2.0781 J7.2167
G0 Z3.0
G0 X-277.3231 Y330.1587
G0 Z1.0
G1 F300.0 Z-2.5
G3 F800.0 X-284.6853 Y335.2066 I-7.2161 J-2.6317
G3 X-292.5168 Y327.8314 I-0.3032 J-7.5237
G3 X-293.2596 Y312.9319 I130.0227 J-13.9503
G3 X-293.2594 Y312.9092 I3.9999 J0.029
G2 X-293.1527 Y300.5542 I-1436.4127 J-18.5873
G2 X-300.1798 Y299.7739 I-7.4677 J35.2219
G2 X-301.7032 Y300.0117 I0.147 J5.9398
G2 X-302.9228 Y315.6014 I65.4708 J12.9642
G2 X-301.8061 Y327.1819 I529.594 J-45.2251
G3 X-301.7833 Y327.5827 I-3.9771 J0.4275
G3 X-309.6827 Y335.4395 I-7.8051 J0.0521
G3 X-317.4197 Y328.5047 I-0.2583 J-7.4952
G3 X-318.611 Y315.9019 I76.4061 J-13.5798
G3 X-318.6111 Y315.8084 I3.9997 J-0.0504
G3 X-317.046 Y296.8359 I133.188 J1.4359
G3 X-305.413 Y284.4232 I14.5921 J2.018
G3 X-290.8851 Y285.2645 I5.6969 J27.4814
G3 X-277.2137 Y290.4162 I5.8029 J5.3165
G3 X-277.2222 Y290.7732 I-3.9991 J0.0838
G2 X-277.5264 Y304.0813 I145.9984 J9.9946
G3 X-277.5255 Y304.2002 I-3.999 J0.0906
G2 X-277.5642 Y312.5186 I1721.4427 J12.1787
G1 X-276.8658 Y327.1847
G3 X-276.8647 Y327.2098 I-3.9955 J0.1903
G3 X-277.3231 Y330.1587 I-7.6745 J0.3171
G1 F300.0 Z-5.0
G3 F800.0 X-284.6853 Y335.2066 I-7.2161 J-2.6317
G3 X-292.5168 Y327.8314 I-0.3032 J-7.5237
G3 X-293.2596 Y312.9319 I130.0227 J-13.9503
G3 X-293.2594 Y312.9092 I3.9999 J0.029
G2 X-293.1527 Y300.5542 I-1436.4127 J-18.5873
G2 X-300.1798 Y299.7739 I-7.4677 J35.2219
G2 X-301.7032 Y300.0117 I0.147 J5.9398
G2 X-302.9228 Y315.6014 I65.4708 J12.9642
G2 X-301.8061 Y327.1819 I529.594 J-45.2251
G3 X-301.7833 Y327.5827 I-3.9771 J0.4275
G3 X-309.6827 Y335.4395 I-7.8051 J0.0521
G3 X-317.4197 Y328.5047 I-0.2583 J-7.4952
G3 X-318.611 Y315.9019 I76.4061 J-13.5798
G3 X-318.6111 Y315.8084 I3.9997 J-0.0504
G3 X-317.046 Y296.8359 I133.188 J1.4359
G3 X-305.413 Y284.4232 I14.5921 J2.018
G3 X-290.8851 Y285.2645 I5.6969 J27.4814
G3 X-277.2137 Y290.4162 I5.8029 J5.3165
G3 X-277.2222 Y290.7732 I-3.9991 J0.0838
G2 X-277.5264 Y304.0813 I145.9984 J9.9946
G3 X-277.5255 Y304.2002 I-3.999 J0.0906
G2 X-277.5642 Y312.5186 I1721.4427 J12.1787
G1 X-276.8658 Y327.1847
G3 X-276.8647 Y327.2098 I-3.9955 J0.1903
G3 X-277.3231 Y330.1587 I-7.6745 J0.3171
G0 Z3.0
G0 X-338.5601 Y317.0302
G0 Z1.0
G1 F300.0 Z-2.5
G1 F800.0 X-341.5331 Y330.8973
G1 X-343.9845 Y343.9715
G3 X-344.0185 Y344.1341 I-3.9315 J-0.7372
G3 X-346.0387 Y348.5179 I-11.554 J-2.6671
G3 X-346.0743 Y348.5652 I-3.216 J-2.3785
G3 X-352.2101 Y351.5305 I-5.9938 J-4.5716
G3 X-353.2982 Y351.3583 I0.0754 J-3.9993
G3 X-357.1239 Y348.8453 I2.3589 J-7.7597
G3 X-361.8339 Y342.8234 I34.8171 J-32.0851
G3 X-377.5943 Y316.9435 I267.9326 J-180.9054
G3 X-382.4555 Y307.2274 I3.0147 J-7.5824
G3 X-387.1615 Y296.3599 I145.8333 J-69.604
G3 X-372.9862 Y289.2671 I7.1164 J-3.4889
G3 X-372.9573 Y289.3248 I-3.5626 J1.8188
G3 X-366.9667 Y302.5787 I-208.0349 J102.0117
G2 X-352.2927 Y305.4953 I116.7425 J-548.9778
G3 X-350.3952 Y296.8928 I146.1762 J27.7328
G3 X-346.1166 Y287.63 I25.1132 J5.9804
G3 X-346.0242 Y287.5086 I3.2282 J2.3619
G3 X-340.4917 Y284.6317 I5.9744 J4.7312
G3 X-340.2009 Y284.6254 I0.232 J3.9933
G3 X-333.012 Y296.25 I-0.1192 J8.1089
G3 X-335.7879 Y304.0994 I-168.3476 J-55.1204
G1 X-338.5601 Y317.0302
G1 F300.0 Z-5.0
G1 F800.0 X-341.5331 Y330.8973
G1 X-343.9845 Y343.9715
G3 X-344.0185 Y344.1341 I-3.9315 J-0.7372
G3 X-346.0387 Y348.5179 I-11.554 J-2.6671
G3 X-346.0743 Y348.5652 I-3.216 J-2.3785
G3 X-352.2101 Y351.5305 I-5.9938 J-4.5716
G3 X-353.2982 Y351.3583 I0.0754 J-3.9993
G3 X-357.1239 Y348.8453 I2.3589 J-7.7597
G3 X-361.8339 Y342.8234 I34.8171 J-32.0851
G3 X-377.5943 Y316.9435 I267.9326 J-180.9054
G3 X-382.4555 Y307.2274 I3.0147 J-7.5824
G3 X-387.1615 Y296.3599 I145.8333 J-69.604
G3 X-372.9862 Y289.2671 I7.1164 J-3.4889
G3 X-372.9573 Y289.3248 I-3.5626 J1.8188
G3 X-366.9667 Y302.5787 I-208.0349 J102.0117
G2 X-352.2927 Y305.4953 I116.7425 J-548.9778
G3 X-350.3952 Y296.8928 I146.1762 J27.7328
G3 X-346.1166 Y287.63 I25.1132 J5.9804
G3 X-346.0242 Y287.5086 I3.2282 J2.3619
G3 X-340.4917 Y284.6317 I5.9744 J4.7312
G3 X-340.2009 Y284.6254 I0.232 J3.9933
G3 X-333.012 Y296.25 I-0.1192 J8.1089
G3 X-335.7879 Y304.0994 I-168.3476 J-55.1204
G1 X-338.5601 Y317.0302
G0 Z3.0
G0 X-307.9829 Y177.688
G0 Z1.0
G1 F300.0 Z-2.5
G3 F800.0 X-314.8086 Y169.0897 I1.8623 J-8.4868
G2 X-315.2852 Y157.7722 I-210.8444 J3.2103
G3 X-315.5841 Y137.5411 I152.805 J-12.3751
G3 X-315.584 Y137.5388 I3.9947 J0.205
G2 X-316.2489 Y114.6004 I-141.9461 J-7.3645
G3 X-316.2572 Y114.5168 I3.9759 J-0.4383
G3 X-317.1022 Y98.8147 I223.6627 J-19.91
G3 X-299.7273 Y98.7213 I8.6867 J-0.1906
G2 X-298.8774 Y110.7579 I124.6591 J-2.7544
G3 X-298.8771 Y110.7602 I-3.9718 J0.4745
G3 X-298.0813 Y120.4162 I-133.2834 J15.8453
G1 X-280.6959 Y123.8105
G3 X-280.6629 Y123.817 I-0.7665 J3.9259
G2 X-265.0113 Y125.9838 I24.8201 J-121.6726
G3 X-265.0522 Y123.002 I112.672 J-3.0392
G3 X-265.0476 Y122.8068 I4.0 J-0.002
G1 X-263.9784 Y100.5967
G3 X-246.6034 Y100.7366 I8.6878 J0.0291
G3 X-246.6036 Y100.752 I-3.9997 J-0.051
G3 X-247.1527 Y112.1844 I-182.2958 J-3.0271
G3 X-247.1577 Y112.2418 I-3.9874 J-0.3172
G2 X-246.876 Y137.0708 I117.7914 J11.0798
G3 X-246.069 Y156.6045 I-117.4322 J14.6353
G2 X-246.1637 Y160.8239 I143.3001 J5.3268
G3 X-246.1658 Y160.9259 I-3.9999 J-0.0309
G2 X-245.6503 Y165.4619 I15.6379 J0.52
G3 X-247.561 Y174.9339 I-8.0063 J3.3137
G3 X-260.2859 Y173.6557 I-5.8918 J-5.325
G3 X-260.3498 Y173.5437 I3.4417 J-2.0383
G3 X-263.5384 Y160.7492 I22.626 J-12.4333
G2 X-263.8783 Y143.5764 I-313.3417 J-2.3863
G3 X-281.9819 Y141.2331 I7.9618 J-132.6142
G1 X-298.2783 Y138.1562
G1 X-298.4566 Y145.6728
G2 X-297.4377 Y168.9026 I2931.3295 J-116.9397
G3 X-297.4342 Y169.0021 I-3.9954 J0.1911
G3 X-307.9829 Y177.688 I-8.6865 J0.1991
G1 F300.0 Z-5.0
G3 F800.0 X-314.8086 Y169.0897 I1.8623 J-8.4868
G2 X-315.2852 Y157.7722 I-210.8444 J3.2103
G3 X-315.5841 Y137.5411 I152.805 J-12.3751
G3 X-315.584 Y137.5388 I3.9947 J0.205
G2 X-316.2489 Y114.6004 I-141.9461 J-7.3645
G3 X-316.2572 Y114.5168 I3.9759 J-0.4383
G3 X-317.1022 Y98.8147 I223.6627 J-19.91
G3 X-299.7273 Y98.7213 I8.6867 J-0.1906
G2 X-298.8774 Y110.7579 I124.6591 J-2.7544
G3 X-298.8771 Y110.7602 I-3.9718 J0.4745
G3 X-298.0813 Y120.4162 I-133.2834 J15.8453
G1 X-280.6959 Y123.8105
G3 X-280.6629 Y123.817 I-0.7665 J3.9259
G2 X-265.0113 Y125.9838 I24.8201 J-121.6726
G3 X-265.0522 Y123.002 I112.672 J-3.0392
G3 X-265.0476 Y122.8068 I4.0 J-0.002
G1 X-263.9784 Y100.5967
G3 X-246.6034 Y100.7366 I8.6878 J0.0291
G3 X-246.6036 Y100.752 I-3.9997 J-0.051
G3 X-247.1527 Y112.1844 I-182.2958 J-3.0271
G3 X-247.1577 Y112.2418 I-3.9874 J-0.3172
G2 X-246.876 Y137.0708 I117.7914 J11.0798
G3 X-246.069 Y156.6045 I-117.4322 J14.6353
G2 X-246.1637 Y160.8239 I143.3001 J5.3268
G3 X-246.1658 Y160.9259 I-3.9999 J-0.0309
G2 X-245.6503 Y165.4619 I15.6379 J0.52
G3 X-247.561 Y174.9339 I-8.0063 J3.3137
G3 X-260.2859 Y173.6557 I-5.8918 J-5.325
G3 X-260.3498 Y173.5437 I3.4417 J-2.0383
G3 X-263.5384 Y160.7492 I22.626 J-12.4333
G2 X-263.8783 Y143.5764 I-313.3417 J-2.3863
G3 X-281.9819 Y141.2331 I7.9618 J-132.6142
G1 X-298.2783 Y138.1562
G1 X-298.4566 Y145.6728
G2 X-297.4377 Y168.9026 I2931.3295 J-116.9397
G3 X-297.4342 Y169.0021 I-3.9954 J0.1911
G3 X-307.9829 Y177.688 I-8.6865 J0.1991
G0 Z3.0
G0 X-217.3609 Y135.7227
G0 Z1.0
G1 F300.0 Z-2.5
G3 F800.0 X-220.6247 Y119.2255 I32.3155 J-14.9647
G3 X-212.6271 Y98.4585 I30.1041 J-0.3301
G3 X-212.6159 Y98.4464 I2.9372 J2.7153
G3 X-195.5741 Y91.119 I16.8493 J15.7063
G3 X-175.7288 Y101.5457 I0.1457 J23.8219
G3 X-169.3608 Y122.2578 I-29.3102 J20.3464
G3 X-173.652 Y141.5092 I-38.481 J1.5265
G3 X-191.9953 Y152.6361 I-17.962 J-8.9279
G3 X-214.3788 Y140.9518 I-0.7518 J-25.8418
G3 X-217.3609 Y135.7227 I29.3333 J-20.1938
G1 F300.0 Z-5.0
G3 F800.0 X-220.6247 Y119.2255 I32.3155 J-14.9647
G3 X-212.6271 Y98.4585 I30.1041 J-0.3301
G3 X-212.6159 Y98.4464 I2.9372 J2.7153
G3 X-195.5741 Y91.119 I16.8493 J15.7063
G3 X-175.7288 Y101.5457 I0.1457 J23.8219
G3 X-169.3608 Y122.2578 I-29.3102 J20.3464
G3 X-173.652 Y141.5092 I-38.481 J1.5265
G3 X-191.9953 Y152.6361 I-17.962 J-8.9279
G3 X-214.3788 Y140.9518 I-0.7518 J-25.8418
G3 X-217.3609 Y135.7227 I29.3333 J-20.1938
G0 Z3.0
G0 X-152.6593 Y140.1918
G0 Z1.0
G1 F300.0 Z-2.5
G3 F800.0 X-143.3642 Y132.5362 I8.2707 J0.5713
G3 X-140.0204 Y132.7046 I-6.4717 J161.8399
G3 X-139.8568 Y109.4799 I1254.8959 J-2.771
G2 X-140.8216 Y96.4052 I-83.0886 J-0.4413
G3 X-132.1485 Y86.1842 I8.4243 J-1.6417
G3 X-123.6458 Y93.5022 I0.2478 J8.3107
G3 X-122.7367 Y101.0878 I-55.7512 J10.5285
G3 X-122.7362 Y101.097 I-3.9946 J0.2075
G3 X-122.7307 Y117.7717 I-169.1231 J8.3939
G2 X-122.7341 Y134.0804 I174.5656 J8.1915
G2 X-111.2676 Y134.6758 I20.427 J-282.6866
G3 X-110.8738 Y134.7078 I-0.1265 J3.998
G3 X-105.8494 Y137.1052 I-1.1692 J8.9143
G3 X-105.5113 Y137.469 I-2.7556 J2.8994
G3 X-108.9284 Y150.7513 I-6.5752 J5.3892
G3 X-109.0773 Y150.8075 I-1.4859 J-3.7138
G3 X-115.4766 Y151.8027 I-5.8363 J-16.4575
G3 X-121.8508 Y151.5163 I7.4752 J-237.4689
G2 X-118.7176 Y160.1573 I19.0264 J-2.0104
G2 X-112.9229 Y162.6579 I5.4208 J-4.5972
G3 X-112.7946 Y162.6532 I0.2104 J3.9945
G3 X-108.3783 Y163.2285 I0.306 J14.8882
G3 X-102.3606 Y171.355 I-2.08 J7.8316
G3 X-107.2132 Y178.9536 I-8.0159 J0.2297
G3 X-107.2926 Y178.9867 I-1.5778 J-3.6757
G3 X-113.383 Y180.0772 I-5.644 J-13.969
G3 X-123.2199 Y178.5966 I-0.4155 J-30.6582
G3 X-123.2348 Y178.5918 I1.2291 J-3.8065
G3 X-132.2953 Y172.4284 I6.1427 J-18.7715
G3 X-132.3855 Y172.3155 I3.079 J-2.5534
G3 X-136.8792 Y163.3322 I20.8105 J-16.0254
G3 X-136.903 Y163.2427 I3.8536 J-1.0724
G3 X-139.1387 Y150.372 I83.0832 J-21.0617
G1 X-140.1511 Y150.3404
G3 X-147.6298 Y148.8698 I-0.1154 J-19.1661
G3 X-147.6483 Y148.8621 I1.5367 J-3.693
G3 X-152.6491 Y141.4668 I3.182 J-7.5401
G3 X-152.6593 Y140.1918 I8.2605 J-0.7037
G1 F300.0 Z-5.0
G3 F800.0 X-143.3642 Y132.5362 I8.2707 J0.5713
G3 X-140.0204 Y132.7046 I-6.4717 J161.8399
G3 X-139.8568 Y109.4799 I1254.8959 J-2.771
G2 X-140.8216 Y96.4052 I-83.0886 J-0.4413
G3 X-132.1485 Y86.1842 I8.4243 J-1.6417
G3 X-123.6458 Y93.5022 I0.2478 J8.3107
G3 X-122.7367 Y101.0878 I-55.7512 J10.5285
G3 X-122.7362 Y101.097 I-3.9946 J0.2075
G3 X-122.7307 Y117.7717 I-169.1231 J8.3939
G2 X-122.7341 Y134.0804 I174.5656 J8.1915
G2 X-111.2676 Y134.6758 I20.427 J-282.6866
G3 X-110.8738 Y134.7078 I-0.1265 J3.998
G3 X-105.8494 Y137.1052 I-1.1692 J8.9143
G3 X-105.5113 Y137.469 I-2.7556 J2.8994
G3 X-108.9284 Y150.7513 I-6.5752 J5.3892
G3 X-109.0773 Y150.8075 I-1.4859 J-3.7138
G3 X-115.4766 Y151.8027 I-5.8363 J-16.4575
G3 X-121.8508 Y151.5163 I7.4752 J-237.4689
G2 X-118.7176 Y160.1573 I19.0264 J-2.0104
G2 X-112.9229 Y162.6579 I5.4208 J-4.5972
G3 X-112.7946 Y162.6532 I0.2104 J3.9945
G3 X-108.3783 Y163.2285 I0.306 J14.8882
G3 X-102.3606 Y171.355 I-2.08 J7.8316
G3 X-107.2132 Y178.9536 I-8.0159 J0.2297
G3 X-107.2926 Y178.9867 I-1.5778 J-3.6757
G3 X-113.383 Y180.0772 I-5.644 J-13.969
G3 X-123.2199 Y178.5966 I-0.4155 J-30.6582
G3 X-123.2348 Y178.5918 I1.2291 J-3.8065
G3 X-132.2953 Y172.4284 I6.1427 J-18.7715
G3 X-132.3855 Y172.3155 I3.079 J-2.5534
G3 X-136.8792 Y163.3322 I20.8105 J-16.0254
G3 X-136.903 Y163.2427 I3.8536 J-1.0724
G3 X-139.1387 Y150.372 I83.0832 J-21.0617
G1 X-140.1511 Y150.3404
G3 X-147.6298 Y148.8698 I-0.1154 J-19.1661
G3 X-147.6483 Y148.8621 I1.5367 J-3.693
G3 X-152.6491 Y141.4668 I3.182 J-7.5401
G3 X-152.6593 Y140.1918 I8.2605 J-0.7037
G0 Z3.0
G0 X-84.2181 Y134.3014
G0 Z1.0
G1 F300.0 Z-2.5
G3 F800.0 X-84.2796 Y132.1201 I18.8547 J-1.6227
G3 X-78.6283 Y120.5628 I13.3759 J-0.6199
G3 X-78.4741 Y120.4592 I2.3075 J3.2673
G3 X-73.0065 Y117.9449 I11.8219 J18.5066
G3 X-72.9552 Y117.9298 I1.1574 J3.8289
G3 X-62.8359 Y115.4718 I34.3699 J119.4384
G2 X-58.1247 Y113.3567 I-2.7861 J-12.5098
G2 X-56.7353 Y110.5415 I-2.1325 J-2.803
G2 X-58.3574 Y109.7617 I-3.066 J4.3007
G2 X-69.1902 Y109.4321 I-6.0902 J21.9782
G3 X-69.5771 Y109.4947 I-0.8318 J-3.9126
G2 X-72.7409 Y110.5077 I0.9374 J8.3749
G3 X-78.3448 Y113.6259 I-7.991 J-7.7663
G3 X-79.2477 Y113.7185 I-0.8569 J-3.9071
G3 X-88.2276 Y105.0002 I0.1047 J-9.0916
G3 X-88.2303 Y104.763 I3.9966 J-0.1642
G3 X-84.0636 Y96.6625 I10.3233 J0.1882
G3 X-78.0421 Y93.4462 I12.7875 J16.6956
G3 X-64.5659 Y91.0701 I13.3911 J36.5446
G3 X-48.1801 Y94.8553 I1.072 J32.7186
G3 X-48.0969 Y94.9006 I-1.8712 J3.5353
G3 X-41.456 Y101.3645 I-8.7602 J15.6433
G3 X-41.3009 Y101.6506 I-3.436 J2.0479
G3 X-49.0058 Y128.6383 I-18.8042 J9.2251
G3 X-49.2094 Y128.7573 I-2.1197 J-3.3922
G3 X-64.1342 Y134.1908 I-25.3894 J-46.5248
G2 X-61.4554 Y135.4901 I8.6076 J-14.3351
G2 X-54.5752 Y137.6536 I63.8363 J-190.9925
G3 X-53.9597 Y135.9168 I21.7795 J6.7414
G3 X-53.5874 Y135.2046 I3.7131 J1.4875
G3 X-46.3526 Y131.5964 I6.7257 J4.4284
G3 X-37.7073 Y140.7414 I-0.0239 J8.6816
G3 X-38.4516 Y145.6333 I-25.1537 J-1.3245
G2 X-38.9184 Y148.8602 I18.3397 J4.3005
G3 X-47.7314 Y157.762 I-8.6788 J0.2212
G3 X-53.6007 Y156.5716 I-0.0744 J-14.6976
G2 X-62.3164 Y153.6217 I-28.4506 J69.7102
G3 X-72.1202 Y150.3557 I20.8523 J-78.9417
G3 X-84.2181 Y134.3014 I6.7568 J-17.6771
G1 F300.0 Z-5.0
G3 F800.0 X-84.2796 Y132.1201 I18.8547 J-1.6227
G3 X-78.6283 Y120.5628 I13.3759 J-0.6199
G3 X-78.4741 Y120.4592 I2.3075 J3.2673
G3 X-73.0065 Y117.9449 I11.8219 J18.5066
G3 X-72.9552 Y117.9298 I1.1574 J3.8289
G3 X-62.8359 Y115.4718 I34.3699 J119.4384
G2 X-58.1247 Y113.3567 I-2.7861 J-12.5098
G2 X-56.7353 Y110.5415 I-2.1325 J-2.803
G2 X-58.3574 Y109.7617 I-3.066 J4.3007
G2 X-69.1902 Y109.4321 I-6.0902 J21.9782
G3 X-69.5771 Y109.4947 I-0.8318 J-3.9126
G2 X-72.7409 Y110.5077 I0.9374 J8.3749
G3 X-78.3448 Y113.6259 I-7.991 J-7.7663
G3 X-79.2477 Y113.7185 I-0.8569 J-3.9071
G3 X-88.2276 Y105.0002 I0.1047 J-9.0916
G3 X-88.2303 Y104.763 I3.9966 J-0.1642
G3 X-84.0636 Y96.6625 I10.3233 J0.1882
G3 X-78.0421 Y93.4462 I12.7875 J16.6956
G3 X-64.5659 Y91.0701 I13.3911 J36.5446
G3 X-48.1801 Y94.8553 I1.072 J32.7186
G3 X-48.0969 Y94.9006 I-1.8712 J3.5353
G3 X-41.456 Y101.3645 I-8.7602 J15.6433
G3 X-41.3009 Y101.6506 I-3.436 J2.0479
G3 X-49.0058 Y128.6383 I-18.8042 J9.2251
G3 X-49.2094 Y128.7573 I-2.1197 J-3.3922
G3 X-64.1342 Y134.1908 I-25.3894 J-46.5248
G2 X-61.4554 Y135.4901 I8.6076 J-14.3351
G2 X-54.5752 Y137.6536 I63.8363 J-190.9925
G3 X-53.9597 Y135.9168 I21.7795 J6.7414
G3 X-53.5874 Y135.2046 I3.7131 J1.4875
G3 X-46.3526 Y131.5964 I6.7257 J4.4284
G3 X-37.7073 Y140.7414 I-0.0239 J8.6816
G3 X-38.4516 Y145.6333 I-25.1537 J-1.3245
G2 X-38.9184 Y148.8602 I18.3397 J4.3005
G3 X-47.7314 Y157.762 I-8.6788 J0.2212
G3 X-53.6007 Y156.5716 I-0.0744 J-14.6976
G2 X-62.3164 Y153.6217 I-28.4506 J69.7102
G3 X-72.1202 Y150.3557 I20.8523 J-78.9417
G3 X-84.2181 Y134.3014 I6.7568 J-17.6771
G0 Z3.0
G0 X45.3105 Y289.3444
G0 Z1.0
G1 F300.0 Z-2.5
G3 F800.0 X45.4774 Y289.2123 I2.5645 J3.0697
G3 X62.2764 Y284.0008 I15.7205 J20.9935
G3 X75.3694 Y286.9686 I-0.347 J31.8967
G3 X83.3583 Y293.1668 I-6.2558 J16.3106
G3 X77.6029 Y305.5424 I-6.3703 J4.5635
G3 X76.7004 Y305.5111 I-0.3139 J-3.9877
G3 X71.0669 Y301.6296 I1.1441 J-7.6894
G2 X70.1314 Y300.9426 I-2.0121 J1.7593
G3 X70.1075 Y300.932 I1.6113 J-3.6611
G2 X62.0401 Y299.0681 I-8.7746 J19.5887
G3 X61.9455 Y299.0639 I0.1318 J-3.9978
G2 X56.0838 Y300.4319 I-0.604 J10.6543
G3 X69.8998 Y307.062 I-448.0469 J951.3584
G3 X78.5323 Y313.5667 I-8.2455 J19.9232
G3 X78.7627 Y313.8879 I-3.1311 J2.4893
G3 X73.3746 Y332.064 I-10.5016 J6.7736
G3 X61.085 Y334.6184 I-11.4377 J-24.188
G3 X43.4966 Y325.3429 I-0.3136 J-20.7187
G3 X37.8956 Y306.1169 I27.0251 J-18.302
G3 X45.3104 Y289.3444 I20.6957 J-0.876
G1 X45.3105
G1 F300.0 Z-5.0
G3 F800.0 X45.4774 Y289.2123 I2.5645 J3.0697
G3 X62.2764 Y284.0008 I15.7205 J20.9935
G3 X75.3694 Y286.9686 I-0.347 J31.8967
G3 X83.3583 Y293.1668 I-6.2558 J16.3106
G3 X77.6029 Y305.5424 I-6.3703 J4.5635
G3 X76.7004 Y305.5111 I-0.3139 J-3.9877
G3 X71.0669 Y301.6296 I1.1441 J-7.6894
G2 X70.1314 Y300.9426 I-2.0121 J1.7593
G3 X70.1075 Y300.932 I1.6113 J-3.6611
G2 X62.0401 Y299.0681 I-8.7746 J19.5887
G3 X61.9455 Y299.0639 I0.1318 J-3.9978
G2 X56.0838 Y300.4319 I-0.604 J10.6543
G3 X69.8998 Y307.062 I-448.0469 J951.3584
G3 X78.5323 Y313.5667 I-8.2455 J19.9232
G3 X78.7627 Y313.8879 I-3.1311 J2.4893
G3 X73.3746 Y332.064 I-10.5016 J6.7736
G3 X61.085 Y334.6184 I-11.4377 J-24.188
G3 X43.4966 Y325.3429 I-0.3136 J-20.7187
G3 X37.8956 Y306.1169 I27.0251 J-18.302
G3 X45.3104 Y289.3444 I20.6957 J-0.876
G1 X45.3105
G0 Z3.0
G0 X92.4823 Y290.4166
G0 Z1.0
G1 F300.0 Z-2.5
G3 F800.0 X99.7581 Y283.18 I7.4041 J0.1683
G3 X107.8273 Y291.3655 I0.6288 J7.4502
G1 X107.7531 Y311.6986
G2 X111.8905 Y316.953 I13.47 J-6.3505
G2 X115.5936 Y318.7899 I9.2681 J-14.0335
G3 X115.6385 Y317.7751 I425.6759 J18.2977
G3 X119.7885 Y310.428 I7.4625 J-0.6304
G3 X120.1945 Y310.2549 I1.7692 J3.5875
G3 X129.2467 Y312.9503 I2.7052 J7.4629
G3 X129.5642 Y313.4449 I-3.1982 J2.4024
G3 X130.9082 Y318.3835 I-9.8053 J5.3208
G3 X130.9611 Y321.4697 I-16.6856 J1.8293
G3 X128.9297 Y330.4501 I-17.7368 J0.7078
G3 X128.7393 Y330.7737 I-3.5391 J-1.8641
G3 X120.5284 Y334.9671 I-7.7682 J-5.075
G3 X106.4604 Y330.8225 I0.4682 J-27.5364
G3 X94.5434 Y331.8333 I-6.3567 J-4.1888
G3 X94.1076 Y331.2756 I2.9216 J-2.732
G3 X92.7157 Y326.2652 I7.2966 J-4.7255
G3 X92.5239 Y318.6075 I386.9913 J-13.525
G3 X92.5234 Y318.5469 I3.9995 J-0.0606
G1 Y291.3827
G3 X92.4823 Y290.4166 I7.363 J-0.7978
G1 F300.0 Z-5.0
G3 F800.0 X99.7581 Y283.18 I7.4041 J0.1683
G3 X107.8273 Y291.3655 I0.6288 J7.4502
G1 X107.7531 Y311.6986
G2 X111.8905 Y316.953 I13.47 J-6.3505
G2 X115.5936 Y318.7899 I9.2681 J-14.0335
G3 X115.6385 Y317.7751 I425.6759 J18.2977
G3 X119.7885 Y310.428 I7.4625 J-0.6304
G3 X120.1945 Y310.2549 I1.7692 J3.5875
G3 X129.2467 Y312.9503 I2.7052 J7.4629
G3 X129.5642 Y313.4449 I-3.1982 J2.4024
G3 X130.9082 Y318.3835 I-9.8053 J5.3208
G3 X130.9611 Y321.4697 I-16.6856 J1.8293
G3 X128.9297 Y330.4501 I-17.7368 J0.7078
G3 X128.7393 Y330.7737 I-3.5391 J-1.8641
G3 X120.5284 Y334.9671 I-7.7682 J-5.075
G3 X106.4604 Y330.8225 I0.4682 J-27.5364
G3 X94.5434 Y331.8333 I-6.3567 J-4.1888
G3 X94.1076 Y331.2756 I2.9216 J-2.732
G3 X92.7157 Y326.2652 I7.2966 J-4.7255
G3 X92.5239 Y318.6075 I386.9913 J-13.525
G3 X92.5234 Y318.5469 I3.9995 J-0.0606
G1 Y291.3827
G3 X92.4823 Y290.4166 I7.363 J-0.7978
G0 Z3.0
G0 X134.8541 Y294.3559
G0 Z1.0
G1 F300.0 Z-2.5
G3 F800.0 X135.9406 Y290.9996 I8.0347 J0.747
G3 X136.0402 Y290.8396 I3.4443 J2.034
G3 X143.6701 Y285.3415 I10.9916 J7.2101
G3 X161.2392 Y284.08 I11.1066 J31.7095
G3 X173.6038 Y291.8844 I-2.7312 J18.024
G3 X173.8826 Y292.365 I-3.3124 J2.2424
G3 X167.4244 Y314.9859 I-15.7616 J7.7325
G3 X167.2208 Y315.1049 I-2.1197 J-3.3922
G3 X157.2781 Y319.0248 I-20.6947 J-37.9221
G2 X161.9172 Y320.498 I50.8317 J-152.0298
G3 X169.0668 Y315.874 I6.9245 J2.8674
G3 X176.838 Y324.0351 I0.0371 J7.7452
G3 X176.7942 Y324.4478 I-3.9942 J-0.2147
G2 X175.8725 Y330.6921 I283.8816 J45.0929
G3 X168.0159 Y338.4065 I-7.7452 J-0.0301
G3 X162.9743 Y337.3743 I-0.0554 J-12.5581
G3 X162.9725 Y337.3735 I1.5882 J-3.6712
G2 X159.7399 Y336.165 I-13.4521 J31.0538
G3 X148.3489 Y332.4753 I65.5135 J-221.6828
G3 X148.2573 Y332.4417 I1.3308 J-3.7721
G3 X138.9569 Y311.9609 I5.681 J-14.9319
G3 X139.1723 Y311.4793 I3.751 J1.3893
G3 X147.7482 Y304.935 I11.3806 J6.0222
G3 X155.7711 Y302.9915 I27.5886 J96.3564
G2 X159.2285 Y301.4397 I-2.0636 J-9.2251
G2 X159.9752 Y300.2479 I-1.2292 J-1.5999
G2 X159.3029 Y299.9765 I-1.6111 J3.0228
G2 X151.0193 Y299.7251 I-4.6559 J16.8123
G3 X150.6324 Y299.7877 I-0.8318 J-3.9126
G2 X148.4993 Y300.4487 I0.6609 J5.9049
G3 X143.7006 Y303.079 I-6.8797 J-6.8587
G3 X142.7995 Y303.1716 I-0.8569 J-3.9071
G3 X134.8541 Y294.3559 I0.0893 J-8.0688
G1 F300.0 Z-5.0
G3 F800.0 X135.9406 Y290.9996 I8.0347 J0.747
G3 X136.0402 Y290.8396 I3.4443 J2.034
G3 X143.6701 Y285.3415 I10.9916 J7.2101
G3 X161.2392 Y284.08 I11.1066 J31.7095
G3 X173.6038 Y291.8844 I-2.7312 J18.024
G3 X173.8826 Y292.365 I-3.3124 J2.2424
G3 X167.4244 Y314.9859 I-15.7616 J7.7325
G3 X167.2208 Y315.1049 I-2.1197 J-3.3922
G3 X157.2781 Y319.0248 I-20.6947 J-37.9221
G2 X161.9172 Y320.498 I50.8317 J-152.0298
G3 X169.0668 Y315.874 I6.9245 J2.8674
G3 X176.838 Y324.0351 I0.0371 J7.7452
G3 X176.7942 Y324.4478 I-3.9942 J-0.2147
G2 X175.8725 Y330.6921 I283.8816 J45.0929
G3 X168.0159 Y338.4065 I-7.7452 J-0.0301
G3 X162.9743 Y337.3743 I-0.0554 J-12.5581
G3 X162.9725 Y337.3735 I1.5882 J-3.6712
G2 X159.7399 Y336.165 I-13.4521 J31.0538
G3 X148.3489 Y332.4753 I65.5135 J-221.6828
G3 X148.2573 Y332.4417 I1.3308 J-3.7721
G3 X138.9569 Y311.9609 I5.681 J-14.9319
G3 X139.1723 Y311.4793 I3.751 J1.3893
G3 X147.7482 Y304.935 I11.3806 J6.0222
G3 X155.7711 Y302.9915 I27.5886 J96.3564
G2 X159.2285 Y301.4397 I-2.0636 J-9.2251
G2 X159.9752 Y300.2479 I-1.2292 J-1.5999
G2 X159.3029 Y299.9765 I-1.6111 J3.0228
G2 X151.0193 Y299.7251 I-4.6559 J16.8123
G3 X150.6324 Y299.7877 I-0.8318 J-3.9126
G2 X148.4993 Y300.4487 I0.6609 J5.9049
G3 X143.7006 Y303.079 I-6.8797 J-6.8587
G3 X142.7995 Y303.1716 I-0.8569 J-3.9071
G3 X134.8541 Y294.3559 I0.0893 J-8.0688
G0 Z3.0
G0 X183.5819 Y302.0217
G0 Z1.0
G1 F300.0 Z-2.5
G3 F800.0 X190.7635 Y289.3444 I20.4626 J3.2192
G3 X190.9305 Y289.2123 I2.5646 J3.0697
G3 X207.7295 Y284.0008 I15.7205 J20.9935
G3 X220.8226 Y286.9686 I-0.347 J31.8967
G3 X228.8114 Y293.1668 I-6.2558 J16.3106
G3 X223.056 Y305.5424 I-6.3703 J4.5635
G3 X222.1535 Y305.5111 I-0.3139 J-3.9877
G3 X216.52 Y301.6296 I1.1441 J-7.6894
G2 X215.5845 Y300.9426 I-2.0121 J1.7593
G3 X215.5606 Y300.932 I1.6113 J-3.6611
G2 X207.4932 Y299.0681 I-8.7746 J19.5887
G3 X207.3986 Y299.0639 I0.1318 J-3.9978
G2 X201.537 Y300.4319 I-0.604 J10.6543
G3 X215.353 Y307.062 I-448.0469 J951.3584
G3 X223.9854 Y313.5667 I-8.2455 J19.9232
G3 X224.2158 Y313.8879 I-3.1311 J2.4893
G3 X218.8278 Y332.064 I-10.5016 J6.7736
G3 X206.5381 Y334.6184 I-11.4377 J-24.188
G3 X188.9498 Y325.3429 I-0.3136 J-20.7187
G3 X183.3487 Y306.1169 I27.0251 J-18.302
G3 X183.5819 Y302.0217 I20.6957 J-0.876
G1 F300.0 Z-5.0
G3 F800.0 X190.7635 Y289.3444 I20.4626 J3.2192
G3 X190.9305 Y289.2123 I2.5646 J3.0697
G3 X207.7295 Y284.0008 I15.7205 J20.9935
G3 X220.8226 Y286.9686 I-0.347 J31.8967
G3 X228.8114 Y293.1668 I-6.2558 J16.3106
G3 X223.056 Y305.5424 I-6.3703 J4.5635
G3 X222.1535 Y305.5111 I-0.3139 J-3.9877
G3 X216.52 Y301.6296 I1.1441 J-7.6894
G2 X215.5845 Y300.9426 I-2.0121 J1.7593
G3 X215.5606 Y300.932 I1.6113 J-3.6611
G2 X207.4932 Y299.0681 I-8.7746 J19.5887
G3 X207.3986 Y299.0639 I0.1318 J-3.9978
G2 X201.537 Y300.4319 I-0.604 J10.6543
G3 X215.353 Y307.062 I-448.0469 J951.3584
G3 X223.9854 Y313.5667 I-8.2455 J19.9232
G3 X224.2158 Y313.8879 I-3.1311 J2.4893
G3 X218.8278 Y332.064 I-10.5016 J6.7736
G3 X206.5381 Y334.6184 I-11.4377 J-24.188
G3 X188.9498 Y325.3429 I-0.3136 J-20.7187
G3 X183.3487 Y306.1169 I27.0251 J-18.302
G3 X183.5819 Y302.0217 I20.6957 J-0.876
G0 Z3.0
G0 X238.2936 Y293.9424
G0 Z1.0
G1 F300.0 Z-2.5
G3 F800.0 X253.3442 Y289.8675 I7.7664 J-1.1469
G3 X253.436 Y290.1202 I-3.7114 J1.4919
G3 X254.445 Y295.4383 I-20.2422 J6.5951
G3 X254.8929 Y308.0228 I-147.504 J11.5504
G2 X259.5297 Y315.3365 I48.6399 J-25.7104
G2 X264.5529 Y318.1993 I5.9971 J-4.6843
G2 X264.8924 Y315.0425 I-12.3509 J-2.9249
G3 X264.696 Y308.8181 I247.924 J-10.9366
G3 X264.6965 Y308.6468 I3.9993 J-0.076
G3 X267.122 Y289.5278 I94.2931 J2.2493
G3 X274.723 Y283.3751 I7.4439 J1.4246
G3 X282.4081 Y293.114 I-0.0369 J7.9308
G2 X280.078 Y315.9251 I120.8731 J23.8718
G3 X280.0778 Y315.9427 I-3.9999 J-0.0344
G3 X278.98 Y324.4493 I-37.2644 J-0.4849
G3 X271.8192 Y332.9272 I-11.9414 J-2.8231
G3 X271.5949 Y333.0143 I-1.5584 J-3.6839
G3 X255.3905 Y331.3928 I-6.379 J-18.0314
G3 X255.3454 Y331.3654 I2.0548 J-3.4319
G3 X254.6637 Y330.931 I14.4619 J-23.4459
G2 X254.7563 Y333.2543 I171.3299 J-5.6643
G3 X254.3807 Y349.4567 I-66.3489 J6.5675
G3 X252.2096 Y354.1651 I-8.3595 J-1.0
G3 X251.8326 Y354.5238 I-2.9401 J-2.7121
G3 X238.762 Y348.7688 I-5.1079 J-6.1194
G3 X238.7578 Y348.5952 I3.9958 J-0.1829
G3 X239.1823 Y344.1148 I23.29 J-0.0539
G3 X239.1998 Y344.0292 I3.9271 J0.7602
G2 X239.5002 Y341.1772 I-12.9856 J-2.8094
G2 X239.2343 Y334.8503 I-156.5176 J3.4087
G3 X239.2266 Y334.6179 I3.9923 J-0.2487
G1 X239.1094 Y305.907
G3 X239.1095 Y305.8612 I4.0 J-0.0163
G2 X238.6372 Y295.3516 I-100.6993 J-0.7401
G3 X238.2936 Y293.9424 I7.4228 J-2.5561
G1 F300.0 Z-5.0
G3 F800.0 X253.3442 Y289.8675 I7.7664 J-1.1469
G3 X253.436 Y290.1202 I-3.7114 J1.4919
G3 X254.445 Y295.4383 I-20.2422 J6.5951
G3 X254.8929 Y308.0228 I-147.504 J11.5504
G2 X259.5297 Y315.3365 I48.6399 J-25.7104
G2 X264.5529 Y318.1993 I5.9971 J-4.6843
G2 X264.8924 Y315.0425 I-12.3509 J-2.9249
G3 X264.696 Y308.8181 I247.924 J-10.9366
G3 X264.6965 Y308.6468 I3.9993 J-0.076
G3 X267.122 Y289.5278 I94.2931 J2.2493
G3 X274.723 Y283.3751 I7.4439 J1.4246
G3 X282.4081 Y293.114 I-0.0369 J7.9308
G2 X280.078 Y315.9251 I120.8731 J23.8718
G3 X280.0778 Y315.9427 I-3.9999 J-0.0344
G3 X278.98 Y324.4493 I-37.2644 J-0.4849
G3 X271.8192 Y332.9272 I-11.9414 J-2.8231
G3 X271.5949 Y333.0143 I-1.5584 J-3.6839
G3 X255.3905 Y331.3928 I-6.379 J-18.0314
G3 X255.3454 Y331.3654 I2.0548 J-3.4319
G3 X254.6637 Y330.931 I14.4619 J-23.4459
G2 X254.7563 Y333.2543 I171.3299 J-5.6643
G3 X254.3807 Y349.4567 I-66.3489 J6.5675
G3 X252.2096 Y354.1651 I-8.3595 J-1.0
G3 X251.8326 Y354.5238 I-2.9401 J-2.7121
G3 X238.762 Y348.7688 I-5.1079 J-6.1194
G3 X238.7578 Y348.5952 I3.9958 J-0.1829
G3 X239.1823 Y344.1148 I23.29 J-0.0539
G3 X239.1998 Y344.0292 I3.9271 J0.7602
G2 X239.5002 Y341.1772 I-12.9856 J-2.8094
G2 X239.2343 Y334.8503 I-156.5176 J3.4087
G3 X239.2266 Y334.6179 I3.9923 J-0.2487
G1 X239.1094 Y305.907
G3 X239.1095 Y305.8612 I4.0 J-0.0163
G2 X238.6372 Y295.3516 I-100.6993 J-0.7401
G3 X238.2936 Y293.9424 I7.4228 J-2.5561
G0 Z3.0
G0 X291.6156 Y302.106
G0 Z1.0
G1 F300.0 Z-2.5
G3 F800.0 X298.8104 Y289.3444 I20.4757 J3.1348
G3 X298.9774 Y289.2123 I2.5646 J3.0697
G3 X315.7764 Y284.0008 I15.7205 J20.9935
G3 X328.8694 Y286.9686 I-0.347 J31.8967
G3 X336.8583 Y293.1668 I-6.2558 J16.3106
G3 X331.1029 Y305.5424 I-6.3703 J4.5635
G3 X330.2004 Y305.5111 I-0.3139 J-3.9877
G3 X324.5669 Y301.6296 I1.1441 J-7.6894
G2 X323.6314 Y300.9426 I-2.0121 J1.7593
G3 X323.6075 Y300.932 I1.6113 J-3.6611
G2 X315.5401 Y299.0681 I-8.7746 J19.5887
G3 X315.4455 Y299.0639 I0.1318 J-3.9978
G2 X309.5838 Y300.4319 I-0.604 J10.6543
G3 X323.3998 Y307.062 I-448.0469 J951.3584
G3 X332.0323 Y313.5667 I-8.2455 J19.9232
G3 X332.2627 Y313.8879 I-3.1311 J2.4893
G3 X326.8746 Y332.064 I-10.5016 J6.7736
G3 X314.585 Y334.6184 I-11.4377 J-24.188
G3 X296.9966 Y325.3429 I-0.3136 J-20.7187
G3 X291.3956 Y306.1169 I27.0251 J-18.302
G3 X291.6156 Y302.106 I20.6957 J-0.876
G1 F300.0 Z-5.0
G3 F800.0 X298.8104 Y289.3444 I20.4757 J3.1348
G3 X298.9774 Y289.2123 I2.5646 J3.0697
G3 X315.7764 Y284.0008 I15.7205 J20.9935
G3 X328.8694 Y286.9686 I-0.347 J31.8967
G3 X336.8583 Y293.1668 I-6.2558 J16.3106
G3 X331.1029 Y305.5424 I-6.3703 J4.5635
G3 X330.2004 Y305.5111 I-0.3139 J-3.9877
G3 X324.5669 Y301.6296 I1.1441 J-7.6894
G2 X323.6314 Y300.9426 I-2.0121 J1.7593
G3 X323.6075 Y300.932 I1.6113 J-3.6611
G2 X315.5401 Y299.0681 I-8.7746 J19.5887
G3 X315.4455 Y299.0639 I0.1318 J-3.9978
G2 X309.5838 Y300.4319 I-0.604 J10.6543
G3 X323.3998 Y307.062 I-448.0469 J951.3584
G3 X332.0323 Y313.5667 I-8.2455 J19.9232
G3 X332.2627 Y313.8879 I-3.1311 J2.4893
G3 X326.8746 Y332.064 I-10.5016 J6.7736
G3 X314.585 Y334.6184 I-11.4377 J-24.188
G3 X296.9966 Y325.3429 I-0.3136 J-20.7187
G3 X291.3956 Y306.1169 I27.0251 J-18.302
G3 X291.6156 Y302.106 I20.6957 J-0.876
G0 Z3.0
G0 X345.4734 Y300.7463
G0 Z1.0
G1 F300.0 Z-2.5
G3 F800.0 X345.4379 Y298.9559 I164.4605 J-4.1521
G3 X345.445 Y298.6544 I3.9996 J-0.0574
G3 X345.9421 Y291.7403 I322.2933 J19.6985
G3 X348.0717 Y286.2907 I7.9487 J-0.0347
G3 X348.2201 Y286.1394 I2.9283 J2.7249
G3 X361.6012 Y291.9194 I5.4867 J5.6769
G3 X361.6005 Y291.9612 I-3.9997 J-0.0522
G3 X361.3432 Y295.8204 I-44.9105 J-1.0558
G1 Y295.8205
G1 Y295.8204
G2 X361.1352 Y298.854 I36.7138 J4.0407
G2 X361.6612 Y305.7598 I124.0455 J-5.9743
G2 X363.6189 Y311.1104 I37.5764 J-10.7157
G3 X363.6746 Y311.2399 I-3.6462 J1.6447
G2 X369.3579 Y318.8584 I17.6081 J-7.2064
G2 X370.476 Y319.4364 I2.4972 J-3.4597
G2 X370.8408 Y315.5448 I-10.946 J-2.9891
G3 X370.8326 Y315.4158 I3.9873 J-0.3182
G3 X370.5561 Y307.9099 I356.8666 J-16.9058
G3 X370.5568 Y307.6756 I3.9986 J-0.1052
G3 X372.1964 Y290.372 I139.7317 J4.5113
G3 X380.1448 Y283.0262 I7.563 J0.2103
G3 X387.8891 Y290.7796 I-0.2309 J7.9749
G3 X387.8893 Y290.992 I-3.9985 J0.1111
G3 X386.9698 Y299.9097 I-57.9408 J-1.4683
G2 X386.2117 Y307.6267 I52.5729 J9.0603
G3 X386.2502 Y315.1646 I-356.3641 J5.5882
G3 X384.1679 Y327.4285 I-33.9001 J0.5528
G3 X384.1107 Y327.575 I-3.7538 J-1.3817
G3 X379.1282 Y333.5677 I-12.1221 J-5.011
G3 X378.8216 Y333.7477 I-2.1772 J-3.3556
G3 X361.4255 Y331.8264 I-7.2837 J-13.7664
G3 X361.2179 Y331.663 I20.3288 J-26.0504
G3 X360.786 Y332.5974 I-11.0389 J-4.5352
G3 X360.5628 Y332.9773 I-3.5552 J-1.8333
G3 X346.2971 Y328.5797 I-6.4832 J-4.3062
G3 X346.4196 Y324.7046 I93.1394 J1.003
G3 X346.4227 Y324.6518 I3.9945 J0.2095
G2 X346.0148 Y310.5234 I-74.7507 J-4.9119
G3 X345.9984 Y310.3661 I3.9696 J-0.4921
G3 X345.4734 Y300.7463 I163.9355 J-13.7719
G1 F300.0 Z-5.0
G3 F800.0 X345.4379 Y298.9559 I164.4605 J-4.1521
G3 X345.445 Y298.6544 I3.9996 J-0.0574
G3 X345.9421 Y291.7403 I322.2933 J19.6985
G3 X348.0717 Y286.2907 I7.9487 J-0.0347
G3 X348.2201 Y286.1394 I2.9283 J2.7249
G3 X361.6012 Y291.9194 I5.4867 J5.6769
G3 X361.6005 Y291.9612 I-3.9997 J-0.0522
G3 X361.3432 Y295.8204 I-44.9105 J-1.0558
G1 Y295.8205
G1 Y295.8204
G2 X361.1352 Y298.854 I36.7138 J4.0407
G2 X361.6612 Y305.7598 I124.0455 J-5.9743
G2 X363.6189 Y311.1104 I37.5764 J-10.7157
G3 X363.6746 Y311.2399 I-3.6462 J1.6447
G2 X369.3579 Y318.8584 I17.6081 J-7.2064
G2 X370.476 Y319.4364 I2.4972 J-3.4597
G2 X370.8408 Y315.5448 I-10.946 J-2.9891
G3 X370.8326 Y315.4158 I3.9873 J-0.3182
G3 X370.5561 Y307.9099 I356.8666 J-16.9058
G3 X370.5568 Y307.6756 I3.9986 J-0.1052
G3 X372.1964 Y290.372 I139.7317 J4.5113
G3 X380.1448 Y283.0262 I7.563 J0.2103
G3 X387.8891 Y290.7796 I-0.2309 J7.9749
G3 X387.8893 Y290.992 I-3.9985 J0.1111
G3 X386.9698 Y299.9097 I-57.9408 J-1.4683
G2 X386.2117 Y307.6267 I52.5729 J9.0603
G3 X386.2502 Y315.1646 I-356.3641 J5.5882
G3 X384.1679 Y327.4285 I-33.9001 J0.5528
G3 X384.1107 Y327.575 I-3.7538 J-1.3817
G3 X379.1282 Y333.5677 I-12.1221 J-5.011
G3 X378.8216 Y333.7477 I-2.1772 J-3.3556
G3 X361.4255 Y331.8264 I-7.2837 J-13.7664
G3 X361.2179 Y331.663 I20.3288 J-26.0504
G3 X360.786 Y332.5974 I-11.0389 J-4.5352
G3 X360.5628 Y332.9773 I-3.5552 J-1.8333
G3 X346.2971 Y328.5797 I-6.4832 J-4.3062
G3 X346.4196 Y324.7046 I93.1394 J1.003
G3 X346.4227 Y324.6518 I3.9945 J0.2095
G2 X346.0148 Y310.5234 I-74.7507 J-4.9119
G3 X345.9984 Y310.3661 I3.9696 J-0.4921
G3 X345.4734 Y300.7463 I163.9355 J-13.7719
( Bollenhut )
S1000
G0 Z3.0
G0 X51.0701 Y506.924
G0 Z1.0
G1 F300.0 Z-2.0
G2 F800.0 X51.3512 Y506.8159 I-100.4226 J-261.6576
G2 X105.5533 Y478.988 I-109.895 J-280.75
G3 X105.5831 Y478.9692 I0.8164 J1.2584
G3 X140.1553 Y463.2517 I79.6517 J129.3202
G3 X140.1775 Y463.245 I0.4452 J1.4324
G3 X160.9092 Y463.8734 I9.4056 J31.9938
G3 X160.9196 Y463.8772 I-0.5095 J1.4108
G3 X174.9846 Y478.5435 I-8.0559 J21.8029
G3 X175.0244 Y489.1382 I-14.1201 J5.3504
G3 X175.0082 Y489.18 I-1.4066 J-0.521
G3 X169.6289 Y497.6613 I-25.9095 J-10.4866
G3 X165.3409 Y501.9116 I-21.346 J-17.2465
G3 X163.3514 Y501.8008 I-0.9324 J-1.175
G2 X159.8881 Y499.2375 I-10.5127 J10.5827
G2 X150.3923 Y496.5246 I-11.4307 J22.0345
G3 X150.3248 Y496.5177 I0.1169 J-1.4954
G2 X128.6178 Y498.1376 I-6.811 J54.9822
G3 X128.571 Y498.1499 I-0.4033 J-1.4448
G2 X105.6424 Y505.7968 I35.071 J143.3548
G3 X105.6088 Y505.8107 I-0.5895 J-1.3793
G3 X74.7213 Y517.2538 I-245.4308 J-615.0655
G3 X74.7018 Y517.2603 I-0.486 J-1.4191
G3 X28.6978 Y530.9057 I-267.8339 J-818.6009
G3 X-3.3149 Y537.1426 I-55.1378 J-197.7354
G3 X-3.3394 Y537.1452 I-0.169 J-1.4905
G3 X-43.7618 Y537.6975 I-23.538 J-243.1815
G3 X-88.4597 Y532.2337 I20.4241 J-352.6467
G3 X-132.7571 Y517.805 I30.2618 J-168.1187
G3 X-169.8504 Y496.2482 I112.5061 J-236.2846
G3 X-169.9503 Y493.8627 I0.8575 J-1.2308
G3 X-166.601 Y492.777 I3.0388 J3.6654
G3 X-166.5825 Y492.7783 I-0.0978 J1.4968
G3 X-162.0244 Y494.2983 I-0.7701 J9.9038
G3 X-153.932 Y499.0496 I-76.7377 J139.9656
G2 X-143.4779 Y503.5344 I36.0985 J-69.7191
G3 X-143.4121 Y503.5589 I-0.49 J1.4177
G2 X-116.6275 Y513.1942 I154.0473 J-386.1809
G2 X-85.7452 Y520.4002 I83.8155 J-289.4233
G3 X-85.7259 Y520.4038 I-0.2635 J1.4767
G2 X-8.6431 Y522.5607 I45.1526 J-235.1969
G2 X51.0701 Y506.924 I-40.7094 J-277.2943
G0 Z3.0
G0 X35.4419 Y508.9968
G0 Z1.0
G1 F300.0 Z-2.0
G3 F800.0 X34.4814 Y510.5986 I-1.487 J0.1972
G3 X8.5767 Y518.114 I-62.1267 J-165.7419
G3 X-46.1004 Y522.7881 I-45.5268 J-210.4282
G3 X-96.8694 Y515.8108 I9.3958 J-256.5628
G3 X-133.1361 Y505.0924 I56.8487 J-259.0673
G3 X-133.138 Y505.0917 I0.5266 J-1.4045
G3 X-166.7668 Y489.5761 I90.5185 J-240.3939
G3 X-179.4677 Y479.5813 I16.7174 J-34.3105
G3 X-186.3327 Y465.371 I23.3786 J-20.0577
G3 X-186.3407 Y465.326 I1.4727 J-0.2847
G3 X-180.6649 Y444.7678 I25.2606 J-4.0885
G3 X-159.9877 Y435.1542 I20.1161 J16.2227
G3 X-159.8999 Y435.1587 I-0.0326 J1.4996
G3 X-145.247 Y438.0835 I-5.1478 J63.9555
G3 X-145.2209 Y438.0923 I-0.4629 J1.4268
G3 X-115.6804 Y451.8084 I-51.833 J150.3014
G3 X-115.6423 Y451.8319 I-0.7677 J1.2886
G2 X-93.3374 Y465.6596 I580.2577 J-911.0849
G2 X-51.8337 Y487.1354 I185.5454 J-307.7386
G2 X-21.0459 Y498.465 I164.3442 J-399.1024
G3 X-21.0193 Y498.474 I-0.4642 J1.4264
G2 X18.6862 Y506.7014 I51.5578 J-148.8951
G3 X18.6902 Y506.7017 I-0.1128 J1.4958
G2 X18.9251 Y506.7199 I19.368 J-247.9222
G3 X34.0743 Y507.6988 I-24.7806 J501.2233
G3 X35.4419 Y508.9968 I-0.1194 J1.4952
G0 Z3.0
G0 X41.3953 Y528.6259
G0 Z1.0
G1 F300.0 Z-2.0
G2 F800.0 X41.746 Y528.5194 I-82.1762 J-270.9451
G2 X70.1162 Y519.5754 I-487.8878 J-1597.0567
G3 X72.0655 Y520.7942 I0.4637 J1.4265
G3 X70.7145 Y541.1256 I-49.4955 J6.9217
G3 X70.7141 Y541.127 I-1.445 J-0.4025
G3 X46.3102 Y576.3311 I-63.0071 J-17.6167
G3 X7.9611 Y587.6587 I-34.2929 J-45.5188
G3 X-20.3211 Y578.9352 I2.8755 J-59.5302
G3 X-20.3592 Y578.911 I0.7842 J-1.2787
G3 X-37.7083 Y563.2264 I41.559 J-63.4071
G3 X-52.2684 Y539.7236 I71.4333 J-60.5147
G3 X-50.8126 Y537.6326 I1.3778 J-0.593
G2 X-18.977 Y538.4951 I33.1844 J-636.9252
G2 X20.2504 Y534.1575 I-0.7615 J-186.4349
G2 X41.3953 Y528.6259 I-61.0313 J-276.4767
G0 Z3.0
G0 X72.593 Y519.2062
G0 Z1.0
G1 F300.0 Z-2.0
G3 F800.0 X73.2515 Y520.6284 I-2.013 J1.7958
G3 X73.5118 Y522.8392 I-50.6815 J7.0876
G3 X73.5308 Y518.9831 I161.8815 J-1.1316
G3 X73.5334 Y518.901 I2.6972 J0.0454
G3 X72.593 Y519.2062 I-266.6655 J-820.2416
G0 Z3.0
G0 X73.5951 Y539.5291
G0 Z1.0
G1 F300.0 Z-2.0
G3 F800.0 X73.2551 Y540.9117 I-51.0251 J-11.8132
G3 X73.8381 Y540.7437 I1.368 J3.6496
G3 X73.5951 Y539.5291 I61.6731 J-12.969
G0 Z3.0
G0 X55.6055 Y571.5254
G0 Z1.0
G1 F300.0 Z-2.0
G3 F800.0 X54.1909 Y572.8961 I-47.8985 J-48.0151
G3 X56.6362 Y575.6117 I-1.3357 J3.6616
G3 X57.6926 Y580.5989 I-67.8453 J16.9757
G2 X56.3001 Y573.8456 I-61.4805 J9.1561
G2 X55.7091 Y571.8943 I-34.106 J9.2648
G3 X55.6055 Y571.5254 I3.6961 J-1.2369
G1 F300.0 X56.7754 Y571.2581
G3 F800.0 X57.519 Y568.7288 I2.6299 J-0.6008
G2 X68.6158 Y553.2617 I-38.4061 J-39.2683
G2 X72.0089 Y543.896 I-45.7664 J-21.8783
G3 X75.3388 Y541.9604 I2.6142 J0.6654
G3 X73.7623 Y530.7802 I60.1724 J-14.1858
G3 X73.7058 Y529.7109 I161.631 J-9.0726
G3 X71.8682 Y541.4469 I-51.1358 J-1.995
G3 X71.8675 Y541.4495 I-2.5987 J-0.7238
G3 X47.2314 Y577.1406 I-64.1605 J-17.9392
G2 X51.2385 Y574.3983 I-30.2394 J-48.4847
G3 X55.4721 Y575.9029 I1.6167 J2.1594
G3 X55.0881 Y610.7376 I-66.6812 J16.6844
G3 X35.0263 Y638.437 I-45.4831 J-11.8273
G3 X34.9764 Y638.4683 I-1.4592 J-2.2689
G3 X3.594 Y648.4953 I-36.1379 J-58.98
G3 X-20.8099 Y645.8803 I-5.738 J-61.6301
G2 X15.5197 Y648.1199 I22.3182 J-66.2523
G3 X15.5607 Y648.1119 I0.5411 J2.6452
G2 X45.0778 Y632.0885 I-10.1639 J-53.9219
G2 X52.6354 Y621.5739 I-35.6453 J-33.5942
G3 X54.479 Y620.2002 I2.3815 J1.2722
G3 X54.384 Y617.9815 I2.4088 J-1.2145
G2 X59.4858 Y593.0547 I-66.1106 J-26.5164
G3 X59.4886 Y592.9777 I2.6969 J0.0602
G2 X57.4592 Y573.5348 I-63.2766 J-3.2226
G2 X56.8471 Y571.5135 I-35.2651 J9.5757
G3 X56.7754 Y571.2581 I2.5581 J-0.8561
G0 Z3.0
G0 X-38.4159 Y564.2543
G0 Z1.0
G1 F300.0 Z-2.0
G3 F800.0 X-38.6306 Y563.9905 I59.6157 J-48.7503
G3 X-39.5439 Y562.8956 I72.3555 J-61.2788
G3 X-39.968 Y564.28 I-2.6967 J-0.069
G3 X-40.3171 Y564.8168 I-35.5693 J-22.748
G3 X-38.4159 Y564.2543 I1.6625 J2.1244
G0 Z3.0
G0 X-53.5874 Y539.1952
G0 Z1.0
G1 F300.0 Z-2.0
G3 F800.0 X-53.4251 Y538.2067 I2.6968 J-0.0646
G3 X-54.1104 Y538.1477 I30.0874 J-353.1559
G2 X-53.5874 Y539.1952 I139.9938 J-69.2315
G0 Z3.0
G0 X-62.6705 Y596.3296
G0 Z1.0
G1 F300.0 Z-2.0
G2 F800.0 X-56.9179 Y613.7207 I73.6318 J-14.7087
G2 X-53.3183 Y620.177 I52.6276 J-25.1107
G3 X-62.6705 Y596.3296 I79.5196 J-44.9427
G0 Z3.0
G0 X-53.045 Y620.6572
G0 Z1.0
G1 F300.0 Z-2.0
G3 F800.0 X-52.6729 Y622.0421 I-3.5138 J1.6865
G3 X-51.9925 Y622.4459 I-1.6402 J3.5383
G3 X-53.045 Y620.6572 I78.1938 J-47.2116
G1 F300.0 X-52.0039 Y620.0604
G3 F800.0 X-62.0577 Y593.5589 I78.2052 J-44.8262
G3 X-63.6537 Y584.4899 I120.5476 J-25.8904
G3 X-63.458 Y583.0526 I2.6724 J-0.368
G3 X-67.0954 Y584.4834 I-24.7354 J-57.5447
G3 X-65.143 Y586.8915 I-0.7387 J2.5945
G2 X-58.0019 Y614.2356 I76.1043 J-5.2706
G2 X-54.2922 Y620.8809 I53.7115 J-25.6256
G3 X-53.9211 Y622.909 I-2.2665 J1.4628
G3 X-52.1735 Y623.9335 I-0.392 J2.6714
G2 X-28.1268 Y642.9467 I49.926 J-38.4301
G3 X-28.0927 Y642.9624 I-1.109 J2.4617
G2 X-27.9153 Y643.045 I29.6009 J-63.3344
G3 X-49.1455 Y624.7136 I24.0788 J-49.3458
G3 X-49.1752 Y624.6692 I2.226 J-1.5237
G3 X-52.0039 Y620.0604 I75.3765 J-49.435
G0 Z3.0
G0 X-147.3938 Y555.2881
G0 Z1.0
G1 F300.0 Z-2.0
G3 F800.0 X-147.8848 Y553.9803 I47.1153 J-18.4352
G3 X-148.6432 Y554.9614 I-3.4237 J-1.8627
G2 X-147.8925 Y555.1388 I11.4159 J-46.6245
G3 X-147.3938 Y555.2881 I-0.8665 J3.8025
G0 Z3.0
G0 X-117.2983 Y511.7191
G0 Z1.0
G1 F300.0 Z-2.0
G2 F800.0 X-116.2776 Y512.0487 I127.9335 J-394.3411
G2 X-113.6291 Y512.8024 I83.4656 J-288.2779
G3 X-117.2983 Y511.7191 I73.6084 J-256.0589
G0 Z3.0
G0 X-143.1499 Y502.3807
G0 Z1.0
G1 F300.0 Z-2.0
G3 F800.0 X-154.751 Y497.1328 I100.5304 J-237.6829
G3 X-153.3377 Y498.0087 I-84.0111 J137.1311
G2 X-143.1499 Y502.3807 I35.5042 J-68.6782
G0 Z3.0
G0 X-171.9269 Y490.8411
G0 Z1.0
G1 F300.0 Z-2.0
G3 F800.0 X-173.0712 Y490.1115 I21.8775 J-35.5755
G3 X-172.1369 Y491.0038 I-247.8847 J260.4954
G3 X-171.9269 Y490.8411 I5.2254 J6.5242
G0 Z3.0
G0 X-179.7985 Y484.5784
G0 Z1.0
G1 F300.0 Z-2.0
G3 F800.0 X-180.7202 Y483.6125 I29.749 J-29.3128
G3 X-180.5453 Y484.4213 I-4.881 J1.4785
G3 X-179.7985 Y484.5784 I-0.6725 J5.0531
G1 F300.0 X-180.1326 Y485.7309
G3 F800.0 X-178.5819 Y486.6033 I-1.0852 J3.7435
G3 X-172.1174 Y492.6874 I-242.374 J264.0037
G3 X-171.4806 Y492.0169 I3.1244 J2.3301
G3 X-169.5093 Y490.8572 I4.5691 J5.5111
G3 X-181.3017 Y481.1257 I19.4598 J-35.5916
G3 X-188.6867 Y465.8262 I25.2127 J-21.6021
G3 X-188.7075 Y465.709 I3.8267 J-0.7399
G3 X-182.5158 Y443.2436 I27.6274 J-4.4716
G3 X-171.023 Y434.7647 I21.9669 J17.7469
G2 X-175.2936 Y436.2547 I8.1289 J30.1652
G3 X-175.3346 Y436.2721 I-1.5479 J-3.5797
G2 X-191.2746 Y458.5325 I10.0752 J24.0519
G2 X-184.3236 Y480.5414 I32.4298 J1.8599
G3 X-184.3232 Y480.542 I-3.059 J2.4191
G2 X-182.6793 Y482.5079 I36.5537 J-28.8956
G3 X-181.7361 Y485.6114 I-2.9219 J2.5831
G3 X-180.1326 Y485.7309 I0.5183 J3.863
G1 F300.0 X-180.4667 Y486.8835
G3 F800.0 X-179.3934 Y487.4872 I-0.7511 J2.5909
G3 X-171.6803 Y494.7826 I-241.5625 J263.1197
G3 X-170.7147 Y492.9407 I2.6874 J0.2348
G3 X-166.5229 Y491.5819 I3.8032 J4.5873
G3 X-166.4897 Y491.5843 I-0.1759 J2.6919
G3 X-165.3004 Y491.7416 I-0.863 J11.0978
G3 X-167.3191 Y490.6392 I122.6809 J-227.0439
G3 X-180.3838 Y480.3527 I17.2696 J-35.3737
G3 X-187.5085 Y465.5984 I24.2947 J-20.8291
G3 X-187.5229 Y465.5173 I2.6485 J-0.5121
G3 X-181.5894 Y444.0065 I26.4428 J-4.2798
G3 X-159.9617 Y433.9569 I21.0406 J16.984
G3 X-159.8039 Y433.9649 I-0.0586 J2.697
G3 X-144.8774 Y436.9444 I-5.2439 J65.1492
G3 X-144.8304 Y436.9601 I-0.8325 J2.5659
G3 X-132.5974 Y441.7486 I-52.2235 J151.4335
G2 X-154.0471 Y433.7165 I-44.2675 J85.5597
G3 X-154.1365 Y433.6931 I0.6395 J-2.6232
G2 X-175.7698 Y435.1532 I-8.7577 J31.2368
G3 X-175.7983 Y435.1653 I-1.0716 J-2.4782
G2 X-192.4723 Y458.4569 I10.5389 J25.1587
G2 X-185.2649 Y481.2857 I33.6274 J1.9355
G3 X-185.2645 Y481.2861 I-2.1178 J1.6748
G2 X-183.5783 Y483.3027 I37.4951 J-29.6397
G3 X-183.9785 Y487.2489 I-2.0229 J1.7883
G2 X-189.9868 Y495.4452 I10.5575 J14.0397
G2 X-181.8543 Y535.9748 I39.6705 J13.1206
G2 X-151.4443 Y555.4398 I49.9878 J-44.6081
G2 X-148.1592 Y556.3088 I14.217 J-47.103
G3 X-146.2696 Y557.8962 I-0.5999 J2.6325
G2 X-126.2757 Y580.733 I44.2639 J-18.5827
G2 X-118.6545 Y584.271 I23.4031 J-40.4349
G3 X-116.958 Y586.1154 I-0.9121 J2.5413
G3 X-114.5974 Y585.5491 I1.7423 J2.0595
G2 X-98.0349 Y587.8615 I20.7402 J-88.0791
G3 X-117.1754 Y583.2664 I7.872 J-74.9514
G3 X-147.3458 Y551.8325 I16.8968 J-46.4135
G3 X-149.6061 Y529.0129 I46.005 J-16.0785
G3 X-143.9735 Y514.1957 I32.6672 J3.9388
G3 X-143.547 Y513.7151 I2.2164 J1.5377
G3 X-145.2746 Y512.7895 I123.296 J-232.1947
G3 X-145.5756 Y513.7178 I-2.6742 J-0.3544
G2 X-150.9738 Y539.4257 I40.6056 J21.9471
G3 X-150.9729 Y539.4373 I-2.6886 J0.2198
G2 X-148.7281 Y551.3311 I55.3273 J-4.2836
G3 X-152.0386 Y554.7145 I-2.5804 J0.7864
G3 X-175.2982 Y542.2308 I16.4776 J-58.6115
G3 X-190.2232 Y518.5766 I27.0966 J-33.6328
G3 X-188.7459 Y495.9069 I34.3902 J-9.142
G3 X-188.7437 Y495.9016 I2.4951 J1.0255
G3 X-183.1065 Y487.5483 I23.2596 J9.6179
G3 X-180.4667 Y486.8835 I1.8887 J1.9261
G0 Z3.0
G0 X-109.655 Y454.2033
G0 Z1.0
G1 F300.0 Z-2.0
G2 F800.0 X-92.719 Y464.6341 I574.2704 J-913.4563
G2 X-77.0437 Y473.5549 I184.9269 J-306.713
G3 X-105.3136 Y456.8404 I3767.4085 J-6404.2421
G3 X-105.3544 Y456.8157 I1.3793 J-2.3211
G2 X-109.655 Y454.2033 I-166.5704 J269.3688
G0 Z3.0
G0 X145.2594 Y458.5473
G0 Z1.0
G1 F300.0 Z-2.0
G3 F800.0 X162.1311 Y460.4896 I4.3237 J36.6914
G3 X162.1665 Y460.5026 I-1.7313 J4.7946
G3 X165.8388 Y462.1834 I-9.3028 J25.1775
G2 X149.4145 Y457.7467 I-14.1335 J19.7024
G2 X145.2594 Y458.5473 I7.712 J51.2085
G1 F300.0 X144.9844 Y457.3793
G2 F800.0 X136.6796 Y460.0734 I12.1422 J51.5759
G3 X136.6408 Y460.0894 I-1.505 J-3.5979
G2 X116.2017 Y469.7978 I73.3174 J180.7237
G2 X110.4427 Y473.3513 I120.9616 J202.4842
G3 X139.4437 Y460.9621 I74.7921 J134.9381
G3 X139.5012 Y460.9447 I1.1568 J3.722
G3 X161.7235 Y461.6183 I10.0818 J34.294
G3 X161.7506 Y461.6282 I-1.3238 J3.6659
G3 X176.2916 Y475.2588 I-8.8869 J24.0519
G2 X176.086 Y474.5905 I-17.3638 J4.9772
G3 X176.0583 Y474.503 I3.7046 J-1.2189
G2 X149.2681 Y456.5553 I-24.353 J7.3828
G2 X144.9844 Y457.3793 I7.8584 J52.4
G1 F300.0 X144.7094 Y456.2112
G2 F800.0 X136.2166 Y458.9663 I12.4171 J52.744
G3 X136.1897 Y458.9774 I-1.0419 J-2.4909
G2 X115.6054 Y468.7562 I73.7686 J181.8357
G2 X98.306 Y480.1422 I121.5579 J203.5258
G3 X98.2803 Y480.1605 I-1.5815 J-2.1883
G3 X62.292 Y500.7871 I-127.7622 J-181.2049
G3 X50.6319 Y505.7489 I-88.9695 J-192.8953
G3 X50.6239 Y505.752 I-0.9826 J-2.5148
G3 X42.8107 Y508.6298 I-91.5644 J-236.5496
G3 X41.8833 Y508.781 I-0.8915 J-2.5486
G3 X36.5918 Y508.6246 I2.162 J-162.7346
G3 X35.9888 Y510.9662 I-2.6368 J0.5695
G2 X50.9178 Y505.6995 I-85.3413 J-265.6998
G2 X104.9015 Y477.9834 I-109.4616 J-279.6336
G3 X104.955 Y477.9495 I1.4683 J2.263
G3 X139.7999 Y462.108 I80.2797 J130.3399
G3 X139.8397 Y462.096 I0.8007 J2.576
G3 X161.3159 Y462.747 I9.7434 J33.1427
G3 X161.3347 Y462.7538 I-0.9162 J2.5372
G3 X176.1152 Y478.1474 I-8.471 J22.9263
G3 X176.7441 Y487.5603 I-15.2507 J5.7465
G2 X177.2259 Y474.2155 I-17.8163 J-7.3243
G3 X177.2067 Y474.1549 I2.5647 J-0.8439
G2 X149.1214 Y455.3639 I-25.5014 J7.7309
G2 X144.7094 Y456.2112 I8.0051 J53.5914
G0 Z3.0
G0 X164.6373 Y503.4245
G0 Z1.0
G1 F300.0 Z-2.0
G3 F800.0 X164.876 Y503.7525 I-20.2818 J15.0129
G3 X164.8452 Y503.3986 I2.6686 J-0.4106
G3 X164.6373 Y503.4245 I-0.4367 J-2.662
G1 F300.0 X166.0452 Y503.3845
G3 F800.0 X166.5869 Y502.1875 I1.4994 J-0.0426
G2 X176.3384 Y490.9882 I-29.4225 J-35.4641
G2 X178.3657 Y473.8404 I-17.4106 J-10.7521
G3 X178.3551 Y473.8068 I1.4249 J-0.4688
G2 X148.9743 Y454.1725 I-26.6498 J8.079
G2 X135.7535 Y457.8593 I8.1522 J54.7827
G3 X135.7385 Y457.8654 I-0.5788 J-1.3838
G2 X115.009 Y467.7147 I74.2197 J182.9477
G2 X97.6031 Y479.1696 I122.1543 J204.5673
G3 X97.5889 Y479.1798 I-0.8786 J-1.2157
G3 X61.7923 Y499.6961 I-127.0707 J-180.2242
G3 X50.1952 Y504.6312 I-88.4698 J-191.8042
G3 X50.1908 Y504.6329 I-0.5459 J-1.3971
G3 X42.4144 Y507.4971 I-91.1312 J-235.4305
G3 X41.8992 Y507.5811 I-0.4953 J-1.4159
G3 X22.5103 Y506.1536 I2.1461 J-161.5347
G3 X-4.943 Y501.4863 I26.0841 J-236.5047
G3 X-4.9881 Y501.4752 I0.3375 J-1.4615
G3 X-27.423 Y494.7229 I86.7923 J-329.021
G3 X-69.7263 Y476.4622 I65.9315 J-210.8698
G3 X-69.7507 Y476.4482 I0.7348 J-1.3077
G3 X-104.7006 Y455.8088 I3760.1155 J-6407.1354
G3 X-104.7232 Y455.7951 I0.7663 J-1.2895
G2 X-131.4258 Y441.0059 I-167.2015 J270.3894
G3 X-131.4611 Y440.9879 I0.6629 J-1.3456
G2 X-153.7629 Y432.5507 I-45.4038 J86.3203
G3 X-153.8125 Y432.5377 I0.3553 J-1.4573
G2 X-176.2461 Y434.0518 I-9.0817 J32.3923
G3 X-176.2619 Y434.0585 I-0.5953 J-1.3768
G2 X-193.6699 Y458.3814 I11.0025 J26.2655
G2 X-186.2061 Y482.0301 I34.8251 J2.011
G3 X-186.2059 Y482.0303 I-1.1766 J0.9304
G2 X-184.4774 Y484.0975 I38.4365 J-30.3839
G3 X-184.6997 Y486.2899 I-1.1238 J0.9935
G2 X-191.1224 Y495.0573 I11.2787 J14.9988
G2 X-182.7549 Y536.7679 I40.8061 J13.5085
G2 X-151.793 Y556.588 I50.8883 J-45.4013
G2 X-148.4258 Y557.4788 I14.5657 J-48.2512
G3 X-147.376 Y558.3607 I-0.3333 J1.4625
G2 X-126.8796 Y581.77 I45.3703 J-19.0472
G2 X-119.0598 Y585.4005 I24.007 J-41.4719
G3 X-118.0669 Y586.7788 I-0.5067 J1.4118
G2 X-115.1669 Y599.5416 I32.7514 J-0.7311
G3 X-115.164 Y599.5479 I-1.3668 J0.6179
G2 X-99.1853 Y618.736 I42.0681 J-18.7847
G3 X-99.1296 Y618.7762 I-0.8494 J1.2363
G2 X-76.1611 Y628.3954 I30.2261 J-39.9416
G3 X-76.1481 Y628.3974 I-0.2173 J1.4842
G2 X-56.5982 Y625.1284 I4.8407 J-31.143
G3 X-56.5899 Y625.124 I0.7001 J1.3266
G2 X-55.0702 Y624.2855 I-16.0694 J-30.92
G3 X-53.1244 Y624.6655 I0.7571 J1.2949
G2 X-28.6197 Y644.0408 I50.8769 J-39.162
G3 X-28.6008 Y644.0496 I-0.6161 J1.3676
G2 X15.7602 Y649.2956 I30.109 J-64.4216
G3 X15.783 Y649.2911 I0.3006 J1.4696
G2 X45.9483 Y632.9145 I-10.3862 J-55.1012
G2 X53.6939 Y622.1393 I-36.5158 J-34.4201
G3 X55.733 Y621.5281 I1.323 J0.7068
G2 X71.8394 Y626.3838 I19.738 J-36.3302
G3 X71.8906 Y626.3892 I-0.1318 J1.4942
G2 X100.3718 Y620.7495 I5.6682 J-46.1112
G3 X100.3765 Y620.7468 I0.7366 J1.3067
G2 X122.3106 Y593.3886 I-22.7639 J-40.7225
G2 X123.6968 Y579.5342 I-35.5375 J-10.5522
G3 X125.1656 Y577.9008 I1.494 J-0.1336
G2 X140.4732 Y576.0371 I-1.2432 J-74.0071
G2 X155.773 Y567.7632 I-8.8208 J-34.5938
G3 X155.7934 Y567.7449 I1.0135 J1.1059
G2 X169.8346 Y548.2119 I-35.8574 J-40.5892
G2 X172.5001 Y524.8411 I-41.1673 J-16.5328
G2 X166.1744 Y503.9522 I-86.3257 J14.7396
G3 X166.0452 Y503.3845 I1.3703 J-0.6103
G0 Z3.0
G0 X164.102 Y504.7331
G0 Z1.0
G1 F300.0 Z-2.0
G3 F800.0 X166.9138 Y510.1395 I-19.7466 J13.7043
G3 X171.0243 Y530.6637 I-59.607 J22.6114
G3 X171.0248 Y530.6858 I-1.4992 J0.0491
G3 X170.5338 Y537.3515 I-36.5432 J0.6589
G3 X170.5299 Y537.374 I-1.4796 J-0.2465
G3 X158.7499 Y562.3287 I-52.6645 J-9.6027
G3 X158.7253 Y562.3571 I-1.1456 J-0.9683
G3 X135.4593 Y576.3236 I-33.9421 J-30.1804
G3 X97.5122 Y570.3132 I-11.9965 J-47.0564
G3 X97.497 Y570.3035 I0.8016 J-1.2679
G3 X77.2608 Y544.5648 I27.6089 J-42.5309
G3 X77.2343 Y544.4814 I1.4154 J-0.4967
G3 X74.9583 Y530.7175 I58.2768 J-16.7068
G3 X74.7282 Y519.0032 I160.435 J-9.0099
G3 X75.7369 Y517.6111 I1.4998 J0.0252
G1 X106.3283 Y507.0121
G3 X125.52 Y500.2832 I107.726 J276.515
G3 X149.4328 Y497.7764 I17.7456 J53.9706
G3 X161.0117 Y501.2051 I-3.4387 J32.8782
G3 X161.3935 Y501.4834 I-0.6814 J1.3363
G3 X164.102 Y504.7331 I-17.0381 J16.954
G0 Z3.0
G0 X121.3017 Y578.1941
G0 Z1.0
G1 F300.0 Z-2.0
G3 F800.0 X122.0158 Y579.1878 I-0.7551 J1.2961
G3 X121.6862 Y591.816 I-27.2419 J5.6074
G3 X115.6646 Y605.7071 I-39.7451 J-8.9781
G3 X115.6055 Y605.7883 I-1.2415 J-0.8419
G3 X105.7824 Y615.6562 I-45.752 J-35.7212
G3 X93.5544 Y622.9056 I-26.4264 J-30.6373
G3 X93.5094 Y622.9217 I-0.5264 J-1.4046
G3 X72.0119 Y625.3965 I-16.4951 J-48.6787
G3 X60.1533 Y622.8155 I1.4258 J-35.0841
G3 X55.8546 Y620.0733 I4.9079 J-12.4338
G3 X55.4955 Y618.4273 I1.0331 J-1.0875
G2 X60.6831 Y593.0814 I-67.2222 J-26.9622
G3 X60.6847 Y593.0386 I1.4996 J0.0335
G2 X58.6159 Y573.2246 I-64.4726 J-3.2835
G2 X57.9828 Y571.1334 I-36.4218 J9.8859
G3 X58.3564 Y569.585 I1.4225 J-0.476
G2 X69.6957 Y553.7794 I-39.2435 J-40.1245
G2 X73.1695 Y544.1914 I-46.8463 J-22.396
G3 X75.9974 Y543.9602 I1.4537 J0.37
G2 X82.261 Y555.9822 I91.4931 J-40.0259
G2 X95.1182 Y569.1597 I45.1879 J-31.2285
G2 X111.0945 Y576.409 I26.4479 J-37.0579
G3 X111.1326 Y576.4185 I-0.345 J1.4598
G2 X120.6512 Y577.9938 I13.0943 J-49.5744
G3 X121.3017 Y578.1941 I-0.1046 J1.4963
G1 F300.0 Z-4.0
G3 F800.0 X122.0158 Y579.1878 I-0.7551 J1.2961
G3 X121.6862 Y591.816 I-27.2419 J5.6074
G3 X115.6646 Y605.7071 I-39.7451 J-8.9781
G3 X115.6055 Y605.7883 I-1.2415 J-0.8419
G3 X105.7824 Y615.6562 I-45.752 J-35.7212
G3 X93.5544 Y622.9056 I-26.4264 J-30.6373
G3 X93.5094 Y622.9217 I-0.5264 J-1.4046
G3 X72.0119 Y625.3965 I-16.4951 J-48.6787
G3 X60.1533 Y622.8155 I1.4258 J-35.0841
G3 X55.8546 Y620.0733 I4.9079 J-12.4338
G3 X55.4955 Y618.4273 I1.0331 J-1.0875
G2 X60.6831 Y593.0814 I-67.2222 J-26.9622
G3 X60.6847 Y593.0386 I1.4996 J0.0335
G2 X58.6159 Y573.2246 I-64.4726 J-3.2835
G2 X57.9828 Y571.1334 I-36.4218 J9.8859
G3 X58.3564 Y569.585 I1.4225 J-0.476
G2 X69.6957 Y553.7794 I-39.2435 J-40.1245
G2 X73.1695 Y544.1914 I-46.8463 J-22.396
G3 X75.9974 Y543.9602 I1.4537 J0.37
G2 X82.261 Y555.9822 I91.4931 J-40.0259
G2 X95.1182 Y569.1597 I45.1879 J-31.2285
G2 X111.0945 Y576.409 I26.4479 J-37.0579
G3 X111.1326 Y576.4185 I-0.345 J1.4598
G2 X120.6512 Y577.9938 I13.0943 J-49.5744
G3 X121.3017 Y578.1941 I-0.1046 J1.4963
G1 F300.0 X121.3199 Y577.7814
G3 F800.0 X97.5122 Y570.3132 I2.1429 J-48.5142
G3 X97.497 Y570.3035 I0.8016 J-1.2679
G3 X77.2608 Y544.5648 I27.6089 J-42.5309
G3 X77.2343 Y544.4814 I1.4154 J-0.4967
G3 X74.9583 Y530.7175 I58.2768 J-16.7068
G3 X74.7282 Y519.0032 I160.435 J-9.0099
G3 X75.7369 Y517.6111 I1.4998 J0.0252
G1 X106.3283 Y507.0121
G3 X125.52 Y500.2832 I107.726 J276.515
G3 X149.4328 Y497.7764 I17.7456 J53.9706
G3 X161.0117 Y501.2051 I-3.4387 J32.8782
G3 X161.3935 Y501.4834 I-0.6814 J1.3363
G3 X166.9138 Y510.1395 I-17.0381 J16.954
G3 X171.0243 Y530.6637 I-59.607 J22.6114
G3 X171.0248 Y530.6858 I-1.4992 J0.0491
G3 X170.5338 Y537.3515 I-36.5432 J0.6589
G3 X170.5299 Y537.374 I-1.4796 J-0.2465
G3 X158.7499 Y562.3287 I-52.6645 J-9.6027
G3 X158.7253 Y562.3571 I-1.1456 J-0.9683
G3 X135.4593 Y576.3236 I-33.9421 J-30.1804
G3 X121.3199 Y577.7814 I-11.9965 J-47.0564
G0 Z3.0
G0 X35.1348 Y510.1203
G0 Z-1.0
G1 F300.0 Z-4.0
G3 F800.0 X34.4814 Y510.5986 I-1.1798 J-0.9263
G3 X8.5767 Y518.114 I-62.1267 J-165.7419
G3 X-46.1004 Y522.7881 I-45.5268 J-210.4282
G3 X-96.8694 Y515.8108 I9.3958 J-256.5628
G3 X-133.1361 Y505.0924 I56.8487 J-259.0673
G3 X-133.138 Y505.0917 I0.5266 J-1.4045
G3 X-166.7668 Y489.5761 I90.5185 J-240.3939
G3 X-179.4677 Y479.5813 I16.7174 J-34.3105
G3 X-186.3327 Y465.371 I23.3786 J-20.0577
G3 X-186.3407 Y465.326 I1.4727 J-0.2847
G3 X-180.6649 Y444.7678 I25.2606 J-4.0885
G3 X-159.9877 Y435.1542 I20.1161 J16.2227
G3 X-159.8999 Y435.1587 I-0.0326 J1.4996
G3 X-145.247 Y438.0835 I-5.1478 J63.9555
G3 X-145.2209 Y438.0923 I-0.4629 J1.4268
G3 X-115.6804 Y451.8084 I-51.833 J150.3014
G3 X-115.6423 Y451.8319 I-0.7677 J1.2886
G2 X-93.3374 Y465.6596 I580.2577 J-911.0849
G2 X-51.8337 Y487.1354 I185.5454 J-307.7386
G2 X-21.0459 Y498.465 I164.3442 J-399.1024
G3 X-21.0193 Y498.474 I-0.4642 J1.4264
G2 X18.6862 Y506.7014 I51.5578 J-148.8951
G3 X18.6902 Y506.7017 I-0.1128 J1.4958
G2 X18.9251 Y506.7199 I19.368 J-247.9222
G3 X34.0743 Y507.6988 I-24.7806 J501.2233
G3 X35.1348 Y510.1203 I-0.1194 J1.4952
G0 Z3.0
G0 X52.4686 Y575.1084
G0 Z1.0
G1 F300.0 Z-2.0
G3 F800.0 X54.3103 Y576.1936 I0.3866 J1.4493
G3 X53.931 Y610.4288 I-65.5195 J16.3937
G3 X34.3784 Y637.4297 I-44.326 J-11.5184
G3 X34.3507 Y637.4471 I-0.8114 J-1.2616
G3 X3.4973 Y647.3016 I-35.5122 J-57.9588
G3 X-23.2903 Y643.7617 I-5.6413 J-60.4363
G3 X-23.3116 Y643.7536 I0.5226 J-1.406
G3 X-48.1573 Y624.0371 I19.4751 J-50.0544
G3 X-48.1738 Y624.0125 I1.2378 J-0.8473
G3 X-60.8859 Y593.3114 I74.3751 J-48.7782
G3 X-62.4673 Y584.3265 I119.3759 J-25.6429
G3 X-61.6613 Y582.7848 I1.486 J-0.2046
G2 X-54.0642 Y578.385 I-36.5471 J-71.8645
G3 X-54.0177 Y578.3557 I0.8213 J1.2552
G2 X-41.2967 Y567.7921 I-28.5301 J-47.2977
G2 X-39.8472 Y566.0315 I-22.9547 J-20.3761
G3 X-37.5284 Y565.9505 I1.1926 J0.9097
G2 X-12.6399 Y584.2251 I54.1041 J-47.5999
G2 X8.8867 Y588.9388 I23.4296 J-55.4884
G3 X8.9332 Y588.941 I-0.0474 J1.4993
G2 X30.0844 Y586.6381 I3.9112 J-62.3625
G2 X47.3159 Y578.4952 I-26.7506 J-78.9112
G3 X47.3277 Y578.4879 I0.7918 J1.274
G2 X51.9562 Y575.357 I-30.3356 J-49.8321
G3 X52.4686 Y575.1084 I0.899 J1.2008
G0 Z3.0
G0 X-40.753 Y563.0195
G0 Z1.0
G1 F300.0 Z-2.0
G3 F800.0 X-40.9769 Y563.6348 I-1.4875 J-0.1929
G3 X-49.2379 Y573.0168 I-34.5604 J-22.1028
G3 X-49.2486 Y573.0257 I-0.9616 J-1.1512
G3 X-82.7181 Y586.7016 I-38.9448 J-47.5178
G3 X-116.7559 Y582.1446 I-7.4448 J-73.7915
G3 X-146.2098 Y551.4532 I16.4774 J-45.2917
G3 X-148.4185 Y529.1674 I44.8689 J-15.6993
G3 X-142.9896 Y514.8783 I31.4795 J3.7843
G3 X-141.0728 Y514.3986 I1.2324 J0.855
G2 X-134.5494 Y517.6274 I117.2001 J-228.5839
G2 X-86.5537 Y533.1262 I82.3261 J-172.8781
G2 X-56.6835 Y537.2395 I66.6943 J-373.8053
G3 X-55.4816 Y538.0733 I-0.1455 J1.4929
G2 X-41.9852 Y560.6571 I141.365 J-69.1571
G2 X-41.0508 Y561.9131 I41.7922 J-30.1143
G3 X-40.753 Y563.0195 I-1.1898 J0.9135
G0 Z3.0
G0 X-39.0332 Y561.6269
G0 Z-1.0
G1 F300.0 Z-4.0
G3 F800.0 X-52.2684 Y539.7236 I72.7581 J-58.9152
G3 X-50.8126 Y537.6326 I1.3778 J-0.593
G2 X-18.977 Y538.4951 I33.1844 J-636.9252
G2 X20.2504 Y534.1575 I-0.7615 J-186.4349
G2 X41.746 Y528.5194 I-61.0313 J-276.4767
G2 X70.1162 Y519.5754 I-487.8878 J-1597.0567
G3 X72.0655 Y520.7942 I0.4637 J1.4265
G3 X70.7145 Y541.1256 I-49.4955 J6.9217
G3 X70.7141 Y541.127 I-1.445 J-0.4025
G3 X46.3102 Y576.3311 I-63.0071 J-17.6167
G3 X7.9611 Y587.6587 I-34.2929 J-45.5188
G3 X-20.3211 Y578.9352 I2.8755 J-59.5302
G3 X-20.3592 Y578.911 I0.7842 J-1.2787
G3 X-37.7083 Y563.2264 I41.559 J-63.4071
G3 X-39.0332 Y561.6269 I71.4333 J-60.5147
G0 Z3.0
G0 X-38.7612 Y565.4451
G0 Z-1.0
G1 F300.0 Z-4.0
G3 F800.0 X-37.5284 Y565.9505 I0.1066 J1.4962
G2 X-12.6399 Y584.2251 I54.1041 J-47.5999
G2 X8.8867 Y588.9388 I23.4296 J-55.4884
G3 X8.9332 Y588.941 I-0.0474 J1.4993
G2 X30.0844 Y586.6381 I3.9112 J-62.3625
G2 X47.3159 Y578.4952 I-26.7506 J-78.9112
G3 X47.3277 Y578.4879 I0.7918 J1.274
G2 X51.9562 Y575.357 I-30.3356 J-49.8321
G3 X54.3103 Y576.1936 I0.899 J1.2008
G3 X53.931 Y610.4288 I-65.5195 J16.3937
G3 X34.3784 Y637.4297 I-44.326 J-11.5184
G3 X34.3507 Y637.4471 I-0.8114 J-1.2616
G3 X3.4973 Y647.3016 I-35.5122 J-57.9588
G3 X-23.2903 Y643.7617 I-5.6413 J-60.4363
G3 X-23.3116 Y643.7536 I0.5226 J-1.406
G3 X-48.1573 Y624.0371 I19.4751 J-50.0544
G3 X-48.1738 Y624.0125 I1.2378 J-0.8473
G3 X-60.8859 Y593.3114 I74.3751 J-48.7782
G3 X-62.4673 Y584.3265 I119.3759 J-25.6429
G3 X-61.6613 Y582.7848 I1.486 J-0.2046
G2 X-54.0642 Y578.385 I-36.5471 J-71.8645
G3 X-54.0177 Y578.3557 I0.8213 J1.2552
G2 X-41.2967 Y567.7921 I-28.5301 J-47.2977
G2 X-39.8472 Y566.0315 I-22.9547 J-20.3761
G3 X-38.7612 Y565.4451 I1.1926 J0.9097
G0 Z3.0
G0 X-66.6307 Y586.1824
G0 Z1.0
G1 F300.0 Z-2.0
G3 F800.0 X-66.3377 Y586.9742 I-1.2034 J0.8954
G2 X-59.0836 Y614.7495 I77.299 J-5.3533
G2 X-55.2985 Y621.5303 I54.7933 J-26.1394
G3 X-55.5173 Y623.4232 I-1.2603 J0.8134
G3 X-62.6826 Y627.3945 I-11.0051 J-11.4066
G3 X-62.7116 Y627.4014 I-0.3634 J-1.4553
G3 X-81.9032 Y626.4996 I-7.9775 J-34.8898
G3 X-81.9243 Y626.4925 I0.47 J-1.4245
G3 X-93.9049 Y621.0225 I22.7777 J-65.7437
G3 X-114.1255 Y599.6345 I22.8744 J-41.8783
G3 X-116.7135 Y588.0931 I19.1477 J-10.3545
G3 X-114.8719 Y586.7148 I1.4978 J0.0818
G2 X-93.4815 Y589.1548 I21.0147 J-89.2448
G3 X-93.4361 Y589.1553 I0.0061 J1.5
G2 X-74.6611 Y587.4785 I2.1423 J-81.9602
G2 X-68.3392 Y585.6654 I-10.9599 J-50.1449
G3 X-66.6307 Y586.1824 I0.505 J1.4124
G1 F300.0 Z-4.0
G3 F800.0 X-66.3377 Y586.9742 I-1.2034 J0.8954
G2 X-59.0836 Y614.7495 I77.299 J-5.3533
G2 X-55.2985 Y621.5303 I54.7933 J-26.1394
G3 X-55.5173 Y623.4232 I-1.2603 J0.8134
G3 X-62.6826 Y627.3945 I-11.0051 J-11.4066
G3 X-62.7116 Y627.4014 I-0.3634 J-1.4553
G3 X-81.9032 Y626.4996 I-7.9775 J-34.8898
G3 X-81.9243 Y626.4925 I0.47 J-1.4245
G3 X-93.9049 Y621.0225 I22.7777 J-65.7437
G3 X-114.1255 Y599.6345 I22.8744 J-41.8783
G3 X-116.7135 Y588.0931 I19.1477 J-10.3545
G3 X-114.8719 Y586.7148 I1.4978 J0.0818
G2 X-93.4815 Y589.1548 I21.0147 J-89.2448
G3 X-93.4361 Y589.1553 I0.0061 J1.5
G2 X-74.6611 Y587.4785 I2.1423 J-81.9602
G2 X-68.3392 Y585.6654 I-10.9599 J-50.1449
G3 X-66.6307 Y586.1824 I0.505 J1.4124
G0 Z3.0
G0 X-67.6199 Y583.399
G0 Z-1.0
G1 F300.0 Z-4.0
G3 F800.0 X-82.7181 Y586.7016 I-20.5735 J-57.891
G3 X-116.7559 Y582.1446 I-7.4448 J-73.7915
G3 X-146.2098 Y551.4532 I16.4774 J-45.2917
G3 X-148.4185 Y529.1674 I44.8689 J-15.6993
G3 X-142.9896 Y514.8783 I31.4795 J3.7843
G3 X-141.0728 Y514.3986 I1.2324 J0.855
G2 X-134.5494 Y517.6274 I117.2001 J-228.5839
G2 X-86.5537 Y533.1262 I82.3261 J-172.8781
G2 X-56.6835 Y537.2395 I66.6943 J-373.8053
G3 X-55.4816 Y538.0733 I-0.1455 J1.4929
G2 X-41.9852 Y560.6571 I141.365 J-69.1571
G2 X-41.0508 Y561.9131 I41.7922 J-30.1143
G3 X-40.9769 Y563.6348 I-1.1898 J0.9135
G3 X-49.2379 Y573.0168 I-34.5604 J-22.1028
G3 X-49.2486 Y573.0257 I-0.9616 J-1.1512
G3 X-67.6199 Y583.399 I-38.9448 J-47.5178
G0 Z3.0
G0 X-62.6705 Y596.3296
G0 Z-1.0
G1 F300.0 Z-4.0
G2 F800.0 X-56.9179 Y613.7207 I73.6318 J-14.7087
G2 X-53.3183 Y620.177 I52.6276 J-25.1107
G3 X-62.6705 Y596.3296 I79.5196 J-44.9427
G0 Z3.0
G0 X-53.045 Y620.6572
G0 Z-1.0
G1 F300.0 Z-4.0
G3 F800.0 X-52.6729 Y622.0421 I-3.5138 J1.6865
G3 X-51.9925 Y622.4459 I-1.6402 J3.5383
G3 X-53.045 Y620.6572 I78.1938 J-47.2116
G1 F300.0 X-52.0039 Y620.0604
G3 F800.0 X-62.0577 Y593.5589 I78.2052 J-44.8262
G3 X-63.6537 Y584.4899 I120.5476 J-25.8904
G3 X-63.458 Y583.0526 I2.6724 J-0.368
G3 X-67.0954 Y584.4834 I-24.7354 J-57.5447
G3 X-65.143 Y586.8915 I-0.7387 J2.5945
G2 X-58.0019 Y614.2356 I76.1043 J-5.2706
G2 X-54.2922 Y620.8809 I53.7115 J-25.6256
G3 X-53.9211 Y622.909 I-2.2665 J1.4628
G3 X-52.1735 Y623.9335 I-0.392 J2.6714
G2 X-28.1268 Y642.9467 I49.926 J-38.4301
G3 X-28.0927 Y642.9624 I-1.109 J2.4617
G2 X-27.9153 Y643.045 I29.6009 J-63.3344
G3 X-49.1455 Y624.7136 I24.0788 J-49.3458
G3 X-49.1752 Y624.6692 I2.226 J-1.5237
G3 X-52.0039 Y620.0604 I75.3765 J-49.435
G0 Z3.0
G0 X-40.3171 Y564.8168
G0 Z-1.0
G1 F300.0 Z-4.0
G3 F800.0 X-38.4159 Y564.2543 I1.6625 J2.1244
G3 X-38.6306 Y563.9905 I59.6157 J-48.7503
G3 X-39.5439 Y562.8956 I72.3555 J-61.2788
G3 X-39.968 Y564.28 I-2.6967 J-0.069
G3 X-40.3171 Y564.8168 I-35.5693 J-22.748
G0 Z3.0
G0 X-53.5874 Y539.1952
G0 Z-1.0
G1 F300.0 Z-4.0
G3 F800.0 X-53.4251 Y538.2067 I2.6968 J-0.0646
G3 X-54.1104 Y538.1477 I30.0874 J-353.1559
G2 X-53.5874 Y539.1952 I139.9938 J-69.2315
G0 Z3.0
G0 X-113.6291 Y512.8024
G0 Z-1.0
G1 F300.0 Z-4.0
G3 F800.0 X-117.2983 Y511.7191 I73.6084 J-256.0589
G2 X-116.2776 Y512.0487 I127.9335 J-394.3411
G2 X-113.6291 Y512.8024 I83.4656 J-288.2779
G0 Z3.0
G0 X-143.1499 Y502.3807
G0 Z-1.0
G1 F300.0 Z-4.0
G3 F800.0 X-154.751 Y497.1328 I100.5304 J-237.6829
G3 X-153.3377 Y498.0087 I-84.0111 J137.1311
G2 X-143.1499 Y502.3807 I35.5042 J-68.6782
G0 Z3.0
G0 X-171.9269 Y490.8411
G0 Z-1.0
G1 F300.0 Z-4.0
G3 F800.0 X-173.0712 Y490.1115 I21.8775 J-35.5755
G3 X-172.1369 Y491.0038 I-247.8847 J260.4954
G3 X-171.9269 Y490.8411 I5.2254 J6.5242
G0 Z3.0
G0 X-179.7985 Y484.5784
G0 Z-1.0
G1 F300.0 Z-4.0
G3 F800.0 X-180.7202 Y483.6125 I29.749 J-29.3128
G3 X-180.5453 Y484.4213 I-4.881 J1.4785
G3 X-179.7985 Y484.5784 I-0.6725 J5.0531
G1 F300.0 X-180.1326 Y485.7309
G3 F800.0 X-178.5819 Y486.6033 I-1.0852 J3.7435
G3 X-172.1174 Y492.6874 I-242.374 J264.0037
G3 X-171.4806 Y492.0169 I3.1244 J2.3301
G3 X-169.5093 Y490.8572 I4.5691 J5.5111
G3 X-181.3017 Y481.1257 I19.4598 J-35.5916
G3 X-188.6867 Y465.8262 I25.2127 J-21.6021
G3 X-188.7075 Y465.709 I3.8267 J-0.7399
G3 X-182.5158 Y443.2436 I27.6274 J-4.4716
G3 X-171.023 Y434.7647 I21.9669 J17.7469
G2 X-175.2936 Y436.2547 I8.1289 J30.1652
G3 X-175.3346 Y436.2721 I-1.5479 J-3.5797
G2 X-191.2746 Y458.5325 I10.0752 J24.0519
G2 X-184.3236 Y480.5414 I32.4298 J1.8599
G3 X-184.3232 Y480.542 I-3.059 J2.4191
G2 X-182.6793 Y482.5079 I36.5537 J-28.8956
G3 X-181.7361 Y485.6114 I-2.9219 J2.5831
G3 X-180.1326 Y485.7309 I0.5183 J3.863
G0 Z3.0
G0 X-147.8848 Y553.9803
G0 Z-1.0
G1 F300.0 Z-4.0
G3 F800.0 X-148.6432 Y554.9614 I-3.4237 J-1.8627
G2 X-147.8925 Y555.1388 I11.4159 J-46.6245
G3 X-147.3938 Y555.2881 I-0.8665 J3.8025
G3 X-147.8848 Y553.9803 I47.1153 J-18.4352
G0 Z3.0
G0 X-93.5658 Y464.1227
G0 Z-1.0
G1 F300.0 Z-4.0
G2 F800.0 X-92.719 Y464.6341 I558.1812 J-923.3757
G2 X-77.0437 Y473.5549 I184.9269 J-306.713
G3 X-105.3136 Y456.8404 I3767.4085 J-6404.2421
G3 X-105.3544 Y456.8157 I1.3793 J-2.3211
G2 X-109.655 Y454.2033 I-166.5704 J269.3688
G2 X-93.5658 Y464.1227 I574.2704 J-913.4563
G0 Z3.0
G0 X72.593 Y519.2062
G0 Z-1.0
G1 F300.0 Z-4.0
G3 F800.0 X73.2515 Y520.6284 I-2.013 J1.7958
G3 X73.5118 Y522.8392 I-50.6815 J7.0876
G3 X73.5308 Y518.9831 I161.8815 J-1.1316
G3 X73.5334 Y518.901 I2.6972 J0.0454
G3 X72.593 Y519.2062 I-266.6655 J-820.2416
G0 Z3.0
G0 X73.5951 Y539.5291
G0 Z-1.0
G1 F300.0 Z-4.0
G3 F800.0 X73.2551 Y540.9117 I-51.0251 J-11.8132
G3 X73.8381 Y540.7437 I1.368 J3.6496
G3 X73.5951 Y539.5291 I61.6731 J-12.969
G0 Z3.0
G0 X55.6055 Y571.5254
G0 Z-1.0
G1 F300.0 Z-4.0
G3 F800.0 X54.1909 Y572.8961 I-47.8985 J-48.0151
G3 X56.6362 Y575.6117 I-1.3357 J3.6616
G3 X57.6926 Y580.5989 I-67.8453 J16.9757
G2 X56.3001 Y573.8456 I-61.4805 J9.1561
G2 X55.7091 Y571.8943 I-34.106 J9.2648
G3 X55.6055 Y571.5254 I3.6961 J-1.2369
G1 F300.0 X56.7754 Y571.2581
G3 F800.0 X57.519 Y568.7288 I2.6299 J-0.6008
G2 X68.6158 Y553.2617 I-38.4061 J-39.2683
G2 X72.0089 Y543.896 I-45.7664 J-21.8783
G3 X75.3388 Y541.9604 I2.6142 J0.6654
G3 X73.7623 Y530.7802 I60.1724 J-14.1858
G3 X73.7058 Y529.7109 I161.631 J-9.0726
G3 X71.8682 Y541.4469 I-51.1358 J-1.995
G3 X71.8675 Y541.4495 I-2.5987 J-0.7238
G3 X47.2314 Y577.1406 I-64.1605 J-17.9392
G2 X51.2385 Y574.3983 I-30.2394 J-48.4847
G3 X55.4721 Y575.9029 I1.6167 J2.1594
G3 X55.0881 Y610.7376 I-66.6812 J16.6844
G3 X35.0263 Y638.437 I-45.4831 J-11.8273
G3 X34.9764 Y638.4683 I-1.4592 J-2.2689
G3 X3.594 Y648.4953 I-36.1379 J-58.98
G3 X-20.8099 Y645.8803 I-5.738 J-61.6301
G2 X15.5197 Y648.1199 I22.3182 J-66.2523
G3 X15.5607 Y648.1119 I0.5411 J2.6452
G2 X45.0778 Y632.0885 I-10.1639 J-53.9219
G2 X52.6354 Y621.5739 I-35.6453 J-33.5942
G3 X54.479 Y620.2002 I2.3815 J1.2722
G3 X54.384 Y617.9815 I2.4088 J-1.2145
G2 X59.4858 Y593.0547 I-66.1106 J-26.5164
G3 X59.4886 Y592.9777 I2.6969 J0.0602
G2 X57.4592 Y573.5348 I-63.2766 J-3.2226
G2 X56.8471 Y571.5135 I-35.2651 J9.5757
G3 X56.7754 Y571.2581 I2.5581 J-0.8561
G0 Z3.0
G0 X164.6373 Y503.4245
G0 Z-1.0
G1 F300.0 Z-4.0
G3 F800.0 X164.876 Y503.7525 I-20.2818 J15.0129
G3 X164.8452 Y503.3986 I2.6686 J-0.4106
G3 X164.6373 Y503.4245 I-0.4367 J-2.662
G0 Z3.0
G0 X165.8388 Y462.1834
G0 Z-1.0
G1 F300.0 Z-4.0
G2 F800.0 X149.4145 Y457.7467 I-14.1335 J19.7024
G2 X145.2594 Y458.5473 I7.712 J51.2085
G3 X162.1311 Y460.4896 I4.3237 J36.6914
G3 X162.1665 Y460.5026 I-1.7313 J4.7946
G3 X165.8388 Y462.1834 I-9.3028 J25.1775
G1 F300.0 X165.2587 Y463.2338
G3 F800.0 X176.2916 Y475.2588 I-12.395 J22.4463
G2 X176.086 Y474.5905 I-17.3638 J4.9772
G3 X176.0583 Y474.503 I3.7046 J-1.2189
G2 X149.2681 Y456.5553 I-24.353 J7.3828
G2 X136.6796 Y460.0734 I7.8584 J52.4
G3 X136.6408 Y460.0894 I-1.505 J-3.5979
G2 X116.2017 Y469.7978 I73.3174 J180.7237
G2 X110.4427 Y473.3513 I120.9616 J202.4842
G3 X139.4437 Y460.9621 I74.7921 J134.9381
G3 X139.5012 Y460.9447 I1.1568 J3.722
G3 X161.7235 Y461.6183 I10.0818 J34.294
G3 X161.7506 Y461.6282 I-1.3238 J3.6659
G3 X165.2587 Y463.2338 I-8.8869 J24.0519
G1 F300.0 X164.6786 Y464.2843
G3 F800.0 X176.1152 Y478.1474 I-11.8149 J21.3958
G3 X176.7441 Y487.5603 I-15.2507 J5.7465
G2 X177.2259 Y474.2155 I-17.8163 J-7.3243
G3 X177.2067 Y474.1549 I2.5647 J-0.8439
G2 X149.1214 Y455.3639 I-25.5014 J7.7309
G2 X136.2166 Y458.9663 I8.0051 J53.5914
G3 X136.1897 Y458.9774 I-1.0419 J-2.4909
G2 X115.6054 Y468.7562 I73.7686 J181.8357
G2 X98.306 Y480.1422 I121.5579 J203.5258
G3 X98.2803 Y480.1605 I-1.5815 J-2.1883
G3 X62.292 Y500.7871 I-127.7622 J-181.2049
G3 X50.6319 Y505.7489 I-88.9695 J-192.8953
G3 X50.6239 Y505.752 I-0.9826 J-2.5148
