( Made using CamBam - http://www.cambam.co.uk )
( Dorfschild-Hofsgrund 6/29/2022 7:55:32 AM )
( Post processor: Default )
( T0 : 8.0 )
( T8 : 8.0 )
G21 G90 G64 G40
G0 Z3.0
( T8 : 8.0 )
T8 M6
( Text-Willkomen-aussen )
G17
M3 S1000
G0 X-196.4506 Y133.8825
G0 Z1.0
G1 F300.0 Z-2.5
G2 F800.0 X-192.751 Y134.7235 I3.6414 J-7.4607
G2 X-189.8553 Y133.9852 I-0.3259 J-7.3261
G2 X-187.1567 Y129.3449 I-5.2072 J-6.1333
G3 X-187.1377 Y129.2508 I3.9305 J0.7422
G2 X-186.4369 Y120.0138 I-33.6819 J-7.2008
G3 X-186.4436 Y119.7367 I3.993 J-0.2365
G2 X-189.7237 Y111.4637 I-11.7717 J-0.1195
G3 X-189.8009 Y111.381 I2.8853 J-2.7704
G2 X-202.3076 Y114.4177 I-5.4266 J4.923
G3 X-202.3081 Y114.4196 I-3.8652 J-1.0297
G2 X-200.345 Y129.9244 I20.0139 J5.3426
G3 X-200.2469 Y130.1098 I-3.4856 J1.9623
G2 X-196.4506 Y133.8825 I7.4378 J-3.688
G1 F300.0 Z-5.0
G2 F800.0 X-192.751 Y134.7235 I3.6414 J-7.4607
G2 X-189.8553 Y133.9852 I-0.3259 J-7.3261
G2 X-187.1567 Y129.3449 I-5.2072 J-6.1333
G3 X-187.1377 Y129.2508 I3.9305 J0.7422
G2 X-186.4369 Y120.0138 I-33.6819 J-7.2008
G3 X-186.4436 Y119.7367 I3.993 J-0.2365
G2 X-189.7237 Y111.4637 I-11.7717 J-0.1195
G3 X-189.8009 Y111.381 I2.8853 J-2.7704
G2 X-202.3076 Y114.4177 I-5.4266 J4.923
G3 X-202.3081 Y114.4196 I-3.8652 J-1.0297
G2 X-200.345 Y129.9244 I20.0139 J5.3426
G3 X-200.2469 Y130.1098 I-3.4856 J1.9623
G2 X-196.4506 Y133.8825 I7.4378 J-3.688
G0 Z3.0
G0 X-6.4843 Y120.8942
G0 Z1.0
G1 F300.0 Z-2.5
G2 F800.0 X-5.6635 Y125.8192 I25.7505 J-1.7606
G3 X-5.6499 Y125.8715 I-3.8635 J1.0361
G2 X8.1888 Y136.1908 I13.2794 J-3.3694
G3 X8.3452 Y136.1875 I0.1633 J3.9967
G2 X12.5286 Y135.1967 I-0.016 J-9.3942
G2 X10.6105 Y121.3308 I-217.675 J23.0455
G3 X10.6063 Y121.3057 I3.9427 J-0.6745
G2 X3.3542 Y109.9702 I-16.8086 J2.766
G3 X3.3348 Y109.9569 I2.244 J-3.3113
G2 X0.1298 Y108.933 I-3.3042 J4.8145
G3 X-0.0454 Y108.9262 I0.068 J-3.9994
G2 X-6.0496 Y114.0213 I-0.3458 J5.6777
G3 X-6.0978 Y114.3526 I-3.979 J-0.4096
G2 X-6.4843 Y120.8942 I25.3639 J4.781
G1 F300.0 Z-5.0
G2 F800.0 X-5.6635 Y125.8192 I25.7505 J-1.7606
G3 X-5.6499 Y125.8715 I-3.8635 J1.0361
G2 X8.1888 Y136.1908 I13.2794 J-3.3694
G3 X8.3452 Y136.1875 I0.1633 J3.9967
G2 X12.5286 Y135.1967 I-0.016 J-9.3942
G2 X10.6105 Y121.3308 I-217.675 J23.0455
G3 X10.6063 Y121.3057 I3.9427 J-0.6745
G2 X3.3542 Y109.9702 I-16.8086 J2.766
G3 X3.3348 Y109.9569 I2.244 J-3.3113
G2 X0.1298 Y108.933 I-3.3042 J4.8145
G3 X-0.0454 Y108.9262 I0.068 J-3.9994
G2 X-6.0496 Y114.0213 I-0.3458 J5.6777
G3 X-6.0978 Y114.3526 I-3.979 J-0.4096
G2 X-6.4843 Y120.8942 I25.3639 J4.781
G0 Z3.0
G0 X-21.1855 Y307.2204
G0 Z1.0
G1 F300.0 Z-2.5
G2 F800.0 X-28.8418 Y312.6384 I-0.5763 J7.3042
G3 X-28.8423 Y312.6403 I-3.8652 J-1.0297
G2 X-26.8792 Y328.1451 I20.0139 J5.3426
G3 X-26.7811 Y328.3305 I-3.4856 J1.9623
G2 X-19.2852 Y332.9442 I7.4378 J-3.688
G2 X-16.3895 Y332.2059 I-0.3259 J-7.3261
G2 X-13.6908 Y327.5656 I-5.2072 J-6.1333
G3 X-13.6719 Y327.4715 I3.9305 J0.7422
G2 X-12.971 Y318.2345 I-33.6819 J-7.2008
G3 X-12.9778 Y317.9574 I3.993 J-0.2365
G2 X-16.2579 Y309.6844 I-11.7717 J-0.1195
G3 X-16.3351 Y309.6017 I2.8853 J-2.7704
G2 X-21.1855 Y307.2204 I-5.4266 J4.923
G1 F300.0 Z-5.0
G2 F800.0 X-28.8418 Y312.6384 I-0.5763 J7.3042
G3 X-28.8423 Y312.6403 I-3.8652 J-1.0297
G2 X-26.8792 Y328.1451 I20.0139 J5.3426
G3 X-26.7811 Y328.3305 I-3.4856 J1.9623
G2 X-19.2852 Y332.9442 I7.4378 J-3.688
G2 X-16.3895 Y332.2059 I-0.3259 J-7.3261
G2 X-13.6908 Y327.5656 I-5.2072 J-6.1333
G3 X-13.6719 Y327.4715 I3.9305 J0.7422
G2 X-12.971 Y318.2345 I-33.6819 J-7.2008
G3 X-12.9778 Y317.9574 I3.993 J-0.2365
G2 X-16.2579 Y309.6844 I-11.7717 J-0.1195
G3 X-16.3351 Y309.6017 I2.8853 J-2.7704
G2 X-21.1855 Y307.2204 I-5.4266 J4.923
G0 Z3.0
G0 X242.2768 Y327.5618
G0 Z1.0
G1 F300.0 Z-2.5
G2 F800.0 X244.6509 Y331.3584 I24.6382 J-12.7657
G2 X251.3446 Y334.4575 I6.5598 J-5.39
G3 X251.6362 Y334.4636 I0.0631 J3.9995
G2 X255.3859 Y334.124 I0.7319 J-12.7912
G2 X248.9194 Y330.7202 I-33.0232 J54.8911
G3 X248.8597 Y330.6924 I1.6583 J-3.6401
G1 X242.2768 Y327.5618
G1 F300.0 Z-5.0
G2 F800.0 X244.6509 Y331.3584 I24.6382 J-12.7657
G2 X251.3446 Y334.4575 I6.5598 J-5.39
G3 X251.6362 Y334.4636 I0.0631 J3.9995
G2 X255.3859 Y334.124 I0.7319 J-12.7912
G2 X248.9194 Y330.7202 I-33.0232 J54.8911
G3 X248.8597 Y330.6924 I1.6583 J-3.6401
G1 X242.2768 Y327.5618
G0 Z3.0
G0 X271.4794 Y135.7534
G0 Z1.0
G1 F300.0 Z-2.5
G2 F800.0 X273.9643 Y135.8553 I1.7031 J-11.1862
G3 X274.3958 Y135.8487 I0.2764 J3.9904
G2 X282.5255 Y131.1082 I0.3398 J-8.7586
G3 X282.511 Y113.5865 I420.2552 J-9.1092
G2 X277.8804 Y110.0562 I-14.9738 J14.8387
G2 X268.645 Y109.8299 I-4.8785 J10.5277
G2 X261.8344 Y120.3938 I4.9265 J10.6536
G3 X261.8342 Y120.41 I-3.9999 J-0.0305
G2 X262.5358 Y127.1451 I29.3801 J0.3434
G3 X262.5445 Y127.1847 I-3.9042 J0.8702
G2 X264.9649 Y132.3456 I12.2613 J-2.6025
G2 X271.4794 Y135.7534 I8.2176 J-7.7784
G1 F300.0 Z-5.0
G2 F800.0 X273.9643 Y135.8553 I1.7031 J-11.1862
G3 X274.3958 Y135.8487 I0.2764 J3.9904
G2 X282.5255 Y131.1082 I0.3398 J-8.7586
G3 X282.511 Y113.5865 I420.2552 J-9.1092
G2 X277.8804 Y110.0562 I-14.9738 J14.8387
G2 X268.645 Y109.8299 I-4.8785 J10.5277
G2 X261.8344 Y120.3938 I4.9265 J10.6536
G3 X261.8342 Y120.41 I-3.9999 J-0.0305
G2 X262.5358 Y127.1451 I29.3801 J0.3434
G3 X262.5445 Y127.1847 I-3.9042 J0.8702
G2 X264.9649 Y132.3456 I12.2613 J-2.6025
G2 X271.4794 Y135.7534 I8.2176 J-7.7784
G0 Z3.0
G0 X268.2736 Y152.4575
G0 Z1.0
G1 F300.0 Z-2.5
G3 F800.0 X253.056 Y143.6885 I5.0612 J-26.3719
G3 X252.9751 Y143.5923 I3.0207 J-2.6221
G3 X245.1888 Y120.1495 I26.986 J-21.9777
G3 X262.1448 Y93.6876 I27.7294 J-0.8952
G3 X262.2873 Y93.6308 I1.5533 J3.6861
G3 X286.5318 Y95.2933 I10.3046 J27.3391
G3 X292.3983 Y92.584 I5.867 J4.9979
G3 X300.788 Y102.9108 I0.0278 J8.5488
G2 X299.9039 Y140.7524 I166.9825 J22.8322
G3 X301.8639 Y170.7663 I-549.2124 J50.9365
G3 X293.3342 Y179.8342 I-8.0978 J0.9284
G3 X284.988 Y171.6852 I-0.0441 J-8.3034
G3 X283.6118 Y151.1828 I398.7084 J-37.0611
G3 X274.0147 Y152.9302 I-8.7023 J-20.567
G3 X268.2736 Y152.4575 I-0.6799 J-26.8446
G1 F300.0 Z-5.0
G3 F800.0 X253.056 Y143.6885 I5.0612 J-26.3719
G3 X252.9751 Y143.5923 I3.0207 J-2.6221
G3 X245.1888 Y120.1495 I26.986 J-21.9777
G3 X262.1448 Y93.6876 I27.7294 J-0.8952
G3 X262.2873 Y93.6308 I1.5533 J3.6861
G3 X286.5318 Y95.2933 I10.3046 J27.3391
G3 X292.3983 Y92.584 I5.867 J4.9979
G3 X300.788 Y102.9108 I0.0278 J8.5488
G2 X299.9039 Y140.7524 I166.9825 J22.8322
G3 X301.8639 Y170.7663 I-549.2124 J50.9365
G3 X293.3342 Y179.8342 I-8.0978 J0.9284
G3 X284.988 Y171.6852 I-0.0441 J-8.3034
G3 X283.6118 Y151.1828 I398.7084 J-37.0611
G3 X274.0147 Y152.9302 I-8.7023 J-20.567
G3 X268.2736 Y152.4575 I-0.6799 J-26.8446
G0 Z3.0
G0 X225.7866 Y141.0932
G0 Z1.0
G1 F300.0 Z-2.5
G3 F800.0 X224.6449 Y144.6942 I-39.9754 J-10.6926
G3 X224.6054 Y144.7971 I-3.7538 J-1.3817
G3 X209.8246 Y154.1938 I-13.9126 J-5.5608
G3 X197.8507 Y149.8108 I0.6138 J-20.2239
G3 X196.4303 Y148.6555 I24.7158 J-31.837
G3 X195.4673 Y151.0423 I-13.333 J-3.9919
G3 X195.2441 Y151.4222 I-3.5552 J-1.8333
G3 X179.2449 Y146.4865 I-7.271 J-4.8295
G3 X179.246 Y146.4299 I3.9997 J0.0487
G3 X179.5849 Y137.195 I445.4293 J11.7235
G2 X178.87 Y123.6498 I-185.3597 J2.9927
G3 X178.868 Y123.6278 I3.9841 J-0.3568
G3 X178.1708 Y109.4344 I203.9229 J-17.1311
G3 X178.1779 Y109.1329 I3.9996 J-0.0574
G3 X178.8014 Y100.4673 I401.8685 J24.5621
G3 X181.1953 Y94.2985 I8.9356 J-0.0814
G3 X181.3437 Y94.1473 I2.9283 J2.7249
G3 X196.3751 Y100.6401 I6.1635 J6.377
G3 X196.3744 Y100.6819 I-3.9997 J-0.0522
G3 X196.0585 Y105.42 I-55.1384 J-1.2963
G1 Y105.4201
G1 Y105.42
G2 X195.7919 Y109.332 I46.8863 J5.1602
G2 X196.4644 Y118.1438 I156.0575 J-7.4784
G2 X198.9856 Y125.053 I47.9561 J-13.5847
G3 X199.0414 Y125.1826 I-3.6462 J1.6447
G2 X206.4639 Y135.1219 I22.9356 J-9.3868
G2 X209.145 Y136.2485 I3.7286 J-5.1197
G2 X209.9214 Y130.1053 I-14.3589 J-4.9354
G3 X209.9132 Y129.9764 I3.9873 J-0.3182
G3 X209.5683 Y120.615 I445.0844 J-21.0849
G3 X209.569 Y120.3807 I3.9986 J-0.1052
G3 X211.6172 Y98.8095 I173.6652 J5.6069
G3 X220.5145 Y90.5359 I8.4556 J0.1722
G3 X229.2353 Y99.2561 I-0.2487 J8.9694
G3 X229.2355 Y99.4685 I-3.9985 J0.1111
G3 X228.1011 Y110.4665 I-71.4263 J-1.81
G2 X227.138 Y120.2826 I66.7008 J11.4999
G3 X227.1862 Y129.7151 I-444.4549 J6.9899
G3 X225.7866 Y141.0932 I-41.3751 J0.6855
G1 F300.0 Z-5.0
G3 F800.0 X224.6449 Y144.6942 I-39.9754 J-10.6926
G3 X224.6054 Y144.7971 I-3.7538 J-1.3817
G3 X209.8246 Y154.1938 I-13.9126 J-5.5608
G3 X197.8507 Y149.8108 I0.6138 J-20.2239
G3 X196.4303 Y148.6555 I24.7158 J-31.837
G3 X195.4673 Y151.0423 I-13.333 J-3.9919
G3 X195.2441 Y151.4222 I-3.5552 J-1.8333
G3 X179.2449 Y146.4865 I-7.271 J-4.8295
G3 X179.246 Y146.4299 I3.9997 J0.0487
G3 X179.5849 Y137.195 I445.4293 J11.7235
G2 X178.87 Y123.6498 I-185.3597 J2.9927
G3 X178.868 Y123.6278 I3.9841 J-0.3568
G3 X178.1708 Y109.4344 I203.9229 J-17.1311
G3 X178.1779 Y109.1329 I3.9996 J-0.0574
G3 X178.8014 Y100.4673 I401.8685 J24.5621
G3 X181.1953 Y94.2985 I8.9356 J-0.0814
G3 X181.3437 Y94.1473 I2.9283 J2.7249
G3 X196.3751 Y100.6401 I6.1635 J6.377
G3 X196.3744 Y100.6819 I-3.9997 J-0.0522
G3 X196.0585 Y105.42 I-55.1384 J-1.2963
G1 Y105.4201
G1 Y105.42
G2 X195.7919 Y109.332 I46.8863 J5.1602
G2 X196.4644 Y118.1438 I156.0575 J-7.4784
G2 X198.9856 Y125.053 I47.9561 J-13.5847
G3 X199.0414 Y125.1826 I-3.6462 J1.6447
G2 X206.4639 Y135.1219 I22.9356 J-9.3868
G2 X209.145 Y136.2485 I3.7286 J-5.1197
G2 X209.9214 Y130.1053 I-14.3589 J-4.9354
G3 X209.9132 Y129.9764 I3.9873 J-0.3182
G3 X209.5683 Y120.615 I445.0844 J-21.0849
G3 X209.569 Y120.3807 I3.9986 J-0.1052
G3 X211.6172 Y98.8095 I173.6652 J5.6069
G3 X220.5145 Y90.5359 I8.4556 J0.1722
G3 X229.2353 Y99.2561 I-0.2487 J8.9694
G3 X229.2355 Y99.4685 I-3.9985 J0.1111
G3 X228.1011 Y110.4665 I-71.4263 J-1.81
G2 X227.138 Y120.2826 I66.7008 J11.4999
G3 X227.1862 Y129.7151 I-444.4549 J6.9899
G3 X225.7866 Y141.0932 I-41.3751 J0.6855
G0 Z3.0
G0 X159.9919 Y144.2262
G0 Z1.0
G1 F300.0 Z-2.5
G1 F800.0 X160.0184 Y144.7824
G3 X160.0195 Y144.8075 I-3.9955 J0.1903
G3 X151.2323 Y153.7617 I-8.5939 J0.3551
G3 X142.4526 Y145.481 I-0.3684 J-8.4042
G3 X141.525 Y126.926 I161.5293 J-17.3756
G3 X141.5252 Y126.9033 I3.9999 J0.029
G2 X141.6621 Y110.6445 I-1796.5158 J-23.2471
G2 X131.8691 Y109.4711 I-10.338 J44.8294
G2 X129.0317 Y110.0314 I0.1895 J8.4248
G2 X127.9804 Y116.904 I44.2379 J10.2838
G3 X127.9779 Y116.935 I-3.9887 J-0.3004
G2 X127.4542 Y130.4956 I152.4437 J12.6778
G2 X128.0892 Y137.4632 I58.3192 J-1.8017
G3 X128.8673 Y145.1032 I-62.2735 J10.2022
G3 X128.8705 Y145.2389 I-3.9967 J0.1624
G3 X119.985 Y154.0531 I-8.7564 J0.0584
G3 X111.3186 Y146.2609 I-0.3117 J-8.3688
G3 X109.8358 Y130.6187 I94.514 J-16.8508
G3 X109.8357 Y130.5252 I3.9997 J-0.0504
G3 X111.7815 Y106.9438 I165.4851 J1.7841
G3 X125.5353 Y92.2623 I17.2506 J2.3775
G3 X143.8736 Y93.5225 I6.9191 J33.3724
G3 X144.2953 Y92.9666 I9.1446 J6.4988
G3 X144.5915 Y92.6391 I3.1101 J2.5154
G3 X159.5835 Y98.8665 I6.1913 J6.2547
G3 X159.5742 Y99.1521 I-4.0 J0.0124
G2 X159.1918 Y115.8782 I183.4957 J12.5616
G3 X159.1928 Y115.997 I-3.999 J0.0906
G2 X159.1443 Y126.4249 I2152.8034 J15.2305
G1 X159.9919 Y144.2262
G1 F300.0 Z-5.0
G1 F800.0 X160.0184 Y144.7824
G3 X160.0195 Y144.8075 I-3.9955 J0.1903
G3 X151.2323 Y153.7617 I-8.5939 J0.3551
G3 X142.4526 Y145.481 I-0.3684 J-8.4042
G3 X141.525 Y126.926 I161.5293 J-17.3756
G3 X141.5252 Y126.9033 I3.9999 J0.029
G2 X141.6621 Y110.6445 I-1796.5158 J-23.2471
G2 X131.8691 Y109.4711 I-10.338 J44.8294
G2 X129.0317 Y110.0314 I0.1895 J8.4248
G2 X127.9804 Y116.904 I44.2379 J10.2838
G3 X127.9779 Y116.935 I-3.9887 J-0.3004
G2 X127.4542 Y130.4956 I152.4437 J12.6778
G2 X128.0892 Y137.4632 I58.3192 J-1.8017
G3 X128.8673 Y145.1032 I-62.2735 J10.2022
G3 X128.8705 Y145.2389 I-3.9967 J0.1624
G3 X119.985 Y154.0531 I-8.7564 J0.0584
G3 X111.3186 Y146.2609 I-0.3117 J-8.3688
G3 X109.8358 Y130.6187 I94.514 J-16.8508
G3 X109.8357 Y130.5252 I3.9997 J-0.0504
G3 X111.7815 Y106.9438 I165.4851 J1.7841
G3 X125.5353 Y92.2623 I17.2506 J2.3775
G3 X143.8736 Y93.5225 I6.9191 J33.3724
G3 X144.2953 Y92.9666 I9.1446 J6.4988
G3 X144.5915 Y92.6391 I3.1101 J2.5154
G3 X159.5835 Y98.8665 I6.1913 J6.2547
G3 X159.5742 Y99.1521 I-4.0 J0.0124
G2 X159.1918 Y115.8782 I183.4957 J12.5616
G3 X159.1928 Y115.997 I-3.999 J0.0906
G2 X159.1443 Y126.4249 I2152.8034 J15.2305
G1 X159.9919 Y144.2262
G0 Z3.0
G0 X94.8572 Y139.8849
G0 Z1.0
G1 F300.0 Z-2.5
G3 F800.0 X92.4624 Y148.3505 I-21.1418 J-1.4091
G3 X92.272 Y148.6741 I-3.5391 J-1.8641
G3 X82.8781 Y153.4632 I-8.873 J-5.7968
G3 X64.8254 Y147.8111 I0.5526 J-33.4209
G3 X62.6401 Y150.6737 I-8.8969 J-4.5262
G3 X62.2374 Y150.9947 I-2.6895 J-2.9609
G3 X51.1352 Y149.9052 I-4.9126 J-7.0505
G3 X50.6589 Y149.3048 I2.8811 J-2.7747
G3 X49.0803 Y143.5851 I8.2814 J-5.3633
G3 X48.8398 Y133.9981 I482.7385 J-16.906
G3 X48.8394 Y133.9375 I3.9995 J-0.0606
G1 Y99.7093
G3 X49.5746 Y95.5043 I11.001 J-0.2432
G3 X49.6798 Y95.2568 I3.7317 J1.4402
G3 X57.0566 Y90.7183 I7.1243 J3.3153
G3 X65.9693 Y99.9083 I0.6121 J8.3233
G1 X65.8756 Y125.5963
G2 X71.4581 Y132.7538 I17.8383 J-8.1572
G2 X77.5897 Y135.58 I12.1753 J-18.3505
G3 X78.3017 Y129.2622 I28.1687 J-0.0243
G3 X78.5682 Y128.4808 I3.8989 J0.8937
G3 X85.9897 Y123.9753 I7.0529 J3.2523
G3 X93.1452 Y127.8369 I0.2126 J8.1664
G3 X93.2613 Y128.0369 I-3.3996 J2.1078
G3 X94.8265 Y133.9834 I-11.3777 J6.174
G3 X94.877 Y137.4055 I-88.5528 J3.0179
G3 X94.8572 Y139.8849 I-21.1616 J1.0703
G1 F300.0 Z-5.0
G3 F800.0 X92.4624 Y148.3505 I-21.1418 J-1.4091
G3 X92.272 Y148.6741 I-3.5391 J-1.8641
G3 X82.8781 Y153.4632 I-8.873 J-5.7968
G3 X64.8254 Y147.8111 I0.5526 J-33.4209
G3 X62.6401 Y150.6737 I-8.8969 J-4.5262
G3 X62.2374 Y150.9947 I-2.6895 J-2.9609
G3 X51.1352 Y149.9052 I-4.9126 J-7.0505
G3 X50.6589 Y149.3048 I2.8811 J-2.7747
G3 X49.0803 Y143.5851 I8.2814 J-5.3633
G3 X48.8398 Y133.9981 I482.7385 J-16.906
G3 X48.8394 Y133.9375 I3.9995 J-0.0606
G1 Y99.7093
G3 X49.5746 Y95.5043 I11.001 J-0.2432
G3 X49.6798 Y95.2568 I3.7317 J1.4402
G3 X57.0566 Y90.7183 I7.1243 J3.3153
G3 X65.9693 Y99.9083 I0.6121 J8.3233
G1 X65.8756 Y125.5963
G2 X71.4581 Y132.7538 I17.8383 J-8.1572
G2 X77.5897 Y135.58 I12.1753 J-18.3505
G3 X78.3017 Y129.2622 I28.1687 J-0.0243
G3 X78.5682 Y128.4808 I3.8989 J0.8937
G3 X85.9897 Y123.9753 I7.0529 J3.2523
G3 X93.1452 Y127.8369 I0.2126 J8.1664
G3 X93.2613 Y128.0369 I-3.3996 J2.1078
G3 X94.8265 Y133.9834 I-11.3777 J6.174
G3 X94.877 Y137.4055 I-88.5528 J3.0179
G3 X94.8572 Y139.8849 I-21.1616 J1.0703
G0 Z3.0
G0 X30.4179 Y138.4245
G0 Z1.0
G1 F300.0 Z-2.5
G3 F800.0 X23.169 Y147.1263 I-9.0949 J-0.2061
G3 X17.778 Y150.6039 I-9.9111 J-9.4472
G3 X17.7543 Y150.6121 I-1.3205 J-3.7758
G3 X8.8198 Y152.0006 I-8.3713 J-24.4263
G3 X-4.012 Y149.9003 I-0.4503 J-37.4969
G3 X-4.0777 Y149.8767 I1.3207 J-3.7757
G3 X-22.1138 Y131.0628 I10.3304 J-27.9554
G3 X-22.6111 Y109.0061 I35.695 J-11.8387
G3 X-22.5788 Y108.8976 I3.8495 J1.0868
G3 X-0.072 Y92.7785 I21.9475 J6.8726
G3 X9.7554 Y95.466 I0.2261 J18.4851
G2 X8.238 Y89.5538 I-35.4806 J5.9551
G3 X8.2119 Y89.4765 I3.7761 J-1.3194
G2 X-0.8011 Y83.1504 I-8.7279 J2.8513
G3 X-1.0406 Y83.1507 I-0.1242 J-3.9981
G2 X-9.1731 Y83.8458 I-1.0334 J35.8276
G3 X-15.6064 Y84.7552 I-8.9373 J-40.0153
G3 X-21.7666 Y82.6129 I-0.5667 J-8.2987
G3 X-22.1775 Y82.1793 I2.6899 J-2.9605
G3 X-20.0885 Y69.3891 I6.7116 J-5.4695
G3 X-19.9426 Y69.3013 I2.1356 J3.3822
G3 X-14.6586 Y67.4008 I8.0036 J13.9573
G3 X6.4684 Y67.4244 I10.4993 J57.5004
G3 X21.8197 Y78.333 I-3.7117 J21.4792
G3 X21.8766 Y78.4393 I-3.4982 J1.9398
G3 X26.3449 Y94.3074 I-36.5721 J18.8616
G3 X26.3463 Y94.3272 I-3.9894 J0.291
G1 X28.0106 Y118.6854
G2 X29.2783 Y127.5004 I142.122 J-15.9393
G3 X30.3617 Y137.1885 I-61.1205 J11.7402
G3 X30.4179 Y138.4245 I-9.0388 J1.0298
G1 F300.0 Z-5.0
G3 F800.0 X23.169 Y147.1263 I-9.0949 J-0.2061
G3 X17.778 Y150.6039 I-9.9111 J-9.4472
G3 X17.7543 Y150.6121 I-1.3205 J-3.7758
G3 X8.8198 Y152.0006 I-8.3713 J-24.4263
G3 X-4.012 Y149.9003 I-0.4503 J-37.4969
G3 X-4.0777 Y149.8767 I1.3207 J-3.7757
G3 X-22.1138 Y131.0628 I10.3304 J-27.9554
G3 X-22.6111 Y109.0061 I35.695 J-11.8387
G3 X-22.5788 Y108.8976 I3.8495 J1.0868
G3 X-0.072 Y92.7785 I21.9475 J6.8726
G3 X9.7554 Y95.466 I0.2261 J18.4851
G2 X8.238 Y89.5538 I-35.4806 J5.9551
G3 X8.2119 Y89.4765 I3.7761 J-1.3194
G2 X-0.8011 Y83.1504 I-8.7279 J2.8513
G3 X-1.0406 Y83.1507 I-0.1242 J-3.9981
G2 X-9.1731 Y83.8458 I-1.0334 J35.8276
G3 X-15.6064 Y84.7552 I-8.9373 J-40.0153
G3 X-21.7666 Y82.6129 I-0.5667 J-8.2987
G3 X-22.1775 Y82.1793 I2.6899 J-2.9605
G3 X-20.0885 Y69.3891 I6.7116 J-5.4695
G3 X-19.9426 Y69.3013 I2.1356 J3.3822
G3 X-14.6586 Y67.4008 I8.0036 J13.9573
G3 X6.4684 Y67.4244 I10.4993 J57.5004
G3 X21.8197 Y78.333 I-3.7117 J21.4792
G3 X21.8766 Y78.4393 I-3.4982 J1.9398
G3 X26.3449 Y94.3074 I-36.5721 J18.8616
G3 X26.3463 Y94.3272 I-3.9894 J0.291
G1 X28.0106 Y118.6854
G2 X29.2783 Y127.5004 I142.122 J-15.9393
G3 X30.3617 Y137.1885 I-61.1205 J11.7402
G3 X30.4179 Y138.4245 I-9.0388 J1.0298
G0 Z3.0
G0 X27.2189 Y186.4643
G0 Z1.0
G1 F300.0 Z-2.5
G3 F800.0 X34.664 Y194.2034 I-0.5301 J7.9607
G3 X34.6642 Y194.4158 I-3.9985 J0.1111
G3 X33.7447 Y203.3335 I-57.9408 J-1.4683
G2 X32.9866 Y211.0505 I52.5729 J9.0603
G3 X33.0251 Y218.5884 I-356.3641 J5.5882
G3 X30.9428 Y230.8524 I-33.9001 J0.5528
G3 X30.8856 Y230.9988 I-3.7538 J-1.3817
G3 X25.9031 Y236.9915 I-12.1221 J-5.011
G3 X25.5965 Y237.1716 I-2.1772 J-3.3556
G3 X8.2004 Y235.2502 I-7.2837 J-13.7664
G3 X7.9928 Y235.0868 I20.3288 J-26.0504
G3 X7.5609 Y236.0212 I-11.0389 J-4.5352
G3 X7.3377 Y236.4011 I-3.5552 J-1.8333
G3 X-6.928 Y232.0035 I-6.4832 J-4.3062
G3 X-6.8055 Y228.1284 I93.1394 J1.003
G3 X-6.8024 Y228.0756 I3.9945 J0.2095
G2 X-7.2103 Y213.9472 I-74.7507 J-4.9119
G3 X-7.2267 Y213.7899 I3.9696 J-0.4921
G3 X-7.7872 Y202.3797 I163.9355 J-13.7719
G3 X-7.7801 Y202.0782 I3.9996 J-0.0574
G3 X-7.283 Y195.1642 I322.2933 J19.6985
G3 X-5.1534 Y189.7145 I7.9487 J-0.0347
G3 X-5.0049 Y189.5633 I2.9283 J2.7249
G3 X8.3761 Y195.3433 I5.4867 J5.6769
G3 X8.3754 Y195.385 I-3.9997 J-0.0522
G3 X8.1181 Y199.2443 I-44.9105 J-1.0558
G1 Y199.2442
G1 Y199.2443
G2 X7.9101 Y202.2778 I36.7138 J4.0407
G2 X8.4361 Y209.1836 I124.0455 J-5.9743
G2 X10.3938 Y214.5342 I37.5764 J-10.7157
G3 X10.4495 Y214.6638 I-3.6462 J1.6447
G2 X16.1328 Y222.2822 I17.6081 J-7.2064
G2 X17.2509 Y222.8603 I2.4972 J-3.4597
G2 X17.6157 Y218.9686 I-10.946 J-2.9891
G3 X17.6075 Y218.8397 I3.9873 J-0.3182
G3 X17.331 Y211.3338 I356.8666 J-16.9058
G3 X17.3317 Y211.0994 I3.9986 J-0.1052
G3 X18.9713 Y193.7958 I139.7317 J4.5113
G3 X26.9197 Y186.45 I7.563 J0.2103
G3 X27.2189 Y186.4643 I-0.2309 J7.9749
G0 Z3.0
G0 X-12.3178 Y195.2138
G0 Z1.0
G1 F300.0 Z-2.5
G3 F800.0 X-12.1314 Y196.944 I-7.7083 J1.7058
G3 X-12.1326 Y197.0323 I-4.0 J-0.0124
G2 X-12.4036 Y210.8972 I1230.8466 J30.9915
G1 X-11.6272 Y229.1037
G3 X-27.2822 Y229.3034 I-7.8244 J0.3389
G1 X-28.0574 Y211.1262
G3 X-28.0607 Y210.8998 I3.9963 J-0.1711
G3 X-27.7889 Y196.9341 I1239.1184 J17.124
G3 X-25.6465 Y191.3785 I7.8917 J-0.1476
G3 X-25.5128 Y191.243 I2.9136 J2.7406
G3 X-12.3178 Y195.2138 I5.4867 J5.6766
G1 F300.0 X-7.3204 Y195.6199
G1 Z-5.0
G3 F800.0 X-7.283 Y195.1642 I321.8336 J26.1568
G3 X-5.1534 Y189.7145 I7.9487 J-0.0347
G3 X-5.0049 Y189.5633 I2.9283 J2.7249
G3 X8.3761 Y195.3433 I5.4867 J5.6769
G3 X8.3754 Y195.385 I-3.9997 J-0.0522
G3 X8.1181 Y199.2443 I-44.9105 J-1.0558
G1 Y199.2442
G1 Y199.2443
G2 X7.9101 Y202.2778 I36.7138 J4.0407
G2 X8.4361 Y209.1836 I124.0455 J-5.9743
G2 X10.3938 Y214.5342 I37.5764 J-10.7157
G3 X10.4495 Y214.6638 I-3.6462 J1.6447
G2 X16.1328 Y222.2822 I17.6081 J-7.2064
G2 X17.2509 Y222.8603 I2.4972 J-3.4597
G2 X17.6157 Y218.9686 I-10.946 J-2.9891
G3 X17.6075 Y218.8397 I3.9873 J-0.3182
G3 X17.331 Y211.3338 I356.8666 J-16.9058
G3 X17.3317 Y211.0994 I3.9986 J-0.1052
G3 X18.9713 Y193.7958 I139.7317 J4.5113
G3 X26.9197 Y186.45 I7.563 J0.2103
G3 X34.664 Y194.2034 I-0.2309 J7.9749
G3 X34.6642 Y194.4158 I-3.9985 J0.1111
G3 X33.7447 Y203.3335 I-57.9408 J-1.4683
G2 X32.9866 Y211.0505 I52.5729 J9.0603
G3 X33.0251 Y218.5884 I-356.3641 J5.5882
G3 X30.9428 Y230.8524 I-33.9001 J0.5528
G3 X30.8856 Y230.9988 I-3.7538 J-1.3817
G3 X25.9031 Y236.9915 I-12.1221 J-5.011
G3 X25.5965 Y237.1716 I-2.1772 J-3.3556
G3 X8.2004 Y235.2502 I-7.2837 J-13.7664
G3 X7.9928 Y235.0868 I20.3288 J-26.0504
G3 X7.5609 Y236.0212 I-11.0389 J-4.5352
G3 X7.3377 Y236.4011 I-3.5552 J-1.8333
G3 X-6.928 Y232.0035 I-6.4832 J-4.3062
G3 X-6.8055 Y228.1284 I93.1394 J1.003
G3 X-6.8024 Y228.0756 I3.9945 J0.2095
G2 X-7.2103 Y213.9472 I-74.7507 J-4.9119
G3 X-7.2267 Y213.7899 I3.9696 J-0.4921
G3 X-7.7872 Y202.3797 I163.9355 J-13.7719
G3 X-7.7801 Y202.0782 I3.9996 J-0.0574
G3 X-7.3204 Y195.6199 I322.2933 J19.6985
G0 Z3.0
G0 X-16.4326 Y238.8574
G0 Z1.0
G1 F300.0 Z-2.5
G3 F800.0 X-12.1116 Y253.2171 I-1.7619 J8.3601
G3 X-12.1302 Y253.2358 I-2.8478 J-2.8089
G3 X-18.1609 Y238.6738 I-6.0343 J-6.0307
G3 X-18.1345 Y238.6739 I-0.0017 J4.0
G3 X-16.4326 Y238.8574 I-0.0599 J8.5436
G1 F300.0 Z-5.0
G3 F800.0 X-12.1116 Y253.2171 I-1.7619 J8.3601
G3 X-12.1302 Y253.2358 I-2.8478 J-2.8089
G3 X-18.1609 Y238.6738 I-6.0343 J-6.0307
G3 X-18.1345 Y238.6739 I-0.0017 J4.0
G3 X-16.4326 Y238.8574 I-0.0599 J8.5436
G1 F300.0 X-17.0602 Y236.9003
G3 F800.0 X-27.2822 Y229.3034 I-2.3915 J-7.4577
G1 X-28.0574 Y211.1262
G3 X-28.0607 Y210.8998 I3.9963 J-0.1711
G3 X-27.7889 Y196.9341 I1239.1184 J17.124
G3 X-25.6465 Y191.3785 I7.8917 J-0.1476
G3 X-25.5128 Y191.243 I2.9136 J2.7406
G3 X-12.1314 Y196.944 I5.4867 J5.6766
G3 X-12.1326 Y197.0323 I-4.0 J-0.0124
G2 X-12.4036 Y210.8972 I1230.8466 J30.9915
G1 X-11.6272 Y229.1037
G3 X-17.0602 Y236.9003 I-7.8244 J0.3389
G0 Z3.0
G0 X-20.4343 Y289.3883
G0 Z1.0
G1 F300.0 Z-2.5
G3 F800.0 X-2.263 Y299.7664 I-1.5282 J23.7733
G3 X4.105 Y320.4785 I-29.3102 J20.3464
G3 X-0.1862 Y339.7299 I-38.481 J1.5265
G3 X-18.5295 Y350.8568 I-17.962 J-8.9279
G3 X-40.9129 Y339.1725 I-0.7518 J-25.8418
G3 X-47.1589 Y317.4462 I29.3333 J-20.1938
G3 X-39.1613 Y296.6792 I30.1041 J-0.3301
G3 X-39.15 Y296.6671 I2.9372 J2.7153
G3 X-22.1083 Y289.3397 I16.8493 J15.7063
G3 X-20.4343 Y289.3883 I0.1457 J23.8219
G1 F300.0 Z-5.0
G3 F800.0 X-2.263 Y299.7664 I-1.5282 J23.7733
G3 X4.105 Y320.4785 I-29.3102 J20.3464
G3 X-0.1862 Y339.7299 I-38.481 J1.5265
G3 X-18.5295 Y350.8568 I-17.962 J-8.9279
G3 X-40.9129 Y339.1725 I-0.7518 J-25.8418
G3 X-47.1589 Y317.4462 I29.3333 J-20.1938
G3 X-39.1613 Y296.6792 I30.1041 J-0.3301
G3 X-39.15 Y296.6671 I2.9372 J2.7153
G3 X-22.1083 Y289.3397 I16.8493 J15.7063
G3 X-20.4343 Y289.3883 I0.1457 J23.8219
G0 Z3.0
G0 X-61.0342 Y297.3744
G0 Z1.0
G1 F300.0 Z-2.5
G3 F800.0 X-61.6397 Y302.4912 I-8.2347 J1.6198
G3 X-64.6879 Y308.2067 I-30.0426 J-12.3514
G3 X-64.6956 Y308.2183 I-3.3242 J-2.2248
G3 X-77.6066 Y326.3153 I-349.2595 J-235.5181
G3 X-65.2783 Y339.1355 I-123.9411 J131.5236
G3 X-65.5211 Y351.5022 I-6.1159 J6.0656
G3 X-78.1987 Y351.198 I-6.2019 J-5.856
G1 X-88.8109 Y340.2481
G2 X-94.7189 Y334.7704 I-92.7493 J94.1114
G2 X-94.2765 Y358.9015 I1243.3365 J-10.7282
G3 X-94.2792 Y359.1995 I-3.9984 J0.1121
G1 X-94.7597 Y369.6237
G3 X-103.5148 Y378.542 I-8.6784 J0.237
G3 X-112.3292 Y369.4138 I-0.2198 J-8.6075
G3 X-111.8957 Y359.1861 I553.8248 J18.3523
G3 X-112.3332 Y325.474 I5791.9893 J-92.0188
G2 X-112.9068 Y313.579 I-190.8252 J3.2419
G3 X-112.9087 Y313.5542 I3.9874 J-0.3172
G3 X-113.4559 Y301.224 I213.3879 J-15.647
G3 X-112.8511 Y296.6444 I15.3176 J-0.3066
G3 X-104.4352 Y290.5104 I8.0274 J2.1734
G3 X-95.7396 Y299.5315 I0.0206 J8.6816
G2 X-95.3425 Y311.974 I204.538 J-0.301
G3 X-91.25 Y314.8698 I-98.8428 J144.0307
G1 X-84.9949 Y306.3529
G3 X-84.9208 Y306.2552 I3.2239 J2.3678
G2 X-77.706 Y295.2993 I-63.2262 J-49.4901
G3 X-70.0404 Y290.2196 I7.8218 J3.4799
G3 X-63.7194 Y292.6983 I0.216 J8.7481
G3 X-61.0342 Y297.3744 I-5.5496 J6.2958
G1 F300.0 Z-5.0
G3 F800.0 X-61.6397 Y302.4912 I-8.2347 J1.6198
G3 X-64.6879 Y308.2067 I-30.0426 J-12.3514
G3 X-64.6956 Y308.2183 I-3.3242 J-2.2248
G3 X-77.6066 Y326.3153 I-349.2595 J-235.5181
G3 X-65.2783 Y339.1355 I-123.9411 J131.5236
G3 X-65.5211 Y351.5022 I-6.1159 J6.0656
G3 X-78.1987 Y351.198 I-6.2019 J-5.856
G1 X-88.8109 Y340.2481
G2 X-94.7189 Y334.7704 I-92.7493 J94.1114
G2 X-94.2765 Y358.9015 I1243.3365 J-10.7282
G3 X-94.2792 Y359.1995 I-3.9984 J0.1121
G1 X-94.7597 Y369.6237
G3 X-103.5148 Y378.542 I-8.6784 J0.237
G3 X-112.3292 Y369.4138 I-0.2198 J-8.6075
G3 X-111.8957 Y359.1861 I553.8248 J18.3523
G3 X-112.3332 Y325.474 I5791.9893 J-92.0188
G2 X-112.9068 Y313.579 I-190.8252 J3.2419
G3 X-112.9087 Y313.5542 I3.9874 J-0.3172
G3 X-113.4559 Y301.224 I213.3879 J-15.647
G3 X-112.8511 Y296.6444 I15.3176 J-0.3066
G3 X-104.4352 Y290.5104 I8.0274 J2.1734
G3 X-95.7396 Y299.5315 I0.0206 J8.6816
G2 X-95.3425 Y311.974 I204.538 J-0.301
G3 X-91.25 Y314.8698 I-98.8428 J144.0307
G1 X-84.9949 Y306.3529
G3 X-84.9208 Y306.2552 I3.2239 J2.3678
G2 X-77.706 Y295.2993 I-63.2262 J-49.4901
G3 X-70.0404 Y290.2196 I7.8218 J3.4799
G3 X-63.7194 Y292.6983 I0.216 J8.7481
G3 X-61.0342 Y297.3744 I-5.5496 J6.2958
G0 Z3.0
G0 X-130.9262 Y299.8632
G0 Z1.0
G1 F300.0 Z-2.5
G3 F800.0 X-129.8379 Y334.4907 I-4145.204 J147.6105
G3 X-129.8368 Y334.5441 I-3.9985 J0.109
G1 X-129.3512 Y369.6498
G3 X-138.18 Y378.8007 I-8.3047 J0.822
G3 X-146.9677 Y369.6672 I-0.529 J-8.2854
G2 X-147.2101 Y352.3301 I-728.4838 J1.5128
G3 X-147.2113 Y352.2602 I3.9987 J-0.1035
G2 X-148.5194 Y299.4351 I-1615.9234 J13.5878
G3 X-143.0609 Y290.6255 I8.3048 J-0.9501
G3 X-142.9165 Y290.5763 I1.362 J3.761
G3 X-133.6513 Y292.4602 I2.9483 J9.226
G3 X-133.1008 Y293.039 I-2.6088 J3.0322
G3 X-130.9643 Y298.8075 I-8.0746 J6.2705
G3 X-130.962 Y298.8606 I-3.9952 J0.1964
G3 X-130.9262 Y299.8632 I-4145.1682 J148.6131
G1 F300.0 Z-5.0
G3 F800.0 X-129.8379 Y334.4907 I-4145.204 J147.6105
G3 X-129.8368 Y334.5441 I-3.9985 J0.109
G1 X-129.3512 Y369.6498
G3 X-138.18 Y378.8007 I-8.3047 J0.822
G3 X-146.9677 Y369.6672 I-0.529 J-8.2854
G2 X-147.2101 Y352.3301 I-728.4838 J1.5128
G3 X-147.2113 Y352.2602 I3.9987 J-0.1035
G2 X-148.5194 Y299.4351 I-1615.9234 J13.5878
G3 X-143.0609 Y290.6255 I8.3048 J-0.9501
G3 X-142.9165 Y290.5763 I1.362 J3.761
G3 X-133.6513 Y292.4602 I2.9483 J9.226
G3 X-133.1008 Y293.039 I-2.6088 J3.0322
G3 X-130.9643 Y298.8075 I-8.0746 J6.2705
G3 X-130.962 Y298.8606 I-3.9952 J0.1964
G3 X-130.9262 Y299.8632 I-4145.1682 J148.6131
G0 Z3.0
G0 X-166.492 Y301.1189
G0 Z1.0
G1 F300.0 Z-2.5
G3 F800.0 X-165.4483 Y334.4907 I-4145.2486 J146.3548
G3 X-165.4472 Y334.5441 I-3.9985 J0.109
G1 X-164.9616 Y369.6498
G3 X-173.7903 Y378.8007 I-8.3047 J0.822
G3 X-182.5781 Y369.6672 I-0.529 J-8.2854
G2 X-182.8204 Y352.3301 I-728.4838 J1.5128
G3 X-182.8216 Y352.2602 I3.9987 J-0.1035
G2 X-184.1298 Y299.4351 I-1615.9234 J13.5878
G3 X-178.6713 Y290.6255 I8.3048 J-0.9501
G3 X-178.5269 Y290.5763 I1.362 J3.761
G3 X-169.2616 Y292.4602 I2.9483 J9.226
G3 X-168.7112 Y293.039 I-2.6088 J3.0322
G3 X-166.5746 Y298.8075 I-8.0746 J6.2705
G3 X-166.5724 Y298.8606 I-3.9952 J0.1964
G3 X-166.492 Y301.1189 I-4145.1682 J148.6131
G1 F300.0 Z-5.0
G3 F800.0 X-165.4483 Y334.4907 I-4145.2486 J146.3548
G3 X-165.4472 Y334.5441 I-3.9985 J0.109
G1 X-164.9616 Y369.6498
G3 X-173.7903 Y378.8007 I-8.3047 J0.822
G3 X-182.5781 Y369.6672 I-0.529 J-8.2854
G2 X-182.8204 Y352.3301 I-728.4838 J1.5128
G3 X-182.8216 Y352.2602 I3.9987 J-0.1035
G2 X-184.1298 Y299.4351 I-1615.9234 J13.5878
G3 X-178.6713 Y290.6255 I8.3048 J-0.9501
G3 X-178.5269 Y290.5763 I1.362 J3.761
G3 X-169.2616 Y292.4602 I2.9483 J9.226
G3 X-168.7112 Y293.039 I-2.6088 J3.0322
G3 X-166.5746 Y298.8075 I-8.0746 J6.2705
G3 X-166.5724 Y298.8606 I-3.9952 J0.1964
G3 X-166.492 Y301.1189 I-4145.1682 J148.6131
G0 Z3.0
G0 X-202.4115 Y300.6827
G0 Z1.0
G1 F300.0 Z-2.5
G3 F800.0 X-202.4222 Y301.0207 I-8.6049 J-0.1045
G2 X-202.76 Y318.3308 I1539.5595 J38.7039
G1 X-201.7891 Y341.1003
G3 X-210.5363 Y350.2217 I-8.6704 J0.4401
G3 X-219.3595 Y341.2678 I-0.2198 J-8.6075
G1 X-220.3279 Y318.5598
G3 X-220.3312 Y318.3334 I3.9963 J-0.1711
G3 X-219.9921 Y300.9046 I1547.8981 J21.3912
G3 X-211.2046 Y291.9748 I8.5993 J-0.3264
G3 X-202.4115 Y300.6827 I0.1883 J8.6034
G0 Z3.0
G0 X-251.8673 Y321.0267
G0 Z1.0
G1 F300.0 Z-2.5
G1 F800.0 X-241.5454 Y346.1189
G3 X-241.4229 Y346.4598 I-3.6992 J1.5217
G1 X-238.7834 Y355.0022
G3 X-235.2085 Y365.3512 I-114.7821 J45.4417
G3 X-235.0809 Y365.9422 I-3.835 J1.1371
G3 X-240.8481 Y374.9527 I-8.1644 J1.1252
G3 X-251.9527 Y370.8123 I-2.8478 J-9.3237
G3 X-252.0194 Y370.7022 I3.3878 J-2.1267
G3 X-255.9323 Y360.6859 I29.8859 J-17.4475
G2 X-258.2763 Y351.8158 I-165.438 J38.9743
G2 X-269.7026 Y321.598 I-1067.7002 J386.4609
G1 X-271.1206 Y328.0779
G2 X-274.3776 Y346.9395 I231.1242 J49.6224
G3 X-276.6308 Y362.3104 I-193.4859 J-20.5119
G3 X-278.1237 Y367.7691 I-33.4254 J-6.2084
G3 X-292.93 Y371.0581 I-8.3562 J-2.6456
G3 X-292.9833 Y370.9991 I2.9436 J-2.7084
G3 X-299.0655 Y360.4965 I22.9959 J-20.3297
G3 X-303.97 Y345.578 I202.1154 J-74.7119
G2 X-309.4526 Y328.7358 I-258.9571 J74.9848
G1 X-311.3563 Y337.4101
G3 X-320.8499 Y369.3705 I-218.2471 J-47.4385
G3 X-329.1383 Y375.4099 I-8.7548 J-3.3078
G3 X-337.9221 Y370.5093 I-0.9981 J-8.5333
G3 X-338.0965 Y370.0693 I3.6249 J-1.6913
G3 X-338.035 Y363.6081 I9.5344 J-3.1402
G2 X-327.3088 Y329.2686 I-548.2943 J-190.1096
G3 X-320.6152 Y299.725 I741.0126 J152.3576
G3 X-313.3941 Y290.5415 I9.1304 J-0.2514
G3 X-303.7811 Y292.1553 I2.9902 J11.6262
G3 X-300.3944 Y301.55 I-4.6025 J6.967
G2 X-293.5254 Y319.8723 I119.6724 J-34.4162
G3 X-293.4723 Y319.9908 I-3.6235 J1.6941
G3 X-289.1726 Y330.9231 I-179.1441 J76.7703
G3 X-288.429 Y327.0045 I276.6121 J50.4584
G2 X-284.5851 Y306.0329 I-1312.719 J-251.447
G3 X-284.5723 Y305.9632 I3.9401 J0.6897
G3 X-281.7615 Y296.2124 I55.6515 J10.7614
G3 X-278.1658 Y290.2209 I8.3383 J0.9295
G3 X-271.8372 Y288.2213 I6.1519 J8.4555
G3 X-271.7806 Y288.2226 I-0.0676 J3.9994
G3 X-263.1045 Y293.6051 I-0.3166 J10.1942
G3 X-262.9842 Y293.8495 I-3.5269 J1.8871
G3 X-256.0174 Y310.9378 I-233.3346 J105.0937
G1 X-251.8673 Y321.0267
G1 F300.0 Z-5.0
G1 F800.0 X-241.5454 Y346.1189
G3 X-241.4229 Y346.4598 I-3.6992 J1.5217
G1 X-238.7834 Y355.0022
G3 X-235.2085 Y365.3512 I-114.7821 J45.4417
G3 X-235.0809 Y365.9422 I-3.835 J1.1371
G3 X-240.8481 Y374.9527 I-8.1644 J1.1252
G3 X-251.9527 Y370.8123 I-2.8478 J-9.3237
G3 X-252.0194 Y370.7022 I3.3878 J-2.1267
G3 X-255.9323 Y360.6859 I29.8859 J-17.4475
G2 X-258.2763 Y351.8158 I-165.438 J38.9743
G2 X-269.7026 Y321.598 I-1067.7002 J386.4609
G1 X-271.1206 Y328.0779
G2 X-274.3776 Y346.9395 I231.1242 J49.6224
G3 X-276.6308 Y362.3104 I-193.4859 J-20.5119
G3 X-278.1237 Y367.7691 I-33.4254 J-6.2084
G3 X-292.93 Y371.0581 I-8.3562 J-2.6456
G3 X-292.9833 Y370.9991 I2.9436 J-2.7084
G3 X-299.0655 Y360.4965 I22.9959 J-20.3297
G3 X-303.97 Y345.578 I202.1154 J-74.7119
G2 X-309.4526 Y328.7358 I-258.9571 J74.9848
G1 X-311.3563 Y337.4101
G3 X-320.8499 Y369.3705 I-218.2471 J-47.4385
G3 X-329.1383 Y375.4099 I-8.7548 J-3.3078
G3 X-337.9221 Y370.5093 I-0.9981 J-8.5333
G3 X-338.0965 Y370.0693 I3.6249 J-1.6913
G3 X-338.035 Y363.6081 I9.5344 J-3.1402
G2 X-327.3088 Y329.2686 I-548.2943 J-190.1096
G3 X-320.6152 Y299.725 I741.0126 J152.3576
G3 X-313.3941 Y290.5415 I9.1304 J-0.2514
G3 X-303.7811 Y292.1553 I2.9902 J11.6262
G3 X-300.3944 Y301.55 I-4.6025 J6.967
G2 X-293.5254 Y319.8723 I119.6724 J-34.4162
G3 X-293.4723 Y319.9908 I-3.6235 J1.6941
G3 X-289.1726 Y330.9231 I-179.1441 J76.7703
G3 X-288.429 Y327.0045 I276.6121 J50.4584
G2 X-284.5851 Y306.0329 I-1312.719 J-251.447
G3 X-284.5723 Y305.9632 I3.9401 J0.6897
G3 X-281.7615 Y296.2124 I55.6515 J10.7614
G3 X-278.1658 Y290.2209 I8.3383 J0.9295
G3 X-271.8372 Y288.2213 I6.1519 J8.4555
G3 X-271.7806 Y288.2226 I-0.0676 J3.9994
G3 X-263.1045 Y293.6051 I-0.3166 J10.1942
G3 X-262.9842 Y293.8495 I-3.5269 J1.8871
G3 X-256.0174 Y310.9378 I-233.3346 J105.0937
G1 X-251.8673 Y321.0267
G0 Z3.0
G0 X-215.8129 Y356.8862
G0 Z1.0
G1 F300.0 Z-2.5
G3 F800.0 X-208.9568 Y354.0371 I6.852 J6.815
G3 X-208.9304 Y354.0372 I-0.0017 J4.0
G3 X-202.1067 Y370.514 I-0.0679 J9.6795
G3 X-202.1253 Y370.5327 I-2.8478 J-2.8089
G3 X-215.8129 Y356.8862 I-6.8356 J-6.8315
G1 F300.0 Z-5.0
G3 F800.0 X-208.9568 Y354.0371 I6.852 J6.815
G3 X-208.9304 Y354.0372 I-0.0017 J4.0
G3 X-202.1067 Y370.514 I-0.0679 J9.6795
G3 X-202.1253 Y370.5327 I-2.8478 J-2.8089
G3 X-215.8129 Y356.8862 I-6.8356 J-6.8315
G0 Z3.0
G0 X-213.4626 Y349.788
G0 Z-1.5
G1 F300.0 Z-5.0
G3 F800.0 X-219.3595 Y341.2678 I2.7065 J-8.1739
G1 X-220.3279 Y318.5598
G3 X-220.3312 Y318.3334 I3.9963 J-0.1711
G3 X-219.9921 Y300.9046 I1547.8981 J21.3912
G3 X-211.2046 Y291.9748 I8.5993 J-0.3264
G3 X-202.4222 Y301.0207 I0.1883 J8.6034
G2 X-202.76 Y318.3308 I1539.5595 J38.7039
G1 X-201.7891 Y341.1003
G3 X-210.5363 Y350.2217 I-8.6704 J0.4401
G3 X-213.4626 Y349.788 I-0.2198 J-8.6075
G0 Z3.0
G0 X-251.732 Y177.3618
G0 Z1.0
G1 F300.0 Z-2.5
G3 F800.0 X-260.2859 Y173.6557 I-1.7207 J-7.7529
G3 X-260.3498 Y173.5437 I3.4417 J-2.0383
G3 X-263.5384 Y160.7492 I22.626 J-12.4333
G2 X-263.8783 Y143.5764 I-313.3417 J-2.3863
G3 X-281.9819 Y141.2331 I7.9618 J-132.6142
G1 X-298.2783 Y138.1562
G1 X-298.4566 Y145.6728
G2 X-297.4377 Y168.9026 I2931.3295 J-116.9397
G3 X-297.4342 Y169.0021 I-3.9954 J0.1911
G3 X-314.8086 Y169.0897 I-8.6865 J0.1991
G2 X-315.2852 Y157.7722 I-210.8444 J3.2103
G3 X-315.5841 Y137.5411 I152.805 J-12.3751
G3 X-315.584 Y137.5388 I3.9947 J0.205
G2 X-316.2489 Y114.6004 I-141.9461 J-7.3645
G3 X-316.2572 Y114.5168 I3.9759 J-0.4383
G3 X-317.1022 Y98.8147 I223.6627 J-19.91
G3 X-299.7273 Y98.7213 I8.6867 J-0.1906
G2 X-298.8774 Y110.7579 I124.6591 J-2.7544
G3 X-298.8771 Y110.7602 I-3.9718 J0.4745
G3 X-298.0813 Y120.4162 I-133.2834 J15.8453
G1 X-280.6959 Y123.8105
G3 X-280.6629 Y123.817 I-0.7665 J3.9259
G2 X-265.0113 Y125.9838 I24.8201 J-121.6726
G3 X-265.0522 Y123.002 I112.672 J-3.0392
G3 X-265.0476 Y122.8068 I4.0 J-0.002
G1 X-263.9784 Y100.5967
G3 X-246.6034 Y100.7366 I8.6878 J0.0291
G3 X-246.6036 Y100.752 I-3.9997 J-0.051
G3 X-247.1527 Y112.1844 I-182.2958 J-3.0271
G3 X-247.1577 Y112.2418 I-3.9874 J-0.3172
G2 X-246.876 Y137.0708 I117.7914 J11.0798
G3 X-246.069 Y156.6045 I-117.4322 J14.6353
G2 X-246.1637 Y160.8239 I143.3001 J5.3268
G3 X-246.1658 Y160.9259 I-3.9999 J-0.0309
G2 X-245.6503 Y165.4619 I15.6379 J0.52
G3 X-247.561 Y174.9339 I-8.0063 J3.3137
G3 X-251.732 Y177.3618 I-5.8918 J-5.325
G1 F300.0 Z-5.0
G3 F800.0 X-260.2859 Y173.6557 I-1.7207 J-7.7529
G3 X-260.3498 Y173.5437 I3.4417 J-2.0383
G3 X-263.5384 Y160.7492 I22.626 J-12.4333
G2 X-263.8783 Y143.5764 I-313.3417 J-2.3863
G3 X-281.9819 Y141.2331 I7.9618 J-132.6142
G1 X-298.2783 Y138.1562
G1 X-298.4566 Y145.6728
G2 X-297.4377 Y168.9026 I2931.3295 J-116.9397
G3 X-297.4342 Y169.0021 I-3.9954 J0.1911
G3 X-314.8086 Y169.0897 I-8.6865 J0.1991
G2 X-315.2852 Y157.7722 I-210.8444 J3.2103
G3 X-315.5841 Y137.5411 I152.805 J-12.3751
G3 X-315.584 Y137.5388 I3.9947 J0.205
G2 X-316.2489 Y114.6004 I-141.9461 J-7.3645
G3 X-316.2572 Y114.5168 I3.9759 J-0.4383
G3 X-317.1022 Y98.8147 I223.6627 J-19.91
G3 X-299.7273 Y98.7213 I8.6867 J-0.1906
G2 X-298.8774 Y110.7579 I124.6591 J-2.7544
G3 X-298.8771 Y110.7602 I-3.9718 J0.4745
G3 X-298.0813 Y120.4162 I-133.2834 J15.8453
G1 X-280.6959 Y123.8105
G3 X-280.6629 Y123.817 I-0.7665 J3.9259
G2 X-265.0113 Y125.9838 I24.8201 J-121.6726
G3 X-265.0522 Y123.002 I112.672 J-3.0392
G3 X-265.0476 Y122.8068 I4.0 J-0.002
G1 X-263.9784 Y100.5967
G3 X-246.6034 Y100.7366 I8.6878 J0.0291
G3 X-246.6036 Y100.752 I-3.9997 J-0.051
G3 X-247.1527 Y112.1844 I-182.2958 J-3.0271
G3 X-247.1577 Y112.2418 I-3.9874 J-0.3172
G2 X-246.876 Y137.0708 I117.7914 J11.0798
G3 X-246.069 Y156.6045 I-117.4322 J14.6353
G2 X-246.1637 Y160.8239 I143.3001 J5.3268
G3 X-246.1658 Y160.9259 I-3.9999 J-0.0309
G2 X-245.6503 Y165.4619 I15.6379 J0.52
G3 X-247.561 Y174.9339 I-8.0063 J3.3137
G3 X-251.732 Y177.3618 I-5.8918 J-5.325
G0 Z3.0
G0 X-212.3745 Y143.6208
G0 Z1.0
G1 F300.0 Z-2.5
G3 F800.0 X-214.3788 Y140.9518 I19.6274 J-16.8265
G3 X-220.6247 Y119.2255 I29.3333 J-20.1938
G3 X-212.6271 Y98.4585 I30.1041 J-0.3301
G3 X-212.6159 Y98.4464 I2.9372 J2.7153
G3 X-195.5741 Y91.119 I16.8493 J15.7063
G3 X-175.7288 Y101.5457 I0.1457 J23.8219
G3 X-169.3608 Y122.2578 I-29.3102 J20.3464
G3 X-173.652 Y141.5092 I-38.481 J1.5265
G3 X-191.9953 Y152.6361 I-17.962 J-8.9279
G3 X-212.3745 Y143.6208 I-0.7518 J-25.8418
G1 F300.0 Z-5.0
G3 F800.0 X-214.3788 Y140.9518 I19.6274 J-16.8265
G3 X-220.6247 Y119.2255 I29.3333 J-20.1938
G3 X-212.6271 Y98.4585 I30.1041 J-0.3301
G3 X-212.6159 Y98.4464 I2.9372 J2.7153
G3 X-195.5741 Y91.119 I16.8493 J15.7063
G3 X-175.7288 Y101.5457 I0.1457 J23.8219
G3 X-169.3608 Y122.2578 I-29.3102 J20.3464
G3 X-173.652 Y141.5092 I-38.481 J1.5265
G3 X-191.9953 Y152.6361 I-17.962 J-8.9279
G3 X-212.3745 Y143.6208 I-0.7518 J-25.8418
G0 Z3.0
G0 X-152.6717 Y141.1113
G0 Z1.0
G1 F300.0 Z-2.5
G3 F800.0 X-143.3642 Y132.5362 I8.2831 J-0.3482
G3 X-140.0204 Y132.7046 I-6.4717 J161.8399
G3 X-139.8568 Y109.4799 I1254.8959 J-2.771
G2 X-140.8216 Y96.4052 I-83.0886 J-0.4413
G3 X-132.1485 Y86.1842 I8.4243 J-1.6417
G3 X-123.6458 Y93.5022 I0.2478 J8.3107
G3 X-122.7367 Y101.0878 I-55.7512 J10.5285
G3 X-122.7362 Y101.097 I-3.9946 J0.2075
G3 X-122.7307 Y117.7717 I-169.1231 J8.3939
G2 X-122.7341 Y134.0804 I174.5656 J8.1915
G2 X-111.2676 Y134.6758 I20.427 J-282.6866
G3 X-110.8738 Y134.7078 I-0.1265 J3.998
G3 X-105.8494 Y137.1052 I-1.1692 J8.9143
G3 X-105.5113 Y137.469 I-2.7556 J2.8994
G3 X-108.9284 Y150.7513 I-6.5752 J5.3892
G3 X-109.0773 Y150.8075 I-1.4859 J-3.7138
G3 X-115.4766 Y151.8027 I-5.8363 J-16.4575
G3 X-121.8508 Y151.5163 I7.4752 J-237.4689
G2 X-118.7176 Y160.1573 I19.0264 J-2.0104
G2 X-112.9229 Y162.6579 I5.4208 J-4.5972
G3 X-112.7946 Y162.6532 I0.2104 J3.9945
G3 X-108.3783 Y163.2285 I0.306 J14.8882
G3 X-102.3606 Y171.355 I-2.08 J7.8316
G3 X-107.2132 Y178.9536 I-8.0159 J0.2297
G3 X-107.2926 Y178.9867 I-1.5778 J-3.6757
G3 X-113.383 Y180.0772 I-5.644 J-13.969
G3 X-123.2199 Y178.5966 I-0.4155 J-30.6582
G3 X-123.2348 Y178.5918 I1.2291 J-3.8065
G3 X-132.2953 Y172.4284 I6.1427 J-18.7715
G3 X-132.3855 Y172.3155 I3.079 J-2.5534
G3 X-136.8792 Y163.3322 I20.8105 J-16.0254
G3 X-136.903 Y163.2427 I3.8536 J-1.0724
G3 X-139.1387 Y150.372 I83.0832 J-21.0617
G1 X-140.1511 Y150.3404
G3 X-147.6298 Y148.8698 I-0.1154 J-19.1661
G3 X-147.6483 Y148.8621 I1.5367 J-3.693
G3 X-152.6491 Y141.4668 I3.182 J-7.5401
G3 X-152.6717 Y141.1113 I8.2605 J-0.7037
G1 F300.0 Z-5.0
G3 F800.0 X-143.3642 Y132.5362 I8.2831 J-0.3482
G3 X-140.0204 Y132.7046 I-6.4717 J161.8399
G3 X-139.8568 Y109.4799 I1254.8959 J-2.771
G2 X-140.8216 Y96.4052 I-83.0886 J-0.4413
G3 X-132.1485 Y86.1842 I8.4243 J-1.6417
G3 X-123.6458 Y93.5022 I0.2478 J8.3107
G3 X-122.7367 Y101.0878 I-55.7512 J10.5285
G3 X-122.7362 Y101.097 I-3.9946 J0.2075
G3 X-122.7307 Y117.7717 I-169.1231 J8.3939
G2 X-122.7341 Y134.0804 I174.5656 J8.1915
G2 X-111.2676 Y134.6758 I20.427 J-282.6866
G3 X-110.8738 Y134.7078 I-0.1265 J3.998
G3 X-105.8494 Y137.1052 I-1.1692 J8.9143
G3 X-105.5113 Y137.469 I-2.7556 J2.8994
G3 X-108.9284 Y150.7513 I-6.5752 J5.3892
G3 X-109.0773 Y150.8075 I-1.4859 J-3.7138
G3 X-115.4766 Y151.8027 I-5.8363 J-16.4575
G3 X-121.8508 Y151.5163 I7.4752 J-237.4689
G2 X-118.7176 Y160.1573 I19.0264 J-2.0104
G2 X-112.9229 Y162.6579 I5.4208 J-4.5972
G3 X-112.7946 Y162.6532 I0.2104 J3.9945
G3 X-108.3783 Y163.2285 I0.306 J14.8882
G3 X-102.3606 Y171.355 I-2.08 J7.8316
G3 X-107.2132 Y178.9536 I-8.0159 J0.2297
G3 X-107.2926 Y178.9867 I-1.5778 J-3.6757
G3 X-113.383 Y180.0772 I-5.644 J-13.969
G3 X-123.2199 Y178.5966 I-0.4155 J-30.6582
G3 X-123.2348 Y178.5918 I1.2291 J-3.8065
G3 X-132.2953 Y172.4284 I6.1427 J-18.7715
G3 X-132.3855 Y172.3155 I3.079 J-2.5534
G3 X-136.8792 Y163.3322 I20.8105 J-16.0254
G3 X-136.903 Y163.2427 I3.8536 J-1.0724
G3 X-139.1387 Y150.372 I83.0832 J-21.0617
G1 X-140.1511 Y150.3404
G3 X-147.6298 Y148.8698 I-0.1154 J-19.1661
G3 X-147.6483 Y148.8621 I1.5367 J-3.693
G3 X-152.6491 Y141.4668 I3.182 J-7.5401
G3 X-152.6717 Y141.1113 I8.2605 J-0.7037
G0 Z3.0
G0 X-84.2002 Y134.498
G0 Z1.0
G1 F300.0 Z-2.5
G3 F800.0 X-84.2796 Y132.1201 I18.8368 J-1.8193
G3 X-78.6283 Y120.5628 I13.3759 J-0.6199
G3 X-78.4741 Y120.4592 I2.3075 J3.2673
G3 X-73.0065 Y117.9449 I11.8219 J18.5066
G3 X-72.9552 Y117.9298 I1.1574 J3.8289
G3 X-62.8359 Y115.4718 I34.3699 J119.4384
G2 X-58.1247 Y113.3567 I-2.7861 J-12.5098
G2 X-56.7353 Y110.5415 I-2.1325 J-2.803
G2 X-58.3574 Y109.7617 I-3.066 J4.3007
G2 X-69.1902 Y109.4321 I-6.0902 J21.9782
G3 X-69.5771 Y109.4947 I-0.8318 J-3.9126
G2 X-72.7409 Y110.5077 I0.9374 J8.3749
G3 X-78.3448 Y113.6259 I-7.991 J-7.7663
G3 X-79.2477 Y113.7185 I-0.8569 J-3.9071
G3 X-88.2276 Y105.0002 I0.1047 J-9.0916
G3 X-88.2303 Y104.763 I3.9966 J-0.1642
G3 X-84.0636 Y96.6625 I10.3233 J0.1882
G3 X-78.0421 Y93.4462 I12.7875 J16.6956
G3 X-64.5659 Y91.0701 I13.3911 J36.5446
G3 X-48.1801 Y94.8553 I1.072 J32.7186
G3 X-48.0969 Y94.9006 I-1.8712 J3.5353
G3 X-41.456 Y101.3645 I-8.7602 J15.6433
G3 X-41.3009 Y101.6506 I-3.436 J2.0479
G3 X-49.0058 Y128.6383 I-18.8042 J9.2251
G3 X-49.2094 Y128.7573 I-2.1197 J-3.3922
G3 X-64.1342 Y134.1908 I-25.3894 J-46.5248
G2 X-61.4554 Y135.4901 I8.6076 J-14.3351
G2 X-54.5752 Y137.6536 I63.8363 J-190.9925
G3 X-53.9597 Y135.9168 I21.7795 J6.7414
G3 X-53.5874 Y135.2046 I3.7131 J1.4875
G3 X-46.3526 Y131.5964 I6.7257 J4.4284
G3 X-37.7073 Y140.7414 I-0.0239 J8.6816
G3 X-38.4516 Y145.6333 I-25.1537 J-1.3245
G2 X-38.9184 Y148.8602 I18.3397 J4.3005
G3 X-47.7314 Y157.762 I-8.6788 J0.2212
G3 X-53.6007 Y156.5716 I-0.0744 J-14.6976
G2 X-62.3164 Y153.6217 I-28.4506 J69.7102
G3 X-72.1202 Y150.3557 I20.8523 J-78.9417
G3 X-84.2002 Y134.498 I6.7568 J-17.6771
G1 F300.0 Z-5.0
G3 F800.0 X-84.2796 Y132.1201 I18.8368 J-1.8193
G3 X-78.6283 Y120.5628 I13.3759 J-0.6199
G3 X-78.4741 Y120.4592 I2.3075 J3.2673
G3 X-73.0065 Y117.9449 I11.8219 J18.5066
G3 X-72.9552 Y117.9298 I1.1574 J3.8289
G3 X-62.8359 Y115.4718 I34.3699 J119.4384
G2 X-58.1247 Y113.3567 I-2.7861 J-12.5098
G2 X-56.7353 Y110.5415 I-2.1325 J-2.803
G2 X-58.3574 Y109.7617 I-3.066 J4.3007
G2 X-69.1902 Y109.4321 I-6.0902 J21.9782
G3 X-69.5771 Y109.4947 I-0.8318 J-3.9126
G2 X-72.7409 Y110.5077 I0.9374 J8.3749
G3 X-78.3448 Y113.6259 I-7.991 J-7.7663
G3 X-79.2477 Y113.7185 I-0.8569 J-3.9071
G3 X-88.2276 Y105.0002 I0.1047 J-9.0916
G3 X-88.2303 Y104.763 I3.9966 J-0.1642
G3 X-84.0636 Y96.6625 I10.3233 J0.1882
G3 X-78.0421 Y93.4462 I12.7875 J16.6956
G3 X-64.5659 Y91.0701 I13.3911 J36.5446
G3 X-48.1801 Y94.8553 I1.072 J32.7186
G3 X-48.0969 Y94.9006 I-1.8712 J3.5353
G3 X-41.456 Y101.3645 I-8.7602 J15.6433
G3 X-41.3009 Y101.6506 I-3.436 J2.0479
G3 X-49.0058 Y128.6383 I-18.8042 J9.2251
G3 X-49.2094 Y128.7573 I-2.1197 J-3.3922
G3 X-64.1342 Y134.1908 I-25.3894 J-46.5248
G2 X-61.4554 Y135.4901 I8.6076 J-14.3351
G2 X-54.5752 Y137.6536 I63.8363 J-190.9925
G3 X-53.9597 Y135.9168 I21.7795 J6.7414
G3 X-53.5874 Y135.2046 I3.7131 J1.4875
G3 X-46.3526 Y131.5964 I6.7257 J4.4284
G3 X-37.7073 Y140.7414 I-0.0239 J8.6816
G3 X-38.4516 Y145.6333 I-25.1537 J-1.3245
G2 X-38.9184 Y148.8602 I18.3397 J4.3005
G3 X-47.7314 Y157.762 I-8.6788 J0.2212
G3 X-53.6007 Y156.5716 I-0.0744 J-14.6976
G2 X-62.3164 Y153.6217 I-28.4506 J69.7102
G3 X-72.1202 Y150.3557 I20.8523 J-78.9417
G3 X-84.2002 Y134.498 I6.7568 J-17.6771
G0 Z3.0
G0 X27.8787 Y291.2229
G0 Z1.0
G1 F300.0 Z-2.5
G3 F800.0 X32.5768 Y289.7303 I4.6536 J6.5073
G3 X41.5572 Y298.3164 I0.065 J8.9216
G3 X41.5223 Y299.0152 I-3.9972 J0.1504
G2 X40.6448 Y306.4425 I185.9335 J25.7328
G3 X41.6218 Y321.9673 I-5973.6569 J383.748
G2 X48.849 Y330.2233 I97.4193 J-77.9872
G2 X50.3487 Y331.6413 I14.913 J-14.271
G2 X50.3605 Y330.1781 I-14.5744 J-0.8487
G3 X50.358 Y329.9179 I3.9965 J-0.1684
G3 X51.5534 Y312.0866 I203.2735 J4.6716
G3 X51.5557 Y312.0665 I3.9754 J0.4427
G2 X52.7479 Y295.1167 I-184.5859 J-21.5002
G3 X70.3185 Y295.21 I8.7868 J-0.2296
G3 X69.3633 Y308.3225 I-117.1245 J-1.9418
G1 X67.9131 Y321.2292
G2 X67.6769 Y328.3309 I119.1449 J7.5176
G2 X68.8303 Y329.1929 I8.4041 J-10.0432
G3 X68.8926 Y329.2352 I-2.2147 J3.3309
G2 X75.7915 Y333.2917 I30.7786 J-44.451
G2 X77.8702 Y326.2611 I-18.2598 J-9.2212
G3 X77.871 Y326.2534 I3.977 J0.4283
G1 X79.5255 Y311.1686
G3 X81.28 Y296.0203 I236.8448 J19.7559
G3 X89.9618 Y288.1636 I8.3791 J0.5339
G3 X98.8346 Y296.9385 I0.274 J8.5963
G3 X98.8118 Y297.29 I-3.9991 J-0.0831
G3 X97.1968 Y311.3422 I-1258.6096 J-137.5316
G3 X97.1869 Y311.4177 I-3.9712 J-0.4789
G2 X93.9556 Y335.5656 I1999.9842 J279.9163
G3 X91.1947 Y344.0419 I-19.4021 J-1.6318
G3 X78.1864 Y351.3461 I-12.5934 J-7.1926
G3 X64.1889 Y346.7923 I-0.675 J-21.7152
G3 X46.2143 Y349.8574 I-10.847 J-9.3734
G3 X46.1067 Y349.7934 I1.9888 J-3.4706
G3 X41.1994 Y346.1471 I18.3561 J-29.8291
G3 X38.6505 Y351.4246 I-9.0604 J-1.1215
G3 X26.0079 Y351.3315 I-6.2842 J-5.0842
G3 X25.8539 Y351.1215 I3.1464 J-2.4698
G3 X23.9003 Y346.5433 I10.4887 J-7.1815
G3 X23.8684 Y346.3722 I3.9152 J-0.8192
G3 X23.6815 Y331.0054 I50.5503 J-8.2993
G2 X23.6328 Y315.5377 I-62.1645 J-7.5384
G3 X23.2496 Y301.9094 I64.753 J-8.6402
G3 X25.7639 Y293.4681 I17.5728 J0.6391
G3 X25.8465 Y293.337 I3.4254 J2.0656
G3 X27.8787 Y291.2229 I6.6859 J4.3932
G1 F300.0 Z-5.0
G3 F800.0 X32.5768 Y289.7303 I4.6536 J6.5073
G3 X41.5572 Y298.3164 I0.065 J8.9216
G3 X41.5223 Y299.0152 I-3.9972 J0.1504
G2 X40.6448 Y306.4425 I185.9335 J25.7328
G3 X41.6218 Y321.9673 I-5973.6569 J383.748
G2 X48.849 Y330.2233 I97.4193 J-77.9872
G2 X50.3487 Y331.6413 I14.913 J-14.271
G2 X50.3605 Y330.1781 I-14.5744 J-0.8487
G3 X50.358 Y329.9179 I3.9965 J-0.1684
G3 X51.5534 Y312.0866 I203.2735 J4.6716
G3 X51.5557 Y312.0665 I3.9754 J0.4427
G2 X52.7479 Y295.1167 I-184.5859 J-21.5002
G3 X70.3185 Y295.21 I8.7868 J-0.2296
G3 X69.3633 Y308.3225 I-117.1245 J-1.9418
G1 X67.9131 Y321.2292
G2 X67.6769 Y328.3309 I119.1449 J7.5176
G2 X68.8303 Y329.1929 I8.4041 J-10.0432
G3 X68.8926 Y329.2352 I-2.2147 J3.3309
G2 X75.7915 Y333.2917 I30.7786 J-44.451
G2 X77.8702 Y326.2611 I-18.2598 J-9.2212
G3 X77.871 Y326.2534 I3.977 J0.4283
G1 X79.5255 Y311.1686
G3 X81.28 Y296.0203 I236.8448 J19.7559
G3 X89.9618 Y288.1636 I8.3791 J0.5339
G3 X98.8346 Y296.9385 I0.274 J8.5963
G3 X98.8118 Y297.29 I-3.9991 J-0.0831
G3 X97.1968 Y311.3422 I-1258.6096 J-137.5316
G3 X97.1869 Y311.4177 I-3.9712 J-0.4789
G2 X93.9556 Y335.5656 I1999.9842 J279.9163
G3 X91.1947 Y344.0419 I-19.4021 J-1.6318
G3 X78.1864 Y351.3461 I-12.5934 J-7.1926
G3 X64.1889 Y346.7923 I-0.675 J-21.7152
G3 X46.2143 Y349.8574 I-10.847 J-9.3734
G3 X46.1067 Y349.7934 I1.9888 J-3.4706
G3 X41.1994 Y346.1471 I18.3561 J-29.8291
G3 X38.6505 Y351.4246 I-9.0604 J-1.1215
G3 X26.0079 Y351.3315 I-6.2842 J-5.0842
G3 X25.8539 Y351.1215 I3.1464 J-2.4698
G3 X23.9003 Y346.5433 I10.4887 J-7.1815
G3 X23.8684 Y346.3722 I3.9152 J-0.8192
G3 X23.6815 Y331.0054 I50.5503 J-8.2993
G2 X23.6328 Y315.5377 I-62.1645 J-7.5384
G3 X23.2496 Y301.9094 I64.753 J-8.6402
G3 X25.7639 Y293.4681 I17.5728 J0.6391
G3 X25.8465 Y293.337 I3.4254 J2.0656
G3 X27.8787 Y291.2229 I6.6859 J4.3932
G0 Z3.0
G0 X124.3154 Y300.8091
G0 Z1.0
G1 F300.0 Z-2.5
G3 F800.0 X126.7552 Y293.4681 I17.4982 J1.7394
G3 X126.8377 Y293.337 I3.4254 J2.0656
G3 X133.568 Y289.7303 I6.6859 J4.3932
G3 X142.5484 Y298.3164 I0.065 J8.9216
G3 X142.5135 Y299.0152 I-3.9972 J0.1504
G2 X141.636 Y306.4425 I185.9335 J25.7328
G3 X142.6131 Y321.9673 I-5973.6569 J383.748
G2 X149.8402 Y330.2233 I97.4193 J-77.9872
G2 X151.3399 Y331.6413 I14.913 J-14.271
G2 X151.3517 Y330.1781 I-14.5744 J-0.8487
G3 X151.3492 Y329.9179 I3.9965 J-0.1684
G3 X152.5446 Y312.0866 I203.2735 J4.6716
G3 X152.5469 Y312.0665 I3.9754 J0.4427
G2 X153.7391 Y295.1167 I-184.5859 J-21.5002
G3 X171.3097 Y295.21 I8.7868 J-0.2296
G3 X170.3545 Y308.3225 I-117.1245 J-1.9418
G1 X168.9043 Y321.2292
G2 X168.6681 Y328.3309 I119.1449 J7.5176
G2 X169.8215 Y329.1929 I8.4041 J-10.0432
G3 X169.8838 Y329.2352 I-2.2147 J3.3309
G2 X176.7828 Y333.2917 I30.7786 J-44.451
G2 X178.8614 Y326.2611 I-18.2598 J-9.2212
G3 X178.8622 Y326.2534 I3.977 J0.4283
G1 X180.5167 Y311.1686
G3 X182.2712 Y296.0203 I236.8448 J19.7559
G3 X190.953 Y288.1636 I8.3791 J0.5339
G3 X199.8258 Y296.9385 I0.274 J8.5963
G3 X199.803 Y297.29 I-3.9991 J-0.0831
G3 X198.188 Y311.3422 I-1258.6096 J-137.5316
G3 X198.1781 Y311.4177 I-3.9712 J-0.4789
G2 X194.9468 Y335.5656 I1999.9842 J279.9163
G3 X192.1859 Y344.0419 I-19.4021 J-1.6318
G3 X179.1776 Y351.3461 I-12.5934 J-7.1926
G3 X165.1801 Y346.7923 I-0.675 J-21.7152
G3 X147.2055 Y349.8574 I-10.847 J-9.3734
G3 X147.0979 Y349.7934 I1.9888 J-3.4706
G3 X142.1906 Y346.1471 I18.3561 J-29.8291
G3 X139.6417 Y351.4246 I-9.0604 J-1.1215
G3 X126.9991 Y351.3315 I-6.2842 J-5.0842
G3 X126.8451 Y351.1215 I3.1464 J-2.4698
G3 X124.8915 Y346.5433 I10.4887 J-7.1815
G3 X124.8596 Y346.3722 I3.9152 J-0.8192
G3 X124.6727 Y331.0054 I50.5503 J-8.2993
G2 X124.624 Y315.5377 I-62.1645 J-7.5384
G3 X124.2408 Y301.9094 I64.753 J-8.6402
G3 X124.3154 Y300.8091 I17.5728 J0.6391
G1 F300.0 Z-5.0
G3 F800.0 X126.7552 Y293.4681 I17.4982 J1.7394
G3 X126.8377 Y293.337 I3.4254 J2.0656
G3 X133.568 Y289.7303 I6.6859 J4.3932
G3 X142.5484 Y298.3164 I0.065 J8.9216
G3 X142.5135 Y299.0152 I-3.9972 J0.1504
G2 X141.636 Y306.4425 I185.9335 J25.7328
G3 X142.6131 Y321.9673 I-5973.6569 J383.748
G2 X149.8402 Y330.2233 I97.4193 J-77.9872
G2 X151.3399 Y331.6413 I14.913 J-14.271
G2 X151.3517 Y330.1781 I-14.5744 J-0.8487
G3 X151.3492 Y329.9179 I3.9965 J-0.1684
G3 X152.5446 Y312.0866 I203.2735 J4.6716
G3 X152.5469 Y312.0665 I3.9754 J0.4427
G2 X153.7391 Y295.1167 I-184.5859 J-21.5002
G3 X171.3097 Y295.21 I8.7868 J-0.2296
G3 X170.3545 Y308.3225 I-117.1245 J-1.9418
G1 X168.9043 Y321.2292
G2 X168.6681 Y328.3309 I119.1449 J7.5176
G2 X169.8215 Y329.1929 I8.4041 J-10.0432
G3 X169.8838 Y329.2352 I-2.2147 J3.3309
G2 X176.7828 Y333.2917 I30.7786 J-44.451
G2 X178.8614 Y326.2611 I-18.2598 J-9.2212
G3 X178.8622 Y326.2534 I3.977 J0.4283
G1 X180.5167 Y311.1686
G3 X182.2712 Y296.0203 I236.8448 J19.7559
G3 X190.953 Y288.1636 I8.3791 J0.5339
G3 X199.8258 Y296.9385 I0.274 J8.5963
G3 X199.803 Y297.29 I-3.9991 J-0.0831
G3 X198.188 Y311.3422 I-1258.6096 J-137.5316
G3 X198.1781 Y311.4177 I-3.9712 J-0.4789
G2 X194.9468 Y335.5656 I1999.9842 J279.9163
G3 X192.1859 Y344.0419 I-19.4021 J-1.6318
G3 X179.1776 Y351.3461 I-12.5934 J-7.1926
G3 X165.1801 Y346.7923 I-0.675 J-21.7152
G3 X147.2055 Y349.8574 I-10.847 J-9.3734
G3 X147.0979 Y349.7934 I1.9888 J-3.4706
G3 X142.1906 Y346.1471 I18.3561 J-29.8291
G3 X139.6417 Y351.4246 I-9.0604 J-1.1215
G3 X126.9991 Y351.3315 I-6.2842 J-5.0842
G3 X126.8451 Y351.1215 I3.1464 J-2.4698
G3 X124.8915 Y346.5433 I10.4887 J-7.1815
G3 X124.8596 Y346.3722 I3.9152 J-0.8192
G3 X124.6727 Y331.0054 I50.5503 J-8.2993
G2 X124.624 Y315.5377 I-62.1645 J-7.5384
G3 X124.2408 Y301.9094 I64.753 J-8.6402
G3 X124.3154 Y300.8091 I17.5728 J0.6391
G0 Z3.0
G0 X223.5312 Y312.5904
G0 Z1.0
G1 F300.0 Z-2.5
G3 F800.0 X232.2904 Y296.4225 I24.7192 J2.9353
G3 X232.4574 Y296.2904 I2.5646 J3.0697
G3 X252.8307 Y289.9754 I19.0512 J25.4414
G3 X268.833 Y293.6068 I-0.4077 J38.8711
G3 X278.395 Y301.0138 I-7.4297 J19.4668
G3 X271.9364 Y314.9056 I-7.1487 J5.1237
G3 X271.0339 Y314.8744 I-0.3139 J-3.9877
G3 X264.671 Y310.4396 I1.283 J-8.6227
G2 X263.0783 Y309.2376 I-3.3413 J2.7712
G3 X263.0544 Y309.227 I1.6113 J-3.6611
G2 X252.5943 Y306.8103 I-11.3771 J25.3985
G3 X252.4997 Y306.8061 I0.1318 J-3.9978
G2 X243.045 Y309.6808 I-0.8115 J14.3163
G1 X256.7409 Y316.1702
G3 X267.522 Y321.8694 I-37.3342 J83.6711
G3 X267.7098 Y321.9927 I-2.1006 J3.404
G3 X272.5007 Y326.6961 I-11.5472 J16.5539
G3 X272.6242 Y326.8765 I-3.2379 J2.3486
G3 X266.3112 Y348.1462 I-12.2866 J7.925
G3 X251.3758 Y351.2473 I-13.8789 J-29.3266
G3 X230.2129 Y340.0967 I-0.4003 J-24.8981
G3 X223.3813 Y316.6136 I32.9505 J-22.321
G3 X223.5312 Y312.5904 I24.869 J-1.0879
G1 F300.0 Z-5.0
G3 F800.0 X232.2904 Y296.4225 I24.7192 J2.9353
G3 X232.4574 Y296.2904 I2.5646 J3.0697
G3 X252.8307 Y289.9754 I19.0512 J25.4414
G3 X268.833 Y293.6068 I-0.4077 J38.8711
G3 X278.395 Y301.0138 I-7.4297 J19.4668
G3 X271.9364 Y314.9056 I-7.1487 J5.1237
G3 X271.0339 Y314.8744 I-0.3139 J-3.9877
G3 X264.671 Y310.4396 I1.283 J-8.6227
G2 X263.0783 Y309.2376 I-3.3413 J2.7712
G3 X263.0544 Y309.227 I1.6113 J-3.6611
G2 X252.5943 Y306.8103 I-11.3771 J25.3985
G3 X252.4997 Y306.8061 I0.1318 J-3.9978
G2 X243.045 Y309.6808 I-0.8115 J14.3163
G1 X256.7409 Y316.1702
G3 X267.522 Y321.8694 I-37.3342 J83.6711
G3 X267.7098 Y321.9927 I-2.1006 J3.404
G3 X272.5007 Y326.6961 I-11.5472 J16.5539
G3 X272.6242 Y326.8765 I-3.2379 J2.3486
G3 X266.3112 Y348.1462 I-12.2866 J7.925
G3 X251.3758 Y351.2473 I-13.8789 J-29.3266
G3 X230.2129 Y340.0967 I-0.4003 J-24.8981
G3 X223.3813 Y316.6136 I32.9505 J-22.321
G3 X223.5312 Y312.5904 I24.869 J-1.0879
G0 Z3.0
G0 X296.4733 Y310.521
G0 Z1.0
G1 F300.0 Z-2.5
G3 F800.0 X296.412 Y307.6551 I204.5589 J-5.8036
G3 X296.4191 Y307.3536 I3.9996 J-0.0574
G3 X297.0426 Y298.688 I401.8685 J24.5621
G3 X299.4365 Y292.5192 I8.9356 J-0.0814
G3 X299.5849 Y292.368 I2.9283 J2.7249
G3 X314.6164 Y298.8608 I6.1635 J6.377
G3 X314.6156 Y298.9026 I-3.9997 J-0.0522
G3 X314.2997 Y303.6407 I-55.1384 J-1.2963
G1 Y303.6408
G1 Y303.6407
G2 X314.0331 Y307.5527 I46.8863 J5.1602
G2 X314.7056 Y316.3645 I156.0575 J-7.4784
G2 X317.2268 Y323.2737 I47.9561 J-13.5847
G3 X317.2826 Y323.4033 I-3.6462 J1.6447
G2 X324.7051 Y333.3426 I22.9356 J-9.3868
G2 X327.3862 Y334.4692 I3.7286 J-5.1197
G2 X328.1626 Y328.326 I-14.3589 J-4.9354
G3 X328.1544 Y328.1971 I3.9873 J-0.3182
G3 X327.8095 Y318.8357 I445.0844 J-21.0849
G3 X327.8102 Y318.6014 I3.9986 J-0.1052
G3 X329.8584 Y297.0302 I173.6652 J5.6069
G3 X338.7557 Y288.7566 I8.4556 J0.1722
G3 X347.4765 Y297.4768 I-0.2487 J8.9694
G3 X347.4767 Y297.6892 I-3.9985 J0.1111
G3 X346.3423 Y308.6872 I-71.4263 J-1.81
G2 X345.3792 Y318.5033 I66.7008 J11.4999
G3 X345.4274 Y327.9358 I-444.4549 J6.9899
G3 X342.8861 Y342.9149 I-41.3751 J0.6855
G3 X342.8466 Y343.0178 I-3.7538 J-1.3817
G3 X328.0658 Y352.4145 I-13.9126 J-5.5608
G3 X316.0919 Y348.0315 I0.6138 J-20.2239
G3 X314.6715 Y346.8762 I24.7158 J-31.837
G3 X313.7085 Y349.263 I-13.333 J-3.9919
G3 X313.4853 Y349.6429 I-3.5552 J-1.8333
G3 X297.4861 Y344.7072 I-7.271 J-4.8295
G3 X297.4872 Y344.6506 I3.9997 J0.0487
G3 X297.8261 Y335.4157 I445.4293 J11.7235
G2 X297.1112 Y321.8705 I-185.3597 J2.9927
G3 X297.1093 Y321.8485 I3.9841 J-0.3568
G3 X296.4733 Y310.521 I203.9229 J-17.1311
G1 F300.0 Z-5.0
G3 F800.0 X296.412 Y307.6551 I204.5589 J-5.8036
G3 X296.4191 Y307.3536 I3.9996 J-0.0574
G3 X297.0426 Y298.688 I401.8685 J24.5621
G3 X299.4365 Y292.5192 I8.9356 J-0.0814
G3 X299.5849 Y292.368 I2.9283 J2.7249
G3 X314.6164 Y298.8608 I6.1635 J6.377
G3 X314.6156 Y298.9026 I-3.9997 J-0.0522
G3 X314.2997 Y303.6407 I-55.1384 J-1.2963
G1 Y303.6408
G1 Y303.6407
G2 X314.0331 Y307.5527 I46.8863 J5.1602
G2 X314.7056 Y316.3645 I156.0575 J-7.4784
G2 X317.2268 Y323.2737 I47.9561 J-13.5847
G3 X317.2826 Y323.4033 I-3.6462 J1.6447
G2 X324.7051 Y333.3426 I22.9356 J-9.3868
G2 X327.3862 Y334.4692 I3.7286 J-5.1197
G2 X328.1626 Y328.326 I-14.3589 J-4.9354
G3 X328.1544 Y328.1971 I3.9873 J-0.3182
G3 X327.8095 Y318.8357 I445.0844 J-21.0849
G3 X327.8102 Y318.6014 I3.9986 J-0.1052
G3 X329.8584 Y297.0302 I173.6652 J5.6069
G3 X338.7557 Y288.7566 I8.4556 J0.1722
G3 X347.4765 Y297.4768 I-0.2487 J8.9694
G3 X347.4767 Y297.6892 I-3.9985 J0.1111
G3 X346.3423 Y308.6872 I-71.4263 J-1.81
G2 X345.3792 Y318.5033 I66.7008 J11.4999
G3 X345.4274 Y327.9358 I-444.4549 J6.9899
G3 X342.8861 Y342.9149 I-41.3751 J0.6855
G3 X342.8466 Y343.0178 I-3.7538 J-1.3817
G3 X328.0658 Y352.4145 I-13.9126 J-5.5608
G3 X316.0919 Y348.0315 I0.6138 J-20.2239
G3 X314.6715 Y346.8762 I24.7158 J-31.837
G3 X313.7085 Y349.263 I-13.333 J-3.9919
G3 X313.4853 Y349.6429 I-3.5552 J-1.8333
G3 X297.4861 Y344.7072 I-7.271 J-4.8295
G3 X297.4872 Y344.6506 I3.9997 J0.0487
G3 X297.8261 Y335.4157 I445.4293 J11.7235
G2 X297.1112 Y321.8705 I-185.3597 J2.9927
G3 X297.1093 Y321.8485 I3.9841 J-0.3568
G3 X296.4733 Y310.521 I203.9229 J-17.1311
( Rahmen )
S1000
G0 Z3.0
G0 X8.087 Y720.1838
G0 Z1.0
G1 F300.0 Z-2.5
G1 F800.0 X439.087 Y529.6364
G2 X451.0 Y511.3444 I-8.087 J-18.2921
G1 Y44.0
G2 X431.0 Y24.0 I-20.0 J0.0
G1 X-431.0
G2 X-451.0 Y44.0 I0.0 J20.0
G1 Y511.3444
G2 X-439.087 Y529.6364 I20.0 J0.0
G1 X-8.087 Y720.1838
G2 X8.087 I8.087 J-18.2921
G1 F300.0 X7.114 Y717.9829
G3 F800.0 X-7.114 I-7.114 J-16.0912
G1 X-438.114 Y527.4355
G3 X-448.5936 Y511.3444 I7.114 J-16.0912
G1 Y44.0
G3 X-431.0 Y26.4064 I17.5936 J0.0
G1 X431.0
G3 X448.5936 Y44.0 I0.0 J17.5936
G1 Y511.3444
G3 X438.114 Y527.4355 I-17.5936 J0.0
G1 X7.114 Y717.9829
G1 F300.0 X6.4696 Y716.5254
G3 F800.0 X-6.4696 I-6.4696 J-14.6337
G1 X-437.4696 Y525.978
G3 X-447.0 Y511.3444 I6.4696 J-14.6337
G1 Y44.0
G3 X-431.0 Y28.0 I16.0 J0.0
G1 X431.0
G3 X447.0 Y44.0 I0.0 J16.0
G1 Y511.3444
G3 X437.4696 Y525.978 I-16.0 J0.0
G1 X6.4696 Y716.5254
G1 F300.0 X7.4401 Y718.7204
G3 F800.0 X-7.4401 I-7.4401 J-16.8287
G1 X-438.4401 Y528.1731
G3 X-449.4 Y511.3444 I7.4401 J-16.8287
G1 Y44.0
G3 X-431.0 Y25.6 I18.4 J0.0
G1 X431.0
G3 X449.4 Y44.0 I0.0 J18.4
G1 Y511.3444
G3 X438.4401 Y528.1731 I-18.4 J0.0
G1 X7.4401 Y718.7204
G1 F300.0 X8.087 Y720.1838
G1 Z-5.0
G1 F800.0 X439.087 Y529.6364
G2 X451.0 Y511.3444 I-8.087 J-18.2921
G1 Y44.0
G2 X431.0 Y24.0 I-20.0 J0.0
G1 X-431.0
G2 X-451.0 Y44.0 I0.0 J20.0
G1 Y511.3444
G2 X-439.087 Y529.6364 I20.0 J0.0
G1 X-8.087 Y720.1838
G2 X8.087 I8.087 J-18.2921
G1 F300.0 X7.114 Y717.9829
G3 F800.0 X-7.114 I-7.114 J-16.0912
G1 X-438.114 Y527.4355
G3 X-448.5936 Y511.3444 I7.114 J-16.0912
G1 Y44.0
G3 X-431.0 Y26.4064 I17.5936 J0.0
G1 X431.0
G3 X448.5936 Y44.0 I0.0 J17.5936
G1 Y511.3444
G3 X438.114 Y527.4355 I-17.5936 J0.0
G1 X7.114 Y717.9829
G1 F300.0 X6.4696 Y716.5254
G3 F800.0 X-6.4696 I-6.4696 J-14.6337
G1 X-437.4696 Y525.978
G3 X-447.0 Y511.3444 I6.4696 J-14.6337
G1 Y44.0
G3 X-431.0 Y28.0 I16.0 J0.0
G1 X431.0
G3 X447.0 Y44.0 I0.0 J16.0
G1 Y511.3444
G3 X437.4696 Y525.978 I-16.0 J0.0
G1 X6.4696 Y716.5254
G1 F300.0 X7.4401 Y718.7204
G3 F800.0 X-7.4401 I-7.4401 J-16.8287
G1 X-438.4401 Y528.1731
G3 X-449.4 Y511.3444 I7.4401 J-16.8287
G1 Y44.0
G3 X-431.0 Y25.6 I18.4 J0.0
G1 X431.0
G3 X449.4 Y44.0 I0.0 J18.4
G1 Y511.3444
G3 X438.4401 Y528.1731 I-18.4 J0.0
G1 X7.4401 Y718.7204
( Bollenhut )
S1000
G0 Z3.0
G0 X51.0701 Y506.924
G0 Z1.0
G1 F300.0 Z-2.0
G2 F800.0 X51.3512 Y506.8159 I-100.4226 J-261.6576
G2 X105.5533 Y478.988 I-109.895 J-280.75
G3 X105.5831 Y478.9692 I0.8164 J1.2584
G3 X140.1553 Y463.2517 I79.6517 J129.3202
G3 X140.1775 Y463.245 I0.4452 J1.4324
G3 X160.9092 Y463.8734 I9.4056 J31.9938
G3 X160.9196 Y463.8772 I-0.5095 J1.4108
G3 X174.9846 Y478.5435 I-8.0559 J21.8029
G3 X175.0244 Y489.1382 I-14.1201 J5.3504
G3 X175.0082 Y489.18 I-1.4066 J-0.521
G3 X169.6289 Y497.6613 I-25.9095 J-10.4866
G3 X165.3409 Y501.9116 I-21.346 J-17.2465
G3 X163.3514 Y501.8008 I-0.9324 J-1.175
G2 X159.8881 Y499.2375 I-10.5127 J10.5827
G2 X150.3923 Y496.5246 I-11.4307 J22.0345
G3 X150.3248 Y496.5177 I0.1169 J-1.4954
G2 X128.6178 Y498.1376 I-6.811 J54.9822
G3 X128.571 Y498.1499 I-0.4033 J-1.4448
G2 X105.6424 Y505.7968 I35.071 J143.3548
G3 X105.6088 Y505.8107 I-0.5895 J-1.3793
G3 X74.7213 Y517.2538 I-245.4308 J-615.0655
G3 X74.7018 Y517.2603 I-0.486 J-1.4191
G3 X28.6978 Y530.9057 I-267.8339 J-818.6009
G3 X-3.3149 Y537.1426 I-55.1378 J-197.7354
G3 X-3.3394 Y537.1452 I-0.169 J-1.4905
G3 X-43.7618 Y537.6975 I-23.538 J-243.1815
G3 X-88.4597 Y532.2337 I20.4241 J-352.6467
G3 X-132.7571 Y517.805 I30.2618 J-168.1187
G3 X-169.8504 Y496.2482 I112.5061 J-236.2846
G3 X-169.9503 Y493.8627 I0.8575 J-1.2308
G3 X-166.601 Y492.777 I3.0388 J3.6654
G3 X-166.5825 Y492.7783 I-0.0978 J1.4968
G3 X-162.0244 Y494.2983 I-0.7701 J9.9038
G3 X-153.932 Y499.0496 I-76.7377 J139.9656
G2 X-143.4779 Y503.5344 I36.0985 J-69.7191
G3 X-143.4121 Y503.5589 I-0.49 J1.4177
G2 X-116.6275 Y513.1942 I154.0473 J-386.1809
G2 X-85.7452 Y520.4002 I83.8155 J-289.4233
G3 X-85.7259 Y520.4038 I-0.2635 J1.4767
G2 X-8.6431 Y522.5607 I45.1526 J-235.1969
G2 X51.0701 Y506.924 I-40.7094 J-277.2943
G0 Z3.0
G0 X35.4419 Y508.9968
G0 Z1.0
G1 F300.0 Z-2.0
G3 F800.0 X34.4814 Y510.5986 I-1.487 J0.1972
G3 X8.5767 Y518.114 I-62.1267 J-165.7419
G3 X-46.1004 Y522.7881 I-45.5268 J-210.4282
G3 X-96.8694 Y515.8108 I9.3958 J-256.5628
G3 X-133.1361 Y505.0924 I56.8487 J-259.0673
G3 X-133.138 Y505.0917 I0.5266 J-1.4045
G3 X-166.7668 Y489.5761 I90.5185 J-240.3939
G3 X-179.4677 Y479.5813 I16.7174 J-34.3105
G3 X-186.3327 Y465.371 I23.3786 J-20.0577
G3 X-186.3407 Y465.326 I1.4727 J-0.2847
G3 X-180.6649 Y444.7678 I25.2606 J-4.0885
G3 X-159.9877 Y435.1542 I20.1161 J16.2227
G3 X-159.8999 Y435.1587 I-0.0326 J1.4996
G3 X-145.247 Y438.0835 I-5.1478 J63.9555
G3 X-145.2209 Y438.0923 I-0.4629 J1.4268
G3 X-115.6804 Y451.8084 I-51.833 J150.3014
G3 X-115.6423 Y451.8319 I-0.7677 J1.2886
G2 X-93.3374 Y465.6596 I580.2577 J-911.0849
G2 X-51.8337 Y487.1354 I185.5454 J-307.7386
G2 X-21.0459 Y498.465 I164.3442 J-399.1024
G3 X-21.0193 Y498.474 I-0.4642 J1.4264
G2 X18.6862 Y506.7014 I51.5578 J-148.8951
G3 X18.6902 Y506.7017 I-0.1128 J1.4958
G2 X18.9251 Y506.7199 I19.368 J-247.9222
G3 X34.0743 Y507.6988 I-24.7806 J501.2233
G3 X35.4419 Y508.9968 I-0.1194 J1.4952
G0 Z3.0
G0 X41.3953 Y528.6259
G0 Z1.0
G1 F300.0 Z-2.0
G2 F800.0 X41.746 Y528.5194 I-82.1762 J-270.9451
G2 X70.1162 Y519.5754 I-487.8878 J-1597.0567
G3 X72.0655 Y520.7942 I0.4637 J1.4265
G3 X70.7145 Y541.1256 I-49.4955 J6.9217
G3 X70.7141 Y541.127 I-1.445 J-0.4025
G3 X46.3102 Y576.3311 I-63.0071 J-17.6167
G3 X7.9611 Y587.6587 I-34.2929 J-45.5188
G3 X-20.3211 Y578.9352 I2.8755 J-59.5302
G3 X-20.3592 Y578.911 I0.7842 J-1.2787
G3 X-37.7083 Y563.2264 I41.559 J-63.4071
G3 X-52.2684 Y539.7236 I71.4333 J-60.5147
G3 X-50.8126 Y537.6326 I1.3778 J-0.593
G2 X-18.977 Y538.4951 I33.1844 J-636.9252
G2 X20.2504 Y534.1575 I-0.7615 J-186.4349
G2 X41.3953 Y528.6259 I-61.0313 J-276.4767
G0 Z3.0
G0 X72.593 Y519.2062
G0 Z1.0
G1 F300.0 Z-2.0
G3 F800.0 X73.2515 Y520.6284 I-2.013 J1.7958
G3 X73.5118 Y522.8392 I-50.6815 J7.0876
G3 X73.5308 Y518.9831 I161.8815 J-1.1316
G3 X73.5334 Y518.901 I2.6972 J0.0454
G3 X72.593 Y519.2062 I-266.6655 J-820.2416
G0 Z3.0
G0 X73.5951 Y539.5291
G0 Z1.0
G1 F300.0 Z-2.0
G3 F800.0 X73.2551 Y540.9117 I-51.0251 J-11.8132
G3 X73.8381 Y540.7437 I1.368 J3.6496
G3 X73.5951 Y539.5291 I61.6731 J-12.969
G0 Z3.0
G0 X55.6055 Y571.5254
G0 Z1.0
G1 F300.0 Z-2.0
G3 F800.0 X54.1909 Y572.8961 I-47.8985 J-48.0151
G3 X56.6362 Y575.6117 I-1.3357 J3.6616
G3 X57.6926 Y580.5989 I-67.8453 J16.9757
G2 X56.3001 Y573.8456 I-61.4805 J9.1561
G2 X55.7091 Y571.8943 I-34.106 J9.2648
G3 X55.6055 Y571.5254 I3.6961 J-1.2369
G1 F300.0 X56.7754 Y571.2581
G3 F800.0 X57.519 Y568.7288 I2.6299 J-0.6008
G2 X68.6158 Y553.2617 I-38.4061 J-39.2683
G2 X72.0089 Y543.896 I-45.7664 J-21.8783
G3 X75.3388 Y541.9604 I2.6142 J0.6654
G3 X73.7623 Y530.7802 I60.1724 J-14.1858
G3 X73.7058 Y529.7109 I161.631 J-9.0726
G3 X71.8682 Y541.4469 I-51.1358 J-1.995
G3 X71.8675 Y541.4495 I-2.5987 J-0.7238
G3 X47.2314 Y577.1406 I-64.1605 J-17.9392
G2 X51.2385 Y574.3983 I-30.2394 J-48.4847
G3 X55.4721 Y575.9029 I1.6167 J2.1594
G3 X55.0881 Y610.7376 I-66.6812 J16.6844
G3 X35.0263 Y638.437 I-45.4831 J-11.8273
G3 X34.9764 Y638.4683 I-1.4592 J-2.2689
G3 X3.594 Y648.4953 I-36.1379 J-58.98
G3 X-20.8099 Y645.8803 I-5.738 J-61.6301
G2 X15.5197 Y648.1199 I22.3182 J-66.2523
G3 X15.5607 Y648.1119 I0.5411 J2.6452
G2 X45.0778 Y632.0885 I-10.1639 J-53.9219
G2 X52.6354 Y621.5739 I-35.6453 J-33.5942
G3 X54.479 Y620.2002 I2.3815 J1.2722
G3 X54.384 Y617.9815 I2.4088 J-1.2145
G2 X59.4858 Y593.0547 I-66.1106 J-26.5164
G3 X59.4886 Y592.9777 I2.6969 J0.0602
G2 X57.4592 Y573.5348 I-63.2766 J-3.2226
G2 X56.8471 Y571.5135 I-35.2651 J9.5757
G3 X56.7754 Y571.2581 I2.5581 J-0.8561
G0 Z3.0
G0 X-38.4159 Y564.2543
G0 Z1.0
G1 F300.0 Z-2.0
G3 F800.0 X-38.6306 Y563.9905 I59.6157 J-48.7503
G3 X-39.5439 Y562.8956 I72.3555 J-61.2788
G3 X-39.968 Y564.28 I-2.6967 J-0.069
G3 X-40.3171 Y564.8168 I-35.5693 J-22.748
G3 X-38.4159 Y564.2543 I1.6625 J2.1244
G0 Z3.0
G0 X-53.5874 Y539.1952
G0 Z1.0
G1 F300.0 Z-2.0
G3 F800.0 X-53.4251 Y538.2067 I2.6968 J-0.0646
G3 X-54.1104 Y538.1477 I30.0874 J-353.1559
G2 X-53.5874 Y539.1952 I139.9938 J-69.2315
G0 Z3.0
G0 X-62.6705 Y596.3296
G0 Z1.0
G1 F300.0 Z-2.0
G2 F800.0 X-56.9179 Y613.7207 I73.6318 J-14.7087
G2 X-53.3183 Y620.177 I52.6276 J-25.1107
G3 X-62.6705 Y596.3296 I79.5196 J-44.9427
G0 Z3.0
G0 X-53.045 Y620.6572
G0 Z1.0
G1 F300.0 Z-2.0
G3 F800.0 X-52.6729 Y622.0421 I-3.5138 J1.6865
G3 X-51.9925 Y622.4459 I-1.6402 J3.5383
G3 X-53.045 Y620.6572 I78.1938 J-47.2116
G1 F300.0 X-52.0039 Y620.0604
G3 F800.0 X-62.0577 Y593.5589 I78.2052 J-44.8262
G3 X-63.6537 Y584.4899 I120.5476 J-25.8904
G3 X-63.458 Y583.0526 I2.6724 J-0.368
G3 X-67.0954 Y584.4834 I-24.7354 J-57.5447
G3 X-65.143 Y586.8915 I-0.7387 J2.5945
G2 X-58.0019 Y614.2356 I76.1043 J-5.2706
G2 X-54.2922 Y620.8809 I53.7115 J-25.6256
G3 X-53.9211 Y622.909 I-2.2665 J1.4628
G3 X-52.1735 Y623.9335 I-0.392 J2.6714
G2 X-28.1268 Y642.9467 I49.926 J-38.4301
G3 X-28.0927 Y642.9624 I-1.109 J2.4617
G2 X-27.9153 Y643.045 I29.6009 J-63.3344
G3 X-49.1455 Y624.7136 I24.0788 J-49.3458
G3 X-49.1752 Y624.6692 I2.226 J-1.5237
G3 X-52.0039 Y620.0604 I75.3765 J-49.435
G0 Z3.0
G0 X-147.3938 Y555.2881
G0 Z1.0
G1 F300.0 Z-2.0
G3 F800.0 X-147.8848 Y553.9803 I47.1153 J-18.4352
G3 X-148.6432 Y554.9614 I-3.4237 J-1.8627
G2 X-147.8925 Y555.1388 I11.4159 J-46.6245
G3 X-147.3938 Y555.2881 I-0.8665 J3.8025
G0 Z3.0
G0 X-117.2983 Y511.7191
G0 Z1.0
G1 F300.0 Z-2.0
G2 F800.0 X-116.2776 Y512.0487 I127.9335 J-394.3411
G2 X-113.6291 Y512.8024 I83.4656 J-288.2779
G3 X-117.2983 Y511.7191 I73.6084 J-256.0589
G0 Z3.0
G0 X-143.1499 Y502.3807
G0 Z1.0
G1 F300.0 Z-2.0
G3 F800.0 X-154.751 Y497.1328 I100.5304 J-237.6829
G3 X-153.3377 Y498.0087 I-84.0111 J137.1311
G2 X-143.1499 Y502.3807 I35.5042 J-68.6782
G0 Z3.0
G0 X-171.9269 Y490.8411
G0 Z1.0
G1 F300.0 Z-2.0
G3 F800.0 X-173.0712 Y490.1115 I21.8775 J-35.5755
G3 X-172.1369 Y491.0038 I-247.8847 J260.4954
G3 X-171.9269 Y490.8411 I5.2254 J6.5242
G0 Z3.0
G0 X-179.7985 Y484.5784
G0 Z1.0
G1 F300.0 Z-2.0
G3 F800.0 X-180.7202 Y483.6125 I29.749 J-29.3128
G3 X-180.5453 Y484.4213 I-4.881 J1.4785
G3 X-179.7985 Y484.5784 I-0.6725 J5.0531
G1 F300.0 X-180.1326 Y485.7309
G3 F800.0 X-178.5819 Y486.6033 I-1.0852 J3.7435
G3 X-172.1174 Y492.6874 I-242.374 J264.0037
G3 X-171.4806 Y492.0169 I3.1244 J2.3301
G3 X-169.5093 Y490.8572 I4.5691 J5.5111
G3 X-181.3017 Y481.1257 I19.4598 J-35.5916
G3 X-188.6867 Y465.8262 I25.2127 J-21.6021
G3 X-188.7075 Y465.709 I3.8267 J-0.7399
G3 X-182.5158 Y443.2436 I27.6274 J-4.4716
G3 X-171.023 Y434.7647 I21.9669 J17.7469
G2 X-175.2936 Y436.2547 I8.1289 J30.1652
G3 X-175.3346 Y436.2721 I-1.5479 J-3.5797
G2 X-191.2746 Y458.5325 I10.0752 J24.0519
G2 X-184.3236 Y480.5414 I32.4298 J1.8599
G3 X-184.3232 Y480.542 I-3.059 J2.4191
G2 X-182.6793 Y482.5079 I36.5537 J-28.8956
G3 X-181.7361 Y485.6114 I-2.9219 J2.5831
G3 X-180.1326 Y485.7309 I0.5183 J3.863
G1 F300.0 X-180.4667 Y486.8835
G3 F800.0 X-179.3934 Y487.4872 I-0.7511 J2.5909
G3 X-171.6803 Y494.7826 I-241.5625 J263.1197
G3 X-170.7147 Y492.9407 I2.6874 J0.2348
G3 X-166.5229 Y491.5819 I3.8032 J4.5873
G3 X-166.4897 Y491.5843 I-0.1759 J2.6919
G3 X-165.3004 Y491.7416 I-0.863 J11.0978
G3 X-167.3191 Y490.6392 I122.6809 J-227.0439
G3 X-180.3838 Y480.3527 I17.2696 J-35.3737
G3 X-187.5085 Y465.5984 I24.2947 J-20.8291
G3 X-187.5229 Y465.5173 I2.6485 J-0.5121
G3 X-181.5894 Y444.0065 I26.4428 J-4.2798
G3 X-159.9617 Y433.9569 I21.0406 J16.984
G3 X-159.8039 Y433.9649 I-0.0586 J2.697
G3 X-144.8774 Y436.9444 I-5.2439 J65.1492
G3 X-144.8304 Y436.9601 I-0.8325 J2.5659
G3 X-132.5974 Y441.7486 I-52.2235 J151.4335
G2 X-154.0471 Y433.7165 I-44.2675 J85.5597
G3 X-154.1365 Y433.6931 I0.6395 J-2.6232
G2 X-175.7698 Y435.1532 I-8.7577 J31.2368
G3 X-175.7983 Y435.1653 I-1.0716 J-2.4782
G2 X-192.4723 Y458.4569 I10.5389 J25.1587
G2 X-185.2649 Y481.2857 I33.6274 J1.9355
G3 X-185.2645 Y481.2861 I-2.1178 J1.6748
G2 X-183.5783 Y483.3027 I37.4951 J-29.6397
G3 X-183.9785 Y487.2489 I-2.0229 J1.7883
G2 X-189.9868 Y495.4452 I10.5575 J14.0397
G2 X-181.8543 Y535.9748 I39.6705 J13.1206
G2 X-151.4443 Y555.4398 I49.9878 J-44.6081
G2 X-148.1592 Y556.3088 I14.217 J-47.103
G3 X-146.2696 Y557.8962 I-0.5999 J2.6325
G2 X-126.2757 Y580.733 I44.2639 J-18.5827
G2 X-118.6545 Y584.271 I23.4031 J-40.4349
G3 X-116.958 Y586.1154 I-0.9121 J2.5413
G3 X-114.5974 Y585.5491 I1.7423 J2.0595
G2 X-98.0349 Y587.8615 I20.7402 J-88.0791
G3 X-117.1754 Y583.2664 I7.872 J-74.9514
G3 X-147.3458 Y551.8325 I16.8968 J-46.4135
G3 X-149.6061 Y529.0129 I46.005 J-16.0785
G3 X-143.9735 Y514.1957 I32.6672 J3.9388
G3 X-143.547 Y513.7151 I2.2164 J1.5377
G3 X-145.2746 Y512.7895 I123.296 J-232.1947
G3 X-145.5756 Y513.7178 I-2.6742 J-0.3544
G2 X-150.9738 Y539.4257 I40.6056 J21.9471
G3 X-150.9729 Y539.4373 I-2.6886 J0.2198
G2 X-148.7281 Y551.3311 I55.3273 J-4.2836
G3 X-152.0386 Y554.7145 I-2.5804 J0.7864
G3 X-175.2982 Y542.2308 I16.4776 J-58.6115
G3 X-190.2232 Y518.5766 I27.0966 J-33.6328
G3 X-188.7459 Y495.9069 I34.3902 J-9.142
G3 X-188.7437 Y495.9016 I2.4951 J1.0255
G3 X-183.1065 Y487.5483 I23.2596 J9.6179
G3 X-180.4667 Y486.8835 I1.8887 J1.9261
G0 Z3.0
G0 X-109.655 Y454.2033
G0 Z1.0
G1 F300.0 Z-2.0
G2 F800.0 X-92.719 Y464.6341 I574.2704 J-913.4563
G2 X-77.0437 Y473.5549 I184.9269 J-306.713
G3 X-105.3136 Y456.8404 I3767.4085 J-6404.2421
G3 X-105.3544 Y456.8157 I1.3793 J-2.3211
G2 X-109.655 Y454.2033 I-166.5704 J269.3688
G0 Z3.0
G0 X145.2594 Y458.5473
G0 Z1.0
G1 F300.0 Z-2.0
G3 F800.0 X162.1311 Y460.4896 I4.3237 J36.6914
G3 X162.1665 Y460.5026 I-1.7313 J4.7946
G3 X165.8388 Y462.1834 I-9.3028 J25.1775
G2 X149.4145 Y457.7467 I-14.1335 J19.7024
G2 X145.2594 Y458.5473 I7.712 J51.2085
G1 F300.0 X144.9844 Y457.3793
G2 F800.0 X136.6796 Y460.0734 I12.1422 J51.5759
G3 X136.6408 Y460.0894 I-1.505 J-3.5979
G2 X116.2017 Y469.7978 I73.3174 J180.7237
G2 X110.4427 Y473.3513 I120.9616 J202.4842
G3 X139.4437 Y460.9621 I74.7921 J134.9381
G3 X139.5012 Y460.9447 I1.1568 J3.722
G3 X161.7235 Y461.6183 I10.0818 J34.294
G3 X161.7506 Y461.6282 I-1.3238 J3.6659
G3 X176.2916 Y475.2588 I-8.8869 J24.0519
G2 X176.086 Y474.5905 I-17.3638 J4.9772
G3 X176.0583 Y474.503 I3.7046 J-1.2189
G2 X149.2681 Y456.5553 I-24.353 J7.3828
G2 X144.9844 Y457.3793 I7.8584 J52.4
G1 F300.0 X144.7094 Y456.2112
G2 F800.0 X136.2166 Y458.9663 I12.4171 J52.744
G3 X136.1897 Y458.9774 I-1.0419 J-2.4909
G2 X115.6054 Y468.7562 I73.7686 J181.8357
G2 X98.306 Y480.1422 I121.5579 J203.5258
G3 X98.2803 Y480.1605 I-1.5815 J-2.1883
G3 X62.292 Y500.7871 I-127.7622 J-181.2049
G3 X50.6319 Y505.7489 I-88.9695 J-192.8953
G3 X50.6239 Y505.752 I-0.9826 J-2.5148
G3 X42.8107 Y508.6298 I-91.5644 J-236.5496
G3 X41.8833 Y508.781 I-0.8915 J-2.5486
G3 X36.5918 Y508.6246 I2.162 J-162.7346
G3 X35.9888 Y510.9662 I-2.6368 J0.5695
G2 X50.9178 Y505.6995 I-85.3413 J-265.6998
G2 X104.9015 Y477.9834 I-109.4616 J-279.6336
G3 X104.955 Y477.9495 I1.4683 J2.263
G3 X139.7999 Y462.108 I80.2797 J130.3399
G3 X139.8397 Y462.096 I0.8007 J2.576
G3 X161.3159 Y462.747 I9.7434 J33.1427
G3 X161.3347 Y462.7538 I-0.9162 J2.5372
G3 X176.1152 Y478.1474 I-8.471 J22.9263
G3 X176.7441 Y487.5603 I-15.2507 J5.7465
G2 X177.2259 Y474.2155 I-17.8163 J-7.3243
G3 X177.2067 Y474.1549 I2.5647 J-0.8439
G2 X149.1214 Y455.3639 I-25.5014 J7.7309
G2 X144.7094 Y456.2112 I8.0051 J53.5914
G0 Z3.0
G0 X164.6373 Y503.4245
G0 Z1.0
G1 F300.0 Z-2.0
G3 F800.0 X164.876 Y503.7525 I-20.2818 J15.0129
G3 X164.8452 Y503.3986 I2.6686 J-0.4106
G3 X164.6373 Y503.4245 I-0.4367 J-2.662
G1 F300.0 X166.0452 Y503.3845
G3 F800.0 X166.5869 Y502.1875 I1.4994 J-0.0426
G2 X176.3384 Y490.9882 I-29.4225 J-35.4641
G2 X178.3657 Y473.8404 I-17.4106 J-10.7521
G3 X178.3551 Y473.8068 I1.4249 J-0.4688
G2 X148.9743 Y454.1725 I-26.6498 J8.079
G2 X135.7535 Y457.8593 I8.1522 J54.7827
G3 X135.7385 Y457.8654 I-0.5788 J-1.3838
G2 X115.009 Y467.7147 I74.2197 J182.9477
G2 X97.6031 Y479.1696 I122.1543 J204.5673
G3 X97.5889 Y479.1798 I-0.8786 J-1.2157
G3 X61.7923 Y499.6961 I-127.0707 J-180.2242
G3 X50.1952 Y504.6312 I-88.4698 J-191.8042
G3 X50.1908 Y504.6329 I-0.5459 J-1.3971
G3 X42.4144 Y507.4971 I-91.1312 J-235.4305
G3 X41.8992 Y507.5811 I-0.4953 J-1.4159
G3 X22.5103 Y506.1536 I2.1461 J-161.5347
G3 X-4.943 Y501.4863 I26.0841 J-236.5047
G3 X-4.9881 Y501.4752 I0.3375 J-1.4615
G3 X-27.423 Y494.7229 I86.7923 J-329.021
G3 X-69.7263 Y476.4622 I65.9315 J-210.8698
G3 X-69.7507 Y476.4482 I0.7348 J-1.3077
G3 X-104.7006 Y455.8088 I3760.1155 J-6407.1354
G3 X-104.7232 Y455.7951 I0.7663 J-1.2895
G2 X-131.4258 Y441.0059 I-167.2015 J270.3894
G3 X-131.4611 Y440.9879 I0.6629 J-1.3456
G2 X-153.7629 Y432.5507 I-45.4038 J86.3203
G3 X-153.8125 Y432.5377 I0.3553 J-1.4573
G2 X-176.2461 Y434.0518 I-9.0817 J32.3923
G3 X-176.2619 Y434.0585 I-0.5953 J-1.3768
G2 X-193.6699 Y458.3814 I11.0025 J26.2655
G2 X-186.2061 Y482.0301 I34.8251 J2.011
G3 X-186.2059 Y482.0303 I-1.1766 J0.9304
G2 X-184.4774 Y484.0975 I38.4365 J-30.3839
G3 X-184.6997 Y486.2899 I-1.1238 J0.9935
G2 X-191.1224 Y495.0573 I11.2787 J14.9988
G2 X-182.7549 Y536.7679 I40.8061 J13.5085
G2 X-151.793 Y556.588 I50.8883 J-45.4013
G2 X-148.4258 Y557.4788 I14.5657 J-48.2512
G3 X-147.376 Y558.3607 I-0.3333 J1.4625
G2 X-126.8796 Y581.77 I45.3703 J-19.0472
G2 X-119.0598 Y585.4005 I24.007 J-41.4719
G3 X-118.0669 Y586.7788 I-0.5067 J1.4118
G2 X-115.1669 Y599.5416 I32.7514 J-0.7311
G3 X-115.164 Y599.5479 I-1.3668 J0.6179
G2 X-99.1853 Y618.736 I42.0681 J-18.7847
G3 X-99.1296 Y618.7762 I-0.8494 J1.2363
G2 X-76.1611 Y628.3954 I30.2261 J-39.9416
G3 X-76.1481 Y628.3974 I-0.2173 J1.4842
G2 X-56.5982 Y625.1284 I4.8407 J-31.143
G3 X-56.5899 Y625.124 I0.7001 J1.3266
G2 X-55.0702 Y624.2855 I-16.0694 J-30.92
G3 X-53.1244 Y624.6655 I0.7571 J1.2949
G2 X-28.6197 Y644.0408 I50.8769 J-39.162
G3 X-28.6008 Y644.0496 I-0.6161 J1.3676
G2 X15.7602 Y649.2956 I30.109 J-64.4216
G3 X15.783 Y649.2911 I0.3006 J1.4696
G2 X45.9483 Y632.9145 I-10.3862 J-55.1012
G2 X53.6939 Y622.1393 I-36.5158 J-34.4201
G3 X55.733 Y621.5281 I1.323 J0.7068
G2 X71.8394 Y626.3838 I19.738 J-36.3302
G3 X71.8906 Y626.3892 I-0.1318 J1.4942
G2 X100.3718 Y620.7495 I5.6682 J-46.1112
G3 X100.3765 Y620.7468 I0.7366 J1.3067
G2 X122.3106 Y593.3886 I-22.7639 J-40.7225
G2 X123.6968 Y579.5342 I-35.5375 J-10.5522
G3 X125.1656 Y577.9008 I1.494 J-0.1336
G2 X140.4732 Y576.0371 I-1.2432 J-74.0071
G2 X155.773 Y567.7632 I-8.8208 J-34.5938
G3 X155.7934 Y567.7449 I1.0135 J1.1059
G2 X169.8346 Y548.2119 I-35.8574 J-40.5892
G2 X172.5001 Y524.8411 I-41.1673 J-16.5328
G2 X166.1744 Y503.9522 I-86.3257 J14.7396
G3 X166.0452 Y503.3845 I1.3703 J-0.6103
G0 Z3.0
G0 X164.102 Y504.7331
G0 Z1.0
G1 F300.0 Z-2.0
G3 F800.0 X166.9138 Y510.1395 I-19.7466 J13.7043
G3 X171.0243 Y530.6637 I-59.607 J22.6114
G3 X171.0248 Y530.6858 I-1.4992 J0.0491
G3 X170.5338 Y537.3515 I-36.5432 J0.6589
G3 X170.5299 Y537.374 I-1.4796 J-0.2465
G3 X158.7499 Y562.3287 I-52.6645 J-9.6027
G3 X158.7253 Y562.3571 I-1.1456 J-0.9683
G3 X135.4593 Y576.3236 I-33.9421 J-30.1804
G3 X97.5122 Y570.3132 I-11.9965 J-47.0564
G3 X97.497 Y570.3035 I0.8016 J-1.2679
G3 X77.2608 Y544.5648 I27.6089 J-42.5309
G3 X77.2343 Y544.4814 I1.4154 J-0.4967
G3 X74.9583 Y530.7175 I58.2768 J-16.7068
G3 X74.7282 Y519.0032 I160.435 J-9.0099
G3 X75.7369 Y517.6111 I1.4998 J0.0252
G1 X106.3283 Y507.0121
G3 X125.52 Y500.2832 I107.726 J276.515
G3 X149.4328 Y497.7764 I17.7456 J53.9706
G3 X161.0117 Y501.2051 I-3.4387 J32.8782
G3 X161.3935 Y501.4834 I-0.6814 J1.3363
G3 X164.102 Y504.7331 I-17.0381 J16.954
G0 Z3.0
G0 X121.3017 Y578.1941
G0 Z1.0
G1 F300.0 Z-2.0
G3 F800.0 X122.0158 Y579.1878 I-0.7551 J1.2961
G3 X121.6862 Y591.816 I-27.2419 J5.6074
G3 X115.6646 Y605.7071 I-39.7451 J-8.9781
G3 X115.6055 Y605.7883 I-1.2415 J-0.8419
G3 X105.7824 Y615.6562 I-45.752 J-35.7212
G3 X93.5544 Y622.9056 I-26.4264 J-30.6373
G3 X93.5094 Y622.9217 I-0.5264 J-1.4046
G3 X72.0119 Y625.3965 I-16.4951 J-48.6787
G3 X60.1533 Y622.8155 I1.4258 J-35.0841
G3 X55.8546 Y620.0733 I4.9079 J-12.4338
G3 X55.4955 Y618.4273 I1.0331 J-1.0875
G2 X60.6831 Y593.0814 I-67.2222 J-26.9622
G3 X60.6847 Y593.0386 I1.4996 J0.0335
G2 X58.6159 Y573.2246 I-64.4726 J-3.2835
G2 X57.9828 Y571.1334 I-36.4218 J9.8859
G3 X58.3564 Y569.585 I1.4225 J-0.476
G2 X69.6957 Y553.7794 I-39.2435 J-40.1245
G2 X73.1695 Y544.1914 I-46.8463 J-22.396
G3 X75.9974 Y543.9602 I1.4537 J0.37
G2 X82.261 Y555.9822 I91.4931 J-40.0259
G2 X95.1182 Y569.1597 I45.1879 J-31.2285
G2 X111.0945 Y576.409 I26.4479 J-37.0579
G3 X111.1326 Y576.4185 I-0.345 J1.4598
G2 X120.6512 Y577.9938 I13.0943 J-49.5744
G3 X121.3017 Y578.1941 I-0.1046 J1.4963
G1 F300.0 Z-4.0
G3 F800.0 X122.0158 Y579.1878 I-0.7551 J1.2961
G3 X121.6862 Y591.816 I-27.2419 J5.6074
G3 X115.6646 Y605.7071 I-39.7451 J-8.9781
G3 X115.6055 Y605.7883 I-1.2415 J-0.8419
G3 X105.7824 Y615.6562 I-45.752 J-35.7212
G3 X93.5544 Y622.9056 I-26.4264 J-30.6373
G3 X93.5094 Y622.9217 I-0.5264 J-1.4046
G3 X72.0119 Y625.3965 I-16.4951 J-48.6787
G3 X60.1533 Y622.8155 I1.4258 J-35.0841
G3 X55.8546 Y620.0733 I4.9079 J-12.4338
G3 X55.4955 Y618.4273 I1.0331 J-1.0875
G2 X60.6831 Y593.0814 I-67.2222 J-26.9622
G3 X60.6847 Y593.0386 I1.4996 J0.0335
G2 X58.6159 Y573.2246 I-64.4726 J-3.2835
G2 X57.9828 Y571.1334 I-36.4218 J9.8859
G3 X58.3564 Y569.585 I1.4225 J-0.476
G2 X69.6957 Y553.7794 I-39.2435 J-40.1245
G2 X73.1695 Y544.1914 I-46.8463 J-22.396
G3 X75.9974 Y543.9602 I1.4537 J0.37
G2 X82.261 Y555.9822 I91.4931 J-40.0259
G2 X95.1182 Y569.1597 I45.1879 J-31.2285
G2 X111.0945 Y576.409 I26.4479 J-37.0579
G3 X111.1326 Y576.4185 I-0.345 J1.4598
G2 X120.6512 Y577.9938 I13.0943 J-49.5744
G3 X121.3017 Y578.1941 I-0.1046 J1.4963
G1 F300.0 X121.3199 Y577.7814
G3 F800.0 X97.5122 Y570.3132 I2.1429 J-48.5142
G3 X97.497 Y570.3035 I0.8016 J-1.2679
G3 X77.2608 Y544.5648 I27.6089 J-42.5309
G3 X77.2343 Y544.4814 I1.4154 J-0.4967
G3 X74.9583 Y530.7175 I58.2768 J-16.7068
G3 X74.7282 Y519.0032 I160.435 J-9.0099
G3 X75.7369 Y517.6111 I1.4998 J0.0252
G1 X106.3283 Y507.0121
G3 X125.52 Y500.2832 I107.726 J276.515
G3 X149.4328 Y497.7764 I17.7456 J53.9706
G3 X161.0117 Y501.2051 I-3.4387 J32.8782
G3 X161.3935 Y501.4834 I-0.6814 J1.3363
G3 X166.9138 Y510.1395 I-17.0381 J16.954
G3 X171.0243 Y530.6637 I-59.607 J22.6114
G3 X171.0248 Y530.6858 I-1.4992 J0.0491
G3 X170.5338 Y537.3515 I-36.5432 J0.6589
G3 X170.5299 Y537.374 I-1.4796 J-0.2465
G3 X158.7499 Y562.3287 I-52.6645 J-9.6027
G3 X158.7253 Y562.3571 I-1.1456 J-0.9683
G3 X135.4593 Y576.3236 I-33.9421 J-30.1804
G3 X121.3199 Y577.7814 I-11.9965 J-47.0564
G0 Z3.0
G0 X35.1348 Y510.1203
G0 Z-1.0
G1 F300.0 Z-4.0
G3 F800.0 X34.4814 Y510.5986 I-1.1798 J-0.9263
G3 X8.5767 Y518.114 I-62.1267 J-165.7419
G3 X-46.1004 Y522.7881 I-45.5268 J-210.4282
G3 X-96.8694 Y515.8108 I9.3958 J-256.5628
G3 X-133.1361 Y505.0924 I56.8487 J-259.0673
G3 X-133.138 Y505.0917 I0.5266 J-1.4045
G3 X-166.7668 Y489.5761 I90.5185 J-240.3939
G3 X-179.4677 Y479.5813 I16.7174 J-34.3105
G3 X-186.3327 Y465.371 I23.3786 J-20.0577
G3 X-186.3407 Y465.326 I1.4727 J-0.2847
G3 X-180.6649 Y444.7678 I25.2606 J-4.0885
G3 X-159.9877 Y435.1542 I20.1161 J16.2227
G3 X-159.8999 Y435.1587 I-0.0326 J1.4996
G3 X-145.247 Y438.0835 I-5.1478 J63.9555
G3 X-145.2209 Y438.0923 I-0.4629 J1.4268
G3 X-115.6804 Y451.8084 I-51.833 J150.3014
G3 X-115.6423 Y451.8319 I-0.7677 J1.2886
G2 X-93.3374 Y465.6596 I580.2577 J-911.0849
G2 X-51.8337 Y487.1354 I185.5454 J-307.7386
G2 X-21.0459 Y498.465 I164.3442 J-399.1024
G3 X-21.0193 Y498.474 I-0.4642 J1.4264
G2 X18.6862 Y506.7014 I51.5578 J-148.8951
G3 X18.6902 Y506.7017 I-0.1128 J1.4958
G2 X18.9251 Y506.7199 I19.368 J-247.9222
G3 X34.0743 Y507.6988 I-24.7806 J501.2233
G3 X35.1348 Y510.1203 I-0.1194 J1.4952
G0 Z3.0
G0 X52.4686 Y575.1084
G0 Z1.0
G1 F300.0 Z-2.0
G3 F800.0 X54.3103 Y576.1936 I0.3866 J1.4493
G3 X53.931 Y610.4288 I-65.5195 J16.3937
G3 X34.3784 Y637.4297 I-44.326 J-11.5184
G3 X34.3507 Y637.4471 I-0.8114 J-1.2616
G3 X3.4973 Y647.3016 I-35.5122 J-57.9588
G3 X-23.2903 Y643.7617 I-5.6413 J-60.4363
G3 X-23.3116 Y643.7536 I0.5226 J-1.406
G3 X-48.1573 Y624.0371 I19.4751 J-50.0544
G3 X-48.1738 Y624.0125 I1.2378 J-0.8473
G3 X-60.8859 Y593.3114 I74.3751 J-48.7782
G3 X-62.4673 Y584.3265 I119.3759 J-25.6429
G3 X-61.6613 Y582.7848 I1.486 J-0.2046
G2 X-54.0642 Y578.385 I-36.5471 J-71.8645
G3 X-54.0177 Y578.3557 I0.8213 J1.2552
G2 X-41.2967 Y567.7921 I-28.5301 J-47.2977
G2 X-39.8472 Y566.0315 I-22.9547 J-20.3761
G3 X-37.5284 Y565.9505 I1.1926 J0.9097
G2 X-12.6399 Y584.2251 I54.1041 J-47.5999
G2 X8.8867 Y588.9388 I23.4296 J-55.4884
G3 X8.9332 Y588.941 I-0.0474 J1.4993
G2 X30.0844 Y586.6381 I3.9112 J-62.3625
G2 X47.3159 Y578.4952 I-26.7506 J-78.9112
G3 X47.3277 Y578.4879 I0.7918 J1.274
G2 X51.9562 Y575.357 I-30.3356 J-49.8321
G3 X52.4686 Y575.1084 I0.899 J1.2008
G0 Z3.0
G0 X-40.753 Y563.0195
G0 Z1.0
G1 F300.0 Z-2.0
G3 F800.0 X-40.9769 Y563.6348 I-1.4875 J-0.1929
G3 X-49.2379 Y573.0168 I-34.5604 J-22.1028
G3 X-49.2486 Y573.0257 I-0.9616 J-1.1512
G3 X-82.7181 Y586.7016 I-38.9448 J-47.5178
G3 X-116.7559 Y582.1446 I-7.4448 J-73.7915
G3 X-146.2098 Y551.4532 I16.4774 J-45.2917
G3 X-148.4185 Y529.1674 I44.8689 J-15.6993
G3 X-142.9896 Y514.8783 I31.4795 J3.7843
G3 X-141.0728 Y514.3986 I1.2324 J0.855
G2 X-134.5494 Y517.6274 I117.2001 J-228.5839
G2 X-86.5537 Y533.1262 I82.3261 J-172.8781
G2 X-56.6835 Y537.2395 I66.6943 J-373.8053
G3 X-55.4816 Y538.0733 I-0.1455 J1.4929
G2 X-41.9852 Y560.6571 I141.365 J-69.1571
G2 X-41.0508 Y561.9131 I41.7922 J-30.1143
G3 X-40.753 Y563.0195 I-1.1898 J0.9135
G0 Z3.0
G0 X-39.0332 Y561.6269
G0 Z-1.0
G1 F300.0 Z-4.0
G3 F800.0 X-52.2684 Y539.7236 I72.7581 J-58.9152
G3 X-50.8126 Y537.6326 I1.3778 J-0.593
G2 X-18.977 Y538.4951 I33.1844 J-636.9252
G2 X20.2504 Y534.1575 I-0.7615 J-186.4349
G2 X41.746 Y528.5194 I-61.0313 J-276.4767
G2 X70.1162 Y519.5754 I-487.8878 J-1597.0567
G3 X72.0655 Y520.7942 I0.4637 J1.4265
G3 X70.7145 Y541.1256 I-49.4955 J6.9217
G3 X70.7141 Y541.127 I-1.445 J-0.4025
G3 X46.3102 Y576.3311 I-63.0071 J-17.6167
G3 X7.9611 Y587.6587 I-34.2929 J-45.5188
G3 X-20.3211 Y578.9352 I2.8755 J-59.5302
G3 X-20.3592 Y578.911 I0.7842 J-1.2787
G3 X-37.7083 Y563.2264 I41.559 J-63.4071
G3 X-39.0332 Y561.6269 I71.4333 J-60.5147
G0 Z3.0
G0 X-38.7612 Y565.4451
G0 Z-1.0
G1 F300.0 Z-4.0
G3 F800.0 X-37.5284 Y565.9505 I0.1066 J1.4962
G2 X-12.6399 Y584.2251 I54.1041 J-47.5999
G2 X8.8867 Y588.9388 I23.4296 J-55.4884
G3 X8.9332 Y588.941 I-0.0474 J1.4993
G2 X30.0844 Y586.6381 I3.9112 J-62.3625
G2 X47.3159 Y578.4952 I-26.7506 J-78.9112
G3 X47.3277 Y578.4879 I0.7918 J1.274
G2 X51.9562 Y575.357 I-30.3356 J-49.8321
G3 X54.3103 Y576.1936 I0.899 J1.2008
G3 X53.931 Y610.4288 I-65.5195 J16.3937
G3 X34.3784 Y637.4297 I-44.326 J-11.5184
G3 X34.3507 Y637.4471 I-0.8114 J-1.2616
G3 X3.4973 Y647.3016 I-35.5122 J-57.9588
G3 X-23.2903 Y643.7617 I-5.6413 J-60.4363
G3 X-23.3116 Y643.7536 I0.5226 J-1.406
G3 X-48.1573 Y624.0371 I19.4751 J-50.0544
G3 X-48.1738 Y624.0125 I1.2378 J-0.8473
G3 X-60.8859 Y593.3114 I74.3751 J-48.7782
G3 X-62.4673 Y584.3265 I119.3759 J-25.6429
G3 X-61.6613 Y582.7848 I1.486 J-0.2046
G2 X-54.0642 Y578.385 I-36.5471 J-71.8645
G3 X-54.0177 Y578.3557 I0.8213 J1.2552
G2 X-41.2967 Y567.7921 I-28.5301 J-47.2977
G2 X-39.8472 Y566.0315 I-22.9547 J-20.3761
G3 X-38.7612 Y565.4451 I1.1926 J0.9097
G0 Z3.0
G0 X-66.6307 Y586.1824
G0 Z1.0
G1 F300.0 Z-2.0
G3 F800.0 X-66.3377 Y586.9742 I-1.2034 J0.8954
G2 X-59.0836 Y614.7495 I77.299 J-5.3533
G2 X-55.2985 Y621.5303 I54.7933 J-26.1394
G3 X-55.5173 Y623.4232 I-1.2603 J0.8134
G3 X-62.6826 Y627.3945 I-11.0051 J-11.4066
G3 X-62.7116 Y627.4014 I-0.3634 J-1.4553
G3 X-81.9032 Y626.4996 I-7.9775 J-34.8898
G3 X-81.9243 Y626.4925 I0.47 J-1.4245
G3 X-93.9049 Y621.0225 I22.7777 J-65.7437
G3 X-114.1255 Y599.6345 I22.8744 J-41.8783
G3 X-116.7135 Y588.0931 I19.1477 J-10.3545
G3 X-114.8719 Y586.7148 I1.4978 J0.0818
G2 X-93.4815 Y589.1548 I21.0147 J-89.2448
G3 X-93.4361 Y589.1553 I0.0061 J1.5
G2 X-74.6611 Y587.4785 I2.1423 J-81.9602
G2 X-68.3392 Y585.6654 I-10.9599 J-50.1449
G3 X-66.6307 Y586.1824 I0.505 J1.4124
G1 F300.0 Z-4.0
G3 F800.0 X-66.3377 Y586.9742 I-1.2034 J0.8954
G2 X-59.0836 Y614.7495 I77.299 J-5.3533
G2 X-55.2985 Y621.5303 I54.7933 J-26.1394
G3 X-55.5173 Y623.4232 I-1.2603 J0.8134
G3 X-62.6826 Y627.3945 I-11.0051 J-11.4066
G3 X-62.7116 Y627.4014 I-0.3634 J-1.4553
G3 X-81.9032 Y626.4996 I-7.9775 J-34.8898
G3 X-81.9243 Y626.4925 I0.47 J-1.4245
G3 X-93.9049 Y621.0225 I22.7777 J-65.7437
G3 X-114.1255 Y599.6345 I22.8744 J-41.8783
G3 X-116.7135 Y588.0931 I19.1477 J-10.3545
G3 X-114.8719 Y586.7148 I1.4978 J0.0818
G2 X-93.4815 Y589.1548 I21.0147 J-89.2448
G3 X-93.4361 Y589.1553 I0.0061 J1.5
G2 X-74.6611 Y587.4785 I2.1423 J-81.9602
G2 X-68.3392 Y585.6654 I-10.9599 J-50.1449
G3 X-66.6307 Y586.1824 I0.505 J1.4124
G0 Z3.0
G0 X-67.6199 Y583.399
G0 Z-1.0
G1 F300.0 Z-4.0
G3 F800.0 X-82.7181 Y586.7016 I-20.5735 J-57.891
G3 X-116.7559 Y582.1446 I-7.4448 J-73.7915
G3 X-146.2098 Y551.4532 I16.4774 J-45.2917
G3 X-148.4185 Y529.1674 I44.8689 J-15.6993
G3 X-142.9896 Y514.8783 I31.4795 J3.7843
G3 X-141.0728 Y514.3986 I1.2324 J0.855
G2 X-134.5494 Y517.6274 I117.2001 J-228.5839
G2 X-86.5537 Y533.1262 I82.3261 J-172.8781
G2 X-56.6835 Y537.2395 I66.6943 J-373.8053
G3 X-55.4816 Y538.0733 I-0.1455 J1.4929
G2 X-41.9852 Y560.6571 I141.365 J-69.1571
G2 X-41.0508 Y561.9131 I41.7922 J-30.1143
G3 X-40.9769 Y563.6348 I-1.1898 J0.9135
G3 X-49.2379 Y573.0168 I-34.5604 J-22.1028
G3 X-49.2486 Y573.0257 I-0.9616 J-1.1512
G3 X-67.6199 Y583.399 I-38.9448 J-47.5178
G0 Z3.0
G0 X-62.6705 Y596.3296
G0 Z-1.0
G1 F300.0 Z-4.0
G2 F800.0 X-56.9179 Y613.7207 I73.6318 J-14.7087
G2 X-53.3183 Y620.177 I52.6276 J-25.1107
G3 X-62.6705 Y596.3296 I79.5196 J-44.9427
G0 Z3.0
G0 X-53.045 Y620.6572
G0 Z-1.0
G1 F300.0 Z-4.0
G3 F800.0 X-52.6729 Y622.0421 I-3.5138 J1.6865
G3 X-51.9925 Y622.4459 I-1.6402 J3.5383
G3 X-53.045 Y620.6572 I78.1938 J-47.2116
G1 F300.0 X-52.0039 Y620.0604
G3 F800.0 X-62.0577 Y593.5589 I78.2052 J-44.8262
G3 X-63.6537 Y584.4899 I120.5476 J-25.8904
G3 X-63.458 Y583.0526 I2.6724 J-0.368
G3 X-67.0954 Y584.4834 I-24.7354 J-57.5447
G3 X-65.143 Y586.8915 I-0.7387 J2.5945
G2 X-58.0019 Y614.2356 I76.1043 J-5.2706
G2 X-54.2922 Y620.8809 I53.7115 J-25.6256
G3 X-53.9211 Y622.909 I-2.2665 J1.4628
G3 X-52.1735 Y623.9335 I-0.392 J2.6714
G2 X-28.1268 Y642.9467 I49.926 J-38.4301
G3 X-28.0927 Y642.9624 I-1.109 J2.4617
G2 X-27.9153 Y643.045 I29.6009 J-63.3344
G3 X-49.1455 Y624.7136 I24.0788 J-49.3458
G3 X-49.1752 Y624.6692 I2.226 J-1.5237
G3 X-52.0039 Y620.0604 I75.3765 J-49.435
G0 Z3.0
G0 X-40.3171 Y564.8168
G0 Z-1.0
G1 F300.0 Z-4.0
G3 F800.0 X-38.4159 Y564.2543 I1.6625 J2.1244
G3 X-38.6306 Y563.9905 I59.6157 J-48.7503
G3 X-39.5439 Y562.8956 I72.3555 J-61.2788
G3 X-39.968 Y564.28 I-2.6967 J-0.069
G3 X-40.3171 Y564.8168 I-35.5693 J-22.748
G0 Z3.0
G0 X-53.5874 Y539.1952
G0 Z-1.0
G1 F300.0 Z-4.0
G3 F800.0 X-53.4251 Y538.2067 I2.6968 J-0.0646
G3 X-54.1104 Y538.1477 I30.0874 J-353.1559
G2 X-53.5874 Y539.1952 I139.9938 J-69.2315
G0 Z3.0
G0 X-113.6291 Y512.8024
G0 Z-1.0
G1 F300.0 Z-4.0
G3 F800.0 X-117.2983 Y511.7191 I73.6084 J-256.0589
G2 X-116.2776 Y512.0487 I127.9335 J-394.3411
G2 X-113.6291 Y512.8024 I83.4656 J-288.2779
G0 Z3.0
G0 X-143.1499 Y502.3807
G0 Z-1.0
G1 F300.0 Z-4.0
G3 F800.0 X-154.751 Y497.1328 I100.5304 J-237.6829
G3 X-153.3377 Y498.0087 I-84.0111 J137.1311
G2 X-143.1499 Y502.3807 I35.5042 J-68.6782
G0 Z3.0
G0 X-171.9269 Y490.8411
G0 Z-1.0
G1 F300.0 Z-4.0
G3 F800.0 X-173.0712 Y490.1115 I21.8775 J-35.5755
G3 X-172.1369 Y491.0038 I-247.8847 J260.4954
G3 X-171.9269 Y490.8411 I5.2254 J6.5242
G0 Z3.0
G0 X-179.7985 Y484.5784
G0 Z-1.0
G1 F300.0 Z-4.0
G3 F800.0 X-180.7202 Y483.6125 I29.749 J-29.3128
G3 X-180.5453 Y484.4213 I-4.881 J1.4785
G3 X-179.7985 Y484.5784 I-0.6725 J5.0531
G1 F300.0 X-180.1326 Y485.7309
G3 F800.0 X-178.5819 Y486.6033 I-1.0852 J3.7435
G3 X-172.1174 Y492.6874 I-242.374 J264.0037
G3 X-171.4806 Y492.0169 I3.1244 J2.3301
G3 X-169.5093 Y490.8572 I4.5691 J5.5111
G3 X-181.3017 Y481.1257 I19.4598 J-35.5916
G3 X-188.6867 Y465.8262 I25.2127 J-21.6021
G3 X-188.7075 Y465.709 I3.8267 J-0.7399
G3 X-182.5158 Y443.2436 I27.6274 J-4.4716
G3 X-171.023 Y434.7647 I21.9669 J17.7469
G2 X-175.2936 Y436.2547 I8.1289 J30.1652
G3 X-175.3346 Y436.2721 I-1.5479 J-3.5797
G2 X-191.2746 Y458.5325 I10.0752 J24.0519
G2 X-184.3236 Y480.5414 I32.4298 J1.8599
G3 X-184.3232 Y480.542 I-3.059 J2.4191
G2 X-182.6793 Y482.5079 I36.5537 J-28.8956
G3 X-181.7361 Y485.6114 I-2.9219 J2.5831
G3 X-180.1326 Y485.7309 I0.5183 J3.863
G0 Z3.0
G0 X-147.8848 Y553.9803
G0 Z-1.0
G1 F300.0 Z-4.0
G3 F800.0 X-148.6432 Y554.9614 I-3.4237 J-1.8627
G2 X-147.8925 Y555.1388 I11.4159 J-46.6245
G3 X-147.3938 Y555.2881 I-0.8665 J3.8025
G3 X-147.8848 Y553.9803 I47.1153 J-18.4352
G0 Z3.0
G0 X-93.5658 Y464.1227
G0 Z-1.0
G1 F300.0 Z-4.0
G2 F800.0 X-92.719 Y464.6341 I558.1812 J-923.3757
G2 X-77.0437 Y473.5549 I184.9269 J-306.713
G3 X-105.3136 Y456.8404 I3767.4085 J-6404.2421
G3 X-105.3544 Y456.8157 I1.3793 J-2.3211
G2 X-109.655 Y454.2033 I-166.5704 J269.3688
G2 X-93.5658 Y464.1227 I574.2704 J-913.4563
G0 Z3.0
G0 X72.593 Y519.2062
G0 Z-1.0
G1 F300.0 Z-4.0
G3 F800.0 X73.2515 Y520.6284 I-2.013 J1.7958
G3 X73.5118 Y522.8392 I-50.6815 J7.0876
G3 X73.5308 Y518.9831 I161.8815 J-1.1316
G3 X73.5334 Y518.901 I2.6972 J0.0454
G3 X72.593 Y519.2062 I-266.6655 J-820.2416
G0 Z3.0
G0 X73.5951 Y539.5291
G0 Z-1.0
G1 F300.0 Z-4.0
G3 F800.0 X73.2551 Y540.9117 I-51.0251 J-11.8132
G3 X73.8381 Y540.7437 I1.368 J3.6496
G3 X73.5951 Y539.5291 I61.6731 J-12.969
G0 Z3.0
G0 X55.6055 Y571.5254
G0 Z-1.0
G1 F300.0 Z-4.0
G3 F800.0 X54.1909 Y572.8961 I-47.8985 J-48.0151
G3 X56.6362 Y575.6117 I-1.3357 J3.6616
G3 X57.6926 Y580.5989 I-67.8453 J16.9757
G2 X56.3001 Y573.8456 I-61.4805 J9.1561
G2 X55.7091 Y571.8943 I-34.106 J9.2648
G3 X55.6055 Y571.5254 I3.6961 J-1.2369
G1 F300.0 X56.7754 Y571.2581
G3 F800.0 X57.519 Y568.7288 I2.6299 J-0.6008
G2 X68.6158 Y553.2617 I-38.4061 J-39.2683
G2 X72.0089 Y543.896 I-45.7664 J-21.8783
G3 X75.3388 Y541.9604 I2.6142 J0.6654
G3 X73.7623 Y530.7802 I60.1724 J-14.1858
G3 X73.7058 Y529.7109 I161.631 J-9.0726
G3 X71.8682 Y541.4469 I-51.1358 J-1.995
G3 X71.8675 Y541.4495 I-2.5987 J-0.7238
G3 X47.2314 Y577.1406 I-64.1605 J-17.9392
G2 X51.2385 Y574.3983 I-30.2394 J-48.4847
G3 X55.4721 Y575.9029 I1.6167 J2.1594
G3 X55.0881 Y610.7376 I-66.6812 J16.6844
G3 X35.0263 Y638.437 I-45.4831 J-11.8273
G3 X34.9764 Y638.4683 I-1.4592 J-2.2689
G3 X3.594 Y648.4953 I-36.1379 J-58.98
G3 X-20.8099 Y645.8803 I-5.738 J-61.6301
G2 X15.5197 Y648.1199 I22.3182 J-66.2523
G3 X15.5607 Y648.1119 I0.5411 J2.6452
G2 X45.0778 Y632.0885 I-10.1639 J-53.9219
G2 X52.6354 Y621.5739 I-35.6453 J-33.5942
G3 X54.479 Y620.2002 I2.3815 J1.2722
G3 X54.384 Y617.9815 I2.4088 J-1.2145
G2 X59.4858 Y593.0547 I-66.1106 J-26.5164
G3 X59.4886 Y592.9777 I2.6969 J0.0602
G2 X57.4592 Y573.5348 I-63.2766 J-3.2226
G2 X56.8471 Y571.5135 I-35.2651 J9.5757
G3 X56.7754 Y571.2581 I2.5581 J-0.8561
G0 Z3.0
G0 X164.6373 Y503.4245
G0 Z-1.0
G1 F300.0 Z-4.0
G3 F800.0 X164.876 Y503.7525 I-20.2818 J15.0129
G3 X164.8452 Y503.3986 I2.6686 J-0.4106
G3 X164.6373 Y503.4245 I-0.4367 J-2.662
G0 Z3.0
G0 X165.8388 Y462.1834
G0 Z-1.0
G1 F300.0 Z-4.0
G2 F800.0 X149.4145 Y457.7467 I-14.1335 J19.7024
G2 X145.2594 Y458.5473 I7.712 J51.2085
G3 X162.1311 Y460.4896 I4.3237 J36.6914
G3 X162.1665 Y460.5026 I-1.7313 J4.7946
G3 X165.8388 Y462.1834 I-9.3028 J25.1775
G1 F300.0 X165.2587 Y463.2338
G3 F800.0 X176.2916 Y475.2588 I-12.395 J22.4463
G2 X176.086 Y474.5905 I-17.3638 J4.9772
G3 X176.0583 Y474.503 I3.7046 J-1.2189
G2 X149.2681 Y456.5553 I-24.353 J7.3828
G2 X136.6796 Y460.0734 I7.8584 J52.4
G3 X136.6408 Y460.0894 I-1.505 J-3.5979
G2 X116.2017 Y469.7978 I73.3174 J180.7237
G2 X110.4427 Y473.3513 I120.9616 J202.4842
G3 X139.4437 Y460.9621 I74.7921 J134.9381
G3 X139.5012 Y460.9447 I1.1568 J3.722
G3 X161.7235 Y461.6183 I10.0818 J34.294
G3 X161.7506 Y461.6282 I-1.3238 J3.6659
G3 X165.2587 Y463.2338 I-8.8869 J24.0519
G1 F300.0 X164.6786 Y464.2843
G3 F800.0 X176.1152 Y478.1474 I-11.8149 J21.3958
G3 X176.7441 Y487.5603 I-15.2507 J5.7465
G2 X177.2259 Y474.2155 I-17.8163 J-7.3243
G3 X177.2067 Y474.1549 I2.5647 J-0.8439
G2 X149.1214 Y455.3639 I-25.5014 J7.7309
G2 X136.2166 Y458.9663 I8.0051 J53.5914
G3 X136.1897 Y458.9774 I-1.0419 J-2.4909
G2 X115.6054 Y468.7562 I73.7686 J181.8357
G2 X98.306 Y480.1422 I121.5579 J203.5258
G3 X98.2803 Y480.1605 I-1.5815 J-2.1883
G3 X62.292 Y500.7871 I-127.7622 J-181.2049
G3 X50.6319 Y505.7489 I-88.9695 J-192.8953
G3 X50.6239 Y505.752 I-0.9826 J-2.5148
G3 X42.8107 Y508.6298 I-91.5644 J-236.5496
G3 X41.8833 Y508.781 I-0.8915 J-2.5486
G3 X36.5918 Y508.6246 I2.162 J-162.7346
G3 X35.9888 Y510.9662 I-2.6368 J0.5695
G2 X50.9178 Y505.6995 I-85.3413 J-265.6998
G2 X104.9015 Y477.9834 I-109.4616 J-279.6336
G3 X104.955 Y477.9495 I1.4683 J2.263
G3 X139.7999 Y462.108 I80.2797 J130.3399
G3 X139.8397 Y462.096 I0.8007 J2.576
G3 X161.3159 Y462.747 I9.7434 J33.1427
G3 X161.3347 Y462.7538 I-0.9162 J2.5372
G3 X164.6786 Y464.2843 I-8.471 J22.9263
G0 Z3.0
G0 X168.2275 Y459.4693
G0 Z-1.0
G1 F300.0 Z-4.0
G2 F800.0 X148.9743 Y454.1725 I-16.5222 J22.4165
G2 X135.7535 Y457.8593 I8.1522 J54.7827
G3 X135.7385 Y457.8654 I-0.5788 J-1.3838
G2 X115.009 Y467.7147 I74.2197 J182.9477
G2 X97.6031 Y479.1696 I122.1543 J204.5673
G3 X97.5889 Y479.1798 I-0.8786 J-1.2157
G3 X61.7923 Y499.6961 I-127.0707 J-180.2242
G3 X50.1952 Y504.6312 I-88.4698 J-191.8042
G3 X50.1908 Y504.6329 I-0.5459 J-1.3971
G3 X42.4144 Y507.4971 I-91.1312 J-235.4305
G3 X41.8992 Y507.5811 I-0.4953 J-1.4159
G3 X22.5103 Y506.1536 I2.1461 J-161.5347
G3 X-4.943 Y501.4863 I26.0841 J-236.5047
G3 X-4.9881 Y501.4752 I0.3375 J-1.4615
G3 X-27.423 Y494.7229 I86.7923 J-329.021
G3 X-69.7263 Y476.4622 I65.9315 J-210.8698
G3 X-69.7507 Y476.4482 I0.7348 J-1.3077
G3 X-104.7006 Y455.8088 I3760.1155 J-6407.1354
G3 X-104.7232 Y455.7951 I0.7663 J-1.2895
G2 X-131.4258 Y441.0059 I-167.2015 J270.3894
G3 X-131.4611 Y440.9879 I0.6629 J-1.3456
G2 X-153.7629 Y432.5507 I-45.4038 J86.3203
G3 X-153.8125 Y432.5377 I0.3553 J-1.4573
G2 X-176.2461 Y434.0518 I-9.0817 J32.3923
G3 X-176.2619 Y434.0585 I-0.5953 J-1.3768
G2 X-193.6699 Y458.3814 I11.0025 J26.2655
G2 X-186.2061 Y482.0301 I34.8251 J2.011
G3 X-186.2059 Y482.0303 I-1.1766 J0.9304
G2 X-184.4774 Y484.0975 I38.4365 J-30.3839
G3 X-184.6997 Y486.2899 I-1.1238 J0.9935
G2 X-191.1224 Y495.0573 I11.2787 J14.9988
G2 X-182.7549 Y536.7679 I40.8061 J13.5085
G2 X-151.793 Y556.588 I50.8883 J-45.4013
G2 X-148.4258 Y557.4788 I14.5657 J-48.2512
G3 X-147.376 Y558.3607 I-0.3333 J1.4625
G2 X-126.8796 Y581.77 I45.3703 J-19.0472
G2 X-119.0598 Y585.4005 I24.007 J-41.4719
G3 X-118.0669 Y586.7788 I-0.5067 J1.4118
G2 X-115.1669 Y599.5416 I32.7514 J-0.7311
G3 X-115.164 Y599.5479 I-1.3668 J0.6179
G2 X-99.1853 Y618.736 I42.0681 J-18.7847
G3 X-99.1296 Y618.7762 I-0.8494 J1.2363
G2 X-76.1611 Y628.3954 I30.2261 J-39.9416
G3 X-76.1481 Y628.3974 I-0.2173 J1.4842
G2 X-56.5982 Y625.1284 I4.8407 J-31.143
G3 X-56.5899 Y625.124 I0.7001 J1.3266
G2 X-55.0702 Y624.2855 I-16.0694 J-30.92
G3 X-53.1244 Y624.6655 I0.7571 J1.2949
G2 X-28.6197 Y644.0408 I50.8769 J-39.162
G3 X-28.6008 Y644.0496 I-0.6161 J1.3676
G2 X15.7602 Y649.2956 I30.109 J-64.4216
G3 X15.783 Y649.2911 I0.3006 J1.4696
G2 X45.9483 Y632.9145 I-10.3862 J-55.1012
G2 X53.6939 Y622.1393 I-36.5158 J-34.4201
G3 X55.733 Y621.5281 I1.323 J0.7068
G2 X71.8394 Y626.3838 I19.738 J-36.3302
G3 X71.8906 Y626.3892 I-0.1318 J1.4942
G2 X100.3718 Y620.7495 I5.6682 J-46.1112
G3 X100.3765 Y620.7468 I0.7366 J1.3067
G2 X122.3106 Y593.3886 I-22.7639 J-40.7225
G2 X123.6968 Y579.5342 I-35.5375 J-10.5522
G3 X125.1656 Y577.9008 I1.494 J-0.1336
G2 X140.4732 Y576.0371 I-1.2432 J-74.0071
G2 X155.773 Y567.7632 I-8.8208 J-34.5938
G3 X155.7934 Y567.7449 I1.0135 J1.1059
G2 X169.8346 Y548.2119 I-35.8574 J-40.5892
G2 X172.5001 Y524.8411 I-41.1673 J-16.5328
G2 X166.1744 Y503.9522 I-86.3257 J14.7396
G3 X166.5869 Y502.1875 I1.3703 J-0.6103
G2 X176.3384 Y490.9882 I-29.4225 J-35.4641
G2 X178.3657 Y473.8404 I-17.4106 J-10.7521
G3 X178.3551 Y473.8068 I1.4249 J-0.4688
G2 X168.2275 Y459.4693 I-26.6498 J8.079
G0 Z3.0
G0 X-146.4694 Y512.1873
G0 Z1.0
G1 F300.0 Z-2.0
G3 F800.0 X-146.6292 Y513.1483 I-1.4794 J0.2478
G2 X-152.1674 Y539.5233 I41.6591 J22.5165
G3 X-152.1669 Y539.5297 I-1.495 J0.1222
G2 X-149.8736 Y551.6802 I56.5214 J-4.3761
G3 X-151.7144 Y553.5615 I-1.4348 J0.4373
G3 X-174.5315 Y541.3105 I16.1535 J-57.4586
G3 X-189.0617 Y518.2844 I26.3299 J-32.7126
G3 X-187.6382 Y496.3622 I33.2287 J-8.8497
G3 X-187.637 Y496.3592 I1.3874 J0.5702
G3 X-182.268 Y488.4034 I22.1529 J9.1603
G3 X-180.2034 Y488.3694 I1.0502 J1.071
G3 X-171.758 Y496.3813 I-240.7525 J262.2375
G2 X-151.5309 Y508.8038 I93.3215 J-129.2725
G3 X-151.5259 Y508.8064 I-0.6877 J1.3331
G3 X-147.2198 Y511.1242 I-82.0357 J157.5738
G3 X-146.4694 Y512.1873 I-0.729 J1.3109
G1 F300.0 Z-4.0
G3 F800.0 X-146.6292 Y513.1483 I-1.4794 J0.2478
G2 X-152.1674 Y539.5233 I41.6591 J22.5165
G3 X-152.1669 Y539.5297 I-1.495 J0.1222
G2 X-149.8736 Y551.6802 I56.5214 J-4.3761
G3 X-151.7144 Y553.5615 I-1.4348 J0.4373
G3 X-174.5315 Y541.3105 I16.1535 J-57.4586
G3 X-189.0617 Y518.2844 I26.3299 J-32.7126
G3 X-187.6382 Y496.3622 I33.2287 J-8.8497
G3 X-187.637 Y496.3592 I1.3874 J0.5702
G3 X-182.268 Y488.4034 I22.1529 J9.1603
G3 X-180.2034 Y488.3694 I1.0502 J1.071
G3 X-171.758 Y496.3813 I-240.7525 J262.2375
G2 X-151.5309 Y508.8038 I93.3215 J-129.2725
G3 X-151.5259 Y508.8064 I-0.6877 J1.3331
G3 X-147.2198 Y511.1242 I-82.0357 J157.5738
G3 X-146.4694 Y512.1873 I-0.729 J1.3109
G1 F300.0 X-145.8744 Y511.1
G3 F800.0 X-169.8504 Y496.2482 I125.6234 J-229.5796
G3 X-169.9503 Y493.8627 I0.8575 J-1.2308
G3 X-166.601 Y492.777 I3.0388 J3.6654
G3 X-166.5825 Y492.7783 I-0.0978 J1.4968
G3 X-162.0244 Y494.2983 I-0.7701 J9.9038
G3 X-153.932 Y499.0496 I-76.7377 J139.9656
G2 X-143.4779 Y503.5344 I36.0985 J-69.7191
G3 X-143.4121 Y503.5589 I-0.49 J1.4177
G2 X-116.6275 Y513.1942 I154.0473 J-386.1809
G2 X-85.7452 Y520.4002 I83.8155 J-289.4233
G3 X-85.7259 Y520.4038 I-0.2635 J1.4767
G2 X-8.6431 Y522.5607 I45.1526 J-235.1969
G2 X51.3512 Y506.8159 I-40.7094 J-277.2943
G2 X105.5533 Y478.988 I-109.895 J-280.75
G3 X105.5831 Y478.9692 I0.8164 J1.2584
G3 X140.1553 Y463.2517 I79.6517 J129.3202
G3 X140.1775 Y463.245 I0.4452 J1.4324
G3 X160.9092 Y463.8734 I9.4056 J31.9938
G3 X160.9196 Y463.8772 I-0.5095 J1.4108
G3 X174.9846 Y478.5435 I-8.0559 J21.8029
G3 X175.0244 Y489.1382 I-14.1201 J5.3504
G3 X175.0082 Y489.18 I-1.4066 J-0.521
G3 X169.6289 Y497.6613 I-25.9095 J-10.4866
G3 X165.3409 Y501.9116 I-21.346 J-17.2465
G3 X163.3514 Y501.8008 I-0.9324 J-1.175
G2 X159.8881 Y499.2375 I-10.5127 J10.5827
G2 X150.3923 Y496.5246 I-11.4307 J22.0345
G3 X150.3248 Y496.5177 I0.1169 J-1.4954
G2 X128.6178 Y498.1376 I-6.811 J54.9822
G3 X128.571 Y498.1499 I-0.4033 J-1.4448
G2 X105.6424 Y505.7968 I35.071 J143.3548
G3 X105.6088 Y505.8107 I-0.5895 J-1.3793
G3 X74.7213 Y517.2538 I-245.4308 J-615.0655
G3 X74.7018 Y517.2603 I-0.486 J-1.4191
G3 X28.6978 Y530.9057 I-267.8339 J-818.6009
G3 X-3.3149 Y537.1426 I-55.1378 J-197.7354
G3 X-3.3394 Y537.1452 I-0.169 J-1.4905
G3 X-43.7618 Y537.6975 I-23.538 J-243.1815
G3 X-88.4597 Y532.2337 I20.4241 J-352.6467
G3 X-132.7571 Y517.805 I30.2618 J-168.1187
G3 X-145.8744 Y511.1 I112.5061 J-236.2846
G1 F300.0 X-145.2746 Y512.7895
G2 F800.0 X-143.547 Y513.7151 I125.0235 J-231.2691
G2 X-143.9735 Y514.1957 I1.7899 J2.0183
G2 X-149.6061 Y529.0129 I27.0346 J18.756
G2 X-147.3458 Y551.8325 I48.2653 J6.741
G2 X-117.1754 Y583.2664 I47.0673 J-14.9796
G2 X-98.0349 Y587.8615 I27.0124 J-70.3563
G3 X-114.5974 Y585.5491 I4.1777 J-90.3916
G2 X-116.958 Y586.1154 I-0.6183 J2.6258
G2 X-118.6545 Y584.271 I-2.6085 J0.6969
G3 X-126.2757 Y580.733 I15.7819 J-43.9729
G3 X-146.2696 Y557.8962 I24.27 J-41.4195
G2 X-148.1592 Y556.3088 I-2.4895 J1.0451
G3 X-151.4443 Y555.4398 I10.9319 J-47.9719
G3 X-181.8543 Y535.9748 I19.5777 J-64.0732
G3 X-189.9868 Y495.4452 I31.538 J-27.409
G3 X-183.9785 Y487.2489 I16.5658 J5.8434
G2 X-183.5783 Y483.3027 I-1.6227 J-2.158
G3 X-185.2645 Y481.2861 I35.8089 J-31.6563
G2 X-185.2649 Y481.2857 I-2.1181 J1.6744
G3 X-192.4723 Y458.4569 I26.42 J-20.8934
G3 X-175.7983 Y435.1653 I27.2129 J1.8671
G2 X-175.7698 Y435.1532 I-1.0432 J-2.4903
G3 X-154.1365 Y433.6931 I12.8757 J29.7767
G2 X-154.0471 Y433.7165 I0.7289 J-2.5998
G3 X-132.5974 Y441.7486 I-22.8178 J93.5917
G2 X-144.8304 Y436.9601 I-64.4565 J146.645
G2 X-144.8774 Y436.9444 I-0.8795 J2.5502
G2 X-159.8039 Y433.9649 I-20.1704 J62.1698
G2 X-159.9617 Y433.9569 I-0.2164 J2.6889
G2 X-181.5894 Y444.0065 I-0.5871 J27.0337
G2 X-187.5229 Y465.5173 I20.5093 J17.231
G2 X-187.5085 Y465.5984 I2.6629 J-0.431
G2 X-180.3838 Y480.3527 I31.4195 J-6.0748
G2 X-167.3191 Y490.6392 I30.3343 J-25.0871
G2 X-165.3004 Y491.7416 I124.6995 J-225.9415
G2 X-166.4897 Y491.5843 I-2.0522 J10.9405
G2 X-166.5229 Y491.5819 I-0.2091 J2.6895
G2 X-170.7147 Y492.9407 I-0.3886 J5.9461
G2 X-171.6803 Y494.7826 I1.7217 J2.0767
G2 X-179.3934 Y487.4872 I-249.2756 J255.8243
