( Made using CamBam - http://www.cambam.co.uk )
( Ohne Namen 11/25/2017 1:49:16 PM )
( T6 : 6.0 )
G21 G90 G64 G40
G0 Z3.0
( T6 : 6.0 )
T6 M6
( Gravieren1 )
G17
M3 S1000
G0 X0.0 Y0.0
G0 Z1.0
G1 F300.0 Z-0.4
G1 F800.0 Y200.0
G1 F300.0 Z-0.8
G1 F800.0 Y0.0
G1 F300.0 Z-1.2
G1 F800.0 Y200.0
G1 F300.0 Z-1.6
G1 F800.0 Y0.0
G1 F300.0 Z-2.0
G1 F800.0 Y200.0
G1 F300.0 Z-2.4
G1 F800.0 Y0.0
G1 F300.0 Z-2.8
G1 F800.0 Y200.0
G1 F300.0 Z-3.2
G1 F800.0 Y0.0
G1 F300.0 Z-3.6
G1 F800.0 Y200.0
G1 F300.0 Z-4.0
G1 F800.0 Y0.0
G1 F300.0 Z-4.4
G1 F800.0 Y200.0
G1 F300.0 Z-4.8
G1 F800.0 Y0.0
G1 F300.0 Z-5.2
G1 F800.0 Y200.0
G1 F300.0 Z-5.6
G1 F800.0 Y0.0
G1 F300.0 Z-6.0
G1 F800.0 Y200.0
G1 F300.0 Z-6.4
G1 F800.0 Y0.0
G1 F300.0 Z-6.8
G1 F800.0 Y200.0
G1 F300.0 Z-7.2
G1 F800.0 Y0.0
G1 F300.0 Z-7.6
G1 F800.0 Y200.0
G1 F300.0 Z-8.0
G1 F800.0 Y0.0
G1 F300.0 Z-8.4
G1 F800.0 Y200.0
G1 F300.0 Z-8.8
G1 F800.0 Y0.0
G1 F300.0 Z-9.2
G1 F800.0 Y200.0
G1 F300.0 Z-9.6
G1 F800.0 Y0.0
G1 F300.0 Z-10.0
G1 F800.0 Y200.0
G1 F300.0 Z-10.4
G1 F800.0 Y0.0
G1 F300.0 Z-10.8
G1 F800.0 Y200.0
G1 F300.0 Z-11.2
G1 F800.0 Y0.0
G1 F300.0 Z-11.6
G1 F800.0 Y200.0
G1 F300.0 Z-12.0
G1 F800.0 Y0.0
G1 F300.0 Z-12.4
G1 F800.0 Y200.0
G1 F300.0 Z-12.8
G1 F800.0 Y0.0
G1 F300.0 Z-13.2
G1 F800.0 Y200.0
G1 F300.0 Z-13.6
G1 F800.0 Y0.0
G1 F300.0 Z-14.0
G1 F800.0 Y200.0
G1 F300.0 Z-14.4
G1 F800.0 Y0.0
G1 F300.0 Z-14.8
G1 F800.0 Y200.0
G1 F300.0 Z-15.2
G1 F800.0 Y0.0
G1 F300.0 Z-15.6
G1 F800.0 Y200.0
G1 F300.0 Z-16.0
G1 F800.0 Y0.0
G1 F300.0 Z-16.4
G1 F800.0 Y200.0
G1 F300.0 Z-16.8
G1 F800.0 Y0.0
G1 F300.0 Z-17.2
G1 F800.0 Y200.0
G1 F300.0 Z-17.6
G1 F800.0 Y0.0
G1 F300.0 Z-18.0
G1 F800.0 Y200.0
G1 F300.0 Z-18.4
G1 F800.0 Y0.0
G1 F300.0 Z-18.8
G1 F800.0 Y200.0
G1 F300.0 Z-19.2
G1 F800.0 Y0.0
G1 F300.0 Z-19.6
G1 F800.0 Y200.0
G1 F300.0 Z-19.8
G1 F800.0 Y0.0
G0 Z3.0
M5
M30
