; generated by PrusaSlicer 2.2.0+win64 on 2021-01-06 at 08:53:10 UTC

; 

; external perimeters extrusion width = 0.45mm
; perimeters extrusion width = 0.45mm
; infill extrusion width = 0.45mm
; solid infill extrusion width = 0.45mm
; top infill extrusion width = 0.40mm
; first layer extrusion width = 0.42mm

M73 P0 R110
M201 X9000 Y9000 Z500 E10000 ; sets maximum accelerations, mm/sec^2
M203 X500 Y500 Z12 E120 ; sets maximum feedrates, mm/sec
M204 P2000 R1500 T2000 ; sets acceleration (P, T) and retract acceleration (R), mm/sec^2
M205 X10.00 Y10.00 Z0.20 E2.50 ; sets the jerk limits, mm/sec
M205 S0 T0 ; sets the minimum extruding and travel feed rate, mm/sec
M107
M862.3 P "MK2S" ; printer model check
M862.1 P0.4 ; nozzle diameter check
M115 U3.2.3 ; tell printer latest fw version
G90 ; use absolute coordinates
M83 ; extruder relative mode
M204 S2000 T1500 ; MK2 firmware only supports the old M204 format
M104 S265 ; set extruder temp
M140 S100 ; set bed temp
M190 S100 ; wait for bed temp
M109 S265 ; wait for extruder temp
G28 W ; home all without mesh bed level
G80 ; mesh bed leveling
G1 Y-3.0 F1000.0 ; go outside print area
G92 E0.0
G1 X60.0 E9.0  F1000.0 ; intro line
M73 P0 R110
G1 X100.0 E12.5 F1000.0 ; intro line
G92 E0.0
G21 ; set units to millimeters
G90 ; use absolute coordinates
M83 ; use relative distances for extrusion
M900 K0.04 ; Filament gcode LA 1.5
M900 K20 ; Filament gcode LA 1.0
;BEFORE_LAYER_CHANGE
G92 E0.0
;0.2


G1 E-0.80000 F2100.00000
G1 Z0.600 F10800.000
;AFTER_LAYER_CHANGE
;0.2
G1 X78.616 Y73.924
G1 Z0.200
G1 E0.80000 F2100.00000
M204 S1000
G1 F1200.000
G1 X79.291 Y73.823 E0.02142
G1 X170.704 Y73.823 E2.86617
G1 X171.602 Y74.001 E0.02872
G1 X172.364 Y74.503 E0.02860
G1 X172.881 Y75.255 E0.02860
G1 X173.077 Y76.149 E0.02872
G1 X173.077 Y133.842 E1.80891
G1 X172.997 Y134.410 E0.01799
G1 X172.782 Y134.946 E0.01811
G1 X172.445 Y135.415 E0.01811
G1 X172.004 Y135.788 E0.01811
G1 X171.384 Y136.076 E0.02142
G1 X170.709 Y136.177 E0.02142
G1 X79.281 Y136.177 E2.86665
G1 X78.701 Y136.100 E0.01835
G1 X78.160 Y135.886 E0.01823
G1 X77.688 Y135.547 E0.01823
G1 X77.312 Y135.104 E0.01823
G1 X77.025 Y134.488 E0.02130
G1 X76.923 Y133.816 E0.02130
G1 X76.923 Y76.173 E1.80736
G1 X77.001 Y75.597 E0.01823
G1 X77.216 Y75.057 E0.01823
G1 X77.555 Y74.585 E0.01823
G1 X77.996 Y74.212 E0.01811
G1 X78.561 Y73.949 E0.01954
G1 F8640.000
G1 X79.291 Y73.823 E-0.17109
G1 X81.842 Y73.823 E-0.58891
G1 E-0.04000 F2100.00000
G1 Z0.800 F10800.000
G1 X80.087 Y76.987
G1 Z0.200
G1 E0.80000 F2100.00000
G1 F1200.000
G1 X169.913 Y76.987 E2.81643
G1 X169.913 Y133.013 E1.75665
G1 X80.087 Y133.013 E2.81643
G1 X80.087 Y77.047 E1.75477
G1 X79.710 Y76.610 F10800.000
G1 F1200.000
G1 X170.290 Y76.610 E2.84007
G1 X170.290 Y133.390 E1.78030
G1 X79.710 Y133.390 E2.84007
G1 X79.710 Y76.670 E1.77842
G1 X80.103 Y76.684 F10800.000
G1 F8640.000
G1 X83.001 Y76.668 E-0.76000
G1 E-0.04000 F2100.00000
G1 Z0.800 F10800.000
G1 X169.800 Y77.865
G1 Z0.200
G1 E0.80000 F2100.00000
G1 F1200.000
G1 X169.205 Y77.270 E0.02646
G1 X168.670 Y77.270 E0.01682
G1 X169.630 Y78.230 E0.04270
G1 X169.630 Y78.765 E0.01682
G1 X168.135 Y77.270 E0.06648
G1 X167.600 Y77.270 E0.01682
G1 X169.630 Y79.300 E0.09027
G1 X169.630 Y79.834 E0.01682
G1 X167.066 Y77.270 E0.11405
G1 X166.531 Y77.270 E0.01682
G1 X169.630 Y80.369 E0.13784
G1 X169.630 Y80.904 E0.01682
G1 X165.996 Y77.270 E0.16162
G1 X165.461 Y77.270 E0.01682
G1 X169.630 Y81.439 E0.18541
G1 X169.630 Y81.974 E0.01682
G1 X164.926 Y77.270 E0.20919
G1 X164.391 Y77.270 E0.01682
G1 X169.630 Y82.509 E0.23297
G1 X169.630 Y83.043 E0.01682
G1 X163.857 Y77.270 E0.25676
G1 X163.322 Y77.270 E0.01682
G1 X169.630 Y83.578 E0.28054
G1 X169.630 Y84.113 E0.01682
G1 X162.787 Y77.270 E0.30433
G1 X162.252 Y77.270 E0.01682
G1 X169.630 Y84.648 E0.32811
G1 X169.630 Y85.183 E0.01682
G1 X161.717 Y77.270 E0.35190
G1 X161.182 Y77.270 E0.01682
G1 X169.630 Y85.718 E0.37568
G1 X169.630 Y86.252 E0.01682
G1 X160.648 Y77.270 E0.39947
G1 X160.113 Y77.270 E0.01682
G1 X169.630 Y86.787 E0.42325
G1 X169.630 Y87.322 E0.01682
G1 X159.578 Y77.270 E0.44704
G1 X159.043 Y77.270 E0.01682
G1 X169.630 Y87.857 E0.47082
G1 X169.630 Y88.392 E0.01682
G1 X158.508 Y77.270 E0.49461
G1 X157.973 Y77.270 E0.01682
G1 X169.630 Y88.927 E0.51839
G1 X169.630 Y89.461 E0.01682
G1 X157.439 Y77.270 E0.54218
M73 P0 R109
G1 X156.904 Y77.270 E0.01682
G1 X169.630 Y89.996 E0.56596
G1 X169.630 Y90.531 E0.01682
G1 X156.369 Y77.270 E0.58975
G1 X155.834 Y77.270 E0.01682
G1 X169.630 Y91.066 E0.61353
G1 X169.630 Y91.601 E0.01682
G1 X155.299 Y77.270 E0.63732
G1 X154.764 Y77.270 E0.01682
G1 X169.630 Y92.136 E0.66110
G1 X169.630 Y92.670 E0.01682
G1 X154.230 Y77.270 E0.68489
G1 X153.695 Y77.270 E0.01682
G1 X169.630 Y93.205 E0.70867
G1 X169.630 Y93.740 E0.01682
G1 X153.160 Y77.270 E0.73246
G1 X152.625 Y77.270 E0.01682
G1 X169.630 Y94.275 E0.75624
G1 X169.630 Y94.810 E0.01682
G1 X152.090 Y77.270 E0.78003
G1 X151.555 Y77.270 E0.01682
G1 X169.630 Y95.345 E0.80381
G1 X169.630 Y95.879 E0.01682
G1 X151.021 Y77.270 E0.82760
G1 X150.486 Y77.270 E0.01682
G1 X169.630 Y96.414 E0.85138
G1 X169.630 Y96.949 E0.01682
G1 X149.951 Y77.270 E0.87517
G1 X149.416 Y77.270 E0.01682
G1 X169.630 Y97.484 E0.89895
G1 X169.630 Y98.019 E0.01682
G1 X148.881 Y77.270 E0.92274
G1 X148.346 Y77.270 E0.01682
G1 X169.630 Y98.554 E0.94652
G1 X169.630 Y99.088 E0.01682
G1 X147.812 Y77.270 E0.97031
G1 X147.277 Y77.270 E0.01682
G1 X169.630 Y99.623 E0.99409
G1 X169.630 Y100.158 E0.01682
G1 X146.742 Y77.270 E1.01787
G1 X146.207 Y77.270 E0.01682
G1 X169.630 Y100.693 E1.04166
G1 X169.630 Y101.228 E0.01682
G1 X145.672 Y77.270 E1.06544
G1 X145.137 Y77.270 E0.01682
G1 X169.630 Y101.763 E1.08923
G1 X169.630 Y102.297 E0.01682
G1 X144.603 Y77.270 E1.11301
G1 X144.068 Y77.270 E0.01682
G1 X169.630 Y102.832 E1.13680
G1 X169.630 Y103.367 E0.01682
G1 X143.533 Y77.270 E1.16058
G1 X142.998 Y77.270 E0.01682
G1 X169.630 Y103.902 E1.18437
G1 X169.630 Y104.437 E0.01682
G1 X142.463 Y77.270 E1.20815
G1 X141.928 Y77.270 E0.01682
G1 X169.630 Y104.972 E1.23194
G1 X169.630 Y105.506 E0.01682
G1 X141.394 Y77.270 E1.25572
G1 X140.859 Y77.270 E0.01682
G1 X169.630 Y106.041 E1.27951
G1 X169.630 Y106.576 E0.01682
G1 X140.324 Y77.270 E1.30329
G1 X139.789 Y77.270 E0.01682
G1 X169.630 Y107.111 E1.32708
G1 X169.630 Y107.646 E0.01682
G1 X139.254 Y77.270 E1.35086
G1 X138.719 Y77.270 E0.01682
G1 X169.630 Y108.181 E1.37465
G1 X169.630 Y108.715 E0.01682
G1 X138.185 Y77.270 E1.39843
G1 X137.650 Y77.270 E0.01682
G1 X169.630 Y109.250 E1.42222
G1 X169.630 Y109.785 E0.01682
G1 X137.115 Y77.270 E1.44600
M73 P1 R108
G1 X136.580 Y77.270 E0.01682
G1 X169.630 Y110.320 E1.46979
G1 X169.630 Y110.855 E0.01682
G1 X136.045 Y77.270 E1.49357
G1 X135.510 Y77.270 E0.01682
G1 X169.630 Y111.390 E1.51736
G1 X169.630 Y111.924 E0.01682
G1 X134.976 Y77.270 E1.54114
G1 X134.441 Y77.270 E0.01682
G1 X169.630 Y112.459 E1.56493
G1 X169.630 Y112.994 E0.01682
G1 X133.906 Y77.270 E1.58871
G1 X133.371 Y77.270 E0.01682
G1 X169.630 Y113.529 E1.61250
G1 X169.630 Y114.064 E0.01682
G1 X132.836 Y77.270 E1.63628
G1 X132.301 Y77.270 E0.01682
G1 X169.630 Y114.599 E1.66007
G1 X169.630 Y115.133 E0.01682
G1 X131.767 Y77.270 E1.68385
G1 X131.232 Y77.270 E0.01682
G1 X169.630 Y115.668 E1.70764
G1 X169.630 Y116.203 E0.01682
G1 X130.697 Y77.270 E1.73142
G1 X130.162 Y77.270 E0.01682
G1 X169.630 Y116.738 E1.75520
G1 X169.630 Y117.273 E0.01682
G1 X129.627 Y77.270 E1.77899
G1 X129.092 Y77.270 E0.01682
G1 X169.630 Y117.808 E1.80277
G1 X169.630 Y118.342 E0.01682
G1 X128.558 Y77.270 E1.82656
G1 X128.023 Y77.270 E0.01682
G1 X169.630 Y118.877 E1.85034
G1 X169.630 Y119.412 E0.01682
G1 X127.488 Y77.270 E1.87413
G1 X126.953 Y77.270 E0.01682
G1 X169.630 Y119.947 E1.89791
G1 X169.630 Y120.482 E0.01682
G1 X126.418 Y77.270 E1.92170
G1 X125.883 Y77.270 E0.01682
G1 X169.630 Y121.017 E1.94548
G1 X169.630 Y121.551 E0.01682
G1 X125.349 Y77.270 E1.96927
M73 P2 R107
G1 X124.814 Y77.270 E0.01682
G1 X169.630 Y122.086 E1.99305
G1 X169.630 Y122.621 E0.01682
G1 X124.279 Y77.270 E2.01684
G1 X123.744 Y77.270 E0.01682
G1 X169.630 Y123.156 E2.04062
G1 X169.630 Y123.691 E0.01682
G1 X123.209 Y77.270 E2.06441
G1 X122.674 Y77.270 E0.01682
G1 X169.630 Y124.226 E2.08819
G1 X169.630 Y124.760 E0.01682
G1 X122.140 Y77.270 E2.11198
G1 X121.605 Y77.270 E0.01682
G1 X169.630 Y125.295 E2.13576
G1 X169.630 Y125.830 E0.01682
G1 X121.070 Y77.270 E2.15955
G1 X120.535 Y77.270 E0.01682
G1 X169.630 Y126.365 E2.18333
G1 X169.630 Y126.900 E0.01682
G1 X120.000 Y77.270 E2.20712
G1 X119.465 Y77.270 E0.01682
G1 X169.630 Y127.435 E2.23090
G1 X169.630 Y127.969 E0.01682
G1 X118.931 Y77.270 E2.25469
G1 X118.396 Y77.270 E0.01682
G1 X169.630 Y128.504 E2.27847
G1 X169.630 Y129.039 E0.01682
G1 X117.861 Y77.270 E2.30226
G1 X117.326 Y77.270 E0.01682
G1 X169.630 Y129.574 E2.32604
G1 X169.630 Y130.109 E0.01682
G1 X116.791 Y77.270 E2.34983
G1 X116.256 Y77.270 E0.01682
G1 X169.630 Y130.644 E2.37361
G1 X169.630 Y131.178 E0.01682
G1 X115.722 Y77.270 E2.39740
M73 P3 R106
G1 X115.187 Y77.270 E0.01682
G1 X169.630 Y131.713 E2.42118
G1 X169.630 Y132.248 E0.01682
G1 X114.652 Y77.270 E2.44497
G1 X114.117 Y77.270 E0.01682
G1 X169.577 Y132.730 E2.46640
G1 X169.042 Y132.730 E0.01682
G1 X113.582 Y77.270 E2.46640
G1 X113.047 Y77.270 E0.01682
G1 X168.508 Y132.730 E2.46640
G1 X167.973 Y132.730 E0.01682
G1 X112.513 Y77.270 E2.46640
G1 X111.978 Y77.270 E0.01682
G1 X167.438 Y132.730 E2.46640
G1 X166.903 Y132.730 E0.01682
G1 X111.443 Y77.270 E2.46640
G1 X110.908 Y77.270 E0.01682
G1 X166.368 Y132.730 E2.46640
G1 X165.833 Y132.730 E0.01682
G1 X110.373 Y77.270 E2.46640
G1 X109.838 Y77.270 E0.01682
G1 X165.299 Y132.730 E2.46640
G1 X164.764 Y132.730 E0.01682
G1 X109.304 Y77.270 E2.46640
G1 X108.769 Y77.270 E0.01682
G1 X164.229 Y132.730 E2.46640
G1 X163.694 Y132.730 E0.01682
G1 X108.234 Y77.270 E2.46640
G1 X107.699 Y77.270 E0.01682
G1 X163.159 Y132.730 E2.46640
G1 X162.625 Y132.730 E0.01682
G1 X107.164 Y77.270 E2.46640
M73 P4 R105
G1 X106.629 Y77.270 E0.01682
G1 X162.090 Y132.730 E2.46640
G1 X161.555 Y132.730 E0.01682
G1 X106.095 Y77.270 E2.46640
G1 X105.560 Y77.270 E0.01682
G1 X161.020 Y132.730 E2.46640
G1 X160.485 Y132.730 E0.01682
G1 X105.025 Y77.270 E2.46640
G1 X104.490 Y77.270 E0.01682
G1 X159.950 Y132.730 E2.46640
G1 X159.416 Y132.730 E0.01682
G1 X103.955 Y77.270 E2.46640
G1 X103.420 Y77.270 E0.01682
G1 X158.881 Y132.730 E2.46640
G1 X158.346 Y132.730 E0.01682
G1 X102.886 Y77.270 E2.46640
G1 X102.351 Y77.270 E0.01682
G1 X157.811 Y132.730 E2.46640
G1 X157.276 Y132.730 E0.01682
G1 X101.816 Y77.270 E2.46640
G1 X101.281 Y77.270 E0.01682
G1 X156.741 Y132.730 E2.46640
G1 X156.207 Y132.730 E0.01682
G1 X100.746 Y77.270 E2.46640
G1 X100.211 Y77.270 E0.01682
G1 X155.672 Y132.730 E2.46640
G1 X155.137 Y132.730 E0.01682
G1 X99.677 Y77.270 E2.46640
G1 X99.142 Y77.270 E0.01682
G1 X154.602 Y132.730 E2.46640
G1 X154.067 Y132.730 E0.01682
G1 X98.607 Y77.270 E2.46640
M73 P5 R104
G1 X98.072 Y77.270 E0.01682
G1 X153.532 Y132.730 E2.46640
G1 X152.998 Y132.730 E0.01682
G1 X97.537 Y77.270 E2.46640
G1 X97.002 Y77.270 E0.01682
G1 X152.463 Y132.730 E2.46640
G1 X151.928 Y132.730 E0.01682
G1 X96.468 Y77.270 E2.46640
G1 X95.933 Y77.270 E0.01682
G1 X151.393 Y132.730 E2.46640
G1 X150.858 Y132.730 E0.01682
G1 X95.398 Y77.270 E2.46640
G1 X94.863 Y77.270 E0.01682
G1 X150.323 Y132.730 E2.46640
G1 X149.789 Y132.730 E0.01682
G1 X94.328 Y77.270 E2.46640
G1 X93.793 Y77.270 E0.01682
G1 X149.254 Y132.730 E2.46640
G1 X148.719 Y132.730 E0.01682
G1 X93.259 Y77.270 E2.46640
G1 X92.724 Y77.270 E0.01682
G1 X148.184 Y132.730 E2.46640
G1 X147.649 Y132.730 E0.01682
G1 X92.189 Y77.270 E2.46640
G1 X91.654 Y77.270 E0.01682
G1 X147.114 Y132.730 E2.46640
G1 X146.580 Y132.730 E0.01682
G1 X91.119 Y77.270 E2.46640
G1 X90.584 Y77.270 E0.01682
G1 X146.045 Y132.730 E2.46640
G1 X145.510 Y132.730 E0.01682
G1 X90.050 Y77.270 E2.46640
M73 P6 R103
G1 X89.515 Y77.270 E0.01682
G1 X144.975 Y132.730 E2.46640
G1 X144.440 Y132.730 E0.01682
G1 X88.980 Y77.270 E2.46640
G1 X88.445 Y77.270 E0.01682
G1 X143.905 Y132.730 E2.46640
G1 X143.371 Y132.730 E0.01682
G1 X87.910 Y77.270 E2.46640
G1 X87.375 Y77.270 E0.01682
G1 X142.836 Y132.730 E2.46640
G1 X142.301 Y132.730 E0.01682
G1 X86.841 Y77.270 E2.46640
G1 X86.306 Y77.270 E0.01682
G1 X141.766 Y132.730 E2.46640
G1 X141.231 Y132.730 E0.01682
G1 X85.771 Y77.270 E2.46640
G1 X85.236 Y77.270 E0.01682
G1 X140.696 Y132.730 E2.46640
G1 X140.162 Y132.730 E0.01682
G1 X84.701 Y77.270 E2.46640
G1 X84.166 Y77.270 E0.01682
G1 X139.627 Y132.730 E2.46640
G1 X139.092 Y132.730 E0.01682
G1 X83.632 Y77.270 E2.46640
G1 X83.097 Y77.270 E0.01682
G1 X138.557 Y132.730 E2.46640
G1 X138.022 Y132.730 E0.01682
G1 X82.562 Y77.270 E2.46640
G1 X82.027 Y77.270 E0.01682
G1 X137.487 Y132.730 E2.46640
G1 X136.953 Y132.730 E0.01682
G1 X81.492 Y77.270 E2.46640
M73 P7 R102
G1 X80.957 Y77.270 E0.01682
G1 X136.418 Y132.730 E2.46640
G1 X135.883 Y132.730 E0.01682
G1 X80.423 Y77.270 E2.46640
G1 X80.370 Y77.270 E0.00166
G1 X80.370 Y77.752 E0.01516
G1 X135.348 Y132.730 E2.44496
G1 X134.813 Y132.730 E0.01682
G1 X80.370 Y78.287 E2.42118
G1 X80.370 Y78.822 E0.01682
G1 X134.278 Y132.730 E2.39739
G1 X133.744 Y132.730 E0.01682
G1 X80.370 Y79.356 E2.37361
G1 X80.370 Y79.891 E0.01682
G1 X133.209 Y132.730 E2.34982
G1 X132.674 Y132.730 E0.01682
G1 X80.370 Y80.426 E2.32604
G1 X80.370 Y80.961 E0.01682
G1 X132.139 Y132.730 E2.30225
G1 X131.604 Y132.730 E0.01682
G1 X80.370 Y81.496 E2.27847
G1 X80.370 Y82.031 E0.01682
G1 X131.069 Y132.730 E2.25468
G1 X130.535 Y132.730 E0.01682
G1 X80.370 Y82.565 E2.23090
G1 X80.370 Y83.100 E0.01682
G1 X130.000 Y132.730 E2.20711
G1 X129.465 Y132.730 E0.01682
G1 X80.370 Y83.635 E2.18333
G1 X80.370 Y84.170 E0.01682
G1 X128.930 Y132.730 E2.15954
G1 X128.395 Y132.730 E0.01682
G1 X80.370 Y84.705 E2.13576
G1 X80.370 Y85.240 E0.01682
G1 X127.860 Y132.730 E2.11198
M73 P8 R101
G1 X127.326 Y132.730 E0.01682
G1 X80.370 Y85.774 E2.08819
G1 X80.370 Y86.309 E0.01682
G1 X126.791 Y132.730 E2.06441
G1 X126.256 Y132.730 E0.01682
G1 X80.370 Y86.844 E2.04062
G1 X80.370 Y87.379 E0.01682
G1 X125.721 Y132.730 E2.01684
G1 X125.186 Y132.730 E0.01682
G1 X80.370 Y87.914 E1.99305
G1 X80.370 Y88.449 E0.01682
G1 X124.651 Y132.730 E1.96927
G1 X124.117 Y132.730 E0.01682
G1 X80.370 Y88.983 E1.94548
G1 X80.370 Y89.518 E0.01682
G1 X123.582 Y132.730 E1.92170
G1 X123.047 Y132.730 E0.01682
G1 X80.370 Y90.053 E1.89791
G1 X80.370 Y90.588 E0.01682
G1 X122.512 Y132.730 E1.87413
G1 X121.977 Y132.730 E0.01682
G1 X80.370 Y91.123 E1.85034
G1 X80.370 Y91.658 E0.01682
G1 X121.442 Y132.730 E1.82656
G1 X120.908 Y132.730 E0.01682
G1 X80.370 Y92.192 E1.80277
G1 X80.370 Y92.727 E0.01682
G1 X120.373 Y132.730 E1.77899
G1 X119.838 Y132.730 E0.01682
G1 X80.370 Y93.262 E1.75520
G1 X80.370 Y93.797 E0.01682
G1 X119.303 Y132.730 E1.73142
G1 X118.768 Y132.730 E0.01682
G1 X80.370 Y94.332 E1.70763
G1 X80.370 Y94.867 E0.01682
G1 X118.233 Y132.730 E1.68385
G1 X117.699 Y132.730 E0.01682
G1 X80.370 Y95.401 E1.66006
G1 X80.370 Y95.936 E0.01682
G1 X117.164 Y132.730 E1.63628
G1 X116.629 Y132.730 E0.01682
G1 X80.370 Y96.471 E1.61249
M73 P9 R100
G1 X80.370 Y97.006 E0.01682
G1 X116.094 Y132.730 E1.58871
G1 X115.559 Y132.730 E0.01682
G1 X80.370 Y97.541 E1.56492
G1 X80.370 Y98.076 E0.01682
G1 X115.024 Y132.730 E1.54114
G1 X114.490 Y132.730 E0.01682
G1 X80.370 Y98.610 E1.51735
G1 X80.370 Y99.145 E0.01682
G1 X113.955 Y132.730 E1.49357
G1 X113.420 Y132.730 E0.01682
G1 X80.370 Y99.680 E1.46978
G1 X80.370 Y100.215 E0.01682
G1 X112.885 Y132.730 E1.44600
G1 X112.350 Y132.730 E0.01682
G1 X80.370 Y100.750 E1.42221
G1 X80.370 Y101.285 E0.01682
G1 X111.815 Y132.730 E1.39843
G1 X111.281 Y132.730 E0.01682
G1 X80.370 Y101.819 E1.37464
G1 X80.370 Y102.354 E0.01682
G1 X110.746 Y132.730 E1.35086
G1 X110.211 Y132.730 E0.01682
G1 X80.370 Y102.889 E1.32708
G1 X80.370 Y103.424 E0.01682
G1 X109.676 Y132.730 E1.30329
G1 X109.141 Y132.730 E0.01682
G1 X80.370 Y103.959 E1.27951
G1 X80.370 Y104.494 E0.01682
G1 X108.606 Y132.730 E1.25572
G1 X108.072 Y132.730 E0.01682
G1 X80.370 Y105.028 E1.23194
G1 X80.370 Y105.563 E0.01682
G1 X107.537 Y132.730 E1.20815
