; generated by PrusaSlicer 2.2.0+win64 on 2021-06-26 at 06:39:03 UTC

; 

; external perimeters extrusion width = 0.45mm
; perimeters extrusion width = 0.45mm
; infill extrusion width = 0.45mm
; solid infill extrusion width = 0.45mm
; top infill extrusion width = 0.40mm
; first layer extrusion width = 0.42mm

M73 P0 R111
M201 X9000 Y9000 Z500 E10000 ; sets maximum accelerations, mm/sec^2
M203 X500 Y500 Z12 E120 ; sets maximum feedrates, mm/sec
M204 P2000 R1500 T2000 ; sets acceleration (P, T) and retract acceleration (R), mm/sec^2
M205 X10.00 Y10.00 Z0.20 E2.50 ; sets the jerk limits, mm/sec
M205 S0 T0 ; sets the minimum extruding and travel feed rate, mm/sec
M107
M862.3 P "MK2S" ; printer model check
M862.1 P0.4 ; nozzle diameter check
M115 U3.2.3 ; tell printer latest fw version
G90 ; use absolute coordinates
M83 ; extruder relative mode
M204 S2000 T1500 ; MK2 firmware only supports the old M204 format
M104 S265 ; set extruder temp
M140 S100 ; set bed temp
M190 S100 ; wait for bed temp
M109 S265 ; wait for extruder temp
G28 W ; home all without mesh bed level
G80 ; mesh bed leveling
G1 Y-3.0 F1000.0 ; go outside print area
G92 E0.0
G1 X60.0 E9.0  F1000.0 ; intro line
M73 P0 R111
G1 X100.0 E12.5 F1000.0 ; intro line
G92 E0.0
G21 ; set units to millimeters
G90 ; use absolute coordinates
M83 ; use relative distances for extrusion
M900 K0.04 ; Filament gcode LA 1.5
M900 K20 ; Filament gcode LA 1.0
;BEFORE_LAYER_CHANGE
G92 E0.0
;0.2


G1 E-0.80000 F2100.00000
G1 Z0.400 F10800.000
;AFTER_LAYER_CHANGE
;0.2
G1 X115.323 Y96.692
G1 Z0.200
G1 E0.80000 F2100.00000
M204 S1000
G1 F1200.000
G1 X116.213 Y95.756 E0.04051
G1 X117.193 Y94.914 E0.04051
G1 X118.253 Y94.176 E0.04051
G1 X119.383 Y93.549 E0.04051
G1 X120.559 Y93.044 E0.04012
G1 X121.799 Y92.654 E0.04077
G1 X123.056 Y92.395 E0.04025
G1 X124.342 Y92.263 E0.04051
G1 X125.511 Y92.259 E0.03665
G1 X126.911 Y92.390 E0.04410
G1 X128.169 Y92.646 E0.04025
G1 X129.414 Y93.034 E0.04089
G1 X130.490 Y93.491 E0.03665
G1 X131.863 Y94.253 E0.04923
G1 X132.829 Y94.932 E0.03703
G1 X133.886 Y95.855 E0.04398
G1 X134.685 Y96.702 E0.03652
G1 X135.477 Y97.727 E0.04064
G1 X136.153 Y98.814 E0.04012
G1 X136.732 Y99.997 E0.04128
G1 X137.170 Y101.186 E0.03974
G1 X137.496 Y102.449 E0.04089
G1 X137.690 Y103.726 E0.04051
G1 X137.751 Y105.123 E0.04384
G1 X137.687 Y106.302 E0.03704
G1 X137.491 Y107.579 E0.04051
G1 X137.168 Y108.822 E0.04025
G1 X136.716 Y110.041 E0.04077
G1 X136.152 Y111.189 E0.04012
G1 X135.466 Y112.289 E0.04064
G1 X134.677 Y113.308 E0.04038
G1 X133.778 Y114.252 E0.04089
G1 X132.807 Y115.086 E0.04012
G1 X131.747 Y115.824 E0.04051
G1 X130.617 Y116.451 E0.04051
G1 X129.430 Y116.960 E0.04051
G1 X128.197 Y117.347 E0.04051
G1 X126.931 Y117.607 E0.04051
G1 X125.646 Y117.738 E0.04051
G1 X124.371 Y117.739 E0.04000
G1 X123.069 Y117.607 E0.04102
G1 X121.807 Y117.348 E0.04038
G1 X120.574 Y116.962 E0.04051
G1 X119.398 Y116.458 E0.04012
G1 X118.257 Y115.826 E0.04089
G1 X117.203 Y115.093 E0.04025
G1 X116.222 Y114.253 E0.04051
G1 X115.408 Y113.402 E0.03691
G1 X114.548 Y112.310 E0.04359
G1 X113.919 Y111.310 E0.03704
G1 X113.228 Y109.900 E0.04923
G1 X112.826 Y108.803 E0.03665
G1 X112.501 Y107.539 E0.04089
G1 X112.309 Y106.270 E0.04025
G1 X112.249 Y104.877 E0.04371
G1 X112.313 Y103.698 E0.03704
G1 X112.509 Y102.421 E0.04051
G1 X112.832 Y101.178 E0.04025
G1 X113.284 Y99.959 E0.04077
G1 X113.848 Y98.811 E0.04012
G1 X114.532 Y97.714 E0.04051
G1 X115.286 Y96.740 E0.03863
G1 X115.584 Y96.970 F10800.000
G1 F1200.000
G1 X116.471 Y96.031 E0.04052
G1 X117.425 Y95.212 E0.03943
G1 X118.451 Y94.498 E0.03919
G1 X119.547 Y93.889 E0.03931
G1 X120.692 Y93.397 E0.03907
G1 X121.895 Y93.019 E0.03955
G1 X123.116 Y92.767 E0.03907
G1 X124.363 Y92.639 E0.03931
G1 X125.510 Y92.636 E0.03597
G1 X126.861 Y92.764 E0.04253
G1 X128.082 Y93.013 E0.03907
G1 X129.289 Y93.390 E0.03967
G1 X130.341 Y93.838 E0.03585
G1 X131.648 Y94.563 E0.04684
G1 X132.595 Y95.227 E0.03630
G1 X133.613 Y96.114 E0.04232
G1 X134.397 Y96.945 E0.03582
G1 X135.166 Y97.940 E0.03943
G1 X135.823 Y98.995 E0.03895
G1 X136.382 Y100.138 E0.03991
G1 X136.810 Y101.296 E0.03871
G1 X137.126 Y102.521 E0.03967
G1 X137.315 Y103.761 E0.03931
G1 X137.375 Y105.108 E0.04229
G1 X137.313 Y106.261 E0.03621
G1 X137.122 Y107.500 E0.03931
G1 X136.809 Y108.707 E0.03907
G1 X136.369 Y109.893 E0.03967
G1 X135.821 Y111.008 E0.03895
G1 X135.158 Y112.072 E0.03931
G1 X134.390 Y113.063 E0.03931
G1 X133.521 Y113.977 E0.03955
G1 X132.575 Y114.788 E0.03907
G1 X131.546 Y115.504 E0.03931
G1 X130.450 Y116.113 E0.03931
G1 X129.297 Y116.607 E0.03931
G1 X128.101 Y116.982 E0.03931
G1 X126.877 Y117.234 E0.03919
G1 X125.629 Y117.361 E0.03931
G1 X124.387 Y117.362 E0.03895
G1 X123.128 Y117.235 E0.03967
G1 X121.900 Y116.983 E0.03931
G1 X120.704 Y116.607 E0.03931
G1 X119.558 Y116.117 E0.03907
G1 X118.455 Y115.505 E0.03955
G1 X117.432 Y114.794 E0.03907
G1 X116.480 Y113.978 E0.03931
G1 X115.684 Y113.146 E0.03609
G1 X114.854 Y112.088 E0.04217
G1 X114.239 Y111.110 E0.03621
G1 X113.581 Y109.769 E0.04684
G1 X113.187 Y108.693 E0.03594
G1 X112.872 Y107.471 E0.03955
G1 X112.685 Y106.239 E0.03907
G1 X112.625 Y104.892 E0.04229
G1 X112.687 Y103.739 E0.03621
G1 X112.878 Y102.500 E0.03931
G1 X113.191 Y101.293 E0.03907
G1 X113.630 Y100.111 E0.03955
G1 X114.179 Y98.992 E0.03907
G1 X114.842 Y97.928 E0.03931
G1 X115.547 Y97.018 E0.03610
; printing object WalkingStoeckeHalter.stl id:0 copy 0
G1 F8640.000
G1 X116.471 Y96.031 E-0.31218
G1 X117.425 Y95.212 E-0.29038
G1 X117.985 Y94.822 E-0.15744
G1 E-0.04000 F2100.00000
G1 Z0.600 F10800.000
G1 X120.335 Y101.087
G1 Z0.200
G1 E0.80000 F2100.00000
G1 F1200.000
G1 X120.926 Y100.475 E0.02668
G1 X121.574 Y99.969 E0.02578
G1 X122.330 Y99.528 E0.02744
G1 X123.118 Y99.209 E0.02668
G1 X123.943 Y99.004 E0.02664
G1 X124.760 Y98.918 E0.02578
G1 X125.635 Y98.944 E0.02744
G1 X126.473 Y99.092 E0.02668
G1 X127.281 Y99.354 E0.02664
G1 X128.044 Y99.727 E0.02664
G1 X128.749 Y100.202 E0.02664
G1 X129.380 Y100.770 E0.02664
G1 X129.926 Y101.421 E0.02664
G1 X130.376 Y102.141 E0.02664
G1 X130.722 Y102.917 E0.02664
G1 X130.956 Y103.734 E0.02664
G1 X131.074 Y104.575 E0.02664
G1 X131.074 Y105.425 E0.02664
G1 X131.015 Y105.845 E0.01332
G1 X130.956 Y106.266 E0.01332
G1 X130.722 Y107.083 E0.02664
G1 X130.376 Y107.859 E0.02664
G1 X129.926 Y108.579 E0.02664
G1 X129.380 Y109.230 E0.02664
G1 X128.769 Y109.780 E0.02578
G1 X128.046 Y110.273 E0.02744
G1 X127.281 Y110.646 E0.02668
G1 X126.473 Y110.908 E0.02664
G1 X125.636 Y111.056 E0.02664
G1 X124.787 Y111.085 E0.02664
G1 X123.943 Y110.996 E0.02664
G1 X123.118 Y110.791 E0.02664
G1 X122.331 Y110.473 E0.02664
G1 X121.595 Y110.048 E0.02664
G1 X120.926 Y109.525 E0.02664
G1 X120.336 Y108.914 E0.02664
G1 X119.836 Y108.227 E0.02664
G1 X119.437 Y107.477 E0.02664
G1 X119.147 Y106.678 E0.02664
G1 X118.970 Y105.847 E0.02664
G1 X118.911 Y105.000 E0.02664
G1 X118.970 Y104.153 E0.02664
G1 X119.147 Y103.322 E0.02664
G1 X119.437 Y102.523 E0.02664
G1 X119.823 Y101.797 E0.02578
G1 X120.300 Y101.136 E0.02556
G1 X120.606 Y101.356 F10800.000
G1 F1200.000
G1 X121.179 Y100.756 E0.02601
G1 X121.786 Y100.282 E0.02415
G1 X122.496 Y99.867 E0.02579
G1 X123.235 Y99.569 E0.02500
G1 X124.008 Y99.376 E0.02498
G1 X124.774 Y99.295 E0.02415
G1 X125.596 Y99.320 E0.02579
G1 X126.382 Y99.459 E0.02500
G1 X127.139 Y99.705 E0.02498
G1 X127.856 Y100.054 E0.02498
G1 X128.516 Y100.500 E0.02498
G1 X129.108 Y101.033 E0.02498
G1 X129.620 Y101.643 E0.02498
G1 X130.043 Y102.319 E0.02498
G1 X130.367 Y103.047 E0.02498
G1 X130.586 Y103.813 E0.02498
G1 X130.697 Y104.602 E0.02498
G1 X130.697 Y105.398 E0.02498
G1 X130.642 Y105.793 E0.01249
G1 X130.586 Y106.187 E0.01249
G1 X130.367 Y106.953 E0.02498
G1 X130.043 Y107.681 E0.02498
G1 X129.620 Y108.357 E0.02498
G1 X129.108 Y108.967 E0.02498
G1 X128.536 Y109.483 E0.02415
G1 X127.856 Y109.946 E0.02579
G1 X127.139 Y110.295 E0.02500
G1 X126.382 Y110.541 E0.02498
G1 X125.597 Y110.680 E0.02498
G1 X124.801 Y110.708 E0.02498
G1 X124.008 Y110.624 E0.02498
G1 X123.235 Y110.431 E0.02498
G1 X122.496 Y110.133 E0.02498
G1 X121.806 Y109.735 E0.02498
G1 X121.179 Y109.244 E0.02498
G1 X120.625 Y108.671 E0.02498
G1 X120.157 Y108.026 E0.02498
G1 X119.783 Y107.323 E0.02498
G1 X119.510 Y106.574 E0.02498
G1 X119.345 Y105.795 E0.02498
G1 X119.289 Y105.000 E0.02498
G1 X119.345 Y104.205 E0.02498
G1 X119.510 Y103.426 E0.02498
G1 X119.783 Y102.677 E0.02498
G1 X120.144 Y101.997 E0.02415
G1 X120.571 Y101.405 E0.02288
G1 X120.467 Y100.981 F10800.000
G1 F8640.000
G1 X121.179 Y100.756 E-0.20531
G1 X121.786 Y100.282 E-0.17788
G1 X122.496 Y99.867 E-0.18990
G1 X123.235 Y99.569 E-0.18408
G1 X123.247 Y99.566 E-0.00283
G1 E-0.04000 F2100.00000
G1 Z0.600 F10800.000
G1 X118.010 Y99.000
G1 Z0.200
G1 E0.80000 F2100.00000
G1 F1200.000
G1 X118.653 Y98.323 E0.02926
G1 X119.361 Y97.715 E0.02926
G1 X120.127 Y97.182 E0.02926
G1 X120.943 Y96.730 E0.02926
G1 X121.801 Y96.362 E0.02926
G1 X122.691 Y96.082 E0.02926
G1 X123.605 Y95.894 E0.02926
G1 X124.533 Y95.800 E0.02926
G1 X125.467 Y95.800 E0.02926
G1 X126.395 Y95.894 E0.02926
G1 X127.309 Y96.082 E0.02926
G1 X128.199 Y96.362 E0.02926
G1 X129.057 Y96.730 E0.02926
G1 X129.873 Y97.182 E0.02926
G1 X130.639 Y97.715 E0.02926
G1 X131.347 Y98.323 E0.02926
G1 X131.990 Y99.000 E0.02926
G1 X132.561 Y99.738 E0.02926
G1 X133.054 Y100.529 E0.02926
G1 X133.465 Y101.367 E0.02926
G1 X133.789 Y102.242 E0.02926
G1 X134.023 Y103.146 E0.02926
G1 X134.165 Y104.068 E0.02926
G1 X134.212 Y105.000 E0.02926
G1 X134.165 Y105.932 E0.02926
G1 X134.023 Y106.854 E0.02926
G1 X133.789 Y107.758 E0.02926
G1 X133.465 Y108.633 E0.02926
G1 X133.054 Y109.471 E0.02926
G1 X132.561 Y110.262 E0.02926
G1 X131.990 Y111.000 E0.02926
G1 X131.347 Y111.677 E0.02926
G1 X130.639 Y112.285 E0.02926
G1 X129.873 Y112.818 E0.02926
G1 X129.057 Y113.270 E0.02926
G1 X128.199 Y113.638 E0.02926
G1 X127.309 Y113.918 E0.02926
G1 X126.395 Y114.106 E0.02926
G1 X125.467 Y114.200 E0.02926
G1 X124.533 Y114.200 E0.02926
G1 X123.605 Y114.106 E0.02926
G1 X122.691 Y113.918 E0.02926
G1 X121.801 Y113.638 E0.02926
G1 X120.943 Y113.270 E0.02926
G1 X120.127 Y112.818 E0.02926
G1 X119.361 Y112.285 E0.02926
G1 X118.653 Y111.677 E0.02926
G1 X118.010 Y111.000 E0.02926
G1 X117.439 Y110.262 E0.02926
G1 X116.946 Y109.471 E0.02926
G1 X116.535 Y108.633 E0.02926
G1 X116.211 Y107.758 E0.02926
G1 X115.977 Y106.854 E0.02926
G1 X115.835 Y105.932 E0.02926
G1 X115.788 Y105.000 E0.02926
G1 X115.835 Y104.068 E0.02926
G1 X115.977 Y103.146 E0.02926
G1 X116.211 Y102.242 E0.02926
G1 X116.535 Y101.367 E0.02926
G1 X116.946 Y100.529 E0.02926
G1 X117.439 Y99.738 E0.02926
G1 X117.974 Y99.047 E0.02738
G1 X117.675 Y98.816 F10800.000
G1 F1200.000
G1 X118.393 Y98.050 E0.03293
G1 X119.130 Y97.417 E0.03046
G1 X119.928 Y96.862 E0.03046
G1 X120.777 Y96.391 E0.03046
G1 X121.670 Y96.007 E0.03046
G1 X122.596 Y95.717 E0.03046
G1 X123.548 Y95.521 E0.03046
G1 X124.514 Y95.423 E0.03046
G1 X125.486 Y95.423 E0.03046
G1 X126.452 Y95.521 E0.03046
G1 X127.404 Y95.717 E0.03046
G1 X128.330 Y96.007 E0.03046
G1 X129.223 Y96.391 E0.03046
G1 X130.072 Y96.862 E0.03046
G1 X130.870 Y97.417 E0.03046
G1 X131.607 Y98.050 E0.03046
G1 X132.276 Y98.754 E0.03046
G1 X132.871 Y99.522 E0.03046
G1 X133.385 Y100.346 E0.03046
G1 X133.812 Y101.218 E0.03046
G1 X134.150 Y102.129 E0.03046
G1 X134.393 Y103.070 E0.03046
G1 X134.540 Y104.030 E0.03046
G1 X134.589 Y105.000 E0.03046
G1 X134.540 Y105.970 E0.03046
G1 X134.393 Y106.930 E0.03046
G1 X134.150 Y107.871 E0.03046
G1 X133.812 Y108.782 E0.03046
G1 X133.385 Y109.654 E0.03046
G1 X132.871 Y110.478 E0.03046
G1 X132.276 Y111.246 E0.03046
G1 X131.607 Y111.950 E0.03046
G1 X130.870 Y112.583 E0.03046
G1 X130.072 Y113.138 E0.03046
G1 X129.223 Y113.609 E0.03046
G1 X128.330 Y113.993 E0.03046
G1 X127.404 Y114.283 E0.03046
G1 X126.452 Y114.479 E0.03046
G1 X125.486 Y114.577 E0.03046
G1 X124.514 Y114.577 E0.03046
G1 X123.548 Y114.479 E0.03046
G1 X122.596 Y114.283 E0.03046
G1 X121.670 Y113.993 E0.03046
G1 X120.777 Y113.609 E0.03046
G1 X119.928 Y113.138 E0.03046
G1 X119.130 Y112.583 E0.03046
G1 X118.393 Y111.950 E0.03046
G1 X117.724 Y111.246 E0.03046
G1 X117.129 Y110.478 E0.03046
G1 X116.615 Y109.654 E0.03046
G1 X116.188 Y108.782 E0.03046
G1 X115.850 Y107.871 E0.03046
G1 X115.607 Y106.930 E0.03046
G1 X115.460 Y105.970 E0.03046
G1 X115.411 Y105.000 E0.03046
G1 X115.460 Y104.030 E0.03046
G1 X115.607 Y103.070 E0.03046
G1 X115.850 Y102.129 E0.03046
G1 X116.188 Y101.218 E0.03046
G1 X116.615 Y100.346 E0.03046
G1 X117.129 Y99.522 E0.03046
G1 X117.639 Y98.864 E0.02610
G1 X118.069 Y98.888 F10800.000
G1 F8640.000
G1 X118.393 Y98.050 E-0.25628
G1 X119.130 Y97.417 E-0.22430
G1 X119.928 Y96.862 E-0.22430
G1 X120.136 Y96.746 E-0.05512
G1 E-0.04000 F2100.00000
G1 Z0.600 F10800.000
G1 X124.266 Y95.941
G1 Z0.200
G1 E0.80000 F2100.00000
G1 F1200.000
G1 X127.444 Y99.119 E0.14194
G1 X126.635 Y98.847 E0.02696
G1 X123.933 Y96.145 E0.12066
G1 X123.463 Y96.212 E0.01499
G1 X125.966 Y98.715 E0.11178
G1 X125.664 Y98.662 E0.00967
G1 X125.367 Y98.653 E0.00940
G1 X123.017 Y96.304 E0.10491
G1 X122.587 Y96.411 E0.01399
G1 X124.813 Y98.636 E0.09937
G1 X124.319 Y98.680 E0.01565
G1 X122.179 Y96.539 E0.09558
G1 X121.780 Y96.678 E0.01332
G1 X123.840 Y98.738 E0.09198
G1 X123.410 Y98.845 E0.01399
G1 X121.404 Y96.839 E0.08957
G1 X121.068 Y96.984 E0.01157
G1 X121.032 Y97.004 E0.00130
G1 X122.986 Y98.958 E0.08726
G1 X122.603 Y99.112 E0.01303
G1 X120.686 Y97.195 E0.08560
G1 X120.341 Y97.387 E0.01247
G1 X122.221 Y99.267 E0.08394
G1 X121.880 Y99.463 E0.01242
G1 X120.019 Y97.602 E0.08309
G1 X119.702 Y97.823 E0.01218
G1 X121.540 Y99.661 E0.08209
G1 X121.225 Y99.882 E0.01217
G1 X119.399 Y98.056 E0.08156
G1 X119.110 Y98.304 E0.01203
G1 X120.923 Y100.118 E0.08100
G1 X120.636 Y100.368 E0.01202
G1 X118.823 Y98.555 E0.08096
G1 X118.562 Y98.830 E0.01200
G1 X120.372 Y100.641 E0.08086
G1 X120.110 Y100.915 E0.01200
G1 X118.300 Y99.106 E0.08083
G1 X118.058 Y99.400 E0.01205
G1 X119.885 Y101.228 E0.08160
G1 X119.660 Y101.540 E0.01215
G1 X117.823 Y99.703 E0.08203
G1 X117.599 Y100.016 E0.01215
G1 X119.461 Y101.877 E0.08314
G1 X119.274 Y102.228 E0.01254
G1 X117.393 Y100.347 E0.08402
G1 X117.187 Y100.679 E0.01232
G1 X119.109 Y102.600 E0.08580
G1 X118.965 Y102.994 E0.01323
G1 X117.011 Y101.039 E0.08729
G1 X116.834 Y101.399 E0.01267
G1 X118.840 Y103.405 E0.08959
G1 X118.746 Y103.848 E0.01430
G1 X116.682 Y101.784 E0.09218
G1 X116.537 Y102.176 E0.01320
G1 X118.675 Y104.315 E0.09551
G1 X118.640 Y104.817 E0.01589
G1 X116.413 Y102.589 E0.09948
G1 X116.302 Y103.016 E0.01392
G1 X118.653 Y105.367 E0.10498
G1 X118.704 Y105.955 E0.01863
G1 X116.214 Y103.465 E0.11120
G1 X116.143 Y103.930 E0.01488
G1 X118.849 Y106.637 E0.12086
G1 X118.874 Y106.756 E0.00387
G1 X119.128 Y107.453 E0.02339
G1 X116.100 Y104.425 E0.13520
G1 X116.074 Y104.936 E0.01616
G1 X125.055 Y113.917 E0.40107
G1 X125.579 Y113.904 E0.01656
G1 X122.536 Y110.861 E0.13593
G1 X123.031 Y111.061 E0.01686
G1 X123.353 Y111.141 E0.01049
G1 X126.067 Y113.855 E0.12119
G1 X126.352 Y113.826 E0.00905
G1 X126.537 Y113.788 E0.00596
G1 X124.040 Y111.291 E0.11150
G1 X124.641 Y111.354 E0.01906
G1 X126.983 Y113.696 E0.10459
G1 X127.238 Y113.644 E0.00823
G1 X127.412 Y113.589 E0.00577
G1 X125.178 Y111.355 E0.09978
G1 X125.693 Y111.333 E0.01629
G1 X127.821 Y113.461 E0.09503
G1 X128.220 Y113.322 E0.01332
G1 X126.150 Y111.252 E0.09243
G1 X126.599 Y111.164 E0.01446
G1 X128.595 Y113.161 E0.08915
G1 X128.968 Y112.996 E0.01286
G1 X127.005 Y111.033 E0.08769
G1 X127.407 Y110.899 E0.01341
G1 X129.314 Y112.805 E0.08512
G1 X129.659 Y112.613 E0.01247
G1 X127.768 Y110.722 E0.08442
G1 X128.129 Y110.546 E0.01268
G1 X129.981 Y112.398 E0.08268
G1 X130.298 Y112.177 E0.01218
G1 X128.456 Y110.336 E0.08226
G1 X128.775 Y110.118 E0.01221
G1 X130.601 Y111.944 E0.08155
G1 X130.890 Y111.696 E0.01203
G1 X129.077 Y109.883 E0.08096
G1 X129.360 Y109.628 E0.01201
G1 X131.177 Y111.445 E0.08113
G1 X131.438 Y111.170 E0.01200
G1 X129.635 Y109.366 E0.08055
G1 X129.880 Y109.074 E0.01204
G1 X131.700 Y110.895 E0.08129
G1 X131.942 Y110.600 E0.01205
G1 X130.125 Y108.782 E0.08116
G1 X130.336 Y108.456 E0.01226
G1 X132.177 Y110.297 E0.08219
