; generated by PrusaSlicer 2.1.1+win64 on 2020-04-03 at 16:51:22 UTC

; 

; external perimeters extrusion width = 0.45mm
; perimeters extrusion width = 0.45mm
; infill extrusion width = 0.45mm
; solid infill extrusion width = 0.45mm
; top infill extrusion width = 0.40mm
; first layer extrusion width = 0.42mm

M73 P0 R92
M201 X9000 Y9000 Z500 E10000 ; sets maximum accelerations, mm/sec^2
M203 X500 Y500 Z12 E120 ; sets maximum feedrates, mm/sec
M204 P2000 R1500 T2000 ; sets acceleration (P, T) and retract acceleration (R), mm/sec^2
M205 X10.00 Y10.00 Z0.20 E2.50 ; sets the jerk limits, mm/sec
M205 S0 T0 ; sets the minimum extruding and travel feed rate, mm/sec
M107
M862.3 P "MK2S" ; printer model check
M862.1 P0.4 ; nozzle diameter check
M115 U3.2.3 ; tell printer latest fw version
G90 ; use absolute coordinates
M83 ; extruder relative mode
M204 S2000 T1500 ; MK2 firmware only supports the old M204 format
M104 S215 ; set extruder temp
M140 S60 ; set bed temp
M190 S60 ; wait for bed temp
M109 S215 ; wait for extruder temp
G28 W ; home all without mesh bed level
G80 ; mesh bed leveling
G1 Y-3.0 F1000.0 ; go outside print area
G92 E0.0
G1 X60.0 E9.0  F1000.0 ; intro line
M73 P0 R92
G1 X100.0 E12.5 F1000.0 ; intro line
G92 E0.0
G21 ; set units to millimeters
G90 ; use absolute coordinates
M83 ; use relative distances for extrusion
M900 K30 ; Filament gcode
;BEFORE_LAYER_CHANGE
G92 E0.0
;0.2


G1 E-0.80000 F2100.00000
G1 Z0.600 F10800.000
;AFTER_LAYER_CHANGE
;0.2
G1 X85.640 Y47.108
G1 Z0.200
G1 E0.80000 F2100.00000
M204 S1000
G1 F1200
G1 X86.722 Y46.257 E0.04315
G1 X87.629 Y45.784 E0.03209
G1 X88.598 Y45.478 E0.03186
G1 X89.917 Y45.313 E0.04166
G1 X160.004 Y45.311 E2.19753
G1 X161.208 Y45.431 E0.03795
G1 X162.366 Y45.781 E0.03792
G1 X163.436 Y46.353 E0.03804
G1 X164.364 Y47.112 E0.03758
G1 X165.142 Y48.056 E0.03838
G1 X165.709 Y49.112 E0.03758
G1 X166.065 Y50.272 E0.03804
G1 X166.186 Y51.402 E0.03564
G1 X166.188 Y158.522 E3.35867
G1 X166.020 Y159.907 E0.04374
G1 X165.710 Y160.886 E0.03220
G1 X165.187 Y161.874 E0.03507
G1 X164.360 Y162.892 E0.04111
G1 X163.275 Y163.745 E0.04326
G1 X162.368 Y164.218 E0.03209
G1 X161.395 Y164.524 E0.03198
G1 X160.050 Y164.688 E0.04246
G1 X89.971 Y164.688 E2.19730
G1 X88.593 Y164.520 E0.04351
G1 X87.614 Y164.210 E0.03220
G1 X86.626 Y163.687 E0.03507
G1 X85.606 Y162.857 E0.04123
G1 X84.754 Y161.772 E0.04326
G1 X84.282 Y160.868 E0.03198
G1 X83.975 Y159.891 E0.03209
G1 X83.812 Y158.536 E0.04280
G1 X83.812 Y51.478 E3.35672
G1 X83.980 Y50.093 E0.04374
G1 X84.290 Y49.114 E0.03220
G1 X84.813 Y48.126 E0.03507
G1 X85.602 Y47.155 E0.03923
G1 F8640
G1 X86.722 Y46.257 E-0.33127
G1 X87.629 Y45.784 E-0.23634
G1 X88.424 Y45.533 E-0.19239
G1 E-0.04000 F2100.00000
G1 Z0.800 F10800.000
G1 X87.589 Y49.089
G1 Z0.200
G1 E0.80000 F2100.00000
G1 F1200
G1 X88.105 Y48.665 E0.02096
G1 X88.695 Y48.349 E0.02096
G1 X89.288 Y48.170 E0.01943
G1 X90.032 Y48.087 E0.02348
G1 X159.971 Y48.087 E2.19288
G1 X160.617 Y48.151 E0.02034
G1 X161.308 Y48.351 E0.02257
G1 X161.895 Y48.665 E0.02085
G1 X162.411 Y49.089 E0.02096
G1 X162.835 Y49.605 E0.02096
G1 X163.151 Y50.195 E0.02096
G1 X163.345 Y50.835 E0.02096
G1 X163.413 Y51.529 E0.02187
G1 X163.413 Y158.471 E3.35310
G1 X163.345 Y159.165 E0.02187
G1 X163.151 Y159.805 E0.02096
G1 X162.835 Y160.395 E0.02096
G1 X162.411 Y160.911 E0.02096
G1 X161.895 Y161.335 E0.02096
G1 X161.305 Y161.651 E0.02096
G1 X160.665 Y161.845 E0.02096
G1 X159.971 Y161.913 E0.02187
G1 X90.029 Y161.913 E2.19299
G1 X89.335 Y161.845 E0.02187
G1 X88.695 Y161.651 E0.02096
G1 X88.105 Y161.335 E0.02096
G1 X87.589 Y160.911 E0.02096
G1 X87.165 Y160.395 E0.02096
G1 X86.849 Y159.805 E0.02096
G1 X86.670 Y159.212 E0.01943
G1 X86.587 Y158.468 E0.02348
G1 X86.587 Y51.529 E3.35299
G1 X86.655 Y50.835 E0.02187
G1 X86.849 Y50.195 E0.02096
G1 X87.165 Y49.605 E0.02096
G1 X87.551 Y49.135 E0.01908
G1 X87.259 Y48.896 F10800.000
G1 F1200
G1 X87.321 Y48.821 E0.00305
G1 X87.895 Y48.350 E0.02329
G1 X88.550 Y47.999 E0.02329
G1 X89.212 Y47.799 E0.02169
G1 X90.012 Y47.710 E0.02522
G1 X159.990 Y47.710 E2.19411
G1 X160.688 Y47.779 E0.02202
G1 X161.451 Y48.000 E0.02490
G1 X162.105 Y48.350 E0.02325
G1 X162.679 Y48.821 E0.02329
G1 X163.150 Y49.395 E0.02329
G1 X163.501 Y50.050 E0.02329
G1 X163.716 Y50.761 E0.02329
G1 X163.790 Y51.510 E0.02361
G1 X163.790 Y158.490 E3.35426
G1 X163.716 Y159.239 E0.02361
G1 X163.501 Y159.950 E0.02329
G1 X163.150 Y160.605 E0.02329
G1 X162.679 Y161.179 E0.02329
G1 X162.105 Y161.650 E0.02329
G1 X161.450 Y162.001 E0.02329
G1 X160.739 Y162.216 E0.02329
G1 X159.990 Y162.290 E0.02361
G1 X90.010 Y162.290 E2.19415
G1 X89.261 Y162.216 E0.02361
G1 X88.550 Y162.001 E0.02329
G1 X87.895 Y161.650 E0.02329
G1 X87.321 Y161.179 E0.02329
G1 X86.850 Y160.605 E0.02329
G1 X86.499 Y159.950 E0.02329
G1 X86.299 Y159.288 E0.02169
G1 X86.210 Y158.488 E0.02522
G1 X86.210 Y51.510 E3.35422
M73 P1 R91
G1 X86.284 Y50.761 E0.02361
G1 X86.499 Y50.050 E0.02329
G1 X86.850 Y49.395 E0.02329
G1 X87.221 Y48.942 E0.01836
G1 X87.355 Y48.908 F10800.000
G1 F8640
G1 X87.321 Y48.821 E-0.03628
G1 X87.895 Y48.350 E-0.17151
G1 X88.550 Y47.999 E-0.17151
G1 X89.212 Y47.799 E-0.15974
G1 X90.012 Y47.710 E-0.18576
G1 X90.164 Y47.710 E-0.03521
G1 E-0.04000 F2100.00000
G1 Z0.800 F10800.000
G1 X163.228 Y50.841
G1 Z0.200
G1 E0.80000 F2100.00000
G1 F1200
G1 X160.921 Y48.533 E0.10246
G1 X160.563 Y48.430 E0.01169
G1 X160.252 Y48.399 E0.00980
G1 X163.101 Y51.248 E0.12649
G1 X163.130 Y51.543 E0.00931
G1 X163.130 Y51.811 E0.00841
G1 X159.689 Y48.370 E0.15279
G1 X159.155 Y48.370 E0.01677
G1 X163.130 Y52.345 E0.17650
G1 X163.130 Y52.879 E0.01677
G1 X158.621 Y48.370 E0.20021
G1 X158.087 Y48.370 E0.01677
G1 X163.130 Y53.413 E0.22393
G1 X163.130 Y53.947 E0.01677
G1 X157.553 Y48.370 E0.24764
G1 X157.019 Y48.370 E0.01677
G1 X163.130 Y54.481 E0.27136
G1 X163.130 Y55.015 E0.01677
G1 X156.485 Y48.370 E0.29507
G1 X155.951 Y48.370 E0.01677
G1 X163.130 Y55.549 E0.31878
G1 X163.130 Y56.083 E0.01677
G1 X155.417 Y48.370 E0.34250
G1 X154.883 Y48.370 E0.01677
G1 X163.130 Y56.617 E0.36621
G1 X163.130 Y57.151 E0.01677
G1 X154.349 Y48.370 E0.38992
G1 X153.815 Y48.370 E0.01677
G1 X163.130 Y57.685 E0.41364
G1 X163.130 Y58.219 E0.01677
G1 X153.281 Y48.370 E0.43735
G1 X152.747 Y48.370 E0.01677
G1 X163.130 Y58.753 E0.46106
G1 X163.130 Y59.287 E0.01677
G1 X152.213 Y48.370 E0.48478
G1 X151.679 Y48.370 E0.01677
G1 X163.130 Y59.821 E0.50849
G1 X163.130 Y60.355 E0.01677
G1 X151.145 Y48.370 E0.53221
G1 X150.611 Y48.370 E0.01677
G1 X163.130 Y60.889 E0.55592
G1 X163.130 Y61.423 E0.01677
G1 X150.077 Y48.370 E0.57963
G1 X149.543 Y48.370 E0.01677
G1 X163.130 Y61.957 E0.60335
G1 X163.130 Y62.491 E0.01677
G1 X149.009 Y48.370 E0.62706
G1 X148.475 Y48.370 E0.01677
G1 X163.130 Y63.025 E0.65077
G1 X163.130 Y63.559 E0.01677
G1 X147.941 Y48.370 E0.67449
G1 X147.407 Y48.370 E0.01677
G1 X163.130 Y64.093 E0.69820
G1 X163.130 Y64.627 E0.01677
G1 X146.873 Y48.370 E0.72191
G1 X146.339 Y48.370 E0.01677
G1 X163.130 Y65.161 E0.74563
G1 X163.130 Y65.695 E0.01677
G1 X145.805 Y48.370 E0.76934
G1 X145.271 Y48.370 E0.01677
G1 X163.130 Y66.229 E0.79305
G1 X163.130 Y66.764 E0.01677
G1 X144.736 Y48.370 E0.81677
G1 X144.202 Y48.370 E0.01677
G1 X163.130 Y67.298 E0.84048
G1 X163.130 Y67.832 E0.01677
G1 X143.668 Y48.370 E0.86420
G1 X143.134 Y48.370 E0.01677
G1 X163.130 Y68.366 E0.88791
G1 X163.130 Y68.900 E0.01677
G1 X142.600 Y48.370 E0.91162
G1 X142.066 Y48.370 E0.01677
G1 X163.130 Y69.434 E0.93534
G1 X163.130 Y69.968 E0.01677
G1 X141.532 Y48.370 E0.95905
G1 X140.998 Y48.370 E0.01677
G1 X163.130 Y70.502 E0.98276
G1 X163.130 Y71.036 E0.01677
G1 X140.464 Y48.370 E1.00648
G1 X139.930 Y48.370 E0.01677
G1 X163.130 Y71.570 E1.03019
G1 X163.130 Y72.104 E0.01677
G1 X139.396 Y48.370 E1.05390
G1 X138.862 Y48.370 E0.01677
G1 X163.130 Y72.638 E1.07762
G1 X163.130 Y73.172 E0.01677
G1 X138.328 Y48.370 E1.10133
G1 X137.794 Y48.370 E0.01677
G1 X163.130 Y73.706 E1.12504
G1 X163.130 Y74.240 E0.01677
G1 X137.260 Y48.370 E1.14876
G1 X136.726 Y48.370 E0.01677
G1 X163.130 Y74.774 E1.17247
G1 X163.130 Y75.308 E0.01677
G1 X136.192 Y48.370 E1.19619
G1 X135.658 Y48.370 E0.01677
G1 X163.130 Y75.842 E1.21990
G1 X163.130 Y76.376 E0.01677
G1 X135.124 Y48.370 E1.24361
G1 X134.590 Y48.370 E0.01677
G1 X163.130 Y76.910 E1.26733
G1 X163.130 Y77.444 E0.01677
G1 X134.056 Y48.370 E1.29104
G1 X133.522 Y48.370 E0.01677
G1 X163.130 Y77.978 E1.31475
M73 P2 R90
G1 X163.130 Y78.512 E0.01677
G1 X132.988 Y48.370 E1.33847
G1 X132.454 Y48.370 E0.01677
G1 X163.130 Y79.046 E1.36218
G1 X163.130 Y79.580 E0.01677
G1 X131.920 Y48.370 E1.38589
G1 X131.386 Y48.370 E0.01677
G1 X163.130 Y80.114 E1.40961
G1 X163.130 Y80.648 E0.01677
G1 X130.852 Y48.370 E1.43332
G1 X130.318 Y48.370 E0.01677
G1 X163.130 Y81.182 E1.45703
G1 X163.130 Y81.716 E0.01677
G1 X129.784 Y48.370 E1.48075
G1 X129.250 Y48.370 E0.01677
G1 X163.130 Y82.250 E1.50446
G1 X163.130 Y82.784 E0.01677
G1 X128.716 Y48.370 E1.52818
G1 X128.182 Y48.370 E0.01677
G1 X163.130 Y83.318 E1.55189
G1 X163.130 Y83.853 E0.01677
G1 X127.647 Y48.370 E1.57560
G1 X127.113 Y48.370 E0.01677
G1 X163.130 Y84.387 E1.59932
G1 X163.130 Y84.921 E0.01677
G1 X126.579 Y48.370 E1.62303
G1 X126.045 Y48.370 E0.01677
G1 X163.130 Y85.455 E1.64674
G1 X163.130 Y85.989 E0.01677
G1 X125.511 Y48.370 E1.67046
G1 X124.977 Y48.370 E0.01677
G1 X163.130 Y86.523 E1.69417
G1 X163.130 Y87.057 E0.01677
G1 X124.443 Y48.370 E1.71788
G1 X123.909 Y48.370 E0.01677
G1 X163.130 Y87.591 E1.74160
G1 X163.130 Y88.125 E0.01677
G1 X123.375 Y48.370 E1.76531
G1 X122.841 Y48.370 E0.01677
G1 X163.130 Y88.659 E1.78902
G1 X163.130 Y89.193 E0.01677
G1 X122.307 Y48.370 E1.81274
G1 X121.773 Y48.370 E0.01677
G1 X163.130 Y89.727 E1.83645
G1 X163.130 Y90.261 E0.01677
G1 X121.239 Y48.370 E1.86017
G1 X120.705 Y48.370 E0.01677
G1 X163.130 Y90.795 E1.88388
M73 P3 R89
G1 X163.130 Y91.329 E0.01677
G1 X120.171 Y48.370 E1.90759
G1 X119.637 Y48.370 E0.01677
G1 X163.130 Y91.863 E1.93131
G1 X163.130 Y92.397 E0.01677
G1 X119.103 Y48.370 E1.95502
G1 X118.569 Y48.370 E0.01677
G1 X163.130 Y92.931 E1.97873
G1 X163.130 Y93.465 E0.01677
G1 X118.035 Y48.370 E2.00245
G1 X117.501 Y48.370 E0.01677
G1 X163.130 Y93.999 E2.02616
G1 X163.130 Y94.533 E0.01677
G1 X116.967 Y48.370 E2.04987
G1 X116.433 Y48.370 E0.01677
G1 X163.130 Y95.067 E2.07359
G1 X163.130 Y95.601 E0.01677
G1 X115.899 Y48.370 E2.09730
G1 X115.365 Y48.370 E0.01677
G1 X163.130 Y96.135 E2.12101
G1 X163.130 Y96.669 E0.01677
G1 X114.831 Y48.370 E2.14473
G1 X114.297 Y48.370 E0.01677
G1 X163.130 Y97.203 E2.16844
G1 X163.130 Y97.737 E0.01677
G1 X113.763 Y48.370 E2.19216
G1 X113.229 Y48.370 E0.01677
G1 X163.130 Y98.271 E2.21587
G1 X163.130 Y98.805 E0.01677
G1 X112.695 Y48.370 E2.23958
G1 X112.161 Y48.370 E0.01677
G1 X163.130 Y99.339 E2.26330
G1 X163.130 Y99.873 E0.01677
G1 X111.627 Y48.370 E2.28701
G1 X111.093 Y48.370 E0.01677
G1 X163.130 Y100.407 E2.31072
M73 P4 R87
G1 X163.130 Y100.942 E0.01677
G1 X110.558 Y48.370 E2.33444
G1 X110.024 Y48.370 E0.01677
G1 X163.130 Y101.476 E2.35815
G1 X163.130 Y102.010 E0.01677
G1 X109.490 Y48.370 E2.38186
G1 X108.956 Y48.370 E0.01677
G1 X163.130 Y102.544 E2.40558
G1 X163.130 Y103.078 E0.01677
G1 X108.422 Y48.370 E2.42929
G1 X107.888 Y48.370 E0.01677
G1 X163.130 Y103.612 E2.45301
G1 X163.130 Y104.146 E0.01677
G1 X107.354 Y48.370 E2.47672
G1 X106.820 Y48.370 E0.01677
G1 X163.130 Y104.680 E2.50043
G1 X163.130 Y105.214 E0.01677
G1 X106.286 Y48.370 E2.52415
G1 X105.752 Y48.370 E0.01677
G1 X163.130 Y105.748 E2.54786
G1 X163.130 Y106.282 E0.01677
G1 X105.218 Y48.370 E2.57157
G1 X104.684 Y48.370 E0.01677
G1 X163.130 Y106.816 E2.59529
G1 X163.130 Y107.350 E0.01677
G1 X104.150 Y48.370 E2.61900
G1 X103.616 Y48.370 E0.01677
G1 X163.130 Y107.884 E2.64271
G1 X163.130 Y108.418 E0.01677
G1 X103.082 Y48.370 E2.66643
M73 P5 R86
G1 X102.548 Y48.370 E0.01677
G1 X163.130 Y108.952 E2.69014
G1 X163.130 Y109.486 E0.01677
G1 X102.014 Y48.370 E2.71385
G1 X101.480 Y48.370 E0.01677
G1 X163.130 Y110.020 E2.73757
G1 X163.130 Y110.554 E0.01677
G1 X100.946 Y48.370 E2.76128
G1 X100.412 Y48.370 E0.01677
G1 X163.130 Y111.088 E2.78500
G1 X163.130 Y111.622 E0.01677
G1 X99.878 Y48.370 E2.80871
G1 X99.344 Y48.370 E0.01677
G1 X163.130 Y112.156 E2.83242
G1 X163.130 Y112.690 E0.01677
G1 X98.810 Y48.370 E2.85614
G1 X98.276 Y48.370 E0.01677
G1 X163.130 Y113.224 E2.87985
G1 X163.130 Y113.758 E0.01677
G1 X97.742 Y48.370 E2.90356
G1 X97.208 Y48.370 E0.01677
G1 X163.130 Y114.292 E2.92728
G1 X163.130 Y114.826 E0.01677
G1 X96.674 Y48.370 E2.95099
G1 X96.140 Y48.370 E0.01677
G1 X163.130 Y115.360 E2.97470
G1 X163.130 Y115.894 E0.01677
G1 X95.606 Y48.370 E2.99842
M73 P6 R85
G1 X95.072 Y48.370 E0.01677
G1 X163.130 Y116.428 E3.02213
G1 X163.130 Y116.962 E0.01677
G1 X94.538 Y48.370 E3.04584
G1 X94.004 Y48.370 E0.01677
G1 X163.130 Y117.496 E3.06956
G1 X163.130 Y118.031 E0.01677
G1 X93.469 Y48.370 E3.09327
G1 X92.935 Y48.370 E0.01677
G1 X163.130 Y118.565 E3.11699
G1 X163.130 Y119.099 E0.01677
G1 X92.401 Y48.370 E3.14070
G1 X91.867 Y48.370 E0.01677
G1 X163.130 Y119.633 E3.16441
G1 X163.130 Y120.167 E0.01677
G1 X91.333 Y48.370 E3.18813
G1 X90.799 Y48.370 E0.01677
G1 X163.130 Y120.701 E3.21184
G1 X163.130 Y121.235 E0.01677
G1 X90.265 Y48.370 E3.23555
G1 X90.048 Y48.370 E0.00682
G1 X89.763 Y48.401 E0.00901
G1 X163.130 Y121.769 E3.25786
G1 X163.130 Y122.303 E0.01677
G1 X89.291 Y48.464 E3.27880
M73 P7 R84
G1 X88.882 Y48.588 E0.01344
G1 X163.130 Y122.837 E3.29699
G1 X163.130 Y123.371 E0.01677
G1 X88.522 Y48.763 E3.31297
G1 X88.263 Y48.901 E0.00921
G1 X88.188 Y48.963 E0.00306
G1 X163.130 Y123.905 E3.32780
G1 X163.130 Y124.439 E0.01677
G1 X87.895 Y49.203 E3.34082
G1 X87.790 Y49.290 E0.00427
G1 X87.635 Y49.478 E0.00765
G1 X163.130 Y124.973 E3.35235
G1 X163.130 Y125.507 E0.01677
G1 X87.396 Y49.773 E3.36297
G1 X87.210 Y50.121 E0.01239
G1 X163.130 Y126.041 E3.37123
G1 X163.130 Y126.575 E0.01677
G1 X87.053 Y50.498 E3.37819
G1 X86.932 Y50.911 E0.01351
G1 X163.130 Y127.109 E3.38356
G1 X163.130 Y127.643 E0.01677
G1 X86.884 Y51.397 E3.38569
G1 X86.870 Y51.917 E0.01632
G1 X163.130 Y128.177 E3.38633
G1 X163.130 Y128.711 E0.01677
G1 X86.870 Y52.451 E3.38633
M73 P9 R83
G1 X86.870 Y52.985 E0.01677
G1 X163.130 Y129.245 E3.38633
G1 X163.130 Y129.779 E0.01677
G1 X86.870 Y53.519 E3.38633
G1 X86.870 Y54.053 E0.01677
G1 X163.130 Y130.313 E3.38633
G1 X163.130 Y130.847 E0.01677
G1 X86.870 Y54.587 E3.38633
G1 X86.870 Y55.121 E0.01677
G1 X163.130 Y131.381 E3.38633
G1 X163.130 Y131.915 E0.01677
G1 X86.870 Y55.655 E3.38633
G1 X86.870 Y56.189 E0.01677
G1 X163.130 Y132.449 E3.38633
G1 X163.130 Y132.983 E0.01677
G1 X86.870 Y56.723 E3.38633
G1 X86.870 Y57.257 E0.01677
G1 X163.130 Y133.517 E3.38633
G1 X163.130 Y134.051 E0.01677
G1 X86.870 Y57.791 E3.38633
G1 X86.870 Y58.325 E0.01677
G1 X163.130 Y134.585 E3.38633
G1 X163.130 Y135.120 E0.01677
G1 X86.870 Y58.859 E3.38633
M73 P10 R82
G1 X86.870 Y59.393 E0.01677
G1 X163.130 Y135.654 E3.38633
G1 X163.130 Y136.188 E0.01677
G1 X86.870 Y59.927 E3.38633
G1 X86.870 Y60.461 E0.01677
G1 X163.130 Y136.722 E3.38633
G1 X163.130 Y137.256 E0.01677
G1 X86.870 Y60.995 E3.38633
G1 X86.870 Y61.529 E0.01677
G1 X163.130 Y137.790 E3.38633
G1 X163.130 Y138.324 E0.01677
G1 X86.870 Y62.063 E3.38633
G1 X86.870 Y62.597 E0.01677
G1 X163.130 Y138.858 E3.38633
G1 X163.130 Y139.392 E0.01677
G1 X86.870 Y63.131 E3.38633
G1 X86.870 Y63.666 E0.01677
G1 X163.130 Y139.926 E3.38633
G1 X163.130 Y140.460 E0.01677
G1 X86.870 Y64.200 E3.38633
G1 X86.870 Y64.734 E0.01677
G1 X163.130 Y140.994 E3.38633
G1 X163.130 Y141.528 E0.01677
G1 X86.870 Y65.268 E3.38633
M73 P11 R81
G1 X86.870 Y65.802 E0.01677
G1 X163.130 Y142.062 E3.38633
G1 X163.130 Y142.596 E0.01677
G1 X86.870 Y66.336 E3.38633
G1 X86.870 Y66.870 E0.01677
G1 X163.130 Y143.130 E3.38633
G1 X163.130 Y143.664 E0.01677
G1 X86.870 Y67.404 E3.38633
G1 X86.870 Y67.938 E0.01677
G1 X163.130 Y144.198 E3.38633
G1 X163.130 Y144.732 E0.01677
G1 X86.870 Y68.472 E3.38633
G1 X86.870 Y69.006 E0.01677
G1 X163.130 Y145.266 E3.38633
G1 X163.130 Y145.800 E0.01677
G1 X86.870 Y69.540 E3.38633
G1 X86.870 Y70.074 E0.01677
G1 X163.130 Y146.334 E3.38633
G1 X163.130 Y146.868 E0.01677
