; generated by PrusaSlicer 2.1.1+win64 on 2020-04-03 at 19:57:33 UTC

; 

; external perimeters extrusion width = 0.45mm
; perimeters extrusion width = 0.45mm
; infill extrusion width = 0.45mm
; solid infill extrusion width = 0.45mm
; top infill extrusion width = 0.40mm
; first layer extrusion width = 0.42mm

M73 P0 R139
M201 X9000 Y9000 Z500 E10000 ; sets maximum accelerations, mm/sec^2
M203 X500 Y500 Z12 E120 ; sets maximum feedrates, mm/sec
M204 P2000 R1500 T2000 ; sets acceleration (P, T) and retract acceleration (R), mm/sec^2
M205 X10.00 Y10.00 Z0.20 E2.50 ; sets the jerk limits, mm/sec
M205 S0 T0 ; sets the minimum extruding and travel feed rate, mm/sec
M107
M862.3 P "MK2S" ; printer model check
M862.1 P0.4 ; nozzle diameter check
M115 U3.2.3 ; tell printer latest fw version
G90 ; use absolute coordinates
M83 ; extruder relative mode
M204 S2000 T1500 ; MK2 firmware only supports the old M204 format
M104 S215 ; set extruder temp
M140 S60 ; set bed temp
M190 S60 ; wait for bed temp
M109 S215 ; wait for extruder temp
G28 W ; home all without mesh bed level
G80 ; mesh bed leveling
G1 Y-3.0 F1000.0 ; go outside print area
G92 E0.0
G1 X60.0 E9.0  F1000.0 ; intro line
M73 P0 R139
G1 X100.0 E12.5 F1000.0 ; intro line
G92 E0.0
G21 ; set units to millimeters
G90 ; use absolute coordinates
M83 ; use relative distances for extrusion
M900 K30 ; Filament gcode
;BEFORE_LAYER_CHANGE
G92 E0.0
;0.2


G1 E-0.80000 F2100.00000
G1 Z0.600 F10800.000
;AFTER_LAYER_CHANGE
;0.2
G1 X85.640 Y47.108
G1 Z0.200
G1 E0.80000 F2100.00000
M204 S1000
G1 F1200
G1 X86.717 Y46.261 E0.04294
G1 X87.620 Y45.788 E0.03198
G1 X88.569 Y45.487 E0.03123
G1 X89.914 Y45.313 E0.04252
G1 X160.004 Y45.311 E2.19761
G1 X161.201 Y45.429 E0.03774
G1 X162.361 Y45.780 E0.03799
G1 X163.434 Y46.352 E0.03811
G1 X164.364 Y47.112 E0.03765
G1 X165.138 Y48.051 E0.03817
G1 X165.706 Y49.106 E0.03758
G1 X166.066 Y50.277 E0.03839
G1 X166.186 Y51.396 E0.03529
G1 X166.188 Y158.518 E3.35875
G1 X166.012 Y159.934 E0.04474
G1 X165.712 Y160.882 E0.03116
G1 X165.188 Y161.872 E0.03514
G1 X164.360 Y162.892 E0.04118
G1 X163.280 Y163.740 E0.04305
G1 X162.380 Y164.212 E0.03187
G1 X161.427 Y164.514 E0.03134
G1 X160.057 Y164.688 E0.04332
G1 X89.971 Y164.688 E2.19750
G1 X88.562 Y164.511 E0.04451
G1 X87.615 Y164.210 E0.03116
G1 X86.628 Y163.688 E0.03503
G1 X85.608 Y162.860 E0.04118
G1 X84.758 Y161.777 E0.04316
G1 X84.288 Y160.880 E0.03175
G1 X83.984 Y159.920 E0.03157
G1 X83.812 Y158.538 E0.04366
G1 X83.812 Y51.482 E3.35669
G1 X83.988 Y50.066 E0.04474
G1 X84.290 Y49.115 E0.03128
G1 X84.812 Y48.128 E0.03503
G1 X85.602 Y47.155 E0.03930
G1 F8640
G1 X86.717 Y46.261 E-0.32972
G1 X87.620 Y45.788 E-0.23548
G1 X88.424 Y45.533 E-0.19480
G1 E-0.04000 F2100.00000
G1 Z0.800 F10800.000
G1 X139.894 Y116.296
G1 Z0.200
G1 E0.80000 F2100.00000
G1 F1200
G1 X144.215 Y116.296 E0.13549
G1 X145.252 Y116.490 E0.03305
G1 X145.750 Y116.679 E0.01671
G1 X146.008 Y116.834 E0.00942
G1 X146.234 Y117.024 E0.00927
G1 X146.422 Y117.251 E0.00926
G1 X146.575 Y117.510 E0.00941
G1 X146.761 Y118.009 E0.01670
G1 X146.954 Y119.058 E0.03346
G1 X146.933 Y119.498 E0.01380
G1 X146.884 Y119.904 E0.01282
G1 X146.780 Y120.302 E0.01289
G1 X146.519 Y121.049 E0.02481
G1 X144.320 Y121.049 E0.06893
G1 X144.488 Y120.716 E0.01166
G1 X144.420 Y120.791 E0.00316
G1 X144.119 Y120.976 E0.01109
G1 X144.209 Y121.014 E0.00309
G1 X144.524 Y121.264 E0.01260
G1 X144.784 Y121.591 E0.01309
G1 X144.966 Y121.948 E0.01257
G1 X145.114 Y122.498 E0.01786
G1 X145.164 Y123.086 E0.01850
G1 X145.106 Y123.779 E0.02179
G1 X144.790 Y124.810 E0.03383
G1 X142.456 Y124.810 E0.07319
G1 X142.772 Y124.305 E0.01868
G1 X142.477 Y124.562 E0.01228
G1 X142.187 Y124.706 E0.01015
G1 X141.858 Y124.791 E0.01065
G1 X141.779 Y124.792 E0.00246
G1 X141.779 Y124.956 E0.00516
G1 X145.068 Y124.956 E0.10313
G1 X145.068 Y127.037 E0.06523
G1 X143.253 Y127.037 E0.05692
G1 X143.493 Y127.091 E0.00773
G1 X143.965 Y127.334 E0.01663
G1 X144.415 Y127.661 E0.01743
G1 X144.749 Y128.104 E0.01741
G1 X144.999 Y128.573 E0.01666
G1 X145.119 Y129.088 E0.01656
G1 X145.164 Y129.602 E0.01619
G1 X145.120 Y130.105 E0.01584
G1 X145.002 Y130.609 E0.01622
G1 X144.758 Y131.069 E0.01631
G1 X144.432 Y131.503 E0.01703
G1 X143.994 Y131.824 E0.01702
G1 X143.505 Y132.070 E0.01715
G1 X145.068 Y132.070 E0.04901
G1 X145.068 Y134.177 E0.06609
G1 X142.639 Y134.177 E0.07618
G1 X142.639 Y135.640 E0.04586
G1 X145.068 Y135.640 E0.07618
G1 X145.068 Y137.744 E0.06596
G1 X138.293 Y137.744 E0.21245
G1 X138.293 Y135.640 E0.06596
G1 X140.648 Y135.640 E0.07385
G1 X140.648 Y134.177 E0.04586
G1 X138.293 Y134.177 E0.07385
G1 X138.293 Y132.070 E0.06609
G1 X141.503 Y132.070 E0.10066
G1 X140.994 Y131.815 E0.01783
G1 X140.532 Y131.476 E0.01798
G1 X140.201 Y131.018 E0.01773
G1 X139.957 Y130.541 E0.01679
G1 X139.841 Y130.021 E0.01668
G1 X139.798 Y129.505 E0.01626
G1 X139.839 Y129.008 E0.01561
G1 X139.954 Y128.507 E0.01613
G1 X140.196 Y128.049 E0.01625
G1 X140.446 Y127.720 E0.01295
G1 X139.894 Y127.720 E0.01732
G1 X139.894 Y127.037 E0.02143
G1 X139.449 Y127.002 E0.01400
G1 X139.061 Y126.903 E0.01256
G1 X138.712 Y126.699 E0.01266
G1 X138.395 Y126.433 E0.01298
G1 X138.167 Y126.096 E0.01276
G1 X137.997 Y125.749 E0.01212
G1 X137.911 Y125.363 E0.01238
G1 X137.884 Y124.857 E0.01589
G1 X137.902 Y124.641 E0.00678
G1 X138.076 Y123.882 E0.02443
G1 X140.114 Y123.882 E0.06389
G1 X140.015 Y123.697 E0.00658
G1 X139.895 Y123.342 E0.01175
G1 X139.823 Y122.965 E0.01204
G1 X139.799 Y122.582 E0.01203
G1 X139.844 Y121.984 E0.01881
G1 X140.104 Y121.007 E0.03169
G1 X141.036 Y121.007 E0.02921
G1 X140.619 Y120.765 E0.01512
G1 X140.264 Y120.384 E0.01632
G1 X139.989 Y119.959 E0.01586
G1 X139.852 Y119.475 E0.01580
G1 X139.796 Y118.975 E0.01577
G1 X139.858 Y118.511 E0.01466
G1 X139.894 Y118.369 E0.00460
G1 X139.894 Y116.356 E0.06311
G1 F8640
G1 X143.185 Y116.311 E-0.76000
G1 E-0.04000 F2100.00000
G1 Z0.800 F10800.000
G1 X138.670 Y132.447
G1 Z0.200
G1 E0.80000 F2100.00000
G1 F1200
G1 X144.691 Y132.447 E0.18880
G1 X144.691 Y133.800 E0.04244
G1 X142.262 Y133.800 E0.07618
G1 X142.262 Y136.017 E0.06950
G1 X144.691 Y136.017 E0.07618
G1 X144.691 Y137.367 E0.04232
G1 X138.670 Y137.367 E0.18880
G1 X138.670 Y136.017 E0.04232
G1 X141.025 Y136.017 E0.07385
G1 X141.025 Y133.800 E0.06950
G1 X138.670 Y133.800 E0.07385
G1 X138.670 Y132.507 E0.04056
G1 X138.533 Y132.071 F10800.000
G1 F8640
G1 X141.961 Y132.474 E-0.76000
G1 E-0.04000 F2100.00000
G1 Z0.800 F10800.000
G1 X140.803 Y131.207
G1 Z0.200
G1 E0.80000 F2100.00000
G1 F1200
G1 X140.523 Y130.820 E0.01497
G1 X140.315 Y130.412 E0.01438
G1 X140.215 Y129.964 E0.01437
G1 X140.177 Y129.504 E0.01447
G1 X140.213 Y129.066 E0.01379
G1 X140.310 Y128.640 E0.01372
G1 X140.515 Y128.253 E0.01373
G1 X140.792 Y127.889 E0.01432
G1 X141.177 Y127.625 E0.01465
G1 X141.582 Y127.431 E0.01408
G1 X142.073 Y127.338 E0.01565
G1 X142.467 Y127.309 E0.01240
G1 X142.921 Y127.348 E0.01429
G1 X143.363 Y127.449 E0.01422
G1 X143.767 Y127.656 E0.01423
G1 X144.148 Y127.933 E0.01476
G1 X144.430 Y128.308 E0.01472
G1 X144.643 Y128.707 E0.01419
G1 X144.746 Y129.148 E0.01418
G1 X144.786 Y129.602 E0.01431
G1 X144.747 Y130.046 E0.01396
G1 X144.646 Y130.475 E0.01384
G1 X144.439 Y130.866 E0.01385
G1 X144.164 Y131.232 E0.01436
G1 X143.794 Y131.503 E0.01437
G1 X143.402 Y131.706 E0.01386
G1 X142.972 Y131.806 E0.01385
G1 X142.529 Y131.844 E0.01393
G1 X142.062 Y131.807 E0.01470
G1 X141.607 Y131.707 E0.01459
G1 X141.193 Y131.494 E0.01460
G1 X140.851 Y131.242 E0.01331
G1 X140.414 Y131.299 F10800.000
G1 F8640
G1 X140.523 Y130.820 E-0.12349
G1 X140.315 Y130.412 E-0.10589
G1 X140.215 Y129.964 E-0.10583
G1 X140.177 Y129.504 E-0.10656
G1 X140.213 Y129.066 E-0.10154
G1 X140.310 Y128.640 E-0.10101
G1 X140.515 Y128.253 E-0.10108
G1 X140.553 Y128.203 E-0.01460
G1 E-0.04000 F2100.00000
G1 Z0.800 F10800.000
G1 X144.512 Y124.433
G1 Z0.200
G1 E0.80000 F2100.00000
G1 F1200
G1 X143.137 Y124.433 E0.04309
G1 X143.493 Y123.865 E0.02103
G1 X143.605 Y123.626 E0.00826
G1 X143.664 Y123.370 E0.00824
G1 X143.693 Y123.094 E0.00871
G1 X143.687 Y122.842 E0.00788
G1 X143.641 Y122.656 E0.00603
G1 X143.559 Y122.576 E0.00358
G1 X143.396 Y122.502 E0.00562
G1 X143.327 Y122.517 E0.00221
G1 X143.224 Y122.613 E0.00441
G1 X143.133 Y122.770 E0.00569
G1 X142.897 Y123.381 E0.02055
G1 X142.725 Y123.734 E0.01231
G1 X142.524 Y124.022 E0.01101
G1 X142.266 Y124.246 E0.01072
G1 X142.055 Y124.351 E0.00739
G1 X141.807 Y124.414 E0.00801
G1 X141.402 Y124.417 E0.01270
G1 X141.402 Y125.333 E0.02874
G1 X144.691 Y125.333 E0.10313
G1 X144.691 Y126.660 E0.04158
G1 X141.402 Y126.660 E0.10313
G1 X141.402 Y127.343 E0.02143
G1 X140.271 Y127.343 E0.03546
G1 X140.271 Y126.660 E0.02143
G1 X139.823 Y126.660 E0.01407
G1 X139.514 Y126.630 E0.00971
G1 X139.206 Y126.550 E0.01000
G1 X138.930 Y126.389 E0.01001
G1 X138.677 Y126.178 E0.01033
G1 X138.494 Y125.907 E0.01027
G1 X138.355 Y125.623 E0.00990
G1 X138.286 Y125.312 E0.01000
G1 X138.262 Y124.862 E0.01411
G1 X138.275 Y124.699 E0.00513
G1 X138.377 Y124.259 E0.01415
G1 X139.607 Y124.259 E0.03860
G1 X139.423 Y124.723 E0.01565
G1 X139.405 Y124.875 E0.00479
G1 X139.461 Y125.111 E0.00761
G1 X139.496 Y125.190 E0.00272
G1 X139.592 Y125.271 E0.00395
G1 X139.953 Y125.337 E0.01149
G1 X140.271 Y125.337 E0.00998
G1 X140.271 Y124.408 E0.02915
G1 X141.349 Y124.408 E0.03381
G1 X141.246 Y124.390 E0.00328
G1 X140.953 Y124.265 E0.01000
G1 X140.707 Y124.070 E0.00985
G1 X140.514 Y123.832 E0.00960
G1 X140.362 Y123.547 E0.01013
G1 X140.260 Y123.246 E0.00996
G1 X140.197 Y122.918 E0.01046
G1 X140.177 Y122.585 E0.01046
G1 X140.218 Y122.047 E0.01691
G1 X140.394 Y121.384 E0.02151
G1 X141.703 Y121.384 E0.04104
G1 X141.414 Y121.911 E0.01883
G1 X141.331 Y122.116 E0.00694
G1 X141.289 Y122.334 E0.00696
G1 X141.270 Y122.566 E0.00730
G1 X141.276 Y122.689 E0.00386
G1 X141.330 Y122.913 E0.00722
G1 X141.453 Y123.081 E0.00654
G1 X141.567 Y123.101 E0.00364
G1 X141.653 Y123.074 E0.00282
G1 X141.735 Y122.987 E0.00375
G1 X141.818 Y122.825 E0.00572
G1 X141.966 Y122.418 E0.01358
G1 X142.131 Y122.052 E0.01256
G1 X142.314 Y121.731 E0.01160
G1 X142.473 Y121.537 E0.00787
G1 X142.652 Y121.383 E0.00740
G1 X142.863 Y121.266 E0.00756
G1 X143.115 Y121.194 E0.00823
G1 X143.270 Y121.177 E0.00488
G1 X143.536 Y121.183 E0.00832
G1 X143.711 Y121.213 E0.00557
G1 X144.015 Y121.342 E0.01036
G1 X144.262 Y121.538 E0.00988
G1 X144.462 Y121.789 E0.01006
G1 X144.612 Y122.084 E0.01040
G1 X144.741 Y122.564 E0.01556
G1 X144.786 Y123.086 E0.01645
G1 X144.734 Y123.707 E0.01952
G1 X144.529 Y124.376 E0.02194
G1 X144.485 Y124.832 F10800.000
G1 F8640
G1 X143.137 Y124.433 E-0.32168
G1 X143.493 Y123.865 E-0.15490
G1 X143.605 Y123.626 E-0.06080
G1 X143.664 Y123.370 E-0.06069
G1 X143.693 Y123.094 E-0.06418
G1 X143.687 Y122.842 E-0.05803
G1 X143.646 Y122.675 E-0.03972
G1 E-0.04000 F2100.00000
G1 Z0.800 F10800.000
G1 X140.271 Y116.673
G1 Z0.200
G1 E0.80000 F2100.00000
G1 F1200
G1 X144.180 Y116.673 E0.12257
G1 X145.149 Y116.855 E0.03090
G1 X145.585 Y117.020 E0.01461
G1 X145.788 Y117.142 E0.00742
G1 X145.965 Y117.291 E0.00726
G1 X146.113 Y117.469 E0.00726
G1 X146.233 Y117.673 E0.00742
G1 X146.397 Y118.110 E0.01461
G1 X146.575 Y119.084 E0.03106
G1 X146.557 Y119.466 E0.01200
G1 X146.512 Y119.833 E0.01159
G1 X146.419 Y120.192 E0.01161
G1 X146.251 Y120.671 E0.01594
G1 X144.933 Y120.671 E0.04133
G1 X145.231 Y120.080 E0.02077
G1 X145.342 Y119.801 E0.00941
G1 X145.405 Y119.510 E0.00935
G1 X145.437 Y119.222 E0.00906
G1 X145.339 Y118.673 E0.01751
G1 X145.260 Y118.457 E0.00720
G1 X145.151 Y118.300 E0.00599
G1 X144.997 Y118.188 E0.00596
G1 X144.784 Y118.106 E0.00715
G1 X144.391 Y118.031 E0.01255
G1 X144.569 Y118.267 E0.00928
G1 X144.663 Y118.480 E0.00728
G1 X144.722 Y118.701 E0.00720
G1 X144.787 Y119.154 E0.01434
G1 X144.742 Y119.535 E0.01204
G1 X144.639 Y119.895 E0.01174
G1 X144.437 Y120.211 E0.01175
G1 X144.177 Y120.498 E0.01213
G1 X143.810 Y120.723 E0.01349
G1 X143.430 Y120.888 E0.01301
G1 X143.023 Y120.965 E0.01299
G1 X142.611 Y120.992 E0.01295
G1 X142.151 Y120.964 E0.01445
G1 X141.697 Y120.883 E0.01444
G1 X141.271 Y120.708 E0.01446
G1 X140.857 Y120.467 E0.01502
G1 X140.563 Y120.151 E0.01352
G1 X140.337 Y119.802 E0.01305
G1 X140.223 Y119.402 E0.01305
G1 X140.176 Y118.979 E0.01334
G1 X140.229 Y118.583 E0.01251
G1 X140.279 Y118.387 E0.00634
G1 X140.359 Y118.198 E0.00644
G1 X140.503 Y118.000 E0.00769
G1 X140.271 Y118.000 E0.00726
G1 X140.271 Y116.733 E0.03970
G1 X140.248 Y116.274 F10800.000
G1 F8640
G1 X143.562 Y116.683 E-0.76000
G1 E-0.04000 F2100.00000
G1 Z0.800 F10800.000
G1 X139.894 Y108.667
G1 Z0.200
G1 E0.80000 F2100.00000
G1 F1200
G1 X145.068 Y108.667 E0.16223
G1 X145.068 Y110.748 E0.06523
G1 X145.052 Y110.748 E0.00052
G1 X145.094 Y110.900 E0.00495
G1 X145.173 Y111.436 E0.01701
G1 X144.958 Y112.249 E0.02636
G1 X144.777 Y112.621 E0.01297
G1 X144.627 Y112.819 E0.00780
G1 X144.436 Y112.997 E0.00818
G1 X144.066 Y113.203 E0.01328
G1 X143.660 Y113.319 E0.01325
G1 X142.906 Y113.408 E0.02378
G1 X141.980 Y113.408 E0.02906
G1 X141.815 Y113.765 E0.01233
G1 X141.807 Y113.839 E0.00232
G1 X141.834 Y113.953 E0.00367
G1 X141.922 Y114.046 E0.00401
G1 X142.203 Y114.172 E0.00964
G1 X142.368 Y114.199 E0.00525
G1 X145.068 Y114.210 E0.08468
G1 X145.068 Y116.291 E0.06523
G1 X139.894 Y116.291 E0.16223
G1 X139.898 Y114.210 E0.06523
G1 X139.820 Y113.792 E0.01334
G1 X139.844 Y113.451 E0.01073
G1 X139.894 Y113.300 E0.00498
G1 X139.894 Y111.327 E0.06185
G1 X142.751 Y111.327 E0.08956
G1 X143.078 Y111.297 E0.01032
G1 X143.173 Y111.268 E0.00311
G1 X143.259 Y111.031 E0.00791
G1 X143.242 Y110.960 E0.00228
G1 X143.172 Y110.869 E0.00359
G1 X143.010 Y110.780 E0.00580
G1 X142.911 Y110.759 E0.00317
G1 X139.894 Y110.748 E0.09460
G1 X139.894 Y108.727 E0.06335
G1 F8640
G1 X143.185 Y108.689 E-0.76000
G1 E-0.04000 F2100.00000
G1 Z0.800 F10800.000
G1 X140.334 Y113.173
G1 Z0.200
G1 E0.80000 F2100.00000
G1 F1200
G1 X141.673 Y113.173 E0.04198
G1 X141.446 Y113.664 E0.01695
G1 X141.427 Y113.850 E0.00585
G1 X141.452 Y114.003 E0.00485
G1 X141.499 Y114.135 E0.00441
G1 X141.586 Y114.248 E0.00448
G1 X141.702 Y114.355 E0.00493
G1 X141.897 Y114.460 E0.00693
G1 X142.105 Y114.538 E0.00697
G1 X142.327 Y114.574 E0.00707
G1 X142.573 Y114.587 E0.00771
G1 X144.691 Y114.587 E0.06642
G1 X144.691 Y115.914 E0.04158
G1 X140.271 Y115.914 E0.13859
G1 X140.271 Y114.587 E0.04158
G1 X140.576 Y114.587 E0.00955
G1 X140.491 Y114.517 E0.00344
G1 X140.370 Y114.344 E0.00663
G1 X140.271 Y114.157 E0.00663
G1 X140.200 Y113.770 E0.01233
G1 X140.217 Y113.525 E0.00772
G1 X140.315 Y113.230 E0.00973
G1 X140.363 Y112.774 F10800.000
G1 X140.315 Y113.031
G1 F1200
G1 X140.271 Y113.031 E0.00136
G1 X140.271 Y111.705 E0.04158
G1 X142.768 Y111.705 E0.07829
G1 X143.151 Y111.669 E0.01207
G1 X143.365 Y111.604 E0.00699
G1 X143.442 Y111.549 E0.00297
G1 X143.547 Y111.382 E0.00618
G1 X143.642 Y111.064 E0.01041
G1 X143.589 Y110.804 E0.00831
G1 X143.421 Y110.581 E0.00877
G1 X143.129 Y110.419 E0.01045
G1 X142.964 Y110.385 E0.00529
G1 X142.774 Y110.371 E0.00597
G1 X140.271 Y110.371 E0.07847
G1 X140.271 Y109.044 E0.04158
G1 X144.691 Y109.044 E0.13859
G1 X144.691 Y110.371 E0.04158
G1 X144.416 Y110.371 E0.00863
G1 X144.576 Y110.574 E0.00811
G1 X144.667 Y110.771 E0.00682
G1 X144.724 Y110.978 E0.00673
G1 X144.789 Y111.415 E0.01384
G1 X144.603 Y112.117 E0.02278
G1 X144.454 Y112.423 E0.01066
G1 X144.346 Y112.566 E0.00563
G1 X144.213 Y112.690 E0.00571
G1 X143.921 Y112.852 E0.01047
G1 X143.585 Y112.948 E0.01094
G1 X142.884 Y113.031 E0.02213
G1 X140.375 Y113.031 E0.07868
G1 X140.293 Y113.069 F10800.000
G1 F8640
G1 X140.271 Y113.031 E-0.02390
G1 X140.271 Y111.705 E-0.30623
G1 X142.133 Y111.705 E-0.42986
G1 E-0.04000 F2100.00000
G1 Z0.800 F10800.000
G1 X137.972 Y99.183
G1 Z0.200
G1 E0.80000 F2100.00000
G1 F1200
G1 X145.068 Y99.183 E0.22249
G1 X145.068 Y101.263 E0.06523
G1 X145.027 Y101.263 E0.00130
G1 X145.092 Y101.507 E0.00792
G1 X145.167 Y102.032 E0.01662
G1 X145.113 Y102.494 E0.01458
G1 X144.986 Y102.939 E0.01451
G1 X144.735 Y103.329 E0.01455
G1 X144.413 Y103.681 E0.01496
G1 X144.004 Y103.925 E0.01492
G1 X145.068 Y103.925 E0.03337
G1 X145.068 Y106.006 E0.06523
