; generated by PrusaSlicer 2.2.0+win64 on 2020-05-19 at 19:48:01 UTC

; 

; external perimeters extrusion width = 0.45mm
; perimeters extrusion width = 0.45mm
; infill extrusion width = 0.45mm
; solid infill extrusion width = 0.45mm
; top infill extrusion width = 0.40mm
; first layer extrusion width = 0.42mm

M73 P0 R69
M201 X9000 Y9000 Z500 E10000 ; sets maximum accelerations, mm/sec^2
M203 X500 Y500 Z12 E120 ; sets maximum feedrates, mm/sec
M204 P2000 R1500 T2000 ; sets acceleration (P, T) and retract acceleration (R), mm/sec^2
M205 X10.00 Y10.00 Z0.20 E2.50 ; sets the jerk limits, mm/sec
M205 S0 T0 ; sets the minimum extruding and travel feed rate, mm/sec
M107 ; disable fan
M862.3 P "MK2S" ; printer model check
M862.1 P0.4 ; nozzle diameter check
M115 U3.2.3 ; tell printer latest fw version
G90 ; use absolute coordinates
M83 ; extruder relative mode
M204 S2000 T1500 ; MK2 firmware only supports the old M204 format
M104 S220 ; set extruder temp
M140 S80 ; set bed temp
M190 S80 ; wait for bed temp
M109 S220 ; wait for extruder temp
G28 W ; home all without mesh bed level
G80 ; mesh bed leveling
G1 Y-3.0 F1000.0 ; go outside print area
G92 E0.0
G1 X60.0 E9.0  F1000.0 ; intro line
M73 P0 R69
G1 X100.0 E12.5 F1000.0 ; intro line
G92 E0.0
G21 ; set units to millimeters
G90 ; use absolute coordinates
M83 ; use relative distances for extrusion
M900 K45 ; Filament gcode
;BEFORE_LAYER_CHANGE
G92 E0.0
;0.2


G1 E-0.80000 F2100.00000 ; retract
G1 Z0.600 F10800.000 ; lift Z
;AFTER_LAYER_CHANGE
;0.2
G1 X98.637 Y83.380 ; move to first skirt point
G1 Z0.200 ; restore layer Z
G1 E0.80000 F2100.00000 ; unretract
M204 S1000 ; adjust acceleration
G1 F1200.000
G1 X99.982 Y81.837 E0.06419 ; skirt
G1 X101.464 Y80.333 E0.06620 ; skirt
G1 X103.104 Y78.870 E0.06892 ; skirt
G1 X104.712 Y77.603 E0.06419 ; skirt
G1 X106.451 Y76.398 E0.06632 ; skirt
G1 X108.264 Y75.302 E0.06644 ; skirt
G1 X110.078 Y74.353 E0.06417 ; skirt
G1 X112.081 Y73.457 E0.06882 ; skirt
G1 X114.063 Y72.718 E0.06632 ; skirt
G1 X116.021 Y72.122 E0.06417 ; skirt
G1 X118.156 Y71.612 E0.06882 ; skirt
G1 X120.240 Y71.254 E0.06632 ; skirt
G1 X122.275 Y71.031 E0.06417 ; skirt
G1 X124.505 Y70.927 E0.07002 ; skirt
G1 X126.582 Y70.961 E0.06512 ; skirt
G1 X128.626 Y71.120 E0.06429 ; skirt
G1 X130.867 Y71.437 E0.07095 ; skirt
G1 X132.872 Y71.850 E0.06419 ; skirt
G1 X134.913 Y72.404 E0.06632 ; skirt
G1 X136.920 Y73.085 E0.06644 ; skirt
G1 X138.814 Y73.860 E0.06417 ; skirt
G1 X140.851 Y74.847 E0.07097 ; skirt
G1 X142.636 Y75.856 E0.06429 ; skirt
G1 X144.410 Y77.008 E0.06632 ; skirt
G1 X146.170 Y78.317 E0.06880 ; skirt
G1 X147.735 Y79.637 E0.06419 ; skirt
G1 X149.265 Y81.098 E0.06632 ; skirt
G1 X150.703 Y82.654 E0.06644 ; skirt
G1 X151.998 Y84.239 E0.06417 ; skirt
G1 X153.279 Y86.021 E0.06882 ; skirt
G1 X154.402 Y87.814 E0.06632 ; skirt
G1 X155.381 Y89.615 E0.06429 ; skirt
G1 X156.334 Y91.664 E0.07085 ; skirt
G1 X157.079 Y93.570 E0.06417 ; skirt
G1 X157.708 Y95.522 E0.06429 ; skirt
G1 X158.267 Y97.731 E0.07143 ; skirt
G1 X158.643 Y99.727 E0.06370 ; skirt
G1 X158.905 Y101.830 E0.06644 ; skirt
G1 X159.037 Y103.941 E0.06632 ; skirt
G1 X159.038 Y105.987 E0.06417 ; skirt
G1 X158.897 Y108.247 E0.07097 ; skirt
G1 X158.641 Y110.281 E0.06429 ; skirt
G1 X158.249 Y112.359 E0.06632 ; skirt
G1 X157.705 Y114.485 E0.06880 ; skirt
G1 X157.078 Y116.434 E0.06419 ; skirt
G1 X156.307 Y118.403 E0.06632 ; skirt
G1 X155.413 Y120.325 E0.06644 ; skirt
G1 X154.437 Y122.124 E0.06417 ; skirt
G1 X153.275 Y123.985 E0.06882 ; skirt
G1 X152.042 Y125.704 E0.06632 ; skirt
G1 X150.747 Y127.294 E0.06429 ; skirt
G1 X149.213 Y128.953 E0.07085 ; skirt
G1 X147.732 Y130.366 E0.06417 ; skirt
G1 X146.165 Y131.687 E0.06429 ; skirt
G1 X144.347 Y133.035 E0.07095 ; skirt
G1 X142.629 Y134.148 E0.06419 ; skirt
G1 X140.787 Y135.187 E0.06632 ; skirt
G1 X138.880 Y136.112 E0.06644 ; skirt
G1 X136.987 Y136.889 E0.06417 ; skirt
G1 X134.843 Y137.616 E0.07097 ; skirt
G1 X132.864 Y138.152 E0.06429 ; skirt
G1 X130.796 Y138.576 E0.06620 ; skirt
G1 X128.619 Y138.881 E0.06892 ; skirt
G1 X126.578 Y139.039 E0.06419 ; skirt
G1 X124.497 Y139.073 E0.06524 ; skirt
G1 X122.271 Y138.969 E0.06987 ; skirt
G1 X120.236 Y138.746 E0.06419 ; skirt
G1 X118.148 Y138.386 E0.06644 ; skirt
G1 X116.090 Y137.898 E0.06632 ; skirt
G1 X114.128 Y137.303 E0.06429 ; skirt
G1 X112.008 Y136.512 E0.07095 ; skirt
G1 X110.138 Y135.677 E0.06419 ; skirt
G1 X108.264 Y134.698 E0.06632 ; skirt
G1 X106.450 Y133.602 E0.06644 ; skirt
G1 X104.764 Y132.435 E0.06429 ; skirt
G1 X102.991 Y131.035 E0.07085 ; skirt
G1 X101.464 Y129.666 E0.06429 ; skirt
G1 X99.981 Y128.163 E0.06620 ; skirt
G1 X98.541 Y126.503 E0.06892 ; skirt
G1 X97.297 Y124.877 E0.06419 ; skirt
G1 X96.115 Y123.118 E0.06644 ; skirt
G1 X95.046 Y121.293 E0.06632 ; skirt
G1 X94.121 Y119.463 E0.06429 ; skirt
G1 X93.231 Y117.386 E0.07085 ; skirt
G1 X92.542 Y115.455 E0.06429 ; skirt
G1 X91.956 Y113.423 E0.06632 ; skirt
G1 X91.497 Y111.354 E0.06644 ; skirt
G1 X91.177 Y109.333 E0.06417 ; skirt
G1 X90.963 Y107.079 E0.07097 ; skirt
G1 X90.962 Y102.997 E0.12801 ; skirt
G1 X91.176 Y100.671 E0.07324 ; skirt
G1 X91.497 Y98.642 E0.06441 ; skirt
G1 X91.955 Y96.581 E0.06620 ; skirt
G1 X92.568 Y94.470 E0.06892 ; skirt
G1 X93.258 Y92.542 E0.06419 ; skirt
G1 X94.090 Y90.602 E0.06620 ; skirt
G1 X95.084 Y88.641 E0.06892 ; skirt
G1 X96.119 Y86.875 E0.06419 ; skirt
G1 X97.299 Y85.120 E0.06632 ; skirt
G1 X98.600 Y83.428 E0.06692 ; skirt
G1 F8640.000
G1 X99.982 Y81.837 E-0.48655 ; wipe and retract
G1 X100.813 Y80.994 E-0.27345 ; wipe and retract
G1 E-0.04000 F2100.00000 ; retract
G1 Z0.800 F10800.000 ; lift Z
G1 X94.204 Y102.210 ; move to first perimeter point
G1 Z0.200 ; restore layer Z
G1 E0.80000 F2100.00000 ; unretract
G1 F1200.000
G1 X94.306 Y101.133 E0.03391 ; perimeter
G1 X94.606 Y99.234 E0.06027 ; perimeter
G1 X95.023 Y97.358 E0.06027 ; perimeter
G1 X95.556 Y95.511 E0.06027 ; perimeter
G1 X96.203 Y93.701 E0.06027 ; perimeter
G1 X96.960 Y91.934 E0.06027 ; perimeter
G1 X97.827 Y90.219 E0.06027 ; perimeter
G1 X98.798 Y88.560 E0.06027 ; perimeter
G1 X99.870 Y86.965 E0.06027 ; perimeter
G1 X101.040 Y85.439 E0.06027 ; perimeter
G1 X102.302 Y83.989 E0.06027 ; perimeter
G1 X103.651 Y82.621 E0.06027 ; perimeter
G1 X105.083 Y81.339 E0.06027 ; perimeter
G1 X106.592 Y80.148 E0.06027 ; perimeter
G1 X108.172 Y79.054 E0.06027 ; perimeter
G1 X109.817 Y78.059 E0.06027 ; perimeter
G1 X111.521 Y77.169 E0.06027 ; perimeter
G1 X113.277 Y76.387 E0.06027 ; perimeter
G1 X115.078 Y75.715 E0.06027 ; perimeter
G1 X116.917 Y75.157 E0.06027 ; perimeter
G1 X118.787 Y74.713 E0.06027 ; perimeter
G1 X120.682 Y74.387 E0.06027 ; perimeter
G1 X122.592 Y74.180 E0.06027 ; perimeter
G1 X124.512 Y74.091 E0.06027 ; perimeter
G1 X126.434 Y74.122 E0.06027 ; perimeter
G1 X128.351 Y74.272 E0.06027 ; perimeter
G1 X130.254 Y74.541 E0.06027 ; perimeter
G1 X132.137 Y74.928 E0.06027 ; perimeter
G1 X133.992 Y75.431 E0.06027 ; perimeter
G1 X135.812 Y76.049 E0.06027 ; perimeter
G1 X137.590 Y76.778 E0.06027 ; perimeter
G1 X139.320 Y77.617 E0.06027 ; perimeter
G1 X140.994 Y78.561 E0.06027 ; perimeter
G1 X142.606 Y79.608 E0.06027 ; perimeter
G1 X144.150 Y80.753 E0.06027 ; perimeter
G1 X145.620 Y81.991 E0.06027 ; perimeter
G1 X147.010 Y83.319 E0.06027 ; perimeter
G1 X148.315 Y84.730 E0.06027 ; perimeter
G1 X149.530 Y86.220 E0.06027 ; perimeter
G1 X150.650 Y87.782 E0.06027 ; perimeter
G1 X151.670 Y89.411 E0.06027 ; perimeter
G1 X152.587 Y91.100 E0.06027 ; perimeter
G1 X153.398 Y92.843 E0.06027 ; perimeter
G1 X154.098 Y94.633 E0.06027 ; perimeter
G1 X154.686 Y96.463 E0.06027 ; perimeter
G1 X155.160 Y98.326 E0.06027 ; perimeter
G1 X155.516 Y100.215 E0.06027 ; perimeter
G1 X155.754 Y102.122 E0.06027 ; perimeter
G1 X155.874 Y104.041 E0.06027 ; perimeter
G1 X155.874 Y105.963 E0.06027 ; perimeter
G1 X155.754 Y107.881 E0.06027 ; perimeter
G1 X155.515 Y109.788 E0.06027 ; perimeter
G1 X155.159 Y111.677 E0.06027 ; perimeter
G1 X154.686 Y113.540 E0.06027 ; perimeter
G1 X154.097 Y115.370 E0.06027 ; perimeter
G1 X153.397 Y117.160 E0.06027 ; perimeter
G1 X152.586 Y118.903 E0.06027 ; perimeter
G1 X151.668 Y120.592 E0.06027 ; perimeter
G1 X150.648 Y122.221 E0.06027 ; perimeter
G1 X149.528 Y123.783 E0.06027 ; perimeter
G1 X148.313 Y125.272 E0.06027 ; perimeter
G1 X147.008 Y126.684 E0.06027 ; perimeter
G1 X145.618 Y128.011 E0.06027 ; perimeter
G1 X144.148 Y129.249 E0.06027 ; perimeter
G1 X142.604 Y130.394 E0.06027 ; perimeter
G1 X140.991 Y131.440 E0.06027 ; perimeter
G1 X139.317 Y132.385 E0.06027 ; perimeter
G1 X137.587 Y133.223 E0.06027 ; perimeter
G1 X135.809 Y133.952 E0.06027 ; perimeter
G1 X133.989 Y134.570 E0.06027 ; perimeter
G1 X132.133 Y135.073 E0.06027 ; perimeter
G1 X130.251 Y135.459 E0.06027 ; perimeter
G1 X128.347 Y135.728 E0.06027 ; perimeter
G1 X126.431 Y135.878 E0.06027 ; perimeter
G1 X124.509 Y135.909 E0.06027 ; perimeter
G1 X122.589 Y135.820 E0.06027 ; perimeter
G1 X120.678 Y135.612 E0.06027 ; perimeter
G1 X118.784 Y135.286 E0.06027 ; perimeter
G1 X116.914 Y134.843 E0.06027 ; perimeter
G1 X115.075 Y134.284 E0.06027 ; perimeter
G1 X113.274 Y133.612 E0.06027 ; perimeter
G1 X111.518 Y132.829 E0.06027 ; perimeter
G1 X109.815 Y131.939 E0.06027 ; perimeter
G1 X108.170 Y130.945 E0.06027 ; perimeter
G1 X106.590 Y129.850 E0.06027 ; perimeter
G1 X105.081 Y128.659 E0.06027 ; perimeter
G1 X103.649 Y127.377 E0.06027 ; perimeter
G1 X102.299 Y126.008 E0.06027 ; perimeter
G1 X101.037 Y124.558 E0.06027 ; perimeter
G1 X99.868 Y123.033 E0.06027 ; perimeter
G1 X98.796 Y121.437 E0.06027 ; perimeter
G1 X97.825 Y119.779 E0.06027 ; perimeter
G1 X96.959 Y118.063 E0.06027 ; perimeter
G1 X96.201 Y116.296 E0.06027 ; perimeter
G1 X95.555 Y114.486 E0.06027 ; perimeter
G1 X95.022 Y112.639 E0.06027 ; perimeter
G1 X94.605 Y110.763 E0.06027 ; perimeter
G1 X94.306 Y108.864 E0.06027 ; perimeter
G1 X94.204 Y107.787 E0.03391 ; perimeter
G1 X94.330 Y107.787 E0.00394 ; perimeter
G1 X94.451 Y109.015 E0.03868 ; perimeter
G1 X94.771 Y110.961 E0.06183 ; perimeter
G1 X95.215 Y112.882 E0.06183 ; perimeter
G1 X95.780 Y114.771 E0.06183 ; perimeter
G1 X96.466 Y116.620 E0.06183 ; perimeter
G1 X97.268 Y118.421 E0.06183 ; perimeter
G1 X98.184 Y120.167 E0.06183 ; perimeter
G1 X99.210 Y121.851 E0.06183 ; perimeter
G1 X100.341 Y123.466 E0.06183 ; perimeter
G1 X101.574 Y125.005 E0.06183 ; perimeter
G1 X102.911 Y126.470 E0.06218 ; perimeter
G1 X104.322 Y127.831 E0.06147 ; perimeter
G1 X105.826 Y129.107 E0.06183 ; perimeter
G1 X107.408 Y130.283 E0.06183 ; perimeter
G1 X109.063 Y131.356 E0.06183 ; perimeter
G1 X110.783 Y132.321 E0.06183 ; perimeter
G1 X112.561 Y133.173 E0.06183 ; perimeter
G1 X114.390 Y133.910 E0.06183 ; perimeter
G1 X116.262 Y134.529 E0.06183 ; perimeter
G1 X118.170 Y135.026 E0.06183 ; perimeter
G1 X120.106 Y135.400 E0.06183 ; perimeter
G1 X122.062 Y135.649 E0.06183 ; perimeter
G1 X124.030 Y135.773 E0.06183 ; perimeter
G1 X126.002 Y135.770 E0.06183 ; perimeter
G1 X127.970 Y135.642 E0.06183 ; perimeter
G1 X129.925 Y135.387 E0.06183 ; perimeter
G1 X131.860 Y135.008 E0.06183 ; perimeter
G1 X133.767 Y134.506 E0.06183 ; perimeter
G1 X135.638 Y133.883 E0.06183 ; perimeter
G1 X137.465 Y133.141 E0.06183 ; perimeter
G1 X139.241 Y132.284 E0.06183 ; perimeter
G1 X140.958 Y131.314 E0.06183 ; perimeter
G1 X142.610 Y130.237 E0.06183 ; perimeter
G1 X144.189 Y129.057 E0.06183 ; perimeter
G1 X145.690 Y127.778 E0.06183 ; perimeter
G1 X147.105 Y126.405 E0.06183 ; perimeter
G1 X148.430 Y124.944 E0.06183 ; perimeter
G1 X149.659 Y123.402 E0.06183 ; perimeter
G1 X150.786 Y121.784 E0.06183 ; perimeter
G1 X151.808 Y120.098 E0.06183 ; perimeter
G1 X152.719 Y118.349 E0.06183 ; perimeter
G1 X153.517 Y116.546 E0.06183 ; perimeter
G1 X154.197 Y114.695 E0.06183 ; perimeter
G1 X154.758 Y112.804 E0.06183 ; perimeter
G1 X155.196 Y110.882 E0.06183 ; perimeter
G1 X155.511 Y108.935 E0.06183 ; perimeter
G1 X155.700 Y106.973 E0.06183 ; perimeter
G1 X155.764 Y105.002 E0.06183 ; perimeter
G1 X155.701 Y103.031 E0.06183 ; perimeter
G1 X155.511 Y101.068 E0.06183 ; perimeter
G1 X155.197 Y99.121 E0.06183 ; perimeter
G1 X154.759 Y97.199 E0.06183 ; perimeter
G1 X154.198 Y95.308 E0.06183 ; perimeter
G1 X153.518 Y93.458 E0.06183 ; perimeter
G1 X152.721 Y91.654 E0.06183 ; perimeter
G1 X151.809 Y89.905 E0.06183 ; perimeter
G1 X150.788 Y88.219 E0.06183 ; perimeter
G1 X149.661 Y86.601 E0.06183 ; perimeter
G1 X148.432 Y85.058 E0.06183 ; perimeter
G1 X147.108 Y83.598 E0.06183 ; perimeter
G1 X145.684 Y82.217 E0.06218 ; perimeter
G1 X144.192 Y80.945 E0.06147 ; perimeter
G1 X142.612 Y79.765 E0.06183 ; perimeter
G1 X140.961 Y78.687 E0.06183 ; perimeter
G1 X139.244 Y77.718 E0.06183 ; perimeter
G1 X137.468 Y76.861 E0.06183 ; perimeter
G1 X135.641 Y76.119 E0.06183 ; perimeter
G1 X133.770 Y75.495 E0.06183 ; perimeter
G1 X131.864 Y74.993 E0.06183 ; perimeter
G1 X129.928 Y74.613 E0.06183 ; perimeter
G1 X127.973 Y74.359 E0.06183 ; perimeter
G1 X126.005 Y74.230 E0.06183 ; perimeter
G1 X124.034 Y74.227 E0.06183 ; perimeter
G1 X122.066 Y74.350 E0.06183 ; perimeter
G1 X120.110 Y74.600 E0.06183 ; perimeter
G1 X118.173 Y74.973 E0.06183 ; perimeter
G1 X116.265 Y75.471 E0.06183 ; perimeter
G1 X114.393 Y76.089 E0.06183 ; perimeter
G1 X112.564 Y76.826 E0.06183 ; perimeter
G1 X110.786 Y77.678 E0.06183 ; perimeter
G1 X109.066 Y78.642 E0.06183 ; perimeter
G1 X107.411 Y79.715 E0.06183 ; perimeter
G1 X105.828 Y80.891 E0.06183 ; perimeter
G1 X104.324 Y82.166 E0.06183 ; perimeter
G1 X102.905 Y83.535 E0.06183 ; perimeter
G1 X101.576 Y84.992 E0.06183 ; perimeter
G1 X100.343 Y86.531 E0.06183 ; perimeter
G1 X99.212 Y88.146 E0.06183 ; perimeter
G1 X98.186 Y89.830 E0.06183 ; perimeter
G1 X97.269 Y91.576 E0.06183 ; perimeter
G1 X96.467 Y93.377 E0.06183 ; perimeter
G1 X95.781 Y95.226 E0.06183 ; perimeter
G1 X95.215 Y97.115 E0.06183 ; perimeter
G1 X94.772 Y99.036 E0.06183 ; perimeter
G1 X94.452 Y100.982 E0.06183 ; perimeter
G1 X94.330 Y102.210 E0.03868 ; perimeter
G1 X94.264 Y102.210 E0.00206 ; perimeter
G1 X94.672 Y102.587 F10800.000 ; move to first perimeter point
G1 F1200.000
G1 X93.790 Y102.587 E0.02764 ; perimeter
G1 X93.932 Y101.086 E0.04727 ; perimeter
G1 X94.235 Y99.164 E0.06100 ; perimeter
G1 X94.658 Y97.265 E0.06100 ; perimeter
G1 X95.197 Y95.395 E0.06100 ; perimeter
G1 X95.851 Y93.563 E0.06100 ; perimeter
G1 X96.618 Y91.775 E0.06100 ; perimeter
G1 X97.495 Y90.038 E0.06100 ; perimeter
G1 X98.478 Y88.359 E0.06100 ; perimeter
G1 X99.564 Y86.745 E0.06100 ; perimeter
G1 X100.747 Y85.200 E0.06100 ; perimeter
G1 X102.025 Y83.733 E0.06100 ; perimeter
G1 X103.391 Y82.348 E0.06100 ; perimeter
G1 X104.840 Y81.050 E0.06100 ; perimeter
G1 X106.368 Y79.845 E0.06100 ; perimeter
G1 X107.967 Y78.737 E0.06100 ; perimeter
G1 X109.632 Y77.731 E0.06100 ; perimeter
G1 X111.357 Y76.830 E0.06100 ; perimeter
G1 X113.134 Y76.038 E0.06100 ; perimeter
G1 X114.957 Y75.358 E0.06100 ; perimeter
G1 X116.819 Y74.792 E0.06100 ; perimeter
G1 X118.712 Y74.344 E0.06100 ; perimeter
G1 X120.629 Y74.014 E0.06100 ; perimeter
G1 X122.563 Y73.803 E0.06100 ; perimeter
G1 X124.507 Y73.714 E0.06100 ; perimeter
G1 X126.452 Y73.745 E0.06100 ; perimeter
G1 X128.392 Y73.897 E0.06100 ; perimeter
G1 X130.318 Y74.170 E0.06100 ; perimeter
G1 X132.224 Y74.561 E0.06100 ; perimeter
G1 X134.102 Y75.071 E0.06100 ; perimeter
G1 X135.944 Y75.696 E0.06100 ; perimeter
G1 X137.744 Y76.434 E0.06100 ; perimeter
G1 X139.495 Y77.283 E0.06100 ; perimeter
G1 X141.190 Y78.239 E0.06100 ; perimeter
G1 X142.821 Y79.298 E0.06100 ; perimeter
G1 X144.384 Y80.457 E0.06100 ; perimeter
G1 X145.128 Y81.084 E0.03050 ; perimeter
G1 X145.872 Y81.710 E0.03050 ; perimeter
G1 X147.279 Y83.054 E0.06100 ; perimeter
G1 X148.600 Y84.483 E0.06100 ; perimeter
G1 X149.830 Y85.991 E0.06100 ; perimeter
G1 X150.963 Y87.572 E0.06100 ; perimeter
G1 X151.996 Y89.221 E0.06100 ; perimeter
G1 X152.924 Y90.931 E0.06100 ; perimeter
G1 X153.745 Y92.695 E0.06100 ; perimeter
G1 X154.454 Y94.507 E0.06100 ; perimeter
G1 X155.049 Y96.359 E0.06100 ; perimeter
G1 X155.528 Y98.245 E0.06100 ; perimeter
G1 X155.889 Y100.156 E0.06100 ; perimeter
G1 X156.130 Y102.087 E0.06100 ; perimeter
