; generated by Slic3r Prusa Edition 1.40.1+win64 on 2018-08-12 at 10:32:29

; 

; external perimeters extrusion width = 0.45mm
; perimeters extrusion width = 0.45mm
; infill extrusion width = 0.45mm
; solid infill extrusion width = 0.45mm
; top infill extrusion width = 0.40mm
; support material extrusion width = 0.35mm
; first layer extrusion width = 0.42mm

M107
M115 U3.1.0 ; tell printer latest fw version
M201 X9000 Y9000 Z500 E10000 ; sets maximum accelerations, mm/sec^2
M203 X500 Y500 Z12 E120 ; sets maximum feedrates, mm/sec
M204 S1500 T1500 ; sets acceleration (S) and retract acceleration (T)
M205 X10 Y10 Z0.2 E2.5 ; sets the jerk limits, mm/sec
M205 S0 T0 ; sets the minimum extruding and travel feed rate, mm/sec
M83  ; extruder relative mode
M104 S255 ; set extruder temp
M140 S100 ; set bed temp
M190 S100 ; wait for bed temp
M109 S255 ; wait for extruder temp
G28 W ; home all without mesh bed level
G80 ; mesh bed leveling
G1 Y-3.0 F1000.0 ; go outside print area
G92 E0.0
G1 X60.0 E9.0  F1000.0 ; intro line
G1 X100.0 E12.5  F1000.0 ; intro line
G92 E0.0
M900 K30; Filament gcode
G21 ; set units to millimeters
G90 ; use absolute coordinates
M83 ; use relative distances for extrusion
;BEFORE_LAYER_CHANGE
G92 E0.0
;0.2


G1 E-0.80000 F2100.00000
G1 Z0.600 F10800.000
;AFTER_LAYER_CHANGE
;0.2
G1 X88.912 Y95.176
G1 Z0.200
G1 E0.80000 F2100.00000
M204 S1000
G1 F1800
G1 X89.066 Y94.663 E0.01680
G1 X89.340 Y94.202 E0.01680
G1 X97.657 Y83.722 E0.41950
G1 X99.235 Y81.846 E0.07687
G1 X100.844 Y80.175 E0.07273
G1 X102.775 Y78.354 E0.08321
G1 X105.718 Y76.220 E0.11399
G1 X107.376 Y75.170 E0.06153
G1 X109.281 Y74.127 E0.06810
G1 X111.268 Y73.196 E0.06880
G1 X112.706 Y72.575 E0.04911
G1 X115.621 Y71.654 E0.09585
G1 X118.586 Y70.978 E0.09535
G1 X122.155 Y70.484 E0.11298
G1 X127.128 Y70.454 E0.15592
G1 X128.941 Y70.598 E0.05704
G1 X131.439 Y70.987 E0.07926
G1 X133.335 Y71.395 E0.06081
G1 X135.456 Y71.995 E0.06912
G1 X137.964 Y72.911 E0.08369
G1 X139.626 Y73.624 E0.05673
G1 X142.905 Y75.343 E0.11608
G1 X145.938 Y77.457 E0.11591
G1 X148.370 Y79.492 E0.09943
G1 X150.779 Y81.928 E0.10741
G1 X153.207 Y84.959 E0.12179
G1 X154.505 Y86.920 E0.07371
G1 X156.284 Y90.142 E0.11539
G1 X157.428 Y92.928 E0.09445
G1 X158.088 Y94.987 E0.06779
G1 X158.084 Y115.569 E0.64533
G1 X157.943 Y116.052 E0.01578
G1 X156.563 Y119.181 E0.10722
G1 X155.606 Y121.146 E0.06852
G1 X154.803 Y122.558 E0.05096
G1 X153.440 Y124.737 E0.08057
G1 X150.813 Y128.076 E0.13319
G1 X148.846 Y130.084 E0.08815
G1 X145.972 Y132.565 E0.11905
G1 X143.603 Y134.190 E0.09006
G1 X141.123 Y135.725 E0.09144
G1 X137.562 Y137.260 E0.12160
G1 X135.477 Y137.998 E0.06935
G1 X133.847 Y138.426 E0.05283
G1 X116.700 Y138.437 E0.53765
G1 X115.591 Y138.316 E0.03497
G1 X113.445 Y137.658 E0.07038
G1 X110.085 Y136.332 E0.11326
G1 X107.303 Y134.784 E0.09982
G1 X105.301 Y133.515 E0.07433
G1 X103.666 Y132.305 E0.06377
G1 X102.027 Y130.948 E0.06672
G1 X100.276 Y129.281 E0.07579
G1 X98.800 Y127.683 E0.06821
G1 X97.398 Y125.957 E0.06970
G1 X95.708 Y123.668 E0.08923
G1 X89.207 Y114.328 E0.35680
G1 X88.968 Y113.792 E0.01839
G1 X88.881 Y113.212 E0.01839
G1 X88.912 Y95.236 E0.56363
G1 F8640
G1 X89.066 Y94.663 E-0.13708
G1 X89.340 Y94.202 E-0.12374
G1 X90.684 Y92.509 E-0.49918
G1 E-0.04000 F2100.00000
G1 Z0.800 F10800.000
G1 X91.069 Y95.543
G1 Z0.200
G1 E0.80000 F2100.00000
G1 F1800
G1 X91.069 Y113.178 E0.55293
G1 X91.823 Y113.178 E0.02365
G1 X91.823 Y95.713 E0.54761
G1 X92.577 Y95.713 E0.02365
G1 X92.577 Y113.178 E0.54761
G1 X93.332 Y113.178 E0.02365
G1 X93.332 Y95.713 E0.54761
G1 X93.901 Y95.713 E0.01785
G1 X94.086 Y95.102 E0.02002
G1 X94.086 Y100.572 E0.17151
G1 X94.341 Y99.004 E0.04980
G1 X94.840 Y96.879 E0.06844
G1 X94.840 Y93.406 E0.10890
G1 X94.981 Y93.406 E0.00442
G1 X94.981 Y92.622 E0.02457
G1 X95.594 Y91.260 E0.04685
G1 X95.594 Y94.500 E0.10158
G1 X96.044 Y93.281 E0.04074
G1 X96.348 Y92.592 E0.02362
G1 X96.348 Y89.758 E0.08884
G1 X96.815 Y88.879 E0.03122
G1 X97.102 Y88.412 E0.01718
G1 X97.102 Y90.974 E0.08032
G1 X97.857 Y89.549 E0.05054
G1 X97.857 Y87.189 E0.07402
G1 X98.290 Y86.485 E0.02593
G1 X98.347 Y86.485 E0.00177
G1 X98.611 Y86.113 E0.01429
G1 X98.611 Y88.308 E0.06882
G1 X98.819 Y87.965 E0.01259
G1 X99.365 Y87.182 E0.02992
G1 X99.365 Y85.092 E0.06554
G1 X100.119 Y84.163 E0.03752
G1 X100.119 Y86.129 E0.06165
G1 X100.873 Y85.185 E0.03788
G1 X100.873 Y83.297 E0.05920
G1 X101.627 Y82.482 E0.03482
G1 X101.627 Y84.303 E0.05710
G1 X102.381 Y83.474 E0.03514
G1 X102.381 Y81.732 E0.05460
G1 X103.136 Y81.016 E0.03261
G1 X103.136 Y82.720 E0.05342
G1 X103.890 Y81.991 E0.03289
G1 X103.890 Y80.357 E0.05123
G1 X104.209 Y80.091 E0.01303
G1 X104.209 Y80.006 E0.00264
G1 X104.644 Y79.689 E0.01687
G1 X104.644 Y81.336 E0.05164
G1 X105.398 Y80.695 E0.03103
G1 X105.398 Y79.140 E0.04878
G1 X106.152 Y78.590 E0.02926
G1 X106.152 Y80.120 E0.04797
G1 X106.906 Y79.558 E0.02949
G1 X106.906 Y78.058 E0.04702
G1 X107.661 Y77.580 E0.02800
G1 X107.661 Y79.046 E0.04597
G1 X108.415 Y78.556 E0.02820
G1 X108.415 Y77.101 E0.04561
G1 X109.169 Y76.683 E0.02705
G1 X109.169 Y78.097 E0.04436
G1 X109.923 Y77.673 E0.02713
G1 X109.923 Y76.270 E0.04400
G1 X110.328 Y76.048 E0.01448
G1 X110.677 Y75.886 E0.01207
G1 X110.677 Y77.259 E0.04307
G1 X111.431 Y76.897 E0.02624
G1 X111.431 Y75.535 E0.04271
G1 X112.186 Y75.184 E0.02608
G1 X112.186 Y76.534 E0.04236
G1 X112.940 Y76.217 E0.02566
G1 X112.940 Y74.949 E0.03974
G1 X113.437 Y74.949 E0.01561
G1 X113.437 Y74.638 E0.00975
G1 X113.694 Y74.557 E0.00843
G1 X113.694 Y75.912 E0.04248
G1 X114.448 Y75.625 E0.02530
G1 X114.448 Y74.319 E0.04095
G1 X115.202 Y74.080 E0.02480
G1 X115.202 Y75.375 E0.04059
G1 X115.956 Y75.125 E0.02491
G1 X115.956 Y73.841 E0.04024
G1 X116.711 Y73.639 E0.02448
G1 X116.711 Y74.917 E0.04006
G1 X117.465 Y74.720 E0.02444
G1 X117.465 Y73.453 E0.03971
G1 X118.219 Y73.268 E0.02435
G1 X118.219 Y74.534 E0.03972
G1 X118.973 Y74.388 E0.02409
G1 X118.973 Y73.132 E0.03938
G1 X119.727 Y72.997 E0.02402
G1 X119.727 Y74.242 E0.03902
G1 X120.481 Y74.126 E0.02392
G1 X120.481 Y72.875 E0.03925
G1 X121.235 Y72.790 E0.02380
G1 X121.235 Y74.030 E0.03888
G1 X121.990 Y73.935 E0.02383
G1 X121.990 Y72.705 E0.03856
G1 X122.744 Y72.643 E0.02372
G1 X122.744 Y73.885 E0.03893
G1 X123.498 Y73.837 E0.02369
G1 X123.498 Y72.642 E0.03746
G1 X124.252 Y72.642 E0.02365
G1 X124.252 Y73.806 E0.03649
G1 X125.006 Y73.806 E0.02365
G1 X125.006 Y72.642 E0.03651
G1 X125.760 Y72.642 E0.02365
G1 X125.760 Y73.807 E0.03652
G1 X126.515 Y73.841 E0.02367
G1 X126.515 Y72.642 E0.03760
G1 X127.269 Y72.654 E0.02365
G1 X127.269 Y73.890 E0.03876
G1 X128.023 Y73.942 E0.02370
G1 X128.023 Y72.716 E0.03844
G1 X128.671 Y72.769 E0.02040
G1 X128.777 Y72.785 E0.00336
G1 X128.777 Y74.039 E0.03933
G1 X129.531 Y74.137 E0.02384
G1 X129.531 Y72.896 E0.03889
G1 X130.285 Y73.008 E0.02390
G1 X130.285 Y74.256 E0.03912
G1 X131.040 Y74.403 E0.02409
G1 X131.040 Y73.139 E0.03963
G1 X131.794 Y73.301 E0.02418
G1 X131.794 Y74.550 E0.03917
G1 X132.548 Y74.739 E0.02438
G1 X132.548 Y73.463 E0.04002
G1 X132.801 Y73.517 E0.00812
G1 X133.302 Y73.659 E0.01632
G1 X133.302 Y74.937 E0.04008
G1 X134.056 Y75.149 E0.02456
G1 X134.056 Y73.873 E0.04002
G1 X134.810 Y74.087 E0.02458
G1 X134.810 Y75.400 E0.04118
G1 X135.564 Y75.651 E0.02492
G1 X135.564 Y74.949 E0.02199
G1 X136.319 Y74.949 E0.02365
G1 X136.319 Y75.942 E0.03113
G1 X137.073 Y76.248 E0.02551
G1 X137.073 Y74.949 E0.04071
G1 X137.167 Y74.949 E0.00295
G1 X137.827 Y75.233 E0.02253
G1 X137.827 Y76.570 E0.04192
G1 X138.581 Y76.933 E0.02625
G1 X138.581 Y75.557 E0.04317
G1 X138.729 Y75.620 E0.00505
G1 X139.335 Y75.928 E0.02132
G1 X139.335 Y77.297 E0.04291
G1 X140.089 Y77.716 E0.02705
G1 X140.089 Y76.312 E0.04401
G1 X140.601 Y76.572 E0.01799
G1 X140.844 Y76.716 E0.00885
G1 X140.844 Y78.141 E0.04468
G1 X141.183 Y78.335 E0.01227
G1 X141.598 Y78.605 E0.01550
G1 X141.598 Y77.163 E0.04520
G1 X141.755 Y77.256 E0.00574
G1 X141.842 Y77.256 E0.00272
G1 X142.352 Y77.605 E0.01937
G1 X142.352 Y79.096 E0.04674
G1 X143.106 Y79.613 E0.02868
G1 X143.106 Y78.121 E0.04679
G1 X143.860 Y78.637 E0.02865
G1 X143.860 Y80.176 E0.04828
G1 X144.614 Y80.759 E0.02987
G1 X144.614 Y79.200 E0.04888
G1 X145.369 Y79.790 E0.03004
G1 X145.369 Y81.401 E0.05050
G1 X146.123 Y82.063 E0.03146
G1 X146.123 Y80.418 E0.05158
G1 X146.877 Y81.092 E0.03171
G1 X146.877 Y82.794 E0.05336
G1 X147.408 Y83.311 E0.02325
G1 X147.631 Y83.556 E0.01039
G1 X147.631 Y81.799 E0.05508
G1 X148.385 Y82.567 E0.03373
G1 X148.385 Y84.387 E0.05707
G1 X148.750 Y84.791 E0.01706
G1 X149.139 Y85.279 E0.01959
G1 X149.139 Y83.378 E0.05962
G1 X149.894 Y84.251 E0.03619
G1 X149.894 Y86.225 E0.06188
G1 X150.648 Y87.291 E0.04093
G1 X150.648 Y85.198 E0.06560
G1 X151.402 Y86.196 E0.03921
G1 X151.402 Y88.431 E0.07009
G1 X152.156 Y89.678 E0.04567
G1 X152.156 Y87.328 E0.07368
G1 X152.623 Y88.037 E0.02663
G1 X152.910 Y88.541 E0.01818
G1 X152.910 Y91.120 E0.08088
G1 X153.098 Y91.484 E0.01284
G1 X153.664 Y92.763 E0.04387
G1 X153.664 Y89.865 E0.09089
G1 X153.973 Y90.407 E0.01958
G1 X153.973 Y91.099 E0.02168
G1 X154.316 Y91.099 E0.01073
G1 X154.418 Y91.350 E0.00852
G1 X154.418 Y94.706 E0.10522
G1 X154.594 Y95.187 E0.01603
G1 X155.173 Y97.153 E0.06427
G1 X155.173 Y93.193 E0.12414
G1 X155.377 Y93.692 E0.01690
G1 X155.927 Y95.332 E0.05423
G1 X155.927 Y102.835 E0.23526
G1 F8640
G1 X155.927 Y99.544 E-0.76000
G1 E-0.04000 F2100.00000
G1 Z0.800 F10800.000
G1 X153.664 Y112.249
G1 Z0.200
G1 E0.80000 F2100.00000
G1 F1800
G1 X153.664 Y98.422 E0.43354
G1 X153.169 Y96.545 E0.06087
G1 X152.910 Y95.772 E0.02557
G1 X152.910 Y114.228 E0.57868
G1 X152.564 Y115.261 E0.03417
G1 X152.156 Y116.257 E0.03374
G1 X152.156 Y93.743 E0.70594
G1 X151.842 Y92.975 E0.02600
G1 X151.402 Y92.071 E0.03153
G1 X151.402 Y117.929 E0.81075
G1 X151.008 Y118.738 E0.02822
G1 X150.648 Y119.370 E0.02282
G1 X150.648 Y90.630 E0.90114
G1 X150.065 Y89.606 E0.03693
G1 X149.894 Y89.347 E0.00976
G1 X149.893 Y120.653 E0.98161
G1 X149.139 Y121.798 E0.04298
G1 X149.139 Y88.202 E1.05339
G1 X148.385 Y87.180 E0.03981
G1 X148.385 Y122.820 E1.11745
G1 X147.867 Y123.505 E0.02692
G1 X147.631 Y123.779 E0.01134
G1 X147.631 Y86.221 E1.17758
G1 X146.877 Y85.348 E0.03619
G1 X146.877 Y124.912 E1.24052
G1 F8640
G1 X146.877 Y121.621 E-0.76000
G1 E-0.04000 F2100.00000
G1 Z0.800 F10800.000
G1 X155.927 Y115.201
G1 Z0.200
G1 E0.80000 F2100.00000
G1 F1800
G1 X155.927 Y108.933 E0.19656
G1 X155.602 Y110.964 E0.06449
G1 X155.173 Y112.847 E0.06057
G1 X155.173 Y116.807 E0.12414
G1 X154.582 Y118.251 E0.04893
G1 X154.418 Y118.586 E0.01169
G1 X154.418 Y115.294 E0.10323
G1 X153.905 Y116.689 E0.04661
G1 X153.664 Y117.237 E0.01877
G1 X153.664 Y120.135 E0.09089
G1 X152.910 Y121.459 E0.04777
G1 X152.910 Y118.880 E0.08088
G1 X152.156 Y120.322 E0.05103
G1 X152.156 Y122.672 E0.07368
G1 X151.666 Y123.415 E0.02790
G1 X151.666 Y123.454 E0.00121
G1 X151.402 Y123.817 E0.01408
G1 X151.402 Y121.569 E0.07049
G1 X151.135 Y122.008 E0.01610
G1 X150.648 Y122.709 E0.02680
G1 X150.648 Y124.802 E0.06560
G1 X150.202 Y125.391 E0.02318
G1 X149.893 Y125.749 E0.01480
G1 X149.893 Y123.775 E0.06188
G1 X149.139 Y124.721 E0.03794
G1 X149.139 Y126.666 E0.06099
G1 X148.385 Y127.433 E0.03373
G1 X148.385 Y125.613 E0.05707
G1 X147.631 Y126.444 E0.03518
G1 X147.631 Y128.201 E0.05508
G1 X147.358 Y128.478 E0.01220
G1 X146.877 Y128.908 E0.02024
G1 X146.877 Y127.206 E0.05336
G1 X146.123 Y127.937 E0.03293
G1 X146.123 Y129.582 E0.05158
G1 X145.793 Y129.877 E0.01388
G1 X145.369 Y130.210 E0.01690
G1 X145.369 Y128.599 E0.05050
G1 X144.614 Y129.241 E0.03106
G1 X144.614 Y130.848 E0.05036
G1 X144.140 Y131.172 E0.01802
G1 X143.860 Y131.391 E0.01114
G1 X143.860 Y129.824 E0.04915
G1 X143.106 Y130.387 E0.02951
G1 X143.106 Y131.879 E0.04679
G1 X142.407 Y132.357 E0.02656
G1 X142.352 Y132.390 E0.00201
G1 X142.352 Y130.904 E0.04659
G1 X141.598 Y131.395 E0.02822
G1 X141.598 Y132.837 E0.04520
G1 X140.844 Y133.284 E0.02749
G1 X140.844 Y131.859 E0.04468
G1 X140.089 Y132.284 E0.02714
G1 X140.089 Y133.796 E0.04738
G1 X139.335 Y134.119 E0.02573
G1 X139.335 Y132.703 E0.04441
G1 X138.581 Y133.067 E0.02625
G1 X138.581 Y134.443 E0.04317
G1 X137.827 Y134.767 E0.02573
G1 X137.827 Y133.430 E0.04192
G1 X137.073 Y133.752 E0.02571
G1 X137.073 Y135.091 E0.04198
G1 X136.319 Y135.379 E0.02531
G1 X136.319 Y134.058 E0.04142
G1 X135.564 Y134.349 E0.02535
G1 X135.564 Y135.647 E0.04067
G1 X134.821 Y135.910 E0.02473
G1 X134.810 Y134.600 E0.04108
G1 X134.056 Y134.851 E0.02492
G1 X134.056 Y136.127 E0.04002
G1 X133.627 Y136.249 E0.01400
G1 X133.302 Y136.249 E0.01018
G1 X133.302 Y135.063 E0.03719
G1 X132.548 Y135.261 E0.02445
G1 X132.548 Y136.249 E0.03098
G1 X131.794 Y136.249 E0.02365
G1 X131.794 Y135.450 E0.02505
G1 X131.040 Y135.597 E0.02409
G1 X131.040 Y136.249 E0.02044
G1 X130.285 Y136.249 E0.02365
G1 X130.285 Y135.744 E0.01582
G1 X129.531 Y135.863 E0.02394
G1 X129.531 Y136.249 E0.01210
G1 X128.777 Y136.249 E0.02365
G1 X128.777 Y135.961 E0.00904
G1 X128.023 Y136.058 E0.02384
G1 X128.023 Y136.249 E0.00599
G1 X127.269 Y136.249 E0.02365
G1 X127.269 Y136.110 E0.00436
G1 X126.515 Y136.159 E0.02370
G1 X126.515 Y136.249 E0.00283
G1 X125.760 Y136.249 E0.02365
G1 X125.760 Y136.193 E0.00175
G1 X125.006 Y136.194 E0.02365
G1 X125.006 Y136.249 E0.00174
G1 X124.252 Y136.249 E0.02365
G1 X124.252 Y136.194 E0.00172
G1 X123.498 Y136.163 E0.02367
G1 X123.498 Y136.249 E0.00269
G1 X122.744 Y136.249 E0.02365
G1 X122.744 Y136.115 E0.00420
G1 X121.990 Y136.065 E0.02370
G1 X121.990 Y136.249 E0.00576
G1 X121.235 Y136.249 E0.02365
G1 X121.235 Y135.970 E0.00874
G1 X120.481 Y135.874 E0.02384
G1 X120.481 Y136.249 E0.01177
G1 X119.727 Y136.249 E0.02365
G1 X119.727 Y135.758 E0.01538
G1 X118.973 Y135.612 E0.02409
G1 X118.973 Y136.249 E0.01997
G1 X118.219 Y136.249 E0.02365
G1 X118.219 Y135.466 E0.02456
G1 X117.465 Y135.280 E0.02435
G1 X117.465 Y136.249 E0.03037
G1 X116.711 Y136.249 E0.02365
G1 X116.711 Y135.083 E0.03656
G1 X115.956 Y134.875 E0.02453
G1 X115.956 Y136.159 E0.04024
G1 X115.202 Y135.920 E0.02480
G1 X115.202 Y134.625 E0.04059
G1 X114.448 Y134.375 E0.02491
G1 X114.448 Y135.681 E0.04095
G1 X113.694 Y135.407 E0.02516
G1 X113.694 Y134.088 E0.04135
G1 X112.940 Y133.783 E0.02550
G1 X112.940 Y135.113 E0.04170
G1 X112.186 Y134.820 E0.02537
G1 X112.186 Y133.466 E0.04247
G1 X111.431 Y133.103 E0.02624
G1 X111.431 Y134.527 E0.04463
G1 X111.130 Y134.409 E0.01013
G1 X111.130 Y133.942 E0.01466
G1 X110.677 Y133.942 E0.01421
G1 X110.677 Y132.741 E0.03767
G1 X109.923 Y132.327 E0.02697
G1 X109.923 Y133.730 E0.04400
G1 X109.169 Y133.317 E0.02695
G1 X109.169 Y131.903 E0.04436
G1 X108.781 Y131.682 E0.01398
G1 X108.415 Y131.444 E0.01371
G1 X108.415 Y132.899 E0.04561
G1 X107.661 Y132.420 E0.02800
G1 X107.661 Y130.954 E0.04597
G1 X106.906 Y130.442 E0.02857
G1 X106.906 Y131.942 E0.04702
G1 X106.516 Y131.694 E0.01449
G1 X106.516 Y131.676 E0.00059
G1 X106.152 Y131.410 E0.01412
G1 X106.152 Y129.880 E0.04797
G1 X105.398 Y129.305 E0.02975
G1 X105.398 Y130.860 E0.04878
G1 X105.016 Y130.582 E0.01481
G1 X104.644 Y130.272 E0.01520
G1 X104.644 Y128.664 E0.05042
G1 X103.890 Y128.009 E0.03131
G1 X103.890 Y129.643 E0.05123
G1 X103.498 Y129.328 E0.01577
G1 X103.136 Y128.984 E0.01567
G1 X103.136 Y127.280 E0.05342
G1 X102.381 Y126.526 E0.03343
G1 X102.381 Y128.268 E0.05460
G1 X101.881 Y127.792 E0.02164
G1 X101.627 Y127.518 E0.01171
G1 X101.627 Y125.697 E0.05710
G1 X101.208 Y125.234 E0.01958
G1 X100.873 Y124.815 E0.01683
G1 X100.873 Y126.703 E0.05920
G1 X100.455 Y126.251 E0.01931
G1 X100.119 Y125.837 E0.01671
G1 X100.119 Y123.871 E0.06165
G1 X99.365 Y122.818 E0.04061
G1 X99.365 Y124.908 E0.06554
G1 X99.132 Y124.621 E0.01160
G1 X98.611 Y123.887 E0.02822
G1 X98.611 Y121.692 E0.06882
G1 X97.857 Y120.451 E0.04555
G1 X97.857 Y122.811 E0.07402
G1 X97.607 Y122.406 E0.01491
G1 X97.496 Y122.406 E0.00347
G1 X97.102 Y121.664 E0.02637
G1 X97.102 Y119.026 E0.08270
G1 X96.853 Y118.546 E0.01697
G1 X96.348 Y117.408 E0.03902
G1 X96.348 Y120.242 E0.08884
G1 X95.831 Y119.267 E0.03461
G1 X95.594 Y118.740 E0.01810
G1 X95.594 Y115.500 E0.10158
G1 X95.353 Y114.845 E0.02190
G1 X94.840 Y113.121 E0.05640
G1 X94.840 Y117.007 E0.12185
