; generated by PrusaSlicer 2.2.0+win64 on 2020-05-23 at 12:54:06 UTC

; 

; external perimeters extrusion width = 0.45mm
; perimeters extrusion width = 0.45mm
; infill extrusion width = 0.45mm
; solid infill extrusion width = 0.45mm
; top infill extrusion width = 0.40mm
; first layer extrusion width = 0.42mm

M73 P0 R89
M201 X9000 Y9000 Z500 E10000 ; sets maximum accelerations, mm/sec^2
M203 X500 Y500 Z12 E120 ; sets maximum feedrates, mm/sec
M204 P2000 R1500 T2000 ; sets acceleration (P, T) and retract acceleration (R), mm/sec^2
M205 X10.00 Y10.00 Z0.20 E2.50 ; sets the jerk limits, mm/sec
M205 S0 T0 ; sets the minimum extruding and travel feed rate, mm/sec
M107
M862.3 P "MK2S" ; printer model check
M862.1 P0.4 ; nozzle diameter check
M115 U3.2.3 ; tell printer latest fw version
G90 ; use absolute coordinates
M83 ; extruder relative mode
M204 S2000 T1500 ; MK2 firmware only supports the old M204 format
M104 S255 ; set extruder temp
M140 S100 ; set bed temp
M190 S100 ; wait for bed temp
M109 S255 ; wait for extruder temp
G28 W ; home all without mesh bed level
G80 ; mesh bed leveling
G1 Y-3.0 F1000.0 ; go outside print area
G92 E0.0
G1 X60.0 E9.0  F1000.0 ; intro line
M73 P0 R89
G1 X100.0 E12.5 F1000.0 ; intro line
G92 E0.0
G21 ; set units to millimeters
G90 ; use absolute coordinates
M83 ; use relative distances for extrusion
M900 K0.04 ; Filament gcode LA 1.5
M900 K20 ; Filament gcode LA 1.0
;BEFORE_LAYER_CHANGE
G92 E0.0
;0.2


G1 E-0.80000 F2100.00000
G1 Z0.600 F10800.000
;AFTER_LAYER_CHANGE
;0.2
G1 X101.096 Y84.345
G1 Z0.200
G1 E0.80000 F2100.00000
M204 S1000
G1 F1200.000
G1 X102.809 Y82.514 E0.07860
G1 X104.258 Y81.171 E0.06195
G1 X105.537 Y80.122 E0.05186
G1 X107.524 Y78.684 E0.07693
G1 X109.254 Y77.616 E0.06374
G1 X110.713 Y76.836 E0.05186
G1 X112.940 Y75.807 E0.07692
G1 X115.243 Y74.970 E0.07685
G1 X116.825 Y74.493 E0.05179
G1 X118.809 Y74.031 E0.06387
G1 X121.232 Y73.652 E0.07689
G1 X122.875 Y73.493 E0.05178
G1 X124.919 Y73.424 E0.06410
G1 X127.362 Y73.518 E0.07665
G1 X129.009 Y73.683 E0.05190
G1 X131.027 Y74.010 E0.06410
G1 X133.008 Y74.463 E0.06374
G1 X134.909 Y75.029 E0.06219
G1 X137.206 Y75.889 E0.07688
G1 X139.067 Y76.743 E0.06422
G1 X140.524 Y77.521 E0.05179
G1 X142.612 Y78.807 E0.07688
G1 X144.264 Y79.999 E0.06386
G1 X145.541 Y81.046 E0.05180
G1 X147.342 Y82.710 E0.07687
G1 X148.733 Y84.198 E0.06386
G1 X149.782 Y85.474 E0.05180
G1 X151.230 Y87.454 E0.07689
G1 X152.507 Y89.551 E0.07699
G1 X153.282 Y91.005 E0.05167
G1 X154.130 Y92.870 E0.06422
G1 X154.976 Y95.162 E0.07660
G1 X155.454 Y96.744 E0.05184
G1 X155.925 Y98.738 E0.06422
G1 X156.263 Y100.739 E0.06362
G1 X156.468 Y102.715 E0.06231
G1 X156.551 Y105.164 E0.07683
G1 X156.474 Y107.207 E0.06410
G1 X156.313 Y108.857 E0.05196
G1 X155.922 Y111.275 E0.07682
G1 X155.454 Y113.258 E0.06386
G1 X154.975 Y114.841 E0.05185
G1 X154.126 Y117.139 E0.07682
G1 X153.283 Y118.993 E0.06386
G1 X152.505 Y120.452 E0.05186
G1 X151.231 Y122.544 E0.07681
G1 X149.782 Y124.526 E0.07696
G1 X148.733 Y125.802 E0.05179
G1 X147.334 Y127.298 E0.06422
G1 X145.541 Y128.954 E0.07654
G1 X144.264 Y130.001 E0.05177
G1 X142.612 Y131.193 E0.06386
G1 X140.524 Y132.479 E0.07690
G1 X139.067 Y133.257 E0.05177
G1 X137.206 Y134.111 E0.06422
G1 X134.909 Y134.971 E0.07688
G1 X133.008 Y135.537 E0.06220
G1 X131.026 Y135.991 E0.06374
G1 X129.008 Y136.317 E0.06410
G1 X127.361 Y136.482 E0.05190
G1 X124.915 Y136.576 E0.07677
G1 X122.875 Y136.507 E0.06398
G1 X121.231 Y136.348 E0.05179
G1 X118.790 Y135.965 E0.07747
G1 X116.814 Y135.504 E0.06362
G1 X114.911 Y134.929 E0.06231
G1 X112.570 Y134.029 E0.07866
G1 X111.061 Y133.346 E0.05194
G1 X109.256 Y132.386 E0.06410
G1 X107.523 Y131.315 E0.06386
G1 X105.909 Y130.169 E0.06207
G1 X103.968 Y128.569 E0.07887
G1 X102.758 Y127.437 E0.05195
G1 X101.404 Y126.008 E0.06171
G1 X99.800 Y124.055 E0.07923
G1 X98.651 Y122.435 E0.06231
G1 X97.583 Y120.705 E0.06374
G1 X96.622 Y118.896 E0.06422
G1 X95.937 Y117.391 E0.05184
G1 X95.065 Y115.118 E0.07635
G1 X94.470 Y113.154 E0.06434
G1 X94.091 Y111.544 E0.05184
G1 X93.670 Y109.130 E0.07682
G1 X93.466 Y107.032 E0.06609
G1 X93.464 Y103.047 E0.12497
G1 X93.731 Y100.481 E0.08088
G1 X94.005 Y98.843 E0.05208
G1 X94.465 Y96.866 E0.06363
G1 X95.194 Y94.519 E0.07706
G1 X95.780 Y92.973 E0.05185
G1 X96.587 Y91.178 E0.06171
G1 X97.582 Y89.296 E0.06673
G1 X98.885 Y87.219 E0.07688
G1 X100.044 Y85.626 E0.06177
G1 X101.058 Y84.391 E0.05009
G1 F8640.000
G1 X102.809 Y82.514 E-0.59269
G1 X103.340 Y82.022 E-0.16731
G1 E-0.04000 F2100.00000
G1 Z0.800 F10800.000
G1 X97.104 Y102.343
G1 Z0.200
G1 E0.80000 F2100.00000
G1 F1200.000
G1 X97.208 Y101.310 E0.03255
G1 X97.508 Y99.505 E0.05735
G1 X97.925 Y97.725 E0.05734
G1 X98.477 Y95.919 E0.05920
G1 X99.103 Y94.263 E0.05551
G1 X99.859 Y92.597 E0.05736
G1 X100.722 Y90.984 E0.05735
G1 X101.689 Y89.432 E0.05734
G1 X102.790 Y87.899 E0.05919
G1 X103.953 Y86.487 E0.05734
G1 X105.206 Y85.155 E0.05736
G1 X106.500 Y83.946 E0.05551
G1 X107.960 Y82.748 E0.05920
G1 X109.448 Y81.685 E0.05734
G1 X111.002 Y80.722 E0.05735
G1 X112.617 Y79.861 E0.05735
G1 X114.284 Y79.108 E0.05735
G1 X115.941 Y78.486 E0.05552
G1 X117.747 Y77.936 E0.05920
G1 X119.587 Y77.512 E0.05918
G1 X121.334 Y77.225 E0.05551
G1 X123.154 Y77.047 E0.05734
G1 X125.041 Y76.989 E0.05920
G1 X126.811 Y77.048 E0.05551
G1 X128.631 Y77.227 E0.05736
G1 X130.436 Y77.525 E0.05735
G1 X132.217 Y77.940 E0.05735
G1 X133.968 Y78.470 E0.05734
G1 X135.734 Y79.136 E0.05919
G1 X137.399 Y79.893 E0.05735
G1 X138.960 Y80.728 E0.05551
G1 X140.564 Y81.725 E0.05920
G1 X142.049 Y82.792 E0.05734
G1 X143.417 Y83.916 E0.05551
G1 X144.797 Y85.205 E0.05920
G1 X146.046 Y86.540 E0.05734
G1 X147.169 Y87.909 E0.05552
G1 X148.271 Y89.442 E0.05920
G1 X149.265 Y91.047 E0.05918
G1 X150.099 Y92.609 E0.05551
G1 X150.854 Y94.275 E0.05734
G1 X151.517 Y96.043 E0.05920
G1 X152.030 Y97.737 E0.05551
G1 X152.447 Y99.518 E0.05736
G1 X152.746 Y101.323 E0.05735
G1 X152.927 Y103.143 E0.05734
G1 X152.988 Y105.029 E0.05919
G1 X152.927 Y106.857 E0.05735
G1 X152.753 Y108.619 E0.05551
G1 X152.447 Y110.482 E0.05920
G1 X152.030 Y112.263 E0.05735
G1 X151.517 Y113.957 E0.05551
G1 X150.854 Y115.725 E0.05920
G1 X150.099 Y117.391 E0.05734
G1 X149.265 Y118.953 E0.05551
G1 X148.271 Y120.558 E0.05918
G1 X147.169 Y122.091 E0.05920
G1 X146.046 Y123.460 E0.05552
G1 X144.797 Y124.795 E0.05734
G1 X143.417 Y126.084 E0.05920
G1 X142.049 Y127.208 E0.05551
G1 X140.564 Y128.275 E0.05734
G1 X138.960 Y129.272 E0.05920
G1 X137.399 Y130.107 E0.05551
G1 X135.734 Y130.864 E0.05735
G1 X133.968 Y131.530 E0.05919
G1 X132.217 Y132.060 E0.05734
G1 X130.436 Y132.475 E0.05735
G1 X128.631 Y132.773 E0.05736
G1 X126.869 Y132.948 E0.05551
G1 X124.982 Y133.012 E0.05920
G1 X123.154 Y132.953 E0.05734
G1 X121.392 Y132.781 E0.05551
G1 X119.529 Y132.478 E0.05920
G1 X117.747 Y132.064 E0.05734
G1 X116.053 Y131.551 E0.05552
G1 X114.284 Y130.892 E0.05920
G1 X112.565 Y130.111 E0.05918
G1 X111.002 Y129.278 E0.05551
G1 X109.448 Y128.315 E0.05735
G1 X107.960 Y127.252 E0.05734
G1 X106.500 Y126.054 E0.05920
G1 X105.206 Y124.845 E0.05551
G1 X103.953 Y123.513 E0.05736
G1 X102.790 Y122.101 E0.05734
G1 X101.689 Y120.568 E0.05919
G1 X100.722 Y119.016 E0.05734
G1 X99.859 Y117.403 E0.05735
G1 X99.103 Y115.737 E0.05736
G1 X98.477 Y114.081 E0.05551
G1 X97.925 Y112.275 E0.05920
G1 X97.508 Y110.495 E0.05734
G1 X97.208 Y108.691 E0.05735
G1 X97.105 Y107.657 E0.03256
G1 X98.428 Y107.569 E0.04158
G1 X98.532 Y108.599 E0.03247
G1 X98.840 Y110.396 E0.05716
G1 X99.269 Y112.168 E0.05716
G1 X99.818 Y113.906 E0.05716
G1 X100.485 Y115.603 E0.05716
G1 X101.266 Y117.250 E0.05716
G1 X102.158 Y118.840 E0.05716
G1 X103.156 Y120.366 E0.05716
G1 X104.256 Y121.820 E0.05716
G1 X105.453 Y123.195 E0.05716
G1 X106.740 Y124.486 E0.05716
G1 X108.113 Y125.685 E0.05716
G1 X109.565 Y126.788 E0.05716
G1 X111.088 Y127.789 E0.05716
G1 X112.677 Y128.684 E0.05716
G1 X114.322 Y129.469 E0.05716
G1 X116.018 Y130.139 E0.05716
G1 X117.755 Y130.692 E0.05716
G1 X119.526 Y131.125 E0.05716
G1 X121.322 Y131.436 E0.05716
G1 X123.136 Y131.624 E0.05716
G1 X124.958 Y131.688 E0.05716
G1 X126.780 Y131.627 E0.05716
G1 X128.593 Y131.441 E0.05716
G1 X130.390 Y131.133 E0.05716
G1 X132.162 Y130.702 E0.05716
G1 X133.872 Y130.160 E0.05624
G1 X135.596 Y129.484 E0.05807
G1 X137.243 Y128.701 E0.05717
G1 X138.832 Y127.809 E0.05716
G1 X140.357 Y126.809 E0.05716
G1 X141.810 Y125.708 E0.05716
G1 X143.185 Y124.511 E0.05716
G1 X144.474 Y123.222 E0.05716
G1 X145.673 Y121.848 E0.05716
G1 X146.775 Y120.396 E0.05716
G1 X147.775 Y118.872 E0.05716
G1 X148.669 Y117.283 E0.05716
G1 X149.452 Y115.637 E0.05716
G1 X150.121 Y113.941 E0.05716
G1 X150.673 Y112.203 E0.05716
G1 X151.105 Y110.432 E0.05716
G1 X151.415 Y108.636 E0.05716
G1 X151.601 Y106.822 E0.05716
G1 X151.664 Y105.000 E0.05716
G1 X151.601 Y103.178 E0.05716
G1 X151.415 Y101.364 E0.05716
G1 X151.105 Y99.568 E0.05716
G1 X150.673 Y97.797 E0.05716
G1 X150.121 Y96.059 E0.05716
G1 X149.452 Y94.363 E0.05716
G1 X148.669 Y92.717 E0.05716
G1 X147.775 Y91.128 E0.05716
G1 X146.775 Y89.604 E0.05716
G1 X145.673 Y88.152 E0.05716
G1 X144.474 Y86.778 E0.05716
G1 X143.185 Y85.489 E0.05716
G1 X141.810 Y84.292 E0.05716
G1 X140.357 Y83.191 E0.05716
G1 X138.832 Y82.191 E0.05716
G1 X137.243 Y81.299 E0.05716
G1 X135.596 Y80.516 E0.05716
G1 X133.900 Y79.849 E0.05716
G1 X132.162 Y79.298 E0.05716
G1 X130.390 Y78.867 E0.05716
G1 X128.593 Y78.559 E0.05716
G1 X126.780 Y78.373 E0.05716
G1 X124.958 Y78.312 E0.05716
G1 X123.136 Y78.376 E0.05716
G1 X121.322 Y78.564 E0.05716
G1 X119.526 Y78.875 E0.05716
G1 X117.755 Y79.308 E0.05716
G1 X116.018 Y79.861 E0.05716
G1 X114.322 Y80.531 E0.05716
G1 X112.677 Y81.316 E0.05716
G1 X111.088 Y82.211 E0.05716
G1 X109.565 Y83.212 E0.05716
G1 X108.113 Y84.315 E0.05716
G1 X106.740 Y85.514 E0.05716
G1 X105.453 Y86.805 E0.05716
G1 X104.256 Y88.180 E0.05716
G1 X103.156 Y89.634 E0.05716
G1 X102.158 Y91.160 E0.05716
G1 X101.266 Y92.750 E0.05716
G1 X100.485 Y94.397 E0.05716
G1 X99.818 Y96.094 E0.05716
G1 X99.269 Y97.832 E0.05716
G1 X98.840 Y99.604 E0.05716
G1 X98.532 Y101.401 E0.05716
G1 X98.428 Y102.431 E0.03247
G1 X97.164 Y102.347 E0.03970
G1 X96.690 Y102.693 F10800.000
G1 F1200.000
G1 X96.834 Y101.260 E0.04515
G1 X97.138 Y99.431 E0.05813
G1 X97.561 Y97.626 E0.05812
G1 X98.120 Y95.797 E0.05998
G1 X98.755 Y94.118 E0.05627
G1 X99.521 Y92.430 E0.05813
G1 X100.396 Y90.796 E0.05812
G1 X101.375 Y89.222 E0.05812
G1 X102.491 Y87.668 E0.05997
G1 X103.670 Y86.238 E0.05812
G1 X104.940 Y84.887 E0.05813
G1 X106.251 Y83.662 E0.05627
G1 X107.730 Y82.449 E0.05998
G1 X109.239 Y81.371 E0.05812
G1 X110.814 Y80.395 E0.05812
G1 X112.450 Y79.523 E0.05812
G1 X114.140 Y78.760 E0.05813
G1 X115.820 Y78.129 E0.05628
G1 X117.650 Y77.572 E0.05998
G1 X119.514 Y77.142 E0.05997
G1 X121.285 Y76.851 E0.05628
G1 X123.130 Y76.670 E0.05812
G1 X125.042 Y76.611 E0.05998
G1 X126.836 Y76.671 E0.05627
G1 X128.680 Y76.853 E0.05813
G1 X130.510 Y77.155 E0.05812
G1 X132.315 Y77.576 E0.05812
G1 X134.089 Y78.113 E0.05812
G1 X135.879 Y78.788 E0.05997
G1 X137.566 Y79.555 E0.05812
G1 X139.149 Y80.402 E0.05627
G1 X140.773 Y81.411 E0.05998
G1 X142.279 Y82.493 E0.05812
G1 X143.666 Y83.632 E0.05628
G1 X145.063 Y84.938 E0.05998
G1 X146.330 Y86.292 E0.05812
G1 X147.468 Y87.680 E0.05628
G1 X148.585 Y89.233 E0.05998
G1 X149.592 Y90.859 E0.05997
G1 X150.437 Y92.442 E0.05628
G1 X151.203 Y94.130 E0.05812
G1 X151.874 Y95.922 E0.05998
G1 X152.395 Y97.639 E0.05627
G1 X152.817 Y99.444 E0.05813
G1 X153.120 Y101.273 E0.05812
G1 X153.303 Y103.118 E0.05812
G1 X153.365 Y105.029 E0.05997
G1 X153.303 Y106.882 E0.05812
G1 X153.127 Y108.668 E0.05627
G1 X152.817 Y110.556 E0.05998
G1 X152.395 Y112.361 E0.05812
G1 X151.874 Y114.078 E0.05628
G1 X151.203 Y115.870 E0.05998
G1 X150.437 Y117.558 E0.05812
G1 X149.592 Y119.141 E0.05628
G1 X148.585 Y120.767 E0.05997
G1 X147.468 Y122.320 E0.05998
G1 X146.330 Y123.708 E0.05628
G1 X145.063 Y125.062 E0.05812
G1 X143.666 Y126.368 E0.05998
G1 X142.279 Y127.507 E0.05628
G1 X140.773 Y128.589 E0.05812
G1 X139.149 Y129.598 E0.05998
G1 X137.566 Y130.445 E0.05627
G1 X135.879 Y131.212 E0.05812
G1 X134.089 Y131.887 E0.05997
G1 X132.315 Y132.424 E0.05812
G1 X130.510 Y132.845 E0.05812
G1 X128.680 Y133.147 E0.05813
G1 X126.894 Y133.324 E0.05627
G1 X124.983 Y133.390 E0.05998
G1 X123.130 Y133.330 E0.05812
G1 X121.344 Y133.155 E0.05628
G1 X119.456 Y132.848 E0.05998
G1 X117.650 Y132.428 E0.05812
G1 X115.932 Y131.909 E0.05628
G1 X114.140 Y131.240 E0.05998
G1 X112.398 Y130.450 E0.05997
G1 X110.814 Y129.605 E0.05628
G1 X109.239 Y128.629 E0.05813
G1 X107.730 Y127.551 E0.05812
G1 X106.251 Y126.338 E0.05998
G1 X104.940 Y125.113 E0.05627
G1 X103.670 Y123.762 E0.05813
G1 X102.491 Y122.332 E0.05812
G1 X101.375 Y120.778 E0.05997
G1 X100.396 Y119.204 E0.05812
G1 X99.521 Y117.570 E0.05812
G1 X98.755 Y115.882 E0.05813
G1 X98.120 Y114.203 E0.05627
G1 X97.561 Y112.374 E0.05998
G1 X97.138 Y110.569 E0.05812
G1 X96.834 Y108.740 E0.05812
G1 X96.691 Y107.307 E0.04516
G1 X98.766 Y107.168 E0.06522
G1 X98.906 Y108.548 E0.04349
G1 X99.209 Y110.320 E0.05635
G1 X99.633 Y112.066 E0.05635
G1 X100.174 Y113.780 E0.05635
G1 X100.831 Y115.453 E0.05635
G1 X101.601 Y117.077 E0.05635
G1 X102.480 Y118.645 E0.05635
G1 X103.465 Y120.149 E0.05635
G1 X104.549 Y121.582 E0.05635
G1 X105.729 Y122.938 E0.05635
G1 X106.998 Y124.210 E0.05635
G1 X108.352 Y125.393 E0.05635
G1 X109.783 Y126.480 E0.05635
G1 X111.285 Y127.467 E0.05635
G1 X112.851 Y128.350 E0.05635
G1 X114.473 Y129.123 E0.05635
G1 X116.144 Y129.784 E0.05635
G1 X117.857 Y130.329 E0.05635
G1 X119.603 Y130.756 E0.05635
G1 X121.374 Y131.062 E0.05635
G1 X123.162 Y131.248 E0.05635
G1 X124.958 Y131.310 E0.05635
G1 X126.754 Y131.250 E0.05635
G1 X128.542 Y131.067 E0.05635
G1 X130.314 Y130.763 E0.05635
G1 X132.060 Y130.339 E0.05635
G1 X133.746 Y129.805 E0.05544
G1 X135.446 Y129.137 E0.05726
G1 X137.069 Y128.366 E0.05636
G1 X138.636 Y127.486 E0.05635
G1 X140.140 Y126.501 E0.05635
G1 X141.572 Y125.416 E0.05635
G1 X142.927 Y124.235 E0.05635
G1 X144.199 Y122.965 E0.05635
G1 X145.380 Y121.610 E0.05635
G1 X146.467 Y120.178 E0.05635
G1 X147.453 Y118.676 E0.05635
G1 X148.334 Y117.109 E0.05635
G1 X149.106 Y115.486 E0.05635
G1 X149.766 Y113.814 E0.05635
G1 X150.310 Y112.101 E0.05635
G1 X150.736 Y110.355 E0.05635
G1 X151.041 Y108.584 E0.05635
G1 X151.225 Y106.796 E0.05635
G1 X151.286 Y105.000 E0.05635
G1 X151.225 Y103.204 E0.05635
G1 X151.041 Y101.416 E0.05635
G1 X150.736 Y99.645 E0.05635
G1 X150.310 Y97.899 E0.05635
G1 X149.766 Y96.186 E0.05635
G1 X149.106 Y94.514 E0.05635
G1 X148.334 Y92.891 E0.05635
G1 X147.453 Y91.324 E0.05635
G1 X146.467 Y89.822 E0.05635
G1 X145.380 Y88.390 E0.05635
G1 X144.199 Y87.035 E0.05635
G1 X142.927 Y85.765 E0.05635
G1 X141.572 Y84.584 E0.05635
G1 X140.140 Y83.499 E0.05635
G1 X138.636 Y82.514 E0.05635
G1 X137.069 Y81.634 E0.05635
G1 X135.446 Y80.863 E0.05635
G1 X133.773 Y80.204 E0.05635
G1 X132.060 Y79.661 E0.05635
G1 X130.314 Y79.237 E0.05635
G1 X128.542 Y78.933 E0.05635
G1 X126.754 Y78.750 E0.05635
G1 X124.958 Y78.690 E0.05635
G1 X123.162 Y78.752 E0.05635
G1 X121.374 Y78.938 E0.05635
G1 X119.603 Y79.244 E0.05635
G1 X117.857 Y79.671 E0.05635
G1 X116.144 Y80.216 E0.05635
G1 X114.473 Y80.877 E0.05635
G1 X112.851 Y81.650 E0.05635
G1 X111.285 Y82.533 E0.05635
G1 X109.783 Y83.520 E0.05635
G1 X108.352 Y84.607 E0.05635
G1 X106.998 Y85.790 E0.05635
G1 X105.729 Y87.062 E0.05635
G1 X104.549 Y88.418 E0.05635
G1 X103.465 Y89.851 E0.05635
G1 X102.480 Y91.355 E0.05635
G1 X101.601 Y92.923 E0.05635
G1 X100.831 Y94.547 E0.05635
G1 X100.174 Y96.220 E0.05635
G1 X99.633 Y97.934 E0.05635
G1 X99.209 Y99.680 E0.05635
G1 X98.906 Y101.452 E0.05635
G1 X98.766 Y102.832 E0.04349
G1 X96.750 Y102.697 E0.06335
G1 X96.854 Y102.328 F10800.000
G1 F8640.000
G1 X96.834 Y101.260 E-0.33237
G1 X97.138 Y99.433 E-0.42763
G1 E-0.04000 F2100.00000
G1 Z0.800 F10800.000
G1 X97.989 Y102.289
G1 Z0.200
G1 E0.80000 F2100.00000
G1 F1200.000
G1 X97.448 Y101.748 E0.02398
G1 X97.488 Y101.347 E0.01265
G1 X97.501 Y101.268 E0.00251
G1 X98.192 Y101.958 E0.03062
G1 X98.241 Y101.474 E0.01527
G1 X97.577 Y100.810 E0.02943
G1 X97.654 Y100.353 E0.01455
