; generated by Slic3r Prusa Edition 1.40.1+win64 on 2018-08-11 at 19:41:22

; 

; external perimeters extrusion width = 0.45mm
; perimeters extrusion width = 0.45mm
; infill extrusion width = 0.45mm
; solid infill extrusion width = 0.45mm
; top infill extrusion width = 0.40mm
; first layer extrusion width = 0.42mm

M107
M115 U3.1.0 ; tell printer latest fw version
M201 X9000 Y9000 Z500 E10000 ; sets maximum accelerations, mm/sec^2
M203 X500 Y500 Z12 E120 ; sets maximum feedrates, mm/sec
M204 S1500 T1500 ; sets acceleration (S) and retract acceleration (T)
M205 X10 Y10 Z0.2 E2.5 ; sets the jerk limits, mm/sec
M205 S0 T0 ; sets the minimum extruding and travel feed rate, mm/sec
M83  ; extruder relative mode
M104 S255 ; set extruder temp
M140 S100 ; set bed temp
M190 S100 ; wait for bed temp
M109 S255 ; wait for extruder temp
G28 W ; home all without mesh bed level
G80 ; mesh bed leveling
G1 Y-3.0 F1000.0 ; go outside print area
G92 E0.0
G1 X60.0 E9.0  F1000.0 ; intro line
G1 X100.0 E12.5  F1000.0 ; intro line
G92 E0.0
M900 K30; Filament gcode
G21 ; set units to millimeters
G90 ; use absolute coordinates
M83 ; use relative distances for extrusion
;BEFORE_LAYER_CHANGE
G92 E0.0
;0.2


G1 E-0.80000 F2100.00000
G1 Z0.600 F10800.000
;AFTER_LAYER_CHANGE
;0.2
G1 X167.734 Y166.931
G1 Z0.200
G1 E0.80000 F2100.00000
M204 S1000
G1 F1800
G1 X166.864 Y167.161 E0.02822
G1 X163.172 Y167.163 E0.11576
G1 X93.340 Y164.161 E2.19155
G1 X92.774 Y164.056 E0.01805
G1 X92.255 Y163.807 E0.01805
G1 X91.819 Y163.432 E0.01805
G1 X91.497 Y162.958 E0.01794
G1 X91.290 Y162.310 E0.02134
G1 X85.272 Y122.833 E1.25207
G1 X85.330 Y120.475 E0.07397
G1 X85.503 Y118.362 E0.06647
G1 X85.805 Y116.160 E0.06968
G1 X86.205 Y114.079 E0.06647
G1 X86.730 Y111.972 E0.06808
G1 X87.366 Y109.900 E0.06796
G1 X88.131 Y107.821 E0.06945
G1 X88.972 Y105.867 E0.06670
G1 X89.910 Y103.974 E0.06624
G1 X91.006 Y102.032 E0.06991
G1 X92.209 Y100.153 E0.06996
G1 X93.442 Y98.439 E0.06619
G1 X94.764 Y96.792 E0.06624
G1 X96.252 Y95.131 E0.06991
G1 X97.831 Y93.555 E0.06996
G1 X99.403 Y92.146 E0.06619
G1 X101.049 Y90.821 E0.06624
G1 X102.858 Y89.519 E0.06991
G1 X104.740 Y88.319 E0.06996
G1 X106.578 Y87.281 E0.06619
G1 X108.523 Y86.316 E0.06807
G1 X110.573 Y85.437 E0.06996
G1 X112.555 Y84.709 E0.06619
G1 X114.574 Y84.088 E0.06624
G1 X116.738 Y83.548 E0.06991
G1 X118.929 Y83.130 E0.06996
G1 X121.021 Y82.846 E0.06619
G1 X123.127 Y82.673 E0.06624
G1 X125.359 Y82.611 E0.07002
G1 X127.586 Y82.673 E0.06984
G1 X129.690 Y82.846 E0.06619
G1 X131.783 Y83.130 E0.06624
G1 X133.973 Y83.548 E0.06991
G1 X136.080 Y84.072 E0.06808
G1 X138.212 Y84.729 E0.06996
G1 X140.194 Y85.458 E0.06619
G1 X142.111 Y86.281 E0.06544
G1 X144.130 Y87.278 E0.07060
G1 X146.026 Y88.350 E0.06830
G1 X147.902 Y89.552 E0.06984
G1 X149.616 Y90.784 E0.06619
G1 X151.263 Y92.107 E0.06624
G1 X152.924 Y93.595 E0.06991
G1 X154.460 Y95.130 E0.06808
G1 X155.948 Y96.792 E0.06996
G1 X157.270 Y98.438 E0.06620
G1 X158.503 Y100.153 E0.06624
G1 X159.706 Y102.031 E0.06991
G1 X160.796 Y103.963 E0.06957
G1 X161.764 Y105.921 E0.06846
G1 X162.597 Y107.860 E0.06620
G1 X163.328 Y109.846 E0.06635
G1 X163.983 Y111.974 E0.06980
G1 X164.518 Y114.134 E0.06978
G1 X164.920 Y116.235 E0.06705
G1 X171.206 Y157.637 E1.31301
G1 X171.382 Y159.805 E0.06820
G1 X171.441 Y161.935 E0.06681
G1 X171.303 Y162.740 E0.02563
G1 X170.971 Y163.331 E0.02123
G1 X168.420 Y166.393 E0.12499
G1 X167.782 Y166.894 E0.02544
G1 F8640
G1 X166.864 Y167.161 E-0.22059
G1 X164.528 Y167.162 E-0.53941
G1 E-0.04000 F2100.00000
G1 Z0.800 F10800.000
G1 X160.063 Y125.112
G1 Z0.200
G1 E0.80000 F2100.00000
G1 F1800
G1 X157.949 Y125.112 E0.06628
G1 X158.449 Y122.112 E0.09536
G1 X155.825 Y122.112 E0.08227
G1 X155.786 Y120.822 E0.04046
G1 X155.612 Y118.953 E0.05887
G1 X155.324 Y117.097 E0.05887
G1 X154.923 Y115.263 E0.05887
G1 X154.409 Y113.457 E0.05887
G1 X153.785 Y111.686 E0.05887
G1 X153.053 Y109.957 E0.05887
G1 X152.216 Y108.276 E0.05887
G1 X151.277 Y106.650 E0.05887
G1 X150.240 Y105.084 E0.05887
G1 X149.108 Y103.586 E0.05887
G1 X147.887 Y102.160 E0.05887
G1 X146.579 Y100.812 E0.05887
G1 X145.192 Y99.547 E0.05887
G1 X143.729 Y98.370 E0.05887
G1 X142.196 Y97.285 E0.05887
G1 X140.600 Y96.296 E0.05887
G1 X138.946 Y95.408 E0.05887
G1 X137.240 Y94.623 E0.05887
G1 X135.489 Y93.945 E0.05887
G1 X133.699 Y93.376 E0.05887
G1 X131.878 Y92.918 E0.05887
G1 X130.033 Y92.573 E0.05887
G1 X128.169 Y92.342 E0.05887
G1 X126.295 Y92.226 E0.05887
G1 X124.417 Y92.226 E0.05887
G1 X122.543 Y92.342 E0.05887
G1 X120.680 Y92.573 E0.05887
G1 X118.834 Y92.918 E0.05887
G1 X117.013 Y93.376 E0.05887
G1 X115.224 Y93.945 E0.05887
G1 X113.473 Y94.623 E0.05887
G1 X111.767 Y95.408 E0.05887
G1 X110.112 Y96.296 E0.05887
G1 X108.516 Y97.285 E0.05887
G1 X106.983 Y98.370 E0.05887
G1 X105.521 Y99.547 E0.05887
G1 X104.133 Y100.812 E0.05887
G1 X102.826 Y102.160 E0.05887
G1 X101.604 Y103.586 E0.05887
G1 X100.472 Y105.084 E0.05887
G1 X99.435 Y106.650 E0.05887
G1 X98.496 Y108.276 E0.05887
G1 X97.659 Y109.957 E0.05887
G1 X96.928 Y111.686 E0.05887
G1 X96.303 Y113.457 E0.05887
G1 X95.790 Y115.263 E0.05887
G1 X95.388 Y117.097 E0.05887
G1 X95.100 Y118.953 E0.05887
G1 X94.927 Y120.822 E0.05887
G1 X94.887 Y122.112 E0.04046
G1 X93.649 Y122.112 E0.03881
G1 X94.149 Y119.112 E0.09536
G1 X89.263 Y119.112 E0.15320
G1 X89.763 Y122.112 E0.09536
G1 X88.059 Y122.112 E0.05342
G1 X88.098 Y120.679 E0.04495
G1 X88.262 Y118.665 E0.06336
G1 X88.535 Y116.663 E0.06336
G1 X88.916 Y114.678 E0.06336
G1 X89.404 Y112.717 E0.06336
G1 X89.997 Y110.785 E0.06336
G1 X90.694 Y108.888 E0.06336
G1 X91.482 Y107.055 E0.06256
G1 X92.390 Y105.221 E0.06416
G1 X93.385 Y103.462 E0.06335
G1 X94.473 Y101.760 E0.06336
G1 X95.652 Y100.118 E0.06336
G1 X96.918 Y98.543 E0.06336
G1 X98.267 Y97.039 E0.06336
G1 X99.696 Y95.610 E0.06336
G1 X101.200 Y94.261 E0.06336
G1 X102.775 Y92.995 E0.06336
G1 X104.417 Y91.816 E0.06336
G1 X106.119 Y90.728 E0.06336
G1 X107.879 Y89.733 E0.06336
G1 X109.666 Y88.846 E0.06256
G1 X111.546 Y88.036 E0.06416
G1 X113.442 Y87.340 E0.06335
G1 X115.374 Y86.747 E0.06336
G1 X117.335 Y86.259 E0.06336
G1 X119.320 Y85.878 E0.06336
G1 X121.322 Y85.605 E0.06336
G1 X123.336 Y85.441 E0.06336
G1 X125.356 Y85.386 E0.06336
G1 X127.351 Y85.440 E0.06256
G1 X129.391 Y85.605 E0.06416
G1 X131.393 Y85.878 E0.06335
G1 X133.377 Y86.259 E0.06336
G1 X135.338 Y86.747 E0.06336
G1 X137.270 Y87.340 E0.06336
G1 X139.167 Y88.037 E0.06336
G1 X141.023 Y88.835 E0.06336
G1 X142.834 Y89.733 E0.06336
G1 X144.593 Y90.728 E0.06336
G1 X146.296 Y91.816 E0.06336
G1 X147.937 Y92.995 E0.06336
G1 X149.512 Y94.261 E0.06336
G1 X151.016 Y95.610 E0.06336
G1 X152.445 Y97.039 E0.06336
G1 X153.795 Y98.543 E0.06336
G1 X155.061 Y100.118 E0.06336
G1 X156.239 Y101.760 E0.06336
G1 X157.328 Y103.462 E0.06336
G1 X158.322 Y105.222 E0.06336
G1 X159.220 Y107.032 E0.06336
G1 X160.019 Y108.888 E0.06336
G1 X160.707 Y110.761 E0.06256
G1 X161.309 Y112.717 E0.06416
G1 X161.797 Y114.678 E0.06335
G1 X162.177 Y116.663 E0.06336
G1 X162.450 Y118.665 E0.06336
G1 X162.614 Y120.679 E0.06336
G1 X162.653 Y122.112 E0.04495
G1 X159.563 Y122.112 E0.09688
G1 X160.053 Y125.053 E0.09348
G1 F8640
G1 X157.949 Y125.112 E-0.48603
G1 X158.144 Y123.942 E-0.27397
G1 E-0.04000 F2100.00000
G1 Z0.800 F10800.000
G1 X160.008 Y122.489
G1 Z0.200
G1 E0.80000 F2100.00000
G1 F1800
G1 X160.508 Y125.489 E0.09536
G1 X157.504 Y125.489 E0.09419
G1 X158.004 Y122.489 E0.09536
G1 X155.460 Y122.489 E0.07977
G1 X155.409 Y120.846 E0.05156
G1 X155.238 Y118.999 E0.05815
G1 X154.954 Y117.166 E0.05815
G1 X154.557 Y115.355 E0.05815
G1 X154.049 Y113.571 E0.05815
G1 X153.433 Y111.822 E0.05815
G1 X152.710 Y110.114 E0.05815
G1 X151.884 Y108.454 E0.05815
G1 X150.956 Y106.848 E0.05815
G1 X149.932 Y105.302 E0.05815
G1 X148.814 Y103.822 E0.05815
G1 X147.608 Y102.414 E0.05815
G1 X146.317 Y101.083 E0.05815
G1 X144.946 Y99.833 E0.05815
G1 X143.502 Y98.671 E0.05815
G1 X141.988 Y97.599 E0.05815
G1 X140.411 Y96.623 E0.05815
G1 X138.777 Y95.746 E0.05815
G1 X137.093 Y94.971 E0.05815
G1 X135.363 Y94.301 E0.05815
G1 X133.596 Y93.738 E0.05815
G1 X131.798 Y93.286 E0.05815
G1 X129.975 Y92.945 E0.05815
G1 X128.134 Y92.718 E0.05815
G1 X126.283 Y92.603 E0.05815
G1 X124.429 Y92.603 E0.05815
G1 X122.578 Y92.718 E0.05815
G1 X120.738 Y92.945 E0.05815
G1 X118.915 Y93.286 E0.05815
G1 X117.116 Y93.738 E0.05815
G1 X115.349 Y94.301 E0.05815
G1 X113.620 Y94.971 E0.05815
G1 X111.935 Y95.746 E0.05815
G1 X110.301 Y96.623 E0.05815
G1 X108.724 Y97.599 E0.05815
G1 X107.211 Y98.671 E0.05815
G1 X105.766 Y99.833 E0.05815
G1 X104.396 Y101.083 E0.05815
G1 X103.105 Y102.414 E0.05815
G1 X101.898 Y103.822 E0.05815
G1 X100.780 Y105.302 E0.05815
G1 X99.756 Y106.848 E0.05815
G1 X98.829 Y108.454 E0.05815
G1 X98.002 Y110.114 E0.05815
G1 X97.279 Y111.822 E0.05815
G1 X96.663 Y113.571 E0.05815
G1 X96.155 Y115.355 E0.05815
G1 X95.759 Y117.166 E0.05815
G1 X95.474 Y118.999 E0.05815
G1 X95.303 Y120.846 E0.05815
G1 X95.253 Y122.489 E0.05156
G1 X93.204 Y122.489 E0.06423
G1 X93.704 Y119.489 E0.09536
G1 X89.708 Y119.489 E0.12529
G1 X90.208 Y122.489 E0.09536
G1 X87.672 Y122.489 E0.07953
G1 X87.722 Y120.659 E0.05741
G1 X87.887 Y118.624 E0.06400
G1 X88.163 Y116.602 E0.06400
G1 X88.547 Y114.597 E0.06400
G1 X89.040 Y112.616 E0.06400
G1 X89.639 Y110.665 E0.06400
G1 X90.343 Y108.749 E0.06400
G1 X91.140 Y106.897 E0.06320
G1 X92.057 Y105.045 E0.06480
G1 X93.061 Y103.268 E0.06400
G1 X94.161 Y101.548 E0.06400
G1 X95.351 Y99.890 E0.06400
G1 X96.630 Y98.299 E0.06400
G1 X97.993 Y96.780 E0.06400
G1 X99.437 Y95.336 E0.06400
G1 X100.956 Y93.973 E0.06400
G1 X102.547 Y92.694 E0.06400
G1 X104.205 Y91.504 E0.06400
G1 X105.925 Y90.404 E0.06400
G1 X107.702 Y89.400 E0.06400
G1 X109.508 Y88.504 E0.06320
G1 X111.406 Y87.686 E0.06480
G1 X113.322 Y86.982 E0.06400
G1 X115.273 Y86.383 E0.06400
G1 X117.254 Y85.890 E0.06400
G1 X119.259 Y85.506 E0.06400
G1 X121.281 Y85.230 E0.06400
G1 X123.316 Y85.065 E0.06400
G1 X125.356 Y85.009 E0.06400
G1 X127.371 Y85.064 E0.06320
G1 X129.431 Y85.230 E0.06480
G1 X131.454 Y85.506 E0.06400
G1 X133.458 Y85.890 E0.06400
G1 X135.439 Y86.383 E0.06400
G1 X137.391 Y86.982 E0.06400
G1 X139.307 Y87.686 E0.06400
G1 X141.182 Y88.493 E0.06400
G1 X143.010 Y89.400 E0.06400
G1 X144.787 Y90.404 E0.06400
G1 X146.507 Y91.504 E0.06400
G1 X148.165 Y92.694 E0.06400
G1 X149.756 Y93.973 E0.06400
G1 X151.276 Y95.336 E0.06400
G1 X152.719 Y96.780 E0.06400
G1 X154.082 Y98.299 E0.06400
G1 X155.361 Y99.890 E0.06400
G1 X156.552 Y101.548 E0.06400
G1 X157.651 Y103.268 E0.06400
G1 X158.656 Y105.045 E0.06400
G1 X159.563 Y106.874 E0.06400
G1 X160.369 Y108.749 E0.06400
G1 X161.064 Y110.641 E0.06320
G1 X161.672 Y112.616 E0.06481
G1 X162.165 Y114.597 E0.06400
G1 X162.550 Y116.602 E0.06400
G1 X162.825 Y118.624 E0.06400
G1 X162.991 Y120.659 E0.06400
G1 X163.040 Y122.489 E0.05741
G1 X160.068 Y122.489 E0.09319
G1 X159.625 Y122.605 F10800.000
G1 F8640
G1 X160.508 Y125.489 E-0.70012
G1 X160.249 Y125.489 E-0.05988
G1 E-0.04000 F2100.00000
G1 Z0.800 F10800.000
G1 X158.324 Y121.999
G1 Z0.200
G1 E0.80000 F2100.00000
G1 F1800
G1 X155.960 Y119.635 E0.10492
G1 X156.014 Y120.223 E0.01854
G1 X157.620 Y121.829 E0.07128
G1 X157.087 Y121.829 E0.01675
G1 X156.068 Y120.811 E0.04519
G1 X156.085 Y121.362 E0.01729
G1 X156.723 Y121.999 E0.02828
G1 F8640
G1 X156.085 Y121.362 E-0.20811
G1 X156.068 Y120.811 E-0.12722
G1 X157.087 Y121.829 E-0.33253
G1 X157.486 Y121.829 E-0.09215
G1 E-0.04000 F2100.00000
G1 Z0.800 F10800.000
G1 X158.655 Y124.999
G1 Z0.200
G1 E0.80000 F2100.00000
G1 F1800
G1 X158.312 Y124.656 E0.01523
G1 X158.388 Y124.198 E0.01455
G1 X159.019 Y124.829 E0.02800
G1 X159.553 Y124.829 E0.01675
G1 X158.464 Y123.741 E0.04831
G1 X158.541 Y123.283 E0.01455
G1 X159.658 Y124.401 E0.04958
G1 X159.551 Y123.760 E0.02038
G1 X158.617 Y122.826 E0.04146
G1 X158.693 Y122.368 E0.01455
G1 X159.444 Y123.120 E0.03334
G1 X159.338 Y122.479 E0.02038
G1 X155.905 Y119.047 E0.15233
G1 X155.817 Y118.424 E0.01972
G1 X159.231 Y121.839 E0.15153
G1 X159.755 Y121.829 E0.01646
G1 X155.719 Y117.793 E0.17915
G1 X155.620 Y117.161 E0.02006
G1 X160.289 Y121.829 E0.20719
G1 X160.823 Y121.829 E0.01675
G1 X155.480 Y116.487 E0.23710
G1 X155.331 Y115.803 E0.02195
G1 X161.356 Y121.829 E0.26743
G1 X161.890 Y121.829 E0.01675
G1 X155.174 Y115.113 E0.29806
G1 X154.962 Y114.367 E0.02434
G1 X162.361 Y121.766 E0.32836
G1 X162.346 Y121.217 E0.01722
G1 X154.750 Y113.621 E0.33712
G1 X154.485 Y112.823 E0.02638
G1 X162.329 Y120.667 E0.34812
G1 X162.282 Y120.086 E0.01829
G1 X154.195 Y111.999 E0.35891
G1 X154.049 Y111.584 E0.01382
G1 X153.854 Y111.125 E0.01564
G1 X162.235 Y119.505 E0.37193
G1 X162.188 Y118.924 E0.01829
G1 X153.463 Y110.199 E0.38721
G1 X153.310 Y109.838 E0.01230
G1 X152.987 Y109.190 E0.02274
G1 X162.316 Y118.519 E0.41403
G1 X162.232 Y117.901 F10800.000
G1 F1800
G1 X151.991 Y107.660 E0.45449
G1 F8640
G1 X154.319 Y109.988 E-0.76000
G1 E-0.04000 F2100.00000
G1 Z0.800 F10800.000
G1 X151.213 Y106.349
G1 Z0.200
G1 E0.80000 F2100.00000
G1 F1800
G1 X162.148 Y117.283 E0.48527
G1 F8640
G1 X159.820 Y114.956 E-0.76000
G1 E-0.04000 F2100.00000
G1 Z0.800 F10800.000
G1 X159.295 Y107.492
G1 Z0.200
G1 E0.80000 F2100.00000
G1 F1800
G1 X140.888 Y89.085 E0.81692
G1 X139.951 Y88.682 E0.03200
G1 X159.374 Y108.104 E0.86199
G1 X159.772 Y109.036 E0.03180
G1 X139.019 Y88.283 E0.92101
G1 X138.175 Y87.974 E0.02821
G1 X160.082 Y109.880 E0.97221
G1 X160.392 Y110.724 E0.02821
G1 X137.332 Y87.664 E1.02341
G1 X136.548 Y87.414 E0.02581
G1 X160.640 Y111.506 E1.06921
G1 X160.877 Y112.277 E0.02532
G1 X135.778 Y87.177 E1.11392
G1 X135.028 Y86.961 E0.02451
G1 X161.095 Y113.028 E1.15687
G1 X161.271 Y113.738 E0.02297
G1 X134.317 Y86.784 E1.19624
G1 X133.607 Y86.607 E0.02297
G1 X161.448 Y114.449 E1.23561
G1 X161.595 Y115.129 E0.02186
G1 X132.926 Y86.460 E1.27235
G1 X132.265 Y86.333 E0.02110
G1 X161.722 Y115.790 E1.30729
G1 X161.849 Y116.450 E0.02110
G1 X150.070 Y104.672 E0.52275
G1 F8640
G1 X152.397 Y106.999 E-0.76000
G1 E-0.04000 F2100.00000
G1 Z0.800 F10800.000
G1 X155.765 Y101.293
G1 Z0.200
G1 E0.80000 F2100.00000
G1 F1800
G1 X146.762 Y92.290 E0.39958
G1 F8640
G1 X149.089 Y94.617 E-0.76000
G1 E-0.04000 F2100.00000
G1 Z0.800 F10800.000
G1 X145.166 Y91.228
G1 Z0.200
G1 E0.80000 F2100.00000
G1 F1800
G1 X156.827 Y102.889 E0.51750
G1 F8640
G1 X154.500 Y100.562 E-0.76000
G1 E-0.04000 F2100.00000
G1 Z0.800 F10800.000
G1 X157.629 Y104.224
G1 Z0.200
G1 E0.80000 F2100.00000
G1 F1800
G1 X143.831 Y90.427 E0.61234
G1 F8640
G1 X146.158 Y92.754 E-0.76000
G1 E-0.04000 F2100.00000
G1 Z0.800 F10800.000
G1 X142.628 Y89.757
G1 Z0.200
G1 E0.80000 F2100.00000
G1 F1800
G1 X158.298 Y105.428 E0.69548
G1 F8640
G1 X155.971 Y103.100 E-0.76000
G1 E-0.04000 F2100.00000
G1 Z0.800 F10800.000
G1 X158.824 Y106.487
G1 Z0.200
G1 E0.80000 F2100.00000
G1 F1800
G1 X141.569 Y89.232 E0.76578
G1 F8640
G1 X143.896 Y91.559 E-0.76000
G1 E-0.04000 F2100.00000
G1 Z0.800 F10800.000
G1 X140.382 Y96.051
G1 Z0.200
G1 E0.80000 F2100.00000
G1 F1800
G1 X130.352 Y86.022 E0.44509
G1 X129.735 Y85.937 E0.01957
G1 X138.850 Y95.053 E0.40453
G1 X137.861 Y94.598 E0.03415
G1 X129.131 Y85.868 E0.38743
G1 X128.551 Y85.821 E0.01828
G1 X136.929 Y94.200 E0.37184
G1 X136.058 Y93.862 E0.02932
G1 X127.970 Y85.774 E0.35895
G1 X127.389 Y85.727 E0.01828
G1 X135.227 Y93.565 E0.34783
G1 X134.444 Y93.316 E0.02578
G1 X126.838 Y85.709 E0.33757
G1 X126.289 Y85.695 E0.01722
G1 X133.672 Y93.077 E0.32764
G1 X132.959 Y92.898 E0.02307
G1 X125.741 Y85.680 E0.32034
G1 X125.201 Y85.674 E0.01695
G1 X132.246 Y92.718 E0.31265
G1 X131.565 Y92.571 E0.02186
G1 X124.681 Y85.688 E0.30550
G1 X124.161 Y85.702 E0.01631
G1 X130.908 Y92.449 E0.29943
G1 X130.252 Y92.326 E0.02096
G1 X123.642 Y85.716 E0.29336
G1 X123.134 Y85.741 E0.01597
G1 X129.630 Y92.238 E0.28831
G1 X129.021 Y92.162 E0.01926
G1 X122.640 Y85.782 E0.28318
G1 X122.147 Y85.822 E0.01554
G1 X128.412 Y92.087 E0.27805
G1 X127.829 Y92.038 E0.01837
G1 X121.653 Y85.862 E0.27407
G1 X121.169 Y85.911 E0.01528
G1 X127.260 Y92.002 E0.27032
G1 X126.691 Y91.967 E0.01788
G1 X120.699 Y85.975 E0.26592
G1 X120.229 Y86.039 E0.01488
G1 X126.133 Y91.943 E0.26202
G1 X125.600 Y91.943 E0.01675
