; generated by PrusaSlicer 2.2.0+win64 on 2020-05-23 at 10:07:05 UTC

; 

; external perimeters extrusion width = 0.45mm
; perimeters extrusion width = 0.45mm
; infill extrusion width = 0.45mm
; solid infill extrusion width = 0.45mm
; top infill extrusion width = 0.40mm
; first layer extrusion width = 0.42mm

M73 P0 R57
M201 X9000 Y9000 Z500 E10000 ; sets maximum accelerations, mm/sec^2
M203 X500 Y500 Z12 E120 ; sets maximum feedrates, mm/sec
M204 P2000 R1500 T2000 ; sets acceleration (P, T) and retract acceleration (R), mm/sec^2
M205 X10.00 Y10.00 Z0.20 E2.50 ; sets the jerk limits, mm/sec
M205 S0 T0 ; sets the minimum extruding and travel feed rate, mm/sec
M107
M862.3 P "MK2S" ; printer model check
M862.1 P0.4 ; nozzle diameter check
M115 U3.2.3 ; tell printer latest fw version
G90 ; use absolute coordinates
M83 ; extruder relative mode
M204 S2000 T1500 ; MK2 firmware only supports the old M204 format
M104 S255 ; set extruder temp
M140 S100 ; set bed temp
M190 S100 ; wait for bed temp
M109 S255 ; wait for extruder temp
G28 W ; home all without mesh bed level
G80 ; mesh bed leveling
G1 Y-3.0 F1000.0 ; go outside print area
G92 E0.0
G1 X60.0 E9.0  F1000.0 ; intro line
M73 P0 R57
G1 X100.0 E12.5 F1000.0 ; intro line
G92 E0.0
G21 ; set units to millimeters
G90 ; use absolute coordinates
M83 ; use relative distances for extrusion
M900 K0.04 ; Filament gcode LA 1.5
M900 K20 ; Filament gcode LA 1.0
;BEFORE_LAYER_CHANGE
G92 E0.0
;0.2


G1 E-0.80000 F2100.00000
G1 Z0.600 F10800.000
;AFTER_LAYER_CHANGE
;0.2
G1 X98.570 Y83.474
G1 Z0.200
G1 E0.80000 F2100.00000
M204 S1000
G1 F1200.000
G1 X99.621 Y82.233 E0.05098
G1 X101.153 Y80.635 E0.06942
G1 X102.629 Y79.273 E0.06297
G1 X104.184 Y78.002 E0.06297
G1 X105.985 Y76.707 E0.06954
G1 X107.681 Y75.638 E0.06285
G1 X109.502 Y74.639 E0.06512
G1 X111.380 Y73.753 E0.06512
G1 X113.241 Y73.008 E0.06285
G1 X115.347 Y72.312 E0.06954
G1 X117.289 Y71.801 E0.06297
G1 X119.323 Y71.395 E0.06500
G1 X121.456 Y71.106 E0.06751
G1 X123.455 Y70.957 E0.06285
G1 X125.498 Y70.927 E0.06405
G1 X127.679 Y71.031 E0.06847
G1 X129.676 Y71.249 E0.06297
G1 X131.723 Y71.598 E0.06512
G1 X133.742 Y72.070 E0.06500
G1 X135.666 Y72.644 E0.06297
G1 X137.748 Y73.408 E0.06954
G1 X139.584 Y74.213 E0.06285
G1 X141.433 Y75.160 E0.06512
G1 X143.220 Y76.218 E0.06512
G1 X144.883 Y77.344 E0.06297
G1 X146.637 Y78.695 E0.06942
G1 X148.150 Y80.016 E0.06297
G1 X149.629 Y81.474 E0.06512
G1 X151.017 Y83.020 E0.06512
G1 X152.263 Y84.590 E0.06285
G1 X153.499 Y86.353 E0.06751
G1 X154.580 Y88.122 E0.06500
G1 X155.522 Y89.896 E0.06297
G1 X156.439 Y91.915 E0.06954
G1 X157.155 Y93.787 E0.06285
G1 X157.779 Y95.769 E0.06512
G1 X158.279 Y97.781 E0.06500
G1 X158.646 Y99.755 E0.06297
G1 X158.916 Y101.957 E0.06954
G1 X159.037 Y103.965 E0.06309
G1 X159.037 Y106.035 E0.06488
G1 X158.903 Y108.184 E0.06751
G1 X158.657 Y110.177 E0.06297
G1 X158.279 Y112.219 E0.06512
G1 X157.779 Y114.231 E0.06500
G1 X157.177 Y116.147 E0.06297
G1 X156.384 Y118.218 E0.06954
G1 X155.551 Y120.046 E0.06297
G1 X154.580 Y121.878 E0.06500
G1 X153.499 Y123.647 E0.06500
G1 X152.348 Y125.297 E0.06309
G1 X150.972 Y127.032 E0.06942
G1 X149.627 Y128.528 E0.06309
G1 X148.150 Y129.984 E0.06500
G1 X146.585 Y131.349 E0.06512
G1 X144.998 Y132.574 E0.06285
G1 X143.217 Y133.784 E0.06751
G1 X141.433 Y134.840 E0.06500
G1 X139.646 Y135.757 E0.06297
G1 X137.614 Y136.646 E0.06954
G1 X135.732 Y137.335 E0.06285
G1 X133.742 Y137.930 E0.06512
G1 X131.719 Y138.403 E0.06512
G1 X129.743 Y138.741 E0.06285
G1 X127.539 Y138.980 E0.06954
G1 X125.532 Y139.073 E0.06297
G1 X123.490 Y139.044 E0.06405
G1 X121.312 Y138.879 E0.06847
G1 X119.323 Y138.605 E0.06297
G1 X117.290 Y138.199 E0.06500
G1 X115.285 Y137.670 E0.06500
G1 X113.374 Y137.040 E0.06309
G1 X111.314 Y136.218 E0.06954
G1 X109.498 Y135.359 E0.06297
G1 X107.681 Y134.362 E0.06500
G1 X105.924 Y133.254 E0.06512
G1 X104.293 Y132.082 E0.06297
G1 X102.578 Y130.682 E0.06942
G1 X101.101 Y129.315 E0.06309
G1 X99.666 Y127.819 E0.06500
G1 X98.323 Y126.234 E0.06512
G1 X97.119 Y124.627 E0.06297
G1 X95.902 Y122.773 E0.06954
G1 X94.904 Y121.030 E0.06297
G1 X93.985 Y119.171 E0.06500
G1 X93.179 Y117.257 E0.06512
G1 X92.513 Y115.362 E0.06297
G1 X91.909 Y113.232 E0.06942
G1 X91.480 Y111.266 E0.06309
G1 X91.161 Y109.218 E0.06500
G1 X90.963 Y107.074 E0.06751
G1 X90.963 Y102.931 E0.12989
G1 X91.170 Y100.714 E0.06982
G1 X91.481 Y98.726 E0.06309
G1 X91.924 Y96.705 E0.06488
G1 X92.515 Y94.634 E0.06751
G1 X93.181 Y92.739 E0.06297
G1 X93.985 Y90.829 E0.06500
G1 X94.904 Y88.970 E0.06500
G1 X95.902 Y87.227 E0.06297
G1 X97.081 Y85.426 E0.06751
G1 X98.323 Y83.766 E0.06500
G1 X98.532 Y83.520 E0.01011
G1 F8640.000
G1 X99.621 Y82.233 E-0.38929
G1 X100.732 Y81.074 E-0.37071
G1 E-0.04000 F2100.00000
G1 Z0.800 F10800.000
G1 X94.404 Y102.213
G1 Z0.200
G1 E0.80000 F2100.00000
G1 F1200.000
G1 X94.502 Y101.174 E0.03271
G1 X94.794 Y99.313 E0.05908
G1 X95.200 Y97.473 E0.05908
G1 X95.718 Y95.661 E0.05910
G1 X96.345 Y93.885 E0.05905
G1 X97.081 Y92.150 E0.05909
G1 X97.922 Y90.463 E0.05911
G1 X98.863 Y88.832 E0.05903
G1 X99.904 Y87.261 E0.05909
G1 X101.040 Y85.756 E0.05912
G1 X102.263 Y84.326 E0.05901
G1 X103.574 Y82.972 E0.05910
G1 X104.967 Y81.700 E0.05913
G1 X106.431 Y80.519 E0.05900
G1 X107.968 Y79.427 E0.05910
G1 X109.570 Y78.431 E0.05914
G1 X111.225 Y77.538 E0.05898
G1 X112.936 Y76.746 E0.05911
G1 X114.693 Y76.060 E0.05915
G1 X115.281 Y75.866 E0.01940
G1 X116.484 Y75.485 E0.03957
G1 X118.311 Y75.020 E0.05911
G1 X120.162 Y74.668 E0.05907
G1 X122.031 Y74.430 E0.05907
G1 X123.912 Y74.307 E0.05911
G1 X124.958 Y74.298 E0.03281
G1 X125.793 Y74.299 E0.02619
G1 X127.676 Y74.407 E0.05912
G1 X129.547 Y74.630 E0.05907
G1 X131.400 Y74.968 E0.05907
G1 X133.233 Y75.419 E0.05919
G1 X135.026 Y75.980 E0.05891
G1 X136.789 Y76.651 E0.05913
G1 X138.508 Y77.431 E0.05920
G1 X139.058 Y77.713 E0.01937
G1 X140.168 Y78.310 E0.03952
G1 X141.778 Y79.293 E0.05913
G1 X143.322 Y80.371 E0.05907
G1 X144.798 Y81.543 E0.05907
G1 X146.202 Y82.805 E0.05921
G1 X146.642 Y83.239 E0.01937
G1 X147.519 Y84.144 E0.03950
G1 X148.756 Y85.567 E0.05914
G1 X149.903 Y87.062 E0.05907
G1 X150.956 Y88.624 E0.05907
G1 X151.914 Y90.253 E0.05923
G1 X152.764 Y91.926 E0.05883
G1 X153.514 Y93.656 E0.05915
G1 X154.158 Y95.433 E0.05924
G1 X154.687 Y97.232 E0.05882
G1 X155.108 Y99.072 E0.05916
G1 X155.416 Y100.936 E0.05925
G1 X155.607 Y102.808 E0.05898
G1 X155.645 Y103.426 E0.01943
G1 X155.684 Y104.690 E0.03964
G1 X155.684 Y105.310 E0.01943
G1 X155.645 Y106.574 E0.03964
G1 X155.607 Y107.192 E0.01943
G1 X155.416 Y109.064 E0.05898
G1 X155.108 Y110.928 E0.05925
G1 X154.687 Y112.768 E0.05916
G1 X154.158 Y114.567 E0.05882
G1 X153.514 Y116.344 E0.05924
G1 X152.764 Y118.074 E0.05915
G1 X152.203 Y119.202 E0.03948
G1 X151.914 Y119.747 E0.01936
G1 X150.956 Y121.376 E0.05923
G1 X149.902 Y122.940 E0.05915
G1 X148.759 Y124.429 E0.05885
G1 X147.520 Y125.854 E0.05922
G1 X146.197 Y127.199 E0.05914
G1 X144.801 Y128.455 E0.05887
G1 X143.322 Y129.629 E0.05921
G1 X141.778 Y130.707 E0.05907
G1 X140.170 Y131.689 E0.05907
G1 X138.503 Y132.572 E0.05913
G1 X137.358 Y133.099 E0.03952
G1 X136.792 Y133.347 E0.01938
G1 X135.028 Y134.020 E0.05919
G1 X133.230 Y134.582 E0.05907
G1 X131.400 Y135.032 E0.05907
G1 X129.545 Y135.370 E0.05912
G1 X128.294 Y135.526 E0.03954
G1 X127.679 Y135.593 E0.01939
G1 X125.795 Y135.701 E0.05918
G1 X123.909 Y135.693 E0.05912
G1 X122.034 Y135.571 E0.05894
G1 X120.162 Y135.332 E0.05916
G1 X118.310 Y134.980 E0.05911
G1 X116.487 Y134.516 E0.05896
G1 X114.691 Y133.939 E0.05915
G1 X112.935 Y133.253 E0.05911
G1 X111.788 Y132.727 E0.03957
G1 X111.228 Y132.463 E0.01940
G1 X109.568 Y131.568 E0.05914
G1 X107.967 Y130.572 E0.05910
G1 X106.433 Y129.483 E0.05899
G1 X104.965 Y128.299 E0.05913
G1 X103.574 Y127.027 E0.05910
G1 X102.265 Y125.675 E0.05901
G1 X101.039 Y124.243 E0.05912
G1 X99.904 Y122.738 E0.05909
G1 X98.864 Y121.169 E0.05902
G1 X97.921 Y119.536 E0.05911
G1 X97.081 Y117.850 E0.05909
G1 X96.346 Y116.116 E0.05904
G1 X95.718 Y114.339 E0.05910
G1 X95.200 Y112.527 E0.05908
G1 X94.794 Y110.687 E0.05908
G1 X94.502 Y108.826 E0.05908
G1 X94.404 Y107.787 E0.03271
G1 X94.429 Y107.787 E0.00079
G1 X94.546 Y108.969 E0.03723
G1 X94.855 Y110.869 E0.06037
G1 X95.282 Y112.746 E0.06037
G1 X95.826 Y114.593 E0.06037
G1 X96.485 Y116.402 E0.06037
G1 X97.256 Y118.166 E0.06037
G1 X98.136 Y119.878 E0.06037
G1 X99.122 Y121.532 E0.06037
G1 X100.210 Y123.121 E0.06037
G1 X101.395 Y124.638 E0.06037
G1 X102.673 Y126.078 E0.06036
G1 X104.038 Y127.435 E0.06037
G1 X105.486 Y128.704 E0.06037
G1 X107.011 Y129.880 E0.06037
G1 X108.607 Y130.957 E0.06037
G1 X110.266 Y131.932 E0.06037
G1 X111.984 Y132.802 E0.06037
G1 X113.753 Y133.562 E0.06037
G1 X115.566 Y134.209 E0.06037
G1 X117.416 Y134.742 E0.06037
G1 X119.296 Y135.157 E0.06037
G1 X121.199 Y135.454 E0.06036
G1 X123.116 Y135.631 E0.06037
G1 X125.040 Y135.687 E0.06037
G1 X126.964 Y135.623 E0.06037
G1 X128.881 Y135.438 E0.06037
G1 X130.782 Y135.133 E0.06037
G1 X132.660 Y134.710 E0.06037
G1 X134.508 Y134.170 E0.06037
G1 X136.318 Y133.514 E0.06037
G1 X138.084 Y132.747 E0.06037
G1 X139.798 Y131.871 E0.06037
G1 X141.454 Y130.888 E0.06037
G1 X143.045 Y129.804 E0.06037
G1 X144.564 Y128.622 E0.06037
G1 X146.007 Y127.347 E0.06037
G1 X147.367 Y125.985 E0.06036
G1 X148.639 Y124.539 E0.06037
G1 X149.818 Y123.017 E0.06037
G1 X150.898 Y121.424 E0.06037
G1 X151.877 Y119.766 E0.06037
G1 X152.750 Y118.050 E0.06037
G1 X153.514 Y116.282 E0.06037
G1 X154.165 Y114.471 E0.06037
G1 X154.702 Y112.622 E0.06037
G1 X155.121 Y110.743 E0.06037
G1 X155.422 Y108.841 E0.06037
G1 X155.603 Y106.924 E0.06037
G1 X155.663 Y105.000 E0.06037
G1 X155.603 Y103.076 E0.06037
G1 X155.422 Y101.159 E0.06037
G1 X155.121 Y99.257 E0.06037
G1 X154.702 Y97.378 E0.06037
G1 X154.165 Y95.529 E0.06037
G1 X153.514 Y93.718 E0.06037
G1 X152.750 Y91.950 E0.06037
G1 X151.877 Y90.234 E0.06037
G1 X150.898 Y88.576 E0.06037
G1 X149.818 Y86.983 E0.06037
G1 X148.639 Y85.461 E0.06037
G1 X147.367 Y84.015 E0.06037
G1 X146.007 Y82.653 E0.06037
G1 X144.564 Y81.378 E0.06037
G1 X143.045 Y80.196 E0.06037
G1 X141.454 Y79.112 E0.06037
G1 X139.798 Y78.129 E0.06037
G1 X138.084 Y77.253 E0.06037
G1 X136.318 Y76.486 E0.06037
G1 X134.508 Y75.830 E0.06037
G1 X132.660 Y75.290 E0.06037
G1 X130.782 Y74.867 E0.06037
G1 X128.881 Y74.562 E0.06037
G1 X126.964 Y74.377 E0.06037
G1 X125.040 Y74.313 E0.06037
G1 X123.116 Y74.369 E0.06037
G1 X121.199 Y74.546 E0.06037
G1 X119.296 Y74.843 E0.06037
G1 X117.416 Y75.258 E0.06037
G1 X115.566 Y75.791 E0.06037
G1 X113.753 Y76.438 E0.06037
G1 X111.984 Y77.198 E0.06037
G1 X110.266 Y78.068 E0.06037
G1 X108.607 Y79.043 E0.06037
G1 X107.011 Y80.121 E0.06037
G1 X105.486 Y81.296 E0.06037
G1 X104.038 Y82.565 E0.06037
G1 X102.673 Y83.922 E0.06037
G1 X101.395 Y85.362 E0.06037
G1 X100.210 Y86.879 E0.06037
G1 X99.122 Y88.468 E0.06037
G1 X98.136 Y90.122 E0.06037
G1 X97.256 Y91.834 E0.06037
G1 X96.485 Y93.598 E0.06037
G1 X95.826 Y95.407 E0.06037
G1 X95.282 Y97.254 E0.06037
G1 X94.855 Y99.131 E0.06037
G1 X94.546 Y101.031 E0.06037
G1 X94.433 Y102.178 E0.03614
G1 X94.771 Y102.590 F10800.000
G1 F1200.000
G1 X93.990 Y102.590 E0.02450
G1 X94.128 Y101.127 E0.04607
G1 X94.424 Y99.243 E0.05980
G1 X94.834 Y97.380 E0.05980
G1 X95.358 Y95.546 E0.05981
G1 X95.994 Y93.748 E0.05979
G1 X96.738 Y91.992 E0.05981
G1 X97.589 Y90.285 E0.05981
G1 X98.543 Y88.634 E0.05978
G1 X99.596 Y87.043 E0.05981
G1 X100.745 Y85.521 E0.05982
G1 X101.985 Y84.072 E0.05978
G1 X103.312 Y82.701 E0.05981
G1 X104.720 Y81.415 E0.05982
G1 X106.204 Y80.218 E0.05977
G1 X107.759 Y79.113 E0.05981
G1 X109.379 Y78.106 E0.05982
G1 X111.057 Y77.200 E0.05977
G1 X112.788 Y76.399 E0.05981
G1 X114.566 Y75.705 E0.05983
G1 X115.165 Y75.507 E0.01978
G1 X116.380 Y75.123 E0.03998
G1 X118.229 Y74.652 E0.05981
G1 X120.103 Y74.295 E0.05980
G1 X121.994 Y74.054 E0.05980
G1 X123.898 Y73.930 E0.05981
G1 X124.957 Y73.921 E0.03320
G1 X125.804 Y73.922 E0.02657
G1 X127.709 Y74.031 E0.05982
G1 X129.603 Y74.257 E0.05980
G1 X131.479 Y74.599 E0.05980
G1 X133.332 Y75.055 E0.05984
G1 X135.151 Y75.624 E0.05974
G1 X136.934 Y76.303 E0.05982
G1 X138.672 Y77.091 E0.05984
G1 X139.233 Y77.379 E0.01978
G1 X140.356 Y77.982 E0.03996
G1 X141.984 Y78.977 E0.05982
G1 X143.548 Y80.069 E0.05980
G1 X145.041 Y81.255 E0.05980
G1 X146.461 Y82.531 E0.05985
G1 X146.910 Y82.974 E0.01977
G1 X147.796 Y83.889 E0.03995
G1 X149.048 Y85.329 E0.05982
G1 X150.209 Y86.842 E0.05980
G1 X151.275 Y88.423 E0.05980
G1 X152.243 Y90.069 E0.05985
G1 X153.106 Y91.766 E0.05971
G1 X153.865 Y93.517 E0.05983
G1 X154.515 Y95.312 E0.05986
G1 X155.053 Y97.139 E0.05971
G1 X155.478 Y98.999 E0.05983
G1 X155.789 Y100.883 E0.05986
G1 X155.983 Y102.779 E0.05977
G1 X156.022 Y103.409 E0.01980
G1 X156.061 Y104.684 E0.04000
G1 X156.061 Y105.316 E0.01980
G1 X156.022 Y106.591 E0.04000
G1 X155.983 Y107.221 E0.01980
G1 X155.789 Y109.117 E0.05977
G1 X155.478 Y111.001 E0.05986
G1 X155.053 Y112.861 E0.05983
G1 X154.515 Y114.688 E0.05971
G1 X153.865 Y116.483 E0.05986
G1 X153.106 Y118.234 E0.05983
G1 X152.538 Y119.374 E0.03995
G1 X152.243 Y119.931 E0.01977
G1 X151.275 Y121.577 E0.05985
G1 X150.209 Y123.159 E0.05982
G1 X149.050 Y124.670 E0.05972
G1 X147.797 Y126.111 E0.05985
G1 X146.459 Y127.471 E0.05982
G1 X145.043 Y128.744 E0.05972
G1 X143.548 Y129.931 E0.05985
G1 X141.984 Y131.023 E0.05980
G1 X140.356 Y132.017 E0.05980
G1 X138.670 Y132.910 E0.05982
G1 X137.513 Y133.443 E0.03996
G1 X136.935 Y133.696 E0.01978
G1 X135.152 Y134.376 E0.05984
G1 X133.331 Y134.945 E0.05980
G1 X131.479 Y135.401 E0.05980
G1 X129.602 Y135.743 E0.05982
G1 X128.337 Y135.901 E0.03997
G1 X127.710 Y135.968 E0.01978
G1 X125.805 Y136.078 E0.05984
G1 X123.897 Y136.070 E0.05982
G1 X121.996 Y135.946 E0.05975
G1 X120.103 Y135.705 E0.05983
G1 X118.228 Y135.348 E0.05981
G1 X116.382 Y134.878 E0.05976
G1 X114.565 Y134.294 E0.05983
G1 X112.788 Y133.601 E0.05981
G1 X111.629 Y133.069 E0.03998
G1 X111.058 Y132.800 E0.01979
G1 X109.379 Y131.894 E0.05983
G1 X107.759 Y130.887 E0.05981
G1 X106.204 Y129.783 E0.05977
G1 X104.720 Y128.585 E0.05982
G1 X103.311 Y127.298 E0.05981
G1 X101.985 Y125.929 E0.05978
G1 X100.745 Y124.479 E0.05982
G1 X99.596 Y122.956 E0.05981
G1 X98.543 Y121.367 E0.05978
G1 X97.589 Y119.715 E0.05981
G1 X96.738 Y118.008 E0.05981
G1 X95.994 Y116.252 E0.05979
G1 X95.358 Y114.454 E0.05981
G1 X94.834 Y112.620 E0.05980
G1 X94.424 Y110.757 E0.05980
G1 X94.128 Y108.873 E0.05980
G1 X93.990 Y107.410 E0.04607
G1 X94.771 Y107.410 E0.02450
G1 X94.920 Y108.920 E0.04757
G1 X95.225 Y110.797 E0.05962
G1 X95.647 Y112.651 E0.05962
G1 X96.185 Y114.475 E0.05962
G1 X96.835 Y116.262 E0.05962
G1 X97.597 Y118.004 E0.05962
G1 X98.466 Y119.695 E0.05962
G1 X99.440 Y121.329 E0.05962
G1 X100.514 Y122.898 E0.05962
G1 X101.685 Y124.397 E0.05962
G1 X102.947 Y125.819 E0.05962
G1 X104.296 Y127.159 E0.05962
G1 X105.726 Y128.413 E0.05962
G1 X107.232 Y129.574 E0.05962
G1 X108.808 Y130.638 E0.05962
G1 X110.447 Y131.601 E0.05962
G1 X112.144 Y132.460 E0.05962
G1 X113.891 Y133.211 E0.05962
G1 X115.682 Y133.850 E0.05962
G1 X117.509 Y134.376 E0.05962
G1 X119.366 Y134.787 E0.05962
G1 X121.245 Y135.080 E0.05962
G1 X123.139 Y135.254 E0.05962
G1 X125.039 Y135.310 E0.05962
G1 X126.940 Y135.247 E0.05962
G1 X128.833 Y135.064 E0.05962
G1 X130.710 Y134.763 E0.05962
G1 X132.565 Y134.345 E0.05962
G1 X134.390 Y133.811 E0.05962
G1 X136.179 Y133.164 E0.05962
G1 X137.923 Y132.406 E0.05962
G1 X139.616 Y131.540 E0.05962
G1 X141.251 Y130.570 E0.05962
G1 X142.822 Y129.499 E0.05962
G1 X144.324 Y128.332 E0.05962
G1 X145.749 Y127.073 E0.05962
G1 X147.092 Y125.727 E0.05962
G1 X148.348 Y124.299 E0.05962
G1 X149.512 Y122.795 E0.05962
G1 X150.580 Y121.222 E0.05962
G1 X151.547 Y119.584 E0.05962
G1 X152.409 Y117.889 E0.05962
G1 X153.163 Y116.144 E0.05962
G1 X153.806 Y114.354 E0.05962
G1 X154.336 Y112.528 E0.05962
G1 X154.751 Y110.672 E0.05962
G1 X155.048 Y108.794 E0.05962
G1 X155.226 Y106.901 E0.05962
G1 X155.286 Y105.000 E0.05962
G1 X155.226 Y103.099 E0.05962
G1 X155.048 Y101.206 E0.05962
G1 X154.751 Y99.328 E0.05962
G1 X154.336 Y97.472 E0.05962
G1 X153.806 Y95.646 E0.05962
G1 X153.163 Y93.856 E0.05962
