; generated by PrusaSlicer 2.2.0+win64 on 2020-05-19 at 11:14:07 UTC

; 

; external perimeters extrusion width = 0.45mm
; perimeters extrusion width = 0.45mm
; infill extrusion width = 0.45mm
; solid infill extrusion width = 0.45mm
; top infill extrusion width = 0.40mm
; first layer extrusion width = 0.42mm

M73 P0 R68
M201 X9000 Y9000 Z500 E10000 ; sets maximum accelerations, mm/sec^2
M203 X500 Y500 Z12 E120 ; sets maximum feedrates, mm/sec
M204 P2000 R1500 T2000 ; sets acceleration (P, T) and retract acceleration (R), mm/sec^2
M205 X10.00 Y10.00 Z0.20 E2.50 ; sets the jerk limits, mm/sec
M205 S0 T0 ; sets the minimum extruding and travel feed rate, mm/sec
M107 ; disable fan
M862.3 P "MK2S" ; printer model check
M862.1 P0.4 ; nozzle diameter check
M115 U3.2.3 ; tell printer latest fw version
G90 ; use absolute coordinates
M83 ; extruder relative mode
M204 S2000 T1500 ; MK2 firmware only supports the old M204 format
M104 S220 ; set extruder temp
M140 S80 ; set bed temp
M190 S80 ; wait for bed temp
M109 S220 ; wait for extruder temp
G28 W ; home all without mesh bed level
G80 ; mesh bed leveling
G1 Y-3.0 F1000.0 ; go outside print area
G92 E0.0
G1 X60.0 E9.0  F1000.0 ; intro line
M73 P0 R68
G1 X100.0 E12.5 F1000.0 ; intro line
G92 E0.0
G21 ; set units to millimeters
G90 ; use absolute coordinates
M83 ; use relative distances for extrusion
M900 K45 ; Filament gcode
;BEFORE_LAYER_CHANGE
G92 E0.0
;0.2


G1 E-0.80000 F2100.00000 ; retract
G1 Z0.600 F10800.000 ; lift Z
;AFTER_LAYER_CHANGE
;0.2
G1 X99.188 Y83.812 ; move to first skirt point
G1 Z0.200 ; restore layer Z
G1 E0.80000 F2100.00000 ; unretract
M204 S1000 ; adjust acceleration
G1 F1200.000
G1 X100.501 Y82.306 E0.06265 ; skirt
G1 X101.957 Y80.831 E0.06497 ; skirt
G1 X103.564 Y79.397 E0.06753 ; skirt
G1 X105.134 Y78.161 E0.06265 ; skirt
G1 X106.843 Y76.978 E0.06520 ; skirt
G1 X108.612 Y75.909 E0.06478 ; skirt
G1 X110.391 Y74.979 E0.06294 ; skirt
G1 X112.354 Y74.101 E0.06744 ; skirt
G1 X114.290 Y73.380 E0.06477 ; skirt
G1 X116.205 Y72.797 E0.06277 ; skirt
G1 X118.303 Y72.297 E0.06761 ; skirt
G1 X120.339 Y71.947 E0.06477 ; skirt
G1 X122.334 Y71.729 E0.06294 ; skirt
G1 X124.521 Y71.626 E0.06863 ; skirt
G1 X126.553 Y71.660 E0.06374 ; skirt
G1 X128.553 Y71.816 E0.06290 ; skirt
G1 X130.750 Y72.127 E0.06956 ; skirt
G1 X132.712 Y72.532 E0.06281 ; skirt
G1 X134.705 Y73.073 E0.06477 ; skirt
G1 X136.675 Y73.740 E0.06521 ; skirt
G1 X138.528 Y74.499 E0.06278 ; skirt
G1 X140.525 Y75.467 E0.06959 ; skirt
G1 X142.272 Y76.454 E0.06290 ; skirt
G1 X144.004 Y77.579 E0.06477 ; skirt
G1 X145.734 Y78.864 E0.06757 ; skirt
G1 X147.265 Y80.156 E0.06281 ; skirt
G1 X148.763 Y81.586 E0.06493 ; skirt
G1 X150.171 Y83.109 E0.06505 ; skirt
G1 X151.435 Y84.656 E0.06262 ; skirt
G1 X152.694 Y86.406 E0.06760 ; skirt
G1 X153.791 Y88.156 E0.06477 ; skirt
G1 X154.752 Y89.923 E0.06306 ; skirt
G1 X155.685 Y91.927 E0.06930 ; skirt
G1 X156.417 Y93.800 E0.06305 ; skirt
G1 X157.032 Y95.706 E0.06279 ; skirt
G1 X157.578 Y97.856 E0.06956 ; skirt
G1 X157.948 Y99.819 E0.06265 ; skirt
G1 X158.207 Y101.879 E0.06508 ; skirt
G1 X158.336 Y103.950 E0.06506 ; skirt
G1 X158.338 Y105.952 E0.06278 ; skirt
G1 X158.201 Y108.167 E0.06958 ; skirt
G1 X157.952 Y110.158 E0.06290 ; skirt
G1 X157.569 Y112.188 E0.06477 ; skirt
G1 X157.037 Y114.276 E0.06757 ; skirt
G1 X156.424 Y116.183 E0.06281 ; skirt
G1 X155.669 Y118.112 E0.06493 ; skirt
G1 X154.796 Y119.993 E0.06505 ; skirt
G1 X153.844 Y121.750 E0.06262 ; skirt
G1 X152.704 Y123.579 E0.06758 ; skirt
G1 X151.498 Y125.263 E0.06494 ; skirt
G1 X150.232 Y126.819 E0.06290 ; skirt
G1 X148.729 Y128.446 E0.06946 ; skirt
G1 X147.281 Y129.829 E0.06278 ; skirt
G1 X145.748 Y131.124 E0.06290 ; skirt
G1 X143.967 Y132.446 E0.06956 ; skirt
G1 X142.287 Y133.537 E0.06281 ; skirt
G1 X140.488 Y134.553 E0.06477 ; skirt
G1 X138.618 Y135.462 E0.06520 ; skirt
G1 X136.766 Y136.224 E0.06280 ; skirt
G1 X134.670 Y136.937 E0.06942 ; skirt
G1 X132.729 Y137.464 E0.06305 ; skirt
G1 X130.709 Y137.881 E0.06466 ; skirt
G1 X128.571 Y138.182 E0.06769 ; skirt
G1 X126.575 Y138.339 E0.06281 ; skirt
G1 X124.534 Y138.374 E0.06398 ; skirt
G1 X122.356 Y138.273 E0.06837 ; skirt
G1 X120.370 Y138.057 E0.06265 ; skirt
G1 X118.320 Y137.707 E0.06521 ; skirt
G1 X116.309 Y137.232 E0.06477 ; skirt
G1 X114.384 Y136.651 E0.06306 ; skirt
G1 X112.308 Y135.878 E0.06947 ; skirt
G1 X110.480 Y135.064 E0.06274 ; skirt
G1 X108.638 Y134.105 E0.06509 ; skirt
G1 X106.862 Y133.034 E0.06505 ; skirt
G1 X105.214 Y131.896 E0.06278 ; skirt
G1 X103.474 Y130.527 E0.06942 ; skirt
G1 X101.975 Y129.186 E0.06306 ; skirt
G1 X100.523 Y127.717 E0.06477 ; skirt
G1 X99.108 Y126.091 E0.06757 ; skirt
G1 X97.889 Y124.502 E0.06281 ; skirt
G1 X96.730 Y122.781 E0.06505 ; skirt
G1 X95.681 Y120.995 E0.06493 ; skirt
G1 X94.776 Y119.211 E0.06274 ; skirt
G1 X93.899 Y117.173 E0.06955 ; skirt
G1 X93.222 Y115.282 E0.06298 ; skirt
G1 X92.645 Y113.293 E0.06493 ; skirt
G1 X92.193 Y111.269 E0.06505 ; skirt
G1 X91.876 Y109.288 E0.06290 ; skirt
G1 X91.665 Y107.082 E0.06946 ; skirt
G1 X91.662 Y103.021 E0.12734 ; skirt
G1 X91.873 Y100.737 E0.07193 ; skirt
G1 X92.188 Y98.757 E0.06286 ; skirt
G1 X92.638 Y96.734 E0.06497 ; skirt
G1 X93.214 Y94.743 E0.06501 ; skirt
G1 X93.887 Y92.857 E0.06277 ; skirt
G1 X94.732 Y90.881 E0.06737 ; skirt
G1 X95.706 Y88.961 E0.06753 ; skirt
G1 X96.720 Y87.233 E0.06281 ; skirt
G1 X97.876 Y85.515 E0.06493 ; skirt
G1 X99.151 Y83.859 E0.06553 ; skirt
G1 F8640.000
G1 X100.501 Y82.306 E-0.47518 ; wipe and retract
G1 X101.368 Y81.428 E-0.28482 ; wipe and retract
G1 E-0.04000 F2100.00000 ; retract
G1 Z0.800 F10800.000 ; lift Z
G1 X94.469 Y102.615 ; move to first perimeter point
G1 Z0.200 ; restore layer Z
G1 E0.80000 F2100.00000 ; unretract
G1 F1200.000
G1 X94.491 Y102.090 E0.01647 ; perimeter
G1 X94.581 Y101.148 E0.02969 ; perimeter
G1 X94.879 Y99.265 E0.05976 ; perimeter
G1 X95.293 Y97.408 E0.05967 ; perimeter
G1 X95.823 Y95.577 E0.05974 ; perimeter
G1 X96.464 Y93.785 E0.05969 ; perimeter
G1 X97.216 Y92.035 E0.05972 ; perimeter
G1 X98.076 Y90.335 E0.05975 ; perimeter
G1 X99.038 Y88.693 E0.05967 ; perimeter
G1 X100.102 Y87.112 E0.05973 ; perimeter
G1 X101.262 Y85.600 E0.05976 ; perimeter
G1 X102.514 Y84.164 E0.05972 ; perimeter
G1 X103.850 Y82.810 E0.05966 ; perimeter
G1 X105.271 Y81.540 E0.05975 ; perimeter
G1 X106.765 Y80.362 E0.05965 ; perimeter
G1 X108.331 Y79.279 E0.05972 ; perimeter
G1 X109.962 Y78.294 E0.05973 ; perimeter
G1 X111.649 Y77.414 E0.05967 ; perimeter
G1 X113.389 Y76.639 E0.05973 ; perimeter
G1 X115.174 Y75.974 E0.05973 ; perimeter
G1 X116.080 Y75.691 E0.02974 ; perimeter
G1 X116.997 Y75.421 E0.02996 ; perimeter
G1 X118.849 Y74.983 E0.05968 ; perimeter
G1 X120.727 Y74.660 E0.05974 ; perimeter
G1 X122.619 Y74.455 E0.05968 ; perimeter
G1 X124.520 Y74.367 E0.05969 ; perimeter
G1 X124.990 Y74.372 E0.01474 ; perimeter
G1 X126.424 Y74.399 E0.04496 ; perimeter
G1 X128.323 Y74.547 E0.05973 ; perimeter
G1 X130.210 Y74.814 E0.05973 ; perimeter
G1 X131.143 Y74.998 E0.02984 ; perimeter
G1 X132.073 Y75.197 E0.02982 ; perimeter
G1 X133.912 Y75.696 E0.05973 ; perimeter
G1 X135.715 Y76.308 E0.05972 ; perimeter
G1 X137.043 Y76.847 E0.04494 ; perimeter
G1 X137.476 Y77.030 E0.01472 ; perimeter
G1 X139.190 Y77.860 E0.05974 ; perimeter
G1 X140.849 Y78.796 E0.05971 ; perimeter
G1 X142.447 Y79.832 E0.05971 ; perimeter
G1 X143.977 Y80.966 E0.05972 ; perimeter
G1 X145.432 Y82.192 E0.05965 ; perimeter
G1 X146.811 Y83.508 E0.05975 ; perimeter
G1 X148.104 Y84.906 E0.05973 ; perimeter
G1 X149.014 Y86.014 E0.04496 ; perimeter
G1 X149.307 Y86.381 E0.01471 ; perimeter
G1 X150.417 Y87.930 E0.05975 ; perimeter
G1 X151.427 Y89.540 E0.05959 ; perimeter
G1 X152.338 Y91.217 E0.05984 ; perimeter
G1 X153.142 Y92.944 E0.05972 ; perimeter
G1 X153.667 Y94.278 E0.04496 ; perimeter
G1 X153.836 Y94.716 E0.01473 ; perimeter
G1 X154.419 Y96.530 E0.05973 ; perimeter
G1 X154.889 Y98.375 E0.05971 ; perimeter
G1 X155.243 Y100.247 E0.05972 ; perimeter
G1 X155.480 Y102.137 E0.05972 ; perimeter
G1 X155.599 Y104.037 E0.05971 ; perimeter
G1 X155.600 Y105.942 E0.05972 ; perimeter
G1 X155.482 Y107.843 E0.05972 ; perimeter
G1 X155.246 Y109.733 E0.05971 ; perimeter
G1 X154.893 Y111.604 E0.05972 ; perimeter
G1 X154.425 Y113.451 E0.05973 ; perimeter
G1 X153.843 Y115.264 E0.05969 ; perimeter
G1 X153.150 Y117.037 E0.05972 ; perimeter
G1 X152.347 Y118.765 E0.05974 ; perimeter
G1 X152.127 Y119.179 E0.01468 ; perimeter
G1 X151.438 Y120.440 E0.04506 ; perimeter
G1 X150.429 Y122.053 E0.05966 ; perimeter
G1 X149.320 Y123.602 E0.05972 ; perimeter
G1 X148.117 Y125.078 E0.05972 ; perimeter
G1 X146.824 Y126.478 E0.05976 ; perimeter
G1 X145.449 Y127.793 E0.05965 ; perimeter
G1 X143.992 Y129.021 E0.05972 ; perimeter
G1 X142.463 Y130.156 E0.05971 ; perimeter
G1 X140.867 Y131.193 E0.05971 ; perimeter
G1 X139.208 Y132.130 E0.05973 ; perimeter
G1 X137.496 Y132.961 E0.05967 ; perimeter
G1 X135.734 Y133.685 E0.05972 ; perimeter
G1 X133.929 Y134.298 E0.05979 ; perimeter
G1 X132.095 Y134.797 E0.05960 ; perimeter
G1 X130.229 Y135.182 E0.05973 ; perimeter
G1 X128.343 Y135.450 E0.05974 ; perimeter
G1 X126.446 Y135.600 E0.05964 ; perimeter
G1 X124.541 Y135.633 E0.05974 ; perimeter
G1 X122.638 Y135.546 E0.05974 ; perimeter
G1 X120.747 Y135.343 E0.05964 ; perimeter
G1 X118.869 Y135.021 E0.05974 ; perimeter
G1 X117.015 Y134.583 E0.05973 ; perimeter
G1 X116.102 Y134.315 E0.02984 ; perimeter
G1 X115.194 Y134.032 E0.02982 ; perimeter
G1 X113.408 Y133.368 E0.05973 ; perimeter
G1 X111.671 Y132.596 E0.05960 ; perimeter
G1 X109.980 Y131.715 E0.05979 ; perimeter
G1 X108.348 Y130.732 E0.05973 ; perimeter
G1 X106.782 Y129.649 E0.05972 ; perimeter
G1 X105.289 Y128.475 E0.05954 ; perimeter
G1 X103.865 Y127.203 E0.05986 ; perimeter
G1 X102.526 Y125.849 E0.05972 ; perimeter
G1 X101.581 Y124.775 E0.04484 ; perimeter
G1 X101.277 Y124.418 E0.01471 ; perimeter
G1 X100.114 Y122.904 E0.05987 ; perimeter
G1 X99.049 Y121.324 E0.05972 ; perimeter
G1 X98.088 Y119.686 E0.05955 ; perimeter
G1 X97.225 Y117.983 E0.05987 ; perimeter
G1 X96.472 Y116.234 E0.05972 ; perimeter
G1 X95.829 Y114.442 E0.05969 ; perimeter
G1 X95.299 Y112.612 E0.05974 ; perimeter
G1 X94.883 Y110.753 E0.05971 ; perimeter
G1 X94.583 Y108.872 E0.05972 ; perimeter
G1 X94.493 Y107.930 E0.02969 ; perimeter
G1 X94.470 Y107.405 E0.01646 ; perimeter
G1 X94.812 Y107.401 E0.01071 ; perimeter
G1 X94.973 Y108.933 E0.04829 ; perimeter
G1 X95.283 Y110.826 E0.06014 ; perimeter
G1 X95.712 Y112.695 E0.06014 ; perimeter
G1 X96.259 Y114.534 E0.06014 ; perimeter
G1 X96.921 Y116.334 E0.06014 ; perimeter
G1 X97.696 Y118.089 E0.06014 ; perimeter
G1 X98.580 Y119.791 E0.06014 ; perimeter
G1 X99.571 Y121.433 E0.06014 ; perimeter
G1 X100.663 Y123.010 E0.06014 ; perimeter
G1 X101.853 Y124.514 E0.06014 ; perimeter
G1 X103.136 Y125.939 E0.06011 ; perimeter
G1 X104.508 Y127.281 E0.06018 ; perimeter
G1 X105.960 Y128.533 E0.06011 ; perimeter
G1 X107.489 Y129.690 E0.06013 ; perimeter
G1 X109.089 Y130.748 E0.06013 ; perimeter
G1 X110.752 Y131.703 E0.06013 ; perimeter
G1 X112.473 Y132.550 E0.06013 ; perimeter
G1 X114.244 Y133.287 E0.06013 ; perimeter
G1 X116.058 Y133.910 E0.06013 ; perimeter
G1 X117.907 Y134.417 E0.06013 ; perimeter
G1 X119.785 Y134.805 E0.06013 ; perimeter
G1 X121.683 Y135.074 E0.06010 ; perimeter
G1 X122.639 Y135.158 E0.03010 ; perimeter
G1 X123.597 Y135.223 E0.03010 ; perimeter
G1 X125.514 Y135.249 E0.06010 ; perimeter
G1 X127.429 Y135.154 E0.06013 ; perimeter
G1 X129.335 Y134.938 E0.06013 ; perimeter
G1 X131.223 Y134.602 E0.06013 ; perimeter
G1 X133.086 Y134.147 E0.06013 ; perimeter
G1 X134.917 Y133.575 E0.06013 ; perimeter
G1 X136.707 Y132.887 E0.06013 ; perimeter
G1 X138.451 Y132.088 E0.06013 ; perimeter
G1 X140.140 Y131.180 E0.06013 ; perimeter
G1 X141.769 Y130.167 E0.06013 ; perimeter
G1 X143.329 Y129.053 E0.06014 ; perimeter
G1 X144.817 Y127.841 E0.06014 ; perimeter
G1 X146.224 Y126.539 E0.06014 ; perimeter
G1 X147.546 Y125.150 E0.06012 ; perimeter
G1 X148.167 Y124.418 E0.03009 ; perimeter
G1 X148.778 Y123.678 E0.03009 ; perimeter
G1 X149.914 Y122.134 E0.06012 ; perimeter
G1 X150.950 Y120.519 E0.06014 ; perimeter
G1 X151.881 Y118.842 E0.06014 ; perimeter
G1 X152.705 Y117.110 E0.06014 ; perimeter
G1 X153.417 Y115.329 E0.06014 ; perimeter
G1 X154.014 Y113.506 E0.06014 ; perimeter
G1 X154.496 Y111.650 E0.06014 ; perimeter
G1 X154.858 Y109.766 E0.06014 ; perimeter
G1 X155.100 Y107.863 E0.06015 ; perimeter
G1 X155.222 Y105.949 E0.06015 ; perimeter
G1 X155.221 Y104.030 E0.06015 ; perimeter
G1 X155.098 Y102.116 E0.06015 ; perimeter
G1 X154.855 Y100.213 E0.06015 ; perimeter
G1 X154.491 Y98.330 E0.06014 ; perimeter
G1 X154.008 Y96.473 E0.06016 ; perimeter
G1 X153.410 Y94.651 E0.06013 ; perimeter
G1 X152.696 Y92.870 E0.06014 ; perimeter
G1 X151.872 Y91.139 E0.06014 ; perimeter
G1 X150.939 Y89.463 E0.06014 ; perimeter
G1 X149.902 Y87.849 E0.06014 ; perimeter
G1 X148.765 Y86.304 E0.06014 ; perimeter
G1 X147.533 Y84.835 E0.06014 ; perimeter
G1 X146.209 Y83.446 E0.06014 ; perimeter
G1 X144.801 Y82.144 E0.06014 ; perimeter
G1 X143.313 Y80.935 E0.06014 ; perimeter
G1 X141.752 Y79.822 E0.06011 ; perimeter
G1 X140.121 Y78.809 E0.06019 ; perimeter
G1 X138.432 Y77.902 E0.06011 ; perimeter
G1 X136.688 Y77.104 E0.06013 ; perimeter
G1 X134.897 Y76.418 E0.06013 ; perimeter
G1 X133.066 Y75.847 E0.06013 ; perimeter
G1 X131.203 Y75.393 E0.06012 ; perimeter
G1 X129.790 Y75.136 E0.04503 ; perimeter
G1 X128.832 Y74.998 E0.03035 ; perimeter
G1 X127.409 Y74.844 E0.04488 ; perimeter
G1 X125.492 Y74.750 E0.06017 ; perimeter
G1 X124.057 Y74.765 E0.04500 ; perimeter
G1 X123.094 Y74.809 E0.03024 ; perimeter
G1 X121.663 Y74.928 E0.04503 ; perimeter
G1 X119.765 Y75.198 E0.06012 ; perimeter
G1 X117.887 Y75.588 E0.06012 ; perimeter
G1 X116.501 Y75.963 E0.04503 ; perimeter
G1 X115.580 Y76.247 E0.03023 ; perimeter
G1 X114.225 Y76.720 E0.04499 ; perimeter
G1 X112.454 Y77.458 E0.06015 ; perimeter
G1 X110.734 Y78.307 E0.06016 ; perimeter
G1 X109.071 Y79.263 E0.06014 ; perimeter
G1 X107.871 Y80.052 E0.04503 ; perimeter
G1 X107.084 Y80.608 E0.03020 ; perimeter
G1 X105.943 Y81.481 E0.04504 ; perimeter
G1 X104.492 Y82.733 E0.06012 ; perimeter
G1 X103.122 Y84.076 E0.06014 ; perimeter
G1 X101.840 Y85.502 E0.06014 ; perimeter
G1 X100.651 Y87.007 E0.06014 ; perimeter
G1 X99.559 Y88.584 E0.06014 ; perimeter
G1 X98.570 Y90.227 E0.06014 ; perimeter
G1 X97.687 Y91.930 E0.06014 ; perimeter
G1 X96.913 Y93.685 E0.06013 ; perimeter
G1 X96.252 Y95.486 E0.06017 ; perimeter
G1 X95.706 Y97.325 E0.06013 ; perimeter
G1 X95.279 Y99.194 E0.06014 ; perimeter
G1 X94.970 Y101.088 E0.06014 ; perimeter
G1 X94.810 Y102.619 E0.04829 ; perimeter
G1 X94.529 Y102.616 E0.00882 ; perimeter
G1 X94.522 Y102.218 F10800.000 ; move inwards before travel
;BEFORE_LAYER_CHANGE
G92 E0.0
;0.4


G1 F8640.000
G1 X94.491 Y102.090 E-0.12168 ; wipe and retract
G1 X94.581 Y101.148 E-0.21863 ; wipe and retract
G1 X94.865 Y99.352 E-0.41969 ; wipe and retract
G1 E-0.04000 F2100.00000 ; retract
G1 Z0.800 F10800.000 ; lift Z
;AFTER_LAYER_CHANGE
;0.4
M104 S225 ; set temperature
M140 S85 ; set bed temperature
G1 X92.162 Y98.922 ; move to first skirt point
G1 Z0.400 ; restore layer Z
G1 E0.80000 F2100.00000 ; unretract
G1 F2335
G1 X92.638 Y96.734 E0.07021 ; skirt
G1 X93.214 Y94.743 E0.06501 ; skirt
G1 X93.887 Y92.857 E0.06277 ; skirt
G1 X94.732 Y90.881 E0.06737 ; skirt
G1 X95.706 Y88.961 E0.06753 ; skirt
G1 X96.720 Y87.233 E0.06281 ; skirt
G1 X97.876 Y85.515 E0.06493 ; skirt
G1 X99.188 Y83.812 E0.06741 ; skirt
G1 X100.501 Y82.306 E0.06265 ; skirt
G1 X101.957 Y80.831 E0.06497 ; skirt
G1 X103.564 Y79.397 E0.06753 ; skirt
G1 X105.134 Y78.161 E0.06265 ; skirt
G1 X106.843 Y76.978 E0.06520 ; skirt
G1 X108.612 Y75.909 E0.06478 ; skirt
G1 X110.391 Y74.979 E0.06294 ; skirt
G1 X112.354 Y74.101 E0.06744 ; skirt
G1 X114.290 Y73.380 E0.06477 ; skirt
G1 X116.205 Y72.797 E0.06277 ; skirt
G1 X118.303 Y72.297 E0.06761 ; skirt
G1 X120.339 Y71.947 E0.06477 ; skirt
G1 X122.334 Y71.729 E0.06294 ; skirt
G1 X124.521 Y71.626 E0.06863 ; skirt
G1 X126.553 Y71.660 E0.06374 ; skirt
