; generated by Slic3r Prusa Edition 1.40.1+win64 on 2018-08-12 at 10:31:46

; 

; external perimeters extrusion width = 0.45mm
; perimeters extrusion width = 0.45mm
; infill extrusion width = 0.45mm
; solid infill extrusion width = 0.45mm
; top infill extrusion width = 0.40mm
; support material extrusion width = 0.35mm
; first layer extrusion width = 0.42mm

M107
M115 U3.1.0 ; tell printer latest fw version
M201 X9000 Y9000 Z500 E10000 ; sets maximum accelerations, mm/sec^2
M203 X500 Y500 Z12 E120 ; sets maximum feedrates, mm/sec
M204 S1500 T1500 ; sets acceleration (S) and retract acceleration (T)
M205 X10 Y10 Z0.2 E2.5 ; sets the jerk limits, mm/sec
M205 S0 T0 ; sets the minimum extruding and travel feed rate, mm/sec
M83  ; extruder relative mode
M104 S255 ; set extruder temp
M140 S100 ; set bed temp
M190 S100 ; wait for bed temp
M109 S255 ; wait for extruder temp
G28 W ; home all without mesh bed level
G80 ; mesh bed leveling
G1 Y-3.0 F1000.0 ; go outside print area
G92 E0.0
G1 X60.0 E9.0  F1000.0 ; intro line
G1 X100.0 E12.5  F1000.0 ; intro line
G92 E0.0
M900 K30; Filament gcode
G21 ; set units to millimeters
G90 ; use absolute coordinates
M83 ; use relative distances for extrusion
;BEFORE_LAYER_CHANGE
G92 E0.0
;0.2


G1 E-0.80000 F2100.00000
G1 Z0.600 F10800.000
;AFTER_LAYER_CHANGE
;0.2
G1 X111.291 Y101.577
G1 Z0.200
G1 E0.80000 F2100.00000
M204 S1000
G1 F1800
G1 X112.782 Y100.000 E0.06802
G1 X114.221 Y98.652 E0.06185
G1 X115.754 Y97.377 E0.06251
G1 X117.508 Y96.093 E0.06815
G1 X119.166 Y95.026 E0.06183
G1 X120.955 Y94.021 E0.06435
G1 X122.793 Y93.130 E0.06401
G1 X124.626 Y92.373 E0.06218
G1 X126.681 Y91.668 E0.06813
G1 X128.586 Y91.141 E0.06196
G1 X130.589 Y90.714 E0.06423
G1 X132.605 Y90.410 E0.06391
G1 X134.575 Y90.232 E0.06204
G1 X136.697 Y90.167 E0.06654
G1 X138.807 Y90.237 E0.06621
G1 X140.771 Y90.419 E0.06183
G1 X142.792 Y90.729 E0.06413
G1 X144.787 Y91.159 E0.06399
G1 X146.705 Y91.694 E0.06242
G1 X148.762 Y92.407 E0.06826
G1 X150.589 Y93.167 E0.06205
G1 X152.427 Y94.064 E0.06413
G1 X154.199 Y95.065 E0.06379
G1 X155.861 Y96.140 E0.06207
G1 X157.619 Y97.434 E0.06844
G1 X159.144 Y98.709 E0.06232
G1 X160.629 Y100.110 E0.06402
G1 X162.030 Y101.600 E0.06413
G1 X163.297 Y103.120 E0.06206
G1 X164.584 Y104.871 E0.06813
G1 X165.659 Y106.538 E0.06218
G1 X166.658 Y108.310 E0.06379
G1 X167.552 Y110.146 E0.06401
G1 X168.312 Y111.977 E0.06216
G1 X169.024 Y114.042 E0.06849
G1 X169.555 Y115.953 E0.06218
G1 X169.982 Y117.938 E0.06368
G1 X170.297 Y120.029 E0.06630
G1 X170.476 Y122.001 E0.06207
G1 X170.538 Y124.044 E0.06410
G1 X170.472 Y126.166 E0.06656
G1 X170.292 Y128.137 E0.06205
G1 X169.984 Y130.159 E0.06413
G1 X169.556 Y132.159 E0.06413
G1 X169.024 Y134.069 E0.06218
G1 X168.316 Y136.124 E0.06815
G1 X167.562 Y137.943 E0.06172
G1 X166.664 Y139.791 E0.06444
G1 X165.660 Y141.574 E0.06415
G1 X164.590 Y143.231 E0.06184
G1 X163.307 Y144.979 E0.06800
G1 X162.037 Y146.504 E0.06220
G1 X160.630 Y148.001 E0.06444
G1 X159.152 Y149.395 E0.06370
G1 X157.622 Y150.674 E0.06252
G1 X155.873 Y151.964 E0.06813
G1 X154.208 Y153.041 E0.06218
G1 X152.428 Y154.047 E0.06413
G1 X150.590 Y154.945 E0.06413
G1 X148.772 Y155.701 E0.06173
G1 X146.710 Y156.416 E0.06844
G1 X144.809 Y156.947 E0.06187
G1 X142.803 Y157.381 E0.06435
G1 X140.712 Y157.699 E0.06632
G1 X138.738 Y157.880 E0.06216
G1 X136.694 Y157.944 E0.06413
G1 X134.663 Y157.886 E0.06368
G1 X132.627 Y157.704 E0.06410
G1 X130.604 Y157.400 E0.06413
G1 X128.668 Y156.990 E0.06207
G1 X126.563 Y156.407 E0.06849
G1 X124.697 Y155.766 E0.06185
G1 X122.807 Y154.988 E0.06410
G1 X120.969 Y154.098 E0.06404
G1 X119.229 Y153.123 E0.06251
G1 X117.402 Y151.947 E0.06813
G1 X115.812 Y150.780 E0.06185
G1 X114.230 Y149.468 E0.06444
G1 X112.737 Y148.069 E0.06415
G1 X111.377 Y146.631 E0.06206
G1 X109.989 Y144.973 E0.06780
G1 X108.808 Y143.375 E0.06227
G1 X107.689 Y141.654 E0.06437
G1 X106.680 Y139.875 E0.06413
G1 X105.807 Y138.095 E0.06218
G1 X104.971 Y136.089 E0.06815
G1 X104.325 Y134.229 E0.06172
G1 X103.770 Y132.261 E0.06413
G1 X103.335 Y130.263 E0.06410
G1 X103.028 Y128.292 E0.06254
G1 X102.827 Y126.139 E0.06780
G1 X102.825 Y122.056 E0.12801
G1 X103.028 Y119.824 E0.07029
G1 X103.333 Y117.861 E0.06229
G1 X103.765 Y115.869 E0.06390
G1 X104.342 Y113.830 E0.06643
G1 X104.993 Y111.961 E0.06205
G1 X105.779 Y110.077 E0.06401
G1 X106.712 Y108.179 E0.06632
G1 X107.691 Y106.455 E0.06216
G1 X108.803 Y104.743 E0.06401
G1 X110.019 Y103.098 E0.06413
G1 X111.253 Y101.623 E0.06030
G1 F8640
G1 X112.782 Y100.000 E-0.51475
G1 X113.557 Y99.274 E-0.24525
G1 E-0.04000 F2100.00000
G1 Z0.800 F10800.000
G1 X105.658 Y121.469
G1 Z0.200
G1 E0.80000 F2100.00000
G1 F1800
G1 X105.774 Y120.223 E0.03922
G1 X106.062 Y118.368 E0.05888
G1 X106.461 Y116.533 E0.05887
G1 X106.969 Y114.725 E0.05888
G1 X107.586 Y112.952 E0.05888
G1 X108.309 Y111.219 E0.05887
G1 X109.135 Y109.533 E0.05888
G1 X110.061 Y107.899 E0.05888
G1 X111.084 Y106.325 E0.05888
G1 X112.201 Y104.815 E0.05888
G1 X113.406 Y103.375 E0.05887
G1 X114.696 Y102.010 E0.05888
G1 X116.066 Y100.726 E0.05888
G1 X117.511 Y99.527 E0.05888
G1 X119.025 Y98.417 E0.05888
G1 X120.604 Y97.400 E0.05888
G1 X122.241 Y96.481 E0.05888
G1 X123.931 Y95.662 E0.05888
G1 X125.667 Y94.946 E0.05888
G1 X127.443 Y94.337 E0.05888
G1 X129.242 Y93.838 E0.05854
G1 X131.089 Y93.444 E0.05921
G1 X132.946 Y93.164 E0.05887
G1 X134.816 Y92.997 E0.05888
G1 X136.693 Y92.943 E0.05888
G1 X138.559 Y93.002 E0.05854
G1 X140.440 Y93.175 E0.05921
G1 X142.296 Y93.460 E0.05887
G1 X144.131 Y93.856 E0.05888
G1 X145.939 Y94.362 E0.05888
G1 X147.714 Y94.977 E0.05887
G1 X149.448 Y95.697 E0.05888
G1 X151.135 Y96.521 E0.05888
G1 X152.770 Y97.445 E0.05888
G1 X154.346 Y98.466 E0.05888
G1 X155.857 Y99.580 E0.05888
G1 X157.299 Y100.783 E0.05888
G1 X158.665 Y102.071 E0.05888
G1 X159.951 Y103.439 E0.05888
G1 X161.153 Y104.882 E0.05887
G1 X162.265 Y106.396 E0.05888
G1 X163.283 Y107.973 E0.05888
G1 X164.205 Y109.609 E0.05888
G1 X165.026 Y111.297 E0.05888
G1 X165.744 Y113.032 E0.05888
G1 X166.353 Y114.798 E0.05854
G1 X166.860 Y116.617 E0.05921
G1 X167.254 Y118.453 E0.05887
G1 X167.536 Y120.309 E0.05888
G1 X167.706 Y122.179 E0.05888
G1 X167.763 Y124.056 E0.05888
G1 X167.706 Y125.933 E0.05887
G1 X167.536 Y127.803 E0.05888
G1 X167.254 Y129.659 E0.05888
G1 X166.860 Y131.495 E0.05888
G1 X166.356 Y133.304 E0.05887
G1 X165.744 Y135.079 E0.05888
G1 X165.026 Y136.814 E0.05888
G1 X164.205 Y138.503 E0.05887
G1 X163.283 Y140.139 E0.05888
G1 X162.265 Y141.716 E0.05888
G1 X161.153 Y143.229 E0.05888
G1 X159.951 Y144.672 E0.05887
G1 X158.665 Y146.041 E0.05888
G1 X157.299 Y147.329 E0.05888
G1 X155.857 Y148.532 E0.05887
G1 X154.346 Y149.646 E0.05888
G1 X152.770 Y150.667 E0.05888
G1 X151.135 Y151.591 E0.05887
G1 X149.448 Y152.415 E0.05888
G1 X147.714 Y153.135 E0.05888
G1 X145.939 Y153.749 E0.05887
G1 X144.131 Y154.256 E0.05888
G1 X142.296 Y154.652 E0.05888
G1 X140.440 Y154.937 E0.05888
G1 X138.570 Y155.109 E0.05887
G1 X136.693 Y155.168 E0.05888
G1 X134.816 Y155.114 E0.05888
G1 X132.946 Y154.947 E0.05888
G1 X131.100 Y154.669 E0.05854
G1 X129.252 Y154.276 E0.05921
G1 X127.443 Y153.775 E0.05887
G1 X125.677 Y153.169 E0.05854
G1 X123.931 Y152.450 E0.05921
G1 X122.241 Y151.631 E0.05887
G1 X120.604 Y150.711 E0.05888
G1 X119.025 Y149.695 E0.05888
G1 X117.511 Y148.585 E0.05887
G1 X116.066 Y147.386 E0.05888
G1 X114.696 Y146.102 E0.05888
G1 X113.406 Y144.737 E0.05888
G1 X112.207 Y143.305 E0.05854
G1 X111.084 Y141.787 E0.05921
G1 X110.061 Y140.213 E0.05887
G1 X109.135 Y138.579 E0.05887
G1 X108.309 Y136.893 E0.05888
G1 X107.586 Y135.160 E0.05888
G1 X106.973 Y133.396 E0.05854
G1 X106.461 Y131.579 E0.05921
G1 X106.062 Y129.744 E0.05887
G1 X105.774 Y127.888 E0.05888
G1 X105.658 Y126.643 E0.03922
G1 X106.285 Y126.643 E0.01966
G1 X106.416 Y127.979 E0.04211
G1 X106.718 Y129.849 E0.05937
G1 X107.135 Y131.695 E0.05937
G1 X107.666 Y133.513 E0.05937
G1 X108.309 Y135.294 E0.05937
G1 X109.062 Y137.031 E0.05937
G1 X109.920 Y138.719 E0.05937
G1 X110.882 Y140.350 E0.05937
G1 X111.943 Y141.918 E0.05937
G1 X113.094 Y143.410 E0.05907
G1 X114.347 Y144.842 E0.05966
G1 X115.680 Y146.186 E0.05937
G1 X117.094 Y147.445 E0.05937
G1 X118.584 Y148.614 E0.05937
G1 X120.143 Y149.688 E0.05937
G1 X121.766 Y150.663 E0.05937
G1 X123.446 Y151.536 E0.05937
G1 X125.178 Y152.302 E0.05937
G1 X126.953 Y152.960 E0.05937
G1 X128.766 Y153.506 E0.05937
G1 X130.609 Y153.939 E0.05937
G1 X132.476 Y154.256 E0.05937
G1 X134.349 Y154.456 E0.05907
G1 X136.250 Y154.541 E0.05966
G1 X138.143 Y154.507 E0.05937
G1 X140.031 Y154.355 E0.05937
G1 X141.905 Y154.087 E0.05937
G1 X143.759 Y153.703 E0.05937
G1 X145.586 Y153.204 E0.05937
G1 X147.378 Y152.594 E0.05937
G1 X149.128 Y151.873 E0.05937
G1 X150.831 Y151.044 E0.05937
G1 X152.479 Y150.112 E0.05937
G1 X154.066 Y149.079 E0.05937
G1 X155.586 Y147.950 E0.05937
G1 X157.032 Y146.728 E0.05937
G1 X158.400 Y145.419 E0.05937
G1 X159.685 Y144.028 E0.05937
G1 X160.880 Y142.560 E0.05937
G1 X161.982 Y141.020 E0.05937
G1 X162.986 Y139.415 E0.05937
G1 X163.889 Y137.750 E0.05937
G1 X164.686 Y136.033 E0.05937
G1 X165.376 Y134.270 E0.05937
G1 X165.954 Y132.467 E0.05937
G1 X166.420 Y130.632 E0.05937
G1 X166.771 Y128.771 E0.05937
G1 X167.005 Y126.892 E0.05937
G1 X167.123 Y125.003 E0.05937
G1 X167.123 Y123.109 E0.05937
G1 X167.005 Y121.219 E0.05937
G1 X166.771 Y119.341 E0.05937
G1 X166.420 Y117.480 E0.05937
G1 X165.954 Y115.645 E0.05937
G1 X165.376 Y113.842 E0.05937
G1 X164.686 Y112.079 E0.05937
G1 X163.889 Y110.361 E0.05937
G1 X162.986 Y108.697 E0.05937
G1 X161.982 Y107.092 E0.05937
G1 X160.880 Y105.552 E0.05937
G1 X159.685 Y104.084 E0.05937
G1 X158.400 Y102.692 E0.05937
G1 X157.032 Y101.383 E0.05937
G1 X155.586 Y100.162 E0.05937
G1 X154.066 Y99.033 E0.05937
G1 X152.479 Y98.000 E0.05937
G1 X150.831 Y97.067 E0.05937
G1 X149.128 Y96.239 E0.05937
G1 X147.386 Y95.522 E0.05907
G1 X145.586 Y94.907 E0.05966
G1 X143.759 Y94.409 E0.05937
G1 X141.905 Y94.025 E0.05937
G1 X140.031 Y93.757 E0.05937
G1 X138.143 Y93.605 E0.05937
G1 X136.250 Y93.571 E0.05937
G1 X134.359 Y93.655 E0.05937
G1 X132.476 Y93.856 E0.05937
G1 X130.609 Y94.173 E0.05937
G1 X128.775 Y94.603 E0.05907
G1 X126.953 Y95.152 E0.05966
G1 X125.178 Y95.809 E0.05937
G1 X123.446 Y96.576 E0.05937
G1 X121.766 Y97.449 E0.05937
G1 X120.143 Y98.424 E0.05937
G1 X118.584 Y99.498 E0.05937
G1 X117.094 Y100.667 E0.05937
G1 X115.680 Y101.926 E0.05937
G1 X114.347 Y103.270 E0.05937
G1 X113.100 Y104.695 E0.05937
G1 X111.943 Y106.194 E0.05937
G1 X110.882 Y107.762 E0.05937
G1 X109.925 Y109.385 E0.05907
G1 X109.062 Y111.080 E0.05966
G1 X108.309 Y112.818 E0.05937
G1 X107.666 Y114.599 E0.05937
G1 X107.135 Y116.416 E0.05937
G1 X106.718 Y118.263 E0.05937
G1 X106.416 Y120.132 E0.05937
G1 X106.285 Y121.469 E0.04211
G1 X105.718 Y121.469 E0.01778
G1 X105.244 Y121.846 F10800.000
G1 F1800
G1 X105.400 Y120.177 E0.05256
G1 X105.691 Y118.299 E0.05959
G1 X106.095 Y116.442 E0.05959
G1 X106.610 Y114.612 E0.05959
G1 X107.234 Y112.817 E0.05959
G1 X107.965 Y111.063 E0.05959
G1 X108.801 Y109.356 E0.05959
G1 X109.739 Y107.703 E0.05959
G1 X110.774 Y106.110 E0.05959
G1 X111.904 Y104.581 E0.05959
G1 X113.124 Y103.124 E0.05959
G1 X114.430 Y101.743 E0.05959
G1 X115.816 Y100.443 E0.05959
G1 X117.279 Y99.229 E0.05959
G1 X118.811 Y98.106 E0.05959
G1 X120.409 Y97.077 E0.05959
G1 X122.066 Y96.146 E0.05959
G1 X123.777 Y95.318 E0.05959
G1 X125.534 Y94.593 E0.05959
G1 X127.331 Y93.976 E0.05959
G1 X129.153 Y93.472 E0.05926
G1 X131.022 Y93.073 E0.05992
G1 X132.901 Y92.790 E0.05959
G1 X134.794 Y92.621 E0.05959
G1 X136.694 Y92.566 E0.05959
G1 X138.583 Y92.626 E0.05926
G1 X140.486 Y92.800 E0.05992
G1 X142.364 Y93.089 E0.05959
G1 X144.222 Y93.490 E0.05959
G1 X146.052 Y94.002 E0.05959
G1 X147.848 Y94.624 E0.05959
G1 X149.603 Y95.353 E0.05959
G1 X151.311 Y96.187 E0.05959
G1 X152.965 Y97.122 E0.05959
G1 X154.560 Y98.155 E0.05959
G1 X156.090 Y99.283 E0.05959
G1 X157.549 Y100.501 E0.05959
G1 X158.932 Y101.805 E0.05959
G1 X160.234 Y103.189 E0.05959
G1 X161.450 Y104.650 E0.05959
G1 X162.575 Y106.181 E0.05959
G1 X163.606 Y107.778 E0.05959
G1 X164.539 Y109.434 E0.05959
G1 X165.370 Y111.143 E0.05959
G1 X166.097 Y112.899 E0.05959
G1 X166.713 Y114.686 E0.05926
G1 X167.227 Y116.526 E0.05992
G1 X167.625 Y118.385 E0.05959
G1 X167.911 Y120.264 E0.05959
G1 X168.083 Y122.156 E0.05959
G1 X168.140 Y124.056 E0.05959
G1 X168.083 Y125.956 E0.05959
G1 X167.911 Y127.848 E0.05959
G1 X167.625 Y129.727 E0.05959
G1 X167.226 Y131.585 E0.05959
G1 X166.717 Y133.416 E0.05959
G1 X166.097 Y135.213 E0.05959
G1 X165.370 Y136.969 E0.05959
G1 X164.539 Y138.678 E0.05959
G1 X163.606 Y140.334 E0.05959
G1 X162.575 Y141.930 E0.05959
G1 X161.450 Y143.462 E0.05959
G1 X160.234 Y144.922 E0.05959
G1 X158.932 Y146.307 E0.05959
G1 X157.549 Y147.611 E0.05959
G1 X156.090 Y148.829 E0.05959
G1 X154.560 Y149.956 E0.05959
G1 X152.965 Y150.990 E0.05959
G1 X151.311 Y151.925 E0.05959
G1 X149.603 Y152.758 E0.05959
G1 X147.848 Y153.488 E0.05959
G1 X146.052 Y154.109 E0.05959
G1 X144.222 Y154.622 E0.05959
G1 X142.364 Y155.023 E0.05959
G1 X140.486 Y155.311 E0.05959
G1 X138.593 Y155.486 E0.05959
G1 X136.694 Y155.546 E0.05959
G1 X134.794 Y155.491 E0.05959
G1 X132.901 Y155.322 E0.05959
G1 X131.032 Y155.040 E0.05926
G1 X129.163 Y154.643 E0.05992
G1 X127.331 Y154.135 E0.05959
G1 X125.544 Y153.522 E0.05926
G1 X123.777 Y152.794 E0.05992
G1 X122.066 Y151.965 E0.05959
G1 X120.409 Y151.035 E0.05959
G1 X118.811 Y150.006 E0.05959
G1 X117.279 Y148.882 E0.05959
G1 X115.816 Y147.669 E0.05959
G1 X114.430 Y146.369 E0.05959
G1 X113.124 Y144.988 E0.05959
G1 X111.911 Y143.539 E0.05926
G1 X110.774 Y142.002 E0.05992
G1 X109.739 Y140.409 E0.05959
G1 X108.801 Y138.755 E0.05959
G1 X107.965 Y137.049 E0.05959
G1 X107.234 Y135.294 E0.05959
G1 X106.613 Y133.509 E0.05926
G1 X106.095 Y131.670 E0.05992
G1 X105.691 Y129.813 E0.05959
G1 X105.400 Y127.935 E0.05959
G1 X105.244 Y126.266 E0.05256
G1 X106.627 Y126.266 E0.04336
G1 X106.790 Y127.931 E0.05246
G1 X107.088 Y129.777 E0.05863
G1 X107.501 Y131.601 E0.05863
G1 X108.025 Y133.396 E0.05863
G1 X108.660 Y135.155 E0.05863
G1 X109.403 Y136.871 E0.05863
G1 X110.251 Y138.537 E0.05863
G1 X111.201 Y140.148 E0.05863
G1 X112.249 Y141.697 E0.05863
G1 X113.385 Y143.170 E0.05834
G1 X114.623 Y144.584 E0.05892
G1 X115.940 Y145.912 E0.05863
G1 X117.336 Y147.156 E0.05863
G1 X118.807 Y148.310 E0.05863
G1 X120.347 Y149.371 E0.05863
G1 X121.950 Y150.334 E0.05863
G1 X123.610 Y151.196 E0.05863
G1 X125.320 Y151.953 E0.05863
G1 X127.073 Y152.602 E0.05863
G1 X128.864 Y153.142 E0.05863
G1 X130.684 Y153.569 E0.05863
G1 X132.528 Y153.882 E0.05863
G1 X134.378 Y154.080 E0.05834
G1 X136.255 Y154.163 E0.05892
G1 X138.125 Y154.130 E0.05863
G1 X139.989 Y153.980 E0.05863
G1 X141.840 Y153.715 E0.05863
G1 X143.671 Y153.336 E0.05863
G1 X145.475 Y152.844 E0.05863
G1 X147.245 Y152.240 E0.05863
G1 X148.974 Y151.528 E0.05863
G1 X150.656 Y150.710 E0.05863
G1 X152.283 Y149.790 E0.05863
G1 X153.850 Y148.770 E0.05863
G1 X155.351 Y147.654 E0.05863
G1 X156.780 Y146.448 E0.05863
G1 X158.131 Y145.155 E0.05863
G1 X159.400 Y143.781 E0.05863
G1 X160.580 Y142.331 E0.05863
G1 X161.668 Y140.810 E0.05863
G1 X162.660 Y139.225 E0.05863
G1 X163.552 Y137.581 E0.05863
G1 X164.339 Y135.885 E0.05863
G1 X165.020 Y134.143 E0.05863
G1 X165.592 Y132.363 E0.05863
G1 X166.051 Y130.550 E0.05863
G1 X166.398 Y128.713 E0.05863
G1 X166.630 Y126.857 E0.05863
G1 X166.746 Y124.991 E0.05863
G1 X166.746 Y123.121 E0.05863
G1 X166.630 Y121.255 E0.05863
G1 X166.398 Y119.399 E0.05863
G1 X166.051 Y117.561 E0.05863
G1 X165.592 Y115.749 E0.05863
G1 X165.020 Y113.968 E0.05863
G1 X164.339 Y112.227 E0.05863
G1 X163.552 Y110.531 E0.05863
G1 X162.660 Y108.887 E0.05863
G1 X161.668 Y107.302 E0.05863
G1 X160.580 Y105.781 E0.05863
G1 X159.400 Y104.331 E0.05863
G1 X158.131 Y102.957 E0.05863
G1 X156.780 Y101.664 E0.05863
G1 X155.351 Y100.458 E0.05863
G1 X153.850 Y99.342 E0.05863
G1 X152.283 Y98.322 E0.05863
G1 X150.656 Y97.401 E0.05863
G1 X148.974 Y96.583 E0.05863
G1 X147.254 Y95.875 E0.05834
G1 X145.475 Y95.268 E0.05892
G1 X143.671 Y94.776 E0.05863
G1 X141.840 Y94.396 E0.05863
G1 X139.989 Y94.131 E0.05863
G1 X138.125 Y93.982 E0.05863
