; generated by PrusaSlicer 2.4.1+win64 on 2022-03-17 at 18:22:27 UTC

; 

; external perimeters extrusion width = 0.45mm
; perimeters extrusion width = 0.45mm
; infill extrusion width = 0.45mm
; solid infill extrusion width = 0.45mm
; top infill extrusion width = 0.40mm
; first layer extrusion width = 0.42mm

; external perimeters extrusion width = 0.45mm
; perimeters extrusion width = 0.45mm
; infill extrusion width = 0.45mm
; solid infill extrusion width = 0.45mm
; top infill extrusion width = 0.40mm
; first layer extrusion width = 0.42mm

; external perimeters extrusion width = 0.45mm
; perimeters extrusion width = 0.45mm
; infill extrusion width = 0.45mm
; solid infill extrusion width = 0.45mm
; top infill extrusion width = 0.40mm
; first layer extrusion width = 0.42mm

; external perimeters extrusion width = 0.45mm
; perimeters extrusion width = 0.45mm
; infill extrusion width = 0.45mm
; solid infill extrusion width = 0.45mm
; top infill extrusion width = 0.40mm
; first layer extrusion width = 0.42mm

; external perimeters extrusion width = 0.45mm
; perimeters extrusion width = 0.45mm
; infill extrusion width = 0.45mm
; solid infill extrusion width = 0.45mm
; top infill extrusion width = 0.40mm
; first layer extrusion width = 0.42mm

; external perimeters extrusion width = 0.45mm
; perimeters extrusion width = 0.45mm
; infill extrusion width = 0.45mm
; solid infill extrusion width = 0.45mm
; top infill extrusion width = 0.40mm
; first layer extrusion width = 0.42mm

; external perimeters extrusion width = 0.45mm
; perimeters extrusion width = 0.45mm
; infill extrusion width = 0.45mm
; solid infill extrusion width = 0.45mm
; top infill extrusion width = 0.40mm
; first layer extrusion width = 0.42mm

; external perimeters extrusion width = 0.45mm
; perimeters extrusion width = 0.45mm
; infill extrusion width = 0.45mm
; solid infill extrusion width = 0.45mm
; top infill extrusion width = 0.40mm
; first layer extrusion width = 0.42mm

; external perimeters extrusion width = 0.45mm
; perimeters extrusion width = 0.45mm
; infill extrusion width = 0.45mm
; solid infill extrusion width = 0.45mm
; top infill extrusion width = 0.40mm
; first layer extrusion width = 0.42mm

; external perimeters extrusion width = 0.45mm
; perimeters extrusion width = 0.45mm
; infill extrusion width = 0.45mm
; solid infill extrusion width = 0.45mm
; top infill extrusion width = 0.40mm
; first layer extrusion width = 0.42mm

; external perimeters extrusion width = 0.45mm
; perimeters extrusion width = 0.45mm
; infill extrusion width = 0.45mm
; solid infill extrusion width = 0.45mm
; top infill extrusion width = 0.40mm
; first layer extrusion width = 0.42mm

; external perimeters extrusion width = 0.45mm
; perimeters extrusion width = 0.45mm
; infill extrusion width = 0.45mm
; solid infill extrusion width = 0.45mm
; top infill extrusion width = 0.40mm
; first layer extrusion width = 0.42mm

M73 P0 R31
M107
;TYPE:Custom
M862.3 P "MK2S" ; printer model check
M862.1 P0.4 ; nozzle diameter check
M115 U3.2.3 ; tell printer latest fw version
G90 ; use absolute coordinates
M83 ; extruder relative mode
M204 S2000 T1500 ; MK2 firmware only supports the old M204 format
M104 S215 ; set extruder temp
M140 S60 ; set bed temp
M190 S60 ; wait for bed temp
M109 S215 ; wait for extruder temp
G28 W ; home all without mesh bed level
G80 ; mesh bed leveling
G1 Y-3.0 F1000.0 ; go outside print area
G92 E0.0
G1 X60.0 E9.0  F1000.0 ; intro line
G1 X100.0 E12.5 F1000.0 ; intro line
G92 E0.0
G21 ; set units to millimeters
G90 ; use absolute coordinates
M83 ; use relative distances for extrusion
M900 K0.05 ; Filament gcode LA 1.5
M900 K30 ; Filament gcode LA 1.0
M107
;LAYER_CHANGE
;Z:0.2
;HEIGHT:0.2
;BEFORE_LAYER_CHANGE
G92 E0.0
;0.2


G1 E-.8 F2100
G1 Z.4 F10800
;AFTER_LAYER_CHANGE
;0.2
G1 X98.076 Y70.486
G1 Z.2
G1 E.8 F2100
M204 S1000
;TYPE:Skirt/Brim
;WIDTH:0.42
G1 F1200
G1 X98.757 Y69.592 E.03523
G1 X99.61 Y68.86 E.03523
G1 X100.596 Y68.321 E.03523
G1 X101.429 Y68.05 E.02747
G1 X102.23 Y67.923 E.02543
G1 X103.792 Y67.907 E.04899
G1 X151.517 Y74.091 E1.5089
G1 X164.366 Y77.96 E.42073
G1 X165.395 Y78.449 E.03572
G1 X166.498 Y79.344 E.04452
G1 X167.008 Y79.974 E.02543
G1 X167.547 Y80.96 E.03523
G1 X167.818 Y81.793 E.02747
G1 X167.961 Y82.908 E.03523
G1 X168.169 Y109.685 E.8396
G1 X168.169 Y128.703 E.5963
G1 X168.075 Y129.699 E.03136
G1 X167.752 Y130.775 E.03523
G1 X167.213 Y131.761 E.03523
G1 X166.481 Y132.613 E.03523
G1 X165.85 Y133.124 E.02543
G1 X164.864 Y133.663 E.03523
G1 X163.788 Y133.985 E.03523
G1 X162.792 Y134.08 E.03136
G1 X148.808 Y134.004 E.43847
G1 X136.781 Y133.194 E.37795
G1 X99.137 Y126.162 E1.20072
G1 X98.419 Y125.964 E.02336
G1 X97.619 Y125.607 E.02747
G1 X96.939 Y125.166 E.02543
G1 X96.288 Y124.58 E.02747
G1 X95.778 Y123.949 E.02543
G1 X95.34 Y123.191 E.02747
G1 X95.049 Y122.434 E.02543
G1 X94.841 Y121.329 E.03523
G1 X94.821 Y101.891 E.60947
G1 X97.336 Y72.595 E.92194
G1 X97.595 Y71.502 E.03523
M73 P1 R31
G1 X98.05 Y70.54 E.03335
; printing object LED_Streifen_Halterungen v1.stl id:6 copy 0
;WIPE_START
G1 F8640
G1 X98.757 Y69.592 E-.27304
G1 X99.61 Y68.86 E-.25948
G1 X100.474 Y68.387 E-.22748
;WIPE_END
G1 E-.04 F2100
G1 Z.6 F10800
G1 X102.6 Y88.309
G1 Z.2
G1 E.8 F2100
;TYPE:Perimeter
G1 F1200
G1 X102.991 Y88.248 E.01239
G1 X103.341 Y88.248 E.01098
G1 X103.655 Y88.291 E.00995
G1 X104.015 Y88.387 E.01166
G1 X104.336 Y88.526 E.01098
G1 X104.607 Y88.691 E.00995
G1 X104.898 Y88.922 E.01166
G1 X105.137 Y89.178 E.01098
G1 X105.32 Y89.438 E.00995
G1 X105.495 Y89.766 E.01166
G1 X105.612 Y90.096 E.01098
G1 X105.683 Y90.435 E.01087
G1 X105.705 Y90.752 E.00995
G1 X105.684 Y91.123 E.01166
G1 X105.612 Y91.466 E.01098
G1 X105.496 Y91.792 E.01087
G1 X105.337 Y92.1 E.01086
G1 X105.137 Y92.383 E.01087
G1 X104.901 Y92.636 E.01087
G1 X104.632 Y92.855 E.01086
G1 X104.336 Y93.035 E.01087
G1 X104.018 Y93.173 E.01086
G1 X103.712 Y93.259 E.00995
G1 X103.344 Y93.314 E.01166
G1 X102.994 Y93.314 E.01098
G1 X102.68 Y93.27 E.00995
G1 X102.321 Y93.174 E.01166
G1 X102 Y93.035 E.01098
G1 X101.704 Y92.855 E.01087
G1 X101.435 Y92.636 E.01086
G1 X101.198 Y92.383 E.01087
G1 X100.998 Y92.1 E.01087
G1 X100.839 Y91.792 E.01086
G1 X100.723 Y91.466 E.01087
G1 X100.652 Y91.126 E.01087
G1 X100.631 Y90.81 E.00995
G1 X100.652 Y90.438 E.01166
G1 X100.723 Y90.096 E.01098
G1 X100.839 Y89.769 E.01087
G1 X100.998 Y89.461 E.01086
G1 X101.198 Y89.178 E.01087
G1 X101.435 Y88.925 E.01086
G1 X101.704 Y88.706 E.01087
G1 X102 Y88.526 E.01086
G1 X102.317 Y88.388 E.01086
G1 X102.543 Y88.325 E.00733
G1 X102.702 Y88.672 F10800
;TYPE:External perimeter
G1 F1200
G1 X103.019 Y88.625 E.01004
G1 X103.315 Y88.625 E.00929
G1 X103.581 Y88.661 E.0084
G1 X103.89 Y88.744 E.01004
G1 X104.162 Y88.862 E.00929
G1 X104.391 Y89.001 E.0084
G1 X104.642 Y89.2 E.01004
G1 X104.844 Y89.417 E.00929
G1 X104.999 Y89.636 E.0084
G1 X105.149 Y89.918 E.01004
G1 X105.249 Y90.198 E.00929
G1 X105.309 Y90.486 E.00925
G1 X105.327 Y90.754 E.0084
G1 X105.309 Y91.074 E.01004
G1 X105.249 Y91.364 E.00929
G1 X105.15 Y91.642 E.00925
G1 X105.014 Y91.903 E.00925
G1 X104.844 Y92.144 E.00925
G1 X104.643 Y92.36 E.00925
G1 X104.414 Y92.546 E.00925
G1 X104.162 Y92.699 E.00925
G1 X103.891 Y92.817 E.00925
G1 X103.633 Y92.889 E.0084
G1 X103.316 Y92.937 E.01004
G1 X103.02 Y92.937 E.00929
G1 X102.755 Y92.9 E.0084
G1 X102.445 Y92.817 E.01004
G1 X102.174 Y92.699 E.00929
G1 X101.922 Y92.546 E.00925
G1 X101.693 Y92.36 E.00925
G1 X101.491 Y92.144 E.00925
G1 X101.321 Y91.903 E.00925
G1 X101.186 Y91.642 E.00925
G1 X101.087 Y91.364 E.00925
G1 X101.027 Y91.075 E.00925
G1 X101.009 Y90.807 E.0084
G1 X101.027 Y90.488 E.01004
G1 X101.087 Y90.198 E.00929
G1 X101.186 Y89.92 E.00925
G1 X101.321 Y89.658 E.00925
G1 X101.491 Y89.417 E.00925
G1 X101.693 Y89.201 E.00925
G1 X101.922 Y89.015 E.00925
G1 X102.174 Y88.862 E.00925
G1 X102.444 Y88.744 E.00925
G1 X102.644 Y88.688 E.00652
G1 X102.8 Y88.367 F10800
;WIPE_START
G1 F8640
G1 X103.019 Y88.625 E-.08773
G1 X103.315 Y88.625 E-.06839
G1 X103.581 Y88.661 E-.0619
G1 X103.89 Y88.744 E-.07397
G1 X104.162 Y88.862 E-.06839
G1 X104.391 Y89.001 E-.0619
G1 X104.642 Y89.2 E-.07397
G1 X104.844 Y89.417 E-.06839
G1 X104.999 Y89.636 E-.0619
G1 X105.149 Y89.918 E-.07397
G1 X105.236 Y90.161 E-.0595
;WIPE_END
G1 E-.04 F2100
G1 Z.6 F10800
G1 X103.02 Y77.314
G1 Z.2
G1 E.8 F2100
;TYPE:Perimeter
G1 F1200
G1 X102.68 Y77.27 E.01075
G1 X102.321 Y77.174 E.01166
G1 X102 Y77.035 E.01098
G1 X101.728 Y76.87 E.00995
G1 X101.437 Y76.639 E.01166
G1 X101.198 Y76.383 E.01098
G1 X100.998 Y76.1 E.01087
G1 X100.839 Y75.792 E.01086
G1 X100.723 Y75.466 E.01087
G1 X100.652 Y75.126 E.01087
G1 X100.631 Y74.81 E.00995
G1 X100.652 Y74.438 E.01166
G1 X100.723 Y74.096 E.01098
G1 X100.839 Y73.769 E.01087
G1 X100.998 Y73.461 E.01086
G1 X101.198 Y73.178 E.01087
G1 X101.435 Y72.925 E.01087
G1 X101.704 Y72.706 E.01086
G1 X102 Y72.526 E.01087
G1 X102.317 Y72.388 E.01086
G1 X102.623 Y72.303 E.00995
G1 X102.991 Y72.248 E.01166
G1 X103.341 Y72.248 E.01098
G1 X103.655 Y72.291 E.00995
G1 X104.015 Y72.387 E.01166
G1 X104.336 Y72.526 E.01098
G1 X104.632 Y72.706 E.01087
G1 X104.901 Y72.925 E.01086
G1 X105.137 Y73.178 E.01086
G1 X105.337 Y73.461 E.01087
G1 X105.496 Y73.769 E.01086
G1 X105.612 Y74.096 E.01086
G1 X105.683 Y74.435 E.01087
G1 X105.705 Y74.752 E.00995
G1 X105.684 Y75.123 E.01166
G1 X105.612 Y75.466 E.01098
G1 X105.496 Y75.792 E.01087
G1 X105.337 Y76.1 E.01086
G1 X105.137 Y76.383 E.01087
G1 X104.901 Y76.636 E.01087
G1 X104.632 Y76.855 E.01086
G1 X104.336 Y77.035 E.01087
G1 X104.018 Y77.173 E.01087
G1 X103.684 Y77.266 E.01086
G1 X103.341 Y77.314 E.01087
G1 X103.08 Y77.314 E.00817
G1 X103.02 Y76.937 F10800
;TYPE:External perimeter
G1 F1200
G1 X102.755 Y76.9 E.0084
G1 X102.445 Y76.817 E.01004
G1 X102.174 Y76.699 E.00929
G1 X101.944 Y76.56 E.0084
G1 X101.694 Y76.361 E.01004
G1 X101.491 Y76.144 E.00929
G1 X101.321 Y75.903 E.00925
G1 X101.186 Y75.642 E.00925
G1 X101.087 Y75.364 E.00925
G1 X101.027 Y75.075 E.00925
G1 X101.009 Y74.807 E.0084
G1 X101.027 Y74.488 E.01004
G1 X101.087 Y74.198 E.00929
G1 X101.186 Y73.92 E.00925
G1 X101.321 Y73.658 E.00925
G1 X101.491 Y73.417 E.00925
G1 X101.693 Y73.201 E.00925
G1 X101.922 Y73.015 E.00925
G1 X102.174 Y72.862 E.00925
G1 X102.444 Y72.744 E.00925
G1 X102.702 Y72.672 E.0084
G1 X103.019 Y72.625 E.01004
G1 X103.315 Y72.625 E.00929
G1 X103.581 Y72.661 E.0084
G1 X103.89 Y72.744 E.01004
G1 X104.162 Y72.862 E.00929
G1 X104.414 Y73.015 E.00925
G1 X104.643 Y73.201 E.00925
G1 X104.844 Y73.417 E.00925
G1 X105.014 Y73.658 E.00925
G1 X105.15 Y73.92 E.00925
G1 X105.249 Y74.198 E.00925
G1 X105.309 Y74.486 E.00925
G1 X105.327 Y74.754 E.0084
G1 X105.309 Y75.074 E.01004
G1 X105.249 Y75.364 E.00929
G1 X105.15 Y75.642 E.00925
G1 X105.014 Y75.903 E.00925
G1 X104.844 Y76.144 E.00925
G1 X104.643 Y76.36 E.00925
G1 X104.414 Y76.546 E.00925
G1 X104.162 Y76.699 E.00925
G1 X103.891 Y76.817 E.00925
G1 X103.607 Y76.896 E.00925
G1 X103.315 Y76.937 E.00925
G1 X103.08 Y76.937 E.00737
G1 X102.871 Y77.159 F10800
;WIPE_START
G1 F8640
G1 X102.755 Y76.9 E-.07564
G1 X102.445 Y76.817 E-.07397
G1 X102.174 Y76.699 E-.06839
G1 X101.944 Y76.56 E-.0619
G1 X101.694 Y76.361 E-.07397
G1 X101.491 Y76.144 E-.06839
G1 X101.321 Y75.903 E-.0681
G1 X101.186 Y75.642 E-.0681
G1 X101.087 Y75.364 E-.0681
G1 X101.027 Y75.075 E-.0681
G1 X101.009 Y74.807 E-.0619
G1 X101.009 Y74.793 E-.00343
;WIPE_END
G1 E-.04 F2100
G1 Z.6 F10800
G1 X100.455 Y76.937
G1 Z.2
G1 E.8 F2100
;TYPE:Perimeter
G1 F1200
G1 X100.468 Y73.049 E.12188
G1 X100.504 Y72.821 E.00726
G1 X100.647 Y72.381 E.0145
G1 X100.752 Y72.175 E.00726
G1 X101.024 Y71.801 E.0145
G1 X101.368 Y71.491 E.0145
G1 X101.768 Y71.26 E.0145
G1 X102.208 Y71.117 E.0145
G1 X102.436 Y71.081 E.00726
G1 X102.688 Y71.068 E.0079
G1 X103.657 Y71.068 E.03039
G1 X104.128 Y71.117 E.01482
G1 X104.567 Y71.26 E.0145
G1 X104.774 Y71.365 E.00726
G1 X105.148 Y71.637 E.0145
G1 X105.457 Y71.98 E.0145
G1 X105.688 Y72.381 E.0145
G1 X105.831 Y72.821 E.0145
G1 X105.867 Y73.049 E.00726
G1 X105.881 Y73.301 E.00791
G1 X105.881 Y92.26 E.59444
M73 P1 R30
G1 X105.867 Y92.512 E.00791
G1 X105.771 Y92.964 E.0145
G1 X105.583 Y93.387 E.0145
G1 X105.457 Y93.581 E.00726
G1 X105.148 Y93.924 E.0145
G1 X104.968 Y94.07 E.00726
G1 X104.567 Y94.301 E.0145
G1 X104.128 Y94.444 E.0145
G1 X103.899 Y94.48 E.00726
G1 X103.647 Y94.494 E.00791
G1 X102.436 Y94.48 E.03796
G1 X101.984 Y94.384 E.0145
G1 X101.768 Y94.301 E.00726
G1 X101.368 Y94.07 E.0145
G1 X101.024 Y93.761 E.0145
G1 X100.878 Y93.581 E.00726
G1 X100.647 Y93.18 E.0145
G1 X100.504 Y92.74 E.0145
G1 X100.468 Y92.512 E.00726
G1 X100.455 Y92.26 E.00791
G1 X100.455 Y76.997 E.47857
G1 X100.078 Y76.937 F10800
;TYPE:External perimeter
G1 F1200
G1 X100.078 Y73.291 E.11429
G1 X100.092 Y73.01 E.00884
G1 X100.135 Y72.742 E.0085
G1 X100.205 Y72.48 E.0085
G1 X100.302 Y72.227 E.0085
G1 X100.425 Y71.986 E.0085
G1 X100.573 Y71.759 E.0085
G1 X100.743 Y71.548 E.0085
G1 X100.935 Y71.356 E.0085
G1 X101.146 Y71.186 E.0085
G1 X101.373 Y71.038 E.0085
G1 X101.614 Y70.915 E.0085
G1 X101.868 Y70.818 E.0085
G1 X102.129 Y70.748 E.0085
G1 X102.397 Y70.705 E.0085
G1 X102.678 Y70.691 E.00883
G1 X103.667 Y70.691 E.03101
G1 X103.938 Y70.705 E.00851
G1 X104.206 Y70.748 E.0085
G1 X104.468 Y70.818 E.0085
G1 X104.721 Y70.915 E.0085
G1 X104.962 Y71.038 E.0085
G1 X105.19 Y71.186 E.0085
G1 X105.4 Y71.356 E.0085
G1 X105.592 Y71.548 E.0085
G1 X105.763 Y71.759 E.0085
G1 X105.91 Y71.986 E.0085
G1 X106.033 Y72.227 E.0085
G1 X106.13 Y72.48 E.0085
G1 X106.201 Y72.742 E.0085
G1 X106.243 Y73.01 E.0085
G1 X106.258 Y73.291 E.00884
G1 X106.258 Y92.27 E.59506
G1 X106.243 Y92.551 E.00884
G1 X106.201 Y92.819 E.0085
G1 X106.13 Y93.081 E.0085
G1 X106.033 Y93.334 E.0085
G1 X105.91 Y93.575 E.0085
G1 X105.763 Y93.803 E.0085
G1 X105.592 Y94.013 E.0085
G1 X105.4 Y94.205 E.0085
G1 X105.19 Y94.375 E.0085
G1 X104.962 Y94.523 E.0085
G1 X104.721 Y94.646 E.0085
G1 X104.468 Y94.743 E.0085
G1 X104.206 Y94.813 E.0085
G1 X103.938 Y94.856 E.0085
G1 X103.657 Y94.871 E.00884
G1 X102.397 Y94.856 E.03951
G1 X102.129 Y94.813 E.0085
G1 X101.868 Y94.743 E.0085
G1 X101.614 Y94.646 E.0085
G1 X101.373 Y94.523 E.0085
G1 X101.146 Y94.375 E.0085
G1 X100.935 Y94.205 E.0085
G1 X100.743 Y94.013 E.0085
G1 X100.573 Y93.803 E.0085
G1 X100.425 Y93.575 E.0085
G1 X100.302 Y93.334 E.0085
G1 X100.205 Y93.081 E.0085
G1 X100.135 Y92.819 E.0085
G1 X100.092 Y92.551 E.0085
G1 X100.078 Y92.27 E.00884
G1 X100.078 Y76.997 E.47888
G1 X100.424 Y76.736 F10800
;WIPE_START
G1 F8640
G1 X100.078 Y73.705 E-.76
;WIPE_END
G1 E-.04 F2100
G1 Z.6 F10800
G1 X100.657 Y73.656
G1 Z.2
G1 E.8 F2100
;TYPE:Gap fill
;WIDTH:0.251779
G1 F1200
G1 X100.748 Y73.309 E.00624
;WIDTH:0.255628
G1 X100.75 Y73.302 E.00013
;WIDTH:0.262728
G1 X100.79 Y73.186 E.00225
;WIPE_START
G1 F8640
G1 X100.75 Y73.302 E-.02837
;WIPE_END
G1 E-.77163 F2100
G1 Z.6 F10800
G1 X104.416 Y71.329
G1 Z.2
G1 E.8 F2100
;TYPE:Solid infill
;WIDTH:0.45424
G1 F1200
G1 X105.227 Y72.148 E.03941
G1 X105.429 Y72.497 E.01378
G1 X105.554 Y72.883 E.01391
G1 X105.431 Y72.926 E.00447
G1 X103.868 Y71.363 E.07559
G1 X103.273 Y71.351 E.02033
G1 X104.018 Y72.095 E.03599
G1 X103.711 Y72.013 E.01084
G1 X103.306 Y71.965 E.01397
G1 X102.692 Y71.351 E.0297
G1 X102.466 Y71.362 E.00773
G1 X102.182 Y71.423 E.00993
G1 X102.756 Y71.997 E.02776
G1 X102.564 Y72.026 E.00665
G1 X102.282 Y72.104 E.01
G1 X101.766 Y71.588 E.02498
G1 X101.528 Y71.725 E.00937
G1 X101.414 Y71.818 E.00504
G1 X101.87 Y72.274 E.02208
G1 X101.512 Y72.498 E.01444
G1 X101.134 Y72.119 E.0183
G1 X101.108 Y72.148 E.0013
G1 X100.915 Y72.482 E.01322
G1 X101.317 Y72.885 E.01947
;WIPE_START
G1 F8640
G1 X100.915 Y72.482 E-.13142
G1 X101.108 Y72.148 E-.08928
G1 X101.134 Y72.119 E-.00875
G1 X101.512 Y72.498 E-.12351
G1 X101.87 Y72.274 E-.09749
G1 X101.414 Y71.818 E-.14906
G1 X101.528 Y71.725 E-.03405
G1 X101.766 Y71.588 E-.06326
G1 X101.959 Y71.781 E-.06316
;WIPE_END
G1 E-.04 F2100
G1 Z.6 F10800
G1 X105.545 Y73.186
G1 Z.2
G1 E.8 F2100
;TYPE:Gap fill
;WIDTH:0.262727
G1 F1200
G1 X105.585 Y73.302 E.00225
;WIDTH:0.255628
G1 X105.588 Y73.309 E.00013
;WIDTH:0.25178
