( Made using CamBam - http://www.cambam.co.uk )
( Wappen-Huettle 7/21/2017 3:47:12 PM )
( T0 : 0.0 )
( T2 : 2.0 )
( T4 : 4.0 )
( T6 : 6.0 )
( T15 : 1.5 )
( T21 : 4.0 )
G21 G90 G64 G40
G0 Z3.0
( T6 : 6.0 )
T6 M6
( Kontur )
G17
M3 S1000
G0 X-108.67625 Y-73.35532
G0 Z1.0
G1 F300.0 Z-2.0
G1 F800.0 X-108.63171 Y-73.3161
G3 X-108.63597 Y-73.39891 I4.38707 J-0.26718
G1 X-108.67625 Y-73.35532
G0 Z3.0
G0 X108.63171 Y-73.3161
G0 Z1.0
G1 F300.0 Z-2.0
G1 F800.0 X108.67625 Y-73.35532
G1 X108.63597 Y-73.39891
G3 X108.63171 Y-73.3161 I-4.39133 J-0.18438
G0 Z3.0
G0 X1.40518 Y125.67004
G0 Z1.0
G1 F300.0 Z-2.0
G3 F800.0 X-1.40518 I-1.40518 J-4.16452
G1 X0.0 Y128.52451
G1 X1.40518 Y125.67004
G1 F300.0 X2.4818 Y126.20003
G1 F800.0 X3.85789 Y123.40465
G3 X3.86648 Y123.38733 I2.87099 J1.41331
G3 X4.30825 Y122.57992 I11.07887 J5.5372
G3 X4.32468 Y122.55269 I2.74826 J1.63923
G1 X4.4432 Y122.35838
G3 X4.45762 Y122.33498 I2.73183 J1.66646
G3 X5.08839 Y121.39568 I13.7185 J8.53105
G3 X6.39317 Y119.74859 I18.82154 J13.56954
G3 X7.30911 Y118.73973 I20.95584 J18.10532
G3 X7.81716 Y118.21744 I22.96523 J21.831
G3 X7.82277 Y118.21181 I2.26798 J2.25749
G1 X7.97786 Y118.05678
G3 X7.99515 Y118.03962 I2.26237 J2.26311
G1 X8.20348 Y117.83451
G3 X8.21566 Y117.82258 I2.24508 J2.28027
G1 X8.27152 Y117.76816
G3 X8.27975 Y117.76018 I2.2329 J2.2922
G1 X8.40786 Y117.63627
G3 X8.41988 Y117.6247 I2.22467 J2.30018
G1 X8.56701 Y117.48389
G3 X8.58042 Y117.47112 I2.21265 J2.31175
G1 X8.74953 Y117.31113
G3 X8.76028 Y117.30101 I2.19924 J2.32451
G1 X8.85086 Y117.21609
G3 X8.85753 Y117.20986 I2.18849 J2.33463
G3 X10.44563 Y115.79401 I32.78037 J35.16975
G3 X10.44892 Y115.7912 I2.07612 J2.4351
G3 X13.75805 Y113.18581 I36.22106 J42.60038
G3 X13.75904 Y113.18508 I1.88346 J2.587
G3 X17.10498 Y110.92066 I35.00575 J48.12063
G3 X17.24659 Y110.83193 I4.11058 J6.40286
G3 X20.86132 Y108.74754 I31.34082 J50.1747
G3 X20.86553 Y108.74532 I1.49975 J2.82679
G3 X22.37173 Y107.97627 I27.78945 J52.56718
G3 X22.49035 Y107.91777 I2.88957 J5.7088
G3 X22.62468 Y107.85244 I2.7311 J5.44575
G3 X24.36749 Y107.03813 I25.62895 J52.57916
G1 X24.36759 Y107.03808
G3 X27.91782 Y105.55614 I31.18576 J69.71663
G3 X27.921 Y105.5549 I1.15791 J2.98316
G1 X28.3794 Y105.37754
G3 X28.39521 Y105.37147 I1.15472 J2.9844
G1 X28.88513 Y105.18488
G3 X28.89683 Y105.18045 I1.13891 J2.99046
G1 X29.15009 Y105.08513
G3 X29.15654 Y105.08271 I1.12722 J2.99489
G3 X32.09976 Y104.01654 I53.30248 J142.54779
G1 X33.0632 Y103.67826
G3 X33.0712 Y103.67546 I1.06011 J3.0193
G1 X36.92651 Y102.33328
G1 X38.0185 Y101.94958
G1 X39.26611 Y101.50625
G1 X39.61482 Y101.38116
G1 X39.96414 Y101.25522
G1 X40.67058 Y100.99855
G3 X40.69436 Y100.99002 I1.09277 J3.00763
G2 X40.83626 Y100.9381 I-2.49207 J-7.03141
G3 X40.89092 Y100.91804 I1.12985 J2.9939
G3 X40.9433 Y100.89884 I1.12754 J2.99477
G3 X40.97122 Y100.88846 I1.12919 J2.99415
G2 X42.66385 Y100.25829 I-61.33618 J-167.33843
G1 X43.14856 Y100.07437
G2 X44.43267 Y99.57901 I-119.81051 J-312.49484
G1 X45.16361 Y99.29149
G1 X46.00052 Y98.9571
G1 X46.21185 Y98.87175
G1 X46.43559 Y98.78098
G3 X46.43658 Y98.78057 I1.203 J2.96526
G2 X53.40678 Y95.71579 I-49.01342 J-120.92904
G1 X53.85675 Y95.50038
G3 X53.87035 Y95.49391 I1.38173 J2.88632
G2 X54.02907 Y95.41733 I-4.85947 J-10.27494
G3 X54.08167 Y95.39204 I1.41281 J2.87123
G3 X54.13343 Y95.36681 I1.42801 J2.8637
G3 X54.16544 Y95.35125 I1.415 J2.87015
G2 X54.44016 Y95.21754 I-10.91496 J-22.775
G3 X54.44486 Y95.21522 I1.41779 J2.86877
G1 X55.05549 Y94.91468
G1 X55.45441 Y94.7159
G2 X57.04515 Y93.90349 I-61.77996 J-122.93132
G2 X60.18157 Y92.2052 I-51.54266 J-98.93489
G3 X60.18239 Y92.20474 I1.56848 J2.78924
G2 X66.2613 Y88.50594 I-50.30681 J-89.52313
G1 X66.64629 Y88.25141
G1 X67.03993 Y87.98843
G1 X67.44479 Y87.71502
G1 X67.86112 Y87.43069
G1 X68.29348 Y87.13197
G2 X72.74024 Y83.83516 I-50.93983 J-73.3554
G3 X72.77292 Y83.80967 I1.98456 J2.51028
G3 X72.8074 Y83.78195 I2.02246 J2.47985
G2 X77.99952 Y79.29972 I-50.95869 J-64.27785
G3 X78.01555 Y79.28477 I2.19053 J2.33272
G2 X78.14259 Y79.16504 I-6.85084 J-7.3964
G3 X78.16047 Y79.14803 I2.21483 J2.30966
G2 X83.06512 Y74.06851 I-52.50123 J-55.60148
G1 X83.0652 Y74.06841
G1 X83.06503 Y74.06861
G1 X83.06512 Y74.06851
G2 X86.03887 Y70.44853 I-51.86185 J-45.63499
G1 X86.22126 Y70.20936
G1 X86.40331 Y69.9684
G1 X86.58939 Y69.71977
G2 X88.21121 Y67.44141 I-52.03397 J-38.75612
G2 X90.04993 Y64.56988 I-52.61014 J-35.71232
G1 X90.16619 Y64.37613
G1 X90.43246 Y63.92633
G1 X90.73281 Y63.40846
G1 X90.89041 Y63.13211
G2 X93.20493 Y58.63109 I-53.39219 J-30.30102
G3 X93.20591 Y58.62898 I2.9037 J1.34482
G2 X94.5396 Y55.53027 I-54.61889 J-25.34449
G3 X94.54017 Y55.52883 I2.9736 J1.18225
G2 X96.04326 Y51.29438 I-55.2192 J-21.98503
G2 X97.66606 Y44.91031 I-58.96442 J-18.38676
G3 X97.66618 Y44.90972 I3.139 J0.62185
G2 X98.6327 Y38.36508 I-66.0545 J-13.0987
G3 X98.63303 Y38.36178 I3.18481 J0.31145
G2 X98.93349 Y33.95157 I-72.14327 J-7.13037
G1 X98.95352 Y33.36873
G2 X98.90501 Y26.95711 I-87.04356 J-2.54745
G1 X98.90499 Y26.95658
G1 X98.89564 Y26.74547
G1 X98.88578 Y26.53286
G1 X98.8627 Y26.06947
G2 X98.7071 Y23.63159 I-103.55762 J5.386
G1 X98.69544 Y23.47787
G1 X98.64253 Y22.81184
G1 X98.58219 Y22.1046
G1 X98.51288 Y21.34608
G1 X98.49488 Y21.15688
G2 X98.04167 Y17.06545 I-140.52803 J13.49534
G3 X98.04134 Y17.06279 I3.17507 J-0.39864
G1 X98.02507 Y16.93233
G1 X98.00873 Y16.80205
G1 X97.99215 Y16.67074
G1 X97.97534 Y16.53836
G1 X97.9583 Y16.40493
G1 X97.94124 Y16.27222
G1 X97.86859 Y15.71505
G1 X97.79209 Y15.14144
G1 X97.71099 Y14.54621
G2 X97.30498 Y11.71122 I-244.437 J33.55981
G3 X97.30488 Y11.71056 I3.16499 J-0.47203
G1 X97.24431 Y11.30384
G1 X97.07996 Y10.21657
G1 X97.05926 Y10.0812
G1 X96.82742 Y8.58408
G1 X96.69322 Y7.73106
G1 X96.53791 Y6.75329
G1 X96.45477 Y6.23307
G1 X96.00584 Y3.44358
G1 X96.00576 Y3.44312
G1 X95.7493 Y1.8481
G3 X95.74841 Y1.84257 I3.15942 J-0.508
G1 X95.45851 Y0.01921
G3 X95.45731 Y0.01158 I3.1603 J-0.50247
G1 X95.30504 Y-0.96127
G3 X95.30387 Y-0.96875 I3.16151 J-0.49484
G1 X95.14391 Y-2.00682
G3 X95.14328 Y-2.01096 I3.16267 J-0.48736
G3 X94.30907 Y-7.77111 I370.54101 J-56.60354
G3 X94.30862 Y-7.77439 I3.17043 J-0.43405
G1 X94.25683 Y-8.15564
G3 X94.25631 Y-8.1595 I3.17087 J-0.43077
G1 X94.20156 Y-8.56623
G3 X94.20132 Y-8.56799 I3.1714 J-0.4269
G3 X93.39361 Y-15.13501 I301.63566 J-40.43265
G3 X93.36635 Y-15.3801 I10.65134 J-1.30898
G3 X93.27182 Y-16.24802 I104.09174 J-11.77641
G3 X93.25647 Y-16.3921 I7.79337 J-0.90308
G1 X93.15808 Y-17.32907
G3 X93.15684 Y-17.34109 I3.1825 J-0.33419
G1 X93.05416 Y-18.35574
G3 X93.05367 Y-18.36063 I3.18374 J-0.32218
G3 X92.57754 Y-23.71533 I251.60979 J-25.07102
G3 X92.57692 Y-23.7235 I3.19026 J-0.24952
G1 X92.51972 Y-24.47964
G3 X92.5195 Y-24.48258 I3.19089 J-0.24135
G3 X92.16963 Y-30.65341 I171.86513 J-12.83974
G3 X92.16915 Y-30.66659 I3.1976 J-0.12383
G1 X92.14118 Y-31.47498
G3 X92.14109 Y-31.47763 I3.19809 J-0.11064
G3 X92.11566 Y-32.37414 I83.02281 J-2.80341
G1 X92.10531 Y-32.81886
G3 X92.10515 Y-32.826 I3.19913 J-0.07443
G1 X92.10279 Y-32.9382
G3 X92.10276 Y-32.93972 I3.19929 J-0.06729
G3 X92.08459 Y-36.03658 I105.4152 J-2.16702
G3 X92.08471 Y-36.04754 I3.19988 J0.02822
G1 X92.08996 Y-36.47648
G3 X92.0901 Y-36.48634 I3.19976 J0.03918
G1 X92.09179 Y-36.59709
G3 X92.09199 Y-36.60863 I3.19962 J0.04904
G1 X92.10157 Y-37.11462
G3 X92.10182 Y-37.12674 I3.19943 J0.06058
G1 X92.10476 Y-37.25595
G3 X92.33049 Y-41.61878 I73.20609 J1.6003
G3 X92.33219 Y-41.63885 I3.18937 J0.2606
G1 X92.38107 Y-42.19404
G3 X92.38216 Y-42.20611 I3.18767 J0.28068
G3 X92.76388 Y-45.3393 I53.06019 J4.87451
G3 X92.83226 Y-45.77061 I21.95537 J3.25976
G1 X92.86331 Y-45.95808
G3 X92.86587 Y-45.97333 I3.15699 J0.5229
G1 X92.89917 Y-46.1685
G3 X92.89985 Y-46.17245 I3.15442 J0.53815
G3 X93.31228 Y-48.24641 I39.96851 J6.87019
G3 X93.83538 Y-50.30231 I38.13716 J8.60909
G3 X93.83605 Y-50.30467 I3.07864 J0.87291
G3 X94.25134 Y-51.6647 I35.42077 J10.07244
G3 X96.46552 Y-56.93597 I33.04483 J10.77969
G3 X96.46709 Y-56.939 I2.83838 J1.47771
G3 X97.33371 Y-58.50823 I33.80952 J17.64768
G3 X97.47845 Y-58.75418 I11.09572 J6.36389
G3 X98.56176 Y-60.48009 I35.19844 J20.89023
G3 X98.56377 Y-60.48313 I2.66714 J1.76815
G3 X100.93921 Y-63.75631 I40.85775 J27.15298
G3 X100.94554 Y-63.76429 I2.51018 J1.98469
G1 X101.25949 Y-64.15878
G3 X101.27364 Y-64.17643 I2.50385 J1.99267
G1 X101.43713 Y-64.37891
G3 X101.44881 Y-64.39329 I2.4897 J2.01032
G1 X101.6947 Y-64.69423
G3 X101.70267 Y-64.70395 I2.47802 J2.0247
G1 X101.73799 Y-64.74682
G3 X101.74705 Y-64.75778 I2.47004 J2.03443
G1 X102.03096 Y-65.09938
G3 X102.04454 Y-65.11561 I2.46098 J2.04538
G1 X102.23532 Y-65.34209
G3 X102.2482 Y-65.35728 I2.4474 J2.06161
G1 X102.50442 Y-65.65764
G3 X102.52194 Y-65.67799 I2.43452 J2.0768
G1 X102.86696 Y-66.07564
G3 X102.88305 Y-66.09404 I2.417 J2.09716
G1 X103.08194 Y-66.31976
G3 X103.08612 Y-66.32449 I2.40092 J2.11556
G3 X104.8282 Y-68.19994 I39.49205 J34.9369
G3 X106.05624 Y-69.41272 I30.81714 J29.97671
G3 X106.79791 Y-70.09914 I22.66647 J23.74694
G3 X106.80168 Y-70.10252 I2.13717 J2.3817
G1 X106.96264 Y-70.24649
G3 X107.10576 Y-70.37319 I4.02981 J4.40785
G1 X110.39171 Y-73.26708
G1 X73.89081 Y-112.76627
G3 X0.0 Y-100.23695 I-73.89081 J-211.61822
G3 X-73.89081 Y-112.76627 I0.0 J-224.14754
G1 X-110.39171 Y-73.26708
G1 X-107.10576 Y-70.37319
G3 X-106.96264 Y-70.24649 I-3.88669 J4.53455
G1 X-106.80168 Y-70.10252
G3 X-106.79791 Y-70.09914 I-2.1334 J2.38508
G3 X-106.05624 Y-69.41272 I-21.9248 J24.43336
G3 X-104.8282 Y-68.19994 I-29.58909 J31.1895
G3 X-103.08612 Y-66.32449 I-37.74997 J36.81234
G3 X-103.08194 Y-66.31976 I-2.39674 J2.12029
G1 X-102.88305 Y-66.09404
G3 X-102.86696 Y-66.07564 I-2.40092 J2.11556
G1 X-102.52194 Y-65.67799
G3 X-102.50442 Y-65.65764 I-2.417 J2.09716
G1 X-102.2482 Y-65.35728
G3 X-102.23532 Y-65.34209 I-2.43452 J2.0768
G1 X-102.04454 Y-65.11561
G3 X-102.03096 Y-65.09938 I-2.4474 J2.06161
G1 X-101.74705 Y-64.75778
G3 X-101.73799 Y-64.74682 I-2.46098 J2.04538
G1 X-101.70267 Y-64.70395
G3 X-101.6947 Y-64.69423 I-2.47004 J2.03443
G1 X-101.44881 Y-64.39329
G3 X-101.43713 Y-64.37891 I-2.47802 J2.0247
G1 X-101.27364 Y-64.17643
G3 X-101.25949 Y-64.15878 I-2.4897 J2.01032
G1 X-100.94554 Y-63.76429
G3 X-100.93921 Y-63.75631 I-2.50385 J1.99267
G3 X-98.56377 Y-60.48313 I-38.48232 J30.42617
G3 X-98.56176 Y-60.48009 I-2.66513 J1.77118
G3 X-97.47845 Y-58.75418 I-34.11512 J22.61614
G3 X-97.33371 Y-58.50823 I-10.95098 J6.60984
G3 X-96.46709 Y-56.939 I-32.9429 J19.21691
G3 X-96.46552 Y-56.93597 I-2.8368 J1.48073
G3 X-94.25134 Y-51.6647 I-30.83065 J16.05096
G3 X-93.83605 Y-50.30467 I-35.00548 J11.43247
G3 X-93.83538 Y-50.30231 I-3.07797 J0.87527
G3 X-93.31228 Y-48.24641 I-37.61406 J10.66499
G3 X-92.89985 Y-46.17245 I-39.55608 J8.94415
G3 X-92.89917 Y-46.1685 I-3.15375 J0.5421
G1 X-92.86587 Y-45.97333
G3 X-92.86331 Y-45.95808 I-3.15442 J0.53815
G1 X-92.83226 Y-45.77061
G3 X-92.76388 Y-45.3393 I-21.88698 J3.69107
G3 X-92.38216 Y-42.20611 I-52.67847 J8.00769
G3 X-92.38107 Y-42.19404 I-3.18658 J0.29274
G1 X-92.33219 Y-41.63885
G3 X-92.33049 Y-41.61878 I-3.18767 J0.28068
G3 X-92.10476 Y-37.25595 I-72.98037 J5.96313
G1 X-92.10182 Y-37.12674
G3 X-92.10157 Y-37.11462 I-3.19917 J0.0727
G1 X-92.09199 Y-36.60863
G3 X-92.09179 Y-36.59709 I-3.19943 J0.06058
G1 X-92.0901 Y-36.48634
G3 X-92.08996 Y-36.47648 I-3.19962 J0.04904
G1 X-92.08471 Y-36.04754
G3 X-92.08459 Y-36.03658 I-3.19976 J0.03918
G3 X-92.10276 Y-32.93972 I-105.43337 J0.92983
G3 X-92.10279 Y-32.9382 I-3.19932 J-0.06577
G1 X-92.10515 Y-32.826
G3 X-92.10531 Y-32.81886 I-3.19929 J-0.06729
G1 X-92.11566 Y-32.37414
G3 X-92.14109 Y-31.47763 I-83.04824 J-1.90689
G3 X-92.14118 Y-31.47498 I-3.19818 J-0.10799
G1 X-92.16915 Y-30.66659
G3 X-92.16963 Y-30.65341 I-3.19809 J-0.11064
G3 X-92.5195 Y-24.48258 I-172.215 J-6.66891
G3 X-92.51972 Y-24.47964 I-3.19111 J-0.2384
G1 X-92.57692 Y-23.7235
G3 X-92.57754 Y-23.71533 I-3.19089 J-0.24135
G3 X-93.05367 Y-18.36063 I-252.08592 J-19.71632
G3 X-93.05416 Y-18.35574 I-3.18423 J-0.31728
G1 X-93.15684 Y-17.34109
G3 X-93.15808 Y-17.32907 I-3.18374 J-0.32218
G1 X-93.25647 Y-16.3921
G3 X-93.27182 Y-16.24802 I-7.80872 J-0.75901
G3 X-93.36635 Y-15.3801 I-104.18627 J-10.90849
G3 X-93.39361 Y-15.13501 I-10.67861 J-1.06389
G3 X-94.20132 Y-8.56799 I-302.44337 J-33.86562
G3 X-94.20156 Y-8.56623 I-3.17163 J-0.42514
G1 X-94.25631 Y-8.1595
G3 X-94.25683 Y-8.15564 I-3.1714 J-0.4269
G1 X-94.30862 Y-7.77439
G3 X-94.30907 Y-7.77111 I-3.17087 J-0.43077
G3 X-95.14328 Y-2.01096 I-371.37522 J-50.84339
G3 X-95.14391 Y-2.00682 I-3.1633 J-0.48322
G1 X-95.30387 Y-0.96875
G3 X-95.30504 Y-0.96127 I-3.16267 J-0.48736
G1 X-95.45731 Y0.01158
G3 X-95.45851 Y0.01921 I-3.16151 J-0.49484
G1 X-95.74841 Y1.84257
G3 X-95.7493 Y1.8481 I-3.1603 J-0.50247
G1 X-96.00576 Y3.44312
G1 X-96.00584 Y3.44358
G1 X-96.45477 Y6.23307
G1 X-96.53791 Y6.75329
G1 X-96.69322 Y7.73106
G1 X-96.82742 Y8.58408
G1 X-97.05926 Y10.0812
G1 X-97.07996 Y10.21657
G1 X-97.24431 Y11.30384
G1 X-97.30488 Y11.71056
G3 X-97.30498 Y11.71122 I-3.16509 J-0.47137
G2 X-97.71099 Y14.54621 I244.03099 J36.3948
G1 X-97.79209 Y15.14144
G1 X-97.86859 Y15.71505
G1 X-97.94124 Y16.27222
G1 X-97.9583 Y16.40493
G1 X-97.97534 Y16.53836
G1 X-97.99215 Y16.67074
G1 X-98.00873 Y16.80205
G1 X-98.02507 Y16.93233
G1 X-98.04134 Y17.06279
G3 X-98.04167 Y17.06545 I-3.17541 J-0.39598
G2 X-98.49488 Y21.15688 I140.07482 J17.58677
G1 X-98.51288 Y21.34608
G1 X-98.58219 Y22.1046
G1 X-98.64253 Y22.81184
G1 X-98.69544 Y23.47787
G1 X-98.7071 Y23.63159
G2 X-98.8627 Y26.06947 I103.40201 J7.82388
G1 X-98.88578 Y26.53286
G1 X-98.89564 Y26.74547
G1 X-98.90499 Y26.95658
G1 X-98.90501 Y26.95711
G2 X-98.95352 Y33.36873 I86.99505 J3.86416
G1 X-98.93349 Y33.95157
G2 X-98.63303 Y38.36178 I72.44373 J-2.72015
G3 X-98.6327 Y38.36508 I-3.18448 J0.31474
G2 X-97.66618 Y44.90972 I67.02102 J-6.55406
G3 X-97.66606 Y44.91031 I-3.13888 J0.62244
G2 X-96.04326 Y51.29438 I60.58722 J-12.00268
G2 X-94.54017 Y55.52883 I56.72229 J-17.75058
G3 X-94.5396 Y55.53027 I-2.97303 J1.18368
G2 X-93.20591 Y58.62898 I55.95258 J-22.24578
G3 X-93.20493 Y58.63109 I-2.90272 J1.34693
G2 X-90.89041 Y63.13211 I55.70671 J-25.8
G1 X-90.73281 Y63.40846
G1 X-90.43246 Y63.92633
G1 X-90.16619 Y64.37613
G1 X-90.04993 Y64.56988
G2 X-88.21121 Y67.44141 I54.44886 J-32.84079
G2 X-86.58939 Y69.71977 I53.65579 J-36.47775
G1 X-86.40331 Y69.9684
G1 X-86.22126 Y70.20936
G1 X-86.03887 Y70.44853
G2 X-83.06512 Y74.06851 I54.8356 J-42.015
G1 X-83.06503 Y74.06861
G1 X-83.0652 Y74.06841
G1 X-83.06512 Y74.06851
G2 X-78.16047 Y79.14803 I57.40588 J-50.52197
G3 X-78.14259 Y79.16504 I-2.19695 J2.32668
G2 X-78.01555 Y79.28477 I6.97788 J-7.27667
G3 X-77.99952 Y79.29972 I-2.1745 J2.34767
G2 X-72.8074 Y83.78195 I56.1508 J-59.79562
G3 X-72.77292 Y83.80967 I-1.98798 J2.50758
G3 X-72.74024 Y83.83516 I-1.95189 J2.53577
G2 X-68.29348 Y87.13197 I55.38659 J-70.05859
G1 X-67.86112 Y87.43069
G1 X-67.44479 Y87.71502
G1 X-67.03993 Y87.98843
G1 X-66.64629 Y88.25141
G1 X-66.2613 Y88.50594
G2 X-60.18239 Y92.20474 I56.38572 J-85.82434
G3 X-60.18157 Y92.2052 I-1.56765 J2.78971
G2 X-57.04515 Y93.90349 I54.67907 J-97.2366
G2 X-55.45441 Y94.7159 I63.37071 J-122.1189
G1 X-55.05549 Y94.91468
G1 X-54.44486 Y95.21522
G3 X-54.44016 Y95.21754 I-1.41309 J2.87109
G2 X-54.16544 Y95.35125 I11.18967 J-22.64129
G3 X-54.13343 Y95.36681 I-1.38298 J2.88572
G3 X-54.08167 Y95.39204 I-1.37626 J2.88893
G3 X-54.02907 Y95.41733 I-1.36021 J2.89652
G2 X-53.87035 Y95.49391 I5.01819 J-10.19836
G3 X-53.85675 Y95.50038 I-1.36813 J2.89279
G1 X-53.40678 Y95.71579
G2 X-46.43658 Y98.78057 I55.98362 J-117.86426
G3 X-46.43559 Y98.78098 I-1.20201 J2.96567
G1 X-46.21185 Y98.87175
G1 X-46.00052 Y98.9571
G1 X-45.16361 Y99.29149
G1 X-44.43267 Y99.57901
G2 X-43.14856 Y100.07437 I121.09462 J-311.99948
G1 X-42.66385 Y100.25829
G2 X-40.97122 Y100.88846 I63.02881 J-166.70827
G3 X-40.9433 Y100.89884 I-1.10128 J3.00453
G3 X-40.89092 Y100.91804 I-1.07516 J3.01397
G3 X-40.83626 Y100.9381 I-1.07519 J3.01396
G2 X-40.69436 Y100.99002 I2.63396 J-6.9795
G3 X-40.67058 Y100.99855 I-1.06899 J3.01617
G1 X-39.96414 Y101.25522
G1 X-39.61482 Y101.38116
G1 X-39.26611 Y101.50625
G1 X-38.0185 Y101.94958
G1 X-36.92651 Y102.33328
G1 X-33.0712 Y103.67546
G3 X-33.0632 Y103.67826 I-1.05211 J3.0221
G1 X-32.09976 Y104.01654
G3 X-29.15654 Y105.08271 I-50.35925 J143.61397
G3 X-29.15009 Y105.08513 I-1.12078 J2.99731
G1 X-28.89683 Y105.18045
G3 X-28.88513 Y105.18488 I-1.12722 J2.99489
G1 X-28.39521 Y105.37147
G3 X-28.3794 Y105.37754 I-1.13891 J2.99046
G1 X-27.921 Y105.5549
G3 X-27.91782 Y105.55614 I-1.15472 J2.9844
G3 X-24.36759 Y107.03808 I-27.63552 J71.19858
G1 X-24.36749 Y107.03813
G3 X-22.62468 Y107.85244 I-23.88614 J53.39347
G3 X-22.49035 Y107.91777 I-2.59677 J5.51108
G3 X-22.37173 Y107.97627 I-2.77095 J5.76731
G3 X-20.86553 Y108.74532 I-26.28324 J53.33622
G3 X-20.86132 Y108.74754 I-1.49555 J2.82902
G3 X-17.24659 Y110.83193 I-27.72609 J52.25909
G3 X-17.10498 Y110.92066 I-3.96897 J6.49159
G3 X-13.75904 Y113.18508 I-31.65982 J50.38505
G3 X-13.75805 Y113.18581 I-1.88246 J2.58773
G3 X-10.44892 Y115.7912 I-32.91194 J45.20577
G3 X-10.44563 Y115.79401 I-2.07283 J2.4379
G3 X-8.85753 Y117.20986 I-31.19227 J36.58561
G3 X-8.85086 Y117.21609 I-2.18183 J2.34086
G1 X-8.76028 Y117.30101
G3 X-8.74953 Y117.31113 I-2.18849 J2.33463
G1 X-8.58042 Y117.47112
G3 X-8.56701 Y117.48389 I-2.19924 J2.32451
G1 X-8.41988 Y117.6247
G3 X-8.40786 Y117.63627 I-2.21265 J2.31175
G1 X-8.27975 Y117.76018
G3 X-8.27152 Y117.76816 I-2.22467 J2.30018
G1 X-8.21566 Y117.82258
G3 X-8.20348 Y117.83451 I-2.2329 J2.2922
G1 X-7.99515 Y118.03962
G3 X-7.97786 Y118.05678 I-2.24508 J2.28027
G1 X-7.82277 Y118.21181
G3 X-7.81716 Y118.21744 I-2.26237 J2.26311
G3 X-7.30911 Y118.73973 I-22.45718 J22.35329
G3 X-6.39317 Y119.74859 I-20.0399 J19.11418
G3 X-5.08839 Y121.39568 I-17.51676 J15.21663
G3 X-4.45762 Y122.33498 I-13.08772 J9.47035
G3 X-4.4432 Y122.35838 I-2.71742 J1.68987
G1 X-4.32468 Y122.55269
G3 X-4.30825 Y122.57992 I-2.73183 J1.66646
G3 X-3.86648 Y123.38733 I-10.6371 J6.34461
G3 X-3.85789 Y123.40465 I-2.8624 J1.43062
G1 X0.0 Y131.24154
G1 X2.4818 Y126.20003
G1 F300.0 X1.49558 Y124.33452
G3 F800.0 X-2.86973 Y122.92136 I-1.49558 J-2.829
G2 X-3.5604 Y121.68891 I-12.08011 J5.95999
G3 X-3.57208 Y121.67028 I2.70566 J-1.70863
G2 X-3.82559 Y121.27874 I-10.87663 J6.76446
G3 X-3.82602 Y121.2781 I2.65401 J-1.78781
G1 X-3.90252 Y121.16448
G1 X-4.07335 Y120.91698
G1 X-4.25 Y120.66926
G2 X-4.35774 Y120.52203 I-26.87579 J19.55544
G1 X-4.52556 Y120.29793
G2 X-5.18706 Y119.46653 I-20.01418 J15.2452
G1 X-5.40186 Y119.21146
G2 X-5.99519 Y118.53761 I-18.42437 J15.625
G3 X-6.00081 Y118.53145 I2.36194 J-2.15899
G2 X-6.63432 Y117.85377 I-24.88557 J22.62846
G1 X-6.83109 Y117.65065
G2 X-7.32612 Y117.15331 I-21.72512 J21.12908
G3 X-7.32726 Y117.15219 I2.24172 J-2.28357
G2 X-9.67927 Y114.99921 I-31.57021 J32.12753
G3 X-9.68047 Y114.99819 I2.07576 J-2.43541
G2 X-12.37128 Y112.84349 I-35.94308 J42.12849
G3 X-12.37354 Y112.84179 I1.92147 J-2.55889
G2 X-15.30341 Y110.77332 I-35.67716 J47.42547
G3 X-15.30575 Y110.77177 I1.76575 J-2.66873
G2 X-18.38555 Y108.86183 I-33.06071 J49.87255
G1 X-18.38582 Y108.86167
G2 X-21.55342 Y107.15404 I-29.58292 J51.08352
G3 X-21.55415 Y107.15367 I1.43194 J-2.86174
G2 X-24.80191 Y105.64341 I-27.71904 J55.36141
G3 X-24.80589 Y105.64169 I1.26481 J-2.93943
G2 X-27.38632 Y104.58239 I-30.45449 J70.51343
G1 X-27.76592 Y104.43485
G1 X-28.19476 Y104.2703
G1 X-28.81218 Y104.03707
G1 X-29.43245 Y103.80668
G1 X-29.84498 Y103.65539
G1 X-30.39973 Y103.4541
G1 X-31.14483 Y103.18705
G1 X-31.57037 Y103.03598
G1 X-31.79549 Y102.95641
G1 X-32.86499 Y102.58112
G1 X-33.93753 Y102.20771
G1 X-34.6548 Y101.95868
G1 X-34.65527 Y101.95852
G1 X-35.57314 Y101.63968
G3 X-35.71813 Y101.58922 I1.21594 J-3.72733
G1 X-36.82826 Y101.20183
G3 X-36.83659 Y101.19891 I1.05433 J-3.02132
G1 X-37.98525 Y100.79451
G3 X-37.9948 Y100.79113 I1.06266 J-3.0184
G1 X-38.75965 Y100.51913
G3 X-38.7706 Y100.51522 I1.07221 J-3.01502
G1 X-39.76467 Y100.15763
G3 X-39.82844 Y100.13484 I1.2237 J-3.5255
G3 X-39.88656 Y100.11354 I1.25613 J-3.51655
G3 X-42.38616 Y99.18826 I63.1054 J-174.3159
G3 X-42.39347 Y99.18549 I1.13242 J-2.99293
G1 X-43.21822 Y98.87112
G3 X-43.22405 Y98.86889 I1.13973 J-2.99015
G3 X-44.34533 Y98.43337 I49.2377 J-128.42535
G3 X-48.23653 Y96.84063 I51.62559 J-131.67527
G3 X-48.24004 Y96.83913 I1.25609 J-2.94317
G1 X-48.49201 Y96.73124
G3 X-48.50224 Y96.72683 I1.2596 J-2.94167
G1 X-49.07734 Y96.47821
G3 X-49.08293 Y96.47578 I1.26983 J-2.93726
G3 X-54.01101 Y94.203 I48.80161 J-112.29568
G3 X-54.02176 Y94.19772 I1.40422 J-2.87544
G1 X-54.7166 Y93.85517
G3 X-54.73644 Y93.84531 I1.41497 J-2.87017
G1 X-55.42893 Y93.49793
G3 X-55.44561 Y93.48951 I1.43481 J-2.8603
G1 X-55.90587 Y93.25525
G3 X-55.92157 Y93.24721 I1.45149 J-2.85187
G1 X-56.53356 Y92.93147
G3 X-56.54324 Y92.92645 I1.46719 J-2.84383
G3 X-59.0421 Y91.58585 I51.52317 J-99.03741
G1 X-59.04213 Y91.58583
G1 X-59.04206 Y91.58587
G1 X-59.0421 Y91.58585
G3 X-61.58294 Y90.13289 I49.27349 J-89.11429
G3 X-64.08519 Y88.60511 I49.24003 J-83.45993
G3 X-64.09223 Y88.60065 I1.70868 J-2.70563
G1 X-64.56824 Y88.2983
G3 X-64.58441 Y88.28795 I1.71572 J-2.70117
G1 X-65.0584 Y87.98288
G1 X-65.05856 Y87.98278
G1 X-65.05823 Y87.98299
G1 X-65.0584 Y87.98288
G3 X-65.374 Y87.77768 I21.44583 J-33.32864
G3 X-65.47849 Y87.70962 I2.90392 J-4.57265
G3 X-65.57102 Y87.64895 I2.97207 J-4.63356
G3 X-65.66965 Y87.58411 I3.02547 J-4.70949
G3 X-65.78732 Y87.50631 I3.08207 J-4.78948
G3 X-65.82957 Y87.4783 I2.74388 J-4.18483
G3 X-65.88552 Y87.44127 I2.75415 J-4.22187
G3 X-65.94325 Y87.403 I2.77715 J-4.25199
G3 X-66.02023 Y87.35166 I2.80092 J-4.28301
G3 X-67.89141 Y86.07455 I49.68988 J-74.8131
G3 X-68.42878 Y85.69523 I33.42089 J-47.91678
G3 X-69.03763 Y85.25836 I37.43674 J-52.81717
G3 X-72.19634 Y82.86255 I50.61165 J-70.00814
G3 X-72.42381 Y82.68108 I9.61304 J-12.2832
G3 X-73.51454 Y81.79284 I49.39265 J-61.76649
G3 X-73.51878 Y81.78931 I2.04265 J-2.46325
G1 X-73.79824 Y81.55676
G3 X-73.8042 Y81.55179 I2.04689 J-2.45972
G3 X-76.6023 Y79.102 I52.67316 J-62.98505
G3 X-76.61161 Y79.09344 I2.16191 J-2.35927
G1 X-76.98671 Y78.74697
G3 X-76.99893 Y78.73563 I2.17122 J-2.35071
G1 X-77.19803 Y78.5498
G1 X-77.1983 Y78.54955
G3 X-78.29977 Y77.49734 I45.2883 J-48.51114
G3 X-81.33921 Y74.35725 I52.09242 J-53.46381
G3 X-81.34008 Y74.3563 I2.36345 J-2.15733
G3 X-82.31394 Y73.26593 I51.87423 J-47.3118
G3 X-82.31654 Y73.26296 I2.40871 J-2.10668
G1 X-82.43492 Y73.12727
G3 X-82.43651 Y73.12545 I2.41131 J-2.1037
G3 X-86.15172 Y68.45987 I50.96381 J-44.39465
G3 X-87.72567 Y66.19057 I50.34605 J-36.59958
G3 X-87.72718 Y66.18828 I2.66926 J-1.76495
G1 X-87.82342 Y66.04246
G3 X-87.82555 Y66.03922 I2.67077 J-1.76266
G3 X-89.38691 Y63.53967 I51.72574 J-34.04822
G1 X-89.38705 Y63.53944
G3 X-92.09794 Y58.41667 I52.24692 J-30.92691
G3 X-92.09895 Y58.41451 I2.8966 J-1.36003
G3 X-94.26902 Y53.135 I53.5896 J-25.11302
G3 X-94.26974 Y53.13299 I3.01495 J-1.07241
G3 X-95.81335 Y48.09472 I56.74051 J-20.1397
G3 X-95.81578 Y48.08531 I3.09771 J-0.80262
G1 X-95.89826 Y47.76294
G3 X-95.90058 Y47.75383 I3.10013 J-0.7932
G3 X-97.01757 Y42.32267 I60.1298 J-15.19692
G1 X-97.01764 Y42.32222
G3 X-97.6335 Y37.23699 I67.54725 J-10.76046
G3 X-97.63409 Y37.2298 I3.18897 J-0.26551
G1 X-97.66037 Y36.9053
G3 X-97.66114 Y36.89561 I3.18956 J-0.25832
G3 X-97.88072 Y32.18911 I75.40232 J-5.8762
G3 X-97.88885 Y31.50203 I40.69757 J-0.82489
G3 X-97.78405 Y26.52478 I89.93784 J-0.59606
G3 X-97.78389 Y26.52153 I3.1962 J0.15588
G1 X-97.76795 Y26.20144
G3 X-97.76706 Y26.1844 I3.19604 J0.15913
G1 X-97.72773 Y25.47121
G3 X-97.72685 Y25.45584 I3.19515 J0.17617
G1 X-97.7126 Y25.21815
G3 X-97.71206 Y25.20936 I3.19426 J0.19155
G1 X-97.69218 Y24.8925
G3 X-97.69144 Y24.88098 I3.19372 J0.20033
G1 X-97.66341 Y24.45865
G3 X-97.66272 Y24.44848 I3.19298 J0.21186
G1 X-97.64594 Y24.20715
G3 X-97.64539 Y24.19935 I3.19229 J0.22204
G1 X-97.62553 Y23.92363
G3 X-97.62442 Y23.90871 I3.19174 J0.22984
G1 X-97.56804 Y23.17369
G3 X-97.56773 Y23.1697 I3.19063 J0.24476
G3 X-97.48176 Y22.1512 I79.7325 J6.217
G1 X-97.45847 Y21.89182
G3 X-97.45782 Y21.88464 I3.18718 J0.28618
G1 X-97.43219 Y21.60624
G3 X-97.43148 Y21.59871 I3.18652 J0.29336
G1 X-97.40344 Y21.30181
G3 X-97.40269 Y21.29393 I3.18582 J0.30088
G1 X-97.372 Y20.97733
G3 X-97.37061 Y20.96328 I3.18507 J0.30876
G1 X-97.28832 Y20.15171
G3 X-97.2863 Y20.13236 I3.18368 J0.32281
G1 X-97.19908 Y19.32131
G3 X-97.19777 Y19.30941 I3.18166 J0.34215
G1 X-97.17198 Y19.07775
G3 X-97.17137 Y19.07226 I3.18035 J0.35406
G1 X-97.14144 Y18.80758
G3 X-97.14024 Y18.79718 I3.17974 J0.35954
G1 X-97.05814 Y18.09174
G1 X-97.05813 Y18.09166
G1 X-97.05815 Y18.09182
G1 X-97.05814 Y18.09174
G3 X-96.94 Y17.12121 I91.38509 J10.63179
G3 X-96.777 Y15.85123 I193.70888 J24.21697
G3 X-96.77662 Y15.84842 I3.17261 J0.41778
G3 X-96.42928 Y13.33255 I234.10828 J31.03922
G3 X-96.05701 Y10.82246 I249.33863 J35.69662
G3 X-96.05672 Y10.82055 I3.16297 J0.48539
G1 X-95.85702 Y9.52446
G3 X-95.85604 Y9.51819 I3.16268 J0.4873
G1 X-95.78862 Y9.08627
G3 X-95.78768 Y9.08033 I3.16171 J0.49357
G1 X-95.51475 Y7.35326
G3 X-95.51386 Y7.34769 I3.16077 J0.49951
G1 X-95.32987 Y6.1966
G3 X-95.3296 Y6.1949 I3.15989 J0.50508
G1 X-95.28036 Y5.88794
G3 X-95.28024 Y5.88716 I3.15962 J0.50679
G1 X-94.88878 Y3.45043
G1 X-94.50089 Y1.01652
G1 X-94.34067 Y-0.00267
G1 X-94.28804 Y-0.33992
G1 X-94.07803 Y-1.7
G1 X-93.94074 Y-2.60345
G1 X-93.76027 Y-3.81152
G1 X-93.68744 Y-4.30639
G1 X-93.61525 Y-4.80153
G1 X-93.47205 Y-5.79821
G2 X-93.19644 Y-7.77836 I-280.45571 J-40.04533
G3 X-93.19236 Y-7.80742 I3.17098 J0.42996
G2 X-93.16392 Y-8.01703 I-11.49816 J-1.66659
G3 X-93.15587 Y-8.07626 I3.17474 J0.40129
G2 X-93.12636 Y-8.29522 I-10.46927 J-1.52252
G3 X-93.11885 Y-8.35164 I3.17562 J0.39429
G2 X-93.10594 Y-8.44793 I-5.99014 J-0.85221
G3 X-93.09911 Y-8.49887 I3.17493 J0.39979
G2 X-93.08601 Y-8.59688 I-5.75519 J-0.8188
G3 X-93.08334 Y-8.61772 I3.17531 J0.39677
G1 X-92.94466 Y-9.67123
G1 X-92.80962 Y-10.72524
G3 X-92.80543 Y-10.75669 I3.17405 J0.40667
G2 X-92.79714 Y-10.82244 I-2.75859 J-0.38127
G3 X-92.78758 Y-10.89827 I3.17939 J0.36256
G2 X-92.77859 Y-10.96982 I-2.86339 J-0.39601
G3 X-92.7686 Y-11.04929 I3.17978 J0.35919
G2 X-92.75888 Y-11.12706 I-2.96862 J-0.41082
G3 X-92.75281 Y-11.17769 I3.18018 J0.35561
G2 X-92.65059 Y-12.0064 I-90.61182 J-11.59707
G3 X-92.64471 Y-12.05302 I3.17769 J0.37721
G2 X-92.64032 Y-12.08907 I-1.53144 J-0.20464
G3 X-92.63128 Y-12.1634 I3.18089 J0.34917
G2 X-92.62669 Y-12.20125 I-1.57052 J-0.2097
G3 X-92.62315 Y-12.23225 I3.18112 J0.34707
G1 X-92.47888 Y-13.44487
G1 X-92.34171 Y-14.64047
G2 X-92.21088 Y-15.8252 I-228.59498 J-25.84335
G1 X-92.12577 Y-16.62211
G1 X-92.016 Y-17.6841
G1 X-91.95562 Y-18.28664
G1 X-91.83901 Y-19.49194
G1 X-91.72754 Y-20.7033
G3 X-91.72398 Y-20.73975 I3.18654 J0.29322
G2 X-91.71752 Y-20.81201 I-2.54681 J-0.26378
G3 X-91.7144 Y-20.85058 I3.19104 J0.23936
G1 X-91.63902 Y-21.71511
G2 X-91.54465 Y-22.85262 I-221.23184 J-18.92787
G3 X-91.54204 Y-22.88318 I3.18971 J0.25639
G2 X-91.53508 Y-22.97007 I-4.43912 J-0.39968
G3 X-91.53033 Y-23.02956 I3.19211 J0.22457
G2 X-91.52291 Y-23.12287 I-4.89376 J-0.43613
G3 X-91.51774 Y-23.18737 I3.1922 J0.22328
G2 X-91.5031 Y-23.37369 I-8.02571 J-0.72469
G3 X-91.49793 Y-23.44045 I3.19285 J0.21379
G2 X-91.48294 Y-23.63395 I-9.22885 J-0.81224
G3 X-91.47879 Y-23.68876 I3.19286 J0.21371
G2 X-91.46926 Y-23.81342 I-8.1255 J-0.68425
G3 X-91.46574 Y-23.85969 I3.19246 J0.2196
G2 X-91.45198 Y-24.04173 I-11.74299 J-0.97907
G3 X-91.4498 Y-24.07178 I3.19267 J0.21644
G2 X-91.3843 Y-24.97014 I-103.89047 J-8.02653
G3 X-91.38415 Y-24.97232 I3.1925 J0.21891
G1 X-91.3414 Y-25.58956
G1 X-91.34139 Y-25.58978
G1 X-91.34142 Y-25.58934
G1 X-91.3414 Y-25.58956
G2 X-91.19275 Y-28.01133 I-157.17876 J-10.8631
G3 X-91.1924 Y-28.01781 I3.1954 J0.17145
G2 X-91.02574 Y-31.98378 I-145.33644 J-8.09374
G1 X-91.01858 Y-32.24878
G1 X-91.01158 Y-32.53014
G1 X-91.00487 Y-32.82788
G1 X-90.99277 Y-33.47986
G1 X-90.98434 Y-34.13218
G1 X-90.98265 Y-34.31688
G3 X-90.98263 Y-34.31885 I3.19987 J0.02927
G2 X-90.98092 Y-35.78782 I-85.47724 J-0.83431
G1 X-90.98453 Y-36.2143
G1 X-90.99098 Y-36.69934
G1 X-90.993 Y-36.8203
G1 X-90.99523 Y-36.94421
G1 X-91.00845 Y-37.54038
G2 X-91.0539 Y-38.88112 I-71.90578 J1.76641
G1 X-91.0748 Y-39.34081
G2 X-91.18437 Y-41.12935 I-74.31333 J3.655
G1 X-91.19264 Y-41.2389
G1 X-91.23561 Y-41.77275
G1 X-91.25944 Y-42.04658
G1 X-91.30613 Y-42.54609
G1 X-91.35691 Y-43.0439
G1 X-91.39307 Y-43.37467
G1 X-91.40291 Y-43.46158
G3 X-91.4061 Y-43.49107 I3.17972 J-0.35968
G2 X-91.42191 Y-43.6276 I-5.74945 J0.59644
G3 X-91.42393 Y-43.64377 I3.17417 J-0.40578
G1 X-91.49224 Y-44.20059
G2 X-91.80773 Y-46.31234 I-50.70046 J6.49509
G3 X-91.80786 Y-46.31314 I3.15431 J-0.53882
G2 X-92.6788 Y-50.26205 I-41.41793 J7.0643
G2 X-93.87027 Y-53.87648 I-35.60906 J9.73463
G1 X-93.99984 Y-54.20441
G1 X-94.13256 Y-54.5309
G1 X-94.16821 Y-54.61706
G1 X-94.21236 Y-54.72285
G2 X-94.57277 Y-55.5527 I-35.51282 J14.93005
G2 X-95.35919 Y-57.19073 I-34.77653 J15.68835
G2 X-97.07207 Y-60.19951 I-34.53873 J17.67087
G1 X-97.27041 Y-60.51232
G1 X-97.47052 Y-60.82215
G2 X-97.86657 Y-61.41907 I-35.54705 J23.15518
G3 X-97.86947 Y-61.42338 I2.65143 J-1.79162
G2 X-98.69518 Y-62.6069 I-36.18567 J24.36582
G1 X-98.94937 Y-62.9567
G2 X-100.62277 Y-65.12106 I-43.79024 J32.12791
G1 X-100.87892 Y-65.43391
G2 X-102.72762 Y-67.57022 I-47.62331 J39.34384
G1 X-102.79019 Y-67.63899
G1 X-102.79029 Y-67.63909
G1 X-102.7901 Y-67.6389
G1 X-102.79019 Y-67.63899
G2 X-104.38959 Y-69.32085 I-39.0111 J35.49716
G1 X-104.63325 Y-69.56407
G2 X-105.52567 Y-70.4241 I-26.83491 J26.95255
G1 X-105.84397 Y-70.7187
G1 X-105.91936 Y-70.78754
G2 X-106.36718 Y-71.18853 I-39.66883 J43.85011
G3 X-106.59482 Y-75.75507 I2.12254 J-2.39475
G1 X-74.98358 Y-109.96295
G3 X-71.61598 Y-110.82511 I2.35018 J2.17178
G2 X0.0 Y-99.13695 I71.61598 J-213.55938
G2 X71.61598 Y-110.82511 I0.0 J-225.24754
G3 X74.98358 Y-109.96295 I1.01742 J3.03395
G1 X106.59482 Y-75.75507
G3 X106.36718 Y-71.18853 I-2.35018 J2.17178
G2 X105.91936 Y-70.78754 I39.22101 J44.2511
G1 X105.84397 Y-70.7187
G1 X105.52567 Y-70.4241
G2 X104.63325 Y-69.56407 I25.94249 J27.81257
G1 X104.38959 Y-69.32085
G2 X102.79019 Y-67.63899 I37.4117 J37.17901
G1 X102.7901 Y-67.6389
G1 X102.79029 Y-67.63909
G1 X102.79019 Y-67.63899
G1 X102.72762 Y-67.57022
G2 X100.87892 Y-65.43391 I45.77461 J41.48015
G1 X100.62277 Y-65.12106
G2 X98.94937 Y-62.9567 I42.11684 J34.29227
G1 X98.69518 Y-62.6069
G2 X97.86947 Y-61.42338 I35.35996 J25.54935
G3 X97.86657 Y-61.41907 I-2.65434 J-1.78731
G2 X97.47052 Y-60.82215 I35.151 J23.7521
G1 X97.27041 Y-60.51232
G1 X97.07207 Y-60.19951
G2 X95.35919 Y-57.19073 I32.82585 J20.67965
G2 X94.57277 Y-55.5527 I33.99011 J17.32639
G2 X94.21236 Y-54.72285 I35.15241 J15.7599
G1 X94.16821 Y-54.61706
G1 X94.13256 Y-54.5309
G1 X93.99984 Y-54.20441
G1 X93.87027 Y-53.87648
G2 X92.6788 Y-50.26205 I34.4176 J13.34906
G2 X91.80786 Y-46.31314 I40.54699 J11.01322
G3 X91.80773 Y-46.31234 I-3.15445 J-0.53803
G2 X91.49224 Y-44.20059 I50.38497 J8.60684
G1 X91.42393 Y-43.64377
G3 X91.42191 Y-43.6276 I-3.17619 J-0.3896
G2 X91.4061 Y-43.49107 I5.73364 J0.73297
G3 X91.40291 Y-43.46158 I-3.18292 J-0.33019
G1 X91.39307 Y-43.37467
G1 X91.35691 Y-43.0439
G1 X91.30613 Y-42.54609
G1 X91.25944 Y-42.04658
G1 X91.23561 Y-41.77275
G1 X91.19264 Y-41.2389
G1 X91.18437 Y-41.12935
G2 X91.0748 Y-39.34081 I74.20376 J5.44354
G1 X91.0539 Y-38.88112
G2 X91.00845 Y-37.54038 I71.86033 J3.10715
G1 X90.99523 Y-36.94421
G1 X90.993 Y-36.8203
G1 X90.99098 Y-36.69934
G1 X90.98453 Y-36.2143
G1 X90.98092 Y-35.78782
G2 X90.98263 Y-34.31885 I85.47896 J0.63465
G3 X90.98265 Y-34.31688 I-3.19985 J0.03123
G1 X90.98434 Y-34.13218
G1 X90.99277 Y-33.47986
G1 X91.00487 Y-32.82788
G1 X91.01158 Y-32.53014
G1 X91.01858 Y-32.24878
G1 X91.02574 Y-31.98378
G2 X91.1924 Y-28.01781 I145.5031 J-4.12777
G3 X91.19275 Y-28.01133 I-3.19505 J0.17793
G2 X91.3414 Y-25.58956 I157.32741 J-8.44133
G1 X91.34142 Y-25.58934
G1 X91.34139 Y-25.58978
G1 X91.3414 Y-25.58956
G1 X91.38415 Y-24.97232
G3 X91.3843 Y-24.97014 I-3.19235 J0.22108
G2 X91.4498 Y-24.07178 I103.95597 J-7.12816
G3 X91.45198 Y-24.04173 I-3.19049 J0.2465
G2 X91.46574 Y-23.85969 I11.75675 J-0.79704
G3 X91.46926 Y-23.81342 I-3.18894 J0.26588
G2 X91.47879 Y-23.68876 I8.13504 J-0.55959
G3 X91.48294 Y-23.63395 I-3.18871 J0.26852
G2 X91.49793 Y-23.44045 I9.24384 J-0.61874
G3 X91.5031 Y-23.37369 I-3.18768 J0.28055
G2 X91.51774 Y-23.18737 I8.04036 J-0.53837
G3 X91.52291 Y-23.12287 I-3.18703 J0.28778
G2 X91.53033 Y-23.02956 I4.90119 J-0.34282
G3 X91.53508 Y-22.97007 I-3.18737 J0.28406
G2 X91.54204 Y-22.88318 I4.44608 J-0.31279
G3 X91.54465 Y-22.85262 I-3.18711 J0.28695
G2 X91.63902 Y-21.71511 I221.32621 J-17.79036
G1 X91.7144 Y-20.85058
G3 X91.71752 Y-20.81201 I-3.18791 J0.27793
G2 X91.72398 Y-20.73975 I2.55326 J-0.19152
G3 X91.72754 Y-20.7033 I-3.18297 J0.32967
G1 X91.83901 Y-19.49194
G1 X91.95562 Y-18.28664
G1 X92.016 Y-17.6841
G1 X92.12577 Y-16.62211
G1 X92.21088 Y-15.8252
G2 X92.34171 Y-14.64047 I228.72581 J-24.65863
G1 X92.47888 Y-13.44487
G1 X92.62315 Y-12.23225
G3 X92.62669 Y-12.20125 I-3.17759 J0.37807
G2 X92.63128 Y-12.1634 I1.57512 J-0.17185
G3 X92.64032 Y-12.08907 I-3.17185 J0.42351
G2 X92.64471 Y-12.05302 I1.53583 J-0.16859
G3 X92.65059 Y-12.0064 I-3.17181 J0.42384
G2 X92.75281 Y-11.17769 I90.71404 J-10.76837
G3 X92.75888 Y-11.12706 I-3.17411 J0.40624
G2 X92.7686 Y-11.04929 I2.97835 J-0.33304
G3 X92.77859 Y-10.96982 I-3.16979 J0.43866
G2 X92.78758 Y-10.89827 I2.87238 J-0.32446
G3 X92.79714 Y-10.82244 I-3.16983 J0.43839
G2 X92.80543 Y-10.75669 I2.76688 J-0.31552
G3 X92.80962 Y-10.72524 I-3.16987 J0.43811
G1 X92.94466 Y-9.67123
G1 X93.08334 Y-8.61772
G3 X93.08601 Y-8.59688 I-3.17263 J0.41761
G2 X93.09911 Y-8.49887 I5.76829 J-0.72078
G3 X93.10594 Y-8.44793 I-3.1681 J0.45073
G2 X93.11885 Y-8.35164 I6.00305 J-0.75592
G3 X93.12636 Y-8.29522 I-3.1681 J0.45072
G2 X93.15587 Y-8.07626 I10.49878 J-1.30356
G3 X93.16392 Y-8.01703 I-3.16669 J0.46052
G2 X93.19236 Y-7.80742 I11.52659 J-1.45698
G3 X93.19644 Y-7.77836 I-3.16691 J0.45902
G2 X93.47205 Y-5.79821 I280.73132 J-38.06517
G1 X93.61525 Y-4.80153
G1 X93.68744 Y-4.30639
G1 X93.76027 Y-3.81152
G1 X93.94074 Y-2.60345
G1 X94.07803 Y-1.7
G1 X94.28804 Y-0.33992
G1 X94.34067 Y-0.00267
G1 X94.50089 Y1.01652
G1 X94.88878 Y3.45043
G1 X95.28024 Y5.88716
G3 X95.28036 Y5.88794 I-3.15949 J0.50757
G1 X95.3296 Y6.1949
G3 X95.32987 Y6.1966 I-3.15962 J0.50679
G1 X95.51386 Y7.34769
G3 X95.51475 Y7.35326 I-3.15989 J0.50508
G1 X95.78768 Y9.08033
G3 X95.78862 Y9.08627 I-3.16077 J0.49951
G1 X95.85604 Y9.51819
G3 X95.85702 Y9.52446 I-3.16171 J0.49357
G1 X96.05672 Y10.82055
G3 X96.05701 Y10.82246 I-3.16268 J0.4873
G3 X96.42928 Y13.33255 I-248.96636 J38.20672
G3 X96.77662 Y15.84842 I-233.76094 J33.55508
G3 X96.777 Y15.85123 I-3.17224 J0.42059
G3 X96.94 Y17.12121 I-193.54588 J25.48696
G3 X97.05814 Y18.09174 I-91.26695 J11.60232
G1 X97.05815 Y18.09182
G1 X97.05813 Y18.09166
G1 X97.05814 Y18.09174
G1 X97.14024 Y18.79718
G3 X97.14144 Y18.80758 I-3.17854 J0.36995
G1 X97.17137 Y19.07226
G3 X97.17198 Y19.07775 I-3.17974 J0.35954
G1 X97.19777 Y19.30941
G3 X97.19908 Y19.32131 I-3.18035 J0.35406
G1 X97.2863 Y20.13236
G3 X97.28832 Y20.15171 I-3.18166 J0.34215
G1 X97.37061 Y20.96328
G3 X97.372 Y20.97733 I-3.18368 J0.32281
G1 X97.40269 Y21.29393
G3 X97.40344 Y21.30181 I-3.18507 J0.30876
G1 X97.43148 Y21.59871
G3 X97.43219 Y21.60624 I-3.18582 J0.30088
G1 X97.45782 Y21.88464
G3 X97.45847 Y21.89182 I-3.18652 J0.29336
G1 X97.48176 Y22.1512
G3 X97.56773 Y23.1697 I-79.64654 J7.2355
G3 X97.56804 Y23.17369 I-3.19032 J0.24876
G1 X97.62442 Y23.90871
G3 X97.62553 Y23.92363 I-3.19063 J0.24476
G1 X97.64539 Y24.19935
G3 X97.64594 Y24.20715 I-3.19174 J0.22984
G1 X97.66272 Y24.44848
G3 X97.66341 Y24.45865 I-3.19229 J0.22204
G1 X97.69144 Y24.88098
G3 X97.69218 Y24.8925 I-3.19298 J0.21186
G1 X97.71206 Y25.20936
G3 X97.7126 Y25.21815 I-3.19372 J0.20033
G1 X97.72685 Y25.45584
G3 X97.72773 Y25.47121 I-3.19426 J0.19155
G1 X97.76706 Y26.1844
G3 X97.76795 Y26.20144 I-3.19515 J0.17617
G1 X97.78389 Y26.52153
G3 X97.78405 Y26.52478 I-3.19604 J0.15913
G3 X97.88885 Y31.50203 I-89.83304 J4.38119
G3 X97.88072 Y32.18911 I-40.7057 J-0.13781
G3 X97.66114 Y36.89561 I-75.6219 J-1.1697
G3 X97.66037 Y36.9053 I-3.19033 J-0.24863
G1 X97.63409 Y37.2298
G3 X97.6335 Y37.23699 I-3.18956 J-0.25832
G3 X97.01764 Y42.32222 I-68.16312 J-5.67523
G1 X97.01757 Y42.32267
G3 X95.90058 Y47.75383 I-61.24679 J-9.76576
G3 X95.89826 Y47.76294 I-3.10245 J-0.7841
G1 X95.81578 Y48.08531
G3 X95.81335 Y48.09472 I-3.10013 J-0.7932
G3 X94.26974 Y53.13299 I-58.28413 J-15.10143
G3 X94.26902 Y53.135 I-3.01567 J-1.07039
G3 X92.09895 Y58.41451 I-55.75967 J-19.83351
G3 X92.09794 Y58.41667 I-2.89762 J-1.35787
G3 X89.38705 Y63.53944 I-54.95781 J-25.80414
G1 X89.38691 Y63.53967
G3 X87.82555 Y66.03922 I-53.2871 J-31.54867
G3 X87.82342 Y66.04246 I-2.6729 J-1.75943
G1 X87.72718 Y66.18828
G3 X87.72567 Y66.19057 I-2.67077 J-1.76266
G3 X86.15172 Y68.45987 I-51.92 J-34.33028
G3 X82.43651 Y73.12545 I-54.67902 J-39.72908
G3 X82.43492 Y73.12727 I-2.4129 J-2.10188
G1 X82.31654 Y73.26296
G3 X82.31394 Y73.26593 I-2.41131 J-2.1037
G3 X81.34008 Y74.3563 I-52.84809 J-46.22144
G3 X81.33921 Y74.35725 I-2.36432 J-2.15638
G3 X78.29977 Y77.49734 I-55.13186 J-50.32372
G3 X77.1983 Y78.54955 I-46.38977 J-47.45893
G1 X77.19803 Y78.5498
G1 X76.99893 Y78.73563
G3 X76.98671 Y78.74697 I-2.18344 J-2.33936
G1 X76.61161 Y79.09344
G3 X76.6023 Y79.102 I-2.17122 J-2.35071
G3 X73.8042 Y81.55179 I-55.47126 J-60.53527
G3 X73.79824 Y81.55676 I-2.05286 J-2.45475
G1 X73.51878 Y81.78931
G3 X73.51454 Y81.79284 I-2.04689 J-2.45972
G3 X72.42381 Y82.68108 I-50.48338 J-60.87825
G3 X72.19634 Y82.86255 I-9.84051 J-12.10174
G3 X69.03763 Y85.25836 I-53.77036 J-67.61233
G3 X68.42878 Y85.69523 I-38.0456 J-52.3803
G3 X67.89141 Y86.07455 I-33.95826 J-47.53746
G3 X66.02023 Y87.35166 I-51.56105 J-73.53599
G3 X65.94325 Y87.403 I-2.8779 J-4.23166
G3 X65.88552 Y87.44127 I-2.83488 J-4.21372
G3 X65.82957 Y87.4783 I-2.8101 J-4.18484
G3 X65.78732 Y87.50631 I-2.78613 J-4.15682
G3 X65.66965 Y87.58411 I-3.19974 J-4.71169
G3 X65.57102 Y87.64895 I-3.1241 J-4.64465
G3 X65.47849 Y87.70962 I-3.0646 J-4.57288
G3 X65.374 Y87.77768 I-3.00841 J-4.50459
G3 X65.0584 Y87.98288 I-21.76143 J-33.12344
G1 X65.05823 Y87.98299
G1 X65.05856 Y87.98278
G1 X65.0584 Y87.98288
G1 X64.58441 Y88.28795
G3 X64.56824 Y88.2983 I-1.7319 J-2.69082
G1 X64.09223 Y88.60065
G3 X64.08519 Y88.60511 I-1.71572 J-2.70117
G3 X61.58294 Y90.13289 I-51.74228 J-81.93215
G3 X59.0421 Y91.58585 I-51.81433 J-87.66133
G1 X59.04206 Y91.58587
G1 X59.04213 Y91.58583
G1 X59.0421 Y91.58585
G3 X56.54324 Y92.92645 I-54.02203 J-97.69681
G3 X56.53356 Y92.93147 I-1.47686 J-2.83882
G1 X55.92157 Y93.24721
G3 X55.90587 Y93.25525 I-1.46719 J-2.84383
G1 X55.44561 Y93.48951
G3 X55.42893 Y93.49793 I-1.45149 J-2.85187
G1 X54.73644 Y93.84531
G3 X54.7166 Y93.85517 I-1.43481 J-2.8603
G1 X54.02176 Y94.19772
G3 X54.01101 Y94.203 I-1.41497 J-2.87017
G3 X49.08293 Y96.47578 I-53.72968 J-110.0229
G3 X49.07734 Y96.47821 I-1.27543 J-2.93484
G1 X48.50224 Y96.72683
G3 X48.49201 Y96.73124 I-1.26983 J-2.93726
G1 X48.24004 Y96.83913
G3 X48.23653 Y96.84063 I-1.2596 J-2.94167
G3 X44.34533 Y98.43337 I-55.51678 J-130.08253
G3 X43.22405 Y98.86889 I-50.35898 J-127.98982
G3 X43.21822 Y98.87112 I-1.14556 J-2.98793
G1 X42.39347 Y99.18549
G3 X42.38616 Y99.18826 I-1.13973 J-2.99015
G3 X39.88656 Y100.11354 I-65.605 J-173.39062
G3 X39.82844 Y100.13484 I-1.31424 J-3.49524
G3 X39.76467 Y100.15763 I-1.28747 J-3.50272
G1 X38.7706 Y100.51522
G3 X38.75965 Y100.51913 I-1.08316 J-3.01111
G1 X37.9948 Y100.79113
G3 X37.98525 Y100.79451 I-1.07221 J-3.01502
G1 X36.83659 Y101.19891
G3 X36.82826 Y101.20183 I-1.06266 J-3.0184
G1 X35.71813 Y101.58922
G3 X35.57314 Y101.63968 I-1.36094 J-3.67687
G1 X34.65527 Y101.95852
G1 X34.6548 Y101.95868
G1 X33.93753 Y102.20771
G1 X32.86499 Y102.58112
G1 X31.79549 Y102.95641
G1 X31.57037 Y103.03598
G1 X31.14483 Y103.18705
G1 X30.39973 Y103.4541
G1 X29.84498 Y103.65539
G1 X29.43245 Y103.80668
G1 X28.81218 Y104.03707
G1 X28.19476 Y104.2703
G1 X27.76592 Y104.43485
G1 X27.38632 Y104.58239
G2 X24.80589 Y105.64169 I27.87406 J71.57273
G3 X24.80191 Y105.64341 I-1.26879 J-2.93772
G2 X21.55415 Y107.15367 I24.47128 J56.87167
G3 X21.55342 Y107.15404 I-1.43267 J-2.86137
G2 X18.38582 Y108.86167 I26.41532 J52.79115
G1 X18.38555 Y108.86183
G2 X15.30575 Y110.77177 I29.98091 J51.78249
G3 X15.30341 Y110.77332 I-1.76809 J-2.66718
G2 X12.37354 Y112.84179 I32.74729 J49.49394
G3 X12.37128 Y112.84349 I-1.92373 J-2.5572
G2 X9.68047 Y114.99819 I33.25227 J44.2832
G3 X9.67927 Y114.99921 I-2.07696 J-2.43438
G2 X7.32726 Y117.15219 I29.2182 J34.28051
G3 X7.32612 Y117.15331 I-2.24286 J-2.28245
G2 X6.83109 Y117.65065 I21.23009 J21.62642
G1 X6.63432 Y117.85377
G2 X6.00081 Y118.53145 I24.25206 J23.30615
G3 X5.99519 Y118.53761 I-2.36756 J-2.15282
G2 X5.40186 Y119.21146 I17.83103 J16.29884
G1 X5.18706 Y119.46653
G2 X4.52556 Y120.29793 I19.35268 J16.0766
G1 X4.35774 Y120.52203
G2 X4.25 Y120.66926 I26.76805 J19.70266
G1 X4.07335 Y120.91698
G1 X3.90252 Y121.16448
G1 X3.82602 Y121.2781
G3 X3.82559 Y121.27874 I-2.65444 J-1.78716
G2 X3.57208 Y121.67028 I10.62312 J7.156
G3 X3.5604 Y121.68891 I-2.71734 J-1.68999
G2 X2.86973 Y122.92136 I11.38944 J7.19244
G3 X1.49558 Y124.33452 I-2.86973 J-1.41585
G1 F300.0 Z-4.0
G3 F800.0 X-2.86973 Y122.92136 I-1.49558 J-2.829
G2 X-3.5604 Y121.68891 I-12.08011 J5.95999
G3 X-3.57208 Y121.67028 I2.70566 J-1.70863
G2 X-3.82559 Y121.27874 I-10.87663 J6.76446
G3 X-3.82602 Y121.2781 I2.65401 J-1.78781
G1 X-3.90252 Y121.16448
G1 X-4.07335 Y120.91698
G1 X-4.25 Y120.66926
G2 X-4.35774 Y120.52203 I-26.87579 J19.55544
G1 X-4.52556 Y120.29793
G2 X-5.18706 Y119.46653 I-20.01418 J15.2452
G1 X-5.40186 Y119.21146
G2 X-5.99519 Y118.53761 I-18.42437 J15.625
G3 X-6.00081 Y118.53145 I2.36194 J-2.15899
G2 X-6.63432 Y117.85377 I-24.88557 J22.62846
G1 X-6.83109 Y117.65065
G2 X-7.32612 Y117.15331 I-21.72512 J21.12908
G3 X-7.32726 Y117.15219 I2.24172 J-2.28357
G2 X-9.67927 Y114.99921 I-31.57021 J32.12753
G3 X-9.68047 Y114.99819 I2.07576 J-2.43541
G2 X-12.37128 Y112.84349 I-35.94308 J42.12849
G3 X-12.37354 Y112.84179 I1.92147 J-2.55889
G2 X-15.30341 Y110.77332 I-35.67716 J47.42547
G3 X-15.30575 Y110.77177 I1.76575 J-2.66873
G2 X-18.38555 Y108.86183 I-33.06071 J49.87255
G1 X-18.38582 Y108.86167
G2 X-21.55342 Y107.15404 I-29.58292 J51.08352
G3 X-21.55415 Y107.15367 I1.43194 J-2.86174
G2 X-24.80191 Y105.64341 I-27.71904 J55.36141
G3 X-24.80589 Y105.64169 I1.26481 J-2.93943
G2 X-27.38632 Y104.58239 I-30.45449 J70.51343
G1 X-27.76592 Y104.43485
G1 X-28.19476 Y104.2703
G1 X-28.81218 Y104.03707
G1 X-29.43245 Y103.80668
G1 X-29.84498 Y103.65539
G1 X-30.39973 Y103.4541
G1 X-31.14483 Y103.18705
G1 X-31.57037 Y103.03598
G1 X-31.79549 Y102.95641
G1 X-32.86499 Y102.58112
G1 X-33.93753 Y102.20771
G1 X-34.6548 Y101.95868
G1 X-34.65527 Y101.95852
G1 X-35.57314 Y101.63968
G3 X-35.71813 Y101.58922 I1.21594 J-3.72733
G1 X-36.82826 Y101.20183
G3 X-36.83659 Y101.19891 I1.05433 J-3.02132
G1 X-37.98525 Y100.79451
G3 X-37.9948 Y100.79113 I1.06266 J-3.0184
G1 X-38.75965 Y100.51913
G3 X-38.7706 Y100.51522 I1.07221 J-3.01502
G1 X-39.76467 Y100.15763
G3 X-39.82844 Y100.13484 I1.2237 J-3.5255
G3 X-39.88656 Y100.11354 I1.25613 J-3.51655
G3 X-42.38616 Y99.18826 I63.1054 J-174.3159
G3 X-42.39347 Y99.18549 I1.13242 J-2.99293
G1 X-43.21822 Y98.87112
G3 X-43.22405 Y98.86889 I1.13973 J-2.99015
G3 X-44.34533 Y98.43337 I49.2377 J-128.42535
G3 X-48.23653 Y96.84063 I51.62559 J-131.67527
G3 X-48.24004 Y96.83913 I1.25609 J-2.94317
G1 X-48.49201 Y96.73124
G3 X-48.50224 Y96.72683 I1.2596 J-2.94167
G1 X-49.07734 Y96.47821
G3 X-49.08293 Y96.47578 I1.26983 J-2.93726
G3 X-54.01101 Y94.203 I48.80161 J-112.29568
G3 X-54.02176 Y94.19772 I1.40422 J-2.87544
G1 X-54.7166 Y93.85517
G3 X-54.73644 Y93.84531 I1.41497 J-2.87017
G1 X-55.42893 Y93.49793
G3 X-55.44561 Y93.48951 I1.43481 J-2.8603
G1 X-55.90587 Y93.25525
G3 X-55.92157 Y93.24721 I1.45149 J-2.85187
G1 X-56.53356 Y92.93147
G3 X-56.54324 Y92.92645 I1.46719 J-2.84383
G3 X-59.0421 Y91.58585 I51.52317 J-99.03741
G1 X-59.04213 Y91.58583
G1 X-59.04206 Y91.58587
G1 X-59.0421 Y91.58585
G3 X-61.58294 Y90.13289 I49.27349 J-89.11429
G3 X-64.08519 Y88.60511 I49.24003 J-83.45993
G3 X-64.09223 Y88.60065 I1.70868 J-2.70563
G1 X-64.56824 Y88.2983
G3 X-64.58441 Y88.28795 I1.71572 J-2.70117
G1 X-65.0584 Y87.98288
G1 X-65.05856 Y87.98278
G1 X-65.05823 Y87.98299
G1 X-65.0584 Y87.98288
G3 X-65.374 Y87.77768 I21.44583 J-33.32864
G3 X-65.47849 Y87.70962 I2.90392 J-4.57265
G3 X-65.57102 Y87.64895 I2.97207 J-4.63356
G3 X-65.66965 Y87.58411 I3.02547 J-4.70949
G3 X-65.78732 Y87.50631 I3.08207 J-4.78948
G3 X-65.82957 Y87.4783 I2.74388 J-4.18483
G3 X-65.88552 Y87.44127 I2.75415 J-4.22187
G3 X-65.94325 Y87.403 I2.77715 J-4.25199
G3 X-66.02023 Y87.35166 I2.80092 J-4.28301
G3 X-67.89141 Y86.07455 I49.68988 J-74.8131
G3 X-68.42878 Y85.69523 I33.42089 J-47.91678
G3 X-69.03763 Y85.25836 I37.43674 J-52.81717
G3 X-72.19634 Y82.86255 I50.61165 J-70.00814
G3 X-72.42381 Y82.68108 I9.61304 J-12.2832
G3 X-73.51454 Y81.79284 I49.39265 J-61.76649
G3 X-73.51878 Y81.78931 I2.04265 J-2.46325
G1 X-73.79824 Y81.55676
G3 X-73.8042 Y81.55179 I2.04689 J-2.45972
G3 X-76.6023 Y79.102 I52.67316 J-62.98505
G3 X-76.61161 Y79.09344 I2.16191 J-2.35927
G1 X-76.98671 Y78.74697
G3 X-76.99893 Y78.73563 I2.17122 J-2.35071
G1 X-77.19803 Y78.5498
G1 X-77.1983 Y78.54955
G3 X-78.29977 Y77.49734 I45.2883 J-48.51114
G3 X-81.33921 Y74.35725 I52.09242 J-53.46381
G3 X-81.34008 Y74.3563 I2.36345 J-2.15733
G3 X-82.31394 Y73.26593 I51.87423 J-47.3118
G3 X-82.31654 Y73.26296 I2.40871 J-2.10668
G1 X-82.43492 Y73.12727
G3 X-82.43651 Y73.12545 I2.41131 J-2.1037
G3 X-86.15172 Y68.45987 I50.96381 J-44.39465
G3 X-87.72567 Y66.19057 I50.34605 J-36.59958
G3 X-87.72718 Y66.18828 I2.66926 J-1.76495
G1 X-87.82342 Y66.04246
G3 X-87.82555 Y66.03922 I2.67077 J-1.76266
G3 X-89.38691 Y63.53967 I51.72574 J-34.04822
G1 X-89.38705 Y63.53944
G3 X-92.09794 Y58.41667 I52.24692 J-30.92691
G3 X-92.09895 Y58.41451 I2.8966 J-1.36003
G3 X-94.26902 Y53.135 I53.5896 J-25.11302
G3 X-94.26974 Y53.13299 I3.01495 J-1.07241
G3 X-95.81335 Y48.09472 I56.74051 J-20.1397
G3 X-95.81578 Y48.08531 I3.09771 J-0.80262
G1 X-95.89826 Y47.76294
G3 X-95.90058 Y47.75383 I3.10013 J-0.7932
G3 X-97.01757 Y42.32267 I60.1298 J-15.19692
G1 X-97.01764 Y42.32222
G3 X-97.6335 Y37.23699 I67.54725 J-10.76046
G3 X-97.63409 Y37.2298 I3.18897 J-0.26551
G1 X-97.66037 Y36.9053
G3 X-97.66114 Y36.89561 I3.18956 J-0.25832
G3 X-97.88072 Y32.18911 I75.40232 J-5.8762
G3 X-97.88885 Y31.50203 I40.69757 J-0.82489
G3 X-97.78405 Y26.52478 I89.93784 J-0.59606
G3 X-97.78389 Y26.52153 I3.1962 J0.15588
G1 X-97.76795 Y26.20144
G3 X-97.76706 Y26.1844 I3.19604 J0.15913
G1 X-97.72773 Y25.47121
G3 X-97.72685 Y25.45584 I3.19515 J0.17617
G1 X-97.7126 Y25.21815
G3 X-97.71206 Y25.20936 I3.19426 J0.19155
G1 X-97.69218 Y24.8925
G3 X-97.69144 Y24.88098 I3.19372 J0.20033
G1 X-97.66341 Y24.45865
G3 X-97.66272 Y24.44848 I3.19298 J0.21186
G1 X-97.64594 Y24.20715
G3 X-97.64539 Y24.19935 I3.19229 J0.22204
G1 X-97.62553 Y23.92363
G3 X-97.62442 Y23.90871 I3.19174 J0.22984
G1 X-97.56804 Y23.17369
G3 X-97.56773 Y23.1697 I3.19063 J0.24476
G3 X-97.48176 Y22.1512 I79.7325 J6.217
G1 X-97.45847 Y21.89182
G3 X-97.45782 Y21.88464 I3.18718 J0.28618
G1 X-97.43219 Y21.60624
G3 X-97.43148 Y21.59871 I3.18652 J0.29336
G1 X-97.40344 Y21.30181
G3 X-97.40269 Y21.29393 I3.18582 J0.30088
G1 X-97.372 Y20.97733
G3 X-97.37061 Y20.96328 I3.18507 J0.30876
G1 X-97.28832 Y20.15171
G3 X-97.2863 Y20.13236 I3.18368 J0.32281
G1 X-97.19908 Y19.32131
G3 X-97.19777 Y19.30941 I3.18166 J0.34215
G1 X-97.17198 Y19.07775
G3 X-97.17137 Y19.07226 I3.18035 J0.35406
G1 X-97.14144 Y18.80758
G3 X-97.14024 Y18.79718 I3.17974 J0.35954
G1 X-97.05814 Y18.09174
G1 X-97.05813 Y18.09166
G1 X-97.05815 Y18.09182
G1 X-97.05814 Y18.09174
G3 X-96.94 Y17.12121 I91.38509 J10.63179
G3 X-96.777 Y15.85123 I193.70888 J24.21697
G3 X-96.77662 Y15.84842 I3.17261 J0.41778
G3 X-96.42928 Y13.33255 I234.10828 J31.03922
G3 X-96.05701 Y10.82246 I249.33863 J35.69662
G3 X-96.05672 Y10.82055 I3.16297 J0.48539
G1 X-95.85702 Y9.52446
G3 X-95.85604 Y9.51819 I3.16268 J0.4873
G1 X-95.78862 Y9.08627
G3 X-95.78768 Y9.08033 I3.16171 J0.49357
G1 X-95.51475 Y7.35326
G3 X-95.51386 Y7.34769 I3.16077 J0.49951
G1 X-95.32987 Y6.1966
G3 X-95.3296 Y6.1949 I3.15989 J0.50508
G1 X-95.28036 Y5.88794
G3 X-95.28024 Y5.88716 I3.15962 J0.50679
G1 X-94.88878 Y3.45043
G1 X-94.50089 Y1.01652
G1 X-94.34067 Y-0.00267
G1 X-94.28804 Y-0.33992
G1 X-94.07803 Y-1.7
G1 X-93.94074 Y-2.60345
G1 X-93.76027 Y-3.81152
G1 X-93.68744 Y-4.30639
G1 X-93.61525 Y-4.80153
G1 X-93.47205 Y-5.79821
G2 X-93.19644 Y-7.77836 I-280.45571 J-40.04533
G3 X-93.19236 Y-7.80742 I3.17098 J0.42996
G2 X-93.16392 Y-8.01703 I-11.49816 J-1.66659
G3 X-93.15587 Y-8.07626 I3.17474 J0.40129
G2 X-93.12636 Y-8.29522 I-10.46927 J-1.52252
G3 X-93.11885 Y-8.35164 I3.17562 J0.39429
G2 X-93.10594 Y-8.44793 I-5.99014 J-0.85221
G3 X-93.09911 Y-8.49887 I3.17493 J0.39979
G2 X-93.08601 Y-8.59688 I-5.75519 J-0.8188
G3 X-93.08334 Y-8.61772 I3.17531 J0.39677
G1 X-92.94466 Y-9.67123
G1 X-92.80962 Y-10.72524
G3 X-92.80543 Y-10.75669 I3.17405 J0.40667
G2 X-92.79714 Y-10.82244 I-2.75859 J-0.38127
G3 X-92.78758 Y-10.89827 I3.17939 J0.36256
G2 X-92.77859 Y-10.96982 I-2.86339 J-0.39601
G3 X-92.7686 Y-11.04929 I3.17978 J0.35919
G2 X-92.75888 Y-11.12706 I-2.96862 J-0.41082
G3 X-92.75281 Y-11.17769 I3.18018 J0.35561
G2 X-92.65059 Y-12.0064 I-90.61182 J-11.59707
G3 X-92.64471 Y-12.05302 I3.17769 J0.37721
G2 X-92.64032 Y-12.08907 I-1.53144 J-0.20464
G3 X-92.63128 Y-12.1634 I3.18089 J0.34917
G2 X-92.62669 Y-12.20125 I-1.57052 J-0.2097
G3 X-92.62315 Y-12.23225 I3.18112 J0.34707
G1 X-92.47888 Y-13.44487
G1 X-92.34171 Y-14.64047
G2 X-92.21088 Y-15.8252 I-228.59498 J-25.84335
G1 X-92.12577 Y-16.62211
G1 X-92.016 Y-17.6841
G1 X-91.95562 Y-18.28664
G1 X-91.83901 Y-19.49194
G1 X-91.72754 Y-20.7033
G3 X-91.72398 Y-20.73975 I3.18654 J0.29322
G2 X-91.71752 Y-20.81201 I-2.54681 J-0.26378
G3 X-91.7144 Y-20.85058 I3.19104 J0.23936
G1 X-91.63902 Y-21.71511
G2 X-91.54465 Y-22.85262 I-221.23184 J-18.92787
G3 X-91.54204 Y-22.88318 I3.18971 J0.25639
G2 X-91.53508 Y-22.97007 I-4.43912 J-0.39968
G3 X-91.53033 Y-23.02956 I3.19211 J0.22457
G2 X-91.52291 Y-23.12287 I-4.89376 J-0.43613
G3 X-91.51774 Y-23.18737 I3.1922 J0.22328
G2 X-91.5031 Y-23.37369 I-8.02571 J-0.72469
G3 X-91.49793 Y-23.44045 I3.19285 J0.21379
G2 X-91.48294 Y-23.63395 I-9.22885 J-0.81224
G3 X-91.47879 Y-23.68876 I3.19286 J0.21371
G2 X-91.46926 Y-23.81342 I-8.1255 J-0.68425
G3 X-91.46574 Y-23.85969 I3.19246 J0.2196
G2 X-91.45198 Y-24.04173 I-11.74299 J-0.97907
G3 X-91.4498 Y-24.07178 I3.19267 J0.21644
G2 X-91.3843 Y-24.97014 I-103.89047 J-8.02653
G3 X-91.38415 Y-24.97232 I3.1925 J0.21891
G1 X-91.3414 Y-25.58956
G1 X-91.34139 Y-25.58978
G1 X-91.34142 Y-25.58934
G1 X-91.3414 Y-25.58956
G2 X-91.19275 Y-28.01133 I-157.17876 J-10.8631
G3 X-91.1924 Y-28.01781 I3.1954 J0.17145
G2 X-91.02574 Y-31.98378 I-145.33644 J-8.09374
G1 X-91.01858 Y-32.24878
G1 X-91.01158 Y-32.53014
G1 X-91.00487 Y-32.82788
G1 X-90.99277 Y-33.47986
G1 X-90.98434 Y-34.13218
G1 X-90.98265 Y-34.31688
G3 X-90.98263 Y-34.31885 I3.19987 J0.02927
G2 X-90.98092 Y-35.78782 I-85.47724 J-0.83431
G1 X-90.98453 Y-36.2143
G1 X-90.99098 Y-36.69934
G1 X-90.993 Y-36.8203
G1 X-90.99523 Y-36.94421
G1 X-91.00845 Y-37.54038
G2 X-91.0539 Y-38.88112 I-71.90578 J1.76641
G1 X-91.0748 Y-39.34081
G2 X-91.18437 Y-41.12935 I-74.31333 J3.655
G1 X-91.19264 Y-41.2389
G1 X-91.23561 Y-41.77275
G1 X-91.25944 Y-42.04658
G1 X-91.30613 Y-42.54609
G1 X-91.35691 Y-43.0439
G1 X-91.39307 Y-43.37467
G1 X-91.40291 Y-43.46158
G3 X-91.4061 Y-43.49107 I3.17972 J-0.35968
G2 X-91.42191 Y-43.6276 I-5.74945 J0.59644
G3 X-91.42393 Y-43.64377 I3.17417 J-0.40578
G1 X-91.49224 Y-44.20059
G2 X-91.80773 Y-46.31234 I-50.70046 J6.49509
G3 X-91.80786 Y-46.31314 I3.15431 J-0.53882
G2 X-92.6788 Y-50.26205 I-41.41793 J7.0643
G2 X-93.87027 Y-53.87648 I-35.60906 J9.73463
G1 X-93.99984 Y-54.20441
G1 X-94.13256 Y-54.5309
G1 X-94.16821 Y-54.61706
G1 X-94.21236 Y-54.72285
G2 X-94.57277 Y-55.5527 I-35.51282 J14.93005
G2 X-95.35919 Y-57.19073 I-34.77653 J15.68835
G2 X-97.07207 Y-60.19951 I-34.53873 J17.67087
G1 X-97.27041 Y-60.51232
G1 X-97.47052 Y-60.82215
G2 X-97.86657 Y-61.41907 I-35.54705 J23.15518
G3 X-97.86947 Y-61.42338 I2.65143 J-1.79162
G2 X-98.69518 Y-62.6069 I-36.18567 J24.36582
G1 X-98.94937 Y-62.9567
G2 X-100.62277 Y-65.12106 I-43.79024 J32.12791
G1 X-100.87892 Y-65.43391
G2 X-102.72762 Y-67.57022 I-47.62331 J39.34384
G1 X-102.79019 Y-67.63899
G1 X-102.79029 Y-67.63909
G1 X-102.7901 Y-67.6389
G1 X-102.79019 Y-67.63899
G2 X-104.38959 Y-69.32085 I-39.0111 J35.49716
G1 X-104.63325 Y-69.56407
G2 X-105.52567 Y-70.4241 I-26.83491 J26.95255
G1 X-105.84397 Y-70.7187
G1 X-105.91936 Y-70.78754
G2 X-106.36718 Y-71.18853 I-39.66883 J43.85011
G3 X-106.59482 Y-75.75507 I2.12254 J-2.39475
G1 X-74.98358 Y-109.96295
G3 X-71.61598 Y-110.82511 I2.35018 J2.17178
G2 X0.0 Y-99.13695 I71.61598 J-213.55938
G2 X71.61598 Y-110.82511 I0.0 J-225.24754
G3 X74.98358 Y-109.96295 I1.01742 J3.03395
G1 X106.59482 Y-75.75507
G3 X106.36718 Y-71.18853 I-2.35018 J2.17178
G2 X105.91936 Y-70.78754 I39.22101 J44.2511
G1 X105.84397 Y-70.7187
G1 X105.52567 Y-70.4241
G2 X104.63325 Y-69.56407 I25.94249 J27.81257
G1 X104.38959 Y-69.32085
G2 X102.79019 Y-67.63899 I37.4117 J37.17901
G1 X102.7901 Y-67.6389
G1 X102.79029 Y-67.63909
G1 X102.79019 Y-67.63899
G1 X102.72762 Y-67.57022
G2 X100.87892 Y-65.43391 I45.77461 J41.48015
G1 X100.62277 Y-65.12106
G2 X98.94937 Y-62.9567 I42.11684 J34.29227
G1 X98.69518 Y-62.6069
G2 X97.86947 Y-61.42338 I35.35996 J25.54935
G3 X97.86657 Y-61.41907 I-2.65434 J-1.78731
G2 X97.47052 Y-60.82215 I35.151 J23.7521
G1 X97.27041 Y-60.51232
G1 X97.07207 Y-60.19951
G2 X95.35919 Y-57.19073 I32.82585 J20.67965
G2 X94.57277 Y-55.5527 I33.99011 J17.32639
G2 X94.21236 Y-54.72285 I35.15241 J15.7599
G1 X94.16821 Y-54.61706
G1 X94.13256 Y-54.5309
G1 X93.99984 Y-54.20441
G1 X93.87027 Y-53.87648
G2 X92.6788 Y-50.26205 I34.4176 J13.34906
G2 X91.80786 Y-46.31314 I40.54699 J11.01322
G3 X91.80773 Y-46.31234 I-3.15445 J-0.53803
G2 X91.49224 Y-44.20059 I50.38497 J8.60684
G1 X91.42393 Y-43.64377
G3 X91.42191 Y-43.6276 I-3.17619 J-0.3896
G2 X91.4061 Y-43.49107 I5.73364 J0.73297
G3 X91.40291 Y-43.46158 I-3.18292 J-0.33019
G1 X91.39307 Y-43.37467
G1 X91.35691 Y-43.0439
G1 X91.30613 Y-42.54609
G1 X91.25944 Y-42.04658
G1 X91.23561 Y-41.77275
G1 X91.19264 Y-41.2389
G1 X91.18437 Y-41.12935
G2 X91.0748 Y-39.34081 I74.20376 J5.44354
G1 X91.0539 Y-38.88112
G2 X91.00845 Y-37.54038 I71.86033 J3.10715
G1 X90.99523 Y-36.94421
G1 X90.993 Y-36.8203
G1 X90.99098 Y-36.69934
G1 X90.98453 Y-36.2143
G1 X90.98092 Y-35.78782
G2 X90.98263 Y-34.31885 I85.47896 J0.63465
G3 X90.98265 Y-34.31688 I-3.19985 J0.03123
G1 X90.98434 Y-34.13218
G1 X90.99277 Y-33.47986
G1 X91.00487 Y-32.82788
G1 X91.01158 Y-32.53014
G1 X91.01858 Y-32.24878
G1 X91.02574 Y-31.98378
G2 X91.1924 Y-28.01781 I145.5031 J-4.12777
G3 X91.19275 Y-28.01133 I-3.19505 J0.17793
G2 X91.3414 Y-25.58956 I157.32741 J-8.44133
G1 X91.34142 Y-25.58934
G1 X91.34139 Y-25.58978
G1 X91.3414 Y-25.58956
G1 X91.38415 Y-24.97232
G3 X91.3843 Y-24.97014 I-3.19235 J0.22108
G2 X91.4498 Y-24.07178 I103.95597 J-7.12816
G3 X91.45198 Y-24.04173 I-3.19049 J0.2465
G2 X91.46574 Y-23.85969 I11.75675 J-0.79704
G3 X91.46926 Y-23.81342 I-3.18894 J0.26588
G2 X91.47879 Y-23.68876 I8.13504 J-0.55959
G3 X91.48294 Y-23.63395 I-3.18871 J0.26852
G2 X91.49793 Y-23.44045 I9.24384 J-0.61874
G3 X91.5031 Y-23.37369 I-3.18768 J0.28055
G2 X91.51774 Y-23.18737 I8.04036 J-0.53837
G3 X91.52291 Y-23.12287 I-3.18703 J0.28778
G2 X91.53033 Y-23.02956 I4.90119 J-0.34282
G3 X91.53508 Y-22.97007 I-3.18737 J0.28406
G2 X91.54204 Y-22.88318 I4.44608 J-0.31279
G3 X91.54465 Y-22.85262 I-3.18711 J0.28695
G2 X91.63902 Y-21.71511 I221.32621 J-17.79036
G1 X91.7144 Y-20.85058
G3 X91.71752 Y-20.81201 I-3.18791 J0.27793
G2 X91.72398 Y-20.73975 I2.55326 J-0.19152
G3 X91.72754 Y-20.7033 I-3.18297 J0.32967
G1 X91.83901 Y-19.49194
G1 X91.95562 Y-18.28664
G1 X92.016 Y-17.6841
G1 X92.12577 Y-16.62211
G1 X92.21088 Y-15.8252
G2 X92.34171 Y-14.64047 I228.72581 J-24.65863
G1 X92.47888 Y-13.44487
G1 X92.62315 Y-12.23225
G3 X92.62669 Y-12.20125 I-3.17759 J0.37807
G2 X92.63128 Y-12.1634 I1.57512 J-0.17185
G3 X92.64032 Y-12.08907 I-3.17185 J0.42351
G2 X92.64471 Y-12.05302 I1.53583 J-0.16859
G3 X92.65059 Y-12.0064 I-3.17181 J0.42384
G2 X92.75281 Y-11.17769 I90.71404 J-10.76837
G3 X92.75888 Y-11.12706 I-3.17411 J0.40624
G2 X92.7686 Y-11.04929 I2.97835 J-0.33304
G3 X92.77859 Y-10.96982 I-3.16979 J0.43866
G2 X92.78758 Y-10.89827 I2.87238 J-0.32446
G3 X92.79714 Y-10.82244 I-3.16983 J0.43839
G2 X92.80543 Y-10.75669 I2.76688 J-0.31552
G3 X92.80962 Y-10.72524 I-3.16987 J0.43811
G1 X92.94466 Y-9.67123
G1 X93.08334 Y-8.61772
G3 X93.08601 Y-8.59688 I-3.17263 J0.41761
G2 X93.09911 Y-8.49887 I5.76829 J-0.72078
G3 X93.10594 Y-8.44793 I-3.1681 J0.45073
G2 X93.11885 Y-8.35164 I6.00305 J-0.75592
G3 X93.12636 Y-8.29522 I-3.1681 J0.45072
G2 X93.15587 Y-8.07626 I10.49878 J-1.30356
G3 X93.16392 Y-8.01703 I-3.16669 J0.46052
G2 X93.19236 Y-7.80742 I11.52659 J-1.45698
G3 X93.19644 Y-7.77836 I-3.16691 J0.45902
G2 X93.47205 Y-5.79821 I280.73132 J-38.06517
G1 X93.61525 Y-4.80153
G1 X93.68744 Y-4.30639
G1 X93.76027 Y-3.81152
G1 X93.94074 Y-2.60345
G1 X94.07803 Y-1.7
G1 X94.28804 Y-0.33992
G1 X94.34067 Y-0.00267
G1 X94.50089 Y1.01652
G1 X94.88878 Y3.45043
G1 X95.28024 Y5.88716
G3 X95.28036 Y5.88794 I-3.15949 J0.50757
G1 X95.3296 Y6.1949
G3 X95.32987 Y6.1966 I-3.15962 J0.50679
G1 X95.51386 Y7.34769
G3 X95.51475 Y7.35326 I-3.15989 J0.50508
G1 X95.78768 Y9.08033
G3 X95.78862 Y9.08627 I-3.16077 J0.49951
G1 X95.85604 Y9.51819
G3 X95.85702 Y9.52446 I-3.16171 J0.49357
G1 X96.05672 Y10.82055
G3 X96.05701 Y10.82246 I-3.16268 J0.4873
G3 X96.42928 Y13.33255 I-248.96636 J38.20672
G3 X96.77662 Y15.84842 I-233.76094 J33.55508
G3 X96.777 Y15.85123 I-3.17224 J0.42059
G3 X96.94 Y17.12121 I-193.54588 J25.48696
G3 X97.05814 Y18.09174 I-91.26695 J11.60232
G1 X97.05815 Y18.09182
G1 X97.05813 Y18.09166
G1 X97.05814 Y18.09174
G1 X97.14024 Y18.79718
G3 X97.14144 Y18.80758 I-3.17854 J0.36995
G1 X97.17137 Y19.07226
G3 X97.17198 Y19.07775 I-3.17974 J0.35954
G1 X97.19777 Y19.30941
G3 X97.19908 Y19.32131 I-3.18035 J0.35406
G1 X97.2863 Y20.13236
G3 X97.28832 Y20.15171 I-3.18166 J0.34215
G1 X97.37061 Y20.96328
G3 X97.372 Y20.97733 I-3.18368 J0.32281
G1 X97.40269 Y21.29393
G3 X97.40344 Y21.30181 I-3.18507 J0.30876
G1 X97.43148 Y21.59871
G3 X97.43219 Y21.60624 I-3.18582 J0.30088
G1 X97.45782 Y21.88464
G3 X97.45847 Y21.89182 I-3.18652 J0.29336
G1 X97.48176 Y22.1512
G3 X97.56773 Y23.1697 I-79.64654 J7.2355
G3 X97.56804 Y23.17369 I-3.19032 J0.24876
G1 X97.62442 Y23.90871
G3 X97.62553 Y23.92363 I-3.19063 J0.24476
G1 X97.64539 Y24.19935
G3 X97.64594 Y24.20715 I-3.19174 J0.22984
G1 X97.66272 Y24.44848
G3 X97.66341 Y24.45865 I-3.19229 J0.22204
G1 X97.69144 Y24.88098
G3 X97.69218 Y24.8925 I-3.19298 J0.21186
G1 X97.71206 Y25.20936
G3 X97.7126 Y25.21815 I-3.19372 J0.20033
G1 X97.72685 Y25.45584
G3 X97.72773 Y25.47121 I-3.19426 J0.19155
G1 X97.76706 Y26.1844
G3 X97.76795 Y26.20144 I-3.19515 J0.17617
G1 X97.78389 Y26.52153
G3 X97.78405 Y26.52478 I-3.19604 J0.15913
G3 X97.88885 Y31.50203 I-89.83304 J4.38119
G3 X97.88072 Y32.18911 I-40.7057 J-0.13781
G3 X97.66114 Y36.89561 I-75.6219 J-1.1697
G3 X97.66037 Y36.9053 I-3.19033 J-0.24863
G1 X97.63409 Y37.2298
G3 X97.6335 Y37.23699 I-3.18956 J-0.25832
G3 X97.01764 Y42.32222 I-68.16312 J-5.67523
G1 X97.01757 Y42.32267
G3 X95.90058 Y47.75383 I-61.24679 J-9.76576
G3 X95.89826 Y47.76294 I-3.10245 J-0.7841
G1 X95.81578 Y48.08531
G3 X95.81335 Y48.09472 I-3.10013 J-0.7932
G3 X94.26974 Y53.13299 I-58.28413 J-15.10143
G3 X94.26902 Y53.135 I-3.01567 J-1.07039
G3 X92.09895 Y58.41451 I-55.75967 J-19.83351
G3 X92.09794 Y58.41667 I-2.89762 J-1.35787
G3 X89.38705 Y63.53944 I-54.95781 J-25.80414
G1 X89.38691 Y63.53967
G3 X87.82555 Y66.03922 I-53.2871 J-31.54867
G3 X87.82342 Y66.04246 I-2.6729 J-1.75943
G1 X87.72718 Y66.18828
G3 X87.72567 Y66.19057 I-2.67077 J-1.76266
G3 X86.15172 Y68.45987 I-51.92 J-34.33028
G3 X82.43651 Y73.12545 I-54.67902 J-39.72908
G3 X82.43492 Y73.12727 I-2.4129 J-2.10188
G1 X82.31654 Y73.26296
G3 X82.31394 Y73.26593 I-2.41131 J-2.1037
G3 X81.34008 Y74.3563 I-52.84809 J-46.22144
G3 X81.33921 Y74.35725 I-2.36432 J-2.15638
G3 X78.29977 Y77.49734 I-55.13186 J-50.32372
G3 X77.1983 Y78.54955 I-46.38977 J-47.45893
G1 X77.19803 Y78.5498
G1 X76.99893 Y78.73563
G3 X76.98671 Y78.74697 I-2.18344 J-2.33936
G1 X76.61161 Y79.09344
G3 X76.6023 Y79.102 I-2.17122 J-2.35071
G3 X73.8042 Y81.55179 I-55.47126 J-60.53527
G3 X73.79824 Y81.55676 I-2.05286 J-2.45475
G1 X73.51878 Y81.78931
G3 X73.51454 Y81.79284 I-2.04689 J-2.45972
G3 X72.42381 Y82.68108 I-50.48338 J-60.87825
G3 X72.19634 Y82.86255 I-9.84051 J-12.10174
G3 X69.03763 Y85.25836 I-53.77036 J-67.61233
G3 X68.42878 Y85.69523 I-38.0456 J-52.3803
G3 X67.89141 Y86.07455 I-33.95826 J-47.53746
G3 X66.02023 Y87.35166 I-51.56105 J-73.53599
G3 X65.94325 Y87.403 I-2.8779 J-4.23166
G3 X65.88552 Y87.44127 I-2.83488 J-4.21372
G3 X65.82957 Y87.4783 I-2.8101 J-4.18484
G3 X65.78732 Y87.50631 I-2.78613 J-4.15682
G3 X65.66965 Y87.58411 I-3.19974 J-4.71169
G3 X65.57102 Y87.64895 I-3.1241 J-4.64465
G3 X65.47849 Y87.70962 I-3.0646 J-4.57288
G3 X65.374 Y87.77768 I-3.00841 J-4.50459
G3 X65.0584 Y87.98288 I-21.76143 J-33.12344
G1 X65.05823 Y87.98299
G1 X65.05856 Y87.98278
G1 X65.0584 Y87.98288
G1 X64.58441 Y88.28795
G3 X64.56824 Y88.2983 I-1.7319 J-2.69082
G1 X64.09223 Y88.60065
G3 X64.08519 Y88.60511 I-1.71572 J-2.70117
G3 X61.58294 Y90.13289 I-51.74228 J-81.93215
G3 X59.0421 Y91.58585 I-51.81433 J-87.66133
G1 X59.04206 Y91.58587
G1 X59.04213 Y91.58583
G1 X59.0421 Y91.58585
G3 X56.54324 Y92.92645 I-54.02203 J-97.69681
G3 X56.53356 Y92.93147 I-1.47686 J-2.83882
G1 X55.92157 Y93.24721
G3 X55.90587 Y93.25525 I-1.46719 J-2.84383
G1 X55.44561 Y93.48951
G3 X55.42893 Y93.49793 I-1.45149 J-2.85187
G1 X54.73644 Y93.84531
G3 X54.7166 Y93.85517 I-1.43481 J-2.8603
G1 X54.02176 Y94.19772
G3 X54.01101 Y94.203 I-1.41497 J-2.87017
G3 X49.08293 Y96.47578 I-53.72968 J-110.0229
G3 X49.07734 Y96.47821 I-1.27543 J-2.93484
G1 X48.50224 Y96.72683
G3 X48.49201 Y96.73124 I-1.26983 J-2.93726
G1 X48.24004 Y96.83913
G3 X48.23653 Y96.84063 I-1.2596 J-2.94167
G3 X44.34533 Y98.43337 I-55.51678 J-130.08253
G3 X43.22405 Y98.86889 I-50.35898 J-127.98982
G3 X43.21822 Y98.87112 I-1.14556 J-2.98793
G1 X42.39347 Y99.18549
G3 X42.38616 Y99.18826 I-1.13973 J-2.99015
G3 X39.88656 Y100.11354 I-65.605 J-173.39062
G3 X39.82844 Y100.13484 I-1.31424 J-3.49524
G3 X39.76467 Y100.15763 I-1.28747 J-3.50272
G1 X38.7706 Y100.51522
G3 X38.75965 Y100.51913 I-1.08316 J-3.01111
G1 X37.9948 Y100.79113
G3 X37.98525 Y100.79451 I-1.07221 J-3.01502
G1 X36.83659 Y101.19891
G3 X36.82826 Y101.20183 I-1.06266 J-3.0184
G1 X35.71813 Y101.58922
G3 X35.57314 Y101.63968 I-1.36094 J-3.67687
G1 X34.65527 Y101.95852
G1 X34.6548 Y101.95868
G1 X33.93753 Y102.20771
G1 X32.86499 Y102.58112
G1 X31.79549 Y102.95641
G1 X31.57037 Y103.03598
G1 X31.14483 Y103.18705
G1 X30.39973 Y103.4541
G1 X29.84498 Y103.65539
G1 X29.43245 Y103.80668
G1 X28.81218 Y104.03707
G1 X28.19476 Y104.2703
G1 X27.76592 Y104.43485
G1 X27.38632 Y104.58239
G2 X24.80589 Y105.64169 I27.87406 J71.57273
G3 X24.80191 Y105.64341 I-1.26879 J-2.93772
G2 X21.55415 Y107.15367 I24.47128 J56.87167
G3 X21.55342 Y107.15404 I-1.43267 J-2.86137
G2 X18.38582 Y108.86167 I26.41532 J52.79115
G1 X18.38555 Y108.86183
G2 X15.30575 Y110.77177 I29.98091 J51.78249
G3 X15.30341 Y110.77332 I-1.76809 J-2.66718
G2 X12.37354 Y112.84179 I32.74729 J49.49394
G3 X12.37128 Y112.84349 I-1.92373 J-2.5572
G2 X9.68047 Y114.99819 I33.25227 J44.2832
G3 X9.67927 Y114.99921 I-2.07696 J-2.43438
G2 X7.32726 Y117.15219 I29.2182 J34.28051
G3 X7.32612 Y117.15331 I-2.24286 J-2.28245
G2 X6.83109 Y117.65065 I21.23009 J21.62642
G1 X6.63432 Y117.85377
G2 X6.00081 Y118.53145 I24.25206 J23.30615
G3 X5.99519 Y118.53761 I-2.36756 J-2.15282
G2 X5.40186 Y119.21146 I17.83103 J16.29884
G1 X5.18706 Y119.46653
G2 X4.52556 Y120.29793 I19.35268 J16.0766
G1 X4.35774 Y120.52203
G2 X4.25 Y120.66926 I26.76805 J19.70266
G1 X4.07335 Y120.91698
G1 X3.90252 Y121.16448
G1 X3.82602 Y121.2781
G3 X3.82559 Y121.27874 I-2.65444 J-1.78716
G2 X3.57208 Y121.67028 I10.62312 J7.156
G3 X3.5604 Y121.68891 I-2.71734 J-1.68999
G2 X2.86973 Y122.92136 I11.38944 J7.19244
G3 X1.49558 Y124.33452 I-2.86973 J-1.41585
G1 F300.0 X1.40518 Y125.67004
G3 F800.0 X-1.40518 I-1.40518 J-4.16452
G1 X0.0 Y128.52451
G1 X1.40518 Y125.67004
G0 Z3.0
G0 X108.63171 Y-73.3161
G0 Z-1.0
G1 F300.0 Z-4.0
G1 F800.0 X108.67625 Y-73.35532
G1 X108.63597 Y-73.39891
G3 X108.63171 Y-73.3161 I-4.39133 J-0.18438
G0 Z3.0
G0 X-108.63171
G0 Z-1.0
G1 F300.0 Z-4.0
G3 F800.0 X-108.63597 Y-73.39891 I4.38707 J-0.26718
G1 X-108.67625 Y-73.35532
G1 X-108.63171 Y-73.3161
G1 F300.0 X-109.42481 Y-72.41555
G1 F800.0 X-107.10576 Y-70.37319
G3 X-106.96264 Y-70.24649 I-3.88669 J4.53455
G1 X-106.80168 Y-70.10252
G3 X-106.79791 Y-70.09914 I-2.1334 J2.38508
G3 X-106.05624 Y-69.41272 I-21.9248 J24.43336
G3 X-104.8282 Y-68.19994 I-29.58909 J31.1895
G3 X-103.08612 Y-66.32449 I-37.74997 J36.81234
G3 X-103.08194 Y-66.31976 I-2.39674 J2.12029
G1 X-102.88305 Y-66.09404
G3 X-102.86696 Y-66.07564 I-2.40092 J2.11556
G1 X-102.52194 Y-65.67799
G3 X-102.50442 Y-65.65764 I-2.417 J2.09716
G1 X-102.2482 Y-65.35728
G3 X-102.23532 Y-65.34209 I-2.43452 J2.0768
G1 X-102.04454 Y-65.11561
G3 X-102.03096 Y-65.09938 I-2.4474 J2.06161
G1 X-101.74705 Y-64.75778
G3 X-101.73799 Y-64.74682 I-2.46098 J2.04538
G1 X-101.70267 Y-64.70395
G3 X-101.6947 Y-64.69423 I-2.47004 J2.03443
G1 X-101.44881 Y-64.39329
G3 X-101.43713 Y-64.37891 I-2.47802 J2.0247
G1 X-101.27364 Y-64.17643
G3 X-101.25949 Y-64.15878 I-2.4897 J2.01032
G1 X-100.94554 Y-63.76429
G3 X-100.93921 Y-63.75631 I-2.50385 J1.99267
G3 X-98.56377 Y-60.48313 I-38.48232 J30.42617
G3 X-98.56176 Y-60.48009 I-2.66513 J1.77118
G3 X-97.47845 Y-58.75418 I-34.11512 J22.61614
G3 X-97.33371 Y-58.50823 I-10.95098 J6.60984
G3 X-96.46709 Y-56.939 I-32.9429 J19.21691
G3 X-96.46552 Y-56.93597 I-2.8368 J1.48073
G3 X-94.25134 Y-51.6647 I-30.83065 J16.05096
G3 X-93.83605 Y-50.30467 I-35.00548 J11.43247
G3 X-93.83538 Y-50.30231 I-3.07797 J0.87527
G3 X-93.31228 Y-48.24641 I-37.61406 J10.66499
G3 X-92.89985 Y-46.17245 I-39.55608 J8.94415
G3 X-92.89917 Y-46.1685 I-3.15375 J0.5421
G1 X-92.86587 Y-45.97333
G3 X-92.86331 Y-45.95808 I-3.15442 J0.53815
G1 X-92.83226 Y-45.77061
G3 X-92.76388 Y-45.3393 I-21.88698 J3.69107
G3 X-92.38216 Y-42.20611 I-52.67847 J8.00769
G3 X-92.38107 Y-42.19404 I-3.18658 J0.29274
G1 X-92.33219 Y-41.63885
G3 X-92.33049 Y-41.61878 I-3.18767 J0.28068
G3 X-92.10476 Y-37.25595 I-72.98037 J5.96313
G1 X-92.10182 Y-37.12674
G3 X-92.10157 Y-37.11462 I-3.19917 J0.0727
G1 X-92.09199 Y-36.60863
G3 X-92.09179 Y-36.59709 I-3.19943 J0.06058
G1 X-92.0901 Y-36.48634
G3 X-92.08996 Y-36.47648 I-3.19962 J0.04904
G1 X-92.08471 Y-36.04754
G3 X-92.08459 Y-36.03658 I-3.19976 J0.03918
G3 X-92.10276 Y-32.93972 I-105.43337 J0.92983
G3 X-92.10279 Y-32.9382 I-3.19932 J-0.06577
G1 X-92.10515 Y-32.826
G3 X-92.10531 Y-32.81886 I-3.19929 J-0.06729
G1 X-92.11566 Y-32.37414
G3 X-92.14109 Y-31.47763 I-83.04824 J-1.90689
G3 X-92.14118 Y-31.47498 I-3.19818 J-0.10799
G1 X-92.16915 Y-30.66659
G3 X-92.16963 Y-30.65341 I-3.19809 J-0.11064
G3 X-92.5195 Y-24.48258 I-172.215 J-6.66891
G3 X-92.51972 Y-24.47964 I-3.19111 J-0.2384
G1 X-92.57692 Y-23.7235
G3 X-92.57754 Y-23.71533 I-3.19089 J-0.24135
G3 X-93.05367 Y-18.36063 I-252.08592 J-19.71632
G3 X-93.05416 Y-18.35574 I-3.18423 J-0.31728
G1 X-93.15684 Y-17.34109
G3 X-93.15808 Y-17.32907 I-3.18374 J-0.32218
G1 X-93.25647 Y-16.3921
G3 X-93.27182 Y-16.24802 I-7.80872 J-0.75901
G3 X-93.36635 Y-15.3801 I-104.18627 J-10.90849
G3 X-93.39361 Y-15.13501 I-10.67861 J-1.06389
G3 X-94.20132 Y-8.56799 I-302.44337 J-33.86562
G3 X-94.20156 Y-8.56623 I-3.17163 J-0.42514
G1 X-94.25631 Y-8.1595
G3 X-94.25683 Y-8.15564 I-3.1714 J-0.4269
G1 X-94.30862 Y-7.77439
G3 X-94.30907 Y-7.77111 I-3.17087 J-0.43077
G3 X-95.14328 Y-2.01096 I-371.37522 J-50.84339
G3 X-95.14391 Y-2.00682 I-3.1633 J-0.48322
G1 X-95.30387 Y-0.96875
G3 X-95.30504 Y-0.96127 I-3.16267 J-0.48736
G1 X-95.45731 Y0.01158
G3 X-95.45851 Y0.01921 I-3.16151 J-0.49484
G1 X-95.74841 Y1.84257
G3 X-95.7493 Y1.8481 I-3.1603 J-0.50247
G1 X-96.00576 Y3.44312
G1 X-96.00584 Y3.44358
G1 X-96.45477 Y6.23307
G1 X-96.53791 Y6.75329
G1 X-96.69322 Y7.73106
G1 X-96.82742 Y8.58408
G1 X-97.05926 Y10.0812
G1 X-97.07996 Y10.21657
G1 X-97.24431 Y11.30384
G1 X-97.30488 Y11.71056
G3 X-97.30498 Y11.71122 I-3.16509 J-0.47137
G2 X-97.71099 Y14.54621 I244.03099 J36.3948
G1 X-97.79209 Y15.14144
G1 X-97.86859 Y15.71505
G1 X-97.94124 Y16.27222
G1 X-97.9583 Y16.40493
G1 X-97.97534 Y16.53836
G1 X-97.99215 Y16.67074
G1 X-98.00873 Y16.80205
G1 X-98.02507 Y16.93233
G1 X-98.04134 Y17.06279
G3 X-98.04167 Y17.06545 I-3.17541 J-0.39598
G2 X-98.49488 Y21.15688 I140.07482 J17.58677
G1 X-98.51288 Y21.34608
G1 X-98.58219 Y22.1046
G1 X-98.64253 Y22.81184
G1 X-98.69544 Y23.47787
G1 X-98.7071 Y23.63159
G2 X-98.8627 Y26.06947 I103.40201 J7.82388
G1 X-98.88578 Y26.53286
G1 X-98.89564 Y26.74547
G1 X-98.90499 Y26.95658
G1 X-98.90501 Y26.95711
G2 X-98.95352 Y33.36873 I86.99505 J3.86416
G1 X-98.93349 Y33.95157
G2 X-98.63303 Y38.36178 I72.44373 J-2.72015
G3 X-98.6327 Y38.36508 I-3.18448 J0.31474
G2 X-97.66618 Y44.90972 I67.02102 J-6.55406
G3 X-97.66606 Y44.91031 I-3.13888 J0.62244
G2 X-96.04326 Y51.29438 I60.58722 J-12.00268
G2 X-94.54017 Y55.52883 I56.72229 J-17.75058
G3 X-94.5396 Y55.53027 I-2.97303 J1.18368
G2 X-93.20591 Y58.62898 I55.95258 J-22.24578
G3 X-93.20493 Y58.63109 I-2.90272 J1.34693
G2 X-90.89041 Y63.13211 I55.70671 J-25.8
G1 X-90.73281 Y63.40846
G1 X-90.43246 Y63.92633
G1 X-90.16619 Y64.37613
G1 X-90.04993 Y64.56988
G2 X-88.21121 Y67.44141 I54.44886 J-32.84079
G2 X-86.58939 Y69.71977 I53.65579 J-36.47775
G1 X-86.40331 Y69.9684
G1 X-86.22126 Y70.20936
G1 X-86.03887 Y70.44853
G2 X-83.06512 Y74.06851 I54.8356 J-42.015
G1 X-83.06503 Y74.06861
G1 X-83.0652 Y74.06841
G1 X-83.06512 Y74.06851
G2 X-78.16047 Y79.14803 I57.40588 J-50.52197
G3 X-78.14259 Y79.16504 I-2.19695 J2.32668
G2 X-78.01555 Y79.28477 I6.97788 J-7.27667
G3 X-77.99952 Y79.29972 I-2.1745 J2.34767
G2 X-72.8074 Y83.78195 I56.1508 J-59.79562
G3 X-72.77292 Y83.80967 I-1.98798 J2.50758
G3 X-72.74024 Y83.83516 I-1.95189 J2.53577
G2 X-68.29348 Y87.13197 I55.38659 J-70.05859
G1 X-67.86112 Y87.43069
G1 X-67.44479 Y87.71502
G1 X-67.03993 Y87.98843
G1 X-66.64629 Y88.25141
G1 X-66.2613 Y88.50594
G2 X-60.18239 Y92.20474 I56.38572 J-85.82434
G3 X-60.18157 Y92.2052 I-1.56765 J2.78971
G2 X-57.04515 Y93.90349 I54.67907 J-97.2366
G2 X-55.45441 Y94.7159 I63.37071 J-122.1189
G1 X-55.05549 Y94.91468
G1 X-54.44486 Y95.21522
G3 X-54.44016 Y95.21754 I-1.41309 J2.87109
G2 X-54.16544 Y95.35125 I11.18967 J-22.64129
G3 X-54.13343 Y95.36681 I-1.38298 J2.88572
G3 X-54.08167 Y95.39204 I-1.37626 J2.88893
G3 X-54.02907 Y95.41733 I-1.36021 J2.89652
G2 X-53.87035 Y95.49391 I5.01819 J-10.19836
G3 X-53.85675 Y95.50038 I-1.36813 J2.89279
G1 X-53.40678 Y95.71579
G2 X-46.43658 Y98.78057 I55.98362 J-117.86426
G3 X-46.43559 Y98.78098 I-1.20201 J2.96567
G1 X-46.21185 Y98.87175
G1 X-46.00052 Y98.9571
G1 X-45.16361 Y99.29149
G1 X-44.43267 Y99.57901
G2 X-43.14856 Y100.07437 I121.09462 J-311.99948
G1 X-42.66385 Y100.25829
G2 X-40.97122 Y100.88846 I63.02881 J-166.70827
G3 X-40.9433 Y100.89884 I-1.10128 J3.00453
G3 X-40.89092 Y100.91804 I-1.07516 J3.01397
G3 X-40.83626 Y100.9381 I-1.07519 J3.01396
G2 X-40.69436 Y100.99002 I2.63396 J-6.9795
G3 X-40.67058 Y100.99855 I-1.06899 J3.01617
G1 X-39.96414 Y101.25522
G1 X-39.61482 Y101.38116
G1 X-39.26611 Y101.50625
G1 X-38.0185 Y101.94958
G1 X-36.92651 Y102.33328
G1 X-33.0712 Y103.67546
G3 X-33.0632 Y103.67826 I-1.05211 J3.0221
G1 X-32.09976 Y104.01654
G3 X-29.15654 Y105.08271 I-50.35925 J143.61397
G3 X-29.15009 Y105.08513 I-1.12078 J2.99731
G1 X-28.89683 Y105.18045
G3 X-28.88513 Y105.18488 I-1.12722 J2.99489
G1 X-28.39521 Y105.37147
G3 X-28.3794 Y105.37754 I-1.13891 J2.99046
G1 X-27.921 Y105.5549
G3 X-27.91782 Y105.55614 I-1.15472 J2.9844
G3 X-24.36759 Y107.03808 I-27.63552 J71.19858
G1 X-24.36749 Y107.03813
G3 X-22.62468 Y107.85244 I-23.88614 J53.39347
G3 X-22.49035 Y107.91777 I-2.59677 J5.51108
G3 X-22.37173 Y107.97627 I-2.77095 J5.76731
G3 X-20.86553 Y108.74532 I-26.28324 J53.33622
G3 X-20.86132 Y108.74754 I-1.49555 J2.82902
G3 X-17.24659 Y110.83193 I-27.72609 J52.25909
G3 X-17.10498 Y110.92066 I-3.96897 J6.49159
G3 X-13.75904 Y113.18508 I-31.65982 J50.38505
G3 X-13.75805 Y113.18581 I-1.88246 J2.58773
G3 X-10.44892 Y115.7912 I-32.91194 J45.20577
G3 X-10.44563 Y115.79401 I-2.07283 J2.4379
G3 X-8.85753 Y117.20986 I-31.19227 J36.58561
G3 X-8.85086 Y117.21609 I-2.18183 J2.34086
G1 X-8.76028 Y117.30101
G3 X-8.74953 Y117.31113 I-2.18849 J2.33463
G1 X-8.58042 Y117.47112
G3 X-8.56701 Y117.48389 I-2.19924 J2.32451
G1 X-8.41988 Y117.6247
G3 X-8.40786 Y117.63627 I-2.21265 J2.31175
G1 X-8.27975 Y117.76018
G3 X-8.27152 Y117.76816 I-2.22467 J2.30018
G1 X-8.21566 Y117.82258
G3 X-8.20348 Y117.83451 I-2.2329 J2.2922
G1 X-7.99515 Y118.03962
G3 X-7.97786 Y118.05678 I-2.24508 J2.28027
G1 X-7.82277 Y118.21181
G3 X-7.81716 Y118.21744 I-2.26237 J2.26311
G3 X-7.30911 Y118.73973 I-22.45718 J22.35329
G3 X-6.39317 Y119.74859 I-20.0399 J19.11418
G3 X-5.08839 Y121.39568 I-17.51676 J15.21663
G3 X-4.45762 Y122.33498 I-13.08772 J9.47035
G3 X-4.4432 Y122.35838 I-2.71742 J1.68987
G1 X-4.32468 Y122.55269
G3 X-4.30825 Y122.57992 I-2.73183 J1.66646
G3 X-3.86648 Y123.38733 I-10.6371 J6.34461
G3 X-3.85789 Y123.40465 I-2.8624 J1.43062
G1 X0.0 Y131.24154
G1 X3.85789 Y123.40465
G3 X3.86648 Y123.38733 I2.87099 J1.41331
G3 X4.30825 Y122.57992 I11.07887 J5.5372
G3 X4.32468 Y122.55269 I2.74826 J1.63923
G1 X4.4432 Y122.35838
G3 X4.45762 Y122.33498 I2.73183 J1.66646
G3 X5.08839 Y121.39568 I13.7185 J8.53105
G3 X6.39317 Y119.74859 I18.82154 J13.56954
G3 X7.30911 Y118.73973 I20.95584 J18.10532
G3 X7.81716 Y118.21744 I22.96523 J21.831
G3 X7.82277 Y118.21181 I2.26798 J2.25749
G1 X7.97786 Y118.05678
G3 X7.99515 Y118.03962 I2.26237 J2.26311
G1 X8.20348 Y117.83451
G3 X8.21566 Y117.82258 I2.24508 J2.28027
G1 X8.27152 Y117.76816
G3 X8.27975 Y117.76018 I2.2329 J2.2922
G1 X8.40786 Y117.63627
G3 X8.41988 Y117.6247 I2.22467 J2.30018
G1 X8.56701 Y117.48389
G3 X8.58042 Y117.47112 I2.21265 J2.31175
G1 X8.74953 Y117.31113
G3 X8.76028 Y117.30101 I2.19924 J2.32451
G1 X8.85086 Y117.21609
G3 X8.85753 Y117.20986 I2.18849 J2.33463
G3 X10.44563 Y115.79401 I32.78037 J35.16975
G3 X10.44892 Y115.7912 I2.07612 J2.4351
G3 X13.75805 Y113.18581 I36.22106 J42.60038
G3 X13.75904 Y113.18508 I1.88346 J2.587
G3 X17.10498 Y110.92066 I35.00575 J48.12063
G3 X17.24659 Y110.83193 I4.11058 J6.40286
G3 X20.86132 Y108.74754 I31.34082 J50.1747
G3 X20.86553 Y108.74532 I1.49975 J2.82679
G3 X22.37173 Y107.97627 I27.78945 J52.56718
G3 X22.49035 Y107.91777 I2.88957 J5.7088
G3 X22.62468 Y107.85244 I2.7311 J5.44575
G3 X24.36749 Y107.03813 I25.62895 J52.57916
G1 X24.36759 Y107.03808
G3 X27.91782 Y105.55614 I31.18576 J69.71663
G3 X27.921 Y105.5549 I1.15791 J2.98316
G1 X28.3794 Y105.37754
G3 X28.39521 Y105.37147 I1.15472 J2.9844
G1 X28.88513 Y105.18488
G3 X28.89683 Y105.18045 I1.13891 J2.99046
G1 X29.15009 Y105.08513
G3 X29.15654 Y105.08271 I1.12722 J2.99489
G3 X32.09976 Y104.01654 I53.30248 J142.54779
G1 X33.0632 Y103.67826
G3 X33.0712 Y103.67546 I1.06011 J3.0193
G1 X36.92651 Y102.33328
G1 X38.0185 Y101.94958
G1 X39.26611 Y101.50625
G1 X39.61482 Y101.38116
G1 X39.96414 Y101.25522
G1 X40.67058 Y100.99855
G3 X40.69436 Y100.99002 I1.09277 J3.00763
G2 X40.83626 Y100.9381 I-2.49207 J-7.03141
G3 X40.89092 Y100.91804 I1.12985 J2.9939
G3 X40.9433 Y100.89884 I1.12754 J2.99477
G3 X40.97122 Y100.88846 I1.12919 J2.99415
G2 X42.66385 Y100.25829 I-61.33618 J-167.33843
G1 X43.14856 Y100.07437
G2 X44.43267 Y99.57901 I-119.81051 J-312.49484
G1 X45.16361 Y99.29149
G1 X46.00052 Y98.9571
G1 X46.21185 Y98.87175
G1 X46.43559 Y98.78098
G3 X46.43658 Y98.78057 I1.203 J2.96526
G2 X53.40678 Y95.71579 I-49.01342 J-120.92904
G1 X53.85675 Y95.50038
G3 X53.87035 Y95.49391 I1.38173 J2.88632
G2 X54.02907 Y95.41733 I-4.85947 J-10.27494
G3 X54.08167 Y95.39204 I1.41281 J2.87123
G3 X54.13343 Y95.36681 I1.42801 J2.8637
G3 X54.16544 Y95.35125 I1.415 J2.87015
G2 X54.44016 Y95.21754 I-10.91496 J-22.775
G3 X54.44486 Y95.21522 I1.41779 J2.86877
G1 X55.05549 Y94.91468
G1 X55.45441 Y94.7159
G2 X57.04515 Y93.90349 I-61.77996 J-122.93132
G2 X60.18157 Y92.2052 I-51.54266 J-98.93489
G3 X60.18239 Y92.20474 I1.56848 J2.78924
G2 X66.2613 Y88.50594 I-50.30681 J-89.52313
G1 X66.64629 Y88.25141
G1 X67.03993 Y87.98843
G1 X67.44479 Y87.71502
G1 X67.86112 Y87.43069
G1 X68.29348 Y87.13197
G2 X72.74024 Y83.83516 I-50.93983 J-73.3554
G3 X72.77292 Y83.80967 I1.98456 J2.51028
G3 X72.8074 Y83.78195 I2.02246 J2.47985
G2 X77.99952 Y79.29972 I-50.95869 J-64.27785
G3 X78.01555 Y79.28477 I2.19053 J2.33272
G2 X78.14259 Y79.16504 I-6.85084 J-7.3964
G3 X78.16047 Y79.14803 I2.21483 J2.30966
G2 X83.06512 Y74.06851 I-52.50123 J-55.60148
G1 X83.0652 Y74.06841
G1 X83.06503 Y74.06861
G1 X83.06512 Y74.06851
G2 X86.03887 Y70.44853 I-51.86185 J-45.63499
G1 X86.22126 Y70.20936
G1 X86.40331 Y69.9684
G1 X86.58939 Y69.71977
G2 X88.21121 Y67.44141 I-52.03397 J-38.75612
G2 X90.04993 Y64.56988 I-52.61014 J-35.71232
G1 X90.16619 Y64.37613
G1 X90.43246 Y63.92633
G1 X90.73281 Y63.40846
G1 X90.89041 Y63.13211
G2 X93.20493 Y58.63109 I-53.39219 J-30.30102
G3 X93.20591 Y58.62898 I2.9037 J1.34482
G2 X94.5396 Y55.53027 I-54.61889 J-25.34449
G3 X94.54017 Y55.52883 I2.9736 J1.18225
G2 X96.04326 Y51.29438 I-55.2192 J-21.98503
G2 X97.66606 Y44.91031 I-58.96442 J-18.38676
G3 X97.66618 Y44.90972 I3.139 J0.62185
G2 X98.6327 Y38.36508 I-66.0545 J-13.0987
G3 X98.63303 Y38.36178 I3.18481 J0.31145
G2 X98.93349 Y33.95157 I-72.14327 J-7.13037
G1 X98.95352 Y33.36873
G2 X98.90501 Y26.95711 I-87.04356 J-2.54745
G1 X98.90499 Y26.95658
G1 X98.89564 Y26.74547
G1 X98.88578 Y26.53286
G1 X98.8627 Y26.06947
G2 X98.7071 Y23.63159 I-103.55762 J5.386
G1 X98.69544 Y23.47787
G1 X98.64253 Y22.81184
G1 X98.58219 Y22.1046
G1 X98.51288 Y21.34608
G1 X98.49488 Y21.15688
G2 X98.04167 Y17.06545 I-140.52803 J13.49534
G3 X98.04134 Y17.06279 I3.17507 J-0.39864
G1 X98.02507 Y16.93233
G1 X98.00873 Y16.80205
G1 X97.99215 Y16.67074
G1 X97.97534 Y16.53836
G1 X97.9583 Y16.40493
G1 X97.94124 Y16.27222
G1 X97.86859 Y15.71505
G1 X97.79209 Y15.14144
G1 X97.71099 Y14.54621
G2 X97.30498 Y11.71122 I-244.437 J33.55981
G3 X97.30488 Y11.71056 I3.16499 J-0.47203
G1 X97.24431 Y11.30384
G1 X97.07996 Y10.21657
G1 X97.05926 Y10.0812
G1 X96.82742 Y8.58408
G1 X96.69322 Y7.73106
G1 X96.53791 Y6.75329
G1 X96.45477 Y6.23307
G1 X96.00584 Y3.44358
G1 X96.00576 Y3.44312
G1 X95.7493 Y1.8481
G3 X95.74841 Y1.84257 I3.15942 J-0.508
G1 X95.45851 Y0.01921
G3 X95.45731 Y0.01158 I3.1603 J-0.50247
G1 X95.30504 Y-0.96127
G3 X95.30387 Y-0.96875 I3.16151 J-0.49484
G1 X95.14391 Y-2.00682
G3 X95.14328 Y-2.01096 I3.16267 J-0.48736
G3 X94.30907 Y-7.77111 I370.54101 J-56.60354
G3 X94.30862 Y-7.77439 I3.17043 J-0.43405
G1 X94.25683 Y-8.15564
G3 X94.25631 Y-8.1595 I3.17087 J-0.43077
G1 X94.20156 Y-8.56623
G3 X94.20132 Y-8.56799 I3.1714 J-0.4269
G3 X93.39361 Y-15.13501 I301.63566 J-40.43265
G3 X93.36635 Y-15.3801 I10.65134 J-1.30898
G3 X93.27182 Y-16.24802 I104.09174 J-11.77641
G3 X93.25647 Y-16.3921 I7.79337 J-0.90308
G1 X93.15808 Y-17.32907
G3 X93.15684 Y-17.34109 I3.1825 J-0.33419
G1 X93.05416 Y-18.35574
G3 X93.05367 Y-18.36063 I3.18374 J-0.32218
G3 X92.57754 Y-23.71533 I251.60979 J-25.07102
G3 X92.57692 Y-23.7235 I3.19026 J-0.24952
G1 X92.51972 Y-24.47964
G3 X92.5195 Y-24.48258 I3.19089 J-0.24135
G3 X92.16963 Y-30.65341 I171.86513 J-12.83974
G3 X92.16915 Y-30.66659 I3.1976 J-0.12383
G1 X92.14118 Y-31.47498
G3 X92.14109 Y-31.47763 I3.19809 J-0.11064
G3 X92.11566 Y-32.37414 I83.02281 J-2.80341
G1 X92.10531 Y-32.81886
G3 X92.10515 Y-32.826 I3.19913 J-0.07443
G1 X92.10279 Y-32.9382
G3 X92.10276 Y-32.93972 I3.19929 J-0.06729
G3 X92.08459 Y-36.03658 I105.4152 J-2.16702
G3 X92.08471 Y-36.04754 I3.19988 J0.02822
G1 X92.08996 Y-36.47648
G3 X92.0901 Y-36.48634 I3.19976 J0.03918
G1 X92.09179 Y-36.59709
G3 X92.09199 Y-36.60863 I3.19962 J0.04904
G1 X92.10157 Y-37.11462
G3 X92.10182 Y-37.12674 I3.19943 J0.06058
G1 X92.10476 Y-37.25595
G3 X92.33049 Y-41.61878 I73.20609 J1.6003
G3 X92.33219 Y-41.63885 I3.18937 J0.2606
G1 X92.38107 Y-42.19404
G3 X92.38216 Y-42.20611 I3.18767 J0.28068
G3 X92.76388 Y-45.3393 I53.06019 J4.87451
G3 X92.83226 Y-45.77061 I21.95537 J3.25976
G1 X92.86331 Y-45.95808
G3 X92.86587 Y-45.97333 I3.15699 J0.5229
G1 X92.89917 Y-46.1685
G3 X92.89985 Y-46.17245 I3.15442 J0.53815
G3 X93.31228 Y-48.24641 I39.96851 J6.87019
G3 X93.83538 Y-50.30231 I38.13716 J8.60909
G3 X93.83605 Y-50.30467 I3.07864 J0.87291
G3 X94.25134 Y-51.6647 I35.42077 J10.07244
G3 X96.46552 Y-56.93597 I33.04483 J10.77969
G3 X96.46709 Y-56.939 I2.83838 J1.47771
G3 X97.33371 Y-58.50823 I33.80952 J17.64768
G3 X97.47845 Y-58.75418 I11.09572 J6.36389
G3 X98.56176 Y-60.48009 I35.19844 J20.89023
G3 X98.56377 Y-60.48313 I2.66714 J1.76815
G3 X100.93921 Y-63.75631 I40.85775 J27.15298
G3 X100.94554 Y-63.76429 I2.51018 J1.98469
G1 X101.25949 Y-64.15878
G3 X101.27364 Y-64.17643 I2.50385 J1.99267
G1 X101.43713 Y-64.37891
G3 X101.44881 Y-64.39329 I2.4897 J2.01032
G1 X101.6947 Y-64.69423
G3 X101.70267 Y-64.70395 I2.47802 J2.0247
G1 X101.73799 Y-64.74682
G3 X101.74705 Y-64.75778 I2.47004 J2.03443
G1 X102.03096 Y-65.09938
G3 X102.04454 Y-65.11561 I2.46098 J2.04538
G1 X102.23532 Y-65.34209
G3 X102.2482 Y-65.35728 I2.4474 J2.06161
G1 X102.50442 Y-65.65764
G3 X102.52194 Y-65.67799 I2.43452 J2.0768
G1 X102.86696 Y-66.07564
G3 X102.88305 Y-66.09404 I2.417 J2.09716
G1 X103.08194 Y-66.31976
G3 X103.08612 Y-66.32449 I2.40092 J2.11556
G3 X104.8282 Y-68.19994 I39.49205 J34.9369
G3 X106.05624 Y-69.41272 I30.81714 J29.97671
G3 X106.79791 Y-70.09914 I22.66647 J23.74694
G3 X106.80168 Y-70.10252 I2.13717 J2.3817
G1 X106.96264 Y-70.24649
G3 X107.10576 Y-70.37319 I4.02981 J4.40785
G1 X110.39171 Y-73.26708
G1 X73.89081 Y-112.76627
G3 X0.0 Y-100.23695 I-73.89081 J-211.61822
G3 X-73.89081 Y-112.76627 I0.0 J-224.14754
G1 X-110.39171 Y-73.26708
G1 X-109.42481 Y-72.41555
G1 F300.0 X-108.63171 Y-73.3161
G1 Z-6.0
G3 F800.0 X-108.63597 Y-73.39891 I4.38707 J-0.26718
G1 X-108.67625 Y-73.35532
G1 X-108.63171 Y-73.3161
G0 Z3.0
G0 X108.63171
G0 Z-3.0
G1 F300.0 Z-6.0
G1 F800.0 X108.67625 Y-73.35532
G1 X108.63597 Y-73.39891
G3 X108.63171 Y-73.3161 I-4.39133 J-0.18438
G0 Z3.0
G0 X1.40518 Y125.67004
G0 Z-3.0
G1 F300.0 Z-6.0
G3 F800.0 X-1.40518 I-1.40518 J-4.16452
G1 X0.0 Y128.52451
G1 X1.40518 Y125.67004
G1 F300.0 X2.4818 Y126.20003
G1 F800.0 X3.85789 Y123.40465
G3 X3.86648 Y123.38733 I2.87099 J1.41331
G3 X4.30825 Y122.57992 I11.07887 J5.5372
G3 X4.32468 Y122.55269 I2.74826 J1.63923
G1 X4.4432 Y122.35838
G3 X4.45762 Y122.33498 I2.73183 J1.66646
G3 X5.08839 Y121.39568 I13.7185 J8.53105
G3 X6.39317 Y119.74859 I18.82154 J13.56954
G3 X7.30911 Y118.73973 I20.95584 J18.10532
G3 X7.81716 Y118.21744 I22.96523 J21.831
G3 X7.82277 Y118.21181 I2.26798 J2.25749
G1 X7.97786 Y118.05678
G3 X7.99515 Y118.03962 I2.26237 J2.26311
G1 X8.20348 Y117.83451
G3 X8.21566 Y117.82258 I2.24508 J2.28027
G1 X8.27152 Y117.76816
G3 X8.27975 Y117.76018 I2.2329 J2.2922
G1 X8.40786 Y117.63627
G3 X8.41988 Y117.6247 I2.22467 J2.30018
G1 X8.56701 Y117.48389
G3 X8.58042 Y117.47112 I2.21265 J2.31175
G1 X8.74953 Y117.31113
G3 X8.76028 Y117.30101 I2.19924 J2.32451
G1 X8.85086 Y117.21609
G3 X8.85753 Y117.20986 I2.18849 J2.33463
G3 X10.44563 Y115.79401 I32.78037 J35.16975
G3 X10.44892 Y115.7912 I2.07612 J2.4351
G3 X13.75805 Y113.18581 I36.22106 J42.60038
G3 X13.75904 Y113.18508 I1.88346 J2.587
G3 X17.10498 Y110.92066 I35.00575 J48.12063
G3 X17.24659 Y110.83193 I4.11058 J6.40286
G3 X20.86132 Y108.74754 I31.34082 J50.1747
G3 X20.86553 Y108.74532 I1.49975 J2.82679
G3 X22.37173 Y107.97627 I27.78945 J52.56718
G3 X22.49035 Y107.91777 I2.88957 J5.7088
G3 X22.62468 Y107.85244 I2.7311 J5.44575
G3 X24.36749 Y107.03813 I25.62895 J52.57916
G1 X24.36759 Y107.03808
G3 X27.91782 Y105.55614 I31.18576 J69.71663
G3 X27.921 Y105.5549 I1.15791 J2.98316
G1 X28.3794 Y105.37754
G3 X28.39521 Y105.37147 I1.15472 J2.9844
G1 X28.88513 Y105.18488
G3 X28.89683 Y105.18045 I1.13891 J2.99046
G1 X29.15009 Y105.08513
G3 X29.15654 Y105.08271 I1.12722 J2.99489
G3 X32.09976 Y104.01654 I53.30248 J142.54779
G1 X33.0632 Y103.67826
G3 X33.0712 Y103.67546 I1.06011 J3.0193
G1 X36.92651 Y102.33328
G1 X38.0185 Y101.94958
G1 X39.26611 Y101.50625
G1 X39.61482 Y101.38116
G1 X39.96414 Y101.25522
G1 X40.67058 Y100.99855
G3 X40.69436 Y100.99002 I1.09277 J3.00763
G2 X40.83626 Y100.9381 I-2.49207 J-7.03141
G3 X40.89092 Y100.91804 I1.12985 J2.9939
G3 X40.9433 Y100.89884 I1.12754 J2.99477
G3 X40.97122 Y100.88846 I1.12919 J2.99415
G2 X42.66385 Y100.25829 I-61.33618 J-167.33843
G1 X43.14856 Y100.07437
G2 X44.43267 Y99.57901 I-119.81051 J-312.49484
G1 X45.16361 Y99.29149
G1 X46.00052 Y98.9571
G1 X46.21185 Y98.87175
G1 X46.43559 Y98.78098
G3 X46.43658 Y98.78057 I1.203 J2.96526
G2 X53.40678 Y95.71579 I-49.01342 J-120.92904
G1 X53.85675 Y95.50038
G3 X53.87035 Y95.49391 I1.38173 J2.88632
G2 X54.02907 Y95.41733 I-4.85947 J-10.27494
G3 X54.08167 Y95.39204 I1.41281 J2.87123
G3 X54.13343 Y95.36681 I1.42801 J2.8637
G3 X54.16544 Y95.35125 I1.415 J2.87015
G2 X54.44016 Y95.21754 I-10.91496 J-22.775
G3 X54.44486 Y95.21522 I1.41779 J2.86877
G1 X55.05549 Y94.91468
G1 X55.45441 Y94.7159
G2 X57.04515 Y93.90349 I-61.77996 J-122.93132
G2 X60.18157 Y92.2052 I-51.54266 J-98.93489
G3 X60.18239 Y92.20474 I1.56848 J2.78924
G2 X66.2613 Y88.50594 I-50.30681 J-89.52313
G1 X66.64629 Y88.25141
G1 X67.03993 Y87.98843
G1 X67.44479 Y87.71502
G1 X67.86112 Y87.43069
G1 X68.29348 Y87.13197
G2 X72.74024 Y83.83516 I-50.93983 J-73.3554
G3 X72.77292 Y83.80967 I1.98456 J2.51028
G3 X72.8074 Y83.78195 I2.02246 J2.47985
G2 X77.99952 Y79.29972 I-50.95869 J-64.27785
G3 X78.01555 Y79.28477 I2.19053 J2.33272
G2 X78.14259 Y79.16504 I-6.85084 J-7.3964
G3 X78.16047 Y79.14803 I2.21483 J2.30966
G2 X83.06512 Y74.06851 I-52.50123 J-55.60148
G1 X83.0652 Y74.06841
G1 X83.06503 Y74.06861
G1 X83.06512 Y74.06851
G2 X86.03887 Y70.44853 I-51.86185 J-45.63499
G1 X86.22126 Y70.20936
G1 X86.40331 Y69.9684
G1 X86.58939 Y69.71977
G2 X88.21121 Y67.44141 I-52.03397 J-38.75612
G2 X90.04993 Y64.56988 I-52.61014 J-35.71232
G1 X90.16619 Y64.37613
G1 X90.43246 Y63.92633
G1 X90.73281 Y63.40846
G1 X90.89041 Y63.13211
G2 X93.20493 Y58.63109 I-53.39219 J-30.30102
G3 X93.20591 Y58.62898 I2.9037 J1.34482
G2 X94.5396 Y55.53027 I-54.61889 J-25.34449
G3 X94.54017 Y55.52883 I2.9736 J1.18225
G2 X96.04326 Y51.29438 I-55.2192 J-21.98503
G2 X97.66606 Y44.91031 I-58.96442 J-18.38676
G3 X97.66618 Y44.90972 I3.139 J0.62185
G2 X98.6327 Y38.36508 I-66.0545 J-13.0987
G3 X98.63303 Y38.36178 I3.18481 J0.31145
G2 X98.93349 Y33.95157 I-72.14327 J-7.13037
G1 X98.95352 Y33.36873
G2 X98.90501 Y26.95711 I-87.04356 J-2.54745
G1 X98.90499 Y26.95658
G1 X98.89564 Y26.74547
G1 X98.88578 Y26.53286
G1 X98.8627 Y26.06947
G2 X98.7071 Y23.63159 I-103.55762 J5.386
G1 X98.69544 Y23.47787
G1 X98.64253 Y22.81184
G1 X98.58219 Y22.1046
G1 X98.51288 Y21.34608
G1 X98.49488 Y21.15688
G2 X98.04167 Y17.06545 I-140.52803 J13.49534
G3 X98.04134 Y17.06279 I3.17507 J-0.39864
G1 X98.02507 Y16.93233
G1 X98.00873 Y16.80205
G1 X97.99215 Y16.67074
G1 X97.97534 Y16.53836
G1 X97.9583 Y16.40493
G1 X97.94124 Y16.27222
G1 X97.86859 Y15.71505
G1 X97.79209 Y15.14144
G1 X97.71099 Y14.54621
G2 X97.30498 Y11.71122 I-244.437 J33.55981
G3 X97.30488 Y11.71056 I3.16499 J-0.47203
G1 X97.24431 Y11.30384
G1 X97.07996 Y10.21657
G1 X97.05926 Y10.0812
G1 X96.82742 Y8.58408
G1 X96.69322 Y7.73106
G1 X96.53791 Y6.75329
G1 X96.45477 Y6.23307
G1 X96.00584 Y3.44358
G1 X96.00576 Y3.44312
G1 X95.7493 Y1.8481
G3 X95.74841 Y1.84257 I3.15942 J-0.508
G1 X95.45851 Y0.01921
G3 X95.45731 Y0.01158 I3.1603 J-0.50247
G1 X95.30504 Y-0.96127
G3 X95.30387 Y-0.96875 I3.16151 J-0.49484
G1 X95.14391 Y-2.00682
G3 X95.14328 Y-2.01096 I3.16267 J-0.48736
G3 X94.30907 Y-7.77111 I370.54101 J-56.60354
G3 X94.30862 Y-7.77439 I3.17043 J-0.43405
G1 X94.25683 Y-8.15564
G3 X94.25631 Y-8.1595 I3.17087 J-0.43077
G1 X94.20156 Y-8.56623
G3 X94.20132 Y-8.56799 I3.1714 J-0.4269
G3 X93.39361 Y-15.13501 I301.63566 J-40.43265
G3 X93.36635 Y-15.3801 I10.65134 J-1.30898
G3 X93.27182 Y-16.24802 I104.09174 J-11.77641
G3 X93.25647 Y-16.3921 I7.79337 J-0.90308
G1 X93.15808 Y-17.32907
G3 X93.15684 Y-17.34109 I3.1825 J-0.33419
G1 X93.05416 Y-18.35574
G3 X93.05367 Y-18.36063 I3.18374 J-0.32218
G3 X92.57754 Y-23.71533 I251.60979 J-25.07102
G3 X92.57692 Y-23.7235 I3.19026 J-0.24952
G1 X92.51972 Y-24.47964
G3 X92.5195 Y-24.48258 I3.19089 J-0.24135
G3 X92.16963 Y-30.65341 I171.86513 J-12.83974
G3 X92.16915 Y-30.66659 I3.1976 J-0.12383
G1 X92.14118 Y-31.47498
G3 X92.14109 Y-31.47763 I3.19809 J-0.11064
G3 X92.11566 Y-32.37414 I83.02281 J-2.80341
G1 X92.10531 Y-32.81886
G3 X92.10515 Y-32.826 I3.19913 J-0.07443
G1 X92.10279 Y-32.9382
G3 X92.10276 Y-32.93972 I3.19929 J-0.06729
G3 X92.08459 Y-36.03658 I105.4152 J-2.16702
G3 X92.08471 Y-36.04754 I3.19988 J0.02822
G1 X92.08996 Y-36.47648
G3 X92.0901 Y-36.48634 I3.19976 J0.03918
G1 X92.09179 Y-36.59709
G3 X92.09199 Y-36.60863 I3.19962 J0.04904
G1 X92.10157 Y-37.11462
G3 X92.10182 Y-37.12674 I3.19943 J0.06058
G1 X92.10476 Y-37.25595
G3 X92.33049 Y-41.61878 I73.20609 J1.6003
G3 X92.33219 Y-41.63885 I3.18937 J0.2606
G1 X92.38107 Y-42.19404
G3 X92.38216 Y-42.20611 I3.18767 J0.28068
G3 X92.76388 Y-45.3393 I53.06019 J4.87451
G3 X92.83226 Y-45.77061 I21.95537 J3.25976
G1 X92.86331 Y-45.95808
G3 X92.86587 Y-45.97333 I3.15699 J0.5229
G1 X92.89917 Y-46.1685
G3 X92.89985 Y-46.17245 I3.15442 J0.53815
G3 X93.31228 Y-48.24641 I39.96851 J6.87019
G3 X93.83538 Y-50.30231 I38.13716 J8.60909
G3 X93.83605 Y-50.30467 I3.07864 J0.87291
G3 X94.25134 Y-51.6647 I35.42077 J10.07244
G3 X96.46552 Y-56.93597 I33.04483 J10.77969
G3 X96.46709 Y-56.939 I2.83838 J1.47771
G3 X97.33371 Y-58.50823 I33.80952 J17.64768
G3 X97.47845 Y-58.75418 I11.09572 J6.36389
G3 X98.56176 Y-60.48009 I35.19844 J20.89023
G3 X98.56377 Y-60.48313 I2.66714 J1.76815
G3 X100.93921 Y-63.75631 I40.85775 J27.15298
G3 X100.94554 Y-63.76429 I2.51018 J1.98469
G1 X101.25949 Y-64.15878
G3 X101.27364 Y-64.17643 I2.50385 J1.99267
G1 X101.43713 Y-64.37891
G3 X101.44881 Y-64.39329 I2.4897 J2.01032
G1 X101.6947 Y-64.69423
G3 X101.70267 Y-64.70395 I2.47802 J2.0247
G1 X101.73799 Y-64.74682
G3 X101.74705 Y-64.75778 I2.47004 J2.03443
G1 X102.03096 Y-65.09938
G3 X102.04454 Y-65.11561 I2.46098 J2.04538
G1 X102.23532 Y-65.34209
G3 X102.2482 Y-65.35728 I2.4474 J2.06161
G1 X102.50442 Y-65.65764
G3 X102.52194 Y-65.67799 I2.43452 J2.0768
G1 X102.86696 Y-66.07564
G3 X102.88305 Y-66.09404 I2.417 J2.09716
G1 X103.08194 Y-66.31976
G3 X103.08612 Y-66.32449 I2.40092 J2.11556
G3 X104.8282 Y-68.19994 I39.49205 J34.9369
G3 X106.05624 Y-69.41272 I30.81714 J29.97671
G3 X106.79791 Y-70.09914 I22.66647 J23.74694
G3 X106.80168 Y-70.10252 I2.13717 J2.3817
G1 X106.96264 Y-70.24649
G3 X107.10576 Y-70.37319 I4.02981 J4.40785
G1 X110.39171 Y-73.26708
G1 X73.89081 Y-112.76627
G3 X0.0 Y-100.23695 I-73.89081 J-211.61822
G3 X-73.89081 Y-112.76627 I0.0 J-224.14754
G1 X-110.39171 Y-73.26708
G1 X-107.10576 Y-70.37319
G3 X-106.96264 Y-70.24649 I-3.88669 J4.53455
G1 X-106.80168 Y-70.10252
G3 X-106.79791 Y-70.09914 I-2.1334 J2.38508
G3 X-106.05624 Y-69.41272 I-21.9248 J24.43336
G3 X-104.8282 Y-68.19994 I-29.58909 J31.1895
G3 X-103.08612 Y-66.32449 I-37.74997 J36.81234
G3 X-103.08194 Y-66.31976 I-2.39674 J2.12029
G1 X-102.88305 Y-66.09404
G3 X-102.86696 Y-66.07564 I-2.40092 J2.11556
G1 X-102.52194 Y-65.67799
G3 X-102.50442 Y-65.65764 I-2.417 J2.09716
G1 X-102.2482 Y-65.35728
G3 X-102.23532 Y-65.34209 I-2.43452 J2.0768
G1 X-102.04454 Y-65.11561
G3 X-102.03096 Y-65.09938 I-2.4474 J2.06161
G1 X-101.74705 Y-64.75778
G3 X-101.73799 Y-64.74682 I-2.46098 J2.04538
G1 X-101.70267 Y-64.70395
G3 X-101.6947 Y-64.69423 I-2.47004 J2.03443
G1 X-101.44881 Y-64.39329
G3 X-101.43713 Y-64.37891 I-2.47802 J2.0247
G1 X-101.27364 Y-64.17643
G3 X-101.25949 Y-64.15878 I-2.4897 J2.01032
G1 X-100.94554 Y-63.76429
G3 X-100.93921 Y-63.75631 I-2.50385 J1.99267
G3 X-98.56377 Y-60.48313 I-38.48232 J30.42617
G3 X-98.56176 Y-60.48009 I-2.66513 J1.77118
G3 X-97.47845 Y-58.75418 I-34.11512 J22.61614
G3 X-97.33371 Y-58.50823 I-10.95098 J6.60984
G3 X-96.46709 Y-56.939 I-32.9429 J19.21691
G3 X-96.46552 Y-56.93597 I-2.8368 J1.48073
G3 X-94.25134 Y-51.6647 I-30.83065 J16.05096
G3 X-93.83605 Y-50.30467 I-35.00548 J11.43247
G3 X-93.83538 Y-50.30231 I-3.07797 J0.87527
G3 X-93.31228 Y-48.24641 I-37.61406 J10.66499
G3 X-92.89985 Y-46.17245 I-39.55608 J8.94415
G3 X-92.89917 Y-46.1685 I-3.15375 J0.5421
G1 X-92.86587 Y-45.97333
G3 X-92.86331 Y-45.95808 I-3.15442 J0.53815
G1 X-92.83226 Y-45.77061
G3 X-92.76388 Y-45.3393 I-21.88698 J3.69107
G3 X-92.38216 Y-42.20611 I-52.67847 J8.00769
G3 X-92.38107 Y-42.19404 I-3.18658 J0.29274
G1 X-92.33219 Y-41.63885
G3 X-92.33049 Y-41.61878 I-3.18767 J0.28068
G3 X-92.10476 Y-37.25595 I-72.98037 J5.96313
G1 X-92.10182 Y-37.12674
G3 X-92.10157 Y-37.11462 I-3.19917 J0.0727
G1 X-92.09199 Y-36.60863
G3 X-92.09179 Y-36.59709 I-3.19943 J0.06058
G1 X-92.0901 Y-36.48634
G3 X-92.08996 Y-36.47648 I-3.19962 J0.04904
G1 X-92.08471 Y-36.04754
G3 X-92.08459 Y-36.03658 I-3.19976 J0.03918
G3 X-92.10276 Y-32.93972 I-105.43337 J0.92983
G3 X-92.10279 Y-32.9382 I-3.19932 J-0.06577
G1 X-92.10515 Y-32.826
G3 X-92.10531 Y-32.81886 I-3.19929 J-0.06729
G1 X-92.11566 Y-32.37414
G3 X-92.14109 Y-31.47763 I-83.04824 J-1.90689
G3 X-92.14118 Y-31.47498 I-3.19818 J-0.10799
G1 X-92.16915 Y-30.66659
G3 X-92.16963 Y-30.65341 I-3.19809 J-0.11064
G3 X-92.5195 Y-24.48258 I-172.215 J-6.66891
G3 X-92.51972 Y-24.47964 I-3.19111 J-0.2384
G1 X-92.57692 Y-23.7235
G3 X-92.57754 Y-23.71533 I-3.19089 J-0.24135
G3 X-93.05367 Y-18.36063 I-252.08592 J-19.71632
G3 X-93.05416 Y-18.35574 I-3.18423 J-0.31728
G1 X-93.15684 Y-17.34109
G3 X-93.15808 Y-17.32907 I-3.18374 J-0.32218
G1 X-93.25647 Y-16.3921
G3 X-93.27182 Y-16.24802 I-7.80872 J-0.75901
G3 X-93.36635 Y-15.3801 I-104.18627 J-10.90849
G3 X-93.39361 Y-15.13501 I-10.67861 J-1.06389
G3 X-94.20132 Y-8.56799 I-302.44337 J-33.86562
G3 X-94.20156 Y-8.56623 I-3.17163 J-0.42514
G1 X-94.25631 Y-8.1595
G3 X-94.25683 Y-8.15564 I-3.1714 J-0.4269
G1 X-94.30862 Y-7.77439
G3 X-94.30907 Y-7.77111 I-3.17087 J-0.43077
G3 X-95.14328 Y-2.01096 I-371.37522 J-50.84339
G3 X-95.14391 Y-2.00682 I-3.1633 J-0.48322
G1 X-95.30387 Y-0.96875
G3 X-95.30504 Y-0.96127 I-3.16267 J-0.48736
G1 X-95.45731 Y0.01158
G3 X-95.45851 Y0.01921 I-3.16151 J-0.49484
G1 X-95.74841 Y1.84257
G3 X-95.7493 Y1.8481 I-3.1603 J-0.50247
G1 X-96.00576 Y3.44312
G1 X-96.00584 Y3.44358
G1 X-96.45477 Y6.23307
G1 X-96.53791 Y6.75329
G1 X-96.69322 Y7.73106
G1 X-96.82742 Y8.58408
G1 X-97.05926 Y10.0812
G1 X-97.07996 Y10.21657
G1 X-97.24431 Y11.30384
G1 X-97.30488 Y11.71056
G3 X-97.30498 Y11.71122 I-3.16509 J-0.47137
G2 X-97.71099 Y14.54621 I244.03099 J36.3948
G1 X-97.79209 Y15.14144
G1 X-97.86859 Y15.71505
G1 X-97.94124 Y16.27222
G1 X-97.9583 Y16.40493
G1 X-97.97534 Y16.53836
G1 X-97.99215 Y16.67074
G1 X-98.00873 Y16.80205
G1 X-98.02507 Y16.93233
G1 X-98.04134 Y17.06279
G3 X-98.04167 Y17.06545 I-3.17541 J-0.39598
G2 X-98.49488 Y21.15688 I140.07482 J17.58677
G1 X-98.51288 Y21.34608
G1 X-98.58219 Y22.1046
G1 X-98.64253 Y22.81184
G1 X-98.69544 Y23.47787
G1 X-98.7071 Y23.63159
G2 X-98.8627 Y26.06947 I103.40201 J7.82388
G1 X-98.88578 Y26.53286
G1 X-98.89564 Y26.74547
G1 X-98.90499 Y26.95658
G1 X-98.90501 Y26.95711
G2 X-98.95352 Y33.36873 I86.99505 J3.86416
G1 X-98.93349 Y33.95157
G2 X-98.63303 Y38.36178 I72.44373 J-2.72015
G3 X-98.6327 Y38.36508 I-3.18448 J0.31474
G2 X-97.66618 Y44.90972 I67.02102 J-6.55406
G3 X-97.66606 Y44.91031 I-3.13888 J0.62244
G2 X-96.04326 Y51.29438 I60.58722 J-12.00268
G2 X-94.54017 Y55.52883 I56.72229 J-17.75058
G3 X-94.5396 Y55.53027 I-2.97303 J1.18368
G2 X-93.20591 Y58.62898 I55.95258 J-22.24578
G3 X-93.20493 Y58.63109 I-2.90272 J1.34693
G2 X-90.89041 Y63.13211 I55.70671 J-25.8
G1 X-90.73281 Y63.40846
G1 X-90.43246 Y63.92633
G1 X-90.16619 Y64.37613
G1 X-90.04993 Y64.56988
G2 X-88.21121 Y67.44141 I54.44886 J-32.84079
G2 X-86.58939 Y69.71977 I53.65579 J-36.47775
G1 X-86.40331 Y69.9684
G1 X-86.22126 Y70.20936
G1 X-86.03887 Y70.44853
G2 X-83.06512 Y74.06851 I54.8356 J-42.015
G1 X-83.06503 Y74.06861
G1 X-83.0652 Y74.06841
G1 X-83.06512 Y74.06851
G2 X-78.16047 Y79.14803 I57.40588 J-50.52197
G3 X-78.14259 Y79.16504 I-2.19695 J2.32668
G2 X-78.01555 Y79.28477 I6.97788 J-7.27667
G3 X-77.99952 Y79.29972 I-2.1745 J2.34767
G2 X-72.8074 Y83.78195 I56.1508 J-59.79562
G3 X-72.77292 Y83.80967 I-1.98798 J2.50758
G3 X-72.74024 Y83.83516 I-1.95189 J2.53577
G2 X-68.29348 Y87.13197 I55.38659 J-70.05859
G1 X-67.86112 Y87.43069
G1 X-67.44479 Y87.71502
G1 X-67.03993 Y87.98843
G1 X-66.64629 Y88.25141
G1 X-66.2613 Y88.50594
G2 X-60.18239 Y92.20474 I56.38572 J-85.82434
G3 X-60.18157 Y92.2052 I-1.56765 J2.78971
G2 X-57.04515 Y93.90349 I54.67907 J-97.2366
G2 X-55.45441 Y94.7159 I63.37071 J-122.1189
G1 X-55.05549 Y94.91468
G1 X-54.44486 Y95.21522
G3 X-54.44016 Y95.21754 I-1.41309 J2.87109
