( Made using CamBam - http://www.cambam.co.uk )
( Wappen-Huettle 7/20/2017 4:48:48 PM )
( T2 : 2.0 )
( T4 : 4.0 )
( T6 : 6.0 )
G21 G90 G64 G40
G0 Z3.0
( T6 : 6.0 )
T6 M6
( Kontur )
G17
M3 S1000
G0 X-145.56879 Y-97.77278
G0 Z1.0
G1 F300.0 Z-2.0
G1 F800.0 X-144.14881 Y-96.52222
G3 X-144.28462 Y-99.16244 I5.15595 J-1.58882
G1 X-145.56879 Y-97.77278
G0 Z3.0
G0 X-98.30954 Y-148.91404
G0 Z1.0
G1 F300.0 Z-2.0
G3 F800.0 X-98.03052 Y-148.98479 I1.46501 J5.19249
G3 X-98.1924 Y-149.04081 I98.03052 J-283.52787
G1 X-98.30954 Y-148.91404
G0 Z3.0
G0 X98.03052 Y-148.98479
G0 Z1.0
G1 F300.0 Z-2.0
G3 F800.0 X98.30954 Y-148.91404 I-1.18598 J5.26323
G1 X98.1924 Y-149.04081
G3 X98.03052 Y-148.98479 I-98.1924 J-283.47185
G0 Z3.0
G0 X144.28462 Y-99.16244
G0 Z1.0
G1 F300.0 Z-2.0
G3 F800.0 X144.14881 Y-96.52222 I-5.29176 J1.05139
G1 X145.56879 Y-97.77278
G1 X144.28462 Y-99.16244
G0 Z3.0
G0 X0.5545 Y168.5792
G0 Z1.0
G1 F300.0 Z-2.0
G3 F800.0 X-0.5545 I-0.5545 J-6.57185
G1 X0.0 Y169.70561
G1 X0.5545 Y168.5792
G1 F300.0 X1.63112 Y169.10919
G1 F800.0 X2.8819 Y166.56837
G3 X-2.8819 I-2.8819 J-4.56101
G1 X0.0 Y172.42264
G1 X1.63112 Y169.10919
G1 F300.0 X3.78436 Y170.16917
G1 F800.0 X6.28028 Y165.09896
G3 X6.28833 Y165.08273 I2.69155 J1.32498
G3 X6.83218 Y164.08876 I13.6388 J6.81664
G3 X6.84758 Y164.06322 I2.57649 J1.53678
G1 X7.00562 Y163.80415
G3 X7.01913 Y163.78222 I2.56109 J1.56231
G3 X7.81135 Y162.60257 I17.21569 J10.70583
G3 X9.48159 Y160.49419 I24.06855 J17.35105
G3 X10.66279 Y159.19312 I26.98376 J23.31102
G3 X11.32062 Y158.51684 I29.70299 J28.23451
G3 X11.32589 Y158.51157 I2.12623 J2.1164
G1 X11.53267 Y158.30485
G3 X11.54888 Y158.28877 I2.12097 J2.12167
G1 X11.82665 Y158.01529
G3 X11.83807 Y158.0041 I2.10476 J2.13775
G1 X11.91255 Y157.93154
G3 X11.92026 Y157.92406 I2.09334 J2.14894
G1 X12.09108 Y157.75885
G3 X12.10235 Y157.748 I2.08563 J2.15642
G1 X12.29852 Y157.56025
G3 X12.31109 Y157.54828 I2.07436 J2.16726
G1 X12.53657 Y157.33496
G3 X12.54665 Y157.32547 I2.06178 J2.17923
G1 X12.66743 Y157.21224
G3 X12.67368 Y157.20641 I2.05171 J2.18872
G3 X14.74931 Y155.3559 I42.84352 J45.96641
G3 X14.75239 Y155.35327 I1.94637 J2.28291
G3 X19.0896 Y151.93843 I47.47426 J55.8355
G3 X19.09053 Y151.93775 I1.76574 J2.42531
G3 X23.48592 Y148.96335 I45.9292 J63.13653
G3 X23.6612 Y148.85352 I4.80149 J7.468
G3 X28.40875 Y146.11566 I41.12201 J65.82199
G3 X28.41269 Y146.11357 I1.40602 J2.65011
G3 X30.39518 Y145.10146 I36.46061 J68.96975
G3 X30.54539 Y145.02742 I3.28655 J6.47864
G3 X30.71343 Y144.94567 I3.08321 J6.12394
G3 X33.00725 Y143.87374 I33.62474 J68.96313
G1 X33.00734 Y143.8737
G3 X37.6821 Y141.92235 I41.06379 J91.79925
G3 X37.68508 Y141.92119 I1.08554 J2.79671
G1 X38.29628 Y141.68471
G3 X38.3111 Y141.67902 I1.08255 J2.79787
G1 X38.96433 Y141.43024
G3 X38.9753 Y141.42608 I1.06773 J2.80356
G1 X39.31298 Y141.29899
G3 X39.31902 Y141.29672 I1.05677 J2.80771
G3 X43.21906 Y139.88394 I70.62633 J188.87728
G1 X44.5039 Y139.43282
G3 X44.5114 Y139.4302 I0.99385 J2.83059
G1 X49.65353 Y137.64002
G1 X51.11336 Y137.12707
G1 X52.78073 Y136.53458
G1 X53.2484 Y136.36681
G1 X53.71658 Y136.19803
G1 X54.65999 Y135.85526
G3 X54.68229 Y135.84725 I1.02447 J2.81966
G2 X54.89557 Y135.76922 I-3.7459 J-10.56912
G3 X54.95722 Y135.74672 I1.05924 J2.80678
G3 X55.02739 Y135.72101 I1.06739 J2.80369
G3 X55.06421 Y135.70723 I1.06927 J2.80297
G2 X57.3338 Y134.86227 I-82.2175 J-224.3072
G1 X57.98283 Y134.61599
G2 X59.70455 Y133.95181 I-160.19876 J-417.84328
G1 X60.68498 Y133.56617
G1 X61.80619 Y133.11817
G1 X62.09106 Y133.00312
G1 X62.3903 Y132.88172
G3 X62.39124 Y132.88134 I1.12781 J2.77993
G2 X71.75425 Y128.76438 I-65.82701 J-162.41263
G1 X72.35593 Y128.47634
G3 X72.36868 Y128.47027 I1.29537 J2.70592
G2 X72.598 Y128.35964 I-7.02084 J-14.84498
G3 X72.66083 Y128.32962 I1.32451 J2.69178
G3 X72.73037 Y128.29563 I1.35209 J2.67803
G3 X72.76802 Y128.27726 I1.3342 J2.68699
G2 X73.14809 Y128.09228 I-15.10071 J-31.50893
G3 X73.1525 Y128.09011 I1.32918 J2.68948
G1 X73.96946 Y127.68801
G1 X74.50606 Y127.42062
G2 X76.64454 Y126.32848 I-82.94014 J-165.04117
G2 X80.86295 Y124.04434 I-69.30788 J-133.03702
G3 X80.86372 Y124.04391 I1.47045 J2.61492
G2 X89.04545 Y119.06555 I-67.69628 J-120.46844
G1 X89.56283 Y118.72349
G1 X90.09285 Y118.3694
G1 X90.63803 Y118.00122
G1 X91.19869 Y117.61833
G1 X91.77922 Y117.21723
G2 X97.77255 Y112.77387 I-68.64102 J-98.84847
G3 X97.80899 Y112.74551 I1.86053 J2.35339
G2 X97.82545 Y112.73247 I-0.38653 J-0.50471
G3 X97.86344 Y112.70184 I1.90172 J2.32023
G2 X104.86644 Y106.65633 I-68.73182 J-86.69638
G3 X104.88147 Y106.64232 I2.05362 J2.18692
G2 X105.06682 Y106.46763 I-9.99519 J-10.79115
G3 X105.08358 Y106.45168 I2.0764 J2.16531
G2 X111.70439 Y99.59482 I-70.87127 J-75.05629
G1 X111.70447 Y99.59472
G1 X111.70431 Y99.59491
G1 X111.70439 Y99.59482
G2 X115.72483 Y94.70061 I-70.10003 J-61.68345
G1 X115.9706 Y94.37832
G1 X116.2168 Y94.05248
G1 X116.4675 Y93.71749
G2 X118.66271 Y90.63366 I-70.3936 J-52.43262
G2 X121.15197 Y86.74614 I-71.19462 J-48.3282
G1 X121.30967 Y86.48333
G1 X121.66949 Y85.87548
G1 X122.07511 Y85.17611
G1 X122.28818 Y84.80249
G2 X125.42262 Y78.70712 I-72.29055 J-41.0277
G3 X125.42353 Y78.70513 I2.72222 J1.26077
G2 X127.22985 Y74.50833 I-73.97417 J-34.32582
G3 X127.23039 Y74.50699 I2.78775 J1.10836
G2 X129.26673 Y68.7702 I-74.80242 J-29.78191
G2 X131.46394 Y60.12657 I-79.82827 J-24.89336
G3 X131.46405 Y60.12601 I2.94281 J0.58299
G2 X132.77092 Y51.27672 I-89.31513 J-17.71132
G3 X132.77123 Y51.27363 I2.98576 J0.29198
G2 X133.17717 Y45.31427 I-97.45155 J-9.63174
G1 X133.20405 Y44.53193
G2 X133.13877 Y35.88661 I-117.32411 J-3.43689
G1 X133.13874 Y35.88611
G1 X133.12623 Y35.60326
G1 X133.11291 Y35.31629
G1 X133.08197 Y34.6949
G2 X132.87251 Y31.4131 I-139.34185 J7.24572
G1 X132.85679 Y31.20578
G1 X132.78577 Y30.31179
G1 X132.70468 Y29.36133
G1 X132.61171 Y28.3438
G1 X132.58742 Y28.08862
G2 X131.97903 Y22.59614 I-188.63162 J18.11434
G3 X131.97872 Y22.59364 I2.97663 J-0.37372
G1 X131.95697 Y22.41923
G1 X131.93506 Y22.24458
G1 X131.91284 Y22.06855
G1 X131.8903 Y21.89111
G1 X131.86746 Y21.71227
G1 X131.84451 Y21.53369
G1 X131.74725 Y20.78779
G1 X131.64477 Y20.01936
G1 X131.5363 Y19.22329
G2 X130.99278 Y15.42812 I-327.17098 J44.91806
G3 X130.99269 Y15.4275 I2.96718 J-0.44253
G1 X130.91173 Y14.88384
G1 X130.69222 Y13.43172
G1 X130.66429 Y13.24898
G1 X130.35474 Y11.25009
G1 X130.17542 Y10.1103
G1 X129.96811 Y8.80509
G1 X129.85705 Y8.11018
G1 X129.25835 Y4.39018
G1 X129.25828 Y4.38975
G1 X128.91633 Y2.26305
G3 X128.9155 Y2.25786 I2.96196 J-0.47625
G1 X128.52897 Y-0.17328
G3 X128.52784 Y-0.18043 I2.96279 J-0.47107
G1 X128.32481 Y-1.47756
G3 X128.32372 Y-1.48458 I2.96391 J-0.46391
G1 X128.11044 Y-2.86868
G3 X128.10984 Y-2.87255 I2.965 J-0.4569
G3 X127.00039 Y-10.53329 I492.80254 J-75.28011
G3 X126.99997 Y-10.53637 I2.97227 J-0.40692
G1 X126.93091 Y-11.0447
G3 X126.93042 Y-11.04832 I2.97269 J-0.40385
G1 X126.85742 Y-11.59062
G3 X126.8572 Y-11.59227 I2.97318 J-0.40022
G3 X125.78284 Y-20.3279 I400.92545 J-53.74191
G3 X125.74807 Y-20.64062 I12.94376 J-1.59742
G3 X125.62145 Y-21.80309 I137.52938 J-15.56807
G3 X125.60223 Y-21.98339 I9.13213 J-1.06505
G1 X125.47051 Y-23.23772
G3 X125.46935 Y-23.24898 I2.9836 J-0.31331
G1 X125.33245 Y-24.60185
G3 X125.33199 Y-24.60643 I2.98476 J-0.30204
G3 X124.69954 Y-31.71921 I334.2193 J-33.30243
G3 X124.69895 Y-31.72687 I2.99087 J-0.23392
G1 X124.62269 Y-32.73505
G3 X124.62248 Y-32.73781 I2.99146 J-0.22626
G3 X124.15856 Y-40.92023 I227.89036 J-17.02529
G3 X124.1581 Y-40.93259 I2.99775 J-0.11609
G1 X124.12081 Y-42.01043
G3 X124.12073 Y-42.01292 I2.99821 J-0.10373
G3 X124.08721 Y-43.19479 I109.43113 J-3.69513
G1 X124.07341 Y-43.78794
G3 X124.07326 Y-43.79464 I2.99919 J-0.06978
G1 X124.07011 Y-43.94424
G3 X124.07008 Y-43.94566 I2.99934 J-0.06308
G3 X124.04607 Y-48.0376 I139.28719 J-2.86333
G3 X124.04618 Y-48.04788 I2.99988 J0.02646
G1 X124.05319 Y-48.6198
G3 X124.05331 Y-48.62904 I2.99978 J0.03673
G1 X124.05558 Y-48.7767
G3 X124.05576 Y-48.78752 I2.99965 J0.04597
G1 X124.06854 Y-49.46219
G3 X124.06877 Y-49.47355 I2.99946 J0.05679
G1 X124.0727 Y-49.64637
G3 X124.36977 Y-55.38855 I96.34177 J2.10551
G3 X124.37137 Y-55.40737 I2.99004 J0.24431
G1 X124.43655 Y-56.14762
G3 X124.43757 Y-56.15894 I2.98844 J0.26313
G3 X124.93778 Y-60.26422 I69.48556 J6.38347
G3 X125.02568 Y-60.81866 I28.02121 J4.15816
G1 X125.06739 Y-61.07046
G3 X125.06979 Y-61.08476 I2.95968 J0.49022
G1 X125.11419 Y-61.34499
G3 X125.11482 Y-61.34869 I2.95727 J0.50451
G3 X125.65189 Y-64.0494 I52.04299 J8.94568
G3 X126.33247 Y-66.72423 I49.61402 J11.19964
G3 X126.3331 Y-66.72644 I2.88623 J0.81835
G3 X126.8726 Y-68.49323 I46.00933 J13.08346
G3 X129.74421 Y-75.32971 I42.85562 J13.97988
G3 X129.74569 Y-75.33254 I2.66098 J1.38535
G3 X130.87477 Y-77.37679 I43.95646 J22.94412
G3 X131.0581 Y-77.68833 I13.6978 J7.85101
G3 X132.47143 Y-79.94023 I45.84441 J27.20306
G3 X132.47331 Y-79.94308 I2.50045 J1.65764
G3 X135.57922 Y-84.22281 I53.42206 J35.50289
G3 X135.58516 Y-84.23029 I2.3533 J1.86064
G1 X136.00376 Y-84.75627
G3 X136.01703 Y-84.77282 I2.34736 J1.86813
G1 X136.23502 Y-85.0428
G3 X136.24597 Y-85.05628 I2.33409 J1.88468
G1 X136.57382 Y-85.45753
G3 X136.58129 Y-85.46664 I2.32314 J1.89816
G1 X136.62837 Y-85.5238
G3 X136.63687 Y-85.53407 I2.31567 J1.90727
G1 X137.01542 Y-85.98955
G3 X137.02816 Y-86.00476 I2.30717 J1.91754
G1 X137.28252 Y-86.30673
G3 X137.2946 Y-86.32098 I2.29444 J1.93276
G1 X137.63623 Y-86.72145
G3 X137.65265 Y-86.74053 I2.28236 J1.947
G1 X138.11268 Y-87.27073
G3 X138.12776 Y-87.28797 I2.26594 J1.96609
G1 X138.39296 Y-87.58894
G3 X138.39687 Y-87.59338 I2.25086 J1.98334
G3 X140.67835 Y-90.04948 I51.70735 J45.74325
G3 X142.28151 Y-91.63269 I40.1821 J39.08518
G3 X143.24318 Y-92.52276 I29.34877 J30.74498
G3 X143.24671 Y-92.52593 I2.0036 J2.23284
G1 X143.46667 Y-92.72268
G3 X143.63818 Y-92.87448 I4.52325 J4.93782
G1 X148.99972 Y-97.59629
G1 X98.8868 Y-151.82562
G3 X0.0 Y-134.91593 I-98.8868 J-280.68703
G3 X-98.8868 Y-151.82562 I0.0 J-297.59672
G1 X-148.99972 Y-97.59629
G1 X-143.63818 Y-92.87448
G3 X-143.46667 Y-92.72268 I-4.35174 J5.08962
G1 X-143.24671 Y-92.52593
G3 X-143.24318 Y-92.52276 I-2.00007 J2.23601
G3 X-142.28151 Y-91.63269 I-28.38711 J31.63506
G3 X-140.67835 Y-90.04948 I-38.57894 J40.66839
G3 X-138.39687 Y-87.59338 I-49.42588 J48.19935
G3 X-138.39296 Y-87.58894 I-2.24694 J1.98777
G1 X-138.12776 Y-87.28797
G3 X-138.11268 Y-87.27073 I-2.25086 J1.98334
G1 X-137.65265 Y-86.74053
G3 X-137.63623 Y-86.72145 I-2.26594 J1.96609
G1 X-137.2946 Y-86.32098
G3 X-137.28252 Y-86.30673 I-2.28236 J1.947
G1 X-137.02816 Y-86.00476
G3 X-137.01542 Y-85.98955 I-2.29444 J1.93276
G1 X-136.63687 Y-85.53407
G3 X-136.62837 Y-85.5238 I-2.30717 J1.91754
G1 X-136.58129 Y-85.46664
G3 X-136.57382 Y-85.45753 I-2.31567 J1.90727
G1 X-136.24597 Y-85.05628
G3 X-136.23502 Y-85.0428 I-2.32314 J1.89816
G1 X-136.01703 Y-84.77282
G3 X-136.00376 Y-84.75627 I-2.33409 J1.88468
G1 X-135.58516 Y-84.23029
G3 X-135.57922 Y-84.22281 I-2.34736 J1.86813
G3 X-132.47331 Y-79.94308 I-50.31615 J39.78262
G3 X-132.47143 Y-79.94023 I-2.49856 J1.66048
G3 X-131.0581 Y-77.68833 I-44.43109 J29.45497
G3 X-130.87477 Y-77.37679 I-13.51447 J8.16255
G3 X-129.74569 Y-75.33254 I-42.82738 J24.98837
G3 X-129.74421 Y-75.32971 I-2.6595 J1.38819
G3 X-126.8726 Y-68.49323 I-39.98401 J20.81636
G3 X-126.3331 Y-66.72644 I-45.46983 J14.85025
G3 X-126.33247 Y-66.72423 I-2.8856 J0.82056
G3 X-125.65189 Y-64.0494 I-48.93345 J13.87446
G3 X-125.11482 Y-61.34869 I-51.50591 J11.64639
G3 X-125.11419 Y-61.34499 I-2.95664 J0.50822
G1 X-125.06979 Y-61.08476
G3 X-125.06739 Y-61.07046 I-2.95727 J0.50451
G1 X-125.02568 Y-60.81866
G3 X-124.93778 Y-60.26422 I-27.93331 J4.7126
G3 X-124.43757 Y-56.15894 I-68.98535 J10.48875
G3 X-124.43655 Y-56.14762 I-2.98742 J0.27445
G1 X-124.37137 Y-55.40737
G3 X-124.36977 Y-55.38855 I-2.98844 J0.26313
G3 X-124.0727 Y-49.64637 I-96.0447 J7.84768
G1 X-124.06877 Y-49.47355
G3 X-124.06854 Y-49.46219 I-2.99923 J0.06816
G1 X-124.05576 Y-48.78752
G3 X-124.05558 Y-48.7767 I-2.99946 J0.05679
G1 X-124.05331 Y-48.62904
G3 X-124.05319 Y-48.6198 I-2.99965 J0.04597
G1 X-124.04618 Y-48.04788
G3 X-124.04607 Y-48.0376 I-2.99978 J0.03673
G3 X-124.07008 Y-43.94566 I-139.31121 J1.2286
G3 X-124.07011 Y-43.94424 I-2.99937 J-0.06166
G1 X-124.07326 Y-43.79464
G3 X-124.07341 Y-43.78794 I-2.99934 J-0.06308
G1 X-124.08721 Y-43.19479
G3 X-124.12073 Y-42.01292 I-109.46466 J-2.51326
G3 X-124.12081 Y-42.01043 I-2.99829 J-0.10124
G1 X-124.1581 Y-40.93259
G3 X-124.15856 Y-40.92023 I-2.99821 J-0.10373
G3 X-124.62248 Y-32.73781 I-228.35428 J-8.84287
G3 X-124.62269 Y-32.73505 I-2.99166 J-0.2235
G1 X-124.69895 Y-31.72687
G3 X-124.69954 Y-31.71921 I-2.99146 J-0.22626
G3 X-125.33199 Y-24.60643 I-334.85175 J-26.18966
G3 X-125.33245 Y-24.60185 I-2.98522 J-0.29745
G1 X-125.46935 Y-23.24898
G3 X-125.47051 Y-23.23772 I-2.98476 J-0.30204
G1 X-125.60223 Y-21.98339
G3 X-125.62145 Y-21.80309 I-9.15136 J-0.88475
G3 X-125.74807 Y-20.64062 I-137.656 J-14.40559
G3 X-125.78284 Y-20.3279 I-12.97853 J-1.28471
G3 X-126.8572 Y-11.59227 I-401.99981 J-45.00628
G3 X-126.85742 Y-11.59062 I-2.97341 J-0.39857
G1 X-126.93042 Y-11.04832
G3 X-126.93091 Y-11.0447 I-2.97318 J-0.40022
G1 X-126.99997 Y-10.53637
G3 X-127.00039 Y-10.53329 I-2.97269 J-0.40385
G3 X-128.10984 Y-2.87255 I-493.912 J-67.61937
G3 X-128.11044 Y-2.86868 I-2.9656 J-0.45302
G1 X-128.32372 Y-1.48458
G3 X-128.32481 Y-1.47756 I-2.965 J-0.4569
G1 X-128.52784 Y-0.18043
G3 X-128.52897 Y-0.17328 I-2.96391 J-0.46391
G1 X-128.9155 Y2.25786
G3 X-128.91633 Y2.26305 I-2.96279 J-0.47107
G1 X-129.25828 Y4.38975
G1 X-129.25835 Y4.39018
G1 X-129.85705 Y8.11018
G1 X-129.96811 Y8.80509
G1 X-130.17542 Y10.1103
G1 X-130.35474 Y11.25009
G1 X-130.66429 Y13.24898
G1 X-130.69222 Y13.43172
G1 X-130.91173 Y14.88384
G1 X-130.99269 Y15.4275
G3 X-130.99278 Y15.42812 I-2.96727 J-0.44191
G2 X-131.5363 Y19.22329 I326.62747 J48.71324
G1 X-131.64477 Y20.01936
G1 X-131.74725 Y20.78779
G1 X-131.84451 Y21.53369
G1 X-131.86746 Y21.71227
G1 X-131.8903 Y21.89111
G1 X-131.91284 Y22.06855
G1 X-131.93506 Y22.24458
G1 X-131.95697 Y22.41923
G1 X-131.97872 Y22.59364
G3 X-131.97903 Y22.59614 I-2.97694 J-0.37123
G2 X-132.58742 Y28.08862 I188.02323 J23.60682
G1 X-132.61171 Y28.3438
G1 X-132.70468 Y29.36133
G1 X-132.78577 Y30.31179
G1 X-132.85679 Y31.20578
G1 X-132.87251 Y31.4131
G2 X-133.08197 Y34.6949 I139.1324 J10.52752
G1 X-133.11291 Y35.31629
G1 X-133.12623 Y35.60326
G1 X-133.13874 Y35.88611
G1 X-133.13877 Y35.88661
G2 X-133.20405 Y44.53193 I117.25882 J5.20843
G1 X-133.17717 Y45.31427
G2 X-132.77123 Y51.27363 I97.8575 J-3.67238
G3 X-132.77092 Y51.27672 I-2.98545 J0.29507
G2 X-131.46405 Y60.12601 I90.62201 J-8.86203
G3 X-131.46394 Y60.12657 I-2.9427 J0.58354
G2 X-129.26673 Y68.7702 I82.02548 J-16.24973
G2 X-127.23039 Y74.50699 I76.83877 J-24.04512
G3 X-127.22985 Y74.50833 I-2.78721 J1.1097
G2 X-125.42353 Y78.70513 I75.78049 J-30.12901
G3 X-125.42262 Y78.70712 I-2.7213 J1.26275
G2 X-122.28818 Y84.80249 I75.42499 J-34.93233
G1 X-122.07511 Y85.17611
G1 X-121.66949 Y85.87548
G1 X-121.30967 Y86.48333
G1 X-121.15197 Y86.74614
G2 X-118.66271 Y90.63366 I73.68387 J-44.44069
G2 X-116.4675 Y93.71749 I72.58882 J-49.34878
G1 X-116.2168 Y94.05248
G1 X-115.9706 Y94.37832
G1 X-115.72483 Y94.70061
G2 X-111.70439 Y99.59482 I74.12047 J-56.78924
G1 X-111.70431 Y99.59491
G1 X-111.70447 Y99.59472
G1 X-111.70439 Y99.59482
G2 X-105.08358 Y106.45168 I77.49208 J-68.19942
G3 X-105.06682 Y106.46763 I-2.05964 J2.18126
G2 X-104.88147 Y106.64232 I10.18054 J-10.61646
G3 X-104.86644 Y106.65633 I-2.0386 J2.20094
G2 X-97.86344 Y112.70184 I75.73482 J-80.65087
G3 X-97.82545 Y112.73247 I-1.86373 J2.35085
G2 X-97.80899 Y112.74551 I0.40299 J-0.49167
G3 X-97.77255 Y112.77387 I-1.82408 J2.38175
G2 X-91.77922 Y117.21723 I74.63435 J-94.40511
G1 X-91.19869 Y117.61833
G1 X-90.63803 Y118.00122
G1 X-90.09285 Y118.3694
G1 X-89.56283 Y118.72349
G1 X-89.04545 Y119.06555
G2 X-80.86372 Y124.04391 I75.87801 J-115.49007
G3 X-80.86295 Y124.04434 I-1.46968 J2.61535
G2 X-76.64454 Y126.32848 I73.52629 J-130.75288
G2 X-74.50606 Y127.42062 I85.07861 J-163.94903
G1 X-73.96946 Y127.68801
G1 X-73.1525 Y128.09011
G3 X-73.14809 Y128.09228 I-1.32477 J2.69165
G2 X-72.76802 Y128.27726 I15.48078 J-31.32394
G3 X-72.73037 Y128.29563 I-1.29655 J2.70536
G3 X-72.66083 Y128.32962 I-1.28254 J2.71203
G3 X-72.598 Y128.35964 I-1.26168 J2.72179
G2 X-72.36868 Y128.47027 I7.25015 J-14.73435
G3 X-72.35593 Y128.47634 I-1.28262 J2.71199
G1 X-71.75425 Y128.76438
G2 X-62.39124 Y132.88134 I75.19002 J-158.29567
G3 X-62.3903 Y132.88172 I-1.12688 J2.78031
G1 X-62.09106 Y133.00312
G1 X-61.80619 Y133.11817
G1 X-60.68498 Y133.56617
G1 X-59.70455 Y133.95181
G2 X-57.98283 Y134.61599 I161.92048 J-417.17911
G1 X-57.3338 Y134.86227
G2 X-55.06421 Y135.70723 I84.48709 J-223.46224
G3 X-55.02739 Y135.72101 I-1.03245 J2.81674
G3 X-54.95722 Y135.74672 I-0.99722 J2.82941
G3 X-54.89557 Y135.76922 I-0.99759 J2.82928
G2 X-54.68229 Y135.84725 I3.95918 J-10.49108
G3 X-54.65999 Y135.85526 I-1.00218 J2.82766
G1 X-53.71658 Y136.19803
G1 X-53.2484 Y136.36681
G1 X-52.78073 Y136.53458
G1 X-51.11336 Y137.12707
G1 X-49.65353 Y137.64002
G1 X-44.5114 Y139.4302
G3 X-44.5039 Y139.43282 I-0.98635 J2.83322
G1 X-43.21906 Y139.88394
G3 X-39.31902 Y141.29672 I-66.72629 J190.29006
G3 X-39.31298 Y141.29899 I-1.05073 J2.80998
G1 X-38.9753 Y141.42608
G3 X-38.96433 Y141.43024 I-1.05677 J2.80771
G1 X-38.3111 Y141.67902
G3 X-38.29628 Y141.68471 I-1.06773 J2.80356
G1 X-37.68508 Y141.92119
G3 X-37.6821 Y141.92235 I-1.08255 J2.79787
G3 X-33.00734 Y143.8737 I-36.38903 J93.75061
G1 X-33.00725 Y143.87374
G3 X-30.71343 Y144.94567 I-31.33093 J70.03506
G3 X-30.54539 Y145.02742 I-2.91517 J6.20569
G3 X-30.39518 Y145.10146 I-3.13634 J6.55267
G3 X-28.41269 Y146.11357 I-34.47812 J69.98186
G3 X-28.40875 Y146.11566 I-1.40208 J2.6522
G3 X-23.6612 Y148.85352 I-36.37446 J68.55985
G3 X-23.48592 Y148.96335 I-4.6262 J7.57783
G3 X-19.09053 Y151.93775 I-41.53381 J66.11093
G3 X-19.0896 Y151.93843 I-1.76481 J2.42599
G3 X-14.75239 Y155.35327 I-43.13705 J59.25034
G3 X-14.74931 Y155.3559 I-1.94328 J2.28553
G3 X-12.67368 Y157.20641 I-40.76789 J47.81692
G3 X-12.66743 Y157.21224 I-2.04546 J2.19456
G1 X-12.54665 Y157.32547
G3 X-12.53657 Y157.33496 I-2.05171 J2.18872
G1 X-12.31109 Y157.54828
G3 X-12.29852 Y157.56025 I-2.06178 J2.17923
G1 X-12.10235 Y157.748
G3 X-12.09108 Y157.75885 I-2.07436 J2.16726
G1 X-11.92026 Y157.92406
G3 X-11.91255 Y157.93154 I-2.08563 J2.15642
G1 X-11.83807 Y158.0041
G3 X-11.82665 Y158.01529 I-2.09334 J2.14894
G1 X-11.54888 Y158.28877
G3 X-11.53267 Y158.30485 I-2.10476 J2.13775
G1 X-11.32589 Y158.51157
G3 X-11.32062 Y158.51684 I-2.12097 J2.12167
G3 X-10.66279 Y159.19312 I-29.04516 J28.9108
G3 X-9.48159 Y160.49419 I-25.80255 J24.61209
G3 X-7.81135 Y162.60257 I-22.39832 J19.45944
G3 X-7.01913 Y163.78222 I-16.42347 J11.88547
G3 X-7.00562 Y163.80415 I-2.54758 J1.58425
G1 X-6.84758 Y164.06322
G3 X-6.83218 Y164.08876 I-2.56109 J1.56231
G3 X-6.28833 Y165.08273 I-13.09495 J7.81061
G3 X-6.28028 Y165.09896 I-2.6835 J1.34121
G1 X0.0 Y177.8567
G1 X3.78436 Y170.16917
G0 Z3.0
G0 X1.26195 Y164.72902
G0 Z1.0
G1 F300.0 Z-2.0
G3 F800.0 X-2.69038 Y163.33471 I-1.26195 J-2.72167
G2 X-3.67621 Y161.57556 I-17.24275 J8.50709
G3 X-3.68716 Y161.55808 I2.53656 J-1.60184
G2 X-4.05024 Y160.99731 I-15.57779 J9.68824
G3 X-4.05065 Y160.99671 I2.48813 J-1.67607
G1 X-4.15673 Y160.83915
G1 X-4.39419 Y160.49512
G1 X-4.63885 Y160.15202
G2 X-4.79332 Y159.94094 I-36.86221 J26.81424
G1 X-5.02328 Y159.63386
G2 X-5.94448 Y158.47601 I-27.69638 J21.0903
G1 X-6.23499 Y158.13103
G2 X-7.05865 Y157.19555 I-25.53331 J21.6509
G3 X-7.06392 Y157.18978 I2.21432 J-2.02405
G2 X-7.93424 Y156.25883 I-34.11792 J31.02344
G1 X-8.19922 Y155.9853
G2 X-8.88082 Y155.3005 I-29.87573 J29.05434
G3 X-8.88188 Y155.29945 I2.10161 J-2.14085
G2 X-12.08404 Y152.36827 I-42.98141 J43.74018
G3 X-12.08516 Y152.36731 I1.94603 J-2.28319
G2 X-15.73446 Y149.44509 I-48.74623 J57.13493
G3 X-15.73657 Y149.4435 I1.80138 J-2.39896
G2 X-19.7056 Y146.64139 I-48.33102 J64.24618
G3 X-19.7078 Y146.63994 I1.65539 J-2.50194
G2 X-23.87939 Y144.05291 I-44.78081 J67.55249
G1 X-23.87965 Y144.05277
G2 X-28.17109 Y141.73928 I-40.07867 J69.20749
G3 X-28.17177 Y141.73893 I1.34244 J-2.68288
G2 X-32.56856 Y139.69435 I-37.52581 J74.94784
G3 X-32.57229 Y139.69274 I1.18576 J-2.75572
G2 X-36.05582 Y138.26271 I-41.10822 J95.18075
G1 X-36.5649 Y138.06484
G1 X-37.14232 Y137.84329
G1 X-37.97191 Y137.52992
G1 X-38.80468 Y137.2206
G1 X-39.35922 Y137.01723
G1 X-40.10326 Y136.74724
G1 X-41.10087 Y136.3897
G1 X-41.67089 Y136.18733
G1 X-41.97324 Y136.08047
G1 X-43.40205 Y135.5791
G1 X-44.83408 Y135.08052
G1 X-45.79096 Y134.74831
G1 X-45.7914 Y134.74815
G1 X-47.02737 Y134.31882
G3 X-47.19485 Y134.26054 I1.21777 J-3.76903
G1 X-48.68701 Y133.73983
G3 X-48.69482 Y133.73709 I0.98843 J-2.83249
G1 X-50.22636 Y133.1979
G3 X-50.23531 Y133.19473 I0.99625 J-2.82975
G1 X-51.25512 Y132.83206
G3 X-51.26538 Y132.82839 I1.0052 J-2.82658
G1 X-52.59799 Y132.34903
G3 X-52.67303 Y132.32222 I1.21002 J-3.50619
G3 X-52.74304 Y132.29654 I1.24328 J-3.49783
G3 X-56.06663 Y131.06632 I83.70151 J-231.23302
G3 X-56.07348 Y131.06371 I1.06164 J-2.80587
G1 X-57.17316 Y130.64456
G3 X-57.17862 Y130.64247 I1.0685 J-2.80327
G3 X-58.66404 Y130.0655 I65.19682 J-170.05108
G3 X-63.81817 Y127.95583 I68.37105 J-174.38803
G3 X-63.82146 Y127.95442 I1.17758 J-2.75922
G1 X-64.15742 Y127.81057
G3 X-64.16701 Y127.80644 I1.18088 J-2.75781
G1 X-64.93381 Y127.47494
G3 X-64.93906 Y127.47267 I1.19047 J-2.75369
G3 X-71.45884 Y124.4658 I64.56396 J-148.56587
G3 X-71.46892 Y124.46086 I1.31646 J-2.69573
G1 X-72.39538 Y124.00412
G3 X-72.41397 Y123.99487 I1.32654 J-2.69078
G1 X-73.33729 Y123.53171
G3 X-73.35293 Y123.52381 I1.34513 J-2.68153
G1 X-73.96661 Y123.21147
G3 X-73.98133 Y123.20392 I1.36077 J-2.67363
G1 X-74.79732 Y122.78294
G3 X-74.80639 Y122.77824 I1.37549 J-2.66609
G3 X-78.10987 Y121.00597 I68.11297 J-130.92619
G1 X-78.1099 Y121.00595
G1 X-78.10983 Y121.00599
G1 X-78.10987 Y121.00597
G3 X-81.4665 Y119.0865 I65.08506 J-117.71056
G3 X-84.77056 Y117.06917 I65.00929 J-110.18921
G3 X-84.77717 Y117.06498 I1.60188 J-2.53653
G1 X-85.41184 Y116.66185
G3 X-85.42701 Y116.65216 I1.60848 J-2.53235
G1 X-86.05905 Y116.24535
G1 X-86.0592 Y116.24526
G1 X-86.0589 Y116.24545
G1 X-86.05905 Y116.24535
G3 X-86.47836 Y115.97266 I27.90896 J-43.37303
G3 X-86.6109 Y115.88629 I3.18492 J-5.03262
G3 X-86.73305 Y115.80619 I3.26901 J-5.11821
G3 X-86.86325 Y115.72059 I3.33898 J-5.22025
G3 X-87.01336 Y115.62139 I3.41314 J-5.32776
G3 X-87.07408 Y115.58115 I2.95544 J-4.52609
G3 X-87.14793 Y115.53227 I2.97351 J-4.57259
G3 X-87.22414 Y115.48175 I3.00344 J-4.61323
G3 X-87.32011 Y115.41776 I3.03436 J-4.65509
G3 X-89.79596 Y113.72803 I65.5463 J-98.69969
G3 X-90.50399 Y113.22825 I43.83528 J-62.85101
G3 X-91.30693 Y112.65212 I49.18128 J-69.39084
G3 X-95.47728 Y109.4889 I66.73895 J-92.31851
G3 X-95.76991 Y109.25545 I12.03288 J-15.38311
G3 X-97.21084 Y108.08208 I65.06169 J-81.36933
G3 X-97.21482 Y108.07878 I1.91498 J-2.30929
G1 X-97.58742 Y107.76871
G3 X-97.59301 Y107.76405 I1.91896 J-2.30599
G3 X-101.28064 Y104.53546 I69.41829 J-83.0084
G3 X-101.28937 Y104.52743 I2.02679 J-2.21182
G1 X-101.78951 Y104.06548
G3 X-101.80096 Y104.05484 I2.03552 J-2.20379
G1 X-102.06643 Y103.80707
G1 X-102.06668 Y103.80683
G3 X-103.51501 Y102.42326 I59.52001 J-63.75562
G3 X-107.51675 Y98.28906 I68.57188 J-70.37855
G3 X-107.51756 Y98.28816 I2.21574 J-2.0225
G3 X-108.79847 Y96.85402 I68.22976 J-62.22884
G3 X-108.80091 Y96.85123 I2.25817 J-1.97501
G1 X-108.95875 Y96.67031
G3 X-108.96024 Y96.6686 I2.26061 J-1.97222
G3 X-113.84432 Y90.53515 I66.99664 J-58.36087
G3 X-115.91097 Y87.55547 I66.10343 J-48.05476
G3 X-115.91239 Y87.55332 I2.50243 J-1.65464
G1 X-116.04071 Y87.35889
G3 X-116.04271 Y87.35586 I2.50385 J-1.6525
G3 X-118.09259 Y84.07425 I67.90963 J-44.70118
G1 X-118.09272 Y84.07403
G3 X-121.65068 Y77.35055 I68.57254 J-40.59065
G3 X-121.65163 Y77.34853 I2.71557 J-1.27503
G3 X-124.49861 Y70.42218 I70.30582 J-32.94653
G3 X-124.49928 Y70.42029 I2.82652 J-1.00538
G3 X-126.52496 Y63.8086 I74.46032 J-26.42923
G3 X-126.52723 Y63.79977 I2.9041 J-0.75245
G1 X-126.63721 Y63.36994
G3 X-126.63938 Y63.36141 I2.90638 J-0.74363
G3 X-128.10589 Y56.23078 I78.94502 J-19.95219
G1 X-128.10596 Y56.23036
G3 X-128.9157 Y49.54423 I88.81211 J-14.14801
G3 X-128.91626 Y49.53748 I2.98966 J-0.24892
G1 X-128.9513 Y49.10481
G3 X-128.95202 Y49.09573 I2.99021 J-0.24217
G3 X-129.24116 Y42.89618 I99.27359 J-7.73652
G3 X-129.25181 Y41.99637 I52.99696 J-1.07722
G3 X-129.11357 Y35.42807 I118.65047 J-0.78841
G3 X-129.11342 Y35.42502 I2.99644 J0.14614
G1 X-129.09217 Y34.99825
G3 X-129.09133 Y34.98227 I2.99629 J0.14919
G1 X-129.0389 Y34.03135
G3 X-129.03807 Y34.01694 I2.99545 J0.16516
G1 X-129.01907 Y33.70001
G3 X-129.01856 Y33.69178 I2.99462 J0.17958
G1 X-128.99206 Y33.2693
G3 X-128.99136 Y33.2585 I2.99412 J0.18781
G1 X-128.954 Y32.6954
G3 X-128.95335 Y32.68586 I2.99342 J0.19862
G1 X-128.93097 Y32.3641
G3 X-128.93045 Y32.35678 I2.99277 J0.20816
G1 X-128.90398 Y31.98916
G3 X-128.90294 Y31.97517 I2.99225 J0.21548
G1 X-128.82776 Y30.99514
G3 X-128.82747 Y30.9914 I2.99121 J0.22947
G3 X-128.71415 Y29.64887 I105.04717 J8.19087
G1 X-128.68303 Y29.30237
G3 X-128.68242 Y29.29564 I2.98798 J0.2683
G1 X-128.64825 Y28.92444
G3 X-128.64759 Y28.91738 I2.98737 J0.27502
G1 X-128.6102 Y28.52151
G3 X-128.6095 Y28.51413 I2.98671 J0.28208
G1 X-128.56857 Y28.09199
G3 X-128.56727 Y28.07882 I2.986 J0.28946
G1 X-128.45755 Y26.99672
G3 X-128.45566 Y26.97859 I2.9847 J0.30263
G1 X-128.33936 Y25.89719
G3 X-128.33814 Y25.88603 I2.9828 J0.32077
G1 X-128.30375 Y25.57714
G3 X-128.30318 Y25.572 I2.98158 J0.33193
G1 X-128.26327 Y25.2191
G3 X-128.26215 Y25.20934 I2.981 J0.33707
G1 X-128.15268 Y24.26873
G1 X-128.15267 Y24.26865
G1 X-128.15268 Y24.2688
G1 Y24.26873
G3 X-127.99661 Y22.98672 I120.58861 J14.02932
G3 X-127.78017 Y21.30034 I257.02179 J32.13086
G3 X-127.77982 Y21.29771 I2.97432 J0.39167
G3 X-127.31853 Y17.95648 I310.88869 J41.21914
G3 X-126.82401 Y14.62208 I331.19765 J47.41575
G3 X-126.82373 Y14.62029 I2.96529 J0.45506
G1 X-126.55746 Y12.89217
G3 X-126.55655 Y12.88629 I2.96501 J0.45685
G1 X-126.46665 Y12.3104
G3 X-126.46577 Y12.30483 I2.9641 J0.46273
G1 X-126.10186 Y10.00206
G3 X-126.10103 Y9.99684 I2.96323 J0.46829
G1 X-125.85571 Y8.46207
G3 X-125.85545 Y8.46047 I2.9624 J0.47351
G1 X-125.7898 Y8.05118
G3 X-125.78969 Y8.05045 I2.96214 J0.47511
G1 X-125.26762 Y4.80071
G1 X-124.75009 Y1.55339
G1 X-124.53616 Y0.19245
G1 X-124.46572 Y-0.25892
G1 X-124.18531 Y-2.07486
G1 X-124.00179 Y-3.28254
G1 X-123.76072 Y-4.89624
G1 X-123.66329 Y-5.55826
G1 X-123.56673 Y-6.2206
G1 X-123.37553 Y-7.55135
G2 X-123.00673 Y-10.20096 I-375.19481 J-53.57337
G3 X-123.00291 Y-10.2282 I2.9728 J0.40309
G2 X-122.9619 Y-10.53053 I-16.58445 J-2.40381
G3 X-122.95435 Y-10.58605 I2.97632 J0.37621
G2 X-122.91147 Y-10.90421 I-15.2125 J-2.21231
G3 X-122.90442 Y-10.95711 I2.97714 J0.36965
G2 X-122.88451 Y-11.10566 I-9.24089 J-1.31468
G3 X-122.8781 Y-11.15341 I2.97649 J0.37481
G2 X-122.85779 Y-11.30546 I-8.92763 J-1.27015
G3 X-122.85528 Y-11.32499 I2.97685 J0.37198
G1 X-122.6701 Y-12.73183
G1 X-122.48977 Y-14.13935
G3 X-122.48584 Y-14.16883 I2.97568 J0.38125
G2 X-122.47101 Y-14.28641 I-4.93285 J-0.68178
G3 X-122.46205 Y-14.3575 I2.98068 J0.3399
G2 X-122.44613 Y-14.48425 I-5.07258 J-0.70154
G3 X-122.43676 Y-14.55875 I2.98104 J0.33674
G2 X-122.41968 Y-14.69532 I-5.21287 J-0.72139
G3 X-122.41399 Y-14.74278 I2.98142 J0.33339
G2 X-122.27629 Y-15.85922 I-122.07218 J-15.62357
G3 X-122.27077 Y-15.90293 I2.97908 J0.35364
G2 X-122.26133 Y-15.98054 I-3.29743 J-0.44062
G3 X-122.25285 Y-16.05023 I2.98209 J0.32735
G2 X-122.24306 Y-16.13096 I-3.34956 J-0.44724
G3 X-122.23974 Y-16.16002 I2.9823 J0.32538
G1 X-122.04706 Y-17.77948
G1 X-121.86375 Y-19.37729
G2 X-121.68841 Y-20.96512 I-306.05184 J-34.60114
G1 X-121.57463 Y-22.03045
G1 X-121.42785 Y-23.45053
G1 X-121.34692 Y-24.25804
G1 X-121.19094 Y-25.87024
G1 X-121.04205 Y-27.48833
G3 X-121.03871 Y-27.52251 I2.98738 J0.27489
G2 X-121.02691 Y-27.6546 I-4.65567 J-0.4822
G3 X-121.02398 Y-27.69076 I2.9916 J0.2244
G1 X-120.9234 Y-28.84448
G2 X-120.79694 Y-30.36867 I-296.23775 J-25.34616
G3 X-120.79449 Y-30.39732 I2.99036 J0.24037
G2 X-120.78322 Y-30.53787 I-7.18039 J-0.64649
G3 X-120.77878 Y-30.59364 I2.9926 J0.21053
G2 X-120.76697 Y-30.74212 I-7.78669 J-0.69395
G3 X-120.76213 Y-30.80258 I2.99269 J0.20933
G2 X-120.74029 Y-31.08029 I-11.96248 J-1.08016
G3 X-120.73544 Y-31.14288 I2.9933 J0.20043
G2 X-120.71341 Y-31.42734 I-13.56692 J-1.19404
G3 X-120.70953 Y-31.47872 I2.9933 J0.20036
G2 X-120.69533 Y-31.6643 I-12.0962 J-1.01862
G3 X-120.69203 Y-31.70768 I2.99293 J0.20588
G2 X-120.67221 Y-31.96996 I-16.91961 J-1.41067
G3 X-120.67016 Y-31.99813 I2.99313 J0.20292
G2 X-120.58203 Y-33.20687 I-139.78353 J-10.79961
G3 X-120.58189 Y-33.20891 I2.99297 J0.20523
G1 X-120.52489 Y-34.03199
G1 X-120.52488 Y-34.0322
G1 X-120.5249 Y-34.03179
G1 X-120.52489 Y-34.03199
G2 X-120.32549 Y-37.28058 I-210.83533 J-14.57155
G3 X-120.32516 Y-37.28665 I2.99569 J0.16073
G2 X-120.10148 Y-42.60997 I-195.04663 J-10.86209
G1 X-120.09186 Y-42.9655
G1 X-120.08246 Y-43.3435
G1 X-120.07343 Y-43.74449
G1 X-120.05718 Y-44.61987
G1 X-120.04587 Y-45.4956
G1 X-120.04359 Y-45.74426
G3 X-120.04357 Y-45.7461 I2.99987 J0.02744
G2 X-120.04127 Y-47.72715 I-115.23626 J-1.12478
G1 X-120.04611 Y-48.29952
G1 X-120.05478 Y-48.95143
G1 X-120.05752 Y-49.11572
G1 X-120.06057 Y-49.28442
G1 X-120.07827 Y-50.08342
G2 X-120.13977 Y-51.89763 I-97.14069 J2.38479
G1 X-120.16782 Y-52.5143
G2 X-120.31599 Y-54.93312 I-100.34969 J4.93322
G1 X-120.32735 Y-55.08366
G1 X-120.38523 Y-55.80271
G1 X-120.4177 Y-56.17596
G1 X-120.48084 Y-56.85134
G1 X-120.54955 Y-57.52497
G1 X-120.59853 Y-57.97291
G1 X-120.6119 Y-58.09114
G3 X-120.6149 Y-58.11879 I2.98099 J-0.3372
G2 X-120.63944 Y-58.33075 I-8.92584 J0.92595
G3 X-120.64134 Y-58.34591 I2.97578 J-0.38042
G1 X-120.73282 Y-59.0917
G2 X-121.16172 Y-61.96307 I-68.85744 J8.81769
G3 X-121.16185 Y-61.96382 I2.95717 J-0.50515
G2 X-122.34963 Y-67.34908 I-56.47254 J9.63204
G2 X-123.98086 Y-72.29709 I-48.70086 J13.31253
G1 X-124.15736 Y-72.74378
G1 X-124.33815 Y-73.18854
G1 X-124.38794 Y-73.30885
G1 X-124.44817 Y-73.45317
G2 X-124.9418 Y-74.58979 I-48.51874 J20.39611
G2 X-126.0175 Y-76.83041 I-47.52392 J21.43733
G2 X-128.35869 Y-80.94274 I-47.17972 J24.13726
G1 X-128.62696 Y-81.36585
G1 X-128.89798 Y-81.78548
G2 X-129.43923 Y-82.60128 I-48.45878 J31.56285
G3 X-129.44195 Y-82.60531 I2.48572 J-1.67964
G2 X-130.56788 Y-84.21911 I-49.29823 J33.19524
G1 X-130.9095 Y-84.68922
G2 X-133.18254 Y-87.62918 I-59.40998 J43.58417
G1 X-133.52692 Y-88.0498
G2 X-136.03238 Y-90.9451 I-64.47606 J53.26305
G1 X-136.11669 Y-91.03776
G1 X-136.11677 Y-91.03786
G1 X-136.1166 Y-91.03767
G1 X-136.11669 Y-91.03776
G2 X-138.28946 Y-93.32248 I-52.9517 J48.18198
G1 X-138.61671 Y-93.64914
G2 X-139.83871 Y-94.82675 I-36.67417 J36.83377
G1 X-140.26807 Y-95.22414
G1 X-140.37391 Y-95.32077
G2 X-140.98274 Y-95.86596 I-53.74368 J59.40421
G3 X-141.19615 Y-100.14709 I1.98988 J-2.24508
G1 X-99.04783 Y-145.7576
G3 X-95.8907 Y-146.56588 I2.20329 J2.03605
G2 X0.0 Y-130.91593 I95.8907 J-285.94677
G2 X95.8907 Y-146.56588 I0.0 J-301.59672
G3 X99.04783 Y-145.7576 I0.95383 J2.84433
G1 X141.19615 Y-100.14709
G3 X140.98274 Y-95.86596 I-2.20329 J2.03605
G2 X140.37391 Y-95.32077 I53.13486 J59.94939
G1 X140.26807 Y-95.22414
G1 X139.83871 Y-94.82675
G2 X138.61671 Y-93.64914 I35.45217 J38.01138
G1 X138.28946 Y-93.32248
G2 X136.11669 Y-91.03776 I50.77892 J50.46669
G1 X136.1166 Y-91.03767
G1 X136.11677 Y-91.03786
G1 X136.11669 Y-91.03776
G1 X136.03238 Y-90.9451
G2 X133.52692 Y-88.0498 I61.97059 J56.15835
G1 X133.18254 Y-87.62918
G2 X130.9095 Y-84.68922 I57.13694 J46.52413
G1 X130.56788 Y-84.21911
G2 X129.44195 Y-82.60531 I48.1723 J34.80903
G3 X129.43923 Y-82.60128 I-2.48844 J-1.67561
G2 X128.89798 Y-81.78548 I47.91753 J32.37865
G1 X128.62696 Y-81.36585
G1 X128.35869 Y-80.94274
G2 X126.0175 Y-76.83041 I44.83853 J28.24959
G2 X124.9418 Y-74.58979 I46.44822 J23.67795
G2 X124.44817 Y-73.45317 I48.02511 J21.53273
G1 X124.38794 Y-73.30885
G1 X124.33815 Y-73.18854
G1 X124.15736 Y-72.74378
G1 X123.98086 Y-72.29709
G2 X122.34963 Y-67.34908 I47.06963 J18.26053
G2 X121.16185 Y-61.96382 I55.28476 J15.01731
G3 X121.16172 Y-61.96307 I-2.95729 J-0.5044
G2 X120.73282 Y-59.0917 I68.42854 J11.68907
G1 X120.64134 Y-58.34591
G3 X120.63944 Y-58.33075 I-2.97768 J-0.36525
G2 X120.6149 Y-58.11879 I8.9013 J1.13791
G3 X120.6119 Y-58.09114 I-2.98399 J-0.30955
G1 X120.59853 Y-57.97291
G1 X120.54955 Y-57.52497
G1 X120.48084 Y-56.85134
G1 X120.4177 Y-56.17596
G1 X120.38523 Y-55.80271
G1 X120.32735 Y-55.08366
G1 X120.31599 Y-54.93312
G2 X120.16782 Y-52.5143 I100.20152 J7.35204
G1 X120.13977 Y-51.89763
G2 X120.07827 Y-50.08342 I97.07919 J4.19901
G1 X120.06057 Y-49.28442
G1 X120.05752 Y-49.11572
G1 X120.05478 Y-48.95143
G1 X120.04611 Y-48.29952
G1 X120.04127 Y-47.72715
G2 X120.04357 Y-45.7461 I115.23857 J0.85627
G3 X120.04359 Y-45.74426 I-2.99986 J0.02928
G1 X120.04587 Y-45.4956
G1 X120.05718 Y-44.61987
G1 X120.07343 Y-43.74449
G1 X120.08246 Y-43.3435
G1 X120.09186 Y-42.9655
G1 X120.10148 Y-42.60997
G2 X120.32516 Y-37.28665 I195.27031 J-5.53877
G3 X120.32549 Y-37.28058 I-2.99536 J0.16681
G2 X120.52489 Y-34.03199 I211.03473 J-11.32297
G1 X120.5249 Y-34.03179
G1 X120.52488 Y-34.0322
G1 X120.52489 Y-34.03199
G1 X120.58189 Y-33.20891
G3 X120.58203 Y-33.20687 I-2.99283 J0.20726
G2 X120.67016 Y-31.99813 I139.87167 J-9.59087
G3 X120.67221 Y-31.96996 I-2.99109 J0.23109
G2 X120.69203 Y-31.70768 I16.93943 J-1.14839
G3 X120.69533 Y-31.6643 I-2.98963 J0.24926
G2 X120.70953 Y-31.47872 I12.1104 J-0.83304
G3 X120.71341 Y-31.42734 I-2.98942 J0.25174
G2 X120.73544 Y-31.14288 I13.58895 J-0.90958
G3 X120.74029 Y-31.08029 I-2.98845 J0.26302
G2 X120.76213 Y-30.80258 I11.98431 J-0.80246
G3 X120.76697 Y-30.74212 I-2.98784 J0.26979
G2 X120.77878 Y-30.59364 I7.79849 J-0.54547
G3 X120.78322 Y-30.53787 I-2.98816 J0.2663
G2 X120.79449 Y-30.39732 I7.19166 J-0.50594
G3 X120.79694 Y-30.36867 I-2.98791 J0.26902
G2 X120.9234 Y-28.84448 I296.36421 J-23.82196
G1 X121.02398 Y-27.69076
G3 X121.02691 Y-27.6546 I-2.98866 J0.26056
G2 X121.03871 Y-27.52251 I4.66746 J-0.35011
G3 X121.04205 Y-27.48833 I-2.98404 J0.30907
G1 X121.19094 Y-25.87024
G1 X121.34692 Y-24.25804
G1 X121.42785 Y-23.45053
G1 X121.57463 Y-22.03045
G1 X121.68841 Y-20.96512
G2 X121.86375 Y-19.37729 I306.22718 J-33.01331
G1 X122.04706 Y-17.77948
G1 X122.23974 Y-16.16002
G3 X122.24306 Y-16.13096 I-2.97899 J0.35444
G2 X122.25285 Y-16.05023 I3.35935 J-0.36651
G3 X122.26133 Y-15.98054 I-2.97361 J0.39704
G2 X122.27077 Y-15.90293 I3.30688 J-0.363
G3 X122.27629 Y-15.85922 I-2.97357 J0.39735
G2 X122.41399 Y-14.74278 I122.20989 J-14.50714
G3 X122.41968 Y-14.69532 I-2.97573 J0.38085
G2 X122.43676 Y-14.55875 I5.22995 J-0.58482
G3 X122.44613 Y-14.48425 I-2.97168 J0.41124
G2 X122.46205 Y-14.3575 I5.0885 J-0.5748
G3 X122.47101 Y-14.28641 I-2.97171 J0.41099
G2 X122.48584 Y-14.16883 I4.94768 J-0.5642
G3 X122.48977 Y-14.13935 I-2.97175 J0.41073
G1 X122.6701 Y-12.73183
G1 X122.85528 Y-11.32499
G3 X122.85779 Y-11.30546 I-2.97434 J0.39151
G2 X122.8781 Y-11.15341 I8.94794 J-1.1181
G3 X122.88451 Y-11.10566 I-2.97009 J0.42256
G2 X122.90442 Y-10.95711 I9.26081 J-1.16614
G3 X122.91147 Y-10.90421 I-2.97009 J0.42255
G2 X122.95435 Y-10.58605 I15.25539 J-1.89415
G3 X122.9619 Y-10.53053 I-2.96877 J0.43174
G2 X123.00291 Y-10.2282 I16.62546 J-2.10149
G3 X123.00673 Y-10.20096 I-2.96897 J0.43033
G2 X123.37553 Y-7.55135 I375.56361 J-50.92376
G1 X123.56673 Y-6.2206
G1 X123.66329 Y-5.55826
G1 X123.76072 Y-4.89624
G1 X124.00179 Y-3.28254
G1 X124.18531 Y-2.07486
G1 X124.46572 Y-0.25892
G1 X124.53616 Y0.19245
G1 X124.75009 Y1.55339
G1 X125.26762 Y4.80071
G1 X125.78969 Y8.05045
G3 X125.7898 Y8.05118 I-2.96202 J0.47584
G1 X125.85545 Y8.46047
G3 X125.85571 Y8.46207 I-2.96214 J0.47511
G1 X126.10103 Y9.99684
G3 X126.10186 Y10.00206 I-2.9624 J0.47351
G1 X126.46577 Y12.30483
G3 X126.46665 Y12.3104 I-2.96323 J0.46829
G1 X126.55655 Y12.88629
G3 X126.55746 Y12.89217 I-2.9641 J0.46273
G1 X126.82373 Y14.62029
G3 X126.82401 Y14.62208 I-2.96501 J0.45685
G3 X127.31853 Y17.95648 I-330.70313 J50.75015
G3 X127.77982 Y21.29771 I-310.4274 J44.56036
G3 X127.78017 Y21.30034 I-2.97397 J0.3943
G3 X127.99661 Y22.98672 I-256.80535 J33.81724
G3 X128.15268 Y24.26873 I-120.43255 J15.31132
G1 Y24.2688
G1 X128.15267 Y24.26865
G1 X128.15268 Y24.26873
G1 X128.26215 Y25.20934
G3 X128.26327 Y25.2191 I-2.97988 J0.34683
G1 X128.30318 Y25.572
G3 X128.30375 Y25.57714 I-2.981 J0.33707
G1 X128.33814 Y25.88603
G3 X128.33936 Y25.89719 I-2.98158 J0.33193
G1 X128.45566 Y26.97859
G3 X128.45755 Y26.99672 I-2.9828 J0.32077
G1 X128.56727 Y28.07882
G3 X128.56857 Y28.09199 I-2.9847 J0.30263
G1 X128.6095 Y28.51413
G3 X128.6102 Y28.52151 I-2.986 J0.28946
G1 X128.64759 Y28.91738
G3 X128.64825 Y28.92444 I-2.98671 J0.28208
G1 X128.68242 Y29.29564
G3 X128.68303 Y29.30237 I-2.98737 J0.27502
G1 X128.71415 Y29.64887
G3 X128.82747 Y30.9914 I-104.93385 J9.53339
G3 X128.82776 Y30.99514 I-2.99092 J0.23321
G1 X128.90294 Y31.97517
G3 X128.90398 Y31.98916 I-2.99121 J0.22947
G1 X128.93045 Y32.35678
G3 X128.93097 Y32.3641 I-2.99225 J0.21548
G1 X128.95335 Y32.68586
G3 X128.954 Y32.6954 I-2.99277 J0.20816
G1 X128.99136 Y33.2585
G3 X128.99206 Y33.2693 I-2.99342 J0.19862
G1 X129.01856 Y33.69178
G3 X129.01907 Y33.70001 I-2.99412 J0.18781
G1 X129.03807 Y34.01694
G3 X129.0389 Y34.03135 I-2.99462 J0.17958
G1 X129.09133 Y34.98227
G3 X129.09217 Y34.99825 I-2.99545 J0.16516
G1 X129.11342 Y35.42502
G3 X129.11357 Y35.42807 I-2.99629 J0.14919
G3 X129.25181 Y41.99637 I-118.51223 J5.77989
G3 X129.24116 Y42.89618 I-53.00761 J-0.17741
G3 X128.95202 Y49.09573 I-99.56273 J-1.53696
G3 X128.9513 Y49.10481 I-2.99093 J-0.23309
G1 X128.91626 Y49.53748
G3 X128.9157 Y49.54423 I-2.99021 J-0.24217
G3 X128.10596 Y56.23036 I-89.62186 J-7.46188
G1 X128.10589 Y56.23078
G3 X126.63938 Y63.36141 I-80.41152 J-12.82156
G3 X126.63721 Y63.36994 I-2.90855 J-0.73509
G1 X126.52723 Y63.79977
G3 X126.52496 Y63.8086 I-2.90638 J-0.74363
G3 X124.49928 Y70.42029 I-76.486 J-19.81754
G3 X124.49861 Y70.42218 I-2.82719 J-1.00349
G3 X121.65163 Y77.34853 I-73.1528 J-26.02018
G3 X121.65068 Y77.35055 I-2.71652 J-1.27301
G3 X118.09272 Y84.07403 I-72.1305 J-33.86717
G1 X118.09259 Y84.07425
G3 X116.04271 Y87.35586 I-69.95951 J-41.41958
G3 X116.04071 Y87.35889 I-2.50585 J-1.64946
G1 X115.91239 Y87.55332
G3 X115.91097 Y87.55547 I-2.50385 J-1.6525
G3 X113.84432 Y90.53515 I-68.17008 J-45.07508
G3 X108.96024 Y96.6686 I-71.88072 J-52.22742
G3 X108.95875 Y96.67031 I-2.2621 J-1.97051
G1 X108.80091 Y96.85123
G3 X108.79847 Y96.85402 I-2.26061 J-1.97222
G3 X107.51756 Y98.28816 I-69.51067 J-60.7947
G3 X107.51675 Y98.28906 I-2.21655 J-2.0216
G3 X103.51501 Y102.42326 I-72.57361 J-66.24435
G3 X102.06668 Y103.80683 I-60.96834 J-62.37205
G1 X102.06643 Y103.80707
G1 X101.80096 Y104.05484
G3 X101.78951 Y104.06548 I-2.04697 J-2.19315
G1 X101.28937 Y104.52743
G3 X101.28064 Y104.53546 I-2.03552 J-2.20379
G3 X97.59301 Y107.76405 I-73.10592 J-79.77981
G3 X97.58742 Y107.76871 I-1.92455 J-2.30132
G1 X97.21482 Y108.07878
G3 X97.21084 Y108.08208 I-1.91896 J-2.30599
G3 X95.76991 Y109.25545 I-66.50263 J-80.19596
G3 X95.47728 Y109.4889 I-12.3255 J-15.14966
G3 X91.30693 Y112.65212 I-70.9093 J-89.15528
G3 X90.50399 Y113.22825 I-49.98421 J-68.81472
G3 X89.79596 Y113.72803 I-44.5433 J-62.35122
G3 X87.32011 Y115.41776 I-68.02216 J-97.00996
G3 X87.22414 Y115.48175 I-3.13033 J-4.59111
G3 X87.14793 Y115.53227 I-3.07964 J-4.56271
G3 X87.07408 Y115.58115 I-3.04737 J-4.5237
G3 X87.01336 Y115.62139 I-3.01616 J-4.48585
G3 X86.86325 Y115.72059 I-3.56325 J-5.22856
G3 X86.73305 Y115.80619 I-3.46918 J-5.13465
G3 X86.6109 Y115.88629 I-3.39116 J-5.03811
G3 X86.47836 Y115.97266 I-3.31746 J-4.94625
G3 X86.05905 Y116.24535 I-28.32826 J-43.10034
G1 X86.0589 Y116.24545
G1 X86.0592 Y116.24526
G1 X86.05905 Y116.24535
G1 X85.42701 Y116.65216
G3 X85.41184 Y116.66185 I-1.62365 J-2.52265
G1 X84.77717 Y117.06498
G3 X84.77056 Y117.06917 I-1.60848 J-2.53235
G3 X81.4665 Y119.0865 I-68.31336 J-108.17188
G3 X78.10987 Y121.00597 I-68.4417 J-115.79108
G1 X78.10983 Y121.00599
G1 X78.1099 Y121.00595
G1 X78.10987 Y121.00597
G3 X74.80639 Y122.77824 I-71.41645 J-129.15392
G3 X74.79732 Y122.78294 I-1.38456 J-2.66139
G1 X73.98133 Y123.20392
G3 X73.96661 Y123.21147 I-1.37549 J-2.66609
G1 X73.35293 Y123.52381
G3 X73.33729 Y123.53171 I-1.36077 J-2.67363
G1 X72.41397 Y123.99487
G3 X72.39538 Y124.00412 I-1.34513 J-2.68153
G1 X71.46892 Y124.46086
G3 X71.45884 Y124.4658 I-1.32654 J-2.69078
G3 X64.93906 Y127.47267 I-71.08374 J-145.55901
G3 X64.93381 Y127.47494 I-1.19571 J-2.75141
G1 X64.16701 Y127.80644
G3 X64.15742 Y127.81057 I-1.19047 J-2.75369
G1 X63.82146 Y127.95442
G3 X63.81817 Y127.95583 I-1.18088 J-2.75781
G3 X58.66404 Y130.0655 I-73.52517 J-172.27837
G3 X57.17862 Y130.64247 I-66.68224 J-169.47411
G3 X57.17316 Y130.64456 I-1.07396 J-2.80118
G1 X56.07348 Y131.06371
G3 X56.06663 Y131.06632 I-1.0685 J-2.80327
G3 X52.74304 Y132.29654 I-87.02509 J-230.0028
G3 X52.67303 Y132.32222 I-1.31329 J-3.47215
G3 X52.59799 Y132.34903 I-1.28507 J-3.47938
G1 X51.26538 Y132.82839
G3 X51.25512 Y132.83206 I-1.01546 J-2.82291
G1 X50.23531 Y133.19473
G3 X50.22636 Y133.1979 I-1.0052 J-2.82658
G1 X48.69482 Y133.73709
G3 X48.68701 Y133.73983 I-0.99625 J-2.82975
G1 X47.19485 Y134.26054
G3 X47.02737 Y134.31882 I-1.38525 J-3.71074
G1 X45.7914 Y134.74815
G1 X45.79096 Y134.74831
G1 X44.83408 Y135.08052
G1 X43.40205 Y135.5791
G1 X41.97324 Y136.08047
G1 X41.67089 Y136.18733
G1 X41.10087 Y136.3897
G1 X40.10326 Y136.74724
G1 X39.35922 Y137.01723
G1 X38.80468 Y137.2206
G1 X37.97191 Y137.52992
G1 X37.14232 Y137.84329
G1 X36.5649 Y138.06484
G1 X36.05582 Y138.26271
G2 X32.57229 Y139.69274 I37.62469 J96.61078
G3 X32.56856 Y139.69435 I-1.18949 J-2.75411
G2 X28.17177 Y141.73893 I33.12903 J76.99242
G3 X28.17109 Y141.73928 I-1.34313 J-2.68254
G2 X23.87965 Y144.05277 I35.78723 J71.52098
G1 X23.87939 Y144.05291
G2 X19.7078 Y146.63994 I40.60922 J70.13952
G3 X19.7056 Y146.64139 I-1.65758 J-2.50048
G2 X15.73657 Y149.4435 I44.36199 J67.04829
G3 X15.73446 Y149.44509 I-1.80349 J-2.39738
G2 X12.08516 Y152.36731 I45.09694 J60.05716
G3 X12.08404 Y152.36827 I-1.94715 J-2.28224
G2 X8.88188 Y155.29945 I39.77925 J46.67136
G3 X8.88082 Y155.3005 I-2.10268 J-2.1398
G2 X8.19922 Y155.9853 I29.19413 J29.73914
G1 X7.93424 Y156.25883
G2 X7.06392 Y157.18978 I33.2476 J31.9544
G3 X7.05865 Y157.19555 I-2.21959 J-2.01827
G2 X6.23499 Y158.13103 I24.70964 J22.58639
G1 X5.94448 Y158.47601
G2 X5.02328 Y159.63386 I26.77517 J22.24815
G1 X4.79332 Y159.94094
G2 X4.63885 Y160.15202 I36.70773 J27.02532
G1 X4.39419 Y160.49512
G1 X4.15673 Y160.83915
G1 X4.05065 Y160.99671
G3 X4.05024 Y160.99731 I-2.48854 J-1.67546
G2 X3.68716 Y161.55808 I15.21471 J10.24901
G3 X3.67621 Y161.57556 I-2.54751 J-1.58436
G2 X2.69038 Y163.33471 I16.25692 J10.26625
G3 X1.26195 Y164.72902 I-2.69038 J-1.32736
G1 F300.0 Z-4.0
G3 F800.0 X-2.69038 Y163.33471 I-1.26195 J-2.72167
G2 X-3.67621 Y161.57556 I-17.24275 J8.50709
G3 X-3.68716 Y161.55808 I2.53656 J-1.60184
G2 X-4.05024 Y160.99731 I-15.57779 J9.68824
G3 X-4.05065 Y160.99671 I2.48813 J-1.67607
G1 X-4.15673 Y160.83915
G1 X-4.39419 Y160.49512
G1 X-4.63885 Y160.15202
G2 X-4.79332 Y159.94094 I-36.86221 J26.81424
G1 X-5.02328 Y159.63386
G2 X-5.94448 Y158.47601 I-27.69638 J21.0903
G1 X-6.23499 Y158.13103
G2 X-7.05865 Y157.19555 I-25.53331 J21.6509
G3 X-7.06392 Y157.18978 I2.21432 J-2.02405
G2 X-7.93424 Y156.25883 I-34.11792 J31.02344
G1 X-8.19922 Y155.9853
G2 X-8.88082 Y155.3005 I-29.87573 J29.05434
G3 X-8.88188 Y155.29945 I2.10161 J-2.14085
G2 X-12.08404 Y152.36827 I-42.98141 J43.74018
G3 X-12.08516 Y152.36731 I1.94603 J-2.28319
G2 X-15.73446 Y149.44509 I-48.74623 J57.13493
G3 X-15.73657 Y149.4435 I1.80138 J-2.39896
G2 X-19.7056 Y146.64139 I-48.33102 J64.24618
G3 X-19.7078 Y146.63994 I1.65539 J-2.50194
G2 X-23.87939 Y144.05291 I-44.78081 J67.55249
G1 X-23.87965 Y144.05277
G2 X-28.17109 Y141.73928 I-40.07867 J69.20749
G3 X-28.17177 Y141.73893 I1.34244 J-2.68288
G2 X-32.56856 Y139.69435 I-37.52581 J74.94784
G3 X-32.57229 Y139.69274 I1.18576 J-2.75572
G2 X-36.05582 Y138.26271 I-41.10822 J95.18075
G1 X-36.5649 Y138.06484
G1 X-37.14232 Y137.84329
G1 X-37.97191 Y137.52992
G1 X-38.80468 Y137.2206
G1 X-39.35922 Y137.01723
G1 X-40.10326 Y136.74724
G1 X-41.10087 Y136.3897
G1 X-41.67089 Y136.18733
G1 X-41.97324 Y136.08047
G1 X-43.40205 Y135.5791
G1 X-44.83408 Y135.08052
G1 X-45.79096 Y134.74831
G1 X-45.7914 Y134.74815
G1 X-47.02737 Y134.31882
G3 X-47.19485 Y134.26054 I1.21777 J-3.76903
G1 X-48.68701 Y133.73983
G3 X-48.69482 Y133.73709 I0.98843 J-2.83249
G1 X-50.22636 Y133.1979
G3 X-50.23531 Y133.19473 I0.99625 J-2.82975
G1 X-51.25512 Y132.83206
G3 X-51.26538 Y132.82839 I1.0052 J-2.82658
G1 X-52.59799 Y132.34903
G3 X-52.67303 Y132.32222 I1.21002 J-3.50619
G3 X-52.74304 Y132.29654 I1.24328 J-3.49783
G3 X-56.06663 Y131.06632 I83.70151 J-231.23302
G3 X-56.07348 Y131.06371 I1.06164 J-2.80587
G1 X-57.17316 Y130.64456
G3 X-57.17862 Y130.64247 I1.0685 J-2.80327
G3 X-58.66404 Y130.0655 I65.19682 J-170.05108
G3 X-63.81817 Y127.95583 I68.37105 J-174.38803
G3 X-63.82146 Y127.95442 I1.17758 J-2.75922
G1 X-64.15742 Y127.81057
G3 X-64.16701 Y127.80644 I1.18088 J-2.75781
G1 X-64.93381 Y127.47494
G3 X-64.93906 Y127.47267 I1.19047 J-2.75369
G3 X-71.45884 Y124.4658 I64.56396 J-148.56587
G3 X-71.46892 Y124.46086 I1.31646 J-2.69573
G1 X-72.39538 Y124.00412
G3 X-72.41397 Y123.99487 I1.32654 J-2.69078
G1 X-73.33729 Y123.53171
G3 X-73.35293 Y123.52381 I1.34513 J-2.68153
G1 X-73.96661 Y123.21147
G3 X-73.98133 Y123.20392 I1.36077 J-2.67363
G1 X-74.79732 Y122.78294
G3 X-74.80639 Y122.77824 I1.37549 J-2.66609
G3 X-78.10987 Y121.00597 I68.11297 J-130.92619
G1 X-78.1099 Y121.00595
G1 X-78.10983 Y121.00599
G1 X-78.10987 Y121.00597
G3 X-81.4665 Y119.0865 I65.08506 J-117.71056
G3 X-84.77056 Y117.06917 I65.00929 J-110.18921
G3 X-84.77717 Y117.06498 I1.60188 J-2.53653
G1 X-85.41184 Y116.66185
G3 X-85.42701 Y116.65216 I1.60848 J-2.53235
G1 X-86.05905 Y116.24535
G1 X-86.0592 Y116.24526
G1 X-86.0589 Y116.24545
G1 X-86.05905 Y116.24535
G3 X-86.47836 Y115.97266 I27.90896 J-43.37303
G3 X-86.6109 Y115.88629 I3.18492 J-5.03262
G3 X-86.73305 Y115.80619 I3.26901 J-5.11821
G3 X-86.86325 Y115.72059 I3.33898 J-5.22025
G3 X-87.01336 Y115.62139 I3.41314 J-5.32776
G3 X-87.07408 Y115.58115 I2.95544 J-4.52609
G3 X-87.14793 Y115.53227 I2.97351 J-4.57259
G3 X-87.22414 Y115.48175 I3.00344 J-4.61323
G3 X-87.32011 Y115.41776 I3.03436 J-4.65509
G3 X-89.79596 Y113.72803 I65.5463 J-98.69969
G3 X-90.50399 Y113.22825 I43.83528 J-62.85101
G3 X-91.30693 Y112.65212 I49.18128 J-69.39084
G3 X-95.47728 Y109.4889 I66.73895 J-92.31851
G3 X-95.76991 Y109.25545 I12.03288 J-15.38311
G3 X-97.21084 Y108.08208 I65.06169 J-81.36933
G3 X-97.21482 Y108.07878 I1.91498 J-2.30929
G1 X-97.58742 Y107.76871
G3 X-97.59301 Y107.76405 I1.91896 J-2.30599
G3 X-101.28064 Y104.53546 I69.41829 J-83.0084
G3 X-101.28937 Y104.52743 I2.02679 J-2.21182
G1 X-101.78951 Y104.06548
G3 X-101.80096 Y104.05484 I2.03552 J-2.20379
G1 X-102.06643 Y103.80707
G1 X-102.06668 Y103.80683
G3 X-103.51501 Y102.42326 I59.52001 J-63.75562
G3 X-107.51675 Y98.28906 I68.57188 J-70.37855
G3 X-107.51756 Y98.28816 I2.21574 J-2.0225
G3 X-108.79847 Y96.85402 I68.22976 J-62.22884
G3 X-108.80091 Y96.85123 I2.25817 J-1.97501
G1 X-108.95875 Y96.67031
G3 X-108.96024 Y96.6686 I2.26061 J-1.97222
G3 X-113.84432 Y90.53515 I66.99664 J-58.36087
G3 X-115.91097 Y87.55547 I66.10343 J-48.05476
G3 X-115.91239 Y87.55332 I2.50243 J-1.65464
G1 X-116.04071 Y87.35889
G3 X-116.04271 Y87.35586 I2.50385 J-1.6525
G3 X-118.09259 Y84.07425 I67.90963 J-44.70118
G1 X-118.09272 Y84.07403
G3 X-121.65068 Y77.35055 I68.57254 J-40.59065
G3 X-121.65163 Y77.34853 I2.71557 J-1.27503
G3 X-124.49861 Y70.42218 I70.30582 J-32.94653
G3 X-124.49928 Y70.42029 I2.82652 J-1.00538
G3 X-126.52496 Y63.8086 I74.46032 J-26.42923
G3 X-126.52723 Y63.79977 I2.9041 J-0.75245
G1 X-126.63721 Y63.36994
G3 X-126.63938 Y63.36141 I2.90638 J-0.74363
G3 X-128.10589 Y56.23078 I78.94502 J-19.95219
G1 X-128.10596 Y56.23036
G3 X-128.9157 Y49.54423 I88.81211 J-14.14801
G3 X-128.91626 Y49.53748 I2.98966 J-0.24892
G1 X-128.9513 Y49.10481
G3 X-128.95202 Y49.09573 I2.99021 J-0.24217
G3 X-129.24116 Y42.89618 I99.27359 J-7.73652
G3 X-129.25181 Y41.99637 I52.99696 J-1.07722
G3 X-129.11357 Y35.42807 I118.65047 J-0.78841
G3 X-129.11342 Y35.42502 I2.99644 J0.14614
G1 X-129.09217 Y34.99825
G3 X-129.09133 Y34.98227 I2.99629 J0.14919
G1 X-129.0389 Y34.03135
G3 X-129.03807 Y34.01694 I2.99545 J0.16516
G1 X-129.01907 Y33.70001
G3 X-129.01856 Y33.69178 I2.99462 J0.17958
G1 X-128.99206 Y33.2693
G3 X-128.99136 Y33.2585 I2.99412 J0.18781
G1 X-128.954 Y32.6954
G3 X-128.95335 Y32.68586 I2.99342 J0.19862
G1 X-128.93097 Y32.3641
G3 X-128.93045 Y32.35678 I2.99277 J0.20816
G1 X-128.90398 Y31.98916
G3 X-128.90294 Y31.97517 I2.99225 J0.21548
G1 X-128.82776 Y30.99514
G3 X-128.82747 Y30.9914 I2.99121 J0.22947
G3 X-128.71415 Y29.64887 I105.04717 J8.19087
G1 X-128.68303 Y29.30237
G3 X-128.68242 Y29.29564 I2.98798 J0.2683
G1 X-128.64825 Y28.92444
G3 X-128.64759 Y28.91738 I2.98737 J0.27502
G1 X-128.6102 Y28.52151
G3 X-128.6095 Y28.51413 I2.98671 J0.28208
G1 X-128.56857 Y28.09199
G3 X-128.56727 Y28.07882 I2.986 J0.28946
G1 X-128.45755 Y26.99672
G3 X-128.45566 Y26.97859 I2.9847 J0.30263
G1 X-128.33936 Y25.89719
G3 X-128.33814 Y25.88603 I2.9828 J0.32077
G1 X-128.30375 Y25.57714
G3 X-128.30318 Y25.572 I2.98158 J0.33193
G1 X-128.26327 Y25.2191
G3 X-128.26215 Y25.20934 I2.981 J0.33707
G1 X-128.15268 Y24.26873
G1 X-128.15267 Y24.26865
G1 X-128.15268 Y24.2688
G1 Y24.26873
G3 X-127.99661 Y22.98672 I120.58861 J14.02932
G3 X-127.78017 Y21.30034 I257.02179 J32.13086
G3 X-127.77982 Y21.29771 I2.97432 J0.39167
G3 X-127.31853 Y17.95648 I310.88869 J41.21914
G3 X-126.82401 Y14.62208 I331.19765 J47.41575
G3 X-126.82373 Y14.62029 I2.96529 J0.45506
G1 X-126.55746 Y12.89217
G3 X-126.55655 Y12.88629 I2.96501 J0.45685
G1 X-126.46665 Y12.3104
G3 X-126.46577 Y12.30483 I2.9641 J0.46273
G1 X-126.10186 Y10.00206
G3 X-126.10103 Y9.99684 I2.96323 J0.46829
G1 X-125.85571 Y8.46207
G3 X-125.85545 Y8.46047 I2.9624 J0.47351
G1 X-125.7898 Y8.05118
G3 X-125.78969 Y8.05045 I2.96214 J0.47511
G1 X-125.26762 Y4.80071
G1 X-124.75009 Y1.55339
G1 X-124.53616 Y0.19245
G1 X-124.46572 Y-0.25892
G1 X-124.18531 Y-2.07486
G1 X-124.00179 Y-3.28254
G1 X-123.76072 Y-4.89624
G1 X-123.66329 Y-5.55826
G1 X-123.56673 Y-6.2206
G1 X-123.37553 Y-7.55135
G2 X-123.00673 Y-10.20096 I-375.19481 J-53.57337
G3 X-123.00291 Y-10.2282 I2.9728 J0.40309
G2 X-122.9619 Y-10.53053 I-16.58445 J-2.40381
G3 X-122.95435 Y-10.58605 I2.97632 J0.37621
G2 X-122.91147 Y-10.90421 I-15.2125 J-2.21231
G3 X-122.90442 Y-10.95711 I2.97714 J0.36965
G2 X-122.88451 Y-11.10566 I-9.24089 J-1.31468
G3 X-122.8781 Y-11.15341 I2.97649 J0.37481
G2 X-122.85779 Y-11.30546 I-8.92763 J-1.27015
G3 X-122.85528 Y-11.32499 I2.97685 J0.37198
G1 X-122.6701 Y-12.73183
G1 X-122.48977 Y-14.13935
G3 X-122.48584 Y-14.16883 I2.97568 J0.38125
G2 X-122.47101 Y-14.28641 I-4.93285 J-0.68178
G3 X-122.46205 Y-14.3575 I2.98068 J0.3399
G2 X-122.44613 Y-14.48425 I-5.07258 J-0.70154
G3 X-122.43676 Y-14.55875 I2.98104 J0.33674
G2 X-122.41968 Y-14.69532 I-5.21287 J-0.72139
G3 X-122.41399 Y-14.74278 I2.98142 J0.33339
G2 X-122.27629 Y-15.85922 I-122.07218 J-15.62357
G3 X-122.27077 Y-15.90293 I2.97908 J0.35364
G2 X-122.26133 Y-15.98054 I-3.29743 J-0.44062
G3 X-122.25285 Y-16.05023 I2.98209 J0.32735
G2 X-122.24306 Y-16.13096 I-3.34956 J-0.44724
G3 X-122.23974 Y-16.16002 I2.9823 J0.32538
G1 X-122.04706 Y-17.77948
G1 X-121.86375 Y-19.37729
G2 X-121.68841 Y-20.96512 I-306.05184 J-34.60114
G1 X-121.57463 Y-22.03045
G1 X-121.42785 Y-23.45053
G1 X-121.34692 Y-24.25804
G1 X-121.19094 Y-25.87024
G1 X-121.04205 Y-27.48833
G3 X-121.03871 Y-27.52251 I2.98738 J0.27489
G2 X-121.02691 Y-27.6546 I-4.65567 J-0.4822
G3 X-121.02398 Y-27.69076 I2.9916 J0.2244
G1 X-120.9234 Y-28.84448
G2 X-120.79694 Y-30.36867 I-296.23775 J-25.34616
G3 X-120.79449 Y-30.39732 I2.99036 J0.24037
G2 X-120.78322 Y-30.53787 I-7.18039 J-0.64649
G3 X-120.77878 Y-30.59364 I2.9926 J0.21053
G2 X-120.76697 Y-30.74212 I-7.78669 J-0.69395
G3 X-120.76213 Y-30.80258 I2.99269 J0.20933
G2 X-120.74029 Y-31.08029 I-11.96248 J-1.08016
G3 X-120.73544 Y-31.14288 I2.9933 J0.20043
G2 X-120.71341 Y-31.42734 I-13.56692 J-1.19404
G3 X-120.70953 Y-31.47872 I2.9933 J0.20036
G2 X-120.69533 Y-31.6643 I-12.0962 J-1.01862
G3 X-120.69203 Y-31.70768 I2.99293 J0.20588
G2 X-120.67221 Y-31.96996 I-16.91961 J-1.41067
G3 X-120.67016 Y-31.99813 I2.99313 J0.20292
G2 X-120.58203 Y-33.20687 I-139.78353 J-10.79961
G3 X-120.58189 Y-33.20891 I2.99297 J0.20523
G1 X-120.52489 Y-34.03199
G1 X-120.52488 Y-34.0322
G1 X-120.5249 Y-34.03179
G1 X-120.52489 Y-34.03199
G2 X-120.32549 Y-37.28058 I-210.83533 J-14.57155
G3 X-120.32516 Y-37.28665 I2.99569 J0.16073
G2 X-120.10148 Y-42.60997 I-195.04663 J-10.86209
G1 X-120.09186 Y-42.9655
G1 X-120.08246 Y-43.3435
G1 X-120.07343 Y-43.74449
G1 X-120.05718 Y-44.61987
G1 X-120.04587 Y-45.4956
G1 X-120.04359 Y-45.74426
G3 X-120.04357 Y-45.7461 I2.99987 J0.02744
G2 X-120.04127 Y-47.72715 I-115.23626 J-1.12478
G1 X-120.04611 Y-48.29952
G1 X-120.05478 Y-48.95143
G1 X-120.05752 Y-49.11572
G1 X-120.06057 Y-49.28442
G1 X-120.07827 Y-50.08342
G2 X-120.13977 Y-51.89763 I-97.14069 J2.38479
G1 X-120.16782 Y-52.5143
G2 X-120.31599 Y-54.93312 I-100.34969 J4.93322
G1 X-120.32735 Y-55.08366
G1 X-120.38523 Y-55.80271
G1 X-120.4177 Y-56.17596
G1 X-120.48084 Y-56.85134
G1 X-120.54955 Y-57.52497
G1 X-120.59853 Y-57.97291
G1 X-120.6119 Y-58.09114
G3 X-120.6149 Y-58.11879 I2.98099 J-0.3372
G2 X-120.63944 Y-58.33075 I-8.92584 J0.92595
G3 X-120.64134 Y-58.34591 I2.97578 J-0.38042
G1 X-120.73282 Y-59.0917
G2 X-121.16172 Y-61.96307 I-68.85744 J8.81769
G3 X-121.16185 Y-61.96382 I2.95717 J-0.50515
G2 X-122.34963 Y-67.34908 I-56.47254 J9.63204
G2 X-123.98086 Y-72.29709 I-48.70086 J13.31253
G1 X-124.15736 Y-72.74378
G1 X-124.33815 Y-73.18854
G1 X-124.38794 Y-73.30885
G1 X-124.44817 Y-73.45317
G2 X-124.9418 Y-74.58979 I-48.51874 J20.39611
G2 X-126.0175 Y-76.83041 I-47.52392 J21.43733
G2 X-128.35869 Y-80.94274 I-47.17972 J24.13726
G1 X-128.62696 Y-81.36585
G1 X-128.89798 Y-81.78548
G2 X-129.43923 Y-82.60128 I-48.45878 J31.56285
G3 X-129.44195 Y-82.60531 I2.48572 J-1.67964
G2 X-130.56788 Y-84.21911 I-49.29823 J33.19524
G1 X-130.9095 Y-84.68922
G2 X-133.18254 Y-87.62918 I-59.40998 J43.58417
G1 X-133.52692 Y-88.0498
G2 X-136.03238 Y-90.9451 I-64.47606 J53.26305
G1 X-136.11669 Y-91.03776
G1 X-136.11677 Y-91.03786
G1 X-136.1166 Y-91.03767
G1 X-136.11669 Y-91.03776
G2 X-138.28946 Y-93.32248 I-52.9517 J48.18198
G1 X-138.61671 Y-93.64914
G2 X-139.83871 Y-94.82675 I-36.67417 J36.83377
G1 X-140.26807 Y-95.22414
G1 X-140.37391 Y-95.32077
G2 X-140.98274 Y-95.86596 I-53.74368 J59.40421
G3 X-141.19615 Y-100.14709 I1.98988 J-2.24508
G1 X-99.04783 Y-145.7576
G3 X-95.8907 Y-146.56588 I2.20329 J2.03605
G2 X0.0 Y-130.91593 I95.8907 J-285.94677
G2 X95.8907 Y-146.56588 I0.0 J-301.59672
G3 X99.04783 Y-145.7576 I0.95383 J2.84433
G1 X141.19615 Y-100.14709
G3 X140.98274 Y-95.86596 I-2.20329 J2.03605
G2 X140.37391 Y-95.32077 I53.13486 J59.94939
G1 X140.26807 Y-95.22414
G1 X139.83871 Y-94.82675
G2 X138.61671 Y-93.64914 I35.45217 J38.01138
G1 X138.28946 Y-93.32248
G2 X136.11669 Y-91.03776 I50.77892 J50.46669
G1 X136.1166 Y-91.03767
G1 X136.11677 Y-91.03786
G1 X136.11669 Y-91.03776
G1 X136.03238 Y-90.9451
G2 X133.52692 Y-88.0498 I61.97059 J56.15835
G1 X133.18254 Y-87.62918
G2 X130.9095 Y-84.68922 I57.13694 J46.52413
G1 X130.56788 Y-84.21911
G2 X129.44195 Y-82.60531 I48.1723 J34.80903
G3 X129.43923 Y-82.60128 I-2.48844 J-1.67561
G2 X128.89798 Y-81.78548 I47.91753 J32.37865
G1 X128.62696 Y-81.36585
G1 X128.35869 Y-80.94274
G2 X126.0175 Y-76.83041 I44.83853 J28.24959
G2 X124.9418 Y-74.58979 I46.44822 J23.67795
G2 X124.44817 Y-73.45317 I48.02511 J21.53273
G1 X124.38794 Y-73.30885
G1 X124.33815 Y-73.18854
G1 X124.15736 Y-72.74378
G1 X123.98086 Y-72.29709
G2 X122.34963 Y-67.34908 I47.06963 J18.26053
G2 X121.16185 Y-61.96382 I55.28476 J15.01731
G3 X121.16172 Y-61.96307 I-2.95729 J-0.5044
G2 X120.73282 Y-59.0917 I68.42854 J11.68907
G1 X120.64134 Y-58.34591
G3 X120.63944 Y-58.33075 I-2.97768 J-0.36525
G2 X120.6149 Y-58.11879 I8.9013 J1.13791
G3 X120.6119 Y-58.09114 I-2.98399 J-0.30955
G1 X120.59853 Y-57.97291
G1 X120.54955 Y-57.52497
G1 X120.48084 Y-56.85134
G1 X120.4177 Y-56.17596
G1 X120.38523 Y-55.80271
G1 X120.32735 Y-55.08366
G1 X120.31599 Y-54.93312
G2 X120.16782 Y-52.5143 I100.20152 J7.35204
G1 X120.13977 Y-51.89763
G2 X120.07827 Y-50.08342 I97.07919 J4.19901
G1 X120.06057 Y-49.28442
G1 X120.05752 Y-49.11572
G1 X120.05478 Y-48.95143
G1 X120.04611 Y-48.29952
G1 X120.04127 Y-47.72715
G2 X120.04357 Y-45.7461 I115.23857 J0.85627
G3 X120.04359 Y-45.74426 I-2.99986 J0.02928
G1 X120.04587 Y-45.4956
G1 X120.05718 Y-44.61987
G1 X120.07343 Y-43.74449
G1 X120.08246 Y-43.3435
G1 X120.09186 Y-42.9655
G1 X120.10148 Y-42.60997
G2 X120.32516 Y-37.28665 I195.27031 J-5.53877
G3 X120.32549 Y-37.28058 I-2.99536 J0.16681
G2 X120.52489 Y-34.03199 I211.03473 J-11.32297
G1 X120.5249 Y-34.03179
G1 X120.52488 Y-34.0322
G1 X120.52489 Y-34.03199
G1 X120.58189 Y-33.20891
G3 X120.58203 Y-33.20687 I-2.99283 J0.20726
G2 X120.67016 Y-31.99813 I139.87167 J-9.59087
G3 X120.67221 Y-31.96996 I-2.99109 J0.23109
G2 X120.69203 Y-31.70768 I16.93943 J-1.14839
G3 X120.69533 Y-31.6643 I-2.98963 J0.24926
G2 X120.70953 Y-31.47872 I12.1104 J-0.83304
G3 X120.71341 Y-31.42734 I-2.98942 J0.25174
G2 X120.73544 Y-31.14288 I13.58895 J-0.90958
G3 X120.74029 Y-31.08029 I-2.98845 J0.26302
G2 X120.76213 Y-30.80258 I11.98431 J-0.80246
G3 X120.76697 Y-30.74212 I-2.98784 J0.26979
G2 X120.77878 Y-30.59364 I7.79849 J-0.54547
G3 X120.78322 Y-30.53787 I-2.98816 J0.2663
G2 X120.79449 Y-30.39732 I7.19166 J-0.50594
G3 X120.79694 Y-30.36867 I-2.98791 J0.26902
G2 X120.9234 Y-28.84448 I296.36421 J-23.82196
G1 X121.02398 Y-27.69076
G3 X121.02691 Y-27.6546 I-2.98866 J0.26056
G2 X121.03871 Y-27.52251 I4.66746 J-0.35011
G3 X121.04205 Y-27.48833 I-2.98404 J0.30907
G1 X121.19094 Y-25.87024
G1 X121.34692 Y-24.25804
G1 X121.42785 Y-23.45053
G1 X121.57463 Y-22.03045
G1 X121.68841 Y-20.96512
G2 X121.86375 Y-19.37729 I306.22718 J-33.01331
G1 X122.04706 Y-17.77948
G1 X122.23974 Y-16.16002
G3 X122.24306 Y-16.13096 I-2.97899 J0.35444
G2 X122.25285 Y-16.05023 I3.35935 J-0.36651
G3 X122.26133 Y-15.98054 I-2.97361 J0.39704
G2 X122.27077 Y-15.90293 I3.30688 J-0.363
G3 X122.27629 Y-15.85922 I-2.97357 J0.39735
G2 X122.41399 Y-14.74278 I122.20989 J-14.50714
G3 X122.41968 Y-14.69532 I-2.97573 J0.38085
G2 X122.43676 Y-14.55875 I5.22995 J-0.58482
G3 X122.44613 Y-14.48425 I-2.97168 J0.41124
G2 X122.46205 Y-14.3575 I5.0885 J-0.5748
G3 X122.47101 Y-14.28641 I-2.97171 J0.41099
G2 X122.48584 Y-14.16883 I4.94768 J-0.5642
G3 X122.48977 Y-14.13935 I-2.97175 J0.41073
G1 X122.6701 Y-12.73183
G1 X122.85528 Y-11.32499
G3 X122.85779 Y-11.30546 I-2.97434 J0.39151
G2 X122.8781 Y-11.15341 I8.94794 J-1.1181
G3 X122.88451 Y-11.10566 I-2.97009 J0.42256
G2 X122.90442 Y-10.95711 I9.26081 J-1.16614
G3 X122.91147 Y-10.90421 I-2.97009 J0.42255
G2 X122.95435 Y-10.58605 I15.25539 J-1.89415
G3 X122.9619 Y-10.53053 I-2.96877 J0.43174
G2 X123.00291 Y-10.2282 I16.62546 J-2.10149
G3 X123.00673 Y-10.20096 I-2.96897 J0.43033
G2 X123.37553 Y-7.55135 I375.56361 J-50.92376
G1 X123.56673 Y-6.2206
G1 X123.66329 Y-5.55826
G1 X123.76072 Y-4.89624
G1 X124.00179 Y-3.28254
G1 X124.18531 Y-2.07486
G1 X124.46572 Y-0.25892
G1 X124.53616 Y0.19245
G1 X124.75009 Y1.55339
G1 X125.26762 Y4.80071
G1 X125.78969 Y8.05045
G3 X125.7898 Y8.05118 I-2.96202 J0.47584
G1 X125.85545 Y8.46047
G3 X125.85571 Y8.46207 I-2.96214 J0.47511
G1 X126.10103 Y9.99684
G3 X126.10186 Y10.00206 I-2.9624 J0.47351
G1 X126.46577 Y12.30483
G3 X126.46665 Y12.3104 I-2.96323 J0.46829
G1 X126.55655 Y12.88629
G3 X126.55746 Y12.89217 I-2.9641 J0.46273
G1 X126.82373 Y14.62029
G3 X126.82401 Y14.62208 I-2.96501 J0.45685
G3 X127.31853 Y17.95648 I-330.70313 J50.75015
G3 X127.77982 Y21.29771 I-310.4274 J44.56036
G3 X127.78017 Y21.30034 I-2.97397 J0.3943
G3 X127.99661 Y22.98672 I-256.80535 J33.81724
G3 X128.15268 Y24.26873 I-120.43255 J15.31132
G1 Y24.2688
G1 X128.15267 Y24.26865
G1 X128.15268 Y24.26873
G1 X128.26215 Y25.20934
G3 X128.26327 Y25.2191 I-2.97988 J0.34683
G1 X128.30318 Y25.572
G3 X128.30375 Y25.57714 I-2.981 J0.33707
G1 X128.33814 Y25.88603
G3 X128.33936 Y25.89719 I-2.98158 J0.33193
G1 X128.45566 Y26.97859
G3 X128.45755 Y26.99672 I-2.9828 J0.32077
G1 X128.56727 Y28.07882
G3 X128.56857 Y28.09199 I-2.9847 J0.30263
G1 X128.6095 Y28.51413
G3 X128.6102 Y28.52151 I-2.986 J0.28946
G1 X128.64759 Y28.91738
G3 X128.64825 Y28.92444 I-2.98671 J0.28208
G1 X128.68242 Y29.29564
G3 X128.68303 Y29.30237 I-2.98737 J0.27502
G1 X128.71415 Y29.64887
G3 X128.82747 Y30.9914 I-104.93385 J9.53339
G3 X128.82776 Y30.99514 I-2.99092 J0.23321
G1 X128.90294 Y31.97517
G3 X128.90398 Y31.98916 I-2.99121 J0.22947
G1 X128.93045 Y32.35678
G3 X128.93097 Y32.3641 I-2.99225 J0.21548
G1 X128.95335 Y32.68586
G3 X128.954 Y32.6954 I-2.99277 J0.20816
G1 X128.99136 Y33.2585
G3 X128.99206 Y33.2693 I-2.99342 J0.19862
G1 X129.01856 Y33.69178
G3 X129.01907 Y33.70001 I-2.99412 J0.18781
G1 X129.03807 Y34.01694
G3 X129.0389 Y34.03135 I-2.99462 J0.17958
G1 X129.09133 Y34.98227
G3 X129.09217 Y34.99825 I-2.99545 J0.16516
G1 X129.11342 Y35.42502
G3 X129.11357 Y35.42807 I-2.99629 J0.14919
G3 X129.25181 Y41.99637 I-118.51223 J5.77989
G3 X129.24116 Y42.89618 I-53.00761 J-0.17741
G3 X128.95202 Y49.09573 I-99.56273 J-1.53696
G3 X128.9513 Y49.10481 I-2.99093 J-0.23309
G1 X128.91626 Y49.53748
G3 X128.9157 Y49.54423 I-2.99021 J-0.24217
G3 X128.10596 Y56.23036 I-89.62186 J-7.46188
G1 X128.10589 Y56.23078
G3 X126.63938 Y63.36141 I-80.41152 J-12.82156
G3 X126.63721 Y63.36994 I-2.90855 J-0.73509
G1 X126.52723 Y63.79977
G3 X126.52496 Y63.8086 I-2.90638 J-0.74363
G3 X124.49928 Y70.42029 I-76.486 J-19.81754
G3 X124.49861 Y70.42218 I-2.82719 J-1.00349
G3 X121.65163 Y77.34853 I-73.1528 J-26.02018
G3 X121.65068 Y77.35055 I-2.71652 J-1.27301
G3 X118.09272 Y84.07403 I-72.1305 J-33.86717
G1 X118.09259 Y84.07425
G3 X116.04271 Y87.35586 I-69.95951 J-41.41958
G3 X116.04071 Y87.35889 I-2.50585 J-1.64946
G1 X115.91239 Y87.55332
G3 X115.91097 Y87.55547 I-2.50385 J-1.6525
G3 X113.84432 Y90.53515 I-68.17008 J-45.07508
G3 X108.96024 Y96.6686 I-71.88072 J-52.22742
G3 X108.95875 Y96.67031 I-2.2621 J-1.97051
G1 X108.80091 Y96.85123
G3 X108.79847 Y96.85402 I-2.26061 J-1.97222
G3 X107.51756 Y98.28816 I-69.51067 J-60.7947
G3 X107.51675 Y98.28906 I-2.21655 J-2.0216
G3 X103.51501 Y102.42326 I-72.57361 J-66.24435
G3 X102.06668 Y103.80683 I-60.96834 J-62.37205
G1 X102.06643 Y103.80707
G1 X101.80096 Y104.05484
G3 X101.78951 Y104.06548 I-2.04697 J-2.19315
G1 X101.28937 Y104.52743
G3 X101.28064 Y104.53546 I-2.03552 J-2.20379
G3 X97.59301 Y107.76405 I-73.10592 J-79.77981
G3 X97.58742 Y107.76871 I-1.92455 J-2.30132
G1 X97.21482 Y108.07878
G3 X97.21084 Y108.08208 I-1.91896 J-2.30599
G3 X95.76991 Y109.25545 I-66.50263 J-80.19596
G3 X95.47728 Y109.4889 I-12.3255 J-15.14966
G3 X91.30693 Y112.65212 I-70.9093 J-89.15528
G3 X90.50399 Y113.22825 I-49.98421 J-68.81472
G3 X89.79596 Y113.72803 I-44.5433 J-62.35122
G3 X87.32011 Y115.41776 I-68.02216 J-97.00996
G3 X87.22414 Y115.48175 I-3.13033 J-4.59111
G3 X87.14793 Y115.53227 I-3.07964 J-4.56271
G3 X87.07408 Y115.58115 I-3.04737 J-4.5237
G3 X87.01336 Y115.62139 I-3.01616 J-4.48585
G3 X86.86325 Y115.72059 I-3.56325 J-5.22856
G3 X86.73305 Y115.80619 I-3.46918 J-5.13465
G3 X86.6109 Y115.88629 I-3.39116 J-5.03811
G3 X86.47836 Y115.97266 I-3.31746 J-4.94625
G3 X86.05905 Y116.24535 I-28.32826 J-43.10034
G1 X86.0589 Y116.24545
G1 X86.0592 Y116.24526
G1 X86.05905 Y116.24535
G1 X85.42701 Y116.65216
G3 X85.41184 Y116.66185 I-1.62365 J-2.52265
G1 X84.77717 Y117.06498
G3 X84.77056 Y117.06917 I-1.60848 J-2.53235
G3 X81.4665 Y119.0865 I-68.31336 J-108.17188
G3 X78.10987 Y121.00597 I-68.4417 J-115.79108
G1 X78.10983 Y121.00599
G1 X78.1099 Y121.00595
G1 X78.10987 Y121.00597
G3 X74.80639 Y122.77824 I-71.41645 J-129.15392
G3 X74.79732 Y122.78294 I-1.38456 J-2.66139
G1 X73.98133 Y123.20392
G3 X73.96661 Y123.21147 I-1.37549 J-2.66609
G1 X73.35293 Y123.52381
G3 X73.33729 Y123.53171 I-1.36077 J-2.67363
G1 X72.41397 Y123.99487
G3 X72.39538 Y124.00412 I-1.34513 J-2.68153
G1 X71.46892 Y124.46086
G3 X71.45884 Y124.4658 I-1.32654 J-2.69078
G3 X64.93906 Y127.47267 I-71.08374 J-145.55901
G3 X64.93381 Y127.47494 I-1.19571 J-2.75141
G1 X64.16701 Y127.80644
G3 X64.15742 Y127.81057 I-1.19047 J-2.75369
G1 X63.82146 Y127.95442
G3 X63.81817 Y127.95583 I-1.18088 J-2.75781
G3 X58.66404 Y130.0655 I-73.52517 J-172.27837
G3 X57.17862 Y130.64247 I-66.68224 J-169.47411
G3 X57.17316 Y130.64456 I-1.07396 J-2.80118
G1 X56.07348 Y131.06371
G3 X56.06663 Y131.06632 I-1.0685 J-2.80327
G3 X52.74304 Y132.29654 I-87.02509 J-230.0028
G3 X52.67303 Y132.32222 I-1.31329 J-3.47215
G3 X52.59799 Y132.34903 I-1.28507 J-3.47938
G1 X51.26538 Y132.82839
G3 X51.25512 Y132.83206 I-1.01546 J-2.82291
G1 X50.23531 Y133.19473
G3 X50.22636 Y133.1979 I-1.0052 J-2.82658
G1 X48.69482 Y133.73709
G3 X48.68701 Y133.73983 I-0.99625 J-2.82975
G1 X47.19485 Y134.26054
G3 X47.02737 Y134.31882 I-1.38525 J-3.71074
G1 X45.7914 Y134.74815
G1 X45.79096 Y134.74831
G1 X44.83408 Y135.08052
G1 X43.40205 Y135.5791
G1 X41.97324 Y136.08047
G1 X41.67089 Y136.18733
G1 X41.10087 Y136.3897
G1 X40.10326 Y136.74724
G1 X39.35922 Y137.01723
G1 X38.80468 Y137.2206
G1 X37.97191 Y137.52992
G1 X37.14232 Y137.84329
G1 X36.5649 Y138.06484
G1 X36.05582 Y138.26271
G2 X32.57229 Y139.69274 I37.62469 J96.61078
G3 X32.56856 Y139.69435 I-1.18949 J-2.75411
G2 X28.17177 Y141.73893 I33.12903 J76.99242
G3 X28.17109 Y141.73928 I-1.34313 J-2.68254
G2 X23.87965 Y144.05277 I35.78723 J71.52098
G1 X23.87939 Y144.05291
G2 X19.7078 Y146.63994 I40.60922 J70.13952
G3 X19.7056 Y146.64139 I-1.65758 J-2.50048
G2 X15.73657 Y149.4435 I44.36199 J67.04829
G3 X15.73446 Y149.44509 I-1.80349 J-2.39738
G2 X12.08516 Y152.36731 I45.09694 J60.05716
G3 X12.08404 Y152.36827 I-1.94715 J-2.28224
G2 X8.88188 Y155.29945 I39.77925 J46.67136
G3 X8.88082 Y155.3005 I-2.10268 J-2.1398
G2 X8.19922 Y155.9853 I29.19413 J29.73914
G1 X7.93424 Y156.25883
G2 X7.06392 Y157.18978 I33.2476 J31.9544
G3 X7.05865 Y157.19555 I-2.21959 J-2.01827
G2 X6.23499 Y158.13103 I24.70964 J22.58639
G1 X5.94448 Y158.47601
G2 X5.02328 Y159.63386 I26.77517 J22.24815
G1 X4.79332 Y159.94094
G2 X4.63885 Y160.15202 I36.70773 J27.02532
G1 X4.39419 Y160.49512
G1 X4.15673 Y160.83915
G1 X4.05065 Y160.99671
G3 X4.05024 Y160.99731 I-2.48854 J-1.67546
G2 X3.68716 Y161.55808 I15.21471 J10.24901
G3 X3.67621 Y161.57556 I-2.54751 J-1.58436
G2 X2.69038 Y163.33471 I16.25692 J10.26625
G3 X1.26195 Y164.72902 I-2.69038 J-1.32736
G1 F300.0 X0.5545 Y168.5792
G3 F800.0 X-0.5545 I-0.5545 J-6.57185
G1 X0.0 Y169.70561
G1 X0.5545 Y168.5792
G1 F300.0 X1.63112 Y169.10919
G1 F800.0 X2.8819 Y166.56837
G3 X-2.8819 I-2.8819 J-4.56101
G1 X0.0 Y172.42264
G1 X1.63112 Y169.10919
G0 Z3.0
G0 X144.14881 Y-96.52222
G0 Z-1.0
G1 F300.0 Z-4.0
G1 F800.0 X145.56879 Y-97.77278
G1 X144.28462 Y-99.16244
G3 X144.14881 Y-96.52222 I-5.29176 J1.05139
G0 Z3.0
G0 X98.30954 Y-148.91404
G0 Z-1.0
G1 F300.0 Z-4.0
G1 F800.0 X98.1924 Y-149.04081
G3 X98.03052 Y-148.98479 I-98.1924 J-283.47185
G3 X98.30954 Y-148.91404 I-1.18598 J5.26323
G0 Z3.0
G0 X-98.03052 Y-148.98479
G0 Z-1.0
G1 F300.0 Z-4.0
G3 F800.0 X-98.1924 Y-149.04081 I98.03052 J-283.52787
G1 X-98.30954 Y-148.91404
G3 X-98.03052 Y-148.98479 I1.46501 J5.19249
G0 Z3.0
G0 X-144.28462 Y-99.16244
G0 Z-1.0
G1 F300.0 Z-4.0
G1 F800.0 X-145.56879 Y-97.77278
G1 X-144.14881 Y-96.52222
G3 X-144.28462 Y-99.16244 I5.15595 J-1.58882
G1 F300.0 X-146.04726 Y-100.79127
G1 F800.0 X-148.99972 Y-97.59629
G1 X-143.63818 Y-92.87448
G3 X-143.46667 Y-92.72268 I-4.35174 J5.08962
G1 X-143.24671 Y-92.52593
G3 X-143.24318 Y-92.52276 I-2.00007 J2.23601
G3 X-142.28151 Y-91.63269 I-28.38711 J31.63506
G3 X-140.67835 Y-90.04948 I-38.57894 J40.66839
G3 X-138.39687 Y-87.59338 I-49.42588 J48.19935
G3 X-138.39296 Y-87.58894 I-2.24694 J1.98777
G1 X-138.12776 Y-87.28797
G3 X-138.11268 Y-87.27073 I-2.25086 J1.98334
G1 X-137.65265 Y-86.74053
G3 X-137.63623 Y-86.72145 I-2.26594 J1.96609
G1 X-137.2946 Y-86.32098
G3 X-137.28252 Y-86.30673 I-2.28236 J1.947
G1 X-137.02816 Y-86.00476
G3 X-137.01542 Y-85.98955 I-2.29444 J1.93276
G1 X-136.63687 Y-85.53407
G3 X-136.62837 Y-85.5238 I-2.30717 J1.91754
G1 X-136.58129 Y-85.46664
G3 X-136.57382 Y-85.45753 I-2.31567 J1.90727
G1 X-136.24597 Y-85.05628
G3 X-136.23502 Y-85.0428 I-2.32314 J1.89816
G1 X-136.01703 Y-84.77282
G3 X-136.00376 Y-84.75627 I-2.33409 J1.88468
G1 X-135.58516 Y-84.23029
G3 X-135.57922 Y-84.22281 I-2.34736 J1.86813
G3 X-132.47331 Y-79.94308 I-50.31615 J39.78262
G3 X-132.47143 Y-79.94023 I-2.49856 J1.66048
G3 X-131.0581 Y-77.68833 I-44.43109 J29.45497
G3 X-130.87477 Y-77.37679 I-13.51447 J8.16255
G3 X-129.74569 Y-75.33254 I-42.82738 J24.98837
G3 X-129.74421 Y-75.32971 I-2.6595 J1.38819
G3 X-126.8726 Y-68.49323 I-39.98401 J20.81636
G3 X-126.3331 Y-66.72644 I-45.46983 J14.85025
G3 X-126.33247 Y-66.72423 I-2.8856 J0.82056
G3 X-125.65189 Y-64.0494 I-48.93345 J13.87446
G3 X-125.11482 Y-61.34869 I-51.50591 J11.64639
G3 X-125.11419 Y-61.34499 I-2.95664 J0.50822
G1 X-125.06979 Y-61.08476
G3 X-125.06739 Y-61.07046 I-2.95727 J0.50451
G1 X-125.02568 Y-60.81866
G3 X-124.93778 Y-60.26422 I-27.93331 J4.7126
G3 X-124.43757 Y-56.15894 I-68.98535 J10.48875
G3 X-124.43655 Y-56.14762 I-2.98742 J0.27445
G1 X-124.37137 Y-55.40737
G3 X-124.36977 Y-55.38855 I-2.98844 J0.26313
G3 X-124.0727 Y-49.64637 I-96.0447 J7.84768
G1 X-124.06877 Y-49.47355
G3 X-124.06854 Y-49.46219 I-2.99923 J0.06816
G1 X-124.05576 Y-48.78752
G3 X-124.05558 Y-48.7767 I-2.99946 J0.05679
G1 X-124.05331 Y-48.62904
G3 X-124.05319 Y-48.6198 I-2.99965 J0.04597
G1 X-124.04618 Y-48.04788
G3 X-124.04607 Y-48.0376 I-2.99978 J0.03673
G3 X-124.07008 Y-43.94566 I-139.31121 J1.2286
G3 X-124.07011 Y-43.94424 I-2.99937 J-0.06166
G1 X-124.07326 Y-43.79464
G3 X-124.07341 Y-43.78794 I-2.99934 J-0.06308
G1 X-124.08721 Y-43.19479
G3 X-124.12073 Y-42.01292 I-109.46466 J-2.51326
G3 X-124.12081 Y-42.01043 I-2.99829 J-0.10124
G1 X-124.1581 Y-40.93259
G3 X-124.15856 Y-40.92023 I-2.99821 J-0.10373
G3 X-124.62248 Y-32.73781 I-228.35428 J-8.84287
G3 X-124.62269 Y-32.73505 I-2.99166 J-0.2235
G1 X-124.69895 Y-31.72687
G3 X-124.69954 Y-31.71921 I-2.99146 J-0.22626
G3 X-125.33199 Y-24.60643 I-334.85175 J-26.18966
G3 X-125.33245 Y-24.60185 I-2.98522 J-0.29745
G1 X-125.46935 Y-23.24898
G3 X-125.47051 Y-23.23772 I-2.98476 J-0.30204
G1 X-125.60223 Y-21.98339
G3 X-125.62145 Y-21.80309 I-9.15136 J-0.88475
G3 X-125.74807 Y-20.64062 I-137.656 J-14.40559
G3 X-125.78284 Y-20.3279 I-12.97853 J-1.28471
G3 X-126.8572 Y-11.59227 I-401.99981 J-45.00628
G3 X-126.85742 Y-11.59062 I-2.97341 J-0.39857
G1 X-126.93042 Y-11.04832
G3 X-126.93091 Y-11.0447 I-2.97318 J-0.40022
G1 X-126.99997 Y-10.53637
G3 X-127.00039 Y-10.53329 I-2.97269 J-0.40385
G3 X-128.10984 Y-2.87255 I-493.912 J-67.61937
G3 X-128.11044 Y-2.86868 I-2.9656 J-0.45302
G1 X-128.32372 Y-1.48458
G3 X-128.32481 Y-1.47756 I-2.965 J-0.4569
G1 X-128.52784 Y-0.18043
G3 X-128.52897 Y-0.17328 I-2.96391 J-0.46391
G1 X-128.9155 Y2.25786
G3 X-128.91633 Y2.26305 I-2.96279 J-0.47107
G1 X-129.25828 Y4.38975
G1 X-129.25835 Y4.39018
G1 X-129.85705 Y8.11018
G1 X-129.96811 Y8.80509
G1 X-130.17542 Y10.1103
G1 X-130.35474 Y11.25009
G1 X-130.66429 Y13.24898
G1 X-130.69222 Y13.43172
G1 X-130.91173 Y14.88384
G1 X-130.99269 Y15.4275
G3 X-130.99278 Y15.42812 I-2.96727 J-0.44191
G2 X-131.5363 Y19.22329 I326.62747 J48.71324
G1 X-131.64477 Y20.01936
G1 X-131.74725 Y20.78779
G1 X-131.84451 Y21.53369
G1 X-131.86746 Y21.71227
G1 X-131.8903 Y21.89111
G1 X-131.91284 Y22.06855
G1 X-131.93506 Y22.24458
G1 X-131.95697 Y22.41923
G1 X-131.97872 Y22.59364
G3 X-131.97903 Y22.59614 I-2.97694 J-0.37123
G2 X-132.58742 Y28.08862 I188.02323 J23.60682
G1 X-132.61171 Y28.3438
G1 X-132.70468 Y29.36133
G1 X-132.78577 Y30.31179
G1 X-132.85679 Y31.20578
G1 X-132.87251 Y31.4131
G2 X-133.08197 Y34.6949 I139.1324 J10.52752
G1 X-133.11291 Y35.31629
G1 X-133.12623 Y35.60326
G1 X-133.13874 Y35.88611
G1 X-133.13877 Y35.88661
G2 X-133.20405 Y44.53193 I117.25882 J5.20843
G1 X-133.17717 Y45.31427
G2 X-132.77123 Y51.27363 I97.8575 J-3.67238
G3 X-132.77092 Y51.27672 I-2.98545 J0.29507
G2 X-131.46405 Y60.12601 I90.62201 J-8.86203
G3 X-131.46394 Y60.12657 I-2.9427 J0.58354
G2 X-129.26673 Y68.7702 I82.02548 J-16.24973
G2 X-127.23039 Y74.50699 I76.83877 J-24.04512
G3 X-127.22985 Y74.50833 I-2.78721 J1.1097
G2 X-125.42353 Y78.70513 I75.78049 J-30.12901
G3 X-125.42262 Y78.70712 I-2.7213 J1.26275
G2 X-122.28818 Y84.80249 I75.42499 J-34.93233
G1 X-122.07511 Y85.17611
G1 X-121.66949 Y85.87548
G1 X-121.30967 Y86.48333
G1 X-121.15197 Y86.74614
G2 X-118.66271 Y90.63366 I73.68387 J-44.44069
G2 X-116.4675 Y93.71749 I72.58882 J-49.34878
G1 X-116.2168 Y94.05248
G1 X-115.9706 Y94.37832
G1 X-115.72483 Y94.70061
G2 X-111.70439 Y99.59482 I74.12047 J-56.78924
G1 X-111.70431 Y99.59491
G1 X-111.70447 Y99.59472
G1 X-111.70439 Y99.59482
G2 X-105.08358 Y106.45168 I77.49208 J-68.19942
G3 X-105.06682 Y106.46763 I-2.05964 J2.18126
G2 X-104.88147 Y106.64232 I10.18054 J-10.61646
G3 X-104.86644 Y106.65633 I-2.0386 J2.20094
G2 X-97.86344 Y112.70184 I75.73482 J-80.65087
G3 X-97.82545 Y112.73247 I-1.86373 J2.35085
G2 X-97.80899 Y112.74551 I0.40299 J-0.49167
G3 X-97.77255 Y112.77387 I-1.82408 J2.38175
G2 X-91.77922 Y117.21723 I74.63435 J-94.40511
G1 X-91.19869 Y117.61833
G1 X-90.63803 Y118.00122
G1 X-90.09285 Y118.3694
G1 X-89.56283 Y118.72349
G1 X-89.04545 Y119.06555
G2 X-80.86372 Y124.04391 I75.87801 J-115.49007
G3 X-80.86295 Y124.04434 I-1.46968 J2.61535
G2 X-76.64454 Y126.32848 I73.52629 J-130.75288
G2 X-74.50606 Y127.42062 I85.07861 J-163.94903
G1 X-73.96946 Y127.68801
G1 X-73.1525 Y128.09011
G3 X-73.14809 Y128.09228 I-1.32477 J2.69165
G2 X-72.76802 Y128.27726 I15.48078 J-31.32394
G3 X-72.73037 Y128.29563 I-1.29655 J2.70536
G3 X-72.66083 Y128.32962 I-1.28254 J2.71203
G3 X-72.598 Y128.35964 I-1.26168 J2.72179
G2 X-72.36868 Y128.47027 I7.25015 J-14.73435
G3 X-72.35593 Y128.47634 I-1.28262 J2.71199
G1 X-71.75425 Y128.76438
G2 X-62.39124 Y132.88134 I75.19002 J-158.29567
G3 X-62.3903 Y132.88172 I-1.12688 J2.78031
G1 X-62.09106 Y133.00312
G1 X-61.80619 Y133.11817
G1 X-60.68498 Y133.56617
G1 X-59.70455 Y133.95181
G2 X-57.98283 Y134.61599 I161.92048 J-417.17911
G1 X-57.3338 Y134.86227
G2 X-55.06421 Y135.70723 I84.48709 J-223.46224
G3 X-55.02739 Y135.72101 I-1.03245 J2.81674
G3 X-54.95722 Y135.74672 I-0.99722 J2.82941
G3 X-54.89557 Y135.76922 I-0.99759 J2.82928
G2 X-54.68229 Y135.84725 I3.95918 J-10.49108
G3 X-54.65999 Y135.85526 I-1.00218 J2.82766
G1 X-53.71658 Y136.19803
G1 X-53.2484 Y136.36681
G1 X-52.78073 Y136.53458
G1 X-51.11336 Y137.12707
G1 X-49.65353 Y137.64002
G1 X-44.5114 Y139.4302
G3 X-44.5039 Y139.43282 I-0.98635 J2.83322
G1 X-43.21906 Y139.88394
G3 X-39.31902 Y141.29672 I-66.72629 J190.29006
G3 X-39.31298 Y141.29899 I-1.05073 J2.80998
G1 X-38.9753 Y141.42608
G3 X-38.96433 Y141.43024 I-1.05677 J2.80771
G1 X-38.3111 Y141.67902
G3 X-38.29628 Y141.68471 I-1.06773 J2.80356
G1 X-37.68508 Y141.92119
G3 X-37.6821 Y141.92235 I-1.08255 J2.79787
G3 X-33.00734 Y143.8737 I-36.38903 J93.75061
G1 X-33.00725 Y143.87374
G3 X-30.71343 Y144.94567 I-31.33093 J70.03506
G3 X-30.54539 Y145.02742 I-2.91517 J6.20569
G3 X-30.39518 Y145.10146 I-3.13634 J6.55267
G3 X-28.41269 Y146.11357 I-34.47812 J69.98186
G3 X-28.40875 Y146.11566 I-1.40208 J2.6522
G3 X-23.6612 Y148.85352 I-36.37446 J68.55985
G3 X-23.48592 Y148.96335 I-4.6262 J7.57783
G3 X-19.09053 Y151.93775 I-41.53381 J66.11093
G3 X-19.0896 Y151.93843 I-1.76481 J2.42599
G3 X-14.75239 Y155.35327 I-43.13705 J59.25034
G3 X-14.74931 Y155.3559 I-1.94328 J2.28553
G3 X-12.67368 Y157.20641 I-40.76789 J47.81692
G3 X-12.66743 Y157.21224 I-2.04546 J2.19456
G1 X-12.54665 Y157.32547
G3 X-12.53657 Y157.33496 I-2.05171 J2.18872
G1 X-12.31109 Y157.54828
G3 X-12.29852 Y157.56025 I-2.06178 J2.17923
G1 X-12.10235 Y157.748
G3 X-12.09108 Y157.75885 I-2.07436 J2.16726
G1 X-11.92026 Y157.92406
G3 X-11.91255 Y157.93154 I-2.08563 J2.15642
G1 X-11.83807 Y158.0041
G3 X-11.82665 Y158.01529 I-2.09334 J2.14894
G1 X-11.54888 Y158.28877
G3 X-11.53267 Y158.30485 I-2.10476 J2.13775
G1 X-11.32589 Y158.51157
G3 X-11.32062 Y158.51684 I-2.12097 J2.12167
G3 X-10.66279 Y159.19312 I-29.04516 J28.9108
G3 X-9.48159 Y160.49419 I-25.80255 J24.61209
G3 X-7.81135 Y162.60257 I-22.39832 J19.45944
G3 X-7.01913 Y163.78222 I-16.42347 J11.88547
G3 X-7.00562 Y163.80415 I-2.54758 J1.58425
G1 X-6.84758 Y164.06322
G3 X-6.83218 Y164.08876 I-2.56109 J1.56231
G3 X-6.28833 Y165.08273 I-13.09495 J7.81061
G3 X-6.28028 Y165.09896 I-2.6835 J1.34121
G1 X0.0 Y177.8567
G1 X6.28028 Y165.09896
G3 X6.28833 Y165.08273 I2.69155 J1.32498
G3 X6.83218 Y164.08876 I13.6388 J6.81664
G3 X6.84758 Y164.06322 I2.57649 J1.53678
G1 X7.00562 Y163.80415
G3 X7.01913 Y163.78222 I2.56109 J1.56231
G3 X7.81135 Y162.60257 I17.21569 J10.70583
G3 X9.48159 Y160.49419 I24.06855 J17.35105
G3 X10.66279 Y159.19312 I26.98376 J23.31102
G3 X11.32062 Y158.51684 I29.70299 J28.23451
G3 X11.32589 Y158.51157 I2.12623 J2.1164
G1 X11.53267 Y158.30485
G3 X11.54888 Y158.28877 I2.12097 J2.12167
G1 X11.82665 Y158.01529
G3 X11.83807 Y158.0041 I2.10476 J2.13775
G1 X11.91255 Y157.93154
G3 X11.92026 Y157.92406 I2.09334 J2.14894
G1 X12.09108 Y157.75885
G3 X12.10235 Y157.748 I2.08563 J2.15642
G1 X12.29852 Y157.56025
G3 X12.31109 Y157.54828 I2.07436 J2.16726
G1 X12.53657 Y157.33496
G3 X12.54665 Y157.32547 I2.06178 J2.17923
G1 X12.66743 Y157.21224
G3 X12.67368 Y157.20641 I2.05171 J2.18872
G3 X14.74931 Y155.3559 I42.84352 J45.96641
G3 X14.75239 Y155.35327 I1.94637 J2.28291
G3 X19.0896 Y151.93843 I47.47426 J55.8355
G3 X19.09053 Y151.93775 I1.76574 J2.42531
G3 X23.48592 Y148.96335 I45.9292 J63.13653
G3 X23.6612 Y148.85352 I4.80149 J7.468
G3 X28.40875 Y146.11566 I41.12201 J65.82199
G3 X28.41269 Y146.11357 I1.40602 J2.65011
G3 X30.39518 Y145.10146 I36.46061 J68.96975
G3 X30.54539 Y145.02742 I3.28655 J6.47864
G3 X30.71343 Y144.94567 I3.08321 J6.12394
G3 X33.00725 Y143.87374 I33.62474 J68.96313
G1 X33.00734 Y143.8737
G3 X37.6821 Y141.92235 I41.06379 J91.79925
G3 X37.68508 Y141.92119 I1.08554 J2.79671
G1 X38.29628 Y141.68471
G3 X38.3111 Y141.67902 I1.08255 J2.79787
G1 X38.96433 Y141.43024
G3 X38.9753 Y141.42608 I1.06773 J2.80356
G1 X39.31298 Y141.29899
G3 X39.31902 Y141.29672 I1.05677 J2.80771
G3 X43.21906 Y139.88394 I70.62633 J188.87728
G1 X44.5039 Y139.43282
G3 X44.5114 Y139.4302 I0.99385 J2.83059
G1 X49.65353 Y137.64002
G1 X51.11336 Y137.12707
G1 X52.78073 Y136.53458
G1 X53.2484 Y136.36681
G1 X53.71658 Y136.19803
G1 X54.65999 Y135.85526
G3 X54.68229 Y135.84725 I1.02447 J2.81966
G2 X54.89557 Y135.76922 I-3.7459 J-10.56912
G3 X54.95722 Y135.74672 I1.05924 J2.80678
G3 X55.02739 Y135.72101 I1.06739 J2.80369
G3 X55.06421 Y135.70723 I1.06927 J2.80297
G2 X57.3338 Y134.86227 I-82.2175 J-224.3072
G1 X57.98283 Y134.61599
G2 X59.70455 Y133.95181 I-160.19876 J-417.84328
G1 X60.68498 Y133.56617
G1 X61.80619 Y133.11817
G1 X62.09106 Y133.00312
G1 X62.3903 Y132.88172
G3 X62.39124 Y132.88134 I1.12781 J2.77993
G2 X71.75425 Y128.76438 I-65.82701 J-162.41263
G1 X72.35593 Y128.47634
G3 X72.36868 Y128.47027 I1.29537 J2.70592
G2 X72.598 Y128.35964 I-7.02084 J-14.84498
G3 X72.66083 Y128.32962 I1.32451 J2.69178
G3 X72.73037 Y128.29563 I1.35209 J2.67803
G3 X72.76802 Y128.27726 I1.3342 J2.68699
G2 X73.14809 Y128.09228 I-15.10071 J-31.50893
G3 X73.1525 Y128.09011 I1.32918 J2.68948
G1 X73.96946 Y127.68801
G1 X74.50606 Y127.42062
G2 X76.64454 Y126.32848 I-82.94014 J-165.04117
G2 X80.86295 Y124.04434 I-69.30788 J-133.03702
G3 X80.86372 Y124.04391 I1.47045 J2.61492
G2 X89.04545 Y119.06555 I-67.69628 J-120.46844
G1 X89.56283 Y118.72349
G1 X90.09285 Y118.3694
G1 X90.63803 Y118.00122
G1 X91.19869 Y117.61833
G1 X91.77922 Y117.21723
G2 X97.77255 Y112.77387 I-68.64102 J-98.84847
G3 X97.80899 Y112.74551 I1.86053 J2.35339
G2 X97.82545 Y112.73247 I-0.38653 J-0.50471
G3 X97.86344 Y112.70184 I1.90172 J2.32023
G2 X104.86644 Y106.65633 I-68.73182 J-86.69638
G3 X104.88147 Y106.64232 I2.05362 J2.18692
G2 X105.06682 Y106.46763 I-9.99519 J-10.79115
G3 X105.08358 Y106.45168 I2.0764 J2.16531
G2 X111.70439 Y99.59482 I-70.87127 J-75.05629
G1 X111.70447 Y99.59472
G1 X111.70431 Y99.59491
G1 X111.70439 Y99.59482
G2 X115.72483 Y94.70061 I-70.10003 J-61.68345
G1 X115.9706 Y94.37832
G1 X116.2168 Y94.05248
G1 X116.4675 Y93.71749
G2 X118.66271 Y90.63366 I-70.3936 J-52.43262
G2 X121.15197 Y86.74614 I-71.19462 J-48.3282
G1 X121.30967 Y86.48333
G1 X121.66949 Y85.87548
G1 X122.07511 Y85.17611
G1 X122.28818 Y84.80249
G2 X125.42262 Y78.70712 I-72.29055 J-41.0277
G3 X125.42353 Y78.70513 I2.72222 J1.26077
G2 X127.22985 Y74.50833 I-73.97417 J-34.32582
G3 X127.23039 Y74.50699 I2.78775 J1.10836
G2 X129.26673 Y68.7702 I-74.80242 J-29.78191
G2 X131.46394 Y60.12657 I-79.82827 J-24.89336
G3 X131.46405 Y60.12601 I2.94281 J0.58299
G2 X132.77092 Y51.27672 I-89.31513 J-17.71132
G3 X132.77123 Y51.27363 I2.98576 J0.29198
G2 X133.17717 Y45.31427 I-97.45155 J-9.63174
G1 X133.20405 Y44.53193
G2 X133.13877 Y35.88661 I-117.32411 J-3.43689
G1 X133.13874 Y35.88611
G1 X133.12623 Y35.60326
G1 X133.11291 Y35.31629
G1 X133.08197 Y34.6949
G2 X132.87251 Y31.4131 I-139.34185 J7.24572
G1 X132.85679 Y31.20578
G1 X132.78577 Y30.31179
G1 X132.70468 Y29.36133
G1 X132.61171 Y28.3438
G1 X132.58742 Y28.08862
G2 X131.97903 Y22.59614 I-188.63162 J18.11434
G3 X131.97872 Y22.59364 I2.97663 J-0.37372
G1 X131.95697 Y22.41923
G1 X131.93506 Y22.24458
G1 X131.91284 Y22.06855
G1 X131.8903 Y21.89111
G1 X131.86746 Y21.71227
G1 X131.84451 Y21.53369
G1 X131.74725 Y20.78779
G1 X131.64477 Y20.01936
G1 X131.5363 Y19.22329
G2 X130.99278 Y15.42812 I-327.17098 J44.91806
G3 X130.99269 Y15.4275 I2.96718 J-0.44253
G1 X130.91173 Y14.88384
G1 X130.69222 Y13.43172
G1 X130.66429 Y13.24898
G1 X130.35474 Y11.25009
G1 X130.17542 Y10.1103
G1 X129.96811 Y8.80509
G1 X129.85705 Y8.11018
G1 X129.25835 Y4.39018
G1 X129.25828 Y4.38975
G1 X128.91633 Y2.26305
G3 X128.9155 Y2.25786 I2.96196 J-0.47625
G1 X128.52897 Y-0.17328
G3 X128.52784 Y-0.18043 I2.96279 J-0.47107
G1 X128.32481 Y-1.47756
G3 X128.32372 Y-1.48458 I2.96391 J-0.46391
G1 X128.11044 Y-2.86868
G3 X128.10984 Y-2.87255 I2.965 J-0.4569
G3 X127.00039 Y-10.53329 I492.80254 J-75.28011
G3 X126.99997 Y-10.53637 I2.97227 J-0.40692
G1 X126.93091 Y-11.0447
G3 X126.93042 Y-11.04832 I2.97269 J-0.40385
G1 X126.85742 Y-11.59062
G3 X126.8572 Y-11.59227 I2.97318 J-0.40022
G3 X125.78284 Y-20.3279 I400.92545 J-53.74191
G3 X125.74807 Y-20.64062 I12.94376 J-1.59742
G3 X125.62145 Y-21.80309 I137.52938 J-15.56807
G3 X125.60223 Y-21.98339 I9.13213 J-1.06505
G1 X125.47051 Y-23.23772
G3 X125.46935 Y-23.24898 I2.9836 J-0.31331
G1 X125.33245 Y-24.60185
G3 X125.33199 Y-24.60643 I2.98476 J-0.30204
G3 X124.69954 Y-31.71921 I334.2193 J-33.30243
G3 X124.69895 Y-31.72687 I2.99087 J-0.23392
G1 X124.62269 Y-32.73505
G3 X124.62248 Y-32.73781 I2.99146 J-0.22626
G3 X124.15856 Y-40.92023 I227.89036 J-17.02529
G3 X124.1581 Y-40.93259 I2.99775 J-0.11609
G1 X124.12081 Y-42.01043
G3 X124.12073 Y-42.01292 I2.99821 J-0.10373
G3 X124.08721 Y-43.19479 I109.43113 J-3.69513
G1 X124.07341 Y-43.78794
G3 X124.07326 Y-43.79464 I2.99919 J-0.06978
G1 X124.07011 Y-43.94424
G3 X124.07008 Y-43.94566 I2.99934 J-0.06308
G3 X124.04607 Y-48.0376 I139.28719 J-2.86333
G3 X124.04618 Y-48.04788 I2.99988 J0.02646
G1 X124.05319 Y-48.6198
G3 X124.05331 Y-48.62904 I2.99978 J0.03673
G1 X124.05558 Y-48.7767
G3 X124.05576 Y-48.78752 I2.99965 J0.04597
G1 X124.06854 Y-49.46219
G3 X124.06877 Y-49.47355 I2.99946 J0.05679
G1 X124.0727 Y-49.64637
G3 X124.36977 Y-55.38855 I96.34177 J2.10551
G3 X124.37137 Y-55.40737 I2.99004 J0.24431
G1 X124.43655 Y-56.14762
G3 X124.43757 Y-56.15894 I2.98844 J0.26313
G3 X124.93778 Y-60.26422 I69.48556 J6.38347
G3 X125.02568 Y-60.81866 I28.02121 J4.15816
G1 X125.06739 Y-61.07046
G3 X125.06979 Y-61.08476 I2.95968 J0.49022
G1 X125.11419 Y-61.34499
G3 X125.11482 Y-61.34869 I2.95727 J0.50451
G3 X125.65189 Y-64.0494 I52.04299 J8.94568
G3 X126.33247 Y-66.72423 I49.61402 J11.19964
G3 X126.3331 Y-66.72644 I2.88623 J0.81835
G3 X126.8726 Y-68.49323 I46.00933 J13.08346
G3 X129.74421 Y-75.32971 I42.85562 J13.97988
G3 X129.74569 Y-75.33254 I2.66098 J1.38535
G3 X130.87477 Y-77.37679 I43.95646 J22.94412
G3 X131.0581 Y-77.68833 I13.6978 J7.85101
G3 X132.47143 Y-79.94023 I45.84441 J27.20306
G3 X132.47331 Y-79.94308 I2.50045 J1.65764
G3 X135.57922 Y-84.22281 I53.42206 J35.50289
G3 X135.58516 Y-84.23029 I2.3533 J1.86064
G1 X136.00376 Y-84.75627
G3 X136.01703 Y-84.77282 I2.34736 J1.86813
G1 X136.23502 Y-85.0428
G3 X136.24597 Y-85.05628 I2.33409 J1.88468
G1 X136.57382 Y-85.45753
G3 X136.58129 Y-85.46664 I2.32314 J1.89816
G1 X136.62837 Y-85.5238
G3 X136.63687 Y-85.53407 I2.31567 J1.90727
G1 X137.01542 Y-85.98955
G3 X137.02816 Y-86.00476 I2.30717 J1.91754
G1 X137.28252 Y-86.30673
G3 X137.2946 Y-86.32098 I2.29444 J1.93276
G1 X137.63623 Y-86.72145
G3 X137.65265 Y-86.74053 I2.28236 J1.947
G1 X138.11268 Y-87.27073
G3 X138.12776 Y-87.28797 I2.26594 J1.96609
G1 X138.39296 Y-87.58894
G3 X138.39687 Y-87.59338 I2.25086 J1.98334
G3 X140.67835 Y-90.04948 I51.70735 J45.74325
G3 X142.28151 Y-91.63269 I40.1821 J39.08518
G3 X143.24318 Y-92.52276 I29.34877 J30.74498
G3 X143.24671 Y-92.52593 I2.0036 J2.23284
G1 X143.46667 Y-92.72268
G3 X143.63818 Y-92.87448 I4.52325 J4.93782
G1 X148.99972 Y-97.59629
G1 X98.8868 Y-151.82562
G3 X0.0 Y-134.91593 I-98.8868 J-280.68703
G3 X-98.8868 Y-151.82562 I0.0 J-297.59672
G1 X-146.04726 Y-100.79127
G1 F300.0 X-144.28462 Y-99.16244
G1 Z-6.0
G1 F800.0 X-145.56879 Y-97.77278
G1 X-144.14881 Y-96.52222
G3 X-144.28462 Y-99.16244 I5.15595 J-1.58882
G0 Z3.0
G0 X-98.30954 Y-148.91404
G0 Z-3.0
G1 F300.0 Z-6.0
G3 F800.0 X-98.03052 Y-148.98479 I1.46501 J5.19249
G3 X-98.1924 Y-149.04081 I98.03052 J-283.52787
G1 X-98.30954 Y-148.91404
G0 Z3.0
G0 X98.03052 Y-148.98479
G0 Z-3.0
G1 F300.0 Z-6.0
G3 F800.0 X98.30954 Y-148.91404 I-1.18598 J5.26323
G1 X98.1924 Y-149.04081
G3 X98.03052 Y-148.98479 I-98.1924 J-283.47185
G0 Z3.0
G0 X144.28462 Y-99.16244
G0 Z-3.0
G1 F300.0 Z-6.0
G3 F800.0 X144.14881 Y-96.52222 I-5.29176 J1.05139
G1 X145.56879 Y-97.77278
G1 X144.28462 Y-99.16244
G0 Z3.0
G0 X0.5545 Y168.5792
G0 Z-3.0
G1 F300.0 Z-6.0
G3 F800.0 X-0.5545 I-0.5545 J-6.57185
G1 X0.0 Y169.70561
G1 X0.5545 Y168.5792
G1 F300.0 X1.63112 Y169.10919
G1 F800.0 X2.8819 Y166.56837
G3 X-2.8819 I-2.8819 J-4.56101
G1 X0.0 Y172.42264
G1 X1.63112 Y169.10919
G1 F300.0 X3.78436 Y170.16917
G1 F800.0 X6.28028 Y165.09896
G3 X6.28833 Y165.08273 I2.69155 J1.32498
G3 X6.83218 Y164.08876 I13.6388 J6.81664
G3 X6.84758 Y164.06322 I2.57649 J1.53678
G1 X7.00562 Y163.80415
G3 X7.01913 Y163.78222 I2.56109 J1.56231
G3 X7.81135 Y162.60257 I17.21569 J10.70583
G3 X9.48159 Y160.49419 I24.06855 J17.35105
G3 X10.66279 Y159.19312 I26.98376 J23.31102
G3 X11.32062 Y158.51684 I29.70299 J28.23451
G3 X11.32589 Y158.51157 I2.12623 J2.1164
G1 X11.53267 Y158.30485
G3 X11.54888 Y158.28877 I2.12097 J2.12167
G1 X11.82665 Y158.01529
G3 X11.83807 Y158.0041 I2.10476 J2.13775
G1 X11.91255 Y157.93154
G3 X11.92026 Y157.92406 I2.09334 J2.14894
G1 X12.09108 Y157.75885
G3 X12.10235 Y157.748 I2.08563 J2.15642
G1 X12.29852 Y157.56025
G3 X12.31109 Y157.54828 I2.07436 J2.16726
G1 X12.53657 Y157.33496
G3 X12.54665 Y157.32547 I2.06178 J2.17923
G1 X12.66743 Y157.21224
G3 X12.67368 Y157.20641 I2.05171 J2.18872
G3 X14.74931 Y155.3559 I42.84352 J45.96641
G3 X14.75239 Y155.35327 I1.94637 J2.28291
G3 X19.0896 Y151.93843 I47.47426 J55.8355
G3 X19.09053 Y151.93775 I1.76574 J2.42531
G3 X23.48592 Y148.96335 I45.9292 J63.13653
G3 X23.6612 Y148.85352 I4.80149 J7.468
G3 X28.40875 Y146.11566 I41.12201 J65.82199
G3 X28.41269 Y146.11357 I1.40602 J2.65011
G3 X30.39518 Y145.10146 I36.46061 J68.96975
G3 X30.54539 Y145.02742 I3.28655 J6.47864
G3 X30.71343 Y144.94567 I3.08321 J6.12394
G3 X33.00725 Y143.87374 I33.62474 J68.96313
G1 X33.00734 Y143.8737
G3 X37.6821 Y141.92235 I41.06379 J91.79925
G3 X37.68508 Y141.92119 I1.08554 J2.79671
G1 X38.29628 Y141.68471
G3 X38.3111 Y141.67902 I1.08255 J2.79787
G1 X38.96433 Y141.43024
G3 X38.9753 Y141.42608 I1.06773 J2.80356
G1 X39.31298 Y141.29899
G3 X39.31902 Y141.29672 I1.05677 J2.80771
G3 X43.21906 Y139.88394 I70.62633 J188.87728
G1 X44.5039 Y139.43282
G3 X44.5114 Y139.4302 I0.99385 J2.83059
G1 X49.65353 Y137.64002
G1 X51.11336 Y137.12707
G1 X52.78073 Y136.53458
G1 X53.2484 Y136.36681
G1 X53.71658 Y136.19803
G1 X54.65999 Y135.85526
G3 X54.68229 Y135.84725 I1.02447 J2.81966
G2 X54.89557 Y135.76922 I-3.7459 J-10.56912
G3 X54.95722 Y135.74672 I1.05924 J2.80678
G3 X55.02739 Y135.72101 I1.06739 J2.80369
G3 X55.06421 Y135.70723 I1.06927 J2.80297
G2 X57.3338 Y134.86227 I-82.2175 J-224.3072
G1 X57.98283 Y134.61599
G2 X59.70455 Y133.95181 I-160.19876 J-417.84328
G1 X60.68498 Y133.56617
G1 X61.80619 Y133.11817
G1 X62.09106 Y133.00312
G1 X62.3903 Y132.88172
G3 X62.39124 Y132.88134 I1.12781 J2.77993
G2 X71.75425 Y128.76438 I-65.82701 J-162.41263
G1 X72.35593 Y128.47634
G3 X72.36868 Y128.47027 I1.29537 J2.70592
G2 X72.598 Y128.35964 I-7.02084 J-14.84498
G3 X72.66083 Y128.32962 I1.32451 J2.69178
G3 X72.73037 Y128.29563 I1.35209 J2.67803
G3 X72.76802 Y128.27726 I1.3342 J2.68699
G2 X73.14809 Y128.09228 I-15.10071 J-31.50893
G3 X73.1525 Y128.09011 I1.32918 J2.68948
G1 X73.96946 Y127.68801
G1 X74.50606 Y127.42062
G2 X76.64454 Y126.32848 I-82.94014 J-165.04117
G2 X80.86295 Y124.04434 I-69.30788 J-133.03702
G3 X80.86372 Y124.04391 I1.47045 J2.61492
G2 X89.04545 Y119.06555 I-67.69628 J-120.46844
G1 X89.56283 Y118.72349
G1 X90.09285 Y118.3694
G1 X90.63803 Y118.00122
G1 X91.19869 Y117.61833
G1 X91.77922 Y117.21723
G2 X97.77255 Y112.77387 I-68.64102 J-98.84847
G3 X97.80899 Y112.74551 I1.86053 J2.35339
G2 X97.82545 Y112.73247 I-0.38653 J-0.50471
G3 X97.86344 Y112.70184 I1.90172 J2.32023
G2 X104.86644 Y106.65633 I-68.73182 J-86.69638
G3 X104.88147 Y106.64232 I2.05362 J2.18692
G2 X105.06682 Y106.46763 I-9.99519 J-10.79115
G3 X105.08358 Y106.45168 I2.0764 J2.16531
G2 X111.70439 Y99.59482 I-70.87127 J-75.05629
G1 X111.70447 Y99.59472
G1 X111.70431 Y99.59491
G1 X111.70439 Y99.59482
G2 X115.72483 Y94.70061 I-70.10003 J-61.68345
G1 X115.9706 Y94.37832
G1 X116.2168 Y94.05248
G1 X116.4675 Y93.71749
G2 X118.66271 Y90.63366 I-70.3936 J-52.43262
G2 X121.15197 Y86.74614 I-71.19462 J-48.3282
G1 X121.30967 Y86.48333
G1 X121.66949 Y85.87548
G1 X122.07511 Y85.17611
G1 X122.28818 Y84.80249
G2 X125.42262 Y78.70712 I-72.29055 J-41.0277
G3 X125.42353 Y78.70513 I2.72222 J1.26077
G2 X127.22985 Y74.50833 I-73.97417 J-34.32582
G3 X127.23039 Y74.50699 I2.78775 J1.10836
G2 X129.26673 Y68.7702 I-74.80242 J-29.78191
G2 X131.46394 Y60.12657 I-79.82827 J-24.89336
G3 X131.46405 Y60.12601 I2.94281 J0.58299
G2 X132.77092 Y51.27672 I-89.31513 J-17.71132
G3 X132.77123 Y51.27363 I2.98576 J0.29198
G2 X133.17717 Y45.31427 I-97.45155 J-9.63174
G1 X133.20405 Y44.53193
G2 X133.13877 Y35.88661 I-117.32411 J-3.43689
G1 X133.13874 Y35.88611
G1 X133.12623 Y35.60326
G1 X133.11291 Y35.31629
G1 X133.08197 Y34.6949
G2 X132.87251 Y31.4131 I-139.34185 J7.24572
G1 X132.85679 Y31.20578
G1 X132.78577 Y30.31179
G1 X132.70468 Y29.36133
G1 X132.61171 Y28.3438
G1 X132.58742 Y28.08862
G2 X131.97903 Y22.59614 I-188.63162 J18.11434
G3 X131.97872 Y22.59364 I2.97663 J-0.37372
G1 X131.95697 Y22.41923
G1 X131.93506 Y22.24458
G1 X131.91284 Y22.06855
G1 X131.8903 Y21.89111
G1 X131.86746 Y21.71227
G1 X131.84451 Y21.53369
G1 X131.74725 Y20.78779
G1 X131.64477 Y20.01936
G1 X131.5363 Y19.22329
G2 X130.99278 Y15.42812 I-327.17098 J44.91806
G3 X130.99269 Y15.4275 I2.96718 J-0.44253
G1 X130.91173 Y14.88384
G1 X130.69222 Y13.43172
G1 X130.66429 Y13.24898
G1 X130.35474 Y11.25009
G1 X130.17542 Y10.1103
G1 X129.96811 Y8.80509
G1 X129.85705 Y8.11018
G1 X129.25835 Y4.39018
G1 X129.25828 Y4.38975
G1 X128.91633 Y2.26305
G3 X128.9155 Y2.25786 I2.96196 J-0.47625
G1 X128.52897 Y-0.17328
G3 X128.52784 Y-0.18043 I2.96279 J-0.47107
G1 X128.32481 Y-1.47756
G3 X128.32372 Y-1.48458 I2.96391 J-0.46391
G1 X128.11044 Y-2.86868
G3 X128.10984 Y-2.87255 I2.965 J-0.4569
G3 X127.00039 Y-10.53329 I492.80254 J-75.28011
G3 X126.99997 Y-10.53637 I2.97227 J-0.40692
G1 X126.93091 Y-11.0447
G3 X126.93042 Y-11.04832 I2.97269 J-0.40385
G1 X126.85742 Y-11.59062
G3 X126.8572 Y-11.59227 I2.97318 J-0.40022
G3 X125.78284 Y-20.3279 I400.92545 J-53.74191
G3 X125.74807 Y-20.64062 I12.94376 J-1.59742
G3 X125.62145 Y-21.80309 I137.52938 J-15.56807
G3 X125.60223 Y-21.98339 I9.13213 J-1.06505
G1 X125.47051 Y-23.23772
G3 X125.46935 Y-23.24898 I2.9836 J-0.31331
G1 X125.33245 Y-24.60185
G3 X125.33199 Y-24.60643 I2.98476 J-0.30204
G3 X124.69954 Y-31.71921 I334.2193 J-33.30243
G3 X124.69895 Y-31.72687 I2.99087 J-0.23392
G1 X124.62269 Y-32.73505
G3 X124.62248 Y-32.73781 I2.99146 J-0.22626
G3 X124.15856 Y-40.92023 I227.89036 J-17.02529
G3 X124.1581 Y-40.93259 I2.99775 J-0.11609
G1 X124.12081 Y-42.01043
G3 X124.12073 Y-42.01292 I2.99821 J-0.10373
G3 X124.08721 Y-43.19479 I109.43113 J-3.69513
G1 X124.07341 Y-43.78794
G3 X124.07326 Y-43.79464 I2.99919 J-0.06978
G1 X124.07011 Y-43.94424
G3 X124.07008 Y-43.94566 I2.99934 J-0.06308
G3 X124.04607 Y-48.0376 I139.28719 J-2.86333
G3 X124.04618 Y-48.04788 I2.99988 J0.02646
G1 X124.05319 Y-48.6198
G3 X124.05331 Y-48.62904 I2.99978 J0.03673
G1 X124.05558 Y-48.7767
G3 X124.05576 Y-48.78752 I2.99965 J0.04597
G1 X124.06854 Y-49.46219
G3 X124.06877 Y-49.47355 I2.99946 J0.05679
G1 X124.0727 Y-49.64637
G3 X124.36977 Y-55.38855 I96.34177 J2.10551
G3 X124.37137 Y-55.40737 I2.99004 J0.24431
G1 X124.43655 Y-56.14762
G3 X124.43757 Y-56.15894 I2.98844 J0.26313
G3 X124.93778 Y-60.26422 I69.48556 J6.38347
G3 X125.02568 Y-60.81866 I28.02121 J4.15816
G1 X125.06739 Y-61.07046
G3 X125.06979 Y-61.08476 I2.95968 J0.49022
G1 X125.11419 Y-61.34499
G3 X125.11482 Y-61.34869 I2.95727 J0.50451
G3 X125.65189 Y-64.0494 I52.04299 J8.94568
G3 X126.33247 Y-66.72423 I49.61402 J11.19964
G3 X126.3331 Y-66.72644 I2.88623 J0.81835
G3 X126.8726 Y-68.49323 I46.00933 J13.08346
G3 X129.74421 Y-75.32971 I42.85562 J13.97988
G3 X129.74569 Y-75.33254 I2.66098 J1.38535
G3 X130.87477 Y-77.37679 I43.95646 J22.94412
G3 X131.0581 Y-77.68833 I13.6978 J7.85101
G3 X132.47143 Y-79.94023 I45.84441 J27.20306
G3 X132.47331 Y-79.94308 I2.50045 J1.65764
G3 X135.57922 Y-84.22281 I53.42206 J35.50289
G3 X135.58516 Y-84.23029 I2.3533 J1.86064
G1 X136.00376 Y-84.75627
G3 X136.01703 Y-84.77282 I2.34736 J1.86813
G1 X136.23502 Y-85.0428
G3 X136.24597 Y-85.05628 I2.33409 J1.88468
G1 X136.57382 Y-85.45753
G3 X136.58129 Y-85.46664 I2.32314 J1.89816
G1 X136.62837 Y-85.5238
G3 X136.63687 Y-85.53407 I2.31567 J1.90727
G1 X137.01542 Y-85.98955
G3 X137.02816 Y-86.00476 I2.30717 J1.91754
G1 X137.28252 Y-86.30673
G3 X137.2946 Y-86.32098 I2.29444 J1.93276
G1 X137.63623 Y-86.72145
G3 X137.65265 Y-86.74053 I2.28236 J1.947
G1 X138.11268 Y-87.27073
G3 X138.12776 Y-87.28797 I2.26594 J1.96609
G1 X138.39296 Y-87.58894
G3 X138.39687 Y-87.59338 I2.25086 J1.98334
G3 X140.67835 Y-90.04948 I51.70735 J45.74325
G3 X142.28151 Y-91.63269 I40.1821 J39.08518
G3 X143.24318 Y-92.52276 I29.34877 J30.74498
G3 X143.24671 Y-92.52593 I2.0036 J2.23284
G1 X143.46667 Y-92.72268
G3 X143.63818 Y-92.87448 I4.52325 J4.93782
G1 X148.99972 Y-97.59629
G1 X98.8868 Y-151.82562
G3 X0.0 Y-134.91593 I-98.8868 J-280.68703
G3 X-98.8868 Y-151.82562 I0.0 J-297.59672
G1 X-148.99972 Y-97.59629
G1 X-143.63818 Y-92.87448
G3 X-143.46667 Y-92.72268 I-4.35174 J5.08962
G1 X-143.24671 Y-92.52593
G3 X-143.24318 Y-92.52276 I-2.00007 J2.23601
G3 X-142.28151 Y-91.63269 I-28.38711 J31.63506
G3 X-140.67835 Y-90.04948 I-38.57894 J40.66839
G3 X-138.39687 Y-87.59338 I-49.42588 J48.19935
G3 X-138.39296 Y-87.58894 I-2.24694 J1.98777
G1 X-138.12776 Y-87.28797
G3 X-138.11268 Y-87.27073 I-2.25086 J1.98334
G1 X-137.65265 Y-86.74053
G3 X-137.63623 Y-86.72145 I-2.26594 J1.96609
G1 X-137.2946 Y-86.32098
G3 X-137.28252 Y-86.30673 I-2.28236 J1.947
G1 X-137.02816 Y-86.00476
G3 X-137.01542 Y-85.98955 I-2.29444 J1.93276
G1 X-136.63687 Y-85.53407
G3 X-136.62837 Y-85.5238 I-2.30717 J1.91754
G1 X-136.58129 Y-85.46664
G3 X-136.57382 Y-85.45753 I-2.31567 J1.90727
G1 X-136.24597 Y-85.05628
G3 X-136.23502 Y-85.0428 I-2.32314 J1.89816
G1 X-136.01703 Y-84.77282
G3 X-136.00376 Y-84.75627 I-2.33409 J1.88468
G1 X-135.58516 Y-84.23029
G3 X-135.57922 Y-84.22281 I-2.34736 J1.86813
G3 X-132.47331 Y-79.94308 I-50.31615 J39.78262
G3 X-132.47143 Y-79.94023 I-2.49856 J1.66048
G3 X-131.0581 Y-77.68833 I-44.43109 J29.45497
G3 X-130.87477 Y-77.37679 I-13.51447 J8.16255
G3 X-129.74569 Y-75.33254 I-42.82738 J24.98837
G3 X-129.74421 Y-75.32971 I-2.6595 J1.38819
G3 X-126.8726 Y-68.49323 I-39.98401 J20.81636
G3 X-126.3331 Y-66.72644 I-45.46983 J14.85025
G3 X-126.33247 Y-66.72423 I-2.8856 J0.82056
G3 X-125.65189 Y-64.0494 I-48.93345 J13.87446
G3 X-125.11482 Y-61.34869 I-51.50591 J11.64639
G3 X-125.11419 Y-61.34499 I-2.95664 J0.50822
G1 X-125.06979 Y-61.08476
G3 X-125.06739 Y-61.07046 I-2.95727 J0.50451
G1 X-125.02568 Y-60.81866
G3 X-124.93778 Y-60.26422 I-27.93331 J4.7126
G3 X-124.43757 Y-56.15894 I-68.98535 J10.48875
G3 X-124.43655 Y-56.14762 I-2.98742 J0.27445
G1 X-124.37137 Y-55.40737
G3 X-124.36977 Y-55.38855 I-2.98844 J0.26313
G3 X-124.0727 Y-49.64637 I-96.0447 J7.84768
G1 X-124.06877 Y-49.47355
G3 X-124.06854 Y-49.46219 I-2.99923 J0.06816
G1 X-124.05576 Y-48.78752
G3 X-124.05558 Y-48.7767 I-2.99946 J0.05679
G1 X-124.05331 Y-48.62904
G3 X-124.05319 Y-48.6198 I-2.99965 J0.04597
G1 X-124.04618 Y-48.04788
G3 X-124.04607 Y-48.0376 I-2.99978 J0.03673
G3 X-124.07008 Y-43.94566 I-139.31121 J1.2286
G3 X-124.07011 Y-43.94424 I-2.99937 J-0.06166
G1 X-124.07326 Y-43.79464
G3 X-124.07341 Y-43.78794 I-2.99934 J-0.06308
G1 X-124.08721 Y-43.19479
G3 X-124.12073 Y-42.01292 I-109.46466 J-2.51326
G3 X-124.12081 Y-42.01043 I-2.99829 J-0.10124
G1 X-124.1581 Y-40.93259
G3 X-124.15856 Y-40.92023 I-2.99821 J-0.10373
G3 X-124.62248 Y-32.73781 I-228.35428 J-8.84287
G3 X-124.62269 Y-32.73505 I-2.99166 J-0.2235
G1 X-124.69895 Y-31.72687
G3 X-124.69954 Y-31.71921 I-2.99146 J-0.22626
G3 X-125.33199 Y-24.60643 I-334.85175 J-26.18966
G3 X-125.33245 Y-24.60185 I-2.98522 J-0.29745
G1 X-125.46935 Y-23.24898
G3 X-125.47051 Y-23.23772 I-2.98476 J-0.30204
G1 X-125.60223 Y-21.98339
G3 X-125.62145 Y-21.80309 I-9.15136 J-0.88475
G3 X-125.74807 Y-20.64062 I-137.656 J-14.40559
G3 X-125.78284 Y-20.3279 I-12.97853 J-1.28471
G3 X-126.8572 Y-11.59227 I-401.99981 J-45.00628
G3 X-126.85742 Y-11.59062 I-2.97341 J-0.39857
G1 X-126.93042 Y-11.04832
G3 X-126.93091 Y-11.0447 I-2.97318 J-0.40022
G1 X-126.99997 Y-10.53637
G3 X-127.00039 Y-10.53329 I-2.97269 J-0.40385
G3 X-128.10984 Y-2.87255 I-493.912 J-67.61937
G3 X-128.11044 Y-2.86868 I-2.9656 J-0.45302
G1 X-128.32372 Y-1.48458
G3 X-128.32481 Y-1.47756 I-2.965 J-0.4569
G1 X-128.52784 Y-0.18043
G3 X-128.52897 Y-0.17328 I-2.96391 J-0.46391
G1 X-128.9155 Y2.25786
G3 X-128.91633 Y2.26305 I-2.96279 J-0.47107
G1 X-129.25828 Y4.38975
G1 X-129.25835 Y4.39018
G1 X-129.85705 Y8.11018
G1 X-129.96811 Y8.80509
G1 X-130.17542 Y10.1103
G1 X-130.35474 Y11.25009
G1 X-130.66429 Y13.24898
G1 X-130.69222 Y13.43172
G1 X-130.91173 Y14.88384
G1 X-130.99269 Y15.4275
G3 X-130.99278 Y15.42812 I-2.96727 J-0.44191
G2 X-131.5363 Y19.22329 I326.62747 J48.71324
G1 X-131.64477 Y20.01936
G1 X-131.74725 Y20.78779
G1 X-131.84451 Y21.53369
G1 X-131.86746 Y21.71227
G1 X-131.8903 Y21.89111
G1 X-131.91284 Y22.06855
G1 X-131.93506 Y22.24458
G1 X-131.95697 Y22.41923
G1 X-131.97872 Y22.59364
G3 X-131.97903 Y22.59614 I-2.97694 J-0.37123
G2 X-132.58742 Y28.08862 I188.02323 J23.60682
G1 X-132.61171 Y28.3438
G1 X-132.70468 Y29.36133
G1 X-132.78577 Y30.31179
G1 X-132.85679 Y31.20578
G1 X-132.87251 Y31.4131
G2 X-133.08197 Y34.6949 I139.1324 J10.52752
G1 X-133.11291 Y35.31629
G1 X-133.12623 Y35.60326
G1 X-133.13874 Y35.88611
G1 X-133.13877 Y35.88661
G2 X-133.20405 Y44.53193 I117.25882 J5.20843
G1 X-133.17717 Y45.31427
G2 X-132.77123 Y51.27363 I97.8575 J-3.67238
G3 X-132.77092 Y51.27672 I-2.98545 J0.29507
G2 X-131.46405 Y60.12601 I90.62201 J-8.86203
G3 X-131.46394 Y60.12657 I-2.9427 J0.58354
