( Made using CamBam - http://www.cambam.co.uk )
( Wappen-Huettle 7/20/2017 5:48:27 PM )
( T2 : 2.0 )
( T4 : 4.0 )
( T6 : 6.0 )
G21 G90 G64 G40
G0 Z3.0
( T6 : 6.0 )
T6 M6
( Kontur )
G17
M3 S1000
G0 X-108.96216 Y-73.34061
G0 Z1.0
G1 F300.0 Z-2.0
G1 F800.0 X-108.36959 Y-72.81875
G3 X-108.42627 Y-73.92053 I4.12495 J-0.76454
G1 X-108.96216 Y-73.34061
G0 Z3.0
G0 X108.36959 Y-72.81875
G0 Z1.0
G1 F300.0 Z-2.0
G1 F800.0 X108.96216 Y-73.34061
G1 X108.42627 Y-73.92053
G3 X108.36959 Y-72.81875 I-4.18162 J0.33725
G0 Z3.0
G0 X1.81667 Y125.28697
G0 Z1.0
G1 F300.0 Z-2.0
G3 F800.0 X-1.81667 I-1.81667 J-3.78146
G1 X0.0 Y128.97735
G1 X1.81667 Y125.28697
G1 F300.0 X2.89329 Y125.81696
G1 F800.0 X4.03732 Y123.49298
G3 X4.04538 Y123.47675 I2.69155 J1.32498
G3 X4.48001 Y122.68237 I10.89997 J5.44778
G3 X4.49542 Y122.65684 I2.57649 J1.53678
G1 X4.61394 Y122.46254
G3 X4.62746 Y122.4406 I2.56109 J1.56231
G3 X5.25053 Y121.51279 I13.54866 J8.42543
G3 X6.54433 Y119.87955 I18.65941 J13.45244
G3 X7.45395 Y118.87765 I20.80468 J17.97436
G3 X7.95891 Y118.35853 I22.82039 J21.69308
G3 X7.96417 Y118.35326 I2.12623 J2.1164
G1 X8.11926 Y118.19822
G3 X8.13547 Y118.18214 I2.12097 J2.12167
G1 X8.34379 Y117.97703
G3 X8.35522 Y117.96584 I2.10476 J2.13775
G1 X8.41108 Y117.91142
G3 X8.41879 Y117.90394 I2.09334 J2.14894
G1 X8.5469 Y117.78003
G3 X8.55818 Y117.76919 I2.08563 J2.15642
G1 X8.7053 Y117.62837
G3 X8.71787 Y117.6164 I2.07436 J2.16726
G1 X8.88698 Y117.45641
G3 X8.89706 Y117.44692 I2.06178 J2.17923
G1 X8.98764 Y117.362
G3 X8.99389 Y117.35616 I2.05171 J2.18872
G3 X10.57539 Y115.9462 I32.64401 J35.02345
G3 X10.57848 Y115.94357 I1.94637 J2.28291
G3 X13.87576 Y113.3475 I36.09151 J42.44801
G3 X13.8767 Y113.34682 I1.76574 J2.42531
G3 X17.21221 Y111.08948 I34.8881 J47.95889
G3 X17.35172 Y111.00207 I4.00334 J6.23403
G3 X20.95506 Y108.92422 I31.23569 J50.00456
G3 X20.959 Y108.92213 I1.40602 J2.65011
G3 X22.4611 Y108.1552 I27.69597 J52.39036
G3 X22.57849 Y108.0973 I2.80019 J5.52988
G3 X22.71112 Y108.03281 I2.64296 J5.26622
G3 X24.44916 Y107.22069 I25.54251 J52.39879
G1 X24.44925 Y107.22065
G3 X27.99019 Y105.74258 I31.10409 J69.53407
G3 X27.99317 Y105.74143 I1.08554 J2.79671
G1 X28.45157 Y105.56406
G3 X28.46639 Y105.55837 I1.08255 J2.79787
G1 X28.95632 Y105.37179
G3 X28.96728 Y105.36763 I1.06773 J2.80356
G1 X29.22054 Y105.27231
G3 X29.22658 Y105.27005 I1.05677 J2.80771
G3 X32.16598 Y104.20526 I53.23243 J142.36045
G1 X33.12946 Y103.86697
G3 X33.13696 Y103.86434 I0.99385 J2.83059
G1 X36.99254 Y102.52207
G1 X38.08514 Y102.13815
G1 X39.33336 Y101.6946
G1 X39.6825 Y101.56936
G1 X40.0322 Y101.44329
G1 X40.73888 Y101.18653
G3 X40.76117 Y101.17853 I1.02447 J2.81966
G2 X40.90687 Y101.12522 I-2.55888 J-7.21992
G3 X40.95976 Y101.10583 I1.05924 J2.80678
G3 X41.01219 Y101.08661 I1.0587 J2.80698
G3 X41.04005 Y101.07624 I1.0603 J2.80638
G2 X42.73469 Y100.44533 I-61.40501 J-167.52622
G1 X43.21983 Y100.26123
G2 X44.50546 Y99.76529 I-119.88178 J-312.68171
G1 X45.23732 Y99.47742
G1 X46.07507 Y99.14268
G1 X46.28689 Y99.05714
G1 X46.51077 Y98.96631
G3 X46.51171 Y98.96593 I1.12781 J2.77993
G2 X53.49287 Y95.89631 I-49.08854 J-121.1144
G1 X53.9431 Y95.68078
G3 X53.95586 Y95.67471 I1.29537 J2.70592
G2 X54.11737 Y95.59678 I-4.94497 J-10.45574
G3 X54.16882 Y95.57207 I1.32451 J2.69178
G3 X54.22066 Y95.54679 I1.34087 J2.68367
G3 X54.25188 Y95.53161 I1.32777 J2.69017
G2 X54.52877 Y95.39684 I-11.00139 J-22.95535
G3 X54.53318 Y95.39467 I1.32918 J2.68948
G1 X55.14425 Y95.09391
G1 X55.54391 Y94.89476
G2 X57.13742 Y94.08093 I-61.86947 J-123.11017
G2 X60.2796 Y92.37953 I-51.63492 J-99.11234
G3 X60.28037 Y92.37909 I1.47045 J2.61492
G2 X66.37136 Y88.67294 I-50.40479 J-89.69749
G1 X66.75699 Y88.41798
G1 X67.15144 Y88.15446
G1 X67.55716 Y87.88047
G1 X67.97436 Y87.59554
G1 X68.40736 Y87.29638
G2 X72.86428 Y83.99205 I-51.05371 J-73.51981
G3 X72.89715 Y83.96644 I1.86053 J2.35339
G3 X72.93165 Y83.93867 I1.89823 J2.32308
G2 X78.13643 Y79.44552 I-51.08293 J-64.43457
G3 X78.15145 Y79.4315 I2.05362 J2.18692
G2 X78.28101 Y79.3094 I-6.98674 J-7.54313
G3 X78.29778 Y79.29345 I2.0764 J2.16531
G2 X83.21526 Y74.20064 I-52.63854 J-55.7469
G1 X83.21534 Y74.20055
G1 X83.21518 Y74.20073
G1 X83.21526 Y74.20064
G2 X86.19776 Y70.56999 I-52.01199 J-45.76712
G1 X86.38056 Y70.33028
G1 X86.56316 Y70.0886
G1 X86.74965 Y69.83942
G2 X88.37665 Y67.55379 I-52.19423 J-38.87577
G2 X90.22131 Y64.67298 I-52.77557 J-35.8247
G1 X90.338 Y64.47852
G1 X90.60502 Y64.02744
G1 X90.90618 Y63.50817
G1 X91.06424 Y63.23101
G2 X93.38641 Y58.71514 I-53.56602 J-30.39991
G3 X93.38733 Y58.71316 I2.72222 J1.26077
G2 X94.72545 Y55.60416 I-54.8003 J-25.42868
G3 X94.72599 Y55.60281 I2.78775 J1.10836
G2 X96.23417 Y51.35402 I-55.40501 J-22.05901
G2 X97.86225 Y44.94918 I-59.15532 J-18.44639
G3 X97.86236 Y44.94862 I2.94281 J0.58299
G2 X98.83175 Y38.38454 I-66.25068 J-13.13761
G3 X98.83206 Y38.38145 I2.98576 J0.29198
G2 X99.13336 Y33.95875 I-72.3423 J-7.15004
G1 X99.15342 Y33.37509
G2 X99.10481 Y26.94824 I-87.24346 J-2.55381
G1 X99.10479 Y26.94774
G1 X99.09544 Y26.73641
G1 X99.08555 Y26.52325
G1 X99.06245 Y26.0593
G2 X98.90653 Y23.61648 I-103.75736 J5.39617
G1 X98.89484 Y23.46239
G1 X98.84186 Y22.79542
G1 X98.78141 Y22.087
G1 X98.71202 Y21.3275
G1 X98.69397 Y21.13784
G2 X98.24011 Y17.04053 I-140.72712 J13.51437
G3 X98.2398 Y17.03804 I2.97663 J-0.37372
G1 X98.22353 Y16.90751
G1 X98.20716 Y16.77708
G1 X98.19057 Y16.64562
G1 X98.17374 Y16.51309
G1 X98.15667 Y16.37951
G1 X98.13959 Y16.24654
G1 X98.06688 Y15.6889
G1 X97.9903 Y15.11472
G1 X97.90914 Y14.51911
G2 X97.50279 Y11.68172 I-244.63515 J33.58691
G3 X97.5027 Y11.6811 I2.96718 J-0.44253
G1 X97.4421 Y11.27417
G1 X97.27769 Y10.18651
G1 X97.25694 Y10.05079
G1 X97.02503 Y8.55324
G1 X96.89076 Y7.69983
G1 X96.73542 Y6.72183
G1 X96.65225 Y6.2014
G1 X96.20329 Y3.41181
G1 X96.20322 Y3.41137
G1 X95.94676 Y1.81635
G3 X95.94593 Y1.81116 I2.96196 J-0.47625
G1 X95.65603 Y-0.01219
G3 X95.6549 Y-0.01935 I2.96279 J-0.47107
G1 X95.50263 Y-0.99219
G3 X95.50154 Y-0.99921 I2.96391 J-0.46391
G1 X95.34158 Y-2.03728
G3 X95.34098 Y-2.04116 I2.965 J-0.4569
G3 X94.50722 Y-7.79824 I370.34331 J-56.57334
G3 X94.5068 Y-7.80131 I2.97227 J-0.40692
G1 X94.45501 Y-8.18256
G3 X94.45452 Y-8.18618 I2.97269 J-0.40385
G1 X94.39977 Y-8.59291
G3 X94.39955 Y-8.59456 I2.97318 J-0.40022
G3 X93.59225 Y-15.15835 I301.43744 J-40.40608
G3 X93.56523 Y-15.40125 I10.4527 J-1.28565
G3 X93.47061 Y-16.26995 I103.89286 J-11.75526
G3 X93.45546 Y-16.41221 I7.59457 J-0.88115
G1 X93.35698 Y-17.34996
G3 X93.35582 Y-17.36123 I2.9836 J-0.31331
G1 X93.25315 Y-18.37587
G3 X93.25269 Y-18.38046 I2.98476 J-0.30204
G3 X92.77694 Y-23.73092 I251.41078 J-25.05119
G3 X92.77635 Y-23.73858 I2.99087 J-0.23392
G1 X92.71915 Y-24.49472
G3 X92.71895 Y-24.49748 I2.99146 J-0.22626
G3 X92.36948 Y-30.66115 I171.66568 J-12.82484
G3 X92.36903 Y-30.67351 I2.99775 J-0.11609
G1 X92.34106 Y-31.48189
G3 X92.34097 Y-31.48438 I2.99821 J-0.10373
G3 X92.31561 Y-32.37876 I82.82292 J-2.79666
G1 X92.30526 Y-32.82351
G3 X92.30511 Y-32.83021 I2.99919 J-0.06978
G1 X92.30275 Y-32.94241
G3 X92.30272 Y-32.94383 I2.99934 J-0.06308
G3 X92.28458 Y-36.03481 I105.21524 J-2.16291
G3 X92.28469 Y-36.04509 I2.99988 J0.02646
G1 X92.28995 Y-36.47403
G3 X92.29007 Y-36.48327 I2.99978 J0.03673
G1 X92.29177 Y-36.59402
G3 X92.29196 Y-36.60484 I2.99965 J0.04597
G1 X92.30154 Y-37.11084
G3 X92.30177 Y-37.1222 I2.99946 J0.05679
G1 X92.30471 Y-37.25149
G3 X92.52982 Y-41.60249 I73.00614 J1.59585
G3 X92.53142 Y-41.62131 I2.99004 J0.24431
G1 X92.5803 Y-42.1765
G3 X92.58132 Y-42.18781 I2.98844 J0.26313
G3 X92.96166 Y-45.30958 I52.86103 J4.85621
G3 X93.02952 Y-45.73764 I21.75758 J3.23004
G1 X93.06062 Y-45.9254
G3 X93.06303 Y-45.9397 I2.95968 J0.49022
G1 X93.09632 Y-46.13487
G3 X93.09696 Y-46.13857 I2.95727 J0.50451
G3 X93.50736 Y-48.20233 I39.7714 J6.83631
G3 X94.02779 Y-50.24776 I37.94208 J8.56501
G3 X94.02842 Y-50.24997 I2.88623 J0.81835
G3 X94.44147 Y-51.60264 I35.2284 J10.01774
G3 X96.64291 Y-56.84362 I32.8547 J10.71763
G3 X96.64439 Y-56.84646 I2.66098 J1.38535
G3 X97.50684 Y-58.40809 I33.63222 J17.55514
G3 X97.65006 Y-58.65146 I10.92259 J6.26375
G3 X98.72846 Y-60.36959 I35.02683 J20.78751
G3 X98.73034 Y-60.37243 I2.50045 J1.65764
G3 X101.09609 Y-63.63227 I40.69118 J27.04228
G3 X101.10203 Y-63.63975 I2.3533 J1.86064
G1 X101.41598 Y-64.03423
G3 X101.42925 Y-64.05079 I2.34736 J1.86813
G1 X101.59274 Y-64.25327
G3 X101.60369 Y-64.26675 I2.33409 J1.88468
G1 X101.84958 Y-64.56769
G3 X101.85705 Y-64.5768 I2.32314 J1.89816
G1 X101.89236 Y-64.61967
G3 X101.90086 Y-64.62994 I2.31567 J1.90727
G1 X102.18477 Y-64.97154
G3 X102.19751 Y-64.98676 I2.30717 J1.91754
G1 X102.38828 Y-65.21324
G3 X102.40036 Y-65.22748 I2.29444 J1.93276
G1 X102.65658 Y-65.52783
G3 X102.673 Y-65.54692 I2.28236 J1.947
G1 X103.01803 Y-65.94457
G3 X103.0331 Y-65.96181 I2.26594 J1.96609
G1 X103.232 Y-66.18754
G3 X103.23592 Y-66.19198 I2.25086 J1.98334
G3 X104.97148 Y-68.06039 I39.34225 J34.80438
G3 X106.19412 Y-69.26784 I30.67386 J29.83717
G3 X106.93148 Y-69.95028 I22.5286 J23.60206
G3 X106.93502 Y-69.95345 I2.0036 J2.23284
G1 X107.09679 Y-70.09815
G3 X107.23693 Y-70.22221 I3.89565 J4.25951
G1 X110.67762 Y-73.25237
G1 X73.94866 Y-112.99836
G3 X0.0 Y-100.43695 I-73.94866 J-211.38613
G3 X-73.94866 Y-112.99836 I0.0 J-223.94754
G1 X-110.67762 Y-73.25237
G1 X-107.23693 Y-70.22221
G3 X-107.09679 Y-70.09815 I-3.75552 J4.38356
G1 X-106.93502 Y-69.95345
G3 X-106.93148 Y-69.95028 I-2.00007 J2.23601
G3 X-106.19412 Y-69.26784 I-21.79123 J24.2845
G3 X-104.97148 Y-68.06039 I-29.45122 J31.04461
G3 X-103.23592 Y-66.19198 I-37.6067 J36.6728
G3 X-103.232 Y-66.18754 I-2.24694 J1.98777
G1 X-103.0331 Y-65.96181
G3 X-103.01803 Y-65.94457 I-2.25086 J1.98334
G1 X-102.673 Y-65.54692
G3 X-102.65658 Y-65.52783 I-2.26594 J1.96609
G1 X-102.40036 Y-65.22748
G3 X-102.38828 Y-65.21324 I-2.28236 J1.947
G1 X-102.19751 Y-64.98676
G3 X-102.18477 Y-64.97154 I-2.29444 J1.93276
G1 X-101.90086 Y-64.62994
G3 X-101.89236 Y-64.61967 I-2.30717 J1.91754
G1 X-101.85705 Y-64.5768
G3 X-101.84958 Y-64.56769 I-2.31567 J1.90727
G1 X-101.60369 Y-64.26675
G3 X-101.59274 Y-64.25327 I-2.32314 J1.89816
G1 X-101.42925 Y-64.05079
G3 X-101.41598 Y-64.03423 I-2.33409 J1.88468
G1 X-101.10203 Y-63.63975
G3 X-101.09609 Y-63.63227 I-2.34736 J1.86813
G3 X-98.73034 Y-60.37243 I-38.32543 J30.30212
G3 X-98.72846 Y-60.36959 I-2.49856 J1.66048
G3 X-97.65006 Y-58.65146 I-33.94843 J22.50563
G3 X-97.50684 Y-58.40809 I-10.77937 J6.50713
G3 X-96.64439 Y-56.84646 I-32.76977 J19.11677
G3 X-96.64291 Y-56.84362 I-2.6595 J1.38819
G3 X-94.44147 Y-51.60264 I-30.65325 J15.95861
G3 X-94.02842 Y-50.24997 I-34.81535 J11.37041
G3 X-94.02779 Y-50.24776 I-2.8856 J0.82056
G3 X-93.50736 Y-48.20233 I-37.42164 J10.61044
G3 X-93.09696 Y-46.13857 I-39.361 J8.90007
G3 X-93.09632 Y-46.13487 I-2.95664 J0.50822
G1 X-93.06303 Y-45.9397
G3 X-93.06062 Y-45.9254 I-2.95727 J0.50451
G1 X-93.02952 Y-45.73764
G3 X-92.96166 Y-45.30958 I-21.68972 J3.6581
G3 X-92.58132 Y-42.18781 I-52.48069 J7.97798
G3 X-92.5803 Y-42.1765 I-2.98742 J0.27445
G1 X-92.53142 Y-41.62131
G3 X-92.52982 Y-41.60249 I-2.98844 J0.26313
G3 X-92.30471 Y-37.25149 I-72.78103 J5.94684
G1 X-92.30177 Y-37.1222
G3 X-92.30154 Y-37.11084 I-2.99923 J0.06816
G1 X-92.29196 Y-36.60484
G3 X-92.29177 Y-36.59402 I-2.99946 J0.05679
G1 X-92.29007 Y-36.48327
G3 X-92.28995 Y-36.47403 I-2.99965 J0.04597
G1 X-92.28469 Y-36.04509
G3 X-92.28458 Y-36.03481 I-2.99978 J0.03673
G3 X-92.30272 Y-32.94383 I-105.23337 J0.92807
G3 X-92.30275 Y-32.94241 I-2.99937 J-0.06166
G1 X-92.30511 Y-32.83021
G3 X-92.30526 Y-32.82351 I-2.99934 J-0.06308
G1 X-92.31561 Y-32.37876
G3 X-92.34097 Y-31.48438 I-82.84829 J-1.90227
G3 X-92.34106 Y-31.48189 I-2.99829 J-0.10124
G1 X-92.36903 Y-30.67351
G3 X-92.36948 Y-30.66115 I-2.99821 J-0.10373
G3 X-92.71895 Y-24.49748 I-172.01515 J-6.66118
G3 X-92.71915 Y-24.49472 I-2.99166 J-0.2235
G1 X-92.77635 Y-23.73858
G3 X-92.77694 Y-23.73092 I-2.99146 J-0.22626
G3 X-93.25269 Y-18.38046 I-251.88653 J-19.70072
G3 X-93.25315 Y-18.37587 I-2.98522 J-0.29745
G1 X-93.35582 Y-17.36123
G3 X-93.35698 Y-17.34996 I-2.98476 J-0.30204
G1 X-93.45546 Y-16.41221
G3 X-93.47061 Y-16.26995 I-7.60973 J-0.7389
G3 X-93.56523 Y-15.40125 I-103.98747 J-10.88656
G3 X-93.59225 Y-15.15835 I-10.47972 J-1.04274
G3 X-94.39955 Y-8.59456 I-302.24473 J-33.84229
G3 X-94.39977 Y-8.59291 I-2.97341 J-0.39857
G1 X-94.45452 Y-8.18618
G3 X-94.45501 Y-8.18256 I-2.97318 J-0.40022
G1 X-94.5068 Y-7.80131
G3 X-94.50722 Y-7.79824 I-2.97269 J-0.40385
G3 X-95.34098 Y-2.04116 I-371.17707 J-50.81626
G3 X-95.34158 Y-2.03728 I-2.9656 J-0.45302
G1 X-95.50154 Y-0.99921
G3 X-95.50263 Y-0.99219 I-2.965 J-0.4569
G1 X-95.6549 Y-0.01935
G3 X-95.65603 Y-0.01219 I-2.96391 J-0.46391
G1 X-95.94593 Y1.81116
G3 X-95.94676 Y1.81635 I-2.96279 J-0.47107
G1 X-96.20322 Y3.41137
G1 X-96.20329 Y3.41181
G1 X-96.65225 Y6.2014
G1 X-96.73542 Y6.72183
G1 X-96.89076 Y7.69983
G1 X-97.02503 Y8.55324
G1 X-97.25694 Y10.05079
G1 X-97.27769 Y10.18651
G1 X-97.4421 Y11.27417
G1 X-97.5027 Y11.6811
G3 X-97.50279 Y11.68172 I-2.96727 J-0.44191
G2 X-97.90914 Y14.51911 I244.2288 J36.4243
G1 X-97.9903 Y15.11472
G1 X-98.06688 Y15.6889
G1 X-98.13959 Y16.24654
G1 X-98.15667 Y16.37951
G1 X-98.17374 Y16.51309
G1 X-98.19057 Y16.64562
G1 X-98.20716 Y16.77708
G1 X-98.22353 Y16.90751
G1 X-98.2398 Y17.03804
G3 X-98.24011 Y17.04053 I-2.97694 J-0.37123
G2 X-98.69397 Y21.13784 I140.27327 J17.61168
G1 X-98.71202 Y21.3275
G1 X-98.78141 Y22.087
G1 X-98.84186 Y22.79542
G1 X-98.89484 Y23.46239
G1 X-98.90653 Y23.61648
G2 X-99.06245 Y26.0593 I103.60144 J7.83899
G1 X-99.08555 Y26.52325
G1 X-99.09544 Y26.73641
G1 X-99.10479 Y26.94774
G1 X-99.10481 Y26.94824
G2 X-99.15342 Y33.37509 I87.19485 J3.87304
G1 X-99.13336 Y33.95875
G2 X-98.83206 Y38.38145 I72.64361 J-2.72734
G3 X-98.83175 Y38.38454 I-2.98545 J0.29507
G2 X-97.86236 Y44.94862 I67.22007 J-6.57353
G3 X-97.86225 Y44.94918 I-2.9427 J0.58354
G2 X-96.23417 Y51.35402 I60.78341 J-12.04155
G2 X-94.72599 Y55.60281 I56.91319 J-17.81021
G3 X-94.72545 Y55.60416 I-2.78721 J1.1097
G2 X-93.38733 Y58.71316 I56.13843 J-22.31967
G3 X-93.38641 Y58.71514 I-2.7213 J1.26275
G2 X-91.06424 Y63.23101 I55.88819 J-25.88405
G1 X-90.90618 Y63.50817
G1 X-90.60502 Y64.02744
G1 X-90.338 Y64.47852
G1 X-90.22131 Y64.67298
G2 X-88.37665 Y67.55379 I54.62024 J-32.94389
G2 X-86.74965 Y69.83942 I53.82122 J-36.59014
G1 X-86.56316 Y70.0886
G1 X-86.38056 Y70.33028
G1 X-86.19776 Y70.56999
G2 X-83.21526 Y74.20064 I54.99449 J-42.13646
G1 X-83.21518 Y74.20073
G1 X-83.21534 Y74.20055
G1 X-83.21526 Y74.20064
G2 X-78.29778 Y79.29345 I57.55602 J-50.65409
G3 X-78.28101 Y79.3094 I-2.05964 J2.18126
G2 X-78.15145 Y79.4315 I7.1163 J-7.42102
G3 X-78.13643 Y79.44552 I-2.0386 J2.20094
G2 X-72.93165 Y83.93867 I56.28771 J-59.94142
G3 X-72.89715 Y83.96644 I-1.86373 J2.35085
G3 X-72.86428 Y83.99205 I-1.82766 J2.379
G2 X-68.40736 Y87.29638 I55.51063 J-70.21548
G1 X-67.97436 Y87.59554
G1 X-67.55716 Y87.88047
G1 X-67.15144 Y88.15446
G1 X-66.75699 Y88.41798
G1 X-66.37136 Y88.67294
G2 X-60.28037 Y92.37909 I56.49578 J-85.99133
G3 X-60.2796 Y92.37953 I-1.46968 J2.61535
G2 X-57.13742 Y94.08093 I54.7771 J-97.41093
G2 X-55.54391 Y94.89476 I63.46297 J-122.29635
G1 X-55.14425 Y95.09391
G1 X-54.53318 Y95.39467
G3 X-54.52877 Y95.39684 I-1.32477 J2.69165
G2 X-54.25188 Y95.53161 I11.27829 J-22.82059
G3 X-54.22066 Y95.54679 I-1.29655 J2.70536
G3 X-54.16882 Y95.57207 I-1.28903 J2.70895
G3 X-54.11737 Y95.59678 I-1.27306 J2.71649
G2 X-53.95586 Y95.67471 I5.10649 J-10.37782
G3 X-53.9431 Y95.68078 I-1.28262 J2.71199
G1 X-53.49287 Y95.89631
G2 X-46.51171 Y98.96593 I56.0697 J-118.04478
G3 X-46.51077 Y98.96631 I-1.12688 J2.78031
G1 X-46.28689 Y99.05714
G1 X-46.07507 Y99.14268
G1 X-45.23732 Y99.47742
G1 X-44.50546 Y99.76529
G2 X-43.21983 Y100.26123 I121.16741 J-312.18576
G1 X-42.73469 Y100.44533
G2 X-41.04005 Y101.07624 I63.09966 J-166.8953
G3 X-41.01219 Y101.08661 I-1.03245 J2.81674
G3 X-40.95976 Y101.10583 I-1.00627 J2.8262
G3 X-40.90687 Y101.12522 I-1.00635 J2.82617
G2 X-40.76117 Y101.17853 I2.70458 J-7.16662
G3 X-40.73888 Y101.18653 I-1.00218 J2.82766
G1 X-40.0322 Y101.44329
G1 X-39.6825 Y101.56936
G1 X-39.33336 Y101.6946
G1 X-38.08514 Y102.13815
G1 X-36.99254 Y102.52207
G1 X-33.13696 Y103.86434
G3 X-33.12946 Y103.86697 I-0.98635 J2.83322
G1 X-32.16598 Y104.20526
G3 X-29.22658 Y105.27005 I-50.29303 J143.42525
G3 X-29.22054 Y105.27231 I-1.05073 J2.80998
G1 X-28.96728 Y105.36763
G3 X-28.95632 Y105.37179 I-1.05677 J2.80771
G1 X-28.46639 Y105.55837
G3 X-28.45157 Y105.56406 I-1.06773 J2.80356
G1 X-27.99317 Y105.74143
G3 X-27.99019 Y105.74258 I-1.08255 J2.79787
G3 X-24.44925 Y107.22065 I-27.56316 J71.01213
G1 X-24.44916 Y107.22069
G3 X-22.71112 Y108.03281 I-23.80447 J53.21091
G3 X-22.57849 Y108.0973 I-2.51033 J5.33071
G3 X-22.4611 Y108.1552 I-2.68281 J5.58777
G3 X-20.959 Y108.92213 I-26.19387 J53.1573
G3 X-20.95506 Y108.92422 I-1.40208 J2.6522
G3 X-17.35172 Y111.00207 I-27.63235 J52.08241
G3 X-17.21221 Y111.08948 I-3.86383 J6.32145
G3 X-13.8767 Y113.34682 I-31.55258 J50.21623
G3 X-13.87576 Y113.3475 I-1.76481 J2.42599
G3 X-10.57848 Y115.94357 I-32.79423 J45.04408
G3 X-10.57539 Y115.9462 I-1.94328 J2.28553
G3 X-8.99389 Y117.35616 I-31.06251 J36.43341
G3 X-8.98764 Y117.362 I-2.04546 J2.19456
G1 X-8.89706 Y117.44692
G3 X-8.88698 Y117.45641 I-2.05171 J2.18872
G1 X-8.71787 Y117.6164
G3 X-8.7053 Y117.62837 I-2.06178 J2.17923
G1 X-8.55818 Y117.76919
G3 X-8.5469 Y117.78003 I-2.07436 J2.16726
G1 X-8.41879 Y117.90394
G3 X-8.41108 Y117.91142 I-2.08563 J2.15642
G1 X-8.35522 Y117.96584
G3 X-8.34379 Y117.97703 I-2.09334 J2.14894
G1 X-8.13547 Y118.18214
G3 X-8.11926 Y118.19822 I-2.10476 J2.13775
G1 X-7.96417 Y118.35326
G3 X-7.95891 Y118.35853 I-2.12097 J2.12167
G3 X-7.45395 Y118.87765 I-22.31543 J22.2122
G3 X-6.54433 Y119.87955 I-19.89506 J18.97626
G3 X-5.25053 Y121.51279 I-17.3656 J15.08567
G3 X-4.62746 Y122.4406 I-12.92559 J9.35325
G3 X-4.61394 Y122.46254 I-2.54758 J1.58425
G1 X-4.49542 Y122.65684
G3 X-4.48001 Y122.68237 I-2.56109 J1.56231
G3 X-4.04538 Y123.47675 I-10.46534 J6.24215
G3 X-4.03732 Y123.49298 I-2.6835 J1.34121
G1 X0.0 Y131.69438
G1 X2.89329 Y125.81696
G1 F300.0 X1.67169 Y123.99659
G3 F800.0 X-2.69038 Y122.83287 I-1.67169 J-2.49107
G2 X-3.3913 Y121.58213 I-12.25947 J6.04848
G3 X-3.40225 Y121.56465 I2.53656 J-1.60184
G2 X-3.65972 Y121.167 I-11.04646 J6.87009
G3 X-3.66012 Y121.1664 I2.48813 J-1.67607
G1 X-3.73726 Y121.05182
G1 X-3.90962 Y120.80211
G1 X-4.08771 Y120.55236
G2 X-4.19716 Y120.40281 I-27.03808 J19.67233
G1 X-4.36597 Y120.17739
G2 X-5.03364 Y119.33821 I-20.17377 J15.36573
G1 X-5.2491 Y119.08236
G2 X-5.84757 Y118.40268 I-18.57713 J15.75409
G3 X-5.85284 Y118.3969 I2.21432 J-2.02405
G2 X-6.49039 Y117.7149 I-25.03354 J22.76301
G1 X-6.68758 Y117.51135
G2 X-7.18602 Y117.01059 I-21.86863 J21.26838
G3 X-7.18708 Y117.00954 I2.10161 J-2.14085
G2 X-9.54954 Y114.847 I-31.71038 J32.27019
G3 X-9.55066 Y114.84604 I1.94603 J-2.28319
G2 X-12.25119 Y112.68356 I-36.07289 J42.28064
G3 X-12.2533 Y112.68197 I1.80138 J-2.39896
G2 X-15.19305 Y110.60653 I-35.79739 J47.58529
G3 X-15.19524 Y110.60508 I1.65539 J-2.50194
G2 X-18.28534 Y108.68875 I-33.17121 J50.03925
G1 X-18.28559 Y108.6886
G2 X-21.46393 Y106.97518 I-29.68315 J51.25659
G3 X-21.46461 Y106.97483 I1.34244 J-2.68288
G2 X-24.72286 Y105.45969 I-27.80858 J55.54024
G3 X-24.72659 Y105.45808 I1.18576 J-2.75572
G2 X-27.3138 Y104.396 I-30.53379 J70.69704
G1 X-27.69387 Y104.24827
G1 X-28.1236 Y104.08339
G1 X-28.74202 Y103.84978
G1 X-29.3632 Y103.61905
G1 X-29.77644 Y103.4675
G1 X-30.33188 Y103.26596
G1 X-31.07763 Y102.99868
G1 X-31.50359 Y102.84745
G1 X-31.72906 Y102.76777
G1 X-32.799 Y102.39232
G1 X-33.87185 Y102.0188
G1 X-34.58921 Y101.76974
G1 X-34.58964 Y101.76959
G1 X-35.50933 Y101.45012
G3 X-35.65044 Y101.40101 I1.15214 J-3.53778
G1 X-36.76236 Y101.013
G3 X-36.77018 Y101.01026 I0.98843 J-2.83249
G1 X-37.91883 Y100.60586
G3 X-37.92778 Y100.60269 I0.99625 J-2.82975
G1 X-38.69264 Y100.33069
G3 X-38.7029 Y100.32702 I1.0052 J-2.82658
G1 X-39.69804 Y99.96905
G3 X-39.7603 Y99.94681 I1.15707 J-3.33692
G3 X-39.8173 Y99.92591 I1.18799 J-3.32851
G3 X-42.31538 Y99.00121 I63.03615 J-174.12827
G3 X-42.32223 Y98.9986 I1.06164 J-2.80587
G1 X-43.14699 Y98.68424
G3 X-43.15245 Y98.68215 I1.0685 J-2.80327
G3 X-44.27222 Y98.24721 I49.1661 J-128.23861
G3 X-48.15802 Y96.65668 I51.55247 J-131.48911
G3 X-48.16131 Y96.65527 I1.17758 J-2.75922
G1 X-48.41328 Y96.54738
G3 X-48.42287 Y96.54325 I1.18088 J-2.75781
G1 X-48.99798 Y96.29463
G3 X-49.00322 Y96.29235 I1.19047 J-2.75369
G3 X-53.92324 Y94.02328 I48.7219 J-112.11226
G3 X-53.93332 Y94.01834 I1.31646 J-2.69573
G1 X-54.62817 Y93.67578
G3 X-54.64676 Y93.66654 I1.32654 J-2.69078
G1 X-55.33925 Y93.31916
G3 X-55.35489 Y93.31126 I1.34513 J-2.68153
G1 X-55.81515 Y93.07701
G3 X-55.82987 Y93.06947 I1.36077 J-2.67363
G1 X-56.44186 Y92.75373
G3 X-56.45093 Y92.74903 I1.37549 J-2.66609
G3 X-58.94532 Y91.41082 I51.43087 J-98.85999
G1 X-58.94535 Y91.41081
G1 X-58.94529 Y91.41084
G1 X-58.94532 Y91.41082
G3 X-61.48124 Y89.96067 I49.17671 J-88.93926
G3 X-63.97839 Y88.43601 I49.13833 J-83.28771
G3 X-63.985 Y88.43182 I1.60188 J-2.53653
G1 X-64.461 Y88.12948
G3 X-64.47617 Y88.11978 I1.60848 J-2.53235
G1 X-64.95017 Y87.8147
G1 X-64.95032 Y87.8146
G1 X-64.95001 Y87.8148
G1 X-64.95017 Y87.8147
G3 X-65.26549 Y87.60967 I21.33759 J-33.16046
G3 X-65.36895 Y87.54227 I2.79541 J-4.40464
G3 X-65.46129 Y87.48173 I2.86253 J-4.46621
G3 X-65.55972 Y87.41702 I2.91574 J-4.54227
G3 X-65.6763 Y87.33994 I2.97213 J-4.6224
G3 X-65.71925 Y87.31147 I2.63286 J-4.01847
G3 X-65.77508 Y87.27452 I2.64383 J-4.05505
G3 X-65.83269 Y87.23633 I2.66671 J-4.08524
G3 X-65.90866 Y87.18567 I2.69036 J-4.11634
G3 X-67.77679 Y85.91065 I49.5783 J-74.64712
G3 X-68.31282 Y85.53227 I33.30627 J-47.75288
G3 X-68.92028 Y85.09641 I37.32079 J-52.65422
G3 X-72.07246 Y82.70553 I50.49429 J-69.84619
G3 X-72.29826 Y82.52539 I9.48916 J-12.12618
G3 X-73.38688 Y81.63889 I49.2671 J-61.6108
G3 X-73.39085 Y81.63558 I1.91498 J-2.30929
G1 X-73.67031 Y81.40303
G3 X-73.6759 Y81.39837 I1.91896 J-2.30599
G3 X-76.46718 Y78.95455 I52.54486 J-62.83163
G3 X-76.47591 Y78.94652 I2.02679 J-2.21182
G1 X-76.85101 Y78.60006
G3 X-76.86247 Y78.58942 I2.03552 J-2.20379
G1 X-77.06157 Y78.40359
G1 X-77.06182 Y78.40335
G3 X-78.16008 Y77.3542 I45.15182 J-48.36494
G3 X-81.19149 Y74.22242 I51.95273 J-53.32067
G3 X-81.19231 Y74.22152 I2.21574 J-2.0225
G3 X-82.1634 Y73.13427 I51.72646 J-47.17703
G3 X-82.16584 Y73.13147 I2.25817 J-1.97501
G1 X-82.28422 Y72.99579
G3 X-82.2857 Y72.99408 I2.26061 J-1.97222
G3 X-85.98994 Y68.34229 I50.81301 J-44.26328
G3 X-87.55884 Y66.08026 I50.18427 J-36.482
G3 X-87.56026 Y66.07811 I2.50243 J-1.65464
G1 X-87.6565 Y65.93229
G3 X-87.6585 Y65.92926 I2.50385 J-1.6525
G3 X-89.21481 Y63.43778 I51.55868 J-33.93825
G1 X-89.21494 Y63.43756
G3 X-91.9169 Y58.33167 I52.07481 J-30.82503
G3 X-91.91785 Y58.32965 I2.71557 J-1.27503
G3 X-94.08059 Y53.06798 I53.4085 J-25.02815
G3 X-94.08126 Y53.06609 I2.82652 J-1.00538
G3 X-95.61975 Y48.04456 I56.55203 J-20.0728
G3 X-95.62202 Y48.03574 I2.9041 J-0.75245
G1 X-95.7045 Y47.71336
G3 X-95.70667 Y47.70483 I2.90638 J-0.74363
G3 X-96.82006 Y42.29118 I59.9359 J-15.14791
G1 X-96.82013 Y42.29076
G3 X-97.43419 Y37.2204 I67.34975 J-10.729
G3 X-97.43475 Y37.21365 I2.98966 J-0.24892
G1 X-97.46103 Y36.88915
G3 X-97.46175 Y36.88007 I2.99021 J-0.24217
G3 X-97.68075 Y32.18554 I75.20293 J-5.86066
G3 X-97.68885 Y31.50103 I40.4976 J-0.82132
G3 X-97.58429 Y26.53452 I89.73784 J-0.59505
G3 X-97.58414 Y26.53147 I2.99644 J0.14614
G1 X-97.5682 Y26.21139
G3 X-97.56736 Y26.19541 I2.99629 J0.14919
G1 X-97.52804 Y25.48222
G3 X-97.52721 Y25.46781 I2.99545 J0.16516
G1 X-97.51295 Y25.23012
G3 X-97.51245 Y25.22188 I2.99462 J0.17958
G1 X-97.49257 Y24.90502
G3 X-97.49188 Y24.89422 I2.99412 J0.18781
G1 X-97.46385 Y24.4719
G3 X-97.46321 Y24.46235 I2.99342 J0.19862
G1 X-97.44642 Y24.22103
G3 X-97.4459 Y24.21372 I2.99277 J0.20816
G1 X-97.42605 Y23.938
G3 X-97.42501 Y23.92401 I2.99225 J0.21548
G1 X-97.36862 Y23.18899
G3 X-97.36833 Y23.18524 I2.99121 J0.22947
G3 X-97.28257 Y22.16919 I79.53311 J6.20145
G1 X-97.25927 Y21.9097
G3 X-97.25866 Y21.90297 I2.98798 J0.2683
G1 X-97.23303 Y21.62457
G3 X-97.23237 Y21.61752 I2.98737 J0.27502
G1 X-97.20433 Y21.32062
G3 X-97.20362 Y21.31323 I2.98671 J0.28208
G1 X-97.17293 Y20.99663
G3 X-97.17163 Y20.98345 I2.986 J0.28946
G1 X-97.08934 Y20.17188
G3 X-97.08744 Y20.15375 I2.9847 J0.30263
G1 X-97.00022 Y19.3427
G3 X-96.999 Y19.33154 I2.9828 J0.32077
G1 X-96.97321 Y19.09988
G3 X-96.97263 Y19.09473 I2.98158 J0.33193
G1 X-96.94271 Y18.83006
G3 X-96.94159 Y18.8203 I2.981 J0.33707
G1 X-96.85948 Y18.11486
G1 X-96.85947 Y18.11478
G1 X-96.85949 Y18.11493
G1 X-96.85948 Y18.11486
G3 X-96.74157 Y17.14623 I91.18643 J10.60868
G3 X-96.57871 Y15.87734 I193.51045 J24.19196
G3 X-96.57836 Y15.87471 I2.97432 J0.39167
G3 X-96.23131 Y13.36094 I233.91001 J31.01293
G3 X-95.85933 Y10.8528 I249.14065 J35.66824
G3 X-95.85905 Y10.85101 I2.96529 J0.45506
G1 X-95.65935 Y9.55491
G3 X-95.65844 Y9.54904 I2.96501 J0.45685
G1 X-95.59101 Y9.11712
G3 X-95.59014 Y9.11155 I2.9641 J0.46273
G1 X-95.3172 Y7.38447
G3 X-95.31637 Y7.37926 I2.96323 J0.46829
G1 X-95.13238 Y6.22817
G3 X-95.13212 Y6.22657 I2.9624 J0.47351
G1 X-95.08289 Y5.91961
G3 X-95.08277 Y5.91888 I2.96214 J0.47511
G1 X-94.6913 Y3.48203
G1 X-94.30335 Y1.04779
G1 X-94.14308 Y0.02828
G1 X-94.09041 Y-0.30924
G1 X-93.88034 Y-1.66971
G1 X-93.74297 Y-2.57365
G1 X-93.56243 Y-3.78219
G1 X-93.48955 Y-4.2774
G1 X-93.41731 Y-4.77289
G1 X-93.27407 Y-5.76985
G2 X-92.99825 Y-7.75149 I-280.65369 J-40.07369
G3 X-92.99443 Y-7.77874 I2.9728 J0.40309
G2 X-92.9655 Y-7.99195 I-11.69609 J-1.69528
G3 X-92.95796 Y-8.04748 I2.97632 J0.37621
G2 X-92.92789 Y-8.27057 I-10.66719 J-1.5513
G3 X-92.92084 Y-8.32347 I2.97714 J0.36965
G2 X-92.9075 Y-8.42294 I-6.18814 J-0.88038
G3 X-92.9011 Y-8.4707 I2.97649 J0.37481
G2 X-92.88755 Y-8.57209 I-5.9532 J-0.84697
G3 X-92.88505 Y-8.59162 I2.97685 J0.37198
G1 X-92.74633 Y-9.64547
G1 X-92.61124 Y-10.69982
G3 X-92.60732 Y-10.72931 I2.97568 J0.38125
G2 X-92.59843 Y-10.79978 I-2.9567 J-0.40865
G3 X-92.58946 Y-10.87088 I2.98068 J0.3399
G2 X-92.57985 Y-10.94737 I-3.06151 J-0.42341
G3 X-92.57049 Y-11.02187 I2.98104 J0.33674
G2 X-92.56012 Y-11.10484 I-3.16673 J-0.43823
G3 X-92.55442 Y-11.1523 I2.98142 J0.33339
G2 X-92.45198 Y-11.98282 I-90.8102 J-11.62246
G3 X-92.44647 Y-12.02653 I2.97908 J0.35364
G2 X-92.44152 Y-12.06725 I-1.72968 J-0.23113
G3 X-92.43304 Y-12.13693 I2.98209 J0.32735
G2 X-92.42787 Y-12.17956 I-1.76877 J-0.23617
G3 X-92.42456 Y-12.20862 I2.9823 J0.32538
G1 X-92.28023 Y-13.42165
G1 X-92.143 Y-14.61784
G2 X-92.01202 Y-15.80386 I-228.79369 J-25.86599
G1 X-91.92686 Y-16.60121
G1 X-91.81703 Y-17.66385
G1 X-91.75658 Y-18.26704
G1 X-91.63989 Y-19.47315
G1 X-91.52838 Y-20.68497
G3 X-91.52504 Y-20.71915 I2.98738 J0.27489
G2 X-91.51808 Y-20.79705 I-2.74574 J-0.28439
G3 X-91.51515 Y-20.83321 I2.9916 J0.2244
G1 X-91.43977 Y-21.6979
G2 X-91.34529 Y-22.8366 I-221.4311 J-18.94508
G3 X-91.34285 Y-22.86525 I2.99036 J0.24037
G2 X-91.33557 Y-22.95604 I-4.63831 J-0.41761
G3 X-91.33112 Y-23.01181 I2.9926 J0.21053
G2 X-91.3234 Y-23.10892 I-5.09298 J-0.45389
G3 X-91.31856 Y-23.16938 I2.99269 J0.20933
G2 X-91.30354 Y-23.36032 I-8.2249 J-0.74268
G3 X-91.2987 Y-23.42291 I2.9933 J0.20043
G2 X-91.28338 Y-23.62059 I-9.42808 J-0.82977
G3 X-91.2795 Y-23.67198 I2.9933 J0.20036
G2 X-91.26973 Y-23.79969 I-8.32479 J-0.70103
G3 X-91.26643 Y-23.84308 I2.99293 J0.20588
G2 X-91.25244 Y-24.0282 I-11.9423 J-0.99569
G3 X-91.25039 Y-24.05637 I2.99313 J0.20292
G2 X-91.18477 Y-24.95646 I-104.08988 J-8.04194
G3 X-91.18463 Y-24.9585 I2.99297 J0.20523
G1 X-91.14188 Y-25.57576
G1 X-91.14186 Y-25.57596
G1 X-91.14189 Y-25.57555
G1 X-91.14188 Y-25.57576
G2 X-90.99304 Y-28.00061 I-157.37829 J-10.8769
G3 X-90.99271 Y-28.00669 I2.99569 J0.16073
G2 X-90.82582 Y-31.97824 I-145.53613 J-8.10486
G1 X-90.81865 Y-32.24359
G1 X-90.81163 Y-32.5254
G1 X-90.80491 Y-32.82377
G1 X-90.79279 Y-33.47671
G1 X-90.78435 Y-34.12997
G1 X-90.78266 Y-34.31506
G3 X-90.78264 Y-34.3169 I2.99987 J0.02744
G2 X-90.78093 Y-35.7894 I-85.67723 J-0.83626
G1 X-90.78454 Y-36.21647
G1 X-90.791 Y-36.70234
G1 X-90.79303 Y-36.82377
G1 X-90.79527 Y-36.94823
G1 X-90.8085 Y-37.54505
G2 X-90.85409 Y-38.88998 I-72.10572 J1.77108
G1 X-90.87503 Y-39.35027
G2 X-90.98493 Y-41.14419 I-74.5131 J3.66446
G1 X-90.99324 Y-41.25445
G1 X-91.03631 Y-41.78944
G1 X-91.06024 Y-42.06456
G1 X-91.10708 Y-42.56554
G1 X-91.15802 Y-43.06492
G1 X-91.1943 Y-43.39678
G1 X-91.20417 Y-43.48406
G3 X-91.20717 Y-43.5117 I2.98099 J-0.3372
G2 X-91.22352 Y-43.65296 I-5.94838 J0.61707
G3 X-91.22542 Y-43.66812 I2.97578 J-0.38042
G1 X-91.29379 Y-44.22548
G2 X-91.61058 Y-46.34602 I-50.8989 J6.51997
G3 X-91.61071 Y-46.34676 I2.95717 J-0.50515
G2 X-92.48584 Y-50.31463 I-41.61508 J7.09793
G2 X-93.68403 Y-53.94939 I-35.80203 J9.78722
G1 X-93.8142 Y-54.27881
G1 X-93.94752 Y-54.60679
G1 X-93.98353 Y-54.69381
G1 X-94.02789 Y-54.80012
G2 X-94.39036 Y-55.63473 I-35.69729 J15.00732
G2 X-95.18107 Y-57.2817 I-34.95893 J15.77038
G2 X-96.90301 Y-60.30636 I-34.71685 J17.76184
G1 X-97.10195 Y-60.62012
G1 X-97.30272 Y-60.93098
G2 X-97.70085 Y-61.53105 I-35.71485 J23.26401
G3 X-97.70358 Y-61.53508 I2.48572 J-1.67964
G2 X-98.53323 Y-62.72425 I-36.35156 J24.47753
G1 X-98.78785 Y-63.07464
G2 X-100.46785 Y-65.24755 I-43.95176 J32.24585
G1 X-100.72445 Y-65.56095
G2 X-102.57955 Y-67.70466 I-47.77778 J39.47088
G1 X-102.64226 Y-67.77359
G1 X-102.64235 Y-67.77368
G1 X-102.64218 Y-67.7735
G1 X-102.64226 Y-67.77359
G2 X-104.24801 Y-69.46211 I-39.15903 J35.63175
G1 X-104.49205 Y-69.70571
G2 X-105.38953 Y-70.57062 I-26.97611 J27.09419
G1 X-105.70862 Y-70.86595
G1 X-105.78485 Y-70.93555
G2 X-106.23452 Y-71.3382 I-39.80334 J43.99812
G3 X-106.44794 Y-75.61933 I1.98988 J-2.24508
G1 X-74.83669 Y-109.82721
G3 X-71.67957 Y-110.63549 I2.20329 J2.03605
G2 X0.0 Y-98.93695 I71.67957 J-213.749
G2 X71.67957 Y-110.63549 I0.0 J-225.44754
G3 X74.83669 Y-109.82721 I0.95383 J2.84433
G1 X106.44794 Y-75.61933
G3 X106.23452 Y-71.3382 I-2.20329 J2.03605
G2 X105.78485 Y-70.93555 I39.35367 J44.40078
G1 X105.70862 Y-70.86595
G1 X105.38953 Y-70.57062
G2 X104.49205 Y-69.70571 I26.07863 J27.95909
G1 X104.24801 Y-69.46211
G2 X102.64226 Y-67.77359 I37.55328 J37.32027
G1 X102.64218 Y-67.7735
G1 X102.64235 Y-67.77368
G1 X102.64226 Y-67.77359
G1 X102.57955 Y-67.70466
G2 X100.72445 Y-65.56095 I45.92268 J41.61459
G1 X100.46785 Y-65.24755
G2 X98.78785 Y-63.07464 I42.27176 J34.41876
G1 X98.53323 Y-62.72425
G2 X97.70358 Y-61.53508 I35.52191 J25.6667
G3 X97.70085 Y-61.53105 I-2.48844 J-1.67561
G2 X97.30272 Y-60.93098 I35.31672 J23.86408
G1 X97.10195 Y-60.62012
G1 X96.90301 Y-60.30636
G2 X95.18107 Y-57.2817 I32.99491 J20.7865
G2 X94.39036 Y-55.63473 I34.16823 J17.41735
G2 X94.02789 Y-54.80012 I35.33482 J15.84193
G1 X93.98353 Y-54.69381
G1 X93.94752 Y-54.60679
G1 X93.8142 Y-54.27881
G1 X93.68403 Y-53.94939
G2 X92.48584 Y-50.31463 I34.60384 J13.42197
G2 X91.61071 Y-46.34676 I40.73995 J11.0658
G3 X91.61058 Y-46.34602 I-2.95729 J-0.5044
G2 X91.29379 Y-44.22548 I50.58211 J8.64051
G1 X91.22542 Y-43.66812
G3 X91.22352 Y-43.65296 I-2.97768 J-0.36525
G2 X91.20717 Y-43.5117 I5.93203 J0.75833
G3 X91.20417 Y-43.48406 I-2.98399 J-0.30955
G1 X91.1943 Y-43.39678
G1 X91.15802 Y-43.06492
G1 X91.10708 Y-42.56554
G1 X91.06024 Y-42.06456
G1 X91.03631 Y-41.78944
G1 X90.99324 Y-41.25445
G1 X90.98493 Y-41.14419
G2 X90.87503 Y-39.35027 I74.40321 J5.45838
G1 X90.85409 Y-38.88998
G2 X90.8085 Y-37.54505 I72.06013 J3.11602
G1 X90.79527 Y-36.94823
G1 X90.79303 Y-36.82377
G1 X90.791 Y-36.70234
G1 X90.78454 Y-36.21647
G1 X90.78093 Y-35.7894
G2 X90.78264 Y-34.3169 I85.67895 J0.63624
G3 X90.78266 Y-34.31506 I-2.99986 J0.02928
G1 X90.78435 Y-34.12997
G1 X90.79279 Y-33.47671
G1 X90.80491 Y-32.82377
G1 X90.81163 Y-32.5254
G1 X90.81865 Y-32.24359
G1 X90.82582 Y-31.97824
G2 X90.99271 Y-28.00669 I145.70302 J-4.13331
G3 X90.99304 Y-28.00061 I-2.99536 J0.16681
G2 X91.14188 Y-25.57576 I157.52712 J-8.45204
G1 X91.14189 Y-25.57555
G1 X91.14186 Y-25.57596
G1 X91.14188 Y-25.57576
G1 X91.18463 Y-24.9585
G3 X91.18477 Y-24.95646 I-2.99283 J0.20726
G2 X91.25039 Y-24.05637 I104.15551 J-7.14184
G3 X91.25244 Y-24.0282 I-2.99109 J0.23109
G2 X91.26643 Y-23.84308 I11.95629 J-0.81057
G3 X91.26973 Y-23.79969 I-2.98963 J0.24926
G2 X91.2795 Y-23.67198 I8.33456 J-0.57331
G3 X91.28338 Y-23.62059 I-2.98942 J0.25174
G2 X91.2987 Y-23.42291 I9.44339 J-0.63209
G3 X91.30354 Y-23.36032 I-2.98845 J0.26302
G2 X91.31856 Y-23.16938 I8.23991 J-0.55174
G3 X91.3234 Y-23.10892 I-2.98784 J0.26979
G2 X91.33112 Y-23.01181 I5.1007 J-0.35677
G3 X91.33557 Y-22.95604 I-2.98816 J0.2663
G2 X91.34285 Y-22.86525 I4.64559 J-0.32682
G3 X91.34529 Y-22.8366 I-2.98791 J0.26902
G2 X91.43977 Y-21.6979 I221.52557 J-17.80638
G1 X91.51515 Y-20.83321
G3 X91.51808 Y-20.79705 I-2.98866 J0.26056
G2 X91.52504 Y-20.71915 I2.7527 J-0.20648
G3 X91.52838 Y-20.68497 I-2.98404 J0.30907
G1 X91.63989 Y-19.47315
G1 X91.75658 Y-18.26704
G1 X91.81703 Y-17.66385
G1 X91.92686 Y-16.60121
G1 X92.01202 Y-15.80386
G2 X92.143 Y-14.61784 I228.92467 J-24.67996
G1 X92.28023 Y-13.42165
G1 X92.42456 Y-12.20862
G3 X92.42787 Y-12.17956 I-2.97899 J0.35444
G2 X92.43304 Y-12.13693 I1.77394 J-0.19354
G3 X92.44152 Y-12.06725 I-2.97361 J0.39704
G2 X92.44647 Y-12.02653 I1.73463 J-0.19042
G3 X92.45198 Y-11.98282 I-2.97357 J0.39735
G2 X92.55442 Y-11.1523 I90.91264 J-10.79194
G3 X92.56012 Y-11.10484 I-2.97573 J0.38085
G2 X92.57049 Y-11.02187 I3.17711 J-0.35527
G3 X92.57985 Y-10.94737 I-2.97168 J0.41124
G2 X92.58946 Y-10.87088 I3.07111 J-0.34691
G3 X92.59843 Y-10.79978 I-2.97171 J0.41099
G2 X92.60732 Y-10.72931 I2.96559 J-0.33818
G3 X92.61124 Y-10.69982 I-2.97175 J0.41073
G1 X92.74633 Y-9.64547
G1 X92.88505 Y-8.59162
G3 X92.88755 Y-8.57209 I-2.97434 J0.39151
G2 X92.9011 Y-8.4707 I5.96674 J-0.74558
G3 X92.9075 Y-8.42294 I-2.97009 J0.42256
G2 X92.92084 Y-8.32347 I6.20148 J-0.7809
G3 X92.92789 Y-8.27057 I-2.97009 J0.42255
G2 X92.95796 Y-8.04748 I10.69725 J-1.3282
G3 X92.9655 Y-7.99195 I-2.96877 J0.43174
G2 X92.99443 Y-7.77874 I11.72502 J-1.48206
G3 X92.99825 Y-7.75149 I-2.96897 J0.43033
G2 X93.27407 Y-5.76985 I280.92951 J-38.09205
G1 X93.41731 Y-4.77289
G1 X93.48955 Y-4.2774
G1 X93.56243 Y-3.78219
G1 X93.74297 Y-2.57365
G1 X93.88034 Y-1.66971
G1 X94.09041 Y-0.30924
G1 X94.14308 Y0.02828
G1 X94.30335 Y1.04779
G1 X94.6913 Y3.48203
G1 X95.08277 Y5.91888
G3 X95.08289 Y5.91961 I-2.96202 J0.47584
G1 X95.13212 Y6.22657
G3 X95.13238 Y6.22817 I-2.96214 J0.47511
G1 X95.31637 Y7.37926
G3 X95.3172 Y7.38447 I-2.9624 J0.47351
G1 X95.59014 Y9.11155
G3 X95.59101 Y9.11712 I-2.96323 J0.46829
G1 X95.65844 Y9.54904
G3 X95.65935 Y9.55491 I-2.9641 J0.46273
G1 X95.85905 Y10.85101
G3 X95.85933 Y10.8528 I-2.96501 J0.45685
G3 X96.23131 Y13.36094 I-248.76867 J38.17638
G3 X96.57836 Y15.87471 I-233.56296 J33.5267
G3 X96.57871 Y15.87734 I-2.97397 J0.3943
G3 X96.74157 Y17.14623 I-193.34759 J25.46085
G3 X96.85948 Y18.11486 I-91.06852 J11.57731
G1 X96.85949 Y18.11493
G1 X96.85947 Y18.11478
G1 X96.85948 Y18.11486
G1 X96.94159 Y18.8203
G3 X96.94271 Y18.83006 I-2.97988 J0.34683
G1 X96.97263 Y19.09473
G3 X96.97321 Y19.09988 I-2.981 J0.33707
G1 X96.999 Y19.33154
G3 X97.00022 Y19.3427 I-2.98158 J0.33193
G1 X97.08744 Y20.15375
G3 X97.08934 Y20.17188 I-2.9828 J0.32077
G1 X97.17163 Y20.98345
G3 X97.17293 Y20.99663 I-2.9847 J0.30263
G1 X97.20362 Y21.31323
G3 X97.20433 Y21.32062 I-2.986 J0.28946
G1 X97.23237 Y21.61752
G3 X97.23303 Y21.62457 I-2.98671 J0.28208
G1 X97.25866 Y21.90297
G3 X97.25927 Y21.9097 I-2.98737 J0.27502
G1 X97.28257 Y22.16919
G3 X97.36833 Y23.18524 I-79.44735 J7.21751
G3 X97.36862 Y23.18899 I-2.99092 J0.23321
G1 X97.42501 Y23.92401
G3 X97.42605 Y23.938 I-2.99121 J0.22947
G1 X97.4459 Y24.21372
G3 X97.44642 Y24.22103 I-2.99225 J0.21548
G1 X97.46321 Y24.46235
G3 X97.46385 Y24.4719 I-2.99277 J0.20816
G1 X97.49188 Y24.89422
G3 X97.49257 Y24.90502 I-2.99342 J0.19862
G1 X97.51245 Y25.22188
G3 X97.51295 Y25.23012 I-2.99412 J0.18781
G1 X97.52721 Y25.46781
G3 X97.52804 Y25.48222 I-2.99462 J0.17958
G1 X97.56736 Y26.19541
G3 X97.5682 Y26.21139 I-2.99545 J0.16516
G1 X97.58414 Y26.53147
G3 X97.58429 Y26.53452 I-2.99629 J0.14919
G3 X97.68885 Y31.50103 I-89.63328 J4.37145
G3 X97.68075 Y32.18554 I-40.5057 J-0.13681
G3 X97.46175 Y36.88007 I-75.42193 J-1.16613
G3 X97.46103 Y36.88915 I-2.99093 J-0.23309
G1 X97.43475 Y37.21365
G3 X97.43419 Y37.2204 I-2.99021 J-0.24217
G3 X96.82013 Y42.29076 I-67.96381 J-5.65864
G1 X96.82006 Y42.29118
G3 X95.70667 Y47.70483 I-61.04929 J-9.73427
G3 X95.7045 Y47.71336 I-2.90855 J-0.73509
G1 X95.62202 Y48.03574
G3 X95.61975 Y48.04456 I-2.90638 J-0.74363
G3 X94.08126 Y53.06609 I-58.09053 J-15.05127
G3 X94.08059 Y53.06798 I-2.82719 J-1.00349
G3 X91.91785 Y58.32965 I-55.57123 J-19.76648
G3 X91.9169 Y58.33167 I-2.71652 J-1.27301
G3 X89.21494 Y63.43756 I-54.77677 J-25.71913
G1 X89.21481 Y63.43778
G3 X87.6585 Y65.92926 I-53.115 J-31.44677
G3 X87.6565 Y65.93229 I-2.50585 J-1.64946
G1 X87.56026 Y66.07811
G3 X87.55884 Y66.08026 I-2.50385 J-1.6525
G3 X85.98994 Y68.34229 I-51.75317 J-34.21997
G3 X82.2857 Y72.99408 I-54.51724 J-39.61149
G3 X82.28422 Y72.99579 I-2.2621 J-1.97051
G1 X82.16584 Y73.13147
G3 X82.1634 Y73.13427 I-2.26061 J-1.97222
G3 X81.19231 Y74.22152 I-52.69754 J-46.08978
G3 X81.19149 Y74.22242 I-2.21655 J-2.0216
G3 X78.16008 Y77.3542 I-54.98414 J-50.18889
G3 X77.06182 Y78.40335 I-46.25008 J-47.31579
G1 X77.06157 Y78.40359
G1 X76.86247 Y78.58942
G3 X76.85101 Y78.60006 I-2.04697 J-2.19315
G1 X76.47591 Y78.94652
G3 X76.46718 Y78.95455 I-2.03552 J-2.20379
G3 X73.6759 Y81.39837 I-55.33614 J-60.38781
G3 X73.67031 Y81.40303 I-1.92455 J-2.30132
G1 X73.39085 Y81.63558
G3 X73.38688 Y81.63889 I-1.91896 J-2.30599
G3 X72.29826 Y82.52539 I-50.35571 J-60.72429
G3 X72.07246 Y82.70553 I-9.71496 J-11.94605
G3 X68.92028 Y85.09641 I-53.64648 J-67.45531
G3 X68.31282 Y85.53227 I-37.92824 J-52.21835
G3 X67.77679 Y85.91065 I-33.84231 J-47.3745
G3 X65.90866 Y87.18567 I-51.44644 J-73.37209
G3 X65.83269 Y87.23633 I-2.76632 J-4.06567
G3 X65.77508 Y87.27452 I-2.72432 J-4.04705
G3 X65.71925 Y87.31147 I-2.69966 J-4.01809
G3 X65.6763 Y87.33994 I-2.67581 J-3.99
G3 X65.55972 Y87.41702 I-3.08872 J-4.54532
G3 X65.46129 Y87.48173 I-3.01416 J-4.47757
G3 X65.36895 Y87.54227 I-2.95487 J-4.40566
G3 X65.26549 Y87.60967 I-2.89887 J-4.33724
G3 X64.95017 Y87.8147 I-21.65292 J-32.95543
G1 X64.95001 Y87.8148
G1 X64.95032 Y87.8146
G1 X64.95017 Y87.8147
G1 X64.47617 Y88.11978
G3 X64.461 Y88.12948 I-1.62365 J-2.52265
G1 X63.985 Y88.43182
G3 X63.97839 Y88.43601 I-1.60848 J-2.53235
G3 X61.48124 Y89.96067 I-51.63549 J-81.76305
G3 X58.94532 Y91.41082 I-51.71264 J-87.48911
G1 X58.94529 Y91.41084
G1 X58.94535 Y91.41081
G1 X58.94532 Y91.41082
G3 X56.45093 Y92.74903 I-53.92526 J-97.52178
G3 X56.44186 Y92.75373 I-1.38456 J-2.66139
G1 X55.82987 Y93.06947
G3 X55.81515 Y93.07701 I-1.37549 J-2.66609
G1 X55.35489 Y93.31126
G3 X55.33925 Y93.31916 I-1.36077 J-2.67363
G1 X54.64676 Y93.66654
G3 X54.62817 Y93.67578 I-1.34513 J-2.68153
G1 X53.93332 Y94.01834
G3 X53.92324 Y94.02328 I-1.32654 J-2.69078
G3 X49.00322 Y96.29235 I-53.64192 J-109.84319
G3 X48.99798 Y96.29463 I-1.19571 J-2.75141
G1 X48.42287 Y96.54325
G3 X48.41328 Y96.54738 I-1.19047 J-2.75369
G1 X48.16131 Y96.65527
G3 X48.15802 Y96.65668 I-1.18088 J-2.75781
G3 X44.27222 Y98.24721 I-55.43827 J-129.89858
G3 X43.15245 Y98.68215 I-50.28586 J-127.80367
G3 X43.14699 Y98.68424 I-1.07396 J-2.80118
G1 X42.32223 Y98.9986
G3 X42.31538 Y99.00121 I-1.0685 J-2.80327
G3 X39.8173 Y99.92591 I-65.53423 J-173.20357
G3 X39.7603 Y99.94681 I-1.24499 J-3.30761
G3 X39.69804 Y99.96905 I-1.21933 J-3.31468
G1 X38.7029 Y100.32702
G3 X38.69264 Y100.33069 I-1.01546 J-2.82291
G1 X37.92778 Y100.60269
G3 X37.91883 Y100.60586 I-1.0052 J-2.82658
G1 X36.77018 Y101.01026
G3 X36.76236 Y101.013 I-0.99625 J-2.82975
G1 X35.65044 Y101.40101
G3 X35.50933 Y101.45012 I-1.29325 J-3.48867
G1 X34.58964 Y101.76959
G1 X34.58921 Y101.76974
G1 X33.87185 Y102.0188
G1 X32.799 Y102.39232
G1 X31.72906 Y102.76777
G1 X31.50359 Y102.84745
G1 X31.07763 Y102.99868
G1 X30.33188 Y103.26596
G1 X29.77644 Y103.4675
G1 X29.3632 Y103.61905
G1 X28.74202 Y103.84978
G1 X28.1236 Y104.08339
G1 X27.69387 Y104.24827
G1 X27.3138 Y104.396
G2 X24.72659 Y105.45808 I27.94658 J71.75912
G3 X24.72286 Y105.45969 I-1.18949 J-2.75411
G2 X21.46461 Y106.97483 I24.55033 J57.05538
G3 X21.46393 Y106.97518 I-1.34313 J-2.68254
G2 X18.28559 Y108.6886 I26.50481 J52.97001
G1 X18.28534 Y108.68875
G2 X15.19524 Y110.60508 I30.08112 J51.95558
G3 X15.19305 Y110.60653 I-1.65758 J-2.50048
G2 X12.2533 Y112.68197 I32.85765 J49.66074
G3 X12.25119 Y112.68356 I-1.80349 J-2.39738
G2 X9.55066 Y114.84604 I33.37236 J44.44313
G3 X9.54954 Y114.847 I-1.94715 J-2.28224
G2 X7.18708 Y117.00954 I29.34793 J34.43272
G3 X7.18602 Y117.01059 I-2.10268 J-2.1398
G2 X6.68758 Y117.51135 I21.3702 J21.76914
G1 X6.49039 Y117.7149
G2 X5.85284 Y118.3969 I24.39599 J23.44502
G3 X5.84757 Y118.40268 I-2.21959 J-2.01827
G2 X5.2491 Y119.08236 I17.97865 J16.43378
G1 X5.03364 Y119.33821
G2 X4.36597 Y120.17739 I19.5061 J16.20491
G1 X4.19716 Y120.40281
G2 X4.08771 Y120.55236 I26.92863 J19.82189
G1 X3.90962 Y120.80211
G1 X3.73726 Y121.05182
G1 X3.66012 Y121.1664
G3 X3.65972 Y121.167 I-2.48854 J-1.67546
G2 X3.40225 Y121.56465 I10.789 J7.26774
G3 X3.3913 Y121.58213 I-2.54751 J-1.58436
G2 X2.69038 Y122.83287 I11.55855 J7.29922
G3 X1.67169 Y123.99659 I-2.69038 J-1.32736
G1 F300.0 Z-4.0
G3 F800.0 X-2.69038 Y122.83287 I-1.67169 J-2.49107
G2 X-3.3913 Y121.58213 I-12.25947 J6.04848
G3 X-3.40225 Y121.56465 I2.53656 J-1.60184
G2 X-3.65972 Y121.167 I-11.04646 J6.87009
G3 X-3.66012 Y121.1664 I2.48813 J-1.67607
G1 X-3.73726 Y121.05182
G1 X-3.90962 Y120.80211
G1 X-4.08771 Y120.55236
G2 X-4.19716 Y120.40281 I-27.03808 J19.67233
G1 X-4.36597 Y120.17739
G2 X-5.03364 Y119.33821 I-20.17377 J15.36573
G1 X-5.2491 Y119.08236
G2 X-5.84757 Y118.40268 I-18.57713 J15.75409
G3 X-5.85284 Y118.3969 I2.21432 J-2.02405
G2 X-6.49039 Y117.7149 I-25.03354 J22.76301
G1 X-6.68758 Y117.51135
G2 X-7.18602 Y117.01059 I-21.86863 J21.26838
G3 X-7.18708 Y117.00954 I2.10161 J-2.14085
G2 X-9.54954 Y114.847 I-31.71038 J32.27019
G3 X-9.55066 Y114.84604 I1.94603 J-2.28319
G2 X-12.25119 Y112.68356 I-36.07289 J42.28064
G3 X-12.2533 Y112.68197 I1.80138 J-2.39896
G2 X-15.19305 Y110.60653 I-35.79739 J47.58529
G3 X-15.19524 Y110.60508 I1.65539 J-2.50194
G2 X-18.28534 Y108.68875 I-33.17121 J50.03925
G1 X-18.28559 Y108.6886
G2 X-21.46393 Y106.97518 I-29.68315 J51.25659
G3 X-21.46461 Y106.97483 I1.34244 J-2.68288
G2 X-24.72286 Y105.45969 I-27.80858 J55.54024
G3 X-24.72659 Y105.45808 I1.18576 J-2.75572
G2 X-27.3138 Y104.396 I-30.53379 J70.69704
G1 X-27.69387 Y104.24827
G1 X-28.1236 Y104.08339
G1 X-28.74202 Y103.84978
G1 X-29.3632 Y103.61905
G1 X-29.77644 Y103.4675
G1 X-30.33188 Y103.26596
G1 X-31.07763 Y102.99868
G1 X-31.50359 Y102.84745
G1 X-31.72906 Y102.76777
G1 X-32.799 Y102.39232
G1 X-33.87185 Y102.0188
G1 X-34.58921 Y101.76974
G1 X-34.58964 Y101.76959
G1 X-35.50933 Y101.45012
G3 X-35.65044 Y101.40101 I1.15214 J-3.53778
G1 X-36.76236 Y101.013
G3 X-36.77018 Y101.01026 I0.98843 J-2.83249
G1 X-37.91883 Y100.60586
G3 X-37.92778 Y100.60269 I0.99625 J-2.82975
G1 X-38.69264 Y100.33069
G3 X-38.7029 Y100.32702 I1.0052 J-2.82658
G1 X-39.69804 Y99.96905
G3 X-39.7603 Y99.94681 I1.15707 J-3.33692
G3 X-39.8173 Y99.92591 I1.18799 J-3.32851
G3 X-42.31538 Y99.00121 I63.03615 J-174.12827
G3 X-42.32223 Y98.9986 I1.06164 J-2.80587
G1 X-43.14699 Y98.68424
G3 X-43.15245 Y98.68215 I1.0685 J-2.80327
G3 X-44.27222 Y98.24721 I49.1661 J-128.23861
G3 X-48.15802 Y96.65668 I51.55247 J-131.48911
G3 X-48.16131 Y96.65527 I1.17758 J-2.75922
G1 X-48.41328 Y96.54738
G3 X-48.42287 Y96.54325 I1.18088 J-2.75781
G1 X-48.99798 Y96.29463
G3 X-49.00322 Y96.29235 I1.19047 J-2.75369
G3 X-53.92324 Y94.02328 I48.7219 J-112.11226
G3 X-53.93332 Y94.01834 I1.31646 J-2.69573
G1 X-54.62817 Y93.67578
G3 X-54.64676 Y93.66654 I1.32654 J-2.69078
G1 X-55.33925 Y93.31916
G3 X-55.35489 Y93.31126 I1.34513 J-2.68153
G1 X-55.81515 Y93.07701
G3 X-55.82987 Y93.06947 I1.36077 J-2.67363
G1 X-56.44186 Y92.75373
G3 X-56.45093 Y92.74903 I1.37549 J-2.66609
G3 X-58.94532 Y91.41082 I51.43087 J-98.85999
G1 X-58.94535 Y91.41081
G1 X-58.94529 Y91.41084
G1 X-58.94532 Y91.41082
G3 X-61.48124 Y89.96067 I49.17671 J-88.93926
G3 X-63.97839 Y88.43601 I49.13833 J-83.28771
G3 X-63.985 Y88.43182 I1.60188 J-2.53653
G1 X-64.461 Y88.12948
G3 X-64.47617 Y88.11978 I1.60848 J-2.53235
G1 X-64.95017 Y87.8147
G1 X-64.95032 Y87.8146
G1 X-64.95001 Y87.8148
G1 X-64.95017 Y87.8147
G3 X-65.26549 Y87.60967 I21.33759 J-33.16046
G3 X-65.36895 Y87.54227 I2.79541 J-4.40464
G3 X-65.46129 Y87.48173 I2.86253 J-4.46621
G3 X-65.55972 Y87.41702 I2.91574 J-4.54227
G3 X-65.6763 Y87.33994 I2.97213 J-4.6224
G3 X-65.71925 Y87.31147 I2.63286 J-4.01847
G3 X-65.77508 Y87.27452 I2.64383 J-4.05505
G3 X-65.83269 Y87.23633 I2.66671 J-4.08524
G3 X-65.90866 Y87.18567 I2.69036 J-4.11634
G3 X-67.77679 Y85.91065 I49.5783 J-74.64712
G3 X-68.31282 Y85.53227 I33.30627 J-47.75288
G3 X-68.92028 Y85.09641 I37.32079 J-52.65422
G3 X-72.07246 Y82.70553 I50.49429 J-69.84619
G3 X-72.29826 Y82.52539 I9.48916 J-12.12618
G3 X-73.38688 Y81.63889 I49.2671 J-61.6108
G3 X-73.39085 Y81.63558 I1.91498 J-2.30929
G1 X-73.67031 Y81.40303
G3 X-73.6759 Y81.39837 I1.91896 J-2.30599
G3 X-76.46718 Y78.95455 I52.54486 J-62.83163
G3 X-76.47591 Y78.94652 I2.02679 J-2.21182
G1 X-76.85101 Y78.60006
G3 X-76.86247 Y78.58942 I2.03552 J-2.20379
G1 X-77.06157 Y78.40359
G1 X-77.06182 Y78.40335
G3 X-78.16008 Y77.3542 I45.15182 J-48.36494
G3 X-81.19149 Y74.22242 I51.95273 J-53.32067
G3 X-81.19231 Y74.22152 I2.21574 J-2.0225
G3 X-82.1634 Y73.13427 I51.72646 J-47.17703
G3 X-82.16584 Y73.13147 I2.25817 J-1.97501
G1 X-82.28422 Y72.99579
G3 X-82.2857 Y72.99408 I2.26061 J-1.97222
G3 X-85.98994 Y68.34229 I50.81301 J-44.26328
G3 X-87.55884 Y66.08026 I50.18427 J-36.482
G3 X-87.56026 Y66.07811 I2.50243 J-1.65464
G1 X-87.6565 Y65.93229
G3 X-87.6585 Y65.92926 I2.50385 J-1.6525
G3 X-89.21481 Y63.43778 I51.55868 J-33.93825
G1 X-89.21494 Y63.43756
G3 X-91.9169 Y58.33167 I52.07481 J-30.82503
G3 X-91.91785 Y58.32965 I2.71557 J-1.27503
G3 X-94.08059 Y53.06798 I53.4085 J-25.02815
G3 X-94.08126 Y53.06609 I2.82652 J-1.00538
G3 X-95.61975 Y48.04456 I56.55203 J-20.0728
G3 X-95.62202 Y48.03574 I2.9041 J-0.75245
G1 X-95.7045 Y47.71336
G3 X-95.70667 Y47.70483 I2.90638 J-0.74363
G3 X-96.82006 Y42.29118 I59.9359 J-15.14791
G1 X-96.82013 Y42.29076
G3 X-97.43419 Y37.2204 I67.34975 J-10.729
G3 X-97.43475 Y37.21365 I2.98966 J-0.24892
G1 X-97.46103 Y36.88915
G3 X-97.46175 Y36.88007 I2.99021 J-0.24217
G3 X-97.68075 Y32.18554 I75.20293 J-5.86066
G3 X-97.68885 Y31.50103 I40.4976 J-0.82132
G3 X-97.58429 Y26.53452 I89.73784 J-0.59505
G3 X-97.58414 Y26.53147 I2.99644 J0.14614
G1 X-97.5682 Y26.21139
G3 X-97.56736 Y26.19541 I2.99629 J0.14919
G1 X-97.52804 Y25.48222
G3 X-97.52721 Y25.46781 I2.99545 J0.16516
G1 X-97.51295 Y25.23012
G3 X-97.51245 Y25.22188 I2.99462 J0.17958
G1 X-97.49257 Y24.90502
G3 X-97.49188 Y24.89422 I2.99412 J0.18781
G1 X-97.46385 Y24.4719
G3 X-97.46321 Y24.46235 I2.99342 J0.19862
G1 X-97.44642 Y24.22103
G3 X-97.4459 Y24.21372 I2.99277 J0.20816
G1 X-97.42605 Y23.938
G3 X-97.42501 Y23.92401 I2.99225 J0.21548
G1 X-97.36862 Y23.18899
G3 X-97.36833 Y23.18524 I2.99121 J0.22947
G3 X-97.28257 Y22.16919 I79.53311 J6.20145
G1 X-97.25927 Y21.9097
G3 X-97.25866 Y21.90297 I2.98798 J0.2683
G1 X-97.23303 Y21.62457
G3 X-97.23237 Y21.61752 I2.98737 J0.27502
G1 X-97.20433 Y21.32062
G3 X-97.20362 Y21.31323 I2.98671 J0.28208
G1 X-97.17293 Y20.99663
G3 X-97.17163 Y20.98345 I2.986 J0.28946
G1 X-97.08934 Y20.17188
G3 X-97.08744 Y20.15375 I2.9847 J0.30263
G1 X-97.00022 Y19.3427
G3 X-96.999 Y19.33154 I2.9828 J0.32077
G1 X-96.97321 Y19.09988
G3 X-96.97263 Y19.09473 I2.98158 J0.33193
G1 X-96.94271 Y18.83006
G3 X-96.94159 Y18.8203 I2.981 J0.33707
G1 X-96.85948 Y18.11486
G1 X-96.85947 Y18.11478
G1 X-96.85949 Y18.11493
G1 X-96.85948 Y18.11486
G3 X-96.74157 Y17.14623 I91.18643 J10.60868
G3 X-96.57871 Y15.87734 I193.51045 J24.19196
G3 X-96.57836 Y15.87471 I2.97432 J0.39167
G3 X-96.23131 Y13.36094 I233.91001 J31.01293
G3 X-95.85933 Y10.8528 I249.14065 J35.66824
G3 X-95.85905 Y10.85101 I2.96529 J0.45506
G1 X-95.65935 Y9.55491
G3 X-95.65844 Y9.54904 I2.96501 J0.45685
G1 X-95.59101 Y9.11712
G3 X-95.59014 Y9.11155 I2.9641 J0.46273
G1 X-95.3172 Y7.38447
G3 X-95.31637 Y7.37926 I2.96323 J0.46829
G1 X-95.13238 Y6.22817
G3 X-95.13212 Y6.22657 I2.9624 J0.47351
G1 X-95.08289 Y5.91961
G3 X-95.08277 Y5.91888 I2.96214 J0.47511
G1 X-94.6913 Y3.48203
G1 X-94.30335 Y1.04779
G1 X-94.14308 Y0.02828
G1 X-94.09041 Y-0.30924
G1 X-93.88034 Y-1.66971
G1 X-93.74297 Y-2.57365
G1 X-93.56243 Y-3.78219
G1 X-93.48955 Y-4.2774
G1 X-93.41731 Y-4.77289
G1 X-93.27407 Y-5.76985
G2 X-92.99825 Y-7.75149 I-280.65369 J-40.07369
G3 X-92.99443 Y-7.77874 I2.9728 J0.40309
G2 X-92.9655 Y-7.99195 I-11.69609 J-1.69528
G3 X-92.95796 Y-8.04748 I2.97632 J0.37621
G2 X-92.92789 Y-8.27057 I-10.66719 J-1.5513
G3 X-92.92084 Y-8.32347 I2.97714 J0.36965
G2 X-92.9075 Y-8.42294 I-6.18814 J-0.88038
G3 X-92.9011 Y-8.4707 I2.97649 J0.37481
G2 X-92.88755 Y-8.57209 I-5.9532 J-0.84697
G3 X-92.88505 Y-8.59162 I2.97685 J0.37198
G1 X-92.74633 Y-9.64547
G1 X-92.61124 Y-10.69982
G3 X-92.60732 Y-10.72931 I2.97568 J0.38125
G2 X-92.59843 Y-10.79978 I-2.9567 J-0.40865
G3 X-92.58946 Y-10.87088 I2.98068 J0.3399
G2 X-92.57985 Y-10.94737 I-3.06151 J-0.42341
G3 X-92.57049 Y-11.02187 I2.98104 J0.33674
G2 X-92.56012 Y-11.10484 I-3.16673 J-0.43823
G3 X-92.55442 Y-11.1523 I2.98142 J0.33339
G2 X-92.45198 Y-11.98282 I-90.8102 J-11.62246
G3 X-92.44647 Y-12.02653 I2.97908 J0.35364
G2 X-92.44152 Y-12.06725 I-1.72968 J-0.23113
G3 X-92.43304 Y-12.13693 I2.98209 J0.32735
G2 X-92.42787 Y-12.17956 I-1.76877 J-0.23617
G3 X-92.42456 Y-12.20862 I2.9823 J0.32538
G1 X-92.28023 Y-13.42165
G1 X-92.143 Y-14.61784
G2 X-92.01202 Y-15.80386 I-228.79369 J-25.86599
G1 X-91.92686 Y-16.60121
G1 X-91.81703 Y-17.66385
G1 X-91.75658 Y-18.26704
G1 X-91.63989 Y-19.47315
G1 X-91.52838 Y-20.68497
G3 X-91.52504 Y-20.71915 I2.98738 J0.27489
G2 X-91.51808 Y-20.79705 I-2.74574 J-0.28439
G3 X-91.51515 Y-20.83321 I2.9916 J0.2244
G1 X-91.43977 Y-21.6979
G2 X-91.34529 Y-22.8366 I-221.4311 J-18.94508
G3 X-91.34285 Y-22.86525 I2.99036 J0.24037
G2 X-91.33557 Y-22.95604 I-4.63831 J-0.41761
G3 X-91.33112 Y-23.01181 I2.9926 J0.21053
G2 X-91.3234 Y-23.10892 I-5.09298 J-0.45389
G3 X-91.31856 Y-23.16938 I2.99269 J0.20933
G2 X-91.30354 Y-23.36032 I-8.2249 J-0.74268
G3 X-91.2987 Y-23.42291 I2.9933 J0.20043
G2 X-91.28338 Y-23.62059 I-9.42808 J-0.82977
G3 X-91.2795 Y-23.67198 I2.9933 J0.20036
G2 X-91.26973 Y-23.79969 I-8.32479 J-0.70103
G3 X-91.26643 Y-23.84308 I2.99293 J0.20588
G2 X-91.25244 Y-24.0282 I-11.9423 J-0.99569
G3 X-91.25039 Y-24.05637 I2.99313 J0.20292
G2 X-91.18477 Y-24.95646 I-104.08988 J-8.04194
G3 X-91.18463 Y-24.9585 I2.99297 J0.20523
G1 X-91.14188 Y-25.57576
G1 X-91.14186 Y-25.57596
G1 X-91.14189 Y-25.57555
G1 X-91.14188 Y-25.57576
G2 X-90.99304 Y-28.00061 I-157.37829 J-10.8769
G3 X-90.99271 Y-28.00669 I2.99569 J0.16073
G2 X-90.82582 Y-31.97824 I-145.53613 J-8.10486
G1 X-90.81865 Y-32.24359
G1 X-90.81163 Y-32.5254
G1 X-90.80491 Y-32.82377
G1 X-90.79279 Y-33.47671
G1 X-90.78435 Y-34.12997
G1 X-90.78266 Y-34.31506
G3 X-90.78264 Y-34.3169 I2.99987 J0.02744
G2 X-90.78093 Y-35.7894 I-85.67723 J-0.83626
G1 X-90.78454 Y-36.21647
G1 X-90.791 Y-36.70234
G1 X-90.79303 Y-36.82377
G1 X-90.79527 Y-36.94823
G1 X-90.8085 Y-37.54505
G2 X-90.85409 Y-38.88998 I-72.10572 J1.77108
G1 X-90.87503 Y-39.35027
G2 X-90.98493 Y-41.14419 I-74.5131 J3.66446
G1 X-90.99324 Y-41.25445
G1 X-91.03631 Y-41.78944
G1 X-91.06024 Y-42.06456
G1 X-91.10708 Y-42.56554
G1 X-91.15802 Y-43.06492
G1 X-91.1943 Y-43.39678
G1 X-91.20417 Y-43.48406
G3 X-91.20717 Y-43.5117 I2.98099 J-0.3372
G2 X-91.22352 Y-43.65296 I-5.94838 J0.61707
G3 X-91.22542 Y-43.66812 I2.97578 J-0.38042
G1 X-91.29379 Y-44.22548
G2 X-91.61058 Y-46.34602 I-50.8989 J6.51997
G3 X-91.61071 Y-46.34676 I2.95717 J-0.50515
G2 X-92.48584 Y-50.31463 I-41.61508 J7.09793
G2 X-93.68403 Y-53.94939 I-35.80203 J9.78722
G1 X-93.8142 Y-54.27881
G1 X-93.94752 Y-54.60679
G1 X-93.98353 Y-54.69381
G1 X-94.02789 Y-54.80012
G2 X-94.39036 Y-55.63473 I-35.69729 J15.00732
G2 X-95.18107 Y-57.2817 I-34.95893 J15.77038
G2 X-96.90301 Y-60.30636 I-34.71685 J17.76184
G1 X-97.10195 Y-60.62012
G1 X-97.30272 Y-60.93098
G2 X-97.70085 Y-61.53105 I-35.71485 J23.26401
G3 X-97.70358 Y-61.53508 I2.48572 J-1.67964
G2 X-98.53323 Y-62.72425 I-36.35156 J24.47753
G1 X-98.78785 Y-63.07464
G2 X-100.46785 Y-65.24755 I-43.95176 J32.24585
G1 X-100.72445 Y-65.56095
G2 X-102.57955 Y-67.70466 I-47.77778 J39.47088
G1 X-102.64226 Y-67.77359
G1 X-102.64235 Y-67.77368
G1 X-102.64218 Y-67.7735
G1 X-102.64226 Y-67.77359
G2 X-104.24801 Y-69.46211 I-39.15903 J35.63175
G1 X-104.49205 Y-69.70571
G2 X-105.38953 Y-70.57062 I-26.97611 J27.09419
G1 X-105.70862 Y-70.86595
G1 X-105.78485 Y-70.93555
G2 X-106.23452 Y-71.3382 I-39.80334 J43.99812
G3 X-106.44794 Y-75.61933 I1.98988 J-2.24508
G1 X-74.83669 Y-109.82721
G3 X-71.67957 Y-110.63549 I2.20329 J2.03605
G2 X0.0 Y-98.93695 I71.67957 J-213.749
G2 X71.67957 Y-110.63549 I0.0 J-225.44754
G3 X74.83669 Y-109.82721 I0.95383 J2.84433
G1 X106.44794 Y-75.61933
G3 X106.23452 Y-71.3382 I-2.20329 J2.03605
G2 X105.78485 Y-70.93555 I39.35367 J44.40078
G1 X105.70862 Y-70.86595
G1 X105.38953 Y-70.57062
G2 X104.49205 Y-69.70571 I26.07863 J27.95909
G1 X104.24801 Y-69.46211
G2 X102.64226 Y-67.77359 I37.55328 J37.32027
G1 X102.64218 Y-67.7735
G1 X102.64235 Y-67.77368
G1 X102.64226 Y-67.77359
G1 X102.57955 Y-67.70466
G2 X100.72445 Y-65.56095 I45.92268 J41.61459
G1 X100.46785 Y-65.24755
G2 X98.78785 Y-63.07464 I42.27176 J34.41876
G1 X98.53323 Y-62.72425
G2 X97.70358 Y-61.53508 I35.52191 J25.6667
G3 X97.70085 Y-61.53105 I-2.48844 J-1.67561
G2 X97.30272 Y-60.93098 I35.31672 J23.86408
G1 X97.10195 Y-60.62012
G1 X96.90301 Y-60.30636
G2 X95.18107 Y-57.2817 I32.99491 J20.7865
G2 X94.39036 Y-55.63473 I34.16823 J17.41735
G2 X94.02789 Y-54.80012 I35.33482 J15.84193
G1 X93.98353 Y-54.69381
G1 X93.94752 Y-54.60679
G1 X93.8142 Y-54.27881
G1 X93.68403 Y-53.94939
G2 X92.48584 Y-50.31463 I34.60384 J13.42197
G2 X91.61071 Y-46.34676 I40.73995 J11.0658
G3 X91.61058 Y-46.34602 I-2.95729 J-0.5044
G2 X91.29379 Y-44.22548 I50.58211 J8.64051
G1 X91.22542 Y-43.66812
G3 X91.22352 Y-43.65296 I-2.97768 J-0.36525
G2 X91.20717 Y-43.5117 I5.93203 J0.75833
G3 X91.20417 Y-43.48406 I-2.98399 J-0.30955
G1 X91.1943 Y-43.39678
G1 X91.15802 Y-43.06492
G1 X91.10708 Y-42.56554
G1 X91.06024 Y-42.06456
G1 X91.03631 Y-41.78944
G1 X90.99324 Y-41.25445
G1 X90.98493 Y-41.14419
G2 X90.87503 Y-39.35027 I74.40321 J5.45838
G1 X90.85409 Y-38.88998
G2 X90.8085 Y-37.54505 I72.06013 J3.11602
G1 X90.79527 Y-36.94823
G1 X90.79303 Y-36.82377
G1 X90.791 Y-36.70234
G1 X90.78454 Y-36.21647
G1 X90.78093 Y-35.7894
G2 X90.78264 Y-34.3169 I85.67895 J0.63624
G3 X90.78266 Y-34.31506 I-2.99986 J0.02928
G1 X90.78435 Y-34.12997
G1 X90.79279 Y-33.47671
G1 X90.80491 Y-32.82377
G1 X90.81163 Y-32.5254
G1 X90.81865 Y-32.24359
G1 X90.82582 Y-31.97824
G2 X90.99271 Y-28.00669 I145.70302 J-4.13331
G3 X90.99304 Y-28.00061 I-2.99536 J0.16681
G2 X91.14188 Y-25.57576 I157.52712 J-8.45204
G1 X91.14189 Y-25.57555
G1 X91.14186 Y-25.57596
G1 X91.14188 Y-25.57576
G1 X91.18463 Y-24.9585
G3 X91.18477 Y-24.95646 I-2.99283 J0.20726
G2 X91.25039 Y-24.05637 I104.15551 J-7.14184
G3 X91.25244 Y-24.0282 I-2.99109 J0.23109
G2 X91.26643 Y-23.84308 I11.95629 J-0.81057
G3 X91.26973 Y-23.79969 I-2.98963 J0.24926
G2 X91.2795 Y-23.67198 I8.33456 J-0.57331
G3 X91.28338 Y-23.62059 I-2.98942 J0.25174
G2 X91.2987 Y-23.42291 I9.44339 J-0.63209
G3 X91.30354 Y-23.36032 I-2.98845 J0.26302
G2 X91.31856 Y-23.16938 I8.23991 J-0.55174
G3 X91.3234 Y-23.10892 I-2.98784 J0.26979
G2 X91.33112 Y-23.01181 I5.1007 J-0.35677
G3 X91.33557 Y-22.95604 I-2.98816 J0.2663
G2 X91.34285 Y-22.86525 I4.64559 J-0.32682
G3 X91.34529 Y-22.8366 I-2.98791 J0.26902
G2 X91.43977 Y-21.6979 I221.52557 J-17.80638
G1 X91.51515 Y-20.83321
G3 X91.51808 Y-20.79705 I-2.98866 J0.26056
G2 X91.52504 Y-20.71915 I2.7527 J-0.20648
G3 X91.52838 Y-20.68497 I-2.98404 J0.30907
G1 X91.63989 Y-19.47315
G1 X91.75658 Y-18.26704
G1 X91.81703 Y-17.66385
G1 X91.92686 Y-16.60121
G1 X92.01202 Y-15.80386
G2 X92.143 Y-14.61784 I228.92467 J-24.67996
G1 X92.28023 Y-13.42165
G1 X92.42456 Y-12.20862
G3 X92.42787 Y-12.17956 I-2.97899 J0.35444
G2 X92.43304 Y-12.13693 I1.77394 J-0.19354
G3 X92.44152 Y-12.06725 I-2.97361 J0.39704
G2 X92.44647 Y-12.02653 I1.73463 J-0.19042
G3 X92.45198 Y-11.98282 I-2.97357 J0.39735
G2 X92.55442 Y-11.1523 I90.91264 J-10.79194
G3 X92.56012 Y-11.10484 I-2.97573 J0.38085
G2 X92.57049 Y-11.02187 I3.17711 J-0.35527
G3 X92.57985 Y-10.94737 I-2.97168 J0.41124
G2 X92.58946 Y-10.87088 I3.07111 J-0.34691
G3 X92.59843 Y-10.79978 I-2.97171 J0.41099
G2 X92.60732 Y-10.72931 I2.96559 J-0.33818
G3 X92.61124 Y-10.69982 I-2.97175 J0.41073
G1 X92.74633 Y-9.64547
G1 X92.88505 Y-8.59162
G3 X92.88755 Y-8.57209 I-2.97434 J0.39151
G2 X92.9011 Y-8.4707 I5.96674 J-0.74558
G3 X92.9075 Y-8.42294 I-2.97009 J0.42256
G2 X92.92084 Y-8.32347 I6.20148 J-0.7809
G3 X92.92789 Y-8.27057 I-2.97009 J0.42255
G2 X92.95796 Y-8.04748 I10.69725 J-1.3282
G3 X92.9655 Y-7.99195 I-2.96877 J0.43174
G2 X92.99443 Y-7.77874 I11.72502 J-1.48206
G3 X92.99825 Y-7.75149 I-2.96897 J0.43033
G2 X93.27407 Y-5.76985 I280.92951 J-38.09205
G1 X93.41731 Y-4.77289
G1 X93.48955 Y-4.2774
G1 X93.56243 Y-3.78219
G1 X93.74297 Y-2.57365
G1 X93.88034 Y-1.66971
G1 X94.09041 Y-0.30924
G1 X94.14308 Y0.02828
G1 X94.30335 Y1.04779
G1 X94.6913 Y3.48203
G1 X95.08277 Y5.91888
G3 X95.08289 Y5.91961 I-2.96202 J0.47584
G1 X95.13212 Y6.22657
G3 X95.13238 Y6.22817 I-2.96214 J0.47511
G1 X95.31637 Y7.37926
G3 X95.3172 Y7.38447 I-2.9624 J0.47351
G1 X95.59014 Y9.11155
G3 X95.59101 Y9.11712 I-2.96323 J0.46829
G1 X95.65844 Y9.54904
G3 X95.65935 Y9.55491 I-2.9641 J0.46273
G1 X95.85905 Y10.85101
G3 X95.85933 Y10.8528 I-2.96501 J0.45685
G3 X96.23131 Y13.36094 I-248.76867 J38.17638
G3 X96.57836 Y15.87471 I-233.56296 J33.5267
G3 X96.57871 Y15.87734 I-2.97397 J0.3943
G3 X96.74157 Y17.14623 I-193.34759 J25.46085
G3 X96.85948 Y18.11486 I-91.06852 J11.57731
G1 X96.85949 Y18.11493
G1 X96.85947 Y18.11478
G1 X96.85948 Y18.11486
G1 X96.94159 Y18.8203
G3 X96.94271 Y18.83006 I-2.97988 J0.34683
G1 X96.97263 Y19.09473
G3 X96.97321 Y19.09988 I-2.981 J0.33707
G1 X96.999 Y19.33154
G3 X97.00022 Y19.3427 I-2.98158 J0.33193
G1 X97.08744 Y20.15375
G3 X97.08934 Y20.17188 I-2.9828 J0.32077
G1 X97.17163 Y20.98345
G3 X97.17293 Y20.99663 I-2.9847 J0.30263
G1 X97.20362 Y21.31323
G3 X97.20433 Y21.32062 I-2.986 J0.28946
G1 X97.23237 Y21.61752
G3 X97.23303 Y21.62457 I-2.98671 J0.28208
G1 X97.25866 Y21.90297
G3 X97.25927 Y21.9097 I-2.98737 J0.27502
G1 X97.28257 Y22.16919
G3 X97.36833 Y23.18524 I-79.44735 J7.21751
G3 X97.36862 Y23.18899 I-2.99092 J0.23321
G1 X97.42501 Y23.92401
G3 X97.42605 Y23.938 I-2.99121 J0.22947
G1 X97.4459 Y24.21372
G3 X97.44642 Y24.22103 I-2.99225 J0.21548
G1 X97.46321 Y24.46235
G3 X97.46385 Y24.4719 I-2.99277 J0.20816
G1 X97.49188 Y24.89422
G3 X97.49257 Y24.90502 I-2.99342 J0.19862
G1 X97.51245 Y25.22188
G3 X97.51295 Y25.23012 I-2.99412 J0.18781
G1 X97.52721 Y25.46781
G3 X97.52804 Y25.48222 I-2.99462 J0.17958
G1 X97.56736 Y26.19541
G3 X97.5682 Y26.21139 I-2.99545 J0.16516
G1 X97.58414 Y26.53147
G3 X97.58429 Y26.53452 I-2.99629 J0.14919
G3 X97.68885 Y31.50103 I-89.63328 J4.37145
G3 X97.68075 Y32.18554 I-40.5057 J-0.13681
G3 X97.46175 Y36.88007 I-75.42193 J-1.16613
G3 X97.46103 Y36.88915 I-2.99093 J-0.23309
G1 X97.43475 Y37.21365
G3 X97.43419 Y37.2204 I-2.99021 J-0.24217
G3 X96.82013 Y42.29076 I-67.96381 J-5.65864
G1 X96.82006 Y42.29118
G3 X95.70667 Y47.70483 I-61.04929 J-9.73427
G3 X95.7045 Y47.71336 I-2.90855 J-0.73509
G1 X95.62202 Y48.03574
G3 X95.61975 Y48.04456 I-2.90638 J-0.74363
G3 X94.08126 Y53.06609 I-58.09053 J-15.05127
G3 X94.08059 Y53.06798 I-2.82719 J-1.00349
G3 X91.91785 Y58.32965 I-55.57123 J-19.76648
G3 X91.9169 Y58.33167 I-2.71652 J-1.27301
G3 X89.21494 Y63.43756 I-54.77677 J-25.71913
G1 X89.21481 Y63.43778
G3 X87.6585 Y65.92926 I-53.115 J-31.44677
G3 X87.6565 Y65.93229 I-2.50585 J-1.64946
G1 X87.56026 Y66.07811
G3 X87.55884 Y66.08026 I-2.50385 J-1.6525
G3 X85.98994 Y68.34229 I-51.75317 J-34.21997
G3 X82.2857 Y72.99408 I-54.51724 J-39.61149
G3 X82.28422 Y72.99579 I-2.2621 J-1.97051
G1 X82.16584 Y73.13147
G3 X82.1634 Y73.13427 I-2.26061 J-1.97222
G3 X81.19231 Y74.22152 I-52.69754 J-46.08978
G3 X81.19149 Y74.22242 I-2.21655 J-2.0216
G3 X78.16008 Y77.3542 I-54.98414 J-50.18889
G3 X77.06182 Y78.40335 I-46.25008 J-47.31579
G1 X77.06157 Y78.40359
G1 X76.86247 Y78.58942
G3 X76.85101 Y78.60006 I-2.04697 J-2.19315
G1 X76.47591 Y78.94652
G3 X76.46718 Y78.95455 I-2.03552 J-2.20379
G3 X73.6759 Y81.39837 I-55.33614 J-60.38781
G3 X73.67031 Y81.40303 I-1.92455 J-2.30132
G1 X73.39085 Y81.63558
G3 X73.38688 Y81.63889 I-1.91896 J-2.30599
G3 X72.29826 Y82.52539 I-50.35571 J-60.72429
G3 X72.07246 Y82.70553 I-9.71496 J-11.94605
G3 X68.92028 Y85.09641 I-53.64648 J-67.45531
G3 X68.31282 Y85.53227 I-37.92824 J-52.21835
G3 X67.77679 Y85.91065 I-33.84231 J-47.3745
G3 X65.90866 Y87.18567 I-51.44644 J-73.37209
G3 X65.83269 Y87.23633 I-2.76632 J-4.06567
G3 X65.77508 Y87.27452 I-2.72432 J-4.04705
G3 X65.71925 Y87.31147 I-2.69966 J-4.01809
G3 X65.6763 Y87.33994 I-2.67581 J-3.99
G3 X65.55972 Y87.41702 I-3.08872 J-4.54532
G3 X65.46129 Y87.48173 I-3.01416 J-4.47757
G3 X65.36895 Y87.54227 I-2.95487 J-4.40566
G3 X65.26549 Y87.60967 I-2.89887 J-4.33724
G3 X64.95017 Y87.8147 I-21.65292 J-32.95543
G1 X64.95001 Y87.8148
G1 X64.95032 Y87.8146
G1 X64.95017 Y87.8147
G1 X64.47617 Y88.11978
G3 X64.461 Y88.12948 I-1.62365 J-2.52265
G1 X63.985 Y88.43182
G3 X63.97839 Y88.43601 I-1.60848 J-2.53235
G3 X61.48124 Y89.96067 I-51.63549 J-81.76305
G3 X58.94532 Y91.41082 I-51.71264 J-87.48911
G1 X58.94529 Y91.41084
G1 X58.94535 Y91.41081
G1 X58.94532 Y91.41082
G3 X56.45093 Y92.74903 I-53.92526 J-97.52178
G3 X56.44186 Y92.75373 I-1.38456 J-2.66139
G1 X55.82987 Y93.06947
G3 X55.81515 Y93.07701 I-1.37549 J-2.66609
G1 X55.35489 Y93.31126
G3 X55.33925 Y93.31916 I-1.36077 J-2.67363
G1 X54.64676 Y93.66654
G3 X54.62817 Y93.67578 I-1.34513 J-2.68153
G1 X53.93332 Y94.01834
G3 X53.92324 Y94.02328 I-1.32654 J-2.69078
G3 X49.00322 Y96.29235 I-53.64192 J-109.84319
G3 X48.99798 Y96.29463 I-1.19571 J-2.75141
G1 X48.42287 Y96.54325
G3 X48.41328 Y96.54738 I-1.19047 J-2.75369
G1 X48.16131 Y96.65527
G3 X48.15802 Y96.65668 I-1.18088 J-2.75781
G3 X44.27222 Y98.24721 I-55.43827 J-129.89858
G3 X43.15245 Y98.68215 I-50.28586 J-127.80367
G3 X43.14699 Y98.68424 I-1.07396 J-2.80118
G1 X42.32223 Y98.9986
G3 X42.31538 Y99.00121 I-1.0685 J-2.80327
G3 X39.8173 Y99.92591 I-65.53423 J-173.20357
G3 X39.7603 Y99.94681 I-1.24499 J-3.30761
G3 X39.69804 Y99.96905 I-1.21933 J-3.31468
G1 X38.7029 Y100.32702
G3 X38.69264 Y100.33069 I-1.01546 J-2.82291
G1 X37.92778 Y100.60269
G3 X37.91883 Y100.60586 I-1.0052 J-2.82658
G1 X36.77018 Y101.01026
G3 X36.76236 Y101.013 I-0.99625 J-2.82975
G1 X35.65044 Y101.40101
G3 X35.50933 Y101.45012 I-1.29325 J-3.48867
G1 X34.58964 Y101.76959
G1 X34.58921 Y101.76974
G1 X33.87185 Y102.0188
G1 X32.799 Y102.39232
G1 X31.72906 Y102.76777
G1 X31.50359 Y102.84745
G1 X31.07763 Y102.99868
G1 X30.33188 Y103.26596
G1 X29.77644 Y103.4675
G1 X29.3632 Y103.61905
G1 X28.74202 Y103.84978
G1 X28.1236 Y104.08339
G1 X27.69387 Y104.24827
G1 X27.3138 Y104.396
G2 X24.72659 Y105.45808 I27.94658 J71.75912
G3 X24.72286 Y105.45969 I-1.18949 J-2.75411
G2 X21.46461 Y106.97483 I24.55033 J57.05538
G3 X21.46393 Y106.97518 I-1.34313 J-2.68254
G2 X18.28559 Y108.6886 I26.50481 J52.97001
G1 X18.28534 Y108.68875
G2 X15.19524 Y110.60508 I30.08112 J51.95558
G3 X15.19305 Y110.60653 I-1.65758 J-2.50048
G2 X12.2533 Y112.68197 I32.85765 J49.66074
G3 X12.25119 Y112.68356 I-1.80349 J-2.39738
G2 X9.55066 Y114.84604 I33.37236 J44.44313
G3 X9.54954 Y114.847 I-1.94715 J-2.28224
G2 X7.18708 Y117.00954 I29.34793 J34.43272
G3 X7.18602 Y117.01059 I-2.10268 J-2.1398
G2 X6.68758 Y117.51135 I21.3702 J21.76914
G1 X6.49039 Y117.7149
G2 X5.85284 Y118.3969 I24.39599 J23.44502
G3 X5.84757 Y118.40268 I-2.21959 J-2.01827
G2 X5.2491 Y119.08236 I17.97865 J16.43378
G1 X5.03364 Y119.33821
G2 X4.36597 Y120.17739 I19.5061 J16.20491
G1 X4.19716 Y120.40281
G2 X4.08771 Y120.55236 I26.92863 J19.82189
G1 X3.90962 Y120.80211
G1 X3.73726 Y121.05182
G1 X3.66012 Y121.1664
G3 X3.65972 Y121.167 I-2.48854 J-1.67546
G2 X3.40225 Y121.56465 I10.789 J7.26774
G3 X3.3913 Y121.58213 I-2.54751 J-1.58436
G2 X2.69038 Y122.83287 I11.55855 J7.29922
G3 X1.67169 Y123.99659 I-2.69038 J-1.32736
G1 F300.0 X1.81667 Y125.28697
G3 F800.0 X-1.81667 I-1.81667 J-3.78146
G1 X0.0 Y128.97735
G1 X1.81667 Y125.28697
G0 Z3.0
G0 X108.36959 Y-72.81875
G0 Z-1.0
G1 F300.0 Z-4.0
G1 F800.0 X108.96216 Y-73.34061
G1 X108.42627 Y-73.92053
G3 X108.36959 Y-72.81875 I-4.18162 J0.33725
G0 Z3.0
G0 X-108.36959
G0 Z-1.0
G1 F300.0 Z-4.0
G3 F800.0 X-108.42627 Y-73.92053 I4.12495 J-0.76454
G1 X-108.96216 Y-73.34061
G1 X-108.36959 Y-72.81875
G1 F300.0 X-109.16269 Y-71.91819
G1 F800.0 X-107.23693 Y-70.22221
G3 X-107.09679 Y-70.09815 I-3.75552 J4.38356
G1 X-106.93502 Y-69.95345
G3 X-106.93148 Y-69.95028 I-2.00007 J2.23601
G3 X-106.19412 Y-69.26784 I-21.79123 J24.2845
G3 X-104.97148 Y-68.06039 I-29.45122 J31.04461
G3 X-103.23592 Y-66.19198 I-37.6067 J36.6728
G3 X-103.232 Y-66.18754 I-2.24694 J1.98777
G1 X-103.0331 Y-65.96181
G3 X-103.01803 Y-65.94457 I-2.25086 J1.98334
G1 X-102.673 Y-65.54692
G3 X-102.65658 Y-65.52783 I-2.26594 J1.96609
G1 X-102.40036 Y-65.22748
G3 X-102.38828 Y-65.21324 I-2.28236 J1.947
G1 X-102.19751 Y-64.98676
G3 X-102.18477 Y-64.97154 I-2.29444 J1.93276
G1 X-101.90086 Y-64.62994
G3 X-101.89236 Y-64.61967 I-2.30717 J1.91754
G1 X-101.85705 Y-64.5768
G3 X-101.84958 Y-64.56769 I-2.31567 J1.90727
G1 X-101.60369 Y-64.26675
G3 X-101.59274 Y-64.25327 I-2.32314 J1.89816
G1 X-101.42925 Y-64.05079
G3 X-101.41598 Y-64.03423 I-2.33409 J1.88468
G1 X-101.10203 Y-63.63975
G3 X-101.09609 Y-63.63227 I-2.34736 J1.86813
G3 X-98.73034 Y-60.37243 I-38.32543 J30.30212
G3 X-98.72846 Y-60.36959 I-2.49856 J1.66048
G3 X-97.65006 Y-58.65146 I-33.94843 J22.50563
G3 X-97.50684 Y-58.40809 I-10.77937 J6.50713
G3 X-96.64439 Y-56.84646 I-32.76977 J19.11677
G3 X-96.64291 Y-56.84362 I-2.6595 J1.38819
G3 X-94.44147 Y-51.60264 I-30.65325 J15.95861
G3 X-94.02842 Y-50.24997 I-34.81535 J11.37041
G3 X-94.02779 Y-50.24776 I-2.8856 J0.82056
G3 X-93.50736 Y-48.20233 I-37.42164 J10.61044
G3 X-93.09696 Y-46.13857 I-39.361 J8.90007
G3 X-93.09632 Y-46.13487 I-2.95664 J0.50822
G1 X-93.06303 Y-45.9397
G3 X-93.06062 Y-45.9254 I-2.95727 J0.50451
G1 X-93.02952 Y-45.73764
G3 X-92.96166 Y-45.30958 I-21.68972 J3.6581
G3 X-92.58132 Y-42.18781 I-52.48069 J7.97798
G3 X-92.5803 Y-42.1765 I-2.98742 J0.27445
G1 X-92.53142 Y-41.62131
G3 X-92.52982 Y-41.60249 I-2.98844 J0.26313
G3 X-92.30471 Y-37.25149 I-72.78103 J5.94684
G1 X-92.30177 Y-37.1222
G3 X-92.30154 Y-37.11084 I-2.99923 J0.06816
G1 X-92.29196 Y-36.60484
G3 X-92.29177 Y-36.59402 I-2.99946 J0.05679
G1 X-92.29007 Y-36.48327
G3 X-92.28995 Y-36.47403 I-2.99965 J0.04597
G1 X-92.28469 Y-36.04509
G3 X-92.28458 Y-36.03481 I-2.99978 J0.03673
G3 X-92.30272 Y-32.94383 I-105.23337 J0.92807
G3 X-92.30275 Y-32.94241 I-2.99937 J-0.06166
G1 X-92.30511 Y-32.83021
G3 X-92.30526 Y-32.82351 I-2.99934 J-0.06308
G1 X-92.31561 Y-32.37876
G3 X-92.34097 Y-31.48438 I-82.84829 J-1.90227
G3 X-92.34106 Y-31.48189 I-2.99829 J-0.10124
G1 X-92.36903 Y-30.67351
G3 X-92.36948 Y-30.66115 I-2.99821 J-0.10373
G3 X-92.71895 Y-24.49748 I-172.01515 J-6.66118
G3 X-92.71915 Y-24.49472 I-2.99166 J-0.2235
G1 X-92.77635 Y-23.73858
G3 X-92.77694 Y-23.73092 I-2.99146 J-0.22626
G3 X-93.25269 Y-18.38046 I-251.88653 J-19.70072
G3 X-93.25315 Y-18.37587 I-2.98522 J-0.29745
G1 X-93.35582 Y-17.36123
G3 X-93.35698 Y-17.34996 I-2.98476 J-0.30204
G1 X-93.45546 Y-16.41221
G3 X-93.47061 Y-16.26995 I-7.60973 J-0.7389
G3 X-93.56523 Y-15.40125 I-103.98747 J-10.88656
G3 X-93.59225 Y-15.15835 I-10.47972 J-1.04274
G3 X-94.39955 Y-8.59456 I-302.24473 J-33.84229
G3 X-94.39977 Y-8.59291 I-2.97341 J-0.39857
G1 X-94.45452 Y-8.18618
G3 X-94.45501 Y-8.18256 I-2.97318 J-0.40022
G1 X-94.5068 Y-7.80131
G3 X-94.50722 Y-7.79824 I-2.97269 J-0.40385
G3 X-95.34098 Y-2.04116 I-371.17707 J-50.81626
G3 X-95.34158 Y-2.03728 I-2.9656 J-0.45302
G1 X-95.50154 Y-0.99921
G3 X-95.50263 Y-0.99219 I-2.965 J-0.4569
G1 X-95.6549 Y-0.01935
G3 X-95.65603 Y-0.01219 I-2.96391 J-0.46391
G1 X-95.94593 Y1.81116
G3 X-95.94676 Y1.81635 I-2.96279 J-0.47107
G1 X-96.20322 Y3.41137
G1 X-96.20329 Y3.41181
G1 X-96.65225 Y6.2014
G1 X-96.73542 Y6.72183
G1 X-96.89076 Y7.69983
G1 X-97.02503 Y8.55324
G1 X-97.25694 Y10.05079
G1 X-97.27769 Y10.18651
G1 X-97.4421 Y11.27417
G1 X-97.5027 Y11.6811
G3 X-97.50279 Y11.68172 I-2.96727 J-0.44191
G2 X-97.90914 Y14.51911 I244.2288 J36.4243
G1 X-97.9903 Y15.11472
G1 X-98.06688 Y15.6889
G1 X-98.13959 Y16.24654
G1 X-98.15667 Y16.37951
G1 X-98.17374 Y16.51309
G1 X-98.19057 Y16.64562
G1 X-98.20716 Y16.77708
G1 X-98.22353 Y16.90751
G1 X-98.2398 Y17.03804
G3 X-98.24011 Y17.04053 I-2.97694 J-0.37123
G2 X-98.69397 Y21.13784 I140.27327 J17.61168
G1 X-98.71202 Y21.3275
G1 X-98.78141 Y22.087
G1 X-98.84186 Y22.79542
G1 X-98.89484 Y23.46239
G1 X-98.90653 Y23.61648
G2 X-99.06245 Y26.0593 I103.60144 J7.83899
G1 X-99.08555 Y26.52325
G1 X-99.09544 Y26.73641
G1 X-99.10479 Y26.94774
G1 X-99.10481 Y26.94824
G2 X-99.15342 Y33.37509 I87.19485 J3.87304
G1 X-99.13336 Y33.95875
G2 X-98.83206 Y38.38145 I72.64361 J-2.72734
G3 X-98.83175 Y38.38454 I-2.98545 J0.29507
G2 X-97.86236 Y44.94862 I67.22007 J-6.57353
G3 X-97.86225 Y44.94918 I-2.9427 J0.58354
G2 X-96.23417 Y51.35402 I60.78341 J-12.04155
G2 X-94.72599 Y55.60281 I56.91319 J-17.81021
G3 X-94.72545 Y55.60416 I-2.78721 J1.1097
G2 X-93.38733 Y58.71316 I56.13843 J-22.31967
G3 X-93.38641 Y58.71514 I-2.7213 J1.26275
G2 X-91.06424 Y63.23101 I55.88819 J-25.88405
G1 X-90.90618 Y63.50817
G1 X-90.60502 Y64.02744
G1 X-90.338 Y64.47852
G1 X-90.22131 Y64.67298
G2 X-88.37665 Y67.55379 I54.62024 J-32.94389
G2 X-86.74965 Y69.83942 I53.82122 J-36.59014
G1 X-86.56316 Y70.0886
G1 X-86.38056 Y70.33028
G1 X-86.19776 Y70.56999
G2 X-83.21526 Y74.20064 I54.99449 J-42.13646
G1 X-83.21518 Y74.20073
G1 X-83.21534 Y74.20055
G1 X-83.21526 Y74.20064
G2 X-78.29778 Y79.29345 I57.55602 J-50.65409
G3 X-78.28101 Y79.3094 I-2.05964 J2.18126
G2 X-78.15145 Y79.4315 I7.1163 J-7.42102
G3 X-78.13643 Y79.44552 I-2.0386 J2.20094
G2 X-72.93165 Y83.93867 I56.28771 J-59.94142
G3 X-72.89715 Y83.96644 I-1.86373 J2.35085
G3 X-72.86428 Y83.99205 I-1.82766 J2.379
G2 X-68.40736 Y87.29638 I55.51063 J-70.21548
G1 X-67.97436 Y87.59554
G1 X-67.55716 Y87.88047
G1 X-67.15144 Y88.15446
G1 X-66.75699 Y88.41798
G1 X-66.37136 Y88.67294
G2 X-60.28037 Y92.37909 I56.49578 J-85.99133
G3 X-60.2796 Y92.37953 I-1.46968 J2.61535
G2 X-57.13742 Y94.08093 I54.7771 J-97.41093
G2 X-55.54391 Y94.89476 I63.46297 J-122.29635
G1 X-55.14425 Y95.09391
G1 X-54.53318 Y95.39467
G3 X-54.52877 Y95.39684 I-1.32477 J2.69165
G2 X-54.25188 Y95.53161 I11.27829 J-22.82059
G3 X-54.22066 Y95.54679 I-1.29655 J2.70536
G3 X-54.16882 Y95.57207 I-1.28903 J2.70895
G3 X-54.11737 Y95.59678 I-1.27306 J2.71649
G2 X-53.95586 Y95.67471 I5.10649 J-10.37782
G3 X-53.9431 Y95.68078 I-1.28262 J2.71199
G1 X-53.49287 Y95.89631
G2 X-46.51171 Y98.96593 I56.0697 J-118.04478
G3 X-46.51077 Y98.96631 I-1.12688 J2.78031
G1 X-46.28689 Y99.05714
G1 X-46.07507 Y99.14268
G1 X-45.23732 Y99.47742
G1 X-44.50546 Y99.76529
G2 X-43.21983 Y100.26123 I121.16741 J-312.18576
G1 X-42.73469 Y100.44533
G2 X-41.04005 Y101.07624 I63.09966 J-166.8953
G3 X-41.01219 Y101.08661 I-1.03245 J2.81674
G3 X-40.95976 Y101.10583 I-1.00627 J2.8262
G3 X-40.90687 Y101.12522 I-1.00635 J2.82617
G2 X-40.76117 Y101.17853 I2.70458 J-7.16662
G3 X-40.73888 Y101.18653 I-1.00218 J2.82766
G1 X-40.0322 Y101.44329
G1 X-39.6825 Y101.56936
G1 X-39.33336 Y101.6946
G1 X-38.08514 Y102.13815
G1 X-36.99254 Y102.52207
G1 X-33.13696 Y103.86434
G3 X-33.12946 Y103.86697 I-0.98635 J2.83322
G1 X-32.16598 Y104.20526
G3 X-29.22658 Y105.27005 I-50.29303 J143.42525
G3 X-29.22054 Y105.27231 I-1.05073 J2.80998
G1 X-28.96728 Y105.36763
G3 X-28.95632 Y105.37179 I-1.05677 J2.80771
G1 X-28.46639 Y105.55837
G3 X-28.45157 Y105.56406 I-1.06773 J2.80356
G1 X-27.99317 Y105.74143
G3 X-27.99019 Y105.74258 I-1.08255 J2.79787
G3 X-24.44925 Y107.22065 I-27.56316 J71.01213
G1 X-24.44916 Y107.22069
G3 X-22.71112 Y108.03281 I-23.80447 J53.21091
G3 X-22.57849 Y108.0973 I-2.51033 J5.33071
G3 X-22.4611 Y108.1552 I-2.68281 J5.58777
G3 X-20.959 Y108.92213 I-26.19387 J53.1573
G3 X-20.95506 Y108.92422 I-1.40208 J2.6522
G3 X-17.35172 Y111.00207 I-27.63235 J52.08241
G3 X-17.21221 Y111.08948 I-3.86383 J6.32145
G3 X-13.8767 Y113.34682 I-31.55258 J50.21623
G3 X-13.87576 Y113.3475 I-1.76481 J2.42599
G3 X-10.57848 Y115.94357 I-32.79423 J45.04408
G3 X-10.57539 Y115.9462 I-1.94328 J2.28553
G3 X-8.99389 Y117.35616 I-31.06251 J36.43341
G3 X-8.98764 Y117.362 I-2.04546 J2.19456
G1 X-8.89706 Y117.44692
G3 X-8.88698 Y117.45641 I-2.05171 J2.18872
G1 X-8.71787 Y117.6164
G3 X-8.7053 Y117.62837 I-2.06178 J2.17923
G1 X-8.55818 Y117.76919
G3 X-8.5469 Y117.78003 I-2.07436 J2.16726
G1 X-8.41879 Y117.90394
G3 X-8.41108 Y117.91142 I-2.08563 J2.15642
G1 X-8.35522 Y117.96584
G3 X-8.34379 Y117.97703 I-2.09334 J2.14894
G1 X-8.13547 Y118.18214
G3 X-8.11926 Y118.19822 I-2.10476 J2.13775
G1 X-7.96417 Y118.35326
G3 X-7.95891 Y118.35853 I-2.12097 J2.12167
G3 X-7.45395 Y118.87765 I-22.31543 J22.2122
G3 X-6.54433 Y119.87955 I-19.89506 J18.97626
G3 X-5.25053 Y121.51279 I-17.3656 J15.08567
G3 X-4.62746 Y122.4406 I-12.92559 J9.35325
G3 X-4.61394 Y122.46254 I-2.54758 J1.58425
G1 X-4.49542 Y122.65684
G3 X-4.48001 Y122.68237 I-2.56109 J1.56231
G3 X-4.04538 Y123.47675 I-10.46534 J6.24215
G3 X-4.03732 Y123.49298 I-2.6835 J1.34121
G1 X0.0 Y131.69438
G1 X4.03732 Y123.49298
G3 X4.04538 Y123.47675 I2.69155 J1.32498
G3 X4.48001 Y122.68237 I10.89997 J5.44778
G3 X4.49542 Y122.65684 I2.57649 J1.53678
G1 X4.61394 Y122.46254
G3 X4.62746 Y122.4406 I2.56109 J1.56231
G3 X5.25053 Y121.51279 I13.54866 J8.42543
G3 X6.54433 Y119.87955 I18.65941 J13.45244
G3 X7.45395 Y118.87765 I20.80468 J17.97436
G3 X7.95891 Y118.35853 I22.82039 J21.69308
G3 X7.96417 Y118.35326 I2.12623 J2.1164
G1 X8.11926 Y118.19822
G3 X8.13547 Y118.18214 I2.12097 J2.12167
G1 X8.34379 Y117.97703
G3 X8.35522 Y117.96584 I2.10476 J2.13775
G1 X8.41108 Y117.91142
G3 X8.41879 Y117.90394 I2.09334 J2.14894
G1 X8.5469 Y117.78003
G3 X8.55818 Y117.76919 I2.08563 J2.15642
G1 X8.7053 Y117.62837
G3 X8.71787 Y117.6164 I2.07436 J2.16726
G1 X8.88698 Y117.45641
G3 X8.89706 Y117.44692 I2.06178 J2.17923
G1 X8.98764 Y117.362
G3 X8.99389 Y117.35616 I2.05171 J2.18872
G3 X10.57539 Y115.9462 I32.64401 J35.02345
G3 X10.57848 Y115.94357 I1.94637 J2.28291
G3 X13.87576 Y113.3475 I36.09151 J42.44801
G3 X13.8767 Y113.34682 I1.76574 J2.42531
G3 X17.21221 Y111.08948 I34.8881 J47.95889
G3 X17.35172 Y111.00207 I4.00334 J6.23403
G3 X20.95506 Y108.92422 I31.23569 J50.00456
G3 X20.959 Y108.92213 I1.40602 J2.65011
G3 X22.4611 Y108.1552 I27.69597 J52.39036
G3 X22.57849 Y108.0973 I2.80019 J5.52988
G3 X22.71112 Y108.03281 I2.64296 J5.26622
G3 X24.44916 Y107.22069 I25.54251 J52.39879
G1 X24.44925 Y107.22065
G3 X27.99019 Y105.74258 I31.10409 J69.53407
G3 X27.99317 Y105.74143 I1.08554 J2.79671
G1 X28.45157 Y105.56406
G3 X28.46639 Y105.55837 I1.08255 J2.79787
G1 X28.95632 Y105.37179
G3 X28.96728 Y105.36763 I1.06773 J2.80356
G1 X29.22054 Y105.27231
G3 X29.22658 Y105.27005 I1.05677 J2.80771
G3 X32.16598 Y104.20526 I53.23243 J142.36045
G1 X33.12946 Y103.86697
G3 X33.13696 Y103.86434 I0.99385 J2.83059
G1 X36.99254 Y102.52207
G1 X38.08514 Y102.13815
G1 X39.33336 Y101.6946
G1 X39.6825 Y101.56936
G1 X40.0322 Y101.44329
G1 X40.73888 Y101.18653
G3 X40.76117 Y101.17853 I1.02447 J2.81966
G2 X40.90687 Y101.12522 I-2.55888 J-7.21992
G3 X40.95976 Y101.10583 I1.05924 J2.80678
G3 X41.01219 Y101.08661 I1.0587 J2.80698
G3 X41.04005 Y101.07624 I1.0603 J2.80638
G2 X42.73469 Y100.44533 I-61.40501 J-167.52622
G1 X43.21983 Y100.26123
G2 X44.50546 Y99.76529 I-119.88178 J-312.68171
G1 X45.23732 Y99.47742
G1 X46.07507 Y99.14268
G1 X46.28689 Y99.05714
G1 X46.51077 Y98.96631
G3 X46.51171 Y98.96593 I1.12781 J2.77993
G2 X53.49287 Y95.89631 I-49.08854 J-121.1144
G1 X53.9431 Y95.68078
G3 X53.95586 Y95.67471 I1.29537 J2.70592
G2 X54.11737 Y95.59678 I-4.94497 J-10.45574
G3 X54.16882 Y95.57207 I1.32451 J2.69178
G3 X54.22066 Y95.54679 I1.34087 J2.68367
G3 X54.25188 Y95.53161 I1.32777 J2.69017
G2 X54.52877 Y95.39684 I-11.00139 J-22.95535
G3 X54.53318 Y95.39467 I1.32918 J2.68948
G1 X55.14425 Y95.09391
G1 X55.54391 Y94.89476
G2 X57.13742 Y94.08093 I-61.86947 J-123.11017
G2 X60.2796 Y92.37953 I-51.63492 J-99.11234
G3 X60.28037 Y92.37909 I1.47045 J2.61492
G2 X66.37136 Y88.67294 I-50.40479 J-89.69749
G1 X66.75699 Y88.41798
G1 X67.15144 Y88.15446
G1 X67.55716 Y87.88047
G1 X67.97436 Y87.59554
G1 X68.40736 Y87.29638
G2 X72.86428 Y83.99205 I-51.05371 J-73.51981
G3 X72.89715 Y83.96644 I1.86053 J2.35339
G3 X72.93165 Y83.93867 I1.89823 J2.32308
G2 X78.13643 Y79.44552 I-51.08293 J-64.43457
G3 X78.15145 Y79.4315 I2.05362 J2.18692
G2 X78.28101 Y79.3094 I-6.98674 J-7.54313
G3 X78.29778 Y79.29345 I2.0764 J2.16531
G2 X83.21526 Y74.20064 I-52.63854 J-55.7469
G1 X83.21534 Y74.20055
G1 X83.21518 Y74.20073
G1 X83.21526 Y74.20064
G2 X86.19776 Y70.56999 I-52.01199 J-45.76712
G1 X86.38056 Y70.33028
G1 X86.56316 Y70.0886
G1 X86.74965 Y69.83942
G2 X88.37665 Y67.55379 I-52.19423 J-38.87577
G2 X90.22131 Y64.67298 I-52.77557 J-35.8247
G1 X90.338 Y64.47852
G1 X90.60502 Y64.02744
G1 X90.90618 Y63.50817
G1 X91.06424 Y63.23101
G2 X93.38641 Y58.71514 I-53.56602 J-30.39991
G3 X93.38733 Y58.71316 I2.72222 J1.26077
G2 X94.72545 Y55.60416 I-54.8003 J-25.42868
G3 X94.72599 Y55.60281 I2.78775 J1.10836
G2 X96.23417 Y51.35402 I-55.40501 J-22.05901
G2 X97.86225 Y44.94918 I-59.15532 J-18.44639
G3 X97.86236 Y44.94862 I2.94281 J0.58299
G2 X98.83175 Y38.38454 I-66.25068 J-13.13761
G3 X98.83206 Y38.38145 I2.98576 J0.29198
G2 X99.13336 Y33.95875 I-72.3423 J-7.15004
G1 X99.15342 Y33.37509
G2 X99.10481 Y26.94824 I-87.24346 J-2.55381
G1 X99.10479 Y26.94774
G1 X99.09544 Y26.73641
G1 X99.08555 Y26.52325
G1 X99.06245 Y26.0593
G2 X98.90653 Y23.61648 I-103.75736 J5.39617
G1 X98.89484 Y23.46239
G1 X98.84186 Y22.79542
G1 X98.78141 Y22.087
G1 X98.71202 Y21.3275
G1 X98.69397 Y21.13784
G2 X98.24011 Y17.04053 I-140.72712 J13.51437
G3 X98.2398 Y17.03804 I2.97663 J-0.37372
G1 X98.22353 Y16.90751
G1 X98.20716 Y16.77708
G1 X98.19057 Y16.64562
G1 X98.17374 Y16.51309
G1 X98.15667 Y16.37951
G1 X98.13959 Y16.24654
G1 X98.06688 Y15.6889
G1 X97.9903 Y15.11472
G1 X97.90914 Y14.51911
G2 X97.50279 Y11.68172 I-244.63515 J33.58691
G3 X97.5027 Y11.6811 I2.96718 J-0.44253
G1 X97.4421 Y11.27417
G1 X97.27769 Y10.18651
G1 X97.25694 Y10.05079
G1 X97.02503 Y8.55324
G1 X96.89076 Y7.69983
G1 X96.73542 Y6.72183
G1 X96.65225 Y6.2014
G1 X96.20329 Y3.41181
G1 X96.20322 Y3.41137
G1 X95.94676 Y1.81635
G3 X95.94593 Y1.81116 I2.96196 J-0.47625
G1 X95.65603 Y-0.01219
G3 X95.6549 Y-0.01935 I2.96279 J-0.47107
G1 X95.50263 Y-0.99219
G3 X95.50154 Y-0.99921 I2.96391 J-0.46391
G1 X95.34158 Y-2.03728
G3 X95.34098 Y-2.04116 I2.965 J-0.4569
G3 X94.50722 Y-7.79824 I370.34331 J-56.57334
G3 X94.5068 Y-7.80131 I2.97227 J-0.40692
G1 X94.45501 Y-8.18256
G3 X94.45452 Y-8.18618 I2.97269 J-0.40385
G1 X94.39977 Y-8.59291
G3 X94.39955 Y-8.59456 I2.97318 J-0.40022
G3 X93.59225 Y-15.15835 I301.43744 J-40.40608
G3 X93.56523 Y-15.40125 I10.4527 J-1.28565
G3 X93.47061 Y-16.26995 I103.89286 J-11.75526
G3 X93.45546 Y-16.41221 I7.59457 J-0.88115
G1 X93.35698 Y-17.34996
G3 X93.35582 Y-17.36123 I2.9836 J-0.31331
G1 X93.25315 Y-18.37587
G3 X93.25269 Y-18.38046 I2.98476 J-0.30204
G3 X92.77694 Y-23.73092 I251.41078 J-25.05119
G3 X92.77635 Y-23.73858 I2.99087 J-0.23392
G1 X92.71915 Y-24.49472
G3 X92.71895 Y-24.49748 I2.99146 J-0.22626
G3 X92.36948 Y-30.66115 I171.66568 J-12.82484
G3 X92.36903 Y-30.67351 I2.99775 J-0.11609
G1 X92.34106 Y-31.48189
G3 X92.34097 Y-31.48438 I2.99821 J-0.10373
G3 X92.31561 Y-32.37876 I82.82292 J-2.79666
G1 X92.30526 Y-32.82351
G3 X92.30511 Y-32.83021 I2.99919 J-0.06978
G1 X92.30275 Y-32.94241
G3 X92.30272 Y-32.94383 I2.99934 J-0.06308
G3 X92.28458 Y-36.03481 I105.21524 J-2.16291
G3 X92.28469 Y-36.04509 I2.99988 J0.02646
G1 X92.28995 Y-36.47403
G3 X92.29007 Y-36.48327 I2.99978 J0.03673
G1 X92.29177 Y-36.59402
G3 X92.29196 Y-36.60484 I2.99965 J0.04597
G1 X92.30154 Y-37.11084
G3 X92.30177 Y-37.1222 I2.99946 J0.05679
G1 X92.30471 Y-37.25149
G3 X92.52982 Y-41.60249 I73.00614 J1.59585
G3 X92.53142 Y-41.62131 I2.99004 J0.24431
G1 X92.5803 Y-42.1765
G3 X92.58132 Y-42.18781 I2.98844 J0.26313
G3 X92.96166 Y-45.30958 I52.86103 J4.85621
G3 X93.02952 Y-45.73764 I21.75758 J3.23004
G1 X93.06062 Y-45.9254
G3 X93.06303 Y-45.9397 I2.95968 J0.49022
G1 X93.09632 Y-46.13487
G3 X93.09696 Y-46.13857 I2.95727 J0.50451
G3 X93.50736 Y-48.20233 I39.7714 J6.83631
G3 X94.02779 Y-50.24776 I37.94208 J8.56501
G3 X94.02842 Y-50.24997 I2.88623 J0.81835
G3 X94.44147 Y-51.60264 I35.2284 J10.01774
G3 X96.64291 Y-56.84362 I32.8547 J10.71763
G3 X96.64439 Y-56.84646 I2.66098 J1.38535
G3 X97.50684 Y-58.40809 I33.63222 J17.55514
G3 X97.65006 Y-58.65146 I10.92259 J6.26375
G3 X98.72846 Y-60.36959 I35.02683 J20.78751
G3 X98.73034 Y-60.37243 I2.50045 J1.65764
G3 X101.09609 Y-63.63227 I40.69118 J27.04228
G3 X101.10203 Y-63.63975 I2.3533 J1.86064
G1 X101.41598 Y-64.03423
G3 X101.42925 Y-64.05079 I2.34736 J1.86813
G1 X101.59274 Y-64.25327
G3 X101.60369 Y-64.26675 I2.33409 J1.88468
G1 X101.84958 Y-64.56769
G3 X101.85705 Y-64.5768 I2.32314 J1.89816
G1 X101.89236 Y-64.61967
G3 X101.90086 Y-64.62994 I2.31567 J1.90727
G1 X102.18477 Y-64.97154
G3 X102.19751 Y-64.98676 I2.30717 J1.91754
G1 X102.38828 Y-65.21324
G3 X102.40036 Y-65.22748 I2.29444 J1.93276
G1 X102.65658 Y-65.52783
G3 X102.673 Y-65.54692 I2.28236 J1.947
G1 X103.01803 Y-65.94457
G3 X103.0331 Y-65.96181 I2.26594 J1.96609
G1 X103.232 Y-66.18754
G3 X103.23592 Y-66.19198 I2.25086 J1.98334
G3 X104.97148 Y-68.06039 I39.34225 J34.80438
G3 X106.19412 Y-69.26784 I30.67386 J29.83717
G3 X106.93148 Y-69.95028 I22.5286 J23.60206
G3 X106.93502 Y-69.95345 I2.0036 J2.23284
G1 X107.09679 Y-70.09815
G3 X107.23693 Y-70.22221 I3.89565 J4.25951
G1 X110.67762 Y-73.25237
G1 X73.94866 Y-112.99836
G3 X0.0 Y-100.43695 I-73.94866 J-211.38613
G3 X-73.94866 Y-112.99836 I0.0 J-223.94754
G1 X-110.67762 Y-73.25237
G1 X-109.16269 Y-71.91819
G1 F300.0 X-108.36959 Y-72.81875
G1 Z-6.0
G3 F800.0 X-108.42627 Y-73.92053 I4.12495 J-0.76454
G1 X-108.96216 Y-73.34061
G1 X-108.36959 Y-72.81875
G0 Z3.0
G0 X108.36959
G0 Z-3.0
G1 F300.0 Z-6.0
G1 F800.0 X108.96216 Y-73.34061
G1 X108.42627 Y-73.92053
G3 X108.36959 Y-72.81875 I-4.18162 J0.33725
G0 Z3.0
G0 X1.81667 Y125.28697
G0 Z-3.0
G1 F300.0 Z-6.0
G3 F800.0 X-1.81667 I-1.81667 J-3.78146
G1 X0.0 Y128.97735
G1 X1.81667 Y125.28697
G1 F300.0 X2.89329 Y125.81696
G1 F800.0 X4.03732 Y123.49298
G3 X4.04538 Y123.47675 I2.69155 J1.32498
G3 X4.48001 Y122.68237 I10.89997 J5.44778
G3 X4.49542 Y122.65684 I2.57649 J1.53678
G1 X4.61394 Y122.46254
G3 X4.62746 Y122.4406 I2.56109 J1.56231
G3 X5.25053 Y121.51279 I13.54866 J8.42543
G3 X6.54433 Y119.87955 I18.65941 J13.45244
G3 X7.45395 Y118.87765 I20.80468 J17.97436
G3 X7.95891 Y118.35853 I22.82039 J21.69308
G3 X7.96417 Y118.35326 I2.12623 J2.1164
G1 X8.11926 Y118.19822
G3 X8.13547 Y118.18214 I2.12097 J2.12167
G1 X8.34379 Y117.97703
G3 X8.35522 Y117.96584 I2.10476 J2.13775
G1 X8.41108 Y117.91142
G3 X8.41879 Y117.90394 I2.09334 J2.14894
G1 X8.5469 Y117.78003
G3 X8.55818 Y117.76919 I2.08563 J2.15642
G1 X8.7053 Y117.62837
G3 X8.71787 Y117.6164 I2.07436 J2.16726
G1 X8.88698 Y117.45641
G3 X8.89706 Y117.44692 I2.06178 J2.17923
G1 X8.98764 Y117.362
G3 X8.99389 Y117.35616 I2.05171 J2.18872
G3 X10.57539 Y115.9462 I32.64401 J35.02345
G3 X10.57848 Y115.94357 I1.94637 J2.28291
G3 X13.87576 Y113.3475 I36.09151 J42.44801
G3 X13.8767 Y113.34682 I1.76574 J2.42531
G3 X17.21221 Y111.08948 I34.8881 J47.95889
G3 X17.35172 Y111.00207 I4.00334 J6.23403
G3 X20.95506 Y108.92422 I31.23569 J50.00456
G3 X20.959 Y108.92213 I1.40602 J2.65011
G3 X22.4611 Y108.1552 I27.69597 J52.39036
G3 X22.57849 Y108.0973 I2.80019 J5.52988
G3 X22.71112 Y108.03281 I2.64296 J5.26622
G3 X24.44916 Y107.22069 I25.54251 J52.39879
G1 X24.44925 Y107.22065
G3 X27.99019 Y105.74258 I31.10409 J69.53407
G3 X27.99317 Y105.74143 I1.08554 J2.79671
G1 X28.45157 Y105.56406
G3 X28.46639 Y105.55837 I1.08255 J2.79787
G1 X28.95632 Y105.37179
G3 X28.96728 Y105.36763 I1.06773 J2.80356
G1 X29.22054 Y105.27231
G3 X29.22658 Y105.27005 I1.05677 J2.80771
G3 X32.16598 Y104.20526 I53.23243 J142.36045
G1 X33.12946 Y103.86697
G3 X33.13696 Y103.86434 I0.99385 J2.83059
G1 X36.99254 Y102.52207
G1 X38.08514 Y102.13815
G1 X39.33336 Y101.6946
G1 X39.6825 Y101.56936
G1 X40.0322 Y101.44329
G1 X40.73888 Y101.18653
G3 X40.76117 Y101.17853 I1.02447 J2.81966
G2 X40.90687 Y101.12522 I-2.55888 J-7.21992
G3 X40.95976 Y101.10583 I1.05924 J2.80678
G3 X41.01219 Y101.08661 I1.0587 J2.80698
G3 X41.04005 Y101.07624 I1.0603 J2.80638
G2 X42.73469 Y100.44533 I-61.40501 J-167.52622
G1 X43.21983 Y100.26123
G2 X44.50546 Y99.76529 I-119.88178 J-312.68171
G1 X45.23732 Y99.47742
G1 X46.07507 Y99.14268
G1 X46.28689 Y99.05714
G1 X46.51077 Y98.96631
G3 X46.51171 Y98.96593 I1.12781 J2.77993
G2 X53.49287 Y95.89631 I-49.08854 J-121.1144
G1 X53.9431 Y95.68078
G3 X53.95586 Y95.67471 I1.29537 J2.70592
G2 X54.11737 Y95.59678 I-4.94497 J-10.45574
G3 X54.16882 Y95.57207 I1.32451 J2.69178
G3 X54.22066 Y95.54679 I1.34087 J2.68367
G3 X54.25188 Y95.53161 I1.32777 J2.69017
G2 X54.52877 Y95.39684 I-11.00139 J-22.95535
G3 X54.53318 Y95.39467 I1.32918 J2.68948
G1 X55.14425 Y95.09391
G1 X55.54391 Y94.89476
G2 X57.13742 Y94.08093 I-61.86947 J-123.11017
G2 X60.2796 Y92.37953 I-51.63492 J-99.11234
G3 X60.28037 Y92.37909 I1.47045 J2.61492
G2 X66.37136 Y88.67294 I-50.40479 J-89.69749
G1 X66.75699 Y88.41798
G1 X67.15144 Y88.15446
G1 X67.55716 Y87.88047
G1 X67.97436 Y87.59554
G1 X68.40736 Y87.29638
G2 X72.86428 Y83.99205 I-51.05371 J-73.51981
G3 X72.89715 Y83.96644 I1.86053 J2.35339
G3 X72.93165 Y83.93867 I1.89823 J2.32308
G2 X78.13643 Y79.44552 I-51.08293 J-64.43457
G3 X78.15145 Y79.4315 I2.05362 J2.18692
G2 X78.28101 Y79.3094 I-6.98674 J-7.54313
G3 X78.29778 Y79.29345 I2.0764 J2.16531
G2 X83.21526 Y74.20064 I-52.63854 J-55.7469
G1 X83.21534 Y74.20055
G1 X83.21518 Y74.20073
G1 X83.21526 Y74.20064
G2 X86.19776 Y70.56999 I-52.01199 J-45.76712
G1 X86.38056 Y70.33028
G1 X86.56316 Y70.0886
G1 X86.74965 Y69.83942
G2 X88.37665 Y67.55379 I-52.19423 J-38.87577
G2 X90.22131 Y64.67298 I-52.77557 J-35.8247
G1 X90.338 Y64.47852
G1 X90.60502 Y64.02744
G1 X90.90618 Y63.50817
G1 X91.06424 Y63.23101
G2 X93.38641 Y58.71514 I-53.56602 J-30.39991
G3 X93.38733 Y58.71316 I2.72222 J1.26077
G2 X94.72545 Y55.60416 I-54.8003 J-25.42868
G3 X94.72599 Y55.60281 I2.78775 J1.10836
G2 X96.23417 Y51.35402 I-55.40501 J-22.05901
G2 X97.86225 Y44.94918 I-59.15532 J-18.44639
G3 X97.86236 Y44.94862 I2.94281 J0.58299
G2 X98.83175 Y38.38454 I-66.25068 J-13.13761
G3 X98.83206 Y38.38145 I2.98576 J0.29198
G2 X99.13336 Y33.95875 I-72.3423 J-7.15004
G1 X99.15342 Y33.37509
G2 X99.10481 Y26.94824 I-87.24346 J-2.55381
G1 X99.10479 Y26.94774
G1 X99.09544 Y26.73641
G1 X99.08555 Y26.52325
G1 X99.06245 Y26.0593
G2 X98.90653 Y23.61648 I-103.75736 J5.39617
G1 X98.89484 Y23.46239
G1 X98.84186 Y22.79542
G1 X98.78141 Y22.087
G1 X98.71202 Y21.3275
G1 X98.69397 Y21.13784
G2 X98.24011 Y17.04053 I-140.72712 J13.51437
G3 X98.2398 Y17.03804 I2.97663 J-0.37372
G1 X98.22353 Y16.90751
G1 X98.20716 Y16.77708
G1 X98.19057 Y16.64562
G1 X98.17374 Y16.51309
G1 X98.15667 Y16.37951
G1 X98.13959 Y16.24654
G1 X98.06688 Y15.6889
G1 X97.9903 Y15.11472
G1 X97.90914 Y14.51911
G2 X97.50279 Y11.68172 I-244.63515 J33.58691
G3 X97.5027 Y11.6811 I2.96718 J-0.44253
G1 X97.4421 Y11.27417
G1 X97.27769 Y10.18651
G1 X97.25694 Y10.05079
G1 X97.02503 Y8.55324
G1 X96.89076 Y7.69983
G1 X96.73542 Y6.72183
G1 X96.65225 Y6.2014
G1 X96.20329 Y3.41181
G1 X96.20322 Y3.41137
G1 X95.94676 Y1.81635
G3 X95.94593 Y1.81116 I2.96196 J-0.47625
G1 X95.65603 Y-0.01219
G3 X95.6549 Y-0.01935 I2.96279 J-0.47107
G1 X95.50263 Y-0.99219
G3 X95.50154 Y-0.99921 I2.96391 J-0.46391
G1 X95.34158 Y-2.03728
G3 X95.34098 Y-2.04116 I2.965 J-0.4569
G3 X94.50722 Y-7.79824 I370.34331 J-56.57334
G3 X94.5068 Y-7.80131 I2.97227 J-0.40692
G1 X94.45501 Y-8.18256
G3 X94.45452 Y-8.18618 I2.97269 J-0.40385
G1 X94.39977 Y-8.59291
G3 X94.39955 Y-8.59456 I2.97318 J-0.40022
G3 X93.59225 Y-15.15835 I301.43744 J-40.40608
G3 X93.56523 Y-15.40125 I10.4527 J-1.28565
G3 X93.47061 Y-16.26995 I103.89286 J-11.75526
G3 X93.45546 Y-16.41221 I7.59457 J-0.88115
G1 X93.35698 Y-17.34996
G3 X93.35582 Y-17.36123 I2.9836 J-0.31331
G1 X93.25315 Y-18.37587
G3 X93.25269 Y-18.38046 I2.98476 J-0.30204
G3 X92.77694 Y-23.73092 I251.41078 J-25.05119
G3 X92.77635 Y-23.73858 I2.99087 J-0.23392
G1 X92.71915 Y-24.49472
G3 X92.71895 Y-24.49748 I2.99146 J-0.22626
G3 X92.36948 Y-30.66115 I171.66568 J-12.82484
G3 X92.36903 Y-30.67351 I2.99775 J-0.11609
G1 X92.34106 Y-31.48189
G3 X92.34097 Y-31.48438 I2.99821 J-0.10373
G3 X92.31561 Y-32.37876 I82.82292 J-2.79666
G1 X92.30526 Y-32.82351
G3 X92.30511 Y-32.83021 I2.99919 J-0.06978
G1 X92.30275 Y-32.94241
G3 X92.30272 Y-32.94383 I2.99934 J-0.06308
G3 X92.28458 Y-36.03481 I105.21524 J-2.16291
G3 X92.28469 Y-36.04509 I2.99988 J0.02646
G1 X92.28995 Y-36.47403
G3 X92.29007 Y-36.48327 I2.99978 J0.03673
G1 X92.29177 Y-36.59402
G3 X92.29196 Y-36.60484 I2.99965 J0.04597
G1 X92.30154 Y-37.11084
G3 X92.30177 Y-37.1222 I2.99946 J0.05679
G1 X92.30471 Y-37.25149
G3 X92.52982 Y-41.60249 I73.00614 J1.59585
G3 X92.53142 Y-41.62131 I2.99004 J0.24431
G1 X92.5803 Y-42.1765
G3 X92.58132 Y-42.18781 I2.98844 J0.26313
G3 X92.96166 Y-45.30958 I52.86103 J4.85621
G3 X93.02952 Y-45.73764 I21.75758 J3.23004
G1 X93.06062 Y-45.9254
G3 X93.06303 Y-45.9397 I2.95968 J0.49022
G1 X93.09632 Y-46.13487
G3 X93.09696 Y-46.13857 I2.95727 J0.50451
G3 X93.50736 Y-48.20233 I39.7714 J6.83631
G3 X94.02779 Y-50.24776 I37.94208 J8.56501
G3 X94.02842 Y-50.24997 I2.88623 J0.81835
G3 X94.44147 Y-51.60264 I35.2284 J10.01774
G3 X96.64291 Y-56.84362 I32.8547 J10.71763
G3 X96.64439 Y-56.84646 I2.66098 J1.38535
G3 X97.50684 Y-58.40809 I33.63222 J17.55514
G3 X97.65006 Y-58.65146 I10.92259 J6.26375
G3 X98.72846 Y-60.36959 I35.02683 J20.78751
G3 X98.73034 Y-60.37243 I2.50045 J1.65764
G3 X101.09609 Y-63.63227 I40.69118 J27.04228
G3 X101.10203 Y-63.63975 I2.3533 J1.86064
G1 X101.41598 Y-64.03423
G3 X101.42925 Y-64.05079 I2.34736 J1.86813
G1 X101.59274 Y-64.25327
G3 X101.60369 Y-64.26675 I2.33409 J1.88468
G1 X101.84958 Y-64.56769
G3 X101.85705 Y-64.5768 I2.32314 J1.89816
G1 X101.89236 Y-64.61967
G3 X101.90086 Y-64.62994 I2.31567 J1.90727
G1 X102.18477 Y-64.97154
G3 X102.19751 Y-64.98676 I2.30717 J1.91754
G1 X102.38828 Y-65.21324
G3 X102.40036 Y-65.22748 I2.29444 J1.93276
G1 X102.65658 Y-65.52783
G3 X102.673 Y-65.54692 I2.28236 J1.947
G1 X103.01803 Y-65.94457
G3 X103.0331 Y-65.96181 I2.26594 J1.96609
G1 X103.232 Y-66.18754
G3 X103.23592 Y-66.19198 I2.25086 J1.98334
G3 X104.97148 Y-68.06039 I39.34225 J34.80438
G3 X106.19412 Y-69.26784 I30.67386 J29.83717
G3 X106.93148 Y-69.95028 I22.5286 J23.60206
G3 X106.93502 Y-69.95345 I2.0036 J2.23284
G1 X107.09679 Y-70.09815
G3 X107.23693 Y-70.22221 I3.89565 J4.25951
G1 X110.67762 Y-73.25237
G1 X73.94866 Y-112.99836
G3 X0.0 Y-100.43695 I-73.94866 J-211.38613
G3 X-73.94866 Y-112.99836 I0.0 J-223.94754
G1 X-110.67762 Y-73.25237
G1 X-107.23693 Y-70.22221
G3 X-107.09679 Y-70.09815 I-3.75552 J4.38356
G1 X-106.93502 Y-69.95345
G3 X-106.93148 Y-69.95028 I-2.00007 J2.23601
G3 X-106.19412 Y-69.26784 I-21.79123 J24.2845
G3 X-104.97148 Y-68.06039 I-29.45122 J31.04461
G3 X-103.23592 Y-66.19198 I-37.6067 J36.6728
G3 X-103.232 Y-66.18754 I-2.24694 J1.98777
G1 X-103.0331 Y-65.96181
G3 X-103.01803 Y-65.94457 I-2.25086 J1.98334
G1 X-102.673 Y-65.54692
G3 X-102.65658 Y-65.52783 I-2.26594 J1.96609
G1 X-102.40036 Y-65.22748
G3 X-102.38828 Y-65.21324 I-2.28236 J1.947
G1 X-102.19751 Y-64.98676
G3 X-102.18477 Y-64.97154 I-2.29444 J1.93276
G1 X-101.90086 Y-64.62994
G3 X-101.89236 Y-64.61967 I-2.30717 J1.91754
G1 X-101.85705 Y-64.5768
G3 X-101.84958 Y-64.56769 I-2.31567 J1.90727
G1 X-101.60369 Y-64.26675
G3 X-101.59274 Y-64.25327 I-2.32314 J1.89816
G1 X-101.42925 Y-64.05079
G3 X-101.41598 Y-64.03423 I-2.33409 J1.88468
G1 X-101.10203 Y-63.63975
G3 X-101.09609 Y-63.63227 I-2.34736 J1.86813
G3 X-98.73034 Y-60.37243 I-38.32543 J30.30212
G3 X-98.72846 Y-60.36959 I-2.49856 J1.66048
G3 X-97.65006 Y-58.65146 I-33.94843 J22.50563
G3 X-97.50684 Y-58.40809 I-10.77937 J6.50713
G3 X-96.64439 Y-56.84646 I-32.76977 J19.11677
G3 X-96.64291 Y-56.84362 I-2.6595 J1.38819
G3 X-94.44147 Y-51.60264 I-30.65325 J15.95861
G3 X-94.02842 Y-50.24997 I-34.81535 J11.37041
G3 X-94.02779 Y-50.24776 I-2.8856 J0.82056
G3 X-93.50736 Y-48.20233 I-37.42164 J10.61044
G3 X-93.09696 Y-46.13857 I-39.361 J8.90007
G3 X-93.09632 Y-46.13487 I-2.95664 J0.50822
G1 X-93.06303 Y-45.9397
G3 X-93.06062 Y-45.9254 I-2.95727 J0.50451
G1 X-93.02952 Y-45.73764
G3 X-92.96166 Y-45.30958 I-21.68972 J3.6581
G3 X-92.58132 Y-42.18781 I-52.48069 J7.97798
G3 X-92.5803 Y-42.1765 I-2.98742 J0.27445
G1 X-92.53142 Y-41.62131
G3 X-92.52982 Y-41.60249 I-2.98844 J0.26313
G3 X-92.30471 Y-37.25149 I-72.78103 J5.94684
G1 X-92.30177 Y-37.1222
G3 X-92.30154 Y-37.11084 I-2.99923 J0.06816
G1 X-92.29196 Y-36.60484
G3 X-92.29177 Y-36.59402 I-2.99946 J0.05679
G1 X-92.29007 Y-36.48327
G3 X-92.28995 Y-36.47403 I-2.99965 J0.04597
G1 X-92.28469 Y-36.04509
G3 X-92.28458 Y-36.03481 I-2.99978 J0.03673
G3 X-92.30272 Y-32.94383 I-105.23337 J0.92807
G3 X-92.30275 Y-32.94241 I-2.99937 J-0.06166
G1 X-92.30511 Y-32.83021
G3 X-92.30526 Y-32.82351 I-2.99934 J-0.06308
G1 X-92.31561 Y-32.37876
G3 X-92.34097 Y-31.48438 I-82.84829 J-1.90227
G3 X-92.34106 Y-31.48189 I-2.99829 J-0.10124
G1 X-92.36903 Y-30.67351
G3 X-92.36948 Y-30.66115 I-2.99821 J-0.10373
G3 X-92.71895 Y-24.49748 I-172.01515 J-6.66118
G3 X-92.71915 Y-24.49472 I-2.99166 J-0.2235
G1 X-92.77635 Y-23.73858
G3 X-92.77694 Y-23.73092 I-2.99146 J-0.22626
G3 X-93.25269 Y-18.38046 I-251.88653 J-19.70072
G3 X-93.25315 Y-18.37587 I-2.98522 J-0.29745
G1 X-93.35582 Y-17.36123
G3 X-93.35698 Y-17.34996 I-2.98476 J-0.30204
G1 X-93.45546 Y-16.41221
G3 X-93.47061 Y-16.26995 I-7.60973 J-0.7389
G3 X-93.56523 Y-15.40125 I-103.98747 J-10.88656
G3 X-93.59225 Y-15.15835 I-10.47972 J-1.04274
G3 X-94.39955 Y-8.59456 I-302.24473 J-33.84229
G3 X-94.39977 Y-8.59291 I-2.97341 J-0.39857
G1 X-94.45452 Y-8.18618
G3 X-94.45501 Y-8.18256 I-2.97318 J-0.40022
G1 X-94.5068 Y-7.80131
G3 X-94.50722 Y-7.79824 I-2.97269 J-0.40385
G3 X-95.34098 Y-2.04116 I-371.17707 J-50.81626
G3 X-95.34158 Y-2.03728 I-2.9656 J-0.45302
G1 X-95.50154 Y-0.99921
G3 X-95.50263 Y-0.99219 I-2.965 J-0.4569
G1 X-95.6549 Y-0.01935
G3 X-95.65603 Y-0.01219 I-2.96391 J-0.46391
G1 X-95.94593 Y1.81116
G3 X-95.94676 Y1.81635 I-2.96279 J-0.47107
G1 X-96.20322 Y3.41137
G1 X-96.20329 Y3.41181
G1 X-96.65225 Y6.2014
G1 X-96.73542 Y6.72183
G1 X-96.89076 Y7.69983
G1 X-97.02503 Y8.55324
G1 X-97.25694 Y10.05079
G1 X-97.27769 Y10.18651
G1 X-97.4421 Y11.27417
G1 X-97.5027 Y11.6811
G3 X-97.50279 Y11.68172 I-2.96727 J-0.44191
G2 X-97.90914 Y14.51911 I244.2288 J36.4243
G1 X-97.9903 Y15.11472
G1 X-98.06688 Y15.6889
G1 X-98.13959 Y16.24654
G1 X-98.15667 Y16.37951
G1 X-98.17374 Y16.51309
G1 X-98.19057 Y16.64562
G1 X-98.20716 Y16.77708
G1 X-98.22353 Y16.90751
G1 X-98.2398 Y17.03804
G3 X-98.24011 Y17.04053 I-2.97694 J-0.37123
G2 X-98.69397 Y21.13784 I140.27327 J17.61168
G1 X-98.71202 Y21.3275
G1 X-98.78141 Y22.087
G1 X-98.84186 Y22.79542
G1 X-98.89484 Y23.46239
G1 X-98.90653 Y23.61648
G2 X-99.06245 Y26.0593 I103.60144 J7.83899
G1 X-99.08555 Y26.52325
G1 X-99.09544 Y26.73641
G1 X-99.10479 Y26.94774
G1 X-99.10481 Y26.94824
G2 X-99.15342 Y33.37509 I87.19485 J3.87304
G1 X-99.13336 Y33.95875
G2 X-98.83206 Y38.38145 I72.64361 J-2.72734
G3 X-98.83175 Y38.38454 I-2.98545 J0.29507
G2 X-97.86236 Y44.94862 I67.22007 J-6.57353
G3 X-97.86225 Y44.94918 I-2.9427 J0.58354
G2 X-96.23417 Y51.35402 I60.78341 J-12.04155
G2 X-94.72599 Y55.60281 I56.91319 J-17.81021
G3 X-94.72545 Y55.60416 I-2.78721 J1.1097
G2 X-93.38733 Y58.71316 I56.13843 J-22.31967
G3 X-93.38641 Y58.71514 I-2.7213 J1.26275
G2 X-91.06424 Y63.23101 I55.88819 J-25.88405
G1 X-90.90618 Y63.50817
G1 X-90.60502 Y64.02744
G1 X-90.338 Y64.47852
G1 X-90.22131 Y64.67298
G2 X-88.37665 Y67.55379 I54.62024 J-32.94389
G2 X-86.74965 Y69.83942 I53.82122 J-36.59014
G1 X-86.56316 Y70.0886
G1 X-86.38056 Y70.33028
G1 X-86.19776 Y70.56999
G2 X-83.21526 Y74.20064 I54.99449 J-42.13646
G1 X-83.21518 Y74.20073
G1 X-83.21534 Y74.20055
G1 X-83.21526 Y74.20064
G2 X-78.29778 Y79.29345 I57.55602 J-50.65409
G3 X-78.28101 Y79.3094 I-2.05964 J2.18126
G2 X-78.15145 Y79.4315 I7.1163 J-7.42102
G3 X-78.13643 Y79.44552 I-2.0386 J2.20094
G2 X-72.93165 Y83.93867 I56.28771 J-59.94142
G3 X-72.89715 Y83.96644 I-1.86373 J2.35085
G3 X-72.86428 Y83.99205 I-1.82766 J2.379
G2 X-68.40736 Y87.29638 I55.51063 J-70.21548
G1 X-67.97436 Y87.59554
G1 X-67.55716 Y87.88047
G1 X-67.15144 Y88.15446
G1 X-66.75699 Y88.41798
G1 X-66.37136 Y88.67294
G2 X-60.28037 Y92.37909 I56.49578 J-85.99133
G3 X-60.2796 Y92.37953 I-1.46968 J2.61535
G2 X-57.13742 Y94.08093 I54.7771 J-97.41093
G2 X-55.54391 Y94.89476 I63.46297 J-122.29635
G1 X-55.14425 Y95.09391
G1 X-54.53318 Y95.39467
