; generated by Slic3r 1.33.8-prusa3d-win64 on 2017-04-04 at 21:22:02

; external perimeters extrusion width = 0.45mm
; perimeters extrusion width = 0.45mm
; infill extrusion width = 0.45mm
; solid infill extrusion width = 0.45mm
; top infill extrusion width = 0.45mm

M107
M115 U3.0.10 ; tell printer latest fw version
M83  ; extruder relative mode
M104 S215 ; set extruder temp
M140 S55 ; set bed temp
M190 S55 ; wait for bed temp
M109 S215 ; wait for extruder temp
G28 W ; home all without mesh bed level
G80 ; mesh bed leveling
G1 Y-3.0 F1000.0 ; go outside pritn area
G1 X60.0 E9.0  F1000.0 ; intro line
G1 X100.0 E12.5  F1000.0 ; intro line
G21 ; set units to millimeters
G90 ; use absolute coordinates
M83 ; use relative distances for extrusion
G1 E-0.80000 F2100.00000
G1 Z0.200 F7200.000
G1 X119.415 Y79.684 F7200.000
G1 E0.80000 F2100.00000
M204 S1000
G1 F2100
G1 X119.792 Y79.211 E0.01894
G1 X120.165 Y78.816 E0.01704
G1 X120.769 Y78.289 E0.02514
G1 X121.210 Y77.972 E0.01703
G1 X121.729 Y77.663 E0.01894
G1 X122.273 Y77.400 E0.01894
G1 X122.781 Y77.206 E0.01704
G1 X178.341 Y57.987 E1.84333
G1 X178.954 Y57.814 E0.01999
G1 X179.492 Y57.713 E0.01715
G1 X180.298 Y57.640 E0.02537
G1 X180.838 Y57.643 E0.01691
G1 X181.451 Y57.700 E0.01930
G1 X182.049 Y57.809 E0.01906
G1 X182.635 Y57.970 E0.01906
G1 X183.222 Y58.190 E0.01966
G1 X183.781 Y58.458 E0.01943
G1 X184.312 Y58.776 E0.01941
G1 X184.807 Y59.134 E0.01918
G1 X185.280 Y59.547 E0.01967
G1 X185.703 Y59.988 E0.01917
G1 X186.093 Y60.475 E0.01955
G1 X186.415 Y60.959 E0.01823
G1 X211.078 Y103.675 E1.54655
G1 X211.370 Y104.257 E0.02042
G1 X211.616 Y104.903 E0.02168
G1 X211.786 Y105.515 E0.01990
G1 X211.883 Y106.022 E0.01619
G1 X211.939 Y106.532 E0.01608
G1 X211.958 Y107.234 E0.02203
G1 X211.912 Y107.860 E0.01967
G1 X211.809 Y108.486 E0.01990
G1 X211.647 Y109.107 E0.02013
G1 X211.406 Y109.757 E0.02170
G1 X211.184 Y110.231 E0.01642
G1 X210.928 Y110.679 E0.01619
G1 X210.529 Y111.258 E0.02204
G1 X210.115 Y111.749 E0.02014
G1 X209.609 Y112.239 E0.02206
G1 X209.201 Y112.572 E0.01654
G1 X208.786 Y112.858 E0.01578
G1 X208.168 Y113.213 E0.02234
G1 X207.583 Y113.475 E0.02012
G1 X151.975 Y132.713 E1.84494
G1 X151.469 Y132.883 E0.01673
G1 X150.901 Y133.022 E0.01835
G1 X150.266 Y133.119 E0.02013
G1 X149.617 Y133.156 E0.02039
G1 X100.372 Y133.156 E1.54403
G1 X99.737 Y133.119 E0.01994
G1 X99.121 Y133.026 E0.01954
G1 X98.516 Y132.879 E0.01953
G1 X97.909 Y132.670 E0.02014
G1 X97.347 Y132.417 E0.01931
G1 X96.747 Y132.074 E0.02167
G1 X96.231 Y131.711 E0.01978
G1 X95.837 Y131.384 E0.01609
G1 X95.467 Y131.023 E0.01620
G1 X95.009 Y130.494 E0.02193
G1 X94.649 Y129.986 E0.01953
G1 X94.330 Y129.437 E0.01989
G1 X94.071 Y128.879 E0.01930
G1 X93.859 Y128.288 E0.01966
G1 X93.700 Y127.674 E0.01990
G1 X93.600 Y127.059 E0.01954
G1 X93.555 Y126.369 E0.02168
G1 X93.573 Y125.738 E0.01978
G1 X93.630 Y125.225 E0.01619
G1 X93.726 Y124.722 E0.01607
G1 X93.912 Y124.055 E0.02168
G1 X94.118 Y123.520 E0.01800
G1 X94.444 Y122.861 E0.02304
G1 X119.056 Y80.232 E1.54340
G1 X119.381 Y79.733 E0.01865
G1 F5760
G1 X119.792 Y79.211 E-0.23002
G1 F5760
G1 X120.165 Y78.816 E-0.18822
G1 F5760
G1 X120.769 Y78.289 E-0.27768
G1 F5760
G1 X120.919 Y78.181 E-0.06408
G1 E-0.04000 F2100.00000
G1 X172.492 Y102.585 F7200.000
G1 E0.80000 F2100.00000
G1 F840
G1 X173.266 Y103.176 E0.03055
G1 X173.894 Y103.590 E0.02359
G1 X174.546 Y103.966 E0.02359
G1 X175.587 Y104.476 E0.03633
G1 X159.736 Y109.250 E0.51904
G1 X160.052 Y108.446 E0.02709
G1 X160.160 Y108.075 E0.01211
G1 X160.264 Y107.517 E0.01781
G1 X172.436 Y102.607 E0.41153
G1 X172.784 Y102.311 F7200.000
G1 F5760
G1 X173.266 Y103.176 E-0.34854
G1 F5760
G1 X173.894 Y103.590 E-0.26059
G1 F5760
G1 X174.272 Y103.808 E-0.15086
G1 E-0.04000 F2100.00000
G1 X170.419 Y100.408 F7200.000
G1 E0.80000 F2100.00000
G1 F840
G1 X170.787 Y100.875 E0.01867
G1 X171.283 Y101.442 E0.02360
G1 X172.367 Y102.510 E0.04772
G1 X160.294 Y107.380 E0.40815
G1 X160.252 Y106.533 E0.02658
G1 X160.189 Y106.154 E0.01206
G1 X160.083 Y105.744 E0.01327
G1 X170.366 Y100.435 E0.36285
G1 X170.746 Y100.177 F7200.000
G1 F5760
G1 X170.787 Y100.875 E-0.21117
G1 F5760
G1 X171.283 Y101.442 E-0.26067
G1 F5760
G1 X171.875 Y102.026 E-0.28816
G1 E-0.04000 F2100.00000
G1 X168.995 Y97.970 F7200.000
G1 E0.80000 F2100.00000
G1 F840
G1 X169.517 Y99.013 E0.03656
G1 X169.903 Y99.658 E0.02356
G1 X170.350 Y100.308 E0.02474
G1 X160.057 Y105.622 E0.36318
G1 X159.798 Y105.063 E0.01931
G1 X159.605 Y104.728 E0.01214
G1 X159.250 Y104.224 E0.01931
G1 X168.944 Y98.003 E0.36115
G1 X169.342 Y97.772 F7200.000
G1 F5760
G1 X169.517 Y99.013 E-0.40222
G1 F5760
G1 X169.903 Y99.658 E-0.26026
G1 F5760
G1 X170.062 Y99.890 E-0.09752
G1 E-0.04000 F2100.00000
G1 X168.100 Y95.120 F7200.000
G1 E0.80000 F2100.00000
G1 F840
G1 X168.483 Y96.593 E0.04772
G1 X168.726 Y97.305 E0.02360
G1 X168.947 Y97.858 E0.01867
G1 X159.157 Y104.141 E0.36473
G1 X158.856 Y103.844 E0.01327
G1 X158.559 Y103.600 E0.01206
G1 X157.846 Y103.140 E0.02658
G1 X168.052 Y95.157 E0.40627
G1 X168.466 Y94.960 F7200.000
G1 F5760
G1 X168.483 Y96.593 E-0.51921
G1 F5760
G1 X168.707 Y97.250 E-0.24079
G1 E-0.04000 F2100.00000
G1 X155.948 Y102.688 F7200.000
G1 E0.80000 F2100.00000
G1 F840
G1 X168.008 Y91.348 E0.51904
G1 X167.928 Y92.504 E0.03634
G1 X167.928 Y93.257 E0.02359
G1 X167.973 Y94.008 E0.02359
G1 X168.098 Y94.974 E0.03055
G1 X157.713 Y103.098 E0.41341
G1 X157.177 Y102.908 E0.01781
G1 X156.802 Y102.817 E0.01211
G1 X156.007 Y102.697 E0.02521
G1 X155.618 Y102.461 F7200.000
G1 F5760
G1 X157.601 Y101.189 E-0.76000
G1 E-0.04000 F2100.00000
G1 X157.316 Y103.617 F7200.000
G1 E0.80000 F2100.00000
G1 F840
G1 X157.908 Y103.912 E0.02074
G1 X158.426 Y104.301 E0.02032
G1 X158.671 Y104.543 E0.01079
G1 X158.885 Y104.795 E0.01037
G1 X159.076 Y105.066 E0.01039
G1 X159.251 Y105.372 E0.01104
G1 X159.489 Y105.951 E0.01964
G1 X159.579 Y106.297 E0.01120
G1 X159.656 Y106.941 E0.02032
G1 X159.616 Y107.601 E0.02074
G1 X159.463 Y108.231 E0.02032
G1 X159.337 Y108.551 E0.01079
G1 X159.189 Y108.847 E0.01038
G1 X159.015 Y109.128 E0.01037
G1 X158.817 Y109.393 E0.01037
G1 X158.586 Y109.649 E0.01079
G1 X158.102 Y110.059 E0.01991
G1 X157.801 Y110.252 E0.01120
G1 X157.213 Y110.524 E0.02032
G1 X156.572 Y110.691 E0.02074
G1 X155.926 Y110.739 E0.02032
G1 X155.583 Y110.718 E0.01079
G1 X155.242 Y110.667 E0.01079
G1 X154.633 Y110.489 E0.01991
G1 X154.306 Y110.344 E0.01120
G1 X153.755 Y110.003 E0.02033
G1 X153.263 Y109.560 E0.02074
G1 X152.867 Y109.048 E0.02032
G1 X152.695 Y108.750 E0.01079
G1 X152.556 Y108.449 E0.01037
G1 X152.444 Y108.138 E0.01037
G1 X152.358 Y107.805 E0.01079
G1 X152.282 Y107.175 E0.01991
G1 X152.287 Y106.830 E0.01079
G1 X152.323 Y106.488 E0.01079
G1 X152.474 Y105.871 E0.01991
G1 X152.599 Y105.551 E0.01079
G1 X152.747 Y105.255 E0.01038
G1 X152.928 Y104.962 E0.01079
G1 X153.340 Y104.462 E0.02032
G1 X153.844 Y104.034 E0.02074
G1 X154.417 Y103.703 E0.02074
G1 X155.027 Y103.485 E0.02033
G1 X155.377 Y103.410 E0.01120
G1 X156.001 Y103.363 E0.01964
G1 X156.353 Y103.383 E0.01104
G1 X156.694 Y103.435 E0.01081
G1 X157.258 Y103.600 E0.01844
G1 X157.178 Y103.969 F7200.000
G1 F840
G1 X157.709 Y104.234 E0.01861
G1 X158.180 Y104.588 E0.01846
G1 X158.395 Y104.799 E0.00946
G1 X158.587 Y105.026 E0.00931
G1 X158.758 Y105.269 E0.00932
G1 X158.912 Y105.538 E0.00971
G1 X159.130 Y106.071 E0.01806
G1 X159.207 Y106.367 E0.00961
G1 X159.277 Y106.952 E0.01846
G1 X159.242 Y107.544 E0.01861
G1 X159.102 Y108.116 E0.01846
G1 X158.992 Y108.397 E0.00946
G1 X158.859 Y108.663 E0.00931
G1 X158.703 Y108.916 E0.00931
G1 X158.525 Y109.153 E0.00931
G1 X158.323 Y109.378 E0.00946
G1 X157.877 Y109.755 E0.01832
G1 X157.619 Y109.920 E0.00961
G1 X157.085 Y110.168 E0.01846
G1 X156.510 Y110.317 E0.01861
G1 X155.923 Y110.361 E0.01846
G1 X155.622 Y110.343 E0.00946
G1 X155.324 Y110.298 E0.00946
G1 X154.763 Y110.134 E0.01831
G1 X154.483 Y110.010 E0.00961
G1 X153.982 Y109.700 E0.01846
G1 X153.541 Y109.303 E0.01861
G1 X153.181 Y108.837 E0.01846
G1 X153.030 Y108.576 E0.00946
G1 X152.905 Y108.306 E0.00931
G1 X152.805 Y108.027 E0.00931
G1 X152.729 Y107.735 E0.00946
G1 X152.659 Y107.155 E0.01831
G1 X152.664 Y106.853 E0.00946
G1 X152.695 Y106.553 E0.00946
G1 X152.834 Y105.985 E0.01831
G1 X152.944 Y105.705 E0.00946
G1 X153.077 Y105.439 E0.00931
G1 X153.236 Y105.182 E0.00946
G1 X153.609 Y104.727 E0.01846
G1 X154.062 Y104.344 E0.01861
G1 X154.576 Y104.047 E0.01861
G1 X155.131 Y103.848 E0.01846
G1 X155.430 Y103.785 E0.00961
G1 X156.005 Y103.741 E0.01806
G1 X156.314 Y103.759 E0.00971
G1 X156.612 Y103.804 E0.00947
G1 X157.120 Y103.952 E0.01658
G1 X157.494 Y103.724 F7200.000
G1 F5760
G1 X157.709 Y104.234 E-0.22605
G1 F5760
G1 X158.180 Y104.588 E-0.20395
G1 F5760
G1 X158.395 Y104.799 E-0.10453
G1 F5760
G1 X158.587 Y105.026 E-0.10287
G1 F5760
G1 X158.758 Y105.269 E-0.10294
G1 F5760
G1 X158.786 Y105.318 E-0.01968
G1 E-0.04000 F2100.00000
G1 X155.938 Y103.068 F7200.000
G1 E0.80000 F2100.00000
G1 F840
G1 X156.729 Y103.187 E0.02507
G1 X157.069 Y103.270 E0.01098
G1 X157.697 Y103.492 E0.02088
G1 X158.336 Y103.905 E0.02384
G1 X158.603 Y104.124 E0.01085
G1 X158.981 Y104.497 E0.01665
G1 X159.287 Y104.931 E0.01663
G1 X159.463 Y105.237 E0.01108
G1 X159.687 Y105.719 E0.01665
G1 X159.820 Y106.232 E0.01663
G1 X159.877 Y106.574 E0.01085
G1 X159.915 Y107.333 E0.02385
G1 X159.793 Y107.988 E0.02087
G1 X159.695 Y108.324 E0.01098
G1 X159.403 Y109.068 E0.02507
G1 X159.364 Y109.080 E0.00126
G1 X159.010 Y109.552 E0.01851
G1 X158.773 Y109.815 E0.01108
G1 X158.514 Y110.055 E0.01108
G1 X158.235 Y110.271 E0.01108
G1 X157.937 Y110.461 E0.01108
G1 X157.623 Y110.624 E0.01108
G1 X157.296 Y110.758 E0.01108
G1 X156.959 Y110.862 E0.01108
G1 X156.613 Y110.936 E0.01108
G1 X156.262 Y110.978 E0.01108
G1 X155.909 Y110.989 E0.01108
G1 X155.556 Y110.967 E0.01108
G1 X155.207 Y110.915 E0.01108
G1 X154.864 Y110.831 E0.01108
G1 X154.529 Y110.717 E0.01108
G1 X154.207 Y110.573 E0.01108
G1 X153.898 Y110.401 E0.01108
G1 X153.606 Y110.202 E0.01108
G1 X153.333 Y109.978 E0.01108
G1 X153.081 Y109.730 E0.01108
G1 X152.861 Y109.469 E0.01071
G1 X152.649 Y109.170 E0.01148
G1 X152.473 Y108.865 E0.01106
G1 X152.324 Y108.544 E0.01108
G1 X152.205 Y108.212 E0.01108
G1 X152.116 Y107.870 E0.01108
G1 X152.058 Y107.521 E0.01108
G1 X152.033 Y107.181 E0.01070
G1 X152.037 Y106.815 E0.01148
G1 X152.074 Y106.464 E0.01106
G1 X152.142 Y106.117 E0.01108
G1 X152.241 Y105.778 E0.01108
G1 X152.370 Y105.449 E0.01108
G1 X152.529 Y105.133 E0.01108
G1 X152.714 Y104.833 E0.01108
G1 X152.926 Y104.550 E0.01108
G1 X153.163 Y104.287 E0.01108
G1 X153.422 Y104.047 E0.01108
G1 X153.701 Y103.831 E0.01108
G1 X153.999 Y103.641 E0.01108
G1 X154.313 Y103.478 E0.01108
G1 X154.629 Y103.348 E0.01071
G1 X154.978 Y103.239 E0.01148
G1 X155.323 Y103.166 E0.01105
G1 X155.890 Y103.098 E0.01789
G1 F5760
G1 X156.729 Y103.187 E-0.29242
G1 F5760
G1 X157.069 Y103.270 E-0.12128
G1 F5760
G1 X157.697 Y103.492 E-0.23066
G1 F5760
G1 X157.978 Y103.673 E-0.11564
G1 E-0.04000 F2100.00000
G1 X188.406 Y102.685 F7200.000
G1 E0.80000 F2100.00000
G1 F840
G1 X188.525 Y102.581 E0.00493
G1 X200.761 Y107.517 E0.41370
G1 X200.865 Y108.075 E0.01781
G1 X200.973 Y108.446 E0.01211
G1 X201.289 Y109.250 E0.02709
G1 X185.438 Y104.476 E0.51905
G1 X186.479 Y103.966 E0.03635
G1 X187.131 Y103.590 E0.02359
G1 X187.759 Y103.175 E0.02360
G1 X188.359 Y102.721 E0.02359
G1 X188.381 Y102.529 F7200.000
G1 F5760
G1 X188.525 Y102.581 E-0.07522
G1 F5760
G1 X190.358 Y103.321 E-0.68478
G1 E-0.04000 F2100.00000
G1 X190.598 Y100.403 F7200.000
G1 E0.80000 F2100.00000
G1 F840
G1 X200.943 Y105.744 E0.36503
G1 X200.836 Y106.154 E0.01327
G1 X200.773 Y106.533 E0.01206
G1 X200.731 Y107.380 E0.02658
G1 X188.659 Y102.510 E0.40815
G1 X189.742 Y101.443 E0.04767
G1 X190.563 Y100.452 E0.04037
G1 X190.812 Y100.066 F7200.000
G1 F5760
G1 X192.518 Y101.449 E-0.76000
G1 E-0.04000 F2100.00000
G1 X192.018 Y97.962 F7200.000
G1 E0.80000 F2100.00000
G1 F840
G1 X201.775 Y104.224 E0.36350
G1 X201.421 Y104.728 E0.01931
G1 X201.227 Y105.063 E0.01214
G1 X200.968 Y105.622 E0.01931
G1 X190.680 Y100.310 E0.36304
G1 X191.321 Y99.336 E0.03656
G1 X191.688 Y98.679 E0.02359
G1 X191.995 Y98.017 E0.02287
G1 X192.223 Y97.619 F7200.000
G1 F5760
G1 X193.848 Y99.193 E-0.76000
G1 E-0.04000 F2100.00000
G1 X192.926 Y95.120 F7200.000
G1 E0.80000 F2100.00000
G1 F840
G1 X203.179 Y103.140 E0.40816
G1 X202.467 Y103.600 E0.02658
G1 X202.170 Y103.844 E0.01206
G1 X201.868 Y104.141 E0.01327
G1 X192.078 Y97.858 E0.36473
G1 X192.299 Y97.305 E0.01867
G1 X192.543 Y96.593 E0.02360
G1 X192.911 Y95.178 E0.04584
G1 X193.130 Y94.776 F7200.000
G1 F5760
G1 X194.645 Y96.522 E-0.76000
G1 E-0.04000 F2100.00000
G1 X192.996 Y91.328 F7200.000
G1 E0.80000 F2100.00000
G1 F840
G1 X205.078 Y102.688 E0.51997
G1 X204.223 Y102.817 E0.02709
G1 X203.848 Y102.908 E0.01211
G1 X203.313 Y103.098 E0.01781
G1 X192.928 Y94.974 E0.41341
G1 X193.052 Y94.008 E0.03055
G1 X193.097 Y93.257 E0.02359
G1 X193.097 Y92.503 E0.02363
G1 X193.070 Y92.031 E0.01483
G1 X193.002 Y91.388 E0.02028
G1 X193.179 Y90.972 F7200.000
G1 F5760
G1 X194.604 Y92.887 E-0.76000
G1 E-0.04000 F2100.00000
G1 X202.353 Y104.542 F7200.000
G1 E0.80000 F2100.00000
G1 F840
G1 X202.834 Y104.108 E0.02033
G1 X203.119 Y103.914 E0.01079
G1 X203.408 Y103.753 E0.01037
G1 X203.710 Y103.618 E0.01038
G1 X204.023 Y103.511 E0.01038
G1 X204.357 Y103.430 E0.01078
G1 X204.980 Y103.364 E0.01964
G1 X205.332 Y103.374 E0.01104
G1 X205.661 Y103.413 E0.01039
G1 X205.985 Y103.482 E0.01038
G1 X206.301 Y103.579 E0.01038
G1 X206.607 Y103.705 E0.01038
G1 X206.913 Y103.864 E0.01079
G1 X207.443 Y104.237 E0.02032
G1 X207.907 Y104.708 E0.02074
G1 X208.272 Y105.243 E0.02032
G1 X208.426 Y105.552 E0.01081
G1 X208.554 Y105.880 E0.01104
G1 X208.702 Y106.488 E0.01964
G1 X208.740 Y106.844 E0.01120
G1 X208.721 Y107.478 E0.01991
G1 X208.664 Y107.818 E0.01079
G1 X208.581 Y108.138 E0.01038
G1 X208.469 Y108.450 E0.01040
G1 X208.320 Y108.769 E0.01104
G1 X207.983 Y109.297 E0.01964
G1 X207.752 Y109.569 E0.01120
G1 X207.270 Y110.003 E0.02032
G1 X206.719 Y110.344 E0.02032
G1 X206.392 Y110.489 E0.01120
G1 X205.783 Y110.667 E0.01991
G1 X205.443 Y110.718 E0.01079
G1 X205.099 Y110.739 E0.01079
G1 X204.453 Y110.691 E0.02032
G1 X203.813 Y110.524 E0.02074
G1 X203.213 Y110.246 E0.02074
G1 X202.672 Y109.865 E0.02074
G1 X202.207 Y109.394 E0.02074
G1 X201.835 Y108.848 E0.02074
G1 X201.571 Y108.256 E0.02032
G1 X201.475 Y107.925 E0.01079
G1 X201.411 Y107.601 E0.01038
G1 X201.376 Y107.271 E0.01038
G1 X201.371 Y106.941 E0.01037
G1 X201.396 Y106.611 E0.01037
G1 X201.450 Y106.284 E0.01040
G1 X201.540 Y105.943 E0.01104
G1 X201.778 Y105.363 E0.01964
G1 X201.956 Y105.054 E0.01120
G1 X202.316 Y104.589 E0.01844
G1 X202.630 Y104.799 F7200.000
G1 F840
G1 X203.068 Y104.405 E0.01846
G1 X203.317 Y104.235 E0.00946
G1 X203.577 Y104.090 E0.00931
G1 X203.848 Y103.970 E0.00931
G1 X204.129 Y103.874 E0.00932
G1 X204.422 Y103.802 E0.00946
G1 X204.995 Y103.742 E0.01806
G1 X205.304 Y103.750 E0.00971
G1 X205.600 Y103.785 E0.00932
G1 X205.890 Y103.847 E0.00931
G1 X206.174 Y103.935 E0.00931
G1 X206.449 Y104.047 E0.00931
G1 X206.717 Y104.186 E0.00946
G1 X207.198 Y104.525 E0.01846
G1 X207.615 Y104.948 E0.01861
G1 X207.946 Y105.435 E0.01846
G1 X208.081 Y105.705 E0.00947
G1 X208.194 Y105.993 E0.00971
G1 X208.330 Y106.553 E0.01806
G1 X208.362 Y106.858 E0.00961
G1 X208.345 Y107.442 E0.01832
G1 X208.295 Y107.739 E0.00946
G1 X208.220 Y108.027 E0.00931
G1 X208.120 Y108.307 E0.00932
G1 X207.989 Y108.587 E0.00971
G1 X207.679 Y109.072 E0.01806
G1 X207.481 Y109.306 E0.00961
G1 X207.043 Y109.700 E0.01846
G1 X206.542 Y110.010 E0.01846
G1 X206.262 Y110.134 E0.00961
G1 X205.702 Y110.298 E0.01831
G1 X205.403 Y110.343 E0.00946
G1 X205.102 Y110.361 E0.00946
G1 X204.515 Y110.317 E0.01846
G1 X203.940 Y110.168 E0.01861
G1 X203.402 Y109.918 E0.01861
G1 X202.916 Y109.577 E0.01861
G1 X202.500 Y109.154 E0.01861
G1 X202.166 Y108.663 E0.01861
G1 X201.926 Y108.125 E0.01846
G1 X201.841 Y107.836 E0.00946
G1 X201.784 Y107.544 E0.00931
G1 X201.753 Y107.249 E0.00931
G1 X201.749 Y106.952 E0.00931
G1 X201.771 Y106.656 E0.00931
G1 X201.819 Y106.363 E0.00932
