; generated by Slic3r 1.33.8-prusa3d-win64 on 2017-04-04 at 22:47:46

; external perimeters extrusion width = 0.45mm
; perimeters extrusion width = 0.45mm
; infill extrusion width = 0.45mm
; solid infill extrusion width = 0.45mm
; top infill extrusion width = 0.45mm

M107
M115 U3.0.10 ; tell printer latest fw version
M83  ; extruder relative mode
M104 S215 ; set extruder temp
M140 S55 ; set bed temp
M190 S55 ; wait for bed temp
M109 S215 ; wait for extruder temp
G28 W ; home all without mesh bed level
G80 ; mesh bed leveling
G1 Y-3.0 F1000.0 ; go outside pritn area
G1 X60.0 E9.0  F1000.0 ; intro line
G1 X100.0 E12.5  F1000.0 ; intro line
G21 ; set units to millimeters
G90 ; use absolute coordinates
M83 ; use relative distances for extrusion
G1 E-0.80000 F2100.00000
G1 Z0.200 F7200.000
G1 X105.567 Y102.533 F7200.000
G1 E0.80000 F2100.00000
M204 S1000
G1 F1871.555
G1 X105.923 Y102.186 E0.01561
G1 X106.425 Y101.744 E0.02096
G1 X106.957 Y101.331 E0.02110
G1 X107.379 Y101.038 E0.01613
G1 X107.930 Y100.696 E0.02033
G1 X108.384 Y100.446 E0.01625
G1 X108.987 Y100.156 E0.02098
G1 X109.606 Y99.902 E0.02097
G1 X110.095 Y99.732 E0.01625
G1 X110.738 Y99.546 E0.02097
G1 X111.223 Y99.433 E0.01562
G1 X111.877 Y99.315 E0.02084
G1 X112.372 Y99.254 E0.01562
G1 X113.038 Y99.206 E0.02096
G1 X113.707 Y99.198 E0.02098
G1 X114.209 Y99.218 E0.01574
G1 X115.097 Y99.311 E0.02800
G1 X115.812 Y99.438 E0.02277
G1 X137.328 Y104.143 E0.69057
G1 X137.789 Y104.252 E0.01485
G1 X138.408 Y104.432 E0.02020
G1 X139.307 Y104.765 E0.03005
G1 X139.754 Y104.965 E0.01537
G1 X140.346 Y105.267 E0.02083
G1 X140.773 Y105.515 E0.01548
G1 X141.313 Y105.865 E0.02020
G1 X142.097 Y106.460 E0.03083
G1 X142.583 Y106.889 E0.02033
G1 X142.931 Y107.228 E0.01523
G1 X143.268 Y107.588 E0.01548
G1 X143.687 Y108.083 E0.02033
G1 X144.263 Y108.876 E0.03071
G1 X144.604 Y109.427 E0.02033
G1 X144.841 Y109.856 E0.01535
G1 X145.058 Y110.294 E0.01534
G1 X145.314 Y110.886 E0.02021
G1 X145.637 Y111.814 E0.03083
G1 X145.804 Y112.436 E0.02020
G1 X145.907 Y112.919 E0.01548
G1 X145.989 Y113.402 E0.01537
G1 X146.063 Y114.046 E0.02032
G1 X146.104 Y115.025 E0.03070
G1 X146.084 Y115.673 E0.02033
G1 X146.043 Y116.160 E0.01534
G1 X145.981 Y116.646 E0.01536
G1 X145.866 Y117.285 E0.02033
G1 X145.623 Y118.233 E0.03069
G1 X145.416 Y118.848 E0.02034
G1 X145.235 Y119.307 E0.01548
G1 X144.854 Y120.119 E0.02813
G1 X144.500 Y120.749 E0.02264
G1 X144.104 Y121.357 E0.02277
G1 X143.574 Y122.056 E0.02749
G1 X143.095 Y122.601 E0.02277
G1 X142.583 Y123.111 E0.02264
G1 X141.917 Y123.687 E0.02762
G1 X141.334 Y124.120 E0.02277
G1 X140.727 Y124.513 E0.02265
G1 X139.941 Y124.944 E0.02812
G1 X139.281 Y125.246 E0.02277
G1 X138.455 Y125.553 E0.02762
G1 X137.762 Y125.755 E0.02264
G1 X137.053 Y125.913 E0.02277
G1 X136.185 Y126.041 E0.02749
G1 X135.445 Y126.095 E0.02328
G1 X134.764 Y126.102 E0.02136
G1 X134.067 Y126.065 E0.02187
G1 X133.378 Y125.985 E0.02175
G1 X132.691 Y125.862 E0.02187
G1 X110.988 Y121.115 E0.69658
G1 X110.076 Y120.862 E0.02967
G1 X109.197 Y120.535 E0.02941
G1 X108.566 Y120.246 E0.02175
G1 X107.955 Y119.919 E0.02174
G1 X107.362 Y119.551 E0.02187
G1 X106.813 Y119.162 E0.02110
G1 X106.403 Y118.837 E0.01639
G1 X105.884 Y118.378 E0.02173
G1 X105.406 Y117.898 E0.02123
G1 X104.945 Y117.375 E0.02187
G1 X104.520 Y116.827 E0.02174
G1 X104.130 Y116.253 E0.02176
G1 X103.775 Y115.653 E0.02186
G1 X103.467 Y115.050 E0.02123
G1 X103.190 Y114.414 E0.02176
G1 X103.008 Y113.924 E0.01638
G1 X102.807 Y113.282 E0.02109
G1 X102.638 Y112.589 E0.02239
G1 X102.518 Y111.922 E0.02124
G1 X102.438 Y111.229 E0.02187
G1 X102.402 Y110.537 E0.02174
G1 X102.408 Y109.860 E0.02123
G1 X102.459 Y109.148 E0.02238
G1 X102.550 Y108.477 E0.02123
G1 X102.648 Y107.963 E0.01640
G1 X102.815 Y107.290 E0.02175
G1 X103.018 Y106.644 E0.02122
G1 X103.268 Y105.993 E0.02187
G1 X103.557 Y105.362 E0.02175
G1 X103.885 Y104.751 E0.02174
G1 X104.255 Y104.155 E0.02201
G1 X104.654 Y103.593 E0.02162
G1 X105.093 Y103.050 E0.02187
G1 X105.526 Y102.577 E0.02012
G1 X105.798 Y102.838 F7200.000
G1 F1871.555
G1 X106.173 Y102.469 E0.01650
G1 X106.658 Y102.041 E0.02029
G1 X107.037 Y101.741 E0.01516
G1 X107.562 Y101.368 E0.02018
G1 X107.968 Y101.112 E0.01505
G1 X108.535 Y100.793 E0.02040
G1 X109.121 Y100.509 E0.02042
G1 X109.574 Y100.319 E0.01540
G1 X110.169 Y100.104 E0.01982
G1 X110.647 Y99.960 E0.01567
G1 X111.275 Y99.807 E0.02026
G1 X111.916 Y99.691 E0.02042
G1 X112.403 Y99.630 E0.01540
G1 X113.052 Y99.582 E0.02041
G1 X113.703 Y99.575 E0.02042
G1 X114.190 Y99.595 E0.01529
G1 X115.046 Y99.684 E0.02697
G1 X115.736 Y99.808 E0.02196
G1 X137.248 Y104.511 E0.69043
G1 X137.692 Y104.616 E0.01431
G1 X138.291 Y104.790 E0.01957
G1 X139.151 Y105.109 E0.02876
G1 X139.586 Y105.303 E0.01492
G1 X140.146 Y105.588 E0.01970
G1 X140.954 Y106.077 E0.02960
G1 X141.466 Y106.441 E0.01970
G1 X141.836 Y106.733 E0.01480
G1 X142.193 Y107.042 E0.01481
G1 X142.647 Y107.477 E0.01970
G1 X143.279 Y108.178 E0.02960
G1 X143.664 Y108.675 E0.01971
G1 X143.934 Y109.062 E0.01481
G1 X144.186 Y109.461 E0.01480
G1 X144.497 Y110.012 E0.01982
G1 X144.898 Y110.866 E0.02960
G1 X145.122 Y111.449 E0.01957
G1 X145.269 Y111.898 E0.01481
G1 X145.395 Y112.353 E0.01481
G1 X145.533 Y112.969 E0.01981
G1 X145.670 Y113.900 E0.02949
G1 X145.717 Y114.530 E0.01981
G1 X145.727 Y115.002 E0.01481
G1 X145.716 Y115.474 E0.01481
G1 X145.670 Y116.100 E0.01968
G1 X145.532 Y117.035 E0.02961
G1 X145.395 Y117.647 E0.01969
G1 X145.269 Y118.102 E0.01480
G1 X145.122 Y118.551 E0.01481
G1 X144.891 Y119.152 E0.02017
G1 X144.597 Y119.792 E0.02209
G1 X144.177 Y120.555 E0.02733
G1 X143.797 Y121.139 E0.02184
G1 X143.281 Y121.818 E0.02674
G1 X142.821 Y122.342 E0.02185
G1 X142.325 Y122.837 E0.02198
G1 X141.679 Y123.394 E0.02673
G1 X141.105 Y123.820 E0.02244
G1 X140.382 Y124.279 E0.02686
G1 X139.768 Y124.609 E0.02185
G1 X139.134 Y124.898 E0.02185
G1 X138.317 Y125.201 E0.02733
G1 X137.644 Y125.396 E0.02197
G1 X136.791 Y125.577 E0.02733
G1 X136.101 Y125.670 E0.02185
G1 X135.246 Y125.724 E0.02686
G1 X134.746 Y125.724 E0.01567
G1 X134.082 Y125.688 E0.02086
G1 X133.431 Y125.612 E0.02054
G1 X132.768 Y125.492 E0.02113
G1 X111.071 Y120.747 E0.69638
G1 X110.190 Y120.503 E0.02865
G1 X109.355 Y120.193 E0.02793
G1 X108.739 Y119.911 E0.02125
G1 X108.162 Y119.602 E0.02053
G1 X107.735 Y119.344 E0.01565
G1 X107.178 Y118.964 E0.02112
G1 X106.664 Y118.564 E0.02041
G1 X106.159 Y118.118 E0.02113
G1 X105.685 Y117.645 E0.02101
G1 X105.239 Y117.139 E0.02113
G1 X104.826 Y116.607 E0.02113
G1 X104.447 Y116.049 E0.02114
G1 X104.104 Y115.470 E0.02112
G1 X103.808 Y114.890 E0.02041
G1 X103.605 Y114.434 E0.01565
G1 X103.366 Y113.808 E0.02101
G1 X103.171 Y113.183 E0.02053
G1 X103.009 Y112.521 E0.02137
G1 X102.891 Y111.865 E0.02090
G1 X102.814 Y111.199 E0.02100
G1 X102.779 Y110.527 E0.02113
G1 X102.785 Y109.872 E0.02053
G1 X102.833 Y109.203 E0.02101
G1 X102.895 Y108.708 E0.01565
G1 X103.011 Y108.068 E0.02041
G1 X103.175 Y107.402 E0.02150
G1 X103.374 Y106.770 E0.02076
G1 X103.614 Y106.145 E0.02101
G1 X103.894 Y105.532 E0.02114
G1 X104.207 Y104.948 E0.02077
G1 X104.566 Y104.368 E0.02138
G1 X104.951 Y103.825 E0.02089
G1 X105.375 Y103.300 E0.02113
G1 X105.756 Y102.881 E0.01778
G1 F5760
G1 X106.173 Y102.469 E-0.20302
G1 F5760
G1 X106.658 Y102.041 E-0.22415
G1 F5760
G1 X107.037 Y101.741 E-0.16744
G1 F5760
G1 X107.427 Y101.464 E-0.16538
G1 E-0.04000 F2100.00000
G1 X111.363 Y108.114 F7200.000
G1 E0.80000 F2100.00000
G1 F900.000
G1 X111.607 Y107.899 E0.01019
G1 X111.808 Y107.753 E0.00780
G1 X112.086 Y107.589 E0.01012
G1 X112.377 Y107.455 E0.01005
G1 X112.685 Y107.351 E0.01020
G1 X112.925 Y107.295 E0.00772
G1 X113.252 Y107.250 E0.01035
G1 X113.501 Y107.240 E0.00780
G1 X113.823 Y107.257 E0.01012
G1 X114.145 Y107.308 E0.01020
G1 X114.383 Y107.369 E0.00772
G1 X114.689 Y107.479 E0.01020
G1 X114.977 Y107.619 E0.01004
G1 X115.254 Y107.790 E0.01020
G1 X115.450 Y107.939 E0.00772
G1 X115.689 Y108.159 E0.01020
G1 X115.903 Y108.401 E0.01012
G1 X116.049 Y108.603 E0.00781
G1 X116.216 Y108.885 E0.01027
G1 X116.322 Y109.110 E0.00780
G1 X116.432 Y109.416 E0.01019
G1 X116.510 Y109.732 E0.01020
G1 X116.546 Y109.975 E0.00772
G1 X116.563 Y110.300 E0.01020
G1 X116.546 Y110.625 E0.01020
G1 X116.510 Y110.868 E0.00772
G1 X116.432 Y111.184 E0.01020
G1 X116.323 Y111.488 E0.01012
G1 X116.217 Y111.713 E0.00780
G1 X116.049 Y111.997 E0.01035
G1 X115.905 Y112.197 E0.00772
G1 X115.689 Y112.441 E0.01020
G1 X115.450 Y112.661 E0.01020
G1 X115.254 Y112.810 E0.00772
G1 X114.977 Y112.981 E0.01020
G1 X114.689 Y113.120 E0.01004
G1 X114.388 Y113.229 E0.01004
G1 X114.072 Y113.306 E0.01020
G1 X113.828 Y113.342 E0.00772
G1 X113.503 Y113.359 E0.01020
G1 X113.179 Y113.342 E0.01020
G1 X112.935 Y113.306 E0.00772
G1 X112.619 Y113.229 E0.01020
G1 X112.313 Y113.119 E0.01019
G1 X112.088 Y113.013 E0.00780
G1 X111.806 Y112.846 E0.01027
G1 X111.605 Y112.699 E0.00781
G1 X111.363 Y112.486 E0.01012
G1 X111.144 Y112.248 E0.01012
G1 X110.994 Y112.050 E0.00780
G1 X110.822 Y111.774 E0.01019
G1 X110.683 Y111.486 E0.01004
G1 X110.574 Y111.184 E0.01005
G1 X110.497 Y110.871 E0.01012
G1 X110.461 Y110.625 E0.00780
G1 X110.444 Y110.300 E0.01020
G1 X110.461 Y109.978 E0.01012
G1 X110.497 Y109.731 E0.00780
G1 X110.575 Y109.416 E0.01019
G1 X110.683 Y109.114 E0.01004
G1 X110.822 Y108.826 E0.01005
G1 X110.992 Y108.552 E0.01012
G1 X111.322 Y108.158 E0.01610
G1 X111.099 Y107.844 F7200.000
G1 F900.000
G1 X111.371 Y107.604 E0.01137
G1 X111.601 Y107.437 E0.00892
G1 X111.911 Y107.254 E0.01129
G1 X112.238 Y107.104 E0.01128
G1 X112.582 Y106.988 E0.01138
G1 X112.856 Y106.924 E0.00883
G1 X113.219 Y106.874 E0.01147
G1 X113.503 Y106.863 E0.00892
G1 X113.863 Y106.882 E0.01129
G1 X114.221 Y106.938 E0.01138
G1 X114.494 Y107.008 E0.00883
G1 X114.835 Y107.131 E0.01138
G1 X115.159 Y107.288 E0.01128
G1 X115.468 Y107.479 E0.01138
G1 X115.692 Y107.649 E0.00883
G1 X115.959 Y107.895 E0.01138
G1 X116.197 Y108.165 E0.01129
G1 X116.365 Y108.395 E0.00892
G1 X116.550 Y108.708 E0.01139
G1 X116.671 Y108.965 E0.00892
G1 X116.794 Y109.306 E0.01137
G1 X116.880 Y109.659 E0.01138
G1 X116.922 Y109.938 E0.00883
G1 X116.941 Y110.300 E0.01138
G1 X116.922 Y110.662 E0.01138
G1 X116.880 Y110.941 E0.00883
G1 X116.794 Y111.293 E0.01138
G1 X116.672 Y111.632 E0.01129
G1 X116.551 Y111.890 E0.00892
G1 X116.365 Y112.205 E0.01147
G1 X116.199 Y112.433 E0.00883
G1 X115.959 Y112.705 E0.01138
G1 X115.692 Y112.950 E0.01138
G1 X115.468 Y113.121 E0.00883
G1 X115.159 Y113.312 E0.01138
G1 X114.835 Y113.468 E0.01128
G1 X114.497 Y113.590 E0.01128
G1 X114.145 Y113.677 E0.01138
G1 X113.866 Y113.718 E0.00883
G1 X113.503 Y113.737 E0.01138
G1 X113.141 Y113.718 E0.01138
G1 X112.862 Y113.677 E0.00883
G1 X112.510 Y113.590 E0.01138
G1 X112.169 Y113.467 E0.01137
G1 X111.911 Y113.346 E0.00892
G1 X111.599 Y113.161 E0.01139
G1 X111.369 Y112.994 E0.00892
G1 X111.099 Y112.756 E0.01130
G1 X110.855 Y112.491 E0.01130
G1 X110.683 Y112.264 E0.00892
G1 X110.491 Y111.956 E0.01137
G1 X110.335 Y111.632 E0.01128
G1 X110.213 Y111.293 E0.01128
G1 X110.127 Y110.944 E0.01129
G1 X110.085 Y110.662 E0.00892
G1 X110.066 Y110.300 E0.01138
G1 X110.085 Y109.940 E0.01129
G1 X110.126 Y109.659 E0.00892
G1 X110.213 Y109.306 E0.01137
G1 X110.335 Y108.968 E0.01128
G1 X110.492 Y108.644 E0.01128
G1 X110.681 Y108.338 E0.01129
G1 X110.853 Y108.111 E0.00892
G1 X111.058 Y107.888 E0.00949
G1 X110.834 Y107.574 F7200.000
G1 F900.000
G1 X111.135 Y107.310 E0.01255
G1 X111.394 Y107.122 E0.01004
G1 X111.736 Y106.919 E0.01247
G1 X112.099 Y106.753 E0.01252
G1 X112.479 Y106.625 E0.01255
G1 X112.788 Y106.553 E0.00995
G1 X113.185 Y106.498 E0.01259
G1 X113.505 Y106.485 E0.01004
G1 X113.902 Y106.506 E0.01247
G1 X114.298 Y106.569 E0.01256
G1 X114.605 Y106.648 E0.00995
G1 X114.982 Y106.783 E0.01255
G1 X115.341 Y106.957 E0.01252
G1 X115.681 Y107.168 E0.01255
G1 X115.934 Y107.360 E0.00995
G1 X116.229 Y107.631 E0.01256
G1 X116.492 Y107.929 E0.01247
G1 X116.680 Y108.188 E0.01004
G1 X116.883 Y108.531 E0.01250
G1 X117.020 Y108.821 E0.01004
G1 X117.155 Y109.197 E0.01255
G1 X117.251 Y109.586 E0.01255
G1 X117.297 Y109.900 E0.00995
G1 X117.318 Y110.300 E0.01255
G1 X117.297 Y110.700 E0.01255
G1 X117.251 Y111.014 E0.00995
G1 X117.155 Y111.403 E0.01255
G1 X117.021 Y111.777 E0.01247
G1 X116.885 Y112.066 E0.01004
G1 X116.680 Y112.412 E0.01259
G1 X116.494 Y112.669 E0.00995
G1 X116.229 Y112.969 E0.01255
G1 X115.934 Y113.240 E0.01255
G1 X115.681 Y113.432 E0.00995
G1 X115.341 Y113.643 E0.01255
G1 X114.982 Y113.817 E0.01252
G1 X114.606 Y113.952 E0.01252
G1 X114.217 Y114.047 E0.01255
G1 X113.903 Y114.094 E0.00995
G1 X113.503 Y114.115 E0.01255
G1 X113.104 Y114.094 E0.01255
G1 X112.790 Y114.047 E0.00995
G1 X112.401 Y113.952 E0.01255
G1 X112.024 Y113.816 E0.01255
G1 X111.735 Y113.680 E0.01004
G1 X111.392 Y113.477 E0.01250
G1 X111.133 Y113.288 E0.01004
G1 X110.834 Y113.025 E0.01247
G1 X110.565 Y112.733 E0.01247
G1 X110.372 Y112.478 E0.01004
G1 X110.161 Y112.138 E0.01255
G1 X109.987 Y111.778 E0.01252
G1 X109.852 Y111.402 E0.01252
G1 X109.757 Y111.016 E0.01247
G1 X109.710 Y110.700 E0.01004
G1 X109.689 Y110.300 E0.01255
G1 X109.709 Y109.903 E0.01247
G1 X109.756 Y109.586 E0.01004
G1 X109.852 Y109.197 E0.01255
G1 X109.987 Y108.822 E0.01252
G1 X110.161 Y108.462 E0.01252
G1 X110.370 Y108.124 E0.01247
G1 X110.563 Y107.869 E0.01004
G1 X110.794 Y107.619 E0.01067
G1 X111.219 Y107.683 F7200.000
G1 F5760
G1 X111.135 Y107.310 E-0.15935
G1 F5760
G1 X111.394 Y107.122 E-0.11086
G1 F5760
G1 X111.736 Y106.919 E-0.13772
G1 F5760
G1 X112.099 Y106.753 E-0.13831
G1 F5760
G1 X112.479 Y106.625 E-0.13868
G1 F5760
G1 X112.690 Y106.576 E-0.07509
G1 E-0.04000 F2100.00000
G1 X110.593 Y110.744 F7200.000
G1 E0.80000 F2100.00000
G1 F1497.244
G1 X112.841 Y112.992 E0.10451
G1 X113.207 Y113.061 E0.01223
G1 X113.483 Y113.075 E0.00910
G1 X110.728 Y110.320 E0.12808
G1 X110.772 Y109.805 E0.01700
G1 X113.999 Y113.031 E0.15000
G1 X114.017 Y113.029 E0.00062
G1 X114.437 Y112.911 E0.01433
G1 X110.893 Y109.367 E0.16476
G1 X111.063 Y108.978 E0.01395
G1 X114.826 Y112.740 E0.17491
G1 X115.166 Y112.521 E0.01330
G1 X111.282 Y108.638 E0.18055
G1 X111.541 Y108.338 E0.01303
G1 X115.466 Y112.262 E0.18244
G1 X115.725 Y111.962 E0.01303
G1 X111.841 Y108.078 E0.18056
G1 X112.182 Y107.860 E0.01331
G1 X115.943 Y111.621 E0.17485
G1 X116.114 Y111.233 E0.01394
G1 X112.570 Y107.689 E0.16478
G1 X113.009 Y107.569 E0.01497
G1 X116.235 Y110.795 E0.14997
G1 X116.279 Y110.280 E0.01700
G1 X113.523 Y107.525 E0.12809
G1 X113.793 Y107.539 E0.00889
G1 X114.163 Y107.605 E0.01233
G1 X116.414 Y109.856 E0.10467
G1 X116.171 Y109.054 F7200.000
G1 F1497.244
G1 X114.753 Y107.636 E0.06591
G1 F5760
G1 X116.171 Y109.054 E-0.69450
G1 E-0.10550 F2100.00000
G1 X110.840 Y111.550 F7200.000
G1 E0.80000 F2100.00000
G1 F1497.244
G1 X112.257 Y112.967 E0.06590
G1 F5760
G1 X110.840 Y111.550 E-0.69430
G1 E-0.10570 F2100.00000
G1 X131.940 Y115.000 F7200.000
G1 E0.80000 F2100.00000
G1 F900.000
G1 X131.957 Y114.678 E0.01012
G1 X131.994 Y114.431 E0.00780
G1 X132.071 Y114.116 E0.01019
G1 X132.180 Y113.814 E0.01004
G1 X132.319 Y113.526 E0.01005
G1 X132.489 Y113.252 E0.01012
G1 X132.639 Y113.053 E0.00780
G1 X132.859 Y112.814 E0.01019
G1 X133.103 Y112.599 E0.01019
G1 X133.305 Y112.453 E0.00780
G1 X133.582 Y112.289 E0.01012
G1 X133.874 Y112.155 E0.01005
G1 X134.182 Y112.052 E0.01020
G1 X134.422 Y111.995 E0.00772
G1 X134.749 Y111.951 E0.01035
G1 X134.997 Y111.940 E0.00780
G1 X135.320 Y111.957 E0.01012
G1 X135.641 Y112.008 E0.01020
G1 X135.880 Y112.069 E0.00772
G1 X136.186 Y112.180 E0.01020
G1 X136.474 Y112.319 E0.01004
G1 X136.750 Y112.490 E0.01020
G1 X136.946 Y112.639 E0.00772
