; generated by PrusaSlicer 2.4.0+win64 on 2022-03-12 at 09:42:30 UTC

; 

; external perimeters extrusion width = 0.45mm
; perimeters extrusion width = 0.45mm
; infill extrusion width = 0.45mm
; solid infill extrusion width = 0.45mm
; top infill extrusion width = 0.40mm
; first layer extrusion width = 0.42mm

M73 P0 R75
M201 X9000 Y9000 Z500 E10000 ; sets maximum accelerations, mm/sec^2
M203 X500 Y500 Z12 E120 ; sets maximum feedrates, mm/sec
M204 P2000 R1500 T2000 ; sets acceleration (P, T) and retract acceleration (R), mm/sec^2
M205 X10.00 Y10.00 Z0.20 E2.50 ; sets the jerk limits, mm/sec
M205 S0 T0 ; sets the minimum extruding and travel feed rate, mm/sec
M107
;TYPE:Custom
M862.3 P "MK2S" ; printer model check
M862.1 P0.4 ; nozzle diameter check
M115 U3.2.3 ; tell printer latest fw version
G90 ; use absolute coordinates
M83 ; extruder relative mode
M204 S2000 T1500 ; MK2 firmware only supports the old M204 format
M104 S215 ; set extruder temp
M140 S60 ; set bed temp
M190 S60 ; wait for bed temp
M109 S215 ; wait for extruder temp
G28 W ; home all without mesh bed level
G80 ; mesh bed leveling
G1 Y-3.0 F1000.0 ; go outside print area
G92 E0.0
G1 X60.0 E9.0  F1000.0 ; intro line
G1 X100.0 E12.5 F1000.0 ; intro line
G92 E0.0
G21 ; set units to millimeters
G90 ; use absolute coordinates
M83 ; use relative distances for extrusion
M900 K0.05 ; Filament gcode LA 1.5
M900 K30 ; Filament gcode LA 1.0
M107
;LAYER_CHANGE
;Z:0.2
;HEIGHT:0.2
;BEFORE_LAYER_CHANGE
G92 E0.0
;0.2


G1 E-.8 F2100
G1 Z.4 F10800
;AFTER_LAYER_CHANGE
;0.2
G1 X93.497 Y95.3
G1 Z.2
G1 E.8 F2100
M204 S1000
;TYPE:Skirt/Brim
;WIDTH:0.42
G1 F1200
G1 X94.103 Y94.762 E.02542
G1 X94.906 Y94.341 E.02841
G1 X95.505 Y94.181 E.01946
G1 X96.1 Y94.123 E.01874
G1 X154.21 Y94.143 E1.82201
G1 X155.36 Y94.451 E.03731
G1 X155.897 Y94.761 E.01946
G1 X156.503 Y95.3 E.02542
G1 X165.408 Y105.978 E.43594
G1 X165.96 Y107.5 E.05077
G1 X165.96 Y113.5 E.18813
G1 X165.568 Y114.807 E.04278
G1 X164.522 Y115.683 E.04278
G1 X163.582 Y115.877 E.03008
G1 X86.418 Y115.877 E2.41945
G1 X85.11 Y115.485 E.04278
G1 X84.234 Y114.44 E.04278
G1 X84.04 Y113.5 E.03008
G1 X84.04 Y107.5 E.18813
G1 X84.592 Y105.978 E.05077
G1 X93.458 Y95.346 E.43405
; printing object cable_holder_5fach.stl id:0 copy 0
;WIPE_START
G1 F8640
G1 X94.103 Y94.762 E-.20092
G1 X94.906 Y94.341 E-.2092
G1 X95.505 Y94.181 E-.14329
G1 X96.1 Y94.123 E-.13803
G1 X96.397 Y94.123 E-.06857
;WIPE_END
G1 E-.04 F2100
G1 Z.6 F10800
G1 X102.236 Y108.287
G1 Z.2
G1 E.8 F2100
;TYPE:Perimeter
G1 F1200
G1 X107.787 Y108.287 E.17406
G1 X107.787 Y97.652 E.33347
G1 X107.804 Y97.521 E.00414
G1 X107.835 Y97.447 E.00251
G1 X107.884 Y97.384 E.00251
G1 X108.021 Y97.304 E.00497
G1 X108.348 Y97.287 E.01029
G1 X108.479 Y97.304 E.00414
G1 X108.553 Y97.335 E.00251
G1 X108.665 Y97.447 E.00497
G1 X108.696 Y97.521 E.00251
G1 X108.713 Y97.652 E.00414
G1 X108.713 Y101.93 E.13415
G1 X108.541 Y102.178 E.00945
G1 X108.304 Y102.771 E.02004
G1 X108.209 Y103.403 E.02004
G1 X108.26 Y104.04 E.02004
G1 X108.455 Y104.649 E.02004
G1 X108.783 Y105.197 E.02004
G1 X109.227 Y105.657 E.02004
G1 X109.764 Y106.004 E.02004
G1 X110.365 Y106.219 E.02004
G1 X111 Y106.292 E.02004
G1 X111.635 Y106.219 E.02004
G1 X112.236 Y106.004 E.02004
G1 X112.773 Y105.657 E.02004
G1 X113.217 Y105.197 E.02004
G1 X113.545 Y104.649 E.02004
G1 X113.74 Y104.04 E.02004
G1 X113.791 Y103.403 E.02004
G1 X113.696 Y102.771 E.02004
G1 X113.459 Y102.178 E.02004
G1 X113.287 Y101.93 E.00945
G1 X113.287 Y97.652 E.13415
G1 X113.304 Y97.521 E.00414
G1 X113.335 Y97.447 E.00251
G1 X113.447 Y97.335 E.00497
G1 X113.521 Y97.304 E.00251
G1 X113.652 Y97.287 E.00414
G1 X113.979 Y97.304 E.01029
G1 X114.116 Y97.384 E.00497
G1 X114.165 Y97.447 E.00251
G1 X114.196 Y97.521 E.00251
G1 X114.213 Y97.652 E.00414
G1 X114.213 Y108.287 E.33347
G1 X119.787 Y108.287 E.17477
G1 X119.787 Y97.652 E.33347
G1 X119.804 Y97.521 E.00414
G1 X119.835 Y97.447 E.00251
G1 X119.947 Y97.335 E.00497
G1 X120.021 Y97.304 E.00251
G1 X120.152 Y97.287 E.00414
G1 X120.648 Y97.287 E.01558
G1 X120.779 Y97.304 E.00414
G1 X120.916 Y97.384 E.00497
G1 X120.996 Y97.521 E.00497
G1 X121.013 Y97.652 E.00414
G1 X121.013 Y101.371 E.11663
G1 X120.811 Y101.601 E.00959
G1 X120.477 Y102.198 E.02144
G1 X120.273 Y102.851 E.02144
G1 X120.209 Y103.532 E.02144
G1 X120.286 Y104.211 E.02144
G1 X120.503 Y104.86 E.02144
G1 X120.848 Y105.45 E.02144
G1 X121.309 Y105.956 E.02144
G1 X121.863 Y106.356 E.02144
G1 X122.489 Y106.632 E.02144
G1 X123.158 Y106.774 E.02144
G1 X123.842 Y106.774 E.02144
G1 X124.511 Y106.632 E.02144
G1 X125.137 Y106.356 E.02144
G1 X125.691 Y105.956 E.02144
G1 X126.152 Y105.45 E.02144
G1 X126.497 Y104.86 E.02144
G1 X126.714 Y104.211 E.02144
G1 X126.791 Y103.532 E.02144
G1 X126.727 Y102.851 E.02144
G1 X126.523 Y102.198 E.02144
G1 X126.189 Y101.601 E.02144
G1 X125.987 Y101.371 E.00959
G1 X125.987 Y97.652 E.11663
G1 X126.004 Y97.521 E.00414
G1 X126.035 Y97.447 E.00251
G1 X126.084 Y97.384 E.00251
G1 X126.221 Y97.304 E.00497
G1 X126.352 Y97.287 E.00414
G1 X126.848 Y97.287 E.01558
G1 X126.979 Y97.304 E.00414
G1 X127.053 Y97.335 E.00251
G1 X127.165 Y97.447 E.00497
G1 X127.196 Y97.521 E.00251
G1 X127.213 Y97.652 E.00414
G1 X127.213 Y108.287 E.33347
G1 X132.787 Y108.287 E.17477
G1 X132.787 Y97.652 E.33347
G1 X132.804 Y97.521 E.00414
G1 X132.835 Y97.447 E.00251
G1 X132.947 Y97.335 E.00497
G1 X133.021 Y97.304 E.00251
G1 X133.122 Y97.291 E.0032
G1 X133.288 Y97.308 E.00522
G1 X133.416 Y97.384 E.00469
G1 X133.465 Y97.447 E.00251
G1 X133.496 Y97.521 E.00251
G1 X133.513 Y97.652 E.00414
G1 X133.513 Y102.156 E.14125
G1 X133.345 Y102.564 E.01383
G1 X133.22 Y103.231 E.02128
G1 X133.234 Y103.91 E.02128
G1 X133.388 Y104.571 E.02128
G1 X133.674 Y105.186 E.02128
G1 X134.08 Y105.73 E.02128
G1 X134.588 Y106.179 E.02128
G1 X135.179 Y106.514 E.02128
G1 X135.825 Y106.721 E.02128
G1 X136.5 Y106.791 E.02128
G1 X137.175 Y106.721 E.02128
G1 X137.821 Y106.514 E.02128
G1 X138.412 Y106.179 E.02128
G1 X138.92 Y105.73 E.02128
G1 X139.326 Y105.186 E.02128
G1 X139.612 Y104.571 E.02128
G1 X139.766 Y103.91 E.02128
G1 X139.78 Y103.231 E.02128
G1 X139.655 Y102.564 E.02128
G1 X139.487 Y102.156 E.01383
G1 X139.487 Y97.652 E.14125
G1 X139.504 Y97.521 E.00414
G1 X139.535 Y97.447 E.00251
G1 X139.647 Y97.335 E.00497
G1 X139.822 Y97.291 E.00566
G1 X139.988 Y97.308 E.00522
G1 X140.116 Y97.384 E.00469
G1 X140.165 Y97.447 E.00251
G1 X140.196 Y97.521 E.00251
G1 X140.213 Y97.652 E.00414
G1 X140.213 Y108.287 E.33347
G1 X145.787 Y108.287 E.17477
G1 X145.787 Y97.652 E.33347
G1 X145.804 Y97.521 E.00414
G1 X145.835 Y97.447 E.00251
G1 X145.884 Y97.384 E.00251
G1 X146.021 Y97.304 E.00497
G1 X146.152 Y97.287 E.00414
G1 X146.548 Y97.287 E.01244
G1 X146.679 Y97.304 E.00414
G1 X146.753 Y97.335 E.00251
G1 X146.865 Y97.447 E.00497
G1 X146.896 Y97.521 E.00251
G1 X146.913 Y97.652 E.00414
G1 X146.913 Y101.329 E.11531
G1 X146.688 Y101.656 E.01242
G1 X146.401 Y102.311 E.02243
G1 X146.241 Y103.008 E.02243
G1 X146.216 Y103.723 E.02243
G1 X146.271 Y104.076 E.01121
G1 X146.325 Y104.43 E.01121
G1 X146.565 Y105.104 E.02243
G1 X146.928 Y105.72 E.02243
G1 X147.4 Y106.258 E.02243
G1 X147.964 Y106.697 E.02243
G1 X148.601 Y107.023 E.02243
G1 X149.288 Y107.223 E.02243
G1 X150 Y107.291 E.02243
G1 X150.712 Y107.223 E.02243
G1 X151.399 Y107.023 E.02243
G1 X152.038 Y106.696 E.0225
G1 X152.619 Y106.237 E.02321
G1 X153.072 Y105.72 E.02157
G1 X153.435 Y105.104 E.02243
G1 X153.675 Y104.43 E.02243
G1 X153.784 Y103.723 E.02243
G1 X153.759 Y103.008 E.02243
G1 X153.599 Y102.311 E.02243
G1 X153.312 Y101.656 E.02243
G1 X153.087 Y101.329 E.01242
G1 X153.087 Y97.652 E.11531
G1 X153.104 Y97.521 E.00414
G1 X153.135 Y97.447 E.00251
G1 X153.247 Y97.335 E.00497
G1 X153.321 Y97.304 E.00251
G1 X153.452 Y97.287 E.00414
G1 X153.848 Y97.287 E.01244
G1 X153.979 Y97.304 E.00414
G1 X154.116 Y97.384 E.00497
G1 X154.196 Y97.521 E.00497
G1 X154.213 Y97.652 E.00414
G1 X154.213 Y108.287 E.33347
G1 X161.324 Y108.287 E.22296
G1 X161.324 Y112.713 E.13877
G1 X88.676 Y112.713 E2.27782
G1 X88.676 Y108.287 E.13877
M73 P0 R74
G1 X95.787 Y108.287 E.22296
G1 X95.787 Y97.652 E.33347
G1 X95.804 Y97.521 E.00414
G1 X95.835 Y97.447 E.00251
G1 X95.947 Y97.335 E.00497
G1 X96.021 Y97.304 E.00251
G1 X96.348 Y97.287 E.01029
G1 X96.479 Y97.304 E.00414
G1 X96.553 Y97.335 E.00251
G1 X96.665 Y97.447 E.00497
G1 X96.696 Y97.521 E.00251
G1 X96.713 Y97.652 E.00414
G1 X96.713 Y101.93 E.13415
G1 X96.541 Y102.178 E.00945
G1 X96.304 Y102.771 E.02004
G1 X96.209 Y103.403 E.02004
G1 X96.26 Y104.04 E.02004
G1 X96.455 Y104.649 E.02004
G1 X96.783 Y105.197 E.02004
G1 X97.227 Y105.657 E.02004
G1 X97.764 Y106.004 E.02004
G1 X98.365 Y106.219 E.02004
G1 X99 Y106.292 E.02004
G1 X99.635 Y106.219 E.02004
G1 X100.236 Y106.004 E.02004
G1 X100.773 Y105.657 E.02004
G1 X101.217 Y105.197 E.02004
G1 X101.545 Y104.649 E.02004
G1 X101.74 Y104.04 E.02004
G1 X101.791 Y103.403 E.02004
G1 X101.696 Y102.771 E.02004
G1 X101.459 Y102.178 E.02004
G1 X101.287 Y101.93 E.00945
G1 X101.287 Y97.652 E.13415
G1 X101.304 Y97.521 E.00414
G1 X101.335 Y97.447 E.00251
G1 X101.447 Y97.335 E.00497
G1 X101.521 Y97.304 E.00251
G1 X101.652 Y97.287 E.00414
G1 X101.979 Y97.304 E.01029
G1 X102.053 Y97.335 E.00251
G1 X102.165 Y97.447 E.00497
G1 X102.196 Y97.521 E.00251
G1 X102.213 Y97.652 E.00414
G1 X102.213 Y108.25 E.33231
G1 X102.59 Y107.91 F10800
;TYPE:External perimeter
G1 F1200
G1 X107.41 Y107.91 E.15113
G1 X107.41 Y97.627 E.32242
G1 X107.437 Y97.422 E.00647
G1 X107.506 Y97.257 E.00562
G1 X107.615 Y97.115 E.00562
G1 X107.757 Y97.006 E.00562
G1 X107.922 Y96.937 E.00562
G1 X108.127 Y96.91 E.00647
G1 X108.373 Y96.91 E.00772
G1 X108.578 Y96.937 E.00647
G1 X108.743 Y97.006 E.00562
G1 X108.885 Y97.115 E.00562
G1 X108.994 Y97.257 E.00562
G1 X109.063 Y97.422 E.00562
G1 X109.09 Y97.627 E.00647
G1 X109.09 Y102.048 E.13864
G1 X108.875 Y102.357 E.0118
G1 X108.671 Y102.87 E.01731
G1 X108.589 Y103.416 E.01731
G1 X108.633 Y103.967 E.01731
G1 X108.801 Y104.493 E.01731
G1 X109.084 Y104.967 E.01731
G1 X109.468 Y105.364 E.01731
G1 X109.932 Y105.663 E.01731
G1 X110.451 Y105.85 E.01731
G1 X111 Y105.913 E.01731
G1 X111.549 Y105.85 E.01731
G1 X112.068 Y105.663 E.01731
G1 X112.532 Y105.364 E.01731
G1 X112.916 Y104.967 E.01731
G1 X113.199 Y104.493 E.01731
G1 X113.367 Y103.967 E.01731
G1 X113.411 Y103.416 E.01731
G1 X113.329 Y102.87 E.01731
G1 X113.125 Y102.357 E.01731
G1 X112.91 Y102.048 E.0118
G1 X112.91 Y97.627 E.13864
G1 X112.937 Y97.422 E.00647
G1 X113.006 Y97.257 E.00562
G1 X113.115 Y97.115 E.00562
G1 X113.257 Y97.006 E.00562
G1 X113.422 Y96.937 E.00562
G1 X113.627 Y96.91 E.00647
G1 X113.873 Y96.91 E.00772
G1 X114.078 Y96.937 E.00647
G1 X114.243 Y97.006 E.00562
G1 X114.385 Y97.115 E.00562
G1 X114.494 Y97.257 E.00562
G1 X114.563 Y97.422 E.00562
G1 X114.59 Y97.627 E.00647
G1 X114.59 Y107.91 E.32242
G1 X119.41 Y107.91 E.15113
G1 X119.41 Y97.627 E.32242
G1 X119.437 Y97.422 E.00647
G1 X119.506 Y97.257 E.00562
G1 X119.615 Y97.115 E.00562
G1 X119.757 Y97.006 E.00562
G1 X119.922 Y96.937 E.00562
G1 X120.127 Y96.91 E.00647
G1 X120.673 Y96.91 E.01713
G1 X120.878 Y96.937 E.00647
G1 X121.043 Y97.006 E.00562
G1 X121.185 Y97.115 E.00562
G1 X121.294 Y97.257 E.00562
G1 X121.363 Y97.422 E.00562
G1 X121.39 Y97.627 E.00647
G1 X121.39 Y101.513 E.12184
G1 X121.121 Y101.82 E.0128
G1 X120.825 Y102.348 E.01897
G1 X120.645 Y102.926 E.01897
G1 X120.588 Y103.528 E.01897
G1 X120.657 Y104.129 E.01897
G1 X120.848 Y104.703 E.01897
G1 X121.154 Y105.225 E.01897
G1 X121.561 Y105.673 E.01897
G1 X122.052 Y106.027 E.01897
G1 X122.605 Y106.271 E.01897
G1 X123.197 Y106.396 E.01897
G1 X123.803 Y106.396 E.01897
G1 X124.395 Y106.271 E.01897
G1 X124.948 Y106.027 E.01897
G1 X125.439 Y105.673 E.01897
G1 X125.846 Y105.225 E.01897
G1 X126.152 Y104.703 E.01897
G1 X126.343 Y104.129 E.01897
G1 X126.412 Y103.528 E.01897
G1 X126.355 Y102.926 E.01897
G1 X126.175 Y102.348 E.01897
G1 X125.879 Y101.82 E.01897
G1 X125.61 Y101.513 E.0128
G1 X125.61 Y97.627 E.12184
G1 X125.637 Y97.422 E.00647
G1 X125.706 Y97.257 E.00562
G1 X125.815 Y97.115 E.00562
G1 X125.957 Y97.006 E.00562
G1 X126.122 Y96.937 E.00562
G1 X126.327 Y96.91 E.00647
G1 X126.873 Y96.91 E.01713
G1 X127.078 Y96.937 E.00647
G1 X127.243 Y97.006 E.00562
G1 X127.385 Y97.115 E.00562
G1 X127.494 Y97.257 E.00562
G1 X127.563 Y97.422 E.00562
G1 X127.59 Y97.627 E.00647
G1 X127.59 Y107.91 E.32242
G1 X132.41 Y107.91 E.15113
G1 X132.41 Y97.627 E.32242
G1 X132.437 Y97.422 E.00647
G1 X132.506 Y97.257 E.00562
G1 X132.615 Y97.115 E.00562
G1 X132.757 Y97.006 E.00562
G1 X132.922 Y96.937 E.00562
G1 X133.116 Y96.911 E.00613
G1 X133.381 Y96.938 E.00833
G1 X133.543 Y97.006 E.00552
G1 X133.685 Y97.115 E.00562
G1 X133.794 Y97.257 E.00562
G1 X133.863 Y97.422 E.00562
G1 X133.89 Y97.627 E.00647
G1 X133.89 Y102.231 E.14437
G1 X133.708 Y102.672 E.01495
G1 X133.598 Y103.262 E.01883
G1 X133.61 Y103.862 E.01883
G1 X133.746 Y104.447 E.01883
G1 X133.999 Y104.992 E.01883
G1 X134.358 Y105.473 E.01883
G1 X134.809 Y105.871 E.01883
G1 X135.331 Y106.167 E.01883
G1 X135.903 Y106.35 E.01883
G1 X136.5 Y106.412 E.01883
G1 X137.097 Y106.35 E.01883
G1 X137.669 Y106.167 E.01883
G1 X138.191 Y105.871 E.01883
G1 X138.642 Y105.473 E.01883
G1 X139.001 Y104.992 E.01883
G1 X139.254 Y104.447 E.01883
G1 X139.39 Y103.862 E.01883
G1 X139.402 Y103.262 E.01883
G1 X139.292 Y102.672 E.01883
G1 X139.11 Y102.231 E.01495
G1 X139.11 Y97.627 E.14437
G1 X139.137 Y97.422 E.00647
G1 X139.206 Y97.257 E.00562
G1 X139.315 Y97.115 E.00562
G1 X139.457 Y97.006 E.00562
G1 X139.622 Y96.937 E.00562
G1 X139.816 Y96.911 E.00613
G1 X140.081 Y96.938 E.00833
G1 X140.243 Y97.006 E.00552
G1 X140.385 Y97.115 E.00562
G1 X140.494 Y97.257 E.00562
G1 X140.563 Y97.422 E.00562
G1 X140.59 Y97.627 E.00647
G1 X140.59 Y107.91 E.32242
G1 X145.41 Y107.91 E.15113
G1 X145.41 Y97.627 E.32242
G1 X145.437 Y97.422 E.00647
G1 X145.506 Y97.257 E.00562
G1 X145.615 Y97.115 E.00562
G1 X145.757 Y97.006 E.00562
G1 X145.922 Y96.937 E.00562
G1 X146.127 Y96.91 E.00647
G1 X146.573 Y96.91 E.01399
G1 X146.778 Y96.937 E.00647
G1 X146.943 Y97.006 E.00562
G1 X147.085 Y97.115 E.00562
G1 X147.194 Y97.257 E.00562
G1 X147.263 Y97.422 E.00562
G1 X147.29 Y97.627 E.00647
G1 X147.29 Y101.446 E.11976
G1 X147.019 Y101.84 E.01497
G1 X146.76 Y102.429 E.02019
G1 X146.617 Y103.057 E.02019
G1 X146.594 Y103.701 E.02019
G1 X146.643 Y104.019 E.01009
G1 X146.692 Y104.337 E.01009
G1 X146.909 Y104.943 E.02019
G1 X147.235 Y105.499 E.02019
G1 X147.659 Y105.982 E.02019
G1 X148.168 Y106.378 E.02019
G1 X148.741 Y106.671 E.02019
G1 X149.359 Y106.851 E.02019
G1 X150 Y106.912 E.02019
G1 X150.641 Y106.851 E.02019
G1 X151.259 Y106.671 E.02019
G1 X151.833 Y106.378 E.02021
G1 X152.358 Y105.963 E.02097
G1 X152.765 Y105.499 E.01937
G1 X153.091 Y104.943 E.02019
G1 X153.308 Y104.337 E.02019
G1 X153.406 Y103.701 E.02019
G1 X153.383 Y103.057 E.02019
G1 X153.24 Y102.429 E.02019
G1 X152.981 Y101.84 E.02019
G1 X152.71 Y101.446 E.01497
G1 X152.71 Y97.627 E.11976
G1 X152.737 Y97.422 E.00647
G1 X152.806 Y97.257 E.00562
G1 X152.915 Y97.115 E.00562
G1 X153.057 Y97.006 E.00562
G1 X153.222 Y96.937 E.00562
G1 X153.427 Y96.91 E.00647
G1 X153.873 Y96.91 E.01399
G1 X154.078 Y96.937 E.00647
G1 X154.243 Y97.006 E.00562
G1 X154.385 Y97.115 E.00562
G1 X154.494 Y97.257 E.00562
G1 X154.563 Y97.422 E.00562
G1 X154.59 Y97.627 E.00647
G1 X154.59 Y107.91 E.32242
G1 X161.701 Y107.91 E.22296
G1 X161.701 Y113.09 E.16242
M73 P1 R74
G1 X88.299 Y113.09 E2.30146
G1 X88.299 Y107.91 E.16242
G1 X95.41 Y107.91 E.22296
G1 X95.41 Y97.627 E.32242
G1 X95.437 Y97.422 E.00647
G1 X95.506 Y97.257 E.00562
G1 X95.615 Y97.115 E.00562
G1 X95.757 Y97.006 E.00562
G1 X95.922 Y96.937 E.00562
G1 X96.127 Y96.91 E.00647
G1 X96.373 Y96.91 E.00772
G1 X96.578 Y96.937 E.00647
G1 X96.743 Y97.006 E.00562
G1 X96.885 Y97.115 E.00562
G1 X96.994 Y97.257 E.00562
G1 X97.063 Y97.422 E.00562
G1 X97.09 Y97.627 E.00647
G1 X97.09 Y102.048 E.13864
G1 X96.875 Y102.357 E.0118
G1 X96.671 Y102.87 E.01731
G1 X96.589 Y103.416 E.01731
G1 X96.633 Y103.967 E.01731
G1 X96.801 Y104.493 E.01731
G1 X97.084 Y104.967 E.01731
G1 X97.468 Y105.364 E.01731
G1 X97.932 Y105.663 E.01731
