; generated by PrusaSlicer 2.4.0+win64 on 2022-03-12 at 12:13:22 UTC

; 

; external perimeters extrusion width = 0.45mm
; perimeters extrusion width = 0.45mm
; infill extrusion width = 0.45mm
; solid infill extrusion width = 0.45mm
; top infill extrusion width = 0.40mm
; first layer extrusion width = 0.42mm

M73 P0 R71
M201 X9000 Y9000 Z500 E10000 ; sets maximum accelerations, mm/sec^2
M203 X500 Y500 Z12 E120 ; sets maximum feedrates, mm/sec
M204 P2000 R1500 T2000 ; sets acceleration (P, T) and retract acceleration (R), mm/sec^2
M205 X10.00 Y10.00 Z0.20 E2.50 ; sets the jerk limits, mm/sec
M205 S0 T0 ; sets the minimum extruding and travel feed rate, mm/sec
M107
;TYPE:Custom
M862.3 P "MK2S" ; printer model check
M862.1 P0.4 ; nozzle diameter check
M115 U3.2.3 ; tell printer latest fw version
G90 ; use absolute coordinates
M83 ; extruder relative mode
M204 S2000 T1500 ; MK2 firmware only supports the old M204 format
M104 S215 ; set extruder temp
M140 S60 ; set bed temp
M190 S60 ; wait for bed temp
M109 S215 ; wait for extruder temp
G28 W ; home all without mesh bed level
G80 ; mesh bed leveling
G1 Y-3.0 F1000.0 ; go outside print area
G92 E0.0
G1 X60.0 E9.0  F1000.0 ; intro line
G1 X100.0 E12.5 F1000.0 ; intro line
G92 E0.0
G21 ; set units to millimeters
G90 ; use absolute coordinates
M83 ; use relative distances for extrusion
M900 K0.05 ; Filament gcode LA 1.5
M900 K30 ; Filament gcode LA 1.0
M107
;LAYER_CHANGE
;Z:0.2
;HEIGHT:0.2
;BEFORE_LAYER_CHANGE
G92 E0.0
;0.2


G1 E-.8 F2100
G1 Z.4 F10800
;AFTER_LAYER_CHANGE
;0.2
G1 X93.529 Y95.199
G1 Z.2
G1 E.8 F2100
M204 S1000
;TYPE:Skirt/Brim
;WIDTH:0.42
G1 F1200
G1 X94.053 Y94.748 E.02167
G1 X94.832 Y94.338 E.02759
G1 X96 Y94.123 E.03725
G1 X154.31 Y94.143 E1.82828
G1 X155.41 Y94.438 E.03569
M73 P0 R70
G1 X155.947 Y94.748 E.01946
G1 X156.471 Y95.199 E.02167
G1 X166.147 Y105.906 E.4525
G1 X166.761 Y107.5 E.05355
G1 X166.761 Y113.5 E.18813
G1 X166.369 Y114.807 E.04278
G1 X165.324 Y115.683 E.04278
G1 X164.384 Y115.877 E.03008
G1 X85.616 Y115.877 E2.46971
G1 X84.309 Y115.485 E.04278
G1 X83.433 Y114.44 E.04278
G1 X83.239 Y113.5 E.03008
G1 X83.239 Y107.5 E.18813
G1 X83.853 Y105.906 E.05355
G1 X93.489 Y95.244 E.45062
; printing object cable_holder_5fach_V2.stl id:0 copy 0
;WIPE_START
G1 F8640
G1 X94.053 Y94.748 E-.17331
G1 X94.832 Y94.338 E-.2032
G1 X96 Y94.123 E-.27434
G1 X96.473 Y94.123 E-.10915
;WIPE_END
G1 E-.04 F2100
G1 Z.6 F10800
G1 X126.587 Y97.552
G1 Z.2
G1 E.8 F2100
;TYPE:Perimeter
G1 F1200
G1 X126.601 Y97.447 E.00332
G1 X126.654 Y97.354 E.00335
G1 X126.747 Y97.301 E.00335
G1 X126.852 Y97.287 E.00332
G1 X127.053 Y97.301 E.00634
G1 X127.103 Y97.321 E.00169
G1 X127.179 Y97.397 E.00335
G1 X127.213 Y97.552 E.00497
G1 X127.213 Y103.769 E.19494
G1 X127.062 Y103.205 E.0183
G1 X126.784 Y102.607 E.02068
G1 X126.587 Y102.326 E.01076
G1 X126.587 Y97.612 E.14782
;WIPE_START
G1 F8640
G1 X126.601 Y97.447 E-.03822
G1 X126.654 Y97.354 E-.02464
G1 X126.747 Y97.301 E-.02463
G1 X126.852 Y97.287 E-.02444
G1 X127.053 Y97.301 E-.0467
G1 X127.103 Y97.321 E-.01242
G1 X127.179 Y97.397 E-.02464
G1 X127.213 Y97.552 E-.03658
G1 X127.213 Y99.837 E-.52772
;WIPE_END
G1 E-.04 F2100
G1 Z.6 F10800
G1 X104.236 Y108.287
G1 Z.2
G1 E.8 F2100
G1 F1200
G1 X107.787 Y108.287 E.11135
G1 X107.787 Y107.125 E.03644
G1 X107.892 Y107.574 E.01446
G1 X108.163 Y108.169 E.02049
G1 X108.568 Y108.718 E.02141
G1 X109.078 Y109.172 E.02141
G1 X109.671 Y109.511 E.02141
G1 X110.321 Y109.721 E.02141
G1 X111 Y109.791 E.02141
G1 X111.679 Y109.721 E.02141
G1 X112.329 Y109.511 E.02141
G1 X112.922 Y109.172 E.02141
G1 X113.432 Y108.718 E.02141
G1 X113.837 Y108.169 E.02141
G1 X114.12 Y107.547 E.02141
G1 X114.213 Y107.133 E.01332
G1 X114.213 Y108.287 E.03619
G1 X119.787 Y108.287 E.17477
G1 X119.787 Y107.242 E.03276
G1 X119.966 Y107.869 E.02044
G1 X120.277 Y108.495 E.02193
G1 X120.699 Y109.054 E.02193
G1 X121.216 Y109.525 E.02193
G1 X121.81 Y109.893 E.02193
G1 X122.463 Y110.146 E.02193
G1 X123.15 Y110.274 E.02193
G1 X123.85 Y110.274 E.02193
G1 X124.537 Y110.146 E.02193
G1 X125.19 Y109.893 E.02193
G1 X125.784 Y109.525 E.02193
G1 X126.301 Y109.054 E.02193
G1 X126.723 Y108.495 E.02193
G1 X127.034 Y107.869 E.02193
G1 X127.213 Y107.242 E.02044
G1 X127.213 Y108.287 E.03276
G1 X131.787 Y108.287 E.14342
G1 X131.787 Y97.552 E.3366
G1 X131.801 Y97.447 E.00332
G1 X131.854 Y97.354 E.00335
G1 X131.947 Y97.301 E.00335
G1 X132.052 Y97.287 E.00332
G1 X132.248 Y97.287 E.00617
G1 X132.403 Y97.321 E.00497
G1 X132.479 Y97.397 E.00335
G1 X132.513 Y97.552 E.00497
G1 X132.513 Y103.039 E.17207
G1 X132.402 Y103.313 E.00926
G1 X132.279 Y103.787 E.01534
G1 X132.218 Y104.284 E.01571
G1 X132.213 Y106.53 E.07041
G1 X132.277 Y107.216 E.02162
G1 X132.494 Y107.935 E.02353
G1 X132.814 Y108.554 E.02187
G1 X133.264 Y109.123 E.02274
G1 X133.813 Y109.597 E.02274
G1 X134.443 Y109.956 E.02274
G1 X135.13 Y110.19 E.02274
G1 X135.849 Y110.288 E.02274
G1 X136.573 Y110.247 E.02274
G1 X137.278 Y110.069 E.02281
G1 X137.955 Y109.745 E.02353
G1 X138.518 Y109.333 E.02187
G1 X139.012 Y108.802 E.02274
G1 X139.395 Y108.186 E.02274
G1 X139.654 Y107.509 E.02274
G1 X139.778 Y106.802 E.02249
G1 X139.782 Y104.656 E.06729
G1 X139.766 Y104.072 E.01834
G1 X139.64 Y103.445 E.02004
G1 X139.487 Y103.046 E.01338
G1 X139.487 Y97.552 E.17229
G1 X139.501 Y97.447 E.00332
G1 X139.554 Y97.354 E.00335
G1 X139.647 Y97.301 E.00335
G1 X139.752 Y97.287 E.00332
G1 X139.948 Y97.287 E.00617
G1 X140.103 Y97.321 E.00497
G1 X140.179 Y97.397 E.00335
G1 X140.213 Y97.552 E.00497
G1 X140.213 Y108.287 E.3366
G1 X145.787 Y108.287 E.17477
G1 X145.787 Y97.552 E.3366
G1 X145.821 Y97.397 E.00497
G1 X145.897 Y97.321 E.00335
G1 X145.947 Y97.301 E.00169
G1 X146.148 Y97.287 E.00634
G1 X146.253 Y97.301 E.00332
G1 X146.346 Y97.354 E.00335
G1 X146.399 Y97.447 E.00335
G1 X146.413 Y97.552 E.00332
G1 X146.413 Y102.782 E.164
G1 X146.237 Y103.175 E.0135
G1 X146.069 Y103.819 E.02085
G1 X146.013 Y104.453 E.01995
G1 X146.027 Y106.875 E.07597
G1 X146.163 Y107.597 E.02301
G1 X146.43 Y108.282 E.02307
G1 X146.818 Y108.908 E.02307
G1 X147.314 Y109.451 E.02307
G1 X147.901 Y109.894 E.02307
G1 X148.56 Y110.221 E.02307
G1 X149.267 Y110.423 E.02307
G1 X150 Y110.49 E.02307
G1 X150.733 Y110.423 E.02307
G1 X151.44 Y110.221 E.02307
G1 X152.099 Y109.894 E.02307
G1 X152.686 Y109.451 E.02307
G1 X153.182 Y108.908 E.02307
G1 X153.57 Y108.282 E.02307
G1 X153.837 Y107.597 E.02307
G1 X153.973 Y106.875 E.02301
G1 X153.987 Y104.453 E.07597
G1 X153.931 Y103.819 E.01995
G1 X153.763 Y103.175 E.02085
G1 X153.587 Y102.782 E.0135
G1 X153.587 Y97.552 E.164
G1 X153.621 Y97.397 E.00497
G1 X153.697 Y97.321 E.00335
G1 X153.747 Y97.301 E.00169
G1 X153.948 Y97.287 E.00634
G1 X154.053 Y97.301 E.00332
G1 X154.146 Y97.354 E.00335
G1 X154.199 Y97.447 E.00335
G1 X154.213 Y97.552 E.00332
G1 X154.213 Y108.287 E.3366
G1 X162.241 Y108.287 E.25171
G1 X162.241 Y112.713 E.13877
G1 X87.759 Y112.713 E2.33532
G1 X87.759 Y108.287 E.13877
G1 X95.787 Y108.287 E.25171
G1 X95.787 Y107.206 E.0339
G1 X96.008 Y107.864 E.02178
G1 X96.337 Y108.435 E.02065
G1 X96.798 Y108.946 E.02158
G1 X97.354 Y109.35 E.02157
G1 X97.983 Y109.63 E.02157
G1 X98.656 Y109.773 E.02157
G1 X99.344 Y109.773 E.02157
G1 X99.681 Y109.702 E.01079
G1 X100.017 Y109.63 E.01079
G1 X100.646 Y109.35 E.02157
G1 X101.202 Y108.946 E.02157
G1 X101.663 Y108.435 E.02157
G1 X102.007 Y107.839 E.02158
G1 X102.213 Y107.205 E.02091
G1 X102.213 Y108.287 E.03394
G1 X104.176 Y108.287 E.06155
;WIPE_START
G1 F8640
G1 X107.467 Y108.287 E-.76
;WIPE_END
G1 E-.04 F2100
G1 Z.6 F10800
G1 X119.787 Y103.769
G1 Z.2
G1 E.8 F2100
G1 F1200
G1 X119.787 Y97.552 E.19494
G1 X119.821 Y97.397 E.00497
G1 X119.897 Y97.321 E.00335
G1 X119.947 Y97.301 E.00169
G1 X120.148 Y97.287 E.00634
G1 X120.253 Y97.301 E.00332
G1 X120.346 Y97.354 E.00335
G1 X120.399 Y97.447 E.00335
G1 X120.413 Y97.552 E.00332
G1 X120.413 Y102.326 E.1497
G1 X120.216 Y102.607 E.01076
G1 X119.938 Y103.205 E.02068
G1 X119.803 Y103.711 E.01642
;WIPE_START
G1 F8640
G1 X119.794 Y100.42 E-.76
;WIPE_END
G1 E-.04 F2100
G1 Z.6 F10800
G1 X114.213 Y103.711
G1 Z.2
G1 E.8 F2100
G1 F1200
G1 X114.213 Y103.854 E.00448
G1 X114.177 Y103.642 E.00673
G1 X113.958 Y103.058 E.01956
G1 X113.787 Y102.779 E.01027
G1 X113.787 Y97.552 E.16389
G1 X113.801 Y97.447 E.00332
G1 X113.854 Y97.354 E.00335
G1 X113.947 Y97.301 E.00335
G1 X114 Y97.294 E.00169
G1 X114.053 Y97.301 E.00169
G1 X114.146 Y97.354 E.00335
G1 X114.199 Y97.447 E.00335
G1 X114.213 Y97.552 E.00332
G1 X114.213 Y103.651 E.19124
;WIPE_START
G1 F8640
G1 X114.213 Y103.854 E-.04683
G1 X114.177 Y103.642 E-.04959
G1 X113.958 Y103.058 E-.14405
G1 X113.787 Y102.779 E-.07561
G1 X113.787 Y100.856 E-.44392
;WIPE_END
G1 E-.04 F2100
G1 Z.6 F10800
G1 X108.213 Y102.779
G1 Z.2
G1 E.8 F2100
G1 F1200
G1 X108.042 Y103.058 E.01027
G1 X107.823 Y103.642 E.01956
G1 X107.787 Y103.854 E.00673
G1 X107.787 Y97.552 E.1976
G1 X107.801 Y97.447 E.00332
G1 X107.854 Y97.354 E.00335
G1 X107.947 Y97.301 E.00335
G1 X108 Y97.294 E.00169
G1 X108.053 Y97.301 E.00169
G1 X108.146 Y97.354 E.00335
G1 X108.199 Y97.447 E.00335
G1 X108.213 Y97.552 E.00332
G1 X108.213 Y102.719 E.16201
;WIPE_START
G1 F8640
G1 X108.042 Y103.058 E-.08773
G1 X107.823 Y103.642 E-.14406
G1 X107.787 Y103.854 E-.04958
G1 X107.787 Y101.781 E-.47864
;WIPE_END
G1 E-.04 F2100
G1 Z.6 F10800
G1 X102.213 Y102.719
G1 Z.2
G1 E.8 F2100
G1 F1200
G1 X102.213 Y103.827 E.03475
G1 X102.09 Y103.37 E.01482
G1 X101.846 Y102.849 E.01806
G1 X101.514 Y102.378 E.01806
G1 X101.387 Y102.252 E.00562
G1 X101.387 Y97.552 E.14736
G1 X101.401 Y97.447 E.00332
G1 X101.454 Y97.354 E.00335
G1 X101.547 Y97.301 E.00335
G1 X101.652 Y97.287 E.00332
G1 X101.948 Y97.287 E.00931
G1 X102.103 Y97.321 E.00497
G1 X102.179 Y97.397 E.00335
G1 X102.213 Y97.552 E.00497
G1 X102.213 Y102.659 E.16012
;WIPE_START
G1 F8640
G1 X102.213 Y103.827 E-.26975
G1 X102.09 Y103.37 E-.10917
G1 X101.846 Y102.849 E-.13298
G1 X101.514 Y102.378 E-.13297
G1 X101.387 Y102.252 E-.04138
G1 X101.387 Y101.932 E-.07375
;WIPE_END
G1 E-.04 F2100
G1 Z.6 F10800
G1 X96.613 Y102.252
G1 Z.2
G1 E.8 F2100
G1 F1200
G1 X96.486 Y102.378 E.00562
G1 X96.154 Y102.849 E.01806
G1 X95.91 Y103.37 E.01806
G1 X95.787 Y103.827 E.01482
G1 X95.787 Y97.552 E.19675
G1 X95.801 Y97.447 E.00332
G1 X95.854 Y97.354 E.00335
G1 X95.947 Y97.301 E.00335
G1 X96.052 Y97.287 E.00332
G1 X96.348 Y97.287 E.00931
G1 X96.503 Y97.321 E.00497
G1 X96.579 Y97.397 E.00335
G1 X96.613 Y97.552 E.00497
G1 X96.613 Y102.192 E.14548
;WIPE_START
G1 F8640
G1 X96.486 Y102.378 E-.05208
G1 X96.154 Y102.849 E-.13297
G1 X95.91 Y103.37 E-.13298
G1 X95.787 Y103.827 E-.10917
G1 X95.787 Y102.385 E-.3328
;WIPE_END
G1 E-.04 F2100
G1 Z.6 F10800
G1 X102.59 Y107.91
G1 Z.2
G1 E.8 F2100
;TYPE:External perimeter
G1 F1200
G1 X107.41 Y107.91 E.15113
G1 X107.41 Y97.527 E.32556
G1 X107.434 Y97.348 E.00565
G1 X107.492 Y97.207 E.0048
G1 X107.585 Y97.085 E.0048
G1 X107.707 Y96.992 E.0048
G1 X107.848 Y96.934 E.0048
G1 X108 Y96.914 E.0048
G1 X108.152 Y96.934 E.0048
G1 X108.293 Y96.992 E.0048
G1 X108.415 Y97.085 E.0048
G1 X108.508 Y97.207 E.0048
G1 X108.566 Y97.348 E.0048
G1 X108.59 Y97.527 E.00565
G1 X108.59 Y102.885 E.16799
G1 X108.383 Y103.224 E.01247
G1 X108.189 Y103.741 E.01731
G1 X108.096 Y104.283 E.01725
G1 X108.107 Y106.836 E.08004
G1 X108.251 Y107.452 E.01982
G1 X108.49 Y107.976 E.01808
G1 X108.848 Y108.463 E.01894
G1 X109.3 Y108.864 E.01894
G1 X109.824 Y109.164 E.01894
G1 X110.399 Y109.35 E.01894
G1 X111 Y109.412 E.01894
G1 X111.601 Y109.35 E.01894
G1 X112.176 Y109.164 E.01894
G1 X112.7 Y108.864 E.01894
G1 X113.152 Y108.463 E.01894
G1 X113.51 Y107.976 E.01894
G1 X113.761 Y107.427 E.01894
G1 X113.893 Y106.835 E.01901
G1 X113.904 Y104.283 E.08001
G1 X113.811 Y103.741 E.01725
G1 X113.617 Y103.224 E.01731
G1 X113.41 Y102.885 E.01247
G1 X113.41 Y97.527 E.16799
G1 X113.434 Y97.348 E.00565
G1 X113.492 Y97.207 E.0048
G1 X113.585 Y97.085 E.0048
G1 X113.707 Y96.992 E.0048
G1 X113.848 Y96.934 E.0048
G1 X114 Y96.914 E.0048
G1 X114.152 Y96.934 E.0048
G1 X114.293 Y96.992 E.0048
G1 X114.415 Y97.085 E.0048
G1 X114.508 Y97.207 E.0048
G1 X114.566 Y97.348 E.0048
G1 X114.59 Y97.527 E.00565
G1 X114.59 Y107.91 E.32556
G1 X119.41 Y107.91 E.15113
G1 X119.41 Y97.527 E.32556
G1 X119.434 Y97.348 E.00565
G1 X119.492 Y97.207 E.0048
G1 X119.585 Y97.085 E.0048
G1 X119.707 Y96.992 E.0048
G1 X119.848 Y96.934 E.0048
G1 X120.027 Y96.91 E.00565
G1 X120.352 Y96.934 E.01021
G1 X120.493 Y96.992 E.0048
G1 X120.615 Y97.085 E.0048
G1 X120.708 Y97.207 E.0048
G1 X120.766 Y97.348 E.0048
G1 X120.79 Y97.527 E.00565
G1 X120.79 Y102.445 E.1542
G1 X120.544 Y102.796 E.01345
G1 X120.294 Y103.335 E.01862
G1 X120.14 Y103.908 E.01862
G1 X120.09 Y104.482 E.01805
G1 X120.09 Y106.519 E.06388
G1 X120.146 Y107.127 E.01914
G1 X120.319 Y107.732 E.01974
G1 X120.599 Y108.296 E.01974
G1 X120.979 Y108.798 E.01974
G1 X121.444 Y109.223 E.01974
G1 X121.979 Y109.554 E.01974
G1 X122.566 Y109.782 E.01974
G1 X123.185 Y109.897 E.01974
G1 X123.815 Y109.897 E.01974
G1 X124.434 Y109.782 E.01974
G1 X125.021 Y109.554 E.01974
G1 X125.556 Y109.223 E.01974
G1 X126.021 Y108.798 E.01974
G1 X126.401 Y108.296 E.01974
G1 X126.681 Y107.732 E.01974
G1 X126.854 Y107.127 E.01974
G1 X126.91 Y106.519 E.01914
M73 P1 R70
G1 X126.91 Y104.482 E.06388
G1 X126.86 Y103.908 E.01805
G1 X126.706 Y103.334 E.01862
G1 X126.456 Y102.796 E.01862
G1 X126.21 Y102.445 E.01345
G1 X126.21 Y97.527 E.1542
G1 X126.234 Y97.348 E.00565
G1 X126.292 Y97.207 E.0048
G1 X126.385 Y97.085 E.0048
G1 X126.507 Y96.992 E.0048
G1 X126.648 Y96.934 E.0048
G1 X126.827 Y96.91 E.00565
G1 X127.152 Y96.934 E.01021
G1 X127.293 Y96.992 E.0048
G1 X127.415 Y97.085 E.0048
G1 X127.508 Y97.207 E.0048
G1 X127.566 Y97.348 E.0048
G1 X127.59 Y97.527 E.00565
G1 X127.59 Y107.91 E.32556
G1 X131.41 Y107.91 E.11977
G1 X131.41 Y97.527 E.32556
G1 X131.434 Y97.348 E.00565
G1 X131.492 Y97.207 E.0048
G1 X131.585 Y97.085 E.0048
G1 X131.707 Y96.992 E.0048
G1 X131.848 Y96.934 E.0048
G1 X132.027 Y96.91 E.00565
G1 X132.273 Y96.91 E.00772
G1 X132.452 Y96.934 E.00565
G1 X132.593 Y96.992 E.0048
G1 X132.715 Y97.085 E.0048
G1 X132.808 Y97.207 E.0048
G1 X132.866 Y97.348 E.0048
G1 X132.89 Y97.527 E.00565
G1 X132.89 Y103.113 E.17515
G1 X132.761 Y103.432 E.01078
G1 X132.651 Y103.857 E.01379
G1 X132.595 Y104.308 E.01423
G1 X132.59 Y106.512 E.06912
G1 X132.649 Y107.143 E.01987
G1 X132.845 Y107.792 E.02126
G1 X133.133 Y108.349 E.01964
G1 X133.537 Y108.861 E.02047
G1 X134.032 Y109.287 E.02047
G1 X134.599 Y109.611 E.02047
G1 X135.217 Y109.821 E.02047
G1 X135.864 Y109.909 E.02047
G1 X136.516 Y109.873 E.02047
G1 X137.149 Y109.713 E.02049
G1 X137.761 Y109.42 E.02126
G1 X138.267 Y109.05 E.01964
G1 X138.711 Y108.572 E.02047
G1 X139.056 Y108.018 E.02047
G1 X139.289 Y107.408 E.02047
G1 X139.401 Y106.769 E.02034
G1 X139.405 Y104.661 E.06609
G1 X139.39 Y104.114 E.01715
G1 X139.277 Y103.55 E.01804
G1 X139.11 Y103.116 E.01457
G1 X139.11 Y97.527 E.17525
G1 X139.134 Y97.348 E.00565
G1 X139.192 Y97.207 E.0048
G1 X139.285 Y97.085 E.0048
G1 X139.407 Y96.992 E.0048
G1 X139.548 Y96.934 E.0048
G1 X139.727 Y96.91 E.00565
G1 X139.973 Y96.91 E.00772
G1 X140.152 Y96.934 E.00565
G1 X140.293 Y96.992 E.0048
G1 X140.415 Y97.085 E.0048
G1 X140.508 Y97.207 E.0048
G1 X140.566 Y97.348 E.0048
G1 X140.59 Y97.527 E.00565
G1 X140.59 Y107.91 E.32556
G1 X145.41 Y107.91 E.15113
G1 X145.41 Y97.527 E.32556
G1 X145.434 Y97.348 E.00565
G1 X145.492 Y97.207 E.0048
G1 X145.585 Y97.085 E.0048
G1 X145.707 Y96.992 E.0048
G1 X145.848 Y96.934 E.0048
G1 X146.173 Y96.91 E.01021
G1 X146.352 Y96.934 E.00565
G1 X146.493 Y96.992 E.0048
G1 X146.615 Y97.085 E.0048
G1 X146.708 Y97.207 E.0048
G1 X146.766 Y97.348 E.0048
G1 X146.79 Y97.527 E.00565
G1 X146.79 Y102.863 E.16731
G1 X146.593 Y103.301 E.01505
G1 X146.442 Y103.883 E.01887
G1 X146.39 Y104.468 E.01841
G1 X146.404 Y106.839 E.07435
G1 X146.527 Y107.493 E.02085
G1 X146.769 Y108.113 E.02088
G1 X147.12 Y108.679 E.02088
G1 X147.569 Y109.171 E.02088
G1 X148.1 Y109.572 E.02088
G1 X148.696 Y109.868 E.02088
G1 X149.337 Y110.05 E.02088
G1 X150 Y110.112 E.02088
G1 X150.663 Y110.05 E.02088
G1 X151.304 Y109.868 E.02088
G1 X151.9 Y109.572 E.02088
