; generated by PrusaSlicer 2.2.0+win64 on 2020-10-25 at 08:23:56 UTC

; 

; external perimeters extrusion width = 0.45mm
; perimeters extrusion width = 0.45mm
; infill extrusion width = 0.45mm
; solid infill extrusion width = 0.45mm
; top infill extrusion width = 0.40mm
; first layer extrusion width = 0.42mm

M73 P0 R22
M201 X9000 Y9000 Z500 E10000 ; sets maximum accelerations, mm/sec^2
M203 X500 Y500 Z12 E120 ; sets maximum feedrates, mm/sec
M204 P2000 R1500 T2000 ; sets acceleration (P, T) and retract acceleration (R), mm/sec^2
M205 X10.00 Y10.00 Z0.20 E2.50 ; sets the jerk limits, mm/sec
M205 S0 T0 ; sets the minimum extruding and travel feed rate, mm/sec
M107
M862.3 P "MK2S" ; printer model check
M862.1 P0.4 ; nozzle diameter check
M115 U3.2.3 ; tell printer latest fw version
G90 ; use absolute coordinates
M83 ; extruder relative mode
M204 S2000 T1500 ; MK2 firmware only supports the old M204 format
M104 S220 ; set extruder temp
M140 S80 ; set bed temp
M190 S80 ; wait for bed temp
M109 S220 ; wait for extruder temp
G28 W ; home all without mesh bed level
G80 ; mesh bed leveling
G1 Y-3.0 F1000.0 ; go outside print area
G92 E0.0
G1 X60.0 E9.0  F1000.0 ; intro line
M73 P0 R22
G1 X100.0 E12.5 F1000.0 ; intro line
G92 E0.0
G21 ; set units to millimeters
G90 ; use absolute coordinates
M83 ; use relative distances for extrusion
M900 K45 ; Filament gcode
;BEFORE_LAYER_CHANGE
G92 E0.0
;0.2


G1 E-0.80000 F2100.00000
G1 Z0.600 F10800.000
;AFTER_LAYER_CHANGE
;0.2
G1 X68.983 Y131.893
G1 Z0.200
G1 E0.80000 F2100.00000
M204 S1000
G1 F1200.000
G1 X69.398 Y131.209 E0.02508
G1 X70.016 Y130.702 E0.02508
G1 X70.541 Y130.481 E0.01787
G1 X72.133 Y130.096 E0.05135
G1 X75.395 Y129.507 E0.10392
G1 X77.120 Y129.299 E0.05447
G1 X78.854 Y129.162 E0.05456
G1 X82.146 Y129.097 E0.10323
G1 X155.192 Y130.073 E2.29052
G1 X155.936 Y130.204 E0.02367
G1 X156.539 Y130.516 E0.02130
G1 X157.030 Y130.986 E0.02130
G1 X157.367 Y131.576 E0.02130
G1 X157.524 Y132.233 E0.02119
G1 X158.365 Y154.321 E0.69305
G1 X158.355 Y154.956 E0.01991
G1 X158.238 Y155.475 E0.01668
G1 X157.895 Y156.122 E0.02296
G1 X157.367 Y156.635 E0.02308
G1 X156.318 Y157.240 E0.03799
G1 X155.493 Y157.424 E0.02649
G1 X125.780 Y158.329 E0.93206
G1 X91.542 Y159.228 E1.07389
G1 X71.174 Y159.229 E0.63863
G1 X70.318 Y159.062 E0.02731
G1 X66.124 Y156.811 E0.14925
G1 X65.760 Y156.455 E0.01597
G1 X65.481 Y156.033 E0.01585
G1 X65.298 Y155.562 E0.01585
G1 X65.218 Y155.059 E0.01597
G1 X65.246 Y153.217 E0.05775
G1 X68.972 Y131.952 E0.67691
G1 F8640.000
G1 X69.398 Y131.209 E-0.19767
G1 X70.016 Y130.702 E-0.18469
G1 X70.541 Y130.481 E-0.13161
G1 X71.577 Y130.230 E-0.24603
G1 E-0.04000 F2100.00000
G1 Z0.800 F10800.000
G1 X71.981 Y133.386
G1 Z0.200
G1 E0.80000 F2100.00000
G1 F1200.000
G1 X72.797 Y133.190 E0.02632
G1 X74.333 Y132.881 E0.04913
G1 X75.879 Y132.634 E0.04911
G1 X77.434 Y132.448 E0.04911
G1 X78.996 Y132.323 E0.04911
G1 X80.558 Y132.261 E0.04904
G1 X82.462 Y132.275 E0.05968
G1 X83.692 Y132.323 E0.03859
G1 X85.253 Y132.448 E0.04911
G1 X86.808 Y132.634 E0.04911
G1 X88.354 Y132.881 E0.04911
G1 X89.890 Y133.190 E0.04913
G1 X90.706 Y133.386 E0.02632
G1 X90.707 Y155.467 E0.69231
G1 X89.281 Y155.467 E0.04474
G1 X89.281 Y146.435 E0.28316
G1 X89.261 Y146.186 E0.00783
G1 X89.195 Y145.913 E0.00880
G1 X89.088 Y145.654 E0.00880
G1 X88.941 Y145.415 E0.00880
G1 X88.759 Y145.201 E0.00880
G1 X88.545 Y145.019 E0.00880
G1 X88.306 Y144.872 E0.00880
G1 X88.047 Y144.764 E0.00880
G1 X87.773 Y144.699 E0.00880
G1 X87.494 Y144.677 E0.00880
G1 X87.214 Y144.699 E0.00880
G1 X86.941 Y144.764 E0.00880
G1 X86.681 Y144.872 E0.00880
G1 X86.442 Y145.019 E0.00880
G1 X86.250 Y145.183 E0.00792
G1 X86.048 Y145.410 E0.00952
G1 X85.899 Y145.654 E0.00896
G1 X85.792 Y145.913 E0.00880
G1 X85.726 Y146.186 E0.00880
G1 X85.706 Y146.435 E0.00783
G1 X85.706 Y155.467 E0.28316
G1 X76.981 Y155.467 E0.27359
G1 X76.981 Y146.435 E0.28316
G1 X76.961 Y146.186 E0.00783
G1 X76.895 Y145.913 E0.00880
G1 X76.788 Y145.654 E0.00880
G1 X76.641 Y145.415 E0.00880
G1 X76.459 Y145.201 E0.00880
G1 X76.245 Y145.019 E0.00880
G1 X76.006 Y144.872 E0.00880
G1 X75.747 Y144.764 E0.00880
G1 X75.473 Y144.699 E0.00880
G1 X75.194 Y144.677 E0.00880
G1 X74.914 Y144.699 E0.00880
G1 X74.641 Y144.764 E0.00880
G1 X74.381 Y144.872 E0.00880
G1 X74.142 Y145.019 E0.00880
G1 X73.928 Y145.201 E0.00880
G1 X73.746 Y145.415 E0.00880
G1 X73.599 Y145.654 E0.00880
G1 X73.492 Y145.913 E0.00880
G1 X73.426 Y146.186 E0.00880
G1 X73.406 Y146.435 E0.00783
G1 X73.406 Y155.467 E0.28316
G1 X71.980 Y155.467 E0.04474
G1 X71.981 Y133.446 E0.69043
G1 X71.604 Y133.089 F10800.000
G1 F1200.000
G1 X72.715 Y132.821 E0.03586
G1 X74.266 Y132.510 E0.04959
G1 X75.827 Y132.260 E0.04958
G1 X77.397 Y132.072 E0.04958
G1 X78.973 Y131.947 E0.04958
G1 X80.552 Y131.884 E0.04955
G1 X82.470 Y131.898 E0.06014
G1 X83.714 Y131.947 E0.03902
G1 X85.290 Y132.072 E0.04958
G1 X86.860 Y132.260 E0.04958
G1 X88.421 Y132.510 E0.04958
G1 X89.972 Y132.821 E0.04959
G1 X91.084 Y133.089 E0.03586
G1 X91.085 Y155.844 E0.71345
G1 X88.904 Y155.844 E0.06838
G1 X88.904 Y146.450 E0.29452
G1 X88.887 Y146.246 E0.00644
G1 X88.836 Y146.030 E0.00694
G1 X88.751 Y145.826 E0.00694
G1 X88.635 Y145.637 E0.00694
G1 X88.491 Y145.468 E0.00694
G1 X88.323 Y145.325 E0.00694
G1 X88.134 Y145.209 E0.00694
G1 X87.930 Y145.124 E0.00694
G1 X87.714 Y145.073 E0.00694
G1 X87.494 Y145.055 E0.00694
G1 X87.273 Y145.073 E0.00694
G1 X87.057 Y145.124 E0.00694
G1 X86.853 Y145.209 E0.00694
G1 X86.664 Y145.325 E0.00694
G1 X86.515 Y145.452 E0.00616
G1 X86.353 Y145.635 E0.00766
G1 X86.236 Y145.826 E0.00700
G1 X86.151 Y146.030 E0.00694
G1 X86.100 Y146.246 E0.00694
G1 X86.084 Y146.450 E0.00644
G1 X86.084 Y155.844 E0.29452
G1 X76.604 Y155.844 E0.29724
G1 X76.604 Y146.450 E0.29452
G1 X76.587 Y146.246 E0.00644
G1 X76.536 Y146.030 E0.00694
G1 X76.451 Y145.826 E0.00694
G1 X76.335 Y145.637 E0.00694
G1 X76.191 Y145.468 E0.00694
G1 X76.023 Y145.325 E0.00694
G1 X75.834 Y145.209 E0.00694
G1 X75.630 Y145.124 E0.00694
G1 X75.414 Y145.073 E0.00694
G1 X75.194 Y145.055 E0.00694
G1 X74.973 Y145.073 E0.00694
G1 X74.757 Y145.124 E0.00694
G1 X74.553 Y145.209 E0.00694
G1 X74.364 Y145.325 E0.00694
G1 X74.196 Y145.468 E0.00694
G1 X74.052 Y145.637 E0.00694
G1 X73.936 Y145.826 E0.00694
G1 X73.851 Y146.030 E0.00694
G1 X73.800 Y146.246 E0.00694
G1 X73.784 Y146.450 E0.00644
G1 X73.784 Y155.844 E0.29452
G1 X71.603 Y155.844 E0.06838
G1 X71.604 Y133.149 E0.71156
G1 X71.981 Y133.221 F10800.000
G1 F8640.000
G1 X72.715 Y132.821 E-0.26763
G1 X74.266 Y132.510 E-0.36516
G1 X74.810 Y132.423 E-0.12721
G1 E-0.04000 F2100.00000
G1 Z0.800 F10800.000
G1 X90.593 Y134.251
G1 Z0.200
G1 E0.80000 F2100.00000
G1 F1200.000
G1 X89.803 Y133.461 E0.03544
G1 X89.128 Y133.325 E0.02183
G1 X90.424 Y134.621 E0.05810
G1 X90.424 Y135.160 E0.01710
G1 X88.453 Y133.189 E0.08837
G1 X87.804 Y133.079 E0.02088
G1 X90.424 Y135.699 E0.11749
G1 X90.424 Y136.239 E0.01710
G1 X87.162 Y132.977 E0.14629
G1 X86.531 Y132.885 E0.02021
G1 X90.424 Y136.778 E0.17457
G1 X90.424 Y137.317 E0.01710
G1 X85.919 Y132.812 E0.20204
G1 X85.306 Y132.739 E0.01956
G1 X90.424 Y137.857 E0.22951
G1 X90.424 Y138.396 E0.01710
G1 X84.717 Y132.689 E0.25595
G1 X84.131 Y132.642 E0.01864
G1 X90.424 Y138.935 E0.28223
G1 X90.424 Y139.475 E0.01710
G1 X83.550 Y132.601 E0.30826
G1 X82.989 Y132.579 E0.01782
G1 X90.424 Y140.014 E0.33345
G1 X90.424 Y140.553 E0.01710
G1 X82.428 Y132.557 E0.35859
G1 X81.885 Y132.553 E0.01722
G1 X90.424 Y141.093 E0.38295
G1 X90.424 Y141.632 E0.01710
G1 X81.342 Y132.550 E0.40731
G1 X80.799 Y132.546 E0.01722
G1 X90.424 Y142.171 E0.43166
G1 X90.424 Y142.711 E0.01710
G1 X80.269 Y132.556 E0.45540
G1 X79.750 Y132.577 E0.01646
G1 X90.424 Y143.250 E0.47867
G1 X90.424 Y143.790 E0.01710
G1 X79.232 Y132.597 E0.50193
G1 X78.724 Y132.629 E0.01613
G1 X90.424 Y144.329 E0.52470
G1 X90.424 Y144.868 E0.01710
G1 X78.224 Y132.668 E0.54711
G1 X77.725 Y132.708 E0.01589
G1 X90.424 Y145.408 E0.56951
G1 X90.424 Y145.947 E0.01710
G1 X77.234 Y132.756 E0.59154
G1 X76.752 Y132.814 E0.01538
G1 X90.424 Y146.486 E0.61315
G1 X90.424 Y147.026 E0.01710
G1 X89.541 Y146.143 E0.03960
G1 X89.563 Y146.704 E0.01782
G1 X90.424 Y147.565 E0.03861
G1 X90.424 Y148.104 E0.01710
G1 X89.563 Y147.244 E0.03861
G1 X89.563 Y147.783 E0.01710
G1 X90.424 Y148.644 E0.03861
G1 X90.424 Y149.183 E0.01710
G1 X89.563 Y148.322 E0.03861
G1 X89.563 Y148.862 E0.01710
G1 X90.424 Y149.722 E0.03861
G1 X90.424 Y150.262 E0.01710
G1 X89.563 Y149.401 E0.03861
G1 X89.563 Y149.940 E0.01710
G1 X90.424 Y150.801 E0.03861
G1 X90.424 Y151.341 E0.01710
G1 X89.563 Y150.480 E0.03861
G1 X89.563 Y151.019 E0.01710
G1 X90.424 Y151.880 E0.03862
G1 X90.425 Y152.419 E0.01710
G1 X89.563 Y151.558 E0.03862
G1 X89.563 Y152.098 E0.01710
G1 X90.425 Y152.959 E0.03862
G1 X90.425 Y153.498 E0.01710
G1 X89.563 Y152.637 E0.03862
G1 X89.563 Y153.176 E0.01710
G1 X90.425 Y154.037 E0.03862
G1 X90.425 Y154.577 E0.01710
G1 X89.563 Y153.715 E0.03862
G1 X89.563 Y154.255 E0.01710
G1 X90.425 Y155.116 E0.03862
G1 X90.425 Y155.184 E0.00215
G1 X89.953 Y155.184 E0.01496
G1 X89.394 Y154.624 E0.02508
G1 F8640.000
G1 X89.953 Y155.184 E-0.18263
G1 X90.425 Y155.184 E-0.10890
G1 X90.425 Y155.116 E-0.01564
G1 X89.563 Y154.255 E-0.28122
G1 X89.563 Y153.715 E-0.12453
G1 X89.708 Y153.860 E-0.04708
G1 E-0.04000 F2100.00000
G1 Z0.800 F10800.000
G1 X85.593 Y154.599
G1 Z0.200
G1 E0.80000 F2100.00000
G1 F1200.000
G1 X77.250 Y146.256 E0.37415
G1 X77.263 Y146.809 E0.01753
G1 X85.424 Y154.969 E0.36595
G1 X85.424 Y155.184 E0.00681
G1 X85.099 Y155.184 E0.01029
G1 X77.263 Y147.348 E0.35139
G1 X77.263 Y147.887 E0.01710
G1 X84.560 Y155.184 E0.32721
G1 X84.020 Y155.184 E0.01710
G1 X77.263 Y148.427 E0.30302
G1 X77.263 Y148.966 E0.01710
G1 X83.481 Y155.184 E0.27883
G1 X82.942 Y155.184 E0.01710
G1 X77.263 Y149.505 E0.25465
G1 X77.263 Y150.045 E0.01710
G1 X82.402 Y155.184 E0.23046
G1 X81.863 Y155.184 E0.01710
G1 X77.263 Y150.584 E0.20627
G1 X77.263 Y151.123 E0.01710
G1 X81.324 Y155.184 E0.18209
G1 X80.784 Y155.184 E0.01710
G1 X77.263 Y151.663 E0.15790
G1 X77.263 Y152.202 E0.01710
G1 X80.245 Y155.184 E0.13371
G1 X79.706 Y155.184 E0.01710
G1 X77.263 Y152.741 E0.10953
G1 X77.263 Y153.281 E0.01710
G1 X79.166 Y155.184 E0.08534
G1 X78.627 Y155.184 E0.01710
G1 X77.263 Y153.820 E0.06115
G1 X77.263 Y154.359 E0.01710
G1 X78.088 Y155.184 E0.03697
G1 X77.548 Y155.184 E0.01710
G1 X77.094 Y154.729 E0.02039
G1 F8640.000
G1 X77.548 Y155.184 E-0.14846
G1 X78.088 Y155.184 E-0.12453
G1 X77.263 Y154.359 E-0.26916
G1 X77.263 Y153.820 E-0.12453
G1 X77.549 Y154.106 E-0.09331
G1 E-0.04000 F2100.00000
G1 Z0.800 F10800.000
G1 X72.093 Y154.582
G1 Z0.200
G1 E0.80000 F2100.00000
G1 F1200.000
G1 X72.694 Y155.184 E0.02698
G1 X73.124 Y155.184 E0.01361
G1 X73.124 Y155.074 E0.00349
G1 X72.263 Y154.213 E0.03862
G1 X72.263 Y153.673 E0.01710
G1 X73.124 Y154.534 E0.03862
G1 X73.124 Y153.995 E0.01710
G1 X72.263 Y153.134 E0.03862
G1 X72.263 Y152.595 E0.01710
G1 X73.124 Y153.456 E0.03862
G1 X73.124 Y152.916 E0.01710
G1 X72.263 Y152.055 E0.03862
G1 X72.263 Y151.516 E0.01710
G1 X73.124 Y152.377 E0.03861
G1 X73.124 Y151.838 E0.01710
G1 X72.263 Y150.977 E0.03861
G1 X72.263 Y150.437 E0.01710
G1 X73.124 Y151.298 E0.03861
G1 X73.124 Y150.759 E0.01710
G1 X72.263 Y149.898 E0.03861
G1 X72.263 Y149.359 E0.01710
G1 X73.124 Y150.220 E0.03861
G1 X73.124 Y149.680 E0.01710
G1 X72.263 Y148.819 E0.03861
G1 X72.263 Y148.280 E0.01710
G1 X73.124 Y149.141 E0.03861
G1 X73.124 Y148.602 E0.01710
G1 X72.263 Y147.741 E0.03861
G1 X72.263 Y147.202 E0.01710
G1 X73.124 Y148.062 E0.03861
G1 X73.124 Y147.523 E0.01710
G1 X72.263 Y146.662 E0.03860
G1 X72.263 Y146.123 E0.01710
G1 X73.124 Y146.984 E0.03860
G1 X73.124 Y146.444 E0.01710
G1 X72.263 Y145.584 E0.03860
G1 X72.263 Y145.044 E0.01710
G1 X73.187 Y145.969 E0.04146
G1 X73.222 Y145.826 E0.00467
G1 X73.328 Y145.570 E0.00878
G1 X72.263 Y144.505 E0.04776
G1 X72.263 Y143.966 E0.01710
G1 X73.530 Y145.232 E0.05680
G1 X73.787 Y144.950 E0.01211
G1 X72.263 Y143.426 E0.06833
G1 X72.263 Y142.887 E0.01710
G1 X74.093 Y144.717 E0.08206
G1 X74.252 Y144.619 E0.00593
G1 X74.452 Y144.537 E0.00685
G1 X72.263 Y142.348 E0.09816
G1 X72.263 Y141.808 E0.01710
G1 X74.873 Y144.418 E0.11705
G1 X75.194 Y144.393 E0.01020
G1 X75.404 Y144.410 E0.00668
G1 X72.263 Y141.269 E0.14084
G1 X72.263 Y140.730 E0.01710
G1 X85.424 Y153.890 E0.59020
G1 X85.424 Y153.351 E0.01710
G1 X72.263 Y140.191 E0.59019
G1 X72.263 Y139.651 E0.01710
G1 X85.424 Y152.812 E0.59019
G1 X85.424 Y152.272 E0.01710
G1 X72.263 Y139.112 E0.59019
G1 X72.263 Y138.573 E0.01710
G1 X85.424 Y151.733 E0.59019
G1 X85.424 Y151.194 E0.01710
G1 X72.263 Y138.033 E0.59019
G1 X72.263 Y137.494 E0.01710
G1 X85.424 Y150.654 E0.59019
M73 P4 R21
G1 X85.424 Y150.115 E0.01710
G1 X72.263 Y136.955 E0.59019
G1 X72.263 Y136.415 E0.01710
G1 X85.424 Y149.576 E0.59019
G1 X85.424 Y149.036 E0.01710
G1 X72.263 Y135.876 E0.59019
G1 X72.263 Y135.337 E0.01710
G1 X85.424 Y148.497 E0.59019
G1 X85.424 Y147.958 E0.01710
G1 X72.263 Y134.797 E0.59018
G1 X72.263 Y134.258 E0.01710
G1 X85.424 Y147.418 E0.59018
G1 X85.424 Y146.879 E0.01710
G1 X72.263 Y133.719 E0.59018
G1 X72.263 Y133.609 E0.00348
G1 X72.610 Y133.526 E0.01129
G1 X85.430 Y146.346 E0.57493
G1 X85.446 Y146.142 E0.00648
G1 X85.508 Y145.884 E0.00840
G1 X73.050 Y133.427 E0.55866
G1 X73.499 Y133.337 E0.01453
G1 X85.662 Y145.499 E0.54544
G1 X85.878 Y145.176 E0.01233
G1 X73.949 Y133.247 E0.53498
G1 X74.398 Y133.157 E0.01454
G1 X86.143 Y144.902 E0.52671
G1 X86.275 Y144.789 E0.00550
G1 X86.458 Y144.677 E0.00680
G1 X74.863 Y133.083 E0.51997
G1 X75.328 Y133.008 E0.01493
G1 X86.826 Y144.506 E0.51563
G1 X87.169 Y144.419 E0.01124
G1 X87.270 Y144.411 E0.00321
G1 X75.793 Y132.934 E0.51470
G1 X76.270 Y132.872 E0.01526
G1 X88.047 Y144.648 E0.52813
G1 F8640.000
G1 X85.719 Y142.321 E-0.76000
G1 E-0.04000 F2100.00000
G1 Z0.800 F10800.000
G1 X108.464 Y154.026
G1 Z0.200
G1 E0.80000 F2100.00000
G1 F1200.000
G1 X108.268 Y134.324 E0.61779
G1 X124.693 Y134.150 E0.51502
G1 X124.915 Y153.852 E0.61779
G1 X123.775 Y153.810 E0.03576
G1 X123.673 Y144.771 E0.28344
G1 X123.584 Y144.375 E0.01271
G1 X123.422 Y144.020 E0.01223
G1 X123.292 Y143.826 E0.00733
G1 X123.028 Y143.538 E0.01223
G1 X122.697 Y143.304 E0.01272
G1 X122.339 Y143.149 E0.01223
G1 X122.113 Y143.090 E0.00733
G1 X121.724 Y143.054 E0.01223
G1 X121.321 Y143.100 E0.01272
G1 X120.952 Y143.225 E0.01223
G1 X120.745 Y143.333 E0.00733
G1 X120.431 Y143.566 E0.01223
G1 X120.163 Y143.870 E0.01272
G1 X119.972 Y144.210 E0.01223
G1 X119.890 Y144.429 E0.00733
G1 X119.813 Y144.812 E0.01223
G1 X119.902 Y153.849 E0.28336
G1 X113.476 Y153.917 E0.20151
G1 X113.373 Y144.895 E0.28287
G1 X113.334 Y144.665 E0.00732
G1 X113.210 Y144.295 E0.01223
G1 X113.003 Y143.946 E0.01272
G1 X112.729 Y143.648 E0.01272
G1 X112.398 Y143.413 E0.01272
G1 X112.026 Y143.252 E0.01272
G1 X111.628 Y143.171 E0.01272
G1 X111.222 Y143.176 E0.01272
G1 X110.842 Y143.261 E0.01223
G1 X110.624 Y143.347 E0.00733
G1 X110.288 Y143.546 E0.01223
G1 X109.990 Y143.820 E0.01272
G1 X109.764 Y144.138 E0.01223
G1 X109.665 Y144.337 E0.00695
G1 X109.586 Y144.559 E0.00739
G1 X109.514 Y144.922 E0.01161
G1 X109.603 Y153.960 E0.28341
G1 X108.524 Y154.023 E0.03388
G1 X108.546 Y154.399 F10800.000
G1 F1200.000
G1 X108.433 Y154.406 E0.00355
G1 X108.440 Y155.211 E0.02526
G1 X108.419 Y155.760 E0.01722
G1 X108.079 Y155.798 E0.01073
G1 X107.845 Y155.770 E0.00736
G1 X107.631 Y155.641 E0.00784
G1 X108.065 Y155.348 E0.01641
G1 X108.061 Y154.663 E0.02147
G1 X108.086 Y154.173 E0.01539
G1 X108.091 Y153.184 E0.03100
G1 X107.887 Y133.951 E0.60308
G1 X125.066 Y133.768 E0.53867
G1 X125.271 Y153.046 E0.60445
G1 X125.296 Y154.012 E0.03033
G1 X125.332 Y154.491 E0.01505
G1 X125.342 Y155.165 E0.02112
G1 X125.782 Y155.448 E0.01641
G1 X125.571 Y155.582 E0.00784
G1 X125.338 Y155.615 E0.00736
G1 X124.997 Y155.584 E0.01073
G1 X124.964 Y155.036 E0.01722
G1 X124.954 Y154.231 E0.02526
G1 X123.798 Y154.187 E0.03627
G1 X123.402 Y154.190 E0.01241
G1 X123.296 Y144.815 E0.29396
G1 X123.225 Y144.496 E0.01023
G1 X123.091 Y144.204 E0.01006
G1 X122.995 Y144.059 E0.00547
G1 X122.777 Y143.823 E0.01006
G1 X122.511 Y143.634 E0.01023
