; generated by Slic3r Prusa Edition 1.40.1+win64 on 2019-02-21 at 21:01:36

; 

; external perimeters extrusion width = 0.45mm
; perimeters extrusion width = 0.45mm
; infill extrusion width = 0.45mm
; solid infill extrusion width = 0.45mm
; top infill extrusion width = 0.40mm
; first layer extrusion width = 0.42mm

M107
M115 U3.1.0 ; tell printer latest fw version
M201 X9000 Y9000 Z500 E10000 ; sets maximum accelerations, mm/sec^2
M203 X500 Y500 Z12 E120 ; sets maximum feedrates, mm/sec
M204 S1500 T1500 ; sets acceleration (S) and retract acceleration (T)
M205 X10 Y10 Z0.2 E2.5 ; sets the jerk limits, mm/sec
M205 S0 T0 ; sets the minimum extruding and travel feed rate, mm/sec
M83  ; extruder relative mode
M104 S215 ; set extruder temp
M140 S60 ; set bed temp
M190 S60 ; wait for bed temp
M109 S215 ; wait for extruder temp
G28 W ; home all without mesh bed level
G80 ; mesh bed leveling
G1 Y-3.0 F1000.0 ; go outside print area
G92 E0.0
G1 X60.0 E9.0  F1000.0 ; intro line
G1 X100.0 E12.5  F1000.0 ; intro line
G92 E0.0
M900 K30; Filament gcode
G21 ; set units to millimeters
G90 ; use absolute coordinates
M83 ; use relative distances for extrusion
;BEFORE_LAYER_CHANGE
G92 E0.0
;0.2


G1 E-0.80000 F2100.00000
G1 Z0.600 F10800.000
;AFTER_LAYER_CHANGE
;0.2
G1 X69.579 Y78.340
G1 Z0.200
G1 E0.80000 F2100.00000
M204 S1000
G1 F1800
G1 X71.176 Y77.085 E0.06371
G1 X72.998 Y75.980 E0.06679
G1 X75.005 Y75.090 E0.06885
G1 X76.866 Y74.514 E0.06107
G1 X78.781 Y74.159 E0.06107
G1 X80.928 Y74.015 E0.06747
G1 X200.984 Y74.015 E3.76425
G1 X203.044 Y74.139 E0.06472
G1 X204.964 Y74.486 E0.06119
G1 X207.075 Y75.131 E0.06919
G1 X208.961 Y75.980 E0.06485
G1 X210.633 Y76.985 E0.06119
G1 X212.380 Y78.339 E0.06930
G1 X213.841 Y79.799 E0.06473
G1 X215.048 Y81.332 E0.06119
G1 X216.201 Y83.218 E0.06930
G1 X217.049 Y85.101 E0.06474
G1 X217.635 Y86.966 E0.06130
G1 X218.049 Y89.185 E0.07079
G1 X218.169 Y91.203 E0.06338
G1 X218.169 Y161.207 E2.19492
G1 X218.051 Y163.194 E0.06243
G1 X217.672 Y165.305 E0.06725
G1 X217.094 Y167.177 E0.06142
G1 X216.139 Y169.299 E0.07295
G1 X215.122 Y170.973 E0.06142
G1 X213.844 Y172.604 E0.06496
G1 X212.381 Y174.066 E0.06485
G1 X210.784 Y175.321 E0.06371
G1 X208.962 Y176.426 E0.06679
G1 X206.955 Y177.316 E0.06885
G1 X205.094 Y177.892 E0.06107
G1 X203.179 Y178.247 E0.06107
G1 X201.032 Y178.391 E0.06747
G1 X80.914 Y178.391 E3.76620
G1 X78.905 Y178.266 E0.06311
G1 X76.864 Y177.891 E0.06508
G1 X74.885 Y177.275 E0.06497
G1 X72.993 Y176.423 E0.06508
G1 X71.216 Y175.349 E0.06508
G1 X69.585 Y174.072 E0.06497
G1 X68.117 Y172.604 E0.06508
G1 X66.862 Y171.007 E0.06371
G1 X65.757 Y169.185 E0.06679
G1 X64.868 Y167.182 E0.06873
G1 X64.291 Y165.317 E0.06119
G1 X63.937 Y163.406 E0.06096
G1 X63.793 Y161.288 E0.06656
G1 X63.794 Y91.104 E2.20055
G1 X63.918 Y89.125 E0.06220
G1 X64.293 Y87.083 E0.06508
G1 X64.908 Y85.109 E0.06485
G1 X65.762 Y83.213 E0.06520
G1 X66.834 Y81.439 E0.06497
G1 X68.111 Y79.808 E0.06497
G1 X69.536 Y78.383 E0.06320
G1 F8640
G1 X71.176 Y77.085 E-0.48292
G1 X72.203 Y76.463 E-0.27708
G1 E-0.04000 F2100.00000
G1 Z0.800 F10800.000
G1 X184.949 Y120.039
G1 Z0.200
G1 E0.80000 F2100.00000
G1 F1800
G1 X204.057 Y120.039 E0.59913
G1 X202.482 Y130.475 E0.33092
G1 X199.917 Y130.475 E0.08043
G1 X196.121 Y152.301 E0.69461
G1 X198.675 Y152.301 E0.08008
G1 X196.917 Y162.410 E0.32173
G1 X177.171 Y162.410 E0.61911
G1 X178.929 Y152.301 E0.32173
G1 X180.929 Y152.301 E0.06271
G1 X184.725 Y130.475 E0.69461
G1 X182.695 Y130.475 E0.06363
G1 X184.936 Y120.098 E0.33288
G1 X185.253 Y120.416 F10800.000
G1 F1800
G1 X203.619 Y120.416 E0.57585
G1 X202.157 Y130.098 E0.30701
G1 X199.599 Y130.098 E0.08020
G1 X195.672 Y152.678 E0.71861
G1 X198.226 Y152.678 E0.08008
G1 X196.599 Y162.033 E0.29773
G1 X177.619 Y162.033 E0.59511
G1 X179.246 Y152.678 E0.29773
G1 X181.246 Y152.678 E0.06271
G1 X185.173 Y130.098 E0.71861
G1 X183.163 Y130.098 E0.06304
G1 X185.241 Y120.475 E0.30869
G1 X185.254 Y120.016 F10800.000
G1 F8640
G1 X188.532 Y120.464 E-0.76000
G1 E-0.04000 F2100.00000
G1 Z0.800 F10800.000
G1 X163.267 Y112.668
G1 Z0.200
G1 E0.80000 F2100.00000
G1 F1800
G1 X159.642 Y115.812 E0.15046
G1 X145.254 Y115.812 E0.45113
G1 X141.371 Y112.389 E0.16229
G1 X141.371 Y99.022 E0.41910
G1 X149.693 Y99.022 E0.26093
G1 X149.662 Y105.151 E0.19215
G1 X150.309 Y106.120 E0.03653
G1 X154.840 Y106.143 E0.14205
G1 X155.253 Y105.476 E0.02461
G1 X155.286 Y99.019 E0.20244
G1 X163.267 Y99.060 E0.25024
G1 X163.267 Y112.608 E0.42479
G1 X162.890 Y112.496 F10800.000
G1 F1800
G1 X159.501 Y115.435 E0.14065
G1 X145.396 Y115.435 E0.44225
G1 X141.748 Y112.219 E0.15248
G1 X141.748 Y99.399 E0.40194
G1 X149.314 Y99.399 E0.23723
G1 X149.285 Y105.264 E0.18389
G1 X150.107 Y106.496 E0.04643
G1 X155.049 Y106.521 E0.15496
G1 X155.630 Y105.584 E0.03456
G1 X155.661 Y99.398 E0.19395
G1 X162.890 Y99.435 E0.22665
G1 X162.890 Y112.436 E0.40763
G1 X163.130 Y112.815 F10800.000
G1 F8640
G1 X160.425 Y114.617 E-0.76000
G1 E-0.04000 F2100.00000
G1 Z0.800 F10800.000
G1 X166.836 Y111.170
G1 Z0.200
G1 E0.80000 F2100.00000
G1 F1800
G1 X166.836 Y101.645 E0.29866
G1 X177.005 Y91.475 E0.45094
G1 X166.837 Y91.475 E0.31882
G1 X166.815 Y82.357 E0.28591
G1 X190.316 Y82.476 E0.73684
G1 X190.272 Y90.971 E0.26635
G1 X177.010 Y105.120 E0.60807
G1 X177.010 Y106.654 E0.04810
G1 X177.646 Y107.326 E0.02901
G1 X180.325 Y107.326 E0.08401
G1 X181.339 Y106.980 E0.03358
G1 X181.339 Y103.298 E0.11546
G1 X191.789 Y103.351 E0.32766
G1 X191.789 Y111.196 E0.24596
G1 X185.606 Y115.475 E0.23577
G1 X172.217 Y115.475 E0.41981
G1 X166.882 Y111.208 E0.21419
G1 X167.213 Y110.989 F10800.000
G1 F1800
G1 X167.213 Y101.801 E0.28808
G1 X177.916 Y91.098 E0.47459
G1 X167.213 Y91.098 E0.33557
G1 X167.193 Y82.736 E0.26220
G1 X189.937 Y82.851 E0.71310
G1 X189.896 Y90.821 E0.24989
G1 X176.633 Y104.971 E0.60810
G1 X176.633 Y106.804 E0.05748
G1 X177.484 Y107.703 E0.03880
G1 X180.388 Y107.703 E0.09106
G1 X181.716 Y107.250 E0.04400
G1 X181.716 Y103.677 E0.11203
G1 X191.412 Y103.726 E0.30401
G1 X191.412 Y110.998 E0.22800
G1 X185.488 Y115.098 E0.22589
G1 X172.349 Y115.098 E0.41197
G1 X167.260 Y111.026 E0.20436
G1 X166.814 Y110.959 F10800.000
G1 F8640
G1 X167.243 Y107.735 E-0.76000
G1 E-0.04000 F2100.00000
G1 Z0.800 F10800.000
G1 X163.267 Y96.938
G1 Z0.200
G1 E0.80000 F2100.00000
G1 F1800
G1 X155.297 Y96.897 E0.24990
G1 X155.320 Y92.290 E0.14445
G1 X154.108 Y90.474 E0.06848
G1 X151.018 Y90.458 E0.09688
G1 X149.733 Y91.316 E0.04845
G1 X149.704 Y96.921 E0.17575
G1 X141.367 Y96.921 E0.26141
G1 X141.461 Y84.765 E0.38117
G1 X144.088 Y82.416 E0.11047
G1 X161.131 Y82.416 E0.53439
G1 X163.267 Y84.805 E0.10046
G1 X163.267 Y96.878 E0.37853
G1 X162.890 Y96.559 F10800.000
G1 F1800
G1 X155.676 Y96.522 E0.22619
G1 X155.698 Y92.177 E0.13625
G1 X154.310 Y90.097 E0.07838
G1 X150.904 Y90.080 E0.10678
G1 X149.357 Y91.113 E0.05835
G1 X149.329 Y96.544 E0.17027
G1 X141.747 Y96.544 E0.23773
G1 X141.837 Y84.934 E0.36402
G1 X144.232 Y82.793 E0.10072
G1 X160.963 Y82.793 E0.52458
G1 X162.890 Y84.949 E0.09065
G1 X162.890 Y96.499 E0.36214
G1 X162.907 Y96.958 F10800.000
G1 F8640
G1 X159.598 Y96.509 E-0.76000
G1 E-0.04000 F2100.00000
G1 Z0.800 F10800.000
G1 X138.010 Y103.301
G1 Z0.200
G1 E0.80000 F2100.00000
G1 F1800
G1 X138.010 Y110.161 E0.21509
G1 X131.312 Y115.812 E0.27476
G1 X123.836 Y115.812 E0.23442
G1 X123.836 Y90.475 E0.79442
G1 X119.836 Y90.475 E0.12542
G1 X119.836 Y82.301 E0.25629
G1 X137.010 Y82.301 E0.53848
G1 X137.010 Y90.475 E0.25629
G1 X134.010 Y90.475 E0.09406
G1 X134.010 Y103.301 E0.40215
G1 X137.950 Y103.301 E0.12354
G1 X137.633 Y103.678 F10800.000
G1 F1800
G1 X137.633 Y109.986 E0.19777
G1 X131.174 Y115.435 E0.26495
G1 X124.213 Y115.435 E0.21828
G1 X124.213 Y90.098 E0.79442
G1 X120.213 Y90.098 E0.12542
G1 X120.213 Y82.678 E0.23265
G1 X136.633 Y82.678 E0.51484
G1 X136.633 Y90.098 E0.23265
G1 X133.633 Y90.098 E0.09406
G1 X133.633 Y103.678 E0.42579
G1 X137.573 Y103.678 E0.12354
G1 X137.997 Y103.844 F10800.000
G1 F8640
G1 X137.604 Y106.969 E-0.76000
G1 E-0.04000 F2100.00000
G1 Z0.800 F10800.000
G1 X93.772 Y82.473
G1 Z0.200
G1 E0.80000 F2100.00000
G1 F1800
G1 X119.010 Y82.473 E0.79132
G1 X119.010 Y90.980 E0.26675
G1 X104.910 Y105.080 E0.62521
G1 X104.910 Y106.645 E0.04906
G1 X105.701 Y107.436 E0.03507
G1 X108.180 Y107.436 E0.07771
G1 X108.403 Y107.212 E0.00991
G1 X108.403 Y103.301 E0.12264
G1 X118.010 Y103.301 E0.30121
G1 X118.010 Y111.131 E0.24551
G1 X113.666 Y115.475 E0.19262
G1 X99.212 Y115.475 E0.45319
G1 X93.975 Y111.165 E0.21266
G1 X93.975 Y100.255 E0.34208
G1 X102.906 Y91.324 E0.39599
G1 X93.989 Y91.324 E0.27956
G1 X93.773 Y82.533 E0.27573
G1 X94.158 Y82.850 F10800.000
G1 F1800
G1 X118.633 Y82.850 E0.76738
G1 X118.633 Y90.824 E0.25003
G1 X104.533 Y104.924 E0.62521
G1 X104.533 Y106.801 E0.05885
G1 X105.545 Y107.813 E0.04487
G1 X108.336 Y107.813 E0.08751
G1 X108.780 Y107.368 E0.01971
G1 X108.780 Y103.678 E0.11571
G1 X117.633 Y103.678 E0.27757
G1 X117.633 Y110.975 E0.22879
G1 X113.510 Y115.098 E0.18282
G1 X99.347 Y115.098 E0.44405
G1 X94.352 Y110.987 E0.20284
G1 X94.352 Y100.411 E0.33161
G1 X103.816 Y90.947 E0.41964
G1 X94.357 Y90.947 E0.29657
G1 X94.160 Y82.910 E0.25208
G1 X94.043 Y82.467 F10800.000
G1 F8640
G1 X97.451 Y82.902 E-0.76000
G1 E-0.04000 F2100.00000
G1 Z0.800 F10800.000
G1 X92.822 Y120.039
G1 Z0.200
G1 E0.80000 F2100.00000
G1 F1800
G1 X115.088 Y120.039 E0.69813
G1 X112.893 Y130.504 E0.33528
G1 X110.330 Y130.350 E0.08051
G1 X106.689 Y153.147 E0.72384
G1 X108.511 Y153.438 E0.05787
G1 X106.904 Y161.475 E0.25698
G1 X73.707 Y161.475 E1.04088
G1 X75.941 Y150.301 E0.35730
G1 X88.354 Y150.301 E0.38919
G1 X88.354 Y151.964 E0.05216
G1 X92.300 Y151.964 E0.12373
G1 X93.618 Y147.850 E0.13545
G1 X82.082 Y147.850 E0.36170
G1 X84.946 Y134.197 E0.43741
G1 X94.869 Y134.197 E0.31114
G1 X95.700 Y130.238 E0.12681
G1 X90.683 Y130.238 E0.15729
G1 X92.810 Y120.098 E0.32487
G1 X93.128 Y120.416 F10800.000
G1 F1800
G1 X114.624 Y120.416 E0.67397
G1 X112.591 Y130.109 E0.31051
G1 X110.012 Y129.953 E0.08102
G1 X106.257 Y153.460 E0.74638
G1 X108.065 Y153.749 E0.05740
G1 X106.595 Y161.098 E0.23499
G1 X74.167 Y161.098 E1.01677
G1 X76.251 Y150.678 E0.33318
G1 X87.977 Y150.678 E0.36768
G1 X87.977 Y152.341 E0.05216
G1 X92.576 Y152.341 E0.14418
G1 X94.135 Y147.473 E0.16028
G1 X82.547 Y147.473 E0.36334
G1 X85.252 Y134.574 E0.41325
G1 X95.176 Y134.574 E0.31114
G1 X96.164 Y129.861 E0.15097
G1 X91.148 Y129.861 E0.15729
G1 X93.116 Y120.475 E0.30071
G1 X93.087 Y120.018 F10800.000
G1 F8640
G1 X96.408 Y120.466 E-0.76000
G1 E-0.04000 F2100.00000
G1 Z0.800 F10800.000
G1 X147.426 Y130.279
G1 Z0.200
G1 E0.80000 F2100.00000
G1 F1800
G1 X149.543 Y120.034 E0.32804
G1 X174.117 Y120.309 E0.77054
G1 X172.429 Y130.218 E0.31519
G1 X171.081 Y130.394 E0.04262
G1 X173.938 Y152.301 E0.69269
G1 X177.088 Y152.301 E0.09875
G1 X175.941 Y161.475 E0.28989
G1 X155.700 Y161.475 E0.63465
G1 X157.646 Y152.195 E0.29731
G1 X159.680 Y151.517 E0.06722
G1 X157.270 Y144.286 E0.23898
G1 X152.526 Y152.208 E0.28952
G1 X154.417 Y152.524 E0.06010
G1 X152.920 Y161.475 E0.28454
G1 X130.729 Y161.475 E0.69577
G1 X132.213 Y152.603 E0.28204
G1 X133.760 Y152.388 E0.04897
G1 X132.680 Y144.633 E0.24548
G1 X128.420 Y152.301 E0.27503
G1 X129.451 Y152.301 E0.03231
G1 X127.923 Y161.864 E0.30365
G1 X108.394 Y161.864 E0.61232
G1 X109.922 Y152.301 E0.30365
G1 X113.065 Y152.301 E0.09856
G1 X124.458 Y130.279 E0.77739
G1 X122.589 Y130.279 E0.05859
G1 X124.225 Y120.039 E0.32515
G1 X148.920 Y120.039 E0.77430
G1 X147.284 Y130.279 E0.32515
G1 X145.914 Y130.279 E0.04296
G1 X146.996 Y134.688 E0.14232
G1 X149.428 Y130.279 E0.15787
G1 X147.486 Y130.279 E0.06091
G1 X147.889 Y129.902 F10800.000
G1 F1800
G1 X149.850 Y120.414 E0.30378
G1 X173.671 Y120.681 E0.74695
G1 X172.104 Y129.881 E0.29261
G1 X170.658 Y130.069 E0.04571
G1 X173.607 Y152.678 E0.71489
G1 X176.661 Y152.678 E0.09574
G1 X175.608 Y161.098 E0.26606
G1 X156.164 Y161.098 E0.60965
G1 X157.971 Y152.484 E0.27596
G1 X160.157 Y151.755 E0.07226
G1 X157.368 Y143.388 E0.27654
G1 X151.919 Y152.489 E0.33259
G1 X153.983 Y152.834 E0.06562
G1 X152.600 Y161.098 E0.26271
G1 X131.175 Y161.098 E0.67179
G1 X132.540 Y152.938 E0.25940
G1 X134.186 Y152.709 E0.05211
G1 X132.898 Y143.464 E0.29266
G1 X127.780 Y152.678 E0.33048
G1 X129.009 Y152.678 E0.03854
G1 X127.602 Y161.487 E0.27970
G1 X108.837 Y161.487 E0.58837
G1 X110.244 Y152.678 E0.27970
G1 X113.295 Y152.678 E0.09567
G1 X125.078 Y129.902 E0.80402
G1 X123.031 Y129.902 E0.06416
G1 X124.546 Y120.416 E0.30121
G1 X148.478 Y120.416 E0.75035
G1 X146.963 Y129.902 E0.30121
G1 X145.433 Y129.902 E0.04795
G1 X146.859 Y135.715 E0.18766
G1 X150.067 Y129.902 E0.20816
G1 X147.949 Y129.902 E0.06642
G1 X147.587 Y129.639 F10800.000
G1 F8640
G1 X148.595 Y126.675 E-0.76000
G1 E-0.04000 F2100.00000
G1 Z0.800 F10800.000
G1 X147.949 Y175.616
G1 Z0.200
G1 E0.80000 F2100.00000
G1 F1800
G1 X80.998 Y175.616 E2.09920
G1 X79.243 Y175.510 E0.05512
G1 X77.531 Y175.196 E0.05457
G1 X75.869 Y174.678 E0.05457
G1 X74.282 Y173.964 E0.05457
G1 X72.793 Y173.064 E0.05457
G1 X71.423 Y171.991 E0.05457
G1 X70.193 Y170.760 E0.05457
G1 X69.119 Y169.390 E0.05457
G1 X68.219 Y167.901 E0.05457
G1 X67.505 Y166.314 E0.05457
G1 X66.987 Y164.652 E0.05457
G1 X66.673 Y162.940 E0.05457
G1 X66.567 Y161.185 E0.05512
G1 X66.567 Y91.221 E2.19369
G1 X66.673 Y89.466 E0.05512
G1 X66.987 Y87.754 E0.05457
G1 X67.505 Y86.093 E0.05457
G1 X68.219 Y84.506 E0.05457
G1 X69.119 Y83.016 E0.05457
G1 X70.193 Y81.646 E0.05457
G1 X71.423 Y80.416 E0.05457
G1 X72.793 Y79.342 E0.05457
G1 X74.282 Y78.442 E0.05457
G1 X75.869 Y77.728 E0.05457
G1 X77.531 Y77.210 E0.05457
G1 X79.243 Y76.896 E0.05457
G1 X80.998 Y76.790 E0.05512
G1 X200.962 Y76.790 E3.76140
G1 X202.717 Y76.896 E0.05512
G1 X204.429 Y77.210 E0.05457
G1 X206.091 Y77.728 E0.05457
G1 X207.678 Y78.442 E0.05457
G1 X209.167 Y79.342 E0.05457
G1 X210.537 Y80.416 E0.05457
G1 X211.767 Y81.646 E0.05457
G1 X212.841 Y83.016 E0.05457
G1 X213.741 Y84.506 E0.05457
G1 X214.455 Y86.093 E0.05457
G1 X214.973 Y87.754 E0.05457
G1 X215.287 Y89.466 E0.05457
G1 X215.393 Y91.221 E0.05512
G1 X215.393 Y161.185 E2.19369
G1 X215.287 Y162.940 E0.05512
G1 X214.973 Y164.652 E0.05457
G1 X214.455 Y166.314 E0.05457
G1 X213.741 Y167.901 E0.05457
G1 X212.841 Y169.390 E0.05457
G1 X211.767 Y170.760 E0.05457
G1 X210.537 Y171.991 E0.05457
G1 X209.167 Y173.064 E0.05457
G1 X207.678 Y173.964 E0.05457
G1 X206.091 Y174.678 E0.05457
G1 X204.539 Y175.162 E0.05095
G1 X204.429 Y175.196 E0.00362
G1 X202.717 Y175.510 E0.05457
G1 X200.962 Y175.616 E0.05512
G1 X148.009 Y175.616 E1.66032
G1 X148.009 Y175.993 F10800.000
G1 F1800
G1 X80.986 Y175.993 E2.10144
G1 X79.197 Y175.885 E0.05620
G1 X77.441 Y175.563 E0.05600
G1 X75.736 Y175.032 E0.05600
G1 X74.107 Y174.299 E0.05600
G1 X72.579 Y173.375 E0.05600
G1 X71.173 Y172.273 E0.05600
G1 X69.910 Y171.010 E0.05600
G1 X68.808 Y169.605 E0.05600
G1 X67.884 Y168.076 E0.05600
G1 X67.151 Y166.448 E0.05600
G1 X66.620 Y164.743 E0.05600
G1 X66.298 Y162.986 E0.05600
G1 X66.190 Y161.197 E0.05620
G1 X66.190 Y91.209 E2.19440
G1 X66.298 Y89.420 E0.05620
G1 X66.620 Y87.664 E0.05600
G1 X67.151 Y85.959 E0.05600
G1 X67.884 Y84.330 E0.05600
G1 X68.808 Y82.802 E0.05600
G1 X69.910 Y81.396 E0.05600
G1 X71.173 Y80.133 E0.05600
G1 X72.579 Y79.032 E0.05600
G1 X74.107 Y78.108 E0.05600
G1 X75.736 Y77.375 E0.05600
G1 X77.441 Y76.843 E0.05600
G1 X79.197 Y76.521 E0.05600
G1 X80.986 Y76.413 E0.05620
G1 X200.974 Y76.413 E3.76212
G1 X202.763 Y76.521 E0.05620
G1 X204.519 Y76.843 E0.05600
G1 X206.224 Y77.375 E0.05600
G1 X207.853 Y78.108 E0.05600
G1 X209.381 Y79.032 E0.05600
G1 X210.787 Y80.133 E0.05600
G1 X212.050 Y81.396 E0.05600
G1 X213.152 Y82.802 E0.05600
G1 X214.076 Y84.330 E0.05600
G1 X214.809 Y85.959 E0.05600
G1 X215.340 Y87.664 E0.05600
G1 X215.662 Y89.420 E0.05600
G1 X215.770 Y91.209 E0.05620
G1 X215.770 Y161.197 E2.19440
G1 X215.662 Y162.986 E0.05620
G1 X215.340 Y164.743 E0.05600
G1 X214.809 Y166.448 E0.05600
G1 X214.076 Y168.076 E0.05600
G1 X213.152 Y169.605 E0.05600
G1 X212.050 Y171.010 E0.05600
G1 X210.787 Y172.273 E0.05600
G1 X209.381 Y173.375 E0.05600
G1 X207.853 Y174.299 E0.05600
G1 X206.224 Y175.032 E0.05600
