; generated by Slic3r Prusa Edition 1.40.1+win64 on 2018-11-04 at 15:30:44

; 

; external perimeters extrusion width = 0.60mm
; perimeters extrusion width = 0.43mm
; infill extrusion width = 0.45mm
; solid infill extrusion width = 0.70mm
; top infill extrusion width = 0.43mm
; first layer extrusion width = 0.42mm

M107
M115 U3.1.0 ; tell printer latest fw version
M201 X9000 Y9000 Z500 E10000 ; sets maximum accelerations, mm/sec^2
M203 X500 Y500 Z12 E120 ; sets maximum feedrates, mm/sec
M204 S1500 T1500 ; sets acceleration (S) and retract acceleration (T)
M205 X10 Y10 Z0.2 E2.5 ; sets the jerk limits, mm/sec
M205 S0 T0 ; sets the minimum extruding and travel feed rate, mm/sec
M83  ; extruder relative mode
M104 S215 ; set extruder temp
M140 S60 ; set bed temp
M190 S60 ; wait for bed temp
M109 S215 ; wait for extruder temp
G28 W ; home all without mesh bed level
G80 ; mesh bed leveling
G1 Y-3.0 F1000.0 ; go outside print area
G92 E0.0
G1 X60.0 E9.0  F1000.0 ; intro line
G1 X100.0 E12.5  F1000.0 ; intro line
G92 E0.0
M900 K30; Filament gcode
G21 ; set units to millimeters
G90 ; use absolute coordinates
M83 ; use relative distances for extrusion
;BEFORE_LAYER_CHANGE
G92 E0.0
;0.2


G1 E-0.80000 F2100.00000
G1 Z0.600 F10800.000
;AFTER_LAYER_CHANGE
;0.2
G1 X51.559 Y81.598
G1 Z0.200
G1 E0.80000 F2100.00000
M204 S1000
G1 F1800
G1 X52.067 Y81.264 E0.01908
G1 X52.522 Y81.107 E0.01510
G1 X53.001 Y81.054 E0.01510
G1 X210.679 Y81.054 E4.94389
G1 X211.509 Y81.219 E0.02653
G1 X212.214 Y81.686 E0.02653
G1 X212.690 Y82.387 E0.02653
G1 X212.864 Y83.215 E0.02653
G1 X212.864 Y155.634 E2.27065
G1 X212.770 Y156.231 E0.01896
G1 X212.515 Y156.783 E0.01908
G1 X212.120 Y157.241 E0.01896
G1 X211.611 Y157.576 E0.01908
G1 X211.156 Y157.732 E0.01510
G1 X210.678 Y157.786 E0.01510
G1 X52.988 Y157.786 E4.94423
G1 X52.383 Y157.696 E0.01919
G1 X51.826 Y157.442 E0.01919
G1 X51.361 Y157.044 E0.01919
G1 X51.025 Y156.533 E0.01919
G1 X50.869 Y156.081 E0.01498
G1 X50.815 Y155.603 E0.01510
G1 X50.815 Y83.213 E2.26973
G1 X50.907 Y82.612 E0.01908
G1 X51.162 Y82.059 E0.01908
G1 X51.520 Y81.644 E0.01719
G1 F8640
G1 X52.067 Y81.264 E-0.15384
G1 X52.522 Y81.107 E-0.11117
G1 X53.001 Y81.054 E-0.11117
G1 X54.663 Y81.054 E-0.38382
G1 E-0.04000 F2100.00000
G1 Z0.800 F10800.000
G1 X114.113 Y102.660
G1 Z0.200
G1 E0.80000 F2100.00000
G1 F1800
G1 X121.896 Y94.109 E0.36256
G1 X144.969 Y94.303 E0.72344
G1 X152.288 Y102.667 E0.34848
G1 X152.288 Y113.475 E0.33887
G1 X138.442 Y113.475 E0.43413
G1 X138.442 Y107.071 E0.20078
G1 X136.512 Y105.691 E0.07438
G1 X129.994 Y105.691 E0.20438
G1 X128.288 Y108.076 E0.09195
G1 X128.288 Y131.586 E0.73713
G1 X129.353 Y132.348 E0.04105
G1 X137.441 Y132.348 E0.25359
G1 X138.113 Y131.650 E0.03038
G1 X138.113 Y125.301 E0.19910
G1 X153.123 Y125.301 E0.47060
G1 X153.123 Y135.890 E0.33203
G1 X144.526 Y144.795 E0.38807
G1 X122.047 Y144.795 E0.70484
G1 X114.113 Y137.137 E0.34572
G1 X114.113 Y102.720 E1.07910
G1 X114.491 Y102.806 F10800.000
G1 F1800
G1 X122.062 Y94.487 E0.35270
G1 X144.797 Y94.678 E0.71285
G1 X151.911 Y102.809 E0.33873
G1 X151.911 Y113.098 E0.32260
G1 X138.819 Y113.098 E0.41049
G1 X138.819 Y106.877 E0.19503
G1 X136.633 Y105.314 E0.08425
G1 X129.800 Y105.314 E0.21425
G1 X127.911 Y107.955 E0.10182
G1 X127.911 Y131.780 E0.74701
G1 X129.232 Y132.725 E0.05093
G1 X137.601 Y132.725 E0.26241
G1 X138.491 Y131.803 E0.04017
G1 X138.491 Y125.678 E0.19205
G1 X152.745 Y125.678 E0.44695
G1 X152.745 Y135.738 E0.31543
G1 X144.366 Y144.418 E0.37827
G1 X122.199 Y144.418 E0.69505
G1 X114.491 Y136.977 E0.33593
G1 X114.491 Y102.866 E1.06951
G1 X114.259 Y102.480 F10800.000
G1 F8640
G1 X116.697 Y100.424 E-0.76000
G1 E-0.04000 F2100.00000
G1 Z0.800 F10800.000
G1 X102.944 Y94.301
G1 Z0.200
G1 E0.80000 F2100.00000
G1 F1800
G1 X111.288 Y102.644 E0.36998
G1 X111.288 Y112.475 E0.30822
G1 X96.694 Y112.475 E0.45756
G1 X96.694 Y106.869 E0.17576
G1 X95.491 Y105.882 E0.04881
G1 X87.978 Y105.882 E0.23554
G1 X86.161 Y108.098 E0.08984
G1 X86.161 Y112.095 E0.12535
G1 X87.938 Y113.810 E0.07741
G1 X102.606 Y113.810 E0.45993
G1 X110.716 Y121.638 E0.35341
G1 X110.716 Y136.366 E0.46177
G1 X102.579 Y144.795 E0.36733
G1 X80.862 Y144.795 E0.68093
G1 X72.143 Y136.378 E0.37998
G1 X72.143 Y126.301 E0.31598
G1 X86.789 Y126.301 E0.45922
G1 X86.789 Y131.085 E0.15002
G1 X87.938 Y132.194 E0.05007
G1 X95.195 Y132.194 E0.22753
G1 X95.959 Y129.796 E0.07892
G1 X95.959 Y126.919 E0.09022
G1 X94.463 Y125.475 E0.06520
G1 X80.463 Y125.475 E0.43896
G1 X72.143 Y117.442 E0.36262
G1 X72.143 Y101.841 E0.48917
G1 X80.474 Y94.301 E0.35234
G1 X102.884 Y94.301 E0.70263
G1 X102.787 Y94.678 F10800.000
G1 F1800
G1 X110.911 Y102.801 E0.36019
G1 X110.911 Y112.098 E0.29150
G1 X97.072 Y112.098 E0.43391
G1 X97.072 Y106.691 E0.16953
G1 X95.625 Y105.505 E0.05864
G1 X87.800 Y105.505 E0.24536
G1 X85.784 Y107.963 E0.09967
G1 X85.784 Y112.255 E0.13460
G1 X87.785 Y114.187 E0.08720
G1 X102.454 Y114.187 E0.45993
G1 X110.339 Y121.798 E0.34362
G1 X110.339 Y136.214 E0.45198
G1 X102.419 Y144.418 E0.35754
G1 X81.014 Y144.418 E0.67114
G1 X72.520 Y136.218 E0.37018
G1 X72.520 Y126.678 E0.29913
G1 X86.412 Y126.678 E0.43557
G1 X86.412 Y131.245 E0.14322
G1 X87.785 Y132.572 E0.05987
G1 X95.470 Y132.572 E0.24095
G1 X96.336 Y129.855 E0.08940
G1 X96.336 Y126.759 E0.09708
G1 X94.616 Y125.098 E0.07499
G1 X80.616 Y125.098 E0.43896
G1 X72.520 Y117.282 E0.35283
G1 X72.520 Y102.008 E0.47890
G1 X80.620 Y94.678 E0.34254
G1 X102.727 Y94.678 E0.69318
G1 X103.117 Y94.451 F10800.000
G1 F8640
G1 X105.063 Y96.996 E-0.76000
G1 E-0.04000 F2100.00000
G1 Z0.800 F10800.000
G1 X155.633 Y94.301
G1 Z0.200
G1 E0.80000 F2100.00000
G1 F1800
G1 X193.288 Y94.301 E1.18063
G1 X193.288 Y108.475 E0.44442
G1 X181.113 Y108.475 E0.38171
G1 X181.113 Y105.475 E0.09406
G1 X173.288 Y105.475 E0.24537
G1 X173.288 Y112.877 E0.23210
G1 X174.113 Y112.877 E0.02589
G1 X174.113 Y111.301 E0.04944
G1 X186.288 Y111.301 E0.38171
G1 X186.288 Y127.475 E0.50713
G1 X174.113 Y127.475 E0.38171
G1 X174.113 Y124.879 E0.08139
G1 X173.288 Y124.879 E0.02589
G1 X173.288 Y132.548 E0.24044
G1 X178.638 Y132.548 E0.16776
G1 X178.638 Y144.795 E0.38401
G1 X155.583 Y144.795 E0.72286
G1 X155.583 Y132.301 E0.39175
G1 X158.113 Y132.301 E0.07932
G1 X158.113 Y105.475 E0.84111
G1 X155.633 Y105.475 E0.07777
G1 X155.633 Y94.361 E0.34848
G1 X156.010 Y94.678 F10800.000
G1 F1800
G1 X192.911 Y94.678 E1.15699
G1 X192.911 Y108.098 E0.42077
G1 X181.491 Y108.098 E0.35807
G1 X181.491 Y105.098 E0.09406
G1 X172.911 Y105.098 E0.26902
G1 X172.911 Y113.254 E0.25575
G1 X174.491 Y113.254 E0.04954
G1 X174.491 Y111.678 E0.04944
G1 X185.911 Y111.678 E0.35807
G1 X185.911 Y127.098 E0.48348
G1 X174.491 Y127.098 E0.35807
G1 X174.491 Y124.502 E0.08139
G1 X172.911 Y124.502 E0.04954
G1 X172.911 Y132.925 E0.26409
G1 X178.261 Y132.925 E0.16776
G1 X178.261 Y144.418 E0.36036
G1 X155.961 Y144.418 E0.69922
G1 X155.961 Y132.678 E0.36811
G1 X158.491 Y132.678 E0.07932
G1 X158.491 Y105.098 E0.86475
G1 X156.010 Y105.098 E0.07777
G1 X156.010 Y94.738 E0.32483
G1 X155.979 Y94.279 F10800.000
G1 F8640
G1 X159.302 Y94.732 E-0.76000
G1 E-0.04000 F2100.00000
G1 Z0.800 F10800.000
G1 X210.088 Y83.830
G1 Z0.200
G1 E0.80000 F2100.00000
G1 F1800
G1 X210.088 Y155.010 E2.23182
G1 X53.590 Y155.010 E4.90689
G1 X53.590 Y83.830 E2.23182
G1 X210.028 Y83.830 E4.90501
G1 X210.465 Y83.453 F10800.000
G1 F1800
G1 X210.465 Y155.387 E2.25546
G1 X53.213 Y155.387 E4.93054
G1 X53.213 Y83.453 E2.25546
G1 X210.405 Y83.453 E4.92866
G1 X210.317 Y83.824 F10800.000
G1 F8640
G1 X210.408 Y86.744 E-0.76000
G1 E-0.04000 F2100.00000
G1 Z0.800 F10800.000
G1 X209.975 Y84.705
G1 Z0.200
G1 E0.80000 F2100.00000
G1 F1800
G1 X209.382 Y84.112 E0.02631
G1 X208.849 Y84.112 E0.01674
G1 X209.806 Y85.069 E0.04246
G1 X209.806 Y85.603 E0.01674
G1 X208.315 Y84.112 E0.06613
G1 X207.781 Y84.112 E0.01674
G1 X209.806 Y86.136 E0.08980
G1 X209.806 Y86.670 E0.01674
G1 X207.248 Y84.112 E0.11347
G1 X206.714 Y84.112 E0.01674
G1 X209.806 Y87.204 E0.13715
G1 X209.806 Y87.737 E0.01674
G1 X206.181 Y84.112 E0.16082
G1 X205.647 Y84.112 E0.01674
G1 X209.806 Y88.271 E0.18449
G1 X209.806 Y88.804 E0.01674
G1 X205.114 Y84.112 E0.20816
G1 X204.580 Y84.112 E0.01674
G1 X209.806 Y89.338 E0.23184
G1 X209.806 Y89.871 E0.01674
G1 X204.046 Y84.112 E0.25551
G1 X203.513 Y84.112 E0.01674
G1 X209.806 Y90.405 E0.27918
G1 X209.806 Y90.939 E0.01674
G1 X202.979 Y84.112 E0.30286
G1 X202.446 Y84.112 E0.01674
G1 X209.806 Y91.472 E0.32653
G1 X209.806 Y92.006 E0.01674
G1 X201.912 Y84.112 E0.35020
G1 X201.379 Y84.112 E0.01674
G1 X209.806 Y92.539 E0.37387
G1 X209.806 Y93.073 E0.01674
G1 X200.845 Y84.112 E0.39755
G1 X200.311 Y84.112 E0.01674
G1 X209.806 Y93.606 E0.42122
G1 X209.806 Y94.140 E0.01674
G1 X199.778 Y84.112 E0.44489
G1 X199.244 Y84.112 E0.01674
G1 X209.806 Y94.674 E0.46857
G1 X209.806 Y95.207 E0.01674
G1 X198.711 Y84.112 E0.49224
G1 X198.177 Y84.112 E0.01674
G1 X209.806 Y95.741 E0.51591
G1 X209.806 Y96.274 E0.01674
G1 X197.644 Y84.112 E0.53958
G1 X197.110 Y84.112 E0.01674
G1 X209.806 Y96.808 E0.56326
G1 X209.806 Y97.341 E0.01674
G1 X196.576 Y84.112 E0.58693
G1 X196.043 Y84.112 E0.01674
G1 X209.806 Y97.875 E0.61060
G1 X209.806 Y98.409 E0.01674
G1 X195.509 Y84.112 E0.63427
G1 X194.976 Y84.112 E0.01674
G1 X209.806 Y98.942 E0.65795
G1 X209.806 Y99.476 E0.01674
G1 X194.442 Y84.112 E0.68162
G1 X193.909 Y84.112 E0.01674
G1 X209.806 Y100.009 E0.70529
G1 X209.806 Y100.543 E0.01674
G1 X193.375 Y84.112 E0.72897
G1 X192.841 Y84.112 E0.01674
G1 X209.806 Y101.076 E0.75264
G1 X209.806 Y101.610 E0.01674
G1 X192.308 Y84.112 E0.77631
G1 X191.774 Y84.112 E0.01674
G1 X209.806 Y102.144 E0.79998
G1 X209.806 Y102.677 E0.01674
G1 X191.241 Y84.112 E0.82366
G1 X190.707 Y84.112 E0.01674
G1 X209.806 Y103.211 E0.84733
G1 X209.806 Y103.744 E0.01674
G1 X190.174 Y84.112 E0.87100
G1 X189.640 Y84.112 E0.01674
G1 X209.806 Y104.278 E0.89468
G1 X209.806 Y104.811 E0.01674
G1 X189.106 Y84.112 E0.91835
G1 X188.573 Y84.112 E0.01674
G1 X209.806 Y105.345 E0.94202
G1 X209.806 Y105.879 E0.01674
G1 X188.039 Y84.112 E0.96569
G1 X187.506 Y84.112 E0.01674
G1 X209.806 Y106.412 E0.98937
G1 X209.806 Y106.946 E0.01674
G1 X186.972 Y84.112 E1.01304
G1 X186.439 Y84.112 E0.01674
G1 X209.806 Y107.479 E1.03671
G1 X209.806 Y108.013 E0.01674
G1 X185.905 Y84.112 E1.06038
G1 X185.371 Y84.112 E0.01674
G1 X209.806 Y108.546 E1.08406
G1 X209.806 Y109.080 E0.01674
G1 X184.838 Y84.112 E1.10773
G1 X184.304 Y84.112 E0.01674
G1 X209.806 Y109.614 E1.13140
G1 X209.806 Y110.147 E0.01674
G1 X183.771 Y84.112 E1.15508
G1 X183.237 Y84.112 E0.01674
G1 X193.143 Y94.018 E0.43947
G1 X192.609 Y94.018 E0.01674
G1 X182.704 Y84.112 E0.43947
G1 X182.170 Y84.112 E0.01674
G1 X192.075 Y94.018 E0.43947
G1 X191.542 Y94.018 E0.01674
G1 X181.636 Y84.112 E0.43947
G1 X181.103 Y84.112 E0.01674
G1 X191.008 Y94.018 E0.43947
G1 X190.475 Y94.018 E0.01674
G1 X180.569 Y84.112 E0.43947
G1 X180.036 Y84.112 E0.01674
G1 X189.941 Y94.018 E0.43947
G1 X189.408 Y94.018 E0.01674
G1 X179.502 Y84.112 E0.43947
G1 X178.969 Y84.112 E0.01674
G1 X188.874 Y94.018 E0.43947
G1 X188.340 Y94.018 E0.01674
G1 X178.435 Y84.112 E0.43947
G1 X177.901 Y84.112 E0.01674
G1 X187.807 Y94.018 E0.43947
G1 X187.273 Y94.018 E0.01674
G1 X177.368 Y84.112 E0.43947
G1 X176.834 Y84.112 E0.01674
G1 X186.740 Y94.018 E0.43947
G1 X186.206 Y94.018 E0.01674
G1 X176.301 Y84.112 E0.43947
G1 X175.767 Y84.112 E0.01674
G1 X185.673 Y94.018 E0.43947
G1 X185.139 Y94.018 E0.01674
G1 X175.234 Y84.112 E0.43947
G1 X174.700 Y84.112 E0.01674
G1 X184.605 Y94.018 E0.43947
G1 X184.072 Y94.018 E0.01674
G1 X174.166 Y84.112 E0.43947
G1 X173.633 Y84.112 E0.01674
G1 X183.538 Y94.018 E0.43947
G1 X183.005 Y94.018 E0.01674
G1 X173.099 Y84.112 E0.43947
G1 X172.566 Y84.112 E0.01674
G1 X182.471 Y94.018 E0.43947
G1 X181.938 Y94.018 E0.01674
G1 X172.032 Y84.112 E0.43947
G1 X171.499 Y84.112 E0.01674
G1 X181.404 Y94.018 E0.43947
G1 X180.870 Y94.018 E0.01674
G1 X170.965 Y84.112 E0.43947
G1 X170.431 Y84.112 E0.01674
G1 X180.337 Y94.018 E0.43947
G1 X179.803 Y94.018 E0.01674
G1 X169.898 Y84.112 E0.43947
G1 X169.364 Y84.112 E0.01674
G1 X179.270 Y94.018 E0.43947
G1 X178.736 Y94.018 E0.01674
G1 X168.831 Y84.112 E0.43947
G1 X168.297 Y84.112 E0.01674
G1 X178.203 Y94.018 E0.43947
G1 X177.669 Y94.018 E0.01674
G1 X167.764 Y84.112 E0.43947
G1 X167.230 Y84.112 E0.01674
G1 X177.135 Y94.018 E0.43947
G1 X176.602 Y94.018 E0.01674
G1 X166.696 Y84.112 E0.43947
G1 X166.163 Y84.112 E0.01674
G1 X176.068 Y94.018 E0.43947
G1 X175.535 Y94.018 E0.01674
G1 X165.629 Y84.112 E0.43947
G1 X165.096 Y84.112 E0.01674
G1 X175.001 Y94.018 E0.43947
G1 X174.468 Y94.018 E0.01674
G1 X164.562 Y84.112 E0.43947
G1 X164.029 Y84.112 E0.01674
G1 X173.934 Y94.018 E0.43947
G1 X173.400 Y94.018 E0.01674
G1 X163.495 Y84.112 E0.43947
G1 X162.961 Y84.112 E0.01674
G1 X172.867 Y94.018 E0.43947
G1 X172.333 Y94.018 E0.01674
G1 X162.428 Y84.112 E0.43947
G1 X161.894 Y84.112 E0.01674
G1 X171.800 Y94.018 E0.43947
G1 X171.266 Y94.018 E0.01674
G1 X161.361 Y84.112 E0.43947
G1 X160.827 Y84.112 E0.01674
G1 X170.733 Y94.018 E0.43947
G1 X170.199 Y94.018 E0.01674
G1 X160.294 Y84.112 E0.43947
G1 X159.760 Y84.112 E0.01674
G1 X169.665 Y94.018 E0.43947
G1 X169.132 Y94.018 E0.01674
G1 X159.226 Y84.112 E0.43947
G1 X158.693 Y84.112 E0.01674
G1 X168.598 Y94.018 E0.43947
G1 X168.065 Y94.018 E0.01674
G1 X158.159 Y84.112 E0.43947
G1 X157.626 Y84.112 E0.01674
G1 X167.531 Y94.018 E0.43947
G1 X166.998 Y94.018 E0.01674
G1 X157.092 Y84.112 E0.43947
G1 X156.559 Y84.112 E0.01674
G1 X166.464 Y94.018 E0.43947
G1 X165.930 Y94.018 E0.01674
G1 X156.025 Y84.112 E0.43947
G1 X155.491 Y84.112 E0.01674
G1 X165.397 Y94.018 E0.43947
G1 X164.863 Y94.018 E0.01674
G1 X154.958 Y84.112 E0.43947
G1 X154.424 Y84.112 E0.01674
G1 X164.330 Y94.018 E0.43947
G1 X163.796 Y94.018 E0.01674
G1 X153.891 Y84.112 E0.43947
G1 X153.357 Y84.112 E0.01674
G1 X163.263 Y94.018 E0.43947
G1 X162.729 Y94.018 E0.01674
G1 X152.824 Y84.112 E0.43947
G1 X152.290 Y84.112 E0.01674
G1 X162.195 Y94.018 E0.43947
G1 X161.662 Y94.018 E0.01674
G1 X151.756 Y84.112 E0.43947
G1 X151.223 Y84.112 E0.01674
G1 X161.128 Y94.018 E0.43947
G1 X160.595 Y94.018 E0.01674
G1 X150.689 Y84.112 E0.43947
G1 X150.156 Y84.112 E0.01674
G1 X160.061 Y94.018 E0.43947
G1 X159.528 Y94.018 E0.01674
G1 X149.622 Y84.112 E0.43947
G1 X149.089 Y84.112 E0.01674
G1 X158.994 Y94.018 E0.43947
G1 X158.460 Y94.018 E0.01674
G1 X148.555 Y84.112 E0.43947
G1 X148.021 Y84.112 E0.01674
G1 X157.927 Y94.018 E0.43947
G1 X157.393 Y94.018 E0.01674
G1 X147.488 Y84.112 E0.43947
G1 X146.954 Y84.112 E0.01674
G1 X156.860 Y94.018 E0.43947
G1 X156.326 Y94.018 E0.01674
G1 X146.421 Y84.112 E0.43947
G1 X145.887 Y84.112 E0.01674
G1 X155.793 Y94.018 E0.43947
G1 X155.350 Y94.018 E0.01388
G1 X155.350 Y94.109 E0.00286
G1 X145.354 Y84.112 E0.44352
G1 X144.820 Y84.112 E0.01674
G1 X155.350 Y94.643 E0.46719
G1 X155.350 Y95.176 E0.01674
G1 X144.286 Y84.112 E0.49086
G1 X143.753 Y84.112 E0.01674
G1 X155.350 Y95.710 E0.51453
G1 X155.350 Y96.243 E0.01674
G1 X143.219 Y84.112 E0.53821
G1 X142.686 Y84.112 E0.01674
G1 X155.350 Y96.777 E0.56188
G1 X155.350 Y97.310 E0.01674
G1 X142.152 Y84.112 E0.58555
G1 X141.619 Y84.112 E0.01674
G1 X155.350 Y97.844 E0.60923
G1 X155.350 Y98.378 E0.01674
G1 X141.085 Y84.112 E0.63290
G1 X140.551 Y84.112 E0.01674
G1 X155.350 Y98.911 E0.65657
G1 X155.350 Y99.445 E0.01674
G1 X140.018 Y84.112 E0.68024
G1 X139.484 Y84.112 E0.01674
G1 X155.350 Y99.978 E0.70392
G1 X155.350 Y100.512 E0.01674
G1 X138.951 Y84.112 E0.72759
G1 X138.417 Y84.112 E0.01674
G1 X155.350 Y101.045 E0.75126
G1 X155.350 Y101.579 E0.01674
G1 X137.884 Y84.112 E0.77494
G1 X137.350 Y84.112 E0.01674
G1 X155.350 Y102.113 E0.79861
G1 X155.350 Y102.646 E0.01674
G1 X136.816 Y84.112 E0.82228
G1 X136.283 Y84.112 E0.01674
G1 X155.350 Y103.180 E0.84595
G1 X155.350 Y103.713 E0.01674
G1 X135.749 Y84.112 E0.86963
G1 X135.216 Y84.112 E0.01674
G1 X155.350 Y104.247 E0.89330
G1 X155.350 Y104.780 E0.01674
G1 X146.845 Y96.275 E0.37735
G1 F8640
G1 X149.172 Y98.603 E-0.76000
G1 E-0.04000 F2100.00000
G1 Z0.800 F10800.000
G1 X144.758 Y94.188
G1 Z0.200
G1 E0.80000 F2100.00000
G1 F1800
G1 X134.682 Y84.112 E0.44702
G1 X134.149 Y84.112 E0.01674
