; generated by PrusaSlicer 2.5.0+win64 on 2023-01-21 at 10:39:24 UTC

; 

; external perimeters extrusion width = 0.45mm
; perimeters extrusion width = 0.45mm
; infill extrusion width = 0.45mm
; solid infill extrusion width = 0.45mm
; top infill extrusion width = 0.40mm
; first layer extrusion width = 0.42mm

M73 P0 R64
M107
;TYPE:Custom
M862.3 P "MK2S" ; printer model check
M862.1 P0.4 ; nozzle diameter check
M115 U3.2.3 ; tell printer latest fw version
G90 ; use absolute coordinates
M83 ; extruder relative mode
M204 S2000 T1500 ; MK2 firmware only supports the old M204 format
M104 S215 ; set extruder temp
M140 S60 ; set bed temp
M190 S60 ; wait for bed temp
M109 S215 ; wait for extruder temp
G28 W ; home all without mesh bed level
G80 ; mesh bed leveling
G1 Y-3.0 F1000.0 ; go outside print area
G92 E0.0
G1 X60.0 E9.0  F1000.0 ; intro line
G1 X100.0 E12.5 F1000.0 ; intro line
G92 E0.0
G21 ; set units to millimeters
G90 ; use absolute coordinates
M83 ; use relative distances for extrusion
M900 K0.05 ; Filament gcode LA 1.5
M900 K30 ; Filament gcode LA 1.0
M107
;LAYER_CHANGE
;Z:0.2
;HEIGHT:0.2
;BEFORE_LAYER_CHANGE
G92 E0.0
;0.2


G1 E-.8 F2100
G1 Z.4 F10800
;AFTER_LAYER_CHANGE
;0.2
G1 X119.532 Y100.3
G1 Z.2
G1 E.8 F2100
M204 S1000
;TYPE:Skirt/Brim
;WIDTH:0.42
G1 F1200
G1 X133.517 Y83.634 E.68213
G1 X134.363 Y82.917 E.03479
G1 X135.114 Y82.582 E.02577
G1 X135.923 Y82.438 E.02577
G1 X136.743 Y82.494 E.02577
G1 X137.525 Y82.747 E.02577
G1 X138.406 Y83.342 E.03334
G1 X138.934 Y83.972 E.02577
G1 X139.206 Y84.483 E.01817
G1 X139.4 Y85.071 E.01941
G1 X147.35 Y122.698 E1.20581
G1 X147.401 Y125.19 E.07813
G1 X147.009 Y126.497 E.04278
G1 X145.964 Y127.373 E.04278
G1 X145.024 Y127.567 E.03008
G1 X103.895 Y127.567 E1.28958
G1 X102.768 Y127.367 E.03589
G1 X101.808 Y126.837 E.03438
G1 X101.213 Y126.233 E.02658
G1 X100.894 Y125.728 E.01874
G1 X100.56 Y124.683 E.03438
G1 X100.526 Y124.071 E.01922
G1 X100.657 Y123.249 E.0261
G1 X100.994 Y122.471 E.02658
G1 X101.308 Y122.019 E.01726
G1 X119.494 Y100.346 E.8871
; printing object Aussenthermometer.stl id:0 copy 0
;WIPE_START
G1 F8640
G1 X121.61 Y97.824 E-.76
;WIPE_END
G1 E-.04 F2100
G1 Z.6 F10800
G1 X136.339 Y123.541
G1 Z.2
G1 E.8 F2100
;TYPE:Perimeter
;WIDTH:0.447354
G1 F1200
G1 X136.43 Y123.751 E.00766
;WIDTH:0.444381
G1 X136.882 Y123.989 E.01707
G1 X143.141 Y123.989 E.20895
G1 X143.141 Y124.19 E.0067
G1 X143.141 Y124.39 E.0067
G1 X104.765 Y124.403 E1.28106
;WIDTH:0.419999
G1 X103.879 Y124.394 E.02777
G1 X103.737 Y124.289 E.00556
G1 X103.704 Y124.124 E.00527
G1 X103.764 Y124.015 E.00391
G1 X104.382 Y123.278 E.03016
;WIDTH:0.44438
G1 X134.975 Y86.819 E1.58878
;WIDTH:0.419999
G1 X135.868 Y85.754 E.04357
G1 X135.994 Y85.653 E.00506
G1 X136.124 Y85.612 E.00427
G1 X136.243 Y85.678 E.00427
G1 X136.316 Y85.887 E.00693
G1 X136.316 Y87.307 E.04453
;WIDTH:0.444381
G1 X136.304 Y123.411 E1.20522
;WIDTH:0.447354
G1 X136.316 Y123.486 E.00255
G1 X136.694 Y123.411 F10800
;TYPE:External perimeter
;WIDTH:0.419999
G1 F1200
G1 X136.706 Y123.477 E.00211
G1 X136.882 Y123.6 E.00673
G1 X143.531 Y123.6 E.20846
G1 X143.531 Y124.78 E.037
G1 X104.765 Y124.78 E1.21547
G1 X103.76 Y124.759 E.03151
G1 X103.495 Y124.613 E.0095
G1 X103.34 Y124.367 E.0091
G1 X103.323 Y124.065 E.0095
G1 X103.459 Y123.791 E.00961
G1 X135.579 Y85.512 E1.56676
G1 X135.886 Y85.265 E.01234
G1 X136.164 Y85.225 E.00882
G1 X136.429 Y85.322 E.00884
G1 X136.618 Y85.531 E.00882
G1 X136.694 Y85.841 E.01001
G1 X136.694 Y123.351 E1.1761
G1 X136.64 Y123.452 F10800
G1 X135.887 Y123.484
;TYPE:Perimeter
;WIDTH:0.444381
G1 F1200
G1 X135.86 Y123.612 E.00435
;WIDTH:0.432046
G1 X135.778 Y123.751 E.00522
;WIDTH:0.45028
G1 X135.425 Y123.983 E.0143
G1 X135.325 Y123.989 E.0034
;WIDTH:0.444381
G1 X105.898 Y123.989 E.98232
G1 X105.386 Y123.65 E.02051
;WIDTH:0.419999
G1 X105.266 Y123.395 E.00885
;WIDTH:0.450282
G1 X105.276 Y122.865 E.01795
G1 X105.336 Y122.784 E.0034
;WIDTH:0.444381
G1 X134.591 Y87.92 E1.51927
G1 X135.227 Y87.76 E.0219
;WIDTH:0.419999
G1 X135.518 Y87.866 E.00972
;WIDTH:0.444381
G1 X135.903 Y88.397 E.0219
G1 X135.9 Y123.426 E1.16931
G1 X135.514 Y123.411 F10800
;TYPE:External perimeter
;WIDTH:0.419999
G1 F1200
G1 X135.476 Y123.524 E.00374
G1 X135.325 Y123.6 E.00529
G1 X105.898 Y123.6 E.92266
G1 X105.727 Y123.491 E.00635
G1 X105.608 Y123.235 E.00885
G1 X105.634 Y123.034 E.00635
G1 X134.889 Y88.17 E1.427
G1 X135.098 Y88.114 E.00678
G1 X135.39 Y88.22 E.00972
M73 P0 R63
G1 X135.514 Y88.397 E.00678
G1 X135.514 Y123.351 E1.09596
G1 X135.602 Y123.491 F10800
M73 P1 R63
G1 X136 Y123.605
;TYPE:Solid infill
;WIDTH:0.495415
G1 F1200
G1 X136.48 Y124.085 E.02552
G1 X136.474 Y124.108 E.0009
G1 X135.863 Y124.108 E.02299
G1 X135.69 Y123.935 E.00921
;WIPE_START
G1 F8640
G1 X135.863 Y124.108 E-.05654
G1 X136.474 Y124.108 E-.14109
G1 X136.48 Y124.085 E-.0055
G1 X136 Y123.605 E-.15662
;WIPE_END
G1 E-.44026 F2100
G1 Z.6 F10800
G1 X105.172 Y123.33
G1 Z.2
G1 E.8 F2100
;WIDTH:0.438414
G1 F1200
G1 X104.932 Y123.09 E.01117
G1 X104.666 Y123.384 E.01302
G1 X105.384 Y124.102 E.03337
G1 X104.832 Y124.109 E.01817
G1 X104.409 Y123.686 E.01967
G1 X104.153 Y123.99 E.01306
G1 X104.447 Y124.283 E.01364
;WIPE_START
G1 F8640
G1 X104.153 Y123.99 E-.09578
G1 X104.409 Y123.686 E-.09167
G1 X104.832 Y124.109 E-.13809
G1 X105.384 Y124.102 E-.12756
G1 X104.666 Y123.384 E-.23429
G1 X104.877 Y123.151 E-.07261
;WIPE_END
G1 E-.04 F2100
G1 Z.6 F10800
G1 X135.848 Y85.954
G1 Z.2
G1 E.8 F2100
;WIDTH:0.44078
G1 F1200
G1 X136.032 Y86.138 E.00861
G1 X136.033 Y86.701 E.01864
G1 X135.712 Y86.38 E.01502
G1 X135.455 Y86.686 E.01321
G1 X136.034 Y87.265 E.02707
G1 X136.022 Y87.816 E.01824
G1 X135.198 Y86.992 E.03855
G1 X134.948 Y87.304 E.01324
G1 X135.315 Y87.671 E.01716
; stop printing object Aussenthermometer.stl id:0 copy 0
M106 S255
;LAYER_CHANGE
;Z:0.4
;HEIGHT:0.2
;BEFORE_LAYER_CHANGE
G92 E0.0
;0.4


;WIPE_START
G1 F8640
G1 X134.948 Y87.304 E-.11974
G1 X135.198 Y86.992 E-.09242
G1 X136.022 Y87.816 E-.26905
G1 X136.034 Y87.265 E-.12732
G1 X135.57 Y86.801 E-.15147
;WIPE_END
G1 E-.04 F2100
G1 Z.6 F10800
;AFTER_LAYER_CHANGE
;0.4
M104 S210 ; set temperature
G1 X132.805 Y84.481
G1 Z.4
G1 E.8 F2100
;TYPE:Skirt/Brim
;WIDTH:0.42
G1 F3000
G1 X133.517 Y83.634 E.03469
G1 X134.363 Y82.917 E.03479
G1 X135.114 Y82.582 E.02577
G1 X135.923 Y82.438 E.02577
G1 X136.743 Y82.494 E.02577
G1 X137.525 Y82.747 E.02577
G1 X138.406 Y83.342 E.03334
G1 X138.934 Y83.972 E.02577
G1 X139.206 Y84.483 E.01817
G1 X139.4 Y85.071 E.01941
G1 X147.35 Y122.698 E1.20581
G1 X147.401 Y125.19 E.07813
G1 X147.009 Y126.497 E.04278
G1 X145.964 Y127.373 E.04278
G1 X145.024 Y127.567 E.03008
G1 X103.895 Y127.567 E1.28958
G1 X102.768 Y127.367 E.03589
G1 X101.808 Y126.837 E.03438
G1 X101.213 Y126.233 E.02658
G1 X100.894 Y125.728 E.01874
G1 X100.56 Y124.683 E.03438
G1 X100.526 Y124.071 E.01922
G1 X100.657 Y123.249 E.0261
G1 X100.994 Y122.471 E.02658
G1 X101.308 Y122.019 E.01726
G1 X132.767 Y84.527 E1.53453
; printing object Aussenthermometer.stl id:0 copy 0
;WIPE_START
G1 F8640
G1 X133.517 Y83.634 E-.26931
G1 X134.363 Y82.917 E-.25623
G1 X135.114 Y82.582 E-.18976
G1 X135.304 Y82.548 E-.0447
;WIPE_END
G1 E-.04 F2100
G1 Z.8 F10800
G1 X136.273 Y85.499
G1 Z.4
G1 E.8 F2100
M204 S800
;TYPE:Perimeter
;WIDTH:0.449999
G1 F3000
G1 X136.398 Y85.597 E.0054
G1 X136.471 Y85.843 E.00868
G1 X136.471 Y87.808 E.0665
;WIDTH:0.491095
G1 X136.451 Y87.979 E.00643
;WIDTH:0.53219
G1 X136.43 Y88.151 E.00702
;WIDTH:0.573286
G1 X136.41 Y88.322 E.00761
;WIDTH:0.614381
G1 X136.389 Y88.493 E.0082
G1 X136.389 Y123.211 E1.6497
;WIDTH:0.618118
G1 X136.39 Y123.272 E.0029
G1 X136.441 Y123.348 E.00439
;WIDTH:0.576089
G1 X136.492 Y123.425 E.00407
;WIDTH:0.534059
G1 X136.543 Y123.501 E.00375
;WIDTH:0.492029
G1 X136.594 Y123.578 E.00343
;WIDTH:0.491095
G1 X136.716 Y123.659 E.00547
;WIDTH:0.53219
G1 X136.838 Y123.741 E.00598
;WIDTH:0.573286
G1 X136.96 Y123.822 E.00648
;WIDTH:0.614381
G1 X137.082 Y123.904 E.00698
G1 X143.877 Y123.904 E.32287
G1 X143.877 Y124.19 E.01358
G1 X143.877 Y124.475 E.01358
G1 X137.082 Y124.475 E.32287
G1 X136.837 Y124.496 E.01167
;WIDTH:0.573286
G1 X136.593 Y124.517 E.01083
;WIDTH:0.53219
G1 X136.348 Y124.537 E.00999
;WIDTH:0.491095
G1 X136.104 Y124.558 E.00915
G1 X135.859 Y124.537 E.00915
;WIDTH:0.53219
G1 X135.614 Y124.517 E.00999
;WIDTH:0.573286
G1 X135.37 Y124.496 E.01083
;WIDTH:0.614381
G1 X135.125 Y124.475 E.01167
G1 X105.993 Y124.475 E1.38426
G1 X105.837 Y124.496 E.00747
;WIDTH:0.573286
G1 X105.681 Y124.517 E.00693
;WIDTH:0.53219
G1 X105.526 Y124.537 E.0064
;WIDTH:0.491095
G1 X105.37 Y124.558 E.00586
;WIDTH:0.449999
G1 X103.96 Y124.558 E.04773
G1 X103.719 Y124.507 E.00831
G1 X103.567 Y124.338 E.00772
G1 X103.539 Y124.12 E.00745
G1 X103.639 Y123.923 E.00748
G1 X104.561 Y122.823 E.04858
;WIDTH:0.492941
G1 X104.65 Y122.75 E.00431
;WIDTH:0.535883
G1 X104.74 Y122.677 E.00473
;WIDTH:0.578825
G1 X104.829 Y122.604 E.00514
;WIDTH:0.621766
G1 X104.918 Y122.531 E.00555
G1 X105.025 Y122.399 E.0082
;WIDTH:0.614381
G1 X134.157 Y87.681 E2.15353
G1 X134.251 Y87.536 E.0082
;WIDTH:0.573286
G1 X134.345 Y87.392 E.00761
;WIDTH:0.53219
G1 X134.44 Y87.247 E.00702
;WIDTH:0.491095
G1 X134.534 Y87.103 E.00643
;WIDTH:0.449999
G1 X135.797 Y85.598 E.0665
G1 X136.007 Y85.457 E.00855
G1 X136.225 Y85.463 E.00739
M204 S1000
G1 X136.786 Y85.442 F10800
M204 S800
;TYPE:External perimeter
G1 F2400
G1 X136.879 Y85.819 E.01313
G1 X136.879 Y123.211 E1.2657
G1 X136.919 Y123.333 E.00436
G1 X137.082 Y123.415 E.00616
G1 X144.366 Y123.415 E.24656
G1 X144.366 Y124.965 E.05247
G1 X104.746 Y124.965 E1.34108
G1 X103.702 Y124.939 E.03537
G1 X103.446 Y124.812 E.00968
G1 X103.235 Y124.59 E.01036
G1 X103.123 Y124.235 E.01259
G1 X103.166 Y123.949 E.00978
G1 X103.31 Y123.681 E.01031
G1 X135.47 Y85.355 E1.6935
G1 X135.649 Y85.179 E.00849
G1 X135.902 Y85.064 E.00939
G1 X136.197 Y85.039 E.01005
G1 X136.536 Y85.164 E.01222
G1 X136.746 Y85.397 E.01063
M204 S1000
G1 X136.579 Y85.77 F10800
;WIPE_START
G1 F8640
G1 X136.879 Y85.819 E-.10199
G1 X136.879 Y88.668 E-.65801
;WIPE_END
G1 E-.04 F2100
G1 Z.8 F10800
G1 X134.619 Y88.039
G1 Z.4
G1 E.8 F2100
M204 S800
;TYPE:Perimeter
;WIDTH:0.614381
G1 F3000
G1 X134.697 Y88.01 E.00392
;WIDTH:0.573286
G1 X134.799 Y87.971 E.00482
;WIDTH:0.53219
G1 X134.902 Y87.933 E.00445
;WIDTH:0.491095
G1 X135.004 Y87.895 E.00408
;WIDTH:0.449999
G1 X135.334 Y87.92 E.01119
G1 X135.602 Y88.112 E.01119
;WIDTH:0.491095
G1 X135.656 Y88.208 E.00408
;WIDTH:0.53219
G1 X135.71 Y88.303 E.00445
;WIDTH:0.573286
G1 X135.764 Y88.398 E.00482
;WIDTH:0.614381
G1 X135.818 Y88.493 E.0052
G1 X135.818 Y123.211 E1.6497
G1 X135.785 Y123.286 E.00386
;WIDTH:0.576211
G1 X135.753 Y123.36 E.0036
;WIDTH:0.538041
G1 X135.72 Y123.434 E.00334
;WIDTH:0.499871
G1 X135.614 Y123.578 E.00678
;WIDTH:0.492948
G1 X135.521 Y123.657 E.00456
;WIDTH:0.535897
G1 X135.429 Y123.737 E.005
;WIDTH:0.578846
G1 X135.337 Y123.817 E.00543
;WIDTH:0.621795
G1 X135.245 Y123.897 E.00587
G1 X135.125 Y123.904 E.0058
;WIDTH:0.614381
G1 X105.993 Y123.904 E1.38426
G1 X105.905 Y123.855 E.00479
;WIDTH:0.573286
G1 X105.817 Y123.807 E.00445
;WIDTH:0.53219
G1 X105.728 Y123.758 E.0041
;WIDTH:0.491095
G1 X105.64 Y123.709 E.00376
;WIDTH:0.449999
G1 X105.44 Y123.469 E.01058
G1 X105.385 Y123.162 E.01058
;WIDTH:0.492941
G1 X105.386 Y123.087 E.0028
;WIDTH:0.535883
G1 X105.387 Y123.012 E.00307
;WIDTH:0.578825
G1 X105.389 Y122.937 E.00333
;WIDTH:0.621766
G1 X105.39 Y122.862 E.0036
G1 X105.462 Y122.766 E.0058
;WIDTH:0.614381
G1 X134.573 Y88.073 E2.15195
M204 S1000
G1 X135.195 Y88.302 F10800
M204 S800
;TYPE:External perimeter
;WIDTH:0.449999
G1 F2400
G1 X135.284 Y88.366 E.00373
G1 X135.329 Y88.493 E.00455
G1 X135.329 Y123.211 E1.17516
G1 X135.288 Y123.333 E.00436
G1 X135.125 Y123.415 E.00616
G1 X105.993 Y123.415 E.98608
G1 X105.875 Y123.377 E.00418
G1 X105.809 Y123.297 E.00353
G1 X105.817 Y123.109 E.00637
G1 X105.837 Y123.08 E.00119
G1 X134.969 Y88.362 E1.53406
G1 X135.085 Y88.294 E.00455
G1 X135.135 Y88.298 E.0017
M204 S1000
G1 X135.278 Y88.229 F10800
G1 X135.715 Y88.063
M204 S2000
;TYPE:Solid infill
;WIDTH:0.495409
G1 F3000
G1 X136.166 Y87.612 E.02399
G1 X136.166 Y86.972 E.02408
G1 X135.48 Y87.658 E.0365
G1 X135.44 Y87.629 E.00188
G1 X134.953 Y87.592 E.01835
G1 X134.887 Y87.612 E.00261
G1 X136.166 Y86.332 E.06808
G1 X136.166 Y85.866 E.01754
G1 X136.129 Y85.755 E.00439
G1 X136.101 Y85.757 E.00103
G1 X134.573 Y87.285 E.0813
M204 S1000
;WIPE_START
G1 F8640
G1 X136.101 Y85.757 E-.49895
G1 X136.129 Y85.755 E-.00632
G1 X136.166 Y85.866 E-.02692
G1 X136.166 Y86.332 E-.10765
G1 X135.798 Y86.7 E-.12017
;WIPE_END
G1 E-.04 F2100
G1 Z.8 F10800
G1 X135.962 Y124.407
G1 Z.4
G1 E.8 F2100
M204 S2000
;WIDTH:0.531415
G1 F3000
G1 X136.494 Y123.875 E.03059
G1 X136.361 Y123.774 E.00679
G1 X136.153 Y123.526 E.01317
G1 X135.392 Y124.286 E.04369
M204 S1000
;WIPE_START
G1 F8640
G1 X136.153 Y123.526 E-.24837
G1 X136.361 Y123.774 E-.07486
G1 X136.494 Y123.875 E-.03861
G1 X135.962 Y124.407 E-.17387
;WIPE_END
G1 E-.26428 F2100
G1 Z.8 F10800
G1 X105.532 Y123.76
G1 Z.4
G1 E.8 F2100
M204 S2000
G1 F3000
G1 X105.04 Y124.252 E.02827
G1 X104.349 Y124.252 E.02806
G1 X105.136 Y123.466 E.04518
G1 X105.054 Y122.882 E.02394
G1 X104.997 Y122.914 E.00266
G1 X103.668 Y124.243 E.07631
M204 S1000
; stop printing object Aussenthermometer.stl id:0 copy 0
;LAYER_CHANGE
;Z:0.6
;HEIGHT:0.2
;BEFORE_LAYER_CHANGE
G92 E0.0
;0.6


;WIPE_START
G1 F8640
G1 X104.997 Y122.914 E-.43381
G1 X105.054 Y122.882 E-.0151
G1 X105.136 Y123.466 E-.13607
G1 X104.6 Y124.002 E-.17503
;WIPE_END
G1 E-.04 F2100
G1 Z.8 F10800
;AFTER_LAYER_CHANGE
;0.6
G1 X104.6 Y127.567
G1 Z.6
G1 E.8 F2100
;TYPE:Skirt/Brim
;WIDTH:0.42
G1 F3000
G1 X103.895 Y127.567 E.02211
G1 X102.768 Y127.367 E.03589
G1 X101.808 Y126.837 E.03438
G1 X101.213 Y126.233 E.02658
G1 X100.894 Y125.728 E.01874
G1 X100.56 Y124.683 E.03438
G1 X100.526 Y124.071 E.01922
G1 X100.657 Y123.249 E.0261
G1 X100.994 Y122.471 E.02658
G1 X101.308 Y122.019 E.01726
G1 X133.517 Y83.634 E1.5711
G1 X134.363 Y82.917 E.03479
G1 X135.114 Y82.582 E.02577
G1 X135.923 Y82.438 E.02577
G1 X136.743 Y82.494 E.02577
G1 X137.525 Y82.747 E.02577
G1 X138.406 Y83.342 E.03334
G1 X138.934 Y83.972 E.02577
G1 X139.206 Y84.483 E.01817
G1 X139.4 Y85.071 E.01941
G1 X147.35 Y122.698 E1.20581
G1 X147.401 Y125.19 E.07813
G1 X147.009 Y126.497 E.04278
G1 X145.964 Y127.373 E.04278
G1 X145.024 Y127.567 E.03008
G1 X104.66 Y127.567 E1.26559
; printing object Aussenthermometer.stl id:0 copy 0
;WIPE_START
G1 F8640
G1 X103.895 Y127.567 E-.17667
G1 X102.768 Y127.367 E-.26429
G1 X101.808 Y126.837 E-.25321
G1 X101.608 Y126.634 E-.06584
;WIPE_END
G1 E-.04 F2100
G1 Z1 F10800
G1 X103.719 Y124.507
G1 Z.6
G1 E.8 F2100
M204 S800
;TYPE:Perimeter
;WIDTH:0.449999
G1 F3000
G1 X103.568 Y124.342 E.00758
G1 X103.539 Y124.12 E.00758
G1 X103.639 Y123.923 E.00748
G1 X104.561 Y122.823 E.04858
;WIDTH:0.492949
G1 X104.65 Y122.75 E.00431
;WIDTH:0.535898
G1 X104.74 Y122.677 E.00473
;WIDTH:0.578847
G1 X104.829 Y122.604 E.00514
;WIDTH:0.621796
G1 X104.918 Y122.531 E.00555
G1 X105.025 Y122.399 E.0082
;WIDTH:0.614386
G1 X134.157 Y87.681 E2.15354
G1 X134.251 Y87.536 E.0082
;WIDTH:0.57329
G1 X134.345 Y87.392 E.00761
;WIDTH:0.532193
G1 X134.44 Y87.247 E.00702
;WIDTH:0.491096
G1 X134.534 Y87.103 E.00643
;WIDTH:0.449999
G1 X135.797 Y85.598 E.0665
G1 X136.005 Y85.458 E.00849
G1 X136.228 Y85.464 E.00754
G1 X136.398 Y85.597 E.00733
G1 X136.471 Y85.843 E.0087
G1 X136.471 Y87.808 E.0665
;WIDTH:0.491095
G1 X136.451 Y87.979 E.00643
;WIDTH:0.53219
G1 X136.43 Y88.151 E.00702
;WIDTH:0.573286
G1 X136.41 Y88.322 E.00761
;WIDTH:0.614381
G1 X136.389 Y88.493 E.0082
G1 X136.389 Y123.211 E1.6497
;WIDTH:0.618118
G1 X136.39 Y123.272 E.0029
G1 X136.441 Y123.348 E.00439
;WIDTH:0.576089
G1 X136.492 Y123.425 E.00407
;WIDTH:0.534059
G1 X136.543 Y123.501 E.00375
;WIDTH:0.492029
G1 X136.594 Y123.578 E.00343
;WIDTH:0.491095
G1 X136.716 Y123.659 E.00547
;WIDTH:0.53219
G1 X136.838 Y123.741 E.00598
;WIDTH:0.573286
G1 X136.96 Y123.822 E.00648
;WIDTH:0.614381
G1 X137.082 Y123.904 E.00698
G1 X144.31 Y123.904 E.34344
G1 X144.31 Y124.19 E.01358
G1 X144.31 Y124.475 E.01358
