; generated by Slic3r 1.33.8-prusa3d-win64 on 2017-08-01 at 10:33:39

; external perimeters extrusion width = 0.45mm
; perimeters extrusion width = 0.45mm
; infill extrusion width = 0.45mm
; solid infill extrusion width = 0.45mm
; top infill extrusion width = 0.40mm

M115 U3.0.10 ; tell printer latest fw version
M83  ; extruder relative mode
M104 S255 ; set extruder temp
M140 S100 ; set bed temp
M190 S100 ; wait for bed temp
M109 S255 ; wait for extruder temp
G28 W ; home all without mesh bed level
G80 ; mesh bed leveling
G1 Y-3.0 F1000.0 ; go outside pritn area
G1 X60.0 E9.0  F1000.0 ; intro line
G1 X100.0 E12.5  F1000.0 ; intro line
G21 ; set units to millimeters
G90 ; use absolute coordinates
M83 ; use relative distances for extrusion
G1 E-0.80000 F2100.00000
G1 Z0.200 F7200.000
G1 X100.237 Y84.916 F7200.000
G1 E0.80000 F2100.00000
M204 S1000
G1 F2100
G1 X100.311 Y84.492 E0.01348
G1 X100.462 Y84.086 E0.01360
G1 X100.685 Y83.714 E0.01360
G1 X100.971 Y83.388 E0.01360
G1 X101.312 Y83.120 E0.01360
G1 X101.695 Y82.918 E0.01360
G1 X102.109 Y82.789 E0.01360
G1 X102.536 Y82.738 E0.01348
G1 X162.617 Y82.737 E1.88380
G1 X162.932 Y82.759 E0.00991
G1 X163.238 Y82.822 E0.00979
G1 X163.533 Y82.925 E0.00979
G1 X163.815 Y83.067 E0.00991
G1 X164.064 Y83.236 E0.00943
G1 X164.289 Y83.435 E0.00943
G1 X164.487 Y83.661 E0.00943
G1 X164.658 Y83.913 E0.00955
G1 X164.793 Y84.182 E0.00943
G1 X164.893 Y84.466 E0.00943
G1 X164.956 Y84.760 E0.00943
G1 X164.982 Y85.063 E0.00955
G1 X164.983 Y121.733 E1.14975
G1 X164.960 Y122.040 E0.00967
G1 X164.897 Y122.346 E0.00979
G1 X164.795 Y122.641 E0.00979
G1 X164.654 Y122.919 E0.00979
G1 X164.483 Y123.171 E0.00955
G1 X164.282 Y123.399 E0.00955
G1 X164.052 Y123.600 E0.00955
G1 X163.799 Y123.769 E0.00955
G1 X163.527 Y123.905 E0.00955
G1 X163.239 Y124.005 E0.00955
G1 X162.941 Y124.067 E0.00955
G1 X162.637 Y124.090 E0.00955
G1 X102.594 Y124.091 E1.88261
G1 X102.283 Y124.069 E0.00979
G1 X101.977 Y124.006 E0.00979
G1 X101.682 Y123.904 E0.00979
G1 X101.400 Y123.762 E0.00991
G1 X101.154 Y123.596 E0.00931
G1 X100.928 Y123.397 E0.00943
G1 X100.729 Y123.172 E0.00943
G1 X100.560 Y122.924 E0.00943
G1 X100.423 Y122.656 E0.00943
G1 X100.322 Y122.372 E0.00943
G1 X100.257 Y122.079 E0.00943
G1 X100.230 Y121.783 E0.00931
G1 X100.233 Y84.976 E1.15408
G1 F5760
G1 X100.311 Y84.492 E-0.16956
G1 F5760
G1 X100.462 Y84.086 E-0.15019
G1 F5760
G1 X100.685 Y83.714 E-0.15019
G1 F5760
G1 X100.971 Y83.388 E-0.15019
G1 F5760
G1 X101.288 Y83.138 E-0.13988
G1 E-0.04000 F2100.00000
G1 X130.229 Y114.329 F7200.000
G1 E0.80000 F2100.00000
G1 F840
G1 X130.933 Y113.817 E0.02729
G1 X131.742 Y113.497 E0.02729
G1 X132.606 Y113.388 E0.02729
G1 X133.469 Y113.497 E0.02729
G1 X134.278 Y113.817 E0.02729
G1 X134.982 Y114.329 E0.02729
G1 X135.537 Y114.999 E0.02729
G1 X135.908 Y115.787 E0.02729
G1 X136.071 Y116.642 E0.02729
G1 X136.016 Y117.510 E0.02729
G1 X135.747 Y118.338 E0.02729
G1 X135.281 Y119.073 E0.02729
G1 X134.646 Y119.668 E0.02729
G1 X133.884 Y120.088 E0.02729
G1 X133.041 Y120.304 E0.02729
G1 X132.171 Y120.304 E0.02729
G1 X131.328 Y120.088 E0.02729
G1 X130.565 Y119.668 E0.02729
G1 X129.931 Y119.073 E0.02729
G1 X129.464 Y118.338 E0.02729
G1 X129.195 Y117.510 E0.02729
G1 X129.141 Y116.642 E0.02729
G1 X129.304 Y115.787 E0.02729
G1 X129.674 Y114.999 E0.02729
G1 X130.191 Y114.375 E0.02541
G1 X130.489 Y114.606 F7200.000
G1 F840
G1 X131.116 Y114.150 E0.02430
G1 X131.837 Y113.865 E0.02430
G1 X132.606 Y113.768 E0.02430
G1 X133.375 Y113.865 E0.02430
G1 X134.095 Y114.150 E0.02430
G1 X134.722 Y114.606 E0.02430
G1 X135.216 Y115.203 E0.02430
G1 X135.546 Y115.904 E0.02430
G1 X135.691 Y116.665 E0.02430
G1 X135.643 Y117.439 E0.02430
G1 X135.403 Y118.176 E0.02430
G1 X134.988 Y118.830 E0.02430
G1 X134.423 Y119.361 E0.02430
G1 X133.744 Y119.734 E0.02430
G1 X132.993 Y119.927 E0.02430
G1 X132.218 Y119.927 E0.02430
G1 X131.468 Y119.734 E0.02430
G1 X130.789 Y119.361 E0.02430
G1 X130.224 Y118.830 E0.02430
G1 X129.808 Y118.176 E0.02430
G1 X129.569 Y117.439 E0.02430
G1 X129.520 Y116.665 E0.02430
G1 X129.665 Y115.904 E0.02430
G1 X129.995 Y115.203 E0.02430
G1 X130.451 Y114.652 E0.02242
G1 X130.750 Y114.883 F7200.000
G1 F840
G1 X131.299 Y114.483 E0.02131
G1 X131.931 Y114.233 E0.02131
G1 X132.606 Y114.148 E0.02131
G1 X133.280 Y114.233 E0.02131
G1 X133.912 Y114.483 E0.02131
G1 X134.462 Y114.883 E0.02131
G1 X134.895 Y115.407 E0.02131
G1 X135.185 Y116.022 E0.02131
G1 X135.312 Y116.689 E0.02131
G1 X135.269 Y117.368 E0.02131
G1 X135.059 Y118.014 E0.02131
G1 X134.695 Y118.588 E0.02131
G1 X134.200 Y119.053 E0.02131
G1 X133.604 Y119.381 E0.02131
G1 X132.946 Y119.550 E0.02131
G1 X132.266 Y119.550 E0.02131
G1 X131.608 Y119.381 E0.02131
G1 X131.012 Y119.053 E0.02131
G1 X130.516 Y118.588 E0.02131
G1 X130.152 Y118.014 E0.02131
G1 X129.942 Y117.368 E0.02131
G1 X129.900 Y116.689 E0.02131
G1 X130.027 Y116.022 E0.02131
G1 X130.316 Y115.407 E0.02131
G1 X130.711 Y114.929 E0.01943
G1 X130.658 Y114.493 F7200.000
G1 F5760
G1 X131.299 Y114.483 E-0.25561
G1 F5760
G1 X131.931 Y114.233 E-0.23542
G1 F5760
G1 X132.606 Y114.148 E-0.23543
G1 F5760
G1 X132.702 Y114.160 E-0.03354
G1 E-0.04000 F2100.00000
G1 X136.642 Y116.678 F7200.000
G1 E0.80000 F2100.00000
G1 F1680
G1 X161.642 Y116.678 E0.78386
G1 X161.642 Y120.749 E0.12766
G1 X103.570 Y120.749 E1.82080
G1 X103.570 Y116.678 E0.12766
G1 X128.570 Y116.678 E0.78386
G1 X128.570 Y112.970 E0.11626
G1 X136.642 Y112.970 E0.25308
G1 X136.642 Y116.618 E0.11438
G1 X137.019 Y116.301 F7200.000
G1 F1680
G1 X162.019 Y116.301 E0.78386
G1 X162.019 Y121.126 E0.15131
G1 X103.193 Y121.126 E1.84444
G1 X103.193 Y116.301 E0.15131
G1 X128.193 Y116.301 E0.78386
G1 X128.193 Y112.593 E0.11626
G1 X137.019 Y112.593 E0.27673
G1 X137.019 Y116.241 E0.11438
G1 X137.396 Y115.924 F7200.000
G1 F1260
G1 X162.396 Y115.924 E0.78386
G1 X162.396 Y121.504 E0.17496
G1 X102.816 Y121.504 E1.86809
G1 X102.816 Y115.924 E0.17496
G1 X127.816 Y115.924 E0.78386
G1 X127.816 Y112.216 E0.11626
G1 X137.396 Y112.216 E0.30037
G1 X137.396 Y115.864 E0.11438
G1 X137.552 Y116.292 F7200.000
G1 X136.529 Y115.486 F7200.000
G1 F1680
G1 X134.295 Y113.253 E0.10074
G1 X134.837 Y113.253 E0.01730
G1 X136.359 Y114.774 E0.06862
G1 X136.359 Y114.232 E0.01730
G1 X135.380 Y113.253 E0.04416
G1 X135.922 Y113.253 E0.01730
G1 X136.529 Y113.859 E0.02735
G1 F5760
G1 X135.922 Y113.253 E-0.29698
G1 F5760
G1 X135.380 Y113.253 E-0.18787
G1 F5760
G1 X135.942 Y113.814 E-0.27514
G1 E-0.04000 F2100.00000
G1 X136.284 Y115.848 F7200.000
G1 E0.80000 F2100.00000
G1 F1680
G1 X136.332 Y116.357 E0.00969
G1 F1680
G1 X136.356 Y116.611 E0.00336
G1 X136.349 Y116.866 E0.00335
G1 F5760
G1 X136.356 Y116.611 E-0.08828
G1 F5760
G1 X136.332 Y116.357 E-0.08849
G1 E-0.62323 F2100.00000
G1 X134.882 Y120.636 F7200.000
G1 E0.80000 F2100.00000
G1 F1680
G1 X134.382 Y120.137 E0.02246
G1 X134.731 Y119.945 E0.01264
G1 X135.252 Y120.467 E0.02344
G1 X135.793 Y120.467 E0.01717
G1 X135.026 Y119.700 E0.03445
G1 X135.305 Y119.438 E0.01215
G1 X136.333 Y120.467 E0.04621
G1 X136.873 Y120.467 E0.01717
G1 X135.563 Y119.156 E0.05889
G1 X135.773 Y118.825 E0.01244
G1 X137.414 Y120.467 E0.07374
G1 X137.954 Y120.467 E0.01717
G1 X135.982 Y118.495 E0.08859
G1 X136.123 Y118.095 E0.01346
G1 X138.495 Y120.467 E0.10654
G1 X139.035 Y120.467 E0.01717
G1 X136.256 Y117.688 E0.12486
G1 X136.296 Y117.564 E0.00414
G1 X136.318 Y117.210 E0.01126
G1 X139.575 Y120.467 E0.14633
G1 X140.116 Y120.467 E0.01717
G1 X136.728 Y117.079 E0.15222
G1 X136.731 Y116.961 E0.00376
G1 X137.150 Y116.961 E0.01332
G1 X140.656 Y120.467 E0.15753
G1 X141.196 Y120.467 E0.01717
G1 X137.690 Y116.961 E0.15753
G1 X138.231 Y116.961 E0.01717
G1 X141.737 Y120.467 E0.15753
G1 X142.277 Y120.467 E0.01717
G1 X138.771 Y116.961 E0.15753
G1 X139.311 Y116.961 E0.01717
G1 X142.817 Y120.467 E0.15753
G1 X143.358 Y120.467 E0.01717
G1 X139.852 Y116.961 E0.15753
G1 X140.392 Y116.961 E0.01717
G1 X143.898 Y120.467 E0.15753
G1 X144.438 Y120.467 E0.01717
G1 X140.932 Y116.961 E0.15753
G1 X141.473 Y116.961 E0.01717
G1 X144.979 Y120.467 E0.15753
G1 X145.519 Y120.467 E0.01717
G1 X142.013 Y116.961 E0.15753
G1 X142.553 Y116.961 E0.01717
G1 X146.059 Y120.467 E0.15753
G1 X146.600 Y120.467 E0.01717
G1 X143.094 Y116.961 E0.15753
G1 X143.634 Y116.961 E0.01717
G1 X147.140 Y120.467 E0.15753
G1 X147.681 Y120.467 E0.01717
G1 X144.174 Y116.961 E0.15753
G1 X144.715 Y116.961 E0.01717
G1 X148.221 Y120.467 E0.15753
G1 X148.761 Y120.467 E0.01717
G1 X145.255 Y116.961 E0.15753
G1 X145.795 Y116.961 E0.01717
G1 X149.302 Y120.467 E0.15753
G1 X149.842 Y120.467 E0.01717
G1 X146.336 Y116.961 E0.15753
G1 X146.876 Y116.961 E0.01717
G1 X150.382 Y120.467 E0.15753
G1 X150.923 Y120.467 E0.01717
G1 X147.417 Y116.961 E0.15753
G1 X147.957 Y116.961 E0.01717
G1 X151.463 Y120.467 E0.15753
G1 X152.003 Y120.467 E0.01717
G1 X148.497 Y116.961 E0.15753
G1 X149.038 Y116.961 E0.01717
G1 X152.544 Y120.467 E0.15753
G1 X153.084 Y120.467 E0.01717
G1 X149.578 Y116.961 E0.15753
G1 X150.118 Y116.961 E0.01717
G1 X153.624 Y120.467 E0.15753
G1 X154.165 Y120.467 E0.01717
G1 X150.659 Y116.961 E0.15753
G1 X151.199 Y116.961 E0.01717
G1 X154.705 Y120.467 E0.15753
G1 X155.245 Y120.467 E0.01717
G1 X151.739 Y116.961 E0.15753
G1 X152.280 Y116.961 E0.01717
G1 X155.786 Y120.467 E0.15753
G1 X156.326 Y120.467 E0.01717
G1 X152.820 Y116.961 E0.15753
G1 X153.360 Y116.961 E0.01717
G1 X156.867 Y120.467 E0.15753
G1 X157.407 Y120.467 E0.01717
G1 X153.901 Y116.961 E0.15753
G1 X154.441 Y116.961 E0.01717
G1 X157.947 Y120.467 E0.15753
G1 X158.488 Y120.467 E0.01717
G1 X154.981 Y116.961 E0.15753
G1 X155.522 Y116.961 E0.01717
G1 X159.028 Y120.467 E0.15753
G1 X159.568 Y120.467 E0.01717
G1 X156.062 Y116.961 E0.15753
G1 X156.603 Y116.961 E0.01717
G1 X160.109 Y120.467 E0.15753
G1 X160.649 Y120.467 E0.01717
G1 X157.143 Y116.961 E0.15753
G1 X157.683 Y116.961 E0.01717
G1 X161.189 Y120.467 E0.15753
G1 X161.359 Y120.467 E0.00539
G1 X161.359 Y120.096 E0.01178
G1 X158.224 Y116.961 E0.14087
G1 X158.764 Y116.961 E0.01717
G1 X161.359 Y119.555 E0.11659
G1 X161.359 Y119.015 E0.01717
G1 X159.304 Y116.961 E0.09231
G1 X159.845 Y116.961 E0.01717
G1 X161.359 Y118.475 E0.06804
G1 X161.359 Y117.934 E0.01717
G1 X160.385 Y116.961 E0.04376
G1 X160.925 Y116.961 E0.01717
G1 X161.529 Y117.564 E0.02710
G1 F5760
G1 X160.925 Y116.961 E-0.29546
G1 F5760
G1 X160.385 Y116.961 E-0.18715
G1 F5760
G1 X160.951 Y117.527 E-0.27738
G1 E-0.04000 F2100.00000
G1 X133.965 Y120.414 F7200.000
G1 E0.80000 F2100.00000
G1 F1680
G1 X133.519 Y120.470 E0.00816
G1 F1680
G1 X133.073 Y120.526 E0.00458
G1 F1680
G1 X132.147 Y120.527 E0.00204
G1 X131.915 Y120.498 E0.00051
G1 F1680
G1 X131.470 Y120.442 E0.00458
G1 F1680
G1 X131.247 Y120.414 E0.00408
G1 X130.862 Y120.636 F7200.000
G1 F1680
G1 X127.186 Y116.961 E0.16472
G1 X126.647 Y116.961 E0.01708
G1 X130.153 Y120.467 E0.15712
G1 X129.614 Y120.467 E0.01708
G1 X126.108 Y116.961 E0.15712
G1 X125.569 Y116.961 E0.01708
G1 X129.075 Y120.467 E0.15712
G1 X128.536 Y120.467 E0.01708
G1 X125.030 Y116.961 E0.15712
G1 X124.491 Y116.961 E0.01708
G1 X127.997 Y120.467 E0.15712
G1 X127.459 Y120.467 E0.01708
G1 X123.952 Y116.961 E0.15712
G1 X123.413 Y116.961 E0.01708
G1 X126.920 Y120.467 E0.15712
G1 X126.381 Y120.467 E0.01708
G1 X122.875 Y116.961 E0.15712
G1 X122.336 Y116.961 E0.01708
G1 X125.842 Y120.467 E0.15712
G1 X125.303 Y120.467 E0.01708
G1 X121.797 Y116.961 E0.15712
G1 X121.258 Y116.961 E0.01708
G1 X124.764 Y120.467 E0.15712
G1 X124.225 Y120.467 E0.01708
G1 X120.719 Y116.961 E0.15712
G1 X120.180 Y116.961 E0.01708
G1 X123.686 Y120.467 E0.15712
G1 X123.147 Y120.467 E0.01708
G1 X119.641 Y116.961 E0.15712
G1 X119.102 Y116.961 E0.01708
G1 X122.608 Y120.467 E0.15712
G1 X122.069 Y120.467 E0.01708
G1 X118.563 Y116.961 E0.15712
G1 X118.024 Y116.961 E0.01708
G1 X121.530 Y120.467 E0.15712
G1 X120.991 Y120.467 E0.01708
G1 X117.485 Y116.961 E0.15712
G1 X116.946 Y116.961 E0.01708
G1 X120.452 Y120.467 E0.15712
G1 X119.913 Y120.467 E0.01708
G1 X116.407 Y116.961 E0.15712
G1 X115.868 Y116.961 E0.01708
G1 X119.374 Y120.467 E0.15712
G1 X118.835 Y120.467 E0.01708
G1 X115.329 Y116.961 E0.15712
G1 X114.790 Y116.961 E0.01708
G1 X118.297 Y120.467 E0.15712
G1 X117.758 Y120.467 E0.01708
G1 X114.251 Y116.961 E0.15712
G1 X113.713 Y116.961 E0.01708
G1 X117.219 Y120.467 E0.15712
G1 X116.680 Y120.467 E0.01708
G1 X113.174 Y116.961 E0.15712
G1 X112.635 Y116.961 E0.01708
G1 X116.141 Y120.467 E0.15712
G1 X115.602 Y120.467 E0.01708
G1 X112.096 Y116.961 E0.15712
G1 X111.557 Y116.961 E0.01708
G1 X115.063 Y120.467 E0.15712
G1 X114.524 Y120.467 E0.01708
G1 X111.018 Y116.961 E0.15712
G1 X110.479 Y116.961 E0.01708
G1 X113.985 Y120.467 E0.15712
G1 X113.446 Y120.467 E0.01708
G1 X109.940 Y116.961 E0.15712
G1 X109.401 Y116.961 E0.01708
G1 X112.907 Y120.467 E0.15712
G1 X112.368 Y120.467 E0.01708
G1 X108.862 Y116.961 E0.15712
G1 X108.323 Y116.961 E0.01708
G1 X111.829 Y120.467 E0.15712
G1 X111.290 Y120.467 E0.01708
G1 X107.784 Y116.961 E0.15712
G1 X107.245 Y116.961 E0.01708
G1 X110.751 Y120.467 E0.15712
G1 X110.212 Y120.467 E0.01708
G1 X106.706 Y116.961 E0.15712
G1 X106.167 Y116.961 E0.01708
G1 X109.673 Y120.467 E0.15712
G1 X109.135 Y120.467 E0.01708
G1 X105.628 Y116.961 E0.15712
G1 X105.089 Y116.961 E0.01708
G1 X108.596 Y120.467 E0.15712
G1 X108.057 Y120.467 E0.01708
G1 X104.551 Y116.961 E0.15712
G1 X104.012 Y116.961 E0.01708
G1 X107.518 Y120.467 E0.15712
G1 X106.979 Y120.467 E0.01708
G1 X103.853 Y117.341 E0.14009
G1 X103.853 Y117.880 E0.01708
G1 X106.440 Y120.467 E0.11593
G1 X105.901 Y120.467 E0.01708
G1 X103.853 Y118.419 E0.09178
G1 X103.853 Y118.957 E0.01708
G1 X105.362 Y120.467 E0.06763
G1 X104.823 Y120.467 E0.01708
G1 X103.853 Y119.496 E0.04348
G1 X103.853 Y120.035 E0.01708
G1 X104.454 Y120.636 E0.02693
G1 F5760
G1 X103.853 Y120.035 E-0.29438
G1 F5760
G1 X103.853 Y119.496 E-0.18666
G1 F5760
G1 X104.422 Y120.066 E-0.27896
G1 E-0.04000 F2100.00000
G1 X129.203 Y117.900 F7200.000
G1 E0.80000 F2100.00000
G1 F1680
G1 X128.264 Y116.961 E0.04209
G1 X127.725 Y116.961 E0.01708
G1 X129.727 Y118.962 E0.08970
G1 F5760
G1 X128.175 Y117.411 E-0.76000
G1 E-0.04000 F2100.00000
G1 X128.862 Y116.866 F7200.000
G1 E0.80000 F2100.00000
G1 F1680
G1 X128.856 Y116.611 E0.00402
G1 X128.880 Y116.357 E0.00403
G1 F1680
G1 X128.928 Y115.848 E0.01132
G1 X128.683 Y114.891 F7200.000
G1 F1680
G1 X129.179 Y115.387 E0.02356
G1 X129.362 Y114.999 E0.01441
G1 X128.853 Y114.490 E0.02418
G1 X128.853 Y113.919 E0.01917
G1 X129.591 Y114.657 E0.03505
G1 X129.849 Y114.344 E0.01362
G1 X128.853 Y113.348 E0.04732
G1 X128.853 Y113.253 E0.00319
G1 X129.329 Y113.253 E0.01598
G1 X130.129 Y114.052 E0.03798
G1 X130.459 Y113.812 E0.01373
G1 X129.900 Y113.253 E0.02657
G1 X130.471 Y113.253 E0.01917
G1 X130.919 Y113.701 E0.02130
G1 X131.282 Y113.312 F7200.000
G1 F1680
G1 X131.666 Y113.238 E0.00539
G1 F1680
G1 X131.971 Y113.218 E0.00285
G1 F1680
G1 X132.542 Y113.182 E0.00202
G1 X132.669 Y113.182 F7200.000
G1 F1680
G1 X132.955 Y113.200 E0.00101
G1 F1680
G1 X133.546 Y113.238 E0.00577
G1 F1680
G1 X133.929 Y113.312 E0.00699
G1 F5760
G1 X133.546 Y113.238 E-0.13524
G1 E-0.66476 F2100.00000
G1 X120.642 Y86.754 F7200.000
G1 E0.80000 F2100.00000
G1 F1680
G1 X144.570 Y86.754 E0.75026
G1 X144.570 Y91.683 E0.15452
G1 X135.070 Y91.683 E0.29787
G1 X135.070 Y101.183 E0.29787
G1 X130.142 Y101.183 E0.15452
G1 X130.142 Y91.683 E0.29787
G1 X120.642 Y91.683 E0.29787
G1 X120.642 Y86.814 E0.15264
G1 X121.019 Y87.131 F7200.000
G1 F1680
G1 X144.193 Y87.131 E0.72661
G1 X144.193 Y91.306 E0.13088
G1 X134.693 Y91.306 E0.29787
G1 X134.693 Y100.806 E0.29787
G1 X130.519 Y100.806 E0.13088
G1 X130.519 Y91.306 E0.29787
G1 X121.019 Y91.306 E0.29787
G1 X121.019 Y87.191 E0.12900
G1 X121.396 Y87.509 F7200.000
G1 F1260
G1 X143.816 Y87.509 E0.70296
G1 X143.816 Y90.929 E0.10723
G1 X134.316 Y90.929 E0.29787
G1 X134.316 Y100.429 E0.29787
G1 X130.896 Y100.429 E0.10723
G1 X130.896 Y90.929 E0.29787
G1 X121.396 Y90.929 E0.29787
G1 X121.396 Y87.569 E0.10535
G1 X121.237 Y87.141 F7200.000
G1 F5760
G1 X123.590 Y87.563 E-0.76000
G1 E-0.04000 F2100.00000
G1 X136.642 Y92.149 F7200.000
G1 E0.80000 F2100.00000
G1 F1680
G1 X136.642 Y107.041 E0.46693
G1 X128.570 Y107.041 E0.25308
