; generated by Slic3r 1.33.8-prusa3d-win64 on 2017-03-19 at 10:03:54

; external perimeters extrusion width = 0.45mm
; perimeters extrusion width = 0.45mm
; infill extrusion width = 0.45mm
; solid infill extrusion width = 0.45mm
; top infill extrusion width = 0.45mm

M107
M115 U3.0.10 ; tell printer latest fw version
M83  ; extruder relative mode
M104 S215 ; set extruder temp
M140 S55 ; set bed temp
M190 S55 ; wait for bed temp
M109 S215 ; wait for extruder temp
G28 W ; home all without mesh bed level
G80 ; mesh bed leveling
G1 Y-3.0 F1000.0 ; go outside pritn area
G1 X60.0 E9.0  F1000.0 ; intro line
G1 X100.0 E12.5  F1000.0 ; intro line
G21 ; set units to millimeters
G90 ; use absolute coordinates
M83 ; use relative distances for extrusion
G1 E-0.80000 F2100.00000
G1 Z0.200 F7200.000
G1 X112.181 Y91.018 F7200.000
G1 E0.80000 F2100.00000
M204 S1000
G1 F1980.344
G1 X121.773 Y81.366 E0.42667
G1 X122.012 Y81.154 E0.01002
G1 X122.278 Y80.969 E0.01015
G1 X122.548 Y80.823 E0.00964
G1 X122.837 Y80.707 E0.00976
G1 X123.134 Y80.625 E0.00964
G1 X123.441 Y80.577 E0.00976
G1 X123.707 Y80.563 E0.00835
G1 X126.247 Y80.569 E0.07964
G1 X126.729 Y80.644 E0.01528
G1 X127.190 Y80.802 E0.01528
G1 X127.615 Y81.039 E0.01528
G1 X127.992 Y81.348 E0.01528
G1 X128.176 Y81.546 E0.00848
G1 X128.342 Y81.765 E0.00861
G1 X128.485 Y81.999 E0.00861
G1 X128.605 Y82.246 E0.00861
G1 X128.697 Y82.501 E0.00848
G1 X128.766 Y82.767 E0.00861
G1 X128.807 Y83.038 E0.00861
G1 X128.821 Y83.312 E0.00861
G1 X128.820 Y104.711 E0.67095
G1 X128.756 Y105.215 E0.01592
G1 X128.600 Y105.698 E0.01592
G1 X128.359 Y106.145 E0.01592
G1 X128.039 Y106.539 E0.01592
G1 X127.841 Y106.724 E0.00848
G1 X127.626 Y106.888 E0.00848
G1 X127.396 Y107.029 E0.00848
G1 X127.149 Y107.150 E0.00861
G1 X126.895 Y107.244 E0.00848
G1 X126.630 Y107.313 E0.00861
G1 X126.358 Y107.356 E0.00861
G1 X126.088 Y107.371 E0.00848
G1 X123.676 Y107.371 E0.07563
G1 X123.224 Y107.327 E0.01425
G1 X122.831 Y107.225 E0.01272
G1 X122.454 Y107.065 E0.01284
G1 X122.108 Y106.853 E0.01272
G1 X121.795 Y106.589 E0.01284
G1 X112.306 Y97.051 E0.42186
G1 X112.105 Y96.823 E0.00951
G1 X111.928 Y96.572 E0.00964
G1 X111.781 Y96.302 E0.00964
G1 X111.663 Y96.014 E0.00976
G1 X111.579 Y95.718 E0.00964
G1 X111.529 Y95.411 E0.00976
G1 X111.513 Y95.133 E0.00874
G1 X111.515 Y92.710 E0.07595
G1 X111.568 Y92.267 E0.01400
G1 X111.694 Y91.835 E0.01413
G1 X111.887 Y91.432 E0.01400
G1 X112.143 Y91.064 E0.01404
G1 X112.447 Y91.288 F7200.000
G1 F1980.344
G1 X122.037 Y81.635 E0.42664
G1 X122.233 Y81.460 E0.00824
G1 X122.447 Y81.308 E0.00824
G1 X122.687 Y81.175 E0.00859
G1 X122.944 Y81.069 E0.00871
G1 X123.211 Y80.994 E0.00871
G1 X123.486 Y80.951 E0.00871
G1 X126.204 Y80.944 E0.08523
G1 X126.622 Y81.006 E0.01324
G1 X127.025 Y81.142 E0.01336
G1 X127.398 Y81.348 E0.01336
G1 X127.729 Y81.617 E0.01336
G1 X128.031 Y81.978 E0.01478
G1 X128.257 Y82.393 E0.01478
G1 X128.396 Y82.843 E0.01478
G1 X128.444 Y83.312 E0.01478
G1 X128.443 Y104.686 E0.67015
G1 X128.390 Y105.124 E0.01383
G1 X128.256 Y105.544 E0.01383
G1 X128.047 Y105.933 E0.01383
G1 X127.770 Y106.276 E0.01383
G1 X127.412 Y106.577 E0.01467
G1 X127.002 Y106.803 E0.01467
G1 X126.556 Y106.943 E0.01467
G1 X126.087 Y106.994 E0.01478
G1 X123.690 Y106.994 E0.07515
G1 X123.323 Y106.961 E0.01157
G1 X122.972 Y106.874 E0.01133
G1 X122.642 Y106.737 E0.01122
G1 X122.336 Y106.552 E0.01122
G1 X122.058 Y106.320 E0.01133
G1 X112.576 Y96.788 E0.42155
G1 X112.414 Y96.606 E0.00764
G1 X112.269 Y96.405 E0.00776
G1 X112.133 Y96.164 E0.00871
G1 X112.025 Y95.907 E0.00871
G1 X111.947 Y95.637 E0.00883
G1 X111.903 Y95.362 E0.00871
G1 X111.891 Y92.752 E0.08183
G1 X111.932 Y92.370 E0.01205
G1 X112.035 Y92.000 E0.01205
G1 X112.194 Y91.654 E0.01193
G1 X112.409 Y91.335 E0.01208
G1 F5760
G1 X113.955 Y89.777 E-0.76000
G1 E-0.04000 F2100.00000
G1 X121.799 Y91.120 F7200.000
G1 E0.80000 F2100.00000
G1 F1980.344
G1 X122.020 Y90.899 E0.00979
G1 X122.020 Y82.614 E0.25977
G1 X123.014 Y81.620 E0.04408
G1 X126.770 Y81.620 E0.11776
G1 X127.764 Y82.614 E0.04408
G1 X127.764 Y105.320 E0.71192
G1 X126.770 Y106.314 E0.04408
G1 X123.014 Y106.314 E0.11776
G1 X122.020 Y105.320 E0.04408
G1 X122.020 Y97.035 E0.25977
G1 X121.799 Y96.814 E0.00979
G1 X113.564 Y96.814 E0.25821
G1 X112.570 Y95.820 E0.04408
G1 X112.570 Y92.114 E0.11619
G1 X113.564 Y91.120 E0.04408
G1 X121.739 Y91.120 E0.25633
G1 X122.176 Y91.497 F7200.000
G1 F1980.344
G1 X122.397 Y91.276 E0.00979
G1 X122.397 Y82.770 E0.26670
G1 X123.170 Y81.997 E0.03428
G1 X126.614 Y81.997 E0.10796
G1 X127.387 Y82.770 E0.03428
G1 X127.387 Y105.164 E0.70213
G1 X126.614 Y105.937 E0.03428
G1 X123.170 Y105.937 E0.10796
G1 X122.397 Y105.164 E0.03428
G1 X122.397 Y96.658 E0.26670
G1 X122.176 Y96.437 E0.00979
G1 X113.720 Y96.437 E0.26513
G1 X112.947 Y95.664 E0.03428
G1 X112.947 Y92.270 E0.10640
G1 X113.720 Y91.497 E0.03428
G1 X122.116 Y91.497 E0.26325
G1 X122.553 Y91.874 F7200.000
G1 F1980.344
G1 X122.774 Y91.653 E0.00979
G1 X122.774 Y82.927 E0.27363
G1 X123.327 Y82.374 E0.02449
G1 X126.458 Y82.374 E0.09817
G1 X127.010 Y82.927 E0.02449
G1 X127.010 Y105.008 E0.69233
G1 X126.458 Y105.560 E0.02449
G1 X123.327 Y105.560 E0.09817
G1 X122.774 Y105.008 E0.02449
G1 X122.774 Y96.281 E0.27363
G1 X122.553 Y96.060 E0.00979
G1 X113.877 Y96.060 E0.27206
G1 X113.324 Y95.508 E0.02449
G1 X113.324 Y92.427 E0.09660
G1 X113.877 Y91.874 E0.02449
G1 X122.493 Y91.874 E0.27018
G1 X122.931 Y92.251 F7200.000
G1 F1980.344
G1 X123.151 Y92.031 E0.00979
G1 X123.151 Y83.083 E0.28055
G1 X123.483 Y82.751 E0.01469
G1 X126.301 Y82.751 E0.08837
G1 X126.633 Y83.083 E0.01469
G1 X126.633 Y104.851 E0.68254
G1 X126.301 Y105.183 E0.01469
G1 X123.483 Y105.183 E0.08837
G1 X123.151 Y104.851 E0.01469
G1 X123.151 Y95.904 E0.28055
G1 X122.931 Y95.683 E0.00979
G1 X114.033 Y95.683 E0.27898
G1 X113.701 Y95.351 E0.01469
G1 X113.701 Y92.583 E0.08681
G1 X114.033 Y92.251 E0.01469
G1 X122.871 Y92.251 E0.27710
G1 X123.308 Y92.628 F7200.000
G1 F1980.344
G1 X123.528 Y92.408 E0.00979
G1 X123.528 Y83.239 E0.28748
G1 X123.639 Y83.128 E0.00490
G1 X126.145 Y83.128 E0.07858
G1 X126.256 Y83.239 E0.00490
G1 X126.256 Y104.695 E0.67274
G1 X126.145 Y104.806 E0.00490
G1 X123.639 Y104.806 E0.07858
G1 X123.528 Y104.695 E0.00490
G1 X123.528 Y95.526 E0.28748
G1 X123.308 Y95.306 E0.00979
G1 X114.189 Y95.306 E0.28591
G1 X114.078 Y95.195 E0.00490
G1 X114.078 Y92.739 E0.07701
G1 X114.189 Y92.628 E0.00490
G1 X123.248 Y92.628 E0.28403
G1 F5760
G1 X123.528 Y92.408 E-0.12376
G1 F5760
G1 X123.528 Y90.571 E-0.63624
G1 E-0.04000 F2100.00000
G1 X123.927 Y94.907 F7200.000
G1 E0.80000 F2100.00000
G1 F990.172
G1 X114.477 Y94.907 E0.29630
G1 X114.477 Y93.027 E0.05895
G1 X123.927 Y93.027 E0.29630
G1 X123.927 Y83.527 E0.29787
G1 X125.857 Y83.527 E0.06051
G1 X125.857 Y104.407 E0.65468
G1 X123.927 Y104.407 E0.06051
G1 X123.927 Y94.967 E0.29598
G1 X123.900 Y94.508 F7200.000
G1 X124.304 Y94.530 F7200.000
G1 F1584.276
G1 X114.854 Y94.530 E0.29630
G1 X114.854 Y93.404 E0.03530
G1 X124.304 Y93.404 E0.29630
G1 X124.304 Y83.904 E0.29787
G1 X125.480 Y83.904 E0.03687
G1 X125.480 Y104.030 E0.63103
G1 X124.304 Y104.030 E0.03687
G1 X124.304 Y94.590 E0.29598
G1 X124.681 Y94.153 F7200.000
G1 F1584.276
G1 X115.231 Y94.153 E0.29630
G1 X115.231 Y93.781 E0.01165
G1 X124.681 Y93.781 E0.29630
G1 X124.681 Y84.281 E0.29787
G1 X125.103 Y84.281 E0.01322
G1 X125.103 Y103.653 E0.60739
G1 X124.681 Y103.653 E0.01322
G1 X124.681 Y94.213 E0.29598
M106 S255
M104 S205 ; set temperature
G1 F5760
G1 X122.487 Y94.199 E-0.76000
G1 E-0.04000 F2100.00000
G1 Z0.350 F7200.000
G1 X124.603 Y94.231 F7200.000
G1 E0.80000 F2100.00000
M204 S800
G1 F900.000
G1 X115.153 Y94.231 E0.24623
G1 X115.153 Y93.703 E0.01378
G1 X124.603 Y93.703 E0.24623
G1 X124.603 Y84.203 E0.24753
G1 X125.181 Y84.203 E0.01508
G1 X125.181 Y103.731 E0.50884
G1 X124.603 Y103.731 E0.01508
G1 X124.603 Y94.291 E0.24597
M204 S1000
G1 X124.185 Y94.649 F7200.000
M204 S800
G1 F900.000
G1 X114.735 Y94.649 E0.24623
G1 X114.735 Y93.285 E0.03555
G1 X124.185 Y93.285 E0.24623
G1 X124.185 Y83.785 E0.24753
G1 X125.599 Y83.785 E0.03685
G1 X125.599 Y104.149 E0.53061
G1 X124.185 Y104.149 E0.03685
G1 X124.185 Y94.709 E0.24597
M204 S1000
G1 X123.767 Y95.067 F7200.000
M204 S800
G1 F900.000
G1 X114.317 Y95.067 E0.24623
G1 X114.317 Y92.867 E0.05732
G1 X123.767 Y92.867 E0.24623
G1 X123.767 Y83.367 E0.24753
G1 X126.017 Y83.367 E0.05863
G1 X126.017 Y104.567 E0.55238
G1 X123.767 Y104.567 E0.05863
G1 X123.767 Y95.127 E0.24597
M204 S1000
G1 X123.736 Y94.668 F7200.000
G1 F5760
G1 X121.573 Y95.113 E-0.76000
G1 E-0.04000 F2100.00000
G1 X124.812 Y93.967 F7200.000
G1 E0.80000 F2100.00000
G1 F900.000
G1 X115.362 Y93.967 E0.04642
G1 F5760
G1 X117.556 Y93.967 E-0.76000
G1 E-0.04000 F2100.00000
G1 X124.812 Y93.967 F7200.000
G1 E0.80000 F2100.00000
G1 F900.000
G1 X124.882 Y93.967 E0.00065
G1 F900.000
G1 X124.892 Y84.412 E0.08813
G1 F5760
G1 X124.890 Y86.606 E-0.76000
G1 E-0.04000 F2100.00000
G1 X124.882 Y93.967 F7200.000
G1 E0.80000 F2100.00000
G1 F900.000
G1 X124.892 Y103.523 E0.07673
G1 F5760
G1 X124.890 Y101.328 E-0.76000
G1 E-0.04000 F2100.00000
G1 Z0.500 F7200.000
G1 X124.478 Y94.356 F7200.000
G1 E0.80000 F2100.00000
M204 S800
G1 F900.000
G1 X115.028 Y94.356 E0.24623
G1 X115.028 Y93.578 E0.02029
G1 X124.478 Y93.578 E0.24623
G1 X124.478 Y84.078 E0.24753
G1 X125.306 Y84.078 E0.02159
G1 X125.306 Y103.856 E0.51535
G1 X124.478 Y103.856 E0.02159
G1 X124.478 Y94.416 E0.24597
M204 S1000
G1 X124.060 Y94.774 F7200.000
M204 S800
G1 F900.000
G1 X114.610 Y94.774 E0.24623
G1 X114.610 Y93.160 E0.04206
G1 X124.060 Y93.160 E0.24623
G1 X124.060 Y83.660 E0.24753
G1 X125.724 Y83.660 E0.04337
G1 X125.724 Y104.274 E0.53712
G1 X124.060 Y104.274 E0.04337
G1 X124.060 Y94.834 E0.24597
M204 S1000
G1 X123.642 Y95.192 F7200.000
M204 S800
G1 F900.000
G1 X114.192 Y95.192 E0.24623
G1 X114.192 Y92.742 E0.06384
G1 X123.642 Y92.742 E0.24623
G1 X123.642 Y83.242 E0.24753
G1 X126.142 Y83.242 E0.06514
G1 X126.142 Y104.692 E0.55890
G1 X123.642 Y104.692 E0.06514
G1 X123.642 Y95.252 E0.24597
M204 S1000
G1 X123.608 Y94.794 F7200.000
G1 F5760
G1 X121.448 Y95.238 E-0.76000
G1 E-0.04000 F2100.00000
G1 X124.742 Y93.967 F7200.000
G1 E0.80000 F2100.00000
G1 F900.000
G1 X115.237 Y93.967 E0.22043
G1 F5760
G1 X117.431 Y93.967 E-0.76000
G1 E-0.04000 F2100.00000
G1 X124.742 Y93.967 F7200.000
G1 E0.80000 F2100.00000
G1 F900.000
G1 X124.852 Y93.967 E0.00316
G1 F900.000
G1 X124.892 Y93.787 E0.00528
G1 F900.000
G1 X124.892 Y84.287 E0.22440
G1 F5760
G1 X124.892 Y86.481 E-0.76000
G1 E-0.04000 F2100.00000
G1 X124.852 Y93.967 F7200.000
G1 E0.80000 F2100.00000
G1 F900.000
G1 X124.872 Y94.057 E0.00264
G1 F900.000
G1 X124.892 Y94.148 E0.00218
G1 X124.892 Y103.648 E0.22440
G1 F5760
G1 X124.892 Y101.453 E-0.76000
G1 E-0.04000 F2100.00000
G1 Z0.650 F7200.000
G1 X124.478 Y94.356 F7200.000
G1 E0.80000 F2100.00000
M204 S800
G1 F900.000
G1 X115.028 Y94.356 E0.24623
G1 X115.028 Y93.578 E0.02029
G1 X124.478 Y93.578 E0.24623
G1 X124.478 Y84.078 E0.24753
G1 X125.306 Y84.078 E0.02159
G1 X125.306 Y103.856 E0.51535
G1 X124.478 Y103.856 E0.02159
G1 X124.478 Y94.416 E0.24597
M204 S1000
G1 X124.060 Y94.774 F7200.000
M204 S800
G1 F900.000
G1 X114.610 Y94.774 E0.24623
G1 X114.610 Y93.160 E0.04206
G1 X124.060 Y93.160 E0.24623
G1 X124.060 Y83.660 E0.24753
G1 X125.724 Y83.660 E0.04337
G1 X125.724 Y104.274 E0.53712
G1 X124.060 Y104.274 E0.04337
G1 X124.060 Y94.834 E0.24597
M204 S1000
G1 X123.642 Y95.192 F7200.000
M204 S800
G1 F900.000
G1 X114.192 Y95.192 E0.24623
G1 X114.192 Y92.742 E0.06384
G1 X123.642 Y92.742 E0.24623
G1 X123.642 Y83.242 E0.24753
G1 X126.142 Y83.242 E0.06514
G1 X126.142 Y104.692 E0.55890
G1 X123.642 Y104.692 E0.06514
G1 X123.642 Y95.252 E0.24597
M204 S1000
G1 X123.608 Y94.794 F7200.000
G1 F5760
G1 X121.448 Y95.238 E-0.76000
G1 E-0.04000 F2100.00000
G1 X124.742 Y93.967 F7200.000
G1 E0.80000 F2100.00000
G1 F900.000
G1 X115.237 Y93.967 E0.22043
G1 F5760
G1 X117.431 Y93.967 E-0.76000
G1 E-0.04000 F2100.00000
G1 X124.742 Y93.967 F7200.000
G1 E0.80000 F2100.00000
G1 F900.000
G1 X124.852 Y93.967 E0.00316
G1 F900.000
G1 X124.892 Y93.787 E0.00528
G1 F900.000
G1 X124.892 Y84.287 E0.22440
G1 F5760
G1 X124.892 Y86.481 E-0.76000
G1 E-0.04000 F2100.00000
G1 X124.852 Y93.967 F7200.000
G1 E0.80000 F2100.00000
G1 F900.000
G1 X124.872 Y94.057 E0.00264
G1 F900.000
G1 X124.892 Y94.148 E0.00218
G1 X124.892 Y103.648 E0.22440
G1 F5760
G1 X124.892 Y101.453 E-0.76000
G1 E-0.04000 F2100.00000
G1 Z0.800 F7200.000
G1 X124.478 Y94.356 F7200.000
G1 E0.80000 F2100.00000
M204 S800
G1 F900.000
G1 X115.028 Y94.356 E0.24623
G1 X115.028 Y93.578 E0.02029
G1 X124.478 Y93.578 E0.24623
G1 X124.478 Y84.078 E0.24753
G1 X125.306 Y84.078 E0.02159
G1 X125.306 Y103.856 E0.51535
G1 X124.478 Y103.856 E0.02159
G1 X124.478 Y94.416 E0.24597
M204 S1000
G1 X124.060 Y94.774 F7200.000
M204 S800
G1 F900.000
G1 X114.610 Y94.774 E0.24623
G1 X114.610 Y93.160 E0.04206
G1 X124.060 Y93.160 E0.24623
G1 X124.060 Y83.660 E0.24753
G1 X125.724 Y83.660 E0.04337
G1 X125.724 Y104.274 E0.53712
G1 X124.060 Y104.274 E0.04337
G1 X124.060 Y94.834 E0.24597
M204 S1000
G1 X123.642 Y95.192 F7200.000
M204 S800
G1 F900.000
G1 X114.192 Y95.192 E0.24623
G1 X114.192 Y92.742 E0.06384
G1 X123.642 Y92.742 E0.24623
G1 X123.642 Y83.242 E0.24753
G1 X126.142 Y83.242 E0.06514
G1 X126.142 Y104.692 E0.55890
G1 X123.642 Y104.692 E0.06514
G1 X123.642 Y95.252 E0.24597
M204 S1000
G1 X123.608 Y94.794 F7200.000
G1 F5760
G1 X121.448 Y95.238 E-0.76000
G1 E-0.04000 F2100.00000
G1 X124.742 Y93.967 F7200.000
G1 E0.80000 F2100.00000
G1 F900.000
G1 X115.237 Y93.967 E0.22043
G1 F5760
G1 X117.431 Y93.967 E-0.76000
G1 E-0.04000 F2100.00000
G1 X124.742 Y93.967 F7200.000
G1 E0.80000 F2100.00000
G1 F900.000
G1 X124.852 Y93.967 E0.00316
G1 F900.000
G1 X124.892 Y93.787 E0.00528
G1 F900.000
G1 X124.892 Y84.287 E0.22440
G1 F5760
G1 X124.892 Y86.481 E-0.76000
G1 E-0.04000 F2100.00000
G1 X124.852 Y93.967 F7200.000
G1 E0.80000 F2100.00000
G1 F900.000
G1 X124.872 Y94.057 E0.00264
G1 F900.000
G1 X124.892 Y94.148 E0.00218
G1 X124.892 Y103.648 E0.22440
G1 F5760
G1 X124.892 Y101.453 E-0.76000
G1 E-0.04000 F2100.00000
G1 Z0.950 F7200.000
G1 X124.478 Y94.356 F7200.000
G1 E0.80000 F2100.00000
M204 S800
G1 F900.000
G1 X115.028 Y94.356 E0.24623
G1 X115.028 Y93.578 E0.02029
G1 X124.478 Y93.578 E0.24623
G1 X124.478 Y84.078 E0.24753
G1 X125.306 Y84.078 E0.02159
G1 X125.306 Y103.856 E0.51535
G1 X124.478 Y103.856 E0.02159
G1 X124.478 Y94.416 E0.24597
M204 S1000
G1 X124.060 Y94.774 F7200.000
M204 S800
G1 F900.000
G1 X114.610 Y94.774 E0.24623
G1 X114.610 Y93.160 E0.04206
G1 X124.060 Y93.160 E0.24623
G1 X124.060 Y83.660 E0.24753
G1 X125.724 Y83.660 E0.04337
G1 X125.724 Y104.274 E0.53712
G1 X124.060 Y104.274 E0.04337
G1 X124.060 Y94.834 E0.24597
M204 S1000
G1 X123.642 Y95.192 F7200.000
M204 S800
G1 F900.000
G1 X114.192 Y95.192 E0.24623
G1 X114.192 Y92.742 E0.06384
G1 X123.642 Y92.742 E0.24623
G1 X123.642 Y83.242 E0.24753
G1 X126.142 Y83.242 E0.06514
G1 X126.142 Y104.692 E0.55890
G1 X123.642 Y104.692 E0.06514
G1 X123.642 Y95.252 E0.24597
M204 S1000
G1 X123.608 Y94.794 F7200.000
G1 F5760
G1 X121.448 Y95.238 E-0.76000
G1 E-0.04000 F2100.00000
G1 X124.742 Y93.967 F7200.000
G1 E0.80000 F2100.00000
G1 F900.000
G1 X115.237 Y93.967 E0.22043
G1 F5760
G1 X117.431 Y93.967 E-0.76000
G1 E-0.04000 F2100.00000
G1 X124.742 Y93.967 F7200.000
G1 E0.80000 F2100.00000
G1 F900.000
G1 X124.852 Y93.967 E0.00316
G1 F900.000
G1 X124.892 Y93.787 E0.00528
G1 F900.000
G1 X124.892 Y84.287 E0.22440
G1 F5760
G1 X124.892 Y86.481 E-0.76000
