( Made using CamBam - http://www.cambam.co.uk )
( untere_Gasse_13 5/4/2017 9:32:30 PM )
( T3 : 3.0 )
G21 G90 G64 G40
G0 Z3.0
( T3 : 3.0 )
T3 M6
( 13_Profil )
G17
M3 S1000
G0 X125.73147 Y-41.5339
G0 Z1.0
G1 F300.0 Z-2.5
G3 F800.0 X131.39126 Y-39.98747 I0.26052 J10.17685
G3 X131.55744 Y-39.86694 I-0.79555 J1.27165
G3 X133.9242 Y-36.42605 I-4.97839 J5.95873
G3 X134.88458 Y-32.91655 I-18.61643 J6.98057
G2 X135.53368 Y-30.13285 I28.7245 J-5.2304
G3 X135.55407 Y-30.05323 I-1.44239 J0.41173
G2 X136.51934 Y-28.06263 I4.76712 J-1.08233
G2 X138.11775 Y-27.47131 I1.57012 J-1.7882
G2 X139.4179 Y-28.23926 I-0.06031 J-1.58666
G3 X139.45861 Y-28.30319 I1.28522 J0.77344
G2 X140.3481 Y-31.51154 I-4.36668 J-2.93811
G2 X139.65903 Y-38.05485 I-75.85635 J4.68053
G3 X139.6538 Y-38.09324 I1.48355 J-0.22152
G3 X139.02737 Y-48.10699 I83.15162 J-10.22816
G3 X139.65355 Y-59.90277 I86.93094 J-1.2998
G3 X139.67112 Y-60.01291 I1.48903 J0.18109
G2 X140.35025 Y-64.50167 I-49.24165 J-9.74575
G2 X139.52424 Y-67.50982 I-4.91247 J-0.26858
G2 X136.86159 Y-68.50919 I-2.40713 J2.36662
G3 X136.70691 Y-68.50545 I-0.11354 J-1.4957
G2 X135.71658 Y-68.16194 I-0.04066 J1.48212
G2 X135.05342 Y-66.27443 I4.21838 J2.54233
G3 X135.03967 Y-66.19017 I-1.48668 J-0.19943
G2 X134.63557 Y-63.51306 I32.86108 J6.32924
G3 X134.6343 Y-63.50186 I-1.49104 J-0.1637
G3 X133.73554 Y-59.79078 I-15.74207 J-1.84809
G3 X131.11778 Y-56.30509 I-6.84585 J-2.41542
G3 X131.07315 Y-56.27431 I-0.87363 J-1.21933
G3 X124.68775 Y-54.44234 I-6.0904 J-9.18403
G1 X42.04812 Y-54.2667
G3 X36.52414 Y-56.06483 I-0.45285 J-7.9929
G3 X34.28075 Y-59.65929 I3.14681 J-4.46131
G3 X34.2678 Y-60.03239 I1.48097 J-0.23817
G3 X35.39528 Y-63.4918 I8.12151 J0.73351
G3 X37.10079 Y-66.14563 I21.61895 J12.01859
G2 X38.54402 Y-68.39245 I-18.29065 J-13.33583
G3 X38.57513 Y-68.44526 I1.30768 J0.73482
G2 X39.27684 Y-70.48648 I-4.17694 J-2.57713
G2 X38.65339 Y-72.38796 I-2.69959 J-0.16782
G2 X36.67216 Y-72.9919 I-1.79948 J2.35149
G2 X35.33094 Y-72.39264 I0.2293 J2.31375
G3 X35.27804 Y-72.34642 I-1.0132 J-1.10609
G2 X33.77383 Y-70.83143 I7.26445 J8.717
G2 X26.55655 Y-60.65611 I138.18285 J105.65938
G3 X26.53109 Y-60.61859 I-1.25381 J-0.82338
G1 X19.32749 Y-50.34029
G2 X13.30642 Y-41.17784 I205.90581 J141.86986
G2 X12.29868 Y-37.93324 I5.89894 J3.61095
G3 X12.29695 Y-37.90558 I-1.49789 J-0.07945
G2 X12.62589 Y-36.8474 I1.51716 J0.10861
G2 X13.76599 Y-36.52037 I1.03199 J-1.44696
G2 X17.90956 Y-38.07809 I-0.68874 J-8.12195
G3 X17.97894 Y-38.12621 I0.88926 J1.20798
G3 X30.32823 Y-41.70989 I12.05334 J18.46609
G1 X101.14721 Y-41.1827
G1 X125.73147 Y-41.5339
G1 F300.0 Z-5.0
G3 F800.0 X131.39126 Y-39.98747 I0.26052 J10.17685
G3 X131.55744 Y-39.86694 I-0.79555 J1.27165
G3 X133.9242 Y-36.42605 I-4.97839 J5.95873
G3 X134.88458 Y-32.91655 I-18.61643 J6.98057
G2 X135.53368 Y-30.13285 I28.7245 J-5.2304
G3 X135.55407 Y-30.05323 I-1.44239 J0.41173
G2 X136.51934 Y-28.06263 I4.76712 J-1.08233
G2 X138.11775 Y-27.47131 I1.57012 J-1.7882
G2 X139.4179 Y-28.23926 I-0.06031 J-1.58666
G3 X139.45861 Y-28.30319 I1.28522 J0.77344
G2 X140.3481 Y-31.51154 I-4.36668 J-2.93811
G2 X139.65903 Y-38.05485 I-75.85635 J4.68053
G3 X139.6538 Y-38.09324 I1.48355 J-0.22152
G3 X139.02737 Y-48.10699 I83.15162 J-10.22816
G3 X139.65355 Y-59.90277 I86.93094 J-1.2998
G3 X139.67112 Y-60.01291 I1.48903 J0.18109
G2 X140.35025 Y-64.50167 I-49.24165 J-9.74575
G2 X139.52424 Y-67.50982 I-4.91247 J-0.26858
G2 X136.86159 Y-68.50919 I-2.40713 J2.36662
G3 X136.70691 Y-68.50545 I-0.11354 J-1.4957
G2 X135.71658 Y-68.16194 I-0.04066 J1.48212
G2 X135.05342 Y-66.27443 I4.21838 J2.54233
G3 X135.03967 Y-66.19017 I-1.48668 J-0.19943
G2 X134.63557 Y-63.51306 I32.86108 J6.32924
G3 X134.6343 Y-63.50186 I-1.49104 J-0.1637
G3 X133.73554 Y-59.79078 I-15.74207 J-1.84809
G3 X131.11778 Y-56.30509 I-6.84585 J-2.41542
G3 X131.07315 Y-56.27431 I-0.87363 J-1.21933
G3 X124.68775 Y-54.44234 I-6.0904 J-9.18403
G1 X42.04812 Y-54.2667
G3 X36.52414 Y-56.06483 I-0.45285 J-7.9929
G3 X34.28075 Y-59.65929 I3.14681 J-4.46131
G3 X34.2678 Y-60.03239 I1.48097 J-0.23817
G3 X35.39528 Y-63.4918 I8.12151 J0.73351
G3 X37.10079 Y-66.14563 I21.61895 J12.01859
G2 X38.54402 Y-68.39245 I-18.29065 J-13.33583
G3 X38.57513 Y-68.44526 I1.30768 J0.73482
G2 X39.27684 Y-70.48648 I-4.17694 J-2.57713
G2 X38.65339 Y-72.38796 I-2.69959 J-0.16782
G2 X36.67216 Y-72.9919 I-1.79948 J2.35149
G2 X35.33094 Y-72.39264 I0.2293 J2.31375
G3 X35.27804 Y-72.34642 I-1.0132 J-1.10609
G2 X33.77383 Y-70.83143 I7.26445 J8.717
G2 X26.55655 Y-60.65611 I138.18285 J105.65938
G3 X26.53109 Y-60.61859 I-1.25381 J-0.82338
G1 X19.32749 Y-50.34029
G2 X13.30642 Y-41.17784 I205.90581 J141.86986
G2 X12.29868 Y-37.93324 I5.89894 J3.61095
G3 X12.29695 Y-37.90558 I-1.49789 J-0.07945
G2 X12.62589 Y-36.8474 I1.51716 J0.10861
G2 X13.76599 Y-36.52037 I1.03199 J-1.44696
G2 X17.90956 Y-38.07809 I-0.68874 J-8.12195
G3 X17.97894 Y-38.12621 I0.88926 J1.20798
G3 X30.32823 Y-41.70989 I12.05334 J18.46609
G1 X101.14721 Y-41.1827
G1 X125.73147 Y-41.5339
G0 Z3.0
G0 X124.80704 Y-20.342
G0 Z1.0
G1 F300.0 Z-2.5
G2 F800.0 X123.5364 Y-19.78222 I-0.01293 J1.69266
G3 X123.42828 Y-19.67386 I-1.11453 J-1.00391
G2 X122.8736 Y-18.56954 I1.14685 J1.2675
G2 X123.95016 Y-16.43979 I3.95749 J-0.6635
G3 X124.01004 Y-16.37426 I-1.07692 J1.04415
G2 X126.29282 Y-14.10756 I15.60981 J-13.43768
G3 X126.31355 Y-14.08964 I-0.97056 J1.14369
G3 X131.62501 Y-8.37956 I-25.91763 J29.43374
G3 X135.36032 Y-1.30403 I-19.03231 J14.57124
G3 X135.36597 Y-1.28652 I-1.42477 J0.46907
G3 X137.36914 Y11.73412 I-41.18055 J12.99988
G3 X137.36885 Y11.76312 I-1.5 J-0.00072
G3 X131.27295 Y32.97324 I-42.90582 J-0.85029
G3 X113.73264 Y49.96607 I-38.7095 J-22.40754
G3 X100.8498 Y54.78913 I-23.24335 J-42.46795
G3 X100.84788 Y54.78955 I-0.32101 J-1.46525
G3 X87.2569 Y56.21189 I-13.22935 J-60.76663
G3 X87.22798 Y56.21144 I0.00872 J-1.49997
G3 X80.69949 Y55.19468 I0.6424 J-25.59248
G3 X74.67572 Y53.11979 I14.85554 J-52.90968
G3 X62.05542 Y44.36258 I11.05384 J-29.40241
G3 X57.02534 Y30.70891 I15.14391 J-13.33249
G3 X59.45957 Y19.95853 I24.5035 J-0.1024
G3 X59.46599 Y19.94539 I1.35097 J0.65182
G2 X60.74609 Y17.21246 I-63.68722 J-31.4972
G3 X60.77013 Y17.16084 I1.37158 J0.60727
G2 X61.60929 Y14.68217 I-9.18432 J-4.49075
G2 X61.13936 Y14.26861 I-0.40487 J-0.01372
G3 X61.04295 Y14.28111 I-0.24092 J-1.48053
G2 X57.09234 Y15.89062 I0.71769 J7.41484
G3 X56.99937 Y15.95964 I-0.93999 J-1.16894
G1 X33.62774 Y31.95075
G3 X29.8053 Y33.18402 I-3.91151 J-5.58313
G3 X26.43945 Y29.94322 I-0.35867 J-2.99575
G1 Y4.61426
G3 X26.44014 Y4.56894 I1.5 J0.0
G3 X27.71534 Y1.00241 I6.14452 J0.18572
G3 X30.01396 Y-1.32138 I9.65148 J7.24817
G3 X30.01457 Y-1.32185 I0.91377 J1.18955
G2 X31.64721 Y-2.85396 I-6.88598 J-8.9737
G3 X31.69513 Y-2.90627 I1.12967 J0.98684
G2 X32.32846 Y-4.25334 I-1.6768 J-1.61078
G2 X32.01272 Y-4.91558 I-0.90106 J0.02321
G2 X29.8716 Y-5.72188 I-2.67909 J3.86826
G3 X29.82003 Y-5.72873 I0.1715 J-1.49016
G2 X26.98711 Y-5.92683 I-2.66051 J17.69129
G3 X26.96203 Y-5.9268 I-0.01446 J-1.49993
G2 X21.92978 Y-5.43351 I-0.17124 J24.16818
G3 X18.00754 Y-4.87463 I-5.31641 J-23.26804
G3 X17.80541 Y-4.87645 I-0.08762 J-1.49744
G2 X15.07257 Y-3.82525 I-0.26039 J3.40102
G2 X14.23171 Y-0.66068 I4.36487 J2.85379
G3 X14.23438 Y-0.57129 I-1.49733 J0.08939
G1 Y51.45996
G3 X14.23416 Y51.48534 I-1.5 J0.0
G2 X14.56084 Y55.13019 I17.24141 J0.29176
G3 X14.56134 Y55.13275 I-1.47137 J0.29168
G2 X15.13894 Y56.58183 I4.15316 J-0.81577
G3 X15.14519 Y56.59178 I-1.26718 J0.80266
G2 X15.71123 Y56.90336 I0.56102 J-0.34923
G3 X15.73548 Y56.90338 I0.01142 J1.49996
G2 X17.09607 Y56.48503 I0.02014 J-2.35626
G2 X18.47885 Y54.39024 I-5.82569 J-5.34932
G3 X18.50658 Y54.33217 I1.36712 J0.61724
G2 X19.78021 Y51.60235 I-44.16745 J-22.26883
G3 X25.51444 Y44.33057 I14.3645 J5.43048
G3 X25.53021 Y44.32 I0.84298 J1.24072
G1 X46.51018 Y30.4504
G3 X48.47838 Y29.59786 I2.95102 J4.11465
G3 X49.40184 Y29.70912 I0.29115 J1.47147
G3 X50.58531 Y31.5111 I-0.86295 J1.85637
G3 X50.62102 Y32.22681 I-5.96035 J0.65615
G3 X50.61565 Y32.3396 I-1.49993 J-0.0149
G2 X50.2691 Y37.70376 I129.27995 J11.04532
G2 X53.18416 Y51.65967 I32.85328 J0.42013
G2 X62.0165 Y62.86123 I29.01242 J-13.79318
G3 X62.04337 Y62.88344 I-0.94228 J1.16709
G2 X89.79157 Y72.8117 I27.1081 J-32.02321
G3 X89.80969 Y72.81153 I0.02288 J1.49983
G2 X104.17044 Y70.07827 I-0.12616 J-39.75568
G2 X117.03228 Y62.83373 I-19.93605 J-50.43379
G3 X117.04902 Y62.8212 I0.90717 J1.19459
G2 X128.45305 Y52.26967 I-41.61542 J-56.41614
G2 X136.88646 Y39.30442 I-43.68479 J-37.64073
G3 X136.89192 Y39.293 I1.35573 J0.64187
G2 X143.15803 Y12.53615 I-56.531 J-27.35097
G2 X140.85652 Y-1.08092 I-48.68338 J1.22526
G3 X140.84751 Y-1.1101 I1.42864 J-0.45717
G2 X133.33581 Y-14.69869 I-34.77285 J10.35175
G1 X133.33575 Y-14.69875
G2 X129.32511 Y-18.46137 I-21.39671 J18.78828
G3 X129.27772 Y-18.49947 I0.91586 J-1.18794
G2 X124.80704 Y-20.342 I-5.14734 J6.14435
G1 F300.0 Z-5.0
G2 F800.0 X123.5364 Y-19.78222 I-0.01293 J1.69266
G3 X123.42828 Y-19.67386 I-1.11453 J-1.00391
G2 X122.8736 Y-18.56954 I1.14685 J1.2675
G2 X123.95016 Y-16.43979 I3.95749 J-0.6635
G3 X124.01004 Y-16.37426 I-1.07692 J1.04415
G2 X126.29282 Y-14.10756 I15.60981 J-13.43768
G3 X126.31355 Y-14.08964 I-0.97056 J1.14369
G3 X131.62501 Y-8.37956 I-25.91763 J29.43374
G3 X135.36032 Y-1.30403 I-19.03231 J14.57124
G3 X135.36597 Y-1.28652 I-1.42477 J0.46907
G3 X137.36914 Y11.73412 I-41.18055 J12.99988
G3 X137.36885 Y11.76312 I-1.5 J-0.00072
G3 X131.27295 Y32.97324 I-42.90582 J-0.85029
G3 X113.73264 Y49.96607 I-38.7095 J-22.40754
G3 X100.8498 Y54.78913 I-23.24335 J-42.46795
G3 X100.84788 Y54.78955 I-0.32101 J-1.46525
G3 X87.2569 Y56.21189 I-13.22935 J-60.76663
G3 X87.22798 Y56.21144 I0.00872 J-1.49997
G3 X80.69949 Y55.19468 I0.6424 J-25.59248
G3 X74.67572 Y53.11979 I14.85554 J-52.90968
G3 X62.05542 Y44.36258 I11.05384 J-29.40241
G3 X57.02534 Y30.70891 I15.14391 J-13.33249
G3 X59.45957 Y19.95853 I24.5035 J-0.1024
G3 X59.46599 Y19.94539 I1.35097 J0.65182
G2 X60.74609 Y17.21246 I-63.68722 J-31.4972
G3 X60.77013 Y17.16084 I1.37158 J0.60727
G2 X61.60929 Y14.68217 I-9.18432 J-4.49075
G2 X61.13936 Y14.26861 I-0.40487 J-0.01372
G3 X61.04295 Y14.28111 I-0.24092 J-1.48053
G2 X57.09234 Y15.89062 I0.71769 J7.41484
G3 X56.99937 Y15.95964 I-0.93999 J-1.16894
G1 X33.62774 Y31.95075
G3 X29.8053 Y33.18402 I-3.91151 J-5.58313
G3 X26.43945 Y29.94322 I-0.35867 J-2.99575
G1 Y4.61426
G3 X26.44014 Y4.56894 I1.5 J0.0
G3 X27.71534 Y1.00241 I6.14452 J0.18572
G3 X30.01396 Y-1.32138 I9.65148 J7.24817
G3 X30.01457 Y-1.32185 I0.91377 J1.18955
G2 X31.64721 Y-2.85396 I-6.88598 J-8.9737
G3 X31.69513 Y-2.90627 I1.12967 J0.98684
G2 X32.32846 Y-4.25334 I-1.6768 J-1.61078
G2 X32.01272 Y-4.91558 I-0.90106 J0.02321
G2 X29.8716 Y-5.72188 I-2.67909 J3.86826
G3 X29.82003 Y-5.72873 I0.1715 J-1.49016
G2 X26.98711 Y-5.92683 I-2.66051 J17.69129
G3 X26.96203 Y-5.9268 I-0.01446 J-1.49993
G2 X21.92978 Y-5.43351 I-0.17124 J24.16818
G3 X18.00754 Y-4.87463 I-5.31641 J-23.26804
G3 X17.80541 Y-4.87645 I-0.08762 J-1.49744
G2 X15.07257 Y-3.82525 I-0.26039 J3.40102
G2 X14.23171 Y-0.66068 I4.36487 J2.85379
G3 X14.23438 Y-0.57129 I-1.49733 J0.08939
G1 Y51.45996
G3 X14.23416 Y51.48534 I-1.5 J0.0
G2 X14.56084 Y55.13019 I17.24141 J0.29176
G3 X14.56134 Y55.13275 I-1.47137 J0.29168
G2 X15.13894 Y56.58183 I4.15316 J-0.81577
G3 X15.14519 Y56.59178 I-1.26718 J0.80266
G2 X15.71123 Y56.90336 I0.56102 J-0.34923
G3 X15.73548 Y56.90338 I0.01142 J1.49996
G2 X17.09607 Y56.48503 I0.02014 J-2.35626
G2 X18.47885 Y54.39024 I-5.82569 J-5.34932
G3 X18.50658 Y54.33217 I1.36712 J0.61724
G2 X19.78021 Y51.60235 I-44.16745 J-22.26883
G3 X25.51444 Y44.33057 I14.3645 J5.43048
G3 X25.53021 Y44.32 I0.84298 J1.24072
G1 X46.51018 Y30.4504
G3 X48.47838 Y29.59786 I2.95102 J4.11465
G3 X49.40184 Y29.70912 I0.29115 J1.47147
G3 X50.58531 Y31.5111 I-0.86295 J1.85637
G3 X50.62102 Y32.22681 I-5.96035 J0.65615
G3 X50.61565 Y32.3396 I-1.49993 J-0.0149
G2 X50.2691 Y37.70376 I129.27995 J11.04532
G2 X53.18416 Y51.65967 I32.85328 J0.42013
G2 X62.0165 Y62.86123 I29.01242 J-13.79318
G3 X62.04337 Y62.88344 I-0.94228 J1.16709
G2 X89.79157 Y72.8117 I27.1081 J-32.02321
G3 X89.80969 Y72.81153 I0.02288 J1.49983
G2 X104.17044 Y70.07827 I-0.12616 J-39.75568
G2 X117.03228 Y62.83373 I-19.93605 J-50.43379
G3 X117.04902 Y62.8212 I0.90717 J1.19459
G2 X128.45305 Y52.26967 I-41.61542 J-56.41614
G2 X136.88646 Y39.30442 I-43.68479 J-37.64073
G3 X136.89192 Y39.293 I1.35573 J0.64187
G2 X143.15803 Y12.53615 I-56.531 J-27.35097
G2 X140.85652 Y-1.08092 I-48.68338 J1.22526
G3 X140.84751 Y-1.1101 I1.42864 J-0.45717
G2 X133.33581 Y-14.69869 I-34.77285 J10.35175
G1 X133.33575 Y-14.69875
G2 X129.32511 Y-18.46137 I-21.39671 J18.78828
G3 X129.27772 Y-18.49947 I0.91586 J-1.18794
G2 X124.80704 Y-20.342 I-5.14734 J6.14435
G0 Z3.0
M5
M30
