( Made using CamBam - http://www.cambam.co.uk )
( untere_Gasse_13 5/4/2017 9:31:52 PM )
( T6 : 6.0 )
G21 G90 G64 G40
G0 Z3.0
( T6 : 6.0 )
T6 M6
( 13_Tasche )
G17
M3 S1000
G0 X31.96858 Y-49.59789
G0 Z1.0
G1 F300.0 Z-2.5
G3 F800.0 X31.72911 Y-49.78359 I9.62669 J-12.6617
G3 X29.80233 Y-51.52139 I7.94184 J-10.74255
G1 X28.43412 Y-49.5692
G3 X30.40884 Y-49.6095 I1.59816 J29.90908
G1 X31.96858 Y-49.59789
G1 F300.0 X31.94625 Y-46.59798
G1 F800.0 X101.13045 Y-46.08296
G1 X125.63649 Y-46.43304
G3 X133.99007 Y-44.14153 I0.35551 J15.07599
G3 X134.23336 Y-43.98151 I-3.39437 J5.42571
G3 X134.12747 Y-48.06407 I88.57206 J-4.33989
G3 X134.16862 Y-52.46609 I91.83084 J-1.34271
G3 X133.97165 Y-52.32194 I-7.27893 J-9.74011
G3 X133.78123 Y-52.19065 I-3.72751 J-5.20247
G3 X124.63386 Y-49.54221 I-8.79849 J-13.26769
G1 X42.17616 Y-49.36696
G3 X33.55136 Y-52.16737 I-0.58088 J-12.89264
G3 X29.94668 Y-56.95446 I6.11959 J-8.35877
G1 X23.35141 Y-47.54414
G2 X21.85064 Y-45.34003 I201.88189 J139.07371
G3 X30.37861 Y-46.60965 I8.18164 J25.6799
G1 X31.94625 Y-46.59798
G1 F300.0 X31.92392 Y-43.59806
G1 F800.0 X101.14071 Y-43.0828
G1 X125.69405 Y-43.43356
G3 X132.39896 Y-41.59823 I0.29795 J12.07651
G3 X132.77563 Y-41.32502 I-1.80326 J2.88241
G3 X135.71244 Y-37.06858 I-6.19658 J7.41681
G3 X136.7546 Y-33.25276 I-20.40466 J7.6231
G2 X137.3607 Y-30.65437 I26.85448 J-4.89419
G3 X137.40691 Y-30.4739 I-3.26941 J0.93325
G2 X137.8719 Y-29.42332 I2.91428 J-0.66166
G2 X137.91009 Y-29.40594 I0.21757 J-0.42752
G2 X138.45105 Y-31.40527 I-2.81816 J-1.83536
G2 X137.77986 Y-37.77425 I-73.95929 J4.57426
G3 X137.76801 Y-37.86127 I3.36272 J-0.50211
G3 X137.12741 Y-48.09035 I85.03741 J-10.46012
G3 X137.76745 Y-60.13215 I88.8309 J-1.31643
G3 X137.80727 Y-60.38179 I3.37513 J0.41047
G2 X138.4551 Y-64.64779 I-47.3778 J-9.37686
G2 X138.04863 Y-66.2877 I-3.01732 J-0.12245
G2 X137.07932 Y-66.61839 I-0.93151 J1.14451
G2 X136.93655 Y-66.02182 I2.85563 J0.99878
G3 X136.90538 Y-65.83082 I-3.36982 J-0.45204
G2 X136.52422 Y-63.30571 I30.99537 J5.9699
G3 X136.52134 Y-63.28033 I-3.37969 J-0.37105
G3 X135.52103 Y-59.14093 I-17.62911 J-2.06963
G3 X132.22438 Y-54.7606 I-8.63133 J-3.06527
G3 X132.12322 Y-54.69085 I-1.98024 J-2.76381
G3 X124.66543 Y-52.54229 I-7.14048 J-10.76749
G1 X42.10117 Y-52.3668
G3 X35.37233 Y-54.55257 I-0.5059 J-9.89279
G3 X32.40485 Y-59.35761 I4.29863 J-5.97357
G3 X32.3755 Y-60.20329 I3.35687 J-0.53985
G3 X33.74923 Y-64.44119 I10.01381 J0.90442
G3 X35.56822 Y-67.26869 I23.265 J12.96799
G2 X36.88762 Y-69.32323 I-16.75808 J-12.21277
G3 X36.95814 Y-69.44293 I2.96408 J1.6656
G2 X37.38194 Y-70.64128 I-2.55995 J-1.57946
G2 X37.30567 Y-70.99651 I-0.8047 J-0.01301
G2 X36.83019 Y-71.09722 I-0.45176 J0.96004
G2 X36.61432 Y-70.9916 I0.07126 J0.41907
G3 X36.49441 Y-70.88682 I-2.29659 J-2.50713
G2 X35.26221 Y-69.64993 I6.04807 J7.2574
G2 X28.14471 Y-59.61317 I136.69447 J104.47788
G3 X28.087 Y-59.52812 I-2.84198 J-1.86632
G1 X20.88777 Y-49.25605
G2 X14.92227 Y-40.17828 I204.34553 J140.78562
G2 X14.27797 Y-38.50763 I4.28308 J2.61139
G2 X16.78316 Y-39.6082 I-1.20072 J-6.1347
G3 X16.94041 Y-39.71727 I2.01567 J2.73808
G3 X30.34793 Y-43.60979 I13.09187 J20.05715
G1 X31.92392 Y-43.59806
G0 Z3.0
G0 X31.96858 Y-49.59789
G0 Z-1.5
G1 F300.0 Z-5.0
G3 F800.0 X31.72911 Y-49.78359 I9.62669 J-12.6617
G3 X29.80233 Y-51.52139 I7.94184 J-10.74255
G1 X28.43412 Y-49.5692
G3 X30.40884 Y-49.6095 I1.59816 J29.90908
G1 X31.96858 Y-49.59789
G1 F300.0 X31.94625 Y-46.59798
G1 F800.0 X101.13045 Y-46.08296
G1 X125.63649 Y-46.43304
G3 X133.99007 Y-44.14153 I0.35551 J15.07599
G3 X134.23336 Y-43.98151 I-3.39437 J5.42571
G3 X134.12747 Y-48.06407 I88.57206 J-4.33989
G3 X134.16862 Y-52.46609 I91.83084 J-1.34271
G3 X133.97165 Y-52.32194 I-7.27893 J-9.74011
G3 X133.78123 Y-52.19065 I-3.72751 J-5.20247
G3 X124.63386 Y-49.54221 I-8.79849 J-13.26769
G1 X42.17616 Y-49.36696
G3 X33.55136 Y-52.16737 I-0.58088 J-12.89264
G3 X29.94668 Y-56.95446 I6.11959 J-8.35877
G1 X23.35141 Y-47.54414
G2 X21.85064 Y-45.34003 I201.88189 J139.07371
G3 X30.37861 Y-46.60965 I8.18164 J25.6799
G1 X31.94625 Y-46.59798
G1 F300.0 X31.92392 Y-43.59806
G1 F800.0 X101.14071 Y-43.0828
G1 X125.69405 Y-43.43356
G3 X132.39896 Y-41.59823 I0.29795 J12.07651
G3 X132.77563 Y-41.32502 I-1.80326 J2.88241
G3 X135.71244 Y-37.06858 I-6.19658 J7.41681
G3 X136.7546 Y-33.25276 I-20.40466 J7.6231
G2 X137.3607 Y-30.65437 I26.85448 J-4.89419
G3 X137.40691 Y-30.4739 I-3.26941 J0.93325
G2 X137.8719 Y-29.42332 I2.91428 J-0.66166
G2 X137.91009 Y-29.40594 I0.21757 J-0.42752
G2 X138.45105 Y-31.40527 I-2.81816 J-1.83536
G2 X137.77986 Y-37.77425 I-73.95929 J4.57426
G3 X137.76801 Y-37.86127 I3.36272 J-0.50211
G3 X137.12741 Y-48.09035 I85.03741 J-10.46012
G3 X137.76745 Y-60.13215 I88.8309 J-1.31643
G3 X137.80727 Y-60.38179 I3.37513 J0.41047
G2 X138.4551 Y-64.64779 I-47.3778 J-9.37686
G2 X138.04863 Y-66.2877 I-3.01732 J-0.12245
G2 X137.07932 Y-66.61839 I-0.93151 J1.14451
G2 X136.93655 Y-66.02182 I2.85563 J0.99878
G3 X136.90538 Y-65.83082 I-3.36982 J-0.45204
G2 X136.52422 Y-63.30571 I30.99537 J5.9699
G3 X136.52134 Y-63.28033 I-3.37969 J-0.37105
G3 X135.52103 Y-59.14093 I-17.62911 J-2.06963
G3 X132.22438 Y-54.7606 I-8.63133 J-3.06527
G3 X132.12322 Y-54.69085 I-1.98024 J-2.76381
G3 X124.66543 Y-52.54229 I-7.14048 J-10.76749
G1 X42.10117 Y-52.3668
G3 X35.37233 Y-54.55257 I-0.5059 J-9.89279
G3 X32.40485 Y-59.35761 I4.29863 J-5.97357
G3 X32.3755 Y-60.20329 I3.35687 J-0.53985
G3 X33.74923 Y-64.44119 I10.01381 J0.90442
G3 X35.56822 Y-67.26869 I23.265 J12.96799
G2 X36.88762 Y-69.32323 I-16.75808 J-12.21277
G3 X36.95814 Y-69.44293 I2.96408 J1.6656
G2 X37.38194 Y-70.64128 I-2.55995 J-1.57946
G2 X37.30567 Y-70.99651 I-0.8047 J-0.01301
G2 X36.83019 Y-71.09722 I-0.45176 J0.96004
G2 X36.61432 Y-70.9916 I0.07126 J0.41907
G3 X36.49441 Y-70.88682 I-2.29659 J-2.50713
G2 X35.26221 Y-69.64993 I6.04807 J7.2574
G2 X28.14471 Y-59.61317 I136.69447 J104.47788
G3 X28.087 Y-59.52812 I-2.84198 J-1.86632
G1 X20.88777 Y-49.25605
G2 X14.92227 Y-40.17828 I204.34553 J140.78562
G2 X14.27797 Y-38.50763 I4.28308 J2.61139
G2 X16.78316 Y-39.6082 I-1.20072 J-6.1347
G3 X16.94041 Y-39.71727 I2.01567 J2.73808
G3 X30.34793 Y-43.60979 I13.09187 J20.05715
G1 X31.92392 Y-43.59806
G0 Z3.0
G0 X22.94349 Y-0.63897
G0 Z1.0
G1 F300.0 Z-2.5
G3 F800.0 X19.13438 Y-0.04455 I-6.33012 J-28.06259
G1 Y43.43045
G3 X22.76071 Y40.27755 I15.01033 J13.60238
G3 X22.82799 Y40.23246 I3.59671 J5.29374
G1 X26.75747 Y37.63472
G3 X21.53945 Y29.79111 I2.68915 J-7.44645
G1 Y4.61426
G3 X21.54237 Y4.42091 I6.4 J0.0
G3 X22.94349 Y-0.63897 I11.04228 J0.33375
G0 Z3.0
G0 X51.81885 Y25.44139
G0 Z1.0
G1 F300.0 Z-2.5
G3 F800.0 X52.50991 Y25.86516 I-3.27996 J6.1241
G3 X52.69585 Y24.84134 I29.01892 J4.74136
G1 X51.81885 Y25.44139
G0 Z3.0
G0 X73.76626 Y61.24329
G0 Z1.0
G1 F300.0 Z-2.5
G2 F800.0 X89.67104 Y64.91262 I15.38522 J-30.38305
G3 X89.78462 Y64.91157 I0.14341 J9.39891
G2 X101.05501 Y62.81298 I-0.10109 J-31.85572
G3 X87.21096 Y64.11176 I-13.43648 J-68.79006
G3 X87.02975 Y64.10895 I0.05466 J-9.39984
G3 X78.52656 Y62.79005 I0.84064 J-33.48999
G3 X73.76626 Y61.24329 I17.02847 J-60.50506
G1 F300.0 X72.41098 Y63.91971
G2 F800.0 X89.71681 Y67.91227 I16.74049 J-33.05947
G3 X89.79414 Y67.91156 I0.09764 J6.39926
G2 X102.37708 Y65.51823 I-0.11061 J-34.8557
G2 X114.06886 Y58.93141 I-18.1427 J-45.87375
G3 X114.14028 Y58.87795 I3.87059 J5.09691
G2 X124.74408 Y49.06756 I-38.70668 J-52.47289
G2 X126.89184 Y46.40453 I-39.97581 J-34.43862
G3 X116.06855 Y54.27349 I-34.32839 J-35.83882
G3 X101.89843 Y59.57561 I-25.57925 J-46.77537
G3 X101.89023 Y59.5774 I-1.36963 J-6.25173
G3 X87.22841 Y61.11181 I-14.2717 J-65.55448
G3 X87.10503 Y61.1099 I0.03722 J-6.39989
G3 X79.35146 Y59.90566 I0.76536 J-30.49093
G3 X72.88132 Y57.67994 I16.20358 J-57.62066
G3 X58.36986 Y47.59163 I12.84824 J-33.96256
G3 X55.82075 Y44.13694 I18.82946 J-16.56154
G2 X57.62968 Y49.59813 I27.30163 J-6.01305
G2 X65.09461 Y59.04872 I24.56689 J-11.73164
G3 X65.20927 Y59.14352 I-4.0204 J4.9796
G2 X72.41098 Y63.91971 I23.9422 J-28.28328
G1 F300.0 X71.05571 Y66.59613
G2 F800.0 X89.76258 Y70.91192 I18.09576 J-35.7359
G3 X89.80366 Y70.91154 I0.05187 J3.3996
G2 X103.47504 Y68.3101 I-0.12013 J-37.85569
G2 X115.8832 Y61.32059 I-19.24065 J-48.66562
G3 X115.92114 Y61.29219 I2.05625 J2.70773
G2 X127.01488 Y51.02803 I-40.48754 J-54.88713
G2 X135.1692 Y38.49138 I-42.24662 J-36.3991
G3 X135.18159 Y38.4655 I3.07298 J1.45491
G2 X141.25779 Y12.55114 I-54.82067 J-26.52347
G2 X139.04692 Y-0.50184 I-46.78314 J1.21027
G3 X139.02649 Y-0.56799 I3.23824 J-1.03625
G2 X131.90817 Y-13.44496 I-32.95183 J9.80964
G1 X131.90805 Y-13.44509
G2 X128.16502 Y-16.95665 I-19.96901 J17.53462
G3 X128.05759 Y-17.04301 I2.07596 J-2.69266
G2 X124.87916 Y-18.4246 I-3.92721 J4.68788
G2 X125.31426 Y-17.76238 I1.95193 J-0.80843
G3 X125.44999 Y-17.61384 I-2.44102 J2.36673
G2 X127.52219 Y-15.55623 I14.16986 J-12.1981
G3 X127.56918 Y-15.51561 I-2.19992 J2.59236
G3 X133.13582 Y-9.53172 I-27.17326 J30.85972
G3 X137.16503 Y-1.89819 I-20.54312 J15.7234
G3 X137.17783 Y-1.85848 I-3.22948 J1.06323
G3 X139.26914 Y11.73503 I-42.99242 J13.57185
G3 X139.26847 Y11.80076 I-3.4 J-0.00163
G3 X132.9101 Y33.93758 I-44.80545 J-0.88793
G3 X114.63839 Y51.6363 I-40.34665 J-23.37188
G3 X101.25641 Y56.64511 I-24.1491 J-44.13818
G3 X101.25206 Y56.64606 I-0.72762 J-3.32123
G3 X87.24585 Y58.11186 I-13.63352 J-62.62314
G3 X87.18031 Y58.11084 I0.01977 J-3.39994
G3 X80.17666 Y57.02136 I0.69008 J-27.49188
G3 X73.98016 Y54.88811 I15.37837 J-54.73636
G3 X60.62636 Y45.61469 I11.7494 J-31.17073
G3 X55.12528 Y30.69783 I16.57297 J-14.5846
G3 X57.74834 Y19.1329 I26.40355 J-0.09132
G3 X57.76289 Y19.1031 I3.06221 J1.47746
G2 X58.74129 Y17.03973 I-61.98412 J-30.65491
G2 X58.28299 Y17.37127 I3.01935 J4.65622
G3 X58.07227 Y17.52772 I-2.13065 J-2.64959
G1 X34.70879 Y33.51326
G3 X29.92484 Y35.08211 I-4.99256 J-7.14563
G3 X24.53945 Y29.87534 I-0.47821 J-4.89383
G1 Y4.61426
G3 X24.54101 Y4.51154 I3.4 J0.0
G3 X26.20293 Y-0.14768 I8.04365 J0.24312
G3 X28.85652 Y-2.82815 I11.16389 J8.39827
G3 X28.8579 Y-2.82921 I2.07121 J2.69631
G2 X29.9283 Y-3.78899 I-5.72931 J-7.46634
G2 X29.65438 Y-3.83434 I-0.59466 J2.74167
G3 X29.53748 Y-3.84985 I0.38872 J-3.37771
G2 X27.00542 Y-4.02692 I-2.37795 J15.81242
G3 X26.94857 Y-4.02684 I-0.03277 J-3.39984
G2 X22.33169 Y-3.57639 I-0.15777 J22.26823
G3 X18.11853 Y-2.97788 I-5.71833 J-25.12517
G3 X17.66037 Y-2.98199 I-0.1986 J-3.39419
G2 X16.56411 Y-2.62471 I-0.11534 J1.50656
G2 X16.12833 Y-0.77391 I2.87332 J1.65324
G3 X16.13438 Y-0.57129 I-3.39396 J0.20262
G1 Y51.45996
G3 X16.13389 Y51.51749 I-3.4 J0.0
G2 X16.34865 Y54.34827 I15.34168 J0.25961
G2 X16.74716 Y53.60841 I-5.07827 J-3.21255
G3 X16.81002 Y53.47678 I3.09881 J1.39907
G2 X18.01861 Y50.88927 I-42.4709 J-21.41344
G3 X24.44667 Y42.75899 I16.1261 J6.14357
G3 X24.48241 Y42.73504 I1.91075 J2.8123
G1 X45.43462 Y28.88378
G3 X48.1096 Y27.734 I4.02658 J5.68126
G3 X50.20277 Y27.98618 I0.65993 J3.33534
G3 X52.4814 Y31.37424 I-1.66388 J3.57931
G3 X52.52093 Y32.24569 I-7.85644 J0.79301
G3 X52.50875 Y32.50135 I-3.39983 J-0.03377
G2 X52.16859 Y37.75719 I127.38685 J10.88358
G2 X54.90793 Y50.86031 I30.95379 J0.3667
G2 X63.21005 Y61.38291 I27.28865 J-12.99382
G3 X63.27097 Y61.43327 I-2.13584 J2.64541
G2 X71.05571 Y66.59613 I25.8805 J-30.57303
G0 Z3.0
G0 X73.76626 Y61.24329
G0 Z-1.5
G1 F300.0 Z-5.0
G2 F800.0 X89.67104 Y64.91262 I15.38522 J-30.38305
G3 X89.78462 Y64.91157 I0.14341 J9.39891
G2 X101.05501 Y62.81298 I-0.10109 J-31.85572
G3 X87.21096 Y64.11176 I-13.43648 J-68.79006
G3 X87.02975 Y64.10895 I0.05466 J-9.39984
G3 X78.52656 Y62.79005 I0.84064 J-33.48999
G3 X73.76626 Y61.24329 I17.02847 J-60.50506
G1 F300.0 X72.41098 Y63.91971
G2 F800.0 X89.71681 Y67.91227 I16.74049 J-33.05947
G3 X89.79414 Y67.91156 I0.09764 J6.39926
G2 X102.37708 Y65.51823 I-0.11061 J-34.8557
G2 X114.06886 Y58.93141 I-18.1427 J-45.87375
G3 X114.14028 Y58.87795 I3.87059 J5.09691
G2 X124.74408 Y49.06756 I-38.70668 J-52.47289
G2 X126.89184 Y46.40453 I-39.97581 J-34.43862
G3 X116.06855 Y54.27349 I-34.32839 J-35.83882
G3 X101.89843 Y59.57561 I-25.57925 J-46.77537
G3 X101.89023 Y59.5774 I-1.36963 J-6.25173
G3 X87.22841 Y61.11181 I-14.2717 J-65.55448
G3 X87.10503 Y61.1099 I0.03722 J-6.39989
G3 X79.35146 Y59.90566 I0.76536 J-30.49093
G3 X72.88132 Y57.67994 I16.20358 J-57.62066
G3 X58.36986 Y47.59163 I12.84824 J-33.96256
G3 X55.82075 Y44.13694 I18.82946 J-16.56154
G2 X57.62968 Y49.59813 I27.30163 J-6.01305
G2 X65.09461 Y59.04872 I24.56689 J-11.73164
G3 X65.20927 Y59.14352 I-4.0204 J4.9796
G2 X72.41098 Y63.91971 I23.9422 J-28.28328
G0 Z3.0
G0 X52.50991 Y25.86516
G0 Z-1.5
G1 F300.0 Z-5.0
G3 F800.0 X52.69585 Y24.84134 I29.01892 J4.74136
G1 X51.81885 Y25.44139
G3 X52.50991 Y25.86516 I-3.27996 J6.1241
G0 Z3.0
G0 X26.75747 Y37.63472
G0 Z-1.5
G1 F300.0 Z-5.0
G3 F800.0 X21.53945 Y29.79111 I2.68915 J-7.44645
G1 Y4.61426
G3 X21.54237 Y4.42091 I6.4 J0.0
G3 X22.94349 Y-0.63897 I11.04228 J0.33375
G3 X19.13438 Y-0.04455 I-6.33012 J-28.06259
G1 Y43.43045
G3 X22.76071 Y40.27755 I15.01033 J13.60238
G3 X22.82799 Y40.23246 I3.59671 J5.29374
G1 X26.75747 Y37.63472
G1 F300.0 X27.77646 Y34.81308
G3 F800.0 X24.53945 Y29.87534 I1.67017 J-4.6248
G1 Y4.61426
G3 X24.54101 Y4.51154 I3.4 J0.0
G3 X26.20293 Y-0.14768 I8.04365 J0.24312
G3 X28.85652 Y-2.82815 I11.16389 J8.39827
G3 X28.8579 Y-2.82921 I2.07121 J2.69631
G2 X29.9283 Y-3.78899 I-5.72931 J-7.46634
G2 X29.65438 Y-3.83434 I-0.59466 J2.74167
G3 X29.53748 Y-3.84985 I0.38872 J-3.37771
G2 X27.00542 Y-4.02692 I-2.37795 J15.81242
G3 X26.94857 Y-4.02684 I-0.03277 J-3.39984
G2 X22.33169 Y-3.57639 I-0.15777 J22.26823
G3 X18.11853 Y-2.97788 I-5.71833 J-25.12517
G3 X17.66037 Y-2.98199 I-0.1986 J-3.39419
G2 X16.56411 Y-2.62471 I-0.11534 J1.50656
G2 X16.12833 Y-0.77391 I2.87332 J1.65324
G3 X16.13438 Y-0.57129 I-3.39396 J0.20262
G1 Y51.45996
G3 X16.13389 Y51.51749 I-3.4 J0.0
G2 X16.34865 Y54.34827 I15.34168 J0.25961
G2 X16.74716 Y53.60841 I-5.07827 J-3.21255
G3 X16.81002 Y53.47678 I3.09881 J1.39907
G2 X18.01861 Y50.88927 I-42.4709 J-21.41344
G3 X24.44667 Y42.75899 I16.1261 J6.14357
G3 X24.48241 Y42.73504 I1.91075 J2.8123
G1 X45.43462 Y28.88378
G3 X48.1096 Y27.734 I4.02658 J5.68126
G3 X50.20277 Y27.98618 I0.65993 J3.33534
G3 X52.4814 Y31.37424 I-1.66388 J3.57931
G3 X52.52093 Y32.24569 I-7.85644 J0.79301
G3 X52.50875 Y32.50135 I-3.39983 J-0.03377
G2 X52.16859 Y37.75719 I127.38685 J10.88358
G2 X54.90793 Y50.86031 I30.95379 J0.3667
G2 X63.21005 Y61.38291 I27.28865 J-12.99382
G3 X63.27097 Y61.43327 I-2.13584 J2.64541
G2 X89.76258 Y70.91192 I25.8805 J-30.57303
G3 X89.80366 Y70.91154 I0.05187 J3.3996
G2 X103.47504 Y68.3101 I-0.12013 J-37.85569
G2 X115.8832 Y61.32059 I-19.24065 J-48.66562
G3 X115.92114 Y61.29219 I2.05625 J2.70773
G2 X127.01488 Y51.02803 I-40.48754 J-54.88713
G2 X135.1692 Y38.49138 I-42.24662 J-36.3991
G3 X135.18159 Y38.4655 I3.07298 J1.45491
G2 X141.25779 Y12.55114 I-54.82067 J-26.52347
G2 X139.04692 Y-0.50184 I-46.78314 J1.21027
G3 X139.02649 Y-0.56799 I3.23824 J-1.03625
G2 X131.90817 Y-13.44496 I-32.95183 J9.80964
G1 X131.90805 Y-13.44509
G2 X128.16502 Y-16.95665 I-19.96901 J17.53462
G3 X128.05759 Y-17.04301 I2.07596 J-2.69266
G2 X124.87916 Y-18.4246 I-3.92721 J4.68788
G2 X125.31426 Y-17.76238 I1.95193 J-0.80843
G3 X125.44999 Y-17.61384 I-2.44102 J2.36673
G2 X127.52219 Y-15.55623 I14.16986 J-12.1981
G3 X127.56918 Y-15.51561 I-2.19992 J2.59236
G3 X133.13582 Y-9.53172 I-27.17326 J30.85972
G3 X137.16503 Y-1.89819 I-20.54312 J15.7234
G3 X137.17783 Y-1.85848 I-3.22948 J1.06323
G3 X139.26914 Y11.73503 I-42.99242 J13.57185
G3 X139.26847 Y11.80076 I-3.4 J-0.00163
G3 X132.9101 Y33.93758 I-44.80545 J-0.88793
G3 X114.63839 Y51.6363 I-40.34665 J-23.37188
G3 X101.25641 Y56.64511 I-24.1491 J-44.13818
G3 X101.25206 Y56.64606 I-0.72762 J-3.32123
G3 X87.24585 Y58.11186 I-13.63352 J-62.62314
G3 X87.18031 Y58.11084 I0.01977 J-3.39994
G3 X80.17666 Y57.02136 I0.69008 J-27.49188
G3 X73.98016 Y54.88811 I15.37837 J-54.73636
G3 X60.62636 Y45.61469 I11.7494 J-31.17073
G3 X55.12528 Y30.69783 I16.57297 J-14.5846
G3 X57.74834 Y19.1329 I26.40355 J-0.09132
G3 X57.76289 Y19.1031 I3.06221 J1.47746
G2 X58.74129 Y17.03973 I-61.98412 J-30.65491
G2 X58.28299 Y17.37127 I3.01935 J4.65622
G3 X58.07227 Y17.52772 I-2.13065 J-2.64959
G1 X34.70879 Y33.51326
G3 X29.92484 Y35.08211 I-4.99256 J-7.14563
G3 X27.77646 Y34.81308 I-0.47821 J-4.89383
G0 Z3.0
M5
M30
