( Made using CamBam - http://www.cambam.co.uk )
( untere_Gasse_13 5/4/2017 9:31:34 PM )
( T6 : 6.0 )
G21 G90 G64 G40
G0 Z3.0
( T6 : 6.0 )
T6 M6
( untere_Gasse_Tasche )
G17
M3 S1000
G0 X-151.54161 Y-85.16597
G0 Z1.0
G1 F300.0 Z-2.5
G2 F800.0 X-142.39774 Y-85.46691 I-5.80043 J-315.30776
G3 X-142.38301 Y-85.46758 I0.15164 J3.1964
G3 X-130.41474 Y-85.77799 I15.18442 J354.5668
G3 X-130.37741 Y-85.77811 I0.029 J3.19987
G3 X-126.44145 Y-85.74359 I-0.83087 J319.08546
G1 X-126.44095 Y-85.74358
G2 X-122.6523 Y-85.70975 I4.63623 J-307.07647
G3 X-122.64309 Y-85.70971 I-0.00883 J3.19999
G2 X-117.93879 Y-85.90967 I0.27602 J-48.94473
G2 X-115.77674 Y-86.22583 I-1.99587 J-21.19898
G3 X-115.74318 Y-86.23233 I0.62488 J3.1384
G2 X-114.10832 Y-86.74032 I-1.37355 J-7.30523
G2 X-111.6616 Y-88.91343 I-2.78003 J-5.59398
G2 X-110.1213 Y-92.54159 I-9.88089 J-6.33591
G2 X-109.44931 Y-97.09043 I-26.64571 J-6.26035
G3 X-109.44769 Y-97.11481 I3.19374 J0.2001
G2 X-109.28397 Y-102.01544 I-66.45199 J-4.67309
G3 X-109.28379 Y-102.0619 I3.19998 J-0.01093
G2 X-109.86276 Y-109.68607 I-44.04773 J-0.4891
G2 X-110.79305 Y-113.06862 I-17.44117 J2.97756
G3 X-110.80812 Y-113.10855 I2.98611 J-1.15027
G2 X-112.23726 Y-115.37673 I-6.09092 J2.25344
G2 X-113.87409 Y-116.30273 I-3.26584 J3.86313
G3 X-113.88133 Y-116.3052 I1.03048 J-3.02954
G2 X-117.85079 Y-117.16212 I-5.60992 J16.3643
G3 X-117.87981 Y-117.16502 I0.30345 J-3.18558
G2 X-122.33742 Y-117.38598 I-4.25179 J40.70148
G3 X-122.3413 Y-117.38596 I-0.01609 J-3.19996
G2 X-126.10202 Y-117.35208 I1.38199 J362.13759
G3 X-126.10354 Y-117.35206 I-0.04544 J-3.19968
G3 X-130.37806 Y-117.31759 I-5.18098 J-377.40376
G3 X-130.42148 Y-117.31778 I-0.00769 J-3.19999
G3 X-145.33023 Y-117.66009 I7.06446 J-632.50264
G3 X-151.67633 Y-117.85563 I2.32747 J-178.61399
G2 X-151.65881 Y-116.56987 I266.69404 J-2.99136
G3 X-151.65871 Y-116.56316 I-3.19959 J0.05132
G3 X-151.64199 Y-115.191 I-390.87768 J5.44899
G2 X-138.66933 Y-115.4109 I-6.92467 J-791.28031
G3 X-138.65834 Y-115.41116 I0.08046 J3.19899
G3 X-122.99956 Y-115.61689 I19.8249 J912.93563
G3 X-117.97092 Y-115.06876 I0.29496 J20.63496
G3 X-117.93874 Y-115.061 I-0.73401 J3.11468
G3 X-115.16052 Y-113.99008 I-2.83338 J11.48956
G3 X-112.51556 Y-111.79594 I-4.12199 J7.66023
G3 X-112.48142 Y-111.75294 I-2.48933 J2.01078
G3 X-110.94538 Y-108.8759 I-7.51767 J5.86223
G3 X-110.13461 Y-105.02761 I-16.83148 J5.55565
G3 X-109.95912 Y-101.48499 I-32.93374 J3.40707
G3 X-110.24113 Y-97.073 I-31.01131 J0.23282
G3 X-111.88483 Y-92.06449 I-13.04295 J-1.50647
G3 X-111.99019 Y-91.89291 I-2.77826 J-1.58785
G3 X-116.84027 Y-88.22823 I-7.57919 J-4.989
G3 X-121.74025 Y-87.513 I-4.62394 J-14.53603
G3 X-137.96107 Y-87.68428 I4.28981 J-1174.46819
G1 X-137.96116
G1 X-137.96098 Y-87.68427
G1 X-137.96107 Y-87.68428
G2 X-151.59803 Y-87.84263 I-20.47785 J1176.23177
G2 X-151.50298 Y-86.82312 I94.17166 J-8.26625
G3 X-151.48812 Y-86.44569 I-3.18452 J0.31433
G3 X-151.54161 Y-85.16597 I-29.03329 J-0.57262
G1 F300.0 Z-5.0
G2 F800.0 X-142.39774 Y-85.46691 I-5.80043 J-315.30776
G3 X-142.38301 Y-85.46758 I0.15164 J3.1964
G3 X-130.41474 Y-85.77799 I15.18442 J354.5668
G3 X-130.37741 Y-85.77811 I0.029 J3.19987
G3 X-126.44145 Y-85.74359 I-0.83087 J319.08546
G1 X-126.44095 Y-85.74358
G2 X-122.6523 Y-85.70975 I4.63623 J-307.07647
G3 X-122.64309 Y-85.70971 I-0.00883 J3.19999
G2 X-117.93879 Y-85.90967 I0.27602 J-48.94473
G2 X-115.77674 Y-86.22583 I-1.99587 J-21.19898
G3 X-115.74318 Y-86.23233 I0.62488 J3.1384
G2 X-114.10832 Y-86.74032 I-1.37355 J-7.30523
G2 X-111.6616 Y-88.91343 I-2.78003 J-5.59398
G2 X-110.1213 Y-92.54159 I-9.88089 J-6.33591
G2 X-109.44931 Y-97.09043 I-26.64571 J-6.26035
G3 X-109.44769 Y-97.11481 I3.19374 J0.2001
G2 X-109.28397 Y-102.01544 I-66.45199 J-4.67309
G3 X-109.28379 Y-102.0619 I3.19998 J-0.01093
G2 X-109.86276 Y-109.68607 I-44.04773 J-0.4891
G2 X-110.79305 Y-113.06862 I-17.44117 J2.97756
G3 X-110.80812 Y-113.10855 I2.98611 J-1.15027
G2 X-112.23726 Y-115.37673 I-6.09092 J2.25344
G2 X-113.87409 Y-116.30273 I-3.26584 J3.86313
G3 X-113.88133 Y-116.3052 I1.03048 J-3.02954
G2 X-117.85079 Y-117.16212 I-5.60992 J16.3643
G3 X-117.87981 Y-117.16502 I0.30345 J-3.18558
G2 X-122.33742 Y-117.38598 I-4.25179 J40.70148
G3 X-122.3413 Y-117.38596 I-0.01609 J-3.19996
G2 X-126.10202 Y-117.35208 I1.38199 J362.13759
G3 X-126.10354 Y-117.35206 I-0.04544 J-3.19968
G3 X-130.37806 Y-117.31759 I-5.18098 J-377.40376
G3 X-130.42148 Y-117.31778 I-0.00769 J-3.19999
G3 X-145.33023 Y-117.66009 I7.06446 J-632.50264
G3 X-151.67633 Y-117.85563 I2.32747 J-178.61399
G2 X-151.65881 Y-116.56987 I266.69404 J-2.99136
G3 X-151.65871 Y-116.56316 I-3.19959 J0.05132
G3 X-151.64199 Y-115.191 I-390.87768 J5.44899
G2 X-138.66933 Y-115.4109 I-6.92467 J-791.28031
G3 X-138.65834 Y-115.41116 I0.08046 J3.19899
G3 X-122.99956 Y-115.61689 I19.8249 J912.93563
G3 X-117.97092 Y-115.06876 I0.29496 J20.63496
G3 X-117.93874 Y-115.061 I-0.73401 J3.11468
G3 X-115.16052 Y-113.99008 I-2.83338 J11.48956
G3 X-112.51556 Y-111.79594 I-4.12199 J7.66023
G3 X-112.48142 Y-111.75294 I-2.48933 J2.01078
G3 X-110.94538 Y-108.8759 I-7.51767 J5.86223
G3 X-110.13461 Y-105.02761 I-16.83148 J5.55565
G3 X-109.95912 Y-101.48499 I-32.93374 J3.40707
G3 X-110.24113 Y-97.073 I-31.01131 J0.23282
G3 X-111.88483 Y-92.06449 I-13.04295 J-1.50647
G3 X-111.99019 Y-91.89291 I-2.77826 J-1.58785
G3 X-116.84027 Y-88.22823 I-7.57919 J-4.989
G3 X-121.74025 Y-87.513 I-4.62394 J-14.53603
G3 X-137.96107 Y-87.68428 I4.28981 J-1174.46819
G1 X-137.96116
G1 X-137.96098 Y-87.68427
G1 X-137.96107 Y-87.68428
G2 X-151.59803 Y-87.84263 I-20.47785 J1176.23177
G2 X-151.50298 Y-86.82312 I94.17166 J-8.26625
G3 X-151.48812 Y-86.44569 I-3.18452 J0.31433
G3 X-151.54161 Y-85.16597 I-29.03329 J-0.57262
G0 Z3.0
G0 X-147.09714 Y-68.33477
G0 Z1.0
G1 F300.0 Z-2.5
G3 F800.0 X-146.92782 Y-68.20977 I-1353.1983 J1833.20299
G3 X-146.8851 Y-68.32755 I6.17215 J2.17237
G3 X-147.09714 Y-68.33477 I13.67401 J-405.15439
G1 F300.0 X-146.99438 Y-71.33301
G3 F800.0 X-151.49299 Y-71.51239 I13.78329 J-402.14893
G3 X-151.56347 Y-70.32635 I-61.72775 J-3.07307
G3 X-151.57544 Y-70.1934 I-3.19239 J-0.22052
G3 X-151.88575 Y-68.13692 I-26.4552 J-2.94025
G3 X-120.17345 Y-44.3802 I-1348.40969 J1833.00514
G3 X-120.11413 Y-44.33383 I-1.9408 J2.54426
G3 X-118.38792 Y-42.83779 I-18.35323 J22.92072
G3 X-120.20162 Y-37.32492 I-2.18825 J2.33486
G3 X-123.80656 Y-37.09663 I-3.91156 J-33.18925
G3 X-127.1422 Y-37.06367 I-3.16801 J-151.84513
G3 X-127.16753 Y-37.0638 I0.00353 J-3.2
G3 X-140.59725 Y-37.40804 I3.64829 J-404.46493
G2 X-151.53111 Y-37.68895 I-16.79614 J440.83032
G3 X-151.48813 Y-36.56727 I-30.29237 J1.72245
G3 X-151.48805 Y-36.44464 I-3.19937 J0.06336
G3 X-151.5402 Y-35.11971 I-31.8385 J-0.58976
G2 X-142.40166 Y-35.36078 I-5.85135 J-395.13698
G1 X-142.4015 Y-35.36079
G3 X-130.41159 Y-35.63642 I15.23937 J401.99451
G3 X-130.37875 Y-35.63652 I0.02585 J3.1999
G3 X-119.17696 Y-35.568 I-3.10997 J1424.2719
G1 X-119.17683
G1 X-119.17709 Y-35.56801
G1 X-119.17696 Y-35.568
G2 X-110.31744 Y-35.50675 I14.45508 J-1450.04354
G3 X-110.34267 Y-36.15526 I21.0727 J-1.14451
G3 X-110.34273 Y-36.30298 I3.19912 J-0.07521
G3 X-110.22515 Y-38.22358 I24.99746 J0.56656
G3 X-110.22502 Y-38.22482 I3.18413 J0.31831
G2 X-110.18807 Y-38.64036 I-18.29382 J-1.83596
G3 X-139.66834 Y-60.88802 I2160.57369 J-2893.622
G3 X-143.17144 Y-63.7123 I42.18647 J-55.91068
G3 X-144.14437 Y-67.0726 I2.08745 J-2.4254
G3 X-141.36064 Y-69.52867 I3.3887 J1.0352
G3 X-139.63516 Y-69.67933 I1.54255 J7.71008
G3 X-123.80066 Y-69.50809 I-4.44428 J1143.13818
G1 X-123.80028 Y-69.50808
G2 X-110.30578 Y-69.34846 I19.98373 J-1118.94667
G3 X-110.34283 Y-70.30798 I27.63226 J-1.54762
G3 X-110.34293 Y-70.43908 I3.19928 J-0.068
G3 X-110.29399 Y-71.64615 I29.03329 J0.57262
G2 X-118.7691 Y-71.35022 I5.77853 J286.99628
G3 X-130.28013 Y-70.97014 I-14.64859 J-269.14219
G3 X-130.34845 Y-70.97007 I-0.03725 J-3.19978
G3 X-145.31836 Y-71.27906 I6.6505 J-684.99607
G3 X-146.99438 Y-71.33301 I12.10728 J-402.20288
G1 F300.0 X-147.09714 Y-68.33477
G1 Z-5.0
G3 F800.0 X-146.92782 Y-68.20977 I-1353.1983 J1833.20299
G3 X-146.8851 Y-68.32755 I6.17215 J2.17237
G3 X-147.09714 Y-68.33477 I13.67401 J-405.15439
G1 F300.0 X-146.99438 Y-71.33301
G3 F800.0 X-151.49299 Y-71.51239 I13.78329 J-402.14893
G3 X-151.56347 Y-70.32635 I-61.72775 J-3.07307
G3 X-151.57544 Y-70.1934 I-3.19239 J-0.22052
G3 X-151.88575 Y-68.13692 I-26.4552 J-2.94025
G3 X-120.17345 Y-44.3802 I-1348.40969 J1833.00514
G3 X-120.11413 Y-44.33383 I-1.9408 J2.54426
G3 X-118.38792 Y-42.83779 I-18.35323 J22.92072
G3 X-120.20162 Y-37.32492 I-2.18825 J2.33486
G3 X-123.80656 Y-37.09663 I-3.91156 J-33.18925
G3 X-127.1422 Y-37.06367 I-3.16801 J-151.84513
G3 X-127.16753 Y-37.0638 I0.00353 J-3.2
G3 X-140.59725 Y-37.40804 I3.64829 J-404.46493
G2 X-151.53111 Y-37.68895 I-16.79614 J440.83032
G3 X-151.48813 Y-36.56727 I-30.29237 J1.72245
G3 X-151.48805 Y-36.44464 I-3.19937 J0.06336
G3 X-151.5402 Y-35.11971 I-31.8385 J-0.58976
G2 X-142.40166 Y-35.36078 I-5.85135 J-395.13698
G1 X-142.4015 Y-35.36079
G3 X-130.41159 Y-35.63642 I15.23937 J401.99451
G3 X-130.37875 Y-35.63652 I0.02585 J3.1999
G3 X-119.17696 Y-35.568 I-3.10997 J1424.2719
G1 X-119.17683
G1 X-119.17709 Y-35.56801
G1 X-119.17696 Y-35.568
G2 X-110.31744 Y-35.50675 I14.45508 J-1450.04354
G3 X-110.34267 Y-36.15526 I21.0727 J-1.14451
G3 X-110.34273 Y-36.30298 I3.19912 J-0.07521
G3 X-110.22515 Y-38.22358 I24.99746 J0.56656
G3 X-110.22502 Y-38.22482 I3.18413 J0.31831
G2 X-110.18807 Y-38.64036 I-18.29382 J-1.83596
G3 X-139.66834 Y-60.88802 I2160.57369 J-2893.622
G3 X-143.17144 Y-63.7123 I42.18647 J-55.91068
G3 X-144.14437 Y-67.0726 I2.08745 J-2.4254
G3 X-141.36064 Y-69.52867 I3.3887 J1.0352
G3 X-139.63516 Y-69.67933 I1.54255 J7.71008
G3 X-123.80066 Y-69.50809 I-4.44428 J1143.13818
G1 X-123.80028 Y-69.50808
G2 X-110.30578 Y-69.34846 I19.98373 J-1118.94667
G3 X-110.34283 Y-70.30798 I27.63226 J-1.54762
G3 X-110.34293 Y-70.43908 I3.19928 J-0.068
G3 X-110.29399 Y-71.64615 I29.03329 J0.57262
G2 X-118.7691 Y-71.35022 I5.77853 J286.99628
G3 X-130.28013 Y-70.97014 I-14.64859 J-269.14219
G3 X-130.34845 Y-70.97007 I-0.03725 J-3.19978
G3 X-145.31836 Y-71.27906 I6.6505 J-684.99607
G3 X-146.99438 Y-71.33301 I12.10728 J-402.20288
G0 Z3.0
G0 X-149.61811 Y-10.02825
G0 Z1.0
G1 F300.0 Z-2.5
G3 F800.0 X-149.61711 Y-9.96724 I-203.99657 J3.38369
G3 X-149.53465 Y-9.99756 I1.66301 J4.39595
G3 X-149.61811 Y-10.02825 I1.58055 J-4.42627
G1 F300.0 X-149.08704 Y-11.4311
G3 F800.0 X-151.14664 Y-14.64224 I1.13294 J-2.99273
G2 X-150.68988 Y-23.86138 I-244.89478 J-16.75417
G3 X-151.03877 Y-23.81294 I-0.61383 J-3.14057
G2 X-151.71909 Y-23.74686 I2.03043 J24.43948
G3 X-151.3933 Y-17.72342 I-879.62496 J50.59657
G3 X-151.11187 Y-9.61728 I-202.22137 J11.07886
G3 X-151.11209 Y-9.50998 I-3.19966 J0.04697
G3 X-151.63156 Y1.82368 I-210.49927 J-3.96936
G3 X-151.75737 Y3.73897 I-386.16944 J-24.40308
G3 X-151.23559 Y3.73848 I0.54449 J301.86756
G3 X-151.14454 Y3.73977 I0.00024 J3.2
G3 X-150.83025 Y3.7513 I-0.53737 J18.929
G2 X-151.15176 Y-5.4488 I-1371.34534 J43.31795
G3 X-148.05644 Y-8.76965 I3.19765 J-0.12249
G3 X-131.25566 Y-9.07887 I19.78218 J618.25609
G3 X-131.21422 Y-9.0788 I0.01542 J3.19996
G3 X-119.32591 Y-8.80313 I-3.21052 J394.93349
G3 X-119.31068 Y-8.80251 I-0.12234 J3.19766
G2 X-110.27911 Y-8.5322 I14.84763 J-345.06832
G3 X-110.34303 Y-10.02511 I30.19003 J-2.04038
G3 X-110.34291 Y-10.14708 I3.19948 J-0.0579
G3 X-110.28802 Y-11.46474 I30.50924 J0.61096
G2 X-119.33626 Y-11.19298 I5.64422 J338.68903
G3 X-131.20783 Y-10.84802 I-15.04963 J-313.4708
G3 X-131.26079 Y-10.84792 I-0.03241 J-3.19984
G3 X-148.07746 Y-11.22621 I3.36295 J-523.47619
G3 X-149.08704 Y-11.4311 I0.12336 J-3.19762
G1 F300.0 X-149.61811 Y-10.02825
G1 Z-5.0
G3 F800.0 X-149.61711 Y-9.96724 I-203.99657 J3.38369
G3 X-149.53465 Y-9.99756 I1.66301 J4.39595
G3 X-149.61811 Y-10.02825 I1.58055 J-4.42627
G1 F300.0 X-149.08704 Y-11.4311
G3 F800.0 X-151.14664 Y-14.64224 I1.13294 J-2.99273
G2 X-150.68988 Y-23.86138 I-244.89478 J-16.75417
G3 X-151.03877 Y-23.81294 I-0.61383 J-3.14057
G2 X-151.71909 Y-23.74686 I2.03043 J24.43948
G3 X-151.3933 Y-17.72342 I-879.62496 J50.59657
G3 X-151.11187 Y-9.61728 I-202.22137 J11.07886
G3 X-151.11209 Y-9.50998 I-3.19966 J0.04697
G3 X-151.63156 Y1.82368 I-210.49927 J-3.96936
G3 X-151.75737 Y3.73897 I-386.16944 J-24.40308
G3 X-151.23559 Y3.73848 I0.54449 J301.86756
G3 X-151.14454 Y3.73977 I0.00024 J3.2
G3 X-150.83025 Y3.7513 I-0.53737 J18.929
G2 X-151.15176 Y-5.4488 I-1371.34534 J43.31795
G3 X-148.05644 Y-8.76965 I3.19765 J-0.12249
G3 X-131.25566 Y-9.07887 I19.78218 J618.25609
G3 X-131.21422 Y-9.0788 I0.01542 J3.19996
G3 X-119.32591 Y-8.80313 I-3.21052 J394.93349
G3 X-119.31068 Y-8.80251 I-0.12234 J3.19766
G2 X-110.27911 Y-8.5322 I14.84763 J-345.06832
G3 X-110.34303 Y-10.02511 I30.19003 J-2.04038
G3 X-110.34291 Y-10.14708 I3.19948 J-0.0579
G3 X-110.28802 Y-11.46474 I30.50924 J0.61096
G2 X-119.33626 Y-11.19298 I5.64422 J338.68903
G3 X-131.20783 Y-10.84802 I-15.04963 J-313.4708
G3 X-131.26079 Y-10.84792 I-0.03241 J-3.19984
G3 X-148.07746 Y-11.22621 I3.36295 J-523.47619
G3 X-149.08704 Y-11.4311 I0.12336 J-3.19762
G0 Z3.0
G0 X-150.13673 Y16.10427
G0 Z1.0
G1 F300.0 Z-2.5
G2 F800.0 X-150.12204 Y16.76805 I282.28317 J-5.91608
G3 X-149.12315 Y16.15048 I4.07676 J5.47729
G3 X-150.13673 Y16.10427 I13.36734 J-304.31953
G0 Z3.0
G0 X-132.61455 Y16.67177
G0 Z1.0
G1 F300.0 Z-2.5
G3 F800.0 X-131.59909 Y17.7741 I-3.8799 J4.593
G3 X-130.61833 Y16.69308 I5.08823 J3.63089
G3 X-130.86837 Y16.69663 I-3.48018 J-236.28604
G3 X-130.99735 Y16.69662 I-0.06424 J-4.69956
G3 X-132.61455 Y16.67177 I6.98944 J-507.39234
G0 Z3.0
G0 X-113.70206 Y15.98534
G0 Z1.0
G1 F300.0 Z-2.5
G3 F800.0 X-111.70834 Y17.15739 I-2.50673 J6.54581
G2 X-111.68351 Y15.92 I-315.237 J-6.94419
G2 X-113.70206 Y15.98534 I6.87999 J243.74148
G1 F300.0 X-114.2385 Y17.38614
G3 F800.0 X-112.11356 Y18.84574 I-1.9703 J5.14501
G3 X-111.89429 Y19.11793 I-2.37863 J2.14059
G3 X-110.91573 Y21.36463 I-4.71179 J3.38869
G3 X-110.91283 Y21.37923 I-3.13744 J0.62965
G3 X-110.57474 Y25.30913 I-18.0243 J3.53014
G1 X-110.60873 Y29.04764
G3 X-110.60995 Y29.11167 I-3.19987 J-0.02909
G3 X-110.96018 Y35.96378 I-156.11302 J-4.54435
G3 X-111.2306 Y39.8486 I-1018.04106 J-68.91452
G3 X-110.98257 Y39.81394 I0.56654 J3.14945
G2 X-109.8976 Y39.69387 I-5.16693 J-51.65413
G3 X-110.30457 Y33.92966 I67.43545 J-7.65766
G3 X-110.41191 Y27.30369 I183.62854 J-6.28858
G3 X-110.41185 Y27.28892 I3.19999 J0.00588
G3 X-110.27376 Y19.69436 I323.89122 J2.09039
G1 Y19.69427
G2 X-110.15928 Y14.38138 I-316.67158 J-9.48107
G2 X-119.21861 Y14.74677 I5.35576 J245.2801
G3 X-130.88888 Y15.19677 I-14.8799 J-234.33973
G3 X-130.97669 I-0.04374 J-3.1997
G3 X-145.57904 Y14.7847 I6.96878 J-505.89248
G3 X-151.66557 Y14.5261 I9.82323 J-302.95375
G2 X-151.55745 Y19.14222 I283.81201 J-4.33791
G3 X-151.55742 Y19.14316 I-3.19841 J0.10095
G3 X-151.41922 Y26.39903 I-297.02786 J9.28692
G3 Y26.44302 I-3.19993 J0.02187
G3 X-151.5576 Y33.36237 I-264.48129 J-1.82841
G2 X-151.68191 Y38.97536 I261.09052 J8.59036
G2 X-150.76406 Y39.10893 I21.94739 J-147.59061
G2 X-151.01156 Y33.21083 I-194.96531 J5.2271
G3 X-151.35889 Y24.20791 I178.6697 J-11.40124
G3 X-151.35905 Y24.19366 I3.19971 J-0.04287
G3 X-151.22474 Y21.92513 I16.70182 J-0.14941
G3 X-151.22325 Y21.91359 I3.17414 J0.406
G3 X-150.92312 Y20.52025 I8.70032 J1.14502
G3 X-149.7904 Y18.47482 I5.03674 J1.45292
G3 X-149.45534 Y18.15164 I2.38317 J2.13553
G3 X-147.29235 Y17.06541 I3.41006 J4.0937
G3 X-147.25563 Y17.0568 I0.749 J3.11111
G3 X-143.64158 Y16.69258 I3.26778 J14.31244
G1 X-138.62386
G3 X-135.81965 Y16.81349 I0.46066 J21.89371
G3 X-135.3518 Y16.89941 I-0.34246 J3.18162
G3 X-132.43212 Y19.3002 I-1.14265 J4.36536
G3 X-132.38842 Y19.39443 I-2.88081 J1.39318
G3 X-131.90298 Y21.83308 I-5.17203 J2.2972
G3 X-131.93672 Y23.01177 I-32.06667 J-0.32809
G1 Y24.09321
G3 X-132.17857 Y36.25687 I-275.95561 J0.59736
G3 X-132.28507 Y38.33661 I-83.53287 J-3.23499
G2 X-132.17702 Y38.32237 I-3.79681 J-29.21906
G3 X-132.12383 Y38.31571 I0.42409 J3.17177
G3 X-131.11172 Y38.21049 I4.68565 J40.15343
G2 X-131.17797 Y37.49892 I-76.88008 J6.79944
G3 X-131.18385 Y37.43154 I3.18481 J-0.31142
G3 X-131.36994 Y32.91467 I64.11462 J-4.90379
G3 X-131.39826 Y28.58679 I286.68491 J-4.0398
G3 X-131.26147 Y21.35432 I130.38571 J-1.15149
G3 X-126.8635 Y16.66723 I4.7506 J0.05068
G3 X-126.51382 Y16.66036 I0.23752 J3.19117
G2 X-124.0232 Y16.69271 I1.97804 J-56.40371
G3 X-123.99414 Y16.69258 I0.02906 J3.19987
G1 X-118.95158
G3 X-116.15025 Y16.88504 I0.17184 J17.98219
G3 X-116.13726 Y16.88699 I-0.46791 J3.16561
G3 X-114.42144 Y17.31976 I-1.38403 J9.10505
G3 X-114.2385 Y17.38614 I-1.78736 J5.21139
G1 F300.0 X-113.70206 Y15.98534
G1 Z-5.0
G3 F800.0 X-111.70834 Y17.15739 I-2.50673 J6.54581
G2 X-111.68351 Y15.92 I-315.237 J-6.94419
G2 X-113.70206 Y15.98534 I6.87999 J243.74148
G0 Z3.0
G0 X-130.61833 Y16.69308
G0 Z-1.5
G1 F300.0 Z-5.0
G3 F800.0 X-130.86837 Y16.69663 I-3.48018 J-236.28604
G3 X-130.99735 Y16.69662 I-0.06424 J-4.69956
G3 X-132.61455 Y16.67177 I6.98944 J-507.39234
G3 X-131.59909 Y17.7741 I-3.8799 J4.593
G3 X-130.61833 Y16.69308 I5.08823 J3.63089
G0 Z3.0
G0 X-149.12315 Y16.15048
G0 Z-1.5
G1 F300.0 Z-5.0
G3 F800.0 X-150.13673 Y16.10427 I13.36734 J-304.31953
G2 X-150.12204 Y16.76805 I282.28317 J-5.91608
G3 X-149.12315 Y16.15048 I4.07676 J5.47729
G1 F300.0 X-149.05733 Y14.65192
G3 F800.0 X-151.66557 Y14.5261 I13.30152 J-302.82097
G2 X-151.55745 Y19.14222 I283.81201 J-4.33791
G3 X-151.55742 Y19.14316 I-3.19841 J0.10095
G3 X-151.41922 Y26.39903 I-297.02786 J9.28692
G3 Y26.44302 I-3.19993 J0.02187
G3 X-151.5576 Y33.36237 I-264.48129 J-1.82841
G2 X-151.68191 Y38.97536 I261.09052 J8.59036
G2 X-150.76406 Y39.10893 I21.94739 J-147.59061
G2 X-151.01156 Y33.21083 I-194.96531 J5.2271
G3 X-151.35889 Y24.20791 I178.6697 J-11.40124
G3 X-151.35905 Y24.19366 I3.19971 J-0.04287
G3 X-151.22474 Y21.92513 I16.70182 J-0.14941
G3 X-151.22325 Y21.91359 I3.17414 J0.406
G3 X-150.92312 Y20.52025 I8.70032 J1.14502
G3 X-149.7904 Y18.47482 I5.03674 J1.45292
G3 X-149.45534 Y18.15164 I2.38317 J2.13553
G3 X-147.29235 Y17.06541 I3.41006 J4.0937
G3 X-147.25563 Y17.0568 I0.749 J3.11111
G3 X-143.64158 Y16.69258 I3.26778 J14.31244
G1 X-138.62386
G3 X-135.81965 Y16.81349 I0.46066 J21.89371
G3 X-135.3518 Y16.89941 I-0.34246 J3.18162
G3 X-132.43212 Y19.3002 I-1.14265 J4.36536
G3 X-132.38842 Y19.39443 I-2.88081 J1.39318
G3 X-131.90298 Y21.83308 I-5.17203 J2.2972
G3 X-131.93672 Y23.01177 I-32.06667 J-0.32809
G1 Y24.09321
G3 X-132.17857 Y36.25687 I-275.95561 J0.59736
G3 X-132.28507 Y38.33661 I-83.53287 J-3.23499
G2 X-132.17702 Y38.32237 I-3.79681 J-29.21906
G3 X-132.12383 Y38.31571 I0.42409 J3.17177
G3 X-131.11172 Y38.21049 I4.68565 J40.15343
G2 X-131.17797 Y37.49892 I-76.88008 J6.79944
G3 X-131.18385 Y37.43154 I3.18481 J-0.31142
G3 X-131.36994 Y32.91467 I64.11462 J-4.90379
G3 X-131.39826 Y28.58679 I286.68491 J-4.0398
G3 X-131.26147 Y21.35432 I130.38571 J-1.15149
G3 X-126.8635 Y16.66723 I4.7506 J0.05068
G3 X-126.51382 Y16.66036 I0.23752 J3.19117
G2 X-124.0232 Y16.69271 I1.97804 J-56.40371
G3 X-123.99414 Y16.69258 I0.02906 J3.19987
G1 X-118.95158
G3 X-116.15025 Y16.88504 I0.17184 J17.98219
G3 X-116.13726 Y16.88699 I-0.46791 J3.16561
G3 X-114.42144 Y17.31976 I-1.38403 J9.10505
G3 X-112.11356 Y18.84574 I-1.78736 J5.21139
G3 X-111.89429 Y19.11793 I-2.37863 J2.14059
G3 X-110.91573 Y21.36463 I-4.71179 J3.38869
G3 X-110.91283 Y21.37923 I-3.13744 J0.62965
G3 X-110.57474 Y25.30913 I-18.0243 J3.53014
G1 X-110.60873 Y29.04764
G3 X-110.60995 Y29.11167 I-3.19987 J-0.02909
G3 X-110.96018 Y35.96378 I-156.11302 J-4.54435
G3 X-111.2306 Y39.8486 I-1018.04106 J-68.91452
G3 X-110.98257 Y39.81394 I0.56654 J3.14945
G2 X-109.8976 Y39.69387 I-5.16693 J-51.65413
G3 X-110.30457 Y33.92966 I67.43545 J-7.65766
G3 X-110.41191 Y27.30369 I183.62854 J-6.28858
G3 X-110.41185 Y27.28892 I3.19999 J0.00588
G3 X-110.27376 Y19.69436 I323.89122 J2.09039
G1 Y19.69427
G2 X-110.15928 Y14.38138 I-316.67158 J-9.48107
G2 X-119.21861 Y14.74677 I5.35576 J245.2801
G3 X-130.88888 Y15.19677 I-14.8799 J-234.33973
G3 X-130.97669 I-0.04374 J-3.1997
G3 X-145.57904 Y14.7847 I6.96878 J-505.89248
G3 X-149.05733 Y14.65192 I9.82323 J-302.95375
G0 Z3.0
G0 X-150.123 Y53.79519
G0 Z1.0
G1 F300.0 Z-2.5
G3 F800.0 X-150.12852 Y54.19378 I-438.63873 J-5.87814
G3 X-149.5658 Y53.82588 I3.09147 J4.11426
G3 X-150.123 Y53.79519 I19.83185 J-365.2063
G0 Z3.0
G0 X-127.4062 Y54.30998
G0 Z1.0
G1 F300.0 Z-2.5
G3 F800.0 X-126.86062 Y54.96602 I-3.32134 J3.31698
G3 X-126.10386 Y54.2771 I4.11092 J3.75566
G3 X-127.4062 Y54.30998 I-7.5392 J-272.87074
G0 Z3.0
G0 X-126.22862 Y72.50518
G0 Z1.0
G1 F300.0 Z-2.5
G3 F800.0 X-126.4169 Y73.11596 I-13.48047 J-3.82107
G3 X-125.78238 Y73.03541 I1.00555 J5.38181
G3 X-125.65648 Y73.02856 I0.31851 J4.68919
G3 X-126.22862 Y72.50518 I4.32427 J-5.30157
G1 F300.0 X-125.15508 Y71.45756
G3 F800.0 X-126.15421 Y70.02477 I3.82287 J-3.73057
G3 X-126.86492 Y67.56844 I7.00243 J-3.35707
G3 X-126.8853 Y67.28586 I3.1784 J-0.37117
G3 X-126.92072 Y64.08007 I96.28842 J-2.66692
G3 X-126.90435 Y61.26111 I196.95654 J-0.26589
G3 X-126.77228 Y58.20797 I36.10472 J0.03236
G3 X-126.65903 Y57.59597 I3.18829 J0.27347
G3 X-123.33122 Y54.69528 I3.90933 J1.12571
G3 X-121.79859 Y54.56393 I1.41359 J7.48749
G3 X-114.51229 Y54.77231 I-1.97184 J196.44898
G3 X-114.48583 Y54.77366 I-0.1508 J3.19644
G2 X-110.25009 Y54.95244 I8.86925 J-159.87074
G3 X-110.34238 Y53.44113 I22.22853 J-2.11584
G3 X-110.34285 Y53.28738 I3.19883 J-0.08664
G3 X-110.29754 Y52.1843 I27.4834 J0.57648
G2 X-118.94057 Y52.48282 I5.6396 J288.55972
G3 X-130.48524 Y52.86287 I-14.70249 J-271.07645
G3 X-130.52945 Y52.86308 I-0.03722 J-3.19978
G3 X-151.60466 Y52.20675 I0.7955 J-364.2435
G3 X-151.72781 Y59.14468 I-437.15707 J-4.2897
G3 X-151.72839 Y59.16468 I-3.19894 J-0.08218
G2 X-151.89773 Y67.86898 I348.4824 J11.13361
G3 X-151.89783 Y67.88044 I-3.19992 J-0.0223
G2 X-151.22063 Y73.43543 I21.28031 J0.22452
G2 X-148.94882 Y78.04987 I12.30983 J-3.19402
G3 X-148.94798 Y78.05094 I-2.52579 J1.96478
G2 X-145.18569 Y80.95102 I7.48018 J-5.81363
G2 X-140.18103 Y81.8737 I4.78737 J-11.93282
G3 X-140.10643 Y81.87331 I0.05408 J3.19954
G2 X-136.51433 Y81.63631 I0.15979 J-24.91878
G3 X-136.4871 Y81.63264 I0.44076 J3.1695
G2 X-133.51179 Y80.80356 I-1.40842 J-10.80757
G2 X-131.1427 Y79.12632 I-4.02668 J-8.19946
G3 X-131.13236 Y79.11622 I2.24049 J2.28478
G2 X-128.9585 Y76.5655 I-12.45473 J-12.81625
G3 X-128.1886 Y75.65399 I4.60564 J3.10926
G3 X-125.68073 Y74.53197 I2.77725 J2.84377
G3 X-124.45077 Y74.68921 I0.21686 J3.19264
G3 X-121.81169 Y75.74615 I-7.65822 J22.94522
G3 X-114.99905 Y78.90152 I-159.02939 J352.28579
G3 X-114.99557 Y78.90318 I-1.37302 J2.89047
G2 X-110.48202 Y81.02793 I228.62461 J-479.80471
G2 X-110.33851 Y81.09453 I68.66208 J-147.76501
G3 X-110.23114 Y78.97729 I37.95995 J0.86368
G3 X-110.23071 Y78.97196 I3.19012 J0.25122
G2 X-110.18734 Y78.35272 I-29.95379 J-2.40922
G2 X-123.42478 Y72.64146 I-336.05479 J760.70317
G3 X-123.45337 Y72.62925 I1.24216 J-2.94907
G3 X-125.15508 Y71.45756 I2.12117 J-4.90226
G1 F300.0 X-127.41078 Y71.01857
G3 F800.0 X-127.44577 Y71.19412 I-19.325 J-3.76089
G3 X-127.44627 Y71.19659 I-3.13538 J-0.63983
G3 X-128.65135 Y74.5506 I-12.26281 J-2.51247
G3 X-132.98925 Y78.67226 I-8.30144 J-4.39341
G3 X-133.06189 Y78.70498 I-1.3504 J-2.90111
G3 X-138.21717 Y79.72896 I-4.92587 J-11.31022
G3 X-143.79567 Y78.9029 I-0.28997 J-17.29101
G3 X-149.22254 Y74.62967 I2.96588 J-9.34916
G3 X-149.28823 Y74.51584 I2.73816 J-1.65604
G3 X-150.46562 Y71.43775 I10.53114 J-5.79244
G3 X-151.08395 Y67.35847 I24.9043 J-5.86148
G3 X-151.22248 Y63.50795 I49.20276 J-3.69796
G3 X-151.13325 Y60.42969 I46.14633 J-0.20265
G3 X-151.13316 Y60.42832 I3.19378 J0.19941
G3 X-150.93341 Y58.66092 I17.84504 J1.12187
G3 X-150.93319 Y58.65956 I3.15795 J0.51709
G3 X-150.64329 Y57.46492 I8.05971 J1.32327
G3 X-150.64201 Y57.46097 I3.04415 J0.9865
G3 X-150.2212 Y56.51908 I4.6587 J1.5164
G3 X-147.81824 Y54.74027 I3.18416 J1.78896
G3 X-147.39522 Y54.67691 I0.68445 J3.12594
G3 X-142.22318 Y54.45743 I5.37136 J65.52717
G3 X-137.25396 Y54.42695 I4.56761 J339.62225
G1 X-130.72754
G3 X-127.83426 Y56.25985 I0.0 J3.2
G3 X-127.42947 Y57.57543 I-4.36886 J2.06433
G3 X-127.40681 Y57.75179 I-3.16135 J0.49586
G3 X-127.22755 Y59.86702 I-68.28699 J6.85224
G3 X-127.224 Y59.9264 I-3.19237 J0.22087
G3 X-127.049 Y67.08237 I-137.29394 J6.93768
G3 X-127.41078 Y71.01857 I-19.68678 J0.1753
G1 F300.0 Z-5.0
G3 F800.0 X-127.44577 Y71.19412 I-19.325 J-3.76089
G3 X-127.44627 Y71.19659 I-3.13538 J-0.63983
G3 X-128.65135 Y74.5506 I-12.26281 J-2.51247
G3 X-132.98925 Y78.67226 I-8.30144 J-4.39341
G3 X-133.06189 Y78.70498 I-1.3504 J-2.90111
G3 X-138.21717 Y79.72896 I-4.92587 J-11.31022
G3 X-143.79567 Y78.9029 I-0.28997 J-17.29101
G3 X-149.22254 Y74.62967 I2.96588 J-9.34916
G3 X-149.28823 Y74.51584 I2.73816 J-1.65604
G3 X-150.46562 Y71.43775 I10.53114 J-5.79244
G3 X-151.08395 Y67.35847 I24.9043 J-5.86148
G3 X-151.22248 Y63.50795 I49.20276 J-3.69796
G3 X-151.13325 Y60.42969 I46.14633 J-0.20265
G3 X-151.13316 Y60.42832 I3.19378 J0.19941
G3 X-150.93341 Y58.66092 I17.84504 J1.12187
G3 X-150.93319 Y58.65956 I3.15795 J0.51709
G3 X-150.64329 Y57.46492 I8.05971 J1.32327
G3 X-150.64201 Y57.46097 I3.04415 J0.9865
G3 X-150.2212 Y56.51908 I4.6587 J1.5164
G3 X-147.81824 Y54.74027 I3.18416 J1.78896
G3 X-147.39522 Y54.67691 I0.68445 J3.12594
G3 X-142.22318 Y54.45743 I5.37136 J65.52717
G3 X-137.25396 Y54.42695 I4.56761 J339.62225
G1 X-130.72754
G3 X-127.83426 Y56.25985 I0.0 J3.2
G3 X-127.42947 Y57.57543 I-4.36886 J2.06433
G3 X-127.40681 Y57.75179 I-3.16135 J0.49586
G3 X-127.22755 Y59.86702 I-68.28699 J6.85224
G3 X-127.224 Y59.9264 I-3.19237 J0.22087
G3 X-127.049 Y67.08237 I-137.29394 J6.93768
G3 X-127.41078 Y71.01857 I-19.68678 J0.1753
G1 F300.0 X-126.22862 Y72.50518
G3 F800.0 X-126.4169 Y73.11596 I-13.48047 J-3.82107
G3 X-125.78238 Y73.03541 I1.00555 J5.38181
G3 X-125.65648 Y73.02856 I0.31851 J4.68919
G3 X-126.22862 Y72.50518 I4.32427 J-5.30157
G0 Z3.0
G0 X-126.86062 Y54.96602
G0 Z-1.5
G1 F300.0 Z-5.0
G3 F800.0 X-126.10386 Y54.2771 I4.11092 J3.75566
G3 X-127.4062 Y54.30998 I-7.5392 J-272.87074
G3 X-126.86062 Y54.96602 I-3.32134 J3.31698
G0 Z3.0
G0 X-149.5658 Y53.82588
G0 Z-1.5
G1 F300.0 Z-5.0
G3 F800.0 X-150.123 Y53.79519 I19.83185 J-365.2063
G3 X-150.12852 Y54.19378 I-438.63873 J-5.87814
G3 X-149.5658 Y53.82588 I3.09147 J4.11426
G1 F300.0 X-149.48446 Y52.32808
G3 F800.0 X-151.60466 Y52.20675 I19.75051 J-363.70851
G3 X-151.72781 Y59.14468 I-437.15707 J-4.2897
G3 X-151.72839 Y59.16468 I-3.19894 J-0.08218
G2 X-151.89773 Y67.86898 I348.4824 J11.13361
G3 X-151.89783 Y67.88044 I-3.19992 J-0.0223
G2 X-151.22063 Y73.43543 I21.28031 J0.22452
G2 X-148.94882 Y78.04987 I12.30983 J-3.19402
G3 X-148.94798 Y78.05094 I-2.52579 J1.96478
G2 X-145.18569 Y80.95102 I7.48018 J-5.81363
G2 X-140.18103 Y81.8737 I4.78737 J-11.93282
G3 X-140.10643 Y81.87331 I0.05408 J3.19954
G2 X-136.51433 Y81.63631 I0.15979 J-24.91878
G3 X-136.4871 Y81.63264 I0.44076 J3.1695
G2 X-133.51179 Y80.80356 I-1.40842 J-10.80757
G2 X-131.1427 Y79.12632 I-4.02668 J-8.19946
G3 X-131.13236 Y79.11622 I2.24049 J2.28478
G2 X-128.9585 Y76.5655 I-12.45473 J-12.81625
G3 X-128.1886 Y75.65399 I4.60564 J3.10926
G3 X-125.68073 Y74.53197 I2.77725 J2.84377
G3 X-124.45077 Y74.68921 I0.21686 J3.19264
G3 X-121.81169 Y75.74615 I-7.65822 J22.94522
G3 X-114.99905 Y78.90152 I-159.02939 J352.28579
G3 X-114.99557 Y78.90318 I-1.37302 J2.89047
G2 X-110.48202 Y81.02793 I228.62461 J-479.80471
G2 X-110.33851 Y81.09453 I68.66208 J-147.76501
G3 X-110.23114 Y78.97729 I37.95995 J0.86368
G3 X-110.23071 Y78.97196 I3.19012 J0.25122
G2 X-110.18734 Y78.35272 I-29.95379 J-2.40922
G2 X-123.42478 Y72.64146 I-336.05479 J760.70317
G3 X-123.45337 Y72.62925 I1.24216 J-2.94907
G3 X-126.15421 Y70.02477 I2.12117 J-4.90226
G3 X-126.86492 Y67.56844 I7.00243 J-3.35707
G3 X-126.8853 Y67.28586 I3.1784 J-0.37117
G3 X-126.92072 Y64.08007 I96.28842 J-2.66692
G3 X-126.90435 Y61.26111 I196.95654 J-0.26589
G3 X-126.77228 Y58.20797 I36.10472 J0.03236
G3 X-126.65903 Y57.59597 I3.18829 J0.27347
G3 X-123.33122 Y54.69528 I3.90933 J1.12571
G3 X-121.79859 Y54.56393 I1.41359 J7.48749
G3 X-114.51229 Y54.77231 I-1.97184 J196.44898
G3 X-114.48583 Y54.77366 I-0.1508 J3.19644
G2 X-110.25009 Y54.95244 I8.86925 J-159.87074
G3 X-110.34238 Y53.44113 I22.22853 J-2.11584
G3 X-110.34285 Y53.28738 I3.19883 J-0.08664
G3 X-110.29754 Y52.1843 I27.4834 J0.57648
G2 X-118.94057 Y52.48282 I5.6396 J288.55972
G3 X-130.48524 Y52.86287 I-14.70249 J-271.07645
G3 X-130.52945 Y52.86308 I-0.03722 J-3.19978
G3 X-149.48446 Y52.32808 I0.7955 J-364.2435
G0 Z3.0
G0 X-150.13673 Y95.36696
G0 Z1.0
G1 F300.0 Z-2.5
G2 F800.0 X-150.12204 Y96.03075 I282.28317 J-5.91608
G3 X-149.12315 Y95.41317 I4.07676 J5.47729
G3 X-150.13673 Y95.36696 I13.36734 J-304.31953
G0 Z3.0
G0 X-132.61455 Y95.93446
G0 Z1.0
G1 F300.0 Z-2.5
G3 F800.0 X-131.59909 Y97.0368 I-3.8799 J4.593
G3 X-130.61833 Y95.95578 I5.08823 J3.63089
G3 X-130.86837 Y95.95933 I-3.48018 J-236.28604
G3 X-130.99735 Y95.95932 I-0.06424 J-4.69956
G3 X-132.61455 Y95.93446 I6.98944 J-507.39234
G0 Z3.0
G0 X-113.70206 Y95.24804
G0 Z1.0
G1 F300.0 Z-2.5
G3 F800.0 X-111.70834 Y96.42009 I-2.50673 J6.54581
G2 X-111.68351 Y95.18269 I-315.237 J-6.94419
G2 X-113.70206 Y95.24804 I6.87999 J243.74148
G1 F300.0 X-113.7568 Y93.74903
G2 F800.0 X-119.21861 Y94.00946 I8.95328 J245.17514
G3 X-130.88888 Y94.45947 I-14.8799 J-234.33973
G3 X-130.97669 Y94.45946 I-0.04374 J-3.1997
G3 X-145.57904 Y94.0474 I6.96878 J-505.89248
G3 X-151.66557 Y93.78879 I9.82323 J-302.95375
G2 X-151.55745 Y98.40491 I283.81201 J-4.33791
G3 X-151.55742 Y98.40586 I-3.19841 J0.10095
G3 X-151.41922 Y105.66172 I-297.02786 J9.28692
G3 Y105.70572 I-3.19993 J0.02187
G3 X-151.5576 Y112.62507 I-264.48129 J-1.82841
G2 X-151.68191 Y118.23805 I261.09052 J8.59036
G2 X-150.76406 Y118.37163 I21.94739 J-147.59061
G2 X-151.01156 Y112.47353 I-194.96531 J5.2271
G3 X-151.35889 Y103.4706 I178.6697 J-11.40124
G3 X-151.35905 Y103.45636 I3.19971 J-0.04287
G3 X-151.22474 Y101.18783 I16.70182 J-0.14941
G3 X-151.22325 Y101.17628 I3.17414 J0.406
G3 X-150.92312 Y99.78294 I8.70032 J1.14502
G3 X-149.7904 Y97.73752 I5.03674 J1.45292
G3 X-149.45534 Y97.41434 I2.38317 J2.13553
G3 X-147.29235 Y96.32811 I3.41006 J4.0937
G3 X-147.25563 Y96.3195 I0.749 J3.11111
G3 X-143.64158 Y95.95527 I3.26778 J14.31244
G1 X-138.62386
G3 X-135.81965 Y96.07619 I0.46066 J21.89371
G3 X-135.3518 Y96.16211 I-0.34246 J3.18162
G3 X-132.43212 Y98.5629 I-1.14265 J4.36536
G3 X-132.38842 Y98.65713 I-2.88081 J1.39318
G3 X-131.90298 Y101.09577 I-5.17203 J2.2972
G3 X-131.93672 Y102.27446 I-32.06667 J-0.32809
G1 Y103.3559
G3 X-132.17857 Y115.51957 I-275.95561 J0.59736
G3 X-132.28507 Y117.59931 I-83.53287 J-3.23499
G2 X-132.17702 Y117.58506 I-3.79681 J-29.21906
G3 X-132.12383 Y117.5784 I0.42409 J3.17177
G3 X-131.11172 Y117.47319 I4.68565 J40.15343
G2 X-131.17797 Y116.76161 I-76.88008 J6.79944
G3 X-131.18385 Y116.69423 I3.18481 J-0.31142
G3 X-131.36994 Y112.17737 I64.11462 J-4.90379
G3 X-131.39826 Y107.84949 I286.68491 J-4.0398
G3 X-131.26147 Y100.61701 I130.38571 J-1.15149
G3 X-126.8635 Y95.92992 I4.7506 J0.05068
G3 X-126.51382 Y95.92306 I0.23752 J3.19117
G2 X-124.0232 Y95.95541 I1.97804 J-56.40371
G3 X-123.99414 Y95.95527 I0.02906 J3.19987
G1 X-118.95158
G3 X-116.15025 Y96.14773 I0.17184 J17.98219
G3 X-116.13726 Y96.14968 I-0.46791 J3.16561
G3 X-114.42144 Y96.58246 I-1.38403 J9.10505
G3 X-112.11356 Y98.10843 I-1.78736 J5.21139
G3 X-111.89429 Y98.38063 I-2.37863 J2.14059
G3 X-110.91573 Y100.62732 I-4.71179 J3.38869
G3 X-110.91283 Y100.64193 I-3.13744 J0.62965
G3 X-110.57474 Y104.57183 I-18.0243 J3.53014
G1 X-110.60873 Y108.31034
G3 X-110.60995 Y108.37436 I-3.19987 J-0.02909
G3 X-110.96018 Y115.22647 I-156.11302 J-4.54435
G3 X-111.2306 Y119.11129 I-1018.04106 J-68.91452
G3 X-110.98257 Y119.07663 I0.56654 J3.14945
G2 X-109.8976 Y118.95657 I-5.16693 J-51.65413
G3 X-110.30457 Y113.19235 I67.43545 J-7.65766
G3 X-110.41191 Y106.56639 I183.62854 J-6.28858
G3 X-110.41185 Y106.55161 I3.19999 J0.00588
G3 X-110.27376 Y98.95705 I323.89122 J2.09039
G1 Y98.95697
G2 X-110.15928 Y93.64408 I-316.67158 J-9.48107
G2 X-113.7568 Y93.74903 I5.35576 J245.2801
G1 F300.0 X-113.70206 Y95.24804
G1 Z-5.0
G3 F800.0 X-111.70834 Y96.42009 I-2.50673 J6.54581
G2 X-111.68351 Y95.18269 I-315.237 J-6.94419
G2 X-113.70206 Y95.24804 I6.87999 J243.74148
G0 Z3.0
G0 X-130.61833 Y95.95578
G0 Z-1.5
G1 F300.0 Z-5.0
G3 F800.0 X-130.86837 Y95.95933 I-3.48018 J-236.28604
G3 X-130.99735 Y95.95932 I-0.06424 J-4.69956
G3 X-132.61455 Y95.93446 I6.98944 J-507.39234
G3 X-131.59909 Y97.0368 I-3.8799 J4.593
G3 X-130.61833 Y95.95578 I5.08823 J3.63089
G0 Z3.0
G0 X-149.12315 Y95.41317
G0 Z-1.5
G1 F300.0 Z-5.0
G3 F800.0 X-150.13673 Y95.36696 I13.36734 J-304.31953
G2 X-150.12204 Y96.03075 I282.28317 J-5.91608
G3 X-149.12315 Y95.41317 I4.07676 J5.47729
G1 F300.0 X-149.05733 Y93.91462
G3 F800.0 X-151.66557 Y93.78879 I13.30152 J-302.82097
G2 X-151.55745 Y98.40491 I283.81201 J-4.33791
G3 X-151.55742 Y98.40586 I-3.19841 J0.10095
G3 X-151.41922 Y105.66172 I-297.02786 J9.28692
G3 Y105.70572 I-3.19993 J0.02187
G3 X-151.5576 Y112.62507 I-264.48129 J-1.82841
G2 X-151.68191 Y118.23805 I261.09052 J8.59036
G2 X-150.76406 Y118.37163 I21.94739 J-147.59061
G2 X-151.01156 Y112.47353 I-194.96531 J5.2271
G3 X-151.35889 Y103.4706 I178.6697 J-11.40124
G3 X-151.35905 Y103.45636 I3.19971 J-0.04287
G3 X-151.22474 Y101.18783 I16.70182 J-0.14941
G3 X-151.22325 Y101.17628 I3.17414 J0.406
G3 X-150.92312 Y99.78294 I8.70032 J1.14502
G3 X-149.7904 Y97.73752 I5.03674 J1.45292
G3 X-149.45534 Y97.41434 I2.38317 J2.13553
G3 X-147.29235 Y96.32811 I3.41006 J4.0937
G3 X-147.25563 Y96.3195 I0.749 J3.11111
G3 X-143.64158 Y95.95527 I3.26778 J14.31244
G1 X-138.62386
G3 X-135.81965 Y96.07619 I0.46066 J21.89371
G3 X-135.3518 Y96.16211 I-0.34246 J3.18162
G3 X-132.43212 Y98.5629 I-1.14265 J4.36536
G3 X-132.38842 Y98.65713 I-2.88081 J1.39318
G3 X-131.90298 Y101.09577 I-5.17203 J2.2972
G3 X-131.93672 Y102.27446 I-32.06667 J-0.32809
G1 Y103.3559
G3 X-132.17857 Y115.51957 I-275.95561 J0.59736
G3 X-132.28507 Y117.59931 I-83.53287 J-3.23499
G2 X-132.17702 Y117.58506 I-3.79681 J-29.21906
G3 X-132.12383 Y117.5784 I0.42409 J3.17177
G3 X-131.11172 Y117.47319 I4.68565 J40.15343
G2 X-131.17797 Y116.76161 I-76.88008 J6.79944
G3 X-131.18385 Y116.69423 I3.18481 J-0.31142
G3 X-131.36994 Y112.17737 I64.11462 J-4.90379
G3 X-131.39826 Y107.84949 I286.68491 J-4.0398
G3 X-131.26147 Y100.61701 I130.38571 J-1.15149
G3 X-126.8635 Y95.92992 I4.7506 J0.05068
G3 X-126.51382 Y95.92306 I0.23752 J3.19117
G2 X-124.0232 Y95.95541 I1.97804 J-56.40371
G3 X-123.99414 Y95.95527 I0.02906 J3.19987
G1 X-118.95158
G3 X-116.15025 Y96.14773 I0.17184 J17.98219
G3 X-116.13726 Y96.14968 I-0.46791 J3.16561
G3 X-114.42144 Y96.58246 I-1.38403 J9.10505
G3 X-112.11356 Y98.10843 I-1.78736 J5.21139
G3 X-111.89429 Y98.38063 I-2.37863 J2.14059
G3 X-110.91573 Y100.62732 I-4.71179 J3.38869
G3 X-110.91283 Y100.64193 I-3.13744 J0.62965
G3 X-110.57474 Y104.57183 I-18.0243 J3.53014
G1 X-110.60873 Y108.31034
G3 X-110.60995 Y108.37436 I-3.19987 J-0.02909
G3 X-110.96018 Y115.22647 I-156.11302 J-4.54435
G3 X-111.2306 Y119.11129 I-1018.04106 J-68.91452
G3 X-110.98257 Y119.07663 I0.56654 J3.14945
G2 X-109.8976 Y118.95657 I-5.16693 J-51.65413
G3 X-110.30457 Y113.19235 I67.43545 J-7.65766
G3 X-110.41191 Y106.56639 I183.62854 J-6.28858
G3 X-110.41185 Y106.55161 I3.19999 J0.00588
G3 X-110.27376 Y98.95705 I323.89122 J2.09039
G1 Y98.95697
G2 X-110.15928 Y93.64408 I-316.67158 J-9.48107
G2 X-119.21861 Y94.00946 I5.35576 J245.2801
G3 X-130.88888 Y94.45947 I-14.8799 J-234.33973
G3 X-130.97669 Y94.45946 I-0.04374 J-3.1997
G3 X-145.57904 Y94.0474 I6.96878 J-505.89248
G3 X-149.05733 Y93.91462 I9.82323 J-302.95375
G0 Z3.0
G0 X-73.18356 Y69.57567
G0 Z1.0
G1 F300.0 Z-2.5
G3 F800.0 X-72.18468 Y68.9581 I4.07676 J5.47729
G3 X-73.19825 Y68.91188 I13.36734 J-304.31953
G2 X-73.18356 Y69.57567 I282.28317 J-5.91608
G0 Z3.0
G0 X-55.67607 Y69.47939
G0 Z1.0
G1 F300.0 Z-2.5
G3 F800.0 X-54.66061 Y70.58172 I-3.8799 J4.593
G3 X-53.67985 Y69.5007 I5.08823 J3.63089
G3 X-53.9299 Y69.50425 I-3.48018 J-236.28604
G3 X-54.05888 Y69.50424 I-0.06424 J-4.69956
G3 X-55.67607 Y69.47939 I6.98944 J-507.39234
G0 Z3.0
G0 X-36.76358 Y68.79296
G0 Z1.0
G1 F300.0 Z-2.5
G3 F800.0 X-34.76986 Y69.96501 I-2.50673 J6.54581
G2 X-34.74503 Y68.72761 I-315.237 J-6.94419
G2 X-36.76358 Y68.79296 I6.87999 J243.74148
G1 F300.0 X-36.81832 Y67.29396
G2 F800.0 X-42.28014 Y67.55439 I8.95328 J245.17514
G3 X-53.9504 Y68.00439 I-14.8799 J-234.33973
G3 X-54.03822 Y68.00438 I-0.04374 J-3.1997
G3 X-68.64056 Y67.59232 I6.96878 J-505.89248
G3 X-74.72709 Y67.33371 I9.82323 J-302.95375
G2 X-74.61898 Y71.94984 I283.81201 J-4.33791
G3 X-74.61895 Y71.95078 I-3.19841 J0.10095
G3 X-74.48074 Y79.20664 I-297.02786 J9.28692
G3 Y79.25064 I-3.19993 J0.02187
G3 X-74.61912 Y86.16999 I-264.48129 J-1.82841
G2 X-74.74344 Y91.78298 I261.09052 J8.59036
G2 X-73.82558 Y91.91655 I21.94739 J-147.59061
G2 X-74.07308 Y86.01845 I-194.96531 J5.2271
G3 X-74.42042 Y77.01552 I178.6697 J-11.40124
G3 X-74.42058 Y77.00128 I3.19971 J-0.04287
G3 X-74.28627 Y74.73275 I16.70182 J-0.14941
G3 X-74.28477 Y74.72121 I3.17414 J0.406
G3 X-73.98465 Y73.32786 I8.70032 J1.14502
G3 X-72.85192 Y71.28244 I5.03674 J1.45292
G3 X-72.51686 Y70.95926 I2.38317 J2.13553
G3 X-70.35387 Y69.87303 I3.41006 J4.0937
G3 X-70.31716 Y69.86442 I0.749 J3.11111
G3 X-66.7031 Y69.5002 I3.26778 J14.31244
G1 X-61.68538
G3 X-58.88117 Y69.62111 I0.46066 J21.89371
G3 X-58.41332 Y69.70703 I-0.34246 J3.18162
G3 X-55.49365 Y72.10782 I-1.14265 J4.36536
G3 X-55.44995 Y72.20205 I-2.88081 J1.39318
G3 X-54.9645 Y74.64069 I-5.17203 J2.2972
G3 X-54.99824 Y75.81939 I-32.06667 J-0.32809
G1 Y76.90082
G3 X-55.24009 Y89.06449 I-275.95561 J0.59736
G3 X-55.34659 Y91.14423 I-83.53287 J-3.23499
G2 X-55.23854 Y91.12998 I-3.79681 J-29.21906
G3 X-55.18536 Y91.12333 I0.42409 J3.17177
G3 X-54.17324 Y91.01811 I4.68565 J40.15343
G2 X-54.2395 Y90.30653 I-76.88008 J6.79944
G3 X-54.24537 Y90.23916 I3.18481 J-0.31142
G3 X-54.43146 Y85.72229 I64.11462 J-4.90379
G3 X-54.45978 Y81.39441 I286.68491 J-4.0398
G3 X-54.32299 Y74.16193 I130.38571 J-1.15149
G3 X-49.92502 Y69.47484 I4.7506 J0.05068
G3 X-49.57535 Y69.46798 I0.23752 J3.19117
G2 X-47.08473 Y69.50033 I1.97804 J-56.40371
G3 X-47.05566 Y69.5002 I0.02906 J3.19987
G1 X-42.01311
G3 X-39.21178 Y69.69266 I0.17184 J17.98219
G3 X-39.19879 Y69.6946 I-0.46791 J3.16561
G3 X-37.48296 Y70.12738 I-1.38403 J9.10505
G3 X-35.17508 Y71.65335 I-1.78736 J5.21139
G3 X-34.95581 Y71.92555 I-2.37863 J2.14059
G3 X-33.97725 Y74.17225 I-4.71179 J3.38869
G3 X-33.97436 Y74.18685 I-3.13744 J0.62965
G3 X-33.63626 Y78.11675 I-18.0243 J3.53014
G1 X-33.67025 Y81.85526
G3 X-33.67147 Y81.91928 I-3.19987 J-0.02909
G3 X-34.0217 Y88.77139 I-156.11302 J-4.54435
G3 X-34.29213 Y92.65621 I-1018.04106 J-68.91452
G3 X-34.04409 Y92.62155 I0.56654 J3.14945
G2 X-32.95912 Y92.50149 I-5.16693 J-51.65413
G3 X-33.36609 Y86.73727 I67.43545 J-7.65766
G3 X-33.47343 Y80.11131 I183.62854 J-6.28858
G3 X-33.47337 Y80.09654 I3.19999 J0.00588
G3 X-33.33529 Y72.50197 I323.89122 J2.09039
G1 Y72.50189
G2 X-33.22081 Y67.189 I-316.67158 J-9.48107
G2 X-36.81832 Y67.29396 I5.35576 J245.2801
G1 F300.0 X-36.76358 Y68.79296
G1 Z-5.0
G3 F800.0 X-34.76986 Y69.96501 I-2.50673 J6.54581
G2 X-34.74503 Y68.72761 I-315.237 J-6.94419
G2 X-36.76358 Y68.79296 I6.87999 J243.74148
G0 Z3.0
G0 X-53.67985 Y69.5007
G0 Z-1.5
G1 F300.0 Z-5.0
G3 F800.0 X-53.9299 Y69.50425 I-3.48018 J-236.28604
G3 X-54.05888 Y69.50424 I-0.06424 J-4.69956
G3 X-55.67607 Y69.47939 I6.98944 J-507.39234
G3 X-54.66061 Y70.58172 I-3.8799 J4.593
G3 X-53.67985 Y69.5007 I5.08823 J3.63089
G0 Z3.0
G0 X-72.18468 Y68.9581
G0 Z-1.5
G1 F300.0 Z-5.0
G3 F800.0 X-73.19825 Y68.91188 I13.36734 J-304.31953
G2 X-73.18356 Y69.57567 I282.28317 J-5.91608
G3 X-72.18468 Y68.9581 I4.07676 J5.47729
G1 F300.0 X-72.11885 Y67.45954
G3 F800.0 X-74.72709 Y67.33371 I13.30152 J-302.82097
G2 X-74.61898 Y71.94984 I283.81201 J-4.33791
G3 X-74.61895 Y71.95078 I-3.19841 J0.10095
G3 X-74.48074 Y79.20664 I-297.02786 J9.28692
G3 Y79.25064 I-3.19993 J0.02187
G3 X-74.61912 Y86.16999 I-264.48129 J-1.82841
G2 X-74.74344 Y91.78298 I261.09052 J8.59036
G2 X-73.82558 Y91.91655 I21.94739 J-147.59061
G2 X-74.07308 Y86.01845 I-194.96531 J5.2271
G3 X-74.42042 Y77.01552 I178.6697 J-11.40124
G3 X-74.42058 Y77.00128 I3.19971 J-0.04287
G3 X-74.28627 Y74.73275 I16.70182 J-0.14941
G3 X-74.28477 Y74.72121 I3.17414 J0.406
G3 X-73.98465 Y73.32786 I8.70032 J1.14502
G3 X-72.85192 Y71.28244 I5.03674 J1.45292
G3 X-72.51686 Y70.95926 I2.38317 J2.13553
G3 X-70.35387 Y69.87303 I3.41006 J4.0937
G3 X-70.31716 Y69.86442 I0.749 J3.11111
G3 X-66.7031 Y69.5002 I3.26778 J14.31244
G1 X-61.68538
G3 X-58.88117 Y69.62111 I0.46066 J21.89371
G3 X-58.41332 Y69.70703 I-0.34246 J3.18162
G3 X-55.49365 Y72.10782 I-1.14265 J4.36536
G3 X-55.44995 Y72.20205 I-2.88081 J1.39318
G3 X-54.9645 Y74.64069 I-5.17203 J2.2972
G3 X-54.99824 Y75.81939 I-32.06667 J-0.32809
G1 Y76.90082
G3 X-55.24009 Y89.06449 I-275.95561 J0.59736
G3 X-55.34659 Y91.14423 I-83.53287 J-3.23499
G2 X-55.23854 Y91.12998 I-3.79681 J-29.21906
G3 X-55.18536 Y91.12333 I0.42409 J3.17177
G3 X-54.17324 Y91.01811 I4.68565 J40.15343
G2 X-54.2395 Y90.30653 I-76.88008 J6.79944
G3 X-54.24537 Y90.23916 I3.18481 J-0.31142
G3 X-54.43146 Y85.72229 I64.11462 J-4.90379
G3 X-54.45978 Y81.39441 I286.68491 J-4.0398
G3 X-54.32299 Y74.16193 I130.38571 J-1.15149
G3 X-49.92502 Y69.47484 I4.7506 J0.05068
G3 X-49.57535 Y69.46798 I0.23752 J3.19117
G2 X-47.08473 Y69.50033 I1.97804 J-56.40371
G3 X-47.05566 Y69.5002 I0.02906 J3.19987
G1 X-42.01311
G3 X-39.21178 Y69.69266 I0.17184 J17.98219
G3 X-39.19879 Y69.6946 I-0.46791 J3.16561
G3 X-37.48296 Y70.12738 I-1.38403 J9.10505
G3 X-35.17508 Y71.65335 I-1.78736 J5.21139
G3 X-34.95581 Y71.92555 I-2.37863 J2.14059
G3 X-33.97725 Y74.17225 I-4.71179 J3.38869
G3 X-33.97436 Y74.18685 I-3.13744 J0.62965
G3 X-33.63626 Y78.11675 I-18.0243 J3.53014
G1 X-33.67025 Y81.85526
G3 X-33.67147 Y81.91928 I-3.19987 J-0.02909
G3 X-34.0217 Y88.77139 I-156.11302 J-4.54435
G3 X-34.29213 Y92.65621 I-1018.04106 J-68.91452
G3 X-34.04409 Y92.62155 I0.56654 J3.14945
G2 X-32.95912 Y92.50149 I-5.16693 J-51.65413
G3 X-33.36609 Y86.73727 I67.43545 J-7.65766
G3 X-33.47343 Y80.11131 I183.62854 J-6.28858
G3 X-33.47337 Y80.09654 I3.19999 J0.00588
G3 X-33.33529 Y72.50197 I323.89122 J2.09039
G1 Y72.50189
G2 X-33.22081 Y67.189 I-316.67158 J-9.48107
G2 X-42.28014 Y67.55439 I5.35576 J245.2801
G3 X-53.9504 Y68.00439 I-14.8799 J-234.33973
G3 X-54.03822 Y68.00438 I-0.04374 J-3.1997
G3 X-68.64056 Y67.59232 I6.96878 J-505.89248
G3 X-72.11885 Y67.45954 I9.82323 J-302.95375
G0 Z3.0
G0 X-73.40277 Y54.51055
G0 Z1.0
G1 F300.0 Z-2.5
G3 F800.0 X-72.54784 Y54.06364 I34.52034 J64.9941
G3 X-72.23046 Y53.92161 I1.46386 J2.84554
G2 X-71.65624 Y53.69426 I-10.47146 J-27.28721
G3 X-71.97059 Y52.81225 I307.37716 J-110.04501
G3 X-72.90608 Y49.82858 I26.4137 J-9.92016
G3 X-73.39464 Y46.31084 I14.66051 J-3.82892
G3 X-73.39513 Y46.27947 I3.19933 J-0.06572
G3 X-73.08955 Y43.2534 I13.68176 J-0.14687
G3 X-70.00509 Y38.31702 I7.93734 J1.52775
G3 X-69.80514 Y38.17847 I1.92121 J2.55909
G3 X-64.5497 Y36.75781 I4.89252 J7.6678
G3 X-59.05979 Y39.20965 I-0.22177 J7.86868
G3 X-56.43797 Y42.91761 I-10.55918 J10.24707
G2 X-54.29614 Y46.99583 I496.69503 J-258.2572
G3 X-54.28042 Y47.02585 I-2.82691 J1.49953
G2 X-52.21276 Y50.74162 I61.59497 J-31.84173
G2 X-49.3155 Y52.99553 I6.35678 J-5.18214
G2 X-45.39622 Y53.77792 I3.7726 J-8.69057
G3 X-45.29338 Y53.77798 I0.04954 J3.19962
G2 X-39.96502 Y52.61848 I0.19843 J-11.91081
G2 X-35.89583 Y49.08275 I-5.16079 J-10.04886
G3 X-35.8706 Y49.04751 I2.61458 J1.84498
G2 X-33.30649 Y43.72118 I-13.40373 J-9.73296
G2 X-32.51629 Y37.5908 I-21.88263 J-5.93676
G3 X-32.51632 Y37.5404 I3.19988 J-0.02733
G2 X-32.54081 Y36.48659 I-17.31294 J-0.12485
G3 X-34.55934 Y36.12103 I8.82039 J-54.46072
G3 X-34.58863 Y36.11503 I0.62868 J-3.13764
G3 X-34.52549 Y37.52245 I-32.96734 J2.18395
G3 X-34.52466 Y37.57897 I-3.19912 J0.07521
G3 X-34.77106 Y41.46965 I-28.2368 J0.16491
G3 X-35.48359 Y44.60221 I-17.37687 J-2.30524
G3 X-38.67065 Y49.43947 I-9.7828 J-2.97691
G3 X-38.81638 Y49.55539 I-2.06405 J-2.44534
G3 X-44.63329 Y51.3927 I-5.53126 J-7.38513
G3 X-50.17434 Y49.23247 I0.12499 J-8.50716
G3 X-53.16727 Y45.4771 I9.42619 J-10.58277
G2 X-57.6183 Y37.79028 I-349.29808 J197.12822
G2 X-60.45673 Y35.6118 I-6.22443 J5.17166
G2 X-64.30196 Y34.85002 I-3.70287 J8.6053
G3 X-64.39476 Y34.85009 I-0.04863 J-3.19963
G2 X-68.7504 Y35.60894 I-0.16475 J11.93392
G2 X-72.1661 Y37.97041 I3.35513 J8.50398
G3 X-72.16688 Y37.97127 I-2.37004 J-2.1501
G2 X-74.34244 Y41.71252 I7.6701 J6.9634
G2 X-75.02791 Y46.29647 I13.96138 J4.43096
G2 X-74.24645 Y51.81394 I23.39722 J-0.49975
G3 X-74.23512 Y51.85779 I-3.09242 J0.82278
G2 X-73.40277 Y54.51055 I23.19931 J-5.8222
G1 F300.0 Z-5.0
G3 F800.0 X-72.54784 Y54.06364 I34.52034 J64.9941
G3 X-72.23046 Y53.92161 I1.46386 J2.84554
G2 X-71.65624 Y53.69426 I-10.47146 J-27.28721
G3 X-71.97059 Y52.81225 I307.37716 J-110.04501
G3 X-72.90608 Y49.82858 I26.4137 J-9.92016
G3 X-73.39464 Y46.31084 I14.66051 J-3.82892
G3 X-73.39513 Y46.27947 I3.19933 J-0.06572
G3 X-73.08955 Y43.2534 I13.68176 J-0.14687
G3 X-70.00509 Y38.31702 I7.93734 J1.52775
G3 X-69.80514 Y38.17847 I1.92121 J2.55909
G3 X-64.5497 Y36.75781 I4.89252 J7.6678
G3 X-59.05979 Y39.20965 I-0.22177 J7.86868
G3 X-56.43797 Y42.91761 I-10.55918 J10.24707
G2 X-54.29614 Y46.99583 I496.69503 J-258.2572
G3 X-54.28042 Y47.02585 I-2.82691 J1.49953
G2 X-52.21276 Y50.74162 I61.59497 J-31.84173
G2 X-49.3155 Y52.99553 I6.35678 J-5.18214
G2 X-45.39622 Y53.77792 I3.7726 J-8.69057
G3 X-45.29338 Y53.77798 I0.04954 J3.19962
G2 X-39.96502 Y52.61848 I0.19843 J-11.91081
G2 X-35.89583 Y49.08275 I-5.16079 J-10.04886
G3 X-35.8706 Y49.04751 I2.61458 J1.84498
G2 X-33.30649 Y43.72118 I-13.40373 J-9.73296
G2 X-32.51629 Y37.5908 I-21.88263 J-5.93676
G3 X-32.51632 Y37.5404 I3.19988 J-0.02733
G2 X-32.54081 Y36.48659 I-17.31294 J-0.12485
G3 X-34.55934 Y36.12103 I8.82039 J-54.46072
G3 X-34.58863 Y36.11503 I0.62868 J-3.13764
G3 X-34.52549 Y37.52245 I-32.96734 J2.18395
G3 X-34.52466 Y37.57897 I-3.19912 J0.07521
G3 X-34.77106 Y41.46965 I-28.2368 J0.16491
G3 X-35.48359 Y44.60221 I-17.37687 J-2.30524
G3 X-38.67065 Y49.43947 I-9.7828 J-2.97691
G3 X-38.81638 Y49.55539 I-2.06405 J-2.44534
G3 X-44.63329 Y51.3927 I-5.53126 J-7.38513
G3 X-50.17434 Y49.23247 I0.12499 J-8.50716
G3 X-53.16727 Y45.4771 I9.42619 J-10.58277
G2 X-57.6183 Y37.79028 I-349.29808 J197.12822
G2 X-60.45673 Y35.6118 I-6.22443 J5.17166
G2 X-64.30196 Y34.85002 I-3.70287 J8.6053
G3 X-64.39476 Y34.85009 I-0.04863 J-3.19963
G2 X-68.7504 Y35.60894 I-0.16475 J11.93392
G2 X-72.1661 Y37.97041 I3.35513 J8.50398
G3 X-72.16688 Y37.97127 I-2.37004 J-2.1501
G2 X-74.34244 Y41.71252 I7.6701 J6.9634
G2 X-75.02791 Y46.29647 I13.96138 J4.43096
G2 X-74.24645 Y51.81394 I23.39722 J-0.49975
G3 X-74.23512 Y51.85779 I-3.09242 J0.82278
G2 X-73.40277 Y54.51055 I23.19931 J-5.8222
G0 Z3.0
G0 Y21.83477
G0 Z1.0
G1 F300.0 Z-2.5
G3 F800.0 X-72.54784 Y21.38785 I34.52034 J64.9941
G3 X-72.23046 Y21.24583 I1.46386 J2.84554
G2 X-71.65624 Y21.01848 I-10.47146 J-27.28721
G3 X-71.97059 Y20.13647 I307.37716 J-110.04501
G3 X-72.90608 Y17.1528 I26.4137 J-9.92016
G3 X-73.39464 Y13.63505 I14.66051 J-3.82892
G3 X-73.39513 Y13.60369 I3.19933 J-0.06572
G3 X-73.08955 Y10.57762 I13.68176 J-0.14687
G3 X-70.00509 Y5.64124 I7.93734 J1.52775
G3 X-69.80514 Y5.50269 I1.92121 J2.55909
G3 X-64.5497 Y4.08202 I4.89252 J7.6678
G3 X-59.05979 Y6.53387 I-0.22177 J7.86868
G3 X-56.43797 Y10.24183 I-10.55918 J10.24707
G2 X-54.29614 Y14.32005 I496.69503 J-258.2572
G3 X-54.28042 Y14.35007 I-2.82691 J1.49953
G2 X-52.21276 Y18.06584 I61.59497 J-31.84173
G2 X-49.3155 Y20.31975 I6.35678 J-5.18214
G2 X-45.39622 Y21.10214 I3.7726 J-8.69057
G3 X-45.29338 Y21.1022 I0.04954 J3.19962
G2 X-39.96502 Y19.9427 I0.19843 J-11.91081
G2 X-35.89583 Y16.40697 I-5.16079 J-10.04886
G3 X-35.8706 Y16.37173 I2.61458 J1.84498
G2 X-33.30649 Y11.0454 I-13.40373 J-9.73296
G2 X-32.51629 Y4.91502 I-21.88263 J-5.93676
G3 X-32.51632 Y4.86462 I3.19988 J-0.02733
G2 X-32.54081 Y3.81081 I-17.31294 J-0.12485
G3 X-34.55934 Y3.44525 I8.82039 J-54.46072
G3 X-34.58863 Y3.43924 I0.62868 J-3.13764
G3 X-34.52549 Y4.84667 I-32.96734 J2.18395
G3 X-34.52466 Y4.90319 I-3.19912 J0.07521
G3 X-34.77106 Y8.79387 I-28.2368 J0.16491
G3 X-35.48359 Y11.92643 I-17.37687 J-2.30524
G3 X-38.67065 Y16.76369 I-9.7828 J-2.97691
G3 X-38.81638 Y16.87961 I-2.06405 J-2.44534
G3 X-44.63329 Y18.71692 I-5.53126 J-7.38513
G3 X-50.17434 Y16.55669 I0.12499 J-8.50716
G3 X-53.16727 Y12.80132 I9.42619 J-10.58277
G2 X-57.6183 Y5.1145 I-349.29808 J197.12822
G2 X-60.45673 Y2.93602 I-6.22443 J5.17166
G2 X-64.30196 Y2.17424 I-3.70287 J8.6053
G3 X-64.39476 Y2.1743 I-0.04863 J-3.19963
G2 X-68.7504 Y2.93316 I-0.16475 J11.93392
G2 X-72.1661 Y5.29463 I3.35513 J8.50398
G3 X-72.16688 Y5.29549 I-2.37004 J-2.1501
G2 X-74.34244 Y9.03674 I7.6701 J6.9634
G2 X-75.02791 Y13.62069 I13.96138 J4.43096
G2 X-74.24645 Y19.13816 I23.39722 J-0.49975
G3 X-74.23512 Y19.18201 I-3.09242 J0.82278
G2 X-73.40277 Y21.83477 I23.19931 J-5.8222
G1 F300.0 Z-5.0
G3 F800.0 X-72.54784 Y21.38785 I34.52034 J64.9941
G3 X-72.23046 Y21.24583 I1.46386 J2.84554
G2 X-71.65624 Y21.01848 I-10.47146 J-27.28721
G3 X-71.97059 Y20.13647 I307.37716 J-110.04501
G3 X-72.90608 Y17.1528 I26.4137 J-9.92016
G3 X-73.39464 Y13.63505 I14.66051 J-3.82892
G3 X-73.39513 Y13.60369 I3.19933 J-0.06572
G3 X-73.08955 Y10.57762 I13.68176 J-0.14687
G3 X-70.00509 Y5.64124 I7.93734 J1.52775
G3 X-69.80514 Y5.50269 I1.92121 J2.55909
G3 X-64.5497 Y4.08202 I4.89252 J7.6678
G3 X-59.05979 Y6.53387 I-0.22177 J7.86868
G3 X-56.43797 Y10.24183 I-10.55918 J10.24707
G2 X-54.29614 Y14.32005 I496.69503 J-258.2572
G3 X-54.28042 Y14.35007 I-2.82691 J1.49953
G2 X-52.21276 Y18.06584 I61.59497 J-31.84173
G2 X-49.3155 Y20.31975 I6.35678 J-5.18214
G2 X-45.39622 Y21.10214 I3.7726 J-8.69057
G3 X-45.29338 Y21.1022 I0.04954 J3.19962
G2 X-39.96502 Y19.9427 I0.19843 J-11.91081
G2 X-35.89583 Y16.40697 I-5.16079 J-10.04886
G3 X-35.8706 Y16.37173 I2.61458 J1.84498
G2 X-33.30649 Y11.0454 I-13.40373 J-9.73296
G2 X-32.51629 Y4.91502 I-21.88263 J-5.93676
G3 X-32.51632 Y4.86462 I3.19988 J-0.02733
G2 X-32.54081 Y3.81081 I-17.31294 J-0.12485
G3 X-34.55934 Y3.44525 I8.82039 J-54.46072
G3 X-34.58863 Y3.43924 I0.62868 J-3.13764
G3 X-34.52549 Y4.84667 I-32.96734 J2.18395
G3 X-34.52466 Y4.90319 I-3.19912 J0.07521
G3 X-34.77106 Y8.79387 I-28.2368 J0.16491
G3 X-35.48359 Y11.92643 I-17.37687 J-2.30524
G3 X-38.67065 Y16.76369 I-9.7828 J-2.97691
G3 X-38.81638 Y16.87961 I-2.06405 J-2.44534
G3 X-44.63329 Y18.71692 I-5.53126 J-7.38513
G3 X-50.17434 Y16.55669 I0.12499 J-8.50716
G3 X-53.16727 Y12.80132 I9.42619 J-10.58277
G2 X-57.6183 Y5.1145 I-349.29808 J197.12822
G2 X-60.45673 Y2.93602 I-6.22443 J5.17166
G2 X-64.30196 Y2.17424 I-3.70287 J8.6053
G3 X-64.39476 Y2.1743 I-0.04863 J-3.19963
G2 X-68.7504 Y2.93316 I-0.16475 J11.93392
G2 X-72.1661 Y5.29463 I3.35513 J8.50398
G3 X-72.16688 Y5.29549 I-2.37004 J-2.1501
G2 X-74.34244 Y9.03674 I7.6701 J6.9634
G2 X-75.02791 Y13.62069 I13.96138 J4.43096
G2 X-74.24645 Y19.13816 I23.39722 J-0.49975
G3 X-74.23512 Y19.18201 I-3.09242 J0.82278
G2 X-73.40277 Y21.83477 I23.19931 J-5.8222
G0 Z3.0
G0 X-57.32498 Y-20.37328
G0 Z1.0
G1 F300.0 Z-2.5
G3 F800.0 X-59.32916 Y-21.15048 I63.89413 J-167.73746
G3 X-64.42194 Y-23.1723 I115.8001 J-299.11454
G3 X-69.60563 Y-25.45394 I29.39046 J-73.80193
G3 X-69.38171 Y-31.31386 I1.39274 J-2.88102
G3 X-59.95675 Y-34.97768 I586.26033 J1494.1688
G3 X-59.95489 Y-34.97839 I1.15003 J2.98621
G3 X-55.21048 Y-36.77855 I209.89154 J546.02679
G3 X-55.20904 Y-36.77909 I1.12221 J2.99677
G3 X-52.79992 Y-37.66185 I68.13113 J182.20626
G3 X-51.58358 Y-38.08596 I23.12983 J64.37966
G3 X-49.95779 Y-38.54422 I4.0174 J11.13978
G3 X-49.31964 Y-38.61015 I0.64627 J3.13406
G3 X-46.05209 Y-37.01335 I0.01046 J4.12024
G3 X-46.00047 Y-36.94485 I-2.52963 J1.95983
G3 X-44.97939 Y-34.62581 I-4.734 J3.46869
G3 X-44.75222 Y-33.03699 I-10.92989 J2.37345
G3 X-44.74549 Y-32.89828 I-3.19212 J0.22449
G3 X-44.71016 Y-29.45273 I-104.02159 J2.78957
G1 Y-25.95638
G3 X-44.86669 Y-22.98354 I-24.39285 J0.20614
G3 X-45.28558 Y-21.0409 I-9.95152 J-1.12937
G3 X-45.28609 Y-21.03934 I-3.04575 J-0.98153
G3 X-46.05157 Y-19.52894 I-5.15908 J-1.66549
G3 X-49.19994 Y-17.85562 I-3.24466 J-2.30637
G3 X-49.83353 Y-17.90339 I-0.07741 J-3.19906
G3 X-52.63181 Y-18.65998 I2.82274 J-15.99323
G3 X-57.32498 Y-20.37328 I59.20096 J-169.45077
G0 Z3.0
G0 X-47.3596 Y-16.71443
G0 Z1.0
G1 F300.0 Z-2.5
G2 F800.0 X-43.6137 Y-15.25341 I1816.62111 J-4652.11001
G3 X-45.06737 Y-18.35814 I4.42047 J-3.96238
G3 X-47.3596 Y-16.71443 I-4.22886 J-3.47716
G0 Z3.0
G0 X-45.07933 Y-38.18153
G0 Z1.0
G1 F300.0 Z-2.5
G3 F800.0 X-45.04701 Y-38.38087 I4.65452 J0.65224
G3 X-43.99356 Y-40.79177 I5.68064 J1.04658
G1 X-47.1058 Y-39.65371
G3 X-45.07933 Y-38.18153 I-2.20339 J5.1638
G0 Z3.0
G0 X-72.74904 Y-29.54201
G0 Z1.0
G1 F300.0 Z-2.5
G3 F800.0 X-73.78416 Y-29.14148 I-54.43967 J-139.15636
G3 X-73.73479 Y-28.20428 I-21.02723 J1.57769
G3 X-73.73516 Y-27.90692 I-4.69783 J0.14276
G3 X-73.7796 Y-27.07559 I-20.29305 J-0.66787
G2 X-72.57298 Y-26.5962 I824.41827 J-2073.31842
G3 X-72.74904 Y-29.54201 I4.36009 J-1.73876
G1 F300.0 X-73.29553 Y-30.93892
G3 F800.0 X-75.39469 Y-30.13603 I-53.89318 J-137.75946
G3 X-75.23409 Y-28.15872 I-19.4167 J2.57224
G3 X-75.23435 Y-27.95626 I-3.19852 J0.0972
G3 X-75.3876 Y-26.10105 I-18.79386 J-0.61853
G2 X-55.77781 Y-18.39902 I826.02627 J-2074.29295
G3 X-55.76458 Y-18.39386 I-1.15578 J2.98398
G2 X-42.52436 Y-13.21957 I1825.02609 J-4650.43057
G3 X-42.51412 Y-13.21556 I-1.16054 J2.98214
G2 X-33.40459 Y-9.68557 I366.6444 J-932.64567
G3 X-33.40453 Y-9.80048 I3.19952 J-0.05564
G3 X-33.29054 Y-11.96635 I31.8385 J0.58976
G1 X-33.29053 Y-11.96637
G1 X-33.29054 Y-11.96634
G1 Y-11.96635
G2 X-33.27808 Y-12.11481 I-25.35723 J-2.2023
G2 X-33.73271 Y-12.28052 I-2.66497 J6.6051
G3 X-33.80794 Y-12.30611 I0.99307 J-3.04201
G2 X-36.02575 Y-13.01758 I-12.98235 J36.65668
G3 X-39.30566 Y-14.14083 I7.32259 J-26.73246
G3 X-39.30766 Y-14.14166 I1.22408 J-2.95663
G3 X-41.2357 Y-15.16276 I4.46013 J-10.75243
G3 X-41.24657 Y-15.16993 I1.75608 J-2.6751
G3 X-42.4523 Y-16.20577 I3.52606 J-5.32402
G3 X-43.61226 Y-18.82343 I3.25907 J-3.01002
G3 X-43.62374 Y-19.02393 I3.18746 J-0.28301
G3 X-43.69316 Y-25.7112 I216.97257 J-5.59648
G1 Y-31.09417
G3 X-43.62363 Y-37.61613 I197.91027 J-1.15121
G3 X-43.57184 Y-38.10909 I3.19882 J0.08684
G3 X-41.95974 Y-40.7344 I4.20547 J0.7748
G3 X-41.91125 Y-40.77066 I1.94067 J2.54437
G3 X-38.69734 Y-42.41511 I6.71035 J9.15186
G3 X-35.9844 Y-43.25342 I11.96268 J33.90482
G3 X-35.96817 Y-43.25769 I0.82327 J3.09229
G2 X-33.45162 Y-43.99118 I-11.5363 J-44.26407
G2 X-33.2 Y-44.07523 I-4.23078 J-13.08446
G1 Y-46.33581
G1 X-53.77779 Y-38.8111
G2 X-69.65093 Y-32.42091 I585.94681 J1478.39389
G3 X-73.29553 Y-30.93892 I-57.53779 J-136.27746
G1 F300.0 X-72.74904 Y-29.54201
G1 Z-5.0
G3 F800.0 X-73.78416 Y-29.14148 I-54.43967 J-139.15636
G3 X-73.73479 Y-28.20428 I-21.02723 J1.57769
G3 X-73.73516 Y-27.90692 I-4.69783 J0.14276
G3 X-73.7796 Y-27.07559 I-20.29305 J-0.66787
G2 X-72.57298 Y-26.5962 I824.41827 J-2073.31842
G3 X-72.74904 Y-29.54201 I4.36009 J-1.73876
G0 Z3.0
G0 X-47.1058 Y-39.65371
G0 Z-1.5
G1 F300.0 Z-5.0
G3 F800.0 X-45.07933 Y-38.18153 I-2.20339 J5.1638
G3 X-45.04701 Y-38.38087 I4.65452 J0.65224
G3 X-43.99356 Y-40.79177 I5.68064 J1.04658
G1 X-47.1058 Y-39.65371
G0 Z3.0
G0 X-45.06737 Y-18.35814
G0 Z-1.5
G1 F300.0 Z-5.0
G3 F800.0 X-47.3596 Y-16.71443 I-4.22886 J-3.47716
G2 X-43.6137 Y-15.25341 I1816.62111 J-4652.11001
G3 X-45.06737 Y-18.35814 I4.42047 J-3.96238
G1 F300.0 X-43.58311 Y-18.57485
G3 F800.0 X-43.61226 Y-18.82343 I4.38987 J-0.64094
G3 X-43.62374 Y-19.02393 I3.18746 J-0.28301
G3 X-43.69316 Y-25.7112 I216.97257 J-5.59648
G1 Y-31.09417
G3 X-43.62363 Y-37.61613 I197.91027 J-1.15121
G3 X-43.57184 Y-38.10909 I3.19882 J0.08684
G3 X-41.95974 Y-40.7344 I4.20547 J0.7748
G3 X-41.91125 Y-40.77066 I1.94067 J2.54437
G3 X-38.69734 Y-42.41511 I6.71035 J9.15186
G3 X-35.9844 Y-43.25342 I11.96268 J33.90482
G3 X-35.96817 Y-43.25769 I0.82327 J3.09229
G2 X-33.45162 Y-43.99118 I-11.5363 J-44.26407
G2 X-33.2 Y-44.07523 I-4.23078 J-13.08446
G1 Y-46.33581
G1 X-53.77779 Y-38.8111
G2 X-69.65093 Y-32.42091 I585.94681 J1478.39389
G3 X-75.39469 Y-30.13603 I-57.53779 J-136.27746
G3 X-75.23409 Y-28.15872 I-19.4167 J2.57224
G3 X-75.23435 Y-27.95626 I-3.19852 J0.0972
G3 X-75.3876 Y-26.10105 I-18.79386 J-0.61853
G2 X-55.77781 Y-18.39902 I826.02627 J-2074.29295
G3 X-55.76458 Y-18.39386 I-1.15578 J2.98398
G2 X-42.52436 Y-13.21957 I1825.02609 J-4650.43057
G3 X-42.51412 Y-13.21556 I-1.16054 J2.98214
G2 X-33.40459 Y-9.68557 I366.6444 J-932.64567
G3 X-33.40453 Y-9.80048 I3.19952 J-0.05564
G3 X-33.29054 Y-11.96635 I31.8385 J0.58976
G1 X-33.29053 Y-11.96637
G1 X-33.29054 Y-11.96634
G1 Y-11.96635
G2 X-33.27808 Y-12.11481 I-25.35723 J-2.2023
G2 X-33.73271 Y-12.28052 I-2.66497 J6.6051
G3 X-33.80794 Y-12.30611 I0.99307 J-3.04201
G2 X-36.02575 Y-13.01758 I-12.98235 J36.65668
G3 X-39.30566 Y-14.14083 I7.32259 J-26.73246
G3 X-39.30766 Y-14.14166 I1.22408 J-2.95663
G3 X-41.2357 Y-15.16276 I4.46013 J-10.75243
G3 X-41.24657 Y-15.16993 I1.75608 J-2.6751
G3 X-42.4523 Y-16.20577 I3.52606 J-5.32402
G3 X-43.58311 Y-18.57485 I3.25907 J-3.01002
G1 F300.0 X-45.80029 Y-19.90928
G3 F800.0 X-46.05157 Y-19.52894 I-4.64487 J-2.79555
G3 X-49.19994 Y-17.85562 I-3.24466 J-2.30637
G3 X-49.83353 Y-17.90339 I-0.07741 J-3.19906
G3 X-52.63181 Y-18.65998 I2.82274 J-15.99323
G3 X-59.32916 Y-21.15048 I59.20096 J-169.45077
G3 X-64.42194 Y-23.1723 I115.8001 J-299.11454
G3 X-69.60563 Y-25.45394 I29.39046 J-73.80193
G3 X-69.38171 Y-31.31386 I1.39274 J-2.88102
G3 X-59.95675 Y-34.97768 I586.26033 J1494.1688
G3 X-59.95489 Y-34.97839 I1.15003 J2.98621
G3 X-55.21048 Y-36.77855 I209.89154 J546.02679
G3 X-55.20904 Y-36.77909 I1.12221 J2.99677
G3 X-52.79992 Y-37.66185 I68.13113 J182.20626
G3 X-51.58358 Y-38.08596 I23.12983 J64.37966
G3 X-49.95779 Y-38.54422 I4.0174 J11.13978
G3 X-49.31964 Y-38.61015 I0.64627 J3.13406
G3 X-46.05209 Y-37.01335 I0.01046 J4.12024
G3 X-46.00047 Y-36.94485 I-2.52963 J1.95983
G3 X-44.97939 Y-34.62581 I-4.734 J3.46869
G3 X-44.75222 Y-33.03699 I-10.92989 J2.37345
G3 X-44.74549 Y-32.89828 I-3.19212 J0.22449
G3 X-44.71016 Y-29.45273 I-104.02159 J2.78957
G1 Y-25.95638
G3 X-44.86669 Y-22.98354 I-24.39285 J0.20614
G3 X-45.28558 Y-21.0409 I-9.95152 J-1.12937
G3 X-45.28609 Y-21.03934 I-3.04575 J-0.98153
G3 X-45.80029 Y-19.90928 I-5.15908 J-1.66549
G0 Z3.0
G0 X-46.22884 Y-56.68445
G0 Z1.0
G1 F300.0 Z-2.5
G3 F800.0 X-45.50527 Y-56.69114 I1.75003 J150.17631
G3 X-45.44054 Y-56.69092 I0.02187 J3.19993
G3 X-35.5928 Y-56.30653 I-2.57612 J192.33165
G2 X-35.97414 Y-56.92366 I-18.12601 J10.77391
G3 X-35.92951 Y-60.44866 I2.69289 J-1.72868
G2 X-33.09457 Y-66.61178 I-17.10174 J-11.6001
G2 X-32.20871 Y-73.53189 I-25.13758 J-6.73468
G3 X-32.20854 Y-73.59491 I3.19992 J-0.0228
G2 X-33.79204 Y-81.36875 I-18.71833 J-0.23532
G2 X-38.59109 Y-87.65123 I-16.583 J7.69318
G3 X-38.63139 Y-87.68579 I2.06277 J-2.44642
G2 X-45.65341 Y-91.75501 I-13.98279 J16.03591
G2 X-53.82755 Y-93.05014 I-7.941 J23.67637
G3 X-53.88847 Y-93.05015 I-0.02987 J-3.19986
G2 X-62.20522 Y-91.79037 I-0.25606 J26.39197
G2 X-69.34692 Y-87.76743 I6.66078 J20.17513
G3 X-69.38069 Y-87.73898 I-2.07886 J-2.43276
G2 X-74.18256 Y-81.45095 I11.31711 J13.61983
G2 X-75.74561 Y-73.59842 I17.62592 J7.59029
G3 X-75.74531 Y-73.55814 I-3.1997 J0.04373
G2 X-73.61554 Y-64.92232 I18.65474 J-0.02013
G3 X-73.57668 Y-64.84565 I-2.83466 J1.48482
G2 X-68.83797 Y-58.98835 I15.19061 J-7.44407
G2 X-67.69086 Y-60.0054 I-21.23313 J-25.10387
G3 X-67.6612 Y-60.03261 I2.17817 J2.34426
G2 X-67.30067 Y-60.36216 I-37.1298 J-40.98306
G3 X-71.40148 Y-64.86382 I16.5357 J-19.18191
G3 X-71.41416 Y-64.88177 I2.60754 J-1.85493
G3 X-74.0787 Y-73.17631 I12.04518 J-8.44465
G3 X-72.33505 Y-80.63198 I15.94743 J-0.20213
G3 X-72.30442 Y-80.69047 I2.84989 J1.45538
G3 X-67.39557 Y-86.37084 I15.16246 J8.14182
G3 X-53.84544 Y-90.76877 I13.13891 J17.40822
G3 X-40.36636 Y-86.25233 I0.24583 J21.63841
G3 X-35.48914 Y-80.62905 I-10.57058 J14.09486
G3 X-35.45949 Y-80.57371 I-2.80578 J1.53869
G3 X-33.67002 Y-73.13676 I-13.9233 J7.28397
G3 X-37.62006 Y-59.89334 I-23.76251 J0.12327
G3 X-40.56027 Y-58.47175 I-2.66803 J-1.76681
G3 X-47.08039 Y-59.05513 I68.32007 J-800.30491
G3 X-47.13875 Y-59.06113 I0.29816 J-3.18608
G2 X-50.48708 Y-59.34763 I-7.12151 J63.52168
G3 X-50.45258 Y-58.04161 I-45.56913 J1.85723
G3 X-50.45259 Y-57.96333 I-3.19977 J0.03868
G3 X-50.49009 Y-56.56859 I-48.09047 J-0.59517
G2 X-49.22151 Y-56.61937 I-3.18582 J-95.45808
G3 X-49.17227 Y-56.62129 I0.14924 J3.19652
G3 X-46.22884 Y-56.68445 I4.69346 J150.11315
G1 F300.0 Z-5.0
G3 F800.0 X-45.50527 Y-56.69114 I1.75003 J150.17631
G3 X-45.44054 Y-56.69092 I0.02187 J3.19993
G3 X-35.5928 Y-56.30653 I-2.57612 J192.33165
G2 X-35.97414 Y-56.92366 I-18.12601 J10.77391
G3 X-35.92951 Y-60.44866 I2.69289 J-1.72868
G2 X-33.09457 Y-66.61178 I-17.10174 J-11.6001
G2 X-32.20871 Y-73.53189 I-25.13758 J-6.73468
G3 X-32.20854 Y-73.59491 I3.19992 J-0.0228
G2 X-33.79204 Y-81.36875 I-18.71833 J-0.23532
G2 X-38.59109 Y-87.65123 I-16.583 J7.69318
G3 X-38.63139 Y-87.68579 I2.06277 J-2.44642
G2 X-45.65341 Y-91.75501 I-13.98279 J16.03591
G2 X-53.82755 Y-93.05014 I-7.941 J23.67637
G3 X-53.88847 Y-93.05015 I-0.02987 J-3.19986
G2 X-62.20522 Y-91.79037 I-0.25606 J26.39197
G2 X-69.34692 Y-87.76743 I6.66078 J20.17513
G3 X-69.38069 Y-87.73898 I-2.07886 J-2.43276
G2 X-74.18256 Y-81.45095 I11.31711 J13.61983
G2 X-75.74561 Y-73.59842 I17.62592 J7.59029
G3 X-75.74531 Y-73.55814 I-3.1997 J0.04373
G2 X-73.61554 Y-64.92232 I18.65474 J-0.02013
G3 X-73.57668 Y-64.84565 I-2.83466 J1.48482
G2 X-68.83797 Y-58.98835 I15.19061 J-7.44407
G2 X-67.69086 Y-60.0054 I-21.23313 J-25.10387
G3 X-67.6612 Y-60.03261 I2.17817 J2.34426
G2 X-67.30067 Y-60.36216 I-37.1298 J-40.98306
G3 X-71.40148 Y-64.86382 I16.5357 J-19.18191
G3 X-71.41416 Y-64.88177 I2.60754 J-1.85493
G3 X-74.0787 Y-73.17631 I12.04518 J-8.44465
G3 X-72.33505 Y-80.63198 I15.94743 J-0.20213
G3 X-72.30442 Y-80.69047 I2.84989 J1.45538
G3 X-67.39557 Y-86.37084 I15.16246 J8.14182
G3 X-53.84544 Y-90.76877 I13.13891 J17.40822
G3 X-40.36636 Y-86.25233 I0.24583 J21.63841
G3 X-35.48914 Y-80.62905 I-10.57058 J14.09486
G3 X-35.45949 Y-80.57371 I-2.80578 J1.53869
G3 X-33.67002 Y-73.13676 I-13.9233 J7.28397
G3 X-37.62006 Y-59.89334 I-23.76251 J0.12327
G3 X-40.56027 Y-58.47175 I-2.66803 J-1.76681
G3 X-47.08039 Y-59.05513 I68.32007 J-800.30491
G3 X-47.13875 Y-59.06113 I0.29816 J-3.18608
G2 X-50.48708 Y-59.34763 I-7.12151 J63.52168
G3 X-50.45258 Y-58.04161 I-45.56913 J1.85723
G3 X-50.45259 Y-57.96333 I-3.19977 J0.03868
G3 X-50.49009 Y-56.56859 I-48.09047 J-0.59517
G2 X-49.22151 Y-56.61937 I-3.18582 J-95.45808
G3 X-49.17227 Y-56.62129 I0.14924 J3.19652
G3 X-46.22884 Y-56.68445 I4.69346 J150.11315
G0 Z3.0
M5
M30
