( Made using CamBam - http://www.cambam.co.uk )
( untere_Gasse_13 5/4/2017 9:32:17 PM )
( T3 : 3.0 )
G21 G90 G64 G40
G0 Z3.0
( T3 : 3.0 )
T3 M6
( untere_Gasse_Profil )
G17
M3 S1000
G0 X-153.37019 Y-83.4375
G0 Z1.0
G1 F300.0 Z-2.5
G2 F800.0 X-142.31718 Y-83.76882 I-3.97185 J-317.03623
G3 X-142.31027 Y-83.76913 I0.07108 J1.49831
G3 X-130.39934 Y-84.07806 I15.11168 J352.86836
G3 X-130.38184 Y-84.07812 I0.01359 J1.49994
G3 X-126.46685 Y-84.04378 I-0.82644 J317.38546
G1 X-126.46661 Y-84.04377
G2 X-122.65699 Y-84.00976 I4.66189 J-308.77628
G3 X-122.65267 Y-84.00974 I-0.00414 J1.49999
G2 X-117.78224 Y-84.21689 I0.28561 J-50.64471
G2 X-115.44477 Y-84.55856 I-2.15242 J-22.89176
G3 X-115.42904 Y-84.56161 I0.29291 J1.47112
G2 X-113.38599 Y-85.20104 I-1.68769 J-8.97595
G2 X-110.23472 Y-87.98929 I-3.50236 J-7.13326
G2 X-108.46674 Y-92.15112 I-11.30777 J-7.26005
G2 X-107.75263 Y-96.98413 I-28.30026 J-6.65082
G3 X-107.75187 Y-96.99556 I1.49706 J0.09379
G2 X-107.58398 Y-102.02124 I-68.1478 J-4.79234
G3 X-107.58389 Y-102.04302 I1.49999 J-0.00512
G2 X-108.18608 Y-109.96672 I-45.74763 J-0.50797
G2 X-109.20668 Y-113.6797 I-19.11785 J3.25821
G3 X-109.21374 Y-113.69841 I1.39974 J-0.53919
G2 X-111.07497 Y-116.61951 I-7.68531 J2.84331
G2 X-113.32665 Y-117.91217 I-4.42813 J5.10592
G3 X-113.33004 Y-117.91333 I0.48304 J-1.4201
G2 X-117.68958 Y-118.85446 I-6.16121 J17.97243
G3 X-117.70318 Y-118.85582 I0.14224 J-1.49324
G2 X-122.34597 Y-119.08596 I-4.42842 J42.39228
G3 X-122.34779 Y-119.08595 I-0.00754 J-1.49998
G2 X-126.12616 Y-119.05191 I1.38848 J363.83757
G3 X-126.12687 Y-119.0519 I-0.0213 J-1.49985
G3 X-130.38214 Y-119.01758 I-5.15764 J-375.70392
G3 X-130.40249 Y-119.01767 I-0.0036 J-1.5
G3 X-145.28965 Y-119.35971 I7.04547 J-630.80275
G3 X-153.39044 Y-119.65013 I2.28689 J-176.91438
G2 X-153.35859 Y-116.54261 I268.40815 J-1.19687
G3 X-153.35854 Y-116.53946 I-1.49981 J0.02405
G3 X-153.32791 Y-113.47801 I-389.17785 J5.42529
G2 X-138.62658 Y-113.71144 I-5.23875 J-792.9933
G3 X-138.62143 Y-113.71156 I0.03772 J1.49953
G3 X-122.98336 Y-113.91694 I19.78799 J911.23603
G3 X-118.36086 Y-113.41408 I0.27876 J18.93502
G3 X-118.34578 Y-113.41045 I-0.34407 J1.46001
G3 X-115.96637 Y-112.49321 I-2.42635 J9.83901
G3 X-113.83801 Y-110.72771 I-3.31615 J6.16336
G3 X-113.82201 Y-110.70755 I-1.16687 J0.94255
G3 X-112.5598 Y-108.34332 I-6.17708 J4.81685
G3 X-111.82617 Y-104.85833 I-15.21706 J5.02306
G3 X-111.65915 Y-101.48208 I-31.24218 J3.23779
G3 X-111.92799 Y-97.28475 I-29.31128 J0.22991
G3 X-113.36078 Y-92.90804 I-11.3561 J-1.29473
G3 X-113.41016 Y-92.82761 I-1.30231 J-0.7443
G3 X-117.35354 Y-89.84889 I-6.15922 J-4.0543
G3 X-121.7214 Y-89.21294 I-4.11067 J-12.91537
G3 X-137.93143 Y-89.38402 I4.27096 J-1172.76825
G1 X-137.93147
G1 X-137.93138
G1 X-137.93143
G2 X-153.35973 Y-89.55157 I-20.50749 J1177.93151
G2 X-153.33138 Y-88.1591 I8.9913 J0.51348
G3 X-153.32937 Y-88.13695 I-1.49284 J0.1464
G2 X-153.19475 Y-86.65613 I95.903 J-7.97192
G3 X-153.18779 Y-86.47921 I-1.49275 J0.14734
G3 X-153.29614 Y-84.52797 I-27.33362 J-0.5391
G2 X-153.37019 Y-83.4375 I25.53954 J2.28217
G1 F300.0 Z-5.0
G2 F800.0 X-142.31718 Y-83.76882 I-3.97185 J-317.03623
G3 X-142.31027 Y-83.76913 I0.07108 J1.49831
G3 X-130.39934 Y-84.07806 I15.11168 J352.86836
G3 X-130.38184 Y-84.07812 I0.01359 J1.49994
G3 X-126.46685 Y-84.04378 I-0.82644 J317.38546
G1 X-126.46661 Y-84.04377
G2 X-122.65699 Y-84.00976 I4.66189 J-308.77628
G3 X-122.65267 Y-84.00974 I-0.00414 J1.49999
G2 X-117.78224 Y-84.21689 I0.28561 J-50.64471
G2 X-115.44477 Y-84.55856 I-2.15242 J-22.89176
G3 X-115.42904 Y-84.56161 I0.29291 J1.47112
G2 X-113.38599 Y-85.20104 I-1.68769 J-8.97595
G2 X-110.23472 Y-87.98929 I-3.50236 J-7.13326
G2 X-108.46674 Y-92.15112 I-11.30777 J-7.26005
G2 X-107.75263 Y-96.98413 I-28.30026 J-6.65082
G3 X-107.75187 Y-96.99556 I1.49706 J0.09379
G2 X-107.58398 Y-102.02124 I-68.1478 J-4.79234
G3 X-107.58389 Y-102.04302 I1.49999 J-0.00512
G2 X-108.18608 Y-109.96672 I-45.74763 J-0.50797
G2 X-109.20668 Y-113.6797 I-19.11785 J3.25821
G3 X-109.21374 Y-113.69841 I1.39974 J-0.53919
G2 X-111.07497 Y-116.61951 I-7.68531 J2.84331
G2 X-113.32665 Y-117.91217 I-4.42813 J5.10592
G3 X-113.33004 Y-117.91333 I0.48304 J-1.4201
G2 X-117.68958 Y-118.85446 I-6.16121 J17.97243
G3 X-117.70318 Y-118.85582 I0.14224 J-1.49324
G2 X-122.34597 Y-119.08596 I-4.42842 J42.39228
G3 X-122.34779 Y-119.08595 I-0.00754 J-1.49998
G2 X-126.12616 Y-119.05191 I1.38848 J363.83757
G3 X-126.12687 Y-119.0519 I-0.0213 J-1.49985
G3 X-130.38214 Y-119.01758 I-5.15764 J-375.70392
G3 X-130.40249 Y-119.01767 I-0.0036 J-1.5
G3 X-145.28965 Y-119.35971 I7.04547 J-630.80275
G3 X-153.39044 Y-119.65013 I2.28689 J-176.91438
G2 X-153.35859 Y-116.54261 I268.40815 J-1.19687
G3 X-153.35854 Y-116.53946 I-1.49981 J0.02405
G3 X-153.32791 Y-113.47801 I-389.17785 J5.42529
G2 X-138.62658 Y-113.71144 I-5.23875 J-792.9933
G3 X-138.62143 Y-113.71156 I0.03772 J1.49953
G3 X-122.98336 Y-113.91694 I19.78799 J911.23603
G3 X-118.36086 Y-113.41408 I0.27876 J18.93502
G3 X-118.34578 Y-113.41045 I-0.34407 J1.46001
G3 X-115.96637 Y-112.49321 I-2.42635 J9.83901
G3 X-113.83801 Y-110.72771 I-3.31615 J6.16336
G3 X-113.82201 Y-110.70755 I-1.16687 J0.94255
G3 X-112.5598 Y-108.34332 I-6.17708 J4.81685
G3 X-111.82617 Y-104.85833 I-15.21706 J5.02306
G3 X-111.65915 Y-101.48208 I-31.24218 J3.23779
G3 X-111.92799 Y-97.28475 I-29.31128 J0.22991
G3 X-113.36078 Y-92.90804 I-11.3561 J-1.29473
G3 X-113.41016 Y-92.82761 I-1.30231 J-0.7443
G3 X-117.35354 Y-89.84889 I-6.15922 J-4.0543
G3 X-121.7214 Y-89.21294 I-4.11067 J-12.91537
G3 X-137.93143 Y-89.38402 I4.27096 J-1172.76825
G1 X-137.93147
G1 X-137.93138
G1 X-137.93143
G2 X-153.35973 Y-89.55157 I-20.50749 J1177.93151
G2 X-153.33138 Y-88.1591 I8.9913 J0.51348
G3 X-153.32937 Y-88.13695 I-1.49284 J0.1464
G2 X-153.19475 Y-86.65613 I95.903 J-7.97192
G3 X-153.18779 Y-86.47921 I-1.49275 J0.14734
G3 X-153.29614 Y-84.52797 I-27.33362 J-0.5391
G2 X-153.37019 Y-83.4375 I25.53954 J2.28217
G0 Z3.0
G0 X-153.13045 Y-73.29231
G0 Z1.0
G1 F300.0 Z-2.5
G3 F800.0 X-153.25943 Y-70.44351 I-60.09029 J-1.29315
G3 X-153.26504 Y-70.38118 I-1.49643 J-0.10337
G3 X-153.55599 Y-68.45363 I-24.7656 J-2.75247
G3 X-153.55816 Y-68.4425 I-1.47331 J-0.28172
G2 X-153.70673 Y-67.39161 I9.28985 J1.8493
G2 X-153.34925 Y-67.103 I4.20307 J-4.84036
G3 X-121.20451 Y-43.02856 I-1346.94619 J1831.97122
G3 X-121.1767 Y-43.00683 I-0.90975 J1.19262
G3 X-119.55043 Y-41.59739 I-17.29066 J21.59371
G3 X-120.4006 Y-39.01324 I-1.02574 J1.09446
G3 X-123.83199 Y-38.79647 I-3.71258 J-31.50093
G3 X-127.14033 Y-38.76367 I-3.14258 J-150.14529
G3 X-127.1522 Y-38.76373 I0.00166 J-1.5
G3 X-140.52899 Y-39.10668 I3.63296 J-402.765
G2 X-153.36127 Y-39.40955 I-16.8644 J442.52895
G2 X-153.29628 Y-38.52051 I24.3026 J-1.32946
G3 X-153.296 Y-38.51738 I-1.49376 J0.13673
G3 X-153.18779 Y-36.53361 I-28.52748 J2.55088
G3 X-153.18776 Y-36.47613 I-1.49971 J0.0297
G3 X-153.29567 Y-34.42587 I-30.13879 J-0.55828
G1 Y-34.42586
G1 X-153.29566 Y-34.42588
G1 X-153.29567 Y-34.42587
G2 X-153.36538 Y-33.39681 I27.05086 J2.3494
G2 X-142.33717 Y-33.66201 I-4.02617 J-396.85988
G1 X-142.3371
G3 X-130.39786 Y-33.93647 I15.17497 J400.29573
G3 X-130.38247 Y-33.93652 I0.01212 J1.49995
G3 X-119.19397 Y-33.86809 I-3.10626 J1422.5719
G1 X-119.19391
G1 X-119.19403
G1 X-119.19397
G2 X-108.46829 Y-33.80079 I14.47209 J-1451.74346
G2 X-108.53201 Y-34.52828 I-16.37452 J1.06765
G1 Y-34.52829
G1 Y-34.52827
G1 Y-34.52828
G3 X-108.64314 Y-36.19521 I19.28727 J-2.12299
G3 X-108.64317 Y-36.26446 I1.49959 J-0.03525
G3 X-108.53358 Y-38.05448 I23.2979 J0.52804
G3 X-108.53352 Y-38.05506 I1.49256 J0.14921
G2 X-108.44448 Y-39.38549 I-19.98532 J-2.00572
G3 X-108.45471 Y-39.39627 I1.08311 J-1.03772
G2 X-108.95787 Y-39.84345 I-2.72496 J2.55945
G3 X-108.96375 Y-39.84782 I0.89146 J-1.20636
G3 X-138.6409 Y-62.24242 I2159.34937 J-2892.41454
G3 X-142.06248 Y-65.00079 I41.15903 J-54.55628
G3 X-142.51854 Y-66.57593 I0.97849 J-1.1369
G3 X-141.0509 Y-67.8569 I1.76287 J0.53853
G3 X-139.65924 Y-67.97941 I1.23282 J6.03831
G3 X-123.83081 Y-67.80836 I-4.4202 J1141.43826
G1 X-123.83064 Y-67.80835
G2 X-108.47183 Y-67.63932 I20.01409 J-1120.6464
G2 X-108.53435 Y-68.45742 I-22.75075 J1.3274
G3 X-108.53439 Y-68.45783 I1.49334 J-0.14122
G3 X-108.64322 Y-70.3441 I25.86087 J-2.43825
G3 X-108.64326 Y-70.40556 I1.49966 J-0.03187
G3 X-108.53477 Y-72.3584 I27.33362 J0.5391
G3 X-108.53441 Y-72.36228 I1.49376 J0.13673
G2 X-108.46165 Y-73.37735 I-22.71095 J-2.13812
G2 X-118.85751 Y-73.04793 I3.94619 J288.72748
G3 X-130.29992 Y-72.67002 I-14.56018 J-267.44449
G3 X-130.33195 Y-72.66999 I-0.01746 J-1.4999
G3 X-145.26596 Y-72.97825 I6.63399 J-683.29615
G3 X-153.13045 Y-73.29231 I12.05488 J-400.50369
G1 F300.0 Z-5.0
G3 F800.0 X-153.25943 Y-70.44351 I-60.09029 J-1.29315
G3 X-153.26504 Y-70.38118 I-1.49643 J-0.10337
G3 X-153.55599 Y-68.45363 I-24.7656 J-2.75247
G3 X-153.55816 Y-68.4425 I-1.47331 J-0.28172
G2 X-153.70673 Y-67.39161 I9.28985 J1.8493
G2 X-153.34925 Y-67.103 I4.20307 J-4.84036
G3 X-121.20451 Y-43.02856 I-1346.94619 J1831.97122
G3 X-121.1767 Y-43.00683 I-0.90975 J1.19262
G3 X-119.55043 Y-41.59739 I-17.29066 J21.59371
G3 X-120.4006 Y-39.01324 I-1.02574 J1.09446
G3 X-123.83199 Y-38.79647 I-3.71258 J-31.50093
G3 X-127.14033 Y-38.76367 I-3.14258 J-150.14529
G3 X-127.1522 Y-38.76373 I0.00166 J-1.5
G3 X-140.52899 Y-39.10668 I3.63296 J-402.765
G2 X-153.36127 Y-39.40955 I-16.8644 J442.52895
G2 X-153.29628 Y-38.52051 I24.3026 J-1.32946
G3 X-153.296 Y-38.51738 I-1.49376 J0.13673
G3 X-153.18779 Y-36.53361 I-28.52748 J2.55088
G3 X-153.18776 Y-36.47613 I-1.49971 J0.0297
G3 X-153.29567 Y-34.42587 I-30.13879 J-0.55828
G1 Y-34.42586
G1 X-153.29566 Y-34.42588
G1 X-153.29567 Y-34.42587
G2 X-153.36538 Y-33.39681 I27.05086 J2.3494
G2 X-142.33717 Y-33.66201 I-4.02617 J-396.85988
G1 X-142.3371
G3 X-130.39786 Y-33.93647 I15.17497 J400.29573
G3 X-130.38247 Y-33.93652 I0.01212 J1.49995
G3 X-119.19397 Y-33.86809 I-3.10626 J1422.5719
G1 X-119.19391
G1 X-119.19403
G1 X-119.19397
G2 X-108.46829 Y-33.80079 I14.47209 J-1451.74346
G2 X-108.53201 Y-34.52828 I-16.37452 J1.06765
G1 Y-34.52829
G1 Y-34.52827
G1 Y-34.52828
G3 X-108.64314 Y-36.19521 I19.28727 J-2.12299
G3 X-108.64317 Y-36.26446 I1.49959 J-0.03525
G3 X-108.53358 Y-38.05448 I23.2979 J0.52804
G3 X-108.53352 Y-38.05506 I1.49256 J0.14921
G2 X-108.44448 Y-39.38549 I-19.98532 J-2.00572
G3 X-108.45471 Y-39.39627 I1.08311 J-1.03772
G2 X-108.95787 Y-39.84345 I-2.72496 J2.55945
G3 X-108.96375 Y-39.84782 I0.89146 J-1.20636
G3 X-138.6409 Y-62.24242 I2159.34937 J-2892.41454
G3 X-142.06248 Y-65.00079 I41.15903 J-54.55628
G3 X-142.51854 Y-66.57593 I0.97849 J-1.1369
G3 X-141.0509 Y-67.8569 I1.76287 J0.53853
G3 X-139.65924 Y-67.97941 I1.23282 J6.03831
G3 X-123.83081 Y-67.80836 I-4.4202 J1141.43826
G1 X-123.83064 Y-67.80835
G2 X-108.47183 Y-67.63932 I20.01409 J-1120.6464
G2 X-108.53435 Y-68.45742 I-22.75075 J1.3274
G3 X-108.53439 Y-68.45783 I1.49334 J-0.14122
G3 X-108.64322 Y-70.3441 I25.86087 J-2.43825
G3 X-108.64326 Y-70.40556 I1.49966 J-0.03187
G3 X-108.53477 Y-72.3584 I27.33362 J0.5391
G3 X-108.53441 Y-72.36228 I1.49376 J0.13673
G2 X-108.46165 Y-73.37735 I-22.71095 J-2.13812
G2 X-118.85751 Y-73.04793 I3.94619 J288.72748
G3 X-130.29992 Y-72.67002 I-14.56018 J-267.44449
G3 X-130.33195 Y-72.66999 I-0.01746 J-1.4999
G3 X-145.26596 Y-72.97825 I6.63399 J-683.29615
G3 X-153.13045 Y-73.29231 I12.05488 J-400.50369
G0 Z3.0
G0 X-148.93193 Y-26.05473
G0 Z1.0
G1 F300.0 Z-2.5
G2 F800.0 X-149.10511 Y-26.00666 I1.64608 J6.26529
G3 X-149.16256 Y-25.99108 I-0.42126 J-1.43963
G1 X-150.93991 Y-25.54674
G3 X-151.17952 Y-25.5071 I-0.3638 J-1.45521
G2 X-153.50736 Y-25.20832 I2.17118 J26.13364
G3 X-153.09095 Y-17.63392 I-877.83669 J52.05804
G3 X-152.81169 Y-9.59233 I-200.52373 J10.98935
G3 X-152.81179 Y-9.54203 I-1.49984 J0.02202
G3 X-153.32766 Y1.70828 I-208.79958 J-3.93731
G3 X-153.47331 Y3.91335 I-384.47334 J-24.28768
G3 X-153.55167 Y5.02877 I-111.01166 J-7.23789
G3 X-153.55171 Y5.02937 I-1.49577 J-0.11263
G1 X-153.58334 Y5.44717
G3 X-152.89984 Y5.44322 I0.45106 J18.88779
G3 X-151.23546 Y5.43848 I1.68696 J300.16331
G3 X-151.19279 Y5.43908 I0.00011 J1.5
G3 X-149.65784 Y5.55139 I-0.48913 J17.22969
G3 X-149.65242 Y5.55204 I-0.17614 J1.48962
G2 X-149.07203 Y5.60969 I1.5798 J-12.95577
G2 X-149.453 Y-5.51387 I-1373.10356 J41.45956
G3 X-148.00207 Y-7.07052 I1.4989 J-0.05742
G3 X-131.24746 Y-7.37889 I19.72782 J616.55696
G3 X-131.22804 Y-7.37886 I0.00723 J1.49998
G3 X-119.3909 Y-7.10437 I-3.1967 J393.23354
G3 X-119.38376 Y-7.10408 I-0.05735 J1.4989
G2 X-108.45494 Y-6.80618 I14.92071 J-346.76675
G2 X-108.53508 Y-8.03568 I-25.79342 J1.06401
G1 X-108.53509 Y-8.0357
G3 X-108.64331 Y-10.05587 I28.446 J-2.53688
G3 X-108.64325 Y-10.11304 I1.49975 J-0.02714
G3 X-108.53508 Y-12.09615 I28.80958 J0.57692
G3 X-108.53505 Y-12.09649 I1.49407 J0.13326
G2 X-108.46078 Y-13.19037 I-25.53941 J-2.28369
G2 X-119.4139 Y-12.89121 I3.81697 J340.41466
G3 X-131.22504 Y-12.54793 I-14.97199 J-311.77257
G3 X-131.24987 Y-12.54788 I-0.01519 J-1.49992
G3 X-148.01192 Y-12.92494 I3.35203 J-521.77622
G3 X-149.4506 Y-14.52621 I0.05782 J-1.49889
G2 X-148.93193 Y-26.05473 I-246.59082 J-16.8702
G1 F300.0 Z-5.0
G2 F800.0 X-149.10511 Y-26.00666 I1.64608 J6.26529
G3 X-149.16256 Y-25.99108 I-0.42126 J-1.43963
G1 X-150.93991 Y-25.54674
G3 X-151.17952 Y-25.5071 I-0.3638 J-1.45521
G2 X-153.50736 Y-25.20832 I2.17118 J26.13364
G3 X-153.09095 Y-17.63392 I-877.83669 J52.05804
G3 X-152.81169 Y-9.59233 I-200.52373 J10.98935
G3 X-152.81179 Y-9.54203 I-1.49984 J0.02202
G3 X-153.32766 Y1.70828 I-208.79958 J-3.93731
G3 X-153.47331 Y3.91335 I-384.47334 J-24.28768
G3 X-153.55167 Y5.02877 I-111.01166 J-7.23789
G3 X-153.55171 Y5.02937 I-1.49577 J-0.11263
G1 X-153.58334 Y5.44717
G3 X-152.89984 Y5.44322 I0.45106 J18.88779
G3 X-151.23546 Y5.43848 I1.68696 J300.16331
G3 X-151.19279 Y5.43908 I0.00011 J1.5
G3 X-149.65784 Y5.55139 I-0.48913 J17.22969
G3 X-149.65242 Y5.55204 I-0.17614 J1.48962
G2 X-149.07203 Y5.60969 I1.5798 J-12.95577
G2 X-149.453 Y-5.51387 I-1373.10356 J41.45956
G3 X-148.00207 Y-7.07052 I1.4989 J-0.05742
G3 X-131.24746 Y-7.37889 I19.72782 J616.55696
G3 X-131.22804 Y-7.37886 I0.00723 J1.49998
G3 X-119.3909 Y-7.10437 I-3.1967 J393.23354
G3 X-119.38376 Y-7.10408 I-0.05735 J1.4989
G2 X-108.45494 Y-6.80618 I14.92071 J-346.76675
G2 X-108.53508 Y-8.03568 I-25.79342 J1.06401
G1 X-108.53509 Y-8.0357
G3 X-108.64331 Y-10.05587 I28.446 J-2.53688
G3 X-108.64325 Y-10.11304 I1.49975 J-0.02714
G3 X-108.53508 Y-12.09615 I28.80958 J0.57692
G3 X-108.53505 Y-12.09649 I1.49407 J0.13326
G2 X-108.46078 Y-13.19037 I-25.53941 J-2.28369
G2 X-119.4139 Y-12.89121 I3.81697 J340.41466
G3 X-131.22504 Y-12.54793 I-14.97199 J-311.77257
G3 X-131.24987 Y-12.54788 I-0.01519 J-1.49992
G3 X-148.01192 Y-12.92494 I3.35203 J-521.77622
G3 X-149.4506 Y-14.52621 I0.05782 J-1.49889
G2 X-148.93193 Y-26.05473 I-246.59082 J-16.8702
G0 Z3.0
G0 X-150.88831 Y12.86382
G0 Z1.0
G1 F300.0 Z-2.5
G3 F800.0 X-153.38742 Y12.72778 I15.1325 J-301.03287
G2 X-153.25661 Y19.19585 I285.53387 J-2.53959
G3 X-153.25659 Y19.19629 I-1.49925 J0.04732
G3 X-153.11918 Y26.41065 I-295.32869 J9.2338
G3 Y26.43127 I-1.49996 J0.01025
G3 X-153.25668 Y33.30631 I-262.78133 J-1.81666
G2 X-153.39261 Y40.13731 I262.7896 J8.64643
G3 X-153.39323 Y40.17121 I-1.49996 J-0.01036
G2 X-153.37724 Y40.43479 I1.46687 J0.0433
G2 X-150.89641 Y40.80719 I23.64272 J-149.05003
G3 X-150.87698 Y40.81007 I-0.21034 J1.48518
G2 X-149.02173 Y41.03301 I4.18663 J-27.00898
G2 X-149.31465 Y33.10819 I-196.70764 J3.30301
G3 X-149.65905 Y24.18513 I176.97279 J-11.29859
G3 X-149.65912 Y24.17846 I1.49987 J-0.02009
G3 X-149.53848 Y22.14082 I15.00188 J-0.1342
G3 X-149.53778 Y22.13541 I1.48788 J0.19031
G3 X-149.29255 Y21.00128 I7.01486 J0.9232
G3 X-148.52434 Y19.60932 I3.40617 J0.97189
G3 X-148.36728 Y19.45783 I1.11711 J1.00103
G3 X-146.89444 Y18.71819 I2.322 J2.78751
G3 X-146.87723 Y18.71415 I0.35109 J1.45833
G3 X-143.66225 Y18.39258 I2.88938 J12.65509
G1 X-138.60561
G3 X-136.00158 Y18.50373 I0.44242 J20.19371
G3 X-135.78228 Y18.54401 I-0.16053 J1.49139
G3 X-133.96255 Y20.04033 I-0.71217 J2.72076
G3 X-133.94207 Y20.0845 I-1.35038 J0.65305
G3 X-133.60275 Y21.80219 I-3.61838 J1.60714
G3 X-133.63672 Y22.97126 I-30.36689 J-0.2972
G1 Y24.09505
G3 X-133.87719 Y36.18836 I-274.25561 J0.59552
G3 X-134.13301 Y40.22127 I-81.83425 J-3.16648
G2 X-131.95172 Y40.00737 I-1.94887 J-31.10372
G3 X-131.92679 Y40.00425 I0.19879 J1.48677
G3 X-129.28471 Y39.78729 I4.48861 J38.46489
G2 X-129.48604 Y37.33348 I-78.70709 J5.22264
G3 X-129.4888 Y37.30189 I1.49288 J-0.14598
G3 X-129.67001 Y32.89762 I62.41957 J-4.77414
G3 X-129.69825 Y28.58013 I284.98498 J-4.02274
G3 X-129.56173 Y21.39977 I128.6857 J-1.14482
G3 X-126.73732 Y18.36254 I3.05087 J0.00523
G3 X-126.57341 Y18.35932 I0.11134 J1.49586
G2 X-124.00776 Y18.39264 I2.03762 J-58.10267
G3 X-123.99414 Y18.39258 I0.01362 J1.49994
G1 X-118.94326
G3 X-116.39883 Y18.56677 I0.16351 J16.28219
G3 X-116.39274 Y18.56768 I-0.21933 J1.48388
G3 X-114.9829 Y18.92442 I-1.12855 J7.42436
G3 X-113.37721 Y19.98293 I-1.2259 J3.60673
G3 X-113.27442 Y20.11052 I-1.11498 J1.0034
G3 X-112.58249 Y21.69913 I-3.33165 J2.39611
G3 X-112.58114 Y21.70598 I-1.47068 J0.29515
G3 X-112.27457 Y25.28264 I-16.35599 J3.2034
G1 X-112.30866 Y29.03219
G3 X-112.30923 Y29.0622 I-1.49994 J-0.01364
G3 X-112.65598 Y35.84433 I-154.41374 J-4.49488
G3 X-113.09464 Y42.04412 I-1016.34525 J-68.79507
G2 X-112.66022 Y41.93516 I-1.11869 J-5.38089
G3 X-112.57959 Y41.91383 I0.42389 J1.43886
G2 X-111.01852 Y41.54053 I-47.87514 J-203.65585
G3 X-110.81336 Y41.5055 I0.35445 J1.45752
G2 X-108.00191 Y41.14899 I-5.33613 J-53.34569
G2 X-108.07826 Y40.56635 I-11.00846 J1.14635
G3 X-108.08429 Y40.52445 I1.48158 J-0.23432
G3 X-108.60538 Y33.87687 I65.62215 J-8.48824
G3 X-108.71191 Y27.30682 I181.92935 J-6.2358
G3 X-108.71188 Y27.29989 I1.5 J0.00275
G3 X-108.57452 Y19.74519 I322.19125 J2.07942
G1 Y19.74515
G2 X-108.44118 Y12.6497 I-318.37082 J-9.53194
G2 X-119.32243 Y13.04994 I3.63766 J247.01178
G3 X-130.91211 Y13.49693 I-14.77608 J-232.64289
G3 X-130.95328 I-0.0205 J-1.49986
G3 X-145.51526 Y13.08588 I6.94537 J-504.19264
G3 X-150.88831 Y12.86382 I9.75945 J-301.25493
G1 F300.0 Z-5.0
G3 F800.0 X-153.38742 Y12.72778 I15.1325 J-301.03287
G2 X-153.25661 Y19.19585 I285.53387 J-2.53959
G3 X-153.25659 Y19.19629 I-1.49925 J0.04732
G3 X-153.11918 Y26.41065 I-295.32869 J9.2338
G3 Y26.43127 I-1.49996 J0.01025
G3 X-153.25668 Y33.30631 I-262.78133 J-1.81666
G2 X-153.39261 Y40.13731 I262.7896 J8.64643
G3 X-153.39323 Y40.17121 I-1.49996 J-0.01036
G2 X-153.37724 Y40.43479 I1.46687 J0.0433
G2 X-150.89641 Y40.80719 I23.64272 J-149.05003
G3 X-150.87698 Y40.81007 I-0.21034 J1.48518
G2 X-149.02173 Y41.03301 I4.18663 J-27.00898
G2 X-149.31465 Y33.10819 I-196.70764 J3.30301
G3 X-149.65905 Y24.18513 I176.97279 J-11.29859
G3 X-149.65912 Y24.17846 I1.49987 J-0.02009
G3 X-149.53848 Y22.14082 I15.00188 J-0.1342
G3 X-149.53778 Y22.13541 I1.48788 J0.19031
G3 X-149.29255 Y21.00128 I7.01486 J0.9232
G3 X-148.52434 Y19.60932 I3.40617 J0.97189
G3 X-148.36728 Y19.45783 I1.11711 J1.00103
G3 X-146.89444 Y18.71819 I2.322 J2.78751
G3 X-146.87723 Y18.71415 I0.35109 J1.45833
G3 X-143.66225 Y18.39258 I2.88938 J12.65509
G1 X-138.60561
G3 X-136.00158 Y18.50373 I0.44242 J20.19371
G3 X-135.78228 Y18.54401 I-0.16053 J1.49139
G3 X-133.96255 Y20.04033 I-0.71217 J2.72076
G3 X-133.94207 Y20.0845 I-1.35038 J0.65305
G3 X-133.60275 Y21.80219 I-3.61838 J1.60714
G3 X-133.63672 Y22.97126 I-30.36689 J-0.2972
G1 Y24.09505
G3 X-133.87719 Y36.18836 I-274.25561 J0.59552
G3 X-134.13301 Y40.22127 I-81.83425 J-3.16648
G2 X-131.95172 Y40.00737 I-1.94887 J-31.10372
G3 X-131.92679 Y40.00425 I0.19879 J1.48677
G3 X-129.28471 Y39.78729 I4.48861 J38.46489
G2 X-129.48604 Y37.33348 I-78.70709 J5.22264
G3 X-129.4888 Y37.30189 I1.49288 J-0.14598
G3 X-129.67001 Y32.89762 I62.41957 J-4.77414
G3 X-129.69825 Y28.58013 I284.98498 J-4.02274
G3 X-129.56173 Y21.39977 I128.6857 J-1.14482
G3 X-126.73732 Y18.36254 I3.05087 J0.00523
G3 X-126.57341 Y18.35932 I0.11134 J1.49586
G2 X-124.00776 Y18.39264 I2.03762 J-58.10267
G3 X-123.99414 Y18.39258 I0.01362 J1.49994
G1 X-118.94326
G3 X-116.39883 Y18.56677 I0.16351 J16.28219
G3 X-116.39274 Y18.56768 I-0.21933 J1.48388
G3 X-114.9829 Y18.92442 I-1.12855 J7.42436
G3 X-113.37721 Y19.98293 I-1.2259 J3.60673
G3 X-113.27442 Y20.11052 I-1.11498 J1.0034
G3 X-112.58249 Y21.69913 I-3.33165 J2.39611
G3 X-112.58114 Y21.70598 I-1.47068 J0.29515
G3 X-112.27457 Y25.28264 I-16.35599 J3.2034
G1 X-112.30866 Y29.03219
G3 X-112.30923 Y29.0622 I-1.49994 J-0.01364
G3 X-112.65598 Y35.84433 I-154.41374 J-4.49488
G3 X-113.09464 Y42.04412 I-1016.34525 J-68.79507
G2 X-112.66022 Y41.93516 I-1.11869 J-5.38089
G3 X-112.57959 Y41.91383 I0.42389 J1.43886
G2 X-111.01852 Y41.54053 I-47.87514 J-203.65585
G3 X-110.81336 Y41.5055 I0.35445 J1.45752
G2 X-108.00191 Y41.14899 I-5.33613 J-53.34569
G2 X-108.07826 Y40.56635 I-11.00846 J1.14635
G3 X-108.08429 Y40.52445 I1.48158 J-0.23432
G3 X-108.60538 Y33.87687 I65.62215 J-8.48824
G3 X-108.71191 Y27.30682 I181.92935 J-6.2358
G3 X-108.71188 Y27.29989 I1.5 J0.00275
G3 X-108.57452 Y19.74519 I322.19125 J2.07942
G1 Y19.74515
G2 X-108.44118 Y12.6497 I-318.37082 J-9.53194
G2 X-119.32243 Y13.04994 I3.63766 J247.01178
G3 X-130.91211 Y13.49693 I-14.77608 J-232.64289
G3 X-130.95328 I-0.0205 J-1.49986
G3 X-145.51526 Y13.08588 I6.94537 J-504.19264
G3 X-150.88831 Y12.86382 I9.75945 J-301.25493
G0 Z3.0
G0 X-153.29068 Y50.39783
G0 Z1.0
G1 F300.0 Z-2.5
G3 F800.0 X-153.42725 Y59.10102 I-435.47105 J-2.48077
G3 X-153.42752 Y59.1104 I-1.49951 J-0.03852
G2 X-153.59769 Y67.85713 I350.18153 J11.18789
G3 X-153.59774 Y67.8625 I-1.49996 J-0.01045
G2 X-152.86629 Y73.86181 I22.98022 J0.24245
G2 X-150.29064 Y79.09366 I13.95549 J-3.62039
G3 X-150.29025 Y79.09416 I-1.18397 J0.92099
G2 X-145.83565 Y82.52196 I8.82245 J-6.85685
G2 X-140.1523 Y83.57346 I5.43733 J-13.50375
G3 X-140.11733 Y83.57327 I0.02535 J1.49979
G2 X-136.28018 Y83.32011 I0.17069 J-26.61875
G3 X-136.26741 Y83.31839 I0.20661 J1.4857
G2 X-132.79514 Y82.34548 I-1.62811 J-12.49331
G2 X-129.95244 Y80.34011 I-4.74334 J-9.74138
G3 X-129.94759 Y80.33537 I1.05023 J1.07099
G2 X-127.55712 Y77.528 I-13.63949 J-14.0354
G3 X-127.00759 Y76.87685 I3.20426 J2.14675
G3 X-125.56552 Y76.22806 I1.59624 J1.62092
G3 X-124.98898 Y76.30177 I0.10165 J1.49655
G3 X-122.52351 Y77.29001 I-7.12001 J21.33266
G3 X-115.72847 Y80.43708 I-158.31757 J350.74193
G3 X-115.72683 Y80.43786 I-0.6436 J1.35491
G2 X-111.19863 Y82.56951 I229.35587 J-481.33939
G2 X-108.93492 Y83.60067 I69.37869 J-149.30659
G1 X-108.93478 Y83.60073
G2 X-108.51208 Y83.78755 I24.60373 J-55.09747
G2 X-108.53566 Y83.49088 I-28.66663 J2.12941
G1 Y83.49086
G1 Y83.4909
G1 Y83.49088
G3 X-108.64329 Y81.41007 I31.6049 J-2.67791
G3 X-108.64335 Y81.35697 I1.49973 J-0.02824
G3 X-108.53639 Y79.11075 I36.26479 J0.60124
G3 X-108.53619 Y79.10826 I1.49537 J0.11776
G2 X-108.44178 Y77.26624 I-31.64832 J-2.54551
G2 X-122.76488 Y71.07476 I-337.80035 J761.78965
G3 X-122.77828 Y71.06904 I0.58226 J-1.38238
G3 X-124.62037 Y69.29173 I1.44608 J-3.34205
G3 X-125.1764 Y67.37125 I5.4686 J-2.62402
G3 X-125.18595 Y67.2388 I1.48988 J-0.17399
G3 X-125.22071 Y64.0837 I94.58907 J-2.61986
G3 X-125.20436 Y61.27278 I195.25654 J-0.26951
G3 X-125.0785 Y58.35326 I34.40473 J0.02068
G3 X-125.02541 Y58.06638 I1.49451 J0.12819
G3 X-123.05448 Y56.37319 I2.27571 J0.6553
G3 X-121.82069 Y56.2638 I1.13685 J5.80957
G3 X-114.5924 Y56.47042 I-1.94974 J194.74912
G3 X-114.58 Y56.47105 I-0.07069 J1.49833
G2 X-108.37199 Y56.69604 I8.96342 J-161.56813
G2 X-108.4618 Y55.62095 I-23.57755 J1.42821
G3 X-108.643 Y53.3951 I20.44023 J-2.78435
G3 X-108.64322 Y53.32304 I1.49945 J-0.04061
G3 X-108.53437 Y51.43615 I25.78377 J0.54083
G2 X-108.46299 Y50.45414 I-22.87414 J-2.15644
G2 X-119.02868 Y50.7851 I3.80505 J290.28989
G3 X-130.50501 Y51.16298 I-14.61438 J-269.37873
G3 X-130.52574 Y51.16308 I-0.01745 J-1.4999
G3 X-153.29068 Y50.39783 I0.79178 J-362.54351
G1 F300.0 Z-5.0
G3 F800.0 X-153.42725 Y59.10102 I-435.47105 J-2.48077
G3 X-153.42752 Y59.1104 I-1.49951 J-0.03852
G2 X-153.59769 Y67.85713 I350.18153 J11.18789
G3 X-153.59774 Y67.8625 I-1.49996 J-0.01045
G2 X-152.86629 Y73.86181 I22.98022 J0.24245
G2 X-150.29064 Y79.09366 I13.95549 J-3.62039
G3 X-150.29025 Y79.09416 I-1.18397 J0.92099
G2 X-145.83565 Y82.52196 I8.82245 J-6.85685
G2 X-140.1523 Y83.57346 I5.43733 J-13.50375
G3 X-140.11733 Y83.57327 I0.02535 J1.49979
G2 X-136.28018 Y83.32011 I0.17069 J-26.61875
G3 X-136.26741 Y83.31839 I0.20661 J1.4857
G2 X-132.79514 Y82.34548 I-1.62811 J-12.49331
G2 X-129.95244 Y80.34011 I-4.74334 J-9.74138
G3 X-129.94759 Y80.33537 I1.05023 J1.07099
G2 X-127.55712 Y77.528 I-13.63949 J-14.0354
G3 X-127.00759 Y76.87685 I3.20426 J2.14675
G3 X-125.56552 Y76.22806 I1.59624 J1.62092
G3 X-124.98898 Y76.30177 I0.10165 J1.49655
G3 X-122.52351 Y77.29001 I-7.12001 J21.33266
G3 X-115.72847 Y80.43708 I-158.31757 J350.74193
G3 X-115.72683 Y80.43786 I-0.6436 J1.35491
G2 X-111.19863 Y82.56951 I229.35587 J-481.33939
G2 X-108.93492 Y83.60067 I69.37869 J-149.30659
G1 X-108.93478 Y83.60073
G2 X-108.51208 Y83.78755 I24.60373 J-55.09747
G2 X-108.53566 Y83.49088 I-28.66663 J2.12941
G1 Y83.49086
G1 Y83.4909
G1 Y83.49088
G3 X-108.64329 Y81.41007 I31.6049 J-2.67791
G3 X-108.64335 Y81.35697 I1.49973 J-0.02824
G3 X-108.53639 Y79.11075 I36.26479 J0.60124
G3 X-108.53619 Y79.10826 I1.49537 J0.11776
G2 X-108.44178 Y77.26624 I-31.64832 J-2.54551
G2 X-122.76488 Y71.07476 I-337.80035 J761.78965
G3 X-122.77828 Y71.06904 I0.58226 J-1.38238
G3 X-124.62037 Y69.29173 I1.44608 J-3.34205
G3 X-125.1764 Y67.37125 I5.4686 J-2.62402
G3 X-125.18595 Y67.2388 I1.48988 J-0.17399
G3 X-125.22071 Y64.0837 I94.58907 J-2.61986
G3 X-125.20436 Y61.27278 I195.25654 J-0.26951
G3 X-125.0785 Y58.35326 I34.40473 J0.02068
G3 X-125.02541 Y58.06638 I1.49451 J0.12819
G3 X-123.05448 Y56.37319 I2.27571 J0.6553
G3 X-121.82069 Y56.2638 I1.13685 J5.80957
G3 X-114.5924 Y56.47042 I-1.94974 J194.74912
G3 X-114.58 Y56.47105 I-0.07069 J1.49833
G2 X-108.37199 Y56.69604 I8.96342 J-161.56813
G2 X-108.4618 Y55.62095 I-23.57755 J1.42821
G3 X-108.643 Y53.3951 I20.44023 J-2.78435
G3 X-108.64322 Y53.32304 I1.49945 J-0.04061
G3 X-108.53437 Y51.43615 I25.78377 J0.54083
G2 X-108.46299 Y50.45414 I-22.87414 J-2.15644
G2 X-119.02868 Y50.7851 I3.80505 J290.28989
G3 X-130.50501 Y51.16298 I-14.61438 J-269.37873
G3 X-130.52574 Y51.16308 I-0.01745 J-1.4999
G3 X-153.29068 Y50.39783 I0.79178 J-362.54351
G0 Z3.0
G0 X-148.24782 Y56.77654
G0 Z1.0
G1 F300.0 Z-2.5
G3 F800.0 X-147.45462 Y56.40092 I1.21077 J1.5315
G3 X-147.25634 Y56.37123 I0.32084 J1.46529
G3 X-142.20922 Y56.1574 I5.23247 J63.83285
G3 X-137.25497 Y56.12695 I4.55365 J337.92229
G1 X-130.72754
G3 X-129.37132 Y56.98612 I0.0 J1.5
G3 X-129.10894 Y57.83885 I-2.8318 J1.33805
G3 X-129.09832 Y57.92152 I-1.48188 J0.23243
G3 X-128.9235 Y59.98436 I-66.59549 J6.68251
G3 X-128.92183 Y60.01219 I-1.49642 J0.10353
G3 X-128.74901 Y67.08877 I-135.5961 J6.85189
G3 X-129.11144 Y70.85422 I-17.98677 J0.16891
G3 X-129.11168 Y70.85537 I-1.46971 J-0.29992
G3 X-130.15351 Y73.75465 I-10.59741 J-2.17126
G3 X-133.70664 Y77.13104 I-6.79929 J-3.59745
G3 X-133.7407 Y77.14638 I-0.633 J-1.35989
G3 X-138.21528 Y78.02866 I-4.24706 J-9.75163
G3 X-143.27877 Y77.28339 I-0.29186 J-15.5907
G3 X-147.76789 Y73.7499 I2.44897 J-7.72965
G3 X-147.79868 Y73.69654 I1.28351 J-0.77627
G3 X-148.81017 Y71.05111 I9.04159 J-4.97314
G3 X-149.38839 Y67.23559 I23.24885 J-5.47484
G3 X-149.52247 Y63.50684 I47.5072 J-3.57508
G3 X-149.43655 Y60.53562 I44.44632 J-0.20154
G3 X-149.43651 Y60.53498 I1.49708 J0.09347
G3 X-149.25575 Y58.93562 I16.14839 J1.0152
G3 X-149.25564 Y58.93499 I1.48029 J0.24238
G3 X-149.02609 Y57.98899 I6.38217 J1.04785
G3 X-149.02549 Y57.98714 I1.42694 J0.46242
G3 X-148.74452 Y57.36147 I3.04218 J0.99022
G3 X-148.24782 Y56.77654 I1.70747 J0.94657
G1 F300.0 Z-5.0
G3 F800.0 X-147.45462 Y56.40092 I1.21077 J1.5315
G3 X-147.25634 Y56.37123 I0.32084 J1.46529
G3 X-142.20922 Y56.1574 I5.23247 J63.83285
G3 X-137.25497 Y56.12695 I4.55365 J337.92229
G1 X-130.72754
G3 X-129.37132 Y56.98612 I0.0 J1.5
G3 X-129.10894 Y57.83885 I-2.8318 J1.33805
G3 X-129.09832 Y57.92152 I-1.48188 J0.23243
G3 X-128.9235 Y59.98436 I-66.59549 J6.68251
G3 X-128.92183 Y60.01219 I-1.49642 J0.10353
G3 X-128.74901 Y67.08877 I-135.5961 J6.85189
G3 X-129.11144 Y70.85422 I-17.98677 J0.16891
G3 X-129.11168 Y70.85537 I-1.46971 J-0.29992
G3 X-130.15351 Y73.75465 I-10.59741 J-2.17126
G3 X-133.70664 Y77.13104 I-6.79929 J-3.59745
G3 X-133.7407 Y77.14638 I-0.633 J-1.35989
G3 X-138.21528 Y78.02866 I-4.24706 J-9.75163
G3 X-143.27877 Y77.28339 I-0.29186 J-15.5907
G3 X-147.76789 Y73.7499 I2.44897 J-7.72965
G3 X-147.79868 Y73.69654 I1.28351 J-0.77627
G3 X-148.81017 Y71.05111 I9.04159 J-4.97314
G3 X-149.38839 Y67.23559 I23.24885 J-5.47484
G3 X-149.52247 Y63.50684 I47.5072 J-3.57508
G3 X-149.43655 Y60.53562 I44.44632 J-0.20154
G3 X-149.43651 Y60.53498 I1.49708 J0.09347
G3 X-149.25575 Y58.93562 I16.14839 J1.0152
G3 X-149.25564 Y58.93499 I1.48029 J0.24238
G3 X-149.02609 Y57.98899 I6.38217 J1.04785
G3 X-149.02549 Y57.98714 I1.42694 J0.46242
G3 X-148.74452 Y57.36147 I3.04218 J0.99022
G3 X-148.24782 Y56.77654 I1.70747 J0.94657
G0 Z3.0
G0 X-149.91215 Y92.17399
G0 Z1.0
G1 F300.0 Z-2.5
G3 F800.0 X-153.38742 Y91.99048 I14.15634 J-301.08035
G2 X-153.25661 Y98.45854 I285.53387 J-2.53959
G3 X-153.25659 Y98.45898 I-1.49925 J0.04732
G3 X-153.11918 Y105.67334 I-295.32869 J9.2338
G3 Y105.69396 I-1.49996 J0.01025
G3 X-153.25668 Y112.569 I-262.78133 J-1.81666
G2 X-153.39261 Y119.40001 I262.7896 J8.64643
G3 X-153.39323 Y119.43391 I-1.49996 J-0.01036
G2 X-153.37724 Y119.69748 I1.46687 J0.0433
G2 X-150.89641 Y120.06989 I23.64272 J-149.05003
G3 X-150.87698 Y120.07277 I-0.21034 J1.48518
G2 X-149.02173 Y120.29571 I4.18663 J-27.00898
G2 X-149.31465 Y112.37088 I-196.70764 J3.30301
G3 X-149.65905 Y103.44783 I176.97279 J-11.29859
G3 X-149.65912 Y103.44115 I1.49987 J-0.02009
G3 X-149.53848 Y101.40351 I15.00188 J-0.1342
G3 X-149.53778 Y101.3981 I1.48788 J0.19031
G3 X-149.29255 Y100.26397 I7.01486 J0.9232
G3 X-148.52434 Y98.87202 I3.40617 J0.97189
G3 X-148.36728 Y98.72053 I1.11711 J1.00103
G3 X-146.89444 Y97.98088 I2.322 J2.78751
G3 X-146.87723 Y97.97685 I0.35109 J1.45833
G3 X-143.66225 Y97.65527 I2.88938 J12.65509
G1 X-138.60561
G3 X-136.00158 Y97.76643 I0.44242 J20.19371
G3 X-135.78228 Y97.8067 I-0.16053 J1.49139
G3 X-133.96255 Y99.30302 I-0.71217 J2.72076
G3 X-133.94207 Y99.34719 I-1.35038 J0.65305
G3 X-133.60275 Y101.06488 I-3.61838 J1.60714
G3 X-133.63672 Y102.23396 I-30.36689 J-0.2972
G1 Y103.35774
G3 X-133.87719 Y115.45106 I-274.25561 J0.59552
G3 X-134.13301 Y119.48396 I-81.83425 J-3.16648
G2 X-131.95172 Y119.27007 I-1.94887 J-31.10372
G3 X-131.92679 Y119.26695 I0.19879 J1.48677
G3 X-129.28471 Y119.04998 I4.48861 J38.46489
G2 X-129.48604 Y116.59617 I-78.70709 J5.22264
G3 X-129.4888 Y116.56459 I1.49288 J-0.14598
G3 X-129.67001 Y112.16031 I62.41957 J-4.77414
G3 X-129.69825 Y107.84282 I284.98498 J-4.02274
G3 X-129.56173 Y100.66246 I128.6857 J-1.14482
G3 X-126.73732 Y97.62523 I3.05087 J0.00523
G3 X-126.57341 Y97.62202 I0.11134 J1.49586
G2 X-124.00776 Y97.65534 I2.03762 J-58.10267
G3 X-123.99414 Y97.65527 I0.01362 J1.49994
G1 X-118.94326
G3 X-116.39883 Y97.82946 I0.16351 J16.28219
G3 X-116.39274 Y97.83038 I-0.21933 J1.48388
G3 X-114.9829 Y98.18711 I-1.12855 J7.42436
G3 X-113.37721 Y99.24562 I-1.2259 J3.60673
G3 X-113.27442 Y99.37321 I-1.11498 J1.0034
G3 X-112.58249 Y100.96183 I-3.33165 J2.39611
G3 X-112.58114 Y100.96867 I-1.47068 J0.29515
G3 X-112.27457 Y104.54534 I-16.35599 J3.2034
G1 X-112.30866 Y108.29489
G3 X-112.30923 Y108.3249 I-1.49994 J-0.01364
G3 X-112.65598 Y115.10703 I-154.41374 J-4.49488
G3 X-113.09464 Y121.30682 I-1016.34525 J-68.79507
G2 X-112.66022 Y121.19786 I-1.11869 J-5.38089
G3 X-112.57959 Y121.17652 I0.42389 J1.43886
G2 X-111.01852 Y120.80322 I-47.87514 J-203.65585
G3 X-110.81336 Y120.76819 I0.35445 J1.45752
G2 X-108.00191 Y120.41169 I-5.33613 J-53.34569
G2 X-108.07826 Y119.82905 I-11.00846 J1.14635
G3 X-108.08429 Y119.78715 I1.48158 J-0.23432
G3 X-108.60538 Y113.13957 I65.62215 J-8.48824
G3 X-108.71191 Y106.56951 I181.92935 J-6.2358
G3 X-108.71188 Y106.56258 I1.5 J0.00275
G3 X-108.57452 Y99.00788 I322.19125 J2.07942
G1 Y99.00784
G2 X-108.44118 Y91.9124 I-318.37082 J-9.53194
G2 X-119.32243 Y92.31263 I3.63766 J247.01178
G3 X-130.91211 Y92.75963 I-14.77608 J-232.64289
G3 X-130.95328 Y92.75962 I-0.0205 J-1.49986
G3 X-145.51526 Y92.34857 I6.94537 J-504.19264
G3 X-149.91215 Y92.17399 I9.75945 J-301.25493
G1 F300.0 Z-5.0
G3 F800.0 X-153.38742 Y91.99048 I14.15634 J-301.08035
G2 X-153.25661 Y98.45854 I285.53387 J-2.53959
G3 X-153.25659 Y98.45898 I-1.49925 J0.04732
G3 X-153.11918 Y105.67334 I-295.32869 J9.2338
G3 Y105.69396 I-1.49996 J0.01025
G3 X-153.25668 Y112.569 I-262.78133 J-1.81666
G2 X-153.39261 Y119.40001 I262.7896 J8.64643
G3 X-153.39323 Y119.43391 I-1.49996 J-0.01036
G2 X-153.37724 Y119.69748 I1.46687 J0.0433
G2 X-150.89641 Y120.06989 I23.64272 J-149.05003
G3 X-150.87698 Y120.07277 I-0.21034 J1.48518
G2 X-149.02173 Y120.29571 I4.18663 J-27.00898
G2 X-149.31465 Y112.37088 I-196.70764 J3.30301
G3 X-149.65905 Y103.44783 I176.97279 J-11.29859
G3 X-149.65912 Y103.44115 I1.49987 J-0.02009
G3 X-149.53848 Y101.40351 I15.00188 J-0.1342
G3 X-149.53778 Y101.3981 I1.48788 J0.19031
G3 X-149.29255 Y100.26397 I7.01486 J0.9232
G3 X-148.52434 Y98.87202 I3.40617 J0.97189
G3 X-148.36728 Y98.72053 I1.11711 J1.00103
G3 X-146.89444 Y97.98088 I2.322 J2.78751
G3 X-146.87723 Y97.97685 I0.35109 J1.45833
G3 X-143.66225 Y97.65527 I2.88938 J12.65509
G1 X-138.60561
G3 X-136.00158 Y97.76643 I0.44242 J20.19371
G3 X-135.78228 Y97.8067 I-0.16053 J1.49139
G3 X-133.96255 Y99.30302 I-0.71217 J2.72076
G3 X-133.94207 Y99.34719 I-1.35038 J0.65305
G3 X-133.60275 Y101.06488 I-3.61838 J1.60714
G3 X-133.63672 Y102.23396 I-30.36689 J-0.2972
G1 Y103.35774
G3 X-133.87719 Y115.45106 I-274.25561 J0.59552
G3 X-134.13301 Y119.48396 I-81.83425 J-3.16648
G2 X-131.95172 Y119.27007 I-1.94887 J-31.10372
G3 X-131.92679 Y119.26695 I0.19879 J1.48677
G3 X-129.28471 Y119.04998 I4.48861 J38.46489
G2 X-129.48604 Y116.59617 I-78.70709 J5.22264
G3 X-129.4888 Y116.56459 I1.49288 J-0.14598
G3 X-129.67001 Y112.16031 I62.41957 J-4.77414
G3 X-129.69825 Y107.84282 I284.98498 J-4.02274
G3 X-129.56173 Y100.66246 I128.6857 J-1.14482
G3 X-126.73732 Y97.62523 I3.05087 J0.00523
G3 X-126.57341 Y97.62202 I0.11134 J1.49586
G2 X-124.00776 Y97.65534 I2.03762 J-58.10267
G3 X-123.99414 Y97.65527 I0.01362 J1.49994
G1 X-118.94326
G3 X-116.39883 Y97.82946 I0.16351 J16.28219
G3 X-116.39274 Y97.83038 I-0.21933 J1.48388
G3 X-114.9829 Y98.18711 I-1.12855 J7.42436
G3 X-113.37721 Y99.24562 I-1.2259 J3.60673
G3 X-113.27442 Y99.37321 I-1.11498 J1.0034
G3 X-112.58249 Y100.96183 I-3.33165 J2.39611
G3 X-112.58114 Y100.96867 I-1.47068 J0.29515
G3 X-112.27457 Y104.54534 I-16.35599 J3.2034
G1 X-112.30866 Y108.29489
G3 X-112.30923 Y108.3249 I-1.49994 J-0.01364
G3 X-112.65598 Y115.10703 I-154.41374 J-4.49488
G3 X-113.09464 Y121.30682 I-1016.34525 J-68.79507
G2 X-112.66022 Y121.19786 I-1.11869 J-5.38089
G3 X-112.57959 Y121.17652 I0.42389 J1.43886
G2 X-111.01852 Y120.80322 I-47.87514 J-203.65585
G3 X-110.81336 Y120.76819 I0.35445 J1.45752
G2 X-108.00191 Y120.41169 I-5.33613 J-53.34569
G2 X-108.07826 Y119.82905 I-11.00846 J1.14635
G3 X-108.08429 Y119.78715 I1.48158 J-0.23432
G3 X-108.60538 Y113.13957 I65.62215 J-8.48824
G3 X-108.71191 Y106.56951 I181.92935 J-6.2358
G3 X-108.71188 Y106.56258 I1.5 J0.00275
G3 X-108.57452 Y99.00788 I322.19125 J2.07942
G1 Y99.00784
G2 X-108.44118 Y91.9124 I-318.37082 J-9.53194
G2 X-119.32243 Y92.31263 I3.63766 J247.01178
G3 X-130.91211 Y92.75963 I-14.77608 J-232.64289
G3 X-130.95328 Y92.75962 I-0.0205 J-1.49986
G3 X-145.51526 Y92.34857 I6.94537 J-504.19264
G3 X-149.91215 Y92.17399 I9.75945 J-301.25493
G0 Z3.0
G0 X-76.4553 Y93.00552
G0 Z1.0
G1 F300.0 Z-2.5
G2 F800.0 X-76.43877 Y93.2424 I1.46741 J0.01661
G2 X-73.95793 Y93.61481 I23.64272 J-149.05003
G3 X-73.9385 Y93.61769 I-0.21034 J1.48518
G2 X-72.08325 Y93.84063 I4.18663 J-27.00898
G2 X-72.37618 Y85.9158 I-196.70764 J3.30301
G3 X-72.72057 Y76.99275 I176.97279 J-11.29859
G3 X-72.72064 Y76.98607 I1.49987 J-0.02009
G3 X-72.6 Y74.94843 I15.00188 J-0.1342
G3 X-72.5993 Y74.94302 I1.48788 J0.19031
G3 X-72.35408 Y73.80889 I7.01486 J0.9232
G3 X-71.58586 Y72.41694 I3.40617 J0.97189
G3 X-71.4288 Y72.26545 I1.11711 J1.00103
G3 X-69.95596 Y71.5258 I2.322 J2.78751
G3 X-69.93875 Y71.52177 I0.35109 J1.45833
G3 X-66.72377 Y71.2002 I2.88938 J12.65509
G1 X-61.66714
G3 X-59.06311 Y71.31135 I0.44242 J20.19371
G3 X-58.8438 Y71.35162 I-0.16053 J1.49139
G3 X-57.02408 Y72.84795 I-0.71217 J2.72076
G3 X-57.00359 Y72.89212 I-1.35038 J0.65305
G3 X-56.66428 Y74.6098 I-3.61838 J1.60714
G3 X-56.69824 Y75.77888 I-30.36689 J-0.2972
G1 Y76.90267
G3 X-56.93872 Y88.99598 I-274.25561 J0.59552
G3 X-57.19454 Y93.02888 I-81.83425 J-3.16648
G2 X-55.01324 Y92.81499 I-1.94887 J-31.10372
G3 X-54.98831 Y92.81187 I0.19879 J1.48677
G3 X-52.34624 Y92.59491 I4.48861 J38.46489
G2 X-52.54757 Y90.14109 I-78.70709 J5.22264
G3 X-52.55032 Y90.10951 I1.49288 J-0.14598
G3 X-52.73153 Y85.70523 I62.41957 J-4.77414
G3 X-52.75977 Y81.38774 I284.98498 J-4.02274
G3 X-52.62325 Y74.20739 I128.6857 J-1.14482
G3 X-49.79884 Y71.17015 I3.05087 J0.00523
G3 X-49.63493 Y71.16694 I0.11134 J1.49586
G2 X-47.06929 Y71.20026 I2.03762 J-58.10267
G3 X-47.05566 Y71.2002 I0.01362 J1.49994
G1 X-42.00478
G3 X-39.46035 Y71.37439 I0.16351 J16.28219
G3 X-39.45426 Y71.3753 I-0.21933 J1.48388
G3 X-38.04442 Y71.73204 I-1.12855 J7.42436
G3 X-36.43873 Y72.79054 I-1.2259 J3.60673
G3 X-36.33594 Y72.91813 I-1.11498 J1.0034
G3 X-35.64402 Y74.50675 I-3.33165 J2.39611
G3 X-35.64266 Y74.51359 I-1.47068 J0.29515
G3 X-35.33609 Y78.09026 I-16.35599 J3.2034
G1 X-35.37018 Y81.83981
G3 X-35.37075 Y81.86982 I-1.49994 J-0.01364
G3 X-35.71751 Y88.65195 I-154.41374 J-4.49488
G3 X-36.15617 Y94.85174 I-1016.34525 J-68.79507
G2 X-35.72174 Y94.74278 I-1.11869 J-5.38089
G3 X-35.64111 Y94.72144 I0.42389 J1.43886
G2 X-34.08004 Y94.34814 I-47.87514 J-203.65585
G3 X-33.87488 Y94.31311 I0.35445 J1.45752
G2 X-31.06343 Y93.95661 I-5.33613 J-53.34569
G2 X-31.13979 Y93.37397 I-11.00846 J1.14635
G3 X-31.14581 Y93.33207 I1.48158 J-0.23432
G3 X-31.6669 Y86.68449 I65.62215 J-8.48824
G3 X-31.77343 Y80.11443 I181.92935 J-6.2358
G3 X-31.77341 Y80.10751 I1.5 J0.00275
G3 X-31.63605 Y72.5528 I322.19125 J2.07942
G1 Y72.55277
G2 X-31.50271 Y65.45732 I-318.37082 J-9.53194
G2 X-42.38396 Y65.85755 I3.63766 J247.01178
G3 X-53.97364 Y66.30455 I-14.77608 J-232.64289
G3 X-54.0148 I-0.0205 J-1.49986
G3 X-68.57678 Y65.8935 I6.94537 J-504.19264
G3 X-76.44895 Y65.5354 I9.75945 J-301.25493
G2 X-76.31813 Y72.00346 I285.53387 J-2.53959
G3 X-76.31812 Y72.0039 I-1.49925 J0.04732
G3 X-76.1807 Y79.21826 I-295.32869 J9.2338
G3 Y79.23889 I-1.49996 J0.01025
G3 X-76.3182 Y86.11392 I-262.78133 J-1.81666
G2 X-76.45414 Y92.94493 I262.7896 J8.64643
G3 X-76.45475 Y92.97883 I-1.49996 J-0.01036
G2 X-76.4553 Y93.00552 I1.46687 J0.0433
G1 F300.0 Z-5.0
G2 F800.0 X-76.43877 Y93.2424 I1.46741 J0.01661
G2 X-73.95793 Y93.61481 I23.64272 J-149.05003
G3 X-73.9385 Y93.61769 I-0.21034 J1.48518
G2 X-72.08325 Y93.84063 I4.18663 J-27.00898
G2 X-72.37618 Y85.9158 I-196.70764 J3.30301
G3 X-72.72057 Y76.99275 I176.97279 J-11.29859
G3 X-72.72064 Y76.98607 I1.49987 J-0.02009
G3 X-72.6 Y74.94843 I15.00188 J-0.1342
G3 X-72.5993 Y74.94302 I1.48788 J0.19031
G3 X-72.35408 Y73.80889 I7.01486 J0.9232
G3 X-71.58586 Y72.41694 I3.40617 J0.97189
G3 X-71.4288 Y72.26545 I1.11711 J1.00103
G3 X-69.95596 Y71.5258 I2.322 J2.78751
G3 X-69.93875 Y71.52177 I0.35109 J1.45833
G3 X-66.72377 Y71.2002 I2.88938 J12.65509
G1 X-61.66714
G3 X-59.06311 Y71.31135 I0.44242 J20.19371
G3 X-58.8438 Y71.35162 I-0.16053 J1.49139
G3 X-57.02408 Y72.84795 I-0.71217 J2.72076
G3 X-57.00359 Y72.89212 I-1.35038 J0.65305
G3 X-56.66428 Y74.6098 I-3.61838 J1.60714
G3 X-56.69824 Y75.77888 I-30.36689 J-0.2972
G1 Y76.90267
G3 X-56.93872 Y88.99598 I-274.25561 J0.59552
G3 X-57.19454 Y93.02888 I-81.83425 J-3.16648
G2 X-55.01324 Y92.81499 I-1.94887 J-31.10372
G3 X-54.98831 Y92.81187 I0.19879 J1.48677
G3 X-52.34624 Y92.59491 I4.48861 J38.46489
G2 X-52.54757 Y90.14109 I-78.70709 J5.22264
G3 X-52.55032 Y90.10951 I1.49288 J-0.14598
G3 X-52.73153 Y85.70523 I62.41957 J-4.77414
G3 X-52.75977 Y81.38774 I284.98498 J-4.02274
G3 X-52.62325 Y74.20739 I128.6857 J-1.14482
G3 X-49.79884 Y71.17015 I3.05087 J0.00523
G3 X-49.63493 Y71.16694 I0.11134 J1.49586
G2 X-47.06929 Y71.20026 I2.03762 J-58.10267
G3 X-47.05566 Y71.2002 I0.01362 J1.49994
G1 X-42.00478
G3 X-39.46035 Y71.37439 I0.16351 J16.28219
G3 X-39.45426 Y71.3753 I-0.21933 J1.48388
G3 X-38.04442 Y71.73204 I-1.12855 J7.42436
G3 X-36.43873 Y72.79054 I-1.2259 J3.60673
G3 X-36.33594 Y72.91813 I-1.11498 J1.0034
G3 X-35.64402 Y74.50675 I-3.33165 J2.39611
G3 X-35.64266 Y74.51359 I-1.47068 J0.29515
G3 X-35.33609 Y78.09026 I-16.35599 J3.2034
G1 X-35.37018 Y81.83981
G3 X-35.37075 Y81.86982 I-1.49994 J-0.01364
G3 X-35.71751 Y88.65195 I-154.41374 J-4.49488
G3 X-36.15617 Y94.85174 I-1016.34525 J-68.79507
G2 X-35.72174 Y94.74278 I-1.11869 J-5.38089
G3 X-35.64111 Y94.72144 I0.42389 J1.43886
G2 X-34.08004 Y94.34814 I-47.87514 J-203.65585
G3 X-33.87488 Y94.31311 I0.35445 J1.45752
G2 X-31.06343 Y93.95661 I-5.33613 J-53.34569
G2 X-31.13979 Y93.37397 I-11.00846 J1.14635
G3 X-31.14581 Y93.33207 I1.48158 J-0.23432
G3 X-31.6669 Y86.68449 I65.62215 J-8.48824
G3 X-31.77343 Y80.11443 I181.92935 J-6.2358
G3 X-31.77341 Y80.10751 I1.5 J0.00275
G3 X-31.63605 Y72.5528 I322.19125 J2.07942
G1 Y72.55277
G2 X-31.50271 Y65.45732 I-318.37082 J-9.53194
G2 X-42.38396 Y65.85755 I3.63766 J247.01178
G3 X-53.97364 Y66.30455 I-14.77608 J-232.64289
G3 X-54.0148 I-0.0205 J-1.49986
G3 X-68.57678 Y65.8935 I6.94537 J-504.19264
G3 X-76.44895 Y65.5354 I9.75945 J-301.25493
G2 X-76.31813 Y72.00346 I285.53387 J-2.53959
G3 X-76.31812 Y72.0039 I-1.49925 J0.04732
G3 X-76.1807 Y79.21826 I-295.32869 J9.2338
G3 Y79.23889 I-1.49996 J0.01025
G3 X-76.3182 Y86.11392 I-262.78133 J-1.81666
G2 X-76.45414 Y92.94493 I262.7896 J8.64643
G3 X-76.45475 Y92.97883 I-1.49996 J-0.01036
G2 X-76.4553 Y93.00552 I1.46687 J0.0433
G0 Z3.0
G0 X-74.17029 Y56.86817
G0 Z1.0
G1 F300.0 Z-2.5
G3 F800.0 X-71.77017 Y55.57533 I35.28786 J62.63648
G3 X-71.6214 Y55.50876 I0.68618 J1.33385
G2 X-69.51823 Y54.61112 I-11.08053 J-28.87436
G3 X-70.37372 Y52.22893 I305.23915 J-110.96187
G3 X-71.25975 Y49.40473 I24.81683 J-9.33684
G3 X-71.695 Y46.27592 I13.01418 J-3.40508
G3 X-71.69523 Y46.26122 I1.49968 J-0.03081
G3 X-71.42359 Y43.5925 I11.98186 J-0.12862
G3 X-68.98445 Y39.67654 I6.27137 J1.18865
G3 X-68.89072 Y39.61159 I0.90057 J1.19958
G3 X-64.60747 Y38.45686 I3.97811 J6.23468
G3 X-60.28678 Y40.38635 I-0.16399 J6.16962
G3 X-57.95394 Y43.68711 I-9.3322 J9.07036
G2 X-55.79793 Y47.79246 I498.211 J-259.02669
G3 X-55.79056 Y47.80653 I-1.32511 J0.70291
G2 X-53.61122 Y51.71531 I63.10512 J-32.6224
G2 X-50.01251 Y54.54621 I7.75524 J-6.15584
G2 X-45.3699 Y55.47772 I4.4696 J-10.24124
G3 X-45.32169 Y55.47775 I0.02322 J1.49982
G2 X-39.21055 Y54.14207 I0.22675 J-13.61057
G2 X-34.50684 Y50.0629 I-5.91526 J-11.57245
G3 X-34.49501 Y50.04638 I1.22559 J0.86483
G2 X-31.66676 Y44.16985 I-14.77932 J-10.73183
G2 X-30.81635 Y37.57629 I-23.52236 J-6.38542
G3 X-30.81637 Y37.55266 I1.49995 J-0.01281
G2 X-30.89769 Y35.65364 I-19.01289 J-0.1371
G2 X-30.99859 Y34.99858 I-5.53483 J0.51732
G3 X-34.22536 Y34.45417 I7.27817 J-52.97271
G3 X-34.32173 Y34.43152 I0.29469 J-1.47077
G3 X-36.50133 Y33.83108 I58.29992 J-215.88436
G2 X-36.4049 Y34.86656 I27.11792 J-2.00319
G3 X-36.40451 Y34.87006 I-1.4906 J0.16762
G3 X-36.22502 Y37.5624 I-31.15145 J3.42892
G3 X-36.22463 Y37.5889 I-1.49959 J0.03525
G3 X-36.45625 Y41.24572 I-26.53683 J0.15498
G3 X-37.10512 Y44.09134 I-15.69168 J-2.08131
G3 X-39.76718 Y48.14038 I-8.16127 J-2.46605
G3 X-39.83549 Y48.19472 I-0.96752 J-1.14625
G3 X-44.59455 Y49.69307 I-4.51215 J-6.02446
G3 X-49.0429 Y47.96367 I0.08625 J-6.80754
G3 X-51.68195 Y44.6501 I8.29476 J-9.31397
G2 X-56.22191 Y36.81236 I-350.78339 J197.95522
G2 X-59.76513 Y34.05871 I-7.62082 J6.14959
G2 X-64.32779 Y33.15022 I-4.39447 J10.15838
G3 X-64.37129 Y33.15025 I-0.02279 J-1.49983
G2 X-69.36074 Y34.02223 I-0.18822 J13.63376
G2 X-73.42518 Y36.82817 I3.96547 J10.0907
G3 X-73.42554 Y36.82857 I-1.11095 J-1.00786
G2 X-75.96051 Y41.19108 I8.92876 J8.1061
G2 X-76.72771 Y46.3236 I15.57945 J4.9524
G2 X-75.8893 Y52.25104 I25.09703 J-0.52687
G3 X-75.88398 Y52.27159 I-1.44957 J0.38568
G2 X-74.99198 Y55.11422 I24.84818 J-6.23601
G3 X-74.98712 Y55.12721 I-1.40266 J0.53156
G2 X-74.17029 Y56.86817 I10.54147 J-3.88382
G1 F300.0 Z-5.0
G3 F800.0 X-71.77017 Y55.57533 I35.28786 J62.63648
G3 X-71.6214 Y55.50876 I0.68618 J1.33385
G2 X-69.51823 Y54.61112 I-11.08053 J-28.87436
G3 X-70.37372 Y52.22893 I305.23915 J-110.96187
G3 X-71.25975 Y49.40473 I24.81683 J-9.33684
G3 X-71.695 Y46.27592 I13.01418 J-3.40508
G3 X-71.69523 Y46.26122 I1.49968 J-0.03081
G3 X-71.42359 Y43.5925 I11.98186 J-0.12862
G3 X-68.98445 Y39.67654 I6.27137 J1.18865
G3 X-68.89072 Y39.61159 I0.90057 J1.19958
G3 X-64.60747 Y38.45686 I3.97811 J6.23468
G3 X-60.28678 Y40.38635 I-0.16399 J6.16962
G3 X-57.95394 Y43.68711 I-9.3322 J9.07036
G2 X-55.79793 Y47.79246 I498.211 J-259.02669
G3 X-55.79056 Y47.80653 I-1.32511 J0.70291
G2 X-53.61122 Y51.71531 I63.10512 J-32.6224
G2 X-50.01251 Y54.54621 I7.75524 J-6.15584
G2 X-45.3699 Y55.47772 I4.4696 J-10.24124
G3 X-45.32169 Y55.47775 I0.02322 J1.49982
G2 X-39.21055 Y54.14207 I0.22675 J-13.61057
G2 X-34.50684 Y50.0629 I-5.91526 J-11.57245
G3 X-34.49501 Y50.04638 I1.22559 J0.86483
G2 X-31.66676 Y44.16985 I-14.77932 J-10.73183
G2 X-30.81635 Y37.57629 I-23.52236 J-6.38542
G3 X-30.81637 Y37.55266 I1.49995 J-0.01281
G2 X-30.89769 Y35.65364 I-19.01289 J-0.1371
G2 X-30.99859 Y34.99858 I-5.53483 J0.51732
G3 X-34.22536 Y34.45417 I7.27817 J-52.97271
G3 X-34.32173 Y34.43152 I0.29469 J-1.47077
G3 X-36.50133 Y33.83108 I58.29992 J-215.88436
G2 X-36.4049 Y34.86656 I27.11792 J-2.00319
G3 X-36.40451 Y34.87006 I-1.4906 J0.16762
G3 X-36.22502 Y37.5624 I-31.15145 J3.42892
G3 X-36.22463 Y37.5889 I-1.49959 J0.03525
G3 X-36.45625 Y41.24572 I-26.53683 J0.15498
G3 X-37.10512 Y44.09134 I-15.69168 J-2.08131
G3 X-39.76718 Y48.14038 I-8.16127 J-2.46605
G3 X-39.83549 Y48.19472 I-0.96752 J-1.14625
G3 X-44.59455 Y49.69307 I-4.51215 J-6.02446
G3 X-49.0429 Y47.96367 I0.08625 J-6.80754
G3 X-51.68195 Y44.6501 I8.29476 J-9.31397
G2 X-56.22191 Y36.81236 I-350.78339 J197.95522
G2 X-59.76513 Y34.05871 I-7.62082 J6.14959
G2 X-64.32779 Y33.15022 I-4.39447 J10.15838
G3 X-64.37129 Y33.15025 I-0.02279 J-1.49983
G2 X-69.36074 Y34.02223 I-0.18822 J13.63376
G2 X-73.42518 Y36.82817 I3.96547 J10.0907
G3 X-73.42554 Y36.82857 I-1.11095 J-1.00786
G2 X-75.96051 Y41.19108 I8.92876 J8.1061
G2 X-76.72771 Y46.3236 I15.57945 J4.9524
G2 X-75.8893 Y52.25104 I25.09703 J-0.52687
G3 X-75.88398 Y52.27159 I-1.44957 J0.38568
G2 X-74.99198 Y55.11422 I24.84818 J-6.23601
G3 X-74.98712 Y55.12721 I-1.40266 J0.53156
G2 X-74.17029 Y56.86817 I10.54147 J-3.88382
G0 Z3.0
G0 Y24.19239
G0 Z1.0
G1 F300.0 Z-2.5
G3 F800.0 X-71.77017 Y22.89955 I35.28786 J62.63648
G3 X-71.6214 Y22.83297 I0.68618 J1.33385
G2 X-69.51823 Y21.93533 I-11.08053 J-28.87436
G3 X-70.37372 Y19.55315 I305.23915 J-110.96187
G3 X-71.25975 Y16.72895 I24.81683 J-9.33684
G3 X-71.695 Y13.60014 I13.01418 J-3.40508
G3 X-71.69523 Y13.58544 I1.49968 J-0.03081
G3 X-71.42359 Y10.91672 I11.98186 J-0.12862
G3 X-68.98445 Y7.00076 I6.27137 J1.18865
G3 X-68.89072 Y6.93581 I0.90057 J1.19958
G3 X-64.60747 Y5.78108 I3.97811 J6.23468
G3 X-60.28678 Y7.71057 I-0.16399 J6.16962
G3 X-57.95394 Y11.01133 I-9.3322 J9.07036
G2 X-55.79793 Y15.11668 I498.211 J-259.02669
G3 X-55.79056 Y15.13075 I-1.32511 J0.70291
G2 X-53.61122 Y19.03953 I63.10512 J-32.6224
G2 X-50.01251 Y21.87042 I7.75524 J-6.15584
G2 X-45.3699 Y22.80194 I4.4696 J-10.24124
G3 X-45.32169 Y22.80197 I0.02322 J1.49982
G2 X-39.21055 Y21.46629 I0.22675 J-13.61057
G2 X-34.50684 Y17.38712 I-5.91526 J-11.57245
G3 X-34.49501 Y17.3706 I1.22559 J0.86483
G2 X-31.66676 Y11.49406 I-14.77932 J-10.73183
G2 X-30.81635 Y4.9005 I-23.52236 J-6.38542
G3 X-30.81637 Y4.87688 I1.49995 J-0.01281
G2 X-30.89769 Y2.97785 I-19.01289 J-0.1371
G2 X-30.99859 Y2.3228 I-5.53483 J0.51732
G3 X-34.22536 Y1.77838 I7.27817 J-52.97271
G3 X-34.32173 Y1.75574 I0.29469 J-1.47077
G3 X-36.50133 Y1.1553 I58.29992 J-215.88436
G2 X-36.4049 Y2.19077 I27.11792 J-2.00319
G3 X-36.40451 Y2.19428 I-1.4906 J0.16762
G3 X-36.22502 Y4.88662 I-31.15145 J3.42892
G3 X-36.22463 Y4.91311 I-1.49959 J0.03525
G3 X-36.45625 Y8.56994 I-26.53683 J0.15498
G3 X-37.10512 Y11.41556 I-15.69168 J-2.08131
G3 X-39.76718 Y15.4646 I-8.16127 J-2.46605
G3 X-39.83549 Y15.51894 I-0.96752 J-1.14625
G3 X-44.59455 Y17.01729 I-4.51215 J-6.02446
G3 X-49.0429 Y15.28789 I0.08625 J-6.80754
G3 X-51.68195 Y11.97432 I8.29476 J-9.31397
G2 X-56.22191 Y4.13658 I-350.78339 J197.95522
G2 X-59.76513 Y1.38293 I-7.62082 J6.14959
G2 X-64.32779 Y0.47444 I-4.39447 J10.15838
G3 X-64.37129 Y0.47447 I-0.02279 J-1.49983
G2 X-69.36074 Y1.34645 I-0.18822 J13.63376
G2 X-73.42518 Y4.15239 I3.96547 J10.0907
G3 X-73.42554 Y4.15279 I-1.11095 J-1.00786
G2 X-75.96051 Y8.5153 I8.92876 J8.1061
G2 X-76.72771 Y13.64781 I15.57945 J4.9524
G2 X-75.8893 Y19.57526 I25.09703 J-0.52687
G3 X-75.88398 Y19.59581 I-1.44957 J0.38568
G2 X-74.99198 Y22.43844 I24.84818 J-6.23601
G3 X-74.98712 Y22.45143 I-1.40266 J0.53156
G2 X-74.17029 Y24.19239 I10.54147 J-3.88382
G1 F300.0 Z-5.0
G3 F800.0 X-71.77017 Y22.89955 I35.28786 J62.63648
G3 X-71.6214 Y22.83297 I0.68618 J1.33385
G2 X-69.51823 Y21.93533 I-11.08053 J-28.87436
G3 X-70.37372 Y19.55315 I305.23915 J-110.96187
G3 X-71.25975 Y16.72895 I24.81683 J-9.33684
G3 X-71.695 Y13.60014 I13.01418 J-3.40508
G3 X-71.69523 Y13.58544 I1.49968 J-0.03081
G3 X-71.42359 Y10.91672 I11.98186 J-0.12862
G3 X-68.98445 Y7.00076 I6.27137 J1.18865
G3 X-68.89072 Y6.93581 I0.90057 J1.19958
G3 X-64.60747 Y5.78108 I3.97811 J6.23468
G3 X-60.28678 Y7.71057 I-0.16399 J6.16962
G3 X-57.95394 Y11.01133 I-9.3322 J9.07036
G2 X-55.79793 Y15.11668 I498.211 J-259.02669
G3 X-55.79056 Y15.13075 I-1.32511 J0.70291
G2 X-53.61122 Y19.03953 I63.10512 J-32.6224
G2 X-50.01251 Y21.87042 I7.75524 J-6.15584
G2 X-45.3699 Y22.80194 I4.4696 J-10.24124
G3 X-45.32169 Y22.80197 I0.02322 J1.49982
G2 X-39.21055 Y21.46629 I0.22675 J-13.61057
G2 X-34.50684 Y17.38712 I-5.91526 J-11.57245
G3 X-34.49501 Y17.3706 I1.22559 J0.86483
G2 X-31.66676 Y11.49406 I-14.77932 J-10.73183
G2 X-30.81635 Y4.9005 I-23.52236 J-6.38542
G3 X-30.81637 Y4.87688 I1.49995 J-0.01281
G2 X-30.89769 Y2.97785 I-19.01289 J-0.1371
G2 X-30.99859 Y2.3228 I-5.53483 J0.51732
G3 X-34.22536 Y1.77838 I7.27817 J-52.97271
G3 X-34.32173 Y1.75574 I0.29469 J-1.47077
G3 X-36.50133 Y1.1553 I58.29992 J-215.88436
G2 X-36.4049 Y2.19077 I27.11792 J-2.00319
G3 X-36.40451 Y2.19428 I-1.4906 J0.16762
G3 X-36.22502 Y4.88662 I-31.15145 J3.42892
G3 X-36.22463 Y4.91311 I-1.49959 J0.03525
G3 X-36.45625 Y8.56994 I-26.53683 J0.15498
G3 X-37.10512 Y11.41556 I-15.69168 J-2.08131
G3 X-39.76718 Y15.4646 I-8.16127 J-2.46605
G3 X-39.83549 Y15.51894 I-0.96752 J-1.14625
G3 X-44.59455 Y17.01729 I-4.51215 J-6.02446
G3 X-49.0429 Y15.28789 I0.08625 J-6.80754
G3 X-51.68195 Y11.97432 I8.29476 J-9.31397
G2 X-56.22191 Y4.13658 I-350.78339 J197.95522
G2 X-59.76513 Y1.38293 I-7.62082 J6.14959
G2 X-64.32779 Y0.47444 I-4.39447 J10.15838
G3 X-64.37129 Y0.47447 I-0.02279 J-1.49983
G2 X-69.36074 Y1.34645 I-0.18822 J13.63376
G2 X-73.42518 Y4.15239 I3.96547 J10.0907
G3 X-73.42554 Y4.15279 I-1.11095 J-1.00786
G2 X-75.96051 Y8.5153 I8.92876 J8.1061
G2 X-76.72771 Y13.64781 I15.57945 J4.9524
G2 X-75.8893 Y19.57526 I25.09703 J-0.52687
G3 X-75.88398 Y19.59581 I-1.44957 J0.38568
G2 X-74.99198 Y22.43844 I24.84818 J-6.23601
G3 X-74.98712 Y22.45143 I-1.40266 J0.53156
G2 X-74.17029 Y24.19239 I10.54147 J-3.88382
G0 Z3.0
G0 X-58.00759 Y-17.44034
G0 Z1.0
G1 F300.0 Z-2.5
G2 F800.0 X-56.39182 Y-16.81378 I808.64626 J-2082.95367
G3 X-56.38562 Y-16.81136 I-0.54177 J1.39874
G2 X-43.14089 Y-11.63531 I1825.64713 J-4652.01308
G3 X-43.1361 Y-11.63343 I-0.544 J1.39788
G2 X-31.55254 Y-7.16218 I367.26638 J-934.2278
G2 X-31.59648 Y-7.72663 I-25.62978 J1.71133
G3 X-31.70484 Y-9.71444 I27.08432 J-2.47328
G3 X-31.70482 Y-9.76899 I1.49976 J-0.02678
G3 X-31.59691 Y-11.81925 I30.13879 J0.55828
G1 Y-11.81926
G1 Y-11.81924
G1 Y-11.81925
G2 X-31.51456 Y-13.1402 I-27.05086 J-2.3494
G2 X-33.20514 Y-13.89659 I-4.42848 J7.63049
G3 X-33.24041 Y-13.90858 I0.4655 J-1.42594
G2 X-35.56617 Y-14.65432 I-13.54988 J38.25915
G3 X-38.65537 Y-15.71154 I6.86301 J-25.09572
G3 X-38.65631 Y-15.71193 I0.57379 J-1.38592
G3 X-40.30278 Y-16.5839 I3.80878 J-9.18216
G3 X-40.30788 Y-16.58727 I0.82316 J-1.25395
G3 X-41.19824 Y-17.35356 I2.58737 J-3.90668
G3 X-41.91893 Y-18.97378 I2.005 J-1.86224
G3 X-41.92431 Y-19.06777 I1.49412 J-0.13266
G3 X-41.99316 Y-25.70692 I215.27313 J-5.55264
G1 Y-31.09913
G3 X-41.92425 Y-37.57 I196.21027 J-1.14626
G3 X-41.89998 Y-37.80108 I1.49945 J0.04071
G3 X-40.92876 Y-39.3827 I2.5336 J0.46678
G3 X-40.90603 Y-39.3997 I0.90969 J1.19267
G3 X-38.15313 Y-40.8044 I5.70513 J7.7809
G3 X-35.54704 Y-41.61064 I11.41847 J32.29411
G3 X-35.53943 Y-41.61265 I0.38591 J1.44951
G2 X-32.92898 Y-42.37352 I-11.96504 J-45.90912
G2 X-31.71854 Y-42.82152 I-4.75341 J-14.70213
G2 X-31.5 Y-42.92026 I-1.68697 J-4.0249
G1 Y-48.76755
G3 X-31.50146 Y-48.76701 I-0.5166 J-1.40823
G1 X-54.383 Y-40.39988
G2 X-70.30327 Y-33.9908 I586.55201 J1479.98268
G3 X-76.96034 Y-31.36959 I-56.88545 J-134.70757
G3 X-77.04121 Y-31.34259 I-0.51525 J-1.40873
G2 X-77.24031 Y-31.27568 I0.99948 J3.30353
G2 X-77.11983 Y-30.1962 I14.90272 J-1.11689
G3 X-76.93331 Y-28.10709 I-17.69156 J2.63241
G3 X-76.93343 Y-28.01218 I-1.49931 J0.04556
G3 X-77.12076 Y-25.98905 I-17.09478 J-0.56261
G3 X-77.12709 Y-25.95094 I-1.48276 J-0.22677
G2 X-77.25695 Y-25.02924 I12.20287 J2.18929
G2 X-76.9847 Y-24.90748 I1.85308 J-3.77819
G2 X-58.00759 Y-17.44034 I827.62337 J-2075.48653
G1 F300.0 Z-5.0
G2 F800.0 X-56.39182 Y-16.81378 I808.64626 J-2082.95367
G3 X-56.38562 Y-16.81136 I-0.54177 J1.39874
G2 X-43.14089 Y-11.63531 I1825.64713 J-4652.01308
G3 X-43.1361 Y-11.63343 I-0.544 J1.39788
G2 X-31.55254 Y-7.16218 I367.26638 J-934.2278
G2 X-31.59648 Y-7.72663 I-25.62978 J1.71133
G3 X-31.70484 Y-9.71444 I27.08432 J-2.47328
G3 X-31.70482 Y-9.76899 I1.49976 J-0.02678
G3 X-31.59691 Y-11.81925 I30.13879 J0.55828
G1 Y-11.81926
G1 Y-11.81924
G1 Y-11.81925
G2 X-31.51456 Y-13.1402 I-27.05086 J-2.3494
G2 X-33.20514 Y-13.89659 I-4.42848 J7.63049
G3 X-33.24041 Y-13.90858 I0.4655 J-1.42594
G2 X-35.56617 Y-14.65432 I-13.54988 J38.25915
G3 X-38.65537 Y-15.71154 I6.86301 J-25.09572
G3 X-38.65631 Y-15.71193 I0.57379 J-1.38592
G3 X-40.30278 Y-16.5839 I3.80878 J-9.18216
G3 X-40.30788 Y-16.58727 I0.82316 J-1.25395
G3 X-41.19824 Y-17.35356 I2.58737 J-3.90668
G3 X-41.91893 Y-18.97378 I2.005 J-1.86224
G3 X-41.92431 Y-19.06777 I1.49412 J-0.13266
G3 X-41.99316 Y-25.70692 I215.27313 J-5.55264
G1 Y-31.09913
G3 X-41.92425 Y-37.57 I196.21027 J-1.14626
G3 X-41.89998 Y-37.80108 I1.49945 J0.04071
G3 X-40.92876 Y-39.3827 I2.5336 J0.46678
G3 X-40.90603 Y-39.3997 I0.90969 J1.19267
G3 X-38.15313 Y-40.8044 I5.70513 J7.7809
G3 X-35.54704 Y-41.61064 I11.41847 J32.29411
G3 X-35.53943 Y-41.61265 I0.38591 J1.44951
G2 X-32.92898 Y-42.37352 I-11.96504 J-45.90912
G2 X-31.71854 Y-42.82152 I-4.75341 J-14.70213
G2 X-31.5 Y-42.92026 I-1.68697 J-4.0249
G1 Y-48.76755
G3 X-31.50146 Y-48.76701 I-0.5166 J-1.40823
G1 X-54.383 Y-40.39988
G2 X-70.30327 Y-33.9908 I586.55201 J1479.98268
G3 X-76.96034 Y-31.36959 I-56.88545 J-134.70757
G3 X-77.04121 Y-31.34259 I-0.51525 J-1.40873
G2 X-77.24031 Y-31.27568 I0.99948 J3.30353
G2 X-77.11983 Y-30.1962 I14.90272 J-1.11689
G3 X-76.93331 Y-28.10709 I-17.69156 J2.63241
G3 X-76.93343 Y-28.01218 I-1.49931 J0.04556
G3 X-77.12076 Y-25.98905 I-17.09478 J-0.56261
G3 X-77.12709 Y-25.95094 I-1.48276 J-0.22677
G2 X-77.25695 Y-25.02924 I12.20287 J2.18929
G2 X-76.9847 Y-24.90748 I1.85308 J-3.77819
G2 X-58.00759 Y-17.44034 I827.62337 J-2075.48653
G0 Z3.0
G0 X-56.34989 Y-21.82148
G0 Z1.0
G1 F300.0 Z-2.5
G3 F800.0 X-58.71021 Y-22.73381 I62.91903 J-166.28927
G3 X-63.7871 Y-24.74933 I115.18115 J-297.53121
G3 X-68.86574 Y-26.98448 I28.75562 J-72.2249
G3 X-68.76077 Y-29.73132 I0.65284 J-1.35048
G3 X-59.34579 Y-33.39125 I585.63939 J1492.58626
G3 X-59.34492 Y-33.39159 I0.53908 J1.39978
G3 X-54.61431 Y-35.18652 I209.28157 J544.43999
G3 X-54.61363 Y-35.18677 I0.52604 J1.40474
G3 X-52.22535 Y-36.06189 I67.53573 J180.61394
G3 X-51.02236 Y-36.48117 I22.55526 J62.7797
G3 X-49.61446 Y-36.87925 I3.45618 J9.53499
G3 X-49.31533 Y-36.91015 I0.30294 J1.46909
G3 X-47.39596 Y-35.97219 I0.00614 J2.42024
G3 X-47.37176 Y-35.94008 I-1.18577 J0.91867
G3 X-46.64383 Y-34.27951 I-3.36271 J2.46392
G3 X-46.44803 Y-32.91773 I-9.26546 J2.02715
G3 X-46.44488 Y-32.85271 I-1.4963 J0.10523
G3 X-46.41016 Y-29.45811 I-102.3222 J2.74399
G1 Y-25.94907
G3 X-46.55579 Y-23.17578 I-22.69285 J0.19882
G3 X-46.90364 Y-21.56234 I-8.26242 J-0.93713
G3 X-46.90387 Y-21.56161 I-1.4277 J-0.46009
G3 X-47.43346 Y-20.51912 I-3.54129 J-1.14322
G3 X-49.24106 Y-19.55513 I-1.86277 J-1.31618
G3 X-49.53806 Y-19.57752 I-0.03628 J-1.49956
G3 X-52.05688 Y-20.25988 I2.52726 J-14.31911
G3 X-56.34989 Y-21.82148 I58.62602 J-167.85087
G1 F300.0 Z-5.0
G3 F800.0 X-58.71021 Y-22.73381 I62.91903 J-166.28927
G3 X-63.7871 Y-24.74933 I115.18115 J-297.53121
G3 X-68.86574 Y-26.98448 I28.75562 J-72.2249
G3 X-68.76077 Y-29.73132 I0.65284 J-1.35048
G3 X-59.34579 Y-33.39125 I585.63939 J1492.58626
G3 X-59.34492 Y-33.39159 I0.53908 J1.39978
G3 X-54.61431 Y-35.18652 I209.28157 J544.43999
G3 X-54.61363 Y-35.18677 I0.52604 J1.40474
G3 X-52.22535 Y-36.06189 I67.53573 J180.61394
G3 X-51.02236 Y-36.48117 I22.55526 J62.7797
G3 X-49.61446 Y-36.87925 I3.45618 J9.53499
G3 X-49.31533 Y-36.91015 I0.30294 J1.46909
G3 X-47.39596 Y-35.97219 I0.00614 J2.42024
G3 X-47.37176 Y-35.94008 I-1.18577 J0.91867
G3 X-46.64383 Y-34.27951 I-3.36271 J2.46392
G3 X-46.44803 Y-32.91773 I-9.26546 J2.02715
G3 X-46.44488 Y-32.85271 I-1.4963 J0.10523
G3 X-46.41016 Y-29.45811 I-102.3222 J2.74399
G1 Y-25.94907
G3 X-46.55579 Y-23.17578 I-22.69285 J0.19882
G3 X-46.90364 Y-21.56234 I-8.26242 J-0.93713
G3 X-46.90387 Y-21.56161 I-1.4277 J-0.46009
G3 X-47.43346 Y-20.51912 I-3.54129 J-1.14322
G3 X-49.24106 Y-19.55513 I-1.86277 J-1.31618
G3 X-49.53806 Y-19.57752 I-0.03628 J-1.49956
G3 X-52.05688 Y-20.25988 I2.52726 J-14.31911
G3 X-56.34989 Y-21.82148 I58.62602 J-167.85087
G0 Z3.0
G0 X-52.27155 Y-54.82559
G0 Z1.0
G1 F300.0 Z-2.5
G2 F800.0 X-49.14222 Y-54.92122 I-1.40436 J-97.20108
G3 X-49.11914 Y-54.92212 I0.06996 J1.49837
G3 X-45.49365 Y-54.99118 I4.64034 J148.41398
G3 X-45.46331 Y-54.99108 I0.01025 J1.49996
G3 X-32.72098 Y-54.3936 I-2.55335 J190.63181
G2 X-33.22857 Y-55.50069 I-24.17611 J10.41472
G3 X-33.22873 Y-55.50101 I1.34869 J-0.65654
G2 X-34.54354 Y-57.84203 I-20.49008 J9.96839
G3 X-34.52262 Y-59.49436 I1.26229 J-0.81032
G2 X-31.45346 Y-66.16818 I-18.50862 J-12.55439
G2 X-30.50875 Y-73.544 I-26.77869 J-7.17828
G3 X-30.50867 Y-73.57354 I1.49996 J-0.01069
G2 X-32.2428 Y-82.06881 I-20.41819 J-0.25669
G2 X-37.49524 Y-88.95089 I-18.13225 J8.39325
G3 X-37.51413 Y-88.96709 I0.96692 J-1.14676
G2 X-45.10504 Y-93.36416 I-15.10004 J17.31721
G2 X-53.84342 Y-94.75007 I-8.48937 J25.28552
G3 X-53.87197 I-0.014 J-1.49993
G2 X-62.73128 Y-93.40694 I-0.27255 J28.09189
G2 X-70.45132 Y-89.05984 I7.18684 J21.79171
G3 X-70.46714 Y-89.0465 I-0.97447 J-1.14036
G2 X-75.73713 Y-82.13911 I12.40357 J14.92736
G2 X-77.44545 Y-73.57519 I19.18049 J8.27845
G3 X-77.44531 Y-73.55631 I-1.49986 J0.0205
G2 X-75.12145 Y-64.13351 I20.35474 J-0.02196
G3 X-75.10323 Y-64.09757 I-1.32875 J0.69601
G2 X-68.84028 Y-56.88569 I16.71716 J-8.19216
G3 X-68.78061 Y-56.84302 I-0.84233 J1.24116
G3 X-68.73748 Y-56.87814 I0.96855 J1.14539
G2 X-66.53371 Y-58.76001 I-21.33362 J-27.21408
G3 X-66.51981 Y-58.77276 I1.02102 J1.09887
G2 X-65.14228 Y-60.06294 I-38.2712 J-42.24291
G2 X-64.7938 Y-60.40924 I-13.5117 J-13.94501
G2 X-65.89952 Y-61.40284 I-20.995 J22.25215
G3 X-70.01623 Y-65.84925 I15.13455 J-18.14123
G3 X-70.02217 Y-65.85767 I1.22228 J-0.8695
G3 X-72.37881 Y-73.19575 I10.65319 J-7.46876
G3 X-70.82104 Y-79.85882 I14.24754 J-0.18268
G3 X-70.80669 Y-79.88623 I1.33589 J0.68221
G3 X-66.3771 Y-85.00967 I13.66473 J7.33758
G3 X-53.85181 Y-89.06857 I12.12044 J16.04706
G3 X-41.39614 Y-84.89966 I0.2522 J19.93821
G3 X-36.97971 Y-79.81162 I-9.5408 J12.7422
G3 X-36.96581 Y-79.78568 I-1.31521 J0.72126
G3 X-35.37007 Y-73.14075 I-12.41698 J6.49594
G3 X-39.03745 Y-60.83196 I-22.06247 J0.12727
G3 X-40.41567 Y-60.16559 I-1.25064 J-0.82819
G3 X-46.92199 Y-60.74774 I68.17547 J-798.61107
G3 X-46.94935 Y-60.75055 I0.13976 J-1.49347
G2 X-52.297 Y-61.12971 I-7.31091 J65.2111
G2 X-52.22633 Y-60.08098 I27.11281 J-1.3002
G3 X-52.22323 Y-60.03821 I-1.49437 J0.1298
G3 X-52.15245 Y-58.02106 I-43.83297 J2.54782
G3 X-52.15246 Y-57.98437 I-1.49989 J0.01813
G3 X-52.22309 Y-55.93596 I-46.3906 J-0.57413
G2 X-52.27155 Y-54.82559 I44.0106 J2.47709
G1 F300.0 Z-5.0
G2 F800.0 X-49.14222 Y-54.92122 I-1.40436 J-97.20108
G3 X-49.11914 Y-54.92212 I0.06996 J1.49837
G3 X-45.49365 Y-54.99118 I4.64034 J148.41398
G3 X-45.46331 Y-54.99108 I0.01025 J1.49996
G3 X-32.72098 Y-54.3936 I-2.55335 J190.63181
G2 X-33.22857 Y-55.50069 I-24.17611 J10.41472
G3 X-33.22873 Y-55.50101 I1.34869 J-0.65654
G2 X-34.54354 Y-57.84203 I-20.49008 J9.96839
G3 X-34.52262 Y-59.49436 I1.26229 J-0.81032
G2 X-31.45346 Y-66.16818 I-18.50862 J-12.55439
G2 X-30.50875 Y-73.544 I-26.77869 J-7.17828
G3 X-30.50867 Y-73.57354 I1.49996 J-0.01069
G2 X-32.2428 Y-82.06881 I-20.41819 J-0.25669
G2 X-37.49524 Y-88.95089 I-18.13225 J8.39325
G3 X-37.51413 Y-88.96709 I0.96692 J-1.14676
G2 X-45.10504 Y-93.36416 I-15.10004 J17.31721
G2 X-53.84342 Y-94.75007 I-8.48937 J25.28552
G3 X-53.87197 I-0.014 J-1.49993
G2 X-62.73128 Y-93.40694 I-0.27255 J28.09189
G2 X-70.45132 Y-89.05984 I7.18684 J21.79171
G3 X-70.46714 Y-89.0465 I-0.97447 J-1.14036
G2 X-75.73713 Y-82.13911 I12.40357 J14.92736
G2 X-77.44545 Y-73.57519 I19.18049 J8.27845
G3 X-77.44531 Y-73.55631 I-1.49986 J0.0205
G2 X-75.12145 Y-64.13351 I20.35474 J-0.02196
G3 X-75.10323 Y-64.09757 I-1.32875 J0.69601
G2 X-68.84028 Y-56.88569 I16.71716 J-8.19216
G3 X-68.78061 Y-56.84302 I-0.84233 J1.24116
G3 X-68.73748 Y-56.87814 I0.96855 J1.14539
G2 X-66.53371 Y-58.76001 I-21.33362 J-27.21408
G3 X-66.51981 Y-58.77276 I1.02102 J1.09887
G2 X-65.14228 Y-60.06294 I-38.2712 J-42.24291
G2 X-64.7938 Y-60.40924 I-13.5117 J-13.94501
G2 X-65.89952 Y-61.40284 I-20.995 J22.25215
G3 X-70.01623 Y-65.84925 I15.13455 J-18.14123
G3 X-70.02217 Y-65.85767 I1.22228 J-0.8695
G3 X-72.37881 Y-73.19575 I10.65319 J-7.46876
G3 X-70.82104 Y-79.85882 I14.24754 J-0.18268
G3 X-70.80669 Y-79.88623 I1.33589 J0.68221
G3 X-66.3771 Y-85.00967 I13.66473 J7.33758
G3 X-53.85181 Y-89.06857 I12.12044 J16.04706
G3 X-41.39614 Y-84.89966 I0.2522 J19.93821
G3 X-36.97971 Y-79.81162 I-9.5408 J12.7422
G3 X-36.96581 Y-79.78568 I-1.31521 J0.72126
G3 X-35.37007 Y-73.14075 I-12.41698 J6.49594
G3 X-39.03745 Y-60.83196 I-22.06247 J0.12727
G3 X-40.41567 Y-60.16559 I-1.25064 J-0.82819
G3 X-46.92199 Y-60.74774 I68.17547 J-798.61107
G3 X-46.94935 Y-60.75055 I0.13976 J-1.49347
G2 X-52.297 Y-61.12971 I-7.31091 J65.2111
G2 X-52.22633 Y-60.08098 I27.11281 J-1.3002
G3 X-52.22323 Y-60.03821 I-1.49437 J0.1298
G3 X-52.15245 Y-58.02106 I-43.83297 J2.54782
G3 X-52.15246 Y-57.98437 I-1.49989 J0.01813
G3 X-52.22309 Y-55.93596 I-46.3906 J-0.57413
G2 X-52.27155 Y-54.82559 I44.0106 J2.47709
G0 Z3.0
M5
M30
