( Made using CamBam - http://www.cambam.co.uk )
( untere_Gasse_13 3/17/2017 3:55:49 PM )
( T3 : 3.0 )
G21 G90 G64 G40
G0 Z3.0
( T3 : 3.0 )
T3 M6
( untere_Gasse )
G17
M3 S1000
G0 X-144.8475 Y-85.3292
G0 Z1.0
G1 F300.0 Z-0.6
G2 F800.0 X-137.6565 Y-86.0982 I0.3464 J-30.7692
G2 X-132.8985 Y-88.0204 I-3.6731 J-15.9413
G2 X-129.2401 Y-91.6143 I-5.9824 J-9.7488
G3 X-135.0882 Y-87.1361 I-10.1942 J-7.2548
G3 X-139.5669 Y-85.9698 I-7.187 J-18.4164
G3 X-143.9618 Y-85.6716 I-4.2471 J-30.058
G1 X-171.3674
G1 Y-85.3294
G1 X-144.8779
G3 X-144.8475 Y-85.3292 I0.0 J2.7
G0 Z3.0
G0 X-127.3447 Y-105.7118
G0 Z1.0
G1 F300.0 Z-0.6
G2 F800.0 X-127.9464 Y-107.9616 I-19.6973 J4.0627
G2 X-134.0801 Y-114.6156 I-10.5191 J3.5426
G3 X-134.0995 Y-114.6241 I1.0668 J-2.4803
G2 X-138.8566 Y-116.0073 I-7.6263 J17.3551
G3 X-138.8656 Y-116.0087 I0.4087 J-2.6689
G2 X-144.0763 Y-116.3992 I-5.0237 J32.081
G3 X-144.0918 Y-116.3991 I-0.0155 J-2.7
G1 X-171.3674
G1 Y-116.0569
G1 X-144.4807
G3 X-138.403 Y-115.4728 I0.2723 J29.0751
G3 X-138.4009 Y-115.4723 I-0.5391 J2.6456
G3 X-133.6889 Y-113.7815 I-3.5277 J17.2421
G3 X-128.1585 Y-107.9696 I-5.8803 J11.1327
G3 X-128.1307 Y-107.9079 I-2.447 J1.141
G3 X-127.3447 Y-105.7118 I-15.8346 J6.9064
G1 F300.0 X-126.1694 Y-105.9542
G2 F800.0 X-126.808 Y-108.3414 I-20.8726 J4.3051
G2 X-133.606 Y-115.718 I-11.6574 J3.9223
G3 X-133.6168 Y-115.7227 I0.5926 J-1.378
G2 X-138.6749 Y-117.1935 I-8.109 J18.4537
G3 X-138.68 Y-117.1943 I0.227 J-1.4827
G2 X-144.0832 Y-117.5991 I-5.2094 J33.2666
G3 X-144.0918 I-0.0086 J-1.5
G1 X-172.5674
G1 Y-114.8569
G1 X-144.475
G3 X-138.6426 Y-114.2969 I0.2666 J27.8751
G3 X-138.6414 Y-114.2967 I-0.2995 J1.4698
G3 X-134.25 Y-112.7208 I-3.2871 J16.0665
G3 X-129.2461 Y-107.4624 I-5.3192 J10.0719
G3 X-129.2306 Y-107.4282 I-1.3595 J0.6339
G3 X-127.8942 Y-100.6382 I-14.7347 J6.4266
G3 X-128.9067 Y-94.7305 I-16.1079 J0.2799
G3 X-128.9177 Y-94.7019 I-1.4055 J-0.524
G3 X-135.5147 Y-88.2578 I-10.5166 J-4.1673
G3 X-139.733 Y-87.1582 I-6.7605 J-17.2947
G3 X-143.9589 Y-86.8716 I-4.081 J-28.8695
G1 X-172.5674
G1 Y-84.1294
G1 X-144.8779
G3 X-144.861 Y-84.1293 I0.0 J1.5
G2 X-137.3883 Y-84.9285 I0.3599 J-31.9691
G2 X-132.2755 Y-86.9948 I-3.9413 J-17.111
G2 X-127.1528 Y-93.0606 I-6.6055 J-10.7744
G3 X-127.1506 Y-93.0662 I1.392 J0.5589
G2 X-126.052 Y-97.0354 I-16.5142 J-6.7073
G3 X-126.0517 Y-97.0373 I1.4822 J0.2304
G2 X-125.7334 Y-101.2503 I-26.0839 J-4.0894
G3 X-125.7332 Y-101.2831 I1.5 J-0.007
G2 X-126.1694 Y-105.9542 I-21.3088 J-0.366
G1 F300.0 X-127.3447 Y-105.7118
G1 Z-1.2
G2 F800.0 X-127.9464 Y-107.9616 I-19.6973 J4.0627
G2 X-134.0801 Y-114.6156 I-10.5191 J3.5426
G3 X-134.0995 Y-114.6241 I1.0668 J-2.4803
G2 X-138.8566 Y-116.0073 I-7.6263 J17.3551
G3 X-138.8656 Y-116.0087 I0.4087 J-2.6689
G2 X-144.0763 Y-116.3992 I-5.0237 J32.081
G3 X-144.0918 Y-116.3991 I-0.0155 J-2.7
G1 X-171.3674
G1 Y-116.0569
G1 X-144.4807
G3 X-138.403 Y-115.4728 I0.2723 J29.0751
G3 X-138.4009 Y-115.4723 I-0.5391 J2.6456
G3 X-133.6889 Y-113.7815 I-3.5277 J17.2421
G3 X-128.1585 Y-107.9696 I-5.8803 J11.1327
G3 X-128.1307 Y-107.9079 I-2.447 J1.141
G3 X-127.3447 Y-105.7118 I-15.8346 J6.9064
G0 Z3.0
G0 X-129.2401 Y-91.6143
G0 Z0.4
G1 F300.0 Z-1.2
G3 F800.0 X-135.0882 Y-87.1361 I-10.1942 J-7.2548
G3 X-139.5669 Y-85.9698 I-7.187 J-18.4164
G3 X-143.9618 Y-85.6716 I-4.2471 J-30.058
G1 X-171.3674
G1 Y-85.3294
G1 X-144.8779
G3 X-144.8475 Y-85.3292 I0.0 J2.7
G2 X-137.6565 Y-86.0982 I0.3464 J-30.7692
G2 X-132.8985 Y-88.0204 I-3.6731 J-15.9413
G2 X-129.2401 Y-91.6143 I-5.9824 J-9.7488
G1 F300.0 X-128.2287 Y-90.9686
G2 F800.0 X-127.1528 Y-93.0606 I-10.6523 J-6.8006
G3 X-127.1506 Y-93.0662 I1.392 J0.5589
G2 X-126.052 Y-97.0354 I-16.5142 J-6.7073
G3 X-126.0517 Y-97.0373 I1.4822 J0.2304
G2 X-125.7334 Y-101.2503 I-26.0839 J-4.0894
G3 X-125.7332 Y-101.2831 I1.5 J-0.007
G2 X-126.808 Y-108.3414 I-21.3088 J-0.366
G2 X-133.606 Y-115.718 I-11.6574 J3.9223
G3 X-133.6168 Y-115.7227 I0.5926 J-1.378
G2 X-138.6749 Y-117.1935 I-8.109 J18.4537
G3 X-138.68 Y-117.1943 I0.227 J-1.4827
G2 X-144.0832 Y-117.5991 I-5.2094 J33.2666
G3 X-144.0918 I-0.0086 J-1.5
G1 X-172.5674
G1 Y-114.8569
G1 X-144.475
G3 X-138.6426 Y-114.2969 I0.2666 J27.8751
G3 X-138.6414 Y-114.2967 I-0.2995 J1.4698
G3 X-134.25 Y-112.7208 I-3.2871 J16.0665
G3 X-129.2461 Y-107.4624 I-5.3192 J10.0719
G3 X-129.2306 Y-107.4282 I-1.3595 J0.6339
G3 X-127.8942 Y-100.6382 I-14.7347 J6.4266
G3 X-128.9067 Y-94.7305 I-16.1079 J0.2799
G3 X-128.9177 Y-94.7019 I-1.4055 J-0.524
G3 X-135.5147 Y-88.2578 I-10.5166 J-4.1673
G3 X-139.733 Y-87.1582 I-6.7605 J-17.2947
G3 X-143.9589 Y-86.8716 I-4.081 J-28.8695
G1 X-172.5674
G1 Y-84.1294
G1 X-144.8779
G3 X-144.861 Y-84.1293 I0.0 J1.5
G2 X-137.3883 Y-84.9285 I0.3599 J-31.9691
G2 X-132.2755 Y-86.9948 I-3.9413 J-17.111
G2 X-128.2287 Y-90.9686 I-6.6055 J-10.7744
G1 F300.0 X-129.2401 Y-91.6143
G1 Z-1.8
G3 F800.0 X-135.0882 Y-87.1361 I-10.1942 J-7.2548
G3 X-139.5669 Y-85.9698 I-7.187 J-18.4164
G3 X-143.9618 Y-85.6716 I-4.2471 J-30.058
G1 X-171.3674
G1 Y-85.3294
G1 X-144.8779
G3 X-144.8475 Y-85.3292 I0.0 J2.7
G2 X-137.6565 Y-86.0982 I0.3464 J-30.7692
G2 X-132.8985 Y-88.0204 I-3.6731 J-15.9413
G2 X-129.2401 Y-91.6143 I-5.9824 J-9.7488
G0 Z3.0
G0 X-127.3447 Y-105.7118
G0 Z-0.2
G1 F300.0 Z-1.8
G2 F800.0 X-127.9464 Y-107.9616 I-19.6973 J4.0627
G2 X-134.0801 Y-114.6156 I-10.5191 J3.5426
G3 X-134.0995 Y-114.6241 I1.0668 J-2.4803
G2 X-138.8566 Y-116.0073 I-7.6263 J17.3551
G3 X-138.8656 Y-116.0087 I0.4087 J-2.6689
G2 X-144.0763 Y-116.3992 I-5.0237 J32.081
G3 X-144.0918 Y-116.3991 I-0.0155 J-2.7
G1 X-171.3674
G1 Y-116.0569
G1 X-144.4807
G3 X-138.403 Y-115.4728 I0.2723 J29.0751
G3 X-138.4009 Y-115.4723 I-0.5391 J2.6456
G3 X-133.6889 Y-113.7815 I-3.5277 J17.2421
G3 X-128.1585 Y-107.9696 I-5.8803 J11.1327
G3 X-128.1307 Y-107.9079 I-2.447 J1.141
G3 X-127.3447 Y-105.7118 I-15.8346 J6.9064
G1 F300.0 X-126.1694 Y-105.9542
G2 F800.0 X-126.808 Y-108.3414 I-20.8726 J4.3051
G2 X-133.606 Y-115.718 I-11.6574 J3.9223
G3 X-133.6168 Y-115.7227 I0.5926 J-1.378
G2 X-138.6749 Y-117.1935 I-8.109 J18.4537
G3 X-138.68 Y-117.1943 I0.227 J-1.4827
G2 X-144.0832 Y-117.5991 I-5.2094 J33.2666
G3 X-144.0918 I-0.0086 J-1.5
G1 X-172.5674
G1 Y-114.8569
G1 X-144.475
G3 X-138.6426 Y-114.2969 I0.2666 J27.8751
G3 X-138.6414 Y-114.2967 I-0.2995 J1.4698
G3 X-134.25 Y-112.7208 I-3.2871 J16.0665
G3 X-129.2461 Y-107.4624 I-5.3192 J10.0719
G3 X-129.2306 Y-107.4282 I-1.3595 J0.6339
G3 X-127.8942 Y-100.6382 I-14.7347 J6.4266
G3 X-128.9067 Y-94.7305 I-16.1079 J0.2799
G3 X-128.9177 Y-94.7019 I-1.4055 J-0.524
G3 X-135.5147 Y-88.2578 I-10.5166 J-4.1673
G3 X-139.733 Y-87.1582 I-6.7605 J-17.2947
G3 X-143.9589 Y-86.8716 I-4.081 J-28.8695
G1 X-172.5674
G1 Y-84.1294
G1 X-144.8779
G3 X-144.861 Y-84.1293 I0.0 J1.5
G2 X-137.3883 Y-84.9285 I0.3599 J-31.9691
G2 X-132.2755 Y-86.9948 I-3.9413 J-17.111
G2 X-127.1528 Y-93.0606 I-6.6055 J-10.7744
G3 X-127.1506 Y-93.0662 I1.392 J0.5589
G2 X-126.052 Y-97.0354 I-16.5142 J-6.7073
G3 X-126.0517 Y-97.0373 I1.4822 J0.2304
G2 X-125.7334 Y-101.2503 I-26.0839 J-4.0894
G3 X-125.7332 Y-101.2831 I1.5 J-0.007
G2 X-126.1694 Y-105.9542 I-21.3088 J-0.366
G1 F300.0 X-127.3447 Y-105.7118
G1 Z-2.4
G2 F800.0 X-127.9464 Y-107.9616 I-19.6973 J4.0627
G2 X-134.0801 Y-114.6156 I-10.5191 J3.5426
G3 X-134.0995 Y-114.6241 I1.0668 J-2.4803
G2 X-138.8566 Y-116.0073 I-7.6263 J17.3551
G3 X-138.8656 Y-116.0087 I0.4087 J-2.6689
G2 X-144.0763 Y-116.3992 I-5.0237 J32.081
G3 X-144.0918 Y-116.3991 I-0.0155 J-2.7
G1 X-171.3674
G1 Y-116.0569
G1 X-144.4807
G3 X-138.403 Y-115.4728 I0.2723 J29.0751
G3 X-138.4009 Y-115.4723 I-0.5391 J2.6456
G3 X-133.6889 Y-113.7815 I-3.5277 J17.2421
G3 X-128.1585 Y-107.9696 I-5.8803 J11.1327
G3 X-128.1307 Y-107.9079 I-2.447 J1.141
G3 X-127.3447 Y-105.7118 I-15.8346 J6.9064
G0 Z3.0
G0 X-129.2401 Y-91.6143
G0 Z-0.8
G1 F300.0 Z-2.4
G3 F800.0 X-135.0882 Y-87.1361 I-10.1942 J-7.2548
G3 X-139.5669 Y-85.9698 I-7.187 J-18.4164
G3 X-143.9618 Y-85.6716 I-4.2471 J-30.058
G1 X-171.3674
G1 Y-85.3294
G1 X-144.8779
G3 X-144.8475 Y-85.3292 I0.0 J2.7
G2 X-137.6565 Y-86.0982 I0.3464 J-30.7692
G2 X-132.8985 Y-88.0204 I-3.6731 J-15.9413
G2 X-129.2401 Y-91.6143 I-5.9824 J-9.7488
G1 F300.0 X-128.2287 Y-90.9686
G2 F800.0 X-127.1528 Y-93.0606 I-10.6523 J-6.8006
G3 X-127.1506 Y-93.0662 I1.392 J0.5589
G2 X-126.052 Y-97.0354 I-16.5142 J-6.7073
G3 X-126.0517 Y-97.0373 I1.4822 J0.2304
G2 X-125.7334 Y-101.2503 I-26.0839 J-4.0894
G3 X-125.7332 Y-101.2831 I1.5 J-0.007
G2 X-126.808 Y-108.3414 I-21.3088 J-0.366
G2 X-133.606 Y-115.718 I-11.6574 J3.9223
G3 X-133.6168 Y-115.7227 I0.5926 J-1.378
G2 X-138.6749 Y-117.1935 I-8.109 J18.4537
G3 X-138.68 Y-117.1943 I0.227 J-1.4827
G2 X-144.0832 Y-117.5991 I-5.2094 J33.2666
G3 X-144.0918 I-0.0086 J-1.5
G1 X-172.5674
G1 Y-114.8569
G1 X-144.475
G3 X-138.6426 Y-114.2969 I0.2666 J27.8751
G3 X-138.6414 Y-114.2967 I-0.2995 J1.4698
G3 X-134.25 Y-112.7208 I-3.2871 J16.0665
G3 X-129.2461 Y-107.4624 I-5.3192 J10.0719
G3 X-129.2306 Y-107.4282 I-1.3595 J0.6339
G3 X-127.8942 Y-100.6382 I-14.7347 J6.4266
G3 X-128.9067 Y-94.7305 I-16.1079 J0.2799
G3 X-128.9177 Y-94.7019 I-1.4055 J-0.524
G3 X-135.5147 Y-88.2578 I-10.5166 J-4.1673
G3 X-139.733 Y-87.1582 I-6.7605 J-17.2947
G3 X-143.9589 Y-86.8716 I-4.081 J-28.8695
G1 X-172.5674
G1 Y-84.1294
G1 X-144.8779
G3 X-144.861 Y-84.1293 I0.0 J1.5
G2 X-137.3883 Y-84.9285 I0.3599 J-31.9691
G2 X-132.2755 Y-86.9948 I-3.9413 J-17.111
G2 X-128.2287 Y-90.9686 I-6.6055 J-10.7744
G1 F300.0 X-129.2401 Y-91.6143
G1 Z-3.0
G3 F800.0 X-135.0882 Y-87.1361 I-10.1942 J-7.2548
G3 X-139.5669 Y-85.9698 I-7.187 J-18.4164
G3 X-143.9618 Y-85.6716 I-4.2471 J-30.058
G1 X-171.3674
G1 Y-85.3294
G1 X-144.8779
G3 X-144.8475 Y-85.3292 I0.0 J2.7
G2 X-137.6565 Y-86.0982 I0.3464 J-30.7692
G2 X-132.8985 Y-88.0204 I-3.6731 J-15.9413
G2 X-129.2401 Y-91.6143 I-5.9824 J-9.7488
G0 Z3.0
G0 X-127.3447 Y-105.7118
G0 Z-1.4
G1 F300.0 Z-3.0
G2 F800.0 X-127.9464 Y-107.9616 I-19.6973 J4.0627
G2 X-134.0801 Y-114.6156 I-10.5191 J3.5426
G3 X-134.0995 Y-114.6241 I1.0668 J-2.4803
G2 X-138.8566 Y-116.0073 I-7.6263 J17.3551
G3 X-138.8656 Y-116.0087 I0.4087 J-2.6689
G2 X-144.0763 Y-116.3992 I-5.0237 J32.081
G3 X-144.0918 Y-116.3991 I-0.0155 J-2.7
G1 X-171.3674
G1 Y-116.0569
G1 X-144.4807
G3 X-138.403 Y-115.4728 I0.2723 J29.0751
G3 X-138.4009 Y-115.4723 I-0.5391 J2.6456
G3 X-133.6889 Y-113.7815 I-3.5277 J17.2421
G3 X-128.1585 Y-107.9696 I-5.8803 J11.1327
G3 X-128.1307 Y-107.9079 I-2.447 J1.141
G3 X-127.3447 Y-105.7118 I-15.8346 J6.9064
G1 F300.0 X-126.1694 Y-105.9542
G2 F800.0 X-126.808 Y-108.3414 I-20.8726 J4.3051
G2 X-133.606 Y-115.718 I-11.6574 J3.9223
G3 X-133.6168 Y-115.7227 I0.5926 J-1.378
G2 X-138.6749 Y-117.1935 I-8.109 J18.4537
G3 X-138.68 Y-117.1943 I0.227 J-1.4827
G2 X-144.0832 Y-117.5991 I-5.2094 J33.2666
G3 X-144.0918 I-0.0086 J-1.5
G1 X-172.5674
G1 Y-114.8569
G1 X-144.475
G3 X-138.6426 Y-114.2969 I0.2666 J27.8751
G3 X-138.6414 Y-114.2967 I-0.2995 J1.4698
G3 X-134.25 Y-112.7208 I-3.2871 J16.0665
G3 X-129.2461 Y-107.4624 I-5.3192 J10.0719
G3 X-129.2306 Y-107.4282 I-1.3595 J0.6339
G3 X-127.8942 Y-100.6382 I-14.7347 J6.4266
G3 X-128.9067 Y-94.7305 I-16.1079 J0.2799
G3 X-128.9177 Y-94.7019 I-1.4055 J-0.524
G3 X-135.5147 Y-88.2578 I-10.5166 J-4.1673
G3 X-139.733 Y-87.1582 I-6.7605 J-17.2947
G3 X-143.9589 Y-86.8716 I-4.081 J-28.8695
G1 X-172.5674
G1 Y-84.1294
G1 X-144.8779
G3 X-144.861 Y-84.1293 I0.0 J1.5
G2 X-137.3883 Y-84.9285 I0.3599 J-31.9691
G2 X-132.2755 Y-86.9948 I-3.9413 J-17.111
G2 X-127.1528 Y-93.0606 I-6.6055 J-10.7744
G3 X-127.1506 Y-93.0662 I1.392 J0.5589
G2 X-126.052 Y-97.0354 I-16.5142 J-6.7073
G3 X-126.0517 Y-97.0373 I1.4822 J0.2304
G2 X-125.7334 Y-101.2503 I-26.0839 J-4.0894
G3 X-125.7332 Y-101.2831 I1.5 J-0.007
G2 X-126.1694 Y-105.9542 I-21.3088 J-0.366
G1 F300.0 X-127.3447 Y-105.7118
G1 Z-3.6
G2 F800.0 X-127.9464 Y-107.9616 I-19.6973 J4.0627
G2 X-134.0801 Y-114.6156 I-10.5191 J3.5426
G3 X-134.0995 Y-114.6241 I1.0668 J-2.4803
G2 X-138.8566 Y-116.0073 I-7.6263 J17.3551
G3 X-138.8656 Y-116.0087 I0.4087 J-2.6689
G2 X-144.0763 Y-116.3992 I-5.0237 J32.081
G3 X-144.0918 Y-116.3991 I-0.0155 J-2.7
G1 X-171.3674
G1 Y-116.0569
G1 X-144.4807
G3 X-138.403 Y-115.4728 I0.2723 J29.0751
G3 X-138.4009 Y-115.4723 I-0.5391 J2.6456
G3 X-133.6889 Y-113.7815 I-3.5277 J17.2421
G3 X-128.1585 Y-107.9696 I-5.8803 J11.1327
G3 X-128.1307 Y-107.9079 I-2.447 J1.141
G3 X-127.3447 Y-105.7118 I-15.8346 J6.9064
G0 Z3.0
G0 X-129.2401 Y-91.6143
G0 Z-2.0
G1 F300.0 Z-3.6
G3 F800.0 X-135.0882 Y-87.1361 I-10.1942 J-7.2548
G3 X-139.5669 Y-85.9698 I-7.187 J-18.4164
G3 X-143.9618 Y-85.6716 I-4.2471 J-30.058
G1 X-171.3674
G1 Y-85.3294
G1 X-144.8779
G3 X-144.8475 Y-85.3292 I0.0 J2.7
G2 X-137.6565 Y-86.0982 I0.3464 J-30.7692
G2 X-132.8985 Y-88.0204 I-3.6731 J-15.9413
G2 X-129.2401 Y-91.6143 I-5.9824 J-9.7488
G1 F300.0 X-128.2287 Y-90.9686
G2 F800.0 X-127.1528 Y-93.0606 I-10.6523 J-6.8006
G3 X-127.1506 Y-93.0662 I1.392 J0.5589
G2 X-126.052 Y-97.0354 I-16.5142 J-6.7073
G3 X-126.0517 Y-97.0373 I1.4822 J0.2304
G2 X-125.7334 Y-101.2503 I-26.0839 J-4.0894
G3 X-125.7332 Y-101.2831 I1.5 J-0.007
G2 X-126.808 Y-108.3414 I-21.3088 J-0.366
G2 X-133.606 Y-115.718 I-11.6574 J3.9223
G3 X-133.6168 Y-115.7227 I0.5926 J-1.378
G2 X-138.6749 Y-117.1935 I-8.109 J18.4537
G3 X-138.68 Y-117.1943 I0.227 J-1.4827
G2 X-144.0832 Y-117.5991 I-5.2094 J33.2666
G3 X-144.0918 I-0.0086 J-1.5
G1 X-172.5674
G1 Y-114.8569
G1 X-144.475
G3 X-138.6426 Y-114.2969 I0.2666 J27.8751
G3 X-138.6414 Y-114.2967 I-0.2995 J1.4698
G3 X-134.25 Y-112.7208 I-3.2871 J16.0665
G3 X-129.2461 Y-107.4624 I-5.3192 J10.0719
G3 X-129.2306 Y-107.4282 I-1.3595 J0.6339
G3 X-127.8942 Y-100.6382 I-14.7347 J6.4266
G3 X-128.9067 Y-94.7305 I-16.1079 J0.2799
G3 X-128.9177 Y-94.7019 I-1.4055 J-0.524
G3 X-135.5147 Y-88.2578 I-10.5166 J-4.1673
G3 X-139.733 Y-87.1582 I-6.7605 J-17.2947
G3 X-143.9589 Y-86.8716 I-4.081 J-28.8695
G1 X-172.5674
G1 Y-84.1294
G1 X-144.8779
G3 X-144.861 Y-84.1293 I0.0 J1.5
G2 X-137.3883 Y-84.9285 I0.3599 J-31.9691
G2 X-132.2755 Y-86.9948 I-3.9413 J-17.111
G2 X-128.2287 Y-90.9686 I-6.6055 J-10.7744
G1 F300.0 X-129.2401 Y-91.6143
G1 Z-4.2
G3 F800.0 X-135.0882 Y-87.1361 I-10.1942 J-7.2548
G3 X-139.5669 Y-85.9698 I-7.187 J-18.4164
G3 X-143.9618 Y-85.6716 I-4.2471 J-30.058
G1 X-171.3674
G1 Y-85.3294
G1 X-144.8779
G3 X-144.8475 Y-85.3292 I0.0 J2.7
G2 X-137.6565 Y-86.0982 I0.3464 J-30.7692
G2 X-132.8985 Y-88.0204 I-3.6731 J-15.9413
G2 X-129.2401 Y-91.6143 I-5.9824 J-9.7488
G0 Z3.0
G0 X-127.3447 Y-105.7118
G0 Z-2.6
G1 F300.0 Z-4.2
G2 F800.0 X-127.9464 Y-107.9616 I-19.6973 J4.0627
G2 X-134.0801 Y-114.6156 I-10.5191 J3.5426
G3 X-134.0995 Y-114.6241 I1.0668 J-2.4803
G2 X-138.8566 Y-116.0073 I-7.6263 J17.3551
G3 X-138.8656 Y-116.0087 I0.4087 J-2.6689
G2 X-144.0763 Y-116.3992 I-5.0237 J32.081
G3 X-144.0918 Y-116.3991 I-0.0155 J-2.7
G1 X-171.3674
G1 Y-116.0569
G1 X-144.4807
G3 X-138.403 Y-115.4728 I0.2723 J29.0751
G3 X-138.4009 Y-115.4723 I-0.5391 J2.6456
G3 X-133.6889 Y-113.7815 I-3.5277 J17.2421
G3 X-128.1585 Y-107.9696 I-5.8803 J11.1327
G3 X-128.1307 Y-107.9079 I-2.447 J1.141
G3 X-127.3447 Y-105.7118 I-15.8346 J6.9064
G1 F300.0 X-126.1694 Y-105.9542
G2 F800.0 X-126.808 Y-108.3414 I-20.8726 J4.3051
G2 X-133.606 Y-115.718 I-11.6574 J3.9223
G3 X-133.6168 Y-115.7227 I0.5926 J-1.378
G2 X-138.6749 Y-117.1935 I-8.109 J18.4537
G3 X-138.68 Y-117.1943 I0.227 J-1.4827
G2 X-144.0832 Y-117.5991 I-5.2094 J33.2666
G3 X-144.0918 I-0.0086 J-1.5
G1 X-172.5674
G1 Y-114.8569
G1 X-144.475
G3 X-138.6426 Y-114.2969 I0.2666 J27.8751
G3 X-138.6414 Y-114.2967 I-0.2995 J1.4698
G3 X-134.25 Y-112.7208 I-3.2871 J16.0665
G3 X-129.2461 Y-107.4624 I-5.3192 J10.0719
G3 X-129.2306 Y-107.4282 I-1.3595 J0.6339
G3 X-127.8942 Y-100.6382 I-14.7347 J6.4266
G3 X-128.9067 Y-94.7305 I-16.1079 J0.2799
G3 X-128.9177 Y-94.7019 I-1.4055 J-0.524
G3 X-135.5147 Y-88.2578 I-10.5166 J-4.1673
G3 X-139.733 Y-87.1582 I-6.7605 J-17.2947
G3 X-143.9589 Y-86.8716 I-4.081 J-28.8695
G1 X-172.5674
G1 Y-84.1294
G1 X-144.8779
G3 X-144.861 Y-84.1293 I0.0 J1.5
G2 X-137.3883 Y-84.9285 I0.3599 J-31.9691
G2 X-132.2755 Y-86.9948 I-3.9413 J-17.111
G2 X-127.1528 Y-93.0606 I-6.6055 J-10.7744
G3 X-127.1506 Y-93.0662 I1.392 J0.5589
G2 X-126.052 Y-97.0354 I-16.5142 J-6.7073
G3 X-126.0517 Y-97.0373 I1.4822 J0.2304
G2 X-125.7334 Y-101.2503 I-26.0839 J-4.0894
G3 X-125.7332 Y-101.2831 I1.5 J-0.007
G2 X-126.1694 Y-105.9542 I-21.3088 J-0.366
G1 F300.0 X-127.3447 Y-105.7118
G1 Z-4.8
G2 F800.0 X-127.9464 Y-107.9616 I-19.6973 J4.0627
G2 X-134.0801 Y-114.6156 I-10.5191 J3.5426
G3 X-134.0995 Y-114.6241 I1.0668 J-2.4803
G2 X-138.8566 Y-116.0073 I-7.6263 J17.3551
G3 X-138.8656 Y-116.0087 I0.4087 J-2.6689
G2 X-144.0763 Y-116.3992 I-5.0237 J32.081
G3 X-144.0918 Y-116.3991 I-0.0155 J-2.7
G1 X-171.3674
G1 Y-116.0569
G1 X-144.4807
G3 X-138.403 Y-115.4728 I0.2723 J29.0751
G3 X-138.4009 Y-115.4723 I-0.5391 J2.6456
G3 X-133.6889 Y-113.7815 I-3.5277 J17.2421
G3 X-128.1585 Y-107.9696 I-5.8803 J11.1327
G3 X-128.1307 Y-107.9079 I-2.447 J1.141
G3 X-127.3447 Y-105.7118 I-15.8346 J6.9064
G0 Z3.0
G0 X-129.2401 Y-91.6143
G0 Z-3.2
G1 F300.0 Z-4.8
G3 F800.0 X-135.0882 Y-87.1361 I-10.1942 J-7.2548
G3 X-139.5669 Y-85.9698 I-7.187 J-18.4164
G3 X-143.9618 Y-85.6716 I-4.2471 J-30.058
G1 X-171.3674
G1 Y-85.3294
G1 X-144.8779
G3 X-144.8475 Y-85.3292 I0.0 J2.7
G2 X-137.6565 Y-86.0982 I0.3464 J-30.7692
G2 X-132.8985 Y-88.0204 I-3.6731 J-15.9413
G2 X-129.2401 Y-91.6143 I-5.9824 J-9.7488
G1 F300.0 X-128.2287 Y-90.9686
G2 F800.0 X-127.1528 Y-93.0606 I-10.6523 J-6.8006
G3 X-127.1506 Y-93.0662 I1.392 J0.5589
G2 X-126.052 Y-97.0354 I-16.5142 J-6.7073
G3 X-126.0517 Y-97.0373 I1.4822 J0.2304
G2 X-125.7334 Y-101.2503 I-26.0839 J-4.0894
G3 X-125.7332 Y-101.2831 I1.5 J-0.007
G2 X-126.808 Y-108.3414 I-21.3088 J-0.366
G2 X-133.606 Y-115.718 I-11.6574 J3.9223
G3 X-133.6168 Y-115.7227 I0.5926 J-1.378
G2 X-138.6749 Y-117.1935 I-8.109 J18.4537
G3 X-138.68 Y-117.1943 I0.227 J-1.4827
G2 X-144.0832 Y-117.5991 I-5.2094 J33.2666
G3 X-144.0918 I-0.0086 J-1.5
G1 X-172.5674
G1 Y-114.8569
G1 X-144.475
G3 X-138.6426 Y-114.2969 I0.2666 J27.8751
G3 X-138.6414 Y-114.2967 I-0.2995 J1.4698
G3 X-134.25 Y-112.7208 I-3.2871 J16.0665
G3 X-129.2461 Y-107.4624 I-5.3192 J10.0719
G3 X-129.2306 Y-107.4282 I-1.3595 J0.6339
G3 X-127.8942 Y-100.6382 I-14.7347 J6.4266
G3 X-128.9067 Y-94.7305 I-16.1079 J0.2799
G3 X-128.9177 Y-94.7019 I-1.4055 J-0.524
G3 X-135.5147 Y-88.2578 I-10.5166 J-4.1673
G3 X-139.733 Y-87.1582 I-6.7605 J-17.2947
G3 X-143.9589 Y-86.8716 I-4.081 J-28.8695
G1 X-172.5674
G1 Y-84.1294
G1 X-144.8779
G3 X-144.861 Y-84.1293 I0.0 J1.5
G2 X-137.3883 Y-84.9285 I0.3599 J-31.9691
G2 X-132.2755 Y-86.9948 I-3.9413 J-17.111
G2 X-128.2287 Y-90.9686 I-6.6055 J-10.7744
G1 F300.0 X-129.2401 Y-91.6143
G1 Z-5.0
G3 F800.0 X-135.0882 Y-87.1361 I-10.1942 J-7.2548
G3 X-139.5669 Y-85.9698 I-7.187 J-18.4164
G3 X-143.9618 Y-85.6716 I-4.2471 J-30.058
G1 X-171.3674
G1 Y-85.3294
G1 X-144.8779
G3 X-144.8475 Y-85.3292 I0.0 J2.7
G2 X-137.6565 Y-86.0982 I0.3464 J-30.7692
G2 X-132.8985 Y-88.0204 I-3.6731 J-15.9413
G2 X-129.2401 Y-91.6143 I-5.9824 J-9.7488
G0 Z3.0
G0 X-127.3447 Y-105.7118
G0 Z-3.8
G1 F300.0 Z-5.0
G2 F800.0 X-127.9464 Y-107.9616 I-19.6973 J4.0627
G2 X-134.0801 Y-114.6156 I-10.5191 J3.5426
G3 X-134.0995 Y-114.6241 I1.0668 J-2.4803
G2 X-138.8566 Y-116.0073 I-7.6263 J17.3551
G3 X-138.8656 Y-116.0087 I0.4087 J-2.6689
G2 X-144.0763 Y-116.3992 I-5.0237 J32.081
G3 X-144.0918 Y-116.3991 I-0.0155 J-2.7
G1 X-171.3674
G1 Y-116.0569
G1 X-144.4807
G3 X-138.403 Y-115.4728 I0.2723 J29.0751
G3 X-138.4009 Y-115.4723 I-0.5391 J2.6456
G3 X-133.6889 Y-113.7815 I-3.5277 J17.2421
G3 X-128.1585 Y-107.9696 I-5.8803 J11.1327
G3 X-128.1307 Y-107.9079 I-2.447 J1.141
G3 X-127.3447 Y-105.7118 I-15.8346 J6.9064
G1 F300.0 X-126.1694 Y-105.9542
G2 F800.0 X-126.808 Y-108.3414 I-20.8726 J4.3051
G2 X-133.606 Y-115.718 I-11.6574 J3.9223
G3 X-133.6168 Y-115.7227 I0.5926 J-1.378
G2 X-138.6749 Y-117.1935 I-8.109 J18.4537
G3 X-138.68 Y-117.1943 I0.227 J-1.4827
G2 X-144.0832 Y-117.5991 I-5.2094 J33.2666
G3 X-144.0918 I-0.0086 J-1.5
G1 X-172.5674
G1 Y-114.8569
G1 X-144.475
G3 X-138.6426 Y-114.2969 I0.2666 J27.8751
G3 X-138.6414 Y-114.2967 I-0.2995 J1.4698
G3 X-134.25 Y-112.7208 I-3.2871 J16.0665
G3 X-129.2461 Y-107.4624 I-5.3192 J10.0719
G3 X-129.2306 Y-107.4282 I-1.3595 J0.6339
G3 X-127.8942 Y-100.6382 I-14.7347 J6.4266
G3 X-128.9067 Y-94.7305 I-16.1079 J0.2799
G3 X-128.9177 Y-94.7019 I-1.4055 J-0.524
G3 X-135.5147 Y-88.2578 I-10.5166 J-4.1673
G3 X-139.733 Y-87.1582 I-6.7605 J-17.2947
G3 X-143.9589 Y-86.8716 I-4.081 J-28.8695
G1 X-172.5674
G1 Y-84.1294
G1 X-144.8779
G3 X-144.861 Y-84.1293 I0.0 J1.5
G2 X-137.3883 Y-84.9285 I0.3599 J-31.9691
G2 X-132.2755 Y-86.9948 I-3.9413 J-17.111
G2 X-127.1528 Y-93.0606 I-6.6055 J-10.7744
G3 X-127.1506 Y-93.0662 I1.392 J0.5589
G2 X-126.052 Y-97.0354 I-16.5142 J-6.7073
G3 X-126.0517 Y-97.0373 I1.4822 J0.2304
G2 X-125.7334 Y-101.2503 I-26.0839 J-4.0894
G3 X-125.7332 Y-101.2831 I1.5 J-0.007
G2 X-126.1694 Y-105.9542 I-21.3088 J-0.366
G0 Z3.0
G0 X-71.1115 Y-88.6769
G0 Z1.0
G1 F300.0 Z-0.6
G3 F800.0 X-70.7939 Y-88.9734 I13.7755 J14.4368
G3 X-62.9854 Y-93.6088 I14.64 J15.7672
G3 X-62.9653 Y-93.6154 I0.8573 J2.5603
G3 X-54.2687 Y-94.9512 I8.4129 J25.7956
G3 X-45.738 Y-93.7907 I0.3341 J29.4795
G3 X-45.7306 Y-93.7885 I-0.7507 J2.5935
G3 X-37.8263 Y-89.3646 I-5.6841 J19.4291
G3 X-37.8154 Y-89.3547 I-1.8124 J2.0013
G3 X-33.0216 Y-82.2542 I-12.3923 J13.5351
G3 X-33.0108 Y-82.2251 I-2.5286 J0.9467
G3 X-32.8478 Y-81.7583 I-21.6808 J7.8344
G2 X-33.2894 Y-83.082 I-22.009 J6.6069
G2 X-37.8064 Y-89.8487 I-17.1997 J6.5904
G3 X-37.8117 Y-89.8537 I1.8591 J-1.958
G2 X-45.1054 Y-94.2451 I-13.4538 J14.0925
G2 X-53.824 Y-95.5668 I-8.3821 J25.8764
G3 X-53.8895 I-0.0334 J-2.6998
G2 X-62.9981 Y-94.0452 I-0.3109 J26.1632
G2 X-70.6152 Y-89.1749 I7.3975 J19.9609
G3 X-70.6369 Y-89.1534 I-1.9044 J-1.914
G2 X-71.1115 Y-88.6769 I14.7365 J15.1502
G0 Z3.0
G0 X-76.6596 Y-66.7001
G0 Z1.0
G1 F300.0 Z-0.6
G2 F800.0 X-76.6147 Y-66.429 I36.411 J-5.9009
G3 X-76.6136 Y-66.4225 I-2.6619 J0.4518
G2 X-75.4469 Y-62.1043 I22.5 J-3.7623
G1 X-75.2791
G3 X-76.3898 Y-65.5183 I24.2098 J-9.7643
G3 X-76.3916 Y-65.5254 I2.6189 J-0.6568
G3 X-76.6596 Y-66.7001 I31.3083 J-7.7616
G0 Z3.0
G0 X-52.8664 Y-63.1241
G0 Z1.0
G1 F300.0 Z-0.6
G1 F800.0 Y-61.1131
G1 X-34.9795
G2 X-33.9225 Y-63.5159 I-26.9911 J-13.3076
G3 X-34.2541 Y-62.8742 I-18.617 J-9.2142
G3 X-36.6309 Y-61.4553 I-2.3767 J-1.2811
G1 X-50.3711
G3 X-52.8664 Y-63.1241 I0.0 J-2.7
G1 F300.0 X-54.0664
G1 F800.0 Y-59.9131
G1 X-34.2433
G2 X-30.6796 Y-74.8011 I-27.7274 J-14.5076
G3 Y-74.8387 I1.4999 J-0.0182
G2 X-32.1659 Y-83.5037 I-24.1773 J-0.3127
G2 X-36.9801 Y-90.7189 I-18.3232 J7.0122
G3 X-36.9831 Y-90.7217 I1.0328 J-1.0878
G2 X-44.7308 Y-95.3852 I-14.2824 J14.9605
G2 X-53.8389 Y-96.7667 I-8.7567 J27.0164
G3 X-53.8752 I-0.0186 J-1.4999
G2 X-63.4084 Y-95.173 I-0.3252 J27.3632
G2 X-71.4616 Y-90.0255 I7.8078 J21.0886
G3 X-71.4737 Y-90.0136 I-1.058 J-1.0633
G2 X-76.6826 Y-82.186 I15.5732 J16.0104
G2 X-78.3341 Y-72.8544 I23.8605 J9.0347
G3 X-78.334 Y-72.828 I-1.4999 J0.0175
G2 X-77.7977 Y-66.2282 I38.0854 J0.227
G3 X-77.7971 Y-66.2246 I-1.4789 J0.251
G2 X-76.26 Y-60.9043 I23.6836 J-3.9602
G1 X-73.4306
G3 X-75.2259 Y-65.8102 I22.3613 J-10.9643
G3 X-75.2269 Y-65.8141 I1.4549 J-0.3649
G3 X-76.1387 Y-73.4821 I30.1436 J-7.4729
G3 X-74.6657 Y-81.4101 I20.7506 J-0.2455
G3 X-74.6577 Y-81.4299 I1.3934 J0.5553
G3 X-69.981 Y-88.0907 I17.3217 J7.1897
G3 X-62.6044 Y-92.4709 I13.8271 J14.8845
G3 X-62.5932 Y-92.4746 I0.4763 J1.4224
G3 X-54.2682 Y-93.7511 I8.0408 J24.6547
G3 X-46.0717 Y-92.638 I0.3336 J28.2795
G3 X-46.0675 Y-92.6368 I-0.417 J1.4409
G3 X-38.6318 Y-88.4751 I-5.3472 J18.2774
G3 X-38.6257 Y-88.4696 I-1.0069 J1.1119
G3 X-34.1454 Y-81.8335 I-11.5819 J12.65
G3 X-34.1394 Y-81.8173 I-1.4048 J0.526
G3 X-32.8408 Y-74.0954 I-20.5522 J7.4266
G3 X-33.3919 Y-68.6745 I-25.5879 J0.1372
G3 X-33.3921 Y-68.6733 I-1.4677 J-0.3097
G3 X-35.3105 Y-63.4436 I-19.1474 J-4.0568
G3 X-36.6309 Y-62.6553 I-1.3204 J-0.7117
G1 X-50.3711
G3 X-51.8711 Y-64.1553 I0.0 J-1.5
G1 Y-73.3877
G1 X-54.0664
G1 Y-63.1241
G1 F300.0 X-52.8664
G1 Z-1.2
G1 F800.0 Y-61.1131
G1 X-34.9795
G2 X-33.9225 Y-63.5159 I-26.9911 J-13.3076
G3 X-34.2541 Y-62.8742 I-18.617 J-9.2142
G3 X-36.6309 Y-61.4553 I-2.3767 J-1.2811
G1 X-50.3711
G3 X-52.8664 Y-63.1241 I0.0 J-2.7
G0 Z3.0
G0 X-75.2791 Y-62.1043
G0 Z0.4
G1 F300.0 Z-1.2
G3 F800.0 X-76.3898 Y-65.5183 I24.2098 J-9.7643
G3 X-76.3916 Y-65.5254 I2.6189 J-0.6568
G3 X-76.6596 Y-66.7001 I31.3083 J-7.7616
G2 X-76.6147 Y-66.429 I36.411 J-5.9009
G3 X-76.6136 Y-66.4225 I-2.6619 J0.4518
G2 X-75.4469 Y-62.1043 I22.5 J-3.7623
G1 X-75.2791
G0 Z3.0
G0 X-71.1115 Y-88.6769
G0 Z0.4
G1 F300.0 Z-1.2
G3 F800.0 X-70.7939 Y-88.9734 I13.7755 J14.4368
G3 X-62.9854 Y-93.6088 I14.64 J15.7672
G3 X-62.9653 Y-93.6154 I0.8573 J2.5603
G3 X-54.2687 Y-94.9512 I8.4129 J25.7956
G3 X-45.738 Y-93.7907 I0.3341 J29.4795
G3 X-45.7306 Y-93.7885 I-0.7507 J2.5935
G3 X-37.8263 Y-89.3646 I-5.6841 J19.4291
G3 X-37.8154 Y-89.3547 I-1.8124 J2.0013
G3 X-33.0216 Y-82.2542 I-12.3923 J13.5351
G3 X-33.0108 Y-82.2251 I-2.5286 J0.9467
G3 X-32.8478 Y-81.7583 I-21.6808 J7.8344
G2 X-33.2894 Y-83.082 I-22.009 J6.6069
G2 X-37.8064 Y-89.8487 I-17.1997 J6.5904
G3 X-37.8117 Y-89.8537 I1.8591 J-1.958
G2 X-45.1054 Y-94.2451 I-13.4538 J14.0925
G2 X-53.824 Y-95.5668 I-8.3821 J25.8764
G3 X-53.8895 I-0.0334 J-2.6998
G2 X-62.9981 Y-94.0452 I-0.3109 J26.1632
G2 X-70.6152 Y-89.1749 I7.3975 J19.9609
G3 X-70.6369 Y-89.1534 I-1.9044 J-1.914
G2 X-71.1115 Y-88.6769 I14.7365 J15.1502
G1 F300.0 X-70.2831 Y-87.8087
G3 F800.0 X-69.981 Y-88.0907 I12.9471 J13.5686
G3 X-62.6044 Y-92.4709 I13.8271 J14.8845
G3 X-62.5932 Y-92.4746 I0.4763 J1.4224
G3 X-54.2682 Y-93.7511 I8.0408 J24.6547
G3 X-46.0717 Y-92.638 I0.3336 J28.2795
G3 X-46.0675 Y-92.6368 I-0.417 J1.4409
G3 X-38.6318 Y-88.4751 I-5.3472 J18.2774
G3 X-38.6257 Y-88.4696 I-1.0069 J1.1119
G3 X-34.1454 Y-81.8335 I-11.5819 J12.65
G3 X-34.1394 Y-81.8173 I-1.4048 J0.526
G3 X-32.8408 Y-74.0954 I-20.5522 J7.4266
G3 X-33.3919 Y-68.6745 I-25.5879 J0.1372
G3 X-33.3921 Y-68.6733 I-1.4677 J-0.3097
G3 X-35.3105 Y-63.4436 I-19.1474 J-4.0568
G3 X-36.6309 Y-62.6553 I-1.3204 J-0.7117
G1 X-50.3711
G3 X-51.8711 Y-64.1553 I0.0 J-1.5
G1 Y-73.3877
G1 X-54.0664
G1 Y-59.9131
G1 X-34.2433
G2 X-30.6796 Y-74.8011 I-27.7274 J-14.5076
G3 Y-74.8387 I1.4999 J-0.0182
G2 X-32.1659 Y-83.5037 I-24.1773 J-0.3127
G2 X-36.9801 Y-90.7189 I-18.3232 J7.0122
G3 X-36.9831 Y-90.7217 I1.0328 J-1.0878
G2 X-44.7308 Y-95.3852 I-14.2824 J14.9605
G2 X-53.8389 Y-96.7667 I-8.7567 J27.0164
G3 X-53.8752 I-0.0186 J-1.4999
G2 X-63.4084 Y-95.173 I-0.3252 J27.3632
G2 X-71.4616 Y-90.0255 I7.8078 J21.0886
G3 X-71.4737 Y-90.0136 I-1.058 J-1.0633
G2 X-76.6826 Y-82.186 I15.5732 J16.0104
G2 X-78.3341 Y-72.8544 I23.8605 J9.0347
G3 X-78.334 Y-72.828 I-1.4999 J0.0175
G2 X-77.7977 Y-66.2282 I38.0854 J0.227
G3 X-77.7971 Y-66.2246 I-1.4789 J0.251
G2 X-76.26 Y-60.9043 I23.6836 J-3.9602
G1 X-73.4306
G3 X-75.2259 Y-65.8102 I22.3613 J-10.9643
G3 X-75.2269 Y-65.8141 I1.4549 J-0.3649
G3 X-76.1387 Y-73.4821 I30.1436 J-7.4729
G3 X-74.6657 Y-81.4101 I20.7506 J-0.2455
G3 X-74.6577 Y-81.4299 I1.3934 J0.5553
G3 X-70.2831 Y-87.8087 I17.3217 J7.1897
G1 F300.0 X-71.1115 Y-88.6769
G1 Z-1.8
G3 F800.0 X-70.7939 Y-88.9734 I13.7755 J14.4368
G3 X-62.9854 Y-93.6088 I14.64 J15.7672
G3 X-62.9653 Y-93.6154 I0.8573 J2.5603
G3 X-54.2687 Y-94.9512 I8.4129 J25.7956
G3 X-45.738 Y-93.7907 I0.3341 J29.4795
G3 X-45.7306 Y-93.7885 I-0.7507 J2.5935
G3 X-37.8263 Y-89.3646 I-5.6841 J19.4291
G3 X-37.8154 Y-89.3547 I-1.8124 J2.0013
G3 X-33.0216 Y-82.2542 I-12.3923 J13.5351
G3 X-33.0108 Y-82.2251 I-2.5286 J0.9467
G3 X-32.8478 Y-81.7583 I-21.6808 J7.8344
G2 X-33.2894 Y-83.082 I-22.009 J6.6069
G2 X-37.8064 Y-89.8487 I-17.1997 J6.5904
G3 X-37.8117 Y-89.8537 I1.8591 J-1.958
G2 X-45.1054 Y-94.2451 I-13.4538 J14.0925
G2 X-53.824 Y-95.5668 I-8.3821 J25.8764
G3 X-53.8895 I-0.0334 J-2.6998
G2 X-62.9981 Y-94.0452 I-0.3109 J26.1632
G2 X-70.6152 Y-89.1749 I7.3975 J19.9609
G3 X-70.6369 Y-89.1534 I-1.9044 J-1.914
G2 X-71.1115 Y-88.6769 I14.7365 J15.1502
G0 Z3.0
G0 X-76.6596 Y-66.7001
G0 Z-0.2
G1 F300.0 Z-1.8
G2 F800.0 X-76.6147 Y-66.429 I36.411 J-5.9009
G3 X-76.6136 Y-66.4225 I-2.6619 J0.4518
G2 X-75.4469 Y-62.1043 I22.5 J-3.7623
G1 X-75.2791
G3 X-76.3898 Y-65.5183 I24.2098 J-9.7643
G3 X-76.3916 Y-65.5254 I2.6189 J-0.6568
G3 X-76.6596 Y-66.7001 I31.3083 J-7.7616
G0 Z3.0
G0 X-52.8664 Y-63.1241
G0 Z-0.2
G1 F300.0 Z-1.8
G1 F800.0 Y-61.1131
G1 X-34.9795
G2 X-33.9225 Y-63.5159 I-26.9911 J-13.3076
G3 X-34.2541 Y-62.8742 I-18.617 J-9.2142
G3 X-36.6309 Y-61.4553 I-2.3767 J-1.2811
G1 X-50.3711
G3 X-52.8664 Y-63.1241 I0.0 J-2.7
G1 F300.0 X-54.0664
G1 F800.0 Y-59.9131
G1 X-34.2433
G2 X-30.6796 Y-74.8011 I-27.7274 J-14.5076
G3 Y-74.8387 I1.4999 J-0.0182
G2 X-32.1659 Y-83.5037 I-24.1773 J-0.3127
G2 X-36.9801 Y-90.7189 I-18.3232 J7.0122
G3 X-36.9831 Y-90.7217 I1.0328 J-1.0878
G2 X-44.7308 Y-95.3852 I-14.2824 J14.9605
G2 X-53.8389 Y-96.7667 I-8.7567 J27.0164
G3 X-53.8752 I-0.0186 J-1.4999
G2 X-63.4084 Y-95.173 I-0.3252 J27.3632
G2 X-71.4616 Y-90.0255 I7.8078 J21.0886
G3 X-71.4737 Y-90.0136 I-1.058 J-1.0633
G2 X-76.6826 Y-82.186 I15.5732 J16.0104
G2 X-78.3341 Y-72.8544 I23.8605 J9.0347
G3 X-78.334 Y-72.828 I-1.4999 J0.0175
G2 X-77.7977 Y-66.2282 I38.0854 J0.227
G3 X-77.7971 Y-66.2246 I-1.4789 J0.251
G2 X-76.26 Y-60.9043 I23.6836 J-3.9602
G1 X-73.4306
G3 X-75.2259 Y-65.8102 I22.3613 J-10.9643
G3 X-75.2269 Y-65.8141 I1.4549 J-0.3649
G3 X-76.1387 Y-73.4821 I30.1436 J-7.4729
G3 X-74.6657 Y-81.4101 I20.7506 J-0.2455
G3 X-74.6577 Y-81.4299 I1.3934 J0.5553
G3 X-69.981 Y-88.0907 I17.3217 J7.1897
G3 X-62.6044 Y-92.4709 I13.8271 J14.8845
G3 X-62.5932 Y-92.4746 I0.4763 J1.4224
G3 X-54.2682 Y-93.7511 I8.0408 J24.6547
G3 X-46.0717 Y-92.638 I0.3336 J28.2795
G3 X-46.0675 Y-92.6368 I-0.417 J1.4409
G3 X-38.6318 Y-88.4751 I-5.3472 J18.2774
G3 X-38.6257 Y-88.4696 I-1.0069 J1.1119
G3 X-34.1454 Y-81.8335 I-11.5819 J12.65
G3 X-34.1394 Y-81.8173 I-1.4048 J0.526
G3 X-32.8408 Y-74.0954 I-20.5522 J7.4266
G3 X-33.3919 Y-68.6745 I-25.5879 J0.1372
G3 X-33.3921 Y-68.6733 I-1.4677 J-0.3097
G3 X-35.3105 Y-63.4436 I-19.1474 J-4.0568
G3 X-36.6309 Y-62.6553 I-1.3204 J-0.7117
G1 X-50.3711
G3 X-51.8711 Y-64.1553 I0.0 J-1.5
G1 Y-73.3877
G1 X-54.0664
G1 Y-63.1241
G1 F300.0 X-52.8664
G1 Z-2.4
G1 F800.0 Y-61.1131
G1 X-34.9795
G2 X-33.9225 Y-63.5159 I-26.9911 J-13.3076
G3 X-34.2541 Y-62.8742 I-18.617 J-9.2142
G3 X-36.6309 Y-61.4553 I-2.3767 J-1.2811
G1 X-50.3711
G3 X-52.8664 Y-63.1241 I0.0 J-2.7
G0 Z3.0
G0 X-75.2791 Y-62.1043
G0 Z-0.8
G1 F300.0 Z-2.4
G3 F800.0 X-76.3898 Y-65.5183 I24.2098 J-9.7643
G3 X-76.3916 Y-65.5254 I2.6189 J-0.6568
G3 X-76.6596 Y-66.7001 I31.3083 J-7.7616
G2 X-76.6147 Y-66.429 I36.411 J-5.9009
G3 X-76.6136 Y-66.4225 I-2.6619 J0.4518
G2 X-75.4469 Y-62.1043 I22.5 J-3.7623
G1 X-75.2791
G0 Z3.0
G0 X-71.1115 Y-88.6769
G0 Z-0.8
G1 F300.0 Z-2.4
G3 F800.0 X-70.7939 Y-88.9734 I13.7755 J14.4368
G3 X-62.9854 Y-93.6088 I14.64 J15.7672
G3 X-62.9653 Y-93.6154 I0.8573 J2.5603
G3 X-54.2687 Y-94.9512 I8.4129 J25.7956
G3 X-45.738 Y-93.7907 I0.3341 J29.4795
G3 X-45.7306 Y-93.7885 I-0.7507 J2.5935
G3 X-37.8263 Y-89.3646 I-5.6841 J19.4291
G3 X-37.8154 Y-89.3547 I-1.8124 J2.0013
G3 X-33.0216 Y-82.2542 I-12.3923 J13.5351
G3 X-33.0108 Y-82.2251 I-2.5286 J0.9467
G3 X-32.8478 Y-81.7583 I-21.6808 J7.8344
G2 X-33.2894 Y-83.082 I-22.009 J6.6069
G2 X-37.8064 Y-89.8487 I-17.1997 J6.5904
G3 X-37.8117 Y-89.8537 I1.8591 J-1.958
G2 X-45.1054 Y-94.2451 I-13.4538 J14.0925
G2 X-53.824 Y-95.5668 I-8.3821 J25.8764
G3 X-53.8895 I-0.0334 J-2.6998
G2 X-62.9981 Y-94.0452 I-0.3109 J26.1632
G2 X-70.6152 Y-89.1749 I7.3975 J19.9609
G3 X-70.6369 Y-89.1534 I-1.9044 J-1.914
G2 X-71.1115 Y-88.6769 I14.7365 J15.1502
G1 F300.0 X-70.2831 Y-87.8087
G3 F800.0 X-69.981 Y-88.0907 I12.9471 J13.5686
G3 X-62.6044 Y-92.4709 I13.8271 J14.8845
G3 X-62.5932 Y-92.4746 I0.4763 J1.4224
G3 X-54.2682 Y-93.7511 I8.0408 J24.6547
G3 X-46.0717 Y-92.638 I0.3336 J28.2795
G3 X-46.0675 Y-92.6368 I-0.417 J1.4409
G3 X-38.6318 Y-88.4751 I-5.3472 J18.2774
G3 X-38.6257 Y-88.4696 I-1.0069 J1.1119
G3 X-34.1454 Y-81.8335 I-11.5819 J12.65
G3 X-34.1394 Y-81.8173 I-1.4048 J0.526
G3 X-32.8408 Y-74.0954 I-20.5522 J7.4266
G3 X-33.3919 Y-68.6745 I-25.5879 J0.1372
G3 X-33.3921 Y-68.6733 I-1.4677 J-0.3097
G3 X-35.3105 Y-63.4436 I-19.1474 J-4.0568
G3 X-36.6309 Y-62.6553 I-1.3204 J-0.7117
G1 X-50.3711
G3 X-51.8711 Y-64.1553 I0.0 J-1.5
G1 Y-73.3877
G1 X-54.0664
G1 Y-59.9131
G1 X-34.2433
G2 X-30.6796 Y-74.8011 I-27.7274 J-14.5076
G3 Y-74.8387 I1.4999 J-0.0182
G2 X-32.1659 Y-83.5037 I-24.1773 J-0.3127
G2 X-36.9801 Y-90.7189 I-18.3232 J7.0122
G3 X-36.9831 Y-90.7217 I1.0328 J-1.0878
G2 X-44.7308 Y-95.3852 I-14.2824 J14.9605
G2 X-53.8389 Y-96.7667 I-8.7567 J27.0164
G3 X-53.8752 I-0.0186 J-1.4999
G2 X-63.4084 Y-95.173 I-0.3252 J27.3632
G2 X-71.4616 Y-90.0255 I7.8078 J21.0886
G3 X-71.4737 Y-90.0136 I-1.058 J-1.0633
G2 X-76.6826 Y-82.186 I15.5732 J16.0104
G2 X-78.3341 Y-72.8544 I23.8605 J9.0347
G3 X-78.334 Y-72.828 I-1.4999 J0.0175
G2 X-77.7977 Y-66.2282 I38.0854 J0.227
G3 X-77.7971 Y-66.2246 I-1.4789 J0.251
G2 X-76.26 Y-60.9043 I23.6836 J-3.9602
G1 X-73.4306
G3 X-75.2259 Y-65.8102 I22.3613 J-10.9643
G3 X-75.2269 Y-65.8141 I1.4549 J-0.3649
G3 X-76.1387 Y-73.4821 I30.1436 J-7.4729
G3 X-74.6657 Y-81.4101 I20.7506 J-0.2455
G3 X-74.6577 Y-81.4299 I1.3934 J0.5553
G3 X-70.2831 Y-87.8087 I17.3217 J7.1897
G1 F300.0 X-71.1115 Y-88.6769
G1 Z-3.0
G3 F800.0 X-70.7939 Y-88.9734 I13.7755 J14.4368
G3 X-62.9854 Y-93.6088 I14.64 J15.7672
G3 X-62.9653 Y-93.6154 I0.8573 J2.5603
G3 X-54.2687 Y-94.9512 I8.4129 J25.7956
G3 X-45.738 Y-93.7907 I0.3341 J29.4795
G3 X-45.7306 Y-93.7885 I-0.7507 J2.5935
G3 X-37.8263 Y-89.3646 I-5.6841 J19.4291
G3 X-37.8154 Y-89.3547 I-1.8124 J2.0013
G3 X-33.0216 Y-82.2542 I-12.3923 J13.5351
G3 X-33.0108 Y-82.2251 I-2.5286 J0.9467
G3 X-32.8478 Y-81.7583 I-21.6808 J7.8344
G2 X-33.2894 Y-83.082 I-22.009 J6.6069
G2 X-37.8064 Y-89.8487 I-17.1997 J6.5904
G3 X-37.8117 Y-89.8537 I1.8591 J-1.958
G2 X-45.1054 Y-94.2451 I-13.4538 J14.0925
G2 X-53.824 Y-95.5668 I-8.3821 J25.8764
G3 X-53.8895 I-0.0334 J-2.6998
G2 X-62.9981 Y-94.0452 I-0.3109 J26.1632
G2 X-70.6152 Y-89.1749 I7.3975 J19.9609
G3 X-70.6369 Y-89.1534 I-1.9044 J-1.914
G2 X-71.1115 Y-88.6769 I14.7365 J15.1502
G0 Z3.0
G0 X-76.6596 Y-66.7001
G0 Z-1.4
G1 F300.0 Z-3.0
G2 F800.0 X-76.6147 Y-66.429 I36.411 J-5.9009
G3 X-76.6136 Y-66.4225 I-2.6619 J0.4518
G2 X-75.4469 Y-62.1043 I22.5 J-3.7623
G1 X-75.2791
G3 X-76.3898 Y-65.5183 I24.2098 J-9.7643
G3 X-76.3916 Y-65.5254 I2.6189 J-0.6568
G3 X-76.6596 Y-66.7001 I31.3083 J-7.7616
G0 Z3.0
G0 X-52.8664 Y-63.1241
G0 Z-1.4
G1 F300.0 Z-3.0
G1 F800.0 Y-61.1131
G1 X-34.9795
G2 X-33.9225 Y-63.5159 I-26.9911 J-13.3076
G3 X-34.2541 Y-62.8742 I-18.617 J-9.2142
G3 X-36.6309 Y-61.4553 I-2.3767 J-1.2811
G1 X-50.3711
G3 X-52.8664 Y-63.1241 I0.0 J-2.7
G1 F300.0 X-54.0664
G1 F800.0 Y-59.9131
G1 X-34.2433
G2 X-30.6796 Y-74.8011 I-27.7274 J-14.5076
G3 Y-74.8387 I1.4999 J-0.0182
G2 X-32.1659 Y-83.5037 I-24.1773 J-0.3127
G2 X-36.9801 Y-90.7189 I-18.3232 J7.0122
G3 X-36.9831 Y-90.7217 I1.0328 J-1.0878
G2 X-44.7308 Y-95.3852 I-14.2824 J14.9605
G2 X-53.8389 Y-96.7667 I-8.7567 J27.0164
G3 X-53.8752 I-0.0186 J-1.4999
G2 X-63.4084 Y-95.173 I-0.3252 J27.3632
G2 X-71.4616 Y-90.0255 I7.8078 J21.0886
G3 X-71.4737 Y-90.0136 I-1.058 J-1.0633
G2 X-76.6826 Y-82.186 I15.5732 J16.0104
G2 X-78.3341 Y-72.8544 I23.8605 J9.0347
G3 X-78.334 Y-72.828 I-1.4999 J0.0175
G2 X-77.7977 Y-66.2282 I38.0854 J0.227
G3 X-77.7971 Y-66.2246 I-1.4789 J0.251
G2 X-76.26 Y-60.9043 I23.6836 J-3.9602
G1 X-73.4306
G3 X-75.2259 Y-65.8102 I22.3613 J-10.9643
G3 X-75.2269 Y-65.8141 I1.4549 J-0.3649
G3 X-76.1387 Y-73.4821 I30.1436 J-7.4729
G3 X-74.6657 Y-81.4101 I20.7506 J-0.2455
G3 X-74.6577 Y-81.4299 I1.3934 J0.5553
G3 X-69.981 Y-88.0907 I17.3217 J7.1897
G3 X-62.6044 Y-92.4709 I13.8271 J14.8845
G3 X-62.5932 Y-92.4746 I0.4763 J1.4224
G3 X-54.2682 Y-93.7511 I8.0408 J24.6547
G3 X-46.0717 Y-92.638 I0.3336 J28.2795
G3 X-46.0675 Y-92.6368 I-0.417 J1.4409
G3 X-38.6318 Y-88.4751 I-5.3472 J18.2774
G3 X-38.6257 Y-88.4696 I-1.0069 J1.1119
G3 X-34.1454 Y-81.8335 I-11.5819 J12.65
G3 X-34.1394 Y-81.8173 I-1.4048 J0.526
G3 X-32.8408 Y-74.0954 I-20.5522 J7.4266
G3 X-33.3919 Y-68.6745 I-25.5879 J0.1372
G3 X-33.3921 Y-68.6733 I-1.4677 J-0.3097
G3 X-35.3105 Y-63.4436 I-19.1474 J-4.0568
G3 X-36.6309 Y-62.6553 I-1.3204 J-0.7117
G1 X-50.3711
G3 X-51.8711 Y-64.1553 I0.0 J-1.5
G1 Y-73.3877
G1 X-54.0664
G1 Y-63.1241
G1 F300.0 X-52.8664
G1 Z-3.6
G1 F800.0 Y-61.1131
G1 X-34.9795
G2 X-33.9225 Y-63.5159 I-26.9911 J-13.3076
G3 X-34.2541 Y-62.8742 I-18.617 J-9.2142
G3 X-36.6309 Y-61.4553 I-2.3767 J-1.2811
G1 X-50.3711
G3 X-52.8664 Y-63.1241 I0.0 J-2.7
G0 Z3.0
G0 X-75.2791 Y-62.1043
G0 Z-2.0
G1 F300.0 Z-3.6
G3 F800.0 X-76.3898 Y-65.5183 I24.2098 J-9.7643
G3 X-76.3916 Y-65.5254 I2.6189 J-0.6568
G3 X-76.6596 Y-66.7001 I31.3083 J-7.7616
G2 X-76.6147 Y-66.429 I36.411 J-5.9009
G3 X-76.6136 Y-66.4225 I-2.6619 J0.4518
G2 X-75.4469 Y-62.1043 I22.5 J-3.7623
G1 X-75.2791
G0 Z3.0
G0 X-71.1115 Y-88.6769
G0 Z-2.0
G1 F300.0 Z-3.6
G3 F800.0 X-70.7939 Y-88.9734 I13.7755 J14.4368
G3 X-62.9854 Y-93.6088 I14.64 J15.7672
G3 X-62.9653 Y-93.6154 I0.8573 J2.5603
G3 X-54.2687 Y-94.9512 I8.4129 J25.7956
G3 X-45.738 Y-93.7907 I0.3341 J29.4795
G3 X-45.7306 Y-93.7885 I-0.7507 J2.5935
G3 X-37.8263 Y-89.3646 I-5.6841 J19.4291
G3 X-37.8154 Y-89.3547 I-1.8124 J2.0013
G3 X-33.0216 Y-82.2542 I-12.3923 J13.5351
G3 X-33.0108 Y-82.2251 I-2.5286 J0.9467
G3 X-32.8478 Y-81.7583 I-21.6808 J7.8344
G2 X-33.2894 Y-83.082 I-22.009 J6.6069
G2 X-37.8064 Y-89.8487 I-17.1997 J6.5904
G3 X-37.8117 Y-89.8537 I1.8591 J-1.958
G2 X-45.1054 Y-94.2451 I-13.4538 J14.0925
G2 X-53.824 Y-95.5668 I-8.3821 J25.8764
G3 X-53.8895 I-0.0334 J-2.6998
G2 X-62.9981 Y-94.0452 I-0.3109 J26.1632
G2 X-70.6152 Y-89.1749 I7.3975 J19.9609
G3 X-70.6369 Y-89.1534 I-1.9044 J-1.914
G2 X-71.1115 Y-88.6769 I14.7365 J15.1502
G1 F300.0 X-70.2831 Y-87.8087
G3 F800.0 X-69.981 Y-88.0907 I12.9471 J13.5686
G3 X-62.6044 Y-92.4709 I13.8271 J14.8845
G3 X-62.5932 Y-92.4746 I0.4763 J1.4224
G3 X-54.2682 Y-93.7511 I8.0408 J24.6547
G3 X-46.0717 Y-92.638 I0.3336 J28.2795
G3 X-46.0675 Y-92.6368 I-0.417 J1.4409
G3 X-38.6318 Y-88.4751 I-5.3472 J18.2774
G3 X-38.6257 Y-88.4696 I-1.0069 J1.1119
G3 X-34.1454 Y-81.8335 I-11.5819 J12.65
G3 X-34.1394 Y-81.8173 I-1.4048 J0.526
G3 X-32.8408 Y-74.0954 I-20.5522 J7.4266
G3 X-33.3919 Y-68.6745 I-25.5879 J0.1372
G3 X-33.3921 Y-68.6733 I-1.4677 J-0.3097
G3 X-35.3105 Y-63.4436 I-19.1474 J-4.0568
G3 X-36.6309 Y-62.6553 I-1.3204 J-0.7117
G1 X-50.3711
G3 X-51.8711 Y-64.1553 I0.0 J-1.5
G1 Y-73.3877
G1 X-54.0664
G1 Y-59.9131
G1 X-34.2433
G2 X-30.6796 Y-74.8011 I-27.7274 J-14.5076
G3 Y-74.8387 I1.4999 J-0.0182
G2 X-32.1659 Y-83.5037 I-24.1773 J-0.3127
G2 X-36.9801 Y-90.7189 I-18.3232 J7.0122
G3 X-36.9831 Y-90.7217 I1.0328 J-1.0878
G2 X-44.7308 Y-95.3852 I-14.2824 J14.9605
G2 X-53.8389 Y-96.7667 I-8.7567 J27.0164
G3 X-53.8752 I-0.0186 J-1.4999
G2 X-63.4084 Y-95.173 I-0.3252 J27.3632
G2 X-71.4616 Y-90.0255 I7.8078 J21.0886
G3 X-71.4737 Y-90.0136 I-1.058 J-1.0633
G2 X-76.6826 Y-82.186 I15.5732 J16.0104
G2 X-78.3341 Y-72.8544 I23.8605 J9.0347
G3 X-78.334 Y-72.828 I-1.4999 J0.0175
G2 X-77.7977 Y-66.2282 I38.0854 J0.227
G3 X-77.7971 Y-66.2246 I-1.4789 J0.251
G2 X-76.26 Y-60.9043 I23.6836 J-3.9602
G1 X-73.4306
G3 X-75.2259 Y-65.8102 I22.3613 J-10.9643
G3 X-75.2269 Y-65.8141 I1.4549 J-0.3649
G3 X-76.1387 Y-73.4821 I30.1436 J-7.4729
G3 X-74.6657 Y-81.4101 I20.7506 J-0.2455
G3 X-74.6577 Y-81.4299 I1.3934 J0.5553
G3 X-70.2831 Y-87.8087 I17.3217 J7.1897
G1 F300.0 X-71.1115 Y-88.6769
G1 Z-4.2
G3 F800.0 X-70.7939 Y-88.9734 I13.7755 J14.4368
G3 X-62.9854 Y-93.6088 I14.64 J15.7672
G3 X-62.9653 Y-93.6154 I0.8573 J2.5603
G3 X-54.2687 Y-94.9512 I8.4129 J25.7956
G3 X-45.738 Y-93.7907 I0.3341 J29.4795
G3 X-45.7306 Y-93.7885 I-0.7507 J2.5935
G3 X-37.8263 Y-89.3646 I-5.6841 J19.4291
G3 X-37.8154 Y-89.3547 I-1.8124 J2.0013
G3 X-33.0216 Y-82.2542 I-12.3923 J13.5351
G3 X-33.0108 Y-82.2251 I-2.5286 J0.9467
G3 X-32.8478 Y-81.7583 I-21.6808 J7.8344
G2 X-33.2894 Y-83.082 I-22.009 J6.6069
G2 X-37.8064 Y-89.8487 I-17.1997 J6.5904
G3 X-37.8117 Y-89.8537 I1.8591 J-1.958
G2 X-45.1054 Y-94.2451 I-13.4538 J14.0925
G2 X-53.824 Y-95.5668 I-8.3821 J25.8764
G3 X-53.8895 I-0.0334 J-2.6998
G2 X-62.9981 Y-94.0452 I-0.3109 J26.1632
G2 X-70.6152 Y-89.1749 I7.3975 J19.9609
G3 X-70.6369 Y-89.1534 I-1.9044 J-1.914
G2 X-71.1115 Y-88.6769 I14.7365 J15.1502
G0 Z3.0
G0 X-76.6596 Y-66.7001
G0 Z-2.6
G1 F300.0 Z-4.2
G2 F800.0 X-76.6147 Y-66.429 I36.411 J-5.9009
G3 X-76.6136 Y-66.4225 I-2.6619 J0.4518
G2 X-75.4469 Y-62.1043 I22.5 J-3.7623
G1 X-75.2791
G3 X-76.3898 Y-65.5183 I24.2098 J-9.7643
G3 X-76.3916 Y-65.5254 I2.6189 J-0.6568
G3 X-76.6596 Y-66.7001 I31.3083 J-7.7616
G0 Z3.0
G0 X-52.8664 Y-63.1241
G0 Z-2.6
G1 F300.0 Z-4.2
G1 F800.0 Y-61.1131
G1 X-34.9795
G2 X-33.9225 Y-63.5159 I-26.9911 J-13.3076
G3 X-34.2541 Y-62.8742 I-18.617 J-9.2142
G3 X-36.6309 Y-61.4553 I-2.3767 J-1.2811
G1 X-50.3711
G3 X-52.8664 Y-63.1241 I0.0 J-2.7
G1 F300.0 X-54.0664
G1 F800.0 Y-59.9131
G1 X-34.2433
G2 X-30.6796 Y-74.8011 I-27.7274 J-14.5076
G3 Y-74.8387 I1.4999 J-0.0182
G2 X-32.1659 Y-83.5037 I-24.1773 J-0.3127
G2 X-36.9801 Y-90.7189 I-18.3232 J7.0122
G3 X-36.9831 Y-90.7217 I1.0328 J-1.0878
G2 X-44.7308 Y-95.3852 I-14.2824 J14.9605
G2 X-53.8389 Y-96.7667 I-8.7567 J27.0164
G3 X-53.8752 I-0.0186 J-1.4999
G2 X-63.4084 Y-95.173 I-0.3252 J27.3632
G2 X-71.4616 Y-90.0255 I7.8078 J21.0886
G3 X-71.4737 Y-90.0136 I-1.058 J-1.0633
G2 X-76.6826 Y-82.186 I15.5732 J16.0104
G2 X-78.3341 Y-72.8544 I23.8605 J9.0347
G3 X-78.334 Y-72.828 I-1.4999 J0.0175
G2 X-77.7977 Y-66.2282 I38.0854 J0.227
G3 X-77.7971 Y-66.2246 I-1.4789 J0.251
G2 X-76.26 Y-60.9043 I23.6836 J-3.9602
G1 X-73.4306
G3 X-75.2259 Y-65.8102 I22.3613 J-10.9643
G3 X-75.2269 Y-65.8141 I1.4549 J-0.3649
G3 X-76.1387 Y-73.4821 I30.1436 J-7.4729
G3 X-74.6657 Y-81.4101 I20.7506 J-0.2455
G3 X-74.6577 Y-81.4299 I1.3934 J0.5553
G3 X-69.981 Y-88.0907 I17.3217 J7.1897
G3 X-62.6044 Y-92.4709 I13.8271 J14.8845
G3 X-62.5932 Y-92.4746 I0.4763 J1.4224
G3 X-54.2682 Y-93.7511 I8.0408 J24.6547
G3 X-46.0717 Y-92.638 I0.3336 J28.2795
G3 X-46.0675 Y-92.6368 I-0.417 J1.4409
G3 X-38.6318 Y-88.4751 I-5.3472 J18.2774
G3 X-38.6257 Y-88.4696 I-1.0069 J1.1119
G3 X-34.1454 Y-81.8335 I-11.5819 J12.65
G3 X-34.1394 Y-81.8173 I-1.4048 J0.526
G3 X-32.8408 Y-74.0954 I-20.5522 J7.4266
G3 X-33.3919 Y-68.6745 I-25.5879 J0.1372
G3 X-33.3921 Y-68.6733 I-1.4677 J-0.3097
G3 X-35.3105 Y-63.4436 I-19.1474 J-4.0568
G3 X-36.6309 Y-62.6553 I-1.3204 J-0.7117
G1 X-50.3711
G3 X-51.8711 Y-64.1553 I0.0 J-1.5
G1 Y-73.3877
G1 X-54.0664
G1 Y-63.1241
G1 F300.0 X-52.8664
G1 Z-4.8
G1 F800.0 Y-61.1131
G1 X-34.9795
G2 X-33.9225 Y-63.5159 I-26.9911 J-13.3076
G3 X-34.2541 Y-62.8742 I-18.617 J-9.2142
G3 X-36.6309 Y-61.4553 I-2.3767 J-1.2811
G1 X-50.3711
G3 X-52.8664 Y-63.1241 I0.0 J-2.7
G0 Z3.0
G0 X-75.2791 Y-62.1043
G0 Z-3.2
G1 F300.0 Z-4.8
G3 F800.0 X-76.3898 Y-65.5183 I24.2098 J-9.7643
G3 X-76.3916 Y-65.5254 I2.6189 J-0.6568
G3 X-76.6596 Y-66.7001 I31.3083 J-7.7616
G2 X-76.6147 Y-66.429 I36.411 J-5.9009
G3 X-76.6136 Y-66.4225 I-2.6619 J0.4518
G2 X-75.4469 Y-62.1043 I22.5 J-3.7623
G1 X-75.2791
G0 Z3.0
G0 X-71.1115 Y-88.6769
G0 Z-3.2
G1 F300.0 Z-4.8
G3 F800.0 X-70.7939 Y-88.9734 I13.7755 J14.4368
G3 X-62.9854 Y-93.6088 I14.64 J15.7672
G3 X-62.9653 Y-93.6154 I0.8573 J2.5603
G3 X-54.2687 Y-94.9512 I8.4129 J25.7956
G3 X-45.738 Y-93.7907 I0.3341 J29.4795
G3 X-45.7306 Y-93.7885 I-0.7507 J2.5935
G3 X-37.8263 Y-89.3646 I-5.6841 J19.4291
G3 X-37.8154 Y-89.3547 I-1.8124 J2.0013
G3 X-33.0216 Y-82.2542 I-12.3923 J13.5351
G3 X-33.0108 Y-82.2251 I-2.5286 J0.9467
G3 X-32.8478 Y-81.7583 I-21.6808 J7.8344
G2 X-33.2894 Y-83.082 I-22.009 J6.6069
G2 X-37.8064 Y-89.8487 I-17.1997 J6.5904
G3 X-37.8117 Y-89.8537 I1.8591 J-1.958
G2 X-45.1054 Y-94.2451 I-13.4538 J14.0925
G2 X-53.824 Y-95.5668 I-8.3821 J25.8764
G3 X-53.8895 I-0.0334 J-2.6998
G2 X-62.9981 Y-94.0452 I-0.3109 J26.1632
G2 X-70.6152 Y-89.1749 I7.3975 J19.9609
G3 X-70.6369 Y-89.1534 I-1.9044 J-1.914
G2 X-71.1115 Y-88.6769 I14.7365 J15.1502
G1 F300.0 X-70.2831 Y-87.8087
G3 F800.0 X-69.981 Y-88.0907 I12.9471 J13.5686
G3 X-62.6044 Y-92.4709 I13.8271 J14.8845
G3 X-62.5932 Y-92.4746 I0.4763 J1.4224
G3 X-54.2682 Y-93.7511 I8.0408 J24.6547
G3 X-46.0717 Y-92.638 I0.3336 J28.2795
G3 X-46.0675 Y-92.6368 I-0.417 J1.4409
G3 X-38.6318 Y-88.4751 I-5.3472 J18.2774
G3 X-38.6257 Y-88.4696 I-1.0069 J1.1119
G3 X-34.1454 Y-81.8335 I-11.5819 J12.65
G3 X-34.1394 Y-81.8173 I-1.4048 J0.526
G3 X-32.8408 Y-74.0954 I-20.5522 J7.4266
G3 X-33.3919 Y-68.6745 I-25.5879 J0.1372
G3 X-33.3921 Y-68.6733 I-1.4677 J-0.3097
G3 X-35.3105 Y-63.4436 I-19.1474 J-4.0568
G3 X-36.6309 Y-62.6553 I-1.3204 J-0.7117
G1 X-50.3711
G3 X-51.8711 Y-64.1553 I0.0 J-1.5
G1 Y-73.3877
G1 X-54.0664
G1 Y-59.9131
G1 X-34.2433
G2 X-30.6796 Y-74.8011 I-27.7274 J-14.5076
G3 Y-74.8387 I1.4999 J-0.0182
G2 X-32.1659 Y-83.5037 I-24.1773 J-0.3127
G2 X-36.9801 Y-90.7189 I-18.3232 J7.0122
G3 X-36.9831 Y-90.7217 I1.0328 J-1.0878
G2 X-44.7308 Y-95.3852 I-14.2824 J14.9605
G2 X-53.8389 Y-96.7667 I-8.7567 J27.0164
G3 X-53.8752 I-0.0186 J-1.4999
G2 X-63.4084 Y-95.173 I-0.3252 J27.3632
G2 X-71.4616 Y-90.0255 I7.8078 J21.0886
G3 X-71.4737 Y-90.0136 I-1.058 J-1.0633
G2 X-76.6826 Y-82.186 I15.5732 J16.0104
G2 X-78.3341 Y-72.8544 I23.8605 J9.0347
G3 X-78.334 Y-72.828 I-1.4999 J0.0175
G2 X-77.7977 Y-66.2282 I38.0854 J0.227
G3 X-77.7971 Y-66.2246 I-1.4789 J0.251
G2 X-76.26 Y-60.9043 I23.6836 J-3.9602
G1 X-73.4306
G3 X-75.2259 Y-65.8102 I22.3613 J-10.9643
G3 X-75.2269 Y-65.8141 I1.4549 J-0.3649
G3 X-76.1387 Y-73.4821 I30.1436 J-7.4729
G3 X-74.6657 Y-81.4101 I20.7506 J-0.2455
G3 X-74.6577 Y-81.4299 I1.3934 J0.5553
G3 X-70.2831 Y-87.8087 I17.3217 J7.1897
G1 F300.0 X-71.1115 Y-88.6769
G1 Z-5.0
G3 F800.0 X-70.7939 Y-88.9734 I13.7755 J14.4368
G3 X-62.9854 Y-93.6088 I14.64 J15.7672
G3 X-62.9653 Y-93.6154 I0.8573 J2.5603
G3 X-54.2687 Y-94.9512 I8.4129 J25.7956
G3 X-45.738 Y-93.7907 I0.3341 J29.4795
G3 X-45.7306 Y-93.7885 I-0.7507 J2.5935
G3 X-37.8263 Y-89.3646 I-5.6841 J19.4291
G3 X-37.8154 Y-89.3547 I-1.8124 J2.0013
G3 X-33.0216 Y-82.2542 I-12.3923 J13.5351
G3 X-33.0108 Y-82.2251 I-2.5286 J0.9467
G3 X-32.8478 Y-81.7583 I-21.6808 J7.8344
G2 X-33.2894 Y-83.082 I-22.009 J6.6069
G2 X-37.8064 Y-89.8487 I-17.1997 J6.5904
G3 X-37.8117 Y-89.8537 I1.8591 J-1.958
G2 X-45.1054 Y-94.2451 I-13.4538 J14.0925
G2 X-53.824 Y-95.5668 I-8.3821 J25.8764
G3 X-53.8895 I-0.0334 J-2.6998
G2 X-62.9981 Y-94.0452 I-0.3109 J26.1632
G2 X-70.6152 Y-89.1749 I7.3975 J19.9609
G3 X-70.6369 Y-89.1534 I-1.9044 J-1.914
G2 X-71.1115 Y-88.6769 I14.7365 J15.1502
G0 Z3.0
G0 X-76.6596 Y-66.7001
G0 Z-3.8
G1 F300.0 Z-5.0
G2 F800.0 X-76.6147 Y-66.429 I36.411 J-5.9009
G3 X-76.6136 Y-66.4225 I-2.6619 J0.4518
G2 X-75.4469 Y-62.1043 I22.5 J-3.7623
G1 X-75.2791
G3 X-76.3898 Y-65.5183 I24.2098 J-9.7643
G3 X-76.3916 Y-65.5254 I2.6189 J-0.6568
G3 X-76.6596 Y-66.7001 I31.3083 J-7.7616
G0 Z3.0
G0 X-52.8664 Y-63.1241
G0 Z-3.8
G1 F300.0 Z-5.0
G1 F800.0 Y-61.1131
G1 X-34.9795
G2 X-33.9225 Y-63.5159 I-26.9911 J-13.3076
G3 X-34.2541 Y-62.8742 I-18.617 J-9.2142
G3 X-36.6309 Y-61.4553 I-2.3767 J-1.2811
G1 X-50.3711
G3 X-52.8664 Y-63.1241 I0.0 J-2.7
G1 F300.0 X-54.0664
G1 F800.0 Y-59.9131
G1 X-34.2433
G2 X-30.6796 Y-74.8011 I-27.7274 J-14.5076
G3 Y-74.8387 I1.4999 J-0.0182
G2 X-32.1659 Y-83.5037 I-24.1773 J-0.3127
G2 X-36.9801 Y-90.7189 I-18.3232 J7.0122
G3 X-36.9831 Y-90.7217 I1.0328 J-1.0878
G2 X-44.7308 Y-95.3852 I-14.2824 J14.9605
G2 X-53.8389 Y-96.7667 I-8.7567 J27.0164
G3 X-53.8752 I-0.0186 J-1.4999
G2 X-63.4084 Y-95.173 I-0.3252 J27.3632
G2 X-71.4616 Y-90.0255 I7.8078 J21.0886
G3 X-71.4737 Y-90.0136 I-1.058 J-1.0633
G2 X-76.6826 Y-82.186 I15.5732 J16.0104
G2 X-78.3341 Y-72.8544 I23.8605 J9.0347
G3 X-78.334 Y-72.828 I-1.4999 J0.0175
G2 X-77.7977 Y-66.2282 I38.0854 J0.227
G3 X-77.7971 Y-66.2246 I-1.4789 J0.251
G2 X-76.26 Y-60.9043 I23.6836 J-3.9602
G1 X-73.4306
G3 X-75.2259 Y-65.8102 I22.3613 J-10.9643
G3 X-75.2269 Y-65.8141 I1.4549 J-0.3649
G3 X-76.1387 Y-73.4821 I30.1436 J-7.4729
G3 X-74.6657 Y-81.4101 I20.7506 J-0.2455
G3 X-74.6577 Y-81.4299 I1.3934 J0.5553
G3 X-69.981 Y-88.0907 I17.3217 J7.1897
G3 X-62.6044 Y-92.4709 I13.8271 J14.8845
G3 X-62.5932 Y-92.4746 I0.4763 J1.4224
G3 X-54.2682 Y-93.7511 I8.0408 J24.6547
G3 X-46.0717 Y-92.638 I0.3336 J28.2795
G3 X-46.0675 Y-92.6368 I-0.417 J1.4409
G3 X-38.6318 Y-88.4751 I-5.3472 J18.2774
G3 X-38.6257 Y-88.4696 I-1.0069 J1.1119
G3 X-34.1454 Y-81.8335 I-11.5819 J12.65
G3 X-34.1394 Y-81.8173 I-1.4048 J0.526
G3 X-32.8408 Y-74.0954 I-20.5522 J7.4266
G3 X-33.3919 Y-68.6745 I-25.5879 J0.1372
G3 X-33.3921 Y-68.6733 I-1.4677 J-0.3097
G3 X-35.3105 Y-63.4436 I-19.1474 J-4.0568
G3 X-36.6309 Y-62.6553 I-1.3204 J-0.7117
G1 X-50.3711
G3 X-51.8711 Y-64.1553 I0.0 J-1.5
G1 Y-73.3877
G1 X-54.0664
G1 Y-63.1241
G0 Z3.0
G0 X-46.7674 Y-42.7397
G0 Z1.0
G1 F300.0 Z-0.6
G1 F800.0 X-47.4559 Y-42.4756
G3 X-46.9545 Y-42.1732 I-1.4455 J2.9639
G3 X-46.7674 Y-42.7397 I3.2142 J0.7475
G1 F300.0 X-46.217 Y-42.5008
G3 F800.0 X-44.6451 Y-43.9696 I2.4768 J1.075
G1 X-32.7 Y-48.2188
G1 Y-48.7777
G1 X-58.62 Y-38.8363
G1 X-49.8262 Y-42.0458
G3 X-46.4402 Y-40.6162 I0.9249 J2.5341
G1 Y-41.4258
G3 X-46.217 Y-42.5008 I2.7 J0.0
G0 Z3.0
G0 X-46.9476 Y-19.868
G0 Z1.0
G1 F300.0 Z-0.6
G3 F800.0 X-47.7158 Y-19.4473 I-1.9538 J-2.6565
G1 X-46.6146 Y-19.0234
G3 X-46.9476 Y-19.868 I2.8744 J-1.6211
G1 F300.0 X-46.3644 Y-20.0091
G3 F800.0 X-46.4402 Y-20.6445 I2.6242 J-0.6354
G1 Y-21.4199
G3 X-49.8336 Y-19.993 I-2.4611 J-1.1045
G1 X-70.654 Y-27.6601
G2 X-70.9628 Y-27.753 I-5.5127 J17.7569
G1 X-32.7 Y-13.0243
G1 Y-13.5836
G1 X-44.6951 Y-18.119
G3 X-46.3644 Y-20.0091 I0.9549 J-2.5255
G0 Z3.0
G0 X-75.2703 Y-29.4111
G0 Z1.0
G1 F300.0 Z-0.6
G3 F800.0 X-75.764 Y-30.9668 I2.2039 J-1.5557
G1 Y-31.1035
G3 X-75.4402 Y-32.3851 I2.6976 J0.0
G1 X-76.3137 Y-32.05
G1 Y-29.8128
G1 X-75.2703 Y-29.4111
G1 F300.0 X-75.7013 Y-28.2912
G1 F800.0 X-31.5 Y-11.2765
G1 Y-14.4127
G1 X-44.2707 Y-19.2415
G3 X-45.2402 Y-20.6445 I0.5305 J-1.4031
G1 Y-41.4258
G3 X-44.243 Y-42.839 I1.5 J0.0
G1 X-31.5 Y-47.372
G1 Y-50.5232
G1 X-77.5137 Y-32.875
G1 Y-28.9889
G1 X-75.7013 Y-28.2912
G0 Z3.0
G0 X-74.1189 Y-29.8981
G0 Z1.0
G1 F300.0 Z-0.6
G3 F800.0 X-74.5664 Y-30.9668 I1.0525 J-1.0687
G1 Y-31.1035
G3 X-73.2841 Y-32.5876 I1.5 J0.0
G2 X-70.2812 Y-33.3054 I-2.5221 J-17.1925
G1 X-49.4156 Y-40.9208
G3 X-47.4014 Y-39.5117 I0.5143 J1.4091
G1 Y-22.5244
G3 X-49.4197 Y-21.1168 I-1.5 J0.0
G1 X-70.2688 Y-28.7945
G2 X-73.2848 Y-29.4828 I-5.8979 J18.8913
G3 X-74.1189 Y-29.8981 I0.2184 J-1.484
G1 F300.0 Z-1.2
G3 F800.0 X-74.5664 Y-30.9668 I1.0525 J-1.0687
G1 Y-31.1035
G3 X-73.2841 Y-32.5876 I1.5 J0.0
G2 X-70.2812 Y-33.3054 I-2.5221 J-17.1925
G1 X-49.4156 Y-40.9208
G3 X-47.4014 Y-39.5117 I0.5143 J1.4091
G1 Y-22.5244
G3 X-49.4197 Y-21.1168 I-1.5 J0.0
G1 X-70.2688 Y-28.7945
G2 X-73.2848 Y-29.4828 I-5.8979 J18.8913
G3 X-74.1189 Y-29.8981 I0.2184 J-1.484
G1 F300.0 X-75.2703 Y-29.4111
G3 F800.0 X-75.764 Y-30.9668 I2.2039 J-1.5557
G1 Y-31.1035
G3 X-75.4402 Y-32.3851 I2.6976 J0.0
G1 X-76.3137 Y-32.05
G1 Y-29.8128
G1 X-75.2703 Y-29.4111
G0 Z3.0
G0 X-47.7158 Y-19.4473
G0 Z0.4
G1 F300.0 Z-1.2
G1 F800.0 X-46.6146 Y-19.0234
G3 X-46.9476 Y-19.868 I2.8744 J-1.6211
G3 X-47.7158 Y-19.4473 I-1.9538 J-2.6565
G1 F300.0 X-47.9313 Y-18.8874
G1 F800.0 X-32.7 Y-13.0243
G1 Y-13.5836
G1 X-44.6951 Y-18.119
G3 X-46.4402 Y-20.6445 I0.9549 J-2.5255
G1 Y-21.4199
G3 X-49.8336 Y-19.993 I-2.4611 J-1.1045
G1 X-70.654 Y-27.6601
G2 X-70.9628 Y-27.753 I-5.5127 J17.7569
G1 X-47.9313 Y-18.8874
G0 Z3.0
G0 X-46.9545 Y-42.1732
G0 Z0.4
G1 F300.0 Z-1.2
G3 F800.0 X-46.7674 Y-42.7397 I3.2142 J0.7475
G1 X-47.4559 Y-42.4756
G3 X-46.9545 Y-42.1732 I-1.4455 J2.9639
G1 F300.0 X-46.3701 Y-42.0373
G3 F800.0 X-44.6451 Y-43.9696 I2.6298 J0.6116
G1 X-32.7 Y-48.2188
G1 Y-48.7777
G1 X-58.62 Y-38.8363
G1 X-49.8262 Y-42.0458
G3 X-46.4402 Y-40.6162 I0.9249 J2.5341
G1 Y-41.4258
G3 X-46.3701 Y-42.0373 I2.7 J0.0
G1 F300.0 X-45.2012 Y-41.7655
G3 F800.0 X-44.243 Y-42.839 I1.461 J0.3398
G1 X-31.5 Y-47.372
G1 Y-50.5232
G1 X-77.5137 Y-32.875
G1 Y-28.9889
G1 X-31.5 Y-11.2765
G1 Y-14.4127
G1 X-44.2707 Y-19.2415
G3 X-45.2402 Y-20.6445 I0.5305 J-1.4031
G1 Y-41.4258
G3 X-45.2012 Y-41.7655 I1.5 J0.0
G1 F300.0 X-46.9545 Y-42.1732
G1 Z-1.8
G3 F800.0 X-46.7674 Y-42.7397 I3.2142 J0.7475
G1 X-47.4559 Y-42.4756
G3 X-46.9545 Y-42.1732 I-1.4455 J2.9639
G1 F300.0 X-46.3701 Y-42.0373
G3 F800.0 X-44.6451 Y-43.9696 I2.6298 J0.6116
G1 X-32.7 Y-48.2188
G1 Y-48.7777
G1 X-58.62 Y-38.8363
G1 X-49.8262 Y-42.0458
G3 X-46.4402 Y-40.6162 I0.9249 J2.5341
G1 Y-41.4258
G3 X-46.3701 Y-42.0373 I2.7 J0.0
G0 Z3.0
G0 X-46.9476 Y-19.868
G0 Z-0.2
G1 F300.0 Z-1.8
G3 F800.0 X-47.7158 Y-19.4473 I-1.9538 J-2.6565
G1 X-46.6146 Y-19.0234
G3 X-46.9476 Y-19.868 I2.8744 J-1.6211
G1 F300.0 X-46.3644 Y-20.0091
G3 F800.0 X-46.4402 Y-20.6445 I2.6242 J-0.6354
G1 Y-21.4199
G3 X-49.8336 Y-19.993 I-2.4611 J-1.1045
G1 X-70.654 Y-27.6601
G2 X-70.9628 Y-27.753 I-5.5127 J17.7569
G1 X-32.7 Y-13.0243
G1 Y-13.5836
G1 X-44.6951 Y-18.119
G3 X-46.3644 Y-20.0091 I0.9549 J-2.5255
G0 Z3.0
G0 X-75.2703 Y-29.4111
G0 Z-0.2
G1 F300.0 Z-1.8
G3 F800.0 X-75.764 Y-30.9668 I2.2039 J-1.5557
G1 Y-31.1035
G3 X-75.4402 Y-32.3851 I2.6976 J0.0
G1 X-76.3137 Y-32.05
G1 Y-29.8128
G1 X-75.2703 Y-29.4111
G1 F300.0 X-75.7013 Y-28.2912
G1 F800.0 X-31.5 Y-11.2765
G1 Y-14.4127
G1 X-44.2707 Y-19.2415
G3 X-45.2402 Y-20.6445 I0.5305 J-1.4031
G1 Y-41.4258
G3 X-44.243 Y-42.839 I1.5 J0.0
G1 X-31.5 Y-47.372
G1 Y-50.5232
G1 X-77.5137 Y-32.875
G1 Y-28.9889
G1 X-75.7013 Y-28.2912
G0 Z3.0
G0 X-74.1189 Y-29.8981
G0 Z-0.2
G1 F300.0 Z-1.8
G3 F800.0 X-74.5664 Y-30.9668 I1.0525 J-1.0687
G1 Y-31.1035
G3 X-73.2841 Y-32.5876 I1.5 J0.0
G2 X-70.2812 Y-33.3054 I-2.5221 J-17.1925
G1 X-49.4156 Y-40.9208
G3 X-47.4014 Y-39.5117 I0.5143 J1.4091
G1 Y-22.5244
G3 X-49.4197 Y-21.1168 I-1.5 J0.0
G1 X-70.2688 Y-28.7945
G2 X-73.2848 Y-29.4828 I-5.8979 J18.8913
G3 X-74.1189 Y-29.8981 I0.2184 J-1.484
G1 F300.0 Z-2.4
G3 F800.0 X-74.5664 Y-30.9668 I1.0525 J-1.0687
G1 Y-31.1035
G3 X-73.2841 Y-32.5876 I1.5 J0.0
G2 X-70.2812 Y-33.3054 I-2.5221 J-17.1925
G1 X-49.4156 Y-40.9208
G3 X-47.4014 Y-39.5117 I0.5143 J1.4091
G1 Y-22.5244
G3 X-49.4197 Y-21.1168 I-1.5 J0.0
G1 X-70.2688 Y-28.7945
G2 X-73.2848 Y-29.4828 I-5.8979 J18.8913
G3 X-74.1189 Y-29.8981 I0.2184 J-1.484
G1 F300.0 X-75.2703 Y-29.4111
G3 F800.0 X-75.764 Y-30.9668 I2.2039 J-1.5557
G1 Y-31.1035
G3 X-75.4402 Y-32.3851 I2.6976 J0.0
G1 X-76.3137 Y-32.05
G1 Y-29.8128
G1 X-75.2703 Y-29.4111
G0 Z3.0
G0 X-47.7158 Y-19.4473
G0 Z-0.8
G1 F300.0 Z-2.4
G1 F800.0 X-46.6146 Y-19.0234
G3 X-46.9476 Y-19.868 I2.8744 J-1.6211
G3 X-47.7158 Y-19.4473 I-1.9538 J-2.6565
G1 F300.0 X-47.9313 Y-18.8874
G1 F800.0 X-32.7 Y-13.0243
G1 Y-13.5836
G1 X-44.6951 Y-18.119
G3 X-46.4402 Y-20.6445 I0.9549 J-2.5255
G1 Y-21.4199
G3 X-49.8336 Y-19.993 I-2.4611 J-1.1045
G1 X-70.654 Y-27.6601
G2 X-70.9628 Y-27.753 I-5.5127 J17.7569
G1 X-47.9313 Y-18.8874
G0 Z3.0
G0 X-46.9545 Y-42.1732
G0 Z-0.8
G1 F300.0 Z-2.4
G3 F800.0 X-46.7674 Y-42.7397 I3.2142 J0.7475
G1 X-47.4559 Y-42.4756
G3 X-46.9545 Y-42.1732 I-1.4455 J2.9639
G1 F300.0 X-46.3701 Y-42.0373
G3 F800.0 X-44.6451 Y-43.9696 I2.6298 J0.6116
G1 X-32.7 Y-48.2188
G1 Y-48.7777
G1 X-58.62 Y-38.8363
G1 X-49.8262 Y-42.0458
G3 X-46.4402 Y-40.6162 I0.9249 J2.5341
G1 Y-41.4258
G3 X-46.3701 Y-42.0373 I2.7 J0.0
G1 F300.0 X-45.2012 Y-41.7655
G3 F800.0 X-44.243 Y-42.839 I1.461 J0.3398
G1 X-31.5 Y-47.372
G1 Y-50.5232
G1 X-77.5137 Y-32.875
G1 Y-28.9889
G1 X-31.5 Y-11.2765
G1 Y-14.4127
G1 X-44.2707 Y-19.2415
G3 X-45.2402 Y-20.6445 I0.5305 J-1.4031
G1 Y-41.4258
G3 X-45.2012 Y-41.7655 I1.5 J0.0
G1 F300.0 X-46.9545 Y-42.1732
G1 Z-3.0
G3 F800.0 X-46.7674 Y-42.7397 I3.2142 J0.7475
G1 X-47.4559 Y-42.4756
G3 X-46.9545 Y-42.1732 I-1.4455 J2.9639
G1 F300.0 X-46.3701 Y-42.0373
G3 F800.0 X-44.6451 Y-43.9696 I2.6298 J0.6116
G1 X-32.7 Y-48.2188
G1 Y-48.7777
G1 X-58.62 Y-38.8363
G1 X-49.8262 Y-42.0458
G3 X-46.4402 Y-40.6162 I0.9249 J2.5341
G1 Y-41.4258
G3 X-46.3701 Y-42.0373 I2.7 J0.0
G0 Z3.0
G0 X-46.9476 Y-19.868
G0 Z-1.4
G1 F300.0 Z-3.0
G3 F800.0 X-47.7158 Y-19.4473 I-1.9538 J-2.6565
G1 X-46.6146 Y-19.0234
G3 X-46.9476 Y-19.868 I2.8744 J-1.6211
G1 F300.0 X-46.3644 Y-20.0091
G3 F800.0 X-46.4402 Y-20.6445 I2.6242 J-0.6354
G1 Y-21.4199
G3 X-49.8336 Y-19.993 I-2.4611 J-1.1045
G1 X-70.654 Y-27.6601
G2 X-70.9628 Y-27.753 I-5.5127 J17.7569
G1 X-32.7 Y-13.0243
G1 Y-13.5836
G1 X-44.6951 Y-18.119
G3 X-46.3644 Y-20.0091 I0.9549 J-2.5255
G0 Z3.0
G0 X-75.2703 Y-29.4111
G0 Z-1.4
G1 F300.0 Z-3.0
G3 F800.0 X-75.764 Y-30.9668 I2.2039 J-1.5557
G1 Y-31.1035
G3 X-75.4402 Y-32.3851 I2.6976 J0.0
G1 X-76.3137 Y-32.05
G1 Y-29.8128
G1 X-75.2703 Y-29.4111
G1 F300.0 X-75.7013 Y-28.2912
G1 F800.0 X-31.5 Y-11.2765
G1 Y-14.4127
G1 X-44.2707 Y-19.2415
G3 X-45.2402 Y-20.6445 I0.5305 J-1.4031
G1 Y-41.4258
G3 X-44.243 Y-42.839 I1.5 J0.0
G1 X-31.5 Y-47.372
G1 Y-50.5232
G1 X-77.5137 Y-32.875
G1 Y-28.9889
G1 X-75.7013 Y-28.2912
G0 Z3.0
G0 X-74.1189 Y-29.8981
G0 Z-1.4
G1 F300.0 Z-3.0
G3 F800.0 X-74.5664 Y-30.9668 I1.0525 J-1.0687
G1 Y-31.1035
G3 X-73.2841 Y-32.5876 I1.5 J0.0
G2 X-70.2812 Y-33.3054 I-2.5221 J-17.1925
G1 X-49.4156 Y-40.9208
G3 X-47.4014 Y-39.5117 I0.5143 J1.4091
G1 Y-22.5244
G3 X-49.4197 Y-21.1168 I-1.5 J0.0
G1 X-70.2688 Y-28.7945
G2 X-73.2848 Y-29.4828 I-5.8979 J18.8913
G3 X-74.1189 Y-29.8981 I0.2184 J-1.484
G1 F300.0 Z-3.6
G3 F800.0 X-74.5664 Y-30.9668 I1.0525 J-1.0687
G1 Y-31.1035
G3 X-73.2841 Y-32.5876 I1.5 J0.0
G2 X-70.2812 Y-33.3054 I-2.5221 J-17.1925
G1 X-49.4156 Y-40.9208
G3 X-47.4014 Y-39.5117 I0.5143 J1.4091
G1 Y-22.5244
G3 X-49.4197 Y-21.1168 I-1.5 J0.0
G1 X-70.2688 Y-28.7945
G2 X-73.2848 Y-29.4828 I-5.8979 J18.8913
G3 X-74.1189 Y-29.8981 I0.2184 J-1.484
G1 F300.0 X-75.2703 Y-29.4111
G3 F800.0 X-75.764 Y-30.9668 I2.2039 J-1.5557
G1 Y-31.1035
G3 X-75.4402 Y-32.3851 I2.6976 J0.0
G1 X-76.3137 Y-32.05
G1 Y-29.8128
G1 X-75.2703 Y-29.4111
G0 Z3.0
G0 X-47.7158 Y-19.4473
G0 Z-2.0
G1 F300.0 Z-3.6
G1 F800.0 X-46.6146 Y-19.0234
G3 X-46.9476 Y-19.868 I2.8744 J-1.6211
G3 X-47.7158 Y-19.4473 I-1.9538 J-2.6565
G1 F300.0 X-47.9313 Y-18.8874
G1 F800.0 X-32.7 Y-13.0243
G1 Y-13.5836
G1 X-44.6951 Y-18.119
G3 X-46.4402 Y-20.6445 I0.9549 J-2.5255
G1 Y-21.4199
G3 X-49.8336 Y-19.993 I-2.4611 J-1.1045
G1 X-70.654 Y-27.6601
G2 X-70.9628 Y-27.753 I-5.5127 J17.7569
G1 X-47.9313 Y-18.8874
G0 Z3.0
G0 X-46.9545 Y-42.1732
G0 Z-2.0
G1 F300.0 Z-3.6
G3 F800.0 X-46.7674 Y-42.7397 I3.2142 J0.7475
G1 X-47.4559 Y-42.4756
G3 X-46.9545 Y-42.1732 I-1.4455 J2.9639
G1 F300.0 X-46.3701 Y-42.0373
G3 F800.0 X-44.6451 Y-43.9696 I2.6298 J0.6116
G1 X-32.7 Y-48.2188
G1 Y-48.7777
G1 X-58.62 Y-38.8363
G1 X-49.8262 Y-42.0458
G3 X-46.4402 Y-40.6162 I0.9249 J2.5341
G1 Y-41.4258
G3 X-46.3701 Y-42.0373 I2.7 J0.0
G1 F300.0 X-45.2012 Y-41.7655
G3 F800.0 X-44.243 Y-42.839 I1.461 J0.3398
G1 X-31.5 Y-47.372
G1 Y-50.5232
G1 X-77.5137 Y-32.875
G1 Y-28.9889
G1 X-31.5 Y-11.2765
G1 Y-14.4127
G1 X-44.2707 Y-19.2415
G3 X-45.2402 Y-20.6445 I0.5305 J-1.4031
G1 Y-41.4258
G3 X-45.2012 Y-41.7655 I1.5 J0.0
G1 F300.0 X-46.9545 Y-42.1732
G1 Z-4.2
G3 F800.0 X-46.7674 Y-42.7397 I3.2142 J0.7475
G1 X-47.4559 Y-42.4756
G3 X-46.9545 Y-42.1732 I-1.4455 J2.9639
G1 F300.0 X-46.3701 Y-42.0373
G3 F800.0 X-44.6451 Y-43.9696 I2.6298 J0.6116
G1 X-32.7 Y-48.2188
G1 Y-48.7777
G1 X-58.62 Y-38.8363
G1 X-49.8262 Y-42.0458
G3 X-46.4402 Y-40.6162 I0.9249 J2.5341
G1 Y-41.4258
G3 X-46.3701 Y-42.0373 I2.7 J0.0
G0 Z3.0
G0 X-46.9476 Y-19.868
G0 Z-2.6
G1 F300.0 Z-4.2
G3 F800.0 X-47.7158 Y-19.4473 I-1.9538 J-2.6565
G1 X-46.6146 Y-19.0234
G3 X-46.9476 Y-19.868 I2.8744 J-1.6211
G1 F300.0 X-46.3644 Y-20.0091
G3 F800.0 X-46.4402 Y-20.6445 I2.6242 J-0.6354
G1 Y-21.4199
G3 X-49.8336 Y-19.993 I-2.4611 J-1.1045
G1 X-70.654 Y-27.6601
G2 X-70.9628 Y-27.753 I-5.5127 J17.7569
G1 X-32.7 Y-13.0243
G1 Y-13.5836
G1 X-44.6951 Y-18.119
G3 X-46.3644 Y-20.0091 I0.9549 J-2.5255
G0 Z3.0
G0 X-75.2703 Y-29.4111
G0 Z-2.6
G1 F300.0 Z-4.2
G3 F800.0 X-75.764 Y-30.9668 I2.2039 J-1.5557
G1 Y-31.1035
G3 X-75.4402 Y-32.3851 I2.6976 J0.0
G1 X-76.3137 Y-32.05
G1 Y-29.8128
G1 X-75.2703 Y-29.4111
G1 F300.0 X-75.7013 Y-28.2912
G1 F800.0 X-31.5 Y-11.2765
G1 Y-14.4127
G1 X-44.2707 Y-19.2415
G3 X-45.2402 Y-20.6445 I0.5305 J-1.4031
G1 Y-41.4258
G3 X-44.243 Y-42.839 I1.5 J0.0
G1 X-31.5 Y-47.372
G1 Y-50.5232
G1 X-77.5137 Y-32.875
G1 Y-28.9889
G1 X-75.7013 Y-28.2912
G0 Z3.0
G0 X-74.1189 Y-29.8981
G0 Z-2.6
G1 F300.0 Z-4.2
G3 F800.0 X-74.5664 Y-30.9668 I1.0525 J-1.0687
G1 Y-31.1035
G3 X-73.2841 Y-32.5876 I1.5 J0.0
G2 X-70.2812 Y-33.3054 I-2.5221 J-17.1925
G1 X-49.4156 Y-40.9208
G3 X-47.4014 Y-39.5117 I0.5143 J1.4091
G1 Y-22.5244
G3 X-49.4197 Y-21.1168 I-1.5 J0.0
G1 X-70.2688 Y-28.7945
G2 X-73.2848 Y-29.4828 I-5.8979 J18.8913
G3 X-74.1189 Y-29.8981 I0.2184 J-1.484
G1 F300.0 Z-4.8
G3 F800.0 X-74.5664 Y-30.9668 I1.0525 J-1.0687
G1 Y-31.1035
G3 X-73.2841 Y-32.5876 I1.5 J0.0
G2 X-70.2812 Y-33.3054 I-2.5221 J-17.1925
G1 X-49.4156 Y-40.9208
G3 X-47.4014 Y-39.5117 I0.5143 J1.4091
G1 Y-22.5244
G3 X-49.4197 Y-21.1168 I-1.5 J0.0
G1 X-70.2688 Y-28.7945
G2 X-73.2848 Y-29.4828 I-5.8979 J18.8913
G3 X-74.1189 Y-29.8981 I0.2184 J-1.484
G1 F300.0 X-75.2703 Y-29.4111
G3 F800.0 X-75.764 Y-30.9668 I2.2039 J-1.5557
G1 Y-31.1035
G3 X-75.4402 Y-32.3851 I2.6976 J0.0
G1 X-76.3137 Y-32.05
G1 Y-29.8128
G1 X-75.2703 Y-29.4111
G0 Z3.0
G0 X-47.7158 Y-19.4473
G0 Z-3.2
G1 F300.0 Z-4.8
G1 F800.0 X-46.6146 Y-19.0234
G3 X-46.9476 Y-19.868 I2.8744 J-1.6211
G3 X-47.7158 Y-19.4473 I-1.9538 J-2.6565
G1 F300.0 X-47.9313 Y-18.8874
G1 F800.0 X-32.7 Y-13.0243
G1 Y-13.5836
G1 X-44.6951 Y-18.119
G3 X-46.4402 Y-20.6445 I0.9549 J-2.5255
G1 Y-21.4199
G3 X-49.8336 Y-19.993 I-2.4611 J-1.1045
G1 X-70.654 Y-27.6601
G2 X-70.9628 Y-27.753 I-5.5127 J17.7569
G1 X-47.9313 Y-18.8874
G0 Z3.0
G0 X-46.9545 Y-42.1732
G0 Z-3.2
G1 F300.0 Z-4.8
G3 F800.0 X-46.7674 Y-42.7397 I3.2142 J0.7475
G1 X-47.4559 Y-42.4756
G3 X-46.9545 Y-42.1732 I-1.4455 J2.9639
G1 F300.0 X-46.3701 Y-42.0373
G3 F800.0 X-44.6451 Y-43.9696 I2.6298 J0.6116
G1 X-32.7 Y-48.2188
G1 Y-48.7777
G1 X-58.62 Y-38.8363
G1 X-49.8262 Y-42.0458
G3 X-46.4402 Y-40.6162 I0.9249 J2.5341
G1 Y-41.4258
G3 X-46.3701 Y-42.0373 I2.7 J0.0
G1 F300.0 X-45.2012 Y-41.7655
G3 F800.0 X-44.243 Y-42.839 I1.461 J0.3398
G1 X-31.5 Y-47.372
G1 Y-50.5232
G1 X-77.5137 Y-32.875
G1 Y-28.9889
G1 X-31.5 Y-11.2765
G1 Y-14.4127
G1 X-44.2707 Y-19.2415
G3 X-45.2402 Y-20.6445 I0.5305 J-1.4031
G1 Y-41.4258
G3 X-45.2012 Y-41.7655 I1.5 J0.0
G1 F300.0 X-46.9545 Y-42.1732
G1 Z-5.0
G3 F800.0 X-46.7674 Y-42.7397 I3.2142 J0.7475
G1 X-47.4559 Y-42.4756
G3 X-46.9545 Y-42.1732 I-1.4455 J2.9639
G1 F300.0 X-46.3701 Y-42.0373
G3 F800.0 X-44.6451 Y-43.9696 I2.6298 J0.6116
G1 X-32.7 Y-48.2188
G1 Y-48.7777
G1 X-58.62 Y-38.8363
G1 X-49.8262 Y-42.0458
G3 X-46.4402 Y-40.6162 I0.9249 J2.5341
G1 Y-41.4258
G3 X-46.3701 Y-42.0373 I2.7 J0.0
G0 Z3.0
G0 X-46.9476 Y-19.868
G0 Z-3.8
G1 F300.0 Z-5.0
G3 F800.0 X-47.7158 Y-19.4473 I-1.9538 J-2.6565
G1 X-46.6146 Y-19.0234
G3 X-46.9476 Y-19.868 I2.8744 J-1.6211
G1 F300.0 X-46.3644 Y-20.0091
G3 F800.0 X-46.4402 Y-20.6445 I2.6242 J-0.6354
G1 Y-21.4199
G3 X-49.8336 Y-19.993 I-2.4611 J-1.1045
G1 X-70.654 Y-27.6601
G2 X-70.9628 Y-27.753 I-5.5127 J17.7569
G1 X-32.7 Y-13.0243
G1 Y-13.5836
G1 X-44.6951 Y-18.119
G3 X-46.3644 Y-20.0091 I0.9549 J-2.5255
G0 Z3.0
G0 X-75.2703 Y-29.4111
G0 Z-3.8
G1 F300.0 Z-5.0
G3 F800.0 X-75.764 Y-30.9668 I2.2039 J-1.5557
G1 Y-31.1035
G3 X-75.4402 Y-32.3851 I2.6976 J0.0
G1 X-76.3137 Y-32.05
G1 Y-29.8128
G1 X-75.2703 Y-29.4111
G1 F300.0 X-75.7013 Y-28.2912
G1 F800.0 X-31.5 Y-11.2765
G1 Y-14.4127
G1 X-44.2707 Y-19.2415
G3 X-45.2402 Y-20.6445 I0.5305 J-1.4031
G1 Y-41.4258
G3 X-44.243 Y-42.839 I1.5 J0.0
G1 X-31.5 Y-47.372
G1 Y-50.5232
G1 X-77.5137 Y-32.875
G1 Y-28.9889
G1 X-75.7013 Y-28.2912
G0 Z3.0
G0 X-74.1189 Y-29.8981
G0 Z-3.8
G1 F300.0 Z-5.0
G3 F800.0 X-74.5664 Y-30.9668 I1.0525 J-1.0687
G1 Y-31.1035
G3 X-73.2841 Y-32.5876 I1.5 J0.0
G2 X-70.2812 Y-33.3054 I-2.5221 J-17.1925
G1 X-49.4156 Y-40.9208
G3 X-47.4014 Y-39.5117 I0.5143 J1.4091
G1 Y-22.5244
G3 X-49.4197 Y-21.1168 I-1.5 J0.0
G1 X-70.2688 Y-28.7945
G2 X-73.2848 Y-29.4828 I-5.8979 J18.8913
G3 X-74.1189 Y-29.8981 I0.2184 J-1.484
G0 Z3.0
G0 X-68.6101 Y-1.2526
G0 Z1.0
G1 F300.0 Z-0.6
G2 F800.0 X-71.2021 Y-0.2944 I1.5972 J8.3056
G2 X-73.8869 Y2.0185 I4.9808 J8.4962
G3 X-72.1586 Y0.5818 I7.294 J7.0166
G3 X-72.103 Y0.5462 I1.4848 J2.2551
G3 X-67.2484 Y-0.7866 I4.6617 J7.4722
G3 X-62.8607 Y0.1539 I0.1674 J9.9237
G3 X-62.7225 Y0.2238 I-1.1481 J2.4438
G3 X-59.4084 Y2.9921 I-5.1942 J9.5861
G3 X-56.9422 Y6.7305 I-18.4893 J14.8799
G3 X-56.9419 Y6.7311 I-2.384 J1.2675
G3 X-54.579 Y11.3526 I-144.8804 J76.9893
G2 X-51.9592 Y16.1336 I55.4968 J-27.3012
G3 X-51.953 Y16.144 I-2.3083 J1.4006
G2 X-49.15 Y19.7909 I17.2658 J-10.3698
G2 X-46.0489 Y22.043 I7.9962 J-7.7495
G2 X-42.4229 Y22.8327 I3.4777 J-7.2488
G3 X-42.3549 Y22.8323 I0.0498 J2.6995
G2 X-39.7583 Y22.5715 I0.0822 J-12.241
G1 X-39.7582
G2 X-37.5385 Y21.7401 I-1.6129 J-7.6851
G3 X-37.5374 Y21.7395 I1.3178 J2.3566
G2 X-34.6537 Y19.1487 I-4.2832 J-7.6676
G3 X-37.7004 Y21.3705 I-6.7147 J-6.0079
G3 X-37.748 Y21.3912 I-1.0992 J-2.4661
G3 X-41.9561 Y22.217 I-4.0775 J-9.6429
G3 X-46.7731 Y20.9615 I-0.1587 J-9.2598
G3 X-46.8014 Y20.9448 I1.3581 J-2.3336
G3 X-50.2205 Y17.8825 I6.2015 J-10.364
G3 X-52.7983 Y13.8291 I19.527 J-15.2643
G3 X-55.1727 Y9.2856 I172.5896 J-93.0896
G3 X-55.1743 Y9.2825 I2.4091 J-1.2192
G2 X-57.7134 Y4.6659 I-66.0142 J33.3013
G3 X-57.7204 Y4.6542 I2.3179 J-1.3846
G2 X-60.2745 Y1.2973 I-15.5627 J9.1908
G2 X-63.0663 Y-0.7158 I-7.1014 J6.906
G2 X-66.6874 Y-1.4021 I-3.4367 J8.2365
G3 X-66.8084 Y-1.4024 I-0.0558 J-2.6994
G2 X-68.6101 Y-1.2526 I-0.2044 J8.4553
G0 Z3.0
G0 X-76.9317 Y17.2224
G0 Z1.0
G1 F300.0 Z-0.6
G2 F800.0 X-76.8492 Y17.9644 I39.4679 J-4.0113
G2 X-76.412 Y20.2888 I19.2298 J-2.4136
G3 X-76.4083 Y20.3037 I-2.6181 J0.6601
G2 X-76.277 Y20.7814 I8.9204 J-2.195
G1 X-76.0136
G3 X-76.6136 Y18.763 I17.6737 J-6.3514
G1 X-76.6135 Y18.7631
G1 X-76.6136 Y18.763
G3 X-76.9317 Y17.2224 I26.1767 J-6.2081
G0 Z3.0
G0 X-32.4165 Y3.0883
G0 Z1.0
G1 F300.0 Z-0.6
G2 F800.0 X-32.5723 Y2.306 I-29.2584 J5.4202
G3 X-32.5841 Y2.2475 I2.6407 J-0.5628
G2 X-33.3562 Y-0.813 I-26.204 J4.9828
G2 X-33.6026 Y-1.4699 I-8.019 J2.6332
G1 X-33.9526
G3 X-32.9359 Y1.1797 I-25.3209 J11.2362
G3 X-32.9189 Y1.2339 I-2.567 J0.8369
G3 X-32.4165 Y3.0883 I-31.1145 J9.4238
G1 F300.0 X-31.2366 Y2.8697
G2 F800.0 X-31.3987 Y2.0558 I-30.4383 J5.6388
G3 X-31.4052 Y2.0234 I1.4671 J-0.3127
G2 X-32.214 Y-1.181 I-27.3829 J5.207
G2 X-32.8444 Y-2.6699 I-9.1612 J3.0011
G1 X-35.8783
G3 X-35.5622 Y-2.0713 I-12.9656 J7.2288
G1 Y-2.0714
G1 Y-2.0713
G3 X-34.0768 Y1.5517 I-23.7113 J11.8376
G3 X-34.0673 Y1.5818 I-1.4261 J0.4649
G3 X-33.1706 Y5.3828 I-29.9661 J9.076
G3 X-32.8409 Y8.9755 I-21.3441 J3.7702
G3 X-33.2343 Y13.3592 I-22.1169 J0.2249
G3 X-35.0617 Y17.7471 I-10.8265 J-1.9346
G3 X-35.0816 Y17.7748 I-1.2274 J-0.8623
G3 X-38.1889 Y20.2744 I-6.2869 J-4.634
G3 X-38.2154 Y20.2859 I-0.6107 J-1.3701
G3 X-41.959 Y21.0169 I-3.6101 J-8.5377
G3 X-46.1695 Y19.9244 I-0.1558 J-8.0596
G3 X-46.1852 Y19.9151 I0.7545 J-1.2964
G3 X-49.2698 Y17.1503 I5.5853 J-9.3342
G3 X-51.7348 Y13.2729 I18.5762 J-14.5321
G3 X-54.102 Y8.7437 I171.5261 J-92.5334
G3 X-54.1029 Y8.742 I1.3384 J-0.6773
G2 X-56.6832 Y4.0505 I-67.0856 J33.8417
G3 X-56.6871 Y4.044 I1.2877 J-0.7692
G2 X-59.4125 Y0.4624 I-16.5959 J9.801
G2 X-62.5738 Y-1.8105 I-7.9634 J7.7409
G2 X-66.7122 Y-2.6019 I-3.9292 J9.3313
G3 X-66.7794 Y-2.602 I-0.031 J-1.4997
G2 X-71.8028 Y-1.3333 I-0.2335 J9.6549
G2 X-75.4063 Y2.0611 I5.5815 J9.5351
G2 X-77.5925 Y7.0284 I13.3828 J8.8549
G3 X-77.5947 Y7.037 I-1.4553 J-0.3634
G2 X-78.334 Y12.9191 I22.9259 J5.8689
G3 Y12.9302 I-1.5 J0.0008
G2 X-78.0402 Y18.111 I40.8702 J0.2809
G2 X-77.5756 Y20.5822 I20.4208 J-2.5602
G3 X-77.5735 Y20.5905 I-1.4545 J0.3667
G2 X-77.1254 Y21.9814 I10.0856 J-2.4817
G1 X-74.2158
G3 X-75.4459 Y18.4862 I15.8759 J-7.5514
G1 Y18.4861
G1 Y18.4862
G3 X-76.1387 Y12.3314 I25.0091 J-5.9312
G3 X-75.6982 Y8.2782 I19.0916 J0.0243
G3 X-74.2544 Y4.4649 I11.6389 J2.2268
G3 X-74.2516 Y4.4603 I1.2905 J0.7646
G3 X-71.4987 Y1.5841 I7.6587 J4.5749
G3 X-71.4678 Y1.5643 I0.8249 J1.2528
G3 X-67.2516 Y0.4136 I4.0265 J6.4541
G3 X-63.371 Y1.24 I0.1706 J8.7234
G3 X-63.2942 Y1.2788 I-0.6378 J1.3576
G3 X-60.344 Y3.7435 I-4.6225 J8.531
G3 X-58.0017 Y7.2939 I-17.5536 J14.1285
G3 X-58.0016 Y7.2942 I-1.3244 J0.7042
G3 X-55.6559 Y11.8821 I-143.8207 J76.4261
G2 X-52.9852 Y16.7561 I56.5737 J-27.8307
G3 X-52.9817 Y16.7619 I-1.2824 J0.7781
G2 X-50.0117 Y20.626 I18.2945 J-10.9877
G2 X-46.5723 Y23.1229 I8.858 J-8.5846
G2 X-42.4007 Y24.0325 I4.001 J-8.3286
G3 X-42.363 Y24.0323 I0.0277 J1.4997
G2 X-39.5118 Y23.7459 I0.0902 J-13.441
G2 X-36.9528 Y22.7875 I-1.8594 J-8.8596
G3 X-36.9522 Y22.7871 I0.7321 J1.3092
G2 X-33.4162 Y19.4591 I-4.8684 J-8.7153
G3 X-33.4151 Y19.4575 I1.2628 J0.8095
G2 X-31.3668 Y14.4298 I-12.4532 J-8.0046
G3 X-31.3612 Y14.4038 I1.4694 J0.3016
G2 X-30.6796 Y8.1147 I-27.5634 J-6.1688
G2 X-30.8724 Y5.4215 I-23.7386 J0.3458
G3 X-30.8771 Y5.381 I1.4877 J-0.192
G2 X-31.2366 Y2.8697 I-30.7978 J3.1275
G1 F300.0 X-32.4165 Y3.0883
G1 Z-1.2
G2 F800.0 X-32.5723 Y2.306 I-29.2584 J5.4202
G3 X-32.5841 Y2.2475 I2.6407 J-0.5628
G2 X-33.3562 Y-0.813 I-26.204 J4.9828
G2 X-33.6026 Y-1.4699 I-8.019 J2.6332
G1 X-33.9526
G3 X-32.9359 Y1.1797 I-25.3209 J11.2362
G3 X-32.9189 Y1.2339 I-2.567 J0.8369
G3 X-32.4165 Y3.0883 I-31.1145 J9.4238
G0 Z3.0
G0 X-34.6537 Y19.1487
G0 Z0.4
G1 F300.0 Z-1.2
G3 F800.0 X-37.7004 Y21.3705 I-6.7147 J-6.0079
G3 X-37.748 Y21.3912 I-1.0992 J-2.4661
G3 X-41.9561 Y22.217 I-4.0775 J-9.6429
G3 X-46.7731 Y20.9615 I-0.1587 J-9.2598
G3 X-46.8014 Y20.9448 I1.3581 J-2.3336
G3 X-50.2205 Y17.8825 I6.2015 J-10.364
G3 X-52.7983 Y13.8291 I19.527 J-15.2643
G3 X-55.1727 Y9.2856 I172.5896 J-93.0896
G3 X-55.1743 Y9.2825 I2.4091 J-1.2192
G2 X-57.7134 Y4.6659 I-66.0142 J33.3013
G3 X-57.7204 Y4.6542 I2.3179 J-1.3846
G2 X-60.2745 Y1.2973 I-15.5627 J9.1908
G2 X-63.0663 Y-0.7158 I-7.1014 J6.906
G2 X-66.6874 Y-1.4021 I-3.4367 J8.2365
G3 X-66.8084 Y-1.4024 I-0.0558 J-2.6994
G2 X-71.2021 Y-0.2944 I-0.2044 J8.4553
G2 X-73.8869 Y2.0185 I4.9808 J8.4962
G3 X-72.1586 Y0.5818 I7.294 J7.0166
G3 X-72.103 Y0.5462 I1.4848 J2.2551
G3 X-67.2484 Y-0.7866 I4.6617 J7.4722
G3 X-62.8607 Y0.1539 I0.1674 J9.9237
G3 X-62.7225 Y0.2238 I-1.1481 J2.4438
G3 X-59.4084 Y2.9921 I-5.1942 J9.5861
G3 X-56.9422 Y6.7305 I-18.4893 J14.8799
G3 X-56.9419 Y6.7311 I-2.384 J1.2675
G3 X-54.579 Y11.3526 I-144.8804 J76.9893
G2 X-51.9592 Y16.1336 I55.4968 J-27.3012
G3 X-51.953 Y16.144 I-2.3083 J1.4006
G2 X-49.15 Y19.7909 I17.2658 J-10.3698
G2 X-46.0489 Y22.043 I7.9962 J-7.7495
G2 X-42.4229 Y22.8327 I3.4777 J-7.2488
G3 X-42.3549 Y22.8323 I0.0498 J2.6995
G2 X-39.7583 Y22.5715 I0.0822 J-12.241
G1 X-39.7582
G2 X-37.5385 Y21.7401 I-1.6129 J-7.6851
G3 X-37.5374 Y21.7395 I1.3178 J2.3566
G2 X-34.6537 Y19.1487 I-4.2832 J-7.6676
G0 Z3.0
G0 X-76.0136 Y20.7814
G0 Z0.4
G1 F300.0 Z-1.2
G3 F800.0 X-76.6136 Y18.763 I17.6737 J-6.3514
G1 X-76.6135 Y18.7631
G1 X-76.6136 Y18.763
G3 X-76.9317 Y17.2224 I26.1767 J-6.2081
G2 X-76.8492 Y17.9644 I39.4679 J-4.0113
G2 X-76.412 Y20.2888 I19.2298 J-2.4136
G3 X-76.4083 Y20.3037 I-2.6181 J0.6601
G2 X-76.277 Y20.7814 I8.9204 J-2.195
G1 X-76.0136
G1 F300.0 Y21.9814
G1 F800.0 X-74.2158
G3 X-75.4459 Y18.4862 I15.8759 J-7.5514
G1 Y18.4861
G1 Y18.4862
G3 X-76.1387 Y12.3314 I25.0091 J-5.9312
G3 X-75.6982 Y8.2782 I19.0916 J0.0243
G3 X-74.2544 Y4.4649 I11.6389 J2.2268
G3 X-74.2516 Y4.4603 I1.2905 J0.7646
G3 X-71.4987 Y1.5841 I7.6587 J4.5749
G3 X-71.4678 Y1.5643 I0.8249 J1.2528
G3 X-67.2516 Y0.4136 I4.0265 J6.4541
G3 X-63.371 Y1.24 I0.1706 J8.7234
G3 X-63.2942 Y1.2788 I-0.6378 J1.3576
G3 X-60.344 Y3.7435 I-4.6225 J8.531
G3 X-58.0017 Y7.2939 I-17.5536 J14.1285
G3 X-58.0016 Y7.2942 I-1.3244 J0.7042
G3 X-55.6559 Y11.8821 I-143.8207 J76.4261
G2 X-52.9852 Y16.7561 I56.5737 J-27.8307
G3 X-52.9817 Y16.7619 I-1.2824 J0.7781
G2 X-50.0117 Y20.626 I18.2945 J-10.9877
G2 X-46.5723 Y23.1229 I8.858 J-8.5846
G2 X-42.4007 Y24.0325 I4.001 J-8.3286
G3 X-42.363 Y24.0323 I0.0277 J1.4997
G2 X-39.5118 Y23.7459 I0.0902 J-13.441
G2 X-36.9528 Y22.7875 I-1.8594 J-8.8596
G3 X-36.9522 Y22.7871 I0.7321 J1.3092
G2 X-33.4162 Y19.4591 I-4.8684 J-8.7153
G3 X-33.4151 Y19.4575 I1.2628 J0.8095
G2 X-31.3668 Y14.4298 I-12.4532 J-8.0046
G3 X-31.3612 Y14.4038 I1.4694 J0.3016
G2 X-30.6796 Y8.1147 I-27.5634 J-6.1688
G2 X-30.8724 Y5.4215 I-23.7386 J0.3458
G3 X-30.8771 Y5.381 I1.4877 J-0.192
G2 X-31.3987 Y2.0558 I-30.7978 J3.1275
G3 X-31.4052 Y2.0234 I1.4671 J-0.3127
G2 X-32.214 Y-1.181 I-27.3829 J5.207
G2 X-32.8444 Y-2.6699 I-9.1612 J3.0011
G1 X-35.8783
G3 X-35.5622 Y-2.0713 I-12.9656 J7.2288
G1 Y-2.0714
G1 Y-2.0713
G3 X-34.0768 Y1.5517 I-23.7113 J11.8376
G3 X-34.0673 Y1.5818 I-1.4261 J0.4649
G3 X-33.1706 Y5.3828 I-29.9661 J9.076
G3 X-32.8409 Y8.9755 I-21.3441 J3.7702
G3 X-33.2343 Y13.3592 I-22.1169 J0.2249
G3 X-35.0617 Y17.7471 I-10.8265 J-1.9346
G3 X-35.0816 Y17.7748 I-1.2274 J-0.8623
G3 X-38.1889 Y20.2744 I-6.2869 J-4.634
G3 X-38.2154 Y20.2859 I-0.6107 J-1.3701
G3 X-41.959 Y21.0169 I-3.6101 J-8.5377
G3 X-46.1695 Y19.9244 I-0.1558 J-8.0596
G3 X-46.1852 Y19.9151 I0.7545 J-1.2964
G3 X-49.2698 Y17.1503 I5.5853 J-9.3342
G3 X-51.7348 Y13.2729 I18.5762 J-14.5321
G3 X-54.102 Y8.7437 I171.5261 J-92.5334
G3 X-54.1029 Y8.742 I1.3384 J-0.6773
G2 X-56.6832 Y4.0505 I-67.0856 J33.8417
G3 X-56.6871 Y4.044 I1.2877 J-0.7692
G2 X-59.4125 Y0.4624 I-16.5959 J9.801
G2 X-62.5738 Y-1.8105 I-7.9634 J7.7409
G2 X-66.7122 Y-2.6019 I-3.9292 J9.3313
G3 X-66.7794 Y-2.602 I-0.031 J-1.4997
G2 X-71.8028 Y-1.3333 I-0.2335 J9.6549
G2 X-75.4063 Y2.0611 I5.5815 J9.5351
G2 X-77.5925 Y7.0284 I13.3828 J8.8549
G3 X-77.5947 Y7.037 I-1.4553 J-0.3634
G2 X-78.334 Y12.9191 I22.9259 J5.8689
G3 Y12.9302 I-1.5 J0.0008
G2 X-78.0402 Y18.111 I40.8702 J0.2809
G2 X-77.5756 Y20.5822 I20.4208 J-2.5602
G3 X-77.5735 Y20.5905 I-1.4545 J0.3667
G2 X-77.1254 Y21.9814 I10.0856 J-2.4817
G1 X-76.0136
G1 F300.0 Y20.7814
G1 Z-1.8
G3 F800.0 X-76.6136 Y18.763 I17.6737 J-6.3514
G1 X-76.6135 Y18.7631
G1 X-76.6136 Y18.763
G3 X-76.9317 Y17.2224 I26.1767 J-6.2081
G2 X-76.8492 Y17.9644 I39.4679 J-4.0113
G2 X-76.412 Y20.2888 I19.2298 J-2.4136
G3 X-76.4083 Y20.3037 I-2.6181 J0.6601
G2 X-76.277 Y20.7814 I8.9204 J-2.195
G1 X-76.0136
G0 Z3.0
G0 X-73.8869 Y2.0185
G0 Z-0.2
G1 F300.0 Z-1.8
G3 F800.0 X-72.1586 Y0.5818 I7.294 J7.0166
G3 X-72.103 Y0.5462 I1.4848 J2.2551
G3 X-67.2484 Y-0.7866 I4.6617 J7.4722
G3 X-62.8607 Y0.1539 I0.1674 J9.9237
G3 X-62.7225 Y0.2238 I-1.1481 J2.4438
G3 X-59.4084 Y2.9921 I-5.1942 J9.5861
G3 X-56.9422 Y6.7305 I-18.4893 J14.8799
G3 X-56.9419 Y6.7311 I-2.384 J1.2675
G3 X-54.579 Y11.3526 I-144.8804 J76.9893
G2 X-51.9592 Y16.1336 I55.4968 J-27.3012
G3 X-51.953 Y16.144 I-2.3083 J1.4006
G2 X-49.15 Y19.7909 I17.2658 J-10.3698
G2 X-46.0489 Y22.043 I7.9962 J-7.7495
G2 X-42.4229 Y22.8327 I3.4777 J-7.2488
G3 X-42.3549 Y22.8323 I0.0498 J2.6995
G2 X-39.7583 Y22.5715 I0.0822 J-12.241
G1 X-39.7582
G2 X-37.5385 Y21.7401 I-1.6129 J-7.6851
G3 X-37.5374 Y21.7395 I1.3178 J2.3566
G2 X-34.6537 Y19.1487 I-4.2832 J-7.6676
G3 X-37.7004 Y21.3705 I-6.7147 J-6.0079
G3 X-37.748 Y21.3912 I-1.0992 J-2.4661
G3 X-41.9561 Y22.217 I-4.0775 J-9.6429
G3 X-46.7731 Y20.9615 I-0.1587 J-9.2598
G3 X-46.8014 Y20.9448 I1.3581 J-2.3336
G3 X-50.2205 Y17.8825 I6.2015 J-10.364
G3 X-52.7983 Y13.8291 I19.527 J-15.2643
G3 X-55.1727 Y9.2856 I172.5896 J-93.0896
G3 X-55.1743 Y9.2825 I2.4091 J-1.2192
G2 X-57.7134 Y4.6659 I-66.0142 J33.3013
G3 X-57.7204 Y4.6542 I2.3179 J-1.3846
G2 X-60.2745 Y1.2973 I-15.5627 J9.1908
G2 X-63.0663 Y-0.7158 I-7.1014 J6.906
G2 X-66.6874 Y-1.4021 I-3.4367 J8.2365
G3 X-66.8084 Y-1.4024 I-0.0558 J-2.6994
G2 X-71.2021 Y-0.2944 I-0.2044 J8.4553
G2 X-73.8869 Y2.0185 I4.9808 J8.4962
G0 Z3.0
G0 X-33.9526 Y-1.4699
G0 Z-0.2
G1 F300.0 Z-1.8
G3 F800.0 X-32.9359 Y1.1797 I-25.3209 J11.2362
G3 X-32.9189 Y1.2339 I-2.567 J0.8369
G3 X-32.4165 Y3.0883 I-31.1145 J9.4238
G2 X-32.5723 Y2.306 I-29.2584 J5.4202
G3 X-32.5841 Y2.2475 I2.6407 J-0.5628
G2 X-33.3562 Y-0.813 I-26.204 J4.9828
G2 X-33.6026 Y-1.4699 I-8.019 J2.6332
G1 X-33.9526
G1 F300.0 X-35.0495 Y-0.9832
G3 F800.0 X-34.0768 Y1.5517 I-24.224 J10.7495
G3 X-34.0673 Y1.5818 I-1.4261 J0.4649
G3 X-33.1706 Y5.3828 I-29.9661 J9.076
G3 X-32.8409 Y8.9755 I-21.3441 J3.7702
G3 X-33.2343 Y13.3592 I-22.1169 J0.2249
G3 X-35.0617 Y17.7471 I-10.8265 J-1.9346
G3 X-35.0816 Y17.7748 I-1.2274 J-0.8623
G3 X-38.1889 Y20.2744 I-6.2869 J-4.634
G3 X-38.2154 Y20.2859 I-0.6107 J-1.3701
G3 X-41.959 Y21.0169 I-3.6101 J-8.5377
G3 X-46.1695 Y19.9244 I-0.1558 J-8.0596
G3 X-46.1852 Y19.9151 I0.7545 J-1.2964
G3 X-49.2698 Y17.1503 I5.5853 J-9.3342
G3 X-51.7348 Y13.2729 I18.5762 J-14.5321
G3 X-54.102 Y8.7437 I171.5261 J-92.5334
G3 X-54.1029 Y8.742 I1.3384 J-0.6773
G2 X-56.6832 Y4.0505 I-67.0856 J33.8417
G3 X-56.6871 Y4.044 I1.2877 J-0.7692
G2 X-59.4125 Y0.4624 I-16.5959 J9.801
G2 X-62.5738 Y-1.8105 I-7.9634 J7.7409
G2 X-66.7122 Y-2.6019 I-3.9292 J9.3313
G3 X-66.7794 Y-2.602 I-0.031 J-1.4997
G2 X-71.8028 Y-1.3333 I-0.2335 J9.6549
G2 X-75.4063 Y2.0611 I5.5815 J9.5351
G2 X-77.5925 Y7.0284 I13.3828 J8.8549
G3 X-77.5947 Y7.037 I-1.4553 J-0.3634
G2 X-78.334 Y12.9191 I22.9259 J5.8689
G3 Y12.9302 I-1.5 J0.0008
G2 X-78.0402 Y18.111 I40.8702 J0.2809
G2 X-77.5756 Y20.5822 I20.4208 J-2.5602
G3 X-77.5735 Y20.5905 I-1.4545 J0.3667
G2 X-77.1254 Y21.9814 I10.0856 J-2.4817
G1 X-74.2158
G3 X-75.4459 Y18.4862 I15.8759 J-7.5514
G1 Y18.4861
G1 Y18.4862
G3 X-76.1387 Y12.3314 I25.0091 J-5.9312
G3 X-75.6982 Y8.2782 I19.0916 J0.0243
G3 X-74.2544 Y4.4649 I11.6389 J2.2268
G3 X-74.2516 Y4.4603 I1.2905 J0.7646
G3 X-71.4987 Y1.5841 I7.6587 J4.5749
G3 X-71.4678 Y1.5643 I0.8249 J1.2528
G3 X-67.2516 Y0.4136 I4.0265 J6.4541
G3 X-63.371 Y1.24 I0.1706 J8.7234
G3 X-63.2942 Y1.2788 I-0.6378 J1.3576
G3 X-60.344 Y3.7435 I-4.6225 J8.531
G3 X-58.0017 Y7.2939 I-17.5536 J14.1285
G3 X-58.0016 Y7.2942 I-1.3244 J0.7042
G3 X-55.6559 Y11.8821 I-143.8207 J76.4261
G2 X-52.9852 Y16.7561 I56.5737 J-27.8307
G3 X-52.9817 Y16.7619 I-1.2824 J0.7781
G2 X-50.0117 Y20.626 I18.2945 J-10.9877
G2 X-46.5723 Y23.1229 I8.858 J-8.5846
G2 X-42.4007 Y24.0325 I4.001 J-8.3286
G3 X-42.363 Y24.0323 I0.0277 J1.4997
G2 X-39.5118 Y23.7459 I0.0902 J-13.441
G2 X-36.9528 Y22.7875 I-1.8594 J-8.8596
G3 X-36.9522 Y22.7871 I0.7321 J1.3092
G2 X-33.4162 Y19.4591 I-4.8684 J-8.7153
G3 X-33.4151 Y19.4575 I1.2628 J0.8095
G2 X-31.3668 Y14.4298 I-12.4532 J-8.0046
G3 X-31.3612 Y14.4038 I1.4694 J0.3016
G2 X-30.6796 Y8.1147 I-27.5634 J-6.1688
G2 X-30.8724 Y5.4215 I-23.7386 J0.3458
G3 X-30.8771 Y5.381 I1.4877 J-0.192
G2 X-31.3987 Y2.0558 I-30.7978 J3.1275
G3 X-31.4052 Y2.0234 I1.4671 J-0.3127
G2 X-32.214 Y-1.181 I-27.3829 J5.207
G2 X-32.8444 Y-2.6699 I-9.1612 J3.0011
G1 X-35.8783
G3 X-35.5622 Y-2.0713 I-12.9656 J7.2288
G1 Y-2.0714
G1 Y-2.0713
G3 X-35.0495 Y-0.9832 I-23.7113 J11.8376
G1 F300.0 X-33.9526 Y-1.4699
G1 Z-2.4
G3 F800.0 X-32.9359 Y1.1797 I-25.3209 J11.2362
G3 X-32.9189 Y1.2339 I-2.567 J0.8369
G3 X-32.4165 Y3.0883 I-31.1145 J9.4238
G2 X-32.5723 Y2.306 I-29.2584 J5.4202
G3 X-32.5841 Y2.2475 I2.6407 J-0.5628
G2 X-33.3562 Y-0.813 I-26.204 J4.9828
G2 X-33.6026 Y-1.4699 I-8.019 J2.6332
G1 X-33.9526
G0 Z3.0
G0 X-34.6537 Y19.1487
G0 Z-0.8
G1 F300.0 Z-2.4
G3 F800.0 X-37.7004 Y21.3705 I-6.7147 J-6.0079
G3 X-37.748 Y21.3912 I-1.0992 J-2.4661
G3 X-41.9561 Y22.217 I-4.0775 J-9.6429
G3 X-46.7731 Y20.9615 I-0.1587 J-9.2598
G3 X-46.8014 Y20.9448 I1.3581 J-2.3336
G3 X-50.2205 Y17.8825 I6.2015 J-10.364
G3 X-52.7983 Y13.8291 I19.527 J-15.2643
G3 X-55.1727 Y9.2856 I172.5896 J-93.0896
G3 X-55.1743 Y9.2825 I2.4091 J-1.2192
G2 X-57.7134 Y4.6659 I-66.0142 J33.3013
G3 X-57.7204 Y4.6542 I2.3179 J-1.3846
G2 X-60.2745 Y1.2973 I-15.5627 J9.1908
G2 X-63.0663 Y-0.7158 I-7.1014 J6.906
G2 X-66.6874 Y-1.4021 I-3.4367 J8.2365
G3 X-66.8084 Y-1.4024 I-0.0558 J-2.6994
G2 X-71.2021 Y-0.2944 I-0.2044 J8.4553
G2 X-73.8869 Y2.0185 I4.9808 J8.4962
G3 X-72.1586 Y0.5818 I7.294 J7.0166
G3 X-72.103 Y0.5462 I1.4848 J2.2551
G3 X-67.2484 Y-0.7866 I4.6617 J7.4722
G3 X-62.8607 Y0.1539 I0.1674 J9.9237
G3 X-62.7225 Y0.2238 I-1.1481 J2.4438
G3 X-59.4084 Y2.9921 I-5.1942 J9.5861
G3 X-56.9422 Y6.7305 I-18.4893 J14.8799
G3 X-56.9419 Y6.7311 I-2.384 J1.2675
G3 X-54.579 Y11.3526 I-144.8804 J76.9893
G2 X-51.9592 Y16.1336 I55.4968 J-27.3012
G3 X-51.953 Y16.144 I-2.3083 J1.4006
G2 X-49.15 Y19.7909 I17.2658 J-10.3698
G2 X-46.0489 Y22.043 I7.9962 J-7.7495
G2 X-42.4229 Y22.8327 I3.4777 J-7.2488
G3 X-42.3549 Y22.8323 I0.0498 J2.6995
G2 X-39.7583 Y22.5715 I0.0822 J-12.241
G1 X-39.7582
G2 X-37.5385 Y21.7401 I-1.6129 J-7.6851
G3 X-37.5374 Y21.7395 I1.3178 J2.3566
G2 X-34.6537 Y19.1487 I-4.2832 J-7.6676
G0 Z3.0
G0 X-76.0136 Y20.7814
G0 Z-0.8
G1 F300.0 Z-2.4
G3 F800.0 X-76.6136 Y18.763 I17.6737 J-6.3514
G1 X-76.6135 Y18.7631
G1 X-76.6136 Y18.763
G3 X-76.9317 Y17.2224 I26.1767 J-6.2081
G2 X-76.8492 Y17.9644 I39.4679 J-4.0113
G2 X-76.412 Y20.2888 I19.2298 J-2.4136
G3 X-76.4083 Y20.3037 I-2.6181 J0.6601
G2 X-76.277 Y20.7814 I8.9204 J-2.195
G1 X-76.0136
G1 F300.0 Y21.9814
G1 F800.0 X-74.2158
G3 X-75.4459 Y18.4862 I15.8759 J-7.5514
G1 Y18.4861
G1 Y18.4862
G3 X-76.1387 Y12.3314 I25.0091 J-5.9312
G3 X-75.6982 Y8.2782 I19.0916 J0.0243
G3 X-74.2544 Y4.4649 I11.6389 J2.2268
G3 X-74.2516 Y4.4603 I1.2905 J0.7646
G3 X-71.4987 Y1.5841 I7.6587 J4.5749
G3 X-71.4678 Y1.5643 I0.8249 J1.2528
G3 X-67.2516 Y0.4136 I4.0265 J6.4541
G3 X-63.371 Y1.24 I0.1706 J8.7234
G3 X-63.2942 Y1.2788 I-0.6378 J1.3576
G3 X-60.344 Y3.7435 I-4.6225 J8.531
G3 X-58.0017 Y7.2939 I-17.5536 J14.1285
G3 X-58.0016 Y7.2942 I-1.3244 J0.7042
G3 X-55.6559 Y11.8821 I-143.8207 J76.4261
G2 X-52.9852 Y16.7561 I56.5737 J-27.8307
G3 X-52.9817 Y16.7619 I-1.2824 J0.7781
G2 X-50.0117 Y20.626 I18.2945 J-10.9877
G2 X-46.5723 Y23.1229 I8.858 J-8.5846
G2 X-42.4007 Y24.0325 I4.001 J-8.3286
G3 X-42.363 Y24.0323 I0.0277 J1.4997
G2 X-39.5118 Y23.7459 I0.0902 J-13.441
G2 X-36.9528 Y22.7875 I-1.8594 J-8.8596
G3 X-36.9522 Y22.7871 I0.7321 J1.3092
G2 X-33.4162 Y19.4591 I-4.8684 J-8.7153
G3 X-33.4151 Y19.4575 I1.2628 J0.8095
G2 X-31.3668 Y14.4298 I-12.4532 J-8.0046
G3 X-31.3612 Y14.4038 I1.4694 J0.3016
G2 X-30.6796 Y8.1147 I-27.5634 J-6.1688
G2 X-30.8724 Y5.4215 I-23.7386 J0.3458
G3 X-30.8771 Y5.381 I1.4877 J-0.192
G2 X-31.3987 Y2.0558 I-30.7978 J3.1275
G3 X-31.4052 Y2.0234 I1.4671 J-0.3127
G2 X-32.214 Y-1.181 I-27.3829 J5.207
G2 X-32.8444 Y-2.6699 I-9.1612 J3.0011
G1 X-35.8783
G3 X-35.5622 Y-2.0713 I-12.9656 J7.2288
G1 Y-2.0714
G1 Y-2.0713
G3 X-34.0768 Y1.5517 I-23.7113 J11.8376
G3 X-34.0673 Y1.5818 I-1.4261 J0.4649
G3 X-33.1706 Y5.3828 I-29.9661 J9.076
G3 X-32.8409 Y8.9755 I-21.3441 J3.7702
G3 X-33.2343 Y13.3592 I-22.1169 J0.2249
G3 X-35.0617 Y17.7471 I-10.8265 J-1.9346
G3 X-35.0816 Y17.7748 I-1.2274 J-0.8623
G3 X-38.1889 Y20.2744 I-6.2869 J-4.634
G3 X-38.2154 Y20.2859 I-0.6107 J-1.3701
G3 X-41.959 Y21.0169 I-3.6101 J-8.5377
G3 X-46.1695 Y19.9244 I-0.1558 J-8.0596
G3 X-46.1852 Y19.9151 I0.7545 J-1.2964
G3 X-49.2698 Y17.1503 I5.5853 J-9.3342
G3 X-51.7348 Y13.2729 I18.5762 J-14.5321
G3 X-54.102 Y8.7437 I171.5261 J-92.5334
G3 X-54.1029 Y8.742 I1.3384 J-0.6773
G2 X-56.6832 Y4.0505 I-67.0856 J33.8417
G3 X-56.6871 Y4.044 I1.2877 J-0.7692
G2 X-59.4125 Y0.4624 I-16.5959 J9.801
G2 X-62.5738 Y-1.8105 I-7.9634 J7.7409
G2 X-66.7122 Y-2.6019 I-3.9292 J9.3313
G3 X-66.7794 Y-2.602 I-0.031 J-1.4997
G2 X-71.8028 Y-1.3333 I-0.2335 J9.6549
G2 X-75.4063 Y2.0611 I5.5815 J9.5351
G2 X-77.5925 Y7.0284 I13.3828 J8.8549
G3 X-77.5947 Y7.037 I-1.4553 J-0.3634
G2 X-78.334 Y12.9191 I22.9259 J5.8689
G3 Y12.9302 I-1.5 J0.0008
G2 X-78.0402 Y18.111 I40.8702 J0.2809
G2 X-77.5756 Y20.5822 I20.4208 J-2.5602
G3 X-77.5735 Y20.5905 I-1.4545 J0.3667
G2 X-77.1254 Y21.9814 I10.0856 J-2.4817
G1 X-76.0136
G1 F300.0 Y20.7814
G1 Z-3.0
G3 F800.0 X-76.6136 Y18.763 I17.6737 J-6.3514
G1 X-76.6135 Y18.7631
G1 X-76.6136 Y18.763
G3 X-76.9317 Y17.2224 I26.1767 J-6.2081
G2 X-76.8492 Y17.9644 I39.4679 J-4.0113
G2 X-76.412 Y20.2888 I19.2298 J-2.4136
G3 X-76.4083 Y20.3037 I-2.6181 J0.6601
G2 X-76.277 Y20.7814 I8.9204 J-2.195
G1 X-76.0136
G0 Z3.0
G0 X-73.8869 Y2.0185
G0 Z-1.4
G1 F300.0 Z-3.0
G3 F800.0 X-72.1586 Y0.5818 I7.294 J7.0166
G3 X-72.103 Y0.5462 I1.4848 J2.2551
G3 X-67.2484 Y-0.7866 I4.6617 J7.4722
G3 X-62.8607 Y0.1539 I0.1674 J9.9237
G3 X-62.7225 Y0.2238 I-1.1481 J2.4438
G3 X-59.4084 Y2.9921 I-5.1942 J9.5861
G3 X-56.9422 Y6.7305 I-18.4893 J14.8799
G3 X-56.9419 Y6.7311 I-2.384 J1.2675
G3 X-54.579 Y11.3526 I-144.8804 J76.9893
G2 X-51.9592 Y16.1336 I55.4968 J-27.3012
G3 X-51.953 Y16.144 I-2.3083 J1.4006
G2 X-49.15 Y19.7909 I17.2658 J-10.3698
G2 X-46.0489 Y22.043 I7.9962 J-7.7495
G2 X-42.4229 Y22.8327 I3.4777 J-7.2488
G3 X-42.3549 Y22.8323 I0.0498 J2.6995
G2 X-39.7583 Y22.5715 I0.0822 J-12.241
G1 X-39.7582
G2 X-37.5385 Y21.7401 I-1.6129 J-7.6851
G3 X-37.5374 Y21.7395 I1.3178 J2.3566
G2 X-34.6537 Y19.1487 I-4.2832 J-7.6676
G3 X-37.7004 Y21.3705 I-6.7147 J-6.0079
G3 X-37.748 Y21.3912 I-1.0992 J-2.4661
G3 X-41.9561 Y22.217 I-4.0775 J-9.6429
G3 X-46.7731 Y20.9615 I-0.1587 J-9.2598
G3 X-46.8014 Y20.9448 I1.3581 J-2.3336
G3 X-50.2205 Y17.8825 I6.2015 J-10.364
G3 X-52.7983 Y13.8291 I19.527 J-15.2643
G3 X-55.1727 Y9.2856 I172.5896 J-93.0896
G3 X-55.1743 Y9.2825 I2.4091 J-1.2192
G2 X-57.7134 Y4.6659 I-66.0142 J33.3013
G3 X-57.7204 Y4.6542 I2.3179 J-1.3846
G2 X-60.2745 Y1.2973 I-15.5627 J9.1908
G2 X-63.0663 Y-0.7158 I-7.1014 J6.906
G2 X-66.6874 Y-1.4021 I-3.4367 J8.2365
G3 X-66.8084 Y-1.4024 I-0.0558 J-2.6994
G2 X-71.2021 Y-0.2944 I-0.2044 J8.4553
G2 X-73.8869 Y2.0185 I4.9808 J8.4962
G0 Z3.0
G0 X-33.9526 Y-1.4699
G0 Z-1.4
G1 F300.0 Z-3.0
G3 F800.0 X-32.9359 Y1.1797 I-25.3209 J11.2362
G3 X-32.9189 Y1.2339 I-2.567 J0.8369
G3 X-32.4165 Y3.0883 I-31.1145 J9.4238
G2 X-32.5723 Y2.306 I-29.2584 J5.4202
G3 X-32.5841 Y2.2475 I2.6407 J-0.5628
G2 X-33.3562 Y-0.813 I-26.204 J4.9828
G2 X-33.6026 Y-1.4699 I-8.019 J2.6332
G1 X-33.9526
G1 F300.0 X-35.0495 Y-0.9832
G3 F800.0 X-34.0768 Y1.5517 I-24.224 J10.7495
G3 X-34.0673 Y1.5818 I-1.4261 J0.4649
G3 X-33.1706 Y5.3828 I-29.9661 J9.076
G3 X-32.8409 Y8.9755 I-21.3441 J3.7702
G3 X-33.2343 Y13.3592 I-22.1169 J0.2249
G3 X-35.0617 Y17.7471 I-10.8265 J-1.9346
G3 X-35.0816 Y17.7748 I-1.2274 J-0.8623
G3 X-38.1889 Y20.2744 I-6.2869 J-4.634
G3 X-38.2154 Y20.2859 I-0.6107 J-1.3701
G3 X-41.959 Y21.0169 I-3.6101 J-8.5377
G3 X-46.1695 Y19.9244 I-0.1558 J-8.0596
G3 X-46.1852 Y19.9151 I0.7545 J-1.2964
G3 X-49.2698 Y17.1503 I5.5853 J-9.3342
G3 X-51.7348 Y13.2729 I18.5762 J-14.5321
G3 X-54.102 Y8.7437 I171.5261 J-92.5334
G3 X-54.1029 Y8.742 I1.3384 J-0.6773
G2 X-56.6832 Y4.0505 I-67.0856 J33.8417
G3 X-56.6871 Y4.044 I1.2877 J-0.7692
G2 X-59.4125 Y0.4624 I-16.5959 J9.801
G2 X-62.5738 Y-1.8105 I-7.9634 J7.7409
G2 X-66.7122 Y-2.6019 I-3.9292 J9.3313
G3 X-66.7794 Y-2.602 I-0.031 J-1.4997
G2 X-71.8028 Y-1.3333 I-0.2335 J9.6549
G2 X-75.4063 Y2.0611 I5.5815 J9.5351
G2 X-77.5925 Y7.0284 I13.3828 J8.8549
G3 X-77.5947 Y7.037 I-1.4553 J-0.3634
G2 X-78.334 Y12.9191 I22.9259 J5.8689
G3 Y12.9302 I-1.5 J0.0008
G2 X-78.0402 Y18.111 I40.8702 J0.2809
G2 X-77.5756 Y20.5822 I20.4208 J-2.5602
G3 X-77.5735 Y20.5905 I-1.4545 J0.3667
G2 X-77.1254 Y21.9814 I10.0856 J-2.4817
G1 X-74.2158
G3 X-75.4459 Y18.4862 I15.8759 J-7.5514
G1 Y18.4861
G1 Y18.4862
G3 X-76.1387 Y12.3314 I25.0091 J-5.9312
G3 X-75.6982 Y8.2782 I19.0916 J0.0243
G3 X-74.2544 Y4.4649 I11.6389 J2.2268
G3 X-74.2516 Y4.4603 I1.2905 J0.7646
G3 X-71.4987 Y1.5841 I7.6587 J4.5749
G3 X-71.4678 Y1.5643 I0.8249 J1.2528
G3 X-67.2516 Y0.4136 I4.0265 J6.4541
G3 X-63.371 Y1.24 I0.1706 J8.7234
G3 X-63.2942 Y1.2788 I-0.6378 J1.3576
G3 X-60.344 Y3.7435 I-4.6225 J8.531
G3 X-58.0017 Y7.2939 I-17.5536 J14.1285
G3 X-58.0016 Y7.2942 I-1.3244 J0.7042
G3 X-55.6559 Y11.8821 I-143.8207 J76.4261
G2 X-52.9852 Y16.7561 I56.5737 J-27.8307
G3 X-52.9817 Y16.7619 I-1.2824 J0.7781
G2 X-50.0117 Y20.626 I18.2945 J-10.9877
G2 X-46.5723 Y23.1229 I8.858 J-8.5846
G2 X-42.4007 Y24.0325 I4.001 J-8.3286
G3 X-42.363 Y24.0323 I0.0277 J1.4997
G2 X-39.5118 Y23.7459 I0.0902 J-13.441
G2 X-36.9528 Y22.7875 I-1.8594 J-8.8596
G3 X-36.9522 Y22.7871 I0.7321 J1.3092
G2 X-33.4162 Y19.4591 I-4.8684 J-8.7153
G3 X-33.4151 Y19.4575 I1.2628 J0.8095
G2 X-31.3668 Y14.4298 I-12.4532 J-8.0046
G3 X-31.3612 Y14.4038 I1.4694 J0.3016
G2 X-30.6796 Y8.1147 I-27.5634 J-6.1688
G2 X-30.8724 Y5.4215 I-23.7386 J0.3458
G3 X-30.8771 Y5.381 I1.4877 J-0.192
G2 X-31.3987 Y2.0558 I-30.7978 J3.1275
G3 X-31.4052 Y2.0234 I1.4671 J-0.3127
G2 X-32.214 Y-1.181 I-27.3829 J5.207
G2 X-32.8444 Y-2.6699 I-9.1612 J3.0011
G1 X-35.8783
G3 X-35.5622 Y-2.0713 I-12.9656 J7.2288
G1 Y-2.0714
G1 Y-2.0713
G3 X-35.0495 Y-0.9832 I-23.7113 J11.8376
G1 F300.0 X-33.9526 Y-1.4699
G1 Z-3.6
G3 F800.0 X-32.9359 Y1.1797 I-25.3209 J11.2362
G3 X-32.9189 Y1.2339 I-2.567 J0.8369
G3 X-32.4165 Y3.0883 I-31.1145 J9.4238
G2 X-32.5723 Y2.306 I-29.2584 J5.4202
G3 X-32.5841 Y2.2475 I2.6407 J-0.5628
G2 X-33.3562 Y-0.813 I-26.204 J4.9828
G2 X-33.6026 Y-1.4699 I-8.019 J2.6332
G1 X-33.9526
G0 Z3.0
G0 X-34.6537 Y19.1487
G0 Z-2.0
G1 F300.0 Z-3.6
G3 F800.0 X-37.7004 Y21.3705 I-6.7147 J-6.0079
G3 X-37.748 Y21.3912 I-1.0992 J-2.4661
G3 X-41.9561 Y22.217 I-4.0775 J-9.6429
G3 X-46.7731 Y20.9615 I-0.1587 J-9.2598
G3 X-46.8014 Y20.9448 I1.3581 J-2.3336
G3 X-50.2205 Y17.8825 I6.2015 J-10.364
G3 X-52.7983 Y13.8291 I19.527 J-15.2643
G3 X-55.1727 Y9.2856 I172.5896 J-93.0896
G3 X-55.1743 Y9.2825 I2.4091 J-1.2192
G2 X-57.7134 Y4.6659 I-66.0142 J33.3013
G3 X-57.7204 Y4.6542 I2.3179 J-1.3846
G2 X-60.2745 Y1.2973 I-15.5627 J9.1908
G2 X-63.0663 Y-0.7158 I-7.1014 J6.906
G2 X-66.6874 Y-1.4021 I-3.4367 J8.2365
G3 X-66.8084 Y-1.4024 I-0.0558 J-2.6994
G2 X-71.2021 Y-0.2944 I-0.2044 J8.4553
G2 X-73.8869 Y2.0185 I4.9808 J8.4962
G3 X-72.1586 Y0.5818 I7.294 J7.0166
G3 X-72.103 Y0.5462 I1.4848 J2.2551
G3 X-67.2484 Y-0.7866 I4.6617 J7.4722
G3 X-62.8607 Y0.1539 I0.1674 J9.9237
G3 X-62.7225 Y0.2238 I-1.1481 J2.4438
G3 X-59.4084 Y2.9921 I-5.1942 J9.5861
G3 X-56.9422 Y6.7305 I-18.4893 J14.8799
G3 X-56.9419 Y6.7311 I-2.384 J1.2675
G3 X-54.579 Y11.3526 I-144.8804 J76.9893
G2 X-51.9592 Y16.1336 I55.4968 J-27.3012
G3 X-51.953 Y16.144 I-2.3083 J1.4006
G2 X-49.15 Y19.7909 I17.2658 J-10.3698
G2 X-46.0489 Y22.043 I7.9962 J-7.7495
G2 X-42.4229 Y22.8327 I3.4777 J-7.2488
G3 X-42.3549 Y22.8323 I0.0498 J2.6995
G2 X-39.7583 Y22.5715 I0.0822 J-12.241
G1 X-39.7582
G2 X-37.5385 Y21.7401 I-1.6129 J-7.6851
G3 X-37.5374 Y21.7395 I1.3178 J2.3566
G2 X-34.6537 Y19.1487 I-4.2832 J-7.6676
G0 Z3.0
G0 X-76.0136 Y20.7814
G0 Z-2.0
G1 F300.0 Z-3.6
G3 F800.0 X-76.6136 Y18.763 I17.6737 J-6.3514
G1 X-76.6135 Y18.7631
G1 X-76.6136 Y18.763
G3 X-76.9317 Y17.2224 I26.1767 J-6.2081
G2 X-76.8492 Y17.9644 I39.4679 J-4.0113
G2 X-76.412 Y20.2888 I19.2298 J-2.4136
G3 X-76.4083 Y20.3037 I-2.6181 J0.6601
G2 X-76.277 Y20.7814 I8.9204 J-2.195
G1 X-76.0136
G1 F300.0 Y21.9814
G1 F800.0 X-74.2158
G3 X-75.4459 Y18.4862 I15.8759 J-7.5514
G1 Y18.4861
G1 Y18.4862
G3 X-76.1387 Y12.3314 I25.0091 J-5.9312
G3 X-75.6982 Y8.2782 I19.0916 J0.0243
G3 X-74.2544 Y4.4649 I11.6389 J2.2268
G3 X-74.2516 Y4.4603 I1.2905 J0.7646
G3 X-71.4987 Y1.5841 I7.6587 J4.5749
G3 X-71.4678 Y1.5643 I0.8249 J1.2528
G3 X-67.2516 Y0.4136 I4.0265 J6.4541
G3 X-63.371 Y1.24 I0.1706 J8.7234
G3 X-63.2942 Y1.2788 I-0.6378 J1.3576
G3 X-60.344 Y3.7435 I-4.6225 J8.531
G3 X-58.0017 Y7.2939 I-17.5536 J14.1285
G3 X-58.0016 Y7.2942 I-1.3244 J0.7042
G3 X-55.6559 Y11.8821 I-143.8207 J76.4261
G2 X-52.9852 Y16.7561 I56.5737 J-27.8307
G3 X-52.9817 Y16.7619 I-1.2824 J0.7781
G2 X-50.0117 Y20.626 I18.2945 J-10.9877
G2 X-46.5723 Y23.1229 I8.858 J-8.5846
G2 X-42.4007 Y24.0325 I4.001 J-8.3286
G3 X-42.363 Y24.0323 I0.0277 J1.4997
G2 X-39.5118 Y23.7459 I0.0902 J-13.441
G2 X-36.9528 Y22.7875 I-1.8594 J-8.8596
G3 X-36.9522 Y22.7871 I0.7321 J1.3092
G2 X-33.4162 Y19.4591 I-4.8684 J-8.7153
G3 X-33.4151 Y19.4575 I1.2628 J0.8095
G2 X-31.3668 Y14.4298 I-12.4532 J-8.0046
G3 X-31.3612 Y14.4038 I1.4694 J0.3016
G2 X-30.6796 Y8.1147 I-27.5634 J-6.1688
G2 X-30.8724 Y5.4215 I-23.7386 J0.3458
G3 X-30.8771 Y5.381 I1.4877 J-0.192
G2 X-31.3987 Y2.0558 I-30.7978 J3.1275
G3 X-31.4052 Y2.0234 I1.4671 J-0.3127
G2 X-32.214 Y-1.181 I-27.3829 J5.207
G2 X-32.8444 Y-2.6699 I-9.1612 J3.0011
G1 X-35.8783
G3 X-35.5622 Y-2.0713 I-12.9656 J7.2288
G1 Y-2.0714
G1 Y-2.0713
G3 X-34.0768 Y1.5517 I-23.7113 J11.8376
G3 X-34.0673 Y1.5818 I-1.4261 J0.4649
G3 X-33.1706 Y5.3828 I-29.9661 J9.076
G3 X-32.8409 Y8.9755 I-21.3441 J3.7702
G3 X-33.2343 Y13.3592 I-22.1169 J0.2249
G3 X-35.0617 Y17.7471 I-10.8265 J-1.9346
G3 X-35.0816 Y17.7748 I-1.2274 J-0.8623
G3 X-38.1889 Y20.2744 I-6.2869 J-4.634
G3 X-38.2154 Y20.2859 I-0.6107 J-1.3701
G3 X-41.959 Y21.0169 I-3.6101 J-8.5377
G3 X-46.1695 Y19.9244 I-0.1558 J-8.0596
G3 X-46.1852 Y19.9151 I0.7545 J-1.2964
G3 X-49.2698 Y17.1503 I5.5853 J-9.3342
G3 X-51.7348 Y13.2729 I18.5762 J-14.5321
G3 X-54.102 Y8.7437 I171.5261 J-92.5334
G3 X-54.1029 Y8.742 I1.3384 J-0.6773
G2 X-56.6832 Y4.0505 I-67.0856 J33.8417
G3 X-56.6871 Y4.044 I1.2877 J-0.7692
G2 X-59.4125 Y0.4624 I-16.5959 J9.801
G2 X-62.5738 Y-1.8105 I-7.9634 J7.7409
G2 X-66.7122 Y-2.6019 I-3.9292 J9.3313
G3 X-66.7794 Y-2.602 I-0.031 J-1.4997
G2 X-71.8028 Y-1.3333 I-0.2335 J9.6549
G2 X-75.4063 Y2.0611 I5.5815 J9.5351
G2 X-77.5925 Y7.0284 I13.3828 J8.8549
G3 X-77.5947 Y7.037 I-1.4553 J-0.3634
G2 X-78.334 Y12.9191 I22.9259 J5.8689
G3 Y12.9302 I-1.5 J0.0008
G2 X-78.0402 Y18.111 I40.8702 J0.2809
G2 X-77.5756 Y20.5822 I20.4208 J-2.5602
G3 X-77.5735 Y20.5905 I-1.4545 J0.3667
G2 X-77.1254 Y21.9814 I10.0856 J-2.4817
G1 X-76.0136
G1 F300.0 Y20.7814
G1 Z-4.2
G3 F800.0 X-76.6136 Y18.763 I17.6737 J-6.3514
G1 X-76.6135 Y18.7631
G1 X-76.6136 Y18.763
G3 X-76.9317 Y17.2224 I26.1767 J-6.2081
G2 X-76.8492 Y17.9644 I39.4679 J-4.0113
G2 X-76.412 Y20.2888 I19.2298 J-2.4136
G3 X-76.4083 Y20.3037 I-2.6181 J0.6601
G2 X-76.277 Y20.7814 I8.9204 J-2.195
G1 X-76.0136
G0 Z3.0
G0 X-73.8869 Y2.0185
G0 Z-2.6
G1 F300.0 Z-4.2
G3 F800.0 X-72.1586 Y0.5818 I7.294 J7.0166
G3 X-72.103 Y0.5462 I1.4848 J2.2551
G3 X-67.2484 Y-0.7866 I4.6617 J7.4722
G3 X-62.8607 Y0.1539 I0.1674 J9.9237
G3 X-62.7225 Y0.2238 I-1.1481 J2.4438
G3 X-59.4084 Y2.9921 I-5.1942 J9.5861
G3 X-56.9422 Y6.7305 I-18.4893 J14.8799
G3 X-56.9419 Y6.7311 I-2.384 J1.2675
G3 X-54.579 Y11.3526 I-144.8804 J76.9893
G2 X-51.9592 Y16.1336 I55.4968 J-27.3012
G3 X-51.953 Y16.144 I-2.3083 J1.4006
G2 X-49.15 Y19.7909 I17.2658 J-10.3698
G2 X-46.0489 Y22.043 I7.9962 J-7.7495
G2 X-42.4229 Y22.8327 I3.4777 J-7.2488
G3 X-42.3549 Y22.8323 I0.0498 J2.6995
G2 X-39.7583 Y22.5715 I0.0822 J-12.241
G1 X-39.7582
G2 X-37.5385 Y21.7401 I-1.6129 J-7.6851
G3 X-37.5374 Y21.7395 I1.3178 J2.3566
G2 X-34.6537 Y19.1487 I-4.2832 J-7.6676
G3 X-37.7004 Y21.3705 I-6.7147 J-6.0079
G3 X-37.748 Y21.3912 I-1.0992 J-2.4661
G3 X-41.9561 Y22.217 I-4.0775 J-9.6429
G3 X-46.7731 Y20.9615 I-0.1587 J-9.2598
G3 X-46.8014 Y20.9448 I1.3581 J-2.3336
G3 X-50.2205 Y17.8825 I6.2015 J-10.364
G3 X-52.7983 Y13.8291 I19.527 J-15.2643
G3 X-55.1727 Y9.2856 I172.5896 J-93.0896
G3 X-55.1743 Y9.2825 I2.4091 J-1.2192
G2 X-57.7134 Y4.6659 I-66.0142 J33.3013
G3 X-57.7204 Y4.6542 I2.3179 J-1.3846
G2 X-60.2745 Y1.2973 I-15.5627 J9.1908
G2 X-63.0663 Y-0.7158 I-7.1014 J6.906
G2 X-66.6874 Y-1.4021 I-3.4367 J8.2365
G3 X-66.8084 Y-1.4024 I-0.0558 J-2.6994
G2 X-71.2021 Y-0.2944 I-0.2044 J8.4553
G2 X-73.8869 Y2.0185 I4.9808 J8.4962
G0 Z3.0
G0 X-33.9526 Y-1.4699
G0 Z-2.6
G1 F300.0 Z-4.2
G3 F800.0 X-32.9359 Y1.1797 I-25.3209 J11.2362
G3 X-32.9189 Y1.2339 I-2.567 J0.8369
G3 X-32.4165 Y3.0883 I-31.1145 J9.4238
G2 X-32.5723 Y2.306 I-29.2584 J5.4202
G3 X-32.5841 Y2.2475 I2.6407 J-0.5628
G2 X-33.3562 Y-0.813 I-26.204 J4.9828
G2 X-33.6026 Y-1.4699 I-8.019 J2.6332
G1 X-33.9526
G1 F300.0 X-35.0495 Y-0.9832
G3 F800.0 X-34.0768 Y1.5517 I-24.224 J10.7495
G3 X-34.0673 Y1.5818 I-1.4261 J0.4649
G3 X-33.1706 Y5.3828 I-29.9661 J9.076
G3 X-32.8409 Y8.9755 I-21.3441 J3.7702
G3 X-33.2343 Y13.3592 I-22.1169 J0.2249
G3 X-35.0617 Y17.7471 I-10.8265 J-1.9346
G3 X-35.0816 Y17.7748 I-1.2274 J-0.8623
G3 X-38.1889 Y20.2744 I-6.2869 J-4.634
G3 X-38.2154 Y20.2859 I-0.6107 J-1.3701
G3 X-41.959 Y21.0169 I-3.6101 J-8.5377
G3 X-46.1695 Y19.9244 I-0.1558 J-8.0596
G3 X-46.1852 Y19.9151 I0.7545 J-1.2964
G3 X-49.2698 Y17.1503 I5.5853 J-9.3342
G3 X-51.7348 Y13.2729 I18.5762 J-14.5321
G3 X-54.102 Y8.7437 I171.5261 J-92.5334
G3 X-54.1029 Y8.742 I1.3384 J-0.6773
G2 X-56.6832 Y4.0505 I-67.0856 J33.8417
G3 X-56.6871 Y4.044 I1.2877 J-0.7692
G2 X-59.4125 Y0.4624 I-16.5959 J9.801
G2 X-62.5738 Y-1.8105 I-7.9634 J7.7409
G2 X-66.7122 Y-2.6019 I-3.9292 J9.3313
G3 X-66.7794 Y-2.602 I-0.031 J-1.4997
G2 X-71.8028 Y-1.3333 I-0.2335 J9.6549
G2 X-75.4063 Y2.0611 I5.5815 J9.5351
G2 X-77.5925 Y7.0284 I13.3828 J8.8549
G3 X-77.5947 Y7.037 I-1.4553 J-0.3634
G2 X-78.334 Y12.9191 I22.9259 J5.8689
G3 Y12.9302 I-1.5 J0.0008
G2 X-78.0402 Y18.111 I40.8702 J0.2809
G2 X-77.5756 Y20.5822 I20.4208 J-2.5602
G3 X-77.5735 Y20.5905 I-1.4545 J0.3667
G2 X-77.1254 Y21.9814 I10.0856 J-2.4817
G1 X-74.2158
G3 X-75.4459 Y18.4862 I15.8759 J-7.5514
G1 Y18.4861
G1 Y18.4862
G3 X-76.1387 Y12.3314 I25.0091 J-5.9312
G3 X-75.6982 Y8.2782 I19.0916 J0.0243
G3 X-74.2544 Y4.4649 I11.6389 J2.2268
G3 X-74.2516 Y4.4603 I1.2905 J0.7646
G3 X-71.4987 Y1.5841 I7.6587 J4.5749
G3 X-71.4678 Y1.5643 I0.8249 J1.2528
G3 X-67.2516 Y0.4136 I4.0265 J6.4541
G3 X-63.371 Y1.24 I0.1706 J8.7234
G3 X-63.2942 Y1.2788 I-0.6378 J1.3576
G3 X-60.344 Y3.7435 I-4.6225 J8.531
G3 X-58.0017 Y7.2939 I-17.5536 J14.1285
G3 X-58.0016 Y7.2942 I-1.3244 J0.7042
G3 X-55.6559 Y11.8821 I-143.8207 J76.4261
G2 X-52.9852 Y16.7561 I56.5737 J-27.8307
G3 X-52.9817 Y16.7619 I-1.2824 J0.7781
G2 X-50.0117 Y20.626 I18.2945 J-10.9877
G2 X-46.5723 Y23.1229 I8.858 J-8.5846
G2 X-42.4007 Y24.0325 I4.001 J-8.3286
G3 X-42.363 Y24.0323 I0.0277 J1.4997
G2 X-39.5118 Y23.7459 I0.0902 J-13.441
G2 X-36.9528 Y22.7875 I-1.8594 J-8.8596
G3 X-36.9522 Y22.7871 I0.7321 J1.3092
G2 X-33.4162 Y19.4591 I-4.8684 J-8.7153
G3 X-33.4151 Y19.4575 I1.2628 J0.8095
G2 X-31.3668 Y14.4298 I-12.4532 J-8.0046
G3 X-31.3612 Y14.4038 I1.4694 J0.3016
G2 X-30.6796 Y8.1147 I-27.5634 J-6.1688
G2 X-30.8724 Y5.4215 I-23.7386 J0.3458
G3 X-30.8771 Y5.381 I1.4877 J-0.192
G2 X-31.3987 Y2.0558 I-30.7978 J3.1275
G3 X-31.4052 Y2.0234 I1.4671 J-0.3127
G2 X-32.214 Y-1.181 I-27.3829 J5.207
G2 X-32.8444 Y-2.6699 I-9.1612 J3.0011
G1 X-35.8783
G3 X-35.5622 Y-2.0713 I-12.9656 J7.2288
G1 Y-2.0714
G1 Y-2.0713
G3 X-35.0495 Y-0.9832 I-23.7113 J11.8376
G1 F300.0 X-33.9526 Y-1.4699
G1 Z-4.8
G3 F800.0 X-32.9359 Y1.1797 I-25.3209 J11.2362
G3 X-32.9189 Y1.2339 I-2.567 J0.8369
G3 X-32.4165 Y3.0883 I-31.1145 J9.4238
G2 X-32.5723 Y2.306 I-29.2584 J5.4202
G3 X-32.5841 Y2.2475 I2.6407 J-0.5628
G2 X-33.3562 Y-0.813 I-26.204 J4.9828
G2 X-33.6026 Y-1.4699 I-8.019 J2.6332
G1 X-33.9526
G0 Z3.0
G0 X-34.6537 Y19.1487
G0 Z-3.2
G1 F300.0 Z-4.8
G3 F800.0 X-37.7004 Y21.3705 I-6.7147 J-6.0079
G3 X-37.748 Y21.3912 I-1.0992 J-2.4661
G3 X-41.9561 Y22.217 I-4.0775 J-9.6429
G3 X-46.7731 Y20.9615 I-0.1587 J-9.2598
G3 X-46.8014 Y20.9448 I1.3581 J-2.3336
G3 X-50.2205 Y17.8825 I6.2015 J-10.364
G3 X-52.7983 Y13.8291 I19.527 J-15.2643
G3 X-55.1727 Y9.2856 I172.5896 J-93.0896
G3 X-55.1743 Y9.2825 I2.4091 J-1.2192
G2 X-57.7134 Y4.6659 I-66.0142 J33.3013
G3 X-57.7204 Y4.6542 I2.3179 J-1.3846
G2 X-60.2745 Y1.2973 I-15.5627 J9.1908
G2 X-63.0663 Y-0.7158 I-7.1014 J6.906
G2 X-66.6874 Y-1.4021 I-3.4367 J8.2365
G3 X-66.8084 Y-1.4024 I-0.0558 J-2.6994
G2 X-71.2021 Y-0.2944 I-0.2044 J8.4553
G2 X-73.8869 Y2.0185 I4.9808 J8.4962
G3 X-72.1586 Y0.5818 I7.294 J7.0166
G3 X-72.103 Y0.5462 I1.4848 J2.2551
G3 X-67.2484 Y-0.7866 I4.6617 J7.4722
G3 X-62.8607 Y0.1539 I0.1674 J9.9237
G3 X-62.7225 Y0.2238 I-1.1481 J2.4438
G3 X-59.4084 Y2.9921 I-5.1942 J9.5861
G3 X-56.9422 Y6.7305 I-18.4893 J14.8799
G3 X-56.9419 Y6.7311 I-2.384 J1.2675
G3 X-54.579 Y11.3526 I-144.8804 J76.9893
G2 X-51.9592 Y16.1336 I55.4968 J-27.3012
G3 X-51.953 Y16.144 I-2.3083 J1.4006
G2 X-49.15 Y19.7909 I17.2658 J-10.3698
G2 X-46.0489 Y22.043 I7.9962 J-7.7495
G2 X-42.4229 Y22.8327 I3.4777 J-7.2488
G3 X-42.3549 Y22.8323 I0.0498 J2.6995
G2 X-39.7583 Y22.5715 I0.0822 J-12.241
G1 X-39.7582
G2 X-37.5385 Y21.7401 I-1.6129 J-7.6851
G3 X-37.5374 Y21.7395 I1.3178 J2.3566
G2 X-34.6537 Y19.1487 I-4.2832 J-7.6676
G0 Z3.0
G0 X-76.0136 Y20.7814
G0 Z-3.2
G1 F300.0 Z-4.8
G3 F800.0 X-76.6136 Y18.763 I17.6737 J-6.3514
G1 X-76.6135 Y18.7631
G1 X-76.6136 Y18.763
G3 X-76.9317 Y17.2224 I26.1767 J-6.2081
