( Made using CamBam - http://www.cambam.co.uk )
( Platte-Kugellager 6/7/2020 5:54:05 PM )
( T4 : 4.0 )
G21 G90 G64 G40
G0 Z3.0
( T4 : 4.0 )
T4 M6
( Bohrung )
G17
M3 S1000
G0 X0.7 Y0.0
G0 Z1.0
G1 F300.0 Z-1.4
G2 F800.0 X-0.35 Y-0.60622 I-0.7 J0.0
G2 Y0.60622 I0.35 J0.60622
G2 X0.7 Y0.0 I0.35 J-0.60622
G1 F300.0 X1.5
G2 F800.0 X-0.75 Y-1.29904 I-1.5 J0.0
G2 Y1.29904 I0.75 J1.29904
G2 X1.5 Y0.0 I0.75 J-1.29904
G1 F300.0 X3.1
G2 F800.0 X-1.55 Y-2.68468 I-3.1 J0.0
G2 Y2.68468 I1.55 J2.68468
G2 X3.1 Y0.0 I1.55 J-2.68468
G1 F300.0 X4.7
G2 F800.0 X-2.35 Y-4.07032 I-4.7 J0.0
G2 Y4.07032 I2.35 J4.07032
G2 X4.7 Y0.0 I2.35 J-4.07032
G1 F300.0 X6.3
G2 F800.0 X-3.15 Y-5.45596 I-6.3 J0.0
G2 Y5.45596 I3.15 J5.45596
G2 X6.3 Y0.0 I3.15 J-5.45596
G0 Z3.0
G0 X0.7
G0 Z-0.4
G1 F300.0 Z-2.8
G2 F800.0 X-0.35 Y-0.60622 I-0.7 J0.0
G2 Y0.60622 I0.35 J0.60622
G2 X0.7 Y0.0 I0.35 J-0.60622
G1 F300.0 X1.5
G2 F800.0 X-0.75 Y-1.29904 I-1.5 J0.0
G2 Y1.29904 I0.75 J1.29904
G2 X1.5 Y0.0 I0.75 J-1.29904
G1 F300.0 X3.1
G2 F800.0 X-1.55 Y-2.68468 I-3.1 J0.0
G2 Y2.68468 I1.55 J2.68468
G2 X3.1 Y0.0 I1.55 J-2.68468
G1 F300.0 X4.7
G2 F800.0 X-2.35 Y-4.07032 I-4.7 J0.0
G2 Y4.07032 I2.35 J4.07032
G2 X4.7 Y0.0 I2.35 J-4.07032
G1 F300.0 X6.3
G2 F800.0 X-3.15 Y-5.45596 I-6.3 J0.0
G2 Y5.45596 I3.15 J5.45596
G2 X6.3 Y0.0 I3.15 J-5.45596
G0 Z3.0
G0 X0.7
G0 Z-1.8
G1 F300.0 Z-4.2
G2 F800.0 X-0.35 Y-0.60622 I-0.7 J0.0
G2 Y0.60622 I0.35 J0.60622
G2 X0.7 Y0.0 I0.35 J-0.60622
G1 F300.0 X1.5
G2 F800.0 X-0.75 Y-1.29904 I-1.5 J0.0
G2 Y1.29904 I0.75 J1.29904
G2 X1.5 Y0.0 I0.75 J-1.29904
G1 F300.0 X3.1
G2 F800.0 X-1.55 Y-2.68468 I-3.1 J0.0
G2 Y2.68468 I1.55 J2.68468
G2 X3.1 Y0.0 I1.55 J-2.68468
G1 F300.0 X4.7
G2 F800.0 X-2.35 Y-4.07032 I-4.7 J0.0
G2 Y4.07032 I2.35 J4.07032
G2 X4.7 Y0.0 I2.35 J-4.07032
G1 F300.0 X6.3
G2 F800.0 X-3.15 Y-5.45596 I-6.3 J0.0
G2 Y5.45596 I3.15 J5.45596
G2 X6.3 Y0.0 I3.15 J-5.45596
G0 Z3.0
G0 X0.7
G0 Z-3.2
G1 F300.0 Z-5.6
G2 F800.0 X-0.35 Y-0.60622 I-0.7 J0.0
G2 Y0.60622 I0.35 J0.60622
G2 X0.7 Y0.0 I0.35 J-0.60622
G1 F300.0 X1.5
G2 F800.0 X-0.75 Y-1.29904 I-1.5 J0.0
G2 Y1.29904 I0.75 J1.29904
G2 X1.5 Y0.0 I0.75 J-1.29904
G1 F300.0 X3.1
G2 F800.0 X-1.55 Y-2.68468 I-3.1 J0.0
G2 Y2.68468 I1.55 J2.68468
G2 X3.1 Y0.0 I1.55 J-2.68468
G1 F300.0 X4.7
G2 F800.0 X-2.35 Y-4.07032 I-4.7 J0.0
G2 Y4.07032 I2.35 J4.07032
G2 X4.7 Y0.0 I2.35 J-4.07032
G1 F300.0 X6.3
G2 F800.0 X-3.15 Y-5.45596 I-6.3 J0.0
G2 Y5.45596 I3.15 J5.45596
G2 X6.3 Y0.0 I3.15 J-5.45596
G0 Z3.0
G0 X0.7
G0 Z-4.6
G1 F300.0 Z-7.0
G2 F800.0 X-0.35 Y-0.60622 I-0.7 J0.0
G2 Y0.60622 I0.35 J0.60622
G2 X0.7 Y0.0 I0.35 J-0.60622
G1 F300.0 X1.5
G2 F800.0 X-0.75 Y-1.29904 I-1.5 J0.0
G2 Y1.29904 I0.75 J1.29904
G2 X1.5 Y0.0 I0.75 J-1.29904
G1 F300.0 X3.1
G2 F800.0 X-1.55 Y-2.68468 I-3.1 J0.0
G2 Y2.68468 I1.55 J2.68468
G2 X3.1 Y0.0 I1.55 J-2.68468
G1 F300.0 X4.7
G2 F800.0 X-2.35 Y-4.07032 I-4.7 J0.0
G2 Y4.07032 I2.35 J4.07032
G2 X4.7 Y0.0 I2.35 J-4.07032
G1 F300.0 X6.3
G2 F800.0 X-3.15 Y-5.45596 I-6.3 J0.0
G2 Y5.45596 I3.15 J5.45596
G2 X6.3 Y0.0 I3.15 J-5.45596
G0 Z3.0
G0 X0.7
G0 Z-6.0
G1 F300.0 Z-8.4
G2 F800.0 X-0.35 Y-0.60622 I-0.7 J0.0
G2 Y0.60622 I0.35 J0.60622
G2 X0.7 Y0.0 I0.35 J-0.60622
G1 F300.0 X1.5
G2 F800.0 X-0.75 Y-1.29904 I-1.5 J0.0
G2 Y1.29904 I0.75 J1.29904
G2 X1.5 Y0.0 I0.75 J-1.29904
G1 F300.0 X3.1
G2 F800.0 X-1.55 Y-2.68468 I-3.1 J0.0
G2 Y2.68468 I1.55 J2.68468
G2 X3.1 Y0.0 I1.55 J-2.68468
G1 F300.0 X4.7
G2 F800.0 X-2.35 Y-4.07032 I-4.7 J0.0
G2 Y4.07032 I2.35 J4.07032
G2 X4.7 Y0.0 I2.35 J-4.07032
G1 F300.0 X6.3
G2 F800.0 X-3.15 Y-5.45596 I-6.3 J0.0
G2 Y5.45596 I3.15 J5.45596
G2 X6.3 Y0.0 I3.15 J-5.45596
G0 Z3.0
G0 X0.7
G0 Z-7.4
G1 F300.0 Z-9.8
G2 F800.0 X-0.35 Y-0.60622 I-0.7 J0.0
G2 Y0.60622 I0.35 J0.60622
G2 X0.7 Y0.0 I0.35 J-0.60622
G1 F300.0 X1.5
G2 F800.0 X-0.75 Y-1.29904 I-1.5 J0.0
G2 Y1.29904 I0.75 J1.29904
G2 X1.5 Y0.0 I0.75 J-1.29904
G1 F300.0 X3.1
G2 F800.0 X-1.55 Y-2.68468 I-3.1 J0.0
G2 Y2.68468 I1.55 J2.68468
G2 X3.1 Y0.0 I1.55 J-2.68468
G1 F300.0 X4.7
G2 F800.0 X-2.35 Y-4.07032 I-4.7 J0.0
G2 Y4.07032 I2.35 J4.07032
G2 X4.7 Y0.0 I2.35 J-4.07032
G1 F300.0 X6.3
G2 F800.0 X-3.15 Y-5.45596 I-6.3 J0.0
G2 Y5.45596 I3.15 J5.45596
G2 X6.3 Y0.0 I3.15 J-5.45596
G0 Z3.0
G0 X0.7
G0 Z-8.8
G1 F300.0 Z-11.2
G2 F800.0 X-0.35 Y-0.60622 I-0.7 J0.0
G2 Y0.60622 I0.35 J0.60622
G2 X0.7 Y0.0 I0.35 J-0.60622
G1 F300.0 X1.5
G2 F800.0 X-0.75 Y-1.29904 I-1.5 J0.0
G2 Y1.29904 I0.75 J1.29904
G2 X1.5 Y0.0 I0.75 J-1.29904
G1 F300.0 X3.1
G2 F800.0 X-1.55 Y-2.68468 I-3.1 J0.0
G2 Y2.68468 I1.55 J2.68468
G2 X3.1 Y0.0 I1.55 J-2.68468
G1 F300.0 X4.7
G2 F800.0 X-2.35 Y-4.07032 I-4.7 J0.0
G2 Y4.07032 I2.35 J4.07032
G2 X4.7 Y0.0 I2.35 J-4.07032
G1 F300.0 X6.3
G2 F800.0 X-3.15 Y-5.45596 I-6.3 J0.0
G2 Y5.45596 I3.15 J5.45596
G2 X6.3 Y0.0 I3.15 J-5.45596
G0 Z3.0
G0 X0.7
G0 Z-10.2
G1 F300.0 Z-12.6
G2 F800.0 X-0.35 Y-0.60622 I-0.7 J0.0
G2 Y0.60622 I0.35 J0.60622
G2 X0.7 Y0.0 I0.35 J-0.60622
G1 F300.0 X1.5
G2 F800.0 X-0.75 Y-1.29904 I-1.5 J0.0
G2 Y1.29904 I0.75 J1.29904
G2 X1.5 Y0.0 I0.75 J-1.29904
G1 F300.0 X3.1
G2 F800.0 X-1.55 Y-2.68468 I-3.1 J0.0
G2 Y2.68468 I1.55 J2.68468
G2 X3.1 Y0.0 I1.55 J-2.68468
G1 F300.0 X4.7
G2 F800.0 X-2.35 Y-4.07032 I-4.7 J0.0
G2 Y4.07032 I2.35 J4.07032
G2 X4.7 Y0.0 I2.35 J-4.07032
G1 F300.0 X6.3
G2 F800.0 X-3.15 Y-5.45596 I-6.3 J0.0
G2 Y5.45596 I3.15 J5.45596
G2 X6.3 Y0.0 I3.15 J-5.45596
G0 Z3.0
G0 X0.7
G0 Z-11.6
G1 F300.0 Z-14.0
G2 F800.0 X-0.35 Y-0.60622 I-0.7 J0.0
G2 Y0.60622 I0.35 J0.60622
G2 X0.7 Y0.0 I0.35 J-0.60622
G1 F300.0 X1.5
G2 F800.0 X-0.75 Y-1.29904 I-1.5 J0.0
G2 Y1.29904 I0.75 J1.29904
G2 X1.5 Y0.0 I0.75 J-1.29904
G1 F300.0 X3.1
G2 F800.0 X-1.55 Y-2.68468 I-3.1 J0.0
G2 Y2.68468 I1.55 J2.68468
G2 X3.1 Y0.0 I1.55 J-2.68468
G1 F300.0 X4.7
G2 F800.0 X-2.35 Y-4.07032 I-4.7 J0.0
G2 Y4.07032 I2.35 J4.07032
G2 X4.7 Y0.0 I2.35 J-4.07032
G1 F300.0 X6.3
G2 F800.0 X-3.15 Y-5.45596 I-6.3 J0.0
G2 Y5.45596 I3.15 J5.45596
G2 X6.3 Y0.0 I3.15 J-5.45596
G0 Z3.0
G0 X0.7
G0 Z-13.0
G1 F300.0 Z-15.4
G2 F800.0 X-0.35 Y-0.60622 I-0.7 J0.0
G2 Y0.60622 I0.35 J0.60622
G2 X0.7 Y0.0 I0.35 J-0.60622
G1 F300.0 X1.5
G2 F800.0 X-0.75 Y-1.29904 I-1.5 J0.0
G2 Y1.29904 I0.75 J1.29904
G2 X1.5 Y0.0 I0.75 J-1.29904
G1 F300.0 X3.1
G2 F800.0 X-1.55 Y-2.68468 I-3.1 J0.0
G2 Y2.68468 I1.55 J2.68468
G2 X3.1 Y0.0 I1.55 J-2.68468
G1 F300.0 X4.7
G2 F800.0 X-2.35 Y-4.07032 I-4.7 J0.0
G2 Y4.07032 I2.35 J4.07032
G2 X4.7 Y0.0 I2.35 J-4.07032
G1 F300.0 X6.3
G2 F800.0 X-3.15 Y-5.45596 I-6.3 J0.0
G2 Y5.45596 I3.15 J5.45596
G2 X6.3 Y0.0 I3.15 J-5.45596
G0 Z3.0
G0 X0.7
G0 Z-14.4
G1 F300.0 Z-16.8
G2 F800.0 X-0.35 Y-0.60622 I-0.7 J0.0
G2 Y0.60622 I0.35 J0.60622
G2 X0.7 Y0.0 I0.35 J-0.60622
G1 F300.0 X1.5
G2 F800.0 X-0.75 Y-1.29904 I-1.5 J0.0
G2 Y1.29904 I0.75 J1.29904
G2 X1.5 Y0.0 I0.75 J-1.29904
G1 F300.0 X3.1
G2 F800.0 X-1.55 Y-2.68468 I-3.1 J0.0
G2 Y2.68468 I1.55 J2.68468
G2 X3.1 Y0.0 I1.55 J-2.68468
G1 F300.0 X4.7
G2 F800.0 X-2.35 Y-4.07032 I-4.7 J0.0
G2 Y4.07032 I2.35 J4.07032
G2 X4.7 Y0.0 I2.35 J-4.07032
G1 F300.0 X6.3
G2 F800.0 X-3.15 Y-5.45596 I-6.3 J0.0
G2 Y5.45596 I3.15 J5.45596
G2 X6.3 Y0.0 I3.15 J-5.45596
G0 Z3.0
G0 X0.7
G0 Z-15.8
G1 F300.0 Z-18.0
G2 F800.0 X-0.35 Y-0.60622 I-0.7 J0.0
G2 Y0.60622 I0.35 J0.60622
G2 X0.7 Y0.0 I0.35 J-0.60622
G1 F300.0 X1.5
G2 F800.0 X-0.75 Y-1.29904 I-1.5 J0.0
G2 Y1.29904 I0.75 J1.29904
G2 X1.5 Y0.0 I0.75 J-1.29904
G1 F300.0 X3.1
G2 F800.0 X-1.55 Y-2.68468 I-3.1 J0.0
G2 Y2.68468 I1.55 J2.68468
G2 X3.1 Y0.0 I1.55 J-2.68468
G1 F300.0 X4.7
G2 F800.0 X-2.35 Y-4.07032 I-4.7 J0.0
G2 Y4.07032 I2.35 J4.07032
G2 X4.7 Y0.0 I2.35 J-4.07032
G1 F300.0 X6.3
G2 F800.0 X-3.15 Y-5.45596 I-6.3 J0.0
G2 Y5.45596 I3.15 J5.45596
G2 X6.3 Y0.0 I3.15 J-5.45596
G0 Z3.0
M5
M30
