( Made using CamBam - http://www.cambam.co.uk )
( Platte-Kugellager 6/7/2020 3:14:01 PM )
( T4 : 4.0 )
G21 G90 G64 G40
G0 Z3.0
( T4 : 4.0 )
T4 M6
( Kugellagergehäuse )
G17
M3 S1000
G0 X0.4 Y0.0
G0 Z1.0
G1 F300.0 Z-1.4
G2 F800.0 X-0.2 Y-0.34641 I-0.4 J0.0
G2 Y0.34641 I0.2 J0.34641
G2 X0.4 Y0.0 I0.2 J-0.34641
G1 F300.0 X2.0
G2 F800.0 X-1.0 Y-1.73205 I-2.0 J0.0
G2 Y1.73205 I1.0 J1.73205
G2 X2.0 Y0.0 I1.0 J-1.73205
G1 F300.0 X3.6
G2 F800.0 X-1.8 Y-3.11769 I-3.6 J0.0
G2 Y3.11769 I1.8 J3.11769
G2 X3.6 Y0.0 I1.8 J-3.11769
G1 F300.0 X5.2
G2 F800.0 X-2.6 Y-4.50333 I-5.2 J0.0
G2 Y4.50333 I2.6 J4.50333
G2 X5.2 Y0.0 I2.6 J-4.50333
G1 F300.0 X6.8
G2 F800.0 X-3.4 Y-5.88897 I-6.8 J0.0
G2 Y5.88897 I3.4 J5.88897
G2 X6.8 Y0.0 I3.4 J-5.88897
G1 F300.0 X8.4
G2 F800.0 X-4.2 Y-7.27461 I-8.4 J0.0
G2 Y7.27461 I4.2 J7.27461
G2 X8.4 Y0.0 I4.2 J-7.27461
G1 F300.0 X10.0
G2 F800.0 X-5.0 Y-8.66025 I-10.0 J0.0
G2 Y8.66025 I5.0 J8.66025
G2 X10.0 Y0.0 I5.0 J-8.66025
G1 F300.0 X11.6
G2 F800.0 X-5.8 Y-10.04589 I-11.6 J0.0
G2 Y10.04589 I5.8 J10.04589
G2 X11.6 Y0.0 I5.8 J-10.04589
G1 F300.0 X13.2
G2 F800.0 X-6.6 Y-11.43154 I-13.2 J0.0
G2 Y11.43154 I6.6 J11.43154
G2 X13.2 Y0.0 I6.6 J-11.43154
G1 F300.0 X14.8
G2 F800.0 X-7.4 Y-12.81718 I-14.8 J0.0
G2 Y12.81718 I7.4 J12.81718
G2 X14.8 Y0.0 I7.4 J-12.81718
G1 F300.0 X16.4
G2 F800.0 X-8.2 Y-14.20282 I-16.4 J0.0
G2 Y14.20282 I8.2 J14.20282
G2 X16.4 Y0.0 I8.2 J-14.20282
G1 F300.0 X18.0
G2 F800.0 X-9.0 Y-15.58846 I-18.0 J0.0
G2 Y15.58846 I9.0 J15.58846
G2 X18.0 Y0.0 I9.0 J-15.58846
G0 Z3.0
G0 X0.4
G0 Z-0.4
G1 F300.0 Z-2.8
G2 F800.0 X-0.2 Y-0.34641 I-0.4 J0.0
G2 Y0.34641 I0.2 J0.34641
G2 X0.4 Y0.0 I0.2 J-0.34641
G1 F300.0 X2.0
G2 F800.0 X-1.0 Y-1.73205 I-2.0 J0.0
G2 Y1.73205 I1.0 J1.73205
G2 X2.0 Y0.0 I1.0 J-1.73205
G1 F300.0 X3.6
G2 F800.0 X-1.8 Y-3.11769 I-3.6 J0.0
G2 Y3.11769 I1.8 J3.11769
G2 X3.6 Y0.0 I1.8 J-3.11769
G1 F300.0 X5.2
G2 F800.0 X-2.6 Y-4.50333 I-5.2 J0.0
G2 Y4.50333 I2.6 J4.50333
G2 X5.2 Y0.0 I2.6 J-4.50333
G1 F300.0 X6.8
G2 F800.0 X-3.4 Y-5.88897 I-6.8 J0.0
G2 Y5.88897 I3.4 J5.88897
G2 X6.8 Y0.0 I3.4 J-5.88897
G1 F300.0 X8.4
G2 F800.0 X-4.2 Y-7.27461 I-8.4 J0.0
G2 Y7.27461 I4.2 J7.27461
G2 X8.4 Y0.0 I4.2 J-7.27461
G1 F300.0 X10.0
G2 F800.0 X-5.0 Y-8.66025 I-10.0 J0.0
G2 Y8.66025 I5.0 J8.66025
G2 X10.0 Y0.0 I5.0 J-8.66025
G1 F300.0 X11.6
G2 F800.0 X-5.8 Y-10.04589 I-11.6 J0.0
G2 Y10.04589 I5.8 J10.04589
G2 X11.6 Y0.0 I5.8 J-10.04589
G1 F300.0 X13.2
G2 F800.0 X-6.6 Y-11.43154 I-13.2 J0.0
G2 Y11.43154 I6.6 J11.43154
G2 X13.2 Y0.0 I6.6 J-11.43154
G1 F300.0 X14.8
G2 F800.0 X-7.4 Y-12.81718 I-14.8 J0.0
G2 Y12.81718 I7.4 J12.81718
G2 X14.8 Y0.0 I7.4 J-12.81718
G1 F300.0 X16.4
G2 F800.0 X-8.2 Y-14.20282 I-16.4 J0.0
G2 Y14.20282 I8.2 J14.20282
G2 X16.4 Y0.0 I8.2 J-14.20282
G1 F300.0 X18.0
G2 F800.0 X-9.0 Y-15.58846 I-18.0 J0.0
G2 Y15.58846 I9.0 J15.58846
G2 X18.0 Y0.0 I9.0 J-15.58846
G0 Z3.0
G0 X0.4
G0 Z-1.8
G1 F300.0 Z-4.2
G2 F800.0 X-0.2 Y-0.34641 I-0.4 J0.0
G2 Y0.34641 I0.2 J0.34641
G2 X0.4 Y0.0 I0.2 J-0.34641
G1 F300.0 X2.0
G2 F800.0 X-1.0 Y-1.73205 I-2.0 J0.0
G2 Y1.73205 I1.0 J1.73205
G2 X2.0 Y0.0 I1.0 J-1.73205
G1 F300.0 X3.6
G2 F800.0 X-1.8 Y-3.11769 I-3.6 J0.0
G2 Y3.11769 I1.8 J3.11769
G2 X3.6 Y0.0 I1.8 J-3.11769
G1 F300.0 X5.2
G2 F800.0 X-2.6 Y-4.50333 I-5.2 J0.0
G2 Y4.50333 I2.6 J4.50333
G2 X5.2 Y0.0 I2.6 J-4.50333
G1 F300.0 X6.8
G2 F800.0 X-3.4 Y-5.88897 I-6.8 J0.0
G2 Y5.88897 I3.4 J5.88897
G2 X6.8 Y0.0 I3.4 J-5.88897
G1 F300.0 X8.4
G2 F800.0 X-4.2 Y-7.27461 I-8.4 J0.0
G2 Y7.27461 I4.2 J7.27461
G2 X8.4 Y0.0 I4.2 J-7.27461
G1 F300.0 X10.0
G2 F800.0 X-5.0 Y-8.66025 I-10.0 J0.0
G2 Y8.66025 I5.0 J8.66025
G2 X10.0 Y0.0 I5.0 J-8.66025
G1 F300.0 X11.6
G2 F800.0 X-5.8 Y-10.04589 I-11.6 J0.0
G2 Y10.04589 I5.8 J10.04589
G2 X11.6 Y0.0 I5.8 J-10.04589
G1 F300.0 X13.2
G2 F800.0 X-6.6 Y-11.43154 I-13.2 J0.0
G2 Y11.43154 I6.6 J11.43154
G2 X13.2 Y0.0 I6.6 J-11.43154
G1 F300.0 X14.8
G2 F800.0 X-7.4 Y-12.81718 I-14.8 J0.0
G2 Y12.81718 I7.4 J12.81718
G2 X14.8 Y0.0 I7.4 J-12.81718
G1 F300.0 X16.4
G2 F800.0 X-8.2 Y-14.20282 I-16.4 J0.0
G2 Y14.20282 I8.2 J14.20282
G2 X16.4 Y0.0 I8.2 J-14.20282
G1 F300.0 X18.0
G2 F800.0 X-9.0 Y-15.58846 I-18.0 J0.0
G2 Y15.58846 I9.0 J15.58846
G2 X18.0 Y0.0 I9.0 J-15.58846
G0 Z3.0
G0 X0.4
G0 Z-3.2
G1 F300.0 Z-5.6
G2 F800.0 X-0.2 Y-0.34641 I-0.4 J0.0
G2 Y0.34641 I0.2 J0.34641
G2 X0.4 Y0.0 I0.2 J-0.34641
G1 F300.0 X2.0
G2 F800.0 X-1.0 Y-1.73205 I-2.0 J0.0
G2 Y1.73205 I1.0 J1.73205
G2 X2.0 Y0.0 I1.0 J-1.73205
G1 F300.0 X3.6
G2 F800.0 X-1.8 Y-3.11769 I-3.6 J0.0
G2 Y3.11769 I1.8 J3.11769
G2 X3.6 Y0.0 I1.8 J-3.11769
G1 F300.0 X5.2
G2 F800.0 X-2.6 Y-4.50333 I-5.2 J0.0
G2 Y4.50333 I2.6 J4.50333
G2 X5.2 Y0.0 I2.6 J-4.50333
G1 F300.0 X6.8
G2 F800.0 X-3.4 Y-5.88897 I-6.8 J0.0
G2 Y5.88897 I3.4 J5.88897
G2 X6.8 Y0.0 I3.4 J-5.88897
G1 F300.0 X8.4
G2 F800.0 X-4.2 Y-7.27461 I-8.4 J0.0
G2 Y7.27461 I4.2 J7.27461
G2 X8.4 Y0.0 I4.2 J-7.27461
G1 F300.0 X10.0
G2 F800.0 X-5.0 Y-8.66025 I-10.0 J0.0
G2 Y8.66025 I5.0 J8.66025
G2 X10.0 Y0.0 I5.0 J-8.66025
G1 F300.0 X11.6
G2 F800.0 X-5.8 Y-10.04589 I-11.6 J0.0
G2 Y10.04589 I5.8 J10.04589
G2 X11.6 Y0.0 I5.8 J-10.04589
G1 F300.0 X13.2
G2 F800.0 X-6.6 Y-11.43154 I-13.2 J0.0
G2 Y11.43154 I6.6 J11.43154
G2 X13.2 Y0.0 I6.6 J-11.43154
G1 F300.0 X14.8
G2 F800.0 X-7.4 Y-12.81718 I-14.8 J0.0
G2 Y12.81718 I7.4 J12.81718
G2 X14.8 Y0.0 I7.4 J-12.81718
G1 F300.0 X16.4
G2 F800.0 X-8.2 Y-14.20282 I-16.4 J0.0
G2 Y14.20282 I8.2 J14.20282
G2 X16.4 Y0.0 I8.2 J-14.20282
G1 F300.0 X18.0
G2 F800.0 X-9.0 Y-15.58846 I-18.0 J0.0
G2 Y15.58846 I9.0 J15.58846
G2 X18.0 Y0.0 I9.0 J-15.58846
G0 Z3.0
G0 X0.4
G0 Z-4.6
G1 F300.0 Z-7.0
G2 F800.0 X-0.2 Y-0.34641 I-0.4 J0.0
G2 Y0.34641 I0.2 J0.34641
G2 X0.4 Y0.0 I0.2 J-0.34641
G1 F300.0 X2.0
G2 F800.0 X-1.0 Y-1.73205 I-2.0 J0.0
G2 Y1.73205 I1.0 J1.73205
G2 X2.0 Y0.0 I1.0 J-1.73205
G1 F300.0 X3.6
G2 F800.0 X-1.8 Y-3.11769 I-3.6 J0.0
G2 Y3.11769 I1.8 J3.11769
G2 X3.6 Y0.0 I1.8 J-3.11769
G1 F300.0 X5.2
G2 F800.0 X-2.6 Y-4.50333 I-5.2 J0.0
G2 Y4.50333 I2.6 J4.50333
G2 X5.2 Y0.0 I2.6 J-4.50333
G1 F300.0 X6.8
G2 F800.0 X-3.4 Y-5.88897 I-6.8 J0.0
G2 Y5.88897 I3.4 J5.88897
G2 X6.8 Y0.0 I3.4 J-5.88897
G1 F300.0 X8.4
G2 F800.0 X-4.2 Y-7.27461 I-8.4 J0.0
G2 Y7.27461 I4.2 J7.27461
G2 X8.4 Y0.0 I4.2 J-7.27461
G1 F300.0 X10.0
G2 F800.0 X-5.0 Y-8.66025 I-10.0 J0.0
G2 Y8.66025 I5.0 J8.66025
G2 X10.0 Y0.0 I5.0 J-8.66025
G1 F300.0 X11.6
G2 F800.0 X-5.8 Y-10.04589 I-11.6 J0.0
G2 Y10.04589 I5.8 J10.04589
G2 X11.6 Y0.0 I5.8 J-10.04589
G1 F300.0 X13.2
G2 F800.0 X-6.6 Y-11.43154 I-13.2 J0.0
G2 Y11.43154 I6.6 J11.43154
G2 X13.2 Y0.0 I6.6 J-11.43154
G1 F300.0 X14.8
G2 F800.0 X-7.4 Y-12.81718 I-14.8 J0.0
G2 Y12.81718 I7.4 J12.81718
G2 X14.8 Y0.0 I7.4 J-12.81718
G1 F300.0 X16.4
G2 F800.0 X-8.2 Y-14.20282 I-16.4 J0.0
G2 Y14.20282 I8.2 J14.20282
G2 X16.4 Y0.0 I8.2 J-14.20282
G1 F300.0 X18.0
G2 F800.0 X-9.0 Y-15.58846 I-18.0 J0.0
G2 Y15.58846 I9.0 J15.58846
G2 X18.0 Y0.0 I9.0 J-15.58846
G0 Z3.0
G0 X0.4
G0 Z-6.0
G1 F300.0 Z-8.4
G2 F800.0 X-0.2 Y-0.34641 I-0.4 J0.0
G2 Y0.34641 I0.2 J0.34641
G2 X0.4 Y0.0 I0.2 J-0.34641
G1 F300.0 X2.0
G2 F800.0 X-1.0 Y-1.73205 I-2.0 J0.0
G2 Y1.73205 I1.0 J1.73205
G2 X2.0 Y0.0 I1.0 J-1.73205
G1 F300.0 X3.6
G2 F800.0 X-1.8 Y-3.11769 I-3.6 J0.0
G2 Y3.11769 I1.8 J3.11769
G2 X3.6 Y0.0 I1.8 J-3.11769
G1 F300.0 X5.2
G2 F800.0 X-2.6 Y-4.50333 I-5.2 J0.0
G2 Y4.50333 I2.6 J4.50333
G2 X5.2 Y0.0 I2.6 J-4.50333
G1 F300.0 X6.8
G2 F800.0 X-3.4 Y-5.88897 I-6.8 J0.0
G2 Y5.88897 I3.4 J5.88897
G2 X6.8 Y0.0 I3.4 J-5.88897
G1 F300.0 X8.4
G2 F800.0 X-4.2 Y-7.27461 I-8.4 J0.0
G2 Y7.27461 I4.2 J7.27461
G2 X8.4 Y0.0 I4.2 J-7.27461
G1 F300.0 X10.0
G2 F800.0 X-5.0 Y-8.66025 I-10.0 J0.0
G2 Y8.66025 I5.0 J8.66025
G2 X10.0 Y0.0 I5.0 J-8.66025
G1 F300.0 X11.6
G2 F800.0 X-5.8 Y-10.04589 I-11.6 J0.0
G2 Y10.04589 I5.8 J10.04589
G2 X11.6 Y0.0 I5.8 J-10.04589
G1 F300.0 X13.2
G2 F800.0 X-6.6 Y-11.43154 I-13.2 J0.0
G2 Y11.43154 I6.6 J11.43154
G2 X13.2 Y0.0 I6.6 J-11.43154
G1 F300.0 X14.8
G2 F800.0 X-7.4 Y-12.81718 I-14.8 J0.0
G2 Y12.81718 I7.4 J12.81718
G2 X14.8 Y0.0 I7.4 J-12.81718
G1 F300.0 X16.4
G2 F800.0 X-8.2 Y-14.20282 I-16.4 J0.0
G2 Y14.20282 I8.2 J14.20282
G2 X16.4 Y0.0 I8.2 J-14.20282
G1 F300.0 X18.0
G2 F800.0 X-9.0 Y-15.58846 I-18.0 J0.0
G2 Y15.58846 I9.0 J15.58846
G2 X18.0 Y0.0 I9.0 J-15.58846
G0 Z3.0
G0 X0.4
G0 Z-7.4
G1 F300.0 Z-9.8
G2 F800.0 X-0.2 Y-0.34641 I-0.4 J0.0
G2 Y0.34641 I0.2 J0.34641
G2 X0.4 Y0.0 I0.2 J-0.34641
G1 F300.0 X2.0
G2 F800.0 X-1.0 Y-1.73205 I-2.0 J0.0
G2 Y1.73205 I1.0 J1.73205
G2 X2.0 Y0.0 I1.0 J-1.73205
G1 F300.0 X3.6
G2 F800.0 X-1.8 Y-3.11769 I-3.6 J0.0
G2 Y3.11769 I1.8 J3.11769
G2 X3.6 Y0.0 I1.8 J-3.11769
G1 F300.0 X5.2
G2 F800.0 X-2.6 Y-4.50333 I-5.2 J0.0
G2 Y4.50333 I2.6 J4.50333
G2 X5.2 Y0.0 I2.6 J-4.50333
G1 F300.0 X6.8
G2 F800.0 X-3.4 Y-5.88897 I-6.8 J0.0
G2 Y5.88897 I3.4 J5.88897
G2 X6.8 Y0.0 I3.4 J-5.88897
G1 F300.0 X8.4
G2 F800.0 X-4.2 Y-7.27461 I-8.4 J0.0
G2 Y7.27461 I4.2 J7.27461
G2 X8.4 Y0.0 I4.2 J-7.27461
G1 F300.0 X10.0
G2 F800.0 X-5.0 Y-8.66025 I-10.0 J0.0
G2 Y8.66025 I5.0 J8.66025
G2 X10.0 Y0.0 I5.0 J-8.66025
G1 F300.0 X11.6
G2 F800.0 X-5.8 Y-10.04589 I-11.6 J0.0
G2 Y10.04589 I5.8 J10.04589
G2 X11.6 Y0.0 I5.8 J-10.04589
G1 F300.0 X13.2
G2 F800.0 X-6.6 Y-11.43154 I-13.2 J0.0
G2 Y11.43154 I6.6 J11.43154
G2 X13.2 Y0.0 I6.6 J-11.43154
G1 F300.0 X14.8
G2 F800.0 X-7.4 Y-12.81718 I-14.8 J0.0
G2 Y12.81718 I7.4 J12.81718
G2 X14.8 Y0.0 I7.4 J-12.81718
G1 F300.0 X16.4
G2 F800.0 X-8.2 Y-14.20282 I-16.4 J0.0
G2 Y14.20282 I8.2 J14.20282
G2 X16.4 Y0.0 I8.2 J-14.20282
G1 F300.0 X18.0
G2 F800.0 X-9.0 Y-15.58846 I-18.0 J0.0
G2 Y15.58846 I9.0 J15.58846
G2 X18.0 Y0.0 I9.0 J-15.58846
G0 Z3.0
G0 X0.4
G0 Z-8.8
G1 F300.0 Z-10.0
G2 F800.0 X-0.2 Y-0.34641 I-0.4 J0.0
G2 Y0.34641 I0.2 J0.34641
G2 X0.4 Y0.0 I0.2 J-0.34641
G1 F300.0 X2.0
G2 F800.0 X-1.0 Y-1.73205 I-2.0 J0.0
G2 Y1.73205 I1.0 J1.73205
G2 X2.0 Y0.0 I1.0 J-1.73205
G1 F300.0 X3.6
G2 F800.0 X-1.8 Y-3.11769 I-3.6 J0.0
G2 Y3.11769 I1.8 J3.11769
G2 X3.6 Y0.0 I1.8 J-3.11769
G1 F300.0 X5.2
G2 F800.0 X-2.6 Y-4.50333 I-5.2 J0.0
G2 Y4.50333 I2.6 J4.50333
G2 X5.2 Y0.0 I2.6 J-4.50333
G1 F300.0 X6.8
G2 F800.0 X-3.4 Y-5.88897 I-6.8 J0.0
G2 Y5.88897 I3.4 J5.88897
G2 X6.8 Y0.0 I3.4 J-5.88897
G1 F300.0 X8.4
G2 F800.0 X-4.2 Y-7.27461 I-8.4 J0.0
G2 Y7.27461 I4.2 J7.27461
G2 X8.4 Y0.0 I4.2 J-7.27461
G1 F300.0 X10.0
G2 F800.0 X-5.0 Y-8.66025 I-10.0 J0.0
G2 Y8.66025 I5.0 J8.66025
G2 X10.0 Y0.0 I5.0 J-8.66025
G1 F300.0 X11.6
G2 F800.0 X-5.8 Y-10.04589 I-11.6 J0.0
G2 Y10.04589 I5.8 J10.04589
G2 X11.6 Y0.0 I5.8 J-10.04589
G1 F300.0 X13.2
G2 F800.0 X-6.6 Y-11.43154 I-13.2 J0.0
G2 Y11.43154 I6.6 J11.43154
G2 X13.2 Y0.0 I6.6 J-11.43154
G1 F300.0 X14.8
G2 F800.0 X-7.4 Y-12.81718 I-14.8 J0.0
G2 Y12.81718 I7.4 J12.81718
G2 X14.8 Y0.0 I7.4 J-12.81718
G1 F300.0 X16.4
G2 F800.0 X-8.2 Y-14.20282 I-16.4 J0.0
G2 Y14.20282 I8.2 J14.20282
G2 X16.4 Y0.0 I8.2 J-14.20282
G1 F300.0 X18.0
G2 F800.0 X-9.0 Y-15.58846 I-18.0 J0.0
G2 Y15.58846 I9.0 J15.58846
G2 X18.0 Y0.0 I9.0 J-15.58846
( Bohrung )
S1000
G0 Z3.0
G0 X0.7
G0 Z1.0
G1 F300.0 Z-1.4
G2 F800.0 X-0.35 Y-0.60622 I-0.7 J0.0
G2 Y0.60622 I0.35 J0.60622
G2 X0.7 Y0.0 I0.35 J-0.60622
G1 F300.0 X1.5
G2 F800.0 X-0.75 Y-1.29904 I-1.5 J0.0
G2 Y1.29904 I0.75 J1.29904
G2 X1.5 Y0.0 I0.75 J-1.29904
G1 F300.0 X3.1
G2 F800.0 X-1.55 Y-2.68468 I-3.1 J0.0
G2 Y2.68468 I1.55 J2.68468
G2 X3.1 Y0.0 I1.55 J-2.68468
G1 F300.0 X4.7
G2 F800.0 X-2.35 Y-4.07032 I-4.7 J0.0
G2 Y4.07032 I2.35 J4.07032
G2 X4.7 Y0.0 I2.35 J-4.07032
G1 F300.0 X6.3
G2 F800.0 X-3.15 Y-5.45596 I-6.3 J0.0
G2 Y5.45596 I3.15 J5.45596
G2 X6.3 Y0.0 I3.15 J-5.45596
G0 Z3.0
G0 X0.7
G0 Z-0.4
G1 F300.0 Z-2.8
G2 F800.0 X-0.35 Y-0.60622 I-0.7 J0.0
G2 Y0.60622 I0.35 J0.60622
G2 X0.7 Y0.0 I0.35 J-0.60622
G1 F300.0 X1.5
G2 F800.0 X-0.75 Y-1.29904 I-1.5 J0.0
G2 Y1.29904 I0.75 J1.29904
G2 X1.5 Y0.0 I0.75 J-1.29904
G1 F300.0 X3.1
G2 F800.0 X-1.55 Y-2.68468 I-3.1 J0.0
G2 Y2.68468 I1.55 J2.68468
G2 X3.1 Y0.0 I1.55 J-2.68468
G1 F300.0 X4.7
G2 F800.0 X-2.35 Y-4.07032 I-4.7 J0.0
G2 Y4.07032 I2.35 J4.07032
G2 X4.7 Y0.0 I2.35 J-4.07032
G1 F300.0 X6.3
G2 F800.0 X-3.15 Y-5.45596 I-6.3 J0.0
G2 Y5.45596 I3.15 J5.45596
G2 X6.3 Y0.0 I3.15 J-5.45596
G0 Z3.0
G0 X0.7
G0 Z-1.8
G1 F300.0 Z-4.2
G2 F800.0 X-0.35 Y-0.60622 I-0.7 J0.0
G2 Y0.60622 I0.35 J0.60622
G2 X0.7 Y0.0 I0.35 J-0.60622
G1 F300.0 X1.5
G2 F800.0 X-0.75 Y-1.29904 I-1.5 J0.0
G2 Y1.29904 I0.75 J1.29904
G2 X1.5 Y0.0 I0.75 J-1.29904
G1 F300.0 X3.1
G2 F800.0 X-1.55 Y-2.68468 I-3.1 J0.0
G2 Y2.68468 I1.55 J2.68468
G2 X3.1 Y0.0 I1.55 J-2.68468
G1 F300.0 X4.7
G2 F800.0 X-2.35 Y-4.07032 I-4.7 J0.0
G2 Y4.07032 I2.35 J4.07032
G2 X4.7 Y0.0 I2.35 J-4.07032
G1 F300.0 X6.3
G2 F800.0 X-3.15 Y-5.45596 I-6.3 J0.0
G2 Y5.45596 I3.15 J5.45596
G2 X6.3 Y0.0 I3.15 J-5.45596
G0 Z3.0
G0 X0.7
G0 Z-3.2
G1 F300.0 Z-5.6
G2 F800.0 X-0.35 Y-0.60622 I-0.7 J0.0
G2 Y0.60622 I0.35 J0.60622
G2 X0.7 Y0.0 I0.35 J-0.60622
G1 F300.0 X1.5
G2 F800.0 X-0.75 Y-1.29904 I-1.5 J0.0
G2 Y1.29904 I0.75 J1.29904
G2 X1.5 Y0.0 I0.75 J-1.29904
G1 F300.0 X3.1
G2 F800.0 X-1.55 Y-2.68468 I-3.1 J0.0
G2 Y2.68468 I1.55 J2.68468
G2 X3.1 Y0.0 I1.55 J-2.68468
G1 F300.0 X4.7
G2 F800.0 X-2.35 Y-4.07032 I-4.7 J0.0
G2 Y4.07032 I2.35 J4.07032
G2 X4.7 Y0.0 I2.35 J-4.07032
G1 F300.0 X6.3
G2 F800.0 X-3.15 Y-5.45596 I-6.3 J0.0
G2 Y5.45596 I3.15 J5.45596
G2 X6.3 Y0.0 I3.15 J-5.45596
G0 Z3.0
G0 X0.7
G0 Z-4.6
G1 F300.0 Z-7.0
G2 F800.0 X-0.35 Y-0.60622 I-0.7 J0.0
G2 Y0.60622 I0.35 J0.60622
G2 X0.7 Y0.0 I0.35 J-0.60622
G1 F300.0 X1.5
G2 F800.0 X-0.75 Y-1.29904 I-1.5 J0.0
G2 Y1.29904 I0.75 J1.29904
G2 X1.5 Y0.0 I0.75 J-1.29904
G1 F300.0 X3.1
G2 F800.0 X-1.55 Y-2.68468 I-3.1 J0.0
G2 Y2.68468 I1.55 J2.68468
G2 X3.1 Y0.0 I1.55 J-2.68468
G1 F300.0 X4.7
G2 F800.0 X-2.35 Y-4.07032 I-4.7 J0.0
G2 Y4.07032 I2.35 J4.07032
G2 X4.7 Y0.0 I2.35 J-4.07032
G1 F300.0 X6.3
G2 F800.0 X-3.15 Y-5.45596 I-6.3 J0.0
G2 Y5.45596 I3.15 J5.45596
G2 X6.3 Y0.0 I3.15 J-5.45596
G0 Z3.0
G0 X0.7
G0 Z-6.0
G1 F300.0 Z-8.4
G2 F800.0 X-0.35 Y-0.60622 I-0.7 J0.0
G2 Y0.60622 I0.35 J0.60622
G2 X0.7 Y0.0 I0.35 J-0.60622
G1 F300.0 X1.5
G2 F800.0 X-0.75 Y-1.29904 I-1.5 J0.0
G2 Y1.29904 I0.75 J1.29904
G2 X1.5 Y0.0 I0.75 J-1.29904
G1 F300.0 X3.1
G2 F800.0 X-1.55 Y-2.68468 I-3.1 J0.0
G2 Y2.68468 I1.55 J2.68468
G2 X3.1 Y0.0 I1.55 J-2.68468
G1 F300.0 X4.7
G2 F800.0 X-2.35 Y-4.07032 I-4.7 J0.0
G2 Y4.07032 I2.35 J4.07032
G2 X4.7 Y0.0 I2.35 J-4.07032
G1 F300.0 X6.3
G2 F800.0 X-3.15 Y-5.45596 I-6.3 J0.0
G2 Y5.45596 I3.15 J5.45596
G2 X6.3 Y0.0 I3.15 J-5.45596
G0 Z3.0
G0 X0.7
G0 Z-7.4
G1 F300.0 Z-9.8
G2 F800.0 X-0.35 Y-0.60622 I-0.7 J0.0
G2 Y0.60622 I0.35 J0.60622
G2 X0.7 Y0.0 I0.35 J-0.60622
G1 F300.0 X1.5
G2 F800.0 X-0.75 Y-1.29904 I-1.5 J0.0
G2 Y1.29904 I0.75 J1.29904
G2 X1.5 Y0.0 I0.75 J-1.29904
G1 F300.0 X3.1
G2 F800.0 X-1.55 Y-2.68468 I-3.1 J0.0
G2 Y2.68468 I1.55 J2.68468
G2 X3.1 Y0.0 I1.55 J-2.68468
G1 F300.0 X4.7
G2 F800.0 X-2.35 Y-4.07032 I-4.7 J0.0
G2 Y4.07032 I2.35 J4.07032
G2 X4.7 Y0.0 I2.35 J-4.07032
G1 F300.0 X6.3
G2 F800.0 X-3.15 Y-5.45596 I-6.3 J0.0
G2 Y5.45596 I3.15 J5.45596
G2 X6.3 Y0.0 I3.15 J-5.45596
G0 Z3.0
G0 X0.7
G0 Z-8.8
G1 F300.0 Z-11.2
G2 F800.0 X-0.35 Y-0.60622 I-0.7 J0.0
G2 Y0.60622 I0.35 J0.60622
G2 X0.7 Y0.0 I0.35 J-0.60622
G1 F300.0 X1.5
G2 F800.0 X-0.75 Y-1.29904 I-1.5 J0.0
G2 Y1.29904 I0.75 J1.29904
G2 X1.5 Y0.0 I0.75 J-1.29904
G1 F300.0 X3.1
G2 F800.0 X-1.55 Y-2.68468 I-3.1 J0.0
G2 Y2.68468 I1.55 J2.68468
G2 X3.1 Y0.0 I1.55 J-2.68468
G1 F300.0 X4.7
G2 F800.0 X-2.35 Y-4.07032 I-4.7 J0.0
G2 Y4.07032 I2.35 J4.07032
G2 X4.7 Y0.0 I2.35 J-4.07032
G1 F300.0 X6.3
G2 F800.0 X-3.15 Y-5.45596 I-6.3 J0.0
G2 Y5.45596 I3.15 J5.45596
G2 X6.3 Y0.0 I3.15 J-5.45596
G0 Z3.0
G0 X0.7
G0 Z-10.2
G1 F300.0 Z-12.6
G2 F800.0 X-0.35 Y-0.60622 I-0.7 J0.0
G2 Y0.60622 I0.35 J0.60622
G2 X0.7 Y0.0 I0.35 J-0.60622
G1 F300.0 X1.5
G2 F800.0 X-0.75 Y-1.29904 I-1.5 J0.0
G2 Y1.29904 I0.75 J1.29904
G2 X1.5 Y0.0 I0.75 J-1.29904
G1 F300.0 X3.1
G2 F800.0 X-1.55 Y-2.68468 I-3.1 J0.0
G2 Y2.68468 I1.55 J2.68468
G2 X3.1 Y0.0 I1.55 J-2.68468
G1 F300.0 X4.7
G2 F800.0 X-2.35 Y-4.07032 I-4.7 J0.0
G2 Y4.07032 I2.35 J4.07032
G2 X4.7 Y0.0 I2.35 J-4.07032
G1 F300.0 X6.3
G2 F800.0 X-3.15 Y-5.45596 I-6.3 J0.0
G2 Y5.45596 I3.15 J5.45596
G2 X6.3 Y0.0 I3.15 J-5.45596
G0 Z3.0
G0 X0.7
G0 Z-11.6
G1 F300.0 Z-14.0
G2 F800.0 X-0.35 Y-0.60622 I-0.7 J0.0
G2 Y0.60622 I0.35 J0.60622
G2 X0.7 Y0.0 I0.35 J-0.60622
G1 F300.0 X1.5
G2 F800.0 X-0.75 Y-1.29904 I-1.5 J0.0
G2 Y1.29904 I0.75 J1.29904
G2 X1.5 Y0.0 I0.75 J-1.29904
G1 F300.0 X3.1
G2 F800.0 X-1.55 Y-2.68468 I-3.1 J0.0
G2 Y2.68468 I1.55 J2.68468
G2 X3.1 Y0.0 I1.55 J-2.68468
G1 F300.0 X4.7
G2 F800.0 X-2.35 Y-4.07032 I-4.7 J0.0
G2 Y4.07032 I2.35 J4.07032
G2 X4.7 Y0.0 I2.35 J-4.07032
G1 F300.0 X6.3
G2 F800.0 X-3.15 Y-5.45596 I-6.3 J0.0
G2 Y5.45596 I3.15 J5.45596
G2 X6.3 Y0.0 I3.15 J-5.45596
G0 Z3.0
G0 X0.7
G0 Z-13.0
G1 F300.0 Z-15.4
G2 F800.0 X-0.35 Y-0.60622 I-0.7 J0.0
G2 Y0.60622 I0.35 J0.60622
G2 X0.7 Y0.0 I0.35 J-0.60622
G1 F300.0 X1.5
G2 F800.0 X-0.75 Y-1.29904 I-1.5 J0.0
G2 Y1.29904 I0.75 J1.29904
G2 X1.5 Y0.0 I0.75 J-1.29904
G1 F300.0 X3.1
G2 F800.0 X-1.55 Y-2.68468 I-3.1 J0.0
G2 Y2.68468 I1.55 J2.68468
G2 X3.1 Y0.0 I1.55 J-2.68468
G1 F300.0 X4.7
G2 F800.0 X-2.35 Y-4.07032 I-4.7 J0.0
G2 Y4.07032 I2.35 J4.07032
G2 X4.7 Y0.0 I2.35 J-4.07032
G1 F300.0 X6.3
G2 F800.0 X-3.15 Y-5.45596 I-6.3 J0.0
G2 Y5.45596 I3.15 J5.45596
G2 X6.3 Y0.0 I3.15 J-5.45596
G0 Z3.0
G0 X0.7
G0 Z-14.4
G1 F300.0 Z-16.8
G2 F800.0 X-0.35 Y-0.60622 I-0.7 J0.0
G2 Y0.60622 I0.35 J0.60622
G2 X0.7 Y0.0 I0.35 J-0.60622
G1 F300.0 X1.5
G2 F800.0 X-0.75 Y-1.29904 I-1.5 J0.0
G2 Y1.29904 I0.75 J1.29904
G2 X1.5 Y0.0 I0.75 J-1.29904
G1 F300.0 X3.1
G2 F800.0 X-1.55 Y-2.68468 I-3.1 J0.0
G2 Y2.68468 I1.55 J2.68468
G2 X3.1 Y0.0 I1.55 J-2.68468
G1 F300.0 X4.7
G2 F800.0 X-2.35 Y-4.07032 I-4.7 J0.0
G2 Y4.07032 I2.35 J4.07032
G2 X4.7 Y0.0 I2.35 J-4.07032
G1 F300.0 X6.3
G2 F800.0 X-3.15 Y-5.45596 I-6.3 J0.0
G2 Y5.45596 I3.15 J5.45596
G2 X6.3 Y0.0 I3.15 J-5.45596
G0 Z3.0
G0 X0.7
G0 Z-15.8
G1 F300.0 Z-18.0
G2 F800.0 X-0.35 Y-0.60622 I-0.7 J0.0
G2 Y0.60622 I0.35 J0.60622
G2 X0.7 Y0.0 I0.35 J-0.60622
G1 F300.0 X1.5
G2 F800.0 X-0.75 Y-1.29904 I-1.5 J0.0
G2 Y1.29904 I0.75 J1.29904
G2 X1.5 Y0.0 I0.75 J-1.29904
G1 F300.0 X3.1
G2 F800.0 X-1.55 Y-2.68468 I-3.1 J0.0
G2 Y2.68468 I1.55 J2.68468
G2 X3.1 Y0.0 I1.55 J-2.68468
G1 F300.0 X4.7
G2 F800.0 X-2.35 Y-4.07032 I-4.7 J0.0
G2 Y4.07032 I2.35 J4.07032
G2 X4.7 Y0.0 I2.35 J-4.07032
G1 F300.0 X6.3
G2 F800.0 X-3.15 Y-5.45596 I-6.3 J0.0
G2 Y5.45596 I3.15 J5.45596
G2 X6.3 Y0.0 I3.15 J-5.45596
G0 Z3.0
M5
M30
