; generated by PrusaSlicer 2.2.0+win64 on 2020-12-24 at 09:41:10 UTC

; 

; external perimeters extrusion width = 0.45mm
; perimeters extrusion width = 0.45mm
; infill extrusion width = 0.45mm
; solid infill extrusion width = 0.45mm
; top infill extrusion width = 0.40mm
; first layer extrusion width = 0.42mm

M73 P0 R74
M201 X9000 Y9000 Z500 E10000 ; sets maximum accelerations, mm/sec^2
M203 X500 Y500 Z12 E120 ; sets maximum feedrates, mm/sec
M204 P2000 R1500 T2000 ; sets acceleration (P, T) and retract acceleration (R), mm/sec^2
M205 X10.00 Y10.00 Z0.20 E2.50 ; sets the jerk limits, mm/sec
M205 S0 T0 ; sets the minimum extruding and travel feed rate, mm/sec
M107
M862.3 P "MK2S" ; printer model check
M862.1 P0.4 ; nozzle diameter check
M115 U3.2.3 ; tell printer latest fw version
G90 ; use absolute coordinates
M83 ; extruder relative mode
M204 S2000 T1500 ; MK2 firmware only supports the old M204 format
M104 S265 ; set extruder temp
M140 S100 ; set bed temp
M190 S100 ; wait for bed temp
M109 S265 ; wait for extruder temp
G28 W ; home all without mesh bed level
G80 ; mesh bed leveling
G1 Y-3.0 F1000.0 ; go outside print area
G92 E0.0
G1 X60.0 E9.0  F1000.0 ; intro line
M73 P0 R74
G1 X100.0 E12.5 F1000.0 ; intro line
G92 E0.0
G21 ; set units to millimeters
G90 ; use absolute coordinates
M83 ; use relative distances for extrusion
M900 K0.04 ; Filament gcode LA 1.5
M900 K20 ; Filament gcode LA 1.0
;BEFORE_LAYER_CHANGE
G92 E0.0
;0.2


G1 E-0.80000 F2100.00000
G1 Z0.600 F10800.000
;AFTER_LAYER_CHANGE
;0.2
G1 X4.555 Y118.093
G1 Z0.200
G1 E0.80000 F2100.00000
M204 S1000
G1 F1200.000
G1 X4.305 Y117.278 E0.02673
G1 X4.292 Y111.882 E0.16920
G1 X4.382 Y111.342 E0.01716
G1 X4.632 Y110.699 E0.02165
G1 X15.157 Y92.178 E0.66790
G1 X15.590 Y91.634 E0.02180
G1 X16.109 Y91.202 E0.02117
G1 X16.650 Y90.919 E0.01917
G1 X17.218 Y90.778 E0.01835
G1 X227.464 Y90.757 E6.59210
G1 X232.960 Y90.807 E0.17234
G1 X233.468 Y90.968 E0.01668
G1 X233.967 Y91.256 E0.01808
G1 X234.442 Y91.668 E0.01973
G1 X234.867 Y92.216 E0.02174
G1 X245.302 Y110.573 E0.66206
G1 X245.570 Y111.192 E0.02115
G1 X245.711 Y111.953 E0.02426
G1 X245.692 Y117.304 E0.16778
G1 X245.565 Y117.821 E0.01668
G1 X245.327 Y118.296 E0.01668
G1 X244.988 Y118.707 E0.01668
G1 X244.564 Y119.034 E0.01680
G1 X243.975 Y119.289 E0.02012
G1 X243.339 Y119.377 E0.02012
G1 X6.647 Y119.377 E7.42132
G1 X5.806 Y119.216 E0.02684
G1 X5.079 Y118.770 E0.02673
G1 X4.592 Y118.141 E0.02496
G1 F8640.000
G1 X4.305 Y117.278 E-0.20984
G1 X4.299 Y114.896 E-0.55016
G1 E-0.04000 F2100.00000
G1 Z0.800 F10800.000
G1 X8.900 Y116.213
G1 Z0.200
G1 E0.80000 F2100.00000
G1 F1200.000
G1 X8.900 Y112.425 E0.11877
G1 X9.105 Y112.369 E0.00668
G1 X17.787 Y112.369 E0.27222
G1 X17.787 Y94.359 E0.56468
G1 X232.209 Y94.359 E6.72305
G1 X232.213 Y112.369 E0.56471
G1 X240.895 Y112.369 E0.27221
G1 X241.100 Y112.425 E0.00668
G1 X241.100 Y116.213 E0.11877
G1 X227.787 Y116.213 E0.41743
G1 X227.787 Y98.213 E0.56438
G1 X22.213 Y98.213 E6.44563
G1 X22.213 Y116.213 E0.56438
G1 X8.960 Y116.213 E0.41555
G1 F8640.000
G1 X8.907 Y112.922 E-0.76000
G1 E-0.04000 F2100.00000
G1 Z0.800 F10800.000
G1 X232.590 Y111.992
G1 Z0.200
G1 E0.80000 F2100.00000
G1 F1200.000
G1 X240.945 Y111.992 E0.26197
G1 X241.389 Y112.113 E0.01441
G1 X241.478 Y112.189 E0.00367
G1 X241.478 Y116.590 E0.13800
G1 X227.410 Y116.590 E0.44108
M73 P1 R73
G1 X227.410 Y98.590 E0.56438
G1 X22.590 Y98.590 E6.42199
G1 X22.590 Y116.590 E0.56438
G1 X8.522 Y116.590 E0.44108
G1 X8.522 Y112.189 E0.13800
G1 X8.611 Y112.113 E0.00367
G1 X9.055 Y111.992 E0.01441
G1 X17.410 Y111.992 E0.26197
G1 X17.416 Y93.982 E0.56468
G1 X232.586 Y93.982 E6.74649
G1 X232.590 Y111.932 E0.56281
G1 X232.780 Y112.344 F10800.000
G1 F8640.000
G1 X235.881 Y111.956 E-0.76000
G1 E-0.04000 F2100.00000
G1 Z0.800 F10800.000
G1 X234.829 Y116.100
G1 Z0.200
G1 E0.80000 F2100.00000
G1 F1200.000
G1 X228.070 Y109.340 E0.29975
G1 X228.070 Y109.874 E0.01672
G1 X234.126 Y115.930 E0.26857
G1 X233.593 Y115.930 E0.01672
G1 X228.070 Y110.407 E0.24492
G1 X228.070 Y110.940 E0.01672
G1 X233.060 Y115.930 E0.22127
G1 X232.526 Y115.930 E0.01672
G1 X228.070 Y111.474 E0.19763
G1 X228.070 Y112.007 E0.01672
G1 X231.993 Y115.930 E0.17398
G1 X231.460 Y115.930 E0.01672
G1 X228.070 Y112.540 E0.15033
G1 X228.070 Y113.073 E0.01672
G1 X230.927 Y115.930 E0.12668
G1 X230.393 Y115.930 E0.01672
G1 X228.070 Y113.607 E0.10303
G1 X228.070 Y114.140 E0.01672
G1 X229.860 Y115.930 E0.07938
G1 X229.327 Y115.930 E0.01672
G1 X228.070 Y114.673 E0.05573
G1 X228.070 Y115.207 E0.01672
G1 X228.793 Y115.930 E0.03208
G1 X228.260 Y115.930 E0.01672
G1 X227.900 Y115.570 E0.01596
G1 F8640.000
G1 X228.260 Y115.930 E-0.11751
G1 X228.793 Y115.930 E-0.12314
G1 X228.070 Y115.207 E-0.23625
G1 X228.070 Y114.673 E-0.12314
G1 X228.560 Y115.163 E-0.15996
G1 E-0.04000 F2100.00000
G1 Z0.800 F10800.000
G1 X240.987 Y113.192
G1 Z0.200
G1 E0.80000 F2100.00000
G1 F1200.000
G1 X240.448 Y112.652 E0.02393
G1 X239.914 Y112.652 E0.01672
G1 X240.818 Y113.555 E0.04006
G1 X240.818 Y114.089 E0.01672
G1 X239.381 Y112.652 E0.06371
G1 X238.848 Y112.652 E0.01672
G1 X240.818 Y114.622 E0.08735
G1 X240.818 Y115.155 E0.01672
G1 X238.314 Y112.652 E0.11100
G1 X237.781 Y112.652 E0.01672
G1 X240.818 Y115.688 E0.13465
G1 X240.818 Y115.930 E0.00758
G1 X240.526 Y115.930 E0.00914
G1 X237.248 Y112.652 E0.14537
G1 X236.715 Y112.652 E0.01672
G1 X239.993 Y115.930 E0.14537
G1 X239.459 Y115.930 E0.01672
G1 X236.181 Y112.652 E0.14537
G1 X235.648 Y112.652 E0.01672
G1 X238.926 Y115.930 E0.14537
G1 X238.393 Y115.930 E0.01672
G1 X235.115 Y112.652 E0.14537
G1 X234.581 Y112.652 E0.01672
G1 X237.860 Y115.930 E0.14537
G1 X237.326 Y115.930 E0.01672
G1 X234.048 Y112.652 E0.14537
G1 X233.515 Y112.652 E0.01672
G1 X236.793 Y115.930 E0.14537
G1 X236.260 Y115.930 E0.01672
G1 X232.981 Y112.652 E0.14537
G1 X232.448 Y112.652 E0.01672
G1 X235.726 Y115.930 E0.14537
G1 X235.193 Y115.930 E0.01672
G1 X228.070 Y108.807 E0.31587
G1 X228.070 Y108.274 E0.01672
G1 X231.930 Y112.134 E0.17118
G1 X231.930 Y111.601 E0.01673
G1 X228.070 Y107.740 E0.17118
G1 X228.070 Y107.207 E0.01672
G1 X231.930 Y111.067 E0.17117
G1 X231.930 Y110.534 E0.01673
G1 X228.070 Y106.674 E0.17117
G1 X228.070 Y106.140 E0.01672
G1 X231.930 Y110.000 E0.17116
G1 X231.930 Y109.467 E0.01673
G1 X228.070 Y105.607 E0.17116
G1 X228.070 Y105.074 E0.01672
G1 X231.929 Y108.933 E0.17115
G1 X231.929 Y108.400 E0.01673
G1 X228.070 Y104.541 E0.17115
G1 X228.070 Y104.007 E0.01672
G1 X231.929 Y107.867 E0.17114
G1 X231.929 Y107.333 E0.01673
G1 X228.070 Y103.474 E0.17114
G1 X228.070 Y102.941 E0.01672
G1 X231.929 Y106.800 E0.17113
G1 X231.929 Y106.266 E0.01673
G1 X228.070 Y102.407 E0.17113
G1 X228.070 Y101.874 E0.01672
G1 X231.929 Y105.733 E0.17112
G1 X231.929 Y105.200 E0.01673
G1 X228.070 Y101.341 E0.17111
G1 X228.070 Y100.807 E0.01672
G1 X231.929 Y104.666 E0.17111
G1 X231.928 Y104.133 E0.01673
G1 X228.070 Y100.274 E0.17110
G1 X228.070 Y99.741 E0.01672
G1 X231.928 Y103.599 E0.17110
G1 X231.928 Y103.066 E0.01673
G1 X228.070 Y99.208 E0.17109
G1 X228.070 Y98.674 E0.01672
G1 X231.928 Y102.532 E0.17109
G1 X231.928 Y101.999 E0.01673
G1 X224.570 Y94.641 E0.32627
G1 X225.104 Y94.641 E0.01672
G1 X231.928 Y101.466 E0.30261
G1 X231.928 Y100.932 E0.01673
G1 X225.637 Y94.641 E0.27896
G1 X226.170 Y94.641 E0.01672
G1 X231.928 Y100.399 E0.25530
G1 X231.927 Y99.865 E0.01673
G1 X226.704 Y94.641 E0.23165
G1 X227.237 Y94.641 E0.01672
G1 X231.927 Y99.332 E0.20800
G1 X231.927 Y98.798 E0.01673
G1 X227.770 Y94.641 E0.18434
G1 X228.303 Y94.641 E0.01672
G1 X231.927 Y98.265 E0.16069
G1 X231.927 Y97.732 E0.01673
G1 X228.837 Y94.641 E0.13703
G1 X229.370 Y94.641 E0.01672
G1 X231.927 Y97.198 E0.11338
G1 X231.927 Y96.665 E0.01673
G1 X229.903 Y94.641 E0.08972
G1 X230.437 Y94.641 E0.01672
G1 X231.927 Y96.131 E0.06607
G1 X231.926 Y95.598 E0.01673
G1 X230.970 Y94.641 E0.04242
G1 X231.503 Y94.641 E0.01672
G1 X232.096 Y95.234 E0.02629
G1 F8640.000
G1 X231.503 Y94.641 E-0.19358
G1 X230.970 Y94.641 E-0.12314
G1 X231.926 Y95.598 E-0.31234
G1 X231.927 Y96.131 E-0.12317
G1 X231.903 Y96.108 E-0.00777
G1 E-0.04000 F2100.00000
G1 Z0.800 F10800.000
G1 X227.495 Y98.100
G1 Z0.200
G1 E0.80000 F2100.00000
G1 F1200.000
G1 X224.037 Y94.641 E0.15336
G1 X223.504 Y94.641 E0.01672
G1 X226.792 Y97.930 E0.14584
G1 X226.259 Y97.930 E0.01672
G1 X222.970 Y94.641 E0.14584
G1 X222.437 Y94.641 E0.01672
G1 X225.726 Y97.930 E0.14584
G1 X225.193 Y97.930 E0.01672
G1 X221.904 Y94.641 E0.14584
G1 X221.371 Y94.641 E0.01672
G1 X224.659 Y97.930 E0.14584
G1 X224.126 Y97.930 E0.01672
G1 X220.837 Y94.641 E0.14584
G1 X220.304 Y94.641 E0.01672
G1 X223.593 Y97.930 E0.14584
G1 X223.059 Y97.930 E0.01672
G1 X219.771 Y94.641 E0.14584
G1 X219.237 Y94.641 E0.01672
G1 X222.526 Y97.930 E0.14584
G1 X221.993 Y97.930 E0.01672
G1 X218.704 Y94.641 E0.14584
G1 X218.171 Y94.641 E0.01672
G1 X221.459 Y97.930 E0.14584
G1 X220.926 Y97.930 E0.01672
G1 X217.637 Y94.641 E0.14584
G1 X217.104 Y94.641 E0.01672
G1 X220.393 Y97.930 E0.14584
G1 X219.860 Y97.930 E0.01672
G1 X216.571 Y94.641 E0.14584
G1 X216.038 Y94.641 E0.01672
G1 X219.326 Y97.930 E0.14584
G1 X218.793 Y97.930 E0.01672
G1 X215.504 Y94.641 E0.14584
G1 X214.971 Y94.641 E0.01672
G1 X218.260 Y97.930 E0.14583
G1 X217.726 Y97.930 E0.01672
G1 X214.438 Y94.641 E0.14583
G1 X213.904 Y94.641 E0.01672
G1 X217.193 Y97.930 E0.14583
G1 X216.660 Y97.930 E0.01672
G1 X213.371 Y94.641 E0.14583
G1 X212.838 Y94.641 E0.01672
G1 X216.126 Y97.930 E0.14583
G1 X215.593 Y97.930 E0.01672
G1 X212.304 Y94.641 E0.14583
G1 X211.771 Y94.641 E0.01672
G1 X215.060 Y97.930 E0.14583
G1 X214.526 Y97.930 E0.01672
G1 X211.238 Y94.641 E0.14583
G1 X210.705 Y94.641 E0.01672
G1 X213.993 Y97.930 E0.14583
G1 X213.460 Y97.930 E0.01672
G1 X210.171 Y94.641 E0.14583
G1 X209.638 Y94.641 E0.01672
G1 X212.927 Y97.930 E0.14583
G1 X212.393 Y97.930 E0.01672
G1 X209.105 Y94.641 E0.14583
G1 X208.571 Y94.641 E0.01672
G1 X211.860 Y97.930 E0.14583
G1 X211.327 Y97.930 E0.01672
G1 X208.038 Y94.641 E0.14583
G1 X207.505 Y94.641 E0.01672
G1 X210.793 Y97.930 E0.14583
G1 X210.260 Y97.930 E0.01672
G1 X206.971 Y94.641 E0.14583
G1 X206.438 Y94.641 E0.01672
G1 X209.727 Y97.930 E0.14583
G1 X209.193 Y97.930 E0.01672
G1 X205.905 Y94.641 E0.14583
G1 X205.371 Y94.641 E0.01672
G1 X208.660 Y97.930 E0.14583
G1 X208.127 Y97.930 E0.01672
G1 X204.838 Y94.641 E0.14583
G1 X204.305 Y94.641 E0.01672
G1 X207.594 Y97.930 E0.14583
G1 X207.060 Y97.930 E0.01672
G1 X203.772 Y94.641 E0.14583
G1 X203.238 Y94.641 E0.01672
G1 X206.527 Y97.930 E0.14583
G1 X205.994 Y97.930 E0.01672
G1 X202.705 Y94.641 E0.14583
G1 X202.172 Y94.641 E0.01672
G1 X205.460 Y97.930 E0.14583
G1 X204.927 Y97.930 E0.01672
G1 X201.638 Y94.641 E0.14583
G1 X201.105 Y94.641 E0.01672
G1 X204.394 Y97.930 E0.14583
G1 X203.860 Y97.930 E0.01672
G1 X200.572 Y94.641 E0.14583
G1 X200.038 Y94.641 E0.01672
G1 X203.327 Y97.930 E0.14583
G1 X202.794 Y97.930 E0.01672
G1 X199.505 Y94.641 E0.14583
G1 X198.972 Y94.642 E0.01672
G1 X202.260 Y97.930 E0.14583
G1 X201.727 Y97.930 E0.01672
G1 X198.439 Y94.642 E0.14583
G1 X197.905 Y94.642 E0.01672
G1 X201.194 Y97.930 E0.14583
G1 X200.661 Y97.930 E0.01672
G1 X197.372 Y94.642 E0.14583
G1 X196.839 Y94.642 E0.01672
G1 X200.127 Y97.930 E0.14583
G1 X199.594 Y97.930 E0.01672
G1 X196.305 Y94.642 E0.14583
G1 X195.772 Y94.642 E0.01672
G1 X199.061 Y97.930 E0.14583
G1 X198.527 Y97.930 E0.01672
G1 X195.239 Y94.642 E0.14583
G1 X194.705 Y94.642 E0.01672
G1 X197.994 Y97.930 E0.14583
M73 P2 R72
G1 X197.461 Y97.930 E0.01672
G1 X194.172 Y94.642 E0.14583
G1 X193.639 Y94.642 E0.01672
G1 X196.927 Y97.930 E0.14583
G1 X196.394 Y97.930 E0.01672
G1 X193.106 Y94.642 E0.14583
G1 X192.572 Y94.642 E0.01672
G1 X195.861 Y97.930 E0.14583
G1 X195.328 Y97.930 E0.01672
G1 X192.039 Y94.642 E0.14583
G1 X191.506 Y94.642 E0.01672
G1 X194.794 Y97.930 E0.14583
G1 X194.261 Y97.930 E0.01672
G1 X190.972 Y94.642 E0.14583
G1 X190.439 Y94.642 E0.01672
G1 X193.728 Y97.930 E0.14583
G1 X193.194 Y97.930 E0.01672
G1 X189.906 Y94.642 E0.14583
G1 X189.372 Y94.642 E0.01672
G1 X192.661 Y97.930 E0.14583
G1 X192.128 Y97.930 E0.01672
G1 X188.839 Y94.642 E0.14583
G1 X188.306 Y94.642 E0.01672
G1 X191.594 Y97.930 E0.14583
G1 X191.061 Y97.930 E0.01672
G1 X187.773 Y94.642 E0.14583
G1 X187.239 Y94.642 E0.01672
G1 X190.528 Y97.930 E0.14583
G1 X189.994 Y97.930 E0.01672
G1 X186.706 Y94.642 E0.14583
G1 X186.173 Y94.642 E0.01672
G1 X189.461 Y97.930 E0.14583
G1 X188.928 Y97.930 E0.01672
G1 X185.639 Y94.642 E0.14583
G1 X185.106 Y94.642 E0.01672
G1 X188.395 Y97.930 E0.14583
G1 X187.861 Y97.930 E0.01672
G1 X184.573 Y94.642 E0.14583
G1 X184.039 Y94.642 E0.01672
G1 X187.328 Y97.930 E0.14583
G1 X186.795 Y97.930 E0.01672
G1 X183.506 Y94.642 E0.14583
G1 X182.973 Y94.642 E0.01672
G1 X186.261 Y97.930 E0.14583
G1 X185.728 Y97.930 E0.01672
G1 X182.440 Y94.642 E0.14583
G1 X181.906 Y94.642 E0.01672
G1 X185.195 Y97.930 E0.14583
G1 X184.661 Y97.930 E0.01672
G1 X181.373 Y94.642 E0.14583
G1 X180.840 Y94.642 E0.01672
G1 X184.128 Y97.930 E0.14583
G1 X183.595 Y97.930 E0.01672
G1 X180.306 Y94.642 E0.14583
G1 X179.773 Y94.642 E0.01672
G1 X183.062 Y97.930 E0.14583
G1 X182.528 Y97.930 E0.01672
G1 X179.240 Y94.642 E0.14583
G1 X178.706 Y94.642 E0.01672
G1 X181.995 Y97.930 E0.14583
G1 X181.462 Y97.930 E0.01672
G1 X178.173 Y94.642 E0.14583
G1 X177.640 Y94.642 E0.01672
G1 X180.928 Y97.930 E0.14583
G1 X180.395 Y97.930 E0.01672
G1 X177.106 Y94.642 E0.14583
G1 X176.573 Y94.642 E0.01672
G1 X179.862 Y97.930 E0.14583
G1 X179.328 Y97.930 E0.01672
G1 X176.040 Y94.642 E0.14583
G1 X175.507 Y94.642 E0.01672
G1 X178.795 Y97.930 E0.14583
G1 X178.262 Y97.930 E0.01672
G1 X174.973 Y94.642 E0.14583
G1 X174.440 Y94.642 E0.01672
G1 X177.728 Y97.930 E0.14583
G1 X177.195 Y97.930 E0.01672
G1 X173.907 Y94.642 E0.14583
G1 X173.373 Y94.642 E0.01672
G1 X176.662 Y97.930 E0.14583
G1 X176.129 Y97.930 E0.01672
G1 X172.840 Y94.642 E0.14583
G1 X172.307 Y94.642 E0.01672
G1 X175.595 Y97.930 E0.14583
G1 X175.062 Y97.930 E0.01672
G1 X171.773 Y94.642 E0.14583
G1 X171.240 Y94.642 E0.01672
G1 X174.529 Y97.930 E0.14583
G1 X173.995 Y97.930 E0.01672
G1 X170.707 Y94.642 E0.14583
G1 X170.174 Y94.642 E0.01672
G1 X173.462 Y97.930 E0.14583
G1 X172.929 Y97.930 E0.01672
G1 X169.640 Y94.642 E0.14583
G1 X169.107 Y94.642 E0.01672
G1 X172.395 Y97.930 E0.14583
G1 X171.862 Y97.930 E0.01672
G1 X168.574 Y94.642 E0.14583
G1 X168.040 Y94.642 E0.01672
G1 X171.329 Y97.930 E0.14583
G1 X170.796 Y97.930 E0.01672
G1 X167.507 Y94.642 E0.14583
G1 X166.974 Y94.642 E0.01672
G1 X170.262 Y97.930 E0.14583
G1 X169.729 Y97.930 E0.01672
G1 X166.440 Y94.642 E0.14583
G1 X165.907 Y94.642 E0.01672
G1 X169.196 Y97.930 E0.14583
G1 X168.662 Y97.930 E0.01672
G1 X165.374 Y94.642 E0.14583
G1 X164.841 Y94.642 E0.01672
G1 X168.129 Y97.930 E0.14583
G1 X167.596 Y97.930 E0.01672
G1 X164.307 Y94.642 E0.14583
G1 X163.774 Y94.642 E0.01672
G1 X167.062 Y97.930 E0.14583
G1 X166.529 Y97.930 E0.01672
G1 X163.241 Y94.642 E0.14583
G1 X162.707 Y94.642 E0.01672
G1 X165.996 Y97.930 E0.14583
G1 X165.462 Y97.930 E0.01672
G1 X162.174 Y94.642 E0.14582
G1 X161.641 Y94.642 E0.01672
G1 X164.929 Y97.930 E0.14582
G1 X164.396 Y97.930 E0.01672
G1 X161.107 Y94.642 E0.14582
G1 X160.574 Y94.642 E0.01672
G1 X163.863 Y97.930 E0.14582
G1 X163.329 Y97.930 E0.01672
G1 X160.041 Y94.642 E0.14582
G1 X159.508 Y94.642 E0.01672
G1 X162.796 Y97.930 E0.14582
G1 X162.263 Y97.930 E0.01672
G1 X158.974 Y94.642 E0.14582
G1 X158.441 Y94.642 E0.01672
G1 X161.729 Y97.930 E0.14582
G1 X161.196 Y97.930 E0.01672
G1 X157.908 Y94.642 E0.14582
G1 X157.374 Y94.642 E0.01672
G1 X160.663 Y97.930 E0.14582
G1 X160.129 Y97.930 E0.01672
G1 X156.841 Y94.642 E0.14582
G1 X156.308 Y94.642 E0.01672
G1 X159.596 Y97.930 E0.14582
G1 X159.063 Y97.930 E0.01672
G1 X155.774 Y94.642 E0.14582
G1 X155.241 Y94.642 E0.01672
G1 X158.530 Y97.930 E0.14582
G1 X157.996 Y97.930 E0.01672
G1 X154.708 Y94.642 E0.14582
G1 X154.175 Y94.642 E0.01672
G1 X157.463 Y97.930 E0.14582
G1 X156.930 Y97.930 E0.01672
G1 X153.641 Y94.642 E0.14582
G1 X153.108 Y94.642 E0.01672
G1 X156.396 Y97.930 E0.14582
G1 X155.863 Y97.930 E0.01672
G1 X152.575 Y94.642 E0.14582
G1 X152.041 Y94.642 E0.01672
