; generated by PrusaSlicer 2.4.2+win64 on 2022-08-02 at 06:48:13 UTC

; 

; external perimeters extrusion width = 0.45mm
; perimeters extrusion width = 0.45mm
; infill extrusion width = 0.45mm
; solid infill extrusion width = 0.45mm
; top infill extrusion width = 0.40mm
; first layer extrusion width = 0.42mm

M73 P0 R86
M107
;TYPE:Custom
M862.3 P "MK2S" ; printer model check
M862.1 P0.4 ; nozzle diameter check
M115 U3.2.3 ; tell printer latest fw version
G90 ; use absolute coordinates
M83 ; extruder relative mode
M204 S2000 T1500 ; MK2 firmware only supports the old M204 format
M104 S220 ; set extruder temp
M140 S80 ; set bed temp
M190 S80 ; wait for bed temp
M109 S220 ; wait for extruder temp
G28 W ; home all without mesh bed level
G80 ; mesh bed leveling
G1 Y-3.0 F1000.0 ; go outside print area
G92 E0.0
G1 X60.0 E9.0  F1000.0 ; intro line
G1 X100.0 E12.5 F1000.0 ; intro line
G92 E0.0
G21 ; set units to millimeters
G90 ; use absolute coordinates
M83 ; use relative distances for extrusion
M900 K45 ; Filament gcode
M107
;LAYER_CHANGE
;Z:0.2
;HEIGHT:0.2
;BEFORE_LAYER_CHANGE
G92 E0.0
;0.2


G1 E-.8 F2100
G1 Z.4 F10800
;AFTER_LAYER_CHANGE
;0.2
G1 X17.498 Y90.762
G1 Z.2
G1 E.8 F2100
M204 S1000
;TYPE:Skirt/Brim
;WIDTH:0.42
G1 F1200
G1 X232.502 Y90.762 E6.74132
G1 X233.674 Y91.071 E.038
G1 X234.207 Y91.449 E.02049
G1 X234.895 Y92.266 E.03349
G1 X245.298 Y110.566 E.66002
G1 X245.544 Y111.125 E.01913
G1 X245.711 Y112 E.02794
G1 X245.711 Y117 E.15677
G1 X245.32 Y118.307 E.04278
G1 X244.274 Y119.183 E.04278
G1 X243.334 Y119.377 E.03008
G1 X6.666 Y119.377 E7.42057
G1 X5.359 Y118.985 E.04278
M73 P0 R85
G1 X4.482 Y117.94 E.04278
G1 X4.289 Y117 E.03008
G1 X4.289 Y112 E.15677
G1 X4.456 Y111.125 E.02794
G1 X4.702 Y110.567 E.01912
G1 X15.1 Y92.273 E.65976
G1 X15.785 Y91.455 E.03344
G1 X16.31 Y91.08 E.02023
G1 X17.44 Y90.777 E.03668
; printing object Schwammhalter.stl id:0 copy 0
;WIPE_START
G1 F8640
G1 X20.731 Y90.777 E-.76
;WIPE_END
G1 E-.04 F2100
G1 Z.6 F10800
G1 X17.787 Y94.359
G1 Z.2
G1 E.8 F2100
;TYPE:Perimeter
G1 F1200
G1 X232.209 Y94.359 E6.72305
G1 X232.213 Y112.369 E.56471
G1 X240.895 Y112.369 E.27221
G1 X241.1 Y112.425 E.00668
G1 X241.1 Y116.213 E.11877
G1 X227.787 Y116.213 E.41743
G1 X227.787 Y98.213 E.56438
G1 X22.213 Y98.213 E6.44563
G1 X22.213 Y116.213 E.56438
M73 P1 R85
G1 X8.9 Y116.213 E.41743
G1 X8.9 Y112.425 E.11877
G1 X9.105 Y112.369 E.00668
G1 X17.787 Y112.369 E.27222
G1 X17.787 Y94.419 E.5628
G1 X17.44 Y93.982 F10800
;TYPE:External perimeter
G1 F1200
G1 X232.586 Y93.982 E6.74576
G1 X232.59 Y111.992 E.56469
G1 X240.945 Y111.992 E.26197
G1 X241.389 Y112.113 E.0144
G1 X241.478 Y112.189 E.00367
G1 X241.478 Y116.59 E.138
G1 X227.41 Y116.59 E.44108
G1 X227.41 Y98.59 E.56438
G1 X22.59 Y98.59 E6.42199
G1 X22.59 Y116.59 E.56438
M73 P1 R84
G1 X8.522 Y116.59 E.44108
G1 X8.522 Y112.189 E.138
G1 X8.611 Y112.113 E.00367
G1 X9.055 Y111.992 E.0144
G1 X17.41 Y111.992 E.26197
G1 X17.411 Y94.019 E.56354
G1 X17.754 Y94.23 F10800
;WIPE_START
G1 F8640
G1 X20.702 Y94.018 E-.76
;WIPE_END
G1 E-.04 F2100
G1 Z.6 F10800
G1 X232.096 Y95.234
G1 Z.2
G1 E.8 F2100
;TYPE:Solid infill
;WIDTH:0.420023
G1 F1200
G1 X231.503 Y94.641 E.02629
G1 X230.97 Y94.641 E.01672
G1 X231.926 Y95.598 E.04242
G1 X231.927 Y96.131 E.01673
G1 X230.437 Y94.641 E.06607
G1 X229.903 Y94.641 E.01672
G1 X231.927 Y96.665 E.08972
G1 X231.927 Y97.198 E.01673
G1 X229.37 Y94.641 E.11338
G1 X228.837 Y94.641 E.01672
G1 X231.927 Y97.732 E.13703
G1 X231.927 Y98.265 E.01673
G1 X228.303 Y94.641 E.16069
G1 X227.77 Y94.641 E.01672
G1 X231.927 Y98.798 E.18434
G1 X231.927 Y99.332 E.01673
G1 X227.237 Y94.641 E.208
G1 X226.704 Y94.641 E.01672
G1 X231.927 Y99.865 E.23165
G1 X231.928 Y100.399 E.01673
G1 X226.17 Y94.641 E.2553
G1 X225.637 Y94.641 E.01672
G1 X231.928 Y100.932 E.27896
G1 X231.928 Y101.466 E.01673
G1 X225.104 Y94.641 E.30261
G1 X224.57 Y94.641 E.01672
G1 X231.928 Y101.999 E.32627
G1 X231.928 Y102.532 E.01673
G1 X228.07 Y98.674 E.17109
G1 X228.07 Y99.208 E.01672
G1 X231.928 Y103.066 E.17109
G1 X231.928 Y103.599 E.01673
G1 X228.07 Y99.741 E.1711
G1 X228.07 Y100.274 E.01672
G1 X231.928 Y104.133 E.1711
G1 X231.929 Y104.666 E.01673
G1 X228.07 Y100.807 E.17111
G1 X228.07 Y101.341 E.01672
G1 X231.929 Y105.2 E.17111
G1 X231.929 Y105.733 E.01673
G1 X228.07 Y101.874 E.17112
G1 X228.07 Y102.407 E.01672
G1 X231.929 Y106.266 E.17113
G1 X231.929 Y106.8 E.01673
G1 X228.07 Y102.941 E.17113
G1 X228.07 Y103.474 E.01672
G1 X231.929 Y107.333 E.17114
G1 X231.929 Y107.867 E.01673
G1 X228.07 Y104.007 E.17114
G1 X228.07 Y104.541 E.01672
G1 X231.929 Y108.4 E.17115
G1 X231.929 Y108.933 E.01673
G1 X228.07 Y105.074 E.17115
G1 X228.07 Y105.607 E.01672
G1 X231.93 Y109.467 E.17116
G1 X231.93 Y110 E.01673
G1 X228.07 Y106.14 E.17116
G1 X228.07 Y106.674 E.01672
G1 X231.93 Y110.534 E.17117
G1 X231.93 Y111.067 E.01673
G1 X228.07 Y107.207 E.17117
G1 X228.07 Y107.74 E.01672
G1 X232.1 Y111.77 E.1787
;WIPE_START
G1 F8640
G1 X229.772 Y109.443 E-.76
;WIPE_END
G1 E-.04 F2100
G1 Z.6 F10800
G1 X240.278 Y112.482
G1 Z.2
G1 E.8 F2100
G1 F1200
G1 X240.818 Y113.022 E.02393
G1 X240.818 Y113.555 E.01672
G1 X239.914 Y112.652 E.04006
G1 X239.381 Y112.652 E.01672
G1 X240.818 Y114.089 E.06371
G1 X240.818 Y114.622 E.01672
G1 X238.848 Y112.652 E.08735
G1 X238.314 Y112.652 E.01672
G1 X240.818 Y115.155 E.111
G1 X240.818 Y115.688 E.01672
G1 X237.781 Y112.652 E.13465
G1 X237.248 Y112.652 E.01672
G1 X240.526 Y115.93 E.14537
G1 X239.993 Y115.93 E.01672
G1 X236.715 Y112.652 E.14537
G1 X236.181 Y112.652 E.01672
G1 X239.459 Y115.93 E.14537
G1 X238.926 Y115.93 E.01672
G1 X235.648 Y112.652 E.14537
G1 X235.115 Y112.652 E.01672
G1 X238.393 Y115.93 E.14537
G1 X237.86 Y115.93 E.01672
G1 X234.581 Y112.652 E.14537
G1 X234.048 Y112.652 E.01672
G1 X237.326 Y115.93 E.14537
G1 X236.793 Y115.93 E.01672
G1 X233.515 Y112.652 E.14537
G1 X232.981 Y112.652 E.01672
G1 X236.26 Y115.93 E.14537
G1 X235.726 Y115.93 E.01672
G1 X232.448 Y112.652 E.14537
G1 X231.93 Y112.652 E.01624
M73 P2 R84
G1 X231.93 Y112.134 E.01624
G1 X228.07 Y108.274 E.17118
G1 X228.07 Y108.807 E.01672
G1 X235.193 Y115.93 E.31587
G1 X234.66 Y115.93 E.01672
G1 X228.07 Y109.34 E.29222
G1 X228.07 Y109.874 E.01672
G1 X234.126 Y115.93 E.26857
G1 X233.593 Y115.93 E.01672
G1 X228.07 Y110.407 E.24492
G1 X228.07 Y110.94 E.01672
G1 X233.06 Y115.93 E.22127
G1 X232.526 Y115.93 E.01672
G1 X228.07 Y111.474 E.19763
G1 X228.07 Y112.007 E.01672
G1 X231.993 Y115.93 E.17398
G1 X231.46 Y115.93 E.01672
G1 X228.07 Y112.54 E.15033
G1 X228.07 Y113.073 E.01672
G1 X230.927 Y115.93 E.12668
G1 X230.393 Y115.93 E.01672
G1 X228.07 Y113.607 E.10303
G1 X228.07 Y114.14 E.01672
G1 X229.86 Y115.93 E.07938
G1 X229.327 Y115.93 E.01672
G1 X228.07 Y114.673 E.05573
G1 X228.07 Y115.207 E.01672
G1 X228.793 Y115.93 E.03208
G1 X228.26 Y115.93 E.01672
G1 X227.9 Y115.57 E.01596
;WIPE_START
G1 F8640
G1 X228.26 Y115.93 E-.11751
G1 X228.793 Y115.93 E-.12314
G1 X228.07 Y115.207 E-.23625
G1 X228.07 Y114.673 E-.12314
G1 X228.56 Y115.163 E-.15996
;WIPE_END
G1 E-.04 F2100
G1 Z.6 F10800
G1 X227.495 Y98.1
G1 Z.2
G1 E.8 F2100
G1 F1200
G1 X224.037 Y94.641 E.15336
G1 X223.504 Y94.641 E.01672
G1 X226.792 Y97.93 E.14584
G1 X226.259 Y97.93 E.01672
G1 X222.97 Y94.641 E.14584
G1 X222.437 Y94.641 E.01672
G1 X225.726 Y97.93 E.14584
G1 X225.193 Y97.93 E.01672
G1 X221.904 Y94.641 E.14584
G1 X221.371 Y94.641 E.01672
G1 X224.659 Y97.93 E.14584
G1 X224.126 Y97.93 E.01672
G1 X220.837 Y94.641 E.14584
G1 X220.304 Y94.641 E.01672
G1 X223.593 Y97.93 E.14584
G1 X223.059 Y97.93 E.01672
G1 X219.771 Y94.641 E.14584
G1 X219.237 Y94.641 E.01672
G1 X222.526 Y97.93 E.14584
G1 X221.993 Y97.93 E.01672
G1 X218.704 Y94.641 E.14584
G1 X218.171 Y94.641 E.01672
G1 X221.459 Y97.93 E.14584
G1 X220.926 Y97.93 E.01672
G1 X217.637 Y94.641 E.14584
G1 X217.104 Y94.641 E.01672
G1 X220.393 Y97.93 E.14584
G1 X219.86 Y97.93 E.01672
G1 X216.571 Y94.641 E.14584
G1 X216.038 Y94.641 E.01672
G1 X219.326 Y97.93 E.14584
G1 X218.793 Y97.93 E.01672
G1 X215.504 Y94.641 E.14584
G1 X214.971 Y94.641 E.01672
G1 X218.26 Y97.93 E.14584
G1 X217.726 Y97.93 E.01672
G1 X214.438 Y94.641 E.14583
G1 X213.904 Y94.641 E.01672
G1 X217.193 Y97.93 E.14583
G1 X216.66 Y97.93 E.01672
G1 X213.371 Y94.641 E.14583
G1 X212.838 Y94.641 E.01672
G1 X216.126 Y97.93 E.14583
G1 X215.593 Y97.93 E.01672
G1 X212.304 Y94.641 E.14583
G1 X211.771 Y94.641 E.01672
G1 X215.06 Y97.93 E.14583
G1 X214.526 Y97.93 E.01672
G1 X211.238 Y94.641 E.14583
G1 X210.705 Y94.641 E.01672
G1 X213.993 Y97.93 E.14583
G1 X213.46 Y97.93 E.01672
G1 X210.171 Y94.641 E.14583
G1 X209.638 Y94.641 E.01672
G1 X212.927 Y97.93 E.14583
G1 X212.393 Y97.93 E.01672
G1 X209.105 Y94.641 E.14583
G1 X208.571 Y94.641 E.01672
G1 X211.86 Y97.93 E.14583
G1 X211.327 Y97.93 E.01672
G1 X208.038 Y94.641 E.14583
G1 X207.505 Y94.641 E.01672
G1 X210.793 Y97.93 E.14583
G1 X210.26 Y97.93 E.01672
G1 X206.971 Y94.641 E.14583
G1 X206.438 Y94.641 E.01672
G1 X209.727 Y97.93 E.14583
G1 X209.193 Y97.93 E.01672
G1 X205.905 Y94.641 E.14583
G1 X205.371 Y94.641 E.01672
G1 X208.66 Y97.93 E.14583
G1 X208.127 Y97.93 E.01672
G1 X204.838 Y94.641 E.14583
G1 X204.305 Y94.641 E.01672
G1 X207.594 Y97.93 E.14583
G1 X207.06 Y97.93 E.01672
G1 X203.772 Y94.641 E.14583
G1 X203.238 Y94.641 E.01672
G1 X206.527 Y97.93 E.14583
G1 X205.994 Y97.93 E.01672
G1 X202.705 Y94.641 E.14583
G1 X202.172 Y94.641 E.01672
G1 X205.46 Y97.93 E.14583
G1 X204.927 Y97.93 E.01672
G1 X201.638 Y94.641 E.14583
G1 X201.105 Y94.641 E.01672
G1 X204.394 Y97.93 E.14583
G1 X203.86 Y97.93 E.01672
G1 X200.572 Y94.641 E.14583
G1 X200.038 Y94.641 E.01672
G1 X203.327 Y97.93 E.14583
G1 X202.794 Y97.93 E.01672
G1 X199.505 Y94.641 E.14583
G1 X198.972 Y94.642 E.01672
G1 X202.26 Y97.93 E.14583
G1 X201.727 Y97.93 E.01672
G1 X198.439 Y94.642 E.14583
G1 X197.905 Y94.642 E.01672
G1 X201.194 Y97.93 E.14583
G1 X200.661 Y97.93 E.01672
G1 X197.372 Y94.642 E.14583
G1 X196.839 Y94.642 E.01672
G1 X200.127 Y97.93 E.14583
G1 X199.594 Y97.93 E.01672
G1 X196.305 Y94.642 E.14583
G1 X195.772 Y94.642 E.01672
G1 X199.061 Y97.93 E.14583
G1 X198.527 Y97.93 E.01672
G1 X195.239 Y94.642 E.14583
G1 X194.705 Y94.642 E.01672
G1 X197.994 Y97.93 E.14583
G1 X197.461 Y97.93 E.01672
G1 X194.172 Y94.642 E.14583
G1 X193.639 Y94.642 E.01672
G1 X196.927 Y97.93 E.14583
G1 X196.394 Y97.93 E.01672
G1 X193.106 Y94.642 E.14583
G1 X192.572 Y94.642 E.01672
G1 X195.861 Y97.93 E.14583
G1 X195.328 Y97.93 E.01672
G1 X192.039 Y94.642 E.14583
G1 X191.506 Y94.642 E.01672
G1 X194.794 Y97.93 E.14583
G1 X194.261 Y97.93 E.01672
G1 X190.972 Y94.642 E.14583
G1 X190.439 Y94.642 E.01672
G1 X193.728 Y97.93 E.14583
G1 X193.194 Y97.93 E.01672
G1 X189.906 Y94.642 E.14583
G1 X189.372 Y94.642 E.01672
G1 X192.661 Y97.93 E.14583
G1 X192.128 Y97.93 E.01672
G1 X188.839 Y94.642 E.14583
G1 X188.306 Y94.642 E.01672
G1 X191.594 Y97.93 E.14583
G1 X191.061 Y97.93 E.01672
G1 X187.773 Y94.642 E.14583
G1 X187.239 Y94.642 E.01672
G1 X190.528 Y97.93 E.14583
G1 X189.994 Y97.93 E.01672
G1 X186.706 Y94.642 E.14583
G1 X186.173 Y94.642 E.01672
G1 X189.461 Y97.93 E.14583
G1 X188.928 Y97.93 E.01672
G1 X185.639 Y94.642 E.14583
G1 X185.106 Y94.642 E.01672
G1 X188.395 Y97.93 E.14583
G1 X187.861 Y97.93 E.01672
G1 X184.573 Y94.642 E.14583
G1 X184.039 Y94.642 E.01672
G1 X187.328 Y97.93 E.14583
G1 X186.795 Y97.93 E.01672
G1 X183.506 Y94.642 E.14583
G1 X182.973 Y94.642 E.01672
G1 X186.261 Y97.93 E.14583
G1 X185.728 Y97.93 E.01672
G1 X182.44 Y94.642 E.14583
G1 X181.906 Y94.642 E.01672
G1 X185.195 Y97.93 E.14583
G1 X184.661 Y97.93 E.01672
G1 X181.373 Y94.642 E.14583
G1 X180.84 Y94.642 E.01672
G1 X184.128 Y97.93 E.14583
G1 X183.595 Y97.93 E.01672
G1 X180.306 Y94.642 E.14583
G1 X179.773 Y94.642 E.01672
G1 X183.062 Y97.93 E.14583
G1 X182.528 Y97.93 E.01672
G1 X179.24 Y94.642 E.14583
G1 X178.706 Y94.642 E.01672
G1 X181.995 Y97.93 E.14583
G1 X181.462 Y97.93 E.01672
G1 X178.173 Y94.642 E.14583
G1 X177.64 Y94.642 E.01672
G1 X180.928 Y97.93 E.14583
G1 X180.395 Y97.93 E.01672
G1 X177.106 Y94.642 E.14583
G1 X176.573 Y94.642 E.01672
G1 X179.862 Y97.93 E.14583
G1 X179.328 Y97.93 E.01672
G1 X176.04 Y94.642 E.14583
G1 X175.507 Y94.642 E.01672
G1 X178.795 Y97.93 E.14583
G1 X178.262 Y97.93 E.01672
G1 X174.973 Y94.642 E.14583
G1 X174.44 Y94.642 E.01672
G1 X177.728 Y97.93 E.14583
G1 X177.195 Y97.93 E.01672
G1 X173.907 Y94.642 E.14583
G1 X173.373 Y94.642 E.01672
G1 X176.662 Y97.93 E.14583
G1 X176.129 Y97.93 E.01672
G1 X172.84 Y94.642 E.14583
G1 X172.307 Y94.642 E.01672
G1 X175.595 Y97.93 E.14583
G1 X175.062 Y97.93 E.01672
G1 X171.773 Y94.642 E.14583
G1 X171.24 Y94.642 E.01672
G1 X174.529 Y97.93 E.14583
G1 X173.995 Y97.93 E.01672
G1 X170.707 Y94.642 E.14583
G1 X170.174 Y94.642 E.01672
G1 X173.462 Y97.93 E.14583
G1 X172.929 Y97.93 E.01672
G1 X169.64 Y94.642 E.14583
G1 X169.107 Y94.642 E.01672
G1 X172.395 Y97.93 E.14583
G1 X171.862 Y97.93 E.01672
G1 X168.574 Y94.642 E.14583
G1 X168.04 Y94.642 E.01672
G1 X171.329 Y97.93 E.14583
G1 X170.796 Y97.93 E.01672
G1 X167.507 Y94.642 E.14583
G1 X166.974 Y94.642 E.01672
G1 X170.262 Y97.93 E.14583
G1 X169.729 Y97.93 E.01672
G1 X166.44 Y94.642 E.14583
G1 X165.907 Y94.642 E.01672
G1 X169.196 Y97.93 E.14583
G1 X168.662 Y97.93 E.01672
G1 X165.374 Y94.642 E.14583
G1 X164.841 Y94.642 E.01672
G1 X168.129 Y97.93 E.14583
G1 X167.596 Y97.93 E.01672
G1 X164.307 Y94.642 E.14583
G1 X163.774 Y94.642 E.01672
G1 X167.062 Y97.93 E.14583
G1 X166.529 Y97.93 E.01672
G1 X163.241 Y94.642 E.14583
G1 X162.707 Y94.642 E.01672
G1 X165.996 Y97.93 E.14583
G1 X165.463 Y97.93 E.01672
G1 X162.174 Y94.642 E.14582
G1 X161.641 Y94.642 E.01672
G1 X164.929 Y97.93 E.14582
G1 X164.396 Y97.93 E.01672
G1 X161.107 Y94.642 E.14582
G1 X160.574 Y94.642 E.01672
G1 X163.863 Y97.93 E.14582
G1 X163.329 Y97.93 E.01672
G1 X160.041 Y94.642 E.14582
G1 X159.508 Y94.642 E.01672
G1 X162.796 Y97.93 E.14582
G1 X162.263 Y97.93 E.01672
G1 X158.974 Y94.642 E.14582
M73 P2 R83
G1 X158.441 Y94.642 E.01672
G1 X161.729 Y97.93 E.14582
G1 X161.196 Y97.93 E.01672
G1 X157.908 Y94.642 E.14582
G1 X157.374 Y94.642 E.01672
G1 X160.663 Y97.93 E.14582
G1 X160.129 Y97.93 E.01672
G1 X156.841 Y94.642 E.14582
G1 X156.308 Y94.642 E.01672
G1 X159.596 Y97.93 E.14582
G1 X159.063 Y97.93 E.01672
G1 X155.774 Y94.642 E.14582
G1 X155.241 Y94.642 E.01672
G1 X158.53 Y97.93 E.14582
G1 X157.996 Y97.93 E.01672
G1 X154.708 Y94.642 E.14582
G1 X154.175 Y94.642 E.01672
G1 X157.463 Y97.93 E.14582
G1 X156.93 Y97.93 E.01672
G1 X153.641 Y94.642 E.14582
G1 X153.108 Y94.642 E.01672
G1 X156.396 Y97.93 E.14582
G1 X155.863 Y97.93 E.01672
G1 X152.575 Y94.642 E.14582
G1 X152.041 Y94.642 E.01672
G1 X155.33 Y97.93 E.14582
G1 X154.796 Y97.93 E.01672
G1 X151.508 Y94.642 E.14582
G1 X150.975 Y94.642 E.01672
G1 X154.263 Y97.93 E.14582
G1 X153.73 Y97.93 E.01672
G1 X150.441 Y94.642 E.14582
G1 X149.908 Y94.642 E.01672
G1 X153.197 Y97.93 E.14582
G1 X152.663 Y97.93 E.01672
G1 X149.375 Y94.642 E.14582
G1 X148.841 Y94.642 E.01672
G1 X152.13 Y97.93 E.14582
G1 X151.597 Y97.93 E.01672
G1 X148.308 Y94.642 E.14582
G1 X147.775 Y94.642 E.01672
G1 X151.063 Y97.93 E.14582
G1 X150.53 Y97.93 E.01672
G1 X147.242 Y94.642 E.14582
G1 X146.708 Y94.642 E.01672
G1 X149.997 Y97.93 E.14582
G1 X149.463 Y97.93 E.01672
G1 X146.175 Y94.642 E.14582
G1 X145.642 Y94.642 E.01672
G1 X148.93 Y97.93 E.14582
G1 X148.397 Y97.93 E.01672
G1 X145.108 Y94.642 E.14582
G1 X144.575 Y94.642 E.01672
G1 X147.863 Y97.93 E.14582
G1 X147.33 Y97.93 E.01672
G1 X144.042 Y94.642 E.14582
G1 X143.508 Y94.642 E.01672
G1 X146.797 Y97.93 E.14582
G1 X146.264 Y97.93 E.01672
G1 X142.975 Y94.642 E.14582
G1 X142.442 Y94.642 E.01672
G1 X145.73 Y97.93 E.14582
G1 X145.197 Y97.93 E.01672
G1 X141.909 Y94.642 E.14582
G1 X141.375 Y94.642 E.01672
G1 X144.664 Y97.93 E.14582
G1 X144.13 Y97.93 E.01672
G1 X140.842 Y94.642 E.14582
G1 X140.309 Y94.642 E.01672
G1 X143.597 Y97.93 E.14582
G1 X143.064 Y97.93 E.01672
G1 X139.775 Y94.642 E.14582
G1 X139.242 Y94.642 E.01672
G1 X142.53 Y97.93 E.14582
G1 X141.997 Y97.93 E.01672
G1 X138.709 Y94.642 E.14582
G1 X138.175 Y94.642 E.01672
G1 X141.464 Y97.93 E.14582
G1 X140.931 Y97.93 E.01672
G1 X137.642 Y94.642 E.14582
G1 X137.109 Y94.642 E.01672
G1 X140.397 Y97.93 E.14582
