; generated by PrusaSlicer 2.2.0+win64 on 2021-10-01 at 09:36:29 UTC

; 

; external perimeters extrusion width = 0.45mm
; perimeters extrusion width = 0.45mm
; infill extrusion width = 0.45mm
; solid infill extrusion width = 0.45mm
; top infill extrusion width = 0.40mm
; first layer extrusion width = 0.42mm

M73 P0 R247
M201 X9000 Y9000 Z500 E10000 ; sets maximum accelerations, mm/sec^2
M203 X500 Y500 Z12 E120 ; sets maximum feedrates, mm/sec
M204 P2000 R1500 T2000 ; sets acceleration (P, T) and retract acceleration (R), mm/sec^2
M205 X10.00 Y10.00 Z0.20 E2.50 ; sets the jerk limits, mm/sec
M205 S0 T0 ; sets the minimum extruding and travel feed rate, mm/sec
M107
M862.3 P "MK2S" ; printer model check
M862.1 P0.4 ; nozzle diameter check
M115 U3.2.3 ; tell printer latest fw version
G90 ; use absolute coordinates
M83 ; extruder relative mode
M204 S2000 T1500 ; MK2 firmware only supports the old M204 format
M104 S255 ; set extruder temp
M140 S100 ; set bed temp
M190 S100 ; wait for bed temp
M109 S255 ; wait for extruder temp
G28 W ; home all without mesh bed level
G80 ; mesh bed leveling
G1 Y-3.0 F1000.0 ; go outside print area
G92 E0.0
G1 X60.0 E9.0  F1000.0 ; intro line
M73 P0 R247
G1 X100.0 E12.5 F1000.0 ; intro line
G92 E0.0
G21 ; set units to millimeters
G90 ; use absolute coordinates
M83 ; use relative distances for extrusion
M900 K0.04 ; Filament gcode LA 1.5
M900 K20 ; Filament gcode LA 1.0
;BEFORE_LAYER_CHANGE
G92 E0.0
;0.2


G1 E-0.80000 F2100.00000
G1 Z0.400 F10800.000
;AFTER_LAYER_CHANGE
;0.2
G1 X99.448 Y77.822
G1 Z0.200
G1 E0.80000 F2100.00000
M204 S1000
G1 F1200.000
G1 X100.365 Y77.623 E0.02942
G1 X150.404 Y77.623 E1.56894
G1 X151.285 Y77.794 E0.02813
G1 X152.040 Y78.279 E0.02813
G1 X152.561 Y79.009 E0.02813
G1 X152.774 Y79.881 E0.02813
G1 X152.777 Y110.050 E0.94592
G1 X152.598 Y110.906 E0.02743
G1 X152.119 Y111.642 E0.02755
G1 X151.735 Y111.967 E0.01574
G1 X151.293 Y112.203 E0.01574
G1 X101.237 Y132.225 E1.69037
G1 X100.588 Y132.370 E0.02083
G1 X99.925 Y132.329 E0.02083
G1 X99.299 Y132.107 E0.02083
G1 X98.759 Y131.720 E0.02083
G1 X98.215 Y130.937 E0.02989
G1 X98.023 Y130.003 E0.02989
G1 X98.023 Y79.970 E1.56876
G1 X98.199 Y79.101 E0.02778
G1 X98.681 Y78.358 E0.02778
G1 X99.398 Y77.856 E0.02743
; printing object Kindle-Ablage-Leon.stl id:0 copy 0
G1 F8640.000
G1 X100.365 Y77.623 E-0.22953
G1 X102.662 Y77.623 E-0.53047
G1 E-0.04000 F2100.00000
G1 Z0.600 F10800.000
G1 X101.190 Y80.790
G1 Z0.200
G1 E0.80000 F2100.00000
G1 F1200.000
G1 X149.610 Y80.790 E1.51818
G1 X149.610 Y109.465 E0.89909
G1 X101.190 Y128.833 E1.63512
G1 X101.190 Y80.850 E1.50448
G1 X101.055 Y80.414 F10800.000
G1 X100.810 Y80.410
G1 F1200.000
G1 X149.990 Y80.410 E1.54200
G1 X149.990 Y109.722 E0.91907
G1 X100.810 Y129.394 E1.66079
G1 X100.810 Y80.470 E1.53399
G1 X101.204 Y80.481 F10800.000
; stop printing object Kindle-Ablage-Leon.stl id:0 copy 0
;BEFORE_LAYER_CHANGE
G92 E0.0
;0.4


G1 F8640.000
G1 X104.101 Y80.466 E-0.76000
G1 E-0.04000 F2100.00000
G1 Z0.600 F10800.000
;AFTER_LAYER_CHANGE
;0.4
M140 S110 ; set bed temperature
G1 X99.448 Y77.822
G1 Z0.400
G1 E0.80000 F2100.00000
G1 F2250
G1 X100.365 Y77.623 E0.02942
G1 X150.404 Y77.623 E1.56894
G1 X151.285 Y77.794 E0.02813
G1 X152.040 Y78.279 E0.02813
G1 X152.561 Y79.009 E0.02813
G1 X152.774 Y79.881 E0.02813
G1 X152.777 Y110.050 E0.94592
G1 X152.598 Y110.906 E0.02743
G1 X152.119 Y111.642 E0.02755
G1 X151.735 Y111.967 E0.01574
G1 X151.293 Y112.203 E0.01574
G1 X101.237 Y132.225 E1.69037
G1 X100.588 Y132.370 E0.02083
G1 X99.925 Y132.329 E0.02083
G1 X99.299 Y132.107 E0.02083
G1 X98.759 Y131.720 E0.02083
G1 X98.215 Y130.937 E0.02989
G1 X98.023 Y130.003 E0.02989
G1 X98.023 Y79.970 E1.56876
G1 X98.199 Y79.101 E0.02778
G1 X98.681 Y78.358 E0.02778
G1 X99.398 Y77.856 E0.02743
; printing object Kindle-Ablage-Leon.stl id:0 copy 0
G1 F8640.000
G1 X100.365 Y77.623 E-0.22953
G1 X102.662 Y77.623 E-0.53047
G1 E-0.04000 F2100.00000
G1 Z0.800 F10800.000
G1 X101.375 Y80.975
G1 Z0.400
G1 E0.80000 F2100.00000
M204 S800
G1 F2250
G1 X149.425 Y80.975 E1.62644
G1 X149.425 Y109.340 E0.96012
G1 X101.375 Y128.560 E1.75172
G1 X101.375 Y81.035 E1.60866
M204 S1000
G1 X101.239 Y80.599 F10800.000
G1 F8640.000
G1 X104.666 Y81.031 E-0.76000
G1 E-0.04000 F2100.00000
G1 Z0.800 F10800.000
G1 X100.625 Y80.225
G1 Z0.400
G1 E0.80000 F2100.00000
M204 S800
G1 F2250
G1 X150.175 Y80.225 E1.67721
G1 X150.175 Y109.848 E1.00269
G1 X100.625 Y129.668 E1.80641
G1 X100.625 Y80.285 E1.67154
M204 S1000
G1 X101.019 Y80.296 F10800.000
G1 X101.029 Y80.629
G1 F2250
G1 X101.171 Y80.600 E0.00414
G1 X149.629 Y80.600 E1.38171
G1 X149.771 Y80.629 E0.00414
G1 X149.800 Y80.771 E0.00414
G1 X149.800 Y109.478 E0.81853
G1 X149.784 Y109.583 E0.00303
G1 X149.692 Y109.637 E0.00303
G1 X101.235 Y129.020 E1.48814
G1
G1 X101.142 Y129.031 E0.00306
G1
G1 X101.048 Y129.042 E0.00344
G1 X101.024 Y128.952 E0.00344
G1
G1 X101.000 Y128.861 E0.00268
G1 X101.000 Y80.771 E1.37122
G1
G1 X101.015 Y80.700 E0.00225
G1
G1 X101.017 Y80.688 E0.00042
; stop printing object Kindle-Ablage-Leon.stl id:0 copy 0
;BEFORE_LAYER_CHANGE
G92 E0.0
;0.6


G1 F8640.000
G1 X101.171 Y80.600 E-0.04102
G1 X104.285 Y80.600 E-0.71898
G1 E-0.04000 F2100.00000
G1 Z0.800 F10800.000
;AFTER_LAYER_CHANGE
;0.6
G1 X99.448 Y77.822
G1 Z0.600
G1 E0.80000 F2100.00000
G1 F2251
G1 X100.365 Y77.623 E0.02942
G1 X150.404 Y77.623 E1.56894
G1 X151.285 Y77.794 E0.02813
G1 X152.040 Y78.279 E0.02813
G1 X152.561 Y79.009 E0.02813
G1 X152.774 Y79.881 E0.02813
G1 X152.777 Y110.050 E0.94592
G1 X152.598 Y110.906 E0.02743
G1 X152.119 Y111.642 E0.02755
G1 X151.735 Y111.967 E0.01574
G1 X151.293 Y112.203 E0.01574
G1 X101.237 Y132.225 E1.69037
G1 X100.588 Y132.370 E0.02083
G1 X99.925 Y132.329 E0.02083
G1 X99.299 Y132.107 E0.02083
G1 X98.759 Y131.720 E0.02083
G1 X98.215 Y130.937 E0.02989
G1 X98.023 Y130.003 E0.02989
G1 X98.023 Y79.970 E1.56876
G1 X98.199 Y79.101 E0.02778
G1 X98.681 Y78.358 E0.02778
G1 X99.398 Y77.856 E0.02743
; printing object Kindle-Ablage-Leon.stl id:0 copy 0
G1 F8640.000
G1 X100.365 Y77.623 E-0.22953
G1 X102.662 Y77.623 E-0.53047
G1 E-0.04000 F2100.00000
G1 Z1.000 F10800.000
G1 X101.375 Y80.975
G1 Z0.600
G1 E0.80000 F2100.00000
M204 S800
G1 F2251
G1 X149.425 Y80.975 E1.62644
G1 X149.425 Y109.340 E0.96012
M73 P0 R246
G1 X101.375 Y128.560 E1.75172
G1 X101.375 Y81.035 E1.60866
M204 S1000
G1 X101.239 Y80.599 F10800.000
G1 F8640.000
G1 X104.666 Y81.031 E-0.76000
G1 E-0.04000 F2100.00000
G1 Z1.000 F10800.000
G1 X100.625 Y80.225
G1 Z0.600
G1 E0.80000 F2100.00000
M204 S800
G1 F2251
G1 X150.175 Y80.225 E1.67721
G1 X150.175 Y109.848 E1.00269
G1 X100.625 Y129.668 E1.80641
G1 X100.625 Y80.285 E1.67154
M204 S1000
G1 X101.019 Y80.296 F10800.000
G1 X101.029 Y80.629
G1 F2251
G1 X101.171 Y80.600 E0.00414
G1 X149.629 Y80.600 E1.38171
G1 X149.771 Y80.629 E0.00414
G1 X149.800 Y80.771 E0.00414
G1 X149.800 Y109.478 E0.81853
G1 X149.784 Y109.583 E0.00303
G1 X149.692 Y109.637 E0.00303
G1 X101.235 Y129.020 E1.48814
G1
G1 X101.142 Y129.031 E0.00306
G1
G1 X101.048 Y129.042 E0.00344
G1 X101.024 Y128.952 E0.00344
G1
G1 X101.000 Y128.861 E0.00268
G1 X101.000 Y80.771 E1.37122
G1
G1 X101.015 Y80.700 E0.00225
G1
G1 X101.017 Y80.688 E0.00042
; stop printing object Kindle-Ablage-Leon.stl id:0 copy 0
;BEFORE_LAYER_CHANGE
G92 E0.0
;0.8


G1 F8640.000
G1 X101.171 Y80.600 E-0.04102
G1 X104.285 Y80.600 E-0.71898
G1 E-0.04000 F2100.00000
G1 Z1.000 F10800.000
;AFTER_LAYER_CHANGE
;0.8
; printing object Kindle-Ablage-Leon.stl id:0 copy 0
G1 X101.375 Y80.975
G1 Z0.800
G1 E0.80000 F2100.00000
M204 S800
G1 F1638
G1 X149.425 Y80.975 E1.62644
G1 X149.425 Y109.340 E0.96012
G1 X101.375 Y128.560 E1.75172
G1 X101.375 Y81.035 E1.60866
M204 S1000
G1 X101.239 Y80.599 F10800.000
G1 F8640.000
G1 X104.666 Y81.031 E-0.76000
G1 E-0.04000 F2100.00000
G1 Z1.200 F10800.000
G1 X100.625 Y80.225
G1 Z0.800
G1 E0.80000 F2100.00000
M204 S800
G1 F1638
G1 X150.175 Y80.225 E1.67721
G1 X150.175 Y109.848 E1.00269
G1 X100.625 Y129.668 E1.80641
G1 X100.625 Y80.285 E1.67154
M204 S1000
G1 X101.019 Y80.296 F10800.000
G1 X101.029 Y80.629
G1 F1638
G1 X101.171 Y80.600 E0.00414
G1 X149.629 Y80.600 E1.38171
G1 X149.771 Y80.629 E0.00414
G1 X149.800 Y80.771 E0.00414
G1 X149.800 Y109.478 E0.81853
G1 X149.784 Y109.583 E0.00303
G1 X149.692 Y109.637 E0.00303
G1 X101.235 Y129.020 E1.48814
G1
G1 X101.142 Y129.031 E0.00306
G1
G1 X101.048 Y129.042 E0.00344
G1 X101.024 Y128.952 E0.00344
G1
G1 X101.000 Y128.861 E0.00268
G1 X101.000 Y80.771 E1.37122
G1
G1 X101.015 Y80.700 E0.00225
G1
G1 X101.017 Y80.688 E0.00042
; stop printing object Kindle-Ablage-Leon.stl id:0 copy 0
M106 S38.25
;BEFORE_LAYER_CHANGE
G92 E0.0
;1


G1 F8640.000
G1 X101.171 Y80.600 E-0.04102
G1 X104.285 Y80.600 E-0.71898
G1 E-0.04000 F2100.00000
G1 Z1.200 F10800.000
;AFTER_LAYER_CHANGE
;1
; printing object Kindle-Ablage-Leon.stl id:0 copy 0
G1 X101.375 Y80.975
G1 Z1.000
G1 E0.80000 F2100.00000
M204 S800
G1 F1638
G1 X149.425 Y80.975 E1.62644
G1 X149.425 Y109.340 E0.96012
G1 X101.375 Y128.560 E1.75172
G1 X101.375 Y81.035 E1.60866
M204 S1000
G1 X101.239 Y80.599 F10800.000
G1 F8640.000
G1 X104.666 Y81.031 E-0.76000
G1 E-0.04000 F2100.00000
G1 Z1.400 F10800.000
G1 X100.625 Y80.225
G1 Z1.000
G1 E0.80000 F2100.00000
M204 S800
G1 F1638
G1 X150.175 Y80.225 E1.67721
G1 X150.175 Y109.848 E1.00269
G1 X100.625 Y129.668 E1.80641
G1 X100.625 Y80.285 E1.67154
M204 S1000
G1 X101.019 Y80.296 F10800.000
G1 X101.029 Y80.629
G1 F1638
G1 X101.171 Y80.600 E0.00414
G1 X149.629 Y80.600 E1.38171
G1 X149.771 Y80.629 E0.00414
G1 X149.800 Y80.771 E0.00414
G1 X149.800 Y109.478 E0.81853
G1 X149.784 Y109.583 E0.00303
G1 X149.692 Y109.637 E0.00303
G1 X101.235 Y129.020 E1.48814
G1
G1 X101.142 Y129.031 E0.00306
G1
G1 X101.048 Y129.042 E0.00344
G1 X101.024 Y128.952 E0.00344
G1
G1 X101.000 Y128.861 E0.00268
G1 X101.000 Y80.771 E1.37122
G1
G1 X101.015 Y80.700 E0.00225
G1
G1 X101.017 Y80.688 E0.00042
; stop printing object Kindle-Ablage-Leon.stl id:0 copy 0
;BEFORE_LAYER_CHANGE
G92 E0.0
;1.2


G1 F8640.000
G1 X101.171 Y80.600 E-0.04102
G1 X104.285 Y80.600 E-0.71898
G1 E-0.04000 F2100.00000
G1 Z1.400 F10800.000
;AFTER_LAYER_CHANGE
;1.2
; printing object Kindle-Ablage-Leon.stl id:0 copy 0
G1 X101.375 Y80.975
G1 Z1.200
G1 E0.80000 F2100.00000
M204 S800
G1 F1638
G1 X149.425 Y80.975 E1.62644
G1 X149.425 Y109.340 E0.96012
G1 X101.375 Y128.560 E1.75172
G1 X101.375 Y81.035 E1.60866
M73 P0 R245
M204 S1000
G1 X101.239 Y80.599 F10800.000
G1 F8640.000
G1 X104.666 Y81.031 E-0.76000
G1 E-0.04000 F2100.00000
G1 Z1.600 F10800.000
G1 X100.625 Y80.225
G1 Z1.200
G1 E0.80000 F2100.00000
M204 S800
G1 F1638
G1 X150.175 Y80.225 E1.67721
G1 X150.175 Y109.848 E1.00269
G1 X100.625 Y129.668 E1.80641
G1 X100.625 Y80.285 E1.67154
M204 S1000
G1 X101.019 Y80.296 F10800.000
G1 X101.029 Y80.629
G1 F1638
G1 X101.171 Y80.600 E0.00414
G1 X149.629 Y80.600 E1.38171
G1 X149.771 Y80.629 E0.00414
G1 X149.800 Y80.771 E0.00414
G1 X149.800 Y109.478 E0.81853
G1 X149.784 Y109.583 E0.00303
G1 X149.692 Y109.637 E0.00303
G1 X101.235 Y129.020 E1.48814
G1
G1 X101.142 Y129.031 E0.00306
G1
G1 X101.048 Y129.042 E0.00344
G1 X101.024 Y128.952 E0.00344
G1
G1 X101.000 Y128.861 E0.00268
G1 X101.000 Y80.771 E1.37122
G1
G1 X101.015 Y80.700 E0.00225
G1
G1 X101.017 Y80.688 E0.00042
; stop printing object Kindle-Ablage-Leon.stl id:0 copy 0
;BEFORE_LAYER_CHANGE
G92 E0.0
;1.4


G1 F8640.000
G1 X101.171 Y80.600 E-0.04102
G1 X104.285 Y80.600 E-0.71898
G1 E-0.04000 F2100.00000
G1 Z1.600 F10800.000
;AFTER_LAYER_CHANGE
;1.4
; printing object Kindle-Ablage-Leon.stl id:0 copy 0
G1 X101.375 Y80.975
G1 Z1.400
G1 E0.80000 F2100.00000
M204 S800
G1 F1638
G1 X149.425 Y80.975 E1.62644
G1 X149.425 Y109.340 E0.96012
G1 X101.375 Y128.560 E1.75172
G1 X101.375 Y81.035 E1.60866
M204 S1000
G1 X101.239 Y80.599 F10800.000
G1 F8640.000
G1 X104.666 Y81.031 E-0.76000
G1 E-0.04000 F2100.00000
G1 Z1.800 F10800.000
G1 X100.625 Y80.225
G1 Z1.400
G1 E0.80000 F2100.00000
M204 S800
G1 F1638
G1 X150.175 Y80.225 E1.67721
G1 X150.175 Y109.848 E1.00269
G1 X100.625 Y129.668 E1.80641
G1 X100.625 Y80.285 E1.67154
M204 S1000
G1 X101.019 Y80.296 F10800.000
G1 X101.029 Y80.629
G1 F1638
G1 X101.171 Y80.600 E0.00414
G1 X149.629 Y80.600 E1.38171
G1 X149.771 Y80.629 E0.00414
G1 X149.800 Y80.771 E0.00414
G1 X149.800 Y109.478 E0.81853
G1 X149.784 Y109.583 E0.00303
G1 X149.692 Y109.637 E0.00303
G1 X101.235 Y129.020 E1.48814
G1
G1 X101.142 Y129.031 E0.00306
G1
G1 X101.048 Y129.042 E0.00344
G1 X101.024 Y128.952 E0.00344
G1
G1 X101.000 Y128.861 E0.00268
G1 X101.000 Y80.771 E1.37122
G1
G1 X101.015 Y80.700 E0.00225
G1
G1 X101.017 Y80.688 E0.00042
; stop printing object Kindle-Ablage-Leon.stl id:0 copy 0
;BEFORE_LAYER_CHANGE
G92 E0.0
;1.6


G1 F8640.000
G1 X101.171 Y80.600 E-0.04102
G1 X104.285 Y80.600 E-0.71898
G1 E-0.04000 F2100.00000
G1 Z1.800 F10800.000
;AFTER_LAYER_CHANGE
;1.6
; printing object Kindle-Ablage-Leon.stl id:0 copy 0
G1 X101.375 Y80.975
G1 Z1.600
G1 E0.80000 F2100.00000
M204 S800
G1 F1638
G1 X149.425 Y80.975 E1.62644
G1 X149.425 Y109.340 E0.96012
G1 X101.375 Y128.560 E1.75172
G1 X101.375 Y81.035 E1.60866
M204 S1000
G1 X101.239 Y80.599 F10800.000
G1 F8640.000
G1 X104.666 Y81.031 E-0.76000
G1 E-0.04000 F2100.00000
G1 Z2.000 F10800.000
G1 X100.625 Y80.225
G1 Z1.600
G1 E0.80000 F2100.00000
M204 S800
G1 F1638
G1 X150.175 Y80.225 E1.67721
G1 X150.175 Y109.848 E1.00269
G1 X100.625 Y129.668 E1.80641
G1 X100.625 Y80.285 E1.67154
M204 S1000
G1 X101.019 Y80.296 F10800.000
G1 X101.029 Y80.629
G1 F1638
G1 X101.171 Y80.600 E0.00414
G1 X149.629 Y80.600 E1.38171
G1 X149.771 Y80.629 E0.00414
G1 X149.800 Y80.771 E0.00414
G1 X149.800 Y109.478 E0.81853
G1 X149.784 Y109.583 E0.00303
G1 X149.692 Y109.637 E0.00303
G1 X101.235 Y129.020 E1.48814
G1
G1 X101.142 Y129.031 E0.00306
G1
G1 X101.048 Y129.042 E0.00344
G1 X101.024 Y128.952 E0.00344
G1
G1 X101.000 Y128.861 E0.00268
G1 X101.000 Y80.771 E1.37122
G1
G1 X101.015 Y80.700 E0.00225
G1
G1 X101.017 Y80.688 E0.00042
; stop printing object Kindle-Ablage-Leon.stl id:0 copy 0
;BEFORE_LAYER_CHANGE
G92 E0.0
;1.8


G1 F8640.000
G1 X101.171 Y80.600 E-0.04102
G1 X104.285 Y80.600 E-0.71898
G1 E-0.04000 F2100.00000
G1 Z2.000 F10800.000
;AFTER_LAYER_CHANGE
;1.8
; printing object Kindle-Ablage-Leon.stl id:0 copy 0
G1 X101.375 Y80.975
G1 Z1.800
G1 E0.80000 F2100.00000
M204 S800
G1 F1638
G1 X149.425 Y80.975 E1.62644
G1 X149.425 Y109.340 E0.96012
G1 X101.375 Y128.560 E1.75172
M73 P1 R244
G1 X101.375 Y81.035 E1.60866
M204 S1000
G1 X101.239 Y80.599 F10800.000
G1 F8640.000
G1 X104.666 Y81.031 E-0.76000
G1 E-0.04000 F2100.00000
G1 Z2.200 F10800.000
G1 X100.625 Y80.225
G1 Z1.800
G1 E0.80000 F2100.00000
M204 S800
G1 F1638
G1 X150.175 Y80.225 E1.67721
G1 X150.175 Y109.848 E1.00269
G1 X100.625 Y129.668 E1.80641
G1 X100.625 Y80.285 E1.67154
M204 S1000
G1 X101.019 Y80.296 F10800.000
G1 X101.029 Y80.629
G1 F1638
G1 X101.171 Y80.600 E0.00414
G1 X149.629 Y80.600 E1.38171
G1 X149.771 Y80.629 E0.00414
G1 X149.800 Y80.771 E0.00414
G1 X149.800 Y109.478 E0.81853
G1 X149.784 Y109.583 E0.00303
G1 X149.692 Y109.637 E0.00303
G1 X101.235 Y129.020 E1.48814
G1
G1 X101.142 Y129.031 E0.00306
G1
G1 X101.048 Y129.042 E0.00344
G1 X101.024 Y128.952 E0.00344
G1
G1 X101.000 Y128.861 E0.00268
G1 X101.000 Y80.771 E1.37122
G1
G1 X101.015 Y80.700 E0.00225
G1
G1 X101.017 Y80.688 E0.00042
; stop printing object Kindle-Ablage-Leon.stl id:0 copy 0
;BEFORE_LAYER_CHANGE
G92 E0.0
;2


G1 F8640.000
G1 X101.171 Y80.600 E-0.04102
G1 X104.285 Y80.600 E-0.71898
G1 E-0.04000 F2100.00000
G1 Z2.200 F10800.000
;AFTER_LAYER_CHANGE
;2
; printing object Kindle-Ablage-Leon.stl id:0 copy 0
G1 X101.375 Y80.975
G1 Z2.000
G1 E0.80000 F2100.00000
M204 S800
G1 F1638
G1 X149.425 Y80.975 E1.62644
G1 X149.425 Y109.340 E0.96012
G1 X101.375 Y128.560 E1.75172
G1 X101.375 Y81.035 E1.60866
M204 S1000
G1 X101.239 Y80.599 F10800.000
G1 F8640.000
G1 X104.666 Y81.031 E-0.76000
G1 E-0.04000 F2100.00000
G1 Z2.400 F10800.000
G1 X100.625 Y80.225
G1 Z2.000
G1 E0.80000 F2100.00000
M204 S800
G1 F1638
G1 X150.175 Y80.225 E1.67721
G1 X150.175 Y109.848 E1.00269
G1 X100.625 Y129.668 E1.80641
G1 X100.625 Y80.285 E1.67154
M204 S1000
