; generated by Slic3r 1.33.8-prusa3d-win64 on 2017-05-04 at 19:12:48

; external perimeters extrusion width = 0.45mm
; perimeters extrusion width = 0.45mm
; infill extrusion width = 0.45mm
; solid infill extrusion width = 0.45mm
; top infill extrusion width = 0.40mm

M107
M115 U3.0.10 ; tell printer latest fw version
M83  ; extruder relative mode
M104 S215 ; set extruder temp
M140 S55 ; set bed temp
M190 S55 ; wait for bed temp
M109 S215 ; wait for extruder temp
G28 W ; home all without mesh bed level
G80 ; mesh bed leveling
G1 Y-3.0 F1000.0 ; go outside pritn area
G1 X60.0 E9.0  F1000.0 ; intro line
G1 X100.0 E12.5  F1000.0 ; intro line
G21 ; set units to millimeters
G90 ; use absolute coordinates
M83 ; use relative distances for extrusion
G1 E-0.80000 F2100.00000
G1 Z0.200 F7200.000
G1 X98.300 Y80.067 F7200.000
G1 E0.80000 F2100.00000
M204 S1000
G1 F2017.868
G1 X98.375 Y79.643 E0.01348
G1 X98.525 Y79.241 E0.01348
G1 X98.746 Y78.872 E0.01348
G1 X99.031 Y78.545 E0.01360
G1 X99.369 Y78.279 E0.01348
G1 X99.748 Y78.077 E0.01348
G1 X100.158 Y77.947 E0.01348
G1 X100.588 Y77.893 E0.01360
G1 X150.147 Y77.892 E1.55388
G1 X150.481 Y77.918 E0.01050
G1 X150.808 Y77.990 E0.01050
G1 X151.121 Y78.108 E0.01050
G1 X151.415 Y78.268 E0.01050
G1 X151.649 Y78.439 E0.00907
G1 X151.862 Y78.640 E0.00919
G1 X152.048 Y78.862 E0.00907
G1 X152.206 Y79.109 E0.00919
G1 X152.332 Y79.369 E0.00907
G1 X152.426 Y79.647 E0.00919
G1 X152.485 Y79.934 E0.00919
G1 X152.508 Y80.222 E0.00907
G1 X152.508 Y113.384 E1.03975
G1 X152.481 Y113.714 E0.01038
G1 X152.409 Y114.037 E0.01038
G1 X152.292 Y114.347 E0.01038
G1 X152.132 Y114.641 E0.01050
G1 X151.889 Y114.957 E0.01253
G1 X151.596 Y115.229 E0.01253
G1 X151.261 Y115.448 E0.01253
G1 X150.895 Y115.608 E0.01253
G1 X101.396 Y131.892 E1.63383
G1 X101.142 Y131.958 E0.00824
G1 X100.886 Y131.996 E0.00812
G1 X100.624 Y132.005 E0.00824
G1 X100.362 Y131.986 E0.00824
G1 X100.107 Y131.938 E0.00812
G1 X99.856 Y131.862 E0.00824
G1 X99.614 Y131.759 E0.00824
G1 X99.386 Y131.630 E0.00824
G1 X99.152 Y131.459 E0.00907
G1 X98.941 Y131.261 E0.00907
G1 X98.755 Y131.039 E0.00907
G1 X98.596 Y130.793 E0.00919
G1 X98.470 Y130.533 E0.00907
G1 X98.376 Y130.255 E0.00919
G1 X98.317 Y129.972 E0.00907
G1 X98.292 Y129.680 E0.00919
G1 X98.296 Y80.126 E1.55371
G1 F5760
G1 X98.375 Y79.643 E-0.16956
G1 F5760
G1 X98.525 Y79.241 E-0.14887
G1 F5760
G1 X98.746 Y78.872 E-0.14887
G1 F5760
G1 X99.031 Y78.545 E-0.15019
G1 F5760
G1 X99.354 Y78.290 E-0.14251
G1 E-0.04000 F2100.00000
G1 X101.121 Y80.722 F7200.000
G1 E0.80000 F2100.00000
G1 F1210.721
G1 X149.679 Y80.721 E1.52249
G1 X149.679 Y113.029 E1.01299
G1 X101.121 Y129.003 E1.60276
G1 X101.121 Y80.782 E1.51196
G1 X100.992 Y80.343 F7200.000
G1 X100.879 Y80.479 F7200.000
G1 F1210.721
G1 X149.921 Y80.479 E1.53769
G1 X149.921 Y113.205 E1.02610
G1 X100.879 Y129.339 E1.61876
G1 X100.879 Y80.539 E1.53008
G1 X101.271 Y80.557 F7200.000
M106 S255
M104 S205 ; set temperature
G1 F5760
G1 X103.073 Y80.536 E-0.76000
G1 E-0.04000 F2100.00000
G1 Z0.400 F7200.000
G1 X101.292 Y128.768 F7200.000
G1 E0.80000 F2100.00000
M204 S800
G1 F1256.259
G1 X101.292 Y80.892 E1.62055
G1 X149.508 Y80.891 E1.63207
G1 X149.508 Y112.906 E1.08365
G1 X101.349 Y128.749 E1.71609
M204 S1000
G1 X100.905 Y128.871 F7200.000
G1 F5760
G1 X101.346 Y126.555 E-0.76000
G1 E-0.04000 F2100.00000
G1 X100.708 Y129.574 F7200.000
G1 E0.80000 F2100.00000
M204 S800
G1 F1256.259
G1 X100.708 Y80.308 E1.66759
G1 X150.092 Y80.308 E1.67157
G1 X150.092 Y113.328 E1.11768
G1 X100.765 Y129.555 E1.75767
M204 S1000
G1 X100.812 Y129.188 F7200.000
G1 F5760
G1 X100.763 Y127.361 E-0.76000
G1 E-0.04000 F2100.00000
G1 X149.739 Y113.137 F7200.000
G1 E0.80000 F2100.00000
G1 F1675.012
G1 X101.116 Y129.133 E0.69652
G1 X101.023 Y129.139 E0.00126
G1 X101.000 Y129.049 E0.00126
G1 X101.000 Y80.688 E0.65806
G1 X101.015 Y80.615 E0.00101
G1 X101.088 Y80.600 E0.00102
G1 X149.712 Y80.600 E0.66163
G1 X149.785 Y80.615 E0.00102
G1 X149.800 Y80.688 E0.00101
G1 X149.791 Y113.108 E0.44116
G1 F5760
G1 X147.707 Y113.794 E-0.76000
G1 E-0.04000 F2100.00000
G1 Z0.600 F7200.000
G1 X101.366 Y80.966 F7200.000
G1 E0.80000 F2100.00000
M204 S800
G1 F1266.489
G1 X149.434 Y80.966 E1.62704
G1 X149.435 Y112.853 E1.07933
G1 X101.366 Y128.665 E1.71285
G1 X101.366 Y81.026 E1.61253
M204 S1000
G1 X101.237 Y80.587 F7200.000
G1 F5760
G1 X103.560 Y81.023 E-0.76000
G1 E-0.04000 F2100.00000
G1 X100.634 Y80.234 F7200.000
G1 E0.80000 F2100.00000
M204 S800
G1 F1266.489
G1 X150.166 Y80.234 E1.67659
G1 X150.165 Y113.381 E1.12199
G1 X100.634 Y129.677 E1.76497
G1 X100.634 Y80.294 E1.67154
M204 S1000
G1 X101.026 Y80.312 F7200.000
G1 F5760
G1 X102.828 Y80.291 E-0.76000
G1 E-0.04000 F2100.00000
G1 X149.783 Y113.105 F7200.000
G1 E0.80000 F2100.00000
G1 F1688.652
G1 X149.689 Y113.154 E0.00249
G1 X101.213 Y129.101 E1.19659
G1 F1688.652
G1 X101.042 Y129.112 E0.00522
G1 X101.021 Y129.029 E0.00261
G1 F1688.652
G1 X101.000 Y128.946 E0.00201
G1 X101.000 Y80.762 E1.12986
G1 F1688.652
G1 X101.028 Y80.628 E0.00386
G1 F1688.652
G1 X101.095 Y80.614 E0.00193
G1 F1688.652
G1 X101.162 Y80.600 E0.00161
G1 X149.638 Y80.600 E1.13687
G1 F1688.652
G1 X149.772 Y80.628 E0.00384
G1 X149.786 Y80.695 E0.00193
G1 F1688.652
G1 X149.800 Y80.763 E0.00161
G1 X149.793 Y113.045 E0.75697
G1 F5760
G1 X149.689 Y113.154 E-0.05188
G1 F5760
G1 X147.747 Y113.792 E-0.70812
G1 E-0.04000 F2100.00000
G1 Z0.800 F7200.000
G1 X101.375 Y80.975 F7200.000
G1 E0.80000 F2100.00000
M204 S800
G1 F1260.292
G1 X149.425 Y80.975 E1.62644
G1 X149.425 Y112.846 E1.07878
G1 X101.375 Y128.653 E1.71219
G1 X101.375 Y81.035 E1.61181
M204 S1000
G1 X101.246 Y80.596 F7200.000
G1 F5760
G1 X103.569 Y81.032 E-0.76000
G1 E-0.04000 F2100.00000
G1 X100.625 Y80.225 F7200.000
G1 E0.80000 F2100.00000
M204 S800
G1 F1260.292
G1 X150.175 Y80.225 E1.67721
G1 X150.175 Y113.388 E1.12254
G1 X100.625 Y129.689 E1.76564
G1 X100.625 Y80.285 E1.67227
M204 S1000
G1 X101.017 Y80.303 F7200.000
G1 F5760
G1 X102.819 Y80.282 E-0.76000
G1 E-0.04000 F2100.00000
G1 X101.135 Y129.103 F7200.000
G1 E0.80000 F2100.00000
G1 F1680.389
G1 X101.045 Y129.109 E0.00293
G1 X101.022 Y129.022 E0.00293
G1 F1680.389
G1 X101.000 Y128.934 E0.00225
G1 X101.000 Y80.771 E1.20144
G1 F1680.389
G1 X101.029 Y80.629 E0.00433
G1 F1680.389
G1 X101.100 Y80.615 E0.00216
G1 F1680.389
G1 X101.171 Y80.600 E0.00181
G1 X149.629 Y80.600 E1.20878
G1 F1680.389
G1 X149.771 Y80.629 E0.00433
G1 X149.785 Y80.700 E0.00216
G1 F1680.389
G1 X149.800 Y80.771 E0.00181
G1 X149.800 Y112.993 E0.80378
G1 X149.782 Y113.104 E0.00281
G1 X149.682 Y113.156 E0.00281
G1 X101.225 Y129.097 E1.27251
G1 F1680.389
G1 X101.195 Y129.099 E0.00098
G1 F5760
G1 X101.045 Y129.109 E-0.05208
G1 F5760
G1 X101.022 Y129.022 E-0.03130
G1 E-0.71662 F2100.00000
G1 Z1.000 F7200.000
G1 Z1.500 F7200.000
G1 X101.375 Y80.975 F7200.000
G1 Z1.000 F7200.000
G1 E0.80000 F2100.00000
M204 S800
G1 F1254.321
G1 X149.425 Y80.975 E1.62644
G1 X149.425 Y112.846 E1.07878
G1 X101.375 Y128.653 E1.71219
G1 X101.375 Y81.035 E1.61181
M204 S1000
G1 X101.246 Y80.596 F7200.000
G1 F5760
G1 X103.569 Y81.032 E-0.76000
G1 E-0.04000 F2100.00000
G1 Z1.500 F7200.000
G1 X100.625 Y80.225 F7200.000
G1 Z1.000 F7200.000
G1 E0.80000 F2100.00000
M204 S800
G1 F1254.321
G1 X150.175 Y80.225 E1.67721
G1 X150.175 Y113.388 E1.12254
G1 X100.625 Y129.689 E1.76564
G1 X100.625 Y80.285 E1.67227
M204 S1000
G1 X101.017 Y80.303 F7200.000
G1 F5760
G1 X102.819 Y80.282 E-0.76000
G1 E-0.04000 F2100.00000
G1 Z1.500 F7200.000
G1 X101.135 Y129.103 F7200.000
G1 Z1.000 F7200.000
G1 E0.80000 F2100.00000
G1 F1672.428
G1 X101.045 Y129.109 E0.00293
G1 X101.022 Y129.022 E0.00293
G1 F1672.428
G1 X101.000 Y128.934 E0.00225
G1 X101.000 Y80.771 E1.20144
G1 F1672.428
G1 X101.029 Y80.629 E0.00433
G1 F1672.428
G1 X101.100 Y80.615 E0.00216
G1 F1672.428
G1 X101.171 Y80.600 E0.00181
G1 X149.629 Y80.600 E1.20878
G1 F1672.428
G1 X149.771 Y80.629 E0.00433
G1 X149.785 Y80.700 E0.00216
G1 F1672.428
G1 X149.800 Y80.771 E0.00181
G1 X149.800 Y112.993 E0.80378
G1 X149.782 Y113.104 E0.00281
G1 X149.682 Y113.156 E0.00281
G1 X101.225 Y129.097 E1.27251
G1 F1672.428
G1 X101.195 Y129.099 E0.00098
G1 F5760
G1 X101.045 Y129.109 E-0.05208
G1 F5760
G1 X101.022 Y129.022 E-0.03130
G1 E-0.71662 F2100.00000
G1 Z1.500 F7200.000
G1 X101.375 Y80.975 F7200.000
G1 Z1.200 F7200.000
G1 E0.80000 F2100.00000
M204 S800
G1 F1254.321
G1 X149.425 Y80.975 E1.62644
G1 X149.425 Y112.846 E1.07878
G1 X101.375 Y128.653 E1.71219
G1 X101.375 Y81.035 E1.61181
M204 S1000
G1 X101.246 Y80.596 F7200.000
G1 F5760
G1 X103.569 Y81.032 E-0.76000
G1 E-0.04000 F2100.00000
G1 Z1.700 F7200.000
G1 X100.625 Y80.225 F7200.000
G1 Z1.200 F7200.000
G1 E0.80000 F2100.00000
M204 S800
G1 F1254.321
G1 X150.175 Y80.225 E1.67721
G1 X150.175 Y113.388 E1.12254
G1 X100.625 Y129.689 E1.76564
G1 X100.625 Y80.285 E1.67227
M204 S1000
G1 X101.017 Y80.303 F7200.000
G1 F5760
G1 X102.819 Y80.282 E-0.76000
G1 E-0.04000 F2100.00000
G1 Z1.700 F7200.000
G1 X101.135 Y129.103 F7200.000
G1 Z1.200 F7200.000
G1 E0.80000 F2100.00000
G1 F1672.428
G1 X101.045 Y129.109 E0.00293
G1 X101.022 Y129.022 E0.00293
G1 F1672.428
G1 X101.000 Y128.934 E0.00225
G1 X101.000 Y80.771 E1.20144
G1 F1672.428
G1 X101.029 Y80.629 E0.00433
G1 F1672.428
G1 X101.100 Y80.615 E0.00216
G1 F1672.428
G1 X101.171 Y80.600 E0.00181
G1 X149.629 Y80.600 E1.20878
G1 F1672.428
G1 X149.771 Y80.629 E0.00433
G1 X149.785 Y80.700 E0.00216
G1 F1672.428
G1 X149.800 Y80.771 E0.00181
G1 X149.800 Y112.993 E0.80378
G1 X149.782 Y113.104 E0.00281
G1 X149.682 Y113.156 E0.00281
G1 X101.225 Y129.097 E1.27251
G1 F1672.428
G1 X101.195 Y129.099 E0.00098
G1 F5760
G1 X101.045 Y129.109 E-0.05208
G1 F5760
G1 X101.022 Y129.022 E-0.03130
G1 E-0.71662 F2100.00000
G1 Z1.700 F7200.000
G1 X101.375 Y80.975 F7200.000
G1 Z1.400 F7200.000
G1 E0.80000 F2100.00000
M204 S800
G1 F1254.321
G1 X149.425 Y80.975 E1.62644
G1 X149.425 Y112.846 E1.07878
G1 X101.375 Y128.653 E1.71219
G1 X101.375 Y81.035 E1.61181
M204 S1000
G1 X101.246 Y80.596 F7200.000
G1 F5760
G1 X103.569 Y81.032 E-0.76000
G1 E-0.04000 F2100.00000
G1 Z1.900 F7200.000
G1 X100.625 Y80.225 F7200.000
G1 Z1.400 F7200.000
G1 E0.80000 F2100.00000
M204 S800
G1 F1254.321
G1 X150.175 Y80.225 E1.67721
G1 X150.175 Y113.388 E1.12254
G1 X100.625 Y129.689 E1.76564
G1 X100.625 Y80.285 E1.67227
M204 S1000
G1 X101.017 Y80.303 F7200.000
G1 F5760
G1 X102.819 Y80.282 E-0.76000
G1 E-0.04000 F2100.00000
G1 Z1.900 F7200.000
G1 X101.135 Y129.103 F7200.000
G1 Z1.400 F7200.000
G1 E0.80000 F2100.00000
G1 F1672.428
G1 X101.045 Y129.109 E0.00293
G1 X101.022 Y129.022 E0.00293
G1 F1672.428
G1 X101.000 Y128.934 E0.00225
G1 X101.000 Y80.771 E1.20144
G1 F1672.428
G1 X101.029 Y80.629 E0.00433
G1 F1672.428
G1 X101.100 Y80.615 E0.00216
G1 F1672.428
G1 X101.171 Y80.600 E0.00181
G1 X149.629 Y80.600 E1.20878
G1 F1672.428
G1 X149.771 Y80.629 E0.00433
G1 X149.785 Y80.700 E0.00216
G1 F1672.428
G1 X149.800 Y80.771 E0.00181
G1 X149.800 Y112.993 E0.80378
G1 X149.782 Y113.104 E0.00281
G1 X149.682 Y113.156 E0.00281
G1 X101.225 Y129.097 E1.27251
G1 F1672.428
G1 X101.195 Y129.099 E0.00098
G1 F5760
G1 X101.045 Y129.109 E-0.05208
G1 F5760
G1 X101.022 Y129.022 E-0.03130
G1 E-0.71662 F2100.00000
G1 Z1.900 F7200.000
G1 X101.375 Y80.975 F7200.000
G1 Z1.600 F7200.000
G1 E0.80000 F2100.00000
M204 S800
G1 F1254.321
G1 X149.425 Y80.975 E1.62644
G1 X149.425 Y112.846 E1.07878
G1 X101.375 Y128.653 E1.71219
G1 X101.375 Y81.035 E1.61181
M204 S1000
G1 X101.246 Y80.596 F7200.000
G1 F5760
G1 X103.569 Y81.032 E-0.76000
G1 E-0.04000 F2100.00000
G1 Z2.100 F7200.000
G1 X100.625 Y80.225 F7200.000
G1 Z1.600 F7200.000
G1 E0.80000 F2100.00000
M204 S800
G1 F1254.321
G1 X150.175 Y80.225 E1.67721
G1 X150.175 Y113.388 E1.12254
G1 X100.625 Y129.689 E1.76564
G1 X100.625 Y80.285 E1.67227
M204 S1000
G1 X101.017 Y80.303 F7200.000
G1 F5760
G1 X102.819 Y80.282 E-0.76000
G1 E-0.04000 F2100.00000
G1 Z2.100 F7200.000
G1 X101.135 Y129.103 F7200.000
G1 Z1.600 F7200.000
G1 E0.80000 F2100.00000
G1 F1672.428
G1 X101.045 Y129.109 E0.00293
G1 X101.022 Y129.022 E0.00293
G1 F1672.428
G1 X101.000 Y128.934 E0.00225
G1 X101.000 Y80.771 E1.20144
G1 F1672.428
G1 X101.029 Y80.629 E0.00433
G1 F1672.428
G1 X101.100 Y80.615 E0.00216
G1 F1672.428
G1 X101.171 Y80.600 E0.00181
G1 X149.629 Y80.600 E1.20878
G1 F1672.428
G1 X149.771 Y80.629 E0.00433
G1 X149.785 Y80.700 E0.00216
G1 F1672.428
G1 X149.800 Y80.771 E0.00181
G1 X149.800 Y112.993 E0.80378
G1 X149.782 Y113.104 E0.00281
G1 X149.682 Y113.156 E0.00281
G1 X101.225 Y129.097 E1.27251
G1 F1672.428
G1 X101.195 Y129.099 E0.00098
G1 F5760
G1 X101.045 Y129.109 E-0.05208
G1 F5760
G1 X101.022 Y129.022 E-0.03130
G1 E-0.71662 F2100.00000
G1 Z2.100 F7200.000
G1 X101.375 Y80.975 F7200.000
G1 Z1.800 F7200.000
G1 E0.80000 F2100.00000
M204 S800
G1 F1254.321
G1 X149.425 Y80.975 E1.62644
G1 X149.425 Y112.846 E1.07878
G1 X101.375 Y128.653 E1.71219
G1 X101.375 Y81.035 E1.61181
M204 S1000
G1 X101.246 Y80.596 F7200.000
G1 F5760
G1 X103.569 Y81.032 E-0.76000
G1 E-0.04000 F2100.00000
G1 Z2.300 F7200.000
G1 X100.625 Y80.225 F7200.000
G1 Z1.800 F7200.000
G1 E0.80000 F2100.00000
M204 S800
G1 F1254.321
G1 X150.175 Y80.225 E1.67721
G1 X150.175 Y113.388 E1.12254
G1 X100.625 Y129.689 E1.76564
G1 X100.625 Y80.285 E1.67227
M204 S1000
G1 X101.017 Y80.303 F7200.000
G1 F5760
G1 X102.819 Y80.282 E-0.76000
G1 E-0.04000 F2100.00000
G1 Z2.300 F7200.000
G1 X101.135 Y129.103 F7200.000
G1 Z1.800 F7200.000
G1 E0.80000 F2100.00000
G1 F1672.428
G1 X101.045 Y129.109 E0.00293
G1 X101.022 Y129.022 E0.00293
G1 F1672.428
G1 X101.000 Y128.934 E0.00225
G1 X101.000 Y80.771 E1.20144
G1 F1672.428
G1 X101.029 Y80.629 E0.00433
G1 F1672.428
G1 X101.100 Y80.615 E0.00216
G1 F1672.428
G1 X101.171 Y80.600 E0.00181
G1 X149.629 Y80.600 E1.20878
G1 F1672.428
G1 X149.771 Y80.629 E0.00433
G1 X149.785 Y80.700 E0.00216
G1 F1672.428
G1 X149.800 Y80.771 E0.00181
G1 X149.800 Y112.993 E0.80378
G1 X149.782 Y113.104 E0.00281
G1 X149.682 Y113.156 E0.00281
G1 X101.225 Y129.097 E1.27251
G1 F1672.428
G1 X101.195 Y129.099 E0.00098
G1 F5760
G1 X101.045 Y129.109 E-0.05208
G1 F5760
G1 X101.022 Y129.022 E-0.03130
G1 E-0.71662 F2100.00000
G1 Z2.300 F7200.000
G1 X101.375 Y80.975 F7200.000
G1 Z2.000 F7200.000
G1 E0.80000 F2100.00000
M204 S800
G1 F1254.321
G1 X149.425 Y80.975 E1.62644
G1 X149.425 Y112.846 E1.07878
G1 X101.375 Y128.653 E1.71219
G1 X101.375 Y81.035 E1.61181
M204 S1000
G1 X101.246 Y80.596 F7200.000
G1 F5760
G1 X103.569 Y81.032 E-0.76000
G1 E-0.04000 F2100.00000
G1 Z2.500 F7200.000
G1 X100.625 Y80.225 F7200.000
G1 Z2.000 F7200.000
G1 E0.80000 F2100.00000
M204 S800
G1 F1254.321
G1 X150.175 Y80.225 E1.67721
G1 X150.175 Y113.388 E1.12254
G1 X100.625 Y129.689 E1.76564
G1 X100.625 Y80.285 E1.67227
M204 S1000
G1 X101.017 Y80.303 F7200.000
G1 F5760
G1 X102.819 Y80.282 E-0.76000
G1 E-0.04000 F2100.00000
G1 Z2.500 F7200.000
G1 X101.135 Y129.103 F7200.000
G1 Z2.000 F7200.000
G1 E0.80000 F2100.00000
G1 F1672.428
G1 X101.045 Y129.109 E0.00293
G1 X101.022 Y129.022 E0.00293
G1 F1672.428
G1 X101.000 Y128.934 E0.00225
G1 X101.000 Y80.771 E1.20144
G1 F1672.428
G1 X101.029 Y80.629 E0.00433
G1 F1672.428
G1 X101.100 Y80.615 E0.00216
G1 F1672.428
G1 X101.171 Y80.600 E0.00181
G1 X149.629 Y80.600 E1.20878
G1 F1672.428
G1 X149.771 Y80.629 E0.00433
G1 X149.785 Y80.700 E0.00216
G1 F1672.428
G1 X149.800 Y80.771 E0.00181
G1 X149.800 Y112.993 E0.80378
G1 X149.782 Y113.104 E0.00281
G1 X149.682 Y113.156 E0.00281
G1 X101.225 Y129.097 E1.27251
G1 F1672.428
G1 X101.195 Y129.099 E0.00098
G1 F5760
G1 X101.045 Y129.109 E-0.05208
G1 F5760
G1 X101.022 Y129.022 E-0.03130
G1 E-0.71662 F2100.00000
G1 Z2.500 F7200.000
G1 X101.375 Y80.975 F7200.000
G1 Z2.200 F7200.000
G1 E0.80000 F2100.00000
M204 S800
G1 F1254.321
G1 X149.425 Y80.975 E1.62644
G1 X149.425 Y112.846 E1.07878
G1 X101.375 Y128.653 E1.71219
G1 X101.375 Y81.035 E1.61181
M204 S1000
G1 X101.246 Y80.596 F7200.000
G1 F5760
G1 X103.569 Y81.032 E-0.76000
G1 E-0.04000 F2100.00000
G1 Z2.700 F7200.000
G1 X100.625 Y80.225 F7200.000
G1 Z2.200 F7200.000
G1 E0.80000 F2100.00000
M204 S800
G1 F1254.321
G1 X150.175 Y80.225 E1.67721
G1 X150.175 Y113.388 E1.12254
