; generated by PrusaSlicer 2.1.1+win64 on 2020-03-02 at 18:09:33 UTC

; 

; external perimeters extrusion width = 0.45mm
; perimeters extrusion width = 0.45mm
; infill extrusion width = 0.45mm
; solid infill extrusion width = 0.45mm
; top infill extrusion width = 0.40mm
; first layer extrusion width = 0.42mm

M73 P0 R23
M201 X9000 Y9000 Z500 E10000 ; sets maximum accelerations, mm/sec^2
M203 X500 Y500 Z12 E120 ; sets maximum feedrates, mm/sec
M204 P2000 R1500 T2000 ; sets acceleration (P, T) and retract acceleration (R), mm/sec^2
M205 X10.00 Y10.00 Z0.20 E2.50 ; sets the jerk limits, mm/sec
M205 S0 T0 ; sets the minimum extruding and travel feed rate, mm/sec
M107
M862.3 P "MK2S" ; printer model check
M862.1 P0.4 ; nozzle diameter check
M115 U3.2.3 ; tell printer latest fw version
G90 ; use absolute coordinates
M83 ; extruder relative mode
M204 S2000 T1500 ; MK2 firmware only supports the old M204 format
M104 S215 ; set extruder temp
M140 S60 ; set bed temp
M190 S60 ; wait for bed temp
M109 S215 ; wait for extruder temp
G28 W ; home all without mesh bed level
G80 ; mesh bed leveling
G1 Y-3.0 F1000.0 ; go outside print area
G92 E0.0
G1 X60.0 E9.0  F1000.0 ; intro line
M73 P0 R23
G1 X100.0 E12.5 F1000.0 ; intro line
G92 E0.0
G21 ; set units to millimeters
G90 ; use absolute coordinates
M83 ; use relative distances for extrusion
M900 K30 ; Filament gcode
;BEFORE_LAYER_CHANGE
G92 E0.0
;0.2


G1 E-0.80000 F2100.00000
G1 Z0.600 F10800.000
;AFTER_LAYER_CHANGE
;0.2
G1 X90.200 Y88.683
G1 Z0.200
G1 E0.80000 F2100.00000
M204 S1000
G1 F1200
G1 X90.797 Y88.282 E0.02255
G1 X91.397 Y88.069 E0.01997
G1 X91.978 Y88.003 E0.01834
G1 X158.017 Y88.002 E2.07060
G1 X158.997 Y88.189 E0.03128
G1 X159.860 Y88.739 E0.03209
G1 X160.239 Y89.186 E0.01837
G1 X160.481 Y89.625 E0.01572
G1 X160.701 Y90.613 E0.03175
G1 X160.700 Y119.415 E0.90306
G1 X160.572 Y120.134 E0.02290
G1 X160.281 Y120.752 E0.02142
G1 X159.795 Y121.322 E0.02350
G1 X159.203 Y121.718 E0.02232
G1 X158.603 Y121.931 E0.01998
G1 X158.022 Y121.997 E0.01834
G1 X91.950 Y121.997 E2.07164
G1 X91.200 Y121.879 E0.02381
G1 X90.568 Y121.592 E0.02176
G1 X89.983 Y121.101 E0.02396
G1 X89.577 Y120.499 E0.02277
G1 X89.365 Y119.902 E0.01987
G1 X89.298 Y119.328 E0.01811
G1 X89.300 Y90.607 E0.90053
G1 X89.424 Y89.880 E0.02313
G1 X89.713 Y89.257 E0.02153
G1 X90.161 Y88.728 E0.02173
G1 F8640
G1 X90.797 Y88.282 E-0.17944
G1 X91.397 Y88.069 E-0.14708
G1 X91.978 Y88.003 E-0.13507
G1 X93.271 Y88.003 E-0.29840
G1 E-0.04000 F2100.00000
G1 Z0.800 F10800.000
G1 X135.124 Y117.116
G1 Z0.200
G1 E0.80000 F2100.00000
G1 F1200
G1 X132.413 Y117.116 E0.08501
G1 X132.384 Y117.037 E0.00264
G1 X131.957 Y117.156 E0.01388
G1 X131.569 Y117.188 E0.01222
G1 X131.139 Y117.151 E0.01352
G1 X130.814 Y117.052 E0.01067
G1 X130.397 Y116.802 E0.01525
G1 X130.185 Y116.553 E0.01025
G1 X130.028 Y116.293 E0.00953
G1 X129.948 Y116.001 E0.00949
G1 X129.915 Y115.707 E0.00926
G1 X129.957 Y115.350 E0.01128
G1 X130.084 Y115.023 E0.01098
G1 X130.202 Y114.844 E0.00674
G1 X129.836 Y114.794 E0.01160
G1 X129.916 Y114.527 E0.00874
G1 X129.850 Y114.497 E0.00227
G1 X129.801 Y114.772 E0.00875
G1 X129.793 Y117.116 E0.07348
G1 X125.460 Y117.116 E0.13586
G1 X125.450 Y114.402 E0.08508
G1 X125.384 Y114.429 E0.00222
G1 X125.346 Y114.502 E0.00258
G1 X125.319 Y114.753 E0.00792
G1 X125.319 Y117.116 E0.07409
G1 X123.617 Y117.116 E0.05335
G1 X123.606 Y114.403 E0.08505
G1 X123.564 Y114.420 E0.00141
G1 X123.523 Y114.473 E0.00210
G1 X123.473 Y114.771 E0.00947
G1 X123.469 Y117.116 E0.07351
G1 X120.631 Y117.116 E0.08899
G1 X120.175 Y117.193 E0.01451
G1 X119.639 Y117.116 E0.01696
G1 X119.184 Y116.902 E0.01579
G1 X119.281 Y117.116 E0.00737
G1 X117.410 Y117.116 E0.05866
G1 X117.381 Y117.037 E0.00264
G1 X116.954 Y117.156 E0.01388
G1 X116.566 Y117.188 E0.01222
G1 X116.136 Y117.151 E0.01352
G1 X115.811 Y117.052 E0.01067
G1 X115.394 Y116.802 E0.01525
G1 X115.182 Y116.553 E0.01025
G1 X115.026 Y116.293 E0.00953
G1 X114.945 Y116.001 E0.00949
G1 X114.912 Y115.707 E0.00926
G1 X114.954 Y115.350 E0.01128
G1 X115.081 Y115.023 E0.01098
G1 X115.199 Y114.844 E0.00674
G1 X114.833 Y114.794 E0.01160
G1 X115.133 Y113.802 E0.03247
G1 X115.374 Y113.387 E0.01506
G1 X115.705 Y113.089 E0.01397
G1 X116.082 Y112.906 E0.01313
G1 X116.554 Y112.789 E0.01527
G1 X116.862 Y112.764 E0.00968
G1 X117.403 Y112.780 E0.01696
G1 X117.840 Y112.884 E0.01410
G1 X118.150 Y113.031 E0.01074
G1 X118.470 Y113.303 E0.01318
G1 X118.631 Y113.565 E0.00964
G1 X118.799 Y113.333 E0.00898
G1 X119.130 Y113.050 E0.01367
G1 X119.616 Y112.827 E0.01675
G1 X120.135 Y112.756 E0.01645
G1 X120.415 Y112.786 E0.00882
G1 X120.415 Y111.647 E0.03572
G1 X122.114 Y111.647 E0.05326
G1 X122.114 Y112.830 E0.03711
G1 X123.311 Y112.830 E0.03755
G1 X123.534 Y112.774 E0.00721
G1 X123.781 Y112.758 E0.00777
G1 X124.211 Y112.802 E0.01353
G1 X124.641 Y112.981 E0.01459
G1 X124.699 Y113.028 E0.00236
G1 X124.993 Y112.876 E0.01036
G1 X125.302 Y112.803 E0.00997
G1 X125.584 Y112.756 E0.00896
G1 X125.910 Y112.780 E0.01024
G1 X126.333 Y112.900 E0.01379
G1 X126.750 Y113.184 E0.01583
G1 X126.770 Y113.214 E0.00112
G1 X126.770 Y111.647 E0.04915
G1 X128.471 Y111.647 E0.05335
G1 X128.471 Y112.830 E0.03711
G1 X129.426 Y112.830 E0.02996
G1 X129.732 Y112.763 E0.00980
G1 X130.052 Y112.779 E0.01005
G1 X130.304 Y112.835 E0.00809
G1 X130.773 Y113.058 E0.01627
G1 X131.085 Y112.906 E0.01087
G1 X131.557 Y112.789 E0.01527
G1 X131.865 Y112.764 E0.00968
G1 X132.406 Y112.780 E0.01696
G1 X132.843 Y112.884 E0.01410
G1 X133.153 Y113.031 E0.01074
G1 X133.423 Y113.255 E0.01102
G1 X133.423 Y111.647 E0.05044
G1 X135.124 Y111.647 E0.05335
G1 X135.124 Y112.261 E0.01927
G1 X135.164 Y112.207 E0.00212
G1 X135.473 Y111.958 E0.01244
G1 X135.793 Y111.774 E0.01157
G1 X136.018 Y111.700 E0.00741
G1 X136.568 Y111.625 E0.01741
G1 X137.126 Y111.703 E0.01768
G1 X137.643 Y111.942 E0.01786
G1 X137.987 Y112.233 E0.01413
G1 X138.187 Y112.477 E0.00988
G1 X138.241 Y112.576 E0.00355
G1 X138.501 Y112.207 E0.01415
G1 X138.810 Y111.958 E0.01244
G1 X139.130 Y111.774 E0.01157
G1 X139.355 Y111.700 E0.00741
G1 X139.905 Y111.625 E0.01741
G1 X140.463 Y111.703 E0.01768
G1 X140.980 Y111.942 E0.01786
G1 X141.324 Y112.233 E0.01413
G1 X141.524 Y112.477 E0.00988
G1 X141.737 Y112.861 E0.01379
G1 X141.890 Y113.417 E0.01808
G1 X141.950 Y113.952 E0.01688
G1 X141.949 Y114.658 E0.02213
G1 X141.889 Y115.222 E0.01777
G1 X141.747 Y115.801 E0.01871
G1 X141.545 Y116.230 E0.01484
G1 X141.263 Y116.590 E0.01435
G1 X141.007 Y116.824 E0.01089
G1 X140.713 Y116.992 E0.01059
G1 X140.293 Y117.143 E0.01401
G1 X139.839 Y117.191 E0.01431
G1 X139.523 Y117.166 E0.00994
G1 X139.204 Y117.099 E0.01020
G1 X138.907 Y116.959 E0.01031
G1 X138.617 Y116.767 E0.01091
G1 X138.388 Y116.502 E0.01097
G1 X138.211 Y116.224 E0.01035
G1 X137.926 Y116.590 E0.01455
G1 X137.670 Y116.824 E0.01089
G1 X137.376 Y116.992 E0.01059
G1 X136.956 Y117.143 E0.01401
G1 X136.502 Y117.191 E0.01431
G1 X136.186 Y117.166 E0.00994
G1 X135.868 Y117.099 E0.01020
G1 X135.570 Y116.959 E0.01031
G1 X135.280 Y116.767 E0.01091
G1 X135.124 Y116.587 E0.00746
G1 X135.124 Y117.056 E0.01470
G1 F8640
G1 X132.413 Y117.116 E-0.62619
G1 X132.384 Y117.037 E-0.01944
G1 X131.957 Y117.156 E-0.10223
G1 X131.905 Y117.160 E-0.01214
G1 E-0.04000 F2100.00000
G1 Z0.800 F10800.000
G1 X135.034 Y115.348
G1 Z0.200
G1 E0.80000 F2100.00000
G1 F1200
G1 X135.948 Y115.263 E0.02879
G1 X136.069 Y115.685 E0.01374
G1 X136.179 Y115.845 E0.00609
G1 X136.328 Y115.930 E0.00536
G1 X136.509 Y115.956 E0.00576
G1 X136.679 Y115.936 E0.00536
G1 X136.821 Y115.877 E0.00482
G1 X136.951 Y115.776 E0.00518
G1 X137.054 Y115.647 E0.00516
G1 X137.154 Y115.439 E0.00723
G1 X137.254 Y115.047 E0.01269
G1 X137.172 Y115.102 E0.00310
G1 X136.841 Y115.238 E0.01123
G1 X136.480 Y115.284 E0.01139
G1 X136.185 Y115.249 E0.00934
G1 X135.904 Y115.170 E0.00915
G1 X135.653 Y115.021 E0.00915
G1 X135.422 Y114.830 E0.00939
G1 X135.234 Y114.566 E0.01016
G1 X135.095 Y114.290 E0.00969
G1 X135.048 Y114.123 E0.00544
G1 X134.997 Y113.669 E0.01432
G1 X135.025 Y113.344 E0.01023
G1 X135.097 Y113.029 E0.01014
G1 X135.244 Y112.740 E0.01016
G1 X135.440 Y112.469 E0.01049
G1 X135.687 Y112.270 E0.00992
G1 X135.948 Y112.120 E0.00944
G1 X136.108 Y112.068 E0.00529
G1 X136.562 Y112.004 E0.01438
G1 X137.019 Y112.068 E0.01446
G1 X137.439 Y112.263 E0.01452
G1 X137.717 Y112.498 E0.01144
G1 X137.873 Y112.689 E0.00772
G1 X138.048 Y113.005 E0.01132
G1 X138.181 Y113.489 E0.01575
G1 X138.236 Y113.973 E0.01527
G1 X138.235 Y114.638 E0.02084
G1 X138.180 Y115.156 E0.01636
G1 X138.053 Y115.675 E0.01673
G1 X137.885 Y116.031 E0.01233
G1 X137.649 Y116.333 E0.01204
G1 X137.446 Y116.518 E0.00859
G1 X137.218 Y116.648 E0.00825
G1 X136.871 Y116.773 E0.01156
G1 X136.497 Y116.813 E0.01179
G1 X136.240 Y116.792 E0.00808
G1 X135.989 Y116.739 E0.00806
G1 X135.755 Y116.629 E0.00809
G1 X135.531 Y116.481 E0.00841
G1 X135.355 Y116.277 E0.00847
G1 X135.215 Y116.058 E0.00814
G1 X135.130 Y115.813 E0.00812
G1 X135.046 Y115.407 E0.01301
G1 X134.976 Y114.952 F10800.000
G1 F8640
G1 X135.948 Y115.263 E-0.21090
G1 X136.069 Y115.685 E-0.10122
G1 X136.179 Y115.845 E-0.04483
G1 X136.328 Y115.930 E-0.03949
G1 X136.509 Y115.956 E-0.04242
G1 X136.679 Y115.936 E-0.03951
G1 X136.821 Y115.877 E-0.03547
G1 X136.951 Y115.776 E-0.03815
G1 X137.054 Y115.647 E-0.03798
G1 X137.154 Y115.439 E-0.05324
G1 X137.254 Y115.047 E-0.09346
G1 X137.172 Y115.102 E-0.02280
G1 X137.170 Y115.103 E-0.00054
G1 E-0.04000 F2100.00000
G1 Z0.800 F10800.000
G1 X133.800 Y112.024
G1 Z0.200
G1 E0.80000 F2100.00000
G1 F1200
G1 X134.747 Y112.024 E0.02970
G1 X134.747 Y116.739 E0.14783
G1 X133.800 Y116.739 E0.02970
G1 X133.800 Y112.084 E0.14595
G1 X133.774 Y111.625 F10800.000
G1 F8640
G1 X134.747 Y112.024 E-0.21918
G1 X134.747 Y114.366 E-0.54082
G1 E-0.04000 F2100.00000
G1 Z0.800 F10800.000
G1 X133.698 Y116.739
G1 Z0.200
G1 E0.80000 F2100.00000
G1 F1200
G1 X132.675 Y116.739 E0.03208
G1 X132.587 Y116.503 E0.00789
G1 X132.231 Y116.692 E0.01264
G1 X132.064 Y116.743 E0.00546
G1 X131.898 Y116.782 E0.00535
G1 X131.569 Y116.810 E0.01034
G1 X131.211 Y116.779 E0.01126
G1 X130.968 Y116.704 E0.00798
G1 X130.644 Y116.511 E0.01184
G1 X130.493 Y116.332 E0.00733
G1 X130.378 Y116.143 E0.00695
G1 X130.320 Y115.929 E0.00694
G1 X130.295 Y115.708 E0.00698
G1 X130.326 Y115.442 E0.00840
G1 X130.422 Y115.195 E0.00830
G1 X130.574 Y114.978 E0.00831
G1 X130.761 Y114.815 E0.00777
G1 X130.978 Y114.694 E0.00779
G1 X131.243 Y114.605 E0.00878
G1 X130.325 Y114.480 E0.02908
G1 X130.486 Y113.945 E0.01753
G1 X130.667 Y113.633 E0.01129
G1 X130.920 Y113.405 E0.01070
G1 X131.219 Y113.260 E0.01041
G1 X131.612 Y113.163 E0.01268
G1 X131.875 Y113.141 E0.00827
G1 X132.356 Y113.156 E0.01509
G1 X132.718 Y113.241 E0.01165
G1 X132.956 Y113.355 E0.00827
G1 X133.178 Y113.543 E0.00913
G1 X133.310 Y113.758 E0.00791
G1 X133.385 Y113.993 E0.00774
G1 X133.411 Y114.268 E0.00864
G1 X133.417 Y115.683 E0.04438
G1 X133.446 Y116.121 E0.01376
G1 X133.487 Y116.277 E0.00505
G1 X133.673 Y116.684 E0.01404
G1 X133.749 Y117.135 F10800.000
G1 F8640
G1 X132.675 Y116.739 E-0.23081
G1 X132.587 Y116.503 E-0.05807
G1 X132.231 Y116.692 E-0.09308
G1 X132.064 Y116.743 E-0.04022
G1 X131.898 Y116.782 E-0.03940
G1 X131.569 Y116.810 E-0.07616
G1 X131.211 Y116.779 E-0.08293
G1 X130.968 Y116.704 E-0.05877
G1 X130.669 Y116.526 E-0.08055
G1 E-0.04000 F2100.00000
G1 Z0.800 F10800.000
G1 X130.308 Y114.290
G1 Z0.200
G1 E0.80000 F2100.00000
G1 F1200
G1 X129.944 Y114.126 E0.01253
G1 X129.797 Y114.103 E0.00466
G1 X129.683 Y114.128 E0.00366
G1 X129.624 Y114.162 E0.00213
G1 X129.547 Y114.244 E0.00352
G1 X129.496 Y114.353 E0.00376
G1 X129.424 Y114.754 E0.01277
G1 X129.418 Y116.739 E0.06223
G1 X128.471 Y116.739 E0.02968
G1 X128.471 Y113.207 E0.11072
G1 X129.365 Y113.207 E0.02805
G1 X129.365 Y113.280 E0.00228
G1 X129.586 Y113.172 E0.00770
G1 X129.756 Y113.142 E0.00541
G1 X130.001 Y113.154 E0.00771
G1 X130.181 Y113.194 E0.00576
G1 X130.635 Y113.410 E0.01577
G1 X130.329 Y114.233 E0.02755
G1 X130.212 Y114.678 F10800.000
G1 F8640
G1 X129.944 Y114.126 E-0.09238
G1 X129.797 Y114.103 E-0.03429
G1 X129.683 Y114.128 E-0.02695
G1 X129.624 Y114.162 E-0.01568
G1 X129.547 Y114.244 E-0.02596
G1 X129.496 Y114.353 E-0.02772
G1 X129.424 Y114.754 E-0.09408
G1 X129.418 Y116.672 E-0.44293
G1 E-0.04000 F2100.00000
G1 Z0.800 F10800.000
G1 X127.147 Y113.207
G1 Z0.200
G1 E0.80000 F2100.00000
G1 F1200
G1 X128.094 Y113.207 E0.02970
G1 X128.094 Y116.739 E0.11072
G1 X127.147 Y116.739 E0.02970
G1 X127.147 Y113.267 E0.10884
G1 X127.112 Y112.809 F10800.000
G1 X127.147 Y113.050
G1 F1200
G1 X127.147 Y112.024 E0.03218
G1 X128.094 Y112.024 E0.02970
G1 X128.094 Y113.050 E0.03218
G1 X127.207 Y113.050 E0.02782
G1 X126.762 Y113.159 F10800.000
G1 F8640
G1 X127.147 Y112.024 E-0.23741
G1 X128.094 Y112.024 E-0.21874
G1 X128.094 Y113.050 E-0.23701
G1 X127.805 Y113.050 E-0.06683
G1 E-0.04000 F2100.00000
G1 Z0.800 F10800.000
G1 X126.781 Y116.739
G1 Z0.200
G1 E0.80000 F2100.00000
G1 F1200
G1 X125.837 Y116.739 E0.02961
G1 X125.836 Y114.464 E0.07130
G1 X125.815 Y114.270 E0.00614
G1 X125.776 Y114.150 E0.00396
G1 X125.723 Y114.087 E0.00257
G1 X125.603 Y114.029 E0.00420
G1 X125.495 Y114.016 E0.00341
G1 X125.328 Y114.038 E0.00526
G1 X125.180 Y114.109 E0.00517
G1 X125.105 Y114.166 E0.00295
G1 X124.977 Y114.403 E0.00845
G1 X124.942 Y114.732 E0.01037
G1 X124.942 Y116.739 E0.06291
G1 X123.994 Y116.739 E0.02970
G1 X123.994 Y114.516 E0.06968
G1 X123.974 Y114.283 E0.00733
G1 X123.900 Y114.104 E0.00608
G1 X123.867 Y114.075 E0.00138
G1 X123.773 Y114.028 E0.00330
G1 X123.657 Y114.015 E0.00366
G1 X123.497 Y114.037 E0.00503
G1 X123.357 Y114.100 E0.00481
G1 X123.242 Y114.202 E0.00483
G1 X123.167 Y114.339 E0.00490
G1 X123.106 Y114.615 E0.00888
G1 X123.093 Y116.739 E0.06657
G1 X122.146 Y116.739 E0.02969
G1 X122.146 Y113.207 E0.11072
G1 X123.037 Y113.207 E0.02796
G1 X123.037 Y113.358 E0.00471
G1 X123.110 Y113.304 E0.00283
G1 X123.279 Y113.227 E0.00583
G1 X123.593 Y113.148 E0.01014
G1 X123.775 Y113.136 E0.00570
G1 X124.117 Y113.172 E0.01080
G1 X124.446 Y113.308 E0.01116
G1 X124.586 Y113.421 E0.00564
G1 X124.682 Y113.532 E0.00461
G1 X124.947 Y113.312 E0.01082
G1 X125.116 Y113.234 E0.00583
G1 X125.601 Y113.136 E0.01551
G1 X125.844 Y113.153 E0.00764
G1 X126.171 Y113.246 E0.01067
G1 X126.475 Y113.453 E0.01154
G1 X126.624 Y113.682 E0.00854
G1 X126.726 Y113.910 E0.00784
G1 X126.770 Y114.154 E0.00777
G1 X126.781 Y116.679 E0.07916
G1 X126.784 Y117.139 F10800.000
G1 F8640
G1 X125.837 Y116.739 E-0.21848
G1 X125.836 Y114.464 E-0.52510
G1 X125.829 Y114.394 E-0.01642
G1 E-0.04000 F2100.00000
G1 Z0.800 F10800.000
G1 X121.737 Y116.679
G1 Z0.200
G1 E0.80000 F2100.00000
G1 F1200
G1 X121.737 Y116.739 E0.00188
G1 X120.827 Y116.739 E0.02851
G1 X120.827 Y116.625 E0.00355
G1 X120.620 Y116.735 E0.00735
G1 X120.170 Y116.811 E0.01432
G1 X119.749 Y116.751 E0.01334
G1 X119.371 Y116.573 E0.01309
G1 X119.036 Y116.274 E0.01410
G1 X118.808 Y115.910 E0.01345
G1 X118.662 Y115.454 E0.01502
G1 X118.630 Y115.207 E0.00780
G1 X118.629 Y114.747 E0.01444
G1 X118.658 Y114.508 E0.00755
G1 X118.789 Y114.050 E0.01492
G1 X118.889 Y113.851 E0.00700
G1 X119.078 Y113.590 E0.01009
G1 X119.335 Y113.370 E0.01061
G1 X119.722 Y113.193 E0.01335
G1 X120.141 Y113.135 E0.01325
G1 X120.451 Y113.169 E0.00977
G1 X120.792 Y113.310 E0.01159
G1 X120.792 Y112.024 E0.04033
G1 X121.737 Y112.024 E0.02961
G1 X121.737 Y116.619 E0.14407
G1 X121.790 Y116.705 F10800.000
G1 F8640
G1 X121.737 Y116.739 E-0.02771
G1 X120.827 Y116.739 E-0.20995
G1 X120.827 Y116.625 E-0.02613
G1 X120.620 Y116.735 E-0.05415
G1 X120.170 Y116.811 E-0.10542
G1 X119.749 Y116.751 E-0.09822
G1 X119.371 Y116.573 E-0.09638
G1 X119.036 Y116.274 E-0.10381
G1 X118.948 Y116.133 E-0.03824
G1 E-0.04000 F2100.00000
G1 Z0.800 F10800.000
G1 X118.695 Y116.739
G1 Z0.200
G1 E0.80000 F2100.00000
G1 F1200
G1 X117.672 Y116.739 E0.03208
G1 X117.584 Y116.503 E0.00789
G1 X117.228 Y116.692 E0.01264
G1 X117.061 Y116.743 E0.00546
G1 X116.895 Y116.782 E0.00535
G1 X116.566 Y116.810 E0.01034
G1 X116.209 Y116.779 E0.01126
G1 X115.965 Y116.704 E0.00798
G1 X115.641 Y116.511 E0.01184
G1 X115.490 Y116.332 E0.00733
