; generated by PrusaSlicer 2.1.1+win64 on 2020-03-02 at 18:07:41 UTC

; 

; external perimeters extrusion width = 0.45mm
; perimeters extrusion width = 0.45mm
; infill extrusion width = 0.45mm
; solid infill extrusion width = 0.45mm
; top infill extrusion width = 0.40mm
; first layer extrusion width = 0.42mm

M73 P0 R30
M201 X9000 Y9000 Z500 E10000 ; sets maximum accelerations, mm/sec^2
M203 X500 Y500 Z12 E120 ; sets maximum feedrates, mm/sec
M204 P2000 R1500 T2000 ; sets acceleration (P, T) and retract acceleration (R), mm/sec^2
M205 X10.00 Y10.00 Z0.20 E2.50 ; sets the jerk limits, mm/sec
M205 S0 T0 ; sets the minimum extruding and travel feed rate, mm/sec
M107
M862.3 P "MK2S" ; printer model check
M862.1 P0.4 ; nozzle diameter check
M115 U3.2.3 ; tell printer latest fw version
G90 ; use absolute coordinates
M83 ; extruder relative mode
M204 S2000 T1500 ; MK2 firmware only supports the old M204 format
M104 S215 ; set extruder temp
M140 S60 ; set bed temp
M190 S60 ; wait for bed temp
M109 S215 ; wait for extruder temp
G28 W ; home all without mesh bed level
G80 ; mesh bed leveling
G1 Y-3.0 F1000.0 ; go outside print area
G92 E0.0
G1 X60.0 E9.0  F1000.0 ; intro line
M73 P0 R30
G1 X100.0 E12.5 F1000.0 ; intro line
G92 E0.0
G21 ; set units to millimeters
G90 ; use absolute coordinates
M83 ; use relative distances for extrusion
M900 K30 ; Filament gcode
;BEFORE_LAYER_CHANGE
G92 E0.0
;0.2


G1 E-0.80000 F2100.00000
G1 Z0.600 F10800.000
;AFTER_LAYER_CHANGE
;0.2
G1 X99.514 Y116.824
G1 Z0.200
G1 E0.80000 F2100.00000
M204 S1000
G1 F1200
G1 X100.111 Y116.423 E0.02255
G1 X100.711 Y116.210 E0.01997
G1 X101.292 Y116.144 E0.01834
G1 X167.331 Y116.144 E2.07061
G1 X168.311 Y116.331 E0.03128
G1 X169.175 Y116.880 E0.03209
G1 X169.553 Y117.327 E0.01837
G1 X169.795 Y117.766 E0.01572
G1 X170.015 Y118.755 E0.03175
G1 X170.014 Y147.556 E0.90306
G1 X169.886 Y148.275 E0.02290
G1 X169.595 Y148.894 E0.02142
G1 X169.109 Y149.464 E0.02350
G1 X168.518 Y149.860 E0.02232
G1 X167.917 Y150.073 E0.01997
G1 X167.336 Y150.139 E0.01834
G1 X101.264 Y150.139 E2.07164
G1 X100.514 Y150.020 E0.02381
G1 X99.882 Y149.734 E0.02175
G1 X99.297 Y149.243 E0.02396
G1 X98.891 Y148.640 E0.02277
G1 X98.679 Y148.043 E0.01987
G1 X98.612 Y147.470 E0.01811
G1 X98.614 Y118.748 E0.90053
G1 X98.738 Y118.021 E0.02313
G1 X99.027 Y117.398 E0.02153
G1 X99.475 Y116.870 E0.02173
G1 F8640
G1 X100.111 Y116.423 E-0.17943
G1 X100.711 Y116.210 E-0.14709
G1 X101.292 Y116.144 E-0.13507
G1 X102.585 Y116.144 E-0.29841
G1 E-0.04000 F2100.00000
G1 Z0.800 F10800.000
G1 X106.082 Y144.506
G1 Z0.200
G1 E0.80000 F2100.00000
G1 F1200
G1 X106.489 Y144.571 E0.01290
G1 X106.837 Y144.772 E0.01263
G1 X107.076 Y145.057 E0.01166
G1 X107.182 Y145.284 E0.00785
G1 X107.247 Y145.650 E0.01166
G1 X107.178 Y146.042 E0.01248
G1 X106.979 Y146.387 E0.01248
G1 X106.694 Y146.626 E0.01166
G1 X106.467 Y146.732 E0.00785
G1 X106.101 Y146.797 E0.01166
G1 X105.735 Y146.732 E0.01166
G1 X105.509 Y146.627 E0.00780
G1 X105.236 Y146.400 E0.01114
G1 X105.024 Y146.047 E0.01290
G1 X104.955 Y145.650 E0.01263
G1 X105.024 Y145.258 E0.01248
G1 X105.223 Y144.914 E0.01248
G1 X105.508 Y144.675 E0.01166
G1 X105.733 Y144.570 E0.00780
G1 X106.023 Y144.517 E0.00926
G1 X105.848 Y144.932 F10800.000
G1 F1200
G1 X106.086 Y144.888 E0.00759
G1 X106.360 Y144.932 E0.00869
G1 X106.591 Y145.066 E0.00836
G1 X106.756 Y145.262 E0.00802
G1 X106.820 Y145.399 E0.00474
G1 X106.864 Y145.650 E0.00802
G1 X106.818 Y145.911 E0.00831
G1 X106.685 Y146.141 E0.00831
G1 X106.489 Y146.305 E0.00802
G1 X106.352 Y146.369 E0.00474
G1 X106.101 Y146.414 E0.00802
G1 X105.849 Y146.369 E0.00802
G1 X105.712 Y146.306 E0.00472
G1 X105.526 Y146.151 E0.00759
G1 X105.384 Y145.913 E0.00869
G1 X105.337 Y145.650 E0.00836
G1 X105.383 Y145.389 E0.00831
G1 X105.516 Y145.160 E0.00831
G1 X105.712 Y144.995 E0.00802
G1 X105.794 Y144.957 E0.00284
G1 X105.897 Y144.695 F10800.000
G1 F8640
G1 X106.086 Y144.888 E-0.06940
G1 X106.360 Y144.932 E-0.06403
G1 X106.591 Y145.066 E-0.06159
G1 X106.756 Y145.262 E-0.05904
G1 X106.820 Y145.399 E-0.03490
G1 X106.864 Y145.650 E-0.05904
G1 X106.818 Y145.911 E-0.06121
G1 X106.685 Y146.141 E-0.06121
G1 X106.489 Y146.305 E-0.05904
G1 X106.352 Y146.369 E-0.03490
G1 X106.101 Y146.414 E-0.05904
G1 X105.849 Y146.369 E-0.05904
G1 X105.712 Y146.306 E-0.03476
G1 X105.570 Y146.187 E-0.04281
G1 E-0.04000 F2100.00000
G1 Z0.800 F10800.000
G1 X108.524 Y145.258
G1 Z0.200
G1 E0.80000 F2100.00000
G1 F1200
G1 X108.723 Y144.914 E0.01248
G1 X109.008 Y144.675 E0.01166
G1 X109.233 Y144.570 E0.00780
G1 X109.582 Y144.506 E0.01114
G1 X109.989 Y144.571 E0.01290
G1 X110.337 Y144.772 E0.01263
G1 X110.576 Y145.057 E0.01166
G1 X110.682 Y145.284 E0.00785
G1 X110.747 Y145.650 E0.01166
G1 X110.678 Y146.042 E0.01248
G1 X110.479 Y146.387 E0.01248
G1 X110.194 Y146.626 E0.01166
G1 X109.967 Y146.732 E0.00785
G1 X109.601 Y146.797 E0.01166
G1 X109.235 Y146.732 E0.01166
G1 X109.009 Y146.627 E0.00780
G1 X108.736 Y146.400 E0.01114
G1 X108.524 Y146.047 E0.01290
G1 X108.455 Y145.650 E0.01263
G1 X108.513 Y145.317 E0.01060
G1 X108.883 Y145.389 F10800.000
G1 F1200
G1 X109.016 Y145.160 E0.00831
G1 X109.212 Y144.995 E0.00802
G1 X109.348 Y144.932 E0.00472
G1 X109.586 Y144.888 E0.00759
G1 X109.860 Y144.932 E0.00869
G1 X110.091 Y145.066 E0.00836
G1 X110.256 Y145.262 E0.00802
G1 X110.320 Y145.399 E0.00474
G1 X110.364 Y145.650 E0.00802
G1 X110.318 Y145.911 E0.00831
G1 X110.185 Y146.141 E0.00831
G1 X109.989 Y146.305 E0.00802
G1 X109.852 Y146.369 E0.00474
G1 X109.601 Y146.414 E0.00802
G1 X109.349 Y146.369 E0.00802
G1 X109.212 Y146.306 E0.00472
G1 X109.026 Y146.151 E0.00759
G1 X108.884 Y145.913 E0.00869
G1 X108.837 Y145.650 E0.00836
G1 X108.873 Y145.448 E0.00643
G1 X108.713 Y145.186 F10800.000
G1 F8640
G1 X109.016 Y145.160 E-0.07437
G1 X109.212 Y144.995 E-0.05904
G1 X109.348 Y144.932 E-0.03476
G1 X109.586 Y144.888 E-0.05590
G1 X109.860 Y144.932 E-0.06403
G1 X110.091 Y145.066 E-0.06159
G1 X110.256 Y145.262 E-0.05904
G1 X110.320 Y145.399 E-0.03490
G1 X110.364 Y145.650 E-0.05904
G1 X110.318 Y145.911 E-0.06121
G1 X110.185 Y146.141 E-0.06121
G1 X109.989 Y146.305 E-0.05904
G1 X109.852 Y146.369 E-0.03490
G1 X109.678 Y146.400 E-0.04097
G1 E-0.04000 F2100.00000
G1 Z0.800 F10800.000
G1 X126.041 Y122.563
G1 Z0.200
G1 E0.80000 F2100.00000
G1 F1200
G1 X152.715 Y122.563 E0.83635
G1 X152.715 Y141.837 E0.60433
G1 X126.041 Y141.837 E0.83635
G1 X126.041 Y130.632 E0.35133
G1 X126.001 Y130.813 E0.00581
G1 X125.825 Y131.307 E0.01644
G1 X125.564 Y131.767 E0.01656
G1 X125.231 Y132.171 E0.01642
G1 X124.833 Y132.510 E0.01640
G1 X124.377 Y132.775 E0.01652
G1 X123.996 Y132.912 E0.01271
G1 X123.888 Y133.230 E0.01053
G1 X123.655 Y133.660 E0.01532
G1 X123.356 Y134.044 E0.01527
G1 X123.009 Y134.372 E0.01497
G1 X122.795 Y134.532 E0.00839
G1 X122.378 Y134.777 E0.01516
G1 X121.913 Y134.965 E0.01573
G1 X121.794 Y134.993 E0.00381
G1 X121.740 Y135.184 E0.00623
G1 X121.442 Y135.717 E0.01916
G1 X121.167 Y136.043 E0.01337
G1 X120.931 Y136.265 E0.01016
G1 X120.450 Y136.597 E0.01832
G1 X119.905 Y136.831 E0.01861
G1 X119.329 Y136.951 E0.01843
G1 X118.829 Y136.960 E0.01568
G1 X118.278 Y136.867 E0.01755
G1 X117.763 Y136.669 E0.01729
G1 X117.278 Y136.354 E0.01811
G1 X117.079 Y136.706 E0.01268
G1 X116.855 Y137.008 E0.01178
G1 X116.382 Y137.511 E0.02166
G1 X115.824 Y137.940 E0.02207
G1 X115.212 Y138.272 E0.02184
G1 X114.868 Y138.408 E0.01159
G1 X114.522 Y138.512 E0.01132
G1 X114.165 Y138.588 E0.01144
G1 X113.792 Y138.635 E0.01179
G1 X113.224 Y138.646 E0.01780
G1 X112.808 Y138.607 E0.01312
G1 X112.235 Y138.487 E0.01836
G1 X111.854 Y138.361 E0.01256
G1 X111.496 Y138.205 E0.01225
G1 X111.155 Y138.019 E0.01217
G1 X110.833 Y137.805 E0.01212
G1 X110.532 Y137.565 E0.01208
G1 X110.253 Y137.300 E0.01207
G1 X109.998 Y137.011 E0.01208
G1 X109.765 Y136.695 E0.01231
G1 X109.479 Y136.204 E0.01783
G1 X109.260 Y135.667 E0.01816
G1 X109.071 Y135.742 E0.00638
G1 X108.793 Y135.813 E0.00901
G1 X108.239 Y135.871 E0.01745
G1 X107.789 Y135.840 E0.01415
G1 X107.506 Y135.785 E0.00904
G1 X107.304 Y135.715 E0.00671
G1 X107.265 Y135.941 E0.00722
G1 X107.071 Y136.273 E0.01206
G1 X106.833 Y136.462 E0.00952
G1 X106.994 Y136.738 E0.01000
G1 X107.025 Y137.135 E0.01249
G1 X106.952 Y137.411 E0.00897
G1 X106.817 Y137.670 E0.00914
G1 X106.506 Y137.936 E0.01285
G1 X106.214 Y138.039 E0.00969
G1 X105.915 Y138.054 E0.00939
G1 X105.408 Y137.907 E0.01655
G1 X104.852 Y137.669 E0.01899
G1 X104.328 Y137.361 E0.01904
G1 X103.851 Y136.995 E0.01885
G1 X103.549 Y136.707 E0.01311
G1 X103.162 Y136.249 E0.01878
G1 X102.869 Y135.805 E0.01668
G1 X102.631 Y135.332 E0.01660
G1 X102.447 Y134.838 E0.01655
G1 X102.316 Y134.319 E0.01677
G1 X102.228 Y133.550 E0.02426
G1 X102.240 Y133.024 E0.01651
G1 X102.270 Y132.745 E0.00879
G1 X102.378 Y132.183 E0.01796
G1 X102.512 Y131.930 E0.00895
G1 X102.706 Y131.732 E0.00870
G1 X102.945 Y131.594 E0.00866
G1 X103.247 Y131.520 E0.00976
G1 X103.621 Y131.563 E0.01181
G1 X103.897 Y131.684 E0.00944
G1 X104.132 Y131.892 E0.00984
G1 X104.217 Y132.046 E0.00551
G1 X104.591 Y131.916 E0.01242
G1 X104.887 Y131.928 E0.00930
G1 X105.034 Y131.974 E0.00482
G1 X105.162 Y131.582 E0.01294
G1 X104.785 Y131.230 E0.01616
G1 X104.484 Y130.793 E0.01666
G1 X104.331 Y130.435 E0.01221
G1 X104.238 Y130.007 E0.01374
G1 X104.227 Y129.673 E0.01047
G1 X104.292 Y129.113 E0.01768
G1 X104.470 Y128.570 E0.01792
G1 X104.748 Y128.088 E0.01744
G1 X104.939 Y127.849 E0.00961
G1 X105.160 Y127.629 E0.00977
G1 X105.405 Y127.436 E0.00976
G1 X105.669 Y127.272 E0.00975
G1 X105.950 Y127.138 E0.00977
G1 X106.246 Y127.034 E0.00983
G1 X106.553 Y126.959 E0.00992
G1 X106.870 Y126.915 E0.01004
G1 X107.181 Y126.900 E0.00977
G1 X123.107 Y126.900 E0.49934
G1 X123.668 Y126.960 E0.01768
G1 X124.225 Y127.132 E0.01827
G1 X124.738 Y127.407 E0.01827
G1 X125.180 Y127.769 E0.01792
G1 X125.397 Y128.006 E0.01008
G1 X125.590 Y128.264 E0.01008
G1 X125.870 Y128.786 E0.01858
G1 X126.041 Y129.343 E0.01826
G1 X126.041 Y122.623 E0.21068
G1 X126.418 Y122.940 F10800.000
G1 F1200
G1 X152.338 Y122.940 E0.81270
G1 X152.338 Y141.460 E0.58068
G1 X126.418 Y141.460 E0.81270
G1 X126.418 Y123.000 E0.57880
G1 X126.293 Y122.560 F10800.000
G1 F8640
G1 X129.709 Y122.993 E-0.76000
G1 E-0.04000 F2100.00000
G1 Z0.800 F10800.000
G1 X123.691 Y132.608
G1 Z0.200
G1 E0.80000 F2100.00000
G1 F1200
G1 X123.542 Y133.079 E0.01548
G1 X123.338 Y133.453 E0.01335
G1 X123.076 Y133.790 E0.01339
G1 X122.766 Y134.083 E0.01338
G1 X122.586 Y134.218 E0.00706
G1 X122.211 Y134.438 E0.01362
G1 X121.798 Y134.604 E0.01396
G1 X121.492 Y134.677 E0.00985
G1 X121.389 Y135.038 E0.01178
G1 X121.130 Y135.502 E0.01666
G1 X120.893 Y135.783 E0.01154
G1 X120.693 Y135.970 E0.00857
G1 X120.266 Y136.265 E0.01627
G1 X119.791 Y136.470 E0.01624
G1 X119.287 Y136.575 E0.01613
G1 X118.858 Y136.583 E0.01346
G1 X118.378 Y136.501 E0.01526
G1 X117.933 Y136.330 E0.01494
G1 X117.536 Y136.079 E0.01475
G1 X117.171 Y135.722 E0.01600
G1 X117.078 Y135.944 E0.00754
G1 X116.762 Y136.500 E0.02004
G1 X116.566 Y136.766 E0.01037
G1 X116.128 Y137.230 E0.02002
G1 X115.618 Y137.623 E0.02018
G1 X115.052 Y137.930 E0.02018
G1 X114.744 Y138.051 E0.01039
G1 X114.428 Y138.146 E0.01034
G1 X114.102 Y138.216 E0.01045
G1 X113.765 Y138.259 E0.01066
G1 X113.238 Y138.269 E0.01651
G1 X112.864 Y138.234 E0.01178
G1 X112.333 Y138.122 E0.01701
G1 X111.989 Y138.008 E0.01136
G1 X111.662 Y137.866 E0.01120
G1 X111.350 Y137.696 E0.01113
G1 X111.056 Y137.501 E0.01108
G1 X110.780 Y137.281 E0.01105
G1 X110.525 Y137.038 E0.01104
G1 X110.292 Y136.774 E0.01105
G1 X110.081 Y136.488 E0.01114
G1 X109.816 Y136.032 E0.01653
G1 X109.671 Y135.703 E0.01128
G1 X109.555 Y135.360 E0.01137
G1 X109.505 Y135.128 E0.00742
G1 X109.326 Y135.236 E0.00654
G1 X108.955 Y135.383 E0.01253
G1 X108.726 Y135.441 E0.00740
G1 X108.232 Y135.493 E0.01556
G1 X107.838 Y135.466 E0.01239
G1 X107.605 Y135.420 E0.00746
G1 X107.119 Y135.251 E0.01613
G1 X106.750 Y135.048 E0.01321
G1 X106.540 Y134.899 E0.00805
G1 X106.069 Y134.466 E0.02009
G1 X105.849 Y134.191 E0.01103
G1 X105.674 Y133.907 E0.01048
G1 X105.536 Y133.612 E0.01019
G1 X105.403 Y133.173 E0.01438
G1 X105.366 Y132.926 E0.00782
G1 X105.297 Y133.345 E0.01330
G1 X105.300 Y133.633 E0.00903
G1 X105.356 Y133.920 E0.00917
G1 X105.400 Y134.047 E0.00420
G1 X105.545 Y134.329 E0.00996
G1 X105.634 Y134.452 E0.00476
G1 X105.870 Y134.684 E0.01038
G1 X106.145 Y134.861 E0.01025
G1 X106.640 Y135.052 E0.01664
G1 X106.803 Y135.189 E0.00668
G1 X106.888 Y135.327 E0.00508
G1 X106.947 Y135.564 E0.00766
G1 X106.905 Y135.810 E0.00783
G1 X106.781 Y136.022 E0.00770
G1 X106.584 Y136.178 E0.00788
G1 X106.331 Y136.237 E0.00815
G1 X105.986 Y136.161 E0.01109
G1 X105.738 Y136.071 E0.00825
G1 X105.299 Y135.835 E0.01564
G1 X105.086 Y135.679 E0.00827
G1 X104.724 Y135.333 E0.01571
G1 X104.476 Y135.006 E0.01288
G1 X104.320 Y134.729 E0.00995
G1 X104.196 Y134.437 E0.00997
G1 X104.074 Y133.983 E0.01471
G1 X104.027 Y133.516 E0.01473
G1 X104.040 Y133.198 E0.00999
G1 X104.088 Y132.882 E0.01000
G1 X104.171 Y132.605 E0.00907
G1 X104.371 Y132.391 E0.00919
G1 X104.648 Y132.296 E0.00917
G1 X104.822 Y132.302 E0.00546
G1 X105.038 Y132.371 E0.00712
G1 X105.192 Y132.489 E0.00609
G1 X105.323 Y132.690 E0.00752
G1 X105.364 Y132.912 E0.00708
G1 X105.344 Y132.450 E0.01450
G1 X105.387 Y132.112 E0.01067
G1 X105.478 Y131.795 E0.01036
G1 X105.651 Y131.454 E0.01200
G1 X105.346 Y131.252 E0.01148
G1 X105.075 Y130.986 E0.01189
G1 X104.816 Y130.610 E0.01433
G1 X104.692 Y130.319 E0.00991
G1 X104.613 Y129.960 E0.01154
G1 X104.605 Y129.688 E0.00851
G1 X104.662 Y129.194 E0.01560
G1 X104.816 Y128.724 E0.01551
G1 X105.060 Y128.301 E0.01532
G1 X105.220 Y128.101 E0.00803
G1 X105.411 Y127.911 E0.00842
G1 X105.621 Y127.746 E0.00841
G1 X105.850 Y127.604 E0.00843
G1 X106.095 Y127.487 E0.00850
G1 X106.353 Y127.396 E0.00860
G1 X106.624 Y127.330 E0.00873
G1 X106.905 Y127.291 E0.00890
G1 X107.190 Y127.278 E0.00894
G1 X123.087 Y127.278 E0.49844
G1 X123.591 Y127.331 E0.01591
G1 X124.079 Y127.481 E0.01598
G1 X124.527 Y127.722 E0.01596
G1 X124.920 Y128.044 E0.01593
G1 X125.107 Y128.247 E0.00866
G1 X125.271 Y128.467 E0.00860
G1 X125.521 Y128.931 E0.01653
G1 X125.676 Y129.440 E0.01669
G1 X125.733 Y129.976 E0.01688
G1 X125.691 Y130.465 E0.01541
G1 X125.638 Y130.710 E0.00783
G1 X125.481 Y131.149 E0.01465
G1 X125.253 Y131.552 E0.01451
G1 X124.961 Y131.905 E0.01435
G1 X124.614 Y132.201 E0.01431
G1 X124.217 Y132.432 E0.01439
G1 X123.750 Y132.595 E0.01553
G1 X123.868 Y132.967 F10800.000
G1 F8640
G1 X123.542 Y133.079 E-0.12149
G1 X123.338 Y133.453 E-0.09830
G1 X123.076 Y133.790 E-0.09864
G1 X122.766 Y134.083 E-0.09854
G1 X122.586 Y134.218 E-0.05197
G1 X122.211 Y134.438 E-0.10032
G1 X121.798 Y134.604 E-0.10277
G1 X121.492 Y134.677 E-0.07254
G1 X121.474 Y134.741 E-0.01543
G1 E-0.04000 F2100.00000
G1 Z0.800 F10800.000
G1 X106.313 Y136.481
G1 Z0.200
G1 E0.80000 F2100.00000
G1 F1200
G1 X106.475 Y136.597 E0.00626
G1 X106.625 Y136.854 E0.00931
G1 X106.644 Y137.100 E0.00776
G1 X106.598 Y137.274 E0.00564
G1 X106.517 Y137.431 E0.00554
G1 X106.314 Y137.604 E0.00837
G1 X106.141 Y137.665 E0.00575
G1 X105.960 Y137.674 E0.00568
G1 X105.536 Y137.551 E0.01385
G1 X105.022 Y137.331 E0.01752
G1 X104.539 Y137.048 E0.01755
G1 X104.097 Y136.708 E0.01748
G1 X103.823 Y136.448 E0.01184
G1 X103.464 Y136.023 E0.01743
G1 X103.196 Y135.616 E0.01529
G1 X102.977 Y135.181 E0.01526
G1 X102.808 Y134.725 E0.01525
G1 X102.688 Y134.251 E0.01534
G1 X102.606 Y133.533 E0.02266
G1 X102.617 Y133.048 E0.01521
G1 X102.643 Y132.801 E0.00779
G1 X102.738 Y132.309 E0.01570
G1 X102.819 Y132.155 E0.00547
G1 X102.939 Y132.033 E0.00537
G1 X103.087 Y131.947 E0.00536
G1 X103.271 Y131.902 E0.00594
G1 X103.522 Y131.931 E0.00792
G1 X103.692 Y132.005 E0.00581
G1 X103.833 Y132.131 E0.00593
G1 X103.948 Y132.340 E0.00747
G1 X103.970 Y132.572 E0.00732
G1 X103.900 Y132.922 E0.01120
G1 X103.862 Y133.472 E0.01727
G1 X103.921 Y134.019 E0.01727
G1 X104.072 Y134.545 E0.01715
G1 X104.263 Y134.949 E0.01400
G1 X104.441 Y135.229 E0.01041
G1 X104.650 Y135.489 E0.01046
G1 X104.885 Y135.726 E0.01046
G1 X105.141 Y135.936 E0.01038
G1 X105.571 Y136.202 E0.01587
G1 X105.874 Y136.337 E0.01039
