( Made using CamBam - http://www.cambam.co.uk )
( Schild-Buehlhof 3/19/2017 4:35:32 PM )
( T2 : 2.0 )
G21 G90 G64 G40
G0 Z3.0
( T2 : 2.0 )
T2 M6
( Profil1 )
G17
M3 S1000
G0 X-142.0 Y-87.8117
G0 Z1.0
G1 F300.0 Z-0.8
G1 F800.0 Y-91.1052
G1 X-152.8916 Y-97.6077
G3 X-155.6837 Y-99.4887 I12.4449 J-21.4855
G3 X-157.7029 Y-101.4777 I6.5945 J-8.7141
G3 X-158.8937 Y-103.7909 I5.3649 J-4.2248
G3 X-159.2754 Y-106.4629 I8.3509 J-2.5561
G1 Y-110.3643
G3 X-158.2754 Y-111.3643 I1.0 J0.0
G1 X-142.0
G1 Y-114.1221
G1 X-180.6113
G1 Y-103.001
G3 X-180.6114 Y-102.9913 I-1.0 J0.0
G2 X-179.9721 Y-98.383 I15.8281 J0.1527
G3 X-179.9673 Y-98.3663 I-0.9596 J0.2815
G2 X-178.1456 Y-94.8249 I9.3363 J-2.5635
G2 X-175.1172 Y-92.5021 I6.439 J-5.2593
G2 X-170.815 Y-91.6531 I4.0773 J-9.3358
G3 X-170.7824 Y-91.6533 I0.0221 J0.9998
G2 X-167.219 Y-92.2472 I0.1087 J-10.3349
G3 X-167.216 Y-92.2482 I0.3343 J0.9425
G2 X-164.3918 Y-93.8766 I-2.9301 J-8.3452
G3 X-164.3869 Y-93.8808 I0.6506 J0.7594
G2 X-162.2274 Y-96.4508 I-6.4009 J-7.5706
G2 X-160.8311 Y-99.9033 I-11.7552 J-6.763
G3 X-159.8613 Y-100.6592 I0.9697 J0.2441
G1 X-159.748
G3 X-158.8301 Y-100.0559 I0.0 J1.0
G2 X-157.9152 Y-98.5228 I6.3173 J-2.7304
G3 X-157.8997 Y-98.5027 I-0.785 J0.6195
G2 X-156.6942 Y-97.2218 I6.2787 J-4.7015
G2 X-154.9939 Y-95.9732 I9.8001 J-11.563
G3 X-154.9657 Y-95.9547 I-0.5344 J0.8452
G2 X-152.6833 Y-94.4794 I32.2073 J-47.3269
G3 X-152.6766 Y-94.4753 I-0.5227 J0.8525
G1 X-142.0 Y-87.8117
G0 Z3.0
G0 X-145.7974 Y-79.4407
G0 Z1.0
G1 F300.0 Z-0.8
G2 F800.0 X-146.3152 Y-79.6521 I-3.0196 J6.6565
G3 X-146.3356 Y-79.6598 I0.3423 J-0.9396
G2 X-149.4057 Y-80.456 I-4.9106 J12.6174
G3 X-149.4089 Y-80.4565 I0.1359 J-0.9907
G2 X-152.6629 Y-80.6758 I-3.1407 J22.3467
G3 X-152.668 I-0.005 J-1.0
G1 X-169.0
G1 Y-78.0596
G1 X-153.4083
G3 X-150.0197 Y-77.7807 I0.1492 J18.9169
G1 X-150.0198 Y-77.7808
G1 X-150.0197 Y-77.7807
G3 X-147.4271 Y-76.9949 I-1.9016 J10.9441
G3 X-144.1969 Y-74.1333 I-2.6961 J6.2972
G3 X-144.1771 Y-74.0976 I-0.8651 J0.5015
G3 X-143.2282 Y-70.0346 I-7.3169 J3.8512
G3 X-146.068 Y-63.6994 I-8.0792 J0.1826
G3 X-149.507 Y-61.7868 I-6.2199 J-7.1358
G3 X-149.5122 Y-61.7852 I-0.2938 J-0.9559
G3 X-153.2965 Y-61.248 I-3.6478 J-12.1002
G1 X-169.0
G1 Y-58.6035
G1 X-142.0
G1 Y-61.248
G1 X-145.5879
G3 X-146.5879 Y-62.248 I0.0 J-1.0
G1 Y-62.3613
G3 X-146.0483 Y-63.249 I1.0 J0.0
G2 X-142.4926 Y-66.5615 I-4.1715 J-8.0425
G2 X-141.32 Y-71.287 I-8.0601 J-4.5082
G3 X-141.3201 Y-71.3301 I0.9997 J-0.0235
G2 X-142.0349 Y-75.5099 I-11.2854 J-0.2211
G2 X-145.7974 Y-79.4407 I-6.7822 J2.7256
G1 F300.0 Z-1.6
G2 F800.0 X-146.3152 Y-79.6521 I-3.0196 J6.6565
G3 X-146.3356 Y-79.6598 I0.3423 J-0.9396
G2 X-149.4057 Y-80.456 I-4.9106 J12.6174
G3 X-149.4089 Y-80.4565 I0.1359 J-0.9907
G2 X-152.6629 Y-80.6758 I-3.1407 J22.3467
G3 X-152.668 I-0.005 J-1.0
G1 X-169.0
G1 Y-78.0596
G1 X-153.4083
G3 X-150.0197 Y-77.7807 I0.1492 J18.9169
G1 X-150.0198 Y-77.7808
G1 X-150.0197 Y-77.7807
G3 X-147.4271 Y-76.9949 I-1.9016 J10.9441
G3 X-144.1969 Y-74.1333 I-2.6961 J6.2972
G3 X-144.1771 Y-74.0976 I-0.8651 J0.5015
G3 X-143.2282 Y-70.0346 I-7.3169 J3.8512
G3 X-146.068 Y-63.6994 I-8.0792 J0.1826
G3 X-149.507 Y-61.7868 I-6.2199 J-7.1358
G3 X-149.5122 Y-61.7852 I-0.2938 J-0.9559
G3 X-153.2965 Y-61.248 I-3.6478 J-12.1002
G1 X-169.0
G1 Y-58.6035
G1 X-142.0
G1 Y-61.248
G1 X-145.5879
G3 X-146.5879 Y-62.248 I0.0 J-1.0
G1 Y-62.3613
G3 X-146.0483 Y-63.249 I1.0 J0.0
G2 X-142.4926 Y-66.5615 I-4.1715 J-8.0425
G2 X-141.32 Y-71.287 I-8.0601 J-4.5082
G3 X-141.3201 Y-71.3301 I0.9997 J-0.0235
G2 X-142.0349 Y-75.5099 I-11.2854 J-0.2211
G2 X-145.7974 Y-79.4407 I-6.7822 J2.7256
G1 F300.0 Z-2.4
G2 F800.0 X-146.3152 Y-79.6521 I-3.0196 J6.6565
G3 X-146.3356 Y-79.6598 I0.3423 J-0.9396
G2 X-149.4057 Y-80.456 I-4.9106 J12.6174
G3 X-149.4089 Y-80.4565 I0.1359 J-0.9907
G2 X-152.6629 Y-80.6758 I-3.1407 J22.3467
G3 X-152.668 I-0.005 J-1.0
G1 X-169.0
G1 Y-78.0596
G1 X-153.4083
G3 X-150.0197 Y-77.7807 I0.1492 J18.9169
G1 X-150.0198 Y-77.7808
G1 X-150.0197 Y-77.7807
G3 X-147.4271 Y-76.9949 I-1.9016 J10.9441
G3 X-144.1969 Y-74.1333 I-2.6961 J6.2972
G3 X-144.1771 Y-74.0976 I-0.8651 J0.5015
G3 X-143.2282 Y-70.0346 I-7.3169 J3.8512
G3 X-146.068 Y-63.6994 I-8.0792 J0.1826
G3 X-149.507 Y-61.7868 I-6.2199 J-7.1358
G3 X-149.5122 Y-61.7852 I-0.2938 J-0.9559
G3 X-153.2965 Y-61.248 I-3.6478 J-12.1002
G1 X-169.0
G1 Y-58.6035
G1 X-142.0
G1 Y-61.248
G1 X-145.5879
G3 X-146.5879 Y-62.248 I0.0 J-1.0
G1 Y-62.3613
G3 X-146.0483 Y-63.249 I1.0 J0.0
G2 X-142.4926 Y-66.5615 I-4.1715 J-8.0425
G2 X-141.32 Y-71.287 I-8.0601 J-4.5082
G3 X-141.3201 Y-71.3301 I0.9997 J-0.0235
G2 X-142.0349 Y-75.5099 I-11.2854 J-0.2211
G2 X-145.7974 Y-79.4407 I-6.7822 J2.7256
G1 F300.0 Z-3.2
G2 F800.0 X-146.3152 Y-79.6521 I-3.0196 J6.6565
G3 X-146.3356 Y-79.6598 I0.3423 J-0.9396
G2 X-149.4057 Y-80.456 I-4.9106 J12.6174
G3 X-149.4089 Y-80.4565 I0.1359 J-0.9907
G2 X-152.6629 Y-80.6758 I-3.1407 J22.3467
G3 X-152.668 I-0.005 J-1.0
G1 X-169.0
G1 Y-78.0596
G1 X-153.4083
G3 X-150.0197 Y-77.7807 I0.1492 J18.9169
G1 X-150.0198 Y-77.7808
G1 X-150.0197 Y-77.7807
G3 X-147.4271 Y-76.9949 I-1.9016 J10.9441
G3 X-144.1969 Y-74.1333 I-2.6961 J6.2972
G3 X-144.1771 Y-74.0976 I-0.8651 J0.5015
G3 X-143.2282 Y-70.0346 I-7.3169 J3.8512
G3 X-146.068 Y-63.6994 I-8.0792 J0.1826
G3 X-149.507 Y-61.7868 I-6.2199 J-7.1358
G3 X-149.5122 Y-61.7852 I-0.2938 J-0.9559
G3 X-153.2965 Y-61.248 I-3.6478 J-12.1002
G1 X-169.0
G1 Y-58.6035
G1 X-142.0
G1 Y-61.248
G1 X-145.5879
G3 X-146.5879 Y-62.248 I0.0 J-1.0
G1 Y-62.3613
G3 X-146.0483 Y-63.249 I1.0 J0.0
G2 X-142.4926 Y-66.5615 I-4.1715 J-8.0425
G2 X-141.32 Y-71.287 I-8.0601 J-4.5082
G3 X-141.3201 Y-71.3301 I0.9997 J-0.0235
G2 X-142.0349 Y-75.5099 I-11.2854 J-0.2211
G2 X-145.7974 Y-79.4407 I-6.7822 J2.7256
G1 F300.0 Z-4.0
G2 F800.0 X-146.3152 Y-79.6521 I-3.0196 J6.6565
G3 X-146.3356 Y-79.6598 I0.3423 J-0.9396
G2 X-149.4057 Y-80.456 I-4.9106 J12.6174
G3 X-149.4089 Y-80.4565 I0.1359 J-0.9907
G2 X-152.6629 Y-80.6758 I-3.1407 J22.3467
G3 X-152.668 I-0.005 J-1.0
G1 X-169.0
G1 Y-78.0596
G1 X-153.4083
G3 X-150.0197 Y-77.7807 I0.1492 J18.9169
G1 X-150.0198 Y-77.7808
G1 X-150.0197 Y-77.7807
G3 X-147.4271 Y-76.9949 I-1.9016 J10.9441
G3 X-144.1969 Y-74.1333 I-2.6961 J6.2972
G3 X-144.1771 Y-74.0976 I-0.8651 J0.5015
G3 X-143.2282 Y-70.0346 I-7.3169 J3.8512
G3 X-146.068 Y-63.6994 I-8.0792 J0.1826
G3 X-149.507 Y-61.7868 I-6.2199 J-7.1358
G3 X-149.5122 Y-61.7852 I-0.2938 J-0.9559
G3 X-153.2965 Y-61.248 I-3.6478 J-12.1002
G1 X-169.0
G1 Y-58.6035
G1 X-142.0
G1 Y-61.248
G1 X-145.5879
G3 X-146.5879 Y-62.248 I0.0 J-1.0
G1 Y-62.3613
G3 X-146.0483 Y-63.249 I1.0 J0.0
G2 X-142.4926 Y-66.5615 I-4.1715 J-8.0425
G2 X-141.32 Y-71.287 I-8.0601 J-4.5082
G3 X-141.3201 Y-71.3301 I0.9997 J-0.0235
G2 X-142.0349 Y-75.5099 I-11.2854 J-0.2211
G2 X-145.7974 Y-79.4407 I-6.7822 J2.7256
G1 F300.0 Z-4.8
G2 F800.0 X-146.3152 Y-79.6521 I-3.0196 J6.6565
G3 X-146.3356 Y-79.6598 I0.3423 J-0.9396
G2 X-149.4057 Y-80.456 I-4.9106 J12.6174
G3 X-149.4089 Y-80.4565 I0.1359 J-0.9907
G2 X-152.6629 Y-80.6758 I-3.1407 J22.3467
G3 X-152.668 I-0.005 J-1.0
G1 X-169.0
G1 Y-78.0596
G1 X-153.4083
G3 X-150.0197 Y-77.7807 I0.1492 J18.9169
G1 X-150.0198 Y-77.7808
G1 X-150.0197 Y-77.7807
G3 X-147.4271 Y-76.9949 I-1.9016 J10.9441
G3 X-144.1969 Y-74.1333 I-2.6961 J6.2972
G3 X-144.1771 Y-74.0976 I-0.8651 J0.5015
G3 X-143.2282 Y-70.0346 I-7.3169 J3.8512
G3 X-146.068 Y-63.6994 I-8.0792 J0.1826
G3 X-149.507 Y-61.7868 I-6.2199 J-7.1358
G3 X-149.5122 Y-61.7852 I-0.2938 J-0.9559
G3 X-153.2965 Y-61.248 I-3.6478 J-12.1002
G1 X-169.0
G1 Y-58.6035
G1 X-142.0
G1 Y-61.248
G1 X-145.5879
G3 X-146.5879 Y-62.248 I0.0 J-1.0
G1 Y-62.3613
G3 X-146.0483 Y-63.249 I1.0 J0.0
G2 X-142.4926 Y-66.5615 I-4.1715 J-8.0425
G2 X-141.32 Y-71.287 I-8.0601 J-4.5082
G3 X-141.3201 Y-71.3301 I0.9997 J-0.0235
G2 X-142.0349 Y-75.5099 I-11.2854 J-0.2211
G2 X-145.7974 Y-79.4407 I-6.7822 J2.7256
G1 F300.0 Z-5.0
G2 F800.0 X-146.3152 Y-79.6521 I-3.0196 J6.6565
G3 X-146.3356 Y-79.6598 I0.3423 J-0.9396
G2 X-149.4057 Y-80.456 I-4.9106 J12.6174
G3 X-149.4089 Y-80.4565 I0.1359 J-0.9907
G2 X-152.6629 Y-80.6758 I-3.1407 J22.3467
G3 X-152.668 I-0.005 J-1.0
G1 X-169.0
G1 Y-78.0596
G1 X-153.4083
G3 X-150.0197 Y-77.7807 I0.1492 J18.9169
G1 X-150.0198 Y-77.7808
G1 X-150.0197 Y-77.7807
G3 X-147.4271 Y-76.9949 I-1.9016 J10.9441
G3 X-144.1969 Y-74.1333 I-2.6961 J6.2972
G3 X-144.1771 Y-74.0976 I-0.8651 J0.5015
G3 X-143.2282 Y-70.0346 I-7.3169 J3.8512
G3 X-146.068 Y-63.6994 I-8.0792 J0.1826
G3 X-149.507 Y-61.7868 I-6.2199 J-7.1358
G3 X-149.5122 Y-61.7852 I-0.2938 J-0.9559
G3 X-153.2965 Y-61.248 I-3.6478 J-12.1002
G1 X-169.0
G1 Y-58.6035
G1 X-142.0
G1 Y-61.248
G1 X-145.5879
G3 X-146.5879 Y-62.248 I0.0 J-1.0
G1 Y-62.3613
G3 X-146.0483 Y-63.249 I1.0 J0.0
G2 X-142.4926 Y-66.5615 I-4.1715 J-8.0425
G2 X-141.32 Y-71.287 I-8.0601 J-4.5082
G3 X-141.3201 Y-71.3301 I0.9997 J-0.0235
G2 X-142.0349 Y-75.5099 I-11.2854 J-0.2211
G2 X-145.7974 Y-79.4407 I-6.7822 J2.7256
G0 Z3.0
G0 X-164.044 Y-97.1717
G0 Z1.0
G1 F300.0 Z-0.8
G3 F800.0 X-166.7217 Y-95.3398 I-5.8636 J-5.6979
G3 X-166.7325 Y-95.3353 I-0.3897 J-0.921
G3 X-170.3955 Y-94.6376 I-3.5495 J-8.6709
G3 X-173.526 Y-95.1846 I-0.1193 J-8.548
G3 X-173.5385 Y-95.1894 I0.3522 J-0.9359
G3 X-176.2289 Y-97.1154 I2.4586 J-6.2764
G3 X-177.9048 Y-100.4018 I6.1023 J-5.1826
G3 X-178.3066 Y-103.8566 I13.274 J-3.2946
G1 Y-110.3643
G3 X-177.3066 Y-111.3643 I1.0 J0.0
G1 X-162.5801
G3 X-161.5801 Y-110.3643 I0.0 J1.0
G1 Y-103.9123
G3 X-162.1726 Y-100.2965 I-10.685 J0.1054
G3 X-163.8983 Y-97.3259 I-8.2759 J-2.8211
G3 X-163.9145 Y-97.3081 I-0.7492 J-0.6624
G3 X-164.044 Y-97.1717 I-5.9931 J-5.5616
G1 F300.0 Z-1.6
G3 F800.0 X-166.7217 Y-95.3398 I-5.8636 J-5.6979
G3 X-166.7325 Y-95.3353 I-0.3897 J-0.921
G3 X-170.3955 Y-94.6376 I-3.5495 J-8.6709
G3 X-173.526 Y-95.1846 I-0.1193 J-8.548
G3 X-173.5385 Y-95.1894 I0.3522 J-0.9359
G3 X-176.2289 Y-97.1154 I2.4586 J-6.2764
G3 X-177.9048 Y-100.4018 I6.1023 J-5.1826
G3 X-178.3066 Y-103.8566 I13.274 J-3.2946
G1 Y-110.3643
G3 X-177.3066 Y-111.3643 I1.0 J0.0
G1 X-162.5801
G3 X-161.5801 Y-110.3643 I0.0 J1.0
G1 Y-103.9123
G3 X-162.1726 Y-100.2965 I-10.685 J0.1054
G3 X-163.8983 Y-97.3259 I-8.2759 J-2.8211
G3 X-163.9145 Y-97.3081 I-0.7492 J-0.6624
G3 X-164.044 Y-97.1717 I-5.9931 J-5.5616
G0 Z3.0
G0 X-162.4172 Y-96.1393
G0 Z0.2
G1 F300.0 Z-1.6
G2 F800.0 X-162.2274 Y-96.4508 I-8.3706 J-5.3122
G2 X-160.8311 Y-99.9033 I-11.7552 J-6.763
G3 X-159.8613 Y-100.6592 I0.9697 J0.2441
G1 X-159.748
G3 X-158.8301 Y-100.0559 I0.0 J1.0
G2 X-157.9152 Y-98.5228 I6.3173 J-2.7304
G3 X-157.8997 Y-98.5027 I-0.785 J0.6195
G2 X-156.6942 Y-97.2218 I6.2787 J-4.7015
G2 X-154.9939 Y-95.9732 I9.8001 J-11.563
G3 X-154.9657 Y-95.9547 I-0.5344 J0.8452
G2 X-152.6833 Y-94.4794 I32.2073 J-47.3269
G3 X-152.6766 Y-94.4753 I-0.5227 J0.8525
G1 X-142.0 Y-87.8117
G1 Y-91.1052
G1 X-152.8916 Y-97.6077
G3 X-155.6837 Y-99.4887 I12.4449 J-21.4855
G3 X-157.7029 Y-101.4777 I6.5945 J-8.7141
G3 X-158.8937 Y-103.7909 I5.3649 J-4.2248
G3 X-159.2754 Y-106.4629 I8.3509 J-2.5561
G1 Y-110.3643
G3 X-158.2754 Y-111.3643 I1.0 J0.0
G1 X-142.0
G1 Y-114.1221
G1 X-180.6113
G1 Y-103.001
G3 X-180.6114 Y-102.9913 I-1.0 J0.0
G2 X-179.9721 Y-98.383 I15.8281 J0.1527
G3 X-179.9673 Y-98.3663 I-0.9596 J0.2815
G2 X-178.1456 Y-94.8249 I9.3363 J-2.5635
G2 X-175.1172 Y-92.5021 I6.439 J-5.2593
G2 X-170.815 Y-91.6531 I4.0773 J-9.3358
G3 X-170.7824 Y-91.6533 I0.0221 J0.9998
G2 X-167.219 Y-92.2472 I0.1087 J-10.3349
G3 X-167.216 Y-92.2482 I0.3343 J0.9425
G2 X-164.3918 Y-93.8766 I-2.9301 J-8.3452
G3 X-164.3869 Y-93.8808 I0.6506 J0.7594
G2 X-162.4172 Y-96.1393 I-6.4009 J-7.5706
G1 F300.0 Z-2.4
G2 F800.0 X-162.2274 Y-96.4508 I-8.3706 J-5.3122
G2 X-160.8311 Y-99.9033 I-11.7552 J-6.763
G3 X-159.8613 Y-100.6592 I0.9697 J0.2441
G1 X-159.748
G3 X-158.8301 Y-100.0559 I0.0 J1.0
G2 X-157.9152 Y-98.5228 I6.3173 J-2.7304
G3 X-157.8997 Y-98.5027 I-0.785 J0.6195
G2 X-156.6942 Y-97.2218 I6.2787 J-4.7015
G2 X-154.9939 Y-95.9732 I9.8001 J-11.563
G3 X-154.9657 Y-95.9547 I-0.5344 J0.8452
G2 X-152.6833 Y-94.4794 I32.2073 J-47.3269
G3 X-152.6766 Y-94.4753 I-0.5227 J0.8525
G1 X-142.0 Y-87.8117
G1 Y-91.1052
G1 X-152.8916 Y-97.6077
G3 X-155.6837 Y-99.4887 I12.4449 J-21.4855
G3 X-157.7029 Y-101.4777 I6.5945 J-8.7141
G3 X-158.8937 Y-103.7909 I5.3649 J-4.2248
G3 X-159.2754 Y-106.4629 I8.3509 J-2.5561
G1 Y-110.3643
G3 X-158.2754 Y-111.3643 I1.0 J0.0
G1 X-142.0
G1 Y-114.1221
G1 X-180.6113
G1 Y-103.001
G3 X-180.6114 Y-102.9913 I-1.0 J0.0
G2 X-179.9721 Y-98.383 I15.8281 J0.1527
G3 X-179.9673 Y-98.3663 I-0.9596 J0.2815
G2 X-178.1456 Y-94.8249 I9.3363 J-2.5635
G2 X-175.1172 Y-92.5021 I6.439 J-5.2593
G2 X-170.815 Y-91.6531 I4.0773 J-9.3358
G3 X-170.7824 Y-91.6533 I0.0221 J0.9998
G2 X-167.219 Y-92.2472 I0.1087 J-10.3349
G3 X-167.216 Y-92.2482 I0.3343 J0.9425
G2 X-164.3918 Y-93.8766 I-2.9301 J-8.3452
G3 X-164.3869 Y-93.8808 I0.6506 J0.7594
G2 X-162.4172 Y-96.1393 I-6.4009 J-7.5706
G0 Z3.0
G0 X-163.8484 Y-97.3828
G0 Z-0.6
G1 F300.0 Z-2.4
G3 F800.0 X-163.8983 Y-97.3259 I-6.6002 J-5.7347
G3 X-163.9145 Y-97.3081 I-0.7492 J-0.6624
G3 X-166.7217 Y-95.3398 I-5.9931 J-5.5616
G3 X-166.7325 Y-95.3353 I-0.3897 J-0.921
G3 X-170.3955 Y-94.6376 I-3.5495 J-8.6709
G3 X-173.526 Y-95.1846 I-0.1193 J-8.548
G3 X-173.5385 Y-95.1894 I0.3522 J-0.9359
G3 X-176.2289 Y-97.1154 I2.4586 J-6.2764
G3 X-177.9048 Y-100.4018 I6.1023 J-5.1826
G3 X-178.3066 Y-103.8566 I13.274 J-3.2946
G1 Y-110.3643
G3 X-177.3066 Y-111.3643 I1.0 J0.0
G1 X-162.5801
G3 X-161.5801 Y-110.3643 I0.0 J1.0
G1 Y-103.9123
G3 X-162.1726 Y-100.2965 I-10.685 J0.1054
G3 X-163.8484 Y-97.3828 I-8.2759 J-2.8211
G1 F300.0 Z-3.2
G3 F800.0 X-163.8983 Y-97.3259 I-6.6002 J-5.7347
G3 X-163.9145 Y-97.3081 I-0.7492 J-0.6624
G3 X-166.7217 Y-95.3398 I-5.9931 J-5.5616
G3 X-166.7325 Y-95.3353 I-0.3897 J-0.921
G3 X-170.3955 Y-94.6376 I-3.5495 J-8.6709
G3 X-173.526 Y-95.1846 I-0.1193 J-8.548
G3 X-173.5385 Y-95.1894 I0.3522 J-0.9359
G3 X-176.2289 Y-97.1154 I2.4586 J-6.2764
G3 X-177.9048 Y-100.4018 I6.1023 J-5.1826
G3 X-178.3066 Y-103.8566 I13.274 J-3.2946
G1 Y-110.3643
G3 X-177.3066 Y-111.3643 I1.0 J0.0
G1 X-162.5801
G3 X-161.5801 Y-110.3643 I0.0 J1.0
G1 Y-103.9123
G3 X-162.1726 Y-100.2965 I-10.685 J0.1054
G3 X-163.8484 Y-97.3828 I-8.2759 J-2.8211
G0 Z3.0
G0 X-162.2354 Y-96.4371
G0 Z-1.4
G1 F300.0 Z-3.2
G2 F800.0 X-162.2274 Y-96.4508 I-8.5523 J-5.0143
G2 X-160.8311 Y-99.9033 I-11.7552 J-6.763
G3 X-159.8613 Y-100.6592 I0.9697 J0.2441
G1 X-159.748
G3 X-158.8301 Y-100.0559 I0.0 J1.0
G2 X-157.9152 Y-98.5228 I6.3173 J-2.7304
G3 X-157.8997 Y-98.5027 I-0.785 J0.6195
G2 X-156.6942 Y-97.2218 I6.2787 J-4.7015
G2 X-154.9939 Y-95.9732 I9.8001 J-11.563
G3 X-154.9657 Y-95.9547 I-0.5344 J0.8452
G2 X-152.6833 Y-94.4794 I32.2073 J-47.3269
G3 X-152.6766 Y-94.4753 I-0.5227 J0.8525
G1 X-142.0 Y-87.8117
G1 Y-91.1052
G1 X-152.8916 Y-97.6077
G3 X-155.6837 Y-99.4887 I12.4449 J-21.4855
G3 X-157.7029 Y-101.4777 I6.5945 J-8.7141
G3 X-158.8937 Y-103.7909 I5.3649 J-4.2248
G3 X-159.2754 Y-106.4629 I8.3509 J-2.5561
G1 Y-110.3643
G3 X-158.2754 Y-111.3643 I1.0 J0.0
G1 X-142.0
G1 Y-114.1221
G1 X-180.6113
G1 Y-103.001
G3 X-180.6114 Y-102.9913 I-1.0 J0.0
G2 X-179.9721 Y-98.383 I15.8281 J0.1527
G3 X-179.9673 Y-98.3663 I-0.9596 J0.2815
G2 X-178.1456 Y-94.8249 I9.3363 J-2.5635
G2 X-175.1172 Y-92.5021 I6.439 J-5.2593
G2 X-170.815 Y-91.6531 I4.0773 J-9.3358
G3 X-170.7824 Y-91.6533 I0.0221 J0.9998
G2 X-167.219 Y-92.2472 I0.1087 J-10.3349
G3 X-167.216 Y-92.2482 I0.3343 J0.9425
G2 X-164.3918 Y-93.8766 I-2.9301 J-8.3452
G3 X-164.3869 Y-93.8808 I0.6506 J0.7594
G2 X-162.2354 Y-96.4371 I-6.4009 J-7.5706
G1 F300.0 Z-4.0
G2 F800.0 X-162.2274 Y-96.4508 I-8.5523 J-5.0143
G2 X-160.8311 Y-99.9033 I-11.7552 J-6.763
G3 X-159.8613 Y-100.6592 I0.9697 J0.2441
G1 X-159.748
G3 X-158.8301 Y-100.0559 I0.0 J1.0
G2 X-157.9152 Y-98.5228 I6.3173 J-2.7304
G3 X-157.8997 Y-98.5027 I-0.785 J0.6195
G2 X-156.6942 Y-97.2218 I6.2787 J-4.7015
G2 X-154.9939 Y-95.9732 I9.8001 J-11.563
G3 X-154.9657 Y-95.9547 I-0.5344 J0.8452
G2 X-152.6833 Y-94.4794 I32.2073 J-47.3269
G3 X-152.6766 Y-94.4753 I-0.5227 J0.8525
G1 X-142.0 Y-87.8117
G1 Y-91.1052
G1 X-152.8916 Y-97.6077
G3 X-155.6837 Y-99.4887 I12.4449 J-21.4855
G3 X-157.7029 Y-101.4777 I6.5945 J-8.7141
G3 X-158.8937 Y-103.7909 I5.3649 J-4.2248
G3 X-159.2754 Y-106.4629 I8.3509 J-2.5561
G1 Y-110.3643
G3 X-158.2754 Y-111.3643 I1.0 J0.0
G1 X-142.0
G1 Y-114.1221
G1 X-180.6113
G1 Y-103.001
G3 X-180.6114 Y-102.9913 I-1.0 J0.0
G2 X-179.9721 Y-98.383 I15.8281 J0.1527
G3 X-179.9673 Y-98.3663 I-0.9596 J0.2815
G2 X-178.1456 Y-94.8249 I9.3363 J-2.5635
G2 X-175.1172 Y-92.5021 I6.439 J-5.2593
G2 X-170.815 Y-91.6531 I4.0773 J-9.3358
G3 X-170.7824 Y-91.6533 I0.0221 J0.9998
G2 X-167.219 Y-92.2472 I0.1087 J-10.3349
G3 X-167.216 Y-92.2482 I0.3343 J0.9425
G2 X-164.3918 Y-93.8766 I-2.9301 J-8.3452
G3 X-164.3869 Y-93.8808 I0.6506 J0.7594
G2 X-162.2354 Y-96.4371 I-6.4009 J-7.5706
G0 Z3.0
G0 X-163.6655 Y-97.6004
G0 Z-2.2
G1 F300.0 Z-4.0
G3 F800.0 X-163.8983 Y-97.3259 I-6.7831 J-5.5172
G3 X-163.9145 Y-97.3081 I-0.7492 J-0.6624
G3 X-166.7217 Y-95.3398 I-5.9931 J-5.5616
G3 X-166.7325 Y-95.3353 I-0.3897 J-0.921
G3 X-170.3955 Y-94.6376 I-3.5495 J-8.6709
G3 X-173.526 Y-95.1846 I-0.1193 J-8.548
G3 X-173.5385 Y-95.1894 I0.3522 J-0.9359
G3 X-176.2289 Y-97.1154 I2.4586 J-6.2764
G3 X-177.9048 Y-100.4018 I6.1023 J-5.1826
G3 X-178.3066 Y-103.8566 I13.274 J-3.2946
G1 Y-110.3643
G3 X-177.3066 Y-111.3643 I1.0 J0.0
G1 X-162.5801
G3 X-161.5801 Y-110.3643 I0.0 J1.0
G1 Y-103.9123
G3 X-162.1726 Y-100.2965 I-10.685 J0.1054
G3 X-163.6655 Y-97.6004 I-8.2759 J-2.8211
G1 F300.0 Z-4.8
G3 F800.0 X-163.8983 Y-97.3259 I-6.7831 J-5.5172
G3 X-163.9145 Y-97.3081 I-0.7492 J-0.6624
G3 X-166.7217 Y-95.3398 I-5.9931 J-5.5616
G3 X-166.7325 Y-95.3353 I-0.3897 J-0.921
G3 X-170.3955 Y-94.6376 I-3.5495 J-8.6709
G3 X-173.526 Y-95.1846 I-0.1193 J-8.548
G3 X-173.5385 Y-95.1894 I0.3522 J-0.9359
G3 X-176.2289 Y-97.1154 I2.4586 J-6.2764
G3 X-177.9048 Y-100.4018 I6.1023 J-5.1826
G3 X-178.3066 Y-103.8566 I13.274 J-3.2946
G1 Y-110.3643
G3 X-177.3066 Y-111.3643 I1.0 J0.0
G1 X-162.5801
G3 X-161.5801 Y-110.3643 I0.0 J1.0
G1 Y-103.9123
G3 X-162.1726 Y-100.2965 I-10.685 J0.1054
G3 X-163.6655 Y-97.6004 I-8.2759 J-2.8211
G0 Z3.0
G0 X-162.0699 Y-96.7322
G0 Z-3.0
G1 F300.0 Z-4.8
G2 F800.0 X-160.8311 Y-99.9033 I-11.9127 J-6.4816
G3 X-159.8613 Y-100.6592 I0.9697 J0.2441
G1 X-159.748
G3 X-158.8301 Y-100.0559 I0.0 J1.0
G2 X-157.9152 Y-98.5228 I6.3173 J-2.7304
G3 X-157.8997 Y-98.5027 I-0.785 J0.6195
G2 X-156.6942 Y-97.2218 I6.2787 J-4.7015
G2 X-154.9939 Y-95.9732 I9.8001 J-11.563
G3 X-154.9657 Y-95.9547 I-0.5344 J0.8452
G2 X-152.6833 Y-94.4794 I32.2073 J-47.3269
G3 X-152.6766 Y-94.4753 I-0.5227 J0.8525
G1 X-142.0 Y-87.8117
G1 Y-91.1052
G1 X-152.8916 Y-97.6077
G3 X-155.6837 Y-99.4887 I12.4449 J-21.4855
G3 X-157.7029 Y-101.4777 I6.5945 J-8.7141
G3 X-158.8937 Y-103.7909 I5.3649 J-4.2248
G3 X-159.2754 Y-106.4629 I8.3509 J-2.5561
G1 Y-110.3643
G3 X-158.2754 Y-111.3643 I1.0 J0.0
G1 X-142.0
G1 Y-114.1221
G1 X-180.6113
G1 Y-103.001
G3 X-180.6114 Y-102.9913 I-1.0 J0.0
G2 X-179.9721 Y-98.383 I15.8281 J0.1527
G3 X-179.9673 Y-98.3663 I-0.9596 J0.2815
G2 X-178.1456 Y-94.8249 I9.3363 J-2.5635
G2 X-175.1172 Y-92.5021 I6.439 J-5.2593
G2 X-170.815 Y-91.6531 I4.0773 J-9.3358
G3 X-170.7824 Y-91.6533 I0.0221 J0.9998
G2 X-167.219 Y-92.2472 I0.1087 J-10.3349
G3 X-167.216 Y-92.2482 I0.3343 J0.9425
G2 X-164.3918 Y-93.8766 I-2.9301 J-8.3452
G3 X-164.3869 Y-93.8808 I0.6506 J0.7594
G2 X-162.2274 Y-96.4508 I-6.4009 J-7.5706
G2 X-162.0699 Y-96.7322 I-11.7552 J-6.763
G1 F300.0 Z-5.0
G2 F800.0 X-160.8311 Y-99.9033 I-11.9127 J-6.4816
G3 X-159.8613 Y-100.6592 I0.9697 J0.2441
G1 X-159.748
G3 X-158.8301 Y-100.0559 I0.0 J1.0
G2 X-157.9152 Y-98.5228 I6.3173 J-2.7304
G3 X-157.8997 Y-98.5027 I-0.785 J0.6195
G2 X-156.6942 Y-97.2218 I6.2787 J-4.7015
G2 X-154.9939 Y-95.9732 I9.8001 J-11.563
G3 X-154.9657 Y-95.9547 I-0.5344 J0.8452
G2 X-152.6833 Y-94.4794 I32.2073 J-47.3269
G3 X-152.6766 Y-94.4753 I-0.5227 J0.8525
G1 X-142.0 Y-87.8117
G1 Y-91.1052
G1 X-152.8916 Y-97.6077
G3 X-155.6837 Y-99.4887 I12.4449 J-21.4855
G3 X-157.7029 Y-101.4777 I6.5945 J-8.7141
G3 X-158.8937 Y-103.7909 I5.3649 J-4.2248
G3 X-159.2754 Y-106.4629 I8.3509 J-2.5561
G1 Y-110.3643
G3 X-158.2754 Y-111.3643 I1.0 J0.0
G1 X-142.0
G1 Y-114.1221
G1 X-180.6113
G1 Y-103.001
G3 X-180.6114 Y-102.9913 I-1.0 J0.0
G2 X-179.9721 Y-98.383 I15.8281 J0.1527
G3 X-179.9673 Y-98.3663 I-0.9596 J0.2815
G2 X-178.1456 Y-94.8249 I9.3363 J-2.5635
G2 X-175.1172 Y-92.5021 I6.439 J-5.2593
G2 X-170.815 Y-91.6531 I4.0773 J-9.3358
G3 X-170.7824 Y-91.6533 I0.0221 J0.9998
G2 X-167.219 Y-92.2472 I0.1087 J-10.3349
G3 X-167.216 Y-92.2482 I0.3343 J0.9425
G2 X-164.3918 Y-93.8766 I-2.9301 J-8.3452
G3 X-164.3869 Y-93.8808 I0.6506 J0.7594
G2 X-162.2274 Y-96.4508 I-6.4009 J-7.5706
G2 X-162.0699 Y-96.7322 I-11.7552 J-6.763
G0 Z3.0
G0 X-163.4943 Y-97.8177
G0 Z-3.2
G1 F300.0 Z-5.0
G3 F800.0 X-163.8983 Y-97.3259 I-6.9542 J-5.2998
G3 X-163.9145 Y-97.3081 I-0.7492 J-0.6624
G3 X-166.7217 Y-95.3398 I-5.9931 J-5.5616
G3 X-166.7325 Y-95.3353 I-0.3897 J-0.921
G3 X-170.3955 Y-94.6376 I-3.5495 J-8.6709
G3 X-173.526 Y-95.1846 I-0.1193 J-8.548
G3 X-173.5385 Y-95.1894 I0.3522 J-0.9359
G3 X-176.2289 Y-97.1154 I2.4586 J-6.2764
G3 X-177.9048 Y-100.4018 I6.1023 J-5.1826
G3 X-178.3066 Y-103.8566 I13.274 J-3.2946
G1 Y-110.3643
G3 X-177.3066 Y-111.3643 I1.0 J0.0
G1 X-162.5801
G3 X-161.5801 Y-110.3643 I0.0 J1.0
G1 Y-103.9123
G3 X-162.1726 Y-100.2965 I-10.685 J0.1054
G3 X-163.4943 Y-97.8177 I-8.2759 J-2.8211
G0 Z3.0
G0 Y-47.2295
G0 Z1.0
G1 F300.0 Z-0.8
G1 F800.0 X-169.0
G1 Y-44.585
G1 X-165.1855
G3 X-164.1855 Y-43.585 I0.0 J1.0
G1 Y-43.4717
G3 X-164.6911 Y-42.6025 I-1.0 J0.0
G2 X-168.4188 Y-38.9866 I5.1313 J9.0196
G2 X-169.6799 Y-33.9763 I8.5344 J4.8119
G3 X-169.6798 Y-33.9393 I-0.9998 J0.0203
G2 X-169.0549 Y-30.3126 I9.8775 J0.1651
G2 X-166.9677 Y-27.4583 I6.4424 J-2.5207
G2 X-163.1558 Y-25.6378 I5.8993 J-7.4512
G3 X-163.1495 Y-25.6364 I-0.2196 J0.9756
G2 X-158.7399 Y-25.1572 I4.1979 J-18.1013
G3 X-158.7285 I0.0114 J0.9999
G1 X-142.0
G1 Y-27.8018
G1 X-157.5354
G3 X-160.8635 Y-28.0562 I-0.1443 J-20.0085
G3 X-163.4197 Y-28.7711 I1.8661 J-11.5995
G3 X-166.7208 Y-31.4626 I2.4872 J-6.4207
G3 X-166.7457 Y-31.5033 I0.8406 J-0.5416
G3 X-167.7718 Y-35.5475 I6.6232 J-3.8326
G3 X-164.7865 Y-42.0803 I8.3351 J-0.1397
G3 X-161.3556 Y-44.016 I6.4505 J7.4247
G3 X-161.349 Y-44.0181 I0.307 J0.9517
G3 X-157.5339 Y-44.585 I3.6907 J11.7186
G1 X-142.0
G1 Y-47.2295
G1 X-163.4943
G1 F300.0 Z-1.6
G1 F800.0 X-169.0
G1 Y-44.585
G1 X-165.1855
G3 X-164.1855 Y-43.585 I0.0 J1.0
G1 Y-43.4717
G3 X-164.6911 Y-42.6025 I-1.0 J0.0
G2 X-168.4188 Y-38.9866 I5.1313 J9.0196
G2 X-169.6799 Y-33.9763 I8.5344 J4.8119
G3 X-169.6798 Y-33.9393 I-0.9998 J0.0203
G2 X-169.0549 Y-30.3126 I9.8775 J0.1651
G2 X-166.9677 Y-27.4583 I6.4424 J-2.5207
G2 X-163.1558 Y-25.6378 I5.8993 J-7.4512
G3 X-163.1495 Y-25.6364 I-0.2196 J0.9756
G2 X-158.7399 Y-25.1572 I4.1979 J-18.1013
G3 X-158.7285 I0.0114 J0.9999
G1 X-142.0
G1 Y-27.8018
G1 X-157.5354
G3 X-160.8635 Y-28.0562 I-0.1443 J-20.0085
G3 X-163.4197 Y-28.7711 I1.8661 J-11.5995
G3 X-166.7208 Y-31.4626 I2.4872 J-6.4207
G3 X-166.7457 Y-31.5033 I0.8406 J-0.5416
G3 X-167.7718 Y-35.5475 I6.6232 J-3.8326
G3 X-164.7865 Y-42.0803 I8.3351 J-0.1397
G3 X-161.3556 Y-44.016 I6.4505 J7.4247
G3 X-161.349 Y-44.0181 I0.307 J0.9517
G3 X-157.5339 Y-44.585 I3.6907 J11.7186
G1 X-142.0
G1 Y-47.2295
G1 X-163.4943
G1 F300.0 Z-2.4
G1 F800.0 X-169.0
G1 Y-44.585
G1 X-165.1855
G3 X-164.1855 Y-43.585 I0.0 J1.0
G1 Y-43.4717
G3 X-164.6911 Y-42.6025 I-1.0 J0.0
G2 X-168.4188 Y-38.9866 I5.1313 J9.0196
G2 X-169.6799 Y-33.9763 I8.5344 J4.8119
G3 X-169.6798 Y-33.9393 I-0.9998 J0.0203
G2 X-169.0549 Y-30.3126 I9.8775 J0.1651
G2 X-166.9677 Y-27.4583 I6.4424 J-2.5207
G2 X-163.1558 Y-25.6378 I5.8993 J-7.4512
G3 X-163.1495 Y-25.6364 I-0.2196 J0.9756
G2 X-158.7399 Y-25.1572 I4.1979 J-18.1013
G3 X-158.7285 I0.0114 J0.9999
G1 X-142.0
G1 Y-27.8018
G1 X-157.5354
G3 X-160.8635 Y-28.0562 I-0.1443 J-20.0085
G3 X-163.4197 Y-28.7711 I1.8661 J-11.5995
G3 X-166.7208 Y-31.4626 I2.4872 J-6.4207
G3 X-166.7457 Y-31.5033 I0.8406 J-0.5416
G3 X-167.7718 Y-35.5475 I6.6232 J-3.8326
G3 X-164.7865 Y-42.0803 I8.3351 J-0.1397
G3 X-161.3556 Y-44.016 I6.4505 J7.4247
G3 X-161.349 Y-44.0181 I0.307 J0.9517
G3 X-157.5339 Y-44.585 I3.6907 J11.7186
G1 X-142.0
G1 Y-47.2295
G1 X-163.4943
G1 F300.0 Z-3.2
G1 F800.0 X-169.0
G1 Y-44.585
G1 X-165.1855
G3 X-164.1855 Y-43.585 I0.0 J1.0
G1 Y-43.4717
G3 X-164.6911 Y-42.6025 I-1.0 J0.0
G2 X-168.4188 Y-38.9866 I5.1313 J9.0196
G2 X-169.6799 Y-33.9763 I8.5344 J4.8119
G3 X-169.6798 Y-33.9393 I-0.9998 J0.0203
G2 X-169.0549 Y-30.3126 I9.8775 J0.1651
G2 X-166.9677 Y-27.4583 I6.4424 J-2.5207
G2 X-163.1558 Y-25.6378 I5.8993 J-7.4512
G3 X-163.1495 Y-25.6364 I-0.2196 J0.9756
G2 X-158.7399 Y-25.1572 I4.1979 J-18.1013
G3 X-158.7285 I0.0114 J0.9999
G1 X-142.0
G1 Y-27.8018
G1 X-157.5354
G3 X-160.8635 Y-28.0562 I-0.1443 J-20.0085
G3 X-163.4197 Y-28.7711 I1.8661 J-11.5995
G3 X-166.7208 Y-31.4626 I2.4872 J-6.4207
G3 X-166.7457 Y-31.5033 I0.8406 J-0.5416
G3 X-167.7718 Y-35.5475 I6.6232 J-3.8326
G3 X-164.7865 Y-42.0803 I8.3351 J-0.1397
G3 X-161.3556 Y-44.016 I6.4505 J7.4247
G3 X-161.349 Y-44.0181 I0.307 J0.9517
G3 X-157.5339 Y-44.585 I3.6907 J11.7186
G1 X-142.0
G1 Y-47.2295
G1 X-163.4943
G1 F300.0 Z-4.0
G1 F800.0 X-169.0
G1 Y-44.585
G1 X-165.1855
G3 X-164.1855 Y-43.585 I0.0 J1.0
G1 Y-43.4717
G3 X-164.6911 Y-42.6025 I-1.0 J0.0
G2 X-168.4188 Y-38.9866 I5.1313 J9.0196
G2 X-169.6799 Y-33.9763 I8.5344 J4.8119
G3 X-169.6798 Y-33.9393 I-0.9998 J0.0203
G2 X-169.0549 Y-30.3126 I9.8775 J0.1651
G2 X-166.9677 Y-27.4583 I6.4424 J-2.5207
G2 X-163.1558 Y-25.6378 I5.8993 J-7.4512
G3 X-163.1495 Y-25.6364 I-0.2196 J0.9756
G2 X-158.7399 Y-25.1572 I4.1979 J-18.1013
G3 X-158.7285 I0.0114 J0.9999
G1 X-142.0
G1 Y-27.8018
G1 X-157.5354
G3 X-160.8635 Y-28.0562 I-0.1443 J-20.0085
G3 X-163.4197 Y-28.7711 I1.8661 J-11.5995
G3 X-166.7208 Y-31.4626 I2.4872 J-6.4207
G3 X-166.7457 Y-31.5033 I0.8406 J-0.5416
G3 X-167.7718 Y-35.5475 I6.6232 J-3.8326
G3 X-164.7865 Y-42.0803 I8.3351 J-0.1397
G3 X-161.3556 Y-44.016 I6.4505 J7.4247
G3 X-161.349 Y-44.0181 I0.307 J0.9517
G3 X-157.5339 Y-44.585 I3.6907 J11.7186
G1 X-142.0
G1 Y-47.2295
G1 X-163.4943
G1 F300.0 Z-4.8
G1 F800.0 X-169.0
G1 Y-44.585
G1 X-165.1855
G3 X-164.1855 Y-43.585 I0.0 J1.0
G1 Y-43.4717
G3 X-164.6911 Y-42.6025 I-1.0 J0.0
G2 X-168.4188 Y-38.9866 I5.1313 J9.0196
G2 X-169.6799 Y-33.9763 I8.5344 J4.8119
G3 X-169.6798 Y-33.9393 I-0.9998 J0.0203
G2 X-169.0549 Y-30.3126 I9.8775 J0.1651
G2 X-166.9677 Y-27.4583 I6.4424 J-2.5207
G2 X-163.1558 Y-25.6378 I5.8993 J-7.4512
G3 X-163.1495 Y-25.6364 I-0.2196 J0.9756
G2 X-158.7399 Y-25.1572 I4.1979 J-18.1013
G3 X-158.7285 I0.0114 J0.9999
G1 X-142.0
G1 Y-27.8018
G1 X-157.5354
G3 X-160.8635 Y-28.0562 I-0.1443 J-20.0085
G3 X-163.4197 Y-28.7711 I1.8661 J-11.5995
G3 X-166.7208 Y-31.4626 I2.4872 J-6.4207
G3 X-166.7457 Y-31.5033 I0.8406 J-0.5416
G3 X-167.7718 Y-35.5475 I6.6232 J-3.8326
G3 X-164.7865 Y-42.0803 I8.3351 J-0.1397
G3 X-161.3556 Y-44.016 I6.4505 J7.4247
G3 X-161.349 Y-44.0181 I0.307 J0.9517
G3 X-157.5339 Y-44.585 I3.6907 J11.7186
G1 X-142.0
G1 Y-47.2295
G1 X-163.4943
G1 F300.0 Z-5.0
G1 F800.0 X-169.0
G1 Y-44.585
G1 X-165.1855
G3 X-164.1855 Y-43.585 I0.0 J1.0
G1 Y-43.4717
G3 X-164.6911 Y-42.6025 I-1.0 J0.0
G2 X-168.4188 Y-38.9866 I5.1313 J9.0196
G2 X-169.6799 Y-33.9763 I8.5344 J4.8119
G3 X-169.6798 Y-33.9393 I-0.9998 J0.0203
G2 X-169.0549 Y-30.3126 I9.8775 J0.1651
G2 X-166.9677 Y-27.4583 I6.4424 J-2.5207
G2 X-163.1558 Y-25.6378 I5.8993 J-7.4512
G3 X-163.1495 Y-25.6364 I-0.2196 J0.9756
G2 X-158.7399 Y-25.1572 I4.1979 J-18.1013
G3 X-158.7285 I0.0114 J0.9999
G1 X-142.0
G1 Y-27.8018
G1 X-157.5354
G3 X-160.8635 Y-28.0562 I-0.1443 J-20.0085
G3 X-163.4197 Y-28.7711 I1.8661 J-11.5995
G3 X-166.7208 Y-31.4626 I2.4872 J-6.4207
G3 X-166.7457 Y-31.5033 I0.8406 J-0.5416
G3 X-167.7718 Y-35.5475 I6.6232 J-3.8326
G3 X-164.7865 Y-42.0803 I8.3351 J-0.1397
G3 X-161.3556 Y-44.016 I6.4505 J7.4247
G3 X-161.349 Y-44.0181 I0.307 J0.9517
G3 X-157.5339 Y-44.585 I3.6907 J11.7186
G1 X-142.0
G1 Y-47.2295
G1 X-163.4943
G0 Z3.0
G0 X-158.4361 Y-16.1178
G0 Z1.0
G1 F300.0 Z-0.8
G2 F800.0 X-160.6393 Y-15.637 I3.3713 J20.7357
G2 X-165.7098 Y-12.9927 I3.6746 J13.23
G3 X-165.713 Y-12.9901 I-0.6369 J-0.7709
G2 X-168.7215 Y-9.0429 I6.8038 J8.306
G2 X-169.6798 Y-4.1211 I11.242 J4.743
G3 X-169.68 Y-4.083 I-0.9999 J0.0147
G2 X-168.6865 Y0.4624 I9.8409 J0.2305
G2 X-165.494 Y3.7131 I7.0709 J-3.7513
G3 X-164.9785 Y4.5879 I-0.4845 J0.8748
G1 Y4.7012
G3 X-165.9785 Y5.7012 I-1.0 J0.0
G1 X-182.9336
G1 Y8.3457
G1 X-142.0
G1 Y5.7012
G1 X-145.9277
G3 X-146.9277 Y4.7012 I0.0 J-1.0
G1 Y4.5879
G3 X-146.4085 Y3.7111 I1.0 J0.0
G2 X-142.5612 Y-0.0675 I-4.7768 J-8.7117
G2 X-141.3201 Y-5.358 I-9.598 J-5.0425
G3 X-141.3202 Y-5.3954 I0.9997 J-0.0229
G2 X-142.1681 Y-9.813 I-11.0913 J-0.1614
G2 X-144.8362 Y-13.3601 I-8.8161 J3.8543
G2 X-149.4786 Y-15.7284 I-7.7789 J9.5142
G2 X-154.809 Y-16.3887 I-5.1045 J19.3607
G3 X-154.8314 I-0.0113 J-0.9999
G2 X-158.4361 Y-16.1178 I-0.2334 J21.0067
G0 Z3.0
G0 X-158.0483 Y-13.4308
G0 Z1.0
G1 F300.0 Z-0.8
G3 F800.0 X-155.0469 Y-13.6309 I2.802 J19.414
G3 X-150.6433 Y-13.1115 I0.1775 J17.4221
G3 X-146.5029 Y-11.0977 I-2.6824 J10.7783
G3 X-146.4932 Y-11.09 I-0.6143 J0.7891
G3 X-143.2283 Y-4.0106 I-5.4254 J6.7947
G3 X-143.9884 Y-0.1654 I-9.5657 J0.1067
G3 X-143.9951 Y-0.15 I-0.9205 J-0.3908
G3 X-146.3822 Y3.0256 I-8.0893 J-3.5957
G3 X-150.0381 Y5.0914 I-6.8983 J-7.9404
G3 X-150.0448 Y5.0935 I-0.3083 J-0.9513
G3 X-154.1174 Y5.7012 I-3.9409 J-12.4607
G1 X-158.3777
G3 X-165.0265 Y3.1022 I-0.1983 J-9.2967
G3 X-167.7717 Y-3.5182 I6.0448 J-6.3859
G3 X-166.9434 Y-7.6322 I9.9429 J-0.1385
G3 X-166.9355 Y-7.6499 I0.9166 J0.3998
G3 X-164.263 Y-10.9902 I8.0423 J3.6951
G3 X-164.2612 Y-10.9916 I0.6067 J0.7949
G3 X-159.7833 Y-13.1 I7.1939 J9.4691
G3 X-158.0483 Y-13.4308 I4.537 J19.0833
G1 F300.0 Z-1.6
G3 F800.0 X-155.0469 Y-13.6309 I2.802 J19.414
G3 X-150.6433 Y-13.1115 I0.1775 J17.4221
G3 X-146.5029 Y-11.0977 I-2.6824 J10.7783
G3 X-146.4932 Y-11.09 I-0.6143 J0.7891
G3 X-143.2283 Y-4.0106 I-5.4254 J6.7947
G3 X-143.9884 Y-0.1654 I-9.5657 J0.1067
G3 X-143.9951 Y-0.15 I-0.9205 J-0.3908
G3 X-146.3822 Y3.0256 I-8.0893 J-3.5957
G3 X-150.0381 Y5.0914 I-6.8983 J-7.9404
G3 X-150.0448 Y5.0935 I-0.3083 J-0.9513
G3 X-154.1174 Y5.7012 I-3.9409 J-12.4607
G1 X-158.3777
G3 X-165.0265 Y3.1022 I-0.1983 J-9.2967
G3 X-167.7717 Y-3.5182 I6.0448 J-6.3859
G3 X-166.9434 Y-7.6322 I9.9429 J-0.1385
G3 X-166.9355 Y-7.6499 I0.9166 J0.3998
G3 X-164.263 Y-10.9902 I8.0423 J3.6951
G3 X-164.2612 Y-10.9916 I0.6067 J0.7949
G3 X-159.7833 Y-13.1 I7.1939 J9.4691
G3 X-158.0483 Y-13.4308 I4.537 J19.0833
G0 Z3.0
G0 X-158.491 Y-16.1088
G0 Z0.2
G1 F300.0 Z-1.6
G2 F800.0 X-160.6393 Y-15.637 I3.4261 J20.7267
G2 X-165.7098 Y-12.9927 I3.6746 J13.23
G3 X-165.713 Y-12.9901 I-0.6369 J-0.7709
G2 X-168.7215 Y-9.0429 I6.8038 J8.306
G2 X-169.6798 Y-4.1211 I11.242 J4.743
G3 X-169.68 Y-4.083 I-0.9999 J0.0147
G2 X-168.6865 Y0.4624 I9.8409 J0.2305
G2 X-165.494 Y3.7131 I7.0709 J-3.7513
G3 X-164.9785 Y4.5879 I-0.4845 J0.8748
G1 Y4.7012
G3 X-165.9785 Y5.7012 I-1.0 J0.0
G1 X-182.9336
G1 Y8.3457
G1 X-142.0
G1 Y5.7012
G1 X-145.9277
G3 X-146.9277 Y4.7012 I0.0 J-1.0
G1 Y4.5879
G3 X-146.4085 Y3.7111 I1.0 J0.0
G2 X-142.5612 Y-0.0675 I-4.7768 J-8.7117
G2 X-141.3201 Y-5.358 I-9.598 J-5.0425
G3 X-141.3202 Y-5.3954 I0.9997 J-0.0229
G2 X-142.1681 Y-9.813 I-11.0913 J-0.1614
G2 X-144.8362 Y-13.3601 I-8.8161 J3.8543
G2 X-149.4786 Y-15.7284 I-7.7789 J9.5142
G2 X-154.809 Y-16.3887 I-5.1045 J19.3607
G3 X-154.8314 I-0.0113 J-0.9999
G2 X-158.491 Y-16.1088 I-0.2334 J21.0067
G1 F300.0 Z-2.4
G2 F800.0 X-160.6393 Y-15.637 I3.4261 J20.7267
G2 X-165.7098 Y-12.9927 I3.6746 J13.23
G3 X-165.713 Y-12.9901 I-0.6369 J-0.7709
G2 X-168.7215 Y-9.0429 I6.8038 J8.306
G2 X-169.6798 Y-4.1211 I11.242 J4.743
G3 X-169.68 Y-4.083 I-0.9999 J0.0147
G2 X-168.6865 Y0.4624 I9.8409 J0.2305
G2 X-165.494 Y3.7131 I7.0709 J-3.7513
G3 X-164.9785 Y4.5879 I-0.4845 J0.8748
G1 Y4.7012
G3 X-165.9785 Y5.7012 I-1.0 J0.0
G1 X-182.9336
G1 Y8.3457
G1 X-142.0
G1 Y5.7012
G1 X-145.9277
G3 X-146.9277 Y4.7012 I0.0 J-1.0
G1 Y4.5879
G3 X-146.4085 Y3.7111 I1.0 J0.0
G2 X-142.5612 Y-0.0675 I-4.7768 J-8.7117
G2 X-141.3201 Y-5.358 I-9.598 J-5.0425
G3 X-141.3202 Y-5.3954 I0.9997 J-0.0229
G2 X-142.1681 Y-9.813 I-11.0913 J-0.1614
G2 X-144.8362 Y-13.3601 I-8.8161 J3.8543
G2 X-149.4786 Y-15.7284 I-7.7789 J9.5142
G2 X-154.809 Y-16.3887 I-5.1045 J19.3607
G3 X-154.8314 I-0.0113 J-0.9999
G2 X-158.491 Y-16.1088 I-0.2334 J21.0067
G0 Z3.0
G0 X-158.0966 Y-13.4237
G0 Z-0.6
G1 F300.0 Z-2.4
G3 F800.0 X-155.0469 Y-13.6309 I2.8503 J19.407
G3 X-150.6433 Y-13.1115 I0.1775 J17.4221
G3 X-146.5029 Y-11.0977 I-2.6824 J10.7783
G3 X-146.4932 Y-11.09 I-0.6143 J0.7891
G3 X-143.2283 Y-4.0106 I-5.4254 J6.7947
G3 X-143.9884 Y-0.1654 I-9.5657 J0.1067
G3 X-143.9951 Y-0.15 I-0.9205 J-0.3908
G3 X-146.3822 Y3.0256 I-8.0893 J-3.5957
G3 X-150.0381 Y5.0914 I-6.8983 J-7.9404
G3 X-150.0448 Y5.0935 I-0.3083 J-0.9513
G3 X-154.1174 Y5.7012 I-3.9409 J-12.4607
G1 X-158.3777
G3 X-165.0265 Y3.1022 I-0.1983 J-9.2967
G3 X-167.7717 Y-3.5182 I6.0448 J-6.3859
G3 X-166.9434 Y-7.6322 I9.9429 J-0.1385
G3 X-166.9355 Y-7.6499 I0.9166 J0.3998
G3 X-164.263 Y-10.9902 I8.0423 J3.6951
G3 X-164.2612 Y-10.9916 I0.6067 J0.7949
G3 X-159.7833 Y-13.1 I7.1939 J9.4691
G3 X-158.0966 Y-13.4237 I4.537 J19.0833
G1 F300.0 Z-3.2
G3 F800.0 X-155.0469 Y-13.6309 I2.8503 J19.407
G3 X-150.6433 Y-13.1115 I0.1775 J17.4221
G3 X-146.5029 Y-11.0977 I-2.6824 J10.7783
G3 X-146.4932 Y-11.09 I-0.6143 J0.7891
G3 X-143.2283 Y-4.0106 I-5.4254 J6.7947
G3 X-143.9884 Y-0.1654 I-9.5657 J0.1067
G3 X-143.9951 Y-0.15 I-0.9205 J-0.3908
G3 X-146.3822 Y3.0256 I-8.0893 J-3.5957
G3 X-150.0381 Y5.0914 I-6.8983 J-7.9404
G3 X-150.0448 Y5.0935 I-0.3083 J-0.9513
G3 X-154.1174 Y5.7012 I-3.9409 J-12.4607
G1 X-158.3777
G3 X-165.0265 Y3.1022 I-0.1983 J-9.2967
G3 X-167.7717 Y-3.5182 I6.0448 J-6.3859
G3 X-166.9434 Y-7.6322 I9.9429 J-0.1385
G3 X-166.9355 Y-7.6499 I0.9166 J0.3998
G3 X-164.263 Y-10.9902 I8.0423 J3.6951
G3 X-164.2612 Y-10.9916 I0.6067 J0.7949
G3 X-159.7833 Y-13.1 I7.1939 J9.4691
G3 X-158.0966 Y-13.4237 I4.537 J19.0833
G0 Z3.0
G0 X-158.5463 Y-16.0996
G0 Z-1.4
G1 F300.0 Z-3.2
G2 F800.0 X-160.6393 Y-15.637 I3.4814 J20.7175
G2 X-165.7098 Y-12.9927 I3.6746 J13.23
G3 X-165.713 Y-12.9901 I-0.6369 J-0.7709
G2 X-168.7215 Y-9.0429 I6.8038 J8.306
G2 X-169.6798 Y-4.1211 I11.242 J4.743
G3 X-169.68 Y-4.083 I-0.9999 J0.0147
G2 X-168.6865 Y0.4624 I9.8409 J0.2305
G2 X-165.494 Y3.7131 I7.0709 J-3.7513
G3 X-164.9785 Y4.5879 I-0.4845 J0.8748
G1 Y4.7012
G3 X-165.9785 Y5.7012 I-1.0 J0.0
G1 X-182.9336
G1 Y8.3457
G1 X-142.0
G1 Y5.7012
G1 X-145.9277
G3 X-146.9277 Y4.7012 I0.0 J-1.0
G1 Y4.5879
G3 X-146.4085 Y3.7111 I1.0 J0.0
G2 X-142.5612 Y-0.0675 I-4.7768 J-8.7117
G2 X-141.3201 Y-5.358 I-9.598 J-5.0425
G3 X-141.3202 Y-5.3954 I0.9997 J-0.0229
G2 X-142.1681 Y-9.813 I-11.0913 J-0.1614
G2 X-144.8362 Y-13.3601 I-8.8161 J3.8543
G2 X-149.4786 Y-15.7284 I-7.7789 J9.5142
G2 X-154.809 Y-16.3887 I-5.1045 J19.3607
G3 X-154.8314 I-0.0113 J-0.9999
G2 X-158.5463 Y-16.0996 I-0.2334 J21.0067
G1 F300.0 Z-4.0
G2 F800.0 X-160.6393 Y-15.637 I3.4814 J20.7175
G2 X-165.7098 Y-12.9927 I3.6746 J13.23
G3 X-165.713 Y-12.9901 I-0.6369 J-0.7709
G2 X-168.7215 Y-9.0429 I6.8038 J8.306
G2 X-169.6798 Y-4.1211 I11.242 J4.743
G3 X-169.68 Y-4.083 I-0.9999 J0.0147
G2 X-168.6865 Y0.4624 I9.8409 J0.2305
G2 X-165.494 Y3.7131 I7.0709 J-3.7513
G3 X-164.9785 Y4.5879 I-0.4845 J0.8748
G1 Y4.7012
G3 X-165.9785 Y5.7012 I-1.0 J0.0
G1 X-182.9336
G1 Y8.3457
G1 X-142.0
G1 Y5.7012
G1 X-145.9277
G3 X-146.9277 Y4.7012 I0.0 J-1.0
G1 Y4.5879
G3 X-146.4085 Y3.7111 I1.0 J0.0
G2 X-142.5612 Y-0.0675 I-4.7768 J-8.7117
G2 X-141.3201 Y-5.358 I-9.598 J-5.0425
G3 X-141.3202 Y-5.3954 I0.9997 J-0.0229
G2 X-142.1681 Y-9.813 I-11.0913 J-0.1614
G2 X-144.8362 Y-13.3601 I-8.8161 J3.8543
G2 X-149.4786 Y-15.7284 I-7.7789 J9.5142
G2 X-154.809 Y-16.3887 I-5.1045 J19.3607
G3 X-154.8314 I-0.0113 J-0.9999
G2 X-158.5463 Y-16.0996 I-0.2334 J21.0067
G0 Z3.0
G0 X-158.1453 Y-13.4165
G0 Z-2.2
G1 F300.0 Z-4.0
G3 F800.0 X-155.0469 Y-13.6309 I2.899 J19.3998
G3 X-150.6433 Y-13.1115 I0.1775 J17.4221
G3 X-146.5029 Y-11.0977 I-2.6824 J10.7783
G3 X-146.4932 Y-11.09 I-0.6143 J0.7891
G3 X-143.2283 Y-4.0106 I-5.4254 J6.7947
G3 X-143.9884 Y-0.1654 I-9.5657 J0.1067
G3 X-143.9951 Y-0.15 I-0.9205 J-0.3908
G3 X-146.3822 Y3.0256 I-8.0893 J-3.5957
G3 X-150.0381 Y5.0914 I-6.8983 J-7.9404
G3 X-150.0448 Y5.0935 I-0.3083 J-0.9513
G3 X-154.1174 Y5.7012 I-3.9409 J-12.4607
G1 X-158.3777
G3 X-165.0265 Y3.1022 I-0.1983 J-9.2967
G3 X-167.7717 Y-3.5182 I6.0448 J-6.3859
G3 X-166.9434 Y-7.6322 I9.9429 J-0.1385
G3 X-166.9355 Y-7.6499 I0.9166 J0.3998
G3 X-164.263 Y-10.9902 I8.0423 J3.6951
G3 X-164.2612 Y-10.9916 I0.6067 J0.7949
G3 X-159.7833 Y-13.1 I7.1939 J9.4691
G3 X-158.1453 Y-13.4165 I4.537 J19.0833
G1 F300.0 Z-4.8
G3 F800.0 X-155.0469 Y-13.6309 I2.899 J19.3998
G3 X-150.6433 Y-13.1115 I0.1775 J17.4221
G3 X-146.5029 Y-11.0977 I-2.6824 J10.7783
G3 X-146.4932 Y-11.09 I-0.6143 J0.7891
G3 X-143.2283 Y-4.0106 I-5.4254 J6.7947
G3 X-143.9884 Y-0.1654 I-9.5657 J0.1067
G3 X-143.9951 Y-0.15 I-0.9205 J-0.3908
G3 X-146.3822 Y3.0256 I-8.0893 J-3.5957
G3 X-150.0381 Y5.0914 I-6.8983 J-7.9404
G3 X-150.0448 Y5.0935 I-0.3083 J-0.9513
G3 X-154.1174 Y5.7012 I-3.9409 J-12.4607
G1 X-158.3777
G3 X-165.0265 Y3.1022 I-0.1983 J-9.2967
G3 X-167.7717 Y-3.5182 I6.0448 J-6.3859
G3 X-166.9434 Y-7.6322 I9.9429 J-0.1385
G3 X-166.9355 Y-7.6499 I0.9166 J0.3998
G3 X-164.263 Y-10.9902 I8.0423 J3.6951
G3 X-164.2612 Y-10.9916 I0.6067 J0.7949
G3 X-159.7833 Y-13.1 I7.1939 J9.4691
G3 X-158.1453 Y-13.4165 I4.537 J19.0833
G0 Z3.0
G0 X-158.602 Y-16.0901
G0 Z-3.0
G1 F300.0 Z-4.8
G2 F800.0 X-160.6393 Y-15.637 I3.5372 J20.708
G2 X-165.7098 Y-12.9927 I3.6746 J13.23
G3 X-165.713 Y-12.9901 I-0.6369 J-0.7709
G2 X-168.7215 Y-9.0429 I6.8038 J8.306
G2 X-169.6798 Y-4.1211 I11.242 J4.743
G3 X-169.68 Y-4.083 I-0.9999 J0.0147
G2 X-168.6865 Y0.4624 I9.8409 J0.2305
G2 X-165.494 Y3.7131 I7.0709 J-3.7513
G3 X-164.9785 Y4.5879 I-0.4845 J0.8748
G1 Y4.7012
G3 X-165.9785 Y5.7012 I-1.0 J0.0
G1 X-182.9336
G1 Y8.3457
G1 X-142.0
G1 Y5.7012
G1 X-145.9277
G3 X-146.9277 Y4.7012 I0.0 J-1.0
G1 Y4.5879
G3 X-146.4085 Y3.7111 I1.0 J0.0
G2 X-142.5612 Y-0.0675 I-4.7768 J-8.7117
G2 X-141.3201 Y-5.358 I-9.598 J-5.0425
G3 X-141.3202 Y-5.3954 I0.9997 J-0.0229
G2 X-142.1681 Y-9.813 I-11.0913 J-0.1614
G2 X-144.8362 Y-13.3601 I-8.8161 J3.8543
G2 X-149.4786 Y-15.7284 I-7.7789 J9.5142
G2 X-154.809 Y-16.3887 I-5.1045 J19.3607
G3 X-154.8314 I-0.0113 J-0.9999
G2 X-158.602 Y-16.0901 I-0.2334 J21.0067
G1 F300.0 Z-5.0
G2 F800.0 X-160.6393 Y-15.637 I3.5372 J20.708
G2 X-165.7098 Y-12.9927 I3.6746 J13.23
G3 X-165.713 Y-12.9901 I-0.6369 J-0.7709
G2 X-168.7215 Y-9.0429 I6.8038 J8.306
G2 X-169.6798 Y-4.1211 I11.242 J4.743
G3 X-169.68 Y-4.083 I-0.9999 J0.0147
G2 X-168.6865 Y0.4624 I9.8409 J0.2305
G2 X-165.494 Y3.7131 I7.0709 J-3.7513
G3 X-164.9785 Y4.5879 I-0.4845 J0.8748
G1 Y4.7012
G3 X-165.9785 Y5.7012 I-1.0 J0.0
G1 X-182.9336
G1 Y8.3457
G1 X-142.0
G1 Y5.7012
G1 X-145.9277
G3 X-146.9277 Y4.7012 I0.0 J-1.0
G1 Y4.5879
G3 X-146.4085 Y3.7111 I1.0 J0.0
G2 X-142.5612 Y-0.0675 I-4.7768 J-8.7117
G2 X-141.3201 Y-5.358 I-9.598 J-5.0425
G3 X-141.3202 Y-5.3954 I0.9997 J-0.0229
G2 X-142.1681 Y-9.813 I-11.0913 J-0.1614
G2 X-144.8362 Y-13.3601 I-8.8161 J3.8543
G2 X-149.4786 Y-15.7284 I-7.7789 J9.5142
G2 X-154.809 Y-16.3887 I-5.1045 J19.3607
G3 X-154.8314 I-0.0113 J-0.9999
G2 X-158.602 Y-16.0901 I-0.2334 J21.0067
G0 Z3.0
G0 X-158.1944 Y-13.4091
G0 Z-3.2
G1 F300.0 Z-5.0
G3 F800.0 X-155.0469 Y-13.6309 I2.9481 J19.3924
G3 X-150.6433 Y-13.1115 I0.1775 J17.4221
G3 X-146.5029 Y-11.0977 I-2.6824 J10.7783
G3 X-146.4932 Y-11.09 I-0.6143 J0.7891
G3 X-143.2283 Y-4.0106 I-5.4254 J6.7947
G3 X-143.9884 Y-0.1654 I-9.5657 J0.1067
G3 X-143.9951 Y-0.15 I-0.9205 J-0.3908
G3 X-146.3822 Y3.0256 I-8.0893 J-3.5957
G3 X-150.0381 Y5.0914 I-6.8983 J-7.9404
G3 X-150.0448 Y5.0935 I-0.3083 J-0.9513
G3 X-154.1174 Y5.7012 I-3.9409 J-12.4607
G1 X-158.3777
G3 X-165.0265 Y3.1022 I-0.1983 J-9.2967
G3 X-167.7717 Y-3.5182 I6.0448 J-6.3859
G3 X-166.9434 Y-7.6322 I9.9429 J-0.1385
G3 X-166.9355 Y-7.6499 I0.9166 J0.3998
G3 X-164.263 Y-10.9902 I8.0423 J3.6951
G3 X-164.2612 Y-10.9916 I0.6067 J0.7949
G3 X-159.7833 Y-13.1 I7.1939 J9.4691
G3 X-158.1944 Y-13.4091 I4.537 J19.0833
G0 Z3.0
G0 X-167.2779 Y16.5955
G0 Z1.0
G1 F300.0 Z-0.8
G1 F800.0 X-169.0 Y16.0741
G1 Y18.8358
G1 X-147.9376 Y24.6348
G2 X-145.5349 Y24.9995 I3.0635 J-12.0866
G3 X-144.5879 Y25.998 I-0.053 J0.9986
G1 Y26.2246
G3 X-145.5098 Y27.2216 I-1.0 J0.0
G2 X-147.9543 Y27.6896 I0.8769 J11.1959
G3 X-147.9563 Y27.6903 I-0.2957 J-0.9553
G1 X-169.0 Y34.1568
G1 Y36.9036
G1 X-147.8832 Y42.7025
G2 X-145.453 Y43.0978 I3.5932 J-14.4232
G3 X-144.5313 Y44.0947 I-0.0782 J0.9969
G1 Y44.3213
G3 X-145.4571 Y45.3185 I-1.0 J0.0
G2 X-147.8496 Y45.7606 I0.8326 J11.2003
G3 X-147.8766 Y45.7683 I-0.2871 J-0.9579
G1 X-169.0 Y51.4596
G1 Y53.9375
G1 X-142.0 Y45.8427
G1 Y42.5252
G1 X-162.0291 Y36.7597
G2 X-164.5155 Y36.3416 I-3.3211 J12.1476
G3 X-165.4492 Y35.3438 I0.0663 J-0.9978
G1 Y35.2305
G3 X-164.5677 Y34.2375 I1.0 J0.0
G2 X-162.1351 Y33.6882 I-1.4333 J-12.0086
G3 X-162.1129 Y33.681 I0.3197 J0.9475
G1 X-142.0 Y27.4145
G1 Y24.2479
G1 X-167.2779 Y16.5955
G1 F300.0 Z-1.6
G1 F800.0 X-169.0 Y16.0741
G1 Y18.8358
G1 X-147.9376 Y24.6348
G2 X-145.5349 Y24.9995 I3.0635 J-12.0866
G3 X-144.5879 Y25.998 I-0.053 J0.9986
G1 Y26.2246
G3 X-145.5098 Y27.2216 I-1.0 J0.0
G2 X-147.9543 Y27.6896 I0.8769 J11.1959
G3 X-147.9563 Y27.6903 I-0.2957 J-0.9553
G1 X-169.0 Y34.1568
G1 Y36.9036
G1 X-147.8832 Y42.7025
G2 X-145.453 Y43.0978 I3.5932 J-14.4232
G3 X-144.5313 Y44.0947 I-0.0782 J0.9969
G1 Y44.3213
G3 X-145.4571 Y45.3185 I-1.0 J0.0
G2 X-147.8496 Y45.7606 I0.8326 J11.2003
G3 X-147.8766 Y45.7683 I-0.2871 J-0.9579
G1 X-169.0 Y51.4596
G1 Y53.9375
G1 X-142.0 Y45.8427
G1 Y42.5252
G1 X-162.0291 Y36.7597
G2 X-164.5155 Y36.3416 I-3.3211 J12.1476
G3 X-165.4492 Y35.3438 I0.0663 J-0.9978
G1 Y35.2305
G3 X-164.5677 Y34.2375 I1.0 J0.0
G2 X-162.1351 Y33.6882 I-1.4333 J-12.0086
G3 X-162.1129 Y33.681 I0.3197 J0.9475
G1 X-142.0 Y27.4145
G1 Y24.2479
G1 X-167.2779 Y16.5955
G1 F300.0 Z-2.4
G1 F800.0 X-169.0 Y16.0741
G1 Y18.8358
G1 X-147.9376 Y24.6348
G2 X-145.5349 Y24.9995 I3.0635 J-12.0866
G3 X-144.5879 Y25.998 I-0.053 J0.9986
G1 Y26.2246
G3 X-145.5098 Y27.2216 I-1.0 J0.0
G2 X-147.9543 Y27.6896 I0.8769 J11.1959
G3 X-147.9563 Y27.6903 I-0.2957 J-0.9553
G1 X-169.0 Y34.1568
G1 Y36.9036
G1 X-147.8832 Y42.7025
G2 X-145.453 Y43.0978 I3.5932 J-14.4232
G3 X-144.5313 Y44.0947 I-0.0782 J0.9969
G1 Y44.3213
G3 X-145.4571 Y45.3185 I-1.0 J0.0
G2 X-147.8496 Y45.7606 I0.8326 J11.2003
G3 X-147.8766 Y45.7683 I-0.2871 J-0.9579
G1 X-169.0 Y51.4596
G1 Y53.9375
G1 X-142.0 Y45.8427
G1 Y42.5252
G1 X-162.0291 Y36.7597
G2 X-164.5155 Y36.3416 I-3.3211 J12.1476
G3 X-165.4492 Y35.3438 I0.0663 J-0.9978
G1 Y35.2305
G3 X-164.5677 Y34.2375 I1.0 J0.0
G2 X-162.1351 Y33.6882 I-1.4333 J-12.0086
G3 X-162.1129 Y33.681 I0.3197 J0.9475
G1 X-142.0 Y27.4145
G1 Y24.2479
G1 X-167.2779 Y16.5955
G1 F300.0 Z-3.2
G1 F800.0 X-169.0 Y16.0741
G1 Y18.8358
G1 X-147.9376 Y24.6348
G2 X-145.5349 Y24.9995 I3.0635 J-12.0866
G3 X-144.5879 Y25.998 I-0.053 J0.9986
G1 Y26.2246
G3 X-145.5098 Y27.2216 I-1.0 J0.0
G2 X-147.9543 Y27.6896 I0.8769 J11.1959
G3 X-147.9563 Y27.6903 I-0.2957 J-0.9553
G1 X-169.0 Y34.1568
G1 Y36.9036
G1 X-147.8832 Y42.7025
G2 X-145.453 Y43.0978 I3.5932 J-14.4232
G3 X-144.5313 Y44.0947 I-0.0782 J0.9969
G1 Y44.3213
G3 X-145.4571 Y45.3185 I-1.0 J0.0
G2 X-147.8496 Y45.7606 I0.8326 J11.2003
G3 X-147.8766 Y45.7683 I-0.2871 J-0.9579
G1 X-169.0 Y51.4596
G1 Y53.9375
G1 X-142.0 Y45.8427
G1 Y42.5252
G1 X-162.0291 Y36.7597
G2 X-164.5155 Y36.3416 I-3.3211 J12.1476
G3 X-165.4492 Y35.3438 I0.0663 J-0.9978
G1 Y35.2305
G3 X-164.5677 Y34.2375 I1.0 J0.0
G2 X-162.1351 Y33.6882 I-1.4333 J-12.0086
G3 X-162.1129 Y33.681 I0.3197 J0.9475
G1 X-142.0 Y27.4145
G1 Y24.2479
G1 X-167.2779 Y16.5955
G1 F300.0 Z-4.0
G1 F800.0 X-169.0 Y16.0741
G1 Y18.8358
G1 X-147.9376 Y24.6348
G2 X-145.5349 Y24.9995 I3.0635 J-12.0866
G3 X-144.5879 Y25.998 I-0.053 J0.9986
G1 Y26.2246
G3 X-145.5098 Y27.2216 I-1.0 J0.0
G2 X-147.9543 Y27.6896 I0.8769 J11.1959
G3 X-147.9563 Y27.6903 I-0.2957 J-0.9553
G1 X-169.0 Y34.1568
G1 Y36.9036
G1 X-147.8832 Y42.7025
G2 X-145.453 Y43.0978 I3.5932 J-14.4232
G3 X-144.5313 Y44.0947 I-0.0782 J0.9969
G1 Y44.3213
G3 X-145.4571 Y45.3185 I-1.0 J0.0
G2 X-147.8496 Y45.7606 I0.8326 J11.2003
G3 X-147.8766 Y45.7683 I-0.2871 J-0.9579
G1 X-169.0 Y51.4596
G1 Y53.9375
G1 X-142.0 Y45.8427
G1 Y42.5252
G1 X-162.0291 Y36.7597
G2 X-164.5155 Y36.3416 I-3.3211 J12.1476
G3 X-165.4492 Y35.3438 I0.0663 J-0.9978
G1 Y35.2305
G3 X-164.5677 Y34.2375 I1.0 J0.0
G2 X-162.1351 Y33.6882 I-1.4333 J-12.0086
G3 X-162.1129 Y33.681 I0.3197 J0.9475
G1 X-142.0 Y27.4145
G1 Y24.2479
G1 X-167.2779 Y16.5955
G1 F300.0 Z-4.8
G1 F800.0 X-169.0 Y16.0741
G1 Y18.8358
G1 X-147.9376 Y24.6348
G2 X-145.5349 Y24.9995 I3.0635 J-12.0866
G3 X-144.5879 Y25.998 I-0.053 J0.9986
G1 Y26.2246
G3 X-145.5098 Y27.2216 I-1.0 J0.0
G2 X-147.9543 Y27.6896 I0.8769 J11.1959
G3 X-147.9563 Y27.6903 I-0.2957 J-0.9553
G1 X-169.0 Y34.1568
G1 Y36.9036
G1 X-147.8832 Y42.7025
G2 X-145.453 Y43.0978 I3.5932 J-14.4232
G3 X-144.5313 Y44.0947 I-0.0782 J0.9969
G1 Y44.3213
G3 X-145.4571 Y45.3185 I-1.0 J0.0
G2 X-147.8496 Y45.7606 I0.8326 J11.2003
G3 X-147.8766 Y45.7683 I-0.2871 J-0.9579
G1 X-169.0 Y51.4596
G1 Y53.9375
G1 X-142.0 Y45.8427
G1 Y42.5252
G1 X-162.0291 Y36.7597
G2 X-164.5155 Y36.3416 I-3.3211 J12.1476
G3 X-165.4492 Y35.3438 I0.0663 J-0.9978
G1 Y35.2305
G3 X-164.5677 Y34.2375 I1.0 J0.0
G2 X-162.1351 Y33.6882 I-1.4333 J-12.0086
G3 X-162.1129 Y33.681 I0.3197 J0.9475
G1 X-142.0 Y27.4145
G1 Y24.2479
G1 X-167.2779 Y16.5955
G1 F300.0 Z-5.0
G1 F800.0 X-169.0 Y16.0741
G1 Y18.8358
G1 X-147.9376 Y24.6348
G2 X-145.5349 Y24.9995 I3.0635 J-12.0866
G3 X-144.5879 Y25.998 I-0.053 J0.9986
G1 Y26.2246
G3 X-145.5098 Y27.2216 I-1.0 J0.0
G2 X-147.9543 Y27.6896 I0.8769 J11.1959
G3 X-147.9563 Y27.6903 I-0.2957 J-0.9553
G1 X-169.0 Y34.1568
G1 Y36.9036
G1 X-147.8832 Y42.7025
G2 X-145.453 Y43.0978 I3.5932 J-14.4232
G3 X-144.5313 Y44.0947 I-0.0782 J0.9969
G1 Y44.3213
G3 X-145.4571 Y45.3185 I-1.0 J0.0
G2 X-147.8496 Y45.7606 I0.8326 J11.2003
G3 X-147.8766 Y45.7683 I-0.2871 J-0.9579
G1 X-169.0 Y51.4596
G1 Y53.9375
G1 X-142.0 Y45.8427
G1 Y42.5252
G1 X-162.0291 Y36.7597
G2 X-164.5155 Y36.3416 I-3.3211 J12.1476
G3 X-165.4492 Y35.3438 I0.0663 J-0.9978
G1 Y35.2305
G3 X-164.5677 Y34.2375 I1.0 J0.0
G2 X-162.1351 Y33.6882 I-1.4333 J-12.0086
G3 X-162.1129 Y33.681 I0.3197 J0.9475
G1 X-142.0 Y27.4145
G1 Y24.2479
G1 X-167.2779 Y16.5955
G0 Z3.0
G0 X-158.9655 Y59.9977
G0 Z1.0
G1 F300.0 Z-0.8
G2 F800.0 X-160.9552 Y60.4986 I3.3636 J17.563
G2 X-165.7346 Y63.2465 I4.0362 J12.5505
G3 X-165.7428 Y63.2538 I-0.6687 J-0.7435
G2 X-168.6918 Y67.2098 I7.863 J8.9385
G2 X-169.6797 Y72.0359 I10.6681 J4.698
G3 X-169.6798 Y72.0628 I-0.9999 J0.011
G2 X-168.9144 Y76.5175 I12.2114 J0.1949
G2 X-166.3582 Y80.086 I8.2349 J-3.1992
G2 X-161.9135 Y82.349 I7.2904 J-8.8227
G3 X-161.9123 Y82.3493 I-0.2486 J0.9686
G2 X-156.786 Y82.9698 I4.8989 J-18.9859
G3 X-156.7744 Y82.9697 I0.0116 J0.9999
G1 X-155.3389
G1 Y63.4941
G3 X-154.3279 Y62.4942 I1.0 J0.0
G3 X-150.0708 Y63.1416 I-0.1692 J15.4323
G3 X-150.0705 Y63.1417 I-0.2868 J0.958
G3 X-146.1819 Y65.3667 I-2.8387 J9.4716
G3 X-146.1757 Y65.3725 I-0.6804 J0.7329
G3 X-143.8741 Y68.9146 I-6.1555 J6.5187
G3 X-143.8711 Y68.9233 I-0.9433 J0.332
G3 X-143.2285 Y72.9612 I-11.3399 J3.8746
G3 X-145.5159 Y80.959 I-15.2573 J-0.0376
G1 X-143.6244
G2 X-141.8838 Y76.8936 I-10.7421 J-7.0047
G3 X-141.8835 Y76.8923 I0.9734 J0.2292
G2 X-141.3203 Y71.8583 I-20.3999 J-4.8309
G3 X-141.3202 Y71.8338 I1.0 J-0.0097
G2 X-142.1533 Y66.9338 I-13.6373 J-0.2023
G2 X-144.9156 Y62.9438 I-9.5118 J3.634
G2 X-149.7568 Y60.3813 I-7.9724 J9.2076
G3 X-149.7575 Y60.3811 I0.2571 J-0.9664
G2 X-155.3745 Y59.6796 I-5.3631 J20.1033
G3 X-155.3981 I-0.0122 J-0.9999
G2 X-158.9655 Y59.9977 I-0.2037 J17.881
G1 F300.0 Z-1.6
G2 F800.0 X-160.9552 Y60.4986 I3.3636 J17.563
G2 X-165.7346 Y63.2465 I4.0362 J12.5505
G3 X-165.7428 Y63.2538 I-0.6687 J-0.7435
G2 X-168.6918 Y67.2098 I7.863 J8.9385
G2 X-169.6797 Y72.0359 I10.6681 J4.698
G3 X-169.6798 Y72.0628 I-0.9999 J0.011
G2 X-168.9144 Y76.5175 I12.2114 J0.1949
G2 X-166.3582 Y80.086 I8.2349 J-3.1992
G2 X-161.9135 Y82.349 I7.2904 J-8.8227
G3 X-161.9123 Y82.3493 I-0.2486 J0.9686
G2 X-156.786 Y82.9698 I4.8989 J-18.9859
G3 X-156.7744 Y82.9697 I0.0116 J0.9999
G1 X-155.3389
G1 Y63.4941
G3 X-154.3279 Y62.4942 I1.0 J0.0
G3 X-150.0708 Y63.1416 I-0.1692 J15.4323
G3 X-150.0705 Y63.1417 I-0.2868 J0.958
G3 X-146.1819 Y65.3667 I-2.8387 J9.4716
G3 X-146.1757 Y65.3725 I-0.6804 J0.7329
G3 X-143.8741 Y68.9146 I-6.1555 J6.5187
G3 X-143.8711 Y68.9233 I-0.9433 J0.332
G3 X-143.2285 Y72.9612 I-11.3399 J3.8746
G3 X-145.5159 Y80.959 I-15.2573 J-0.0376
G1 X-143.6244
G2 X-141.8838 Y76.8936 I-10.7421 J-7.0047
G3 X-141.8835 Y76.8923 I0.9734 J0.2292
G2 X-141.3203 Y71.8583 I-20.3999 J-4.8309
G3 X-141.3202 Y71.8338 I1.0 J-0.0097
G2 X-142.1533 Y66.9338 I-13.6373 J-0.2023
G2 X-144.9156 Y62.9438 I-9.5118 J3.634
G2 X-149.7568 Y60.3813 I-7.9724 J9.2076
G3 X-149.7575 Y60.3811 I0.2571 J-0.9664
G2 X-155.3745 Y59.6796 I-5.3631 J20.1033
G3 X-155.3981 I-0.0122 J-0.9999
G2 X-158.9655 Y59.9977 I-0.2037 J17.881
G1 F300.0 Z-2.4
G2 F800.0 X-160.9552 Y60.4986 I3.3636 J17.563
G2 X-165.7346 Y63.2465 I4.0362 J12.5505
G3 X-165.7428 Y63.2538 I-0.6687 J-0.7435
G2 X-168.6918 Y67.2098 I7.863 J8.9385
G2 X-169.6797 Y72.0359 I10.6681 J4.698
G3 X-169.6798 Y72.0628 I-0.9999 J0.011
G2 X-168.9144 Y76.5175 I12.2114 J0.1949
G2 X-166.3582 Y80.086 I8.2349 J-3.1992
G2 X-161.9135 Y82.349 I7.2904 J-8.8227
G3 X-161.9123 Y82.3493 I-0.2486 J0.9686
G2 X-156.786 Y82.9698 I4.8989 J-18.9859
G3 X-156.7744 Y82.9697 I0.0116 J0.9999
G1 X-155.3389
G1 Y63.4941
G3 X-154.3279 Y62.4942 I1.0 J0.0
G3 X-150.0708 Y63.1416 I-0.1692 J15.4323
G3 X-150.0705 Y63.1417 I-0.2868 J0.958
G3 X-146.1819 Y65.3667 I-2.8387 J9.4716
G3 X-146.1757 Y65.3725 I-0.6804 J0.7329
G3 X-143.8741 Y68.9146 I-6.1555 J6.5187
G3 X-143.8711 Y68.9233 I-0.9433 J0.332
G3 X-143.2285 Y72.9612 I-11.3399 J3.8746
G3 X-145.5159 Y80.959 I-15.2573 J-0.0376
G1 X-143.6244
G2 X-141.8838 Y76.8936 I-10.7421 J-7.0047
G3 X-141.8835 Y76.8923 I0.9734 J0.2292
G2 X-141.3203 Y71.8583 I-20.3999 J-4.8309
G3 X-141.3202 Y71.8338 I1.0 J-0.0097
G2 X-142.1533 Y66.9338 I-13.6373 J-0.2023
G2 X-144.9156 Y62.9438 I-9.5118 J3.634
G2 X-149.7568 Y60.3813 I-7.9724 J9.2076
G3 X-149.7575 Y60.3811 I0.2571 J-0.9664
G2 X-155.3745 Y59.6796 I-5.3631 J20.1033
G3 X-155.3981 I-0.0122 J-0.9999
G2 X-158.9655 Y59.9977 I-0.2037 J17.881
G1 F300.0 Z-3.2
G2 F800.0 X-160.9552 Y60.4986 I3.3636 J17.563
G2 X-165.7346 Y63.2465 I4.0362 J12.5505
G3 X-165.7428 Y63.2538 I-0.6687 J-0.7435
G2 X-168.6918 Y67.2098 I7.863 J8.9385
G2 X-169.6797 Y72.0359 I10.6681 J4.698
G3 X-169.6798 Y72.0628 I-0.9999 J0.011
G2 X-168.9144 Y76.5175 I12.2114 J0.1949
G2 X-166.3582 Y80.086 I8.2349 J-3.1992
G2 X-161.9135 Y82.349 I7.2904 J-8.8227
G3 X-161.9123 Y82.3493 I-0.2486 J0.9686
G2 X-156.786 Y82.9698 I4.8989 J-18.9859
G3 X-156.7744 Y82.9697 I0.0116 J0.9999
G1 X-155.3389
G1 Y63.4941
G3 X-154.3279 Y62.4942 I1.0 J0.0
G3 X-150.0708 Y63.1416 I-0.1692 J15.4323
G3 X-150.0705 Y63.1417 I-0.2868 J0.958
G3 X-146.1819 Y65.3667 I-2.8387 J9.4716
G3 X-146.1757 Y65.3725 I-0.6804 J0.7329
G3 X-143.8741 Y68.9146 I-6.1555 J6.5187
G3 X-143.8711 Y68.9233 I-0.9433 J0.332
G3 X-143.2285 Y72.9612 I-11.3399 J3.8746
G3 X-145.5159 Y80.959 I-15.2573 J-0.0376
G1 X-143.6244
G2 X-141.8838 Y76.8936 I-10.7421 J-7.0047
G3 X-141.8835 Y76.8923 I0.9734 J0.2292
G2 X-141.3203 Y71.8583 I-20.3999 J-4.8309
G3 X-141.3202 Y71.8338 I1.0 J-0.0097
G2 X-142.1533 Y66.9338 I-13.6373 J-0.2023
G2 X-144.9156 Y62.9438 I-9.5118 J3.634
G2 X-149.7568 Y60.3813 I-7.9724 J9.2076
G3 X-149.7575 Y60.3811 I0.2571 J-0.9664
G2 X-155.3745 Y59.6796 I-5.3631 J20.1033
G3 X-155.3981 I-0.0122 J-0.9999
G2 X-158.9655 Y59.9977 I-0.2037 J17.881
G1 F300.0 Z-4.0
G2 F800.0 X-160.9552 Y60.4986 I3.3636 J17.563
G2 X-165.7346 Y63.2465 I4.0362 J12.5505
G3 X-165.7428 Y63.2538 I-0.6687 J-0.7435
G2 X-168.6918 Y67.2098 I7.863 J8.9385
G2 X-169.6797 Y72.0359 I10.6681 J4.698
G3 X-169.6798 Y72.0628 I-0.9999 J0.011
G2 X-168.9144 Y76.5175 I12.2114 J0.1949
G2 X-166.3582 Y80.086 I8.2349 J-3.1992
G2 X-161.9135 Y82.349 I7.2904 J-8.8227
G3 X-161.9123 Y82.3493 I-0.2486 J0.9686
G2 X-156.786 Y82.9698 I4.8989 J-18.9859
G3 X-156.7744 Y82.9697 I0.0116 J0.9999
G1 X-155.3389
G1 Y63.4941
G3 X-154.3279 Y62.4942 I1.0 J0.0
G3 X-150.0708 Y63.1416 I-0.1692 J15.4323
G3 X-150.0705 Y63.1417 I-0.2868 J0.958
G3 X-146.1819 Y65.3667 I-2.8387 J9.4716
G3 X-146.1757 Y65.3725 I-0.6804 J0.7329
G3 X-143.8741 Y68.9146 I-6.1555 J6.5187
G3 X-143.8711 Y68.9233 I-0.9433 J0.332
G3 X-143.2285 Y72.9612 I-11.3399 J3.8746
G3 X-145.5159 Y80.959 I-15.2573 J-0.0376
G1 X-143.6244
G2 X-141.8838 Y76.8936 I-10.7421 J-7.0047
G3 X-141.8835 Y76.8923 I0.9734 J0.2292
G2 X-141.3203 Y71.8583 I-20.3999 J-4.8309
G3 X-141.3202 Y71.8338 I1.0 J-0.0097
G2 X-142.1533 Y66.9338 I-13.6373 J-0.2023
G2 X-144.9156 Y62.9438 I-9.5118 J3.634
G2 X-149.7568 Y60.3813 I-7.9724 J9.2076
G3 X-149.7575 Y60.3811 I0.2571 J-0.9664
G2 X-155.3745 Y59.6796 I-5.3631 J20.1033
G3 X-155.3981 I-0.0122 J-0.9999
G2 X-158.9655 Y59.9977 I-0.2037 J17.881
G1 F300.0 Z-4.8
G2 F800.0 X-160.9552 Y60.4986 I3.3636 J17.563
G2 X-165.7346 Y63.2465 I4.0362 J12.5505
G3 X-165.7428 Y63.2538 I-0.6687 J-0.7435
G2 X-168.6918 Y67.2098 I7.863 J8.9385
G2 X-169.6797 Y72.0359 I10.6681 J4.698
G3 X-169.6798 Y72.0628 I-0.9999 J0.011
G2 X-168.9144 Y76.5175 I12.2114 J0.1949
G2 X-166.3582 Y80.086 I8.2349 J-3.1992
G2 X-161.9135 Y82.349 I7.2904 J-8.8227
G3 X-161.9123 Y82.3493 I-0.2486 J0.9686
G2 X-156.786 Y82.9698 I4.8989 J-18.9859
G3 X-156.7744 Y82.9697 I0.0116 J0.9999
G1 X-155.3389
G1 Y63.4941
G3 X-154.3279 Y62.4942 I1.0 J0.0
G3 X-150.0708 Y63.1416 I-0.1692 J15.4323
G3 X-150.0705 Y63.1417 I-0.2868 J0.958
G3 X-146.1819 Y65.3667 I-2.8387 J9.4716
G3 X-146.1757 Y65.3725 I-0.6804 J0.7329
G3 X-143.8741 Y68.9146 I-6.1555 J6.5187
G3 X-143.8711 Y68.9233 I-0.9433 J0.332
G3 X-143.2285 Y72.9612 I-11.3399 J3.8746
G3 X-145.5159 Y80.959 I-15.2573 J-0.0376
G1 X-143.6244
G2 X-141.8838 Y76.8936 I-10.7421 J-7.0047
G3 X-141.8835 Y76.8923 I0.9734 J0.2292
G2 X-141.3203 Y71.8583 I-20.3999 J-4.8309
G3 X-141.3202 Y71.8338 I1.0 J-0.0097
G2 X-142.1533 Y66.9338 I-13.6373 J-0.2023
G2 X-144.9156 Y62.9438 I-9.5118 J3.634
G2 X-149.7568 Y60.3813 I-7.9724 J9.2076
G3 X-149.7575 Y60.3811 I0.2571 J-0.9664
G2 X-155.3745 Y59.6796 I-5.3631 J20.1033
G3 X-155.3981 I-0.0122 J-0.9999
G2 X-158.9655 Y59.9977 I-0.2037 J17.881
G1 F300.0 Z-5.0
G2 F800.0 X-160.9552 Y60.4986 I3.3636 J17.563
G2 X-165.7346 Y63.2465 I4.0362 J12.5505
G3 X-165.7428 Y63.2538 I-0.6687 J-0.7435
G2 X-168.6918 Y67.2098 I7.863 J8.9385
G2 X-169.6797 Y72.0359 I10.6681 J4.698
G3 X-169.6798 Y72.0628 I-0.9999 J0.011
G2 X-168.9144 Y76.5175 I12.2114 J0.1949
G2 X-166.3582 Y80.086 I8.2349 J-3.1992
G2 X-161.9135 Y82.349 I7.2904 J-8.8227
G3 X-161.9123 Y82.3493 I-0.2486 J0.9686
G2 X-156.786 Y82.9698 I4.8989 J-18.9859
G3 X-156.7744 Y82.9697 I0.0116 J0.9999
G1 X-155.3389
G1 Y63.4941
G3 X-154.3279 Y62.4942 I1.0 J0.0
G3 X-150.0708 Y63.1416 I-0.1692 J15.4323
G3 X-150.0705 Y63.1417 I-0.2868 J0.958
G3 X-146.1819 Y65.3667 I-2.8387 J9.4716
G3 X-146.1757 Y65.3725 I-0.6804 J0.7329
G3 X-143.8741 Y68.9146 I-6.1555 J6.5187
G3 X-143.8711 Y68.9233 I-0.9433 J0.332
G3 X-143.2285 Y72.9612 I-11.3399 J3.8746
G3 X-145.5159 Y80.959 I-15.2573 J-0.0376
G1 X-143.6244
G2 X-141.8838 Y76.8936 I-10.7421 J-7.0047
G3 X-141.8835 Y76.8923 I0.9734 J0.2292
G2 X-141.3203 Y71.8583 I-20.3999 J-4.8309
G3 X-141.3202 Y71.8338 I1.0 J-0.0097
G2 X-142.1533 Y66.9338 I-13.6373 J-0.2023
G2 X-144.9156 Y62.9438 I-9.5118 J3.634
G2 X-149.7568 Y60.3813 I-7.9724 J9.2076
G3 X-149.7575 Y60.3811 I0.2571 J-0.9664
G2 X-155.3745 Y59.6796 I-5.3631 J20.1033
G3 X-155.3981 I-0.0122 J-0.9999
G2 X-158.9655 Y59.9977 I-0.2037 J17.881
G0 Z3.0
G0 X-158.5856 Y62.5845
G0 Z1.0
G1 F300.0 Z-0.8
G3 F800.0 X-158.4074 Y62.5595 I1.9476 J13.261
G3 X-157.2754 Y63.5508 I0.132 J0.9912
G1 Y79.2119
G3 X-158.2708 Y80.2119 I-1.0 J0.0
G3 X-161.8333 Y79.7567 I-0.0631 J-13.6746
G3 X-165.1771 Y78.0237 I2.1896 J-8.3173
G3 X-167.1903 Y75.2355 I4.5074 J-5.3753
G3 X-167.1953 Y75.2225 I0.9295 J-0.3688
G3 X-167.7716 Y71.9623 I8.2414 J-3.1378
G3 X-165.1129 Y65.6609 I8.5017 J-0.1246
G3 X-161.9798 Y63.5527 I7.406 J7.6245
G3 X-161.9761 Y63.5511 I0.402 J0.9156
G3 X-158.5856 Y62.5845 I5.3381 J12.2944
G1 F300.0 Z-1.6
G3 F800.0 X-158.4074 Y62.5595 I1.9476 J13.261
G3 X-157.2754 Y63.5508 I0.132 J0.9912
G1 Y79.2119
G3 X-158.2708 Y80.2119 I-1.0 J0.0
G3 X-161.8333 Y79.7567 I-0.0631 J-13.6746
G3 X-165.1771 Y78.0237 I2.1896 J-8.3173
G3 X-167.1903 Y75.2355 I4.5074 J-5.3753
G3 X-167.1953 Y75.2225 I0.9295 J-0.3688
G3 X-167.7716 Y71.9623 I8.2414 J-3.1378
G3 X-165.1129 Y65.6609 I8.5017 J-0.1246
G3 X-161.9798 Y63.5527 I7.406 J7.6245
G3 X-161.9761 Y63.5511 I0.402 J0.9156
G3 X-158.5856 Y62.5845 I5.3381 J12.2944
G1 F300.0 Z-2.4
G3 F800.0 X-158.4074 Y62.5595 I1.9476 J13.261
G3 X-157.2754 Y63.5508 I0.132 J0.9912
G1 Y79.2119
G3 X-158.2708 Y80.2119 I-1.0 J0.0
G3 X-161.8333 Y79.7567 I-0.0631 J-13.6746
G3 X-165.1771 Y78.0237 I2.1896 J-8.3173
G3 X-167.1903 Y75.2355 I4.5074 J-5.3753
G3 X-167.1953 Y75.2225 I0.9295 J-0.3688
G3 X-167.7716 Y71.9623 I8.2414 J-3.1378
G3 X-165.1129 Y65.6609 I8.5017 J-0.1246
G3 X-161.9798 Y63.5527 I7.406 J7.6245
G3 X-161.9761 Y63.5511 I0.402 J0.9156
G3 X-158.5856 Y62.5845 I5.3381 J12.2944
G1 F300.0 Z-3.2
G3 F800.0 X-158.4074 Y62.5595 I1.9476 J13.261
G3 X-157.2754 Y63.5508 I0.132 J0.9912
G1 Y79.2119
G3 X-158.2708 Y80.2119 I-1.0 J0.0
G3 X-161.8333 Y79.7567 I-0.0631 J-13.6746
G3 X-165.1771 Y78.0237 I2.1896 J-8.3173
G3 X-167.1903 Y75.2355 I4.5074 J-5.3753
G3 X-167.1953 Y75.2225 I0.9295 J-0.3688
G3 X-167.7716 Y71.9623 I8.2414 J-3.1378
G3 X-165.1129 Y65.6609 I8.5017 J-0.1246
G3 X-161.9798 Y63.5527 I7.406 J7.6245
G3 X-161.9761 Y63.5511 I0.402 J0.9156
G3 X-158.5856 Y62.5845 I5.3381 J12.2944
G1 F300.0 Z-4.0
G3 F800.0 X-158.4074 Y62.5595 I1.9476 J13.261
G3 X-157.2754 Y63.5508 I0.132 J0.9912
G1 Y79.2119
G3 X-158.2708 Y80.2119 I-1.0 J0.0
G3 X-161.8333 Y79.7567 I-0.0631 J-13.6746
G3 X-165.1771 Y78.0237 I2.1896 J-8.3173
G3 X-167.1903 Y75.2355 I4.5074 J-5.3753
G3 X-167.1953 Y75.2225 I0.9295 J-0.3688
G3 X-167.7716 Y71.9623 I8.2414 J-3.1378
G3 X-165.1129 Y65.6609 I8.5017 J-0.1246
G3 X-161.9798 Y63.5527 I7.406 J7.6245
G3 X-161.9761 Y63.5511 I0.402 J0.9156
G3 X-158.5856 Y62.5845 I5.3381 J12.2944
G1 F300.0 Z-4.8
G3 F800.0 X-158.4074 Y62.5595 I1.9476 J13.261
G3 X-157.2754 Y63.5508 I0.132 J0.9912
G1 Y79.2119
G3 X-158.2708 Y80.2119 I-1.0 J0.0
G3 X-161.8333 Y79.7567 I-0.0631 J-13.6746
G3 X-165.1771 Y78.0237 I2.1896 J-8.3173
G3 X-167.1903 Y75.2355 I4.5074 J-5.3753
G3 X-167.1953 Y75.2225 I0.9295 J-0.3688
G3 X-167.7716 Y71.9623 I8.2414 J-3.1378
G3 X-165.1129 Y65.6609 I8.5017 J-0.1246
G3 X-161.9798 Y63.5527 I7.406 J7.6245
G3 X-161.9761 Y63.5511 I0.402 J0.9156
G3 X-158.5856 Y62.5845 I5.3381 J12.2944
G1 F300.0 Z-5.0
G3 F800.0 X-158.4074 Y62.5595 I1.9476 J13.261
G3 X-157.2754 Y63.5508 I0.132 J0.9912
G1 Y79.2119
G3 X-158.2708 Y80.2119 I-1.0 J0.0
G3 X-161.8333 Y79.7567 I-0.0631 J-13.6746
G3 X-165.1771 Y78.0237 I2.1896 J-8.3173
G3 X-167.1903 Y75.2355 I4.5074 J-5.3753
G3 X-167.1953 Y75.2225 I0.9295 J-0.3688
G3 X-167.7716 Y71.9623 I8.2414 J-3.1378
G3 X-165.1129 Y65.6609 I8.5017 J-0.1246
G3 X-161.9798 Y63.5527 I7.406 J7.6245
G3 X-161.9761 Y63.5511 I0.402 J0.9156
G3 X-158.5856 Y62.5845 I5.3381 J12.2944
G0 Z3.0
G0 X-156.5169 Y90.073
G0 Z1.0
G1 F300.0 Z-0.8
G2 F800.0 X-160.4961 Y90.734 I1.6936 J22.5042
G2 X-165.6939 Y93.3318 I3.5188 J13.5393
G2 X-168.7292 Y97.2985 I6.5386 J8.1479
G2 X-169.6798 Y102.2773 I11.5403 J4.7837
G3 X-169.6799 Y102.3151 I-0.9999 J0.0156
G2 X-168.6673 Y106.8421 I9.6683 J0.214
G2 X-165.4786 Y110.1213 I7.3868 J-3.9931
G3 X-164.9785 Y110.9873 I-0.5 J0.8661
G1 Y111.1006
G3 X-165.9785 Y112.1006 I-1.0 J0.0
G1 X-169.0
G1 Y114.7451
G1 X-143.3223
G3 X-143.3096 Y114.7452 I0.0 J1.0
G2 X-137.3281 Y114.0396 I0.2947 J-23.2084
G2 X-133.295 Y112.2273 I-3.2243 J-12.569
G2 X-129.3943 Y107.0973 I-6.0305 J-8.6334
G3 X-129.3907 Y107.0874 I0.943 J0.3327
G2 X-128.5825 Y103.8505 I-14.9541 J-5.4532
G3 X-128.5823 Y103.849 I0.9903 J0.1392
G2 X-128.3496 Y100.4563 I-23.19 J-3.295
G3 Y100.4468 I1.0 J-0.0042
G2 X-128.7937 Y95.8264 I-22.9797 J-0.1228
G2 X-130.0179 Y92.0498 I-16.8302 J3.3691
G1 X-132.3873
G3 X-131.1263 Y95.2485 I-22.2833 J10.6325
G3 X-130.3145 Y100.3842 I-16.6373 J5.2617
G3 X-130.9803 Y105.1077 I-15.4054 J0.2372
G3 X-135.789 Y110.7393 I-8.7761 J-2.625
G3 X-135.7911 Y110.7403 I-0.4331 J-0.9013
G3 X-139.2249 Y111.8204 I-5.5243 J-11.5642
G3 X-142.7023 Y112.1006 I-3.3537 J-19.9003
G1 X-145.8711
G3 X-146.8711 Y111.1006 I0.0 J-1.0
G1 Y110.9873
G3 X-146.3662 Y110.1185 I1.0 J0.0
G2 X-142.5589 Y106.3104 I-5.0418 J-8.8481
G2 X-141.3201 Y101.0403 I-9.5892 J-5.0347
G3 X-141.3202 Y101.0045 I0.9998 J-0.0217
G2 X-142.1668 Y96.6088 I-11.033 J-0.1546
G2 X-144.8148 Y93.0618 I-8.9424 J3.9141
G2 X-149.3409 Y90.6857 I-7.7726 J9.3067
G2 X-154.5541 Y90.0107 I-5.0 J18.1467
G3 X-154.5764 I-0.0113 J-0.9999
G2 X-156.5169 Y90.073 I-0.2469 J22.5665
G0 Z3.0
G0 X-156.3475 Y92.8065
G0 Z1.0
G1 F300.0 Z-0.8
G3 F800.0 X-154.8768 Y92.7685 I1.2617 J20.3659
G3 X-150.5474 Y93.3003 I0.165 J16.5462
G3 X-150.5468 Y93.3004 I-0.2517 J0.9678
G3 X-146.5007 Y95.3035 I-2.8034 J10.7507
G3 X-146.4976 Y95.3059 I-0.6165 J0.7874
G3 X-143.2283 Y102.3015 I-5.3313 J6.7531
G3 X-143.9753 Y106.1621 I-9.782 J0.1099
G3 X-143.9815 Y106.1768 I-0.9236 J-0.3834
G3 X-146.3457 Y109.3896 I-8.2012 J-3.5587
G3 X-150.0181 Y111.4891 I-6.8545 J-7.7279
G3 X-150.0248 Y111.4912 I-0.308 J-0.9514
G3 X-154.1177 Y112.1006 I-3.9541 J-12.5085
G1 X-158.3803
G3 X-164.9958 Y109.4757 I-0.1507 J-9.269
G3 X-167.7717 Y102.9409 I5.8702 J-6.3505
G3 X-166.9409 Y98.7916 I10.0478 J-0.1461
G3 X-166.933 Y98.7737 I0.9172 J0.3984
G3 X-164.2313 Y95.4066 I8.03 J3.6757
G3 X-164.231 Y95.4064 I0.6033 J0.7975
G3 X-159.6759 Y93.2904 I7.1829 J9.5018
G3 X-156.3475 Y92.8065 I4.5901 J19.882
G1 F300.0 Z-1.6
G3 F800.0 X-154.8768 Y92.7685 I1.2617 J20.3659
G3 X-150.5474 Y93.3003 I0.165 J16.5462
G3 X-150.5468 Y93.3004 I-0.2517 J0.9678
G3 X-146.5007 Y95.3035 I-2.8034 J10.7507
G3 X-146.4976 Y95.3059 I-0.6165 J0.7874
G3 X-143.2283 Y102.3015 I-5.3313 J6.7531
G3 X-143.9753 Y106.1621 I-9.782 J0.1099
G3 X-143.9815 Y106.1768 I-0.9236 J-0.3834
G3 X-146.3457 Y109.3896 I-8.2012 J-3.5587
G3 X-150.0181 Y111.4891 I-6.8545 J-7.7279
G3 X-150.0248 Y111.4912 I-0.308 J-0.9514
G3 X-154.1177 Y112.1006 I-3.9541 J-12.5085
G1 X-158.3803
G3 X-164.9958 Y109.4757 I-0.1507 J-9.269
G3 X-167.7717 Y102.9409 I5.8702 J-6.3505
G3 X-166.9409 Y98.7916 I10.0478 J-0.1461
G3 X-166.933 Y98.7737 I0.9172 J0.3984
G3 X-164.2313 Y95.4066 I8.03 J3.6757
G3 X-164.231 Y95.4064 I0.6033 J0.7975
G3 X-159.6759 Y93.2904 I7.1829 J9.5018
G3 X-156.3475 Y92.8065 I4.5901 J19.882
G0 Z3.0
G0 X-156.558 Y90.0761
G0 Z0.2
G1 F300.0 Z-1.6
G2 F800.0 X-160.4961 Y90.734 I1.7348 J22.501
G2 X-165.6939 Y93.3318 I3.5188 J13.5393
G2 X-168.7292 Y97.2985 I6.5386 J8.1479
G2 X-169.6798 Y102.2773 I11.5403 J4.7837
G3 X-169.6799 Y102.3151 I-0.9999 J0.0156
G2 X-168.6673 Y106.8421 I9.6683 J0.214
G2 X-165.4786 Y110.1213 I7.3868 J-3.9931
G3 X-164.9785 Y110.9873 I-0.5 J0.8661
G1 Y111.1006
G3 X-165.9785 Y112.1006 I-1.0 J0.0
G1 X-169.0
G1 Y114.7451
G1 X-143.3223
G3 X-143.3096 Y114.7452 I0.0 J1.0
G2 X-137.3281 Y114.0396 I0.2947 J-23.2084
G2 X-133.295 Y112.2273 I-3.2243 J-12.569
G2 X-129.3943 Y107.0973 I-6.0305 J-8.6334
G3 X-129.3907 Y107.0874 I0.943 J0.3327
G2 X-128.5825 Y103.8505 I-14.9541 J-5.4532
G3 X-128.5823 Y103.849 I0.9903 J0.1392
G2 X-128.3496 Y100.4563 I-23.19 J-3.295
G3 Y100.4468 I1.0 J-0.0042
G2 X-128.7937 Y95.8264 I-22.9797 J-0.1228
G2 X-130.0179 Y92.0498 I-16.8302 J3.3691
G1 X-132.3873
G3 X-131.1263 Y95.2485 I-22.2833 J10.6325
G3 X-130.3145 Y100.3842 I-16.6373 J5.2617
G3 X-130.9803 Y105.1077 I-15.4054 J0.2372
G3 X-135.789 Y110.7393 I-8.7761 J-2.625
G3 X-135.7911 Y110.7403 I-0.4331 J-0.9013
G3 X-139.2249 Y111.8204 I-5.5243 J-11.5642
G3 X-142.7023 Y112.1006 I-3.3537 J-19.9003
G1 X-145.8711
G3 X-146.8711 Y111.1006 I0.0 J-1.0
G1 Y110.9873
G3 X-146.3662 Y110.1185 I1.0 J0.0
G2 X-142.5589 Y106.3104 I-5.0418 J-8.8481
G2 X-141.3201 Y101.0403 I-9.5892 J-5.0347
G3 X-141.3202 Y101.0045 I0.9998 J-0.0217
G2 X-142.1668 Y96.6088 I-11.033 J-0.1546
G2 X-144.8148 Y93.0618 I-8.9424 J3.9141
G2 X-149.3409 Y90.6857 I-7.7726 J9.3067
G2 X-154.5541 Y90.0107 I-5.0 J18.1467
G3 X-154.5764 I-0.0113 J-0.9999
G2 X-156.558 Y90.0761 I-0.2469 J22.5665
G1 F300.0 Z-2.4
G2 F800.0 X-160.4961 Y90.734 I1.7348 J22.501
G2 X-165.6939 Y93.3318 I3.5188 J13.5393
G2 X-168.7292 Y97.2985 I6.5386 J8.1479
G2 X-169.6798 Y102.2773 I11.5403 J4.7837
G3 X-169.6799 Y102.3151 I-0.9999 J0.0156
G2 X-168.6673 Y106.8421 I9.6683 J0.214
G2 X-165.4786 Y110.1213 I7.3868 J-3.9931
G3 X-164.9785 Y110.9873 I-0.5 J0.8661
G1 Y111.1006
G3 X-165.9785 Y112.1006 I-1.0 J0.0
G1 X-169.0
G1 Y114.7451
G1 X-143.3223
G3 X-143.3096 Y114.7452 I0.0 J1.0
G2 X-137.3281 Y114.0396 I0.2947 J-23.2084
G2 X-133.295 Y112.2273 I-3.2243 J-12.569
G2 X-129.3943 Y107.0973 I-6.0305 J-8.6334
G3 X-129.3907 Y107.0874 I0.943 J0.3327
G2 X-128.5825 Y103.8505 I-14.9541 J-5.4532
G3 X-128.5823 Y103.849 I0.9903 J0.1392
G2 X-128.3496 Y100.4563 I-23.19 J-3.295
G3 Y100.4468 I1.0 J-0.0042
G2 X-128.7937 Y95.8264 I-22.9797 J-0.1228
G2 X-130.0179 Y92.0498 I-16.8302 J3.3691
G1 X-132.3873
G3 X-131.1263 Y95.2485 I-22.2833 J10.6325
G3 X-130.3145 Y100.3842 I-16.6373 J5.2617
G3 X-130.9803 Y105.1077 I-15.4054 J0.2372
G3 X-135.789 Y110.7393 I-8.7761 J-2.625
G3 X-135.7911 Y110.7403 I-0.4331 J-0.9013
G3 X-139.2249 Y111.8204 I-5.5243 J-11.5642
G3 X-142.7023 Y112.1006 I-3.3537 J-19.9003
G1 X-145.8711
G3 X-146.8711 Y111.1006 I0.0 J-1.0
G1 Y110.9873
G3 X-146.3662 Y110.1185 I1.0 J0.0
G2 X-142.5589 Y106.3104 I-5.0418 J-8.8481
G2 X-141.3201 Y101.0403 I-9.5892 J-5.0347
G3 X-141.3202 Y101.0045 I0.9998 J-0.0217
G2 X-142.1668 Y96.6088 I-11.033 J-0.1546
G2 X-144.8148 Y93.0618 I-8.9424 J3.9141
G2 X-149.3409 Y90.6857 I-7.7726 J9.3067
G2 X-154.5541 Y90.0107 I-5.0 J18.1467
G3 X-154.5764 I-0.0113 J-0.9999
G2 X-156.558 Y90.0761 I-0.2469 J22.5665
G0 Z3.0
G0 X-156.3838 Y92.8088
G0 Z-0.6
G1 F300.0 Z-2.4
G3 F800.0 X-154.8768 Y92.7685 I1.298 J20.3636
G3 X-150.5474 Y93.3003 I0.165 J16.5462
G3 X-150.5468 Y93.3004 I-0.2517 J0.9678
G3 X-146.5007 Y95.3035 I-2.8034 J10.7507
G3 X-146.4976 Y95.3059 I-0.6165 J0.7874
G3 X-143.2283 Y102.3015 I-5.3313 J6.7531
G3 X-143.9753 Y106.1621 I-9.782 J0.1099
G3 X-143.9815 Y106.1768 I-0.9236 J-0.3834
G3 X-146.3457 Y109.3896 I-8.2012 J-3.5587
G3 X-150.0181 Y111.4891 I-6.8545 J-7.7279
G3 X-150.0248 Y111.4912 I-0.308 J-0.9514
G3 X-154.1177 Y112.1006 I-3.9541 J-12.5085
G1 X-158.3803
G3 X-164.9958 Y109.4757 I-0.1507 J-9.269
G3 X-167.7717 Y102.9409 I5.8702 J-6.3505
G3 X-166.9409 Y98.7916 I10.0478 J-0.1461
G3 X-166.933 Y98.7737 I0.9172 J0.3984
G3 X-164.2313 Y95.4066 I8.03 J3.6757
G3 X-164.231 Y95.4064 I0.6033 J0.7975
G3 X-159.6759 Y93.2904 I7.1829 J9.5018
G3 X-156.3838 Y92.8088 I4.5901 J19.882
G1 F300.0 Z-3.2
G3 F800.0 X-154.8768 Y92.7685 I1.298 J20.3636
G3 X-150.5474 Y93.3003 I0.165 J16.5462
G3 X-150.5468 Y93.3004 I-0.2517 J0.9678
G3 X-146.5007 Y95.3035 I-2.8034 J10.7507
G3 X-146.4976 Y95.3059 I-0.6165 J0.7874
G3 X-143.2283 Y102.3015 I-5.3313 J6.7531
G3 X-143.9753 Y106.1621 I-9.782 J0.1099
G3 X-143.9815 Y106.1768 I-0.9236 J-0.3834
G3 X-146.3457 Y109.3896 I-8.2012 J-3.5587
G3 X-150.0181 Y111.4891 I-6.8545 J-7.7279
G3 X-150.0248 Y111.4912 I-0.308 J-0.9514
G3 X-154.1177 Y112.1006 I-3.9541 J-12.5085
G1 X-158.3803
G3 X-164.9958 Y109.4757 I-0.1507 J-9.269
G3 X-167.7717 Y102.9409 I5.8702 J-6.3505
G3 X-166.9409 Y98.7916 I10.0478 J-0.1461
G3 X-166.933 Y98.7737 I0.9172 J0.3984
G3 X-164.2313 Y95.4066 I8.03 J3.6757
G3 X-164.231 Y95.4064 I0.6033 J0.7975
G3 X-159.6759 Y93.2904 I7.1829 J9.5018
G3 X-156.3838 Y92.8088 I4.5901 J19.882
G0 Z3.0
G0 X-156.5993 Y90.0793
G0 Z-1.4
G1 F300.0 Z-3.2
G2 F800.0 X-160.4961 Y90.734 I1.7761 J22.4978
G2 X-165.6939 Y93.3318 I3.5188 J13.5393
G2 X-168.7292 Y97.2985 I6.5386 J8.1479
G2 X-169.6798 Y102.2773 I11.5403 J4.7837
G3 X-169.6799 Y102.3151 I-0.9999 J0.0156
G2 X-168.6673 Y106.8421 I9.6683 J0.214
G2 X-165.4786 Y110.1213 I7.3868 J-3.9931
G3 X-164.9785 Y110.9873 I-0.5 J0.8661
G1 Y111.1006
G3 X-165.9785 Y112.1006 I-1.0 J0.0
G1 X-169.0
G1 Y114.7451
G1 X-143.3223
G3 X-143.3096 Y114.7452 I0.0 J1.0
G2 X-137.3281 Y114.0396 I0.2947 J-23.2084
G2 X-133.295 Y112.2273 I-3.2243 J-12.569
G2 X-129.3943 Y107.0973 I-6.0305 J-8.6334
G3 X-129.3907 Y107.0874 I0.943 J0.3327
G2 X-128.5825 Y103.8505 I-14.9541 J-5.4532
G3 X-128.5823 Y103.849 I0.9903 J0.1392
G2 X-128.3496 Y100.4563 I-23.19 J-3.295
G3 Y100.4468 I1.0 J-0.0042
G2 X-128.7937 Y95.8264 I-22.9797 J-0.1228
G2 X-130.0179 Y92.0498 I-16.8302 J3.3691
G1 X-132.3873
G3 X-131.1263 Y95.2485 I-22.2833 J10.6325
G3 X-130.3145 Y100.3842 I-16.6373 J5.2617
G3 X-130.9803 Y105.1077 I-15.4054 J0.2372
G3 X-135.789 Y110.7393 I-8.7761 J-2.625
G3 X-135.7911 Y110.7403 I-0.4331 J-0.9013
G3 X-139.2249 Y111.8204 I-5.5243 J-11.5642
G3 X-142.7023 Y112.1006 I-3.3537 J-19.9003
G1 X-145.8711
G3 X-146.8711 Y111.1006 I0.0 J-1.0
G1 Y110.9873
G3 X-146.3662 Y110.1185 I1.0 J0.0
G2 X-142.5589 Y106.3104 I-5.0418 J-8.8481
G2 X-141.3201 Y101.0403 I-9.5892 J-5.0347
G3 X-141.3202 Y101.0045 I0.9998 J-0.0217
G2 X-142.1668 Y96.6088 I-11.033 J-0.1546
G2 X-144.8148 Y93.0618 I-8.9424 J3.9141
G2 X-149.3409 Y90.6857 I-7.7726 J9.3067
G2 X-154.5541 Y90.0107 I-5.0 J18.1467
G3 X-154.5764 I-0.0113 J-0.9999
G2 X-156.5993 Y90.0793 I-0.2469 J22.5665
G1 F300.0 Z-4.0
G2 F800.0 X-160.4961 Y90.734 I1.7761 J22.4978
G2 X-165.6939 Y93.3318 I3.5188 J13.5393
G2 X-168.7292 Y97.2985 I6.5386 J8.1479
G2 X-169.6798 Y102.2773 I11.5403 J4.7837
G3 X-169.6799 Y102.3151 I-0.9999 J0.0156
G2 X-168.6673 Y106.8421 I9.6683 J0.214
G2 X-165.4786 Y110.1213 I7.3868 J-3.9931
G3 X-164.9785 Y110.9873 I-0.5 J0.8661
G1 Y111.1006
G3 X-165.9785 Y112.1006 I-1.0 J0.0
G1 X-169.0
G1 Y114.7451
G1 X-143.3223
G3 X-143.3096 Y114.7452 I0.0 J1.0
G2 X-137.3281 Y114.0396 I0.2947 J-23.2084
G2 X-133.295 Y112.2273 I-3.2243 J-12.569
G2 X-129.3943 Y107.0973 I-6.0305 J-8.6334
G3 X-129.3907 Y107.0874 I0.943 J0.3327
G2 X-128.5825 Y103.8505 I-14.9541 J-5.4532
G3 X-128.5823 Y103.849 I0.9903 J0.1392
G2 X-128.3496 Y100.4563 I-23.19 J-3.295
G3 Y100.4468 I1.0 J-0.0042
G2 X-128.7937 Y95.8264 I-22.9797 J-0.1228
G2 X-130.0179 Y92.0498 I-16.8302 J3.3691
G1 X-132.3873
G3 X-131.1263 Y95.2485 I-22.2833 J10.6325
G3 X-130.3145 Y100.3842 I-16.6373 J5.2617
G3 X-130.9803 Y105.1077 I-15.4054 J0.2372
G3 X-135.789 Y110.7393 I-8.7761 J-2.625
G3 X-135.7911 Y110.7403 I-0.4331 J-0.9013
G3 X-139.2249 Y111.8204 I-5.5243 J-11.5642
G3 X-142.7023 Y112.1006 I-3.3537 J-19.9003
G1 X-145.8711
G3 X-146.8711 Y111.1006 I0.0 J-1.0
G1 Y110.9873
G3 X-146.3662 Y110.1185 I1.0 J0.0
G2 X-142.5589 Y106.3104 I-5.0418 J-8.8481
G2 X-141.3201 Y101.0403 I-9.5892 J-5.0347
G3 X-141.3202 Y101.0045 I0.9998 J-0.0217
G2 X-142.1668 Y96.6088 I-11.033 J-0.1546
G2 X-144.8148 Y93.0618 I-8.9424 J3.9141
G2 X-149.3409 Y90.6857 I-7.7726 J9.3067
G2 X-154.5541 Y90.0107 I-5.0 J18.1467
G3 X-154.5764 I-0.0113 J-0.9999
G2 X-156.5993 Y90.0793 I-0.2469 J22.5665
G0 Z3.0
G0 X-156.4203 Y92.8111
G0 Z-2.2
G1 F300.0 Z-4.0
G3 F800.0 X-154.8768 Y92.7685 I1.3344 J20.3613
G3 X-150.5474 Y93.3003 I0.165 J16.5462
G3 X-150.5468 Y93.3004 I-0.2517 J0.9678
G3 X-146.5007 Y95.3035 I-2.8034 J10.7507
G3 X-146.4976 Y95.3059 I-0.6165 J0.7874
G3 X-143.2283 Y102.3015 I-5.3313 J6.7531
G3 X-143.9753 Y106.1621 I-9.782 J0.1099
G3 X-143.9815 Y106.1768 I-0.9236 J-0.3834
G3 X-146.3457 Y109.3896 I-8.2012 J-3.5587
G3 X-150.0181 Y111.4891 I-6.8545 J-7.7279
G3 X-150.0248 Y111.4912 I-0.308 J-0.9514
G3 X-154.1177 Y112.1006 I-3.9541 J-12.5085
G1 X-158.3803
G3 X-164.9958 Y109.4757 I-0.1507 J-9.269
G3 X-167.7717 Y102.9409 I5.8702 J-6.3505
G3 X-166.9409 Y98.7916 I10.0478 J-0.1461
G3 X-166.933 Y98.7737 I0.9172 J0.3984
G3 X-164.2313 Y95.4066 I8.03 J3.6757
G3 X-164.231 Y95.4064 I0.6033 J0.7975
G3 X-159.6759 Y93.2904 I7.1829 J9.5018
G3 X-156.4203 Y92.8111 I4.5901 J19.882
G1 F300.0 Z-4.8
G3 F800.0 X-154.8768 Y92.7685 I1.3344 J20.3613
G3 X-150.5474 Y93.3003 I0.165 J16.5462
G3 X-150.5468 Y93.3004 I-0.2517 J0.9678
G3 X-146.5007 Y95.3035 I-2.8034 J10.7507
G3 X-146.4976 Y95.3059 I-0.6165 J0.7874
G3 X-143.2283 Y102.3015 I-5.3313 J6.7531
G3 X-143.9753 Y106.1621 I-9.782 J0.1099
G3 X-143.9815 Y106.1768 I-0.9236 J-0.3834
G3 X-146.3457 Y109.3896 I-8.2012 J-3.5587
G3 X-150.0181 Y111.4891 I-6.8545 J-7.7279
G3 X-150.0248 Y111.4912 I-0.308 J-0.9514
G3 X-154.1177 Y112.1006 I-3.9541 J-12.5085
G1 X-158.3803
G3 X-164.9958 Y109.4757 I-0.1507 J-9.269
G3 X-167.7717 Y102.9409 I5.8702 J-6.3505
G3 X-166.9409 Y98.7916 I10.0478 J-0.1461
G3 X-166.933 Y98.7737 I0.9172 J0.3984
G3 X-164.2313 Y95.4066 I8.03 J3.6757
G3 X-164.231 Y95.4064 I0.6033 J0.7975
G3 X-159.6759 Y93.2904 I7.1829 J9.5018
G3 X-156.4203 Y92.8111 I4.5901 J19.882
G0 Z3.0
G0 X-156.6407 Y90.0826
G0 Z-3.0
G1 F300.0 Z-4.8
G2 F800.0 X-160.4961 Y90.734 I1.8175 J22.4945
G2 X-165.6939 Y93.3318 I3.5188 J13.5393
G2 X-168.7292 Y97.2985 I6.5386 J8.1479
G2 X-169.6798 Y102.2773 I11.5403 J4.7837
G3 X-169.6799 Y102.3151 I-0.9999 J0.0156
G2 X-168.6673 Y106.8421 I9.6683 J0.214
G2 X-165.4786 Y110.1213 I7.3868 J-3.9931
G3 X-164.9785 Y110.9873 I-0.5 J0.8661
G1 Y111.1006
G3 X-165.9785 Y112.1006 I-1.0 J0.0
G1 X-169.0
G1 Y114.7451
G1 X-143.3223
G3 X-143.3096 Y114.7452 I0.0 J1.0
G2 X-137.3281 Y114.0396 I0.2947 J-23.2084
G2 X-133.295 Y112.2273 I-3.2243 J-12.569
G2 X-129.3943 Y107.0973 I-6.0305 J-8.6334
G3 X-129.3907 Y107.0874 I0.943 J0.3327
G2 X-128.5825 Y103.8505 I-14.9541 J-5.4532
G3 X-128.5823 Y103.849 I0.9903 J0.1392
G2 X-128.3496 Y100.4563 I-23.19 J-3.295
G3 Y100.4468 I1.0 J-0.0042
G2 X-128.7937 Y95.8264 I-22.9797 J-0.1228
G2 X-130.0179 Y92.0498 I-16.8302 J3.3691
G1 X-132.3873
G3 X-131.1263 Y95.2485 I-22.2833 J10.6325
G3 X-130.3145 Y100.3842 I-16.6373 J5.2617
G3 X-130.9803 Y105.1077 I-15.4054 J0.2372
G3 X-135.789 Y110.7393 I-8.7761 J-2.625
G3 X-135.7911 Y110.7403 I-0.4331 J-0.9013
G3 X-139.2249 Y111.8204 I-5.5243 J-11.5642
G3 X-142.7023 Y112.1006 I-3.3537 J-19.9003
G1 X-145.8711
G3 X-146.8711 Y111.1006 I0.0 J-1.0
G1 Y110.9873
G3 X-146.3662 Y110.1185 I1.0 J0.0
G2 X-142.5589 Y106.3104 I-5.0418 J-8.8481
G2 X-141.3201 Y101.0403 I-9.5892 J-5.0347
G3 X-141.3202 Y101.0045 I0.9998 J-0.0217
G2 X-142.1668 Y96.6088 I-11.033 J-0.1546
G2 X-144.8148 Y93.0618 I-8.9424 J3.9141
G2 X-149.3409 Y90.6857 I-7.7726 J9.3067
G2 X-154.5541 Y90.0107 I-5.0 J18.1467
G3 X-154.5764 I-0.0113 J-0.9999
G2 X-156.6407 Y90.0826 I-0.2469 J22.5665
G1 F300.0 Z-5.0
G2 F800.0 X-160.4961 Y90.734 I1.8175 J22.4945
G2 X-165.6939 Y93.3318 I3.5188 J13.5393
G2 X-168.7292 Y97.2985 I6.5386 J8.1479
G2 X-169.6798 Y102.2773 I11.5403 J4.7837
G3 X-169.6799 Y102.3151 I-0.9999 J0.0156
G2 X-168.6673 Y106.8421 I9.6683 J0.214
G2 X-165.4786 Y110.1213 I7.3868 J-3.9931
G3 X-164.9785 Y110.9873 I-0.5 J0.8661
G1 Y111.1006
G3 X-165.9785 Y112.1006 I-1.0 J0.0
G1 X-169.0
G1 Y114.7451
G1 X-143.3223
G3 X-143.3096 Y114.7452 I0.0 J1.0
G2 X-137.3281 Y114.0396 I0.2947 J-23.2084
G2 X-133.295 Y112.2273 I-3.2243 J-12.569
G2 X-129.3943 Y107.0973 I-6.0305 J-8.6334
G3 X-129.3907 Y107.0874 I0.943 J0.3327
G2 X-128.5825 Y103.8505 I-14.9541 J-5.4532
G3 X-128.5823 Y103.849 I0.9903 J0.1392
G2 X-128.3496 Y100.4563 I-23.19 J-3.295
G3 Y100.4468 I1.0 J-0.0042
G2 X-128.7937 Y95.8264 I-22.9797 J-0.1228
G2 X-130.0179 Y92.0498 I-16.8302 J3.3691
G1 X-132.3873
G3 X-131.1263 Y95.2485 I-22.2833 J10.6325
G3 X-130.3145 Y100.3842 I-16.6373 J5.2617
G3 X-130.9803 Y105.1077 I-15.4054 J0.2372
G3 X-135.789 Y110.7393 I-8.7761 J-2.625
G3 X-135.7911 Y110.7403 I-0.4331 J-0.9013
G3 X-139.2249 Y111.8204 I-5.5243 J-11.5642
G3 X-142.7023 Y112.1006 I-3.3537 J-19.9003
G1 X-145.8711
G3 X-146.8711 Y111.1006 I0.0 J-1.0
G1 Y110.9873
G3 X-146.3662 Y110.1185 I1.0 J0.0
G2 X-142.5589 Y106.3104 I-5.0418 J-8.8481
G2 X-141.3201 Y101.0403 I-9.5892 J-5.0347
G3 X-141.3202 Y101.0045 I0.9998 J-0.0217
G2 X-142.1668 Y96.6088 I-11.033 J-0.1546
G2 X-144.8148 Y93.0618 I-8.9424 J3.9141
G2 X-149.3409 Y90.6857 I-7.7726 J9.3067
G2 X-154.5541 Y90.0107 I-5.0 J18.1467
G3 X-154.5764 I-0.0113 J-0.9999
G2 X-156.6407 Y90.0826 I-0.2469 J22.5665
G0 Z3.0
G0 X-156.4568 Y92.8135
G0 Z-3.2
G1 F300.0 Z-5.0
G3 F800.0 X-154.8768 Y92.7685 I1.371 J20.3588
G3 X-150.5474 Y93.3003 I0.165 J16.5462
G3 X-150.5468 Y93.3004 I-0.2517 J0.9678
G3 X-146.5007 Y95.3035 I-2.8034 J10.7507
G3 X-146.4976 Y95.3059 I-0.6165 J0.7874
G3 X-143.2283 Y102.3015 I-5.3313 J6.7531
G3 X-143.9753 Y106.1621 I-9.782 J0.1099
G3 X-143.9815 Y106.1768 I-0.9236 J-0.3834
G3 X-146.3457 Y109.3896 I-8.2012 J-3.5587
G3 X-150.0181 Y111.4891 I-6.8545 J-7.7279
G3 X-150.0248 Y111.4912 I-0.308 J-0.9514
G3 X-154.1177 Y112.1006 I-3.9541 J-12.5085
G1 X-158.3803
G3 X-164.9958 Y109.4757 I-0.1507 J-9.269
G3 X-167.7717 Y102.9409 I5.8702 J-6.3505
G3 X-166.9409 Y98.7916 I10.0478 J-0.1461
G3 X-166.933 Y98.7737 I0.9172 J0.3984
G3 X-164.2313 Y95.4066 I8.03 J3.6757
G3 X-164.231 Y95.4064 I0.6033 J0.7975
G3 X-159.6759 Y93.2904 I7.1829 J9.5018
G3 X-156.4568 Y92.8135 I4.5901 J19.882
G0 Z3.0
M5
M30
