( Made using CamBam - http://www.cambam.co.uk )
( Schild-Buehlhof 3/19/2017 3:02:46 PM )
( T3 : 3.0 )
G21 G90 G64 G40
G0 Z3.0
( T3 : 3.0 )
T3 M6
( Rundweg )
G17
M3 S1000
G0 X-146.3068 Y-79.114
G0 Z1.0
G1 F300.0 Z-0.6
G2 F800.0 X-146.4863 Y-79.1823 I-2.5102 J6.3298
G3 X-146.5169 Y-79.1938 I0.5134 J-1.4094
G2 X-149.4736 Y-79.9606 I-4.7293 J12.1515
G3 X-149.4785 Y-79.9613 I0.2039 J-1.4861
G2 X-152.6604 Y-80.1758 I-3.0711 J21.8516
G3 X-152.668 I-0.0075 J-1.5
G1 X-168.5
G1 Y-78.5596
G1 X-153.4103
G3 X-149.9341 Y-78.2734 I0.1512 J19.4169
G1 X-149.9342
G1 X-149.9341
G3 X-147.2275 Y-77.4534 I-1.9872 J11.4367
G3 X-143.7643 Y-74.3841 I-2.8957 J6.7557
G3 X-143.7347 Y-74.3305 I-1.2977 J0.7523
G3 X-142.728 Y-70.0339 I-7.7593 J4.0841
G3 X-143.9029 Y-65.5149 I-8.5793 J0.1818
G2 X-142.9242 Y-66.8142 I-6.317 J-5.7767
G2 X-141.8199 Y-71.2752 I-7.6286 J-4.2555
G3 X-141.82 Y-71.3399 I1.4996 J-0.0353
G2 X-142.501 Y-75.3289 I-10.7855 J-0.2113
G2 X-146.3068 Y-79.114 I-6.316 J2.5447
G1 F300.0 Z-1.2
G2 F800.0 X-146.4863 Y-79.1823 I-2.5102 J6.3298
G3 X-146.5169 Y-79.1938 I0.5134 J-1.4094
G2 X-149.4736 Y-79.9606 I-4.7293 J12.1515
G3 X-149.4785 Y-79.9613 I0.2039 J-1.4861
G2 X-152.6604 Y-80.1758 I-3.0711 J21.8516
G3 X-152.668 I-0.0075 J-1.5
G1 X-168.5
G1 Y-78.5596
G1 X-153.4103
G3 X-149.9341 Y-78.2734 I0.1512 J19.4169
G1 X-149.9342
G1 X-149.9341
G3 X-147.2275 Y-77.4534 I-1.9872 J11.4367
G3 X-143.7643 Y-74.3841 I-2.8957 J6.7557
G3 X-143.7347 Y-74.3305 I-1.2977 J0.7523
G3 X-142.728 Y-70.0339 I-7.7593 J4.0841
G3 X-143.9029 Y-65.5149 I-8.5793 J0.1818
G2 X-142.9242 Y-66.8142 I-6.317 J-5.7767
G2 X-141.8199 Y-71.2752 I-7.6286 J-4.2555
G3 X-141.82 Y-71.3399 I1.4996 J-0.0353
G2 X-142.501 Y-75.3289 I-10.7855 J-0.2113
G2 X-146.3068 Y-79.114 I-6.316 J2.5447
G1 F300.0 Z-1.8
G2 F800.0 X-146.4863 Y-79.1823 I-2.5102 J6.3298
G3 X-146.5169 Y-79.1938 I0.5134 J-1.4094
G2 X-149.4736 Y-79.9606 I-4.7293 J12.1515
G3 X-149.4785 Y-79.9613 I0.2039 J-1.4861
G2 X-152.6604 Y-80.1758 I-3.0711 J21.8516
G3 X-152.668 I-0.0075 J-1.5
G1 X-168.5
G1 Y-78.5596
G1 X-153.4103
G3 X-149.9341 Y-78.2734 I0.1512 J19.4169
G1 X-149.9342
G1 X-149.9341
G3 X-147.2275 Y-77.4534 I-1.9872 J11.4367
G3 X-143.7643 Y-74.3841 I-2.8957 J6.7557
G3 X-143.7347 Y-74.3305 I-1.2977 J0.7523
G3 X-142.728 Y-70.0339 I-7.7593 J4.0841
G3 X-143.9029 Y-65.5149 I-8.5793 J0.1818
G2 X-142.9242 Y-66.8142 I-6.317 J-5.7767
G2 X-141.8199 Y-71.2752 I-7.6286 J-4.2555
G3 X-141.82 Y-71.3399 I1.4996 J-0.0353
G2 X-142.501 Y-75.3289 I-10.7855 J-0.2113
G2 X-146.3068 Y-79.114 I-6.316 J2.5447
G1 F300.0 Z-2.4
G2 F800.0 X-146.4863 Y-79.1823 I-2.5102 J6.3298
G3 X-146.5169 Y-79.1938 I0.5134 J-1.4094
G2 X-149.4736 Y-79.9606 I-4.7293 J12.1515
G3 X-149.4785 Y-79.9613 I0.2039 J-1.4861
G2 X-152.6604 Y-80.1758 I-3.0711 J21.8516
G3 X-152.668 I-0.0075 J-1.5
G1 X-168.5
G1 Y-78.5596
G1 X-153.4103
G3 X-149.9341 Y-78.2734 I0.1512 J19.4169
G1 X-149.9342
G1 X-149.9341
G3 X-147.2275 Y-77.4534 I-1.9872 J11.4367
G3 X-143.7643 Y-74.3841 I-2.8957 J6.7557
G3 X-143.7347 Y-74.3305 I-1.2977 J0.7523
G3 X-142.728 Y-70.0339 I-7.7593 J4.0841
G3 X-143.9029 Y-65.5149 I-8.5793 J0.1818
G2 X-142.9242 Y-66.8142 I-6.317 J-5.7767
G2 X-141.8199 Y-71.2752 I-7.6286 J-4.2555
G3 X-141.82 Y-71.3399 I1.4996 J-0.0353
G2 X-142.501 Y-75.3289 I-10.7855 J-0.2113
G2 X-146.3068 Y-79.114 I-6.316 J2.5447
G1 F300.0 Z-3.0
G2 F800.0 X-146.4863 Y-79.1823 I-2.5102 J6.3298
G3 X-146.5169 Y-79.1938 I0.5134 J-1.4094
G2 X-149.4736 Y-79.9606 I-4.7293 J12.1515
G3 X-149.4785 Y-79.9613 I0.2039 J-1.4861
G2 X-152.6604 Y-80.1758 I-3.0711 J21.8516
G3 X-152.668 I-0.0075 J-1.5
G1 X-168.5
G1 Y-78.5596
G1 X-153.4103
G3 X-149.9341 Y-78.2734 I0.1512 J19.4169
G1 X-149.9342
G1 X-149.9341
G3 X-147.2275 Y-77.4534 I-1.9872 J11.4367
G3 X-143.7643 Y-74.3841 I-2.8957 J6.7557
G3 X-143.7347 Y-74.3305 I-1.2977 J0.7523
G3 X-142.728 Y-70.0339 I-7.7593 J4.0841
G3 X-143.9029 Y-65.5149 I-8.5793 J0.1818
G2 X-142.9242 Y-66.8142 I-6.317 J-5.7767
G2 X-141.8199 Y-71.2752 I-7.6286 J-4.2555
G3 X-141.82 Y-71.3399 I1.4996 J-0.0353
G2 X-142.501 Y-75.3289 I-10.7855 J-0.2113
G2 X-146.3068 Y-79.114 I-6.316 J2.5447
G1 F300.0 Z-3.6
G2 F800.0 X-146.4863 Y-79.1823 I-2.5102 J6.3298
G3 X-146.5169 Y-79.1938 I0.5134 J-1.4094
G2 X-149.4736 Y-79.9606 I-4.7293 J12.1515
G3 X-149.4785 Y-79.9613 I0.2039 J-1.4861
G2 X-152.6604 Y-80.1758 I-3.0711 J21.8516
G3 X-152.668 I-0.0075 J-1.5
G1 X-168.5
G1 Y-78.5596
G1 X-153.4103
G3 X-149.9341 Y-78.2734 I0.1512 J19.4169
G1 X-149.9342
G1 X-149.9341
G3 X-147.2275 Y-77.4534 I-1.9872 J11.4367
G3 X-143.7643 Y-74.3841 I-2.8957 J6.7557
G3 X-143.7347 Y-74.3305 I-1.2977 J0.7523
G3 X-142.728 Y-70.0339 I-7.7593 J4.0841
G3 X-143.9029 Y-65.5149 I-8.5793 J0.1818
G2 X-142.9242 Y-66.8142 I-6.317 J-5.7767
G2 X-141.8199 Y-71.2752 I-7.6286 J-4.2555
G3 X-141.82 Y-71.3399 I1.4996 J-0.0353
G2 X-142.501 Y-75.3289 I-10.7855 J-0.2113
G2 X-146.3068 Y-79.114 I-6.316 J2.5447
G1 F300.0 Z-4.2
G2 F800.0 X-146.4863 Y-79.1823 I-2.5102 J6.3298
G3 X-146.5169 Y-79.1938 I0.5134 J-1.4094
G2 X-149.4736 Y-79.9606 I-4.7293 J12.1515
G3 X-149.4785 Y-79.9613 I0.2039 J-1.4861
G2 X-152.6604 Y-80.1758 I-3.0711 J21.8516
G3 X-152.668 I-0.0075 J-1.5
G1 X-168.5
G1 Y-78.5596
G1 X-153.4103
G3 X-149.9341 Y-78.2734 I0.1512 J19.4169
G1 X-149.9342
G1 X-149.9341
G3 X-147.2275 Y-77.4534 I-1.9872 J11.4367
G3 X-143.7643 Y-74.3841 I-2.8957 J6.7557
G3 X-143.7347 Y-74.3305 I-1.2977 J0.7523
G3 X-142.728 Y-70.0339 I-7.7593 J4.0841
G3 X-143.9029 Y-65.5149 I-8.5793 J0.1818
G2 X-142.9242 Y-66.8142 I-6.317 J-5.7767
G2 X-141.8199 Y-71.2752 I-7.6286 J-4.2555
G3 X-141.82 Y-71.3399 I1.4996 J-0.0353
G2 X-142.501 Y-75.3289 I-10.7855 J-0.2113
G2 X-146.3068 Y-79.114 I-6.316 J2.5447
G1 F300.0 Z-4.8
G2 F800.0 X-146.4863 Y-79.1823 I-2.5102 J6.3298
G3 X-146.5169 Y-79.1938 I0.5134 J-1.4094
G2 X-149.4736 Y-79.9606 I-4.7293 J12.1515
G3 X-149.4785 Y-79.9613 I0.2039 J-1.4861
G2 X-152.6604 Y-80.1758 I-3.0711 J21.8516
G3 X-152.668 I-0.0075 J-1.5
G1 X-168.5
G1 Y-78.5596
G1 X-153.4103
G3 X-149.9341 Y-78.2734 I0.1512 J19.4169
G1 X-149.9342
G1 X-149.9341
G3 X-147.2275 Y-77.4534 I-1.9872 J11.4367
G3 X-143.7643 Y-74.3841 I-2.8957 J6.7557
G3 X-143.7347 Y-74.3305 I-1.2977 J0.7523
G3 X-142.728 Y-70.0339 I-7.7593 J4.0841
G3 X-143.9029 Y-65.5149 I-8.5793 J0.1818
G2 X-142.9242 Y-66.8142 I-6.317 J-5.7767
G2 X-141.8199 Y-71.2752 I-7.6286 J-4.2555
G3 X-141.82 Y-71.3399 I1.4996 J-0.0353
G2 X-142.501 Y-75.3289 I-10.7855 J-0.2113
G2 X-146.3068 Y-79.114 I-6.316 J2.5447
G1 F300.0 Z-5.0
G2 F800.0 X-146.4863 Y-79.1823 I-2.5102 J6.3298
G3 X-146.5169 Y-79.1938 I0.5134 J-1.4094
G2 X-149.4736 Y-79.9606 I-4.7293 J12.1515
G3 X-149.4785 Y-79.9613 I0.2039 J-1.4861
G2 X-152.6604 Y-80.1758 I-3.0711 J21.8516
G3 X-152.668 I-0.0075 J-1.5
G1 X-168.5
G1 Y-78.5596
G1 X-153.4103
G3 X-149.9341 Y-78.2734 I0.1512 J19.4169
G1 X-149.9342
G1 X-149.9341
G3 X-147.2275 Y-77.4534 I-1.9872 J11.4367
G3 X-143.7643 Y-74.3841 I-2.8957 J6.7557
G3 X-143.7347 Y-74.3305 I-1.2977 J0.7523
G3 X-142.728 Y-70.0339 I-7.7593 J4.0841
G3 X-143.9029 Y-65.5149 I-8.5793 J0.1818
G2 X-142.9242 Y-66.8142 I-6.317 J-5.7767
G2 X-141.8199 Y-71.2752 I-7.6286 J-4.2555
G3 X-141.82 Y-71.3399 I1.4996 J-0.0353
G2 X-142.501 Y-75.3289 I-10.7855 J-0.2113
G2 X-146.3068 Y-79.114 I-6.316 J2.5447
G0 Z3.0
G0 X-147.7511 Y-60.6323
G0 Z1.0
G1 F300.0 Z-0.6
G3 F800.0 X-148.5777 Y-60.3035 I-4.5368 J-10.2029
G1 X-147.4611
G3 X-147.7511 Y-60.6323 I1.8732 J-1.9445
G1 F300.0 X-146.7897 Y-61.3504
G2 F800.0 X-145.5879 Y-60.748 I1.2018 J-0.8976
G1 X-142.5
G1 Y-59.1035
G1 X-168.5
G1 Y-60.748
G1 X-153.2992
G2 X-149.3679 Y-61.3065 I0.1392 J-13.1374
G2 X-149.3602 Y-61.3088 I-0.433 J-1.4362
G2 X-147.0879 Y-62.3333 I-2.9278 J-9.5263
G1 Y-62.248
G2 X-146.7897 Y-61.3504 I1.5 J0.0
G1 F300.0 X-147.7511 Y-60.6323
G1 Z-1.2
G3 F800.0 X-148.5777 Y-60.3035 I-4.5368 J-10.2029
G1 X-147.4611
G3 X-147.7511 Y-60.6323 I1.8732 J-1.9445
G1 F300.0 X-146.7897 Y-61.3504
G2 F800.0 X-145.5879 Y-60.748 I1.2018 J-0.8976
G1 X-142.5
G1 Y-59.1035
G1 X-168.5
G1 Y-60.748
G1 X-153.2992
G2 X-149.3679 Y-61.3065 I0.1392 J-13.1374
G2 X-149.3602 Y-61.3088 I-0.433 J-1.4362
G2 X-147.0879 Y-62.3333 I-2.9278 J-9.5263
G1 Y-62.248
G2 X-146.7897 Y-61.3504 I1.5 J0.0
G1 F300.0 X-147.7511 Y-60.6323
G1 Z-1.8
G3 F800.0 X-148.5777 Y-60.3035 I-4.5368 J-10.2029
G1 X-147.4611
G3 X-147.7511 Y-60.6323 I1.8732 J-1.9445
G1 F300.0 X-146.7897 Y-61.3504
G2 F800.0 X-145.5879 Y-60.748 I1.2018 J-0.8976
G1 X-142.5
G1 Y-59.1035
G1 X-168.5
G1 Y-60.748
G1 X-153.2992
G2 X-149.3679 Y-61.3065 I0.1392 J-13.1374
G2 X-149.3602 Y-61.3088 I-0.433 J-1.4362
G2 X-147.0879 Y-62.3333 I-2.9278 J-9.5263
G1 Y-62.248
G2 X-146.7897 Y-61.3504 I1.5 J0.0
G1 F300.0 X-147.7511 Y-60.6323
G1 Z-2.4
G3 F800.0 X-148.5777 Y-60.3035 I-4.5368 J-10.2029
G1 X-147.4611
G3 X-147.7511 Y-60.6323 I1.8732 J-1.9445
G1 F300.0 X-146.7897 Y-61.3504
G2 F800.0 X-145.5879 Y-60.748 I1.2018 J-0.8976
G1 X-142.5
G1 Y-59.1035
G1 X-168.5
G1 Y-60.748
G1 X-153.2992
G2 X-149.3679 Y-61.3065 I0.1392 J-13.1374
G2 X-149.3602 Y-61.3088 I-0.433 J-1.4362
G2 X-147.0879 Y-62.3333 I-2.9278 J-9.5263
G1 Y-62.248
G2 X-146.7897 Y-61.3504 I1.5 J0.0
G1 F300.0 X-147.7511 Y-60.6323
G1 Z-3.0
G3 F800.0 X-148.5777 Y-60.3035 I-4.5368 J-10.2029
G1 X-147.4611
G3 X-147.7511 Y-60.6323 I1.8732 J-1.9445
G1 F300.0 X-146.7897 Y-61.3504
G2 F800.0 X-145.5879 Y-60.748 I1.2018 J-0.8976
G1 X-142.5
G1 Y-59.1035
G1 X-168.5
G1 Y-60.748
G1 X-153.2992
G2 X-149.3679 Y-61.3065 I0.1392 J-13.1374
G2 X-149.3602 Y-61.3088 I-0.433 J-1.4362
G2 X-147.0879 Y-62.3333 I-2.9278 J-9.5263
G1 Y-62.248
G2 X-146.7897 Y-61.3504 I1.5 J0.0
G1 F300.0 X-147.7511 Y-60.6323
G1 Z-3.6
G3 F800.0 X-148.5777 Y-60.3035 I-4.5368 J-10.2029
G1 X-147.4611
G3 X-147.7511 Y-60.6323 I1.8732 J-1.9445
G1 F300.0 X-146.7897 Y-61.3504
G2 F800.0 X-145.5879 Y-60.748 I1.2018 J-0.8976
G1 X-142.5
G1 Y-59.1035
G1 X-168.5
G1 Y-60.748
G1 X-153.2992
G2 X-149.3679 Y-61.3065 I0.1392 J-13.1374
G2 X-149.3602 Y-61.3088 I-0.433 J-1.4362
G2 X-147.0879 Y-62.3333 I-2.9278 J-9.5263
G1 Y-62.248
G2 X-146.7897 Y-61.3504 I1.5 J0.0
G1 F300.0 X-147.7511 Y-60.6323
G1 Z-4.2
G3 F800.0 X-148.5777 Y-60.3035 I-4.5368 J-10.2029
G1 X-147.4611
G3 X-147.7511 Y-60.6323 I1.8732 J-1.9445
G1 F300.0 X-146.7897 Y-61.3504
G2 F800.0 X-145.5879 Y-60.748 I1.2018 J-0.8976
G1 X-142.5
G1 Y-59.1035
G1 X-168.5
G1 Y-60.748
G1 X-153.2992
G2 X-149.3679 Y-61.3065 I0.1392 J-13.1374
G2 X-149.3602 Y-61.3088 I-0.433 J-1.4362
G2 X-147.0879 Y-62.3333 I-2.9278 J-9.5263
G1 Y-62.248
G2 X-146.7897 Y-61.3504 I1.5 J0.0
G1 F300.0 X-147.7511 Y-60.6323
G1 Z-4.8
G3 F800.0 X-148.5777 Y-60.3035 I-4.5368 J-10.2029
G1 X-147.4611
G3 X-147.7511 Y-60.6323 I1.8732 J-1.9445
G1 F300.0 X-146.7897 Y-61.3504
G2 F800.0 X-145.5879 Y-60.748 I1.2018 J-0.8976
G1 X-142.5
G1 Y-59.1035
G1 X-168.5
G1 Y-60.748
G1 X-153.2992
G2 X-149.3679 Y-61.3065 I0.1392 J-13.1374
G2 X-149.3602 Y-61.3088 I-0.433 J-1.4362
G2 X-147.0879 Y-62.3333 I-2.9278 J-9.5263
G1 Y-62.248
G2 X-146.7897 Y-61.3504 I1.5 J0.0
G1 F300.0 X-147.7511 Y-60.6323
G1 Z-5.0
G3 F800.0 X-148.5777 Y-60.3035 I-4.5368 J-10.2029
G1 X-147.4611
G3 X-147.7511 Y-60.6323 I1.8732 J-1.9445
G1 F300.0 X-146.7897 Y-61.3504
G2 F800.0 X-145.5879 Y-60.748 I1.2018 J-0.8976
G1 X-142.5
G1 Y-59.1035
G1 X-168.5
G1 Y-60.748
G1 X-153.2992
G2 X-149.3679 Y-61.3065 I0.1392 J-13.1374
G2 X-149.3602 Y-61.3088 I-0.433 J-1.4362
G2 X-147.0879 Y-62.3333 I-2.9278 J-9.5263
G1 Y-62.248
G2 X-146.7897 Y-61.3504 I1.5 J0.0
G0 Z3.0
G0 X-162.1863 Y-45.5295
G0 Z1.0
G1 F300.0 Z-0.6
G1 F800.0 X-163.3124
G3 X-163.0198 Y-45.1973 I-1.8732 J1.9445
G3 X-162.1863 Y-45.5295 I4.6838 J10.5417
G1 F300.0 X-161.7858 Y-44.3983
G3 F800.0 X-161.5091 Y-44.4919 I3.4497 J9.7427
G3 X-161.4992 Y-44.4951 I0.4605 J1.4276
G3 X-157.5314 Y-45.085 I3.8409 J12.1956
G1 X-142.5
G1 Y-46.7295
G1 X-168.5
G1 Y-45.085
G1 X-165.1855
G3 X-163.6855 Y-43.585 I0.0 J1.5
G1 Y-43.4989
G3 X-161.7858 Y-44.3983 I5.3495 J8.8432
G1 F300.0 X-162.1863 Y-45.5295
G1 Z-1.2
G1 F800.0 X-163.3124
G3 X-163.0198 Y-45.1973 I-1.8732 J1.9445
G3 X-162.1863 Y-45.5295 I4.6838 J10.5417
G1 F300.0 X-161.7858 Y-44.3983
G3 F800.0 X-161.5091 Y-44.4919 I3.4497 J9.7427
G3 X-161.4992 Y-44.4951 I0.4605 J1.4276
G3 X-157.5314 Y-45.085 I3.8409 J12.1956
G1 X-142.5
G1 Y-46.7295
G1 X-168.5
G1 Y-45.085
G1 X-165.1855
G3 X-163.6855 Y-43.585 I0.0 J1.5
G1 Y-43.4989
G3 X-161.7858 Y-44.3983 I5.3495 J8.8432
G1 F300.0 X-162.1863 Y-45.5295
G1 Z-1.8
G1 F800.0 X-163.3124
G3 X-163.0198 Y-45.1973 I-1.8732 J1.9445
G3 X-162.1863 Y-45.5295 I4.6838 J10.5417
G1 F300.0 X-161.7858 Y-44.3983
G3 F800.0 X-161.5091 Y-44.4919 I3.4497 J9.7427
G3 X-161.4992 Y-44.4951 I0.4605 J1.4276
G3 X-157.5314 Y-45.085 I3.8409 J12.1956
G1 X-142.5
G1 Y-46.7295
G1 X-168.5
G1 Y-45.085
G1 X-165.1855
G3 X-163.6855 Y-43.585 I0.0 J1.5
G1 Y-43.4989
G3 X-161.7858 Y-44.3983 I5.3495 J8.8432
G1 F300.0 X-162.1863 Y-45.5295
G1 Z-2.4
G1 F800.0 X-163.3124
G3 X-163.0198 Y-45.1973 I-1.8732 J1.9445
G3 X-162.1863 Y-45.5295 I4.6838 J10.5417
G1 F300.0 X-161.7858 Y-44.3983
G3 F800.0 X-161.5091 Y-44.4919 I3.4497 J9.7427
G3 X-161.4992 Y-44.4951 I0.4605 J1.4276
G3 X-157.5314 Y-45.085 I3.8409 J12.1956
G1 X-142.5
G1 Y-46.7295
G1 X-168.5
G1 Y-45.085
G1 X-165.1855
G3 X-163.6855 Y-43.585 I0.0 J1.5
G1 Y-43.4989
G3 X-161.7858 Y-44.3983 I5.3495 J8.8432
G1 F300.0 X-162.1863 Y-45.5295
G1 Z-3.0
G1 F800.0 X-163.3124
G3 X-163.0198 Y-45.1973 I-1.8732 J1.9445
G3 X-162.1863 Y-45.5295 I4.6838 J10.5417
G1 F300.0 X-161.7858 Y-44.3983
G3 F800.0 X-161.5091 Y-44.4919 I3.4497 J9.7427
G3 X-161.4992 Y-44.4951 I0.4605 J1.4276
G3 X-157.5314 Y-45.085 I3.8409 J12.1956
G1 X-142.5
G1 Y-46.7295
G1 X-168.5
G1 Y-45.085
G1 X-165.1855
G3 X-163.6855 Y-43.585 I0.0 J1.5
G1 Y-43.4989
G3 X-161.7858 Y-44.3983 I5.3495 J8.8432
G1 F300.0 X-162.1863 Y-45.5295
G1 Z-3.6
G1 F800.0 X-163.3124
G3 X-163.0198 Y-45.1973 I-1.8732 J1.9445
G3 X-162.1863 Y-45.5295 I4.6838 J10.5417
G1 F300.0 X-161.7858 Y-44.3983
G3 F800.0 X-161.5091 Y-44.4919 I3.4497 J9.7427
G3 X-161.4992 Y-44.4951 I0.4605 J1.4276
G3 X-157.5314 Y-45.085 I3.8409 J12.1956
G1 X-142.5
G1 Y-46.7295
G1 X-168.5
G1 Y-45.085
G1 X-165.1855
G3 X-163.6855 Y-43.585 I0.0 J1.5
G1 Y-43.4989
G3 X-161.7858 Y-44.3983 I5.3495 J8.8432
G1 F300.0 X-162.1863 Y-45.5295
G1 Z-4.2
G1 F800.0 X-163.3124
G3 X-163.0198 Y-45.1973 I-1.8732 J1.9445
G3 X-162.1863 Y-45.5295 I4.6838 J10.5417
G1 F300.0 X-161.7858 Y-44.3983
G3 F800.0 X-161.5091 Y-44.4919 I3.4497 J9.7427
G3 X-161.4992 Y-44.4951 I0.4605 J1.4276
G3 X-157.5314 Y-45.085 I3.8409 J12.1956
G1 X-142.5
G1 Y-46.7295
G1 X-168.5
G1 Y-45.085
G1 X-165.1855
G3 X-163.6855 Y-43.585 I0.0 J1.5
G1 Y-43.4989
G3 X-161.7858 Y-44.3983 I5.3495 J8.8432
G1 F300.0 X-162.1863 Y-45.5295
G1 Z-4.8
G1 F800.0 X-163.3124
G3 X-163.0198 Y-45.1973 I-1.8732 J1.9445
G3 X-162.1863 Y-45.5295 I4.6838 J10.5417
G1 F300.0 X-161.7858 Y-44.3983
G3 F800.0 X-161.5091 Y-44.4919 I3.4497 J9.7427
G3 X-161.4992 Y-44.4951 I0.4605 J1.4276
G3 X-157.5314 Y-45.085 I3.8409 J12.1956
G1 X-142.5
G1 Y-46.7295
G1 X-168.5
G1 Y-45.085
G1 X-165.1855
G3 X-163.6855 Y-43.585 I0.0 J1.5
G1 Y-43.4989
G3 X-161.7858 Y-44.3983 I5.3495 J8.8432
G1 F300.0 X-162.1863 Y-45.5295
G1 Z-5.0
G1 F800.0 X-163.3124
G3 X-163.0198 Y-45.1973 I-1.8732 J1.9445
G3 X-162.1863 Y-45.5295 I4.6838 J10.5417
G1 F300.0 X-161.7858 Y-44.3983
G3 F800.0 X-161.5091 Y-44.4919 I3.4497 J9.7427
G3 X-161.4992 Y-44.4951 I0.4605 J1.4276
G3 X-157.5314 Y-45.085 I3.8409 J12.1956
G1 X-142.5
G1 Y-46.7295
G1 X-168.5
G1 Y-45.085
G1 X-165.1855
G3 X-163.6855 Y-43.585 I0.0 J1.5
G1 Y-43.4989
G3 X-161.7858 Y-44.3983 I5.3495 J8.8432
G0 Z3.0
G0 X-167.2994 Y-39.7193
G0 Z1.0
G1 F300.0 Z-0.6
G2 F800.0 X-168.2719 Y-35.5502 I7.8627 J4.0321
G2 X-167.1785 Y-31.2529 I8.1493 J0.2143
G2 X-167.1412 Y-31.1918 I1.2983 J-0.7513
G2 X-163.6042 Y-28.3063 I6.2086 J-4.0
G2 X-160.943 Y-27.5625 I4.6067 J-11.3493
G2 X-157.5336 Y-27.3018 I3.2633 J-20.2477
G1 X-142.5
G1 Y-25.6572
G1 X-158.7285
G2 X-158.7456 Y-25.6571 I0.0 J1.5
G3 X-163.0365 Y-26.1234 I-0.206 J-18.0805
G2 X-163.046 Y-26.1256 I-0.3389 J1.4612
G3 X-166.6551 Y-27.8485 I1.9775 J-8.7839
G3 X-168.5879 Y-30.4913 I4.0426 J-4.9848
G3 X-169.1799 Y-33.931 I8.7856 J-3.2829
G2 X-169.18 Y-33.9864 I-1.4998 J-0.0251
G3 X-167.9875 Y-38.7335 I9.2956 J-0.1883
G3 X-167.2994 Y-39.7193 I8.4277 J5.1506
G1 F300.0 Z-1.2
G2 F800.0 X-168.2719 Y-35.5502 I7.8627 J4.0321
G2 X-167.1785 Y-31.2529 I8.1493 J0.2143
G2 X-167.1412 Y-31.1918 I1.2983 J-0.7513
G2 X-163.6042 Y-28.3063 I6.2086 J-4.0
G2 X-160.943 Y-27.5625 I4.6067 J-11.3493
G2 X-157.5336 Y-27.3018 I3.2633 J-20.2477
G1 X-142.5
G1 Y-25.6572
G1 X-158.7285
G2 X-158.7456 Y-25.6571 I0.0 J1.5
G3 X-163.0365 Y-26.1234 I-0.206 J-18.0805
G2 X-163.046 Y-26.1256 I-0.3389 J1.4612
G3 X-166.6551 Y-27.8485 I1.9775 J-8.7839
G3 X-168.5879 Y-30.4913 I4.0426 J-4.9848
G3 X-169.1799 Y-33.931 I8.7856 J-3.2829
G2 X-169.18 Y-33.9864 I-1.4998 J-0.0251
G3 X-167.9875 Y-38.7335 I9.2956 J-0.1883
G3 X-167.2994 Y-39.7193 I8.4277 J5.1506
G1 F300.0 Z-1.8
G2 F800.0 X-168.2719 Y-35.5502 I7.8627 J4.0321
G2 X-167.1785 Y-31.2529 I8.1493 J0.2143
G2 X-167.1412 Y-31.1918 I1.2983 J-0.7513
G2 X-163.6042 Y-28.3063 I6.2086 J-4.0
G2 X-160.943 Y-27.5625 I4.6067 J-11.3493
G2 X-157.5336 Y-27.3018 I3.2633 J-20.2477
G1 X-142.5
G1 Y-25.6572
G1 X-158.7285
G2 X-158.7456 Y-25.6571 I0.0 J1.5
G3 X-163.0365 Y-26.1234 I-0.206 J-18.0805
G2 X-163.046 Y-26.1256 I-0.3389 J1.4612
G3 X-166.6551 Y-27.8485 I1.9775 J-8.7839
G3 X-168.5879 Y-30.4913 I4.0426 J-4.9848
G3 X-169.1799 Y-33.931 I8.7856 J-3.2829
G2 X-169.18 Y-33.9864 I-1.4998 J-0.0251
G3 X-167.9875 Y-38.7335 I9.2956 J-0.1883
G3 X-167.2994 Y-39.7193 I8.4277 J5.1506
G1 F300.0 Z-2.4
G2 F800.0 X-168.2719 Y-35.5502 I7.8627 J4.0321
G2 X-167.1785 Y-31.2529 I8.1493 J0.2143
G2 X-167.1412 Y-31.1918 I1.2983 J-0.7513
G2 X-163.6042 Y-28.3063 I6.2086 J-4.0
G2 X-160.943 Y-27.5625 I4.6067 J-11.3493
G2 X-157.5336 Y-27.3018 I3.2633 J-20.2477
G1 X-142.5
G1 Y-25.6572
G1 X-158.7285
G2 X-158.7456 Y-25.6571 I0.0 J1.5
G3 X-163.0365 Y-26.1234 I-0.206 J-18.0805
G2 X-163.046 Y-26.1256 I-0.3389 J1.4612
G3 X-166.6551 Y-27.8485 I1.9775 J-8.7839
G3 X-168.5879 Y-30.4913 I4.0426 J-4.9848
G3 X-169.1799 Y-33.931 I8.7856 J-3.2829
G2 X-169.18 Y-33.9864 I-1.4998 J-0.0251
G3 X-167.9875 Y-38.7335 I9.2956 J-0.1883
G3 X-167.2994 Y-39.7193 I8.4277 J5.1506
G1 F300.0 Z-3.0
G2 F800.0 X-168.2719 Y-35.5502 I7.8627 J4.0321
G2 X-167.1785 Y-31.2529 I8.1493 J0.2143
G2 X-167.1412 Y-31.1918 I1.2983 J-0.7513
G2 X-163.6042 Y-28.3063 I6.2086 J-4.0
G2 X-160.943 Y-27.5625 I4.6067 J-11.3493
G2 X-157.5336 Y-27.3018 I3.2633 J-20.2477
G1 X-142.5
G1 Y-25.6572
G1 X-158.7285
G2 X-158.7456 Y-25.6571 I0.0 J1.5
G3 X-163.0365 Y-26.1234 I-0.206 J-18.0805
G2 X-163.046 Y-26.1256 I-0.3389 J1.4612
G3 X-166.6551 Y-27.8485 I1.9775 J-8.7839
G3 X-168.5879 Y-30.4913 I4.0426 J-4.9848
G3 X-169.1799 Y-33.931 I8.7856 J-3.2829
G2 X-169.18 Y-33.9864 I-1.4998 J-0.0251
G3 X-167.9875 Y-38.7335 I9.2956 J-0.1883
G3 X-167.2994 Y-39.7193 I8.4277 J5.1506
G1 F300.0 Z-3.6
G2 F800.0 X-168.2719 Y-35.5502 I7.8627 J4.0321
G2 X-167.1785 Y-31.2529 I8.1493 J0.2143
G2 X-167.1412 Y-31.1918 I1.2983 J-0.7513
G2 X-163.6042 Y-28.3063 I6.2086 J-4.0
G2 X-160.943 Y-27.5625 I4.6067 J-11.3493
G2 X-157.5336 Y-27.3018 I3.2633 J-20.2477
G1 X-142.5
G1 Y-25.6572
G1 X-158.7285
G2 X-158.7456 Y-25.6571 I0.0 J1.5
G3 X-163.0365 Y-26.1234 I-0.206 J-18.0805
G2 X-163.046 Y-26.1256 I-0.3389 J1.4612
G3 X-166.6551 Y-27.8485 I1.9775 J-8.7839
G3 X-168.5879 Y-30.4913 I4.0426 J-4.9848
G3 X-169.1799 Y-33.931 I8.7856 J-3.2829
G2 X-169.18 Y-33.9864 I-1.4998 J-0.0251
G3 X-167.9875 Y-38.7335 I9.2956 J-0.1883
G3 X-167.2994 Y-39.7193 I8.4277 J5.1506
G1 F300.0 Z-4.2
G2 F800.0 X-168.2719 Y-35.5502 I7.8627 J4.0321
G2 X-167.1785 Y-31.2529 I8.1493 J0.2143
G2 X-167.1412 Y-31.1918 I1.2983 J-0.7513
G2 X-163.6042 Y-28.3063 I6.2086 J-4.0
G2 X-160.943 Y-27.5625 I4.6067 J-11.3493
G2 X-157.5336 Y-27.3018 I3.2633 J-20.2477
G1 X-142.5
G1 Y-25.6572
G1 X-158.7285
G2 X-158.7456 Y-25.6571 I0.0 J1.5
G3 X-163.0365 Y-26.1234 I-0.206 J-18.0805
G2 X-163.046 Y-26.1256 I-0.3389 J1.4612
G3 X-166.6551 Y-27.8485 I1.9775 J-8.7839
G3 X-168.5879 Y-30.4913 I4.0426 J-4.9848
G3 X-169.1799 Y-33.931 I8.7856 J-3.2829
G2 X-169.18 Y-33.9864 I-1.4998 J-0.0251
G3 X-167.9875 Y-38.7335 I9.2956 J-0.1883
G3 X-167.2994 Y-39.7193 I8.4277 J5.1506
G1 F300.0 Z-4.8
G2 F800.0 X-168.2719 Y-35.5502 I7.8627 J4.0321
G2 X-167.1785 Y-31.2529 I8.1493 J0.2143
G2 X-167.1412 Y-31.1918 I1.2983 J-0.7513
G2 X-163.6042 Y-28.3063 I6.2086 J-4.0
G2 X-160.943 Y-27.5625 I4.6067 J-11.3493
G2 X-157.5336 Y-27.3018 I3.2633 J-20.2477
G1 X-142.5
G1 Y-25.6572
G1 X-158.7285
G2 X-158.7456 Y-25.6571 I0.0 J1.5
G3 X-163.0365 Y-26.1234 I-0.206 J-18.0805
G2 X-163.046 Y-26.1256 I-0.3389 J1.4612
G3 X-166.6551 Y-27.8485 I1.9775 J-8.7839
G3 X-168.5879 Y-30.4913 I4.0426 J-4.9848
G3 X-169.1799 Y-33.931 I8.7856 J-3.2829
G2 X-169.18 Y-33.9864 I-1.4998 J-0.0251
G3 X-167.9875 Y-38.7335 I9.2956 J-0.1883
G3 X-167.2994 Y-39.7193 I8.4277 J5.1506
G1 F300.0 Z-5.0
G2 F800.0 X-168.2719 Y-35.5502 I7.8627 J4.0321
G2 X-167.1785 Y-31.2529 I8.1493 J0.2143
G2 X-167.1412 Y-31.1918 I1.2983 J-0.7513
G2 X-163.6042 Y-28.3063 I6.2086 J-4.0
G2 X-160.943 Y-27.5625 I4.6067 J-11.3493
G2 X-157.5336 Y-27.3018 I3.2633 J-20.2477
G1 X-142.5
G1 Y-25.6572
G1 X-158.7285
G2 X-158.7456 Y-25.6571 I0.0 J1.5
G3 X-163.0365 Y-26.1234 I-0.206 J-18.0805
G2 X-163.046 Y-26.1256 I-0.3389 J1.4612
G3 X-166.6551 Y-27.8485 I1.9775 J-8.7839
G3 X-168.5879 Y-30.4913 I4.0426 J-4.9848
G3 X-169.1799 Y-33.931 I8.7856 J-3.2829
G2 X-169.18 Y-33.9864 I-1.4998 J-0.0251
G3 X-167.9875 Y-38.7335 I9.2956 J-0.1883
G3 X-167.2994 Y-39.7193 I8.4277 J5.1506
G0 Z3.0
G0 X-160.506 Y-15.155
G0 Z1.0
G1 F300.0 Z-0.6
G2 F800.0 X-165.3913 Y-12.6072 I3.5414 J12.7481
G3 X-165.3962 Y-12.6033 I-0.9553 J-1.1564
G2 X-168.2627 Y-8.8442 I6.487 J7.9192
G2 X-169.1798 Y-4.1284 I10.7831 J4.5443
G3 X-169.1801 Y-4.0713 I-1.4998 J0.022
G2 X-168.2409 Y0.2356 I9.3411 J0.2188
G2 X-166.0145 Y2.7911 I6.6252 J-3.5245
G3 X-168.2718 Y-3.5213 I7.0328 J-6.0747
G3 X-167.4017 Y-7.8321 I10.443 J-0.1354
G3 X-167.3898 Y-7.8587 I1.3749 J0.5997
G3 X-164.5663 Y-11.3877 I8.4966 J3.9039
G3 X-164.5637 Y-11.3897 I0.9101 J1.1924
G3 X-159.8982 Y-13.5866 I7.4964 J9.8672
G3 X-155.0469 Y-14.1309 I4.6519 J19.5699
G3 X-150.5223 Y-13.5966 I0.1775 J17.9221
G3 X-146.1958 Y-11.4922 I-2.8034 J11.2634
G3 X-146.1812 Y-11.4808 I-0.9214 J1.1836
G3 X-142.7282 Y-4.0052 I-5.7374 J7.1854
G3 X-143.5282 Y0.03 I-10.0658 J0.1013
G3 X-143.5382 Y0.0531 I-1.3807 J-0.5862
G3 X-144.3293 Y1.4817 I-8.5462 J-3.7988
G2 X-142.9996 Y-0.308 I-6.856 J-6.4824
G2 X-141.8199 Y-5.3465 I-9.1595 J-4.802
G3 X-141.8202 Y-5.4027 I1.4996 J-0.0343
G2 X-142.628 Y-9.6169 I-10.5914 J-0.1541
G2 X-145.1542 Y-12.9743 I-8.3562 J3.6582
G2 X-149.6061 Y-15.245 I-7.4609 J9.1283
G2 X-154.8034 Y-15.8888 I-4.9769 J18.8772
G3 X-154.837 I-0.0169 J-1.4999
G2 X-160.506 Y-15.155 I-0.2279 J20.5067
G0 Z3.0
G0 X-163.6926 Y6.138
G0 Z1.0
G1 F300.0 Z-0.6
G3 F800.0 X-164.1053 Y6.6457 I-2.2859 J-1.4369
G1 X-162.5808
G3 X-163.6926 Y6.138 I4.0048 J-10.2412
G0 Z3.0
G0 X-149.3328 Y6.6457
G0 Z1.0
G1 F300.0 Z-0.6
G1 F800.0 X-147.8009
G3 X-148.1824 Y6.1865 I1.8732 J-1.9445
G3 X-149.3328 Y6.6457 I-5.098 J-11.1013
G1 F300.0 X-149.7198 Y5.5124
G3 F800.0 X-149.884 Y5.567 I-3.5607 J-10.4272
G3 X-149.8941 Y5.5702 I-0.4624 J-1.427
G3 X-154.1199 Y6.2012 I-4.0917 J-12.9374
G1 X-158.3724
G3 X-164.5339 Y4.184 I-0.2036 J-9.7967
G3 X-164.4785 Y4.5879 I-1.4446 J0.4039
G1 Y4.7012
G3 X-165.9785 Y6.2012 I-1.5 J0.0
G1 X-182.4336
G1 Y7.8457
G1 X-142.5
G1 Y6.2012
G1 X-145.9277
G3 X-147.4277 Y4.7012 I0.0 J-1.5
G1 Y4.5879
G3 X-147.4177 Y4.4143 I1.5 J0.0
G3 X-149.7198 Y5.5124 I-5.8628 J-9.3291
G1 F300.0 X-149.3328 Y6.6457
G1 Z-1.2
G1 F800.0 X-147.8009
G3 X-148.1824 Y6.1865 I1.8732 J-1.9445
G3 X-149.3328 Y6.6457 I-5.098 J-11.1013
G0 Z3.0
G0 X-162.5808
G0 Z0.4
G1 F300.0 Z-1.2
G3 F800.0 X-163.6926 Y6.138 I4.0048 J-10.2412
G3 X-164.1053 Y6.6457 I-2.2859 J-1.4369
G1 X-162.5808
G1 F300.0 X-162.1447 Y5.5303
G3 F800.0 X-164.5339 Y4.184 I3.5686 J-9.1258
G3 X-164.4785 Y4.5879 I-1.4446 J0.4039
G1 Y4.7012
G3 X-165.9785 Y6.2012 I-1.5 J0.0
G1 X-182.4336
G1 Y7.8457
G1 X-142.5
G1 Y6.2012
G1 X-145.9277
G3 X-147.4277 Y4.7012 I0.0 J-1.5
G1 Y4.5879
G3 X-147.4177 Y4.4143 I1.5 J0.0
G3 X-149.884 Y5.567 I-5.8628 J-9.3291
G3 X-149.8941 Y5.5702 I-0.4624 J-1.427
G3 X-154.1199 Y6.2012 I-4.0917 J-12.9374
G1 X-158.3724
G3 X-162.1447 Y5.5303 I-0.2036 J-9.7967
G0 Z3.0
G0 X-166.0145 Y2.7911
G0 Z0.4
G1 F300.0 Z-1.2
G3 F800.0 X-168.2718 Y-3.5213 I7.0328 J-6.0747
G3 X-167.4017 Y-7.8321 I10.443 J-0.1354
G3 X-167.3898 Y-7.8587 I1.3749 J0.5997
G3 X-164.5663 Y-11.3877 I8.4966 J3.9039
G3 X-164.5637 Y-11.3897 I0.9101 J1.1924
G3 X-159.8982 Y-13.5866 I7.4964 J9.8672
G3 X-155.0469 Y-14.1309 I4.6519 J19.5699
G3 X-150.5223 Y-13.5966 I0.1775 J17.9221
G3 X-146.1958 Y-11.4922 I-2.8034 J11.2634
G3 X-146.1812 Y-11.4808 I-0.9214 J1.1836
G3 X-142.7282 Y-4.0052 I-5.7374 J7.1854
G3 X-143.5282 Y0.03 I-10.0658 J0.1013
G3 X-143.5382 Y0.0531 I-1.3807 J-0.5862
G3 X-144.3293 Y1.4817 I-8.5462 J-3.7988
G2 X-142.9996 Y-0.308 I-6.856 J-6.4824
G2 X-141.8199 Y-5.3465 I-9.1595 J-4.802
G3 X-141.8202 Y-5.4027 I1.4996 J-0.0343
G2 X-142.628 Y-9.6169 I-10.5914 J-0.1541
G2 X-145.1542 Y-12.9743 I-8.3562 J3.6582
G2 X-149.6061 Y-15.245 I-7.4609 J9.1283
G2 X-154.8034 Y-15.8888 I-4.9769 J18.8772
G3 X-154.837 I-0.0169 J-1.4999
G2 X-160.506 Y-15.155 I-0.2279 J20.5067
G2 X-165.3913 Y-12.6072 I3.5414 J12.7481
G3 X-165.3962 Y-12.6033 I-0.9553 J-1.1564
G2 X-168.2627 Y-8.8442 I6.487 J7.9192
G2 X-169.1798 Y-4.1284 I10.7831 J4.5443
G3 X-169.1801 Y-4.0713 I-1.4998 J0.022
G2 X-168.2409 Y0.2356 I9.3411 J0.2188
G2 X-166.0145 Y2.7911 I6.6252 J-3.5245
G1 F300.0 Z-1.8
G3 F800.0 X-168.2718 Y-3.5213 I7.0328 J-6.0747
G3 X-167.4017 Y-7.8321 I10.443 J-0.1354
G3 X-167.3898 Y-7.8587 I1.3749 J0.5997
G3 X-164.5663 Y-11.3877 I8.4966 J3.9039
G3 X-164.5637 Y-11.3897 I0.9101 J1.1924
G3 X-159.8982 Y-13.5866 I7.4964 J9.8672
G3 X-155.0469 Y-14.1309 I4.6519 J19.5699
G3 X-150.5223 Y-13.5966 I0.1775 J17.9221
G3 X-146.1958 Y-11.4922 I-2.8034 J11.2634
G3 X-146.1812 Y-11.4808 I-0.9214 J1.1836
G3 X-142.7282 Y-4.0052 I-5.7374 J7.1854
G3 X-143.5282 Y0.03 I-10.0658 J0.1013
G3 X-143.5382 Y0.0531 I-1.3807 J-0.5862
G3 X-144.3293 Y1.4817 I-8.5462 J-3.7988
G2 X-142.9996 Y-0.308 I-6.856 J-6.4824
G2 X-141.8199 Y-5.3465 I-9.1595 J-4.802
G3 X-141.8202 Y-5.4027 I1.4996 J-0.0343
G2 X-142.628 Y-9.6169 I-10.5914 J-0.1541
G2 X-145.1542 Y-12.9743 I-8.3562 J3.6582
G2 X-149.6061 Y-15.245 I-7.4609 J9.1283
G2 X-154.8034 Y-15.8888 I-4.9769 J18.8772
G3 X-154.837 I-0.0169 J-1.4999
G2 X-160.506 Y-15.155 I-0.2279 J20.5067
G2 X-165.3913 Y-12.6072 I3.5414 J12.7481
G3 X-165.3962 Y-12.6033 I-0.9553 J-1.1564
G2 X-168.2627 Y-8.8442 I6.487 J7.9192
G2 X-169.1798 Y-4.1284 I10.7831 J4.5443
G3 X-169.1801 Y-4.0713 I-1.4998 J0.022
G2 X-168.2409 Y0.2356 I9.3411 J0.2188
G2 X-166.0145 Y2.7911 I6.6252 J-3.5245
G0 Z3.0
G0 X-163.6926 Y6.138
G0 Z-0.2
G1 F300.0 Z-1.8
G3 F800.0 X-164.1053 Y6.6457 I-2.2859 J-1.4369
G1 X-162.5808
G3 X-163.6926 Y6.138 I4.0048 J-10.2412
G0 Z3.0
G0 X-149.3328 Y6.6457
G0 Z-0.2
G1 F300.0 Z-1.8
G1 F800.0 X-147.8009
G3 X-148.1824 Y6.1865 I1.8732 J-1.9445
G3 X-149.3328 Y6.6457 I-5.098 J-11.1013
G1 F300.0 X-149.7198 Y5.5124
G3 F800.0 X-149.884 Y5.567 I-3.5607 J-10.4272
G3 X-149.8941 Y5.5702 I-0.4624 J-1.427
G3 X-154.1199 Y6.2012 I-4.0917 J-12.9374
G1 X-158.3724
G3 X-164.5339 Y4.184 I-0.2036 J-9.7967
G3 X-164.4785 Y4.5879 I-1.4446 J0.4039
G1 Y4.7012
G3 X-165.9785 Y6.2012 I-1.5 J0.0
G1 X-182.4336
G1 Y7.8457
G1 X-142.5
G1 Y6.2012
G1 X-145.9277
G3 X-147.4277 Y4.7012 I0.0 J-1.5
G1 Y4.5879
G3 X-147.4177 Y4.4143 I1.5 J0.0
G3 X-149.7198 Y5.5124 I-5.8628 J-9.3291
G1 F300.0 X-149.3328 Y6.6457
G1 Z-2.4
G1 F800.0 X-147.8009
G3 X-148.1824 Y6.1865 I1.8732 J-1.9445
G3 X-149.3328 Y6.6457 I-5.098 J-11.1013
G0 Z3.0
G0 X-162.5808
G0 Z-0.8
G1 F300.0 Z-2.4
G3 F800.0 X-163.6926 Y6.138 I4.0048 J-10.2412
G3 X-164.1053 Y6.6457 I-2.2859 J-1.4369
G1 X-162.5808
G1 F300.0 X-162.1447 Y5.5303
G3 F800.0 X-164.5339 Y4.184 I3.5686 J-9.1258
G3 X-164.4785 Y4.5879 I-1.4446 J0.4039
G1 Y4.7012
G3 X-165.9785 Y6.2012 I-1.5 J0.0
G1 X-182.4336
G1 Y7.8457
G1 X-142.5
G1 Y6.2012
G1 X-145.9277
G3 X-147.4277 Y4.7012 I0.0 J-1.5
G1 Y4.5879
G3 X-147.4177 Y4.4143 I1.5 J0.0
G3 X-149.884 Y5.567 I-5.8628 J-9.3291
G3 X-149.8941 Y5.5702 I-0.4624 J-1.427
G3 X-154.1199 Y6.2012 I-4.0917 J-12.9374
G1 X-158.3724
G3 X-162.1447 Y5.5303 I-0.2036 J-9.7967
G0 Z3.0
G0 X-166.0145 Y2.7911
G0 Z-0.8
G1 F300.0 Z-2.4
G3 F800.0 X-168.2718 Y-3.5213 I7.0328 J-6.0747
G3 X-167.4017 Y-7.8321 I10.443 J-0.1354
G3 X-167.3898 Y-7.8587 I1.3749 J0.5997
G3 X-164.5663 Y-11.3877 I8.4966 J3.9039
G3 X-164.5637 Y-11.3897 I0.9101 J1.1924
G3 X-159.8982 Y-13.5866 I7.4964 J9.8672
G3 X-155.0469 Y-14.1309 I4.6519 J19.5699
G3 X-150.5223 Y-13.5966 I0.1775 J17.9221
G3 X-146.1958 Y-11.4922 I-2.8034 J11.2634
G3 X-146.1812 Y-11.4808 I-0.9214 J1.1836
G3 X-142.7282 Y-4.0052 I-5.7374 J7.1854
G3 X-143.5282 Y0.03 I-10.0658 J0.1013
G3 X-143.5382 Y0.0531 I-1.3807 J-0.5862
G3 X-144.3293 Y1.4817 I-8.5462 J-3.7988
G2 X-142.9996 Y-0.308 I-6.856 J-6.4824
G2 X-141.8199 Y-5.3465 I-9.1595 J-4.802
G3 X-141.8202 Y-5.4027 I1.4996 J-0.0343
G2 X-142.628 Y-9.6169 I-10.5914 J-0.1541
G2 X-145.1542 Y-12.9743 I-8.3562 J3.6582
G2 X-149.6061 Y-15.245 I-7.4609 J9.1283
G2 X-154.8034 Y-15.8888 I-4.9769 J18.8772
G3 X-154.837 I-0.0169 J-1.4999
G2 X-160.506 Y-15.155 I-0.2279 J20.5067
G2 X-165.3913 Y-12.6072 I3.5414 J12.7481
G3 X-165.3962 Y-12.6033 I-0.9553 J-1.1564
G2 X-168.2627 Y-8.8442 I6.487 J7.9192
G2 X-169.1798 Y-4.1284 I10.7831 J4.5443
G3 X-169.1801 Y-4.0713 I-1.4998 J0.022
G2 X-168.2409 Y0.2356 I9.3411 J0.2188
G2 X-166.0145 Y2.7911 I6.6252 J-3.5245
G1 F300.0 Z-3.0
G3 F800.0 X-168.2718 Y-3.5213 I7.0328 J-6.0747
G3 X-167.4017 Y-7.8321 I10.443 J-0.1354
G3 X-167.3898 Y-7.8587 I1.3749 J0.5997
G3 X-164.5663 Y-11.3877 I8.4966 J3.9039
G3 X-164.5637 Y-11.3897 I0.9101 J1.1924
G3 X-159.8982 Y-13.5866 I7.4964 J9.8672
G3 X-155.0469 Y-14.1309 I4.6519 J19.5699
G3 X-150.5223 Y-13.5966 I0.1775 J17.9221
G3 X-146.1958 Y-11.4922 I-2.8034 J11.2634
G3 X-146.1812 Y-11.4808 I-0.9214 J1.1836
G3 X-142.7282 Y-4.0052 I-5.7374 J7.1854
G3 X-143.5282 Y0.03 I-10.0658 J0.1013
G3 X-143.5382 Y0.0531 I-1.3807 J-0.5862
G3 X-144.3293 Y1.4817 I-8.5462 J-3.7988
G2 X-142.9996 Y-0.308 I-6.856 J-6.4824
G2 X-141.8199 Y-5.3465 I-9.1595 J-4.802
G3 X-141.8202 Y-5.4027 I1.4996 J-0.0343
G2 X-142.628 Y-9.6169 I-10.5914 J-0.1541
G2 X-145.1542 Y-12.9743 I-8.3562 J3.6582
G2 X-149.6061 Y-15.245 I-7.4609 J9.1283
G2 X-154.8034 Y-15.8888 I-4.9769 J18.8772
G3 X-154.837 I-0.0169 J-1.4999
G2 X-160.506 Y-15.155 I-0.2279 J20.5067
G2 X-165.3913 Y-12.6072 I3.5414 J12.7481
G3 X-165.3962 Y-12.6033 I-0.9553 J-1.1564
G2 X-168.2627 Y-8.8442 I6.487 J7.9192
G2 X-169.1798 Y-4.1284 I10.7831 J4.5443
G3 X-169.1801 Y-4.0713 I-1.4998 J0.022
G2 X-168.2409 Y0.2356 I9.3411 J0.2188
G2 X-166.0145 Y2.7911 I6.6252 J-3.5245
G0 Z3.0
G0 X-163.6926 Y6.138
G0 Z-1.4
G1 F300.0 Z-3.0
G3 F800.0 X-164.1053 Y6.6457 I-2.2859 J-1.4369
G1 X-162.5808
G3 X-163.6926 Y6.138 I4.0048 J-10.2412
G0 Z3.0
G0 X-149.3328 Y6.6457
G0 Z-1.4
G1 F300.0 Z-3.0
G1 F800.0 X-147.8009
G3 X-148.1824 Y6.1865 I1.8732 J-1.9445
G3 X-149.3328 Y6.6457 I-5.098 J-11.1013
G1 F300.0 X-149.7198 Y5.5124
G3 F800.0 X-149.884 Y5.567 I-3.5607 J-10.4272
G3 X-149.8941 Y5.5702 I-0.4624 J-1.427
G3 X-154.1199 Y6.2012 I-4.0917 J-12.9374
G1 X-158.3724
G3 X-164.5339 Y4.184 I-0.2036 J-9.7967
G3 X-164.4785 Y4.5879 I-1.4446 J0.4039
G1 Y4.7012
G3 X-165.9785 Y6.2012 I-1.5 J0.0
G1 X-182.4336
G1 Y7.8457
G1 X-142.5
G1 Y6.2012
G1 X-145.9277
G3 X-147.4277 Y4.7012 I0.0 J-1.5
G1 Y4.5879
G3 X-147.4177 Y4.4143 I1.5 J0.0
G3 X-149.7198 Y5.5124 I-5.8628 J-9.3291
G1 F300.0 X-149.3328 Y6.6457
G1 Z-3.6
G1 F800.0 X-147.8009
G3 X-148.1824 Y6.1865 I1.8732 J-1.9445
G3 X-149.3328 Y6.6457 I-5.098 J-11.1013
G0 Z3.0
G0 X-162.5808
G0 Z-2.0
G1 F300.0 Z-3.6
G3 F800.0 X-163.6926 Y6.138 I4.0048 J-10.2412
G3 X-164.1053 Y6.6457 I-2.2859 J-1.4369
G1 X-162.5808
G1 F300.0 X-162.1447 Y5.5303
G3 F800.0 X-164.5339 Y4.184 I3.5686 J-9.1258
G3 X-164.4785 Y4.5879 I-1.4446 J0.4039
G1 Y4.7012
G3 X-165.9785 Y6.2012 I-1.5 J0.0
G1 X-182.4336
G1 Y7.8457
G1 X-142.5
G1 Y6.2012
G1 X-145.9277
G3 X-147.4277 Y4.7012 I0.0 J-1.5
G1 Y4.5879
G3 X-147.4177 Y4.4143 I1.5 J0.0
G3 X-149.884 Y5.567 I-5.8628 J-9.3291
G3 X-149.8941 Y5.5702 I-0.4624 J-1.427
G3 X-154.1199 Y6.2012 I-4.0917 J-12.9374
G1 X-158.3724
G3 X-162.1447 Y5.5303 I-0.2036 J-9.7967
G0 Z3.0
G0 X-166.0145 Y2.7911
G0 Z-2.0
G1 F300.0 Z-3.6
G3 F800.0 X-168.2718 Y-3.5213 I7.0328 J-6.0747
G3 X-167.4017 Y-7.8321 I10.443 J-0.1354
G3 X-167.3898 Y-7.8587 I1.3749 J0.5997
G3 X-164.5663 Y-11.3877 I8.4966 J3.9039
G3 X-164.5637 Y-11.3897 I0.9101 J1.1924
G3 X-159.8982 Y-13.5866 I7.4964 J9.8672
G3 X-155.0469 Y-14.1309 I4.6519 J19.5699
G3 X-150.5223 Y-13.5966 I0.1775 J17.9221
G3 X-146.1958 Y-11.4922 I-2.8034 J11.2634
G3 X-146.1812 Y-11.4808 I-0.9214 J1.1836
G3 X-142.7282 Y-4.0052 I-5.7374 J7.1854
G3 X-143.5282 Y0.03 I-10.0658 J0.1013
G3 X-143.5382 Y0.0531 I-1.3807 J-0.5862
G3 X-144.3293 Y1.4817 I-8.5462 J-3.7988
G2 X-142.9996 Y-0.308 I-6.856 J-6.4824
G2 X-141.8199 Y-5.3465 I-9.1595 J-4.802
G3 X-141.8202 Y-5.4027 I1.4996 J-0.0343
G2 X-142.628 Y-9.6169 I-10.5914 J-0.1541
G2 X-145.1542 Y-12.9743 I-8.3562 J3.6582
G2 X-149.6061 Y-15.245 I-7.4609 J9.1283
G2 X-154.8034 Y-15.8888 I-4.9769 J18.8772
G3 X-154.837 I-0.0169 J-1.4999
G2 X-160.506 Y-15.155 I-0.2279 J20.5067
G2 X-165.3913 Y-12.6072 I3.5414 J12.7481
G3 X-165.3962 Y-12.6033 I-0.9553 J-1.1564
G2 X-168.2627 Y-8.8442 I6.487 J7.9192
G2 X-169.1798 Y-4.1284 I10.7831 J4.5443
G3 X-169.1801 Y-4.0713 I-1.4998 J0.022
G2 X-168.2409 Y0.2356 I9.3411 J0.2188
G2 X-166.0145 Y2.7911 I6.6252 J-3.5245
G1 F300.0 Z-4.2
G3 F800.0 X-168.2718 Y-3.5213 I7.0328 J-6.0747
G3 X-167.4017 Y-7.8321 I10.443 J-0.1354
G3 X-167.3898 Y-7.8587 I1.3749 J0.5997
G3 X-164.5663 Y-11.3877 I8.4966 J3.9039
G3 X-164.5637 Y-11.3897 I0.9101 J1.1924
G3 X-159.8982 Y-13.5866 I7.4964 J9.8672
G3 X-155.0469 Y-14.1309 I4.6519 J19.5699
G3 X-150.5223 Y-13.5966 I0.1775 J17.9221
G3 X-146.1958 Y-11.4922 I-2.8034 J11.2634
G3 X-146.1812 Y-11.4808 I-0.9214 J1.1836
G3 X-142.7282 Y-4.0052 I-5.7374 J7.1854
G3 X-143.5282 Y0.03 I-10.0658 J0.1013
G3 X-143.5382 Y0.0531 I-1.3807 J-0.5862
G3 X-144.3293 Y1.4817 I-8.5462 J-3.7988
G2 X-142.9996 Y-0.308 I-6.856 J-6.4824
G2 X-141.8199 Y-5.3465 I-9.1595 J-4.802
G3 X-141.8202 Y-5.4027 I1.4996 J-0.0343
G2 X-142.628 Y-9.6169 I-10.5914 J-0.1541
G2 X-145.1542 Y-12.9743 I-8.3562 J3.6582
G2 X-149.6061 Y-15.245 I-7.4609 J9.1283
G2 X-154.8034 Y-15.8888 I-4.9769 J18.8772
G3 X-154.837 I-0.0169 J-1.4999
G2 X-160.506 Y-15.155 I-0.2279 J20.5067
G2 X-165.3913 Y-12.6072 I3.5414 J12.7481
G3 X-165.3962 Y-12.6033 I-0.9553 J-1.1564
G2 X-168.2627 Y-8.8442 I6.487 J7.9192
G2 X-169.1798 Y-4.1284 I10.7831 J4.5443
G3 X-169.1801 Y-4.0713 I-1.4998 J0.022
G2 X-168.2409 Y0.2356 I9.3411 J0.2188
G2 X-166.0145 Y2.7911 I6.6252 J-3.5245
G0 Z3.0
G0 X-163.6926 Y6.138
G0 Z-2.6
G1 F300.0 Z-4.2
G3 F800.0 X-164.1053 Y6.6457 I-2.2859 J-1.4369
G1 X-162.5808
G3 X-163.6926 Y6.138 I4.0048 J-10.2412
G0 Z3.0
G0 X-149.3328 Y6.6457
G0 Z-2.6
G1 F300.0 Z-4.2
G1 F800.0 X-147.8009
G3 X-148.1824 Y6.1865 I1.8732 J-1.9445
G3 X-149.3328 Y6.6457 I-5.098 J-11.1013
G1 F300.0 X-149.7198 Y5.5124
G3 F800.0 X-149.884 Y5.567 I-3.5607 J-10.4272
G3 X-149.8941 Y5.5702 I-0.4624 J-1.427
G3 X-154.1199 Y6.2012 I-4.0917 J-12.9374
G1 X-158.3724
G3 X-164.5339 Y4.184 I-0.2036 J-9.7967
G3 X-164.4785 Y4.5879 I-1.4446 J0.4039
G1 Y4.7012
G3 X-165.9785 Y6.2012 I-1.5 J0.0
G1 X-182.4336
G1 Y7.8457
G1 X-142.5
G1 Y6.2012
G1 X-145.9277
G3 X-147.4277 Y4.7012 I0.0 J-1.5
G1 Y4.5879
G3 X-147.4177 Y4.4143 I1.5 J0.0
G3 X-149.7198 Y5.5124 I-5.8628 J-9.3291
G1 F300.0 X-149.3328 Y6.6457
G1 Z-4.8
G1 F800.0 X-147.8009
G3 X-148.1824 Y6.1865 I1.8732 J-1.9445
G3 X-149.3328 Y6.6457 I-5.098 J-11.1013
G0 Z3.0
G0 X-162.5808
G0 Z-3.2
G1 F300.0 Z-4.8
G3 F800.0 X-163.6926 Y6.138 I4.0048 J-10.2412
G3 X-164.1053 Y6.6457 I-2.2859 J-1.4369
G1 X-162.5808
G1 F300.0 X-162.1447 Y5.5303
G3 F800.0 X-164.5339 Y4.184 I3.5686 J-9.1258
G3 X-164.4785 Y4.5879 I-1.4446 J0.4039
G1 Y4.7012
G3 X-165.9785 Y6.2012 I-1.5 J0.0
G1 X-182.4336
G1 Y7.8457
G1 X-142.5
G1 Y6.2012
G1 X-145.9277
G3 X-147.4277 Y4.7012 I0.0 J-1.5
G1 Y4.5879
G3 X-147.4177 Y4.4143 I1.5 J0.0
G3 X-149.884 Y5.567 I-5.8628 J-9.3291
G3 X-149.8941 Y5.5702 I-0.4624 J-1.427
G3 X-154.1199 Y6.2012 I-4.0917 J-12.9374
G1 X-158.3724
G3 X-162.1447 Y5.5303 I-0.2036 J-9.7967
G0 Z3.0
G0 X-166.0145 Y2.7911
G0 Z-3.2
G1 F300.0 Z-4.8
G3 F800.0 X-168.2718 Y-3.5213 I7.0328 J-6.0747
G3 X-167.4017 Y-7.8321 I10.443 J-0.1354
G3 X-167.3898 Y-7.8587 I1.3749 J0.5997
G3 X-164.5663 Y-11.3877 I8.4966 J3.9039
G3 X-164.5637 Y-11.3897 I0.9101 J1.1924
G3 X-159.8982 Y-13.5866 I7.4964 J9.8672
G3 X-155.0469 Y-14.1309 I4.6519 J19.5699
G3 X-150.5223 Y-13.5966 I0.1775 J17.9221
G3 X-146.1958 Y-11.4922 I-2.8034 J11.2634
G3 X-146.1812 Y-11.4808 I-0.9214 J1.1836
G3 X-142.7282 Y-4.0052 I-5.7374 J7.1854
G3 X-143.5282 Y0.03 I-10.0658 J0.1013
G3 X-143.5382 Y0.0531 I-1.3807 J-0.5862
G3 X-144.3293 Y1.4817 I-8.5462 J-3.7988
G2 X-142.9996 Y-0.308 I-6.856 J-6.4824
G2 X-141.8199 Y-5.3465 I-9.1595 J-4.802
G3 X-141.8202 Y-5.4027 I1.4996 J-0.0343
G2 X-142.628 Y-9.6169 I-10.5914 J-0.1541
G2 X-145.1542 Y-12.9743 I-8.3562 J3.6582
G2 X-149.6061 Y-15.245 I-7.4609 J9.1283
G2 X-154.8034 Y-15.8888 I-4.9769 J18.8772
G3 X-154.837 I-0.0169 J-1.4999
G2 X-160.506 Y-15.155 I-0.2279 J20.5067
G2 X-165.3913 Y-12.6072 I3.5414 J12.7481
G3 X-165.3962 Y-12.6033 I-0.9553 J-1.1564
G2 X-168.2627 Y-8.8442 I6.487 J7.9192
G2 X-169.1798 Y-4.1284 I10.7831 J4.5443
G3 X-169.1801 Y-4.0713 I-1.4998 J0.022
G2 X-168.2409 Y0.2356 I9.3411 J0.2188
G2 X-166.0145 Y2.7911 I6.6252 J-3.5245
G1 F300.0 Z-5.0
G3 F800.0 X-168.2718 Y-3.5213 I7.0328 J-6.0747
G3 X-167.4017 Y-7.8321 I10.443 J-0.1354
G3 X-167.3898 Y-7.8587 I1.3749 J0.5997
G3 X-164.5663 Y-11.3877 I8.4966 J3.9039
G3 X-164.5637 Y-11.3897 I0.9101 J1.1924
G3 X-159.8982 Y-13.5866 I7.4964 J9.8672
G3 X-155.0469 Y-14.1309 I4.6519 J19.5699
G3 X-150.5223 Y-13.5966 I0.1775 J17.9221
G3 X-146.1958 Y-11.4922 I-2.8034 J11.2634
G3 X-146.1812 Y-11.4808 I-0.9214 J1.1836
G3 X-142.7282 Y-4.0052 I-5.7374 J7.1854
G3 X-143.5282 Y0.03 I-10.0658 J0.1013
G3 X-143.5382 Y0.0531 I-1.3807 J-0.5862
G3 X-144.3293 Y1.4817 I-8.5462 J-3.7988
G2 X-142.9996 Y-0.308 I-6.856 J-6.4824
G2 X-141.8199 Y-5.3465 I-9.1595 J-4.802
G3 X-141.8202 Y-5.4027 I1.4996 J-0.0343
G2 X-142.628 Y-9.6169 I-10.5914 J-0.1541
G2 X-145.1542 Y-12.9743 I-8.3562 J3.6582
G2 X-149.6061 Y-15.245 I-7.4609 J9.1283
G2 X-154.8034 Y-15.8888 I-4.9769 J18.8772
G3 X-154.837 I-0.0169 J-1.4999
G2 X-160.506 Y-15.155 I-0.2279 J20.5067
G2 X-165.3913 Y-12.6072 I3.5414 J12.7481
G3 X-165.3962 Y-12.6033 I-0.9553 J-1.1564
G2 X-168.2627 Y-8.8442 I6.487 J7.9192
G2 X-169.1798 Y-4.1284 I10.7831 J4.5443
G3 X-169.1801 Y-4.0713 I-1.4998 J0.022
G2 X-168.2409 Y0.2356 I9.3411 J0.2188
G2 X-166.0145 Y2.7911 I6.6252 J-3.5245
G0 Z3.0
G0 X-163.6926 Y6.138
G0 Z-3.8
G1 F300.0 Z-5.0
G3 F800.0 X-164.1053 Y6.6457 I-2.2859 J-1.4369
G1 X-162.5808
G3 X-163.6926 Y6.138 I4.0048 J-10.2412
G0 Z3.0
G0 X-149.3328 Y6.6457
G0 Z-3.8
G1 F300.0 Z-5.0
G1 F800.0 X-147.8009
G3 X-148.1824 Y6.1865 I1.8732 J-1.9445
G3 X-149.3328 Y6.6457 I-5.098 J-11.1013
G1 F300.0 X-149.7198 Y5.5124
G3 F800.0 X-149.884 Y5.567 I-3.5607 J-10.4272
G3 X-149.8941 Y5.5702 I-0.4624 J-1.427
G3 X-154.1199 Y6.2012 I-4.0917 J-12.9374
G1 X-158.3724
G3 X-164.5339 Y4.184 I-0.2036 J-9.7967
G3 X-164.4785 Y4.5879 I-1.4446 J0.4039
G1 Y4.7012
G3 X-165.9785 Y6.2012 I-1.5 J0.0
G1 X-182.4336
G1 Y7.8457
G1 X-142.5
G1 Y6.2012
G1 X-145.9277
G3 X-147.4277 Y4.7012 I0.0 J-1.5
G1 Y4.5879
G3 X-147.4177 Y4.4143 I1.5 J0.0
G3 X-149.7198 Y5.5124 I-5.8628 J-9.3291
G0 Z3.0
G0 X-167.1491 Y35.3665
G0 Z1.0
G1 F300.0 Z-0.6
G1 F800.0 X-167.3 Y35.4129
G1 Y35.6075
G1 X-167.1314 Y35.6538
G3 X-167.1491 Y35.3665 I2.6821 J-0.3101
G1 F300.0 X-167.5016 Y34.2195
G1 F800.0 X-168.5 Y34.5263
G1 Y36.5224
G1 X-147.7566 Y42.2188
G2 X-145.4139 Y42.5993 I3.4666 J-13.9395
G3 X-144.0313 Y44.0947 I-0.1174 J1.4954
G1 Y44.3213
G3 X-145.4201 Y45.8172 I-1.5 J0.0
G2 X-147.706 Y46.2396 I0.7955 J10.7017
G3 X-147.7465 Y46.2511 I-0.4307 J-1.4368
G1 X-168.5 Y51.8427
G1 Y53.2656
G1 X-142.5 Y45.4707
G1 Y42.9016
G1 X-162.1642 Y37.2411
G2 X-164.5486 Y36.8405 I-3.1861 J11.6662
G3 X-165.9492 Y35.3438 I0.0994 J-1.4967
G1 Y35.2305
G3 X-164.627 Y33.741 I1.5 J0.0
G2 X-162.2949 Y33.2144 I-1.374 J-11.5121
G3 X-162.2616 Y33.2036 I0.4795 J1.4213
G1 X-142.5 Y27.0466
G1 Y24.619
G1 X-168.5 Y16.7479
G1 Y18.4548
G1 X-147.8098 Y24.1513
G2 X-145.5084 Y24.5002 I2.9358 J-11.6032
G3 X-144.0879 Y25.998 I-0.0795 J1.4979
G1 Y26.2246
G3 X-145.4708 Y27.72 I-1.5 J0.0
G2 X-147.8064 Y28.1673 I0.8378 J10.6974
G3 X-147.8094 Y28.1682 I-0.4436 J-1.4329
G1 X-167.5016 Y34.2195
G1 F300.0 X-167.1491 Y35.3665
G1 Z-1.2
G1 F800.0 X-167.3 Y35.4129
G1 Y35.6075
G1 X-167.1314 Y35.6538
G3 X-167.1491 Y35.3665 I2.6821 J-0.3101
G1 F300.0 X-167.5016 Y34.2195
G1 F800.0 X-168.5 Y34.5263
G1 Y36.5224
G1 X-147.7566 Y42.2188
G2 X-145.4139 Y42.5993 I3.4666 J-13.9395
G3 X-144.0313 Y44.0947 I-0.1174 J1.4954
G1 Y44.3213
G3 X-145.4201 Y45.8172 I-1.5 J0.0
G2 X-147.706 Y46.2396 I0.7955 J10.7017
G3 X-147.7465 Y46.2511 I-0.4307 J-1.4368
G1 X-168.5 Y51.8427
G1 Y53.2656
G1 X-142.5 Y45.4707
G1 Y42.9016
G1 X-162.1642 Y37.2411
G2 X-164.5486 Y36.8405 I-3.1861 J11.6662
G3 X-165.9492 Y35.3438 I0.0994 J-1.4967
G1 Y35.2305
G3 X-164.627 Y33.741 I1.5 J0.0
G2 X-162.2949 Y33.2144 I-1.374 J-11.5121
G3 X-162.2616 Y33.2036 I0.4795 J1.4213
G1 X-142.5 Y27.0466
G1 Y24.619
G1 X-168.5 Y16.7479
G1 Y18.4548
G1 X-147.8098 Y24.1513
G2 X-145.5084 Y24.5002 I2.9358 J-11.6032
G3 X-144.0879 Y25.998 I-0.0795 J1.4979
G1 Y26.2246
G3 X-145.4708 Y27.72 I-1.5 J0.0
G2 X-147.8064 Y28.1673 I0.8378 J10.6974
G3 X-147.8094 Y28.1682 I-0.4436 J-1.4329
G1 X-167.5016 Y34.2195
G1 F300.0 X-167.1491 Y35.3665
G1 Z-1.8
G1 F800.0 X-167.3 Y35.4129
G1 Y35.6075
G1 X-167.1314 Y35.6538
G3 X-167.1491 Y35.3665 I2.6821 J-0.3101
G1 F300.0 X-167.5016 Y34.2195
G1 F800.0 X-168.5 Y34.5263
G1 Y36.5224
G1 X-147.7566 Y42.2188
G2 X-145.4139 Y42.5993 I3.4666 J-13.9395
G3 X-144.0313 Y44.0947 I-0.1174 J1.4954
G1 Y44.3213
G3 X-145.4201 Y45.8172 I-1.5 J0.0
G2 X-147.706 Y46.2396 I0.7955 J10.7017
G3 X-147.7465 Y46.2511 I-0.4307 J-1.4368
G1 X-168.5 Y51.8427
G1 Y53.2656
G1 X-142.5 Y45.4707
G1 Y42.9016
G1 X-162.1642 Y37.2411
G2 X-164.5486 Y36.8405 I-3.1861 J11.6662
G3 X-165.9492 Y35.3438 I0.0994 J-1.4967
G1 Y35.2305
G3 X-164.627 Y33.741 I1.5 J0.0
G2 X-162.2949 Y33.2144 I-1.374 J-11.5121
G3 X-162.2616 Y33.2036 I0.4795 J1.4213
G1 X-142.5 Y27.0466
G1 Y24.619
G1 X-168.5 Y16.7479
G1 Y18.4548
G1 X-147.8098 Y24.1513
G2 X-145.5084 Y24.5002 I2.9358 J-11.6032
G3 X-144.0879 Y25.998 I-0.0795 J1.4979
G1 Y26.2246
G3 X-145.4708 Y27.72 I-1.5 J0.0
G2 X-147.8064 Y28.1673 I0.8378 J10.6974
G3 X-147.8094 Y28.1682 I-0.4436 J-1.4329
G1 X-167.5016 Y34.2195
G1 F300.0 X-167.1491 Y35.3665
G1 Z-2.4
G1 F800.0 X-167.3 Y35.4129
G1 Y35.6075
G1 X-167.1314 Y35.6538
G3 X-167.1491 Y35.3665 I2.6821 J-0.3101
G1 F300.0 X-167.5016 Y34.2195
G1 F800.0 X-168.5 Y34.5263
G1 Y36.5224
G1 X-147.7566 Y42.2188
G2 X-145.4139 Y42.5993 I3.4666 J-13.9395
G3 X-144.0313 Y44.0947 I-0.1174 J1.4954
G1 Y44.3213
G3 X-145.4201 Y45.8172 I-1.5 J0.0
G2 X-147.706 Y46.2396 I0.7955 J10.7017
G3 X-147.7465 Y46.2511 I-0.4307 J-1.4368
G1 X-168.5 Y51.8427
G1 Y53.2656
G1 X-142.5 Y45.4707
G1 Y42.9016
G1 X-162.1642 Y37.2411
G2 X-164.5486 Y36.8405 I-3.1861 J11.6662
G3 X-165.9492 Y35.3438 I0.0994 J-1.4967
G1 Y35.2305
G3 X-164.627 Y33.741 I1.5 J0.0
G2 X-162.2949 Y33.2144 I-1.374 J-11.5121
G3 X-162.2616 Y33.2036 I0.4795 J1.4213
G1 X-142.5 Y27.0466
G1 Y24.619
G1 X-168.5 Y16.7479
G1 Y18.4548
G1 X-147.8098 Y24.1513
G2 X-145.5084 Y24.5002 I2.9358 J-11.6032
G3 X-144.0879 Y25.998 I-0.0795 J1.4979
G1 Y26.2246
G3 X-145.4708 Y27.72 I-1.5 J0.0
G2 X-147.8064 Y28.1673 I0.8378 J10.6974
G3 X-147.8094 Y28.1682 I-0.4436 J-1.4329
G1 X-167.5016 Y34.2195
G1 F300.0 X-167.1491 Y35.3665
G1 Z-3.0
G1 F800.0 X-167.3 Y35.4129
G1 Y35.6075
G1 X-167.1314 Y35.6538
G3 X-167.1491 Y35.3665 I2.6821 J-0.3101
G1 F300.0 X-167.5016 Y34.2195
G1 F800.0 X-168.5 Y34.5263
G1 Y36.5224
G1 X-147.7566 Y42.2188
G2 X-145.4139 Y42.5993 I3.4666 J-13.9395
G3 X-144.0313 Y44.0947 I-0.1174 J1.4954
G1 Y44.3213
G3 X-145.4201 Y45.8172 I-1.5 J0.0
G2 X-147.706 Y46.2396 I0.7955 J10.7017
G3 X-147.7465 Y46.2511 I-0.4307 J-1.4368
G1 X-168.5 Y51.8427
G1 Y53.2656
G1 X-142.5 Y45.4707
G1 Y42.9016
G1 X-162.1642 Y37.2411
G2 X-164.5486 Y36.8405 I-3.1861 J11.6662
G3 X-165.9492 Y35.3438 I0.0994 J-1.4967
G1 Y35.2305
G3 X-164.627 Y33.741 I1.5 J0.0
G2 X-162.2949 Y33.2144 I-1.374 J-11.5121
G3 X-162.2616 Y33.2036 I0.4795 J1.4213
G1 X-142.5 Y27.0466
G1 Y24.619
G1 X-168.5 Y16.7479
G1 Y18.4548
G1 X-147.8098 Y24.1513
G2 X-145.5084 Y24.5002 I2.9358 J-11.6032
G3 X-144.0879 Y25.998 I-0.0795 J1.4979
G1 Y26.2246
G3 X-145.4708 Y27.72 I-1.5 J0.0
G2 X-147.8064 Y28.1673 I0.8378 J10.6974
G3 X-147.8094 Y28.1682 I-0.4436 J-1.4329
G1 X-167.5016 Y34.2195
G1 F300.0 X-167.1491 Y35.3665
G1 Z-3.6
G1 F800.0 X-167.3 Y35.4129
G1 Y35.6075
G1 X-167.1314 Y35.6538
G3 X-167.1491 Y35.3665 I2.6821 J-0.3101
G1 F300.0 X-167.5016 Y34.2195
G1 F800.0 X-168.5 Y34.5263
G1 Y36.5224
G1 X-147.7566 Y42.2188
G2 X-145.4139 Y42.5993 I3.4666 J-13.9395
G3 X-144.0313 Y44.0947 I-0.1174 J1.4954
G1 Y44.3213
G3 X-145.4201 Y45.8172 I-1.5 J0.0
G2 X-147.706 Y46.2396 I0.7955 J10.7017
G3 X-147.7465 Y46.2511 I-0.4307 J-1.4368
G1 X-168.5 Y51.8427
G1 Y53.2656
G1 X-142.5 Y45.4707
G1 Y42.9016
G1 X-162.1642 Y37.2411
G2 X-164.5486 Y36.8405 I-3.1861 J11.6662
G3 X-165.9492 Y35.3438 I0.0994 J-1.4967
G1 Y35.2305
G3 X-164.627 Y33.741 I1.5 J0.0
G2 X-162.2949 Y33.2144 I-1.374 J-11.5121
G3 X-162.2616 Y33.2036 I0.4795 J1.4213
G1 X-142.5 Y27.0466
G1 Y24.619
G1 X-168.5 Y16.7479
G1 Y18.4548
G1 X-147.8098 Y24.1513
G2 X-145.5084 Y24.5002 I2.9358 J-11.6032
G3 X-144.0879 Y25.998 I-0.0795 J1.4979
G1 Y26.2246
G3 X-145.4708 Y27.72 I-1.5 J0.0
G2 X-147.8064 Y28.1673 I0.8378 J10.6974
G3 X-147.8094 Y28.1682 I-0.4436 J-1.4329
G1 X-167.5016 Y34.2195
G1 F300.0 X-167.1491 Y35.3665
G1 Z-4.2
G1 F800.0 X-167.3 Y35.4129
G1 Y35.6075
G1 X-167.1314 Y35.6538
G3 X-167.1491 Y35.3665 I2.6821 J-0.3101
G1 F300.0 X-167.5016 Y34.2195
G1 F800.0 X-168.5 Y34.5263
G1 Y36.5224
G1 X-147.7566 Y42.2188
G2 X-145.4139 Y42.5993 I3.4666 J-13.9395
G3 X-144.0313 Y44.0947 I-0.1174 J1.4954
G1 Y44.3213
G3 X-145.4201 Y45.8172 I-1.5 J0.0
G2 X-147.706 Y46.2396 I0.7955 J10.7017
G3 X-147.7465 Y46.2511 I-0.4307 J-1.4368
G1 X-168.5 Y51.8427
G1 Y53.2656
G1 X-142.5 Y45.4707
G1 Y42.9016
G1 X-162.1642 Y37.2411
G2 X-164.5486 Y36.8405 I-3.1861 J11.6662
G3 X-165.9492 Y35.3438 I0.0994 J-1.4967
G1 Y35.2305
G3 X-164.627 Y33.741 I1.5 J0.0
G2 X-162.2949 Y33.2144 I-1.374 J-11.5121
G3 X-162.2616 Y33.2036 I0.4795 J1.4213
G1 X-142.5 Y27.0466
G1 Y24.619
G1 X-168.5 Y16.7479
G1 Y18.4548
G1 X-147.8098 Y24.1513
G2 X-145.5084 Y24.5002 I2.9358 J-11.6032
G3 X-144.0879 Y25.998 I-0.0795 J1.4979
G1 Y26.2246
G3 X-145.4708 Y27.72 I-1.5 J0.0
G2 X-147.8064 Y28.1673 I0.8378 J10.6974
G3 X-147.8094 Y28.1682 I-0.4436 J-1.4329
G1 X-167.5016 Y34.2195
G1 F300.0 X-167.1491 Y35.3665
G1 Z-4.8
G1 F800.0 X-167.3 Y35.4129
G1 Y35.6075
G1 X-167.1314 Y35.6538
G3 X-167.1491 Y35.3665 I2.6821 J-0.3101
G1 F300.0 X-167.5016 Y34.2195
G1 F800.0 X-168.5 Y34.5263
G1 Y36.5224
G1 X-147.7566 Y42.2188
G2 X-145.4139 Y42.5993 I3.4666 J-13.9395
G3 X-144.0313 Y44.0947 I-0.1174 J1.4954
G1 Y44.3213
G3 X-145.4201 Y45.8172 I-1.5 J0.0
G2 X-147.706 Y46.2396 I0.7955 J10.7017
G3 X-147.7465 Y46.2511 I-0.4307 J-1.4368
G1 X-168.5 Y51.8427
G1 Y53.2656
G1 X-142.5 Y45.4707
G1 Y42.9016
G1 X-162.1642 Y37.2411
G2 X-164.5486 Y36.8405 I-3.1861 J11.6662
G3 X-165.9492 Y35.3438 I0.0994 J-1.4967
G1 Y35.2305
G3 X-164.627 Y33.741 I1.5 J0.0
G2 X-162.2949 Y33.2144 I-1.374 J-11.5121
G3 X-162.2616 Y33.2036 I0.4795 J1.4213
G1 X-142.5 Y27.0466
G1 Y24.619
G1 X-168.5 Y16.7479
G1 Y18.4548
G1 X-147.8098 Y24.1513
G2 X-145.5084 Y24.5002 I2.9358 J-11.6032
G3 X-144.0879 Y25.998 I-0.0795 J1.4979
G1 Y26.2246
G3 X-145.4708 Y27.72 I-1.5 J0.0
G2 X-147.8064 Y28.1673 I0.8378 J10.6974
G3 X-147.8094 Y28.1682 I-0.4436 J-1.4329
G1 X-167.5016 Y34.2195
G1 F300.0 X-167.1491 Y35.3665
G1 Z-5.0
G1 F800.0 X-167.3 Y35.4129
G1 Y35.6075
G1 X-167.1314 Y35.6538
G3 X-167.1491 Y35.3665 I2.6821 J-0.3101
G1 F300.0 X-167.5016 Y34.2195
G1 F800.0 X-168.5 Y34.5263
G1 Y36.5224
G1 X-147.7566 Y42.2188
G2 X-145.4139 Y42.5993 I3.4666 J-13.9395
G3 X-144.0313 Y44.0947 I-0.1174 J1.4954
G1 Y44.3213
G3 X-145.4201 Y45.8172 I-1.5 J0.0
G2 X-147.706 Y46.2396 I0.7955 J10.7017
G3 X-147.7465 Y46.2511 I-0.4307 J-1.4368
G1 X-168.5 Y51.8427
G1 Y53.2656
G1 X-142.5 Y45.4707
G1 Y42.9016
G1 X-162.1642 Y37.2411
G2 X-164.5486 Y36.8405 I-3.1861 J11.6662
G3 X-165.9492 Y35.3438 I0.0994 J-1.4967
G1 Y35.2305
G3 X-164.627 Y33.741 I1.5 J0.0
G2 X-162.2949 Y33.2144 I-1.374 J-11.5121
G3 X-162.2616 Y33.2036 I0.4795 J1.4213
G1 X-142.5 Y27.0466
G1 Y24.619
G1 X-168.5 Y16.7479
G1 Y18.4548
G1 X-147.8098 Y24.1513
G2 X-145.5084 Y24.5002 I2.9358 J-11.6032
G3 X-144.0879 Y25.998 I-0.0795 J1.4979
G1 Y26.2246
G3 X-145.4708 Y27.72 I-1.5 J0.0
G2 X-147.8064 Y28.1673 I0.8378 J10.6974
G3 X-147.8094 Y28.1682 I-0.4436 J-1.4329
G1 X-167.5016 Y34.2195
G0 Z3.0
G0 X-160.1489 Y62.3928
G0 Z1.0
G1 F300.0 Z-0.6
G3 F800.0 X-158.4734 Y62.0639 I3.5109 J13.4526
G3 X-156.7754 Y63.5508 I0.198 J1.4869
G1 Y79.2119
G3 X-158.2685 Y80.7119 I-1.5 J0.0
G3 X-161.9609 Y80.2402 I-0.0655 J-14.1746
G3 X-165.4986 Y78.4067 I2.3172 J-8.8007
G3 X-167.655 Y75.4199 I4.8289 J-5.7582
G3 X-167.6626 Y75.4004 I1.3943 J-0.5532
G3 X-168.2716 Y71.9625 I8.7087 J-3.3157
G3 X-165.4589 Y65.2999 I9.0017 J-0.1248
G3 X-162.1808 Y63.0949 I7.7521 J7.9855
G3 X-162.1752 Y63.0925 I0.603 J1.3735
G3 X-160.1489 Y62.3928 I5.5373 J12.753
G0 Z3.0
G0 X-156.6323 Y61.4113
G0 Z1.0
G1 F300.0 Z-0.6
G3 F800.0 X-156.3353 Y61.6764 I-1.6431 J2.1395
G3 X-156.0232 Y61.3839 I1.9965 J1.8177
G2 X-156.6323 Y61.4113 I0.4214 J16.1767
G1 F300.0 X-156.7087 Y60.2137
G2 F800.0 X-160.8038 Y60.9751 I1.1069 J17.3469
G2 X-165.4003 Y63.6183 I3.8848 J12.074
G3 X-165.4126 Y63.6292 I-1.003 J-1.1153
G2 X-168.2359 Y67.4152 I7.5327 J8.563
G2 X-169.1798 Y72.0304 I10.2122 J4.4926
G3 X-169.1799 Y72.0708 I-1.4999 J0.0165
G2 X-168.447 Y76.3398 I11.7115 J0.1869
G2 X-166.0382 Y79.7018 I7.7676 J-3.0214
G2 X-161.7892 Y81.8647 I6.9704 J-8.4385
G3 X-161.7874 Y81.8651 I-0.373 J1.4529
G2 X-156.7918 Y82.4698 I4.774 J-18.5018
G3 X-156.7744 Y82.4697 I0.0174 J1.4999
G1 X-155.8389
G1 Y63.4941
G3 X-154.3224 Y61.9942 I1.5 J0.0
G3 X-149.9274 Y62.6627 I-0.1747 J15.9323
G3 X-149.927 Y62.6628 I-0.4302 J1.437
G3 X-145.8418 Y65.0003 I-2.9823 J9.9506
G3 X-145.8325 Y65.009 I-1.0205 J1.0993
G3 X-143.4025 Y68.7486 I-6.4988 J6.8823
G3 X-143.3979 Y68.7616 I-1.4149 J0.498
G3 X-142.7285 Y72.9652 I-11.8131 J4.0363
G3 X-144.647 Y80.459 I-15.7573 J-0.0416
G1 X-143.8988
G2 X-142.3705 Y76.779 I-10.4677 J-6.5047
G3 X-142.37 Y76.7771 I1.4601 J0.3438
G2 X-141.8202 Y71.8632 I-19.9134 J-4.7157
G3 X-141.8201 Y71.8264 I1.4999 J-0.0145
G2 X-142.6215 Y67.1091 I-13.1373 J-0.1949
G2 X-145.2449 Y63.32 I-9.0435 J3.4586
G2 X-149.8854 Y60.8645 I-7.643 J8.8314
G3 X-149.8864 Y60.8642 I0.3856 J-1.4496
G2 X-155.3684 Y60.1796 I-5.2342 J19.6202
G3 X-155.4038 I-0.0183 J-1.4999
G2 X-156.7087 Y60.2137 I-0.198 J17.381
G1 F300.0 X-156.6323 Y61.4113
G1 Z-1.2
G3 F800.0 X-156.3353 Y61.6764 I-1.6431 J2.1395
G3 X-156.0232 Y61.3839 I1.9965 J1.8177
G2 X-156.6323 Y61.4113 I0.4214 J16.1767
G1 F300.0 X-156.7087 Y60.2137
G2 F800.0 X-160.8038 Y60.9751 I1.1069 J17.3469
G2 X-165.4003 Y63.6183 I3.8848 J12.074
G3 X-165.4126 Y63.6292 I-1.003 J-1.1153
G2 X-168.2359 Y67.4152 I7.5327 J8.563
G2 X-169.1798 Y72.0304 I10.2122 J4.4926
G3 X-169.1799 Y72.0708 I-1.4999 J0.0165
G2 X-168.447 Y76.3398 I11.7115 J0.1869
G2 X-166.0382 Y79.7018 I7.7676 J-3.0214
G2 X-161.7892 Y81.8647 I6.9704 J-8.4385
G3 X-161.7874 Y81.8651 I-0.373 J1.4529
G2 X-156.7918 Y82.4698 I4.774 J-18.5018
G3 X-156.7744 Y82.4697 I0.0174 J1.4999
G1 X-155.8389
G1 Y63.4941
G3 X-154.3224 Y61.9942 I1.5 J0.0
G3 X-149.9274 Y62.6627 I-0.1747 J15.9323
G3 X-149.927 Y62.6628 I-0.4302 J1.437
G3 X-145.8418 Y65.0003 I-2.9823 J9.9506
G3 X-145.8325 Y65.009 I-1.0205 J1.0993
G3 X-143.4025 Y68.7486 I-6.4988 J6.8823
G3 X-143.3979 Y68.7616 I-1.4149 J0.498
G3 X-142.7285 Y72.9652 I-11.8131 J4.0363
G3 X-144.647 Y80.459 I-15.7573 J-0.0416
G1 X-143.8988
G2 X-142.3705 Y76.779 I-10.4677 J-6.5047
G3 X-142.37 Y76.7771 I1.4601 J0.3438
G2 X-141.8202 Y71.8632 I-19.9134 J-4.7157
G3 X-141.8201 Y71.8264 I1.4999 J-0.0145
G2 X-142.6215 Y67.1091 I-13.1373 J-0.1949
G2 X-145.2449 Y63.32 I-9.0435 J3.4586
G2 X-149.8854 Y60.8645 I-7.643 J8.8314
G3 X-149.8864 Y60.8642 I0.3856 J-1.4496
G2 X-155.3684 Y60.1796 I-5.2342 J19.6202
G3 X-155.4038 I-0.0183 J-1.4999
G2 X-156.7087 Y60.2137 I-0.198 J17.381
G0 Z3.0
G0 X-157.6379 Y62.193
G0 Z0.4
G1 F300.0 Z-1.2
G3 F800.0 X-156.7754 Y63.5508 I-0.6375 J1.3578
G1 Y79.2119
G3 X-158.2685 Y80.7119 I-1.5 J0.0
G3 X-161.9609 Y80.2402 I-0.0655 J-14.1746
G3 X-165.4986 Y78.4067 I2.3172 J-8.8007
G3 X-167.655 Y75.4199 I4.8289 J-5.7582
G3 X-167.6626 Y75.4004 I1.3943 J-0.5532
G3 X-168.2716 Y71.9625 I8.7087 J-3.3157
G3 X-165.4589 Y65.2999 I9.0017 J-0.1248
G3 X-162.1808 Y63.0949 I7.7521 J7.9855
G3 X-162.1752 Y63.0925 I0.603 J1.3735
G3 X-158.4734 Y62.0639 I5.5373 J12.753
G3 X-157.6379 Y62.193 I0.198 J1.4869
G1 F300.0 Z-1.8
G3 F800.0 X-156.7754 Y63.5508 I-0.6375 J1.3578
G1 Y79.2119
G3 X-158.2685 Y80.7119 I-1.5 J0.0
G3 X-161.9609 Y80.2402 I-0.0655 J-14.1746
G3 X-165.4986 Y78.4067 I2.3172 J-8.8007
G3 X-167.655 Y75.4199 I4.8289 J-5.7582
G3 X-167.6626 Y75.4004 I1.3943 J-0.5532
G3 X-168.2716 Y71.9625 I8.7087 J-3.3157
G3 X-165.4589 Y65.2999 I9.0017 J-0.1248
G3 X-162.1808 Y63.0949 I7.7521 J7.9855
G3 X-162.1752 Y63.0925 I0.603 J1.3735
G3 X-158.4734 Y62.0639 I5.5373 J12.753
G3 X-157.6379 Y62.193 I0.198 J1.4869
G1 F300.0 X-156.6323 Y61.4113
G3 F800.0 X-156.3353 Y61.6764 I-1.6431 J2.1395
G3 X-156.0232 Y61.3839 I1.9965 J1.8177
G2 X-156.6323 Y61.4113 I0.4214 J16.1767
G1 F300.0 X-156.7087 Y60.2137
G2 F800.0 X-160.8038 Y60.9751 I1.1069 J17.3469
G2 X-165.4003 Y63.6183 I3.8848 J12.074
G3 X-165.4126 Y63.6292 I-1.003 J-1.1153
G2 X-168.2359 Y67.4152 I7.5327 J8.563
G2 X-169.1798 Y72.0304 I10.2122 J4.4926
G3 X-169.1799 Y72.0708 I-1.4999 J0.0165
G2 X-168.447 Y76.3398 I11.7115 J0.1869
G2 X-166.0382 Y79.7018 I7.7676 J-3.0214
G2 X-161.7892 Y81.8647 I6.9704 J-8.4385
G3 X-161.7874 Y81.8651 I-0.373 J1.4529
G2 X-156.7918 Y82.4698 I4.774 J-18.5018
G3 X-156.7744 Y82.4697 I0.0174 J1.4999
G1 X-155.8389
G1 Y63.4941
G3 X-154.3224 Y61.9942 I1.5 J0.0
G3 X-149.9274 Y62.6627 I-0.1747 J15.9323
G3 X-149.927 Y62.6628 I-0.4302 J1.437
G3 X-145.8418 Y65.0003 I-2.9823 J9.9506
G3 X-145.8325 Y65.009 I-1.0205 J1.0993
G3 X-143.4025 Y68.7486 I-6.4988 J6.8823
G3 X-143.3979 Y68.7616 I-1.4149 J0.498
G3 X-142.7285 Y72.9652 I-11.8131 J4.0363
G3 X-144.647 Y80.459 I-15.7573 J-0.0416
G1 X-143.8988
G2 X-142.3705 Y76.779 I-10.4677 J-6.5047
G3 X-142.37 Y76.7771 I1.4601 J0.3438
G2 X-141.8202 Y71.8632 I-19.9134 J-4.7157
G3 X-141.8201 Y71.8264 I1.4999 J-0.0145
G2 X-142.6215 Y67.1091 I-13.1373 J-0.1949
G2 X-145.2449 Y63.32 I-9.0435 J3.4586
G2 X-149.8854 Y60.8645 I-7.643 J8.8314
G3 X-149.8864 Y60.8642 I0.3856 J-1.4496
G2 X-155.3684 Y60.1796 I-5.2342 J19.6202
G3 X-155.4038 I-0.0183 J-1.4999
G2 X-156.7087 Y60.2137 I-0.198 J17.381
G1 F300.0 X-156.6323 Y61.4113
G1 Z-2.4
G3 F800.0 X-156.3353 Y61.6764 I-1.6431 J2.1395
G3 X-156.0232 Y61.3839 I1.9965 J1.8177
G2 X-156.6323 Y61.4113 I0.4214 J16.1767
G1 F300.0 X-156.7087 Y60.2137
G2 F800.0 X-160.8038 Y60.9751 I1.1069 J17.3469
G2 X-165.4003 Y63.6183 I3.8848 J12.074
G3 X-165.4126 Y63.6292 I-1.003 J-1.1153
G2 X-168.2359 Y67.4152 I7.5327 J8.563
G2 X-169.1798 Y72.0304 I10.2122 J4.4926
G3 X-169.1799 Y72.0708 I-1.4999 J0.0165
G2 X-168.447 Y76.3398 I11.7115 J0.1869
G2 X-166.0382 Y79.7018 I7.7676 J-3.0214
G2 X-161.7892 Y81.8647 I6.9704 J-8.4385
G3 X-161.7874 Y81.8651 I-0.373 J1.4529
G2 X-156.7918 Y82.4698 I4.774 J-18.5018
G3 X-156.7744 Y82.4697 I0.0174 J1.4999
G1 X-155.8389
G1 Y63.4941
G3 X-154.3224 Y61.9942 I1.5 J0.0
G3 X-149.9274 Y62.6627 I-0.1747 J15.9323
G3 X-149.927 Y62.6628 I-0.4302 J1.437
G3 X-145.8418 Y65.0003 I-2.9823 J9.9506
G3 X-145.8325 Y65.009 I-1.0205 J1.0993
G3 X-143.4025 Y68.7486 I-6.4988 J6.8823
G3 X-143.3979 Y68.7616 I-1.4149 J0.498
G3 X-142.7285 Y72.9652 I-11.8131 J4.0363
G3 X-144.647 Y80.459 I-15.7573 J-0.0416
G1 X-143.8988
G2 X-142.3705 Y76.779 I-10.4677 J-6.5047
G3 X-142.37 Y76.7771 I1.4601 J0.3438
G2 X-141.8202 Y71.8632 I-19.9134 J-4.7157
G3 X-141.8201 Y71.8264 I1.4999 J-0.0145
G2 X-142.6215 Y67.1091 I-13.1373 J-0.1949
G2 X-145.2449 Y63.32 I-9.0435 J3.4586
G2 X-149.8854 Y60.8645 I-7.643 J8.8314
G3 X-149.8864 Y60.8642 I0.3856 J-1.4496
G2 X-155.3684 Y60.1796 I-5.2342 J19.6202
G3 X-155.4038 I-0.0183 J-1.4999
G2 X-156.7087 Y60.2137 I-0.198 J17.381
G0 Z3.0
G0 X-157.6379 Y62.193
G0 Z-0.8
G1 F300.0 Z-2.4
G3 F800.0 X-156.7754 Y63.5508 I-0.6375 J1.3578
G1 Y79.2119
G3 X-158.2685 Y80.7119 I-1.5 J0.0
G3 X-161.9609 Y80.2402 I-0.0655 J-14.1746
G3 X-165.4986 Y78.4067 I2.3172 J-8.8007
G3 X-167.655 Y75.4199 I4.8289 J-5.7582
G3 X-167.6626 Y75.4004 I1.3943 J-0.5532
G3 X-168.2716 Y71.9625 I8.7087 J-3.3157
G3 X-165.4589 Y65.2999 I9.0017 J-0.1248
G3 X-162.1808 Y63.0949 I7.7521 J7.9855
G3 X-162.1752 Y63.0925 I0.603 J1.3735
G3 X-158.4734 Y62.0639 I5.5373 J12.753
G3 X-157.6379 Y62.193 I0.198 J1.4869
G1 F300.0 Z-3.0
G3 F800.0 X-156.7754 Y63.5508 I-0.6375 J1.3578
G1 Y79.2119
G3 X-158.2685 Y80.7119 I-1.5 J0.0
G3 X-161.9609 Y80.2402 I-0.0655 J-14.1746
G3 X-165.4986 Y78.4067 I2.3172 J-8.8007
G3 X-167.655 Y75.4199 I4.8289 J-5.7582
G3 X-167.6626 Y75.4004 I1.3943 J-0.5532
G3 X-168.2716 Y71.9625 I8.7087 J-3.3157
G3 X-165.4589 Y65.2999 I9.0017 J-0.1248
G3 X-162.1808 Y63.0949 I7.7521 J7.9855
G3 X-162.1752 Y63.0925 I0.603 J1.3735
G3 X-158.4734 Y62.0639 I5.5373 J12.753
G3 X-157.6379 Y62.193 I0.198 J1.4869
G1 F300.0 X-156.6323 Y61.4113
G3 F800.0 X-156.3353 Y61.6764 I-1.6431 J2.1395
G3 X-156.0232 Y61.3839 I1.9965 J1.8177
G2 X-156.6323 Y61.4113 I0.4214 J16.1767
G1 F300.0 X-156.7087 Y60.2137
G2 F800.0 X-160.8038 Y60.9751 I1.1069 J17.3469
G2 X-165.4003 Y63.6183 I3.8848 J12.074
G3 X-165.4126 Y63.6292 I-1.003 J-1.1153
G2 X-168.2359 Y67.4152 I7.5327 J8.563
G2 X-169.1798 Y72.0304 I10.2122 J4.4926
G3 X-169.1799 Y72.0708 I-1.4999 J0.0165
G2 X-168.447 Y76.3398 I11.7115 J0.1869
G2 X-166.0382 Y79.7018 I7.7676 J-3.0214
G2 X-161.7892 Y81.8647 I6.9704 J-8.4385
G3 X-161.7874 Y81.8651 I-0.373 J1.4529
G2 X-156.7918 Y82.4698 I4.774 J-18.5018
G3 X-156.7744 Y82.4697 I0.0174 J1.4999
G1 X-155.8389
G1 Y63.4941
G3 X-154.3224 Y61.9942 I1.5 J0.0
G3 X-149.9274 Y62.6627 I-0.1747 J15.9323
G3 X-149.927 Y62.6628 I-0.4302 J1.437
G3 X-145.8418 Y65.0003 I-2.9823 J9.9506
G3 X-145.8325 Y65.009 I-1.0205 J1.0993
G3 X-143.4025 Y68.7486 I-6.4988 J6.8823
G3 X-143.3979 Y68.7616 I-1.4149 J0.498
G3 X-142.7285 Y72.9652 I-11.8131 J4.0363
G3 X-144.647 Y80.459 I-15.7573 J-0.0416
G1 X-143.8988
G2 X-142.3705 Y76.779 I-10.4677 J-6.5047
G3 X-142.37 Y76.7771 I1.4601 J0.3438
G2 X-141.8202 Y71.8632 I-19.9134 J-4.7157
G3 X-141.8201 Y71.8264 I1.4999 J-0.0145
G2 X-142.6215 Y67.1091 I-13.1373 J-0.1949
G2 X-145.2449 Y63.32 I-9.0435 J3.4586
G2 X-149.8854 Y60.8645 I-7.643 J8.8314
G3 X-149.8864 Y60.8642 I0.3856 J-1.4496
G2 X-155.3684 Y60.1796 I-5.2342 J19.6202
G3 X-155.4038 I-0.0183 J-1.4999
G2 X-156.7087 Y60.2137 I-0.198 J17.381
G1 F300.0 X-156.6323 Y61.4113
G1 Z-3.6
G3 F800.0 X-156.3353 Y61.6764 I-1.6431 J2.1395
G3 X-156.0232 Y61.3839 I1.9965 J1.8177
G2 X-156.6323 Y61.4113 I0.4214 J16.1767
G1 F300.0 X-156.7087 Y60.2137
G2 F800.0 X-160.8038 Y60.9751 I1.1069 J17.3469
G2 X-165.4003 Y63.6183 I3.8848 J12.074
G3 X-165.4126 Y63.6292 I-1.003 J-1.1153
G2 X-168.2359 Y67.4152 I7.5327 J8.563
G2 X-169.1798 Y72.0304 I10.2122 J4.4926
G3 X-169.1799 Y72.0708 I-1.4999 J0.0165
G2 X-168.447 Y76.3398 I11.7115 J0.1869
G2 X-166.0382 Y79.7018 I7.7676 J-3.0214
G2 X-161.7892 Y81.8647 I6.9704 J-8.4385
G3 X-161.7874 Y81.8651 I-0.373 J1.4529
G2 X-156.7918 Y82.4698 I4.774 J-18.5018
G3 X-156.7744 Y82.4697 I0.0174 J1.4999
G1 X-155.8389
G1 Y63.4941
G3 X-154.3224 Y61.9942 I1.5 J0.0
G3 X-149.9274 Y62.6627 I-0.1747 J15.9323
G3 X-149.927 Y62.6628 I-0.4302 J1.437
G3 X-145.8418 Y65.0003 I-2.9823 J9.9506
G3 X-145.8325 Y65.009 I-1.0205 J1.0993
G3 X-143.4025 Y68.7486 I-6.4988 J6.8823
G3 X-143.3979 Y68.7616 I-1.4149 J0.498
G3 X-142.7285 Y72.9652 I-11.8131 J4.0363
G3 X-144.647 Y80.459 I-15.7573 J-0.0416
G1 X-143.8988
G2 X-142.3705 Y76.779 I-10.4677 J-6.5047
G3 X-142.37 Y76.7771 I1.4601 J0.3438
G2 X-141.8202 Y71.8632 I-19.9134 J-4.7157
G3 X-141.8201 Y71.8264 I1.4999 J-0.0145
G2 X-142.6215 Y67.1091 I-13.1373 J-0.1949
G2 X-145.2449 Y63.32 I-9.0435 J3.4586
G2 X-149.8854 Y60.8645 I-7.643 J8.8314
G3 X-149.8864 Y60.8642 I0.3856 J-1.4496
G2 X-155.3684 Y60.1796 I-5.2342 J19.6202
G3 X-155.4038 I-0.0183 J-1.4999
G2 X-156.7087 Y60.2137 I-0.198 J17.381
G0 Z3.0
G0 X-157.6379 Y62.193
G0 Z-2.0
G1 F300.0 Z-3.6
G3 F800.0 X-156.7754 Y63.5508 I-0.6375 J1.3578
G1 Y79.2119
G3 X-158.2685 Y80.7119 I-1.5 J0.0
G3 X-161.9609 Y80.2402 I-0.0655 J-14.1746
G3 X-165.4986 Y78.4067 I2.3172 J-8.8007
G3 X-167.655 Y75.4199 I4.8289 J-5.7582
G3 X-167.6626 Y75.4004 I1.3943 J-0.5532
G3 X-168.2716 Y71.9625 I8.7087 J-3.3157
G3 X-165.4589 Y65.2999 I9.0017 J-0.1248
G3 X-162.1808 Y63.0949 I7.7521 J7.9855
G3 X-162.1752 Y63.0925 I0.603 J1.3735
G3 X-158.4734 Y62.0639 I5.5373 J12.753
G3 X-157.6379 Y62.193 I0.198 J1.4869
G1 F300.0 Z-4.2
G3 F800.0 X-156.7754 Y63.5508 I-0.6375 J1.3578
G1 Y79.2119
G3 X-158.2685 Y80.7119 I-1.5 J0.0
G3 X-161.9609 Y80.2402 I-0.0655 J-14.1746
G3 X-165.4986 Y78.4067 I2.3172 J-8.8007
G3 X-167.655 Y75.4199 I4.8289 J-5.7582
G3 X-167.6626 Y75.4004 I1.3943 J-0.5532
G3 X-168.2716 Y71.9625 I8.7087 J-3.3157
G3 X-165.4589 Y65.2999 I9.0017 J-0.1248
G3 X-162.1808 Y63.0949 I7.7521 J7.9855
G3 X-162.1752 Y63.0925 I0.603 J1.3735
G3 X-158.4734 Y62.0639 I5.5373 J12.753
G3 X-157.6379 Y62.193 I0.198 J1.4869
G1 F300.0 X-156.6323 Y61.4113
G3 F800.0 X-156.3353 Y61.6764 I-1.6431 J2.1395
G3 X-156.0232 Y61.3839 I1.9965 J1.8177
G2 X-156.6323 Y61.4113 I0.4214 J16.1767
G1 F300.0 X-156.7087 Y60.2137
G2 F800.0 X-160.8038 Y60.9751 I1.1069 J17.3469
G2 X-165.4003 Y63.6183 I3.8848 J12.074
G3 X-165.4126 Y63.6292 I-1.003 J-1.1153
G2 X-168.2359 Y67.4152 I7.5327 J8.563
G2 X-169.1798 Y72.0304 I10.2122 J4.4926
G3 X-169.1799 Y72.0708 I-1.4999 J0.0165
G2 X-168.447 Y76.3398 I11.7115 J0.1869
G2 X-166.0382 Y79.7018 I7.7676 J-3.0214
G2 X-161.7892 Y81.8647 I6.9704 J-8.4385
G3 X-161.7874 Y81.8651 I-0.373 J1.4529
G2 X-156.7918 Y82.4698 I4.774 J-18.5018
G3 X-156.7744 Y82.4697 I0.0174 J1.4999
G1 X-155.8389
G1 Y63.4941
G3 X-154.3224 Y61.9942 I1.5 J0.0
G3 X-149.9274 Y62.6627 I-0.1747 J15.9323
G3 X-149.927 Y62.6628 I-0.4302 J1.437
G3 X-145.8418 Y65.0003 I-2.9823 J9.9506
G3 X-145.8325 Y65.009 I-1.0205 J1.0993
G3 X-143.4025 Y68.7486 I-6.4988 J6.8823
G3 X-143.3979 Y68.7616 I-1.4149 J0.498
G3 X-142.7285 Y72.9652 I-11.8131 J4.0363
G3 X-144.647 Y80.459 I-15.7573 J-0.0416
G1 X-143.8988
G2 X-142.3705 Y76.779 I-10.4677 J-6.5047
G3 X-142.37 Y76.7771 I1.4601 J0.3438
G2 X-141.8202 Y71.8632 I-19.9134 J-4.7157
G3 X-141.8201 Y71.8264 I1.4999 J-0.0145
G2 X-142.6215 Y67.1091 I-13.1373 J-0.1949
G2 X-145.2449 Y63.32 I-9.0435 J3.4586
G2 X-149.8854 Y60.8645 I-7.643 J8.8314
G3 X-149.8864 Y60.8642 I0.3856 J-1.4496
G2 X-155.3684 Y60.1796 I-5.2342 J19.6202
G3 X-155.4038 I-0.0183 J-1.4999
G2 X-156.7087 Y60.2137 I-0.198 J17.381
G1 F300.0 X-156.6323 Y61.4113
G1 Z-4.8
G3 F800.0 X-156.3353 Y61.6764 I-1.6431 J2.1395
G3 X-156.0232 Y61.3839 I1.9965 J1.8177
G2 X-156.6323 Y61.4113 I0.4214 J16.1767
G1 F300.0 X-156.7087 Y60.2137
G2 F800.0 X-160.8038 Y60.9751 I1.1069 J17.3469
G2 X-165.4003 Y63.6183 I3.8848 J12.074
G3 X-165.4126 Y63.6292 I-1.003 J-1.1153
G2 X-168.2359 Y67.4152 I7.5327 J8.563
G2 X-169.1798 Y72.0304 I10.2122 J4.4926
G3 X-169.1799 Y72.0708 I-1.4999 J0.0165
G2 X-168.447 Y76.3398 I11.7115 J0.1869
G2 X-166.0382 Y79.7018 I7.7676 J-3.0214
G2 X-161.7892 Y81.8647 I6.9704 J-8.4385
G3 X-161.7874 Y81.8651 I-0.373 J1.4529
G2 X-156.7918 Y82.4698 I4.774 J-18.5018
G3 X-156.7744 Y82.4697 I0.0174 J1.4999
G1 X-155.8389
G1 Y63.4941
G3 X-154.3224 Y61.9942 I1.5 J0.0
G3 X-149.9274 Y62.6627 I-0.1747 J15.9323
G3 X-149.927 Y62.6628 I-0.4302 J1.437
G3 X-145.8418 Y65.0003 I-2.9823 J9.9506
G3 X-145.8325 Y65.009 I-1.0205 J1.0993
G3 X-143.4025 Y68.7486 I-6.4988 J6.8823
G3 X-143.3979 Y68.7616 I-1.4149 J0.498
G3 X-142.7285 Y72.9652 I-11.8131 J4.0363
G3 X-144.647 Y80.459 I-15.7573 J-0.0416
G1 X-143.8988
G2 X-142.3705 Y76.779 I-10.4677 J-6.5047
G3 X-142.37 Y76.7771 I1.4601 J0.3438
G2 X-141.8202 Y71.8632 I-19.9134 J-4.7157
G3 X-141.8201 Y71.8264 I1.4999 J-0.0145
G2 X-142.6215 Y67.1091 I-13.1373 J-0.1949
G2 X-145.2449 Y63.32 I-9.0435 J3.4586
G2 X-149.8854 Y60.8645 I-7.643 J8.8314
G3 X-149.8864 Y60.8642 I0.3856 J-1.4496
G2 X-155.3684 Y60.1796 I-5.2342 J19.6202
G3 X-155.4038 I-0.0183 J-1.4999
G2 X-156.7087 Y60.2137 I-0.198 J17.381
G0 Z3.0
G0 X-157.6379 Y62.193
G0 Z-3.2
G1 F300.0 Z-4.8
G3 F800.0 X-156.7754 Y63.5508 I-0.6375 J1.3578
G1 Y79.2119
G3 X-158.2685 Y80.7119 I-1.5 J0.0
G3 X-161.9609 Y80.2402 I-0.0655 J-14.1746
G3 X-165.4986 Y78.4067 I2.3172 J-8.8007
G3 X-167.655 Y75.4199 I4.8289 J-5.7582
G3 X-167.6626 Y75.4004 I1.3943 J-0.5532
G3 X-168.2716 Y71.9625 I8.7087 J-3.3157
G3 X-165.4589 Y65.2999 I9.0017 J-0.1248
G3 X-162.1808 Y63.0949 I7.7521 J7.9855
G3 X-162.1752 Y63.0925 I0.603 J1.3735
G3 X-158.4734 Y62.0639 I5.5373 J12.753
G3 X-157.6379 Y62.193 I0.198 J1.4869
G1 F300.0 Z-5.0
G3 F800.0 X-156.7754 Y63.5508 I-0.6375 J1.3578
G1 Y79.2119
G3 X-158.2685 Y80.7119 I-1.5 J0.0
G3 X-161.9609 Y80.2402 I-0.0655 J-14.1746
G3 X-165.4986 Y78.4067 I2.3172 J-8.8007
G3 X-167.655 Y75.4199 I4.8289 J-5.7582
G3 X-167.6626 Y75.4004 I1.3943 J-0.5532
G3 X-168.2716 Y71.9625 I8.7087 J-3.3157
G3 X-165.4589 Y65.2999 I9.0017 J-0.1248
G3 X-162.1808 Y63.0949 I7.7521 J7.9855
G3 X-162.1752 Y63.0925 I0.603 J1.3735
G3 X-158.4734 Y62.0639 I5.5373 J12.753
G3 X-157.6379 Y62.193 I0.198 J1.4869
G1 F300.0 X-156.6323 Y61.4113
G3 F800.0 X-156.3353 Y61.6764 I-1.6431 J2.1395
G3 X-156.0232 Y61.3839 I1.9965 J1.8177
G2 X-156.6323 Y61.4113 I0.4214 J16.1767
G1 F300.0 X-156.7087 Y60.2137
G2 F800.0 X-160.8038 Y60.9751 I1.1069 J17.3469
G2 X-165.4003 Y63.6183 I3.8848 J12.074
G3 X-165.4126 Y63.6292 I-1.003 J-1.1153
G2 X-168.2359 Y67.4152 I7.5327 J8.563
G2 X-169.1798 Y72.0304 I10.2122 J4.4926
G3 X-169.1799 Y72.0708 I-1.4999 J0.0165
G2 X-168.447 Y76.3398 I11.7115 J0.1869
G2 X-166.0382 Y79.7018 I7.7676 J-3.0214
G2 X-161.7892 Y81.8647 I6.9704 J-8.4385
G3 X-161.7874 Y81.8651 I-0.373 J1.4529
G2 X-156.7918 Y82.4698 I4.774 J-18.5018
G3 X-156.7744 Y82.4697 I0.0174 J1.4999
G1 X-155.8389
G1 Y63.4941
G3 X-154.3224 Y61.9942 I1.5 J0.0
G3 X-149.9274 Y62.6627 I-0.1747 J15.9323
G3 X-149.927 Y62.6628 I-0.4302 J1.437
G3 X-145.8418 Y65.0003 I-2.9823 J9.9506
G3 X-145.8325 Y65.009 I-1.0205 J1.0993
G3 X-143.4025 Y68.7486 I-6.4988 J6.8823
G3 X-143.3979 Y68.7616 I-1.4149 J0.498
G3 X-142.7285 Y72.9652 I-11.8131 J4.0363
G3 X-144.647 Y80.459 I-15.7573 J-0.0416
G1 X-143.8988
G2 X-142.3705 Y76.779 I-10.4677 J-6.5047
G3 X-142.37 Y76.7771 I1.4601 J0.3438
G2 X-141.8202 Y71.8632 I-19.9134 J-4.7157
G3 X-141.8201 Y71.8264 I1.4999 J-0.0145
G2 X-142.6215 Y67.1091 I-13.1373 J-0.1949
G2 X-145.2449 Y63.32 I-9.0435 J3.4586
G2 X-149.8854 Y60.8645 I-7.643 J8.8314
G3 X-149.8864 Y60.8642 I0.3856 J-1.4496
G2 X-155.3684 Y60.1796 I-5.2342 J19.6202
G3 X-155.4038 I-0.0183 J-1.4999
G2 X-156.7087 Y60.2137 I-0.198 J17.381
G0 Z3.0
G0 X-155.6173 Y90.5236
G0 Z1.0
G1 F300.0 Z-0.6
G2 F800.0 X-160.3703 Y91.2179 I0.7941 J22.0535
G2 X-165.3816 Y93.7223 I3.3931 J13.0554
G2 X-168.2691 Y97.4943 I6.2263 J7.7574
G2 X-169.1799 Y102.2695 I11.0802 J4.5879
G3 X-169.1801 Y102.3262 I-1.4998 J0.0234
G2 X-168.2235 Y106.6116 I9.1684 J0.2029
G2 X-165.9493 Y109.218 I6.943 J-3.7627
G3 X-168.2717 Y102.9392 I6.8238 J-6.0929
G3 X-167.3995 Y98.5924 I10.5479 J-0.1445
G3 X-167.3876 Y98.5656 I1.3758 J0.5976
G3 X-164.5329 Y95.0079 I8.4846 J3.8838
G3 X-164.5325 Y95.0075 I0.905 J1.1962
G3 X-159.7873 Y92.803 I7.4845 J9.9007
G3 X-154.8768 Y92.2685 I4.7014 J20.3694
G3 X-150.4216 Y92.8164 I0.165 J17.0462
G3 X-150.4206 Y92.8166 I-0.3775 J1.4517
G3 X-146.1924 Y94.9098 I-2.9295 J11.2346
G3 X-146.1877 Y94.9135 I-0.9247 J1.181
G3 X-142.7283 Y102.3057 I-5.6411 J7.1456
G3 X-143.5135 Y106.3538 I-10.2821 J0.1057
G3 X-143.5228 Y106.3758 I-1.3854 J-0.5751
G3 X-144.3822 Y107.9347 I-8.6599 J-3.7577
G2 X-142.9976 Y106.0704 I-7.0257 J-6.6643
G2 X-141.82 Y101.0512 I-9.1505 J-4.7947
G3 X-141.8202 Y100.9975 I1.4996 J-0.0326
G2 X-142.6266 Y96.8051 I-10.533 J-0.1476
G2 X-145.1362 Y93.4448 I-8.4826 J3.7178
G2 X-149.4743 Y91.1676 I-7.4512 J8.9238
G2 X-154.5484 Y90.5106 I-4.8667 J17.6648
G3 X-154.5818 Y90.5107 I-0.017 J-1.4999
G2 X-155.6173 Y90.5236 I-0.2414 J22.0665
G0 Z3.0
G0 X-148.1357 Y112.5708
G0 Z1.0
G1 F300.0 Z-0.6
G3 F800.0 X-149.3176 Y113.0451 I-5.0644 J-10.9092
G1 X-147.7443
G3 X-148.1357 Y112.5708 I1.8732 J-1.9445
G0 Z3.0
G0 X-162.5281 Y113.0451
G0 Z1.0
G1 F300.0 Z-0.6
G3 F800.0 X-163.6793 Y112.516 I3.9971 J-10.2136
G3 X-164.1053 Y113.0451 I-2.2992 J-1.4155
G1 X-162.5281
G1 F300.0 X-162.0917 Y111.9299
G3 F800.0 X-164.5509 Y110.5269 I3.5607 J-9.0983
G3 X-164.4785 Y110.9873 I-1.4276 J0.4604
G1 Y111.1006
G3 X-165.9785 Y112.6006 I-1.5 J0.0
G1 X-168.5
G1 Y114.2451
G1 X-143.3223
G3 X-143.3032 Y114.2452 I0.0 J1.5
G2 X-137.4515 Y113.5551 I0.2883 J-22.7084
G2 X-133.578 Y111.8151 I-3.101 J-12.0845
G2 X-129.8658 Y106.931 I-5.7475 J-8.2212
G3 X-129.8605 Y106.9161 I1.4146 J0.499
G2 X-129.0777 Y103.7809 I-14.4843 J-5.2819
G3 X-129.0773 Y103.7787 I1.4854 J0.2089
G2 X-128.8496 Y100.4584 I-22.695 J-3.2247
G3 Y100.4441 I1.5 J-0.0063
G2 X-129.284 Y95.9244 I-22.4797 J-0.1202
G2 X-130.3423 Y92.5498 I-16.3399 J3.2711
G1 X-131.6083
G3 X-130.6495 Y95.0979 I-23.0623 J10.1325
G3 X-129.8145 Y100.3785 I-17.1141 J5.4124
G3 X-130.5016 Y105.2522 I-15.9054 J0.2429
G3 X-135.5725 Y111.1899 I-9.2548 J-2.7695
G3 X-135.5756 Y111.1914 I-0.6497 J-1.352
G3 X-139.1426 Y112.3135 I-5.7398 J-12.0154
G3 X-142.7038 Y112.6006 I-3.436 J-20.3935
G1 X-145.8711
G3 X-147.3711 Y111.1006 I0.0 J-1.5
G1 Y110.9873
G3 X-147.3566 Y110.7796 I1.5 J0.0
G3 X-149.8641 Y111.9648 I-5.8435 J-9.118
G3 X-149.8741 Y111.968 I-0.4621 J-1.4271
G3 X-154.1203 Y112.6006 I-4.1048 J-12.9852
G1 X-158.3763
G3 X-162.0917 Y111.9299 I-0.1547 J-9.769
G1 F300.0 X-162.5281 Y113.0451
G1 Z-1.2
G3 F800.0 X-163.6793 Y112.516 I3.9971 J-10.2136
G3 X-164.1053 Y113.0451 I-2.2992 J-1.4155
G1 X-162.5281
G0 Z3.0
G0 X-149.3176
G0 Z0.4
G1 F300.0 Z-1.2
G1 F800.0 X-147.7443
G3 X-148.1357 Y112.5708 I1.8732 J-1.9445
G3 X-149.3176 Y113.0451 I-5.0644 J-10.9092
G1 F300.0 X-149.7042 Y111.9116
G3 F800.0 X-149.8641 Y111.9648 I-3.496 J-10.25
G3 X-149.8741 Y111.968 I-0.4621 J-1.4271
G3 X-154.1203 Y112.6006 I-4.1048 J-12.9852
G1 X-158.3763
G3 X-164.5509 Y110.5269 I-0.1547 J-9.769
G3 X-164.4785 Y110.9873 I-1.4276 J0.4604
G1 Y111.1006
G3 X-165.9785 Y112.6006 I-1.5 J0.0
G1 X-168.5
G1 Y114.2451
G1 X-143.3223
G3 X-143.3032 Y114.2452 I0.0 J1.5
G2 X-137.4515 Y113.5551 I0.2883 J-22.7084
G2 X-133.578 Y111.8151 I-3.101 J-12.0845
G2 X-129.8658 Y106.931 I-5.7475 J-8.2212
G3 X-129.8605 Y106.9161 I1.4146 J0.499
G2 X-129.0777 Y103.7809 I-14.4843 J-5.2819
G3 X-129.0773 Y103.7787 I1.4854 J0.2089
G2 X-128.8496 Y100.4584 I-22.695 J-3.2247
G3 Y100.4441 I1.5 J-0.0063
G2 X-129.284 Y95.9244 I-22.4797 J-0.1202
G2 X-130.3423 Y92.5498 I-16.3399 J3.2711
G1 X-131.6083
G3 X-130.6495 Y95.0979 I-23.0623 J10.1325
G3 X-129.8145 Y100.3785 I-17.1141 J5.4124
G3 X-130.5016 Y105.2522 I-15.9054 J0.2429
G3 X-135.5725 Y111.1899 I-9.2548 J-2.7695
G3 X-135.5756 Y111.1914 I-0.6497 J-1.352
G3 X-139.1426 Y112.3135 I-5.7398 J-12.0154
G3 X-142.7038 Y112.6006 I-3.436 J-20.3935
G1 X-145.8711
G3 X-147.3711 Y111.1006 I0.0 J-1.5
G1 Y110.9873
G3 X-147.3566 Y110.7796 I1.5 J0.0
G3 X-149.7042 Y111.9116 I-5.8435 J-9.118
G0 Z3.0
G0 X-144.3822 Y107.9347
G0 Z0.4
G1 F300.0 Z-1.2
G2 F800.0 X-142.9976 Y106.0704 I-7.0257 J-6.6643
G2 X-141.82 Y101.0512 I-9.1505 J-4.7947
G3 X-141.8202 Y100.9975 I1.4996 J-0.0326
G2 X-142.6266 Y96.8051 I-10.533 J-0.1476
G2 X-145.1362 Y93.4448 I-8.4826 J3.7178
G2 X-149.4743 Y91.1676 I-7.4512 J8.9238
G2 X-154.5484 Y90.5106 I-4.8667 J17.6648
G3 X-154.5818 Y90.5107 I-0.017 J-1.4999
G2 X-160.3703 Y91.2179 I-0.2414 J22.0665
G2 X-165.3816 Y93.7223 I3.3931 J13.0554
G2 X-168.2691 Y97.4943 I6.2263 J7.7574
G2 X-169.1799 Y102.2695 I11.0802 J4.5879
G3 X-169.1801 Y102.3262 I-1.4998 J0.0234
G2 X-168.2235 Y106.6116 I9.1684 J0.2029
G2 X-165.9493 Y109.218 I6.943 J-3.7627
G3 X-168.2717 Y102.9392 I6.8238 J-6.0929
G3 X-167.3995 Y98.5924 I10.5479 J-0.1445
G3 X-167.3876 Y98.5656 I1.3758 J0.5976
G3 X-164.5329 Y95.0079 I8.4846 J3.8838
G3 X-164.5325 Y95.0075 I0.905 J1.1962
G3 X-159.7873 Y92.803 I7.4845 J9.9007
G3 X-154.8768 Y92.2685 I4.7014 J20.3694
G3 X-150.4216 Y92.8164 I0.165 J17.0462
G3 X-150.4206 Y92.8166 I-0.3775 J1.4517
G3 X-146.1924 Y94.9098 I-2.9295 J11.2346
G3 X-146.1877 Y94.9135 I-0.9247 J1.181
G3 X-142.7283 Y102.3057 I-5.6411 J7.1456
G3 X-143.5135 Y106.3538 I-10.2821 J0.1057
G3 X-143.5228 Y106.3758 I-1.3854 J-0.5751
G3 X-144.3822 Y107.9347 I-8.6599 J-3.7577
G1 F300.0 Z-1.8
G2 F800.0 X-142.9976 Y106.0704 I-7.0257 J-6.6643
G2 X-141.82 Y101.0512 I-9.1505 J-4.7947
G3 X-141.8202 Y100.9975 I1.4996 J-0.0326
G2 X-142.6266 Y96.8051 I-10.533 J-0.1476
G2 X-145.1362 Y93.4448 I-8.4826 J3.7178
G2 X-149.4743 Y91.1676 I-7.4512 J8.9238
G2 X-154.5484 Y90.5106 I-4.8667 J17.6648
G3 X-154.5818 Y90.5107 I-0.017 J-1.4999
G2 X-160.3703 Y91.2179 I-0.2414 J22.0665
G2 X-165.3816 Y93.7223 I3.3931 J13.0554
G2 X-168.2691 Y97.4943 I6.2263 J7.7574
G2 X-169.1799 Y102.2695 I11.0802 J4.5879
G3 X-169.1801 Y102.3262 I-1.4998 J0.0234
G2 X-168.2235 Y106.6116 I9.1684 J0.2029
G2 X-165.9493 Y109.218 I6.943 J-3.7627
G3 X-168.2717 Y102.9392 I6.8238 J-6.0929
G3 X-167.3995 Y98.5924 I10.5479 J-0.1445
G3 X-167.3876 Y98.5656 I1.3758 J0.5976
G3 X-164.5329 Y95.0079 I8.4846 J3.8838
G3 X-164.5325 Y95.0075 I0.905 J1.1962
G3 X-159.7873 Y92.803 I7.4845 J9.9007
G3 X-154.8768 Y92.2685 I4.7014 J20.3694
G3 X-150.4216 Y92.8164 I0.165 J17.0462
G3 X-150.4206 Y92.8166 I-0.3775 J1.4517
G3 X-146.1924 Y94.9098 I-2.9295 J11.2346
G3 X-146.1877 Y94.9135 I-0.9247 J1.181
G3 X-142.7283 Y102.3057 I-5.6411 J7.1456
G3 X-143.5135 Y106.3538 I-10.2821 J0.1057
G3 X-143.5228 Y106.3758 I-1.3854 J-0.5751
G3 X-144.3822 Y107.9347 I-8.6599 J-3.7577
G0 Z3.0
G0 X-148.1357 Y112.5708
G0 Z-0.2
G1 F300.0 Z-1.8
G3 F800.0 X-149.3176 Y113.0451 I-5.0644 J-10.9092
G1 X-147.7443
G3 X-148.1357 Y112.5708 I1.8732 J-1.9445
G0 Z3.0
G0 X-162.5281 Y113.0451
G0 Z-0.2
G1 F300.0 Z-1.8
G3 F800.0 X-163.6793 Y112.516 I3.9971 J-10.2136
G3 X-164.1053 Y113.0451 I-2.2992 J-1.4155
G1 X-162.5281
G1 F300.0 X-162.0917 Y111.9299
G3 F800.0 X-164.5509 Y110.5269 I3.5607 J-9.0983
G3 X-164.4785 Y110.9873 I-1.4276 J0.4604
G1 Y111.1006
G3 X-165.9785 Y112.6006 I-1.5 J0.0
G1 X-168.5
G1 Y114.2451
G1 X-143.3223
G3 X-143.3032 Y114.2452 I0.0 J1.5
G2 X-137.4515 Y113.5551 I0.2883 J-22.7084
G2 X-133.578 Y111.8151 I-3.101 J-12.0845
G2 X-129.8658 Y106.931 I-5.7475 J-8.2212
G3 X-129.8605 Y106.9161 I1.4146 J0.499
G2 X-129.0777 Y103.7809 I-14.4843 J-5.2819
G3 X-129.0773 Y103.7787 I1.4854 J0.2089
G2 X-128.8496 Y100.4584 I-22.695 J-3.2247
G3 Y100.4441 I1.5 J-0.0063
G2 X-129.284 Y95.9244 I-22.4797 J-0.1202
G2 X-130.3423 Y92.5498 I-16.3399 J3.2711
G1 X-131.6083
G3 X-130.6495 Y95.0979 I-23.0623 J10.1325
G3 X-129.8145 Y100.3785 I-17.1141 J5.4124
G3 X-130.5016 Y105.2522 I-15.9054 J0.2429
G3 X-135.5725 Y111.1899 I-9.2548 J-2.7695
G3 X-135.5756 Y111.1914 I-0.6497 J-1.352
G3 X-139.1426 Y112.3135 I-5.7398 J-12.0154
G3 X-142.7038 Y112.6006 I-3.436 J-20.3935
G1 X-145.8711
G3 X-147.3711 Y111.1006 I0.0 J-1.5
G1 Y110.9873
G3 X-147.3566 Y110.7796 I1.5 J0.0
G3 X-149.8641 Y111.9648 I-5.8435 J-9.118
G3 X-149.8741 Y111.968 I-0.4621 J-1.4271
G3 X-154.1203 Y112.6006 I-4.1048 J-12.9852
G1 X-158.3763
G3 X-162.0917 Y111.9299 I-0.1547 J-9.769
G1 F300.0 X-162.5281 Y113.0451
G1 Z-2.4
G3 F800.0 X-163.6793 Y112.516 I3.9971 J-10.2136
G3 X-164.1053 Y113.0451 I-2.2992 J-1.4155
G1 X-162.5281
G0 Z3.0
G0 X-149.3176
G0 Z-0.8
G1 F300.0 Z-2.4
G1 F800.0 X-147.7443
G3 X-148.1357 Y112.5708 I1.8732 J-1.9445
G3 X-149.3176 Y113.0451 I-5.0644 J-10.9092
G1 F300.0 X-149.7042 Y111.9116
G3 F800.0 X-149.8641 Y111.9648 I-3.496 J-10.25
G3 X-149.8741 Y111.968 I-0.4621 J-1.4271
G3 X-154.1203 Y112.6006 I-4.1048 J-12.9852
G1 X-158.3763
G3 X-164.5509 Y110.5269 I-0.1547 J-9.769
G3 X-164.4785 Y110.9873 I-1.4276 J0.4604
G1 Y111.1006
G3 X-165.9785 Y112.6006 I-1.5 J0.0
G1 X-168.5
G1 Y114.2451
G1 X-143.3223
G3 X-143.3032 Y114.2452 I0.0 J1.5
G2 X-137.4515 Y113.5551 I0.2883 J-22.7084
G2 X-133.578 Y111.8151 I-3.101 J-12.0845
G2 X-129.8658 Y106.931 I-5.7475 J-8.2212
G3 X-129.8605 Y106.9161 I1.4146 J0.499
G2 X-129.0777 Y103.7809 I-14.4843 J-5.2819
G3 X-129.0773 Y103.7787 I1.4854 J0.2089
G2 X-128.8496 Y100.4584 I-22.695 J-3.2247
G3 Y100.4441 I1.5 J-0.0063
G2 X-129.284 Y95.9244 I-22.4797 J-0.1202
G2 X-130.3423 Y92.5498 I-16.3399 J3.2711
G1 X-131.6083
G3 X-130.6495 Y95.0979 I-23.0623 J10.1325
G3 X-129.8145 Y100.3785 I-17.1141 J5.4124
G3 X-130.5016 Y105.2522 I-15.9054 J0.2429
G3 X-135.5725 Y111.1899 I-9.2548 J-2.7695
G3 X-135.5756 Y111.1914 I-0.6497 J-1.352
G3 X-139.1426 Y112.3135 I-5.7398 J-12.0154
G3 X-142.7038 Y112.6006 I-3.436 J-20.3935
G1 X-145.8711
G3 X-147.3711 Y111.1006 I0.0 J-1.5
G1 Y110.9873
G3 X-147.3566 Y110.7796 I1.5 J0.0
G3 X-149.7042 Y111.9116 I-5.8435 J-9.118
G0 Z3.0
G0 X-144.3822 Y107.9347
G0 Z-0.8
G1 F300.0 Z-2.4
G2 F800.0 X-142.9976 Y106.0704 I-7.0257 J-6.6643
G2 X-141.82 Y101.0512 I-9.1505 J-4.7947
G3 X-141.8202 Y100.9975 I1.4996 J-0.0326
G2 X-142.6266 Y96.8051 I-10.533 J-0.1476
G2 X-145.1362 Y93.4448 I-8.4826 J3.7178
G2 X-149.4743 Y91.1676 I-7.4512 J8.9238
G2 X-154.5484 Y90.5106 I-4.8667 J17.6648
G3 X-154.5818 Y90.5107 I-0.017 J-1.4999
G2 X-160.3703 Y91.2179 I-0.2414 J22.0665
G2 X-165.3816 Y93.7223 I3.3931 J13.0554
G2 X-168.2691 Y97.4943 I6.2263 J7.7574
G2 X-169.1799 Y102.2695 I11.0802 J4.5879
G3 X-169.1801 Y102.3262 I-1.4998 J0.0234
G2 X-168.2235 Y106.6116 I9.1684 J0.2029
G2 X-165.9493 Y109.218 I6.943 J-3.7627
G3 X-168.2717 Y102.9392 I6.8238 J-6.0929
G3 X-167.3995 Y98.5924 I10.5479 J-0.1445
G3 X-167.3876 Y98.5656 I1.3758 J0.5976
G3 X-164.5329 Y95.0079 I8.4846 J3.8838
G3 X-164.5325 Y95.0075 I0.905 J1.1962
G3 X-159.7873 Y92.803 I7.4845 J9.9007
G3 X-154.8768 Y92.2685 I4.7014 J20.3694
G3 X-150.4216 Y92.8164 I0.165 J17.0462
G3 X-150.4206 Y92.8166 I-0.3775 J1.4517
G3 X-146.1924 Y94.9098 I-2.9295 J11.2346
G3 X-146.1877 Y94.9135 I-0.9247 J1.181
G3 X-142.7283 Y102.3057 I-5.6411 J7.1456
G3 X-143.5135 Y106.3538 I-10.2821 J0.1057
G3 X-143.5228 Y106.3758 I-1.3854 J-0.5751
G3 X-144.3822 Y107.9347 I-8.6599 J-3.7577
G1 F300.0 Z-3.0
G2 F800.0 X-142.9976 Y106.0704 I-7.0257 J-6.6643
G2 X-141.82 Y101.0512 I-9.1505 J-4.7947
G3 X-141.8202 Y100.9975 I1.4996 J-0.0326
G2 X-142.6266 Y96.8051 I-10.533 J-0.1476
G2 X-145.1362 Y93.4448 I-8.4826 J3.7178
G2 X-149.4743 Y91.1676 I-7.4512 J8.9238
G2 X-154.5484 Y90.5106 I-4.8667 J17.6648
G3 X-154.5818 Y90.5107 I-0.017 J-1.4999
G2 X-160.3703 Y91.2179 I-0.2414 J22.0665
G2 X-165.3816 Y93.7223 I3.3931 J13.0554
G2 X-168.2691 Y97.4943 I6.2263 J7.7574
G2 X-169.1799 Y102.2695 I11.0802 J4.5879
G3 X-169.1801 Y102.3262 I-1.4998 J0.0234
G2 X-168.2235 Y106.6116 I9.1684 J0.2029
G2 X-165.9493 Y109.218 I6.943 J-3.7627
G3 X-168.2717 Y102.9392 I6.8238 J-6.0929
G3 X-167.3995 Y98.5924 I10.5479 J-0.1445
G3 X-167.3876 Y98.5656 I1.3758 J0.5976
G3 X-164.5329 Y95.0079 I8.4846 J3.8838
G3 X-164.5325 Y95.0075 I0.905 J1.1962
G3 X-159.7873 Y92.803 I7.4845 J9.9007
G3 X-154.8768 Y92.2685 I4.7014 J20.3694
G3 X-150.4216 Y92.8164 I0.165 J17.0462
G3 X-150.4206 Y92.8166 I-0.3775 J1.4517
G3 X-146.1924 Y94.9098 I-2.9295 J11.2346
G3 X-146.1877 Y94.9135 I-0.9247 J1.181
G3 X-142.7283 Y102.3057 I-5.6411 J7.1456
G3 X-143.5135 Y106.3538 I-10.2821 J0.1057
G3 X-143.5228 Y106.3758 I-1.3854 J-0.5751
G3 X-144.3822 Y107.9347 I-8.6599 J-3.7577
G0 Z3.0
G0 X-148.1357 Y112.5708
G0 Z-1.4
G1 F300.0 Z-3.0
G3 F800.0 X-149.3176 Y113.0451 I-5.0644 J-10.9092
G1 X-147.7443
G3 X-148.1357 Y112.5708 I1.8732 J-1.9445
G0 Z3.0
G0 X-162.5281 Y113.0451
G0 Z-1.4
G1 F300.0 Z-3.0
G3 F800.0 X-163.6793 Y112.516 I3.9971 J-10.2136
G3 X-164.1053 Y113.0451 I-2.2992 J-1.4155
G1 X-162.5281
G1 F300.0 X-162.0917 Y111.9299
G3 F800.0 X-164.5509 Y110.5269 I3.5607 J-9.0983
G3 X-164.4785 Y110.9873 I-1.4276 J0.4604
G1 Y111.1006
G3 X-165.9785 Y112.6006 I-1.5 J0.0
G1 X-168.5
G1 Y114.2451
G1 X-143.3223
G3 X-143.3032 Y114.2452 I0.0 J1.5
G2 X-137.4515 Y113.5551 I0.2883 J-22.7084
G2 X-133.578 Y111.8151 I-3.101 J-12.0845
G2 X-129.8658 Y106.931 I-5.7475 J-8.2212
G3 X-129.8605 Y106.9161 I1.4146 J0.499
G2 X-129.0777 Y103.7809 I-14.4843 J-5.2819
G3 X-129.0773 Y103.7787 I1.4854 J0.2089
G2 X-128.8496 Y100.4584 I-22.695 J-3.2247
G3 Y100.4441 I1.5 J-0.0063
G2 X-129.284 Y95.9244 I-22.4797 J-0.1202
G2 X-130.3423 Y92.5498 I-16.3399 J3.2711
G1 X-131.6083
G3 X-130.6495 Y95.0979 I-23.0623 J10.1325
G3 X-129.8145 Y100.3785 I-17.1141 J5.4124
G3 X-130.5016 Y105.2522 I-15.9054 J0.2429
G3 X-135.5725 Y111.1899 I-9.2548 J-2.7695
G3 X-135.5756 Y111.1914 I-0.6497 J-1.352
G3 X-139.1426 Y112.3135 I-5.7398 J-12.0154
G3 X-142.7038 Y112.6006 I-3.436 J-20.3935
G1 X-145.8711
G3 X-147.3711 Y111.1006 I0.0 J-1.5
G1 Y110.9873
G3 X-147.3566 Y110.7796 I1.5 J0.0
G3 X-149.8641 Y111.9648 I-5.8435 J-9.118
G3 X-149.8741 Y111.968 I-0.4621 J-1.4271
G3 X-154.1203 Y112.6006 I-4.1048 J-12.9852
G1 X-158.3763
G3 X-162.0917 Y111.9299 I-0.1547 J-9.769
G1 F300.0 X-162.5281 Y113.0451
G1 Z-3.6
G3 F800.0 X-163.6793 Y112.516 I3.9971 J-10.2136
G3 X-164.1053 Y113.0451 I-2.2992 J-1.4155
G1 X-162.5281
G0 Z3.0
G0 X-149.3176
G0 Z-2.0
G1 F300.0 Z-3.6
G1 F800.0 X-147.7443
G3 X-148.1357 Y112.5708 I1.8732 J-1.9445
G3 X-149.3176 Y113.0451 I-5.0644 J-10.9092
G1 F300.0 X-149.7042 Y111.9116
G3 F800.0 X-149.8641 Y111.9648 I-3.496 J-10.25
G3 X-149.8741 Y111.968 I-0.4621 J-1.4271
G3 X-154.1203 Y112.6006 I-4.1048 J-12.9852
G1 X-158.3763
G3 X-164.5509 Y110.5269 I-0.1547 J-9.769
G3 X-164.4785 Y110.9873 I-1.4276 J0.4604
G1 Y111.1006
G3 X-165.9785 Y112.6006 I-1.5 J0.0
G1 X-168.5
G1 Y114.2451
G1 X-143.3223
G3 X-143.3032 Y114.2452 I0.0 J1.5
G2 X-137.4515 Y113.5551 I0.2883 J-22.7084
G2 X-133.578 Y111.8151 I-3.101 J-12.0845
G2 X-129.8658 Y106.931 I-5.7475 J-8.2212
G3 X-129.8605 Y106.9161 I1.4146 J0.499
G2 X-129.0777 Y103.7809 I-14.4843 J-5.2819
G3 X-129.0773 Y103.7787 I1.4854 J0.2089
G2 X-128.8496 Y100.4584 I-22.695 J-3.2247
G3 Y100.4441 I1.5 J-0.0063
G2 X-129.284 Y95.9244 I-22.4797 J-0.1202
G2 X-130.3423 Y92.5498 I-16.3399 J3.2711
G1 X-131.6083
G3 X-130.6495 Y95.0979 I-23.0623 J10.1325
G3 X-129.8145 Y100.3785 I-17.1141 J5.4124
G3 X-130.5016 Y105.2522 I-15.9054 J0.2429
G3 X-135.5725 Y111.1899 I-9.2548 J-2.7695
G3 X-135.5756 Y111.1914 I-0.6497 J-1.352
G3 X-139.1426 Y112.3135 I-5.7398 J-12.0154
G3 X-142.7038 Y112.6006 I-3.436 J-20.3935
G1 X-145.8711
G3 X-147.3711 Y111.1006 I0.0 J-1.5
G1 Y110.9873
G3 X-147.3566 Y110.7796 I1.5 J0.0
G3 X-149.7042 Y111.9116 I-5.8435 J-9.118
G0 Z3.0
G0 X-144.3822 Y107.9347
G0 Z-2.0
G1 F300.0 Z-3.6
G2 F800.0 X-142.9976 Y106.0704 I-7.0257 J-6.6643
G2 X-141.82 Y101.0512 I-9.1505 J-4.7947
G3 X-141.8202 Y100.9975 I1.4996 J-0.0326
G2 X-142.6266 Y96.8051 I-10.533 J-0.1476
G2 X-145.1362 Y93.4448 I-8.4826 J3.7178
G2 X-149.4743 Y91.1676 I-7.4512 J8.9238
G2 X-154.5484 Y90.5106 I-4.8667 J17.6648
G3 X-154.5818 Y90.5107 I-0.017 J-1.4999
G2 X-160.3703 Y91.2179 I-0.2414 J22.0665
G2 X-165.3816 Y93.7223 I3.3931 J13.0554
G2 X-168.2691 Y97.4943 I6.2263 J7.7574
G2 X-169.1799 Y102.2695 I11.0802 J4.5879
G3 X-169.1801 Y102.3262 I-1.4998 J0.0234
G2 X-168.2235 Y106.6116 I9.1684 J0.2029
G2 X-165.9493 Y109.218 I6.943 J-3.7627
G3 X-168.2717 Y102.9392 I6.8238 J-6.0929
G3 X-167.3995 Y98.5924 I10.5479 J-0.1445
G3 X-167.3876 Y98.5656 I1.3758 J0.5976
G3 X-164.5329 Y95.0079 I8.4846 J3.8838
G3 X-164.5325 Y95.0075 I0.905 J1.1962
G3 X-159.7873 Y92.803 I7.4845 J9.9007
G3 X-154.8768 Y92.2685 I4.7014 J20.3694
G3 X-150.4216 Y92.8164 I0.165 J17.0462
G3 X-150.4206 Y92.8166 I-0.3775 J1.4517
G3 X-146.1924 Y94.9098 I-2.9295 J11.2346
G3 X-146.1877 Y94.9135 I-0.9247 J1.181
G3 X-142.7283 Y102.3057 I-5.6411 J7.1456
G3 X-143.5135 Y106.3538 I-10.2821 J0.1057
G3 X-143.5228 Y106.3758 I-1.3854 J-0.5751
G3 X-144.3822 Y107.9347 I-8.6599 J-3.7577
G1 F300.0 Z-4.2
G2 F800.0 X-142.9976 Y106.0704 I-7.0257 J-6.6643
G2 X-141.82 Y101.0512 I-9.1505 J-4.7947
G3 X-141.8202 Y100.9975 I1.4996 J-0.0326
G2 X-142.6266 Y96.8051 I-10.533 J-0.1476
G2 X-145.1362 Y93.4448 I-8.4826 J3.7178
G2 X-149.4743 Y91.1676 I-7.4512 J8.9238
G2 X-154.5484 Y90.5106 I-4.8667 J17.6648
G3 X-154.5818 Y90.5107 I-0.017 J-1.4999
G2 X-160.3703 Y91.2179 I-0.2414 J22.0665
G2 X-165.3816 Y93.7223 I3.3931 J13.0554
G2 X-168.2691 Y97.4943 I6.2263 J7.7574
G2 X-169.1799 Y102.2695 I11.0802 J4.5879
G3 X-169.1801 Y102.3262 I-1.4998 J0.0234
G2 X-168.2235 Y106.6116 I9.1684 J0.2029
G2 X-165.9493 Y109.218 I6.943 J-3.7627
G3 X-168.2717 Y102.9392 I6.8238 J-6.0929
G3 X-167.3995 Y98.5924 I10.5479 J-0.1445
G3 X-167.3876 Y98.5656 I1.3758 J0.5976
G3 X-164.5329 Y95.0079 I8.4846 J3.8838
G3 X-164.5325 Y95.0075 I0.905 J1.1962
G3 X-159.7873 Y92.803 I7.4845 J9.9007
G3 X-154.8768 Y92.2685 I4.7014 J20.3694
G3 X-150.4216 Y92.8164 I0.165 J17.0462
G3 X-150.4206 Y92.8166 I-0.3775 J1.4517
G3 X-146.1924 Y94.9098 I-2.9295 J11.2346
G3 X-146.1877 Y94.9135 I-0.9247 J1.181
G3 X-142.7283 Y102.3057 I-5.6411 J7.1456
G3 X-143.5135 Y106.3538 I-10.2821 J0.1057
G3 X-143.5228 Y106.3758 I-1.3854 J-0.5751
G3 X-144.3822 Y107.9347 I-8.6599 J-3.7577
G0 Z3.0
G0 X-148.1357 Y112.5708
G0 Z-2.6
G1 F300.0 Z-4.2
G3 F800.0 X-149.3176 Y113.0451 I-5.0644 J-10.9092
G1 X-147.7443
G3 X-148.1357 Y112.5708 I1.8732 J-1.9445
G0 Z3.0
G0 X-162.5281 Y113.0451
G0 Z-2.6
G1 F300.0 Z-4.2
G3 F800.0 X-163.6793 Y112.516 I3.9971 J-10.2136
G3 X-164.1053 Y113.0451 I-2.2992 J-1.4155
G1 X-162.5281
G1 F300.0 X-162.0917 Y111.9299
G3 F800.0 X-164.5509 Y110.5269 I3.5607 J-9.0983
G3 X-164.4785 Y110.9873 I-1.4276 J0.4604
G1 Y111.1006
G3 X-165.9785 Y112.6006 I-1.5 J0.0
G1 X-168.5
G1 Y114.2451
G1 X-143.3223
G3 X-143.3032 Y114.2452 I0.0 J1.5
G2 X-137.4515 Y113.5551 I0.2883 J-22.7084
G2 X-133.578 Y111.8151 I-3.101 J-12.0845
G2 X-129.8658 Y106.931 I-5.7475 J-8.2212
G3 X-129.8605 Y106.9161 I1.4146 J0.499
G2 X-129.0777 Y103.7809 I-14.4843 J-5.2819
G3 X-129.0773 Y103.7787 I1.4854 J0.2089
G2 X-128.8496 Y100.4584 I-22.695 J-3.2247
G3 Y100.4441 I1.5 J-0.0063
G2 X-129.284 Y95.9244 I-22.4797 J-0.1202
G2 X-130.3423 Y92.5498 I-16.3399 J3.2711
G1 X-131.6083
G3 X-130.6495 Y95.0979 I-23.0623 J10.1325
G3 X-129.8145 Y100.3785 I-17.1141 J5.4124
G3 X-130.5016 Y105.2522 I-15.9054 J0.2429
G3 X-135.5725 Y111.1899 I-9.2548 J-2.7695
G3 X-135.5756 Y111.1914 I-0.6497 J-1.352
G3 X-139.1426 Y112.3135 I-5.7398 J-12.0154
G3 X-142.7038 Y112.6006 I-3.436 J-20.3935
G1 X-145.8711
G3 X-147.3711 Y111.1006 I0.0 J-1.5
G1 Y110.9873
G3 X-147.3566 Y110.7796 I1.5 J0.0
G3 X-149.8641 Y111.9648 I-5.8435 J-9.118
G3 X-149.8741 Y111.968 I-0.4621 J-1.4271
G3 X-154.1203 Y112.6006 I-4.1048 J-12.9852
G1 X-158.3763
G3 X-162.0917 Y111.9299 I-0.1547 J-9.769
G1 F300.0 X-162.5281 Y113.0451
G1 Z-4.8
G3 F800.0 X-163.6793 Y112.516 I3.9971 J-10.2136
G3 X-164.1053 Y113.0451 I-2.2992 J-1.4155
G1 X-162.5281
G0 Z3.0
G0 X-149.3176
G0 Z-3.2
G1 F300.0 Z-4.8
G1 F800.0 X-147.7443
G3 X-148.1357 Y112.5708 I1.8732 J-1.9445
G3 X-149.3176 Y113.0451 I-5.0644 J-10.9092
G1 F300.0 X-149.7042 Y111.9116
G3 F800.0 X-149.8641 Y111.9648 I-3.496 J-10.25
G3 X-149.8741 Y111.968 I-0.4621 J-1.4271
G3 X-154.1203 Y112.6006 I-4.1048 J-12.9852
G1 X-158.3763
G3 X-164.5509 Y110.5269 I-0.1547 J-9.769
G3 X-164.4785 Y110.9873 I-1.4276 J0.4604
G1 Y111.1006
G3 X-165.9785 Y112.6006 I-1.5 J0.0
G1 X-168.5
G1 Y114.2451
G1 X-143.3223
G3 X-143.3032 Y114.2452 I0.0 J1.5
G2 X-137.4515 Y113.5551 I0.2883 J-22.7084
G2 X-133.578 Y111.8151 I-3.101 J-12.0845
G2 X-129.8658 Y106.931 I-5.7475 J-8.2212
G3 X-129.8605 Y106.9161 I1.4146 J0.499
G2 X-129.0777 Y103.7809 I-14.4843 J-5.2819
G3 X-129.0773 Y103.7787 I1.4854 J0.2089
G2 X-128.8496 Y100.4584 I-22.695 J-3.2247
G3 Y100.4441 I1.5 J-0.0063
G2 X-129.284 Y95.9244 I-22.4797 J-0.1202
G2 X-130.3423 Y92.5498 I-16.3399 J3.2711
G1 X-131.6083
G3 X-130.6495 Y95.0979 I-23.0623 J10.1325
G3 X-129.8145 Y100.3785 I-17.1141 J5.4124
G3 X-130.5016 Y105.2522 I-15.9054 J0.2429
G3 X-135.5725 Y111.1899 I-9.2548 J-2.7695
G3 X-135.5756 Y111.1914 I-0.6497 J-1.352
G3 X-139.1426 Y112.3135 I-5.7398 J-12.0154
G3 X-142.7038 Y112.6006 I-3.436 J-20.3935
G1 X-145.8711
G3 X-147.3711 Y111.1006 I0.0 J-1.5
G1 Y110.9873
G3 X-147.3566 Y110.7796 I1.5 J0.0
G3 X-149.7042 Y111.9116 I-5.8435 J-9.118
G0 Z3.0
G0 X-144.3822 Y107.9347
G0 Z-3.2
G1 F300.0 Z-4.8
G2 F800.0 X-142.9976 Y106.0704 I-7.0257 J-6.6643
G2 X-141.82 Y101.0512 I-9.1505 J-4.7947
G3 X-141.8202 Y100.9975 I1.4996 J-0.0326
G2 X-142.6266 Y96.8051 I-10.533 J-0.1476
G2 X-145.1362 Y93.4448 I-8.4826 J3.7178
G2 X-149.4743 Y91.1676 I-7.4512 J8.9238
G2 X-154.5484 Y90.5106 I-4.8667 J17.6648
G3 X-154.5818 Y90.5107 I-0.017 J-1.4999
G2 X-160.3703 Y91.2179 I-0.2414 J22.0665
G2 X-165.3816 Y93.7223 I3.3931 J13.0554
G2 X-168.2691 Y97.4943 I6.2263 J7.7574
G2 X-169.1799 Y102.2695 I11.0802 J4.5879
G3 X-169.1801 Y102.3262 I-1.4998 J0.0234
G2 X-168.2235 Y106.6116 I9.1684 J0.2029
G2 X-165.9493 Y109.218 I6.943 J-3.7627
G3 X-168.2717 Y102.9392 I6.8238 J-6.0929
G3 X-167.3995 Y98.5924 I10.5479 J-0.1445
G3 X-167.3876 Y98.5656 I1.3758 J0.5976
G3 X-164.5329 Y95.0079 I8.4846 J3.8838
G3 X-164.5325 Y95.0075 I0.905 J1.1962
G3 X-159.7873 Y92.803 I7.4845 J9.9007
G3 X-154.8768 Y92.2685 I4.7014 J20.3694
G3 X-150.4216 Y92.8164 I0.165 J17.0462
G3 X-150.4206 Y92.8166 I-0.3775 J1.4517
G3 X-146.1924 Y94.9098 I-2.9295 J11.2346
G3 X-146.1877 Y94.9135 I-0.9247 J1.181
G3 X-142.7283 Y102.3057 I-5.6411 J7.1456
G3 X-143.5135 Y106.3538 I-10.2821 J0.1057
G3 X-143.5228 Y106.3758 I-1.3854 J-0.5751
G3 X-144.3822 Y107.9347 I-8.6599 J-3.7577
G1 F300.0 Z-5.0
G2 F800.0 X-142.9976 Y106.0704 I-7.0257 J-6.6643
G2 X-141.82 Y101.0512 I-9.1505 J-4.7947
G3 X-141.8202 Y100.9975 I1.4996 J-0.0326
G2 X-142.6266 Y96.8051 I-10.533 J-0.1476
G2 X-145.1362 Y93.4448 I-8.4826 J3.7178
G2 X-149.4743 Y91.1676 I-7.4512 J8.9238
G2 X-154.5484 Y90.5106 I-4.8667 J17.6648
G3 X-154.5818 Y90.5107 I-0.017 J-1.4999
G2 X-160.3703 Y91.2179 I-0.2414 J22.0665
G2 X-165.3816 Y93.7223 I3.3931 J13.0554
G2 X-168.2691 Y97.4943 I6.2263 J7.7574
G2 X-169.1799 Y102.2695 I11.0802 J4.5879
G3 X-169.1801 Y102.3262 I-1.4998 J0.0234
G2 X-168.2235 Y106.6116 I9.1684 J0.2029
G2 X-165.9493 Y109.218 I6.943 J-3.7627
G3 X-168.2717 Y102.9392 I6.8238 J-6.0929
G3 X-167.3995 Y98.5924 I10.5479 J-0.1445
G3 X-167.3876 Y98.5656 I1.3758 J0.5976
G3 X-164.5329 Y95.0079 I8.4846 J3.8838
G3 X-164.5325 Y95.0075 I0.905 J1.1962
G3 X-159.7873 Y92.803 I7.4845 J9.9007
G3 X-154.8768 Y92.2685 I4.7014 J20.3694
G3 X-150.4216 Y92.8164 I0.165 J17.0462
G3 X-150.4206 Y92.8166 I-0.3775 J1.4517
G3 X-146.1924 Y94.9098 I-2.9295 J11.2346
G3 X-146.1877 Y94.9135 I-0.9247 J1.181
G3 X-142.7283 Y102.3057 I-5.6411 J7.1456
G3 X-143.5135 Y106.3538 I-10.2821 J0.1057
G3 X-143.5228 Y106.3758 I-1.3854 J-0.5751
G3 X-144.3822 Y107.9347 I-8.6599 J-3.7577
G0 Z3.0
G0 X-148.1357 Y112.5708
G0 Z-3.8
G1 F300.0 Z-5.0
G3 F800.0 X-149.3176 Y113.0451 I-5.0644 J-10.9092
G1 X-147.7443
G3 X-148.1357 Y112.5708 I1.8732 J-1.9445
G0 Z3.0
G0 X-162.5281 Y113.0451
G0 Z-3.8
G1 F300.0 Z-5.0
G3 F800.0 X-163.6793 Y112.516 I3.9971 J-10.2136
G3 X-164.1053 Y113.0451 I-2.2992 J-1.4155
G1 X-162.5281
G1 F300.0 X-162.0917 Y111.9299
G3 F800.0 X-164.5509 Y110.5269 I3.5607 J-9.0983
G3 X-164.4785 Y110.9873 I-1.4276 J0.4604
G1 Y111.1006
G3 X-165.9785 Y112.6006 I-1.5 J0.0
G1 X-168.5
G1 Y114.2451
G1 X-143.3223
G3 X-143.3032 Y114.2452 I0.0 J1.5
G2 X-137.4515 Y113.5551 I0.2883 J-22.7084
G2 X-133.578 Y111.8151 I-3.101 J-12.0845
G2 X-129.8658 Y106.931 I-5.7475 J-8.2212
G3 X-129.8605 Y106.9161 I1.4146 J0.499
G2 X-129.0777 Y103.7809 I-14.4843 J-5.2819
G3 X-129.0773 Y103.7787 I1.4854 J0.2089
G2 X-128.8496 Y100.4584 I-22.695 J-3.2247
G3 Y100.4441 I1.5 J-0.0063
G2 X-129.284 Y95.9244 I-22.4797 J-0.1202
G2 X-130.3423 Y92.5498 I-16.3399 J3.2711
G1 X-131.6083
G3 X-130.6495 Y95.0979 I-23.0623 J10.1325
G3 X-129.8145 Y100.3785 I-17.1141 J5.4124
G3 X-130.5016 Y105.2522 I-15.9054 J0.2429
G3 X-135.5725 Y111.1899 I-9.2548 J-2.7695
G3 X-135.5756 Y111.1914 I-0.6497 J-1.352
G3 X-139.1426 Y112.3135 I-5.7398 J-12.0154
G3 X-142.7038 Y112.6006 I-3.436 J-20.3935
G1 X-145.8711
G3 X-147.3711 Y111.1006 I0.0 J-1.5
G1 Y110.9873
G3 X-147.3566 Y110.7796 I1.5 J0.0
G3 X-149.8641 Y111.9648 I-5.8435 J-9.118
G3 X-149.8741 Y111.968 I-0.4621 J-1.4271
G3 X-154.1203 Y112.6006 I-4.1048 J-12.9852
G1 X-158.3763
G3 X-162.0917 Y111.9299 I-0.1547 J-9.769
G0 Z3.0
G0 X-169.9079 Y-94.144
G0 Z1.0
G1 F300.0 Z-0.6
G3 F800.0 X-170.3951 Y-94.1376 I-0.3741 J-9.8622
G3 X-173.7022 Y-94.7167 I-0.1198 J-9.048
G3 X-173.7209 Y-94.7239 I0.5284 J-1.4039
G3 X-176.6104 Y-96.7922 I2.6409 J-6.7419
G3 X-178.3904 Y-100.2823 I6.4838 J-5.5058
G3 X-178.8066 Y-103.8595 I13.7596 J-3.414
G1 Y-110.3643
G3 X-177.3066 Y-111.8643 I1.5 J0.0
G1 X-162.5801
G3 X-161.0801 Y-110.3643 I0.0 J1.5
G1 Y-103.9147
G3 X-161.6999 Y-100.1337 I-11.185 J0.1078
G3 X-163.5237 Y-96.9947 I-8.7487 J-2.9838
G3 X-163.548 Y-96.9679 I-1.1237 J-0.9936
G3 X-166.5268 Y-94.8793 I-6.3596 J-5.9017
G3 X-166.5431 Y-94.8725 I-0.5845 J-1.3814
G3 X-169.9079 Y-94.144 I-3.7389 J-9.1337
G0 Z3.0
G0 X-160.4292 Y-111.9924
G0 Z1.0
G1 F300.0 Z-0.6
G3 F800.0 X-160.0234 Y-112.4221 I2.1538 J1.6282
G1 X-160.8358
G3 X-160.4292 Y-111.9924 I-1.7443 J2.0578
G1 F300.0 X-159.472 Y-111.2688
G3 F800.0 X-158.2754 Y-111.8643 I1.1966 J0.9045
G1 X-142.5
G1 Y-113.6221
G1 X-180.1113
G1 Y-103.001
G3 X-180.1114 Y-102.9865 I-1.5 J0.0
G2 X-179.4923 Y-98.5238 I15.3281 J0.1479
G3 X-179.4852 Y-98.4987 I-1.4393 J0.4222
G2 X-177.7579 Y-95.1407 I8.8541 J-2.4311
G2 X-174.9146 Y-92.9592 I6.0514 J-4.9436
G2 X-170.8261 Y-92.153 I3.8747 J-8.8787
G3 X-170.7772 Y-92.1532 I0.0331 J1.4996
G2 X-167.3862 Y-92.7184 I0.1035 J-9.835
G3 X-167.3817 Y-92.72 I0.5014 J1.4137
G2 X-164.7171 Y-94.2563 I-2.7644 J-7.8734
G3 X-164.7097 Y-94.2626 I0.9759 J1.1391
G2 X-162.66 Y-96.7015 I-6.0781 J-7.1888
G2 X-161.316 Y-100.0253 I-11.3226 J-6.5122
G3 X-159.8613 Y-101.1592 I1.4546 J0.3662
G1 X-159.748
G3 X-158.3712 Y-100.2543 I0.0 J1.5
G2 X-157.5227 Y-98.8326 I5.8583 J-2.5321
G3 X-157.4995 Y-98.8024 I-1.1775 J0.9293
G2 X-156.3708 Y-97.6032 I5.8785 J-4.4018
G2 X-154.7267 Y-96.3958 I9.4768 J-11.1816
G3 X-154.6844 Y-96.368 I-0.8016 J1.2679
G2 X-152.4219 Y-94.9057 I31.926 J-46.9135
G3 X-152.4119 Y-94.8994 I-0.7841 J1.2787
G1 X-142.5 Y-88.7132
G1 Y-90.8214
G1 X-153.1451 Y-97.1767
G3 X-155.988 Y-99.0919 I12.6983 J-21.9165
G3 X-158.0964 Y-101.1691 I6.8988 J-9.1109
G3 X-159.3728 Y-103.6477 I5.7583 J-4.5333
G3 X-159.7754 Y-106.4662 I8.83 J-2.6993
G1 Y-110.3643
G3 X-159.472 Y-111.2688 I1.5 J0.0
G1 F300.0 X-160.4292 Y-111.9924
G1 Z-1.2
G3 F800.0 X-160.0234 Y-112.4221 I2.1538 J1.6282
G1 X-160.8358
G3 X-160.4292 Y-111.9924 I-1.7443 J2.0578
G1 F300.0 X-159.472 Y-111.2688
G3 F800.0 X-158.2754 Y-111.8643 I1.1966 J0.9045
G1 X-142.5
G1 Y-113.6221
G1 X-180.1113
G1 Y-103.001
G3 X-180.1114 Y-102.9865 I-1.5 J0.0
G2 X-179.4923 Y-98.5238 I15.3281 J0.1479
G3 X-179.4852 Y-98.4987 I-1.4393 J0.4222
G2 X-177.7579 Y-95.1407 I8.8541 J-2.4311
G2 X-174.9146 Y-92.9592 I6.0514 J-4.9436
G2 X-170.8261 Y-92.153 I3.8747 J-8.8787
G3 X-170.7772 Y-92.1532 I0.0331 J1.4996
G2 X-167.3862 Y-92.7184 I0.1035 J-9.835
G3 X-167.3817 Y-92.72 I0.5014 J1.4137
G2 X-164.7171 Y-94.2563 I-2.7644 J-7.8734
G3 X-164.7097 Y-94.2626 I0.9759 J1.1391
G2 X-162.66 Y-96.7015 I-6.0781 J-7.1888
G2 X-161.316 Y-100.0253 I-11.3226 J-6.5122
G3 X-159.8613 Y-101.1592 I1.4546 J0.3662
G1 X-159.748
G3 X-158.3712 Y-100.2543 I0.0 J1.5
G2 X-157.5227 Y-98.8326 I5.8583 J-2.5321
G3 X-157.4995 Y-98.8024 I-1.1775 J0.9293
G2 X-156.3708 Y-97.6032 I5.8785 J-4.4018
G2 X-154.7267 Y-96.3958 I9.4768 J-11.1816
G3 X-154.6844 Y-96.368 I-0.8016 J1.2679
G2 X-152.4219 Y-94.9057 I31.926 J-46.9135
G3 X-152.4119 Y-94.8994 I-0.7841 J1.2787
G1 X-142.5 Y-88.7132
G1 Y-90.8214
G1 X-153.1451 Y-97.1767
G3 X-155.988 Y-99.0919 I12.6983 J-21.9165
G3 X-158.0964 Y-101.1691 I6.8988 J-9.1109
G3 X-159.3728 Y-103.6477 I5.7583 J-4.5333
G3 X-159.7754 Y-106.4662 I8.83 J-2.6993
G1 Y-110.3643
G3 X-159.472 Y-111.2688 I1.5 J0.0
G1 F300.0 X-161.1398 Y-110.7834
G3 F800.0 X-161.0801 Y-110.3643 I-1.4402 J0.4191
G1 Y-103.9147
G3 X-161.6999 Y-100.1337 I-11.185 J0.1078
G3 X-163.5237 Y-96.9947 I-8.7487 J-2.9838
G3 X-163.548 Y-96.9679 I-1.1237 J-0.9936
G3 X-166.5268 Y-94.8793 I-6.3596 J-5.9017
G3 X-166.5431 Y-94.8725 I-0.5845 J-1.3814
G3 X-170.3951 Y-94.1376 I-3.7389 J-9.1337
G3 X-173.7022 Y-94.7167 I-0.1198 J-9.048
G3 X-173.7209 Y-94.7239 I0.5284 J-1.4039
G3 X-176.6104 Y-96.7922 I2.6409 J-6.7419
G3 X-178.3904 Y-100.2823 I6.4838 J-5.5058
G3 X-178.8066 Y-103.8595 I13.7596 J-3.414
G1 Y-110.3643
G3 X-177.3066 Y-111.8643 I1.5 J0.0
G1 X-162.5801
G3 X-161.1398 Y-110.7834 I0.0 J1.5
G1 F300.0 Z-1.8
G3 F800.0 X-161.0801 Y-110.3643 I-1.4402 J0.4191
G1 Y-103.9147
G3 X-161.6999 Y-100.1337 I-11.185 J0.1078
G3 X-163.5237 Y-96.9947 I-8.7487 J-2.9838
G3 X-163.548 Y-96.9679 I-1.1237 J-0.9936
G3 X-166.5268 Y-94.8793 I-6.3596 J-5.9017
G3 X-166.5431 Y-94.8725 I-0.5845 J-1.3814
G3 X-170.3951 Y-94.1376 I-3.7389 J-9.1337
G3 X-173.7022 Y-94.7167 I-0.1198 J-9.048
G3 X-173.7209 Y-94.7239 I0.5284 J-1.4039
G3 X-176.6104 Y-96.7922 I2.6409 J-6.7419
G3 X-178.3904 Y-100.2823 I6.4838 J-5.5058
G3 X-178.8066 Y-103.8595 I13.7596 J-3.414
G1 Y-110.3643
G3 X-177.3066 Y-111.8643 I1.5 J0.0
G1 X-162.5801
G3 X-161.1398 Y-110.7834 I0.0 J1.5
G1 F300.0 X-160.4292 Y-111.9924
