( Made using CamBam - http://www.cambam.co.uk )
( Schild-Buehlhof 3/19/2017 5:25:06 PM )
( T2 : 2.0 )
G21 G90 G64 G40
G0 Z3.0
( T2 : 2.0 )
T2 M6
( ProfilBuehlhof )
G17
M3 S1000
G0 X177.9531 Y-105.1914
G0 Z1.0
G1 F300.0 Z-1.0
G1 F800.0 X162.8203
G1 Y-99.7832
G3 Y-99.7731 I-1.0 J0.0
G2 X163.2064 Y-95.4932 I21.5029 J0.2174
G3 X163.2087 Y-95.4806 I-0.982 J0.1889
G2 X164.7573 Y-91.7281 I9.3993 J-1.6832
G2 X166.6979 Y-90.0596 I4.5465 J-3.3251
G2 X170.2291 Y-89.2946 I3.3409 J-6.889
G3 X170.2692 Y-89.2948 I0.0249 J0.9997
G2 X173.383 Y-89.8546 I0.126 J-8.2389
G2 X175.8638 Y-91.6615 I-2.4253 J-5.9363
G2 X177.503 Y-94.8569 I-6.1396 J-5.1676
G3 X177.5035 Y-94.8591 I0.9693 J0.2458
G2 X177.9532 Y-98.6092 I-13.9783 J-3.5781
G3 X177.9531 Y-98.6211 I0.9999 J-0.0119
G1 Y-105.1914
G1 F300.0 Z-2.0
G1 F800.0 X162.8203
G1 Y-99.7832
G3 Y-99.7731 I-1.0 J0.0
G2 X163.2064 Y-95.4932 I21.5029 J0.2174
G3 X163.2087 Y-95.4806 I-0.982 J0.1889
G2 X164.7573 Y-91.7281 I9.3993 J-1.6832
G2 X166.6979 Y-90.0596 I4.5465 J-3.3251
G2 X170.2291 Y-89.2946 I3.3409 J-6.889
G3 X170.2692 Y-89.2948 I0.0249 J0.9997
G2 X173.383 Y-89.8546 I0.126 J-8.2389
G2 X175.8638 Y-91.6615 I-2.4253 J-5.9363
G2 X177.503 Y-94.8569 I-6.1396 J-5.1676
G3 X177.5035 Y-94.8591 I0.9693 J0.2458
G2 X177.9532 Y-98.6092 I-13.9783 J-3.5781
G3 X177.9531 Y-98.6211 I0.9999 J-0.0119
G1 Y-105.1914
G1 F300.0 Z-3.0
G1 F800.0 X162.8203
G1 Y-99.7832
G3 Y-99.7731 I-1.0 J0.0
G2 X163.2064 Y-95.4932 I21.5029 J0.2174
G3 X163.2087 Y-95.4806 I-0.982 J0.1889
G2 X164.7573 Y-91.7281 I9.3993 J-1.6832
G2 X166.6979 Y-90.0596 I4.5465 J-3.3251
G2 X170.2291 Y-89.2946 I3.3409 J-6.889
G3 X170.2692 Y-89.2948 I0.0249 J0.9997
G2 X173.383 Y-89.8546 I0.126 J-8.2389
G2 X175.8638 Y-91.6615 I-2.4253 J-5.9363
G2 X177.503 Y-94.8569 I-6.1396 J-5.1676
G3 X177.5035 Y-94.8591 I0.9693 J0.2458
G2 X177.9532 Y-98.6092 I-13.9783 J-3.5781
G3 X177.9531 Y-98.6211 I0.9999 J-0.0119
G1 Y-105.1914
G1 F300.0 Z-4.0
G1 F800.0 X162.8203
G1 Y-99.7832
G3 Y-99.7731 I-1.0 J0.0
G2 X163.2064 Y-95.4932 I21.5029 J0.2174
G3 X163.2087 Y-95.4806 I-0.982 J0.1889
G2 X164.7573 Y-91.7281 I9.3993 J-1.6832
G2 X166.6979 Y-90.0596 I4.5465 J-3.3251
G2 X170.2291 Y-89.2946 I3.3409 J-6.889
G3 X170.2692 Y-89.2948 I0.0249 J0.9997
G2 X173.383 Y-89.8546 I0.126 J-8.2389
G2 X175.8638 Y-91.6615 I-2.4253 J-5.9363
G2 X177.503 Y-94.8569 I-6.1396 J-5.1676
G3 X177.5035 Y-94.8591 I0.9693 J0.2458
G2 X177.9532 Y-98.6092 I-13.9783 J-3.5781
G3 X177.9531 Y-98.6211 I0.9999 J-0.0119
G1 Y-105.1914
G1 F300.0 Z-5.0
G1 F800.0 X162.8203
G1 Y-99.7832
G3 Y-99.7731 I-1.0 J0.0
G2 X163.2064 Y-95.4932 I21.5029 J0.2174
G3 X163.2087 Y-95.4806 I-0.982 J0.1889
G2 X164.7573 Y-91.7281 I9.3993 J-1.6832
G2 X166.6979 Y-90.0596 I4.5465 J-3.3251
G2 X170.2291 Y-89.2946 I3.3409 J-6.889
G3 X170.2692 Y-89.2948 I0.0249 J0.9997
G2 X173.383 Y-89.8546 I0.126 J-8.2389
G2 X175.8638 Y-91.6615 I-2.4253 J-5.9363
G2 X177.503 Y-94.8569 I-6.1396 J-5.1676
G3 X177.5035 Y-94.8591 I0.9693 J0.2458
G2 X177.9532 Y-98.6092 I-13.9783 J-3.5781
G3 X177.9531 Y-98.6211 I0.9999 J-0.0119
G1 Y-105.1914
G0 Z3.0
G0 X155.8066
G0 Z1.0
G1 F300.0 Z-1.0
G1 F800.0 X142.4336
G1 Y-99.7832
G3 X142.4334 Y-99.7616 I-1.0 J0.0
G2 X143.0483 Y-95.3169 I14.156 J0.3064
G3 X143.0533 Y-95.3 I-0.9563 J0.2923
G2 X145.5776 Y-92.2134 I4.8474 J-1.3889
G2 X148.3496 Y-91.6521 I2.6223 J-5.8237
G3 X148.3888 Y-91.6522 I0.0234 J0.9997
G2 X151.4358 Y-92.1813 I0.1309 J-8.2839
G2 X153.8452 Y-93.9134 I-2.2124 J-5.6193
G2 X155.3764 Y-96.9357 I-6.1271 J-5.0032
G3 X155.3765 Y-96.9363 I0.9681 J0.2504
G2 X155.8067 Y-100.4691 I-13.0292 J-3.3791
G3 X155.8066 Y-100.4805 I0.9999 J-0.0114
G1 Y-105.1914
G1 F300.0 Z-2.0
G1 F800.0 X142.4336
G1 Y-99.7832
G3 X142.4334 Y-99.7616 I-1.0 J0.0
G2 X143.0483 Y-95.3169 I14.156 J0.3064
G3 X143.0533 Y-95.3 I-0.9563 J0.2923
G2 X145.5776 Y-92.2134 I4.8474 J-1.3889
G2 X148.3496 Y-91.6521 I2.6223 J-5.8237
G3 X148.3888 Y-91.6522 I0.0234 J0.9997
G2 X151.4358 Y-92.1813 I0.1309 J-8.2839
G2 X153.8452 Y-93.9134 I-2.2124 J-5.6193
G2 X155.3764 Y-96.9357 I-6.1271 J-5.0032
G3 X155.3765 Y-96.9363 I0.9681 J0.2504
G2 X155.8067 Y-100.4691 I-13.0292 J-3.3791
G3 X155.8066 Y-100.4805 I0.9999 J-0.0114
G1 Y-105.1914
G1 F300.0 Z-3.0
G1 F800.0 X142.4336
G1 Y-99.7832
G3 X142.4334 Y-99.7616 I-1.0 J0.0
G2 X143.0483 Y-95.3169 I14.156 J0.3064
G3 X143.0533 Y-95.3 I-0.9563 J0.2923
G2 X145.5776 Y-92.2134 I4.8474 J-1.3889
G2 X148.3496 Y-91.6521 I2.6223 J-5.8237
G3 X148.3888 Y-91.6522 I0.0234 J0.9997
G2 X151.4358 Y-92.1813 I0.1309 J-8.2839
G2 X153.8452 Y-93.9134 I-2.2124 J-5.6193
G2 X155.3764 Y-96.9357 I-6.1271 J-5.0032
G3 X155.3765 Y-96.9363 I0.9681 J0.2504
G2 X155.8067 Y-100.4691 I-13.0292 J-3.3791
G3 X155.8066 Y-100.4805 I0.9999 J-0.0114
G1 Y-105.1914
G1 F300.0 Z-4.0
G1 F800.0 X142.4336
G1 Y-99.7832
G3 X142.4334 Y-99.7616 I-1.0 J0.0
G2 X143.0483 Y-95.3169 I14.156 J0.3064
G3 X143.0533 Y-95.3 I-0.9563 J0.2923
G2 X145.5776 Y-92.2134 I4.8474 J-1.3889
G2 X148.3496 Y-91.6521 I2.6223 J-5.8237
G3 X148.3888 Y-91.6522 I0.0234 J0.9997
G2 X151.4358 Y-92.1813 I0.1309 J-8.2839
G2 X153.8452 Y-93.9134 I-2.2124 J-5.6193
G2 X155.3764 Y-96.9357 I-6.1271 J-5.0032
G3 X155.3765 Y-96.9363 I0.9681 J0.2504
G2 X155.8067 Y-100.4691 I-13.0292 J-3.3791
G3 X155.8066 Y-100.4805 I0.9999 J-0.0114
G1 Y-105.1914
G1 F300.0 Z-5.0
G1 F800.0 X142.4336
G1 Y-99.7832
G3 X142.4334 Y-99.7616 I-1.0 J0.0
G2 X143.0483 Y-95.3169 I14.156 J0.3064
G3 X143.0533 Y-95.3 I-0.9563 J0.2923
G2 X145.5776 Y-92.2134 I4.8474 J-1.3889
G2 X148.3496 Y-91.6521 I2.6223 J-5.8237
G3 X148.3888 Y-91.6522 I0.0234 J0.9997
G2 X151.4358 Y-92.1813 I0.1309 J-8.2839
G2 X153.8452 Y-93.9134 I-2.2124 J-5.6193
G2 X155.3764 Y-96.9357 I-6.1271 J-5.0032
G3 X155.3765 Y-96.9363 I0.9681 J0.2504
G2 X155.8067 Y-100.4691 I-13.0292 J-3.3791
G3 X155.8066 Y-100.4805 I0.9999 J-0.0114
G1 Y-105.1914
G0 Z3.0
G0 X165.8707 Y62.682
G0 Z1.0
G1 F300.0 Z-1.0
G2 F800.0 X162.2664 Y63.2611 I1.1005 J18.3562
G3 X162.2661 Y63.2612 I-0.2558 J-0.9667
G2 X158.0153 Y65.4699 I2.7943 J10.5724
G3 X158.0135 Y65.4714 I-0.6442 J-0.7648
G2 X155.5504 Y68.8204 I5.6414 J6.7294
G2 X154.785 Y72.9908 I10.0876 J4.0068
G3 Y73.0225 I-0.9999 J0.0151
G2 X155.4949 Y77.1008 I11.0182 J0.1832
G2 X157.8652 Y80.3283 I7.3286 J-2.8981
G2 X162.136 Y82.4078 I6.7508 J-8.4395
G3 X162.1404 Y82.4088 I-0.2295 J0.9733
G2 X167.055 Y82.963 I4.6857 J-19.4858
G3 X167.0779 I0.0114 J0.9999
G2 X171.9421 Y82.408 I0.2262 J-19.6129
G3 X171.9461 Y82.4071 I0.2365 J0.9716
G2 X176.1639 Y80.3317 I-2.4746 J-10.3526
G2 X178.5137 Y77.0982 I-4.9889 J-6.096
G2 X179.215 Y73.0224 I-10.4262 J-3.8922
G3 X179.2149 Y72.9916 I0.9999 J-0.0165
G2 X178.4688 Y68.8513 I-10.9884 J-0.1571
G2 X176.0709 Y65.4916 I-8.2716 J3.3683
G2 X171.9789 Y63.2758 I-6.9685 J7.9825
G2 X167.2112 Y62.6503 I-4.5644 J16.3085
G3 X167.1875 I-0.012 J-0.9999
G2 X165.8707 Y62.682 I-0.2163 J18.3879
G1 F300.0 Z-2.0
G2 F800.0 X162.2664 Y63.2611 I1.1005 J18.3562
G3 X162.2661 Y63.2612 I-0.2558 J-0.9667
G2 X158.0153 Y65.4699 I2.7943 J10.5724
G3 X158.0135 Y65.4714 I-0.6442 J-0.7648
G2 X155.5504 Y68.8204 I5.6414 J6.7294
G2 X154.785 Y72.9908 I10.0876 J4.0068
G3 Y73.0225 I-0.9999 J0.0151
G2 X155.4949 Y77.1008 I11.0182 J0.1832
G2 X157.8652 Y80.3283 I7.3286 J-2.8981
G2 X162.136 Y82.4078 I6.7508 J-8.4395
G3 X162.1404 Y82.4088 I-0.2295 J0.9733
G2 X167.055 Y82.963 I4.6857 J-19.4858
G3 X167.0779 I0.0114 J0.9999
G2 X171.9421 Y82.408 I0.2262 J-19.6129
G3 X171.9461 Y82.4071 I0.2365 J0.9716
G2 X176.1639 Y80.3317 I-2.4746 J-10.3526
G2 X178.5137 Y77.0982 I-4.9889 J-6.096
G2 X179.215 Y73.0224 I-10.4262 J-3.8922
G3 X179.2149 Y72.9916 I0.9999 J-0.0165
G2 X178.4688 Y68.8513 I-10.9884 J-0.1571
G2 X176.0709 Y65.4916 I-8.2716 J3.3683
G2 X171.9789 Y63.2758 I-6.9685 J7.9825
G2 X167.2112 Y62.6503 I-4.5644 J16.3085
G3 X167.1875 I-0.012 J-0.9999
G2 X165.8707 Y62.682 I-0.2163 J18.3879
G1 F300.0 Z-3.0
G2 F800.0 X162.2664 Y63.2611 I1.1005 J18.3562
G3 X162.2661 Y63.2612 I-0.2558 J-0.9667
G2 X158.0153 Y65.4699 I2.7943 J10.5724
G3 X158.0135 Y65.4714 I-0.6442 J-0.7648
G2 X155.5504 Y68.8204 I5.6414 J6.7294
G2 X154.785 Y72.9908 I10.0876 J4.0068
G3 Y73.0225 I-0.9999 J0.0151
G2 X155.4949 Y77.1008 I11.0182 J0.1832
G2 X157.8652 Y80.3283 I7.3286 J-2.8981
G2 X162.136 Y82.4078 I6.7508 J-8.4395
G3 X162.1404 Y82.4088 I-0.2295 J0.9733
G2 X167.055 Y82.963 I4.6857 J-19.4858
G3 X167.0779 I0.0114 J0.9999
G2 X171.9421 Y82.408 I0.2262 J-19.6129
G3 X171.9461 Y82.4071 I0.2365 J0.9716
G2 X176.1639 Y80.3317 I-2.4746 J-10.3526
G2 X178.5137 Y77.0982 I-4.9889 J-6.096
G2 X179.215 Y73.0224 I-10.4262 J-3.8922
G3 X179.2149 Y72.9916 I0.9999 J-0.0165
G2 X178.4688 Y68.8513 I-10.9884 J-0.1571
G2 X176.0709 Y65.4916 I-8.2716 J3.3683
G2 X171.9789 Y63.2758 I-6.9685 J7.9825
G2 X167.2112 Y62.6503 I-4.5644 J16.3085
G3 X167.1875 I-0.012 J-0.9999
G2 X165.8707 Y62.682 I-0.2163 J18.3879
G1 F300.0 Z-4.0
G2 F800.0 X162.2664 Y63.2611 I1.1005 J18.3562
G3 X162.2661 Y63.2612 I-0.2558 J-0.9667
G2 X158.0153 Y65.4699 I2.7943 J10.5724
G3 X158.0135 Y65.4714 I-0.6442 J-0.7648
G2 X155.5504 Y68.8204 I5.6414 J6.7294
G2 X154.785 Y72.9908 I10.0876 J4.0068
G3 Y73.0225 I-0.9999 J0.0151
G2 X155.4949 Y77.1008 I11.0182 J0.1832
G2 X157.8652 Y80.3283 I7.3286 J-2.8981
G2 X162.136 Y82.4078 I6.7508 J-8.4395
G3 X162.1404 Y82.4088 I-0.2295 J0.9733
G2 X167.055 Y82.963 I4.6857 J-19.4858
G3 X167.0779 I0.0114 J0.9999
G2 X171.9421 Y82.408 I0.2262 J-19.6129
G3 X171.9461 Y82.4071 I0.2365 J0.9716
G2 X176.1639 Y80.3317 I-2.4746 J-10.3526
G2 X178.5137 Y77.0982 I-4.9889 J-6.096
G2 X179.215 Y73.0224 I-10.4262 J-3.8922
G3 X179.2149 Y72.9916 I0.9999 J-0.0165
G2 X178.4688 Y68.8513 I-10.9884 J-0.1571
G2 X176.0709 Y65.4916 I-8.2716 J3.3683
G2 X171.9789 Y63.2758 I-6.9685 J7.9825
G2 X167.2112 Y62.6503 I-4.5644 J16.3085
G3 X167.1875 I-0.012 J-0.9999
G2 X165.8707 Y62.682 I-0.2163 J18.3879
G1 F300.0 Z-5.0
G2 F800.0 X162.2664 Y63.2611 I1.1005 J18.3562
G3 X162.2661 Y63.2612 I-0.2558 J-0.9667
G2 X158.0153 Y65.4699 I2.7943 J10.5724
G3 X158.0135 Y65.4714 I-0.6442 J-0.7648
G2 X155.5504 Y68.8204 I5.6414 J6.7294
G2 X154.785 Y72.9908 I10.0876 J4.0068
G3 Y73.0225 I-0.9999 J0.0151
G2 X155.4949 Y77.1008 I11.0182 J0.1832
G2 X157.8652 Y80.3283 I7.3286 J-2.8981
G2 X162.136 Y82.4078 I6.7508 J-8.4395
G3 X162.1404 Y82.4088 I-0.2295 J0.9733
G2 X167.055 Y82.963 I4.6857 J-19.4858
G3 X167.0779 I0.0114 J0.9999
G2 X171.9421 Y82.408 I0.2262 J-19.6129
G3 X171.9461 Y82.4071 I0.2365 J0.9716
G2 X176.1639 Y80.3317 I-2.4746 J-10.3526
G2 X178.5137 Y77.0982 I-4.9889 J-6.096
G2 X179.215 Y73.0224 I-10.4262 J-3.8922
G3 X179.2149 Y72.9916 I0.9999 J-0.0165
G2 X178.4688 Y68.8513 I-10.9884 J-0.1571
G2 X176.0709 Y65.4916 I-8.2716 J3.3683
G2 X171.9789 Y63.2758 I-6.9685 J7.9825
G2 X167.2112 Y62.6503 I-4.5644 J16.3085
G3 X167.1875 I-0.012 J-0.9999
G2 X165.8707 Y62.682 I-0.2163 J18.3879
G0 Z3.0
G0 X165.3304 Y55.1329
G0 Z1.0
G1 F300.0 Z-1.0
G3 F800.0 X167.399 Y55.0722 I1.7553 J24.5247
G3 X174.464 Y56.1252 I0.2614 J22.4737
G3 X174.4705 Y56.1273 I-0.3027 J0.9531
G3 X180.7322 Y59.8247 I-5.1739 J15.9132
G3 X180.7352 Y59.8274 I-0.6834 J0.73
G3 X184.6432 Y65.7274 I-10.6845 J11.3215
G3 X184.647 Y65.7379 I-0.9374 J0.3483
G3 X185.797 Y72.6073 I-18.4408 J6.6179
G3 X184.6197 Y79.6291 I-19.9644 J0.2623
G3 X184.6158 Y79.6397 I-0.9409 J-0.3385
G3 X180.5988 Y85.6564 I-14.7416 J-5.4927
G3 X174.1503 Y89.4598 I-11.7268 J-12.5142
G3 X174.144 Y89.4618 I-0.3078 J-0.9515
G3 X166.8673 Y90.5411 I-7.004 J-22.1521
G3 X159.6984 Y89.5893 I-0.3025 J-25.1953
G3 X159.6967 Y89.5888 I0.2725 J-0.9622
G3 X153.2154 Y86.0007 I4.4978 J-15.7723
G3 X153.2139 Y85.9994 I0.6694 J-0.7429
G3 X149.3085 Y80.1827 I9.719 J-10.7448
G3 X149.3051 Y80.1731 I0.9404 J-0.3401
G3 X148.203 Y73.4036 I18.5342 J-6.4919
G3 X149.3428 Y66.2532 I21.2817 J-0.2738
G3 X149.3458 Y66.2444 I0.9464 J0.3231
G3 X153.3215 Y60.0359 I15.1678 J5.3357
G3 X153.3238 Y60.0337 I0.6961 J0.718
G3 X159.9491 Y56.1287 I11.5009 J11.9399
G3 X159.9531 Y56.1275 I0.2941 J0.9558
G3 X165.3304 Y55.1329 I7.1326 J23.5301
G1 F300.0 Z-2.0
G3 F800.0 X167.399 Y55.0722 I1.7553 J24.5247
G3 X174.464 Y56.1252 I0.2614 J22.4737
G3 X174.4705 Y56.1273 I-0.3027 J0.9531
G3 X180.7322 Y59.8247 I-5.1739 J15.9132
G3 X180.7352 Y59.8274 I-0.6834 J0.73
G3 X184.6432 Y65.7274 I-10.6845 J11.3215
G3 X184.647 Y65.7379 I-0.9374 J0.3483
G3 X185.797 Y72.6073 I-18.4408 J6.6179
G3 X184.6197 Y79.6291 I-19.9644 J0.2623
G3 X184.6158 Y79.6397 I-0.9409 J-0.3385
G3 X180.5988 Y85.6564 I-14.7416 J-5.4927
G3 X174.1503 Y89.4598 I-11.7268 J-12.5142
G3 X174.144 Y89.4618 I-0.3078 J-0.9515
G3 X166.8673 Y90.5411 I-7.004 J-22.1521
G3 X159.6984 Y89.5893 I-0.3025 J-25.1953
G3 X159.6967 Y89.5888 I0.2725 J-0.9622
G3 X153.2154 Y86.0007 I4.4978 J-15.7723
G3 X153.2139 Y85.9994 I0.6694 J-0.7429
G3 X149.3085 Y80.1827 I9.719 J-10.7448
G3 X149.3051 Y80.1731 I0.9404 J-0.3401
G3 X148.203 Y73.4036 I18.5342 J-6.4919
G3 X149.3428 Y66.2532 I21.2817 J-0.2738
G3 X149.3458 Y66.2444 I0.9464 J0.3231
G3 X153.3215 Y60.0359 I15.1678 J5.3357
G3 X153.3238 Y60.0337 I0.6961 J0.718
G3 X159.9491 Y56.1287 I11.5009 J11.9399
G3 X159.9531 Y56.1275 I0.2941 J0.9558
G3 X165.3304 Y55.1329 I7.1326 J23.5301
G1 F300.0 Z-3.0
G3 F800.0 X167.399 Y55.0722 I1.7553 J24.5247
G3 X174.464 Y56.1252 I0.2614 J22.4737
G3 X174.4705 Y56.1273 I-0.3027 J0.9531
G3 X180.7322 Y59.8247 I-5.1739 J15.9132
G3 X180.7352 Y59.8274 I-0.6834 J0.73
G3 X184.6432 Y65.7274 I-10.6845 J11.3215
G3 X184.647 Y65.7379 I-0.9374 J0.3483
G3 X185.797 Y72.6073 I-18.4408 J6.6179
G3 X184.6197 Y79.6291 I-19.9644 J0.2623
G3 X184.6158 Y79.6397 I-0.9409 J-0.3385
G3 X180.5988 Y85.6564 I-14.7416 J-5.4927
G3 X174.1503 Y89.4598 I-11.7268 J-12.5142
G3 X174.144 Y89.4618 I-0.3078 J-0.9515
G3 X166.8673 Y90.5411 I-7.004 J-22.1521
G3 X159.6984 Y89.5893 I-0.3025 J-25.1953
G3 X159.6967 Y89.5888 I0.2725 J-0.9622
G3 X153.2154 Y86.0007 I4.4978 J-15.7723
G3 X153.2139 Y85.9994 I0.6694 J-0.7429
G3 X149.3085 Y80.1827 I9.719 J-10.7448
G3 X149.3051 Y80.1731 I0.9404 J-0.3401
G3 X148.203 Y73.4036 I18.5342 J-6.4919
G3 X149.3428 Y66.2532 I21.2817 J-0.2738
G3 X149.3458 Y66.2444 I0.9464 J0.3231
G3 X153.3215 Y60.0359 I15.1678 J5.3357
G3 X153.3238 Y60.0337 I0.6961 J0.718
G3 X159.9491 Y56.1287 I11.5009 J11.9399
G3 X159.9531 Y56.1275 I0.2941 J0.9558
G3 X165.3304 Y55.1329 I7.1326 J23.5301
G1 F300.0 Z-4.0
G3 F800.0 X167.399 Y55.0722 I1.7553 J24.5247
G3 X174.464 Y56.1252 I0.2614 J22.4737
G3 X174.4705 Y56.1273 I-0.3027 J0.9531
G3 X180.7322 Y59.8247 I-5.1739 J15.9132
G3 X180.7352 Y59.8274 I-0.6834 J0.73
G3 X184.6432 Y65.7274 I-10.6845 J11.3215
G3 X184.647 Y65.7379 I-0.9374 J0.3483
G3 X185.797 Y72.6073 I-18.4408 J6.6179
G3 X184.6197 Y79.6291 I-19.9644 J0.2623
G3 X184.6158 Y79.6397 I-0.9409 J-0.3385
G3 X180.5988 Y85.6564 I-14.7416 J-5.4927
G3 X174.1503 Y89.4598 I-11.7268 J-12.5142
G3 X174.144 Y89.4618 I-0.3078 J-0.9515
G3 X166.8673 Y90.5411 I-7.004 J-22.1521
G3 X159.6984 Y89.5893 I-0.3025 J-25.1953
G3 X159.6967 Y89.5888 I0.2725 J-0.9622
G3 X153.2154 Y86.0007 I4.4978 J-15.7723
G3 X153.2139 Y85.9994 I0.6694 J-0.7429
G3 X149.3085 Y80.1827 I9.719 J-10.7448
G3 X149.3051 Y80.1731 I0.9404 J-0.3401
G3 X148.203 Y73.4036 I18.5342 J-6.4919
G3 X149.3428 Y66.2532 I21.2817 J-0.2738
G3 X149.3458 Y66.2444 I0.9464 J0.3231
G3 X153.3215 Y60.0359 I15.1678 J5.3357
G3 X153.3238 Y60.0337 I0.6961 J0.718
G3 X159.9491 Y56.1287 I11.5009 J11.9399
G3 X159.9531 Y56.1275 I0.2941 J0.9558
G3 X165.3304 Y55.1329 I7.1326 J23.5301
G1 F300.0 Z-5.0
G3 F800.0 X167.399 Y55.0722 I1.7553 J24.5247
G3 X174.464 Y56.1252 I0.2614 J22.4737
G3 X174.4705 Y56.1273 I-0.3027 J0.9531
G3 X180.7322 Y59.8247 I-5.1739 J15.9132
G3 X180.7352 Y59.8274 I-0.6834 J0.73
G3 X184.6432 Y65.7274 I-10.6845 J11.3215
G3 X184.647 Y65.7379 I-0.9374 J0.3483
G3 X185.797 Y72.6073 I-18.4408 J6.6179
G3 X184.6197 Y79.6291 I-19.9644 J0.2623
G3 X184.6158 Y79.6397 I-0.9409 J-0.3385
G3 X180.5988 Y85.6564 I-14.7416 J-5.4927
G3 X174.1503 Y89.4598 I-11.7268 J-12.5142
G3 X174.144 Y89.4618 I-0.3078 J-0.9515
G3 X166.8673 Y90.5411 I-7.004 J-22.1521
G3 X159.6984 Y89.5893 I-0.3025 J-25.1953
G3 X159.6967 Y89.5888 I0.2725 J-0.9622
G3 X153.2154 Y86.0007 I4.4978 J-15.7723
G3 X153.2139 Y85.9994 I0.6694 J-0.7429
G3 X149.3085 Y80.1827 I9.719 J-10.7448
G3 X149.3051 Y80.1731 I0.9404 J-0.3401
G3 X148.203 Y73.4036 I18.5342 J-6.4919
G3 X149.3428 Y66.2532 I21.2817 J-0.2738
G3 X149.3458 Y66.2444 I0.9464 J0.3231
G3 X153.3215 Y60.0359 I15.1678 J5.3357
G3 X153.3238 Y60.0337 I0.6961 J0.718
G3 X159.9491 Y56.1287 I11.5009 J11.9399
G3 X159.9531 Y56.1275 I0.2941 J0.9558
G3 X165.3304 Y55.1329 I7.1326 J23.5301
G0 Z3.0
G0 Y49.1367
G0 Z1.0
G1 F300.0 Z-1.0
G1 F800.0 X163.0513
G3 X159.1234 Y48.8766 I-0.1346 J-27.7524
G3 X155.232 Y47.8879 I2.3412 J-17.3669
G3 X149.1693 Y42.1181 I3.4434 J-9.6884
G3 X149.1602 Y42.0954 I0.9245 J-0.3811
G3 X148.2029 Y36.6481 I13.4864 J-5.1778
G3 X149.9886 Y29.6697 I13.5796 J-0.2429
G3 X150.0039 Y29.6437 I0.8684 J0.4959
G3 X152.7486 Y26.3594 I12.4615 J7.6251
G1 X133.6641
G3 X132.6641 Y25.3594 I0.0 J-1.0
G1 Y19.9141
G3 X133.6641 Y18.9141 I1.0 J0.0
G1 X184.0
G3 X185.0 Y19.9141 I0.0 J1.0
G1 Y25.3594
G3 X184.0 Y26.3594 I-1.0 J0.0
G1 X164.7422
G3 X164.731 Y26.3593 I0.0 J-1.0
G2 X160.8538 Y26.9315 I-0.1394 J12.4783
G2 X157.5383 Y28.8286 I2.8335 J8.7974
G3 X157.5138 Y28.8498 I-0.6653 J-0.7466
G2 X154.7851 Y34.7767 I4.8678 J5.8327
G3 X154.7847 Y34.8192 I-0.9999 J0.0124
G2 X155.6491 Y38.3897 I6.9408 J0.2096
G2 X158.3943 Y40.69 I4.8931 J-3.0511
G3 X158.4096 Y40.6964 I-0.3725 J0.928
G2 X160.9007 Y41.4163 I4.3077 J-10.2361
G3 X160.9009 I-0.1636 J0.9865
G2 X164.4025 Y41.6914 I3.345 J-20.1509
G3 X164.4102 I0.0077 J1.0
G1 X184.0
G3 X185.0 Y42.6914 I0.0 J1.0
G1 Y48.1367
G3 X184.0 Y49.1367 I-1.0 J0.0
G1 X165.3304
G1 F300.0 Z-2.0
G1 F800.0 X163.0513
G3 X159.1234 Y48.8766 I-0.1346 J-27.7524
G3 X155.232 Y47.8879 I2.3412 J-17.3669
G3 X149.1693 Y42.1181 I3.4434 J-9.6884
G3 X149.1602 Y42.0954 I0.9245 J-0.3811
G3 X148.2029 Y36.6481 I13.4864 J-5.1778
G3 X149.9886 Y29.6697 I13.5796 J-0.2429
G3 X150.0039 Y29.6437 I0.8684 J0.4959
G3 X152.7486 Y26.3594 I12.4615 J7.6251
G1 X133.6641
G3 X132.6641 Y25.3594 I0.0 J-1.0
G1 Y19.9141
G3 X133.6641 Y18.9141 I1.0 J0.0
G1 X184.0
G3 X185.0 Y19.9141 I0.0 J1.0
G1 Y25.3594
G3 X184.0 Y26.3594 I-1.0 J0.0
G1 X164.7422
G3 X164.731 Y26.3593 I0.0 J-1.0
G2 X160.8538 Y26.9315 I-0.1394 J12.4783
G2 X157.5383 Y28.8286 I2.8335 J8.7974
G3 X157.5138 Y28.8498 I-0.6653 J-0.7466
G2 X154.7851 Y34.7767 I4.8678 J5.8327
G3 X154.7847 Y34.8192 I-0.9999 J0.0124
G2 X155.6491 Y38.3897 I6.9408 J0.2096
G2 X158.3943 Y40.69 I4.8931 J-3.0511
G3 X158.4096 Y40.6964 I-0.3725 J0.928
G2 X160.9007 Y41.4163 I4.3077 J-10.2361
G3 X160.9009 I-0.1636 J0.9865
G2 X164.4025 Y41.6914 I3.345 J-20.1509
G3 X164.4102 I0.0077 J1.0
G1 X184.0
G3 X185.0 Y42.6914 I0.0 J1.0
G1 Y48.1367
G3 X184.0 Y49.1367 I-1.0 J0.0
G1 X165.3304
G1 F300.0 Z-3.0
G1 F800.0 X163.0513
G3 X159.1234 Y48.8766 I-0.1346 J-27.7524
G3 X155.232 Y47.8879 I2.3412 J-17.3669
G3 X149.1693 Y42.1181 I3.4434 J-9.6884
G3 X149.1602 Y42.0954 I0.9245 J-0.3811
G3 X148.2029 Y36.6481 I13.4864 J-5.1778
G3 X149.9886 Y29.6697 I13.5796 J-0.2429
G3 X150.0039 Y29.6437 I0.8684 J0.4959
G3 X152.7486 Y26.3594 I12.4615 J7.6251
G1 X133.6641
G3 X132.6641 Y25.3594 I0.0 J-1.0
G1 Y19.9141
G3 X133.6641 Y18.9141 I1.0 J0.0
G1 X184.0
G3 X185.0 Y19.9141 I0.0 J1.0
G1 Y25.3594
G3 X184.0 Y26.3594 I-1.0 J0.0
G1 X164.7422
G3 X164.731 Y26.3593 I0.0 J-1.0
G2 X160.8538 Y26.9315 I-0.1394 J12.4783
G2 X157.5383 Y28.8286 I2.8335 J8.7974
G3 X157.5138 Y28.8498 I-0.6653 J-0.7466
G2 X154.7851 Y34.7767 I4.8678 J5.8327
G3 X154.7847 Y34.8192 I-0.9999 J0.0124
G2 X155.6491 Y38.3897 I6.9408 J0.2096
G2 X158.3943 Y40.69 I4.8931 J-3.0511
G3 X158.4096 Y40.6964 I-0.3725 J0.928
G2 X160.9007 Y41.4163 I4.3077 J-10.2361
G3 X160.9009 I-0.1636 J0.9865
G2 X164.4025 Y41.6914 I3.345 J-20.1509
G3 X164.4102 I0.0077 J1.0
G1 X184.0
G3 X185.0 Y42.6914 I0.0 J1.0
G1 Y48.1367
G3 X184.0 Y49.1367 I-1.0 J0.0
G1 X165.3304
G1 F300.0 Z-4.0
G1 F800.0 X163.0513
G3 X159.1234 Y48.8766 I-0.1346 J-27.7524
G3 X155.232 Y47.8879 I2.3412 J-17.3669
G3 X149.1693 Y42.1181 I3.4434 J-9.6884
G3 X149.1602 Y42.0954 I0.9245 J-0.3811
G3 X148.2029 Y36.6481 I13.4864 J-5.1778
G3 X149.9886 Y29.6697 I13.5796 J-0.2429
G3 X150.0039 Y29.6437 I0.8684 J0.4959
G3 X152.7486 Y26.3594 I12.4615 J7.6251
G1 X133.6641
G3 X132.6641 Y25.3594 I0.0 J-1.0
G1 Y19.9141
G3 X133.6641 Y18.9141 I1.0 J0.0
G1 X184.0
G3 X185.0 Y19.9141 I0.0 J1.0
G1 Y25.3594
G3 X184.0 Y26.3594 I-1.0 J0.0
G1 X164.7422
G3 X164.731 Y26.3593 I0.0 J-1.0
G2 X160.8538 Y26.9315 I-0.1394 J12.4783
G2 X157.5383 Y28.8286 I2.8335 J8.7974
G3 X157.5138 Y28.8498 I-0.6653 J-0.7466
G2 X154.7851 Y34.7767 I4.8678 J5.8327
G3 X154.7847 Y34.8192 I-0.9999 J0.0124
G2 X155.6491 Y38.3897 I6.9408 J0.2096
G2 X158.3943 Y40.69 I4.8931 J-3.0511
G3 X158.4096 Y40.6964 I-0.3725 J0.928
G2 X160.9007 Y41.4163 I4.3077 J-10.2361
G3 X160.9009 I-0.1636 J0.9865
G2 X164.4025 Y41.6914 I3.345 J-20.1509
G3 X164.4102 I0.0077 J1.0
G1 X184.0
G3 X185.0 Y42.6914 I0.0 J1.0
G1 Y48.1367
G3 X184.0 Y49.1367 I-1.0 J0.0
G1 X165.3304
G1 F300.0 Z-5.0
G1 F800.0 X163.0513
G3 X159.1234 Y48.8766 I-0.1346 J-27.7524
G3 X155.232 Y47.8879 I2.3412 J-17.3669
G3 X149.1693 Y42.1181 I3.4434 J-9.6884
G3 X149.1602 Y42.0954 I0.9245 J-0.3811
G3 X148.2029 Y36.6481 I13.4864 J-5.1778
G3 X149.9886 Y29.6697 I13.5796 J-0.2429
G3 X150.0039 Y29.6437 I0.8684 J0.4959
G3 X152.7486 Y26.3594 I12.4615 J7.6251
G1 X133.6641
G3 X132.6641 Y25.3594 I0.0 J-1.0
G1 Y19.9141
G3 X133.6641 Y18.9141 I1.0 J0.0
G1 X184.0
G3 X185.0 Y19.9141 I0.0 J1.0
G1 Y25.3594
G3 X184.0 Y26.3594 I-1.0 J0.0
G1 X164.7422
G3 X164.731 Y26.3593 I0.0 J-1.0
G2 X160.8538 Y26.9315 I-0.1394 J12.4783
G2 X157.5383 Y28.8286 I2.8335 J8.7974
G3 X157.5138 Y28.8498 I-0.6653 J-0.7466
G2 X154.7851 Y34.7767 I4.8678 J5.8327
G3 X154.7847 Y34.8192 I-0.9999 J0.0124
G2 X155.6491 Y38.3897 I6.9408 J0.2096
G2 X158.3943 Y40.69 I4.8931 J-3.0511
G3 X158.4096 Y40.6964 I-0.3725 J0.928
G2 X160.9007 Y41.4163 I4.3077 J-10.2361
G3 X160.9009 I-0.1636 J0.9865
G2 X164.4025 Y41.6914 I3.345 J-20.1509
G3 X164.4102 I0.0077 J1.0
G1 X184.0
G3 X185.0 Y42.6914 I0.0 J1.0
G1 Y48.1367
G3 X184.0 Y49.1367 I-1.0 J0.0
G1 X165.3304
G0 Z3.0
G0 Y9.8906
G0 Z1.0
G1 F300.0 Z-1.0
G1 F800.0 X133.6641
G3 X132.6641 Y8.8906 I0.0 J-1.0
G1 Y3.4453
G3 X133.6641 Y2.4453 I1.0 J0.0
G1 X184.0
G3 X185.0 Y3.4453 I0.0 J1.0
G1 Y8.8906
G3 X184.0 Y9.8906 I-1.0 J0.0
G1 X165.3304
G1 F300.0 Z-2.0
G1 F800.0 X133.6641
G3 X132.6641 Y8.8906 I0.0 J-1.0
G1 Y3.4453
G3 X133.6641 Y2.4453 I1.0 J0.0
G1 X184.0
G3 X185.0 Y3.4453 I0.0 J1.0
G1 Y8.8906
G3 X184.0 Y9.8906 I-1.0 J0.0
G1 X165.3304
G1 F300.0 Z-3.0
G1 F800.0 X133.6641
G3 X132.6641 Y8.8906 I0.0 J-1.0
G1 Y3.4453
G3 X133.6641 Y2.4453 I1.0 J0.0
G1 X184.0
G3 X185.0 Y3.4453 I0.0 J1.0
G1 Y8.8906
G3 X184.0 Y9.8906 I-1.0 J0.0
G1 X165.3304
G1 F300.0 Z-4.0
G1 F800.0 X133.6641
G3 X132.6641 Y8.8906 I0.0 J-1.0
G1 Y3.4453
G3 X133.6641 Y2.4453 I1.0 J0.0
G1 X184.0
G3 X185.0 Y3.4453 I0.0 J1.0
G1 Y8.8906
G3 X184.0 Y9.8906 I-1.0 J0.0
G1 X165.3304
G1 F300.0 Z-5.0
G1 F800.0 X133.6641
G3 X132.6641 Y8.8906 I0.0 J-1.0
G1 Y3.4453
G3 X133.6641 Y2.4453 I1.0 J0.0
G1 X184.0
G3 X185.0 Y3.4453 I0.0 J1.0
G1 Y8.8906
G3 X184.0 Y9.8906 I-1.0 J0.0
G1 X165.3304
G0 Z3.0
G0 Y-5.8145
G0 Z1.0
G1 F300.0 Z-1.0
G1 F800.0 X163.0513
G3 X159.1234 Y-6.0746 I-0.1346 J-27.7524
G3 X155.232 Y-7.0633 I2.3412 J-17.3669
G3 X149.1693 Y-12.8331 I3.4434 J-9.6884
G3 X149.1602 Y-12.8558 I0.9245 J-0.3811
G3 X148.2029 Y-18.3031 I13.4864 J-5.1778
G3 X149.9886 Y-25.2815 I13.5796 J-0.2429
G3 X150.0039 Y-25.3075 I0.8684 J0.4959
G3 X152.7486 Y-28.5918 I12.4615 J7.6251
G1 X133.6641
G3 X132.6641 Y-29.5918 I0.0 J-1.0
G1 Y-35.0371
G3 X133.6641 Y-36.0371 I1.0 J0.0
G1 X184.0
G3 X185.0 Y-35.0371 I0.0 J1.0
G1 Y-29.5918
G3 X184.0 Y-28.5918 I-1.0 J0.0
G1 X164.7422
G3 X164.731 Y-28.5919 I0.0 J-1.0
G2 X160.8538 Y-28.0197 I-0.1394 J12.4783
G2 X157.5383 Y-26.1226 I2.8335 J8.7974
G3 X157.5138 Y-26.1014 I-0.6653 J-0.7466
G2 X154.7851 Y-20.1745 I4.8678 J5.8327
G3 X154.7847 Y-20.1319 I-0.9999 J0.0124
G2 X155.6491 Y-16.5615 I6.9408 J0.2096
G2 X158.3943 Y-14.2611 I4.8931 J-3.0511
G3 X158.4096 Y-14.2548 I-0.3725 J0.928
G2 X160.9007 Y-13.5349 I4.3077 J-10.2361
G3 X160.9009 I-0.1636 J0.9865
G2 X164.4025 Y-13.2597 I3.345 J-20.1509
G3 X164.4102 Y-13.2598 I0.0077 J1.0
G1 X184.0
G3 X185.0 Y-12.2598 I0.0 J1.0
G1 Y-6.8145
G3 X184.0 Y-5.8145 I-1.0 J0.0
G1 X165.3304
G1 F300.0 Z-2.0
G1 F800.0 X163.0513
G3 X159.1234 Y-6.0746 I-0.1346 J-27.7524
G3 X155.232 Y-7.0633 I2.3412 J-17.3669
G3 X149.1693 Y-12.8331 I3.4434 J-9.6884
G3 X149.1602 Y-12.8558 I0.9245 J-0.3811
G3 X148.2029 Y-18.3031 I13.4864 J-5.1778
G3 X149.9886 Y-25.2815 I13.5796 J-0.2429
G3 X150.0039 Y-25.3075 I0.8684 J0.4959
G3 X152.7486 Y-28.5918 I12.4615 J7.6251
G1 X133.6641
G3 X132.6641 Y-29.5918 I0.0 J-1.0
G1 Y-35.0371
G3 X133.6641 Y-36.0371 I1.0 J0.0
G1 X184.0
G3 X185.0 Y-35.0371 I0.0 J1.0
G1 Y-29.5918
G3 X184.0 Y-28.5918 I-1.0 J0.0
G1 X164.7422
G3 X164.731 Y-28.5919 I0.0 J-1.0
G2 X160.8538 Y-28.0197 I-0.1394 J12.4783
G2 X157.5383 Y-26.1226 I2.8335 J8.7974
G3 X157.5138 Y-26.1014 I-0.6653 J-0.7466
G2 X154.7851 Y-20.1745 I4.8678 J5.8327
G3 X154.7847 Y-20.1319 I-0.9999 J0.0124
G2 X155.6491 Y-16.5615 I6.9408 J0.2096
G2 X158.3943 Y-14.2611 I4.8931 J-3.0511
G3 X158.4096 Y-14.2548 I-0.3725 J0.928
G2 X160.9007 Y-13.5349 I4.3077 J-10.2361
G3 X160.9009 I-0.1636 J0.9865
G2 X164.4025 Y-13.2597 I3.345 J-20.1509
G3 X164.4102 Y-13.2598 I0.0077 J1.0
G1 X184.0
G3 X185.0 Y-12.2598 I0.0 J1.0
G1 Y-6.8145
G3 X184.0 Y-5.8145 I-1.0 J0.0
G1 X165.3304
G1 F300.0 Z-3.0
G1 F800.0 X163.0513
G3 X159.1234 Y-6.0746 I-0.1346 J-27.7524
G3 X155.232 Y-7.0633 I2.3412 J-17.3669
G3 X149.1693 Y-12.8331 I3.4434 J-9.6884
G3 X149.1602 Y-12.8558 I0.9245 J-0.3811
G3 X148.2029 Y-18.3031 I13.4864 J-5.1778
G3 X149.9886 Y-25.2815 I13.5796 J-0.2429
G3 X150.0039 Y-25.3075 I0.8684 J0.4959
G3 X152.7486 Y-28.5918 I12.4615 J7.6251
G1 X133.6641
G3 X132.6641 Y-29.5918 I0.0 J-1.0
G1 Y-35.0371
G3 X133.6641 Y-36.0371 I1.0 J0.0
G1 X184.0
G3 X185.0 Y-35.0371 I0.0 J1.0
G1 Y-29.5918
G3 X184.0 Y-28.5918 I-1.0 J0.0
G1 X164.7422
G3 X164.731 Y-28.5919 I0.0 J-1.0
G2 X160.8538 Y-28.0197 I-0.1394 J12.4783
G2 X157.5383 Y-26.1226 I2.8335 J8.7974
G3 X157.5138 Y-26.1014 I-0.6653 J-0.7466
G2 X154.7851 Y-20.1745 I4.8678 J5.8327
G3 X154.7847 Y-20.1319 I-0.9999 J0.0124
G2 X155.6491 Y-16.5615 I6.9408 J0.2096
G2 X158.3943 Y-14.2611 I4.8931 J-3.0511
G3 X158.4096 Y-14.2548 I-0.3725 J0.928
G2 X160.9007 Y-13.5349 I4.3077 J-10.2361
G3 X160.9009 I-0.1636 J0.9865
G2 X164.4025 Y-13.2597 I3.345 J-20.1509
G3 X164.4102 Y-13.2598 I0.0077 J1.0
G1 X184.0
G3 X185.0 Y-12.2598 I0.0 J1.0
G1 Y-6.8145
G3 X184.0 Y-5.8145 I-1.0 J0.0
G1 X165.3304
G1 F300.0 Z-4.0
G1 F800.0 X163.0513
G3 X159.1234 Y-6.0746 I-0.1346 J-27.7524
G3 X155.232 Y-7.0633 I2.3412 J-17.3669
G3 X149.1693 Y-12.8331 I3.4434 J-9.6884
G3 X149.1602 Y-12.8558 I0.9245 J-0.3811
G3 X148.2029 Y-18.3031 I13.4864 J-5.1778
G3 X149.9886 Y-25.2815 I13.5796 J-0.2429
G3 X150.0039 Y-25.3075 I0.8684 J0.4959
G3 X152.7486 Y-28.5918 I12.4615 J7.6251
G1 X133.6641
G3 X132.6641 Y-29.5918 I0.0 J-1.0
G1 Y-35.0371
G3 X133.6641 Y-36.0371 I1.0 J0.0
G1 X184.0
G3 X185.0 Y-35.0371 I0.0 J1.0
G1 Y-29.5918
G3 X184.0 Y-28.5918 I-1.0 J0.0
G1 X164.7422
G3 X164.731 Y-28.5919 I0.0 J-1.0
G2 X160.8538 Y-28.0197 I-0.1394 J12.4783
G2 X157.5383 Y-26.1226 I2.8335 J8.7974
G3 X157.5138 Y-26.1014 I-0.6653 J-0.7466
G2 X154.7851 Y-20.1745 I4.8678 J5.8327
G3 X154.7847 Y-20.1319 I-0.9999 J0.0124
G2 X155.6491 Y-16.5615 I6.9408 J0.2096
G2 X158.3943 Y-14.2611 I4.8931 J-3.0511
G3 X158.4096 Y-14.2548 I-0.3725 J0.928
G2 X160.9007 Y-13.5349 I4.3077 J-10.2361
G3 X160.9009 I-0.1636 J0.9865
G2 X164.4025 Y-13.2597 I3.345 J-20.1509
G3 X164.4102 Y-13.2598 I0.0077 J1.0
G1 X184.0
G3 X185.0 Y-12.2598 I0.0 J1.0
G1 Y-6.8145
G3 X184.0 Y-5.8145 I-1.0 J0.0
G1 X165.3304
G1 F300.0 Z-5.0
G1 F800.0 X163.0513
G3 X159.1234 Y-6.0746 I-0.1346 J-27.7524
G3 X155.232 Y-7.0633 I2.3412 J-17.3669
G3 X149.1693 Y-12.8331 I3.4434 J-9.6884
G3 X149.1602 Y-12.8558 I0.9245 J-0.3811
G3 X148.2029 Y-18.3031 I13.4864 J-5.1778
G3 X149.9886 Y-25.2815 I13.5796 J-0.2429
G3 X150.0039 Y-25.3075 I0.8684 J0.4959
G3 X152.7486 Y-28.5918 I12.4615 J7.6251
G1 X133.6641
G3 X132.6641 Y-29.5918 I0.0 J-1.0
G1 Y-35.0371
G3 X133.6641 Y-36.0371 I1.0 J0.0
G1 X184.0
G3 X185.0 Y-35.0371 I0.0 J1.0
G1 Y-29.5918
G3 X184.0 Y-28.5918 I-1.0 J0.0
G1 X164.7422
G3 X164.731 Y-28.5919 I0.0 J-1.0
G2 X160.8538 Y-28.0197 I-0.1394 J12.4783
G2 X157.5383 Y-26.1226 I2.8335 J8.7974
G3 X157.5138 Y-26.1014 I-0.6653 J-0.7466
G2 X154.7851 Y-20.1745 I4.8678 J5.8327
G3 X154.7847 Y-20.1319 I-0.9999 J0.0124
G2 X155.6491 Y-16.5615 I6.9408 J0.2096
G2 X158.3943 Y-14.2611 I4.8931 J-3.0511
G3 X158.4096 Y-14.2548 I-0.3725 J0.928
G2 X160.9007 Y-13.5349 I4.3077 J-10.2361
G3 X160.9009 I-0.1636 J0.9865
G2 X164.4025 Y-13.2597 I3.345 J-20.1509
G3 X164.4102 Y-13.2598 I0.0077 J1.0
G1 X184.0
G3 X185.0 Y-12.2598 I0.0 J1.0
G1 Y-6.8145
G3 X184.0 Y-5.8145 I-1.0 J0.0
G1 X165.3304
G0 Z3.0
G0 Y-45.0273
G0 Z1.0
G1 F300.0 Z-1.0
G1 F800.0 X150.0
G3 X149.0 Y-46.0273 I0.0 J-1.0
G1 Y-51.4727
G3 X150.0 Y-52.4727 I1.0 J0.0
G1 X169.5898
G3 X169.6011 Y-52.4726 I0.0 J1.0
G2 X173.3906 Y-53.0092 I0.1423 J-12.6439
G2 X176.6354 Y-54.8159 I-2.6247 J-8.5311
G3 X176.6452 Y-54.8244 I0.6576 J0.7534
G2 X179.2152 Y-60.5775 I-4.7298 J-5.5634
G3 X179.2153 Y-60.6324 I0.9997 J-0.026
G2 X178.3623 Y-64.3351 I-7.5186 J-0.2175
G2 X175.6044 Y-66.7674 I-5.0584 J2.9559
G3 X175.5919 Y-66.7728 I0.3927 J-0.9197
G2 X173.0532 Y-67.5431 I-4.3962 J9.9204
G2 X169.4651 Y-67.8379 I-3.4259 J19.7112
G3 X169.457 I-0.0081 J-1.0
G1 X150.0
G3 X149.0 Y-68.8379 I0.0 J-1.0
G1 Y-74.25
G3 X150.0 Y-75.25 I1.0 J0.0
G1 X170.3178
G3 X174.442 Y-74.9719 I0.1413 J28.6291
G3 X178.5224 Y-73.9148 I-2.4548 J17.8784
G3 X184.8082 Y-67.8166 I-3.6872 J10.0894
G3 X184.816 Y-67.7967 I-0.9284 J0.3716
G3 X185.7971 Y-62.0996 I-14.4225 J5.4168
G3 X184.1339 Y-55.4476 I-12.9968 J0.2843
G3 X184.116 Y-55.417 I-0.8718 J-0.4898
G3 X181.6455 Y-52.4727 I-10.9254 J-6.6584
G1 X184.0
G3 X185.0 Y-51.4727 I0.0 J1.0
G1 Y-46.0273
G3 X184.0 Y-45.0273 I-1.0 J0.0
G1 X165.3304
G1 F300.0 Z-2.0
G1 F800.0 X150.0
G3 X149.0 Y-46.0273 I0.0 J-1.0
G1 Y-51.4727
G3 X150.0 Y-52.4727 I1.0 J0.0
G1 X169.5898
G3 X169.6011 Y-52.4726 I0.0 J1.0
G2 X173.3906 Y-53.0092 I0.1423 J-12.6439
G2 X176.6354 Y-54.8159 I-2.6247 J-8.5311
G3 X176.6452 Y-54.8244 I0.6576 J0.7534
G2 X179.2152 Y-60.5775 I-4.7298 J-5.5634
G3 X179.2153 Y-60.6324 I0.9997 J-0.026
G2 X178.3623 Y-64.3351 I-7.5186 J-0.2175
G2 X175.6044 Y-66.7674 I-5.0584 J2.9559
G3 X175.5919 Y-66.7728 I0.3927 J-0.9197
G2 X173.0532 Y-67.5431 I-4.3962 J9.9204
G2 X169.4651 Y-67.8379 I-3.4259 J19.7112
G3 X169.457 I-0.0081 J-1.0
G1 X150.0
G3 X149.0 Y-68.8379 I0.0 J-1.0
G1 Y-74.25
G3 X150.0 Y-75.25 I1.0 J0.0
G1 X170.3178
G3 X174.442 Y-74.9719 I0.1413 J28.6291
G3 X178.5224 Y-73.9148 I-2.4548 J17.8784
G3 X184.8082 Y-67.8166 I-3.6872 J10.0894
G3 X184.816 Y-67.7967 I-0.9284 J0.3716
G3 X185.7971 Y-62.0996 I-14.4225 J5.4168
G3 X184.1339 Y-55.4476 I-12.9968 J0.2843
G3 X184.116 Y-55.417 I-0.8718 J-0.4898
G3 X181.6455 Y-52.4727 I-10.9254 J-6.6584
G1 X184.0
G3 X185.0 Y-51.4727 I0.0 J1.0
G1 Y-46.0273
G3 X184.0 Y-45.0273 I-1.0 J0.0
G1 X165.3304
G1 F300.0 Z-3.0
G1 F800.0 X150.0
G3 X149.0 Y-46.0273 I0.0 J-1.0
G1 Y-51.4727
G3 X150.0 Y-52.4727 I1.0 J0.0
G1 X169.5898
G3 X169.6011 Y-52.4726 I0.0 J1.0
G2 X173.3906 Y-53.0092 I0.1423 J-12.6439
G2 X176.6354 Y-54.8159 I-2.6247 J-8.5311
G3 X176.6452 Y-54.8244 I0.6576 J0.7534
G2 X179.2152 Y-60.5775 I-4.7298 J-5.5634
G3 X179.2153 Y-60.6324 I0.9997 J-0.026
G2 X178.3623 Y-64.3351 I-7.5186 J-0.2175
G2 X175.6044 Y-66.7674 I-5.0584 J2.9559
G3 X175.5919 Y-66.7728 I0.3927 J-0.9197
G2 X173.0532 Y-67.5431 I-4.3962 J9.9204
G2 X169.4651 Y-67.8379 I-3.4259 J19.7112
G3 X169.457 I-0.0081 J-1.0
G1 X150.0
G3 X149.0 Y-68.8379 I0.0 J-1.0
G1 Y-74.25
G3 X150.0 Y-75.25 I1.0 J0.0
G1 X170.3178
G3 X174.442 Y-74.9719 I0.1413 J28.6291
G3 X178.5224 Y-73.9148 I-2.4548 J17.8784
G3 X184.8082 Y-67.8166 I-3.6872 J10.0894
G3 X184.816 Y-67.7967 I-0.9284 J0.3716
G3 X185.7971 Y-62.0996 I-14.4225 J5.4168
G3 X184.1339 Y-55.4476 I-12.9968 J0.2843
G3 X184.116 Y-55.417 I-0.8718 J-0.4898
G3 X181.6455 Y-52.4727 I-10.9254 J-6.6584
G1 X184.0
G3 X185.0 Y-51.4727 I0.0 J1.0
G1 Y-46.0273
G3 X184.0 Y-45.0273 I-1.0 J0.0
G1 X165.3304
G1 F300.0 Z-4.0
G1 F800.0 X150.0
G3 X149.0 Y-46.0273 I0.0 J-1.0
G1 Y-51.4727
G3 X150.0 Y-52.4727 I1.0 J0.0
G1 X169.5898
G3 X169.6011 Y-52.4726 I0.0 J1.0
G2 X173.3906 Y-53.0092 I0.1423 J-12.6439
G2 X176.6354 Y-54.8159 I-2.6247 J-8.5311
G3 X176.6452 Y-54.8244 I0.6576 J0.7534
G2 X179.2152 Y-60.5775 I-4.7298 J-5.5634
G3 X179.2153 Y-60.6324 I0.9997 J-0.026
G2 X178.3623 Y-64.3351 I-7.5186 J-0.2175
G2 X175.6044 Y-66.7674 I-5.0584 J2.9559
G3 X175.5919 Y-66.7728 I0.3927 J-0.9197
G2 X173.0532 Y-67.5431 I-4.3962 J9.9204
G2 X169.4651 Y-67.8379 I-3.4259 J19.7112
G3 X169.457 I-0.0081 J-1.0
G1 X150.0
G3 X149.0 Y-68.8379 I0.0 J-1.0
G1 Y-74.25
G3 X150.0 Y-75.25 I1.0 J0.0
G1 X170.3178
G3 X174.442 Y-74.9719 I0.1413 J28.6291
G3 X178.5224 Y-73.9148 I-2.4548 J17.8784
G3 X184.8082 Y-67.8166 I-3.6872 J10.0894
G3 X184.816 Y-67.7967 I-0.9284 J0.3716
G3 X185.7971 Y-62.0996 I-14.4225 J5.4168
G3 X184.1339 Y-55.4476 I-12.9968 J0.2843
G3 X184.116 Y-55.417 I-0.8718 J-0.4898
G3 X181.6455 Y-52.4727 I-10.9254 J-6.6584
G1 X184.0
G3 X185.0 Y-51.4727 I0.0 J1.0
G1 Y-46.0273
G3 X184.0 Y-45.0273 I-1.0 J0.0
G1 X165.3304
G1 F300.0 Z-5.0
G1 F800.0 X150.0
G3 X149.0 Y-46.0273 I0.0 J-1.0
G1 Y-51.4727
G3 X150.0 Y-52.4727 I1.0 J0.0
G1 X169.5898
G3 X169.6011 Y-52.4726 I0.0 J1.0
G2 X173.3906 Y-53.0092 I0.1423 J-12.6439
G2 X176.6354 Y-54.8159 I-2.6247 J-8.5311
G3 X176.6452 Y-54.8244 I0.6576 J0.7534
G2 X179.2152 Y-60.5775 I-4.7298 J-5.5634
G3 X179.2153 Y-60.6324 I0.9997 J-0.026
G2 X178.3623 Y-64.3351 I-7.5186 J-0.2175
G2 X175.6044 Y-66.7674 I-5.0584 J2.9559
G3 X175.5919 Y-66.7728 I0.3927 J-0.9197
G2 X173.0532 Y-67.5431 I-4.3962 J9.9204
G2 X169.4651 Y-67.8379 I-3.4259 J19.7112
G3 X169.457 I-0.0081 J-1.0
G1 X150.0
G3 X149.0 Y-68.8379 I0.0 J-1.0
G1 Y-74.25
G3 X150.0 Y-75.25 I1.0 J0.0
G1 X170.3178
G3 X174.442 Y-74.9719 I0.1413 J28.6291
G3 X178.5224 Y-73.9148 I-2.4548 J17.8784
G3 X184.8082 Y-67.8166 I-3.6872 J10.0894
G3 X184.816 Y-67.7967 I-0.9284 J0.3716
G3 X185.7971 Y-62.0996 I-14.4225 J5.4168
G3 X184.1339 Y-55.4476 I-12.9968 J0.2843
G3 X184.116 Y-55.417 I-0.8718 J-0.4898
G3 X181.6455 Y-52.4727 I-10.9254 J-6.6584
G1 X184.0
G3 X185.0 Y-51.4727 I0.0 J1.0
G1 Y-46.0273
G3 X184.0 Y-45.0273 I-1.0 J0.0
G1 X165.3304
G0 Z3.0
G0 X144.346 Y-52.0807
G0 Z1.0
G1 F300.0 Z-1.0
G3 F800.0 X143.2915 Y-50.4224 I-3.8848 J-1.3058
G3 X140.2726 Y-49.2108 I-2.9618 J-3.013
G3 X137.2662 Y-50.4737 I-0.0635 J-4.0587
G3 X136.0174 Y-53.5327 I2.957 J-2.9916
G3 X137.2439 Y-56.4999 I4.0736 J-0.0533
G3 X140.2702 Y-57.7191 I2.9411 J2.9351
G3 X143.3435 Y-56.4554 I0.0951 J4.1377
G3 X144.5587 Y-53.4709 I-2.9697 J2.9488
G3 X144.346 Y-52.0807 I-4.0975 J0.0844
G1 F300.0 Z-2.0
G3 F800.0 X143.2915 Y-50.4224 I-3.8848 J-1.3058
G3 X140.2726 Y-49.2108 I-2.9618 J-3.013
G3 X137.2662 Y-50.4737 I-0.0635 J-4.0587
G3 X136.0174 Y-53.5327 I2.957 J-2.9916
G3 X137.2439 Y-56.4999 I4.0736 J-0.0533
G3 X140.2702 Y-57.7191 I2.9411 J2.9351
G3 X143.3435 Y-56.4554 I0.0951 J4.1377
G3 X144.5587 Y-53.4709 I-2.9697 J2.9488
G3 X144.346 Y-52.0807 I-4.0975 J0.0844
G1 F300.0 Z-3.0
G3 F800.0 X143.2915 Y-50.4224 I-3.8848 J-1.3058
G3 X140.2726 Y-49.2108 I-2.9618 J-3.013
G3 X137.2662 Y-50.4737 I-0.0635 J-4.0587
G3 X136.0174 Y-53.5327 I2.957 J-2.9916
G3 X137.2439 Y-56.4999 I4.0736 J-0.0533
G3 X140.2702 Y-57.7191 I2.9411 J2.9351
G3 X143.3435 Y-56.4554 I0.0951 J4.1377
G3 X144.5587 Y-53.4709 I-2.9697 J2.9488
G3 X144.346 Y-52.0807 I-4.0975 J0.0844
G1 F300.0 Z-4.0
G3 F800.0 X143.2915 Y-50.4224 I-3.8848 J-1.3058
G3 X140.2726 Y-49.2108 I-2.9618 J-3.013
G3 X137.2662 Y-50.4737 I-0.0635 J-4.0587
G3 X136.0174 Y-53.5327 I2.957 J-2.9916
G3 X137.2439 Y-56.4999 I4.0736 J-0.0533
G3 X140.2702 Y-57.7191 I2.9411 J2.9351
G3 X143.3435 Y-56.4554 I0.0951 J4.1377
G3 X144.5587 Y-53.4709 I-2.9697 J2.9488
G3 X144.346 Y-52.0807 I-4.0975 J0.0844
G1 F300.0 Z-5.0
G3 F800.0 X143.2915 Y-50.4224 I-3.8848 J-1.3058
G3 X140.2726 Y-49.2108 I-2.9618 J-3.013
G3 X137.2662 Y-50.4737 I-0.0635 J-4.0587
G3 X136.0174 Y-53.5327 I2.957 J-2.9916
G3 X137.2439 Y-56.4999 I4.0736 J-0.0533
G3 X140.2702 Y-57.7191 I2.9411 J2.9351
G3 X143.3435 Y-56.4554 I0.0951 J4.1377
G3 X144.5587 Y-53.4709 I-2.9697 J2.9488
G3 X144.346 Y-52.0807 I-4.0975 J0.0844
G0 Z3.0
G0 X141.4689 Y-62.1217
G0 Z1.0
G1 F300.0 Z-1.0
G3 F800.0 X140.2725 Y-61.9608 I-1.1478 J-4.0058
G3 X137.2553 Y-63.268 I-0.0545 J-4.0098
G3 X136.0175 Y-66.311 I3.0402 J-3.0099
G3 X137.2357 Y-69.3413 I4.2247 J-0.0617
G3 X137.238 Y-69.3436 I0.7116 J0.7026
G3 X140.2822 Y-70.5684 I2.947 J2.9292
G3 X143.3062 Y-69.3092 I0.0084 J4.2404
G3 X144.5587 Y-66.212 I-3.0647 J3.0411
G3 X143.3011 Y-63.2149 I-4.1291 J0.0299
G3 X141.4689 Y-62.1217 I-2.98 J-2.9127
G1 F300.0 Z-2.0
G3 F800.0 X140.2725 Y-61.9608 I-1.1478 J-4.0058
G3 X137.2553 Y-63.268 I-0.0545 J-4.0098
G3 X136.0175 Y-66.311 I3.0402 J-3.0099
G3 X137.2357 Y-69.3413 I4.2247 J-0.0617
G3 X137.238 Y-69.3436 I0.7116 J0.7026
G3 X140.2822 Y-70.5684 I2.947 J2.9292
G3 X143.3062 Y-69.3092 I0.0084 J4.2404
G3 X144.5587 Y-66.212 I-3.0647 J3.0411
G3 X143.3011 Y-63.2149 I-4.1291 J0.0299
G3 X141.4689 Y-62.1217 I-2.98 J-2.9127
G1 F300.0 Z-3.0
G3 F800.0 X140.2725 Y-61.9608 I-1.1478 J-4.0058
G3 X137.2553 Y-63.268 I-0.0545 J-4.0098
G3 X136.0175 Y-66.311 I3.0402 J-3.0099
G3 X137.2357 Y-69.3413 I4.2247 J-0.0617
G3 X137.238 Y-69.3436 I0.7116 J0.7026
G3 X140.2822 Y-70.5684 I2.947 J2.9292
G3 X143.3062 Y-69.3092 I0.0084 J4.2404
G3 X144.5587 Y-66.212 I-3.0647 J3.0411
G3 X143.3011 Y-63.2149 I-4.1291 J0.0299
G3 X141.4689 Y-62.1217 I-2.98 J-2.9127
G1 F300.0 Z-4.0
G3 F800.0 X140.2725 Y-61.9608 I-1.1478 J-4.0058
G3 X137.2553 Y-63.268 I-0.0545 J-4.0098
G3 X136.0175 Y-66.311 I3.0402 J-3.0099
G3 X137.2357 Y-69.3413 I4.2247 J-0.0617
G3 X137.238 Y-69.3436 I0.7116 J0.7026
G3 X140.2822 Y-70.5684 I2.947 J2.9292
G3 X143.3062 Y-69.3092 I0.0084 J4.2404
G3 X144.5587 Y-66.212 I-3.0647 J3.0411
G3 X143.3011 Y-63.2149 I-4.1291 J0.0299
G3 X141.4689 Y-62.1217 I-2.98 J-2.9127
G1 F300.0 Z-5.0
G3 F800.0 X140.2725 Y-61.9608 I-1.1478 J-4.0058
G3 X137.2553 Y-63.268 I-0.0545 J-4.0098
G3 X136.0175 Y-66.311 I3.0402 J-3.0099
G3 X137.2357 Y-69.3413 I4.2247 J-0.0617
G3 X137.238 Y-69.3436 I0.7116 J0.7026
G3 X140.2822 Y-70.5684 I2.947 J2.9292
G3 X143.3062 Y-69.3092 I0.0084 J4.2404
G3 X144.5587 Y-66.212 I-3.0647 J3.0411
G3 X143.3011 Y-63.2149 I-4.1291 J0.0299
G3 X141.4689 Y-62.1217 I-2.98 J-2.9127
G0 Z3.0
G0 X145.1912 Y-83.9578
G0 Z1.0
G1 F300.0 Z-1.0
G3 F800.0 X138.633 Y-87.796 I1.8092 J-10.6133
G3 X136.0664 Y-92.8005 I10.2829 J-8.434
G3 X136.0663 Y-92.8012 I0.9662 J-0.2579
G3 X135.3867 Y-98.2282 I19.553 J-5.2044
G1 Y-111.7695
G3 X136.3867 Y-112.7695 I1.0 J0.0
G1 X184.0
G3 X185.0 Y-111.7695 I0.0 J1.0
G1 Y-97.8958
G3 X184.0822 Y-91.7126 I-19.9236 J0.2022
G3 X184.0801 Y-91.7061 I-0.9539 J-0.3002
G3 X180.9748 Y-86.1839 I-15.1399 J-4.8797
G3 X176.1715 Y-82.5965 I-10.1766 J-8.6164
G3 X176.1563 Y-82.59 I-0.403 J-0.9152
G3 X170.3194 Y-81.4511 I-5.6498 J-13.4289
G3 X165.7383 Y-82.1601 I-0.1569 J-14.1416
G3 X165.7306 Y-82.1626 I0.3128 J-0.9498
G3 X161.6663 Y-84.6115 I3.5483 J-10.486
G3 X158.9143 Y-88.4463 I8.2447 J-8.8217
G3 X158.9115 Y-88.4524 I0.9107 J-0.413
G3 X158.3211 Y-90.0051 I13.6352 J-6.0734
G3 X154.9139 Y-86.1981 I-11.073 J-6.482
G3 X154.9018 Y-86.1893 I-0.5975 J-0.8019
G3 X147.2805 Y-83.8083 I-7.3719 J-10.2087
G3 X145.1912 Y-83.9578 I-0.2801 J-10.7628
G1 F300.0 Z-2.0
G3 F800.0 X138.633 Y-87.796 I1.8092 J-10.6133
G3 X136.0664 Y-92.8005 I10.2829 J-8.434
G3 X136.0663 Y-92.8012 I0.9662 J-0.2579
G3 X135.3867 Y-98.2282 I19.553 J-5.2044
G1 Y-111.7695
G3 X136.3867 Y-112.7695 I1.0 J0.0
G1 X184.0
G3 X185.0 Y-111.7695 I0.0 J1.0
G1 Y-97.8958
G3 X184.0822 Y-91.7126 I-19.9236 J0.2022
G3 X184.0801 Y-91.7061 I-0.9539 J-0.3002
G3 X180.9748 Y-86.1839 I-15.1399 J-4.8797
G3 X176.1715 Y-82.5965 I-10.1766 J-8.6164
G3 X176.1563 Y-82.59 I-0.403 J-0.9152
G3 X170.3194 Y-81.4511 I-5.6498 J-13.4289
G3 X165.7383 Y-82.1601 I-0.1569 J-14.1416
G3 X165.7306 Y-82.1626 I0.3128 J-0.9498
G3 X161.6663 Y-84.6115 I3.5483 J-10.486
G3 X158.9143 Y-88.4463 I8.2447 J-8.8217
G3 X158.9115 Y-88.4524 I0.9107 J-0.413
G3 X158.3211 Y-90.0051 I13.6352 J-6.0734
G3 X154.9139 Y-86.1981 I-11.073 J-6.482
G3 X154.9018 Y-86.1893 I-0.5975 J-0.8019
G3 X147.2805 Y-83.8083 I-7.3719 J-10.2087
G3 X145.1912 Y-83.9578 I-0.2801 J-10.7628
G1 F300.0 Z-3.0
G3 F800.0 X138.633 Y-87.796 I1.8092 J-10.6133
G3 X136.0664 Y-92.8005 I10.2829 J-8.434
G3 X136.0663 Y-92.8012 I0.9662 J-0.2579
G3 X135.3867 Y-98.2282 I19.553 J-5.2044
G1 Y-111.7695
G3 X136.3867 Y-112.7695 I1.0 J0.0
G1 X184.0
G3 X185.0 Y-111.7695 I0.0 J1.0
G1 Y-97.8958
G3 X184.0822 Y-91.7126 I-19.9236 J0.2022
G3 X184.0801 Y-91.7061 I-0.9539 J-0.3002
G3 X180.9748 Y-86.1839 I-15.1399 J-4.8797
G3 X176.1715 Y-82.5965 I-10.1766 J-8.6164
G3 X176.1563 Y-82.59 I-0.403 J-0.9152
G3 X170.3194 Y-81.4511 I-5.6498 J-13.4289
G3 X165.7383 Y-82.1601 I-0.1569 J-14.1416
G3 X165.7306 Y-82.1626 I0.3128 J-0.9498
G3 X161.6663 Y-84.6115 I3.5483 J-10.486
G3 X158.9143 Y-88.4463 I8.2447 J-8.8217
G3 X158.9115 Y-88.4524 I0.9107 J-0.413
G3 X158.3211 Y-90.0051 I13.6352 J-6.0734
G3 X154.9139 Y-86.1981 I-11.073 J-6.482
G3 X154.9018 Y-86.1893 I-0.5975 J-0.8019
G3 X147.2805 Y-83.8083 I-7.3719 J-10.2087
G3 X145.1912 Y-83.9578 I-0.2801 J-10.7628
G1 F300.0 Z-4.0
G3 F800.0 X138.633 Y-87.796 I1.8092 J-10.6133
G3 X136.0664 Y-92.8005 I10.2829 J-8.434
G3 X136.0663 Y-92.8012 I0.9662 J-0.2579
G3 X135.3867 Y-98.2282 I19.553 J-5.2044
G1 Y-111.7695
G3 X136.3867 Y-112.7695 I1.0 J0.0
G1 X184.0
G3 X185.0 Y-111.7695 I0.0 J1.0
G1 Y-97.8958
G3 X184.0822 Y-91.7126 I-19.9236 J0.2022
G3 X184.0801 Y-91.7061 I-0.9539 J-0.3002
G3 X180.9748 Y-86.1839 I-15.1399 J-4.8797
G3 X176.1715 Y-82.5965 I-10.1766 J-8.6164
G3 X176.1563 Y-82.59 I-0.403 J-0.9152
G3 X170.3194 Y-81.4511 I-5.6498 J-13.4289
G3 X165.7383 Y-82.1601 I-0.1569 J-14.1416
G3 X165.7306 Y-82.1626 I0.3128 J-0.9498
G3 X161.6663 Y-84.6115 I3.5483 J-10.486
G3 X158.9143 Y-88.4463 I8.2447 J-8.8217
G3 X158.9115 Y-88.4524 I0.9107 J-0.413
G3 X158.3211 Y-90.0051 I13.6352 J-6.0734
G3 X154.9139 Y-86.1981 I-11.073 J-6.482
G3 X154.9018 Y-86.1893 I-0.5975 J-0.8019
G3 X147.2805 Y-83.8083 I-7.3719 J-10.2087
G3 X145.1912 Y-83.9578 I-0.2801 J-10.7628
G1 F300.0 Z-5.0
G3 F800.0 X138.633 Y-87.796 I1.8092 J-10.6133
G3 X136.0664 Y-92.8005 I10.2829 J-8.434
G3 X136.0663 Y-92.8012 I0.9662 J-0.2579
G3 X135.3867 Y-98.2282 I19.553 J-5.2044
G1 Y-111.7695
G3 X136.3867 Y-112.7695 I1.0 J0.0
G1 X184.0
G3 X185.0 Y-111.7695 I0.0 J1.0
G1 Y-97.8958
G3 X184.0822 Y-91.7126 I-19.9236 J0.2022
G3 X184.0801 Y-91.7061 I-0.9539 J-0.3002
G3 X180.9748 Y-86.1839 I-15.1399 J-4.8797
G3 X176.1715 Y-82.5965 I-10.1766 J-8.6164
G3 X176.1563 Y-82.59 I-0.403 J-0.9152
G3 X170.3194 Y-81.4511 I-5.6498 J-13.4289
G3 X165.7383 Y-82.1601 I-0.1569 J-14.1416
G3 X165.7306 Y-82.1626 I0.3128 J-0.9498
G3 X161.6663 Y-84.6115 I3.5483 J-10.486
G3 X158.9143 Y-88.4463 I8.2447 J-8.8217
G3 X158.9115 Y-88.4524 I0.9107 J-0.413
G3 X158.3211 Y-90.0051 I13.6352 J-6.0734
G3 X154.9139 Y-86.1981 I-11.073 J-6.482
G3 X154.9018 Y-86.1893 I-0.5975 J-0.8019
G3 X147.2805 Y-83.8083 I-7.3719 J-10.2087
G3 X145.1912 Y-83.9578 I-0.2801 J-10.7628
G0 Z3.0
G0 X149.9731 Y93.4886
G0 Z1.0
G1 F300.0 Z-1.0
G3 F800.0 X150.0 Y93.4883 I0.0269 J0.9996
G1 X154.6484
G3 X155.6484 Y94.4883 I0.0 J1.0
G1 Y99.2988
G1 X184.0
G3 X185.0 Y100.2988 I0.0 J1.0
G1 Y105.7109
G3 X184.0 Y106.7109 I-1.0 J0.0
G1 X155.6484
G1 Y113.6797
G3 X154.6484 Y114.6797 I-1.0 J0.0
G1 X150.0
G3 X149.0 Y113.6797 I0.0 J-1.0
G1 Y106.7109
G1 X144.7539
G3 X144.7306 Y106.7107 I0.0 J-1.0
G2 X141.2482 Y107.2253 I-0.2427 J10.3974
G3 X141.2388 Y107.2283 I-0.3115 J-0.9502
G2 X138.9566 Y109.2293 I1.1422 J3.6047
G2 X138.5486 Y111.4001 I4.9493 J2.054
G3 X138.5487 Y111.4386 I-0.9998 J0.0218
G2 X139.3218 Y114.5595 I6.2627 J0.1049
G3 X138.4453 Y116.041 I-0.8764 J0.4815
G1 X133.5313
G3 X132.5864 Y115.3684 I0.0 J-1.0
G3 X131.9332 Y111.0862 I11.2942 J-3.9137
G3 X135.3518 Y102.6754 I11.3968 J-0.2679
G3 X139.642 Y100.0336 I7.7396 J7.7641
G3 X139.6487 Y100.0314 I0.3146 J0.9492
G3 X144.4949 Y99.2988 I4.6509 J14.3719
G1 X149.0
G1 Y94.4883
G3 X149.9731 Y93.4886 I1.0 J0.0
G1 F300.0 Z-2.0
G3 F800.0 X150.0 Y93.4883 I0.0269 J0.9996
G1 X154.6484
G3 X155.6484 Y94.4883 I0.0 J1.0
G1 Y99.2988
G1 X184.0
G3 X185.0 Y100.2988 I0.0 J1.0
G1 Y105.7109
G3 X184.0 Y106.7109 I-1.0 J0.0
G1 X155.6484
G1 Y113.6797
G3 X154.6484 Y114.6797 I-1.0 J0.0
G1 X150.0
G3 X149.0 Y113.6797 I0.0 J-1.0
G1 Y106.7109
G1 X144.7539
G3 X144.7306 Y106.7107 I0.0 J-1.0
G2 X141.2482 Y107.2253 I-0.2427 J10.3974
G3 X141.2388 Y107.2283 I-0.3115 J-0.9502
G2 X138.9566 Y109.2293 I1.1422 J3.6047
G2 X138.5486 Y111.4001 I4.9493 J2.054
G3 X138.5487 Y111.4386 I-0.9998 J0.0218
G2 X139.3218 Y114.5595 I6.2627 J0.1049
G3 X138.4453 Y116.041 I-0.8764 J0.4815
G1 X133.5313
G3 X132.5864 Y115.3684 I0.0 J-1.0
G3 X131.9332 Y111.0862 I11.2942 J-3.9137
G3 X135.3518 Y102.6754 I11.3968 J-0.2679
G3 X139.642 Y100.0336 I7.7396 J7.7641
G3 X139.6487 Y100.0314 I0.3146 J0.9492
G3 X144.4949 Y99.2988 I4.6509 J14.3719
G1 X149.0
G1 Y94.4883
G3 X149.9731 Y93.4886 I1.0 J0.0
G1 F300.0 Z-3.0
G3 F800.0 X150.0 Y93.4883 I0.0269 J0.9996
G1 X154.6484
G3 X155.6484 Y94.4883 I0.0 J1.0
G1 Y99.2988
G1 X184.0
G3 X185.0 Y100.2988 I0.0 J1.0
G1 Y105.7109
G3 X184.0 Y106.7109 I-1.0 J0.0
G1 X155.6484
G1 Y113.6797
G3 X154.6484 Y114.6797 I-1.0 J0.0
G1 X150.0
G3 X149.0 Y113.6797 I0.0 J-1.0
G1 Y106.7109
G1 X144.7539
G3 X144.7306 Y106.7107 I0.0 J-1.0
G2 X141.2482 Y107.2253 I-0.2427 J10.3974
G3 X141.2388 Y107.2283 I-0.3115 J-0.9502
G2 X138.9566 Y109.2293 I1.1422 J3.6047
G2 X138.5486 Y111.4001 I4.9493 J2.054
G3 X138.5487 Y111.4386 I-0.9998 J0.0218
G2 X139.3218 Y114.5595 I6.2627 J0.1049
G3 X138.4453 Y116.041 I-0.8764 J0.4815
G1 X133.5313
G3 X132.5864 Y115.3684 I0.0 J-1.0
G3 X131.9332 Y111.0862 I11.2942 J-3.9137
G3 X135.3518 Y102.6754 I11.3968 J-0.2679
G3 X139.642 Y100.0336 I7.7396 J7.7641
G3 X139.6487 Y100.0314 I0.3146 J0.9492
G3 X144.4949 Y99.2988 I4.6509 J14.3719
G1 X149.0
G1 Y94.4883
G3 X149.9731 Y93.4886 I1.0 J0.0
G1 F300.0 Z-4.0
G3 F800.0 X150.0 Y93.4883 I0.0269 J0.9996
G1 X154.6484
G3 X155.6484 Y94.4883 I0.0 J1.0
G1 Y99.2988
G1 X184.0
G3 X185.0 Y100.2988 I0.0 J1.0
G1 Y105.7109
G3 X184.0 Y106.7109 I-1.0 J0.0
G1 X155.6484
G1 Y113.6797
G3 X154.6484 Y114.6797 I-1.0 J0.0
G1 X150.0
G3 X149.0 Y113.6797 I0.0 J-1.0
G1 Y106.7109
G1 X144.7539
G3 X144.7306 Y106.7107 I0.0 J-1.0
G2 X141.2482 Y107.2253 I-0.2427 J10.3974
G3 X141.2388 Y107.2283 I-0.3115 J-0.9502
G2 X138.9566 Y109.2293 I1.1422 J3.6047
G2 X138.5486 Y111.4001 I4.9493 J2.054
G3 X138.5487 Y111.4386 I-0.9998 J0.0218
G2 X139.3218 Y114.5595 I6.2627 J0.1049
G3 X138.4453 Y116.041 I-0.8764 J0.4815
G1 X133.5313
G3 X132.5864 Y115.3684 I0.0 J-1.0
G3 X131.9332 Y111.0862 I11.2942 J-3.9137
G3 X135.3518 Y102.6754 I11.3968 J-0.2679
G3 X139.642 Y100.0336 I7.7396 J7.7641
G3 X139.6487 Y100.0314 I0.3146 J0.9492
G3 X144.4949 Y99.2988 I4.6509 J14.3719
G1 X149.0
G1 Y94.4883
G3 X149.9731 Y93.4886 I1.0 J0.0
G1 F300.0 Z-5.0
G3 F800.0 X150.0 Y93.4883 I0.0269 J0.9996
G1 X154.6484
G3 X155.6484 Y94.4883 I0.0 J1.0
G1 Y99.2988
G1 X184.0
G3 X185.0 Y100.2988 I0.0 J1.0
G1 Y105.7109
G3 X184.0 Y106.7109 I-1.0 J0.0
G1 X155.6484
G1 Y113.6797
G3 X154.6484 Y114.6797 I-1.0 J0.0
G1 X150.0
G3 X149.0 Y113.6797 I0.0 J-1.0
G1 Y106.7109
G1 X144.7539
G3 X144.7306 Y106.7107 I0.0 J-1.0
G2 X141.2482 Y107.2253 I-0.2427 J10.3974
G3 X141.2388 Y107.2283 I-0.3115 J-0.9502
G2 X138.9566 Y109.2293 I1.1422 J3.6047
G2 X138.5486 Y111.4001 I4.9493 J2.054
G3 X138.5487 Y111.4386 I-0.9998 J0.0218
G2 X139.3218 Y114.5595 I6.2627 J0.1049
G3 X138.4453 Y116.041 I-0.8764 J0.4815
G1 X133.5313
G3 X132.5864 Y115.3684 I0.0 J-1.0
G3 X131.9332 Y111.0862 I11.2942 J-3.9137
G3 X135.3518 Y102.6754 I11.3968 J-0.2679
G3 X139.642 Y100.0336 I7.7396 J7.7641
G3 X139.6487 Y100.0314 I0.3146 J0.9492
G3 X144.4949 Y99.2988 I4.6509 J14.3719
G1 X149.0
G1 Y94.4883
G3 X149.9731 Y93.4886 I1.0 J0.0
G0 Z3.0
M5
M30
