( Made using CamBam - http://www.cambam.co.uk )
( Schild-Buehlhof 3/19/2017 6:06:02 PM )
( T2 : 2.0 )
G21 G90 G64 G40
G0 Z3.0
( T2 : 2.0 )
T2 M6
( ProfilBuehlhof )
G17
M3 S1000
G0 X183.0 Y-110.7695
G0 Z1.0
G1 F300.0 Z-1.0
G1 F800.0 X137.3867
G1 Y-98.2227
G3 Y-98.2114 I-1.0 J0.0
G2 X137.9989 Y-93.316 I18.2326 J0.2058
G2 X140.1812 Y-89.0621 I10.9171 J-2.914
G3 X140.1856 Y-89.0568 I-0.773 J0.6344
G2 X147.249 Y-85.8082 I6.8149 J-5.5143
G3 X147.2991 Y-85.8084 I0.0284 J0.9996
G2 X153.7249 Y-87.8064 I0.2308 J-10.5896
G2 X157.6097 Y-93.3341 I-6.4768 J-8.6807
G3 X158.5664 Y-94.043 I0.9567 J0.2911
G1 X158.6992
G3 X159.6935 Y-93.1494 I0.0 J1.0
G2 X160.7371 Y-89.2693 I12.8531 J-1.3764
G2 X163.0341 Y-86.0706 I9.1739 J-4.1639
G3 X163.0395 Y-86.0656 I-0.6826 J0.7308
G2 X166.3679 Y-84.0584 I6.2394 J-6.583
G2 X170.3083 Y-83.4511 I3.7947 J-11.5343
G3 X170.334 I0.012 J0.9999
G2 X175.3731 Y-84.4303 I0.1725 J-12.5678
G2 X179.4514 Y-87.4798 I-4.5749 J-10.3701
G3 X179.4585 Y-87.4882 I0.7635 J0.6459
G2 X182.1755 Y-92.3163 I-10.5183 J-9.0975
G2 X183.0001 Y-97.8802 I-17.0991 J-5.3772
G3 X183.0 Y-97.8906 I0.9999 J-0.0104
G1 Y-110.7695
G1 F300.0 Z-2.0
G1 F800.0 X137.3867
G1 Y-98.2227
G3 Y-98.2114 I-1.0 J0.0
G2 X137.9989 Y-93.316 I18.2326 J0.2058
G2 X140.1812 Y-89.0621 I10.9171 J-2.914
G3 X140.1856 Y-89.0568 I-0.773 J0.6344
G2 X147.249 Y-85.8082 I6.8149 J-5.5143
G3 X147.2991 Y-85.8084 I0.0284 J0.9996
G2 X153.7249 Y-87.8064 I0.2308 J-10.5896
G2 X157.6097 Y-93.3341 I-6.4768 J-8.6807
G3 X158.5664 Y-94.043 I0.9567 J0.2911
G1 X158.6992
G3 X159.6935 Y-93.1494 I0.0 J1.0
G2 X160.7371 Y-89.2693 I12.8531 J-1.3764
G2 X163.0341 Y-86.0706 I9.1739 J-4.1639
G3 X163.0395 Y-86.0656 I-0.6826 J0.7308
G2 X166.3679 Y-84.0584 I6.2394 J-6.583
G2 X170.3083 Y-83.4511 I3.7947 J-11.5343
G3 X170.334 I0.012 J0.9999
G2 X175.3731 Y-84.4303 I0.1725 J-12.5678
G2 X179.4514 Y-87.4798 I-4.5749 J-10.3701
G3 X179.4585 Y-87.4882 I0.7635 J0.6459
G2 X182.1755 Y-92.3163 I-10.5183 J-9.0975
G2 X183.0001 Y-97.8802 I-17.0991 J-5.3772
G3 X183.0 Y-97.8906 I0.9999 J-0.0104
G1 Y-110.7695
G1 F300.0 Z-3.0
G1 F800.0 X137.3867
G1 Y-98.2227
G3 Y-98.2114 I-1.0 J0.0
G2 X137.9989 Y-93.316 I18.2326 J0.2058
G2 X140.1812 Y-89.0621 I10.9171 J-2.914
G3 X140.1856 Y-89.0568 I-0.773 J0.6344
G2 X147.249 Y-85.8082 I6.8149 J-5.5143
G3 X147.2991 Y-85.8084 I0.0284 J0.9996
G2 X153.7249 Y-87.8064 I0.2308 J-10.5896
G2 X157.6097 Y-93.3341 I-6.4768 J-8.6807
G3 X158.5664 Y-94.043 I0.9567 J0.2911
G1 X158.6992
G3 X159.6935 Y-93.1494 I0.0 J1.0
G2 X160.7371 Y-89.2693 I12.8531 J-1.3764
G2 X163.0341 Y-86.0706 I9.1739 J-4.1639
G3 X163.0395 Y-86.0656 I-0.6826 J0.7308
G2 X166.3679 Y-84.0584 I6.2394 J-6.583
G2 X170.3083 Y-83.4511 I3.7947 J-11.5343
G3 X170.334 I0.012 J0.9999
G2 X175.3731 Y-84.4303 I0.1725 J-12.5678
G2 X179.4514 Y-87.4798 I-4.5749 J-10.3701
G3 X179.4585 Y-87.4882 I0.7635 J0.6459
G2 X182.1755 Y-92.3163 I-10.5183 J-9.0975
G2 X183.0001 Y-97.8802 I-17.0991 J-5.3772
G3 X183.0 Y-97.8906 I0.9999 J-0.0104
G1 Y-110.7695
G1 F300.0 Z-4.0
G1 F800.0 X137.3867
G1 Y-98.2227
G3 Y-98.2114 I-1.0 J0.0
G2 X137.9989 Y-93.316 I18.2326 J0.2058
G2 X140.1812 Y-89.0621 I10.9171 J-2.914
G3 X140.1856 Y-89.0568 I-0.773 J0.6344
G2 X147.249 Y-85.8082 I6.8149 J-5.5143
G3 X147.2991 Y-85.8084 I0.0284 J0.9996
G2 X153.7249 Y-87.8064 I0.2308 J-10.5896
G2 X157.6097 Y-93.3341 I-6.4768 J-8.6807
G3 X158.5664 Y-94.043 I0.9567 J0.2911
G1 X158.6992
G3 X159.6935 Y-93.1494 I0.0 J1.0
G2 X160.7371 Y-89.2693 I12.8531 J-1.3764
G2 X163.0341 Y-86.0706 I9.1739 J-4.1639
G3 X163.0395 Y-86.0656 I-0.6826 J0.7308
G2 X166.3679 Y-84.0584 I6.2394 J-6.583
G2 X170.3083 Y-83.4511 I3.7947 J-11.5343
G3 X170.334 I0.012 J0.9999
G2 X175.3731 Y-84.4303 I0.1725 J-12.5678
G2 X179.4514 Y-87.4798 I-4.5749 J-10.3701
G3 X179.4585 Y-87.4882 I0.7635 J0.6459
G2 X182.1755 Y-92.3163 I-10.5183 J-9.0975
G2 X183.0001 Y-97.8802 I-17.0991 J-5.3772
G3 X183.0 Y-97.8906 I0.9999 J-0.0104
G1 Y-110.7695
G1 F300.0 Z-5.0
G1 F800.0 X137.3867
G1 Y-98.2227
G3 Y-98.2114 I-1.0 J0.0
G2 X137.9989 Y-93.316 I18.2326 J0.2058
G2 X140.1812 Y-89.0621 I10.9171 J-2.914
G3 X140.1856 Y-89.0568 I-0.773 J0.6344
G2 X147.249 Y-85.8082 I6.8149 J-5.5143
G3 X147.2991 Y-85.8084 I0.0284 J0.9996
G2 X153.7249 Y-87.8064 I0.2308 J-10.5896
G2 X157.6097 Y-93.3341 I-6.4768 J-8.6807
G3 X158.5664 Y-94.043 I0.9567 J0.2911
G1 X158.6992
G3 X159.6935 Y-93.1494 I0.0 J1.0
G2 X160.7371 Y-89.2693 I12.8531 J-1.3764
G2 X163.0341 Y-86.0706 I9.1739 J-4.1639
G3 X163.0395 Y-86.0656 I-0.6826 J0.7308
G2 X166.3679 Y-84.0584 I6.2394 J-6.583
G2 X170.3083 Y-83.4511 I3.7947 J-11.5343
G3 X170.334 I0.012 J0.9999
G2 X175.3731 Y-84.4303 I0.1725 J-12.5678
G2 X179.4514 Y-87.4798 I-4.5749 J-10.3701
G3 X179.4585 Y-87.4882 I0.7635 J0.6459
G2 X182.1755 Y-92.3163 I-10.5183 J-9.0975
G2 X183.0001 Y-97.8802 I-17.0991 J-5.3772
G3 X183.0 Y-97.8906 I0.9999 J-0.0104
G1 Y-110.7695
G0 Z3.0
G0 X179.6154 Y-106.9406
G0 Z1.0
G1 F300.0 Z-1.0
G3 F800.0 X179.9531 Y-106.1914 I-0.6623 J0.7492
G1 Y-98.627
G3 X179.4413 Y-94.3642 I-16.4279 J0.1898
G3 X177.394 Y-90.3736 I-9.7171 J-2.4649
G3 X174.1306 Y-87.9995 I-6.4362 J-5.4172
G3 X174.1169 Y-87.9941 I-0.3772 J-0.9262
G3 X170.2587 Y-87.2948 I-3.7216 J-9.5396
G3 X165.8105 Y-88.2672 I-0.2199 J-9.6539
G3 X165.7877 Y-88.2786 I0.4379 J-0.899
G3 X163.1341 Y-90.5597 I3.5161 J-6.7746
G3 X163.1209 Y-90.5781 I0.8083 J-0.5887
G3 X161.2412 Y-95.1217 I9.4871 J-6.5856
G3 X160.8203 Y-99.7882 I23.082 J-4.434
G1 Y-106.1914
G3 X161.8203 Y-107.1914 I1.0 J0.0
G1 X178.9531
G3 X179.6154 Y-106.9406 I0.0 J1.0
G1 F300.0 Z-2.0
G3 F800.0 X179.9531 Y-106.1914 I-0.6623 J0.7492
G1 Y-98.627
G3 X179.4413 Y-94.3642 I-16.4279 J0.1898
G3 X177.394 Y-90.3736 I-9.7171 J-2.4649
G3 X174.1306 Y-87.9995 I-6.4362 J-5.4172
G3 X174.1169 Y-87.9941 I-0.3772 J-0.9262
G3 X170.2587 Y-87.2948 I-3.7216 J-9.5396
G3 X165.8105 Y-88.2672 I-0.2199 J-9.6539
G3 X165.7877 Y-88.2786 I0.4379 J-0.899
G3 X163.1341 Y-90.5597 I3.5161 J-6.7746
G3 X163.1209 Y-90.5781 I0.8083 J-0.5887
G3 X161.2412 Y-95.1217 I9.4871 J-6.5856
G3 X160.8203 Y-99.7882 I23.082 J-4.434
G1 Y-106.1914
G3 X161.8203 Y-107.1914 I1.0 J0.0
G1 X178.9531
G3 X179.6154 Y-106.9406 I0.0 J1.0
G1 F300.0 Z-3.0
G3 F800.0 X179.9531 Y-106.1914 I-0.6623 J0.7492
G1 Y-98.627
G3 X179.4413 Y-94.3642 I-16.4279 J0.1898
G3 X177.394 Y-90.3736 I-9.7171 J-2.4649
G3 X174.1306 Y-87.9995 I-6.4362 J-5.4172
G3 X174.1169 Y-87.9941 I-0.3772 J-0.9262
G3 X170.2587 Y-87.2948 I-3.7216 J-9.5396
G3 X165.8105 Y-88.2672 I-0.2199 J-9.6539
G3 X165.7877 Y-88.2786 I0.4379 J-0.899
G3 X163.1341 Y-90.5597 I3.5161 J-6.7746
G3 X163.1209 Y-90.5781 I0.8083 J-0.5887
G3 X161.2412 Y-95.1217 I9.4871 J-6.5856
G3 X160.8203 Y-99.7882 I23.082 J-4.434
G1 Y-106.1914
G3 X161.8203 Y-107.1914 I1.0 J0.0
G1 X178.9531
G3 X179.6154 Y-106.9406 I0.0 J1.0
G1 F300.0 Z-4.0
G3 F800.0 X179.9531 Y-106.1914 I-0.6623 J0.7492
G1 Y-98.627
G3 X179.4413 Y-94.3642 I-16.4279 J0.1898
G3 X177.394 Y-90.3736 I-9.7171 J-2.4649
G3 X174.1306 Y-87.9995 I-6.4362 J-5.4172
G3 X174.1169 Y-87.9941 I-0.3772 J-0.9262
G3 X170.2587 Y-87.2948 I-3.7216 J-9.5396
G3 X165.8105 Y-88.2672 I-0.2199 J-9.6539
G3 X165.7877 Y-88.2786 I0.4379 J-0.899
G3 X163.1341 Y-90.5597 I3.5161 J-6.7746
G3 X163.1209 Y-90.5781 I0.8083 J-0.5887
G3 X161.2412 Y-95.1217 I9.4871 J-6.5856
G3 X160.8203 Y-99.7882 I23.082 J-4.434
G1 Y-106.1914
G3 X161.8203 Y-107.1914 I1.0 J0.0
G1 X178.9531
G3 X179.6154 Y-106.9406 I0.0 J1.0
G1 F300.0 Z-5.0
G3 F800.0 X179.9531 Y-106.1914 I-0.6623 J0.7492
G1 Y-98.627
G3 X179.4413 Y-94.3642 I-16.4279 J0.1898
G3 X177.394 Y-90.3736 I-9.7171 J-2.4649
G3 X174.1306 Y-87.9995 I-6.4362 J-5.4172
G3 X174.1169 Y-87.9941 I-0.3772 J-0.9262
G3 X170.2587 Y-87.2948 I-3.7216 J-9.5396
G3 X165.8105 Y-88.2672 I-0.2199 J-9.6539
G3 X165.7877 Y-88.2786 I0.4379 J-0.899
G3 X163.1341 Y-90.5597 I3.5161 J-6.7746
G3 X163.1209 Y-90.5781 I0.8083 J-0.5887
G3 X161.2412 Y-95.1217 I9.4871 J-6.5856
G3 X160.8203 Y-99.7882 I23.082 J-4.434
G1 Y-106.1914
G3 X161.8203 Y-107.1914 I1.0 J0.0
G1 X178.9531
G3 X179.6154 Y-106.9406 I0.0 J1.0
G0 Z3.0
G0 X157.8061 Y-106.2242
G0 Z1.0
G1 F300.0 Z-1.0
G3 F800.0 X157.8066 Y-106.1914 I-0.9995 J0.0328
G1 Y-100.4861
G3 X157.3126 Y-96.4345 I-15.4593 J0.1707
G3 X155.3893 Y-92.6423 I-9.5944 J-2.4821
G3 X155.3812 Y-92.6325 I-0.7741 J-0.6331
G3 X152.1603 Y-90.3171 I-6.1578 J-5.1681
G3 X152.1477 Y-90.3123 I-0.3653 J-0.9309
G3 X148.3767 Y-89.6522 I-3.6279 J-9.6239
G3 X144.7279 Y-90.4027 I-0.1769 J-8.385
G3 X144.6853 Y-90.4233 I0.414 J-0.9103
G3 X141.1331 Y-94.7405 I3.2154 J-6.2656
G3 X140.4336 Y-99.7938 I15.4563 J-4.7147
G1 Y-106.1914
G3 X141.4336 Y-107.1914 I1.0 J0.0
G1 X156.8066
G3 X157.8061 Y-106.2242 I0.0 J1.0
G1 F300.0 Z-2.0
G3 F800.0 X157.8066 Y-106.1914 I-0.9995 J0.0328
G1 Y-100.4861
G3 X157.3126 Y-96.4345 I-15.4593 J0.1707
G3 X155.3893 Y-92.6423 I-9.5944 J-2.4821
G3 X155.3812 Y-92.6325 I-0.7741 J-0.6331
G3 X152.1603 Y-90.3171 I-6.1578 J-5.1681
G3 X152.1477 Y-90.3123 I-0.3653 J-0.9309
G3 X148.3767 Y-89.6522 I-3.6279 J-9.6239
G3 X144.7279 Y-90.4027 I-0.1769 J-8.385
G3 X144.6853 Y-90.4233 I0.414 J-0.9103
G3 X141.1331 Y-94.7405 I3.2154 J-6.2656
G3 X140.4336 Y-99.7938 I15.4563 J-4.7147
G1 Y-106.1914
G3 X141.4336 Y-107.1914 I1.0 J0.0
G1 X156.8066
G3 X157.8061 Y-106.2242 I0.0 J1.0
G1 F300.0 Z-3.0
G3 F800.0 X157.8066 Y-106.1914 I-0.9995 J0.0328
G1 Y-100.4861
G3 X157.3126 Y-96.4345 I-15.4593 J0.1707
G3 X155.3893 Y-92.6423 I-9.5944 J-2.4821
G3 X155.3812 Y-92.6325 I-0.7741 J-0.6331
G3 X152.1603 Y-90.3171 I-6.1578 J-5.1681
G3 X152.1477 Y-90.3123 I-0.3653 J-0.9309
G3 X148.3767 Y-89.6522 I-3.6279 J-9.6239
G3 X144.7279 Y-90.4027 I-0.1769 J-8.385
G3 X144.6853 Y-90.4233 I0.414 J-0.9103
G3 X141.1331 Y-94.7405 I3.2154 J-6.2656
G3 X140.4336 Y-99.7938 I15.4563 J-4.7147
G1 Y-106.1914
G3 X141.4336 Y-107.1914 I1.0 J0.0
G1 X156.8066
G3 X157.8061 Y-106.2242 I0.0 J1.0
G1 F300.0 Z-4.0
G3 F800.0 X157.8066 Y-106.1914 I-0.9995 J0.0328
G1 Y-100.4861
G3 X157.3126 Y-96.4345 I-15.4593 J0.1707
G3 X155.3893 Y-92.6423 I-9.5944 J-2.4821
G3 X155.3812 Y-92.6325 I-0.7741 J-0.6331
G3 X152.1603 Y-90.3171 I-6.1578 J-5.1681
G3 X152.1477 Y-90.3123 I-0.3653 J-0.9309
G3 X148.3767 Y-89.6522 I-3.6279 J-9.6239
G3 X144.7279 Y-90.4027 I-0.1769 J-8.385
G3 X144.6853 Y-90.4233 I0.414 J-0.9103
G3 X141.1331 Y-94.7405 I3.2154 J-6.2656
G3 X140.4336 Y-99.7938 I15.4563 J-4.7147
G1 Y-106.1914
G3 X141.4336 Y-107.1914 I1.0 J0.0
G1 X156.8066
G3 X157.8061 Y-106.2242 I0.0 J1.0
G1 F300.0 Z-5.0
G3 F800.0 X157.8066 Y-106.1914 I-0.9995 J0.0328
G1 Y-100.4861
G3 X157.3126 Y-96.4345 I-15.4593 J0.1707
G3 X155.3893 Y-92.6423 I-9.5944 J-2.4821
G3 X155.3812 Y-92.6325 I-0.7741 J-0.6331
G3 X152.1603 Y-90.3171 I-6.1578 J-5.1681
G3 X152.1477 Y-90.3123 I-0.3653 J-0.9309
G3 X148.3767 Y-89.6522 I-3.6279 J-9.6239
G3 X144.7279 Y-90.4027 I-0.1769 J-8.385
G3 X144.6853 Y-90.4233 I0.414 J-0.9103
G3 X141.1331 Y-94.7405 I3.2154 J-6.2656
G3 X140.4336 Y-99.7938 I15.4563 J-4.7147
G1 Y-106.1914
G3 X141.4336 Y-107.1914 I1.0 J0.0
G1 X156.8066
G3 X157.8061 Y-106.2242 I0.0 J1.0
G0 Z3.0
G0 Y-73.25
G0 Z1.0
G1 F300.0 Z-1.0
G1 F800.0 X151.0
G1 Y-69.8379
G1 X169.453
G3 X173.3956 Y-69.5135 I0.1743 J22.006
G1 X173.3957
G1 X173.3956
G3 X176.396 Y-68.604 I-2.1999 J12.6612
G3 X180.1027 Y-65.3207 I-3.0921 J7.2248
G3 X180.1225 Y-65.2849 I-0.8651 J0.5015
G3 X181.2152 Y-60.602 I-8.4259 J4.4349
G3 X177.9457 Y-53.3049 I-9.2997 J0.2143
G3 X173.9756 Y-51.0967 I-7.1798 J-8.2354
G3 X173.9704 Y-51.0951 I-0.2938 J-0.9559
G3 X169.5843 Y-50.4727 I-4.227 J-14.0214
G1 X151.0
G1 Y-47.0273
G1 X183.0
G1 Y-50.4727
G1 X178.6211
G3 X177.6211 Y-51.4727 I0.0 J-1.0
G1 Y-51.6055
G3 X178.1607 Y-52.4932 I1.0 J0.0
G2 X182.3989 Y-56.4427 I-4.9701 J-9.5822
G2 X183.7972 Y-62.0741 I-9.5986 J-5.3726
G3 X183.7971 Y-62.1172 I0.9997 J-0.0235
G2 X182.9475 Y-67.0834 I-13.4036 J-0.2626
G2 X177.8275 Y-72.0394 I-8.1123 J3.258
G3 X177.807 Y-72.0471 I0.3423 J-0.9396
G2 X174.1685 Y-72.9907 I-5.8198 J14.9535
G3 X174.1653 Y-72.9912 I0.1359 J-0.9907
G2 X170.3253 Y-73.25 I-3.7062 J26.3703
G3 X170.3203 I-0.005 J-1.0
G1 X157.8061
G1 F300.0 Z-2.0
G1 F800.0 X151.0
G1 Y-69.8379
G1 X169.453
G3 X173.3956 Y-69.5135 I0.1743 J22.006
G1 X173.3957
G1 X173.3956
G3 X176.396 Y-68.604 I-2.1999 J12.6612
G3 X180.1027 Y-65.3207 I-3.0921 J7.2248
G3 X180.1225 Y-65.2849 I-0.8651 J0.5015
G3 X181.2152 Y-60.602 I-8.4259 J4.4349
G3 X177.9457 Y-53.3049 I-9.2997 J0.2143
G3 X173.9756 Y-51.0967 I-7.1798 J-8.2354
G3 X173.9704 Y-51.0951 I-0.2938 J-0.9559
G3 X169.5843 Y-50.4727 I-4.227 J-14.0214
G1 X151.0
G1 Y-47.0273
G1 X183.0
G1 Y-50.4727
G1 X178.6211
G3 X177.6211 Y-51.4727 I0.0 J-1.0
G1 Y-51.6055
G3 X178.1607 Y-52.4932 I1.0 J0.0
G2 X182.3989 Y-56.4427 I-4.9701 J-9.5822
G2 X183.7972 Y-62.0741 I-9.5986 J-5.3726
G3 X183.7971 Y-62.1172 I0.9997 J-0.0235
G2 X182.9475 Y-67.0834 I-13.4036 J-0.2626
G2 X177.8275 Y-72.0394 I-8.1123 J3.258
G3 X177.807 Y-72.0471 I0.3423 J-0.9396
G2 X174.1685 Y-72.9907 I-5.8198 J14.9535
G3 X174.1653 Y-72.9912 I0.1359 J-0.9907
G2 X170.3253 Y-73.25 I-3.7062 J26.3703
G3 X170.3203 I-0.005 J-1.0
G1 X157.8061
G1 F300.0 Z-3.0
G1 F800.0 X151.0
G1 Y-69.8379
G1 X169.453
G3 X173.3956 Y-69.5135 I0.1743 J22.006
G1 X173.3957
G1 X173.3956
G3 X176.396 Y-68.604 I-2.1999 J12.6612
G3 X180.1027 Y-65.3207 I-3.0921 J7.2248
G3 X180.1225 Y-65.2849 I-0.8651 J0.5015
G3 X181.2152 Y-60.602 I-8.4259 J4.4349
G3 X177.9457 Y-53.3049 I-9.2997 J0.2143
G3 X173.9756 Y-51.0967 I-7.1798 J-8.2354
G3 X173.9704 Y-51.0951 I-0.2938 J-0.9559
G3 X169.5843 Y-50.4727 I-4.227 J-14.0214
G1 X151.0
G1 Y-47.0273
G1 X183.0
G1 Y-50.4727
G1 X178.6211
G3 X177.6211 Y-51.4727 I0.0 J-1.0
G1 Y-51.6055
G3 X178.1607 Y-52.4932 I1.0 J0.0
G2 X182.3989 Y-56.4427 I-4.9701 J-9.5822
G2 X183.7972 Y-62.0741 I-9.5986 J-5.3726
G3 X183.7971 Y-62.1172 I0.9997 J-0.0235
G2 X182.9475 Y-67.0834 I-13.4036 J-0.2626
G2 X177.8275 Y-72.0394 I-8.1123 J3.258
G3 X177.807 Y-72.0471 I0.3423 J-0.9396
G2 X174.1685 Y-72.9907 I-5.8198 J14.9535
G3 X174.1653 Y-72.9912 I0.1359 J-0.9907
G2 X170.3253 Y-73.25 I-3.7062 J26.3703
G3 X170.3203 I-0.005 J-1.0
G1 X157.8061
G1 F300.0 Z-4.0
G1 F800.0 X151.0
G1 Y-69.8379
G1 X169.453
G3 X173.3956 Y-69.5135 I0.1743 J22.006
G1 X173.3957
G1 X173.3956
G3 X176.396 Y-68.604 I-2.1999 J12.6612
G3 X180.1027 Y-65.3207 I-3.0921 J7.2248
G3 X180.1225 Y-65.2849 I-0.8651 J0.5015
G3 X181.2152 Y-60.602 I-8.4259 J4.4349
G3 X177.9457 Y-53.3049 I-9.2997 J0.2143
G3 X173.9756 Y-51.0967 I-7.1798 J-8.2354
G3 X173.9704 Y-51.0951 I-0.2938 J-0.9559
G3 X169.5843 Y-50.4727 I-4.227 J-14.0214
G1 X151.0
G1 Y-47.0273
G1 X183.0
G1 Y-50.4727
G1 X178.6211
G3 X177.6211 Y-51.4727 I0.0 J-1.0
G1 Y-51.6055
G3 X178.1607 Y-52.4932 I1.0 J0.0
G2 X182.3989 Y-56.4427 I-4.9701 J-9.5822
G2 X183.7972 Y-62.0741 I-9.5986 J-5.3726
G3 X183.7971 Y-62.1172 I0.9997 J-0.0235
G2 X182.9475 Y-67.0834 I-13.4036 J-0.2626
G2 X177.8275 Y-72.0394 I-8.1123 J3.258
G3 X177.807 Y-72.0471 I0.3423 J-0.9396
G2 X174.1685 Y-72.9907 I-5.8198 J14.9535
G3 X174.1653 Y-72.9912 I0.1359 J-0.9907
G2 X170.3253 Y-73.25 I-3.7062 J26.3703
G3 X170.3203 I-0.005 J-1.0
G1 X157.8061
G1 F300.0 Z-5.0
G1 F800.0 X151.0
G1 Y-69.8379
G1 X169.453
G3 X173.3956 Y-69.5135 I0.1743 J22.006
G1 X173.3957
G1 X173.3956
G3 X176.396 Y-68.604 I-2.1999 J12.6612
G3 X180.1027 Y-65.3207 I-3.0921 J7.2248
G3 X180.1225 Y-65.2849 I-0.8651 J0.5015
G3 X181.2152 Y-60.602 I-8.4259 J4.4349
G3 X177.9457 Y-53.3049 I-9.2997 J0.2143
G3 X173.9756 Y-51.0967 I-7.1798 J-8.2354
G3 X173.9704 Y-51.0951 I-0.2938 J-0.9559
G3 X169.5843 Y-50.4727 I-4.227 J-14.0214
G1 X151.0
G1 Y-47.0273
G1 X183.0
G1 Y-50.4727
G1 X178.6211
G3 X177.6211 Y-51.4727 I0.0 J-1.0
G1 Y-51.6055
G3 X178.1607 Y-52.4932 I1.0 J0.0
G2 X182.3989 Y-56.4427 I-4.9701 J-9.5822
G2 X183.7972 Y-62.0741 I-9.5986 J-5.3726
G3 X183.7971 Y-62.1172 I0.9997 J-0.0235
G2 X182.9475 Y-67.0834 I-13.4036 J-0.2626
G2 X177.8275 Y-72.0394 I-8.1123 J3.258
G3 X177.807 Y-72.0471 I0.3423 J-0.9396
G2 X174.1685 Y-72.9907 I-5.8198 J14.9535
G3 X174.1653 Y-72.9912 I0.1359 J-0.9907
G2 X170.3253 Y-73.25 I-3.7062 J26.3703
G3 X170.3203 I-0.005 J-1.0
G1 X157.8061
G0 Z3.0
G0 X142.3951 Y-67.1241
G0 Z1.0
G1 F300.0 Z-1.0
G2 F800.0 X141.8861 Y-67.9009 I-2.1536 J0.8561
G3 X141.8843 Y-67.9026 I0.7096 J-0.7046
G2 X140.2774 Y-68.5684 I-1.5937 J1.5746
G3 X140.2441 Y-68.5687 I-0.0059 J-1.0
G2 X138.6577 Y-67.9349 I-0.0591 J2.1543
G2 X138.0174 Y-66.3325 I1.5845 J1.5622
G3 X138.0175 Y-66.3033 I-0.9998 J0.0181
G2 X138.6867 Y-64.665 I2.278 J0.0254
G3 X138.7238 Y-64.626 I-0.7062 J0.708
G2 X140.2537 Y-63.9608 I1.4942 J-1.3447
G3 X140.2872 I0.0178 J0.9998
G2 X141.8775 Y-64.6197 I0.034 J-2.1668
G3 X141.9035 Y-64.6455 I0.7182 J0.6958
G2 X142.5586 Y-66.2044 I-1.4739 J-1.5366
G3 X142.5587 Y-66.2309 I0.9999 J-0.0105
G2 X142.3951 Y-67.1241 I-2.3172 J-0.0372
G1 F300.0 Z-2.0
G2 F800.0 X141.8861 Y-67.9009 I-2.1536 J0.8561
G3 X141.8843 Y-67.9026 I0.7096 J-0.7046
G2 X140.2774 Y-68.5684 I-1.5937 J1.5746
G3 X140.2441 Y-68.5687 I-0.0059 J-1.0
G2 X138.6577 Y-67.9349 I-0.0591 J2.1543
G2 X138.0174 Y-66.3325 I1.5845 J1.5622
G3 X138.0175 Y-66.3033 I-0.9998 J0.0181
G2 X138.6867 Y-64.665 I2.278 J0.0254
G3 X138.7238 Y-64.626 I-0.7062 J0.708
G2 X140.2537 Y-63.9608 I1.4942 J-1.3447
G3 X140.2872 I0.0178 J0.9998
G2 X141.8775 Y-64.6197 I0.034 J-2.1668
G3 X141.9035 Y-64.6455 I0.7182 J0.6958
G2 X142.5586 Y-66.2044 I-1.4739 J-1.5366
G3 X142.5587 Y-66.2309 I0.9999 J-0.0105
G2 X142.3951 Y-67.1241 I-2.3172 J-0.0372
G1 F300.0 Z-3.0
G2 F800.0 X141.8861 Y-67.9009 I-2.1536 J0.8561
G3 X141.8843 Y-67.9026 I0.7096 J-0.7046
G2 X140.2774 Y-68.5684 I-1.5937 J1.5746
G3 X140.2441 Y-68.5687 I-0.0059 J-1.0
G2 X138.6577 Y-67.9349 I-0.0591 J2.1543
G2 X138.0174 Y-66.3325 I1.5845 J1.5622
G3 X138.0175 Y-66.3033 I-0.9998 J0.0181
G2 X138.6867 Y-64.665 I2.278 J0.0254
G3 X138.7238 Y-64.626 I-0.7062 J0.708
G2 X140.2537 Y-63.9608 I1.4942 J-1.3447
G3 X140.2872 I0.0178 J0.9998
G2 X141.8775 Y-64.6197 I0.034 J-2.1668
G3 X141.9035 Y-64.6455 I0.7182 J0.6958
G2 X142.5586 Y-66.2044 I-1.4739 J-1.5366
G3 X142.5587 Y-66.2309 I0.9999 J-0.0105
G2 X142.3951 Y-67.1241 I-2.3172 J-0.0372
G1 F300.0 Z-4.0
G2 F800.0 X141.8861 Y-67.9009 I-2.1536 J0.8561
G3 X141.8843 Y-67.9026 I0.7096 J-0.7046
G2 X140.2774 Y-68.5684 I-1.5937 J1.5746
G3 X140.2441 Y-68.5687 I-0.0059 J-1.0
G2 X138.6577 Y-67.9349 I-0.0591 J2.1543
G2 X138.0174 Y-66.3325 I1.5845 J1.5622
G3 X138.0175 Y-66.3033 I-0.9998 J0.0181
G2 X138.6867 Y-64.665 I2.278 J0.0254
G3 X138.7238 Y-64.626 I-0.7062 J0.708
G2 X140.2537 Y-63.9608 I1.4942 J-1.3447
G3 X140.2872 I0.0178 J0.9998
G2 X141.8775 Y-64.6197 I0.034 J-2.1668
G3 X141.9035 Y-64.6455 I0.7182 J0.6958
G2 X142.5586 Y-66.2044 I-1.4739 J-1.5366
G3 X142.5587 Y-66.2309 I0.9999 J-0.0105
G2 X142.3951 Y-67.1241 I-2.3172 J-0.0372
G1 F300.0 Z-5.0
G2 F800.0 X141.8861 Y-67.9009 I-2.1536 J0.8561
G3 X141.8843 Y-67.9026 I0.7096 J-0.7046
G2 X140.2774 Y-68.5684 I-1.5937 J1.5746
G3 X140.2441 Y-68.5687 I-0.0059 J-1.0
G2 X138.6577 Y-67.9349 I-0.0591 J2.1543
G2 X138.0174 Y-66.3325 I1.5845 J1.5622
G3 X138.0175 Y-66.3033 I-0.9998 J0.0181
G2 X138.6867 Y-64.665 I2.278 J0.0254
G3 X138.7238 Y-64.626 I-0.7062 J0.708
G2 X140.2537 Y-63.9608 I1.4942 J-1.3447
G3 X140.2872 I0.0178 J0.9998
G2 X141.8775 Y-64.6197 I0.034 J-2.1668
G3 X141.9035 Y-64.6455 I0.7182 J0.6958
G2 X142.5586 Y-66.2044 I-1.4739 J-1.5366
G3 X142.5587 Y-66.2309 I0.9999 J-0.0105
G2 X142.3951 Y-67.1241 I-2.3172 J-0.0372
G0 Z3.0
G0 X140.6824 Y-55.6965
G0 Z1.0
G1 F300.0 Z-1.0
G2 F800.0 X140.3014 Y-55.7192 I-0.317 J2.1152
G3 X140.2441 Y-55.7191 I-0.0299 J-0.9996
G2 X138.6565 Y-55.0841 I-0.0591 J2.1543
G3 X138.6447 Y-55.0724 I-0.7092 J-0.705
G2 X138.0174 Y-53.5491 I1.4464 J1.4864
G3 Y-53.5107 I-0.9998 J0.0178
G2 X138.6799 Y-51.8885 I2.2059 J0.0454
G3 X138.709 Y-51.8589 I-0.6995 J0.7147
G2 X140.2511 Y-51.2107 I1.5001 J-1.4106
G3 X140.2896 Y-51.2108 I0.0204 J0.9998
G2 X141.8931 Y-51.8522 I0.0402 J-2.2246
G3 X141.9068 Y-51.8655 I0.7026 J0.7116
G2 X142.5589 Y-53.4396 I-1.4456 J-1.521
G3 X142.5587 Y-53.478 I0.9997 J-0.0253
G2 X141.9209 Y-55.0497 I-2.1849 J-0.0286
G3 X141.9078 Y-55.0631 I0.708 J-0.7062
G2 X140.6824 Y-55.6965 I-1.5424 J1.4817
G1 F300.0 Z-2.0
G2 F800.0 X140.3014 Y-55.7192 I-0.317 J2.1152
G3 X140.2441 Y-55.7191 I-0.0299 J-0.9996
G2 X138.6565 Y-55.0841 I-0.0591 J2.1543
G3 X138.6447 Y-55.0724 I-0.7092 J-0.705
G2 X138.0174 Y-53.5491 I1.4464 J1.4864
G3 Y-53.5107 I-0.9998 J0.0178
G2 X138.6799 Y-51.8885 I2.2059 J0.0454
G3 X138.709 Y-51.8589 I-0.6995 J0.7147
G2 X140.2511 Y-51.2107 I1.5001 J-1.4106
G3 X140.2896 Y-51.2108 I0.0204 J0.9998
G2 X141.8931 Y-51.8522 I0.0402 J-2.2246
G3 X141.9068 Y-51.8655 I0.7026 J0.7116
G2 X142.5589 Y-53.4396 I-1.4456 J-1.521
G3 X142.5587 Y-53.478 I0.9997 J-0.0253
G2 X141.9209 Y-55.0497 I-2.1849 J-0.0286
G3 X141.9078 Y-55.0631 I0.708 J-0.7062
G2 X140.6824 Y-55.6965 I-1.5424 J1.4817
G1 F300.0 Z-3.0
G2 F800.0 X140.3014 Y-55.7192 I-0.317 J2.1152
G3 X140.2441 Y-55.7191 I-0.0299 J-0.9996
G2 X138.6565 Y-55.0841 I-0.0591 J2.1543
G3 X138.6447 Y-55.0724 I-0.7092 J-0.705
G2 X138.0174 Y-53.5491 I1.4464 J1.4864
G3 Y-53.5107 I-0.9998 J0.0178
G2 X138.6799 Y-51.8885 I2.2059 J0.0454
G3 X138.709 Y-51.8589 I-0.6995 J0.7147
G2 X140.2511 Y-51.2107 I1.5001 J-1.4106
G3 X140.2896 Y-51.2108 I0.0204 J0.9998
G2 X141.8931 Y-51.8522 I0.0402 J-2.2246
G3 X141.9068 Y-51.8655 I0.7026 J0.7116
G2 X142.5589 Y-53.4396 I-1.4456 J-1.521
G3 X142.5587 Y-53.478 I0.9997 J-0.0253
G2 X141.9209 Y-55.0497 I-2.1849 J-0.0286
G3 X141.9078 Y-55.0631 I0.708 J-0.7062
G2 X140.6824 Y-55.6965 I-1.5424 J1.4817
G1 F300.0 Z-4.0
G2 F800.0 X140.3014 Y-55.7192 I-0.317 J2.1152
G3 X140.2441 Y-55.7191 I-0.0299 J-0.9996
G2 X138.6565 Y-55.0841 I-0.0591 J2.1543
G3 X138.6447 Y-55.0724 I-0.7092 J-0.705
G2 X138.0174 Y-53.5491 I1.4464 J1.4864
G3 Y-53.5107 I-0.9998 J0.0178
G2 X138.6799 Y-51.8885 I2.2059 J0.0454
G3 X138.709 Y-51.8589 I-0.6995 J0.7147
G2 X140.2511 Y-51.2107 I1.5001 J-1.4106
G3 X140.2896 Y-51.2108 I0.0204 J0.9998
G2 X141.8931 Y-51.8522 I0.0402 J-2.2246
G3 X141.9068 Y-51.8655 I0.7026 J0.7116
G2 X142.5589 Y-53.4396 I-1.4456 J-1.521
G3 X142.5587 Y-53.478 I0.9997 J-0.0253
G2 X141.9209 Y-55.0497 I-2.1849 J-0.0286
G3 X141.9078 Y-55.0631 I0.708 J-0.7062
G2 X140.6824 Y-55.6965 I-1.5424 J1.4817
G1 F300.0 Z-5.0
G2 F800.0 X140.3014 Y-55.7192 I-0.317 J2.1152
G3 X140.2441 Y-55.7191 I-0.0299 J-0.9996
G2 X138.6565 Y-55.0841 I-0.0591 J2.1543
G3 X138.6447 Y-55.0724 I-0.7092 J-0.705
G2 X138.0174 Y-53.5491 I1.4464 J1.4864
G3 Y-53.5107 I-0.9998 J0.0178
G2 X138.6799 Y-51.8885 I2.2059 J0.0454
G3 X138.709 Y-51.8589 I-0.6995 J0.7147
G2 X140.2511 Y-51.2107 I1.5001 J-1.4106
G3 X140.2896 Y-51.2108 I0.0204 J0.9998
G2 X141.8931 Y-51.8522 I0.0402 J-2.2246
G3 X141.9068 Y-51.8655 I0.7026 J0.7116
G2 X142.5589 Y-53.4396 I-1.4456 J-1.521
G3 X142.5587 Y-53.478 I0.9997 J-0.0253
G2 X141.9209 Y-55.0497 I-2.1849 J-0.0286
G3 X141.9078 Y-55.0631 I0.708 J-0.7062
G2 X140.6824 Y-55.6965 I-1.5424 J1.4817
G0 Z3.0
G0 Y-34.0371
G0 Z1.0
G1 F300.0 Z-1.0
G1 F800.0 X134.6641
G1 Y-30.5918
G1 X155.6445
G3 X156.6445 Y-29.5918 I0.0 J1.0
G1 Y-29.459
G3 X156.1457 Y-28.5937 I-1.0 J0.0
G2 X151.7178 Y-24.2765 I6.3198 J10.9113
G2 X150.2029 Y-18.3221 I10.0648 J5.7305
G3 Y-18.2827 I-0.9998 J0.0193
G2 X151.0229 Y-13.5841 I12.4437 J0.2491
G2 X155.911 Y-8.9446 I7.6525 J-3.1676
G3 X155.9335 Y-8.9363 I-0.3338 J0.9426
G2 X159.392 Y-8.0565 I5.5311 J-14.5052
G3 X159.3953 Y-8.056 I-0.1335 J0.991
G2 X163.0439 Y-7.8144 I3.5214 J-25.5108
G3 X163.0488 Y-7.8145 I0.0049 J1.0
G1 X183.0
G1 Y-11.2598
G1 X164.4139
G3 X160.5735 Y-11.5619 I-0.168 J-22.426
G3 X157.6414 Y-12.4082 I2.1438 J-12.9291
G3 X153.936 Y-15.5289 I2.9007 J-7.2044
G3 X153.9131 Y-15.5679 I0.8506 J-0.5258
G3 X152.785 Y-20.171 I7.8123 J-4.3545
G3 X156.2198 Y-27.6265 I9.5966 J-0.0977
G3 X160.2446 Y-29.9247 I7.4675 J8.4042
G3 X160.251 Y-29.9267 I0.3062 J0.952
G3 X164.7477 Y-30.5918 I4.3406 J13.8132
G1 X183.0
G1 Y-34.0371
G1 X140.6824
G1 F300.0 Z-2.0
G1 F800.0 X134.6641
G1 Y-30.5918
G1 X155.6445
G3 X156.6445 Y-29.5918 I0.0 J1.0
G1 Y-29.459
G3 X156.1457 Y-28.5937 I-1.0 J0.0
G2 X151.7178 Y-24.2765 I6.3198 J10.9113
G2 X150.2029 Y-18.3221 I10.0648 J5.7305
G3 Y-18.2827 I-0.9998 J0.0193
G2 X151.0229 Y-13.5841 I12.4437 J0.2491
G2 X155.911 Y-8.9446 I7.6525 J-3.1676
G3 X155.9335 Y-8.9363 I-0.3338 J0.9426
G2 X159.392 Y-8.0565 I5.5311 J-14.5052
G3 X159.3953 Y-8.056 I-0.1335 J0.991
G2 X163.0439 Y-7.8144 I3.5214 J-25.5108
G3 X163.0488 Y-7.8145 I0.0049 J1.0
G1 X183.0
G1 Y-11.2598
G1 X164.4139
G3 X160.5735 Y-11.5619 I-0.168 J-22.426
G3 X157.6414 Y-12.4082 I2.1438 J-12.9291
G3 X153.936 Y-15.5289 I2.9007 J-7.2044
G3 X153.9131 Y-15.5679 I0.8506 J-0.5258
G3 X152.785 Y-20.171 I7.8123 J-4.3545
G3 X156.2198 Y-27.6265 I9.5966 J-0.0977
G3 X160.2446 Y-29.9247 I7.4675 J8.4042
G3 X160.251 Y-29.9267 I0.3062 J0.952
G3 X164.7477 Y-30.5918 I4.3406 J13.8132
G1 X183.0
G1 Y-34.0371
G1 X140.6824
G1 F300.0 Z-3.0
G1 F800.0 X134.6641
G1 Y-30.5918
G1 X155.6445
G3 X156.6445 Y-29.5918 I0.0 J1.0
G1 Y-29.459
G3 X156.1457 Y-28.5937 I-1.0 J0.0
G2 X151.7178 Y-24.2765 I6.3198 J10.9113
G2 X150.2029 Y-18.3221 I10.0648 J5.7305
G3 Y-18.2827 I-0.9998 J0.0193
G2 X151.0229 Y-13.5841 I12.4437 J0.2491
G2 X155.911 Y-8.9446 I7.6525 J-3.1676
G3 X155.9335 Y-8.9363 I-0.3338 J0.9426
G2 X159.392 Y-8.0565 I5.5311 J-14.5052
G3 X159.3953 Y-8.056 I-0.1335 J0.991
G2 X163.0439 Y-7.8144 I3.5214 J-25.5108
G3 X163.0488 Y-7.8145 I0.0049 J1.0
G1 X183.0
G1 Y-11.2598
G1 X164.4139
G3 X160.5735 Y-11.5619 I-0.168 J-22.426
G3 X157.6414 Y-12.4082 I2.1438 J-12.9291
G3 X153.936 Y-15.5289 I2.9007 J-7.2044
G3 X153.9131 Y-15.5679 I0.8506 J-0.5258
G3 X152.785 Y-20.171 I7.8123 J-4.3545
G3 X156.2198 Y-27.6265 I9.5966 J-0.0977
G3 X160.2446 Y-29.9247 I7.4675 J8.4042
G3 X160.251 Y-29.9267 I0.3062 J0.952
G3 X164.7477 Y-30.5918 I4.3406 J13.8132
G1 X183.0
G1 Y-34.0371
G1 X140.6824
G1 F300.0 Z-4.0
G1 F800.0 X134.6641
G1 Y-30.5918
G1 X155.6445
G3 X156.6445 Y-29.5918 I0.0 J1.0
G1 Y-29.459
G3 X156.1457 Y-28.5937 I-1.0 J0.0
G2 X151.7178 Y-24.2765 I6.3198 J10.9113
G2 X150.2029 Y-18.3221 I10.0648 J5.7305
G3 Y-18.2827 I-0.9998 J0.0193
G2 X151.0229 Y-13.5841 I12.4437 J0.2491
G2 X155.911 Y-8.9446 I7.6525 J-3.1676
G3 X155.9335 Y-8.9363 I-0.3338 J0.9426
G2 X159.392 Y-8.0565 I5.5311 J-14.5052
G3 X159.3953 Y-8.056 I-0.1335 J0.991
G2 X163.0439 Y-7.8144 I3.5214 J-25.5108
G3 X163.0488 Y-7.8145 I0.0049 J1.0
G1 X183.0
G1 Y-11.2598
G1 X164.4139
G3 X160.5735 Y-11.5619 I-0.168 J-22.426
G3 X157.6414 Y-12.4082 I2.1438 J-12.9291
G3 X153.936 Y-15.5289 I2.9007 J-7.2044
G3 X153.9131 Y-15.5679 I0.8506 J-0.5258
G3 X152.785 Y-20.171 I7.8123 J-4.3545
G3 X156.2198 Y-27.6265 I9.5966 J-0.0977
G3 X160.2446 Y-29.9247 I7.4675 J8.4042
G3 X160.251 Y-29.9267 I0.3062 J0.952
G3 X164.7477 Y-30.5918 I4.3406 J13.8132
G1 X183.0
G1 Y-34.0371
G1 X140.6824
G1 F300.0 Z-5.0
G1 F800.0 X134.6641
G1 Y-30.5918
G1 X155.6445
G3 X156.6445 Y-29.5918 I0.0 J1.0
G1 Y-29.459
G3 X156.1457 Y-28.5937 I-1.0 J0.0
G2 X151.7178 Y-24.2765 I6.3198 J10.9113
G2 X150.2029 Y-18.3221 I10.0648 J5.7305
G3 Y-18.2827 I-0.9998 J0.0193
G2 X151.0229 Y-13.5841 I12.4437 J0.2491
G2 X155.911 Y-8.9446 I7.6525 J-3.1676
G3 X155.9335 Y-8.9363 I-0.3338 J0.9426
G2 X159.392 Y-8.0565 I5.5311 J-14.5052
G3 X159.3953 Y-8.056 I-0.1335 J0.991
G2 X163.0439 Y-7.8144 I3.5214 J-25.5108
G3 X163.0488 Y-7.8145 I0.0049 J1.0
G1 X183.0
G1 Y-11.2598
G1 X164.4139
G3 X160.5735 Y-11.5619 I-0.168 J-22.426
G3 X157.6414 Y-12.4082 I2.1438 J-12.9291
G3 X153.936 Y-15.5289 I2.9007 J-7.2044
G3 X153.9131 Y-15.5679 I0.8506 J-0.5258
G3 X152.785 Y-20.171 I7.8123 J-4.3545
G3 X156.2198 Y-27.6265 I9.5966 J-0.0977
G3 X160.2446 Y-29.9247 I7.4675 J8.4042
G3 X160.251 Y-29.9267 I0.3062 J0.952
G3 X164.7477 Y-30.5918 I4.3406 J13.8132
G1 X183.0
G1 Y-34.0371
G1 X140.6824
G0 Z3.0
G0 Y4.4453
G0 Z1.0
G1 F300.0 Z-1.0
G1 F800.0 X134.6641
G1 Y7.8906
G1 X183.0
G1 Y4.4453
G1 X140.6824
G1 F300.0 Z-2.0
G1 F800.0 X134.6641
G1 Y7.8906
G1 X183.0
G1 Y4.4453
G1 X140.6824
G1 F300.0 Z-3.0
G1 F800.0 X134.6641
G1 Y7.8906
G1 X183.0
G1 Y4.4453
G1 X140.6824
G1 F300.0 Z-4.0
G1 F800.0 X134.6641
G1 Y7.8906
G1 X183.0
G1 Y4.4453
G1 X140.6824
G1 F300.0 Z-5.0
G1 F800.0 X134.6641
G1 Y7.8906
G1 X183.0
G1 Y4.4453
G1 X140.6824
G0 Z3.0
G0 Y20.9141
G0 Z1.0
G1 F300.0 Z-1.0
G1 F800.0 X134.6641
G1 Y24.3594
G1 X155.6445
G3 X156.6445 Y25.3594 I0.0 J1.0
G1 Y25.4922
G3 X156.1457 Y26.3575 I-1.0 J0.0
G2 X151.7178 Y30.6746 I6.3198 J10.9113
G2 X150.2029 Y36.6291 I10.0648 J5.7305
G3 Y36.6685 I-0.9998 J0.0193
G2 X151.0229 Y41.367 I12.4437 J0.2491
G2 X155.911 Y46.0066 I7.6525 J-3.1676
G3 X155.9335 Y46.0149 I-0.3338 J0.9426
G2 X159.392 Y46.8947 I5.5311 J-14.5052
G3 X159.3953 Y46.8952 I-0.1335 J0.991
G2 X163.0439 Y47.1367 I3.5214 J-25.5108
G3 X163.0488 I0.0049 J1.0
G1 X183.0
G1 Y43.6914
G1 X164.4139
G3 X160.5735 Y43.3893 I-0.168 J-22.426
G3 X157.6414 Y42.543 I2.1438 J-12.9291
G3 X153.936 Y39.4222 I2.9007 J-7.2044
G3 X153.9131 Y39.3833 I0.8506 J-0.5258
G3 X152.785 Y34.7802 I7.8123 J-4.3545
G3 X156.2198 Y27.3247 I9.5966 J-0.0977
G3 X160.2446 Y25.0265 I7.4675 J8.4042
G3 X160.251 Y25.0245 I0.3062 J0.952
G3 X164.7477 Y24.3594 I4.3406 J13.8132
G1 X183.0
G1 Y20.9141
G1 X140.6824
G1 F300.0 Z-2.0
G1 F800.0 X134.6641
G1 Y24.3594
G1 X155.6445
G3 X156.6445 Y25.3594 I0.0 J1.0
G1 Y25.4922
G3 X156.1457 Y26.3575 I-1.0 J0.0
G2 X151.7178 Y30.6746 I6.3198 J10.9113
G2 X150.2029 Y36.6291 I10.0648 J5.7305
G3 Y36.6685 I-0.9998 J0.0193
G2 X151.0229 Y41.367 I12.4437 J0.2491
G2 X155.911 Y46.0066 I7.6525 J-3.1676
G3 X155.9335 Y46.0149 I-0.3338 J0.9426
G2 X159.392 Y46.8947 I5.5311 J-14.5052
G3 X159.3953 Y46.8952 I-0.1335 J0.991
G2 X163.0439 Y47.1367 I3.5214 J-25.5108
G3 X163.0488 I0.0049 J1.0
G1 X183.0
G1 Y43.6914
G1 X164.4139
G3 X160.5735 Y43.3893 I-0.168 J-22.426
G3 X157.6414 Y42.543 I2.1438 J-12.9291
G3 X153.936 Y39.4222 I2.9007 J-7.2044
G3 X153.9131 Y39.3833 I0.8506 J-0.5258
G3 X152.785 Y34.7802 I7.8123 J-4.3545
G3 X156.2198 Y27.3247 I9.5966 J-0.0977
G3 X160.2446 Y25.0265 I7.4675 J8.4042
G3 X160.251 Y25.0245 I0.3062 J0.952
G3 X164.7477 Y24.3594 I4.3406 J13.8132
G1 X183.0
G1 Y20.9141
G1 X140.6824
G1 F300.0 Z-3.0
G1 F800.0 X134.6641
G1 Y24.3594
G1 X155.6445
G3 X156.6445 Y25.3594 I0.0 J1.0
G1 Y25.4922
G3 X156.1457 Y26.3575 I-1.0 J0.0
G2 X151.7178 Y30.6746 I6.3198 J10.9113
G2 X150.2029 Y36.6291 I10.0648 J5.7305
G3 Y36.6685 I-0.9998 J0.0193
G2 X151.0229 Y41.367 I12.4437 J0.2491
G2 X155.911 Y46.0066 I7.6525 J-3.1676
G3 X155.9335 Y46.0149 I-0.3338 J0.9426
G2 X159.392 Y46.8947 I5.5311 J-14.5052
G3 X159.3953 Y46.8952 I-0.1335 J0.991
G2 X163.0439 Y47.1367 I3.5214 J-25.5108
G3 X163.0488 I0.0049 J1.0
G1 X183.0
G1 Y43.6914
G1 X164.4139
G3 X160.5735 Y43.3893 I-0.168 J-22.426
G3 X157.6414 Y42.543 I2.1438 J-12.9291
G3 X153.936 Y39.4222 I2.9007 J-7.2044
G3 X153.9131 Y39.3833 I0.8506 J-0.5258
G3 X152.785 Y34.7802 I7.8123 J-4.3545
G3 X156.2198 Y27.3247 I9.5966 J-0.0977
G3 X160.2446 Y25.0265 I7.4675 J8.4042
G3 X160.251 Y25.0245 I0.3062 J0.952
G3 X164.7477 Y24.3594 I4.3406 J13.8132
G1 X183.0
G1 Y20.9141
G1 X140.6824
G1 F300.0 Z-4.0
G1 F800.0 X134.6641
G1 Y24.3594
G1 X155.6445
G3 X156.6445 Y25.3594 I0.0 J1.0
G1 Y25.4922
G3 X156.1457 Y26.3575 I-1.0 J0.0
G2 X151.7178 Y30.6746 I6.3198 J10.9113
G2 X150.2029 Y36.6291 I10.0648 J5.7305
G3 Y36.6685 I-0.9998 J0.0193
G2 X151.0229 Y41.367 I12.4437 J0.2491
G2 X155.911 Y46.0066 I7.6525 J-3.1676
G3 X155.9335 Y46.0149 I-0.3338 J0.9426
G2 X159.392 Y46.8947 I5.5311 J-14.5052
G3 X159.3953 Y46.8952 I-0.1335 J0.991
G2 X163.0439 Y47.1367 I3.5214 J-25.5108
G3 X163.0488 I0.0049 J1.0
G1 X183.0
G1 Y43.6914
G1 X164.4139
G3 X160.5735 Y43.3893 I-0.168 J-22.426
G3 X157.6414 Y42.543 I2.1438 J-12.9291
G3 X153.936 Y39.4222 I2.9007 J-7.2044
G3 X153.9131 Y39.3833 I0.8506 J-0.5258
G3 X152.785 Y34.7802 I7.8123 J-4.3545
G3 X156.2198 Y27.3247 I9.5966 J-0.0977
G3 X160.2446 Y25.0265 I7.4675 J8.4042
G3 X160.251 Y25.0245 I0.3062 J0.952
G3 X164.7477 Y24.3594 I4.3406 J13.8132
G1 X183.0
G1 Y20.9141
G1 X140.6824
G1 F300.0 Z-5.0
G1 F800.0 X134.6641
G1 Y24.3594
G1 X155.6445
G3 X156.6445 Y25.3594 I0.0 J1.0
G1 Y25.4922
G3 X156.1457 Y26.3575 I-1.0 J0.0
G2 X151.7178 Y30.6746 I6.3198 J10.9113
G2 X150.2029 Y36.6291 I10.0648 J5.7305
G3 Y36.6685 I-0.9998 J0.0193
G2 X151.0229 Y41.367 I12.4437 J0.2491
G2 X155.911 Y46.0066 I7.6525 J-3.1676
G3 X155.9335 Y46.0149 I-0.3338 J0.9426
G2 X159.392 Y46.8947 I5.5311 J-14.5052
G3 X159.3953 Y46.8952 I-0.1335 J0.991
G2 X163.0439 Y47.1367 I3.5214 J-25.5108
G3 X163.0488 I0.0049 J1.0
G1 X183.0
G1 Y43.6914
G1 X164.4139
G3 X160.5735 Y43.3893 I-0.168 J-22.426
G3 X157.6414 Y42.543 I2.1438 J-12.9291
G3 X153.936 Y39.4222 I2.9007 J-7.2044
G3 X153.9131 Y39.3833 I0.8506 J-0.5258
G3 X152.785 Y34.7802 I7.8123 J-4.3545
G3 X156.2198 Y27.3247 I9.5966 J-0.0977
G3 X160.2446 Y25.0265 I7.4675 J8.4042
G3 X160.251 Y25.0245 I0.3062 J0.952
G3 X164.7477 Y24.3594 I4.3406 J13.8132
G1 X183.0
G1 Y20.9141
G1 X140.6824
G0 Z3.0
G0 X158.5933 Y58.7945
G0 Z1.0
G1 F300.0 Z-1.0
G2 F800.0 X154.7125 Y61.473 I6.2314 J13.1791
G2 X151.234 Y66.9038 I9.8011 J10.1071
G2 X150.203 Y73.3908 I18.2508 J6.226
G3 Y73.4192 I-0.9999 J0.0135
G2 X151.191 Y79.5071 I17.6363 J0.262
G2 X154.5549 Y84.5156 I11.7419 J-4.2525
G2 X160.2443 Y87.6652 I9.6396 J-10.6991
G2 X166.8547 Y88.5411 I6.3205 J-22.3194
G3 X166.8795 I0.0125 J0.9999
G2 X173.5379 Y87.5558 I0.2605 J-21.2314
G2 X179.2322 Y84.1962 I-4.6659 J-14.4136
G3 X179.2344 Y84.1941 I0.6838 J0.7296
G2 X182.7397 Y78.9466 I-9.3602 J-10.0471
G2 X183.797 Y72.6212 I-16.9071 J-6.077
G3 Y72.5939 I0.9999 J-0.0138
G2 X182.7665 Y66.4187 I-17.5907 J-0.2381
G2 X179.3639 Y61.2833 I-12.7158 J4.7302
G2 X173.8553 Y58.0303 I-10.0673 J10.7571
G2 X167.4106 Y57.0722 I-6.1949 J19.5156
G3 X167.3852 I-0.0122 J-0.9999
G2 X160.5353 Y58.0409 I-0.2995 J22.5854
G2 X158.5933 Y58.7945 I4.2895 J13.9327
G1 F300.0 Z-2.0
G2 F800.0 X154.7125 Y61.473 I6.2314 J13.1791
G2 X151.234 Y66.9038 I9.8011 J10.1071
G2 X150.203 Y73.3908 I18.2508 J6.226
G3 Y73.4192 I-0.9999 J0.0135
G2 X151.191 Y79.5071 I17.6363 J0.262
G2 X154.5549 Y84.5156 I11.7419 J-4.2525
G2 X160.2443 Y87.6652 I9.6396 J-10.6991
G2 X166.8547 Y88.5411 I6.3205 J-22.3194
G3 X166.8795 I0.0125 J0.9999
G2 X173.5379 Y87.5558 I0.2605 J-21.2314
G2 X179.2322 Y84.1962 I-4.6659 J-14.4136
G3 X179.2344 Y84.1941 I0.6838 J0.7296
G2 X182.7397 Y78.9466 I-9.3602 J-10.0471
G2 X183.797 Y72.6212 I-16.9071 J-6.077
G3 Y72.5939 I0.9999 J-0.0138
G2 X182.7665 Y66.4187 I-17.5907 J-0.2381
G2 X179.3639 Y61.2833 I-12.7158 J4.7302
G2 X173.8553 Y58.0303 I-10.0673 J10.7571
G2 X167.4106 Y57.0722 I-6.1949 J19.5156
G3 X167.3852 I-0.0122 J-0.9999
G2 X160.5353 Y58.0409 I-0.2995 J22.5854
G2 X158.5933 Y58.7945 I4.2895 J13.9327
G1 F300.0 Z-3.0
G2 F800.0 X154.7125 Y61.473 I6.2314 J13.1791
G2 X151.234 Y66.9038 I9.8011 J10.1071
G2 X150.203 Y73.3908 I18.2508 J6.226
G3 Y73.4192 I-0.9999 J0.0135
G2 X151.191 Y79.5071 I17.6363 J0.262
G2 X154.5549 Y84.5156 I11.7419 J-4.2525
G2 X160.2443 Y87.6652 I9.6396 J-10.6991
G2 X166.8547 Y88.5411 I6.3205 J-22.3194
G3 X166.8795 I0.0125 J0.9999
G2 X173.5379 Y87.5558 I0.2605 J-21.2314
G2 X179.2322 Y84.1962 I-4.6659 J-14.4136
G3 X179.2344 Y84.1941 I0.6838 J0.7296
G2 X182.7397 Y78.9466 I-9.3602 J-10.0471
G2 X183.797 Y72.6212 I-16.9071 J-6.077
G3 Y72.5939 I0.9999 J-0.0138
G2 X182.7665 Y66.4187 I-17.5907 J-0.2381
G2 X179.3639 Y61.2833 I-12.7158 J4.7302
G2 X173.8553 Y58.0303 I-10.0673 J10.7571
G2 X167.4106 Y57.0722 I-6.1949 J19.5156
G3 X167.3852 I-0.0122 J-0.9999
G2 X160.5353 Y58.0409 I-0.2995 J22.5854
G2 X158.5933 Y58.7945 I4.2895 J13.9327
G1 F300.0 Z-4.0
G2 F800.0 X154.7125 Y61.473 I6.2314 J13.1791
G2 X151.234 Y66.9038 I9.8011 J10.1071
G2 X150.203 Y73.3908 I18.2508 J6.226
G3 Y73.4192 I-0.9999 J0.0135
G2 X151.191 Y79.5071 I17.6363 J0.262
G2 X154.5549 Y84.5156 I11.7419 J-4.2525
G2 X160.2443 Y87.6652 I9.6396 J-10.6991
G2 X166.8547 Y88.5411 I6.3205 J-22.3194
G3 X166.8795 I0.0125 J0.9999
G2 X173.5379 Y87.5558 I0.2605 J-21.2314
G2 X179.2322 Y84.1962 I-4.6659 J-14.4136
G3 X179.2344 Y84.1941 I0.6838 J0.7296
G2 X182.7397 Y78.9466 I-9.3602 J-10.0471
G2 X183.797 Y72.6212 I-16.9071 J-6.077
G3 Y72.5939 I0.9999 J-0.0138
G2 X182.7665 Y66.4187 I-17.5907 J-0.2381
G2 X179.3639 Y61.2833 I-12.7158 J4.7302
G2 X173.8553 Y58.0303 I-10.0673 J10.7571
G2 X167.4106 Y57.0722 I-6.1949 J19.5156
G3 X167.3852 I-0.0122 J-0.9999
G2 X160.5353 Y58.0409 I-0.2995 J22.5854
G2 X158.5933 Y58.7945 I4.2895 J13.9327
G1 F300.0 Z-5.0
G2 F800.0 X154.7125 Y61.473 I6.2314 J13.1791
G2 X151.234 Y66.9038 I9.8011 J10.1071
G2 X150.203 Y73.3908 I18.2508 J6.226
G3 Y73.4192 I-0.9999 J0.0135
G2 X151.191 Y79.5071 I17.6363 J0.262
G2 X154.5549 Y84.5156 I11.7419 J-4.2525
G2 X160.2443 Y87.6652 I9.6396 J-10.6991
G2 X166.8547 Y88.5411 I6.3205 J-22.3194
G3 X166.8795 I0.0125 J0.9999
G2 X173.5379 Y87.5558 I0.2605 J-21.2314
G2 X179.2322 Y84.1962 I-4.6659 J-14.4136
G3 X179.2344 Y84.1941 I0.6838 J0.7296
G2 X182.7397 Y78.9466 I-9.3602 J-10.0471
G2 X183.797 Y72.6212 I-16.9071 J-6.077
G3 Y72.5939 I0.9999 J-0.0138
G2 X182.7665 Y66.4187 I-17.5907 J-0.2381
G2 X179.3639 Y61.2833 I-12.7158 J4.7302
G2 X173.8553 Y58.0303 I-10.0673 J10.7571
G2 X167.4106 Y57.0722 I-6.1949 J19.5156
G3 X167.3852 I-0.0122 J-0.9999
G2 X160.5353 Y58.0409 I-0.2995 J22.5854
G2 X158.5933 Y58.7945 I4.2895 J13.9327
G0 Z3.0
G0 X159.9503 Y61.9503
G0 Z1.0
G1 F300.0 Z-1.0
G3 F800.0 X161.7549 Y61.3276 I5.11 J11.8833
G3 X167.1991 Y60.6503 I5.2163 J19.7107
G3 X172.519 Y61.3501 I0.2154 J18.934
G3 X172.5208 Y61.3506 I-0.2696 J0.963
G3 X177.3862 Y63.9849 I-3.4185 J12.1235
G1 Y63.985
G3 X180.3244 Y68.1051 I-7.189 J8.2345
G3 X180.3297 Y68.1184 I-0.9265 J0.3764
G3 X181.215 Y73.0048 I-12.1032 J4.716
G3 X180.3846 Y77.805 I-13.1275 J0.2012
G3 X180.3799 Y77.8174 I-0.9366 J-0.3503
G3 X177.428 Y81.8815 I-9.2049 J-3.5817
G3 X177.4239 Y81.8849 I-0.6331 J-0.7741
G3 X172.413 Y84.3518 I-7.9524 J-9.8304
G3 X167.0664 Y84.963 I-5.1089 J-21.0017
G3 X161.6749 Y84.3539 I-0.2403 J-22.0399
G3 X156.6134 Y81.8882 I2.9411 J-12.4651
G3 X156.6094 Y81.8849 I0.6248 J-0.7808
G3 X153.6319 Y77.8283 I6.2141 J-7.6822
G3 X153.6269 Y77.8155 I0.9302 J-0.3669
G3 X152.785 Y73.0051 I12.1764 J-4.6098
G3 X153.6951 Y68.0736 I12.853 J-0.1779
G3 X153.7009 Y68.0592 I0.9291 J0.3698
G3 X156.7277 Y63.9395 I9.954 J4.1416
G3 X159.9503 Y61.9503 I8.3326 J9.894
G1 F300.0 Z-2.0
G3 F800.0 X161.7549 Y61.3276 I5.11 J11.8833
G3 X167.1991 Y60.6503 I5.2163 J19.7107
G3 X172.519 Y61.3501 I0.2154 J18.934
G3 X172.5208 Y61.3506 I-0.2696 J0.963
G3 X177.3862 Y63.9849 I-3.4185 J12.1235
G1 Y63.985
G3 X180.3244 Y68.1051 I-7.189 J8.2345
G3 X180.3297 Y68.1184 I-0.9265 J0.3764
G3 X181.215 Y73.0048 I-12.1032 J4.716
G3 X180.3846 Y77.805 I-13.1275 J0.2012
G3 X180.3799 Y77.8174 I-0.9366 J-0.3503
G3 X177.428 Y81.8815 I-9.2049 J-3.5817
G3 X177.4239 Y81.8849 I-0.6331 J-0.7741
G3 X172.413 Y84.3518 I-7.9524 J-9.8304
G3 X167.0664 Y84.963 I-5.1089 J-21.0017
G3 X161.6749 Y84.3539 I-0.2403 J-22.0399
G3 X156.6134 Y81.8882 I2.9411 J-12.4651
G3 X156.6094 Y81.8849 I0.6248 J-0.7808
G3 X153.6319 Y77.8283 I6.2141 J-7.6822
G3 X153.6269 Y77.8155 I0.9302 J-0.3669
G3 X152.785 Y73.0051 I12.1764 J-4.6098
G3 X153.6951 Y68.0736 I12.853 J-0.1779
G3 X153.7009 Y68.0592 I0.9291 J0.3698
G3 X156.7277 Y63.9395 I9.954 J4.1416
G3 X159.9503 Y61.9503 I8.3326 J9.894
G1 F300.0 Z-3.0
G3 F800.0 X161.7549 Y61.3276 I5.11 J11.8833
G3 X167.1991 Y60.6503 I5.2163 J19.7107
G3 X172.519 Y61.3501 I0.2154 J18.934
G3 X172.5208 Y61.3506 I-0.2696 J0.963
G3 X177.3862 Y63.9849 I-3.4185 J12.1235
G1 Y63.985
G3 X180.3244 Y68.1051 I-7.189 J8.2345
G3 X180.3297 Y68.1184 I-0.9265 J0.3764
G3 X181.215 Y73.0048 I-12.1032 J4.716
G3 X180.3846 Y77.805 I-13.1275 J0.2012
G3 X180.3799 Y77.8174 I-0.9366 J-0.3503
G3 X177.428 Y81.8815 I-9.2049 J-3.5817
G3 X177.4239 Y81.8849 I-0.6331 J-0.7741
G3 X172.413 Y84.3518 I-7.9524 J-9.8304
G3 X167.0664 Y84.963 I-5.1089 J-21.0017
G3 X161.6749 Y84.3539 I-0.2403 J-22.0399
G3 X156.6134 Y81.8882 I2.9411 J-12.4651
G3 X156.6094 Y81.8849 I0.6248 J-0.7808
G3 X153.6319 Y77.8283 I6.2141 J-7.6822
G3 X153.6269 Y77.8155 I0.9302 J-0.3669
G3 X152.785 Y73.0051 I12.1764 J-4.6098
G3 X153.6951 Y68.0736 I12.853 J-0.1779
G3 X153.7009 Y68.0592 I0.9291 J0.3698
G3 X156.7277 Y63.9395 I9.954 J4.1416
G3 X159.9503 Y61.9503 I8.3326 J9.894
G1 F300.0 Z-4.0
G3 F800.0 X161.7549 Y61.3276 I5.11 J11.8833
G3 X167.1991 Y60.6503 I5.2163 J19.7107
G3 X172.519 Y61.3501 I0.2154 J18.934
G3 X172.5208 Y61.3506 I-0.2696 J0.963
G3 X177.3862 Y63.9849 I-3.4185 J12.1235
G1 Y63.985
G3 X180.3244 Y68.1051 I-7.189 J8.2345
G3 X180.3297 Y68.1184 I-0.9265 J0.3764
G3 X181.215 Y73.0048 I-12.1032 J4.716
G3 X180.3846 Y77.805 I-13.1275 J0.2012
G3 X180.3799 Y77.8174 I-0.9366 J-0.3503
G3 X177.428 Y81.8815 I-9.2049 J-3.5817
G3 X177.4239 Y81.8849 I-0.6331 J-0.7741
G3 X172.413 Y84.3518 I-7.9524 J-9.8304
G3 X167.0664 Y84.963 I-5.1089 J-21.0017
G3 X161.6749 Y84.3539 I-0.2403 J-22.0399
G3 X156.6134 Y81.8882 I2.9411 J-12.4651
G3 X156.6094 Y81.8849 I0.6248 J-0.7808
G3 X153.6319 Y77.8283 I6.2141 J-7.6822
G3 X153.6269 Y77.8155 I0.9302 J-0.3669
G3 X152.785 Y73.0051 I12.1764 J-4.6098
G3 X153.6951 Y68.0736 I12.853 J-0.1779
G3 X153.7009 Y68.0592 I0.9291 J0.3698
G3 X156.7277 Y63.9395 I9.954 J4.1416
G3 X159.9503 Y61.9503 I8.3326 J9.894
G1 F300.0 Z-5.0
G3 F800.0 X161.7549 Y61.3276 I5.11 J11.8833
G3 X167.1991 Y60.6503 I5.2163 J19.7107
G3 X172.519 Y61.3501 I0.2154 J18.934
G3 X172.5208 Y61.3506 I-0.2696 J0.963
G3 X177.3862 Y63.9849 I-3.4185 J12.1235
G1 Y63.985
G3 X180.3244 Y68.1051 I-7.189 J8.2345
G3 X180.3297 Y68.1184 I-0.9265 J0.3764
G3 X181.215 Y73.0048 I-12.1032 J4.716
G3 X180.3846 Y77.805 I-13.1275 J0.2012
G3 X180.3799 Y77.8174 I-0.9366 J-0.3503
G3 X177.428 Y81.8815 I-9.2049 J-3.5817
G3 X177.4239 Y81.8849 I-0.6331 J-0.7741
G3 X172.413 Y84.3518 I-7.9524 J-9.8304
G3 X167.0664 Y84.963 I-5.1089 J-21.0017
G3 X161.6749 Y84.3539 I-0.2403 J-22.0399
G3 X156.6134 Y81.8882 I2.9411 J-12.4651
G3 X156.6094 Y81.8849 I0.6248 J-0.7808
G3 X153.6319 Y77.8283 I6.2141 J-7.6822
G3 X153.6269 Y77.8155 I0.9302 J-0.3669
G3 X152.785 Y73.0051 I12.1764 J-4.6098
G3 X153.6951 Y68.0736 I12.853 J-0.1779
G3 X153.7009 Y68.0592 I0.9291 J0.3698
G3 X156.7277 Y63.9395 I9.954 J4.1416
G3 X159.9503 Y61.9503 I8.3326 J9.894
G0 Z3.0
G0 X153.6484 Y95.4883
G0 Z1.0
G1 F300.0 Z-1.0
G1 F800.0 X151.0
G1 Y100.2988
G3 X150.0 Y101.2988 I-1.0 J0.0
G1 X144.4883
G3 X144.4749 Y101.2987 I0.0 J-1.0
G2 X140.2679 Y101.9331 I-0.1753 J13.1046
G2 X136.761 Y104.0946 I2.8234 J8.5065
G3 X136.7542 Y104.1013 I-0.7063 J-0.7079
G2 X133.9333 Y111.0637 I6.5757 J6.717
G3 X133.933 Y111.1232 I-0.9997 J0.0261
G2 X134.2694 Y114.041 I9.9475 J0.3316
G1 X136.9343
G3 X136.5487 Y111.4243 I7.8772 J-2.4975
G3 X137.1191 Y108.4393 I7.3572 J-0.141
G3 X137.1338 Y108.406 I0.9223 J0.3865
G3 X140.6298 Y105.3233 I5.2472 J2.427
G3 X144.7653 Y104.7109 I3.8581 J11.7848
G1 X150.0
G3 X151.0 Y105.7109 I0.0 J1.0
G1 Y112.6797
G1 X153.6484
G1 Y105.7109
G3 X154.6484 Y104.7109 I1.0 J0.0
G1 X183.0
G1 Y101.2988
G1 X154.6484
G3 X153.6484 Y100.2988 I0.0 J-1.0
G1 Y95.4883
G1 F300.0 Z-2.0
G1 F800.0 X151.0
G1 Y100.2988
G3 X150.0 Y101.2988 I-1.0 J0.0
G1 X144.4883
G3 X144.4749 Y101.2987 I0.0 J-1.0
G2 X140.2679 Y101.9331 I-0.1753 J13.1046
G2 X136.761 Y104.0946 I2.8234 J8.5065
G3 X136.7542 Y104.1013 I-0.7063 J-0.7079
G2 X133.9333 Y111.0637 I6.5757 J6.717
G3 X133.933 Y111.1232 I-0.9997 J0.0261
G2 X134.2694 Y114.041 I9.9475 J0.3316
G1 X136.9343
G3 X136.5487 Y111.4243 I7.8772 J-2.4975
G3 X137.1191 Y108.4393 I7.3572 J-0.141
G3 X137.1338 Y108.406 I0.9223 J0.3865
G3 X140.6298 Y105.3233 I5.2472 J2.427
G3 X144.7653 Y104.7109 I3.8581 J11.7848
G1 X150.0
G3 X151.0 Y105.7109 I0.0 J1.0
G1 Y112.6797
G1 X153.6484
G1 Y105.7109
G3 X154.6484 Y104.7109 I1.0 J0.0
G1 X183.0
G1 Y101.2988
G1 X154.6484
G3 X153.6484 Y100.2988 I0.0 J-1.0
G1 Y95.4883
G1 F300.0 Z-3.0
G1 F800.0 X151.0
G1 Y100.2988
G3 X150.0 Y101.2988 I-1.0 J0.0
G1 X144.4883
G3 X144.4749 Y101.2987 I0.0 J-1.0
G2 X140.2679 Y101.9331 I-0.1753 J13.1046
G2 X136.761 Y104.0946 I2.8234 J8.5065
G3 X136.7542 Y104.1013 I-0.7063 J-0.7079
G2 X133.9333 Y111.0637 I6.5757 J6.717
G3 X133.933 Y111.1232 I-0.9997 J0.0261
G2 X134.2694 Y114.041 I9.9475 J0.3316
G1 X136.9343
G3 X136.5487 Y111.4243 I7.8772 J-2.4975
G3 X137.1191 Y108.4393 I7.3572 J-0.141
G3 X137.1338 Y108.406 I0.9223 J0.3865
G3 X140.6298 Y105.3233 I5.2472 J2.427
G3 X144.7653 Y104.7109 I3.8581 J11.7848
G1 X150.0
G3 X151.0 Y105.7109 I0.0 J1.0
G1 Y112.6797
G1 X153.6484
G1 Y105.7109
G3 X154.6484 Y104.7109 I1.0 J0.0
G1 X183.0
G1 Y101.2988
G1 X154.6484
G3 X153.6484 Y100.2988 I0.0 J-1.0
G1 Y95.4883
G1 F300.0 Z-4.0
G1 F800.0 X151.0
G1 Y100.2988
G3 X150.0 Y101.2988 I-1.0 J0.0
G1 X144.4883
G3 X144.4749 Y101.2987 I0.0 J-1.0
G2 X140.2679 Y101.9331 I-0.1753 J13.1046
G2 X136.761 Y104.0946 I2.8234 J8.5065
G3 X136.7542 Y104.1013 I-0.7063 J-0.7079
G2 X133.9333 Y111.0637 I6.5757 J6.717
G3 X133.933 Y111.1232 I-0.9997 J0.0261
G2 X134.2694 Y114.041 I9.9475 J0.3316
G1 X136.9343
G3 X136.5487 Y111.4243 I7.8772 J-2.4975
G3 X137.1191 Y108.4393 I7.3572 J-0.141
G3 X137.1338 Y108.406 I0.9223 J0.3865
G3 X140.6298 Y105.3233 I5.2472 J2.427
G3 X144.7653 Y104.7109 I3.8581 J11.7848
G1 X150.0
G3 X151.0 Y105.7109 I0.0 J1.0
G1 Y112.6797
G1 X153.6484
G1 Y105.7109
G3 X154.6484 Y104.7109 I1.0 J0.0
G1 X183.0
G1 Y101.2988
G1 X154.6484
G3 X153.6484 Y100.2988 I0.0 J-1.0
G1 Y95.4883
G1 F300.0 Z-5.0
G1 F800.0 X151.0
G1 Y100.2988
G3 X150.0 Y101.2988 I-1.0 J0.0
G1 X144.4883
G3 X144.4749 Y101.2987 I0.0 J-1.0
G2 X140.2679 Y101.9331 I-0.1753 J13.1046
G2 X136.761 Y104.0946 I2.8234 J8.5065
G3 X136.7542 Y104.1013 I-0.7063 J-0.7079
G2 X133.9333 Y111.0637 I6.5757 J6.717
G3 X133.933 Y111.1232 I-0.9997 J0.0261
G2 X134.2694 Y114.041 I9.9475 J0.3316
G1 X136.9343
G3 X136.5487 Y111.4243 I7.8772 J-2.4975
G3 X137.1191 Y108.4393 I7.3572 J-0.141
G3 X137.1338 Y108.406 I0.9223 J0.3865
G3 X140.6298 Y105.3233 I5.2472 J2.427
G3 X144.7653 Y104.7109 I3.8581 J11.7848
G1 X150.0
G3 X151.0 Y105.7109 I0.0 J1.0
G1 Y112.6797
G1 X153.6484
G1 Y105.7109
G3 X154.6484 Y104.7109 I1.0 J0.0
G1 X183.0
G1 Y101.2988
G1 X154.6484
G3 X153.6484 Y100.2988 I0.0 J-1.0
G1 Y95.4883
G0 Z3.0
M5
M30
