; generated by Slic3r 1.33.8-prusa3d-win64 on 2017-03-25 at 14:21:07

; external perimeters extrusion width = 0.45mm
; perimeters extrusion width = 0.45mm
; infill extrusion width = 0.45mm
; solid infill extrusion width = 0.45mm
; top infill extrusion width = 0.40mm

M115 U3.0.10 ; tell printer latest fw version
M83  ; extruder relative mode
M104 S255 ; set extruder temp
M140 S100 ; set bed temp
M190 S100 ; wait for bed temp
M109 S255 ; wait for extruder temp
G28 W ; home all without mesh bed level
G80 ; mesh bed leveling
G1 Y-3.0 F1000.0 ; go outside pritn area
G1 X60.0 E9.0  F1000.0 ; intro line
G1 X100.0 E12.5  F1000.0 ; intro line
G21 ; set units to millimeters
G90 ; use absolute coordinates
M83 ; use relative distances for extrusion
G1 E-0.80000 F2100.00000
G1 Z0.200 F7200.000
G1 X43.694 Y104.102 F7200.000
G1 E0.80000 F2100.00000
M204 S1000
G1 F2100
G1 X133.900 Y103.498 E2.82841
G1 X222.148 Y103.506 E2.76696
G1 X222.560 Y103.576 E0.01312
G1 X222.954 Y103.717 E0.01312
G1 X223.571 Y104.054 E0.02203
G1 X223.924 Y104.325 E0.01395
G1 X224.237 Y104.678 E0.01478
G1 X224.531 Y105.166 E0.01788
G1 X224.729 Y105.589 E0.01463
G1 X224.841 Y106.000 E0.01336
G1 X224.879 Y106.463 E0.01458
G1 X224.871 Y118.710 E0.38400
G1 X224.793 Y119.152 E0.01407
G1 X224.632 Y119.575 E0.01419
G1 X224.276 Y120.207 E0.02273
G1 X224.114 Y120.418 E0.00836
G1 X223.929 Y120.611 E0.00836
G1 X223.551 Y120.898 E0.01490
G1 X223.185 Y121.108 E0.01323
G1 X222.874 Y121.258 E0.01082
G1 X222.415 Y121.396 E0.01502
G1 X221.937 Y121.441 E0.01506
G1 X133.900 Y121.441 E2.76033
G1 X43.717 Y120.839 E2.82769
G1 X43.286 Y120.764 E0.01371
G1 X42.873 Y120.610 E0.01383
G1 X42.495 Y120.382 E0.01383
G1 X42.166 Y120.088 E0.01383
G1 X41.897 Y119.738 E0.01383
G1 X41.697 Y119.344 E0.01383
G1 X41.574 Y118.921 E0.01383
G1 X41.531 Y118.482 E0.01383
G1 X41.531 Y106.466 E0.37675
G1 X41.556 Y106.124 E0.01074
G1 X41.643 Y105.746 E0.01217
G1 X41.791 Y105.388 E0.01217
G1 X41.996 Y105.058 E0.01217
G1 X42.254 Y104.763 E0.01229
G1 X42.553 Y104.516 E0.01217
G1 X42.889 Y104.322 E0.01217
G1 X43.252 Y104.185 E0.01217
G1 X43.634 Y104.109 E0.01220
G1 F5760
G1 X45.828 Y104.094 E-0.76000
G1 E-0.04000 F2100.00000
G1 X134.872 Y117.506 F7200.000
G1 E0.80000 F2100.00000
G1 F1680
G1 X44.872 Y117.506 E2.82189
G1 X44.872 Y107.434 E0.31579
G1 X134.872 Y107.434 E2.82189
G1 X134.872 Y106.839 E0.01864
G1 X221.538 Y106.840 E2.71736
G1 X221.537 Y118.099 E0.35302
G1 X134.872 Y118.100 E2.71733
G1 X134.872 Y117.566 E0.01676
G1 X134.495 Y117.883 F7200.000
G1 F1680
G1 X44.495 Y117.883 E2.82189
G1 X44.495 Y107.057 E0.33944
G1 X134.495 Y107.057 E2.82189
G1 X134.495 Y106.462 E0.01864
G1 X221.808 Y106.463 E2.73766
G1 X221.877 Y106.501 E0.00245
G1 X221.915 Y106.571 E0.00250
G1 X221.914 Y118.370 E0.36998
G1 X221.877 Y118.439 E0.00245
G1 X221.808 Y118.476 E0.00245
G1 X134.495 Y118.477 E2.73766
G1 X134.495 Y117.943 E0.01676
G1 X134.118 Y118.260 F7200.000
G1 F1260
G1 X44.118 Y118.260 E2.82189
G1 X44.118 Y106.680 E0.36308
G1 X134.118 Y106.680 E2.82189
G1 X134.118 Y106.085 E0.01864
G1 X221.905 Y106.086 E2.75251
G1 X222.154 Y106.223 E0.00892
G1 X222.292 Y106.474 E0.00897
G1 X222.291 Y118.467 E0.37604
G1 X222.154 Y118.717 E0.00892
G1 X221.905 Y118.854 E0.00892
G1 X134.118 Y118.854 E2.75251
G1 X134.118 Y118.320 E0.01676
G1 X133.918 Y117.913 F7200.000
G1 F5760
G1 X131.923 Y118.318 E-0.76000
G1 E-0.04000 F2100.00000
G1 X221.425 Y107.717 F7200.000
G1 E0.80000 F2100.00000
G1 F1680
G1 X220.831 Y107.123 E0.02638
G1 X220.297 Y107.123 E0.01678
G1 X221.255 Y108.081 E0.04256
G1 X221.255 Y108.615 E0.01677
G1 X219.763 Y107.123 E0.06629
G1 X219.228 Y107.123 E0.01678
G1 X221.255 Y109.150 E0.09001
G1 X221.255 Y109.684 E0.01677
G1 X218.694 Y107.123 E0.11373
G1 X218.160 Y107.123 E0.01678
G1 X221.255 Y110.218 E0.13746
G1 X221.255 Y110.752 E0.01677
G1 X217.626 Y107.123 E0.16118
G1 X217.092 Y107.123 E0.01678
G1 X221.255 Y111.286 E0.18490
G1 X221.255 Y111.820 E0.01677
G1 X216.558 Y107.123 E0.20863
G1 X216.024 Y107.123 E0.01678
G1 X221.255 Y112.354 E0.23235
G1 X221.255 Y112.888 E0.01677
G1 X215.489 Y107.123 E0.25607
G1 X214.955 Y107.123 E0.01678
G1 X221.255 Y113.422 E0.27980
G1 X221.255 Y113.957 E0.01677
G1 X214.421 Y107.123 E0.30352
G1 X213.887 Y107.123 E0.01678
G1 X221.255 Y114.491 E0.32724
G1 X221.255 Y115.025 E0.01677
G1 X213.353 Y107.123 E0.35097
G1 X212.819 Y107.123 E0.01678
G1 X221.255 Y115.559 E0.37469
G1 X221.255 Y116.093 E0.01677
G1 X212.284 Y107.123 E0.39841
G1 X211.750 Y107.123 E0.01678
G1 X221.255 Y116.627 E0.42214
G1 X221.255 Y117.161 E0.01677
G1 X211.216 Y107.123 E0.44586
G1 X210.682 Y107.123 E0.01678
G1 X221.254 Y117.695 E0.46958
G1 X221.254 Y117.817 E0.00380
G1 X220.841 Y117.817 E0.01297
G1 X210.148 Y107.123 E0.47496
G1 X209.614 Y107.123 E0.01678
G1 X220.307 Y117.817 E0.47496
G1 X219.773 Y117.817 E0.01678
G1 X209.079 Y107.123 E0.47496
G1 X208.545 Y107.123 E0.01678
G1 X219.239 Y117.817 E0.47496
G1 X218.705 Y117.817 E0.01678
G1 X208.011 Y107.123 E0.47496
G1 X207.477 Y107.123 E0.01678
G1 X218.171 Y117.817 E0.47497
G1 X217.637 Y117.817 E0.01678
G1 X206.943 Y107.123 E0.47497
G1 X206.409 Y107.123 E0.01678
G1 X217.102 Y117.817 E0.47497
G1 X216.568 Y117.817 E0.01678
G1 X205.874 Y107.123 E0.47497
G1 X205.340 Y107.123 E0.01678
G1 X216.034 Y117.817 E0.47497
G1 X215.500 Y117.817 E0.01678
G1 X204.806 Y107.123 E0.47497
G1 X204.272 Y107.123 E0.01678
G1 X214.966 Y117.817 E0.47497
G1 X214.432 Y117.817 E0.01678
G1 X203.738 Y107.123 E0.47497
G1 X203.204 Y107.123 E0.01678
G1 X213.897 Y117.817 E0.47497
G1 X213.363 Y117.817 E0.01678
G1 X202.670 Y107.123 E0.47497
G1 X202.135 Y107.123 E0.01678
G1 X212.829 Y117.817 E0.47497
G1 X212.295 Y117.817 E0.01678
G1 X201.601 Y107.123 E0.47497
G1 X201.067 Y107.123 E0.01678
G1 X211.761 Y117.817 E0.47497
G1 X211.227 Y117.817 E0.01678
G1 X200.533 Y107.123 E0.47497
G1 X199.999 Y107.123 E0.01678
G1 X210.693 Y117.817 E0.47497
G1 X210.158 Y117.817 E0.01678
G1 X199.465 Y107.123 E0.47497
G1 X198.930 Y107.123 E0.01678
G1 X209.624 Y117.817 E0.47497
G1 X209.090 Y117.817 E0.01678
G1 X198.396 Y107.123 E0.47497
G1 X197.862 Y107.123 E0.01678
G1 X208.556 Y117.817 E0.47497
G1 X208.022 Y117.817 E0.01678
G1 X197.328 Y107.123 E0.47497
G1 X196.794 Y107.123 E0.01678
G1 X207.488 Y117.817 E0.47497
G1 X206.954 Y117.817 E0.01678
G1 X196.260 Y107.123 E0.47497
G1 X195.725 Y107.123 E0.01678
G1 X206.419 Y117.817 E0.47497
G1 X205.885 Y117.817 E0.01678
G1 X195.191 Y107.123 E0.47498
G1 X194.657 Y107.123 E0.01678
G1 X205.351 Y117.817 E0.47498
G1 X204.817 Y117.817 E0.01678
G1 X194.123 Y107.123 E0.47498
G1 X193.589 Y107.123 E0.01678
G1 X204.283 Y117.817 E0.47498
G1 X203.749 Y117.817 E0.01678
G1 X193.055 Y107.123 E0.47498
G1 X192.520 Y107.123 E0.01678
G1 X203.214 Y117.817 E0.47498
G1 X202.680 Y117.817 E0.01678
G1 X191.986 Y107.123 E0.47498
G1 X191.452 Y107.123 E0.01678
G1 X202.146 Y117.817 E0.47498
G1 X201.612 Y117.817 E0.01678
G1 X190.918 Y107.123 E0.47498
G1 X190.384 Y107.123 E0.01678
G1 X201.078 Y117.817 E0.47498
G1 X200.544 Y117.817 E0.01678
G1 X189.850 Y107.123 E0.47498
G1 X189.315 Y107.123 E0.01678
G1 X200.010 Y117.817 E0.47498
G1 X199.475 Y117.817 E0.01678
G1 X188.781 Y107.123 E0.47498
G1 X188.247 Y107.123 E0.01678
G1 X198.941 Y117.817 E0.47498
G1 X198.407 Y117.817 E0.01678
G1 X187.713 Y107.123 E0.47498
G1 X187.179 Y107.123 E0.01678
G1 X197.873 Y117.817 E0.47498
G1 X197.339 Y117.817 E0.01678
G1 X186.645 Y107.123 E0.47498
G1 X186.111 Y107.123 E0.01678
G1 X196.805 Y117.817 E0.47498
G1 X196.271 Y117.817 E0.01678
G1 X185.576 Y107.123 E0.47498
G1 X185.042 Y107.123 E0.01678
G1 X195.736 Y117.817 E0.47498
G1 X195.202 Y117.817 E0.01678
G1 X184.508 Y107.123 E0.47498
G1 X183.974 Y107.123 E0.01678
G1 X194.668 Y117.817 E0.47498
G1 X194.134 Y117.817 E0.01678
G1 X183.440 Y107.123 E0.47498
G1 X182.906 Y107.123 E0.01678
G1 X193.600 Y117.817 E0.47499
G1 X193.066 Y117.817 E0.01678
G1 X182.371 Y107.123 E0.47499
G1 X181.837 Y107.123 E0.01678
G1 X192.531 Y117.817 E0.47499
G1 X191.997 Y117.817 E0.01678
G1 X181.303 Y107.123 E0.47499
G1 X180.769 Y107.123 E0.01678
G1 X191.463 Y117.817 E0.47499
G1 X190.929 Y117.817 E0.01678
G1 X180.235 Y107.123 E0.47499
G1 X179.701 Y107.123 E0.01678
G1 X190.395 Y117.817 E0.47499
G1 X189.861 Y117.817 E0.01678
G1 X179.166 Y107.123 E0.47499
G1 X178.632 Y107.123 E0.01678
G1 X189.327 Y117.817 E0.47499
G1 X188.792 Y117.817 E0.01678
G1 X178.098 Y107.123 E0.47499
G1 X177.564 Y107.123 E0.01678
G1 X188.258 Y117.817 E0.47499
G1 X187.724 Y117.817 E0.01678
G1 X177.030 Y107.123 E0.47499
G1 X176.496 Y107.123 E0.01678
G1 X187.190 Y117.817 E0.47499
G1 X186.656 Y117.817 E0.01678
G1 X175.961 Y107.123 E0.47499
G1 X175.427 Y107.123 E0.01678
G1 X186.122 Y117.817 E0.47499
G1 X185.588 Y117.817 E0.01678
G1 X174.893 Y107.123 E0.47499
G1 X174.359 Y107.123 E0.01678
G1 X185.053 Y117.817 E0.47499
G1 X184.519 Y117.817 E0.01678
G1 X173.825 Y107.123 E0.47499
G1 X173.291 Y107.123 E0.01678
G1 X183.985 Y117.817 E0.47499
G1 X183.451 Y117.817 E0.01678
G1 X172.757 Y107.123 E0.47499
G1 X172.222 Y107.123 E0.01678
G1 X182.917 Y117.817 E0.47499
G1 X182.383 Y117.817 E0.01678
G1 X171.688 Y107.123 E0.47499
G1 X171.154 Y107.123 E0.01678
G1 X181.848 Y117.817 E0.47499
G1 X181.314 Y117.817 E0.01678
G1 X170.620 Y107.123 E0.47499
G1 X170.086 Y107.123 E0.01678
G1 X180.780 Y117.817 E0.47500
G1 X180.246 Y117.817 E0.01678
G1 X169.552 Y107.123 E0.47500
G1 X169.017 Y107.123 E0.01678
G1 X179.712 Y117.817 E0.47500
G1 X179.178 Y117.817 E0.01678
G1 X168.483 Y107.123 E0.47500
G1 X167.949 Y107.122 E0.01678
G1 X178.644 Y117.817 E0.47500
G1 X178.109 Y117.817 E0.01678
G1 X167.415 Y107.122 E0.47500
G1 X166.881 Y107.122 E0.01678
G1 X177.575 Y117.817 E0.47500
G1 X177.041 Y117.817 E0.01678
G1 X166.347 Y107.122 E0.47500
G1 X165.812 Y107.122 E0.01678
G1 X176.507 Y117.817 E0.47500
G1 X175.973 Y117.817 E0.01678
G1 X165.278 Y107.122 E0.47500
G1 X164.744 Y107.122 E0.01678
G1 X175.439 Y117.817 E0.47500
G1 X174.904 Y117.817 E0.01678
G1 X164.210 Y107.122 E0.47500
G1 X163.676 Y107.122 E0.01678
G1 X174.370 Y117.817 E0.47500
G1 X173.836 Y117.817 E0.01678
G1 X163.142 Y107.122 E0.47500
G1 X162.607 Y107.122 E0.01678
G1 X173.302 Y117.817 E0.47500
G1 X172.768 Y117.817 E0.01678
G1 X162.073 Y107.122 E0.47500
G1 X161.539 Y107.122 E0.01678
G1 X172.234 Y117.817 E0.47500
G1 X171.700 Y117.817 E0.01678
G1 X161.005 Y107.122 E0.47500
G1 X160.471 Y107.122 E0.01678
G1 X171.165 Y117.817 E0.47500
G1 X170.631 Y117.817 E0.01678
G1 X159.937 Y107.122 E0.47500
G1 X159.403 Y107.122 E0.01678
G1 X170.097 Y117.817 E0.47500
G1 X169.563 Y117.817 E0.01678
G1 X158.868 Y107.122 E0.47500
G1 X158.334 Y107.122 E0.01678
G1 X169.029 Y117.817 E0.47500
G1 X168.495 Y117.817 E0.01678
G1 X157.800 Y107.122 E0.47501
G1 X157.266 Y107.122 E0.01678
G1 X167.961 Y117.817 E0.47501
G1 X167.426 Y117.817 E0.01678
G1 X156.732 Y107.122 E0.47501
G1 X156.198 Y107.122 E0.01678
G1 X166.892 Y117.817 E0.47501
G1 X166.358 Y117.817 E0.01678
G1 X155.663 Y107.122 E0.47501
G1 X155.129 Y107.122 E0.01678
G1 X165.824 Y117.817 E0.47501
G1 X165.290 Y117.817 E0.01678
G1 X154.595 Y107.122 E0.47501
G1 X154.061 Y107.122 E0.01678
G1 X164.756 Y117.817 E0.47501
G1 X164.221 Y117.817 E0.01678
G1 X153.527 Y107.122 E0.47501
G1 X152.993 Y107.122 E0.01678
G1 X163.687 Y117.817 E0.47501
G1 X163.153 Y117.817 E0.01678
G1 X152.458 Y107.122 E0.47501
G1 X151.924 Y107.122 E0.01678
G1 X162.619 Y117.817 E0.47501
G1 X162.085 Y117.817 E0.01678
G1 X151.390 Y107.122 E0.47501
G1 X150.856 Y107.122 E0.01678
G1 X161.551 Y117.817 E0.47501
G1 X161.017 Y117.817 E0.01678
G1 X150.322 Y107.122 E0.47501
G1 X149.788 Y107.122 E0.01678
G1 X160.482 Y117.817 E0.47501
G1 X159.948 Y117.817 E0.01678
G1 X149.253 Y107.122 E0.47501
G1 X148.719 Y107.122 E0.01678
G1 X159.414 Y117.817 E0.47501
G1 X158.880 Y117.817 E0.01678
G1 X148.185 Y107.122 E0.47501
G1 X147.651 Y107.122 E0.01678
G1 X158.346 Y117.817 E0.47501
G1 X157.812 Y117.817 E0.01678
G1 X147.117 Y107.122 E0.47501
G1 X146.583 Y107.122 E0.01678
G1 X157.278 Y117.817 E0.47501
G1 X156.743 Y117.817 E0.01678
G1 X146.049 Y107.122 E0.47501
G1 X145.514 Y107.122 E0.01678
G1 X156.209 Y117.817 E0.47502
G1 X155.675 Y117.817 E0.01678
G1 X144.980 Y107.122 E0.47502
G1 X144.446 Y107.122 E0.01678
G1 X155.141 Y117.817 E0.47502
G1 X154.607 Y117.817 E0.01678
G1 X143.912 Y107.122 E0.47502
G1 X143.378 Y107.122 E0.01678
G1 X154.073 Y117.817 E0.47502
G1 X153.538 Y117.817 E0.01678
G1 X142.844 Y107.122 E0.47502
G1 X142.309 Y107.122 E0.01678
G1 X153.004 Y117.817 E0.47502
G1 X152.470 Y117.817 E0.01678
G1 X141.775 Y107.122 E0.47502
G1 X141.241 Y107.122 E0.01678
G1 X151.936 Y117.817 E0.47502
G1 X151.402 Y117.817 E0.01678
G1 X140.707 Y107.122 E0.47502
G1 X140.173 Y107.122 E0.01678
G1 X150.868 Y117.817 E0.47502
G1 X150.334 Y117.817 E0.01678
G1 X139.639 Y107.122 E0.47502
G1 X139.104 Y107.122 E0.01678
G1 X149.799 Y117.817 E0.47502
G1 X149.265 Y117.817 E0.01678
G1 X138.570 Y107.122 E0.47502
G1 X138.036 Y107.122 E0.01678
G1 X148.731 Y117.817 E0.47502
G1 X148.197 Y117.817 E0.01678
G1 X137.502 Y107.122 E0.47502
G1 X136.968 Y107.122 E0.01678
G1 X147.663 Y117.817 E0.47502
G1 X147.129 Y117.817 E0.01678
G1 X136.434 Y107.122 E0.47502
G1 X135.899 Y107.122 E0.01678
G1 X146.595 Y117.817 E0.47502
G1 X146.060 Y117.817 E0.01678
G1 X135.365 Y107.122 E0.47502
G1 X135.155 Y107.122 E0.00662
G1 X135.155 Y107.446 E0.01016
G1 X145.526 Y117.817 E0.46066
G1 X144.992 Y117.817 E0.01678
G1 X134.892 Y107.717 E0.44862
G1 X134.357 Y107.717 E0.01678
G1 X144.458 Y117.817 E0.44862
G1 X143.924 Y117.817 E0.01678
G1 X133.823 Y107.717 E0.44862
G1 X133.289 Y107.717 E0.01678
G1 X143.390 Y117.817 E0.44862
G1 X142.855 Y117.817 E0.01678
G1 X132.755 Y107.717 E0.44862
G1 X132.221 Y107.717 E0.01678
G1 X142.321 Y117.817 E0.44862
G1 X141.787 Y117.817 E0.01678
G1 X131.687 Y107.717 E0.44862
G1 X131.152 Y107.717 E0.01678
G1 X141.253 Y117.817 E0.44862
G1 X140.719 Y117.817 E0.01678
G1 X130.618 Y107.717 E0.44862
G1 X130.084 Y107.717 E0.01678
G1 X140.185 Y117.817 E0.44862
G1 X139.651 Y117.817 E0.01678
G1 X129.550 Y107.717 E0.44862
G1 X129.016 Y107.717 E0.01678
G1 X139.116 Y117.817 E0.44862
G1 X138.582 Y117.817 E0.01678
G1 X128.482 Y107.717 E0.44862
G1 X127.947 Y107.717 E0.01678
G1 X138.048 Y117.817 E0.44862
G1 X137.514 Y117.817 E0.01678
G1 X127.413 Y107.717 E0.44862
G1 X126.879 Y107.717 E0.01678
G1 X136.980 Y117.817 E0.44862
G1 X136.446 Y117.817 E0.01678
G1 X126.345 Y107.717 E0.44862
G1 X125.811 Y107.717 E0.01678
G1 X135.911 Y117.817 E0.44862
G1 X135.377 Y117.817 E0.01678
G1 X135.155 Y117.595 E0.00989
G1 X135.155 Y117.223 E0.01168
G1 X134.783 Y117.223 E0.01168
G1 X125.277 Y107.717 E0.42222
G1 X124.743 Y107.717 E0.01678
G1 X134.249 Y117.223 E0.42222
G1 X133.715 Y117.223 E0.01678
G1 X124.208 Y107.717 E0.42222
G1 X123.674 Y107.717 E0.01678
G1 X133.180 Y117.223 E0.42222
G1 X132.646 Y117.223 E0.01678
G1 X123.140 Y107.717 E0.42222
G1 X122.606 Y107.717 E0.01678
G1 X132.112 Y117.223 E0.42222
G1 X131.578 Y117.223 E0.01678
G1 X122.072 Y107.717 E0.42222
G1 X121.538 Y107.717 E0.01678
G1 X131.044 Y117.223 E0.42222
G1 X130.510 Y117.223 E0.01678
G1 X121.003 Y107.717 E0.42222
G1 X120.469 Y107.717 E0.01678
G1 X129.975 Y117.223 E0.42222
G1 X129.441 Y117.223 E0.01678
G1 X119.935 Y107.717 E0.42222
G1 X119.401 Y107.717 E0.01678
G1 X128.907 Y117.223 E0.42222
G1 X128.373 Y117.223 E0.01678
G1 X118.867 Y107.717 E0.42222
G1 X118.333 Y107.717 E0.01678
G1 X127.839 Y117.223 E0.42222
G1 X127.305 Y117.223 E0.01678
G1 X117.799 Y107.717 E0.42222
G1 X117.264 Y107.717 E0.01678
G1 X126.770 Y117.223 E0.42222
G1 X126.236 Y117.223 E0.01678
G1 X116.730 Y107.717 E0.42222
G1 X116.196 Y107.717 E0.01678
G1 X125.702 Y117.223 E0.42222
G1 X125.168 Y117.223 E0.01678
