; generated by PrusaSlicer 2.2.0+win64 on 2020-08-21 at 17:42:18 UTC

; 

; external perimeters extrusion width = 0.45mm
; perimeters extrusion width = 0.45mm
; infill extrusion width = 0.45mm
; solid infill extrusion width = 0.45mm
; top infill extrusion width = 0.40mm
; first layer extrusion width = 0.42mm

M73 P0 R70
M201 X9000 Y9000 Z500 E10000 ; sets maximum accelerations, mm/sec^2
M203 X500 Y500 Z12 E120 ; sets maximum feedrates, mm/sec
M204 P2000 R1500 T2000 ; sets acceleration (P, T) and retract acceleration (R), mm/sec^2
M205 X10.00 Y10.00 Z0.20 E2.50 ; sets the jerk limits, mm/sec
M205 S0 T0 ; sets the minimum extruding and travel feed rate, mm/sec
M107
M862.3 P "MK2S" ; printer model check
M862.1 P0.4 ; nozzle diameter check
M115 U3.2.3 ; tell printer latest fw version
G90 ; use absolute coordinates
M83 ; extruder relative mode
M204 S2000 T1500 ; MK2 firmware only supports the old M204 format
M104 S265 ; set extruder temp
M140 S100 ; set bed temp
M190 S100 ; wait for bed temp
M109 S265 ; wait for extruder temp
G28 W ; home all without mesh bed level
G80 ; mesh bed leveling
G1 Y-3.0 F1000.0 ; go outside print area
G92 E0.0
G1 X60.0 E9.0  F1000.0 ; intro line
M73 P0 R70
G1 X100.0 E12.5 F1000.0 ; intro line
G92 E0.0
G21 ; set units to millimeters
G90 ; use absolute coordinates
M83 ; use relative distances for extrusion
M900 K0.04 ; Filament gcode LA 1.5
M900 K20 ; Filament gcode LA 1.0
;BEFORE_LAYER_CHANGE
G92 E0.0
;0.2


G1 E-0.80000 F2100.00000
G1 Z0.600 F10800.000
;AFTER_LAYER_CHANGE
;0.2
G1 X68.627 Y84.817
G1 Z0.200
G1 E0.80000 F2100.00000
M204 S1000
G1 F1200.000
G1 X70.061 Y83.738 E0.05627
G1 X71.558 Y82.754 E0.05619
G1 X74.472 Y81.186 E0.10374
G1 X76.180 Y80.457 E0.05822
G1 X79.323 Y79.435 E0.10362
G1 X81.072 Y79.033 E0.05627
G1 X84.408 Y78.578 E0.10557
G1 X86.231 Y78.495 E0.05722
G1 X158.966 Y78.648 E2.28057
G1 X160.792 Y78.786 E0.05740
G1 X164.115 Y79.341 E0.10565
G1 X165.853 Y79.796 E0.05631
G1 X168.985 Y80.920 E0.10434
G1 X170.652 Y81.694 E0.05763
G1 X173.572 Y83.383 E0.10577
G1 X176.274 Y85.405 E0.10581
G1 X177.657 Y86.650 E0.05834
G1 X179.949 Y89.125 E0.10577
G1 X181.935 Y91.854 E0.10581
G1 X182.887 Y93.447 E0.05818
G1 X184.348 Y96.489 E0.10581
G1 X184.977 Y98.171 E0.05631
G1 X185.871 Y101.424 E0.10577
G1 X186.377 Y104.760 E0.10581
G1 X186.488 Y106.618 E0.05834
G1 X186.384 Y109.990 E0.10577
G1 X185.884 Y113.327 E0.10581
G1 X185.444 Y115.130 E0.05818
G1 X184.352 Y118.319 E0.10569
G1 X183.648 Y119.900 E0.05424
G1 X182.855 Y121.428 E0.05400
G1 X181.969 Y122.910 E0.05412
G1 X180.962 Y124.382 E0.05591
G1 X179.945 Y125.695 E0.05209
G1 X178.766 Y127.040 E0.05607
G1 X176.380 Y129.321 E0.10351
G1 X175.036 Y130.398 E0.05400
G1 X173.573 Y131.432 E0.05615
G1 X172.108 Y132.338 E0.05400
G1 X170.588 Y133.156 E0.05412
G1 X169.029 Y133.878 E0.05389
G1 X167.422 Y134.509 E0.05412
G1 X165.784 Y135.041 E0.05400
G1 X164.117 Y135.474 E0.05400
G1 X162.381 Y135.814 E0.05544
G1 X159.074 Y136.162 E0.10426
G1 X157.317 Y136.193 E0.05512
G1 X86.177 Y136.063 E2.23055
G1 X82.837 Y135.815 E0.10502
G1 X81.066 Y135.524 E0.05627
G1 X77.802 Y134.679 E0.10569
G1 X76.087 Y134.067 E0.05711
G1 X73.052 Y132.662 E0.10486
G1 X71.496 Y131.768 E0.05627
G1 X70.002 Y130.778 E0.05619
G1 X67.369 Y128.674 E0.10565
G1 X66.073 Y127.431 E0.05631
G1 X63.859 Y124.891 E0.10565
G1 X62.806 Y123.437 E0.05631
G1 X61.112 Y120.603 E0.10351
G1 X60.331 Y118.987 E0.05627
G1 X59.654 Y117.328 E0.05619
G1 X58.680 Y114.169 E0.10362
G1 X58.294 Y112.354 E0.05818
G1 X57.899 Y109.068 E0.10379
G1 X57.843 Y107.278 E0.05615
G1 X58.041 Y103.913 E0.10569
G1 X58.305 Y102.138 E0.05627
G1 X59.102 Y98.862 E0.10569
G1 X59.679 Y97.163 E0.05627
G1 X60.361 Y95.506 E0.05619
G1 X61.916 Y92.516 E0.10565
G1 X62.886 Y91.004 E0.05631
G1 X64.949 Y88.341 E0.10565
G1 X66.173 Y87.026 E0.05631
G1 X68.582 Y84.857 E0.10162
G1 F8640.000
G1 X70.061 Y83.738 E-0.42820
G1 X71.261 Y82.949 E-0.33180
G1 E-0.04000 F2100.00000
G1 Z0.800 F10800.000
G1 X146.272 Y110.230
G1 Z0.200
G1 E0.80000 F2100.00000
G1 F1200.000
G1 X147.073 Y108.329 E0.06468
G1 X147.319 Y107.571 E0.02499
G1 X147.690 Y107.558 E0.01166
G1 X148.238 Y107.477 E0.01736
G1 X150.202 Y107.027 E0.06317
G1 X151.195 Y106.767 E0.03219
G1 X151.473 Y106.668 E0.00925
G1 X151.393 Y107.162 E0.01569
G1 X151.357 Y107.683 E0.01638
G1 X151.351 Y111.037 E0.10516
G1 X151.380 Y112.029 E0.03113
G1 X151.456 Y112.559 E0.01678
G1 X151.183 Y112.385 E0.01016
G1 X150.725 Y112.144 E0.01621
G1 X146.327 Y110.254 E0.15011
G1 F8640.000
G1 X147.073 Y108.329 E-0.47663
G1 X147.319 Y107.571 E-0.18403
G1 X147.690 Y107.558 E-0.08585
G1 X147.748 Y107.550 E-0.01349
G1 E-0.04000 F2100.00000
G1 Z0.800 F10800.000
G1 X142.891 Y111.582
G1 Z0.200
G1 E0.80000 F2100.00000
G1 F1200.000
G1 X144.118 Y108.745 E0.09691
G1 X144.276 Y108.467 E0.01002
G1 X143.839 Y107.248 E0.04059
G1 X143.699 Y106.747 E0.01633
G1 X141.516 Y98.318 E0.27299
G1 X149.982 Y96.127 E0.27419
G1 X151.215 Y96.007 E0.03884
G1 X152.795 Y95.920 E0.04963
G1 X154.163 Y95.915 E0.04288
G1 X155.038 Y95.966 E0.02749
G1 X155.856 Y96.062 E0.02580
G1 X156.620 Y96.207 E0.02440
G1 X157.335 Y96.404 E0.02326
G1 X158.006 Y96.665 E0.02258
G1 X158.350 Y96.842 E0.01212
G1 X158.678 Y97.053 E0.01223
G1 X158.988 Y97.320 E0.01281
G1 X159.268 Y97.662 E0.01387
G1 X159.393 Y97.939 E0.00953
G1 X159.782 Y97.726 E0.01391
G1 X160.193 Y97.543 E0.01410
G1 X161.075 Y97.290 E0.02877
G1 X169.621 Y95.188 E0.27595
G1 X170.184 Y95.116 E0.01781
G1 X170.372 Y95.120 E0.00589
G1 X170.144 Y94.625 E0.01710
G1 X169.974 Y94.118 E0.01679
G1 X169.833 Y93.581 E0.01739
G1 X169.795 Y93.250 E0.01044
G1 X169.848 Y92.874 E0.01191
G1 X169.994 Y92.524 E0.01191
G1 X170.224 Y92.222 E0.01190
G1 X170.523 Y91.987 E0.01190
G1 X170.902 Y91.822 E0.01296
G1 X171.258 Y91.796 E0.01122
G1 X171.676 Y91.856 E0.01323
G1 X172.031 Y92.022 E0.01228
G1 X172.323 Y92.264 E0.01190
G1 X172.545 Y92.573 E0.01190
G1 X172.663 Y92.879 E0.01031
G1 X174.066 Y98.575 E0.18392
G1 X174.103 Y98.902 E0.01031
G1 X174.050 Y99.278 E0.01190
G1 X173.904 Y99.628 E0.01190
G1 X173.674 Y99.930 E0.01190
G1 X173.375 Y100.164 E0.01190
G1 X172.996 Y100.329 E0.01296
G1 X172.584 Y100.359 E0.01296
G1 X172.211 Y100.290 E0.01190
G1 X171.867 Y100.129 E0.01190
G1 X171.575 Y99.887 E0.01191
G1 X171.353 Y99.578 E0.01191
G1 X171.233 Y99.266 E0.01048
G1 X171.109 Y98.719 E0.01761
G1 X171.035 Y98.172 E0.01729
G1 X171.038 Y97.700 E0.01481
G1 X170.336 Y97.996 E0.02391
G1 X169.824 Y98.164 E0.01689
G1 X161.143 Y100.306 E0.28035
G1 X160.574 Y100.381 E0.01800
G1 X159.980 Y100.367 E0.01863
G1 X159.930 Y100.951 E0.01837
G1 X159.764 Y101.436 E0.01607
G1 X159.534 Y101.861 E0.01514
G1 X159.270 Y102.246 E0.01466
G1 X158.975 Y102.609 E0.01467
G1 X158.651 Y102.956 E0.01488
G1 X157.923 Y103.617 E0.03082
G1 X157.381 Y104.036 E0.02146
G1 X156.788 Y104.442 E0.02255
G1 X156.144 Y104.835 E0.02366
G1 X155.424 Y105.216 E0.02554
G1 X155.010 Y105.368 E0.01384
G1 X155.439 Y105.564 E0.01478
G1 X155.908 Y105.820 E0.01676
G1 X156.732 Y106.344 E0.03061
G1 X157.490 Y106.879 E0.02909
G1 X158.185 Y107.428 E0.02778
G1 X158.817 Y107.990 E0.02652
G1 X159.384 Y108.566 E0.02533
G1 X159.884 Y109.156 E0.02426
G1 X160.397 Y109.894 E0.02817
G1 X160.621 Y110.293 E0.01434
G1 X160.810 Y110.704 E0.01417
G1 X160.958 Y111.149 E0.01473
G1 X161.035 Y111.646 E0.01576
G1 X160.969 Y112.302 E0.02068
G1 X161.429 Y112.384 E0.01468
G1 X161.964 Y112.540 E0.01744
G1 X162.904 Y112.926 E0.03188
G1 X169.649 Y115.863 E0.23067
G1 X170.124 Y116.081 E0.01640
G1 X170.614 Y116.364 E0.01772
G1 X170.883 Y116.581 E0.01084
G1 X171.029 Y116.005 E0.01862
G1 X171.428 Y115.005 E0.03377
G1 X171.604 Y114.713 E0.01068
G1 X171.877 Y114.447 E0.01196
G1 X172.208 Y114.258 E0.01195
G1 X172.577 Y114.160 E0.01195
G1 X172.902 Y114.159 E0.01021
G1 X173.345 Y114.254 E0.01418
G1 X173.698 Y114.485 E0.01322
G1 X173.954 Y114.767 E0.01195
G1 X174.130 Y115.105 E0.01195
G1 X174.215 Y115.476 E0.01195
G1 X174.203 Y115.857 E0.01195
G1 X174.109 Y116.174 E0.01036
G1 X171.705 Y121.631 E0.18698
G1 X171.535 Y121.914 E0.01036
G1 X171.262 Y122.180 E0.01195
G1 X170.930 Y122.368 E0.01195
G1 X170.562 Y122.466 E0.01195
G1 X170.181 Y122.468 E0.01195
G1 X169.784 Y122.366 E0.01285
G1 X169.441 Y122.142 E0.01285
G1 X169.185 Y121.860 E0.01195
G1 X169.009 Y121.522 E0.01195
G1 X168.924 Y121.150 E0.01195
G1 X168.936 Y120.769 E0.01195
G1 X169.032 Y120.444 E0.01062
G1 X169.492 Y119.479 E0.03352
G1 X169.853 Y118.913 E0.02105
G1 X169.524 Y118.851 E0.01049
G1 X168.992 Y118.699 E0.01734
G1 X168.049 Y118.314 E0.03192
G1 X162.205 Y115.771 E0.19983
G1 X161.297 Y115.372 E0.03110
G1 X160.823 Y115.140 E0.01655
G1 X160.355 Y114.858 E0.01713
G1 X159.965 Y114.572 E0.01516
G1 X159.733 Y114.921 E0.01312
G1 X159.347 Y115.261 E0.01614
G1 X158.935 Y115.499 E0.01490
G1 X158.521 Y115.670 E0.01405
G1 X158.104 Y115.799 E0.01369
G1 X157.670 Y115.899 E0.01398
G1 X156.817 Y116.018 E0.02700
G1 X156.147 Y116.052 E0.02102
G1 X155.463 Y116.041 E0.02145
G1 X154.762 Y115.986 E0.02207
G1 X154.044 Y115.888 E0.02270
G1 X153.314 Y115.747 E0.02333
G1 X152.572 Y115.565 E0.02396
G1 X151.820 Y115.342 E0.02458
G1 X151.028 Y115.066 E0.02632
G1 X142.946 Y111.605 E0.27565
G1 F8640.000
G1 X144.118 Y108.745 E-0.71373
G1 X144.217 Y108.571 E-0.04627
G1 E-0.04000 F2100.00000
G1 Z0.800 F10800.000
G1 X151.980 Y106.503
G1 Z0.200
G1 E0.80000 F2100.00000
G1 F1200.000
G1 X152.134 Y106.393 E0.00594
G1 X152.241 Y106.452 E0.00382
G1 X152.346 Y106.440 E0.00330
G1 X152.641 Y106.535 E0.00974
G1 X154.008 Y107.237 E0.04819
G1 X155.215 Y107.955 E0.04402
G1 X156.263 Y108.684 E0.04003
G1 X156.729 Y109.052 E0.01863
G1 X157.153 Y109.419 E0.01758
G1 X157.537 Y109.788 E0.01669
G1 X157.875 Y110.151 E0.01557
G1 X158.167 Y110.507 E0.01442
G1 X158.413 Y110.851 E0.01326
G1 X158.614 Y111.180 E0.01210
G1 X158.770 Y111.493 E0.01095
G1 X158.880 Y111.787 E0.00984
G1 X158.944 Y112.060 E0.00880
G1 X158.964 Y112.375 E0.00989
G1 X158.948 Y112.536 E0.00507
G1 X158.865 Y112.795 E0.00853
G1 X158.786 Y112.930 E0.00490
G1 X158.596 Y113.152 E0.00917
G1 X158.264 Y113.394 E0.01288
G1 X158.042 Y113.507 E0.00781
G1 X157.541 Y113.687 E0.01671
G1 X156.933 Y113.813 E0.01946
G1 X156.115 Y113.874 E0.02573
G1 X155.600 Y113.866 E0.01616
G1 X155.061 Y113.825 E0.01694
G1 X154.499 Y113.752 E0.01778
G1 X153.915 Y113.646 E0.01859
G1 X153.314 Y113.507 E0.01936
G1 X152.697 Y113.334 E0.02008
G1 X151.958 Y113.091 E0.02438
G1 X151.827 Y112.492 E0.01925
G1 X151.756 Y111.997 E0.01566
G1 X151.728 Y111.032 E0.03027
G1 X151.734 Y107.697 E0.10458
G1 X151.768 Y107.205 E0.01545
G1 X151.858 Y106.650 E0.01761
G1 X151.941 Y106.549 E0.00412
G1 X151.921 Y106.323 F10800.000
G1 F8640.000
G1 X152.134 Y106.393 E-0.05725
G1 X152.241 Y106.452 E-0.02811
G1 X152.346 Y106.440 E-0.02429
G1 X152.641 Y106.535 E-0.07171
G1 X154.008 Y107.237 E-0.35489
G1 X154.841 Y107.733 E-0.22375
G1 E-0.04000 F2100.00000
G1 Z0.800 F10800.000
G1 X143.387 Y111.384
G1 Z0.200
G1 E0.80000 F2100.00000
G1 F1200.000
G1 X144.456 Y108.914 E0.08440
G1 X144.695 Y108.493 E0.01517
G1 X144.981 Y108.129 E0.01450
G1 X145.207 Y107.653 E0.01655
G1 X146.346 Y107.346 E0.03697
G1 X146.997 Y107.340 E0.02041
G1 X146.719 Y108.201 E0.02835
G1 X145.777 Y110.428 E0.07582
G1 X150.563 Y112.485 E0.16333
G1 X150.993 Y112.711 E0.01524
G1 X151.778 Y113.213 E0.02923
G1 X152.433 Y113.441 E0.02172
G1 X153.093 Y113.637 E0.02159
G1 X153.738 Y113.795 E0.02083
G1 X154.366 Y113.916 E0.02005
G1 X154.974 Y113.999 E0.01924
G1 X155.558 Y114.045 E0.01837
G1 X156.114 Y114.055 E0.01743
G1 X156.637 Y114.028 E0.01642
G1 X157.122 Y113.966 E0.01533
G1 X157.564 Y113.871 E0.01418
G1 X157.957 Y113.743 E0.01298
G1 X158.298 Y113.585 E0.01177
G1 X158.581 Y113.399 E0.01062
G1 X158.806 Y113.190 E0.00963
G1 X158.972 Y112.959 E0.00893
G1 X159.081 Y112.704 E0.00868
G1 X159.135 Y112.425 E0.00893
G1 X159.131 Y112.116 E0.00966
G1 X159.066 Y111.780 E0.01075
G1 X158.938 Y111.417 E0.01206
G1 X158.746 Y111.033 E0.01348
G1 X158.490 Y110.630 E0.01496
G1 X158.171 Y110.214 E0.01644
G1 X157.790 Y109.788 E0.01791
G1 X157.350 Y109.355 E0.01935
G1 X156.852 Y108.920 E0.02075
G1 X156.297 Y108.484 E0.02211
G1 X155.688 Y108.050 E0.02344
G1 X155.026 Y107.621 E0.02474
G1 X154.311 Y107.199 E0.02603
G1 X153.545 Y106.784 E0.02731
G1 X152.609 Y106.318 E0.03278
G1 X152.609 Y105.804 E0.01611
G1 X152.109 Y105.997 E0.01680
G1 X152.071 Y106.031 E0.00160
G1 X151.566 Y106.234 E0.01707
G1 X151.084 Y106.407 E0.01606
G1 X150.112 Y106.661 E0.03149
G1 X148.168 Y107.106 E0.06253
G1 X147.656 Y107.182 E0.01623
G1 X147.148 Y107.199 E0.01592
G1 X146.674 Y107.258 E0.01499
G1 X145.258 Y107.588 E0.04558
G1 X144.489 Y107.950 E0.02664
G1 X144.199 Y107.134 E0.02716
G1 X144.063 Y106.649 E0.01580
G1 X141.976 Y98.589 E0.26104
G1 X150.048 Y96.499 E0.26144
G1 X151.243 Y96.383 E0.03766
G1 X152.806 Y96.297 E0.04909
G1 X154.153 Y96.292 E0.04221
G1 X155.005 Y96.342 E0.02678
G1 X155.798 Y96.435 E0.02504
G1 X156.535 Y96.575 E0.02350
G1 X157.216 Y96.763 E0.02217
G1 X157.852 Y97.010 E0.02137
G1 X158.162 Y97.169 E0.01093
G1 X158.452 Y97.355 E0.01082
G1 X158.716 Y97.584 E0.01095
G1 X158.944 Y97.863 E0.01129
G1 X159.082 Y98.168 E0.01050
G1 X159.360 Y98.643 E0.01726
G1 X159.465 Y98.899 E0.00868
G1 X159.586 Y99.415 E0.01661
G1 X159.604 Y100.438 E0.03208
G1 X159.559 Y100.870 E0.01361
G1 X159.417 Y101.284 E0.01374
G1 X159.212 Y101.664 E0.01354
G1 X158.967 Y102.020 E0.01355
G1 X158.690 Y102.362 E0.01378
G1 X158.383 Y102.691 E0.01413
G1 X158.047 Y103.011 E0.01453
G1 X157.684 Y103.325 E0.01505
G1 X157.159 Y103.731 E0.02080
G1 X156.583 Y104.125 E0.02189
G1 X155.957 Y104.507 E0.02299
G1 X155.270 Y104.871 E0.02438
G1 X154.868 Y105.018 E0.01343
G1 X154.465 Y105.103 E0.01292
G1 X154.088 Y105.216 E0.01234
G1 X153.824 Y105.332 E0.00905
G1 X154.137 Y105.496 E0.01108
G1 X154.437 Y105.602 E0.00997
G1 X154.793 Y105.683 E0.01147
G1 X155.270 Y105.901 E0.01643
G1 X155.716 Y106.145 E0.01595
G1 X156.522 Y106.657 E0.02994
G1 X157.264 Y107.181 E0.02848
G1 X157.943 Y107.717 E0.02711
G1 X158.557 Y108.264 E0.02578
G1 X159.105 Y108.820 E0.02450
G1 X159.585 Y109.387 E0.02326
G1 X160.077 Y110.094 E0.02704
G1 X160.285 Y110.464 E0.01329
G1 X160.458 Y110.842 E0.01305
G1 X160.590 Y111.238 E0.01310
G1 X160.656 Y111.659 E0.01335
G1 X160.620 Y112.070 E0.01294
G1 X160.477 Y112.971 E0.02859
G1 X160.395 Y113.235 E0.00869
G1 X160.286 Y113.495 E0.00883
G1 X160.006 Y113.959 E0.01696
G1 X159.829 Y114.175 E0.00877
G1 X159.659 Y114.346 E0.00756
G1 X159.446 Y114.672 E0.01221
G1 X159.126 Y114.953 E0.01335
G1 X158.768 Y115.160 E0.01294
G1 X158.393 Y115.315 E0.01273
G1 X158.006 Y115.435 E0.01272
G1 X157.601 Y115.528 E0.01302
G1 X156.781 Y115.642 E0.02595
G1 X156.141 Y115.675 E0.02011
G1 X155.481 Y115.664 E0.02069
G1 X154.802 Y115.611 E0.02136
G1 X154.106 Y115.516 E0.02204
G1 X153.394 Y115.379 E0.02271
G1 X152.670 Y115.201 E0.02337
G1 X151.936 Y114.983 E0.02402
G1 X151.164 Y114.714 E0.02563
G1 X143.442 Y111.408 E0.26338
G1 X143.019 Y111.226 F10800.000
G1 F8640.000
G1 X144.456 Y108.914 E-0.62167
G1 X144.695 Y108.493 E-0.11173
G1 X144.766 Y108.402 E-0.02660
G1 E-0.04000 F2100.00000
G1 Z0.800 F10800.000
G1 X159.865 Y99.988
G1 Z0.200
G1 E0.80000 F2100.00000
G1 F1200.000
G1 X159.457 Y98.334 E0.05341
G1 X159.949 Y98.064 E0.01761
G1 X160.322 Y97.898 E0.01278
G1 X161.172 Y97.655 E0.02772
G1 X169.690 Y95.560 E0.27506
G1 X170.204 Y95.493 E0.01623
G1 X170.885 Y95.511 E0.02135
G1 X171.297 Y97.181 E0.05395
G1 X170.203 Y97.642 E0.03723
G1 X169.718 Y97.802 E0.01601
G1 X168.754 Y98.047 E0.03120
G1 X161.073 Y99.935 E0.24799
G1 X160.553 Y100.003 E0.01644
G1 X159.925 Y99.989 E0.01969
G1 X159.471 Y100.058 F10800.000
G1 F8640.000
G1 X159.457 Y98.334 E-0.39715
G1 X159.949 Y98.064 E-0.12972
G1 X160.322 Y97.898 E-0.09414
G1 X160.900 Y97.733 E-0.13898
G1 E-0.04000 F2100.00000
G1 Z0.800 F10800.000
G1 X172.905 Y99.958
G1 Z0.200
G1 E0.80000 F2100.00000
G1 F1200.000
G1 X172.605 Y99.979 E0.00942
G1 X172.327 Y99.928 E0.00887
G1 X172.071 Y99.808 E0.00887
G1 X171.853 Y99.627 E0.00887
G1 X171.688 Y99.398 E0.00887
G1 X171.595 Y99.156 E0.00810
G1 X171.481 Y98.651 E0.01623
G1 X171.412 Y98.148 E0.01592
G1 X171.417 Y97.663 E0.01522
G1 X170.867 Y95.365 E0.07410
G1 X170.704 Y94.932 E0.01450
