; generated by PrusaSlicer 2.6.1+win64 on 2023-09-08 at 07:15:32 UTC

; 

; external perimeters extrusion width = 0.45mm
; perimeters extrusion width = 0.45mm
; infill extrusion width = 0.45mm
; solid infill extrusion width = 0.45mm
; top infill extrusion width = 0.40mm
; first layer extrusion width = 0.42mm

M73 P0 R47
;TYPE:Custom
M862.3 P "MK2S" ; printer model check
M862.1 P0.4 ; nozzle diameter check
M115 U3.2.3 ; tell printer latest fw version
G90 ; use absolute coordinates
M83 ; extruder relative mode
M204 S2000 T1500 ; MK2 firmware only supports the old M204 format
M104 S220 ; set extruder temp
M140 S80 ; set bed temp
M190 S80 ; wait for bed temp
M109 S220 ; wait for extruder temp
G28 W ; home all without mesh bed level
G80 ; mesh bed leveling
G1 Y-3.0 F1000.0 ; go outside print area
G92 E0.0
G1 X60.0 E9.0  F1000.0 ; intro line
G1 X100.0 E12.5 F1000.0 ; intro line
G92 E0.0
G21 ; set units to millimeters
G90 ; use absolute coordinates
M83 ; use relative distances for extrusion
M900 K45 ; Filament gcode
M107
;LAYER_CHANGE
;Z:0.2
;HEIGHT:0.2
;BEFORE_LAYER_CHANGE
G92 E0.0
;0.2


G1 E-.8 F2100
G1 Z.4 F10800
;AFTER_LAYER_CHANGE
;0.2
G1 X100.13 Y83.177
G1 Z.2
G1 E.8 F2100
M204 S1000
;TYPE:Skirt/Brim
;WIDTH:0.42
G1 F1200
G1 X101.48 Y81.729 E.06207
G1 X102.808 Y80.459 E.05761
G1 X104.315 Y79.176 E.06206
G1 X105.897 Y77.985 E.06209
G1 X107.546 Y76.891 E.06205
G1 X109.384 Y75.83 E.06654
G1 X111.027 Y75.008 E.0576
G1 X112.846 Y74.226 E.06208
G1 X114.708 Y73.555 E.06206
G1 X116.607 Y72.995 E.06208
G1 X118.676 Y72.523 E.06654
G1 X120.488 Y72.222 E.05759
G1 X122.457 Y72.011 E.06209
G1 X124.949 Y71.922 E.07818
G1 X126.555 Y71.95 E.05036
G1 X128.529 Y72.102 E.06208
G1 X130.49 Y72.372 E.06207
G1 X132.293 Y72.727 E.05762
G1 X134.347 Y73.261 E.06654
G1 X136.228 Y73.877 E.06206
G1 X138.069 Y74.604 E.06206
G1 X139.736 Y75.376 E.0576
G1 X141.482 Y76.311 E.0621
G1 X143.287 Y77.426 E.06652
G1 X144.903 Y78.569 E.06206
G1 X146.34 Y79.715 E.05763
G1 X147.814 Y81.036 E.06206
G1 X149.206 Y82.443 E.06206
G1 X150.602 Y84.041 E.06653
G1 X151.809 Y85.61 E.06207
G1 X152.845 Y87.128 E.05762
G1 X153.864 Y88.825 E.06206
G1 X154.779 Y90.58 E.06206
G1 X155.642 Y92.519 E.06655
G1 X156.288 Y94.239 E.05761
G1 X156.875 Y96.129 E.06205
G1 X157.378 Y98.19 E.06652
G1 X157.728 Y100.139 E.06209
G1 X157.947 Y101.963 E.0576
G1 X158.07 Y103.939 E.06208
G1 X158.074 Y105.919 E.06208
G1 X157.947 Y108.037 E.06653
G1 X157.707 Y110.002 E.06207
G1 X157.378 Y111.81 E.05762
G1 X156.875 Y113.871 E.06652
G1 X156.288 Y115.761 E.06205
G1 X155.588 Y117.613 E.06208
G1 X154.841 Y119.292 E.05762
G1 X153.933 Y121.051 E.06207
G1 X152.845 Y122.872 E.06651
G1 X151.809 Y124.39 E.05762
G1 X150.602 Y125.959 E.06207
G1 X149.303 Y127.453 E.06207
G1 X147.916 Y128.866 E.06208
G1 X146.048 Y130.518 E.07819
G1 X144.789 Y131.516 E.05037
G1 X143.168 Y132.652 E.06206
G1 X141.605 Y133.618 E.05761
G1 X139.864 Y134.56 E.06207
G1 X137.939 Y135.452 E.06652
G1 X136.228 Y136.123 E.05763
G1 X134.347 Y136.739 E.06206
G1 X132.432 Y137.241 E.06207
G1 X130.49 Y137.628 E.06209
G1 X128.388 Y137.913 E.06651
G1 X126.555 Y138.05 E.05763
G1 X124.576 Y138.084 E.06206
G1 X122.457 Y137.989 E.06651
G1 X120.629 Y137.797 E.05763
G1 X118.676 Y137.477 E.06205
G1 X116.607 Y137.005 E.06654
G1 X114.708 Y136.445 E.06208
G1 X112.846 Y135.774 E.06206
G1 X111.156 Y135.051 E.05763
G1 X109.384 Y134.17 E.06205
G1 X107.667 Y133.184 E.06208
G1 X106.013 Y132.097 E.06206
G1 X104.315 Y130.824 E.06654
G1 X102.808 Y129.541 E.06206
G1 X101.38 Y128.169 E.06209
G1 X100.13 Y126.823 E.05759
G1 X98.87 Y125.296 E.06207
G1 X97.622 Y123.58 E.06653
G1 X96.633 Y122.031 E.05762
G1 X95.666 Y120.304 E.06206
G1 X94.803 Y118.523 E.06205
G1 X94.048 Y116.692 E.0621
G1 X93.362 Y114.685 E.0665
G1 X92.84 Y112.775 E.06208
G1 X92.458 Y110.978 E.0576
G1 X92.142 Y108.88 E.06652
G1 X91.968 Y106.908 E.06207
G1 X91.913 Y104.929 E.06207
G1 X91.968 Y103.092 E.05762
G1 X92.142 Y101.12 E.06207
G1 X92.458 Y99.022 E.06652
G1 X92.874 Y97.087 E.06206
G1 X93.362 Y95.315 E.05763
G1 X93.998 Y93.441 E.06205
G1 X94.745 Y91.607 E.06209
G1 X95.666 Y89.696 E.06651
G1 X96.56 Y88.091 E.0576
G1 X97.622 Y86.42 E.06208
G1 X98.87 Y84.704 E.06653
G1 X100.092 Y83.224 E.06018
; printing object Sektglas-Abdeckung-60mm.stl id:0 copy 0
;WIPE_START
G1 F8640
G1 X101.48 Y81.729 E-.47104
G1 X102.51 Y80.744 E-.32896
;WIPE_END
G1 Z.6 F10800
G1 X103.01 Y85.788
G1 Z.2
G1 E.8 F2100
;TYPE:Perimeter
;WIDTH:0.419999
G1 F1200
G1 X104.199 Y84.507 E.0548
G1 X105.461 Y83.3 E.05475
G1 X106.794 Y82.17 E.05479
G1 X108.192 Y81.123 E.05476
G1 X109.65 Y80.16 E.05479
G1 X111.163 Y79.287 E.05477
G1 X112.726 Y78.505 E.0548
G1 X114.332 Y77.818 E.05477
G1 X115.977 Y77.229 E.05478
G1 X117.654 Y76.739 E.05478
G1 X119.357 Y76.35 E.05477
G1 X121.08 Y76.064 E.05476
G1 X122.818 Y75.882 E.05479
G1 X124.563 Y75.803 E.05477
G1 X126.31 Y75.829 E.05478
G1 X128.052 Y75.96 E.05477
G1 X129.784 Y76.194 E.0548
G1 X131.498 Y76.532 E.05478
G1 X133.189 Y76.972 E.05479
G1 X134.85 Y77.511 E.05475
G1 X136.476 Y78.15 E.05478
G1 X138.062 Y78.884 E.0548
G1 X139.6 Y79.712 E.05477
G1 X141.086 Y80.63 E.05477
G1 X142.515 Y81.636 E.05479
G1 X143.881 Y82.725 E.05477
G1 X145.179 Y83.894 E.05477
G1 X146.405 Y85.139 E.05479
G1 X147.555 Y86.455 E.0548
G1 X148.623 Y87.837 E.05476
G1 X149.608 Y89.28 E.05478
G1 X150.504 Y90.78 E.05478
G1 X151.308 Y92.331 E.05478
G1 X152.019 Y93.927 E.05478
G1 X152.633 Y95.562 E.05476
G1 X153.148 Y97.232 E.05479
G1 X153.562 Y98.929 E.05477
G1 X153.874 Y100.648 E.05478
G1 X154.083 Y102.383 E.05479
G1 X154.187 Y104.377 E.06261
G1 X154.187 Y105.874 E.04694
G1 X154.083 Y107.617 E.05475
G1 X153.874 Y109.352 E.05479
G1 X153.562 Y111.071 E.05478
G1 X153.148 Y112.768 E.05477
G1 X152.633 Y114.438 E.05479
G1 X152.019 Y116.073 E.05476
G1 X151.308 Y117.669 E.05478
G1 X150.504 Y119.22 E.05478
G1 X149.608 Y120.72 E.05478
G1 X148.623 Y122.163 E.05478
G1 X147.555 Y123.545 E.05476
G1 X146.405 Y124.861 E.0548
G1 X145.179 Y126.106 E.05479
G1 X143.881 Y127.275 E.05477
G1 X142.515 Y128.364 E.05477
G1 X141.086 Y129.37 E.05479
G1 X139.6 Y130.288 E.05477
G1 X138.062 Y131.116 E.05477
G1 X136.476 Y131.85 E.0548
G1 X134.85 Y132.489 E.05478
G1 X133.189 Y133.028 E.05475
G1 X131.498 Y133.468 E.05479
G1 X129.784 Y133.806 E.05478
G1 X128.052 Y134.04 E.0548
G1 X126.31 Y134.171 E.05477
G1 X124.563 Y134.197 E.05478
G1 X122.818 Y134.118 E.05477
G1 X121.08 Y133.936 E.05479
G1 X119.357 Y133.65 E.05476
G1 X117.654 Y133.261 E.05477
G1 X115.977 Y132.771 E.05478
G1 X114.332 Y132.182 E.05478
G1 X112.726 Y131.495 E.05477
G1 X111.163 Y130.713 E.0548
G1 X109.65 Y129.84 E.05477
G1 X108.192 Y128.877 E.05479
G1 X106.794 Y127.83 E.05476
G1 X105.461 Y126.7 E.05479
G1 X104.199 Y125.493 E.05475
G1 X103.01 Y124.212 E.0548
G1 X101.901 Y122.862 E.05478
G1 X100.874 Y121.449 E.05477
G1 X99.933 Y119.977 E.05478
G1 X99.082 Y118.451 E.05478
G1 X98.324 Y116.877 E.05478
G1 X97.662 Y115.26 E.05478
G1 X97.097 Y113.607 E.05477
G1 X96.632 Y111.923 E.05478
G1 X96.269 Y110.214 E.05478
G1 X96.009 Y108.486 E.05479
G1 X95.852 Y106.746 E.05478
G1 X95.8 Y105 E.05477
G1 X95.852 Y103.254 E.05477
G1 X96.009 Y101.514 E.05478
G1 X96.269 Y99.786 E.05479
G1 X96.632 Y98.077 E.05478
G1 X97.097 Y96.393 E.05478
G1 X97.662 Y94.74 E.05477
G1 X98.324 Y93.123 E.05478
G1 X99.082 Y91.549 E.05478
G1 X99.933 Y90.023 E.05478
G1 X100.874 Y88.551 E.05478
G1 X101.901 Y87.138 E.05477
G1 X102.972 Y85.834 E.05291
G1 X102.726 Y85.54 F10800
;TYPE:External perimeter
G1 F1200
G1 X103.93 Y84.243 E.05549
G1 X105.209 Y83.02 E.05549
G1 X106.559 Y81.876 E.05548
G1 X107.975 Y80.814 E.0555
G1 X109.452 Y79.839 E.05549
G1 X110.984 Y78.954 E.05547
G1 X112.567 Y78.163 E.05549
G1 X114.194 Y77.467 E.05549
G1 X115.86 Y76.87 E.05549
G1 X117.559 Y76.374 E.05549
G1 X119.284 Y75.98 E.05548
G1 X121.03 Y75.69 E.05549
G1 X122.79 Y75.505 E.05549
G1 X124.558 Y75.426 E.05549
G1 X126.327 Y75.452 E.05547
G1 X128.092 Y75.585 E.0555
G1 X129.845 Y75.822 E.05546
G1 X131.582 Y76.164 E.05551
G1 X133.294 Y76.609 E.05546
G1 X134.977 Y77.156 E.05549
M73 P1 R47
G1 X136.625 Y77.803 E.05551
G1 X138.23 Y78.547 E.05547
G1 X139.789 Y79.385 E.0555
G1 X141.294 Y80.316 E.05549
G1 X142.741 Y81.334 E.05547
G1 X144.125 Y82.438 E.05551
G1 X145.44 Y83.622 E.05548
G1 X146.682 Y84.882 E.05547
G1 X147.846 Y86.215 E.05549
G1 X148.929 Y87.615 E.0555
G1 X149.925 Y89.077 E.05547
G1 X150.833 Y90.596 E.05549
G1 X151.648 Y92.167 E.05549
G1 X152.368 Y93.784 E.0555
G1 X152.99 Y95.44 E.05546
G1 X153.511 Y97.131 E.05548
G1 X153.931 Y98.851 E.05551
G1 X154.247 Y100.592 E.05548
G1 X154.458 Y102.349 E.05549
G1 X154.564 Y104.377 E.06367
G1 X154.564 Y105.885 E.04728
G1 X154.458 Y107.651 E.05547
G1 X154.247 Y109.408 E.05549
G1 X153.931 Y111.149 E.05548
G1 X153.511 Y112.869 E.05551
G1 X152.99 Y114.56 E.05548
G1 X152.368 Y116.216 E.05546
G1 X151.648 Y117.833 E.0555
G1 X150.833 Y119.404 E.05549
G1 X149.925 Y120.923 E.05549
G1 X148.929 Y122.385 E.05547
G1 X147.846 Y123.785 E.0555
G1 X146.682 Y125.118 E.05549
G1 X145.44 Y126.378 E.05547
G1 X144.125 Y127.562 E.05548
G1 X142.741 Y128.666 E.05551
G1 X141.294 Y129.684 E.05547
G1 X139.789 Y130.615 E.05549
G1 X138.23 Y131.453 E.0555
G1 X136.625 Y132.197 E.05547
G1 X134.977 Y132.844 E.05551
G1 X133.294 Y133.391 E.05549
G1 X131.582 Y133.836 E.05546
G1 X129.845 Y134.178 E.05551
G1 X128.092 Y134.415 E.05546
G1 X126.327 Y134.548 E.0555
G1 X124.558 Y134.574 E.05547
G1 X122.79 Y134.495 E.05549
G1 X121.03 Y134.31 E.05549
G1 X119.284 Y134.02 E.05549
G1 X117.559 Y133.626 E.05548
G1 X115.86 Y133.13 E.05549
G1 X114.194 Y132.533 E.05549
G1 X112.567 Y131.837 E.05549
G1 X110.984 Y131.046 E.05549
G1 X109.452 Y130.161 E.05547
G1 X107.975 Y129.186 E.05549
G1 X106.559 Y128.125 E.05548
G1 X105.209 Y126.98 E.0555
G1 X103.93 Y125.757 E.05549
G1 X102.726 Y124.46 E.05549
G1 X101.602 Y123.093 E.05549
G1 X100.562 Y121.661 E.05549
G1 X99.609 Y120.17 E.05548
G1 X98.748 Y118.625 E.05546
G1 X97.98 Y117.03 E.05551
G1 X97.309 Y115.393 E.05547
M73 P1 R46
G1 X96.737 Y113.718 E.0555
G1 X96.266 Y112.012 E.05549
G1 X95.898 Y110.281 E.05549
G1 X95.634 Y108.531 E.05549
G1 X95.476 Y106.769 E.05547
G1 X95.423 Y105 E.05549
G1 X95.476 Y103.231 E.05549
G1 X95.634 Y101.469 E.05547
G1 X95.898 Y99.719 E.05549
G1 X96.266 Y97.988 E.05549
G1 X96.737 Y96.282 E.05549
G1 X97.309 Y94.607 E.0555
G1 X97.98 Y92.97 E.05547
G1 X98.748 Y91.375 E.05551
G1 X99.609 Y89.83 E.05546
G1 X100.562 Y88.339 E.05548
G1 X101.602 Y86.907 E.05549
G1 X102.688 Y85.586 E.05362
G1 X103.119 Y85.617 F10800
;WIPE_START
G1 F8640
G1 X103.93 Y84.243 E-.42238
G1 X105.112 Y83.113 E-.37762
;WIPE_END
G1 Z.6 F10800
G1 X138.55 Y94.617
G1 Z.2
G1 E.8 F2100
;WIDTH:0.435752
G1 F1200
G1 X138.215 Y93.24 E.04629
;WIPE_START
G1 F8640
G1 X138.55 Y94.617 E-.32723
;WIPE_END
G1 E-.47277 F2100
G1 Z.6 F10800
G1 X126.943 Y97.013
G1 Z.2
G1 E.8 F2100
;WIDTH:0.557208
G1 F1200
G1 X126.818 Y96.49 E.023
;WIDTH:0.555324
G1 X126.799 Y96.429 E.00272
;WIPE_START
G1 F8640
G1 X126.818 Y96.49 E-.01475
G1 X126.943 Y97.013 E-.12416
;WIPE_END
G1 E-.66109 F2100
G1 Z.6 F10800
G1 X120.992 Y102.945
G1 Z.2
G1 E.8 F2100
;WIDTH:0.38292
G1 F1200
G1 X119.999 Y103.335 E.03016
G1 X119.943 Y104.035 F10800
;WIDTH:0.611308
G1 F1200
G1 X121.332 Y104.747 E.07377
;WIDTH:0.609872
G1 X122.264 Y105.294 E.05094
;WIDTH:0.611932
G1 X122.922 Y105.722 E.03714
G1 X123.53 Y106.15 E.03518
;WIDTH:0.603918
G1 X124.07 Y106.571 E.03194
;WIDTH:0.599776
G1 X124.496 Y106.941 E.02613
;WIDTH:0.597404
G1 X124.883 Y107.312 E.02472
;WIDTH:0.61545
G1 X125.383 Y107.868 E.0356
;WIDTH:0.61984
G1 X125.692 Y108.274 E.02448
G1 X125.962 Y108.714 E.02476
;WIDTH:0.598848
G1 X126.242 Y109.322 E.03094
G1 X126.335 Y109.924 E.02816
;WIDTH:0.592792
G1 X126.245 Y110.374 E.02098
;WIDTH:0.608056
G1 X126.023 Y110.72 E.01932
;WIDTH:0.61846
G1 X125.808 Y110.913 E.01383
G1 X125.372 Y111.177 E.02439
;WIDTH:0.598066
G1 X124.869 Y111.351 E.02457
;WIDTH:0.596878
G1 X124.251 Y111.489 E.02917
;WIDTH:0.599986
G1 X123.418 Y111.556 E.03871
G1 X122.892 Y111.548 E.02437
G1 X122.347 Y111.507 E.02532
;WIDTH:0.600154
G1 X121.78 Y111.434 E.02649
G1 X121.192 Y111.328 E.02768
;WIDTH:0.599796
G1 X120.586 Y111.187 E.02881
;WIDTH:0.598866
G1 X119.965 Y111.013 E.02981
;WIDTH:0.597534
G1 X119.321 Y110.801 E.03127
;WIDTH:0.596206
G1 X119.317 Y110.799 E.00021
G1 X118.765 Y110.165 F10800
;TYPE:Perimeter
;WIDTH:0.419999
G1 F1200
G1 X118.45 Y109.965 E.0117
G1 X117.993 Y109.727 E.01616
G1 X113.56 Y107.822 E.15128
G1 X114.174 Y106.387 E.04894
G1 X114.558 Y105.313 E.03576
G1 X114.47 Y105.189 E.00477
G1 X115.01 Y105.146 E.01698
G1 X115.548 Y105.064 E.01706
G1 X117.498 Y104.617 E.06273
G1 X118.247 Y104.421 E.02428
G1 X118.761 Y104.26 E.01689
G1 X118.679 Y104.78 E.01651
G1 X118.645 Y105.294 E.01615
G1 X118.639 Y108.62 E.10428
G1 X118.667 Y109.59 E.03043
G1 X118.755 Y110.106 E.01641
;WIPE_START
G1 F8640
G1 X118.45 Y109.965 E-.07759
G1 X117.993 Y109.727 E-.11897
G1 X115.592 Y108.695 E-.60344
;WIPE_END
G1 Z.6 F10800
G1 X114.023 Y104.89
G1 Z.2
G1 E.8 F2100
;TYPE:External perimeter
;WIDTH:0.508578
G1 F1200
G1 X113.816 Y104.914 E.00807
;WIDTH:0.47023
G1 X113.609 Y104.938 E.0074
;WIDTH:0.467946
G1 X112.573 Y105.199 E.03776
;WIDTH:0.471904
G1 X112.505 Y105.229 E.00265
;WIPE_START
G1 F8640
G1 X112.573 Y105.199 E-.01716
G1 X113.609 Y104.938 E-.24669
G1 X113.816 Y104.914 E-.04812
G1 X114.023 Y104.89 E-.04812
;WIPE_END
G1 E-.43991 F2100
G1 Z.6 F10800
G1 X114.203 Y105.186
G1 Z.2
G1 E.8 F2100
;WIDTH:0.464289
G1 F1200
G1 X114.113 Y105.038 E.00607
;WIDTH:0.508578
G1 X114.023 Y104.89 E.00671
G1 X114.489 Y104.831 E.01819
;WIDTH:0.464289
G1 X114.955 Y104.773 E.01645
;WIDTH:0.419999
G1 X115.463 Y104.697 E.01611
G1 X117.397 Y104.253 E.06222
G1 X118.38 Y103.996 E.03186
;WIDTH:0.421931
G1 X118.923 Y103.799 E.0182
;WIDTH:0.450773
G1 X119.204 Y103.693 E.01019
;WIDTH:0.479614
G1 X119.486 Y103.586 E.01095
G1 X119.743 Y103.461 E.01038
;WIDTH:0.431267
G1 X119.999 Y103.335 E.00921
;WIDTH:0.412188
G1 X119.943 Y103.408 E.00283
;WIDTH:0.441455
G1 X119.887 Y103.48 E.00302
;WIDTH:0.485031
G1 X119.868 Y103.663 E.00676
;WIDTH:0.528607
G1 X119.849 Y103.847 E.00747
;WIDTH:0.566216
G1 X119.896 Y103.941 E.00457
;WIDTH:0.603824
G1 X119.943 Y104.035 E.0049
G1 X119.795 Y104.023 E.00693
;WIDTH:0.562391
G1 X119.647 Y104.011 E.00641
;WIDTH:0.520958
G1 X119.499 Y103.999 E.0059
;WIDTH:0.479524
G1 X119.399 Y104.037 E.00388
;WIDTH:0.451875
G1 X119.298 Y104.075 E.00367
;WIDTH:0.424226
G1 X119.137 Y104.293 E.00859
;WIDTH:0.419999
G1 X119.058 Y104.789 E.01575
G1 X119.022 Y105.295 E.01591
G1 X119.016 Y108.621 E.10428
G1 X119.035 Y109.264 E.02017
G1 X119.078 Y109.778 E.01617
;WIDTH:0.458973
G1 X119.142 Y110.211 E.01514
;WIDTH:0.497946
G1 X119.206 Y110.643 E.01652
;WIDTH:0.547055
G1 X119.261 Y110.721 E.004
;WIDTH:0.596164
G1 X119.317 Y110.799 E.00442
G1 X119.203 Y110.776 E.00535
;WIDTH:0.547568
G1 X119.089 Y110.752 E.00489
;WIDTH:0.498972
G1 X118.976 Y110.729 E.00437
;WIDTH:0.450375
G1 X118.288 Y110.307 E.02734
;WIDTH:0.419999
G1 X117.844 Y110.074 E.01572
G1 X113.065 Y108.02 E.1631
G1 X113.827 Y106.239 E.06074
G1 X114.182 Y105.243 E.03315
G1 X114.328 Y105.067 F10800
;WIPE_START
G1 F8640
G1 X114.113 Y105.038 E-.04994
G1 X114.023 Y104.89 E-.04
G1 X114.489 Y104.831 E-.10846
G1 X114.955 Y104.773 E-.10843
G1 X115.463 Y104.697 E-.1186
G1 X117.044 Y104.334 E-.37457
;WIPE_END
G1 Z.6 F10800
G1 X111.516 Y105.677
G1 Z.2
G1 E.8 F2100
;TYPE:Perimeter
G1 F1200
G1 X111.376 Y105.53 E.00636
G1 X111.347 Y105.457 E.00246
G1 X110.995 Y104.366 E.03594
G1 X108.946 Y96.458 E.25614
G1 X108.949 Y96.163 E.00925
G1 X109.077 Y95.934 E.00823
G1 X109.283 Y95.791 E.00786
G1 X117.227 Y93.73 E.25732
G1 X118.127 Y93.636 E.02837
G1 X120.069 Y93.513 E.06101
G1 X121.066 Y93.508 E.03126
G1 X122.31 Y93.557 E.03903
G1 X123.124 Y93.652 E.0257
G1 X123.885 Y93.795 E.02428
G1 X124.596 Y93.989 E.02311
G1 X125.271 Y94.248 E.02267
G1 X125.993 Y94.668 E.02619
G1 X126.307 Y94.95 E.01323
G1 X126.586 Y95.322 E.01458
G1 X126.682 Y95.534 E.0073
G1 X127.382 Y95.182 E.02457
G1 X128.303 Y94.9 E.0302
G1 X136.878 Y92.788 E.2769
G1 X137.429 Y92.713 E.01744
G1 X137.642 Y92.712 E.00668
G1 X137.437 Y92.226 E.01654
G1 X137.268 Y91.728 E.01649
