; generated by PrusaSlicer 2.2.0+win64 on 2020-08-22 at 06:45:41 UTC

; 

; external perimeters extrusion width = 0.45mm
; perimeters extrusion width = 0.45mm
; infill extrusion width = 0.45mm
; solid infill extrusion width = 0.45mm
; top infill extrusion width = 0.40mm
; first layer extrusion width = 0.42mm

M73 P0 R71
M201 X9000 Y9000 Z500 E10000 ; sets maximum accelerations, mm/sec^2
M203 X500 Y500 Z12 E120 ; sets maximum feedrates, mm/sec
M204 P2000 R1500 T2000 ; sets acceleration (P, T) and retract acceleration (R), mm/sec^2
M205 X10.00 Y10.00 Z0.20 E2.50 ; sets the jerk limits, mm/sec
M205 S0 T0 ; sets the minimum extruding and travel feed rate, mm/sec
M107
M862.3 P "MK2S" ; printer model check
M862.1 P0.4 ; nozzle diameter check
M115 U3.2.3 ; tell printer latest fw version
G90 ; use absolute coordinates
M83 ; extruder relative mode
M204 S2000 T1500 ; MK2 firmware only supports the old M204 format
M104 S220 ; set extruder temp
M140 S80 ; set bed temp
M190 S80 ; wait for bed temp
M109 S220 ; wait for extruder temp
G28 W ; home all without mesh bed level
G80 ; mesh bed leveling
G1 Y-3.0 F1000.0 ; go outside print area
G92 E0.0
G1 X60.0 E9.0  F1000.0 ; intro line
M73 P0 R71
G1 X100.0 E12.5 F1000.0 ; intro line
G92 E0.0
G21 ; set units to millimeters
G90 ; use absolute coordinates
M83 ; use relative distances for extrusion
M900 K45 ; Filament gcode
;BEFORE_LAYER_CHANGE
G92 E0.0
;0.2


G1 E-0.80000 F2100.00000
G1 Z0.600 F10800.000
;AFTER_LAYER_CHANGE
;0.2
G1 X75.211 Y88.850
G1 Z0.200
G1 E0.80000 F2100.00000
M204 S1000
G1 F1200.000
G1 X75.878 Y88.286 E0.02736
G1 X77.257 Y87.251 E0.05407
G1 X78.700 Y86.299 E0.05419
G1 X80.137 Y85.468 E0.05204
G1 X81.756 Y84.655 E0.05682
G1 X84.897 Y83.420 E0.10583
G1 X86.689 Y82.897 E0.05853
G1 X88.306 Y82.529 E0.05200
G1 X90.011 Y82.246 E0.05419
G1 X91.726 Y82.065 E0.05407
G1 X93.391 Y81.989 E0.05224
G1 X156.931 Y81.794 E1.99226
G1 X160.280 Y81.943 E0.10513
G1 X162.065 Y82.181 E0.05646
G1 X163.829 Y82.532 E0.05638
G1 X165.434 Y82.950 E0.05200
G1 X167.074 Y83.483 E0.05407
G1 X168.750 Y84.145 E0.05650
G1 X170.255 Y84.843 E0.05200
G1 X171.773 Y85.660 E0.05407
G1 X173.300 Y86.607 E0.05634
G1 X175.956 Y88.597 E0.10404
G1 X177.296 Y89.800 E0.05646
G1 X178.555 Y91.083 E0.05638
G1 X180.662 Y93.645 E0.10400
G1 X181.711 Y95.183 E0.05837
G1 X183.329 Y98.085 E0.10416
G1 X184.062 Y99.725 E0.05634
G1 X184.691 Y101.410 E0.05638
G1 X185.179 Y102.995 E0.05200
G1 X185.588 Y104.670 E0.05407
G1 X185.906 Y106.444 E0.05650
G1 X186.103 Y108.091 E0.05200
G1 X186.206 Y109.812 E0.05407
G1 X186.203 Y111.614 E0.05650
G1 X185.906 Y114.918 E0.10400
G1 X185.574 Y116.749 E0.05837
G1 X184.691 Y119.948 E0.10404
G1 X184.061 Y121.635 E0.05646
G1 X183.327 Y123.276 E0.05638
G1 X181.711 Y126.173 E0.10400
G1 X180.702 Y127.660 E0.05634
G1 X179.647 Y129.024 E0.05407
G1 X178.555 Y130.275 E0.05204
G1 X177.294 Y131.560 E0.05646
G1 X175.956 Y132.760 E0.05638
G1 X174.658 Y133.794 E0.05200
G1 X173.248 Y134.786 E0.05407
G1 X171.713 Y135.731 E0.05650
G1 X168.740 Y137.218 E0.10424
G1 X167.014 Y137.895 E0.05813
G1 X165.431 Y138.408 E0.05216
G1 X163.762 Y138.842 E0.05407
G1 X162.067 Y139.176 E0.05419
G1 X160.422 Y139.400 E0.05204
G1 X158.588 Y139.539 E0.05765
G1 X93.482 Y139.757 E2.04137
G1 X91.731 Y139.679 E0.05496
G1 X89.990 Y139.495 E0.05490
G1 X88.304 Y139.215 E0.05360
G1 X86.619 Y138.830 E0.05419
G1 X84.960 Y138.345 E0.05419
G1 X83.329 Y137.761 E0.05431
G1 X81.743 Y137.083 E0.05407
G1 X80.194 Y136.308 E0.05431
G1 X78.698 Y135.444 E0.05419
G1 X77.202 Y134.452 E0.05626
G1 X75.873 Y133.454 E0.05212
G1 X74.506 Y132.291 E0.05626
G1 X72.181 Y129.931 E0.10388
G1 X71.080 Y128.599 E0.05419
G1 X70.021 Y127.147 E0.05634
G1 X69.090 Y125.691 E0.05419
G1 X68.249 Y124.181 E0.05419
G1 X67.506 Y122.641 E0.05360
G1 X66.818 Y120.955 E0.05710
G1 X66.283 Y119.386 E0.05200
G1 X65.823 Y117.720 E0.05419
G1 X65.465 Y116.033 E0.05407
G1 X65.216 Y114.388 E0.05216
G1 X65.049 Y112.529 E0.05853
G1 X65.000 Y110.871 E0.05200
G1 X65.052 Y109.143 E0.05419
G1 X65.206 Y107.426 E0.05407
G1 X65.453 Y105.780 E0.05216
G1 X65.840 Y103.959 E0.05837
G1 X66.284 Y102.356 E0.05216
G1 X66.841 Y100.724 E0.05407
G1 X67.496 Y99.125 E0.05419
G1 X68.217 Y97.625 E0.05216
G1 X69.124 Y95.999 E0.05837
G1 X70.020 Y94.598 E0.05216
G1 X71.036 Y93.200 E0.05419
G1 X72.132 Y91.868 E0.05407
G1 X73.260 Y90.650 E0.05204
G1 X74.608 Y89.361 E0.05849
G1 X75.166 Y88.889 E0.02292
G1 F8640.000
G1 X75.878 Y88.286 E-0.21536
G1 X77.257 Y87.251 E-0.39821
G1 X77.787 Y86.902 E-0.14643
G1 E-0.04000 F2100.00000
G1 Z0.800 F10800.000
G1 X145.892 Y113.501
G1 Z0.200
G1 E0.80000 F2100.00000
G1 F1200.000
G1 X146.693 Y111.600 E0.06468
G1 X146.938 Y110.842 E0.02499
G1 X147.310 Y110.829 E0.01166
G1 X147.858 Y110.748 E0.01736
G1 X149.822 Y110.298 E0.06317
G1 X150.815 Y110.038 E0.03219
G1 X151.093 Y109.939 E0.00925
G1 X151.013 Y110.433 E0.01569
G1 X150.977 Y110.954 E0.01638
G1 X150.971 Y114.308 E0.10516
G1 X151.000 Y115.300 E0.03113
G1 X151.076 Y115.830 E0.01678
G1 X150.803 Y115.655 E0.01016
G1 X150.345 Y115.415 E0.01621
G1 X145.947 Y113.524 E0.15011
G1 F8640.000
G1 X146.693 Y111.600 E-0.47663
G1 X146.938 Y110.842 E-0.18403
G1 X147.310 Y110.829 E-0.08585
G1 X147.368 Y110.821 E-0.01349
G1 E-0.04000 F2100.00000
G1 Z0.800 F10800.000
G1 X142.510 Y114.852
G1 Z0.200
G1 E0.80000 F2100.00000
G1 F1200.000
G1 X143.738 Y112.016 E0.09691
G1 X143.896 Y111.738 E0.01002
G1 X143.459 Y110.519 E0.04059
G1 X143.318 Y110.018 E0.01633
G1 X141.136 Y101.589 E0.27299
G1 X149.602 Y99.398 E0.27419
G1 X150.834 Y99.278 E0.03884
G1 X152.415 Y99.191 E0.04963
G1 X153.783 Y99.186 E0.04288
G1 X154.658 Y99.237 E0.02749
G1 X155.475 Y99.333 E0.02580
G1 X156.240 Y99.478 E0.02440
G1 X156.955 Y99.675 E0.02326
G1 X157.626 Y99.936 E0.02258
G1 X157.970 Y100.112 E0.01212
G1 X158.298 Y100.324 E0.01223
G1 X158.607 Y100.591 E0.01281
G1 X158.887 Y100.933 E0.01387
G1 X159.012 Y101.210 E0.00953
G1 X159.401 Y100.997 E0.01391
G1 X159.812 Y100.814 E0.01410
G1 X160.694 Y100.561 E0.02877
G1 X169.241 Y98.459 E0.27595
G1 X169.804 Y98.386 E0.01781
G1 X169.992 Y98.391 E0.00589
G1 X169.764 Y97.896 E0.01710
G1 X169.594 Y97.388 E0.01679
G1 X169.453 Y96.852 E0.01739
G1 X169.415 Y96.521 E0.01044
G1 X169.468 Y96.145 E0.01191
G1 X169.614 Y95.794 E0.01191
G1 X169.844 Y95.492 E0.01190
G1 X170.142 Y95.258 E0.01190
G1 X170.521 Y95.093 E0.01296
G1 X170.878 Y95.067 E0.01122
G1 X171.296 Y95.127 E0.01323
G1 X171.650 Y95.293 E0.01228
G1 X171.943 Y95.535 E0.01190
G1 X172.164 Y95.843 E0.01190
G1 X172.283 Y96.150 E0.01031
G1 X173.685 Y101.846 E0.18392
G1 X173.723 Y102.173 E0.01031
G1 X173.670 Y102.548 E0.01190
G1 X173.523 Y102.899 E0.01190
G1 X173.294 Y103.201 E0.01190
G1 X172.995 Y103.435 E0.01190
G1 X172.616 Y103.600 E0.01296
G1 X172.204 Y103.630 E0.01296
G1 X171.831 Y103.561 E0.01190
G1 X171.487 Y103.400 E0.01190
G1 X171.194 Y103.157 E0.01191
G1 X170.973 Y102.849 E0.01191
G1 X170.853 Y102.537 E0.01048
G1 X170.729 Y101.989 E0.01761
G1 X170.655 Y101.443 E0.01729
G1 X170.658 Y100.970 E0.01481
G1 X169.955 Y101.266 E0.02391
G1 X169.443 Y101.435 E0.01689
G1 X160.763 Y103.577 E0.28035
G1 X160.193 Y103.651 E0.01800
G1 X159.599 Y103.638 E0.01863
G1 X159.550 Y104.222 E0.01837
G1 X159.383 Y104.707 E0.01607
G1 X159.154 Y105.132 E0.01514
G1 X158.889 Y105.517 E0.01466
G1 X158.595 Y105.880 E0.01467
G1 X158.271 Y106.227 E0.01488
G1 X157.542 Y106.887 E0.03082
G1 X157.001 Y107.306 E0.02146
G1 X156.408 Y107.713 E0.02255
G1 X155.764 Y108.106 E0.02366
G1 X155.044 Y108.487 E0.02554
G1 X154.630 Y108.639 E0.01384
G1 X155.059 Y108.835 E0.01478
G1 X155.527 Y109.091 E0.01676
G1 X156.352 Y109.614 E0.03061
G1 X157.109 Y110.150 E0.02909
G1 X157.805 Y110.699 E0.02778
G1 X158.437 Y111.261 E0.02652
G1 X159.003 Y111.837 E0.02533
G1 X159.504 Y112.427 E0.02426
G1 X160.017 Y113.165 E0.02817
G1 X160.241 Y113.563 E0.01434
G1 X160.429 Y113.974 E0.01417
G1 X160.578 Y114.420 E0.01473
G1 X160.655 Y114.917 E0.01576
G1 X160.588 Y115.573 E0.02068
G1 X161.049 Y115.655 E0.01468
G1 X161.583 Y115.811 E0.01744
G1 X162.524 Y116.197 E0.03188
G1 X169.269 Y119.134 E0.23067
G1 X169.744 Y119.352 E0.01640
G1 X170.234 Y119.635 E0.01772
G1 X170.503 Y119.851 E0.01084
G1 X170.649 Y119.276 E0.01862
G1 X171.048 Y118.275 E0.03377
G1 X171.223 Y117.984 E0.01068
G1 X171.496 Y117.717 E0.01196
G1 X171.828 Y117.529 E0.01195
G1 X172.196 Y117.431 E0.01195
G1 X172.522 Y117.430 E0.01021
G1 X172.964 Y117.525 E0.01418
G1 X173.317 Y117.755 E0.01322
G1 X173.573 Y118.038 E0.01195
G1 X173.750 Y118.376 E0.01195
G1 X173.834 Y118.747 E0.01195
G1 X173.823 Y119.128 E0.01195
G1 X173.729 Y119.445 E0.01036
G1 X171.325 Y124.902 E0.18698
G1 X171.155 Y125.185 E0.01036
G1 X170.882 Y125.451 E0.01195
G1 X170.550 Y125.639 E0.01195
G1 X170.182 Y125.737 E0.01195
G1 X169.801 Y125.739 E0.01195
G1 X169.404 Y125.637 E0.01285
G1 X169.061 Y125.413 E0.01285
G1 X168.805 Y125.131 E0.01195
G1 X168.629 Y124.793 E0.01195
G1 X168.544 Y124.421 E0.01195
G1 X168.556 Y124.040 E0.01195
G1 X168.652 Y123.715 E0.01062
G1 X169.111 Y122.750 E0.03352
G1 X169.472 Y122.184 E0.02105
G1 X169.143 Y122.122 E0.01049
G1 X168.612 Y121.969 E0.01734
G1 X167.669 Y121.585 E0.03192
G1 X161.825 Y119.042 E0.19983
G1 X160.917 Y118.642 E0.03110
G1 X160.443 Y118.411 E0.01655
G1 X159.975 Y118.129 E0.01713
G1 X159.585 Y117.843 E0.01516
G1 X159.353 Y118.192 E0.01312
G1 X158.967 Y118.532 E0.01614
G1 X158.555 Y118.769 E0.01490
G1 X158.141 Y118.940 E0.01405
G1 X157.724 Y119.070 E0.01369
G1 X157.290 Y119.170 E0.01398
G1 X156.437 Y119.289 E0.02700
G1 X155.767 Y119.323 E0.02102
G1 X155.083 Y119.312 E0.02145
G1 X154.381 Y119.257 E0.02207
G1 X153.664 Y119.159 E0.02270
G1 X152.934 Y119.018 E0.02333
G1 X152.191 Y118.836 E0.02396
G1 X151.440 Y118.613 E0.02458
G1 X150.647 Y118.336 E0.02632
G1 X142.565 Y114.876 E0.27565
G1 F8640.000
G1 X143.738 Y112.016 E-0.71373
G1 X143.837 Y111.842 E-0.04627
G1 E-0.04000 F2100.00000
G1 Z0.800 F10800.000
G1 X151.599 Y109.774
G1 Z0.200
G1 E0.80000 F2100.00000
G1 F1200.000
G1 X151.754 Y109.664 E0.00594
G1 X151.861 Y109.723 E0.00382
G1 X151.965 Y109.711 E0.00330
G1 X152.261 Y109.806 E0.00974
G1 X153.628 Y110.508 E0.04819
G1 X154.834 Y111.226 E0.04402
G1 X155.883 Y111.955 E0.04003
G1 X156.349 Y112.323 E0.01863
G1 X156.773 Y112.690 E0.01758
G1 X157.157 Y113.058 E0.01669
G1 X157.495 Y113.422 E0.01557
G1 X157.787 Y113.778 E0.01442
G1 X158.033 Y114.122 E0.01326
G1 X158.234 Y114.451 E0.01210
G1 X158.389 Y114.764 E0.01095
G1 X158.500 Y115.057 E0.00984
G1 X158.563 Y115.331 E0.00880
G1 X158.584 Y115.646 E0.00989
G1 X158.568 Y115.807 E0.00507
G1 X158.485 Y116.066 E0.00853
G1 X158.406 Y116.201 E0.00490
G1 X158.216 Y116.423 E0.00917
G1 X157.884 Y116.665 E0.01288
G1 X157.662 Y116.778 E0.00781
G1 X157.161 Y116.958 E0.01671
G1 X156.553 Y117.084 E0.01946
G1 X155.735 Y117.145 E0.02573
G1 X155.220 Y117.137 E0.01616
G1 X154.681 Y117.096 E0.01694
G1 X154.118 Y117.023 E0.01778
G1 X153.535 Y116.917 E0.01859
G1 X152.933 Y116.778 E0.01936
G1 X152.317 Y116.605 E0.02008
G1 X151.578 Y116.362 E0.02438
G1 X151.447 Y115.762 E0.01925
G1 X151.376 Y115.268 E0.01566
G1 X151.348 Y114.303 E0.03027
G1 X151.354 Y110.967 E0.10458
G1 X151.388 Y110.476 E0.01545
G1 X151.477 Y109.921 E0.01761
G1 X151.561 Y109.820 E0.00412
G1 X151.541 Y109.594 F10800.000
G1 F8640.000
G1 X151.754 Y109.664 E-0.05725
G1 X151.861 Y109.723 E-0.02811
G1 X151.965 Y109.711 E-0.02429
G1 X152.261 Y109.806 E-0.07171
G1 X153.628 Y110.508 E-0.35489
G1 X154.461 Y111.003 E-0.22375
G1 E-0.04000 F2100.00000
G1 Z0.800 F10800.000
G1 X143.007 Y114.655
G1 Z0.200
G1 E0.80000 F2100.00000
G1 F1200.000
G1 X144.076 Y112.184 E0.08440
G1 X144.315 Y111.763 E0.01517
G1 X144.600 Y111.400 E0.01450
G1 X144.827 Y110.923 E0.01655
G1 X145.966 Y110.617 E0.03697
G1 X146.617 Y110.611 E0.02041
G1 X146.338 Y111.471 E0.02835
G1 X145.397 Y113.699 E0.07582
G1 X150.183 Y115.755 E0.16333
G1 X150.613 Y115.982 E0.01524
G1 X151.398 Y116.484 E0.02923
G1 X152.052 Y116.712 E0.02172
G1 X152.712 Y116.908 E0.02159
G1 X153.358 Y117.066 E0.02083
G1 X153.986 Y117.187 E0.02005
G1 X154.594 Y117.270 E0.01924
G1 X155.178 Y117.316 E0.01837
G1 X155.733 Y117.325 E0.01743
G1 X156.256 Y117.299 E0.01642
G1 X156.741 Y117.237 E0.01533
G1 X157.183 Y117.141 E0.01418
G1 X157.577 Y117.013 E0.01298
G1 X157.917 Y116.855 E0.01177
G1 X158.201 Y116.670 E0.01062
G1 X158.425 Y116.461 E0.00963
G1 X158.592 Y116.229 E0.00893
G1 X158.701 Y115.975 E0.00868
G1 X158.755 Y115.695 E0.00893
G1 X158.751 Y115.387 E0.00966
G1 X158.686 Y115.051 E0.01075
G1 X158.558 Y114.688 E0.01206
G1 X158.366 Y114.303 E0.01348
G1 X158.109 Y113.901 E0.01496
G1 X157.790 Y113.485 E0.01644
G1 X157.410 Y113.059 E0.01791
G1 X156.970 Y112.626 E0.01935
G1 X156.471 Y112.191 E0.02075
G1 X155.917 Y111.755 E0.02211
G1 X155.308 Y111.321 E0.02344
G1 X154.645 Y110.892 E0.02474
G1 X153.931 Y110.470 E0.02603
G1 X153.165 Y110.055 E0.02731
G1 X152.229 Y109.589 E0.03278
G1 X152.229 Y109.075 E0.01611
G1 X151.729 Y109.267 E0.01680
G1 X151.691 Y109.301 E0.00160
G1 X151.186 Y109.505 E0.01707
G1 X150.703 Y109.678 E0.01606
G1 X149.732 Y109.931 E0.03149
G1 X147.788 Y110.377 E0.06253
G1 X147.276 Y110.453 E0.01623
G1 X146.768 Y110.470 E0.01592
G1 X146.294 Y110.529 E0.01499
G1 X144.878 Y110.859 E0.04558
G1 X144.109 Y111.221 E0.02664
G1 X143.819 Y110.405 E0.02716
G1 X143.682 Y109.919 E0.01580
G1 X141.595 Y101.860 E0.26104
G1 X149.668 Y99.770 E0.26144
G1 X150.863 Y99.654 E0.03766
G1 X152.426 Y99.568 E0.04909
G1 X153.772 Y99.563 E0.04221
G1 X154.625 Y99.613 E0.02678
G1 X155.418 Y99.706 E0.02504
G1 X156.155 Y99.846 E0.02350
G1 X156.836 Y100.033 E0.02217
G1 X157.471 Y100.280 E0.02137
G1 X157.782 Y100.439 E0.01093
G1 X158.072 Y100.626 E0.01082
G1 X158.336 Y100.855 E0.01095
G1 X158.564 Y101.133 E0.01129
G1 X158.702 Y101.438 E0.01050
G1 X158.980 Y101.914 E0.01726
G1 X159.084 Y102.170 E0.00868
G1 X159.206 Y102.686 E0.01661
G1 X159.224 Y103.709 E0.03208
G1 X159.179 Y104.140 E0.01361
G1 X159.037 Y104.555 E0.01374
G1 X158.832 Y104.935 E0.01354
G1 X158.587 Y105.291 E0.01355
G1 X158.310 Y105.632 E0.01378
G1 X158.003 Y105.962 E0.01413
G1 X157.667 Y106.282 E0.01453
G1 X157.304 Y106.595 E0.01505
G1 X156.779 Y107.001 E0.02080
G1 X156.203 Y107.396 E0.02189
G1 X155.577 Y107.778 E0.02299
G1 X154.890 Y108.142 E0.02438
G1 X154.488 Y108.289 E0.01343
G1 X154.085 Y108.373 E0.01292
G1 X153.708 Y108.487 E0.01234
G1 X153.443 Y108.602 E0.00905
G1 X153.756 Y108.767 E0.01108
G1 X154.056 Y108.873 E0.00997
G1 X154.413 Y108.954 E0.01147
G1 X154.889 Y109.172 E0.01643
G1 X155.336 Y109.416 E0.01595
G1 X156.142 Y109.928 E0.02994
G1 X156.884 Y110.452 E0.02848
G1 X157.563 Y110.988 E0.02711
G1 X158.177 Y111.534 E0.02578
G1 X158.725 Y112.091 E0.02450
G1 X159.204 Y112.657 E0.02326
G1 X159.697 Y113.365 E0.02704
G1 X159.904 Y113.735 E0.01329
G1 X160.078 Y114.113 E0.01305
G1 X160.210 Y114.509 E0.01310
G1 X160.275 Y114.930 E0.01335
G1 X160.240 Y115.341 E0.01294
G1 X160.097 Y116.242 E0.02859
G1 X160.015 Y116.506 E0.00869
G1 X159.905 Y116.766 E0.00883
G1 X159.626 Y117.229 E0.01696
G1 X159.449 Y117.446 E0.00877
G1 X159.278 Y117.616 E0.00756
G1 X159.065 Y117.942 E0.01221
G1 X158.746 Y118.224 E0.01335
G1 X158.388 Y118.430 E0.01294
G1 X158.013 Y118.585 E0.01273
G1 X157.625 Y118.705 E0.01272
G1 X157.221 Y118.799 E0.01302
G1 X156.401 Y118.913 E0.02595
G1 X155.760 Y118.946 E0.02011
G1 X155.101 Y118.935 E0.02069
G1 X154.422 Y118.882 E0.02136
G1 X153.725 Y118.786 E0.02204
G1 X153.014 Y118.650 E0.02271
G1 X152.290 Y118.472 E0.02337
G1 X151.556 Y118.254 E0.02402
G1 X150.784 Y117.985 E0.02563
G1 X143.062 Y114.678 E0.26338
G1 X142.639 Y114.497 F10800.000
G1 F8640.000
G1 X144.076 Y112.184 E-0.62167
G1 X144.315 Y111.763 E-0.11173
G1 X144.386 Y111.673 E-0.02660
G1 E-0.04000 F2100.00000
G1 Z0.800 F10800.000
G1 X159.485 Y103.259
G1 Z0.200
G1 E0.80000 F2100.00000
G1 F1200.000
G1 X159.076 Y101.605 E0.05341
G1 X159.569 Y101.335 E0.01761
G1 X159.941 Y101.169 E0.01278
G1 X160.791 Y100.926 E0.02772
G1 X169.310 Y98.830 E0.27506
G1 X169.824 Y98.764 E0.01623
G1 X170.504 Y98.782 E0.02135
G1 X170.917 Y100.452 E0.05395
G1 X169.823 Y100.913 E0.03723
G1 X169.338 Y101.072 E0.01601
G1 X168.374 Y101.318 E0.03120
G1 X160.693 Y103.206 E0.24799
