; generated by PrusaSlicer 2.6.1+win64 on 2023-09-19 at 10:53:43 UTC

; 

; external perimeters extrusion width = 0.45mm
; perimeters extrusion width = 0.45mm
; infill extrusion width = 0.45mm
; solid infill extrusion width = 0.45mm
; top infill extrusion width = 0.40mm
; first layer extrusion width = 0.42mm

M73 P0 R47
;TYPE:Custom
M862.3 P "MK2S" ; printer model check
M862.1 P0.4 ; nozzle diameter check
M115 U3.2.3 ; tell printer latest fw version
G90 ; use absolute coordinates
M83 ; extruder relative mode
M204 S2000 T1500 ; MK2 firmware only supports the old M204 format
M104 S240 ; set extruder temp
M140 S85 ; set bed temp
M190 S85 ; wait for bed temp
M109 S240 ; wait for extruder temp
G28 W ; home all without mesh bed level
G80 ; mesh bed leveling
G1 Y-3.0 F1000.0 ; go outside print area
G92 E0.0
G1 X60.0 E9.0  F1000.0 ; intro line
G1 X100.0 E12.5 F1000.0 ; intro line
G92 E0.0
G21 ; set units to millimeters
G90 ; use absolute coordinates
M83 ; use relative distances for extrusion
M900 K0.08 ; Filament gcode LA 1.5
M900 K45 ; Filament gcode LA 1.0
M107
;LAYER_CHANGE
;Z:0.2
;HEIGHT:0.2
;BEFORE_LAYER_CHANGE
G92 E0.0
;0.2


G1 E-1.4 F2100
G1 Z.2 F10800
;AFTER_LAYER_CHANGE
;0.2
G1 Z.4
G1 X99.001 Y82.191
G1 Z.2
G1 E1.4 F2100
M204 S1000
;TYPE:Skirt/Brim
;WIDTH:0.42
G1 F1200
G1 X100.411 Y80.677 E.06487
G1 X101.804 Y79.345 E.06043
G1 X103.38 Y78.003 E.0649
G1 X105.149 Y76.677 E.06932
G1 X106.758 Y75.615 E.06045
G1 X108.548 Y74.577 E.06488
G1 X110.397 Y73.647 E.06489
G1 X112.298 Y72.83 E.06488
G1 X114.38 Y72.084 E.06934
G1 X116.367 Y71.508 E.06487
G1 X118.386 Y71.052 E.0649
G1 X120.287 Y70.736 E.06042
G1 X122.344 Y70.515 E.06487
G1 X124.944 Y70.422 E.08157
G1 X126.623 Y70.451 E.05265
G1 X128.686 Y70.61 E.06488
G1 X130.736 Y70.892 E.06488
G1 X132.627 Y71.265 E.06043
G1 X135.139 Y71.942 E.08157
G1 X136.734 Y72.465 E.05263
G1 X138.659 Y73.225 E.06489
G1 X140.407 Y74.035 E.06041
G1 X142.232 Y75.012 E.06491
G1 X144.113 Y76.174 E.06932
G1 X145.803 Y77.369 E.0649
G1 X147.309 Y78.57 E.0604
G1 X148.85 Y79.952 E.0649
G1 X150.305 Y81.423 E.06487
G1 X151.76 Y83.088 E.06933
G1 X152.939 Y84.613 E.06044
G1 X154.109 Y86.32 E.06489
G1 X155.243 Y88.219 E.06935
G1 X156.192 Y90.057 E.06486
G1 X157.03 Y91.95 E.06491
G1 X157.753 Y93.889 E.06488
G1 X158.321 Y95.73 E.06041
G1 X158.846 Y97.879 E.06936
G1 X159.211 Y99.915 E.06486
G1 X159.454 Y101.971 E.06491
G1 X159.569 Y103.894 E.0604
G1 X159.573 Y105.964 E.0649
G1 X159.441 Y108.171 E.06932
G1 X159.211 Y110.085 E.06044
G1 X158.846 Y112.121 E.06486
G1 X158.359 Y114.133 E.06491
G1 X157.753 Y116.111 E.06486
G1 X156.976 Y118.182 E.06935
G1 X156.192 Y119.943 E.06044
G1 X155.243 Y121.781 E.06486
G1 X154.109 Y123.68 E.06935
G1 X153.023 Y125.272 E.06042
G1 X151.76 Y126.912 E.0649
G1 X150.402 Y128.473 E.06487
G1 X148.953 Y129.95 E.06487
G1 X147.309 Y131.43 E.06936
G1 X145.803 Y132.631 E.0604
G1 X144.113 Y133.826 E.0649
G1 X141.888 Y135.174 E.08157
G1 X140.407 Y135.965 E.05264
G1 X138.528 Y136.831 E.06487
G1 X136.734 Y137.535 E.06043
G1 X134.767 Y138.179 E.0649
G1 X132.627 Y138.735 E.06933
G1 X130.736 Y139.108 E.06043
G1 X128.686 Y139.39 E.06488
G1 X126.623 Y139.549 E.06488
G1 X124.554 Y139.584 E.06488
G1 X122.344 Y139.485 E.06936
G1 X120.428 Y139.283 E.06041
G1 X118.386 Y138.948 E.06488
G1 X116.367 Y138.492 E.0649
G1 X114.38 Y137.916 E.06487
G1 X112.298 Y137.17 E.06934
G1 X110.526 Y136.412 E.06043
G1 X108.673 Y135.491 E.06488
G1 X106.758 Y134.385 E.06934
G1 X105.149 Y133.323 E.06045
G1 X103.491 Y132.085 E.06488
G1 X101.91 Y130.75 E.06488
G1 X100.411 Y129.324 E.06487
G1 X98.907 Y127.702 E.06936
G1 X97.683 Y126.214 E.06041
G1 X96.463 Y124.542 E.0649
G1 X95.346 Y122.801 E.06486
G1 X94.334 Y120.995 E.06491
G1 X93.375 Y119.003 E.06932
G1 X92.594 Y117.086 E.0649
G1 X91.929 Y115.127 E.06487
G1 X91.416 Y113.269 E.06044
G1 X90.982 Y111.246 E.06487
G1 X90.652 Y109.059 E.06935
G1 X90.471 Y106.997 E.0649
G1 X90.413 Y104.929 E.06487
G1 X90.48 Y102.861 E.06487
G1 X90.652 Y100.941 E.06044
G1 X90.982 Y98.754 E.06935
G1 X91.383 Y96.869 E.06043
G1 X91.929 Y94.873 E.06488
G1 X92.594 Y92.914 E.06487
G1 X93.375 Y90.997 E.0649
G1 X94.334 Y89.005 E.06932
G1 X95.273 Y87.322 E.06043
G1 X96.383 Y85.575 E.0649
G1 X97.683 Y83.786 E.06934
G1 X98.962 Y82.237 E.06298
; printing object Sektglas-Abdeckung-63mm.stl id:0 copy 0
;WIPE_START
G1 F8640
G1 X100.411 Y80.677 E-.49162
G1 X101.804 Y79.345 E-.44503
G1 X103.332 Y78.044 E-.46335
;WIPE_END
G1 Z.4 F10800
G1 X101.881 Y84.801
G1 Z.2
G1 E1.4 F2100
;TYPE:Perimeter
;WIDTH:0.419999
G1 F1200
G1 X103.13 Y83.455 E.05757
G1 X104.458 Y82.185 E.05761
G1 X105.859 Y80.998 E.05757
G1 X107.329 Y79.896 E.0576
G1 X108.861 Y78.884 E.05757
G1 X110.452 Y77.966 E.05759
G1 X112.095 Y77.144 E.0576
G1 X113.784 Y76.422 E.05759
G1 X115.513 Y75.802 E.05759
G1 X117.276 Y75.287 E.05759
G1 X119.067 Y74.879 E.05759
G1 X120.879 Y74.578 E.05759
G1 X122.706 Y74.386 E.0576
G1 X124.541 Y74.303 E.05759
G1 X126.377 Y74.331 E.05757
G1 X128.209 Y74.468 E.0576
G1 X130.029 Y74.715 E.05759
G1 X131.831 Y75.07 E.05759
G1 X133.609 Y75.532 E.0576
G1 X135.356 Y76.099 E.05759
G1 X137.066 Y76.77 E.0576
G1 X138.733 Y77.543 E.05761
G1 X140.35 Y78.413 E.05757
G1 X141.913 Y79.379 E.05761
G1 X143.415 Y80.436 E.05759
G1 X144.851 Y81.581 E.05759
G1 X146.216 Y82.81 E.05759
G1 X147.505 Y84.119 E.0576
G1 X148.713 Y85.502 E.05758
G1 X149.837 Y86.955 E.0576
G1 X150.872 Y88.473 E.05761
G1 X151.814 Y90.049 E.05757
G1 X152.66 Y91.68 E.05761
G1 X153.407 Y93.358 E.05759
G1 X154.052 Y95.077 E.05757
G1 X154.594 Y96.833 E.05762
G1 X155.029 Y98.617 E.05757
G1 X155.357 Y100.424 E.05758
G1 X155.577 Y102.248 E.0576
G1 X155.686 Y104.349 E.06596
G1 X155.686 Y105.918 E.04919
G1 X155.577 Y107.752 E.05761
G1 X155.357 Y109.576 E.0576
G1 X155.029 Y111.383 E.05758
G1 X154.594 Y113.167 E.05757
G1 X154.052 Y114.923 E.05762
G1 X153.407 Y116.642 E.05757
G1 X152.66 Y118.32 E.05759
G1 X151.814 Y119.951 E.05761
G1 X150.872 Y121.527 E.05757
G1 X149.837 Y123.045 E.05761
G1 X148.713 Y124.498 E.0576
G1 X147.505 Y125.881 E.05758
G1 X146.216 Y127.19 E.0576
G1 X144.851 Y128.419 E.05759
G1 X143.415 Y129.564 E.05759
G1 X141.913 Y130.621 E.05759
G1 X140.35 Y131.587 E.05761
G1 X138.733 Y132.457 E.05757
G1 X137.066 Y133.23 E.05761
G1 X135.356 Y133.901 E.0576
G1 X133.609 Y134.468 E.05759
G1 X131.831 Y134.93 E.0576
G1 X130.029 Y135.285 E.05759
G1 X128.209 Y135.532 E.05759
G1 X126.377 Y135.669 E.0576
G1 X124.541 Y135.697 E.05757
G1 X122.706 Y135.614 E.05759
G1 X120.879 Y135.422 E.0576
G1 X119.067 Y135.121 E.05759
G1 X117.276 Y134.713 E.05759
G1 X115.513 Y134.198 E.05759
G1 X113.784 Y133.578 E.05759
G1 X112.095 Y132.856 E.05759
G1 X110.452 Y132.034 E.0576
G1 X108.861 Y131.116 E.05759
G1 X107.329 Y130.104 E.05757
G1 X105.859 Y129.002 E.0576
G1 X104.458 Y127.815 E.05757
G1 X103.13 Y126.545 E.05761
G1 X101.881 Y125.199 E.05757
G1 X100.714 Y123.78 E.05761
G1 X99.634 Y122.294 E.0576
G1 X98.646 Y120.746 E.05758
G1 X97.751 Y119.142 E.05759
G1 X96.954 Y117.487 E.05759
G1 X96.258 Y115.787 E.0576
G1 X95.664 Y114.049 E.05759
G1 X95.175 Y112.278 E.05761
G1 X94.793 Y110.482 E.05757
G1 X94.52 Y108.665 E.05761
G1 X94.355 Y106.836 E.05758
G1 X94.3 Y105 E.05759
G1 X94.355 Y103.164 E.05759
G1 X94.52 Y101.335 E.05758
G1 X94.793 Y99.518 E.05761
G1 X95.175 Y97.722 E.05757
G1 X95.664 Y95.951 E.05761
G1 X96.258 Y94.213 E.05759
G1 X96.954 Y92.513 E.0576
G1 X97.751 Y90.858 E.05759
G1 X98.646 Y89.254 E.05759
G1 X99.634 Y87.706 E.05758
G1 X100.714 Y86.22 E.0576
G1 X101.843 Y84.848 E.05571
G1 X101.597 Y84.553 F10800
;TYPE:External perimeter
G1 F1200
G1 X102.861 Y83.19 E.05828
G1 X104.205 Y81.905 E.0583
G1 X105.624 Y80.703 E.05831
G1 X107.111 Y79.587 E.05829
G1 X108.663 Y78.563 E.0583
G1 X110.273 Y77.633 E.0583
G1 X111.936 Y76.802 E.05829
G1 X113.646 Y76.071 E.05831
M73 P1 R47
G1 X115.397 Y75.444 E.05831
G1 X117.181 Y74.922 E.05828
G1 X118.994 Y74.509 E.0583
G1 X120.828 Y74.204 E.05829
G1 X122.678 Y74.01 E.05832
G1 X124.535 Y73.926 E.05828
G1 X126.394 Y73.954 E.05829
G1 X128.248 Y74.093 E.05829
G1 X130.091 Y74.343 E.05832
G1 X131.915 Y74.702 E.05829
G1 X133.715 Y75.17 E.05831
G1 X135.483 Y75.744 E.05828
G1 X137.214 Y76.424 E.05831
G1 X138.901 Y77.205 E.05829
G1 X140.539 Y78.086 E.05832
G1 X142.12 Y79.064 E.05829
G1 X143.641 Y80.134 E.05831
G1 X145.095 Y81.293 E.0583
G1 X146.476 Y82.537 E.05828
G1 X147.781 Y83.862 E.05831
G1 X149.005 Y85.262 E.05831
G1 X150.142 Y86.733 E.05829
G1 X151.19 Y88.269 E.0583
G1 X152.143 Y89.866 E.05831
G1 X153 Y91.516 E.0583
G1 X153.756 Y93.215 E.05831
G1 X154.409 Y94.956 E.0583
G1 X154.957 Y96.732 E.05828
G1 X155.398 Y98.539 E.05832
G1 X155.73 Y100.368 E.05828
G1 X155.952 Y102.214 E.0583
G1 X156.063 Y104.349 E.06703
G1 X156.063 Y105.93 E.04957
G1 X155.952 Y107.786 E.0583
G1 X155.73 Y109.632 E.0583
G1 X155.398 Y111.461 E.05828
G1 X154.957 Y113.268 E.05832
G1 X154.409 Y115.044 E.05828
G1 X153.756 Y116.785 E.0583
G1 X153 Y118.484 E.05831
G1 X152.143 Y120.134 E.0583
G1 X151.19 Y121.731 E.05831
G1 X150.142 Y123.267 E.0583
G1 X149.005 Y124.738 E.05829
G1 X147.781 Y126.138 E.05831
G1 X146.476 Y127.463 E.05831
G1 X145.095 Y128.707 E.05828
G1 X143.641 Y129.866 E.0583
G1 X142.12 Y130.936 E.05831
G1 X140.539 Y131.914 E.05829
G1 X138.901 Y132.795 E.05832
G1 X137.214 Y133.576 E.05829
G1 X135.483 Y134.256 E.05831
G1 X133.715 Y134.83 E.05828
G1 X131.915 Y135.298 E.05831
G1 X130.091 Y135.657 E.05829
G1 X128.248 Y135.907 E.05832
G1 X126.394 Y136.046 E.05829
G1 X124.535 Y136.074 E.05829
G1 X122.678 Y135.99 E.05828
G1 X120.828 Y135.796 E.05832
G1 X118.994 Y135.491 E.05829
G1 X117.181 Y135.078 E.0583
G1 X115.397 Y134.556 E.05828
G1 X113.646 Y133.929 E.05831
G1 X111.936 Y133.198 E.05831
G1 X110.273 Y132.367 E.05829
G1 X108.663 Y131.437 E.0583
G1 X107.111 Y130.413 E.0583
G1 X105.624 Y129.297 E.05829
G1 X104.205 Y128.095 E.05831
G1 X102.861 Y126.81 E.0583
G1 X101.597 Y125.447 E.05828
G1 X100.416 Y124.011 E.0583
G1 X99.323 Y122.506 E.05832
G1 X98.322 Y120.94 E.05827
G1 X97.416 Y119.316 E.05831
G1 X96.609 Y117.64 E.05832
G1 X95.904 Y115.92 E.05828
G1 X95.303 Y114.16 E.05831
G1 X94.809 Y112.368 E.05828
G1 X94.422 Y110.549 E.05831
G1 X94.145 Y108.71 E.05831
G1 X93.978 Y106.859 E.05827
G1 X93.923 Y105 E.05831
G1 X93.978 Y103.141 E.05831
G1 X94.145 Y101.29 E.05827
G1 X94.422 Y99.451 E.05831
G1 X94.809 Y97.632 E.05831
G1 X95.303 Y95.84 E.05828
G1 X95.904 Y94.08 E.05831
M73 P1 R46
G1 X96.609 Y92.36 E.05828
G1 X97.416 Y90.684 E.05832
G1 X98.322 Y89.06 E.05831
G1 X99.323 Y87.494 E.05827
G1 X100.416 Y85.989 E.05832
G1 X101.558 Y84.599 E.05641
G1 X101.989 Y84.63 F10800
;WIPE_START
G1 F8640
G1 X102.861 Y83.19 E-.44313
G1 X104.205 Y81.905 E-.42935
G1 X105.624 Y80.703 E-.4294
G1 X105.964 Y80.448 E-.09812
;WIPE_END
G1 Z.4 F10800
G1 X138.55 Y94.617
G1 Z.2
G1 E1.4 F2100
;WIDTH:0.435752
G1 F1200
G1 X138.215 Y93.24 E.04629
;WIPE_START
G1 F8640
G1 X138.55 Y94.617 E-.32723
;WIPE_END
G1 E-1.07277 F2100
G1 Z.4 F10800
G1 X126.943 Y97.013
G1 Z.2
G1 E1.4 F2100
;WIDTH:0.557208
G1 F1200
G1 X126.818 Y96.49 E.023
;WIDTH:0.555324
G1 X126.799 Y96.429 E.00272
;WIPE_START
G1 F8640
G1 X126.818 Y96.49 E-.01475
G1 X126.943 Y97.013 E-.12416
;WIPE_END
G1 E-1.26109 F2100
G1 Z.4 F10800
G1 X119.999 Y103.335
G1 Z.2
G1 E1.4 F2100
;WIDTH:0.38292
G1 F1200
G1 X120.992 Y102.945 E.03016
;WIPE_START
G1 F8640
G1 X120.982 Y102.949 E-.00249
G1 X120.024 Y103.325 E-.23763
G1 X119.999 Y103.335 E-.00622
;WIPE_END
G1 E-1.15366 F2100
G1 Z.4 F10800
G1 X119.943 Y104.035
G1 Z.2
G1 E1.4 F2100
;WIDTH:0.611308
G1 F1200
G1 X121.332 Y104.747 E.07377
;WIDTH:0.609872
G1 X122.264 Y105.294 E.05094
;WIDTH:0.611932
G1 X122.922 Y105.722 E.03714
G1 X123.53 Y106.15 E.03518
;WIDTH:0.603918
G1 X124.07 Y106.571 E.03194
;WIDTH:0.599776
G1 X124.496 Y106.941 E.02613
;WIDTH:0.597404
G1 X124.883 Y107.312 E.02472
;WIDTH:0.61545
G1 X125.383 Y107.868 E.0356
;WIDTH:0.61984
G1 X125.692 Y108.274 E.02448
G1 X125.962 Y108.714 E.02476
;WIDTH:0.598848
G1 X126.242 Y109.322 E.03094
G1 X126.335 Y109.924 E.02816
;WIDTH:0.592792
G1 X126.245 Y110.374 E.02098
;WIDTH:0.608056
G1 X126.023 Y110.72 E.01932
G1 X125.617 Y111.05 E.02459
;WIDTH:0.598586
G1 X125.145 Y111.269 E.02404
;WIDTH:0.59701
G1 X124.572 Y111.427 E.02738
;WIDTH:0.600736
G1 X123.917 Y111.53 E.03075
G1 X123.411 Y111.556 E.0235
;WIDTH:0.599926
G1 X122.892 Y111.548 E.02404
;WIDTH:0.600074
G1 X122.347 Y111.507 E.02532
G1 X121.78 Y111.434 E.02648
G1 X121.192 Y111.328 E.02768
;WIDTH:0.599796
G1 X120.586 Y111.187 E.02881
;WIDTH:0.598866
G1 X119.965 Y111.013 E.02981
;WIDTH:0.597534
G1 X119.321 Y110.801 E.03127
;WIDTH:0.596206
G1 X119.317 Y110.799 E.00021
G1 X118.765 Y110.165 F10800
;TYPE:Perimeter
;WIDTH:0.419999
G1 F1200
G1 X118.45 Y109.965 E.0117
G1 X117.993 Y109.727 E.01616
G1 X113.56 Y107.822 E.15128
G1 X114.174 Y106.387 E.04894
G1 X114.558 Y105.313 E.03576
G1 X114.47 Y105.189 E.00477
G1 X115.01 Y105.146 E.01698
G1 X115.548 Y105.064 E.01706
G1 X117.498 Y104.617 E.06273
G1 X118.247 Y104.421 E.02428
G1 X118.761 Y104.26 E.01689
G1 X118.679 Y104.78 E.01651
G1 X118.645 Y105.294 E.01615
G1 X118.639 Y108.62 E.10428
G1 X118.667 Y109.59 E.03043
G1 X118.755 Y110.106 E.01641
G1 X119.203 Y110.776 F10800
;TYPE:External perimeter
;WIDTH:0.547568
G1 F1200
G1 X119.089 Y110.752 E.00489
;WIDTH:0.498972
G1 X118.976 Y110.729 E.00437
;WIDTH:0.450375
G1 X118.288 Y110.307 E.02734
;WIDTH:0.419999
G1 X117.844 Y110.074 E.01572
G1 X113.065 Y108.02 E.1631
G1 X113.827 Y106.239 E.06074
G1 X114.203 Y105.186 E.03506
;WIDTH:0.464289
G1 X114.113 Y105.038 E.00607
;WIDTH:0.508578
G1 X114.023 Y104.89 E.00671
G1 X114.489 Y104.831 E.01819
;WIDTH:0.464289
G1 X114.955 Y104.773 E.01645
;WIDTH:0.419999
G1 X115.463 Y104.697 E.01611
G1 X117.397 Y104.253 E.06222
G1 X118.38 Y103.996 E.03186
;WIDTH:0.421931
G1 X118.923 Y103.799 E.0182
;WIDTH:0.450773
G1 X119.204 Y103.693 E.01019
;WIDTH:0.479614
G1 X119.486 Y103.586 E.01095
G1 X119.743 Y103.461 E.01038
;WIDTH:0.431267
G1 X119.999 Y103.335 E.00921
;WIDTH:0.412188
G1 X119.943 Y103.408 E.00283
;WIDTH:0.441455
G1 X119.887 Y103.48 E.00302
;WIDTH:0.485031
G1 X119.868 Y103.663 E.00676
;WIDTH:0.528607
G1 X119.849 Y103.847 E.00747
;WIDTH:0.566216
G1 X119.896 Y103.941 E.00457
;WIDTH:0.603824
G1 X119.943 Y104.035 E.0049
G1 X119.795 Y104.023 E.00693
;WIDTH:0.562391
G1 X119.647 Y104.011 E.00641
;WIDTH:0.520958
G1 X119.499 Y103.999 E.0059
;WIDTH:0.479524
G1 X119.399 Y104.037 E.00388
;WIDTH:0.451875
G1 X119.298 Y104.075 E.00367
;WIDTH:0.424226
G1 X119.137 Y104.293 E.00859
;WIDTH:0.419999
G1 X119.058 Y104.789 E.01575
G1 X119.022 Y105.295 E.01591
G1 X119.016 Y108.621 E.10428
G1 X119.035 Y109.264 E.02017
G1 X119.078 Y109.778 E.01617
;WIDTH:0.458973
G1 X119.142 Y110.211 E.01514
;WIDTH:0.497946
G1 X119.206 Y110.643 E.01652
;WIDTH:0.547055
G1 X119.261 Y110.721 E.004
;WIDTH:0.596164
G1 X119.317 Y110.799 E.00442
G1 X119.262 Y110.788 E.00258
G1 X119.134 Y110.683 F10800
;WIPE_START
G1 F8640
G1 X119.089 Y110.752 E-.0408
G1 X118.976 Y110.729 E-.02663
G1 X118.288 Y110.307 E-.18636
G1 X117.844 Y110.074 E-.11578
G1 X113.744 Y108.312 E-1.03043
;WIPE_END
G1 Z.4 F10800
G1 X112.505 Y105.229
G1 Z.2
G1 E1.4 F2100
;WIDTH:0.471904
G1 F1200
G1 X112.573 Y105.199 E.00265
;WIDTH:0.467946
G1 X113.609 Y104.938 E.03776
;WIDTH:0.47023
G1 X113.816 Y104.914 E.0074
;WIDTH:0.508578
G1 X114.023 Y104.89 E.00807
;WIPE_START
G1 F8640
G1 X113.816 Y104.914 E-.04812
G1 X113.609 Y104.938 E-.04812
G1 X112.573 Y105.199 E-.24669
G1 X112.505 Y105.229 E-.01716
;WIPE_END
G1 E-1.03991 F2100
G1 Z.4 F10800
G1 X111.516 Y105.677
G1 Z.2
G1 E1.4 F2100
;TYPE:Perimeter
;WIDTH:0.419999
G1 F1200
G1 X111.376 Y105.53 E.00636
G1 X111.347 Y105.457 E.00246
G1 X110.995 Y104.366 E.03594
G1 X108.946 Y96.458 E.25614
G1 X108.937 Y96.215 E.00762
G1 X109.031 Y95.991 E.00762
G1 X109.255 Y95.803 E.00917
G1 X117.227 Y93.73 E.25827
G1 X118.491 Y93.6 E.03984
G1 X120.072 Y93.513 E.04965
G1 X121.433 Y93.507 E.04267
G1 X122.31 Y93.557 E.02754
G1 X123.124 Y93.652 E.0257
G1 X123.885 Y93.795 E.02428
G1 X124.521 Y93.968 E.02067
G1 X125.271 Y94.248 E.0251
G1 X125.731 Y94.506 E.01654
G1 X126.066 Y94.738 E.01278
G1 X126.474 Y95.157 E.01834
G1 X126.711 Y95.515 E.01346
G1 X127.423 Y95.162 E.02492
G1 X128.298 Y94.901 E.02863
