( Made using CamBam - http://www.cambam.co.uk )
( Blume 5/17/2020 12:06:10 PM )
( T0 : 2.0 )
G21 G90 G64 G40
G0 Z3.0
( T0 : 2.0 )
T0 M6
( Gravieren1 )
G17
M3 S1000
G0 X3.29059 Y0.30142
G0 Z1.0
G1 F300.0 Z-0.6
G3 F800.0 X-1.95941 Y3.33251 I-3.5 J0.0
G3 Y-2.72967 I1.75 J-3.03109
G3 X3.29059 Y0.30142 I1.75 J3.03109
G1 F300.0 X3.12072 Y1.37856
G3 F800.0 X7.97463 Y2.49442 I0.62658 J8.38948
G3 X11.13539 Y5.58696 I-2.55456 J5.77243
G3 X9.38757 Y9.45561 I-3.42352 J0.78243
G3 X5.31181 Y9.85889 I-2.34669 J-2.91936
G3 X3.27541 Y7.33538 I3.76243 J-5.11959
G2 X0.72955 Y3.67312 I-14.50508 J7.36734
G3 X2.34111 Y5.89914 I-5.24723 J5.49518
G3 X0.1117 Y12.36224 I-4.27053 J2.14296
G3 X-3.43912 Y11.23296 I-1.22724 J-2.28829
G3 X-3.60921 Y6.94533 I6.22221 J-2.39402
G3 X-2.22995 Y3.15929 I11.00564 J1.86513
G1 F300.0 X-2.6907 Y2.76987
G3 F800.0 X-3.91368 Y8.15273 I-19.01583 J-1.49001
G3 X-8.95748 Y9.55427 I-2.99836 J-1.01389
G3 X-9.65662 Y5.20464 I2.48361 J-2.63021
G2 X-8.68979 Y3.73347 I-6.92356 J-5.60334
G3 X-10.76791 Y4.1912 I-2.87782 J-8.11923
G3 X-12.92998 Y1.7818 I-0.04838 J-2.13135
G3 X-9.77738 Y-1.68777 I3.27726 J-0.18921
G3 X-3.53984 Y-0.7748 I-4.65062 J53.53811
G3 X-8.90891 Y-5.43405 I-0.11886 J-5.28616
G3 X-1.64221 Y-9.0022 I4.59171 J0.16768
G3 X0.06917 Y-3.18747 I-6.31838 J5.01882
G3 X-0.02252 Y-6.83595 I9.24742 J-2.05776
G3 X3.08032 Y-9.95294 I3.81845 J0.69823
G3 X7.54074 Y-8.37884 I1.23157 J3.61683
G3 X5.14008 Y-2.16945 I-4.27017 J1.91784
G3 X2.90428 Y-1.29699 I-93.75454 J-236.95733
G3 X7.92745 Y-4.10155 I9.4963 J11.10783
G3 X11.00194 Y-3.54662 I0.95624 J3.49635
G3 X10.3057 Y2.34665 I-2.71086 J2.6675
G3 X6.6873 Y2.24439 I-1.66645 J-5.10208
G2 X2.89387 Y1.91996 I-2.84622 J10.93999
G1 F300.0 Z-1.2
G3 F800.0 X6.6873 Y2.24439 I0.94722 J11.26442
G2 X10.3057 Y2.34665 I1.95195 J-4.99981
G2 X11.00194 Y-3.54662 I-2.01462 J-3.22577
G2 X7.92745 Y-4.10155 I-2.11825 J2.94141
G2 X2.90428 Y-1.29699 I4.47314 J13.91239
G3 X3.29059 Y0.30142 I-3.11369 J1.59841
G3 X-1.95941 Y3.33251 I-3.5 J0.0
G3 Y-2.72967 I1.75 J-3.03109
G3 X2.90428 Y-1.29699 I1.75 J3.03109
G2 X5.14008 Y-2.16945 I-91.51874 J-237.82979
G2 X7.54074 Y-8.37884 I-1.86952 J-4.29155
G2 X3.08032 Y-9.95294 I-3.22885 J2.04272
G2 X-0.02252 Y-6.83595 I0.71562 J3.81523
G2 X0.06917 Y-3.18747 I9.3391 J1.59071
G2 X-1.64221 Y-9.0022 I-8.02976 J-0.79591
G2 X-8.90891 Y-5.43405 I-2.67498 J3.73583
G2 X-3.53984 Y-0.7748 I5.2502 J-0.62691
G2 X-9.77738 Y-1.68777 I-10.88816 J52.62515
G2 X-12.92998 Y1.7818 I0.12466 J3.28035
G2 X-10.76791 Y4.1912 I2.11369 J0.27805
G2 X-8.68979 Y3.73347 I-0.7997 J-8.57696
G3 X-9.65662 Y5.20464 I-7.89039 J-4.13216
G2 X-8.95748 Y9.55427 I3.18274 J1.71943
G2 X-3.91368 Y8.15273 I2.04544 J-2.41543
G2 X-2.6907 Y2.76987 I-17.79285 J-6.87288
G1 F300.0 X-2.22995 Y3.15929
G2 F800.0 X-3.60921 Y6.94533 I9.62638 J5.65117
G2 X-3.43912 Y11.23296 I6.3923 J1.89361
G2 X0.1117 Y12.36224 I2.32359 J-1.15901
G2 X2.34111 Y5.89914 I-2.04112 J-4.32013
G2 X0.72955 Y3.67312 I-6.85879 J3.26916
G3 X3.27541 Y7.33538 I-11.95921 J11.0296
G2 X5.31181 Y9.85889 I5.79883 J-2.59608
G2 X9.38757 Y9.45561 I1.72906 J-3.32265
G2 X11.13539 Y5.58696 I-1.6757 J-3.08622
G2 X7.97463 Y2.49442 I-5.71532 J2.67988
G2 X3.12072 Y1.37856 I-4.22733 J7.27363
G0 Z3.0
M5
M30
