( Made using CamBam - http://www.cambam.co.uk )
( Herz 5/17/2020 3:26:52 PM )
( T3 : 3.0 )
G21 G90 G64 G40
G0 Z3.0
( T3 : 3.0 )
T3 M6
( Tasche3 )
G17
M3 S1000
G0 X-15.29032 Y6.00244
G0 Z1.0
G1 F300.0 Z-0.6
G1 F800.0 X-15.29627 Y2.32242
G2 X-16.09922 Y0.31658 I-24.40541 J8.60597
G2 X-16.1718 Y0.58221 I2.12319 J0.72289
G2 X-16.22389 Y2.41257 I6.70903 J1.10687
G2 X-15.29032 Y6.00244 I16.65554 J-2.41508
G1 F300.0 X-15.85083 Y6.21653
G2 F800.0 X-15.74575 Y6.48496 I16.28247 J-6.21903
G2 X-14.68572 Y8.84899 I48.8326 J-20.47682
G1 X-14.69643 Y2.21987
G2 X-15.77344 Y-0.40917 I-25.00524 J8.70853
G3 X-15.80339 Y-0.47276 I13.28427 J-6.29429
G2 X-16.04013 Y-0.91538 I-4.25444 J1.99096
G2 X-16.76182 Y0.47264 I2.0641 J1.95484
G2 X-16.81927 Y2.48771 I7.29905 J1.21644
G2 X-15.85083 Y6.21653 I17.25091 J-2.49021
G1 F300.0 X-16.97184 Y6.6447
G2 F800.0 X-16.85599 Y6.94043 I17.40349 J-6.6472
G2 X-13.97245 Y12.80125 I49.94284 J-20.93229
G2 X-13.47798 Y13.63622 I200.46208 J-118.14806
G1 X-13.49676 Y2.01824
G2 X-14.68901 Y-0.92299 I-26.20492 J8.91015
G3 X-14.71651 Y-0.98138 I12.19984 J-5.78047
G2 X-15.47205 Y-2.18966 I-5.34131 J2.49959
G3 X-15.57096 Y-2.31347 I10.49776 J-8.48806
G2 X-16.71204 Y-1.93695 I-0.06131 J1.73156
G2 X-17.94214 Y0.25537 I2.73601 J2.97642
G2 X-18.00991 Y2.63867 I8.47937 J1.4337
G2 X-16.97184 Y6.6447 I18.44155 J-2.64117
G1 F300.0 X-18.09286 Y7.07286
G2 F800.0 X-17.96615 Y7.39607 I18.5245 J-7.07537
G2 X-15.0108 Y13.40283 I51.05301 J-21.38794
G2 X-12.27103 Y17.93376 I201.50044 J-118.74964
G1 X-12.29707 Y1.82102
G2 X-13.60458 Y-1.4368 I-27.4046 J9.10738
G3 X-13.62964 Y-1.49001 I11.11541 J-5.26665
G2 X-14.53892 Y-2.94415 I-6.42819 J3.00822
G3 X-14.63417 Y-3.06347 I9.56462 J-7.73356
G2 X-15.38067 Y-3.50374 I-0.94014 J0.74105
G2 X-17.49496 Y-2.84704 I-0.2516 J2.92183
G2 X-19.12265 Y0.03947 I3.51893 J3.8865
G2 X-19.20042 Y2.79034 I9.65988 J1.64961
G2 X-18.09286 Y7.07286 I19.63206 J-2.79285
G1 F300.0 X-19.21387 Y7.50103
G2 F800.0 X-19.07625 Y7.85187 I19.64551 J-7.50353
G2 X-16.04912 Y14.00447 I52.16311 J-21.84374
G2 X-11.06432 Y22.08595 I202.53875 J-119.35128
G1 X-11.09738 Y1.62791
G2 X-12.52015 Y-1.95062 I-28.60429 J9.30048
G3 X-12.54276 Y-1.99864 I10.03098 J-4.75283
G2 X-13.60578 Y-3.69865 I-7.51506 J3.51685
G3 X-13.69174 Y-3.80632 I8.63149 J-6.97907
G2 X-15.23596 Y-4.69551 I-1.88257 J1.48391
G2 X-18.27989 Y-3.75506 I-0.39631 J4.1136
G2 X-20.30328 Y-0.17569 I4.30386 J4.79452
G2 X-20.39084 Y2.94255 I10.8405 J1.86477
G2 X-19.21387 Y7.50103 I20.82248 J-2.94505
G1 F300.0 X-20.33488 Y7.9292
G2 F800.0 X-20.18629 Y8.30781 I20.76653 J-7.9317
G2 X-17.0874 Y14.60618 I53.27315 J-22.29967
G2 X-11.88163 Y23.03219 I203.57703 J-119.95299
G3 X-9.85775 Y26.14948 I-268.18751 J176.3343
G1 X-9.89769 Y1.43868
G2 X-11.43572 Y-2.46444 I-29.80399 J9.48972
G3 X-11.45589 Y-2.50727 I8.94655 J-4.23901
G2 X-12.67265 Y-4.45314 I-8.60194 J4.02548
G3 X-12.74932 Y-4.54917 I7.69836 J-6.22457
G2 X-15.09469 Y-5.88739 I-2.825 J2.22676
G2 X-19.06566 Y-4.66222 I-0.53758 J5.30548
G2 X-21.48396 Y-0.3904 I5.08963 J5.70168
G2 X-21.58119 Y3.09516 I12.02119 J2.07948
G2 X-20.33488 Y7.9292 I22.01284 J-3.09766
G1 F300.0 X-21.4559 Y8.35736
G2 F800.0 X-21.29628 Y8.76387 I21.88754 J-8.35987
G2 X-18.12564 Y15.20794 I54.38313 J-22.75573
G2 X-12.8867 Y23.68783 I204.61528 J-120.55475
G3 X-8.65104 Y30.30537 I-267.18244 J175.67866
G1 X-8.69799 Y1.25309
G2 X-10.35129 Y-2.97826 I-31.00369 J9.67531
G3 X-10.36901 Y-3.0159 I7.86212 J-3.72519
G2 X-11.73951 Y-5.20763 I-9.68881 J4.53411
G3 X-11.80689 Y-5.29203 I6.76522 J-5.47008
G2 X-14.95459 Y-7.07931 I-3.76742 J2.96961
G2 X-19.85187 Y-5.56893 I-0.67768 J6.4974
G2 X-22.66469 Y-0.60481 I5.87584 J6.6084
G2 X-22.77149 Y3.24809 I13.20192 J2.29388
G2 X-21.4559 Y8.35736 I23.20314 J-3.25059
G1 F300.0 X-22.57691 Y8.78553
G2 F800.0 X-22.40622 Y9.22003 I23.00856 J-8.78803
G2 X-19.16385 Y15.80977 I55.49307 J-23.2119
G2 X-13.89175 Y24.34348 I205.65349 J-121.15658
G3 X-7.44415 Y34.5664 I-266.17739 J175.02301
G1 X-7.49828 Y1.07093
G2 X-9.26686 Y-3.49208 I-32.2034 J9.85746
G3 X-9.28214 Y-3.52453 I6.77769 J-3.21137
G2 X-10.80638 Y-5.96213 I-10.77569 J5.04273
G3 X-10.86446 Y-6.03488 I5.83209 J-4.71559
G2 X-14.81502 Y-8.27124 I-4.70985 J3.71247
G2 X-20.63834 Y-6.47539 I-0.81725 J7.68934
G2 X-23.84545 Y-0.81901 I6.66231 J7.51485
G2 X-23.96175 Y3.40128 I14.38268 J2.50808
G2 X-22.57691 Y8.78553 I24.39339 J-3.40378
G1 F300.0 X-23.69793 Y9.2137
G2 F800.0 X-23.51612 Y9.6763 I24.12957 J-9.2162
G2 X-20.20203 Y16.41164 I56.60297 J-23.66816
G2 X-14.8968 Y24.99915 I206.69167 J-121.75845
G3 X-8.4595 Y35.20638 I-265.17234 J174.36734
G3 X-8.4581 Y35.2087 I-5.39172 J3.25874
G3 X-6.23702 Y38.97962 I-171.51683 J103.5635
G1 X-6.29857 Y0.89203
G2 X-8.18243 Y-4.0059 I-33.40311 J10.03636
G3 X-8.19526 Y-4.03316 I5.69326 J-2.69755
G2 X-9.87325 Y-6.71662 I-11.86256 J5.55136
G3 X-9.92204 Y-6.77773 I4.89895 J-3.96109
G2 X-14.67575 Y-9.46319 I-5.65228 J4.45532
G2 X-21.42496 Y-7.38168 I-0.95652 J8.88128
G2 X-25.02623 Y-1.03305 I7.44893 J8.42114
G2 X-25.15196 Y3.55468 I15.56346 J2.72213
G2 X-23.69793 Y9.2137 I25.58361 J-3.55718
G1 F300.0 X-24.81894 Y9.64187
G2 F800.0 X-24.62598 Y10.13265 I25.25058 J-9.64437
G2 X-21.24018 Y17.01357 I57.71283 J-24.12452
G2 X-15.90183 Y25.65484 I207.72982 J-122.36038
G3 X-9.48649 Y35.82709 I-264.16731 J173.71165
G3 X-9.48536 Y35.82897 I-4.36472 J2.63803
G3 X-5.02955 Y43.59806 I-170.48957 J102.94323
G1 X-5.09885 Y0.71622
G2 X-7.098 Y-4.51972 I-34.60283 J10.21218
G3 X-7.10839 Y-4.54178 I4.60883 J-2.18373
G2 X-8.94011 Y-7.47112 I-12.94944 J6.05999
G3 X-8.97961 Y-7.52059 I3.96582 J-3.2066
G2 X-14.53665 Y-10.65514 I-6.5947 J5.19817
G2 X-22.2117 Y-8.28786 I-1.09562 J10.07324
G2 X-26.20703 Y-1.24699 I8.23567 J9.32732
G2 X-26.34215 Y3.70825 I16.74425 J2.93607
G2 X-24.81894 Y9.64187 I26.7738 J-3.71076
G1 F300.0 X-25.93995 Y10.07003
G2 F800.0 X-25.73581 Y10.58909 I26.3716 J-10.07254
G2 X-22.2783 Y17.61554 I58.82266 J-24.58095
G2 X-16.90686 Y26.31054 I208.76794 J-122.96235
G3 X-10.51349 Y36.4478 I-263.16228 J173.05595
G3 X-10.51262 Y36.44924 I-3.33773 J2.01731
G3 X-3.8217 Y48.4533 I-169.46231 J102.32296
G1 X-3.89913 Y0.54333
G2 X-6.01357 Y-5.03354 I-35.80255 J10.38506
G3 X-6.02151 Y-5.05041 I3.5244 J-1.66991
G2 X-8.00698 Y-8.22561 I-14.03631 J6.56862
G3 X-8.03718 Y-8.26344 I3.03269 J-2.45211
G2 X-14.39767 Y-11.8471 I-7.53713 J5.94103
G2 X-22.99851 Y-9.19395 I-1.2346 J11.2652
G2 X-27.38784 Y-1.46084 I9.02248 J10.23342
G2 X-27.53232 Y3.86197 I17.92506 J3.14992
G2 X-25.93995 Y10.07003 I27.96396 J-3.86448
G1 F300.0 X-27.06097 Y10.4982
G2 F800.0 X-26.8456 Y11.0456 I27.49261 J-10.5007
G2 X-23.31639 Y18.21757 I59.93245 J-25.03746
G2 X-17.91187 Y26.96626 I209.80603 J-123.56438
G3 X-11.54048 Y37.06851 I-262.15727 J172.40023
G3 X-11.53988 Y37.06951 I-2.31074 J1.3966
G3 X-2.61341 Y53.58597 I-168.43505 J101.70269
G1 X-2.6994 Y0.37322
G2 X-4.92914 Y-5.54736 I-37.00227 J10.55517
G3 X-4.93464 Y-5.55904 I2.43997 J-1.15609
G2 X-7.07385 Y-8.9801 I-15.12319 J7.07725
G3 X-7.09475 Y-9.00629 I2.09955 J-1.69761
G2 X-14.25878 Y-13.03906 I-8.47956 J6.68388
G2 X-23.78538 Y-10.09999 I-1.3735 J12.45715
G2 X-28.56865 Y-1.67462 I9.80935 J11.13946
G2 X-28.72246 Y4.01581 I19.10588 J3.3637
G2 X-27.06097 Y10.4982 I29.1541 J-4.01832
G1 F300.0 X-28.18198 Y10.92637
G2 F800.0 X-27.95537 Y11.50217 I28.61363 J-10.92887
G2 X-24.35445 Y18.81964 I61.04222 J-25.49404
G2 X-18.91687 Y27.62199 I210.84409 J-124.16645
G3 X-12.56748 Y37.68923 I-261.15227 J171.74449
G3 X-12.56714 Y37.68978 I-1.28374 J0.77589
G3 X-1.40458 Y59.04986 I-167.40778 J101.08242
G1 X-1.49967 Y0.20577
G2 X-3.84471 Y-6.06118 I-38.202 J10.72262
G3 X-3.84776 Y-6.06767 I1.35554 J-0.64227
G2 X-6.14071 Y-9.7346 I-16.21006 J7.58588
G3 X-6.15233 Y-9.74915 I1.16642 J-0.94312
G2 X-14.11994 Y-14.23102 I-9.42198 J7.42673
G2 X-24.5723 Y-11.00599 I-1.51234 J13.64912
G2 X-29.74948 Y-1.88834 I10.59627 J12.04545
G2 X-29.91258 Y4.16976 I20.28671 J3.57742
G2 X-28.18198 Y10.92637 I30.34423 J-4.17226
G0 Z3.0
G0 X-15.29032 Y6.00244
G0 Z0.4
G1 F300.0 Z-1.2
G1 F800.0 X-15.29627 Y2.32242
G2 X-16.09922 Y0.31658 I-24.40541 J8.60597
G2 X-16.1718 Y0.58221 I2.12319 J0.72289
G2 X-16.22389 Y2.41257 I6.70903 J1.10687
G2 X-15.29032 Y6.00244 I16.65554 J-2.41508
G1 F300.0 X-15.85083 Y6.21653
G2 F800.0 X-15.74575 Y6.48496 I16.28247 J-6.21903
G2 X-14.68572 Y8.84899 I48.8326 J-20.47682
G1 X-14.69643 Y2.21987
G2 X-15.77344 Y-0.40917 I-25.00524 J8.70853
G3 X-15.80339 Y-0.47276 I13.28427 J-6.29429
G2 X-16.04013 Y-0.91538 I-4.25444 J1.99096
G2 X-16.76182 Y0.47264 I2.0641 J1.95484
G2 X-16.81927 Y2.48771 I7.29905 J1.21644
G2 X-15.85083 Y6.21653 I17.25091 J-2.49021
G1 F300.0 X-16.97184 Y6.6447
G2 F800.0 X-16.85599 Y6.94043 I17.40349 J-6.6472
G2 X-13.97245 Y12.80125 I49.94284 J-20.93229
G2 X-13.47798 Y13.63622 I200.46208 J-118.14806
G1 X-13.49676 Y2.01824
G2 X-14.68901 Y-0.92299 I-26.20492 J8.91015
G3 X-14.71651 Y-0.98138 I12.19984 J-5.78047
G2 X-15.47205 Y-2.18966 I-5.34131 J2.49959
G3 X-15.57096 Y-2.31347 I10.49776 J-8.48806
G2 X-16.71204 Y-1.93695 I-0.06131 J1.73156
G2 X-17.94214 Y0.25537 I2.73601 J2.97642
G2 X-18.00991 Y2.63867 I8.47937 J1.4337
G2 X-16.97184 Y6.6447 I18.44155 J-2.64117
G1 F300.0 X-18.09286 Y7.07286
G2 F800.0 X-17.96615 Y7.39607 I18.5245 J-7.07537
G2 X-15.0108 Y13.40283 I51.05301 J-21.38794
G2 X-12.27103 Y17.93376 I201.50044 J-118.74964
G1 X-12.29707 Y1.82102
G2 X-13.60458 Y-1.4368 I-27.4046 J9.10738
G3 X-13.62964 Y-1.49001 I11.11541 J-5.26665
G2 X-14.53892 Y-2.94415 I-6.42819 J3.00822
G3 X-14.63417 Y-3.06347 I9.56462 J-7.73356
G2 X-15.38067 Y-3.50374 I-0.94014 J0.74105
G2 X-17.49496 Y-2.84704 I-0.2516 J2.92183
G2 X-19.12265 Y0.03947 I3.51893 J3.8865
G2 X-19.20042 Y2.79034 I9.65988 J1.64961
G2 X-18.09286 Y7.07286 I19.63206 J-2.79285
G1 F300.0 X-19.21387 Y7.50103
G2 F800.0 X-19.07625 Y7.85187 I19.64551 J-7.50353
G2 X-16.04912 Y14.00447 I52.16311 J-21.84374
G2 X-11.06432 Y22.08595 I202.53875 J-119.35128
G1 X-11.09738 Y1.62791
G2 X-12.52015 Y-1.95062 I-28.60429 J9.30048
G3 X-12.54276 Y-1.99864 I10.03098 J-4.75283
G2 X-13.60578 Y-3.69865 I-7.51506 J3.51685
G3 X-13.69174 Y-3.80632 I8.63149 J-6.97907
G2 X-15.23596 Y-4.69551 I-1.88257 J1.48391
G2 X-18.27989 Y-3.75506 I-0.39631 J4.1136
G2 X-20.30328 Y-0.17569 I4.30386 J4.79452
G2 X-20.39084 Y2.94255 I10.8405 J1.86477
G2 X-19.21387 Y7.50103 I20.82248 J-2.94505
G1 F300.0 X-20.33488 Y7.9292
G2 F800.0 X-20.18629 Y8.30781 I20.76653 J-7.9317
G2 X-17.0874 Y14.60618 I53.27315 J-22.29967
G2 X-11.88163 Y23.03219 I203.57703 J-119.95299
G3 X-9.85775 Y26.14948 I-268.18751 J176.3343
G1 X-9.89769 Y1.43868
G2 X-11.43572 Y-2.46444 I-29.80399 J9.48972
G3 X-11.45589 Y-2.50727 I8.94655 J-4.23901
G2 X-12.67265 Y-4.45314 I-8.60194 J4.02548
G3 X-12.74932 Y-4.54917 I7.69836 J-6.22457
G2 X-15.09469 Y-5.88739 I-2.825 J2.22676
G2 X-19.06566 Y-4.66222 I-0.53758 J5.30548
G2 X-21.48396 Y-0.3904 I5.08963 J5.70168
G2 X-21.58119 Y3.09516 I12.02119 J2.07948
G2 X-20.33488 Y7.9292 I22.01284 J-3.09766
G1 F300.0 X-21.4559 Y8.35736
G2 F800.0 X-21.29628 Y8.76387 I21.88754 J-8.35987
G2 X-18.12564 Y15.20794 I54.38313 J-22.75573
G2 X-12.8867 Y23.68783 I204.61528 J-120.55475
G3 X-8.65104 Y30.30537 I-267.18244 J175.67866
G1 X-8.69799 Y1.25309
G2 X-10.35129 Y-2.97826 I-31.00369 J9.67531
G3 X-10.36901 Y-3.0159 I7.86212 J-3.72519
G2 X-11.73951 Y-5.20763 I-9.68881 J4.53411
G3 X-11.80689 Y-5.29203 I6.76522 J-5.47008
G2 X-14.95459 Y-7.07931 I-3.76742 J2.96961
G2 X-19.85187 Y-5.56893 I-0.67768 J6.4974
G2 X-22.66469 Y-0.60481 I5.87584 J6.6084
G2 X-22.77149 Y3.24809 I13.20192 J2.29388
G2 X-21.4559 Y8.35736 I23.20314 J-3.25059
G1 F300.0 X-22.57691 Y8.78553
G2 F800.0 X-22.40622 Y9.22003 I23.00856 J-8.78803
G2 X-19.16385 Y15.80977 I55.49307 J-23.2119
G2 X-13.89175 Y24.34348 I205.65349 J-121.15658
G3 X-7.44415 Y34.5664 I-266.17739 J175.02301
G1 X-7.49828 Y1.07093
G2 X-9.26686 Y-3.49208 I-32.2034 J9.85746
G3 X-9.28214 Y-3.52453 I6.77769 J-3.21137
G2 X-10.80638 Y-5.96213 I-10.77569 J5.04273
G3 X-10.86446 Y-6.03488 I5.83209 J-4.71559
G2 X-14.81502 Y-8.27124 I-4.70985 J3.71247
G2 X-20.63834 Y-6.47539 I-0.81725 J7.68934
G2 X-23.84545 Y-0.81901 I6.66231 J7.51485
G2 X-23.96175 Y3.40128 I14.38268 J2.50808
G2 X-22.57691 Y8.78553 I24.39339 J-3.40378
G1 F300.0 X-23.69793 Y9.2137
G2 F800.0 X-23.51612 Y9.6763 I24.12957 J-9.2162
G2 X-20.20203 Y16.41164 I56.60297 J-23.66816
G2 X-14.8968 Y24.99915 I206.69167 J-121.75845
G3 X-8.4595 Y35.20638 I-265.17234 J174.36734
G3 X-8.4581 Y35.2087 I-5.39172 J3.25874
G3 X-6.23702 Y38.97962 I-171.51683 J103.5635
G1 X-6.29857 Y0.89203
G2 X-8.18243 Y-4.0059 I-33.40311 J10.03636
G3 X-8.19526 Y-4.03316 I5.69326 J-2.69755
G2 X-9.87325 Y-6.71662 I-11.86256 J5.55136
G3 X-9.92204 Y-6.77773 I4.89895 J-3.96109
G2 X-14.67575 Y-9.46319 I-5.65228 J4.45532
G2 X-21.42496 Y-7.38168 I-0.95652 J8.88128
G2 X-25.02623 Y-1.03305 I7.44893 J8.42114
G2 X-25.15196 Y3.55468 I15.56346 J2.72213
G2 X-23.69793 Y9.2137 I25.58361 J-3.55718
G1 F300.0 X-24.81894 Y9.64187
G2 F800.0 X-24.62598 Y10.13265 I25.25058 J-9.64437
G2 X-21.24018 Y17.01357 I57.71283 J-24.12452
G2 X-15.90183 Y25.65484 I207.72982 J-122.36038
G3 X-9.48649 Y35.82709 I-264.16731 J173.71165
G3 X-9.48536 Y35.82897 I-4.36472 J2.63803
G3 X-5.02955 Y43.59806 I-170.48957 J102.94323
G1 X-5.09885 Y0.71622
G2 X-7.098 Y-4.51972 I-34.60283 J10.21218
G3 X-7.10839 Y-4.54178 I4.60883 J-2.18373
G2 X-8.94011 Y-7.47112 I-12.94944 J6.05999
G3 X-8.97961 Y-7.52059 I3.96582 J-3.2066
G2 X-14.53665 Y-10.65514 I-6.5947 J5.19817
G2 X-22.2117 Y-8.28786 I-1.09562 J10.07324
G2 X-26.20703 Y-1.24699 I8.23567 J9.32732
G2 X-26.34215 Y3.70825 I16.74425 J2.93607
G2 X-24.81894 Y9.64187 I26.7738 J-3.71076
G1 F300.0 X-25.93995 Y10.07003
G2 F800.0 X-25.73581 Y10.58909 I26.3716 J-10.07254
G2 X-22.2783 Y17.61554 I58.82266 J-24.58095
G2 X-16.90686 Y26.31054 I208.76794 J-122.96235
G3 X-10.51349 Y36.4478 I-263.16228 J173.05595
G3 X-10.51262 Y36.44924 I-3.33773 J2.01731
G3 X-3.8217 Y48.4533 I-169.46231 J102.32296
G1 X-3.89913 Y0.54333
G2 X-6.01357 Y-5.03354 I-35.80255 J10.38506
G3 X-6.02151 Y-5.05041 I3.5244 J-1.66991
G2 X-8.00698 Y-8.22561 I-14.03631 J6.56862
G3 X-8.03718 Y-8.26344 I3.03269 J-2.45211
G2 X-14.39767 Y-11.8471 I-7.53713 J5.94103
G2 X-22.99851 Y-9.19395 I-1.2346 J11.2652
G2 X-27.38784 Y-1.46084 I9.02248 J10.23342
G2 X-27.53232 Y3.86197 I17.92506 J3.14992
G2 X-25.93995 Y10.07003 I27.96396 J-3.86448
G1 F300.0 X-27.06097 Y10.4982
G2 F800.0 X-26.8456 Y11.0456 I27.49261 J-10.5007
G2 X-23.31639 Y18.21757 I59.93245 J-25.03746
G2 X-17.91187 Y26.96626 I209.80603 J-123.56438
G3 X-11.54048 Y37.06851 I-262.15727 J172.40023
G3 X-11.53988 Y37.06951 I-2.31074 J1.3966
G3 X-2.61341 Y53.58597 I-168.43505 J101.70269
G1 X-2.6994 Y0.37322
G2 X-4.92914 Y-5.54736 I-37.00227 J10.55517
G3 X-4.93464 Y-5.55904 I2.43997 J-1.15609
G2 X-7.07385 Y-8.9801 I-15.12319 J7.07725
G3 X-7.09475 Y-9.00629 I2.09955 J-1.69761
G2 X-14.25878 Y-13.03906 I-8.47956 J6.68388
G2 X-23.78538 Y-10.09999 I-1.3735 J12.45715
G2 X-28.56865 Y-1.67462 I9.80935 J11.13946
G2 X-28.72246 Y4.01581 I19.10588 J3.3637
G2 X-27.06097 Y10.4982 I29.1541 J-4.01832
G1 F300.0 X-28.18198 Y10.92637
G2 F800.0 X-27.95537 Y11.50217 I28.61363 J-10.92887
G2 X-24.35445 Y18.81964 I61.04222 J-25.49404
G2 X-18.91687 Y27.62199 I210.84409 J-124.16645
G3 X-12.56748 Y37.68923 I-261.15227 J171.74449
G3 X-12.56714 Y37.68978 I-1.28374 J0.77589
G3 X-1.40458 Y59.04986 I-167.40778 J101.08242
G1 X-1.49967 Y0.20577
G2 X-3.84471 Y-6.06118 I-38.202 J10.72262
G3 X-3.84776 Y-6.06767 I1.35554 J-0.64227
G2 X-6.14071 Y-9.7346 I-16.21006 J7.58588
G3 X-6.15233 Y-9.74915 I1.16642 J-0.94312
G2 X-14.11994 Y-14.23102 I-9.42198 J7.42673
G2 X-24.5723 Y-11.00599 I-1.51234 J13.64912
G2 X-29.74948 Y-1.88834 I10.59627 J12.04545
G2 X-29.91258 Y4.16976 I20.28671 J3.57742
G2 X-28.18198 Y10.92637 I30.34423 J-4.17226
G0 Z3.0
M5
M30
