( Made using CamBam - http://www.cambam.co.uk )
( Herz 5/17/2020 12:20:04 PM )
( T3 : 3.0 )
G21 G90 G64 G40
G0 Z3.0
( T3 : 3.0 )
T3 M6
( Tasche3 )
G17
M3 S1000
G0 X-15.3 Y-5.97773
G0 Z1.0
G1 F300.0 Z-0.6
G2 F800.0 X-16.22777 Y-2.38635 I15.73165 J5.97953
G2 X-16.17272 Y-0.55608 I6.76228 J0.71257
G2 X-16.09971 Y-0.29056 I2.19503 J-0.4608
G2 X-15.3 Y-2.2977 I-23.61958 J-10.57366
G1 Y-5.97773
G1 F300.0 X-15.86085 Y-6.1909
G2 F800.0 X-16.82327 Y-2.46052 I16.2925 J6.19271
G2 X-16.76257 Y-0.44555 I7.35778 J0.78674
G2 X-16.03863 Y0.9413 I2.78488 J-0.57133
G2 X-15.8026 Y0.49829 I-4.02162 J-2.42709
G3 X-15.77276 Y0.43466 I13.32427 J6.20918
G2 X-14.7 Y-2.19611 I-23.94652 J-11.29888
G1 Y-8.82525
G2 X-15.75621 Y-6.4595 I47.80942 J22.76362
G2 X-15.86085 Y-6.1909 I16.18786 J6.46131
G1 F300.0 X-16.98256 Y-6.61726
G2 F800.0 X-18.01415 Y-2.60956 I17.4142 J6.61906
G2 X-17.94253 Y-0.22638 I8.54866 J0.93578
G2 X-16.70889 Y1.96396 I3.96484 J-0.7905
G2 X-15.5672 Y2.33863 I1.07758 J-1.35679
G3 X-15.46849 Y2.21466 I10.61017 J8.34711
G2 X-14.71491 Y1.00517 I-4.59176 J-3.70045
G3 X-14.6875 Y0.94672 I12.23657 J5.7023
G2 X-13.5 Y-1.99643 I-25.03178 J-11.81094
G1 Y-13.61442
G2 X-13.99311 Y-12.77865 I200.15964 J118.65972
G2 X-16.86718 Y-6.91318 I47.10254 J26.71703
G2 X-16.98256 Y-6.61726 I17.29883 J6.91498
G1 F300.0 X-18.10426 Y-7.04361
G2 F800.0 X-19.2049 Y-2.75931 I18.53591 J7.04542
G2 X-19.12269 Y-0.00857 I9.73941 J1.08553
G2 X-17.49033 Y2.87531 I5.145 J-1.00831
G2 X-15.37499 Y3.52859 I1.85902 J-2.26814
G2 X-14.6292 Y3.08711 I-0.19555 J-1.18101
G3 X-14.53414 Y2.96764 I9.67217 J7.59863
G2 X-13.62721 Y1.51204 I-5.52611 J-4.45344
G3 X-13.60224 Y1.45879 I11.14888 J5.19543
G2 X-12.3 Y-1.80114 I-26.11704 J-12.32301
G1 Y-17.9139
G2 X-15.03244 Y-13.37855 I198.95964 J122.9592
G2 X-17.97808 Y-7.36703 I48.14186 J27.31693
G2 X-18.10426 Y-7.04361 I18.40973 J7.36883
G1 F300.0 X-19.22597 Y-7.46997
G2 F800.0 X-20.39557 Y-2.90959 I19.65761 J7.47177
G2 X-20.30296 Y0.2085 I10.93008 J1.23581
G2 X-18.2738 Y3.78459 I6.32527 J-1.22538
G2 X-15.22835 Y4.72012 I2.64249 J-3.17742
G2 X-13.68557 Y3.82844 I-0.34218 J-2.37254
G3 X-13.59979 Y3.72063 I8.72854 J6.8573
G2 X-12.53951 Y2.01891 I-6.46046 J-5.20642
G3 X-12.51698 Y1.97085 I10.06118 J4.68856
G2 X-11.1 Y-1.60998 I-27.2023 J-12.83507
G1 Y-22.06804
G2 X-16.07173 Y-13.97852 I197.75964 J127.11334
G2 X-19.08892 Y-7.82103 I49.18115 J27.9169
G2 X-19.22597 Y-7.46997 I19.52056 J7.82284
G1 F300.0 X-20.34767 Y-7.89633
G2 F800.0 X-21.58617 Y-3.06028 I20.77932 J7.89813
G2 X-21.4833 Y0.42512 I12.12068 J1.3865
G2 X-19.0581 Y4.69302 I7.50561 J-1.442
G2 X-15.08516 Y5.91177 I3.42679 J-4.08585
G2 X-12.74195 Y4.56977 I-0.48538 J-3.56419
G3 X-12.66544 Y4.47361 I7.78492 J6.11597
G2 X-11.45182 Y2.52578 I-7.39481 J-5.95941
G3 X-11.43172 Y2.48292 I8.97349 J4.18169
G2 X-9.9 Y-1.42268 I-28.28756 J-13.34714
G1 Y-26.13352
G3 X-11.91884 Y-23.01296 I-270.49096 J-172.78011
G2 X-17.11098 Y-14.57855 I198.57848 J128.05826
G2 X-20.19969 Y-8.27518 I50.2204 J28.51692
G2 X-20.34767 Y-7.89633 I20.63134 J8.27698
G1 F300.0 X-21.46938 Y-8.32268
G2 F800.0 X-22.77671 Y-3.21129 I21.90102 J8.32449
G2 X-22.66368 Y0.64143 I13.31122 J1.5375
G2 X-19.84285 Y5.60101 I8.68599 J-1.65831
G2 X-14.94313 Y7.10346 I4.21154 J-4.99384
G2 X-11.79832 Y5.3111 I-0.62741 J-4.75588
G3 X-11.73108 Y5.2266 I6.84129 J5.37464
G2 X-10.36412 Y3.03265 I-8.32917 J-6.71239
G3 X-10.34646 Y2.99499 I7.88579 J3.67482
G2 X-8.7 Y-1.23903 I-29.37282 J-13.85921
G1 Y-30.29135
G3 X-12.92496 Y-23.66697 I-271.69096 J-168.62228
G2 X-18.15019 Y-15.17863 I199.5846 J128.71227
G2 X-21.31041 Y-8.72944 I51.25962 J29.11701
G2 X-21.46938 Y-8.32268 I21.74206 J8.73124
G1 F300.0 X-22.59108 Y-8.74904
G2 F800.0 X-23.96721 Y-3.36255 I23.02273 J8.75084
G2 X-23.84409 Y0.85754 I14.50172 J1.68877
G2 X-20.62785 Y6.50873 I9.8664 J-1.87442
G2 X-14.80164 Y8.29517 I4.99653 J-5.90156
G2 X-10.8547 Y6.05243 I-0.7689 J-5.94759
G3 X-10.79673 Y5.97958 I5.89766 J4.63331
G2 X-9.27643 Y3.53952 I-9.26352 J-7.46538
G3 X-9.2612 Y3.50705 I6.7981 J3.16795
G2 X-7.5 Y-1.05882 I-30.45808 J-14.37127
G1 Y-34.55433
G3 X-13.93108 Y-24.321 I-272.89096 J-164.3593
G2 X-19.18938 Y-15.77878 I200.59071 J129.3663
G2 X-22.42109 Y-9.18381 I52.2988 J29.71715
G2 X-22.59108 Y-8.74904 I22.85274 J9.18562
G1 F300.0 X-23.71278 Y-9.17539
G2 F800.0 X-25.15768 Y-3.51403 I24.14443 J9.1772
G2 X-25.02453 Y1.0735 I15.69218 J1.84025
G2 X-21.41301 Y7.41629 I11.04684 J-2.09037
G2 X-14.66044 Y9.4869 I5.78169 J-6.80912
G2 X-9.91107 Y6.79376 I-0.9101 J-7.13931
G3 X-9.86238 Y6.73257 I4.95404 J3.89198
G2 X-8.18873 Y4.04639 I-10.19787 J-8.21836
G3 X-8.17594 Y4.01912 I5.7104 J2.66108
G2 X-6.3 Y-0.88185 I-31.54334 J-14.88334
G1 Y-38.96949
G3 X-8.51499 Y-35.19498 I-173.89895 J-99.51169
G3 X-8.51638 Y-35.19266 I-5.39838 J-3.2477
G3 X-14.93718 Y-24.97504 I-271.87458 J-163.72096
G2 X-20.22853 Y-16.37897 I201.59682 J130.02034
G2 X-23.53172 Y-9.63828 I53.33795 J30.31735
G2 X-23.71278 Y-9.17539 I23.96337 J9.64009
G1 F300.0 X-24.83449 Y-9.60175
G2 F800.0 X-26.34811 Y-3.66568 I25.26614 J9.60355
G2 X-26.20498 Y1.28934 I16.88262 J1.9919
G2 X-22.19828 Y8.32374 I12.22729 J-2.30622
G2 X-14.51942 Y10.67862 I6.56697 J-7.71657
G2 X-8.96744 Y7.53509 I-1.05112 J-8.33104
G3 X-8.92803 Y7.48555 I4.01041 J3.15065
G2 X-7.10104 Y4.55327 I-11.13222 J-8.97135
G3 X-7.09068 Y4.53119 I4.62271 J2.1542
G2 X-5.1 Y-0.70798 I-32.6286 J-15.39541
G1 Y-43.58987
G3 X-9.54325 Y-35.81359 I-175.09895 J-94.8913
G3 X-9.54438 Y-35.81171 I-4.37011 J-2.62909
G3 X-15.94327 Y-25.62911 I-270.84658 J-163.10191
G2 X-21.26765 Y-16.97922 I202.60291 J130.6744
G2 X-24.64232 Y-10.09284 I54.37707 J30.9176
G2 X-24.83449 Y-9.60175 I25.07397 J10.09465
G1 F300.0 X-25.95619 Y-10.0281
G2 F800.0 X-27.53852 Y-3.81748 I26.38784 J10.02991
G2 X-27.38544 Y1.5051 I18.07303 J2.14369
G2 X-22.98363 Y9.23111 I13.40775 J-2.52197
G2 X-14.37851 Y11.87035 I7.35231 J-8.62394
G2 X-8.02382 Y8.27642 I-1.19203 J-9.52277
G3 X-7.99368 Y8.23854 I3.06679 J2.40932
G2 X-6.01334 Y5.06014 I-12.06657 J-9.72433
G3 X-6.00542 Y5.04325 I3.53501 J1.64733
G2 X-3.9 Y-0.53703 I-33.71386 J-15.90747
G1 Y-48.44706
G3 X-10.57151 Y-36.4322 I-176.29895 J-90.03411
G3 X-10.57237 Y-36.43076 I-3.34185 J-2.01048
G3 X-16.94935 Y-26.28318 I-269.81858 J-162.48286
G2 X-22.30674 Y-17.57952 I203.60899 J131.32848
G2 X-25.75288 Y-10.54748 I55.41616 J31.51789
G2 X-25.95619 Y-10.0281 I26.18453 J10.54929
G1 F300.0 X-27.0779 Y-10.45446
G2 F800.0 X-28.72891 Y-3.96939 I27.50955 J10.45626
G2 X-28.56591 Y1.72078 I19.26342 J2.29561
G2 X-23.76903 Y10.13842 I14.58822 J-2.73766
G2 X-14.23769 Y13.06209 I8.13772 J-9.53125
G2 X-7.08019 Y9.01775 I-1.33285 J-10.71451
G3 X-7.05932 Y8.99152 I2.12316 J1.66799
G2 X-4.92565 Y5.56701 I-13.00093 J-10.47732
G3 X-4.92017 Y5.55532 I2.44731 J1.14046
G2 X-2.7 Y-0.36886 I-34.79912 J-16.41954
G1 Y-53.58168
G3 X-11.59977 Y-37.05081 I-177.49895 J-84.89949
G3 X-11.60037 Y-37.04982 I-2.31359 J-1.39187
G3 X-17.95543 Y-26.93728 I-268.79059 J-161.86381
G2 X-23.3458 Y-18.17987 I204.61506 J131.98257
G2 X-26.86341 Y-11.0022 I56.45522 J32.11824
G2 X-27.0779 Y-10.45446 I27.29506 J11.004
G1 F300.0 X-28.1996 Y-10.88081
G2 F800.0 X-29.91928 Y-4.12142 I28.63125 J10.88262
G2 X-29.74639 Y1.93642 I20.45379 J2.44763
G2 X-24.55448 Y11.04568 I15.7687 J-2.95329
G2 X-14.09692 Y14.25382 I8.92317 J-10.43852
G2 X-6.13656 Y9.75908 I-1.47362 J-11.90624
G3 X-6.12497 Y9.74451 I1.17953 J0.92666
G2 X-3.83795 Y6.07388 I-13.93528 J-11.2303
G3 X-3.83491 Y6.06739 I1.35962 J0.63359
G2 X-1.5 Y-0.20335 I-35.88438 J-16.93161
G1 Y-59.04751
G3 X-12.62803 Y-37.66942 I-178.69895 J-79.43366
G3 X-12.62837 Y-37.66887 I-1.28533 J-0.77326
G3 X-18.96149 Y-27.59138 I-267.76259 J-161.24476
G2 X-24.38483 Y-18.78026 I205.62113 J132.63668
G2 X-27.97392 Y-11.45698 I57.49425 J32.71863
G2 X-28.1996 Y-10.88081 I28.40556 J11.45878
G0 Z3.0
G0 X-15.3 Y-5.97773
G0 Z0.4
G1 F300.0 Z-1.2
G2 F800.0 X-16.22777 Y-2.38635 I15.73165 J5.97953
G2 X-16.17272 Y-0.55608 I6.76228 J0.71257
G2 X-16.09971 Y-0.29056 I2.19503 J-0.4608
G2 X-15.3 Y-2.2977 I-23.61958 J-10.57366
G1 Y-5.97773
G1 F300.0 X-15.86085 Y-6.1909
G2 F800.0 X-16.82327 Y-2.46052 I16.2925 J6.19271
G2 X-16.76257 Y-0.44555 I7.35778 J0.78674
G2 X-16.03863 Y0.9413 I2.78488 J-0.57133
G2 X-15.8026 Y0.49829 I-4.02162 J-2.42709
G3 X-15.77276 Y0.43466 I13.32427 J6.20918
G2 X-14.7 Y-2.19611 I-23.94652 J-11.29888
G1 Y-8.82525
G2 X-15.75621 Y-6.4595 I47.80942 J22.76362
G2 X-15.86085 Y-6.1909 I16.18786 J6.46131
G1 F300.0 X-16.98256 Y-6.61726
G2 F800.0 X-18.01415 Y-2.60956 I17.4142 J6.61906
G2 X-17.94253 Y-0.22638 I8.54866 J0.93578
G2 X-16.70889 Y1.96396 I3.96484 J-0.7905
G2 X-15.5672 Y2.33863 I1.07758 J-1.35679
G3 X-15.46849 Y2.21466 I10.61017 J8.34711
G2 X-14.71491 Y1.00517 I-4.59176 J-3.70045
G3 X-14.6875 Y0.94672 I12.23657 J5.7023
G2 X-13.5 Y-1.99643 I-25.03178 J-11.81094
G1 Y-13.61442
G2 X-13.99311 Y-12.77865 I200.15964 J118.65972
G2 X-16.86718 Y-6.91318 I47.10254 J26.71703
G2 X-16.98256 Y-6.61726 I17.29883 J6.91498
G1 F300.0 X-18.10426 Y-7.04361
G2 F800.0 X-19.2049 Y-2.75931 I18.53591 J7.04542
G2 X-19.12269 Y-0.00857 I9.73941 J1.08553
G2 X-17.49033 Y2.87531 I5.145 J-1.00831
G2 X-15.37499 Y3.52859 I1.85902 J-2.26814
G2 X-14.6292 Y3.08711 I-0.19555 J-1.18101
G3 X-14.53414 Y2.96764 I9.67217 J7.59863
G2 X-13.62721 Y1.51204 I-5.52611 J-4.45344
G3 X-13.60224 Y1.45879 I11.14888 J5.19543
G2 X-12.3 Y-1.80114 I-26.11704 J-12.32301
G1 Y-17.9139
G2 X-15.03244 Y-13.37855 I198.95964 J122.9592
G2 X-17.97808 Y-7.36703 I48.14186 J27.31693
G2 X-18.10426 Y-7.04361 I18.40973 J7.36883
G1 F300.0 X-19.22597 Y-7.46997
G2 F800.0 X-20.39557 Y-2.90959 I19.65761 J7.47177
G2 X-20.30296 Y0.2085 I10.93008 J1.23581
G2 X-18.2738 Y3.78459 I6.32527 J-1.22538
G2 X-15.22835 Y4.72012 I2.64249 J-3.17742
G2 X-13.68557 Y3.82844 I-0.34218 J-2.37254
G3 X-13.59979 Y3.72063 I8.72854 J6.8573
G2 X-12.53951 Y2.01891 I-6.46046 J-5.20642
G3 X-12.51698 Y1.97085 I10.06118 J4.68856
G2 X-11.1 Y-1.60998 I-27.2023 J-12.83507
G1 Y-22.06804
G2 X-16.07173 Y-13.97852 I197.75964 J127.11334
G2 X-19.08892 Y-7.82103 I49.18115 J27.9169
G2 X-19.22597 Y-7.46997 I19.52056 J7.82284
G1 F300.0 X-20.34767 Y-7.89633
G2 F800.0 X-21.58617 Y-3.06028 I20.77932 J7.89813
G2 X-21.4833 Y0.42512 I12.12068 J1.3865
G2 X-19.0581 Y4.69302 I7.50561 J-1.442
G2 X-15.08516 Y5.91177 I3.42679 J-4.08585
G2 X-12.74195 Y4.56977 I-0.48538 J-3.56419
G3 X-12.66544 Y4.47361 I7.78492 J6.11597
G2 X-11.45182 Y2.52578 I-7.39481 J-5.95941
G3 X-11.43172 Y2.48292 I8.97349 J4.18169
G2 X-9.9 Y-1.42268 I-28.28756 J-13.34714
G1 Y-26.13352
G3 X-11.91884 Y-23.01296 I-270.49096 J-172.78011
G2 X-17.11098 Y-14.57855 I198.57848 J128.05826
G2 X-20.19969 Y-8.27518 I50.2204 J28.51692
G2 X-20.34767 Y-7.89633 I20.63134 J8.27698
G1 F300.0 X-21.46938 Y-8.32268
G2 F800.0 X-22.77671 Y-3.21129 I21.90102 J8.32449
G2 X-22.66368 Y0.64143 I13.31122 J1.5375
G2 X-19.84285 Y5.60101 I8.68599 J-1.65831
G2 X-14.94313 Y7.10346 I4.21154 J-4.99384
G2 X-11.79832 Y5.3111 I-0.62741 J-4.75588
G3 X-11.73108 Y5.2266 I6.84129 J5.37464
G2 X-10.36412 Y3.03265 I-8.32917 J-6.71239
G3 X-10.34646 Y2.99499 I7.88579 J3.67482
G2 X-8.7 Y-1.23903 I-29.37282 J-13.85921
G1 Y-30.29135
G3 X-12.92496 Y-23.66697 I-271.69096 J-168.62228
G2 X-18.15019 Y-15.17863 I199.5846 J128.71227
G2 X-21.31041 Y-8.72944 I51.25962 J29.11701
G2 X-21.46938 Y-8.32268 I21.74206 J8.73124
G1 F300.0 X-22.59108 Y-8.74904
G2 F800.0 X-23.96721 Y-3.36255 I23.02273 J8.75084
G2 X-23.84409 Y0.85754 I14.50172 J1.68877
G2 X-20.62785 Y6.50873 I9.8664 J-1.87442
G2 X-14.80164 Y8.29517 I4.99653 J-5.90156
G2 X-10.8547 Y6.05243 I-0.7689 J-5.94759
G3 X-10.79673 Y5.97958 I5.89766 J4.63331
G2 X-9.27643 Y3.53952 I-9.26352 J-7.46538
G3 X-9.2612 Y3.50705 I6.7981 J3.16795
G2 X-7.5 Y-1.05882 I-30.45808 J-14.37127
G1 Y-34.55433
G3 X-13.93108 Y-24.321 I-272.89096 J-164.3593
G2 X-19.18938 Y-15.77878 I200.59071 J129.3663
G2 X-22.42109 Y-9.18381 I52.2988 J29.71715
G2 X-22.59108 Y-8.74904 I22.85274 J9.18562
G1 F300.0 X-23.71278 Y-9.17539
G2 F800.0 X-25.15768 Y-3.51403 I24.14443 J9.1772
G2 X-25.02453 Y1.0735 I15.69218 J1.84025
G2 X-21.41301 Y7.41629 I11.04684 J-2.09037
G2 X-14.66044 Y9.4869 I5.78169 J-6.80912
G2 X-9.91107 Y6.79376 I-0.9101 J-7.13931
G3 X-9.86238 Y6.73257 I4.95404 J3.89198
G2 X-8.18873 Y4.04639 I-10.19787 J-8.21836
G3 X-8.17594 Y4.01912 I5.7104 J2.66108
G2 X-6.3 Y-0.88185 I-31.54334 J-14.88334
G1 Y-38.96949
G3 X-8.51499 Y-35.19498 I-173.89895 J-99.51169
G3 X-8.51638 Y-35.19266 I-5.39838 J-3.2477
G3 X-14.93718 Y-24.97504 I-271.87458 J-163.72096
G2 X-20.22853 Y-16.37897 I201.59682 J130.02034
G2 X-23.53172 Y-9.63828 I53.33795 J30.31735
G2 X-23.71278 Y-9.17539 I23.96337 J9.64009
G1 F300.0 X-24.83449 Y-9.60175
G2 F800.0 X-26.34811 Y-3.66568 I25.26614 J9.60355
G2 X-26.20498 Y1.28934 I16.88262 J1.9919
G2 X-22.19828 Y8.32374 I12.22729 J-2.30622
G2 X-14.51942 Y10.67862 I6.56697 J-7.71657
G2 X-8.96744 Y7.53509 I-1.05112 J-8.33104
G3 X-8.92803 Y7.48555 I4.01041 J3.15065
G2 X-7.10104 Y4.55327 I-11.13222 J-8.97135
G3 X-7.09068 Y4.53119 I4.62271 J2.1542
G2 X-5.1 Y-0.70798 I-32.6286 J-15.39541
G1 Y-43.58987
G3 X-9.54325 Y-35.81359 I-175.09895 J-94.8913
G3 X-9.54438 Y-35.81171 I-4.37011 J-2.62909
G3 X-15.94327 Y-25.62911 I-270.84658 J-163.10191
G2 X-21.26765 Y-16.97922 I202.60291 J130.6744
G2 X-24.64232 Y-10.09284 I54.37707 J30.9176
G2 X-24.83449 Y-9.60175 I25.07397 J10.09465
G1 F300.0 X-25.95619 Y-10.0281
G2 F800.0 X-27.53852 Y-3.81748 I26.38784 J10.02991
G2 X-27.38544 Y1.5051 I18.07303 J2.14369
G2 X-22.98363 Y9.23111 I13.40775 J-2.52197
G2 X-14.37851 Y11.87035 I7.35231 J-8.62394
G2 X-8.02382 Y8.27642 I-1.19203 J-9.52277
G3 X-7.99368 Y8.23854 I3.06679 J2.40932
G2 X-6.01334 Y5.06014 I-12.06657 J-9.72433
G3 X-6.00542 Y5.04325 I3.53501 J1.64733
G2 X-3.9 Y-0.53703 I-33.71386 J-15.90747
G1 Y-48.44706
G3 X-10.57151 Y-36.4322 I-176.29895 J-90.03411
G3 X-10.57237 Y-36.43076 I-3.34185 J-2.01048
G3 X-16.94935 Y-26.28318 I-269.81858 J-162.48286
G2 X-22.30674 Y-17.57952 I203.60899 J131.32848
G2 X-25.75288 Y-10.54748 I55.41616 J31.51789
G2 X-25.95619 Y-10.0281 I26.18453 J10.54929
G1 F300.0 X-27.0779 Y-10.45446
G2 F800.0 X-28.72891 Y-3.96939 I27.50955 J10.45626
G2 X-28.56591 Y1.72078 I19.26342 J2.29561
G2 X-23.76903 Y10.13842 I14.58822 J-2.73766
G2 X-14.23769 Y13.06209 I8.13772 J-9.53125
G2 X-7.08019 Y9.01775 I-1.33285 J-10.71451
G3 X-7.05932 Y8.99152 I2.12316 J1.66799
G2 X-4.92565 Y5.56701 I-13.00093 J-10.47732
G3 X-4.92017 Y5.55532 I2.44731 J1.14046
G2 X-2.7 Y-0.36886 I-34.79912 J-16.41954
G1 Y-53.58168
G3 X-11.59977 Y-37.05081 I-177.49895 J-84.89949
G3 X-11.60037 Y-37.04982 I-2.31359 J-1.39187
G3 X-17.95543 Y-26.93728 I-268.79059 J-161.86381
G2 X-23.3458 Y-18.17987 I204.61506 J131.98257
G2 X-26.86341 Y-11.0022 I56.45522 J32.11824
G2 X-27.0779 Y-10.45446 I27.29506 J11.004
G1 F300.0 X-28.1996 Y-10.88081
G2 F800.0 X-29.91928 Y-4.12142 I28.63125 J10.88262
G2 X-29.74639 Y1.93642 I20.45379 J2.44763
G2 X-24.55448 Y11.04568 I15.7687 J-2.95329
G2 X-14.09692 Y14.25382 I8.92317 J-10.43852
G2 X-6.13656 Y9.75908 I-1.47362 J-11.90624
G3 X-6.12497 Y9.74451 I1.17953 J0.92666
G2 X-3.83795 Y6.07388 I-13.93528 J-11.2303
G3 X-3.83491 Y6.06739 I1.35962 J0.63359
G2 X-1.5 Y-0.20335 I-35.88438 J-16.93161
G1 Y-59.04751
G3 X-12.62803 Y-37.66942 I-178.69895 J-79.43366
G3 X-12.62837 Y-37.66887 I-1.28533 J-0.77326
G3 X-18.96149 Y-27.59138 I-267.76259 J-161.24476
G2 X-24.38483 Y-18.78026 I205.62113 J132.63668
G2 X-27.97392 Y-11.45698 I57.49425 J32.71863
G2 X-28.1996 Y-10.88081 I28.40556 J11.45878
G0 Z3.0
M5
M30
