( Made using CamBam - http://www.cambam.co.uk )
( Herz 5/17/2020 12:20:00 PM )
( T2 : 2.0 )
G21 G90 G64 G40
G0 Z3.0
( T2 : 2.0 )
T2 M6
( Tasche2 )
G17
M3 S1000
G0 X-15.4 Y-5.40583
G0 Z1.0
G1 F300.0 Z-0.6
G2 F800.0 X-16.12852 Y-2.37402 I15.83165 J5.40764
G2 X-16.07696 Y-0.58991 I6.66303 J0.70023
G2 X-15.4 Y-2.31475 I-23.64233 J-10.27431
G1 Y-5.40583
G1 F300.0 X-14.6
G1 F800.0 Y-9.26367
G2 X-15.84879 Y-6.4973 I47.70942 J23.20204
G2 X-16.92251 Y-2.47291 I16.28044 J6.49911
G2 X-16.86088 Y-0.42721 I7.45702 J0.79913
G2 X-16.0205 Y1.10149 I2.88319 J-0.58967
G2 X-15.71196 Y0.54053 I-4.03975 J-2.58728
G3 X-15.68232 Y0.47733 I13.23363 J6.16694
G2 X-14.6 Y-2.1793 I-24.03696 J-11.34155
G1 Y-5.40583
G1 F300.0 X-13.8
G1 F800.0 Y-12.51069
G2 X-16.58945 Y-6.79974 I46.90942 J26.44907
G2 X-17.71644 Y-2.57223 I17.02109 J6.80155
G2 X-17.64752 Y-0.28101 I8.25095 J0.89844
G2 X-16.51424 Y1.7354 I3.66982 J-0.73587
G2 X-15.71108 Y2.03759 I0.88293 J-1.12824
G3 X-15.70208 Y2.02641 I10.75405 J8.64815
G2 X-14.98683 Y0.87845 I-4.35817 J-3.5122
G3 X-14.95881 Y0.81871 I12.5085 J5.82902
G2 X-13.8 Y-2.04593 I-24.76047 J-11.68293
G1 Y-5.40583
G1 F300.0 X-13.0
G1 F800.0 Y-15.42452
G2 X-14.42617 Y-13.0286 I199.65964 J120.46982
G2 X-17.33007 Y-7.10226 I47.53559 J26.96698
G2 X-18.51031 Y-2.67188 I17.76171 J7.10407
G2 X-18.43425 Y-0.1355 I9.04482 J0.9981
G2 X-17.03409 Y2.34409 I4.45656 J-0.88137
G2 X-15.46694 Y2.83375 I1.40278 J-1.73693
G2 X-15.17965 Y2.65467 I-0.1036 J-0.48617
G3 X-15.07918 Y2.5284 I10.22262 J8.03107
G2 X-14.2617 Y1.21636 I-4.98107 J-4.01419
G3 X-14.23531 Y1.16008 I11.78337 J5.49111
G2 X-13.0 Y-1.91454 I-25.48397 J-12.0243
G1 Y-5.40583
G1 F300.0 X-12.2
G1 F800.0 Y-18.26543
G2 X-15.11905 Y-13.42855 I198.85964 J123.31072
G2 X-18.07065 Y-7.40486 I48.22847 J27.36692
G2 X-19.30413 Y-2.77182 I18.5023 J7.40666
G2 X-19.22105 Y0.00955 I9.83864 J1.09803
G2 X-17.55557 Y2.95113 I5.24336 J-1.02642
G2 X-15.36248 Y3.62787 I1.92426 J-2.34396
G2 X-14.55057 Y3.14889 I-0.20806 J-1.28029
G3 X-14.45628 Y3.03039 I9.59353 J7.53685
G2 X-13.53657 Y1.55428 I-5.60397 J-4.51618
G3 X-13.5118 Y1.50146 I11.05824 J5.15319
G2 X-12.2 Y-1.78506 I-26.20748 J-12.36568
G1 Y-5.40583
G1 F300.0 X-11.4
G1 F800.0 Y-21.04234
G2 X-15.81191 Y-13.82852 I198.05964 J126.08764
G2 X-18.81121 Y-7.70752 I48.92133 J27.7669
G2 X-20.09791 Y-2.87198 I19.24286 J7.70932
G2 X-20.00789 Y0.15429 I10.63242 J1.1982
G2 X-18.07783 Y3.55738 I6.0302 J-1.17117
G2 X-15.26451 Y4.42222 I2.44652 J-2.95021
G2 X-13.92148 Y3.64311 I-0.30603 J-2.07464
G3 X-13.83338 Y3.53238 I8.96445 J7.04263
G2 X-12.81144 Y1.89219 I-6.22687 J-5.01817
G3 X-12.7883 Y1.84284 I10.33311 J4.81528
G2 X-11.4 Y-1.6574 I-26.93099 J-12.70706
G1 Y-5.40583
G1 F300.0 X-10.6
G1 F800.0 Y-23.75369
G3 X-11.33193 Y-22.63146 I-269.79096 J-175.15994
G2 X-16.50475 Y-14.22852 I197.99157 J127.67676
G2 X-19.55175 Y-8.01024 I49.61417 J28.1669
G2 X-20.89166 Y-2.97233 I19.98339 J8.01205
G2 X-20.79477 Y0.2988 I11.42617 J1.29855
G2 X-18.60052 Y4.16318 I6.81707 J-1.31568
G2 X-15.16847 Y5.21663 I2.96921 J-3.55601
G2 X-13.2924 Y4.13733 I-0.40206 J-2.86905
G3 X-13.21047 Y4.03437 I8.33537 J6.54841
G2 X-12.08631 Y2.2301 I-6.84977 J-5.52016
G3 X-12.06479 Y2.18422 I9.60798 J4.47736
G2 X-10.6 Y-1.53148 I-27.65449 J-13.04844
G1 Y-5.40583
G1 F300.0 X-9.8
G1 F800.0 Y-26.47617
G3 X-12.00268 Y-23.06746 I-270.59096 J-172.43745
G2 X-17.19758 Y-14.62855 I198.66232 J128.11276
G2 X-20.29225 Y-8.31303 I50.307 J28.56693
G2 X-21.68538 Y-3.07285 I20.7239 J8.31483
G2 X-21.58167 Y0.44315 I12.21989 J1.39907
G2 X-19.12349 Y4.7687 I7.60397 J-1.46003
G2 X-15.07329 Y6.01108 I3.49218 J-4.16153
G2 X-12.66331 Y4.63155 I-0.49725 J-3.6635
G3 X-12.58757 Y4.53636 I7.70628 J6.05419
G2 X-11.36118 Y2.56802 I-7.47268 J-6.02215
G3 X-11.34128 Y2.52559 I8.88285 J4.13945
G2 X-9.8 Y-1.40724 I-28.378 J-13.38981
G1 Y-5.40583
G1 F300.0 X-9.0
G1 F800.0 Y-29.24234
G3 X-12.67343 Y-23.50346 I-271.39096 J-169.67129
G2 X-17.89039 Y-15.02861 I199.33307 J128.54876
G2 X-21.03274 Y-8.61586 I50.99981 J28.96698
G2 X-22.47908 Y-3.17351 I21.46439 J8.61767
G2 X-22.36858 Y0.58738 I13.01359 J1.49973
G2 X-19.64663 Y5.37404 I8.39089 J-1.60425
G2 X-14.97857 Y6.80554 I4.01532 J-4.76687
G2 X-12.03423 Y5.12577 I-0.59197 J-4.45796
G3 X-11.96467 Y5.03835 I7.0772 J5.55997
G2 X-10.63605 Y2.90593 I-8.09558 J-6.52414
G3 X-10.61778 Y2.86697 I8.15772 J3.80154
G2 X-9.0 Y-1.28461 I-29.10151 J-13.73119
G1 Y-5.40583
G1 F300.0 X-8.2
G1 F800.0 Y-32.05435
G3 X-13.34418 Y-23.93948 I-272.19096 J-166.85927
G2 X-18.58319 Y-15.42869 I200.00382 J128.98478
G2 X-21.7732 Y-8.91875 I51.69261 J29.36706
G2 X-23.27276 Y-3.27429 I22.20485 J8.92055
G2 X-23.15552 Y0.7315 I13.80727 J1.6005
G2 X-20.16991 Y5.97925 I9.17783 J-1.74838
G2 X-14.88413 Y7.60001 I4.53859 J-5.37208
G2 X-11.40514 Y5.61999 I-0.68641 J-5.25243
G3 X-11.34177 Y5.54034 I6.44811 J5.06575
G2 X-9.91092 Y3.24385 I-8.71848 J-7.02613
G3 X-9.89427 Y3.20835 I7.43259 J3.46362
G2 X-8.2 Y-1.16353 I-29.82501 J-14.07257
G1 Y-5.40583
G1 F300.0 X-7.4
G1 F800.0 Y-34.91505
G3 X-7.57241 Y-34.62793 I-172.79895 J-103.56612
G3 X-7.57405 Y-34.6252 I-6.34095 J-3.81476
G3 X-14.01492 Y-24.3755 I-272.81691 J-164.28843
G2 X-19.27597 Y-15.82879 I200.67456 J129.4208
G2 X-22.51364 Y-9.22168 I52.3854 J29.76717
G2 X-24.06642 Y-3.37517 I22.94529 J9.22349
G2 X-23.94246 Y0.87554 I14.60093 J1.70139
G2 X-20.69327 Y6.58437 I9.96477 J-1.89242
G2 X-14.78986 Y8.39448 I5.06196 J-5.9772
G2 X-10.77606 Y6.11421 I-0.78068 J-6.0469
G3 X-10.71887 Y6.04233 I5.81903 J4.57153
G2 X-9.18579 Y3.58176 I-9.34138 J-7.52812
G3 X-9.17076 Y3.54973 I6.70746 J3.12571
G2 X-7.4 Y-1.04395 I-30.54852 J-14.41395
G1 Y-5.40583
G1 F300.0 X-6.6
G1 F800.0 Y-37.84753
G3 X-8.25792 Y-35.04033 I-173.59895 J-100.63364
G3 X-8.25938 Y-35.0379 I-5.65544 J-3.40235
G3 X-14.68565 Y-24.81153 I-272.13157 J-163.87573
G2 X-19.96874 Y-16.22892 I201.34529 J129.85683
G2 X-23.25407 Y-9.52466 I53.07816 J30.16729
G2 X-24.86006 Y-3.47614 I23.68572 J9.52646
G2 X-24.72942 Y1.01952 I15.39457 J1.80236
G2 X-21.2167 Y7.18941 I10.75173 J-2.0364
G2 X-14.69572 Y9.18896 I5.58539 J-6.58225
G2 X-10.14698 Y6.60843 I-0.87482 J-6.84138
G3 X-10.09597 Y6.54432 I5.18994 J4.07731
G2 X-8.46066 Y3.91968 I-9.96428 J-8.03011
G3 X-8.44726 Y3.8911 I5.98232 J2.78779
G2 X-6.6 Y-0.9258 I-31.27202 J-14.75532
G1 Y-5.40583
G1 F300.0 X-5.8
G1 F800.0 Y-40.86807
G3 X-8.94343 Y-35.45274 I-174.39895 J-97.61311
G3 X-8.94472 Y-35.4506 I-4.96993 J-2.98994
G3 X-15.35639 Y-25.24757 I-271.44624 J-163.46303
G2 X-20.6615 Y-16.62907 I202.01602 J130.29287
G2 X-23.99448 Y-9.82767 I53.77092 J30.56744
G2 X-25.65369 Y-3.5772 I24.42613 J9.82948
G2 X-25.51638 Y1.16344 I16.1882 J1.90342
G2 X-21.74019 Y7.79441 I11.53869 J-2.18032
G2 X-14.60166 Y9.98345 I6.10888 J-7.18724
G2 X-9.51789 Y7.10265 I-0.96888 J-7.63587
G3 X-9.47307 Y7.04631 I4.56086 J3.58309
G2 X-7.73553 Y4.25759 I-10.58718 J-8.5321
G3 X-7.72375 Y4.23248 I5.25719 J2.44988
G2 X-5.8 Y-0.80904 I-31.99553 J-15.0967
G1 Y-5.40583
G1 F300.0 X-5.0
G1 F800.0 Y-43.9851
G3 X-9.62894 Y-35.86514 I-175.19895 J-94.49607
G3 X-9.63005 Y-35.8633 I-4.28443 J-2.57754
G3 X-16.02711 Y-25.68361 I-270.76091 J-163.05032
G2 X-21.35424 Y-17.02924 I202.68675 J130.72891
G2 X-24.73487 Y-10.13073 I54.46366 J30.96762
G2 X-26.44731 Y-3.67832 I25.16652 J10.13253
G2 X-26.30335 Y1.30732 I16.98182 J2.00454
G2 X-22.26372 Y8.39936 I12.32566 J-2.3242
G2 X-14.50767 Y10.77793 I6.63241 J-7.79219
G2 X-8.88881 Y7.59687 I-1.06287 J-8.43035
G3 X-8.85017 Y7.5483 I3.93178 J3.08887
G2 X-7.0104 Y4.5955 I-11.21008 J-9.03409
G3 X-7.00025 Y4.57386 I4.53206 J2.11196
G2 X-5.0 Y-0.69362 I-32.71904 J-15.43808
G1 Y-5.40583
G1 F300.0 X-4.2
G1 F800.0 Y-47.20853
G3 X-10.31444 Y-36.27755 I-175.99895 J-91.27264
G3 X-10.31538 Y-36.276 I-3.59892 J-2.16513
G3 X-16.69784 Y-26.11966 I-270.07558 J-162.63762
G2 X-22.04697 Y-17.42944 I203.35747 J131.16496
G2 X-25.47525 Y-10.43382 I55.15639 J31.36781
G2 X-27.24092 Y-3.77951 I25.90689 J10.43562
G2 X-27.09032 Y1.45116 I17.77543 J2.10573
G2 X-22.78728 Y9.00427 I13.11263 J-2.46804
G2 X-14.41373 Y11.57242 I7.15597 J-8.3971
G2 X-8.25972 Y8.09109 I-1.15681 J-9.22484
G3 X-8.22726 Y8.05029 I3.30269 J2.59465
G2 X-6.28527 Y4.93342 I-11.83299 J-9.53608
G3 X-6.27674 Y4.91524 I3.80693 J1.77405
G2 X-4.2 Y-0.5795 I-33.44254 J-15.77946
G1 Y-5.40583
G1 F300.0 X-3.4
G1 F800.0 Y-50.55004
G3 X-10.99995 Y-36.68996 I-176.79895 J-87.93113
G3 X-11.00071 Y-36.6887 I-2.91341 J-1.75273
G3 X-17.36855 Y-26.55572 I-269.39025 J-162.22492
G2 X-22.73968 Y-17.82966 I204.02819 J131.60102
G2 X-26.21561 Y-10.73694 I55.84911 J31.76803
G2 X-28.03452 Y-3.88076 I26.64726 J10.73875
G2 X-27.8773 Y1.59497 I18.56903 J2.20698
G2 X-23.31087 Y9.60916 I13.89961 J-2.61185
G2 X-14.31983 Y12.36691 I7.67956 J-9.00199
G2 X-7.63064 Y8.58531 I-1.25071 J-10.01933
G3 X-7.60436 Y8.55228 I2.67361 J2.10043
G2 X-5.56014 Y5.27133 I-12.45589 J-10.03807
G3 X-5.55323 Y5.25661 I3.0818 J1.43614
G2 X-3.4 Y-0.46663 I-34.16605 J-16.12083
G1 Y-5.40583
G1 F300.0 X-2.6
G1 F800.0 Y-54.02365
G3 X-11.68546 Y-37.10236 I-177.59895 J-84.45752
G3 X-11.68604 Y-37.1014 I-2.2279 J-1.34032
G3 X-18.03927 Y-26.99178 I-268.70492 J-161.81222
G2 X-23.43239 Y-18.2299 I204.6989 J132.03708
G2 X-26.95596 Y-11.04009 I56.54181 J32.16827
G2 X-28.82811 Y-3.98206 I27.38761 J11.0419
G2 X-28.66428 Y1.73875 I19.36262 J2.30827
G2 X-23.83448 Y10.21402 I14.68659 J-2.75563
G2 X-14.22595 Y13.1614 I8.20317 J-9.60686
G2 X-7.00156 Y9.07953 I-1.34458 J-10.81382
G3 X-6.98146 Y9.05427 I2.04452 J1.60621
G2 X-4.83501 Y5.60925 I-13.07879 J-10.54006
G3 X-4.82973 Y5.59799 I2.35667 J1.09822
G2 X-2.6 Y-0.35497 I-34.88956 J-16.46221
G1 Y-5.40583
G1 F300.0 X-1.8
G1 F800.0 Y-57.6464
G3 X-12.37097 Y-37.51477 I-178.39895 J-80.83478
G3 X-12.37137 Y-37.5141 I-1.54239 J-0.92791
G3 X-18.70997 Y-27.42786 I-268.01959 J-161.39952
G2 X-24.12508 Y-18.63016 I205.36961 J132.47316
G2 X-27.69629 Y-11.34328 I57.2345 J32.56853
G2 X-29.62169 Y-4.0834 I28.12794 J11.34508
G2 X-29.45127 Y1.88251 I20.1562 J2.40962
G2 X-24.35811 Y10.81887 I15.47358 J-2.89939
G2 X-14.13211 Y13.95589 I8.7268 J-10.2117
G2 X-6.37247 Y9.57375 I-1.43843 J-11.60831
G3 X-6.35856 Y9.55626 I1.41544 J1.11199
G2 X-4.10987 Y5.94716 I-13.70169 J-11.04205
G3 X-4.10622 Y5.93937 I1.63154 J0.76031
G2 X-1.8 Y-0.24448 I-35.61306 J-16.80359
G1 Y-5.40583
G1 F300.0 X-1.0
G1 F800.0 Y-61.4393
G3 X-13.05648 Y-37.92717 I-179.19895 J-77.04187
G3 X-13.0567 Y-37.92681 I-0.85689 J-0.51551
G3 X-19.38068 Y-27.86394 I-267.33426 J-160.98682
G2 X-24.81776 Y-19.03044 I206.04032 J132.90923
G2 X-28.43662 Y-11.64649 I57.92718 J32.96881
G2 X-30.41527 Y-4.18479 I28.86827 J11.6483
G2 X-30.23826 Y2.02625 I20.94977 J2.511
G2 X-24.88176 Y11.4237 I16.26057 J-3.04313
G2 X-14.03828 Y14.75038 I9.25045 J-10.81653
G2 X-5.74339 Y10.06796 I-1.53226 J-12.4028
G3 X-5.73566 Y10.05825 I0.78636 J0.61777
G2 X-3.38474 Y6.28508 I-14.32459 J-11.54404
G3 X-3.38271 Y6.28075 I0.90641 J0.42239
G2 X-1.0 Y-0.13514 I-36.33657 J-17.14497
G1 Y-5.40583
G0 Z3.0
G0 X-15.4
G0 Z0.4
G1 F300.0 Z-1.2
G2 F800.0 X-16.12852 Y-2.37402 I15.83165 J5.40764
G2 X-16.07696 Y-0.58991 I6.66303 J0.70023
G2 X-15.4 Y-2.31475 I-23.64233 J-10.27431
G1 Y-5.40583
G1 F300.0 X-14.6
G1 F800.0 Y-9.26367
G2 X-15.84879 Y-6.4973 I47.70942 J23.20204
G2 X-16.92251 Y-2.47291 I16.28044 J6.49911
G2 X-16.86088 Y-0.42721 I7.45702 J0.79913
G2 X-16.0205 Y1.10149 I2.88319 J-0.58967
G2 X-15.71196 Y0.54053 I-4.03975 J-2.58728
G3 X-15.68232 Y0.47733 I13.23363 J6.16694
G2 X-14.6 Y-2.1793 I-24.03696 J-11.34155
G1 Y-5.40583
G1 F300.0 X-13.8
G1 F800.0 Y-12.51069
G2 X-16.58945 Y-6.79974 I46.90942 J26.44907
G2 X-17.71644 Y-2.57223 I17.02109 J6.80155
G2 X-17.64752 Y-0.28101 I8.25095 J0.89844
G2 X-16.51424 Y1.7354 I3.66982 J-0.73587
G2 X-15.71108 Y2.03759 I0.88293 J-1.12824
G3 X-15.70208 Y2.02641 I10.75405 J8.64815
G2 X-14.98683 Y0.87845 I-4.35817 J-3.5122
G3 X-14.95881 Y0.81871 I12.5085 J5.82902
G2 X-13.8 Y-2.04593 I-24.76047 J-11.68293
G1 Y-5.40583
G1 F300.0 X-13.0
G1 F800.0 Y-15.42452
G2 X-14.42617 Y-13.0286 I199.65964 J120.46982
G2 X-17.33007 Y-7.10226 I47.53559 J26.96698
G2 X-18.51031 Y-2.67188 I17.76171 J7.10407
G2 X-18.43425 Y-0.1355 I9.04482 J0.9981
G2 X-17.03409 Y2.34409 I4.45656 J-0.88137
G2 X-15.46694 Y2.83375 I1.40278 J-1.73693
G2 X-15.17965 Y2.65467 I-0.1036 J-0.48617
G3 X-15.07918 Y2.5284 I10.22262 J8.03107
G2 X-14.2617 Y1.21636 I-4.98107 J-4.01419
G3 X-14.23531 Y1.16008 I11.78337 J5.49111
G2 X-13.0 Y-1.91454 I-25.48397 J-12.0243
G1 Y-5.40583
G1 F300.0 X-12.2
G1 F800.0 Y-18.26543
G2 X-15.11905 Y-13.42855 I198.85964 J123.31072
G2 X-18.07065 Y-7.40486 I48.22847 J27.36692
G2 X-19.30413 Y-2.77182 I18.5023 J7.40666
G2 X-19.22105 Y0.00955 I9.83864 J1.09803
G2 X-17.55557 Y2.95113 I5.24336 J-1.02642
G2 X-15.36248 Y3.62787 I1.92426 J-2.34396
G2 X-14.55057 Y3.14889 I-0.20806 J-1.28029
G3 X-14.45628 Y3.03039 I9.59353 J7.53685
G2 X-13.53657 Y1.55428 I-5.60397 J-4.51618
G3 X-13.5118 Y1.50146 I11.05824 J5.15319
G2 X-12.2 Y-1.78506 I-26.20748 J-12.36568
G1 Y-5.40583
G1 F300.0 X-11.4
G1 F800.0 Y-21.04234
G2 X-15.81191 Y-13.82852 I198.05964 J126.08764
G2 X-18.81121 Y-7.70752 I48.92133 J27.7669
G2 X-20.09791 Y-2.87198 I19.24286 J7.70932
G2 X-20.00789 Y0.15429 I10.63242 J1.1982
G2 X-18.07783 Y3.55738 I6.0302 J-1.17117
G2 X-15.26451 Y4.42222 I2.44652 J-2.95021
G2 X-13.92148 Y3.64311 I-0.30603 J-2.07464
G3 X-13.83338 Y3.53238 I8.96445 J7.04263
G2 X-12.81144 Y1.89219 I-6.22687 J-5.01817
G3 X-12.7883 Y1.84284 I10.33311 J4.81528
G2 X-11.4 Y-1.6574 I-26.93099 J-12.70706
G1 Y-5.40583
G1 F300.0 X-10.6
G1 F800.0 Y-23.75369
G3 X-11.33193 Y-22.63146 I-269.79096 J-175.15994
G2 X-16.50475 Y-14.22852 I197.99157 J127.67676
G2 X-19.55175 Y-8.01024 I49.61417 J28.1669
G2 X-20.89166 Y-2.97233 I19.98339 J8.01205
G2 X-20.79477 Y0.2988 I11.42617 J1.29855
G2 X-18.60052 Y4.16318 I6.81707 J-1.31568
G2 X-15.16847 Y5.21663 I2.96921 J-3.55601
G2 X-13.2924 Y4.13733 I-0.40206 J-2.86905
G3 X-13.21047 Y4.03437 I8.33537 J6.54841
G2 X-12.08631 Y2.2301 I-6.84977 J-5.52016
G3 X-12.06479 Y2.18422 I9.60798 J4.47736
G2 X-10.6 Y-1.53148 I-27.65449 J-13.04844
G1 Y-5.40583
G1 F300.0 X-9.8
G1 F800.0 Y-26.47617
G3 X-12.00268 Y-23.06746 I-270.59096 J-172.43745
G2 X-17.19758 Y-14.62855 I198.66232 J128.11276
G2 X-20.29225 Y-8.31303 I50.307 J28.56693
G2 X-21.68538 Y-3.07285 I20.7239 J8.31483
G2 X-21.58167 Y0.44315 I12.21989 J1.39907
G2 X-19.12349 Y4.7687 I7.60397 J-1.46003
G2 X-15.07329 Y6.01108 I3.49218 J-4.16153
G2 X-12.66331 Y4.63155 I-0.49725 J-3.6635
G3 X-12.58757 Y4.53636 I7.70628 J6.05419
G2 X-11.36118 Y2.56802 I-7.47268 J-6.02215
G3 X-11.34128 Y2.52559 I8.88285 J4.13945
G2 X-9.8 Y-1.40724 I-28.378 J-13.38981
G1 Y-5.40583
G1 F300.0 X-9.0
G1 F800.0 Y-29.24234
G3 X-12.67343 Y-23.50346 I-271.39096 J-169.67129
G2 X-17.89039 Y-15.02861 I199.33307 J128.54876
G2 X-21.03274 Y-8.61586 I50.99981 J28.96698
G2 X-22.47908 Y-3.17351 I21.46439 J8.61767
G2 X-22.36858 Y0.58738 I13.01359 J1.49973
G2 X-19.64663 Y5.37404 I8.39089 J-1.60425
G2 X-14.97857 Y6.80554 I4.01532 J-4.76687
G2 X-12.03423 Y5.12577 I-0.59197 J-4.45796
G3 X-11.96467 Y5.03835 I7.0772 J5.55997
G2 X-10.63605 Y2.90593 I-8.09558 J-6.52414
G3 X-10.61778 Y2.86697 I8.15772 J3.80154
G2 X-9.0 Y-1.28461 I-29.10151 J-13.73119
G1 Y-5.40583
G1 F300.0 X-8.2
G1 F800.0 Y-32.05435
G3 X-13.34418 Y-23.93948 I-272.19096 J-166.85927
G2 X-18.58319 Y-15.42869 I200.00382 J128.98478
G2 X-21.7732 Y-8.91875 I51.69261 J29.36706
G2 X-23.27276 Y-3.27429 I22.20485 J8.92055
G2 X-23.15552 Y0.7315 I13.80727 J1.6005
G2 X-20.16991 Y5.97925 I9.17783 J-1.74838
G2 X-14.88413 Y7.60001 I4.53859 J-5.37208
G2 X-11.40514 Y5.61999 I-0.68641 J-5.25243
G3 X-11.34177 Y5.54034 I6.44811 J5.06575
G2 X-9.91092 Y3.24385 I-8.71848 J-7.02613
G3 X-9.89427 Y3.20835 I7.43259 J3.46362
G2 X-8.2 Y-1.16353 I-29.82501 J-14.07257
G1 Y-5.40583
G1 F300.0 X-7.4
G1 F800.0 Y-34.91505
G3 X-7.57241 Y-34.62793 I-172.79895 J-103.56612
G3 X-7.57405 Y-34.6252 I-6.34095 J-3.81476
G3 X-14.01492 Y-24.3755 I-272.81691 J-164.28843
G2 X-19.27597 Y-15.82879 I200.67456 J129.4208
G2 X-22.51364 Y-9.22168 I52.3854 J29.76717
G2 X-24.06642 Y-3.37517 I22.94529 J9.22349
G2 X-23.94246 Y0.87554 I14.60093 J1.70139
G2 X-20.69327 Y6.58437 I9.96477 J-1.89242
G2 X-14.78986 Y8.39448 I5.06196 J-5.9772
G2 X-10.77606 Y6.11421 I-0.78068 J-6.0469
G3 X-10.71887 Y6.04233 I5.81903 J4.57153
G2 X-9.18579 Y3.58176 I-9.34138 J-7.52812
G3 X-9.17076 Y3.54973 I6.70746 J3.12571
G2 X-7.4 Y-1.04395 I-30.54852 J-14.41395
G1 Y-5.40583
G1 F300.0 X-6.6
G1 F800.0 Y-37.84753
G3 X-8.25792 Y-35.04033 I-173.59895 J-100.63364
G3 X-8.25938 Y-35.0379 I-5.65544 J-3.40235
G3 X-14.68565 Y-24.81153 I-272.13157 J-163.87573
G2 X-19.96874 Y-16.22892 I201.34529 J129.85683
G2 X-23.25407 Y-9.52466 I53.07816 J30.16729
G2 X-24.86006 Y-3.47614 I23.68572 J9.52646
G2 X-24.72942 Y1.01952 I15.39457 J1.80236
G2 X-21.2167 Y7.18941 I10.75173 J-2.0364
G2 X-14.69572 Y9.18896 I5.58539 J-6.58225
G2 X-10.14698 Y6.60843 I-0.87482 J-6.84138
G3 X-10.09597 Y6.54432 I5.18994 J4.07731
G2 X-8.46066 Y3.91968 I-9.96428 J-8.03011
G3 X-8.44726 Y3.8911 I5.98232 J2.78779
G2 X-6.6 Y-0.9258 I-31.27202 J-14.75532
G1 Y-5.40583
G1 F300.0 X-5.8
G1 F800.0 Y-40.86807
G3 X-8.94343 Y-35.45274 I-174.39895 J-97.61311
G3 X-8.94472 Y-35.4506 I-4.96993 J-2.98994
G3 X-15.35639 Y-25.24757 I-271.44624 J-163.46303
G2 X-20.6615 Y-16.62907 I202.01602 J130.29287
G2 X-23.99448 Y-9.82767 I53.77092 J30.56744
G2 X-25.65369 Y-3.5772 I24.42613 J9.82948
G2 X-25.51638 Y1.16344 I16.1882 J1.90342
G2 X-21.74019 Y7.79441 I11.53869 J-2.18032
G2 X-14.60166 Y9.98345 I6.10888 J-7.18724
G2 X-9.51789 Y7.10265 I-0.96888 J-7.63587
G3 X-9.47307 Y7.04631 I4.56086 J3.58309
G2 X-7.73553 Y4.25759 I-10.58718 J-8.5321
G3 X-7.72375 Y4.23248 I5.25719 J2.44988
G2 X-5.8 Y-0.80904 I-31.99553 J-15.0967
G1 Y-5.40583
G1 F300.0 X-5.0
G1 F800.0 Y-43.9851
G3 X-9.62894 Y-35.86514 I-175.19895 J-94.49607
G3 X-9.63005 Y-35.8633 I-4.28443 J-2.57754
G3 X-16.02711 Y-25.68361 I-270.76091 J-163.05032
G2 X-21.35424 Y-17.02924 I202.68675 J130.72891
G2 X-24.73487 Y-10.13073 I54.46366 J30.96762
G2 X-26.44731 Y-3.67832 I25.16652 J10.13253
G2 X-26.30335 Y1.30732 I16.98182 J2.00454
G2 X-22.26372 Y8.39936 I12.32566 J-2.3242
G2 X-14.50767 Y10.77793 I6.63241 J-7.79219
G2 X-8.88881 Y7.59687 I-1.06287 J-8.43035
G3 X-8.85017 Y7.5483 I3.93178 J3.08887
G2 X-7.0104 Y4.5955 I-11.21008 J-9.03409
G3 X-7.00025 Y4.57386 I4.53206 J2.11196
G2 X-5.0 Y-0.69362 I-32.71904 J-15.43808
G1 Y-5.40583
G1 F300.0 X-4.2
G1 F800.0 Y-47.20853
G3 X-10.31444 Y-36.27755 I-175.99895 J-91.27264
G3 X-10.31538 Y-36.276 I-3.59892 J-2.16513
G3 X-16.69784 Y-26.11966 I-270.07558 J-162.63762
G2 X-22.04697 Y-17.42944 I203.35747 J131.16496
G2 X-25.47525 Y-10.43382 I55.15639 J31.36781
G2 X-27.24092 Y-3.77951 I25.90689 J10.43562
G2 X-27.09032 Y1.45116 I17.77543 J2.10573
G2 X-22.78728 Y9.00427 I13.11263 J-2.46804
G2 X-14.41373 Y11.57242 I7.15597 J-8.3971
G2 X-8.25972 Y8.09109 I-1.15681 J-9.22484
G3 X-8.22726 Y8.05029 I3.30269 J2.59465
G2 X-6.28527 Y4.93342 I-11.83299 J-9.53608
G3 X-6.27674 Y4.91524 I3.80693 J1.77405
G2 X-4.2 Y-0.5795 I-33.44254 J-15.77946
G1 Y-5.40583
G1 F300.0 X-3.4
G1 F800.0 Y-50.55004
G3 X-10.99995 Y-36.68996 I-176.79895 J-87.93113
G3 X-11.00071 Y-36.6887 I-2.91341 J-1.75273
G3 X-17.36855 Y-26.55572 I-269.39025 J-162.22492
G2 X-22.73968 Y-17.82966 I204.02819 J131.60102
G2 X-26.21561 Y-10.73694 I55.84911 J31.76803
G2 X-28.03452 Y-3.88076 I26.64726 J10.73875
G2 X-27.8773 Y1.59497 I18.56903 J2.20698
G2 X-23.31087 Y9.60916 I13.89961 J-2.61185
G2 X-14.31983 Y12.36691 I7.67956 J-9.00199
G2 X-7.63064 Y8.58531 I-1.25071 J-10.01933
G3 X-7.60436 Y8.55228 I2.67361 J2.10043
G2 X-5.56014 Y5.27133 I-12.45589 J-10.03807
G3 X-5.55323 Y5.25661 I3.0818 J1.43614
G2 X-3.4 Y-0.46663 I-34.16605 J-16.12083
G1 Y-5.40583
G1 F300.0 X-2.6
G1 F800.0 Y-54.02365
G3 X-11.68546 Y-37.10236 I-177.59895 J-84.45752
G3 X-11.68604 Y-37.1014 I-2.2279 J-1.34032
G3 X-18.03927 Y-26.99178 I-268.70492 J-161.81222
G2 X-23.43239 Y-18.2299 I204.6989 J132.03708
G2 X-26.95596 Y-11.04009 I56.54181 J32.16827
G2 X-28.82811 Y-3.98206 I27.38761 J11.0419
G2 X-28.66428 Y1.73875 I19.36262 J2.30827
G2 X-23.83448 Y10.21402 I14.68659 J-2.75563
G2 X-14.22595 Y13.1614 I8.20317 J-9.60686
G2 X-7.00156 Y9.07953 I-1.34458 J-10.81382
G3 X-6.98146 Y9.05427 I2.04452 J1.60621
G2 X-4.83501 Y5.60925 I-13.07879 J-10.54006
G3 X-4.82973 Y5.59799 I2.35667 J1.09822
G2 X-2.6 Y-0.35497 I-34.88956 J-16.46221
G1 Y-5.40583
G1 F300.0 X-1.8
G1 F800.0 Y-57.6464
G3 X-12.37097 Y-37.51477 I-178.39895 J-80.83478
G3 X-12.37137 Y-37.5141 I-1.54239 J-0.92791
G3 X-18.70997 Y-27.42786 I-268.01959 J-161.39952
G2 X-24.12508 Y-18.63016 I205.36961 J132.47316
G2 X-27.69629 Y-11.34328 I57.2345 J32.56853
G2 X-29.62169 Y-4.0834 I28.12794 J11.34508
G2 X-29.45127 Y1.88251 I20.1562 J2.40962
G2 X-24.35811 Y10.81887 I15.47358 J-2.89939
G2 X-14.13211 Y13.95589 I8.7268 J-10.2117
G2 X-6.37247 Y9.57375 I-1.43843 J-11.60831
G3 X-6.35856 Y9.55626 I1.41544 J1.11199
G2 X-4.10987 Y5.94716 I-13.70169 J-11.04205
G3 X-4.10622 Y5.93937 I1.63154 J0.76031
G2 X-1.8 Y-0.24448 I-35.61306 J-16.80359
G1 Y-5.40583
G1 F300.0 X-1.0
G1 F800.0 Y-61.4393
G3 X-13.05648 Y-37.92717 I-179.19895 J-77.04187
G3 X-13.0567 Y-37.92681 I-0.85689 J-0.51551
G3 X-19.38068 Y-27.86394 I-267.33426 J-160.98682
G2 X-24.81776 Y-19.03044 I206.04032 J132.90923
G2 X-28.43662 Y-11.64649 I57.92718 J32.96881
G2 X-30.41527 Y-4.18479 I28.86827 J11.6483
G2 X-30.23826 Y2.02625 I20.94977 J2.511
G2 X-24.88176 Y11.4237 I16.26057 J-3.04313
G2 X-14.03828 Y14.75038 I9.25045 J-10.81653
G2 X-5.74339 Y10.06796 I-1.53226 J-12.4028
G3 X-5.73566 Y10.05825 I0.78636 J0.61777
G2 X-3.38474 Y6.28508 I-14.32459 J-11.54404
G3 X-3.38271 Y6.28075 I0.90641 J0.42239
G2 X-1.0 Y-0.13514 I-36.33657 J-17.14497
G1 Y-5.40583
G0 Z3.0
M5
M30
