( Made using CamBam - http://www.cambam.co.uk )
( Herz 5/17/2020 3:26:46 PM )
( T2 : 2.0 )
G21 G90 G64 G40
G0 Z3.0
( T2 : 2.0 )
T2 M6
( Tasche2 )
G17
M3 S1000
G0 X-15.39124 Y5.43071
G0 Z1.0
G1 F300.0 Z-0.6
G1 F800.0 X-15.39624 Y2.33963
G2 X-16.07598 Y0.61589 I-24.30544 J8.58876
G2 X-16.12466 Y2.40008 I6.61321 J1.07318
G2 X-15.39124 Y5.43071 I16.5563 J-2.40258
G1 F300.0 X-16.14788 Y5.69052
G2 F800.0 X-15.83827 Y6.52291 I16.57952 J-5.69302
G2 X-14.58501 Y9.28725 I48.92513 J-20.51477
G1 X-14.59646 Y2.20289
G2 X-15.68307 Y-0.45198 I-25.10522 J8.7255
G3 X-15.71281 Y-0.51514 I13.1939 J-6.25147
G2 X-16.02225 Y-1.0756 I-4.34501 J2.03335
G2 X-16.86017 Y0.45446 I2.04623 J2.11506
G2 X-16.9185 Y2.50026 I7.3974 J1.23462
G2 X-16.14788 Y5.69052 I17.35014 J-2.50276
G1 F300.0 X-16.90452 Y5.95033
G2 F800.0 X-16.57844 Y6.82654 I17.33616 J-5.95284
G2 X-13.77976 Y12.53298 I49.66529 J-20.81841
G1 X-13.79668 Y2.06823
G2 X-14.96012 Y-0.79453 I-25.905 J8.86017
G3 X-14.98823 Y-0.85423 I12.47095 J-5.90893
G2 X-15.70533 Y-2.00104 I-5.06959 J2.37243
G3 X-15.71435 Y-2.0122 I10.73104 J-8.67668
G2 X-16.51702 Y-1.70871 I0.08208 J1.43029
G2 X-17.64704 Y0.30953 I2.54099 J2.74818
G2 X-17.71226 Y2.60085 I8.18427 J1.37955
G2 X-16.90452 Y5.95033 I18.1439 J-2.60336
G1 F300.0 X-17.66115 Y6.21014
G2 F800.0 X-17.31857 Y7.13026 I18.0928 J-6.21265
G2 X-14.4051 Y13.0519 I50.40542 J-21.12212
G2 X-12.97506 Y15.44551 I200.89473 J-118.39871
G1 X-12.99689 Y1.93555
G2 X-14.23716 Y-1.13708 I-26.70479 J8.99285
G3 X-14.26365 Y-1.19331 I11.748 J-5.56638
G2 X-15.08324 Y-2.50403 I-5.79418 J2.71152
G3 X-15.18392 Y-2.63014 I10.10895 J-8.17368
G2 X-15.4715 Y-2.80876 I-0.39039 J0.30772
G2 X-17.03786 Y-2.31656 I-0.16078 J2.22685
G2 X-18.434 Y0.16529 I3.06183 J3.35603
G2 X-18.50597 Y2.70179 I8.97123 J1.52378
G2 X-17.66115 Y6.21014 I18.93761 J-2.7043
G1 F300.0 X-18.41779 Y6.46996
G2 F800.0 X-18.05866 Y7.43405 I18.84943 J-6.47246
G2 X-15.09733 Y13.45296 I51.14552 J-21.42591
G2 X-12.17047 Y18.28512 I201.58696 J-118.79977
G1 X-12.1971 Y1.80477
G2 X-13.51421 Y-1.47962 I-27.50457 J9.12362
G3 X-13.53906 Y-1.5324 I11.02504 J-5.22383
G2 X-14.46116 Y-3.00703 I-6.51876 J3.05061
G3 X-14.55564 Y-3.12537 I9.48686 J-7.67069
G2 X-15.36832 Y-3.60304 I-1.01868 J0.80296
G2 X-17.56032 Y-2.92276 I-0.26395 J3.02114
G2 X-19.22104 Y0.02152 I3.58429 J3.96222
G2 X-19.29962 Y2.80301 I9.75826 J1.66756
G2 X-18.41779 Y6.46996 I19.73127 J-2.80551
G1 F300.0 X-19.17442 Y6.72977
G2 F800.0 X-18.79873 Y7.73791 I19.60607 J-6.73227
G2 X-15.78954 Y13.85406 I51.88559 J-21.72977
G2 X-11.36598 Y21.06073 I202.27918 J-119.20087
G1 X-11.39731 Y1.67582
G2 X-12.79126 Y-1.82217 I-28.30437 J9.25258
G3 X-12.81448 Y-1.87148 I10.30209 J-4.88129
G2 X-13.83907 Y-3.51002 I-7.24334 J3.38969
G3 X-13.92735 Y-3.62061 I8.86477 J-7.16769
G2 X-15.27164 Y-4.39755 I-1.64696 J1.29819
G2 X-18.08355 Y-3.52816 I-0.36063 J3.81564
G2 X-20.00811 Y-0.12195 I4.10752 J4.56762
G2 X-20.09324 Y2.90445 I10.54534 J1.81103
G2 X-19.17442 Y6.72977 I20.52489 J-2.90696
G1 F300.0 X-19.93106 Y6.98958
G2 F800.0 X-19.53877 Y8.04183 I20.3627 J-6.99208
G2 X-16.48174 Y14.25518 I52.62563 J-22.03369
G2 X-11.29534 Y22.64974 I202.97137 J-119.60199
G3 X-10.5616 Y23.77079 I-268.7738 J176.71675
G1 X-10.59751 Y1.54861
G2 X-12.0683 Y-2.16472 I-29.10416 J9.37979
G3 X-12.0899 Y-2.21057 I9.57914 J-4.53874
G2 X-13.21698 Y-4.01302 I-7.96793 J3.72878
G3 X-13.29907 Y-4.11584 I8.24268 J-6.6647
G2 X-15.17688 Y-5.19212 I-2.27525 J1.79343
G2 X-18.60722 Y-4.13311 I-0.45539 J4.61021
G2 X-20.79522 Y-0.2652 I4.6312 J5.17258
G2 X-20.88683 Y3.00609 I11.33245 J1.95428
G2 X-19.93106 Y6.98958 I21.31847 J-3.00859
G1 F300.0 X-20.6877 Y7.24939
G2 F800.0 X-20.27879 Y8.34581 I21.11934 J-7.25189
G2 X-17.17392 Y14.65632 I53.36565 J-22.33767
G2 X-11.96539 Y23.08682 I203.66355 J-120.00314
G3 X-9.7572 Y26.49198 I-268.10375 J176.27966
G1 X-9.79771 Y1.42308
G2 X-11.34535 Y-2.50726 I-29.90396 J9.50532
G3 X-11.36531 Y-2.54966 I8.85618 J-4.19619
G2 X-12.59489 Y-4.51601 I-8.69251 J4.06786
G3 X-12.67078 Y-4.61108 I7.62059 J-6.1617
G2 X-15.08299 Y-5.98671 I-2.90353 J2.28866
G2 X-19.13117 Y-4.73779 I-0.54928 J5.40481
G2 X-21.58235 Y-0.40828 I5.15514 J5.77725
G2 X-21.68039 Y3.10789 I12.11958 J2.09735
G2 X-20.6877 Y7.24939 I22.11203 J-3.11039
G1 F300.0 X-21.44433 Y7.5092
G2 F800.0 X-21.01879 Y8.64984 I21.87598 J-7.5117
G2 X-17.86608 Y15.0575 I54.10564 J-22.6417
G2 X-12.63543 Y23.52391 I204.35572 J-120.40431
G3 X-8.95273 Y29.25684 I-267.43371 J175.84257
G1 X-8.99791 Y1.29915
G2 X-10.6224 Y-2.84981 I-30.70376 J9.62924
G3 X-10.64073 Y-2.88874 I8.13323 J-3.85365
G2 X-11.9728 Y-5.01901 I-9.41709 J4.40695
G3 X-12.0425 Y-5.10631 I6.9985 J-5.6587
G2 X-14.98955 Y-6.78132 I-3.53182 J2.7839
G2 X-19.65529 Y-5.34228 I-0.64272 J6.19942
G2 X-22.3695 Y-0.55123 I5.67926 J6.38175
G2 X-22.47392 Y3.20983 I12.90673 J2.24031
G2 X-21.44433 Y7.5092 I22.90557 J-3.21233
G1 F300.0 X-22.20097 Y7.76901
G2 F800.0 X-21.75876 Y8.95392 I22.63261 J-7.77152
G2 X-18.55823 Y15.4587 I54.84561 J-22.94579
G2 X-13.30547 Y23.96101 I205.04787 J-120.80551
G3 X-8.14819 Y32.06756 I-266.76367 J175.40547
G1 X-8.19811 Y1.17678
G2 X-9.89944 Y-3.19235 I-31.50357 J9.75161
G3 X-9.91615 Y-3.22783 I7.41027 J-3.5111
G2 X-11.35071 Y-5.52201 I-10.14168 J4.74603
G3 X-11.41421 Y-5.60155 I6.37642 J-5.15571
G2 X-14.89639 Y-7.57595 I-4.1601 J3.27913
G2 X-20.17954 Y-5.94665 I-0.73588 J6.99404
G2 X-23.15667 Y-0.69408 I6.20351 J6.98611
G2 X-23.26744 Y3.31189 I13.6939 J2.38316
G2 X-22.20097 Y7.76901 I23.69908 J-3.31439
G1 F300.0 X-22.9576 Y8.02882
G2 F800.0 X-22.49871 Y9.25805 I23.38925 J-8.03133
G2 X-19.25037 Y15.85992 I55.58557 J-23.24992
G2 X-13.97551 Y24.39812 I205.74001 J-121.20673
G3 X-7.51809 Y34.63739 I-266.09363 J174.96837
G3 X-7.51644 Y34.64012 I-6.33313 J3.82773
G3 X-7.34357 Y34.92696 I-172.45848 J104.13208
G1 X-7.3983 Y1.0559
G2 X-9.17649 Y-3.5349 I-32.30337 J9.87249
G3 X-9.19156 Y-3.56691 I6.68732 J-3.16855
G2 X-10.72862 Y-6.025 I-10.86626 J5.08512
G3 X-10.78593 Y-6.09678 I5.75433 J-4.65271
G2 X-14.80341 Y-8.37057 I-4.78839 J3.77437
G2 X-20.70388 Y-6.55092 I-0.82887 J7.78867
G2 X-23.94385 Y-0.83685 I6.72785 J7.59038
G2 X-24.06093 Y3.41406 I14.48107 J2.52593
G2 X-22.9576 Y8.02882 I24.49258 J-3.41656
G1 F300.0 X-23.71424 Y8.28864
G2 F800.0 X-23.23865 Y9.56222 I24.14588 J-8.29114
G2 X-19.94249 Y16.26117 I56.3255 J-23.55409
G2 X-14.64554 Y24.83523 I206.43213 J-121.60798
G3 X-8.20275 Y35.0512 I-265.4236 J174.53125
G3 X-8.20128 Y35.05363 I-5.64847 J3.41392
G3 X-6.53883 Y37.85815 I-171.77364 J103.71857
G1 X-6.5985 Y0.93646
G2 X-8.45354 Y-3.87745 I-33.10318 J9.99193
G3 X-8.46698 Y-3.906 I5.96437 J-2.82601
G2 X-10.10653 Y-6.528 I-11.59084 J5.42421
G3 X-10.15764 Y-6.59202 I5.13224 J-4.14972
G2 X-14.71055 Y-9.1652 I-5.41667 J4.26961
G2 X-21.22829 Y-7.15512 I-0.92173 J8.5833
G2 X-24.73103 Y-0.97955 I7.25227 J8.19458
G2 X-24.85441 Y3.51631 I15.26826 J2.66863
G2 X-23.71424 Y8.28864 I25.28606 J-3.51882
G1 F300.0 X-24.47088 Y8.54845
G2 F800.0 X-23.97856 Y9.86644 I24.90252 J-8.55095
G2 X-20.6346 Y16.66244 I57.06542 J-23.8583
G2 X-15.31557 Y25.27235 I207.12424 J-122.00925
G3 X-8.88741 Y35.46501 I-264.75358 J174.09413
G3 X-8.88612 Y35.46714 I-4.9638 J3.00011
G3 X-5.73395 Y40.87739 I-171.0888 J103.30505
G1 X-5.79868 Y0.81841
G2 X-7.73058 Y-4.21999 I-33.90299 J10.10998
G3 X-7.7424 Y-4.24508 I5.24141 J-2.48346
G2 X-9.48444 Y-7.03099 I-12.31543 J5.76329
G3 X-9.52936 Y-7.08726 I4.51015 J-3.64672
G2 X-14.61777 Y-9.95984 I-6.04495 J4.76484
G2 X-21.75276 Y-7.75926 I-1.0145 J9.37793
G2 X-25.51823 Y-1.12221 I7.77673 J8.79873
G2 X-25.64788 Y3.61865 I16.05545 J2.81128
G2 X-24.47088 Y8.54845 I26.07952 J-3.62115
G1 F300.0 X-25.22751 Y8.80826
G2 F800.0 X-24.71847 Y10.17069 I25.65916 J-8.81076
G2 X-21.32669 Y17.06373 I57.80532 J-24.16255
G2 X-15.98559 Y25.70948 I207.81633 J-122.41054
G3 X-9.57208 Y35.87882 I-264.08356 J173.65701
G3 X-9.57096 Y35.88066 I-4.27914 J2.5863
G3 X-4.92891 Y43.99313 I-170.40396 J102.89154
G1 X-4.99887 Y0.7017
G2 X-7.00763 Y-4.56254 I-34.7028 J10.22669
G3 X-7.01781 Y-4.58417 I4.51846 J-2.14091
G2 X-8.86235 Y-7.53399 I-13.04001 J6.10238
G3 X-8.90107 Y-7.58249 I3.88806 J-3.14372
G2 X-14.52507 Y-10.75447 I-6.67324 J5.26008
G2 X-22.27726 Y-8.36337 I-1.1072 J10.17257
G2 X-26.30543 Y-1.26481 I8.30124 J9.40283
G2 X-26.44133 Y3.72106 I16.84265 J2.95389
G2 X-25.22751 Y8.80826 I26.87298 J-3.72356
G1 F300.0 X-25.98415 Y9.06807
G2 F800.0 X-25.45835 Y10.47497 I26.41579 J-9.07057
G2 X-22.01877 Y17.46504 I58.54521 J-24.46684
G2 X-16.6556 Y26.14661 I208.50841 J-122.81186
G3 X-10.25674 Y36.29262 I-263.41354 J173.21987
G3 X-10.2558 Y36.29417 I-3.59448 J2.17249
G3 X-4.1237 Y47.21525 I-169.71912 J102.47803
G1 X-4.19906 Y0.58628
G2 X-6.28467 Y-4.90509 I-35.50262 J10.34211
G3 X-6.29323 Y-4.92326 I3.79551 J-1.79837
G2 X-8.24026 Y-8.03699 I-13.76459 J6.44146
G3 X-8.27279 Y-8.07773 I3.26597 J-2.64073
G2 X-14.43241 Y-11.54911 I-7.30152 J5.75531
G2 X-22.8018 Y-8.96743 I-1.19986 J10.96721
G2 X-27.09263 Y-1.40738 I8.82577 J10.0069
G2 X-27.23478 Y3.82353 I17.62986 J3.09646
G2 X-25.98415 Y9.06807 I27.66642 J-3.82603
G1 F300.0 X-26.74078 Y9.32788
G2 F800.0 X-26.19822 Y10.77929 I27.17243 J-9.33038
G2 X-22.71084 Y17.86638 I59.28508 J-24.77116
G2 X-17.32561 Y26.58375 I209.20048 J-123.21319
G3 X-10.9414 Y36.70643 I-262.74353 J172.78273
G3 X-10.94065 Y36.70768 I-2.90982 J1.75868
G3 X-3.3183 Y50.55547 I-169.03428 J102.06451
G1 X-3.39924 Y0.47212
G2 X-5.56172 Y-5.24763 I-36.30243 J10.45627
G3 X-5.56865 Y-5.26234 I3.07255 J-1.45582
G2 X-7.61817 Y-8.53998 I-14.48917 J6.78055
G3 X-7.6445 Y-8.57296 I2.64388 J-2.13773
G2 X-14.33979 Y-12.34375 I-7.92981 J6.25055
G2 X-23.32637 Y-9.57148 I-1.29248 J11.76184
G2 X-27.87984 Y-1.54992 I9.35034 J10.61094
G2 X-28.02821 Y3.92606 I18.41707 J3.239
G2 X-26.74078 Y9.32788 I28.45985 J-3.92856
G1 F300.0 X-27.49742 Y9.58769
G2 F800.0 X-26.93808 Y11.08364 I27.92906 J-9.59019
G2 X-23.4029 Y18.26774 I60.02494 J-25.07551
G2 X-17.99562 Y27.0209 I209.89253 J-123.61455
G3 X-11.62606 Y37.12024 I-262.07352 J172.34558
G3 X-11.62549 Y37.1212 I-2.22515 J1.34488
G3 X-2.51269 Y54.02778 I-168.34944 J101.651
G1 X-2.59942 Y0.35917
G2 X-4.83877 Y-5.59018 I-37.10225 J10.56922
G3 X-4.84406 Y-5.60143 I2.3496 J-1.11328
G2 X-6.99608 Y-9.04298 I-15.21376 J7.11963
G3 X-7.01622 Y-9.0682 I2.02179 J-1.63474
G2 X-14.2472 Y-13.13839 I-8.55809 J6.74578
G2 X-23.85096 Y-10.17549 I-1.38507 J12.55649
G2 X-28.66706 Y-1.69243 I9.87493 J11.21496
G2 X-28.82164 Y4.02864 I19.20428 J3.38151
G2 X-27.49742 Y9.58769 I29.25328 J-4.03114
G1 F300.0 X-28.25406 Y9.8475
G2 F800.0 X-27.67793 Y11.38802 I28.6857 J-9.85001
G2 X-24.09494 Y18.66912 I60.76478 J-25.37989
G2 X-18.66563 Y27.45806 I210.58458 J-124.01593
G3 X-12.31073 Y37.53405 I-261.40352 J171.90843
G3 X-12.31033 Y37.53471 I-1.54049 J0.93107
G3 X-1.70684 Y57.64923 I-167.6646 J101.23749
G1 X-1.7996 Y0.24739
G2 X-4.11581 Y-5.93273 I-37.90207 J10.681
G3 X-4.11948 Y-5.94051 I1.62665 J-0.77073
G2 X-6.37399 Y-9.54597 I-15.93834 J7.45872
G3 X-6.38793 Y-9.56343 I1.3997 J-1.13174
G2 X-14.15464 Y-13.93303 I-9.18638 J7.24102
G2 X-24.37557 Y-10.77949 I-1.47763 J13.35113
G2 X-29.45427 Y-1.83492 I10.39954 J11.81896
G2 X-29.61505 Y4.13127 I19.9915 J3.52399
G2 X-28.25406 Y9.8475 I30.0467 J-4.13377
G1 F300.0 X-29.01069 Y10.10731
G2 F800.0 X-28.41776 Y11.69243 I29.44234 J-10.10982
G2 X-24.78697 Y19.07052 I61.50461 J-25.68429
G2 X-19.33562 Y27.89522 I211.27661 J-124.41733
G3 X-12.99539 Y37.94786 I-260.73352 J171.47127
G3 X-12.99517 Y37.94822 I-0.85583 J0.51726
G3 X-0.90071 Y61.44084 I-166.97976 J100.82397
G1 X-0.99978 Y0.13675
G2 X-3.39286 Y-6.27527 I-38.70189 J10.79164
G3 X-3.3949 Y-6.2796 I0.90369 J-0.42818
G2 X-5.75191 Y-10.04897 I-16.66292 J7.79781
G3 X-5.75965 Y-10.05867 I0.77761 J-0.62874
G2 X-14.0621 Y-14.72767 I-9.81466 J7.73626
G2 X-24.90019 Y-11.38348 I-1.57017 J14.14577
G2 X-30.2415 Y-1.97738 I10.92416 J12.42294
G2 X-30.40846 Y4.23393 I20.77872 J3.66646
G2 X-29.01069 Y10.10731 I30.84011 J-4.23643
G0 Z3.0
G0 X-15.39124 Y5.43071
G0 Z0.4
G1 F300.0 Z-1.2
G1 F800.0 X-15.39624 Y2.33963
G2 X-16.07598 Y0.61589 I-24.30544 J8.58876
G2 X-16.12466 Y2.40008 I6.61321 J1.07318
G2 X-15.39124 Y5.43071 I16.5563 J-2.40258
G1 F300.0 X-16.14788 Y5.69052
G2 F800.0 X-15.83827 Y6.52291 I16.57952 J-5.69302
G2 X-14.58501 Y9.28725 I48.92513 J-20.51477
G1 X-14.59646 Y2.20289
G2 X-15.68307 Y-0.45198 I-25.10522 J8.7255
G3 X-15.71281 Y-0.51514 I13.1939 J-6.25147
G2 X-16.02225 Y-1.0756 I-4.34501 J2.03335
G2 X-16.86017 Y0.45446 I2.04623 J2.11506
G2 X-16.9185 Y2.50026 I7.3974 J1.23462
G2 X-16.14788 Y5.69052 I17.35014 J-2.50276
G1 F300.0 X-16.90452 Y5.95033
G2 F800.0 X-16.57844 Y6.82654 I17.33616 J-5.95284
G2 X-13.77976 Y12.53298 I49.66529 J-20.81841
G1 X-13.79668 Y2.06823
G2 X-14.96012 Y-0.79453 I-25.905 J8.86017
G3 X-14.98823 Y-0.85423 I12.47095 J-5.90893
G2 X-15.70533 Y-2.00104 I-5.06959 J2.37243
G3 X-15.71435 Y-2.0122 I10.73104 J-8.67668
G2 X-16.51702 Y-1.70871 I0.08208 J1.43029
G2 X-17.64704 Y0.30953 I2.54099 J2.74818
G2 X-17.71226 Y2.60085 I8.18427 J1.37955
G2 X-16.90452 Y5.95033 I18.1439 J-2.60336
G1 F300.0 X-17.66115 Y6.21014
G2 F800.0 X-17.31857 Y7.13026 I18.0928 J-6.21265
G2 X-14.4051 Y13.0519 I50.40542 J-21.12212
G2 X-12.97506 Y15.44551 I200.89473 J-118.39871
G1 X-12.99689 Y1.93555
G2 X-14.23716 Y-1.13708 I-26.70479 J8.99285
G3 X-14.26365 Y-1.19331 I11.748 J-5.56638
G2 X-15.08324 Y-2.50403 I-5.79418 J2.71152
G3 X-15.18392 Y-2.63014 I10.10895 J-8.17368
G2 X-15.4715 Y-2.80876 I-0.39039 J0.30772
G2 X-17.03786 Y-2.31656 I-0.16078 J2.22685
G2 X-18.434 Y0.16529 I3.06183 J3.35603
G2 X-18.50597 Y2.70179 I8.97123 J1.52378
G2 X-17.66115 Y6.21014 I18.93761 J-2.7043
G1 F300.0 X-18.41779 Y6.46996
G2 F800.0 X-18.05866 Y7.43405 I18.84943 J-6.47246
G2 X-15.09733 Y13.45296 I51.14552 J-21.42591
G2 X-12.17047 Y18.28512 I201.58696 J-118.79977
G1 X-12.1971 Y1.80477
G2 X-13.51421 Y-1.47962 I-27.50457 J9.12362
G3 X-13.53906 Y-1.5324 I11.02504 J-5.22383
G2 X-14.46116 Y-3.00703 I-6.51876 J3.05061
G3 X-14.55564 Y-3.12537 I9.48686 J-7.67069
G2 X-15.36832 Y-3.60304 I-1.01868 J0.80296
G2 X-17.56032 Y-2.92276 I-0.26395 J3.02114
G2 X-19.22104 Y0.02152 I3.58429 J3.96222
G2 X-19.29962 Y2.80301 I9.75826 J1.66756
G2 X-18.41779 Y6.46996 I19.73127 J-2.80551
G1 F300.0 X-19.17442 Y6.72977
G2 F800.0 X-18.79873 Y7.73791 I19.60607 J-6.73227
G2 X-15.78954 Y13.85406 I51.88559 J-21.72977
G2 X-11.36598 Y21.06073 I202.27918 J-119.20087
G1 X-11.39731 Y1.67582
G2 X-12.79126 Y-1.82217 I-28.30437 J9.25258
G3 X-12.81448 Y-1.87148 I10.30209 J-4.88129
G2 X-13.83907 Y-3.51002 I-7.24334 J3.38969
G3 X-13.92735 Y-3.62061 I8.86477 J-7.16769
G2 X-15.27164 Y-4.39755 I-1.64696 J1.29819
G2 X-18.08355 Y-3.52816 I-0.36063 J3.81564
G2 X-20.00811 Y-0.12195 I4.10752 J4.56762
G2 X-20.09324 Y2.90445 I10.54534 J1.81103
G2 X-19.17442 Y6.72977 I20.52489 J-2.90696
G1 F300.0 X-19.93106 Y6.98958
G2 F800.0 X-19.53877 Y8.04183 I20.3627 J-6.99208
G2 X-16.48174 Y14.25518 I52.62563 J-22.03369
G2 X-11.29534 Y22.64974 I202.97137 J-119.60199
G3 X-10.5616 Y23.77079 I-268.7738 J176.71675
G1 X-10.59751 Y1.54861
G2 X-12.0683 Y-2.16472 I-29.10416 J9.37979
G3 X-12.0899 Y-2.21057 I9.57914 J-4.53874
G2 X-13.21698 Y-4.01302 I-7.96793 J3.72878
G3 X-13.29907 Y-4.11584 I8.24268 J-6.6647
G2 X-15.17688 Y-5.19212 I-2.27525 J1.79343
G2 X-18.60722 Y-4.13311 I-0.45539 J4.61021
G2 X-20.79522 Y-0.2652 I4.6312 J5.17258
G2 X-20.88683 Y3.00609 I11.33245 J1.95428
G2 X-19.93106 Y6.98958 I21.31847 J-3.00859
G1 F300.0 X-20.6877 Y7.24939
G2 F800.0 X-20.27879 Y8.34581 I21.11934 J-7.25189
G2 X-17.17392 Y14.65632 I53.36565 J-22.33767
G2 X-11.96539 Y23.08682 I203.66355 J-120.00314
G3 X-9.7572 Y26.49198 I-268.10375 J176.27966
G1 X-9.79771 Y1.42308
G2 X-11.34535 Y-2.50726 I-29.90396 J9.50532
G3 X-11.36531 Y-2.54966 I8.85618 J-4.19619
G2 X-12.59489 Y-4.51601 I-8.69251 J4.06786
G3 X-12.67078 Y-4.61108 I7.62059 J-6.1617
G2 X-15.08299 Y-5.98671 I-2.90353 J2.28866
G2 X-19.13117 Y-4.73779 I-0.54928 J5.40481
G2 X-21.58235 Y-0.40828 I5.15514 J5.77725
G2 X-21.68039 Y3.10789 I12.11958 J2.09735
G2 X-20.6877 Y7.24939 I22.11203 J-3.11039
G1 F300.0 X-21.44433 Y7.5092
G2 F800.0 X-21.01879 Y8.64984 I21.87598 J-7.5117
G2 X-17.86608 Y15.0575 I54.10564 J-22.6417
G2 X-12.63543 Y23.52391 I204.35572 J-120.40431
G3 X-8.95273 Y29.25684 I-267.43371 J175.84257
G1 X-8.99791 Y1.29915
G2 X-10.6224 Y-2.84981 I-30.70376 J9.62924
G3 X-10.64073 Y-2.88874 I8.13323 J-3.85365
G2 X-11.9728 Y-5.01901 I-9.41709 J4.40695
G3 X-12.0425 Y-5.10631 I6.9985 J-5.6587
G2 X-14.98955 Y-6.78132 I-3.53182 J2.7839
G2 X-19.65529 Y-5.34228 I-0.64272 J6.19942
G2 X-22.3695 Y-0.55123 I5.67926 J6.38175
G2 X-22.47392 Y3.20983 I12.90673 J2.24031
G2 X-21.44433 Y7.5092 I22.90557 J-3.21233
G1 F300.0 X-22.20097 Y7.76901
G2 F800.0 X-21.75876 Y8.95392 I22.63261 J-7.77152
G2 X-18.55823 Y15.4587 I54.84561 J-22.94579
G2 X-13.30547 Y23.96101 I205.04787 J-120.80551
G3 X-8.14819 Y32.06756 I-266.76367 J175.40547
G1 X-8.19811 Y1.17678
G2 X-9.89944 Y-3.19235 I-31.50357 J9.75161
G3 X-9.91615 Y-3.22783 I7.41027 J-3.5111
G2 X-11.35071 Y-5.52201 I-10.14168 J4.74603
G3 X-11.41421 Y-5.60155 I6.37642 J-5.15571
G2 X-14.89639 Y-7.57595 I-4.1601 J3.27913
G2 X-20.17954 Y-5.94665 I-0.73588 J6.99404
G2 X-23.15667 Y-0.69408 I6.20351 J6.98611
G2 X-23.26744 Y3.31189 I13.6939 J2.38316
G2 X-22.20097 Y7.76901 I23.69908 J-3.31439
G1 F300.0 X-22.9576 Y8.02882
G2 F800.0 X-22.49871 Y9.25805 I23.38925 J-8.03133
G2 X-19.25037 Y15.85992 I55.58557 J-23.24992
G2 X-13.97551 Y24.39812 I205.74001 J-121.20673
G3 X-7.51809 Y34.63739 I-266.09363 J174.96837
G3 X-7.51644 Y34.64012 I-6.33313 J3.82773
G3 X-7.34357 Y34.92696 I-172.45848 J104.13208
G1 X-7.3983 Y1.0559
G2 X-9.17649 Y-3.5349 I-32.30337 J9.87249
G3 X-9.19156 Y-3.56691 I6.68732 J-3.16855
G2 X-10.72862 Y-6.025 I-10.86626 J5.08512
G3 X-10.78593 Y-6.09678 I5.75433 J-4.65271
G2 X-14.80341 Y-8.37057 I-4.78839 J3.77437
G2 X-20.70388 Y-6.55092 I-0.82887 J7.78867
G2 X-23.94385 Y-0.83685 I6.72785 J7.59038
G2 X-24.06093 Y3.41406 I14.48107 J2.52593
G2 X-22.9576 Y8.02882 I24.49258 J-3.41656
G1 F300.0 X-23.71424 Y8.28864
G2 F800.0 X-23.23865 Y9.56222 I24.14588 J-8.29114
G2 X-19.94249 Y16.26117 I56.3255 J-23.55409
G2 X-14.64554 Y24.83523 I206.43213 J-121.60798
G3 X-8.20275 Y35.0512 I-265.4236 J174.53125
G3 X-8.20128 Y35.05363 I-5.64847 J3.41392
G3 X-6.53883 Y37.85815 I-171.77364 J103.71857
G1 X-6.5985 Y0.93646
G2 X-8.45354 Y-3.87745 I-33.10318 J9.99193
G3 X-8.46698 Y-3.906 I5.96437 J-2.82601
G2 X-10.10653 Y-6.528 I-11.59084 J5.42421
G3 X-10.15764 Y-6.59202 I5.13224 J-4.14972
G2 X-14.71055 Y-9.1652 I-5.41667 J4.26961
G2 X-21.22829 Y-7.15512 I-0.92173 J8.5833
G2 X-24.73103 Y-0.97955 I7.25227 J8.19458
G2 X-24.85441 Y3.51631 I15.26826 J2.66863
G2 X-23.71424 Y8.28864 I25.28606 J-3.51882
G1 F300.0 X-24.47088 Y8.54845
G2 F800.0 X-23.97856 Y9.86644 I24.90252 J-8.55095
G2 X-20.6346 Y16.66244 I57.06542 J-23.8583
G2 X-15.31557 Y25.27235 I207.12424 J-122.00925
G3 X-8.88741 Y35.46501 I-264.75358 J174.09413
G3 X-8.88612 Y35.46714 I-4.9638 J3.00011
G3 X-5.73395 Y40.87739 I-171.0888 J103.30505
G1 X-5.79868 Y0.81841
G2 X-7.73058 Y-4.21999 I-33.90299 J10.10998
G3 X-7.7424 Y-4.24508 I5.24141 J-2.48346
G2 X-9.48444 Y-7.03099 I-12.31543 J5.76329
G3 X-9.52936 Y-7.08726 I4.51015 J-3.64672
G2 X-14.61777 Y-9.95984 I-6.04495 J4.76484
G2 X-21.75276 Y-7.75926 I-1.0145 J9.37793
G2 X-25.51823 Y-1.12221 I7.77673 J8.79873
G2 X-25.64788 Y3.61865 I16.05545 J2.81128
G2 X-24.47088 Y8.54845 I26.07952 J-3.62115
G1 F300.0 X-25.22751 Y8.80826
G2 F800.0 X-24.71847 Y10.17069 I25.65916 J-8.81076
G2 X-21.32669 Y17.06373 I57.80532 J-24.16255
G2 X-15.98559 Y25.70948 I207.81633 J-122.41054
G3 X-9.57208 Y35.87882 I-264.08356 J173.65701
G3 X-9.57096 Y35.88066 I-4.27914 J2.5863
G3 X-4.92891 Y43.99313 I-170.40396 J102.89154
G1 X-4.99887 Y0.7017
G2 X-7.00763 Y-4.56254 I-34.7028 J10.22669
G3 X-7.01781 Y-4.58417 I4.51846 J-2.14091
G2 X-8.86235 Y-7.53399 I-13.04001 J6.10238
G3 X-8.90107 Y-7.58249 I3.88806 J-3.14372
G2 X-14.52507 Y-10.75447 I-6.67324 J5.26008
G2 X-22.27726 Y-8.36337 I-1.1072 J10.17257
G2 X-26.30543 Y-1.26481 I8.30124 J9.40283
G2 X-26.44133 Y3.72106 I16.84265 J2.95389
G2 X-25.22751 Y8.80826 I26.87298 J-3.72356
G1 F300.0 X-25.98415 Y9.06807
G2 F800.0 X-25.45835 Y10.47497 I26.41579 J-9.07057
G2 X-22.01877 Y17.46504 I58.54521 J-24.46684
G2 X-16.6556 Y26.14661 I208.50841 J-122.81186
G3 X-10.25674 Y36.29262 I-263.41354 J173.21987
G3 X-10.2558 Y36.29417 I-3.59448 J2.17249
G3 X-4.1237 Y47.21525 I-169.71912 J102.47803
G1 X-4.19906 Y0.58628
G2 X-6.28467 Y-4.90509 I-35.50262 J10.34211
G3 X-6.29323 Y-4.92326 I3.79551 J-1.79837
G2 X-8.24026 Y-8.03699 I-13.76459 J6.44146
G3 X-8.27279 Y-8.07773 I3.26597 J-2.64073
G2 X-14.43241 Y-11.54911 I-7.30152 J5.75531
G2 X-22.8018 Y-8.96743 I-1.19986 J10.96721
G2 X-27.09263 Y-1.40738 I8.82577 J10.0069
G2 X-27.23478 Y3.82353 I17.62986 J3.09646
G2 X-25.98415 Y9.06807 I27.66642 J-3.82603
G1 F300.0 X-26.74078 Y9.32788
G2 F800.0 X-26.19822 Y10.77929 I27.17243 J-9.33038
G2 X-22.71084 Y17.86638 I59.28508 J-24.77116
G2 X-17.32561 Y26.58375 I209.20048 J-123.21319
G3 X-10.9414 Y36.70643 I-262.74353 J172.78273
G3 X-10.94065 Y36.70768 I-2.90982 J1.75868
G3 X-3.3183 Y50.55547 I-169.03428 J102.06451
G1 X-3.39924 Y0.47212
G2 X-5.56172 Y-5.24763 I-36.30243 J10.45627
G3 X-5.56865 Y-5.26234 I3.07255 J-1.45582
G2 X-7.61817 Y-8.53998 I-14.48917 J6.78055
G3 X-7.6445 Y-8.57296 I2.64388 J-2.13773
G2 X-14.33979 Y-12.34375 I-7.92981 J6.25055
G2 X-23.32637 Y-9.57148 I-1.29248 J11.76184
G2 X-27.87984 Y-1.54992 I9.35034 J10.61094
G2 X-28.02821 Y3.92606 I18.41707 J3.239
G2 X-26.74078 Y9.32788 I28.45985 J-3.92856
G1 F300.0 X-27.49742 Y9.58769
G2 F800.0 X-26.93808 Y11.08364 I27.92906 J-9.59019
G2 X-23.4029 Y18.26774 I60.02494 J-25.07551
G2 X-17.99562 Y27.0209 I209.89253 J-123.61455
G3 X-11.62606 Y37.12024 I-262.07352 J172.34558
G3 X-11.62549 Y37.1212 I-2.22515 J1.34488
G3 X-2.51269 Y54.02778 I-168.34944 J101.651
G1 X-2.59942 Y0.35917
G2 X-4.83877 Y-5.59018 I-37.10225 J10.56922
G3 X-4.84406 Y-5.60143 I2.3496 J-1.11328
G2 X-6.99608 Y-9.04298 I-15.21376 J7.11963
G3 X-7.01622 Y-9.0682 I2.02179 J-1.63474
G2 X-14.2472 Y-13.13839 I-8.55809 J6.74578
G2 X-23.85096 Y-10.17549 I-1.38507 J12.55649
G2 X-28.66706 Y-1.69243 I9.87493 J11.21496
G2 X-28.82164 Y4.02864 I19.20428 J3.38151
G2 X-27.49742 Y9.58769 I29.25328 J-4.03114
G1 F300.0 X-28.25406 Y9.8475
G2 F800.0 X-27.67793 Y11.38802 I28.6857 J-9.85001
G2 X-24.09494 Y18.66912 I60.76478 J-25.37989
G2 X-18.66563 Y27.45806 I210.58458 J-124.01593
G3 X-12.31073 Y37.53405 I-261.40352 J171.90843
G3 X-12.31033 Y37.53471 I-1.54049 J0.93107
G3 X-1.70684 Y57.64923 I-167.6646 J101.23749
G1 X-1.7996 Y0.24739
G2 X-4.11581 Y-5.93273 I-37.90207 J10.681
G3 X-4.11948 Y-5.94051 I1.62665 J-0.77073
G2 X-6.37399 Y-9.54597 I-15.93834 J7.45872
G3 X-6.38793 Y-9.56343 I1.3997 J-1.13174
G2 X-14.15464 Y-13.93303 I-9.18638 J7.24102
G2 X-24.37557 Y-10.77949 I-1.47763 J13.35113
G2 X-29.45427 Y-1.83492 I10.39954 J11.81896
G2 X-29.61505 Y4.13127 I19.9915 J3.52399
G2 X-28.25406 Y9.8475 I30.0467 J-4.13377
G1 F300.0 X-29.01069 Y10.10731
G2 F800.0 X-28.41776 Y11.69243 I29.44234 J-10.10982
G2 X-24.78697 Y19.07052 I61.50461 J-25.68429
G2 X-19.33562 Y27.89522 I211.27661 J-124.41733
G3 X-12.99539 Y37.94786 I-260.73352 J171.47127
G3 X-12.99517 Y37.94822 I-0.85583 J0.51726
G3 X-0.90071 Y61.44084 I-166.97976 J100.82397
G1 X-0.99978 Y0.13675
G2 X-3.39286 Y-6.27527 I-38.70189 J10.79164
G3 X-3.3949 Y-6.2796 I0.90369 J-0.42818
G2 X-5.75191 Y-10.04897 I-16.66292 J7.79781
G3 X-5.75965 Y-10.05867 I0.77761 J-0.62874
G2 X-14.0621 Y-14.72767 I-9.81466 J7.73626
G2 X-24.90019 Y-11.38348 I-1.57017 J14.14577
G2 X-30.2415 Y-1.97738 I10.92416 J12.42294
G2 X-30.40846 Y4.23393 I20.77872 J3.66646
G2 X-29.01069 Y10.10731 I30.84011 J-4.23643
G0 Z3.0
M5
M30
