; generated by PrusaSlicer 2.2.0+win64 on 2020-08-08 at 07:37:40 UTC

; 

; external perimeters extrusion width = 0.45mm
; perimeters extrusion width = 0.45mm
; infill extrusion width = 0.45mm
; solid infill extrusion width = 0.45mm
; top infill extrusion width = 0.40mm
; first layer extrusion width = 0.42mm

M73 P0 R17
M201 X9000 Y9000 Z500 E10000 ; sets maximum accelerations, mm/sec^2
M203 X500 Y500 Z12 E120 ; sets maximum feedrates, mm/sec
M204 P2000 R1500 T2000 ; sets acceleration (P, T) and retract acceleration (R), mm/sec^2
M205 X10.00 Y10.00 Z0.20 E2.50 ; sets the jerk limits, mm/sec
M205 S0 T0 ; sets the minimum extruding and travel feed rate, mm/sec
M107
M862.3 P "MK2S" ; printer model check
M862.1 P0.4 ; nozzle diameter check
M115 U3.2.3 ; tell printer latest fw version
G90 ; use absolute coordinates
M83 ; extruder relative mode
M204 S2000 T1500 ; MK2 firmware only supports the old M204 format
M104 S215 ; set extruder temp
M140 S60 ; set bed temp
M190 S60 ; wait for bed temp
M109 S215 ; wait for extruder temp
G28 W ; home all without mesh bed level
G80 ; mesh bed leveling
G1 Y-3.0 F1000.0 ; go outside print area
G92 E0.0
G1 X60.0 E9.0  F1000.0 ; intro line
M73 P0 R17
G1 X100.0 E12.5 F1000.0 ; intro line
G92 E0.0
G21 ; set units to millimeters
G90 ; use absolute coordinates
M83 ; use relative distances for extrusion
M900 K0.06 ; Filament gcode LA 1.5
M900 K30 ; Filament gcode LA 1.0
;BEFORE_LAYER_CHANGE
G92 E0.0
;0.2


G1 E-0.80000 F2100.00000
G1 Z0.600 F10800.000
;AFTER_LAYER_CHANGE
;0.2
G1 X79.260 Y98.962
G1 Z0.200
G1 E0.80000 F2100.00000
M204 S1000
G1 F1200.000
G1 X80.214 Y98.394 E0.03483
G1 X81.251 Y97.974 E0.03506
G1 X82.365 Y97.711 E0.03590
G1 X83.487 Y97.623 E0.03530
G1 X169.502 Y97.623 E2.69695
G1 X170.424 Y97.722 E0.02907
G1 X171.216 Y97.978 E0.02609
G1 X172.399 Y98.729 E0.04394
G1 X172.958 Y99.319 E0.02549
G1 X173.450 Y100.118 E0.02942
G1 X173.759 Y100.996 E0.02919
G1 X173.871 Y101.855 E0.02716
G1 X174.819 Y122.387 E0.64443
G1 X174.814 Y128.645 E0.19621
G1 X174.713 Y129.432 E0.02490
G1 X174.475 Y130.162 E0.02406
G1 X173.873 Y131.190 E0.03735
G1 X173.003 Y132.015 E0.03759
G1 X172.342 Y132.413 E0.02419
G1 X171.623 Y132.680 E0.02406
G1 X170.447 Y132.847 E0.03723
G1 X84.314 Y132.843 E2.70065
G1 X83.261 Y132.748 E0.03316
G1 X82.415 Y132.562 E0.02713
G1 X81.603 Y132.274 E0.02702
G1 X80.588 Y131.759 E0.03571
G1 X79.801 Y131.201 E0.03024
G1 X78.981 Y130.427 E0.03536
G1 X78.291 Y129.540 E0.03524
G1 X77.740 Y128.550 E0.03554
G1 X77.371 Y127.563 E0.03304
G1 X77.105 Y126.186 E0.04397
G1 X76.126 Y104.930 E0.66718
G1 X76.229 Y103.763 E0.03671
G1 X76.529 Y102.584 E0.03815
G1 X76.925 Y101.662 E0.03148
G1 X77.718 Y100.423 E0.04610
G1 X78.388 Y99.680 E0.03136
G1 X79.214 Y99.001 E0.03354
G1 F8640.000
G1 X80.214 Y98.394 E-0.27017
G1 X81.251 Y97.974 E-0.25822
G1 X82.227 Y97.743 E-0.23161
G1 E-0.04000 F2100.00000
G1 Z0.800 F10800.000
G1 X83.850 Y123.254
G1 Z0.200
G1 E0.80000 F2100.00000
G1 F1200.000
G1 X84.443 Y123.176 E0.01878
G1 X85.037 Y123.254 E0.01878
G1 X85.590 Y123.483 E0.01878
G1 X86.065 Y123.848 E0.01878
G1 X86.430 Y124.323 E0.01878
G1 X86.659 Y124.876 E0.01878
G1 X86.737 Y125.470 E0.01878
G1 X86.659 Y126.063 E0.01878
G1 X86.430 Y126.617 E0.01878
G1 X86.065 Y127.092 E0.01878
G1 X85.590 Y127.456 E0.01878
G1 X85.037 Y127.685 E0.01878
G1 X84.443 Y127.764 E0.01878
G1 X83.850 Y127.685 E0.01878
G1 X83.296 Y127.456 E0.01878
G1 X82.821 Y127.092 E0.01878
G1 X82.457 Y126.617 E0.01878
G1 X82.228 Y126.063 E0.01878
G1 X82.149 Y125.470 E0.01878
G1 X82.228 Y124.876 E0.01878
G1 X82.457 Y124.323 E0.01878
G1 X82.821 Y123.848 E0.01878
G1 X83.296 Y123.483 E0.01878
G1 X83.794 Y123.277 E0.01689
G1 X83.938 Y123.625 F10800.000
G1 F1200.000
G1 X84.443 Y123.556 E0.01598
G1 X84.939 Y123.621 E0.01566
G1 X85.400 Y123.812 E0.01566
G1 X85.796 Y124.117 E0.01566
G1 X86.100 Y124.513 E0.01566
G1 X86.292 Y124.974 E0.01566
G1 X86.357 Y125.470 E0.01566
G1 X86.292 Y125.965 E0.01566
G1 X86.100 Y126.426 E0.01566
G1 X85.796 Y126.823 E0.01566
G1 X85.400 Y127.127 E0.01566
G1 X84.939 Y127.318 E0.01566
G1 X84.443 Y127.383 E0.01566
G1 X83.948 Y127.318 E0.01566
G1 X83.486 Y127.127 E0.01566
G1 X83.090 Y126.823 E0.01566
G1 X82.786 Y126.426 E0.01566
G1 X82.595 Y125.965 E0.01566
G1 X82.530 Y125.470 E0.01566
G1 X82.595 Y124.974 E0.01566
G1 X82.786 Y124.513 E0.01566
G1 X83.090 Y124.117 E0.01566
G1 X83.486 Y123.812 E0.01566
G1 X83.883 Y123.648 E0.01346
G1 X84.040 Y123.238 F10800.000
G1 F8640.000
G1 X84.443 Y123.556 E-0.13110
G1 X84.939 Y123.621 E-0.11534
G1 X85.400 Y123.812 E-0.11534
G1 X85.796 Y124.117 E-0.11534
G1 X86.100 Y124.513 E-0.11534
G1 X86.292 Y124.974 E-0.11534
G1 X86.321 Y125.198 E-0.05218
G1 E-0.04000 F2100.00000
G1 Z0.800 F10800.000
G1 X169.830 Y129.683
G1 Z0.200
G1 E0.80000 F2100.00000
G1 F1200.000
G1 X169.830 Y125.582 E0.12858
G1 X169.756 Y125.014 E0.01796
G1 X169.516 Y124.436 E0.01959
G1 X169.393 Y124.276 E0.00635
G1 X169.136 Y123.940 E0.01325
G1 X168.640 Y123.560 E0.01959
G1 X168.063 Y123.321 E0.01959
G1 X167.443 Y123.239 E0.01959
G1 X166.824 Y123.321 E0.01959
G1 X166.246 Y123.560 E0.01959
G1 X165.751 Y123.940 E0.01959
G1 X165.370 Y124.436 E0.01959
G1 X165.131 Y125.014 E0.01959
G1 X165.056 Y125.582 E0.01796
G1 X165.056 Y129.683 E0.12858
G1 X84.471 Y129.683 E2.52670
G1 X83.859 Y129.640 E0.01921
G1 X83.287 Y129.519 E0.01835
G1 X82.737 Y129.319 E0.01835
G1 X82.219 Y129.046 E0.01835
G1 X81.745 Y128.703 E0.01835
G1 X81.325 Y128.299 E0.01826
G1 X80.927 Y127.786 E0.02038
G1 X80.614 Y127.220 E0.02028
G1 X80.391 Y126.612 E0.02028
G1 X80.263 Y125.978 E0.02029
G1 X80.235 Y125.332 E0.02029
G1 X80.306 Y124.689 E0.02029
G1 X80.474 Y124.064 E0.02029
G1 X80.736 Y123.473 E0.02029
G1 X81.086 Y122.928 E0.02029
G1 X81.513 Y122.447 E0.02018
G1 X82.063 Y122.001 E0.02219
G1 X82.569 Y121.699 E0.01847
G1 X83.168 Y121.457 E0.02028
G1 X83.798 Y121.309 E0.02029
G1 X84.474 Y121.257 E0.02124
G1 X170.432 Y121.260 E2.69518
G1 X170.712 Y121.292 E0.00882
G1 X170.967 Y121.381 E0.00848
G1 X171.196 Y121.525 E0.00848
G1 X171.388 Y121.716 E0.00848
G1 X171.532 Y121.946 E0.00848
G1 X171.621 Y122.201 E0.00848
G1 X171.656 Y122.514 E0.00988
G1 X171.656 Y128.425 E0.18535
G1 X171.621 Y128.738 E0.00988
G1 X171.532 Y128.994 E0.00848
G1 X171.388 Y129.223 E0.00848
G1 X171.196 Y129.414 E0.00848
G1 X170.967 Y129.558 E0.00848
G1 X170.712 Y129.647 E0.00848
G1 X170.399 Y129.683 E0.00988
G1 X169.890 Y129.683 E0.01595
G1 X169.453 Y130.060 F10800.000
G1 F1200.000
G1 X169.453 Y125.606 E0.13963
G1 X169.388 Y125.112 E0.01563
G1 X169.187 Y124.626 E0.01648
G1 X169.094 Y124.505 E0.00479
G1 X168.867 Y124.209 E0.01169
G1 X168.450 Y123.889 E0.01648
G1 X167.964 Y123.688 E0.01648
G1 X167.443 Y123.620 E0.01648
G1 X166.922 Y123.688 E0.01648
G1 X166.436 Y123.889 E0.01648
G1 X166.019 Y124.209 E0.01648
G1 X165.699 Y124.626 E0.01648
G1 X165.498 Y125.112 E0.01648
G1 X165.433 Y125.606 E0.01563
G1 X165.433 Y130.060 E0.13963
G1 X84.458 Y130.060 E2.53894
G1 X83.807 Y130.014 E0.02044
G1 X83.183 Y129.882 E0.02000
G1 X82.583 Y129.665 E0.02000
G1 X82.020 Y129.367 E0.02000
G1 X81.503 Y128.993 E0.02000
G1 X81.044 Y128.552 E0.01995
G1 X80.611 Y127.994 E0.02216
G1 X80.270 Y127.377 E0.02211
G1 X80.027 Y126.715 E0.02211
G1 X79.888 Y126.024 E0.02211
G1 X79.857 Y125.319 E0.02211
G1 X79.934 Y124.618 E0.02211
G1 X80.118 Y123.938 E0.02211
G1 X80.403 Y123.293 E0.02211
G1 X80.785 Y122.700 E0.02211
G1 X81.251 Y122.173 E0.02207
G1 X81.847 Y121.691 E0.02401
G1 X82.400 Y121.361 E0.02022
G1 X83.054 Y121.096 E0.02211
G1 X83.740 Y120.935 E0.02211
G1 X84.459 Y120.880 E0.02260
G1 X170.454 Y120.883 E2.69630
G1 X170.796 Y120.922 E0.01082
G1 X171.132 Y121.039 E0.01115
G1 X171.433 Y121.229 E0.01115
G1 X171.684 Y121.480 E0.01115
G1 X171.873 Y121.781 E0.01115
G1 X171.991 Y122.116 E0.01115
G1 X172.033 Y122.493 E0.01187
G1 X172.033 Y128.447 E0.18668
G1 X171.991 Y128.823 E0.01187
G1 X171.873 Y129.158 E0.01115
G1 X171.684 Y129.459 E0.01115
G1 X171.433 Y129.711 E0.01115
G1 X171.132 Y129.900 E0.01115
G1 X170.796 Y130.017 E0.01115
G1 X170.420 Y130.060 E0.01187
G1 X169.513 Y130.060 E0.02844
G1 X169.650 Y129.711 F10800.000
G1 F8640.000
G1 X169.469 Y126.768 E-0.76000
G1 E-0.04000 F2100.00000
G1 Z0.800 F10800.000
G1 X170.752 Y129.513
G1 Z0.200
G1 E0.80000 F2100.00000
G1 F1200.000
G1 X170.113 Y128.875 E0.02844
G1 X170.113 Y128.339 E0.01686
G1 X170.986 Y129.212 E0.03887
G1 X171.165 Y129.045 E0.00770
G1 X171.238 Y128.929 E0.00433
G1 X170.113 Y127.804 E0.05009
G1 X170.113 Y127.268 E0.01686
G1 X171.361 Y128.516 E0.05557
G1 X171.373 Y127.993 E0.01648
G1 X170.113 Y126.733 E0.05611
G1 X170.113 Y126.197 E0.01686
G1 X171.373 Y127.458 E0.05611
G1 X171.373 Y126.922 E0.01686
G1 X170.113 Y125.662 E0.05611
G1 X170.047 Y125.060 E0.01905
G1 X171.373 Y126.387 E0.05905
G1 X171.373 Y125.851 E0.01686
G1 X167.065 Y121.543 E0.19181
G1 X167.601 Y121.543 E0.01686
G1 X171.373 Y125.316 E0.16797
G1 X171.373 Y124.780 E0.01686
G1 X168.136 Y121.543 E0.14413
G1 X168.672 Y121.543 E0.01686
G1 X171.373 Y124.245 E0.12029
G1 X171.373 Y123.710 E0.01686
G1 X169.207 Y121.543 E0.09645
G1 X169.742 Y121.543 E0.01686
G1 X171.373 Y123.174 E0.07261
G1 X171.373 Y122.639 E0.01686
G1 X170.278 Y121.543 E0.04877
G1 X170.649 Y121.569 E0.01170
G1 X170.844 Y121.638 E0.00651
G1 X171.016 Y121.746 E0.00639
G1 X171.512 Y122.242 E0.02207
G1 F8640.000
G1 X171.016 Y121.746 E-0.16191
G1 X170.844 Y121.638 E-0.04690
G1 X170.649 Y121.569 E-0.04774
G1 X170.278 Y121.543 E-0.08584
G1 X171.373 Y122.639 E-0.35772
G1 X171.373 Y122.898 E-0.05990
G1 E-0.04000 F2100.00000
G1 Z0.800 F10800.000
G1 X168.271 Y123.285
G1 Z0.200
G1 E0.80000 F2100.00000
G1 F1200.000
G1 X166.530 Y121.543 E0.07754
G1 X165.994 Y121.543 E0.01686
G1 X167.410 Y122.958 E0.06301
G1 X166.936 Y123.021 E0.01502
G1 X165.459 Y121.543 E0.06579
G1 X164.923 Y121.543 E0.01686
G1 X166.521 Y123.140 E0.07111
G1 X166.142 Y123.297 E0.01290
G1 X164.388 Y121.543 E0.07810
G1 X163.852 Y121.543 E0.01686
G1 X165.831 Y123.522 E0.08811
G1 X165.533 Y123.759 E0.01200
G1 X163.317 Y121.543 E0.09867
G1 X162.781 Y121.543 E0.01686
G1 X165.301 Y124.062 E0.11216
G1 X165.123 Y124.294 E0.00918
G1 X165.086 Y124.383 E0.00305
G1 X162.246 Y121.543 E0.12644
G1 X161.711 Y121.543 E0.01686
G1 X164.929 Y124.762 E0.14330
G1 X164.855 Y124.940 E0.00607
G1 X164.822 Y125.190 E0.00795
G1 X161.175 Y121.543 E0.16239
G1 X160.640 Y121.543 E0.01686
G1 X164.773 Y125.677 E0.18404
G1 X164.773 Y126.212 E0.01686
G1 X160.104 Y121.543 E0.20788
G1 X159.569 Y121.543 E0.01686
G1 X164.773 Y126.747 E0.23172
G1 X164.773 Y127.283 E0.01686
G1 X159.033 Y121.543 E0.25556
G1 X158.498 Y121.543 E0.01686
G1 X164.773 Y127.818 E0.27940
G1 X164.773 Y128.354 E0.01686
G1 X157.962 Y121.543 E0.30324
G1 X157.427 Y121.543 E0.01686
G1 X164.773 Y128.889 E0.32708
G1 X164.773 Y129.400 E0.01607
G1 X164.748 Y129.400 E0.00078
G1 X156.891 Y121.543 E0.34981
G1 X156.356 Y121.543 E0.01686
G1 X164.213 Y129.400 E0.34981
G1 X163.678 Y129.400 E0.01686
G1 X155.820 Y121.543 E0.34981
G1 X155.285 Y121.543 E0.01686
G1 X163.142 Y129.400 E0.34981
G1 X162.607 Y129.400 E0.01686
G1 X154.750 Y121.543 E0.34982
G1 X154.214 Y121.543 E0.01686
G1 X162.071 Y129.400 E0.34982
G1 X161.536 Y129.400 E0.01686
G1 X153.679 Y121.543 E0.34982
G1 X153.143 Y121.543 E0.01686
G1 X161.000 Y129.400 E0.34982
G1 X160.465 Y129.400 E0.01686
G1 X152.608 Y121.542 E0.34982
G1 X152.072 Y121.542 E0.01686
G1 X159.930 Y129.400 E0.34982
G1 X159.394 Y129.400 E0.01686
G1 X151.537 Y121.542 E0.34982
G1 X151.001 Y121.542 E0.01686
G1 X158.859 Y129.400 E0.34982
G1 X158.323 Y129.400 E0.01686
G1 X150.466 Y121.542 E0.34982
G1 X149.930 Y121.542 E0.01686
G1 X157.788 Y129.400 E0.34982
G1 X157.252 Y129.400 E0.01686
G1 X149.395 Y121.542 E0.34983
G1 X148.859 Y121.542 E0.01686
G1 X156.717 Y129.400 E0.34983
G1 X156.181 Y129.400 E0.01686
G1 X148.324 Y121.542 E0.34983
G1 X147.789 Y121.542 E0.01686
G1 X155.646 Y129.400 E0.34983
G1 X155.111 Y129.400 E0.01686
G1 X147.253 Y121.542 E0.34983
G1 X146.718 Y121.542 E0.01686
G1 X154.575 Y129.400 E0.34983
M73 P6 R16
G1 X154.040 Y129.400 E0.01686
G1 X146.182 Y121.542 E0.34983
G1 X145.647 Y121.542 E0.01686
G1 X153.504 Y129.400 E0.34983
G1 X152.969 Y129.400 E0.01686
G1 X145.111 Y121.542 E0.34983
G1 X144.576 Y121.542 E0.01686
G1 X152.433 Y129.400 E0.34983
G1 X151.898 Y129.400 E0.01686
G1 X144.040 Y121.542 E0.34984
G1 X143.505 Y121.542 E0.01686
G1 X151.363 Y129.400 E0.34984
G1 X150.827 Y129.400 E0.01686
G1 X142.969 Y121.542 E0.34984
G1 X142.434 Y121.542 E0.01686
G1 X150.292 Y129.400 E0.34984
G1 X149.756 Y129.400 E0.01686
G1 X141.898 Y121.542 E0.34984
G1 X141.363 Y121.542 E0.01686
G1 X149.221 Y129.400 E0.34984
G1 X148.685 Y129.400 E0.01686
G1 X140.828 Y121.542 E0.34984
G1 X140.292 Y121.542 E0.01686
G1 X148.150 Y129.400 E0.34984
G1 X147.614 Y129.400 E0.01686
G1 X139.757 Y121.542 E0.34984
G1 X139.221 Y121.542 E0.01686
G1 X147.079 Y129.400 E0.34985
G1 X146.544 Y129.400 E0.01686
G1 X138.686 Y121.542 E0.34985
G1 X138.150 Y121.542 E0.01686
G1 X146.008 Y129.400 E0.34985
G1 X145.473 Y129.400 E0.01686
G1 X137.615 Y121.542 E0.34985
G1 X137.079 Y121.542 E0.01686
G1 X144.937 Y129.400 E0.34985
G1 X144.402 Y129.400 E0.01686
G1 X136.544 Y121.542 E0.34985
G1 X136.008 Y121.542 E0.01686
G1 X143.866 Y129.400 E0.34985
G1 X143.331 Y129.400 E0.01686
G1 X135.473 Y121.542 E0.34985
G1 X134.938 Y121.542 E0.01686
G1 X142.796 Y129.400 E0.34985
G1 X142.260 Y129.400 E0.01686
G1 X134.402 Y121.542 E0.34985
G1 X133.867 Y121.542 E0.01686
G1 X141.725 Y129.400 E0.34986
G1 X141.189 Y129.400 E0.01686
G1 X133.331 Y121.542 E0.34986
G1 X132.796 Y121.542 E0.01686
G1 X140.654 Y129.400 E0.34986
G1 X140.118 Y129.400 E0.01686
G1 X132.260 Y121.542 E0.34986
G1 X131.725 Y121.542 E0.01686
G1 X139.583 Y129.400 E0.34986
G1 X139.047 Y129.400 E0.01686
G1 X131.189 Y121.542 E0.34986
G1 X130.654 Y121.542 E0.01686
G1 X138.512 Y129.400 E0.34986
G1 X137.977 Y129.400 E0.01686
G1 X130.118 Y121.542 E0.34986
G1 X129.583 Y121.541 E0.01686
G1 X137.441 Y129.400 E0.34986
G1 X136.906 Y129.400 E0.01686
G1 X129.047 Y121.541 E0.34987
G1 X128.512 Y121.541 E0.01686
G1 X136.370 Y129.400 E0.34987
G1 X135.835 Y129.400 E0.01686
G1 X127.977 Y121.541 E0.34987
G1 X127.441 Y121.541 E0.01686
G1 X135.299 Y129.400 E0.34987
G1 X134.764 Y129.400 E0.01686
G1 X126.906 Y121.541 E0.34987
G1 X126.370 Y121.541 E0.01686
G1 X134.229 Y129.400 E0.34987
G1 X133.693 Y129.400 E0.01686
G1 X125.835 Y121.541 E0.34987
G1 X125.299 Y121.541 E0.01686
G1 X133.158 Y129.400 E0.34987
G1 X132.622 Y129.400 E0.01686
G1 X124.764 Y121.541 E0.34987
G1 X124.228 Y121.541 E0.01686
G1 X132.087 Y129.400 E0.34987
G1 X131.551 Y129.400 E0.01686
G1 X123.693 Y121.541 E0.34988
G1 X123.157 Y121.541 E0.01686
G1 X131.016 Y129.400 E0.34988
G1 X130.481 Y129.400 E0.01686
G1 X122.622 Y121.541 E0.34988
G1 X122.086 Y121.541 E0.01686
G1 X129.945 Y129.400 E0.34988
G1 X129.410 Y129.400 E0.01686
G1 X121.551 Y121.541 E0.34988
G1 X121.016 Y121.541 E0.01686
G1 X128.874 Y129.400 E0.34988
G1 X128.339 Y129.400 E0.01686
G1 X120.480 Y121.541 E0.34988
G1 X119.945 Y121.541 E0.01686
G1 X127.803 Y129.400 E0.34988
G1 X127.268 Y129.400 E0.01686
G1 X119.409 Y121.541 E0.34988
G1 X118.874 Y121.541 E0.01686
G1 X126.732 Y129.400 E0.34988
G1 X126.197 Y129.400 E0.01686
G1 X118.338 Y121.541 E0.34989
G1 X117.803 Y121.541 E0.01686
G1 X125.662 Y129.400 E0.34989
G1 X125.126 Y129.400 E0.01686
G1 X117.267 Y121.541 E0.34989
G1 X116.732 Y121.541 E0.01686
G1 X124.591 Y129.400 E0.34989
G1 X124.055 Y129.400 E0.01686
G1 X116.196 Y121.541 E0.34989
G1 X115.661 Y121.541 E0.01686
G1 X123.520 Y129.400 E0.34989
G1 X122.984 Y129.400 E0.01686
G1 X115.125 Y121.541 E0.34989
G1 X114.590 Y121.541 E0.01686
G1 X122.449 Y129.400 E0.34989
G1 X121.914 Y129.400 E0.01686
G1 X114.055 Y121.541 E0.34989
G1 X113.519 Y121.541 E0.01686
G1 X121.378 Y129.400 E0.34990
G1 X120.843 Y129.400 E0.01686
G1 X112.984 Y121.541 E0.34990
G1 X112.448 Y121.541 E0.01686
G1 X120.307 Y129.400 E0.34990
G1 X119.772 Y129.400 E0.01686
G1 X111.913 Y121.541 E0.34990
G1 X111.377 Y121.541 E0.01686
G1 X119.236 Y129.400 E0.34990
G1 X118.701 Y129.400 E0.01686
G1 X110.842 Y121.541 E0.34990
G1 X110.306 Y121.541 E0.01686
G1 X118.165 Y129.400 E0.34990
G1 X117.630 Y129.400 E0.01686
