; generated by PrusaSlicer 2.2.0+win64 on 2020-08-08 at 07:36:33 UTC

; 

; external perimeters extrusion width = 0.45mm
; perimeters extrusion width = 0.45mm
; infill extrusion width = 0.45mm
; solid infill extrusion width = 0.45mm
; top infill extrusion width = 0.40mm
; first layer extrusion width = 0.42mm

M73 P0 R8
M201 X9000 Y9000 Z500 E10000 ; sets maximum accelerations, mm/sec^2
M203 X500 Y500 Z12 E120 ; sets maximum feedrates, mm/sec
M204 P2000 R1500 T2000 ; sets acceleration (P, T) and retract acceleration (R), mm/sec^2
M205 X10.00 Y10.00 Z0.20 E2.50 ; sets the jerk limits, mm/sec
M205 S0 T0 ; sets the minimum extruding and travel feed rate, mm/sec
M107
M862.3 P "MK2S" ; printer model check
M862.1 P0.4 ; nozzle diameter check
M115 U3.2.3 ; tell printer latest fw version
G90 ; use absolute coordinates
M83 ; extruder relative mode
M204 S2000 T1500 ; MK2 firmware only supports the old M204 format
M104 S215 ; set extruder temp
M140 S60 ; set bed temp
M190 S60 ; wait for bed temp
M109 S215 ; wait for extruder temp
G28 W ; home all without mesh bed level
G80 ; mesh bed leveling
G1 Y-3.0 F1000.0 ; go outside print area
G92 E0.0
G1 X60.0 E9.0  F1000.0 ; intro line
M73 P0 R8
G1 X100.0 E12.5 F1000.0 ; intro line
G92 E0.0
G21 ; set units to millimeters
G90 ; use absolute coordinates
M83 ; use relative distances for extrusion
M900 K0.06 ; Filament gcode LA 1.5
M900 K30 ; Filament gcode LA 1.0
;BEFORE_LAYER_CHANGE
G92 E0.0
;0.2


G1 E-0.80000 F2100.00000
G1 Z0.600 F10800.000
;AFTER_LAYER_CHANGE
;0.2
G1 X81.265 Y97.969
G1 Z0.200
G1 E0.80000 F2100.00000
M204 S1000
G1 F1200.000
G1 X82.524 Y97.691 E0.04041
G1 X83.499 Y97.623 E0.03065
G1 X169.502 Y97.623 E2.69659
G1 X170.428 Y97.723 E0.02919
G1 X171.223 Y97.981 E0.02621
G1 X172.030 Y98.436 E0.02904
G1 X172.421 Y98.750 E0.01574
G1 X172.967 Y99.331 E0.02501
G1 X173.466 Y100.153 E0.03014
G1 X173.768 Y101.033 E0.02919
G1 X173.875 Y101.966 E0.02943
G1 X173.873 Y108.114 E0.19278
G1 X173.769 Y108.963 E0.02681
G1 X173.507 Y109.753 E0.02609
G1 X172.918 Y110.732 E0.03582
G1 X172.093 Y111.522 E0.03582
G1 X171.159 Y112.043 E0.03355
G1 X170.462 Y112.270 E0.02299
G1 X169.704 Y112.368 E0.02395
G1 X83.499 Y112.377 E2.70291
G1 X82.640 Y112.323 E0.02697
G1 X81.482 Y112.096 E0.03702
G1 X80.400 Y111.693 E0.03619
G1 X79.607 Y111.267 E0.02821
G1 X78.902 Y110.765 E0.02713
G1 X78.107 Y110.032 E0.03392
G1 X77.348 Y109.074 E0.03833
G1 X76.791 Y108.070 E0.03602
G1 X76.395 Y106.991 E0.03602
G1 X76.167 Y105.811 E0.03768
G1 X76.137 Y104.587 E0.03838
G1 X76.250 Y103.632 E0.03017
G1 X76.495 Y102.693 E0.03041
G1 X76.993 Y101.521 E0.03993
G1 X77.640 Y100.517 E0.03744
G1 X78.493 Y99.587 E0.03957
G1 X79.244 Y98.973 E0.03041
G1 X80.083 Y98.465 E0.03077
G1 X81.210 Y97.992 E0.03829
G1 F8640.000
G1 X82.524 Y97.691 E-0.31123
G1 X83.499 Y97.623 E-0.22571
G1 X84.465 Y97.623 E-0.22306
G1 E-0.04000 F2100.00000
G1 Z0.800 F10800.000
G1 X82.905 Y102.784
G1 Z0.200
G1 E0.80000 F2100.00000
G1 F1200.000
G1 X83.499 Y102.706 E0.01878
G1 X84.092 Y102.784 E0.01878
G1 X84.646 Y103.013 E0.01878
G1 X85.121 Y103.378 E0.01878
G1 X85.485 Y103.853 E0.01878
G1 X85.714 Y104.406 E0.01878
G1 X85.793 Y105.000 E0.01878
G1 X85.714 Y105.594 E0.01878
G1 X85.485 Y106.147 E0.01878
G1 X85.121 Y106.622 E0.01878
G1 X84.646 Y106.987 E0.01878
G1 X84.092 Y107.216 E0.01878
G1 X83.499 Y107.294 E0.01878
G1 X82.905 Y107.216 E0.01878
G1 X82.352 Y106.987 E0.01878
G1 X81.877 Y106.622 E0.01878
G1 X81.512 Y106.147 E0.01878
G1 X81.283 Y105.594 E0.01878
G1 X81.205 Y105.000 E0.01878
G1 X81.283 Y104.406 E0.01878
G1 X81.512 Y103.853 E0.01878
G1 X81.877 Y103.378 E0.01878
G1 X82.352 Y103.013 E0.01878
G1 X82.850 Y102.807 E0.01689
G1 X82.994 Y103.156 F10800.000
G1 F1200.000
G1 X83.499 Y103.086 E0.01598
G1 X83.994 Y103.152 E0.01566
G1 X84.455 Y103.343 E0.01566
G1 X84.852 Y103.647 E0.01566
G1 X85.156 Y104.043 E0.01566
G1 X85.347 Y104.505 E0.01566
G1 X85.412 Y105.000 E0.01566
G1 X85.347 Y105.495 E0.01566
G1 X85.156 Y105.957 E0.01566
G1 X84.852 Y106.353 E0.01566
G1 X84.455 Y106.657 E0.01566
G1 X83.994 Y106.848 E0.01566
G1 X83.499 Y106.914 E0.01566
G1 X83.003 Y106.848 E0.01566
G1 X82.542 Y106.657 E0.01566
G1 X82.146 Y106.353 E0.01566
G1 X81.841 Y105.957 E0.01566
G1 X81.650 Y105.495 E0.01566
G1 X81.585 Y105.000 E0.01566
G1 X81.650 Y104.505 E0.01566
G1 X81.841 Y104.043 E0.01566
G1 X82.146 Y103.647 E0.01566
G1 X82.542 Y103.343 E0.01566
G1 X82.938 Y103.179 E0.01346
G1 X83.096 Y102.769 F10800.000
G1 F8640.000
G1 X83.499 Y103.086 E-0.13110
G1 X83.994 Y103.152 E-0.11534
G1 X84.455 Y103.343 E-0.11534
G1 X84.852 Y103.647 E-0.11534
G1 X85.156 Y104.043 E-0.11534
G1 X85.347 Y104.505 E-0.11534
G1 X85.376 Y104.729 E-0.05218
G1 E-0.04000 F2100.00000
G1 Z0.800 F10800.000
G1 X168.886 Y109.213
G1 Z0.200
G1 E0.80000 F2100.00000
G1 F1200.000
G1 X168.886 Y105.112 E0.12858
G1 X168.811 Y104.544 E0.01796
G1 X168.572 Y103.967 E0.01959
G1 X168.449 Y103.806 E0.00635
G1 X168.191 Y103.471 E0.01325
G1 X167.696 Y103.090 E0.01959
G1 X167.118 Y102.851 E0.01959
G1 X166.499 Y102.770 E0.01959
G1 X165.879 Y102.851 E0.01959
G1 X165.302 Y103.090 E0.01959
G1 X164.806 Y103.471 E0.01959
G1 X164.426 Y103.967 E0.01959
G1 X164.186 Y104.544 E0.01959
G1 X164.112 Y105.112 E0.01796
G1 X164.112 Y109.213 E0.12858
G1 X83.526 Y109.213 E2.52670
G1 X82.915 Y109.170 E0.01921
G1 X82.342 Y109.049 E0.01835
G1 X81.792 Y108.850 E0.01835
G1 X81.275 Y108.576 E0.01835
G1 X80.801 Y108.233 E0.01835
G1 X80.380 Y107.830 E0.01826
G1 X79.982 Y107.316 E0.02038
G1 X79.669 Y106.750 E0.02028
G1 X79.446 Y106.143 E0.02028
G1 X79.319 Y105.508 E0.02029
G1 X79.290 Y104.862 E0.02029
G1 X79.361 Y104.219 E0.02029
G1 X79.530 Y103.594 E0.02029
G1 X79.792 Y103.003 E0.02029
G1 X80.142 Y102.459 E0.02029
G1 X80.568 Y101.977 E0.02018
G1 X81.118 Y101.532 E0.02219
G1 X81.624 Y101.230 E0.01847
G1 X82.224 Y100.987 E0.02028
G1 X82.854 Y100.839 E0.02029
G1 X83.529 Y100.787 E0.02124
G1 X169.488 Y100.791 E2.69518
G1 X169.767 Y100.822 E0.00882
G1 X170.023 Y100.912 E0.00848
G1 X170.252 Y101.056 E0.00848
G1 X170.443 Y101.247 E0.00848
G1 X170.587 Y101.476 E0.00848
G1 X170.676 Y101.731 E0.00848
G1 X170.712 Y102.044 E0.00988
G1 X170.712 Y107.956 E0.18535
G1 X170.676 Y108.269 E0.00988
G1 X170.587 Y108.524 E0.00848
G1 X170.443 Y108.753 E0.00848
G1 X170.252 Y108.944 E0.00848
G1 X170.023 Y109.088 E0.00848
G1 X169.767 Y109.178 E0.00848
G1 X169.454 Y109.213 E0.00988
G1 X168.946 Y109.213 E0.01595
G1 X168.509 Y109.590 F10800.000
G1 F1200.000
G1 X168.509 Y105.137 E0.13963
G1 X168.444 Y104.642 E0.01563
G1 X168.242 Y104.157 E0.01648
G1 X168.149 Y104.035 E0.00479
G1 X167.922 Y103.740 E0.01169
G1 X167.505 Y103.420 E0.01648
G1 X167.020 Y103.219 E0.01648
G1 X166.499 Y103.150 E0.01648
G1 X165.978 Y103.219 E0.01648
G1 X165.492 Y103.420 E0.01648
G1 X165.075 Y103.740 E0.01648
G1 X164.755 Y104.157 E0.01648
G1 X164.554 Y104.642 E0.01648
G1 X164.489 Y105.137 E0.01563
G1 X164.489 Y109.590 E0.13963
G1 X83.513 Y109.590 E2.53894
G1 X82.862 Y109.545 E0.02044
G1 X82.239 Y109.413 E0.02000
G1 X81.639 Y109.195 E0.02000
G1 X81.075 Y108.897 E0.02000
G1 X80.558 Y108.523 E0.02000
G1 X80.099 Y108.083 E0.01995
G1 X79.666 Y107.524 E0.02216
G1 X79.325 Y106.907 E0.02211
G1 X79.082 Y106.245 E0.02211
G1 X78.943 Y105.554 E0.02211
G1 X78.912 Y104.850 E0.02211
G1 X78.990 Y104.149 E0.02211
G1 X79.173 Y103.468 E0.02211
G1 X79.459 Y102.824 E0.02211
G1 X79.840 Y102.230 E0.02211
G1 X80.307 Y101.703 E0.02207
G1 X80.902 Y101.222 E0.02401
G1 X81.456 Y100.891 E0.02022
G1 X82.109 Y100.627 E0.02211
G1 X82.796 Y100.465 E0.02211
G1 X83.514 Y100.410 E0.02260
G1 X169.509 Y100.414 E2.69630
G1 X169.852 Y100.452 E0.01082
G1 X170.187 Y100.570 E0.01115
G1 X170.488 Y100.759 E0.01115
G1 X170.740 Y101.010 E0.01115
G1 X170.929 Y101.311 E0.01115
G1 X171.046 Y101.647 E0.01115
G1 X171.089 Y102.023 E0.01187
G1 X171.089 Y107.977 E0.18668
G1 X171.046 Y108.353 E0.01187
G1 X170.929 Y108.689 E0.01115
G1 X170.740 Y108.990 E0.01115
G1 X170.488 Y109.241 E0.01115
G1 X170.187 Y109.430 E0.01115
G1 X169.852 Y109.548 E0.01115
G1 X169.476 Y109.590 E0.01187
G1 X168.569 Y109.590 E0.02844
G1 X168.705 Y109.242 F10800.000
G1 F8640.000
G1 X168.524 Y106.299 E-0.76000
G1 E-0.04000 F2100.00000
G1 Z0.800 F10800.000
G1 X169.807 Y109.044
G1 Z0.200
G1 E0.80000 F2100.00000
G1 F1200.000
G1 X169.169 Y108.405 E0.02844
G1 X169.169 Y107.870 E0.01686
G1 X170.042 Y108.743 E0.03887
G1 X170.221 Y108.576 E0.00770
G1 X170.294 Y108.459 E0.00433
G1 X169.169 Y107.334 E0.05009
G1 X169.169 Y106.799 E0.01686
G1 X170.417 Y108.047 E0.05557
G1 X170.429 Y107.523 E0.01648
G1 X169.169 Y106.263 E0.05611
G1 X169.169 Y105.728 E0.01686
G1 X170.429 Y106.988 E0.05611
G1 X170.429 Y106.453 E0.01686
G1 X169.169 Y105.192 E0.05611
G1 X169.102 Y104.591 E0.01905
G1 X170.429 Y105.917 E0.05905
G1 X170.429 Y105.382 E0.01686
G1 X166.121 Y101.073 E0.19181
G1 X166.656 Y101.074 E0.01686
G1 X170.429 Y104.846 E0.16797
G1 X170.429 Y104.311 E0.01686
G1 X167.191 Y101.074 E0.14413
G1 X167.727 Y101.074 E0.01686
G1 X170.429 Y103.775 E0.12029
G1 X170.429 Y103.240 E0.01686
G1 X168.262 Y101.074 E0.09645
G1 X168.798 Y101.074 E0.01686
G1 X170.429 Y102.705 E0.07261
G1 X170.429 Y102.169 E0.01686
G1 X169.333 Y101.074 E0.04877
G1 X169.704 Y101.100 E0.01170
G1 X169.899 Y101.168 E0.00651
G1 X170.071 Y101.276 E0.00639
G1 X170.567 Y101.772 E0.02207
G1 F8640.000
G1 X170.071 Y101.276 E-0.16191
G1 X169.899 Y101.168 E-0.04690
G1 X169.704 Y101.100 E-0.04774
G1 X169.333 Y101.074 E-0.08584
G1 X170.429 Y102.169 E-0.35772
G1 X170.429 Y102.428 E-0.05990
G1 E-0.04000 F2100.00000
G1 Z0.800 F10800.000
G1 X167.327 Y102.815
G1 Z0.200
G1 E0.80000 F2100.00000
G1 F1200.000
G1 X165.585 Y101.073 E0.07754
G1 X165.050 Y101.073 E0.01686
G1 X166.465 Y102.489 E0.06301
G1 X165.992 Y102.551 E0.01502
G1 X164.514 Y101.073 E0.06579
G1 X163.979 Y101.073 E0.01686
G1 X165.576 Y102.671 E0.07111
G1 X165.197 Y102.827 E0.01290
G1 X163.443 Y101.073 E0.07810
G1 X162.908 Y101.073 E0.01686
G1 X164.887 Y103.052 E0.08811
G1 X164.589 Y103.290 E0.01200
G1 X162.372 Y101.073 E0.09867
G1 X161.837 Y101.073 E0.01686
G1 X164.356 Y103.593 E0.11216
G1 X164.178 Y103.824 E0.00918
G1 X164.141 Y103.913 E0.00305
G1 X161.301 Y101.073 E0.12644
G1 X160.766 Y101.073 E0.01686
G1 X163.985 Y104.292 E0.14330
G1 X163.911 Y104.470 E0.00607
G1 X163.878 Y104.721 E0.00795
G1 X160.230 Y101.073 E0.16239
G1 X159.695 Y101.073 E0.01686
G1 X163.829 Y105.207 E0.18404
G1 X163.829 Y105.742 E0.01686
G1 X159.160 Y101.073 E0.20788
G1 X158.624 Y101.073 E0.01686
G1 X163.829 Y106.278 E0.23172
G1 X163.829 Y106.813 E0.01686
G1 X158.089 Y101.073 E0.25556
G1 X157.553 Y101.073 E0.01686
G1 X163.829 Y107.349 E0.27940
G1 X163.829 Y107.884 E0.01686
G1 X157.018 Y101.073 E0.30324
G1 X156.482 Y101.073 E0.01686
G1 X163.829 Y108.420 E0.32708
G1 X163.829 Y108.930 E0.01607
G1 X163.804 Y108.930 E0.00078
G1 X155.947 Y101.073 E0.34981
G1 X155.411 Y101.073 E0.01686
G1 X163.268 Y108.930 E0.34981
G1 X162.733 Y108.930 E0.01686
G1 X154.876 Y101.073 E0.34981
G1 X154.340 Y101.073 E0.01686
G1 X162.198 Y108.930 E0.34981
G1 X161.662 Y108.930 E0.01686
G1 X153.805 Y101.073 E0.34982
G1 X153.270 Y101.073 E0.01686
G1 X161.127 Y108.930 E0.34982
G1 X160.591 Y108.930 E0.01686
G1 X152.734 Y101.073 E0.34982
G1 X152.199 Y101.073 E0.01686
G1 X160.056 Y108.930 E0.34982
G1 X159.520 Y108.930 E0.01686
G1 X151.663 Y101.073 E0.34982
G1 X151.128 Y101.073 E0.01686
G1 X158.985 Y108.930 E0.34982
G1 X158.450 Y108.930 E0.01686
G1 X150.592 Y101.073 E0.34982
G1 X150.057 Y101.073 E0.01686
G1 X157.914 Y108.930 E0.34982
G1 X157.379 Y108.930 E0.01686
G1 X149.521 Y101.073 E0.34982
G1 X148.986 Y101.073 E0.01686
G1 X156.843 Y108.930 E0.34982
G1 X156.308 Y108.930 E0.01686
G1 X148.450 Y101.073 E0.34983
G1 X147.915 Y101.073 E0.01686
G1 X155.772 Y108.930 E0.34983
G1 X155.237 Y108.930 E0.01686
G1 X147.379 Y101.073 E0.34983
G1 X146.844 Y101.073 E0.01686
G1 X154.701 Y108.930 E0.34983
G1 X154.166 Y108.930 E0.01686
G1 X146.309 Y101.073 E0.34983
G1 X145.773 Y101.073 E0.01686
G1 X153.631 Y108.930 E0.34983
G1 X153.095 Y108.930 E0.01686
G1 X145.238 Y101.073 E0.34983
G1 X144.702 Y101.073 E0.01686
G1 X152.560 Y108.930 E0.34983
G1 X152.024 Y108.930 E0.01686
G1 X144.167 Y101.073 E0.34983
G1 X143.631 Y101.073 E0.01686
G1 X151.489 Y108.930 E0.34983
M73 P12 R7
G1 X150.953 Y108.930 E0.01686
G1 X143.096 Y101.072 E0.34984
G1 X142.560 Y101.072 E0.01686
G1 X150.418 Y108.930 E0.34984
G1 X149.883 Y108.930 E0.01686
G1 X142.025 Y101.072 E0.34984
G1 X141.489 Y101.072 E0.01686
G1 X149.347 Y108.930 E0.34984
G1 X148.812 Y108.930 E0.01686
G1 X140.954 Y101.072 E0.34984
G1 X140.418 Y101.072 E0.01686
G1 X148.276 Y108.930 E0.34984
G1 X147.741 Y108.930 E0.01686
G1 X139.883 Y101.072 E0.34984
G1 X139.348 Y101.072 E0.01686
G1 X147.205 Y108.930 E0.34984
G1 X146.670 Y108.930 E0.01686
G1 X138.812 Y101.072 E0.34984
G1 X138.277 Y101.072 E0.01686
G1 X146.134 Y108.930 E0.34985
G1 X145.599 Y108.930 E0.01686
G1 X137.741 Y101.072 E0.34985
G1 X137.206 Y101.072 E0.01686
G1 X145.064 Y108.930 E0.34985
G1 X144.528 Y108.930 E0.01686
G1 X136.670 Y101.072 E0.34985
G1 X136.135 Y101.072 E0.01686
G1 X143.993 Y108.930 E0.34985
G1 X143.457 Y108.930 E0.01686
G1 X135.599 Y101.072 E0.34985
G1 X135.064 Y101.072 E0.01686
G1 X142.922 Y108.930 E0.34985
G1 X142.386 Y108.930 E0.01686
G1 X134.528 Y101.072 E0.34985
G1 X133.993 Y101.072 E0.01686
G1 X141.851 Y108.930 E0.34985
G1 X141.316 Y108.930 E0.01686
G1 X133.457 Y101.072 E0.34985
G1 X132.922 Y101.072 E0.01686
G1 X140.780 Y108.930 E0.34986
G1 X140.245 Y108.930 E0.01686
G1 X132.387 Y101.072 E0.34986
G1 X131.851 Y101.072 E0.01686
G1 X139.709 Y108.930 E0.34986
G1 X139.174 Y108.930 E0.01686
G1 X131.316 Y101.072 E0.34986
G1 X130.780 Y101.072 E0.01686
G1 X138.638 Y108.930 E0.34986
G1 X138.103 Y108.930 E0.01686
G1 X130.245 Y101.072 E0.34986
G1 X129.709 Y101.072 E0.01686
G1 X137.567 Y108.930 E0.34986
G1 X137.032 Y108.930 E0.01686
G1 X129.174 Y101.072 E0.34986
G1 X128.638 Y101.072 E0.01686
G1 X136.497 Y108.930 E0.34986
G1 X135.961 Y108.930 E0.01686
G1 X128.103 Y101.072 E0.34987
G1 X127.567 Y101.072 E0.01686
G1 X135.426 Y108.930 E0.34987
G1 X134.890 Y108.930 E0.01686
G1 X127.032 Y101.072 E0.34987
G1 X126.496 Y101.072 E0.01686
G1 X134.355 Y108.930 E0.34987
G1 X133.819 Y108.930 E0.01686
G1 X125.961 Y101.072 E0.34987
G1 X125.426 Y101.072 E0.01686
G1 X133.284 Y108.930 E0.34987
G1 X132.749 Y108.930 E0.01686
G1 X124.890 Y101.072 E0.34987
G1 X124.355 Y101.072 E0.01686
G1 X132.213 Y108.930 E0.34987
G1 X131.678 Y108.930 E0.01686
G1 X123.819 Y101.072 E0.34987
G1 X123.284 Y101.072 E0.01686
G1 X131.142 Y108.930 E0.34987
G1 X130.607 Y108.930 E0.01686
G1 X122.748 Y101.072 E0.34988
G1 X122.213 Y101.072 E0.01686
G1 X130.071 Y108.930 E0.34988
G1 X129.536 Y108.930 E0.01686
G1 X121.677 Y101.072 E0.34988
G1 X121.142 Y101.072 E0.01686
G1 X129.000 Y108.930 E0.34988
G1 X128.465 Y108.930 E0.01686
G1 X120.606 Y101.071 E0.34988
G1 X120.071 Y101.071 E0.01686
G1 X127.930 Y108.930 E0.34988
G1 X127.394 Y108.930 E0.01686
G1 X119.536 Y101.071 E0.34988
G1 X119.000 Y101.071 E0.01686
G1 X126.859 Y108.930 E0.34988
G1 X126.323 Y108.930 E0.01686
G1 X118.465 Y101.071 E0.34988
G1 X117.929 Y101.071 E0.01686
G1 X125.788 Y108.930 E0.34988
G1 X125.252 Y108.930 E0.01686
G1 X117.394 Y101.071 E0.34989
G1 X116.858 Y101.071 E0.01686
G1 X124.717 Y108.930 E0.34989
G1 X124.182 Y108.930 E0.01686
G1 X116.323 Y101.071 E0.34989
G1 X115.787 Y101.071 E0.01686
G1 X123.646 Y108.930 E0.34989
G1 X123.111 Y108.930 E0.01686
G1 X115.252 Y101.071 E0.34989
G1 X114.716 Y101.071 E0.01686
G1 X122.575 Y108.930 E0.34989
G1 X122.040 Y108.930 E0.01686
G1 X114.181 Y101.071 E0.34989
G1 X113.645 Y101.071 E0.01686
G1 X121.504 Y108.930 E0.34989
G1 X120.969 Y108.930 E0.01686
G1 X113.110 Y101.071 E0.34989
G1 X112.575 Y101.071 E0.01686
G1 X120.433 Y108.930 E0.34990
G1 X119.898 Y108.930 E0.01686
G1 X112.039 Y101.071 E0.34990
G1 X111.504 Y101.071 E0.01686
G1 X119.363 Y108.930 E0.34990
G1 X118.827 Y108.930 E0.01686
G1 X110.968 Y101.071 E0.34990
G1 X110.433 Y101.071 E0.01686
G1 X118.292 Y108.930 E0.34990
G1 X117.756 Y108.930 E0.01686
G1 X109.897 Y101.071 E0.34990
G1 X109.362 Y101.071 E0.01686
G1 X117.221 Y108.930 E0.34990
G1 X116.685 Y108.930 E0.01686
