; generated by PrusaSlicer 2.2.0+win64 on 2020-05-19 at 08:56:00 UTC

; 

; external perimeters extrusion width = 0.45mm
; perimeters extrusion width = 0.45mm
; infill extrusion width = 0.45mm
; solid infill extrusion width = 0.45mm
; top infill extrusion width = 0.40mm
; first layer extrusion width = 0.42mm

M73 P0 R27
M201 X9000 Y9000 Z500 E10000 ; sets maximum accelerations, mm/sec^2
M203 X500 Y500 Z12 E120 ; sets maximum feedrates, mm/sec
M204 P2000 R1500 T2000 ; sets acceleration (P, T) and retract acceleration (R), mm/sec^2
M205 X10.00 Y10.00 Z0.20 E2.50 ; sets the jerk limits, mm/sec
M205 S0 T0 ; sets the minimum extruding and travel feed rate, mm/sec
M107 ; disable fan
M862.3 P "MK2S" ; printer model check
M862.1 P0.4 ; nozzle diameter check
M115 U3.2.3 ; tell printer latest fw version
G90 ; use absolute coordinates
M83 ; extruder relative mode
M204 S2000 T1500 ; MK2 firmware only supports the old M204 format
M104 S220 ; set extruder temp
M140 S80 ; set bed temp
M190 S80 ; wait for bed temp
M109 S220 ; wait for extruder temp
G28 W ; home all without mesh bed level
G80 ; mesh bed leveling
G1 Y-3.0 F1000.0 ; go outside print area
G92 E0.0
G1 X60.0 E9.0  F1000.0 ; intro line
M73 P0 R27
G1 X100.0 E12.5 F1000.0 ; intro line
G92 E0.0
G21 ; set units to millimeters
G90 ; use absolute coordinates
M83 ; use relative distances for extrusion
M900 K45 ; Filament gcode
;BEFORE_LAYER_CHANGE
G92 E0.0
;0.2


G1 E-0.80000 F2100.00000 ; retract
G1 Z0.600 F10800.000 ; lift Z
;AFTER_LAYER_CHANGE
;0.2
G1 X100.716 Y89.268 ; move to first skirt point
G1 Z0.200 ; restore layer Z
G1 E0.80000 F2100.00000 ; unretract
M204 S1000 ; adjust acceleration
G1 F1200.000
G1 X101.661 Y88.836 E0.03258 ; skirt
G1 X102.272 Y88.684 E0.01975 ; skirt
G1 X102.968 Y88.623 E0.02190 ; skirt
G1 X147.004 Y88.623 E1.38072 ; skirt
G1 X147.773 Y88.692 E0.02422 ; skirt
G1 X148.542 Y88.904 E0.02499 ; skirt
G1 X149.239 Y89.240 E0.02428 ; skirt
G1 X149.934 Y89.755 E0.02712 ; skirt
G1 X150.416 Y90.265 E0.02201 ; skirt
G1 X150.885 Y90.992 E0.02712 ; skirt
G1 X151.268 Y92.045 E0.03512 ; skirt
G1 X151.371 Y92.831 E0.02486 ; skirt
G1 X151.370 Y117.179 E0.76342 ; skirt
G1 X151.162 Y118.347 E0.03720 ; skirt
G1 X150.782 Y119.203 E0.02938 ; skirt
G1 X150.231 Y119.948 E0.02902 ; skirt
G1 X149.284 Y120.732 E0.03856 ; skirt
G1 X148.339 Y121.164 E0.03258 ; skirt
G1 X147.728 Y121.316 E0.01975 ; skirt
G1 X147.032 Y121.377 E0.02190 ; skirt
G1 X102.931 Y121.376 E1.38275 ; skirt
G1 X101.686 Y121.171 E0.03957 ; skirt
G1 X100.823 Y120.797 E0.02950 ; skirt
G1 X100.058 Y120.237 E0.02974 ; skirt
G1 X99.268 Y119.284 E0.03880 ; skirt
G1 X98.837 Y118.343 E0.03246 ; skirt
G1 X98.685 Y117.736 E0.01963 ; skirt
G1 X98.624 Y117.059 E0.02130 ; skirt
G1 X98.626 Y92.886 E0.75793 ; skirt
G1 X98.833 Y91.671 E0.03863 ; skirt
G1 X99.210 Y90.810 E0.02950 ; skirt
G1 X99.766 Y90.055 E0.02938 ; skirt
G1 X100.669 Y89.306 E0.03680 ; skirt
G1 F8640.000
G1 X101.661 Y88.836 E-0.25333 ; wipe and retract
G1 X102.272 Y88.684 E-0.14544 ; wipe and retract
G1 X102.968 Y88.623 E-0.16127 ; wipe and retract
G1 X103.834 Y88.623 E-0.19996 ; wipe and retract
G1 E-0.04000 F2100.00000 ; retract
G1 Z0.800 F10800.000 ; lift Z
G1 X140.567 Y95.296 ; move to first perimeter point
G1 Z0.200 ; restore layer Z
G1 E0.80000 F2100.00000 ; unretract
G1 F1200.000
G1 X140.748 Y94.691 E0.01980 ; perimeter
G1 X141.001 Y94.186 E0.01771 ; perimeter
G1 X141.328 Y93.731 E0.01756 ; perimeter
G1 X141.685 Y93.360 E0.01617 ; perimeter
G1 X142.094 Y93.048 E0.01613 ; perimeter
G1 X142.586 Y92.774 E0.01766 ; perimeter
G1 X143.157 Y92.571 E0.01900 ; perimeter
G1 X143.664 Y92.473 E0.01617 ; perimeter
G1 X144.179 Y92.454 E0.01619 ; perimeter
G1 X144.737 Y92.512 E0.01757 ; perimeter
G1 X145.282 Y92.659 E0.01772 ; perimeter
G1 X145.793 Y92.888 E0.01754 ; perimeter
G1 X146.263 Y93.195 E0.01761 ; perimeter
G1 X146.650 Y93.540 E0.01626 ; perimeter
G1 X147.008 Y93.972 E0.01759 ; perimeter
G1 X147.294 Y94.454 E0.01758 ; perimeter
G1 X147.501 Y94.976 E0.01761 ; perimeter
G1 X147.619 Y95.481 E0.01626 ; perimeter
G1 X147.664 Y96.039 E0.01756 ; perimeter
G1 X147.619 Y96.597 E0.01756 ; perimeter
G1 X147.501 Y97.102 E0.01626 ; perimeter
G1 X147.294 Y97.624 E0.01761 ; perimeter
G1 X147.008 Y98.106 E0.01758 ; perimeter
G1 X146.648 Y98.540 E0.01767 ; perimeter
G1 X146.226 Y98.909 E0.01758 ; perimeter
G1 X145.792 Y99.191 E0.01625 ; perimeter
G1 X145.323 Y99.401 E0.01610 ; perimeter
G1 X144.743 Y99.565 E0.01889 ; perimeter
G1 X144.224 Y99.625 E0.01637 ; perimeter
G1 X143.664 Y99.605 E0.01758 ; perimeter
G1 X143.114 Y99.497 E0.01759 ; perimeter
G1 X142.586 Y99.304 E0.01760 ; perimeter
G1 X142.131 Y99.057 E0.01626 ; perimeter
G1 X141.685 Y98.718 E0.01754 ; perimeter
G1 X141.298 Y98.313 E0.01757 ; perimeter
G1 X141.000 Y97.889 E0.01626 ; perimeter
G1 X140.748 Y97.387 E0.01761 ; perimeter
G1 X140.578 Y96.854 E0.01756 ; perimeter
G1 X140.495 Y96.298 E0.01760 ; perimeter
G1 X140.495 Y95.780 E0.01626 ; perimeter
G1 X140.559 Y95.356 E0.01346 ; perimeter
G1 X140.947 Y95.310 F10800.000 ; move to first perimeter point
G1 F1200.000
G1 X141.098 Y94.833 E0.01569 ; perimeter
G1 X141.325 Y94.382 E0.01584 ; perimeter
G1 X141.618 Y93.973 E0.01578 ; perimeter
G1 X141.937 Y93.642 E0.01441 ; perimeter
G1 X142.302 Y93.364 E0.01438 ; perimeter
G1 X142.742 Y93.118 E0.01581 ; perimeter
G1 X143.257 Y92.936 E0.01712 ; perimeter
G1 X143.707 Y92.849 E0.01438 ; perimeter
G1 X144.167 Y92.831 E0.01443 ; perimeter
G1 X144.667 Y92.884 E0.01578 ; perimeter
G1 X145.155 Y93.016 E0.01584 ; perimeter
G1 X145.611 Y93.220 E0.01566 ; perimeter
G1 X146.033 Y93.496 E0.01580 ; perimeter
G1 X146.378 Y93.803 E0.01449 ; perimeter
G1 X146.699 Y94.190 E0.01577 ; perimeter
G1 X146.955 Y94.621 E0.01570 ; perimeter
G1 X147.140 Y95.089 E0.01580 ; perimeter
G1 X147.246 Y95.539 E0.01449 ; perimeter
G1 X147.285 Y96.039 E0.01573 ; perimeter
G1 X147.246 Y96.539 E0.01573 ; perimeter
G1 X147.140 Y96.989 E0.01449 ; perimeter
G1 X146.955 Y97.458 E0.01580 ; perimeter
G1 X146.699 Y97.888 E0.01570 ; perimeter
G1 X146.377 Y98.276 E0.01580 ; perimeter
G1 X145.999 Y98.608 E0.01579 ; perimeter
G1 X145.611 Y98.859 E0.01448 ; perimeter
G1 X145.194 Y99.046 E0.01433 ; perimeter
G1 X144.670 Y99.194 E0.01708 ; perimeter
G1 X144.209 Y99.247 E0.01453 ; perimeter
G1 X143.707 Y99.229 E0.01575 ; perimeter
G1 X143.215 Y99.133 E0.01572 ; perimeter
G1 X142.742 Y98.960 E0.01580 ; perimeter
G1 X142.336 Y98.739 E0.01449 ; perimeter
G1 X141.937 Y98.436 E0.01571 ; perimeter
G1 X141.590 Y98.073 E0.01574 ; perimeter
G1 X141.324 Y97.695 E0.01449 ; perimeter
G1 X141.098 Y97.245 E0.01580 ; perimeter
G1 X140.947 Y96.768 E0.01569 ; perimeter
G1 X140.872 Y96.270 E0.01578 ; perimeter
G1 X140.872 Y95.808 E0.01449 ; perimeter
G1 X140.938 Y95.370 E0.01390 ; perimeter
G1 X140.655 Y95.036 F10800.000 ; move inwards before travel
G1 F8640.000
G1 X141.098 Y94.833 E-0.12922 ; wipe and retract
G1 X141.325 Y94.382 E-0.11662 ; wipe and retract
G1 X141.618 Y93.973 E-0.11620 ; wipe and retract
G1 X141.937 Y93.642 E-0.10613 ; wipe and retract
G1 X142.302 Y93.364 E-0.10588 ; wipe and retract
G1 X142.742 Y93.118 E-0.11645 ; wipe and retract
G1 X143.026 Y93.018 E-0.06949 ; wipe and retract
G1 E-0.04000 F2100.00000 ; retract
G1 Z0.800 F10800.000 ; lift Z
G1 X109.590 Y96.000 ; move to first perimeter point
G1 Z0.200 ; restore layer Z
G1 E0.80000 F2100.00000 ; unretract
G1 F1200.000
G1 X109.545 Y96.558 E0.01756 ; perimeter
G1 X109.427 Y97.063 E0.01626 ; perimeter
G1 X109.220 Y97.585 E0.01761 ; perimeter
G1 X108.934 Y98.067 E0.01758 ; perimeter
G1 X108.574 Y98.501 E0.01767 ; perimeter
G1 X108.152 Y98.870 E0.01758 ; perimeter
G1 X107.717 Y99.152 E0.01625 ; perimeter
G1 X107.249 Y99.362 E0.01610 ; perimeter
G1 X106.669 Y99.526 E0.01889 ; perimeter
G1 X106.150 Y99.586 E0.01637 ; perimeter
G1 X105.590 Y99.566 E0.01758 ; perimeter
G1 X105.039 Y99.458 E0.01759 ; perimeter
G1 X104.512 Y99.265 E0.01760 ; perimeter
G1 X104.057 Y99.017 E0.01626 ; perimeter
G1 X103.611 Y98.679 E0.01754 ; perimeter
G1 X103.224 Y98.274 E0.01757 ; perimeter
G1 X102.926 Y97.850 E0.01626 ; perimeter
G1 X102.673 Y97.348 E0.01761 ; perimeter
G1 X102.504 Y96.814 E0.01756 ; perimeter
G1 X102.421 Y96.259 E0.01760 ; perimeter
G1 X102.421 Y95.741 E0.01626 ; perimeter
G1 X102.504 Y95.186 E0.01760 ; perimeter
G1 X102.673 Y94.652 E0.01756 ; perimeter
G1 X102.927 Y94.147 E0.01771 ; perimeter
G1 X103.254 Y93.692 E0.01756 ; perimeter
G1 X103.611 Y93.321 E0.01617 ; perimeter
G1 X104.020 Y93.009 E0.01613 ; perimeter
G1 X104.512 Y92.734 E0.01766 ; perimeter
G1 X105.083 Y92.532 E0.01900 ; perimeter
G1 X105.590 Y92.434 E0.01617 ; perimeter
G1 X106.105 Y92.414 E0.01619 ; perimeter
G1 X106.663 Y92.473 E0.01757 ; perimeter
G1 X107.208 Y92.620 E0.01772 ; perimeter
G1 X107.719 Y92.849 E0.01754 ; perimeter
G1 X108.189 Y93.156 E0.01761 ; perimeter
G1 X108.576 Y93.501 E0.01626 ; perimeter
G1 X108.934 Y93.933 E0.01759 ; perimeter
G1 X109.220 Y94.415 E0.01758 ; perimeter
G1 X109.427 Y94.937 E0.01761 ; perimeter
G1 X109.545 Y95.442 E0.01626 ; perimeter
G1 X109.585 Y95.940 E0.01567 ; perimeter
G1 X109.209 Y95.970 F10800.000 ; move to first perimeter point
G1 F1200.000
G1 X109.172 Y96.500 E0.01666 ; perimeter
G1 X109.066 Y96.950 E0.01449 ; perimeter
G1 X108.881 Y97.418 E0.01580 ; perimeter
G1 X108.625 Y97.849 E0.01570 ; perimeter
G1 X108.303 Y98.237 E0.01580 ; perimeter
G1 X107.924 Y98.568 E0.01579 ; perimeter
G1 X107.537 Y98.820 E0.01448 ; perimeter
G1 X107.120 Y99.006 E0.01433 ; perimeter
G1 X106.596 Y99.155 E0.01708 ; perimeter
G1 X106.135 Y99.208 E0.01453 ; perimeter
G1 X105.633 Y99.190 E0.01575 ; perimeter
G1 X105.141 Y99.094 E0.01572 ; perimeter
G1 X104.668 Y98.921 E0.01580 ; perimeter
G1 X104.262 Y98.700 E0.01449 ; perimeter
G1 X103.863 Y98.397 E0.01571 ; perimeter
G1 X103.516 Y98.034 E0.01574 ; perimeter
G1 X103.250 Y97.656 E0.01449 ; perimeter
G1 X103.024 Y97.206 E0.01580 ; perimeter
G1 X102.873 Y96.729 E0.01569 ; perimeter
G1 X102.798 Y96.231 E0.01578 ; perimeter
G1 X102.798 Y95.769 E0.01449 ; perimeter
G1 X102.873 Y95.271 E0.01578 ; perimeter
G1 X103.024 Y94.794 E0.01569 ; perimeter
G1 X103.250 Y94.343 E0.01584 ; perimeter
G1 X103.544 Y93.934 E0.01578 ; perimeter
G1 X103.863 Y93.603 E0.01441 ; perimeter
G1 X104.228 Y93.325 E0.01438 ; perimeter
G1 X104.668 Y93.079 E0.01581 ; perimeter
G1 X105.183 Y92.897 E0.01712 ; perimeter
G1 X105.633 Y92.810 E0.01438 ; perimeter
G1 X106.093 Y92.792 E0.01443 ; perimeter
G1 X106.593 Y92.845 E0.01578 ; perimeter
G1 X107.081 Y92.976 E0.01584 ; perimeter
G1 X107.537 Y93.181 E0.01566 ; perimeter
G1 X107.959 Y93.456 E0.01580 ; perimeter
G1 X108.304 Y93.764 E0.01449 ; perimeter
G1 X108.625 Y94.151 E0.01577 ; perimeter
G1 X108.881 Y94.582 E0.01570 ; perimeter
G1 X109.066 Y95.050 E0.01580 ; perimeter
G1 X109.172 Y95.500 E0.01449 ; perimeter
G1 X109.204 Y95.910 E0.01290 ; perimeter
G1 X109.556 Y96.168 F10800.000 ; move inwards before travel
G1 F8640.000
G1 X109.172 Y96.500 E-0.13640 ; wipe and retract
G1 X109.066 Y96.950 E-0.10671 ; wipe and retract
G1 X108.881 Y97.418 E-0.11635 ; wipe and retract
G1 X108.625 Y97.849 E-0.11564 ; wipe and retract
G1 X108.303 Y98.237 E-0.11634 ; wipe and retract
G1 X107.924 Y98.568 E-0.11626 ; wipe and retract
G1 X107.734 Y98.692 E-0.05229 ; wipe and retract
G1 E-0.04000 F2100.00000 ; retract
G1 Z0.800 F10800.000 ; lift Z
G1 X102.790 Y91.808 ; move to first perimeter point
G1 Z0.200 ; restore layer Z
G1 E0.80000 F2100.00000 ; unretract
G1 F1200.000
G1 X103.034 Y91.787 E0.00769 ; perimeter
G1 X146.966 Y91.787 E1.37743 ; perimeter
G1 X147.210 Y91.808 E0.00769 ; perimeter
G1 X147.414 Y91.863 E0.00661 ; perimeter
G1 X147.605 Y91.952 E0.00661 ; perimeter
G1 X147.778 Y92.073 E0.00661 ; perimeter
G1 X147.927 Y92.222 E0.00661 ; perimeter
G1 X148.048 Y92.395 E0.00661 ; perimeter
G1 X148.137 Y92.586 E0.00661 ; perimeter
G1 X148.192 Y92.790 E0.00661 ; perimeter
G1 X148.213 Y93.034 E0.00769 ; perimeter
G1 X148.213 Y116.966 E0.75035 ; perimeter
G1 X148.192 Y117.210 E0.00769 ; perimeter
G1 X148.137 Y117.414 E0.00661 ; perimeter
G1 X148.048 Y117.605 E0.00661 ; perimeter
G1 X147.927 Y117.778 E0.00661 ; perimeter
G1 X147.778 Y117.927 E0.00661 ; perimeter
G1 X147.605 Y118.048 E0.00661 ; perimeter
G1 X147.414 Y118.137 E0.00661 ; perimeter
G1 X147.210 Y118.192 E0.00661 ; perimeter
G1 X146.966 Y118.213 E0.00769 ; perimeter
G1 X103.034 Y118.213 E1.37743 ; perimeter
G1 X102.790 Y118.192 E0.00769 ; perimeter
G1 X102.586 Y118.137 E0.00661 ; perimeter
G1 X102.395 Y118.048 E0.00661 ; perimeter
G1 X102.222 Y117.927 E0.00661 ; perimeter
G1 X102.073 Y117.778 E0.00661 ; perimeter
G1 X101.952 Y117.605 E0.00661 ; perimeter
G1 X101.863 Y117.414 E0.00661 ; perimeter
G1 X101.808 Y117.210 E0.00661 ; perimeter
G1 X101.787 Y116.966 E0.00769 ; perimeter
G1 X101.787 Y93.034 E0.75035 ; perimeter
G1 X101.808 Y92.790 E0.00769 ; perimeter
G1 X101.863 Y92.586 E0.00661 ; perimeter
G1 X101.952 Y92.395 E0.00661 ; perimeter
G1 X102.073 Y92.222 E0.00661 ; perimeter
G1 X102.222 Y92.073 E0.00661 ; perimeter
G1 X102.395 Y91.952 E0.00661 ; perimeter
G1 X102.586 Y91.863 E0.00661 ; perimeter
G1 X102.732 Y91.824 E0.00473 ; perimeter
G1 X102.634 Y91.460 F10800.000 ; move to first perimeter point
G1 F1200.000
G1 X103.018 Y91.410 E0.01213 ; perimeter
G1 X146.982 Y91.410 E1.37847 ; perimeter
G1 X147.276 Y91.436 E0.00924 ; perimeter
G1 X147.543 Y91.507 E0.00868 ; perimeter
G1 X147.794 Y91.624 E0.00868 ; perimeter
G1 X148.021 Y91.783 E0.00868 ; perimeter
G1 X148.217 Y91.979 E0.00868 ; perimeter
G1 X148.376 Y92.206 E0.00868 ; perimeter
G1 X148.493 Y92.457 E0.00868 ; perimeter
G1 X148.564 Y92.724 E0.00868 ; perimeter
G1 X148.590 Y93.018 E0.00924 ; perimeter
G1 X148.590 Y116.982 E0.75138 ; perimeter
G1 X148.564 Y117.276 E0.00924 ; perimeter
G1 X148.493 Y117.543 E0.00868 ; perimeter
G1 X148.376 Y117.794 E0.00868 ; perimeter
G1 X148.217 Y118.021 E0.00868 ; perimeter
G1 X148.021 Y118.217 E0.00868 ; perimeter
G1 X147.794 Y118.376 E0.00868 ; perimeter
G1 X147.543 Y118.493 E0.00868 ; perimeter
G1 X147.276 Y118.564 E0.00868 ; perimeter
G1 X146.982 Y118.590 E0.00924 ; perimeter
G1 X103.018 Y118.590 E1.37847 ; perimeter
G1 X102.724 Y118.564 E0.00924 ; perimeter
G1 X102.457 Y118.493 E0.00868 ; perimeter
G1 X102.206 Y118.376 E0.00868 ; perimeter
G1 X101.979 Y118.217 E0.00868 ; perimeter
G1 X101.783 Y118.021 E0.00868 ; perimeter
G1 X101.624 Y117.794 E0.00868 ; perimeter
G1 X101.507 Y117.543 E0.00868 ; perimeter
G1 X101.436 Y117.276 E0.00868 ; perimeter
G1 X101.410 Y116.982 E0.00924 ; perimeter
G1 X101.410 Y93.018 E0.75138 ; perimeter
G1 X101.436 Y92.724 E0.00924 ; perimeter
G1 X101.507 Y92.457 E0.00868 ; perimeter
G1 X101.624 Y92.206 E0.00868 ; perimeter
G1 X101.783 Y91.979 E0.00868 ; perimeter
G1 X101.979 Y91.783 E0.00868 ; perimeter
G1 X102.206 Y91.624 E0.00868 ; perimeter
G1 X102.457 Y91.507 E0.00868 ; perimeter
G1 X102.576 Y91.475 E0.00388 ; perimeter
G1 X102.893 Y91.747 F10800.000 ; move inwards before travel
G1 F8640.000
G1 X103.018 Y91.410 E-0.10305 ; wipe and retract
G1 X105.863 Y91.410 E-0.65695 ; wipe and retract
G1 E-0.04000 F2100.00000 ; retract
G1 Z0.800 F10800.000 ; lift Z
G1 X104.821 Y92.505 ; move to first infill point
G1 Z0.200 ; restore layer Z
G1 E0.80000 F2100.00000 ; unretract
G1 F1200.000
G1 X104.386 Y92.070 E0.02102 ; infill
G1 X103.805 Y92.070 E0.01984 ; infill
G1 X104.277 Y92.542 E0.02279 ; infill
G1 X103.904 Y92.750 E0.01458 ; infill
G1 X103.224 Y92.070 E0.03285 ; infill
G1 X102.839 Y92.088 E0.01316 ; infill
G1 X102.699 Y92.126 E0.00496 ; infill
G1 X103.570 Y92.997 E0.04207 ; infill
G1 X103.423 Y93.109 E0.00633 ; infill
G1 X103.265 Y93.273 E0.00776 ; infill
G1 X102.344 Y92.351 E0.04450 ; infill
G1 X102.198 Y92.537 E0.00806 ; infill
G1 X102.122 Y92.711 E0.00648 ; infill
G1 X102.989 Y93.577 E0.04183 ; infill
G1 X102.746 Y93.915 E0.01421 ; infill
G1 X102.070 Y93.239 E0.03263 ; infill
G1 X102.070 Y93.820 E0.01984 ; infill
G1 X102.539 Y94.289 E0.02266 ; infill
G1 X102.411 Y94.545 E0.00977 ; infill
G1 X102.363 Y94.694 E0.00536 ; infill
G1 X101.900 Y94.231 E0.02237 ; infill
