; generated by PrusaSlicer 2.2.0+win64 on 2020-12-22 at 14:33:25 UTC

; 

; external perimeters extrusion width = 0.45mm
; perimeters extrusion width = 0.45mm
; infill extrusion width = 0.45mm
; solid infill extrusion width = 0.45mm
; top infill extrusion width = 0.40mm
; first layer extrusion width = 0.42mm

M73 P0 R18
M201 X9000 Y9000 Z500 E10000 ; sets maximum accelerations, mm/sec^2
M203 X500 Y500 Z12 E120 ; sets maximum feedrates, mm/sec
M204 P2000 R1500 T2000 ; sets acceleration (P, T) and retract acceleration (R), mm/sec^2
M205 X10.00 Y10.00 Z0.20 E2.50 ; sets the jerk limits, mm/sec
M205 S0 T0 ; sets the minimum extruding and travel feed rate, mm/sec
M107
M862.3 P "MK2S" ; printer model check
M862.1 P0.4 ; nozzle diameter check
M115 U3.2.3 ; tell printer latest fw version
G90 ; use absolute coordinates
M83 ; extruder relative mode
M204 S2000 T1500 ; MK2 firmware only supports the old M204 format
M104 S265 ; set extruder temp
M140 S100 ; set bed temp
M190 S100 ; wait for bed temp
M109 S265 ; wait for extruder temp
G28 W ; home all without mesh bed level
G80 ; mesh bed leveling
G1 Y-3.0 F1000.0 ; go outside print area
G92 E0.0
G1 X60.0 E9.0  F1000.0 ; intro line
M73 P0 R18
G1 X100.0 E12.5 F1000.0 ; intro line
G92 E0.0
G21 ; set units to millimeters
G90 ; use absolute coordinates
M83 ; use relative distances for extrusion
M900 K0.04 ; Filament gcode LA 1.5
M900 K20 ; Filament gcode LA 1.0
;BEFORE_LAYER_CHANGE
G92 E0.0
;0.2


G1 E-0.80000 F2100.00000
G1 Z0.600 F10800.000
;AFTER_LAYER_CHANGE
;0.2
G1 X105.560 Y94.046
G1 Z0.200
G1 E0.80000 F2100.00000
M204 S1000
G1 F1200.000
G1 X106.097 Y93.630 E0.02129
G1 X106.758 Y93.348 E0.02256
G1 X107.471 Y93.246 E0.02256
G1 X142.504 Y93.246 E1.09845
G1 X143.521 Y93.442 E0.03246
G1 X144.390 Y93.997 E0.03233
G1 X144.996 Y94.836 E0.03246
G1 X145.249 Y95.835 E0.03233
G1 X145.248 Y114.180 E0.57519
G1 X145.124 Y114.835 E0.02090
G1 X144.847 Y115.441 E0.02090
G1 X144.432 Y115.963 E0.02090
G1 X143.903 Y116.370 E0.02090
G1 X143.242 Y116.652 E0.02256
G1 X142.529 Y116.754 E0.02256
G1 X107.430 Y116.753 E1.10051
G1 X106.743 Y116.648 E0.02180
G1 X106.104 Y116.374 E0.02180
G1 X105.557 Y115.952 E0.02167
G1 X105.130 Y115.403 E0.02180
G1 X104.851 Y114.754 E0.02218
G1 X104.746 Y114.054 E0.02218
G1 X104.749 Y95.877 E0.56993
G1 X104.862 Y95.208 E0.02129
G1 X105.138 Y94.583 E0.02141
G1 X105.523 Y94.093 E0.01953
G1 F8640.000
G1 X106.097 Y93.630 E-0.17022
G1 X106.758 Y93.348 E-0.16614
G1 X107.471 Y93.246 E-0.16614
G1 X108.586 Y93.246 E-0.25750
G1 E-0.04000 F2100.00000
G1 Z0.800 F10800.000
G1 X144.137 Y94.276
G1 Z0.200
G1 E0.80000 F2100.00000
G1 F1200.000
G1 X144.659 Y95.006 E0.02813
G1 X144.874 Y95.873 E0.02802
G1 X144.873 Y114.137 E0.57265
G1 X144.768 Y114.713 E0.01835
G1 X144.527 Y115.242 E0.01823
G1 X144.162 Y115.699 E0.01835
G1 X143.697 Y116.054 E0.01835
G1 X143.130 Y116.292 E0.01929
G1 X142.520 Y116.377 E0.01929
G1 X107.447 Y116.376 E1.09970
G1 X106.849 Y116.286 E0.01894
G1 X106.294 Y116.049 E0.01894
G1 X105.817 Y115.679 E0.01894
G1 X105.446 Y115.197 E0.01906
G1 X105.211 Y114.641 E0.01894
G1 X105.123 Y114.039 E0.01906
G1 X105.125 Y95.905 E0.56859
G1 X105.223 Y95.317 E0.01870
G1 X105.463 Y94.775 E0.01858
G1 X105.832 Y94.306 E0.01870
G1 X106.303 Y93.946 E0.01858
G1 X106.870 Y93.708 E0.01929
G1 X107.480 Y93.623 E0.01929
G1 X142.504 Y93.623 E1.09815
G1 X143.381 Y93.792 E0.02802
G1 X144.086 Y94.244 E0.02625
G1 F8640.000
G1 X144.659 Y95.006 E-0.22012
G1 X144.874 Y95.873 E-0.20633
G1 X144.874 Y97.318 E-0.33355
G1 E-0.04000 F2100.00000
G1 Z0.800 F10800.000
G1 X126.908 Y107.399
G1 Z0.200
G1 E0.80000 F2100.00000
G1 F1200.000
G1 X127.156 Y107.755 E0.01361
G1 X127.340 Y108.148 E0.01361
G1 X127.452 Y108.568 E0.01361
G1 X127.490 Y109.000 E0.01361
G1 X127.452 Y109.432 E0.01361
G1 X127.340 Y109.852 E0.01361
G1 X127.156 Y110.245 E0.01361
G1 X126.908 Y110.601 E0.01361
G1 X126.601 Y110.908 E0.01361
G1 X126.245 Y111.156 E0.01361
G1 X125.852 Y111.340 E0.01361
G1 X125.432 Y111.452 E0.01361
G1 X125.000 Y111.490 E0.01361
G1 X124.568 Y111.452 E0.01361
G1 X124.148 Y111.340 E0.01361
G1 X123.755 Y111.156 E0.01361
G1 X123.399 Y110.908 E0.01361
G1 X123.092 Y110.601 E0.01361
G1 X122.844 Y110.245 E0.01361
G1 X122.660 Y109.852 E0.01361
G1 X122.548 Y109.432 E0.01361
G1 X122.509 Y108.995 E0.01377
G1 X122.558 Y108.528 E0.01472
G1 X122.660 Y108.148 E0.01232
G1 X122.844 Y107.755 E0.01361
G1 X123.092 Y107.399 E0.01361
G1 X123.399 Y107.092 E0.01361
G1 X123.755 Y106.844 E0.01361
G1 X124.153 Y106.658 E0.01377
G1 X124.609 Y106.544 E0.01472
G1 X125.000 Y106.510 E0.01232
G1 X125.432 Y106.548 E0.01361
G1 X125.852 Y106.660 E0.01361
G1 X126.245 Y106.844 E0.01361
G1 X126.601 Y107.092 E0.01361
G1 X126.865 Y107.357 E0.01173
G1 X126.598 Y107.624 F10800.000
G1 F1200.000
G1 X126.829 Y107.944 E0.01238
G1 X126.984 Y108.278 E0.01154
G1 X127.079 Y108.633 E0.01154
G1 X127.112 Y109.000 E0.01154
G1 X127.079 Y109.367 E0.01154
G1 X126.984 Y109.722 E0.01154
G1 X126.829 Y110.056 E0.01154
G1 X126.618 Y110.357 E0.01154
G1 X126.357 Y110.618 E0.01154
G1 X126.056 Y110.829 E0.01154
G1 X125.722 Y110.984 E0.01154
G1 X125.367 Y111.079 E0.01154
G1 X125.000 Y111.112 E0.01154
G1 X124.633 Y111.079 E0.01154
G1 X124.278 Y110.984 E0.01154
G1 X123.944 Y110.829 E0.01154
G1 X123.643 Y110.618 E0.01154
G1 X123.382 Y110.357 E0.01154
G1 X123.171 Y110.056 E0.01154
G1 X123.016 Y109.722 E0.01154
G1 X122.921 Y109.367 E0.01154
G1 X122.888 Y108.998 E0.01160
G1 X122.930 Y108.597 E0.01265
G1 X123.016 Y108.278 E0.01035
G1 X123.171 Y107.944 E0.01154
G1 X123.382 Y107.643 E0.01154
G1 X123.643 Y107.382 E0.01154
G1 X123.944 Y107.171 E0.01154
G1 X124.279 Y107.015 E0.01160
G1 X124.671 Y106.917 E0.01265
G1 X125.000 Y106.888 E0.01035
G1 X125.367 Y106.921 E0.01154
G1 X125.722 Y107.016 E0.01154
G1 X126.056 Y107.171 E0.01154
G1 X126.357 Y107.382 E0.01154
G1 X126.556 Y107.581 E0.00881
G1 X126.987 Y107.552 F10800.000
G1 F8640.000
G1 X126.829 Y107.944 E-0.10483
G1 X126.984 Y108.278 E-0.08499
G1 X127.079 Y108.633 E-0.08499
G1 X127.112 Y109.000 E-0.08499
G1 X127.079 Y109.367 E-0.08499
G1 X126.984 Y109.722 E-0.08499
G1 X126.829 Y110.056 E-0.08499
G1 X126.618 Y110.357 E-0.08499
G1 X126.433 Y110.542 E-0.06025
G1 E-0.04000 F2100.00000
G1 Z0.800 F10800.000
G1 X134.009 Y107.995
G1 Z0.200
G1 E0.80000 F2100.00000
G1 F1200.000
G1 X134.058 Y107.528 E0.01472
G1 X134.160 Y107.148 E0.01232
G1 X134.344 Y106.755 E0.01361
G1 X134.592 Y106.399 E0.01361
G1 X134.899 Y106.092 E0.01361
G1 X135.255 Y105.844 E0.01361
G1 X135.653 Y105.658 E0.01377
G1 X136.109 Y105.544 E0.01472
G1 X136.500 Y105.510 E0.01232
G1 X136.932 Y105.548 E0.01361
G1 X137.352 Y105.660 E0.01361
G1 X137.745 Y105.844 E0.01361
G1 X138.101 Y106.092 E0.01361
G1 X138.408 Y106.399 E0.01361
G1 X138.656 Y106.755 E0.01361
G1 X138.840 Y107.148 E0.01361
G1 X138.952 Y107.568 E0.01361
G1 X138.990 Y108.000 E0.01361
G1 X138.952 Y108.432 E0.01361
G1 X138.840 Y108.852 E0.01361
G1 X138.656 Y109.245 E0.01361
G1 X138.408 Y109.601 E0.01361
G1 X138.101 Y109.908 E0.01361
G1 X137.745 Y110.156 E0.01361
G1 X137.352 Y110.340 E0.01361
G1 X136.932 Y110.452 E0.01361
G1 X136.500 Y110.490 E0.01361
G1 X136.068 Y110.452 E0.01361
G1 X135.648 Y110.340 E0.01361
G1 X135.255 Y110.156 E0.01361
G1 X134.895 Y109.905 E0.01377
G1 X134.569 Y109.567 E0.01472
G1 X134.344 Y109.245 E0.01232
G1 X134.160 Y108.852 E0.01361
G1 X134.048 Y108.432 E0.01361
G1 X134.015 Y108.055 E0.01189
G1 X134.390 Y108.022 F10800.000
G1 F1200.000
G1 X134.430 Y107.597 E0.01339
G1 X134.516 Y107.278 E0.01035
G1 X134.671 Y106.944 E0.01154
G1 X134.882 Y106.643 E0.01154
G1 X135.143 Y106.382 E0.01154
G1 X135.444 Y106.171 E0.01154
G1 X135.779 Y106.015 E0.01160
G1 X136.171 Y105.917 E0.01265
G1 X136.500 Y105.888 E0.01035
G1 X136.867 Y105.921 E0.01154
G1 X137.222 Y106.016 E0.01154
G1 X137.556 Y106.171 E0.01154
G1 X137.857 Y106.382 E0.01154
G1 X138.118 Y106.643 E0.01154
G1 X138.329 Y106.944 E0.01154
G1 X138.484 Y107.278 E0.01154
G1 X138.579 Y107.633 E0.01154
G1 X138.612 Y108.000 E0.01154
G1 X138.579 Y108.367 E0.01154
G1 X138.484 Y108.722 E0.01154
G1 X138.329 Y109.056 E0.01154
G1 X138.118 Y109.357 E0.01154
G1 X137.857 Y109.618 E0.01154
G1 X137.556 Y109.829 E0.01154
G1 X137.222 Y109.984 E0.01154
G1 X136.867 Y110.079 E0.01154
G1 X136.500 Y110.112 E0.01154
G1 X136.133 Y110.079 E0.01154
G1 X135.778 Y109.984 E0.01154
G1 X135.444 Y109.829 E0.01154
G1 X135.141 Y109.617 E0.01160
G1 X134.861 Y109.326 E0.01265
G1 X134.671 Y109.056 E0.01035
G1 X134.516 Y108.722 E0.01154
G1 X134.421 Y108.367 E0.01154
G1 X134.396 Y108.082 E0.00897
G1 X134.045 Y107.821 F10800.000
G1 F8640.000
G1 X134.430 Y107.597 E-0.11224
G1 X134.516 Y107.278 E-0.07626
G1 X134.671 Y106.944 E-0.08499
G1 X134.882 Y106.643 E-0.08499
G1 X135.143 Y106.382 E-0.08499
G1 X135.444 Y106.171 E-0.08499
G1 X135.779 Y106.015 E-0.08541
G1 X136.171 Y105.917 E-0.09319
G1 X136.399 Y105.897 E-0.05295
G1 E-0.04000 F2100.00000
G1 Z0.800 F10800.000
G1 X115.990 Y108.000
G1 Z0.200
G1 E0.80000 F2100.00000
G1 F1200.000
G1 X115.952 Y108.432 E0.01361
G1 X115.840 Y108.852 E0.01361
G1 X115.656 Y109.245 E0.01361
G1 X115.408 Y109.601 E0.01361
G1 X115.101 Y109.908 E0.01361
G1 X114.745 Y110.156 E0.01361
G1 X114.352 Y110.340 E0.01361
G1 X113.932 Y110.452 E0.01361
G1 X113.500 Y110.490 E0.01361
G1 X113.068 Y110.452 E0.01361
G1 X112.648 Y110.340 E0.01361
G1 X112.255 Y110.156 E0.01361
G1 X111.895 Y109.905 E0.01377
G1 X111.569 Y109.567 E0.01472
G1 X111.344 Y109.245 E0.01232
G1 X111.160 Y108.852 E0.01361
G1 X111.048 Y108.432 E0.01361
G1 X111.009 Y107.995 E0.01377
G1 X111.058 Y107.528 E0.01472
G1 X111.160 Y107.148 E0.01232
G1 X111.344 Y106.755 E0.01361
G1 X111.592 Y106.399 E0.01361
G1 X111.899 Y106.092 E0.01361
G1 X112.255 Y105.844 E0.01361
G1 X112.653 Y105.658 E0.01377
G1 X113.109 Y105.544 E0.01472
G1 X113.500 Y105.510 E0.01232
G1 X113.932 Y105.548 E0.01361
G1 X114.352 Y105.660 E0.01361
G1 X114.745 Y105.844 E0.01361
G1 X115.101 Y106.092 E0.01361
G1 X115.408 Y106.399 E0.01361
G1 X115.656 Y106.755 E0.01361
G1 X115.840 Y107.148 E0.01361
G1 X115.952 Y107.568 E0.01361
G1 X115.985 Y107.940 E0.01173
G1 X115.609 Y107.973 F10800.000
G1 F1200.000
G1 X115.579 Y108.367 E0.01238
G1 X115.484 Y108.722 E0.01154
G1 X115.329 Y109.056 E0.01154
G1 X115.118 Y109.357 E0.01154
G1 X114.857 Y109.618 E0.01154
G1 X114.556 Y109.829 E0.01154
G1 X114.222 Y109.984 E0.01154
G1 X113.867 Y110.079 E0.01154
G1 X113.500 Y110.112 E0.01154
G1 X113.133 Y110.079 E0.01154
G1 X112.778 Y109.984 E0.01154
G1 X112.444 Y109.829 E0.01154
G1 X112.141 Y109.617 E0.01160
G1 X111.861 Y109.326 E0.01265
G1 X111.671 Y109.056 E0.01035
G1 X111.516 Y108.722 E0.01154
G1 X111.421 Y108.367 E0.01154
G1 X111.388 Y107.998 E0.01160
G1 X111.430 Y107.597 E0.01265
G1 X111.516 Y107.278 E0.01035
G1 X111.671 Y106.944 E0.01154
G1 X111.882 Y106.643 E0.01154
G1 X112.143 Y106.382 E0.01154
G1 X112.444 Y106.171 E0.01154
G1 X112.779 Y106.015 E0.01160
G1 X113.171 Y105.917 E0.01265
G1 X113.500 Y105.888 E0.01035
G1 X113.867 Y105.921 E0.01154
G1 X114.222 Y106.016 E0.01154
G1 X114.556 Y106.171 E0.01154
G1 X114.857 Y106.382 E0.01154
G1 X115.118 Y106.643 E0.01154
G1 X115.329 Y106.944 E0.01154
G1 X115.484 Y107.278 E0.01154
G1 X115.579 Y107.633 E0.01154
G1 X115.604 Y107.913 E0.00881
G1 X115.953 Y108.167 F10800.000
G1 F8640.000
G1 X115.579 Y108.367 E-0.10483
G1 X115.484 Y108.722 E-0.08499
G1 X115.329 Y109.056 E-0.08499
G1 X115.118 Y109.357 E-0.08499
G1 X114.857 Y109.618 E-0.08499
G1 X114.556 Y109.829 E-0.08499
G1 X114.222 Y109.984 E-0.08499
G1 X113.867 Y110.079 E-0.08499
G1 X113.607 Y110.102 E-0.06025
G1 E-0.04000 F2100.00000
G1 Z0.800 F10800.000
G1 X108.287 Y113.213
G1 Z0.200
G1 E0.80000 F2100.00000
G1 F1200.000
G1 X108.287 Y96.787 E0.51502
G1 X141.713 Y96.787 E1.04804
G1 X141.713 Y113.213 E0.51502
G1 X108.347 Y113.213 E1.04616
G1 X107.910 Y113.590 F10800.000
G1 F1200.000
G1 X107.910 Y96.410 E0.53867
G1 X142.090 Y96.410 E1.07169
G1 X142.090 Y113.590 E0.53867
G1 X107.970 Y113.590 E1.06981
G1 X108.054 Y113.217 F10800.000
G1 F8640.000
G1 X107.959 Y110.299 E-0.76000
G1 E-0.04000 F2100.00000
G1 Z0.800 F10800.000
G1 X109.169 Y113.100
G1 Z0.200
G1 E0.80000 F2100.00000
G1 F1200.000
G1 X108.570 Y112.501 E0.02679
G1 X108.570 Y111.963 E0.01700
G1 X109.537 Y112.930 E0.04325
G1 X110.075 Y112.930 E0.01700
G1 X108.570 Y111.425 E0.06730
G1 X108.570 Y110.887 E0.01700
G1 X110.613 Y112.930 E0.09135
G1 X111.150 Y112.930 E0.01700
G1 X108.570 Y110.350 E0.11539
G1 X108.570 Y109.812 E0.01700
G1 X111.688 Y112.930 E0.13944
G1 X112.226 Y112.930 E0.01700
G1 X108.570 Y109.274 E0.16349
G1 X108.570 Y108.736 E0.01700
G1 X112.764 Y112.930 E0.18753
G1 X113.302 Y112.930 E0.01700
G1 X108.570 Y108.198 E0.21158
G1 X108.570 Y107.661 E0.01700
G1 X114.009 Y113.100 E0.24321
G1 F8640.000
G1 X111.682 Y110.772 E-0.76000
G1 E-0.04000 F2100.00000
G1 Z0.800 F10800.000
G1 X122.525 Y109.785
G1 Z0.200
G1 E0.80000 F2100.00000
G1 F1200.000
G1 X109.810 Y97.070 E0.56857
G1 X110.348 Y97.070 E0.01700
G1 X122.230 Y108.952 E0.53131
G1 X122.282 Y108.466 E0.01544
G1 X110.886 Y97.070 E0.50960
G1 X111.423 Y97.070 E0.01700
G1 X122.397 Y108.044 E0.49069
G1 X122.568 Y107.677 E0.01279
G1 X111.961 Y97.070 E0.47429
G1 X112.499 Y97.070 E0.01700
G1 X122.781 Y107.352 E0.45976
G1 X122.875 Y107.217 E0.00520
G1 X123.029 Y107.063 E0.00690
G1 X113.037 Y97.070 E0.44683
G1 X113.574 Y97.070 E0.01700
G1 X123.313 Y106.808 E0.43545
G1 X123.631 Y106.589 E0.01223
G1 X114.112 Y97.070 E0.42566
G1 X114.650 Y97.070 E0.01700
G1 X123.998 Y106.418 E0.41801
G1 X124.418 Y106.300 E0.01379
G1 X115.188 Y97.070 E0.41274
G1 X115.725 Y97.070 E0.01700
G1 X124.891 Y106.236 E0.40985
G1 X125.000 Y106.226 E0.00346
G1 X125.460 Y106.266 E0.01459
G1 X116.263 Y97.070 E0.41122
G1 X116.801 Y97.070 E0.01700
G1 X132.661 Y112.930 E0.70920
G1 X133.199 Y112.930 E0.01700
G1 X117.339 Y97.070 E0.70920
G1 X117.876 Y97.070 E0.01700
G1 X133.737 Y112.930 E0.70920
G1 X134.274 Y112.930 E0.01700
G1 X118.414 Y97.070 E0.70920
G1 X118.952 Y97.070 E0.01700
G1 X134.812 Y112.930 E0.70920
G1 X135.350 Y112.930 E0.01700
G1 X119.490 Y97.070 E0.70920
G1 X120.028 Y97.070 E0.01700
G1 X135.888 Y112.930 E0.70920
G1 X136.426 Y112.930 E0.01700
G1 X120.565 Y97.070 E0.70920
G1 X121.103 Y97.070 E0.01700
G1 X137.133 Y113.100 E0.71679
G1 F8640.000
G1 X134.806 Y110.772 E-0.76000
G1 E-0.04000 F2100.00000
G1 Z0.800 F10800.000
G1 X132.293 Y113.100
G1 Z0.200
G1 E0.80000 F2100.00000
G1 F1200.000
G1 X127.734 Y108.540 E0.20387
G1 X127.774 Y109.000 E0.01459
G1 X127.764 Y109.109 E0.00346
G1 X131.586 Y112.930 E0.17087
G1 X131.048 Y112.930 E0.01700
G1 X127.704 Y109.586 E0.14953
G1 X127.582 Y110.002 E0.01370
G1 X130.510 Y112.930 E0.13094
G1 X129.972 Y112.930 E0.01700
G1 X127.411 Y110.369 E0.11454
G1 X127.192 Y110.687 E0.01223
G1 X129.435 Y112.930 E0.10028
G1 X128.897 Y112.930 E0.01700
G1 X126.937 Y110.971 E0.08762
G1 X126.783 Y111.125 E0.00690
G1 X126.648 Y111.219 E0.00520
G1 X128.359 Y112.930 E0.07650
G1 X127.821 Y112.930 E0.01700
G1 X126.323 Y111.432 E0.06699
G1 X125.956 Y111.603 E0.01279
G1 X127.284 Y112.930 E0.05934
G1 X126.746 Y112.930 E0.01700
G1 X125.534 Y111.718 E0.05420
G1 X125.048 Y111.770 E0.01545
G1 X126.208 Y112.930 E0.05188
G1 X125.670 Y112.930 E0.01700
G1 X124.215 Y111.475 E0.06507
G1 F8640.000
G1 X125.670 Y112.930 E-0.47521
G1 X126.208 Y112.930 E-0.12417
G1 X125.716 Y112.438 E-0.16062
G1 E-0.04000 F2100.00000
G1 Z0.800 F10800.000
G1 X125.302 Y113.100
G1 Z0.200
G1 E0.80000 F2100.00000
G1 F1200.000
G1 X109.272 Y97.070 E0.71679
M73 P5 R17
G1 X108.734 Y97.070 E0.01700
G1 X124.595 Y112.930 E0.70920
G1 X124.057 Y112.930 E0.01700
G1 X108.570 Y97.443 E0.69251
G1 X108.570 Y97.981 E0.01700
G1 X123.519 Y112.930 E0.66846
G1 X122.981 Y112.930 E0.01700
G1 X108.570 Y98.519 E0.64442
G1 X108.570 Y99.056 E0.01700
G1 X122.444 Y112.930 E0.62037
G1 X121.906 Y112.930 E0.01700
G1 X116.136 Y107.160 E0.25801
G1 X116.232 Y107.518 E0.01172
G1 X116.258 Y107.820 E0.00958
G1 X121.368 Y112.930 E0.22849
G1 X120.830 Y112.930 E0.01700
G1 X116.244 Y108.344 E0.20508
G1 X116.232 Y108.482 E0.00438
G1 X116.150 Y108.787 E0.01001
G1 X120.293 Y112.930 E0.18524
G1 X119.755 Y112.930 E0.01700
G1 X116.001 Y109.176 E0.16787
G1 X115.902 Y109.387 E0.00736
