; generated by PrusaSlicer 2.2.0+win64 on 2020-11-27 at 07:01:34 UTC

; 

; external perimeters extrusion width = 0.45mm
; perimeters extrusion width = 0.45mm
; infill extrusion width = 0.45mm
; solid infill extrusion width = 0.45mm
; top infill extrusion width = 0.40mm
; first layer extrusion width = 0.42mm

M73 P0 R45
M201 X9000 Y9000 Z500 E10000 ; sets maximum accelerations, mm/sec^2
M203 X500 Y500 Z12 E120 ; sets maximum feedrates, mm/sec
M204 P2000 R1500 T2000 ; sets acceleration (P, T) and retract acceleration (R), mm/sec^2
M205 X10.00 Y10.00 Z0.20 E2.50 ; sets the jerk limits, mm/sec
M205 S0 T0 ; sets the minimum extruding and travel feed rate, mm/sec
M107
M862.3 P "MK2S" ; printer model check
M862.1 P0.4 ; nozzle diameter check
M115 U3.2.3 ; tell printer latest fw version
G90 ; use absolute coordinates
M83 ; extruder relative mode
M204 S2000 T1500 ; MK2 firmware only supports the old M204 format
M104 S265 ; set extruder temp
M140 S100 ; set bed temp
M190 S100 ; wait for bed temp
M109 S265 ; wait for extruder temp
G28 W ; home all without mesh bed level
G80 ; mesh bed leveling
G1 Y-3.0 F1000.0 ; go outside print area
G92 E0.0
G1 X60.0 E9.0  F1000.0 ; intro line
M73 P0 R45
G1 X100.0 E12.5 F1000.0 ; intro line
G92 E0.0
G21 ; set units to millimeters
G90 ; use absolute coordinates
M83 ; use relative distances for extrusion
M900 K0.04 ; Filament gcode LA 1.5
M900 K20 ; Filament gcode LA 1.0
;BEFORE_LAYER_CHANGE
G92 E0.0
;0.2


G1 E-0.80000 F2100.00000
G1 Z0.600 F10800.000
;AFTER_LAYER_CHANGE
;0.2
G1 X145.914 Y124.194
G1 Z0.200
G1 E0.80000 F2100.00000
M204 S1000
G1 F1200.000
G1 X145.000 Y124.377 E0.02922
G1 X104.962 Y124.377 E1.25537
G1 X104.080 Y124.192 E0.02825
G1 X103.328 Y123.689 E0.02837
G1 X102.816 Y122.938 E0.02849
G1 X102.624 Y122.054 E0.02837
G1 X102.624 Y91.924 E0.94472
G1 X102.808 Y90.486 E0.04545
G1 X103.113 Y89.549 E0.03091
G1 X103.850 Y88.244 E0.04697
G1 X104.483 Y87.498 E0.03067
G1 X105.239 Y86.854 E0.03115
G1 X106.539 Y86.117 E0.04685
G1 X107.476 Y85.810 E0.03091
G1 X108.879 Y85.626 E0.04436
G1 X141.004 Y85.623 E1.00726
G1 X141.965 Y85.699 E0.03022
G1 X143.324 Y86.064 E0.04412
G1 X144.192 Y86.479 E0.03020
G1 X144.998 Y87.035 E0.03067
G1 X145.978 Y88.018 E0.04352
G1 X146.532 Y88.829 E0.03080
G1 X146.946 Y89.703 E0.03032
G1 X147.317 Y91.127 E0.04614
G1 X147.377 Y91.997 E0.02735
G1 X147.377 Y122.046 E0.94216
G1 X147.189 Y122.927 E0.02825
G1 X146.689 Y123.672 E0.02813
G1 X145.964 Y124.161 E0.02743
G1 F8640.000
G1 X145.000 Y124.377 E-0.22805
G1 X142.696 Y124.377 E-0.53195
G1 E-0.04000 F2100.00000
G1 Z0.800 F10800.000
G1 X128.516 Y101.723
G1 Z0.200
G1 E0.80000 F2100.00000
G1 F1200.000
G1 X127.944 Y102.100 E0.02147
G1 X127.332 Y102.407 E0.02147
G1 X126.689 Y102.641 E0.02147
G1 X126.023 Y102.799 E0.02147
G1 X125.342 Y102.878 E0.02147
G1 X124.658 Y102.878 E0.02147
G1 X124.322 Y102.839 E0.01058
G1 X123.977 Y102.799 E0.01089
G1 X123.311 Y102.641 E0.02147
G1 X122.668 Y102.407 E0.02147
G1 X122.056 Y102.100 E0.02147
G1 X121.484 Y101.723 E0.02147
G1 X120.959 Y101.283 E0.02147
G1 X120.489 Y100.785 E0.02147
G1 X120.080 Y100.236 E0.02147
G1 X119.738 Y99.643 E0.02147
G1 X119.467 Y99.014 E0.02147
G1 X119.270 Y98.358 E0.02147
G1 X119.151 Y97.684 E0.02147
G1 X119.112 Y97.000 E0.02147
G1 X119.151 Y96.316 E0.02147
G1 X119.270 Y95.642 E0.02147
G1 X119.467 Y94.986 E0.02147
G1 X119.738 Y94.357 E0.02147
G1 X120.080 Y93.764 E0.02147
G1 X120.489 Y93.215 E0.02147
G1 X120.959 Y92.717 E0.02147
G1 X121.484 Y92.277 E0.02147
G1 X122.056 Y91.900 E0.02147
G1 X122.668 Y91.593 E0.02147
G1 X123.311 Y91.359 E0.02147
G1 X123.977 Y91.201 E0.02147
G1 X124.658 Y91.122 E0.02147
G1 X125.342 Y91.122 E0.02147
G1 X126.023 Y91.201 E0.02147
G1 X126.689 Y91.359 E0.02147
G1 X127.332 Y91.593 E0.02147
G1 X127.944 Y91.900 E0.02147
G1 X128.516 Y92.277 E0.02147
G1 X129.041 Y92.717 E0.02147
G1 X129.511 Y93.215 E0.02147
G1 X129.920 Y93.764 E0.02147
G1 X130.262 Y94.357 E0.02147
G1 X130.533 Y94.986 E0.02147
G1 X130.730 Y95.642 E0.02147
G1 X130.849 Y96.316 E0.02147
G1 X130.869 Y96.658 E0.01074
G1 X130.888 Y97.000 E0.01074
G1 X130.849 Y97.684 E0.02147
G1 X130.730 Y98.358 E0.02147
G1 X130.533 Y99.014 E0.02147
G1 X130.262 Y99.643 E0.02147
G1 X129.920 Y100.236 E0.02147
G1 X129.511 Y100.785 E0.02147
G1 X129.041 Y101.283 E0.02147
G1 X128.562 Y101.685 E0.01959
G1 X128.320 Y101.396 F10800.000
G1 F1200.000
G1 X127.755 Y101.772 E0.02128
G1 X127.183 Y102.060 E0.02009
G1 X126.580 Y102.279 E0.02009
G1 X125.957 Y102.427 E0.02009
G1 X125.320 Y102.501 E0.02009
G1 X124.680 Y102.501 E0.02009
G1 X124.043 Y102.427 E0.02009
G1 X123.420 Y102.279 E0.02009
G1 X122.817 Y102.060 E0.02009
G1 X122.245 Y101.772 E0.02009
G1 X121.709 Y101.420 E0.02009
G1 X121.218 Y101.008 E0.02009
G1 X120.779 Y100.542 E0.02009
G1 X120.396 Y100.028 E0.02009
G1 X120.075 Y99.473 E0.02009
G1 X119.822 Y98.885 E0.02009
G1 X119.638 Y98.271 E0.02009
G1 X119.527 Y97.640 E0.02009
G1 X119.489 Y97.000 E0.02009
G1 X119.527 Y96.360 E0.02009
G1 X119.638 Y95.729 E0.02009
G1 X119.822 Y95.115 E0.02009
G1 X120.075 Y94.527 E0.02009
G1 X120.396 Y93.972 E0.02009
G1 X120.779 Y93.458 E0.02009
G1 X121.218 Y92.992 E0.02009
G1 X121.709 Y92.580 E0.02009
G1 X122.245 Y92.228 E0.02009
G1 X122.817 Y91.940 E0.02009
G1 X123.420 Y91.721 E0.02009
G1 X124.043 Y91.573 E0.02009
G1 X124.680 Y91.499 E0.02009
G1 X125.320 Y91.499 E0.02009
G1 X125.957 Y91.573 E0.02009
G1 X126.580 Y91.721 E0.02009
G1 X127.183 Y91.940 E0.02009
G1 X127.755 Y92.228 E0.02009
G1 X128.291 Y92.580 E0.02009
G1 X128.782 Y92.992 E0.02009
G1 X129.221 Y93.458 E0.02009
G1 X129.604 Y93.972 E0.02009
G1 X129.925 Y94.527 E0.02009
G1 X130.178 Y95.115 E0.02009
G1 X130.362 Y95.729 E0.02009
G1 X130.473 Y96.360 E0.02009
G1 X130.492 Y96.680 E0.01005
G1 X130.511 Y97.000 E0.01005
G1 X130.473 Y97.640 E0.02009
G1 X130.362 Y98.271 E0.02009
G1 X130.178 Y98.885 E0.02009
G1 X129.925 Y99.473 E0.02009
G1 X129.604 Y100.028 E0.02009
G1 X129.221 Y100.542 E0.02009
G1 X128.782 Y101.008 E0.02009
G1 X128.366 Y101.357 E0.01702
G1 X128.368 Y101.793 F10800.000
G1 F8640.000
G1 X127.755 Y101.772 E-0.17047
G1 X127.183 Y102.060 E-0.14797
G1 X126.580 Y102.279 E-0.14797
G1 X125.957 Y102.427 E-0.14797
G1 X125.331 Y102.500 E-0.14561
G1 E-0.04000 F2100.00000
G1 Z0.800 F10800.000
G1 X144.213 Y121.213
G1 Z0.200
G1 E0.80000 F2100.00000
G1 F1200.000
G1 X105.787 Y121.213 E1.20482
G1 X105.787 Y92.026 E0.91514
G1 X105.816 Y91.581 E0.01398
G1 X105.898 Y91.169 E0.01317
G1 X106.033 Y90.771 E0.01317
G1 X106.219 Y90.394 E0.01317
G1 X106.452 Y90.045 E0.01317
G1 X106.729 Y89.729 E0.01317
G1 X107.045 Y89.452 E0.01317
G1 X107.394 Y89.219 E0.01317
G1 X107.771 Y89.033 E0.01317
G1 X108.169 Y88.898 E0.01317
G1 X108.581 Y88.816 E0.01317
G1 X109.026 Y88.787 E0.01398
G1 X140.976 Y88.787 E1.00179
G1 X141.419 Y88.816 E0.01391
G1 X141.831 Y88.898 E0.01317
G1 X142.229 Y89.033 E0.01317
G1 X142.606 Y89.219 E0.01317
G1 X142.955 Y89.452 E0.01317
G1 X143.271 Y89.729 E0.01317
G1 X143.548 Y90.045 E0.01317
G1 X143.781 Y90.394 E0.01317
G1 X143.967 Y90.771 E0.01317
G1 X144.102 Y91.169 E0.01317
G1 X144.184 Y91.581 E0.01317
G1 X144.213 Y92.026 E0.01398
G1 X144.213 Y121.153 E0.91326
G1 X144.590 Y121.590 F10800.000
G1 F1200.000
G1 X105.410 Y121.590 E1.22846
G1 X105.410 Y92.013 E0.92735
G1 X105.442 Y91.532 E0.01514
G1 X105.533 Y91.071 E0.01472
G1 X105.684 Y90.627 E0.01472
G1 X105.892 Y90.205 E0.01472
G1 X106.153 Y89.815 E0.01472
G1 X106.462 Y89.462 E0.01472
G1 X106.815 Y89.153 E0.01472
G1 X107.205 Y88.892 E0.01472
G1 X107.627 Y88.684 E0.01472
G1 X108.071 Y88.533 E0.01472
G1 X108.532 Y88.442 E0.01472
G1 X109.013 Y88.410 E0.01514
G1 X140.989 Y88.410 E1.00256
G1 X141.468 Y88.442 E0.01507
G1 X141.929 Y88.533 E0.01472
G1 X142.373 Y88.684 E0.01472
G1 X142.795 Y88.892 E0.01472
G1 X143.185 Y89.153 E0.01472
G1 X143.538 Y89.462 E0.01472
G1 X143.847 Y89.815 E0.01472
G1 X144.108 Y90.205 E0.01472
G1 X144.316 Y90.627 E0.01472
G1 X144.467 Y91.071 E0.01472
G1 X144.558 Y91.532 E0.01472
G1 X144.590 Y92.013 E0.01514
G1 X144.590 Y121.530 E0.92547
G1 X144.244 Y121.390 F10800.000
G1 F8640.000
G1 X141.299 Y121.535 E-0.76000
G1 E-0.04000 F2100.00000
G1 Z0.800 F10800.000
G1 X122.176 Y102.287
G1 Z0.200
G1 E0.80000 F2100.00000
G1 F1200.000
G1 X140.820 Y120.930 E0.83137
G1 X141.356 Y120.930 E0.01691
G1 X123.372 Y102.946 E0.80196
G1 X124.055 Y103.093 E0.02203
G1 X141.892 Y120.930 E0.79542
G1 X142.429 Y120.930 E0.01691
G1 X124.660 Y103.161 E0.79236
G1 X125.196 Y103.161 E0.01691
G1 X142.965 Y120.930 E0.79236
G1 X143.501 Y120.930 E0.01691
G1 X125.693 Y103.122 E0.79410
G1 X126.164 Y103.056 E0.01497
G1 X143.930 Y120.823 E0.79226
G1 X143.930 Y120.286 E0.01691
G1 X126.597 Y102.953 E0.77293
G1 X127.006 Y102.826 E0.01351
G1 X143.930 Y119.750 E0.75468
G1 X143.930 Y119.214 E0.01691
G1 X127.400 Y102.683 E0.73714
G1 X127.761 Y102.508 E0.01266
G1 X143.930 Y118.678 E0.72104
G1 X143.930 Y118.141 E0.01691
G1 X128.115 Y102.326 E0.70525
G1 X128.438 Y102.113 E0.01221
G1 X143.930 Y117.605 E0.69083
G1 X143.930 Y117.069 E0.01691
G1 X128.754 Y101.893 E0.67674
G1 X129.046 Y101.648 E0.01200
G1 X143.930 Y116.532 E0.66373
G1 X143.930 Y115.996 E0.01691
G1 X129.326 Y101.392 E0.65122
G1 X129.587 Y101.117 E0.01196
G1 X143.930 Y115.460 E0.63961
G1 X143.930 Y114.924 E0.01691
G1 X129.833 Y100.826 E0.62864
G1 X130.062 Y100.519 E0.01208
G1 X143.930 Y114.387 E0.61844
G1 X143.930 Y113.851 E0.01691
G1 X130.271 Y100.192 E0.60908
G1 X130.468 Y99.852 E0.01238
G1 X143.930 Y113.315 E0.60033
G1 X143.930 Y112.778 E0.01691
G1 X130.638 Y99.486 E0.59275
G1 X130.799 Y99.111 E0.01287
G1 X143.930 Y112.242 E0.58554
G1 X143.930 Y111.706 E0.01691
G1 X130.923 Y98.699 E0.58003
G1 X131.032 Y98.272 E0.01390
G1 X143.930 Y111.170 E0.57516
G1 X143.930 Y110.633 E0.01691
G1 X131.112 Y97.816 E0.57157
M73 P2 R44
G1 X131.153 Y97.320 E0.01568
G1 X143.930 Y110.097 E0.56976
G1 X143.930 Y109.561 E0.01691
G1 X131.159 Y96.790 E0.56948
G1 X131.117 Y96.212 E0.01829
G1 X143.930 Y109.024 E0.57136
G1 X143.930 Y108.488 E0.01691
G1 X131.000 Y95.558 E0.57661
G1 X130.799 Y94.889 E0.02200
G1 X130.748 Y94.770 E0.00410
G1 X143.930 Y107.952 E0.58783
G1 X143.930 Y107.416 E0.01691
G1 X125.585 Y89.070 E0.81808
G1 X126.121 Y89.070 E0.01691
G1 X143.930 Y106.879 E0.79416
G1 X143.930 Y106.343 E0.01691
G1 X126.657 Y89.070 E0.77025
G1 X127.193 Y89.070 E0.01691
G1 X143.930 Y105.807 E0.74633
G1 X143.930 Y105.270 E0.01691
G1 X127.730 Y89.070 E0.72242
G1 X128.266 Y89.070 E0.01691
G1 X143.930 Y104.734 E0.69851
G1 X143.930 Y104.198 E0.01691
G1 X128.802 Y89.070 E0.67459
G1 X129.339 Y89.070 E0.01691
G1 X143.930 Y103.662 E0.65068
G1 X143.930 Y103.125 E0.01691
G1 X129.875 Y89.070 E0.62676
G1 X130.411 Y89.070 E0.01691
G1 X143.930 Y102.589 E0.60285
G1 X143.930 Y102.053 E0.01691
G1 X130.947 Y89.070 E0.57893
G1 X131.484 Y89.070 E0.01691
G1 X143.930 Y101.516 E0.55502
G1 X143.930 Y100.980 E0.01691
G1 X132.020 Y89.070 E0.53110
G1 X132.556 Y89.070 E0.01691
G1 X143.930 Y100.444 E0.50719
G1 X143.930 Y99.907 E0.01691
G1 X133.093 Y89.070 E0.48327
G1 X133.629 Y89.070 E0.01691
G1 X143.930 Y99.371 E0.45936
G1 X143.930 Y98.835 E0.01691
G1 X134.165 Y89.070 E0.43544
G1 X134.702 Y89.070 E0.01691
G1 X143.930 Y98.299 E0.41153
G1 X143.930 Y97.762 E0.01691
G1 X135.238 Y89.070 E0.38761
G1 X135.774 Y89.070 E0.01691
G1 X143.930 Y97.226 E0.36370
G1 X143.930 Y96.690 E0.01691
G1 X136.310 Y89.070 E0.33978
G1 X136.847 Y89.070 E0.01691
G1 X143.930 Y96.153 E0.31587
G1 X143.930 Y95.617 E0.01691
G1 X137.383 Y89.070 E0.29196
G1 X137.919 Y89.070 E0.01691
G1 X143.930 Y95.081 E0.26804
G1 X143.930 Y94.545 E0.01691
G1 X138.456 Y89.070 E0.24413
G1 X138.992 Y89.070 E0.01691
G1 X143.930 Y94.008 E0.22021
G1 X143.930 Y93.472 E0.01691
G1 X139.528 Y89.070 E0.19630
G1 X140.064 Y89.070 E0.01691
G1 X143.930 Y92.936 E0.17238
G1 X143.930 Y92.399 E0.01691
G1 X140.601 Y89.070 E0.14847
G1 X141.149 Y89.082 E0.01729
G1 X143.918 Y91.851 E0.12348
G1 X143.903 Y91.618 E0.00737
G1 X143.819 Y91.216 E0.01295
G1 X141.784 Y89.181 E0.09074
G1 X142.120 Y89.295 E0.01120
G1 X142.464 Y89.464 E0.01208
G1 X142.782 Y89.677 E0.01208
G1 X143.062 Y89.923 E0.01173
G1 X143.773 Y90.633 E0.03168
G1 F8640.000
G1 X143.062 Y89.923 E-0.23201
G1 X142.782 Y89.677 E-0.08591
G1 X142.464 Y89.464 E-0.08843
G1 X142.120 Y89.295 E-0.08843
G1 X141.784 Y89.181 E-0.08200
G1 X142.345 Y89.742 E-0.18323
G1 E-0.04000 F2100.00000
G1 Z0.800 F10800.000
G1 X127.558 Y91.580
G1 Z0.200
G1 E0.80000 F2100.00000
G1 F1200.000
G1 X125.048 Y89.070 E0.11194
G1 X124.512 Y89.070 E0.01691
G1 X126.455 Y91.013 E0.08664
G1 X126.072 Y90.922 E0.01242
G1 X125.796 Y90.890 E0.00877
G1 X123.976 Y89.070 E0.08115
G1 X123.439 Y89.070 E0.01691
G1 X125.208 Y90.839 E0.07888
G1 X124.672 Y90.839 E0.01691
G1 X122.903 Y89.070 E0.07888
G1 X122.367 Y89.070 E0.01691
G1 X124.189 Y90.892 E0.08124
G1 X123.928 Y90.922 E0.00826
G1 X123.730 Y90.969 E0.00644
G1 X121.830 Y89.070 E0.08469
G1 X121.294 Y89.070 E0.01691
G1 X123.296 Y91.072 E0.08927
G1 X122.897 Y91.209 E0.01331
G1 X120.758 Y89.070 E0.09538
G1 X120.222 Y89.070 E0.01691
G1 X122.508 Y91.357 E0.10197
G1 X122.151 Y91.536 E0.01260
G1 X119.685 Y89.070 E0.10997
G1 X119.149 Y89.070 E0.01691
G1 X121.806 Y91.727 E0.11847
G1 X121.482 Y91.939 E0.01221
G1 X118.613 Y89.070 E0.12795
G1 X118.076 Y89.070 E0.01691
G1 X121.174 Y92.167 E0.13813
G1 X120.882 Y92.412 E0.01200
G1 X117.540 Y89.070 E0.14904
G1 X117.004 Y89.070 E0.01691
G1 X120.609 Y92.675 E0.16078
G1 X120.349 Y92.951 E0.01196
G1 X116.468 Y89.070 E0.17309
G1 X115.931 Y89.070 E0.01691
G1 X120.111 Y93.250 E0.18638
G1 X119.882 Y93.557 E0.01208
G1 X115.395 Y89.070 E0.20009
G1 X114.859 Y89.070 E0.01691
G1 X119.680 Y93.892 E0.21501
G1 X119.484 Y94.232 E0.01238
G1 X114.322 Y89.070 E0.23018
G1 X113.786 Y89.070 E0.01691
G1 X119.323 Y94.606 E0.24688
G1 X119.170 Y94.990 E0.01303
G1 X113.250 Y89.070 E0.26401
G1 X112.714 Y89.070 E0.01691
G1 X119.047 Y95.403 E0.28241
G1 X118.995 Y95.577 E0.00572
G1 X118.948 Y95.841 E0.00845
G1 X112.177 Y89.070 E0.30193
G1 X111.641 Y89.070 E0.01691
G1 X118.869 Y96.298 E0.32233
G1 X118.840 Y96.805 E0.01601
G1 X111.105 Y89.070 E0.34493
G1 X110.568 Y89.070 E0.01691
G1 X118.849 Y97.350 E0.36924
G1 X118.870 Y97.716 E0.01157
G1 X118.911 Y97.949 E0.00744
G1 X110.032 Y89.070 E0.39594
G1 X109.496 Y89.070 E0.01691
G1 X119.057 Y98.631 E0.42635
G1 X119.201 Y99.111 E0.01580
G1 X119.352 Y99.463 E0.01208
G1 X108.964 Y89.075 E0.46323
G1 X108.618 Y89.097 E0.01094
G1 X108.478 Y89.125 E0.00449
G1 X140.283 Y120.930 E1.41828
G1 X139.747 Y120.930 E0.01691
G1 X108.053 Y89.236 E1.41332
G1 X107.880 Y89.295 E0.00578
G1 X107.676 Y89.395 E0.00715
G1 X139.211 Y120.930 E1.40622
G1 X138.675 Y120.930 E0.01691
G1 X107.340 Y89.595 E1.39729
G1 X107.041 Y89.832 E0.01204
G1 X138.138 Y120.930 E1.38673
G1 X137.602 Y120.930 E0.01691
G1 X106.776 Y90.105 E1.37460
G1 X106.547 Y90.412 E0.01208
G1 X137.066 Y120.930 E1.36089
G1 X136.529 Y120.930 E0.01691
G1 X106.356 Y90.756 E1.34552
G1 X106.206 Y91.143 E0.01307
G1 X135.993 Y120.930 E1.32830
G1 X135.457 Y120.930 E0.01691
G1 X106.105 Y91.578 E1.30887
M73 P4 R43
G1 X106.070 Y92.079 E0.01584
G1 X134.921 Y120.930 E1.28653
G1 X134.384 Y120.930 E0.01691
G1 X106.070 Y92.616 E1.26261
G1 X106.070 Y93.152 E0.01691
G1 X133.848 Y120.930 E1.23870
G1 X133.312 Y120.930 E0.01691
G1 X106.070 Y93.688 E1.21478
G1 X106.070 Y94.225 E0.01691
G1 X132.775 Y120.930 E1.19087
G1 X132.239 Y120.930 E0.01691
G1 X106.070 Y94.761 E1.16696
G1 X106.070 Y95.297 E0.01691
G1 X131.703 Y120.930 E1.14304
G1 X131.167 Y120.930 E0.01691
G1 X106.070 Y95.833 E1.11913
G1 X106.070 Y96.370 E0.01691
G1 X130.630 Y120.930 E1.09521
G1 X130.094 Y120.930 E0.01691
G1 X106.070 Y96.906 E1.07130
G1 X106.070 Y97.442 E0.01691
G1 X129.558 Y120.930 E1.04738
G1 X129.021 Y120.930 E0.01691
G1 X106.070 Y97.979 E1.02347
G1 X106.070 Y98.515 E0.01691
G1 X128.485 Y120.930 E0.99955
G1 X127.949 Y120.930 E0.01691
G1 X106.070 Y99.051 E0.97564
G1 X106.070 Y99.588 E0.01691
G1 X127.412 Y120.930 E0.95172
G1 X126.876 Y120.930 E0.01691
G1 X106.070 Y100.124 E0.92781
G1 X106.070 Y100.660 E0.01691
G1 X126.340 Y120.930 E0.90389
G1 X125.804 Y120.930 E0.01691
G1 X106.070 Y101.196 E0.87998
G1 X106.070 Y101.733 E0.01691
G1 X125.267 Y120.930 E0.85607
