; generated by PrusaSlicer 2.4.1+win64 on 2022-04-15 at 11:30:50 UTC

; 

; external perimeters extrusion width = 0.45mm
; perimeters extrusion width = 0.45mm
; infill extrusion width = 0.45mm
; solid infill extrusion width = 0.45mm
; top infill extrusion width = 0.40mm
; first layer extrusion width = 0.42mm

; external perimeters extrusion width = 0.45mm
; perimeters extrusion width = 0.45mm
; infill extrusion width = 0.45mm
; solid infill extrusion width = 0.45mm
; top infill extrusion width = 0.40mm
; first layer extrusion width = 0.42mm

M73 P0 R55
M107
;TYPE:Custom
M862.3 P "MK2S" ; printer model check
M862.1 P0.4 ; nozzle diameter check
M115 U3.2.3 ; tell printer latest fw version
G90 ; use absolute coordinates
M83 ; extruder relative mode
M204 S2000 T1500 ; MK2 firmware only supports the old M204 format
M104 S215 ; set extruder temp
M140 S60 ; set bed temp
M190 S60 ; wait for bed temp
M109 S215 ; wait for extruder temp
G28 W ; home all without mesh bed level
G80 ; mesh bed leveling
G1 Y-3.0 F1000.0 ; go outside print area
G92 E0.0
G1 X60.0 E9.0  F1000.0 ; intro line
G1 X100.0 E12.5 F1000.0 ; intro line
G92 E0.0
G21 ; set units to millimeters
G90 ; use absolute coordinates
M83 ; use relative distances for extrusion
M900 K0.05 ; Filament gcode LA 1.5
M900 K30 ; Filament gcode LA 1.0
M107
;LAYER_CHANGE
;Z:0.2
;HEIGHT:0.2
;BEFORE_LAYER_CHANGE
G92 E0.0
;0.2


G1 E-.8 F2100
G1 Z.4 F10800
;AFTER_LAYER_CHANGE
;0.2
G1 X110.954 Y72.103
G1 Z.2
G1 E.8 F2100
M204 S1000
;TYPE:Skirt/Brim
;WIDTH:0.42
G1 F1200
G1 X112.007 Y71.359 E.04042
G1 X136.407 Y62.719 E.81159
G1 X137.2 Y62.583 E.02524
G1 X140.2 Y62.583 E.09406
G1 X141.507 Y62.974 E.04278
G1 X142.383 Y64.02 E.04278
G1 X142.563 Y64.703 E.02213
G1 X145.138 Y88.348 E.74577
G1 X145.152 Y121.605 E1.04276
G1 X142.563 Y145.3 E.74734
G1 X142.031 Y146.556 E.04278
G1 X140.896 Y147.313 E.04278
G1 X140.2 Y147.417 E.02206
G1 X137.2 Y147.417 E.09406
G1 X136.407 Y147.281 E.02524
G1 X112.007 Y138.641 E.81159
G1 X110.905 Y137.835 E.04278
G1 X110.435 Y136.635 E.04042
G1 X107.447 Y106.581 E.94696
G1 X107.438 Y103.558 E.0948
G1 X110.435 Y73.365 E.95133
G1 X110.931 Y72.158 E.0409
; printing object DrehHalter.stl id:1 copy 0
;WIPE_START
G1 F8640
G1 X112.007 Y71.359 E-.30945
G1 X113.846 Y70.708 E-.45055
;WIPE_END
G1 E-.04 F2100
G1 Z.6 F10800
G1 X136.239 Y103.278
G1 Z.2
G1 E.8 F2100
;TYPE:Perimeter
G1 F1200
G1 X136.579 Y103.035 E.01312
G1 X136.993 Y102.846 E.01425
G1 X137.435 Y102.739 E.01425
G1 X137.855 Y102.719 E.0132
G1 X138.334 Y102.781 E.01515
G1 X138.768 Y102.931 E.01439
G1 X139.161 Y103.158 E.01425
G1 X139.505 Y103.456 E.01425
G1 X139.786 Y103.813 E.01425
G1 X139.994 Y104.217 E.01425
G1 X140.122 Y104.653 E.01425
G1 X140.165 Y105.105 E.01425
G1 X140.122 Y105.558 E.01425
G1 X139.994 Y105.994 E.01425
G1 X139.786 Y106.398 E.01425
G1 X139.505 Y106.755 E.01425
G1 X139.161 Y107.053 E.01425
G1 X138.768 Y107.28 E.01425
G1 X138.338 Y107.429 E.01425
G1 X137.888 Y107.493 E.01425
G1 X137.435 Y107.472 E.01425
G1 X136.993 Y107.365 E.01425
G1 X136.579 Y107.176 E.01425
G1 X136.209 Y106.912 E.01425
G1 X135.896 Y106.583 E.01425
G1 X135.65 Y106.201 E.01425
G1 X135.481 Y105.779 E.01425
G1 X135.395 Y105.333 E.01425
G1 X135.395 Y104.878 E.01425
G1 X135.481 Y104.432 E.01425
G1 X135.65 Y104.01 E.01425
G1 X135.896 Y103.628 E.01425
G1 X136.193 Y103.316 E.0135
G1 X136.457 Y103.585 F10800
;TYPE:External perimeter
G1 F1200
G1 X136.769 Y103.363 E.01199
G1 X137.117 Y103.204 E.01199
G1 X137.488 Y103.114 E.01199
G1 X137.84 Y103.097 E.01103
G1 X138.248 Y103.15 E.01289
G1 X138.61 Y103.275 E.01204
G1 X138.942 Y103.467 E.01199
G1 X139.231 Y103.717 E.01199
G1 X139.467 Y104.018 E.01199
G1 X139.642 Y104.358 E.01199
G1 X139.75 Y104.725 E.01199
G1 X139.787 Y105.105 E.01199
G1 X139.75 Y105.486 E.01199
G1 X139.642 Y105.853 E.01199
G1 X139.467 Y106.193 E.01199
G1 X139.231 Y106.494 E.01199
G1 X138.942 Y106.744 E.01199
G1 X138.61 Y106.935 E.01199
G1 X138.249 Y107.06 E.01199
G1 X137.87 Y107.115 E.01199
G1 X137.488 Y107.097 E.01199
G1 X137.117 Y107.007 E.01199
G1 X136.769 Y106.848 E.01199
G1 X136.457 Y106.626 E.01199
G1 X136.193 Y106.349 E.01199
G1 X135.987 Y106.027 E.01199
G1 X135.844 Y105.672 E.01199
G1 X135.772 Y105.297 E.01199
G1 X135.772 Y104.914 E.01199
G1 X135.844 Y104.539 E.01199
G1 X135.987 Y104.183 E.01199
G1 X136.193 Y103.862 E.01199
G1 X136.416 Y103.628 E.01011
G1 X136.385 Y103.209 F10800
;WIPE_START
G1 F8640
G1 X136.769 Y103.363 E-.10195
G1 X137.117 Y103.204 E-.08832
G1 X137.488 Y103.114 E-.08832
G1 X137.84 Y103.097 E-.0812
G1 X138.248 Y103.15 E-.09495
G1 X138.61 Y103.275 E-.08868
G1 X138.942 Y103.467 E-.08831
G1 X139.231 Y103.717 E-.08831
G1 X139.338 Y103.853 E-.03995
;WIPE_END
G1 E-.04 F2100
G1 Z.6 F10800
G1 X133.562 Y89.392
G1 Z.2
G1 E.8 F2100
;TYPE:Perimeter
G1 F1200
G1 X141.988 Y89.392 E.26419
G1 X141.988 Y120.818 E.98534
G1 X133.562 Y120.818 E.26419
G1 X133.562 Y89.452 E.98345
G1 X133.185 Y89.015 F10800
;TYPE:External perimeter
G1 F1200
G1 X142.365 Y89.015 E.28783
G1 X142.365 Y121.195 E1.00898
G1 X133.185 Y121.195 E.28783
G1 X133.185 Y89.075 E1.0071
G1 X133.548 Y89.182 F10800
;WIPE_START
G1 F8640
G1 X136.476 Y89.054 E-.76
;WIPE_END
G1 E-.04 F2100
G1 Z.6 F10800
G1 X141.875 Y90.268
G1 Z.2
G1 E.8 F2100
;TYPE:Solid infill
;WIDTH:0.420119
G1 F1200
G1 X141.282 Y89.675 E.0263
G1 X140.748 Y89.675 E.01673
G1 X141.705 Y90.632 E.04243
G1 X141.705 Y91.165 E.01673
G1 X140.215 Y89.675 E.06609
G1 X139.681 Y89.675 E.01673
G1 X141.705 Y91.699 E.08975
G1 X141.705 Y92.232 E.01673
G1 X139.148 Y89.675 E.11341
G1 X138.614 Y89.675 E.01673
G1 X141.705 Y92.766 E.13707
G1 X141.705 Y93.299 E.01673
G1 X138.081 Y89.675 E.16074
G1 X137.548 Y89.675 E.01673
G1 X141.705 Y93.832 E.1844
G1 X141.705 Y94.366 E.01673
G1 X137.014 Y89.675 E.20806
G1 X136.481 Y89.675 E.01673
G1 X141.705 Y94.899 E.23172
G1 X141.705 Y95.433 E.01673
G1 X135.947 Y89.675 E.25538
G1 X135.414 Y89.675 E.01673
G1 X141.705 Y95.966 E.27904
G1 X141.705 Y96.5 E.01673
G1 X134.88 Y89.675 E.3027
G1 X134.347 Y89.675 E.01673
G1 X141.705 Y97.033 E.32636
G1 X141.705 Y97.567 E.01673
G1 X133.845 Y89.706 E.34865
G1 X133.845 Y90.24 E.01673
M73 P1 R55
G1 X141.705 Y98.1 E.34865
G1 X141.705 Y98.633 E.01673
G1 X133.845 Y90.773 E.34865
G1 X133.845 Y91.307 E.01673
G1 X141.705 Y99.167 E.34865
G1 X141.705 Y99.7 E.01673
G1 X133.845 Y91.84 E.34865
G1 X133.845 Y92.373 E.01673
G1 X141.705 Y100.234 E.34865
G1 X141.705 Y100.767 E.01673
G1 X133.845 Y92.907 E.34865
G1 X133.845 Y93.44 E.01673
G1 X141.705 Y101.301 E.34865
G1 X141.705 Y101.834 E.01673
G1 X133.845 Y93.974 E.34865
G1 X133.845 Y94.507 E.01673
G1 X141.705 Y102.367 E.34865
G1 X141.705 Y102.901 E.01673
G1 X133.845 Y95.041 E.34865
G1 X133.845 Y95.574 E.01673
G1 X141.705 Y103.434 E.34865
G1 X141.705 Y103.968 E.01673
G1 X133.845 Y96.108 E.34865
G1 X133.845 Y96.641 E.01673
G1 X141.705 Y104.501 E.34865
G1 X141.705 Y105.035 E.01673
G1 X133.845 Y97.174 E.34865
G1 X133.845 Y97.708 E.01673
G1 X138.768 Y102.632 E.2184
G1 X138.886 Y102.672 E.0039
G1 X139.326 Y102.927 E.01595
G1 X139.711 Y103.26 E.01595
G1 X140.025 Y103.659 E.01595
G1 X140.262 Y104.125 E.0164
G1 X141.875 Y105.738 E.07153
;WIPE_START
G1 F8640
G1 X140.262 Y104.125 E-.52657
G1 X140.025 Y103.659 E-.12073
G1 X139.723 Y103.276 E-.1127
;WIPE_END
G1 E-.04 F2100
G1 Z.6 F10800
G1 X140.233 Y104.63
G1 Z.2
G1 E.8 F2100
G1 F1200
G1 X141.705 Y106.102 E.06527
G1 X141.705 Y106.635 E.01673
G1 X140.426 Y105.356 E.05674
G1 X140.401 Y105.612 E.00806
G1 X140.344 Y105.807 E.0064
G1 X141.705 Y107.168 E.06038
G1 X141.705 Y107.702 E.01673
G1 X140.205 Y106.202 E.06653
G1 X140.023 Y106.554 E.01242
G1 X141.705 Y108.235 E.07459
G1 X141.705 Y108.769 E.01673
G1 X139.788 Y106.852 E.08501
G1 X139.711 Y106.951 E.00395
G1 X139.519 Y107.117 E.00793
G1 X141.705 Y109.302 E.09694
G1 X141.705 Y109.836 E.01673
G1 X139.217 Y107.347 E.11037
G1 X138.877 Y107.541 E.01226
G1 X141.705 Y110.369 E.12542
G1 X141.705 Y110.903 E.01673
G1 X138.481 Y107.679 E.143
G1 X138.405 Y107.705 E.00251
G1 X138.028 Y107.759 E.01196
G1 X141.705 Y111.436 E.1631
G1 X141.705 Y111.969 E.01673
G1 X137.288 Y107.552 E.19591
;WIPE_START
G1 F8640
G1 X139.615 Y109.88 E-.76
;WIPE_END
G1 E-.04 F2100
G1 Z.6 F10800
G1 X138.26 Y102.657
G1 Z.2
G1 E.8 F2100
G1 F1200
G1 X133.845 Y98.241 E.19586
G1 X133.845 Y98.775 E.01673
G1 X137.522 Y102.452 E.1631
G1 X137.394 Y102.458 E.004
G1 X137.072 Y102.536 E.01039
G1 X133.845 Y99.308 E.14317
G1 X133.845 Y99.842 E.01673
G1 X136.681 Y102.678 E.1258
G1 X136.437 Y102.789 E.00839
G1 X136.333 Y102.863 E.00402
G1 X133.845 Y100.375 E.11037
G1 X133.845 Y100.909 E.01673
G1 X136.022 Y103.086 E.09656
G1 X135.761 Y103.359 E.01183
G1 X133.845 Y101.442 E.08501
G1 X133.845 Y101.975 E.01673
G1 X135.535 Y103.666 E.07497
G1 X135.397 Y103.88 E.00798
G1 X135.345 Y104.01 E.00439
G1 X133.845 Y102.509 E.06657
G1 X133.845 Y103.042 E.01673
G1 X135.2 Y104.397 E.0601
G1 X135.113 Y104.844 E.01429
G1 X133.845 Y103.576 E.05628
G1 X133.845 Y104.109 E.01673
G1 X135.33 Y105.595 E.0659
;WIPE_START
G1 F8640
G1 X133.845 Y104.109 E-.48513
G1 X133.845 Y103.576 E-.12317
G1 X134.309 Y104.04 E-.1517
;WIPE_END
G1 E-.04 F2100
G1 Z.6 F10800
G1 X133.675 Y104.473
G1 Z.2
G1 E.8 F2100
G1 F1200
G1 X135.307 Y106.105 E.07238
G1 X135.397 Y106.331 E.00764
G1 X135.672 Y106.759 E.01595
G1 X136.023 Y107.127 E.01595
G1 X136.437 Y107.422 E.01595
G1 X136.78 Y107.578 E.01183
G1 X141.705 Y112.503 E.21843
G1 X141.705 Y113.036 E.01673
G1 X133.845 Y105.176 E.34865
G1 X133.845 Y105.709 E.01673
G1 X141.705 Y113.57 E.34865
G1 X141.705 Y114.103 E.01673
G1 X133.845 Y106.243 E.34865
G1 X133.845 Y106.776 E.01673
G1 X141.705 Y114.637 E.34865
G1 X141.705 Y115.17 E.01673
G1 X133.845 Y107.31 E.34865
G1 X133.845 Y107.843 E.01673
G1 X141.705 Y115.703 E.34865
G1 X141.705 Y116.237 E.01673
M73 P1 R54
G1 X133.845 Y108.377 E.34865
G1 X133.845 Y108.91 E.01673
G1 X141.705 Y116.77 E.34865
G1 X141.705 Y117.304 E.01673
G1 X133.845 Y109.444 E.34865
G1 X133.845 Y109.977 E.01673
G1 X141.705 Y117.837 E.34865
G1 X141.705 Y118.371 E.01673
G1 X133.845 Y110.51 E.34865
G1 X133.845 Y111.044 E.01673
G1 X141.705 Y118.904 E.34865
G1 X141.705 Y119.438 E.01673
G1 X133.845 Y111.577 E.34865
G1 X133.845 Y112.111 E.01673
G1 X141.705 Y119.971 E.34865
G1 X141.705 Y120.504 E.01673
G1 X133.845 Y112.644 E.34865
G1 X133.845 Y113.178 E.01673
G1 X141.202 Y120.535 E.32636
G1 X140.669 Y120.535 E.01673
G1 X133.845 Y113.711 E.3027
G1 X133.845 Y114.245 E.01673
G1 X140.136 Y120.535 E.27904
G1 X139.602 Y120.535 E.01673
G1 X133.845 Y114.778 E.25538
G1 X133.845 Y115.311 E.01673
G1 X139.069 Y120.535 E.23172
G1 X138.535 Y120.535 E.01673
G1 X133.845 Y115.845 E.20806
G1 X133.845 Y116.378 E.01673
G1 X138.002 Y120.535 E.1844
G1 X137.468 Y120.535 E.01673
G1 X133.845 Y116.912 E.16073
G1 X133.845 Y117.445 E.01673
G1 X136.935 Y120.535 E.13707
G1 X136.401 Y120.535 E.01673
G1 X133.845 Y117.979 E.11341
G1 X133.845 Y118.512 E.01673
G1 X135.868 Y120.535 E.08975
G1 X135.335 Y120.535 E.01673
G1 X133.845 Y119.045 E.06609
G1 X133.845 Y119.579 E.01673
G1 X134.801 Y120.535 E.04243
G1 X134.268 Y120.535 E.01673
G1 X133.675 Y119.943 E.02629
; stop printing object DrehHalter.stl id:1 copy 0
; printing object Buegel.stl id:0 copy 0
;WIPE_START
G1 F8640
G1 X134.268 Y120.535 E-.19358
G1 X134.801 Y120.535 E-.12317
G1 X133.845 Y119.579 E-.31236
G1 X133.845 Y119.045 E-.12317
G1 X133.868 Y119.069 E-.00772
;WIPE_END
G1 E-.04 F2100
G1 Z.6 F10800
G1 X115.013 Y75.813
G1 Z.2
G1 E.8 F2100
;TYPE:Perimeter
;WIDTH:0.42
G1 F1200
G1 X115.013 Y134.187 E1.83028
G1 X139.413 Y134.187 E.76504
G1 X139.413 Y143.337 E.28689
M73 P2 R54
G1 X137.987 Y143.337 E.04471
G1 X137.987 Y135.613 E.24218
G1 X113.587 Y135.613 E.76504
G1 X113.587 Y105.152 E.95509
G1 X110.745 Y105.152 E.08911
G1 X110.73 Y105 E.00478
G1 X110.745 Y104.848 E.00478
G1 X113.587 Y104.848 E.08911
G1 X113.587 Y74.387 E.95509
G1 X137.987 Y74.387 E.76504
G1 X137.987 Y66.663 E.24218
G1 X139.413 Y66.663 E.04471
G1 X139.413 Y75.813 E.28689
G1 X115.073 Y75.813 E.76316
G1 X115.39 Y76.19 F10800
;TYPE:External perimeter
G1 F1200
G1 X115.39 Y133.81 E1.80663
G1 X139.79 Y133.81 E.76504
G1 X139.79 Y143.714 E.31053
G1 X137.61 Y143.714 E.06835
G1 X137.61 Y135.99 E.24218
G1 X113.21 Y135.99 E.76504
G1 X113.21 Y105.529 E.95509
G1 X110.403 Y105.529 E.08801
G1 X110.351 Y105 E.01665
G1 X110.403 Y104.471 E.01665
G1 X113.21 Y104.471 E.08801
G1 X113.21 Y74.01 E.95509
G1 X137.61 Y74.01 E.76504
G1 X137.61 Y66.286 E.24218
G1 X139.79 Y66.286 E.06835
G1 X139.79 Y76.19 E.31053
G1 X115.45 Y76.19 E.76316
G1 X114.993 Y76.241 F10800
;WIPE_START
G1 F8640
G1 X115.447 Y79.481 E-.76
;WIPE_END
G1 E-.04 F2100
G1 Z.6 F10800
G1 X138.537 Y66.776
G1 Z.2
G1 E.8 F2100
;TYPE:Solid infill
;WIDTH:0.420038
G1 F1200
G1 X139.13 Y67.369 E.02628
G1 X139.13 Y67.902 E.01672
G1 X138.27 Y67.042 E.03815
G1 X138.27 Y67.575 E.01672
G1 X139.13 Y68.435 E.03815
G1 X139.13 Y68.969 E.01672
G1 X138.27 Y68.109 E.03815
G1 X138.27 Y68.642 E.01672
G1 X139.13 Y69.502 E.03815
G1 X139.13 Y70.035 E.01672
G1 X138.27 Y69.175 E.03815
G1 X138.27 Y69.709 E.01672
G1 X139.13 Y70.569 E.03815
G1 X139.13 Y71.102 E.01672
G1 X138.27 Y70.242 E.03815
G1 X138.27 Y70.775 E.01672
G1 X139.13 Y71.635 E.03815
G1 X139.13 Y72.169 E.01672
G1 X138.27 Y71.308 E.03815
G1 X138.27 Y71.842 E.01672
G1 X139.13 Y72.702 E.03815
G1 X139.13 Y73.235 E.01672
G1 X138.27 Y72.375 E.03815
G1 X138.27 Y72.908 E.01672
G1 X139.13 Y73.769 E.03815
G1 X139.13 Y74.302 E.01672
G1 X138.27 Y73.442 E.03815
G1 X138.27 Y73.975 E.01672
G1 X139.13 Y74.835 E.03815
G1 X139.13 Y75.369 E.01672
G1 X138.27 Y74.508 E.03815
G1 X138.27 Y74.67 E.00506
G1 X137.898 Y74.67 E.01166
G1 X138.758 Y75.53 E.03815
G1 X138.225 Y75.53 E.01672
G1 X137.365 Y74.67 E.03815
G1 X136.831 Y74.67 E.01672
G1 X137.692 Y75.53 E.03815
G1 X137.158 Y75.53 E.01672
G1 X136.298 Y74.67 E.03815
G1 X135.765 Y74.67 E.01672
G1 X136.625 Y75.53 E.03815
G1 X136.092 Y75.53 E.01672
G1 X135.231 Y74.67 E.03815
G1 X134.698 Y74.67 E.01672
G1 X135.558 Y75.53 E.03815
G1 X135.025 Y75.53 E.01672
G1 X134.165 Y74.67 E.03815
G1 X133.631 Y74.67 E.01672
G1 X134.492 Y75.53 E.03815
G1 X133.958 Y75.53 E.01672
G1 X133.098 Y74.67 E.03815
G1 X132.565 Y74.67 E.01672
G1 X133.425 Y75.53 E.03815
G1 X132.892 Y75.53 E.01672
G1 X132.031 Y74.67 E.03815
G1 X131.498 Y74.67 E.01672
G1 X132.358 Y75.53 E.03815
G1 X131.825 Y75.53 E.01672
G1 X130.965 Y74.67 E.03815
G1 X130.431 Y74.67 E.01672
G1 X131.292 Y75.53 E.03815
G1 X130.758 Y75.53 E.01672
G1 X129.898 Y74.67 E.03815
G1 X129.365 Y74.67 E.01672
G1 X130.225 Y75.53 E.03815
G1 X129.692 Y75.53 E.01672
G1 X128.831 Y74.67 E.03815
G1 X128.298 Y74.67 E.01672
G1 X129.158 Y75.53 E.03815
G1 X128.625 Y75.53 E.01672
G1 X127.765 Y74.67 E.03815
G1 X127.231 Y74.67 E.01672
G1 X128.092 Y75.53 E.03815
G1 X127.558 Y75.53 E.01672
G1 X126.698 Y74.67 E.03815
G1 X126.165 Y74.67 E.01672
G1 X127.025 Y75.53 E.03815
G1 X126.492 Y75.53 E.01672
G1 X125.632 Y74.67 E.03815
G1 X125.098 Y74.67 E.01672
G1 X125.958 Y75.53 E.03815
G1 X125.425 Y75.53 E.01672
G1 X124.565 Y74.67 E.03815
G1 X124.032 Y74.67 E.01672
G1 X124.892 Y75.53 E.03815
G1 X124.358 Y75.53 E.01672
G1 X123.498 Y74.67 E.03815
G1 X122.965 Y74.67 E.01672
G1 X123.825 Y75.53 E.03815
G1 X123.292 Y75.53 E.01672
G1 X122.432 Y74.67 E.03815
G1 X121.898 Y74.67 E.01672
G1 X122.758 Y75.53 E.03815
G1 X122.225 Y75.53 E.01672
G1 X121.365 Y74.67 E.03815
G1 X120.832 Y74.67 E.01672
G1 X121.692 Y75.53 E.03815
G1 X121.158 Y75.53 E.01672
G1 X120.298 Y74.67 E.03815
G1 X119.765 Y74.67 E.01672
G1 X120.625 Y75.53 E.03815
G1 X120.092 Y75.53 E.01672
G1 X119.232 Y74.67 E.03815
G1 X118.698 Y74.67 E.01672
G1 X119.559 Y75.53 E.03815
G1 X119.025 Y75.53 E.01672
G1 X118.165 Y74.67 E.03815
G1 X117.632 Y74.67 E.01672
G1 X118.492 Y75.53 E.03815
G1 X117.959 Y75.53 E.01672
G1 X117.098 Y74.67 E.03815
G1 X116.565 Y74.67 E.01672
G1 X117.425 Y75.53 E.03815
G1 X116.892 Y75.53 E.01672
G1 X116.032 Y74.67 E.03815
G1 X115.498 Y74.67 E.01672
G1 X116.359 Y75.53 E.03815
G1 X115.825 Y75.53 E.01672
G1 X114.965 Y74.67 E.03815
G1 X114.432 Y74.67 E.01672
G1 X115.292 Y75.53 E.03815
G1 X114.759 Y75.53 E.01672
G1 X113.898 Y74.67 E.03815
G1 X113.87 Y74.67 E.00089
G1 X113.87 Y75.175 E.01583
G1 X114.73 Y76.035 E.03815
