; generated by PrusaSlicer 2.4.1+win64 on 2022-04-15 at 12:31:44 UTC

; 

; external perimeters extrusion width = 0.45mm
; perimeters extrusion width = 0.45mm
; infill extrusion width = 0.45mm
; solid infill extrusion width = 0.45mm
; top infill extrusion width = 0.40mm
; first layer extrusion width = 0.42mm

M73 P0 R14
M107
;TYPE:Custom
M862.3 P "MK2S" ; printer model check
M862.1 P0.4 ; nozzle diameter check
M115 U3.2.3 ; tell printer latest fw version
G90 ; use absolute coordinates
M83 ; extruder relative mode
M204 S2000 T1500 ; MK2 firmware only supports the old M204 format
M104 S215 ; set extruder temp
M140 S60 ; set bed temp
M190 S60 ; wait for bed temp
M109 S215 ; wait for extruder temp
G28 W ; home all without mesh bed level
G80 ; mesh bed leveling
G1 Y-3.0 F1000.0 ; go outside print area
G92 E0.0
G1 X60.0 E9.0  F1000.0 ; intro line
G1 X100.0 E12.5 F1000.0 ; intro line
G92 E0.0
G21 ; set units to millimeters
G90 ; use absolute coordinates
M83 ; use relative distances for extrusion
M900 K0.05 ; Filament gcode LA 1.5
M900 K30 ; Filament gcode LA 1.0
M107
;LAYER_CHANGE
;Z:0.2
;HEIGHT:0.2
;BEFORE_LAYER_CHANGE
G92 E0.0
;0.2


G1 E-.8 F2100
M73 P0 R13
G1 Z.4 F10800
;AFTER_LAYER_CHANGE
;0.2
G1 X111.439 Y90.197
G1 Z.2
G1 E.8 F2100
M204 S1000
;TYPE:Skirt/Brim
;WIDTH:0.42
G1 F1200
G1 X111.946 Y89.664 E.02306
G1 X112.719 Y89.147 E.02916
G1 X113.405 Y88.884 E.02306
G1 X114.13 Y88.759 E.02305
G1 X135.87 Y88.759 E.68164
G1 X136.595 Y88.884 E.02305
G1 X137.281 Y89.147 E.02306
G1 X137.903 Y89.54 E.02305
G1 X138.436 Y90.046 E.02305
G1 X138.86 Y90.646 E.02305
G1 X139.159 Y91.318 E.02306
G1 X139.341 Y92.23 E.02916
G1 X139.354 Y117.5 E.79232
M73 P1 R13
G1 X139.159 Y118.682 E.03757
G1 X138.953 Y119.181 E.01693
G1 X138.56 Y119.803 E.02305
G1 X137.903 Y120.46 E.02916
G1 X137.281 Y120.853 E.02305
G1 X136.595 Y121.116 E.02305
G1 X135.6 Y121.254 E.03148
G1 X114.4 Y121.254 E.66471
G1 X113.218 Y121.059 E.03757
G1 X112.719 Y120.853 E.01693
G1 X112.097 Y120.46 E.02305
G1 X111.545 Y119.932 E.02397
G1 X111.047 Y119.181 E.02825
G1 X110.784 Y118.495 E.02305
G1 X110.646 Y117.5 E.03148
G1 X110.646 Y92.5 E.78386
G1 X110.841 Y91.318 E.03757
G1 X111.14 Y90.646 E.02305
G1 X111.406 Y90.247 E.01505
G1 X111.731 Y90.436 F10800
G1 F1200
G1 X112.185 Y89.955 E.02074
G1 X112.897 Y89.48 E.02684
G1 X113.515 Y89.244 E.02074
G1 X114.167 Y89.134 E.02074
G1 X135.833 Y89.134 E.67932
G1 X136.485 Y89.244 E.02074
G1 X137.103 Y89.48 E.02074
G1 X137.664 Y89.831 E.02074
G1 X138.145 Y90.285 E.02074
G1 X138.528 Y90.824 E.02073
G1 X138.799 Y91.427 E.02074
G1 X138.966 Y92.267 E.02685
G1 X138.977 Y117.5 E.79116
G1 X138.799 Y118.573 E.0341
G1 X138.269 Y119.564 E.03523
G1 X137.815 Y120.045 E.02074
G1 X137.103 Y120.52 E.02684
G1 X136.485 Y120.756 E.02074
G1 X135.6 Y120.877 E.02801
G1 X114.4 Y120.877 E.66471
G1 X113.327 Y120.699 E.0341
G1 X112.336 Y120.169 E.03523
G1 X111.837 Y119.692 E.02165
M73 P2 R13
G1 X111.38 Y119.003 E.02593
G1 X111.144 Y118.385 E.02074
G1 X111.023 Y117.5 E.02801
G1 X111.023 Y92.5 E.78386
G1 X111.201 Y91.427 E.0341
G1 X111.703 Y90.489 E.03334
; printing object SchwenkHalter.stl id:0 copy 0
;WIPE_START
G1 F8640
G1 X112.185 Y89.955 E-.16615
G1 X112.897 Y89.48 E-.19766
G1 X113.515 Y89.244 E-.15273
G1 X114.167 Y89.134 E-.1527
G1 X114.56 Y89.134 E-.09076
;WIPE_END
G1 E-.04 F2100
G1 Z.6 F10800
G1 X115.885 Y113.867
G1 Z.2
G1 E.8 F2100
;TYPE:External perimeter
G1 F1200
G1 X116.168 Y113.841 E.00889
G1 X116.513 Y113.867 E.01085
G1 X116.818 Y113.954 E.00996
G1 X117.101 Y114.095 E.0099
G1 X117.353 Y114.285 E.0099
G1 X117.566 Y114.518 E.0099
G1 X117.732 Y114.787 E.0099
G1 X117.846 Y115.082 E.0099
G1 X117.904 Y115.392 E.0099
G1 X117.904 Y115.708 E.0099
G1 X117.846 Y116.018 E.0099
G1 X117.732 Y116.313 E.0099
G1 X117.566 Y116.582 E.0099
G1 X117.353 Y116.815 E.0099
G1 X117.101 Y117.005 E.0099
G1 X116.818 Y117.146 E.0099
G1 X116.515 Y117.233 E.0099
G1 X116.2 Y117.262 E.0099
G1 X115.885 Y117.233 E.0099
G1 X115.582 Y117.146 E.0099
G1 X115.299 Y117.005 E.0099
G1 X115.047 Y116.815 E.0099
G1 X114.834 Y116.582 E.0099
G1 X114.668 Y116.313 E.0099
G1 X114.554 Y116.018 E.0099
G1 X114.496 Y115.708 E.0099
G1 X114.496 Y115.392 E.0099
G1 X114.554 Y115.082 E.0099
G1 X114.668 Y114.787 E.0099
G1 X114.834 Y114.518 E.0099
G1 X115.047 Y114.285 E.0099
G1 X115.299 Y114.095 E.0099
G1 X115.582 Y113.954 E.0099
G1 X115.828 Y113.884 E.00802
G1 X115.98 Y113.6 F10800
;WIPE_START
G1 F8640
G1 X116.168 Y113.841 E-.0791
G1 X116.513 Y113.867 E-.07988
G1 X116.818 Y113.954 E-.07338
G1 X117.101 Y114.095 E-.07294
G1 X117.353 Y114.285 E-.07294
G1 X117.566 Y114.518 E-.07294
G1 X117.732 Y114.787 E-.07294
G1 X117.846 Y115.082 E-.07294
G1 X117.904 Y115.392 E-.07294
G1 X117.904 Y115.708 E-.07294
G1 X117.891 Y115.781 E-.01707
;WIPE_END
G1 E-.04 F2100
G1 Z.6 F10800
G1 X116.2 Y96.162
G1 Z.2
G1 E.8 F2100
G1 F1200
G1 X115.885 Y96.133 E.0099
G1 X115.582 Y96.046 E.0099
G1 X115.299 Y95.905 E.0099
G1 X115.047 Y95.715 E.0099
G1 X114.834 Y95.482 E.0099
G1 X114.668 Y95.213 E.0099
G1 X114.554 Y94.918 E.0099
G1 X114.496 Y94.608 E.0099
G1 X114.496 Y94.292 E.0099
G1 X114.554 Y93.982 E.0099
G1 X114.668 Y93.687 E.0099
G1 X114.834 Y93.418 E.0099
G1 X115.047 Y93.185 E.0099
G1 X115.299 Y92.995 E.0099
G1 X115.582 Y92.854 E.0099
G1 X115.885 Y92.767 E.0099
G1 X116.168 Y92.741 E.00889
G1 X116.513 Y92.767 E.01085
G1 X116.818 Y92.854 E.00996
G1 X117.101 Y92.995 E.0099
G1 X117.353 Y93.185 E.0099
G1 X117.566 Y93.418 E.0099
G1 X117.732 Y93.687 E.0099
G1 X117.846 Y93.982 E.0099
G1 X117.904 Y94.292 E.0099
G1 X117.904 Y94.608 E.0099
G1 X117.846 Y94.918 E.0099
G1 X117.732 Y95.213 E.0099
G1 X117.566 Y95.482 E.0099
G1 X117.353 Y95.715 E.0099
G1 X117.101 Y95.905 E.0099
G1 X116.818 Y96.046 E.0099
G1 X116.515 Y96.133 E.0099
G1 X116.26 Y96.156 E.00802
G1 X116.042 Y96.435 F10800
;WIPE_START
G1 F8640
G1 X115.885 Y96.133 E-.08659
G1 X115.582 Y96.046 E-.07294
G1 X115.299 Y95.905 E-.07294
G1 X115.047 Y95.715 E-.07294
G1 X114.834 Y95.482 E-.07294
G1 X114.668 Y95.213 E-.07294
G1 X114.554 Y94.918 E-.07294
G1 X114.496 Y94.608 E-.07294
G1 X114.496 Y94.292 E-.07294
G1 X114.554 Y93.982 E-.07294
G1 X114.58 Y93.913 E-.01696
;WIPE_END
G1 E-.04 F2100
G1 Z.6 F10800
G1 X128.631 Y113.757
G1 Z.2
G1 E.8 F2100
;TYPE:Perimeter
G1 F1200
G1 X128.945 Y113.601 E.011
G1 X129.316 Y113.495 E.0121
G1 X129.664 Y113.463 E.01097
G1 X130.079 Y113.494 E.01304
G1 X130.455 Y113.601 E.01227
G1 X130.8 Y113.773 E.0121
G1 X131.108 Y114.005 E.0121
G1 X131.368 Y114.29 E.0121
G1 X131.571 Y114.618 E.0121
G1 X131.711 Y114.978 E.0121
G1 X131.782 Y115.357 E.0121
G1 X131.782 Y115.743 E.0121
G1 X131.711 Y116.122 E.0121
G1 X131.571 Y116.482 E.0121
G1 X131.368 Y116.81 E.0121
G1 X131.133 Y117.068 E.01097
G1 X130.805 Y117.325 E.01304
G1 X130.455 Y117.499 E.01226
G1 X130.084 Y117.605 E.0121
G1 X129.7 Y117.64 E.0121
G1 X129.316 Y117.605 E.0121
G1 X128.945 Y117.499 E.0121
G1 X128.6 Y117.327 E.0121
G1 X128.292 Y117.095 E.0121
G1 X128.032 Y116.81 E.0121
G1 X127.829 Y116.482 E.0121
G1 X127.689 Y116.122 E.0121
G1 X127.618 Y115.743 E.0121
G1 X127.618 Y115.357 E.0121
G1 X127.689 Y114.978 E.0121
G1 X127.829 Y114.618 E.0121
G1 X128.032 Y114.29 E.0121
G1 X128.292 Y114.005 E.0121
G1 X128.58 Y113.788 E.01131
G1 X128.799 Y114.095 F10800
;TYPE:External perimeter
G1 F1200
G1 X129.082 Y113.954 E.0099
G1 X129.385 Y113.867 E.0099
G1 X129.668 Y113.841 E.00889
G1 X130.013 Y113.867 E.01085
G1 X130.318 Y113.954 E.00997
G1 X130.601 Y114.095 E.0099
G1 X130.853 Y114.285 E.0099
G1 X131.066 Y114.518 E.0099
G1 X131.232 Y114.787 E.0099
G1 X131.346 Y115.082 E.0099
G1 X131.404 Y115.392 E.0099
G1 X131.404 Y115.708 E.0099
G1 X131.346 Y116.018 E.0099
G1 X131.232 Y116.313 E.0099
G1 X131.066 Y116.582 E.0099
G1 X130.875 Y116.791 E.00889
G1 X130.603 Y117.005 E.01085
G1 X130.318 Y117.146 E.00996
G1 X130.015 Y117.233 E.0099
G1 X129.7 Y117.262 E.0099
G1 X129.385 Y117.233 E.0099
G1 X129.082 Y117.146 E.0099
G1 X128.799 Y117.005 E.0099
G1 X128.547 Y116.815 E.0099
G1 X128.334 Y116.582 E.0099
G1 X128.168 Y116.313 E.0099
G1 X128.054 Y116.018 E.0099
G1 X127.996 Y115.708 E.0099
G1 X127.996 Y115.392 E.0099
G1 X128.054 Y115.082 E.0099
G1 X128.168 Y114.787 E.0099
G1 X128.334 Y114.518 E.0099
G1 X128.547 Y114.285 E.0099
G1 X128.751 Y114.131 E.00802
G1 X128.789 Y113.779 F10800
;WIPE_START
G1 F8640
G1 X129.082 Y113.954 E-.08659
G1 X129.385 Y113.867 E-.07294
G1 X129.668 Y113.841 E-.06544
G1 X130.013 Y113.867 E-.07988
G1 X130.318 Y113.954 E-.07339
G1 X130.601 Y114.095 E-.07294
G1 X130.853 Y114.285 E-.07294
G1 X131.066 Y114.518 E-.07294
G1 X131.232 Y114.787 E-.07294
G1 X131.346 Y115.082 E-.07294
G1 X131.36 Y115.154 E-.01707
;WIPE_END
G1 E-.04 F2100
G1 Z.6 F10800
G1 X129.735 Y96.537
G1 Z.2
G1 E.8 F2100
;TYPE:Perimeter
G1 F1200
G1 X129.316 Y96.505 E.01317
G1 X128.945 Y96.399 E.0121
G1 X128.6 Y96.227 E.0121
G1 X128.292 Y95.995 E.0121
G1 X128.032 Y95.71 E.0121
G1 X127.829 Y95.382 E.0121
G1 X127.689 Y95.022 E.0121
G1 X127.618 Y94.643 E.0121
G1 X127.618 Y94.257 E.0121
G1 X127.689 Y93.878 E.0121
G1 X127.829 Y93.518 E.0121
G1 X128.032 Y93.19 E.0121
G1 X128.292 Y92.905 E.0121
G1 X128.6 Y92.673 E.0121
G1 X128.945 Y92.501 E.0121
G1 X129.316 Y92.395 E.0121
G1 X129.664 Y92.363 E.01097
G1 X130.079 Y92.394 E.01304
G1 X130.455 Y92.501 E.01227
G1 X130.8 Y92.673 E.0121
G1 X131.108 Y92.905 E.0121
G1 X131.368 Y93.19 E.0121
G1 X131.571 Y93.518 E.0121
G1 X131.711 Y93.878 E.0121
G1 X131.782 Y94.257 E.0121
G1 X131.782 Y94.643 E.0121
G1 X131.711 Y95.022 E.0121
G1 X131.571 Y95.382 E.0121
G1 X131.368 Y95.71 E.0121
G1 X131.108 Y95.995 E.0121
G1 X130.8 Y96.227 E.0121
G1 X130.455 Y96.399 E.0121
G1 X130.084 Y96.505 E.0121
G1 X129.795 Y96.532 E.00912
G1 X129.7 Y96.162 F10800
;TYPE:External perimeter
G1 F1200
G1 X129.385 Y96.133 E.0099
G1 X129.082 Y96.046 E.0099
G1 X128.799 Y95.905 E.0099
G1 X128.547 Y95.715 E.0099
G1 X128.334 Y95.482 E.0099
G1 X128.168 Y95.213 E.0099
G1 X128.054 Y94.918 E.0099
G1 X127.996 Y94.608 E.0099
G1 X127.996 Y94.292 E.0099
G1 X128.054 Y93.982 E.0099
G1 X128.168 Y93.687 E.0099
G1 X128.334 Y93.418 E.0099
G1 X128.547 Y93.185 E.0099
G1 X128.799 Y92.995 E.0099
G1 X129.082 Y92.854 E.0099
G1 X129.385 Y92.767 E.0099
G1 X129.668 Y92.741 E.00889
G1 X130.013 Y92.767 E.01085
G1 X130.318 Y92.854 E.00997
G1 X130.601 Y92.995 E.0099
G1 X130.853 Y93.185 E.0099
G1 X131.066 Y93.418 E.0099
G1 X131.232 Y93.687 E.0099
G1 X131.346 Y93.982 E.0099
G1 X131.404 Y94.292 E.0099
G1 X131.404 Y94.608 E.0099
G1 X131.346 Y94.918 E.0099
G1 X131.232 Y95.213 E.0099
G1 X131.066 Y95.482 E.0099
G1 X130.853 Y95.715 E.0099
G1 X130.601 Y95.905 E.0099
G1 X130.318 Y96.046 E.0099
G1 X130.015 Y96.133 E.0099
G1 X129.76 Y96.156 E.00802
G1 X129.542 Y96.435 F10800
;WIPE_START
G1 F8640
G1 X129.385 Y96.133 E-.08659
G1 X129.082 Y96.046 E-.07294
G1 X128.799 Y95.905 E-.07294
G1 X128.547 Y95.715 E-.07294
G1 X128.334 Y95.482 E-.07294
G1 X128.168 Y95.213 E-.07294
G1 X128.054 Y94.918 E-.07294
G1 X127.996 Y94.608 E-.07294
G1 X127.996 Y94.292 E-.07294
G1 X128.054 Y93.982 E-.07294
G1 X128.08 Y93.913 E-.01696
;WIPE_END
G1 E-.04 F2100
G1 Z.6 F10800
G1 X116.2 Y96.54
G1 Z.2
G1 E.8 F2100
;TYPE:Perimeter
G1 F1200
G1 X116.584 Y96.505 E.0121
G1 X116.955 Y96.399 E.0121
G1 X117.3 Y96.227 E.0121
G1 X117.608 Y95.995 E.0121
G1 X117.868 Y95.71 E.0121
G1 X118.071 Y95.382 E.0121
G1 X118.211 Y95.022 E.0121
G1 X118.282 Y94.643 E.0121
G1 X118.282 Y94.257 E.0121
G1 X118.211 Y93.878 E.0121
G1 X118.071 Y93.518 E.0121
G1 X117.868 Y93.19 E.0121
G1 X117.608 Y92.905 E.0121
G1 X117.3 Y92.673 E.0121
G1 X116.955 Y92.501 E.0121
G1 X116.579 Y92.394 E.01226
G1 X116.164 Y92.363 E.01304
G1 X115.816 Y92.395 E.01097
G1 X115.445 Y92.501 E.0121
G1 X115.1 Y92.673 E.0121
G1 X114.792 Y92.905 E.0121
G1 X114.532 Y93.19 E.0121
G1 X114.329 Y93.518 E.0121
G1 X114.187 Y93.89 E.01248
G1 X114.187 Y92.539 E.04237
G1 X114.226 Y92.384 E.00501
G1 X114.32 Y92.307 E.00381
G1 X114.439 Y92.287 E.00377
G1 X135.561 Y92.287 E.66229
G1 X135.68 Y92.307 E.00377
M73 P3 R13
G1 X135.748 Y92.352 E.00256
G1 X135.793 Y92.42 E.00256
G1 X135.813 Y92.539 E.00377
G1 X135.813 Y117.461 E.78143
G1 X135.793 Y117.58 E.00377
G1 X135.748 Y117.648 E.00256
G1 X135.68 Y117.693 E.00256
G1 X135.561 Y117.713 E.00377
G1 X114.439 Y117.713 E.66229
G1 X114.32 Y117.693 E.00377
G1 X114.252 Y117.648 E.00256
G1 X114.207 Y117.58 E.00256
G1 X114.187 Y117.461 E.00377
G1 X114.187 Y116.11 E.04237
G1 X114.329 Y116.482 E.01248
G1 X114.532 Y116.81 E.0121
G1 X114.792 Y117.095 E.0121
G1 X115.1 Y117.327 E.0121
G1 X115.445 Y117.499 E.0121
G1 X115.816 Y117.605 E.0121
G1 X116.2 Y117.64 E.0121
G1 X116.584 Y117.605 E.0121
G1 X116.955 Y117.499 E.01209
G1 X117.3 Y117.327 E.0121
G1 X117.608 Y117.095 E.0121
G1 X117.868 Y116.81 E.0121
G1 X118.071 Y116.482 E.0121
G1 X118.211 Y116.122 E.0121
G1 X118.282 Y115.743 E.0121
G1 X118.282 Y115.357 E.0121
G1 X118.211 Y114.978 E.0121
G1 X118.071 Y114.618 E.0121
G1 X117.868 Y114.29 E.0121
G1 X117.608 Y114.005 E.0121
G1 X117.3 Y113.773 E.0121
G1 X116.955 Y113.601 E.0121
G1 X116.579 Y113.494 E.01227
G1 X116.164 Y113.463 E.01304
G1 X115.816 Y113.495 E.01097
G1 X115.445 Y113.601 E.0121
G1 X115.1 Y113.773 E.0121
G1 X114.792 Y114.005 E.0121
G1 X114.532 Y114.29 E.0121
G1 X114.329 Y114.618 E.0121
G1 X114.187 Y114.99 E.01248
G1 X114.187 Y95.01 E.62646
G1 X114.329 Y95.382 E.01248
G1 X114.532 Y95.71 E.0121
G1 X114.792 Y95.995 E.01209
G1 X115.1 Y96.227 E.0121
G1 X115.445 Y96.399 E.0121
G1 X115.816 Y96.505 E.0121
G1 X116.14 Y96.535 E.01021
;WIPE_START
G1 F8640
G1 X116.584 Y96.505 E-.10272
G1 X116.955 Y96.399 E-.08907
G1 X117.3 Y96.227 E-.08908
G1 X117.608 Y95.995 E-.08907
G1 X117.868 Y95.71 E-.08907
G1 X118.071 Y95.382 E-.08908
G1 X118.211 Y95.022 E-.08907
G1 X118.282 Y94.643 E-.08907
G1 X118.282 Y94.497 E-.03376
;WIPE_END
G1 E-.04 F2100
G1 Z.6 F10800
G1 X113.857 Y92.275
G1 Z.2
G1 E.8 F2100
;TYPE:External perimeter
G1 F1200
G1 X113.911 Y92.173 E.00361
G1 X114.073 Y92.011 E.00719
G1 X114.285 Y91.923 E.00719
G1 X114.42 Y91.91 E.00425
G1 X135.58 Y91.91 E.66345
G1 X135.825 Y91.957 E.00783
G1 X136.016 Y92.084 E.00719
G1 X136.143 Y92.275 E.00719
G1 X136.19 Y92.52 E.00783
G1 X136.19 Y117.48 E.78259
G1 X136.143 Y117.725 E.00783
G1 X136.016 Y117.916 E.00719
G1 X135.825 Y118.043 E.00719
G1 X135.58 Y118.09 E.00783
G1 X114.42 Y118.09 E.66345
G1 X114.175 Y118.043 E.00783
M73 P4 R13
G1 X113.984 Y117.916 E.00719
G1 X113.857 Y117.725 E.00719
G1 X113.81 Y117.48 E.00783
G1 X113.81 Y92.52 E.78259
G1 X113.839 Y92.332 E.00596
G1 X113.97 Y92.253 F10800
G1 X114.545 Y92.645
;TYPE:Gap fill
;WIDTH:0.38156
G1 F1200
G1 X114.991 Y92.478 E.01342
G1 X114.545 Y92.645 F10800
;WIDTH:0.38156
G1 F1200
G1 X114.376 Y93.066 E.01278
;WIPE_START
G1 F8640
G1 X114.545 Y92.645 E-.10479
;WIPE_END
G1 E-.69521 F2100
G1 Z.6 F10800
G1 X114.17 Y94.078
G1 Z.2
G1 E.8 F2100
;WIDTH:0.356289
G1 F1200
G1 X114.154 Y94.246 E.0044
;WIDTH:0.354038
G1 X114.153 Y94.275 E.00074
;WIDTH:0.351388
G1 X114.153 Y94.625 E.009
;WIDTH:0.354036
G1 X114.154 Y94.654 E.00074
;WIDTH:0.356286
G1 X114.17 Y94.822 E.0044
;WIPE_START
G1 F8640
G1 X114.154 Y94.654 E-.03899
;WIPE_END
G1 E-.76101 F2100
G1 Z.6 F10800
G1 X114.376 Y95.872
G1 Z.2
G1 E.8 F2100
;WIDTH:0.106943
G1 F1200
G1 X114.481 Y95.968 E.00076
;WIPE_START
G1 F8640
G1 X114.376 Y95.872 E-.03287
;WIPE_END
G1 E-.76713 F2100
G1 Z.6 F10800
G1 X117.404 Y92.493
G1 Z.2
G1 E.8 F2100
;WIDTH:0.112676
G1 F1200
G1 X117.456 Y92.51 E.00032
;WIDTH:0.112674
G1 X117.553 Y92.598 E.00075
;WIPE_START
G1 F8640
G1 X117.456 Y92.51 E-.03004
;WIPE_END
G1 E-.76996 F2100
G1 Z.6 F10800
G1 X128.347 Y92.598
G1 Z.2
G1 E.8 F2100
;WIDTH:0.112686
G1 F1200
G1 X128.444 Y92.51 E.00075
;WIDTH:0.112686
G1 X128.496 Y92.493 E.00032
;WIPE_START
G1 F8640
G1 X128.444 Y92.51 E-.01285
;WIPE_END
G1 E-.78715 F2100
G1 Z.6 F10800
G1 X130.904 Y92.493
G1 Z.2
G1 E.8 F2100
;WIDTH:0.112682
G1 F1200
G1 X130.956 Y92.51 E.00032
;WIDTH:0.112683
G1 X131.053 Y92.598 E.00075
;WIPE_START
G1 F8640
G1 X130.956 Y92.51 E-.03005
;WIPE_END
G1 E-.76995 F2100
G1 Z.6 F10800
G1 X135.7 Y93.214
G1 Z.2
G1 E.8 F2100
;TYPE:Solid infill
;WIDTH:0.42152
G1 F1200
G1 X135.063 Y92.577 E.02835
G1 X134.528 Y92.577 E.01686
G1 X135.53 Y93.58 E.04464
G1 X135.53 Y94.115 E.01686
G1 X133.992 Y92.577 E.06848
