; generated by PrusaSlicer 2.4.1+win64 on 2022-04-17 at 17:32:19 UTC

; 

; external perimeters extrusion width = 0.45mm
; perimeters extrusion width = 0.45mm
; infill extrusion width = 0.45mm
; solid infill extrusion width = 0.45mm
; top infill extrusion width = 0.40mm
; first layer extrusion width = 0.42mm

; external perimeters extrusion width = 0.45mm
; perimeters extrusion width = 0.45mm
; infill extrusion width = 0.45mm
; solid infill extrusion width = 0.45mm
; top infill extrusion width = 0.40mm
; first layer extrusion width = 0.42mm

M73 P0 R37
M107
;TYPE:Custom
M862.3 P "MK2S" ; printer model check
M862.1 P0.4 ; nozzle diameter check
M115 U3.2.3 ; tell printer latest fw version
G90 ; use absolute coordinates
M83 ; extruder relative mode
M204 S2000 T1500 ; MK2 firmware only supports the old M204 format
M104 S215 ; set extruder temp
M140 S60 ; set bed temp
M190 S60 ; wait for bed temp
M109 S215 ; wait for extruder temp
G28 W ; home all without mesh bed level
G80 ; mesh bed leveling
G1 Y-3.0 F1000.0 ; go outside print area
G92 E0.0
G1 X60.0 E9.0  F1000.0 ; intro line
G1 X100.0 E12.5 F1000.0 ; intro line
G92 E0.0
G21 ; set units to millimeters
G90 ; use absolute coordinates
M83 ; use relative distances for extrusion
M900 K0.05 ; Filament gcode LA 1.5
M900 K30 ; Filament gcode LA 1.0
M107
;LAYER_CHANGE
;Z:0.2
;HEIGHT:0.2
;BEFORE_LAYER_CHANGE
G92 E0.0
;0.2


G1 E-.8 F2100
G1 Z.4 F10800
;AFTER_LAYER_CHANGE
;0.2
G1 X128.177 Y67.358
G1 Z.2
G1 E.8 F2100
M204 S1000
;TYPE:Skirt/Brim
;WIDTH:0.42
G1 F1200
G1 X129.223 Y66.482 E.04278
G1 X130.163 Y66.288 E.03008
G1 X161.191 Y66.288 E.97286
G1 X162.498 Y66.68 E.04278
G1 X163.374 Y67.725 E.04278
G1 X163.568 Y68.665 E.03008
G1 X163.568 Y108.865 E1.26044
G1 X161.204 Y153.041 E1.38709
G1 X161.049 Y153.921 E.02803
G1 X160.625 Y154.802 E.03064
G1 X160.293 Y155.218 E.01669
G1 X159.719 Y155.708 E.02368
G1 X158.838 Y156.132 E.03064
G1 X158.097 Y156.276 E.02368
G1 X133.83 Y156.291 E.76085
G1 X132.823 Y156.132 E.03198
G1 X131.942 Y155.708 E.03064
G1 X131.368 Y155.218 E.02368
G1 X131.036 Y154.802 E.01669
G1 X130.612 Y153.921 E.03064
G1 X130.468 Y153.18 E.02368
G1 X127.79 Y109.009 E1.3875
G1 X127.786 Y68.665 E1.26495
G1 X128.16 Y67.416 E.0409
; printing object DrehHalterGross.stl id:1 copy 0
;WIPE_START
G1 F8640
G1 X129.223 Y66.482 E-.32671
G1 X130.163 Y66.288 E-.22155
G1 X131.08 Y66.288 E-.21174
;WIPE_END
G1 E-.04 F2100
G1 Z.6 F10800
G1 X132.009 Y69.452
G1 Z.2
G1 E.8 F2100
;TYPE:Perimeter
G1 F1200
G1 X160.404 Y69.452 E.89029
G1 X160.404 Y108.078 E1.21109
G1 X132.009 Y108.078 E.89029
M73 P1 R37
G1 X132.009 Y106.652 E.04471
G1 X158.978 Y106.652 E.84558
G1 X158.978 Y70.878 E1.12167
G1 X132.009 Y70.878 E.84558
G1 X132.009 Y69.512 E.04283
G1 X131.632 Y69.075 F10800
;TYPE:External perimeter
G1 F1200
G1 X160.781 Y69.075 E.91394
G1 X160.781 Y108.455 E1.23473
G1 X131.632 Y108.455 E.91394
G1 X131.632 Y106.275 E.06835
G1 X158.601 Y106.275 E.84558
G1 X158.601 Y71.255 E1.09803
G1 X131.632 Y71.255 E.84558
G1 X131.632 Y69.135 E.06647
G1 X132.032 Y69.086 F10800
;WIPE_START
G1 F8640
G1 X134.924 Y69.128 E-.76
;WIPE_END
G1 E-.04 F2100
G1 Z.6 F10800
G1 X159.522 Y69.565
G1 Z.2
G1 E.8 F2100
;TYPE:Solid infill
;WIDTH:0.422951
G1 F1200
G1 X160.121 Y70.164 E.02676
G1 X160.121 Y70.702 E.01698
G1 X159.154 Y69.735 E.0432
G1 X158.617 Y69.735 E.01698
G1 X160.121 Y71.239 E.06721
G1 X160.121 Y71.776 E.01698
G1 X158.08 Y69.735 E.09123
G1 X157.542 Y69.735 E.01698
G1 X158.402 Y70.595 E.03844
G1 X157.865 Y70.595 E.01698
G1 X157.005 Y69.735 E.03844
G1 X156.467 Y69.735 E.01698
G1 X157.328 Y70.595 E.03844
G1 X156.79 Y70.595 E.01698
G1 X155.93 Y69.735 E.03844
G1 X155.392 Y69.735 E.01698
G1 X156.253 Y70.595 E.03844
G1 X155.715 Y70.595 E.01698
G1 X154.855 Y69.735 E.03844
G1 X154.317 Y69.735 E.01698
G1 X155.178 Y70.595 E.03844
G1 X154.64 Y70.595 E.01698
G1 X153.78 Y69.735 E.03844
G1 X153.243 Y69.735 E.01698
G1 X154.103 Y70.595 E.03844
G1 X153.565 Y70.595 E.01698
G1 X152.705 Y69.735 E.03844
G1 X152.168 Y69.735 E.01698
G1 X153.028 Y70.595 E.03844
G1 X152.491 Y70.595 E.01698
G1 X151.63 Y69.735 E.03844
G1 X151.093 Y69.735 E.01698
G1 X151.953 Y70.595 E.03844
G1 X151.416 Y70.595 E.01698
G1 X150.555 Y69.735 E.03844
G1 X150.018 Y69.735 E.01698
G1 X150.878 Y70.595 E.03844
G1 X150.341 Y70.595 E.01698
G1 X149.48 Y69.735 E.03844
G1 X148.943 Y69.735 E.01698
G1 X149.803 Y70.595 E.03844
G1 X149.266 Y70.595 E.01698
G1 X148.406 Y69.735 E.03844
G1 X147.868 Y69.735 E.01698
G1 X148.728 Y70.595 E.03844
G1 X148.191 Y70.595 E.01698
G1 X147.331 Y69.735 E.03844
G1 X146.793 Y69.735 E.01698
G1 X147.653 Y70.595 E.03844
G1 X147.116 Y70.595 E.01698
G1 X146.256 Y69.735 E.03844
G1 X145.718 Y69.735 E.01698
G1 X146.579 Y70.595 E.03844
G1 X146.041 Y70.595 E.01698
G1 X145.181 Y69.735 E.03844
G1 X144.643 Y69.735 E.01698
G1 X145.504 Y70.595 E.03844
G1 X144.966 Y70.595 E.01698
G1 X144.106 Y69.735 E.03844
G1 X143.569 Y69.735 E.01698
G1 X144.429 Y70.595 E.03844
G1 X143.891 Y70.595 E.01698
G1 X143.031 Y69.735 E.03844
G1 X142.494 Y69.735 E.01698
G1 X143.354 Y70.595 E.03844
G1 X142.816 Y70.595 E.01698
G1 X141.956 Y69.735 E.03844
G1 X141.419 Y69.735 E.01698
G1 X142.279 Y70.595 E.03844
G1 X141.742 Y70.595 E.01698
G1 X140.881 Y69.735 E.03844
G1 X140.344 Y69.735 E.01698
G1 X141.204 Y70.595 E.03844
G1 X140.667 Y70.595 E.01698
G1 X139.806 Y69.735 E.03844
G1 X139.269 Y69.735 E.01698
G1 X140.129 Y70.595 E.03844
G1 X139.592 Y70.595 E.01698
G1 X138.732 Y69.735 E.03844
G1 X138.194 Y69.735 E.01698
G1 X139.054 Y70.595 E.03844
G1 X138.517 Y70.595 E.01698
G1 X137.657 Y69.735 E.03844
G1 X137.119 Y69.735 E.01698
G1 X137.979 Y70.595 E.03844
G1 X137.442 Y70.595 E.01698
G1 X136.582 Y69.735 E.03844
G1 X136.044 Y69.735 E.01698
G1 X136.905 Y70.595 E.03844
G1 X136.367 Y70.595 E.01698
G1 X135.507 Y69.735 E.03844
G1 X134.969 Y69.735 E.01698
G1 X135.83 Y70.595 E.03844
G1 X135.292 Y70.595 E.01698
G1 X134.432 Y69.735 E.03844
G1 X133.895 Y69.735 E.01698
G1 X134.755 Y70.595 E.03844
G1 X134.217 Y70.595 E.01698
G1 X133.357 Y69.735 E.03844
G1 X132.82 Y69.735 E.01698
G1 X133.68 Y70.595 E.03844
G1 X133.142 Y70.595 E.01698
G1 X132.292 Y69.745 E.038
G1 X132.292 Y70.282 E.01698
G1 X132.775 Y70.765 E.02156
;WIPE_START
G1 F8640
G1 X132.292 Y70.282 E-.15758
G1 X132.292 Y69.745 E-.1241
G1 X133.142 Y70.595 E-.27767
G1 X133.68 Y70.595 E-.1241
G1 X133.445 Y70.361 E-.07656
;WIPE_END
G1 E-.04 F2100
G1 Z.6 F10800
G1 X159.091 Y71.284
G1 Z.2
G1 E.8 F2100
G1 F1200
G1 X160.121 Y72.314 E.04603
G1 X160.121 Y72.851 E.01698
G1 X159.261 Y71.991 E.03844
G1 X159.261 Y72.529 E.01698
G1 X160.121 Y73.389 E.03844
G1 X160.121 Y73.926 E.01698
G1 X159.261 Y73.066 E.03844
G1 X159.261 Y73.603 E.01698
G1 X160.121 Y74.464 E.03844
G1 X160.121 Y75.001 E.01698
G1 X159.261 Y74.141 E.03844
G1 X159.261 Y74.678 E.01698
G1 X160.121 Y75.539 E.03844
G1 X160.121 Y76.076 E.01698
M73 P2 R37
G1 X159.261 Y75.216 E.03844
G1 X159.261 Y75.753 E.01698
G1 X160.121 Y76.613 E.03844
G1 X160.121 Y77.151 E.01698
G1 X159.261 Y76.291 E.03844
G1 X159.261 Y76.828 E.01698
G1 X160.121 Y77.688 E.03844
G1 X160.121 Y78.226 E.01698
G1 X159.261 Y77.366 E.03844
G1 X159.261 Y77.903 E.01698
G1 X160.121 Y78.763 E.03844
G1 X160.121 Y79.301 E.01698
G1 X159.261 Y78.44 E.03844
G1 X159.261 Y78.978 E.01698
G1 X160.121 Y79.838 E.03844
G1 X160.121 Y80.376 E.01698
G1 X159.261 Y79.515 E.03844
G1 X159.261 Y80.053 E.01698
G1 X160.121 Y80.913 E.03844
G1 X160.121 Y81.45 E.01698
G1 X159.261 Y80.59 E.03844
G1 X159.261 Y81.128 E.01698
G1 X160.121 Y81.988 E.03844
G1 X160.121 Y82.525 E.01698
G1 X159.261 Y81.665 E.03844
G1 X159.261 Y82.203 E.01698
G1 X160.121 Y83.063 E.03844
G1 X160.121 Y83.6 E.01698
G1 X159.261 Y82.74 E.03844
G1 X159.261 Y83.277 E.01698
G1 X160.121 Y84.138 E.03844
G1 X160.121 Y84.675 E.01698
G1 X159.261 Y83.815 E.03844
G1 X159.261 Y84.352 E.01698
G1 X160.121 Y85.213 E.03844
G1 X160.121 Y85.75 E.01698
G1 X159.261 Y84.89 E.03844
G1 X159.261 Y85.427 E.01698
M73 P2 R36
G1 X160.121 Y86.287 E.03844
G1 X160.121 Y86.825 E.01698
G1 X159.261 Y85.965 E.03844
G1 X159.261 Y86.502 E.01698
G1 X160.121 Y87.362 E.03844
G1 X160.121 Y87.9 E.01698
G1 X159.261 Y87.04 E.03844
G1 X159.261 Y87.577 E.01698
G1 X160.121 Y88.437 E.03844
G1 X160.121 Y88.975 E.01698
G1 X159.261 Y88.114 E.03844
G1 X159.261 Y88.652 E.01698
G1 X160.121 Y89.512 E.03844
G1 X160.121 Y90.05 E.01698
G1 X159.261 Y89.189 E.03844
G1 X159.261 Y89.727 E.01698
G1 X160.121 Y90.587 E.03844
G1 X160.121 Y91.124 E.01698
G1 X159.261 Y90.264 E.03844
G1 X159.261 Y90.802 E.01698
G1 X160.121 Y91.662 E.03844
G1 X160.121 Y92.199 E.01698
G1 X159.261 Y91.339 E.03844
G1 X159.261 Y91.877 E.01698
G1 X160.121 Y92.737 E.03844
G1 X160.121 Y93.274 E.01698
G1 X159.261 Y92.414 E.03844
G1 X159.261 Y92.951 E.01698
G1 X160.121 Y93.812 E.03844
G1 X160.121 Y94.349 E.01698
G1 X159.261 Y93.489 E.03844
G1 X159.261 Y94.026 E.01698
G1 X160.121 Y94.887 E.03844
G1 X160.121 Y95.424 E.01698
G1 X159.261 Y94.564 E.03844
G1 X159.261 Y95.101 E.01698
G1 X160.121 Y95.961 E.03844
G1 X160.121 Y96.499 E.01698
G1 X159.261 Y95.639 E.03844
G1 X159.261 Y96.176 E.01698
G1 X160.121 Y97.036 E.03844
G1 X160.121 Y97.574 E.01698
G1 X159.261 Y96.714 E.03844
G1 X159.261 Y97.251 E.01698
G1 X160.121 Y98.111 E.03844
G1 X160.121 Y98.649 E.01698
G1 X159.261 Y97.788 E.03844
G1 X159.261 Y98.326 E.01698
G1 X160.121 Y99.186 E.03844
G1 X160.121 Y99.724 E.01698
G1 X159.261 Y98.863 E.03844
G1 X159.261 Y99.401 E.01698
G1 X160.121 Y100.261 E.03844
G1 X160.121 Y100.798 E.01698
G1 X159.261 Y99.938 E.03844
G1 X159.261 Y100.476 E.01698
G1 X160.121 Y101.336 E.03844
G1 X160.121 Y101.873 E.01698
G1 X159.261 Y101.013 E.03844
G1 X159.261 Y101.551 E.01698
G1 X160.121 Y102.411 E.03844
G1 X160.121 Y102.948 E.01698
G1 X159.261 Y102.088 E.03844
G1 X159.261 Y102.625 E.01698
G1 X160.121 Y103.486 E.03844
G1 X160.121 Y104.023 E.01698
G1 X159.261 Y103.163 E.03844
G1 X159.261 Y103.7 E.01698
G1 X160.121 Y104.561 E.03844
G1 X160.121 Y105.098 E.01698
G1 X159.261 Y104.238 E.03844
G1 X159.261 Y104.775 E.01698
G1 X160.121 Y105.635 E.03844
G1 X160.121 Y106.173 E.01698
G1 X159.261 Y105.313 E.03844
G1 X159.261 Y105.85 E.01698
G1 X160.121 Y106.71 E.03844
G1 X160.121 Y107.248 E.01698
G1 X159.261 Y106.388 E.03844
G1 X159.261 Y106.925 E.01698
G1 X160.121 Y107.795 E.03867
G1 X159.594 Y107.795 E.01667
G1 X158.733 Y106.935 E.03844
G1 X158.196 Y106.935 E.01698
G1 X159.056 Y107.795 E.03844
G1 X158.519 Y107.795 E.01698
G1 X157.658 Y106.935 E.03844
G1 X157.121 Y106.935 E.01698
G1 X157.981 Y107.795 E.03844
G1 X157.444 Y107.795 E.01698
G1 X156.584 Y106.935 E.03844
G1 X156.046 Y106.935 E.01698
G1 X156.906 Y107.795 E.03844
G1 X156.369 Y107.795 E.01698
G1 X155.509 Y106.935 E.03844
G1 X154.971 Y106.935 E.01698
G1 X155.831 Y107.795 E.03844
G1 X155.294 Y107.795 E.01698
G1 X154.434 Y106.935 E.03844
G1 X153.896 Y106.935 E.01698
G1 X154.757 Y107.795 E.03844
G1 X154.219 Y107.795 E.01698
G1 X153.359 Y106.935 E.03844
G1 X152.821 Y106.935 E.01698
G1 X153.682 Y107.795 E.03844
G1 X153.144 Y107.795 E.01698
G1 X152.284 Y106.935 E.03844
G1 X151.747 Y106.935 E.01698
G1 X152.607 Y107.795 E.03844
G1 X152.069 Y107.795 E.01698
G1 X151.209 Y106.935 E.03844
G1 X150.672 Y106.935 E.01698
G1 X151.532 Y107.795 E.03844
G1 X150.994 Y107.795 E.01698
G1 X150.134 Y106.935 E.03844
G1 X149.597 Y106.935 E.01698
G1 X150.457 Y107.795 E.03844
G1 X149.92 Y107.795 E.01698
G1 X149.059 Y106.935 E.03844
G1 X148.522 Y106.935 E.01698
G1 X149.382 Y107.795 E.03844
G1 X148.845 Y107.795 E.01698
G1 X147.984 Y106.935 E.03844
G1 X147.447 Y106.935 E.01698
G1 X148.307 Y107.795 E.03844
G1 X147.77 Y107.795 E.01698
G1 X146.91 Y106.935 E.03844
G1 X146.372 Y106.935 E.01698
G1 X147.232 Y107.795 E.03844
G1 X146.695 Y107.795 E.01698
G1 X145.835 Y106.935 E.03844
G1 X145.297 Y106.935 E.01698
G1 X146.157 Y107.795 E.03844
G1 X145.62 Y107.795 E.01698
G1 X144.76 Y106.935 E.03844
G1 X144.222 Y106.935 E.01698
G1 X145.083 Y107.795 E.03844
G1 X144.545 Y107.795 E.01698
G1 X143.685 Y106.935 E.03844
G1 X143.147 Y106.935 E.01698
G1 X144.008 Y107.795 E.03844
G1 X143.47 Y107.795 E.01698
G1 X142.61 Y106.935 E.03844
G1 X142.073 Y106.935 E.01698
G1 X142.933 Y107.795 E.03844
G1 X142.395 Y107.795 E.01698
G1 X141.535 Y106.935 E.03844
G1 X140.998 Y106.935 E.01698
G1 X141.858 Y107.795 E.03844
G1 X141.32 Y107.795 E.01698
G1 X140.46 Y106.935 E.03844
G1 X139.923 Y106.935 E.01698
G1 X140.783 Y107.795 E.03844
G1 X140.246 Y107.795 E.01698
G1 X139.385 Y106.935 E.03844
G1 X138.848 Y106.935 E.01698
G1 X139.708 Y107.795 E.03844
G1 X139.171 Y107.795 E.01698
G1 X138.31 Y106.935 E.03844
G1 X137.773 Y106.935 E.01698
G1 X138.633 Y107.795 E.03844
G1 X138.096 Y107.795 E.01698
G1 X137.236 Y106.935 E.03844
G1 X136.698 Y106.935 E.01698
G1 X137.558 Y107.795 E.03844
G1 X137.021 Y107.795 E.01698
G1 X136.161 Y106.935 E.03844
G1 X135.623 Y106.935 E.01698
G1 X136.483 Y107.795 E.03844
G1 X135.946 Y107.795 E.01698
G1 X135.086 Y106.935 E.03844
G1 X134.548 Y106.935 E.01698
G1 X135.409 Y107.795 E.03844
G1 X134.871 Y107.795 E.01698
G1 X134.011 Y106.935 E.03844
G1 X133.473 Y106.935 E.01698
G1 X134.334 Y107.795 E.03844
G1 X133.796 Y107.795 E.01698
G1 X132.936 Y106.935 E.03844
G1 X132.399 Y106.935 E.01698
G1 X133.259 Y107.795 E.03844
G1 X132.721 Y107.795 E.01698
G1 X132.122 Y107.196 E.02676
; stop printing object DrehHalterGross.stl id:1 copy 0
; printing object SchwenkhalterGross.stl id:0 copy 0
;WIPE_START
G1 F8640
G1 X132.721 Y107.795 E-.19555
G1 X133.259 Y107.795 E-.1241
G1 X132.399 Y106.935 E-.28091
G1 X132.936 Y106.935 E-.1241
G1 X133.044 Y107.043 E-.03534
;WIPE_END
G1 E-.04 F2100
G1 Z.6 F10800
G1 X155.996 Y149.546
G1 Z.2
G1 E.8 F2100
;TYPE:External perimeter
;WIDTH:0.42
G1 F1200
G1 X156.305 Y149.438 E.01027
G1 X156.594 Y149.405 E.00911
G1 X156.954 Y149.437 E.01132
G1 X157.265 Y149.546 E.01036
G1 X157.543 Y149.721 E.01028
G1 X157.773 Y149.955 E.0103
G1 X157.943 Y150.235 E.01026
G1 X158.048 Y150.547 E.01032
G1 X158.068 Y150.864 E.00996
G1 X158.048 Y151.181 E.00996
G1 X157.943 Y151.493 E.01032
G1 X157.773 Y151.772 E.01026
G1 X157.543 Y152.006 E.0103
G1 X157.265 Y152.181 E.01028
G1 X156.956 Y152.29 E.01027
G1 X156.631 Y152.326 E.01027
G1 X156.305 Y152.29 E.01027
G1 X155.993 Y152.181 E.01035
G1 X155.692 Y151.981 E.01132
G1 X155.487 Y151.776 E.00911
G1 X155.313 Y151.498 E.01027
G1 X155.205 Y151.189 E.01027
G1 X155.168 Y150.864 E.01027
G1 X155.205 Y150.538 E.01027
G1 X155.313 Y150.229 E.01027
G1 X155.487 Y149.952 E.01027
G1 X155.719 Y149.72 E.01027
G1 X155.945 Y149.578 E.00839
G1 X156.02 Y149.219 F10800
;WIPE_START
G1 F8640
G1 X156.305 Y149.438 E-.08919
G1 X156.594 Y149.405 E-.06711
G1 X156.954 Y149.437 E-.08339
G1 X157.265 Y149.546 E-.07626
G1 X157.543 Y149.721 E-.07574
G1 X157.773 Y149.955 E-.07582
G1 X157.943 Y150.235 E-.07556
G1 X158.048 Y150.547 E-.07602
G1 X158.068 Y150.864 E-.07332
G1 X158.05 Y151.156 E-.0676
;WIPE_END
G1 E-.04 F2100
G1 Z.6 F10800
G1 X156.631 Y124.226
G1 Z.2
G1 E.8 F2100
G1 F1200
G1 X156.305 Y124.19 E.01027
G1 X155.993 Y124.081 E.01035
G1 X155.692 Y123.881 E.01132
G1 X155.487 Y123.676 E.00911
G1 X155.313 Y123.398 E.01027
G1 X155.205 Y123.089 E.01027
G1 X155.168 Y122.764 E.01027
G1 X155.205 Y122.438 E.01027
G1 X155.313 Y122.129 E.01027
G1 X155.487 Y121.852 E.01027
G1 X155.719 Y121.62 E.01027
G1 X155.996 Y121.446 E.01027
G1 X156.305 Y121.338 E.01027
G1 X156.594 Y121.305 E.00911
G1 X156.954 Y121.337 E.01132
G1 X157.265 Y121.446 E.01036
G1 X157.543 Y121.621 E.01028
G1 X157.773 Y121.855 E.0103
G1 X157.943 Y122.135 E.01026
G1 X158.048 Y122.447 E.01032
G1 X158.068 Y122.764 E.00996
G1 X158.048 Y123.081 E.00996
G1 X157.943 Y123.393 E.01032
G1 X157.773 Y123.672 E.01026
G1 X157.543 Y123.906 E.0103
G1 X157.265 Y124.081 E.01028
G1 X156.956 Y124.19 E.01027
G1 X156.69 Y124.22 E.00839
G1 X156.467 Y124.51 F10800
;WIPE_START
G1 F8640
G1 X156.305 Y124.19 E-.08919
G1 X155.993 Y124.081 E-.07622
G1 X155.692 Y123.881 E-.08337
G1 X155.487 Y123.676 E-.06711
G1 X155.313 Y123.398 E-.07563
G1 X155.205 Y123.089 E-.07562
G1 X155.168 Y122.764 E-.07562
G1 X155.205 Y122.438 E-.07562
G1 X155.313 Y122.129 E-.07562
G1 X155.465 Y121.887 E-.06599
;WIPE_END
G1 E-.04 F2100
G1 Z.6 F10800
G1 X143.79 Y149.19
G1 Z.2
G1 E.8 F2100
;TYPE:Perimeter
G1 F1200
