; generated by PrusaSlicer 2.4.1+win64 on 2022-04-15 at 12:33:43 UTC

; 

; external perimeters extrusion width = 0.45mm
; perimeters extrusion width = 0.45mm
; infill extrusion width = 0.45mm
; solid infill extrusion width = 0.45mm
; top infill extrusion width = 0.40mm
; support material extrusion width = 0.35mm
; first layer extrusion width = 0.42mm

M73 P0 R141
M107
;TYPE:Custom
M862.3 P "MK2S" ; printer model check
M862.1 P0.4 ; nozzle diameter check
M115 U3.2.3 ; tell printer latest fw version
G90 ; use absolute coordinates
M83 ; extruder relative mode
M204 S2000 T1500 ; MK2 firmware only supports the old M204 format
M104 S215 ; set extruder temp
M140 S60 ; set bed temp
M190 S60 ; wait for bed temp
M109 S215 ; wait for extruder temp
G28 W ; home all without mesh bed level
G80 ; mesh bed leveling
G1 Y-3.0 F1000.0 ; go outside print area
G92 E0.0
G1 X60.0 E9.0  F1000.0 ; intro line
G1 X100.0 E12.5 F1000.0 ; intro line
G92 E0.0
G21 ; set units to millimeters
G90 ; use absolute coordinates
M83 ; use relative distances for extrusion
M900 K0.05 ; Filament gcode LA 1.5
M900 K30 ; Filament gcode LA 1.0
M107
;LAYER_CHANGE
;Z:0.2
;HEIGHT:0.2
;BEFORE_LAYER_CHANGE
G92 E0.0
;0.2


G1 E-.8 F2100
G1 Z.4 F10800
;AFTER_LAYER_CHANGE
;0.2
G1 X82.173 Y63.049
G1 Z.2
G1 E.8 F2100
M204 S1000
;TYPE:Skirt/Brim
;WIDTH:0.42
G1 F1200
G1 X83.065 Y62.242 E.0377
G1 X84.113 Y61.653 E.0377
G1 X85.266 Y61.313 E.03769
G1 X86.2 Y61.223 E.02941
G1 X164.066 Y61.238 E2.44144
G1 X165.253 Y61.432 E.0377
G1 X166.366 Y61.884 E.03769
G1 X167.351 Y62.574 E.03769
G1 X168.158 Y63.465 E.03769
G1 X168.629 Y64.235 E.02831
G1 X173.629 Y74.235 E.35055
G1 X173.968 Y75.147 E.03051
G1 X174.177 Y76.6 E.04601
G1 X174.162 Y133.666 E1.78927
G1 X173.968 Y134.853 E.03769
G1 X173.629 Y135.765 E.03051
G1 X168.629 Y145.765 E.35055
G1 X167.826 Y146.951 E.04492
G1 X166.935 Y147.758 E.03769
G1 X165.887 Y148.347 E.0377
G1 X164.734 Y148.687 E.0377
G1 X163.8 Y148.777 E.02941
G1 X86.2 Y148.777 E2.43309
G1 X85.266 Y148.687 E.02941
G1 X84.113 Y148.347 E.03769
G1 X83.622 Y148.109 E.01711
G1 X82.649 Y147.426 E.03728
G1 X81.924 Y146.658 E.03311
G1 X71.678 Y132.402 E.55047
G1 X71.231 Y131.014 E.0457
G1 X71.231 Y78.986 E1.63132
G1 X71.678 Y77.598 E.0457
G1 X82.138 Y63.098 E.56062
; printing object Sockel.stl id:0 copy 0
;WIPE_START
G1 F8640
G1 X83.065 Y62.242 E-.29119
G1 X84.113 Y61.653 E-.27762
G1 X84.907 Y61.419 E-.19119
;WIPE_END
G1 E-.04 F2100
G1 Z.6 F10800
G1 X97.951 Y73.165
G1 Z.2
G1 E.8 F2100
;TYPE:Support material
G1 F1200
G1 X93.635 Y73.165 E.13534
G1 X93.635 Y69.757 E.10684
G1 X97.951 Y69.757 E.13534
G1 X97.951 Y73.108 E.10507
G1 X97.348 Y72.995 F10800
G1 F1200
G1 X97.348 Y70.097 E.09088
G1 X96.929 Y70.097 E.01314
G1 X96.929 Y72.826 E.08556
G1 X96.51 Y72.826 E.01314
G1 X96.51 Y70.097 E.08556
G1 X96.091 Y70.097 E.01314
G1 X96.091 Y72.826 E.08556
G1 X95.672 Y72.826 E.01314
G1 X95.672 Y70.097 E.08556
G1 X95.253 Y70.097 E.01314
G1 X95.253 Y72.826 E.08556
G1 X94.834 Y72.826 E.01314
M73 P0 R140
G1 X94.834 Y70.097 E.08556
G1 X94.415 Y70.097 E.01314
G1 X94.415 Y72.826 E.08556
G1 X93.996 Y72.826 E.01314
G1 X93.996 Y69.927 E.09088
;WIPE_START
G1 F8640
G1 X93.996 Y72.826 E-.66927
G1 X94.389 Y72.826 E-.09073
;WIPE_END
G1 E-.04 F2100
G1 Z.6 F10800
G1 X97.951 Y85.431
G1 Z.2
G1 E.8 F2100
G1 F1200
G1 X97.951 Y93.5 E.25298
G1 X94.435 Y91.47 E.12731
G1 X94.435 Y88.011 E.10843
G1 X94.981 Y87.945 E.01726
G1 X95.657 Y87.711 E.02242
G1 X96.308 Y87.312 E.02393
G1 X96.884 Y86.743 E.02539
G1 X97.271 Y86.14 E.02247
G1 X97.472 Y85.6 E.01806
G1 X97.827 Y85.395 E.01287
G1 X97.897 Y85.416 E.0023
G1 X97.348 Y92.955 F10800
G1 F1200
G1 X97.348 Y86.65 E.19772
G1 X97.16 Y86.942 E.01089
G1 X96.929 Y87.184 E.01051
G1 X96.929 Y92.518 E.16722
G1 X96.51 Y92.276 E.01517
G1 X96.51 Y87.586 E.14706
G1 X96.091 Y87.847 E.01549
G1 X96.091 Y92.034 E.13127
G1 X95.672 Y91.792 E.01517
G1 X95.672 Y88.065 E.11685
G1 X95.253 Y88.21 E.0139
G1 X95.253 Y91.55 E.10472
G1 X94.834 Y91.308 E.01517
G1 X94.834 Y88.138 E.09941
;WIPE_START
G1 F8640
G1 X94.834 Y91.308 E-.73205
G1 X94.938 Y91.369 E-.02795
;WIPE_END
G1 E-.04 F2100
G1 Z.6 F10800
G1 X92.565 Y91.47
G1 Z.2
G1 E.8 F2100
G1 F1200
G1 X89 Y93.528 E.12907
G1 X87.45 Y92.633 E.0561
G1 X87.45 Y88.035 E.14418
G1 X92.565 Y88.035 E.16037
G1 X92.565 Y91.413 E.10592
G1 X91.901 Y91.657 F10800
G1 F1200
G1 X91.901 Y88.374 E.10293
G1 X91.482 Y88.374 E.01314
G1 X91.482 Y91.703 E.10438
G1 X91.063 Y91.945 E.01517
G1 X91.063 Y88.374 E.11196
G1 X90.644 Y88.374 E.01314
G1 X90.644 Y92.187 E.11954
G1 X90.225 Y92.429 E.01517
G1 X90.225 Y88.374 E.12713
G1 X89.806 Y88.374 E.01314
G1 X89.806 Y92.671 E.13471
G1 X89.387 Y92.913 E.01517
G1 X89.387 Y88.374 E.1423
G1 X88.968 Y88.374 E.01314
G1 X88.968 Y93.118 E.14872
G1 X88.549 Y92.876 E.01517
G1 X88.549 Y88.374 E.14114
G1 X88.13 Y88.374 E.01314
G1 X88.13 Y92.83 E.1397
;WIPE_START
G1 F8640
G1 X88.13 Y89.538 E-.76
;WIPE_END
G1 E-.04 F2100
G1 Z.6 F10800
G1 X97.065 Y95.148
G1 Z.2
G1 E.8 F2100
G1 F1200
G1 X97.065 Y99.264 E.12907
G1 X93.5 Y101.322 E.12907
G1 X89.935 Y99.264 E.12907
G1 X89.935 Y95.148 E.12907
G1 X93.5 Y93.089 E.12907
G1 X97.016 Y95.119 E.1273
G1 X96.51 Y99.389 F10800
G1 F1200
G1 X96.51 Y95.219 E.13075
G1 X96.091 Y94.977 E.01517
G1 X96.091 Y99.435 E.13977
G1 X95.672 Y99.677 E.01517
G1 X95.672 Y94.735 E.15494
G1 X95.253 Y94.493 E.01517
G1 X95.253 Y99.919 E.17011
G1 X94.834 Y100.16 E.01517
G1 X94.834 Y94.251 E.18528
G1 X94.415 Y94.009 E.01517
G1 X94.415 Y100.402 E.20045
G1 X93.996 Y100.644 E.01517
G1 X93.996 Y93.767 E.21562
G1 X93.577 Y93.525 E.01517
G1 X93.577 Y100.886 E.23079
G1 X93.5 Y100.93 E.00278
G1 X93.158 Y100.733 E.01239
G1 X93.158 Y93.679 E.22118
G1 X92.739 Y93.921 E.01517
G1 X92.739 Y100.491 E.20601
G1 X92.32 Y100.249 E.01517
G1 X92.32 Y94.163 E.19084
G1 X91.901 Y94.404 E.01517
G1 X91.901 Y100.007 E.17567
G1 X91.482 Y99.765 E.01517
G1 X91.482 Y94.646 E.1605
G1 X91.063 Y94.888 E.01517
G1 X91.063 Y99.523 E.14533
G1 X90.644 Y99.281 E.01517
G1 X90.644 Y94.934 E.13631
;WIPE_START
G1 F8640
G1 X90.644 Y98.226 E-.76
;WIPE_END
G1 E-.04 F2100
G1 Z.6 F10800
G1 X92.565 Y102.942
G1 Z.2
G1 E.8 F2100
G1 F1200
G1 X92.565 Y107.058 E.12907
G1 X89 Y109.117 E.12907
G1 X87.45 Y108.222 E.0561
G1 X87.45 Y101.778 E.20204
G1 X89 Y100.883 E.0561
G1 X92.516 Y102.913 E.1273
G1 X91.901 Y107.246 F10800
G1 F1200
G1 X91.901 Y102.95 E.13469
G1 X91.482 Y102.708 E.01517
G1 X91.482 Y107.292 E.14371
G1 X91.063 Y107.534 E.01517
G1 X91.063 Y102.466 E.15888
G1 X90.644 Y102.224 E.01517
G1 X90.644 Y107.776 E.17405
G1 X90.225 Y108.017 E.01517
G1 X90.225 Y101.983 E.18922
G1 X89.806 Y101.741 E.01517
G1 X89.806 Y108.259 E.20439
G1 X89.387 Y108.501 E.01517
G1 X89.387 Y101.499 E.21956
G1 X89 Y101.275 E.01401
G1 X88.968 Y101.294 E.00116
G1 X88.968 Y108.706 E.23241
G1 X88.549 Y108.464 E.01517
G1 X88.549 Y101.536 E.21724
G1 X88.13 Y101.778 E.01517
G1 X88.13 Y108.418 E.20821
;WIPE_START
G1 F8640
G1 X88.13 Y105.127 E-.76
;WIPE_END
G1 E-.04 F2100
G1 Z.6 F10800
G1 X97.065 Y110.736
G1 Z.2
G1 E.8 F2100
G1 F1200
G1 X97.065 Y114.852 E.12907
G1 X93.5 Y116.911 E.12907
G1 X89.935 Y114.852 E.12907
G1 X89.935 Y110.736 E.12907
G1 X93.5 Y108.678 E.12907
G1 X97.016 Y110.708 E.1273
G1 X96.51 Y114.977 F10800
G1 F1200
G1 X96.51 Y110.807 E.13075
G1 X96.091 Y110.565 E.01517
G1 X96.091 Y115.023 E.13978
G1 X95.672 Y115.265 E.01517
G1 X95.672 Y110.323 E.15494
G1 X95.253 Y110.081 E.01517
G1 X95.253 Y115.507 E.17011
G1 X94.834 Y115.749 E.01517
G1 X94.834 Y109.84 E.18528
G1 X94.415 Y109.598 E.01517
G1 X94.415 Y115.991 E.20045
G1 X93.996 Y116.233 E.01517
G1 X93.996 Y109.356 E.21562
G1 X93.577 Y109.114 E.01517
G1 X93.577 Y116.475 E.23079
G1 X93.5 Y116.519 E.00278
G1 X93.158 Y116.321 E.01239
G1 X93.158 Y109.267 E.22118
G1 X92.739 Y109.509 E.01517
G1 X92.739 Y116.079 E.20601
G1 X92.32 Y115.837 E.01517
G1 X92.32 Y109.751 E.19084
G1 X91.901 Y109.993 E.01517
G1 X91.901 Y115.596 E.17567
G1 X91.482 Y115.354 E.01517
G1 X91.482 Y110.235 E.1605
G1 X91.063 Y110.477 E.01517
G1 X91.063 Y115.112 E.14533
G1 X90.644 Y114.87 E.01517
G1 X90.644 Y110.523 E.13631
;WIPE_START
G1 F8640
G1 X90.644 Y113.814 E-.76
;WIPE_END
G1 E-.04 F2100
G1 Z.6 F10800
G1 X97.951 Y109.088
G1 Z.2
G1 E.8 F2100
G1 F1200
G1 X94.435 Y107.058 E.12731
G1 X94.435 Y102.942 E.12907
G1 X97.951 Y100.912 E.12731
G1 X97.951 Y109.032 E.25461
G1 X97.348 Y108.544 F10800
G1 F1200
G1 X97.348 Y101.652 E.21609
G1 X96.929 Y101.894 E.01517
G1 X96.929 Y108.106 E.19477
G1 X96.51 Y107.864 E.01517
G1 X96.51 Y102.136 E.17961
G1 X96.091 Y102.378 E.01517
G1 X96.091 Y107.622 E.16444
G1 X95.672 Y107.38 E.01517
G1 X95.672 Y102.62 E.14927
G1 X95.253 Y102.862 E.01517
G1 X95.253 Y107.138 E.1341
G1 X94.834 Y106.897 E.01517
G1 X94.834 Y102.908 E.12507
;WIPE_START
G1 F8640
G1 X94.834 Y106.199 E-.76
;WIPE_END
G1 E-.04 F2100
G1 Z.6 F10800
G1 X97.951 Y124.569
G1 Z.2
G1 E.8 F2100
G1 F1200
G1 X97.827 Y124.605 E.00407
G1 X97.471 Y124.4 E.01287
G1 X97.271 Y123.86 E.01805
G1 X96.884 Y123.257 E.02247
G1 X96.308 Y122.688 E.02539
G1 X95.657 Y122.289 E.02393
G1 X94.981 Y122.055 E.02242
G1 X94.435 Y121.989 E.01726
G1 X94.435 Y118.53 E.10843
G1 X97.951 Y116.5 E.12731
G1 X97.951 Y124.512 E.25121
G1 X97.348 Y123.665 F10800
G1 F1200
G1 X97.348 Y117.241 E.20143
G1 X96.929 Y117.482 E.01517
G1 X96.929 Y122.816 E.16722
G1 X96.51 Y122.414 E.01819
G1 X96.51 Y117.724 E.14706
G1 X96.091 Y117.966 E.01517
G1 X96.091 Y122.153 E.13127
G1 X95.864 Y122.012 E.00838
G1 X95.672 Y121.935 E.00648
G1 X95.672 Y118.208 E.11685
G1 X95.253 Y118.45 E.01517
G1 X95.253 Y121.79 E.10472
G1 X95.075 Y121.728 E.0059
G1 X94.834 Y121.692 E.00765
G1 X94.834 Y118.496 E.1002
;WIPE_START
G1 F8640
G1 X94.834 Y121.692 E-.73787
G1 X94.928 Y121.706 E-.02213
;WIPE_END
G1 E-.04 F2100
G1 Z.6 F10800
G1 X77.765 Y131.014
G1 Z.2
G1 E.8 F2100
G1 F1200
G1 X73.608 Y131.014 E.13034
G1 X73.608 Y78.986 E1.63132
G1 X77.765 Y78.986 E.13034
G1 X77.765 Y130.958 E1.62954
G1 X77.237 Y130.845 F10800
G1 F1200
G1 X77.237 Y79.325 E1.61536
G1 X76.818 Y79.325 E.01314
G1 X76.818 Y130.675 E1.61004
G1 X76.399 Y130.675 E.01314
G1 X76.399 Y79.325 E1.61004
G1 X75.98 Y79.325 E.01314
G1 X75.98 Y130.675 E1.61004
G1 X75.561 Y130.675 E.01314
G1 X75.561 Y79.325 E1.61004
G1 X75.142 Y79.325 E.01314
G1 X75.142 Y130.675 E1.61004
G1 X74.723 Y130.675 E.01314
G1 X74.723 Y79.325 E1.61004
G1 X74.304 Y79.325 E.01314
G1 X74.304 Y130.845 E1.61536
;WIPE_START
G1 F8640
M73 P1 R140
G1 X74.304 Y127.553 E-.76
;WIPE_END
G1 E-.04 F2100
G1 Z.6 F10800
G1 X153.865 Y140.208
G1 Z.2
M73 P1 R139
G1 E.8 F2100
G1 F1200
G1 X153.865 Y142.592 E.07476
G1 X151.8 Y143.784 E.07476
G1 X149.735 Y142.592 E.07476
G1 X149.735 Y140.208 E.07476
G1 X151.8 Y139.016 E.07476
G1 X153.816 Y140.179 E.07299
G1 X153.49 Y142.613 F10800
G1 F1200
G1 X153.49 Y140.383 E.06989
G1 X153.071 Y140.141 E.01517
G1 X153.071 Y142.659 E.07892
G1 X152.652 Y142.9 E.01517
G1 X152.652 Y139.9 E.09409
G1 X152.234 Y139.658 E.01517
G1 X152.234 Y143.142 E.10926
G1 X151.815 Y143.384 E.01517
G1 X151.815 Y139.416 E.12443
G1 X151.8 Y139.407 E.00053
G1 X151.396 Y139.641 E.01464
G1 X151.396 Y143.159 E.11031
G1 X150.977 Y142.917 E.01517
G1 X150.977 Y139.883 E.09514
G1 X150.558 Y140.125 E.01517
G1 X150.558 Y142.675 E.07997
G1 X150.139 Y142.433 E.01517
G1 X150.139 Y140.171 E.07095
;WIPE_START
G1 F8640
G1 X150.139 Y142.433 E-.52247
G1 X150.558 Y142.675 E-.11171
G1 X150.558 Y142.13 E-.12582
;WIPE_END
G1 E-.04 F2100
G1 Z.6 F10800
G1 X153.865 Y67.408
G1 Z.2
G1 E.8 F2100
G1 F1200
G1 X153.865 Y69.792 E.07476
G1 X151.8 Y70.984 E.07476
G1 X149.735 Y69.792 E.07476
G1 X149.735 Y67.408 E.07476
G1 X151.8 Y66.216 E.07476
G1 X153.816 Y67.379 E.07299
G1 X153.49 Y69.813 F10800
G1 F1200
G1 X153.49 Y67.583 E.06989
G1 X153.071 Y67.341 E.01517
G1 X153.071 Y69.859 E.07892
G1 X152.652 Y70.1 E.01517
G1 X152.652 Y67.1 E.09409
G1 X152.234 Y66.858 E.01517
G1 X152.234 Y70.342 E.10926
G1 X151.815 Y70.584 E.01517
G1 X151.815 Y66.616 E.12443
G1 X151.8 Y66.607 E.00053
G1 X151.396 Y66.841 E.01464
G1 X151.396 Y70.359 E.11031
G1 X150.977 Y70.117 E.01517
G1 X150.977 Y67.083 E.09514
G1 X150.558 Y67.325 E.01517
G1 X150.558 Y69.875 E.07997
G1 X150.139 Y69.633 E.01517
G1 X150.139 Y67.371 E.07095
;WIPE_START
G1 F8640
G1 X150.139 Y69.633 E-.52247
G1 X150.558 Y69.875 E-.11171
G1 X150.558 Y69.33 E-.12582
;WIPE_END
G1 E-.04 F2100
G1 Z.6 F10800
G1 X152.177 Y84.115
G1 Z.2
G1 E.8 F2100
;TYPE:Perimeter
G1 F1200
G1 X152.619 Y84.282 E.01481
G1 X153.519 Y84.753 E.03184
G1 X153.82 Y85.577 E.02753
G1 X154.085 Y85.99 E.01538
G1 X154.434 Y86.334 E.01537
G1 X154.851 Y86.594 E.01541
G1 X155.337 Y86.764 E.01614
G1 X156.423 Y86.96 E.03462
G1 X157.452 Y86.847 E.03244
G1 X157.982 Y86.818 E.01666
G1 X165.788 Y86.813 E.24474
G1 X165.782 Y90.823 E.12574
G1 X165.752 Y91.318 E.01554
G1 X165.677 Y91.907 E.01863
G1 X166.243 Y92.147 E.01927
G1 X166.701 Y92.378 E.01607
G1 X169.587 Y94.037 E.10439
G1 X169.587 Y100.374 E.1987
G1 X166.701 Y102.034 E.10439
G1 X166.243 Y102.264 E.01607
G1 X165.677 Y102.504 E.01927
G1 X165.752 Y103.098 E.01877
G1 X165.782 Y103.597 E.01567
G1 X165.782 Y106.403 E.08798
G1 X165.752 Y106.902 E.01567
G1 X165.677 Y107.496 E.01877
G1 X166.243 Y107.736 E.01927
G1 X166.701 Y107.966 E.01607
G1 X169.587 Y109.626 E.10439
G1 X169.587 Y115.962 E.19868
G1 X165.5 Y118.322 E.14799
G1 X161.894 Y116.234 E.13065
G1 X161.477 Y115.959 E.01565
G1 X161 Y115.597 E.01878
G1 X160.523 Y115.959 E.01878
G1 X160.107 Y116.233 E.01561
G1 X159.294 Y116.709 E.02954
G1 X157.675 Y117.637 E.05853
G1 X157.229 Y117.861 E.01564
G1 X156.677 Y118.093 E.01878
G1 X156.752 Y118.682 E.01864
G1 X156.782 Y119.177 E.01554
G1 X156.788 Y123.187 E.12574
G1 X155.844 Y123.187 E.0296
G1 X155.313 Y123.246 E.01675
G1 X154.85 Y123.407 E.01537
G1 X154.434 Y123.666 E.01537
G1 X154.085 Y124.01 E.01537
G1 X153.82 Y124.423 E.01538
G1 X153.518 Y125.248 E.02753
G1 X152.619 Y125.718 E.03184
G1 X152.177 Y125.885 E.01481
G1 X152.252 Y126.481 E.01883
G1 X152.282 Y126.979 E.01565
G1 X152.288 Y131.146 E.13065
G1 X147.5 Y133.911 E.17335
G1 X143.894 Y131.822 E.13065
G1 X143.477 Y131.547 E.01565
G1 X143 Y131.185 E.01878
G1 X142.523 Y131.547 E.01878
G1 X142.106 Y131.822 E.01565
G1 X138.5 Y133.911 E.13067
G1 X134.894 Y131.822 E.13067
G1 X134.477 Y131.547 E.01565
G1 X134 Y131.185 E.01878
G1 X133.523 Y131.547 E.01878
G1 X133.106 Y131.822 E.01565
G1 X129.5 Y133.911 E.13067
G1 X125.894 Y131.822 E.13067
G1 X125.477 Y131.547 E.01565
G1 X125 Y131.185 E.01878
G1 X124.523 Y131.547 E.01878
G1 X124.106 Y131.822 E.01565
G1 X120.5 Y133.911 E.13067
G1 X116.894 Y131.822 E.13067
G1 X116.477 Y131.547 E.01565
G1 X116 Y131.185 E.01878
G1 X115.523 Y131.547 E.01878
G1 X115.106 Y131.822 E.01565
G1 X111.5 Y133.911 E.13067
G1 X107.894 Y131.822 E.13067
G1 X107.477 Y131.547 E.01565
G1 X107 Y131.185 E.01878
G1 X106.523 Y131.547 E.01878
G1 X106.106 Y131.822 E.01565
G1 X102.5 Y133.911 E.13065
G1 X97.712 Y131.146 E.17335
G1 X97.718 Y126.979 E.13065
G1 X97.748 Y126.481 E.01565
G1 X97.823 Y125.885 E.01883
G1 X97.381 Y125.718 E.01481
G1 X96.481 Y125.247 E.03184
G1 X96.18 Y124.423 E.02753
G1 X95.915 Y124.01 E.01538
G1 X95.566 Y123.666 E.01537
G1 X95.15 Y123.407 E.01537
G1 X94.687 Y123.246 E.01537
G1 X94.156 Y123.187 E.01675
G1 X93.212 Y123.187 E.0296
G1 X93.218 Y119.177 E.12574
G1 X93.248 Y118.682 E.01554
G1 X93.323 Y118.093 E.01864
G1 X92.771 Y117.861 E.01878
G1 X92.325 Y117.637 E.01564
G1 X90.706 Y116.709 E.05853
G1 X89.893 Y116.233 E.02954
G1 X89.477 Y115.959 E.01561
G1 X89 Y115.597 E.01878
G1 X88.523 Y115.959 E.01878
G1 X88.106 Y116.234 E.01565
G1 X84.5 Y118.322 E.13065
G1 X80.413 Y115.962 E.14799
G1 X80.413 Y109.626 E.19866
G1 X82.94 Y108.168 E.09149
G1 X83.773 Y107.725 E.02957
G1 X84.323 Y107.496 E.01868
G1 X84.248 Y106.902 E.01878
G1 X84.218 Y106.403 E.01567
G1 X84.218 Y103.597 E.08798
G1 X84.248 Y103.098 E.01567
G1 X84.323 Y102.504 E.01877
G1 X83.757 Y102.264 E.01927
G1 X83.299 Y102.034 E.01607
G1 X80.413 Y100.374 E.10439
G1 X80.413 Y94.038 E.19868
G1 X82.94 Y92.579 E.09149
G1 X83.773 Y92.137 E.02957
G1 X84.323 Y91.908 E.01868
G1 X84.248 Y91.318 E.01864
G1 X84.218 Y90.823 E.01554
G1 X84.212 Y86.812 E.12575
G1 X92.016 Y86.818 E.2447
G1 X92.548 Y86.847 E.0167
G1 X93.577 Y86.96 E.03244
