( Made using CamBam - http://www.cambam.co.uk )
( schanpsbrett_ehingen 12/10/2018 6:43:23 PM )
( T15 : 1.5 )
G21 G90 G64 G40
G0 Z3.0
( T15 : 1.5 )
T15 M6
( Profil1Streifen )
G17
M3 S1000
G0 X6.91205 Y-29.78762
G0 Z1.0
G1 F300.0 Z-1.0
G3 F800.0 X16.75456 Y-26.42066 I-4.67878 J29.74698
G3 X16.93237 Y-25.24261 I-0.36167 J0.65703
G1 X-31.08149 Y24.47285
G3 X-32.37097 Y23.95183 I-0.53948 J-0.52102
G1 Y6.7459
G3 X-32.16122 Y6.22568 I0.75 J0.0
G1 X2.42778 Y-29.69567
G3 X2.99325 Y-29.92503 I0.54025 J0.52022
G1 X6.82073 Y-29.7963
G3 X6.91205 Y-29.78762 I-0.02521 J0.74958
G0 Z3.0
G0 X-13.22525 Y-29.74683
G0 Z1.0
G1 F300.0 Z-1.0
G3 F800.0 X-13.44492 Y-29.21498 I-0.75 J0.00152
G1 X-31.09064 Y-11.56926
G3 X-32.37097 Y-12.09959 I-0.53033 J-0.53033
G1 Y-30.33879
G3 X-31.59576 Y-31.08836 I0.75 J0.0
G1 X-13.95004 Y-30.49488
G3 X-13.22525 Y-29.74683 I-0.02521 J0.74958
G0 Z3.0
G0 X12.45659 Y-5.02814
G0 Z1.0
G1 F300.0 Z-1.0
G1 F800.0 X25.15261 Y-18.21886
G3 X26.2922 Y-18.14979 I0.54037 J0.5201
G3 X31.99155 Y-4.647 I-24.05893 J18.10916
G3 X31.78617 Y-4.00746 I-0.74117 J0.11473
G1 X-1.34185 Y29.81367
G3 X-1.84969 Y30.03834 I-0.53579 J-0.52481
G1 X-20.1617 Y30.72115
G3 X-20.73002 Y29.45158 I-0.02795 J-0.74948
G1 X12.45659 Y-5.02814
G0 Z3.0
M5
M30
