( Made using CamBam - http://www.cambam.co.uk )
( schanpsbrett_svr 12/1/2018 12:29:54 PM )
( T2 : 2.0 )
( T3 : 3.0 )
G21 G90 G64 G40
G0 Z3.0
( T3 : 3.0 )
T3 M6
( Tasche3mm )
G17
M3 S1000
G0 X19.95031 Y15.41051
G0 Z1.0
G1 F300.0 Z-1.0
G2 F800.0 X23.46019 Y11.23344 I-14.12161 J-15.42917
G3 X18.94999 Y14.44156 I-11.39973 J-11.2521
G1 X19.95031 Y15.41051
G0 Z3.0
G0 X2.06492 Y-16.89881
G0 Z1.0
G1 F300.0 Z-1.0
G3 F800.0 X2.25166 Y-17.008 I9.99555 J16.88015
G3 X2.84057 Y-17.33466 I9.8088 J16.98934
G1 X1.93167
G3 X2.06492 Y-16.89881 I-18.69267 J5.95266
G1 F300.0 X2.67634 Y-15.86625
G3 F800.0 X2.85166 Y-15.96877 I9.38412 J15.84759
G3 X9.23617 Y-18.21842 I9.2088 J15.95011
G2 X5.8287 Y-18.53466 I-3.40747 J18.19976
G1 X0.21096
G3 X1.30397 Y-14.96877 I-16.97196 J7.15266
G3 X2.67634 Y-15.86625 I10.75649 J14.95011
G1 F300.0 X3.28776 Y-14.8337
G3 F800.0 X3.45166 Y-14.92954 I8.7727 J14.81504
G3 X16.34818 Y-16.69383 I8.6088 J14.91088
G2 X5.8287 Y-19.73466 I-10.51948 J16.67517
G1 X-1.70514
G3 X0.40663 Y-12.69281 I-15.05586 J8.35266
G3 X3.28776 Y-14.8337 I11.65383 J12.67415
G1 F300.0 X3.89919 Y-13.80115
G3 F800.0 X4.05166 Y-13.89031 I8.16128 J13.78249
G3 X23.46019 Y-11.27076 I8.0088 J13.87165
G2 X5.8287 Y-20.93466 I-17.63149 J11.2521
G1 X-3.9037
G3 X-0.85528 Y-9.49216 I-12.8573 J9.55266
G3 X3.89919 Y-13.80115 I12.91574 J9.4735
G1 F300.0 X4.51061 Y-12.7686
G3 F800.0 X4.65166 Y-12.85108 I7.54985 J12.74994
G3 X26.87806 Y-0.01866 I7.4088 J12.83242
G3 X16.793 Y14.02286 I-14.8176 J0.0
G1 X19.90615 Y17.03839
G2 X5.8287 Y-22.13466 I-14.07745 J-17.05705
G1 X-6.56583
G3 X-3.2208 Y-5.36335 I-10.19517 J10.75266
G1 X-2.12466 Y-4.30159
G3 X4.51061 Y-12.7686 I14.18513 J4.28293
G1 F300.0 X5.12203 Y-11.73605
G3 F800.0 X5.25166 Y-11.81185 I6.93843 J11.71739
G3 X25.67806 Y-0.01866 I6.8088 J11.79319
G3 X14.41828 Y13.39326 I-13.6176 J0.0
G1 X19.82423 Y18.62969
G2 X5.8287 Y-23.33466 I-13.99552 J-18.64835
G1 X-10.2362
G3 X-4.67719 Y-5.10342 I-6.52479 J11.95266
G1 X-1.41975 Y-1.94812
G3 X5.12203 Y-11.73605 I13.48022 J1.92946
G0 Z3.0
G0 X-23.28579 Y-23.33466
G0 Z1.0
G1 F300.0 Z-1.0
G1 F800.0 X-23.49863
G1 X-23.42126 Y-23.25971
G3 X-23.28579 Y-23.33466 I6.66026 J11.87771
G1 F300.0 X-22.71082 Y-22.28138
G3 F800.0 X-6.17784 Y-4.88635 I5.94982 J10.89938
G1 X-0.33165 Y0.77652
G3 X5.85166 Y-10.77262 I12.39211 J-0.79518
G3 X24.47806 Y-0.01866 I6.2088 J10.75396
G3 X11.66036 Y12.39249 I-12.4176 J0.0
G1 X19.47861 Y19.96558
G3 X19.6937 Y20.20005 I-1.87687 J1.93763
G2 X5.8287 Y-24.53466 I-13.865 J-20.21871
G1 X-26.46222
G1 X-23.59042 Y-21.75291
G3 X-22.71082 Y-22.28138 I6.82942 J10.37091
G1 F300.0 X-22.137 Y-21.2302
G3 F800.0 X-7.73062 Y-4.72312 I5.376 J9.8482
G1 X1.79024 Y4.49919
G3 X6.45046 Y-9.73547 I10.27022 J-4.51785
G3 X23.28046 Y-0.01866 I5.61 J9.71681
G3 X7.872 Y10.39024 I-11.22 J0.0
G1 X18.64538 Y20.82579
G3 X19.09797 Y22.00948 I-1.04363 J1.07742
G2 X5.8287 Y-25.73466 I-13.26927 J-22.02814
G1 X-29.42236
G1 X-23.70411 Y-20.19572
G3 X-22.137 Y-21.2302 I6.94311 J8.81372
( Halbkreis3mm )
S1000
G0 Z3.0
G0 X-15.66437 Y-14.91408
G0 Z1.0
G1 F300.0 Z-1.0
G1 F800.0 X-13.26564 Y-12.59056
G2 X-15.66437 Y-14.91408 I-3.49536 J1.20856
G1 F300.0 X-16.08183 Y-14.48311
G1 F800.0 X-12.48012 Y-10.99434
G2 X-17.2848 Y-15.64837 I-4.28088 J-0.38766
G1 X-16.08183 Y-14.48311
G1 F300.0 X-16.91673 Y-13.62118
G1 F800.0 X-11.91779 Y-8.77898
G2 X-19.51695 Y-16.13985 I-4.84321 J-2.60302
G1 X-16.91673 Y-13.62118
( Tasche3mm )
S1000
G0 Z3.0
G0 X-16.4852 Y11.05336
G0 Z1.0
G1 F300.0 Z-1.0
G2 F800.0 X-17.1152 Y10.68963 I-0.42 J0.0
G2 Y11.41709 I0.21 J0.36373
G2 X-16.4852 Y11.05336 I0.21 J-0.36373
G1 F300.0 X-15.8852
G2 F800.0 X-17.4152 Y10.17002 I-1.02 J0.0
G2 Y11.93671 I0.51 J0.88335
G2 X-15.8852 Y11.05336 I0.51 J-0.88335
G1 F300.0 X-14.6852
G2 F800.0 X-18.0152 Y9.13079 I-2.22 J0.0
G2 Y12.97594 I1.11 J1.92258
G2 X-14.6852 Y11.05336 I1.11 J-1.92258
G1 F300.0 X-13.4852
G2 F800.0 X-18.6152 Y8.09156 I-3.42 J0.0
G2 Y14.01517 I1.71 J2.96181
G2 X-13.4852 Y11.05336 I1.71 J-2.96181
G1 F300.0 X-12.2852
G2 F800.0 X-19.2152 Y7.05233 I-4.62 J0.0
G2 Y15.0544 I2.31 J4.00104
G2 X-12.2852 Y11.05336 I2.31 J-4.00104
G1 F300.0 X-11.0852
G2 F800.0 X-19.8152 Y6.0131 I-5.82 J0.0
G2 Y16.09363 I2.91 J5.04027
G2 X-11.0852 Y11.05336 I2.91 J-5.04027
G1 F300.0 X-9.8852
G2 F800.0 X-20.4152 Y4.97386 I-7.02 J0.0
G2 Y17.13286 I3.51 J6.0795
G2 X-9.8852 Y11.05336 I3.51 J-6.0795
G1 F300.0 X-8.6852
G2 F800.0 X-21.0152 Y3.93463 I-8.22 J0.0
G2 Y18.17209 I4.11 J7.11873
G2 X-8.6852 Y11.05336 I4.11 J-7.11873
G0 Z3.0
G0 X11.97365 Y0.02767
G0 Z1.0
G1 F300.0 Z-1.0
G2 F800.0 X12.01126 Y0.06656 I0.08681 J-0.04633
G2 X12.15886 Y-0.01866 I0.0492 J-0.08522
G2 X12.01126 Y-0.10388 I-0.0984 J0.0
G2 X11.97365 Y0.02767 I0.0492 J0.08522
G1 F300.0 X11.44432 Y0.31018
G2 F800.0 X11.71126 Y0.58617 I0.61614 J-0.32884
G2 X12.75886 Y-0.01866 I0.3492 J-0.60483
G2 X11.71126 Y-0.62349 I-0.6984 J0.0
G2 X11.44432 Y0.31018 I0.3492 J0.60483
G1 F300.0 X10.38566 Y0.87519
G2 F800.0 X11.11126 Y1.6254 I1.6748 J-0.89385
G2 X13.95886 Y-0.01866 I0.9492 J-1.64406
G2 X11.11126 Y-1.66272 I-1.8984 J0.0
G2 X10.38566 Y0.87519 I0.9492 J1.64406
G1 F300.0 X9.327 Y1.4402
G2 F800.0 X10.51126 Y2.66463 I2.73346 J-1.45886
G2 X15.15886 Y-0.01866 I1.5492 J-2.68329
G2 X10.51126 Y-2.70195 I-3.0984 J0.0
G2 X9.327 Y1.4402 I1.5492 J2.68329
G1 F300.0 X8.26834 Y2.00521
G2 F800.0 X9.91126 Y3.70386 I3.79212 J-2.02387
G2 X16.35886 Y-0.01866 I2.1492 J-3.72252
G2 X9.91126 Y-3.74118 I-4.2984 J0.0
G2 X8.26834 Y2.00521 I2.1492 J3.72252
G1 F300.0 X7.20968 Y2.57022
G2 F800.0 X9.31126 Y4.74309 I4.85078 J-2.58888
G2 X17.55886 Y-0.01866 I2.7492 J-4.76175
G2 X9.31126 Y-4.78041 I-5.4984 J0.0
G2 X7.20968 Y2.57022 I2.7492 J4.76175
( ProfilRand2mm )
G0 Z3.0
( T2 : 2.0 )
T2 M6
M3 S1000
G0 X-32.05133 Y26.19734
G0 Z1.0
G1 F300.0 Z-1.0
G1 F800.0 X5.8287
G2 Y-26.23466 I0.0 J-26.216
G1 X-32.05133
G1 Y26.19734
( ProfilHalbkreis )
S1000
G0 Z3.0
G0 X-23.1849 Y-16.21225
G0 Z1.0
G1 F300.0 Z-1.0
G1 F800.0 X-23.65071 Y-16.66345
G2 X-11.2628 Y-4.66399 I6.88971 J5.28145
G1 X-11.7286 Y-5.11519
G3 X-23.1849 Y-16.21225 I-5.03239 J-6.26681
( Profil1Diagonal2mm )
S1000
G0 Z3.0
G0 X-23.73162 Y-19.52625
G0 Z1.0
G1 F300.0 Z-1.0
G3 F800.0 X-8.39887 Y-4.6743 I6.97062 J8.14425
G1 X18.2975 Y21.18493
G3 X18.07488 Y22.7842 I-0.69576 J0.71828
G3 X5.8287 Y25.86454 I-12.24618 J-22.80272
G1 X-30.71853
G3 X-31.71853 Y24.86454 I0.0 J-1.0
G1 Y-24.90186
G3 X-30.02278 Y-25.62014 I1.0 J0.0
G1 X-23.73162 Y-19.52625
( ProfilHalbkreisInnen2mm )
S1000
G0 Z3.0
G0 X-20.31347 Y-16.21529
G0 Z1.0
G1 F300.0 Z-1.0
G1 F800.0 X-11.81701 Y-7.98526
G2 X-20.31347 Y-16.21529 I-4.94398 J-3.39674
( ProfilkreisAussen )
S1000
G0 Z3.0
G0 X22.78046 Y-0.01866
G0 Z1.0
G1 F300.0 Z-1.0
G3 F800.0 X6.70046 Y9.26513 I-10.72 J0.0
G3 Y-9.30245 I5.36 J-9.28379
G3 X22.78046 Y-0.01866 I5.36 J9.28379
G0 Z3.0
M5
M30
