( Made using CamBam - http://www.cambam.co.uk )
( schanpsbrett_ehingen 12/1/2018 12:01:59 PM )
( T1 : 1.0 )
( T3 : 3.0 )
G21 G90 G64 G40
G0 Z3.0
( T3 : 3.0 )
T3 M6
( Tasche-3mm )
G17
M3 S1000
G0 X19.77887 Y-18.9051
G0 Z1.0
G1 F300.0 Z-1.0
G2 F800.0 X18.17922 Y-20.27532 I-17.5456 J18.86446
G1 X-27.11829 Y26.62753
G1 X-23.93038 Y26.50866
G3 X-23.86241 Y26.43666 I3.74073 J3.46302
G1 X19.77887 Y-18.9051
G1 F300.0 X20.59613 Y-19.78378
G2 F800.0 X18.05448 Y-21.87354 I-18.36286 J19.74315
G1 X-28.81739 Y26.65946
G3 X-29.22097 Y27.02287 I-2.80358 J-2.70762
G1 Y27.90677
G1 X-23.34799 Y27.68778
G3 X-22.99782 Y27.26882 I3.15834 J2.2839
G1 X21.47081 Y-18.93253
G2 X20.59613 Y-19.78378 I-19.23754 J18.89189
G1 F300.0 X21.41338 Y-20.66247
G2 F800.0 X17.90143 Y-23.44246 I-19.18012 J20.62184
G1 X-29.68056 Y25.82583
G3 X-30.42097 Y26.36783 I-1.94041 J-1.874
G1 Y29.15235
G1 X-22.64868 Y28.86253
G3 X-22.13324 Y28.10098 I2.45903 J1.10914
G1 X23.12764 Y-18.92348
G2 X21.41338 Y-20.66247 I-20.89438 J18.88285
G1 F300.0 X22.23064 Y-21.54116
G2 F800.0 X17.68805 Y-25.00696 I-19.99737 J21.50052
G3 X17.47185 Y-24.7216 I-1.29516 J-0.75668
G1 X-30.542 Y24.99387
G3 X-31.62097 Y25.45183 I-1.07896 J-1.04203
G1 Y30.39793
G1 X-21.68861 Y30.02757
G3 X-21.27038 Y28.93147 I1.49896 J-0.05589
G1 X24.61225 Y-18.73896
G3 X24.76059 Y-18.87377 I1.08073 J1.0402
G2 X22.23064 Y-21.54116 I-22.52733 J18.83314
G0 Z3.0
G0 X-9.97976 Y-24.80821
G0 Z1.0
G1 F300.0 Z-1.0
G1 F800.0 X-10.00534 Y-24.80907
G1 X-26.82097 Y-7.99344
G1 Y-7.31829
G1 X-9.97976 Y-24.80821
G1 F300.0 X-9.11536 Y-23.97587
G1 F800.0 X-7.24626 Y-25.91696
G1 X-10.48556 Y-26.0259
G1 X-28.01642 Y-8.49504
G3 X-28.02097 Y-8.4905 I-3.60455 J-3.60455
G1 Y-4.34202
G1 X-9.11536 Y-23.97587
G1 F300.0 X-8.25095 Y-23.14352
G1 F800.0 X-4.51276 Y-27.0257
G1 X-10.98662 Y-27.24343
G3 X-11.21923 Y-26.98929 I-2.98863 J-2.50187
G1 X-28.86495 Y-9.34357
G3 X-29.22097 Y-9.02855 I-2.75602 J-2.75602
G1 Y-1.36575
G1 X-8.25095 Y-23.14352
G1 F300.0 X-7.38654 Y-22.31118
G1 F800.0 X-1.77927 Y-28.13444
G1 X-11.60096 Y-28.46478
G3 X-12.06776 Y-27.83782 I-2.3743 J-1.28053
G1 X-29.71348 Y-10.1921
G3 X-30.42097 Y-9.68359 I-1.90749 J-1.90749
G1 Y1.61053
G1 X-7.38654 Y-22.31118
G1 F300.0 X-6.52386 Y-21.4805
G1 F800.0 X0.95101 Y-29.24329
G1 X-12.4761 Y-29.69489
G3 X-12.91459 Y-28.68465 I-1.49915 J-0.05042
G1 X-30.56031 Y-11.03893
G3 X-31.62097 Y-10.59959 I-1.06066 J-1.06066
G1 Y4.58334
G1 X-6.52386 Y-21.4805
G0 Z3.0
G0 X23.30799 Y12.57609
G0 Z1.0
G1 F300.0 Z-1.0
G1 F800.0 X15.28361 Y20.76835
G2 X23.30799 Y12.57609 I-13.05035 J-20.80899
G1 F300.0 X24.33758 Y13.19248
G2 F800.0 X26.9843 Y7.10796 I-22.10432 J-13.23311
G1 X9.89277 Y24.55709
G2 X24.33758 Y13.19248 I-7.6595 J-24.59773
G1 F300.0 X25.36718 Y13.80886
G2 F800.0 X28.98138 Y3.35419 I-23.13391 J-13.8495
G1 X6.22666 Y26.585
G1 X6.56049 Y26.57255
G2 X25.36718 Y13.80886 I-4.32722 J-26.61319
G1 F300.0 X26.39678 Y14.42525
G2 F800.0 X30.39496 Y0.19614 I-24.16351 J-14.46588
G1 X3.26241 Y27.89636
G1 X6.67878 Y27.76897
G2 X26.39678 Y14.42525 I-4.44552 J-27.80961
G1 F300.0 X27.42637 Y15.04163
G2 F800.0 X31.48199 Y-2.62511 I-25.19311 J-15.08227
G1 X0.30165 Y29.2076
G1 X6.79552 Y28.96545
G2 X27.42637 Y15.04163 I-4.56225 J-29.00609
( Profil1mm )
G0 Z3.0
( T1 : 1.0 )
T1 M6
M3 S1000
G0 X-32.62097 Y-31.37298
G0 Z1.0
G1 F300.0 Z-0.5
G1 F800.0 Y31.43591
G1 X6.89168 Y29.96256
G2 X6.88985 Y-30.04412 I-4.65841 J-30.0032
G1 X-32.62097 Y-31.37298
G1 F300.0 Z-1.0
G1 F800.0 Y31.43591
G1 X6.89168 Y29.96256
G2 X6.88985 Y-30.04412 I-4.65841 J-30.0032
G1 X-32.62097 Y-31.37298
G0 Z3.0
M5
M30
