( Made using CamBam - http://www.cambam.co.uk )
( schanpsbrett_hofsgrund 12/1/2018 12:39:19 PM )
( T10 : 0.0 )
( T15 : 1.5 )
G21 G90 G64 G40
G0 Z3.0
( T10 : 0.0 )
T10 M6
( Gravieren1 )
G17
M3 S1000
G0 X604.86372 Y51.25463
G0 Z1.2
G1 F300.0 Z-0.2
G1 F800.0 X604.82244 Y51.22955
G2 X604.7186 Y51.20048 I-0.10384 J0.17093
G1 X601.00984
G2 X600.87947 Y51.24882 I0.0 J0.2
G3 X597.52156 Y53.16476 I-7.17696 J-8.67791
G1 X595.56016 Y53.94932
G1 X597.52156 Y54.73388
G3 X600.87947 Y56.64983 I-3.81905 J10.59385
G2 X601.00984 Y56.69816 I0.13037 J-0.15167
G1 X604.7186
G2 X604.82244 Y56.66909 I0.0 J-0.2
G1 X604.86372 Y56.64401
G2 X604.89969 Y56.6161 I-0.10384 J-0.17093
G3 X609.21354 Y54.69251 I4.75484 J4.8643
G1 X611.64031 Y54.53485
G2 X611.82734 Y54.33527 I-0.01297 J-0.19958
G1 Y53.56337
G2 X611.64031 Y53.36379 I-0.2 J0.0
G1 X609.21354 Y53.20613
G3 X604.89969 Y51.28254 I0.44099 J-6.78789
G2 X604.86372 Y51.25463 I-0.1398 J0.14302
G0 Z3.0
G0 X605.08457 Y50.92782
G0 Z1.2
G1 F300.0 Z-0.2
G1 F800.0 X605.14892 Y50.97131
G3 X605.17682 Y50.99407 I-0.11198 J0.16571
G2 X609.23948 Y52.80698 I4.47772 J-4.57583
G1 X611.64031 Y52.96295
G2 X611.85327 Y52.76337 I0.01297 J-0.19958
G1 Y52.41469
G1 X611.27622
G3 X611.237 Y52.4108 I0.0 J-0.2
G1 X609.94964 Y52.15332
G3 X609.91376 Y52.14257 I0.03922 J-0.19612
G1 X608.34155 Y51.50554
G3 X608.31003 Y51.48938 I0.07511 J-0.18536
G1 X606.63614 Y50.43459
G3 X605.93202 Y49.15864 I0.80403 J-1.27595
G1 Y47.68272
G3 X607.17153 Y46.44321 I1.23951 J0.0
G1 X609.62211
G3 X609.67786 Y46.45114 I0.0 J0.2
G1 X611.82597 Y47.07453
G2 X611.88171 Y47.08246 I0.05574 J-0.19208
G1 X613.45751
G3 X613.65751 Y47.28246 I0.0 J0.2
G1 Y47.48246
G1 X611.82484
G3 X611.7691 Y47.47453 I0.0 J-0.2
G1 X609.62099 Y46.85114
G2 X609.56525 Y46.84321 I-0.05574 J0.19208
G1 X607.17153
G2 X606.33202 Y47.68272 I0.0 J0.83951
G1 Y49.15864
G2 X606.84939 Y50.09617 I1.10814 J0.0
G1 X608.4932 Y51.13201
G2 X608.52472 Y51.14817 I0.10662 J-0.16921
G1 X610.0291 Y51.75772
G2 X610.06498 Y51.76847 I0.07511 J-0.18536
G1 X611.31545 Y52.01857
G2 X611.35467 Y52.02245 I0.03922 J-0.19612
G1 X611.65887
G2 X611.85879 Y51.82813 I0.0 J-0.2
G1 X611.86733 Y51.5273
G2 X611.66741 Y51.32163 I-0.19992 J-0.00567
G1 X611.3304
G3 X611.20024 Y51.27348 I0.0 J-0.2
G1 X609.82144 Y50.09164
G3 X609.79223 Y50.06063 I0.13016 J-0.15185
G3 X610.38874 Y48.85975 I0.59651 J-0.45228
G1 X611.32132
G3 X611.36263 Y48.86406 I0.0 J0.2
G1 X613.15609 Y49.24266
G2 X613.1974 Y49.24697 I0.04131 J-0.19569
G1 X614.57928
G2 X614.68827 Y49.21466 I0.0 J-0.2
G1 X616.05704 Y48.32504
G2 X616.90917 Y46.75491 I-1.02049 J-1.57013
G1 Y44.93998
G2 X616.90372 Y44.89361 I-0.2 J0.0
G2 X616.41209 Y43.70144 I-4.00802 J0.95537
G2 X616.28066 Y43.56098 I-0.40529 J0.24752
G2 X615.96611 Y43.70668 I-0.11533 J0.1634
G3 X614.75158 Y44.91677 I-1.32755 J-0.11789
G1 X612.51866 Y45.1068
G3 X612.44861 Y45.10035 I-0.01696 J-0.19928
G1 X608.87369 Y44.11601
G2 X608.8206 Y44.10883 I-0.05309 J0.19282
G1 X606.69261
G2 X606.588 Y44.13837 I0.0 J0.2
G1 X604.67634 Y45.3115
G2 X603.65518 Y49.15864 I1.50948 J2.45976
G1 X604.33142 Y50.39213
G2 X604.39481 Y50.4617 I0.17537 J-0.09615
G1 X605.08457 Y50.92782
G0 Z3.0
G0 X603.75743 Y50.64252
G0 Z1.2
G1 F300.0 Z-0.2
G2 F800.0 X603.73727 Y50.50434 I-0.19553 J-0.04204
G1 X603.10494 Y49.35094
G3 X604.26763 Y44.97058 I2.88138 J-1.57967
G1 X606.27556 Y43.73837
G3 X606.38017 Y43.70883 I0.10461 J0.17046
G1 X608.67517
G3 X608.72826 Y43.71601 I0.0 J0.2
G1 X612.2864 Y44.69573
G2 X612.35645 Y44.70219 I0.05309 J-0.19282
G1 X614.51816 Y44.51821
G2 X615.3469 Y43.37453 I-0.0791 J-0.92942
G3 X615.4628 Y43.14475 I0.19465 J-0.04594
G3 X616.55397 Y43.49295 I0.34452 J0.80421
G3 X617.10473 Y44.84992 I-3.85776 J2.35603
G3 X617.10968 Y44.89412 I-0.19505 J0.0442
G1 Y46.75491
G3 X616.07552 Y48.66043 I-2.27262 J0.0
G1 X614.60734 Y49.61466
G3 X614.49835 Y49.64697 I-0.10899 J-0.16769
G1 X612.95615
G3 X612.91484 Y49.64266 I0.0 J-0.2
G1 X611.12137 Y49.26406
G2 X611.08006 Y49.25975 I-0.04131 J0.19569
G1 X610.18924
G2 X609.87534 Y49.75995 I0.0 J0.34859
G2 X609.92528 Y49.82482 I0.1801 J-0.08698
G1 X611.14872 Y50.87348
G2 X611.27888 Y50.92163 I0.13016 J-0.15185
G1 X611.36431
G3 X612.20164 Y50.39366 I0.83733 J0.4
G1 X612.43679
G2 X612.61537 Y50.28373 I0.0 J-0.2
G3 X613.87207 Y49.68832 I1.011 J0.50993
G3 X614.79609 Y50.11794 I-0.51474 J2.31558
G2 X614.99039 Y50.14513 I0.12131 J-0.15901
G3 X616.69953 Y50.70704 I0.51503 J1.3137
G2 X616.86878 Y50.80048 I0.16925 J-0.10656
G1 X617.50317
G2 X619.13581 Y49.51461 I0.0 J-1.6794
G1 X619.31732 Y48.76158
G2 X619.32289 Y48.71472 I-0.19443 J-0.04687
G1 Y47.94911
G2 X619.29058 Y47.84012 I-0.2 J0.0
G1 X618.65561 Y46.86315
G3 X618.6563 Y46.64411 I0.16769 J-0.10899
G1 X619.14508 Y45.90234
G3 X619.31208 Y45.81238 I0.167 J0.11004
G1 X619.6933
G2 X619.79597 Y45.78402 I0.0 J-0.2
G1 X619.9965 Y45.66408
G3 X620.09917 Y45.63572 I0.10266 J0.17164
G1 X621.34101
G3 X621.45106 Y45.66871 I0.0 J0.2
G1 X621.61902 Y45.77939
G2 X621.72906 Y45.81238 I0.11004 J-0.167
G1 X622.04852
G3 X622.20341 Y45.88586 I0.0 J0.2
G1 X623.70793 Y47.72764
G3 X623.72842 Y47.75802 I-0.15489 J0.12653
G1 X623.99633 Y48.24671
G3 X624.02096 Y48.34285 I-0.17537 J0.09615
G1 Y49.78556
G3 X623.98796 Y49.8956 I-0.2 J0.0
G1 X623.13009 Y51.19752
G1 X624.63856 Y51.42823
G3 X624.70409 Y51.45035 I-0.03024 J0.1977
G1 X628.44948 Y53.49325
G3 X628.52908 Y53.57268 I-0.09577 J0.17558
G1 X628.73557 Y53.94932
G1 X628.52908 Y54.32596
G3 X628.44948 Y54.40539 I-0.17537 J-0.09615
G1 X624.70409 Y56.44829
G3 X624.63856 Y56.47042 I-0.09577 J-0.17558
G1 X623.13009 Y56.70113
G1 X623.98796 Y58.00304
G3 X624.02096 Y58.11309 I-0.167 J0.11004
G1 Y59.55579
G3 X623.99633 Y59.65194 I-0.2 J0.0
G1 X623.72842 Y60.14062
G3 X623.70793 Y60.171 I-0.17537 J-0.09615
G1 X622.20341 Y62.01278
G3 X622.04852 Y62.08626 I-0.15489 J-0.12653
G1 X621.72906
G2 X621.61902 Y62.11925 I0.0 J0.2
G1 X621.45106 Y62.22993
G3 X621.34101 Y62.26292 I-0.11004 J-0.167
G1 X620.09917
G3 X619.9965 Y62.23456 I0.0 J-0.2
G1 X619.79597 Y62.11462
G2 X619.6933 Y62.08626 I-0.10266 J0.17164
G1 X619.31208
G3 X619.14508 Y61.9963 I0.0 J-0.2
G1 X618.6563 Y61.25453
G3 X618.65561 Y61.03549 I0.167 J-0.11004
G1 X619.29058 Y60.05852
G2 X619.32289 Y59.94953 I-0.16769 J-0.10899
G1 Y59.18393
G2 X619.31732 Y59.13706 I-0.2 J0.0
G1 X619.13581 Y58.38403
G2 X617.50317 Y57.09816 I-1.63264 J0.39353
G1 X616.86878
G2 X616.69953 Y57.1916 I0.0 J0.2
G3 X614.99039 Y57.75351 I-1.1941 J-0.75179
G2 X614.79609 Y57.7807 I-0.073 J0.1862
G3 X613.87207 Y58.21032 I-1.43875 J-1.88596
G3 X612.61537 Y57.61491 I-0.24571 J-1.10534
G2 X612.43679 Y57.50498 I-0.17857 J0.09007
G1 X612.20164
G3 X611.54467 Y56.98615 I0.1995 J-0.92797
G1 X611.45924
G2 X611.32908 Y57.0343 I0.0 J0.2
G1 X610.10565 Y58.08296
G2 X610.07484 Y58.13869 I0.1574 J0.12339
G2 X610.38874 Y58.63889 I0.3139 J0.1516
G1 X611.27956
G2 X611.32087 Y58.63458 I0.0 J-0.2
G1 X613.11433 Y58.25598
G3 X613.15564 Y58.25167 I0.04131 J0.19569
G1 X614.69784
G3 X614.80683 Y58.28398 I0.0 J0.2
G1 X616.27502 Y59.23821
G3 X617.30917 Y61.14373 I-1.23847 J1.90552
G1 Y63.00452
G3 X617.30423 Y63.04872 I-0.2 J0.0
G3 X616.75347 Y64.40569 I-4.40852 J-0.99906
G3 X615.66229 Y64.75389 I-0.74666 J-0.456
G3 X615.5464 Y64.52411 I0.07876 J-0.18384
G2 X614.71766 Y63.38043 I-0.90784 J-0.21426
G1 X612.55595 Y63.19646
G2 X612.4859 Y63.20291 I-0.01696 J0.19928
G1 X608.92776 Y64.18263
G3 X608.87466 Y64.18981 I-0.05309 J-0.19282
G1 X606.57966
G3 X606.47506 Y64.16027 I0.0 J-0.2
G1 X604.46712 Y62.92806
G3 X603.30443 Y58.54771 I1.71869 J-2.80068
G1 X603.93677 Y57.3943
G2 X603.7614 Y57.09816 I-0.17537 J-0.09615
G1 X600.86005
G3 X600.72767 Y57.04808 I0.0 J-0.2
G2 X597.73523 Y55.24593 I-7.02516 J8.27966
G1 X595.53959 Y54.36767
G3 X595.47485 Y54.32576 I0.07428 J-0.1857
G1 X595.23097 Y54.08998
G1 X595.47485 Y53.85419
G3 X595.53959 Y53.81228 I0.13902 J0.14379
G1 X597.73523 Y52.93403
G2 X600.52818 Y50.85056 I-5.0137 J-9.63476
G3 X600.66055 Y50.80048 I0.13238 J0.14992
G1 X603.5619
G2 X603.75743 Y50.64252 I0.0 J-0.2
G0 Z3.0
G0 X606.59462 Y55.85678
G0 Z1.2
G1 F300.0 Z-0.2
G2 F800.0 X605.17682 Y56.90457 I3.05992 J5.62361
G3 X605.14892 Y56.92733 I-0.13988 J-0.14295
G1 X604.39481 Y57.43694
G2 X604.33142 Y57.50651 I0.11198 J0.16571
G1 X603.65518 Y58.74
G2 X604.67634 Y62.58714 I2.53063 J1.38738
G1 X606.588 Y63.76027
G2 X606.69261 Y63.78981 I0.10461 J-0.17046
G1 X608.8206
G2 X608.87369 Y63.78263 I0.0 J-0.2
G1 X612.44861 Y62.79829
G3 X612.51866 Y62.79184 I0.05309 J0.19282
G1 X614.75158 Y62.98187
G3 X615.96611 Y64.19196 I-0.11302 J1.32798
G2 X616.28066 Y64.33766 I0.19922 J-0.01769
G2 X616.41209 Y64.1972 I-0.27386 J-0.38798
G2 X616.90372 Y63.00504 I-3.51639 J-2.14754
G2 X616.90917 Y62.95866 I-0.19455 J-0.04637
G1 Y61.14373
G2 X616.05704 Y59.5736 I-1.87262 J0.0
G1 X614.68827 Y58.68398
G2 X614.57928 Y58.65167 I-0.10899 J0.16769
G1 X613.1974
G2 X613.15609 Y58.65598 I0.0 J0.2
G1 X611.36263 Y59.03458
G3 X611.32132 Y59.03889 I-0.04131 J-0.19569
G1 X610.38874
G3 X609.79223 Y57.83801 I0.0 J-0.74859
G3 X609.82144 Y57.807 I0.15937 J0.12084
G1 X611.20024 Y56.62516
G3 X611.3304 Y56.57701 I0.13016 J0.15185
G1 X611.66741
G2 X611.86733 Y56.37134 I0.0 J-0.2
G1 X611.85879 Y56.07051
G2 X611.65887 Y55.87619 I-0.19992 J0.00567
G1 X611.35467
G2 X611.31545 Y55.88007 I0.0 J0.2
G1 X610.06498 Y56.13017
G2 X610.0291 Y56.14093 I0.03922 J0.19612
G1 X608.52472 Y56.75048
G2 X608.4932 Y56.76663 I0.07511 J0.18536
G1 X606.84939 Y57.80247
G2 X606.33202 Y58.74 I0.59078 J0.93753
G1 Y60.21592
G2 X607.17153 Y61.05543 I0.83951 J0.0
G1 X609.56525
G2 X609.62099 Y61.0475 I0.0 J-0.2
G1 X611.7691 Y60.42411
G3 X611.82484 Y60.41618 I0.05574 J0.19208
G1 X613.65751
G1 Y60.61618
G3 X613.45751 Y60.81618 I-0.2 J0.0
G1 X611.88171
G2 X611.82597 Y60.82411 I0.0 J0.2
G1 X609.67786 Y61.4475
G3 X609.62211 Y61.45543 I-0.05574 J-0.19208
G1 X607.17153
G3 X605.93202 Y60.21592 I0.0 J-1.23951
G1 Y58.74
G3 X606.63614 Y57.46405 I1.50814 J0.0
G1 X608.31003 Y56.40926
G3 X608.34155 Y56.3931 I0.10662 J0.16921
G1 X609.91376 Y55.75607
G3 X609.94964 Y55.74532 I0.07511 J0.18536
G1 X611.237 Y55.48784
G3 X611.27622 Y55.48396 I0.03922 J0.19612
G1 X611.85327
G1 Y55.13527
G2 X611.64031 Y54.93569 I-0.2 J0.0
G1 X609.23948 Y55.09167
G2 X606.59462 Y55.85678 I0.41506 J6.38873
G0 Z3.0
G0 X612.31169
G0 Z1.2
G1 F300.0 Z-0.2
G1 F800.0 Y57.09735
G2 X612.40113 Y57.10498 I0.08945 J-0.52033
G1 X612.89354
G2 X613.09354 Y56.90498 I0.0 J-0.2
G1 Y50.99366
G2 X612.89354 Y50.79366 I-0.2 J0.0
G1 X612.40113
G2 X612.31169 Y50.80129 I0.0 J0.52797
G1 Y55.85678
G0 Z3.0
G0 X613.29385
G0 Z1.2
G1 F300.0 Z-0.2
G1 F800.0 Y57.62054
G2 X613.44406 Y57.81425 I0.2 J0.0
G2 X613.78527 Y57.81985 I0.1823 J-0.70927
G2 X614.5245 Y57.48437 I-0.42794 J-1.92511
G2 X614.60613 Y57.32315 I-0.11837 J-0.16121
G1 Y50.57549
G2 X614.5245 Y50.41428 I-0.2 J0.0
G2 X613.78527 Y50.07879 I-1.16716 J1.58962
G2 X613.44406 Y50.0844 I-0.15891 J0.71487
G2 X613.29385 Y50.2781 I0.04979 J0.1937
G1 Y55.85678
G0 Z3.0
G0 X614.93549
G0 Z1.2
G1 F300.0 Z-0.2
G1 F800.0 Y57.16158
G2 X615.04427 Y57.33957 I0.2 J0.0
G2 X615.96679 Y57.33946 I0.46116 J-0.89975
G2 X616.07552 Y57.1615 I-0.09126 J-0.17796
G1 Y50.73714
G2 X615.96679 Y50.55918 I-0.2 J0.0
G2 X615.04427 Y50.55907 I-0.46136 J0.89965
G2 X614.93549 Y50.73706 I0.09122 J0.17798
G1 Y55.85678
G0 Z3.0
G0 X616.70741 Y56.07202
G0 Z1.2
G1 F300.0 Z-0.2
G2 F800.0 X616.70595 Y56.09614 I0.19854 J0.02412
G1 Y56.49816
G2 X616.90595 Y56.69816 I0.2 J0.0
G1 X617.70267
G3 X619.72417 Y58.2903 I0.0 J2.0794
G1 X619.91682 Y59.08953
G3 X619.92238 Y59.1364 I-0.19443 J0.04687
G1 Y60.0681
G3 X619.89008 Y60.17709 I-0.2 J0.0
G1 X619.33315 Y61.03399
G2 X619.33383 Y61.25302 I0.16769 J0.10899
G1 X619.56003 Y61.5963
G2 X619.72704 Y61.68626 I0.167 J-0.11004
G1 X620.0033
G3 X620.10596 Y61.71462 I0.0 J0.2
G1 X620.3065 Y61.83456
G2 X620.40916 Y61.86292 I0.10266 J-0.17164
G1 X621.42057
G2 X621.53061 Y61.82993 I0.0 J-0.2
G1 X621.69857 Y61.71925
G3 X621.80862 Y61.68626 I0.11004 J0.167
G1 X622.05828
G2 X622.21317 Y61.61278 I0.0 J-0.2
G1 X623.57437 Y59.94645
G2 X623.59486 Y59.91606 I-0.15489 J-0.12653
G1 X623.79583 Y59.54948
G2 X623.82046 Y59.45334 I-0.17537 J-0.09615
G1 Y58.23302
G2 X623.78746 Y58.12298 I-0.2 J0.0
G1 X622.88909 Y56.7596
G2 X622.78035 Y56.67832 I-0.167 J0.11004
G1 X618.72967 Y55.44477
G2 X618.70098 Y55.43829 I-0.05826 J0.19133
G1 X616.7008 Y55.13933
G1 X618.61872 Y55.69894
G3 X618.65695 Y55.71454 I-0.05602 J0.19199
G1 X620.2581 Y56.57012
G2 X620.27816 Y56.57946 I0.09426 J-0.1764
G3 X621.53664 Y57.96271 I-0.79327 J1.98582
G3 X621.68341 Y59.39479 I-3.78442 J1.11143
G1 X621.66303 Y59.64474
G1 X621.61813 Y59.66717
G3 X621.33078 Y59.45983 I-0.08938 J-0.17892
G2 X620.23949 Y57.06417 I-2.41418 J-0.34666
G1 X618.69181 Y56.06494
G2 X618.59959 Y56.03362 I-0.10848 J0.16802
G1 X616.92221 Y55.8968
G2 X616.70741 Y56.07202 I-0.01626 J0.19934
G0 Z3.0
G0 X617.11036 Y54.59004
G0 Z1.2
G1 F300.0 Z-0.2
G1 F800.0 X618.79666 Y55.04854
G3 X618.80245 Y55.05021 I-0.05247 J0.19299
G1 X622.99668 Y56.32748
G2 X623.08518 Y56.33386 I0.05826 J-0.19133
G1 X624.70816 Y56.08563
G2 X624.77369 Y56.06351 I-0.03024 J-0.1977
G1 X628.50887 Y54.02618
G1 X628.5532 Y53.94932
G1 X628.50887 Y53.87247
G1 X624.77369 Y51.83513
G2 X624.70816 Y51.81301 I-0.09577 J0.17558
G1 X623.08518 Y51.56479
G2 X622.99668 Y51.57116 I-0.03024 J0.1977
G1 X618.80245 Y52.84843
G3 X618.79666 Y52.8501 I-0.05826 J-0.19133
G1 X616.85348 Y53.37845
G2 X616.70595 Y53.57145 I0.05247 J0.19299
G1 Y54.3272
G2 X616.85348 Y54.52019 I0.2 J0.0
G1 X617.11036 Y54.59004
G0 Z3.0
G0 X616.83375 Y52.73944
G0 Z1.2
G1 F300.0 Z-0.2
G1 F800.0 X618.70098 Y52.46035
G2 X618.72967 Y52.45387 I-0.02957 J-0.1978
G1 X622.78035 Y51.22032
G2 X622.88909 Y51.13904 I-0.05826 J-0.19133
G1 X623.78746 Y49.77566
G2 X623.82046 Y49.66562 I-0.167 J-0.11004
G1 Y48.44531
G2 X623.79583 Y48.34916 I-0.2 J0.0
G1 X623.59486 Y47.98258
G2 X623.57437 Y47.9522 I-0.17537 J0.09615
G1 X622.21317 Y46.28586
G2 X622.05828 Y46.21238 I-0.15489 J0.12653
G1 X621.80862
G3 X621.69857 Y46.17939 I0.0 J-0.2
G1 X621.53061 Y46.06871
G2 X621.42057 Y46.03572 I-0.11004 J0.167
G1 X620.40916
G2 X620.3065 Y46.06408 I0.0 J0.2
G1 X620.10596 Y46.18402
G3 X620.0033 Y46.21238 I-0.10266 J-0.17164
G1 X619.72704
G2 X619.56003 Y46.30234 I0.0 J0.2
G1 X619.33383 Y46.64562
G2 X619.33315 Y46.86465 I0.167 J0.11004
G1 X619.89008 Y47.72155
G3 X619.92238 Y47.83055 I-0.16769 J0.10899
G1 Y48.76224
G3 X619.91682 Y48.80911 I-0.2 J0.0
G1 X619.72417 Y49.60834
G3 X617.70267 Y51.20048 I-2.0215 J-0.48726
G1 X616.90595
G2 X616.70595 Y51.40048 I0.0 J0.2
G1 Y51.8025
G2 X616.92221 Y52.00184 I0.2 J0.0
G1 X618.59959 Y51.86502
G2 X618.69181 Y51.83371 I-0.01626 J-0.19934
G1 X620.23949 Y50.83447
G2 X621.33078 Y48.43882 I-1.3229 J-2.049
G3 X621.61813 Y48.23147 I0.19797 J-0.02843
G1 X621.66303 Y48.2539
G1 X621.68341 Y48.50385
G3 X621.53664 Y49.93593 I-3.9312 J0.32066
G3 X620.27816 Y51.31919 I-2.05175 J-0.60257
G2 X620.2581 Y51.32852 I0.07419 J0.18573
G1 X618.65695 Y52.1841
G3 X618.61872 Y52.1997 I-0.09426 J-0.1764
G1 X616.7008 Y52.75931
G1 X616.83375 Y52.73944
G0 Z3.0
G0 X626.77644 Y47.67635
G0 Z1.2
G1 F300.0 Z-0.2
G3 F800.0 X626.82325 Y44.60555 I2.92819 J-1.49112
G1 X627.45558 Y43.45215
G2 X627.28021 Y43.15601 I-0.17537 J-0.09615
G1 X624.37886
G3 X624.24648 Y43.10593 I0.0 J-0.2
G2 X621.09131 Y41.16312 I-7.18892 J8.14158
G1 X618.89567 Y40.28486
G3 X618.83093 Y40.24296 I0.07428 J-0.1857
G1 X618.58705 Y40.00717
G1 X618.83093 Y39.77138
G3 X618.89567 Y39.72948 I0.13902 J0.14379
G1 X621.09131 Y38.85122
G2 X624.24648 Y36.90841 I-4.03375 J-10.08438
G3 X624.37886 Y36.85833 I0.13238 J0.14992
G1 X627.28021
G2 X627.45558 Y36.56219 I0.0 J-0.2
G1 X626.82325 Y35.40879
G3 X627.98593 Y31.02843 I2.88138 J-1.57967
G1 X629.99387 Y29.79622
G3 X630.09847 Y29.76668 I0.10461 J0.17046
G1 X632.39348
G3 X632.44657 Y29.77386 I0.0 J0.2
G1 X636.00471 Y30.75358
G2 X636.07476 Y30.76003 I0.05309 J-0.19282
G1 X638.23647 Y30.57606
G2 X639.06521 Y29.43238 I-0.0791 J-0.92942
G3 X639.1811 Y29.2026 I0.19465 J-0.04594
G3 X640.27228 Y29.5508 I0.34452 J0.80421
G3 X640.82304 Y30.90777 I-3.85776 J2.35603
G3 X640.82798 Y30.95197 I-0.19505 J0.0442
G1 Y32.81276
G3 X639.79383 Y34.71828 I-2.27262 J0.0
G1 X638.32565 Y35.67251
G3 X638.21665 Y35.70482 I-0.10899 J-0.16769
G1 X636.67445
G3 X636.63314 Y35.70051 I0.0 J-0.2
G1 X634.83968 Y35.32191
G2 X634.79837 Y35.3176 I-0.04131 J0.19569
G1 X633.90755
G2 X633.59365 Y35.8178 I0.0 J0.34859
G2 X633.64359 Y35.88267 I0.1801 J-0.08698
G1 X634.86703 Y36.93133
G2 X634.99718 Y36.97948 I0.13016 J-0.15185
G1 X635.08261
G3 X635.91994 Y36.45151 I0.83733 J0.4
G1 X636.1551
G2 X636.33367 Y36.34158 I0.0 J-0.2
G3 X637.59038 Y35.74617 I1.011 J0.50993
G3 X638.51439 Y36.17579 I-0.51474 J2.31558
G2 X638.7087 Y36.20298 I0.12131 J-0.15901
G3 X640.41783 Y36.76489 I0.51503 J1.3137
G2 X640.58709 Y36.85833 I0.16925 J-0.10656
G1 X641.22148
G2 X642.85412 Y35.57246 I0.0 J-1.6794
G1 X643.03563 Y34.81943
G2 X643.0412 Y34.77257 I-0.19443 J-0.04687
G1 Y34.00696
G2 X643.00889 Y33.89797 I-0.2 J0.0
G1 X642.37392 Y32.921
G3 X642.37461 Y32.70196 I0.16769 J-0.10899
G1 X642.86339 Y31.96019
G3 X643.03039 Y31.87023 I0.167 J0.11004
G1 X643.41161
G2 X643.51427 Y31.84187 I0.0 J-0.2
G1 X643.71481 Y31.72193
G3 X643.81747 Y31.69357 I0.10266 J0.17164
G1 X645.05932
G3 X645.16936 Y31.72656 I0.0 J0.2
G1 X645.33732 Y31.83724
G2 X645.44737 Y31.87023 I0.11004 J-0.167
G1 X645.76683
G3 X645.92172 Y31.94371 I0.0 J0.2
G1 X647.42624 Y33.78549
G3 X647.44673 Y33.81587 I-0.15489 J0.12653
G1 X647.71464 Y34.30455
G3 X647.73927 Y34.4007 I-0.17537 J0.09615
G1 Y35.84341
G3 X647.70627 Y35.95345 I-0.2 J0.0
G1 X646.8484 Y37.25536
G1 X648.35686 Y37.48608
G3 X648.4224 Y37.5082 I-0.03024 J0.1977
G1 X652.16778 Y39.5511
G3 X652.24739 Y39.63053 I-0.09577 J0.17558
G1 X652.45387 Y40.00717
G1 X652.24739 Y40.38381
G3 X652.16778 Y40.46324 I-0.17537 J-0.09615
G1 X648.4224 Y42.50614
G3 X648.35686 Y42.52826 I-0.09577 J-0.17558
G1 X646.8484 Y42.75898
G1 X647.70627 Y44.06089
G3 X647.73927 Y44.17093 I-0.167 J0.11004
G1 Y45.61364
G3 X647.71464 Y45.70979 I-0.2 J0.0
G1 X647.44673 Y46.19847
G3 X647.42624 Y46.22885 I-0.17537 J-0.09615
G1 X645.92172 Y48.07063
G3 X645.76683 Y48.14411 I-0.15489 J-0.12653
G1 X645.44737
G2 X645.33732 Y48.1771 I0.0 J0.2
G1 X645.16936 Y48.28778
G3 X645.05932 Y48.32077 I-0.11004 J-0.167
G1 X643.81747
G3 X643.71481 Y48.29241 I0.0 J-0.2
G1 X643.51427 Y48.17247
G2 X643.41161 Y48.14411 I-0.10266 J0.17164
G1 X643.03039
G3 X642.86339 Y48.05415 I0.0 J-0.2
G1 X642.37461 Y47.31238
G3 X642.37392 Y47.09334 I0.167 J-0.11004
G1 X643.00889 Y46.11637
G2 X643.0412 Y46.00738 I-0.16769 J-0.10899
G1 Y45.24177
G2 X643.03563 Y45.19491 I-0.2 J0.0
G1 X642.85412 Y44.44188
G2 X641.22148 Y43.15601 I-1.63264 J0.39353
G1 X640.58709
G2 X640.41783 Y43.24945 I0.0 J0.2
G3 X638.7087 Y43.81136 I-1.1941 J-0.75179
G2 X638.51439 Y43.83855 I-0.073 J0.1862
G3 X637.59038 Y44.26817 I-1.43875 J-1.88596
G3 X636.33367 Y43.67276 I-0.24571 J-1.10534
G2 X636.1551 Y43.56283 I-0.17857 J0.09007
G1 X635.91994
G3 X635.08261 Y43.03486 I0.0 J-0.92797
G1 X634.99718
G2 X634.86703 Y43.08301 I0.0 J0.2
G1 X633.64359 Y44.13167
G2 X633.59365 Y44.19654 I0.13016 J0.15185
G2 X633.90755 Y44.69674 I0.3139 J0.1516
G1 X634.79837
G2 X634.83968 Y44.69243 I0.0 J-0.2
G1 X636.63314 Y44.31383
G3 X636.67445 Y44.30952 I0.04131 J0.19569
G1 X638.21665
G3 X638.32565 Y44.34183 I0.0 J0.2
G1 X639.79383 Y45.29606
G3 X640.82798 Y47.20158 I-1.23847 J1.90552
G1 Y49.06237
G3 X640.82304 Y49.10657 I-0.2 J0.0
G3 X640.27228 Y50.46354 I-4.40852 J-0.99906
G3 X639.1811 Y50.81174 I-0.74666 J-0.456
G3 X639.06521 Y50.58196 I0.07876 J-0.18384
G2 X638.23647 Y49.43828 I-0.90784 J-0.21426
G1 X636.07476 Y49.25431
G2 X636.00471 Y49.26076 I-0.01696 J0.19928
G1 X632.44657 Y50.24048
G3 X632.39348 Y50.24766 I-0.05309 J-0.19282
G1 X630.09847
G3 X629.99387 Y50.21812 I0.0 J-0.2
G1 X627.98593 Y48.98591
G3 X626.77644 Y47.67635 I1.71869 J-2.80068
G0 Z3.0
G0 X627.13288 Y47.49483
G0 Z1.2
G1 F300.0 Z-0.2
G2 F800.0 X628.19515 Y48.64499 I2.57175 J-1.30961
G1 X630.10681 Y49.81812
G2 X630.21142 Y49.84766 I0.10461 J-0.17046
G1 X632.33941
G2 X632.39251 Y49.84048 I0.0 J-0.2
G1 X635.96742 Y48.85614
G3 X636.03747 Y48.84969 I0.05309 J0.19282
G1 X638.27039 Y49.03972
G3 X639.48492 Y50.24981 I-0.11302 J1.32798
G2 X639.79947 Y50.39551 I0.19922 J-0.01769
G2 X639.93091 Y50.25505 I-0.27386 J-0.38798
G2 X640.42253 Y49.06288 I-3.51639 J-2.14754
G2 X640.42798 Y49.01651 I-0.19455 J-0.04637
G1 Y47.20158
G2 X639.57585 Y45.63145 I-1.87262 J0.0
G1 X638.20708 Y44.74183
G2 X638.09809 Y44.70952 I-0.10899 J0.16769
G1 X636.71621
G2 X636.6749 Y44.71383 I0.0 J0.2
G1 X634.88144 Y45.09243
G3 X634.84013 Y45.09674 I-0.04131 J-0.19569
G1 X633.90755
G3 X633.31104 Y43.89586 I0.0 J-0.74859
G3 X633.34025 Y43.86485 I0.15937 J0.12084
G1 X634.71906 Y42.68301
G3 X634.84921 Y42.63486 I0.13016 J0.15185
G1 X635.18622
G2 X635.38614 Y42.42919 I0.0 J-0.2
G1 X635.3776 Y42.12836
G2 X635.17768 Y41.93404 I-0.19992 J0.00567
G1 X634.87348
G2 X634.83426 Y41.93792 I0.0 J0.2
G1 X633.58379 Y42.18802
G2 X633.54791 Y42.19877 I0.03922 J0.19612
G1 X632.04353 Y42.80832
G2 X632.01201 Y42.82448 I0.07511 J0.18536
G1 X630.3682 Y43.86032
G2 X629.85083 Y44.79785 I0.59078 J0.93753
G1 Y46.27377
G2 X630.69034 Y47.11328 I0.83951 J0.0
G1 X633.08406
G2 X633.1398 Y47.10535 I0.0 J-0.2
G1 X635.28791 Y46.48196
G3 X635.34365 Y46.47403 I0.05574 J0.19208
G1 X637.17633
G1 Y46.67403
G3 X636.97633 Y46.87403 I-0.2 J0.0
G1 X635.40052
G2 X635.34478 Y46.88196 I0.0 J0.2
G1 X633.19667 Y47.50535
G3 X633.14092 Y47.51328 I-0.05574 J-0.19208
G1 X630.69034
G3 X629.45083 Y46.27377 I0.0 J-1.23951
G1 Y44.79785
G3 X630.15495 Y43.5219 I1.50814 J0.0
G1 X631.82885 Y42.46711
G3 X631.86036 Y42.45095 I0.10662 J0.16921
G1 X633.43257 Y41.81392
G3 X633.46845 Y41.80317 I0.07511 J0.18536
G1 X634.75581 Y41.54569
G3 X634.79503 Y41.54181 I0.03922 J0.19612
G1 X635.37209
G1 Y41.19312
G2 X635.15912 Y40.99354 I-0.2 J0.0
G1 X632.75829 Y41.14951
G2 X628.69563 Y42.96242 I0.41506 J6.38873
G3 X628.66773 Y42.98518 I-0.13988 J-0.14295
G1 X627.91363 Y43.49479
G2 X627.85024 Y43.56436 I0.11198 J0.16571
G1 X627.17399 Y44.79785
G2 X627.13288 Y47.49483 I2.53063 J1.38738
G0 Z3.0
G0 Y42.75601
G0 Z1.2
G1 F300.0 Z-0.2
G1 F800.0 X628.23741
G2 X628.34125 Y42.72694 I0.0 J-0.2
G1 X628.38254 Y42.70186
G2 X628.4185 Y42.67395 I-0.10384 J-0.17093
G3 X632.73236 Y40.75036 I4.75484 J4.8643
G1 X635.15912 Y40.5927
G2 X635.34615 Y40.39312 I-0.01297 J-0.19958
G1 Y39.62122
G2 X635.15912 Y39.42164 I-0.2 J0.0
G1 X632.73236 Y39.26398
G3 X628.4185 Y37.34039 I0.44099 J-6.78789
G2 X628.38254 Y37.31248 I-0.1398 J0.14302
G1 X628.34125 Y37.2874
G2 X628.23741 Y37.25833 I-0.10384 J0.17093
G1 X624.52865
G2 X624.39828 Y37.30667 I0.0 J0.2
G3 X621.23987 Y39.22261 I-7.34072 J-8.53983
G1 X619.27846 Y40.00717
G1 X621.23987 Y40.79173
G3 X624.39828 Y42.70767 I-4.18231 J10.45577
G2 X624.52865 Y42.75601 I0.13037 J-0.15167
G1 X627.13288
G0 Z3.0
G0 X629.92991 Y37.9959
G0 Z1.2
G1 F300.0 Z-0.2
G2 F800.0 X632.75829 Y38.86482 I3.24343 J-5.51981
G1 X635.15912 Y39.0208
G2 X635.37209 Y38.82122 I0.01297 J-0.19958
G1 Y38.47253
G1 X634.79503
G3 X634.75581 Y38.46865 I0.0 J-0.2
G1 X633.46845 Y38.21117
G3 X633.43257 Y38.20042 I0.03922 J-0.19612
G1 X631.86036 Y37.56339
G3 X631.82885 Y37.54723 I0.07511 J-0.18536
G1 X630.15495 Y36.49244
G3 X629.45083 Y35.21649 I0.80403 J-1.27595
G1 Y33.74057
G3 X630.69034 Y32.50106 I1.23951 J0.0
G1 X633.14092
G3 X633.19667 Y32.50899 I0.0 J0.2
G1 X635.34478 Y33.13238
G2 X635.40052 Y33.14031 I0.05574 J-0.19208
G1 X636.97633
G3 X637.17633 Y33.34031 I0.0 J0.2
G1 Y33.54031
G1 X635.34365
G3 X635.28791 Y33.53238 I0.0 J-0.2
G1 X633.1398 Y32.90899
G2 X633.08406 Y32.90106 I-0.05574 J0.19208
G1 X630.69034
G2 X629.85083 Y33.74057 I0.0 J0.83951
G1 Y35.21649
G2 X630.3682 Y36.15402 I1.10814 J0.0
G1 X632.01201 Y37.18986
G2 X632.04353 Y37.20602 I0.10662 J-0.16921
G1 X633.54791 Y37.81556
G2 X633.58379 Y37.82632 I0.07511 J-0.18536
G1 X634.83426 Y38.07642
G2 X634.87348 Y38.0803 I0.03922 J-0.19612
G1 X635.17768
G2 X635.3776 Y37.88598 I0.0 J-0.2
G1 X635.38614 Y37.58515
G2 X635.18622 Y37.37948 I-0.19992 J-0.00567
G1 X634.84921
G3 X634.71906 Y37.33133 I0.0 J-0.2
G1 X633.34025 Y36.14949
G3 X633.31104 Y36.11848 I0.13016 J-0.15185
G3 X633.90755 Y34.9176 I0.59651 J-0.45228
G1 X634.84013
G3 X634.88144 Y34.92191 I0.0 J0.2
G1 X636.6749 Y35.30051
G2 X636.71621 Y35.30482 I0.04131 J-0.19569
G1 X638.09809
G2 X638.20708 Y35.27251 I0.0 J-0.2
G1 X639.57585 Y34.38289
G2 X640.42798 Y32.81276 I-1.02049 J-1.57013
G1 Y30.99783
G2 X640.42253 Y30.95146 I-0.2 J0.0
G2 X639.93091 Y29.75929 I-4.00802 J0.95537
G2 X639.79947 Y29.61883 I-0.40529 J0.24752
G2 X639.48492 Y29.76453 I-0.11533 J0.1634
G3 X638.27039 Y30.97462 I-1.32755 J-0.11789
G1 X636.03747 Y31.16465
G3 X635.96742 Y31.1582 I-0.01696 J-0.19928
G1 X632.39251 Y30.17386
G2 X632.33941 Y30.16668 I-0.05309 J0.19282
G1 X630.21142
G2 X630.10681 Y30.19622 I0.0 J0.2
G1 X628.19515 Y31.36935
G2 X627.17399 Y35.21649 I1.50948 J2.45976
G1 X627.85024 Y36.44998
G2 X627.91363 Y36.51955 I0.17537 J-0.09615
G1 X628.66773 Y37.02916
G3 X628.69563 Y37.05192 I-0.11198 J0.16571
G2 X629.92991 Y37.9959 I4.47772 J-4.57583
G0 Z3.0
G0 X635.8305
G0 Z1.2
G1 F300.0 Z-0.2
G1 F800.0 Y43.1552
G2 X635.91994 Y43.16283 I0.08945 J-0.52033
G1 X636.41235
G2 X636.61235 Y42.96283 I0.0 J-0.2
G1 Y37.05151
G2 X636.41235 Y36.85151 I-0.2 J0.0
G1 X635.91994
G2 X635.8305 Y36.85914 I0.0 J0.52797
G1 Y37.9959
G0 Z3.0
G0 X637.01216
G0 Z1.2
G1 F300.0 Z-0.2
G1 F800.0 Y43.67839
G2 X637.16237 Y43.8721 I0.2 J0.0
G2 X637.50358 Y43.8777 I0.1823 J-0.70927
G2 X638.2428 Y43.54221 I-0.42794 J-1.92511
G2 X638.32444 Y43.381 I-0.11837 J-0.16121
G1 Y36.63334
G2 X638.2428 Y36.47213 I-0.2 J0.0
G2 X637.50358 Y36.13664 I-1.16716 J1.58962
G2 X637.16237 Y36.14224 I-0.15891 J0.71487
G2 X637.01216 Y36.33595 I0.04979 J0.1937
G1 Y37.9959
G0 Z3.0
G0 X638.6538
G0 Z1.2
G1 F300.0 Z-0.2
G1 F800.0 Y43.21943
G2 X638.76257 Y43.39742 I0.2 J0.0
G2 X639.6851 Y43.39731 I0.46116 J-0.89975
G2 X639.79383 Y43.21935 I-0.09126 J-0.17796
G1 Y36.79499
G2 X639.6851 Y36.61703 I-0.2 J0.0
G2 X638.76257 Y36.61692 I-0.46136 J0.89965
G2 X638.6538 Y36.79491 I0.09122 J0.17798
G1 Y37.9959
G0 Z3.0
G0 X640.22534 Y37.87561
G0 Z1.2
G1 F300.0 Z-0.2
G2 F800.0 X640.44102 Y38.05969 I0.19942 J-0.01526
G1 X642.1184 Y37.92287
G2 X642.21062 Y37.89155 I-0.01626 J-0.19934
G1 X643.7583 Y36.89232
G2 X644.84959 Y34.49667 I-1.3229 J-2.049
G3 X645.13694 Y34.28932 I0.19797 J-0.02843
G1 X645.18184 Y34.31175
G1 X645.20222 Y34.5617
G3 X645.05545 Y35.99378 I-3.9312 J0.32066
G3 X643.79697 Y37.37703 I-2.05175 J-0.60257
G2 X643.77691 Y37.38637 I0.07419 J0.18573
G1 X642.17577 Y38.24195
G3 X642.13753 Y38.25755 I-0.09426 J-0.1764
G1 X640.21961 Y38.81716
G1 X642.21979 Y38.5182
G2 X642.24848 Y38.51172 I-0.02957 J-0.1978
G1 X646.29916 Y37.27817
G2 X646.4079 Y37.19689 I-0.05826 J-0.19133
G1 X647.30627 Y35.83351
G2 X647.33927 Y35.72347 I-0.167 J-0.11004
G1 Y34.50315
G2 X647.31464 Y34.40701 I-0.2 J0.0
G1 X647.11367 Y34.04043
G2 X647.09318 Y34.01005 I-0.17537 J0.09615
G1 X645.73198 Y32.34371
G2 X645.57709 Y32.27023 I-0.15489 J0.12653
G1 X645.32743
G3 X645.21738 Y32.23724 I0.0 J-0.2
G1 X645.04942 Y32.12656
G2 X644.93938 Y32.09357 I-0.11004 J0.167
G1 X643.92797
G2 X643.82531 Y32.12193 I0.0 J0.2
G1 X643.62477 Y32.24187
G3 X643.52211 Y32.27023 I-0.10266 J-0.17164
G1 X643.24585
G2 X643.07884 Y32.36019 I0.0 J0.2
G1 X642.85265 Y32.70347
G2 X642.85196 Y32.9225 I0.167 J0.11004
G1 X643.40889 Y33.7794
G3 X643.4412 Y33.88839 I-0.16769 J0.10899
G1 Y34.82009
G3 X643.43563 Y34.86696 I-0.2 J0.0
G1 X643.24298 Y35.66619
G3 X641.22148 Y37.25833 I-2.0215 J-0.48726
G1 X640.42476
G2 X640.22476 Y37.45833 I0.0 J0.2
G1 Y37.86035
G2 X640.22534 Y37.87561 I0.2 J0.0
G0 Z3.0
G0 X640.6306 Y39.36607
G0 Z1.2
G1 F300.0 Z-0.2
G1 F800.0 X640.37229 Y39.4363
G2 X640.22476 Y39.62929 I0.05247 J0.19299
G1 Y40.38505
G2 X640.37229 Y40.57804 I0.2 J0.0
G1 X642.31547 Y41.10639
G3 X642.32126 Y41.10806 I-0.05247 J0.19299
G1 X646.51549 Y42.38533
G2 X646.60399 Y42.3917 I0.05826 J-0.19133
G1 X648.22697 Y42.14348
G2 X648.29251 Y42.12136 I-0.03024 J-0.1977
G1 X652.02768 Y40.08403
G1 X652.07202 Y40.00717
G1 X652.02768 Y39.93031
G1 X648.29251 Y37.89298
G2 X648.22697 Y37.87086 I-0.09577 J0.17558
G1 X646.60399 Y37.62264
G2 X646.51549 Y37.62901 I-0.03024 J0.1977
G1 X642.32126 Y38.90628
G3 X642.31547 Y38.90795 I-0.05826 J-0.19133
G1 X640.6306 Y39.36607
G0 Z3.0
G0 X640.3539 Y41.21725
G0 Z1.2
G1 F300.0 Z-0.2
G1 F800.0 X640.21961 Y41.19718
G1 X642.13753 Y41.75679
G3 X642.17577 Y41.77239 I-0.05602 J0.19199
G1 X643.77691 Y42.62797
G2 X643.79697 Y42.63731 I0.09426 J-0.1764
G3 X645.05545 Y44.02056 I-0.79327 J1.98582
G3 X645.20222 Y45.45264 I-3.78442 J1.11143
G1 X645.18184 Y45.70259
G1 X645.13694 Y45.72502
G3 X644.84959 Y45.51767 I-0.08938 J-0.17892
G2 X643.7583 Y43.12202 I-2.41418 J-0.34666
G1 X642.21062 Y42.12278
G2 X642.1184 Y42.09147 I-0.10848 J0.16802
G1 X640.44102 Y41.95465
G2 X640.22476 Y42.15399 I-0.01626 J0.19934
G1 Y42.55601
G2 X640.42476 Y42.75601 I0.2 J0.0
G1 X641.22148
G3 X643.24298 Y44.34815 I0.0 J2.0794
G1 X643.43563 Y45.14738
G3 X643.4412 Y45.19425 I-0.19443 J0.04687
G1 Y46.12595
G3 X643.40889 Y46.23494 I-0.2 J0.0
G1 X642.85196 Y47.09184
G2 X642.85265 Y47.31087 I0.16769 J0.10899
G1 X643.07884 Y47.65415
G2 X643.24585 Y47.74411 I0.167 J-0.11004
G1 X643.52211
G3 X643.62477 Y47.77247 I0.0 J0.2
G1 X643.82531 Y47.89241
G2 X643.92797 Y47.92077 I0.10266 J-0.17164
G1 X644.93938
G2 X645.04942 Y47.88778 I0.0 J-0.2
G1 X645.21738 Y47.7771
G3 X645.32743 Y47.74411 I0.11004 J0.167
G1 X645.57709
G2 X645.73198 Y47.67063 I0.0 J-0.2
G1 X647.09318 Y46.00429
G2 X647.11367 Y45.97391 I-0.15489 J-0.12653
G1 X647.31464 Y45.60733
G2 X647.33927 Y45.51119 I-0.17537 J-0.09615
G1 Y44.29087
G2 X647.30627 Y44.18083 I-0.2 J0.0
G1 X646.4079 Y42.81745
G2 X646.29916 Y42.73617 I-0.167 J0.11004
G1 X642.24848 Y41.50262
G2 X642.21979 Y41.49614 I-0.05826 J0.19133
G1 X640.3539 Y41.21725
G0 Z3.0
G0 X623.9466 Y32.22219
G0 Z1.2
G1 F300.0 Z-0.2
G1 F800.0 X623.92791 Y32.25628
G3 X623.90743 Y32.28666 I-0.17537 J-0.09615
G1 X622.40291 Y34.12844
G3 X622.24802 Y34.20192 I-0.15489 J-0.12653
G1 X621.92856
G2 X621.81851 Y34.23491 I0.0 J0.2
G1 X621.65055 Y34.34559
G3 X621.54051 Y34.37858 I-0.11004 J-0.167
G1 X620.29866
G3 X620.196 Y34.35022 I0.0 J-0.2
G1 X619.99546 Y34.23028
G2 X619.8928 Y34.20192 I-0.10266 J0.17164
G1 X619.51158
G3 X619.34458 Y34.11196 I0.0 J-0.2
G1 X618.8558 Y33.37019
G3 X618.85511 Y33.15115 I0.167 J-0.11004
G1 X619.49008 Y32.17418
G2 X619.52238 Y32.06519 I-0.16769 J-0.10899
G1 Y31.29958
G2 X619.51682 Y31.25272 I-0.2 J0.0
G1 X619.33531 Y30.49969
G2 X617.70267 Y29.21382 I-1.63264 J0.39353
G1 X617.06827
G2 X616.89902 Y29.30726 I0.0 J0.2
G3 X615.18989 Y29.86917 I-1.1941 J-0.75179
G2 X614.99558 Y29.89636 I-0.073 J0.1862
G3 X614.07157 Y30.32598 I-1.43875 J-1.88596
G3 X612.81486 Y29.73057 I-0.24571 J-1.10534
G2 X612.63629 Y29.62064 I-0.17857 J0.09007
G1 X612.40113
G3 X611.5638 Y29.09267 I0.0 J-0.92797
G1 X611.47837
G2 X611.34821 Y29.14082 I0.0 J0.2
G1 X610.12478 Y30.18948
G2 X610.07484 Y30.25435 I0.13016 J0.15185
G2 X610.38874 Y30.75455 I0.3139 J0.1516
G1 X611.27956
G2 X611.32087 Y30.75024 I0.0 J-0.2
G1 X613.11433 Y30.37164
G3 X613.15564 Y30.36733 I0.04131 J0.19569
G1 X614.69784
G3 X614.80683 Y30.39964 I0.0 J0.2
G1 X616.27502 Y31.35387
G3 X617.30917 Y33.25939 I-1.23847 J1.90552
G1 Y35.12018
G3 X617.30423 Y35.16438 I-0.2 J0.0
G3 X616.75347 Y36.52135 I-4.40852 J-0.99906
G3 X615.66229 Y36.86955 I-0.74666 J-0.456
G3 X615.5464 Y36.63977 I0.07876 J-0.18384
G2 X614.71766 Y35.49609 I-0.90784 J-0.21426
G1 X612.55595 Y35.31212
G2 X612.4859 Y35.31857 I-0.01696 J0.19928
G1 X608.92776 Y36.29829
G3 X608.87466 Y36.30547 I-0.05309 J-0.19282
G1 X606.57966
G3 X606.47506 Y36.27593 I0.0 J-0.2
G1 X604.46712 Y35.04372
G3 X603.30443 Y30.66336 I1.71869 J-2.80068
G1 X603.93677 Y29.50996
G2 X603.7614 Y29.21382 I-0.17537 J-0.09615
G1 X600.86005
G3 X600.72767 Y29.16374 I0.0 J-0.2
G2 X597.5725 Y27.22093 I-7.18892 J8.14158
G1 X595.37685 Y26.34267
G3 X595.31212 Y26.30076 I0.07428 J-0.1857
G1 X595.06824 Y26.06498
G1 X595.31212 Y25.82919
G3 X595.37685 Y25.78729 I0.13902 J0.14379
G1 X597.5725 Y24.90903
G2 X600.72767 Y22.96622 I-4.03375 J-10.08438
G3 X600.86005 Y22.91614 I0.13238 J0.14992
G1 X603.7614
G2 X603.93677 Y22.62 I0.0 J-0.2
G1 X603.30443 Y21.46659
G3 X604.46712 Y17.08624 I2.88138 J-1.57967
G1 X606.47506 Y15.85403
G3 X606.57966 Y15.82449 I0.10461 J0.17046
G1 X608.87466
G3 X608.92776 Y15.83167 I0.0 J0.2
G1 X612.4859 Y16.81139
G2 X612.55595 Y16.81784 I0.05309 J-0.19282
G1 X614.71766 Y16.63387
G2 X615.5464 Y15.49019 I-0.0791 J-0.92942
G3 X615.66229 Y15.26041 I0.19465 J-0.04594
G3 X616.75347 Y15.60861 I0.34452 J0.80421
G3 X617.30423 Y16.96558 I-3.85776 J2.35603
G3 X617.30917 Y17.00978 I-0.19505 J0.0442
G1 Y18.87057
G3 X616.27502 Y20.77609 I-2.27262 J0.0
G1 X614.80683 Y21.73032
G3 X614.69784 Y21.76263 I-0.10899 J-0.16769
G1 X613.15564
G3 X613.11433 Y21.75832 I0.0 J-0.2
G1 X611.32087 Y21.37972
G2 X611.27956 Y21.37541 I-0.04131 J0.19569
G1 X610.38874
G2 X610.07484 Y21.87561 I0.0 J0.34859
G2 X610.12478 Y21.94048 I0.1801 J-0.08698
G1 X611.34821 Y22.98914
G2 X611.47837 Y23.03729 I0.13016 J-0.15185
G1 X611.5638
G3 X612.40113 Y22.50932 I0.83733 J0.4
G1 X612.63629
G2 X612.81486 Y22.39939 I0.0 J-0.2
G3 X614.07157 Y21.80398 I1.011 J0.50993
G3 X614.99558 Y22.2336 I-0.51474 J2.31558
G2 X615.18989 Y22.26079 I0.12131 J-0.15901
G3 X616.89902 Y22.8227 I0.51503 J1.3137
G2 X617.06827 Y22.91614 I0.16925 J-0.10656
G1 X617.70267
G2 X619.33531 Y21.63027 I0.0 J-1.6794
G1 X619.51682 Y20.87724
G2 X619.52238 Y20.83038 I-0.19443 J-0.04687
G1 Y20.06477
G2 X619.49008 Y19.95578 I-0.2 J0.0
G1 X618.85511 Y18.97881
G3 X618.8558 Y18.75977 I0.16769 J-0.10899
G1 X619.34458 Y18.018
G3 X619.51158 Y17.92804 I0.167 J0.11004
G1 X619.8928
G2 X619.99546 Y17.89968 I0.0 J-0.2
G1 X620.196 Y17.77974
G3 X620.29866 Y17.75138 I0.10266 J0.17164
G1 X621.54051
G3 X621.65055 Y17.78437 I0.0 J0.2
G1 X621.81851 Y17.89505
G2 X621.92856 Y17.92804 I0.11004 J-0.167
G1 X622.24802
G3 X622.40291 Y18.00152 I0.0 J0.2
G1 X623.90743 Y19.8433
G3 X623.92791 Y19.87368 I-0.15489 J0.12653
G1 X624.19583 Y20.36236
G3 X624.22046 Y20.45851 I-0.17537 J0.09615
G1 Y21.90122
G3 X624.18746 Y22.01126 I-0.2 J0.0
G1 X623.32958 Y23.31317
G1 X624.83805 Y23.54389
G3 X624.90358 Y23.56601 I-0.03024 J0.1977
G1 X628.64897 Y25.60891
G3 X628.72858 Y25.68834 I-0.09577 J0.17558
G1 X628.93506 Y26.06498
G1 X628.72858 Y26.44162
G3 X628.64897 Y26.52105 I-0.17537 J-0.09615
G1 X624.90358 Y28.56395
G3 X624.83805 Y28.58607 I-0.09577 J-0.17558
G1 X623.32958 Y28.81679
G1 X624.18746 Y30.1187
G3 X624.22046 Y30.22874 I-0.167 J0.11004
G1 Y31.67145
G3 X624.19583 Y31.76759 I-0.2 J0.0
G1 X623.9466 Y32.22219
G0 Z3.0
G0 X623.59585 Y32.0299
G0 Z1.2
G1 F300.0 Z-0.2
G1 F800.0 X623.79583 Y31.66514
G2 X623.82046 Y31.569 I-0.17537 J-0.09615
G1 Y30.34868
G2 X623.78746 Y30.23864 I-0.2 J0.0
G1 X622.88909 Y28.87526
G2 X622.78035 Y28.79398 I-0.167 J0.11004
G1 X618.72967 Y27.56043
G2 X618.70098 Y27.55395 I-0.05826 J0.19133
G1 X616.7008 Y27.25499
G1 X618.61872 Y27.8146
G3 X618.65695 Y27.8302 I-0.05602 J0.19199
G1 X620.2581 Y28.68578
G2 X620.27816 Y28.69511 I0.09426 J-0.1764
G3 X621.53664 Y30.07837 I-0.79327 J1.98582
G3 X621.68341 Y31.51045 I-3.78442 J1.11143
G1 X621.66303 Y31.7604
G1 X621.61813 Y31.78283
G3 X621.33078 Y31.57548 I-0.08938 J-0.17892
G2 X620.23949 Y29.17983 I-2.41418 J-0.34666
G1 X618.69181 Y28.18059
G2 X618.59959 Y28.14928 I-0.10848 J0.16802
G1 X616.92221 Y28.01246
G2 X616.70595 Y28.2118 I-0.01626 J0.19934
G1 Y28.61382
G2 X616.90595 Y28.81382 I0.2 J0.0
G1 X617.70267
G3 X619.72417 Y30.40596 I0.0 J2.0794
G1 X619.91682 Y31.20519
G3 X619.92238 Y31.25206 I-0.19443 J0.04687
G1 Y32.18376
G3 X619.89008 Y32.29275 I-0.2 J0.0
G1 X619.33315 Y33.14965
G2 X619.33383 Y33.36868 I0.16769 J0.10899
G1 X619.56003 Y33.71196
G2 X619.72704 Y33.80192 I0.167 J-0.11004
G1 X620.0033
G3 X620.10596 Y33.83028 I0.0 J0.2
G1 X620.3065 Y33.95022
G2 X620.40916 Y33.97858 I0.10266 J-0.17164
G1 X621.42057
G2 X621.53061 Y33.94559 I0.0 J-0.2
G1 X621.69857 Y33.83491
G3 X621.80862 Y33.80192 I0.11004 J0.167
G1 X622.05828
G2 X622.21317 Y33.72844 I0.0 J-0.2
G1 X623.57437 Y32.0621
G2 X623.59486 Y32.03172 I-0.15489 J-0.12653
G1 X623.59585 Y32.0299
G0 Z3.0
G0 X623.08329 Y28.44979
G0 Z1.2
G1 F300.0 Z-0.2
G2 F800.0 X623.08518 Y28.44951 I-0.02835 J-0.19798
G1 X624.70816 Y28.20129
G2 X624.77369 Y28.17917 I-0.03024 J-0.1977
G1 X628.50887 Y26.14183
G1 X628.5532 Y26.06498
G1 X628.50887 Y25.98812
G1 X624.77369 Y23.95079
G2 X624.70816 Y23.92867 I-0.09577 J0.17558
G1 X623.08518 Y23.68045
G2 X622.99668 Y23.68682 I-0.03024 J0.1977
G1 X618.80245 Y24.96409
G3 X618.79666 Y24.96576 I-0.05826 J-0.19133
G1 X616.85348 Y25.49411
G2 X616.70595 Y25.6871 I0.05247 J0.19299
G1 Y26.44286
G2 X616.85348 Y26.63585 I0.2 J0.0
G1 X618.79666 Y27.1642
G3 X618.80245 Y27.16587 I-0.05247 J0.19299
G1 X622.99668 Y28.44314
G2 X623.08329 Y28.44979 I0.05826 J-0.19133
G0 Z3.0
G0 X621.63243 Y23.68555
G0 Z1.2
G1 F300.0 Z-0.2
G1 F800.0 X622.78035 Y23.33598
G2 X622.88909 Y23.2547 I-0.05826 J-0.19133
G1 X623.78746 Y21.89132
G2 X623.82046 Y21.78128 I-0.167 J-0.11004
G1 Y20.56096
G2 X623.79583 Y20.46482 I-0.2 J0.0
G1 X623.59486 Y20.09824
G2 X623.57437 Y20.06786 I-0.17537 J0.09615
G1 X622.21317 Y18.40152
G2 X622.05828 Y18.32804 I-0.15489 J0.12653
G1 X621.80862
G3 X621.69857 Y18.29505 I0.0 J-0.2
G1 X621.53061 Y18.18437
G2 X621.42057 Y18.15138 I-0.11004 J0.167
G1 X620.40916
G2 X620.3065 Y18.17974 I0.0 J0.2
G1 X620.10596 Y18.29968
G3 X620.0033 Y18.32804 I-0.10266 J-0.17164
G1 X619.72704
G2 X619.56003 Y18.418 I0.0 J0.2
G1 X619.33383 Y18.76128
G2 X619.33315 Y18.98031 I0.167 J0.11004
G1 X619.89008 Y19.83721
G3 X619.92238 Y19.9462 I-0.16769 J0.10899
G1 Y20.8779
G3 X619.91682 Y20.92477 I-0.2 J0.0
G1 X619.72417 Y21.724
G3 X617.70267 Y23.31614 I-2.0215 J-0.48726
G1 X616.90595
G2 X616.70595 Y23.51614 I0.0 J0.2
G1 Y23.91816
G2 X616.92221 Y24.1175 I0.2 J0.0
G1 X618.59959 Y23.98068
G2 X618.69181 Y23.94936 I-0.01626 J-0.19934
G1 X620.23949 Y22.95013
G2 X621.33078 Y20.55447 I-1.3229 J-2.049
G3 X621.61813 Y20.34713 I0.19797 J-0.02843
G1 X621.66303 Y20.36956
G1 X621.68341 Y20.61951
G3 X621.53664 Y22.05159 I-3.9312 J0.32066
G3 X620.27816 Y23.43484 I-2.05175 J-0.60257
G2 X620.2581 Y23.44418 I0.07419 J0.18573
G1 X618.65695 Y24.29976
G3 X618.61872 Y24.31536 I-0.09426 J-0.1764
G1 X616.7008 Y24.87497
G1 X618.70098 Y24.57601
G2 X618.72967 Y24.56953 I-0.02957 J-0.1978
G1 X621.63243 Y23.68555
G0 Z3.0
G0 X616.27502
G0 Z1.2
G1 F300.0 Z-0.2
G1 F800.0 Y22.8528
G2 X616.16629 Y22.67484 I-0.2 J0.0
G2 X615.24376 Y22.67473 I-0.46136 J0.89965
G2 X615.13499 Y22.85272 I0.09122 J0.17798
G1 Y29.27724
G2 X615.24376 Y29.45523 I0.2 J0.0
G2 X616.16629 Y29.45512 I0.46116 J-0.89975
G2 X616.27502 Y29.27716 I-0.09126 J-0.17796
G1 Y23.68555
G0 Z3.0
G0 X614.80563
G0 Z1.2
G1 F300.0 Z-0.2
G1 F800.0 Y22.69115
G2 X614.72399 Y22.52994 I-0.2 J0.0
G2 X613.98477 Y22.19445 I-1.16716 J1.58962
G2 X613.64356 Y22.20005 I-0.15891 J0.71487
G2 X613.49335 Y22.39376 I0.04979 J0.1937
G1 Y29.7362
G2 X613.64356 Y29.9299 I0.2 J0.0
G2 X613.98477 Y29.93551 I0.1823 J-0.70927
G2 X614.72399 Y29.60002 I-0.42794 J-1.92511
G2 X614.80563 Y29.43881 I-0.11837 J-0.16121
G1 Y23.68555
G0 Z3.0
G0 X613.09354
G0 Z1.2
G1 F300.0 Z-0.2
G1 F800.0 Y23.10932
G2 X612.89354 Y22.90932 I-0.2 J0.0
G1 X612.40113
G2 X612.31169 Y22.91695 I0.0 J0.52797
G1 Y29.21301
G2 X612.40113 Y29.22064 I0.08945 J-0.52033
G1 X612.89354
G2 X613.09354 Y29.02064 I0.0 J-0.2
G1 Y23.68555
G0 Z3.0
G0 X611.86711 Y23.65074
G0 Z1.2
G1 F300.0 Z-0.2
G1 F800.0 X611.86733 Y23.64296
G2 X611.66741 Y23.43729 I-0.19992 J-0.00567
G1 X611.3304
G3 X611.20024 Y23.38914 I0.0 J-0.2
G1 X609.82144 Y22.2073
G3 X609.79223 Y22.17629 I0.13016 J-0.15185
G3 X610.38874 Y20.97541 I0.59651 J-0.45228
G1 X611.32132
G3 X611.36263 Y20.97972 I0.0 J0.2
G1 X613.15609 Y21.35832
G2 X613.1974 Y21.36263 I0.04131 J-0.19569
G1 X614.57928
G2 X614.68827 Y21.33032 I0.0 J-0.2
G1 X616.05704 Y20.4407
G2 X616.90917 Y18.87057 I-1.02049 J-1.57013
G1 Y17.05564
G2 X616.90372 Y17.00926 I-0.2 J0.0
G2 X616.41209 Y15.8171 I-4.00802 J0.95537
G2 X616.28066 Y15.67664 I-0.40529 J0.24752
G2 X615.96611 Y15.82234 I-0.11533 J0.1634
G3 X614.75158 Y17.03243 I-1.32755 J-0.11789
G1 X612.51866 Y17.22246
G3 X612.44861 Y17.21601 I-0.01696 J-0.19928
G1 X608.87369 Y16.23167
G2 X608.8206 Y16.22449 I-0.05309 J0.19282
G1 X606.69261
G2 X606.588 Y16.25403 I0.0 J0.2
G1 X604.67634 Y17.42716
G2 X603.65518 Y21.2743 I1.50948 J2.45976
G1 X604.33142 Y22.50779
G2 X604.39481 Y22.57736 I0.17537 J-0.09615
G1 X605.14892 Y23.08697
G3 X605.17682 Y23.10973 I-0.11198 J0.16571
G2 X609.23948 Y24.92263 I4.47772 J-4.57583
G1 X611.64031 Y25.07861
G2 X611.85327 Y24.87903 I0.01297 J-0.19958
G1 Y24.53034
G1 X611.27622
G3 X611.237 Y24.52646 I0.0 J-0.2
G1 X609.94964 Y24.26898
G3 X609.91376 Y24.25823 I0.03922 J-0.19612
G1 X608.34155 Y23.6212
G3 X608.31003 Y23.60504 I0.07511 J-0.18536
G1 X606.63614 Y22.55025
G3 X605.93202 Y21.2743 I0.80403 J-1.27595
G1 Y19.79838
G3 X607.17153 Y18.55887 I1.23951 J0.0
G1 X609.62211
G3 X609.67786 Y18.5668 I0.0 J0.2
G1 X611.82597 Y19.19019
G2 X611.88171 Y19.19812 I0.05574 J-0.19208
G1 X613.45751
G3 X613.65751 Y19.39812 I0.0 J0.2
G1 Y19.59812
G1 X611.82484
G3 X611.7691 Y19.59019 I0.0 J-0.2
G1 X609.62099 Y18.9668
G2 X609.56525 Y18.95887 I-0.05574 J0.19208
G1 X607.17153
G2 X606.33202 Y19.79838 I0.0 J0.83951
G1 Y21.2743
G2 X606.84939 Y22.21183 I1.10814 J0.0
G1 X608.4932 Y23.24767
G2 X608.52472 Y23.26382 I0.10662 J-0.16921
G1 X610.0291 Y23.87337
G2 X610.06498 Y23.88413 I0.07511 J-0.18536
G1 X611.31545 Y24.13423
G2 X611.35467 Y24.13811 I0.03922 J-0.19612
G1 X611.65887
G2 X611.85879 Y23.94379 I0.0 J-0.2
G1 X611.86711 Y23.65074
G0 Z3.0
G0 X611.65082 Y25.48042
G0 Z1.2
G1 F300.0 Z-0.2
G2 F800.0 X611.64031 Y25.47945 I-0.02348 J0.19862
G1 X609.21354 Y25.32179
G3 X604.89969 Y23.3982 I0.44099 J-6.78789
G2 X604.86372 Y23.37029 I-0.1398 J0.14302
G1 X604.82244 Y23.34521
G2 X604.7186 Y23.31614 I-0.10384 J0.17093
G1 X601.00984
G2 X600.87947 Y23.36447 I0.0 J0.2
G3 X597.72106 Y25.28042 I-7.34072 J-8.53983
G1 X595.75965 Y26.06498
G1 X597.72106 Y26.84954
G3 X600.87947 Y28.76548 I-4.18231 J10.45577
G2 X601.00984 Y28.81382 I0.13037 J-0.15167
G1 X604.7186
G2 X604.82244 Y28.78475 I0.0 J-0.2
G1 X604.86372 Y28.75967
G2 X604.89969 Y28.73176 I-0.10384 J-0.17093
G3 X609.21354 Y26.80817 I4.75484 J4.8643
G1 X611.64031 Y26.65051
G2 X611.82734 Y26.45093 I-0.01297 J-0.19958
G1 Y25.67903
G2 X611.65082 Y25.48042 I-0.2 J0.0
G0 Z3.0
G0 X611.653 Y27.05093
G0 Z1.2
G1 F300.0 Z-0.2
G2 F800.0 X611.64031 Y27.05135 I0.00028 J0.2
G1 X609.23948 Y27.20732
G2 X605.17682 Y29.02023 I0.41506 J6.38873
G3 X605.14892 Y29.04299 I-0.13988 J-0.14295
G1 X604.39481 Y29.5526
G2 X604.33142 Y29.62217 I0.11198 J0.16571
G1 X603.65518 Y30.85566
G2 X604.67634 Y34.7028 I2.53063 J1.38738
G1 X606.588 Y35.87593
G2 X606.69261 Y35.90547 I0.10461 J-0.17046
G1 X608.8206
G2 X608.87369 Y35.89829 I0.0 J-0.2
G1 X612.44861 Y34.91395
G3 X612.51866 Y34.9075 I0.05309 J0.19282
G1 X614.75158 Y35.09753
G3 X615.96611 Y36.30762 I-0.11302 J1.32798
G2 X616.28066 Y36.45332 I0.19922 J-0.01769
G2 X616.41209 Y36.31286 I-0.27386 J-0.38798
G2 X616.90372 Y35.12069 I-3.51639 J-2.14754
G2 X616.90917 Y35.07432 I-0.19455 J-0.04637
G1 Y33.25939
G2 X616.05704 Y31.68926 I-1.87262 J0.0
G1 X614.68827 Y30.79964
G2 X614.57928 Y30.76733 I-0.10899 J0.16769
G1 X613.1974
G2 X613.15609 Y30.77164 I0.0 J0.2
G1 X611.36263 Y31.15024
G3 X611.32132 Y31.15455 I-0.04131 J-0.19569
G1 X610.38874
G3 X609.79223 Y29.95367 I0.0 J-0.74859
G3 X609.82144 Y29.92266 I0.15937 J0.12084
G1 X611.20024 Y28.74082
G3 X611.3304 Y28.69267 I0.13016 J0.15185
G1 X611.66741
G2 X611.86733 Y28.487 I0.0 J-0.2
G1 X611.85879 Y28.18617
G2 X611.65887 Y27.99185 I-0.19992 J0.00567
G1 X611.35467
G2 X611.31545 Y27.99573 I0.0 J0.2
G1 X610.06498 Y28.24583
G2 X610.0291 Y28.25658 I0.03922 J0.19612
G1 X608.52472 Y28.86613
G2 X608.4932 Y28.88229 I0.07511 J0.18536
G1 X606.84939 Y29.91813
G2 X606.33202 Y30.85566 I0.59078 J0.93753
G1 Y32.33158
G2 X607.17153 Y33.17109 I0.83951 J0.0
G1 X609.56525
G2 X609.62099 Y33.16316 I0.0 J-0.2
G1 X611.7691 Y32.53977
G3 X611.82484 Y32.53184 I0.05574 J0.19208
G1 X613.65751
G1 Y32.73184
G3 X613.45751 Y32.93184 I-0.2 J0.0
G1 X611.88171
G2 X611.82597 Y32.93977 I0.0 J0.2
G1 X609.67786 Y33.56316
G3 X609.62211 Y33.57109 I-0.05574 J-0.19208
G1 X607.17153
G3 X605.93202 Y32.33158 I0.0 J-1.23951
G1 Y30.85566
G3 X606.63614 Y29.57971 I1.50814 J0.0
G1 X608.31003 Y28.52492
G3 X608.34155 Y28.50876 I0.10662 J0.16921
G1 X609.91376 Y27.87173
G3 X609.94964 Y27.86098 I0.07511 J0.18536
G1 X611.237 Y27.6035
G3 X611.27622 Y27.59961 I0.03922 J0.19612
G1 X611.85327
G1 Y27.25093
G2 X611.653 Y27.05093 I-0.2 J0.0
( ProfilRand15mm )
G0 Z3.0
( T15 : 1.5 )
T15 M6
M3 S1000
G0 X590.21437 Y69.68
G0 Z1.0
G1 F300.0 Z-0.5
G1 F800.0 X625.54952
G2 Y10.3343 I0.0 J-29.67285
G1 X590.21437
G1 Y69.68
G0 Z3.0
M5
M30
