( Made using CamBam - http://www.cambam.co.uk )
( schanpsbrett_hofsgrund 12/10/2018 6:48:17 PM )
( T10 : 0.0 )
( T15 : 1.5 )
G21 G90 G64 G40
G0 Z3.0
( T10 : 0.0 )
T10 M6
( Gravieren1 )
G17
M3 S1000
G0 X-17.8423 Y11.26249
G0 Z1.2
G1 F300.0 Z-0.2
G1 F800.0 X-17.88359 Y11.23741
G2 X-17.98742 Y11.20834 I-0.10384 J0.17093
G1 X-21.69619
G2 X-21.82656 Y11.25667 I0.0 J0.2
G3 X-25.18447 Y13.17262 I-7.17696 J-8.67791
G1 X-27.14587 Y13.95718
G1 X-25.18447 Y14.74174
G3 X-21.82656 Y16.65768 I-3.81905 J10.59385
G2 X-21.69619 Y16.70601 I0.13037 J-0.15167
G1 X-17.98742
G2 X-17.88359 Y16.67695 I0.0 J-0.2
G1 X-17.8423 Y16.65187
G2 X-17.80634 Y16.62396 I-0.10384 J-0.17093
G3 X-13.49248 Y14.70036 I4.75484 J4.8643
G1 X-11.06572 Y14.5427
G2 X-10.87869 Y14.34312 I-0.01297 J-0.19958
G1 Y13.57123
G2 X-11.06572 Y13.37165 I-0.2 J0.0
G1 X-13.49248 Y13.21399
G3 X-17.80634 Y11.2904 I0.44099 J-6.78789
G2 X-17.8423 Y11.26249 I-0.1398 J0.14302
G0 Z3.0
G0 X-17.62145 Y10.93568
G0 Z1.2
G1 F300.0 Z-0.2
G1 F800.0 X-17.55711 Y10.97916
G3 X-17.52921 Y11.00193 I-0.11198 J0.16571
G2 X-13.46655 Y12.81483 I4.47772 J-4.57583
G1 X-11.06572 Y12.97081
G2 X-10.85275 Y12.77123 I0.01297 J-0.19958
G1 Y12.42254
G1 X-11.42981
G3 X-11.46903 Y12.41866 I0.0 J-0.2
G1 X-12.75639 Y12.16118
G3 X-12.79227 Y12.15043 I0.03922 J-0.19612
G1 X-14.36447 Y11.51339
G3 X-14.39599 Y11.49724 I0.07511 J-0.18536
G1 X-16.06989 Y10.44245
G3 X-16.77401 Y9.1665 I0.80403 J-1.27595
G1 Y7.69058
G3 X-15.5345 Y6.45107 I1.23951 J0.0
G1 X-13.08391
G3 X-13.02817 Y6.459 I0.0 J0.2
G1 X-10.88006 Y7.08239
G2 X-10.82432 Y7.09031 I0.05574 J-0.19208
G1 X-9.24851
G3 X-9.04851 Y7.29031 I0.0 J0.2
G1 Y7.49031
G1 X-10.88119
G3 X-10.93693 Y7.48239 I0.0 J-0.2
G1 X-13.08504 Y6.859
G2 X-13.14078 Y6.85107 I-0.05574 J0.19208
G1 X-15.5345
G2 X-16.37401 Y7.69058 I0.0 J0.83951
G1 Y9.1665
G2 X-15.85664 Y10.10403 I1.10814 J0.0
G1 X-14.21283 Y11.13987
G2 X-14.18131 Y11.15602 I0.10662 J-0.16921
G1 X-12.67693 Y11.76557
G2 X-12.64105 Y11.77633 I0.07511 J-0.18536
G1 X-11.39058 Y12.02643
G2 X-11.35136 Y12.03031 I0.03922 J-0.19612
G1 X-11.04716
G2 X-10.84724 Y11.83599 I0.0 J-0.2
G1 X-10.8387 Y11.53516
G2 X-11.03862 Y11.32948 I-0.19992 J-0.00567
G1 X-11.37562
G3 X-11.50578 Y11.28134 I0.0 J-0.2
G1 X-12.88459 Y10.0995
G3 X-12.9138 Y10.06848 I0.13016 J-0.15185
G3 X-12.31729 Y8.86761 I0.59651 J-0.45228
G1 X-11.38471
G3 X-11.3434 Y8.87192 I0.0 J0.2
G1 X-9.54994 Y9.25051
G2 X-9.50863 Y9.25483 I0.04131 J-0.19569
G1 X-8.12675
G2 X-8.01776 Y9.22252 I0.0 J-0.2
G1 X-6.64899 Y8.3329
G2 X-5.79686 Y6.76277 I-1.02049 J-1.57013
G1 Y4.94784
G2 X-5.80231 Y4.90146 I-0.2 J0.0
G2 X-6.29393 Y3.70929 I-4.00802 J0.95537
G2 X-6.42537 Y3.56884 I-0.40529 J0.24752
G2 X-6.73991 Y3.71454 I-0.11533 J0.1634
G3 X-7.95445 Y4.92463 I-1.32755 J-0.11789
G1 X-10.18736 Y5.11466
G3 X-10.25742 Y5.10821 I-0.01696 J-0.19928
G1 X-13.83233 Y4.12387
G2 X-13.88543 Y4.11669 I-0.05309 J0.19282
G1 X-16.01342
G2 X-16.11802 Y4.14623 I0.0 J0.2
G1 X-18.02969 Y5.31936
G2 X-19.05085 Y9.1665 I1.50948 J2.45976
G1 X-18.3746 Y10.39999
G2 X-18.31121 Y10.46955 I0.17537 J-0.09615
G1 X-17.62145 Y10.93568
G0 Z3.0
G0 X-18.9486 Y10.65038
G0 Z1.2
G1 F300.0 Z-0.2
G2 F800.0 X-18.96875 Y10.51219 I-0.19553 J-0.04204
G1 X-19.60109 Y9.35879
G3 X-18.4384 Y4.97844 I2.88138 J-1.57967
G1 X-16.43047 Y3.74623
G3 X-16.32586 Y3.71669 I0.10461 J0.17046
G1 X-14.03086
G3 X-13.97777 Y3.72387 I0.0 J0.2
G1 X-10.41963 Y4.70359
G2 X-10.34957 Y4.71004 I0.05309 J-0.19282
G1 X-8.18786 Y4.52607
G2 X-7.35913 Y3.38239 I-0.0791 J-0.92942
G3 X-7.24323 Y3.15261 I0.19465 J-0.04594
G3 X-6.15206 Y3.50081 I0.34452 J0.80421
G3 X-5.6013 Y4.85778 I-3.85776 J2.35603
G3 X-5.59635 Y4.90198 I-0.19505 J0.0442
G1 Y6.76277
G3 X-6.6305 Y8.66829 I-2.27262 J0.0
G1 X-8.09869 Y9.62252
G3 X-8.20768 Y9.65483 I-0.10899 J-0.16769
G1 X-9.74988
G3 X-9.79119 Y9.65051 I0.0 J-0.2
G1 X-11.58465 Y9.27192
G2 X-11.62596 Y9.26761 I-0.04131 J0.19569
G1 X-12.51678
G2 X-12.83068 Y9.76781 I0.0 J0.34859
G2 X-12.78075 Y9.83268 I0.1801 J-0.08698
G1 X-11.55731 Y10.88134
G2 X-11.42715 Y10.92948 I0.13016 J-0.15185
G1 X-11.34172
G3 X-10.50439 Y10.40152 I0.83733 J0.4
G1 X-10.26923
G2 X-10.09066 Y10.29159 I0.0 J-0.2
G3 X-8.83395 Y9.69618 I1.011 J0.50993
G3 X-7.90994 Y10.1258 I-0.51474 J2.31558
G2 X-7.71564 Y10.15299 I0.12131 J-0.15901
G3 X-6.0065 Y10.7149 I0.51503 J1.3137
G2 X-5.83725 Y10.80834 I0.16925 J-0.10656
G1 X-5.20286
G2 X-3.57022 Y9.52247 I0.0 J-1.6794
G1 X-3.38871 Y8.76944
G2 X-3.38314 Y8.72257 I-0.19443 J-0.04687
G1 Y7.95697
G2 X-3.41545 Y7.84798 I-0.2 J0.0
G1 X-4.05042 Y6.87101
G3 X-4.04973 Y6.65197 I0.16769 J-0.10899
G1 X-3.56095 Y5.9102
G3 X-3.39395 Y5.82024 I0.167 J0.11004
G1 X-3.01272
G2 X-2.91006 Y5.79188 I0.0 J-0.2
G1 X-2.70952 Y5.67193
G3 X-2.60686 Y5.64357 I0.10266 J0.17164
G1 X-1.36502
G3 X-1.25497 Y5.67657 I0.0 J0.2
G1 X-1.08701 Y5.78724
G2 X-0.97697 Y5.82024 I0.11004 J-0.167
G1 X-0.65751
G3 X-0.50262 Y5.89371 I0.0 J0.2
G1 X1.00191 Y7.7355
G3 X1.02239 Y7.76588 I-0.15489 J0.12653
G1 X1.29031 Y8.25456
G3 X1.31493 Y8.35071 I-0.17537 J0.09615
G1 Y9.79341
G3 X1.28194 Y9.90346 I-0.2 J0.0
G1 X0.42406 Y11.20537
G1 X1.93253 Y11.43608
G3 X1.99806 Y11.4582 I-0.03024 J0.1977
G1 X5.74345 Y13.50111
G3 X5.82305 Y13.58054 I-0.09577 J0.17558
G1 X6.02954 Y13.95718
G1 X5.82305 Y14.33382
G3 X5.74345 Y14.41325 I-0.17537 J-0.09615
G1 X1.99806 Y16.45615
G3 X1.93253 Y16.47827 I-0.09577 J-0.17558
G1 X0.42406 Y16.70898
G1 X1.28194 Y18.0109
G3 X1.31493 Y18.12094 I-0.167 J0.11004
G1 Y19.56365
G3 X1.29031 Y19.65979 I-0.2 J0.0
G1 X1.02239 Y20.14848
G3 X1.00191 Y20.17886 I-0.17537 J-0.09615
G1 X-0.50262 Y22.02064
G3 X-0.65751 Y22.09411 I-0.15489 J-0.12653
G1 X-0.97697
G2 X-1.08701 Y22.12711 I0.0 J0.2
G1 X-1.25497 Y22.23778
G3 X-1.36502 Y22.27078 I-0.11004 J-0.167
G1 X-2.60686
G3 X-2.70952 Y22.24242 I0.0 J-0.2
G1 X-2.91006 Y22.12247
G2 X-3.01272 Y22.09411 I-0.10266 J0.17164
G1 X-3.39395
G3 X-3.56095 Y22.00416 I0.0 J-0.2
G1 X-4.04973 Y21.26238
G3 X-4.05042 Y21.04335 I0.167 J-0.11004
G1 X-3.41545 Y20.06638
G2 X-3.38314 Y19.95739 I-0.16769 J-0.10899
G1 Y19.19178
G2 X-3.38871 Y19.14492 I-0.2 J0.0
G1 X-3.57022 Y18.39188
G2 X-5.20286 Y17.10601 I-1.63264 J0.39353
G1 X-5.83725
G2 X-6.0065 Y17.19946 I0.0 J0.2
G3 X-7.71564 Y17.76137 I-1.1941 J-0.75179
G2 X-7.90994 Y17.78856 I-0.073 J0.1862
G3 X-8.83395 Y18.21818 I-1.43875 J-1.88596
G3 X-10.09066 Y17.62277 I-0.24571 J-1.10534
G2 X-10.26923 Y17.51284 I-0.17857 J0.09007
G1 X-10.50439
G3 X-11.16135 Y16.99401 I0.1995 J-0.92797
G1 X-11.24679
G2 X-11.37694 Y17.04216 I0.0 J0.2
G1 X-12.60038 Y18.09082
G2 X-12.63119 Y18.14655 I0.1574 J0.12339
G2 X-12.31729 Y18.64675 I0.3139 J0.1516
G1 X-11.42647
G2 X-11.38516 Y18.64243 I0.0 J-0.2
G1 X-9.59169 Y18.26384
G3 X-9.55039 Y18.25953 I0.04131 J0.19569
G1 X-8.00818
G3 X-7.89919 Y18.29184 I0.0 J0.2
G1 X-6.43101 Y19.24607
G3 X-5.39686 Y21.15159 I-1.23847 J1.90552
G1 Y23.01238
G3 X-5.4018 Y23.05658 I-0.2 J0.0
G3 X-5.95256 Y24.41354 I-4.40852 J-0.99906
G3 X-7.04374 Y24.76175 I-0.74666 J-0.456
G3 X-7.15963 Y24.53197 I0.07876 J-0.18384
G2 X-7.98837 Y23.38829 I-0.90784 J-0.21426
G1 X-10.15008 Y23.20431
G2 X-10.22013 Y23.21077 I-0.01696 J0.19928
G1 X-13.77827 Y24.19049
G3 X-13.83136 Y24.19767 I-0.05309 J-0.19282
G1 X-16.12637
G3 X-16.23097 Y24.16813 I0.0 J-0.2
G1 X-18.23891 Y22.93592
G3 X-19.40159 Y18.55556 I1.71869 J-2.80068
G1 X-18.76926 Y17.40216
G2 X-18.94463 Y17.10601 I-0.17537 J-0.09615
G1 X-21.84598
G3 X-21.97836 Y17.05593 I0.0 J-0.2
G2 X-24.9708 Y15.25379 I-7.02516 J8.27966
G1 X-27.16644 Y14.37553
G3 X-27.23118 Y14.33362 I0.07428 J-0.1857
G1 X-27.47506 Y14.09784
G1 X-27.23118 Y13.86205
G3 X-27.16644 Y13.82014 I0.13902 J0.14379
G1 X-24.9708 Y12.94188
G2 X-22.17785 Y10.85842 I-5.0137 J-9.63476
G3 X-22.04547 Y10.80834 I0.13238 J0.14992
G1 X-19.14413
G2 X-18.9486 Y10.65038 I0.0 J-0.2
G0 Z3.0
G0 X-16.11141 Y15.86464
G0 Z1.2
G1 F300.0 Z-0.2
G2 F800.0 X-17.52921 Y16.91243 I3.05992 J5.62361
G3 X-17.55711 Y16.93519 I-0.13988 J-0.14295
G1 X-18.31121 Y17.4448
G2 X-18.3746 Y17.51436 I0.11198 J0.16571
G1 X-19.05085 Y18.74785
G2 X-18.02969 Y22.59499 I2.53063 J1.38738
G1 X-16.11802 Y23.76813
G2 X-16.01342 Y23.79767 I0.10461 J-0.17046
G1 X-13.88543
G2 X-13.83233 Y23.79049 I0.0 J-0.2
G1 X-10.25742 Y22.80615
G3 X-10.18736 Y22.79969 I0.05309 J0.19282
G1 X-7.95445 Y22.98973
G3 X-6.73991 Y24.19982 I-0.11302 J1.32798
G2 X-6.42537 Y24.34552 I0.19922 J-0.01769
G2 X-6.29393 Y24.20506 I-0.27386 J-0.38798
G2 X-5.80231 Y23.01289 I-3.51639 J-2.14754
G2 X-5.79686 Y22.96652 I-0.19455 J-0.04637
G1 Y21.15159
G2 X-6.64899 Y19.58145 I-1.87262 J0.0
G1 X-8.01776 Y18.69184
G2 X-8.12675 Y18.65953 I-0.10899 J0.16769
G1 X-9.50863
G2 X-9.54994 Y18.66384 I0.0 J0.2
G1 X-11.3434 Y19.04243
G3 X-11.38471 Y19.04675 I-0.04131 J-0.19569
G1 X-12.31729
G3 X-12.9138 Y17.84587 I0.0 J-0.74859
G3 X-12.88459 Y17.81486 I0.15937 J0.12084
G1 X-11.50578 Y16.63302
G3 X-11.37562 Y16.58487 I0.13016 J0.15185
G1 X-11.03862
G2 X-10.8387 Y16.3792 I0.0 J-0.2
G1 X-10.84724 Y16.07837
G2 X-11.04716 Y15.88404 I-0.19992 J0.00567
G1 X-11.35136
G2 X-11.39058 Y15.88793 I0.0 J0.2
G1 X-12.64105 Y16.13803
G2 X-12.67693 Y16.14878 I0.03922 J0.19612
G1 X-14.18131 Y16.75833
G2 X-14.21283 Y16.77449 I0.07511 J0.18536
G1 X-15.85664 Y17.81032
G2 X-16.37401 Y18.74785 I0.59078 J0.93753
G1 Y20.22378
G2 X-15.5345 Y21.06328 I0.83951 J0.0
G1 X-13.14078
G2 X-13.08504 Y21.05536 I0.0 J-0.2
G1 X-10.93693 Y20.43197
G3 X-10.88119 Y20.42404 I0.05574 J0.19208
G1 X-9.04851
G1 Y20.62404
G3 X-9.24851 Y20.82404 I-0.2 J0.0
G1 X-10.82432
G2 X-10.88006 Y20.83197 I0.0 J0.2
G1 X-13.02817 Y21.45536
G3 X-13.08391 Y21.46328 I-0.05574 J-0.19208
G1 X-15.5345
G3 X-16.77401 Y20.22378 I0.0 J-1.23951
G1 Y18.74785
G3 X-16.06989 Y17.47191 I1.50814 J0.0
G1 X-14.39599 Y16.41712
G3 X-14.36447 Y16.40096 I0.10662 J0.16921
G1 X-12.79227 Y15.76393
G3 X-12.75639 Y15.75318 I0.07511 J0.18536
G1 X-11.46903 Y15.4957
G3 X-11.42981 Y15.49181 I0.03922 J0.19612
G1 X-10.85275
G1 Y15.14313
G2 X-11.06572 Y14.94355 I-0.2 J0.0
G1 X-13.46655 Y15.09952
G2 X-16.11141 Y15.86464 I0.41506 J6.38873
G0 Z3.0
G0 X-10.39434
G0 Z1.2
G1 F300.0 Z-0.2
G1 F800.0 Y17.10521
G2 X-10.30489 Y17.11284 I0.08945 J-0.52033
G1 X-9.81249
G2 X-9.61249 Y16.91284 I0.0 J-0.2
G1 Y11.00152
G2 X-9.81249 Y10.80152 I-0.2 J0.0
G1 X-10.30489
G2 X-10.39434 Y10.80915 I0.0 J0.52797
G1 Y15.86464
G0 Z3.0
G0 X-9.41218
G0 Z1.2
G1 F300.0 Z-0.2
G1 F800.0 Y17.6284
G2 X-9.26196 Y17.8221 I0.2 J0.0
G2 X-8.92075 Y17.82771 I0.1823 J-0.70927
G2 X-8.18153 Y17.49222 I-0.42794 J-1.92511
G2 X-8.0999 Y17.33101 I-0.11837 J-0.16121
G1 Y10.58334
G2 X-8.18153 Y10.42213 I-0.2 J0.0
G2 X-8.92075 Y10.08665 I-1.16716 J1.58962
G2 X-9.26196 Y10.09225 I-0.15891 J0.71487
G2 X-9.41218 Y10.28596 I0.04979 J0.1937
G1 Y15.86464
G0 Z3.0
G0 X-7.77054
G0 Z1.2
G1 F300.0 Z-0.2
G1 F800.0 Y17.16944
G2 X-7.66176 Y17.34742 I0.2 J0.0
G2 X-6.73924 Y17.34732 I0.46116 J-0.89975
G2 X-6.6305 Y17.16936 I-0.09126 J-0.17796
G1 Y10.745
G2 X-6.73924 Y10.56704 I-0.2 J0.0
G2 X-7.66176 Y10.56693 I-0.46136 J0.89965
G2 X-7.77054 Y10.74491 I0.09122 J0.17798
G1 Y15.86464
G0 Z3.0
G0 X-5.99862 Y16.07988
G0 Z1.2
G1 F300.0 Z-0.2
G2 F800.0 X-6.00008 Y16.104 I0.19854 J0.02412
G1 Y16.50601
G2 X-5.80008 Y16.70601 I0.2 J0.0
G1 X-5.00336
G3 X-2.98186 Y18.29815 I0.0 J2.0794
G1 X-2.78921 Y19.09739
G3 X-2.78364 Y19.14425 I-0.19443 J0.04687
G1 Y20.07595
G3 X-2.81595 Y20.18494 I-0.2 J0.0
G1 X-3.37288 Y21.04184
G2 X-3.37219 Y21.26088 I0.16769 J0.10899
G1 X-3.14599 Y21.60416
G2 X-2.97899 Y21.69411 I0.167 J-0.11004
G1 X-2.70273
G3 X-2.60007 Y21.72247 I0.0 J0.2
G1 X-2.39953 Y21.84242
G2 X-2.29687 Y21.87078 I0.10266 J-0.17164
G1 X-1.28546
G2 X-1.17541 Y21.83778 I0.0 J-0.2
G1 X-1.00745 Y21.72711
G3 X-0.89741 Y21.69411 I0.11004 J0.167
G1 X-0.64775
G2 X-0.49286 Y21.62064 I0.0 J-0.2
G1 X0.86834 Y19.9543
G2 X0.88883 Y19.92392 I-0.15489 J-0.12653
G1 X1.0898 Y19.55734
G2 X1.11443 Y19.46119 I-0.17537 J-0.09615
G1 Y18.24088
G2 X1.08143 Y18.13084 I-0.2 J0.0
G1 X0.18306 Y16.76746
G2 X0.07432 Y16.68618 I-0.167 J0.11004
G1 X-3.97635 Y15.45263
G2 X-4.00505 Y15.44615 I-0.05826 J0.19133
G1 X-6.00523 Y15.14718
G1 X-4.08731 Y15.7068
G3 X-4.04907 Y15.7224 I-0.05602 J0.19199
G1 X-2.44793 Y16.57798
G2 X-2.42787 Y16.58731 I0.09426 J-0.1764
G3 X-1.16939 Y17.97056 I-0.79327 J1.98582
G3 X-1.02261 Y19.40265 I-3.78442 J1.11143
G1 X-1.043 Y19.65259
G1 X-1.0879 Y19.67502
G3 X-1.37525 Y19.46768 I-0.08938 J-0.17892
G2 X-2.46653 Y17.07203 I-2.41418 J-0.34666
G1 X-4.01422 Y16.07279
G2 X-4.10644 Y16.04148 I-0.10848 J0.16802
G1 X-5.78382 Y15.90466
G2 X-5.99862 Y16.07988 I-0.01626 J0.19934
G0 Z3.0
G0 X-5.59567 Y14.59789
G0 Z1.2
G1 F300.0 Z-0.2
G1 F800.0 X-3.90937 Y15.0564
G3 X-3.90358 Y15.05807 I-0.05247 J0.19299
G1 X0.29065 Y16.33534
G2 X0.37915 Y16.34171 I0.05826 J-0.19133
G1 X2.00213 Y16.09349
G2 X2.06767 Y16.07137 I-0.03024 J-0.1977
G1 X5.80285 Y14.03403
G1 X5.84718 Y13.95718
G1 X5.80285 Y13.88032
G1 X2.06767 Y11.84299
G2 X2.00213 Y11.82087 I-0.09577 J0.17558
G1 X0.37915 Y11.57264
G2 X0.29065 Y11.57902 I-0.03024 J0.1977
G1 X-3.90358 Y12.85629
G3 X-3.90937 Y12.85796 I-0.05826 J-0.19133
G1 X-5.85255 Y13.38631
G2 X-6.00008 Y13.5793 I0.05247 J0.19299
G1 Y14.33505
G2 X-5.85255 Y14.52805 I0.2 J0.0
G1 X-5.59567 Y14.59789
G0 Z3.0
G0 X-5.87227 Y12.7473
G0 Z1.2
G1 F300.0 Z-0.2
G1 F800.0 X-4.00505 Y12.46821
G2 X-3.97635 Y12.46173 I-0.02957 J-0.1978
G1 X0.07432 Y11.22817
G2 X0.18306 Y11.14689 I-0.05826 J-0.19133
G1 X1.08143 Y9.78352
G2 X1.11443 Y9.67348 I-0.167 J-0.11004
G1 Y8.45316
G2 X1.0898 Y8.35702 I-0.2 J0.0
G1 X0.88883 Y7.99043
G2 X0.86834 Y7.96005 I-0.17537 J0.09615
G1 X-0.49286 Y6.29371
G2 X-0.64775 Y6.22024 I-0.15489 J0.12653
G1 X-0.89741
G3 X-1.00745 Y6.18724 I0.0 J-0.2
G1 X-1.17541 Y6.07657
G2 X-1.28546 Y6.04357 I-0.11004 J0.167
G1 X-2.29687
G2 X-2.39953 Y6.07193 I0.0 J0.2
G1 X-2.60007 Y6.19188
G3 X-2.70273 Y6.22024 I-0.10266 J-0.17164
G1 X-2.97899
G2 X-3.14599 Y6.3102 I0.0 J0.2
G1 X-3.37219 Y6.65348
G2 X-3.37288 Y6.87251 I0.167 J0.11004
G1 X-2.81595 Y7.72941
G3 X-2.78364 Y7.8384 I-0.16769 J0.10899
G1 Y8.7701
G3 X-2.78921 Y8.81697 I-0.2 J0.0
G1 X-2.98186 Y9.6162
G3 X-5.00336 Y11.20834 I-2.0215 J-0.48726
G1 X-5.80008
G2 X-6.00008 Y11.40834 I0.0 J0.2
G1 Y11.81036
G2 X-5.78382 Y12.0097 I0.2 J0.0
G1 X-4.10644 Y11.87288
G2 X-4.01422 Y11.84156 I-0.01626 J-0.19934
G1 X-2.46653 Y10.84233
G2 X-1.37525 Y8.44667 I-1.3229 J-2.049
G3 X-1.0879 Y8.23933 I0.19797 J-0.02843
G1 X-1.043 Y8.26176
G1 X-1.02261 Y8.51171
G3 X-1.16939 Y9.94379 I-3.9312 J0.32066
G3 X-2.42787 Y11.32704 I-2.05175 J-0.60257
G2 X-2.44793 Y11.33638 I0.07419 J0.18573
G1 X-4.04907 Y12.19196
G3 X-4.08731 Y12.20755 I-0.09426 J-0.1764
G1 X-6.00523 Y12.76717
G1 X-5.87227 Y12.7473
G0 Z3.0
G0 X4.07041 Y7.6842
G0 Z1.2
G1 F300.0 Z-0.2
G3 F800.0 X4.11722 Y4.61341 I2.92819 J-1.49112
G1 X4.74955 Y3.46001
G2 X4.57418 Y3.16386 I-0.17537 J-0.09615
G1 X1.67283
G3 X1.54045 Y3.11378 I0.0 J-0.2
G2 X-1.61472 Y1.17098 I-7.18892 J8.14158
G1 X-3.81036 Y0.29272
G3 X-3.8751 Y0.25081 I0.07428 J-0.1857
G1 X-4.11898 Y0.01503
G1 X-3.8751 Y-0.22076
G3 X-3.81036 Y-0.26267 I0.13902 J0.14379
G1 X-1.61472 Y-1.14093
G2 X1.54045 Y-3.08373 I-4.03375 J-10.08438
G3 X1.67283 Y-3.13381 I0.13238 J0.14992
G1 X4.57418
G2 X4.74955 Y-3.42996 I0.0 J-0.2
G1 X4.11722 Y-4.58336
G3 X5.2799 Y-8.96371 I2.88138 J-1.57967
G1 X7.28784 Y-10.19592
G3 X7.39245 Y-10.22546 I0.10461 J0.17046
G1 X9.68745
G3 X9.74054 Y-10.21829 I0.0 J0.2
G1 X13.29868 Y-9.23856
G2 X13.36873 Y-9.23211 I0.05309 J-0.19282
G1 X15.53044 Y-9.41608
G2 X16.35918 Y-10.55976 I-0.0791 J-0.92942
G3 X16.47507 Y-10.78954 I0.19465 J-0.04594
G3 X17.56625 Y-10.44134 I0.34452 J0.80421
G3 X18.11701 Y-9.08438 I-3.85776 J2.35603
G3 X18.12195 Y-9.04017 I-0.19505 J0.0442
G1 Y-7.17938
G3 X17.0878 Y-5.27386 I-2.27262 J0.0
G1 X15.61962 Y-4.31963
G3 X15.51063 Y-4.28732 I-0.10899 J-0.16769
G1 X13.96843
G3 X13.92712 Y-4.29164 I0.0 J-0.2
G1 X12.13365 Y-4.67023
G2 X12.09234 Y-4.67454 I-0.04131 J0.19569
G1 X11.20152
G2 X10.88762 Y-4.17435 I0.0 J0.34859
G2 X10.93756 Y-4.10948 I0.1801 J-0.08698
G1 X12.161 Y-3.06082
G2 X12.29116 Y-3.01267 I0.13016 J-0.15185
G1 X12.37659
G3 X13.21392 Y-3.54063 I0.83733 J0.4
G1 X13.44907
G2 X13.62765 Y-3.65056 I0.0 J-0.2
G3 X14.88435 Y-4.24597 I1.011 J0.50993
G3 X15.80836 Y-3.81635 I-0.51474 J2.31558
G2 X16.00267 Y-3.78917 I0.12131 J-0.15901
G3 X17.71181 Y-3.22725 I0.51503 J1.3137
G2 X17.88106 Y-3.13381 I0.16925 J-0.10656
G1 X18.51545
G2 X20.14809 Y-4.41968 I0.0 J-1.6794
G1 X20.3296 Y-5.17271
G2 X20.33517 Y-5.21958 I-0.19443 J-0.04687
G1 Y-5.98518
G2 X20.30286 Y-6.09417 I-0.2 J0.0
G1 X19.66789 Y-7.07114
G3 X19.66858 Y-7.29018 I0.16769 J-0.10899
G1 X20.15736 Y-8.03195
G3 X20.32436 Y-8.12191 I0.167 J0.11004
G1 X20.70558
G2 X20.80825 Y-8.15027 I0.0 J-0.2
G1 X21.00878 Y-8.27022
G3 X21.11145 Y-8.29858 I0.10266 J0.17164
G1 X22.35329
G3 X22.46333 Y-8.26558 I0.0 J0.2
G1 X22.63129 Y-8.15491
G2 X22.74134 Y-8.12191 I0.11004 J-0.167
G1 X23.0608
G3 X23.21569 Y-8.04844 I0.0 J0.2
G1 X24.72021 Y-6.20666
G3 X24.7407 Y-6.17627 I-0.15489 J0.12653
G1 X25.00861 Y-5.68759
G3 X25.03324 Y-5.59144 I-0.17537 J0.09615
G1 Y-4.14874
G3 X25.00024 Y-4.03869 I-0.2 J0.0
G1 X24.14237 Y-2.73678
G1 X25.65084 Y-2.50607
G3 X25.71637 Y-2.48395 I-0.03024 J0.1977
G1 X29.46176 Y-0.44104
G3 X29.54136 Y-0.36161 I-0.09577 J0.17558
G1 X29.74785 Y0.01503
G1 X29.54136 Y0.39166
G3 X29.46176 Y0.4711 I-0.17537 J-0.09615
G1 X25.71637 Y2.514
G3 X25.65084 Y2.53612 I-0.09577 J-0.17558
G1 X24.14237 Y2.76683
G1 X25.00024 Y4.06875
G3 X25.03324 Y4.17879 I-0.167 J0.11004
G1 Y5.6215
G3 X25.00861 Y5.71764 I-0.2 J0.0
G1 X24.7407 Y6.20633
G3 X24.72021 Y6.23671 I-0.17537 J-0.09615
G1 X23.21569 Y8.07849
G3 X23.0608 Y8.15196 I-0.15489 J-0.12653
G1 X22.74134
G2 X22.63129 Y8.18496 I0.0 J0.2
G1 X22.46333 Y8.29563
G3 X22.35329 Y8.32863 I-0.11004 J-0.167
G1 X21.11145
G3 X21.00878 Y8.30027 I0.0 J-0.2
G1 X20.80825 Y8.18032
G2 X20.70558 Y8.15196 I-0.10266 J0.17164
G1 X20.32436
G3 X20.15736 Y8.06201 I0.0 J-0.2
G1 X19.66858 Y7.32023
G3 X19.66789 Y7.1012 I0.167 J-0.11004
G1 X20.30286 Y6.12423
G2 X20.33517 Y6.01524 I-0.16769 J-0.10899
G1 Y5.24963
G2 X20.3296 Y5.20277 I-0.2 J0.0
G1 X20.14809 Y4.44973
G2 X18.51545 Y3.16386 I-1.63264 J0.39353
G1 X17.88106
G2 X17.71181 Y3.25731 I0.0 J0.2
G3 X16.00267 Y3.81922 I-1.1941 J-0.75179
G2 X15.80836 Y3.84641 I-0.073 J0.1862
G3 X14.88435 Y4.27602 I-1.43875 J-1.88596
G3 X13.62765 Y3.68062 I-0.24571 J-1.10534
G2 X13.44907 Y3.57069 I-0.17857 J0.09007
G1 X13.21392
G3 X12.37659 Y3.04272 I0.0 J-0.92797
G1 X12.29116
G2 X12.161 Y3.09087 I0.0 J0.2
G1 X10.93756 Y4.13953
G2 X10.88762 Y4.2044 I0.13016 J0.15185
G2 X11.20152 Y4.7046 I0.3139 J0.1516
G1 X12.09234
G2 X12.13365 Y4.70028 I0.0 J-0.2
G1 X13.92712 Y4.32169
G3 X13.96843 Y4.31738 I0.04131 J0.19569
G1 X15.51063
G3 X15.61962 Y4.34968 I0.0 J0.2
G1 X17.0878 Y5.30392
G3 X18.12195 Y7.20944 I-1.23847 J1.90552
G1 Y9.07023
G3 X18.11701 Y9.11443 I-0.2 J0.0
G3 X17.56625 Y10.47139 I-4.40852 J-0.99906
G3 X16.47507 Y10.8196 I-0.74666 J-0.456
G3 X16.35918 Y10.58982 I0.07876 J-0.18384
G2 X15.53044 Y9.44614 I-0.90784 J-0.21426
G1 X13.36873 Y9.26216
G2 X13.29868 Y9.26862 I-0.01696 J0.19928
G1 X9.74054 Y10.24834
G3 X9.68745 Y10.25551 I-0.05309 J-0.19282
G1 X7.39245
G3 X7.28784 Y10.22598 I0.0 J-0.2
G1 X5.2799 Y8.99377
G3 X4.07041 Y7.6842 I1.71869 J-2.80068
G0 Z3.0
G0 X4.42685 Y7.50269
G0 Z1.2
G1 F300.0 Z-0.2
G2 F800.0 X5.48912 Y8.65284 I2.57175 J-1.30961
G1 X7.40079 Y9.82598
G2 X7.50539 Y9.85551 I0.10461 J-0.17046
G1 X9.63338
G2 X9.68648 Y9.84834 I0.0 J-0.2
G1 X13.26139 Y8.864
G3 X13.33145 Y8.85754 I0.05309 J0.19282
G1 X15.56436 Y9.04758
G3 X16.7789 Y10.25766 I-0.11302 J1.32798
G2 X17.09345 Y10.40337 I0.19922 J-0.01769
G2 X17.22488 Y10.26291 I-0.27386 J-0.38798
G2 X17.7165 Y9.07074 I-3.51639 J-2.14754
G2 X17.72195 Y9.02437 I-0.19455 J-0.04637
G1 Y7.20944
G2 X16.86982 Y5.6393 I-1.87262 J0.0
G1 X15.50105 Y4.74968
G2 X15.39206 Y4.71738 I-0.10899 J0.16769
G1 X14.01018
G2 X13.96888 Y4.72169 I0.0 J0.2
G1 X12.17541 Y5.10028
G3 X12.1341 Y5.1046 I-0.04131 J-0.19569
G1 X11.20152
G3 X10.60501 Y3.90372 I0.0 J-0.74859
G3 X10.63422 Y3.8727 I0.15937 J0.12084
G1 X12.01303 Y2.69087
G3 X12.14319 Y2.64272 I0.13016 J0.15185
G1 X12.48019
G2 X12.68011 Y2.43705 I0.0 J-0.2
G1 X12.67157 Y2.13622
G2 X12.47165 Y1.94189 I-0.19992 J0.00567
G1 X12.16745
G2 X12.12823 Y1.94578 I0.0 J0.2
G1 X10.87776 Y2.19588
G2 X10.84188 Y2.20663 I0.03922 J0.19612
G1 X9.3375 Y2.81618
G2 X9.30598 Y2.83234 I0.07511 J0.18536
G1 X7.66217 Y3.86817
G2 X7.1448 Y4.8057 I0.59078 J0.93753
G1 Y6.28162
G2 X7.98431 Y7.12113 I0.83951 J0.0
G1 X10.37803
G2 X10.43377 Y7.11321 I0.0 J-0.2
G1 X12.58188 Y6.48981
G3 X12.63762 Y6.48189 I0.05574 J0.19208
G1 X14.4703
G1 Y6.68189
G3 X14.2703 Y6.88189 I-0.2 J0.0
G1 X12.69449
G2 X12.63875 Y6.88981 I0.0 J0.2
G1 X10.49064 Y7.51321
G3 X10.4349 Y7.52113 I-0.05574 J-0.19208
G1 X7.98431
G3 X6.7448 Y6.28162 I0.0 J-1.23951
G1 Y4.8057
G3 X7.44892 Y3.52976 I1.50814 J0.0
G1 X9.12282 Y2.47496
G3 X9.15434 Y2.45881 I0.10662 J0.16921
G1 X10.72654 Y1.82178
G3 X10.76242 Y1.81102 I0.07511 J0.18536
G1 X12.04978 Y1.55355
G3 X12.08901 Y1.54966 I0.03922 J0.19612
G1 X12.66606
G1 Y1.20098
G2 X12.45309 Y1.0014 I-0.2 J0.0
G1 X10.05226 Y1.15737
G2 X5.9896 Y2.97028 I0.41506 J6.38873
G3 X5.9617 Y2.99304 I-0.13988 J-0.14295
G1 X5.2076 Y3.50265
G2 X5.14421 Y3.57221 I0.11198 J0.16571
G1 X4.46796 Y4.8057
G2 X4.42685 Y7.50269 I2.53063 J1.38738
G0 Z3.0
G0 Y2.76386
G0 Z1.2
G1 F300.0 Z-0.2
G1 F800.0 X5.53139
G2 X5.63522 Y2.7348 I0.0 J-0.2
G1 X5.67651 Y2.70972
G2 X5.71248 Y2.6818 I-0.10384 J-0.17093
G3 X10.02633 Y0.75821 I4.75484 J4.8643
G1 X12.45309 Y0.60055
G2 X12.64013 Y0.40097 I-0.01297 J-0.19958
G1 Y-0.37092
G2 X12.45309 Y-0.5705 I-0.2 J0.0
G1 X10.02633 Y-0.72816
G3 X5.71248 Y-2.65175 I0.44099 J-6.78789
G2 X5.67651 Y-2.67966 I-0.1398 J0.14302
G1 X5.63522 Y-2.70474
G2 X5.53139 Y-2.73381 I-0.10384 J0.17093
G1 X1.82262
G2 X1.69225 Y-2.68548 I0.0 J0.2
G3 X-1.46616 Y-0.76953 I-7.34072 J-8.53983
G1 X-3.42756 Y0.01503
G1 X-1.46616 Y0.79959
G3 X1.69225 Y2.71553 I-4.18231 J10.45577
G2 X1.82262 Y2.76386 I0.13037 J-0.15167
G1 X4.42685
G0 Z3.0
G0 X7.22388 Y-1.99624
G0 Z1.2
G1 F300.0 Z-0.2
G2 F800.0 X10.05226 Y-1.12732 I3.24343 J-5.51981
G1 X12.45309 Y-0.97134
G2 X12.66606 Y-1.17092 I0.01297 J-0.19958
G1 Y-1.51961
G1 X12.08901
G3 X12.04978 Y-1.52349 I0.0 J-0.2
G1 X10.76242 Y-1.78097
G3 X10.72654 Y-1.79173 I0.03922 J-0.19612
G1 X9.15434 Y-2.42876
G3 X9.12282 Y-2.44491 I0.07511 J-0.18536
G1 X7.44892 Y-3.49971
G3 X6.7448 Y-4.77565 I0.80403 J-1.27595
G1 Y-6.25157
G3 X7.98431 Y-7.49108 I1.23951 J0.0
G1 X10.4349
G3 X10.49064 Y-7.48316 I0.0 J0.2
G1 X12.63875 Y-6.85976
G2 X12.69449 Y-6.85184 I0.05574 J-0.19208
G1 X14.2703
G3 X14.4703 Y-6.65184 I0.0 J0.2
G1 Y-6.45184
G1 X12.63762
G3 X12.58188 Y-6.45976 I0.0 J-0.2
G1 X10.43377 Y-7.08316
G2 X10.37803 Y-7.09108 I-0.05574 J0.19208
G1 X7.98431
G2 X7.1448 Y-6.25157 I0.0 J0.83951
G1 Y-4.77565
G2 X7.66217 Y-3.83812 I1.10814 J0.0
G1 X9.30598 Y-2.80228
G2 X9.3375 Y-2.78613 I0.10662 J-0.16921
G1 X10.84188 Y-2.17658
G2 X10.87776 Y-2.16582 I0.07511 J-0.18536
G1 X12.12823 Y-1.91572
G2 X12.16745 Y-1.91184 I0.03922 J-0.19612
G1 X12.47165
G2 X12.67157 Y-2.10617 I0.0 J-0.2
G1 X12.68011 Y-2.40699
G2 X12.48019 Y-2.61267 I-0.19992 J-0.00567
G1 X12.14319
G3 X12.01303 Y-2.66082 I0.0 J-0.2
G1 X10.63422 Y-3.84265
G3 X10.60501 Y-3.87367 I0.13016 J-0.15185
G3 X11.20152 Y-5.07454 I0.59651 J-0.45228
G1 X12.1341
G3 X12.17541 Y-5.07023 I0.0 J0.2
G1 X13.96888 Y-4.69164
G2 X14.01018 Y-4.68732 I0.04131 J-0.19569
G1 X15.39206
G2 X15.50105 Y-4.71963 I0.0 J-0.2
G1 X16.86982 Y-5.60925
G2 X17.72195 Y-7.17938 I-1.02049 J-1.57013
G1 Y-8.99431
G2 X17.7165 Y-9.04069 I-0.2 J0.0
G2 X17.22488 Y-10.23286 I-4.00802 J0.95537
G2 X17.09345 Y-10.37332 I-0.40529 J0.24752
G2 X16.7789 Y-10.22761 I-0.11533 J0.1634
G3 X15.56436 Y-9.01753 I-1.32755 J-0.11789
G1 X13.33145 Y-8.82749
G3 X13.26139 Y-8.83395 I-0.01696 J-0.19928
G1 X9.68648 Y-9.81829
G2 X9.63338 Y-9.82546 I-0.05309 J0.19282
G1 X7.50539
G2 X7.40079 Y-9.79592 I0.0 J0.2
G1 X5.48912 Y-8.62279
G2 X4.46796 Y-4.77565 I1.50948 J2.45976
G1 X5.14421 Y-3.54216
G2 X5.2076 Y-3.4726 I0.17537 J-0.09615
G1 X5.9617 Y-2.96299
G3 X5.9896 Y-2.94022 I-0.11198 J0.16571
G2 X7.22388 Y-1.99624 I4.47772 J-4.57583
G0 Z3.0
G0 X13.12447
G0 Z1.2
G1 F300.0 Z-0.2
G1 F800.0 Y3.16305
G2 X13.21392 Y3.17069 I0.08945 J-0.52033
G1 X13.70632
G2 X13.90632 Y2.97069 I0.0 J-0.2
G1 Y-2.94063
G2 X13.70632 Y-3.14063 I-0.2 J0.0
G1 X13.21392
G2 X13.12447 Y-3.133 I0.0 J0.52797
G1 Y-1.99624
G0 Z3.0
G0 X14.30613
G0 Z1.2
G1 F300.0 Z-0.2
G1 F800.0 Y3.68625
G2 X14.45634 Y3.87995 I0.2 J0.0
G2 X14.79755 Y3.88556 I0.1823 J-0.70927
G2 X15.53678 Y3.55007 I-0.42794 J-1.92511
G2 X15.61841 Y3.38886 I-0.11837 J-0.16121
G1 Y-3.35881
G2 X15.53678 Y-3.52002 I-0.2 J0.0
G2 X14.79755 Y-3.8555 I-1.16716 J1.58962
G2 X14.45634 Y-3.8499 I-0.15891 J0.71487
G2 X14.30613 Y-3.65619 I0.04979 J0.1937
G1 Y-1.99624
G0 Z3.0
G0 X15.94777
G0 Z1.2
G1 F300.0 Z-0.2
G1 F800.0 Y3.22729
G2 X16.05655 Y3.40527 I0.2 J0.0
G2 X16.97907 Y3.40517 I0.46116 J-0.89975
G2 X17.0878 Y3.2272 I-0.09126 J-0.17796
G1 Y-3.19715
G2 X16.97907 Y-3.37511 I-0.2 J0.0
G2 X16.05655 Y-3.37522 I-0.46136 J0.89965
G2 X15.94777 Y-3.19724 I0.09122 J0.17798
G1 Y-1.99624
G0 Z3.0
G0 X17.51932 Y-2.11653
G0 Z1.2
G1 F300.0 Z-0.2
G2 F800.0 X17.73499 Y-1.93246 I0.19942 J-0.01526
G1 X19.41237 Y-2.06927
G2 X19.50459 Y-2.10059 I-0.01626 J-0.19934
G1 X21.05228 Y-3.09983
G2 X22.14356 Y-5.49548 I-1.3229 J-2.049
G3 X22.43091 Y-5.70282 I0.19797 J-0.02843
G1 X22.47581 Y-5.68039
G1 X22.4962 Y-5.43044
G3 X22.34942 Y-3.99836 I-3.9312 J0.32066
G3 X21.09095 Y-2.61511 I-2.05175 J-0.60257
G2 X21.07088 Y-2.60577 I0.07419 J0.18573
G1 X19.46974 Y-1.75019
G3 X19.4315 Y-1.7346 I-0.09426 J-0.1764
G1 X17.51358 Y-1.17498
G1 X19.51376 Y-1.47395
G2 X19.54246 Y-1.48042 I-0.02957 J-0.1978
G1 X23.59313 Y-2.71398
G2 X23.70187 Y-2.79526 I-0.05826 J-0.19133
G1 X24.60024 Y-4.15863
G2 X24.63324 Y-4.26868 I-0.167 J-0.11004
G1 Y-5.48899
G2 X24.60861 Y-5.58514 I-0.2 J0.0
G1 X24.40764 Y-5.95172
G2 X24.38716 Y-5.9821 I-0.17537 J0.09615
G1 X23.02595 Y-7.64844
G2 X22.87106 Y-7.72191 I-0.15489 J0.12653
G1 X22.6214
G3 X22.51136 Y-7.75491 I0.0 J-0.2
G1 X22.3434 Y-7.86558
G2 X22.23335 Y-7.89858 I-0.11004 J0.167
G1 X21.22194
G2 X21.11928 Y-7.87022 I0.0 J0.2
G1 X20.91874 Y-7.75027
G3 X20.81608 Y-7.72191 I-0.10266 J-0.17164
G1 X20.53982
G2 X20.37282 Y-7.63195 I0.0 J0.2
G1 X20.14662 Y-7.28867
G2 X20.14593 Y-7.06964 I0.167 J0.11004
G1 X20.70286 Y-6.21274
G3 X20.73517 Y-6.10375 I-0.16769 J0.10899
G1 Y-5.17205
G3 X20.7296 Y-5.12519 I-0.2 J0.0
G1 X20.53695 Y-4.32595
G3 X18.51545 Y-2.73381 I-2.0215 J-0.48726
G1 X17.71873
G2 X17.51873 Y-2.53381 I0.0 J0.2
G1 Y-2.13179
G2 X17.51932 Y-2.11653 I0.2 J0.0
G0 Z3.0
G0 X17.92457 Y-0.62608
G0 Z1.2
G1 F300.0 Z-0.2
G1 F800.0 X17.66626 Y-0.55584
G2 X17.51873 Y-0.36285 I0.05247 J0.19299
G1 Y0.3929
G2 X17.66626 Y0.5859 I0.2 J0.0
G1 X19.60944 Y1.11425
G3 X19.61523 Y1.11591 I-0.05247 J0.19299
G1 X23.80946 Y2.39318
G2 X23.89796 Y2.39956 I0.05826 J-0.19133
G1 X25.52095 Y2.15134
G2 X25.58648 Y2.12921 I-0.03024 J-0.1977
G1 X29.32166 Y0.09188
G1 X29.36599 Y0.01503
G1 X29.32166 Y-0.06183
G1 X25.58648 Y-2.09916
G2 X25.52095 Y-2.12128 I-0.09577 J0.17558
G1 X23.89796 Y-2.36951
G2 X23.80946 Y-2.36313 I-0.03024 J0.1977
G1 X19.61523 Y-1.08586
G3 X19.60944 Y-1.08419 I-0.05826 J-0.19133
G1 X17.92457 Y-0.62608
G0 Z3.0
G0 X17.64788 Y1.22511
G0 Z1.2
G1 F300.0 Z-0.2
G1 F800.0 X17.51358 Y1.20503
G1 X19.4315 Y1.76465
G3 X19.46974 Y1.78025 I-0.05602 J0.19199
G1 X21.07088 Y2.63583
G2 X21.09095 Y2.64516 I0.09426 J-0.1764
G3 X22.34942 Y4.02841 I-0.79327 J1.98582
G3 X22.4962 Y5.4605 I-3.78442 J1.11143
G1 X22.47581 Y5.71044
G1 X22.43091 Y5.73287
G3 X22.14356 Y5.52553 I-0.08938 J-0.17892
G2 X21.05228 Y3.12988 I-2.41418 J-0.34666
G1 X19.50459 Y2.13064
G2 X19.41237 Y2.09933 I-0.10848 J0.16802
G1 X17.73499 Y1.96251
G2 X17.51873 Y2.16185 I-0.01626 J0.19934
G1 Y2.56386
G2 X17.71873 Y2.76386 I0.2 J0.0
G1 X18.51545
G3 X20.53695 Y4.356 I0.0 J2.0794
G1 X20.7296 Y5.15524
G3 X20.73517 Y5.2021 I-0.19443 J0.04687
G1 Y6.1338
G3 X20.70286 Y6.24279 I-0.2 J0.0
G1 X20.14593 Y7.09969
G2 X20.14662 Y7.31873 I0.16769 J0.10899
G1 X20.37282 Y7.66201
G2 X20.53982 Y7.75196 I0.167 J-0.11004
G1 X20.81608
G3 X20.91874 Y7.78032 I0.0 J0.2
G1 X21.11928 Y7.90027
G2 X21.22194 Y7.92863 I0.10266 J-0.17164
G1 X22.23335
G2 X22.3434 Y7.89563 I0.0 J-0.2
G1 X22.51136 Y7.78496
G3 X22.6214 Y7.75196 I0.11004 J0.167
G1 X22.87106
G2 X23.02595 Y7.67849 I0.0 J-0.2
G1 X24.38716 Y6.01215
G2 X24.40764 Y5.98177 I-0.15489 J-0.12653
G1 X24.60861 Y5.61519
G2 X24.63324 Y5.51904 I-0.17537 J-0.09615
G1 Y4.29873
G2 X24.60024 Y4.18868 I-0.2 J0.0
G1 X23.70187 Y2.82531
G2 X23.59313 Y2.74403 I-0.167 J0.11004
G1 X19.54246 Y1.51048
G2 X19.51376 Y1.504 I-0.05826 J0.19133
G1 X17.64788 Y1.22511
G0 Z3.0
G0 X1.24057 Y-7.76995
G0 Z1.2
G1 F300.0 Z-0.2
G1 F800.0 X1.22189 Y-7.73586
G3 X1.2014 Y-7.70548 I-0.17537 J-0.09615
G1 X-0.30312 Y-5.8637
G3 X-0.45801 Y-5.79023 I-0.15489 J-0.12653
G1 X-0.77747
G2 X-0.88752 Y-5.75723 I0.0 J0.2
G1 X-1.05548 Y-5.64656
G3 X-1.16552 Y-5.61356 I-0.11004 J-0.167
G1 X-2.40736
G3 X-2.51003 Y-5.64192 I0.0 J-0.2
G1 X-2.71056 Y-5.76187
G2 X-2.81323 Y-5.79023 I-0.10266 J0.17164
G1 X-3.19445
G3 X-3.36145 Y-5.88018 I0.0 J-0.2
G1 X-3.85023 Y-6.62196
G3 X-3.85092 Y-6.84099 I0.167 J-0.11004
G1 X-3.21595 Y-7.81796
G2 X-3.18364 Y-7.92696 I-0.16769 J-0.10899
G1 Y-8.69256
G2 X-3.18921 Y-8.73942 I-0.2 J0.0
G1 X-3.37072 Y-9.49246
G2 X-5.00336 Y-10.77833 I-1.63264 J0.39353
G1 X-5.63775
G2 X-5.807 Y-10.68488 I0.0 J0.2
G3 X-7.51614 Y-10.12297 I-1.1941 J-0.75179
G2 X-7.71045 Y-10.09578 I-0.073 J0.1862
G3 X-8.63446 Y-9.66617 I-1.43875 J-1.88596
G3 X-9.89117 Y-10.26157 I-0.24571 J-1.10534
G2 X-10.06974 Y-10.3715 I-0.17857 J0.09007
G1 X-10.30489
G3 X-11.14222 Y-10.89947 I0.0 J-0.92797
G1 X-11.22766
G2 X-11.35781 Y-10.85132 I0.0 J0.2
G1 X-12.58125 Y-9.80266
G2 X-12.63119 Y-9.73779 I0.13016 J0.15185
G2 X-12.31729 Y-9.2376 I0.3139 J0.1516
G1 X-11.42647
G2 X-11.38516 Y-9.24191 I0.0 J-0.2
G1 X-9.59169 Y-9.6205
G3 X-9.55039 Y-9.62481 I0.04131 J0.19569
G1 X-8.00818
G3 X-7.89919 Y-9.59251 I0.0 J0.2
G1 X-6.43101 Y-8.63827
G3 X-5.39686 Y-6.73275 I-1.23847 J1.90552
G1 Y-4.87197
G3 X-5.4018 Y-4.82776 I-0.2 J0.0
G3 X-5.95256 Y-3.4708 I-4.40852 J-0.99906
G3 X-7.04374 Y-3.12259 I-0.74666 J-0.456
G3 X-7.15963 Y-3.35237 I0.07876 J-0.18384
G2 X-7.98837 Y-4.49605 I-0.90784 J-0.21426
G1 X-10.15008 Y-4.68003
G2 X-10.22013 Y-4.67357 I-0.01696 J0.19928
G1 X-13.77827 Y-3.69385
G3 X-13.83136 Y-3.68668 I-0.05309 J-0.19282
G1 X-16.12637
G3 X-16.23097 Y-3.71621 I0.0 J-0.2
G1 X-18.23891 Y-4.94842
G3 X-19.40159 Y-9.32878 I1.71869 J-2.80068
G1 X-18.76926 Y-10.48218
G2 X-18.94463 Y-10.77833 I-0.17537 J-0.09615
G1 X-21.84598
G3 X-21.97836 Y-10.82841 I0.0 J-0.2
G2 X-25.13353 Y-12.77121 I-7.18892 J8.14158
G1 X-27.32917 Y-13.64947
G3 X-27.39391 Y-13.69138 I0.07428 J-0.1857
G1 X-27.63779 Y-13.92716
G1 X-27.39391 Y-14.16295
G3 X-27.32917 Y-14.20486 I0.13902 J0.14379
G1 X-25.13353 Y-15.08312
G2 X-21.97836 Y-17.02592 I-4.03375 J-10.08438
G3 X-21.84598 Y-17.076 I0.13238 J0.14992
G1 X-18.94463
G2 X-18.76926 Y-17.37215 I0.0 J-0.2
G1 X-19.40159 Y-18.52555
G3 X-18.23891 Y-22.90591 I2.88138 J-1.57967
G1 X-16.23097 Y-24.13811
G3 X-16.12637 Y-24.16765 I0.10461 J0.17046
G1 X-13.83136
G3 X-13.77827 Y-24.16048 I0.0 J0.2
G1 X-10.22013 Y-23.18076
G2 X-10.15008 Y-23.1743 I0.05309 J-0.19282
G1 X-7.98837 Y-23.35827
G2 X-7.15963 Y-24.50195 I-0.0791 J-0.92942
G3 X-7.04374 Y-24.73173 I0.19465 J-0.04594
G3 X-5.95256 Y-24.38353 I0.34452 J0.80421
G3 X-5.4018 Y-23.02657 I-3.85776 J2.35603
G3 X-5.39686 Y-22.98236 I-0.19505 J0.0442
G1 Y-21.12157
G3 X-6.43101 Y-19.21605 I-2.27262 J0.0
G1 X-7.89919 Y-18.26182
G3 X-8.00818 Y-18.22951 I-0.10899 J-0.16769
G1 X-9.55039
G3 X-9.59169 Y-18.23383 I0.0 J-0.2
G1 X-11.38516 Y-18.61242
G2 X-11.42647 Y-18.61673 I-0.04131 J0.19569
G1 X-12.31729
G2 X-12.63119 Y-18.11654 I0.0 J0.34859
G2 X-12.58125 Y-18.05167 I0.1801 J-0.08698
G1 X-11.35781 Y-17.00301
G2 X-11.22766 Y-16.95486 I0.13016 J-0.15185
G1 X-11.14222
G3 X-10.30489 Y-17.48282 I0.83733 J0.4
G1 X-10.06974
G2 X-9.89117 Y-17.59275 I0.0 J-0.2
G3 X-8.63446 Y-18.18816 I1.011 J0.50993
G3 X-7.71045 Y-17.75855 I-0.51474 J2.31558
G2 X-7.51614 Y-17.73136 I0.12131 J-0.15901
G3 X-5.807 Y-17.16944 I0.51503 J1.3137
G2 X-5.63775 Y-17.076 I0.16925 J-0.10656
G1 X-5.00336
G2 X-3.37072 Y-18.36187 I0.0 J-1.6794
G1 X-3.18921 Y-19.1149
G2 X-3.18364 Y-19.16177 I-0.19443 J-0.04687
G1 Y-19.92737
G2 X-3.21595 Y-20.03636 I-0.2 J0.0
G1 X-3.85092 Y-21.01334
G3 X-3.85023 Y-21.23237 I0.16769 J-0.10899
G1 X-3.36145 Y-21.97414
G3 X-3.19445 Y-22.0641 I0.167 J0.11004
G1 X-2.81323
G2 X-2.71056 Y-22.09246 I0.0 J-0.2
G1 X-2.51003 Y-22.21241
G3 X-2.40736 Y-22.24077 I0.10266 J0.17164
G1 X-1.16552
G3 X-1.05548 Y-22.20777 I0.0 J0.2
G1 X-0.88752 Y-22.0971
G2 X-0.77747 Y-22.0641 I0.11004 J-0.167
G1 X-0.45801
G3 X-0.30312 Y-21.99063 I0.0 J0.2
G1 X1.2014 Y-20.14885
G3 X1.22189 Y-20.11846 I-0.15489 J0.12653
G1 X1.4898 Y-19.62978
G3 X1.51443 Y-19.53363 I-0.17537 J0.09615
G1 Y-18.09093
G3 X1.48143 Y-17.98088 I-0.2 J0.0
G1 X0.62356 Y-16.67897
G1 X2.13202 Y-16.44826
G3 X2.19756 Y-16.42614 I-0.03024 J0.1977
G1 X5.94295 Y-14.38324
G3 X6.02255 Y-14.3038 I-0.09577 J0.17558
G1 X6.22904 Y-13.92716
G1 X6.02255 Y-13.55053
G3 X5.94295 Y-13.47109 I-0.17537 J-0.09615
G1 X2.19756 Y-11.42819
G3 X2.13202 Y-11.40607 I-0.09577 J-0.17558
G1 X0.62356 Y-11.17536
G1 X1.48143 Y-9.87344
G3 X1.51443 Y-9.7634 I-0.167 J0.11004
G1 Y-8.32069
G3 X1.4898 Y-8.22455 I-0.2 J0.0
G1 X1.24057 Y-7.76995
G0 Z3.0
G0 X0.88983 Y-7.96224
G0 Z1.2
G1 F300.0 Z-0.2
G1 F800.0 X1.0898 Y-8.327
G2 X1.11443 Y-8.42315 I-0.17537 J-0.09615
G1 Y-9.64346
G2 X1.08143 Y-9.75351 I-0.2 J0.0
G1 X0.18306 Y-11.11688
G2 X0.07432 Y-11.19816 I-0.167 J0.11004
G1 X-3.97635 Y-12.43171
G2 X-4.00505 Y-12.43819 I-0.05826 J0.19133
G1 X-6.00523 Y-12.73716
G1 X-4.08731 Y-12.17754
G3 X-4.04907 Y-12.16194 I-0.05602 J0.19199
G1 X-2.44793 Y-11.30636
G2 X-2.42787 Y-11.29703 I0.09426 J-0.1764
G3 X-1.16939 Y-9.91378 I-0.79327 J1.98582
G3 X-1.02261 Y-8.48169 I-3.78442 J1.11143
G1 X-1.043 Y-8.23175
G1 X-1.0879 Y-8.20932
G3 X-1.37525 Y-8.41666 I-0.08938 J-0.17892
G2 X-2.46653 Y-10.81231 I-2.41418 J-0.34666
G1 X-4.01422 Y-11.81155
G2 X-4.10644 Y-11.84286 I-0.10848 J0.16802
G1 X-5.78382 Y-11.97968
G2 X-6.00008 Y-11.78034 I-0.01626 J0.19934
G1 Y-11.37833
G2 X-5.80008 Y-11.17833 I0.2 J0.0
G1 X-5.00336
G3 X-2.98186 Y-9.58619 I0.0 J2.0794
G1 X-2.78921 Y-8.78695
G3 X-2.78364 Y-8.74009 I-0.19443 J0.04687
G1 Y-7.80839
G3 X-2.81595 Y-7.6994 I-0.2 J0.0
G1 X-3.37288 Y-6.8425
G2 X-3.37219 Y-6.62346 I0.16769 J0.10899
G1 X-3.14599 Y-6.28018
G2 X-2.97899 Y-6.19023 I0.167 J-0.11004
G1 X-2.70273
G3 X-2.60007 Y-6.16187 I0.0 J0.2
G1 X-2.39953 Y-6.04192
G2 X-2.29687 Y-6.01356 I0.10266 J-0.17164
G1 X-1.28546
G2 X-1.17541 Y-6.04656 I0.0 J-0.2
G1 X-1.00745 Y-6.15723
G3 X-0.89741 Y-6.19023 I0.11004 J0.167
G1 X-0.64775
G2 X-0.49286 Y-6.2637 I0.0 J-0.2
G1 X0.86834 Y-7.93004
G2 X0.88883 Y-7.96042 I-0.15489 J-0.12653
G1 X0.88983 Y-7.96224
G0 Z3.0
G0 X0.37726 Y-11.54235
G0 Z1.2
G1 F300.0 Z-0.2
G2 F800.0 X0.37915 Y-11.54263 I-0.02835 J-0.19798
G1 X2.00213 Y-11.79085
G2 X2.06767 Y-11.81298 I-0.03024 J-0.1977
G1 X5.80285 Y-13.85031
G1 X5.84718 Y-13.92716
G1 X5.80285 Y-14.00402
G1 X2.06767 Y-16.04135
G2 X2.00213 Y-16.06347 I-0.09577 J0.17558
G1 X0.37915 Y-16.3117
G2 X0.29065 Y-16.30532 I-0.03024 J0.1977
G1 X-3.90358 Y-15.02805
G3 X-3.90937 Y-15.02638 I-0.05826 J-0.19133
G1 X-5.85255 Y-14.49803
G2 X-6.00008 Y-14.30504 I0.05247 J0.19299
G1 Y-13.54929
G2 X-5.85255 Y-13.35629 I0.2 J0.0
G1 X-3.90937 Y-12.82794
G3 X-3.90358 Y-12.82628 I-0.05247 J0.19299
G1 X0.29065 Y-11.54901
G2 X0.37726 Y-11.54235 I0.05826 J-0.19133
G0 Z3.0
G0 X-1.0736 Y-16.30659
G0 Z1.2
G1 F300.0 Z-0.2
G1 F800.0 X0.07432 Y-16.65617
G2 X0.18306 Y-16.73745 I-0.05826 J-0.19133
G1 X1.08143 Y-18.10082
G2 X1.11443 Y-18.21087 I-0.167 J-0.11004
G1 Y-19.43118
G2 X1.0898 Y-19.52733 I-0.2 J0.0
G1 X0.88883 Y-19.89391
G2 X0.86834 Y-19.92429 I-0.17537 J0.09615
G1 X-0.49286 Y-21.59063
G2 X-0.64775 Y-21.6641 I-0.15489 J0.12653
G1 X-0.89741
G3 X-1.00745 Y-21.6971 I0.0 J-0.2
G1 X-1.17541 Y-21.80777
G2 X-1.28546 Y-21.84077 I-0.11004 J0.167
G1 X-2.29687
G2 X-2.39953 Y-21.81241 I0.0 J0.2
G1 X-2.60007 Y-21.69246
G3 X-2.70273 Y-21.6641 I-0.10266 J-0.17164
G1 X-2.97899
G2 X-3.14599 Y-21.57414 I0.0 J0.2
G1 X-3.37219 Y-21.23086
G2 X-3.37288 Y-21.01183 I0.167 J0.11004
G1 X-2.81595 Y-20.15493
G3 X-2.78364 Y-20.04594 I-0.16769 J0.10899
G1 Y-19.11424
G3 X-2.78921 Y-19.06738 I-0.2 J0.0
G1 X-2.98186 Y-18.26814
G3 X-5.00336 Y-16.676 I-2.0215 J-0.48726
G1 X-5.80008
G2 X-6.00008 Y-16.476 I0.0 J0.2
G1 Y-16.07398
G2 X-5.78382 Y-15.87465 I0.2 J0.0
G1 X-4.10644 Y-16.01146
G2 X-4.01422 Y-16.04278 I-0.01626 J-0.19934
G1 X-2.46653 Y-17.04202
G2 X-1.37525 Y-19.43767 I-1.3229 J-2.049
G3 X-1.0879 Y-19.64501 I0.19797 J-0.02843
G1 X-1.043 Y-19.62258
G1 X-1.02261 Y-19.37263
G3 X-1.16939 Y-17.94055 I-3.9312 J0.32066
G3 X-2.42787 Y-16.5573 I-2.05175 J-0.60257
G2 X-2.44793 Y-16.54797 I0.07419 J0.18573
G1 X-4.04907 Y-15.69239
G3 X-4.08731 Y-15.67679 I-0.09426 J-0.1764
G1 X-6.00523 Y-15.11717
G1 X-4.00505 Y-15.41614
G2 X-3.97635 Y-15.42261 I-0.02957 J-0.1978
G1 X-1.0736 Y-16.30659
G0 Z3.0
G0 X-6.43101
G0 Z1.2
G1 F300.0 Z-0.2
G1 F800.0 Y-17.13934
G2 X-6.53974 Y-17.31731 I-0.2 J0.0
G2 X-7.46226 Y-17.31741 I-0.46136 J0.89965
G2 X-7.57104 Y-17.13943 I0.09122 J0.17798
G1 Y-10.7149
G2 X-7.46226 Y-10.53692 I0.2 J0.0
G2 X-6.53974 Y-10.53702 I0.46116 J-0.89975
G2 X-6.43101 Y-10.71499 I-0.09126 J-0.17796
G1 Y-16.30659
G0 Z3.0
G0 X-7.9004
G0 Z1.2
G1 F300.0 Z-0.2
G1 F800.0 Y-17.301
G2 X-7.98203 Y-17.46221 I-0.2 J0.0
G2 X-8.72126 Y-17.79769 I-1.16716 J1.58962
G2 X-9.06247 Y-17.79209 I-0.15891 J0.71487
G2 X-9.21268 Y-17.59839 I0.04979 J0.1937
G1 Y-10.25594
G2 X-9.06247 Y-10.06224 I0.2 J0.0
G2 X-8.72126 Y-10.05663 I0.1823 J-0.70927
G2 X-7.98203 Y-10.39212 I-0.42794 J-1.92511
G2 X-7.9004 Y-10.55333 I-0.11837 J-0.16121
G1 Y-16.30659
G0 Z3.0
G0 X-9.61249
G0 Z1.2
G1 F300.0 Z-0.2
G1 F800.0 Y-16.88282
G2 X-9.81249 Y-17.08282 I-0.2 J0.0
G1 X-10.30489
G2 X-10.39434 Y-17.07519 I0.0 J0.52797
G1 Y-10.77914
G2 X-10.30489 Y-10.7715 I0.08945 J-0.52033
G1 X-9.81249
G2 X-9.61249 Y-10.9715 I0.0 J-0.2
G1 Y-16.30659
G0 Z3.0
G0 X-10.83892 Y-16.3414
G0 Z1.2
G1 F300.0 Z-0.2
G1 F800.0 X-10.8387 Y-16.34918
G2 X-11.03862 Y-16.55486 I-0.19992 J-0.00567
G1 X-11.37562
G3 X-11.50578 Y-16.60301 I0.0 J-0.2
G1 X-12.88459 Y-17.78484
G3 X-12.9138 Y-17.81586 I0.13016 J-0.15185
G3 X-12.31729 Y-19.01673 I0.59651 J-0.45228
G1 X-11.38471
G3 X-11.3434 Y-19.01242 I0.0 J0.2
G1 X-9.54994 Y-18.63383
G2 X-9.50863 Y-18.62951 I0.04131 J-0.19569
G1 X-8.12675
G2 X-8.01776 Y-18.66182 I0.0 J-0.2
G1 X-6.64899 Y-19.55144
G2 X-5.79686 Y-21.12157 I-1.02049 J-1.57013
G1 Y-22.9365
G2 X-5.80231 Y-22.98288 I-0.2 J0.0
G2 X-6.29393 Y-24.17505 I-4.00802 J0.95537
G2 X-6.42537 Y-24.31551 I-0.40529 J0.24752
G2 X-6.73991 Y-24.1698 I-0.11533 J0.1634
G3 X-7.95445 Y-22.95972 I-1.32755 J-0.11789
G1 X-10.18736 Y-22.76968
G3 X-10.25742 Y-22.77614 I-0.01696 J-0.19928
G1 X-13.83233 Y-23.76048
G2 X-13.88543 Y-23.76765 I-0.05309 J0.19282
G1 X-16.01342
G2 X-16.11802 Y-23.73811 I0.0 J0.2
G1 X-18.02969 Y-22.56498
G2 X-19.05085 Y-18.71784 I1.50948 J2.45976
G1 X-18.3746 Y-17.48435
G2 X-18.31121 Y-17.41479 I0.17537 J-0.09615
G1 X-17.55711 Y-16.90518
G3 X-17.52921 Y-16.88241 I-0.11198 J0.16571
G2 X-13.46655 Y-15.06951 I4.47772 J-4.57583
G1 X-11.06572 Y-14.91353
G2 X-10.85275 Y-15.11311 I0.01297 J-0.19958
G1 Y-15.4618
G1 X-11.42981
G3 X-11.46903 Y-15.46568 I0.0 J-0.2
G1 X-12.75639 Y-15.72316
G3 X-12.79227 Y-15.73392 I0.03922 J-0.19612
G1 X-14.36447 Y-16.37095
G3 X-14.39599 Y-16.3871 I0.07511 J-0.18536
G1 X-16.06989 Y-17.4419
G3 X-16.77401 Y-18.71784 I0.80403 J-1.27595
G1 Y-20.19376
G3 X-15.5345 Y-21.43327 I1.23951 J0.0
G1 X-13.08391
G3 X-13.02817 Y-21.42535 I0.0 J0.2
G1 X-10.88006 Y-20.80195
G2 X-10.82432 Y-20.79403 I0.05574 J-0.19208
G1 X-9.24851
G3 X-9.04851 Y-20.59403 I0.0 J0.2
G1 Y-20.39403
G1 X-10.88119
G3 X-10.93693 Y-20.40195 I0.0 J-0.2
G1 X-13.08504 Y-21.02535
G2 X-13.14078 Y-21.03327 I-0.05574 J0.19208
G1 X-15.5345
G2 X-16.37401 Y-20.19376 I0.0 J0.83951
G1 Y-18.71784
G2 X-15.85664 Y-17.78031 I1.10814 J0.0
G1 X-14.21283 Y-16.74447
G2 X-14.18131 Y-16.72832 I0.10662 J-0.16921
G1 X-12.67693 Y-16.11877
G2 X-12.64105 Y-16.10802 I0.07511 J-0.18536
G1 X-11.39058 Y-15.85792
G2 X-11.35136 Y-15.85403 I0.03922 J-0.19612
G1 X-11.04716
G2 X-10.84724 Y-16.04836 I0.0 J-0.2
G1 X-10.83892 Y-16.3414
G0 Z3.0
G0 X-11.05521 Y-14.51173
G0 Z1.2
G1 F300.0 Z-0.2
G2 F800.0 X-11.06572 Y-14.51269 I-0.02348 J0.19862
G1 X-13.49248 Y-14.67035
G3 X-17.80634 Y-16.59394 I0.44099 J-6.78789
G2 X-17.8423 Y-16.62185 I-0.1398 J0.14302
G1 X-17.88359 Y-16.64693
G2 X-17.98742 Y-16.676 I-0.10384 J0.17093
G1 X-21.69619
G2 X-21.82656 Y-16.62767 I0.0 J0.2
G3 X-24.98497 Y-14.71173 I-7.34072 J-8.53983
G1 X-26.94638 Y-13.92716
G1 X-24.98497 Y-13.1426
G3 X-21.82656 Y-11.22666 I-4.18231 J10.45577
G2 X-21.69619 Y-11.17833 I0.13037 J-0.15167
G1 X-17.98742
G2 X-17.88359 Y-11.20739 I0.0 J-0.2
G1 X-17.8423 Y-11.23247
G2 X-17.80634 Y-11.26039 I-0.10384 J-0.17093
G3 X-13.49248 Y-13.18398 I4.75484 J4.8643
G1 X-11.06572 Y-13.34164
G2 X-10.87869 Y-13.54122 I-0.01297 J-0.19958
G1 Y-14.31311
G2 X-11.05521 Y-14.51173 I-0.2 J0.0
G0 Z3.0
G0 X-11.05303 Y-12.94121
G0 Z1.2
G1 F300.0 Z-0.2
G2 F800.0 X-11.06572 Y-12.94079 I0.00028 J0.2
G1 X-13.46655 Y-12.78482
G2 X-17.52921 Y-10.97191 I0.41506 J6.38873
G3 X-17.55711 Y-10.94915 I-0.13988 J-0.14295
G1 X-18.31121 Y-10.43954
G2 X-18.3746 Y-10.36998 I0.11198 J0.16571
G1 X-19.05085 Y-9.13649
G2 X-18.02969 Y-5.28935 I2.53063 J1.38738
G1 X-16.11802 Y-4.11621
G2 X-16.01342 Y-4.08668 I0.10461 J-0.17046
G1 X-13.88543
G2 X-13.83233 Y-4.09385 I0.0 J-0.2
G1 X-10.25742 Y-5.07819
G3 X-10.18736 Y-5.08465 I0.05309 J0.19282
G1 X-7.95445 Y-4.89461
G3 X-6.73991 Y-3.68453 I-0.11302 J1.32798
G2 X-6.42537 Y-3.53882 I0.19922 J-0.01769
G2 X-6.29393 Y-3.67928 I-0.27386 J-0.38798
G2 X-5.80231 Y-4.87145 I-3.51639 J-2.14754
G2 X-5.79686 Y-4.91782 I-0.19455 J-0.04637
G1 Y-6.73275
G2 X-6.64899 Y-8.30289 I-1.87262 J0.0
G1 X-8.01776 Y-9.19251
G2 X-8.12675 Y-9.22481 I-0.10899 J0.16769
G1 X-9.50863
G2 X-9.54994 Y-9.2205 I0.0 J0.2
G1 X-11.3434 Y-8.84191
G3 X-11.38471 Y-8.8376 I-0.04131 J-0.19569
G1 X-12.31729
G3 X-12.9138 Y-10.03847 I0.0 J-0.74859
G3 X-12.88459 Y-10.06949 I0.15937 J0.12084
G1 X-11.50578 Y-11.25132
G3 X-11.37562 Y-11.29947 I0.13016 J0.15185
G1 X-11.03862
G2 X-10.8387 Y-11.50515 I0.0 J-0.2
G1 X-10.84724 Y-11.80597
G2 X-11.04716 Y-12.0003 I-0.19992 J0.00567
G1 X-11.35136
G2 X-11.39058 Y-11.99641 I0.0 J0.2
G1 X-12.64105 Y-11.74631
G2 X-12.67693 Y-11.73556 I0.03922 J0.19612
G1 X-14.18131 Y-11.12601
G2 X-14.21283 Y-11.10985 I0.07511 J0.18536
G1 X-15.85664 Y-10.07402
G2 X-16.37401 Y-9.13649 I0.59078 J0.93753
G1 Y-7.66057
G2 X-15.5345 Y-6.82106 I0.83951 J0.0
G1 X-13.14078
G2 X-13.08504 Y-6.82898 I0.0 J-0.2
G1 X-10.93693 Y-7.45238
G3 X-10.88119 Y-7.4603 I0.05574 J0.19208
G1 X-9.04851
G1 Y-7.2603
G3 X-9.24851 Y-7.0603 I-0.2 J0.0
G1 X-10.82432
G2 X-10.88006 Y-7.05238 I0.0 J0.2
G1 X-13.02817 Y-6.42898
G3 X-13.08391 Y-6.42106 I-0.05574 J-0.19208
G1 X-15.5345
G3 X-16.77401 Y-7.66057 I0.0 J-1.23951
G1 Y-9.13649
G3 X-16.06989 Y-10.41243 I1.50814 J0.0
G1 X-14.39599 Y-11.46723
G3 X-14.36447 Y-11.48338 I0.10662 J0.16921
G1 X-12.79227 Y-12.12041
G3 X-12.75639 Y-12.13117 I0.07511 J0.18536
G1 X-11.46903 Y-12.38864
G3 X-11.42981 Y-12.39253 I0.03922 J0.19612
G1 X-10.85275
G1 Y-12.74121
G2 X-11.05303 Y-12.94121 I-0.2 J0.0
( ProfilRand15mm )
G0 Z3.0
( T15 : 1.5 )
T15 M6
M3 S1000
G0 X-32.49165 Y29.68786
G0 Z1.0
G1 F300.0 Z-0.5
G1 F800.0 X2.84349
G2 Y-29.65784 I0.0 J-29.67285
G1 X-32.49165
G1 Y29.68786
G0 Z3.0
M5
M30
