( Made using CamBam - http://www.cambam.co.uk )
( Beratex 4/21/2024 9:45:13 AM )
( Post processor: Default )
( T2 : 2.0 )
( T4 : 4.0 )
G21 G90 G64 G40
G0 Z3.0
( T4 : 4.0 )
T4 M6
( Ber_Tasche4mm )
G17
M3 S1000
G0 X14.675 Y-14.2984
G0 Z1.0
G1 F300.0 Z-2.0
G3 F800.0 X15.1675 Y-15.5391 I6.5359 J1.8766
G3 X14.675 Y-16.7797 I6.0434 J-3.1172
G1 Y-14.2984
G1 F300.0 X16.2129 Y-13.8569
G3 F800.0 X17.0488 Y-15.5391 I4.9981 J1.435
G3 X16.0129 Y-18.8 I4.1621 J-3.1172
G1 X13.03
G3 X13.075 Y-18.1172 I-5.155 J0.6828
G1 Y3.2109
G3 X12.9782 Y4.2098 I-5.2 J0.0
G1 X16.0109 Y4.2828
G1 Y-12.4219
G3 X16.2129 Y-13.8569 I5.2 J0.0
G1 F300.0 X17.7507 Y-13.4154
G3 F800.0 X19.4101 Y-15.5391 I3.4602 J0.9935
G3 X18.0614 Y-20.4 I1.8009 J-3.1172
G1 X10.6587
G3 X11.475 Y-18.1172 I-2.7837 J2.2828
G1 Y3.2109
G3 X10.4282 Y5.7489 I-3.6 J0.0
G1 X17.6109 Y5.9217
G1 Y-12.4219
G3 X17.7507 Y-13.4154 I3.6 J0.0
G0 Z3.0
G0 X33.2264 Y-11.4274
G0 Z1.0
G1 F300.0 Z-2.0
G1 F800.0 X33.7471 Y-11.1233
G3 X34.6982 Y-10.4107 I-2.6221 J4.4905
G3 X36.4553 Y-13.7679 I5.169 J0.5669
G1 X42.2429 Y-18.8
G1 X39.0287
G3 X37.4295 Y-15.4294 I-5.185 J-0.3953
G1 X33.2264 Y-11.4274
G1 F300.0 X32.1231 Y-12.5861
G1 F800.0 X31.4278 Y-11.9241
G3 X30.387 Y-11.2325 I-2.4824 J-2.6072
G1 X32.9403 Y-9.7416
G3 X34.1328 Y-4.6547 I-1.8153 J3.1088
G1 X41.8055
G1 X38.1228 Y-6.6946
G3 X37.5051 Y-12.5605 I1.7444 J-3.1492
G1 X46.5217 Y-20.4
G1 X37.2362
G3 X36.3262 Y-16.5881 I-3.3925 J1.2047
G1 X32.1231 Y-12.5861
G1 F300.0 X31.0198 Y-13.7449
G1 F800.0 X30.3244 Y-13.0828
G3 X28.0041 Y-12.7665 I-1.3791 J-1.4484
G1 X20.2698 Y-16.8915
G3 X19.9037 Y-20.1699 I0.9412 J-1.7647
G1 X22.0228 Y-22.0
G1 X5.5638
G1 X8.9633 Y-19.7952
G3 X9.875 Y-18.1172 I-1.0883 J1.678
G1 Y3.2109
G3 X8.9602 Y4.8909 I-2.0 J0.0
G1 X5.3439 Y7.2271
G1 X19.2109 Y7.5607
G1 Y-12.4219
G3 X22.2194 Y-14.149 I2.0 J0.0
G1 X32.1335 Y-8.3599
G3 X32.2949 Y-5.0107 I-1.0085 J1.7271
G1 X29.5828 Y-3.0547
G1 X47.9961
G1 X38.8981 Y-8.0942
G3 X38.5549 Y-11.353 I0.9691 J-1.7495
G1 X48.0705 Y-19.6265
G3 X48.2945 Y-19.7952 I1.3123 J1.5093
G1 X51.694 Y-22.0
G1 X33.6208
G1 X35.1334 Y-20.724
G3 X35.2229 Y-17.7469 I-1.2896 J1.5287
G1 X31.0198 Y-13.7449
G0 Z3.0
G0 X33.2264 Y-11.4274
G0 Z-1.0
G1 F300.0 Z-4.0
G1 F800.0 X33.7471 Y-11.1233
G3 X34.6982 Y-10.4107 I-2.6221 J4.4905
G3 X36.4553 Y-13.7679 I5.169 J0.5669
G1 X42.2429 Y-18.8
G1 X39.0287
G3 X37.4295 Y-15.4294 I-5.185 J-0.3953
G1 X33.2264 Y-11.4274
G1 F300.0 X32.1231 Y-12.5861
G1 F800.0 X31.4278 Y-11.9241
G3 X30.387 Y-11.2325 I-2.4824 J-2.6072
G1 X32.9403 Y-9.7416
G3 X34.1328 Y-4.6547 I-1.8153 J3.1088
G1 X41.8055
G1 X38.1228 Y-6.6946
G3 X37.5051 Y-12.5605 I1.7444 J-3.1492
G1 X46.5217 Y-20.4
G1 X37.2362
G3 X36.3262 Y-16.5881 I-3.3925 J1.2047
G1 X32.1231 Y-12.5861
G0 Z3.0
G0 X15.1675 Y-15.5391
G0 Z-1.0
G1 F300.0 Z-4.0
G3 F800.0 X14.675 Y-16.7797 I6.0434 J-3.1172
G1 Y-14.2984
G3 X15.1675 Y-15.5391 I6.5359 J1.8766
G1 F300.0 X16.5895 Y-16.2725
G3 F800.0 X16.0129 Y-18.8 I4.6215 J-2.3837
G1 X13.03
G3 X13.075 Y-18.1172 I-5.155 J0.6828
G1 Y3.2109
G3 X12.9782 Y4.2098 I-5.2 J0.0
G1 X16.0109 Y4.2828
G1 Y-12.4219
G3 X17.0488 Y-15.5391 I5.2 J0.0
G3 X16.5895 Y-16.2725 I4.1621 J-3.1172
G1 F300.0 X18.0115 Y-17.006
G3 F800.0 X18.0614 Y-20.4 I3.1995 J-1.6503
G1 X10.6587
G3 X11.475 Y-18.1172 I-2.7837 J2.2828
G1 Y3.2109
G3 X10.4282 Y5.7489 I-3.6 J0.0
G1 X17.6109 Y5.9217
G1 Y-12.4219
G3 X19.4101 Y-15.5391 I3.6 J0.0
G3 X18.0115 Y-17.006 I1.8009 J-3.1172
G1 F300.0 X19.4335 Y-17.7394
G3 F800.0 X19.9037 Y-20.1699 I1.7775 J-0.9168
G1 X22.0228 Y-22.0
G1 X5.5638
G1 X8.9633 Y-19.7952
G3 X9.875 Y-18.1172 I-1.0883 J1.678
G1 Y3.2109
G3 X8.9602 Y4.8909 I-2.0 J0.0
G1 X5.3439 Y7.2271
G1 X19.2109 Y7.5607
G1 Y-12.4219
G3 X22.2194 Y-14.149 I2.0 J0.0
G1 X32.1335 Y-8.3599
G3 X32.2949 Y-5.0107 I-1.0085 J1.7271
G1 X29.5828 Y-3.0547
G1 X47.9961
G1 X38.8981 Y-8.0942
G3 X38.5549 Y-11.353 I0.9691 J-1.7495
G1 X48.0705 Y-19.6265
G3 X48.2945 Y-19.7952 I1.3123 J1.5093
G1 X51.694 Y-22.0
G1 X33.6208
G1 X35.1334 Y-20.724
G3 X35.2229 Y-17.7469 I-1.2896 J1.5287
G1 X30.3244 Y-13.0828
G3 X28.0041 Y-12.7665 I-1.3791 J-1.4484
G1 X20.2698 Y-16.8915
G3 X19.4335 Y-17.7394 I0.9412 J-1.7647
G0 Z3.0
G0 X69.7266
G0 Z1.0
G1 F300.0 Z-2.0
G1 F800.0 Y3.2109
G3 X69.7225 Y3.431 I-6.0 J0.0
G1 X71.0625 Y3.4633
G1 Y-18.0
G1 X69.7266
G1 Y-17.7394
G1 F300.0 X68.9266
G1 F800.0 Y3.2109
G3 X68.8297 Y4.2098 I-5.2 J0.0
G1 X71.8625 Y4.2828
G1 Y-18.1406
G3 X71.9045 Y-18.8 I5.2 J0.0
G1 X68.8846
G3 X68.9266 Y-18.1406 I-5.158 J0.6594
G1 Y-17.7394
G1 F300.0 X67.3266
G1 F800.0 Y3.2109
G3 X66.2797 Y5.7489 I-3.6 J0.0
G1 X73.4625 Y5.9217
G1 Y-18.1406
G3 X74.2598 Y-20.4 I3.6 J0.0
G1 X66.5293
G3 X67.3266 Y-18.1406 I-2.8027 J2.2594
G1 Y-17.7394
G1 F300.0 X65.7266
G1 F800.0 Y3.2109
G3 X64.8118 Y4.8909 I-2.0 J0.0
G1 X61.1954 Y7.2271
G1 X75.0625 Y7.5607
G1 Y-18.1406
G3 X75.9773 Y-19.8206 I2.0 J0.0
G1 X79.351 Y-22.0
G1 X61.4381
G1 X64.8118 Y-19.8206
G3 X65.7266 Y-18.1406 I-1.0852 J1.68
G1 Y-17.7394
G0 Z3.0
G0 X69.7266
G0 Z-1.0
G1 F300.0 Z-4.0
G1 F800.0 Y3.2109
G3 X69.7225 Y3.431 I-6.0 J0.0
G1 X71.0625 Y3.4633
G1 Y-18.0
G1 X69.7266
G1 Y-17.7394
G1 F300.0 X68.9266
G1 F800.0 Y3.2109
G3 X68.8297 Y4.2098 I-5.2 J0.0
G1 X71.8625 Y4.2828
G1 Y-18.1406
G3 X71.9045 Y-18.8 I5.2 J0.0
G1 X68.8846
G3 X68.9266 Y-18.1406 I-5.158 J0.6594
G1 Y-17.7394
G1 F300.0 X67.3266
G1 F800.0 Y3.2109
G3 X66.2797 Y5.7489 I-3.6 J0.0
G1 X73.4625 Y5.9217
G1 Y-18.1406
G3 X74.2598 Y-20.4 I3.6 J0.0
G1 X66.5293
G3 X67.3266 Y-18.1406 I-2.8027 J2.2594
G1 Y-17.7394
G1 F300.0 X65.7266
G1 F800.0 Y3.2109
G3 X64.8118 Y4.8909 I-2.0 J0.0
G1 X61.1954 Y7.2271
G1 X75.0625 Y7.5607
G1 Y-18.1406
G3 X75.9773 Y-19.8206 I2.0 J0.0
G1 X79.351 Y-22.0
G1 X61.4381
G1 X64.8118 Y-19.8206
G3 X65.7266 Y-18.1406 I-1.0852 J1.68
G1 Y-17.7394
G0 Z3.0
G0 X92.3459 Y-13.3639
G0 Z1.0
G1 F300.0 Z-2.0
G2 F800.0 X92.3232 Y-13.0692 I1.6981 J0.2791
G3 X92.3234 Y-12.9929 I-6.7997 J0.0614
G2 X92.7241 Y-11.7974 I1.9706 J0.0043
G3 X92.7526 Y-11.7596 I-5.4172 J4.1102
G2 X93.3037 Y-11.1266 I4.5303 J-3.3879
G3 X93.4356 Y-11.7406 I6.7041 J1.1188
G3 X93.0472 Y-13.8 I6.4081 J-2.275
G3 X93.048 Y-14.5687 I11.7257 J-0.372
G2 X92.5046 Y-13.8541 I2.6542 J2.5819
G2 X92.3459 Y-13.3639 I1.5393 J0.7693
G1 F300.0 X90.7671 Y-13.6234
G2 F800.0 X90.7232 Y-13.0548 I3.2769 J0.5386
G3 X90.7234 Y-12.9964 I-5.1998 J0.0469
G2 X91.4495 Y-10.8303 I3.5706 J0.0079
G3 X91.4713 Y-10.8014 I-4.1426 J3.1431
G2 X92.597 Y-9.6062 I5.8117 J-4.3461
G3 X92.6033 Y-9.6008 I-3.3577 J3.9706
G2 X94.2328 Y-8.4228 I8.3935 J-9.8937
G2 X95.0192 Y-7.9691 I9.6805 J-15.8709
G3 X94.8113 Y-10.0643 I9.4028 J-1.9907
G3 X95.134 Y-11.8114 I5.1965 J0.0565
G3 X94.6464 Y-13.8507 I4.7097 J-2.2042
G3 X95.3437 Y-17.8788 I10.1265 J-0.3213
G2 X94.1205 Y-17.2839 I8.6591 J19.3565
G2 X92.5185 Y-16.2283 I5.5555 J10.1752
G3 X92.4738 Y-16.1936 I-3.2105 J-4.0906
G2 X91.0989 Y-14.6192 I3.2284 J4.2068
G2 X90.7671 Y-13.6234 I2.9451 J1.5345
G1 F300.0 X89.1883 Y-13.8829
G2 F800.0 X89.1233 Y-13.0403 I4.8557 J0.7982
G3 X89.1234 Y-12.9999 I-3.5999 J0.0325
G2 X90.1749 Y-9.8632 I5.1706 J0.0114
G3 X90.1899 Y-9.8432 I-2.8679 J2.176
G2 X91.5639 Y-8.3844 I7.093 J-5.3043
G3 X91.5683 Y-8.3807 I-2.3246 J2.7489
G2 X93.3991 Y-7.0571 I9.4286 J-11.1138
G2 X98.1892 Y-4.9318 I10.5142 J-17.2366
G3 X97.4046 Y-6.0959 I6.9467 J-5.5291
G3 X97.371 Y-6.1568 I3.1321 J-1.7683
G3 X96.4112 Y-10.0469 I7.051 J-3.803
G3 X96.9407 Y-11.8867 I3.5966 J0.0391
G3 X96.2456 Y-13.9015 I2.903 J-2.129
G3 X98.4055 Y-19.8505 I8.5273 J-0.2705
G3 X98.4792 Y-19.9306 I2.6868 J2.3961
G3 X99.5156 Y-20.8816 I7.3116 J6.9284
G2 X93.3644 Y-18.694 I4.4872 J22.3593
G2 X91.5307 Y-17.4869 I6.3116 J11.5853
G3 X91.4997 Y-17.4629 I-2.2226 J-2.8319
G2 X89.6949 Y-15.3871 I4.2024 J5.4762
G2 X89.1883 Y-13.8829 I4.349 J2.3024
G0 Z3.0
G0 X117.3158 Y-10.4156
G0 Z1.0
G1 F300.0 Z-2.0
G3 F800.0 X117.3381 Y-10.0869 I-3.5736 J0.4078
G3 X116.8265 Y-6.7986 I-9.483 J0.2085
G2 X116.925 Y-6.8683 I-8.4899 J-12.1096
G3 X116.9441 Y-6.8818 I2.0906 J2.9308
G2 X120.0923 Y-10.2173 I-6.6051 J-9.3876
G2 X120.2088 Y-10.4156 I-10.9348 J-6.5579
G1 X117.3158
G1 F300.0 Y-12.0156
G1 F800.0 X99.8438
G3 X97.8448 Y-13.9522 I0.0 J-2.0
G3 X99.5996 Y-18.7855 I6.9281 J-0.2198
G3 X99.6405 Y-18.83 I1.4927 J1.3312
G3 X102.5069 Y-20.8128 I6.1502 J5.8279
G3 X102.5135 Y-20.8155 I0.7751 J1.8437
G3 X106.876 Y-21.953 I6.2356 J14.9803
G3 X111.0634 Y-22.2032 I4.0111 J31.9689
G3 X118.8354 Y-21.5135 I0.4814 J38.7102
G3 X118.8497 Y-21.5107 I-0.3766 J1.9642
G3 X120.3651 Y-21.142 I-3.6382 J18.2522
G2 X119.8948 Y-21.3443 I-3.8213 J8.2372
G3 X119.8867 Y-21.3475 I0.738 J-1.8588
G2 X114.0732 Y-22.8508 I-8.6883 J21.6072
G3 X114.0598 Y-22.8525 I0.2469 J-1.9847
G2 X107.8239 Y-23.2422 I-5.9744 J45.5113
G3 X107.7979 I-0.0114 J-2.0
G2 X99.8794 Y-22.5766 I-0.3192 J43.6312
G3 X99.8698 Y-22.5749 I-0.3483 J-1.9694
G2 X92.6086 Y-20.1042 I4.133 J24.0526
G2 X90.5428 Y-18.7456 I7.0674 J12.9956
G3 X90.5256 Y-18.7322 I-1.2348 J-1.5733
G2 X88.2917 Y-16.156 I5.1765 J6.7455
G2 X87.5234 Y-13.0259 I5.7523 J3.0713
G3 Y-13.0034 I-1.9999 J0.0181
G2 X88.9002 Y-8.8961 I6.7706 J0.0149
G3 X88.9086 Y-8.885 I-1.5933 J1.2089
G2 X90.5308 Y-7.1627 I8.3743 J-6.2626
G3 X90.5332 Y-7.1607 I-1.2914 J1.5272
G2 X92.5655 Y-5.6915 I10.4637 J-12.3339
G2 X99.0245 Y-3.0589 I11.3478 J-18.6022
G2 X106.1339 Y-2.2812 I6.8852 J-30.0562
G3 X106.1667 I0.0145 J1.9999
G2 X112.3806 Y-3.0257 I0.2235 J-24.4364
G2 X117.8542 Y-5.5657 I-4.044 J-15.8824
G3 X117.8648 Y-5.5732 I1.1614 J1.6282
G2 X121.4582 Y-9.384 I-7.5258 J-10.6962
G2 X122.6957 Y-12.0156 I-12.3008 J-7.3912
G1 X117.3158
G1 F300.0 X115.4858 Y-10.9875
G3 F800.0 X115.7417 Y-10.0518 I-1.7436 J0.9797
G3 X115.1188 Y-6.8014 I-7.8865 J0.1734
G3 X115.0879 Y-6.7323 I-1.8416 J-0.7801
G3 X111.1681 Y-3.3047 I-5.8631 J-2.75
G3 X106.9778 Y-2.6873 I-3.9274 J-12.1271
G3 X103.832 Y-3.1082 I-0.0702 J-11.4433
G3 X103.8239 Y-3.1105 I0.5375 J-1.9264
G3 X100.8047 Y-4.6074 I2.5128 J-8.8615
G3 X98.7951 Y-6.881 I4.3313 J-5.8534
G3 X98.7764 Y-6.9148 I1.7416 J-0.9833
G3 X98.0079 Y-10.0296 I5.6456 J-3.045
G3 X100.0078 Y-12.0078 I1.9999 J0.0217
G1 X113.7422
G3 X115.4858 Y-10.9875 I0.0 J2.0
G1 F300.0 Z-4.0
G3 F800.0 X115.7417 Y-10.0518 I-1.7436 J0.9797
G3 X115.1188 Y-6.8014 I-7.8865 J0.1734
G3 X115.0879 Y-6.7323 I-1.8416 J-0.7801
G3 X111.1681 Y-3.3047 I-5.8631 J-2.75
G3 X106.9778 Y-2.6873 I-3.9274 J-12.1271
G3 X103.832 Y-3.1082 I-0.0702 J-11.4433
G3 X103.8239 Y-3.1105 I0.5375 J-1.9264
G3 X100.8047 Y-4.6074 I2.5128 J-8.8615
G3 X98.7951 Y-6.881 I4.3313 J-5.8534
G3 X98.7764 Y-6.9148 I1.7416 J-0.9833
G3 X98.0079 Y-10.0296 I5.6456 J-3.045
G3 X100.0078 Y-12.0078 I1.9999 J0.0217
G1 X113.7422
G3 X115.4858 Y-10.9875 I0.0 J2.0
G1 F300.0 X117.3158 Y-10.4156
G3 F800.0 X117.3381 Y-10.0869 I-3.5736 J0.4078
G3 X116.8265 Y-6.7986 I-9.483 J0.2085
G2 X116.925 Y-6.8683 I-8.4899 J-12.1096
G3 X116.9441 Y-6.8818 I2.0906 J2.9308
G2 X120.0923 Y-10.2173 I-6.6051 J-9.3876
G2 X120.2088 Y-10.4156 I-10.9348 J-6.5579
G1 X117.3158
G0 Z3.0
G0 X93.4356 Y-11.7406
G0 Z-1.0
G1 F300.0 Z-4.0
G3 F800.0 X93.0472 Y-13.8 I6.4081 J-2.275
G3 X93.048 Y-14.5687 I11.7257 J-0.372
G2 X92.5046 Y-13.8541 I2.6542 J2.5819
G2 X92.3232 Y-13.0692 I1.5393 J0.7693
G3 X92.3234 Y-12.9929 I-6.7997 J0.0614
G2 X92.7241 Y-11.7974 I1.9706 J0.0043
G3 X92.7526 Y-11.7596 I-5.4172 J4.1102
G2 X93.3037 Y-11.1266 I4.5303 J-3.3879
G3 X93.4356 Y-11.7406 I6.7041 J1.1188
G1 F300.0 X94.9827 Y-11.3327
G3 F800.0 X95.134 Y-11.8114 I5.0251 J1.3249
G3 X94.6464 Y-13.8507 I4.7097 J-2.2042
G3 X95.3437 Y-17.8788 I10.1265 J-0.3213
G2 X94.1205 Y-17.2839 I8.6591 J19.3565
G2 X92.5185 Y-16.2283 I5.5555 J10.1752
G3 X92.4738 Y-16.1936 I-3.2105 J-4.0906
G2 X91.0989 Y-14.6192 I3.2284 J4.2068
G2 X90.7232 Y-13.0548 I2.9451 J1.5345
G3 X90.7234 Y-12.9964 I-5.1998 J0.0469
G2 X91.4495 Y-10.8303 I3.5706 J0.0079
G3 X91.4713 Y-10.8014 I-4.1426 J3.1431
G2 X92.597 Y-9.6062 I5.8117 J-4.3461
G3 X92.6033 Y-9.6008 I-3.3577 J3.9706
G2 X94.2328 Y-8.4228 I8.3935 J-9.8937
G2 X95.0192 Y-7.9691 I9.6805 J-15.8709
G3 X94.8113 Y-10.0643 I9.4028 J-1.9907
G3 X94.9827 Y-11.3327 I5.1965 J0.0565
G1 F300.0 X96.5299 Y-10.9248
G3 F800.0 X96.9407 Y-11.8867 I3.4779 J0.917
G3 X96.2456 Y-13.9015 I2.903 J-2.129
G3 X98.4055 Y-19.8505 I8.5273 J-0.2705
G3 X98.4792 Y-19.9306 I2.6868 J2.3961
G3 X99.5156 Y-20.8816 I7.3116 J6.9284
G2 X93.3644 Y-18.694 I4.4872 J22.3593
G2 X91.5307 Y-17.4869 I6.3116 J11.5853
G3 X91.4997 Y-17.4629 I-2.2226 J-2.8319
G2 X89.6949 Y-15.3871 I4.2024 J5.4762
G2 X89.1233 Y-13.0403 I4.349 J2.3024
G3 X89.1234 Y-12.9999 I-3.5999 J0.0325
G2 X90.1749 Y-9.8632 I5.1706 J0.0114
G3 X90.1899 Y-9.8432 I-2.8679 J2.176
G2 X91.5639 Y-8.3844 I7.093 J-5.3043
G3 X91.5683 Y-8.3807 I-2.3246 J2.7489
G2 X93.3991 Y-7.0571 I9.4286 J-11.1138
G2 X98.1892 Y-4.9318 I10.5142 J-17.2366
G3 X97.4046 Y-6.0959 I6.9467 J-5.5291
G3 X97.371 Y-6.1568 I3.1321 J-1.7683
G3 X96.4112 Y-10.0469 I7.051 J-3.803
G3 X96.5299 Y-10.9248 I3.5966 J0.0391
G1 F300.0 X98.3812 Y-12.6515
G3 F800.0 X97.8448 Y-13.9522 I1.4626 J-1.3641
G3 X99.5996 Y-18.7855 I6.9281 J-0.2198
G3 X99.6405 Y-18.83 I1.4927 J1.3312
G3 X102.5069 Y-20.8128 I6.1502 J5.8279
G3 X102.5135 Y-20.8155 I0.7751 J1.8437
G3 X106.876 Y-21.953 I6.2356 J14.9803
G3 X111.0634 Y-22.2032 I4.0111 J31.9689
G3 X118.8354 Y-21.5135 I0.4814 J38.7102
G3 X118.8497 Y-21.5107 I-0.3766 J1.9642
G3 X120.3651 Y-21.142 I-3.6382 J18.2522
G2 X119.8948 Y-21.3443 I-3.8213 J8.2372
G3 X119.8867 Y-21.3475 I0.738 J-1.8588
G2 X114.0732 Y-22.8508 I-8.6883 J21.6072
G3 X114.0598 Y-22.8525 I0.2469 J-1.9847
G2 X107.8239 Y-23.2422 I-5.9744 J45.5113
G3 X107.7979 I-0.0114 J-2.0
G2 X99.8794 Y-22.5766 I-0.3192 J43.6312
G3 X99.8698 Y-22.5749 I-0.3483 J-1.9694
G2 X92.6086 Y-20.1042 I4.133 J24.0526
G2 X90.5428 Y-18.7456 I7.0674 J12.9956
G3 X90.5256 Y-18.7322 I-1.2348 J-1.5733
G2 X88.2917 Y-16.156 I5.1765 J6.7455
G2 X87.5234 Y-13.0259 I5.7523 J3.0713
G3 Y-13.0034 I-1.9999 J0.0181
G2 X88.9002 Y-8.8961 I6.7706 J0.0149
G3 X88.9086 Y-8.885 I-1.5933 J1.2089
G2 X90.5308 Y-7.1627 I8.3743 J-6.2626
G3 X90.5332 Y-7.1607 I-1.2914 J1.5272
G2 X92.5655 Y-5.6915 I10.4637 J-12.3339
G2 X99.0245 Y-3.0589 I11.3478 J-18.6022
G2 X106.1339 Y-2.2812 I6.8852 J-30.0562
G3 X106.1667 I0.0145 J1.9999
G2 X112.3806 Y-3.0257 I0.2235 J-24.4364
G2 X117.8542 Y-5.5657 I-4.044 J-15.8824
G3 X117.8648 Y-5.5732 I1.1614 J1.6282
G2 X121.4582 Y-9.384 I-7.5258 J-10.6962
G2 X122.6957 Y-12.0156 I-12.3008 J-7.3912
G1 X99.8438
G3 X98.3812 Y-12.6515 I0.0 J-2.0
G0 Z3.0
G0 X141.6828 Y-11.3682
G0 Z1.0
G1 F300.0 Z-2.0
G1 F800.0 Y-11.198
G3 X141.707 Y-11.2428 I5.9969 J3.2059
G3 X141.6828 Y-11.3682 I15.2205 J-2.9974
G1 F300.0 X143.2552 Y-11.6644
G3 F800.0 X143.0188 Y-14.5784 I13.6723 J-2.5758
G1 Y-18.1406
G3 X143.0607 Y-18.8 I5.2 J0.0
G1 X140.0408
G3 X140.0828 Y-18.1406 I-5.158 J0.6594
G1 Y-7.4766
G3 X139.9827 Y-6.4611 I-5.2 J0.0
G1 X142.4797 Y-6.4022
G1 Y-7.9922
G3 X143.4076 Y-10.9569 I5.2 J0.0
G3 X143.2552 Y-11.6644 I13.5198 J-3.2833
G1 F300.0 X144.8275 Y-11.9606
G3 F800.0 X144.6188 Y-14.5583 I12.0999 J-2.2796
G1 Y-18.1406
G3 X145.416 Y-20.4 I3.6 J0.0
G1 X137.6855
G3 X138.4828 Y-18.1406 I-2.8027 J2.2594
G1 Y-7.4766
G3 X137.4185 Y-4.9211 I-3.6 J0.0
G1 X144.0797 Y-4.764
G1 Y-7.9922
G3 X145.1726 Y-10.5757 I3.6 J0.0
G3 X144.8275 Y-11.9606 I11.7548 J-3.6645
G1 F300.0 X146.3998 Y-12.2568
G3 F800.0 X146.2188 Y-14.537 I10.5276 J-1.9833
G1 Y-18.1406
G3 X147.2557 Y-19.8935 I2.0 J0.0
G1 X151.0895 Y-22.0
G1 X132.5769
G1 X135.9641 Y-19.8231
G3 X136.8828 Y-18.1406 I-1.0813 J1.6825
G1 Y-7.4766
G3 X135.9711 Y-5.7986 I-2.0 J0.0
G1 X132.3353 Y-3.4405
G1 X145.6797 Y-3.1258
G1 Y-7.9922
G3 X147.1269 Y-9.9143 I2.0 J0.0
G3 X146.3998 Y-12.2568 I9.8005 J-4.3259
G0 Z3.0
G0 X141.6828 Y-11.3682
G0 Z-1.0
G1 F300.0 Z-4.0
G1 F800.0 Y-11.198
G3 X141.707 Y-11.2428 I5.9969 J3.2059
G3 X141.6828 Y-11.3682 I15.2205 J-2.9974
G1 F300.0 X143.2552 Y-11.6644
G3 F800.0 X143.0188 Y-14.5784 I13.6723 J-2.5758
G1 Y-18.1406
G3 X143.0607 Y-18.8 I5.2 J0.0
G1 X140.0408
G3 X140.0828 Y-18.1406 I-5.158 J0.6594
G1 Y-7.4766
G3 X139.9827 Y-6.4611 I-5.2 J0.0
G1 X142.4797 Y-6.4022
G1 Y-7.9922
G3 X143.4076 Y-10.9569 I5.2 J0.0
G3 X143.2552 Y-11.6644 I13.5198 J-3.2833
G1 F300.0 X144.8275 Y-11.9606
G3 F800.0 X144.6188 Y-14.5583 I12.0999 J-2.2796
G1 Y-18.1406
G3 X145.416 Y-20.4 I3.6 J0.0
G1 X137.6855
G3 X138.4828 Y-18.1406 I-2.8027 J2.2594
G1 Y-7.4766
G3 X137.4185 Y-4.9211 I-3.6 J0.0
G1 X144.0797 Y-4.764
G1 Y-7.9922
G3 X145.1726 Y-10.5757 I3.6 J0.0
G3 X144.8275 Y-11.9606 I11.7548 J-3.6645
G1 F300.0 X146.3998 Y-12.2568
G3 F800.0 X146.2188 Y-14.537 I10.5276 J-1.9833
G1 Y-18.1406
G3 X147.2557 Y-19.8935 I2.0 J0.0
G1 X151.0895 Y-22.0
G1 X132.5769
G1 X135.9641 Y-19.8231
G3 X136.8828 Y-18.1406 I-1.0813 J1.6825
G1 Y-7.4766
G3 X135.9711 Y-5.7986 I-2.0 J0.0
G1 X132.3353 Y-3.4405
G1 X145.6797 Y-3.1258
G1 Y-7.9922
G3 X147.1269 Y-9.9143 I2.0 J0.0
G3 X146.3998 Y-12.2568 I9.8005 J-4.3259
G0 Z3.0
G0 X163.4669 Y-7.7527
G0 Z1.0
G1 F300.0 Z-2.0
G3 F800.0 X163.3055 Y-6.996 I-8.8281 J-1.4868
G2 X164.0902 Y-7.4027 I-2.694 J-6.1587
G3 X164.1817 Y-7.4567 I2.691 J4.4495
G2 X164.4106 Y-7.6128 I-0.9254 J-1.6032
G2 X164.293 Y-7.6353 I-0.4687 J2.1257
G3 X164.2273 Y-7.6465 I0.8388 J-5.1319
G2 X163.4669 Y-7.7527 I-1.848 J10.4616
G1 F300.0 X161.8891 Y-8.0184
G3 F800.0 X161.6119 Y-6.9086 I-7.2503 J-1.2211
G3 X161.6051 Y-6.8883 I-3.4143 J-1.1413
G3 X160.2898 Y-4.721 I-5.5742 J-1.9001
G2 X162.2763 Y-5.0007 I-1.1587 J-15.4195
G3 X162.2847 Y-5.0025 I0.7322 J3.5247
G2 X164.9182 Y-6.0336 I-1.6732 J-8.1522
G3 X164.9815 Y-6.071 I1.863 J3.0805
G2 X166.0244 Y-6.999 I-1.7253 J-2.989
G2 X166.2283 Y-7.6959 I-1.0436 J-0.6836
G3 X166.2294 Y-7.8317 I3.5998 J-0.0385
G2 X166.074 Y-8.5424 I-1.5156 J-0.041
G2 X165.907 Y-8.7124 I-0.55 J0.3736
G2 X164.5511 Y-9.2144 I-1.9651 J3.2253
G3 X164.5056 Y-9.2221 I0.5807 J-3.5529
G2 X162.295 Y-9.4082 I-2.1263 J12.0372
G2 X161.9894 Y-9.3986 I0.7546 J28.8693
G3 X161.9901 Y-9.3673 I-3.5988 J0.0939
G3 X161.8891 Y-8.0184 I-7.3513 J0.1278
G1 F300.0 X160.3113 Y-8.2841
G3 F800.0 X160.0945 Y-7.4158 I-5.6725 J-0.9553
G3 X160.0907 Y-7.4046 I-1.8968 J-0.634
G3 X157.7067 Y-4.8402 I-4.0598 J-1.3839
G3 X157.674 Y-4.8267 I-0.7814 J-1.841
G3 X155.0641 Y-4.3515 I-2.4558 J-6.0829
G3 X153.7502 Y-4.4549 I-0.0179 J-8.1697
G2 X154.7206 Y-3.9444 I5.4204 J-9.1271
G2 X158.9553 Y-3.078 I4.1259 J-9.3837
G3 X158.9928 Y-3.0781 I0.0212 J1.9999
G2 X162.6017 Y-3.4342 I0.1383 J-17.0624
G3 X162.6064 Y-3.4352 I0.4068 J1.9582
G2 X165.7462 Y-4.6645 I-1.9949 J-9.7195
G3 X165.7814 Y-4.6853 I1.035 J1.7114
G2 X167.3332 Y-6.0779 I-2.5252 J-4.3747
G2 X167.8282 Y-7.713 I-2.3524 J-1.6047
G3 X167.8289 Y-7.7884 I1.9999 J-0.0214
G2 X167.4651 Y-9.3358 I-3.115 J-0.0842
G2 X166.7751 Y-10.0568 I-1.9411 J1.167
G2 X164.8092 Y-10.7934 I-2.8332 J4.5697
G3 X164.784 Y-10.7977 I0.3226 J-1.9738
G2 X162.2684 Y-11.008 I-2.4047 J13.6128
G2 X160.1368 Y-10.8785 I0.7813 J30.4692
G3 X160.3884 Y-9.398 I-5.9291 J1.7693
G3 X160.3903 Y-9.3395 I-1.9978 J0.0933
G3 X160.3113 Y-8.2841 I-5.7515 J0.1
G0 Z3.0
G0 X163.4669 Y-7.7527
G0 Z-1.0
G1 F300.0 Z-4.0
G3 F800.0 X163.3055 Y-6.996 I-8.8281 J-1.4868
G2 X164.0902 Y-7.4027 I-2.694 J-6.1587
G3 X164.1817 Y-7.4567 I2.691 J4.4495
G2 X164.4106 Y-7.6128 I-0.9254 J-1.6032
G2 X164.293 Y-7.6353 I-0.4687 J2.1257
G3 X164.2273 Y-7.6465 I0.8388 J-5.1319
G2 X163.4669 Y-7.7527 I-1.848 J10.4616
G1 F300.0 X161.8891 Y-8.0184
G3 F800.0 X161.6119 Y-6.9086 I-7.2503 J-1.2211
G3 X161.6051 Y-6.8883 I-3.4143 J-1.1413
G3 X160.2898 Y-4.721 I-5.5742 J-1.9001
G2 X162.2763 Y-5.0007 I-1.1587 J-15.4195
G3 X162.2847 Y-5.0025 I0.7322 J3.5247
G2 X164.9182 Y-6.0336 I-1.6732 J-8.1522
G3 X164.9815 Y-6.071 I1.863 J3.0805
G2 X166.0244 Y-6.999 I-1.7253 J-2.989
G2 X166.2283 Y-7.6959 I-1.0436 J-0.6836
G3 X166.2294 Y-7.8317 I3.5998 J-0.0385
G2 X166.074 Y-8.5424 I-1.5156 J-0.041
G2 X165.907 Y-8.7124 I-0.55 J0.3736
G2 X164.5511 Y-9.2144 I-1.9651 J3.2253
G3 X164.5056 Y-9.2221 I0.5807 J-3.5529
G2 X162.295 Y-9.4082 I-2.1263 J12.0372
G2 X161.9894 Y-9.3986 I0.7546 J28.8693
G3 X161.9901 Y-9.3673 I-3.5988 J0.0939
G3 X161.8891 Y-8.0184 I-7.3513 J0.1278
G1 F300.0 X160.3113 Y-8.2841
G3 F800.0 X160.0945 Y-7.4158 I-5.6725 J-0.9553
G3 X160.0907 Y-7.4046 I-1.8968 J-0.634
G3 X157.7067 Y-4.8402 I-4.0598 J-1.3839
G3 X157.674 Y-4.8267 I-0.7814 J-1.841
G3 X155.0641 Y-4.3515 I-2.4558 J-6.0829
G3 X153.7502 Y-4.4549 I-0.0179 J-8.1697
G2 X154.7206 Y-3.9444 I5.4204 J-9.1271
G2 X158.9553 Y-3.078 I4.1259 J-9.3837
G3 X158.9928 Y-3.0781 I0.0212 J1.9999
G2 X162.6017 Y-3.4342 I0.1383 J-17.0624
G3 X162.6064 Y-3.4352 I0.4068 J1.9582
G2 X165.7462 Y-4.6645 I-1.9949 J-9.7195
G3 X165.7814 Y-4.6853 I1.035 J1.7114
G2 X167.3332 Y-6.0779 I-2.5252 J-4.3747
G2 X167.8282 Y-7.713 I-2.3524 J-1.6047
G3 X167.8289 Y-7.7884 I1.9999 J-0.0214
G2 X167.4651 Y-9.3358 I-3.115 J-0.0842
G2 X166.7751 Y-10.0568 I-1.9411 J1.167
G2 X164.8092 Y-10.7934 I-2.8332 J4.5697
G3 X164.784 Y-10.7977 I0.3226 J-1.9738
G2 X162.2684 Y-11.008 I-2.4047 J13.6128
G2 X160.1368 Y-10.8785 I0.7813 J30.4692
G3 X160.3884 Y-9.398 I-5.9291 J1.7693
G3 X160.3903 Y-9.3395 I-1.9978 J0.0933
G3 X160.3113 Y-8.2841 I-5.7515 J0.1
G0 Z3.0
G0 X173.0531 Y-12.2016
G0 Z1.0
G1 F300.0 Z-2.0
G1 F800.0 X187.1578
G1 Y-12.9938
G1 X173.0531
G1 Y-12.2016
G1 F300.0 X171.4531
G1 F800.0 Y-10.6016
G1 X188.7578
G1 Y-14.5938
G1 X171.4531
G1 Y-12.2016
G1 F300.0 X173.0531
G1 Z-4.0
G1 F800.0 X187.1578
G1 Y-12.9938
G1 X173.0531
G1 Y-12.2016
G1 F300.0 X171.4531
G1 F800.0 Y-10.6016
G1 X188.7578
G1 Y-14.5938
G1 X171.4531
G1 Y-12.2016
G0 Z3.0
G0 X211.2281 Y-8.7968
G0 Z1.0
G1 F300.0 Z-2.0
G1 F800.0 Y-6.7188
G3 X211.5737 Y-7.7578 I8.1234 J2.1251
G3 X211.2281 Y-8.7968 I7.7779 J-3.1641
G1 F300.0 X212.776 Y-9.2017
G3 F800.0 X212.5548 Y-10.9219 I6.5755 J-1.7202
G1 Y-17.2
G1 X209.607
G3 X209.6281 Y-16.6641 I-6.7788 J0.5359
G1 Y0.5156
G3 X209.5944 Y1.1922 I-6.8 J0.0
G1 X212.5548
G1 Y-4.5938
G3 X213.3361 Y-7.7578 I6.7968 J0.0
G3 X212.776 Y-9.2017 I6.0154 J-3.1641
G1 F300.0 X214.3239 Y-9.6067
G3 F800.0 X214.1548 Y-10.9219 I5.0276 J-1.3152
G1 Y-18.3281
G3 X214.1762 Y-18.8 I5.1968 J0.0
G1 X207.5692
G3 X208.0281 Y-16.6641 I-4.7411 J2.1359
G1 Y0.5156
G3 X207.5033 Y2.7922 I-5.2 J0.0
G1 X214.1762
G3 X214.1548 Y2.3203 I5.1753 J-0.4719
G1 Y-4.5938
G3 X215.229 Y-7.7578 I5.1968 J0.0
G3 X214.3239 Y-9.6067 I4.1226 J-3.1641
G1 F300.0 X215.8719 Y-10.0116
G3 F800.0 X215.7548 Y-10.9219 I3.4797 J-0.9103
G1 Y-18.3281
G3 X216.4114 Y-20.4 I3.5968 J0.0
G1 X203.6427
G1 X204.7356 Y-19.7172
G3 X206.4281 Y-16.6641 I-1.9074 J3.0531
G1 Y0.5156
G3 X204.7617 Y3.5523 I-3.6 J0.0
G1 X203.4426 Y4.3922
G1 X216.4114
G3 X215.7548 Y2.3203 I2.9401 J-2.0719
G1 Y-4.5938
G3 X217.6411 Y-7.7578 I3.5968 J0.0
G3 X215.8719 Y-10.0116 I1.7105 J-3.1641
G0 Z3.0
G0 X236.96 Y-7.6123
G0 Z1.0
G1 F300.0 Z-2.0
G3 F800.0 X237.1506 Y-7.5449 I-3.0171 J8.8376
G3 X237.1546 Y-7.6585 I3.5994 J0.0683
G3 X236.96 Y-7.6123 I-2.7627 J-11.2079
G0 Z3.0
G0 X244.8665 Y0.077
G0 Z1.0
G1 F300.0 Z-2.0
G3 F800.0 X244.8188 Y0.409 I-10.0147 J-1.2695
G2 X245.45 Y0.2176 I-4.0827 J-14.6003
G2 X244.8665 Y0.077 I-5.2549 J20.5295
G1 F300.0 X243.2792 Y-0.1242
G3 F800.0 X242.5076 Y2.4887 I-8.4274 J-1.0683
G2 X243.2412 Y2.3809 I-4.5045 J-33.1894
G3 X243.2687 Y2.3766 I0.8132 J5.136
G2 X247.8839 Y0.9685 I-2.5326 J-16.568
G3 X247.9375 Y0.9436 I2.2176 J4.7034
G2 X249.3864 Y-0.023 I-2.2883 J-4.9996
G2 X248.3017 Y-0.5538 I-3.3277 J5.4262
G3 X248.2877 Y-0.5592 I1.8323 J-4.8665
G2 X244.5186 Y-1.6304 I-8.0926 J21.3062
G3 X244.4878 Y-1.6365 I0.9864 J-5.1056
G2 X243.3361 Y-1.8527 I-10.0873 J50.5668
G3 X243.3465 Y-1.2498 I-7.8944 J0.4369
G3 X243.2792 Y-0.1242 I-8.4946 J0.0573
G1 F300.0 X241.6919 Y-0.3254
G3 F800.0 X240.714 Y2.4371 I-6.8401 J-0.8671
G3 X240.6487 Y2.5386 I-3.0581 J-1.8934
G3 X238.8044 Y4.3839 I-5.5399 J-3.6929
G2 X243.4914 Y3.9612 I-0.8013 J-35.0846
G3 X243.5105 Y3.9582 I0.563 J3.5557
G2 X248.5663 Y2.4157 I-2.7743 J-18.1496
G3 X248.6033 Y2.3985 I1.5353 J3.2562
G2 X250.7661 Y0.8637 I-2.9542 J-6.4544
G2 X251.2594 Y-0.3937 I-1.3499 J-1.255
G3 Y-0.4129 I3.6 J-0.0047
G2 X251.2221 Y-0.5475 I-0.2578 J-0.001
G2 X250.7957 Y-1.0005 I-1.6163 J1.094
G2 X248.8655 Y-2.0512 I-4.7369 J6.4037
G3 X248.8558 Y-2.0549 I1.2685 J-3.3691
G2 X244.8221 Y-3.2014 I-8.6608 J22.802
G3 X244.8008 Y-3.2056 I0.6829 J-3.5346
G2 X241.2862 Y-3.785 I-10.4003 J52.1359
G3 X241.7463 Y-1.2613 I-5.8445 J2.3692
G3 X241.6919 Y-0.3254 I-6.8945 J0.0688
G0 Z3.0
G0 X245.9443 Y-15.3141
G0 Z1.0
G1 F300.0 Z-2.0
G2 F800.0 X247.1921 Y-15.6577 I-8.371 J-32.8376
G1 X247.1926 Y-15.6578
G2 X248.5811 Y-16.1298 I-5.2149 J-17.6222
G2 X245.7771 Y-16.7084 I-7.1803 J27.7114
G3 X245.9443 Y-15.3141 I-9.3887 J1.8332
G1 F300.0 X246.3395 Y-13.7637
G2 F800.0 X247.6462 Y-14.1235 I-8.7662 J-34.388
G1 X247.6466 Y-14.1236
G2 X249.7515 Y-14.877 I-5.6689 J-19.1564
G3 X249.844 Y-14.915 I2.0235 J4.7902
G2 X251.8873 Y-16.1678 I-2.637 J-6.5937
G2 X251.9751 Y-16.2734 I-0.5628 J-0.557
G2 X251.6848 Y-16.541 I-1.0586 J0.8574
G2 X249.2203 Y-17.616 I-4.6813 J7.3697
G3 X249.1991 Y-17.6216 I1.3203 J-5.0296
G2 X243.7298 Y-18.555 I-7.7983 J29.2033
G3 X243.6942 Y-18.5579 I0.4007 J-5.1845
G2 X243.4411 Y-18.5788 I-5.7745 J68.5897
G3 X244.3538 Y-14.7751 I-7.0527 J3.7035
G3 X244.2501 Y-13.2972 I-9.4399 J0.0808
G2 X244.5158 Y-13.3496 I-11.6226 J-59.5774
G3 X244.5168 Y-13.3498 I1.0184 J5.0993
G2 X246.3395 Y-13.7637 I-6.9434 J-34.8018
G1 F300.0 X246.7348 Y-12.2133
G2 F800.0 X248.1003 Y-12.5893 I-9.1614 J-35.9384
G1 X248.1006 Y-12.5894
G2 X250.3742 Y-13.4031 I-6.1229 J-20.6906
G3 X250.4382 Y-13.4294 I1.4009 J3.3163
G2 X252.975 Y-14.9937 I-3.2312 J-8.0793
G2 X253.4618 Y-15.651 I-1.6504 J-1.7311
G2 X253.5797 Y-16.1999 I-1.1863 J-0.542
G3 X253.58 Y-16.269 I3.6 J-0.0189
G2 X253.3402 Y-17.1192 I-1.5503 J-0.0216
G2 X252.5618 Y-17.8794 I-2.4237 J1.7031
G2 X249.6266 Y-19.1636 I-5.5583 J8.7081
G3 X249.6119 Y-19.1674 I0.9141 J-3.482
G2 X243.8531 Y-20.1503 I-8.2111 J30.7491
G3 X243.8285 Y-20.1523 I0.2774 J-3.5893
G2 X239.6016 Y-20.3805 I-5.9087 J70.184
G3 X240.8847 Y-19.3795 I-4.2339 J6.7501
G3 X240.9997 Y-19.264 I-2.4904 J2.5952
G3 X242.7537 Y-14.7785 I-4.6113 J4.3888
G3 X242.116 Y-11.5962 I-7.8398 J0.0842
G3 X242.0566 Y-11.4654 I-3.3041 J-1.4213
G3 X241.9632 Y-11.2775 I-6.2005 J-2.966
G2 X244.8291 Y-11.7806 I-9.3357 J-61.5971
G3 X244.8298 Y-11.7808 I0.7051 J3.5303
G2 X246.7348 Y-12.2133 I-7.2565 J-36.3709
G1 F300.0 X247.13 Y-10.6629
G2 F800.0 X248.5545 Y-11.0551 I-9.5567 J-37.4888
G1 X248.5546
G2 X250.9968 Y-11.9292 I-6.5769 J-22.2249
G3 X251.0323 Y-11.9438 I0.7783 J1.8424
G2 X254.0558 Y-13.8136 I-3.8253 J-9.5649
G2 X254.9037 Y-14.9572 I-2.7312 J-2.9112
G2 X255.1797 Y-16.2083 I-2.6282 J-1.2358
G3 X255.1799 Y-16.2466 I2.0 J-0.0105
G2 X254.6701 Y-18.0093 I-3.1502 J-0.0439
G2 X253.4356 Y-19.2198 I-3.7536 J2.5933
G2 X250.0328 Y-20.7111 I-6.4321 J10.0485
G3 X250.0247 Y-20.7133 I0.5078 J-1.9345
G2 X243.9764 Y-21.7455 I-8.6239 J32.2949
G3 X243.9627 Y-21.7466 I0.1541 J-1.9941
G2 X237.6406 Y-22.0 I-6.0429 J71.7784
G3 X237.6328 I-0.0078 J-2.0
G1 X198.0619
G1 X203.8878 Y-18.3602
G3 X204.8281 Y-16.6641 I-1.0597 J1.6962
G1 Y0.5156
G3 X203.9023 Y2.2027 I-2.0 J0.0
G1 X197.9508 Y5.9922
G1 X237.75
G3 X237.7631 I0.0 J2.0
G2 X243.7417 Y5.5415 I0.24 J-36.6929
G3 X243.7522 Y5.5399 I0.3128 J1.9754
G2 X249.2486 Y3.8629 I-3.0161 J-19.7312
G3 X249.2692 Y3.8533 I0.8529 J1.809
G2 X251.9278 Y1.964 I-3.6201 J-7.9093
G2 X252.8594 Y-0.3958 I-2.5116 J-2.3553
G3 Y-0.4065 I2.0 J-0.0026
G2 X252.5622 Y-1.4219 I-1.8578 J-0.0074
G2 X251.7581 Y-2.2788 I-2.9564 J1.9685
G2 X249.4293 Y-3.5486 I-5.6993 J7.682
G3 X249.4239 Y-3.5506 I0.7047 J-1.8717
G2 X245.1256 Y-4.7723 I-9.2289 J24.2977
G3 X245.1138 Y-4.7747 I0.3794 J-1.9637
G2 X240.5263 Y-5.4891 I-10.7133 J53.705
G3 X240.5035 Y-9.4613 I0.2237 J-1.9874
G2 X245.1425 Y-10.2116 I-7.876 J-63.4133
G3 X245.1429 Y-10.2117 I0.3917 J1.9613
G2 X247.13 Y-10.6629 I-7.5695 J-37.94
G0 Z3.0
G0 X240.8428 Y-12.7377
G0 Z1.0
G1 F300.0 Z-2.0
G3 F800.0 X240.6492 Y-12.2272 I-5.9289 J-1.9566
G3 X240.6162 Y-12.1545 I-1.8372 J-0.7903
G3 X237.4162 Y-9.3907 I-4.76 J-2.2769
G3 X234.1894 Y-8.9219 I-3.0242 J-9.4756
G1 X219.3516
G3 X217.3516 Y-10.9219 I0.0 J-2.0
G1 Y-18.3281
G3 X219.3516 Y-20.3281 I2.0 J0.0
G1 X232.5234
G3 X237.0658 Y-19.7711 I0.3601 J15.8635
G3 X237.0744 Y-19.7687 I-0.5272 J1.9293
G3 X239.7791 Y-18.2274 I-1.7067 J6.1384
G3 X239.843 Y-18.1632 I-1.3848 J1.4431
G3 X241.1567 Y-14.7824 I-3.4546 J3.288
G3 X240.8428 Y-12.7377 I-6.2428 J0.088
G0 Z3.0
G0 X237.3725 Y-5.7151
G0 Z1.0
G1 F300.0 Z-2.0
G3 F800.0 X238.0217 Y-5.3546 I-3.4297 J6.9405
G3 X238.0944 Y-5.3073 I-1.0537 J1.6999
G3 X240.1492 Y-1.2731 I-2.6527 J3.8916
G3 X239.3564 Y1.5965 I-5.2974 J0.0806
G3 X239.3201 Y1.653 I-1.7005 J-1.0528
G3 X237.6367 Y3.2304 I-4.2112 J-2.8072
G3 X237.6121 Y3.2443 I-0.9989 J-1.7327
G3 X234.9855 Y4.1405 I-3.7753 J-6.7676
G3 X232.6093 Y4.3203 I-2.2672 J-14.1736
G1 X219.3516
G3 X217.3516 Y2.3203 I0.0 J-2.0
G1 Y-4.5938
G3 X219.3516 Y-6.5938 I2.0 J0.0
G1 X232.7293
G3 X234.6736 Y-6.4818 I0.0769 J15.5976
G3 X237.3725 Y-5.7151 I-0.7307 J7.7071
G1 F300.0 Z-4.0
G3 F800.0 X238.0217 Y-5.3546 I-3.4297 J6.9405
G3 X238.0944 Y-5.3073 I-1.0537 J1.6999
G3 X240.1492 Y-1.2731 I-2.6527 J3.8916
G3 X239.3564 Y1.5965 I-5.2974 J0.0806
G3 X239.3201 Y1.653 I-1.7005 J-1.0528
G3 X237.6367 Y3.2304 I-4.2112 J-2.8072
G3 X237.6121 Y3.2443 I-0.9989 J-1.7327
G3 X234.9855 Y4.1405 I-3.7753 J-6.7676
G3 X232.6093 Y4.3203 I-2.2672 J-14.1736
G1 X219.3516
G3 X217.3516 Y2.3203 I0.0 J-2.0
G1 Y-4.5938
G3 X219.3516 Y-6.5938 I2.0 J0.0
G1 X232.7293
G3 X234.6736 Y-6.4818 I0.0769 J15.5976
G3 X237.3725 Y-5.7151 I-0.7307 J7.7071
G1 F300.0 X237.1506 Y-7.5449
G3 F800.0 X237.1546 Y-7.6585 I3.5994 J0.0683
G3 X236.96 Y-7.6123 I-2.7627 J-11.2079
G3 X237.1506 Y-7.5449 I-3.0171 J8.8376
G0 Z3.0
G0 X244.8665 Y0.077
G0 Z-1.0
G1 F300.0 Z-4.0
G3 F800.0 X244.8188 Y0.409 I-10.0147 J-1.2695
G2 X245.45 Y0.2176 I-4.0827 J-14.6003
G2 X244.8665 Y0.077 I-5.2549 J20.5295
G1 F300.0 X243.2792 Y-0.1242
G3 F800.0 X242.5076 Y2.4887 I-8.4274 J-1.0683
G2 X243.2412 Y2.3809 I-4.5045 J-33.1894
G3 X243.2687 Y2.3766 I0.8132 J5.136
G2 X247.8839 Y0.9685 I-2.5326 J-16.568
G3 X247.9375 Y0.9436 I2.2176 J4.7034
G2 X249.3864 Y-0.023 I-2.2883 J-4.9996
G2 X248.3017 Y-0.5538 I-3.3277 J5.4262
G3 X248.2877 Y-0.5592 I1.8323 J-4.8665
G2 X244.5186 Y-1.6304 I-8.0926 J21.3062
G3 X244.4878 Y-1.6365 I0.9864 J-5.1056
G2 X243.3361 Y-1.8527 I-10.0873 J50.5668
G3 X243.3465 Y-1.2498 I-7.8944 J0.4369
G3 X243.2792 Y-0.1242 I-8.4946 J0.0573
G1 F300.0 X241.6919 Y-0.3254
G3 F800.0 X240.714 Y2.4371 I-6.8401 J-0.8671
G3 X240.6487 Y2.5386 I-3.0581 J-1.8934
G3 X238.8044 Y4.3839 I-5.5399 J-3.6929
G2 X243.4914 Y3.9612 I-0.8013 J-35.0846
G3 X243.5105 Y3.9582 I0.563 J3.5557
G2 X248.5663 Y2.4157 I-2.7743 J-18.1496
G3 X248.6033 Y2.3985 I1.5353 J3.2562
G2 X250.7661 Y0.8637 I-2.9542 J-6.4544
G2 X251.2594 Y-0.3937 I-1.3499 J-1.255
G3 Y-0.4129 I3.6 J-0.0047
G2 X251.2221 Y-0.5475 I-0.2578 J-0.001
G2 X250.7957 Y-1.0005 I-1.6163 J1.094
G2 X248.8655 Y-2.0512 I-4.7369 J6.4037
G3 X248.8558 Y-2.0549 I1.2685 J-3.3691
G2 X244.8221 Y-3.2014 I-8.6608 J22.802
G3 X244.8008 Y-3.2056 I0.6829 J-3.5346
G2 X241.2862 Y-3.785 I-10.4003 J52.1359
G3 X241.7463 Y-1.2613 I-5.8445 J2.3692
G3 X241.6919 Y-0.3254 I-6.8945 J0.0688
G0 Z3.0
G0 X245.9443 Y-15.3141
G0 Z-1.0
G1 F300.0 Z-4.0
G2 F800.0 X247.1921 Y-15.6577 I-8.371 J-32.8376
G1 X247.1926 Y-15.6578
G2 X248.5811 Y-16.1298 I-5.2149 J-17.6222
G2 X245.7771 Y-16.7084 I-7.1803 J27.7114
G3 X245.9443 Y-15.3141 I-9.3887 J1.8332
G1 F300.0 X246.3395 Y-13.7637
G2 F800.0 X247.6462 Y-14.1235 I-8.7662 J-34.388
G1 X247.6466 Y-14.1236
G2 X249.7515 Y-14.877 I-5.6689 J-19.1564
G3 X249.844 Y-14.915 I2.0235 J4.7902
G2 X251.8873 Y-16.1678 I-2.637 J-6.5937
G2 X251.9751 Y-16.2734 I-0.5628 J-0.557
G2 X251.6848 Y-16.541 I-1.0586 J0.8574
G2 X249.2203 Y-17.616 I-4.6813 J7.3697
G3 X249.1991 Y-17.6216 I1.3203 J-5.0296
G2 X243.7298 Y-18.555 I-7.7983 J29.2033
G3 X243.6942 Y-18.5579 I0.4007 J-5.1845
G2 X243.4411 Y-18.5788 I-5.7745 J68.5897
G3 X244.3538 Y-14.7751 I-7.0527 J3.7035
G3 X244.2501 Y-13.2972 I-9.4399 J0.0808
G2 X244.5158 Y-13.3496 I-11.6226 J-59.5774
G3 X244.5168 Y-13.3498 I1.0184 J5.0993
G2 X246.3395 Y-13.7637 I-6.9434 J-34.8018
G1 F300.0 X246.7348 Y-12.2133
G2 F800.0 X248.1003 Y-12.5893 I-9.1614 J-35.9384
G1 X248.1006 Y-12.5894
G2 X250.3742 Y-13.4031 I-6.1229 J-20.6906
G3 X250.4382 Y-13.4294 I1.4009 J3.3163
G2 X252.975 Y-14.9937 I-3.2312 J-8.0793
G2 X253.4618 Y-15.651 I-1.6504 J-1.7311
G2 X253.5797 Y-16.1999 I-1.1863 J-0.542
G3 X253.58 Y-16.269 I3.6 J-0.0189
G2 X253.3402 Y-17.1192 I-1.5503 J-0.0216
G2 X252.5618 Y-17.8794 I-2.4237 J1.7031
G2 X249.6266 Y-19.1636 I-5.5583 J8.7081
G3 X249.6119 Y-19.1674 I0.9141 J-3.482
G2 X243.8531 Y-20.1503 I-8.2111 J30.7491
G3 X243.8285 Y-20.1523 I0.2774 J-3.5893
G2 X239.6016 Y-20.3805 I-5.9087 J70.184
G3 X240.8847 Y-19.3795 I-4.2339 J6.7501
G3 X240.9997 Y-19.264 I-2.4904 J2.5952
G3 X242.7537 Y-14.7785 I-4.6113 J4.3888
G3 X242.116 Y-11.5962 I-7.8398 J0.0842
G3 X242.0566 Y-11.4654 I-3.3041 J-1.4213
G3 X241.9632 Y-11.2775 I-6.2005 J-2.966
G2 X244.8291 Y-11.7806 I-9.3357 J-61.5971
G3 X244.8298 Y-11.7808 I0.7051 J3.5303
G2 X246.7348 Y-12.2133 I-7.2565 J-36.3709
G0 Z3.0
G0 X211.5737 Y-7.7578
G0 Z-1.0
G1 F300.0 Z-4.0
G3 F800.0 X211.2281 Y-8.7968 I7.7779 J-3.1641
G1 Y-6.7188
G3 X211.5737 Y-7.7578 I8.1234 J2.1251
G1 F300.0 X213.0558 Y-8.3607
G3 F800.0 X212.5548 Y-10.9219 I6.2958 J-2.5612
G1 Y-17.2
G1 X209.607
G3 X209.6281 Y-16.6641 I-6.7788 J0.5359
G1 Y0.5156
G3 X209.5944 Y1.1922 I-6.8 J0.0
G1 X212.5548
G1 Y-4.5938
G3 X213.3361 Y-7.7578 I6.7968 J0.0
G3 X213.0558 Y-8.3607 I6.0154 J-3.1641
G1 F300.0 X214.5378 Y-8.9636
G3 F800.0 X214.1548 Y-10.9219 I4.8137 J-1.9582
G1 Y-18.3281
G3 X214.1762 Y-18.8 I5.1968 J0.0
G1 X207.5692
G3 X208.0281 Y-16.6641 I-4.7411 J2.1359
G1 Y0.5156
G3 X207.5033 Y2.7922 I-5.2 J0.0
G1 X214.1762
G3 X214.1548 Y2.3203 I5.1753 J-0.4719
G1 Y-4.5938
G3 X215.229 Y-7.7578 I5.1968 J0.0
G3 X214.5378 Y-8.9636 I4.1226 J-3.1641
G1 F300.0 X216.0199 Y-9.5665
G3 F800.0 X215.7548 Y-10.9219 I3.3317 J-1.3553
G1 Y-18.3281
G3 X216.4114 Y-20.4 I3.5968 J0.0
G1 X203.6427
G1 X204.7356 Y-19.7172
G3 X206.4281 Y-16.6641 I-1.9074 J3.0531
G1 Y0.5156
G3 X204.7617 Y3.5523 I-3.6 J0.0
G1 X203.4426 Y4.3922
G1 X216.4114
G3 X215.7548 Y2.3203 I2.9401 J-2.0719
G1 Y-4.5938
G3 X217.6411 Y-7.7578 I3.5968 J0.0
G3 X216.0199 Y-9.5665 I1.7105 J-3.1641
G0 Z3.0
G0 X204.8281
G0 Z-1.0
G1 F300.0 Z-4.0
G1 F800.0 Y0.5156
G3 X203.9023 Y2.2027 I-2.0 J0.0
G1 X197.9508 Y5.9922
G1 X237.75
G3 X237.7631 I0.0 J2.0
G2 X243.7417 Y5.5415 I0.24 J-36.6929
G3 X243.7522 Y5.5399 I0.3128 J1.9754
G2 X249.2486 Y3.8629 I-3.0161 J-19.7312
G3 X249.2692 Y3.8533 I0.8529 J1.809
G2 X251.9278 Y1.964 I-3.6201 J-7.9093
G2 X252.8594 Y-0.3958 I-2.5116 J-2.3553
G3 Y-0.4065 I2.0 J-0.0026
G2 X252.5622 Y-1.4219 I-1.8578 J-0.0074
G2 X251.7581 Y-2.2788 I-2.9564 J1.9685
G2 X249.4293 Y-3.5486 I-5.6993 J7.682
G3 X249.4239 Y-3.5506 I0.7047 J-1.8717
G2 X245.1256 Y-4.7723 I-9.2289 J24.2977
G3 X245.1138 Y-4.7747 I0.3794 J-1.9637
G2 X240.5263 Y-5.4891 I-10.7133 J53.705
G3 X240.5035 Y-9.4613 I0.2237 J-1.9874
G2 X245.1425 Y-10.2116 I-7.876 J-63.4133
G3 X245.1429 Y-10.2117 I0.3917 J1.9613
G2 X248.5545 Y-11.0551 I-7.5695 J-37.94
G1 X248.5546
G2 X250.9968 Y-11.9292 I-6.5769 J-22.2249
G3 X251.0323 Y-11.9438 I0.7783 J1.8424
G2 X254.0558 Y-13.8136 I-3.8253 J-9.5649
G2 X254.9037 Y-14.9572 I-2.7312 J-2.9112
G2 X255.1797 Y-16.2083 I-2.6282 J-1.2358
G3 X255.1799 Y-16.2466 I2.0 J-0.0105
G2 X254.6701 Y-18.0093 I-3.1502 J-0.0439
G2 X253.4356 Y-19.2198 I-3.7536 J2.5933
G2 X250.0328 Y-20.7111 I-6.4321 J10.0485
G3 X250.0247 Y-20.7133 I0.5078 J-1.9345
G2 X243.9764 Y-21.7455 I-8.6239 J32.2949
G3 X243.9627 Y-21.7466 I0.1541 J-1.9941
G2 X237.6406 Y-22.0 I-6.0429 J71.7784
G3 X237.6328 I-0.0078 J-2.0
G1 X198.0619
G1 X203.8878 Y-18.3602
G3 X204.8281 Y-16.6641 I-1.0597 J1.6962
G1 Y-9.5665
G0 Z3.0
G0 X217.3602 Y-10.736
G0 Z-1.0
G1 F300.0 Z-4.0
G3 F800.0 X217.3516 Y-10.9219 I1.9913 J-0.1858
G1 Y-18.3281
G3 X219.3516 Y-20.3281 I2.0 J0.0
G1 X232.5234
G3 X237.0658 Y-19.7711 I0.3601 J15.8635
G3 X237.0744 Y-19.7687 I-0.5272 J1.9293
G3 X239.7791 Y-18.2274 I-1.7067 J6.1384
G3 X239.843 Y-18.1632 I-1.3848 J1.4431
G3 X241.1567 Y-14.7824 I-3.4546 J3.288
G3 X240.6492 Y-12.2272 I-6.2428 J0.088
G3 X240.6162 Y-12.1545 I-1.8372 J-0.7903
G3 X237.4162 Y-9.3907 I-4.76 J-2.2769
G3 X234.1894 Y-8.9219 I-3.0242 J-9.4756
G1 X219.3516
G3 X217.3602 Y-10.736 I0.0 J-2.0
G0 Z3.0
G0 X264.9687 Y-7.1224
G0 Z1.0
G1 F300.0 Z-2.0
G2 F800.0 X265.3101 Y-6.9096 I1.8206 J-2.5407
G3 X265.3734 Y-6.8747 I-1.7037 J3.1713
G2 X267.5094 Y-5.9139 I6.3717 J-11.3097
G2 X270.3859 Y-5.0946 I9.6621 J-28.4629
G3 X269.6071 Y-6.9739 I4.9126 J-3.1366
G2 X269.5172 Y-6.9828 I-2.2183 J21.9679
G3 X269.5097 Y-6.9835 I0.347 J-3.5832
G2 X265.8629 Y-7.1578 I-3.534 J35.7028
G3 X265.8325 Y-7.1579 I-0.0113 J-3.6
G2 X264.9687 Y-7.1224 I-0.0494 J9.3277
G0 Z3.0
G0 X291.6217 Y-11.7714
G0 Z1.0
G1 F300.0 Z-2.0
G3 F800.0 X291.6297 Y-11.7438 I-6.528 J1.9042
G1 Y-11.7991
G3 X291.6217 Y-11.7714 I-6.5359 J-1.8649
G1 F300.0 X290.0857 Y-11.3233
G3 F800.0 X290.2938 Y-9.8672 I-4.992 J1.4561
G1 Y-8.0943
G3 X290.1342 Y-6.4438 I-7.3665 J0.1207
G2 X292.3089 Y-7.1122 I-2.2237 J-11.1062
G3 X292.377 Y-7.1404 I2.0193 J4.7919
G2 X293.1217 Y-7.671 I-0.7385 J-1.8244
G2 X293.2316 Y-8.1308 I-0.8015 J-0.4348
G3 X293.2297 Y-8.2734 I5.198 J-0.1427
G1 Y-16.9132
G3 X293.5104 Y-19.7523 I12.1827 J-0.2287
G2 X293.2802 Y-19.7245 I1.8133 J15.9686
G2 X292.0061 Y-19.4543 I1.0283 J7.9882
G3 X291.9253 Y-19.4309 I-1.4865 J-4.983
G2 X291.1409 Y-19.0304 I0.604 J2.1512
G2 X291.0897 Y-18.9279 I0.1941 J0.161
G3 X290.1696 Y-16.9842 I-5.0585 J-1.2049
G3 X290.2906 Y-15.5013 I-8.5539 J1.4439
G1 Y-13.6641
G3 X289.9331 Y-11.77 I-5.1968 J0.0
G3 X290.0857 Y-11.3233 I-4.8393 J1.9028
G1 F300.0 X288.5497 Y-10.8753
G3 F800.0 X288.6938 Y-9.8672 I-3.456 J1.0081
G1 Y-8.0804
G3 X287.468 Y-4.4175 I-5.7665 J0.1068
G2 X290.3438 Y-4.8543 I-3.1206 J-30.226
G3 X290.3694 Y-4.8594 I0.7104 J3.5292
G2 X292.9302 Y-5.6378 I-2.4589 J-12.6906
G3 X292.9773 Y-5.6573 I1.3979 J3.3175
G2 X294.4286 Y-6.7406 I-1.3389 J-3.3075
G2 X294.831 Y-8.1747 I-2.1085 J-1.3652
G3 X294.8297 Y-8.2734 I3.5986 J-0.0988
G1 Y-16.9287
G3 X295.2148 Y-19.979 I10.5827 J-0.2132
G3 X295.2199 Y-19.9969 I3.4683 J0.9649
G3 X295.8596 Y-21.4536 I5.5909 J1.5865
G2 X295.4544 Y-21.4548 I-0.2624 J20.8195
G3 X295.4118 Y-21.4547 I-0.0247 J-3.5999
G2 X293.0763 Y-21.3115 I-0.088 J17.671
G2 X291.5487 Y-20.9875 I1.2322 J9.5752
G3 X291.4927 Y-20.9713 I-1.0291 J-3.4498
G2 X290.0628 Y-20.2155 I1.0365 J3.6917
G2 X289.5333 Y-19.2986 I1.2722 J1.3461
G3 X288.4288 Y-17.4473 I-3.502 J-0.8342
G3 X288.6906 Y-15.5051 I-6.813 J1.907
G1 Y-13.6641
G3 X288.1506 Y-11.7687 I-3.5968 J0.0
G3 X288.5497 Y-10.8753 I-3.0569 J1.9015
G1 F300.0 X287.0137 Y-10.4272
G3 F800.0 X287.0938 Y-9.8672 I-1.92 J0.56
G1 Y-8.0644
G3 X285.8596 Y-5.0123 I-4.1665 J0.0908
G3 X285.8263 Y-4.98 I-1.4073 J-1.4211
G3 X284.1027 Y-3.8969 I-3.5857 J-3.7932
G3 X284.1003 Y-3.896 I-0.7135 J-1.8684
G3 X281.7929 Y-3.3421 I-3.3071 J-8.6941
G3 X279.7164 Y-3.2265 I-2.0041 J-17.281
G3 X275.4359 Y-3.6484 I-0.325 J-18.625
G3 X272.8205 Y-4.8048 I1.4997 J-6.9275
G3 X272.7999 Y-4.8197 I1.1611 J-1.6284
G3 X271.0707 Y-8.3113 I2.4986 J-3.4115
G3 X271.0711 Y-8.3294 I1.9996 J0.0379
G3 X271.0736 Y-8.3972 I3.8734 J0.1084
G2 X269.6715 Y-8.5753 I-3.6847 J23.3912
G3 X269.6673 Y-8.5757 I0.1928 J-1.9907
G2 X265.8578 Y-8.7578 I-3.6916 J37.295
G3 X265.841 I-0.0063 J-2.0
G2 X264.4682 Y-8.6786 I-0.0579 J10.9277
G3 X264.4056 Y-8.672 I-0.2407 J-1.9855
G2 X262.9511 Y-8.2041 I0.309 J3.4552
G2 X262.7401 Y-7.756 I0.3186 J0.4238
G3 X262.7422 Y-7.6675 I-1.9979 J0.0919
G2 X262.9841 Y-6.8608 I1.474 J-0.0025
G2 X264.5529 Y-5.5001 I3.8051 J-2.8022
G3 X264.588 Y-5.4807 I-0.9465 J1.7619
G2 X266.9913 Y-4.4001 I7.157 J-12.7037
G2 X273.7333 Y-2.9059 I10.1802 J-29.9767
G3 X273.7441 Y-2.9047 I-0.2172 J1.9882
G2 X280.8421 Y-2.5156 I6.8154 J-59.3937
G3 X280.8627 I0.0095 J2.0
G2 X287.4776 Y-2.8103 I0.369 J-66.0926
G2 X290.6596 Y-3.2858 I-3.1302 J-31.8332
G3 X290.6738 Y-3.2886 I0.3947 J1.9607
G2 X293.5515 Y-4.1634 I-2.7633 J-14.2614
G3 X293.5777 Y-4.1742 I0.7766 J1.843
G2 X295.7269 Y-5.8033 I-1.9392 J-4.7906
G2 X296.4304 Y-8.2186 I-3.4068 J-2.3025
G3 X296.4297 Y-8.2734 I1.9992 J-0.0549
G1 Y-16.9455
G3 X296.7563 Y-19.5502 I8.9827 J-0.1964
G3 X296.7591 Y-19.5601 I1.9268 J0.5361
G3 X297.8062 Y-21.3617 I4.0517 J1.1498
G3 X297.8731 Y-21.4267 I1.4268 J1.4015
G3 X300.2222 Y-22.3444 I2.3395 J2.523
G3 X300.8055 Y-22.3204 I0.1421 J3.6318
G2 X298.7057 Y-22.8389 I-3.2929 J8.8242
G3 X298.6837 Y-22.8418 I0.2533 J-1.9839
G2 X295.4434 Y-23.0547 I-3.0865 J22.2077
G3 X295.4197 I-0.0137 J-2.0
G2 X292.8725 Y-22.8984 I-0.096 J19.271
G2 X291.0913 Y-22.5208 I1.436 J11.1622
G3 X291.0602 Y-22.5118 I-0.5717 J-1.9165
G2 X289.0004 Y-21.4124 I1.469 J5.2321
G2 X287.9768 Y-19.6694 I2.3347 J2.543
G3 X286.4208 Y-18.1711 I-1.9456 J-0.4634
G3 X287.0938 Y-15.5093 I-4.805 J2.6308
G1 Y-13.6641
G3 X285.723 Y-11.7656 I-2.0 J0.0
G3 X287.0137 Y-10.4272 I-0.6292 J1.8984
G0 Z3.0
G0 X291.6217 Y-11.7714
G0 Z-1.0
G1 F300.0 Z-4.0
G3 F800.0 X291.6297 Y-11.7438 I-6.528 J1.9042
G1 Y-11.7991
G3 X291.6217 Y-11.7714 I-6.5359 J-1.8649
G1 F300.0 X290.0857 Y-11.3233
G3 F800.0 X290.2938 Y-9.8672 I-4.992 J1.4561
G1 Y-8.0943
G3 X290.1342 Y-6.4438 I-7.3665 J0.1207
G2 X292.3089 Y-7.1122 I-2.2237 J-11.1062
G3 X292.377 Y-7.1404 I2.0193 J4.7919
G2 X293.1217 Y-7.671 I-0.7385 J-1.8244
G2 X293.2316 Y-8.1308 I-0.8015 J-0.4348
G3 X293.2297 Y-8.2734 I5.198 J-0.1427
G1 Y-16.9132
G3 X293.5104 Y-19.7523 I12.1827 J-0.2287
G2 X293.2802 Y-19.7245 I1.8133 J15.9686
G2 X292.0061 Y-19.4543 I1.0283 J7.9882
G3 X291.9253 Y-19.4309 I-1.4865 J-4.983
G2 X291.1409 Y-19.0304 I0.604 J2.1512
G2 X291.0897 Y-18.9279 I0.1941 J0.161
G3 X290.1696 Y-16.9842 I-5.0585 J-1.2049
G3 X290.2906 Y-15.5013 I-8.5539 J1.4439
G1 Y-13.6641
G3 X289.9331 Y-11.77 I-5.1968 J0.0
G3 X290.0857 Y-11.3233 I-4.8393 J1.9028
G1 F300.0 X288.5497 Y-10.8753
G3 F800.0 X288.6938 Y-9.8672 I-3.456 J1.0081
G1 Y-8.0804
G3 X287.468 Y-4.4175 I-5.7665 J0.1068
G2 X290.3438 Y-4.8543 I-3.1206 J-30.226
G3 X290.3694 Y-4.8594 I0.7104 J3.5292
G2 X292.9302 Y-5.6378 I-2.4589 J-12.6906
G3 X292.9773 Y-5.6573 I1.3979 J3.3175
G2 X294.4286 Y-6.7406 I-1.3389 J-3.3075
G2 X294.831 Y-8.1747 I-2.1085 J-1.3652
G3 X294.8297 Y-8.2734 I3.5986 J-0.0988
G1 Y-16.9287
G3 X295.2148 Y-19.979 I10.5827 J-0.2132
G3 X295.2199 Y-19.9969 I3.4683 J0.9649
G3 X295.8596 Y-21.4536 I5.5909 J1.5865
G2 X295.4544 Y-21.4548 I-0.2624 J20.8195
G3 X295.4118 Y-21.4547 I-0.0247 J-3.5999
G2 X293.0763 Y-21.3115 I-0.088 J17.671
G2 X291.5487 Y-20.9875 I1.2322 J9.5752
G3 X291.4927 Y-20.9713 I-1.0291 J-3.4498
G2 X290.0628 Y-20.2155 I1.0365 J3.6917
G2 X289.5333 Y-19.2986 I1.2722 J1.3461
G3 X288.4288 Y-17.4473 I-3.502 J-0.8342
G3 X288.6906 Y-15.5051 I-6.813 J1.907
G1 Y-13.6641
G3 X288.1506 Y-11.7687 I-3.5968 J0.0
G3 X288.5497 Y-10.8753 I-3.0569 J1.9015
G0 Z3.0
G0 X270.3859 Y-5.0946
G0 Z-1.0
G1 F300.0 Z-4.0
G3 F800.0 X269.6071 Y-6.9739 I4.9126 J-3.1366
G2 X269.5172 Y-6.9828 I-2.2183 J21.9679
G3 X269.5097 Y-6.9835 I0.347 J-3.5832
G2 X265.8629 Y-7.1578 I-3.534 J35.7028
G3 X265.8325 Y-7.1579 I-0.0113 J-3.6
G2 X264.9687 Y-7.1224 I-0.0494 J9.3277
G2 X265.3101 Y-6.9096 I1.8206 J-2.5407
G3 X265.3734 Y-6.8747 I-1.7037 J3.1713
G2 X267.5094 Y-5.9139 I6.3717 J-11.3097
G2 X270.3859 Y-5.0946 I9.6621 J-28.4629
G1 F300.0 X270.0247 Y-3.5359
G2 F800.0 X273.7333 Y-2.9059 I7.1468 J-30.8409
G3 X273.7441 Y-2.9047 I-0.2172 J1.9882
G2 X280.8421 Y-2.5156 I6.8154 J-59.3937
G3 X280.8627 I0.0095 J2.0
G2 X287.4776 Y-2.8103 I0.369 J-66.0926
G2 X290.6596 Y-3.2858 I-3.1302 J-31.8332
G3 X290.6738 Y-3.2886 I0.3947 J1.9607
G2 X293.5515 Y-4.1634 I-2.7633 J-14.2614
G3 X293.5777 Y-4.1742 I0.7766 J1.843
G2 X295.7269 Y-5.8033 I-1.9392 J-4.7906
G2 X296.4304 Y-8.2186 I-3.4068 J-2.3025
G3 X296.4297 Y-8.2734 I1.9992 J-0.0549
G1 Y-16.9455
G3 X296.7563 Y-19.5502 I8.9827 J-0.1964
G3 X296.7591 Y-19.5601 I1.9268 J0.5361
G3 X297.8062 Y-21.3617 I4.0517 J1.1498
G3 X297.8731 Y-21.4267 I1.4268 J1.4015
G3 X300.2222 Y-22.3444 I2.3395 J2.523
G3 X300.8055 Y-22.3204 I0.1421 J3.6318
G2 X298.7057 Y-22.8389 I-3.2929 J8.8242
G3 X298.6837 Y-22.8418 I0.2533 J-1.9839
G2 X295.4434 Y-23.0547 I-3.0865 J22.2077
G3 X295.4197 I-0.0137 J-2.0
G2 X292.8725 Y-22.8984 I-0.096 J19.271
G2 X291.0913 Y-22.5208 I1.436 J11.1622
G3 X291.0602 Y-22.5118 I-0.5717 J-1.9165
G2 X289.0004 Y-21.4124 I1.469 J5.2321
G2 X287.9768 Y-19.6694 I2.3347 J2.543
G3 X286.4208 Y-18.1711 I-1.9456 J-0.4634
G3 X287.0938 Y-15.5093 I-4.805 J2.6308
G1 Y-13.6641
G3 X285.723 Y-11.7656 I-2.0 J0.0
G3 X287.0938 Y-9.8672 I-0.6292 J1.8984
G1 Y-8.0644
G3 X285.8596 Y-5.0123 I-4.1665 J0.0908
G3 X285.8263 Y-4.98 I-1.4073 J-1.4211
G3 X284.1027 Y-3.8969 I-3.5857 J-3.7932
G3 X284.1003 Y-3.896 I-0.7135 J-1.8684
G3 X281.7929 Y-3.3421 I-3.3071 J-8.6941
G3 X279.7164 Y-3.2265 I-2.0041 J-17.281
G3 X275.4359 Y-3.6484 I-0.325 J-18.625
G3 X272.8205 Y-4.8048 I1.4997 J-6.9275
G3 X272.7999 Y-4.8197 I1.1611 J-1.6284
G3 X271.0707 Y-8.3113 I2.4986 J-3.4115
G3 X271.0711 Y-8.3294 I1.9996 J0.0379
G3 X271.0736 Y-8.3972 I3.8734 J0.1084
G2 X269.6715 Y-8.5753 I-3.6847 J23.3912
G3 X269.6673 Y-8.5757 I0.1928 J-1.9907
G2 X265.8578 Y-8.7578 I-3.6916 J37.295
G3 X265.841 I-0.0063 J-2.0
G2 X264.4682 Y-8.6786 I-0.0579 J10.9277
G3 X264.4056 Y-8.672 I-0.2407 J-1.9855
G2 X262.9511 Y-8.2041 I0.309 J3.4552
G2 X262.7401 Y-7.756 I0.3186 J0.4238
G3 X262.7422 Y-7.6675 I-1.9979 J0.0919
G2 X262.9841 Y-6.8608 I1.474 J-0.0025
G2 X264.5529 Y-5.5001 I3.8051 J-2.8022
G3 X264.588 Y-5.4807 I-0.9465 J1.7619
G2 X266.9913 Y-4.4001 I7.157 J-12.7037
G2 X270.0247 Y-3.5359 I10.1802 J-29.9767
G0 Z3.0
G0 X268.2018 Y-17.7003
G0 Z1.0
G1 F300.0 Z-2.0
G3 F800.0 X268.2012 Y-17.7892 I7.5828 J-0.0905
G3 X268.4178 Y-19.6908 I7.3337 J-0.1279
G2 X266.7339 Y-19.4293 I1.9529 J18.1262
G3 X266.7326 Y-19.429 I-1.0373 J-5.0955
G2 X265.4829 Y-19.0769 I1.749 J8.6019
G3 X265.3637 Y-19.0352 I-1.7764 J-4.8872
G2 X265.3451 Y-19.0288 I0.5055 J1.5035
G2 X265.8155 Y-18.6808 I1.7197 J-1.8319
G2 X268.2018 Y-17.7003 I5.1722 J-9.1946
G1 F300.0 X267.7792 Y-16.1571
G2 F800.0 X267.9104 Y-16.122 I3.2085 J-11.7182
G3 X267.9386 Y-16.1145 I-0.9118 J3.4826
G2 X270.217 Y-15.5993 I7.2976 J-26.9774
G3 X269.8012 Y-17.8033 I5.5675 J-2.1916
G3 X271.0157 Y-21.4476 I5.7337 J-0.1137
G2 X268.676 Y-21.3231 I0.7234 J35.6568
G3 X268.6747 Y-21.323 I-0.3092 J-3.5867
G2 X266.4147 Y-20.9971 I1.696 J19.7585
G3 X266.4138 Y-20.9969 I-0.7182 J-3.5276
G2 X264.9363 Y-20.5807 I2.0678 J10.1698
G3 X264.8538 Y-20.5518 I-1.2298 J-3.3834
G2 X263.6658 Y-19.8332 I1.0154 J3.0201
G2 X263.5443 Y-19.4686 I0.4457 J0.3511
G3 X263.5449 Y-19.3285 I-3.599 J0.0858
G2 X263.9354 Y-18.1924 I1.7704 J0.0267
G2 X265.026 Y-17.2891 I3.1295 J-2.6684
G2 X267.7792 Y-16.1571 I5.9617 J-10.5863
G1 F300.0 X267.3567 Y-14.6139
G2 F800.0 X267.5052 Y-14.5742 I3.631 J-13.2614
G3 X267.5208 Y-14.57 I-0.5066 J1.9348
G2 X271.232 Y-13.8175 I7.7154 J-28.5219
G3 X271.237 Y-13.8168 I-0.271 J1.9815
G1 X274.0963 Y-13.4184
G1 X274.0962
G1 X274.0963
G1 X274.9769 Y-13.2957
G3 X274.2559 Y-13.5907 I3.8961 J-10.5517
G3 X274.2326 Y-13.6013 I0.8209 J-1.8237
G3 X272.3002 Y-15.127 I2.2552 J-4.843
G3 X272.2617 Y-15.1772 I1.5677 J-1.2419
G3 X271.3981 Y-17.8176 I3.5228 J-2.6137
G3 X274.2603 Y-21.8539 I4.1368 J-0.0995
G3 X277.4756 Y-22.3439 I2.9677 J8.6784
G3 X279.3942 Y-22.2262 I0.0762 J14.451
G2 X276.0181 Y-22.8636 I-4.8929 J16.6566
G3 X275.9998 Y-22.8653 I0.1747 J-1.9924
G2 X271.8844 Y-23.0547 I-3.9241 J40.4585
G3 X271.8681 I-0.0094 J-2.0
G2 X268.5386 Y-22.9172 I-0.129 J37.2639
G3 X268.5378 I-0.1718 J-1.9926
G2 X266.0955 Y-22.5649 I1.8329 J21.3526
G3 X266.095 Y-22.5648 I-0.399 J-1.9598
G2 X264.3897 Y-22.0844 I2.3866 J11.7377
G3 X264.3439 Y-22.0684 I-0.6832 J-1.8797
G2 X262.4975 Y-20.9287 I1.5254 J4.5367
G2 X261.9447 Y-19.4305 I1.6139 J1.4466
G3 X261.9451 Y-19.3526 I-1.9994 J0.0477
G2 X262.7041 Y-17.1705 I3.3702 J0.0508
G2 X264.237 Y-15.8971 I4.3608 J-3.6902
G2 X267.3567 Y-14.6139 I6.7507 J-11.9782
G0 Z3.0
G0 X268.2018 Y-17.7003
G0 Z-1.0
G1 F300.0 Z-4.0
G3 F800.0 X268.2012 Y-17.7892 I7.5828 J-0.0905
G3 X268.4178 Y-19.6908 I7.3337 J-0.1279
G2 X266.7339 Y-19.4293 I1.9529 J18.1262
G3 X266.7326 Y-19.429 I-1.0373 J-5.0955
G2 X265.4829 Y-19.0769 I1.749 J8.6019
G3 X265.3637 Y-19.0352 I-1.7764 J-4.8872
G2 X265.3451 Y-19.0288 I0.5055 J1.5035
G2 X265.8155 Y-18.6808 I1.7197 J-1.8319
G2 X268.2018 Y-17.7003 I5.1722 J-9.1946
G1 F300.0 X267.7792 Y-16.1571
G2 F800.0 X267.9104 Y-16.122 I3.2085 J-11.7182
G3 X267.9386 Y-16.1145 I-0.9118 J3.4826
G2 X270.217 Y-15.5993 I7.2976 J-26.9774
G3 X269.8012 Y-17.8033 I5.5675 J-2.1916
G3 X271.0157 Y-21.4476 I5.7337 J-0.1137
G2 X268.676 Y-21.3231 I0.7234 J35.6568
G3 X268.6747 Y-21.323 I-0.3092 J-3.5867
G2 X266.4147 Y-20.9971 I1.696 J19.7585
G3 X266.4138 Y-20.9969 I-0.7182 J-3.5276
G2 X264.9363 Y-20.5807 I2.0678 J10.1698
G3 X264.8538 Y-20.5518 I-1.2298 J-3.3834
G2 X263.6658 Y-19.8332 I1.0154 J3.0201
G2 X263.5443 Y-19.4686 I0.4457 J0.3511
G3 X263.5449 Y-19.3285 I-3.599 J0.0858
G2 X263.9354 Y-18.1924 I1.7704 J0.0267
G2 X265.026 Y-17.2891 I3.1295 J-2.6684
G2 X267.7792 Y-16.1571 I5.9617 J-10.5863
G1 F300.0 X267.3567 Y-14.6139
G2 F800.0 X267.5052 Y-14.5742 I3.631 J-13.2614
G3 X267.5208 Y-14.57 I-0.5066 J1.9348
G2 X271.232 Y-13.8175 I7.7154 J-28.5219
G3 X271.237 Y-13.8168 I-0.271 J1.9815
G1 X274.0963 Y-13.4184
G1 X274.0962
G1 X274.0963
G1 X274.9769 Y-13.2957
G3 X274.2559 Y-13.5907 I3.8961 J-10.5517
G3 X274.2326 Y-13.6013 I0.8209 J-1.8237
G3 X272.3002 Y-15.127 I2.2552 J-4.843
G3 X272.2617 Y-15.1772 I1.5677 J-1.2419
G3 X271.3981 Y-17.8176 I3.5228 J-2.6137
G3 X274.2603 Y-21.8539 I4.1368 J-0.0995
G3 X277.4756 Y-22.3439 I2.9677 J8.6784
G3 X279.3942 Y-22.2262 I0.0762 J14.451
G2 X276.0181 Y-22.8636 I-4.8929 J16.6566
G3 X275.9998 Y-22.8653 I0.1747 J-1.9924
G2 X271.8844 Y-23.0547 I-3.9241 J40.4585
G3 X271.8681 I-0.0094 J-2.0
G2 X268.5386 Y-22.9172 I-0.129 J37.2639
G3 X268.5378 I-0.1718 J-1.9926
G2 X266.0955 Y-22.5649 I1.8329 J21.3526
G3 X266.095 Y-22.5648 I-0.399 J-1.9598
G2 X264.3897 Y-22.0844 I2.3866 J11.7377
G3 X264.3439 Y-22.0684 I-0.6832 J-1.8797
G2 X262.4975 Y-20.9287 I1.5254 J4.5367
G2 X261.9447 Y-19.4305 I1.6139 J1.4466
G3 X261.9451 Y-19.3526 I-1.9994 J0.0477
G2 X262.7041 Y-17.1705 I3.3702 J0.0508
G2 X264.237 Y-15.8971 I4.3608 J-3.6902
G2 X267.3567 Y-14.6139 I6.7507 J-11.9782
G0 Z3.0
G0 X320.6047 Y-10.6946
G0 Z1.0
G1 F300.0 Z-2.0
G1 F800.0 Y-10.4246
G3 X320.6443 Y-10.4976 I5.9969 J3.2059
G3 X320.6047 Y-10.6946 I14.1774 J-2.953
G1 F300.0 X322.1754 Y-10.9991
G3 F800.0 X321.9406 Y-13.5753 I12.6462 J-2.4515
G1 Y-18.8
G1 X318.9627
G3 X319.0047 Y-18.1406 I-5.158 J0.6594
G1 Y-7.4766
G3 X318.9016 Y-6.4461 I-5.2 J0.0
G1 X321.4016 Y-6.3845
G1 Y-7.2188
G3 X322.3526 Y-10.2165 I5.2 J0.0
G3 X322.1754 Y-10.9991 I12.4691 J-3.2341
G1 F300.0 X323.7462 Y-11.3036
G3 F800.0 X323.5406 Y-13.5673 I11.0755 J-2.147
G1 Y-19.1953
G3 X323.7482 Y-20.4 I3.6 J0.0
G1 X316.6074
G3 X317.4047 Y-18.1406 I-2.8027 J2.2594
G1 Y-7.4766
G3 X316.3281 Y-4.909 I-3.6 J0.0
G1 X323.0016 Y-4.7445
G1 Y-7.2188
G3 X324.1335 Y-9.8396 I3.6 J0.0
G3 X323.7462 Y-11.3036 I10.6882 J-3.611
G1 F300.0 X325.317 Y-11.6081
G3 F800.0 X325.1406 Y-13.5587 I9.5047 J-1.8425
G1 Y-19.1953
G3 X325.8385 Y-20.7134 I2.0 J0.0
G1 X327.3385 Y-22.0
G1 X311.5162
G1 X314.8899 Y-19.8206
G3 X315.8047 Y-18.1406 I-1.0852 J1.68
G1 Y-7.4766
G3 X314.893 Y-5.7986 I-2.0 J0.0
G1 X311.2469 Y-3.4338
G1 X324.6016 Y-3.1046
G1 Y-7.2188
G3 X326.163 Y-9.1701 I2.0 J0.0
G3 X325.6941 Y-10.2225 I7.1678 J-3.8237
G3 X325.6872 Y-10.2419 I1.88 J-0.6823
G3 X325.317 Y-11.6081 I9.1345 J-3.2087
G0 Z3.0
G0 X320.6047 Y-10.6946
G0 Z-1.0
G1 F300.0 Z-4.0
G1 F800.0 Y-10.4246
G3 X320.6443 Y-10.4976 I5.9969 J3.2059
G3 X320.6047 Y-10.6946 I14.1774 J-2.953
G1 F300.0 X322.1754 Y-10.9991
G3 F800.0 X321.9406 Y-13.5753 I12.6462 J-2.4515
G1 Y-18.8
G1 X318.9627
G3 X319.0047 Y-18.1406 I-5.158 J0.6594
G1 Y-7.4766
G3 X318.9016 Y-6.4461 I-5.2 J0.0
G1 X321.4016 Y-6.3845
G1 Y-7.2188
G3 X322.3526 Y-10.2165 I5.2 J0.0
G3 X322.1754 Y-10.9991 I12.4691 J-3.2341
G1 F300.0 X323.7462 Y-11.3036
G3 F800.0 X323.5406 Y-13.5673 I11.0755 J-2.147
G1 Y-19.1953
G3 X323.7482 Y-20.4 I3.6 J0.0
G1 X316.6074
G3 X317.4047 Y-18.1406 I-2.8027 J2.2594
G1 Y-7.4766
G3 X316.3281 Y-4.909 I-3.6 J0.0
G1 X323.0016 Y-4.7445
G1 Y-7.2188
G3 X324.1335 Y-9.8396 I3.6 J0.0
G3 X323.7462 Y-11.3036 I10.6882 J-3.611
G1 F300.0 X325.317 Y-11.6081
G3 F800.0 X325.1406 Y-13.5587 I9.5047 J-1.8425
G1 Y-19.1953
G3 X325.8385 Y-20.7134 I2.0 J0.0
G1 X327.3385 Y-22.0
G1 X311.5162
G1 X314.8899 Y-19.8206
G3 X315.8047 Y-18.1406 I-1.0852 J1.68
G1 Y-7.4766
G3 X314.893 Y-5.7986 I-2.0 J0.0
G1 X311.2469 Y-3.4338
G1 X324.6016 Y-3.1046
G1 Y-7.2188
G3 X326.163 Y-9.1701 I2.0 J0.0
G3 X325.6941 Y-10.2225 I7.1678 J-3.8237
G3 X325.6872 Y-10.2419 I1.88 J-0.6823
G3 X325.317 Y-11.6081 I9.1345 J-3.2087
G0 Z3.0
G0 X342.8475 Y-5.9355
G0 Z1.0
G1 F300.0 Z-2.0
G2 F800.0 X343.0784 Y-5.966 I-3.1045 J-24.3671
G3 X343.0811 Y-5.9664 I0.7061 J5.1518
G2 X345.2765 Y-6.4837 I-1.5963 J-11.6924
G2 X346.3839 Y-7.0171 I-1.6642 J-4.871
G3 X346.4117 Y-7.0347 I2.7999 J4.3818
G2 X346.9835 Y-7.6444 I-0.8827 J-1.4009
G2 X347.2308 Y-8.8929 I-2.7194 J-1.1873
G3 X347.2297 Y-9.0 I5.1989 J-0.1071
G1 Y-18.1406
G3 X347.2717 Y-18.8 I5.2 J0.0
G1 X344.3172
G1 Y-11.5216
G3 X343.7619 Y-7.8841 I-11.2749 J0.14
G3 X343.7572 Y-7.8697 I-4.9435 J-1.6129
G3 X342.8475 Y-5.9355 I-8.389 J-2.7643
G1 F300.0 X343.0498 Y-4.3483
G2 F800.0 X343.2957 Y-4.3808 I-3.3067 J-25.9543
G3 X343.2975 Y-4.3811 I0.4888 J3.5667
G2 X345.7921 Y-4.969 I-1.8128 J-13.2777
G2 X347.2454 Y-5.6689 I-2.1798 J-6.3856
G3 X347.2647 Y-5.6811 I1.9384 J3.0336
G2 X348.4234 Y-6.9448 I-1.7357 J-2.7546
G2 X348.8305 Y-8.9258 I-4.1593 J-1.8869
G3 X348.8297 Y-9.0 I3.5992 J-0.0742
G1 Y-18.1406
G3 X349.627 Y-20.4 I3.6 J0.0
G1 X342.5096
G3 X342.7172 Y-19.1953 I-3.3925 J1.2047
G1 Y-11.5113
G3 X342.2408 Y-8.3804 I-9.6749 J0.1296
G3 X342.2375 Y-8.3704 I-3.4224 J-1.1166
G3 X338.5812 Y-4.1541 I-6.8694 J-2.2635
G2 X339.5373 Y-4.139 I0.8092 J-20.9322
G3 X339.5843 I0.0252 J3.5999
G2 X343.0498 Y-4.3483 I0.1587 J-26.1636
G1 F300.0 X343.252 Y-2.7611
G2 F800.0 X343.5129 Y-2.7956 I-3.5089 J-27.5415
G3 X343.514 Y-2.7958 I0.2716 J1.9815
G2 X346.3077 Y-3.4544 I-2.0292 J-14.863
G2 X348.1069 Y-4.3206 I-2.6954 J-7.9003
G3 X348.1176 Y-4.3274 I1.0769 J1.6853
G2 X349.8643 Y-6.2485 I-2.5887 J-4.1083
G2 X350.4301 Y-8.9588 I-5.6002 J-2.5832
G3 X350.4297 Y-9.0 I1.9996 J-0.0412
G1 Y-18.1406
G3 X351.3444 Y-19.8206 I2.0 J0.0
G1 X354.7182 Y-22.0
G1 X338.913
G1 X340.4162 Y-20.7161
G3 X341.1172 Y-19.1953 I-1.299 J1.5207
G1 Y-11.5001
G3 X340.7197 Y-8.8767 I-8.0749 J0.1184
G3 X340.7179 Y-8.8711 I-1.9014 J-0.6204
G3 X337.6291 Y-5.4749 I-5.3497 J-1.7628
G3 X337.5903 Y-5.4584 I-0.8028 J-1.8318
G3 X333.8971 Y-4.7732 I-3.4661 J-8.3855
G3 X330.7711 Y-5.2647 I-0.0793 J-9.6814
G2 X332.8535 Y-3.7511 I6.5862 J-6.8718
G2 X335.9595 Y-2.8009 I4.634 J-9.5968
G3 X335.9757 Y-2.7985 I-0.2868 J1.9793
G2 X339.5485 Y-2.539 I3.4148 J-22.2877
G3 X339.5746 I0.014 J2.0
G2 X343.252 Y-2.7611 I0.1684 J-27.7636
G0 Z3.0
G0 X342.8475 Y-5.9355
G0 Z-1.0
G1 F300.0 Z-4.0
G2 F800.0 X343.0784 Y-5.966 I-3.1045 J-24.3671
G3 X343.0811 Y-5.9664 I0.7061 J5.1518
G2 X345.2765 Y-6.4837 I-1.5963 J-11.6924
G2 X346.3839 Y-7.0171 I-1.6642 J-4.871
G3 X346.4117 Y-7.0347 I2.7999 J4.3818
G2 X346.9835 Y-7.6444 I-0.8827 J-1.4009
G2 X347.2308 Y-8.8929 I-2.7194 J-1.1873
G3 X347.2297 Y-9.0 I5.1989 J-0.1071
G1 Y-18.1406
G3 X347.2717 Y-18.8 I5.2 J0.0
G1 X344.3172
G1 Y-11.5216
G3 X343.7619 Y-7.8841 I-11.2749 J0.14
G3 X343.7572 Y-7.8697 I-4.9435 J-1.6129
G3 X342.8475 Y-5.9355 I-8.389 J-2.7643
G1 F300.0 X343.0498 Y-4.3483
G2 F800.0 X343.2957 Y-4.3808 I-3.3067 J-25.9543
G3 X343.2975 Y-4.3811 I0.4888 J3.5667
G2 X345.7921 Y-4.969 I-1.8128 J-13.2777
G2 X347.2454 Y-5.6689 I-2.1798 J-6.3856
G3 X347.2647 Y-5.6811 I1.9384 J3.0336
G2 X348.4234 Y-6.9448 I-1.7357 J-2.7546
G2 X348.8305 Y-8.9258 I-4.1593 J-1.8869
G3 X348.8297 Y-9.0 I3.5992 J-0.0742
G1 Y-18.1406
G3 X349.627 Y-20.4 I3.6 J0.0
G1 X342.5096
G3 X342.7172 Y-19.1953 I-3.3925 J1.2047
G1 Y-11.5113
G3 X342.2408 Y-8.3804 I-9.6749 J0.1296
G3 X342.2375 Y-8.3704 I-3.4224 J-1.1166
G3 X338.5812 Y-4.1541 I-6.8694 J-2.2635
G2 X339.5373 Y-4.139 I0.8092 J-20.9322
G3 X339.5843 I0.0252 J3.5999
G2 X343.0498 Y-4.3483 I0.1587 J-26.1636
G1 F300.0 X343.252 Y-2.7611
G2 F800.0 X343.5129 Y-2.7956 I-3.5089 J-27.5415
G3 X343.514 Y-2.7958 I0.2716 J1.9815
G2 X346.3077 Y-3.4544 I-2.0292 J-14.863
G2 X348.1069 Y-4.3206 I-2.6954 J-7.9003
G3 X348.1176 Y-4.3274 I1.0769 J1.6853
G2 X349.8643 Y-6.2485 I-2.5887 J-4.1083
G2 X350.4301 Y-8.9588 I-5.6002 J-2.5832
G3 X350.4297 Y-9.0 I1.9996 J-0.0412
G1 Y-18.1406
G3 X351.3444 Y-19.8206 I2.0 J0.0
G1 X354.7182 Y-22.0
G1 X338.913
G1 X340.4162 Y-20.7161
G3 X341.1172 Y-19.1953 I-1.299 J1.5207
G1 Y-11.5001
G3 X340.7197 Y-8.8767 I-8.0749 J0.1184
G3 X340.7179 Y-8.8711 I-1.9014 J-0.6204
G3 X337.6291 Y-5.4749 I-5.3497 J-1.7628
G3 X337.5903 Y-5.4584 I-0.8028 J-1.8318
G3 X333.8971 Y-4.7732 I-3.4661 J-8.3855
G3 X330.7711 Y-5.2647 I-0.0793 J-9.6814
G2 X332.8535 Y-3.7511 I6.5862 J-6.8718
G2 X335.9595 Y-2.8009 I4.634 J-9.5968
G3 X335.9757 Y-2.7985 I-0.2868 J1.9793
G2 X339.5485 Y-2.539 I3.4148 J-22.2877
G3 X339.5746 I0.014 J2.0
G2 X343.252 Y-2.7611 I0.1684 J-27.7636
G0 Z3.0
G0 X374.3938 Y-14.2984
G0 Z1.0
G1 F300.0 Z-2.0
G3 F800.0 X374.8862 Y-15.5391 I6.5359 J1.8766
G3 X374.3938 Y-16.7797 I6.0434 J-3.1172
G1 Y-14.2984
G1 F300.0 X375.9316 Y-13.8569
G3 F800.0 X376.7676 Y-15.5391 I4.9981 J1.435
G3 X375.7317 Y-18.8 I4.1621 J-3.1172
G1 X372.7487
G3 X372.7938 Y-18.1172 I-5.155 J0.6828
G1 Y3.2109
G3 X372.6969 Y4.2098 I-5.2 J0.0
G1 X375.7297 Y4.2828
G1 Y-12.4219
G3 X375.9316 Y-13.8569 I5.2 J0.0
G1 F300.0 X377.4695 Y-13.4154
G3 F800.0 X379.1288 Y-15.5391 I3.4602 J0.9935
G3 X377.7802 Y-20.4 I1.8009 J-3.1172
G1 X370.3774
G3 X371.1938 Y-18.1172 I-2.7837 J2.2828
G1 Y3.2109
G3 X370.1469 Y5.7489 I-3.6 J0.0
G1 X377.3297 Y5.9217
G1 Y-12.4219
G3 X377.4695 Y-13.4154 I3.6 J0.0
G0 Z3.0
G0 X392.9451 Y-11.4274
G0 Z1.0
G1 F300.0 Z-2.0
G1 F800.0 X393.4659 Y-11.1233
G3 X394.4169 Y-10.4107 I-2.6221 J4.4905
G3 X396.174 Y-13.7679 I5.169 J0.5669
G1 X401.9617 Y-18.8
G1 X398.7475
G3 X397.1483 Y-15.4294 I-5.185 J-0.3953
G1 X392.9451 Y-11.4274
G1 F300.0 X392.1383 Y-10.0457
G1 F800.0 X392.6591 Y-9.7416
G3 X393.8516 Y-4.6547 I-1.8153 J3.1088
G1 X401.5243
G1 X397.8416 Y-6.6946
G3 X397.2239 Y-12.5605 I1.7444 J-3.1492
G1 X406.2404 Y-20.4
G1 X396.955
G3 X396.0449 Y-16.5881 I-3.3925 J1.2047
G1 X391.1465 Y-11.9241
G3 X390.1058 Y-11.2325 I-2.4824 J-2.6072
G1 X392.1383 Y-10.0457
G1 F300.0 X391.3315 Y-8.664
G1 F800.0 X391.8523 Y-8.3599
G3 X392.0137 Y-5.0107 I-1.0085 J1.7271
G1 X389.3016 Y-3.0547
G1 X407.7149
G1 X398.6168 Y-8.0942
G3 X398.2737 Y-11.353 I0.9691 J-1.7495
G1 X407.7893 Y-19.6265
G3 X408.0133 Y-19.7952 I1.3123 J1.5093
G1 X411.4128 Y-22.0
G1 X393.3396
G1 X394.8521 Y-20.724
G3 X394.9416 Y-17.7469 I-1.2896 J1.5287
G1 X390.0432 Y-13.0828
G3 X387.7229 Y-12.7665 I-1.3791 J-1.4484
G1 X379.9885 Y-16.8915
G3 X379.6224 Y-20.1699 I0.9412 J-1.7647
G1 X381.7415 Y-22.0
G1 X365.2826
G1 X368.682 Y-19.7952
G3 X369.5938 Y-18.1172 I-1.0883 J1.678
G1 Y3.2109
G3 X368.679 Y4.8909 I-2.0 J0.0
G1 X365.0626 Y7.2271
G1 X378.9297 Y7.5607
G1 Y-12.4219
G3 X381.9382 Y-14.149 I2.0 J0.0
G1 X391.3315 Y-8.664
G0 Z3.0
G0 X392.9451 Y-11.4274
G0 Z-1.0
G1 F300.0 Z-4.0
G1 F800.0 X393.4659 Y-11.1233
G3 X394.4169 Y-10.4107 I-2.6221 J4.4905
G3 X396.174 Y-13.7679 I5.169 J0.5669
G1 X401.9617 Y-18.8
G1 X398.7475
G3 X397.1483 Y-15.4294 I-5.185 J-0.3953
G1 X392.9451 Y-11.4274
G1 F300.0 X392.1383 Y-10.0457
G1 F800.0 X392.6591 Y-9.7416
G3 X393.8516 Y-4.6547 I-1.8153 J3.1088
G1 X401.5243
G1 X397.8416 Y-6.6946
G3 X397.2239 Y-12.5605 I1.7444 J-3.1492
G1 X406.2404 Y-20.4
G1 X396.955
G3 X396.0449 Y-16.5881 I-3.3925 J1.2047
G1 X391.1465 Y-11.9241
G3 X390.1058 Y-11.2325 I-2.4824 J-2.6072
G1 X392.1383 Y-10.0457
G0 Z3.0
G0 X374.8862 Y-15.5391
G0 Z-1.0
G1 F300.0 Z-4.0
G3 F800.0 X374.3938 Y-16.7797 I6.0434 J-3.1172
G1 Y-14.2984
G3 X374.8862 Y-15.5391 I6.5359 J1.8766
G1 F300.0 X376.3082 Y-16.2725
G3 F800.0 X375.7317 Y-18.8 I4.6215 J-2.3837
G1 X372.7487
G3 X372.7938 Y-18.1172 I-5.155 J0.6828
G1 Y3.2109
G3 X372.6969 Y4.2098 I-5.2 J0.0
G1 X375.7297 Y4.2828
G1 Y-12.4219
G3 X376.7676 Y-15.5391 I5.2 J0.0
G3 X376.3082 Y-16.2725 I4.1621 J-3.1172
G1 F300.0 X377.7302 Y-17.006
G3 F800.0 X377.7802 Y-20.4 I3.1995 J-1.6503
G1 X370.3774
G3 X371.1938 Y-18.1172 I-2.7837 J2.2828
G1 Y3.2109
G3 X370.1469 Y5.7489 I-3.6 J0.0
G1 X377.3297 Y5.9217
G1 Y-12.4219
G3 X379.1288 Y-15.5391 I3.6 J0.0
G3 X377.7302 Y-17.006 I1.8009 J-3.1172
G1 F300.0 X379.1522 Y-17.7394
G3 F800.0 X379.6224 Y-20.1699 I1.7775 J-0.9168
G1 X381.7415 Y-22.0
G1 X365.2826
G1 X368.682 Y-19.7952
G3 X369.5938 Y-18.1172 I-1.0883 J1.678
G1 Y3.2109
G3 X368.679 Y4.8909 I-2.0 J0.0
G1 X365.0626 Y7.2271
G1 X378.9297 Y7.5607
G1 Y-12.4219
G3 X381.9382 Y-14.149 I2.0 J0.0
G1 X391.8523 Y-8.3599
G3 X392.0137 Y-5.0107 I-1.0085 J1.7271
G1 X389.3016 Y-3.0547
G1 X407.7149
G1 X398.6168 Y-8.0942
G3 X398.2737 Y-11.353 I0.9691 J-1.7495
G1 X407.7893 Y-19.6265
G3 X408.0133 Y-19.7952 I1.3123 J1.5093
G1 X411.4128 Y-22.0
G1 X393.3396
G1 X394.8521 Y-20.724
G3 X394.9416 Y-17.7469 I-1.2896 J1.5287
G1 X390.0432 Y-13.0828
G3 X387.7229 Y-12.7665 I-1.3791 J-1.4484
G1 X379.9885 Y-16.8915
G3 X379.1522 Y-17.7394 I0.9412 J-1.7647
( Ber_Profil2mm )
G0 Z3.0
( T2 : 2.0 )
T2 M6
M3 S1000
G0 X20.2109 Y8.585
G0 Z1.0
G1 F300.0 Z-2.0
G1 F800.0 Y-12.4219
G3 X21.7152 Y-13.2854 I1.0 J0.0
G1 X31.6293 Y-7.4964
G3 X31.71 Y-5.8217 I-0.5043 J0.8636
G1 X26.4867 Y-2.0547
G1 X51.8653
G1 X39.3826 Y-8.969
G3 X39.2111 Y-10.5984 I0.4845 J-0.8748
G1 X48.7267 Y-18.8718
G3 X48.8387 Y-18.9562 I0.6561 J0.7546
G1 X55.0736 Y-23.0
G1 X30.8846
G1 X34.4886 Y-19.9597
G3 X34.5333 Y-18.4711 I-0.6448 J0.7643
G1 X29.6349 Y-13.807
G3 X28.4747 Y-13.6489 I-0.6896 J-0.7242
G1 X20.7403 Y-17.7739
G3 X20.5573 Y-19.4131 I0.4706 J-0.8824
G1 X24.7106 Y-23.0
G1 X2.1842
G1 X8.4191 Y-18.9562
G3 X8.875 Y-18.1172 I-0.5441 J0.839
G1 Y3.2109
G3 X8.4176 Y4.0509 I-1.0 J0.0
G1 X2.0743 Y8.1487
G1 X20.2109 Y8.585
G1 F300.0 Z-4.0
G1 F800.0 Y-12.4219
G3 X21.7152 Y-13.2854 I1.0 J0.0
G1 X31.6293 Y-7.4964
G3 X31.71 Y-5.8217 I-0.5043 J0.8636
G1 X26.4867 Y-2.0547
G1 X51.8653
G1 X39.3826 Y-8.969
G3 X39.2111 Y-10.5984 I0.4845 J-0.8748
G1 X48.7267 Y-18.8718
G3 X48.8387 Y-18.9562 I0.6561 J0.7546
G1 X55.0736 Y-23.0
G1 X30.8846
G1 X34.4886 Y-19.9597
G3 X34.5333 Y-18.4711 I-0.6448 J0.7643
G1 X29.6349 Y-13.807
G3 X28.4747 Y-13.6489 I-0.6896 J-0.7242
G1 X20.7403 Y-17.7739
G3 X20.5573 Y-19.4131 I0.4706 J-0.8824
G1 X24.7106 Y-23.0
G1 X2.1842
G1 X8.4191 Y-18.9562
G3 X8.875 Y-18.1172 I-0.5441 J0.839
G1 Y3.2109
G3 X8.4176 Y4.0509 I-1.0 J0.0
G1 X2.0743 Y8.1487
G1 X20.2109 Y8.585
G0 Z3.0
G0 X57.9258 Y8.1487
G0 Z1.0
G1 F300.0 Z-2.0
G1 F800.0 X76.0625 Y8.585
G1 Y-18.1406
G3 X76.5199 Y-18.9806 I1.0 J0.0
G1 X82.7419 Y-23.0
G1 X58.0472
G1 X64.2692 Y-18.9806
G3 X64.7266 Y-18.1406 I-0.5426 J0.84
G1 Y3.2109
G3 X64.2692 Y4.0509 I-1.0 J0.0
G1 X57.9258 Y8.1487
G1 F300.0 Z-4.0
G1 F800.0 X76.0625 Y8.585
G1 Y-18.1406
G3 X76.5199 Y-18.9806 I1.0 J0.0
G1 X82.7419 Y-23.0
G1 X58.0472
G1 X64.2692 Y-18.9806
G3 X64.7266 Y-18.1406 I-0.5426 J0.84
G1 Y3.2109
G3 X64.2692 Y4.0509 I-1.0 J0.0
G1 X57.9258 Y8.1487
G0 Z3.0
G0 X87.5757 Y-9.0838
G0 Z1.0
G1 F300.0 Z-2.0
G2 F800.0 X88.1036 Y-8.2916 I6.7183 J-3.9047
G3 X88.1078 Y-8.2861 I-0.7966 J0.6044
G2 X89.885 Y-6.3991 I9.1752 J-6.8614
G3 X89.8863 Y-6.3981 I-0.6457 J0.7636
G2 X92.0445 Y-4.8379 I11.1106 J-13.0964
G2 X98.8007 Y-2.0843 I11.8688 J-19.4558
G2 X106.1412 Y-1.2812 I7.109 J-31.0308
G3 X106.1576 I0.0073 J1.0
G2 X112.6266 Y-2.0565 I0.2326 J-25.4364
G2 X118.4349 Y-4.7516 I-4.2899 J-16.8517
G3 X118.4402 Y-4.7553 I0.5807 J0.8141
G2 X122.3119 Y-8.8633 I-8.1012 J-11.514
G2 X124.0405 Y-13.0156 I-13.1545 J-7.9119
G1 X99.8438
G3 X98.8443 Y-13.9839 I0.0 J-1.0
G3 X100.346 Y-18.12 I5.9286 J-0.1881
G3 X100.3664 Y-18.1422 I0.7463 J0.6656
G3 X102.8945 Y-19.8909 I5.4243 J5.1401
G3 X102.8978 Y-19.8923 I0.3876 J0.9218
G3 X106.9959 Y-20.9602 I5.8514 J14.0571
G3 X111.0669 Y-21.2032 I3.8911 J30.9761
G3 X118.6471 Y-20.5314 I0.4779 J37.7102
G3 X118.6542 Y-20.53 I-0.1883 J0.9821
G3 X122.445 Y-19.3157 I-3.4427 J17.2715
G3 X124.4605 Y-18.1125 I-3.8798 J8.7886
G2 X123.2276 Y-20.4508 I-3.6296 J0.4195
G3 X123.2212 Y-20.4565 I0.656 J-0.7548
G2 X120.2638 Y-22.2737 I-6.6773 J7.5516
G3 X120.2597 Y-22.2753 I0.369 J-0.9294
G2 X114.1967 Y-23.8431 I-9.0614 J22.535
G3 X114.19 Y-23.844 I0.1234 J-0.9924
G2 X107.8182 Y-24.2422 I-6.1046 J46.5028
G3 X107.8052 I-0.0057 J-1.0
G2 X99.7053 Y-23.5613 I-0.3265 J44.6312
G3 X99.7005 Y-23.5604 I-0.1742 J-0.9847
G2 X92.1363 Y-20.9857 I4.3024 J25.0381
G2 X89.9254 Y-19.5322 I7.5397 J13.8771
G3 X89.9168 Y-19.5256 I-0.6174 J-0.7866
G2 X87.4148 Y-16.6368 I5.7853 J7.5388
G2 X86.5234 Y-13.0168 I6.6292 J3.5521
G3 Y-13.0056 I-1.0 J0.009
G2 X87.5757 Y-9.0838 I7.7706 J0.0171
G1 F300.0 Z-4.0
G2 F800.0 X88.1036 Y-8.2916 I6.7183 J-3.9047
G3 X88.1078 Y-8.2861 I-0.7966 J0.6044
G2 X89.885 Y-6.3991 I9.1752 J-6.8614
G3 X89.8863 Y-6.3981 I-0.6457 J0.7636
G2 X92.0445 Y-4.8379 I11.1106 J-13.0964
G2 X98.8007 Y-2.0843 I11.8688 J-19.4558
G2 X106.1412 Y-1.2812 I7.109 J-31.0308
G3 X106.1576 I0.0073 J1.0
G2 X112.6266 Y-2.0565 I0.2326 J-25.4364
G2 X118.4349 Y-4.7516 I-4.2899 J-16.8517
G3 X118.4402 Y-4.7553 I0.5807 J0.8141
G2 X122.3119 Y-8.8633 I-8.1012 J-11.514
G2 X124.0405 Y-13.0156 I-13.1545 J-7.9119
G1 X99.8438
G3 X98.8443 Y-13.9839 I0.0 J-1.0
G3 X100.346 Y-18.12 I5.9286 J-0.1881
G3 X100.3664 Y-18.1422 I0.7463 J0.6656
G3 X102.8945 Y-19.8909 I5.4243 J5.1401
G3 X102.8978 Y-19.8923 I0.3876 J0.9218
G3 X106.9959 Y-20.9602 I5.8514 J14.0571
G3 X111.0669 Y-21.2032 I3.8911 J30.9761
G3 X118.6471 Y-20.5314 I0.4779 J37.7102
G3 X118.6542 Y-20.53 I-0.1883 J0.9821
G3 X122.445 Y-19.3157 I-3.4427 J17.2715
G3 X124.4605 Y-18.1125 I-3.8798 J8.7886
G2 X123.2276 Y-20.4508 I-3.6296 J0.4195
G3 X123.2212 Y-20.4565 I0.656 J-0.7548
G2 X120.2638 Y-22.2737 I-6.6773 J7.5516
G3 X120.2597 Y-22.2753 I0.369 J-0.9294
G2 X114.1967 Y-23.8431 I-9.0614 J22.535
G3 X114.19 Y-23.844 I0.1234 J-0.9924
G2 X107.8182 Y-24.2422 I-6.1046 J46.5028
G3 X107.8052 I-0.0057 J-1.0
G2 X99.7053 Y-23.5613 I-0.3265 J44.6312
G3 X99.7005 Y-23.5604 I-0.1742 J-0.9847
G2 X92.1363 Y-20.9857 I4.3024 J25.0381
G2 X89.9254 Y-19.5322 I7.5397 J13.8771
G3 X89.9168 Y-19.5256 I-0.6174 J-0.7866
G2 X87.4148 Y-16.6368 I5.7853 J7.5388
G2 X86.5234 Y-13.0168 I6.6292 J3.5521
G3 Y-13.0056 I-1.0 J0.009
G2 X87.5757 Y-9.0838 I7.7706 J0.0171
G0 Z3.0
G0 X99.0149 Y-9.6787
G0 Z1.0
G1 F300.0 Z-2.0
G3 F800.0 X99.0079 Y-10.0187 I5.4072 J-0.2812
G3 X100.0078 Y-11.0078 I0.9999 J0.0109
G1 X113.7422
G3 X114.7419 Y-10.0298 I0.0 J1.0
G3 X114.198 Y-7.1915 I-6.8868 J0.1515
G3 X114.1826 Y-7.1569 I-0.9208 J-0.3901
G3 X110.8641 Y-4.2574 I-4.9578 J-2.3253
G3 X106.985 Y-3.6874 I-3.6234 J-11.1744
G3 X104.1008 Y-4.0714 I-0.0774 J-10.4433
G3 X104.0968 Y-4.0725 I0.2688 J-0.9632
G3 X101.4024 Y-5.4092 I2.24 J-7.8995
G3 X99.6659 Y-7.3726 I3.7336 J-5.0517
G3 X99.6565 Y-7.3895 I0.8708 J-0.4916
G3 X99.0149 Y-9.6787 I4.7655 J-2.5703
G1 F300.0 Z-4.0
G3 F800.0 X99.0079 Y-10.0187 I5.4072 J-0.2812
G3 X100.0078 Y-11.0078 I0.9999 J0.0109
G1 X113.7422
G3 X114.7419 Y-10.0298 I0.0 J1.0
G3 X114.198 Y-7.1915 I-6.8868 J0.1515
G3 X114.1826 Y-7.1569 I-0.9208 J-0.3901
G3 X110.8641 Y-4.2574 I-4.9578 J-2.3253
G3 X106.985 Y-3.6874 I-3.6234 J-11.1744
G3 X104.1008 Y-4.0714 I-0.0774 J-10.4433
G3 X104.0968 Y-4.0725 I0.2688 J-0.9632
G3 X101.4024 Y-5.4092 I2.24 J-7.8995
G3 X99.6659 Y-7.3726 I3.7336 J-5.0517
G3 X99.6565 Y-7.3895 I0.8708 J-0.4916
G3 X99.0149 Y-9.6787 I4.7655 J-2.5703
G0 Z3.0
G0 X129.0739 Y-2.5171
G0 Z1.0
G1 F300.0 Z-2.0
G1 F800.0 X146.6797 Y-2.102
G1 Y-7.9922
G3 X148.5373 Y-8.5064 I1.0 J0.0
G2 X150.4788 Y-5.8769 I14.6377 J-8.7761
G3 X150.4829 Y-5.8723 I-0.7439 J0.6683
G2 X154.3097 Y-3.0327 I8.6877 J-7.7096
G2 X158.9659 Y-2.0781 I4.5368 J-10.2954
G3 X158.9847 I0.0106 J0.9999
G2 X162.8051 Y-2.4551 I0.1464 J-18.0624
G3 X162.8075 Y-2.4556 I0.2034 J0.9791
G2 X166.2637 Y-3.8088 I-2.196 J-10.6991
G3 X166.2813 Y-3.8192 I0.5175 J0.8557
G2 X168.1497 Y-5.5004 I-3.0251 J-5.2407
G2 X168.8282 Y-7.7237 I-3.1689 J-2.1822
G3 X168.8285 Y-7.7614 I0.9999 J-0.0107
G2 X168.3359 Y-9.828 I-4.1146 J-0.1113
G2 X167.3142 Y-10.8992 I-2.8119 J1.6592
G2 X164.9706 Y-11.7803 I-3.3723 J5.4121
G3 X164.9579 Y-11.7825 I0.1613 J-0.9869
G2 X162.2514 Y-12.0079 I-2.5786 J14.5976
G2 X158.7067 Y-11.717 I0.7982 J31.4691
G3 X158.858 Y-11.4081 I-10.53 J5.3487
G3 X159.3895 Y-9.3514 I-4.6502 J2.2989
G3 X159.3905 Y-9.3221 I-0.9989 J0.0467
G3 X159.1461 Y-7.7328 I-4.7517 J0.0826
G3 X159.1442 Y-7.7272 I-0.9484 J-0.317
G3 X157.316 Y-5.7607 I-3.1133 J-1.0612
G3 X157.2997 Y-5.7539 I-0.3907 J-0.9205
G3 X155.0749 Y-5.3515 I-2.0814 J-5.1556
G3 X149.4069 Y-8.0936 I-0.0286 J-7.1697
G3 X147.2188 Y-14.5228 I7.5205 J-6.1466
G1 Y-18.1406
G3 X147.7372 Y-19.017 I1.0 J0.0
G1 X154.9862 Y-23.0
G1 X129.1713
G1 X135.4235 Y-18.9819
G3 X135.8828 Y-18.1406 I-0.5406 J0.8412
G1 Y-7.4766
G3 X135.427 Y-6.6376 I-1.0 J0.0
G1 X129.0739 Y-2.5171
G1 F300.0 Z-4.0
G1 F800.0 X146.6797 Y-2.102
G1 Y-7.9922
G3 X148.5373 Y-8.5064 I1.0 J0.0
G2 X150.4788 Y-5.8769 I14.6377 J-8.7761
G3 X150.4829 Y-5.8723 I-0.7439 J0.6683
G2 X154.3097 Y-3.0327 I8.6877 J-7.7096
G2 X158.9659 Y-2.0781 I4.5368 J-10.2954
G3 X158.9847 I0.0106 J0.9999
G2 X162.8051 Y-2.4551 I0.1464 J-18.0624
G3 X162.8075 Y-2.4556 I0.2034 J0.9791
G2 X166.2637 Y-3.8088 I-2.196 J-10.6991
G3 X166.2813 Y-3.8192 I0.5175 J0.8557
G2 X168.1497 Y-5.5004 I-3.0251 J-5.2407
G2 X168.8282 Y-7.7237 I-3.1689 J-2.1822
G3 X168.8285 Y-7.7614 I0.9999 J-0.0107
G2 X168.3359 Y-9.828 I-4.1146 J-0.1113
G2 X167.3142 Y-10.8992 I-2.8119 J1.6592
G2 X164.9706 Y-11.7803 I-3.3723 J5.4121
G3 X164.9579 Y-11.7825 I0.1613 J-0.9869
G2 X162.2514 Y-12.0079 I-2.5786 J14.5976
G2 X158.7067 Y-11.717 I0.7982 J31.4691
G3 X158.858 Y-11.4081 I-10.53 J5.3487
G3 X159.3895 Y-9.3514 I-4.6502 J2.2989
G3 X159.3905 Y-9.3221 I-0.9989 J0.0467
G3 X159.1461 Y-7.7328 I-4.7517 J0.0826
G3 X159.1442 Y-7.7272 I-0.9484 J-0.317
G3 X157.316 Y-5.7607 I-3.1133 J-1.0612
G3 X157.2997 Y-5.7539 I-0.3907 J-0.9205
G3 X155.0749 Y-5.3515 I-2.0814 J-5.1556
G3 X149.4069 Y-8.0936 I-0.0286 J-7.1697
G3 X147.2188 Y-14.5228 I7.5205 J-6.1466
G1 Y-18.1406
G3 X147.7372 Y-19.017 I1.0 J0.0
G1 X154.9862 Y-23.0
G1 X129.1713
G1 X135.4235 Y-18.9819
G3 X135.8828 Y-18.1406 I-0.5406 J0.8412
G1 Y-7.4766
G3 X135.427 Y-6.6376 I-1.0 J0.0
G1 X129.0739 Y-2.5171
G0 Z3.0
G0 X170.4531 Y-9.6016
G0 Z1.0
G1 F300.0 Z-2.0
G1 F800.0 X189.7578
G1 Y-15.5938
G1 X170.4531
G1 Y-9.6016
G1 F300.0 Z-4.0
G1 F800.0 X189.7578
G1 Y-15.5938
G1 X170.4531
G1 Y-9.6016
G0 Z3.0
G0 X194.5739 Y-23.0
G0 Z1.0
G1 F300.0 Z-2.0
G1 F800.0 X203.358 Y-17.5122
G3 X203.8281 Y-16.6641 I-0.5298 J0.8481
G1 Y0.5156
G3 X203.3652 Y1.3591 I-1.0 J0.0
G1 X194.5183 Y6.9922
G1 X237.75
G3 X237.7565 I0.0 J1.0
G2 X243.898 Y6.5292 I0.2465 J-37.6929
G3 X243.9033 Y6.5284 I0.1564 J0.9877
G2 X249.6751 Y4.7674 I-3.1672 J-20.7197
G3 X249.6854 Y4.7626 I0.4265 J0.9045
G2 X252.6533 Y2.6522 I-4.0362 J-8.8186
G2 X253.8594 Y-0.3971 I-3.2371 J-3.0435
G3 Y-0.4024 I1.0 J-0.0013
G2 X253.3982 Y-1.9706 I-2.8578 J-0.0115
G2 X252.3588 Y-3.0783 I-3.7924 J2.5172
G2 X249.7817 Y-4.4845 I-6.3 J8.4815
G3 X249.779 Y-4.4855 I0.3524 J-0.9359
G2 X245.3154 Y-5.7542 I-9.584 J25.2325
G3 X245.3094 Y-5.7553 I0.1897 J-0.9818
G2 X240.6381 Y-6.4828 I-10.9089 J54.6856
G3 X240.6267 Y-8.4689 I0.1119 J-0.9937
G2 X245.3383 Y-9.231 I-7.9992 J-64.4057
G3 X245.3385 I0.1959 J0.9806
G2 X248.8383 Y-10.0962 I-7.7652 J-38.9207
G1 X248.8384 Y-10.0963
G2 X251.3859 Y-11.008 I-6.8607 J-23.1838
G3 X251.4037 Y-11.0153 I0.3891 J0.9212
G2 X254.7301 Y-13.0751 I-4.1967 J-10.4934
G2 X255.8045 Y-14.5229 I-3.4055 J-3.6497
G2 X256.1797 Y-16.2135 I-3.529 J-1.6701
G3 X256.1798 Y-16.2327 I1.0 J-0.0052
G2 X255.5005 Y-18.5666 I-4.1501 J-0.0579
G2 X253.9811 Y-20.0579 I-4.584 J3.1506
G2 X250.2868 Y-21.6783 I-6.9776 J10.8867
G3 X250.2827 Y-21.6794 I0.2539 J-0.9672
G2 X244.0534 Y-22.7426 I-8.8819 J33.2611
G3 X244.0466 Y-22.7431 I0.0771 J-0.997
G2 X237.6367 Y-23.0 I-6.1268 J72.7749
G3 X237.6328 I-0.0039 J-1.0
G1 X194.5739
G1 F300.0 Z-4.0
G1 F800.0 X203.358 Y-17.5122
G3 X203.8281 Y-16.6641 I-0.5298 J0.8481
G1 Y0.5156
G3 X203.3652 Y1.3591 I-1.0 J0.0
G1 X194.5183 Y6.9922
G1 X237.75
G3 X237.7565 I0.0 J1.0
G2 X243.898 Y6.5292 I0.2465 J-37.6929
G3 X243.9033 Y6.5284 I0.1564 J0.9877
G2 X249.6751 Y4.7674 I-3.1672 J-20.7197
G3 X249.6854 Y4.7626 I0.4265 J0.9045
G2 X252.6533 Y2.6522 I-4.0362 J-8.8186
G2 X253.8594 Y-0.3971 I-3.2371 J-3.0435
G3 Y-0.4024 I1.0 J-0.0013
G2 X253.3982 Y-1.9706 I-2.8578 J-0.0115
G2 X252.3588 Y-3.0783 I-3.7924 J2.5172
G2 X249.7817 Y-4.4845 I-6.3 J8.4815
G3 X249.779 Y-4.4855 I0.3524 J-0.9359
G2 X245.3154 Y-5.7542 I-9.584 J25.2325
G3 X245.3094 Y-5.7553 I0.1897 J-0.9818
G2 X240.6381 Y-6.4828 I-10.9089 J54.6856
G3 X240.6267 Y-8.4689 I0.1119 J-0.9937
G2 X245.3383 Y-9.231 I-7.9992 J-64.4057
G3 X245.3385 I0.1959 J0.9806
G2 X248.8383 Y-10.0962 I-7.7652 J-38.9207
G1 X248.8384 Y-10.0963
G2 X251.3859 Y-11.008 I-6.8607 J-23.1838
G3 X251.4037 Y-11.0153 I0.3891 J0.9212
G2 X254.7301 Y-13.0751 I-4.1967 J-10.4934
G2 X255.8045 Y-14.5229 I-3.4055 J-3.6497
G2 X256.1797 Y-16.2135 I-3.529 J-1.6701
G3 X256.1798 Y-16.2327 I1.0 J-0.0052
G2 X255.5005 Y-18.5666 I-4.1501 J-0.0579
G2 X253.9811 Y-20.0579 I-4.584 J3.1506
G2 X250.2868 Y-21.6783 I-6.9776 J10.8867
G3 X250.2827 Y-21.6794 I0.2539 J-0.9672
G2 X244.0534 Y-22.7426 I-8.8819 J33.2611
G3 X244.0466 Y-22.7431 I0.0771 J-0.997
G2 X237.6367 Y-23.0 I-6.1268 J72.7749
G3 X237.6328 I-0.0039 J-1.0
G1 X194.5739
G0 Z3.0
G0 X218.3689 Y-18.5134
G0 Z1.0
G1 F300.0 Z-2.0
G3 F800.0 X219.3516 Y-19.3281 I0.9827 J0.1853
G1 X232.5349
G3 X236.8023 Y-18.8065 I0.3486 J14.8635
G3 X236.8066 Y-18.8053 I-0.2636 J0.9646
G3 X239.0867 Y-17.5059 I-1.4389 J5.175
G3 X239.1187 Y-17.4737 I-0.6924 J0.7215
G3 X240.1565 Y-14.7853 I-2.7302 J2.5985
G3 X239.7306 Y-12.6224 I-5.2426 J0.091
G3 X239.7141 Y-12.586 I-0.9186 J-0.3952
G3 X237.1164 Y-10.3447 I-3.8579 J-1.8454
G3 X234.1999 Y-9.9219 I-2.7245 J-8.5216
G1 X219.3516
G3 X218.3516 Y-10.9219 I0.0 J-1.0
G1 Y-18.3281
G3 X218.3689 Y-18.5134 I1.0 J0.0
G1 F300.0 Z-4.0
G3 F800.0 X219.3516 Y-19.3281 I0.9827 J0.1853
G1 X232.5349
G3 X236.8023 Y-18.8065 I0.3486 J14.8635
G3 X236.8066 Y-18.8053 I-0.2636 J0.9646
G3 X239.0867 Y-17.5059 I-1.4389 J5.175
G3 X239.1187 Y-17.4737 I-0.6924 J0.7215
G3 X240.1565 Y-14.7853 I-2.7302 J2.5985
G3 X239.7306 Y-12.6224 I-5.2426 J0.091
G3 X239.7141 Y-12.586 I-0.9186 J-0.3952
G3 X237.1164 Y-10.3447 I-3.8579 J-1.8454
G3 X234.1999 Y-9.9219 I-2.7245 J-8.5216
G1 X219.3516
G3 X218.3516 Y-10.9219 I0.0 J-1.0
G1 Y-18.3281
G3 X218.3689 Y-18.5134 I1.0 J0.0
G0 Z3.0
G0 X219.2811 Y-5.5913
G0 Z1.0
G1 F300.0 Z-2.0
G3 F800.0 X219.3516 Y-5.5938 I0.0704 J0.9975
G1 X232.7318
G3 X234.5667 Y-5.4874 I0.0744 J14.5976
G3 X237.4948 Y-4.5047 I-0.6239 J6.7127
G3 X237.5312 Y-4.481 I-0.5269 J0.8499
G3 X239.1489 Y-1.2808 I-2.0895 J3.0653
G3 X238.5061 Y1.0701 I-4.2971 J0.0883
G3 X238.488 Y1.0983 I-0.8502 J-0.5264
G3 X237.1372 Y2.3641 I-3.3792 J-2.2525
G3 X237.1249 Y2.371 I-0.4995 J-0.8663
G3 X234.8324 Y3.1523 I-3.2881 J-5.8943
G3 X232.6132 Y3.3203 I-2.1142 J-13.1854
G1 X219.3516
G3 X218.3516 Y2.3203 I0.0 J-1.0
G1 Y-4.5938
G3 X219.2811 Y-5.5913 I1.0 J0.0
G1 F300.0 Z-4.0
G3 F800.0 X219.3516 Y-5.5938 I0.0704 J0.9975
G1 X232.7318
G3 X234.5667 Y-5.4874 I0.0744 J14.5976
G3 X237.4948 Y-4.5047 I-0.6239 J6.7127
G3 X237.5312 Y-4.481 I-0.5269 J0.8499
G3 X239.1489 Y-1.2808 I-2.0895 J3.0653
G3 X238.5061 Y1.0701 I-4.2971 J0.0883
G3 X238.488 Y1.0983 I-0.8502 J-0.5264
G3 X237.1372 Y2.3641 I-3.3792 J-2.2525
G3 X237.1249 Y2.371 I-0.4995 J-0.8663
G3 X234.8324 Y3.1523 I-3.2881 J-5.8943
G3 X232.6132 Y3.3203 I-2.1142 J-13.1854
G1 X219.3516
G3 X218.3516 Y2.3203 I0.0 J-1.0
G1 Y-4.5938
G3 X219.2811 Y-5.5913 I1.0 J0.0
G0 Z3.0
G0 X261.7448 Y-7.5556
G0 Z1.0
G1 F300.0 Z-2.0
G2 F800.0 X262.1644 Y-6.2877 I2.4713 J-0.1143
G2 X264.0796 Y-4.6192 I4.6249 J-3.3754
G3 X264.0972 Y-4.6095 I-0.4733 J0.8809
G2 X266.6675 Y-3.454 I7.6479 J-13.575
G2 X273.6247 Y-1.9118 I10.504 J-30.9229
G3 X273.6301 Y-1.9112 I-0.1086 J0.9941
G2 X280.8468 Y-1.5156 I6.9294 J-60.3872
G3 X280.8571 I0.0047 J1.0
G2 X287.5738 Y-1.815 I0.3746 J-67.0926
G2 X290.8569 Y-2.3055 I-3.2264 J-32.8285
G3 X290.864 Y-2.3069 I0.1973 J0.9803
G2 X293.9398 Y-3.2418 I-2.9535 J-15.2432
G3 X293.9529 Y-3.2472 I0.3883 J0.9215
G2 X296.5373 Y-5.2166 I-2.3145 J-5.7176
G2 X297.4301 Y-8.246 I-4.2171 J-2.8891
G3 X297.4297 Y-8.2734 I0.9996 J-0.0274
G1 Y-16.9568
G3 X297.7197 Y-19.2821 I7.9827 J-0.1852
G3 X297.7211 Y-19.2871 I0.9634 J0.268
G3 X298.5196 Y-20.6609 I3.0897 J0.8768
G3 X298.553 Y-20.6934 I0.7134 J0.7008
G3 X300.2403 Y-21.3443 I1.6595 J1.7897
G3 X302.7559 Y-19.8178 I0.1241 J2.6317
G3 X302.7696 Y-19.7869 I-0.9078 J0.4195
G3 X303.1789 Y-17.5393 I-4.8457 J2.0436
G3 X303.1784 Y-17.5273 I-0.9992 J-0.0388
G3 X303.1458 Y-17.0437 I-14.7231 J-0.7493
G2 X303.9027 Y-17.7818 I-0.9682 J-1.7501
G2 X304.227 Y-19.2348 I-2.678 J-1.3604
G3 X304.2271 Y-19.2973 I0.9995 J-0.0308
G2 X303.4465 Y-21.7478 I-3.8532 J-0.1222
G2 X301.9283 Y-22.9327 I-3.4512 J2.8568
G2 X298.8324 Y-23.8308 I-4.4157 J9.4365
G3 X298.8214 Y-23.8323 I0.1267 J-0.9919
G2 X295.4365 Y-24.0547 I-3.2242 J23.1982
G3 X295.4247 I-0.0069 J-1.0
G2 X292.7451 Y-23.8903 I-0.101 J20.271
G2 X290.8055 Y-23.479 I1.5634 J12.154
G3 X290.7899 Y-23.4745 I-0.2859 J-0.9583
G2 X288.3376 Y-22.1615 I1.7393 J6.1949
G2 X287.004 Y-19.9011 I2.9974 J3.292
G3 X285.2871 Y-19.4648 I-0.9728 J-0.2317
G2 X282.8937 Y-21.6039 I-10.891 J9.7774
G2 X280.1094 Y-23.0525 I-6.6064 J9.2971
G2 X276.1055 Y-23.8598 I-5.6081 J17.4829
G3 X276.0963 Y-23.8606 I0.0874 J-0.9962
G2 X271.8797 Y-24.0547 I-4.0206 J41.4539
G3 X271.8715 I-0.0047 J-1.0
G2 X268.4527 Y-23.9135 I-0.1325 J38.2639
G3 X268.4523 I-0.0859 J-0.9963
G2 X265.896 Y-23.5448 I1.9184 J22.3489
G3 X265.8958 I-0.1995 J-0.9799
G2 X264.0481 Y-23.0242 I2.5859 J12.7177
G3 X264.0252 Y-23.0162 I-0.3416 J-0.9398
G2 X261.7734 Y-21.6188 I1.844 J5.4845
G2 X260.945 Y-19.4066 I2.3381 J2.1367
G3 X260.9452 Y-19.3677 I-0.9997 J0.0238
G2 X261.9351 Y-16.5312 I4.3701 J0.0659
G2 X263.7441 Y-15.0271 I5.1297 J-4.3296
G2 X267.2519 Y-13.6068 I7.2436 J-12.8483
G3 X267.2597 Y-13.6047 I-0.2533 J0.9674
G2 X271.0965 Y-12.8267 I7.9765 J-29.4872
G3 X271.0989 Y-12.8264 I-0.1355 J0.9908
G1 X273.9583 Y-12.4279
G1 X285.2317 Y-10.8576
G3 X286.0938 Y-9.8672 I-0.138 J0.9904
G1 Y-8.0527
G3 X285.156 Y-5.7228 I-3.1665 J0.0792
G3 X285.1393 Y-5.7067 I-0.7036 J-0.7106
G3 X283.746 Y-4.8311 I-2.8988 J-3.0665
G3 X283.7448 Y-4.8307 I-0.3568 J-0.9342
G3 X281.6816 Y-4.3359 I-2.9516 J-7.7594
G3 X279.7097 Y-4.2265 I-1.8928 J-16.2872
G3 X275.6479 Y-4.6257 I-0.3184 J-17.6249
G3 X273.4011 Y-5.6191 I1.2877 J-5.9503
G3 X273.3908 Y-5.6265 I0.5806 J-0.8142
G3 X272.0705 Y-8.2924 I1.9077 J-2.6047
G3 X272.0707 Y-8.3014 I0.9998 J0.019
G3 X272.2427 Y-9.2036 I2.8738 J0.0804
G2 X269.7679 Y-9.5707 I-4.8538 J24.1976
G3 X269.7658 Y-9.5709 I0.0964 J-0.9953
G2 X265.8547 Y-9.7578 I-3.7901 J38.2901
G3 X265.8463 I-0.0031 J-1.0
G2 X264.3478 Y-9.6713 I-0.0632 J11.9276
G3 X264.3166 Y-9.668 I-0.1203 J-0.9927
G2 X262.4044 Y-9.0424 I0.398 J4.4513
G2 X261.7411 Y-7.71 I0.8653 J1.262
G3 X261.7422 Y-7.6658 I-0.9989 J0.046
G2 X261.7448 Y-7.5556 I2.474 J-0.0042
G0 Z3.0
G0 X273.048 Y-15.7959
G0 Z1.0
G1 F300.0 Z-2.0
G3 F800.0 X272.3982 Y-17.8266 I2.7365 J-1.995
G3 X274.5758 Y-20.9049 I3.1367 J-0.0904
G3 X277.4646 Y-21.3439 I2.6522 J7.7294
G3 X280.5013 Y-21.0168 I0.0873 J13.4509
G1 X280.5012
G1 X280.5013
G3 X283.4376 Y-19.813 I-2.0787 J9.2533
G3 X285.2773 Y-18.1181 I-3.27 J5.3955
G3 X285.2873 Y-18.104 I-0.8099 J0.5865
G3 X286.0938 Y-15.5123 I-3.6715 J2.5638
G1 Y-13.6641
G3 X284.9517 Y-12.6742 I-1.0 J0.0
G1 X279.4105 Y-13.4692
G1 X277.8127 Y-13.6544
G3 X274.6664 Y-14.5025 I1.0602 J-10.1931
G3 X274.6547 Y-14.5079 I0.4105 J-0.9119
G3 X273.0841 Y-15.7479 I1.8331 J-3.9365
G3 X273.0648 Y-15.7731 I0.7838 J-0.621
G3 X273.048 Y-15.7959 I2.7197 J-2.0178
G1 F300.0 Z-4.0
G3 F800.0 X272.3982 Y-17.8266 I2.7365 J-1.995
G3 X274.5758 Y-20.9049 I3.1367 J-0.0904
G3 X277.4646 Y-21.3439 I2.6522 J7.7294
G3 X280.5013 Y-21.0168 I0.0873 J13.4509
G1 X280.5012
G1 X280.5013
G3 X283.4376 Y-19.813 I-2.0787 J9.2533
G3 X285.2773 Y-18.1181 I-3.27 J5.3955
G3 X285.2873 Y-18.104 I-0.8099 J0.5865
G3 X286.0938 Y-15.5123 I-3.6715 J2.5638
G1 Y-13.6641
G3 X284.9517 Y-12.6742 I-1.0 J0.0
G1 X279.4105 Y-13.4692
G1 X277.8127 Y-13.6544
G3 X274.6664 Y-14.5025 I1.0602 J-10.1931
G3 X274.6547 Y-14.5079 I0.4105 J-0.9119
G3 X273.0841 Y-15.7479 I1.8331 J-3.9365
G3 X273.0648 Y-15.7731 I0.7838 J-0.621
G3 X273.048 Y-15.7959 I2.7197 J-2.0178
G0 Z3.0
G0 X272.605 Y-12.6165
G0 Z-1.0
G1 F300.0 Z-4.0
G1 F800.0 X273.9583 Y-12.4279
G1 X285.2317 Y-10.8576
G3 X286.0938 Y-9.8672 I-0.138 J0.9904
G1 Y-8.0527
G3 X285.156 Y-5.7228 I-3.1665 J0.0792
G3 X285.1393 Y-5.7067 I-0.7036 J-0.7106
G3 X283.746 Y-4.8311 I-2.8988 J-3.0665
G3 X283.7448 Y-4.8307 I-0.3568 J-0.9342
G3 X281.6816 Y-4.3359 I-2.9516 J-7.7594
G3 X279.7097 Y-4.2265 I-1.8928 J-16.2872
G3 X275.6479 Y-4.6257 I-0.3184 J-17.6249
G3 X273.4011 Y-5.6191 I1.2877 J-5.9503
G3 X273.3908 Y-5.6265 I0.5806 J-0.8142
G3 X272.0705 Y-8.2924 I1.9077 J-2.6047
G3 X272.0707 Y-8.3014 I0.9998 J0.019
G3 X272.2427 Y-9.2036 I2.8738 J0.0804
G2 X269.7679 Y-9.5707 I-4.8538 J24.1976
G3 X269.7658 Y-9.5709 I0.0964 J-0.9953
G2 X265.8547 Y-9.7578 I-3.7901 J38.2901
G3 X265.8463 I-0.0031 J-1.0
G2 X264.3478 Y-9.6713 I-0.0632 J11.9276
G3 X264.3166 Y-9.668 I-0.1203 J-0.9927
G2 X262.4044 Y-9.0424 I0.398 J4.4513
G2 X261.7411 Y-7.71 I0.8653 J1.262
G3 X261.7422 Y-7.6658 I-0.9989 J0.046
G2 X262.1644 Y-6.2877 I2.474 J-0.0042
G2 X264.0796 Y-4.6192 I4.6249 J-3.3754
G3 X264.0972 Y-4.6095 I-0.4733 J0.8809
G2 X266.6675 Y-3.454 I7.6479 J-13.575
G2 X273.6247 Y-1.9118 I10.504 J-30.9229
G3 X273.6301 Y-1.9112 I-0.1086 J0.9941
G2 X280.8468 Y-1.5156 I6.9294 J-60.3872
G3 X280.8571 I0.0047 J1.0
G2 X287.5738 Y-1.815 I0.3746 J-67.0926
G2 X290.8569 Y-2.3055 I-3.2264 J-32.8285
G3 X290.864 Y-2.3069 I0.1973 J0.9803
G2 X293.9398 Y-3.2418 I-2.9535 J-15.2432
G3 X293.9529 Y-3.2472 I0.3883 J0.9215
G2 X296.5373 Y-5.2166 I-2.3145 J-5.7176
G2 X297.4301 Y-8.246 I-4.2171 J-2.8891
G3 X297.4297 Y-8.2734 I0.9996 J-0.0274
G1 Y-16.9568
G3 X297.7197 Y-19.2821 I7.9827 J-0.1852
G3 X297.7211 Y-19.2871 I0.9634 J0.268
G3 X298.5196 Y-20.6609 I3.0897 J0.8768
G3 X298.553 Y-20.6934 I0.7134 J0.7008
G3 X300.2403 Y-21.3443 I1.6595 J1.7897
G3 X302.7559 Y-19.8178 I0.1241 J2.6317
G3 X302.7696 Y-19.7869 I-0.9078 J0.4195
G3 X303.1789 Y-17.5393 I-4.8457 J2.0436
G3 X303.1784 Y-17.5273 I-0.9992 J-0.0388
G3 X303.1458 Y-17.0437 I-14.7231 J-0.7493
G2 X303.9027 Y-17.7818 I-0.9682 J-1.7501
G2 X304.227 Y-19.2348 I-2.678 J-1.3604
G3 X304.2271 Y-19.2973 I0.9995 J-0.0308
G2 X303.4465 Y-21.7478 I-3.8532 J-0.1222
G2 X301.9283 Y-22.9327 I-3.4512 J2.8568
G2 X298.8324 Y-23.8308 I-4.4157 J9.4365
G3 X298.8214 Y-23.8323 I0.1267 J-0.9919
G2 X295.4365 Y-24.0547 I-3.2242 J23.1982
G3 X295.4247 I-0.0069 J-1.0
G2 X292.7451 Y-23.8903 I-0.101 J20.271
G2 X290.8055 Y-23.479 I1.5634 J12.154
G3 X290.7899 Y-23.4745 I-0.2859 J-0.9583
G2 X288.3376 Y-22.1615 I1.7393 J6.1949
G2 X287.004 Y-19.9011 I2.9974 J3.292
G3 X285.2871 Y-19.4648 I-0.9728 J-0.2317
G2 X282.8937 Y-21.6039 I-10.891 J9.7774
G2 X280.1094 Y-23.0525 I-6.6064 J9.2971
G2 X276.1055 Y-23.8598 I-5.6081 J17.4829
G3 X276.0963 Y-23.8606 I0.0874 J-0.9962
G2 X271.8797 Y-24.0547 I-4.0206 J41.4539
G3 X271.8715 I-0.0047 J-1.0
G2 X268.4527 Y-23.9135 I-0.1325 J38.2639
G3 X268.4523 I-0.0859 J-0.9963
G2 X265.896 Y-23.5448 I1.9184 J22.3489
G3 X265.8958 I-0.1995 J-0.9799
G2 X264.0481 Y-23.0242 I2.5859 J12.7177
G3 X264.0252 Y-23.0162 I-0.3416 J-0.9398
G2 X261.7734 Y-21.6188 I1.844 J5.4845
G2 X260.945 Y-19.4066 I2.3381 J2.1367
G3 X260.9452 Y-19.3677 I-0.9997 J0.0238
G2 X261.9351 Y-16.5312 I4.3701 J0.0659
G2 X263.7441 Y-15.0271 I5.1297 J-4.3296
G2 X267.2519 Y-13.6068 I7.2436 J-12.8483
G3 X267.2597 Y-13.6047 I-0.2533 J0.9674
G2 X271.0965 Y-12.8267 I7.9765 J-29.4872
G3 X271.0989 Y-12.8264 I-0.1355 J0.9908
G1 X272.605 Y-12.6165
G0 Z3.0
G0 X307.9906 Y-2.5138
G0 Z1.0
G1 F300.0 Z-2.0
G1 F800.0 X325.6016 Y-2.0796
G1 Y-7.2188
G3 X327.4363 Y-7.7695 I1.0 J0.0
G2 X329.6744 Y-4.9525 I17.0485 J-11.2479
G3 X329.6793 Y-4.9473 I-0.7251 J0.6886
G2 X332.3994 Y-2.8599 I7.678 J-7.1892
G2 X335.8161 Y-1.8113 I5.0882 J-10.4879
G3 X335.8242 Y-1.8101 I-0.1434 J0.9897
G2 X339.5555 Y-1.539 I3.5662 J-23.2762
G3 X339.5686 I0.007 J1.0
G2 X343.6487 Y-1.8049 I0.1745 J-28.7636
G3 X343.6492 Y-1.805 I0.1358 J0.9907
G2 X346.6299 Y-2.5077 I-2.1645 J-15.8538
G2 X348.6454 Y-3.4779 I-3.0176 J-8.8469
G3 X348.6507 Y-3.4813 I0.5384 J0.8427
G2 X350.7651 Y-5.8139 I-3.1218 J-4.9543
G2 X351.4299 Y-8.9794 I-6.501 J-3.0179
G3 X351.4297 Y-9.0 I0.9998 J-0.0206
G1 Y-18.1406
G3 X351.8871 Y-18.9806 I1.0 J0.0
G1 X358.1091 Y-23.0
G1 X336.2026
G1 X339.7667 Y-19.9557
G3 X340.1172 Y-19.1953 I-0.6495 J0.7604
G1 Y-11.4925
G3 X339.7691 Y-9.1869 I-7.0749 J0.1109
G3 X339.7682 Y-9.1841 I-0.9507 J-0.3102
G3 X337.2277 Y-6.3908 I-4.4 J-1.4498
G3 X337.2083 Y-6.3826 I-0.4014 J-0.9159
G3 X333.9055 Y-5.7733 I-3.0841 J-7.4614
G3 X330.9405 Y-6.2635 I-0.0877 J-8.6813
G3 X330.9308 Y-6.267 I0.3314 J-0.9435
G3 X328.3085 Y-7.9413 I2.43 J-6.6964
G3 X326.6341 Y-10.5636 I5.0222 J-5.0525
G3 X326.6307 Y-10.5733 I0.94 J-0.3411
G3 X326.1406 Y-13.5529 I8.191 J-2.8773
G1 Y-19.1953
G3 X326.4896 Y-19.9543 I1.0 J0.0
G1 X330.0404 Y-23.0
G1 X308.1253
G1 X314.3473 Y-18.9806
G3 X314.8047 Y-18.1406 I-0.5426 J0.84
G1 Y-7.4766
G3 X314.3488 Y-6.6376 I-1.0 J0.0
G1 X307.9906 Y-2.5138
G1 F300.0 Z-4.0
G1 F800.0 X325.6016 Y-2.0796
G1 Y-7.2188
G3 X327.4363 Y-7.7695 I1.0 J0.0
G2 X329.6744 Y-4.9525 I17.0485 J-11.2479
G3 X329.6793 Y-4.9473 I-0.7251 J0.6886
G2 X332.3994 Y-2.8599 I7.678 J-7.1892
G2 X335.8161 Y-1.8113 I5.0882 J-10.4879
G3 X335.8242 Y-1.8101 I-0.1434 J0.9897
G2 X339.5555 Y-1.539 I3.5662 J-23.2762
G3 X339.5686 I0.007 J1.0
G2 X343.6487 Y-1.8049 I0.1745 J-28.7636
G3 X343.6492 Y-1.805 I0.1358 J0.9907
G2 X346.6299 Y-2.5077 I-2.1645 J-15.8538
G2 X348.6454 Y-3.4779 I-3.0176 J-8.8469
G3 X348.6507 Y-3.4813 I0.5384 J0.8427
G2 X350.7651 Y-5.8139 I-3.1218 J-4.9543
G2 X351.4299 Y-8.9794 I-6.501 J-3.0179
G3 X351.4297 Y-9.0 I0.9998 J-0.0206
G1 Y-18.1406
G3 X351.8871 Y-18.9806 I1.0 J0.0
G1 X358.1091 Y-23.0
G1 X336.2026
G1 X339.7667 Y-19.9557
G3 X340.1172 Y-19.1953 I-0.6495 J0.7604
G1 Y-11.4925
G3 X339.7691 Y-9.1869 I-7.0749 J0.1109
G3 X339.7682 Y-9.1841 I-0.9507 J-0.3102
G3 X337.2277 Y-6.3908 I-4.4 J-1.4498
G3 X337.2083 Y-6.3826 I-0.4014 J-0.9159
G3 X333.9055 Y-5.7733 I-3.0841 J-7.4614
G3 X330.9405 Y-6.2635 I-0.0877 J-8.6813
G3 X330.9308 Y-6.267 I0.3314 J-0.9435
G3 X328.3085 Y-7.9413 I2.43 J-6.6964
G3 X326.6341 Y-10.5636 I5.0222 J-5.0525
G3 X326.6307 Y-10.5733 I0.94 J-0.3411
G3 X326.1406 Y-13.5529 I8.191 J-2.8773
G1 Y-19.1953
G3 X326.4896 Y-19.9543 I1.0 J0.0
G1 X330.0404 Y-23.0
G1 X308.1253
G1 X314.3473 Y-18.9806
G3 X314.8047 Y-18.1406 I-0.5426 J0.84
G1 Y-7.4766
G3 X314.3488 Y-6.6376 I-1.0 J0.0
G1 X307.9906 Y-2.5138
G0 Z3.0
G0 X361.793 Y8.1487
G0 Z1.0
G1 F300.0 Z-2.0
G1 F800.0 X379.9297 Y8.585
G1 Y-12.4219
G3 X381.4339 Y-13.2854 I1.0 J0.0
G1 X391.348 Y-7.4964
G3 X391.4287 Y-5.8217 I-0.5043 J0.8636
G1 X386.2055 Y-2.0547
G1 X411.584
G1 X399.1014 Y-8.969
G3 X398.9298 Y-10.5984 I0.4845 J-0.8748
G1 X408.4454 Y-18.8718
G3 X408.5574 Y-18.9562 I0.6561 J0.7546
G1 X414.7923 Y-23.0
G1 X390.6034
G1 X394.2073 Y-19.9597
G3 X394.2521 Y-18.4711 I-0.6448 J0.7643
G1 X389.3536 Y-13.807
G3 X388.1935 Y-13.6489 I-0.6896 J-0.7242
G1 X380.4591 Y-17.7739
G3 X380.2761 Y-19.4131 I0.4706 J-0.8824
G1 X384.4294 Y-23.0
G1 X361.903
G1 X368.1379 Y-18.9562
G3 X368.5938 Y-18.1172 I-0.5441 J0.839
G1 Y3.2109
G3 X368.1364 Y4.0509 I-1.0 J0.0
G1 X361.793 Y8.1487
G1 F300.0 Z-4.0
G1 F800.0 X379.9297 Y8.585
G1 Y-12.4219
G3 X381.4339 Y-13.2854 I1.0 J0.0
G1 X391.348 Y-7.4964
G3 X391.4287 Y-5.8217 I-0.5043 J0.8636
G1 X386.2055 Y-2.0547
G1 X411.584
G1 X399.1014 Y-8.969
G3 X398.9298 Y-10.5984 I0.4845 J-0.8748
G1 X408.4454 Y-18.8718
G3 X408.5574 Y-18.9562 I0.6561 J0.7546
G1 X414.7923 Y-23.0
G1 X390.6034
G1 X394.2073 Y-19.9597
G3 X394.2521 Y-18.4711 I-0.6448 J0.7643
G1 X389.3536 Y-13.807
G3 X388.1935 Y-13.6489 I-0.6896 J-0.7242
G1 X380.4591 Y-17.7739
G3 X380.2761 Y-19.4131 I0.4706 J-0.8824
G1 X384.4294 Y-23.0
G1 X361.903
G1 X368.1379 Y-18.9562
G3 X368.5938 Y-18.1172 I-0.5441 J0.839
G1 Y3.2109
G3 X368.1364 Y4.0509 I-1.0 J0.0
G1 X361.793 Y8.1487
G0 Z3.0
M5
M30
