( Made using CamBam - http://www.cambam.co.uk )
( Beratex 4/21/2024 9:26:56 AM )
( Post processor: Default )
( T2 : 2.0 )
( T4 : 4.0 )
G21 G90 G64 G40
G0 Z3.0
( T4 : 4.0 )
T4 M6
( atex_Tasche4mm )
G17
M3 S1000
G0 X81.0382 Y-40.1846
G0 Z1.0
G1 F300.0 Z-2.0
G1 F800.0 Y-40.4924
G3 X81.0369 Y-41.5672 I32.3294 J-0.5767
G3 X80.133 Y-39.9201 I-14.1033 J-6.6676
G3 X80.2843 Y-37.1318 I-23.7782 J2.6882
G1 Y-32.7368
G3 X79.608 Y-28.194 I-15.5968 J0.0
G3 X80.2875 Y-23.6401 I-14.9205 J4.5538
G1 Y-19.7441
G2 X80.7537 Y-19.9349 I-8.8515 J-22.3028
G3 X80.958 Y-20.0193 I6.0578 J14.3758
G2 X81.0382 Y-20.0543 I-0.5906 J-1.4589
G1 Y-40.1846
G1 F300.0 X81.8382
G1 F800.0 Y-40.4996
G3 X82.0086 Y-44.3922 I31.5294 J-0.5696
G2 X81.9177 Y-44.3653 I4.7559 J16.2741
G3 X81.6876 Y-44.2987 I-4.2308 J-14.1824
G2 X81.14 Y-44.0854 I0.8141 J2.8995
G3 X79.3046 Y-40.111 I-14.2064 J-4.1495
G3 X79.4843 Y-37.1335 I-22.9498 J2.8791
G1 Y-32.7368
G3 X78.7696 Y-28.1937 I-14.7968 J0.0
G3 X79.4875 Y-23.6401 I-14.0821 J4.5535
G1 Y-19.4112
G3 X79.4834 Y-18.5941 I-19.9907 J0.3078
G2 X81.0644 Y-19.1977 I-8.0474 J-23.4529
G3 X81.2582 Y-19.2777 I5.7471 J13.6386
G2 X81.8396 Y-19.6158 I-0.8907 J-2.2005
G3 X81.8382 Y-19.8218 I14.7986 J-0.2059
G1 Y-40.1846
G1 F300.0 X83.4382
G1 F800.0 Y-40.5143
G3 X83.9213 Y-46.4537 I29.9294 J-0.5549
G2 X81.4603 Y-45.8986 I2.8432 J18.3356
G3 X81.2551 Y-45.8392 I-3.7734 J-12.6492
G2 X79.7572 Y-45.1053 I1.2466 J4.4399
G3 X77.6341 Y-40.5058 I-12.8236 J-3.1296
G3 X77.8843 Y-37.137 I-21.2793 J3.2739
G1 Y-32.7368
G3 X77.0774 Y-28.1931 I-13.1968 J0.0
G3 X77.8875 Y-23.6401 I-12.3899 J4.553
G1 Y-19.3986
G3 X77.6907 Y-16.4036 I-18.3907 J0.2953
G2 X81.6857 Y-17.7232 I-6.2547 J-25.6434
G3 X81.8586 Y-17.7946 I5.1258 J12.1641
G2 X83.3041 Y-18.8008 I-1.4911 J-3.6836
G2 X83.4432 Y-19.4596 I-1.3034 J-0.6192
G3 X83.4382 Y-19.8218 I13.195 J-0.3622
G1 Y-40.1846
G1 F300.0 X85.0382
G1 F800.0 Y-40.5293
G3 X85.9699 Y-48.295 I28.3294 J-0.5399
G2 X84.1915 Y-48.108 I3.2269 J39.2298
G2 X81.003 Y-47.4318 I2.5731 J19.9898
G3 X80.8226 Y-47.3796 I-3.3161 J-11.1159
G2 X78.5852 Y-46.2205 I1.6791 J5.9804
G2 X78.2179 Y-45.547 I1.0554 J1.0125
G3 X75.9396 Y-40.9238 I-11.2843 J-2.6879
G3 X76.2843 Y-37.1406 I-19.5848 J3.6918
G1 Y-32.7368
G3 X75.3569 Y-28.1926 I-11.5968 J0.0
G3 X76.2875 Y-23.6401 I-10.6694 J4.5524
G1 Y-19.3855
G3 X75.5996 Y-14.3383 I-16.7907 J0.2821
G2 X76.6787 Y-14.5467 I-12.7003 J-68.6618
G3 X76.7612 Y-14.563 I2.2891 J11.3719
G2 X82.307 Y-16.2488 I-5.3253 J-27.484
G3 X82.4589 Y-16.3115 I4.5045 J10.6897
G2 X84.6271 Y-17.8831 I-2.0915 J-5.1667
G2 X85.0426 Y-19.5035 I-2.6264 J-1.5369
G3 X85.0382 Y-19.8218 I11.5956 J-0.3183
G1 Y-40.1846
G1 F300.0 X86.6382
G1 F800.0 Y-40.5448
G3 X87.6113 Y-48.2349 I26.7294 J-0.5244
G3 X87.6252 Y-48.2845 I9.6341 J2.6803
G3 X88.2309 Y-50.0161 I14.7177 J4.1764
G2 X83.9876 Y-49.6949 I0.9659 J40.9509
G2 X80.5456 Y-48.965 I2.7769 J21.5768
G3 X80.3901 Y-48.92 I-2.8587 J-9.5827
G2 X77.5094 Y-47.4074 I2.1116 J7.5208
G2 X76.6614 Y-45.9177 I2.1311 J2.1993
G3 X74.2101 Y-41.3753 I-9.7278 J-2.3172
G3 X74.6843 Y-37.1443 I-17.8552 J4.1434
G1 Y-32.7368
G3 X73.5915 Y-28.192 I-9.9968 J0.0
G3 X74.6875 Y-23.6401 I-8.904 J4.5519
G1 Y-19.3717
G3 X73.0831 Y-12.3033 I-15.1907 J0.2684
G2 X76.9944 Y-12.9782 I-10.1838 J-70.6967
G3 X77.0656 Y-12.9922 I1.9734 J9.8034
G2 X82.9283 Y-14.7743 I-5.6296 J-29.0548
G3 X83.0593 Y-14.8284 I3.8832 J9.2152
G2 X85.9337 Y-16.9525 I-2.6918 J-6.6497
G2 X86.6419 Y-19.5474 I-3.9331 J-2.4675
G3 X86.6382 Y-19.8218 I9.9962 J-0.2744
G1 Y-40.1846
G1 F300.0 X88.2382
G1 F800.0 Y-40.5607
G3 X89.1527 Y-47.8061 I25.1294 J-0.5085
G3 X89.1644 Y-47.8477 I8.0926 J2.2515
G3 X90.8858 Y-51.6176 I13.1785 J3.7397
G2 X89.5083 Y-51.6271 I-1.0338 J50.0983
G3 X89.4088 Y-51.627 I-0.0576 J-8.3998
G2 X83.7838 Y-51.2819 I-0.2121 J42.5617
G2 X80.0882 Y-50.4983 I2.9808 J23.1638
G3 X79.9576 Y-50.4605 I-2.4013 J-8.0495
G2 X76.4428 Y-48.6011 I2.5441 J9.0612
G2 X75.105 Y-46.2884 I3.1978 J3.3931
G3 X72.426 Y-41.8793 I-8.1714 J-1.9464
G3 X73.0843 Y-37.1482 I-16.0712 J4.6474
G1 Y-32.7368
G3 X71.7477 Y-28.1914 I-8.3968 J0.0
G3 X73.0875 Y-23.6401 I-7.0602 J4.5513
G1 Y-19.3572
G3 X69.8596 Y-10.3066 I-13.5907 J0.2538
G2 X70.0518 Y-10.3247 I-14.4248 J-154.0672
G2 X77.3102 Y-11.4096 I-7.1525 J-72.6754
G3 X77.37 Y-11.4214 I1.6576 J8.2348
G2 X83.5496 Y-13.2999 I-5.934 J-30.6256
G3 X83.6596 Y-13.3453 I3.2619 J7.7408
G2 X87.2351 Y-16.0177 I-3.2922 J-8.1328
G2 X88.2413 Y-19.5913 I-5.2345 J-3.4023
G3 X88.2382 Y-19.8218 I8.3968 J-0.2305
G1 Y-40.1846
G1 F300.0 X89.8382
G1 F800.0 Y-40.5772
G3 X90.6942 Y-47.3772 I23.5294 J-0.492
G3 X90.7036 Y-47.4109 I6.5512 J1.8226
G3 X93.7116 Y-52.5864 I11.6393 J3.3029
G3 X93.9392 Y-52.8075 I4.8511 J4.7651
G3 X94.2041 Y-53.0448 I6.9705 J7.5173
G2 X89.4973 Y-53.227 I-4.3521 J51.5255
G3 X89.4168 Y-53.2269 I-0.0466 J-6.7998
G2 X83.5799 Y-52.8688 I-0.22 J44.1617
G2 X79.6308 Y-52.0315 I3.1846 J24.7507
G3 X79.5251 Y-52.0009 I-1.9439 J-6.5162
G2 X75.3795 Y-49.7974 I2.9766 J10.6017
G2 X73.5485 Y-46.6592 I4.2611 J4.5893
G3 X70.5472 Y-42.4745 I-6.6149 J-1.5757
G3 X71.4843 Y-37.1523 I-14.1924 J5.2426
G1 Y-32.7368
G3 X69.7403 Y-28.1909 I-6.7968 J0.0
G3 X71.4875 Y-23.6401 I-5.0528 J4.5507
G1 Y-19.3418
G3 X67.9355 Y-10.5815 I-11.9907 J0.2384
G3 X67.8221 Y-10.4718 I-4.7847 J-4.8319
G3 X64.8759 Y-8.3181 I-9.9704 J-10.5473
G2 X70.2057 Y-8.7321 I-9.4411 J-156.0557
G2 X77.6259 Y-9.8411 I-7.3064 J-74.2679
G3 X77.6743 Y-9.8506 I1.3419 J6.6663
G2 X84.171 Y-11.8255 I-6.2383 J-32.1963
G3 X84.26 Y-11.8622 I2.6406 J6.2664
G2 X88.5341 Y-15.0809 I-3.8925 J-9.6159
G2 X89.8407 Y-19.6352 I-6.5334 J-4.3391
G3 X89.8382 Y-19.8218 I6.7974 J-0.1866
G1 Y-40.1846
G0 Z3.0
G0 X23.7831 Y-46.3147
G0 Z1.0
G1 F300.0 Z-2.0
G2 F800.0 X20.8482 Y-45.8225 I5.6305 J42.5663
G3 X20.8451 Y-45.8219 I-2.6332 J-12.9347
G2 X18.9658 Y-45.3452 I4.0426 J19.882
G2 X23.4731 Y-43.4 I11.9259 J-21.4395
G3 X23.7831 Y-46.3147 I18.3129 J0.4737
G1 F300.0 X25.3555 Y-46.0188
G3 F800.0 X25.9032 Y-48.1475 I16.4306 J3.0924
G2 X25.6088 Y-48.1227 I6.7887 J82.1904
G3 X25.6046 Y-48.1223 I-0.9963 J-11.5571
G2 X20.529 Y-47.3903 I3.809 J44.3739
G3 X20.5263 Y-47.3898 I-2.314 J-11.3668
G2 X17.41 Y-46.5118 I4.3614 J21.4499
G3 X17.144 Y-46.4188 I-3.9628 J-10.9021
G2 X16.0812 Y-45.9034 I1.4847 J4.4158
G2 X16.2932 Y-45.4768 I1.2204 J-0.3405
G2 X18.0763 Y-44.0095 I5.2 J-4.5021
G2 X24.2726 Y-41.5036 I12.8155 J-22.7752
G3 X24.3635 Y-41.4794 I-2.9381 J11.2217
G2 X25.122 Y-41.2793 I16.707 J-61.7617
G3 X25.0697 Y-42.6275 I17.2622 J-1.3447
G3 X25.3555 Y-46.0188 I16.7164 J-0.2989
G1 F300.0 X26.9279 Y-45.7228
G3 F800.0 X28.3801 Y-49.9168 I14.8582 J2.7965
G2 X25.4714 Y-49.7168 I4.3118 J83.9597
G3 X25.4677 Y-49.7165 I-0.8589 J-9.963
G2 X20.2099 Y-48.9582 I3.9458 J45.968
G3 X20.2075 Y-48.9577 I-1.9949 J-9.799
G2 X16.8634 Y-48.0155 I4.6802 J23.0178
G3 X16.6341 Y-47.9353 I-3.4162 J-9.3984
G2 X14.4338 Y-46.6478 I1.9946 J5.9324
G3 X14.4349 Y-46.2872 I-9.9978 J0.2098
G2 X15.0555 Y-44.4621 I2.8667 J0.0432
G2 X17.2868 Y-42.6179 I6.4377 J-5.5168
G2 X23.8674 Y-39.9558 I13.605 J-24.1668
G3 X23.9457 Y-39.935 I-2.5329 J9.6739
G2 X27.0528 Y-39.1753 I17.1248 J-63.3062
G3 X26.6697 Y-42.6416 I15.3314 J-3.4487
G3 X26.9279 Y-45.7228 I15.1164 J-0.2847
G1 F300.0 X28.5003 Y-45.4269
G3 F800.0 X31.4315 Y-51.6181 I13.2858 J2.5006
G2 X25.3339 Y-51.3109 I1.2604 J85.661
G3 X25.3309 Y-51.3106 I-0.7214 J-8.369
G2 X19.8907 Y-50.526 I4.0827 J47.5621
G3 X19.8887 Y-50.5256 I-1.6757 J-8.2312
G2 X16.3168 Y-49.5193 I4.999 J24.5857
G3 X16.1242 Y-49.4519 I-2.8696 J-7.8946
G2 X13.1831 Y-47.669 I2.5045 J7.4489
G2 X12.8336 Y-46.6382 I1.2343 J0.9931
G3 X12.8351 Y-46.3113 I-8.3976 J0.2002
G2 X13.8222 Y-43.4425 I4.4665 J0.0674
G2 X16.4975 Y-41.2261 I7.671 J-6.5365
G2 X23.4621 Y-38.408 I14.3943 J-25.5586
G3 X23.5279 Y-38.3905 I-2.1276 J8.1261
G2 X29.4039 Y-37.0804 I17.5426 J-64.8506
G3 X28.2697 Y-42.6558 I12.9803 J-5.5436
G3 X28.5003 Y-45.4269 I13.5164 J-0.2705
G1 F300.0 X30.0727 Y-45.131
G3 F800.0 X35.7458 Y-53.2015 I11.7134 J2.2046
G2 X33.0496 Y-53.2269 I-2.2473 J95.352
G3 X32.994 I-0.032 J-6.7999
G2 X25.1965 Y-52.905 I-0.3022 J87.2698
G3 X25.1941 Y-52.9047 I-0.584 J-6.7749
G2 X19.5715 Y-52.0939 I4.2195 J49.1563
G3 X19.5699 Y-52.0935 I-1.3565 J-6.6633
G2 X15.7702 Y-51.023 I5.3178 J26.1536
G3 X15.6143 Y-50.9685 I-2.323 J-6.3909
G2 X12.0103 Y-48.7605 I3.0144 J8.9655
G2 X11.2341 Y-46.6001 I2.4071 J2.0845
G3 X11.2353 Y-46.3354 I-6.7981 J0.1621
G2 X12.5905 Y-42.421 I6.0663 J0.0915
G2 X15.7085 Y-39.8342 I8.9027 J-7.5579
G2 X23.0569 Y-36.8602 I15.1833 J-26.9506
G3 X23.1101 Y-36.846 I-1.7223 J6.5783
G2 X31.7492 Y-35.0942 I17.9604 J-66.3951
G3 X31.7661 Y-35.0919 I-0.9215 J6.7373
G1 X32.4665 Y-34.9943
G3 X32.4646 Y-34.9966 I11.6025 J-9.1953
G3 X32.3337 Y-35.1674 I5.3276 J-4.2205
G3 X29.8697 Y-42.67 I10.0504 J-7.4566
G3 X30.0727 Y-45.131 I11.9163 J-0.2563
G1 F300.0 X31.645 Y-44.835
G3 F800.0 X38.6043 Y-52.7426 I10.141 J1.9087
G3 X46.2328 Y-53.9421 I7.2382 J21.1763
G2 X42.9081 Y-54.3706 I-6.923 J40.5983
G3 X42.8605 Y-54.375 I0.4543 J-5.1801
G2 X33.0421 Y-54.8269 I-9.362 J96.5255
G3 X32.9996 I-0.0245 J-5.1999
G2 X25.0591 Y-54.499 I-0.3077 J88.8698
G3 X25.0572 Y-54.4989 I-0.4466 J-5.1808
G2 X19.2523 Y-53.6617 I4.3563 J50.7504
G3 X19.2511 Y-53.6615 I-1.0373 J-5.0955
G2 X15.2236 Y-52.5268 I5.6366 J27.7215
G3 X15.1044 Y-52.4851 I-1.7764 J-4.8872
G2 X10.8469 Y-49.8604 I3.5244 J10.4821
G2 X9.6346 Y-46.5619 I3.5705 J3.1844
G3 X9.6354 Y-46.3596 I-5.1985 J0.1239
G2 X11.3596 Y-41.3987 I7.6661 J0.1156
G2 X14.9196 Y-38.4421 I10.1336 J-8.5802
G2 X22.6516 Y-35.3123 I15.9722 J-28.3426
G3 X22.6923 Y-35.3015 I-1.3171 J5.0304
G2 X31.5323 Y-33.509 I18.3782 J-67.9396
G3 X31.5453 Y-33.5072 I-0.7047 J5.152
G1 X37.6352 Y-32.6586
G3 X33.7188 Y-35.9902 I6.4339 J-11.531
G3 X33.6187 Y-36.1207 I4.0735 J-3.227
G3 X31.4698 Y-42.6843 I8.7655 J-6.5033
G3 X31.645 Y-44.835 I10.3162 J-0.242
G0 Z3.0
G0 X26.4922 Y-15.4315
G0 Z1.0
G1 F300.0 Z-2.0
G2 F800.0 X22.3516 Y-15.7033 I-7.6086 J84.2381
G2 X23.0037 Y-15.4696 I10.3546 J-27.8637
G2 X26.8787 Y-14.2772 I22.7034 J-66.8916
G3 X26.4922 Y-15.4315 I14.341 J-5.4433
G1 F300.0 X26.6362 Y-17.025
G2 F800.0 X18.6128 Y-17.374 I-7.7525 J85.8316
G3 X18.542 I-0.0264 J-8.4
G2 X15.8875 Y-17.2316 I-0.1195 J22.5726
G2 X17.1826 Y-16.356 I4.9454 J-5.9194
G3 X17.3303 Y-16.2747 I-3.9753 J7.3998
G2 X22.4855 Y-13.9558 I15.3759 J-27.2922
G2 X29.9504 Y-11.8611 I23.2216 J-68.4053
G3 X27.7698 Y-16.9154 I11.2693 J-7.8595
G2 X27.3905 Y-16.9535 I-5.5003 J52.8386
G3 X27.3728 Y-16.9553 I0.8097 J-8.3609
G2 X26.6362 Y-17.025 I-8.4891 J85.7618
G1 F300.0 X26.7801 Y-18.6185
G2 F800.0 X18.6078 Y-18.974 I-7.8964 J87.4251
G3 X18.5504 I-0.0214 J-6.8
G2 X15.5137 Y-18.7987 I-0.128 J24.1726
G3 X15.3011 Y-18.7763 I-0.8183 J-6.7506
G2 X13.1565 Y-18.191 I0.5614 J6.2778
G2 X13.3709 Y-17.578 I1.5118 J-0.185
G2 X16.4254 Y-14.9465 I7.462 J-5.573
G3 X16.545 Y-14.8807 I-3.2181 J5.9903
G2 X21.9673 Y-12.442 I16.1612 J-28.6862
G2 X34.9613 Y-9.3078 I23.7397 J-69.9191
G3 X34.1169 Y-9.8764 I10.1807 J-16.0304
G3 X34.0469 Y-9.927 I3.9479 J-5.5366
G3 X29.1562 Y-18.3659 I7.1728 J-9.7935
G2 X27.5447 Y-18.5461 I-6.8867 J54.2891
G3 X27.5304 Y-18.5475 I0.6555 J-6.7683
G2 X26.7801 Y-18.6185 I-8.6467 J87.3541
G1 F300.0 X26.924 Y-20.212
G2 F800.0 X18.6028 Y-20.574 I-8.0403 J89.0186
G3 X18.5589 I-0.0163 J-5.2
G2 X15.3211 Y-20.3871 I-0.1365 J25.7725
G3 X15.1586 Y-20.37 I-0.6257 J-5.1622
G2 X11.8662 Y-19.3166 I0.7039 J7.8715
G2 X11.5397 Y-18.6008 I0.5344 J0.6762
G3 X11.5452 Y-18.3706 I-5.1945 J0.239
G2 X12.052 Y-16.6704 I3.1231 J-0.0053
G2 X15.6682 Y-13.5371 I8.781 J-6.4806
G3 X15.7597 Y-13.4867 I-2.4609 J4.5808
G2 X21.4492 Y-10.9282 I16.9466 J-30.0802
G2 X37.5141 Y-7.3679 I24.2578 J-71.4329
G3 X37.5422 Y-7.3648 I-0.5647 J5.1692
G2 X54.4993 Y-6.4353 I16.2819 J-141.8917
G3 X54.553 I0.0246 J5.1999
G2 X70.3596 Y-7.1396 I0.8818 J-157.9386
G2 X77.9417 Y-8.2726 I-7.4603 J-75.8605
G3 X77.9787 Y-8.2799 I1.0262 J5.0977
G2 X84.7923 Y-10.351 I-6.5427 J-33.7671
G3 X84.8604 Y-10.3791 I2.0193 J4.7919
G2 X89.8317 Y-14.1432 I-4.4929 J-11.099
G2 X91.4401 Y-19.6791 I-7.8311 J-5.2769
G3 X91.4382 Y-19.8218 I5.198 J-0.1427
G1 Y-40.5942
G3 X92.2356 Y-46.9484 I21.9294 J-0.475
G3 X92.2429 Y-46.9742 I5.0097 J1.3938
G3 X94.8531 Y-51.4652 I10.1 J2.8661
G3 X95.0271 Y-51.6343 I3.7097 J3.6439
G3 X99.7038 Y-53.8575 I5.8826 J6.3441
G2 X97.2478 Y-54.3131 I-5.2627 J21.5228
G3 X97.1907 Y-54.3207 I0.6587 J-5.1581
G2 X89.4864 Y-54.827 I-7.3386 J52.8015
G3 X89.4248 Y-54.8269 I-0.0357 J-5.1999
G2 X83.3761 Y-54.4558 I-0.228 J45.7617
G2 X79.1734 Y-53.5647 I3.3885 J26.3377
G3 X79.0926 Y-53.5413 I-1.4865 J-4.983
G2 X74.3178 Y-50.9949 I3.4092 J12.1421
G2 X71.9921 Y-47.0299 I5.3227 J5.7868
G3 X68.4647 Y-43.2654 I-5.0585 J-1.2049
G3 X69.8843 Y-37.1567 I-12.1099 J6.0335
G1 Y-32.7368
G3 X67.2046 Y-28.1903 I-5.1968 J0.0
G3 X69.8875 Y-23.6401 I-2.5171 J4.5502
G1 Y-19.3253
G3 X66.8097 Y-11.7184 I-10.3907 J0.2219
G3 X66.723 Y-11.6345 I-3.6589 J-3.695
G3 X62.4589 Y-8.955 I-8.8713 J-9.3846
G3 X62.4525 Y-8.9525 I-1.8552 J-4.8578
G3 X56.8247 Y-7.6014 I-8.0684 J-21.2112
G3 X51.8069 Y-7.3217 I-4.847 J-41.8081
G3 X41.4625 Y-8.342 I-0.7814 J-45.0307
G3 X35.0458 Y-11.1791 I3.6795 J-16.9963
G3 X34.9923 Y-11.2179 I3.019 J-4.2339
G3 X30.6805 Y-19.7694 I6.2274 J-8.5027
G2 X27.6989 Y-20.1386 I-8.411 J55.6926
G3 X27.688 Y-20.1397 I0.5013 J-5.1758
G2 X26.924 Y-20.212 I-8.8043 J88.9463
G1 F300.0 X27.068 Y-21.8055
G2 F800.0 X18.5977 Y-22.1739 I-8.1843 J90.6121
G3 X18.5674 Y-22.174 I-0.0113 J-3.6
G2 X15.1286 Y-21.9755 I-0.1449 J27.3725
G3 X15.0161 Y-21.9636 I-0.4332 J-3.5738
G2 X10.982 Y-20.6524 I0.8464 J9.4651
G2 X9.9414 Y-18.5273 I1.4187 J2.012
G3 X9.9452 Y-18.3679 I-3.5962 J0.1654
G2 X10.739 Y-15.7552 I4.7231 J-0.008
G2 X14.911 Y-12.1276 I10.094 J-7.3958
G3 X14.9743 Y-12.0927 I-1.7037 J3.1713
G2 X20.9311 Y-9.4144 I17.7319 J-31.4742
G2 X37.3403 Y-5.7774 I24.7759 J-72.9467
G3 X37.3598 Y-5.7752 I-0.391 J3.5787
G2 X54.5069 Y-4.8353 I16.4643 J-143.4813
G3 X54.544 I0.017 J3.6
G2 X70.5135 Y-5.547 I0.8908 J-159.5385
G2 X78.2574 Y-6.704 I-7.6142 J-77.4531
G3 X78.283 Y-6.7091 I0.7104 J3.5292
G2 X85.4136 Y-8.8766 I-6.8471 J-35.3379
G3 X85.4607 Y-8.896 I1.3979 J3.3175
G2 X91.1286 Y-13.2047 I-5.0932 J-12.5821
G2 X93.0395 Y-19.723 I-9.1279 J-6.2153
G3 X93.0382 Y-19.8218 I3.5986 J-0.0988
G1 Y-40.6118
G3 X93.7771 Y-46.5195 I20.3294 J-0.4574
G3 X93.7821 Y-46.5374 I3.4683 J0.9649
G3 X95.9945 Y-50.344 I8.5608 J2.4293
G3 X96.115 Y-50.461 I2.5682 J2.5227
G3 X100.9544 Y-52.3418 I4.7947 J5.1708
G3 X108.0963 Y-47.9853 I0.3189 J7.5094
G3 X108.1454 Y-47.8741 I-3.2679 J1.5102
G3 X109.1157 Y-44.2845 I-12.7191 J5.3641
G2 X109.3241 Y-46.0462 I-5.7812 J-1.577
G3 X109.3242 Y-46.2713 I3.5983 J-0.111
G2 X107.7134 Y-51.3562 I-8.0281 J-0.2545
G2 X104.5052 Y-53.8545 I-7.3244 J6.0967
G2 X97.4505 Y-55.9002 I-10.0641 J21.5199
G3 X97.4109 Y-55.9055 I0.456 J-3.571
G2 X89.4754 Y-56.4269 I-7.5589 J54.3862
G3 X89.4327 I-0.0247 J-3.5999
G2 X83.1722 Y-56.0428 I-0.236 J47.3617
G2 X78.716 Y-55.098 I3.5923 J27.9247
G3 X78.6601 Y-55.0818 I-1.0291 J-3.4498
G2 X73.2571 Y-52.1931 I3.8417 J13.6825
G2 X70.4356 Y-47.4007 I6.3834 J6.985
G3 X65.445 Y-44.957 I-3.502 J-0.8342
G3 X66.1 Y-44.1123 I-12.5599 J10.415
G3 X66.1359 Y-44.0618 I-2.9131 J2.1097
G3 X68.2843 Y-37.1612 I-9.7811 J6.8299
G1 Y-32.7368
G3 X64.1767 Y-29.1765 I-3.5968 J0.0
G1 X50.9168 Y-31.0787
G1 X47.112 Y-31.5199
G3 X39.2123 Y-33.6505 I2.6715 J-25.6146
G3 X39.1703 Y-33.6698 I1.4764 J-3.2798
G3 X34.9729 Y-36.9837 I4.8987 J-10.5198
G3 X34.9036 Y-37.074 I2.8193 J-2.2335
G3 X33.07 Y-42.6987 I7.4805 J-5.5499
G3 X39.1095 Y-51.2244 I8.7161 J-0.2276
G3 X46.4227 Y-52.3374 I6.733 J19.6581
G3 X53.948 Y-51.5245 I0.1957 J33.4272
G1 X53.9481
G1 X53.9478
G1 X53.948
G3 X61.3484 Y-48.4918 I-5.2436 J23.3412
G3 X62.1582 Y-47.9672 I-8.4633 J13.9499
G2 X58.7182 Y-50.7783 I-23.1004 J24.7579
G2 X52.3601 Y-54.0892 I-15.1295 J21.2933
G2 X43.0479 Y-55.9645 I-13.0503 J40.7454
G3 X43.0149 Y-55.9676 I0.3145 J-3.5862
G2 X33.0345 Y-56.4269 I-9.5164 J98.118
G3 X33.0051 I-0.0169 J-3.6
G2 X24.9217 Y-56.0931 I-0.3133 J90.4698
G3 X24.9204 Y-56.093 I-0.3092 J-3.5867
G2 X18.9331 Y-55.2295 I4.4932 J52.3445
G3 X18.9323 Y-55.2294 I-0.7182 J-3.5276
G2 X14.677 Y-54.0305 I5.9554 J29.2895
G3 X14.5945 Y-54.0016 I-1.2298 J-3.3834
G2 X9.6872 Y-50.9636 I4.0343 J11.9986
G2 X8.035 Y-46.5238 I4.7302 J4.2876
G3 X8.0356 Y-46.3837 I-3.599 J0.0858
G2 X10.1291 Y-40.3759 I9.2659 J0.1398
G2 X14.1309 Y-37.0501 I11.364 J-9.603
G2 X22.2463 Y-33.7645 I16.7609 J-29.7346
G3 X22.2746 Y-33.757 I-0.9118 J3.4826
G2 X31.3155 Y-31.9237 I18.796 J-69.4841
G3 X31.3245 Y-31.9225 I-0.4879 J3.5668
G1 X38.175 Y-30.9679
G1 X38.1751
G1 X38.1749
G1 X38.175
G1 X65.1842 Y-27.2057
G3 X68.2875 Y-23.6401 I-0.4967 J3.5656
G1 Y-19.3075
G3 X65.6839 Y-12.8553 I-8.7907 J0.2041
G3 X65.6238 Y-12.7972 I-2.5331 J-2.558
G3 X61.8881 Y-10.4497 I-7.7721 J-8.2219
G3 X61.8837 Y-10.448 I-1.2843 J-3.3631
G3 X56.6466 Y-9.1915 I-7.4996 J-19.7157
G3 X51.7963 Y-8.9218 I-4.6689 J-40.2181
G3 X41.8016 Y-9.9056 I-0.7707 J-43.4306
G3 X35.9748 Y-12.4819 I3.3404 J-15.4326
G3 X35.9377 Y-12.5087 I2.0901 J-2.9312
G3 X32.282 Y-19.89 I5.282 J-7.2119
G3 X32.2828 Y-19.9225 I3.5994 J0.0682
G3 X32.4036 Y-21.1075 I8.0888 J0.2263
G2 X27.8532 Y-21.7312 I-10.1341 J57.0307
G3 X27.8456 Y-21.7319 I0.347 J-3.5832
G2 X27.068 Y-21.8055 I-8.9619 J90.5385
G1 F300.0 X27.2119 Y-23.399
G2 F800.0 X18.5927 Y-23.7739 I-8.3282 J92.2056
G3 X18.5758 Y-23.774 I-0.0063 J-2.0
G2 X14.9361 Y-23.5638 I-0.1534 J28.9725
G3 X14.8736 Y-23.5573 I-0.2407 J-1.9855
G2 X10.1134 Y-21.9971 I0.9889 J11.0588
G2 X8.3431 Y-18.4537 I2.2873 J3.3567
G3 X8.3452 Y-18.3652 I-1.9979 J0.0919
G2 X9.4284 Y-14.8368 I6.3231 J-0.0107
G2 X14.1538 Y-10.7181 I11.4045 J-8.3142
G3 X14.189 Y-10.6987 I-0.9465 J1.7619
G2 X20.4131 Y-7.9006 I18.5173 J-32.8682
G2 X37.1666 Y-4.1869 I25.2939 J-74.4605
G3 X37.1774 Y-4.1857 I-0.2172 J1.9882
G2 X54.5145 Y-3.2353 I16.6467 J-145.0708
G3 X54.5351 I0.0095 J2.0
G2 X70.6674 Y-3.9544 I0.8997 J-161.1385
G2 X78.5731 Y-5.1355 I-7.768 J-79.0457
G3 X78.5874 Y-5.1383 I0.3947 J1.9607
G2 X86.0349 Y-7.4021 I-7.1514 J-36.9087
G3 X86.0611 Y-7.413 I0.7766 J1.843
G2 X92.4249 Y-12.2659 I-5.6936 J-14.0652
G2 X94.6389 Y-19.7669 I-10.4243 J-7.1541
G3 X94.6382 Y-19.8218 I1.9992 J-0.0549
G1 Y-40.6302
G3 X95.3185 Y-46.0907 I18.7294 J-0.439
G3 X95.3213 Y-46.1006 I1.9268 J0.5361
G3 X97.1359 Y-49.2228 I7.0216 J1.9925
G3 X97.2029 Y-49.2878 I1.4268 J1.4015
G3 X100.9831 Y-50.7414 I3.7068 J3.9976
G3 X106.6438 Y-47.3141 I0.2902 J5.909
G3 X106.6711 Y-47.2524 I-1.8155 J0.839
G3 X107.6211 Y-42.0367 I-11.2449 J4.7424
G3 X107.62 Y-42.0126 I-1.9985 J-0.0776
G3 X107.4787 Y-40.1846 I-34.8787 J-1.7751
G2 X110.0982 Y-42.4122 I-1.8612 J-4.8424
G2 X110.9233 Y-46.0956 I-6.7637 J-3.4492
G3 X110.9234 Y-46.2206 I1.999 J-0.0617
G2 X108.968 Y-52.3499 I-9.6273 J-0.3052
G2 X105.1896 Y-55.3008 I-8.579 J7.0903
G2 X97.6532 Y-57.4873 I-10.7484 J22.9661
G3 X97.6312 Y-57.4902 I0.2533 J-1.9839
G2 X89.4644 Y-58.0269 I-7.7792 J55.971
G3 X89.4407 I-0.0137 J-2.0
G2 X82.9684 Y-57.6297 I-0.2439 J48.9617
G2 X78.2586 Y-56.6312 I3.7961 J29.5116
G3 X78.2275 Y-56.6222 I-0.5717 J-1.9165
G2 X72.197 Y-53.3917 I4.2742 J15.223
G2 X68.8792 Y-47.7714 I7.4435 J8.1837
G3 X65.4453 Y-46.8988 I-1.9456 J-0.4634
G2 X59.646 Y-52.0818 I-26.3876 J23.6895
G2 X52.8727 Y-55.6051 I-16.0573 J22.5968
G2 X43.1877 Y-57.5584 I-13.563 J42.2612
G3 X43.1694 Y-57.5601 I0.1747 J-1.9924
G2 X33.027 Y-58.0269 I-9.6709 J99.7106
G3 X33.0107 I-0.0094 J-2.0
G2 X24.7843 Y-57.6872 I-0.3188 J92.0698
G3 X24.7835 I-0.1718 J-1.9926
G2 X18.614 Y-56.7974 I4.63 J53.9387
G3 X18.6135 Y-56.7973 I-0.399 J-1.9598
G2 X14.1304 Y-55.5342 I6.2742 J30.8574
G3 X14.0845 Y-55.5182 I-0.6832 J-1.8797
G2 X8.5295 Y-52.0686 I4.5442 J13.5152
G2 X6.4355 Y-46.4857 I5.8879 J5.3926
G3 X6.4358 Y-46.4078 I-1.9994 J0.0477
G2 X8.899 Y-39.3528 I10.8658 J0.1639
G2 X13.3422 Y-35.6579 I12.5942 J-10.6261
G2 X21.8411 Y-32.2167 I17.5496 J-31.1268
G3 X21.8568 Y-32.2125 I-0.5066 J1.9348
G2 X31.0987 Y-30.3385 I19.2138 J-71.0286
G3 X31.1037 Y-30.3378 I-0.271 J1.9815
G1 X37.9542 Y-29.3832
G1 X37.9541
G1 X37.9542
G1 X64.9634 Y-25.621
G3 X66.6875 Y-23.6401 I-0.2759 J1.9809
G1 Y-19.288
G3 X64.5581 Y-13.9922 I-7.1907 J0.1846
G3 X64.5247 Y-13.96 I-1.4073 J-1.4211
G3 X61.3173 Y-11.9444 I-6.673 J-7.0592
G3 X61.3148 Y-11.9435 I-0.7135 J-1.8684
G3 X56.4686 Y-10.7816 I-6.9307 J-18.2202
G3 X51.7857 Y-10.5219 I-4.4909 J-38.628
G3 X42.1407 Y-11.4693 I-0.7601 J-41.8305
G3 X36.9037 Y-13.7846 I3.0013 J-13.869
G3 X36.8831 Y-13.7995 I1.1611 J-1.6284
G3 X33.8817 Y-19.8597 I4.3366 J-5.9211
G3 X33.8821 Y-19.8777 I1.9996 J0.0379
G3 X34.4435 Y-22.3427 I6.4895 J0.1815
G2 X28.0074 Y-23.3237 I-12.174 J58.2659
G3 X28.0032 Y-23.3241 I0.1928 J-1.9907
G2 X27.2119 Y-23.399 I-9.1195 J92.1307
G0 Z3.0
G0 X26.4922 Y-15.4315
G0 Z-1.0
G1 F300.0 Z-4.0
G2 F800.0 X22.3516 Y-15.7033 I-7.6086 J84.2381
G2 X23.0037 Y-15.4696 I10.3546 J-27.8637
G2 X26.8787 Y-14.2772 I22.7034 J-66.8916
G3 X26.4922 Y-15.4315 I14.341 J-5.4433
G1 F300.0 X26.6362 Y-17.025
G2 F800.0 X18.6128 Y-17.374 I-7.7525 J85.8316
G3 X18.542 I-0.0264 J-8.4
G2 X15.8875 Y-17.2316 I-0.1195 J22.5726
G2 X17.1826 Y-16.356 I4.9454 J-5.9194
G3 X17.3303 Y-16.2747 I-3.9753 J7.3998
G2 X22.4855 Y-13.9558 I15.3759 J-27.2922
G2 X29.9504 Y-11.8611 I23.2216 J-68.4053
G3 X27.7698 Y-16.9154 I11.2693 J-7.8595
G2 X27.3905 Y-16.9535 I-5.5003 J52.8386
G3 X27.3728 Y-16.9553 I0.8097 J-8.3609
G2 X26.6362 Y-17.025 I-8.4891 J85.7618
G1 F300.0 X26.7801 Y-18.6185
G2 F800.0 X18.6078 Y-18.974 I-7.8964 J87.4251
G3 X18.5504 I-0.0214 J-6.8
G2 X15.5137 Y-18.7987 I-0.128 J24.1726
G3 X15.3011 Y-18.7763 I-0.8183 J-6.7506
G2 X13.1565 Y-18.191 I0.5614 J6.2778
G2 X13.3709 Y-17.578 I1.5118 J-0.185
G2 X16.4254 Y-14.9465 I7.462 J-5.573
G3 X16.545 Y-14.8807 I-3.2181 J5.9903
G2 X21.9673 Y-12.442 I16.1612 J-28.6862
G2 X34.9613 Y-9.3078 I23.7397 J-69.9191
G3 X34.1169 Y-9.8764 I10.1807 J-16.0304
G3 X34.0469 Y-9.927 I3.9479 J-5.5366
G3 X29.1562 Y-18.3659 I7.1728 J-9.7935
G2 X27.5447 Y-18.5461 I-6.8867 J54.2891
G3 X27.5304 Y-18.5475 I0.6555 J-6.7683
G2 X26.7801 Y-18.6185 I-8.6467 J87.3541
G0 Z3.0
G0 X23.4731 Y-43.4
G0 Z-1.0
G1 F300.0 Z-4.0
G3 F800.0 X23.7831 Y-46.3147 I18.3129 J0.4737
G2 X20.8482 Y-45.8225 I5.6305 J42.5663
G3 X20.8451 Y-45.8219 I-2.6332 J-12.9347
G2 X18.9658 Y-45.3452 I4.0426 J19.882
G2 X23.4731 Y-43.4 I11.9259 J-21.4395
G1 F300.0 X25.0726 Y-43.3587
G3 F800.0 X25.9032 Y-48.1475 I16.7135 J0.4323
G2 X25.6088 Y-48.1227 I6.7887 J82.1904
G3 X25.6046 Y-48.1223 I-0.9963 J-11.5571
G2 X20.529 Y-47.3903 I3.809 J44.3739
G3 X20.5263 Y-47.3898 I-2.314 J-11.3668
G2 X17.41 Y-46.5118 I4.3614 J21.4499
G3 X17.144 Y-46.4188 I-3.9628 J-10.9021
G2 X16.0812 Y-45.9034 I1.4847 J4.4158
G2 X16.2932 Y-45.4768 I1.2204 J-0.3405
G2 X18.0763 Y-44.0095 I5.2 J-4.5021
G2 X24.2726 Y-41.5036 I12.8155 J-22.7752
G3 X24.3635 Y-41.4794 I-2.9381 J11.2217
G2 X25.122 Y-41.2793 I16.707 J-61.7617
G3 X25.0697 Y-42.6275 I17.2622 J-1.3447
G3 X25.0726 Y-43.3587 I16.7164 J-0.2989
G1 F300.0 X26.672 Y-43.3173
G3 F800.0 X28.3801 Y-49.9168 I15.114 J0.3909
G2 X25.4714 Y-49.7168 I4.3118 J83.9597
G3 X25.4677 Y-49.7165 I-0.8589 J-9.963
G2 X20.2099 Y-48.9582 I3.9458 J45.968
G3 X20.2075 Y-48.9577 I-1.9949 J-9.799
G2 X16.8634 Y-48.0155 I4.6802 J23.0178
G3 X16.6341 Y-47.9353 I-3.4162 J-9.3984
G2 X14.4338 Y-46.6478 I1.9946 J5.9324
G3 X14.4349 Y-46.2872 I-9.9978 J0.2098
G2 X15.0555 Y-44.4621 I2.8667 J0.0432
G2 X17.2868 Y-42.6179 I6.4377 J-5.5168
G2 X23.8674 Y-39.9558 I13.605 J-24.1668
G3 X23.9457 Y-39.935 I-2.5329 J9.6739
G2 X27.0528 Y-39.1753 I17.1248 J-63.3062
G3 X26.6697 Y-42.6416 I15.3314 J-3.4487
G3 X26.672 Y-43.3173 I15.1164 J-0.2847
G1 F300.0 X28.2715 Y-43.2759
G3 F800.0 X31.4315 Y-51.6181 I13.5145 J0.3496
G2 X25.3339 Y-51.3109 I1.2604 J85.661
G3 X25.3309 Y-51.3106 I-0.7214 J-8.369
G2 X19.8907 Y-50.526 I4.0827 J47.5621
G3 X19.8887 Y-50.5256 I-1.6757 J-8.2312
G2 X16.3168 Y-49.5193 I4.999 J24.5857
G3 X16.1242 Y-49.4519 I-2.8696 J-7.8946
G2 X13.1831 Y-47.669 I2.5045 J7.4489
G2 X12.8336 Y-46.6382 I1.2343 J0.9931
G3 X12.8351 Y-46.3113 I-8.3976 J0.2002
G2 X13.8222 Y-43.4425 I4.4665 J0.0674
G2 X16.4975 Y-41.2261 I7.671 J-6.5365
G2 X23.4621 Y-38.408 I14.3943 J-25.5586
G3 X23.5279 Y-38.3905 I-2.1276 J8.1261
G2 X29.4039 Y-37.0804 I17.5426 J-64.8506
G3 X28.2697 Y-42.6558 I12.9803 J-5.5436
G3 X28.2715 Y-43.2759 I13.5164 J-0.2705
G1 F300.0 X29.871 Y-43.2345
G3 F800.0 X35.7458 Y-53.2015 I11.9151 J0.3082
G2 X33.0496 Y-53.2269 I-2.2473 J95.352
G3 X32.994 I-0.032 J-6.7999
G2 X25.1965 Y-52.905 I-0.3022 J87.2698
G3 X25.1941 Y-52.9047 I-0.584 J-6.7749
G2 X19.5715 Y-52.0939 I4.2195 J49.1563
G3 X19.5699 Y-52.0935 I-1.3565 J-6.6633
G2 X15.7702 Y-51.023 I5.3178 J26.1536
G3 X15.6143 Y-50.9685 I-2.323 J-6.3909
G2 X12.0103 Y-48.7605 I3.0144 J8.9655
G2 X11.2341 Y-46.6001 I2.4071 J2.0845
G3 X11.2353 Y-46.3354 I-6.7981 J0.1621
G2 X12.5905 Y-42.421 I6.0663 J0.0915
G2 X15.7085 Y-39.8342 I8.9027 J-7.5579
G2 X23.0569 Y-36.8602 I15.1833 J-26.9506
G3 X23.1101 Y-36.846 I-1.7223 J6.5783
G2 X31.7492 Y-35.0942 I17.9604 J-66.3951
G3 X31.7661 Y-35.0919 I-0.9215 J6.7373
G1 X32.4665 Y-34.9943
G3 X32.4646 Y-34.9966 I11.6025 J-9.1953
G3 X32.3337 Y-35.1674 I5.3276 J-4.2205
G3 X29.8697 Y-42.67 I10.0504 J-7.4566
G3 X29.871 Y-43.2345 I11.9163 J-0.2563
G1 F300.0 X31.4704 Y-43.1932
G3 F800.0 X38.6043 Y-52.7426 I10.3156 J0.2668
G3 X46.2328 Y-53.9421 I7.2382 J21.1763
G2 X42.9081 Y-54.3706 I-6.923 J40.5983
G3 X42.8605 Y-54.375 I0.4543 J-5.1801
G2 X33.0421 Y-54.8269 I-9.362 J96.5255
G3 X32.9996 I-0.0245 J-5.1999
G2 X25.0591 Y-54.499 I-0.3077 J88.8698
G3 X25.0572 Y-54.4989 I-0.4466 J-5.1808
G2 X19.2523 Y-53.6617 I4.3563 J50.7504
G3 X19.2511 Y-53.6615 I-1.0373 J-5.0955
G2 X15.2236 Y-52.5268 I5.6366 J27.7215
G3 X15.1044 Y-52.4851 I-1.7764 J-4.8872
G2 X10.8469 Y-49.8604 I3.5244 J10.4821
G2 X9.6346 Y-46.5619 I3.5705 J3.1844
G3 X9.6354 Y-46.3596 I-5.1985 J0.1239
G2 X11.3596 Y-41.3987 I7.6661 J0.1156
G2 X14.9196 Y-38.4421 I10.1336 J-8.5802
G2 X22.6516 Y-35.3123 I15.9722 J-28.3426
G3 X22.6923 Y-35.3015 I-1.3171 J5.0304
G2 X31.5323 Y-33.509 I18.3782 J-67.9396
G3 X31.5453 Y-33.5072 I-0.7047 J5.152
G1 X37.6352 Y-32.6586
G3 X33.7188 Y-35.9902 I6.4339 J-11.531
G3 X33.6187 Y-36.1207 I4.0735 J-3.227
G3 X31.4698 Y-42.6843 I8.7655 J-6.5033
G3 X31.4704 Y-43.1932 I10.3162 J-0.242
G0 Z3.0
G0 X80.133 Y-39.9201
G0 Z-1.0
G1 F300.0 Z-4.0
G3 F800.0 X80.2843 Y-37.1318 I-23.7782 J2.6882
G1 Y-32.7368
G3 X79.608 Y-28.194 I-15.5968 J0.0
G3 X80.2875 Y-23.6401 I-14.9205 J4.5538
G1 Y-19.7441
G2 X80.7537 Y-19.9349 I-8.8515 J-22.3028
G3 X80.958 Y-20.0193 I6.0578 J14.3758
G2 X81.0382 Y-20.0543 I-0.5906 J-1.4589
G1 Y-40.4924
G3 X81.0369 Y-41.5672 I32.3294 J-0.5767
G3 X80.133 Y-39.9201 I-14.1033 J-6.6676
G1 F300.0 X79.4561 Y-40.3465
G3 F800.0 X79.3046 Y-40.111 I-12.5225 J-7.8883
G3 X79.4843 Y-37.1335 I-22.9498 J2.8791
G1 Y-32.7368
G3 X78.7696 Y-28.1937 I-14.7968 J0.0
G3 X79.4875 Y-23.6401 I-14.0821 J4.5535
G1 Y-19.4112
G3 X79.4834 Y-18.5941 I-19.9907 J0.3078
G2 X81.0644 Y-19.1977 I-8.0474 J-23.4529
G3 X81.2582 Y-19.2777 I5.7471 J13.6386
G2 X81.8396 Y-19.6158 I-0.8907 J-2.2005
G3 X81.8382 Y-19.8218 I14.7986 J-0.2059
G1 Y-40.4996
G3 X82.0086 Y-44.3922 I31.5294 J-0.5696
G2 X81.9177 Y-44.3653 I4.7559 J16.2741
G3 X81.6876 Y-44.2987 I-4.2308 J-14.1824
G2 X81.14 Y-44.0854 I0.8141 J2.8995
G3 X79.4561 Y-40.3465 I-14.2064 J-4.1495
G1 F300.0 X78.1024 Y-41.1993
G3 F800.0 X77.6341 Y-40.5058 I-11.1688 J-7.0355
G3 X77.8843 Y-37.137 I-21.2793 J3.2739
G1 Y-32.7368
G3 X77.0774 Y-28.1931 I-13.1968 J0.0
G3 X77.8875 Y-23.6401 I-12.3899 J4.553
G1 Y-19.3986
G3 X77.6907 Y-16.4036 I-18.3907 J0.2953
G2 X81.6857 Y-17.7232 I-6.2547 J-25.6434
G3 X81.8586 Y-17.7946 I5.1258 J12.1641
G2 X83.3041 Y-18.8008 I-1.4911 J-3.6836
G2 X83.4432 Y-19.4596 I-1.3034 J-0.6192
G3 X83.4382 Y-19.8218 I13.195 J-0.3622
G1 Y-40.5143
G3 X83.9213 Y-46.4537 I29.9294 J-0.5549
G2 X81.4603 Y-45.8986 I2.8432 J18.3356
G3 X81.2551 Y-45.8392 I-3.7734 J-12.6492
G2 X79.7572 Y-45.1053 I1.2466 J4.4399
G3 X78.1024 Y-41.1993 I-12.8236 J-3.1296
G1 F300.0 X76.7486 Y-42.0521
G3 F800.0 X75.9396 Y-40.9238 I-9.815 J-6.1827
G3 X76.2843 Y-37.1406 I-19.5848 J3.6918
G1 Y-32.7368
G3 X75.3569 Y-28.1926 I-11.5968 J0.0
G3 X76.2875 Y-23.6401 I-10.6694 J4.5524
G1 Y-19.3855
G3 X75.5996 Y-14.3383 I-16.7907 J0.2821
G2 X76.6787 Y-14.5467 I-12.7003 J-68.6618
G3 X76.7612 Y-14.563 I2.2891 J11.3719
G2 X82.307 Y-16.2488 I-5.3253 J-27.484
G3 X82.4589 Y-16.3115 I4.5045 J10.6897
G2 X84.6271 Y-17.8831 I-2.0915 J-5.1667
G2 X85.0426 Y-19.5035 I-2.6264 J-1.5369
G3 X85.0382 Y-19.8218 I11.5956 J-0.3183
G1 Y-40.5293
G3 X85.9699 Y-48.295 I28.3294 J-0.5399
G2 X84.1915 Y-48.108 I3.2269 J39.2298
G2 X81.003 Y-47.4318 I2.5731 J19.9898
G3 X80.8226 Y-47.3796 I-3.3161 J-11.1159
G2 X78.5852 Y-46.2205 I1.6791 J5.9804
G2 X78.2179 Y-45.547 I1.0554 J1.0125
G3 X76.7486 Y-42.0521 I-11.2843 J-2.6879
G1 F300.0 X75.3948 Y-42.9049
G3 F800.0 X74.2101 Y-41.3753 I-8.4612 J-5.33
G3 X74.6843 Y-37.1443 I-17.8552 J4.1434
G1 Y-32.7368
G3 X73.5915 Y-28.192 I-9.9968 J0.0
G3 X74.6875 Y-23.6401 I-8.904 J4.5519
G1 Y-19.3717
G3 X73.0831 Y-12.3033 I-15.1907 J0.2684
G2 X76.9944 Y-12.9782 I-10.1838 J-70.6967
G3 X77.0656 Y-12.9922 I1.9734 J9.8034
G2 X82.9283 Y-14.7743 I-5.6296 J-29.0548
G3 X83.0593 Y-14.8284 I3.8832 J9.2152
G2 X85.9337 Y-16.9525 I-2.6918 J-6.6497
G2 X86.6419 Y-19.5474 I-3.9331 J-2.4675
G3 X86.6382 Y-19.8218 I9.9962 J-0.2744
G1 Y-40.5448
G3 X87.6113 Y-48.2349 I26.7294 J-0.5244
G3 X87.6252 Y-48.2845 I9.6341 J2.6803
G3 X88.2309 Y-50.0161 I14.7177 J4.1764
G2 X83.9876 Y-49.6949 I0.9659 J40.9509
G2 X80.5456 Y-48.965 I2.7769 J21.5768
G3 X80.3901 Y-48.92 I-2.8587 J-9.5827
G2 X77.5094 Y-47.4074 I2.1116 J7.5208
G2 X76.6614 Y-45.9177 I2.1311 J2.1993
G3 X75.3948 Y-42.9049 I-9.7278 J-2.3172
G1 F300.0 X74.041 Y-43.7577
G3 F800.0 X72.426 Y-41.8793 I-7.1074 J-4.4772
G3 X73.0843 Y-37.1482 I-16.0712 J4.6474
G1 Y-32.7368
G3 X71.7477 Y-28.1914 I-8.3968 J0.0
G3 X73.0875 Y-23.6401 I-7.0602 J4.5513
G1 Y-19.3572
G3 X69.8596 Y-10.3066 I-13.5907 J0.2538
G2 X70.0518 Y-10.3247 I-14.4248 J-154.0672
G2 X77.3102 Y-11.4096 I-7.1525 J-72.6754
G3 X77.37 Y-11.4214 I1.6576 J8.2348
G2 X83.5496 Y-13.2999 I-5.934 J-30.6256
G3 X83.6596 Y-13.3453 I3.2619 J7.7408
G2 X87.2351 Y-16.0177 I-3.2922 J-8.1328
G2 X88.2413 Y-19.5913 I-5.2345 J-3.4023
G3 X88.2382 Y-19.8218 I8.3968 J-0.2305
G1 Y-40.5607
G3 X89.1527 Y-47.8061 I25.1294 J-0.5085
G3 X89.1644 Y-47.8477 I8.0926 J2.2515
G3 X90.8858 Y-51.6176 I13.1785 J3.7397
G2 X89.5083 Y-51.6271 I-1.0338 J50.0983
G3 X89.4088 Y-51.627 I-0.0576 J-8.3998
G2 X83.7838 Y-51.2819 I-0.2121 J42.5617
G2 X80.0882 Y-50.4983 I2.9808 J23.1638
G3 X79.9576 Y-50.4605 I-2.4013 J-8.0495
G2 X76.4428 Y-48.6011 I2.5441 J9.0612
G2 X75.105 Y-46.2884 I3.1978 J3.3931
G3 X74.041 Y-43.7577 I-8.1714 J-1.9464
G1 F300.0 X72.6872 Y-44.6105
G3 F800.0 X70.5472 Y-42.4745 I-5.7536 J-3.6244
G3 X71.4843 Y-37.1523 I-14.1924 J5.2426
G1 Y-32.7368
G3 X69.7403 Y-28.1909 I-6.7968 J0.0
G3 X71.4875 Y-23.6401 I-5.0528 J4.5507
G1 Y-19.3418
G3 X67.9355 Y-10.5815 I-11.9907 J0.2384
G3 X67.8221 Y-10.4718 I-4.7847 J-4.8319
G3 X64.8759 Y-8.3181 I-9.9704 J-10.5473
G2 X70.2057 Y-8.7321 I-9.4411 J-156.0557
G2 X77.6259 Y-9.8411 I-7.3064 J-74.2679
G3 X77.6743 Y-9.8506 I1.3419 J6.6663
G2 X84.171 Y-11.8255 I-6.2383 J-32.1963
G3 X84.26 Y-11.8622 I2.6406 J6.2664
G2 X88.5341 Y-15.0809 I-3.8925 J-9.6159
G2 X89.8407 Y-19.6352 I-6.5334 J-4.3391
G3 X89.8382 Y-19.8218 I6.7974 J-0.1866
G1 Y-40.5772
G3 X90.6942 Y-47.3772 I23.5294 J-0.492
G3 X90.7036 Y-47.4109 I6.5512 J1.8226
G3 X93.7116 Y-52.5864 I11.6393 J3.3029
G3 X93.9392 Y-52.8075 I4.8511 J4.7651
G3 X94.2041 Y-53.0448 I6.9705 J7.5173
G2 X89.4973 Y-53.227 I-4.3521 J51.5255
G3 X89.4168 Y-53.2269 I-0.0466 J-6.7998
G2 X83.5799 Y-52.8688 I-0.22 J44.1617
G2 X79.6308 Y-52.0315 I3.1846 J24.7507
G3 X79.5251 Y-52.0009 I-1.9439 J-6.5162
G2 X75.3795 Y-49.7974 I2.9766 J10.6017
G2 X73.5485 Y-46.6592 I4.2611 J4.5893
G3 X72.6872 Y-44.6105 I-6.6149 J-1.5757
G1 F300.0 X71.3334 Y-45.4633
G3 F800.0 X68.4647 Y-43.2654 I-4.3998 J-2.7716
G3 X69.8843 Y-37.1567 I-12.1099 J6.0335
G1 Y-32.7368
G3 X67.2046 Y-28.1903 I-5.1968 J0.0
G3 X69.8875 Y-23.6401 I-2.5171 J4.5502
G1 Y-19.3253
G3 X66.8097 Y-11.7184 I-10.3907 J0.2219
G3 X66.723 Y-11.6345 I-3.6589 J-3.695
G3 X62.4589 Y-8.955 I-8.8713 J-9.3846
G3 X62.4525 Y-8.9525 I-1.8552 J-4.8578
G3 X56.8247 Y-7.6014 I-8.0684 J-21.2112
G3 X51.8069 Y-7.3217 I-4.847 J-41.8081
G3 X41.4625 Y-8.342 I-0.7814 J-45.0307
G3 X35.0458 Y-11.1791 I3.6795 J-16.9963
G3 X34.9923 Y-11.2179 I3.019 J-4.2339
G3 X30.6805 Y-19.7694 I6.2274 J-8.5027
G2 X27.6989 Y-20.1386 I-8.411 J55.6926
G3 X27.688 Y-20.1397 I0.5013 J-5.1758
G2 X18.6028 Y-20.574 I-8.8043 J88.9463
G3 X18.5589 I-0.0163 J-5.2
G2 X15.3211 Y-20.3871 I-0.1365 J25.7725
G3 X15.1586 Y-20.37 I-0.6257 J-5.1622
G2 X11.8662 Y-19.3166 I0.7039 J7.8715
G2 X11.5397 Y-18.6008 I0.5344 J0.6762
G3 X11.5452 Y-18.3706 I-5.1945 J0.239
G2 X12.052 Y-16.6704 I3.1231 J-0.0053
G2 X15.6682 Y-13.5371 I8.781 J-6.4806
G3 X15.7597 Y-13.4867 I-2.4609 J4.5808
G2 X21.4492 Y-10.9282 I16.9466 J-30.0802
G2 X37.5141 Y-7.3679 I24.2578 J-71.4329
G3 X37.5422 Y-7.3648 I-0.5647 J5.1692
G2 X54.4993 Y-6.4353 I16.2819 J-141.8917
G3 X54.553 I0.0246 J5.1999
G2 X70.3596 Y-7.1396 I0.8818 J-157.9386
G2 X77.9417 Y-8.2726 I-7.4603 J-75.8605
G3 X77.9787 Y-8.2799 I1.0262 J5.0977
G2 X84.7923 Y-10.351 I-6.5427 J-33.7671
G3 X84.8604 Y-10.3791 I2.0193 J4.7919
G2 X89.8317 Y-14.1432 I-4.4929 J-11.099
G2 X91.4401 Y-19.6791 I-7.8311 J-5.2769
G3 X91.4382 Y-19.8218 I5.198 J-0.1427
G1 Y-40.5942
G3 X92.2356 Y-46.9484 I21.9294 J-0.475
G3 X92.2429 Y-46.9742 I5.0097 J1.3938
G3 X94.8531 Y-51.4652 I10.1 J2.8661
G3 X95.0271 Y-51.6343 I3.7097 J3.6439
G3 X99.7038 Y-53.8575 I5.8826 J6.3441
G2 X97.2478 Y-54.3131 I-5.2627 J21.5228
G3 X97.1907 Y-54.3207 I0.6587 J-5.1581
G2 X89.4864 Y-54.827 I-7.3386 J52.8015
G3 X89.4248 Y-54.8269 I-0.0357 J-5.1999
G2 X83.3761 Y-54.4558 I-0.228 J45.7617
G2 X79.1734 Y-53.5647 I3.3885 J26.3377
G3 X79.0926 Y-53.5413 I-1.4865 J-4.983
G2 X74.3178 Y-50.9949 I3.4092 J12.1421
G2 X71.9921 Y-47.0299 I5.3227 J5.7868
G3 X71.3334 Y-45.4633 I-5.0585 J-1.2049
G0 Z3.0
G0 X68.6258 Y-47.1689
G0 Z-1.0
G1 F300.0 Z-4.0
G3 F800.0 X65.4453 Y-46.8988 I-1.6922 J-1.066
G2 X59.646 Y-52.0818 I-26.3876 J23.6895
G2 X52.8727 Y-55.6051 I-16.0573 J22.5968
G2 X43.1877 Y-57.5584 I-13.563 J42.2612
G3 X43.1694 Y-57.5601 I0.1747 J-1.9924
G2 X33.027 Y-58.0269 I-9.6709 J99.7106
G3 X33.0107 I-0.0094 J-2.0
G2 X24.7843 Y-57.6872 I-0.3188 J92.0698
G3 X24.7835 I-0.1718 J-1.9926
G2 X18.614 Y-56.7974 I4.63 J53.9387
G3 X18.6135 Y-56.7973 I-0.399 J-1.9598
G2 X14.1304 Y-55.5342 I6.2742 J30.8574
G3 X14.0845 Y-55.5182 I-0.6832 J-1.8797
G2 X8.5295 Y-52.0686 I4.5442 J13.5152
G2 X6.4355 Y-46.4857 I5.8879 J5.3926
G3 X6.4358 Y-46.4078 I-1.9994 J0.0477
G2 X8.899 Y-39.3528 I10.8658 J0.1639
G2 X13.3422 Y-35.6579 I12.5942 J-10.6261
G2 X21.8411 Y-32.2167 I17.5496 J-31.1268
G3 X21.8568 Y-32.2125 I-0.5066 J1.9348
G2 X31.0987 Y-30.3385 I19.2138 J-71.0286
G3 X31.1037 Y-30.3378 I-0.271 J1.9815
G1 X37.9542 Y-29.3832
G1 X37.9541
G1 X37.9542
G1 X64.9634 Y-25.621
G3 X66.6875 Y-23.6401 I-0.2759 J1.9809
G1 Y-19.288
G3 X64.5581 Y-13.9922 I-7.1907 J0.1846
G3 X64.5247 Y-13.96 I-1.4073 J-1.4211
G3 X61.3173 Y-11.9444 I-6.673 J-7.0592
G3 X61.3148 Y-11.9435 I-0.7135 J-1.8684
G3 X56.4686 Y-10.7816 I-6.9307 J-18.2202
G3 X51.7857 Y-10.5219 I-4.4909 J-38.628
G3 X42.1407 Y-11.4693 I-0.7601 J-41.8305
G3 X36.9037 Y-13.7846 I3.0013 J-13.869
G3 X36.8831 Y-13.7995 I1.1611 J-1.6284
G3 X33.8817 Y-19.8597 I4.3366 J-5.9211
G3 X33.8821 Y-19.8777 I1.9996 J0.0379
G3 X34.4435 Y-22.3427 I6.4895 J0.1815
G2 X28.0074 Y-23.3237 I-12.174 J58.2659
G3 X28.0032 Y-23.3241 I0.1928 J-1.9907
G2 X18.5927 Y-23.7739 I-9.1195 J92.1307
G3 X18.5758 Y-23.774 I-0.0063 J-2.0
G2 X14.9361 Y-23.5638 I-0.1534 J28.9725
G3 X14.8736 Y-23.5573 I-0.2407 J-1.9855
G2 X10.1134 Y-21.9971 I0.9889 J11.0588
G2 X8.3431 Y-18.4537 I2.2873 J3.3567
G3 X8.3452 Y-18.3652 I-1.9979 J0.0919
G2 X9.4284 Y-14.8368 I6.3231 J-0.0107
G2 X14.1538 Y-10.7181 I11.4045 J-8.3142
G3 X14.189 Y-10.6987 I-0.9465 J1.7619
G2 X20.4131 Y-7.9006 I18.5173 J-32.8682
G2 X37.1666 Y-4.1869 I25.2939 J-74.4605
G3 X37.1774 Y-4.1857 I-0.2172 J1.9882
G2 X54.5145 Y-3.2353 I16.6467 J-145.0708
G3 X54.5351 I0.0095 J2.0
G2 X70.6674 Y-3.9544 I0.8997 J-161.1385
G2 X78.5731 Y-5.1355 I-7.768 J-79.0457
G3 X78.5874 Y-5.1383 I0.3947 J1.9607
G2 X86.0349 Y-7.4021 I-7.1514 J-36.9087
G3 X86.0611 Y-7.413 I0.7766 J1.843
G2 X92.4249 Y-12.2659 I-5.6936 J-14.0652
G2 X94.6389 Y-19.7669 I-10.4243 J-7.1541
G3 X94.6382 Y-19.8218 I1.9992 J-0.0549
G1 Y-40.6302
G3 X95.3185 Y-46.0907 I18.7294 J-0.439
G3 X95.3213 Y-46.1006 I1.9268 J0.5361
G3 X97.1359 Y-49.2228 I7.0216 J1.9925
G3 X97.2029 Y-49.2878 I1.4268 J1.4015
G3 X100.9831 Y-50.7414 I3.7068 J3.9976
G3 X106.6438 Y-47.3141 I0.2902 J5.909
G3 X106.6711 Y-47.2524 I-1.8155 J0.839
G3 X107.6211 Y-42.0367 I-11.2449 J4.7424
G3 X107.62 Y-42.0126 I-1.9985 J-0.0776
G3 X107.4787 Y-40.1846 I-34.8787 J-1.7751
G2 X110.0982 Y-42.4122 I-1.8612 J-4.8424
G2 X110.9233 Y-46.0956 I-6.7637 J-3.4492
G3 X110.9234 Y-46.2206 I1.999 J-0.0617
G2 X108.968 Y-52.3499 I-9.6273 J-0.3052
G2 X105.1896 Y-55.3008 I-8.579 J7.0903
G2 X97.6532 Y-57.4873 I-10.7484 J22.9661
G3 X97.6312 Y-57.4902 I0.2533 J-1.9839
G2 X89.4644 Y-58.0269 I-7.7792 J55.971
G3 X89.4407 I-0.0137 J-2.0
G2 X82.9684 Y-57.6297 I-0.2439 J48.9617
G2 X78.2586 Y-56.6312 I3.7961 J29.5116
G3 X78.2275 Y-56.6222 I-0.5717 J-1.9165
G2 X72.197 Y-53.3917 I4.2742 J15.223
G2 X68.8792 Y-47.7714 I7.4435 J8.1837
G3 X68.6258 Y-47.1689 I-1.9456 J-0.4634
G0 Z3.0
G0 X64.367 Y-43.7525
G0 Z1.0
G1 F300.0 Z-2.0
G3 F800.0 X64.8067 Y-43.1757 I-11.4819 J9.2105
G3 X64.8267 Y-43.1476 I-1.6198 J1.1731
G3 X66.6875 Y-37.1661 I-8.4719 J5.9157
G1 Y-32.7368
G3 X64.4035 Y-30.7571 I-2.0 J0.0
G1 X51.1222 Y-32.6624
G1 X47.2866 Y-33.1071
G3 X39.8677 Y-35.1066 I2.4969 J-24.0274
G3 X39.8444 Y-35.1173 I0.8209 J-1.8237
G3 X36.2246 Y-37.9752 I4.2246 J-9.0723
G3 X36.186 Y-38.0255 I1.5677 J-1.2419
G3 X34.667 Y-42.7133 I6.1981 J-4.5985
G3 X39.6129 Y-49.709 I7.1191 J-0.2131
G3 X46.4049 Y-50.7405 I6.2296 J18.1426
G3 X53.5979 Y-49.9666 I0.2135 J31.8302
G1 X53.598 Y-49.9665
G1 X53.5978 Y-49.9666
G1 X53.5979
G3 X60.5123 Y-47.1314 I-4.8936 J21.7832
G3 X64.367 Y-43.7525 I-7.6272 J12.5894
G1 F300.0 Z-4.0
G3 F800.0 X64.8067 Y-43.1757 I-11.4819 J9.2105
G3 X64.8267 Y-43.1476 I-1.6198 J1.1731
G3 X66.6875 Y-37.1661 I-8.4719 J5.9157
G1 Y-32.7368
G3 X64.4035 Y-30.7571 I-2.0 J0.0
G1 X51.1222 Y-32.6624
G1 X47.2866 Y-33.1071
G3 X39.8677 Y-35.1066 I2.4969 J-24.0274
G3 X39.8444 Y-35.1173 I0.8209 J-1.8237
G3 X36.2246 Y-37.9752 I4.2246 J-9.0723
G3 X36.186 Y-38.0255 I1.5677 J-1.2419
G3 X34.667 Y-42.7133 I6.1981 J-4.5985
G3 X39.6129 Y-49.709 I7.1191 J-0.2131
G3 X46.4049 Y-50.7405 I6.2296 J18.1426
G3 X53.5979 Y-49.9666 I0.2135 J31.8302
G1 X53.598 Y-49.9665
G1 X53.5978 Y-49.9666
G1 X53.5979
G3 X60.5123 Y-47.1314 I-4.8936 J21.7832
G3 X64.367 Y-43.7525 I-7.6272 J12.5894
G0 Z3.0
G0 X141.6059 Y-41.3796
G0 Z1.0
G1 F300.0 Z-2.0
G1 F800.0 Y-13.645
G3 X141.5599 Y-12.4486 I-15.6 J0.0
G3 X142.4525 Y-11.9177 I-53.4214 J90.8258
G3 X142.3565 Y-13.645 I15.5041 J-1.7274
G1 Y-36.6671
G3 X142.6649 Y-41.9817 I32.2041 J-0.798
G2 X142.1487 Y-41.698 I9.1291 J17.2203
G3 X141.9587 Y-41.5916 I-7.72 J-13.5559
G2 X141.6059 Y-41.3796 I2.6703 J4.845
G1 F300.0 X140.8059
G1 F800.0 Y-13.645
G3 X140.7159 Y-12.0155 I-14.8 J0.0
G3 X143.536 Y-10.3151 I-52.5774 J90.3927
G3 X143.1565 Y-13.645 I14.4205 J-3.3299
G1 Y-36.6771
G3 X143.7067 Y-43.3706 I31.4041 J-0.7881
G2 X141.7528 Y-42.3932 I8.0872 J18.6092
G3 X141.5725 Y-42.2922 I-7.3241 J-12.8607
G2 X140.8059 Y-41.7943 I3.0565 J5.5457
G1 Y-41.3796
G1 F300.0 X139.2059
G1 F800.0 Y-13.645
G3 X138.9722 Y-11.1721 I-13.2 J0.0
G3 X142.8515 Y-8.856 I-50.8337 J89.5493
G3 X145.579 Y-7.1134 I-48.6635 J79.1746
G3 X145.9842 Y-8.0859 I12.3775 J4.5866
G3 X144.7565 Y-13.645 I11.9723 J-5.5591
G1 Y-36.6974
G3 X145.9524 Y-45.8581 I29.8041 J-0.7677
G2 X140.961 Y-43.7835 I5.8416 J21.0967
G3 X140.8002 Y-43.6935 I-6.5323 J-11.4704
G2 X139.2059 Y-42.5352 I3.8288 J6.9469
G1 Y-41.3796
G1 F300.0 X137.6059
G1 F800.0 Y-13.645
G3 X137.1333 Y-10.368 I-11.6 J0.0
G3 X142.0075 Y-7.4967 I-48.9948 J88.7452
G3 X146.5306 Y-4.5291 I-47.8195 J77.8153
G3 X147.7754 Y-8.0859 I11.4259 J2.0022
G3 X146.3565 Y-13.645 I10.1812 J-5.5591
G1 Y-36.7183
G3 X148.1587 Y-47.4133 I28.2041 J-0.7468
G3 X148.1625 Y-47.4233 I10.855 J4.0901
G3 X148.403 Y-48.0251 I16.0188 J6.0527
G2 X146.772 Y-47.7088 I6.0927 J35.7779
G2 X140.1692 Y-45.1739 I5.0219 J22.9474
G3 X140.0279 Y-45.0947 I-5.7405 J-10.08
G2 X137.6059 Y-43.1915 I4.6011 J8.3482
G1 Y-41.3796
G1 F300.0 X136.0059
G1 F800.0 Y-13.645
G3 X135.1597 Y-9.6192 I-10.0 J0.0
G3 X141.1635 Y-6.1374 I-47.0212 J87.9964
G3 X147.9565 Y-1.5226 I-46.9755 J76.456
G1 Y-2.5269
G3 X149.6441 Y-8.0859 I10.0 J0.0
G3 X147.9565 Y-13.645 I8.3124 J-5.5591
G1 Y-36.7398
G3 X149.6559 Y-46.8491 I26.6041 J-0.7253
G3 X149.6592 Y-46.8577 I9.3578 J3.526
G3 X151.2788 Y-50.0034 I14.5221 J5.4872
G2 X146.4307 Y-49.272 I3.2169 J37.7561
G2 X139.3774 Y-46.5642 I5.3632 J24.5106
G3 X139.2556 Y-46.496 I-4.9487 J-8.6897
G2 X136.2105 Y-44.0303 I5.3734 J9.7495
G2 X136.0059 Y-43.4805 I0.6765 J0.5647
G1 Y-41.3796
G1 F300.0 X134.4059
G1 F800.0 Y-13.645
G3 X132.976 Y-8.957 I-8.4 J0.0
G3 X140.3195 Y-4.7781 I-44.8375 J87.3342
G3 X149.5565 Y1.7478 I-46.1316 J75.0966
G1 Y-2.5269
G3 X151.6592 Y-8.0859 I8.4 J0.0
G3 X149.5565 Y-13.645 I6.2973 J-5.5591
G1 Y-36.762
G3 X151.1532 Y-46.285 I25.0041 J-0.7032
G3 X151.1559 Y-46.2922 I7.8605 J2.9618
G3 X154.8877 Y-51.7394 I13.0254 J4.9216
G2 X154.8577 Y-51.7393 I0.3118 J62.7634
G3 X154.7565 I-0.0457 J-8.3999
G2 X146.0895 Y-50.8352 I-0.2609 J39.4921
G2 X138.5856 Y-47.9546 I5.7045 J26.0738
G3 X138.4833 Y-47.8973 I-4.1569 J-7.2993
G2 X134.9933 Y-45.0688 I6.1457 J11.1507
G2 X134.4059 Y-43.4906 I1.8937 J1.6033
G1 Y-41.3796
G1 F300.0 X132.8059
G1 F800.0 Y-13.645
G3 X130.4005 Y-8.4559 I-6.8 J0.0
G3 X139.4755 Y-3.4188 I-42.262 J86.8331
G3 X151.125 Y5.1547 I-45.2876 J73.7373
G3 X151.1565 Y5.182 I-33.9585 J39.2493
G1 Y-2.5269
G3 X154.0403 Y-8.0859 I6.8 J0.0
G3 X151.1565 Y-13.645 I3.9162 J-5.5591
G1 Y-36.7848
G3 X152.6504 Y-45.7208 I23.4041 J-0.6803
G3 X152.6526 Y-45.7267 I6.3633 J2.3977
G3 X160.4734 Y-53.1238 I11.5287 J4.3561
G2 X154.849 Y-53.3393 I-5.274 J64.1477
G3 X154.7671 I-0.037 J-6.7999
G2 X145.7482 Y-52.3984 I-0.2714 J41.092
G2 X137.7938 Y-49.3449 I6.0457 J27.637
G3 X137.711 Y-49.2985 I-3.3651 J-5.909
G2 X133.7777 Y-46.1093 I6.918 J12.552
G2 X132.8059 Y-43.4977 I3.1093 J2.6437
G1 Y-41.3796
G1 F300.0 X131.2059
G1 F800.0 Y-13.645
G3 X126.5616 Y-8.4748 I-5.2 J0.0
G3 X138.6315 Y-2.0595 I-38.4231 J86.852
G3 X150.0752 Y6.3621 I-44.4436 J72.378
G3 X152.7565 Y8.8581 I-32.9087 J38.0419
G1 Y-2.5269
G3 X157.9565 Y-7.7269 I5.2 J0.0
G1 X170.316
G1 X169.8082 Y-8.445
G1 X157.9565
G3 X152.7565 Y-13.645 I0.0 J-5.2
G1 Y-36.8085
G3 X154.1476 Y-45.1567 I21.8041 J-0.6567
G3 X154.1493 Y-45.1611 I4.866 J1.8335
G3 X164.5543 Y-52.0883 I10.0319 J3.7906
G3 X169.8484 Y-51.3868 I0.1175 J19.4416
G3 X177.7889 Y-45.1389 I-3.2779 J12.3357
G3 X177.8948 Y-44.933 I-4.5704 J2.4802
G3 X178.3969 Y-43.8012 I-15.8767 J7.7214
G2 X178.0279 Y-45.7592 I-12.9276 J1.4228
G2 X175.1674 Y-50.1927 I-8.4591 J2.3183
G2 X171.219 Y-52.5005 I-9.3001 J11.3795
G2 X163.4686 Y-54.42 I-11.5569 J30.0575
G3 X163.4341 Y-54.4242 I0.6147 J-5.1635
G2 X154.8403 Y-54.9392 I-8.2346 J65.4481
G3 X154.7777 Y-54.9393 I-0.0283 J-5.1999
G2 X145.407 Y-53.9616 I-0.282 J42.692
G2 X137.002 Y-50.7353 I6.387 J29.2001
G3 X136.9387 Y-50.6998 I-2.5733 J-4.5186
G2 X132.5627 Y-47.1504 I7.6903 J13.9533
G2 X131.2059 Y-43.5035 I4.3243 J3.6848
G1 Y-41.3796
G1 F300.0 X129.6059
G1 F800.0 Y-13.645
G3 X126.0059 Y-10.045 I-3.6 J0.0
G1 X117.9298
G3 X124.2091 Y-7.7457 I-22.041 J69.9186
G1 X124.2092
G3 X137.7876 Y-0.7001 I-36.0706 J86.1229
G3 X149.0254 Y7.5696 I-43.5996 J71.0187
G3 X154.3565 Y12.961 I-31.8589 J36.8344
G1 Y-2.5269
G3 X157.9565 Y-6.1269 I3.6 J0.0
G1 X173.4069
G1 X170.6364 Y-10.045
G1 X157.9565
G3 X154.3565 Y-13.645 I0.0 J-3.6
G1 Y-36.833
G3 X155.6449 Y-44.5925 I20.2041 J-0.6321
G3 X155.6461 Y-44.5956 I3.3688 J1.2693
G3 X164.5307 Y-50.4881 I8.5352 J3.225
G3 X169.43 Y-49.8425 I0.1411 J17.8414
G3 X176.3826 Y-44.3757 I-2.8595 J10.7914
G3 X176.4559 Y-44.2332 I-3.1641 J1.717
G3 X178.0641 Y-36.6831 I-14.4379 J7.0217
G3 X178.0559 Y-36.3767 I-24.3417 J-0.499
G2 X179.1012 Y-37.7168 I-4.3056 J-4.4362
G2 X180.0759 Y-42.1207 I-8.238 J-4.133
G3 X180.0744 Y-42.2566 I3.5984 J-0.1058
G2 X179.5719 Y-46.1786 I-14.6052 J-0.1219
G2 X176.1843 Y-51.428 I-10.0032 J2.7377
G2 X171.7974 Y-53.9923 I-10.3169 J12.6148
G2 X163.6577 Y-56.0088 I-12.1353 J31.5493
G3 X163.6339 Y-56.0117 I0.4255 J-3.5748
G2 X154.8316 Y-56.5392 I-8.4344 J67.0356
G3 X154.7882 I-0.0196 J-3.5999
G2 X145.0657 Y-55.5247 I-0.2926 J44.292
G2 X136.2102 Y-52.1256 I6.7282 J30.7633
G3 X136.1664 Y-52.1011 I-1.7815 J-3.1283
G2 X131.3481 Y-48.1918 I8.4626 J15.3545
G2 X129.6059 Y-43.5085 I5.5389 J4.7262
G1 Y-41.3796
G1 F300.0 X128.0059
G1 F800.0 Y-13.645
G3 X126.0059 Y-11.645 I-2.0 J0.0
G1 X110.7109
G1 Y-10.2883
G3 X123.591 Y-6.27 I-14.8222 J70.1619
G1 X123.5911 Y-6.2699
G3 X136.9436 Y0.6592 I-35.4525 J84.6471
G3 X147.9756 Y8.7771 I-42.7557 J69.6593
G3 X155.9565 Y17.6867 I-30.8091 J35.6269
G1 Y-2.5269
G3 X157.9565 Y-4.5269 I2.0 J0.0
G1 X176.4977
G1 X171.4647 Y-11.645
G1 X157.9565
G3 X155.9565 Y-13.645 I0.0 J-2.0
G1 Y-36.8586
G3 X157.1421 Y-44.0284 I18.6041 J-0.6066
G3 X157.1428 Y-44.0301 I1.8716 J0.7052
G3 X164.5055 Y-48.8878 I7.0385 J2.6595
G3 X169.0118 Y-48.298 I0.1663 J16.2411
G3 X174.9763 Y-43.6126 I-2.4414 J9.247
G3 X175.0171 Y-43.5334 I-1.7579 J0.9539
G3 X176.4647 Y-36.7259 I-12.999 J6.3219
G3 X176.1506 Y-33.3882 I-22.7423 J-0.4562
G2 X176.7145 Y-33.6173 I-5.2969 J-13.8446
G3 X176.7375 Y-33.627 I0.7908 J1.837
G2 X180.5102 Y-36.9575 I-2.9872 J-7.1859
G2 X181.6752 Y-42.1678 I-9.647 J-4.8923
G3 X181.6744 Y-42.2433 I1.9991 J-0.0588
G2 X181.116 Y-46.5979 I-16.2051 J-0.1352
G2 X177.201 Y-52.6634 I-11.5473 J3.157
G2 X172.3757 Y-55.4842 I-11.3337 J13.8502
G2 X163.8469 Y-57.5976 I-12.7136 J33.0411
G3 X163.8336 Y-57.5992 I0.2364 J-1.986
G2 X154.8229 Y-58.1392 I-8.6341 J68.6231
G3 X154.7988 I-0.0109 J-2.0
G2 X144.7245 Y-57.0879 I-0.3031 J45.8919
G2 X135.4185 Y-53.516 I7.0695 J32.3265
G3 X135.3941 Y-53.5023 I-0.9897 J-1.7379
G2 X130.1335 Y-49.2334 I9.2349 J16.7558
G2 X128.0059 Y-43.513 I6.7535 J5.7678
G1 Y-41.3796
G0 Z3.0
G0 X141.6059
G0 Z-1.0
G1 F300.0 Z-4.0
G1 F800.0 Y-13.645
G3 X141.5599 Y-12.4486 I-15.6 J0.0
G3 X142.4525 Y-11.9177 I-53.4214 J90.8258
G3 X142.3565 Y-13.645 I15.5041 J-1.7274
G1 Y-36.6671
G3 X142.6649 Y-41.9817 I32.2041 J-0.798
G2 X142.1487 Y-41.698 I9.1291 J17.2203
G3 X141.9587 Y-41.5916 I-7.72 J-13.5559
G2 X141.6059 Y-41.3796 I2.6703 J4.845
G1 F300.0 X140.8059
G1 F800.0 Y-13.645
G3 X140.7159 Y-12.0155 I-14.8 J0.0
G3 X143.536 Y-10.3151 I-52.5774 J90.3927
G3 X143.1565 Y-13.645 I14.4205 J-3.3299
G1 Y-36.6771
G3 X143.7067 Y-43.3706 I31.4041 J-0.7881
G2 X141.7528 Y-42.3932 I8.0872 J18.6092
G3 X141.5725 Y-42.2922 I-7.3241 J-12.8607
G2 X140.8059 Y-41.7943 I3.0565 J5.5457
G1 Y-41.3796
G1 F300.0 X139.2059
G1 F800.0 Y-13.645
G3 X138.9722 Y-11.1721 I-13.2 J0.0
G3 X142.8515 Y-8.856 I-50.8337 J89.5493
G3 X145.579 Y-7.1134 I-48.6635 J79.1746
G3 X145.9842 Y-8.0859 I12.3775 J4.5866
G3 X144.7565 Y-13.645 I11.9723 J-5.5591
G1 Y-36.6974
G3 X145.9524 Y-45.8581 I29.8041 J-0.7677
G2 X140.961 Y-43.7835 I5.8416 J21.0967
G3 X140.8002 Y-43.6935 I-6.5323 J-11.4704
G2 X139.2059 Y-42.5352 I3.8288 J6.9469
G1 Y-41.3796
G1 F300.0 X137.6059
G1 F800.0 Y-13.645
G3 X137.1333 Y-10.368 I-11.6 J0.0
G3 X142.0075 Y-7.4967 I-48.9948 J88.7452
G3 X146.5306 Y-4.5291 I-47.8195 J77.8153
G3 X147.7754 Y-8.0859 I11.4259 J2.0022
G3 X146.3565 Y-13.645 I10.1812 J-5.5591
G1 Y-36.7183
G3 X148.1587 Y-47.4133 I28.2041 J-0.7468
G3 X148.1625 Y-47.4233 I10.855 J4.0901
G3 X148.403 Y-48.0251 I16.0188 J6.0527
G2 X146.772 Y-47.7088 I6.0927 J35.7779
G2 X140.1692 Y-45.1739 I5.0219 J22.9474
G3 X140.0279 Y-45.0947 I-5.7405 J-10.08
G2 X137.6059 Y-43.1915 I4.6011 J8.3482
G1 Y-41.3796
G1 F300.0 X136.0059
G1 F800.0 Y-13.645
G3 X135.1597 Y-9.6192 I-10.0 J0.0
G3 X141.1635 Y-6.1374 I-47.0212 J87.9964
G3 X147.9565 Y-1.5226 I-46.9755 J76.456
G1 Y-2.5269
G3 X149.6441 Y-8.0859 I10.0 J0.0
G3 X147.9565 Y-13.645 I8.3124 J-5.5591
G1 Y-36.7398
G3 X149.6559 Y-46.8491 I26.6041 J-0.7253
G3 X149.6592 Y-46.8577 I9.3578 J3.526
G3 X151.2788 Y-50.0034 I14.5221 J5.4872
G2 X146.4307 Y-49.272 I3.2169 J37.7561
G2 X139.3774 Y-46.5642 I5.3632 J24.5106
G3 X139.2556 Y-46.496 I-4.9487 J-8.6897
G2 X136.2105 Y-44.0303 I5.3734 J9.7495
G2 X136.0059 Y-43.4805 I0.6765 J0.5647
G1 Y-41.3796
G1 F300.0 X134.4059
G1 F800.0 Y-13.645
G3 X132.976 Y-8.957 I-8.4 J0.0
G3 X140.3195 Y-4.7781 I-44.8375 J87.3342
G3 X149.5565 Y1.7478 I-46.1316 J75.0966
G1 Y-2.5269
G3 X151.6592 Y-8.0859 I8.4 J0.0
G3 X149.5565 Y-13.645 I6.2973 J-5.5591
G1 Y-36.762
G3 X151.1532 Y-46.285 I25.0041 J-0.7032
G3 X151.1559 Y-46.2922 I7.8605 J2.9618
G3 X154.8877 Y-51.7394 I13.0254 J4.9216
G2 X154.8577 Y-51.7393 I0.3118 J62.7634
G3 X154.7565 I-0.0457 J-8.3999
G2 X146.0895 Y-50.8352 I-0.2609 J39.4921
G2 X138.5856 Y-47.9546 I5.7045 J26.0738
G3 X138.4833 Y-47.8973 I-4.1569 J-7.2993
G2 X134.9933 Y-45.0688 I6.1457 J11.1507
G2 X134.4059 Y-43.4906 I1.8937 J1.6033
G1 Y-41.3796
G1 F300.0 X132.8059
G1 F800.0 Y-13.645
G3 X130.4005 Y-8.4559 I-6.8 J0.0
G3 X139.4755 Y-3.4188 I-42.262 J86.8331
G3 X151.125 Y5.1547 I-45.2876 J73.7373
G3 X151.1565 Y5.182 I-33.9585 J39.2493
G1 Y-2.5269
G3 X154.0403 Y-8.0859 I6.8 J0.0
G3 X151.1565 Y-13.645 I3.9162 J-5.5591
G1 Y-36.7848
G3 X152.6504 Y-45.7208 I23.4041 J-0.6803
G3 X152.6526 Y-45.7267 I6.3633 J2.3977
G3 X160.4734 Y-53.1238 I11.5287 J4.3561
G2 X154.849 Y-53.3393 I-5.274 J64.1477
G3 X154.7671 I-0.037 J-6.7999
G2 X145.7482 Y-52.3984 I-0.2714 J41.092
G2 X137.7938 Y-49.3449 I6.0457 J27.637
G3 X137.711 Y-49.2985 I-3.3651 J-5.909
G2 X133.7777 Y-46.1093 I6.918 J12.552
G2 X132.8059 Y-43.4977 I3.1093 J2.6437
G1 Y-41.3796
G1 F300.0 X131.2059
G1 F800.0 Y-13.645
G3 X126.5616 Y-8.4748 I-5.2 J0.0
G3 X138.6315 Y-2.0595 I-38.4231 J86.852
G3 X150.0752 Y6.3621 I-44.4436 J72.378
G3 X152.7565 Y8.8581 I-32.9087 J38.0419
G1 Y-2.5269
G3 X157.9565 Y-7.7269 I5.2 J0.0
G1 X170.316
G1 X169.8082 Y-8.445
G1 X157.9565
G3 X152.7565 Y-13.645 I0.0 J-5.2
G1 Y-36.8085
G3 X154.1476 Y-45.1567 I21.8041 J-0.6567
G3 X154.1493 Y-45.1611 I4.866 J1.8335
G3 X164.5543 Y-52.0883 I10.0319 J3.7906
G3 X169.8484 Y-51.3868 I0.1175 J19.4416
G3 X177.7889 Y-45.1389 I-3.2779 J12.3357
G3 X177.8948 Y-44.933 I-4.5704 J2.4802
G3 X178.3969 Y-43.8012 I-15.8767 J7.7214
G2 X178.0279 Y-45.7592 I-12.9276 J1.4228
G2 X175.1674 Y-50.1927 I-8.4591 J2.3183
G2 X171.219 Y-52.5005 I-9.3001 J11.3795
G2 X163.4686 Y-54.42 I-11.5569 J30.0575
G3 X163.4341 Y-54.4242 I0.6147 J-5.1635
G2 X154.8403 Y-54.9392 I-8.2346 J65.4481
G3 X154.7777 Y-54.9393 I-0.0283 J-5.1999
G2 X145.407 Y-53.9616 I-0.282 J42.692
G2 X137.002 Y-50.7353 I6.387 J29.2001
G3 X136.9387 Y-50.6998 I-2.5733 J-4.5186
G2 X132.5627 Y-47.1504 I7.6903 J13.9533
G2 X131.2059 Y-43.5035 I4.3243 J3.6848
G1 Y-41.3796
G1 F300.0 X129.6059
G1 F800.0 Y-13.645
G3 X126.0059 Y-10.045 I-3.6 J0.0
G1 X117.9298
G3 X124.2091 Y-7.7457 I-22.041 J69.9186
G1 X124.2092
G3 X137.7876 Y-0.7001 I-36.0706 J86.1229
G3 X149.0254 Y7.5696 I-43.5996 J71.0187
G3 X154.3565 Y12.961 I-31.8589 J36.8344
G1 Y-2.5269
G3 X157.9565 Y-6.1269 I3.6 J0.0
G1 X173.4069
G1 X170.6364 Y-10.045
G1 X157.9565
G3 X154.3565 Y-13.645 I0.0 J-3.6
G1 Y-36.833
G3 X155.6449 Y-44.5925 I20.2041 J-0.6321
G3 X155.6461 Y-44.5956 I3.3688 J1.2693
G3 X164.5307 Y-50.4881 I8.5352 J3.225
G3 X169.43 Y-49.8425 I0.1411 J17.8414
G3 X176.3826 Y-44.3757 I-2.8595 J10.7914
G3 X176.4559 Y-44.2332 I-3.1641 J1.717
G3 X178.0641 Y-36.6831 I-14.4379 J7.0217
G3 X178.0559 Y-36.3767 I-24.3417 J-0.499
G2 X179.1012 Y-37.7168 I-4.3056 J-4.4362
G2 X180.0759 Y-42.1207 I-8.238 J-4.133
G3 X180.0744 Y-42.2566 I3.5984 J-0.1058
G2 X179.5719 Y-46.1786 I-14.6052 J-0.1219
G2 X176.1843 Y-51.428 I-10.0032 J2.7377
G2 X171.7974 Y-53.9923 I-10.3169 J12.6148
G2 X163.6577 Y-56.0088 I-12.1353 J31.5493
G3 X163.6339 Y-56.0117 I0.4255 J-3.5748
G2 X154.8316 Y-56.5392 I-8.4344 J67.0356
G3 X154.7882 I-0.0196 J-3.5999
G2 X145.0657 Y-55.5247 I-0.2926 J44.292
G2 X136.2102 Y-52.1256 I6.7282 J30.7633
G3 X136.1664 Y-52.1011 I-1.7815 J-3.1283
G2 X131.3481 Y-48.1918 I8.4626 J15.3545
G2 X129.6059 Y-43.5085 I5.5389 J4.7262
G1 Y-41.3796
G1 F300.0 X128.0059
G1 F800.0 Y-13.645
G3 X126.0059 Y-11.645 I-2.0 J0.0
G1 X110.7109
G1 Y-10.2883
G3 X123.591 Y-6.27 I-14.8222 J70.1619
G1 X123.5911 Y-6.2699
G3 X136.9436 Y0.6592 I-35.4525 J84.6471
G3 X147.9756 Y8.7771 I-42.7557 J69.6593
G3 X155.9565 Y17.6867 I-30.8091 J35.6269
G1 Y-2.5269
G3 X157.9565 Y-4.5269 I2.0 J0.0
G1 X176.4977
G1 X171.4647 Y-11.645
G1 X157.9565
G3 X155.9565 Y-13.645 I0.0 J-2.0
G1 Y-36.8586
G3 X157.1421 Y-44.0284 I18.6041 J-0.6066
G3 X157.1428 Y-44.0301 I1.8716 J0.7052
G3 X164.5055 Y-48.8878 I7.0385 J2.6595
G3 X169.0118 Y-48.298 I0.1663 J16.2411
G3 X174.9763 Y-43.6126 I-2.4414 J9.247
G3 X175.0171 Y-43.5334 I-1.7579 J0.9539
G3 X176.4647 Y-36.7259 I-12.999 J6.3219
G3 X176.1506 Y-33.3882 I-22.7423 J-0.4562
G2 X176.7145 Y-33.6173 I-5.2969 J-13.8446
G3 X176.7375 Y-33.627 I0.7908 J1.837
G2 X180.5102 Y-36.9575 I-2.9872 J-7.1859
G2 X181.6752 Y-42.1678 I-9.647 J-4.8923
G3 X181.6744 Y-42.2433 I1.9991 J-0.0588
G2 X181.116 Y-46.5979 I-16.2051 J-0.1352
G2 X177.201 Y-52.6634 I-11.5473 J3.157
G2 X172.3757 Y-55.4842 I-11.3337 J13.8502
G2 X163.8469 Y-57.5976 I-12.7136 J33.0411
G3 X163.8336 Y-57.5992 I0.2364 J-1.986
G2 X154.8229 Y-58.1392 I-8.6341 J68.6231
G3 X154.7988 I-0.0109 J-2.0
G2 X144.7245 Y-57.0879 I-0.3031 J45.8919
G2 X135.4185 Y-53.516 I7.0695 J32.3265
G3 X135.3941 Y-53.5023 I-0.9897 J-1.7379
G2 X130.1335 Y-49.2334 I9.2349 J16.7558
G2 X128.0059 Y-43.513 I6.7535 J5.7678
G1 Y-41.3796
G0 Z3.0
G0 X205.8872 Y-31.6705
G0 Z1.0
G1 F300.0 Z-2.0
G2 F800.0 X205.8712 Y-31.3198 I3.1985 J0.3217
G3 X205.8718 Y-31.1267 I-17.1993 J0.1553
G2 X206.3111 Y-29.3415 I3.8129 J0.0084
G3 X205.8872 Y-31.6705 I16.6698 J-4.2376
G1 F300.0 X205.0912 Y-31.7506
G2 F800.0 X205.0712 Y-31.3126 I3.9944 J0.4017
G3 X205.0718 Y-31.1285 I-16.3993 J0.148
G2 X206.0099 Y-28.3301 I4.6129 J0.0101
G3 X206.0785 Y-28.239 I-13.065 J9.9129
G2 X207.2374 Y-26.8863 I10.7672 J-8.052
G3 X207.5122 Y-28.1313 I16.1366 J2.9093
G3 X206.5892 Y-33.059 I15.4687 J-5.4478
G3 X206.5829 Y-34.6224 I28.2011 J-0.8947
G2 X205.493 Y-33.1404 I6.4754 J5.9042
G2 X205.0912 Y-31.7506 I3.5926 J1.7916
G1 F300.0 X203.4992 Y-31.9107
G2 F800.0 X203.4713 Y-31.2981 I5.5864 J0.5618
G3 X203.4718 Y-31.132 I-14.7994 J0.1336
G2 X204.7352 Y-27.363 I6.2129 J0.0137
G3 X204.7972 Y-27.2807 I-11.7904 J8.9458
G2 X207.131 Y-24.8029 I12.0485 J-9.0102
G3 X207.149 Y-24.7876 I-9.5565 J11.301
G2 X208.5775 Y-23.6518 I18.5945 J-21.9181
G3 X208.5781 Y-24.1379 I25.3722 J-0.2103
G3 X209.1928 Y-28.2007 I14.7959 J0.1609
G3 X208.1884 Y-33.1098 I13.7881 J-5.3784
G3 X208.52 Y-38.2254 I26.6019 J-0.844
G2 X206.8766 Y-37.0382 I14.0591 J21.1943
G3 X206.7493 Y-36.9395 I-9.1375 J-11.6424
G2 X204.0861 Y-33.9039 I6.309 J8.2212
G2 X203.4992 Y-31.9107 I4.9995 J2.5551
G1 F300.0 X201.9073 Y-32.0708
G2 F800.0 X201.8713 Y-31.2837 I7.1784 J0.722
G3 X201.8718 Y-31.1355 I-13.1995 J0.1192
G2 X203.4606 Y-26.3959 I7.8128 J0.0172
G3 X203.5158 Y-26.3225 I-10.5158 J7.9786
G2 X206.0979 Y-23.5811 I13.3298 J-9.9684
G3 X206.114 Y-23.5675 I-8.5234 J10.0793
G2 X209.9244 Y-20.8126 I19.6296 J-23.1381
G2 X210.4128 Y-20.5191 I22.8065 J-37.391
G3 X210.178 Y-24.1205 I23.5369 J-3.343
G3 X210.8953 Y-28.2709 I13.196 J0.1435
G3 X209.7876 Y-33.1605 I12.0857 J-5.3082
G3 X210.913 Y-41.413 I25.0027 J-0.7933
G2 X209.6196 Y-40.7556 I22.0324 J44.9533
G2 X205.8888 Y-38.2969 I12.9595 J23.7245
G3 X205.7753 Y-38.2088 I-8.1497 J-10.3838
G2 X202.6808 Y-34.6697 I7.2831 J9.4905
G2 X201.9073 Y-32.0708 I6.4049 J3.3209
G1 F300.0 X200.3153 Y-32.2309
G2 F800.0 X200.2714 Y-31.2693 I8.7704 J0.8821
G3 X200.2718 Y-31.139 I-11.5995 J0.1047
G2 X202.1859 Y-25.4288 I9.4128 J0.0207
G3 X202.2345 Y-25.3643 I-9.2411 J7.0115
G2 X205.0648 Y-22.3594 I14.6112 J-10.9266
G3 X205.0789 Y-22.3475 I-7.4902 J8.8576
G2 X209.0908 Y-19.447 I20.6647 J-24.3582
G2 X212.7231 Y-17.4529 I23.6401 J-38.7566
G3 X211.7779 Y-24.1031 I21.2266 J-6.4092
G3 X212.6302 Y-28.3425 I11.5961 J0.1261
G3 X211.3868 Y-33.2113 I10.3507 J-5.2366
G3 X213.87 Y-44.4713 I23.4035 J-0.7425
G2 X208.8634 Y-42.1657 I19.0753 J48.0116
G2 X204.9009 Y-39.5555 I13.7158 J25.1346
G3 X204.8012 Y-39.4781 I-7.1618 J-9.1251
G2 X201.2763 Y-35.4368 I8.2572 J10.7598
G2 X200.3153 Y-32.2309 I7.8093 J4.088
G1 F300.0 X198.7233 Y-32.391
G2 F800.0 X198.6715 Y-31.2548 I10.3623 J1.0422
G3 X198.6719 Y-31.1425 I-9.9996 J0.0903
G2 X200.9113 Y-24.4617 I11.0128 J0.0242
G3 X200.9532 Y-24.4061 I-7.9665 J6.0444
G2 X204.0316 Y-21.1377 I15.8925 J-11.8849
G3 X204.0438 Y-21.1274 I-6.4571 J7.6358
G2 X208.2571 Y-18.0813 I21.6998 J-25.5783
G2 X215.6767 Y-14.4096 I24.4738 J-40.1223
G3 X213.3778 Y-24.0857 I18.273 J-9.4525
G3 X214.4169 Y-28.4161 I9.9962 J0.1087
G3 X212.986 Y-33.262 I8.5641 J-5.163
G3 X217.6806 Y-47.4876 I21.8043 J-0.6918
G2 X208.1073 Y-43.5758 I15.2648 J51.0279
G2 X203.9131 Y-40.8142 I14.4719 J26.5447
G3 X203.8271 Y-40.7474 I-6.174 J-7.8665
G2 X199.8724 Y-36.2047 I9.2313 J12.0291
G2 X198.7233 Y-32.391 I9.2133 J4.8559
G1 F300.0 X197.1313 Y-32.5511
G2 F800.0 X197.0715 Y-31.2404 I11.9543 J1.2023
G3 X197.0719 Y-31.1461 I-8.3997 J0.0758
G2 X199.6367 Y-23.4946 I12.6128 J0.0277
G3 X199.6718 Y-23.4479 I-6.6918 J5.0773
G2 X202.9985 Y-19.9159 I17.1739 J-12.8431
G3 X203.0087 Y-19.9073 I-5.424 J6.4141
G2 X207.4235 Y-16.7156 I22.7348 J-26.7984
G2 X219.6443 Y-11.4013 I25.3074 J-41.488
G3 X217.3291 Y-14.7132 I16.0159 J-13.6612
G3 X217.2507 Y-14.8553 I7.312 J-4.1281
G3 X214.9777 Y-24.0683 I16.699 J-9.0068
G3 X216.2954 Y-28.4936 I8.3963 J0.0913
G3 X214.5852 Y-33.3127 I6.6856 J-5.0855
G3 X219.7031 Y-47.4087 I20.2051 J-0.641
G3 X219.8749 Y-47.5956 I6.2691 J5.5909
G3 X223.0891 Y-50.4292 I17.354 J16.4446
G2 X207.3513 Y-44.986 I9.8563 J53.9695
G2 X202.9252 Y-42.0728 I15.2279 J27.9549
G3 X202.853 Y-42.0167 I-5.1862 J-6.6079
G2 X198.4687 Y-36.9731 I10.2053 J13.2985
G2 X197.1313 Y-32.5511 I10.6169 J5.6242
G1 F300.0 X195.5394 Y-32.7112
G2 F800.0 X195.4716 Y-31.2259 I13.5463 J1.3624
G3 X195.4719 Y-31.1496 I-6.7997 J0.0614
G2 X198.362 Y-22.5275 I14.2128 J0.0313
G3 X198.3905 Y-22.4897 I-5.4172 J4.1102
G2 X201.9654 Y-18.6942 I18.4552 J-13.8013
G3 X201.9736 Y-18.6872 I-4.3908 J5.1924
G2 X206.5898 Y-15.35 I23.7699 J-28.0185
G2 X221.4677 Y-9.286 I26.1411 J-42.8536
G2 X225.4219 Y-8.4963 I16.0462 J-70.0523
G3 X224.0846 Y-9.4311 I13.1153 J-20.1865
G3 X218.7224 Y-15.4998 I11.5757 J-15.6314
G3 X218.6589 Y-15.6148 I5.9187 J-3.3415
G3 X216.5776 Y-24.0509 I15.2908 J-8.2472
G3 X218.3723 Y-28.5791 I6.7964 J0.0739
G3 X216.1844 Y-33.3635 I4.6087 J-5.0
G3 X220.8972 Y-46.3438 I18.6059 J-0.5903
G3 X221.0363 Y-46.4951 I5.075 J4.526
G3 X228.5831 Y-51.7153 I16.1926 J15.344
G3 X228.6054 Y-51.7246 I2.6355 J6.2685
G3 X233.3834 Y-53.375 I15.7114 J37.7444
G2 X223.4162 Y-52.112 I7.8895 J102.2236
G3 X223.3835 Y-52.1063 I-1.1843 J-6.6961
G2 X206.5954 Y-46.3962 I9.5619 J55.6466
G2 X201.9374 Y-43.3314 I15.9837 J29.3651
G3 X201.8789 Y-43.2861 I-4.1983 J-5.3492
G2 X197.0654 Y-37.7418 I11.1794 J14.5678
G2 X195.5394 Y-32.7112 I12.0203 J6.393
G0 Z3.0
G0 X266.2793 Y-23.5791
G0 Z1.0
G1 F300.0 Z-2.0
G3 F800.0 X265.9851 Y-19.9108 I-24.1044 J-0.0878
G2 X269.23 Y-23.5791 I-17.8593 J-19.0678
G1 X266.2793
G1 F300.0 Y-25.1791
G1 F800.0 X264.5896
G3 X264.6741 Y-24.1617 I-8.3103 J1.2021
G3 X263.2266 Y-15.7117 I-22.4991 J0.4948
G2 X264.0355 Y-16.2721 I-19.8981 J-29.5891
G3 X264.0799 Y-16.3035 I4.8781 J6.8385
G2 X271.6851 Y-24.3618 I-15.9541 J-22.6752
G2 X272.1585 Y-25.1791 I-26.3901 J-15.8288
G1 X266.2793
G1 F300.0 Y-26.7791
G1 F800.0 X262.4716
G3 X263.0745 Y-24.1265 I-6.1923 J2.8021
G3 X261.4237 Y-15.513 I-20.8995 J0.4596
G3 X261.3188 Y-15.2779 I-6.2584 J-2.6511
G3 X258.8607 Y-11.4355 I-15.8624 J-7.44
G2 X264.9647 Y-14.9695 I-15.5323 J-33.8654
G3 X265.0006 Y-14.995 I3.9489 J5.5359
G2 X273.0511 Y-23.5285 I-16.8748 J-23.9837
G2 X274.7595 Y-26.7791 I-27.756 J-16.662
G1 X266.2793
G1 F300.0 Y-28.3791
G1 F800.0 X259.0413
G3 X261.4748 Y-24.0913 I-2.762 J4.4021
G3 X259.9505 Y-16.1371 I-19.2999 J0.4244
G3 X259.8703 Y-15.9573 I-4.7852 J-2.027
G3 X250.2355 Y-7.5316 I-14.4138 J-6.7606
G3 X240.0701 Y-6.0333 I-9.5325 J-29.4405
G3 X232.4273 Y-7.0565 I-0.1651 J-27.8215
G3 X232.4063 Y-7.0624 I1.3967 J-5.0056
G3 X225.041 Y-10.7138 I6.1308 J-21.6205
G3 X220.1157 Y-16.2864 I10.6193 J-14.3487
G3 X220.0671 Y-16.3744 I4.5254 J-2.5549
G3 X218.1775 Y-24.0336 I13.8826 J-7.4877
G3 X221.1956 Y-28.6952 I5.1965 J0.0565
G3 X217.7836 Y-33.4142 I1.7854 J-4.8839
G3 X222.0914 Y-45.2788 I17.0067 J-0.5396
G3 X222.1977 Y-45.3945 I3.8809 J3.461
G3 X229.2032 Y-50.2404 I15.0312 J14.2435
G3 X229.2203 Y-50.2475 I2.0154 J4.7936
G3 X239.78 Y-53.0012 I15.0965 J36.2673
G3 X249.8599 Y-53.6035 I9.6589 J76.9976
G3 X266.4495 Y-52.3231 I1.1547 J93.1516
G2 X257.022 Y-54.3414 I-16.2649 J52.9452
G3 X256.9871 Y-54.3459 I0.6419 J-5.1602
G2 X242.1024 Y-55.2762 I-14.2606 J108.6325
G3 X242.0347 I-0.0296 J-5.1999
G2 X223.1376 Y-53.6876 I-0.7618 J104.1248
G3 X223.1125 Y-53.6832 I-0.9057 J-5.1205
G2 X205.8396 Y-47.8065 I9.8328 J57.2235
G2 X200.9496 Y-44.5901 I16.7395 J30.7754
G3 X200.9048 Y-44.5554 I-3.2105 J-4.0906
G2 X195.6622 Y-38.5108 I12.1535 J15.8371
G2 X193.8717 Y-31.2115 I13.4235 J7.162
G3 X193.8719 Y-31.1531 I-5.1998 J0.0469
G2 X197.0874 Y-21.5603 I15.8128 J0.0348
G3 X197.1092 Y-21.5314 I-4.1426 J3.1431
G2 X200.9322 Y-17.4725 I19.7365 J-14.7595
G3 X200.9386 Y-17.4671 I-3.3577 J3.9706
G2 X205.7562 Y-13.9843 I24.805 J-29.2386
G2 X221.1096 Y-7.7266 I26.9747 J-44.2193
G2 X238.0481 Y-5.8737 I16.4043 J-71.6117
G3 X238.1335 Y-5.8736 I0.0378 J5.1999
G2 X252.9168 Y-7.645 I0.5316 J-58.1372
G2 X265.8938 Y-13.6669 I-9.5883 J-37.6558
G3 X265.9213 Y-13.6864 I3.0198 J4.2333
G2 X274.417 Y-22.6952 I-17.7955 J-25.2923
G2 X277.1489 Y-28.3791 I-29.122 J-17.4953
G1 X266.2793
G0 Z3.0
G0 X259.5713 Y-25.4262
G0 Z1.0
G1 F300.0 Z-2.0
G3 F800.0 X259.8752 Y-24.0561 I-3.292 J1.4491
G3 X258.4772 Y-16.7612 I-17.7003 J0.3893
G3 X258.4217 Y-16.6368 I-3.3119 J-1.4029
G3 X249.749 Y-9.0558 I-12.9653 J-6.0811
G3 X240.0817 Y-7.6334 I-9.046 J-27.9162
G3 X232.8574 Y-8.5976 I-0.1767 J-26.2214
G3 X232.8428 Y-8.6017 I0.9667 J-3.4645
G3 X225.9973 Y-11.9966 I5.6943 J-20.0812
G3 X221.509 Y-17.0731 I9.6629 J-13.0659
G3 X221.4754 Y-17.1339 I3.1321 J-1.7683
G3 X219.7774 Y-24.0162 I12.4743 J-6.7282
G3 X223.374 Y-27.5739 I3.5966 J0.0391
G1 X256.2793
G3 X259.5713 Y-25.4262 I0.0 J3.5968
G1 F300.0 X258.1098 Y-24.7828
G3 F800.0 X258.2788 Y-24.021 I-1.8305 J0.8058
G3 X257.0069 Y-17.384 I-16.1039 J0.3541
G3 X256.976 Y-17.3148 I-1.8416 J-0.7801
G3 X249.2637 Y-10.5771 I-11.5196 J-5.4031
G3 X240.0932 Y-9.2303 I-8.5607 J-26.3949
G3 X233.2865 Y-10.1356 I-0.1882 J-24.6245
G3 X233.2784 Y-10.1379 I0.5375 J-1.9264
G3 X226.9517 Y-13.2768 I5.2587 J-18.545
G3 X222.8995 Y-17.8581 I8.7086 J-11.7857
G3 X222.8808 Y-17.8919 I1.7416 J-0.9833
G3 X221.3741 Y-23.9988 I11.0689 J-5.9701
G3 X223.374 Y-25.9771 I1.9999 J0.0217
G1 X256.2793
G3 X258.1098 Y-24.7828 I0.0 J2.0
G0 Z3.0
G0 Y-29.9791
G0 Z1.0
G1 F300.0 Z-2.0
G1 F800.0 X222.981
G3 X219.3828 Y-33.4649 I0.0 J-3.6
G3 X223.2855 Y-44.2139 I15.4075 J-0.4888
G3 X223.3591 Y-44.294 I2.6868 J2.3961
G3 X229.8234 Y-48.7654 I13.8698 J13.143
G3 X229.8351 Y-48.7703 I1.3952 J3.3186
G3 X239.972 Y-51.4127 I14.4816 J34.7902
G3 X249.8655 Y-52.0035 I9.4669 J75.4091
G3 X268.2574 Y-50.3724 I1.1491 J91.5515
G3 X268.2831 Y-50.3674 I-0.678 J3.5356
G3 X277.6202 Y-47.377 I-8.4835 J42.5606
G3 X279.6976 Y-46.3376 I-9.7858 J22.1559
G2 X278.2149 Y-48.0879 I-6.4351 J3.9482
G3 X278.1918 Y-48.1082 I2.3615 J-2.7172
G2 X271.4596 Y-52.2449 I-15.2 J17.1904
G3 X271.445 Y-52.2507 I1.3285 J-3.3459
G2 X257.2195 Y-55.9292 I-21.2604 J52.8728
G3 X257.1954 Y-55.9323 I0.4444 J-3.5725
G2 X242.0933 Y-56.8761 I-14.4689 J110.2189
G3 X242.0464 Y-56.8762 I-0.0205 J-3.5999
G2 X222.8589 Y-55.2631 I-0.7735 J105.7247
G3 X222.8416 Y-55.2601 I-0.627 J-3.545
G2 X205.0839 Y-49.2168 I10.1038 J58.8004
G2 X199.9617 Y-45.8487 I17.4953 J32.1857
G3 X199.9308 Y-45.8247 I-2.2226 J-2.8319
G2 X194.2591 Y-39.28 I13.1276 J17.1064
G2 X192.2717 Y-31.197 I14.8266 J7.9312
G3 X192.2719 Y-31.1566 I-3.5999 J0.0325
G2 X195.8128 Y-20.5932 I17.4128 J0.0383
G3 X195.8278 Y-20.5732 I-2.8679 J2.176
G2 X199.8991 Y-16.2507 I21.0179 J-15.7177
G3 X199.9035 Y-16.247 I-2.3246 J2.7489
G2 X204.9226 Y-12.6187 I25.8401 J-30.4587
G2 X220.7515 Y-6.1672 I27.8084 J-45.585
G2 X238.0598 Y-4.2737 I16.7624 J-73.1711
G3 X238.1189 I0.0262 J3.5999
G2 X253.3103 Y-6.0941 I0.5463 J-59.7372
G2 X266.823 Y-12.3644 I-9.9818 J-39.2067
G3 X266.842 Y-12.3778 I2.0906 J2.9308
G2 X275.783 Y-21.862 I-18.7162 J-26.6008
G2 X279.3711 Y-29.9791 I-30.4879 J-18.3286
G1 X258.1098
G1 F300.0 Y-31.5791
G1 F800.0 X222.981
G3 X220.982 Y-33.5157 I0.0 J-2.0
G3 X224.4796 Y-43.149 I13.8083 J-0.4381
G3 X224.5205 Y-43.1935 I1.4927 J1.3312
G3 X230.4435 Y-47.2905 I12.7084 J12.0424
G3 X230.45 Y-47.2932 I0.7751 J1.8437
G3 X240.1638 Y-49.8243 I13.8668 J33.313
G3 X249.871 Y-50.4034 I9.2751 J73.8207
G3 X267.956 Y-48.801 I1.1436 J89.9515
G3 X267.9703 Y-48.7982 I-0.3766 J1.9642
G3 X276.9685 Y-45.9157 I-8.1708 J40.9914
G3 X282.4065 Y-42.5229 I-9.1341 J20.6946
G2 X282.4105 Y-42.5693 I-8.2653 J-0.7268
G2 X279.2645 Y-49.2955 I-9.1479 J0.1799
G3 X279.2516 Y-49.3068 I1.3119 J-1.5096
G2 X272.05 Y-53.732 I-16.2599 J18.389
G3 X272.0419 Y-53.7352 I0.738 J-1.8588
G2 X257.417 Y-57.517 I-21.8573 J54.3573
G3 X257.4036 Y-57.5187 I0.2469 J-1.9847
G2 X242.0841 Y-58.4761 I-14.6771 J111.8053
G3 X242.0581 I-0.0114 J-2.0
G2 X222.5802 Y-56.8387 I-0.7852 J107.3247
G3 X222.5706 Y-56.837 I-0.3483 J-1.9694
G2 X204.3283 Y-50.6272 I10.3748 J60.3773
G2 X198.9739 Y-47.1074 I18.2509 J33.596
G3 X198.9567 Y-47.094 I-1.2348 J-1.5733
G2 X192.8561 Y-40.0494 I14.1017 J18.3757
G2 X190.6718 Y-31.1826 I16.2295 J8.7006
G3 X190.6719 Y-31.1602 I-1.9999 J0.0181
G2 X194.5381 Y-19.6261 I19.0128 J0.0418
G3 X194.5465 Y-19.615 I-1.5933 J1.2089
G2 X198.866 Y-15.029 I22.2992 J-16.6759
G3 X198.8684 Y-15.0269 I-1.2914 J1.5272
G2 X204.0889 Y-11.253 I26.8752 J-31.6787
G2 X220.3934 Y-4.6078 I28.642 J-46.9506
G2 X238.0714 Y-2.6738 I17.1206 J-74.7305
G3 X238.1042 Y-2.6737 I0.0145 J1.9999
G2 X253.7038 Y-4.5433 I0.5609 J-61.3371
G2 X267.7521 Y-11.0618 I-10.3753 J-40.7575
G3 X267.7627 Y-11.0693 I1.1614 J1.6282
G2 X277.1489 Y-21.0288 I-19.6369 J-27.9094
G2 X281.457 Y-31.5791 I-31.8539 J-19.1618
G1 X258.1098
G0 Z3.0
G0 X266.2793 Y-23.5791
G0 Z-1.0
G1 F300.0 Z-4.0
G3 F800.0 X265.9851 Y-19.9108 I-24.1044 J-0.0878
G2 X269.23 Y-23.5791 I-17.8593 J-19.0678
G1 X266.2793
G1 F300.0 Y-25.1791
G1 F800.0 X264.5896
G3 X264.6741 Y-24.1617 I-8.3103 J1.2021
G3 X263.2266 Y-15.7117 I-22.4991 J0.4948
G2 X264.0355 Y-16.2721 I-19.8981 J-29.5891
G3 X264.0799 Y-16.3035 I4.8781 J6.8385
G2 X271.6851 Y-24.3618 I-15.9541 J-22.6752
G2 X272.1585 Y-25.1791 I-26.3901 J-15.8288
G1 X266.2793
G1 F300.0 Y-26.7791
G1 F800.0 X262.4716
G3 X263.0745 Y-24.1265 I-6.1923 J2.8021
G3 X261.4237 Y-15.513 I-20.8995 J0.4596
G3 X261.3188 Y-15.2779 I-6.2584 J-2.6511
G3 X258.8607 Y-11.4355 I-15.8624 J-7.44
G2 X264.9647 Y-14.9695 I-15.5323 J-33.8654
G3 X265.0006 Y-14.995 I3.9489 J5.5359
G2 X273.0511 Y-23.5285 I-16.8748 J-23.9837
G2 X274.7595 Y-26.7791 I-27.756 J-16.662
G1 X266.2793
G0 Z3.0
G0 X206.3111 Y-29.3415
G0 Z-1.0
G1 F300.0 Z-4.0
G3 F800.0 X205.8872 Y-31.6705 I16.6698 J-4.2376
G2 X205.8712 Y-31.3198 I3.1985 J0.3217
G3 X205.8718 Y-31.1267 I-17.1993 J0.1553
G2 X206.3111 Y-29.3415 I3.8129 J0.0084
G1 F300.0 X205.6033 Y-28.9687
G2 F800.0 X206.0099 Y-28.3301 I4.0814 J-2.1496
G3 X206.0785 Y-28.239 I-13.065 J9.9129
G2 X207.2374 Y-26.8863 I10.7672 J-8.052
G3 X207.5122 Y-28.1313 I16.1366 J2.9093
G3 X206.5892 Y-33.059 I15.4687 J-5.4478
G3 X206.5829 Y-34.6224 I28.2011 J-0.8947
G2 X205.493 Y-33.1404 I6.4754 J5.9042
G2 X205.0712 Y-31.3126 I3.5926 J1.7916
G3 X205.0718 Y-31.1285 I-16.3993 J0.148
G2 X205.6033 Y-28.9687 I4.6129 J0.0101
G1 F300.0 X204.1877 Y-28.2231
G2 F800.0 X204.7352 Y-27.363 I5.497 J-2.8953
G3 X204.7972 Y-27.2807 I-11.7904 J8.9458
G2 X207.131 Y-24.8029 I12.0485 J-9.0102
G3 X207.149 Y-24.7876 I-9.5565 J11.301
G2 X208.5775 Y-23.6518 I18.5945 J-21.9181
G3 X208.5781 Y-24.1379 I25.3722 J-0.2103
G3 X209.1928 Y-28.2007 I14.7959 J0.1609
G3 X208.1884 Y-33.1098 I13.7881 J-5.3784
G3 X208.52 Y-38.2254 I26.6019 J-0.844
G2 X206.8766 Y-37.0382 I14.0591 J21.1943
G3 X206.7493 Y-36.9395 I-9.1375 J-11.6424
G2 X204.0861 Y-33.9039 I6.309 J8.2212
G2 X203.4713 Y-31.2981 I4.9995 J2.5551
G3 X203.4718 Y-31.132 I-14.7994 J0.1336
G2 X204.1877 Y-28.2231 I6.2129 J0.0137
G1 F300.0 X202.772 Y-27.4774
G2 F800.0 X203.4606 Y-26.3959 I6.9127 J-3.6409
G3 X203.5158 Y-26.3225 I-10.5158 J7.9786
G2 X206.0979 Y-23.5811 I13.3298 J-9.9684
G3 X206.114 Y-23.5675 I-8.5234 J10.0793
G2 X209.9244 Y-20.8126 I19.6296 J-23.1381
G2 X210.4128 Y-20.5191 I22.8065 J-37.391
G3 X210.178 Y-24.1205 I23.5369 J-3.343
G3 X210.8953 Y-28.2709 I13.196 J0.1435
G3 X209.7876 Y-33.1605 I12.0857 J-5.3082
G3 X210.913 Y-41.413 I25.0027 J-0.7933
G2 X209.6196 Y-40.7556 I22.0324 J44.9533
G2 X205.8888 Y-38.2969 I12.9595 J23.7245
G3 X205.7753 Y-38.2088 I-8.1497 J-10.3838
G2 X202.6808 Y-34.6697 I7.2831 J9.4905
G2 X201.8713 Y-31.2837 I6.4049 J3.3209
G3 X201.8718 Y-31.1355 I-13.1995 J0.1192
G2 X202.772 Y-27.4774 I7.8128 J0.0172
G1 F300.0 X201.3564 Y-26.7318
G2 F800.0 X202.1859 Y-25.4288 I8.3283 J-4.3865
G3 X202.2345 Y-25.3643 I-9.2411 J7.0115
G2 X205.0648 Y-22.3594 I14.6112 J-10.9266
G3 X205.0789 Y-22.3475 I-7.4902 J8.8576
G2 X209.0908 Y-19.447 I20.6647 J-24.3582
G2 X212.7231 Y-17.4529 I23.6401 J-38.7566
G3 X211.7779 Y-24.1031 I21.2266 J-6.4092
G3 X212.6302 Y-28.3425 I11.5961 J0.1261
G3 X211.3868 Y-33.2113 I10.3507 J-5.2366
G3 X213.87 Y-44.4713 I23.4035 J-0.7425
G2 X208.8634 Y-42.1657 I19.0753 J48.0116
G2 X204.9009 Y-39.5555 I13.7158 J25.1346
G3 X204.8012 Y-39.4781 I-7.1618 J-9.1251
G2 X201.2763 Y-35.4368 I8.2572 J10.7598
G2 X200.2714 Y-31.2693 I7.8093 J4.088
G3 X200.2718 Y-31.139 I-11.5995 J0.1047
G2 X201.3564 Y-26.7318 I9.4128 J0.0207
G1 F300.0 X199.9407 Y-25.9862
G2 F800.0 X200.9113 Y-24.4617 I9.744 J-5.1321
G3 X200.9532 Y-24.4061 I-7.9665 J6.0444
G2 X204.0316 Y-21.1377 I15.8925 J-11.8849
G3 X204.0438 Y-21.1274 I-6.4571 J7.6358
G2 X208.2571 Y-18.0813 I21.6998 J-25.5783
G2 X215.6767 Y-14.4096 I24.4738 J-40.1223
G3 X213.3778 Y-24.0857 I18.273 J-9.4525
G3 X214.4169 Y-28.4161 I9.9962 J0.1087
G3 X212.986 Y-33.262 I8.5641 J-5.163
G3 X217.6806 Y-47.4876 I21.8043 J-0.6918
G2 X208.1073 Y-43.5758 I15.2648 J51.0279
G2 X203.9131 Y-40.8142 I14.4719 J26.5447
G3 X203.8271 Y-40.7474 I-6.174 J-7.8665
G2 X199.8724 Y-36.2047 I9.2313 J12.0291
G2 X198.6715 Y-31.2548 I9.2133 J4.8559
G3 X198.6719 Y-31.1425 I-9.9996 J0.0903
G2 X199.9407 Y-25.9862 I11.0128 J0.0242
G1 F300.0 X198.5251 Y-25.2406
G2 F800.0 X199.6367 Y-23.4946 I11.1596 J-5.8777
G3 X199.6718 Y-23.4479 I-6.6918 J5.0773
G2 X202.9985 Y-19.9159 I17.1739 J-12.8431
G3 X203.0087 Y-19.9073 I-5.424 J6.4141
G2 X207.4235 Y-16.7156 I22.7348 J-26.7984
G2 X219.6443 Y-11.4013 I25.3074 J-41.488
G3 X217.3291 Y-14.7132 I16.0159 J-13.6612
G3 X217.2507 Y-14.8553 I7.312 J-4.1281
G3 X214.9777 Y-24.0683 I16.699 J-9.0068
G3 X216.2954 Y-28.4936 I8.3963 J0.0913
G3 X214.5852 Y-33.3127 I6.6856 J-5.0855
G3 X219.7031 Y-47.4087 I20.2051 J-0.641
G3 X219.8749 Y-47.5956 I6.2691 J5.5909
G3 X223.0891 Y-50.4292 I17.354 J16.4446
G2 X207.3513 Y-44.986 I9.8563 J53.9695
G2 X202.9252 Y-42.0728 I15.2279 J27.9549
G3 X202.853 Y-42.0167 I-5.1862 J-6.6079
G2 X198.4687 Y-36.9731 I10.2053 J13.2985
G2 X197.0715 Y-31.2404 I10.6169 J5.6242
G3 X197.0719 Y-31.1461 I-8.3997 J0.0758
G2 X198.5251 Y-25.2406 I12.6128 J0.0277
G1 F300.0 X197.1094 Y-24.495
G2 F800.0 X198.362 Y-22.5275 I12.5752 J-6.6233
G3 X198.3905 Y-22.4897 I-5.4172 J4.1102
G2 X201.9654 Y-18.6942 I18.4552 J-13.8013
G3 X201.9736 Y-18.6872 I-4.3908 J5.1924
G2 X206.5898 Y-15.35 I23.7699 J-28.0185
G2 X221.4677 Y-9.286 I26.1411 J-42.8536
G2 X225.4219 Y-8.4963 I16.0462 J-70.0523
G3 X224.0846 Y-9.4311 I13.1153 J-20.1865
G3 X218.7224 Y-15.4998 I11.5757 J-15.6314
G3 X218.6589 Y-15.6148 I5.9187 J-3.3415
G3 X216.5776 Y-24.0509 I15.2908 J-8.2472
G3 X218.3723 Y-28.5791 I6.7964 J0.0739
G3 X216.1844 Y-33.3635 I4.6087 J-5.0
G3 X220.8972 Y-46.3438 I18.6059 J-0.5903
G3 X221.0363 Y-46.4951 I5.075 J4.526
G3 X228.5831 Y-51.7153 I16.1926 J15.344
G3 X228.6054 Y-51.7246 I2.6355 J6.2685
G3 X233.3834 Y-53.375 I15.7114 J37.7444
G2 X223.4162 Y-52.112 I7.8895 J102.2236
G3 X223.3835 Y-52.1063 I-1.1843 J-6.6961
G2 X206.5954 Y-46.3962 I9.5619 J55.6466
G2 X201.9374 Y-43.3314 I15.9837 J29.3651
G3 X201.8789 Y-43.2861 I-4.1983 J-5.3492
G2 X197.0654 Y-37.7418 I11.1794 J14.5678
G2 X195.4716 Y-31.2259 I12.0203 J6.393
G3 X195.4719 Y-31.1496 I-6.7997 J0.0614
G2 X197.1094 Y-24.495 I14.2128 J0.0313
G1 F300.0 X195.6938 Y-23.7494
G2 F800.0 X197.0874 Y-21.5603 I13.9909 J-7.369
G3 X197.1092 Y-21.5314 I-4.1426 J3.1431
G2 X200.9322 Y-17.4725 I19.7365 J-14.7595
G3 X200.9386 Y-17.4671 I-3.3577 J3.9706
G2 X205.7562 Y-13.9843 I24.805 J-29.2386
G2 X221.1096 Y-7.7266 I26.9747 J-44.2193
G2 X238.0481 Y-5.8737 I16.4043 J-71.6117
G3 X238.1335 Y-5.8736 I0.0378 J5.1999
G2 X252.9168 Y-7.645 I0.5316 J-58.1372
G2 X265.8938 Y-13.6669 I-9.5883 J-37.6558
G3 X265.9213 Y-13.6864 I3.0198 J4.2333
G2 X274.417 Y-22.6952 I-17.7955 J-25.2923
G2 X277.1489 Y-28.3791 I-29.122 J-17.4953
G1 X259.0413
G3 X261.4748 Y-24.0913 I-2.762 J4.4021
G3 X259.9505 Y-16.1371 I-19.2999 J0.4244
G3 X259.8703 Y-15.9573 I-4.7852 J-2.027
G3 X250.2355 Y-7.5316 I-14.4138 J-6.7606
G3 X240.0701 Y-6.0333 I-9.5325 J-29.4405
G3 X232.4273 Y-7.0565 I-0.1651 J-27.8215
G3 X232.4063 Y-7.0624 I1.3967 J-5.0056
G3 X225.041 Y-10.7138 I6.1308 J-21.6205
G3 X220.1157 Y-16.2864 I10.6193 J-14.3487
G3 X220.0671 Y-16.3744 I4.5254 J-2.5549
G3 X218.1775 Y-24.0336 I13.8826 J-7.4877
G3 X221.1956 Y-28.6952 I5.1965 J0.0565
G3 X217.7836 Y-33.4142 I1.7854 J-4.8839
G3 X222.0914 Y-45.2788 I17.0067 J-0.5396
G3 X222.1977 Y-45.3945 I3.8809 J3.461
G3 X229.2032 Y-50.2404 I15.0312 J14.2435
G3 X229.2203 Y-50.2475 I2.0154 J4.7936
G3 X239.78 Y-53.0012 I15.0965 J36.2673
G3 X249.8599 Y-53.6035 I9.6589 J76.9976
G3 X266.4495 Y-52.3231 I1.1547 J93.1516
G2 X257.022 Y-54.3414 I-16.2649 J52.9452
G3 X256.9871 Y-54.3459 I0.6419 J-5.1602
G2 X242.1024 Y-55.2762 I-14.2606 J108.6325
G3 X242.0347 I-0.0296 J-5.1999
G2 X223.1376 Y-53.6876 I-0.7618 J104.1248
G3 X223.1125 Y-53.6832 I-0.9057 J-5.1205
G2 X205.8396 Y-47.8065 I9.8328 J57.2235
G2 X200.9496 Y-44.5901 I16.7395 J30.7754
G3 X200.9048 Y-44.5554 I-3.2105 J-4.0906
G2 X195.6622 Y-38.5108 I12.1535 J15.8371
G2 X193.8717 Y-31.2115 I13.4235 J7.162
G3 X193.8719 Y-31.1531 I-5.1998 J0.0469
G2 X195.6938 Y-23.7494 I15.8128 J0.0348
G0 Z3.0
G0 X219.7767 Y-23.8203
G0 Z-1.0
G1 F300.0 Z-4.0
G3 F800.0 X219.7774 Y-24.0162 I14.1731 J-0.0418
G3 X223.374 Y-27.5739 I3.5966 J0.0391
G1 X256.2793
G3 X259.8752 Y-24.0561 I0.0 J3.5968
G3 X258.4772 Y-16.7612 I-17.7003 J0.3893
G3 X258.4217 Y-16.6368 I-3.3119 J-1.4029
G3 X249.749 Y-9.0558 I-12.9653 J-6.0811
G3 X240.0817 Y-7.6334 I-9.046 J-27.9162
G3 X232.8574 Y-8.5976 I-0.1767 J-26.2214
G3 X232.8428 Y-8.6017 I0.9667 J-3.4645
G3 X225.9973 Y-11.9966 I5.6943 J-20.0812
G3 X221.509 Y-17.0731 I9.6629 J-13.0659
G3 X221.4754 Y-17.1339 I3.1321 J-1.7683
G3 X219.7767 Y-23.8203 I12.4743 J-6.7282
G1 F300.0 X221.3735 Y-23.825
G3 F800.0 X221.3741 Y-23.9988 I12.5763 J-0.0371
G3 X223.374 Y-25.9771 I1.9999 J0.0217
G1 X256.2793
G3 X258.2788 Y-24.021 I0.0 J2.0
G3 X257.0069 Y-17.384 I-16.1039 J0.3541
G3 X256.976 Y-17.3148 I-1.8416 J-0.7801
G3 X249.2637 Y-10.5771 I-11.5196 J-5.4031
G3 X240.0932 Y-9.2303 I-8.5607 J-26.3949
G3 X233.2865 Y-10.1356 I-0.1882 J-24.6245
G3 X233.2784 Y-10.1379 I0.5375 J-1.9264
G3 X226.9517 Y-13.2768 I5.2587 J-18.545
G3 X222.8995 Y-17.8581 I8.7086 J-11.7857
G3 X222.8808 Y-17.8919 I1.7416 J-0.9833
G3 X221.3735 Y-23.825 I11.0689 J-5.9701
G0 Z3.0
G0 X222.3956 Y-30.027
G0 Z-1.0
G1 F300.0 Z-4.0
G3 F800.0 X219.3828 Y-33.4649 I0.5854 J-3.5521
G3 X223.2855 Y-44.2139 I15.4075 J-0.4888
G3 X223.3591 Y-44.294 I2.6868 J2.3961
G3 X229.8234 Y-48.7654 I13.8698 J13.143
G3 X229.8351 Y-48.7703 I1.3952 J3.3186
G3 X239.972 Y-51.4127 I14.4816 J34.7902
G3 X249.8655 Y-52.0035 I9.4669 J75.4091
G3 X268.2574 Y-50.3724 I1.1491 J91.5515
G3 X268.2831 Y-50.3674 I-0.678 J3.5356
G3 X277.6202 Y-47.377 I-8.4835 J42.5606
G3 X279.6976 Y-46.3376 I-9.7858 J22.1559
G2 X278.2149 Y-48.0879 I-6.4351 J3.9482
G3 X278.1918 Y-48.1082 I2.3615 J-2.7172
G2 X271.4596 Y-52.2449 I-15.2 J17.1904
G3 X271.445 Y-52.2507 I1.3285 J-3.3459
G2 X257.2195 Y-55.9292 I-21.2604 J52.8728
G3 X257.1954 Y-55.9323 I0.4444 J-3.5725
G2 X242.0933 Y-56.8761 I-14.4689 J110.2189
G3 X242.0464 Y-56.8762 I-0.0205 J-3.5999
G2 X222.8589 Y-55.2631 I-0.7735 J105.7247
G3 X222.8416 Y-55.2601 I-0.627 J-3.545
G2 X205.0839 Y-49.2168 I10.1038 J58.8004
G2 X199.9617 Y-45.8487 I17.4953 J32.1857
G3 X199.9308 Y-45.8247 I-2.2226 J-2.8319
G2 X194.2591 Y-39.28 I13.1276 J17.1064
G2 X192.2717 Y-31.197 I14.8266 J7.9312
G3 X192.2719 Y-31.1566 I-3.5999 J0.0325
G2 X195.8128 Y-20.5932 I17.4128 J0.0383
G3 X195.8278 Y-20.5732 I-2.8679 J2.176
G2 X199.8991 Y-16.2507 I21.0179 J-15.7177
G3 X199.9035 Y-16.247 I-2.3246 J2.7489
G2 X204.9226 Y-12.6187 I25.8401 J-30.4587
G2 X220.7515 Y-6.1672 I27.8084 J-45.585
G2 X238.0598 Y-4.2737 I16.7624 J-73.1711
G3 X238.1189 I0.0262 J3.5999
G2 X253.3103 Y-6.0941 I0.5463 J-59.7372
G2 X266.823 Y-12.3644 I-9.9818 J-39.2067
G3 X266.842 Y-12.3778 I2.0906 J2.9308
G2 X275.783 Y-21.862 I-18.7162 J-26.6008
G2 X279.3711 Y-29.9791 I-30.4879 J-18.3286
G1 X222.981
G3 X222.3956 Y-30.027 I0.0 J-3.6
G1 F300.0 X222.6557 Y-31.6057
G3 F800.0 X220.982 Y-33.5157 I0.3252 J-1.9734
G3 X224.4796 Y-43.149 I13.8083 J-0.4381
G3 X224.5205 Y-43.1935 I1.4927 J1.3312
G3 X230.4435 Y-47.2905 I12.7084 J12.0424
G3 X230.45 Y-47.2932 I0.7751 J1.8437
G3 X240.1638 Y-49.8243 I13.8668 J33.313
G3 X249.871 Y-50.4034 I9.2751 J73.8207
G3 X267.956 Y-48.801 I1.1436 J89.9515
G3 X267.9703 Y-48.7982 I-0.3766 J1.9642
G3 X276.9685 Y-45.9157 I-8.1708 J40.9914
G3 X282.4065 Y-42.5229 I-9.1341 J20.6946
G2 X282.4105 Y-42.5693 I-8.2653 J-0.7268
G2 X279.2645 Y-49.2955 I-9.1479 J0.1799
G3 X279.2516 Y-49.3068 I1.3119 J-1.5096
G2 X272.05 Y-53.732 I-16.2599 J18.389
G3 X272.0419 Y-53.7352 I0.738 J-1.8588
G2 X257.417 Y-57.517 I-21.8573 J54.3573
G3 X257.4036 Y-57.5187 I0.2469 J-1.9847
G2 X242.0841 Y-58.4761 I-14.6771 J111.8053
G3 X242.0581 I-0.0114 J-2.0
G2 X222.5802 Y-56.8387 I-0.7852 J107.3247
G3 X222.5706 Y-56.837 I-0.3483 J-1.9694
G2 X204.3283 Y-50.6272 I10.3748 J60.3773
G2 X198.9739 Y-47.1074 I18.2509 J33.596
G3 X198.9567 Y-47.094 I-1.2348 J-1.5733
G2 X192.8561 Y-40.0494 I14.1017 J18.3757
G2 X190.6718 Y-31.1826 I16.2295 J8.7006
G3 X190.6719 Y-31.1602 I-1.9999 J0.0181
G2 X194.5381 Y-19.6261 I19.0128 J0.0418
G3 X194.5465 Y-19.615 I-1.5933 J1.2089
G2 X198.866 Y-15.029 I22.2992 J-16.6759
G3 X198.8684 Y-15.0269 I-1.2914 J1.5272
G2 X204.0889 Y-11.253 I26.8752 J-31.6787
G2 X220.3934 Y-4.6078 I28.642 J-46.9506
G2 X238.0714 Y-2.6738 I17.1206 J-74.7305
G3 X238.1042 Y-2.6737 I0.0145 J1.9999
G2 X253.7038 Y-4.5433 I0.5609 J-61.3371
G2 X267.7521 Y-11.0618 I-10.3753 J-40.7575
G3 X267.7627 Y-11.0693 I1.1614 J1.6282
G2 X277.1489 Y-21.0288 I-19.6369 J-27.9094
G2 X281.457 Y-31.5791 I-31.8539 J-19.1618
G1 X222.981
G3 X222.6557 Y-31.6057 I0.0 J-2.0
G0 Z3.0
G0 X322.4418 Y-49.1
G0 Z1.0
G1 F300.0 Z-2.0
G1 F800.0 X329.6092 Y-45.2098
G3 X328.9238 Y-49.1 I7.6979 J-3.3619
G1 X322.4418
G0 Z3.0
G0 X347.4379 Y-30.1524
G0 Z1.0
G1 F300.0 Z-2.0
G3 F800.0 X345.2729 Y-25.1851 I-11.4222 J-2.0229
G1 X352.4073 Y-30.0702
G3 X347.4379 Y-30.1524 I-2.2974 J-11.3702
G0 Z3.0
G0 X356.8444 Y-31.9425
G0 Z1.0
G1 F300.0 Z-2.0
G3 F800.0 X362.3961 Y-31.6551 I2.1936 J11.3907
G3 X365.8369 Y-37.2176 I11.1854 J3.0735
G1 X356.8444 Y-31.9425
G0 Z3.0
G0 X372.3383 Y-41.3746
G0 Z1.0
G1 F300.0 Z-2.0
G1 F800.0 X379.8509 Y-45.9
G1 X375.2948
G3 X372.3383 Y-41.3746 I-10.9222 J-3.9071
G0 Z3.0
G0 X379.6411 Y-15.2286
G0 Z1.0
G1 F300.0 Z-2.0
G3 F800.0 X379.8167 Y-10.9269 I-8.0249 J2.482
G1 X386.9028
G1 X379.6411 Y-15.2286
G0 Z3.0
G0 X334.8171 Y-15.8826
G0 Z1.0
G1 F300.0 Z-2.0
G1 F800.0 X334.5669 Y-15.7269
G1 X334.78
G3 X334.8171 Y-15.8826 I12.8592 J2.9803
G1 F300.0 X336.3713 Y-15.5024
G3 F800.0 X338.7766 Y-20.2309 I11.2679 J2.7559
G1 X328.9671 Y-14.1269
G1 X336.1216
G3 X336.3713 Y-15.5024 I11.5176 J1.3803
G1 F300.0 X337.9255 Y-15.1223
G3 F800.0 X341.9894 Y-20.9977 I9.7137 J2.3757
G1 X353.3883 Y-28.8028
G3 X363.6185 Y-29.441 I5.6498 J8.2511
G3 X368.4217 Y-37.1475 I9.963 J0.8595
G1 X385.608 Y-47.5
G1 X374.1028
G3 X369.4324 Y-41.1817 I-9.7302 J-2.3071
G1 X355.1697 Y-32.815
G3 X346.0146 Y-32.3174 I-5.0598 J-8.6254
G3 X341.2989 Y-23.6849 I-9.999 J0.1421
G1 X323.3674 Y-12.5269
G1 X337.6416
G3 X337.9255 Y-15.1223 I9.9976 J-0.2197
G1 F300.0 X339.4797 Y-14.7422
G3 F800.0 X342.8934 Y-19.6775 I8.1595 J1.9956
G1 X354.2923 Y-27.4827
G3 X363.4671 Y-27.6892 I4.7458 J6.9309
G1 X365.455 Y-26.4557
G3 X369.2473 Y-35.777 I8.1265 J-2.1259
G1 X391.365 Y-49.1
G1 X372.7427
G3 X368.6228 Y-42.5618 I-8.3702 J-0.7071
G1 X354.3601 Y-34.1951
G3 X346.0223 Y-34.1021 I-4.2502 J-7.2454
G1 X343.7957 Y-35.3423
G3 X340.4536 Y-25.0433 I-7.7801 J3.167
G1 X317.7677 Y-10.9269
G1 X339.4386
G3 X339.4797 Y-14.7422 I8.2005 J-1.8197
G1 F300.0 X341.0338 Y-14.3621
G3 F800.0 X343.7973 Y-18.3573 I6.6053 J1.6155
G1 X355.1963 Y-26.1625
G3 X362.6235 Y-26.3297 I3.8418 J5.6107
G1 X375.2016 Y-18.5245
G3 X377.4938 Y-9.3269 I-3.5854 J5.778
G1 X392.743
G1 X370.1158 Y-22.731
G3 X370.0728 Y-34.4064 I3.4658 J-5.8505
G1 X397.122 Y-50.7
G1 X371.1137
G3 X367.8132 Y-43.9418 I-6.7411 J0.8929
G1 X353.5505 Y-35.5751
G3 X346.8009 Y-35.4999 I-3.4407 J-5.8653
G1 X333.9981 Y-42.6312
G3 X330.8487 Y-50.7 I3.309 J-5.9406
G1 X316.1397
G1 X339.2594 Y-38.1518
G3 X339.6082 Y-26.4018 I-3.2437 J5.9765
G1 X312.168 Y-9.3269
G1 X341.7616
G3 X341.0338 Y-14.3621 I5.8775 J-3.4197
G1 F300.0 X342.588 Y-13.982
G3 F800.0 X344.7013 Y-17.0371 I5.0511 J1.2354
G1 X356.1002 Y-24.8423
G3 X361.7799 Y-24.9702 I2.9379 J4.2906
G1 X374.358 Y-17.165
G3 X375.078 Y-8.8664 I-2.7418 J4.4184
G1 X373.8007 Y-7.7269
G1 X398.5832
G1 X370.9312 Y-24.1076
G3 X370.8984 Y-33.0358 I2.6503 J-4.4739
G1 X402.8791 Y-52.3
G1 X368.9361
G3 X367.0037 Y-45.3219 I-4.5635 J2.4929
G1 X352.741 Y-36.9552
G3 X347.5794 Y-36.8976 I-2.6311 J-4.4852
G1 X334.7767 Y-44.029
G3 X333.6822 Y-52.3 I2.5304 J-4.5428
G1 X309.8376
G1 X338.4961 Y-36.7455
G3 X338.7629 Y-27.7603 I-2.4805 J4.5702
G1 X306.5683 Y-7.7269
G1 X345.4609
G1 X344.1868 Y-8.858
G3 X342.588 Y-13.982 I3.4523 J-3.8886
G1 F300.0 X344.1422 Y-13.6018
G3 F800.0 X345.6052 Y-15.717 I3.4969 J0.8553
G1 X357.0042 Y-23.5221
G3 X360.9363 Y-23.6107 I2.0339 J2.9704
G1 X373.5144 Y-15.8055
G3 X374.0128 Y-10.0603 I-1.8982 J3.0589
G1 X369.6039 Y-6.1269
G1 X404.6358
G1 X402.9095 Y-7.0295
G3 X402.7428 Y-7.1224 I1.6681 J-3.1902
G1 X371.7467 Y-25.4842
G3 X371.724 Y-31.6653 I1.8348 J-3.0973
G1 X404.91 Y-51.6555
G3 X405.2462 Y-51.8345 I1.8576 J3.0837
G1 X409.676 Y-53.9
G1 X364.5507
G1 X366.2267 Y-52.8929
G3 X366.1941 Y-46.702 I-1.8542 J3.0858
G1 X351.9314 Y-38.3353
G3 X348.358 Y-38.2954 I-1.8215 J-3.1052
G1 X335.5553 Y-45.4268
G3 X335.2479 Y-51.5247 I1.7518 J-3.145
G1 X338.654 Y-53.9
G1 X302.6012
G1 X307.2467 Y-51.8708
G3 X307.5229 Y-51.7358 I-1.441 J3.299
G1 X337.7329 Y-35.3393
G3 X337.9176 Y-29.1187 I-1.7173 J3.164
G1 X304.6193 Y-8.3985
G3 X304.3232 Y-8.2331 I-1.902 J-3.0566
G1 X300.0974 Y-6.1269
G1 X349.673
G1 X345.2491 Y-10.0545
G3 X344.1422 Y-13.6018 I2.3901 J-2.6921
G1 F300.0 X345.6964 Y-13.2217
G3 F800.0 X346.5092 Y-14.3968 I1.9427 J0.4751
G1 X357.9081 Y-22.202
G3 X360.0926 Y-22.2512 I1.13 J1.6502
G1 X372.6707 Y-14.446
G3 X372.9477 Y-11.2542 I-1.0545 J1.6994
G1 X365.4071 Y-4.5269
G1 X411.1486
G1 X403.6509 Y-8.4474
G3 X403.5583 Y-8.499 I0.9267 J-1.7723
G1 X372.5622 Y-26.8608
G3 X372.5496 Y-30.2947 I1.0193 J-1.7207
G1 X405.7356 Y-50.285
G3 X405.9224 Y-50.3844 I1.032 J1.7132
G1 X416.8935 Y-55.5
G1 X358.7814
G1 X365.4027 Y-51.5215
G3 X365.3845 Y-48.082 I-1.0301 J1.7143
G1 X351.1218 Y-39.7153
G3 X349.1366 Y-39.6932 I-1.012 J-1.7251
G1 X336.3339 Y-46.8245
G3 X336.1631 Y-50.2123 I0.9732 J-1.7472
G1 X343.7455 Y-55.5
G1 X294.9412
G1 X306.6062 Y-50.4046
G3 X306.7597 Y-50.3296 I-0.8006 J1.8328
G1 X336.9697 Y-33.9331
G3 X337.0723 Y-30.4772 I-0.954 J1.7578
G1 X303.7739 Y-9.757
G3 X303.6095 Y-9.6651 I-1.0566 J-1.6981
G1 X293.3007 Y-4.5269
G1 X353.8852
G1 X346.3113 Y-11.251
G3 X345.6964 Y-13.2217 I1.3278 J-1.4956
G0 Z3.0
G0 X334.8171 Y-15.8826
G0 Z-1.0
G1 F300.0 Z-4.0
G1 F800.0 X334.5669 Y-15.7269
G1 X334.78
G3 X334.8171 Y-15.8826 I12.8592 J2.9803
G1 F300.0 X336.3713 Y-15.5024
G3 F800.0 X338.7766 Y-20.2309 I11.2679 J2.7559
G1 X328.9671 Y-14.1269
G1 X336.1216
G3 X336.3713 Y-15.5024 I11.5176 J1.3803
G0 Z3.0
G0 X345.2729 Y-25.1851
G0 Z-1.0
G1 F300.0 Z-4.0
G1 F800.0 X352.4073 Y-30.0702
G3 X347.4379 Y-30.1524 I-2.2974 J-11.3702
G3 X345.2729 Y-25.1851 I-11.4222 J-2.0229
G0 Z3.0
G0 X356.8444 Y-31.9425
G0 Z-1.0
G1 F300.0 Z-4.0
G3 F800.0 X362.3961 Y-31.6551 I2.1936 J11.3907
G3 X365.8369 Y-37.2176 I11.1854 J3.0735
G1 X356.8444 Y-31.9425
G0 Z3.0
G0 X372.3383 Y-41.3746
G0 Z-1.0
G1 F300.0 Z-4.0
G1 F800.0 X379.8509 Y-45.9
G1 X375.2948
G3 X372.3383 Y-41.3746 I-10.9222 J-3.9071
G1 F300.0 X371.2395 Y-42.5377
G3 F800.0 X369.4324 Y-41.1817 I-6.867 J-7.2694
G1 X355.1697 Y-32.815
G3 X346.0146 Y-32.3174 I-5.0598 J-8.6254
G3 X341.2989 Y-23.6849 I-9.999 J0.1421
G1 X323.3674 Y-12.5269
G1 X337.6416
G3 X341.9894 Y-20.9977 I9.9976 J-0.2197
G1 X353.3883 Y-28.8028
G3 X363.6185 Y-29.441 I5.6498 J8.2511
G3 X368.4217 Y-37.1475 I9.963 J0.8595
G1 X385.608 Y-47.5
G1 X374.1028
G3 X371.2395 Y-42.5377 I-9.7302 J-2.3071
G1 F300.0 X370.1408 Y-43.7008
G3 F800.0 X368.6228 Y-42.5618 I-5.7683 J-6.1063
G1 X354.3601 Y-34.1951
G3 X346.0223 Y-34.1021 I-4.2502 J-7.2454
G1 X343.7957 Y-35.3423
G3 X340.4536 Y-25.0433 I-7.7801 J3.167
G1 X317.7677 Y-10.9269
G1 X339.4386
G3 X342.8934 Y-19.6775 I8.2005 J-1.8197
G1 X354.2923 Y-27.4827
G3 X363.4671 Y-27.6892 I4.7458 J6.9309
G1 X365.455 Y-26.4557
G3 X369.2473 Y-35.777 I8.1265 J-2.1259
G1 X391.365 Y-49.1
G1 X372.7427
G3 X370.1408 Y-43.7008 I-8.3702 J-0.7071
G0 Z3.0
G0 X379.6411 Y-15.2286
G0 Z-1.0
G1 F300.0 Z-4.0
G3 F800.0 X379.8167 Y-10.9269 I-8.0249 J2.482
G1 X386.9028
G1 X379.6411 Y-15.2286
G0 Z3.0
G0 X329.6092 Y-45.2098
G0 Z-1.0
G1 F300.0 Z-4.0
G3 F800.0 X328.9238 Y-49.1 I7.6979 J-3.3619
G1 X322.4418
G1 X329.6092 Y-45.2098
G1 F300.0 X328.846 Y-43.8036
G1 F800.0 X339.2594 Y-38.1518
G3 X339.6082 Y-26.4018 I-3.2437 J5.9765
G1 X312.168 Y-9.3269
G1 X341.7616
G3 X343.7973 Y-18.3573 I5.8775 J-3.4197
G1 X355.1963 Y-26.1625
G3 X362.6235 Y-26.3297 I3.8418 J5.6107
G1 X375.2016 Y-18.5245
G3 X377.4938 Y-9.3269 I-3.5854 J5.778
G1 X392.743
G1 X370.1158 Y-22.731
G3 X370.0728 Y-34.4064 I3.4658 J-5.8505
G1 X397.122 Y-50.7
G1 X371.1137
G3 X367.8132 Y-43.9418 I-6.7411 J0.8929
G1 X353.5505 Y-35.5751
G3 X346.8009 Y-35.4999 I-3.4407 J-5.8653
G1 X333.9981 Y-42.6312
G3 X330.8487 Y-50.7 I3.309 J-5.9406
G1 X316.1397
G1 X328.846 Y-43.8036
G1 F300.0 X328.0828 Y-42.3974
G1 F800.0 X338.4961 Y-36.7455
G3 X338.7629 Y-27.7603 I-2.4805 J4.5702
G1 X306.5683 Y-7.7269
G1 X345.4609
G1 X344.1868 Y-8.858
G3 X344.7013 Y-17.0371 I3.4523 J-3.8886
G1 X356.1002 Y-24.8423
G3 X361.7799 Y-24.9702 I2.9379 J4.2906
G1 X374.358 Y-17.165
G3 X375.078 Y-8.8664 I-2.7418 J4.4184
G1 X373.8007 Y-7.7269
G1 X398.5832
G1 X370.9312 Y-24.1076
G3 X370.8984 Y-33.0358 I2.6503 J-4.4739
G1 X402.8791 Y-52.3
G1 X368.9361
G3 X367.0037 Y-45.3219 I-4.5635 J2.4929
G1 X352.741 Y-36.9552
G3 X347.5794 Y-36.8976 I-2.6311 J-4.4852
G1 X334.7767 Y-44.029
G3 X333.6822 Y-52.3 I2.5304 J-4.5428
G1 X309.8376
G1 X328.0828 Y-42.3974
G1 F300.0 X327.3196 Y-40.9912
G1 F800.0 X337.7329 Y-35.3393
G3 X337.9176 Y-29.1187 I-1.7173 J3.164
G1 X304.6193 Y-8.3985
G3 X304.3232 Y-8.2331 I-1.902 J-3.0566
G1 X300.0974 Y-6.1269
G1 X349.673
G1 X345.2491 Y-10.0545
G3 X345.6052 Y-15.717 I2.3901 J-2.6921
G1 X357.0042 Y-23.5221
G3 X360.9363 Y-23.6107 I2.0339 J2.9704
G1 X373.5144 Y-15.8055
G3 X374.0128 Y-10.0603 I-1.8982 J3.0589
G1 X369.6039 Y-6.1269
G1 X404.6358
G1 X402.9095 Y-7.0295
G3 X402.7428 Y-7.1224 I1.6681 J-3.1902
G1 X371.7467 Y-25.4842
G3 X371.724 Y-31.6653 I1.8348 J-3.0973
G1 X404.91 Y-51.6555
G3 X405.2462 Y-51.8345 I1.8576 J3.0837
G1 X409.676 Y-53.9
G1 X364.5507
G1 X366.2267 Y-52.8929
G3 X366.1941 Y-46.702 I-1.8542 J3.0858
G1 X351.9314 Y-38.3353
G3 X348.358 Y-38.2954 I-1.8215 J-3.1052
G1 X335.5553 Y-45.4268
G3 X335.2479 Y-51.5247 I1.7518 J-3.145
G1 X338.654 Y-53.9
G1 X302.6012
G1 X307.2467 Y-51.8708
G3 X307.5229 Y-51.7358 I-1.441 J3.299
G1 X327.3196 Y-40.9912
G1 F300.0 X326.5563 Y-39.5849
G1 F800.0 X336.9697 Y-33.9331
G3 X337.0723 Y-30.4772 I-0.954 J1.7578
G1 X303.7739 Y-9.757
G3 X303.6095 Y-9.6651 I-1.0566 J-1.6981
G1 X293.3007 Y-4.5269
G1 X353.8852
G1 X346.3113 Y-11.251
G3 X346.5092 Y-14.3968 I1.3278 J-1.4956
G1 X357.9081 Y-22.202
G3 X360.0926 Y-22.2512 I1.13 J1.6502
G1 X372.6707 Y-14.446
G3 X372.9477 Y-11.2542 I-1.0545 J1.6994
G1 X365.4071 Y-4.5269
G1 X411.1486
G1 X403.6509 Y-8.4474
G3 X403.5583 Y-8.499 I0.9267 J-1.7723
G1 X372.5622 Y-26.8608
G3 X372.5496 Y-30.2947 I1.0193 J-1.7207
G1 X405.7356 Y-50.285
G3 X405.9224 Y-50.3844 I1.032 J1.7132
G1 X416.8935 Y-55.5
G1 X358.7814
G1 X365.4027 Y-51.5215
G3 X365.3845 Y-48.082 I-1.0301 J1.7143
G1 X351.1218 Y-39.7153
G3 X349.1366 Y-39.6932 I-1.012 J-1.7251
G1 X336.3339 Y-46.8245
G3 X336.1631 Y-50.2123 I0.9732 J-1.7472
G1 X343.7455 Y-55.5
G1 X294.9412
G1 X306.6062 Y-50.4046
G3 X306.7597 Y-50.3296 I-0.8006 J1.8328
G1 X326.5563 Y-39.5849
G0 Z3.0
G0 X109.3246 Y-45.6931
G0 Z-1.0
G1 F300.0 Z-4.0
G3 F800.0 X109.1157 Y-44.2845 I-5.99 J-0.1684
G2 X108.1454 Y-47.8741 I-13.6894 J1.7745
G2 X108.0963 Y-47.9853 I-3.3171 J1.3989
G2 X100.9544 Y-52.3418 I-6.8229 J3.1529
G2 X96.115 Y-50.461 I-0.0447 J7.0516
G2 X95.9945 Y-50.344 I2.4478 J2.6398
G2 X93.7821 Y-46.5374 I6.3484 J6.2359
G2 X93.7771 Y-46.5195 I3.4633 J0.9828
G2 X93.0382 Y-40.6118 I19.5905 J5.4503
G1 Y-19.8218
G2 X93.0395 Y-19.723 I3.6 J0.0
G3 X91.1286 Y-13.2047 I-11.0389 J0.303
G3 X85.4607 Y-8.896 I-10.7611 J-8.2734
G2 X85.4136 Y-8.8766 I1.3508 J3.337
G3 X78.283 Y-6.7091 I-13.9776 J-33.1704
G2 X78.2574 Y-6.704 I0.6848 J3.5343
G3 X70.5135 Y-5.547 I-15.3581 J-76.2961
G3 X54.544 Y-4.8353 I-15.0787 J-158.8269
G2 X54.5069 I-0.0201 J3.5999
G3 X37.3598 Y-5.7752 I-0.6829 J-144.4212
G2 X37.3403 Y-5.7774 I-0.4104 J3.5765
G3 X20.9311 Y-9.4144 I8.3667 J-76.5837
G3 X14.9743 Y-12.0927 I11.7751 J-34.1525
G2 X14.911 Y-12.1276 I-1.767 J3.1365
G3 X10.739 Y-15.7552 I5.922 J-11.0234
G3 X9.9452 Y-18.3679 I3.9293 J-2.6208
G2 X9.9414 Y-18.5273 I-3.6 J0.0061
G3 X10.982 Y-20.6524 I2.4593 J-0.1131
G3 X15.0161 Y-21.9636 I4.8804 J8.1539
G2 X15.1286 Y-21.9755 I-0.3206 J-3.5857
G3 X18.5674 Y-22.174 I3.2938 J27.174
G2 X18.5977 Y-22.1739 I0.0191 J-3.5999
G3 X27.8456 Y-21.7319 I0.2859 J90.9805
G2 X27.8532 Y-21.7312 I0.3546 J-3.5825
G3 X32.4036 Y-21.1075 I-5.5837 J57.6544
G2 X32.2828 Y-19.9225 I7.968 J1.4114
G2 X32.282 Y-19.89 I3.5986 J0.1007
G2 X35.9377 Y-12.5087 I8.9377 J0.1695
G2 X35.9748 Y-12.4819 I2.1272 J-2.9043
G2 X41.8016 Y-9.9056 I9.1672 J-12.8564
G2 X51.7963 Y-8.9218 I9.2239 J-42.4468
G2 X56.6466 Y-9.1915 I0.1815 J-40.4878
G2 X61.8837 Y-10.448 I-2.2625 J-20.9722
G2 X61.8881 Y-10.4497 I-1.2799 J-3.3648
G2 X65.6238 Y-12.7972 I-4.0364 J-10.5694
G2 X65.6839 Y-12.8553 I-2.473 J-2.6161
G2 X68.2875 Y-19.3075 I-6.187 J-6.248
G1 Y-23.6401
G2 X65.1842 Y-27.2057 I-3.6 J0.0
G1 X38.175 Y-30.9679
G1 X38.1749
G1 X38.1751
G1 X38.175
G1 X31.3245 Y-31.9225
G2 X31.3155 Y-31.9237 I-0.4968 J3.5656
G3 X22.2746 Y-33.757 I9.755 J-71.3174
G2 X22.2463 Y-33.7645 I-0.94 J3.4751
G3 X14.1309 Y-37.0501 I8.6455 J-33.0202
G3 X10.1291 Y-40.3759 I7.3623 J-12.9289
G3 X8.0356 Y-46.3837 I7.1724 J-5.868
G2 X8.035 Y-46.5238 I-3.5996 J-0.0543
G3 X9.6872 Y-50.9636 I6.3824 J-0.1522
G3 X14.5945 Y-54.0016 I8.9415 J8.9606
G2 X14.677 Y-54.0305 I-1.1473 J-3.4123
G3 X18.9323 Y-55.2294 I10.2107 J28.0906
G2 X18.9331 Y-55.2295 I-0.7173 J-3.5278
G3 X24.9204 Y-56.093 I10.4804 J51.4811
G2 X24.9217 Y-56.0931 I-0.3079 J-3.5868
G3 X33.0051 Y-56.4269 I7.7702 J90.136
G2 X33.0345 I0.0125 J-3.6
G3 X43.0149 Y-55.9676 I0.464 J98.5774
G2 X43.0479 Y-55.9645 I0.3475 J-3.5832
G3 X52.3601 Y-54.0892 I-3.7381 J42.6207
G3 X58.7182 Y-50.7783 I-8.7714 J24.6042
G3 X62.1582 Y-47.9672 I-19.6604 J27.569
G2 X61.3484 Y-48.4918 I-9.2731 J13.4252
G2 X53.948 Y-51.5245 I-12.644 J20.3085
G1 X53.9478
G1 X53.9481
G1 X53.948
G2 X46.4227 Y-52.3374 I-7.3296 J32.6143
G2 X39.1095 Y-51.2244 I-0.5802 J20.7711
G2 X33.07 Y-42.6987 I2.6766 J8.2981
G2 X34.9036 Y-37.074 I9.3142 J0.0748
G2 X34.9729 Y-36.9837 I2.8886 J-2.1431
G2 X39.1703 Y-33.6698 I9.0961 J-7.2059
G2 X39.2123 Y-33.6505 I1.5183 J-3.2606
G2 X47.112 Y-31.5199 I10.5712 J-23.484
G1 X50.9168 Y-31.0787
G1 X64.1767 Y-29.1765
G2 X68.2843 Y-32.7368 I0.5108 J-3.5603
G1 Y-37.1612
G2 X66.1359 Y-44.0618 I-11.9295 J-0.0707
G2 X66.1 Y-44.1123 I-2.949 J2.0592
G2 X65.445 Y-44.957 I-13.2149 J9.5703
G2 X70.4356 Y-47.4007 I1.4886 J-3.2778
G3 X73.2571 Y-52.1931 I9.2049 J2.1926
G3 X78.6601 Y-55.0818 I9.2446 J10.7939
G2 X78.716 Y-55.098 I-0.9731 J-3.466
G3 X83.1722 Y-56.0428 I8.0485 J26.9798
G3 X89.4327 Y-56.4269 I6.0245 J46.9775
G2 X89.4754 I0.0179 J-3.6
G3 X97.4109 Y-55.9055 I0.3766 J54.9077
G2 X97.4505 Y-55.9002 I0.4956 J-3.5657
G3 X104.5052 Y-53.8545 I-3.0094 J23.5655
G3 X107.7134 Y-51.3562 I-4.1162 J8.5949
G3 X109.3242 Y-46.2713 I-6.4174 J4.8304
G2 X109.3241 Y-46.0462 I3.5982 J0.1141
G3 X109.3246 Y-45.6931 I-5.9895 J0.1848
( atex_Profil2mm )
G0 Z3.0
( T2 : 2.0 )
T2 M6
M3 S1000
G0 X106.2893 Y-38.7522
G0 Z1.0
G1 F300.0 Z-2.0
G2 F800.0 X107.8215 Y-39.2449 I-2.7902 J-11.3051
G3 X107.8345 Y-39.25 I0.3712 J0.9286
G2 X110.9763 Y-41.9331 I-2.2169 J-5.777
G2 X111.9228 Y-46.1264 I-7.6418 J-3.9284
G3 X111.9229 Y-46.1889 I0.9995 J-0.0308
G2 X109.7519 Y-52.9711 I-10.6268 J-0.3369
G2 X105.6171 Y-56.2048 I-9.3629 J7.7115
G2 X97.7798 Y-58.4792 I-11.176 J23.8701
G3 X97.7688 Y-58.4807 I0.1267 J-0.9919
G2 X89.4575 Y-59.0269 I-7.9168 J56.9615
G3 X89.4457 I-0.0069 J-1.0
G2 X82.841 Y-58.6216 I-0.2489 J49.9617
G2 X77.9728 Y-57.5895 I3.9235 J30.5035
G3 X77.9572 Y-57.585 I-0.2859 J-0.9583
G2 X71.5347 Y-54.1411 I4.5445 J16.1857
G2 X67.9064 Y-48.0031 I8.1059 J8.933
G3 X66.1895 Y-47.5668 I-0.9728 J-0.2317
G2 X60.2259 Y-52.8964 I-27.1317 J24.3575
G2 X53.193 Y-56.5525 I-16.6372 J23.4114
G2 X43.2751 Y-58.5546 I-13.8832 J43.2087
G3 X43.2659 Y-58.5554 I0.0874 J-0.9962
G2 X33.0223 Y-59.0269 I-9.7674 J100.7059
G3 X33.0141 I-0.0047 J-1.0
G2 X24.6984 Y-58.6835 I-0.3223 J93.0698
G3 X24.698 I-0.0859 J-0.9963
G2 X18.4145 Y-57.7773 I4.7155 J54.935
G3 X18.4142 Y-57.7772 I-0.1995 J-0.9799
G2 X13.7888 Y-56.4741 I6.4734 J31.8373
G3 X13.7659 Y-56.4661 I-0.3416 J-0.9398
G2 X7.8065 Y-52.7597 I4.8629 J14.4631
G2 X5.4358 Y-46.4618 I6.6109 J6.0837
G3 X5.4359 Y-46.4229 I-0.9997 J0.0238
G2 X8.1302 Y-38.7132 I11.8657 J0.179
G2 X12.8493 Y-34.7879 I13.363 J-11.2657
G2 X21.5878 Y-31.2493 I18.0425 J-31.9969
G3 X21.5956 Y-31.2472 I-0.2533 J0.9674
G2 X30.9632 Y-29.3477 I19.4749 J-71.9939
G3 X30.9656 Y-29.3474 I-0.1355 J0.9908
G1 X37.8162 Y-28.3928
G1 X64.8255 Y-24.6306
G3 X65.6875 Y-23.6401 I-0.138 J0.9904
G1 Y-19.2747
G3 X63.8544 Y-14.7028 I-6.1907 J0.1713
G3 X63.8378 Y-14.6867 I-0.7036 J-0.7106
G3 X60.9605 Y-12.8786 I-5.9861 J-6.3325
G3 X60.9593 Y-12.8781 I-0.3568 J-0.9342
G3 X56.3574 Y-11.7754 I-6.5752 J-17.2856
G3 X51.7791 Y-11.5219 I-4.3797 J-37.6342
G3 X42.3526 Y-12.4466 I-0.7535 J-40.8305
G3 X37.4842 Y-14.5988 I2.7894 J-12.8917
G3 X37.4739 Y-14.6063 I0.5806 J-0.8142
G3 X34.8815 Y-19.8407 I3.7457 J-5.1143
G3 X34.8817 Y-19.8497 I0.9998 J0.019
G3 X35.5736 Y-22.3685 I5.4899 J0.1536
G3 X35.9659 Y-23.0308 I9.1674 J4.9829
G2 X28.1038 Y-24.3191 I-13.6964 J58.954
G3 X28.1017 Y-24.3193 I0.0964 J-0.9953
G2 X18.5896 Y-24.7739 I-9.218 J93.1259
G3 X18.5811 I-0.0031 J-1.0
G2 X14.8158 Y-24.5566 I-0.1587 J29.9725
G3 X14.7845 Y-24.5533 I-0.1203 J-0.9927
G2 X9.5734 Y-22.8391 I1.0779 J12.0548
G2 X7.3442 Y-18.4078 I2.8273 J4.1987
G3 X7.3452 Y-18.3635 I-0.9989 J0.046
G2 X8.61 Y-14.262 I7.3231 J-0.0124
G2 X13.6805 Y-9.8372 I12.223 J-8.889
G3 X13.6981 Y-9.8275 I-0.4733 J0.8809
G2 X20.0894 Y-6.9545 I19.0081 J-33.7395
G2 X37.058 Y-3.1928 I25.6177 J-75.4067
G3 X37.0634 Y-3.1922 I-0.1086 J0.9941
G2 X54.5192 Y-2.2353 I16.7607 J-146.0643
G3 X54.5295 I0.0047 J1.0
G2 X70.7635 Y-2.959 I0.9053 J-162.1385
G2 X78.7705 Y-4.1551 I-7.8642 J-80.0411
G3 X78.7776 Y-4.1566 I0.1973 J0.9803
G2 X86.4232 Y-6.4806 I-7.3416 J-37.8904
G3 X86.4363 Y-6.486 I0.3883 J0.9215
G2 X93.2349 Y-11.679 I-6.0688 J-14.9922
G2 X95.6386 Y-19.7943 I-11.2343 J-7.741
G3 X95.6382 Y-19.8218 I0.9996 J-0.0274
G1 Y-40.6421
G3 X96.2819 Y-45.8226 I17.7294 J-0.4271
G3 X96.2833 Y-45.8276 I0.9634 J0.268
G3 X97.8493 Y-48.522 I6.0596 J1.7195
G3 X97.8828 Y-48.5545 I0.7134 J0.7008
G3 X101.0008 Y-49.741 I3.0269 J3.2643
G3 X105.7361 Y-46.8947 I0.2726 J4.9086
G3 X105.7497 Y-46.8638 I-0.9078 J0.4195
G3 X106.6218 Y-42.0755 I-10.3234 J4.3538
G3 X106.6213 Y-42.0634 I-0.9992 J-0.0388
G3 X106.2893 Y-38.7522 I-33.88 J-1.7243
G1 F300.0 Z-4.0
G2 F800.0 X107.8215 Y-39.2449 I-2.7902 J-11.3051
G3 X107.8345 Y-39.25 I0.3712 J0.9286
G2 X110.9763 Y-41.9331 I-2.2169 J-5.777
G2 X111.9228 Y-46.1264 I-7.6418 J-3.9284
G3 X111.9229 Y-46.1889 I0.9995 J-0.0308
G2 X109.7519 Y-52.9711 I-10.6268 J-0.3369
G2 X105.6171 Y-56.2048 I-9.3629 J7.7115
G2 X97.7798 Y-58.4792 I-11.176 J23.8701
G3 X97.7688 Y-58.4807 I0.1267 J-0.9919
G2 X89.4575 Y-59.0269 I-7.9168 J56.9615
G3 X89.4457 I-0.0069 J-1.0
G2 X82.841 Y-58.6216 I-0.2489 J49.9617
G2 X77.9728 Y-57.5895 I3.9235 J30.5035
G3 X77.9572 Y-57.585 I-0.2859 J-0.9583
G2 X71.5347 Y-54.1411 I4.5445 J16.1857
G2 X67.9064 Y-48.0031 I8.1059 J8.933
G3 X66.1895 Y-47.5668 I-0.9728 J-0.2317
G2 X60.2259 Y-52.8964 I-27.1317 J24.3575
G2 X53.193 Y-56.5525 I-16.6372 J23.4114
G2 X43.2751 Y-58.5546 I-13.8832 J43.2087
G3 X43.2659 Y-58.5554 I0.0874 J-0.9962
G2 X33.0223 Y-59.0269 I-9.7674 J100.7059
G3 X33.0141 I-0.0047 J-1.0
G2 X24.6984 Y-58.6835 I-0.3223 J93.0698
G3 X24.698 I-0.0859 J-0.9963
G2 X18.4145 Y-57.7773 I4.7155 J54.935
G3 X18.4142 Y-57.7772 I-0.1995 J-0.9799
G2 X13.7888 Y-56.4741 I6.4734 J31.8373
G3 X13.7659 Y-56.4661 I-0.3416 J-0.9398
G2 X7.8065 Y-52.7597 I4.8629 J14.4631
G2 X5.4358 Y-46.4618 I6.6109 J6.0837
G3 X5.4359 Y-46.4229 I-0.9997 J0.0238
G2 X8.1302 Y-38.7132 I11.8657 J0.179
G2 X12.8493 Y-34.7879 I13.363 J-11.2657
G2 X21.5878 Y-31.2493 I18.0425 J-31.9969
G3 X21.5956 Y-31.2472 I-0.2533 J0.9674
G2 X30.9632 Y-29.3477 I19.4749 J-71.9939
G3 X30.9656 Y-29.3474 I-0.1355 J0.9908
G1 X37.8162 Y-28.3928
G1 X64.8255 Y-24.6306
G3 X65.6875 Y-23.6401 I-0.138 J0.9904
G1 Y-19.2747
G3 X63.8544 Y-14.7028 I-6.1907 J0.1713
G3 X63.8378 Y-14.6867 I-0.7036 J-0.7106
G3 X60.9605 Y-12.8786 I-5.9861 J-6.3325
G3 X60.9593 Y-12.8781 I-0.3568 J-0.9342
G3 X56.3574 Y-11.7754 I-6.5752 J-17.2856
G3 X51.7791 Y-11.5219 I-4.3797 J-37.6342
G3 X42.3526 Y-12.4466 I-0.7535 J-40.8305
G3 X37.4842 Y-14.5988 I2.7894 J-12.8917
G3 X37.4739 Y-14.6063 I0.5806 J-0.8142
G3 X34.8815 Y-19.8407 I3.7457 J-5.1143
G3 X34.8817 Y-19.8497 I0.9998 J0.019
G3 X35.5736 Y-22.3685 I5.4899 J0.1536
G3 X35.9659 Y-23.0308 I9.1674 J4.9829
G2 X28.1038 Y-24.3191 I-13.6964 J58.954
G3 X28.1017 Y-24.3193 I0.0964 J-0.9953
G2 X18.5896 Y-24.7739 I-9.218 J93.1259
G3 X18.5811 I-0.0031 J-1.0
G2 X14.8158 Y-24.5566 I-0.1587 J29.9725
G3 X14.7845 Y-24.5533 I-0.1203 J-0.9927
G2 X9.5734 Y-22.8391 I1.0779 J12.0548
G2 X7.3442 Y-18.4078 I2.8273 J4.1987
G3 X7.3452 Y-18.3635 I-0.9989 J0.046
G2 X8.61 Y-14.262 I7.3231 J-0.0124
G2 X13.6805 Y-9.8372 I12.223 J-8.889
G3 X13.6981 Y-9.8275 I-0.4733 J0.8809
G2 X20.0894 Y-6.9545 I19.0081 J-33.7395
G2 X37.058 Y-3.1928 I25.6177 J-75.4067
G3 X37.0634 Y-3.1922 I-0.1086 J0.9941
G2 X54.5192 Y-2.2353 I16.7607 J-146.0643
G3 X54.5295 I0.0047 J1.0
G2 X70.7635 Y-2.959 I0.9053 J-162.1385
G2 X78.7705 Y-4.1551 I-7.8642 J-80.0411
G3 X78.7776 Y-4.1566 I0.1973 J0.9803
G2 X86.4232 Y-6.4806 I-7.3416 J-37.8904
G3 X86.4363 Y-6.486 I0.3883 J0.9215
G2 X93.2349 Y-11.679 I-6.0688 J-14.9922
G2 X95.6386 Y-19.7943 I-11.2343 J-7.741
G3 X95.6382 Y-19.8218 I0.9996 J-0.0274
G1 Y-40.6421
G3 X96.2819 Y-45.8226 I17.7294 J-0.4271
G3 X96.2833 Y-45.8276 I0.9634 J0.268
G3 X97.8493 Y-48.522 I6.0596 J1.7195
G3 X97.8828 Y-48.5545 I0.7134 J0.7008
G3 X101.0008 Y-49.741 I3.0269 J3.2643
G3 X105.7361 Y-46.8947 I0.2726 J4.9086
G3 X105.7497 Y-46.8638 I-0.9078 J0.4195
G3 X106.6218 Y-42.0755 I-10.3234 J4.3538
G3 X106.6213 Y-42.0634 I-0.9992 J-0.0388
G3 X106.2893 Y-38.7522 I-33.88 J-1.7243
G0 Z3.0
G0 X127.0059
G0 Z1.0
