( Made using CamBam - http://www.cambam.co.uk )
( Beratex 4/21/2024 9:45:06 AM )
( Post processor: Default )
( T2 : 2.0 )
( T4 : 4.0 )
G21 G90 G64 G40
G0 Z3.0
( T4 : 4.0 )
T4 M6
( Ber_Tasche4mm )
G17
M3 S1000
G0 X-352.2719 Y-115.6078
G0 Z1.0
G1 F300.0 Z-2.0
G1 F800.0 X-351.9977 Y-119.5418
G1 X-356.9199 Y-115.6078
G1 X-352.2719
G0 Z3.0
G0 X-375.1703 Y-119.6078
G0 Z1.0
G1 F300.0 Z-2.0
G1 F800.0 Y-136.4
G1 X-376.4938
G1 Y-119.6078
G1 X-375.1703
G1 F300.0 Y-118.8078
G1 F800.0 X-374.3703
G1 Y-136.5234
G3 X-374.3366 Y-137.2 I6.8 J0.0
G1 X-377.3275
G3 X-377.2938 Y-136.5234 I-6.7663 J0.6766
G1 Y-118.8078
G1 X-375.1703
G1 F300.0 Y-117.2078
G1 F800.0 X-372.7489
G3 X-372.7703 Y-117.6797 I5.1785 J-0.4719
G1 Y-136.5234
G3 X-372.2455 Y-138.8 I5.2 J0.0
G1 X-379.4186
G3 X-378.8938 Y-136.5234 I-4.6752 J2.2766
G1 Y-117.6797
G3 X-378.9152 Y-117.2078 I-5.2 J0.0
G1 X-375.1703
G1 F300.0 Y-115.6078
G1 F800.0 X-370.5143
G3 X-371.1703 Y-117.6797 I2.944 J-2.0719
G1 Y-136.5234
G3 X-369.5038 Y-139.5601 I3.6 J0.0
G1 X-368.1848 Y-140.4
G1 X-383.4793
G1 X-382.1602 Y-139.5601
G3 X-380.4938 Y-136.5234 I-1.9335 J3.0367
G1 Y-117.6797
G3 X-381.1497 Y-115.6078 I-3.6 J0.0
G1 X-375.1703
G0 Z3.0
G0 X-394.7442
G0 Z1.0
G1 F300.0 Z-2.0
G1 F800.0 X-399.6664 Y-119.5418
G1 X-399.3922 Y-115.6078
G1 X-394.7442
G1 F300.0 Y-114.0078
G1 F800.0 X-350.7795
G1 X-350.148 Y-123.0684
G1 X-358.8451 Y-116.1174
G3 X-360.0938 Y-115.6797 I-1.2487 J-1.5623
G1 X-367.5703
G3 X-369.5703 Y-117.6797 I0.0 J-2.0
G1 Y-136.5234
G3 X-368.6445 Y-138.2105 I2.0 J0.0
G1 X-362.6929 Y-142.0
G1 X-388.9711
G1 X-383.0196 Y-138.2105
G3 X-382.0938 Y-136.5234 I-1.0742 J1.687
G1 Y-117.6797
G3 X-384.0938 Y-115.6797 I-2.0 J0.0
G1 X-391.5703
G3 X-392.819 Y-116.1174 I0.0 J-2.0
G1 X-401.516 Y-123.0684
G1 X-400.8845 Y-114.0078
G1 X-394.7442
G1 F300.0 Y-115.6078
G1 Z-4.0
G1 F800.0 X-399.6664 Y-119.5418
G1 X-399.3922 Y-115.6078
G1 X-394.7442
G0 Z3.0
G0 X-376.4938 Y-119.6078
G0 Z-1.0
G1 F300.0 Z-4.0
G1 F800.0 X-375.1703
G1 Y-136.4
G1 X-376.4938
G1 Y-119.6078
G1 F300.0 Y-118.8078
G1 F800.0 X-374.3703
G1 Y-136.5234
G3 X-374.3366 Y-137.2 I6.8 J0.0
G1 X-377.3275
G3 X-377.2938 Y-136.5234 I-6.7663 J0.6766
G1 Y-118.8078
G1 X-376.4938
G1 F300.0 Y-117.2078
G1 F800.0 X-372.7489
G3 X-372.7703 Y-117.6797 I5.1785 J-0.4719
G1 Y-136.5234
G3 X-372.2455 Y-138.8 I5.2 J0.0
G1 X-379.4186
G3 X-378.8938 Y-136.5234 I-4.6752 J2.2766
G1 Y-117.6797
G3 X-378.9152 Y-117.2078 I-5.2 J0.0
G1 X-376.4938
G1 F300.0 Y-115.6078
G1 F800.0 X-370.5143
G3 X-371.1703 Y-117.6797 I2.944 J-2.0719
G1 Y-136.5234
G3 X-369.5038 Y-139.5601 I3.6 J0.0
G1 X-368.1848 Y-140.4
G1 X-383.4793
G1 X-382.1602 Y-139.5601
G3 X-380.4938 Y-136.5234 I-1.9335 J3.0367
G1 Y-117.6797
G3 X-381.1497 Y-115.6078 I-3.6 J0.0
G1 X-376.4938
G0 Z3.0
G0 X-356.9199
G0 Z-1.0
G1 F300.0 Z-4.0
G1 F800.0 X-352.2719
G1 X-351.9977 Y-119.5418
G1 X-356.9199 Y-115.6078
G1 F300.0 X-357.9188 Y-116.8577
G1 F800.0 X-358.8451 Y-116.1174
G3 X-360.0938 Y-115.6797 I-1.2487 J-1.5623
G1 X-367.5703
G3 X-369.5703 Y-117.6797 I0.0 J-2.0
G1 Y-136.5234
G3 X-368.6445 Y-138.2105 I2.0 J0.0
G1 X-362.6929 Y-142.0
G1 X-388.9711
G1 X-383.0196 Y-138.2105
G3 X-382.0938 Y-136.5234 I-1.0742 J1.687
G1 Y-117.6797
G3 X-384.0938 Y-115.6797 I-2.0 J0.0
G1 X-391.5703
G3 X-392.819 Y-116.1174 I0.0 J-2.0
G1 X-401.516 Y-123.0684
G1 X-400.8845 Y-114.0078
G1 X-350.7795
G1 X-350.148 Y-123.0684
G1 X-357.9188 Y-116.8577
G0 Z3.0
G0 X-338.5504 Y-131.7058
G0 Z1.0
G1 F300.0 Z-2.0
G2 F800.0 X-338.04 Y-131.1266 I4.4896 J-3.4418
G3 X-337.9081 Y-131.7406 I6.7041 J1.1188
G3 X-338.2966 Y-133.8 I6.4081 J-2.275
G3 X-338.2958 Y-134.5687 I11.7257 J-0.372
G2 X-338.8391 Y-133.8541 I2.6542 J2.5819
G2 X-339.0206 Y-133.0692 I1.5393 J0.7693
G3 X-339.0203 Y-132.9929 I-6.7997 J0.0614
G2 X-338.6196 Y-131.7974 I1.9706 J0.0043
G3 X-338.5911 Y-131.7596 I-5.4172 J4.1102
G2 X-338.5504 Y-131.7058 I4.5303 J-3.3879
G1 F300.0 X-339.8202 Y-130.7323
G2 F800.0 X-338.7467 Y-129.6062 I5.7594 J-4.4152
G3 X-338.7404 Y-129.6008 I-3.3577 J3.9706
G2 X-337.111 Y-128.4228 I8.3935 J-9.8937
G2 X-336.3246 Y-127.9691 I9.6805 J-15.8709
G3 X-336.5324 Y-130.0643 I9.4028 J-1.9907
G3 X-336.2097 Y-131.8114 I5.1965 J0.0565
G3 X-336.6974 Y-133.8507 I4.7097 J-2.2042
G3 X-336.0 Y-137.8788 I10.1265 J-0.3213
G2 X-337.2232 Y-137.2839 I8.6591 J19.3565
G2 X-338.8253 Y-136.2283 I5.5555 J10.1752
G3 X-338.87 Y-136.1936 I-3.2105 J-4.0906
G2 X-340.2449 Y-134.6192 I3.2284 J4.2068
G2 X-340.6205 Y-133.0548 I2.9451 J1.5345
G3 X-340.6203 Y-132.9964 I-5.1998 J0.0469
G2 X-339.8942 Y-130.8303 I3.5706 J0.0079
G3 X-339.8725 Y-130.8014 I-4.1426 J3.1431
G2 X-339.8202 Y-130.7323 I5.8117 J-4.3461
G1 F300.0 X-341.09 Y-129.7589
G2 F800.0 X-339.7799 Y-128.3844 I7.0292 J-5.3887
G3 X-339.7755 Y-128.3807 I-2.3246 J2.7489
G2 X-337.9446 Y-127.0571 I9.4286 J-11.1138
G2 X-333.1545 Y-124.9318 I10.5142 J-17.2366
G3 X-333.9392 Y-126.0959 I6.9467 J-5.5291
G3 X-333.9728 Y-126.1568 I3.1321 J-1.7683
G3 X-334.9325 Y-130.0469 I7.051 J-3.803
G3 X-334.403 Y-131.8867 I3.5966 J0.0391
G3 X-335.0982 Y-133.9015 I2.903 J-2.129
G3 X-332.9382 Y-139.8505 I8.5273 J-0.2705
G3 X-332.8646 Y-139.9306 I2.6868 J2.3961
G3 X-331.8281 Y-140.8816 I7.3116 J6.9284
G2 X-337.9793 Y-138.694 I4.4872 J22.3593
G2 X-339.8131 Y-137.4869 I6.3116 J11.5853
G3 X-339.8441 Y-137.4629 I-2.2226 J-2.8319
G2 X-341.6488 Y-135.3871 I4.2024 J5.4762
G2 X-342.2205 Y-133.0403 I4.349 J2.3024
G3 X-342.2203 Y-132.9999 I-3.5999 J0.0325
G2 X-341.1689 Y-129.8632 I5.1706 J0.0114
G3 X-341.1538 Y-129.8432 I-2.8679 J2.176
G2 X-341.09 Y-129.7589 I7.093 J-5.3043
G0 Z3.0
G0 X-314.5172 Y-126.7986
G0 Z1.0
G1 F300.0 Z-2.0
G2 F800.0 X-314.4187 Y-126.8683 I-8.4899 J-12.1096
G3 X-314.3997 Y-126.8818 I2.0906 J2.9308
G2 X-311.2515 Y-130.2173 I-6.6051 J-9.3876
G2 X-311.1349 Y-130.4156 I-10.9348 J-6.5579
G1 X-314.028
G3 X-314.0056 Y-130.0869 I-3.5736 J0.4078
G3 X-314.5172 Y-126.7986 I-9.483 J0.2085
G1 F300.0 X-313.5987 Y-125.4885
G2 F800.0 X-313.4896 Y-125.5657 I-9.4084 J-13.4197
G3 X-313.479 Y-125.5732 I1.1614 J1.6282
G2 X-309.8855 Y-129.384 I-7.5258 J-10.6962
G2 X-308.648 Y-132.0156 I-12.3008 J-7.3912
G1 X-331.5
G3 X-333.499 Y-133.9522 I0.0 J-2.0
G3 X-331.7441 Y-138.7855 I6.9281 J-0.2198
G3 X-331.7032 Y-138.83 I1.4927 J1.3312
G3 X-328.8368 Y-140.8128 I6.1502 J5.8279
G3 X-328.8303 Y-140.8155 I0.7751 J1.8437
G3 X-324.4678 Y-141.953 I6.2356 J14.9803
G3 X-320.2803 Y-142.2032 I4.0111 J31.9689
G3 X-312.5084 Y-141.5135 I0.4814 J38.7102
G3 X-312.494 Y-141.5107 I-0.3766 J1.9642
G3 X-310.9786 Y-141.142 I-3.6382 J18.2522
G2 X-311.449 Y-141.3443 I-3.8213 J8.2372
G3 X-311.4571 Y-141.3475 I0.738 J-1.8588
G2 X-317.2705 Y-142.8508 I-8.6883 J21.6072
G3 X-317.2839 Y-142.8525 I0.2469 J-1.9847
G2 X-323.5199 Y-143.2422 I-5.9744 J45.5113
G3 X-323.5459 I-0.0114 J-2.0
G2 X-331.4643 Y-142.5766 I-0.3192 J43.6312
G3 X-331.4739 Y-142.5749 I-0.3483 J-1.9694
G2 X-338.7352 Y-140.1042 I4.133 J24.0526
G2 X-340.8009 Y-138.7456 I7.0674 J12.9956
G3 X-340.8181 Y-138.7322 I-1.2348 J-1.5733
G2 X-343.0521 Y-136.156 I5.1765 J6.7455
G2 X-343.8204 Y-133.0259 I5.7523 J3.0713
G3 X-343.8203 Y-133.0034 I-1.9999 J0.0181
G2 X-342.4435 Y-128.8961 I6.7706 J0.0149
G3 X-342.4352 Y-128.885 I-1.5933 J1.2089
G2 X-340.813 Y-127.1627 I8.3743 J-6.2626
G3 X-340.8106 Y-127.1607 I-1.2914 J1.5272
G2 X-338.7783 Y-125.6915 I10.4637 J-12.3339
G2 X-332.3192 Y-123.0589 I11.3478 J-18.6022
G2 X-325.2099 Y-122.2812 I6.8852 J-30.0562
G3 X-325.177 I0.0145 J1.9999
G2 X-318.9631 Y-123.0257 I0.2235 J-24.4364
G2 X-313.5987 Y-125.4885 I-4.044 J-15.8824
G0 Z3.0
G0 X-316.2554 Y-126.7331
G0 Z1.0
G1 F300.0 Z-2.0
G3 F800.0 X-316.2558 Y-126.7323 I-1.8111 J-0.8485
G3 X-320.1756 Y-123.3047 I-5.8631 J-2.75
G3 X-324.3659 Y-122.6873 I-3.9274 J-12.1271
G3 X-327.5117 Y-123.1082 I-0.0702 J-11.4433
G3 X-327.5198 Y-123.1105 I0.5375 J-1.9264
G3 X-330.5391 Y-124.6074 I2.5128 J-8.8615
G3 X-332.5487 Y-126.881 I4.3313 J-5.8534
G3 X-332.5674 Y-126.9148 I1.7416 J-0.9833
G3 X-333.3358 Y-130.0296 I5.6456 J-3.045
G3 X-331.3359 Y-132.0078 I1.9999 J0.0217
G1 X-317.6016
G3 X-315.602 Y-130.0518 I0.0 J2.0
G3 X-316.225 Y-126.8014 I-7.8865 J0.1734
G3 X-316.2554 Y-126.7331 I-1.8416 J-0.7801
G1 F300.0 Z-4.0
G3 F800.0 X-316.2558 Y-126.7323 I-1.8111 J-0.8485
G3 X-320.1756 Y-123.3047 I-5.8631 J-2.75
G3 X-324.3659 Y-122.6873 I-3.9274 J-12.1271
G3 X-327.5117 Y-123.1082 I-0.0702 J-11.4433
G3 X-327.5198 Y-123.1105 I0.5375 J-1.9264
G3 X-330.5391 Y-124.6074 I2.5128 J-8.8615
G3 X-332.5487 Y-126.881 I4.3313 J-5.8534
G3 X-332.5674 Y-126.9148 I1.7416 J-0.9833
G3 X-333.3358 Y-130.0296 I5.6456 J-3.045
G3 X-331.3359 Y-132.0078 I1.9999 J0.0217
G1 X-317.6016
G3 X-315.602 Y-130.0518 I0.0 J2.0
G3 X-316.225 Y-126.8014 I-7.8865 J0.1734
G3 X-316.2554 Y-126.7331 I-1.8416 J-0.7801
G1 F300.0 X-314.5172 Y-126.7986
G2 F800.0 X-314.4187 Y-126.8683 I-8.4899 J-12.1096
G3 X-314.3997 Y-126.8818 I2.0906 J2.9308
G2 X-311.2515 Y-130.2173 I-6.6051 J-9.3876
G2 X-311.1349 Y-130.4156 I-10.9348 J-6.5579
G1 X-314.028
G3 X-314.0056 Y-130.0869 I-3.5736 J0.4078
G3 X-314.5172 Y-126.7986 I-9.483 J0.2085
G0 Z3.0
G0 X-337.9081 Y-131.7406
G0 Z-1.0
G1 F300.0 Z-4.0
G3 F800.0 X-338.2966 Y-133.8 I6.4081 J-2.275
G3 X-338.2958 Y-134.5687 I11.7257 J-0.372
G2 X-338.8391 Y-133.8541 I2.6542 J2.5819
G2 X-339.0206 Y-133.0692 I1.5393 J0.7693
G3 X-339.0203 Y-132.9929 I-6.7997 J0.0614
G2 X-338.6196 Y-131.7974 I1.9706 J0.0043
G3 X-338.5911 Y-131.7596 I-5.4172 J4.1102
G2 X-338.04 Y-131.1266 I4.5303 J-3.3879
G3 X-337.9081 Y-131.7406 I6.7041 J1.1188
G1 F300.0 X-336.4003 Y-132.2759
G3 F800.0 X-336.6974 Y-133.8507 I4.9003 J-1.7397
G3 X-336.0 Y-137.8788 I10.1265 J-0.3213
G2 X-337.2232 Y-137.2839 I8.6591 J19.3565
G2 X-338.8253 Y-136.2283 I5.5555 J10.1752
G3 X-338.87 Y-136.1936 I-3.2105 J-4.0906
G2 X-340.2449 Y-134.6192 I3.2284 J4.2068
G2 X-340.6205 Y-133.0548 I2.9451 J1.5345
G3 X-340.6203 Y-132.9964 I-5.1998 J0.0469
G2 X-339.8942 Y-130.8303 I3.5706 J0.0079
G3 X-339.8725 Y-130.8014 I-4.1426 J3.1431
G2 X-338.7467 Y-129.6062 I5.8117 J-4.3461
G3 X-338.7404 Y-129.6008 I-3.3577 J3.9706
G2 X-337.111 Y-128.4228 I8.3935 J-9.8937
G2 X-336.3246 Y-127.9691 I9.6805 J-15.8709
G3 X-336.5324 Y-130.0643 I9.4028 J-1.9907
G3 X-336.2097 Y-131.8114 I5.1965 J0.0565
G3 X-336.4003 Y-132.2759 I4.7097 J-2.2042
G1 F300.0 X-334.8925 Y-132.8112
G3 F800.0 X-335.0982 Y-133.9015 I3.3925 J-1.2044
G3 X-332.9382 Y-139.8505 I8.5273 J-0.2705
G3 X-332.8646 Y-139.9306 I2.6868 J2.3961
G3 X-331.8281 Y-140.8816 I7.3116 J6.9284
G2 X-337.9793 Y-138.694 I4.4872 J22.3593
G2 X-339.8131 Y-137.4869 I6.3116 J11.5853
G3 X-339.8441 Y-137.4629 I-2.2226 J-2.8319
G2 X-341.6488 Y-135.3871 I4.2024 J5.4762
G2 X-342.2205 Y-133.0403 I4.349 J2.3024
G3 X-342.2203 Y-132.9999 I-3.5999 J0.0325
G2 X-341.1689 Y-129.8632 I5.1706 J0.0114
G3 X-341.1538 Y-129.8432 I-2.8679 J2.176
G2 X-339.7799 Y-128.3844 I7.093 J-5.3043
G3 X-339.7755 Y-128.3807 I-2.3246 J2.7489
G2 X-337.9446 Y-127.0571 I9.4286 J-11.1138
G2 X-333.1545 Y-124.9318 I10.5142 J-17.2366
G3 X-333.9392 Y-126.0959 I6.9467 J-5.5291
G3 X-333.9728 Y-126.1568 I3.1321 J-1.7683
G3 X-334.9325 Y-130.0469 I7.051 J-3.803
G3 X-334.403 Y-131.8867 I3.5966 J0.0391
G3 X-334.8925 Y-132.8112 I2.903 J-2.129
G1 F300.0 X-333.3847 Y-133.3465
G3 F800.0 X-333.499 Y-133.9522 I1.8847 J-0.6691
G3 X-331.7441 Y-138.7855 I6.9281 J-0.2198
G3 X-331.7032 Y-138.83 I1.4927 J1.3312
G3 X-328.8368 Y-140.8128 I6.1502 J5.8279
G3 X-328.8303 Y-140.8155 I0.7751 J1.8437
G3 X-324.4678 Y-141.953 I6.2356 J14.9803
G3 X-320.2803 Y-142.2032 I4.0111 J31.9689
G3 X-312.5084 Y-141.5135 I0.4814 J38.7102
G3 X-312.494 Y-141.5107 I-0.3766 J1.9642
G3 X-310.9786 Y-141.142 I-3.6382 J18.2522
G2 X-311.449 Y-141.3443 I-3.8213 J8.2372
G3 X-311.4571 Y-141.3475 I0.738 J-1.8588
G2 X-317.2705 Y-142.8508 I-8.6883 J21.6072
G3 X-317.2839 Y-142.8525 I0.2469 J-1.9847
G2 X-323.5199 Y-143.2422 I-5.9744 J45.5113
G3 X-323.5459 I-0.0114 J-2.0
G2 X-331.4643 Y-142.5766 I-0.3192 J43.6312
G3 X-331.4739 Y-142.5749 I-0.3483 J-1.9694
G2 X-338.7352 Y-140.1042 I4.133 J24.0526
G2 X-340.8009 Y-138.7456 I7.0674 J12.9956
G3 X-340.8181 Y-138.7322 I-1.2348 J-1.5733
G2 X-343.0521 Y-136.156 I5.1765 J6.7455
G2 X-343.8204 Y-133.0259 I5.7523 J3.0713
G3 X-343.8203 Y-133.0034 I-1.9999 J0.0181
G2 X-342.4435 Y-128.8961 I6.7706 J0.0149
G3 X-342.4352 Y-128.885 I-1.5933 J1.2089
G2 X-340.813 Y-127.1627 I8.3743 J-6.2626
G3 X-340.8106 Y-127.1607 I-1.2914 J1.5272
G2 X-338.7783 Y-125.6915 I10.4637 J-12.3339
G2 X-332.3192 Y-123.0589 I11.3478 J-18.6022
G2 X-325.2099 Y-122.2812 I6.8852 J-30.0562
G3 X-325.177 I0.0145 J1.9999
G2 X-318.9631 Y-123.0257 I0.2235 J-24.4364
G2 X-313.4896 Y-125.5657 I-4.044 J-15.8824
G3 X-313.479 Y-125.5732 I1.1614 J1.6282
G2 X-309.8855 Y-129.384 I-7.5258 J-10.6962
G2 X-308.648 Y-132.0156 I-12.3008 J-7.3912
G1 X-331.5
G3 X-333.3847 Y-133.3465 I0.0 J-2.0
G0 Z3.0
G0 X-289.616 Y-140.4
G0 Z1.0
G1 F300.0 Z-2.0
G1 F800.0 X-287.1762 Y-139.0758
G3 X-287.379 Y-140.4 I3.3949 J-1.1977
G1 X-289.616
G0 Z3.0
G0 X-279.2764 Y-132.165
G0 Z1.0
G1 F300.0 Z-2.0
G3 F800.0 X-279.4362 Y-131.6448 I-5.0439 J-1.2647
G1 X-278.7613 Y-132.107
G3 X-279.2764 Y-132.165 I0.3238 J-5.1899
G0 Z3.0
G0 X-274.2015 Y-133.7531
G0 Z1.0
G1 F300.0 Z-2.0
G3 F800.0 X-273.549 Y-133.6466 I-0.5095 J5.175
G3 X-273.2689 Y-134.3002 I4.9084 J1.717
G1 X-274.2015 Y-133.7531
G0 Z3.0
G0 X-267.8171 Y-138.4963
G0 Z1.0
G1 F300.0 Z-2.0
G1 F800.0 X-267.3129 Y-138.8
G1 X-267.6798
G3 X-267.8171 Y-138.4963 I-4.8045 J-1.9891
G0 Z3.0
G0 X-265.9596 Y-126.1572
G0 Z1.0
G1 F300.0 Z-2.0
G3 F800.0 X-265.923 Y-124.6547 I-3.5014 J0.8369
G1 X-263.4232
G1 X-265.9596 Y-126.1572
G0 Z3.0
G0 X-284.2591 Y-127.3432
G0 Z1.0
G1 F300.0 Z-2.0
G1 F800.0 X-286.0084 Y-126.2547
G1 X-284.5841
G3 X-284.2591 Y-127.3432 I5.1154 J0.9344
G1 F300.0 X-285.1045 Y-128.7017
G1 F800.0 X-291.6082 Y-124.6547
G1 X-283.0067
G3 X-281.5027 Y-128.2907 I3.5379 J-0.6656
G1 X-276.7448 Y-131.5485
G3 X-272.8128 Y-131.637 I2.0339 J2.9704
G1 X-272.1741 Y-131.2407
G3 X-270.4982 Y-135.0134 I3.5335 J-0.689
G1 X-261.5559 Y-140.4
G1 X-268.9055
G3 X-270.6628 Y-137.6839 I-3.5789 J-0.3891
G1 X-276.616 Y-134.1917
G3 X-280.1893 Y-134.1519 I-1.8215 J-3.1052
G1 X-280.898 Y-134.5466
G3 X-282.4183 Y-130.3731 I-3.4224 J1.1169
G1 X-285.1045 Y-128.7017
G1 F300.0 X-285.9498 Y-130.0601
G1 F800.0 X-297.1621 Y-123.0832
G3 X-297.2093 Y-123.0547 I-1.0566 J-1.6981
G1 X-279.9293
G1 X-280.7966 Y-123.8247
G3 X-280.5987 Y-126.9705 I1.3278 J-1.4956
G1 X-275.8409 Y-130.2283
G3 X-273.6564 Y-130.2775 I1.13 J1.6502
G1 X-268.4064 Y-127.0197
G3 X-268.1295 Y-123.8279 I-1.0545 J1.6994
G1 X-268.9962 Y-123.0547
G1 X-257.583
G1 X-269.66 Y-130.209
G3 X-269.6726 Y-133.6429 I1.0193 J-1.7207
G1 X-255.821 Y-141.9866
G3 X-255.7985 Y-142.0 I1.032 J1.7132
G1 X-270.8926
G3 X-271.4724 Y-139.064 I-1.5917 J1.2109
G1 X-277.4255 Y-135.5718
G3 X-279.4107 Y-135.5496 I-1.012 J-1.7251
G1 X-284.7545 Y-138.5262
G3 X-284.9253 Y-141.9139 I0.9732 J-1.7472
G1 X-284.8019 Y-142.0
G1 X-295.9181
G1 X-283.3663 Y-135.1875
G3 X-283.2637 Y-131.7316 I-0.954 J1.7578
G1 X-285.9498 Y-130.0601
G0 Z3.0
G0 X-284.2591 Y-127.3432
G0 Z-1.0
G1 F300.0 Z-4.0
G1 F800.0 X-286.0084 Y-126.2547
G1 X-284.5841
G3 X-284.2591 Y-127.3432 I5.1154 J0.9344
G0 Z3.0
G0 X-279.4362 Y-131.6448
G0 Z-1.0
G1 F300.0 Z-4.0
G1 F800.0 X-278.7613 Y-132.107
G3 X-279.2764 Y-132.165 I0.3238 J-5.1899
G3 X-279.4362 Y-131.6448 I-5.0439 J-1.2647
G0 Z3.0
G0 X-274.2015 Y-133.7531
G0 Z-1.0
G1 F300.0 Z-4.0
G3 F800.0 X-273.549 Y-133.6466 I-0.5095 J5.175
G3 X-273.2689 Y-134.3002 I4.9084 J1.717
G1 X-274.2015 Y-133.7531
G0 Z3.0
G0 X-267.8171 Y-138.4963
G0 Z-1.0
G1 F300.0 Z-4.0
G1 F800.0 X-267.3129 Y-138.8
G1 X-267.6798
G3 X-267.8171 Y-138.4963 I-4.8045 J-1.9891
G1 F300.0 X-266.9916 Y-137.1257
G1 F800.0 X-261.5559 Y-140.4
G1 X-268.9055
G3 X-270.6628 Y-137.6839 I-3.5789 J-0.3891
G1 X-276.616 Y-134.1917
G3 X-280.1893 Y-134.1519 I-1.8215 J-3.1052
G1 X-280.898 Y-134.5466
G3 X-282.4183 Y-130.3731 I-3.4224 J1.1169
G1 X-291.6082 Y-124.6547
G1 X-283.0067
G3 X-281.5027 Y-128.2907 I3.5379 J-0.6656
G1 X-276.7448 Y-131.5485
G3 X-272.8128 Y-131.637 I2.0339 J2.9704
G1 X-272.1741 Y-131.2407
G3 X-270.4982 Y-135.0134 I3.5335 J-0.689
G1 X-266.9916 Y-137.1257
G0 Z3.0
G0 X-265.9596 Y-126.1572
G0 Z-1.0
G1 F300.0 Z-4.0
G3 F800.0 X-265.923 Y-124.6547 I-3.5014 J0.8369
G1 X-263.4232
G1 X-265.9596 Y-126.1572
G0 Z3.0
G0 X-287.1762 Y-139.0758
G0 Z-1.0
G1 F300.0 Z-4.0
G3 F800.0 X-287.379 Y-140.4 I3.3949 J-1.1977
G1 X-289.616
G1 X-287.1762 Y-139.0758
G1 F300.0 X-287.9394 Y-137.6696
G1 F800.0 X-283.3663 Y-135.1875
G3 X-283.2637 Y-131.7316 I-0.954 J1.7578
G1 X-297.1621 Y-123.0832
G3 X-297.2093 Y-123.0547 I-1.0566 J-1.6981
G1 X-279.9293
G1 X-280.7966 Y-123.8247
G3 X-280.5987 Y-126.9705 I1.3278 J-1.4956
G1 X-275.8409 Y-130.2283
G3 X-273.6564 Y-130.2775 I1.13 J1.6502
G1 X-268.4064 Y-127.0197
G3 X-268.1295 Y-123.8279 I-1.0545 J1.6994
G1 X-268.9962 Y-123.0547
G1 X-257.583
G1 X-269.66 Y-130.209
G3 X-269.6726 Y-133.6429 I1.0193 J-1.7207
G1 X-255.821 Y-141.9866
G3 X-255.7985 Y-142.0 I1.032 J1.7132
G1 X-270.8926
G3 X-271.4724 Y-139.064 I-1.5917 J1.2109
G1 X-277.4255 Y-135.5718
G3 X-279.4107 Y-135.5496 I-1.012 J-1.7251
G1 X-284.7545 Y-138.5262
G3 X-284.9253 Y-141.9139 I0.9732 J-1.7472
G1 X-284.8019 Y-142.0
G1 X-295.9181
G1 X-287.9394 Y-137.6696
G0 Z3.0
G0 X-235.6641 Y-137.531
G0 Z1.0
G1 F300.0 Z-2.0
G1 F800.0 Y-125.6953
G3 X-235.7143 Y-124.9203 I-6.0 J0.0
G3 X-234.3742 Y-124.1131 I-21.7552 J37.6343
G3 X-234.0585 Y-123.917 I-20.5704 J33.4634
G3 X-234.3281 Y-125.6953 I5.7304 J-1.7783
G1 Y-135.3109
G3 X-234.0353 Y-138.3933 I12.9304 J-0.3267
G2 X-235.1792 Y-137.8487 I3.135 J8.0581
G3 X-235.2523 Y-137.8078 I-2.9692 J-5.2138
G2 X-235.6641 Y-137.531 I1.3614 J2.4701
G1 F300.0 X-236.167 Y-138.1531
G2 F800.0 X-236.4641 Y-137.8845 I2.2761 J2.8154
G1 Y-125.6953
G3 X-236.6021 Y-124.5052 I-5.2 J0.0
G3 X-234.7962 Y-123.4334 I-20.8675 J37.2192
G3 X-233.3277 Y-122.4843 I-20.1484 J32.7838
G3 X-232.9817 Y-123.375 I4.9996 J1.4297
G3 X-233.5281 Y-125.6953 I4.6536 J-2.3203
G1 Y-135.3212
G3 X-232.8765 Y-139.5726 I12.1304 J-0.3164
G2 X-232.92 Y-139.5632 I3.1038 J14.4607
G2 X-235.5751 Y-138.5439 I2.0197 J9.228
G3 X-235.6384 Y-138.5084 I-2.5733 J-4.5186
G2 X-236.167 Y-138.1531 I1.7475 J3.1707
G1 F300.0 X-237.1729 Y-139.3974
G2 F800.0 X-237.8414 Y-138.7503 I3.282 J4.0597
G2 X-238.0641 Y-138.1521 I0.719 J0.6082
G1 Y-125.6953
G3 X-238.6193 Y-123.7744 I-3.6 J0.0
G3 X-235.6401 Y-122.0741 I-18.8502 J36.4884
G3 X-231.9281 Y-119.4663 I-19.3045 J31.4245
G1 Y-121.0547
G3 X-231.0806 Y-123.375 I3.6 J0.0
G3 X-231.9281 Y-125.6953 I2.7525 J-2.3203
G1 Y-135.3428
G3 X-231.2557 Y-139.3521 I10.5304 J-0.2948
G3 X-231.2545 Y-139.3552 I3.3688 J1.2693
G3 X-229.847 Y-141.5018 I5.5245 J2.0874
G2 X-233.2613 Y-141.1264 I0.0744 J16.3899
G2 X-236.3669 Y-139.9342 I2.361 J10.7912
G3 X-236.4108 Y-139.9097 I-1.7815 J-3.1283
G2 X-237.1729 Y-139.3974 I2.5198 J4.572
G1 F300.0 X-238.1788 Y-140.6416
G2 F800.0 X-239.0567 Y-139.7911 I4.2879 J5.3039
G2 X-239.6641 Y-138.1585 I1.9343 J1.6489
G1 Y-125.6953
G3 X-241.6641 Y-123.6953 I-2.0 J0.0
G1 X-242.2303
G3 X-242.2219 Y-123.6918 I-12.0044 J28.686
G1 X-242.2218
G3 X-236.4841 Y-120.7148 I-15.2477 J36.4057
G3 X-231.7296 Y-117.2159 I-18.4605 J30.0651
G3 X-230.3281 Y-115.885 I-13.624 J15.7497
G1 Y-121.0547
G3 X-228.3281 Y-123.0547 I2.0 J0.0
G1 X-222.8402
G1 X-223.2931 Y-123.6953
G1 X-228.3281
G3 X-230.3281 Y-125.6953 I0.0 J-2.0
G1 Y-135.3661
G3 X-229.7584 Y-138.7879 I8.9304 J-0.2715
G3 X-229.7578 Y-138.7896 I1.8716 J0.7052
G3 X-225.5767 Y-141.5707 I4.0278 J1.5219
G3 X-223.4092 Y-141.2839 I0.0515 J7.9443
G3 X-220.2001 Y-138.7593 I-1.3236 J4.9843
G3 X-220.1594 Y-138.6801 I-1.7579 J0.9539
G3 X-219.6102 Y-137.1133 I-6.4735 J3.1483
G2 X-219.5929 Y-137.5662 I-3.3307 J-0.3545
G3 X-219.5937 Y-137.6417 I1.9991 J-0.0588
G2 X-219.7861 Y-139.1442 I-5.5987 J-0.0467
G2 X-221.0361 Y-141.0816 I-3.6952 J1.0123
G2 X-222.7309 Y-142.0722 I-3.9901 J4.8813
G2 X-226.0073 Y-142.8837 I-4.8854 J12.7046
G3 X-226.0205 Y-142.8853 I0.2364 J-1.986
G2 X-229.6297 Y-143.1016 I-3.4583 J27.4866
G3 X-229.6538 I-0.0109 J-2.0
G2 X-233.6026 Y-142.6896 I-0.1188 J17.9897
G2 X-237.1587 Y-141.3246 I2.7022 J12.3544
G3 X-237.1831 Y-141.3109 I-0.9897 J-1.7379
G2 X-238.1788 Y-140.6416 I3.2921 J5.9732
G0 Z3.0
G0 X-235.6641 Y-137.531
G0 Z-1.0
G1 F300.0 Z-4.0
G1 F800.0 Y-125.6953
G3 X-235.7143 Y-124.9203 I-6.0 J0.0
G3 X-234.3742 Y-124.1131 I-21.7552 J37.6343
G3 X-234.0585 Y-123.917 I-20.5704 J33.4634
G3 X-234.3281 Y-125.6953 I5.7304 J-1.7783
G1 Y-135.3109
G3 X-234.0353 Y-138.3933 I12.9304 J-0.3267
G2 X-235.1792 Y-137.8487 I3.135 J8.0581
G3 X-235.2523 Y-137.8078 I-2.9692 J-5.2138
G2 X-235.6641 Y-137.531 I1.3614 J2.4701
G1 F300.0 X-236.167 Y-138.1531
G2 F800.0 X-236.4641 Y-137.8845 I2.2761 J2.8154
G1 Y-125.6953
G3 X-236.6021 Y-124.5052 I-5.2 J0.0
G3 X-234.7962 Y-123.4334 I-20.8675 J37.2192
G3 X-233.3277 Y-122.4843 I-20.1484 J32.7838
G3 X-232.9817 Y-123.375 I4.9996 J1.4297
G3 X-233.5281 Y-125.6953 I4.6536 J-2.3203
G1 Y-135.3212
G3 X-232.8765 Y-139.5726 I12.1304 J-0.3164
G2 X-232.92 Y-139.5632 I3.1038 J14.4607
G2 X-235.5751 Y-138.5439 I2.0197 J9.228
G3 X-235.6384 Y-138.5084 I-2.5733 J-4.5186
G2 X-236.167 Y-138.1531 I1.7475 J3.1707
G1 F300.0 X-237.1729 Y-139.3974
G2 F800.0 X-237.8414 Y-138.7503 I3.282 J4.0597
G2 X-238.0641 Y-138.1521 I0.719 J0.6082
G1 Y-125.6953
G3 X-238.6193 Y-123.7744 I-3.6 J0.0
G3 X-235.6401 Y-122.0741 I-18.8502 J36.4884
G3 X-231.9281 Y-119.4663 I-19.3045 J31.4245
G1 Y-121.0547
G3 X-231.0806 Y-123.375 I3.6 J0.0
G3 X-231.9281 Y-125.6953 I2.7525 J-2.3203
G1 Y-135.3428
G3 X-231.2557 Y-139.3521 I10.5304 J-0.2948
G3 X-231.2545 Y-139.3552 I3.3688 J1.2693
G3 X-229.847 Y-141.5018 I5.5245 J2.0874
G2 X-233.2613 Y-141.1264 I0.0744 J16.3899
G2 X-236.3669 Y-139.9342 I2.361 J10.7912
G3 X-236.4108 Y-139.9097 I-1.7815 J-3.1283
G2 X-237.1729 Y-139.3974 I2.5198 J4.572
G1 F300.0 X-238.1788 Y-140.6416
G2 F800.0 X-239.0567 Y-139.7911 I4.2879 J5.3039
G2 X-239.6641 Y-138.1585 I1.9343 J1.6489
G1 Y-125.6953
G3 X-241.6641 Y-123.6953 I-2.0 J0.0
G1 X-242.2303
G3 X-242.2219 Y-123.6918 I-12.0044 J28.686
G1 X-242.2218
G3 X-236.4841 Y-120.7148 I-15.2477 J36.4057
G3 X-231.7296 Y-117.2159 I-18.4605 J30.0651
G3 X-230.3281 Y-115.885 I-13.624 J15.7497
G1 Y-121.0547
G3 X-228.3281 Y-123.0547 I2.0 J0.0
G1 X-222.8402
G1 X-223.2931 Y-123.6953
G1 X-228.3281
G3 X-230.3281 Y-125.6953 I0.0 J-2.0
G1 Y-135.3661
G3 X-229.7584 Y-138.7879 I8.9304 J-0.2715
G3 X-229.7578 Y-138.7896 I1.8716 J0.7052
G3 X-225.5767 Y-141.5707 I4.0278 J1.5219
G3 X-223.4092 Y-141.2839 I0.0515 J7.9443
G3 X-220.2001 Y-138.7593 I-1.3236 J4.9843
G3 X-220.1594 Y-138.6801 I-1.7579 J0.9539
G3 X-219.6102 Y-137.1133 I-6.4735 J3.1483
G2 X-219.5929 Y-137.5662 I-3.3307 J-0.3545
G3 X-219.5937 Y-137.6417 I1.9991 J-0.0588
G2 X-219.7861 Y-139.1442 I-5.5987 J-0.0467
G2 X-221.0361 Y-141.0816 I-3.6952 J1.0123
G2 X-222.7309 Y-142.0722 I-3.9901 J4.8813
G2 X-226.0073 Y-142.8837 I-4.8854 J12.7046
G3 X-226.0205 Y-142.8853 I0.2364 J-1.986
G2 X-229.6297 Y-143.1016 I-3.4583 J27.4866
G3 X-229.6538 I-0.0109 J-2.0
G2 X-233.6026 Y-142.6896 I-0.1188 J17.9897
G2 X-237.1587 Y-141.3246 I2.7022 J12.3544
G3 X-237.1831 Y-141.3109 I-0.9897 J-1.7379
G2 X-238.1788 Y-140.6416 I3.2921 J5.9732
G0 Z3.0
G0 X-202.1719 Y-138.0
G0 Z1.0
G1 F300.0 Z-2.0
G1 F800.0 Y-127.4766
G3 X-202.1768 Y-127.233 I-6.0 J0.0
G1 X-200.8359 Y-127.2008
G1 Y-138.0
G1 X-202.1719
G1 F300.0 X-202.9719
G1 F800.0 Y-127.4766
G3 X-203.0733 Y-126.4544 I-5.2 J0.0
G1 X-200.0359 Y-126.3813
G1 Y-138.1406
G3 X-199.994 Y-138.8 I5.2 J0.0
G1 X-203.0138
G3 X-202.9719 Y-138.1406 I-5.158 J0.6594
G1 Y-138.0
G1 F300.0 X-204.5719
G1 F800.0 Y-127.4766
G3 X-205.6417 Y-124.9157 I-3.6 J0.0
G1 X-198.4359 Y-124.7423
G1 Y-138.1406
G3 X-197.6387 Y-140.4 I3.6 J0.0
G1 X-205.3692
G3 X-204.5719 Y-138.1406 I-2.8027 J2.2594
G1 Y-138.0
G1 F300.0 X-206.1719
G1 F800.0 Y-127.4766
G3 X-207.0836 Y-125.7986 I-2.0 J0.0
G1 X-210.724 Y-123.4375
G1 X-196.8359 Y-123.1034
G1 Y-138.1406
G3 X-195.9352 Y-139.8115 I2.0 J0.0
G1 X-192.6086 Y-142.0
G1 X-210.4604
G1 X-207.0866 Y-139.8206
G3 X-206.1719 Y-138.1406 I-1.0852 J1.68
G1 Y-138.0
G0 Z3.0
G0 X-202.1719
G0 Z-1.0
G1 F300.0 Z-4.0
G1 F800.0 Y-127.4766
G3 X-202.1768 Y-127.233 I-6.0 J0.0
G1 X-200.8359 Y-127.2008
G1 Y-138.0
G1 X-202.1719
G1 F300.0 X-202.9719
G1 F800.0 Y-127.4766
G3 X-203.0733 Y-126.4544 I-5.2 J0.0
G1 X-200.0359 Y-126.3813
G1 Y-138.1406
G3 X-199.994 Y-138.8 I5.2 J0.0
G1 X-203.0138
G3 X-202.9719 Y-138.1406 I-5.158 J0.6594
G1 Y-138.0
G1 F300.0 X-204.5719
G1 F800.0 Y-127.4766
G3 X-205.6417 Y-124.9157 I-3.6 J0.0
G1 X-198.4359 Y-124.7423
G1 Y-138.1406
G3 X-197.6387 Y-140.4 I3.6 J0.0
G1 X-205.3692
G3 X-204.5719 Y-138.1406 I-2.8027 J2.2594
G1 Y-138.0
G1 F300.0 X-206.1719
G1 F800.0 Y-127.4766
G3 X-207.0836 Y-125.7986 I-2.0 J0.0
G1 X-210.724 Y-123.4375
G1 X-196.8359 Y-123.1034
G1 Y-138.1406
G3 X-195.9352 Y-139.8115 I2.0 J0.0
G1 X-192.6086 Y-142.0
G1 X-210.4604
G1 X-207.0866 Y-139.8206
G3 X-206.1719 Y-138.1406 I-1.0852 J1.68
G1 Y-138.0
G0 Z3.0
G0 X-202.7267 Y-115.1524
G0 Z1.0
G1 F300.0 Z-2.0
G2 F800.0 X-203.1461 Y-115.0687 I0.6748 J4.4752
G2 X-201.9691 Y-114.9306 I1.0983 J-4.2733
G3 X-201.8122 I0.0785 J4.3993
G2 X-200.6443 Y-115.0664 I0.0787 J-4.4116
G2 X-201.8122 Y-115.2023 I-1.0892 J4.2756
G3 X-201.9701 I-0.0785 J-4.3993
G2 X-202.7267 Y-115.1524 I-0.0817 J4.5251
G1 F300.0 X-202.846 Y-115.9435
G2 F800.0 X-204.8784 Y-115.191 I0.7941 J5.2663
G3 X-204.8919 Y-115.1826 I-1.9106 J-3.0511
G2 X-205.0484 Y-115.0761 I1.1635 J1.8763
G2 X-204.9172 Y-114.9892 I1.1997 J-1.6685
G3 X-204.8521 Y-114.9486 I-1.8718 J3.0751
G2 X-201.9548 Y-114.1307 I2.8043 J-4.3934
G3 X-201.8264 I0.0642 J3.5994
G2 X-198.9291 Y-114.9486 I0.0929 J-5.2115
G3 X-198.8739 Y-114.9831 I1.9369 J3.0345
G2 X-198.7477 Y-115.0665 I-1.1808 J-1.9259
G2 X-198.8744 Y-115.15 I-1.3393 J1.8935
G3 X-198.9291 Y-115.1842 I1.8822 J-3.0688
G2 X-201.8264 Y-116.0021 I-2.8043 J4.3934
G3 X-201.9557 I-0.0642 J-3.5994
G2 X-202.846 Y-115.9435 I-0.0962 J5.3249
G1 F300.0 X-203.0845 Y-117.5256
G2 F800.0 X-205.7276 Y-116.5471 I1.0327 J6.8484
G3 X-205.7351 Y-116.5424 I-1.0615 J-1.6951
G2 X-206.7006 Y-115.6865 I2.0066 J3.2361
G2 X-206.9217 Y-115.0752 I0.7953 J0.6334
G2 X-206.7028 Y-114.4613 I1.0242 J-0.0192
G2 X-205.7492 Y-113.6225 I2.8541 J-2.2832
G3 X-205.713 Y-113.5999 I-1.0399 J1.7084
G2 X-201.9263 Y-112.5309 I3.6652 J-5.7421
G3 X-201.855 I0.0357 J1.9997
G2 X-198.0683 Y-113.5999 I0.1215 J-6.8112
G3 X-198.0376 Y-113.6191 I1.0761 J1.6858
G2 X-197.0584 Y-114.4771 I-2.0172 J-3.2899
G2 X-196.8362 Y-115.0761 I-0.7755 J-0.6282
G2 X-197.0544 Y-115.6558 I-0.9603 J0.0305
G3 X-197.0562 Y-115.658 I1.5448 J-1.2703
G2 X-198.0378 Y-116.5139 I-3.0307 J2.4851
G3 X-198.0683 Y-116.5329 I1.0457 J-1.7049
G2 X-201.855 Y-117.6019 I-3.6652 J5.7421
G3 X-201.9268 I-0.0357 J-1.9997
G2 X-203.0845 Y-117.5256 I-0.1251 J6.9247
G1 F300.0 X-202.7267 Y-115.1524
G1 Z-4.0
G2 F800.0 X-203.1461 Y-115.0687 I0.6748 J4.4752
G2 X-201.9691 Y-114.9306 I1.0983 J-4.2733
G3 X-201.8122 I0.0785 J4.3993
G2 X-200.6443 Y-115.0664 I0.0787 J-4.4116
G2 X-201.8122 Y-115.2023 I-1.0892 J4.2756
G3 X-201.9701 I-0.0785 J-4.3993
G2 X-202.7267 Y-115.1524 I-0.0817 J4.5251
G1 F300.0 X-202.846 Y-115.9435
G2 F800.0 X-204.8784 Y-115.191 I0.7941 J5.2663
G3 X-204.8919 Y-115.1826 I-1.9106 J-3.0511
G2 X-205.0484 Y-115.0761 I1.1635 J1.8763
G2 X-204.9172 Y-114.9892 I1.1997 J-1.6685
G3 X-204.8521 Y-114.9486 I-1.8718 J3.0751
G2 X-201.9548 Y-114.1307 I2.8043 J-4.3934
G3 X-201.8264 I0.0642 J3.5994
G2 X-198.9291 Y-114.9486 I0.0929 J-5.2115
G3 X-198.8739 Y-114.9831 I1.9369 J3.0345
G2 X-198.7477 Y-115.0665 I-1.1808 J-1.9259
G2 X-198.8744 Y-115.15 I-1.3393 J1.8935
G3 X-198.9291 Y-115.1842 I1.8822 J-3.0688
G2 X-201.8264 Y-116.0021 I-2.8043 J4.3934
G3 X-201.9557 I-0.0642 J-3.5994
G2 X-202.846 Y-115.9435 I-0.0962 J5.3249
G1 F300.0 X-203.0845 Y-117.5256
G2 F800.0 X-205.7276 Y-116.5471 I1.0327 J6.8484
G3 X-205.7351 Y-116.5424 I-1.0615 J-1.6951
G2 X-206.7006 Y-115.6865 I2.0066 J3.2361
G2 X-206.9217 Y-115.0752 I0.7953 J0.6334
G2 X-206.7028 Y-114.4613 I1.0242 J-0.0192
G2 X-205.7492 Y-113.6225 I2.8541 J-2.2832
G3 X-205.713 Y-113.5999 I-1.0399 J1.7084
G2 X-201.9263 Y-112.5309 I3.6652 J-5.7421
G3 X-201.855 I0.0357 J1.9997
G2 X-198.0683 Y-113.5999 I0.1215 J-6.8112
G3 X-198.0376 Y-113.6191 I1.0761 J1.6858
G2 X-197.0584 Y-114.4771 I-2.0172 J-3.2899
G2 X-196.8362 Y-115.0761 I-0.7755 J-0.6282
G2 X-197.0544 Y-115.6558 I-0.9603 J0.0305
G3 X-197.0562 Y-115.658 I1.5448 J-1.2703
G2 X-198.0378 Y-116.5139 I-3.0307 J2.4851
G3 X-198.0683 Y-116.5329 I1.0457 J-1.7049
G2 X-201.855 Y-117.6019 I-3.6652 J5.7421
G3 X-201.9268 I-0.0357 J-1.9997
G2 X-203.0845 Y-117.5256 I-0.1251 J6.9247
G0 Z3.0
G0 X-174.0234
G0 Z1.0
G1 F300.0 Z-2.0
G1 F800.0 Y-116.7891
G3 X-174.0275 Y-116.569 I-6.0 J0.0
G1 X-172.6875 Y-116.5367
G1 Y-138.0
G1 X-174.0234
G1 Y-117.5256
G1 F300.0 X-174.8234
G1 F800.0 Y-116.7891
G3 X-174.9203 Y-115.7902 I-5.2 J0.0
G1 X-171.8875 Y-115.7172
G1 Y-138.1406
G3 X-171.8455 Y-138.8 I5.2 J0.0
G1 X-174.8654
G3 X-174.8234 Y-138.1406 I-5.158 J0.6594
G1 Y-117.5256
G1 F300.0 X-176.4234
G1 F800.0 Y-116.7891
G3 X-177.4703 Y-114.2511 I-3.6 J0.0
G1 X-170.2875 Y-114.0783
G1 Y-138.1406
G3 X-169.4902 Y-140.4 I3.6 J0.0
G1 X-177.2207
G3 X-176.4234 Y-138.1406 I-2.8027 J2.2594
G1 Y-117.5256
G1 F300.0 X-178.0234
G1 F800.0 Y-116.7891
G3 X-178.9382 Y-115.1091 I-2.0 J0.0
G1 X-182.5546 Y-112.7729
G1 X-168.6875 Y-112.4393
G1 Y-138.1406
G3 X-167.7727 Y-139.8206 I2.0 J0.0
G1 X-164.399 Y-142.0
G1 X-182.3119
G1 X-178.9382 Y-139.8206
G3 X-178.0234 Y-138.1406 I-1.0852 J1.68
G1 Y-117.5256
G0 Z3.0
G0 X-174.0234
G0 Z-1.0
G1 F300.0 Z-4.0
G1 F800.0 Y-116.7891
G3 X-174.0275 Y-116.569 I-6.0 J0.0
G1 X-172.6875 Y-116.5367
G1 Y-138.0
G1 X-174.0234
G1 Y-117.5256
G1 F300.0 X-174.8234
G1 F800.0 Y-116.7891
G3 X-174.9203 Y-115.7902 I-5.2 J0.0
G1 X-171.8875 Y-115.7172
G1 Y-138.1406
G3 X-171.8455 Y-138.8 I5.2 J0.0
G1 X-174.8654
G3 X-174.8234 Y-138.1406 I-5.158 J0.6594
G1 Y-117.5256
G1 F300.0 X-176.4234
G1 F800.0 Y-116.7891
G3 X-177.4703 Y-114.2511 I-3.6 J0.0
G1 X-170.2875 Y-114.0783
G1 Y-138.1406
G3 X-169.4902 Y-140.4 I3.6 J0.0
G1 X-177.2207
G3 X-176.4234 Y-138.1406 I-2.8027 J2.2594
G1 Y-117.5256
G1 F300.0 X-178.0234
G1 F800.0 Y-116.7891
G3 X-178.9382 Y-115.1091 I-2.0 J0.0
G1 X-182.5546 Y-112.7729
G1 X-168.6875 Y-112.4393
G1 Y-138.1406
G3 X-167.7727 Y-139.8206 I2.0 J0.0
G1 X-164.399 Y-142.0
G1 X-182.3119
G1 X-178.9382 Y-139.8206
G3 X-178.0234 Y-138.1406 I-1.0852 J1.68
G1 Y-117.5256
G0 Z3.0
G0 X-146.3633 Y-127.0547
G0 Z1.0
G1 F300.0 Z-2.0
G1 F800.0 X-146.0265
G3 X-145.9223 Y-127.6878 I5.964 J0.6563
G1 X-146.3633 Y-127.0547
G0 Z3.0
G0 X-139.4685 Y-137.4823
G0 Z1.0
G1 F300.0 Z-2.0
G1 F800.0 X-139.0952 Y-138.0
G1 X-139.339
G3 X-139.4685 Y-137.4823 I-5.8797 J-1.1953
G1 F300.0 X-140.2352 Y-137.7107
G3 F800.0 X-140.9519 Y-136.2232 I-4.9836 J-1.4846
G1 X-147.8956 Y-126.2547
G1 X-145.2605
G3 X-144.2806 Y-129.4394 I5.198 J-0.1438
G1 X-137.7416 Y-138.5097
G3 X-137.5163 Y-138.8 I4.2181 J3.041
G1 X-140.0338
G3 X-140.2352 Y-137.7107 I-5.185 J-0.3953
G0 Z3.0
G0 X-118.2947 Y-127.0547
G0 Z1.0
G1 F300.0 Z-2.0
G1 F800.0 X-117.5265
G3 X-117.2506 Y-128.3078 I5.964 J0.6562
G1 X-117.4506 Y-128.0219
G3 X-118.2947 Y-127.0547 I-4.9166 J-3.439
G0 Z3.0
G0 X-110.7366 Y-137.8003
G0 Z1.0
G1 F300.0 Z-2.0
G1 F800.0 X-110.5925 Y-138.0
G1 X-110.6505
G3 X-110.7366 Y-137.8003 I-5.5526 J-2.2734
G1 F300.0 X-110.0877 Y-137.3323
G1 F800.0 X-109.0291 Y-138.8
G1 X-111.2162
G3 X-111.9421 Y-137.293 I-4.9869 J-1.4734
G1 X-118.1061 Y-128.4805
G3 X-123.0932 Y-126.3119 I-4.2611 J-2.9805
G3 X-123.0885 Y-126.2547 I-5.1803 J0.4525
G1 X-116.7605
G3 X-115.7799 Y-129.4404 I5.198 J-0.1437
G1 X-110.0877 Y-137.3323
G1 F300.0 X-108.79 Y-136.3963
G1 F800.0 X-107.5682 Y-138.0903
G3 X-102.3628 Y-138.7657 I2.9198 J2.1059
G3 X-102.6915 Y-140.4 I3.2691 J-1.5077
G1 X-112.6054
G3 X-113.2532 Y-138.21 I-3.5978 J0.1266
G1 X-119.4172 Y-129.3975
G3 X-125.4418 Y-129.5884 I-2.95 J-2.0634
G1 X-130.809 Y-138.4009
G3 X-131.3321 Y-140.4 I3.0746 J-1.8726
G1 X-141.8263
G3 X-142.2648 Y-137.1377 I-3.3925 J1.2047
G1 X-150.8194 Y-124.8564
G3 X-150.9707 Y-124.6547 I-2.954 J-2.0576
G1 X-143.212
G3 X-142.9827 Y-128.5037 I3.1495 J-1.7438
G1 X-136.4437 Y-137.574
G3 X-130.3642 Y-137.1948 I2.9202 J2.1053
G1 X-125.1142 Y-127.5854
G3 X-124.881 Y-124.6547 I-3.1592 J1.726
G1 X-114.712
G3 X-114.4823 Y-128.5044 I3.1495 J-1.7437
G1 X-108.79 Y-136.3963
G0 Z3.0
G0 X-98.2688 Y-132.0587
G0 Z1.0
G1 F300.0 Z-2.0
G1 F800.0 X-96.0595 Y-128.1804
G3 X-96.038 Y-124.6547 I-3.128 J1.782
G1 X-93.7164
G1 X-98.2688 Y-132.0587
G1 F300.0 X-96.9059 Y-132.8967
G1 F800.0 X-100.7975 Y-139.2259
G3 X-100.3195 Y-141.8538 I1.7037 J-1.0476
G1 X-100.131 Y-142.0
G1 X-115.1659
G1 X-114.9774 Y-141.8538
G3 X-114.5643 Y-139.1271 I-1.2257 J1.5804
G1 X-120.7283 Y-130.3146
G3 X-124.0753 Y-130.4206 I-1.6389 J-1.1463
G1 X-129.4425 Y-139.2331
G3 X-128.9601 Y-141.8538 I1.7081 J-1.0403
G1 X-128.7716 Y-142.0
G1 X-145.4911
G1 X-143.9536 Y-140.7443
G3 X-143.5776 Y-138.0522 I-1.2651 J1.549
G1 X-152.1323 Y-125.7709
G3 X-152.6882 Y-125.2341 I-1.6411 J-1.1431
G1 X-156.0619 Y-123.0547
G1 X-139.5556
G1 X-141.4798 Y-124.9873
G3 X-141.6849 Y-127.568 I1.4173 J-1.4111
G1 X-135.1458 Y-136.6384
G3 X-131.7683 Y-136.4277 I1.6224 J1.1696
G1 X-126.5183 Y-126.8183
G3 X-127.0053 Y-124.3128 I-1.7551 J0.9589
G1 X-128.5396 Y-123.0547
G1 X-110.7829
G1 X-112.8811 Y-124.8947
G3 X-113.1846 Y-127.5684 I1.3186 J-1.5037
G1 X-106.2705 Y-137.1543
G3 X-102.9106 Y-136.9744 I1.6221 J1.17
G1 X-97.4497 Y-127.3884
G3 X-97.807 Y-124.9513 I-1.7378 J0.99
G1 X-99.7951 Y-123.0547
G1 X-88.9919
G1 X-91.6242 Y-124.7035
G3 X-92.2662 Y-125.3509 I1.0617 J-1.6949
G1 X-96.9059 Y-132.8967
G1 F300.0 X-98.2688 Y-132.0587
G1 Z-4.0
G1 F800.0 X-96.0595 Y-128.1804
G3 X-96.038 Y-124.6547 I-3.128 J1.782
G1 X-93.7164
G1 X-98.2688 Y-132.0587
G0 Z3.0
G0 X-110.5925 Y-138.0
G0 Z-1.0
G1 F300.0 Z-4.0
G1 F800.0 X-110.6505
G3 X-110.7366 Y-137.8003 I-5.5526 J-2.2734
G1 X-110.5925 Y-138.0
G0 Z3.0
G0 X-117.2506 Y-128.3078
G0 Z-1.0
G1 F300.0 Z-4.0
G1 F800.0 X-117.4506 Y-128.0219
G3 X-118.2947 Y-127.0547 I-4.9166 J-3.439
G1 X-117.5265
G3 X-117.2506 Y-128.3078 I5.964 J0.6562
G1 F300.0 X-117.9061 Y-128.7664
G1 F800.0 X-118.1061 Y-128.4805
G3 X-123.0932 Y-126.3119 I-4.2611 J-2.9805
G3 X-123.0885 Y-126.2547 I-5.1803 J0.4525
G1 X-116.7605
G3 X-115.7799 Y-129.4404 I5.198 J-0.1437
G1 X-109.0291 Y-138.8
G1 X-111.2162
G3 X-111.9421 Y-137.293 I-4.9869 J-1.4734
G1 X-117.9061 Y-128.7664
G0 Z3.0
G0 X-139.0952 Y-138.0
G0 Z-1.0
G1 F300.0 Z-4.0
G1 F800.0 X-139.339
G3 X-139.4685 Y-137.4823 I-5.8797 J-1.1953
G1 X-139.0952 Y-138.0
G0 Z3.0
G0 X-145.9223 Y-127.6878
G0 Z-1.0
G1 F300.0 Z-4.0
G1 F800.0 X-146.3633 Y-127.0547
G1 X-146.0265
G3 X-145.9223 Y-127.6878 I5.964 J0.6563
G1 F300.0 X-146.5788 Y-128.1451
G1 F800.0 X-147.8956 Y-126.2547
G1 X-145.2605
G3 X-144.2806 Y-129.4394 I5.198 J-0.1438
G1 X-137.7416 Y-138.5097
G3 X-137.5163 Y-138.8 I4.2181 J3.041
G1 X-140.0338
G3 X-140.9519 Y-136.2232 I-5.185 J-0.3953
G1 X-146.5788 Y-128.1451
G1 F300.0 X-147.8916 Y-129.0596
G1 F800.0 X-150.8194 Y-124.8564
G3 X-150.9707 Y-124.6547 I-2.954 J-2.0576
G1 X-143.212
G3 X-142.9827 Y-128.5037 I3.1495 J-1.7438
G1 X-136.4437 Y-137.574
G3 X-130.3642 Y-137.1948 I2.9202 J2.1053
G1 X-125.1142 Y-127.5854
G3 X-124.881 Y-124.6547 I-3.1592 J1.726
G1 X-114.712
G3 X-114.4823 Y-128.5044 I3.1495 J-1.7437
G1 X-107.5682 Y-138.0903
G3 X-102.3628 Y-138.7657 I2.9198 J2.1059
G3 X-102.6915 Y-140.4 I3.2691 J-1.5077
G1 X-112.6054
G3 X-113.2532 Y-138.21 I-3.5978 J0.1266
G1 X-119.4172 Y-129.3975
G3 X-125.4418 Y-129.5884 I-2.95 J-2.0634
G1 X-130.809 Y-138.4009
G3 X-131.3321 Y-140.4 I3.0746 J-1.8726
G1 X-141.8263
G3 X-142.2648 Y-137.1377 I-3.3925 J1.2047
G1 X-147.8916 Y-129.0596
G1 F300.0 X-149.2045 Y-129.9741
G1 F800.0 X-152.1323 Y-125.7709
G3 X-152.6882 Y-125.2341 I-1.6411 J-1.1431
G1 X-156.0619 Y-123.0547
G1 X-139.5556
G1 X-141.4798 Y-124.9873
G3 X-141.6849 Y-127.568 I1.4173 J-1.4111
G1 X-135.1458 Y-136.6384
G3 X-131.7683 Y-136.4277 I1.6224 J1.1696
G1 X-126.5183 Y-126.8183
G3 X-127.0053 Y-124.3128 I-1.7551 J0.9589
G1 X-128.5396 Y-123.0547
G1 X-110.7829
G1 X-112.8811 Y-124.8947
G3 X-113.1846 Y-127.5684 I1.3186 J-1.5037
G1 X-106.2705 Y-137.1543
G3 X-102.9106 Y-136.9744 I1.6221 J1.17
G1 X-97.4497 Y-127.3884
G3 X-97.807 Y-124.9513 I-1.7378 J0.99
G1 X-99.7951 Y-123.0547
G1 X-88.9919
G1 X-91.6242 Y-124.7035
G3 X-92.2662 Y-125.3509 I1.0617 J-1.6949
G1 X-100.7975 Y-139.2259
G3 X-100.3195 Y-141.8538 I1.7037 J-1.0476
G1 X-100.131 Y-142.0
G1 X-115.1659
G1 X-114.9774 Y-141.8538
G3 X-114.5643 Y-139.1271 I-1.2257 J1.5804
G1 X-120.7283 Y-130.3146
G3 X-124.0753 Y-130.4206 I-1.6389 J-1.1463
G1 X-129.4425 Y-139.2331
G3 X-128.9601 Y-141.8538 I1.7081 J-1.0403
G1 X-128.7716 Y-142.0
G1 X-145.4911
G1 X-143.9536 Y-140.7443
G3 X-143.5776 Y-138.0522 I-1.2651 J1.549
G1 X-149.2045 Y-129.9741
G0 Z3.0
G0 X-77.1281 Y-132.9084
G0 Z1.0
G1 F300.0 Z-2.0
G2 F800.0 X-76.729 Y-131.7974 I1.969 J-0.0802
G3 X-76.7005 Y-131.7596 I-5.4172 J4.1102
G2 X-76.1494 Y-131.1266 I4.5303 J-3.3879
G3 X-76.0175 Y-131.7406 I6.7041 J1.1188
G3 X-76.406 Y-133.8 I6.4081 J-2.275
G3 X-76.4051 Y-134.5687 I11.7257 J-0.372
G2 X-76.9485 Y-133.8541 I2.6542 J2.5819
G2 X-77.13 Y-133.0692 I1.5393 J0.7693
G3 X-77.1297 Y-132.9929 I-6.7997 J0.0614
G2 X-77.1281 Y-132.9084 I1.9706 J0.0043
G1 F300.0 X-78.7268 Y-132.8433
G2 F800.0 X-78.0036 Y-130.8303 I3.5676 J-0.1452
G3 X-77.9819 Y-130.8014 I-4.1426 J3.1431
G2 X-76.8561 Y-129.6062 I5.8117 J-4.3461
G3 X-76.8498 Y-129.6008 I-3.3577 J3.9706
G2 X-75.2203 Y-128.4228 I8.3935 J-9.8937
G2 X-74.4339 Y-127.9691 I9.6805 J-15.8709
G3 X-74.6418 Y-130.0643 I9.4028 J-1.9907
G3 X-74.3191 Y-131.8114 I5.1965 J0.0565
G3 X-74.8068 Y-133.8507 I4.7097 J-2.2042
G3 X-74.1094 Y-137.8788 I10.1265 J-0.3213
G2 X-75.3326 Y-137.2839 I8.6591 J19.3565
G2 X-76.9346 Y-136.2283 I5.5555 J10.1752
G3 X-76.9793 Y-136.1936 I-3.2105 J-4.0906
G2 X-78.3543 Y-134.6192 I3.2284 J4.2068
G2 X-78.7299 Y-133.0548 I2.9451 J1.5345
G3 X-78.7297 Y-132.9964 I-5.1998 J0.0469
G2 X-78.7268 Y-132.8433 I3.5706 J0.0079
G1 F300.0 X-80.3254 Y-132.7782
G2 F800.0 X-79.2783 Y-129.8632 I5.1663 J-0.2103
G3 X-79.2632 Y-129.8432 I-2.8679 J2.176
G2 X-77.8892 Y-128.3844 I7.093 J-5.3043
G3 X-77.8849 Y-128.3807 I-2.3246 J2.7489
G2 X-76.054 Y-127.0571 I9.4286 J-11.1138
G2 X-71.2639 Y-124.9318 I10.5142 J-17.2366
G3 X-72.0486 Y-126.0959 I6.9467 J-5.5291
G3 X-72.0822 Y-126.1568 I3.1321 J-1.7683
G3 X-73.0419 Y-130.0469 I7.051 J-3.803
G3 X-72.5124 Y-131.8867 I3.5966 J0.0391
G3 X-73.2076 Y-133.9015 I2.903 J-2.129
G3 X-71.0476 Y-139.8505 I8.5273 J-0.2705
G3 X-70.974 Y-139.9306 I2.6868 J2.3961
G3 X-69.9375 Y-140.8816 I7.3116 J6.9284
G2 X-76.0887 Y-138.694 I4.4872 J22.3593
G2 X-77.9225 Y-137.4869 I6.3116 J11.5853
G3 X-77.9534 Y-137.4629 I-2.2226 J-2.8319
G2 X-79.7582 Y-135.3871 I4.2024 J5.4762
G2 X-80.3298 Y-133.0403 I4.349 J2.3024
G3 X-80.3297 Y-132.9999 I-3.5999 J0.0325
G2 X-80.3254 Y-132.7782 I5.1706 J0.0114
G0 Z3.0
G0 X-52.1373 Y-130.4156
G0 Z1.0
G1 F300.0 Z-2.0
G3 F800.0 X-52.115 Y-130.0869 I-3.5736 J0.4078
G3 X-52.6266 Y-126.7986 I-9.483 J0.2085
G2 X-52.5281 Y-126.8683 I-8.4899 J-12.1096
G3 X-52.5091 Y-126.8818 I2.0906 J2.9308
G2 X-49.3608 Y-130.2173 I-6.6051 J-9.3876
G2 X-49.2443 Y-130.4156 I-10.9348 J-6.5579
G1 X-52.1373
G1 F300.0 Y-132.0156
G1 F800.0 X-69.6094
G3 X-71.6084 Y-133.9522 I0.0 J-2.0
G3 X-69.8535 Y-138.7855 I6.9281 J-0.2198
G3 X-69.8126 Y-138.83 I1.4927 J1.3312
G3 X-66.9462 Y-140.8128 I6.1502 J5.8279
G3 X-66.9396 Y-140.8155 I0.7751 J1.8437
G3 X-62.5771 Y-141.953 I6.2356 J14.9803
G3 X-58.3897 Y-142.2032 I4.0111 J31.9689
G3 X-50.6177 Y-141.5135 I0.4814 J38.7102
G3 X-50.6034 Y-141.5107 I-0.3766 J1.9642
G3 X-49.088 Y-141.142 I-3.6382 J18.2522
G2 X-49.5584 Y-141.3443 I-3.8213 J8.2372
G3 X-49.5665 Y-141.3475 I0.738 J-1.8588
G2 X-55.3799 Y-142.8508 I-8.6883 J21.6072
G3 X-55.3933 Y-142.8525 I0.2469 J-1.9847
G2 X-61.6292 Y-143.2422 I-5.9744 J45.5113
G3 X-61.6553 I-0.0114 J-2.0
G2 X-69.5737 Y-142.5766 I-0.3192 J43.6312
G3 X-69.5833 Y-142.5749 I-0.3483 J-1.9694
G2 X-76.8445 Y-140.1042 I4.133 J24.0526
G2 X-78.9103 Y-138.7456 I7.0674 J12.9956
G3 X-78.9275 Y-138.7322 I-1.2348 J-1.5733
G2 X-81.1615 Y-136.156 I5.1765 J6.7455
G2 X-81.9298 Y-133.0259 I5.7523 J3.0713
G3 X-81.9297 Y-133.0034 I-1.9999 J0.0181
G2 X-80.5529 Y-128.8961 I6.7706 J0.0149
G3 X-80.5445 Y-128.885 I-1.5933 J1.2089
G2 X-78.9224 Y-127.1627 I8.3743 J-6.2626
G3 X-78.9199 Y-127.1607 I-1.2914 J1.5272
G2 X-76.8876 Y-125.6915 I10.4637 J-12.3339
G2 X-70.4286 Y-123.0589 I11.3478 J-18.6022
G2 X-63.3192 Y-122.2812 I6.8852 J-30.0562
G3 X-63.2864 I0.0145 J1.9999
G2 X-57.0725 Y-123.0257 I0.2235 J-24.4364
G2 X-51.5989 Y-125.5657 I-4.044 J-15.8824
G3 X-51.5884 Y-125.5732 I1.1614 J1.6282
G2 X-47.9949 Y-129.384 I-7.5258 J-10.6962
G2 X-46.7574 Y-132.0156 I-12.3008 J-7.3912
G1 X-52.1373
G1 F300.0 X-53.9673 Y-130.9875
G3 F800.0 X-53.7114 Y-130.0518 I-1.7436 J0.9797
G3 X-54.3343 Y-126.8014 I-7.8865 J0.1734
G3 X-54.3652 Y-126.7323 I-1.8416 J-0.7801
G3 X-58.285 Y-123.3047 I-5.8631 J-2.75
G3 X-62.4753 Y-122.6873 I-3.9274 J-12.1271
G3 X-65.6211 Y-123.1082 I-0.0702 J-11.4433
G3 X-65.6292 Y-123.1105 I0.5375 J-1.9264
G3 X-68.6485 Y-124.6074 I2.5128 J-8.8615
G3 X-70.6581 Y-126.881 I4.3313 J-5.8534
G3 X-70.6767 Y-126.9148 I1.7416 J-0.9833
G3 X-71.4452 Y-130.0296 I5.6456 J-3.045
G3 X-69.4453 Y-132.0078 I1.9999 J0.0217
G1 X-55.7109
G3 X-53.9673 Y-130.9875 I0.0 J2.0
G1 F300.0 Z-4.0
G3 F800.0 X-53.7114 Y-130.0518 I-1.7436 J0.9797
G3 X-54.3343 Y-126.8014 I-7.8865 J0.1734
G3 X-54.3652 Y-126.7323 I-1.8416 J-0.7801
G3 X-58.285 Y-123.3047 I-5.8631 J-2.75
G3 X-62.4753 Y-122.6873 I-3.9274 J-12.1271
G3 X-65.6211 Y-123.1082 I-0.0702 J-11.4433
G3 X-65.6292 Y-123.1105 I0.5375 J-1.9264
G3 X-68.6485 Y-124.6074 I2.5128 J-8.8615
G3 X-70.6581 Y-126.881 I4.3313 J-5.8534
G3 X-70.6767 Y-126.9148 I1.7416 J-0.9833
G3 X-71.4452 Y-130.0296 I5.6456 J-3.045
G3 X-69.4453 Y-132.0078 I1.9999 J0.0217
G1 X-55.7109
G3 X-53.9673 Y-130.9875 I0.0 J2.0
G1 F300.0 X-52.1373 Y-130.4156
G3 F800.0 X-52.115 Y-130.0869 I-3.5736 J0.4078
G3 X-52.6266 Y-126.7986 I-9.483 J0.2085
G2 X-52.5281 Y-126.8683 I-8.4899 J-12.1096
G3 X-52.5091 Y-126.8818 I2.0906 J2.9308
G2 X-49.3608 Y-130.2173 I-6.6051 J-9.3876
G2 X-49.2443 Y-130.4156 I-10.9348 J-6.5579
G1 X-52.1373
G0 Z3.0
G0 X-76.0175 Y-131.7406
G0 Z-1.0
G1 F300.0 Z-4.0
G3 F800.0 X-76.406 Y-133.8 I6.4081 J-2.275
G3 X-76.4051 Y-134.5687 I11.7257 J-0.372
G2 X-76.9485 Y-133.8541 I2.6542 J2.5819
G2 X-77.13 Y-133.0692 I1.5393 J0.7693
G3 X-77.1297 Y-132.9929 I-6.7997 J0.0614
G2 X-76.729 Y-131.7974 I1.9706 J0.0043
G3 X-76.7005 Y-131.7596 I-5.4172 J4.1102
G2 X-76.1494 Y-131.1266 I4.5303 J-3.3879
G3 X-76.0175 Y-131.7406 I6.7041 J1.1188
G1 F300.0 X-74.4704 Y-131.3327
G3 F800.0 X-74.3191 Y-131.8114 I5.0251 J1.3249
G3 X-74.8068 Y-133.8507 I4.7097 J-2.2042
G3 X-74.1094 Y-137.8788 I10.1265 J-0.3213
G2 X-75.3326 Y-137.2839 I8.6591 J19.3565
G2 X-76.9346 Y-136.2283 I5.5555 J10.1752
G3 X-76.9793 Y-136.1936 I-3.2105 J-4.0906
G2 X-78.3543 Y-134.6192 I3.2284 J4.2068
G2 X-78.7299 Y-133.0548 I2.9451 J1.5345
G3 X-78.7297 Y-132.9964 I-5.1998 J0.0469
G2 X-78.0036 Y-130.8303 I3.5706 J0.0079
G3 X-77.9819 Y-130.8014 I-4.1426 J3.1431
G2 X-76.8561 Y-129.6062 I5.8117 J-4.3461
G3 X-76.8498 Y-129.6008 I-3.3577 J3.9706
G2 X-75.2203 Y-128.4228 I8.3935 J-9.8937
G2 X-74.4339 Y-127.9691 I9.6805 J-15.8709
G3 X-74.6418 Y-130.0643 I9.4028 J-1.9907
G3 X-74.4704 Y-131.3327 I5.1965 J0.0565
G1 F300.0 X-72.9233 Y-130.9248
G3 F800.0 X-72.5124 Y-131.8867 I3.4779 J0.917
G3 X-73.2076 Y-133.9015 I2.903 J-2.129
G3 X-71.0476 Y-139.8505 I8.5273 J-0.2705
G3 X-70.974 Y-139.9306 I2.6868 J2.3961
G3 X-69.9375 Y-140.8816 I7.3116 J6.9284
G2 X-76.0887 Y-138.694 I4.4872 J22.3593
G2 X-77.9225 Y-137.4869 I6.3116 J11.5853
G3 X-77.9534 Y-137.4629 I-2.2226 J-2.8319
G2 X-79.7582 Y-135.3871 I4.2024 J5.4762
G2 X-80.3298 Y-133.0403 I4.349 J2.3024
G3 X-80.3297 Y-132.9999 I-3.5999 J0.0325
G2 X-79.2783 Y-129.8632 I5.1706 J0.0114
G3 X-79.2632 Y-129.8432 I-2.8679 J2.176
G2 X-77.8892 Y-128.3844 I7.093 J-5.3043
G3 X-77.8849 Y-128.3807 I-2.3246 J2.7489
G2 X-76.054 Y-127.0571 I9.4286 J-11.1138
G2 X-71.2639 Y-124.9318 I10.5142 J-17.2366
G3 X-72.0486 Y-126.0959 I6.9467 J-5.5291
G3 X-72.0822 Y-126.1568 I3.1321 J-1.7683
G3 X-73.0419 Y-130.0469 I7.051 J-3.803
G3 X-72.9233 Y-130.9248 I3.5966 J0.0391
G1 F300.0 X-71.072 Y-132.6515
G3 F800.0 X-71.6084 Y-133.9522 I1.4626 J-1.3641
G3 X-69.8535 Y-138.7855 I6.9281 J-0.2198
G3 X-69.8126 Y-138.83 I1.4927 J1.3312
G3 X-66.9462 Y-140.8128 I6.1502 J5.8279
G3 X-66.9396 Y-140.8155 I0.7751 J1.8437
G3 X-62.5771 Y-141.953 I6.2356 J14.9803
G3 X-58.3897 Y-142.2032 I4.0111 J31.9689
G3 X-50.6177 Y-141.5135 I0.4814 J38.7102
G3 X-50.6034 Y-141.5107 I-0.3766 J1.9642
G3 X-49.088 Y-141.142 I-3.6382 J18.2522
G2 X-49.5584 Y-141.3443 I-3.8213 J8.2372
G3 X-49.5665 Y-141.3475 I0.738 J-1.8588
G2 X-55.3799 Y-142.8508 I-8.6883 J21.6072
G3 X-55.3933 Y-142.8525 I0.2469 J-1.9847
G2 X-61.6292 Y-143.2422 I-5.9744 J45.5113
G3 X-61.6553 I-0.0114 J-2.0
G2 X-69.5737 Y-142.5766 I-0.3192 J43.6312
G3 X-69.5833 Y-142.5749 I-0.3483 J-1.9694
G2 X-76.8445 Y-140.1042 I4.133 J24.0526
G2 X-78.9103 Y-138.7456 I7.0674 J12.9956
G3 X-78.9275 Y-138.7322 I-1.2348 J-1.5733
G2 X-81.1615 Y-136.156 I5.1765 J6.7455
G2 X-81.9298 Y-133.0259 I5.7523 J3.0713
G3 X-81.9297 Y-133.0034 I-1.9999 J0.0181
G2 X-80.5529 Y-128.8961 I6.7706 J0.0149
G3 X-80.5445 Y-128.885 I-1.5933 J1.2089
G2 X-78.9224 Y-127.1627 I8.3743 J-6.2626
G3 X-78.9199 Y-127.1607 I-1.2914 J1.5272
G2 X-76.8876 Y-125.6915 I10.4637 J-12.3339
G2 X-70.4286 Y-123.0589 I11.3478 J-18.6022
G2 X-63.3192 Y-122.2812 I6.8852 J-30.0562
G3 X-63.2864 I0.0145 J1.9999
G2 X-57.0725 Y-123.0257 I0.2235 J-24.4364
G2 X-51.5989 Y-125.5657 I-4.044 J-15.8824
G3 X-51.5884 Y-125.5732 I1.1614 J1.6282
G2 X-47.9949 Y-129.384 I-7.5258 J-10.6962
G2 X-46.7574 Y-132.0156 I-12.3008 J-7.3912
G1 X-69.6094
G3 X-71.072 Y-132.6515 I0.0 J-2.0
G0 Z3.0
G0 X-27.7703 Y-131.3682
G0 Z1.0
G1 F300.0 Z-2.0
G1 F800.0 Y-131.198
G3 X-27.7462 Y-131.2428 I5.9969 J3.2059
G3 X-27.7703 Y-131.3682 I15.2205 J-2.9974
G1 F300.0 X-26.198 Y-131.6644
G3 F800.0 X-26.4344 Y-134.5784 I13.6723 J-2.5758
G1 Y-138.1406
G3 X-26.3924 Y-138.8 I5.2 J0.0
G1 X-29.4123
G3 X-29.3703 Y-138.1406 I-5.158 J0.6594
G1 Y-127.4766
G3 X-29.4704 Y-126.4611 I-5.2 J0.0
G1 X-26.9734 Y-126.4022
G1 Y-127.9922
G3 X-26.0455 Y-130.9569 I5.2 J0.0
G3 X-26.198 Y-131.6644 I13.5198 J-3.2833
G1 F300.0 X-24.6256 Y-131.9606
G3 F800.0 X-24.8344 Y-134.5583 I12.0999 J-2.2796
G1 Y-138.1406
G3 X-24.0371 Y-140.4 I3.6 J0.0
G1 X-31.7676
G3 X-30.9703 Y-138.1406 I-2.8027 J2.2594
G1 Y-127.4766
G3 X-32.0347 Y-124.9211 I-3.6 J0.0
G1 X-25.3734 Y-124.764
G1 Y-127.9922
G3 X-24.2805 Y-130.5757 I3.6 J0.0
G3 X-24.6256 Y-131.9606 I11.7548 J-3.6645
G1 F300.0 X-23.0533 Y-132.2568
G3 F800.0 X-23.2344 Y-134.537 I10.5276 J-1.9833
G1 Y-138.1406
G3 X-22.1975 Y-139.8935 I2.0 J0.0
G1 X-18.3636 Y-142.0
G1 X-36.8762
G1 X-33.489 Y-139.8231
G3 X-32.5703 Y-138.1406 I-1.0813 J1.6825
G1 Y-127.4766
G3 X-33.482 Y-125.7986 I-2.0 J0.0
G1 X-37.1178 Y-123.4405
G1 X-23.7734 Y-123.1258
G1 Y-127.9922
G3 X-22.3262 Y-129.9143 I2.0 J0.0
G3 X-23.0533 Y-132.2568 I9.8005 J-4.3259
G0 Z3.0
G0 X-27.7703 Y-131.3682
G0 Z-1.0
G1 F300.0 Z-4.0
G1 F800.0 Y-131.198
G3 X-27.7462 Y-131.2428 I5.9969 J3.2059
G3 X-27.7703 Y-131.3682 I15.2205 J-2.9974
G1 F300.0 X-26.198 Y-131.6644
G3 F800.0 X-26.4344 Y-134.5784 I13.6723 J-2.5758
G1 Y-138.1406
G3 X-26.3924 Y-138.8 I5.2 J0.0
G1 X-29.4123
G3 X-29.3703 Y-138.1406 I-5.158 J0.6594
G1 Y-127.4766
G3 X-29.4704 Y-126.4611 I-5.2 J0.0
G1 X-26.9734 Y-126.4022
G1 Y-127.9922
G3 X-26.0455 Y-130.9569 I5.2 J0.0
G3 X-26.198 Y-131.6644 I13.5198 J-3.2833
G1 F300.0 X-24.6256 Y-131.9606
G3 F800.0 X-24.8344 Y-134.5583 I12.0999 J-2.2796
G1 Y-138.1406
G3 X-24.0371 Y-140.4 I3.6 J0.0
G1 X-31.7676
G3 X-30.9703 Y-138.1406 I-2.8027 J2.2594
G1 Y-127.4766
G3 X-32.0347 Y-124.9211 I-3.6 J0.0
G1 X-25.3734 Y-124.764
G1 Y-127.9922
G3 X-24.2805 Y-130.5757 I3.6 J0.0
G3 X-24.6256 Y-131.9606 I11.7548 J-3.6645
G1 F300.0 X-23.0533 Y-132.2568
G3 F800.0 X-23.2344 Y-134.537 I10.5276 J-1.9833
G1 Y-138.1406
G3 X-22.1975 Y-139.8935 I2.0 J0.0
G1 X-18.3636 Y-142.0
G1 X-36.8762
G1 X-33.489 Y-139.8231
G3 X-32.5703 Y-138.1406 I-1.0813 J1.6825
G1 Y-127.4766
G3 X-33.482 Y-125.7986 I-2.0 J0.0
G1 X-37.1178 Y-123.4405
G1 X-23.7734 Y-123.1258
G1 Y-127.9922
G3 X-22.3262 Y-129.9143 I2.0 J0.0
G3 X-23.0533 Y-132.2568 I9.8005 J-4.3259
G0 Z3.0
G0 X-5.9863 Y-127.7527
G0 Z1.0
G1 F300.0 Z-2.0
G3 F800.0 X-6.1476 Y-126.996 I-8.8281 J-1.4868
G2 X-5.3629 Y-127.4027 I-2.694 J-6.1587
G3 X-5.2715 Y-127.4567 I2.691 J4.4495
G2 X-5.0425 Y-127.6128 I-0.9254 J-1.6032
G2 X-5.1601 Y-127.6353 I-0.4687 J2.1257
G3 X-5.2258 Y-127.6465 I0.8388 J-5.1319
G2 X-5.9863 Y-127.7527 I-1.848 J10.4616
G1 F300.0 X-7.564 Y-128.0184
G3 F800.0 X-7.8412 Y-126.9086 I-7.2503 J-1.2211
G3 X-7.848 Y-126.8883 I-3.4143 J-1.1413
G3 X-9.1634 Y-124.721 I-5.5742 J-1.9001
G2 X-7.1768 Y-125.0007 I-1.1587 J-15.4195
G3 X-7.1684 Y-125.0025 I0.7322 J3.5247
G2 X-4.5349 Y-126.0336 I-1.6732 J-8.1522
G3 X-4.4716 Y-126.071 I1.863 J3.0805
G2 X-3.4287 Y-126.999 I-1.7253 J-2.989
G2 X-3.2248 Y-127.6959 I-1.0436 J-0.6836
G3 X-3.2237 Y-127.8317 I3.5998 J-0.0385
G2 X-3.3791 Y-128.5424 I-1.5156 J-0.041
G2 X-3.5462 Y-128.7124 I-0.55 J0.3736
G2 X-4.902 Y-129.2144 I-1.9651 J3.2253
G3 X-4.9475 Y-129.2221 I0.5807 J-3.5529
G2 X-7.1581 Y-129.4082 I-2.1263 J12.0372
G2 X-7.4637 Y-129.3986 I0.7546 J28.8693
G3 X-7.463 Y-129.3673 I-3.5988 J0.0939
G3 X-7.564 Y-128.0184 I-7.3513 J0.1278
G1 F300.0 X-9.1418 Y-128.2841
G3 F800.0 X-9.3587 Y-127.4158 I-5.6725 J-0.9553
G3 X-9.3624 Y-127.4046 I-1.8968 J-0.634
G3 X-11.7464 Y-124.8402 I-4.0598 J-1.3839
G3 X-11.7791 Y-124.8267 I-0.7814 J-1.841
G3 X-14.389 Y-124.3515 I-2.4558 J-6.0829
G3 X-15.7029 Y-124.4549 I-0.0179 J-8.1697
G2 X-14.7325 Y-123.9444 I5.4204 J-9.1271
G2 X-10.4978 Y-123.078 I4.1259 J-9.3837
G3 X-10.4603 Y-123.0781 I0.0212 J1.9999
G2 X-6.8514 Y-123.4342 I0.1383 J-17.0624
G3 X-6.8467 Y-123.4352 I0.4068 J1.9582
G2 X-3.7069 Y-124.6645 I-1.9949 J-9.7195
G3 X-3.6717 Y-124.6853 I1.035 J1.7114
G2 X-2.1199 Y-126.0779 I-2.5252 J-4.3747
G2 X-1.6249 Y-127.713 I-2.3524 J-1.6047
G3 X-1.6243 Y-127.7884 I1.9999 J-0.0214
G2 X-1.988 Y-129.3358 I-3.115 J-0.0842
G2 X-2.678 Y-130.0568 I-1.9411 J1.167
G2 X-4.6439 Y-130.7934 I-2.8332 J4.5697
G3 X-4.6692 Y-130.7977 I0.3226 J-1.9738
G2 X-7.1848 Y-131.008 I-2.4047 J13.6128
G2 X-9.3163 Y-130.8785 I0.7813 J30.4692
G3 X-9.0647 Y-129.398 I-5.9291 J1.7693
G3 X-9.0628 Y-129.3395 I-1.9978 J0.0933
G3 X-9.1418 Y-128.2841 I-5.7515 J0.1
G0 Z3.0
G0 X-5.9863 Y-127.7527
G0 Z-1.0
G1 F300.0 Z-4.0
G3 F800.0 X-6.1476 Y-126.996 I-8.8281 J-1.4868
G2 X-5.3629 Y-127.4027 I-2.694 J-6.1587
G3 X-5.2715 Y-127.4567 I2.691 J4.4495
G2 X-5.0425 Y-127.6128 I-0.9254 J-1.6032
G2 X-5.1601 Y-127.6353 I-0.4687 J2.1257
G3 X-5.2258 Y-127.6465 I0.8388 J-5.1319
G2 X-5.9863 Y-127.7527 I-1.848 J10.4616
G1 F300.0 X-7.564 Y-128.0184
G3 F800.0 X-7.8412 Y-126.9086 I-7.2503 J-1.2211
G3 X-7.848 Y-126.8883 I-3.4143 J-1.1413
G3 X-9.1634 Y-124.721 I-5.5742 J-1.9001
G2 X-7.1768 Y-125.0007 I-1.1587 J-15.4195
G3 X-7.1684 Y-125.0025 I0.7322 J3.5247
G2 X-4.5349 Y-126.0336 I-1.6732 J-8.1522
G3 X-4.4716 Y-126.071 I1.863 J3.0805
G2 X-3.4287 Y-126.999 I-1.7253 J-2.989
G2 X-3.2248 Y-127.6959 I-1.0436 J-0.6836
G3 X-3.2237 Y-127.8317 I3.5998 J-0.0385
G2 X-3.3791 Y-128.5424 I-1.5156 J-0.041
G2 X-3.5462 Y-128.7124 I-0.55 J0.3736
G2 X-4.902 Y-129.2144 I-1.9651 J3.2253
G3 X-4.9475 Y-129.2221 I0.5807 J-3.5529
G2 X-7.1581 Y-129.4082 I-2.1263 J12.0372
G2 X-7.4637 Y-129.3986 I0.7546 J28.8693
G3 X-7.463 Y-129.3673 I-3.5988 J0.0939
G3 X-7.564 Y-128.0184 I-7.3513 J0.1278
G1 F300.0 X-9.1418 Y-128.2841
G3 F800.0 X-9.3587 Y-127.4158 I-5.6725 J-0.9553
G3 X-9.3624 Y-127.4046 I-1.8968 J-0.634
G3 X-11.7464 Y-124.8402 I-4.0598 J-1.3839
G3 X-11.7791 Y-124.8267 I-0.7814 J-1.841
G3 X-14.389 Y-124.3515 I-2.4558 J-6.0829
G3 X-15.7029 Y-124.4549 I-0.0179 J-8.1697
G2 X-14.7325 Y-123.9444 I5.4204 J-9.1271
G2 X-10.4978 Y-123.078 I4.1259 J-9.3837
G3 X-10.4603 Y-123.0781 I0.0212 J1.9999
G2 X-6.8514 Y-123.4342 I0.1383 J-17.0624
G3 X-6.8467 Y-123.4352 I0.4068 J1.9582
G2 X-3.7069 Y-124.6645 I-1.9949 J-9.7195
G3 X-3.6717 Y-124.6853 I1.035 J1.7114
G2 X-2.1199 Y-126.0779 I-2.5252 J-4.3747
G2 X-1.6249 Y-127.713 I-2.3524 J-1.6047
G3 X-1.6243 Y-127.7884 I1.9999 J-0.0214
G2 X-1.988 Y-129.3358 I-3.115 J-0.0842
G2 X-2.678 Y-130.0568 I-1.9411 J1.167
G2 X-4.6439 Y-130.7934 I-2.8332 J4.5697
G3 X-4.6692 Y-130.7977 I0.3226 J-1.9738
G2 X-7.1848 Y-131.008 I-2.4047 J13.6128
G2 X-9.3163 Y-130.8785 I0.7813 J30.4692
G3 X-9.0647 Y-129.398 I-5.9291 J1.7693
G3 X-9.0628 Y-129.3395 I-1.9978 J0.0933
G3 X-9.1418 Y-128.2841 I-5.7515 J0.1
( Ber_Profil2mm )
G0 Z3.0
( T2 : 2.0 )
T2 M6
M3 S1000
G0 X-349.8468 Y-113.0078
G0 Z1.0
G1 F300.0 Z-2.0
G1 F800.0 X-348.992 Y-125.2725
G1 X-359.4694 Y-116.8985
G3 X-360.0938 Y-116.6797 I-0.6243 J-0.7812
G1 X-367.5703
G3 X-368.5703 Y-117.6797 I0.0 J-1.0
G1 Y-136.5234
G3 X-368.1074 Y-137.367 I1.0 J0.0
G1 X-359.2605 Y-143.0
G1 X-392.4035
G1 X-383.5567 Y-137.367
G3 X-383.0938 Y-136.5234 I-0.5371 J0.8435
G1 Y-117.6797
G3 X-384.0938 Y-116.6797 I-1.0 J0.0
G1 X-391.5703
G3 X-392.1946 Y-116.8985 I0.0 J-1.0
G1 X-402.6721 Y-125.2725
G1 X-401.8173 Y-113.0078
G1 X-349.8468
G1 F300.0 Z-4.0
G1 F800.0 X-348.992 Y-125.2725
G1 X-359.4694 Y-116.8985
G3 X-360.0938 Y-116.6797 I-0.6243 J-0.7812
G1 X-367.5703
G3 X-368.5703 Y-117.6797 I0.0 J-1.0
G1 Y-136.5234
G3 X-368.1074 Y-137.367 I1.0 J0.0
G1 X-359.2605 Y-143.0
G1 X-392.4035
G1 X-383.5567 Y-137.367
G3 X-383.0938 Y-136.5234 I-0.5371 J0.8435
G1 Y-117.6797
G3 X-384.0938 Y-116.6797 I-1.0 J0.0
G1 X-391.5703
G3 X-392.1946 Y-116.8985 I0.0 J-1.0
G1 X-402.6721 Y-125.2725
G1 X-401.8173 Y-113.0078
G1 X-349.8468
G0 Z3.0
G0 X-340.5291 Y-125.664
G0 Z1.0
G1 F300.0 Z-2.0
G2 F800.0 X-339.2993 Y-124.8379 I10.1822 J-13.8305
G2 X-332.5431 Y-122.0843 I11.8688 J-19.4558
G2 X-325.2026 Y-121.2812 I7.109 J-31.0308
G3 X-325.1862 I0.0073 J1.0
G2 X-318.7172 Y-122.0565 I0.2326 J-25.4364
G2 X-312.9088 Y-124.7516 I-4.2899 J-16.8517
G3 X-312.9036 Y-124.7553 I0.5807 J0.8141
G2 X-309.0318 Y-128.8633 I-8.1012 J-11.514
G2 X-307.3033 Y-133.0156 I-13.1545 J-7.9119
G1 X-331.5
G3 X-332.4995 Y-133.9839 I0.0 J-1.0
G3 X-330.9978 Y-138.12 I5.9286 J-0.1881
G3 X-330.9773 Y-138.1422 I0.7463 J0.6656
G3 X-328.4492 Y-139.8909 I5.4243 J5.1401
G3 X-328.446 Y-139.8923 I0.3876 J0.9218
G3 X-324.3478 Y-140.9602 I5.8514 J14.0571
G3 X-320.2769 Y-141.2032 I3.8911 J30.9761
G3 X-312.6967 Y-140.5314 I0.4779 J37.7102
G3 X-312.6895 Y-140.53 I-0.1883 J0.9821
G3 X-308.8988 Y-139.3157 I-3.4427 J17.2715
G3 X-306.8833 Y-138.1125 I-3.8798 J8.7886
G2 X-308.1161 Y-140.4508 I-3.6296 J0.4195
G3 X-308.1226 Y-140.4565 I0.656 J-0.7548
G2 X-311.08 Y-142.2737 I-6.6773 J7.5516
G3 X-311.084 Y-142.2753 I0.369 J-0.9294
G2 X-317.1471 Y-143.8431 I-9.0614 J22.535
G3 X-317.1538 Y-143.844 I0.1234 J-0.9924
G2 X-323.5256 Y-144.2422 I-6.1046 J46.5028
G3 X-323.5386 I-0.0057 J-1.0
G2 X-331.6385 Y-143.5613 I-0.3265 J44.6312
G3 X-331.6433 Y-143.5604 I-0.1742 J-0.9847
G2 X-339.2075 Y-140.9857 I4.3024 J25.0381
G2 X-341.4183 Y-139.5322 I7.5397 J13.8771
G3 X-341.4269 Y-139.5256 I-0.6174 J-0.7866
G2 X-343.929 Y-136.6368 I5.7853 J7.5388
G2 X-344.8204 Y-133.0168 I6.6292 J3.5521
G3 X-344.8203 Y-133.0056 I-1.0 J0.009
G2 X-343.2402 Y-128.2916 I7.7706 J0.0171
G3 X-343.236 Y-128.2861 I-0.7966 J0.6044
G2 X-341.4587 Y-126.3991 I9.1752 J-6.8614
G3 X-341.4575 Y-126.3981 I-0.6457 J0.7636
G2 X-340.5291 Y-125.664 I11.1106 J-13.0964
G1 F300.0 Z-4.0
G2 F800.0 X-339.2993 Y-124.8379 I10.1822 J-13.8305
G2 X-332.5431 Y-122.0843 I11.8688 J-19.4558
G2 X-325.2026 Y-121.2812 I7.109 J-31.0308
G3 X-325.1862 I0.0073 J1.0
G2 X-318.7172 Y-122.0565 I0.2326 J-25.4364
G2 X-312.9088 Y-124.7516 I-4.2899 J-16.8517
G3 X-312.9036 Y-124.7553 I0.5807 J0.8141
G2 X-309.0318 Y-128.8633 I-8.1012 J-11.514
G2 X-307.3033 Y-133.0156 I-13.1545 J-7.9119
G1 X-331.5
G3 X-332.4995 Y-133.9839 I0.0 J-1.0
G3 X-330.9978 Y-138.12 I5.9286 J-0.1881
G3 X-330.9773 Y-138.1422 I0.7463 J0.6656
G3 X-328.4492 Y-139.8909 I5.4243 J5.1401
G3 X-328.446 Y-139.8923 I0.3876 J0.9218
G3 X-324.3478 Y-140.9602 I5.8514 J14.0571
G3 X-320.2769 Y-141.2032 I3.8911 J30.9761
G3 X-312.6967 Y-140.5314 I0.4779 J37.7102
G3 X-312.6895 Y-140.53 I-0.1883 J0.9821
G3 X-308.8988 Y-139.3157 I-3.4427 J17.2715
G3 X-306.8833 Y-138.1125 I-3.8798 J8.7886
G2 X-308.1161 Y-140.4508 I-3.6296 J0.4195
G3 X-308.1226 Y-140.4565 I0.656 J-0.7548
G2 X-311.08 Y-142.2737 I-6.6773 J7.5516
G3 X-311.084 Y-142.2753 I0.369 J-0.9294
G2 X-317.1471 Y-143.8431 I-9.0614 J22.535
G3 X-317.1538 Y-143.844 I0.1234 J-0.9924
G2 X-323.5256 Y-144.2422 I-6.1046 J46.5028
G3 X-323.5386 I-0.0057 J-1.0
G2 X-331.6385 Y-143.5613 I-0.3265 J44.6312
G3 X-331.6433 Y-143.5604 I-0.1742 J-0.9847
G2 X-339.2075 Y-140.9857 I4.3024 J25.0381
G2 X-341.4183 Y-139.5322 I7.5397 J13.8771
G3 X-341.4269 Y-139.5256 I-0.6174 J-0.7866
G2 X-343.929 Y-136.6368 I5.7853 J7.5388
G2 X-344.8204 Y-133.0168 I6.6292 J3.5521
G3 X-344.8203 Y-133.0056 I-1.0 J0.009
G2 X-343.2402 Y-128.2916 I7.7706 J0.0171
G3 X-343.236 Y-128.2861 I-0.7966 J0.6044
G2 X-341.4587 Y-126.3991 I9.1752 J-6.8614
G3 X-341.4575 Y-126.3981 I-0.6457 J0.7636
G2 X-340.5291 Y-125.664 I11.1106 J-13.0964
G0 Z3.0
G0 X-332.085 Y-128.3298
G0 Z1.0
G1 F300.0 Z-2.0
G3 F800.0 X-332.3359 Y-130.0187 I5.1633 J-1.63
G3 X-331.3359 Y-131.0078 I0.9999 J0.0109
G1 X-317.6016
G3 X-316.6018 Y-130.0298 I0.0 J1.0
G3 X-317.1458 Y-127.1915 I-6.8868 J0.1515
G3 X-317.1612 Y-127.1569 I-0.9208 J-0.3901
G3 X-320.4796 Y-124.2574 I-4.9578 J-2.3253
G3 X-324.3587 Y-123.6874 I-3.6234 J-11.1744
G3 X-327.243 Y-124.0714 I-0.0774 J-10.4433
G3 X-327.247 Y-124.0725 I0.2688 J-0.9632
G3 X-329.9414 Y-125.4092 I2.24 J-7.8995
G3 X-331.6779 Y-127.3726 I3.7336 J-5.0517
G3 X-331.6872 Y-127.3895 I0.8708 J-0.4916
G3 X-332.085 Y-128.3298 I4.7655 J-2.5703
G1 F300.0 Z-4.0
G3 F800.0 X-332.3359 Y-130.0187 I5.1633 J-1.63
G3 X-331.3359 Y-131.0078 I0.9999 J0.0109
G1 X-317.6016
G3 X-316.6018 Y-130.0298 I0.0 J1.0
G3 X-317.1458 Y-127.1915 I-6.8868 J0.1515
G3 X-317.1612 Y-127.1569 I-0.9208 J-0.3901
G3 X-320.4796 Y-124.2574 I-4.9578 J-2.3253
G3 X-324.3587 Y-123.6874 I-3.6234 J-11.1744
G3 X-327.243 Y-124.0714 I-0.0774 J-10.4433
G3 X-327.247 Y-124.0725 I0.2688 J-0.9632
G3 X-329.9414 Y-125.4092 I2.24 J-7.8995
G3 X-331.6779 Y-127.3726 I3.7336 J-5.0517
G3 X-331.6872 Y-127.3895 I0.8708 J-0.4916
G3 X-332.085 Y-128.3298 I4.7655 J-2.5703
G0 Z3.0
G0 X-301.4473 Y-122.0547
G0 Z1.0
G1 F300.0 Z-2.0
G1 F800.0 X-277.2967
G1 X-280.1327 Y-124.5725
G3 X-280.0337 Y-126.1454 I0.6639 J-0.7478
G1 X-275.2759 Y-129.4032
G3 X-274.1837 Y-129.4278 I0.565 J0.8251
G1 X-268.9337 Y-126.17
G3 X-268.7952 Y-124.5741 I-0.5273 J0.8497
G1 X-271.6192 Y-122.0547
G1 X-253.633
G1 X-256.1665 Y-123.3795
G3 X-256.2128 Y-123.4053 I0.4634 J-0.8862
G1 X-269.1503 Y-131.0693
G3 X-269.1566 Y-132.7863 I0.5097 J-0.8604
G1 X-255.305 Y-141.13
G3 X-255.2117 Y-141.1798 I0.516 J0.8566
G1 X-251.3079 Y-143.0
G1 X-274.2223
G1 X-271.9693 Y-141.6462
G3 X-271.9784 Y-139.9265 I-0.515 J0.8572
G1 X-277.9315 Y-136.4343
G3 X-278.9241 Y-136.4233 I-0.506 J-0.8625
G1 X-284.2679 Y-139.3998
G3 X-284.3533 Y-141.0937 I0.4866 J-0.8736
G1 X-281.6197 Y-143.0
G1 X-300.6734
G1 X-296.5294 Y-141.1898
G3 X-296.4527 Y-141.1523 I-0.4003 J0.9164
G1 X-283.8433 Y-134.3086
G3 X-283.792 Y-132.5806 I-0.477 J0.8789
G1 X-297.6904 Y-123.9322
G3 X-297.7727 Y-123.8863 I-0.5283 J-0.849
G1 X-301.4473 Y-122.0547
G1 F300.0 Z-4.0
G1 F800.0 X-277.2967
G1 X-280.1327 Y-124.5725
G3 X-280.0337 Y-126.1454 I0.6639 J-0.7478
G1 X-275.2759 Y-129.4032
G3 X-274.1837 Y-129.4278 I0.565 J0.8251
G1 X-268.9337 Y-126.17
G3 X-268.7952 Y-124.5741 I-0.5273 J0.8497
G1 X-271.6192 Y-122.0547
G1 X-253.633
G1 X-256.1665 Y-123.3795
G3 X-256.2128 Y-123.4053 I0.4634 J-0.8862
G1 X-269.1503 Y-131.0693
G3 X-269.1566 Y-132.7863 I0.5097 J-0.8604
G1 X-255.305 Y-141.13
G3 X-255.2117 Y-141.1798 I0.516 J0.8566
G1 X-251.3079 Y-143.0
G1 X-274.2223
G1 X-271.9693 Y-141.6462
G3 X-271.9784 Y-139.9265 I-0.515 J0.8572
G1 X-277.9315 Y-136.4343
G3 X-278.9241 Y-136.4233 I-0.506 J-0.8625
G1 X-284.2679 Y-139.3998
G3 X-284.3533 Y-141.0937 I0.4866 J-0.8736
G1 X-281.6197 Y-143.0
G1 X-300.6734
G1 X-296.5294 Y-141.1898
G3 X-296.4527 Y-141.1523 I-0.4003 J0.9164
G1 X-283.8433 Y-134.3086
G3 X-283.792 Y-132.5806 I-0.477 J0.8789
G1 X-297.6904 Y-123.9322
G3 X-297.7727 Y-123.8863 I-0.5283 J-0.849
G1 X-301.4473 Y-122.0547
G0 Z3.0
G0 X-247.8828 Y-124.4279
G0 Z1.0
G1 F300.0 Z-2.0
G3 F800.0 X-242.6082 Y-122.7694 I-6.3519 J29.4186
G3 X-237.0116 Y-119.8652 I-14.8614 J35.4834
G3 X-232.3857 Y-116.4612 I-17.933 J29.2156
G3 X-229.3281 Y-113.1368 I-12.9679 J14.9951
G1 Y-121.0547
G3 X-228.3281 Y-122.0547 I1.0 J0.0
G1 X-220.9084
G1 X-222.7755 Y-124.6953
G1 X-228.3281
G3 X-229.3281 Y-125.6953 I0.0 J-1.0
G1 Y-135.3818
G3 X-228.8227 Y-138.4353 I7.9304 J-0.2559
G3 X-228.8223 Y-138.4362 I0.9358 J0.3526
G3 X-225.592 Y-140.5706 I3.0924 J1.1684
G3 X-223.6706 Y-140.3187 I0.0667 J6.9441
G3 X-221.079 Y-138.2823 I-1.0622 J4.0191
G3 X-221.0586 Y-138.2427 I-0.8789 J0.477
G3 X-220.4378 Y-135.3247 I-5.5742 J2.711
G3 X-220.5265 Y-134.1991 I-9.6576 J-0.1948
G2 X-219.0599 Y-135.5041 I-1.2094 J-2.8358
G2 X-218.5933 Y-137.5956 I-3.8811 J-1.9637
G3 X-218.5937 Y-137.6333 I0.9996 J-0.0294
G2 X-218.821 Y-139.4062 I-6.5987 J-0.0551
G2 X-220.4006 Y-141.8537 I-4.6603 J1.2744
G2 X-222.3694 Y-143.0046 I-4.6256 J5.6534
G2 X-225.8891 Y-143.8767 I-5.2468 J13.637
G3 X-225.8957 Y-143.8775 I0.1182 J-0.993
G2 X-229.6352 Y-144.1016 I-3.5832 J28.4788
G3 X-229.6472 I-0.0054 J-1.0
G2 X-233.8158 Y-143.6666 I-0.1254 J18.9897
G2 X-237.6536 Y-142.1935 I2.9155 J13.3314
G3 X-237.6657 Y-142.1867 I-0.4949 J-0.869
G2 X-239.8158 Y-140.442 I3.7748 J6.849
G2 X-240.6641 Y-138.1615 I2.6934 J2.2999
G1 Y-125.6953
G3 X-241.6641 Y-124.6953 I-1.0 J0.0
G1 X-247.8828
G1 Y-124.4279
G1 F300.0 Z-4.0
G3 F800.0 X-242.6082 Y-122.7694 I-6.3519 J29.4186
G3 X-237.0116 Y-119.8652 I-14.8614 J35.4834
G3 X-232.3857 Y-116.4612 I-17.933 J29.2156
G3 X-229.3281 Y-113.1368 I-12.9679 J14.9951
G1 Y-121.0547
G3 X-228.3281 Y-122.0547 I1.0 J0.0
G1 X-220.9084
G1 X-222.7755 Y-124.6953
G1 X-228.3281
G3 X-229.3281 Y-125.6953 I0.0 J-1.0
G1 Y-135.3818
G3 X-228.8227 Y-138.4353 I7.9304 J-0.2559
G3 X-228.8223 Y-138.4362 I0.9358 J0.3526
G3 X-225.592 Y-140.5706 I3.0924 J1.1684
G3 X-223.6706 Y-140.3187 I0.0667 J6.9441
G3 X-221.079 Y-138.2823 I-1.0622 J4.0191
G3 X-221.0586 Y-138.2427 I-0.8789 J0.477
G3 X-220.4378 Y-135.3247 I-5.5742 J2.711
G3 X-220.5265 Y-134.1991 I-9.6576 J-0.1948
G2 X-219.0599 Y-135.5041 I-1.2094 J-2.8358
G2 X-218.5933 Y-137.5956 I-3.8811 J-1.9637
G3 X-218.5937 Y-137.6333 I0.9996 J-0.0294
G2 X-218.821 Y-139.4062 I-6.5987 J-0.0551
G2 X-220.4006 Y-141.8537 I-4.6603 J1.2744
G2 X-222.3694 Y-143.0046 I-4.6256 J5.6534
G2 X-225.8891 Y-143.8767 I-5.2468 J13.637
G3 X-225.8957 Y-143.8775 I0.1182 J-0.993
G2 X-229.6352 Y-144.1016 I-3.5832 J28.4788
G3 X-229.6472 I-0.0054 J-1.0
G2 X-233.8158 Y-143.6666 I-0.1254 J18.9897
G2 X-237.6536 Y-142.1935 I2.9155 J13.3314
G3 X-237.6657 Y-142.1867 I-0.4949 J-0.869
G2 X-239.8158 Y-140.442 I3.7748 J6.849
G2 X-240.6641 Y-138.1615 I2.6934 J2.2999
G1 Y-125.6953
G3 X-241.6641 Y-124.6953 I-1.0 J0.0
G1 X-247.8828
G1 Y-124.4279
G0 Z3.0
G0 X-213.9831 Y-122.5156
G0 Z1.0
G1 F300.0 Z-2.0
G1 F800.0 X-195.8359 Y-122.079
G1 Y-138.1406
G3 X-195.3856 Y-138.976 I1.0 J0.0
G1 X-189.2691 Y-143.0
G1 X-213.8513
G1 X-207.6293 Y-138.9806
G3 X-207.1719 Y-138.1406 I-0.5426 J0.84
G1 Y-127.4766
G3 X-207.6277 Y-126.6376 I-1.0 J0.0
G1 X-213.9831 Y-122.5156
G1 F300.0 Z-4.0
G1 F800.0 X-195.8359 Y-122.079
G1 Y-138.1406
G3 X-195.3856 Y-138.976 I1.0 J0.0
G1 X-189.2691 Y-143.0
G1 X-213.8513
G1 X-207.6293 Y-138.9806
G3 X-207.1719 Y-138.1406 I-0.5426 J0.84
G1 Y-127.4766
G3 X-207.6277 Y-126.6376 I-1.0 J0.0
G1 X-213.9831 Y-122.5156
G0 Z3.0
G0 X-207.3055 Y-116.5187
G0 Z1.0
G1 F300.0 Z-2.0
G2 F800.0 X-207.4819 Y-116.3107 I3.577 J3.2124
G2 X-207.9218 Y-115.0767 I1.5766 J1.2575
G2 X-207.486 Y-113.8395 I2.0243 J-0.0178
G2 X-206.2691 Y-112.7683 I3.6373 J-2.905
G3 X-206.251 Y-112.757 I-0.52 J0.8542
G2 X-201.9085 Y-111.5311 I4.2032 J-6.585
G3 X-201.8728 I0.0178 J0.9998
G2 X-197.5302 Y-112.757 I0.1393 J-7.8111
G3 X-197.5149 Y-112.7666 I0.538 J0.8429
G2 X-196.2817 Y-113.8472 I-2.5399 J-4.1425
G2 X-195.836 Y-115.0771 I-1.5522 J-1.2581
G2 X-196.282 Y-116.2909 I-1.9606 J0.0316
G3 X-196.2829 Y-116.292 I0.7724 J-0.6351
G2 X-197.515 Y-117.3663 I-3.804 J3.1191
G3 X-197.5302 Y-117.3758 I0.5228 J-0.8524
G2 X-201.8728 Y-118.6017 I-4.2032 J6.585
G3 X-201.9087 I-0.0178 J-0.9998
G2 X-206.2583 Y-117.3946 I-0.1432 J7.9245
G3 X-206.2621 Y-117.3923 I-0.5307 J-0.8475
G2 X-207.3055 Y-116.5187 I2.5336 J4.086
G1 F300.0 Z-4.0
G2 F800.0 X-207.4819 Y-116.3107 I3.577 J3.2124
G2 X-207.9218 Y-115.0767 I1.5766 J1.2575
G2 X-207.486 Y-113.8395 I2.0243 J-0.0178
G2 X-206.2691 Y-112.7683 I3.6373 J-2.905
G3 X-206.251 Y-112.757 I-0.52 J0.8542
G2 X-201.9085 Y-111.5311 I4.2032 J-6.585
G3 X-201.8728 I0.0178 J0.9998
G2 X-197.5302 Y-112.757 I0.1393 J-7.8111
G3 X-197.5149 Y-112.7666 I0.538 J0.8429
G2 X-196.2817 Y-113.8472 I-2.5399 J-4.1425
G2 X-195.836 Y-115.0771 I-1.5522 J-1.2581
G2 X-196.282 Y-116.2909 I-1.9606 J0.0316
G3 X-196.2829 Y-116.292 I0.7724 J-0.6351
G2 X-197.515 Y-117.3663 I-3.804 J3.1191
G3 X-197.5302 Y-117.3758 I0.5228 J-0.8524
G2 X-201.8728 Y-118.6017 I-4.2032 J6.585
G3 X-201.9087 I-0.0178 J-0.9998
G2 X-206.2583 Y-117.3946 I-0.1432 J7.9245
G3 X-206.2621 Y-117.3923 I-0.5307 J-0.8475
G2 X-207.3055 Y-116.5187 I2.5336 J4.086
G0 Z3.0
G0 X-185.8242 Y-111.8513
G0 Z1.0
G1 F300.0 Z-2.0
G1 F800.0 X-167.6875 Y-111.415
G1 Y-138.1406
G3 X-167.2301 Y-138.9806 I1.0 J0.0
G1 X-161.0081 Y-143.0
G1 X-185.7028
G1 X-179.4808 Y-138.9806
G3 X-179.0234 Y-138.1406 I-0.5426 J0.84
G1 Y-116.7891
G3 X-179.4808 Y-115.9491 I-1.0 J0.0
G1 X-185.8242 Y-111.8513
G1 F300.0 Z-4.0
G1 F800.0 X-167.6875 Y-111.415
G1 Y-138.1406
G3 X-167.2301 Y-138.9806 I1.0 J0.0
G1 X-161.0081 Y-143.0
G1 X-185.7028
G1 X-179.4808 Y-138.9806
G3 X-179.0234 Y-138.1406 I-0.5426 J0.84
G1 Y-116.7891
G3 X-179.4808 Y-115.9491 I-1.0 J0.0
G1 X-185.8242 Y-111.8513
G0 Z3.0
G0 X-159.4528 Y-122.0547
G0 Z1.0
G1 F300.0 Z-2.0
G1 F800.0 X-137.1489
G1 X-140.7712 Y-125.6929
G3 X-140.8737 Y-126.9832 I0.7087 J-0.7056
G1 X-134.3346 Y-136.0536
G3 X-132.6459 Y-135.9482 I0.8112 J0.5848
G1 X-127.3959 Y-126.3388
G3 X-127.6394 Y-125.0861 I-0.8776 J0.4795
G1 X-131.3362 Y-122.0547
G1 X-108.1258
G1 X-112.2218 Y-125.6466
G3 X-112.3735 Y-126.9834 I0.6593 J-0.7519
G1 X-105.4595 Y-136.5694
G3 X-103.7795 Y-136.4794 I0.811 J0.585
G1 X-98.3186 Y-126.8934
G3 X-98.4972 Y-125.6749 I-0.8689 J0.495
G1 X-102.2921 Y-122.0547
G1 X-85.5116
G1 X-91.0933 Y-125.551
G3 X-91.4144 Y-125.8747 I0.5308 J-0.8475
G1 X-99.9456 Y-139.7497
G3 X-99.7066 Y-141.0636 I0.8519 J-0.5238
G1 X-97.21 Y-143.0
G1 X-118.0868
G1 X-115.5903 Y-141.0636
G3 X-115.3837 Y-139.7003 I-0.6129 J0.7902
G1 X-121.5478 Y-130.8878
G3 X-123.2213 Y-130.9408 I-0.8194 J-0.5732
G1 X-128.5884 Y-139.7533
G3 X-128.3472 Y-141.0636 I0.8541 J-0.5202
G1 X-125.8507 Y-143.0
G1 X-148.2963
G1 X-144.5862 Y-139.9698
G3 X-144.3982 Y-138.6237 I-0.6326 J0.7745
G1 X-152.9529 Y-126.3425
G3 X-153.2308 Y-126.0741 I-0.8206 J-0.5716
G1 X-159.4528 Y-122.0547
G1 F300.0 Z-4.0
G1 F800.0 X-137.1489
G1 X-140.7712 Y-125.6929
G3 X-140.8737 Y-126.9832 I0.7087 J-0.7056
G1 X-134.3346 Y-136.0536
G3 X-132.6459 Y-135.9482 I0.8112 J0.5848
G1 X-127.3959 Y-126.3388
G3 X-127.6394 Y-125.0861 I-0.8776 J0.4795
G1 X-131.3362 Y-122.0547
G1 X-108.1258
G1 X-112.2218 Y-125.6466
G3 X-112.3735 Y-126.9834 I0.6593 J-0.7519
G1 X-105.4595 Y-136.5694
G3 X-103.7795 Y-136.4794 I0.811 J0.585
G1 X-98.3186 Y-126.8934
G3 X-98.4972 Y-125.6749 I-0.8689 J0.495
G1 X-102.2921 Y-122.0547
G1 X-85.5116
G1 X-91.0933 Y-125.551
G3 X-91.4144 Y-125.8747 I0.5308 J-0.8475
G1 X-99.9456 Y-139.7497
G3 X-99.7066 Y-141.0636 I0.8519 J-0.5238
G1 X-97.21 Y-143.0
G1 X-118.0868
G1 X-115.5903 Y-141.0636
G3 X-115.3837 Y-139.7003 I-0.6129 J0.7902
G1 X-121.5478 Y-130.8878
G3 X-123.2213 Y-130.9408 I-0.8194 J-0.5732
G1 X-128.5884 Y-139.7533
G3 X-128.3472 Y-141.0636 I0.8541 J-0.5202
G1 X-125.8507 Y-143.0
G1 X-148.2963
G1 X-144.5862 Y-139.9698
G3 X-144.3982 Y-138.6237 I-0.6326 J0.7745
G1 X-152.9529 Y-126.3425
G3 X-153.2308 Y-126.0741 I-0.8206 J-0.5716
G1 X-159.4528 Y-122.0547
G0 Z3.0
G0 X-82.8652 Y-131.989
G0 Z1.0
G1 F300.0 Z-2.0
G2 F800.0 X-81.3495 Y-128.2916 I7.706 J-0.9996
G3 X-81.3454 Y-128.2861 I-0.7966 J0.6044
G2 X-79.5681 Y-126.3991 I9.1752 J-6.8614
G3 X-79.5669 Y-126.3981 I-0.6457 J0.7636
G2 X-77.4087 Y-124.8379 I11.1106 J-13.0964
G2 X-70.6524 Y-122.0843 I11.8688 J-19.4558
G2 X-63.312 Y-121.2812 I7.109 J-31.0308
G3 X-63.2955 I0.0073 J1.0
G2 X-56.8266 Y-122.0565 I0.2326 J-25.4364
G2 X-51.0182 Y-124.7516 I-4.2899 J-16.8517
G3 X-51.0129 Y-124.7553 I0.5807 J0.8141
G2 X-47.1412 Y-128.8633 I-8.1012 J-11.514
G2 X-45.4126 Y-133.0156 I-13.1545 J-7.9119
G1 X-69.6094
G3 X-70.6089 Y-133.9839 I0.0 J-1.0
G3 X-69.1072 Y-138.12 I5.9286 J-0.1881
G3 X-69.0867 Y-138.1422 I0.7463 J0.6656
G3 X-66.5586 Y-139.8909 I5.4243 J5.1401
G3 X-66.5553 Y-139.8923 I0.3876 J0.9218
G3 X-62.4572 Y-140.9602 I5.8514 J14.0571
G3 X-58.3863 Y-141.2032 I3.8911 J30.9761
G3 X-50.8061 Y-140.5314 I0.4779 J37.7102
G3 X-50.7989 Y-140.53 I-0.1883 J0.9821
G3 X-47.0082 Y-139.3157 I-3.4427 J17.2715
G3 X-44.9926 Y-138.1125 I-3.8798 J8.7886
G2 X-46.2255 Y-140.4508 I-3.6296 J0.4195
G3 X-46.2319 Y-140.4565 I0.656 J-0.7548
G2 X-49.1893 Y-142.2737 I-6.6773 J7.5516
G3 X-49.1934 Y-142.2753 I0.369 J-0.9294
G2 X-55.2564 Y-143.8431 I-9.0614 J22.535
G3 X-55.2632 Y-143.844 I0.1234 J-0.9924
G2 X-61.6349 Y-144.2422 I-6.1046 J46.5028
G3 X-61.6479 I-0.0057 J-1.0
G2 X-69.7479 Y-143.5613 I-0.3265 J44.6312
G3 X-69.7527 Y-143.5604 I-0.1742 J-0.9847
G2 X-77.3168 Y-140.9857 I4.3024 J25.0381
G2 X-79.5277 Y-139.5322 I7.5397 J13.8771
G3 X-79.5363 Y-139.5256 I-0.6174 J-0.7866
G2 X-82.0384 Y-136.6368 I5.7853 J7.5388
G2 X-82.9297 Y-133.0168 I6.6292 J3.5521
G3 Y-133.0056 I-1.0 J0.009
G2 X-82.8652 Y-131.989 I7.7706 J0.0171
G1 F300.0 Z-4.0
G2 F800.0 X-81.3495 Y-128.2916 I7.706 J-0.9996
G3 X-81.3454 Y-128.2861 I-0.7966 J0.6044
G2 X-79.5681 Y-126.3991 I9.1752 J-6.8614
G3 X-79.5669 Y-126.3981 I-0.6457 J0.7636
G2 X-77.4087 Y-124.8379 I11.1106 J-13.0964
G2 X-70.6524 Y-122.0843 I11.8688 J-19.4558
G2 X-63.312 Y-121.2812 I7.109 J-31.0308
G3 X-63.2955 I0.0073 J1.0
G2 X-56.8266 Y-122.0565 I0.2326 J-25.4364
G2 X-51.0182 Y-124.7516 I-4.2899 J-16.8517
G3 X-51.0129 Y-124.7553 I0.5807 J0.8141
G2 X-47.1412 Y-128.8633 I-8.1012 J-11.514
G2 X-45.4126 Y-133.0156 I-13.1545 J-7.9119
G1 X-69.6094
G3 X-70.6089 Y-133.9839 I0.0 J-1.0
G3 X-69.1072 Y-138.12 I5.9286 J-0.1881
G3 X-69.0867 Y-138.1422 I0.7463 J0.6656
G3 X-66.5586 Y-139.8909 I5.4243 J5.1401
G3 X-66.5553 Y-139.8923 I0.3876 J0.9218
G3 X-62.4572 Y-140.9602 I5.8514 J14.0571
G3 X-58.3863 Y-141.2032 I3.8911 J30.9761
G3 X-50.8061 Y-140.5314 I0.4779 J37.7102
G3 X-50.7989 Y-140.53 I-0.1883 J0.9821
G3 X-47.0082 Y-139.3157 I-3.4427 J17.2715
G3 X-44.9926 Y-138.1125 I-3.8798 J8.7886
G2 X-46.2255 Y-140.4508 I-3.6296 J0.4195
G3 X-46.2319 Y-140.4565 I0.656 J-0.7548
G2 X-49.1893 Y-142.2737 I-6.6773 J7.5516
G3 X-49.1934 Y-142.2753 I0.369 J-0.9294
G2 X-55.2564 Y-143.8431 I-9.0614 J22.535
G3 X-55.2632 Y-143.844 I0.1234 J-0.9924
G2 X-61.6349 Y-144.2422 I-6.1046 J46.5028
G3 X-61.6479 I-0.0057 J-1.0
G2 X-69.7479 Y-143.5613 I-0.3265 J44.6312
G3 X-69.7527 Y-143.5604 I-0.1742 J-0.9847
G2 X-77.3168 Y-140.9857 I4.3024 J25.0381
G2 X-79.5277 Y-139.5322 I7.5397 J13.8771
G3 X-79.5363 Y-139.5256 I-0.6174 J-0.7866
G2 X-82.0384 Y-136.6368 I5.7853 J7.5388
G2 X-82.9297 Y-133.0168 I6.6292 J3.5521
G3 Y-133.0056 I-1.0 J0.009
G2 X-82.8652 Y-131.989 I7.7706 J0.0171
G0 Z3.0
G0 X-70.4346 Y-130.1539
G0 Z1.0
G1 F300.0 Z-2.0
G3 F800.0 X-69.4453 Y-131.0078 I0.9893 J0.146
G1 X-55.7109
G3 X-54.7112 Y-130.0298 I0.0 J1.0
G3 X-55.2551 Y-127.1915 I-6.8868 J0.1515
G3 X-55.2706 Y-127.1569 I-0.9208 J-0.3901
G3 X-58.589 Y-124.2574 I-4.9578 J-2.3253
G3 X-62.4681 Y-123.6874 I-3.6234 J-11.1744
G3 X-65.3523 Y-124.0714 I-0.0774 J-10.4433
G3 X-65.3564 Y-124.0725 I0.2688 J-0.9632
G3 X-68.0508 Y-125.4092 I2.24 J-7.8995
G3 X-69.7873 Y-127.3726 I3.7336 J-5.0517
G3 X-69.7966 Y-127.3895 I0.8708 J-0.4916
G3 X-70.4453 Y-130.0187 I4.7655 J-2.5703
G3 X-70.4346 Y-130.1539 I0.9999 J0.0109
G1 F300.0 Z-4.0
G3 F800.0 X-69.4453 Y-131.0078 I0.9893 J0.146
G1 X-55.7109
G3 X-54.7112 Y-130.0298 I0.0 J1.0
G3 X-55.2551 Y-127.1915 I-6.8868 J0.1515
G3 X-55.2706 Y-127.1569 I-0.9208 J-0.3901
G3 X-58.589 Y-124.2574 I-4.9578 J-2.3253
G3 X-62.4681 Y-123.6874 I-3.6234 J-11.1744
G3 X-65.3523 Y-124.0714 I-0.0774 J-10.4433
G3 X-65.3564 Y-124.0725 I0.2688 J-0.9632
G3 X-68.0508 Y-125.4092 I2.24 J-7.8995
G3 X-69.7873 Y-127.3726 I3.7336 J-5.0517
G3 X-69.7966 Y-127.3895 I0.8708 J-0.4916
G3 X-70.4453 Y-130.0187 I4.7655 J-2.5703
G3 X-70.4346 Y-130.1539 I0.9999 J0.0109
G0 Z3.0
G0 X-40.3792 Y-122.5171
G0 Z1.0
G1 F300.0 Z-2.0
G1 F800.0 X-22.7734 Y-122.102
G1 Y-127.9922
G3 X-20.9158 Y-128.5064 I1.0 J0.0
G2 X-18.9743 Y-125.8769 I14.6377 J-8.7761
G3 X-18.9702 Y-125.8723 I-0.7439 J0.6683
G2 X-15.1434 Y-123.0327 I8.6877 J-7.7096
G2 X-10.4872 Y-122.0781 I4.5368 J-10.2954
G3 X-10.4685 I0.0106 J0.9999
G2 X-6.648 Y-122.4551 I0.1464 J-18.0624
G3 X-6.6456 Y-122.4556 I0.2034 J0.9791
G2 X-3.1894 Y-123.8088 I-2.196 J-10.6991
G3 X-3.1718 Y-123.8192 I0.5175 J0.8557
G2 X-1.3034 Y-125.5004 I-3.0251 J-5.2407
G2 X-0.6249 Y-127.7237 I-3.1689 J-2.1822
G3 X-0.6246 Y-127.7614 I0.9999 J-0.0107
G2 X-1.1172 Y-129.828 I-4.1146 J-0.1113
G2 X-2.1389 Y-130.8992 I-2.8119 J1.6592
G2 X-4.4826 Y-131.7803 I-3.3723 J5.4121
G3 X-4.4952 Y-131.7825 I0.1613 J-0.9869
G2 X-7.2017 Y-132.0079 I-2.5786 J14.5976
G2 X-10.7464 Y-131.717 I0.7982 J31.4691
G3 X-10.5951 Y-131.4081 I-10.53 J5.3487
G3 X-10.0636 Y-129.3514 I-4.6502 J2.2989
G3 X-10.0627 Y-129.3221 I-0.9989 J0.0467
G3 X-10.3071 Y-127.7328 I-4.7517 J0.0826
G3 X-10.309 Y-127.7272 I-0.9484 J-0.317
G3 X-12.1371 Y-125.7607 I-3.1133 J-1.0612
G3 X-12.1535 Y-125.7539 I-0.3907 J-0.9205
G3 X-14.3783 Y-125.3515 I-2.0814 J-5.1556
G3 X-20.0462 Y-128.0936 I-0.0286 J-7.1697
G3 X-22.2344 Y-134.5228 I7.5205 J-6.1466
G1 Y-138.1406
G3 X-21.7159 Y-139.017 I1.0 J0.0
G1 X-14.4669 Y-143.0
G1 X-40.2819
G1 X-34.0297 Y-138.9819
G3 X-33.5703 Y-138.1406 I-0.5406 J0.8412
G1 Y-127.4766
G3 X-34.0262 Y-126.6376 I-1.0 J0.0
G1 X-40.3792 Y-122.5171
G1 F300.0 Z-4.0
G1 F800.0 X-22.7734 Y-122.102
G1 Y-127.9922
G3 X-20.9158 Y-128.5064 I1.0 J0.0
G2 X-18.9743 Y-125.8769 I14.6377 J-8.7761
G3 X-18.9702 Y-125.8723 I-0.7439 J0.6683
G2 X-15.1434 Y-123.0327 I8.6877 J-7.7096
G2 X-10.4872 Y-122.0781 I4.5368 J-10.2954
G3 X-10.4685 I0.0106 J0.9999
G2 X-6.648 Y-122.4551 I0.1464 J-18.0624
G3 X-6.6456 Y-122.4556 I0.2034 J0.9791
G2 X-3.1894 Y-123.8088 I-2.196 J-10.6991
G3 X-3.1718 Y-123.8192 I0.5175 J0.8557
G2 X-1.3034 Y-125.5004 I-3.0251 J-5.2407
G2 X-0.6249 Y-127.7237 I-3.1689 J-2.1822
G3 X-0.6246 Y-127.7614 I0.9999 J-0.0107
G2 X-1.1172 Y-129.828 I-4.1146 J-0.1113
G2 X-2.1389 Y-130.8992 I-2.8119 J1.6592
G2 X-4.4826 Y-131.7803 I-3.3723 J5.4121
G3 X-4.4952 Y-131.7825 I0.1613 J-0.9869
G2 X-7.2017 Y-132.0079 I-2.5786 J14.5976
G2 X-10.7464 Y-131.717 I0.7982 J31.4691
G3 X-10.5951 Y-131.4081 I-10.53 J5.3487
G3 X-10.0636 Y-129.3514 I-4.6502 J2.2989
G3 X-10.0627 Y-129.3221 I-0.9989 J0.0467
G3 X-10.3071 Y-127.7328 I-4.7517 J0.0826
G3 X-10.309 Y-127.7272 I-0.9484 J-0.317
G3 X-12.1371 Y-125.7607 I-3.1133 J-1.0612
G3 X-12.1535 Y-125.7539 I-0.3907 J-0.9205
G3 X-14.3783 Y-125.3515 I-2.0814 J-5.1556
G3 X-20.0462 Y-128.0936 I-0.0286 J-7.1697
G3 X-22.2344 Y-134.5228 I7.5205 J-6.1466
G1 Y-138.1406
G3 X-21.7159 Y-139.017 I1.0 J0.0
G1 X-14.4669 Y-143.0
G1 X-40.2819
G1 X-34.0297 Y-138.9819
G3 X-33.5703 Y-138.1406 I-0.5406 J0.8412
G1 Y-127.4766
G3 X-34.0262 Y-126.6376 I-1.0 J0.0
G1 X-40.3792 Y-122.5171
G0 Z3.0
M5
M30
