( Made using CamBam - http://www.cambam.co.uk )
( Beratex 4/21/2024 9:26:35 AM )
( Post processor: Default )
( T2 : 2.0 )
( T4 : 4.0 )
G21 G90 G64 G40
G0 Z3.0
( T4 : 4.0 )
T4 M6
( Ber_Tasche4mm )
G17
M3 S1000
G0 X-316.3456 Y-17.9249
G0 Z1.0
G1 F300.0 Z-2.0
G3 F800.0 X-316.094 Y-18.5864 I19.1874 J6.919
G3 X-316.3456 Y-19.248 I18.9358 J-7.5806
G1 Y-17.9249
G1 F300.0 X-317.1456
G1 F800.0 Y-0.4521
G1 X-316.755
G1 Y-11.0059
G3 X-315.2294 Y-18.5864 I19.5968 J0.0
G3 X-316.755 Y-26.167 I18.0712 J-7.5806
G1 Y-37.9
G1 X-317.1456
G1 Y-17.9249
G1 F300.0 X-318.7456
G1 F800.0 Y1.1479
G1 X-315.155
G1 Y-11.0059
G3 X-313.4806 Y-18.5864 I17.9968 J0.0
G3 X-315.155 Y-26.167 I16.3224 J-7.5806
G1 Y-39.5
G1 X-318.7456
G1 Y-17.9249
G1 F300.0 X-320.3456
G1 F800.0 Y1.2354
G3 X-320.4155 Y2.7479 I-16.4 J0.0
G1 X-313.555
G1 Y-11.0059
G3 X-311.6975 Y-18.5864 I16.3968 J0.0
G3 X-313.555 Y-26.167 I14.5393 J-7.5806
G1 Y-41.1
G1 X-320.3878
G3 X-320.3456 Y-39.9243 I-16.3578 J1.1757
G1 Y-17.9249
G1 F300.0 X-321.9456
G1 F800.0 Y1.2354
G3 X-322.2766 Y4.3479 I-14.8 J0.0
G1 X-311.955
G1 Y-11.0059
G3 X-309.8657 Y-18.5864 I14.7968 J0.0
G3 X-311.955 Y-26.167 I12.7075 J-7.5806
G1 Y-42.7
G1 X-322.2082
G3 X-321.9456 Y-39.9243 I-14.5374 J2.7757
G1 Y-17.9249
G1 F300.0 X-323.5456
G1 F800.0 Y1.2354
G3 X-324.4155 Y5.9479 I-13.2 J0.0
G1 X-310.3493
G3 X-310.355 Y5.5591 I13.1911 J-0.3889
G1 Y-11.0059
G3 X-307.9605 Y-18.5864 I13.1968 J0.0
G3 X-310.355 Y-26.167 I10.8023 J-7.5806
G1 Y-43.9111
G3 X-310.3493 Y-44.3 I13.1968 J0.0
G1 X-324.292
G3 X-323.5456 Y-39.9243 I-12.4536 J4.3757
G1 Y-17.9249
G1 F300.0 X-325.1456
G1 F800.0 Y1.2354
G3 X-327.0136 Y7.5479 I-11.6 J0.0
G1 X-308.5832
G3 X-308.755 Y5.5591 I11.425 J-1.9889
G1 Y-11.0059
G3 X-305.9344 Y-18.5864 I11.5968 J0.0
G3 X-308.755 Y-26.167 I8.7761 J-7.5806
G1 Y-43.9111
G3 X-308.5832 Y-45.9 I11.5968 J0.0
G1 X-326.8032
G3 X-325.1456 Y-39.9243 I-9.9424 J5.9757
G1 Y-17.9249
G1 F300.0 X-326.7456
G1 F800.0 Y1.2354
G3 X-330.6308 Y9.1479 I-10.0 J0.0
G1 X-306.4886
G3 X-307.155 Y5.5591 I9.3304 J-3.5889
G1 Y-11.0059
G3 X-303.6752 Y-18.5864 I9.9968 J0.0
G3 X-307.155 Y-26.167 I6.517 J-7.5806
G1 Y-43.9111
G3 X-306.4886 Y-47.5 I9.9968 J0.0
G1 X-330.218
G3 X-326.7456 Y-39.9243 I-6.5276 J7.5757
G1 Y-17.9249
G1 F300.0 X-328.3456
G1 F800.0 Y1.2354
G3 X-332.234 Y8.3209 I-8.4 J0.0
G1 X-336.0457 Y10.7479
G1 X-303.7599
G3 X-305.555 Y5.5591 I6.6017 J-5.1889
G1 Y-11.0059
G3 X-300.7695 Y-18.5864 I8.3968 J0.0
G3 X-305.555 Y-26.167 I3.6113 J-7.5806
G1 Y-43.9111
G3 X-303.7599 Y-49.1 I8.3968 J0.0
G1 X-335.5789
G1 X-332.2949 Y-47.0483
G3 X-328.3456 Y-39.9243 I-4.4507 J7.124
G1 Y-17.9249
G0 Z3.0
G0 X-255.8286 Y-18.2811
G0 Z1.0
G1 F300.0 Z-2.0
G3 F800.0 X-254.2897 Y-17.7567 I-6.3714 J21.2168
G3 X-254.2597 Y-18.6378 I8.3986 J-0.1559
G3 X-255.8286 Y-18.2811 I-6.8642 J-26.5628
G1 F300.0 X-256.1374 Y-19.8511
G3 F800.0 X-261.6291 Y-19.3702 I-4.9865 J-25.3495
G1 X-297.1582
G3 X-303.955 Y-26.167 I0.0 J-6.7968
G1 Y-43.9111
G3 X-297.4865 Y-50.7 I6.7968 J0.0
G1 X-341.1597
G1 X-333.1426 Y-45.6914
G3 X-329.9456 Y-39.9243 I-3.603 J5.767
G1 Y1.2354
G3 X-333.0934 Y6.9713 I-6.8 J0.0
G1 X-341.5376 Y12.3479
G1 X-297.4865
G3 X-303.955 Y5.5591 I0.3283 J-6.7889
G1 Y-11.0059
G3 X-297.1582 Y-17.8027 I6.7968 J0.0
G1 X-265.1123
G3 X-260.2342 Y-17.5229 I0.1891 J39.3743
G3 X-251.9876 Y-14.9004 I-1.9657 J20.4586
G3 X-251.9042 Y-21.0879 I6.0964 J-3.0122
G3 X-253.277 Y-20.5858 I-5.7118 J-13.4873
G3 X-256.1374 Y-19.8511 I-7.8469 J-24.6148
G0 Z3.0
G0 X-233.3403 Y-36.829
G0 Z1.0
G1 F300.0 Z-2.0
G2 F800.0 X-230.4878 Y-37.6171 I-20.1616 J-78.5343
G1 X-230.4865 Y-37.6175
G2 X-227.4866 Y-38.6241 I-12.4632 J-42.1159
G2 X-233.707 Y-39.8991 I-16.8454 J66.3717
G3 X-233.3403 Y-36.829 I-22.6337 J4.2606
G1 F300.0 X-234.9381 Y-36.7463
G3 F800.0 X-234.9109 Y-35.3942 I-21.4026 J1.1078
G3 X-234.9134 Y-34.799 I-24.9626 J0.189
G2 X-230.0336 Y-36.0829 I-18.5884 J-80.5644
G1 X-230.0325 Y-36.0832
G2 X-225.2361 Y-37.7999 I-12.9172 J-43.6501
G3 X-224.9728 Y-37.9081 I5.7591 J13.6335
G2 X-223.0888 Y-38.8226 I-5.4484 J-13.6231
G2 X-226.1922 Y-39.9401 I-7.8201 J16.8497
G3 X-226.2526 Y-39.9561 I3.7579 J-14.315
G2 X-235.817 Y-41.8092 I-18.0794 J67.7037
G3 X-234.9381 Y-36.7463 I-20.5237 J6.1706
G1 F300.0 X-236.536 Y-36.6636
G3 F800.0 X-236.5109 Y-35.3973 I-19.8047 J1.0251
G3 X-236.6356 Y-32.7872 I-23.3625 J0.1921
G2 X-229.5795 Y-34.5487 I-16.8663 J-82.5762
G1 X-229.5785 Y-34.549
G2 X-224.6135 Y-36.326 I-13.3713 J-45.1844
G3 X-224.3787 Y-36.4225 I5.1365 J12.1596
G2 X-220.0621 Y-38.9824 I-6.0425 J-15.1087
G2 X-220.1018 Y-39.0104 I-1.4719 J2.0481
G2 X-225.7859 Y-41.4876 I-10.807 J17.0375
G3 X-225.8398 Y-41.5019 I3.3516 J-12.7674
G2 X-238.2069 Y-43.6662 I-18.4922 J69.2496
G3 X-236.536 Y-36.6636 I-18.1338 J8.0277
G1 F300.0 X-238.1338 Y-36.5809
G3 F800.0 X-238.111 Y-35.4005 I-18.2069 J0.9424
G3 X-238.5643 Y-30.7822 I-21.7624 J0.1953
G2 X-236.7009 Y-31.1418 I-26.7868 J-143.8133
G3 X-236.6986 Y-31.1422 I2.2719 J11.3754
G2 X-229.1253 Y-33.0145 I-16.8032 J-84.2212
G1 X-229.1244 Y-33.0148
G2 X-223.9909 Y-34.8521 I-13.8253 J-46.7186
G3 X-223.7846 Y-34.9369 I4.5139 J10.6857
G2 X-218.6212 Y-38.1083 I-6.6367 J-16.5943
G2 X-218.1329 Y-38.7585 I-1.935 J-1.9615
G2 X-218.1282 Y-38.7966 I-0.1451 J-0.0373
G3 X-218.1272 Y-39.0192 I11.5998 J-0.0608
G2 X-218.2146 Y-39.3785 I-0.7396 J-0.0103
G2 X-219.2215 Y-40.3467 I-3.3193 J2.4442
G2 X-225.3797 Y-43.0352 I-11.6874 J18.3738
G3 X-225.4271 Y-43.0477 I2.9454 J-11.2198
G2 X-238.6859 Y-45.3106 I-18.9049 J70.7954
G3 X-238.7652 Y-45.317 I0.8938 J-11.5655
G2 X-241.0003 Y-45.4899 I-13.9067 J165.1848
G3 X-238.1338 Y-36.5809 I-15.3404 J9.8514
G1 F300.0 X-239.7317 Y-36.4982
G3 F800.0 X-239.7111 Y-35.4038 I-16.609 J0.8597
G3 X-240.7657 Y-28.7667 I-20.1623 J0.1986
G2 X-236.3875 Y-29.5728 I-24.5854 J-145.8288
G3 X-236.3856 Y-29.5731 I1.9585 J9.8063
G2 X-228.6712 Y-31.4803 I-17.1163 J-85.7902
G1 X-228.6704 Y-31.4805
G2 X-223.3683 Y-33.3782 I-14.2793 J-48.2528
G3 X-223.1904 Y-33.4513 I3.8913 J9.2118
G2 X-217.5335 Y-36.9342 I-7.2308 J-18.0799
G2 X-216.6768 Y-38.0901 I-3.0227 J-3.1357
G2 X-216.5282 Y-38.805 I-1.6012 J-0.7058
G3 X-216.5273 Y-38.9969 I9.9999 J-0.0524
G2 X-216.8726 Y-40.2532 I-2.3395 J-0.0326
G2 X-218.3444 Y-41.685 I-4.6613 J3.3189
G2 X-224.9734 Y-44.5827 I-12.5645 J19.7122
G3 X-225.0143 Y-44.5936 I2.5391 J-9.6723
G2 X-238.5626 Y-46.9058 I-19.3177 J72.3412
G3 X-238.631 Y-46.9113 I0.7705 J-9.9703
G2 X-244.486 Y-47.301 I-14.0409 J166.7791
G3 X-244.2937 Y-47.1044 I-7.049 J7.0886
G3 X-239.7317 Y-36.4982 I-12.047 J11.4659
G1 F300.0 X-241.3296 Y-36.4155
G3 F800.0 X-241.3112 Y-35.4073 I-15.0111 J0.777
G3 X-242.821 Y-27.8697 I-18.5622 J0.2021
G3 X-242.9596 Y-27.5645 I-7.7134 J-3.3181
G3 X-243.3882 Y-26.731 I-14.6565 J-7.0108
G2 X-236.0741 Y-28.0037 I-21.963 J-147.8645
G3 X-236.0725 Y-28.0041 I1.6451 J8.2373
G2 X-228.2171 Y-29.9461 I-17.4293 J-87.3593
G1 X-228.2164 Y-29.9463
G2 X-222.7457 Y-31.9043 I-14.7333 J-49.7871
G3 X-222.5963 Y-31.9657 I3.2687 J7.7379
G2 X-216.4498 Y-35.7566 I-7.8249 J-19.5655
G2 X-215.2329 Y-37.3998 I-4.1063 J-4.3132
G2 X-214.9282 Y-38.8134 I-3.0451 J-1.396
G3 X-214.9275 Y-38.9746 I8.3999 J-0.044
G2 X-215.5399 Y-41.1396 I-3.9393 J-0.0549
G2 X-217.4691 Y-43.0245 I-5.9941 J4.2053
G2 X-224.5672 Y-46.1303 I-13.4398 J21.0516
G3 X-224.6015 Y-46.1394 I2.1329 J-8.1247
G2 X-238.4393 Y-48.5011 I-19.7305 J73.8871
G3 X-238.4967 Y-48.5057 I0.6472 J-8.375
G2 X-249.48 Y-49.0712 I-14.1751 J168.3735
G3 X-245.7212 Y-46.271 I-9.3061 J16.4152
G3 X-245.4526 Y-46.0014 I-5.8138 J6.0585
G3 X-241.3296 Y-36.4155 I-10.8881 J10.3628
G1 F300.0 X-242.9274 Y-36.3328
G3 F800.0 X-242.9114 Y-35.411 I-13.4133 J0.6943
G3 X-244.2907 Y-28.502 I-16.962 J0.2058
G3 X-244.4029 Y-28.2549 I-6.2436 J-2.6858
G3 X-246.8495 Y-24.6447 I-13.2131 J-6.3204
G3 X-246.7292 Y-24.6607 I0.9584 J6.7321
G2 X-235.7608 Y-26.4347 I-18.6219 J-149.9347
G3 X-235.7595 Y-26.435 I1.3318 J6.6683
G2 X-227.7629 Y-28.4119 I-17.7424 J-88.9284
G1 X-227.7624 Y-28.4121
G2 X-222.1231 Y-30.4304 I-15.1874 J-51.3213
G3 X-222.0021 Y-30.4801 I2.6461 J6.264
G2 X-215.3683 Y-34.5772 I-8.4191 J-21.0511
G2 X-213.7907 Y-36.7066 I-5.1878 J-5.4927
G2 X-213.3282 Y-38.8218 I-4.4873 J-2.0892
G3 X-213.3277 Y-38.9523 I6.7999 J-0.0356
G2 X-214.2095 Y-42.0291 I-5.5392 J-0.0773
G2 X-216.5948 Y-44.3646 I-7.3244 J5.0948
G2 X-224.1609 Y-47.6779 I-14.314 J22.3917
G3 X-224.1887 Y-47.6852 I1.7266 J-6.5771
G2 X-238.316 Y-50.0963 I-20.1433 J75.4329
G3 X-238.3625 Y-50.1001 I0.524 J-6.7798
G2 X-253.333 Y-50.7001 I-14.3094 J169.9678
G3 X-253.3594 Y-50.7 I-0.0264 J-6.7999
G1 X-263.547
G3 X-254.1892 Y-49.3025 I-1.1909 J40.0036
G3 X-254.16 Y-49.2945 I-1.7915 J6.5565
G3 X-246.829 Y-45.1165 I-4.6262 J16.6385
G3 X-246.6116 Y-44.8983 I-4.706 J4.9041
G3 X-242.9274 Y-36.3328 I-9.7291 J9.2598
G0 Z3.0
G0 X-235.9321 Y0.3176
G0 Z1.0
G1 F300.0 Z-2.0
G3 F800.0 X-236.0049 Y0.8283 I-24.09 J-3.1745
G2 X-235.0241 Y0.5339 I-9.9194 J-34.8285
G2 X-235.9321 Y0.3176 I-12.1966 J49.1726
G1 F300.0 X-235.5756 Y-1.2422
G2 F800.0 X-237.3064 Y-1.6071 I-11.6451 J50.9487
G3 X-237.3577 Y-1.6171 I2.8076 J-14.5313
G3 X-238.0906 Y2.993 I-22.6644 J-1.2398
G2 X-230.0811 Y0.3343 I-7.8337 J-36.9931
G2 X-235.5756 Y-1.2422 I-17.1396 J49.3722
G1 F300.0 X-235.2191 Y-2.802
G2 F800.0 X-237.0029 Y-3.1781 I-12.0016 J52.5085
G3 X-237.0811 Y-3.1934 I2.5041 J-12.9603
G2 X-238.9207 Y-3.5458 I-24.0224 J120.4223
G3 X-238.9242 Y-2.989 I-19.6882 J0.1539
G3 X-240.4561 Y5.0366 I-21.0979 J0.132
G2 X-240.0386 Y4.9717 I-12.0162 J-78.5904
G3 X-239.9688 Y4.9608 I2.0644 J13.0376
G2 X-229.1157 Y1.6494 I-5.9556 J-38.9609
G3 X-228.9798 Y1.5863 I5.6294 J11.9394
G2 X-226.487 Y0.0686 I-5.1737 J-11.3038
G2 X-228.0597 Y-0.6328 I-6.6852 J12.8766
G3 X-228.0954 Y-0.6463 I4.6513 J-12.3534
G2 X-235.2191 Y-2.802 I-19.1253 J50.3528
G1 F300.0 X-234.8626 Y-4.3618
G2 F800.0 X-236.6993 Y-4.749 I-12.3581 J54.0683
G3 X-236.7681 Y-4.7625 I2.2005 J-11.3894
G2 X-240.64 Y-5.4714 I-24.3354 J121.9914
G3 X-240.5244 Y-3.0004 I-17.9689 J2.0795
G3 X-243.2102 Y7.0193 I-19.4978 J0.1434
G2 X-239.7884 Y6.552 I-9.2621 J-80.5731
G3 X-239.727 Y6.5424 I1.8141 J11.4573
G2 X-228.4334 Y3.0966 I-6.1973 J-40.5426
G3 X-228.314 Y3.0412 I4.947 J10.4922
G2 X-224.06 Y0.0295 I-5.8396 J-12.7587
G2 X-223.8819 Y-0.2145 I-1.0683 J-0.9669
G2 X-227.4959 Y-2.1302 I-9.2903 J13.1597
G3 X-227.5273 Y-2.142 I4.0875 J-10.856
G2 X-234.8626 Y-4.3618 I-19.6934 J51.8485
G1 F300.0 X-234.5061 Y-5.9216
G2 F800.0 X-236.3958 Y-6.32 I-12.7146 J55.628
G3 X-236.4551 Y-6.3316 I1.897 J-9.8184
G2 X-242.6152 Y-7.4023 I-24.6484 J123.5605
G3 X-242.1245 Y-3.0119 I-15.9937 J4.0103
G3 X-244.8045 Y6.565 I-17.8976 J0.1549
G3 X-244.9859 Y6.8473 I-8.4996 J-5.2625
G3 X-246.629 Y8.9433 I-14.4205 J-9.6126
G2 X-239.5381 Y8.1323 I-5.8433 J-82.497
G3 X-239.4853 Y8.1241 I1.5639 J9.877
G2 X-227.751 Y4.5438 I-6.4391 J-42.1242
G3 X-227.6481 Y4.496 I4.2647 J9.045
G2 X-222.8939 Y1.1253 I-6.5055 J-14.2135
G2 X-222.0932 Y-0.7488 I-2.2344 J-2.0627
G2 X-222.652 Y-1.2998 I-2.5809 J2.0582
G2 X-226.9321 Y-3.6276 I-10.5201 J14.245
G3 X-226.9592 Y-3.6378 I3.5237 J-9.3586
G2 X-234.5061 Y-5.9216 I-20.2615 J53.3443
G1 F300.0 X-234.1495 Y-7.4813
G2 F800.0 X-236.0923 Y-7.8909 I-13.0711 J57.1878
G3 X-236.1421 Y-7.9007 I1.5935 J-8.2475
G2 X-244.9602 Y-9.3408 I-24.9614 J125.1295
G3 X-243.7247 Y-3.0234 I-13.6487 J5.9488
G3 X-246.1649 Y5.7227 I-16.2974 J0.1665
G3 X-246.3173 Y5.9599 I-7.1392 J-4.4202
G3 X-251.3443 Y10.7424 I-13.0892 J-8.7252
G2 X-239.2879 Y9.7126 I-1.1279 J-84.2962
G3 X-239.2435 Y9.7057 I1.3137 J8.2966
G2 X-227.0687 Y5.9911 I-6.6809 J-43.7058
G3 X-226.9822 Y5.9509 I3.5823 J7.5978
G2 X-221.7307 Y2.224 I-7.1713 J-15.6684
G2 X-220.4874 Y-0.9435 I-3.3976 J-3.1614
G3 X-220.4873 Y-0.9883 I8.4 J-0.0111
G2 X-220.6124 Y-1.4334 I-0.8427 J-0.0034
G2 X-221.6877 Y-2.5767 I-4.0617 J2.7428
G2 X-226.3683 Y-5.1249 I-11.4844 J15.5219
G3 X-226.3911 Y-5.1335 I2.9599 J-7.8612
G2 X-234.1495 Y-7.4813 I-20.8296 J54.84
G1 F300.0 X-233.793 Y-9.0411
G2 F800.0 X-235.7888 Y-9.4619 I-13.4277 J58.7476
G3 X-235.8291 Y-9.4698 I1.29 J-6.6765
G2 X-246.6518 Y-11.1553 I-25.2744 J126.6986
G3 X-248.054 Y-11.4658 I0.7606 J-6.7573
G3 X-245.3249 Y-3.0351 I-10.5549 J8.0738
G3 X-247.5252 Y4.8805 I-14.6972 J0.1782
G3 X-247.6486 Y5.0724 I-5.7788 J-3.5779
G3 X-252.3487 Y9.4766 I-11.7579 J-7.8377
G3 X-252.4322 Y9.524 I-3.3948 J-5.8883
G3 X-259.3949 Y11.9015 I-10.0217 J-17.965
G3 X-264.328 Y12.3479 I-5.739 J-35.9391
G1 X-253.0786
G3 X-253.0341 Y12.3481 I0.0 J6.8
G2 X-239.0377 Y11.2929 I0.5619 J-85.9019
G3 X-239.0017 Y11.2873 I1.0635 J6.7163
G2 X-226.3863 Y7.4383 I-6.9226 J-45.2875
G3 X-226.3163 Y7.4057 I2.9 J6.1506
G2 X-220.5687 Y3.3239 I-7.8372 J-17.1232
G2 X-218.8874 Y-0.9456 I-4.5597 J-4.2613
G3 X-218.8873 Y-0.9818 I6.8 J-0.009
G2 X-219.2712 Y-2.3062 I-2.4427 J-0.0098
G2 X-220.7249 Y-3.8547 I-5.4029 J3.6157
G2 X-225.8046 Y-6.6223 I-12.4472 J16.7998
G3 X-225.8229 Y-6.6293 I2.3961 J-6.3638
G2 X-233.793 Y-9.0411 I-21.3977 J56.3358
G0 Z3.0
G0 X-248.7718 Y-5.6313
G0 Z1.0
G1 F300.0 Z-2.0
G3 F800.0 X-248.5256 Y-3.0592 I-9.8371 J2.2394
G3 X-250.246 Y3.1959 I-11.4965 J0.2022
G3 X-250.3112 Y3.2975 I-3.0581 J-1.8934
G3 X-253.947 Y6.7044 I-9.0952 J-6.0628
G3 X-253.9912 Y6.7294 I-1.7965 J-3.116
G3 X-259.8849 Y8.7392 I-8.4628 J-15.1705
G3 X-265.3903 Y9.1559 I-5.249 J-32.7768
G1 X-297.1582
G3 X-300.755 Y5.5591 I0.0 J-3.5968
G1 Y-11.0059
G3 X-297.1582 Y-14.6027 I3.5968 J0.0
G1 X-265.1045
G3 X-260.5771 Y-14.3411 I0.1813 J36.1743
G3 X-253.0573 Y-11.8133 I-1.6229 J17.2768
G3 X-252.9264 Y-11.7282 I-1.895 J3.0571
G3 X-248.7718 Y-5.6313 I-5.6825 J8.3363
G1 F300.0 X-250.3288 Y-5.2769
G3 F800.0 X-250.123 Y-3.0717 I-8.2802 J1.8849
G3 X-251.6036 Y2.3553 I-9.8992 J0.2147
G3 X-251.6399 Y2.4118 I-1.7005 J-1.0528
G3 X-254.7445 Y5.321 I-7.7666 J-5.1771
G3 X-254.7691 Y5.3349 I-0.9989 J-1.7327
G3 X-260.1291 Y7.1612 I-7.6849 J-13.776
G3 X-265.384 Y7.5591 I-5.0048 J-31.1987
G1 X-297.1582
G3 X-299.1582 Y5.5591 I0.0 J-2.0
G1 Y-11.0059
G3 X-297.1582 Y-13.0059 I2.0 J0.0
G1 X-265.1004
G3 X-260.7474 Y-12.7532 I0.1772 J34.5775
G3 X-253.8986 Y-10.4561 I-1.4526 J15.6889
G3 X-253.8258 Y-10.4088 I-1.0537 J1.6999
G3 X-250.3288 Y-5.2769 I-4.7831 J7.0168
G0 Z3.0
G0 X-247.2117 Y-5.9864
G0 Z1.0
G1 F300.0 Z-2.0
G2 F800.0 X-252.0252 Y-13.0502 I-11.3972 J2.5945
G2 X-252.2143 Y-13.1732 I-2.9271 J4.2941
G2 X-260.4059 Y-15.932 I-9.9857 J16.1089
G2 X-265.1084 Y-16.2027 I-4.5173 J37.5037
G1 X-297.1582
G2 X-302.355 Y-11.0059 I0.0 J5.1968
G1 Y5.5591
G2 X-297.1582 Y10.7559 I5.1968 J0.0
G1 X-265.3964
G2 X-259.64 Y10.3204 I0.2625 J-34.7934
G2 X-253.2117 Y8.1267 I-2.814 J-18.7614
G2 X-253.1478 Y8.0905 I-2.5317 J-4.5384
G2 X-248.9799 Y4.185 I-6.2586 J-10.8558
G2 X-248.8856 Y4.0382 I-4.3241 J-2.8824
G2 X-246.9252 Y-3.047 I-11.1365 J-6.8951
G2 X-247.2117 Y-5.9864 I-11.6837 J-0.3449
G0 Z3.0
G0 X-253.7013 Y-23.8185
G0 Z1.0
G1 F300.0 Z-2.0
G3 F800.0 X-254.2366 Y-23.6385 I-3.9147 J-10.7568
G3 X-261.5968 Y-22.5702 I-6.8873 J-21.5621
G1 X-297.1582
G3 X-300.755 Y-26.167 I0.0 J-3.5968
G1 Y-43.9111
G3 X-297.1582 Y-47.5079 I3.5968 J0.0
G1 X-265.587
G3 X-255.0327 Y-46.2157 I0.8491 J36.8115
G3 X-255.0172 Y-46.2114 I-0.948 J3.4696
G3 X-249.0446 Y-42.8076 I-3.769 J13.5554
G3 X-248.9296 Y-42.6922 I-2.4904 J2.5952
G3 X-246.1118 Y-35.4194 I-7.4111 J7.0536
G3 X-247.2303 Y-29.7665 I-13.7616 J0.2143
G3 X-247.2897 Y-29.6357 I-3.3041 J-1.4213
G3 X-253.7013 Y-23.8185 I-10.3264 J-4.9395
G1 F300.0 X-254.2474 Y-25.319
G3 F800.0 X-254.7151 Y-25.1619 I-3.3686 J-9.2562
G3 X-261.5798 Y-24.167 I-6.4088 J-20.0387
G1 X-297.1582
G3 X-299.1582 Y-26.167 I0.0 J-2.0
G1 Y-43.9111
G3 X-297.1582 Y-45.9111 I2.0 J0.0
G1 X-265.5684
G3 X-255.4536 Y-44.6753 I0.8305 J35.2147
G3 X-255.445 Y-44.673 I-0.5272 J1.9293
G3 X-250.1502 Y-41.6555 I-3.3412 J12.017
G3 X-250.0862 Y-41.5913 I-1.3848 J1.4431
G3 X-247.7089 Y-35.4245 I-6.2545 J5.9528
G3 X-248.6971 Y-30.3975 I-12.1645 J0.2193
G3 X-248.7301 Y-30.3248 I-1.8372 J-0.7903
G3 X-254.2474 Y-25.319 I-8.8859 J-4.2505
G0 Z3.0
G0 X-253.1541 Y-22.315
G0 Z1.0
G1 F300.0 Z-2.0
G2 F800.0 X-245.8463 Y-28.9453 I-4.4619 J-12.2603
G2 X-245.7605 Y-29.1342 I-4.6881 J-2.2425
G2 X-244.5116 Y-35.415 I-14.1129 J-6.0709
G2 X-247.7706 Y-43.7952 I-11.8291 J-0.2235
G2 X-247.9368 Y-43.9621 I-3.7644 J3.5828
G2 X-254.5886 Y-47.7529 I-10.8494 J11.3061
G2 X-254.611 Y-47.7591 I-1.3921 J5.0069
G2 X-265.6052 Y-49.1079 I-10.1269 J37.0627
G1 X-297.1582
G2 X-302.355 Y-43.9111 I0.0 J5.1968
G1 Y-26.167
G2 X-297.1582 Y-20.9702 I5.1968 J0.0
G1 X-261.6132
G2 X-253.7569 Y-22.1121 I0.4893 J-24.2304
G2 X-253.1541 Y-22.315 I-3.8591 J-12.4632
G0 Z3.0
G0 X-250.338 Y-20.608
G0 Z1.0
G1 F300.0 Z-2.0
G3 F800.0 X-246.532 Y-23.0729 I4.4469 J2.6954
G2 X-235.4474 Y-24.8657 I-18.8191 J-151.5225
G3 X-235.4464 Y-24.8659 I1.0184 J5.0993
G2 X-227.3088 Y-26.8777 I-18.0554 J-90.4975
G1 X-227.3084 Y-26.8778
G2 X-221.5005 Y-28.9565 I-15.6414 J-52.8555
G3 X-221.408 Y-28.9945 I2.0235 J4.7902
G2 X-214.2882 Y-33.3966 I-9.0132 J-22.5367
G2 X-212.349 Y-36.0124 I-6.268 J-6.6733
G2 X-211.7282 Y-38.8302 I-5.929 J-2.7835
G3 X-211.7278 Y-38.9299 I5.1999 J-0.0273
G2 X-212.8801 Y-42.9199 I-7.139 J-0.0996
G2 X-215.7213 Y-45.7052 I-8.6538 J5.9856
G2 X-223.7546 Y-49.2254 I-15.1875 J23.7323
G3 X-223.7759 Y-49.2311 I1.3203 J-5.0296
G2 X-238.1927 Y-51.6915 I-20.5561 J76.9787
G3 X-238.2283 Y-51.6944 I0.4007 J-5.1845
G2 X-253.3392 Y-52.3 I-14.4436 J171.5622
G3 X-253.3594 I-0.0202 J-5.2
G1 X-346.7404
G1 X-333.9904 Y-44.3344
G3 X-331.5456 Y-39.9243 I-2.7552 J4.4101
G1 Y1.2354
G3 X-333.9527 Y5.6217 I-5.2 J0.0
G1 X-347.0294 Y13.9479
G1 X-253.0786
G3 X-253.0446 Y13.9481 I0.0 J5.2
G2 X-238.7875 Y12.8732 I0.5723 J-87.5018
G3 X-238.76 Y12.8689 I0.8132 J5.136
G2 X-225.704 Y8.8855 I-7.1644 J-46.8691
G3 X-225.6504 Y8.8606 I2.2176 J4.7034
G2 X-219.4073 Y4.4245 I-8.5031 J-18.5781
G2 X-217.2874 Y-0.9477 I-5.7211 J-5.3619
G3 Y-0.9754 I5.2 J-0.0068
G2 X-217.9326 Y-3.1828 I-4.0427 J-0.0162
G2 X-219.763 Y-5.1333 I-6.7415 J4.4922
G2 X-225.2408 Y-8.1197 I-13.4091 J18.0785
G3 X-225.2548 Y-8.125 I1.8323 J-4.8665
G2 X-235.4852 Y-11.0328 I-21.9659 J57.8315
G3 X-235.5161 Y-11.0389 I0.9864 J-5.1056
G2 X-246.4728 Y-12.7452 I-25.5874 J128.2677
G3 X-250.338 Y-20.608 I0.5817 J-5.1674
G1 F300.0 X-248.9697 Y-19.7786
G3 F800.0 X-246.3348 Y-21.4851 I3.0786 J1.8661
G2 X-235.134 Y-23.2967 I-19.0164 J-153.1103
G3 X-235.1334 Y-23.2968 I0.7051 J3.5303
G2 X-226.8546 Y-25.3435 I-18.3685 J-92.0665
G1 X-226.8543 Y-25.3436
G2 X-220.8779 Y-27.4826 I-16.0954 J-54.3898
G3 X-220.8138 Y-27.5089 I1.4009 J3.3163
G2 X-213.2089 Y-32.2152 I-9.6074 J-24.0223
G2 X-210.9077 Y-35.3176 I-7.3472 J-7.8547
G2 X-210.1283 Y-38.8385 I-7.3703 J-3.4783
G3 X-210.128 Y-38.9076 I3.6 J-0.0189
G2 X-211.5513 Y-43.8113 I-8.7388 J-0.1219
G2 X-214.8484 Y-47.0461 I-9.9826 J6.877
G2 X-223.3484 Y-50.773 I-16.0605 J25.0733
G3 X-223.3631 Y-50.7769 I0.9141 J-3.482
G2 X-238.0694 Y-53.2868 I-20.9689 J78.5246
G3 X-238.0941 Y-53.2888 I0.2774 J-3.5893
G2 X-253.3454 Y-53.9 I-14.5778 J173.1566
G3 X-253.3594 I-0.014 J-3.6
G1 X-352.3212
G1 X-334.8382 Y-42.9775
G3 X-333.1456 Y-39.9243 I-1.9074 J3.0531
G1 Y1.2354
G3 X-334.8121 Y4.272 I-3.6 J0.0
G1 X-352.5213 Y15.5479
G1 X-253.0786
G3 X-253.0551 Y15.548 I0.0 J3.6
G2 X-238.5372 Y14.4535 I0.5828 J-89.1018
G3 X-238.5182 Y14.4506 I0.563 J3.5557
G2 X-225.0216 Y10.3327 I-7.4062 J-48.4507
G3 X-224.9846 Y10.3154 I1.5353 J3.2562
G2 X-218.2463 Y5.5255 I-9.169 J-20.0329
G2 X-215.6874 Y-0.9498 I-6.882 J-6.4629
G3 Y-0.969 I3.6 J-0.0047
G2 X-216.5948 Y-4.0604 I-5.6426 J-0.0226
G2 X-218.8016 Y-6.4123 I-8.0793 J5.3699
G2 X-224.677 Y-9.6171 I-14.3705 J19.3575
G3 X-224.6867 Y-9.6208 I1.2685 J-3.3691
G2 X-235.1817 Y-12.6037 I-22.534 J59.3272
G3 X-235.2031 Y-12.6079 I0.6829 J-3.5346
G2 X-246.2938 Y-14.3352 I-25.9004 J129.8368
G3 X-248.9697 Y-19.7786 I0.4027 J-3.5774
G1 F300.0 X-247.6015 Y-18.9493
G3 F800.0 X-246.1376 Y-19.8973 I1.7103 J1.0367
G2 X-234.8207 Y-21.7277 I-19.2136 J-154.6981
G3 X-234.8203 Y-21.7278 I0.3917 J1.9613
G2 X-226.4005 Y-23.8093 I-18.6816 J-93.6356
G1 X-226.4003 Y-23.8094
G2 X-220.2553 Y-26.0087 I-16.5494 J-55.924
G3 X-220.2197 Y-26.0233 I0.7783 J1.8424
G2 X-212.1303 Y-31.0333 I-10.2015 J-25.5079
G2 X-209.4665 Y-34.6225 I-8.4258 J-9.0366
G2 X-208.5283 Y-38.8469 I-8.8115 J-4.1733
G3 X-208.5281 Y-38.8853 I2.0 J-0.0105
G2 X-210.2228 Y-44.7032 I-10.3387 J-0.1442
G2 X-213.9758 Y-48.3873 I-11.3111 J7.7689
G2 X-222.9421 Y-52.3206 I-16.9331 J26.4144
G3 X-222.9503 Y-52.3227 I0.5078 J-1.9345
G2 X-237.9462 Y-54.882 I-21.3817 J80.0704
G3 X-237.9598 Y-54.8831 I0.1541 J-1.9941
G2 X-253.3516 Y-55.5 I-14.712 J174.7509
G3 X-253.3594 I-0.0078 J-2.0
G1 X-357.902
G1 X-335.6859 Y-41.6205
G3 X-334.7456 Y-39.9243 I-1.0597 J1.6962
G1 Y1.2354
G3 X-335.6714 Y2.9224 I-2.0 J0.0
G1 X-358.0131 Y17.1479
G1 X-253.0786
G3 X-253.0655 Y17.148 I0.0 J2.0
G2 X-238.287 Y16.0338 I0.5933 J-90.7018
G3 X-238.2764 Y16.0322 I0.3128 J1.9754
G2 X-224.3393 Y11.7799 I-7.6479 J-50.0323
G3 X-224.3187 Y11.7703 I0.8529 J1.809
G2 X-217.0856 Y6.6268 I-9.8349 J-21.4878
G2 X-214.0874 Y-0.952 I-8.0427 J-7.5642
G3 Y-0.9626 I2.0 J-0.0026
G2 X-215.2573 Y-4.9386 I-7.2426 J-0.029
G2 X-217.8406 Y-7.6916 I-9.4168 J6.248
G2 X-224.1132 Y-11.1144 I-15.3315 J20.6367
G3 X-224.1186 Y-11.1165 I0.7047 J-1.8717
G2 X-234.8782 Y-14.1747 I-23.1021 J60.823
G3 X-234.8901 Y-14.177 I0.3794 J-1.9637
G2 X-246.1148 Y-15.9251 I-26.2135 J131.4059
G3 X-247.6015 Y-18.9493 I0.2237 J-1.9874
G0 Z3.0
G0 X-254.2597 Y-18.6378
G0 Z-1.0
G1 F300.0 Z-4.0
G3 F800.0 X-255.8286 Y-18.2811 I-6.8642 J-26.5628
G3 X-254.2897 Y-17.7567 I-6.3714 J21.2168
G3 X-254.2597 Y-18.6378 I8.3986 J-0.1559
G0 Z3.0
G0 X-235.9321 Y0.3176
G0 Z-1.0
G1 F300.0 Z-4.0
G3 F800.0 X-236.0049 Y0.8283 I-24.09 J-3.1745
G2 X-235.0241 Y0.5339 I-9.9194 J-34.8285
G2 X-235.9321 Y0.3176 I-12.1966 J49.1726
G1 F300.0 X-235.5756 Y-1.2422
G2 F800.0 X-237.3064 Y-1.6071 I-11.6451 J50.9487
G3 X-237.3577 Y-1.6171 I2.8076 J-14.5313
G3 X-238.0906 Y2.993 I-22.6644 J-1.2398
G2 X-230.0811 Y0.3343 I-7.8337 J-36.9931
G2 X-235.5756 Y-1.2422 I-17.1396 J49.3722
G1 F300.0 X-235.2191 Y-2.802
G2 F800.0 X-237.0029 Y-3.1781 I-12.0016 J52.5085
G3 X-237.0811 Y-3.1934 I2.5041 J-12.9603
G2 X-238.9207 Y-3.5458 I-24.0224 J120.4223
G3 X-238.9242 Y-2.989 I-19.6882 J0.1539
G3 X-240.4561 Y5.0366 I-21.0979 J0.132
G2 X-240.0386 Y4.9717 I-12.0162 J-78.5904
G3 X-239.9688 Y4.9608 I2.0644 J13.0376
G2 X-229.1157 Y1.6494 I-5.9556 J-38.9609
G3 X-228.9798 Y1.5863 I5.6294 J11.9394
G2 X-226.487 Y0.0686 I-5.1737 J-11.3038
G2 X-228.0597 Y-0.6328 I-6.6852 J12.8766
G3 X-228.0954 Y-0.6463 I4.6513 J-12.3534
G2 X-235.2191 Y-2.802 I-19.1253 J50.3528
G1 F300.0 X-234.8626 Y-4.3618
G2 F800.0 X-236.6993 Y-4.749 I-12.3581 J54.0683
G3 X-236.7681 Y-4.7625 I2.2005 J-11.3894
G2 X-240.64 Y-5.4714 I-24.3354 J121.9914
G3 X-240.5244 Y-3.0004 I-17.9689 J2.0795
G3 X-243.2102 Y7.0193 I-19.4978 J0.1434
G2 X-239.7884 Y6.552 I-9.2621 J-80.5731
G3 X-239.727 Y6.5424 I1.8141 J11.4573
G2 X-228.4334 Y3.0966 I-6.1973 J-40.5426
G3 X-228.314 Y3.0412 I4.947 J10.4922
G2 X-224.06 Y0.0295 I-5.8396 J-12.7587
G2 X-223.8819 Y-0.2145 I-1.0683 J-0.9669
G2 X-227.4959 Y-2.1302 I-9.2903 J13.1597
G3 X-227.5273 Y-2.142 I4.0875 J-10.856
G2 X-234.8626 Y-4.3618 I-19.6934 J51.8485
G1 F300.0 X-234.5061 Y-5.9216
G2 F800.0 X-236.3958 Y-6.32 I-12.7146 J55.628
G3 X-236.4551 Y-6.3316 I1.897 J-9.8184
G2 X-242.6152 Y-7.4023 I-24.6484 J123.5605
G3 X-242.1245 Y-3.0119 I-15.9937 J4.0103
G3 X-244.8045 Y6.565 I-17.8976 J0.1549
G3 X-244.9859 Y6.8473 I-8.4996 J-5.2625
G3 X-246.629 Y8.9433 I-14.4205 J-9.6126
G2 X-239.5381 Y8.1323 I-5.8433 J-82.497
G3 X-239.4853 Y8.1241 I1.5639 J9.877
G2 X-227.751 Y4.5438 I-6.4391 J-42.1242
G3 X-227.6481 Y4.496 I4.2647 J9.045
G2 X-222.8939 Y1.1253 I-6.5055 J-14.2135
G2 X-222.0932 Y-0.7488 I-2.2344 J-2.0627
G2 X-222.652 Y-1.2998 I-2.5809 J2.0582
G2 X-226.9321 Y-3.6276 I-10.5201 J14.245
G3 X-226.9592 Y-3.6378 I3.5237 J-9.3586
G2 X-234.5061 Y-5.9216 I-20.2615 J53.3443
G1 F300.0 X-234.1495 Y-7.4813
G2 F800.0 X-236.0923 Y-7.8909 I-13.0711 J57.1878
G3 X-236.1421 Y-7.9007 I1.5935 J-8.2475
G2 X-244.9602 Y-9.3408 I-24.9614 J125.1295
G3 X-243.7247 Y-3.0234 I-13.6487 J5.9488
G3 X-246.1649 Y5.7227 I-16.2974 J0.1665
G3 X-246.3173 Y5.9599 I-7.1392 J-4.4202
G3 X-251.3443 Y10.7424 I-13.0892 J-8.7252
G2 X-239.2879 Y9.7126 I-1.1279 J-84.2962
G3 X-239.2435 Y9.7057 I1.3137 J8.2966
G2 X-227.0687 Y5.9911 I-6.6809 J-43.7058
G3 X-226.9822 Y5.9509 I3.5823 J7.5978
G2 X-221.7307 Y2.224 I-7.1713 J-15.6684
G2 X-220.4874 Y-0.9435 I-3.3976 J-3.1614
G3 X-220.4873 Y-0.9883 I8.4 J-0.0111
G2 X-220.6124 Y-1.4334 I-0.8427 J-0.0034
G2 X-221.6877 Y-2.5767 I-4.0617 J2.7428
G2 X-226.3683 Y-5.1249 I-11.4844 J15.5219
G3 X-226.3911 Y-5.1335 I2.9599 J-7.8612
G2 X-234.1495 Y-7.4813 I-20.8296 J54.84
G1 F300.0 X-233.793 Y-9.0411
G2 F800.0 X-235.7888 Y-9.4619 I-13.4277 J58.7476
G3 X-235.8291 Y-9.4698 I1.29 J-6.6765
G2 X-246.6518 Y-11.1553 I-25.2744 J126.6986
G3 X-248.054 Y-11.4658 I0.7606 J-6.7573
G3 X-245.3249 Y-3.0351 I-10.5549 J8.0738
G3 X-247.5252 Y4.8805 I-14.6972 J0.1782
G3 X-247.6486 Y5.0724 I-5.7788 J-3.5779
G3 X-252.3487 Y9.4766 I-11.7579 J-7.8377
G3 X-252.4322 Y9.524 I-3.3948 J-5.8883
G3 X-259.3949 Y11.9015 I-10.0217 J-17.965
G3 X-264.328 Y12.3479 I-5.739 J-35.9391
G1 X-253.0786
G3 X-253.0341 Y12.3481 I0.0 J6.8
G2 X-239.0377 Y11.2929 I0.5619 J-85.9019
G3 X-239.0017 Y11.2873 I1.0635 J6.7163
G2 X-226.3863 Y7.4383 I-6.9226 J-45.2875
G3 X-226.3163 Y7.4057 I2.9 J6.1506
G2 X-220.5687 Y3.3239 I-7.8372 J-17.1232
G2 X-218.8874 Y-0.9456 I-4.5597 J-4.2613
G3 X-218.8873 Y-0.9818 I6.8 J-0.009
G2 X-219.2712 Y-2.3062 I-2.4427 J-0.0098
G2 X-220.7249 Y-3.8547 I-5.4029 J3.6157
G2 X-225.8046 Y-6.6223 I-12.4472 J16.7998
G3 X-225.8229 Y-6.6293 I2.3961 J-6.3638
G2 X-233.793 Y-9.0411 I-21.3977 J56.3358
G0 Z3.0
G0 X-233.3403 Y-36.829
G0 Z-1.0
G1 F300.0 Z-4.0
G2 F800.0 X-230.4878 Y-37.6171 I-20.1616 J-78.5343
G1 X-230.4865 Y-37.6175
G2 X-227.4866 Y-38.6241 I-12.4632 J-42.1159
G2 X-233.707 Y-39.8991 I-16.8454 J66.3717
G3 X-233.3403 Y-36.829 I-22.6337 J4.2606
G1 F300.0 X-234.9381 Y-36.7463
G3 F800.0 X-234.9109 Y-35.3942 I-21.4026 J1.1078
G3 X-234.9134 Y-34.799 I-24.9626 J0.189
G2 X-230.0336 Y-36.0829 I-18.5884 J-80.5644
G1 X-230.0325 Y-36.0832
G2 X-225.2361 Y-37.7999 I-12.9172 J-43.6501
G3 X-224.9728 Y-37.9081 I5.7591 J13.6335
G2 X-223.0888 Y-38.8226 I-5.4484 J-13.6231
G2 X-226.1922 Y-39.9401 I-7.8201 J16.8497
G3 X-226.2526 Y-39.9561 I3.7579 J-14.315
G2 X-235.817 Y-41.8092 I-18.0794 J67.7037
G3 X-234.9381 Y-36.7463 I-20.5237 J6.1706
G1 F300.0 X-236.536 Y-36.6636
G3 F800.0 X-236.5109 Y-35.3973 I-19.8047 J1.0251
G3 X-236.6356 Y-32.7872 I-23.3625 J0.1921
G2 X-229.5795 Y-34.5487 I-16.8663 J-82.5762
G1 X-229.5785 Y-34.549
G2 X-224.6135 Y-36.326 I-13.3713 J-45.1844
G3 X-224.3787 Y-36.4225 I5.1365 J12.1596
G2 X-220.0621 Y-38.9824 I-6.0425 J-15.1087
G2 X-220.1018 Y-39.0104 I-1.4719 J2.0481
G2 X-225.7859 Y-41.4876 I-10.807 J17.0375
G3 X-225.8398 Y-41.5019 I3.3516 J-12.7674
G2 X-238.2069 Y-43.6662 I-18.4922 J69.2496
G3 X-236.536 Y-36.6636 I-18.1338 J8.0277
G1 F300.0 X-238.1338 Y-36.5809
G3 F800.0 X-238.111 Y-35.4005 I-18.2069 J0.9424
G3 X-238.5643 Y-30.7822 I-21.7624 J0.1953
G2 X-236.7009 Y-31.1418 I-26.7868 J-143.8133
G3 X-236.6986 Y-31.1422 I2.2719 J11.3754
G2 X-229.1253 Y-33.0145 I-16.8032 J-84.2212
G1 X-229.1244 Y-33.0148
G2 X-223.9909 Y-34.8521 I-13.8253 J-46.7186
G3 X-223.7846 Y-34.9369 I4.5139 J10.6857
G2 X-218.6212 Y-38.1083 I-6.6367 J-16.5943
G2 X-218.1329 Y-38.7585 I-1.935 J-1.9615
G2 X-218.1282 Y-38.7966 I-0.1451 J-0.0373
G3 X-218.1272 Y-39.0192 I11.5998 J-0.0608
G2 X-218.2146 Y-39.3785 I-0.7396 J-0.0103
G2 X-219.2215 Y-40.3467 I-3.3193 J2.4442
G2 X-225.3797 Y-43.0352 I-11.6874 J18.3738
G3 X-225.4271 Y-43.0477 I2.9454 J-11.2198
G2 X-238.6859 Y-45.3106 I-18.9049 J70.7954
G3 X-238.7652 Y-45.317 I0.8938 J-11.5655
G2 X-241.0003 Y-45.4899 I-13.9067 J165.1848
G3 X-238.1338 Y-36.5809 I-15.3404 J9.8514
G1 F300.0 X-239.7317 Y-36.4982
G3 F800.0 X-239.7111 Y-35.4038 I-16.609 J0.8597
G3 X-240.7657 Y-28.7667 I-20.1623 J0.1986
G2 X-236.3875 Y-29.5728 I-24.5854 J-145.8288
G3 X-236.3856 Y-29.5731 I1.9585 J9.8063
G2 X-228.6712 Y-31.4803 I-17.1163 J-85.7902
G1 X-228.6704 Y-31.4805
G2 X-223.3683 Y-33.3782 I-14.2793 J-48.2528
G3 X-223.1904 Y-33.4513 I3.8913 J9.2118
G2 X-217.5335 Y-36.9342 I-7.2308 J-18.0799
G2 X-216.6768 Y-38.0901 I-3.0227 J-3.1357
G2 X-216.5282 Y-38.805 I-1.6012 J-0.7058
G3 X-216.5273 Y-38.9969 I9.9999 J-0.0524
G2 X-216.8726 Y-40.2532 I-2.3395 J-0.0326
G2 X-218.3444 Y-41.685 I-4.6613 J3.3189
G2 X-224.9734 Y-44.5827 I-12.5645 J19.7122
G3 X-225.0143 Y-44.5936 I2.5391 J-9.6723
G2 X-238.5626 Y-46.9058 I-19.3177 J72.3412
G3 X-238.631 Y-46.9113 I0.7705 J-9.9703
G2 X-244.486 Y-47.301 I-14.0409 J166.7791
G3 X-244.2937 Y-47.1044 I-7.049 J7.0886
G3 X-239.7317 Y-36.4982 I-12.047 J11.4659
G1 F300.0 X-241.3296 Y-36.4155
G3 F800.0 X-241.3112 Y-35.4073 I-15.0111 J0.777
G3 X-242.821 Y-27.8697 I-18.5622 J0.2021
G3 X-242.9596 Y-27.5645 I-7.7134 J-3.3181
G3 X-243.3882 Y-26.731 I-14.6565 J-7.0108
G2 X-236.0741 Y-28.0037 I-21.963 J-147.8645
G3 X-236.0725 Y-28.0041 I1.6451 J8.2373
G2 X-228.2171 Y-29.9461 I-17.4293 J-87.3593
G1 X-228.2164 Y-29.9463
G2 X-222.7457 Y-31.9043 I-14.7333 J-49.7871
G3 X-222.5963 Y-31.9657 I3.2687 J7.7379
G2 X-216.4498 Y-35.7566 I-7.8249 J-19.5655
G2 X-215.2329 Y-37.3998 I-4.1063 J-4.3132
G2 X-214.9282 Y-38.8134 I-3.0451 J-1.396
G3 X-214.9275 Y-38.9746 I8.3999 J-0.044
G2 X-215.5399 Y-41.1396 I-3.9393 J-0.0549
G2 X-217.4691 Y-43.0245 I-5.9941 J4.2053
G2 X-224.5672 Y-46.1303 I-13.4398 J21.0516
G3 X-224.6015 Y-46.1394 I2.1329 J-8.1247
G2 X-238.4393 Y-48.5011 I-19.7305 J73.8871
G3 X-238.4967 Y-48.5057 I0.6472 J-8.375
G2 X-249.48 Y-49.0712 I-14.1751 J168.3735
G3 X-245.7212 Y-46.271 I-9.3061 J16.4152
G3 X-245.4526 Y-46.0014 I-5.8138 J6.0585
G3 X-241.3296 Y-36.4155 I-10.8881 J10.3628
G1 F300.0 X-242.9274 Y-36.3328
G3 F800.0 X-242.9114 Y-35.411 I-13.4133 J0.6943
G3 X-244.2907 Y-28.502 I-16.962 J0.2058
G3 X-244.4029 Y-28.2549 I-6.2436 J-2.6858
G3 X-246.8495 Y-24.6447 I-13.2131 J-6.3204
G3 X-246.7292 Y-24.6607 I0.9584 J6.7321
G2 X-235.7608 Y-26.4347 I-18.6219 J-149.9347
G3 X-235.7595 Y-26.435 I1.3318 J6.6683
G2 X-227.7629 Y-28.4119 I-17.7424 J-88.9284
G1 X-227.7624 Y-28.4121
G2 X-222.1231 Y-30.4304 I-15.1874 J-51.3213
G3 X-222.0021 Y-30.4801 I2.6461 J6.264
G2 X-215.3683 Y-34.5772 I-8.4191 J-21.0511
G2 X-213.7907 Y-36.7066 I-5.1878 J-5.4927
G2 X-213.3282 Y-38.8218 I-4.4873 J-2.0892
G3 X-213.3277 Y-38.9523 I6.7999 J-0.0356
G2 X-214.2095 Y-42.0291 I-5.5392 J-0.0773
G2 X-216.5948 Y-44.3646 I-7.3244 J5.0948
G2 X-224.1609 Y-47.6779 I-14.314 J22.3917
G3 X-224.1887 Y-47.6852 I1.7266 J-6.5771
G2 X-238.316 Y-50.0963 I-20.1433 J75.4329
G3 X-238.3625 Y-50.1001 I0.524 J-6.7798
G2 X-253.333 Y-50.7001 I-14.3094 J169.9678
G3 X-253.3594 Y-50.7 I-0.0264 J-6.7999
G1 X-263.547
G3 X-254.1892 Y-49.3025 I-1.1909 J40.0036
G3 X-254.16 Y-49.2945 I-1.7915 J6.5565
G3 X-246.829 Y-45.1165 I-4.6262 J16.6385
G3 X-246.6116 Y-44.8983 I-4.706 J4.9041
G3 X-242.9274 Y-36.3328 I-9.7291 J9.2598
G0 Z3.0
G0 X-316.094 Y-18.5864
G0 Z-1.0
G1 F300.0 Z-4.0
G3 F800.0 X-316.3456 Y-19.248 I18.9358 J-7.5806
G1 Y-17.9249
G3 X-316.094 Y-18.5864 I19.1874 J6.919
G1 F300.0 X-315.3513 Y-18.8837
G3 F800.0 X-316.755 Y-26.167 I18.1931 J-7.2832
G1 Y-37.9
G1 X-317.1456
G1 Y-0.4521
G1 X-316.755
G1 Y-11.0059
G3 X-315.2294 Y-18.5864 I19.5968 J0.0
G3 X-315.3513 Y-18.8837 I18.0712 J-7.5806
G1 F300.0 X-313.8659 Y-19.4784
G3 F800.0 X-315.155 Y-26.167 I16.7077 J-6.6886
G1 Y-39.5
G1 X-318.7456
G1 Y1.1479
G1 X-315.155
G1 Y-11.0059
G3 X-313.4806 Y-18.5864 I17.9968 J0.0
G3 X-313.8659 Y-19.4784 I16.3224 J-7.5806
G1 F300.0 X-312.3805 Y-20.073
G3 F800.0 X-313.555 Y-26.167 I15.2223 J-6.0939
G1 Y-41.1
G1 X-320.3878
G3 X-320.3456 Y-39.9243 I-16.3578 J1.1757
G1 Y1.2354
G3 X-320.4155 Y2.7479 I-16.4 J0.0
G1 X-313.555
G1 Y-11.0059
G3 X-311.6975 Y-18.5864 I16.3968 J0.0
G3 X-312.3805 Y-20.073 I14.5393 J-7.5806
G1 F300.0 X-310.8951 Y-20.6677
G3 F800.0 X-311.955 Y-26.167 I13.7369 J-5.4993
G1 Y-42.7
G1 X-322.2082
G3 X-321.9456 Y-39.9243 I-14.5374 J2.7757
G1 Y1.2354
G3 X-322.2766 Y4.3479 I-14.8 J0.0
G1 X-311.955
G1 Y-11.0059
G3 X-309.8657 Y-18.5864 I14.7968 J0.0
G3 X-310.8951 Y-20.6677 I12.7075 J-7.5806
G1 F300.0 X-309.4097 Y-21.2623
G3 F800.0 X-310.355 Y-26.167 I12.2515 J-4.9047
G1 Y-43.9111
G3 X-310.3493 Y-44.3 I13.1968 J0.0
G1 X-324.292
G3 X-323.5456 Y-39.9243 I-12.4536 J4.3757
G1 Y1.2354
G3 X-324.4155 Y5.9479 I-13.2 J0.0
G1 X-310.3493
G3 X-310.355 Y5.5591 I13.1911 J-0.3889
G1 Y-11.0059
G3 X-307.9605 Y-18.5864 I13.1968 J0.0
G3 X-309.4097 Y-21.2623 I10.8023 J-7.5806
G1 F300.0 X-307.9243 Y-21.857
G3 F800.0 X-308.755 Y-26.167 I10.7661 J-4.31
G1 Y-43.9111
G3 X-308.5832 Y-45.9 I11.5968 J0.0
G1 X-326.8032
G3 X-325.1456 Y-39.9243 I-9.9424 J5.9757
G1 Y1.2354
G3 X-327.0136 Y7.5479 I-11.6 J0.0
G1 X-308.5832
G3 X-308.755 Y5.5591 I11.425 J-1.9889
G1 Y-11.0059
G3 X-305.9344 Y-18.5864 I11.5968 J0.0
G3 X-307.9243 Y-21.857 I8.7761 J-7.5806
G1 F300.0 X-306.4389 Y-22.4516
G3 F800.0 X-307.155 Y-26.167 I9.2807 J-3.7154
G1 Y-43.9111
G3 X-306.4886 Y-47.5 I9.9968 J0.0
G1 X-330.218
G3 X-326.7456 Y-39.9243 I-6.5276 J7.5757
G1 Y1.2354
G3 X-330.6308 Y9.1479 I-10.0 J0.0
G1 X-306.4886
G3 X-307.155 Y5.5591 I9.3304 J-3.5889
G1 Y-11.0059
G3 X-303.6752 Y-18.5864 I9.9968 J0.0
G3 X-306.4389 Y-22.4516 I6.517 J-7.5806
G1 F300.0 X-304.9535 Y-23.0463
G3 F800.0 X-305.555 Y-26.167 I7.7953 J-3.1207
G1 Y-43.9111
G3 X-303.7599 Y-49.1 I8.3968 J0.0
G1 X-335.5789
G1 X-332.2949 Y-47.0483
G3 X-328.3456 Y-39.9243 I-4.4507 J7.124
G1 Y1.2354
G3 X-332.234 Y8.3209 I-8.4 J0.0
G1 X-336.0457 Y10.7479
G1 X-303.7599
G3 X-305.555 Y5.5591 I6.6017 J-5.1889
G1 Y-11.0059
G3 X-300.7695 Y-18.5864 I8.3968 J0.0
G3 X-304.9535 Y-23.0463 I3.6113 J-7.5806
G1 F300.0 X-303.4682 Y-23.6409
G3 F800.0 X-303.955 Y-26.167 I6.31 J-2.5261
G1 Y-43.9111
G3 X-297.4865 Y-50.7 I6.7968 J0.0
G1 X-341.1597
G1 X-333.1426 Y-45.6914
G3 X-329.9456 Y-39.9243 I-3.603 J5.767
G1 Y1.2354
G3 X-333.0934 Y6.9713 I-6.8 J0.0
G1 X-341.5376 Y12.3479
G1 X-297.4865
G3 X-303.955 Y5.5591 I0.3283 J-6.7889
G1 Y-11.0059
G3 X-297.1582 Y-17.8027 I6.7968 J0.0
G1 X-265.1123
G3 X-260.2342 Y-17.5229 I0.1891 J39.3743
G3 X-251.9876 Y-14.9004 I-1.9657 J20.4586
G3 X-251.9042 Y-21.0879 I6.0964 J-3.0122
G3 X-253.277 Y-20.5858 I-5.7118 J-13.4873
G3 X-261.6291 Y-19.3702 I-7.8469 J-24.6148
G1 X-297.1582
G3 X-303.4682 Y-23.6409 I0.0 J-6.7968
G0 Z3.0
G0 X-300.4974 Y-24.8302
G0 Z-1.0
G1 F300.0 Z-4.0
G3 F800.0 X-300.755 Y-26.167 I3.3392 J-1.3368
G1 Y-43.9111
G3 X-297.1582 Y-47.5079 I3.5968 J0.0
G1 X-265.587
G3 X-255.0327 Y-46.2157 I0.8491 J36.8115
G3 X-255.0172 Y-46.2114 I-0.948 J3.4696
G3 X-249.0446 Y-42.8076 I-3.769 J13.5554
G3 X-248.9296 Y-42.6922 I-2.4904 J2.5952
G3 X-246.1118 Y-35.4194 I-7.4111 J7.0536
G3 X-247.2303 Y-29.7665 I-13.7616 J0.2143
G3 X-247.2897 Y-29.6357 I-3.3041 J-1.4213
G3 X-254.2366 Y-23.6385 I-10.3264 J-4.9395
G3 X-261.5968 Y-22.5702 I-6.8873 J-21.5621
G1 X-297.1582
G3 X-300.4974 Y-24.8302 I0.0 J-3.5968
G1 F300.0 X-299.0149 Y-25.4237
G3 F800.0 X-299.1582 Y-26.167 I1.8567 J-0.7433
G1 Y-43.9111
G3 X-297.1582 Y-45.9111 I2.0 J0.0
G1 X-265.5684
G3 X-255.4536 Y-44.6753 I0.8305 J35.2147
G3 X-255.445 Y-44.673 I-0.5272 J1.9293
G3 X-250.1502 Y-41.6555 I-3.3412 J12.017
G3 X-250.0862 Y-41.5913 I-1.3848 J1.4431
G3 X-247.7089 Y-35.4245 I-6.2545 J5.9528
G3 X-248.6971 Y-30.3975 I-12.1645 J0.2193
G3 X-248.7301 Y-30.3248 I-1.8372 J-0.7903
G3 X-254.7151 Y-25.1619 I-8.8859 J-4.2505
G3 X-261.5798 Y-24.167 I-6.4088 J-20.0387
G1 X-297.1582
G3 X-299.0149 Y-25.4237 I0.0 J-2.0
G0 Z3.0
G0 X-301.9828 Y-24.2356
G0 Z-1.0
G1 F300.0 Z-4.0
G2 F800.0 X-297.1582 Y-20.9702 I4.8246 J-1.9314
G1 X-261.6132
G2 X-253.7569 Y-22.1121 I0.4893 J-24.2304
G2 X-245.8463 Y-28.9453 I-3.8591 J-12.4632
G2 X-245.7605 Y-29.1342 I-4.6881 J-2.2425
G2 X-244.5116 Y-35.415 I-14.1129 J-6.0709
G2 X-247.7706 Y-43.7952 I-11.8291 J-0.2235
G2 X-247.9368 Y-43.9621 I-3.7644 J3.5828
G2 X-254.5886 Y-47.7529 I-10.8494 J11.3061
G2 X-254.611 Y-47.7591 I-1.3921 J5.0069
G2 X-265.6052 Y-49.1079 I-10.1269 J37.0627
G1 X-297.1582
G2 X-302.355 Y-43.9111 I0.0 J5.1968
G1 Y-26.167
G2 X-301.9828 Y-24.2356 I5.1968 J0.0
G0 Z3.0
G0 X-298.3905 Y-14.385
G0 Z-1.0
G1 F300.0 Z-4.0
G3 F800.0 X-297.1582 Y-14.6027 I1.2323 J3.3791
G1 X-265.1045
G3 X-260.5771 Y-14.3411 I0.1813 J36.1743
G3 X-253.0573 Y-11.8133 I-1.6229 J17.2768
G3 X-252.9264 Y-11.7282 I-1.895 J3.0571
G3 X-248.5256 Y-3.0592 I-5.6825 J8.3363
G3 X-250.246 Y3.1959 I-11.4965 J0.2022
G3 X-250.3112 Y3.2975 I-3.0581 J-1.8934
G3 X-253.947 Y6.7044 I-9.0952 J-6.0628
G3 X-253.9912 Y6.7294 I-1.7965 J-3.116
G3 X-259.8849 Y8.7392 I-8.4628 J-15.1705
G3 X-265.3903 Y9.1559 I-5.249 J-32.7768
G1 X-297.1582
G3 X-300.755 Y5.5591 I0.0 J-3.5968
G1 Y-11.0059
G3 X-298.3905 Y-14.385 I3.5968 J0.0
G1 F300.0 X-297.8434 Y-12.8848
G3 F800.0 X-297.1582 Y-13.0059 I0.6852 J1.879
G1 X-265.1004
G3 X-260.7474 Y-12.7532 I0.1772 J34.5775
G3 X-253.8986 Y-10.4561 I-1.4526 J15.6889
G3 X-253.8258 Y-10.4088 I-1.0537 J1.6999
G3 X-250.123 Y-3.0717 I-4.7831 J7.0168
G3 X-251.6036 Y2.3553 I-9.8992 J0.2147
G3 X-251.6399 Y2.4118 I-1.7005 J-1.0528
G3 X-254.7445 Y5.321 I-7.7666 J-5.1771
G3 X-254.7691 Y5.3349 I-0.9989 J-1.7327
G3 X-260.1291 Y7.1612 I-7.6849 J-13.776
G3 X-265.384 Y7.5591 I-5.0048 J-31.1987
G1 X-297.1582
G3 X-299.1582 Y5.5591 I0.0 J-2.0
G1 Y-11.0059
G3 X-297.8434 Y-12.8848 I2.0 J0.0
G0 Z3.0
G0 X-298.9387 Y-15.8881
G0 Z-1.0
G1 F300.0 Z-4.0
G2 F800.0 X-302.355 Y-11.0059 I1.7805 J4.8823
G1 Y5.5591
G2 X-297.1582 Y10.7559 I5.1968 J0.0
G1 X-265.3964
G2 X-259.64 Y10.3204 I0.2625 J-34.7934
G2 X-253.2117 Y8.1267 I-2.814 J-18.7614
G2 X-253.1478 Y8.0905 I-2.5317 J-4.5384
G2 X-248.9799 Y4.185 I-6.2586 J-10.8558
G2 X-248.8856 Y4.0382 I-4.3241 J-2.8824
G2 X-246.9252 Y-3.047 I-11.1365 J-6.8951
G2 X-252.0252 Y-13.0502 I-11.6837 J-0.3449
G2 X-252.2143 Y-13.1732 I-2.9271 J4.2941
G2 X-260.4059 Y-15.932 I-9.9857 J16.1089
G2 X-265.1084 Y-16.2027 I-4.5173 J37.5037
G1 X-297.1582
G2 X-298.9387 Y-15.8881 I0.0 J5.1968
G0 Z3.0
G0 Y13.9479
G0 Z-1.0
G1 F300.0 Z-4.0
G1 F800.0 X-253.0786
G3 X-253.0446 Y13.9481 I0.0 J5.2
G2 X-238.7875 Y12.8732 I0.5723 J-87.5018
G3 X-238.76 Y12.8689 I0.8132 J5.136
G2 X-225.704 Y8.8855 I-7.1644 J-46.8691
G3 X-225.6504 Y8.8606 I2.2176 J4.7034
G2 X-219.4073 Y4.4245 I-8.5031 J-18.5781
G2 X-217.2874 Y-0.9477 I-5.7211 J-5.3619
G3 Y-0.9754 I5.2 J-0.0068
G2 X-217.9326 Y-3.1828 I-4.0427 J-0.0162
G2 X-219.763 Y-5.1333 I-6.7415 J4.4922
G2 X-225.2408 Y-8.1197 I-13.4091 J18.0785
G3 X-225.2548 Y-8.125 I1.8323 J-4.8665
G2 X-235.4852 Y-11.0328 I-21.9659 J57.8315
G3 X-235.5161 Y-11.0389 I0.9864 J-5.1056
G2 X-246.4728 Y-12.7452 I-25.5874 J128.2677
G3 X-246.532 Y-23.0729 I0.5817 J-5.1674
G2 X-235.4474 Y-24.8657 I-18.8191 J-151.5225
G3 X-235.4464 Y-24.8659 I1.0184 J5.0993
G2 X-227.3088 Y-26.8777 I-18.0554 J-90.4975
G1 X-227.3084 Y-26.8778
G2 X-221.5005 Y-28.9565 I-15.6414 J-52.8555
G3 X-221.408 Y-28.9945 I2.0235 J4.7902
G2 X-214.2882 Y-33.3966 I-9.0132 J-22.5367
G2 X-212.349 Y-36.0124 I-6.268 J-6.6733
G2 X-211.7282 Y-38.8302 I-5.929 J-2.7835
G3 X-211.7278 Y-38.9299 I5.1999 J-0.0273
G2 X-212.8801 Y-42.9199 I-7.139 J-0.0996
G2 X-215.7213 Y-45.7052 I-8.6538 J5.9856
G2 X-223.7546 Y-49.2254 I-15.1875 J23.7323
G3 X-223.7759 Y-49.2311 I1.3203 J-5.0296
G2 X-238.1927 Y-51.6915 I-20.5561 J76.9787
G3 X-238.2283 Y-51.6944 I0.4007 J-5.1845
G2 X-253.3392 Y-52.3 I-14.4436 J171.5622
G3 X-253.3594 I-0.0202 J-5.2
G1 X-346.7404
G1 X-333.9904 Y-44.3344
G3 X-331.5456 Y-39.9243 I-2.7552 J4.4101
G1 Y1.2354
G3 X-333.9527 Y5.6217 I-5.2 J0.0
G1 X-347.0294 Y13.9479
G1 X-298.9387
G1 F300.0 Y15.5479
G1 F800.0 X-253.0786
G3 X-253.0551 Y15.548 I0.0 J3.6
G2 X-238.5372 Y14.4535 I0.5828 J-89.1018
G3 X-238.5182 Y14.4506 I0.563 J3.5557
G2 X-225.0216 Y10.3327 I-7.4062 J-48.4507
G3 X-224.9846 Y10.3154 I1.5353 J3.2562
G2 X-218.2463 Y5.5255 I-9.169 J-20.0329
G2 X-215.6874 Y-0.9498 I-6.882 J-6.4629
G3 Y-0.969 I3.6 J-0.0047
G2 X-216.5948 Y-4.0604 I-5.6426 J-0.0226
G2 X-218.8016 Y-6.4123 I-8.0793 J5.3699
G2 X-224.677 Y-9.6171 I-14.3705 J19.3575
G3 X-224.6867 Y-9.6208 I1.2685 J-3.3691
G2 X-235.1817 Y-12.6037 I-22.534 J59.3272
G3 X-235.2031 Y-12.6079 I0.6829 J-3.5346
G2 X-246.2938 Y-14.3352 I-25.9004 J129.8368
G3 X-246.3348 Y-21.4851 I0.4027 J-3.5774
G2 X-235.134 Y-23.2967 I-19.0164 J-153.1103
G3 X-235.1334 Y-23.2968 I0.7051 J3.5303
G2 X-226.8546 Y-25.3435 I-18.3685 J-92.0665
G1 X-226.8543 Y-25.3436
G2 X-220.8779 Y-27.4826 I-16.0954 J-54.3898
G3 X-220.8138 Y-27.5089 I1.4009 J3.3163
G2 X-213.2089 Y-32.2152 I-9.6074 J-24.0223
G2 X-210.9077 Y-35.3176 I-7.3472 J-7.8547
G2 X-210.1283 Y-38.8385 I-7.3703 J-3.4783
G3 X-210.128 Y-38.9076 I3.6 J-0.0189
G2 X-211.5513 Y-43.8113 I-8.7388 J-0.1219
G2 X-214.8484 Y-47.0461 I-9.9826 J6.877
G2 X-223.3484 Y-50.773 I-16.0605 J25.0733
G3 X-223.3631 Y-50.7769 I0.9141 J-3.482
G2 X-238.0694 Y-53.2868 I-20.9689 J78.5246
G3 X-238.0941 Y-53.2888 I0.2774 J-3.5893
G2 X-253.3454 Y-53.9 I-14.5778 J173.1566
G3 X-253.3594 I-0.014 J-3.6
G1 X-352.3212
G1 X-334.8382 Y-42.9775
G3 X-333.1456 Y-39.9243 I-1.9074 J3.0531
G1 Y1.2354
G3 X-334.8121 Y4.272 I-3.6 J0.0
G1 X-352.5213 Y15.5479
G1 X-298.9387
G1 F300.0 Y17.1479
G1 F800.0 X-253.0786
G3 X-253.0655 Y17.148 I0.0 J2.0
G2 X-238.287 Y16.0338 I0.5933 J-90.7018
G3 X-238.2764 Y16.0322 I0.3128 J1.9754
G2 X-224.3393 Y11.7799 I-7.6479 J-50.0323
G3 X-224.3187 Y11.7703 I0.8529 J1.809
G2 X-217.0856 Y6.6268 I-9.8349 J-21.4878
G2 X-214.0874 Y-0.952 I-8.0427 J-7.5642
G3 Y-0.9626 I2.0 J-0.0026
G2 X-215.2573 Y-4.9386 I-7.2426 J-0.029
G2 X-217.8406 Y-7.6916 I-9.4168 J6.248
G2 X-224.1132 Y-11.1144 I-15.3315 J20.6367
G3 X-224.1186 Y-11.1165 I0.7047 J-1.8717
G2 X-234.8782 Y-14.1747 I-23.1021 J60.823
G3 X-234.8901 Y-14.177 I0.3794 J-1.9637
G2 X-246.1148 Y-15.9251 I-26.2135 J131.4059
G3 X-246.1376 Y-19.8973 I0.2237 J-1.9874
G2 X-234.8207 Y-21.7277 I-19.2136 J-154.6981
G3 X-234.8203 Y-21.7278 I0.3917 J1.9613
G2 X-226.4005 Y-23.8093 I-18.6816 J-93.6356
G1 X-226.4003 Y-23.8094
G2 X-220.2553 Y-26.0087 I-16.5494 J-55.924
G3 X-220.2197 Y-26.0233 I0.7783 J1.8424
G2 X-212.1303 Y-31.0333 I-10.2015 J-25.5079
G2 X-209.4665 Y-34.6225 I-8.4258 J-9.0366
G2 X-208.5283 Y-38.8469 I-8.8115 J-4.1733
G3 X-208.5281 Y-38.8853 I2.0 J-0.0105
G2 X-210.2228 Y-44.7032 I-10.3387 J-0.1442
G2 X-213.9758 Y-48.3873 I-11.3111 J7.7689
G2 X-222.9421 Y-52.3206 I-16.9331 J26.4144
G3 X-222.9503 Y-52.3227 I0.5078 J-1.9345
G2 X-237.9462 Y-54.882 I-21.3817 J80.0704
G3 X-237.9598 Y-54.8831 I0.1541 J-1.9941
G2 X-253.3516 Y-55.5 I-14.712 J174.7509
G3 X-253.3594 I-0.0078 J-2.0
G1 X-357.902
G1 X-335.6859 Y-41.6205
G3 X-334.7456 Y-39.9243 I-1.0597 J1.6962
G1 Y1.2354
G3 X-335.6714 Y2.9224 I-2.0 J0.0
G1 X-358.0131 Y17.1479
G1 X-298.9387
G0 Z3.0
G0 X-183.6015 Y-29.6839
G0 Z1.0
G1 F300.0 Z-2.0
G2 F800.0 X-183.4423 Y-29.3415 I3.5327 J-1.4344
G3 X-183.8662 Y-31.6705 I16.6698 J-4.2376
G2 X-183.8822 Y-31.3198 I3.1985 J0.3217
G3 X-183.8816 Y-31.1267 I-17.1993 J0.1553
G2 X-183.6015 Y-29.6839 I3.8129 J0.0084
G1 F300.0 X-184.3427 Y-29.3829
G2 F800.0 X-183.7436 Y-28.3301 I4.274 J-1.7354
G3 X-183.6749 Y-28.239 I-13.065 J9.9129
G2 X-182.516 Y-26.8863 I10.7672 J-8.052
G3 X-182.2412 Y-28.1313 I16.1366 J2.9093
G3 X-183.1642 Y-33.059 I15.4687 J-5.4478
G3 X-183.1705 Y-34.6224 I28.2011 J-0.8947
G2 X-184.2604 Y-33.1404 I6.4754 J5.9042
G2 X-184.6822 Y-31.3126 I3.5926 J1.7916
G3 X-184.6816 Y-31.1285 I-16.3993 J0.148
G2 X-184.3427 Y-29.3829 I4.6129 J0.0101
G1 F300.0 X-185.8252 Y-28.781
G2 F800.0 X-185.0182 Y-27.363 I5.7564 J-2.3374
G3 X-184.9562 Y-27.2807 I-11.7904 J8.9458
G2 X-182.6224 Y-24.8029 I12.0485 J-9.0102
G3 X-182.6044 Y-24.7876 I-9.5565 J11.301
G2 X-181.1759 Y-23.6518 I18.5945 J-21.9181
G3 X-181.1753 Y-24.1379 I25.3722 J-0.2103
G3 X-180.5606 Y-28.2007 I14.7959 J0.1609
G3 X-181.565 Y-33.1098 I13.7881 J-5.3784
G3 X-181.2334 Y-38.2254 I26.6019 J-0.844
G2 X-182.8768 Y-37.0382 I14.0591 J21.1943
G3 X-183.0041 Y-36.9395 I-9.1375 J-11.6424
G2 X-185.6673 Y-33.9039 I6.309 J8.2212
G2 X-186.2821 Y-31.2981 I4.9995 J2.5551
G3 X-186.2816 Y-31.132 I-14.7994 J0.1336
G2 X-185.8252 Y-28.781 I6.2129 J0.0137
G1 F300.0 X-187.3076 Y-28.179
G2 F800.0 X-186.2928 Y-26.3959 I7.2389 J-2.9393
G3 X-186.2376 Y-26.3225 I-10.5158 J7.9786
G2 X-183.6555 Y-23.5811 I13.3298 J-9.9684
G3 X-183.6395 Y-23.5675 I-8.5234 J10.0793
G2 X-179.829 Y-20.8126 I19.6296 J-23.1381
G2 X-179.3406 Y-20.5191 I22.8065 J-37.391
G3 X-179.5754 Y-24.1205 I23.5369 J-3.343
G3 X-178.8581 Y-28.2709 I13.196 J0.1435
G3 X-179.9658 Y-33.1605 I12.0857 J-5.3082
G3 X-178.8404 Y-41.413 I25.0027 J-0.7933
G2 X-180.1338 Y-40.7556 I22.0324 J44.9533
G2 X-183.8647 Y-38.2969 I12.9595 J23.7245
G3 X-183.9782 Y-38.2088 I-8.1497 J-10.3838
G2 X-187.0726 Y-34.6697 I7.2831 J9.4905
G2 X-187.8821 Y-31.2837 I6.4049 J3.3209
G3 X-187.8816 Y-31.1355 I-13.1995 J0.1192
G2 X-187.3076 Y-28.179 I7.8128 J0.0172
G1 F300.0 X-188.7901 Y-27.5771
G2 F800.0 X-187.5675 Y-25.4288 I8.7213 J-3.5412
G3 X-187.5189 Y-25.3643 I-9.2411 J7.0115
G2 X-184.6886 Y-22.3594 I14.6112 J-10.9266
G3 X-184.6745 Y-22.3475 I-7.4902 J8.8576
G2 X-180.6626 Y-19.447 I20.6647 J-24.3582
G2 X-177.0303 Y-17.4529 I23.6401 J-38.7566
G3 X-177.9755 Y-24.1031 I21.2266 J-6.4092
G3 X-177.1232 Y-28.3425 I11.5961 J0.1261
G3 X-178.3666 Y-33.2113 I10.3507 J-5.2366
G3 X-175.8834 Y-44.4713 I23.4035 J-0.7425
G2 X-180.89 Y-42.1657 I19.0753 J48.0116
G2 X-184.8525 Y-39.5555 I13.7158 J25.1346
G3 X-184.9522 Y-39.4781 I-7.1618 J-9.1251
G2 X-188.4771 Y-35.4368 I8.2572 J10.7598
G2 X-189.482 Y-31.2693 I7.8093 J4.088
G3 X-189.4816 Y-31.139 I-11.5995 J0.1047
G2 X-188.7901 Y-27.5771 I9.4128 J0.0207
G1 F300.0 X-190.2725 Y-26.9751
G2 F800.0 X-188.8421 Y-24.4617 I10.2038 J-4.1432
G3 X-188.8002 Y-24.4061 I-7.9665 J6.0444
G2 X-185.7218 Y-21.1377 I15.8925 J-11.8849
G3 X-185.7096 Y-21.1274 I-6.4571 J7.6358
G2 X-181.4963 Y-18.0813 I21.6998 J-25.5783
G2 X-174.0767 Y-14.4096 I24.4738 J-40.1223
G3 X-176.3756 Y-24.0857 I18.273 J-9.4525
G3 X-175.3366 Y-28.4161 I9.9962 J0.1087
G3 X-176.7674 Y-33.262 I8.5641 J-5.163
G3 X-172.0729 Y-47.4876 I21.8043 J-0.6918
G2 X-181.6461 Y-43.5758 I15.2648 J51.0279
G2 X-185.8403 Y-40.8142 I14.4719 J26.5447
G3 X-185.9263 Y-40.7474 I-6.174 J-7.8665
G2 X-189.8811 Y-36.2047 I9.2313 J12.0291
G2 X-191.082 Y-31.2548 I9.2133 J4.8559
G3 X-191.0816 Y-31.1425 I-9.9996 J0.0903
G2 X-190.2725 Y-26.9751 I11.0128 J0.0242
G1 F300.0 X-191.755 Y-26.3732
G2 F800.0 X-190.1167 Y-23.4946 I11.6862 J-4.7451
G3 X-190.0816 Y-23.4479 I-6.6918 J5.0773
G2 X-186.7549 Y-19.9159 I17.1739 J-12.8431
G3 X-186.7447 Y-19.9073 I-5.424 J6.4141
G2 X-182.3299 Y-16.7156 I22.7348 J-26.7984
G2 X-170.1091 Y-11.4013 I25.3074 J-41.488
G3 X-172.4243 Y-14.7132 I16.0159 J-13.6612
G3 X-172.5027 Y-14.8553 I7.312 J-4.1281
G3 X-174.7757 Y-24.0683 I16.699 J-9.0068
G3 X-173.4581 Y-28.4936 I8.3963 J0.0913
G3 X-175.1682 Y-33.3127 I6.6856 J-5.0855
G3 X-170.0503 Y-47.4087 I20.2051 J-0.641
G3 X-169.8785 Y-47.5956 I6.2691 J5.5909
G3 X-166.6643 Y-50.4292 I17.354 J16.4446
G2 X-182.4021 Y-44.986 I9.8563 J53.9695
G2 X-186.8282 Y-42.0728 I15.2279 J27.9549
G3 X-186.9004 Y-42.0167 I-5.1862 J-6.6079
G2 X-191.2847 Y-36.9731 I10.2053 J13.2985
G2 X-192.6819 Y-31.2404 I10.6169 J5.6242
G3 X-192.6816 Y-31.1461 I-8.3997 J0.0758
G2 X-191.755 Y-26.3732 I12.6128 J0.0277
G1 F300.0 X-193.2374 Y-25.7713
G2 F800.0 X-191.3914 Y-22.5275 I13.1687 J-5.3471
G3 X-191.3629 Y-22.4897 I-5.4172 J4.1102
G2 X-187.788 Y-18.6942 I18.4552 J-13.8013
G3 X-187.7798 Y-18.6872 I-4.3908 J5.1924
G2 X-183.1636 Y-15.35 I23.7699 J-28.0185
G2 X-168.2857 Y-9.286 I26.1411 J-42.8536
G2 X-164.3315 Y-8.4963 I16.0462 J-70.0523
G3 X-165.6688 Y-9.4311 I13.1153 J-20.1865
G3 X-171.031 Y-15.4998 I11.5757 J-15.6314
G3 X-171.0945 Y-15.6148 I5.9187 J-3.3415
G3 X-173.1758 Y-24.0509 I15.2908 J-8.2472
G3 X-171.3812 Y-28.5791 I6.7964 J0.0739
G3 X-173.569 Y-33.3635 I4.6087 J-5.0
G3 X-168.8562 Y-46.3438 I18.6059 J-0.5903
G3 X-168.7171 Y-46.4951 I5.075 J4.526
G3 X-161.1703 Y-51.7153 I16.1926 J15.344
G3 X-161.148 Y-51.7246 I2.6355 J6.2685
G3 X-156.37 Y-53.375 I15.7114 J37.7444
G2 X-166.3372 Y-52.112 I7.8895 J102.2236
G3 X-166.3699 Y-52.1063 I-1.1843 J-6.6961
G2 X-183.158 Y-46.3962 I9.5619 J55.6466
G2 X-187.816 Y-43.3314 I15.9837 J29.3651
G3 X-187.8745 Y-43.2861 I-4.1983 J-5.3492
G2 X-192.688 Y-37.7418 I11.1794 J14.5678
G2 X-194.2818 Y-31.2259 I12.0203 J6.393
G3 X-194.2816 Y-31.1496 I-6.7997 J0.0614
G2 X-193.2374 Y-25.7713 I14.2128 J0.0313
G0 Z3.0
G0 X-123.7683 Y-19.9108
G0 Z1.0
G1 F300.0 Z-2.0
G2 F800.0 X-120.5234 Y-23.5791 I-17.8593 J-19.0678
G1 X-123.4741
G3 X-123.7683 Y-19.9108 I-24.1044 J-0.0878
G1 F300.0 X-122.6746 Y-18.7431
G2 F800.0 X-118.0683 Y-24.3618 I-18.953 J-20.2356
G2 X-117.5949 Y-25.1791 I-26.3901 J-15.8288
G1 X-125.1638
G3 X-125.0794 Y-24.1617 I-8.3103 J1.2021
G3 X-126.5269 Y-15.7117 I-22.4991 J0.4948
G2 X-125.7179 Y-16.2721 I-19.8981 J-29.5891
G3 X-125.6735 Y-16.3035 I4.8781 J6.8385
G2 X-122.6746 Y-18.7431 I-15.9541 J-22.6752
G1 F300.0 X-121.5808 Y-17.5753
G2 F800.0 X-116.7023 Y-23.5285 I-20.0468 J-21.4034
G2 X-114.9939 Y-26.7791 I-27.756 J-16.662
G1 X-127.2818
G3 X-126.679 Y-24.1265 I-6.1923 J2.8021
G3 X-128.3297 Y-15.513 I-20.8995 J0.4596
G3 X-128.4346 Y-15.2779 I-6.2584 J-2.6511
G3 X-130.8927 Y-11.4355 I-15.8624 J-7.44
G2 X-124.7888 Y-14.9695 I-15.5323 J-33.8654
G3 X-124.7528 Y-14.995 I3.9489 J5.5359
G2 X-121.5808 Y-17.5753 I-16.8748 J-23.9837
G1 F300.0 X-120.4871 Y-16.4075
G2 F800.0 X-115.3364 Y-22.6952 I-21.1406 J-22.5711
G2 X-112.6046 Y-28.3791 I-29.122 J-17.4953
G1 X-130.7121
G3 X-128.2786 Y-24.0913 I-2.762 J4.4021
G3 X-129.803 Y-16.1371 I-19.2999 J0.4244
G3 X-129.8832 Y-15.9573 I-4.7852 J-2.027
G3 X-139.5179 Y-7.5316 I-14.4138 J-6.7606
G3 X-149.6833 Y-6.0333 I-9.5325 J-29.4405
G3 X-157.3261 Y-7.0565 I-0.1651 J-27.8215
G3 X-157.3471 Y-7.0624 I1.3967 J-5.0056
G3 X-164.7124 Y-10.7138 I6.1308 J-21.6205
G3 X-169.6377 Y-16.2864 I10.6193 J-14.3487
G3 X-169.6863 Y-16.3744 I4.5254 J-2.5549
G3 X-171.5759 Y-24.0336 I13.8826 J-7.4877
G3 X-168.5579 Y-28.6952 I5.1965 J0.0565
G3 X-171.9698 Y-33.4142 I1.7854 J-4.8839
G3 X-167.6621 Y-45.2788 I17.0067 J-0.5396
G3 X-167.5557 Y-45.3945 I3.8809 J3.461
G3 X-160.5502 Y-50.2404 I15.0312 J14.2435
G3 X-160.5331 Y-50.2475 I2.0154 J4.7936
G3 X-149.9734 Y-53.0012 I15.0965 J36.2673
G3 X-139.8935 Y-53.6035 I9.6589 J76.9976
G3 X-123.3039 Y-52.3231 I1.1547 J93.1516
G2 X-132.7314 Y-54.3414 I-16.2649 J52.9452
G3 X-132.7663 Y-54.3459 I0.6419 J-5.1602
G2 X-147.651 Y-55.2762 I-14.2606 J108.6325
G3 X-147.7187 I-0.0296 J-5.1999
G2 X-166.6159 Y-53.6876 I-0.7618 J104.1248
G3 X-166.6409 Y-53.6832 I-0.9057 J-5.1205
G2 X-183.9138 Y-47.8065 I9.8328 J57.2235
G2 X-188.8039 Y-44.5901 I16.7395 J30.7754
G3 X-188.8486 Y-44.5554 I-3.2105 J-4.0906
G2 X-194.0912 Y-38.5108 I12.1535 J15.8371
G2 X-195.8818 Y-31.2115 I13.4235 J7.162
G3 X-195.8816 Y-31.1531 I-5.1998 J0.0469
G2 X-192.666 Y-21.5603 I15.8128 J0.0348
G3 X-192.6443 Y-21.5314 I-4.1426 J3.1431
G2 X-188.8212 Y-17.4725 I19.7365 J-14.7595
G3 X-188.8149 Y-17.4671 I-3.3577 J3.9706
G2 X-183.9972 Y-13.9843 I24.805 J-29.2386
G2 X-168.6438 Y-7.7266 I26.9747 J-44.2193
G2 X-151.7053 Y-5.8737 I16.4043 J-71.6117
G3 X-151.6199 Y-5.8736 I0.0378 J5.1999
G2 X-136.8366 Y-7.645 I0.5316 J-58.1372
G2 X-123.8596 Y-13.6669 I-9.5883 J-37.6558
G3 X-123.8321 Y-13.6864 I3.0198 J4.2333
G2 X-120.4871 Y-16.4075 I-17.7955 J-25.2923
G0 Z3.0
G0 X-130.4772 Y-19.0845
G0 Z1.0
G1 F300.0 Z-2.0
G3 F800.0 X-131.2762 Y-16.7612 I-17.1013 J-4.5824
G3 X-131.3317 Y-16.6368 I-3.3119 J-1.4029
G3 X-140.0044 Y-9.0558 I-12.9653 J-6.0811
G3 X-149.6717 Y-7.6334 I-9.046 J-27.9162
G3 X-156.8961 Y-8.5976 I-0.1767 J-26.2214
G3 X-156.9106 Y-8.6017 I0.9667 J-3.4645
G3 X-163.7561 Y-11.9966 I5.6943 J-20.0812
G3 X-168.2445 Y-17.0731 I9.6629 J-13.0659
G3 X-168.278 Y-17.1339 I3.1321 J-1.7683
G3 X-169.976 Y-24.0162 I12.4743 J-6.7282
G3 X-166.3794 Y-27.5739 I3.5966 J0.0391
G1 X-133.4741
G3 X-129.8782 Y-24.0561 I0.0 J3.5968
G3 X-130.4772 Y-19.0845 I-17.7003 J0.3893
G1 F300.0 X-132.0196 Y-19.4978
G3 F800.0 X-132.7466 Y-17.384 I-15.5589 J-4.1691
G3 X-132.7774 Y-17.3148 I-1.8416 J-0.7801
G3 X-140.4898 Y-10.5771 I-11.5196 J-5.4031
G3 X-149.6603 Y-9.2303 I-8.5607 J-26.3949
G3 X-156.4669 Y-10.1356 I-0.1882 J-24.6245
G3 X-156.475 Y-10.1379 I0.5375 J-1.9264
G3 X-162.8017 Y-13.2768 I5.2587 J-18.545
G3 X-166.854 Y-17.8581 I8.7086 J-11.7857
G3 X-166.8726 Y-17.8919 I1.7416 J-0.9833
G3 X-168.3793 Y-23.9988 I11.0689 J-5.9701
G3 X-166.3794 Y-25.9771 I1.9999 J0.0217
G1 X-133.4741
G3 X-131.4746 Y-24.021 I0.0 J2.0
G3 X-132.0196 Y-19.4978 I-16.1039 J0.3541
G0 Z3.0
G0 Y-29.9791
G0 Z1.0
G1 F300.0 Z-2.0
G1 F800.0 X-166.7725
G3 X-170.3707 Y-33.4649 I0.0 J-3.6
G3 X-166.4679 Y-44.2139 I15.4075 J-0.4888
G3 X-166.3943 Y-44.294 I2.6868 J2.3961
G3 X-159.9301 Y-48.7654 I13.8698 J13.143
G3 X-159.9183 Y-48.7703 I1.3952 J3.3186
G3 X-149.7815 Y-51.4127 I14.4816 J34.7902
G3 X-139.8879 Y-52.0035 I9.4669 J75.4091
G3 X-121.4961 Y-50.3724 I1.1491 J91.5515
G3 X-121.4703 Y-50.3674 I-0.678 J3.5356
G3 X-112.1332 Y-47.377 I-8.4835 J42.5606
G3 X-110.0558 Y-46.3376 I-9.7858 J22.1559
G2 X-111.5385 Y-48.0879 I-6.4351 J3.9482
G3 X-111.5616 Y-48.1082 I2.3615 J-2.7172
G2 X-118.2938 Y-52.2449 I-15.2 J17.1904
G3 X-118.3084 Y-52.2507 I1.3285 J-3.3459
G2 X-132.5339 Y-55.9292 I-21.2604 J52.8728
G3 X-132.558 Y-55.9323 I0.4444 J-3.5725
G2 X-147.6602 Y-56.8761 I-14.4689 J110.2189
G3 X-147.707 Y-56.8762 I-0.0205 J-3.5999
G2 X-166.8945 Y-55.2631 I-0.7735 J105.7247
G3 X-166.9119 Y-55.2601 I-0.627 J-3.545
G2 X-184.6695 Y-49.2168 I10.1038 J58.8004
G2 X-189.7917 Y-45.8487 I17.4953 J32.1857
G3 X-189.8227 Y-45.8247 I-2.2226 J-2.8319
G2 X-195.4943 Y-39.28 I13.1276 J17.1064
G2 X-197.4817 Y-31.197 I14.8266 J7.9312
G3 X-197.4816 Y-31.1566 I-3.5999 J0.0325
G2 X-193.9407 Y-20.5932 I17.4128 J0.0383
G3 X-193.9256 Y-20.5732 I-2.8679 J2.176
G2 X-189.8543 Y-16.2507 I21.0179 J-15.7177
G3 X-189.8499 Y-16.247 I-2.3246 J2.7489
G2 X-184.8309 Y-12.6187 I25.8401 J-30.4587
G2 X-169.0019 Y-6.1672 I27.8084 J-45.585
G2 X-151.6937 Y-4.2737 I16.7624 J-73.1711
G3 X-151.6346 I0.0262 J3.5999
G2 X-136.4431 Y-6.0941 I0.5463 J-59.7372
G2 X-122.9304 Y-12.3644 I-9.9818 J-39.2067
G3 X-122.9114 Y-12.3778 I2.0906 J2.9308
G2 X-113.9705 Y-21.862 I-18.7162 J-26.6008
G2 X-110.3823 Y-29.9791 I-30.4879 J-18.3286
G1 X-132.0196
G1 F300.0 Y-31.5791
G1 F800.0 X-166.7725
G3 X-168.7715 Y-33.5157 I0.0 J-2.0
G3 X-165.2738 Y-43.149 I13.8083 J-0.4381
G3 X-165.2329 Y-43.1935 I1.4927 J1.3312
G3 X-159.31 Y-47.2905 I12.7084 J12.0424
G3 X-159.3034 Y-47.2932 I0.7751 J1.8437
G3 X-149.5896 Y-49.8243 I13.8668 J33.313
G3 X-139.8824 Y-50.4034 I9.2751 J73.8207
G3 X-121.7974 Y-48.801 I1.1436 J89.9515
G3 X-121.7831 Y-48.7982 I-0.3766 J1.9642
G3 X-112.7849 Y-45.9157 I-8.1708 J40.9914
G3 X-107.3469 Y-42.5229 I-9.1341 J20.6946
G2 X-107.3429 Y-42.5693 I-8.2653 J-0.7268
G2 X-110.4889 Y-49.2955 I-9.1479 J0.1799
G3 X-110.5018 Y-49.3068 I1.3119 J-1.5096
G2 X-117.7034 Y-53.732 I-16.2599 J18.389
G3 X-117.7115 Y-53.7352 I0.738 J-1.8588
G2 X-132.3364 Y-57.517 I-21.8573 J54.3573
G3 X-132.3498 Y-57.5187 I0.2469 J-1.9847
G2 X-147.6693 Y-58.4761 I-14.6771 J111.8053
G3 X-147.6953 I-0.0114 J-2.0
G2 X-167.1732 Y-56.8387 I-0.7852 J107.3247
G3 X-167.1828 Y-56.837 I-0.3483 J-1.9694
G2 X-185.4252 Y-50.6272 I10.3748 J60.3773
G2 X-190.7795 Y-47.1074 I18.2509 J33.596
G3 X-190.7967 Y-47.094 I-1.2348 J-1.5733
G2 X-196.8973 Y-40.0494 I14.1017 J18.3757
G2 X-199.0816 Y-31.1826 I16.2295 J8.7006
G3 X-199.0815 Y-31.1602 I-1.9999 J0.0181
G2 X-195.2153 Y-19.6261 I19.0128 J0.0418
G3 X-195.2069 Y-19.615 I-1.5933 J1.2089
G2 X-190.8874 Y-15.029 I22.2992 J-16.6759
G3 X-190.885 Y-15.0269 I-1.2914 J1.5272
G2 X-185.6645 Y-11.253 I26.8752 J-31.6787
G2 X-169.3601 Y-4.6078 I28.642 J-46.9506
G2 X-151.682 Y-2.6738 I17.1206 J-74.7305
G3 X-151.6492 Y-2.6737 I0.0145 J1.9999
G2 X-136.0496 Y-4.5433 I0.5609 J-61.3371
G2 X-122.0013 Y-11.0618 I-10.3753 J-40.7575
G3 X-121.9907 Y-11.0693 I1.1614 J1.6282
G2 X-112.6045 Y-21.0288 I-19.6369 J-27.9094
G2 X-108.2964 Y-31.5791 I-31.8539 J-19.1618
G1 X-132.0196
G0 Z3.0
G0 X-123.4741 Y-23.5791
G0 Z-1.0
G1 F300.0 Z-4.0
G3 F800.0 X-123.7683 Y-19.9108 I-24.1044 J-0.0878
G2 X-120.5234 Y-23.5791 I-17.8593 J-19.0678
G1 X-123.4741
G1 F300.0 X-125.0741 Y-23.5849
G3 F800.0 X-126.5269 Y-15.7117 I-22.5044 J-0.0819
G2 X-125.7179 Y-16.2721 I-19.8981 J-29.5891
G3 X-125.6735 Y-16.3035 I4.8781 J6.8385
G2 X-118.0683 Y-24.3618 I-15.9541 J-22.6752
G2 X-117.5949 Y-25.1791 I-26.3901 J-15.8288
G1 X-125.1638
G3 X-125.0794 Y-24.1617 I-8.3103 J1.2021
G3 X-125.0741 Y-23.5849 I-22.4991 J0.4948
G1 F300.0 X-126.674 Y-23.5908
G3 F800.0 X-128.3297 Y-15.513 I-20.9044 J-0.0761
G3 X-128.4346 Y-15.2779 I-6.2584 J-2.6511
G3 X-130.8927 Y-11.4355 I-15.8624 J-7.44
G2 X-124.7888 Y-14.9695 I-15.5323 J-33.8654
G3 X-124.7528 Y-14.995 I3.9489 J5.5359
G2 X-116.7023 Y-23.5285 I-16.8748 J-23.9837
G2 X-114.9939 Y-26.7791 I-27.756 J-16.662
G1 X-127.2818
G3 X-126.679 Y-24.1265 I-6.1923 J2.8021
G3 X-126.674 Y-23.5908 I-20.8995 J0.4596
G0 Z3.0
G0 X-183.4423 Y-29.3415
G0 Z-1.0
G1 F300.0 Z-4.0
G3 F800.0 X-183.8662 Y-31.6705 I16.6698 J-4.2376
G2 X-183.8822 Y-31.3198 I3.1985 J0.3217
G3 X-183.8816 Y-31.1267 I-17.1993 J0.1553
G2 X-183.4423 Y-29.3415 I3.8129 J0.0084
G1 F300.0 X-184.1501 Y-28.9687
G2 F800.0 X-183.7436 Y-28.3301 I4.0814 J-2.1496
G3 X-183.6749 Y-28.239 I-13.065 J9.9129
G2 X-182.516 Y-26.8863 I10.7672 J-8.052
G3 X-182.2412 Y-28.1313 I16.1366 J2.9093
G3 X-183.1642 Y-33.059 I15.4687 J-5.4478
G3 X-183.1705 Y-34.6224 I28.2011 J-0.8947
G2 X-184.2604 Y-33.1404 I6.4754 J5.9042
G2 X-184.6822 Y-31.3126 I3.5926 J1.7916
G3 X-184.6816 Y-31.1285 I-16.3993 J0.148
G2 X-184.1501 Y-28.9687 I4.6129 J0.0101
G1 F300.0 X-185.5657 Y-28.2231
G2 F800.0 X-185.0182 Y-27.363 I5.497 J-2.8953
G3 X-184.9562 Y-27.2807 I-11.7904 J8.9458
G2 X-182.6224 Y-24.8029 I12.0485 J-9.0102
G3 X-182.6044 Y-24.7876 I-9.5565 J11.301
G2 X-181.1759 Y-23.6518 I18.5945 J-21.9181
G3 X-181.1753 Y-24.1379 I25.3722 J-0.2103
G3 X-180.5606 Y-28.2007 I14.7959 J0.1609
G3 X-181.565 Y-33.1098 I13.7881 J-5.3784
G3 X-181.2334 Y-38.2254 I26.6019 J-0.844
G2 X-182.8768 Y-37.0382 I14.0591 J21.1943
G3 X-183.0041 Y-36.9395 I-9.1375 J-11.6424
G2 X-185.6673 Y-33.9039 I6.309 J8.2212
G2 X-186.2821 Y-31.2981 I4.9995 J2.5551
G3 X-186.2816 Y-31.132 I-14.7994 J0.1336
G2 X-185.5657 Y-28.2231 I6.2129 J0.0137
G1 F300.0 X-186.9814 Y-27.4774
G2 F800.0 X-186.2928 Y-26.3959 I6.9127 J-3.6409
G3 X-186.2376 Y-26.3225 I-10.5158 J7.9786
G2 X-183.6555 Y-23.5811 I13.3298 J-9.9684
G3 X-183.6395 Y-23.5675 I-8.5234 J10.0793
G2 X-179.829 Y-20.8126 I19.6296 J-23.1381
G2 X-179.3406 Y-20.5191 I22.8065 J-37.391
G3 X-179.5754 Y-24.1205 I23.5369 J-3.343
G3 X-178.8581 Y-28.2709 I13.196 J0.1435
G3 X-179.9658 Y-33.1605 I12.0857 J-5.3082
G3 X-178.8404 Y-41.413 I25.0027 J-0.7933
G2 X-180.1338 Y-40.7556 I22.0324 J44.9533
G2 X-183.8647 Y-38.2969 I12.9595 J23.7245
G3 X-183.9782 Y-38.2088 I-8.1497 J-10.3838
G2 X-187.0726 Y-34.6697 I7.2831 J9.4905
G2 X-187.8821 Y-31.2837 I6.4049 J3.3209
G3 X-187.8816 Y-31.1355 I-13.1995 J0.1192
G2 X-186.9814 Y-27.4774 I7.8128 J0.0172
G1 F300.0 X-188.397 Y-26.7318
G2 F800.0 X-187.5675 Y-25.4288 I8.3283 J-4.3865
G3 X-187.5189 Y-25.3643 I-9.2411 J7.0115
G2 X-184.6886 Y-22.3594 I14.6112 J-10.9266
G3 X-184.6745 Y-22.3475 I-7.4902 J8.8576
G2 X-180.6626 Y-19.447 I20.6647 J-24.3582
G2 X-177.0303 Y-17.4529 I23.6401 J-38.7566
G3 X-177.9755 Y-24.1031 I21.2266 J-6.4092
G3 X-177.1232 Y-28.3425 I11.5961 J0.1261
G3 X-178.3666 Y-33.2113 I10.3507 J-5.2366
G3 X-175.8834 Y-44.4713 I23.4035 J-0.7425
G2 X-180.89 Y-42.1657 I19.0753 J48.0116
G2 X-184.8525 Y-39.5555 I13.7158 J25.1346
G3 X-184.9522 Y-39.4781 I-7.1618 J-9.1251
G2 X-188.4771 Y-35.4368 I8.2572 J10.7598
G2 X-189.482 Y-31.2693 I7.8093 J4.088
G3 X-189.4816 Y-31.139 I-11.5995 J0.1047
G2 X-188.397 Y-26.7318 I9.4128 J0.0207
G1 F300.0 X-189.8127 Y-25.9862
G2 F800.0 X-188.8421 Y-24.4617 I9.744 J-5.1321
G3 X-188.8002 Y-24.4061 I-7.9665 J6.0444
G2 X-185.7218 Y-21.1377 I15.8925 J-11.8849
G3 X-185.7096 Y-21.1274 I-6.4571 J7.6358
G2 X-181.4963 Y-18.0813 I21.6998 J-25.5783
G2 X-174.0767 Y-14.4096 I24.4738 J-40.1223
G3 X-176.3756 Y-24.0857 I18.273 J-9.4525
G3 X-175.3366 Y-28.4161 I9.9962 J0.1087
G3 X-176.7674 Y-33.262 I8.5641 J-5.163
G3 X-172.0729 Y-47.4876 I21.8043 J-0.6918
G2 X-181.6461 Y-43.5758 I15.2648 J51.0279
G2 X-185.8403 Y-40.8142 I14.4719 J26.5447
G3 X-185.9263 Y-40.7474 I-6.174 J-7.8665
G2 X-189.8811 Y-36.2047 I9.2313 J12.0291
G2 X-191.082 Y-31.2548 I9.2133 J4.8559
G3 X-191.0816 Y-31.1425 I-9.9996 J0.0903
G2 X-189.8127 Y-25.9862 I11.0128 J0.0242
G1 F300.0 X-191.2283 Y-25.2406
G2 F800.0 X-190.1167 Y-23.4946 I11.1596 J-5.8777
G3 X-190.0816 Y-23.4479 I-6.6918 J5.0773
G2 X-186.7549 Y-19.9159 I17.1739 J-12.8431
G3 X-186.7447 Y-19.9073 I-5.424 J6.4141
G2 X-182.3299 Y-16.7156 I22.7348 J-26.7984
G2 X-170.1091 Y-11.4013 I25.3074 J-41.488
G3 X-172.4243 Y-14.7132 I16.0159 J-13.6612
G3 X-172.5027 Y-14.8553 I7.312 J-4.1281
G3 X-174.7757 Y-24.0683 I16.699 J-9.0068
G3 X-173.4581 Y-28.4936 I8.3963 J0.0913
G3 X-175.1682 Y-33.3127 I6.6856 J-5.0855
G3 X-170.0503 Y-47.4087 I20.2051 J-0.641
G3 X-169.8785 Y-47.5956 I6.2691 J5.5909
G3 X-166.6643 Y-50.4292 I17.354 J16.4446
G2 X-182.4021 Y-44.986 I9.8563 J53.9695
G2 X-186.8282 Y-42.0728 I15.2279 J27.9549
G3 X-186.9004 Y-42.0167 I-5.1862 J-6.6079
G2 X-191.2847 Y-36.9731 I10.2053 J13.2985
G2 X-192.6819 Y-31.2404 I10.6169 J5.6242
G3 X-192.6816 Y-31.1461 I-8.3997 J0.0758
G2 X-191.2283 Y-25.2406 I12.6128 J0.0277
G1 F300.0 X-192.644 Y-24.495
G2 F800.0 X-191.3914 Y-22.5275 I12.5752 J-6.6233
G3 X-191.3629 Y-22.4897 I-5.4172 J4.1102
G2 X-187.788 Y-18.6942 I18.4552 J-13.8013
G3 X-187.7798 Y-18.6872 I-4.3908 J5.1924
G2 X-183.1636 Y-15.35 I23.7699 J-28.0185
G2 X-168.2857 Y-9.286 I26.1411 J-42.8536
G2 X-164.3315 Y-8.4963 I16.0462 J-70.0523
G3 X-165.6688 Y-9.4311 I13.1153 J-20.1865
G3 X-171.031 Y-15.4998 I11.5757 J-15.6314
G3 X-171.0945 Y-15.6148 I5.9187 J-3.3415
G3 X-173.1758 Y-24.0509 I15.2908 J-8.2472
G3 X-171.3812 Y-28.5791 I6.7964 J0.0739
G3 X-173.569 Y-33.3635 I4.6087 J-5.0
G3 X-168.8562 Y-46.3438 I18.6059 J-0.5903
G3 X-168.7171 Y-46.4951 I5.075 J4.526
G3 X-161.1703 Y-51.7153 I16.1926 J15.344
G3 X-161.148 Y-51.7246 I2.6355 J6.2685
G3 X-156.37 Y-53.375 I15.7114 J37.7444
G2 X-166.3372 Y-52.112 I7.8895 J102.2236
G3 X-166.3699 Y-52.1063 I-1.1843 J-6.6961
G2 X-183.158 Y-46.3962 I9.5619 J55.6466
G2 X-187.816 Y-43.3314 I15.9837 J29.3651
G3 X-187.8745 Y-43.2861 I-4.1983 J-5.3492
G2 X-192.688 Y-37.7418 I11.1794 J14.5678
G2 X-194.2818 Y-31.2259 I12.0203 J6.393
G3 X-194.2816 Y-31.1496 I-6.7997 J0.0614
G2 X-192.644 Y-24.495 I14.2128 J0.0313
G1 F300.0 X-194.0596 Y-23.7494
G2 F800.0 X-192.666 Y-21.5603 I13.9909 J-7.369
G3 X-192.6443 Y-21.5314 I-4.1426 J3.1431
G2 X-188.8212 Y-17.4725 I19.7365 J-14.7595
G3 X-188.8149 Y-17.4671 I-3.3577 J3.9706
G2 X-183.9972 Y-13.9843 I24.805 J-29.2386
G2 X-168.6438 Y-7.7266 I26.9747 J-44.2193
G2 X-151.7053 Y-5.8737 I16.4043 J-71.6117
G3 X-151.6199 Y-5.8736 I0.0378 J5.1999
G2 X-136.8366 Y-7.645 I0.5316 J-58.1372
G2 X-123.8596 Y-13.6669 I-9.5883 J-37.6558
G3 X-123.8321 Y-13.6864 I3.0198 J4.2333
G2 X-115.3364 Y-22.6952 I-17.7955 J-25.2923
G2 X-112.6046 Y-28.3791 I-29.122 J-17.4953
G1 X-130.7121
G3 X-128.2786 Y-24.0913 I-2.762 J4.4021
G3 X-129.803 Y-16.1371 I-19.2999 J0.4244
G3 X-129.8832 Y-15.9573 I-4.7852 J-2.027
G3 X-139.5179 Y-7.5316 I-14.4138 J-6.7606
G3 X-149.6833 Y-6.0333 I-9.5325 J-29.4405
G3 X-157.3261 Y-7.0565 I-0.1651 J-27.8215
G3 X-157.3471 Y-7.0624 I1.3967 J-5.0056
G3 X-164.7124 Y-10.7138 I6.1308 J-21.6205
G3 X-169.6377 Y-16.2864 I10.6193 J-14.3487
G3 X-169.6863 Y-16.3744 I4.5254 J-2.5549
G3 X-171.5759 Y-24.0336 I13.8826 J-7.4877
G3 X-168.5579 Y-28.6952 I5.1965 J0.0565
G3 X-171.9698 Y-33.4142 I1.7854 J-4.8839
G3 X-167.6621 Y-45.2788 I17.0067 J-0.5396
G3 X-167.5557 Y-45.3945 I3.8809 J3.461
G3 X-160.5502 Y-50.2404 I15.0312 J14.2435
G3 X-160.5331 Y-50.2475 I2.0154 J4.7936
G3 X-149.9734 Y-53.0012 I15.0965 J36.2673
G3 X-139.8935 Y-53.6035 I9.6589 J76.9976
G3 X-123.3039 Y-52.3231 I1.1547 J93.1516
G2 X-132.7314 Y-54.3414 I-16.2649 J52.9452
G3 X-132.7663 Y-54.3459 I0.6419 J-5.1602
G2 X-147.651 Y-55.2762 I-14.2606 J108.6325
G3 X-147.7187 I-0.0296 J-5.1999
G2 X-166.6159 Y-53.6876 I-0.7618 J104.1248
G3 X-166.6409 Y-53.6832 I-0.9057 J-5.1205
G2 X-183.9138 Y-47.8065 I9.8328 J57.2235
G2 X-188.8039 Y-44.5901 I16.7395 J30.7754
G3 X-188.8486 Y-44.5554 I-3.2105 J-4.0906
G2 X-194.0912 Y-38.5108 I12.1535 J15.8371
G2 X-195.8818 Y-31.2115 I13.4235 J7.162
G3 X-195.8816 Y-31.1531 I-5.1998 J0.0469
G2 X-194.0596 Y-23.7494 I15.8128 J0.0348
G0 Z3.0
G0 X-169.9768 Y-23.8203
G0 Z-1.0
G1 F300.0 Z-4.0
G3 F800.0 X-169.976 Y-24.0162 I14.1731 J-0.0418
G3 X-166.3794 Y-27.5739 I3.5966 J0.0391
G1 X-133.4741
G3 X-129.8782 Y-24.0561 I0.0 J3.5968
G3 X-131.2762 Y-16.7612 I-17.7003 J0.3893
G3 X-131.3317 Y-16.6368 I-3.3119 J-1.4029
G3 X-140.0044 Y-9.0558 I-12.9653 J-6.0811
G3 X-149.6717 Y-7.6334 I-9.046 J-27.9162
G3 X-156.8961 Y-8.5976 I-0.1767 J-26.2214
G3 X-156.9106 Y-8.6017 I0.9667 J-3.4645
G3 X-163.7561 Y-11.9966 I5.6943 J-20.0812
G3 X-168.2445 Y-17.0731 I9.6629 J-13.0659
G3 X-168.278 Y-17.1339 I3.1321 J-1.7683
G3 X-169.9768 Y-23.8203 I12.4743 J-6.7282
G1 F300.0 X-168.38 Y-23.825
G3 F800.0 X-168.3793 Y-23.9988 I12.5763 J-0.0371
G3 X-166.3794 Y-25.9771 I1.9999 J0.0217
G1 X-133.4741
G3 X-131.4746 Y-24.021 I0.0 J2.0
G3 X-132.7466 Y-17.384 I-16.1039 J0.3541
G3 X-132.7774 Y-17.3148 I-1.8416 J-0.7801
G3 X-140.4898 Y-10.5771 I-11.5196 J-5.4031
G3 X-149.6603 Y-9.2303 I-8.5607 J-26.3949
G3 X-156.4669 Y-10.1356 I-0.1882 J-24.6245
G3 X-156.475 Y-10.1379 I0.5375 J-1.9264
G3 X-162.8017 Y-13.2768 I5.2587 J-18.545
G3 X-166.854 Y-17.8581 I8.7086 J-11.7857
G3 X-166.8726 Y-17.8919 I1.7416 J-0.9833
G3 X-168.38 Y-23.825 I11.0689 J-5.9701
G0 Z3.0
G0 X-167.3579 Y-30.027
G0 Z-1.0
G1 F300.0 Z-4.0
G3 F800.0 X-170.3707 Y-33.4649 I0.5854 J-3.5521
G3 X-166.4679 Y-44.2139 I15.4075 J-0.4888
G3 X-166.3943 Y-44.294 I2.6868 J2.3961
G3 X-159.9301 Y-48.7654 I13.8698 J13.143
G3 X-159.9183 Y-48.7703 I1.3952 J3.3186
G3 X-149.7815 Y-51.4127 I14.4816 J34.7902
G3 X-139.8879 Y-52.0035 I9.4669 J75.4091
G3 X-121.4961 Y-50.3724 I1.1491 J91.5515
G3 X-121.4703 Y-50.3674 I-0.678 J3.5356
G3 X-112.1332 Y-47.377 I-8.4835 J42.5606
G3 X-110.0558 Y-46.3376 I-9.7858 J22.1559
G2 X-111.5385 Y-48.0879 I-6.4351 J3.9482
G3 X-111.5616 Y-48.1082 I2.3615 J-2.7172
G2 X-118.2938 Y-52.2449 I-15.2 J17.1904
G3 X-118.3084 Y-52.2507 I1.3285 J-3.3459
G2 X-132.5339 Y-55.9292 I-21.2604 J52.8728
G3 X-132.558 Y-55.9323 I0.4444 J-3.5725
G2 X-147.6602 Y-56.8761 I-14.4689 J110.2189
G3 X-147.707 Y-56.8762 I-0.0205 J-3.5999
G2 X-166.8945 Y-55.2631 I-0.7735 J105.7247
G3 X-166.9119 Y-55.2601 I-0.627 J-3.545
G2 X-184.6695 Y-49.2168 I10.1038 J58.8004
G2 X-189.7917 Y-45.8487 I17.4953 J32.1857
G3 X-189.8227 Y-45.8247 I-2.2226 J-2.8319
G2 X-195.4943 Y-39.28 I13.1276 J17.1064
G2 X-197.4817 Y-31.197 I14.8266 J7.9312
G3 X-197.4816 Y-31.1566 I-3.5999 J0.0325
G2 X-193.9407 Y-20.5932 I17.4128 J0.0383
G3 X-193.9256 Y-20.5732 I-2.8679 J2.176
G2 X-189.8543 Y-16.2507 I21.0179 J-15.7177
G3 X-189.8499 Y-16.247 I-2.3246 J2.7489
G2 X-184.8309 Y-12.6187 I25.8401 J-30.4587
G2 X-169.0019 Y-6.1672 I27.8084 J-45.585
G2 X-151.6937 Y-4.2737 I16.7624 J-73.1711
G3 X-151.6346 I0.0262 J3.5999
G2 X-136.4431 Y-6.0941 I0.5463 J-59.7372
G2 X-122.9304 Y-12.3644 I-9.9818 J-39.2067
G3 X-122.9114 Y-12.3778 I2.0906 J2.9308
G2 X-113.9705 Y-21.862 I-18.7162 J-26.6008
G2 X-110.3823 Y-29.9791 I-30.4879 J-18.3286
G1 X-166.7725
G3 X-167.3579 Y-30.027 I0.0 J-3.6
G1 F300.0 X-167.0977 Y-31.6057
G3 F800.0 X-168.7715 Y-33.5157 I0.3252 J-1.9734
G3 X-165.2738 Y-43.149 I13.8083 J-0.4381
G3 X-165.2329 Y-43.1935 I1.4927 J1.3312
G3 X-159.31 Y-47.2905 I12.7084 J12.0424
G3 X-159.3034 Y-47.2932 I0.7751 J1.8437
G3 X-149.5896 Y-49.8243 I13.8668 J33.313
G3 X-139.8824 Y-50.4034 I9.2751 J73.8207
G3 X-121.7974 Y-48.801 I1.1436 J89.9515
G3 X-121.7831 Y-48.7982 I-0.3766 J1.9642
G3 X-112.7849 Y-45.9157 I-8.1708 J40.9914
G3 X-107.3469 Y-42.5229 I-9.1341 J20.6946
G2 X-107.3429 Y-42.5693 I-8.2653 J-0.7268
G2 X-110.4889 Y-49.2955 I-9.1479 J0.1799
G3 X-110.5018 Y-49.3068 I1.3119 J-1.5096
G2 X-117.7034 Y-53.732 I-16.2599 J18.389
G3 X-117.7115 Y-53.7352 I0.738 J-1.8588
G2 X-132.3364 Y-57.517 I-21.8573 J54.3573
G3 X-132.3498 Y-57.5187 I0.2469 J-1.9847
G2 X-147.6693 Y-58.4761 I-14.6771 J111.8053
G3 X-147.6953 I-0.0114 J-2.0
G2 X-167.1732 Y-56.8387 I-0.7852 J107.3247
G3 X-167.1828 Y-56.837 I-0.3483 J-1.9694
G2 X-185.4252 Y-50.6272 I10.3748 J60.3773
G2 X-190.7795 Y-47.1074 I18.2509 J33.596
G3 X-190.7967 Y-47.094 I-1.2348 J-1.5733
G2 X-196.8973 Y-40.0494 I14.1017 J18.3757
G2 X-199.0816 Y-31.1826 I16.2295 J8.7006
G3 X-199.0815 Y-31.1602 I-1.9999 J0.0181
G2 X-195.2153 Y-19.6261 I19.0128 J0.0418
G3 X-195.2069 Y-19.615 I-1.5933 J1.2089
G2 X-190.8874 Y-15.029 I22.2992 J-16.6759
G3 X-190.885 Y-15.0269 I-1.2914 J1.5272
G2 X-185.6645 Y-11.253 I26.8752 J-31.6787
G2 X-169.3601 Y-4.6078 I28.642 J-46.9506
G2 X-151.682 Y-2.6738 I17.1206 J-74.7305
G3 X-151.6492 Y-2.6737 I0.0145 J1.9999
G2 X-136.0496 Y-4.5433 I0.5609 J-61.3371
G2 X-122.0013 Y-11.0618 I-10.3753 J-40.7575
G3 X-121.9907 Y-11.0693 I1.1614 J1.6282
G2 X-112.6045 Y-21.0288 I-19.6369 J-27.9094
G2 X-108.2964 Y-31.5791 I-31.8539 J-19.1618
G1 X-166.7725
G3 X-167.0977 Y-31.6057 I0.0 J-2.0
G0 Z3.0
G0 X-67.2247
G0 Z1.0
G1 F300.0 Z-2.0
G1 F800.0 Y-23.2199
G3 X-65.7471 Y-26.8227 I15.0592 J4.072
G3 X-66.474 Y-34.9647 I35.7376 J-7.2944
G1 Y-41.9
G1 X-67.2247
G1 Y-31.6057
G1 F300.0 X-68.0247
G1 F800.0 Y-17.9126
G3 X-68.0255 Y-17.7611 I-14.8 J0.0
G1 X-66.9655 Y-17.7361
G1 Y-19.1479
G3 X-64.9015 Y-26.6868 I14.8 J0.0
G3 X-65.674 Y-34.9554 I34.892 J-7.4302
G1 Y-42.7
G1 X-68.0247
G1 Y-31.6057
G1 F300.0 X-69.6247
G1 F800.0 Y-17.9126
G3 X-69.7361 Y-16.201 I-13.2 J0.0
G1 X-65.3655 Y-16.0979
G1 Y-19.1479
G3 X-63.1976 Y-26.396 I13.2 J0.0
G3 X-64.074 Y-34.9364 I33.1881 J-7.7211
G1 Y-43.4619
G3 X-64.0474 Y-44.3 I13.2 J0.0
G1 X-69.6513
G3 X-69.6247 Y-43.4619 I-13.1734 J0.8381
G1 Y-31.6057
G1 F300.0 X-71.2247
G1 F800.0 Y-17.9126
G3 X-71.6939 Y-14.6467 I-11.6 J0.0
G1 X-63.7655 Y-14.4598
G1 Y-19.1479
G3 X-61.4718 Y-26.0728 I11.6 J0.0
G3 X-62.474 Y-34.9169 I31.4623 J-8.0443
G1 Y-43.4619
G3 X-62.2149 Y-45.9 I11.6 J0.0
G1 X-71.4838
G3 X-71.2247 Y-43.4619 I-11.3409 J2.4381
G1 Y-31.6057
G1 F300.0 X-72.8247
G1 F800.0 Y-17.9126
G3 X-74.0578 Y-13.102 I-10.0 J0.0
G1 X-62.1655 Y-12.8216
G1 Y-19.1479
G3 X-59.7158 Y-25.7049 I10.0 J0.0
G3 X-60.874 Y-34.8969 I29.7063 J-8.4122
G1 Y-43.4619
G3 X-60.0225 Y-47.5 I10.0 J0.0
G1 X-73.6763
G3 X-72.8247 Y-43.4619 I-9.1484 J4.0381
G1 Y-31.6057
G1 F300.0 X-74.4247
G1 F800.0 Y-17.9126
G3 X-77.3079 Y-11.5782 I-8.4 J0.0
G1 X-60.5655 Y-11.1834
G1 Y-19.1479
G3 X-57.9155 Y-25.2715 I8.4 J0.0
G3 X-59.274 Y-34.8765 I27.906 J-8.8456
G1 Y-43.4619
G3 X-57.1007 Y-49.1 I8.4 J0.0
G1 X-76.598
G3 X-74.4247 Y-43.4619 I-6.2267 J5.6381
G1 Y-31.6057
G1 F300.0 X-76.0247
G1 F800.0 Y-17.9126
G3 X-79.1245 Y-12.2075 I-6.8 J0.0
G1 X-82.378 Y-10.0973
G1 X-58.9655 Y-9.5452
G1 Y-19.1479
G3 X-56.0444 Y-24.7332 I6.8 J0.0
G3 X-57.674 Y-34.8554 I26.0349 J-9.3839
G1 Y-43.4619
G3 X-54.1486 Y-49.4216 I6.8 J0.0
G1 X-51.8218 Y-50.7
G1 X-81.5097
G1 X-79.1483 Y-49.1824
G3 X-76.0247 Y-43.4619 I-3.6764 J5.7205
G1 Y-31.6057
G1 F300.0 X-77.6247
G1 F800.0 Y-17.9126
G3 X-79.9951 Y-13.5499 I-5.2 J0.0
G1 X-87.5963 Y-8.6199
G1 X-57.3655 Y-7.9071
G1 Y-19.1479
G3 X-54.0403 Y-23.9982 I5.2 J0.0
G3 X-56.074 Y-34.8337 I24.0309 J-10.1189
G1 Y-43.4619
G3 X-53.3781 Y-48.0193 I5.2 J0.0
G1 X-45.5872 Y-52.3
G1 X-86.9587
G1 X-80.0133 Y-47.8364
G3 X-77.6247 Y-43.4619 I-2.8114 J4.3745
G1 Y-31.6057
G1 F300.0 X-79.2247
G1 F800.0 Y-17.9126
G3 X-80.8658 Y-14.8922 I-3.6 J0.0
G1 X-92.8146 Y-7.1425
G1 X-55.7655 Y-6.2689
G1 Y-19.1479
G3 X-51.6645 Y-22.7129 I3.6 J0.0
G3 X-54.474 Y-34.8114 I21.6551 J-11.4042
G1 Y-43.4619
G3 X-52.6076 Y-46.617 I3.6 J0.0
G1 X-39.3526 Y-53.9
G1 X-92.4077
G1 X-80.8784 Y-46.4904
G3 X-79.2247 Y-43.4619 I-1.9463 J3.0285
G1 Y-31.6057
G0 Z3.0
G0 X-16.0551 Y-15.3466
G0 Z1.0
G1 F300.0 Z-2.0
G2 F800.0 X-12.4044 Y-17.0011 I-5.1279 J-16.1698
G3 X-12.2005 Y-17.1216 I6.003 J9.9259
G2 X-10.701 Y-18.4148 I-2.6463 J-4.5845
G3 X-10.7006 Y-18.6797 I11.5994 J-0.1155
G2 X-12.2242 Y-19.1401 I-2.5034 J5.5336
G3 X-12.3709 Y-19.165 I1.8712 J-11.4481
G2 X-15.0721 Y-19.4992 I-4.5768 J25.9095
G3 X-15.9646 Y-15.6086 I-20.4206 J-2.637
G3 X-15.9866 Y-15.5435 I-11.0016 J-3.6775
G3 X-16.0551 Y-15.3466 I-16.1708 J-5.5122
G1 F300.0 X-15.5714 Y-13.8215
G2 F800.0 X-11.5764 Y-15.632 I-5.6116 J-17.6949
G3 X-11.4006 Y-15.7359 I5.175 J8.5568
G2 X-9.3449 Y-17.5529 I-3.4462 J-5.9702
G2 X-9.101 Y-18.4234 I-1.3699 J-0.8533
G3 X-9.0979 Y-18.8006 I9.9994 J-0.1068
G2 X-9.2736 Y-19.7366 I-2.2566 J-0.061
G2 X-11.9661 Y-20.7191 I-3.9304 J6.5905
G3 X-12.0925 Y-20.7406 I1.6131 J-9.869
G2 X-16.5275 Y-21.163 I-4.8552 J27.4851
G3 X-17.4821 Y-16.1158 I-18.9652 J-0.9732
G3 X-17.5011 Y-16.0597 I-9.4842 J-3.1702
G3 X-18.8959 Y-13.0618 I-14.6564 J-4.9959
G2 X-17.4742 Y-13.3272 I-5.8339 J-35.1915
G3 X-17.4507 Y-13.3321 I2.034 J9.791
G2 X-15.5714 Y-13.8215 I-3.7323 J-18.1844
G1 F300.0 X-15.0877 Y-12.2963
G2 F800.0 X-10.7484 Y-14.2629 I-6.0953 J-19.2201
G3 X-10.6007 Y-14.3502 I4.347 J7.1877
G2 X-8.0301 Y-16.6394 I-4.2461 J-7.3559
G2 X-7.5011 Y-18.4405 I-2.6848 J-1.7668
G3 X-7.4985 Y-18.7573 I8.3995 J-0.0897
G2 X-7.9007 Y-20.5794 I-3.856 J-0.1043
G2 X-8.3727 Y-21.0617 I-1.5128 J1.0083
G2 X-11.708 Y-22.2982 I-4.8313 J7.9156
G3 X-11.8142 Y-22.3162 I1.355 J-8.29
G2 X-17.1533 Y-22.7654 I-5.1335 J29.0607
G2 X-18.1154 Y-22.7336 I1.8116 J69.3911
G3 X-18.1131 Y-22.6845 I-18.4099 J0.9094
G3 X-18.1052 Y-22.4385 I-8.3908 J0.392
G3 X-18.9996 Y-16.6231 I-17.3875 J0.3023
G3 X-19.0155 Y-16.5759 I-7.9667 J-2.663
G3 X-22.5351 Y-11.0462 I-13.1419 J-4.4797
G2 X-17.1487 Y-11.7607 I-2.1948 J-37.2071
G3 X-17.129 Y-11.7647 I1.7086 J8.2244
G2 X-15.0877 Y-12.2963 I-4.054 J-19.7517
G1 F300.0 X-14.6041 Y-10.7712
G2 F800.0 X-9.9204 Y-12.8938 I-6.5789 J-20.7452
G3 X-9.8008 Y-12.9645 I3.519 J5.8186
G2 X-6.7203 Y-15.7196 I-5.0459 J-8.7416
G2 X-5.9012 Y-18.4576 I-3.9945 J-2.6866
G3 X-5.8991 Y-18.7141 I6.7996 J-0.0726
G2 X-6.5106 Y-21.3756 I-5.4554 J-0.1475
G2 X-7.5021 Y-22.4047 I-2.9029 J1.8046
G2 X-11.4499 Y-23.8772 I-5.7019 J9.2586
G3 X-11.5359 Y-23.8918 I1.0969 J-6.7109
G2 X-17.1799 Y-24.3653 I-5.4118 J30.6363
G2 X-19.8679 Y-24.2447 I1.8382 J70.991
G3 X-19.7113 Y-22.6098 I-16.6574 J2.4204
G3 X-19.7049 Y-22.4107 I-6.7926 J0.3174
G3 X-20.517 Y-17.1303 I-15.7877 J0.2745
G3 X-20.5299 Y-17.0921 I-6.4492 J-2.1558
G3 X-27.3577 Y-9.7476 I-11.6275 J-3.9635
G3 X-27.4689 Y-9.7016 I-2.6569 J-6.2595
G3 X-27.9309 Y-9.5225 I-6.6354 J-16.4359
G2 X-25.1723 Y-9.3826 I2.5192 J-22.4094
G3 X-25.045 Y-9.3828 I0.0722 J6.7996
G2 X-16.8233 Y-10.1941 I0.3151 J-38.8705
G3 X-16.8073 Y-10.1974 I1.3831 J6.6578
G2 X-14.6041 Y-10.7712 I-4.3757 J-21.319
G1 F300.0 X-14.1204 Y-9.246
G2 F800.0 X-9.0924 Y-11.5247 I-7.0626 J-22.2704
G3 X-9.001 Y-11.5788 I2.691 J4.4495
G2 X-5.4126 Y-14.7973 I-5.8458 J-10.1273
G2 X-4.3013 Y-18.4747 I-5.3023 J-3.609
G3 X-4.2997 Y-18.6708 I5.1997 J-0.0555
G2 X-5.1184 Y-22.1658 I-7.0548 J-0.1908
G2 X-6.6366 Y-23.7507 I-4.2951 J2.5948
G2 X-11.1918 Y-25.4563 I-6.5673 J10.6046
G3 X-11.2576 Y-25.4674 I0.8388 J-5.1319
G2 X-17.2067 Y-25.9651 I-5.6901 J32.2119
G2 X-21.7948 Y-25.7018 I1.865 J72.5908
G3 X-21.3096 Y-22.5352 I-14.7305 J3.8775
G3 X-21.3047 Y-22.3829 I-5.1943 J0.2427
G3 X-22.0345 Y-17.6376 I-14.188 J0.2467
G3 X-22.0444 Y-17.6084 I-4.9318 J-1.6485
G3 X-27.9828 Y-11.2204 I-10.1131 J-3.4472
G3 X-28.0679 Y-11.1852 I-2.0317 J-4.7867
G3 X-34.4781 Y-10.017 I-6.0365 J-14.9522
G3 X-35.6006 Y-10.0464 I-0.0385 J-19.9816
G2 X-35.1289 Y-9.8225 I10.9654 J-22.4937
G2 X-25.1553 Y-7.7827 I9.7172 J-22.1094
G3 X-25.0579 Y-7.7828 I0.0552 J5.1997
G2 X-16.4978 Y-8.6276 I0.3281 J-40.4705
G3 X-16.4856 Y-8.6301 I1.0577 J5.0913
G2 X-14.1204 Y-9.246 I-4.6974 J-22.8863
G1 F300.0 X-13.6367 Y-7.7209
G2 F800.0 X-8.2644 Y-10.1557 I-7.5463 J-23.7955
G3 X-8.2011 Y-10.193 I1.863 J3.0805
G2 X-4.1058 Y-13.8737 I-6.6457 J-11.5131
G2 X-2.7014 Y-18.4918 I-6.6091 J-4.5325
G3 X-2.7002 Y-18.6276 I3.5998 J-0.0385
G2 X-3.7254 Y-22.9539 I-8.6543 J-0.234
G2 X-5.7733 Y-25.0981 I-5.6881 J3.3829
G2 X-10.9337 Y-27.0353 I-7.4306 J11.9519
G3 X-10.9792 Y-27.043 I0.5807 J-3.5529
G2 X-17.2336 Y-27.5649 I-5.9685 J33.7876
G2 X-23.9502 Y-27.0881 I1.892 J74.1906
G3 X-22.9078 Y-22.4605 I-12.5751 J5.2638
G3 X-22.9045 Y-22.3551 I-3.5961 J0.168
G3 X-23.552 Y-18.1448 I-12.5882 J0.2189
G3 X-23.5588 Y-18.1246 I-3.4143 J-1.1413
G3 X-28.608 Y-12.6933 I-8.5986 J-2.931
G3 X-28.6669 Y-12.6689 I-1.4066 J-3.3138
G3 X-34.461 Y-11.6171 I-5.4375 J-13.4686
G3 X-43.9642 Y-14.2307 I-0.0556 J-18.3815
G2 X-35.7863 Y-8.3637 I19.329 J-18.3094
G2 X-25.1383 Y-6.1828 I10.3746 J-23.5682
G3 X-25.0709 Y-6.1829 I0.0382 J3.5998
G2 X-16.1724 Y-7.061 I0.3411 J-42.0704
G3 X-16.1639 Y-7.0627 I0.7322 J3.5247
G2 X-13.6367 Y-7.7209 I-5.0191 J-24.4537
G1 F300.0 X-13.1531 Y-6.1957
G2 F800.0 X-7.4364 Y-8.7866 I-8.0299 J-25.3207
G3 X-7.4012 Y-8.8073 I1.035 J1.7114
G2 X-2.7996 Y-12.9493 I-7.4456 J-12.8988
G2 X-1.1014 Y-18.5089 I-7.9152 J-5.4569
G3 X-1.1008 Y-18.5843 I1.9999 J-0.0214
G2 X-2.332 Y-23.741 I-10.2537 J-0.2773
G2 X-4.9113 Y-26.4461 I-7.0815 J4.1699
G2 X-10.6756 Y-28.6143 I-8.2927 J13.3
G3 X-10.7009 Y-28.6186 I0.3226 J-1.9738
G2 X-17.2608 Y-29.1648 I-6.2468 J35.3632
G2 X-26.3557 Y-28.3848 I1.9191 J75.7905
G3 X-25.7406 Y-27.1598 I-24.6191 J13.1273
G3 X-24.5061 Y-22.3858 I-10.7847 J5.3355
G3 X-24.5042 Y-22.3273 I-1.9978 J0.0933
G3 X-25.0694 Y-18.652 I-10.9885 J0.1911
G3 X-25.0732 Y-18.6408 I-1.8968 J-0.634
G3 X-29.2331 Y-14.1661 I-7.0842 J-2.4148
G3 X-29.2658 Y-14.1525 I-0.7814 J-1.841
G3 X-34.4436 Y-13.2171 I-4.8385 J-11.9849
G3 X-47.7184 Y-19.6384 I-0.0729 J-16.7815
G3 X-52.874 Y-34.7883 I17.7089 J-14.4787
G1 Y-43.4619
G3 X-51.8371 Y-45.2148 I2.0 J0.0
G1 X-33.118 Y-55.5
G1 X-97.8567
G1 X-81.7434 Y-45.1444
G3 X-80.8247 Y-43.4619 I-1.0813 J1.6825
G1 Y-17.9126
G3 X-81.7364 Y-16.2346 I-2.0 J0.0
G1 X-98.0328 Y-5.6651
G1 X-54.1655 Y-4.6307
G1 Y-19.1479
G3 X-50.4502 Y-20.1764 I2.0 J0.0
G2 X-45.7537 Y-13.8155 I35.409 J-21.2296
G3 X-45.7456 Y-13.8064 I-1.4878 J1.3366
G2 X-36.4437 Y-6.905 I21.1104 J-18.7337
G2 X-25.1213 Y-4.5829 I11.032 J-25.0269
G3 X-25.0839 I0.0212 J1.9999
G2 X-15.8469 Y-5.4944 I0.354 J-43.6704
G3 X-15.8423 Y-5.4954 I0.4068 J1.9582
G2 X-13.1531 Y-6.1957 I-5.3407 J-26.021
G0 Z3.0
G0 X-16.0551 Y-15.3466
G0 Z-1.0
G1 F300.0 Z-4.0
G2 F800.0 X-12.4044 Y-17.0011 I-5.1279 J-16.1698
G3 X-12.2005 Y-17.1216 I6.003 J9.9259
G2 X-10.701 Y-18.4148 I-2.6463 J-4.5845
G3 X-10.7006 Y-18.6797 I11.5994 J-0.1155
G2 X-12.2242 Y-19.1401 I-2.5034 J5.5336
G3 X-12.3709 Y-19.165 I1.8712 J-11.4481
G2 X-15.0721 Y-19.4992 I-4.5768 J25.9095
G3 X-15.9646 Y-15.6086 I-20.4206 J-2.637
G3 X-15.9866 Y-15.5435 I-11.0016 J-3.6775
G3 X-16.0551 Y-15.3466 I-16.1708 J-5.5122
G1 F300.0 X-15.5714 Y-13.8215
G2 F800.0 X-11.5764 Y-15.632 I-5.6116 J-17.6949
G3 X-11.4006 Y-15.7359 I5.175 J8.5568
G2 X-9.3449 Y-17.5529 I-3.4462 J-5.9702
G2 X-9.101 Y-18.4234 I-1.3699 J-0.8533
G3 X-9.0979 Y-18.8006 I9.9994 J-0.1068
G2 X-9.2736 Y-19.7366 I-2.2566 J-0.061
G2 X-11.9661 Y-20.7191 I-3.9304 J6.5905
G3 X-12.0925 Y-20.7406 I1.6131 J-9.869
G2 X-16.5275 Y-21.163 I-4.8552 J27.4851
G3 X-17.4821 Y-16.1158 I-18.9652 J-0.9732
G3 X-17.5011 Y-16.0597 I-9.4842 J-3.1702
G3 X-18.8959 Y-13.0618 I-14.6564 J-4.9959
G2 X-17.4742 Y-13.3272 I-5.8339 J-35.1915
G3 X-17.4507 Y-13.3321 I2.034 J9.791
G2 X-15.5714 Y-13.8215 I-3.7323 J-18.1844
G1 F300.0 X-15.0877 Y-12.2963
G2 F800.0 X-10.7484 Y-14.2629 I-6.0953 J-19.2201
G3 X-10.6007 Y-14.3502 I4.347 J7.1877
G2 X-8.0301 Y-16.6394 I-4.2461 J-7.3559
G2 X-7.5011 Y-18.4405 I-2.6848 J-1.7668
G3 X-7.4985 Y-18.7573 I8.3995 J-0.0897
G2 X-7.9007 Y-20.5794 I-3.856 J-0.1043
G2 X-8.3727 Y-21.0617 I-1.5128 J1.0083
G2 X-11.708 Y-22.2982 I-4.8313 J7.9156
G3 X-11.8142 Y-22.3162 I1.355 J-8.29
G2 X-17.1533 Y-22.7654 I-5.1335 J29.0607
G2 X-18.1154 Y-22.7336 I1.8116 J69.3911
G3 X-18.1131 Y-22.6845 I-18.4099 J0.9094
G3 X-18.1052 Y-22.4385 I-8.3908 J0.392
G3 X-18.9996 Y-16.6231 I-17.3875 J0.3023
G3 X-19.0155 Y-16.5759 I-7.9667 J-2.663
G3 X-22.5351 Y-11.0462 I-13.1419 J-4.4797
G2 X-17.1487 Y-11.7607 I-2.1948 J-37.2071
G3 X-17.129 Y-11.7647 I1.7086 J8.2244
G2 X-15.0877 Y-12.2963 I-4.054 J-19.7517
G1 F300.0 X-14.6041 Y-10.7712
G2 F800.0 X-9.9204 Y-12.8938 I-6.5789 J-20.7452
G3 X-9.8008 Y-12.9645 I3.519 J5.8186
G2 X-6.7203 Y-15.7196 I-5.0459 J-8.7416
G2 X-5.9012 Y-18.4576 I-3.9945 J-2.6866
G3 X-5.8991 Y-18.7141 I6.7996 J-0.0726
G2 X-6.5106 Y-21.3756 I-5.4554 J-0.1475
G2 X-7.5021 Y-22.4047 I-2.9029 J1.8046
G2 X-11.4499 Y-23.8772 I-5.7019 J9.2586
G3 X-11.5359 Y-23.8918 I1.0969 J-6.7109
G2 X-17.1799 Y-24.3653 I-5.4118 J30.6363
G2 X-19.8679 Y-24.2447 I1.8382 J70.991
G3 X-19.7113 Y-22.6098 I-16.6574 J2.4204
G3 X-19.7049 Y-22.4107 I-6.7926 J0.3174
G3 X-20.517 Y-17.1303 I-15.7877 J0.2745
G3 X-20.5299 Y-17.0921 I-6.4492 J-2.1558
G3 X-27.3577 Y-9.7476 I-11.6275 J-3.9635
G3 X-27.4689 Y-9.7016 I-2.6569 J-6.2595
G3 X-27.9309 Y-9.5225 I-6.6354 J-16.4359
G2 X-25.1723 Y-9.3826 I2.5192 J-22.4094
G3 X-25.045 Y-9.3828 I0.0722 J6.7996
G2 X-16.8233 Y-10.1941 I0.3151 J-38.8705
G3 X-16.8073 Y-10.1974 I1.3831 J6.6578
G2 X-14.6041 Y-10.7712 I-4.3757 J-21.319
G1 F300.0 X-14.1204 Y-9.246
G2 F800.0 X-9.0924 Y-11.5247 I-7.0626 J-22.2704
G3 X-9.001 Y-11.5788 I2.691 J4.4495
G2 X-5.4126 Y-14.7973 I-5.8458 J-10.1273
G2 X-4.3013 Y-18.4747 I-5.3023 J-3.609
G3 X-4.2997 Y-18.6708 I5.1997 J-0.0555
G2 X-5.1184 Y-22.1658 I-7.0548 J-0.1908
G2 X-6.6366 Y-23.7507 I-4.2951 J2.5948
G2 X-11.1918 Y-25.4563 I-6.5673 J10.6046
G3 X-11.2576 Y-25.4674 I0.8388 J-5.1319
G2 X-17.2067 Y-25.9651 I-5.6901 J32.2119
G2 X-21.7948 Y-25.7018 I1.865 J72.5908
G3 X-21.3096 Y-22.5352 I-14.7305 J3.8775
G3 X-21.3047 Y-22.3829 I-5.1943 J0.2427
G3 X-22.0345 Y-17.6376 I-14.188 J0.2467
G3 X-22.0444 Y-17.6084 I-4.9318 J-1.6485
G3 X-27.9828 Y-11.2204 I-10.1131 J-3.4472
G3 X-28.0679 Y-11.1852 I-2.0317 J-4.7867
G3 X-34.4781 Y-10.017 I-6.0365 J-14.9522
G3 X-35.6006 Y-10.0464 I-0.0385 J-19.9816
G2 X-35.1289 Y-9.8225 I10.9654 J-22.4937
G2 X-25.1553 Y-7.7827 I9.7172 J-22.1094
G3 X-25.0579 Y-7.7828 I0.0552 J5.1997
G2 X-16.4978 Y-8.6276 I0.3281 J-40.4705
G3 X-16.4856 Y-8.6301 I1.0577 J5.0913
G2 X-14.1204 Y-9.246 I-4.6974 J-22.8863
G1 F300.0 X-13.6367 Y-7.7209
G2 F800.0 X-8.2644 Y-10.1557 I-7.5463 J-23.7955
G3 X-8.2011 Y-10.193 I1.863 J3.0805
G2 X-4.1058 Y-13.8737 I-6.6457 J-11.5131
G2 X-2.7014 Y-18.4918 I-6.6091 J-4.5325
G3 X-2.7002 Y-18.6276 I3.5998 J-0.0385
G2 X-3.7254 Y-22.9539 I-8.6543 J-0.234
G2 X-5.7733 Y-25.0981 I-5.6881 J3.3829
G2 X-10.9337 Y-27.0353 I-7.4306 J11.9519
G3 X-10.9792 Y-27.043 I0.5807 J-3.5529
G2 X-17.2336 Y-27.5649 I-5.9685 J33.7876
G2 X-23.9502 Y-27.0881 I1.892 J74.1906
G3 X-22.9078 Y-22.4605 I-12.5751 J5.2638
G3 X-22.9045 Y-22.3551 I-3.5961 J0.168
G3 X-23.552 Y-18.1448 I-12.5882 J0.2189
G3 X-23.5588 Y-18.1246 I-3.4143 J-1.1413
G3 X-28.608 Y-12.6933 I-8.5986 J-2.931
G3 X-28.6669 Y-12.6689 I-1.4066 J-3.3138
G3 X-34.461 Y-11.6171 I-5.4375 J-13.4686
G3 X-43.9642 Y-14.2307 I-0.0556 J-18.3815
G2 X-35.7863 Y-8.3637 I19.329 J-18.3094
G2 X-25.1383 Y-6.1828 I10.3746 J-23.5682
G3 X-25.0709 Y-6.1829 I0.0382 J3.5998
G2 X-16.1724 Y-7.061 I0.3411 J-42.0704
G3 X-16.1639 Y-7.0627 I0.7322 J3.5247
G2 X-13.6367 Y-7.7209 I-5.0191 J-24.4537
G0 Z3.0
G0 X-65.7471 Y-26.8227
G0 Z-1.0
G1 F300.0 Z-4.0
G3 F800.0 X-66.474 Y-34.9647 I35.7376 J-7.2944
G1 Y-41.9
G1 X-67.2247
G1 Y-23.2199
G3 X-65.7471 Y-26.8227 I15.0592 J4.072
G1 F300.0 X-64.9632 Y-26.9827
G3 F800.0 X-65.674 Y-34.9554 I34.9537 J-7.1344
G1 Y-42.7
G1 X-68.0247
G1 Y-17.9126
G3 X-68.0255 Y-17.7611 I-14.8 J0.0
G1 X-66.9655 Y-17.7361
G1 Y-19.1479
G3 X-64.9015 Y-26.6868 I14.8 J0.0
G3 X-64.9632 Y-26.9827 I34.892 J-7.4302
G1 F300.0 X-63.3955 Y-27.3027
G3 F800.0 X-64.074 Y-34.9364 I33.3861 J-6.8144
G1 Y-43.4619
G3 X-64.0474 Y-44.3 I13.2 J0.0
G1 X-69.6513
G3 X-69.6247 Y-43.4619 I-13.1734 J0.8381
G1 Y-17.9126
G3 X-69.7361 Y-16.201 I-13.2 J0.0
G1 X-65.3655 Y-16.0979
G1 Y-19.1479
G3 X-63.1976 Y-26.396 I13.2 J0.0
G3 X-63.3955 Y-27.3027 I33.1881 J-7.7211
G1 F300.0 X-61.8279 Y-27.6227
G3 F800.0 X-62.474 Y-34.9169 I31.8184 J-6.4944
G1 Y-43.4619
G3 X-62.2149 Y-45.9 I11.6 J0.0
G1 X-71.4838
G3 X-71.2247 Y-43.4619 I-11.3409 J2.4381
G1 Y-17.9126
G3 X-71.6939 Y-14.6467 I-11.6 J0.0
G1 X-63.7655 Y-14.4598
G1 Y-19.1479
G3 X-61.4718 Y-26.0728 I11.6 J0.0
G3 X-61.8279 Y-27.6227 I31.4623 J-8.0443
G1 F300.0 X-60.2602 Y-27.9426
G3 F800.0 X-60.874 Y-34.8969 I30.2507 J-6.1744
G1 Y-43.4619
G3 X-60.0225 Y-47.5 I10.0 J0.0
G1 X-73.6763
G3 X-72.8247 Y-43.4619 I-9.1484 J4.0381
G1 Y-17.9126
G3 X-74.0578 Y-13.102 I-10.0 J0.0
G1 X-62.1655 Y-12.8216
G1 Y-19.1479
G3 X-59.7158 Y-25.7049 I10.0 J0.0
G3 X-60.2602 Y-27.9426 I29.7063 J-8.4122
G1 F300.0 X-58.6925 Y-28.2626
G3 F800.0 X-59.274 Y-34.8765 I28.683 J-5.8545
G1 Y-43.4619
G3 X-57.1007 Y-49.1 I8.4 J0.0
G1 X-76.598
G3 X-74.4247 Y-43.4619 I-6.2267 J5.6381
G1 Y-17.9126
G3 X-77.3079 Y-11.5782 I-8.4 J0.0
G1 X-60.5655 Y-11.1834
G1 Y-19.1479
G3 X-57.9155 Y-25.2715 I8.4 J0.0
G3 X-58.6925 Y-28.2626 I27.906 J-8.8456
G1 F300.0 X-57.1248 Y-28.5826
G3 F800.0 X-57.674 Y-34.8554 I27.1154 J-5.5345
G1 Y-43.4619
G3 X-54.1486 Y-49.4216 I6.8 J0.0
G1 X-51.8218 Y-50.7
G1 X-81.5097
G1 X-79.1483 Y-49.1824
G3 X-76.0247 Y-43.4619 I-3.6764 J5.7205
G1 Y-17.9126
G3 X-79.1245 Y-12.2075 I-6.8 J0.0
G1 X-82.378 Y-10.0973
G1 X-58.9655 Y-9.5452
G1 Y-19.1479
G3 X-56.0444 Y-24.7332 I6.8 J0.0
G3 X-57.1248 Y-28.5826 I26.0349 J-9.3839
G1 F300.0 X-55.5571 Y-28.9026
G3 F800.0 X-56.074 Y-34.8337 I25.5477 J-5.2145
G1 Y-43.4619
G3 X-53.3781 Y-48.0193 I5.2 J0.0
G1 X-45.5872 Y-52.3
G1 X-86.9587
G1 X-80.0133 Y-47.8364
G3 X-77.6247 Y-43.4619 I-2.8114 J4.3745
G1 Y-17.9126
G3 X-79.9951 Y-13.5499 I-5.2 J0.0
G1 X-87.5963 Y-8.6199
G1 X-57.3655 Y-7.9071
G1 Y-19.1479
G3 X-54.0403 Y-23.9982 I5.2 J0.0
G3 X-55.5571 Y-28.9026 I24.0309 J-10.1189
G1 F300.0 X-53.9895 Y-29.2226
G3 F800.0 X-54.474 Y-34.8114 I23.98 J-4.8945
G1 Y-43.4619
G3 X-52.6076 Y-46.617 I3.6 J0.0
G1 X-39.3526 Y-53.9
G1 X-92.4077
G1 X-80.8784 Y-46.4904
G3 X-79.2247 Y-43.4619 I-1.9463 J3.0285
G1 Y-17.9126
G3 X-80.8658 Y-14.8922 I-3.6 J0.0
G1 X-92.8146 Y-7.1425
G1 X-55.7655 Y-6.2689
G1 Y-19.1479
G3 X-51.6645 Y-22.7129 I3.6 J0.0
G3 X-53.9895 Y-29.2226 I21.6551 J-11.4042
G1 F300.0 X-52.4218 Y-29.5425
G3 F800.0 X-52.874 Y-34.7883 I22.4123 J-4.5745
G1 Y-43.4619
G3 X-51.8371 Y-45.2148 I2.0 J0.0
G1 X-33.118 Y-55.5
G1 X-97.8567
G1 X-81.7434 Y-45.1444
G3 X-80.8247 Y-43.4619 I-1.0813 J1.6825
G1 Y-17.9126
G3 X-81.7364 Y-16.2346 I-2.0 J0.0
G1 X-98.0328 Y-5.6651
G1 X-54.1655 Y-4.6307
G1 Y-19.1479
G3 X-50.4502 Y-20.1764 I2.0 J0.0
G2 X-45.7537 Y-13.8155 I35.409 J-21.2296
G3 X-45.7456 Y-13.8064 I-1.4878 J1.3366
G2 X-36.4437 Y-6.905 I21.1104 J-18.7337
G2 X-25.1213 Y-4.5829 I11.032 J-25.0269
G3 X-25.0839 I0.0212 J1.9999
G2 X-15.8469 Y-5.4944 I0.354 J-43.6704
G3 X-15.8423 Y-5.4954 I0.4068 J1.9582
G2 X-7.4364 Y-8.7866 I-5.3407 J-26.021
G3 X-7.4012 Y-8.8073 I1.035 J1.7114
G2 X-2.7996 Y-12.9493 I-7.4456 J-12.8988
G2 X-1.1014 Y-18.5089 I-7.9152 J-5.4569
G3 X-1.1008 Y-18.5843 I1.9999 J-0.0214
G2 X-2.332 Y-23.741 I-10.2537 J-0.2773
G2 X-4.9113 Y-26.4461 I-7.0815 J4.1699
G2 X-10.6756 Y-28.6143 I-8.2927 J13.3
G3 X-10.7009 Y-28.6186 I0.3226 J-1.9738
G2 X-17.2608 Y-29.1648 I-6.2468 J35.3632
G2 X-26.3557 Y-28.3848 I1.9191 J75.7905
G3 X-25.7406 Y-27.1598 I-24.6191 J13.1273
G3 X-24.5061 Y-22.3858 I-10.7847 J5.3355
G3 X-24.5042 Y-22.3273 I-1.9978 J0.0933
G3 X-25.0694 Y-18.652 I-10.9885 J0.1911
G3 X-25.0732 Y-18.6408 I-1.8968 J-0.634
G3 X-29.2331 Y-14.1661 I-7.0842 J-2.4148
G3 X-29.2658 Y-14.1525 I-0.7814 J-1.841
G3 X-34.4436 Y-13.2171 I-4.8385 J-11.9849
G3 X-47.7184 Y-19.6384 I-0.0729 J-16.7815
G3 X-52.4218 Y-29.5425 I17.7089 J-14.4787
( Ber_Profil2mm )
G0 Z3.0
( T2 : 2.0 )
T2 M6
M3 S1000
G0 X-361.4455 Y18.1479
G0 Z1.0
G1 F300.0 Z-2.0
G1 F800.0 X-253.0786
G3 X-253.0721 Y18.148 I0.0 J1.0
G2 X-238.1306 Y17.0215 I0.5998 J-91.7017
G3 X-238.1253 Y17.0207 I0.1564 J0.9877
G2 X-223.9128 Y12.6844 I-7.799 J-51.0209
G3 X-223.9025 Y12.6796 I0.4265 J0.9045
G2 X-216.3603 Y7.3152 I-10.251 J-22.3971
G2 X-213.0874 Y-0.9533 I-8.768 J-8.2526
G3 Y-0.9586 I1.0 J-0.0013
G2 X-214.4214 Y-5.4875 I-8.2426 J-0.033
G2 X-217.2401 Y-8.4912 I-10.2527 J6.797
G2 X-223.7608 Y-12.0503 I-15.932 J21.4364
G3 X-223.7635 Y-12.0513 I0.3524 J-0.9359
G2 X-234.6885 Y-15.1565 I-23.4572 J61.7578
G3 X-234.6944 Y-15.1577 I0.1897 J-0.9818
G2 X-246.003 Y-16.9189 I-26.4091 J132.3866
G3 X-246.0144 Y-18.905 I0.1119 J-0.9937
G2 X-234.6248 Y-20.7471 I-19.3368 J-155.6905
G3 X-234.6246 I0.1959 J0.9806
G2 X-226.1166 Y-22.8505 I-18.8772 J-94.6163
G2 X-219.8661 Y-25.0875 I-16.8332 J-56.8829
G3 X-219.8484 Y-25.0949 I0.3891 J0.9212
G2 X-211.4565 Y-30.2943 I-10.5728 J-26.4364
G2 X-208.5658 Y-34.188 I-9.0997 J-9.7755
G2 X-207.5283 Y-38.8522 I-9.7122 J-4.6079
G3 X-207.5282 Y-38.8714 I1.0 J-0.0052
G2 X-209.3926 Y-45.2607 I-11.3386 J-0.1581
G2 X-213.4306 Y-49.2256 I-12.1413 J8.3264
G2 X-222.6882 Y-53.2878 I-17.4783 J27.2527
G3 X-222.6923 Y-53.2889 I0.2539 J-0.9672
G2 X-237.8691 Y-55.8791 I-21.6397 J81.0365
G3 X-237.8759 Y-55.8796 I0.0771 J-0.997
G2 X-253.3555 Y-56.5 I-14.7959 J175.7474
G3 X-253.3594 I-0.0039 J-1.0
G1 X-361.39
G1 X-336.2158 Y-40.7724
G3 X-335.7456 Y-39.9243 I-0.5298 J0.8481
G1 Y1.2354
G3 X-336.2085 Y2.0789 I-1.0 J0.0
G1 X-361.4455 Y18.1479
G1 F300.0 Z-4.0
G1 F800.0 X-253.0786
G3 X-253.0721 Y18.148 I0.0 J1.0
G2 X-238.1306 Y17.0215 I0.5998 J-91.7017
G3 X-238.1253 Y17.0207 I0.1564 J0.9877
G2 X-223.9128 Y12.6844 I-7.799 J-51.0209
G3 X-223.9025 Y12.6796 I0.4265 J0.9045
G2 X-216.3603 Y7.3152 I-10.251 J-22.3971
G2 X-213.0874 Y-0.9533 I-8.768 J-8.2526
G3 Y-0.9586 I1.0 J-0.0013
G2 X-214.4214 Y-5.4875 I-8.2426 J-0.033
G2 X-217.2401 Y-8.4912 I-10.2527 J6.797
G2 X-223.7608 Y-12.0503 I-15.932 J21.4364
G3 X-223.7635 Y-12.0513 I0.3524 J-0.9359
G2 X-234.6885 Y-15.1565 I-23.4572 J61.7578
G3 X-234.6944 Y-15.1577 I0.1897 J-0.9818
G2 X-246.003 Y-16.9189 I-26.4091 J132.3866
G3 X-246.0144 Y-18.905 I0.1119 J-0.9937
G2 X-234.6248 Y-20.7471 I-19.3368 J-155.6905
G3 X-234.6246 I0.1959 J0.9806
G2 X-226.1166 Y-22.8505 I-18.8772 J-94.6163
G2 X-219.8661 Y-25.0875 I-16.8332 J-56.8829
G3 X-219.8484 Y-25.0949 I0.3891 J0.9212
G2 X-211.4565 Y-30.2943 I-10.5728 J-26.4364
G2 X-208.5658 Y-34.188 I-9.0997 J-9.7755
G2 X-207.5283 Y-38.8522 I-9.7122 J-4.6079
G3 X-207.5282 Y-38.8714 I1.0 J-0.0052
G2 X-209.3926 Y-45.2607 I-11.3386 J-0.1581
G2 X-213.4306 Y-49.2256 I-12.1413 J8.3264
G2 X-222.6882 Y-53.2878 I-17.4783 J27.2527
G3 X-222.6923 Y-53.2889 I0.2539 J-0.9672
G2 X-237.8691 Y-55.8791 I-21.6397 J81.0365
G3 X-237.8759 Y-55.8796 I0.0771 J-0.997
G2 X-253.3555 Y-56.5 I-14.7959 J175.7474
G3 X-253.3594 I-0.0039 J-1.0
G1 X-361.39
G1 X-336.2158 Y-40.7724
G3 X-335.7456 Y-39.9243 I-0.5298 J0.8481
G1 Y1.2354
G3 X-336.2085 Y2.0789 I-1.0 J0.0
G1 X-361.4455 Y18.1479
G0 Z3.0
G0 X-298.1396 Y5.7513
G0 Z1.0
G1 F300.0 Z-2.0
G3 F800.0 X-298.1582 Y5.5591 I0.9814 J-0.1922
G1 Y-11.0059
G3 X-297.1582 Y-12.0059 I1.0 J0.0
G1 X-265.0978
G3 X-260.8538 Y-11.7588 I0.1747 J33.5775
G3 X-254.4255 Y-9.6061 I-1.3462 J14.6945
G3 X-254.3891 Y-9.5825 I-0.5269 J0.8499
G3 X-251.1234 Y-3.0799 I-4.2198 J6.1906
G3 X-252.4538 Y1.8289 I-8.8987 J0.2229
G3 X-252.472 Y1.8572 I-0.8502 J-0.5264
G3 X-255.244 Y4.4547 I-6.9345 J-4.6225
G3 X-255.2563 Y4.4616 I-0.4995 J-0.8663
G3 X-260.282 Y6.1729 I-7.1977 J-12.9027
G3 X-265.38 Y6.5591 I-4.8519 J-30.2105
G1 X-297.1582
G3 X-298.1396 Y5.7513 I0.0 J-1.0
G1 F300.0 Z-4.0
G3 F800.0 X-298.1582 Y5.5591 I0.9814 J-0.1922
G1 Y-11.0059
G3 X-297.1582 Y-12.0059 I1.0 J0.0
G1 X-265.0978
G3 X-260.8538 Y-11.7588 I0.1747 J33.5775
G3 X-254.4255 Y-9.6061 I-1.3462 J14.6945
G3 X-254.3891 Y-9.5825 I-0.5269 J0.8499
G3 X-251.1234 Y-3.0799 I-4.2198 J6.1906
G3 X-252.4538 Y1.8289 I-8.8987 J0.2229
G3 X-252.472 Y1.8572 I-0.8502 J-0.5264
G3 X-255.244 Y4.4547 I-6.9345 J-4.6225
G3 X-255.2563 Y4.4616 I-0.4995 J-0.8663
G3 X-260.282 Y6.1729 I-7.1977 J-12.9027
G3 X-265.38 Y6.5591 I-4.8519 J-30.2105
G1 X-297.1582
G3 X-298.1396 Y5.7513 I0.0 J-1.0
G0 Z3.0
G0 X-297.1889 Y-25.1675
G0 Z1.0
G1 F300.0 Z-2.0
G3 F800.0 X-298.1582 Y-26.167 I0.0307 J-0.9995
G1 Y-43.9111
G3 X-297.1582 Y-44.9111 I1.0 J0.0
G1 X-265.5565
G3 X-255.7171 Y-43.7107 I0.8186 J34.2147
G3 X-255.7128 Y-43.7095 I-0.2636 J0.9646
G3 X-250.8426 Y-40.934 I-3.0733 J11.0535
G3 X-250.8106 Y-40.9019 I-0.6924 J0.7215
G3 X-248.7092 Y-35.428 I-5.5301 J5.2633
G3 X-249.6157 Y-30.7926 I-11.1643 J0.2229
G3 X-249.6323 Y-30.7563 I-0.9186 J-0.3952
G3 X-255.0146 Y-26.1161 I-7.9838 J-3.819
G3 X-261.5689 Y-25.167 I-6.1093 J-19.0845
G1 X-297.1582
G3 X-297.1889 Y-25.1675 I0.0 J-1.0
G1 F300.0 Z-4.0
G3 F800.0 X-298.1582 Y-26.167 I0.0307 J-0.9995
G1 Y-43.9111
G3 X-297.1582 Y-44.9111 I1.0 J0.0
G1 X-265.5565
G3 X-255.7171 Y-43.7107 I0.8186 J34.2147
G3 X-255.7128 Y-43.7095 I-0.2636 J0.9646
G3 X-250.8426 Y-40.934 I-3.0733 J11.0535
G3 X-250.8106 Y-40.9019 I-0.6924 J0.7215
G3 X-248.7092 Y-35.428 I-5.5301 J5.2633
G3 X-249.6157 Y-30.7926 I-11.1643 J0.2229
G3 X-249.6323 Y-30.7563 I-0.9186 J-0.3952
G3 X-255.0146 Y-26.1161 I-7.9838 J-3.819
G3 X-261.5689 Y-25.167 I-6.1093 J-19.0845
G1 X-297.1582
G3 X-297.1889 Y-25.1675 I0.0 J-1.0
G0 Z3.0
G0 X-200.0558 Y-30.1028
G0 Z1.0
G1 F300.0 Z-2.0
G2 F800.0 X-196.0119 Y-19.0217 I19.9871 J-1.0155
G3 X-196.0078 Y-19.0161 I-0.7966 J0.6044
G2 X-191.5332 Y-14.2654 I23.1 J-17.2748
G3 X-191.5319 Y-14.2644 I-0.6457 J0.7636
G2 X-186.1855 Y-10.3994 I27.5221 J-32.4413
G2 X-169.5839 Y-3.6332 I29.163 J-47.8042
G2 X-151.6748 Y-1.6738 I17.3444 J-75.7051
G3 X-151.6583 I0.0073 J1.0
G2 X-135.8037 Y-3.574 I0.57 J-62.3371
G2 X-121.4206 Y-10.2477 I-10.6212 J-41.7268
G3 X-121.4153 Y-10.2514 I0.5807 J0.8141
G2 X-111.7508 Y-20.508 I-20.2124 J-28.7272
G2 X-107.0517 Y-32.5791 I-32.7076 J-19.6825
G1 X-166.7725
G3 X-167.772 Y-33.5474 I0.0 J-1.0
G3 X-164.5275 Y-42.4834 I12.8088 J-0.4064
G3 X-164.507 Y-42.5056 I0.7463 J0.6656
G3 X-158.9224 Y-46.3686 I11.9825 J11.3546
G3 X-158.9191 Y-46.37 I0.3876 J0.9218
G3 X-149.4697 Y-48.8315 I13.4825 J32.3898
G3 X-139.8789 Y-49.4034 I9.1552 J72.8279
G3 X-121.9857 Y-47.8189 I1.1401 J88.9514
G3 X-121.9786 Y-47.8175 I-0.1883 J0.9821
G3 X-113.1922 Y-45.0024 I-7.9753 J40.0107
G3 X-106.7055 Y-40.5835 I-8.7269 J19.7813
G2 X-106.3423 Y-42.5382 I-8.9067 J-2.6661
G2 X-109.8329 Y-50.0503 I-10.1486 J0.1488
G3 X-109.8394 Y-50.0559 I0.656 J-0.7548
G2 X-117.3344 Y-54.6614 I-16.9223 J19.1382
G3 X-117.3384 Y-54.663 I0.369 J-0.9294
G2 X-132.2129 Y-58.5093 I-22.2304 J55.2851
G3 X-132.2196 Y-58.5102 I0.1234 J-0.9924
G2 X-147.675 Y-59.4761 I-14.8073 J112.7968
G3 X-147.688 I-0.0057 J-1.0
G2 X-167.3473 Y-57.8234 I-0.7925 J108.3247
G3 X-167.3522 Y-57.8225 I-0.1742 J-0.9847
G2 X-185.8974 Y-51.5086 I10.5441 J61.3629
G2 X-191.3969 Y-47.894 I18.7231 J34.4775
G3 X-191.4055 Y-47.8873 I-0.6174 J-0.7866
G2 X-197.7741 Y-40.5303 I14.7105 J19.1691
G2 X-200.0816 Y-31.1736 I17.1064 J9.1815
G3 X-200.0815 Y-31.1624 I-1.0 J0.009
G2 X-200.0558 Y-30.1028 I20.0128 J0.044
G1 F300.0 Z-4.0
G2 F800.0 X-196.0119 Y-19.0217 I19.9871 J-1.0155
G3 X-196.0078 Y-19.0161 I-0.7966 J0.6044
G2 X-191.5332 Y-14.2654 I23.1 J-17.2748
G3 X-191.5319 Y-14.2644 I-0.6457 J0.7636
G2 X-186.1855 Y-10.3994 I27.5221 J-32.4413
G2 X-169.5839 Y-3.6332 I29.163 J-47.8042
G2 X-151.6748 Y-1.6738 I17.3444 J-75.7051
G3 X-151.6583 I0.0073 J1.0
G2 X-135.8037 Y-3.574 I0.57 J-62.3371
G2 X-121.4206 Y-10.2477 I-10.6212 J-41.7268
G3 X-121.4153 Y-10.2514 I0.5807 J0.8141
G2 X-111.7508 Y-20.508 I-20.2124 J-28.7272
G2 X-107.0517 Y-32.5791 I-32.7076 J-19.6825
G1 X-166.7725
G3 X-167.772 Y-33.5474 I0.0 J-1.0
G3 X-164.5275 Y-42.4834 I12.8088 J-0.4064
G3 X-164.507 Y-42.5056 I0.7463 J0.6656
G3 X-158.9224 Y-46.3686 I11.9825 J11.3546
G3 X-158.9191 Y-46.37 I0.3876 J0.9218
G3 X-149.4697 Y-48.8315 I13.4825 J32.3898
G3 X-139.8789 Y-49.4034 I9.1552 J72.8279
G3 X-121.9857 Y-47.8189 I1.1401 J88.9514
G3 X-121.9786 Y-47.8175 I-0.1883 J0.9821
G3 X-113.1922 Y-45.0024 I-7.9753 J40.0107
G3 X-106.7055 Y-40.5835 I-8.7269 J19.7813
G2 X-106.3423 Y-42.5382 I-8.9067 J-2.6661
G2 X-109.8329 Y-50.0503 I-10.1486 J0.1488
G3 X-109.8394 Y-50.0559 I0.656 J-0.7548
G2 X-117.3344 Y-54.6614 I-16.9223 J19.1382
G3 X-117.3384 Y-54.663 I0.369 J-0.9294
G2 X-132.2129 Y-58.5093 I-22.2304 J55.2851
G3 X-132.2196 Y-58.5102 I0.1234 J-0.9924
G2 X-147.675 Y-59.4761 I-14.8073 J112.7968
G3 X-147.688 I-0.0057 J-1.0
G2 X-167.3473 Y-57.8234 I-0.7925 J108.3247
G3 X-167.3522 Y-57.8225 I-0.1742 J-0.9847
G2 X-185.8974 Y-51.5086 I10.5441 J61.3629
G2 X-191.3969 Y-47.894 I18.7231 J34.4775
G3 X-191.4055 Y-47.8873 I-0.6174 J-0.7866
G2 X-197.7741 Y-40.5303 I14.7105 J19.1691
G2 X-200.0816 Y-31.1736 I17.1064 J9.1815
G3 X-200.0815 Y-31.1624 I-1.0 J0.009
G2 X-200.0558 Y-30.1028 I20.0128 J0.044
G0 Z3.0
G0 X-167.3633 Y-24.156
G0 Z1.0
G1 F300.0 Z-2.0
G3 F800.0 X-166.3794 Y-24.9771 I0.9839 J0.179
G1 X-133.4741
G3 X-132.4744 Y-23.999 I0.0 J1.0
G3 X-133.6673 Y-17.7741 I-15.1041 J0.3322
G3 X-133.6828 Y-17.7395 I-0.9208 J-0.3901
G3 X-140.7936 Y-11.5299 I-10.6142 J-4.9784
G3 X-149.6531 Y-10.2304 I-8.2568 J-25.4422
G3 X-156.1981 Y-11.0988 I-0.1954 J-23.6244
G3 X-156.2022 Y-11.1 I0.2688 J-0.9632
G3 X-162.2041 Y-14.0786 I4.9859 J-17.5829
G3 X-165.9832 Y-18.3497 I8.1109 J-10.9839
G3 X-165.9925 Y-18.3666 I0.8708 J-0.4916
G3 X-167.3793 Y-23.9879 I10.1888 J-5.4954
G3 X-167.3633 Y-24.156 I0.9999 J0.0109
G1 F300.0 Z-4.0
G3 F800.0 X-166.3794 Y-24.9771 I0.9839 J0.179
G1 X-133.4741
G3 X-132.4744 Y-23.999 I0.0 J1.0
G3 X-133.6673 Y-17.7741 I-15.1041 J0.3322
G3 X-133.6828 Y-17.7395 I-0.9208 J-0.3901
G3 X-140.7936 Y-11.5299 I-10.6142 J-4.9784
G3 X-149.6531 Y-10.2304 I-8.2568 J-25.4422
G3 X-156.1981 Y-11.0988 I-0.1954 J-23.6244
G3 X-156.2022 Y-11.1 I0.2688 J-0.9632
G3 X-162.2041 Y-14.0786 I4.9859 J-17.5829
G3 X-165.9832 Y-18.3497 I8.1109 J-10.9839
G3 X-165.9925 Y-18.3666 I0.8708 J-0.4916
G3 X-167.3793 Y-23.9879 I10.1888 J-5.4954
G3 X-167.3633 Y-24.156 I0.9999 J0.0109
G0 Z3.0
G0 X-101.2942 Y-4.7417
G0 Z1.0
G1 F300.0 Z-2.0
G1 F800.0 X-53.1655 Y-3.6069
G1 Y-19.1479
G3 X-51.3079 Y-19.6622 I1.0 J0.0
G2 X-46.4976 Y-13.1472 I36.2667 J-21.7438
G3 X-46.4936 Y-13.1427 I-0.7439 J0.6683
G2 X-36.8546 Y-5.9933 I21.8584 J-19.3974
G2 X-25.1107 Y-3.583 I11.4429 J-25.9386
G3 X-25.092 I0.0106 J0.9999
G2 X-15.6435 Y-4.5154 I0.3622 J-44.6703
G3 X-15.6412 Y-4.5158 I0.2034 J0.9791
G2 X-6.9189 Y-7.9309 I-5.5418 J-27.0006
G3 X-6.9013 Y-7.9413 I0.5175 J0.8557
G2 X-1.9835 Y-12.3714 I-7.9455 J-13.7648
G2 X-0.1015 Y-18.5196 I-8.7314 J-6.0348
G3 X-0.1012 Y-18.5573 I0.9999 J-0.0107
G2 X-1.461 Y-24.2326 I-11.2533 J-0.3043
G2 X-4.3729 Y-27.2889 I-7.9525 J4.6616
G2 X-10.5143 Y-29.6012 I-8.8311 J14.1427
G3 X-10.5269 Y-29.6034 I0.1613 J-0.9869
G2 X-17.2778 Y-30.1647 I-6.4207 J36.3479
G2 X-27.9389 Y-29.1491 I1.9361 J76.7904
G3 X-26.641 Y-26.7246 I-23.0359 J13.8916
G3 X-25.505 Y-22.3392 I-9.8843 J4.9004
G3 X-25.5041 Y-22.3099 I-0.9989 J0.0467
G3 X-26.0179 Y-18.9691 I-9.9886 J0.1737
G3 X-26.0198 Y-18.9635 I-0.9484 J-0.317
G3 X-29.6239 Y-15.0866 I-6.1377 J-2.0922
G3 X-29.6402 Y-15.0798 I-0.3907 J-0.9205
G3 X-34.4326 Y-14.2172 I-4.4642 J-11.0576
G3 X-46.9378 Y-20.2635 I-0.084 J-15.7814
G3 X-51.874 Y-34.7735 I16.9284 J-13.8535
G1 Y-43.4619
G3 X-51.3556 Y-44.3383 I1.0 J0.0
G1 X-29.2213 Y-56.5
G1 X-101.2623
G1 X-82.2841 Y-44.3032
G3 X-81.8247 Y-43.4619 I-0.5406 J0.8412
G1 Y-17.9126
G3 X-82.2806 Y-17.0736 I-1.0 J0.0
G1 X-101.2942 Y-4.7417
G1 F300.0 Z-4.0
G1 F800.0 X-53.1655 Y-3.6069
G1 Y-19.1479
G3 X-51.3079 Y-19.6622 I1.0 J0.0
G2 X-46.4976 Y-13.1472 I36.2667 J-21.7438
G3 X-46.4936 Y-13.1427 I-0.7439 J0.6683
G2 X-36.8546 Y-5.9933 I21.8584 J-19.3974
G2 X-25.1107 Y-3.583 I11.4429 J-25.9386
G3 X-25.092 I0.0106 J0.9999
G2 X-15.6435 Y-4.5154 I0.3622 J-44.6703
G3 X-15.6412 Y-4.5158 I0.2034 J0.9791
G2 X-6.9189 Y-7.9309 I-5.5418 J-27.0006
G3 X-6.9013 Y-7.9413 I0.5175 J0.8557
G2 X-1.9835 Y-12.3714 I-7.9455 J-13.7648
G2 X-0.1015 Y-18.5196 I-8.7314 J-6.0348
G3 X-0.1012 Y-18.5573 I0.9999 J-0.0107
G2 X-1.461 Y-24.2326 I-11.2533 J-0.3043
G2 X-4.3729 Y-27.2889 I-7.9525 J4.6616
G2 X-10.5143 Y-29.6012 I-8.8311 J14.1427
G3 X-10.5269 Y-29.6034 I0.1613 J-0.9869
G2 X-17.2778 Y-30.1647 I-6.4207 J36.3479
G2 X-27.9389 Y-29.1491 I1.9361 J76.7904
G3 X-26.641 Y-26.7246 I-23.0359 J13.8916
G3 X-25.505 Y-22.3392 I-9.8843 J4.9004
G3 X-25.5041 Y-22.3099 I-0.9989 J0.0467
G3 X-26.0179 Y-18.9691 I-9.9886 J0.1737
G3 X-26.0198 Y-18.9635 I-0.9484 J-0.317
G3 X-29.6239 Y-15.0866 I-6.1377 J-2.0922
G3 X-29.6402 Y-15.0798 I-0.3907 J-0.9205
G3 X-34.4326 Y-14.2172 I-4.4642 J-11.0576
G3 X-46.9378 Y-20.2635 I-0.084 J-15.7814
G3 X-51.874 Y-34.7735 I16.9284 J-13.8535
G1 Y-43.4619
G3 X-51.3556 Y-44.3383 I1.0 J0.0
G1 X-29.2213 Y-56.5
G1 X-101.2623
G1 X-82.2841 Y-44.3032
G3 X-81.8247 Y-43.4619 I-0.5406 J0.8412
G1 Y-17.9126
G3 X-82.2806 Y-17.0736 I-1.0 J0.0
G1 X-101.2942 Y-4.7417
G0 Z3.0
M5
M30
