( Made using CamBam - http://www.cambam.co.uk )
( Beratex 4/21/2024 9:54:35 AM )
( Post processor: Default )
( T2 : 2.0 )
( T4 : 4.0 )
G21 G90 G64 G40
G0 Z3.0
( T4 : 4.0 )
T4 M6
( Ber_Tasche4mm )
G17
M3 S1000
G0 X14.675 Y-7.2984
G0 Z1.0
G1 F300.0 Z-2.0
G3 F800.0 X15.1675 Y-8.5391 I6.5359 J1.8766
G3 X14.675 Y-9.7797 I6.0434 J-3.1172
G1 Y-7.2984
G1 F300.0 X16.2129 Y-6.8569
G3 F800.0 X17.0488 Y-8.5391 I4.9981 J1.435
G3 X16.0129 Y-11.8 I4.1621 J-3.1172
G1 X13.03
G3 X13.075 Y-11.1172 I-5.155 J0.6828
G1 Y10.2109
G3 X12.9782 Y11.2098 I-5.2 J0.0
G1 X16.0109 Y11.2828
G1 Y-5.4219
G3 X16.2129 Y-6.8569 I5.2 J0.0
G1 F300.0 X17.7507 Y-6.4154
G3 F800.0 X19.4101 Y-8.5391 I3.4602 J0.9935
G3 X18.0614 Y-13.4 I1.8009 J-3.1172
G1 X10.6587
G3 X11.475 Y-11.1172 I-2.7837 J2.2828
G1 Y10.2109
G3 X10.4282 Y12.7489 I-3.6 J0.0
G1 X17.6109 Y12.9217
G1 Y-5.4219
G3 X17.7507 Y-6.4154 I3.6 J0.0
G0 Z3.0
G0 X33.2264 Y-4.4274
G0 Z1.0
G1 F300.0 Z-2.0
G1 F800.0 X33.7471 Y-4.1233
G3 X34.6982 Y-3.4107 I-2.6221 J4.4905
G3 X36.4553 Y-6.7679 I5.169 J0.5669
G1 X42.2429 Y-11.8
G1 X39.0287
G3 X37.4295 Y-8.4294 I-5.185 J-0.3953
G1 X33.2264 Y-4.4274
G1 F300.0 X32.1231 Y-5.5861
G1 F800.0 X31.4278 Y-4.9241
G3 X30.387 Y-4.2325 I-2.4824 J-2.6072
G1 X32.9403 Y-2.7416
G3 X34.1328 Y2.3453 I-1.8153 J3.1088
G1 X41.8055
G1 X38.1228 Y0.3054
G3 X37.5051 Y-5.5605 I1.7444 J-3.1492
G1 X46.5217 Y-13.4
G1 X37.2362
G3 X36.3262 Y-9.5881 I-3.3925 J1.2047
G1 X32.1231 Y-5.5861
G1 F300.0 X31.0198 Y-6.7449
G1 F800.0 X30.3244 Y-6.0828
G3 X28.0041 Y-5.7665 I-1.3791 J-1.4484
G1 X20.2698 Y-9.8915
G3 X19.9037 Y-13.1699 I0.9412 J-1.7647
G1 X22.0228 Y-15.0
G1 X5.5638
G1 X8.9633 Y-12.7952
G3 X9.875 Y-11.1172 I-1.0883 J1.678
G1 Y10.2109
G3 X8.9602 Y11.8909 I-2.0 J0.0
G1 X5.3439 Y14.2271
G1 X19.2109 Y14.5607
G1 Y-5.4219
G3 X22.2194 Y-7.149 I2.0 J0.0
G1 X32.1335 Y-1.3599
G3 X32.2949 Y1.9893 I-1.0085 J1.7271
G1 X29.5828 Y3.9453
G1 X47.9961
G1 X38.8981 Y-1.0942
G3 X38.5549 Y-4.353 I0.9691 J-1.7495
G1 X48.0705 Y-12.6265
G3 X48.2945 Y-12.7952 I1.3123 J1.5093
G1 X51.694 Y-15.0
G1 X33.6208
G1 X35.1334 Y-13.724
G3 X35.2229 Y-10.7469 I-1.2896 J1.5287
G1 X31.0198 Y-6.7449
G0 Z3.0
G0 X33.2264 Y-4.4274
G0 Z-1.0
G1 F300.0 Z-4.0
G1 F800.0 X33.7471 Y-4.1233
G3 X34.6982 Y-3.4107 I-2.6221 J4.4905
G3 X36.4553 Y-6.7679 I5.169 J0.5669
G1 X42.2429 Y-11.8
G1 X39.0287
G3 X37.4295 Y-8.4294 I-5.185 J-0.3953
G1 X33.2264 Y-4.4274
G1 F300.0 X32.1231 Y-5.5861
G1 F800.0 X31.4278 Y-4.9241
G3 X30.387 Y-4.2325 I-2.4824 J-2.6072
G1 X32.9403 Y-2.7416
G3 X34.1328 Y2.3453 I-1.8153 J3.1088
G1 X41.8055
G1 X38.1228 Y0.3054
G3 X37.5051 Y-5.5605 I1.7444 J-3.1492
G1 X46.5217 Y-13.4
G1 X37.2362
G3 X36.3262 Y-9.5881 I-3.3925 J1.2047
G1 X32.1231 Y-5.5861
G0 Z3.0
G0 X15.1675 Y-8.5391
G0 Z-1.0
G1 F300.0 Z-4.0
G3 F800.0 X14.675 Y-9.7797 I6.0434 J-3.1172
G1 Y-7.2984
G3 X15.1675 Y-8.5391 I6.5359 J1.8766
G1 F300.0 X16.5895 Y-9.2725
G3 F800.0 X16.0129 Y-11.8 I4.6215 J-2.3837
G1 X13.03
G3 X13.075 Y-11.1172 I-5.155 J0.6828
G1 Y10.2109
G3 X12.9782 Y11.2098 I-5.2 J0.0
G1 X16.0109 Y11.2828
G1 Y-5.4219
G3 X17.0488 Y-8.5391 I5.2 J0.0
G3 X16.5895 Y-9.2725 I4.1621 J-3.1172
G1 F300.0 X18.0115 Y-10.006
G3 F800.0 X18.0614 Y-13.4 I3.1995 J-1.6503
G1 X10.6587
G3 X11.475 Y-11.1172 I-2.7837 J2.2828
G1 Y10.2109
G3 X10.4282 Y12.7489 I-3.6 J0.0
G1 X17.6109 Y12.9217
G1 Y-5.4219
G3 X19.4101 Y-8.5391 I3.6 J0.0
G3 X18.0115 Y-10.006 I1.8009 J-3.1172
G1 F300.0 X19.4335 Y-10.7394
G3 F800.0 X19.9037 Y-13.1699 I1.7775 J-0.9168
G1 X22.0228 Y-15.0
G1 X5.5638
G1 X8.9633 Y-12.7952
G3 X9.875 Y-11.1172 I-1.0883 J1.678
G1 Y10.2109
G3 X8.9602 Y11.8909 I-2.0 J0.0
G1 X5.3439 Y14.2271
G1 X19.2109 Y14.5607
G1 Y-5.4219
G3 X22.2194 Y-7.149 I2.0 J0.0
G1 X32.1335 Y-1.3599
G3 X32.2949 Y1.9893 I-1.0085 J1.7271
G1 X29.5828 Y3.9453
G1 X47.9961
G1 X38.8981 Y-1.0942
G3 X38.5549 Y-4.353 I0.9691 J-1.7495
G1 X48.0705 Y-12.6265
G3 X48.2945 Y-12.7952 I1.3123 J1.5093
G1 X51.694 Y-15.0
G1 X33.6208
G1 X35.1334 Y-13.724
G3 X35.2229 Y-10.7469 I-1.2896 J1.5287
G1 X30.3244 Y-6.0828
G3 X28.0041 Y-5.7665 I-1.3791 J-1.4484
G1 X20.2698 Y-9.8915
G3 X19.4335 Y-10.7394 I0.9412 J-1.7647
G0 Z3.0
G0 X69.7266
G0 Z1.0
G1 F300.0 Z-2.0
G1 F800.0 Y10.2109
G3 X69.7225 Y10.431 I-6.0 J0.0
G1 X71.0625 Y10.4633
G1 Y-11.0
G1 X69.7266
G1 Y-10.7394
G1 F300.0 X68.9266
G1 F800.0 Y10.2109
G3 X68.8297 Y11.2098 I-5.2 J0.0
G1 X71.8625 Y11.2828
G1 Y-11.1406
G3 X71.9045 Y-11.8 I5.2 J0.0
G1 X68.8846
G3 X68.9266 Y-11.1406 I-5.158 J0.6594
G1 Y-10.7394
G1 F300.0 X67.3266
G1 F800.0 Y10.2109
G3 X66.2797 Y12.7489 I-3.6 J0.0
G1 X73.4625 Y12.9217
G1 Y-11.1406
G3 X74.2598 Y-13.4 I3.6 J0.0
G1 X66.5293
G3 X67.3266 Y-11.1406 I-2.8027 J2.2594
G1 Y-10.7394
G1 F300.0 X65.7266
G1 F800.0 Y10.2109
G3 X64.8118 Y11.8909 I-2.0 J0.0
G1 X61.1954 Y14.2271
G1 X75.0625 Y14.5607
G1 Y-11.1406
G3 X75.9773 Y-12.8206 I2.0 J0.0
G1 X79.351 Y-15.0
G1 X61.4381
G1 X64.8118 Y-12.8206
G3 X65.7266 Y-11.1406 I-1.0852 J1.68
G1 Y-10.7394
G0 Z3.0
G0 X69.7266
G0 Z-1.0
G1 F300.0 Z-4.0
G1 F800.0 Y10.2109
G3 X69.7225 Y10.431 I-6.0 J0.0
G1 X71.0625 Y10.4633
G1 Y-11.0
G1 X69.7266
G1 Y-10.7394
G1 F300.0 X68.9266
G1 F800.0 Y10.2109
G3 X68.8297 Y11.2098 I-5.2 J0.0
G1 X71.8625 Y11.2828
G1 Y-11.1406
G3 X71.9045 Y-11.8 I5.2 J0.0
G1 X68.8846
G3 X68.9266 Y-11.1406 I-5.158 J0.6594
G1 Y-10.7394
G1 F300.0 X67.3266
G1 F800.0 Y10.2109
G3 X66.2797 Y12.7489 I-3.6 J0.0
G1 X73.4625 Y12.9217
G1 Y-11.1406
G3 X74.2598 Y-13.4 I3.6 J0.0
G1 X66.5293
G3 X67.3266 Y-11.1406 I-2.8027 J2.2594
G1 Y-10.7394
G1 F300.0 X65.7266
G1 F800.0 Y10.2109
G3 X64.8118 Y11.8909 I-2.0 J0.0
G1 X61.1954 Y14.2271
G1 X75.0625 Y14.5607
G1 Y-11.1406
G3 X75.9773 Y-12.8206 I2.0 J0.0
G1 X79.351 Y-15.0
G1 X61.4381
G1 X64.8118 Y-12.8206
G3 X65.7266 Y-11.1406 I-1.0852 J1.68
G1 Y-10.7394
G0 Z3.0
G0 X92.3459 Y-6.3639
G0 Z1.0
G1 F300.0 Z-2.0
G2 F800.0 X92.3232 Y-6.0692 I1.6981 J0.2791
G3 X92.3234 Y-5.9929 I-6.7997 J0.0614
G2 X92.7241 Y-4.7974 I1.9706 J0.0043
G3 X92.7526 Y-4.7596 I-5.4172 J4.1102
G2 X93.3037 Y-4.1266 I4.5303 J-3.3879
G3 X93.4356 Y-4.7406 I6.7041 J1.1188
G3 X93.0472 Y-6.8 I6.4081 J-2.275
G3 X93.048 Y-7.5687 I11.7257 J-0.372
G2 X92.5046 Y-6.8541 I2.6542 J2.5819
G2 X92.3459 Y-6.3639 I1.5393 J0.7693
G1 F300.0 X90.7671 Y-6.6234
G2 F800.0 X90.7232 Y-6.0548 I3.2769 J0.5386
G3 X90.7234 Y-5.9964 I-5.1998 J0.0469
G2 X91.4495 Y-3.8303 I3.5706 J0.0079
G3 X91.4713 Y-3.8014 I-4.1426 J3.1431
G2 X92.597 Y-2.6062 I5.8117 J-4.3461
G3 X92.6033 Y-2.6008 I-3.3577 J3.9706
G2 X94.2328 Y-1.4228 I8.3935 J-9.8937
G2 X95.0192 Y-0.9691 I9.6805 J-15.8709
G3 X94.8113 Y-3.0643 I9.4028 J-1.9907
G3 X95.134 Y-4.8114 I5.1965 J0.0565
G3 X94.6464 Y-6.8507 I4.7097 J-2.2042
G3 X95.3437 Y-10.8788 I10.1265 J-0.3213
G2 X94.1205 Y-10.2839 I8.6591 J19.3565
G2 X92.5185 Y-9.2283 I5.5555 J10.1752
G3 X92.4738 Y-9.1936 I-3.2105 J-4.0906
G2 X91.0989 Y-7.6192 I3.2284 J4.2068
G2 X90.7671 Y-6.6234 I2.9451 J1.5345
G1 F300.0 X89.1883 Y-6.8829
G2 F800.0 X89.1233 Y-6.0403 I4.8557 J0.7982
G3 X89.1234 Y-5.9999 I-3.5999 J0.0325
G2 X90.1749 Y-2.8632 I5.1706 J0.0114
G3 X90.1899 Y-2.8432 I-2.8679 J2.176
G2 X91.5639 Y-1.3844 I7.093 J-5.3043
G3 X91.5683 Y-1.3807 I-2.3246 J2.7489
G2 X93.3991 Y-0.0571 I9.4286 J-11.1138
G2 X98.1892 Y2.0682 I10.5142 J-17.2366
G3 X97.4046 Y0.9041 I6.9467 J-5.5291
G3 X97.371 Y0.8432 I3.1321 J-1.7683
G3 X96.4112 Y-3.0469 I7.051 J-3.803
G3 X96.9407 Y-4.8867 I3.5966 J0.0391
G3 X96.2456 Y-6.9015 I2.903 J-2.129
G3 X98.4055 Y-12.8505 I8.5273 J-0.2705
G3 X98.4792 Y-12.9306 I2.6868 J2.3961
G3 X99.5156 Y-13.8816 I7.3116 J6.9284
G2 X93.3644 Y-11.694 I4.4872 J22.3593
G2 X91.5307 Y-10.4869 I6.3116 J11.5853
G3 X91.4997 Y-10.4629 I-2.2226 J-2.8319
G2 X89.6949 Y-8.3871 I4.2024 J5.4762
G2 X89.1883 Y-6.8829 I4.349 J2.3024
G0 Z3.0
G0 X117.3158 Y-3.4156
G0 Z1.0
G1 F300.0 Z-2.0
G3 F800.0 X117.3381 Y-3.0869 I-3.5736 J0.4078
G3 X116.8265 Y0.2014 I-9.483 J0.2085
G2 X116.925 Y0.1317 I-8.4899 J-12.1096
G3 X116.9441 Y0.1182 I2.0906 J2.9308
G2 X120.0923 Y-3.2173 I-6.6051 J-9.3876
G2 X120.2088 Y-3.4156 I-10.9348 J-6.5579
G1 X117.3158
G1 F300.0 Y-5.0156
G1 F800.0 X99.8438
G3 X97.8448 Y-6.9522 I0.0 J-2.0
G3 X99.5996 Y-11.7855 I6.9281 J-0.2198
G3 X99.6405 Y-11.83 I1.4927 J1.3312
G3 X102.5069 Y-13.8128 I6.1502 J5.8279
G3 X102.5135 Y-13.8155 I0.7751 J1.8437
G3 X106.876 Y-14.953 I6.2356 J14.9803
G3 X111.0634 Y-15.2032 I4.0111 J31.9689
G3 X118.8354 Y-14.5135 I0.4814 J38.7102
G3 X118.8497 Y-14.5107 I-0.3766 J1.9642
G3 X120.3651 Y-14.142 I-3.6382 J18.2522
G2 X119.8948 Y-14.3443 I-3.8213 J8.2372
G3 X119.8867 Y-14.3475 I0.738 J-1.8588
G2 X114.0732 Y-15.8508 I-8.6883 J21.6072
G3 X114.0598 Y-15.8525 I0.2469 J-1.9847
G2 X107.8239 Y-16.2422 I-5.9744 J45.5113
G3 X107.7979 I-0.0114 J-2.0
G2 X99.8794 Y-15.5766 I-0.3192 J43.6312
G3 X99.8698 Y-15.5749 I-0.3483 J-1.9694
G2 X92.6086 Y-13.1042 I4.133 J24.0526
G2 X90.5428 Y-11.7456 I7.0674 J12.9956
G3 X90.5256 Y-11.7322 I-1.2348 J-1.5733
G2 X88.2917 Y-9.156 I5.1765 J6.7455
G2 X87.5234 Y-6.0259 I5.7523 J3.0713
G3 Y-6.0034 I-1.9999 J0.0181
G2 X88.9002 Y-1.8961 I6.7706 J0.0149
G3 X88.9086 Y-1.885 I-1.5933 J1.2089
G2 X90.5308 Y-0.1627 I8.3743 J-6.2626
G3 X90.5332 Y-0.1607 I-1.2914 J1.5272
G2 X92.5655 Y1.3085 I10.4637 J-12.3339
G2 X99.0245 Y3.9411 I11.3478 J-18.6022
G2 X106.1339 Y4.7188 I6.8852 J-30.0562
G3 X106.1667 I0.0145 J1.9999
G2 X112.3806 Y3.9743 I0.2235 J-24.4364
G2 X117.8542 Y1.4343 I-4.044 J-15.8824
G3 X117.8648 Y1.4268 I1.1614 J1.6282
G2 X121.4582 Y-2.384 I-7.5258 J-10.6962
G2 X122.6957 Y-5.0156 I-12.3008 J-7.3912
G1 X117.3158
G1 F300.0 X115.4858 Y-3.9875
G3 F800.0 X115.7417 Y-3.0518 I-1.7436 J0.9797
G3 X115.1188 Y0.1986 I-7.8865 J0.1734
G3 X115.0879 Y0.2677 I-1.8416 J-0.7801
G3 X111.1681 Y3.6953 I-5.8631 J-2.75
G3 X106.9778 Y4.3127 I-3.9274 J-12.1271
G3 X103.832 Y3.8918 I-0.0702 J-11.4433
G3 X103.8239 Y3.8895 I0.5375 J-1.9264
G3 X100.8047 Y2.3926 I2.5128 J-8.8615
G3 X98.7951 Y0.119 I4.3313 J-5.8534
G3 X98.7764 Y0.0852 I1.7416 J-0.9833
G3 X98.0079 Y-3.0296 I5.6456 J-3.045
G3 X100.0078 Y-5.0078 I1.9999 J0.0217
G1 X113.7422
G3 X115.4858 Y-3.9875 I0.0 J2.0
G1 F300.0 Z-4.0
G3 F800.0 X115.7417 Y-3.0518 I-1.7436 J0.9797
G3 X115.1188 Y0.1986 I-7.8865 J0.1734
G3 X115.0879 Y0.2677 I-1.8416 J-0.7801
G3 X111.1681 Y3.6953 I-5.8631 J-2.75
G3 X106.9778 Y4.3127 I-3.9274 J-12.1271
G3 X103.832 Y3.8918 I-0.0702 J-11.4433
G3 X103.8239 Y3.8895 I0.5375 J-1.9264
G3 X100.8047 Y2.3926 I2.5128 J-8.8615
G3 X98.7951 Y0.119 I4.3313 J-5.8534
G3 X98.7764 Y0.0852 I1.7416 J-0.9833
G3 X98.0079 Y-3.0296 I5.6456 J-3.045
G3 X100.0078 Y-5.0078 I1.9999 J0.0217
G1 X113.7422
G3 X115.4858 Y-3.9875 I0.0 J2.0
G1 F300.0 X117.3158 Y-3.4156
G3 F800.0 X117.3381 Y-3.0869 I-3.5736 J0.4078
G3 X116.8265 Y0.2014 I-9.483 J0.2085
G2 X116.925 Y0.1317 I-8.4899 J-12.1096
G3 X116.9441 Y0.1182 I2.0906 J2.9308
G2 X120.0923 Y-3.2173 I-6.6051 J-9.3876
G2 X120.2088 Y-3.4156 I-10.9348 J-6.5579
G1 X117.3158
G0 Z3.0
G0 X93.4356 Y-4.7406
G0 Z-1.0
G1 F300.0 Z-4.0
G3 F800.0 X93.0472 Y-6.8 I6.4081 J-2.275
G3 X93.048 Y-7.5687 I11.7257 J-0.372
G2 X92.5046 Y-6.8541 I2.6542 J2.5819
G2 X92.3232 Y-6.0692 I1.5393 J0.7693
G3 X92.3234 Y-5.9929 I-6.7997 J0.0614
G2 X92.7241 Y-4.7974 I1.9706 J0.0043
G3 X92.7526 Y-4.7596 I-5.4172 J4.1102
G2 X93.3037 Y-4.1266 I4.5303 J-3.3879
G3 X93.4356 Y-4.7406 I6.7041 J1.1188
G1 F300.0 X94.9827 Y-4.3327
G3 F800.0 X95.134 Y-4.8114 I5.0251 J1.3249
G3 X94.6464 Y-6.8507 I4.7097 J-2.2042
G3 X95.3437 Y-10.8788 I10.1265 J-0.3213
G2 X94.1205 Y-10.2839 I8.6591 J19.3565
G2 X92.5185 Y-9.2283 I5.5555 J10.1752
G3 X92.4738 Y-9.1936 I-3.2105 J-4.0906
G2 X91.0989 Y-7.6192 I3.2284 J4.2068
G2 X90.7232 Y-6.0548 I2.9451 J1.5345
G3 X90.7234 Y-5.9964 I-5.1998 J0.0469
G2 X91.4495 Y-3.8303 I3.5706 J0.0079
G3 X91.4713 Y-3.8014 I-4.1426 J3.1431
G2 X92.597 Y-2.6062 I5.8117 J-4.3461
G3 X92.6033 Y-2.6008 I-3.3577 J3.9706
G2 X94.2328 Y-1.4228 I8.3935 J-9.8937
G2 X95.0192 Y-0.9691 I9.6805 J-15.8709
G3 X94.8113 Y-3.0643 I9.4028 J-1.9907
G3 X94.9827 Y-4.3327 I5.1965 J0.0565
G1 F300.0 X96.5299 Y-3.9248
G3 F800.0 X96.9407 Y-4.8867 I3.4779 J0.917
G3 X96.2456 Y-6.9015 I2.903 J-2.129
G3 X98.4055 Y-12.8505 I8.5273 J-0.2705
G3 X98.4792 Y-12.9306 I2.6868 J2.3961
G3 X99.5156 Y-13.8816 I7.3116 J6.9284
G2 X93.3644 Y-11.694 I4.4872 J22.3593
G2 X91.5307 Y-10.4869 I6.3116 J11.5853
G3 X91.4997 Y-10.4629 I-2.2226 J-2.8319
G2 X89.6949 Y-8.3871 I4.2024 J5.4762
G2 X89.1233 Y-6.0403 I4.349 J2.3024
G3 X89.1234 Y-5.9999 I-3.5999 J0.0325
G2 X90.1749 Y-2.8632 I5.1706 J0.0114
G3 X90.1899 Y-2.8432 I-2.8679 J2.176
G2 X91.5639 Y-1.3844 I7.093 J-5.3043
G3 X91.5683 Y-1.3807 I-2.3246 J2.7489
G2 X93.3991 Y-0.0571 I9.4286 J-11.1138
G2 X98.1892 Y2.0682 I10.5142 J-17.2366
G3 X97.4046 Y0.9041 I6.9467 J-5.5291
G3 X97.371 Y0.8432 I3.1321 J-1.7683
G3 X96.4112 Y-3.0469 I7.051 J-3.803
G3 X96.5299 Y-3.9248 I3.5966 J0.0391
G1 F300.0 X98.3812 Y-5.6515
G3 F800.0 X97.8448 Y-6.9522 I1.4626 J-1.3641
G3 X99.5996 Y-11.7855 I6.9281 J-0.2198
G3 X99.6405 Y-11.83 I1.4927 J1.3312
G3 X102.5069 Y-13.8128 I6.1502 J5.8279
G3 X102.5135 Y-13.8155 I0.7751 J1.8437
G3 X106.876 Y-14.953 I6.2356 J14.9803
G3 X111.0634 Y-15.2032 I4.0111 J31.9689
G3 X118.8354 Y-14.5135 I0.4814 J38.7102
G3 X118.8497 Y-14.5107 I-0.3766 J1.9642
G3 X120.3651 Y-14.142 I-3.6382 J18.2522
G2 X119.8948 Y-14.3443 I-3.8213 J8.2372
G3 X119.8867 Y-14.3475 I0.738 J-1.8588
G2 X114.0732 Y-15.8508 I-8.6883 J21.6072
G3 X114.0598 Y-15.8525 I0.2469 J-1.9847
G2 X107.8239 Y-16.2422 I-5.9744 J45.5113
G3 X107.7979 I-0.0114 J-2.0
G2 X99.8794 Y-15.5766 I-0.3192 J43.6312
G3 X99.8698 Y-15.5749 I-0.3483 J-1.9694
G2 X92.6086 Y-13.1042 I4.133 J24.0526
G2 X90.5428 Y-11.7456 I7.0674 J12.9956
G3 X90.5256 Y-11.7322 I-1.2348 J-1.5733
G2 X88.2917 Y-9.156 I5.1765 J6.7455
G2 X87.5234 Y-6.0259 I5.7523 J3.0713
G3 Y-6.0034 I-1.9999 J0.0181
G2 X88.9002 Y-1.8961 I6.7706 J0.0149
G3 X88.9086 Y-1.885 I-1.5933 J1.2089
G2 X90.5308 Y-0.1627 I8.3743 J-6.2626
G3 X90.5332 Y-0.1607 I-1.2914 J1.5272
G2 X92.5655 Y1.3085 I10.4637 J-12.3339
G2 X99.0245 Y3.9411 I11.3478 J-18.6022
G2 X106.1339 Y4.7188 I6.8852 J-30.0562
G3 X106.1667 I0.0145 J1.9999
G2 X112.3806 Y3.9743 I0.2235 J-24.4364
G2 X117.8542 Y1.4343 I-4.044 J-15.8824
G3 X117.8648 Y1.4268 I1.1614 J1.6282
G2 X121.4582 Y-2.384 I-7.5258 J-10.6962
G2 X122.6957 Y-5.0156 I-12.3008 J-7.3912
G1 X99.8438
G3 X98.3812 Y-5.6515 I0.0 J-2.0
G0 Z3.0
G0 X141.6828 Y-4.3682
G0 Z1.0
G1 F300.0 Z-2.0
G1 F800.0 Y-4.198
G3 X141.707 Y-4.2428 I5.9969 J3.2059
G3 X141.6828 Y-4.3682 I15.2205 J-2.9974
G1 F300.0 X143.2552 Y-4.6644
G3 F800.0 X143.0188 Y-7.5784 I13.6723 J-2.5758
G1 Y-11.1406
G3 X143.0607 Y-11.8 I5.2 J0.0
G1 X140.0408
G3 X140.0828 Y-11.1406 I-5.158 J0.6594
G1 Y-0.4766
G3 X139.9827 Y0.5389 I-5.2 J0.0
G1 X142.4797 Y0.5978
G1 Y-0.9922
G3 X143.4076 Y-3.9569 I5.2 J0.0
G3 X143.2552 Y-4.6644 I13.5198 J-3.2833
G1 F300.0 X144.8275 Y-4.9606
G3 F800.0 X144.6188 Y-7.5583 I12.0999 J-2.2796
G1 Y-11.1406
G3 X145.416 Y-13.4 I3.6 J0.0
G1 X137.6855
G3 X138.4828 Y-11.1406 I-2.8027 J2.2594
G1 Y-0.4766
G3 X137.4185 Y2.0789 I-3.6 J0.0
G1 X144.0797 Y2.236
G1 Y-0.9922
G3 X145.1726 Y-3.5757 I3.6 J0.0
G3 X144.8275 Y-4.9606 I11.7548 J-3.6645
G1 F300.0 X146.3998 Y-5.2568
G3 F800.0 X146.2188 Y-7.537 I10.5276 J-1.9833
G1 Y-11.1406
G3 X147.2557 Y-12.8935 I2.0 J0.0
G1 X151.0895 Y-15.0
G1 X132.5769
G1 X135.9641 Y-12.8231
G3 X136.8828 Y-11.1406 I-1.0813 J1.6825
G1 Y-0.4766
G3 X135.9711 Y1.2014 I-2.0 J0.0
G1 X132.3353 Y3.5595
G1 X145.6797 Y3.8742
G1 Y-0.9922
G3 X147.1269 Y-2.9143 I2.0 J0.0
G3 X146.3998 Y-5.2568 I9.8005 J-4.3259
G0 Z3.0
G0 X141.6828 Y-4.3682
G0 Z-1.0
G1 F300.0 Z-4.0
G1 F800.0 Y-4.198
G3 X141.707 Y-4.2428 I5.9969 J3.2059
G3 X141.6828 Y-4.3682 I15.2205 J-2.9974
G1 F300.0 X143.2552 Y-4.6644
G3 F800.0 X143.0188 Y-7.5784 I13.6723 J-2.5758
G1 Y-11.1406
G3 X143.0607 Y-11.8 I5.2 J0.0
G1 X140.0408
G3 X140.0828 Y-11.1406 I-5.158 J0.6594
G1 Y-0.4766
G3 X139.9827 Y0.5389 I-5.2 J0.0
G1 X142.4797 Y0.5978
G1 Y-0.9922
G3 X143.4076 Y-3.9569 I5.2 J0.0
G3 X143.2552 Y-4.6644 I13.5198 J-3.2833
G1 F300.0 X144.8275 Y-4.9606
G3 F800.0 X144.6188 Y-7.5583 I12.0999 J-2.2796
G1 Y-11.1406
G3 X145.416 Y-13.4 I3.6 J0.0
G1 X137.6855
G3 X138.4828 Y-11.1406 I-2.8027 J2.2594
G1 Y-0.4766
G3 X137.4185 Y2.0789 I-3.6 J0.0
G1 X144.0797 Y2.236
G1 Y-0.9922
G3 X145.1726 Y-3.5757 I3.6 J0.0
G3 X144.8275 Y-4.9606 I11.7548 J-3.6645
G1 F300.0 X146.3998 Y-5.2568
G3 F800.0 X146.2188 Y-7.537 I10.5276 J-1.9833
G1 Y-11.1406
G3 X147.2557 Y-12.8935 I2.0 J0.0
G1 X151.0895 Y-15.0
G1 X132.5769
G1 X135.9641 Y-12.8231
G3 X136.8828 Y-11.1406 I-1.0813 J1.6825
G1 Y-0.4766
G3 X135.9711 Y1.2014 I-2.0 J0.0
G1 X132.3353 Y3.5595
G1 X145.6797 Y3.8742
G1 Y-0.9922
G3 X147.1269 Y-2.9143 I2.0 J0.0
G3 X146.3998 Y-5.2568 I9.8005 J-4.3259
G0 Z3.0
G0 X163.4669 Y-0.7527
G0 Z1.0
G1 F300.0 Z-2.0
G3 F800.0 X163.3055 Y0.004 I-8.8281 J-1.4868
G2 X164.0902 Y-0.4027 I-2.694 J-6.1587
G3 X164.1817 Y-0.4567 I2.691 J4.4495
G2 X164.4106 Y-0.6128 I-0.9254 J-1.6032
G2 X164.293 Y-0.6353 I-0.4687 J2.1257
G3 X164.2273 Y-0.6465 I0.8388 J-5.1319
G2 X163.4669 Y-0.7527 I-1.848 J10.4616
G1 F300.0 X161.8891 Y-1.0184
G3 F800.0 X161.6119 Y0.0914 I-7.2503 J-1.2211
G3 X161.6051 Y0.1117 I-3.4143 J-1.1413
G3 X160.2898 Y2.279 I-5.5742 J-1.9001
G2 X162.2763 Y1.9993 I-1.1587 J-15.4195
G3 X162.2847 Y1.9975 I0.7322 J3.5247
G2 X164.9182 Y0.9664 I-1.6732 J-8.1522
G3 X164.9815 Y0.929 I1.863 J3.0805
G2 X166.0244 Y0.001 I-1.7253 J-2.989
G2 X166.2283 Y-0.6959 I-1.0436 J-0.6836
G3 X166.2294 Y-0.8317 I3.5998 J-0.0385
G2 X166.074 Y-1.5424 I-1.5156 J-0.041
G2 X165.907 Y-1.7124 I-0.55 J0.3736
G2 X164.5511 Y-2.2144 I-1.9651 J3.2253
G3 X164.5056 Y-2.2221 I0.5807 J-3.5529
G2 X162.295 Y-2.4082 I-2.1263 J12.0372
G2 X161.9894 Y-2.3986 I0.7546 J28.8693
G3 X161.9901 Y-2.3673 I-3.5988 J0.0939
G3 X161.8891 Y-1.0184 I-7.3513 J0.1278
G1 F300.0 X160.3113 Y-1.2841
G3 F800.0 X160.0945 Y-0.4158 I-5.6725 J-0.9553
G3 X160.0907 Y-0.4046 I-1.8968 J-0.634
G3 X157.7067 Y2.1598 I-4.0598 J-1.3839
G3 X157.674 Y2.1733 I-0.7814 J-1.841
G3 X155.0641 Y2.6485 I-2.4558 J-6.0829
G3 X153.7502 Y2.5451 I-0.0179 J-8.1697
G2 X154.7206 Y3.0556 I5.4204 J-9.1271
G2 X158.9553 Y3.922 I4.1259 J-9.3837
G3 X158.9928 Y3.9219 I0.0212 J1.9999
G2 X162.6017 Y3.5658 I0.1383 J-17.0624
G3 X162.6064 Y3.5648 I0.4068 J1.9582
G2 X165.7462 Y2.3355 I-1.9949 J-9.7195
G3 X165.7814 Y2.3147 I1.035 J1.7114
G2 X167.3332 Y0.9221 I-2.5252 J-4.3747
G2 X167.8282 Y-0.713 I-2.3524 J-1.6047
G3 X167.8289 Y-0.7884 I1.9999 J-0.0214
G2 X167.4651 Y-2.3358 I-3.115 J-0.0842
G2 X166.7751 Y-3.0568 I-1.9411 J1.167
G2 X164.8092 Y-3.7934 I-2.8332 J4.5697
G3 X164.784 Y-3.7977 I0.3226 J-1.9738
G2 X162.2684 Y-4.008 I-2.4047 J13.6128
G2 X160.1368 Y-3.8785 I0.7813 J30.4692
G3 X160.3884 Y-2.398 I-5.9291 J1.7693
G3 X160.3903 Y-2.3395 I-1.9978 J0.0933
G3 X160.3113 Y-1.2841 I-5.7515 J0.1
G0 Z3.0
G0 X163.4669 Y-0.7527
G0 Z-1.0
G1 F300.0 Z-4.0
G3 F800.0 X163.3055 Y0.004 I-8.8281 J-1.4868
G2 X164.0902 Y-0.4027 I-2.694 J-6.1587
G3 X164.1817 Y-0.4567 I2.691 J4.4495
G2 X164.4106 Y-0.6128 I-0.9254 J-1.6032
G2 X164.293 Y-0.6353 I-0.4687 J2.1257
G3 X164.2273 Y-0.6465 I0.8388 J-5.1319
G2 X163.4669 Y-0.7527 I-1.848 J10.4616
G1 F300.0 X161.8891 Y-1.0184
G3 F800.0 X161.6119 Y0.0914 I-7.2503 J-1.2211
G3 X161.6051 Y0.1117 I-3.4143 J-1.1413
G3 X160.2898 Y2.279 I-5.5742 J-1.9001
G2 X162.2763 Y1.9993 I-1.1587 J-15.4195
G3 X162.2847 Y1.9975 I0.7322 J3.5247
G2 X164.9182 Y0.9664 I-1.6732 J-8.1522
G3 X164.9815 Y0.929 I1.863 J3.0805
G2 X166.0244 Y0.001 I-1.7253 J-2.989
G2 X166.2283 Y-0.6959 I-1.0436 J-0.6836
G3 X166.2294 Y-0.8317 I3.5998 J-0.0385
G2 X166.074 Y-1.5424 I-1.5156 J-0.041
G2 X165.907 Y-1.7124 I-0.55 J0.3736
G2 X164.5511 Y-2.2144 I-1.9651 J3.2253
G3 X164.5056 Y-2.2221 I0.5807 J-3.5529
G2 X162.295 Y-2.4082 I-2.1263 J12.0372
G2 X161.9894 Y-2.3986 I0.7546 J28.8693
G3 X161.9901 Y-2.3673 I-3.5988 J0.0939
G3 X161.8891 Y-1.0184 I-7.3513 J0.1278
G1 F300.0 X160.3113 Y-1.2841
G3 F800.0 X160.0945 Y-0.4158 I-5.6725 J-0.9553
G3 X160.0907 Y-0.4046 I-1.8968 J-0.634
G3 X157.7067 Y2.1598 I-4.0598 J-1.3839
G3 X157.674 Y2.1733 I-0.7814 J-1.841
G3 X155.0641 Y2.6485 I-2.4558 J-6.0829
G3 X153.7502 Y2.5451 I-0.0179 J-8.1697
G2 X154.7206 Y3.0556 I5.4204 J-9.1271
G2 X158.9553 Y3.922 I4.1259 J-9.3837
G3 X158.9928 Y3.9219 I0.0212 J1.9999
G2 X162.6017 Y3.5658 I0.1383 J-17.0624
G3 X162.6064 Y3.5648 I0.4068 J1.9582
G2 X165.7462 Y2.3355 I-1.9949 J-9.7195
G3 X165.7814 Y2.3147 I1.035 J1.7114
G2 X167.3332 Y0.9221 I-2.5252 J-4.3747
G2 X167.8282 Y-0.713 I-2.3524 J-1.6047
G3 X167.8289 Y-0.7884 I1.9999 J-0.0214
G2 X167.4651 Y-2.3358 I-3.115 J-0.0842
G2 X166.7751 Y-3.0568 I-1.9411 J1.167
G2 X164.8092 Y-3.7934 I-2.8332 J4.5697
G3 X164.784 Y-3.7977 I0.3226 J-1.9738
G2 X162.2684 Y-4.008 I-2.4047 J13.6128
G2 X160.1368 Y-3.8785 I0.7813 J30.4692
G3 X160.3884 Y-2.398 I-5.9291 J1.7693
G3 X160.3903 Y-2.3395 I-1.9978 J0.0933
G3 X160.3113 Y-1.2841 I-5.7515 J0.1
G0 Z3.0
G0 X173.0531 Y-5.2016
G0 Z1.0
G1 F300.0 Z-2.0
G1 F800.0 X187.1578
G1 Y-5.9938
G1 X173.0531
G1 Y-5.2016
G1 F300.0 X171.4531
G1 F800.0 Y-3.6016
G1 X188.7578
G1 Y-7.5938
G1 X171.4531
G1 Y-5.2016
G1 F300.0 X173.0531
G1 Z-4.0
G1 F800.0 X187.1578
G1 Y-5.9938
G1 X173.0531
G1 Y-5.2016
G1 F300.0 X171.4531
G1 F800.0 Y-3.6016
G1 X188.7578
G1 Y-7.5938
G1 X171.4531
G1 Y-5.2016
G0 Z3.0
G0 X211.2281 Y-1.7968
G0 Z1.0
G1 F300.0 Z-2.0
G1 F800.0 Y0.2812
G3 X211.5737 Y-0.7578 I8.1234 J2.1251
G3 X211.2281 Y-1.7968 I7.7779 J-3.1641
G1 F300.0 X212.776 Y-2.2017
G3 F800.0 X212.5548 Y-3.9219 I6.5755 J-1.7202
G1 Y-10.2
G1 X209.607
G3 X209.6281 Y-9.6641 I-6.7788 J0.5359
G1 Y7.5156
G3 X209.5944 Y8.1922 I-6.8 J0.0
G1 X212.5548
G1 Y2.4063
G3 X213.3361 Y-0.7578 I6.7968 J0.0
G3 X212.776 Y-2.2017 I6.0154 J-3.1641
G1 F300.0 X214.3239 Y-2.6067
G3 F800.0 X214.1548 Y-3.9219 I5.0276 J-1.3152
G1 Y-11.3281
G3 X214.1762 Y-11.8 I5.1968 J0.0
G1 X207.5692
G3 X208.0281 Y-9.6641 I-4.7411 J2.1359
G1 Y7.5156
G3 X207.5033 Y9.7922 I-5.2 J0.0
G1 X214.1762
G3 X214.1548 Y9.3203 I5.1753 J-0.4719
G1 Y2.4063
G3 X215.229 Y-0.7578 I5.1968 J0.0
G3 X214.3239 Y-2.6067 I4.1226 J-3.1641
G1 F300.0 X215.8719 Y-3.0116
G3 F800.0 X215.7548 Y-3.9219 I3.4797 J-0.9103
G1 Y-11.3281
G3 X216.4114 Y-13.4 I3.5968 J0.0
G1 X203.6427
G1 X204.7356 Y-12.7172
G3 X206.4281 Y-9.6641 I-1.9074 J3.0531
G1 Y7.5156
G3 X204.7617 Y10.5523 I-3.6 J0.0
G1 X203.4426 Y11.3922
G1 X216.4114
G3 X215.7548 Y9.3203 I2.9401 J-2.0719
G1 Y2.4063
G3 X217.6411 Y-0.7578 I3.5968 J0.0
G3 X215.8719 Y-3.0116 I1.7105 J-3.1641
G0 Z3.0
G0 X236.96 Y-0.6123
G0 Z1.0
G1 F300.0 Z-2.0
G3 F800.0 X237.1506 Y-0.5449 I-3.0171 J8.8376
G3 X237.1546 Y-0.6585 I3.5994 J0.0683
G3 X236.96 Y-0.6123 I-2.7627 J-11.2079
G0 Z3.0
G0 X244.8665 Y7.077
G0 Z1.0
G1 F300.0 Z-2.0
G3 F800.0 X244.8188 Y7.409 I-10.0147 J-1.2695
G2 X245.45 Y7.2176 I-4.0827 J-14.6003
G2 X244.8665 Y7.077 I-5.2549 J20.5295
G1 F300.0 X243.2792 Y6.8758
G3 F800.0 X242.5076 Y9.4887 I-8.4274 J-1.0683
G2 X243.2412 Y9.3809 I-4.5045 J-33.1894
G3 X243.2687 Y9.3766 I0.8132 J5.136
G2 X247.8839 Y7.9685 I-2.5326 J-16.568
G3 X247.9375 Y7.9436 I2.2176 J4.7034
G2 X249.3864 Y6.977 I-2.2883 J-4.9996
G2 X248.3017 Y6.4462 I-3.3277 J5.4262
G3 X248.2877 Y6.4408 I1.8323 J-4.8665
G2 X244.5186 Y5.3696 I-8.0926 J21.3062
G3 X244.4878 Y5.3635 I0.9864 J-5.1056
G2 X243.3361 Y5.1473 I-10.0873 J50.5668
G3 X243.3465 Y5.7502 I-7.8944 J0.4369
G3 X243.2792 Y6.8758 I-8.4946 J0.0573
G1 F300.0 X241.6919 Y6.6746
G3 F800.0 X240.714 Y9.4371 I-6.8401 J-0.8671
G3 X240.6487 Y9.5386 I-3.0581 J-1.8934
G3 X238.8044 Y11.3839 I-5.5399 J-3.6929
G2 X243.4914 Y10.9612 I-0.8013 J-35.0846
G3 X243.5105 Y10.9582 I0.563 J3.5557
G2 X248.5663 Y9.4157 I-2.7743 J-18.1496
G3 X248.6033 Y9.3985 I1.5353 J3.2562
G2 X250.7661 Y7.8637 I-2.9542 J-6.4544
G2 X251.2594 Y6.6063 I-1.3499 J-1.255
G3 Y6.5871 I3.6 J-0.0047
G2 X251.2221 Y6.4525 I-0.2578 J-0.001
G2 X250.7957 Y5.9995 I-1.6163 J1.094
G2 X248.8655 Y4.9488 I-4.7369 J6.4037
G3 X248.8558 Y4.9451 I1.2685 J-3.3691
G2 X244.8221 Y3.7986 I-8.6608 J22.802
G3 X244.8008 Y3.7944 I0.6829 J-3.5346
G2 X241.2862 Y3.215 I-10.4003 J52.1359
G3 X241.7463 Y5.7387 I-5.8445 J2.3692
G3 X241.6919 Y6.6746 I-6.8945 J0.0688
G0 Z3.0
G0 X245.9443 Y-8.3141
G0 Z1.0
G1 F300.0 Z-2.0
G2 F800.0 X247.1921 Y-8.6577 I-8.371 J-32.8376
G1 X247.1926 Y-8.6578
G2 X248.5811 Y-9.1298 I-5.2149 J-17.6222
G2 X245.7771 Y-9.7084 I-7.1803 J27.7114
G3 X245.9443 Y-8.3141 I-9.3887 J1.8332
G1 F300.0 X246.3395 Y-6.7637
G2 F800.0 X247.6462 Y-7.1235 I-8.7662 J-34.388
G1 X247.6466 Y-7.1236
G2 X249.7515 Y-7.877 I-5.6689 J-19.1564
G3 X249.844 Y-7.915 I2.0235 J4.7902
G2 X251.8873 Y-9.1678 I-2.637 J-6.5937
G2 X251.9751 Y-9.2734 I-0.5628 J-0.557
G2 X251.6848 Y-9.541 I-1.0586 J0.8574
G2 X249.2203 Y-10.616 I-4.6813 J7.3697
G3 X249.1991 Y-10.6216 I1.3203 J-5.0296
G2 X243.7298 Y-11.555 I-7.7983 J29.2033
G3 X243.6942 Y-11.5579 I0.4007 J-5.1845
G2 X243.4411 Y-11.5788 I-5.7745 J68.5897
G3 X244.3538 Y-7.7751 I-7.0527 J3.7035
G3 X244.2501 Y-6.2972 I-9.4399 J0.0808
G2 X244.5158 Y-6.3496 I-11.6226 J-59.5774
G3 X244.5168 Y-6.3498 I1.0184 J5.0993
G2 X246.3395 Y-6.7637 I-6.9434 J-34.8018
G1 F300.0 X246.7348 Y-5.2133
G2 F800.0 X248.1003 Y-5.5893 I-9.1614 J-35.9384
G1 X248.1006 Y-5.5894
G2 X250.3742 Y-6.4031 I-6.1229 J-20.6906
G3 X250.4382 Y-6.4294 I1.4009 J3.3163
G2 X252.975 Y-7.9937 I-3.2312 J-8.0793
G2 X253.4618 Y-8.651 I-1.6504 J-1.7311
G2 X253.5797 Y-9.1999 I-1.1863 J-0.542
G3 X253.58 Y-9.269 I3.6 J-0.0189
G2 X253.3402 Y-10.1192 I-1.5503 J-0.0216
G2 X252.5618 Y-10.8794 I-2.4237 J1.7031
G2 X249.6266 Y-12.1636 I-5.5583 J8.7081
G3 X249.6119 Y-12.1674 I0.9141 J-3.482
G2 X243.8531 Y-13.1503 I-8.2111 J30.7491
G3 X243.8285 Y-13.1523 I0.2774 J-3.5893
G2 X239.6016 Y-13.3805 I-5.9087 J70.184
G3 X240.8847 Y-12.3795 I-4.2339 J6.7501
G3 X240.9997 Y-12.264 I-2.4904 J2.5952
G3 X242.7537 Y-7.7785 I-4.6113 J4.3888
G3 X242.116 Y-4.5962 I-7.8398 J0.0842
G3 X242.0566 Y-4.4654 I-3.3041 J-1.4213
G3 X241.9632 Y-4.2775 I-6.2005 J-2.966
G2 X244.8291 Y-4.7806 I-9.3357 J-61.5971
G3 X244.8298 Y-4.7808 I0.7051 J3.5303
G2 X246.7348 Y-5.2133 I-7.2565 J-36.3709
G1 F300.0 X247.13 Y-3.6629
G2 F800.0 X248.5545 Y-4.0551 I-9.5567 J-37.4888
G1 X248.5546
G2 X250.9968 Y-4.9292 I-6.5769 J-22.2249
G3 X251.0323 Y-4.9438 I0.7783 J1.8424
G2 X254.0558 Y-6.8136 I-3.8253 J-9.5649
G2 X254.9037 Y-7.9572 I-2.7312 J-2.9112
G2 X255.1797 Y-9.2083 I-2.6282 J-1.2358
G3 X255.1799 Y-9.2466 I2.0 J-0.0105
G2 X254.6701 Y-11.0093 I-3.1502 J-0.0439
G2 X253.4356 Y-12.2198 I-3.7536 J2.5933
G2 X250.0328 Y-13.7111 I-6.4321 J10.0485
G3 X250.0247 Y-13.7133 I0.5078 J-1.9345
G2 X243.9764 Y-14.7455 I-8.6239 J32.2949
G3 X243.9627 Y-14.7466 I0.1541 J-1.9941
G2 X237.6406 Y-15.0 I-6.0429 J71.7784
G3 X237.6328 I-0.0078 J-2.0
G1 X198.0619
G1 X203.8878 Y-11.3602
G3 X204.8281 Y-9.6641 I-1.0597 J1.6962
G1 Y7.5156
G3 X203.9023 Y9.2027 I-2.0 J0.0
G1 X197.9508 Y12.9922
G1 X237.75
G3 X237.7631 I0.0 J2.0
G2 X243.7417 Y12.5415 I0.24 J-36.6929
G3 X243.7522 Y12.5399 I0.3128 J1.9754
G2 X249.2486 Y10.8629 I-3.0161 J-19.7312
G3 X249.2692 Y10.8533 I0.8529 J1.809
G2 X251.9278 Y8.964 I-3.6201 J-7.9093
G2 X252.8594 Y6.6042 I-2.5116 J-2.3553
G3 Y6.5935 I2.0 J-0.0026
G2 X252.5622 Y5.5781 I-1.8578 J-0.0074
G2 X251.7581 Y4.7212 I-2.9564 J1.9685
G2 X249.4293 Y3.4514 I-5.6993 J7.682
G3 X249.4239 Y3.4494 I0.7047 J-1.8717
G2 X245.1256 Y2.2277 I-9.2289 J24.2977
G3 X245.1138 Y2.2253 I0.3794 J-1.9637
G2 X240.5263 Y1.5109 I-10.7133 J53.705
G3 X240.5035 Y-2.4613 I0.2237 J-1.9874
G2 X245.1425 Y-3.2116 I-7.876 J-63.4133
G3 X245.1429 Y-3.2117 I0.3917 J1.9613
G2 X247.13 Y-3.6629 I-7.5695 J-37.94
G0 Z3.0
G0 X240.8428 Y-5.7377
G0 Z1.0
G1 F300.0 Z-2.0
G3 F800.0 X240.6492 Y-5.2272 I-5.9289 J-1.9566
G3 X240.6162 Y-5.1545 I-1.8372 J-0.7903
G3 X237.4162 Y-2.3907 I-4.76 J-2.2769
G3 X234.1894 Y-1.9219 I-3.0242 J-9.4756
G1 X219.3516
G3 X217.3516 Y-3.9219 I0.0 J-2.0
G1 Y-11.3281
G3 X219.3516 Y-13.3281 I2.0 J0.0
G1 X232.5234
G3 X237.0658 Y-12.7711 I0.3601 J15.8635
G3 X237.0744 Y-12.7687 I-0.5272 J1.9293
G3 X239.7791 Y-11.2274 I-1.7067 J6.1384
G3 X239.843 Y-11.1632 I-1.3848 J1.4431
G3 X241.1567 Y-7.7824 I-3.4546 J3.288
G3 X240.8428 Y-5.7377 I-6.2428 J0.088
G0 Z3.0
G0 X237.3725 Y1.2849
G0 Z1.0
G1 F300.0 Z-2.0
G3 F800.0 X238.0217 Y1.6454 I-3.4297 J6.9405
G3 X238.0944 Y1.6927 I-1.0537 J1.6999
G3 X240.1492 Y5.7269 I-2.6527 J3.8916
G3 X239.3564 Y8.5965 I-5.2974 J0.0806
G3 X239.3201 Y8.653 I-1.7005 J-1.0528
G3 X237.6367 Y10.2304 I-4.2112 J-2.8072
G3 X237.6121 Y10.2443 I-0.9989 J-1.7327
G3 X234.9855 Y11.1405 I-3.7753 J-6.7676
G3 X232.6093 Y11.3203 I-2.2672 J-14.1736
G1 X219.3516
G3 X217.3516 Y9.3203 I0.0 J-2.0
G1 Y2.4063
G3 X219.3516 Y0.4063 I2.0 J0.0
G1 X232.7293
G3 X234.6736 Y0.5182 I0.0769 J15.5976
G3 X237.3725 Y1.2849 I-0.7307 J7.7071
G1 F300.0 Z-4.0
G3 F800.0 X238.0217 Y1.6454 I-3.4297 J6.9405
G3 X238.0944 Y1.6927 I-1.0537 J1.6999
G3 X240.1492 Y5.7269 I-2.6527 J3.8916
G3 X239.3564 Y8.5965 I-5.2974 J0.0806
G3 X239.3201 Y8.653 I-1.7005 J-1.0528
G3 X237.6367 Y10.2304 I-4.2112 J-2.8072
G3 X237.6121 Y10.2443 I-0.9989 J-1.7327
G3 X234.9855 Y11.1405 I-3.7753 J-6.7676
G3 X232.6093 Y11.3203 I-2.2672 J-14.1736
G1 X219.3516
G3 X217.3516 Y9.3203 I0.0 J-2.0
G1 Y2.4063
G3 X219.3516 Y0.4063 I2.0 J0.0
G1 X232.7293
G3 X234.6736 Y0.5182 I0.0769 J15.5976
G3 X237.3725 Y1.2849 I-0.7307 J7.7071
G1 F300.0 X237.1506 Y-0.5449
G3 F800.0 X237.1546 Y-0.6585 I3.5994 J0.0683
G3 X236.96 Y-0.6123 I-2.7627 J-11.2079
G3 X237.1506 Y-0.5449 I-3.0171 J8.8376
G0 Z3.0
G0 X244.8665 Y7.077
G0 Z-1.0
G1 F300.0 Z-4.0
G3 F800.0 X244.8188 Y7.409 I-10.0147 J-1.2695
G2 X245.45 Y7.2176 I-4.0827 J-14.6003
G2 X244.8665 Y7.077 I-5.2549 J20.5295
G1 F300.0 X243.2792 Y6.8758
G3 F800.0 X242.5076 Y9.4887 I-8.4274 J-1.0683
G2 X243.2412 Y9.3809 I-4.5045 J-33.1894
G3 X243.2687 Y9.3766 I0.8132 J5.136
G2 X247.8839 Y7.9685 I-2.5326 J-16.568
G3 X247.9375 Y7.9436 I2.2176 J4.7034
G2 X249.3864 Y6.977 I-2.2883 J-4.9996
G2 X248.3017 Y6.4462 I-3.3277 J5.4262
G3 X248.2877 Y6.4408 I1.8323 J-4.8665
G2 X244.5186 Y5.3696 I-8.0926 J21.3062
G3 X244.4878 Y5.3635 I0.9864 J-5.1056
G2 X243.3361 Y5.1473 I-10.0873 J50.5668
G3 X243.3465 Y5.7502 I-7.8944 J0.4369
G3 X243.2792 Y6.8758 I-8.4946 J0.0573
G1 F300.0 X241.6919 Y6.6746
G3 F800.0 X240.714 Y9.4371 I-6.8401 J-0.8671
G3 X240.6487 Y9.5386 I-3.0581 J-1.8934
G3 X238.8044 Y11.3839 I-5.5399 J-3.6929
G2 X243.4914 Y10.9612 I-0.8013 J-35.0846
G3 X243.5105 Y10.9582 I0.563 J3.5557
G2 X248.5663 Y9.4157 I-2.7743 J-18.1496
G3 X248.6033 Y9.3985 I1.5353 J3.2562
G2 X250.7661 Y7.8637 I-2.9542 J-6.4544
G2 X251.2594 Y6.6063 I-1.3499 J-1.255
G3 Y6.5871 I3.6 J-0.0047
G2 X251.2221 Y6.4525 I-0.2578 J-0.001
G2 X250.7957 Y5.9995 I-1.6163 J1.094
G2 X248.8655 Y4.9488 I-4.7369 J6.4037
G3 X248.8558 Y4.9451 I1.2685 J-3.3691
G2 X244.8221 Y3.7986 I-8.6608 J22.802
G3 X244.8008 Y3.7944 I0.6829 J-3.5346
G2 X241.2862 Y3.215 I-10.4003 J52.1359
G3 X241.7463 Y5.7387 I-5.8445 J2.3692
G3 X241.6919 Y6.6746 I-6.8945 J0.0688
G0 Z3.0
G0 X245.9443 Y-8.3141
G0 Z-1.0
G1 F300.0 Z-4.0
G2 F800.0 X247.1921 Y-8.6577 I-8.371 J-32.8376
G1 X247.1926 Y-8.6578
G2 X248.5811 Y-9.1298 I-5.2149 J-17.6222
G2 X245.7771 Y-9.7084 I-7.1803 J27.7114
G3 X245.9443 Y-8.3141 I-9.3887 J1.8332
G1 F300.0 X246.3395 Y-6.7637
G2 F800.0 X247.6462 Y-7.1235 I-8.7662 J-34.388
G1 X247.6466 Y-7.1236
G2 X249.7515 Y-7.877 I-5.6689 J-19.1564
G3 X249.844 Y-7.915 I2.0235 J4.7902
G2 X251.8873 Y-9.1678 I-2.637 J-6.5937
G2 X251.9751 Y-9.2734 I-0.5628 J-0.557
G2 X251.6848 Y-9.541 I-1.0586 J0.8574
G2 X249.2203 Y-10.616 I-4.6813 J7.3697
G3 X249.1991 Y-10.6216 I1.3203 J-5.0296
G2 X243.7298 Y-11.555 I-7.7983 J29.2033
G3 X243.6942 Y-11.5579 I0.4007 J-5.1845
G2 X243.4411 Y-11.5788 I-5.7745 J68.5897
G3 X244.3538 Y-7.7751 I-7.0527 J3.7035
G3 X244.2501 Y-6.2972 I-9.4399 J0.0808
G2 X244.5158 Y-6.3496 I-11.6226 J-59.5774
G3 X244.5168 Y-6.3498 I1.0184 J5.0993
G2 X246.3395 Y-6.7637 I-6.9434 J-34.8018
G1 F300.0 X246.7348 Y-5.2133
G2 F800.0 X248.1003 Y-5.5893 I-9.1614 J-35.9384
G1 X248.1006 Y-5.5894
G2 X250.3742 Y-6.4031 I-6.1229 J-20.6906
G3 X250.4382 Y-6.4294 I1.4009 J3.3163
G2 X252.975 Y-7.9937 I-3.2312 J-8.0793
G2 X253.4618 Y-8.651 I-1.6504 J-1.7311
G2 X253.5797 Y-9.1999 I-1.1863 J-0.542
G3 X253.58 Y-9.269 I3.6 J-0.0189
G2 X253.3402 Y-10.1192 I-1.5503 J-0.0216
G2 X252.5618 Y-10.8794 I-2.4237 J1.7031
G2 X249.6266 Y-12.1636 I-5.5583 J8.7081
G3 X249.6119 Y-12.1674 I0.9141 J-3.482
G2 X243.8531 Y-13.1503 I-8.2111 J30.7491
G3 X243.8285 Y-13.1523 I0.2774 J-3.5893
G2 X239.6016 Y-13.3805 I-5.9087 J70.184
G3 X240.8847 Y-12.3795 I-4.2339 J6.7501
G3 X240.9997 Y-12.264 I-2.4904 J2.5952
G3 X242.7537 Y-7.7785 I-4.6113 J4.3888
G3 X242.116 Y-4.5962 I-7.8398 J0.0842
G3 X242.0566 Y-4.4654 I-3.3041 J-1.4213
G3 X241.9632 Y-4.2775 I-6.2005 J-2.966
G2 X244.8291 Y-4.7806 I-9.3357 J-61.5971
G3 X244.8298 Y-4.7808 I0.7051 J3.5303
G2 X246.7348 Y-5.2133 I-7.2565 J-36.3709
G0 Z3.0
G0 X211.5737 Y-0.7578
G0 Z-1.0
G1 F300.0 Z-4.0
G3 F800.0 X211.2281 Y-1.7968 I7.7779 J-3.1641
G1 Y0.2812
G3 X211.5737 Y-0.7578 I8.1234 J2.1251
G1 F300.0 X213.0558 Y-1.3607
G3 F800.0 X212.5548 Y-3.9219 I6.2958 J-2.5612
G1 Y-10.2
G1 X209.607
G3 X209.6281 Y-9.6641 I-6.7788 J0.5359
G1 Y7.5156
G3 X209.5944 Y8.1922 I-6.8 J0.0
G1 X212.5548
G1 Y2.4063
G3 X213.3361 Y-0.7578 I6.7968 J0.0
G3 X213.0558 Y-1.3607 I6.0154 J-3.1641
G1 F300.0 X214.5378 Y-1.9636
G3 F800.0 X214.1548 Y-3.9219 I4.8137 J-1.9582
G1 Y-11.3281
G3 X214.1762 Y-11.8 I5.1968 J0.0
G1 X207.5692
G3 X208.0281 Y-9.6641 I-4.7411 J2.1359
G1 Y7.5156
G3 X207.5033 Y9.7922 I-5.2 J0.0
G1 X214.1762
G3 X214.1548 Y9.3203 I5.1753 J-0.4719
G1 Y2.4063
G3 X215.229 Y-0.7578 I5.1968 J0.0
G3 X214.5378 Y-1.9636 I4.1226 J-3.1641
G1 F300.0 X216.0199 Y-2.5665
G3 F800.0 X215.7548 Y-3.9219 I3.3317 J-1.3553
G1 Y-11.3281
G3 X216.4114 Y-13.4 I3.5968 J0.0
G1 X203.6427
G1 X204.7356 Y-12.7172
G3 X206.4281 Y-9.6641 I-1.9074 J3.0531
G1 Y7.5156
G3 X204.7617 Y10.5523 I-3.6 J0.0
G1 X203.4426 Y11.3922
G1 X216.4114
G3 X215.7548 Y9.3203 I2.9401 J-2.0719
G1 Y2.4063
G3 X217.6411 Y-0.7578 I3.5968 J0.0
G3 X216.0199 Y-2.5665 I1.7105 J-3.1641
G0 Z3.0
G0 X204.8281
G0 Z-1.0
G1 F300.0 Z-4.0
G1 F800.0 Y7.5156
G3 X203.9023 Y9.2027 I-2.0 J0.0
G1 X197.9508 Y12.9922
G1 X237.75
G3 X237.7631 I0.0 J2.0
G2 X243.7417 Y12.5415 I0.24 J-36.6929
G3 X243.7522 Y12.5399 I0.3128 J1.9754
G2 X249.2486 Y10.8629 I-3.0161 J-19.7312
G3 X249.2692 Y10.8533 I0.8529 J1.809
G2 X251.9278 Y8.964 I-3.6201 J-7.9093
G2 X252.8594 Y6.6042 I-2.5116 J-2.3553
G3 Y6.5935 I2.0 J-0.0026
G2 X252.5622 Y5.5781 I-1.8578 J-0.0074
G2 X251.7581 Y4.7212 I-2.9564 J1.9685
G2 X249.4293 Y3.4514 I-5.6993 J7.682
G3 X249.4239 Y3.4494 I0.7047 J-1.8717
G2 X245.1256 Y2.2277 I-9.2289 J24.2977
G3 X245.1138 Y2.2253 I0.3794 J-1.9637
G2 X240.5263 Y1.5109 I-10.7133 J53.705
G3 X240.5035 Y-2.4613 I0.2237 J-1.9874
G2 X245.1425 Y-3.2116 I-7.876 J-63.4133
G3 X245.1429 Y-3.2117 I0.3917 J1.9613
G2 X248.5545 Y-4.0551 I-7.5695 J-37.94
G1 X248.5546
G2 X250.9968 Y-4.9292 I-6.5769 J-22.2249
G3 X251.0323 Y-4.9438 I0.7783 J1.8424
G2 X254.0558 Y-6.8136 I-3.8253 J-9.5649
G2 X254.9037 Y-7.9572 I-2.7312 J-2.9112
G2 X255.1797 Y-9.2083 I-2.6282 J-1.2358
G3 X255.1799 Y-9.2466 I2.0 J-0.0105
G2 X254.6701 Y-11.0093 I-3.1502 J-0.0439
G2 X253.4356 Y-12.2198 I-3.7536 J2.5933
G2 X250.0328 Y-13.7111 I-6.4321 J10.0485
G3 X250.0247 Y-13.7133 I0.5078 J-1.9345
G2 X243.9764 Y-14.7455 I-8.6239 J32.2949
G3 X243.9627 Y-14.7466 I0.1541 J-1.9941
G2 X237.6406 Y-15.0 I-6.0429 J71.7784
G3 X237.6328 I-0.0078 J-2.0
G1 X198.0619
G1 X203.8878 Y-11.3602
G3 X204.8281 Y-9.6641 I-1.0597 J1.6962
G1 Y-2.5665
G0 Z3.0
G0 X217.3602 Y-3.736
G0 Z-1.0
G1 F300.0 Z-4.0
G3 F800.0 X217.3516 Y-3.9219 I1.9913 J-0.1858
G1 Y-11.3281
G3 X219.3516 Y-13.3281 I2.0 J0.0
G1 X232.5234
G3 X237.0658 Y-12.7711 I0.3601 J15.8635
G3 X237.0744 Y-12.7687 I-0.5272 J1.9293
G3 X239.7791 Y-11.2274 I-1.7067 J6.1384
G3 X239.843 Y-11.1632 I-1.3848 J1.4431
G3 X241.1567 Y-7.7824 I-3.4546 J3.288
G3 X240.6492 Y-5.2272 I-6.2428 J0.088
G3 X240.6162 Y-5.1545 I-1.8372 J-0.7903
G3 X237.4162 Y-2.3907 I-4.76 J-2.2769
G3 X234.1894 Y-1.9219 I-3.0242 J-9.4756
G1 X219.3516
G3 X217.3602 Y-3.736 I0.0 J-2.0
G0 Z3.0
G0 X264.9687 Y-0.1224
G0 Z1.0
G1 F300.0 Z-2.0
G2 F800.0 X265.3101 Y0.0904 I1.8206 J-2.5407
G3 X265.3734 Y0.1253 I-1.7037 J3.1713
G2 X267.5094 Y1.0861 I6.3717 J-11.3097
G2 X270.3859 Y1.9054 I9.6621 J-28.4629
G3 X269.6071 Y0.0261 I4.9126 J-3.1366
G2 X269.5172 Y0.0172 I-2.2183 J21.9679
G3 X269.5097 Y0.0165 I0.347 J-3.5832
G2 X265.8629 Y-0.1578 I-3.534 J35.7028
G3 X265.8325 Y-0.1579 I-0.0113 J-3.6
G2 X264.9687 Y-0.1224 I-0.0494 J9.3277
G0 Z3.0
G0 X291.6217 Y-4.7714
G0 Z1.0
G1 F300.0 Z-2.0
G3 F800.0 X291.6297 Y-4.7438 I-6.528 J1.9042
G1 Y-4.7991
G3 X291.6217 Y-4.7714 I-6.5359 J-1.8649
G1 F300.0 X290.0857 Y-4.3233
G3 F800.0 X290.2938 Y-2.8672 I-4.992 J1.4561
G1 Y-1.0943
G3 X290.1342 Y0.5562 I-7.3665 J0.1207
G2 X292.3089 Y-0.1122 I-2.2237 J-11.1062
G3 X292.377 Y-0.1404 I2.0193 J4.7919
G2 X293.1217 Y-0.671 I-0.7385 J-1.8244
G2 X293.2316 Y-1.1308 I-0.8015 J-0.4348
G3 X293.2297 Y-1.2734 I5.198 J-0.1427
G1 Y-9.9132
G3 X293.5104 Y-12.7523 I12.1827 J-0.2287
G2 X293.2802 Y-12.7245 I1.8133 J15.9686
G2 X292.0061 Y-12.4543 I1.0283 J7.9882
G3 X291.9253 Y-12.4309 I-1.4865 J-4.983
G2 X291.1409 Y-12.0304 I0.604 J2.1512
G2 X291.0897 Y-11.9279 I0.1941 J0.161
G3 X290.1696 Y-9.9842 I-5.0585 J-1.2049
G3 X290.2906 Y-8.5013 I-8.5539 J1.4439
G1 Y-6.6641
G3 X289.9331 Y-4.77 I-5.1968 J0.0
G3 X290.0857 Y-4.3233 I-4.8393 J1.9028
G1 F300.0 X288.5497 Y-3.8753
G3 F800.0 X288.6938 Y-2.8672 I-3.456 J1.0081
G1 Y-1.0804
G3 X287.468 Y2.5825 I-5.7665 J0.1068
G2 X290.3438 Y2.1457 I-3.1206 J-30.226
G3 X290.3694 Y2.1406 I0.7104 J3.5292
G2 X292.9302 Y1.3622 I-2.4589 J-12.6906
G3 X292.9773 Y1.3427 I1.3979 J3.3175
G2 X294.4286 Y0.2594 I-1.3389 J-3.3075
G2 X294.831 Y-1.1747 I-2.1085 J-1.3652
G3 X294.8297 Y-1.2734 I3.5986 J-0.0988
G1 Y-9.9287
G3 X295.2148 Y-12.979 I10.5827 J-0.2132
G3 X295.2199 Y-12.9969 I3.4683 J0.9649
G3 X295.8596 Y-14.4536 I5.5909 J1.5865
G2 X295.4544 Y-14.4548 I-0.2624 J20.8195
G3 X295.4118 Y-14.4547 I-0.0247 J-3.5999
G2 X293.0763 Y-14.3115 I-0.088 J17.671
G2 X291.5487 Y-13.9875 I1.2322 J9.5752
G3 X291.4927 Y-13.9713 I-1.0291 J-3.4498
G2 X290.0628 Y-13.2155 I1.0365 J3.6917
G2 X289.5333 Y-12.2986 I1.2722 J1.3461
G3 X288.4288 Y-10.4473 I-3.502 J-0.8342
G3 X288.6906 Y-8.5051 I-6.813 J1.907
G1 Y-6.6641
G3 X288.1506 Y-4.7687 I-3.5968 J0.0
G3 X288.5497 Y-3.8753 I-3.0569 J1.9015
G1 F300.0 X287.0137 Y-3.4272
G3 F800.0 X287.0938 Y-2.8672 I-1.92 J0.56
G1 Y-1.0644
G3 X285.8596 Y1.9877 I-4.1665 J0.0908
G3 X285.8263 Y2.02 I-1.4073 J-1.4211
G3 X284.1027 Y3.1031 I-3.5857 J-3.7932
G3 X284.1003 Y3.104 I-0.7135 J-1.8684
G3 X281.7929 Y3.6579 I-3.3071 J-8.6941
G3 X279.7164 Y3.7735 I-2.0041 J-17.281
G3 X275.4359 Y3.3516 I-0.325 J-18.625
G3 X272.8205 Y2.1952 I1.4997 J-6.9275
G3 X272.7999 Y2.1803 I1.1611 J-1.6284
G3 X271.0707 Y-1.3113 I2.4986 J-3.4115
G3 X271.0711 Y-1.3294 I1.9996 J0.0379
G3 X271.0736 Y-1.3972 I3.8734 J0.1084
G2 X269.6715 Y-1.5753 I-3.6847 J23.3912
G3 X269.6673 Y-1.5757 I0.1928 J-1.9907
G2 X265.8578 Y-1.7578 I-3.6916 J37.295
G3 X265.841 I-0.0063 J-2.0
G2 X264.4682 Y-1.6786 I-0.0579 J10.9277
G3 X264.4056 Y-1.672 I-0.2407 J-1.9855
G2 X262.9511 Y-1.2041 I0.309 J3.4552
G2 X262.7401 Y-0.756 I0.3186 J0.4238
G3 X262.7422 Y-0.6675 I-1.9979 J0.0919
G2 X262.9841 Y0.1392 I1.474 J-0.0025
G2 X264.5529 Y1.4999 I3.8051 J-2.8022
G3 X264.588 Y1.5193 I-0.9465 J1.7619
G2 X266.9913 Y2.5999 I7.157 J-12.7037
G2 X273.7333 Y4.0941 I10.1802 J-29.9767
G3 X273.7441 Y4.0953 I-0.2172 J1.9882
G2 X280.8421 Y4.4844 I6.8154 J-59.3937
G3 X280.8627 I0.0095 J2.0
G2 X287.4776 Y4.1897 I0.369 J-66.0926
G2 X290.6596 Y3.7142 I-3.1302 J-31.8332
G3 X290.6738 Y3.7114 I0.3947 J1.9607
G2 X293.5515 Y2.8366 I-2.7633 J-14.2614
G3 X293.5777 Y2.8258 I0.7766 J1.843
G2 X295.7269 Y1.1967 I-1.9392 J-4.7906
G2 X296.4304 Y-1.2186 I-3.4068 J-2.3025
G3 X296.4297 Y-1.2734 I1.9992 J-0.0549
G1 Y-9.9455
G3 X296.7563 Y-12.5502 I8.9827 J-0.1964
G3 X296.7591 Y-12.5601 I1.9268 J0.5361
G3 X297.8062 Y-14.3617 I4.0517 J1.1498
G3 X297.8731 Y-14.4267 I1.4268 J1.4015
G3 X300.2222 Y-15.3444 I2.3395 J2.523
G3 X300.8055 Y-15.3204 I0.1421 J3.6318
G2 X298.7057 Y-15.8389 I-3.2929 J8.8242
G3 X298.6837 Y-15.8418 I0.2533 J-1.9839
G2 X295.4434 Y-16.0547 I-3.0865 J22.2077
G3 X295.4197 I-0.0137 J-2.0
G2 X292.8725 Y-15.8984 I-0.096 J19.271
G2 X291.0913 Y-15.5208 I1.436 J11.1622
G3 X291.0602 Y-15.5118 I-0.5717 J-1.9165
G2 X289.0004 Y-14.4124 I1.469 J5.2321
G2 X287.9768 Y-12.6694 I2.3347 J2.543
G3 X286.4208 Y-11.1711 I-1.9456 J-0.4634
G3 X287.0938 Y-8.5093 I-4.805 J2.6308
G1 Y-6.6641
G3 X285.723 Y-4.7656 I-2.0 J0.0
G3 X287.0137 Y-3.4272 I-0.6292 J1.8984
G0 Z3.0
G0 X291.6217 Y-4.7714
G0 Z-1.0
G1 F300.0 Z-4.0
G3 F800.0 X291.6297 Y-4.7438 I-6.528 J1.9042
G1 Y-4.7991
G3 X291.6217 Y-4.7714 I-6.5359 J-1.8649
G1 F300.0 X290.0857 Y-4.3233
G3 F800.0 X290.2938 Y-2.8672 I-4.992 J1.4561
G1 Y-1.0943
G3 X290.1342 Y0.5562 I-7.3665 J0.1207
G2 X292.3089 Y-0.1122 I-2.2237 J-11.1062
G3 X292.377 Y-0.1404 I2.0193 J4.7919
G2 X293.1217 Y-0.671 I-0.7385 J-1.8244
G2 X293.2316 Y-1.1308 I-0.8015 J-0.4348
G3 X293.2297 Y-1.2734 I5.198 J-0.1427
G1 Y-9.9132
G3 X293.5104 Y-12.7523 I12.1827 J-0.2287
G2 X293.2802 Y-12.7245 I1.8133 J15.9686
G2 X292.0061 Y-12.4543 I1.0283 J7.9882
G3 X291.9253 Y-12.4309 I-1.4865 J-4.983
G2 X291.1409 Y-12.0304 I0.604 J2.1512
G2 X291.0897 Y-11.9279 I0.1941 J0.161
G3 X290.1696 Y-9.9842 I-5.0585 J-1.2049
G3 X290.2906 Y-8.5013 I-8.5539 J1.4439
G1 Y-6.6641
G3 X289.9331 Y-4.77 I-5.1968 J0.0
G3 X290.0857 Y-4.3233 I-4.8393 J1.9028
G1 F300.0 X288.5497 Y-3.8753
G3 F800.0 X288.6938 Y-2.8672 I-3.456 J1.0081
G1 Y-1.0804
G3 X287.468 Y2.5825 I-5.7665 J0.1068
G2 X290.3438 Y2.1457 I-3.1206 J-30.226
G3 X290.3694 Y2.1406 I0.7104 J3.5292
G2 X292.9302 Y1.3622 I-2.4589 J-12.6906
G3 X292.9773 Y1.3427 I1.3979 J3.3175
G2 X294.4286 Y0.2594 I-1.3389 J-3.3075
G2 X294.831 Y-1.1747 I-2.1085 J-1.3652
G3 X294.8297 Y-1.2734 I3.5986 J-0.0988
G1 Y-9.9287
G3 X295.2148 Y-12.979 I10.5827 J-0.2132
G3 X295.2199 Y-12.9969 I3.4683 J0.9649
G3 X295.8596 Y-14.4536 I5.5909 J1.5865
G2 X295.4544 Y-14.4548 I-0.2624 J20.8195
G3 X295.4118 Y-14.4547 I-0.0247 J-3.5999
G2 X293.0763 Y-14.3115 I-0.088 J17.671
G2 X291.5487 Y-13.9875 I1.2322 J9.5752
G3 X291.4927 Y-13.9713 I-1.0291 J-3.4498
G2 X290.0628 Y-13.2155 I1.0365 J3.6917
G2 X289.5333 Y-12.2986 I1.2722 J1.3461
G3 X288.4288 Y-10.4473 I-3.502 J-0.8342
G3 X288.6906 Y-8.5051 I-6.813 J1.907
G1 Y-6.6641
G3 X288.1506 Y-4.7687 I-3.5968 J0.0
G3 X288.5497 Y-3.8753 I-3.0569 J1.9015
G0 Z3.0
G0 X270.3859 Y1.9054
G0 Z-1.0
G1 F300.0 Z-4.0
G3 F800.0 X269.6071 Y0.0261 I4.9126 J-3.1366
G2 X269.5172 Y0.0172 I-2.2183 J21.9679
G3 X269.5097 Y0.0165 I0.347 J-3.5832
G2 X265.8629 Y-0.1578 I-3.534 J35.7028
G3 X265.8325 Y-0.1579 I-0.0113 J-3.6
G2 X264.9687 Y-0.1224 I-0.0494 J9.3277
G2 X265.3101 Y0.0904 I1.8206 J-2.5407
G3 X265.3734 Y0.1253 I-1.7037 J3.1713
G2 X267.5094 Y1.0861 I6.3717 J-11.3097
G2 X270.3859 Y1.9054 I9.6621 J-28.4629
G1 F300.0 X270.0247 Y3.4641
G2 F800.0 X273.7333 Y4.0941 I7.1468 J-30.8409
G3 X273.7441 Y4.0953 I-0.2172 J1.9882
G2 X280.8421 Y4.4844 I6.8154 J-59.3937
G3 X280.8627 I0.0095 J2.0
G2 X287.4776 Y4.1897 I0.369 J-66.0926
G2 X290.6596 Y3.7142 I-3.1302 J-31.8332
G3 X290.6738 Y3.7114 I0.3947 J1.9607
G2 X293.5515 Y2.8366 I-2.7633 J-14.2614
G3 X293.5777 Y2.8258 I0.7766 J1.843
G2 X295.7269 Y1.1967 I-1.9392 J-4.7906
G2 X296.4304 Y-1.2186 I-3.4068 J-2.3025
G3 X296.4297 Y-1.2734 I1.9992 J-0.0549
G1 Y-9.9455
G3 X296.7563 Y-12.5502 I8.9827 J-0.1964
G3 X296.7591 Y-12.5601 I1.9268 J0.5361
G3 X297.8062 Y-14.3617 I4.0517 J1.1498
G3 X297.8731 Y-14.4267 I1.4268 J1.4015
G3 X300.2222 Y-15.3444 I2.3395 J2.523
G3 X300.8055 Y-15.3204 I0.1421 J3.6318
G2 X298.7057 Y-15.8389 I-3.2929 J8.8242
G3 X298.6837 Y-15.8418 I0.2533 J-1.9839
G2 X295.4434 Y-16.0547 I-3.0865 J22.2077
G3 X295.4197 I-0.0137 J-2.0
G2 X292.8725 Y-15.8984 I-0.096 J19.271
G2 X291.0913 Y-15.5208 I1.436 J11.1622
G3 X291.0602 Y-15.5118 I-0.5717 J-1.9165
G2 X289.0004 Y-14.4124 I1.469 J5.2321
G2 X287.9768 Y-12.6694 I2.3347 J2.543
G3 X286.4208 Y-11.1711 I-1.9456 J-0.4634
G3 X287.0938 Y-8.5093 I-4.805 J2.6308
G1 Y-6.6641
G3 X285.723 Y-4.7656 I-2.0 J0.0
G3 X287.0938 Y-2.8672 I-0.6292 J1.8984
G1 Y-1.0644
G3 X285.8596 Y1.9877 I-4.1665 J0.0908
G3 X285.8263 Y2.02 I-1.4073 J-1.4211
G3 X284.1027 Y3.1031 I-3.5857 J-3.7932
G3 X284.1003 Y3.104 I-0.7135 J-1.8684
G3 X281.7929 Y3.6579 I-3.3071 J-8.6941
G3 X279.7164 Y3.7735 I-2.0041 J-17.281
G3 X275.4359 Y3.3516 I-0.325 J-18.625
G3 X272.8205 Y2.1952 I1.4997 J-6.9275
G3 X272.7999 Y2.1803 I1.1611 J-1.6284
G3 X271.0707 Y-1.3113 I2.4986 J-3.4115
G3 X271.0711 Y-1.3294 I1.9996 J0.0379
G3 X271.0736 Y-1.3972 I3.8734 J0.1084
G2 X269.6715 Y-1.5753 I-3.6847 J23.3912
G3 X269.6673 Y-1.5757 I0.1928 J-1.9907
G2 X265.8578 Y-1.7578 I-3.6916 J37.295
G3 X265.841 I-0.0063 J-2.0
G2 X264.4682 Y-1.6786 I-0.0579 J10.9277
G3 X264.4056 Y-1.672 I-0.2407 J-1.9855
G2 X262.9511 Y-1.2041 I0.309 J3.4552
G2 X262.7401 Y-0.756 I0.3186 J0.4238
G3 X262.7422 Y-0.6675 I-1.9979 J0.0919
G2 X262.9841 Y0.1392 I1.474 J-0.0025
G2 X264.5529 Y1.4999 I3.8051 J-2.8022
G3 X264.588 Y1.5193 I-0.9465 J1.7619
G2 X266.9913 Y2.5999 I7.157 J-12.7037
G2 X270.0247 Y3.4641 I10.1802 J-29.9767
G0 Z3.0
G0 X268.2018 Y-10.7003
G0 Z1.0
G1 F300.0 Z-2.0
G3 F800.0 X268.2012 Y-10.7892 I7.5828 J-0.0905
G3 X268.4178 Y-12.6908 I7.3337 J-0.1279
G2 X266.7339 Y-12.4293 I1.9529 J18.1262
G3 X266.7326 Y-12.429 I-1.0373 J-5.0955
G2 X265.4829 Y-12.0769 I1.749 J8.6019
G3 X265.3637 Y-12.0352 I-1.7764 J-4.8872
G2 X265.3451 Y-12.0288 I0.5055 J1.5035
G2 X265.8155 Y-11.6808 I1.7197 J-1.8319
G2 X268.2018 Y-10.7003 I5.1722 J-9.1946
G1 F300.0 X267.7792 Y-9.1571
G2 F800.0 X267.9104 Y-9.122 I3.2085 J-11.7182
G3 X267.9386 Y-9.1145 I-0.9118 J3.4826
G2 X270.217 Y-8.5993 I7.2976 J-26.9774
G3 X269.8012 Y-10.8033 I5.5675 J-2.1916
G3 X271.0157 Y-14.4476 I5.7337 J-0.1137
G2 X268.676 Y-14.3231 I0.7234 J35.6568
G3 X268.6747 Y-14.323 I-0.3092 J-3.5867
G2 X266.4147 Y-13.9971 I1.696 J19.7585
G3 X266.4138 Y-13.9969 I-0.7182 J-3.5276
G2 X264.9363 Y-13.5807 I2.0678 J10.1698
G3 X264.8538 Y-13.5518 I-1.2298 J-3.3834
G2 X263.6658 Y-12.8332 I1.0154 J3.0201
G2 X263.5443 Y-12.4686 I0.4457 J0.3511
G3 X263.5449 Y-12.3285 I-3.599 J0.0858
G2 X263.9354 Y-11.1924 I1.7704 J0.0267
G2 X265.026 Y-10.2891 I3.1295 J-2.6684
G2 X267.7792 Y-9.1571 I5.9617 J-10.5863
G1 F300.0 X267.3567 Y-7.6139
G2 F800.0 X267.5052 Y-7.5742 I3.631 J-13.2614
G3 X267.5208 Y-7.57 I-0.5066 J1.9348
G2 X271.232 Y-6.8175 I7.7154 J-28.5219
G3 X271.237 Y-6.8168 I-0.271 J1.9815
G1 X274.0963 Y-6.4184
G1 X274.0962
G1 X274.0963
G1 X274.9769 Y-6.2957
G3 X274.2559 Y-6.5907 I3.8961 J-10.5517
G3 X274.2326 Y-6.6013 I0.8209 J-1.8237
G3 X272.3002 Y-8.127 I2.2552 J-4.843
G3 X272.2617 Y-8.1772 I1.5677 J-1.2419
G3 X271.3981 Y-10.8176 I3.5228 J-2.6137
G3 X274.2603 Y-14.8539 I4.1368 J-0.0995
G3 X277.4756 Y-15.3439 I2.9677 J8.6784
G3 X279.3942 Y-15.2262 I0.0762 J14.451
G2 X276.0181 Y-15.8636 I-4.8929 J16.6566
G3 X275.9998 Y-15.8653 I0.1747 J-1.9924
G2 X271.8844 Y-16.0547 I-3.9241 J40.4585
G3 X271.8681 I-0.0094 J-2.0
G2 X268.5386 Y-15.9172 I-0.129 J37.2639
G3 X268.5378 I-0.1718 J-1.9926
G2 X266.0955 Y-15.5649 I1.8329 J21.3526
G3 X266.095 Y-15.5648 I-0.399 J-1.9598
G2 X264.3897 Y-15.0844 I2.3866 J11.7377
G3 X264.3439 Y-15.0684 I-0.6832 J-1.8797
G2 X262.4975 Y-13.9287 I1.5254 J4.5367
G2 X261.9447 Y-12.4305 I1.6139 J1.4466
G3 X261.9451 Y-12.3526 I-1.9994 J0.0477
G2 X262.7041 Y-10.1705 I3.3702 J0.0508
G2 X264.237 Y-8.8971 I4.3608 J-3.6902
G2 X267.3567 Y-7.6139 I6.7507 J-11.9782
G0 Z3.0
G0 X268.2018 Y-10.7003
G0 Z-1.0
G1 F300.0 Z-4.0
G3 F800.0 X268.2012 Y-10.7892 I7.5828 J-0.0905
G3 X268.4178 Y-12.6908 I7.3337 J-0.1279
G2 X266.7339 Y-12.4293 I1.9529 J18.1262
G3 X266.7326 Y-12.429 I-1.0373 J-5.0955
G2 X265.4829 Y-12.0769 I1.749 J8.6019
G3 X265.3637 Y-12.0352 I-1.7764 J-4.8872
G2 X265.3451 Y-12.0288 I0.5055 J1.5035
G2 X265.8155 Y-11.6808 I1.7197 J-1.8319
G2 X268.2018 Y-10.7003 I5.1722 J-9.1946
G1 F300.0 X267.7792 Y-9.1571
G2 F800.0 X267.9104 Y-9.122 I3.2085 J-11.7182
G3 X267.9386 Y-9.1145 I-0.9118 J3.4826
G2 X270.217 Y-8.5993 I7.2976 J-26.9774
G3 X269.8012 Y-10.8033 I5.5675 J-2.1916
G3 X271.0157 Y-14.4476 I5.7337 J-0.1137
G2 X268.676 Y-14.3231 I0.7234 J35.6568
G3 X268.6747 Y-14.323 I-0.3092 J-3.5867
G2 X266.4147 Y-13.9971 I1.696 J19.7585
G3 X266.4138 Y-13.9969 I-0.7182 J-3.5276
G2 X264.9363 Y-13.5807 I2.0678 J10.1698
G3 X264.8538 Y-13.5518 I-1.2298 J-3.3834
G2 X263.6658 Y-12.8332 I1.0154 J3.0201
G2 X263.5443 Y-12.4686 I0.4457 J0.3511
G3 X263.5449 Y-12.3285 I-3.599 J0.0858
G2 X263.9354 Y-11.1924 I1.7704 J0.0267
G2 X265.026 Y-10.2891 I3.1295 J-2.6684
G2 X267.7792 Y-9.1571 I5.9617 J-10.5863
G1 F300.0 X267.3567 Y-7.6139
G2 F800.0 X267.5052 Y-7.5742 I3.631 J-13.2614
G3 X267.5208 Y-7.57 I-0.5066 J1.9348
G2 X271.232 Y-6.8175 I7.7154 J-28.5219
G3 X271.237 Y-6.8168 I-0.271 J1.9815
G1 X274.0963 Y-6.4184
G1 X274.0962
G1 X274.0963
G1 X274.9769 Y-6.2957
G3 X274.2559 Y-6.5907 I3.8961 J-10.5517
G3 X274.2326 Y-6.6013 I0.8209 J-1.8237
G3 X272.3002 Y-8.127 I2.2552 J-4.843
G3 X272.2617 Y-8.1772 I1.5677 J-1.2419
G3 X271.3981 Y-10.8176 I3.5228 J-2.6137
G3 X274.2603 Y-14.8539 I4.1368 J-0.0995
G3 X277.4756 Y-15.3439 I2.9677 J8.6784
G3 X279.3942 Y-15.2262 I0.0762 J14.451
G2 X276.0181 Y-15.8636 I-4.8929 J16.6566
G3 X275.9998 Y-15.8653 I0.1747 J-1.9924
G2 X271.8844 Y-16.0547 I-3.9241 J40.4585
G3 X271.8681 I-0.0094 J-2.0
G2 X268.5386 Y-15.9172 I-0.129 J37.2639
G3 X268.5378 I-0.1718 J-1.9926
G2 X266.0955 Y-15.5649 I1.8329 J21.3526
G3 X266.095 Y-15.5648 I-0.399 J-1.9598
G2 X264.3897 Y-15.0844 I2.3866 J11.7377
G3 X264.3439 Y-15.0684 I-0.6832 J-1.8797
G2 X262.4975 Y-13.9287 I1.5254 J4.5367
G2 X261.9447 Y-12.4305 I1.6139 J1.4466
G3 X261.9451 Y-12.3526 I-1.9994 J0.0477
G2 X262.7041 Y-10.1705 I3.3702 J0.0508
G2 X264.237 Y-8.8971 I4.3608 J-3.6902
G2 X267.3567 Y-7.6139 I6.7507 J-11.9782
G0 Z3.0
G0 X320.6047 Y-3.6946
G0 Z1.0
G1 F300.0 Z-2.0
G1 F800.0 Y-3.4246
G3 X320.6443 Y-3.4976 I5.9969 J3.2059
G3 X320.6047 Y-3.6946 I14.1774 J-2.953
G1 F300.0 X322.1754 Y-3.9991
G3 F800.0 X321.9406 Y-6.5753 I12.6462 J-2.4515
G1 Y-11.8
G1 X318.9627
G3 X319.0047 Y-11.1406 I-5.158 J0.6594
G1 Y-0.4766
G3 X318.9016 Y0.5539 I-5.2 J0.0
G1 X321.4016 Y0.6155
G1 Y-0.2188
G3 X322.3526 Y-3.2165 I5.2 J0.0
G3 X322.1754 Y-3.9991 I12.4691 J-3.2341
G1 F300.0 X323.7462 Y-4.3036
G3 F800.0 X323.5406 Y-6.5673 I11.0755 J-2.147
G1 Y-12.1953
G3 X323.7482 Y-13.4 I3.6 J0.0
G1 X316.6074
G3 X317.4047 Y-11.1406 I-2.8027 J2.2594
G1 Y-0.4766
G3 X316.3281 Y2.091 I-3.6 J0.0
G1 X323.0016 Y2.2555
G1 Y-0.2188
G3 X324.1335 Y-2.8396 I3.6 J0.0
G3 X323.7462 Y-4.3036 I10.6882 J-3.611
G1 F300.0 X325.317 Y-4.6081
G3 F800.0 X325.1406 Y-6.5587 I9.5047 J-1.8425
G1 Y-12.1953
G3 X325.8385 Y-13.7134 I2.0 J0.0
G1 X327.3385 Y-15.0
G1 X311.5162
G1 X314.8899 Y-12.8206
G3 X315.8047 Y-11.1406 I-1.0852 J1.68
G1 Y-0.4766
G3 X314.893 Y1.2014 I-2.0 J0.0
G1 X311.2469 Y3.5662
G1 X324.6016 Y3.8954
G1 Y-0.2188
G3 X326.163 Y-2.1701 I2.0 J0.0
G3 X325.6941 Y-3.2225 I7.1678 J-3.8237
G3 X325.6872 Y-3.2419 I1.88 J-0.6823
G3 X325.317 Y-4.6081 I9.1345 J-3.2087
G0 Z3.0
G0 X320.6047 Y-3.6946
G0 Z-1.0
G1 F300.0 Z-4.0
G1 F800.0 Y-3.4246
G3 X320.6443 Y-3.4976 I5.9969 J3.2059
G3 X320.6047 Y-3.6946 I14.1774 J-2.953
G1 F300.0 X322.1754 Y-3.9991
G3 F800.0 X321.9406 Y-6.5753 I12.6462 J-2.4515
G1 Y-11.8
G1 X318.9627
G3 X319.0047 Y-11.1406 I-5.158 J0.6594
G1 Y-0.4766
G3 X318.9016 Y0.5539 I-5.2 J0.0
G1 X321.4016 Y0.6155
G1 Y-0.2188
G3 X322.3526 Y-3.2165 I5.2 J0.0
G3 X322.1754 Y-3.9991 I12.4691 J-3.2341
G1 F300.0 X323.7462 Y-4.3036
G3 F800.0 X323.5406 Y-6.5673 I11.0755 J-2.147
G1 Y-12.1953
G3 X323.7482 Y-13.4 I3.6 J0.0
G1 X316.6074
G3 X317.4047 Y-11.1406 I-2.8027 J2.2594
G1 Y-0.4766
G3 X316.3281 Y2.091 I-3.6 J0.0
G1 X323.0016 Y2.2555
G1 Y-0.2188
G3 X324.1335 Y-2.8396 I3.6 J0.0
G3 X323.7462 Y-4.3036 I10.6882 J-3.611
G1 F300.0 X325.317 Y-4.6081
G3 F800.0 X325.1406 Y-6.5587 I9.5047 J-1.8425
G1 Y-12.1953
G3 X325.8385 Y-13.7134 I2.0 J0.0
G1 X327.3385 Y-15.0
G1 X311.5162
G1 X314.8899 Y-12.8206
G3 X315.8047 Y-11.1406 I-1.0852 J1.68
G1 Y-0.4766
G3 X314.893 Y1.2014 I-2.0 J0.0
G1 X311.2469 Y3.5662
G1 X324.6016 Y3.8954
G1 Y-0.2188
G3 X326.163 Y-2.1701 I2.0 J0.0
G3 X325.6941 Y-3.2225 I7.1678 J-3.8237
G3 X325.6872 Y-3.2419 I1.88 J-0.6823
G3 X325.317 Y-4.6081 I9.1345 J-3.2087
G0 Z3.0
G0 X342.8475 Y1.0645
G0 Z1.0
G1 F300.0 Z-2.0
G2 F800.0 X343.0784 Y1.034 I-3.1045 J-24.3671
G3 X343.0811 Y1.0336 I0.7061 J5.1518
G2 X345.2765 Y0.5163 I-1.5963 J-11.6924
G2 X346.3839 Y-0.0171 I-1.6642 J-4.871
G3 X346.4117 Y-0.0347 I2.7999 J4.3818
G2 X346.9835 Y-0.6444 I-0.8827 J-1.4009
G2 X347.2308 Y-1.8929 I-2.7194 J-1.1873
G3 X347.2297 Y-2.0 I5.1989 J-0.1071
G1 Y-11.1406
G3 X347.2717 Y-11.8 I5.2 J0.0
G1 X344.3172
G1 Y-4.5216
G3 X343.7619 Y-0.8841 I-11.2749 J0.14
G3 X343.7572 Y-0.8697 I-4.9435 J-1.6129
G3 X342.8475 Y1.0645 I-8.389 J-2.7643
G1 F300.0 X343.0498 Y2.6517
G2 F800.0 X343.2957 Y2.6192 I-3.3067 J-25.9543
G3 X343.2975 Y2.6189 I0.4888 J3.5667
G2 X345.7921 Y2.031 I-1.8128 J-13.2777
G2 X347.2454 Y1.3311 I-2.1798 J-6.3856
G3 X347.2647 Y1.3189 I1.9384 J3.0336
G2 X348.4234 Y0.0552 I-1.7357 J-2.7546
G2 X348.8305 Y-1.9258 I-4.1593 J-1.8869
G3 X348.8297 Y-2.0 I3.5992 J-0.0742
G1 Y-11.1406
G3 X349.627 Y-13.4 I3.6 J0.0
G1 X342.5096
G3 X342.7172 Y-12.1953 I-3.3925 J1.2047
G1 Y-4.5113
G3 X342.2408 Y-1.3804 I-9.6749 J0.1296
G3 X342.2375 Y-1.3704 I-3.4224 J-1.1166
G3 X338.5812 Y2.8459 I-6.8694 J-2.2635
G2 X339.5373 Y2.861 I0.8092 J-20.9322
G3 X339.5843 I0.0252 J3.5999
G2 X343.0498 Y2.6517 I0.1587 J-26.1636
G1 F300.0 X343.252 Y4.2389
G2 F800.0 X343.5129 Y4.2044 I-3.5089 J-27.5415
G3 X343.514 Y4.2042 I0.2716 J1.9815
G2 X346.3077 Y3.5456 I-2.0292 J-14.863
G2 X348.1069 Y2.6794 I-2.6954 J-7.9003
G3 X348.1176 Y2.6726 I1.0769 J1.6853
G2 X349.8643 Y0.7515 I-2.5887 J-4.1083
G2 X350.4301 Y-1.9588 I-5.6002 J-2.5832
G3 X350.4297 Y-2.0 I1.9996 J-0.0412
G1 Y-11.1406
G3 X351.3444 Y-12.8206 I2.0 J0.0
G1 X354.7182 Y-15.0
G1 X338.913
G1 X340.4162 Y-13.7161
G3 X341.1172 Y-12.1953 I-1.299 J1.5207
G1 Y-4.5001
G3 X340.7197 Y-1.8767 I-8.0749 J0.1184
G3 X340.7179 Y-1.8711 I-1.9014 J-0.6204
G3 X337.6291 Y1.5251 I-5.3497 J-1.7628
G3 X337.5903 Y1.5416 I-0.8028 J-1.8318
G3 X333.8971 Y2.2268 I-3.4661 J-8.3855
G3 X330.7711 Y1.7353 I-0.0793 J-9.6814
G2 X332.8535 Y3.2489 I6.5862 J-6.8718
G2 X335.9595 Y4.1991 I4.634 J-9.5968
G3 X335.9757 Y4.2015 I-0.2868 J1.9793
G2 X339.5485 Y4.461 I3.4148 J-22.2877
G3 X339.5746 I0.014 J2.0
G2 X343.252 Y4.2389 I0.1684 J-27.7636
G0 Z3.0
G0 X342.8475 Y1.0645
G0 Z-1.0
G1 F300.0 Z-4.0
G2 F800.0 X343.0784 Y1.034 I-3.1045 J-24.3671
G3 X343.0811 Y1.0336 I0.7061 J5.1518
G2 X345.2765 Y0.5163 I-1.5963 J-11.6924
G2 X346.3839 Y-0.0171 I-1.6642 J-4.871
G3 X346.4117 Y-0.0347 I2.7999 J4.3818
G2 X346.9835 Y-0.6444 I-0.8827 J-1.4009
G2 X347.2308 Y-1.8929 I-2.7194 J-1.1873
G3 X347.2297 Y-2.0 I5.1989 J-0.1071
G1 Y-11.1406
G3 X347.2717 Y-11.8 I5.2 J0.0
G1 X344.3172
G1 Y-4.5216
G3 X343.7619 Y-0.8841 I-11.2749 J0.14
G3 X343.7572 Y-0.8697 I-4.9435 J-1.6129
G3 X342.8475 Y1.0645 I-8.389 J-2.7643
G1 F300.0 X343.0498 Y2.6517
G2 F800.0 X343.2957 Y2.6192 I-3.3067 J-25.9543
G3 X343.2975 Y2.6189 I0.4888 J3.5667
G2 X345.7921 Y2.031 I-1.8128 J-13.2777
G2 X347.2454 Y1.3311 I-2.1798 J-6.3856
G3 X347.2647 Y1.3189 I1.9384 J3.0336
G2 X348.4234 Y0.0552 I-1.7357 J-2.7546
G2 X348.8305 Y-1.9258 I-4.1593 J-1.8869
G3 X348.8297 Y-2.0 I3.5992 J-0.0742
G1 Y-11.1406
G3 X349.627 Y-13.4 I3.6 J0.0
G1 X342.5096
G3 X342.7172 Y-12.1953 I-3.3925 J1.2047
G1 Y-4.5113
G3 X342.2408 Y-1.3804 I-9.6749 J0.1296
G3 X342.2375 Y-1.3704 I-3.4224 J-1.1166
G3 X338.5812 Y2.8459 I-6.8694 J-2.2635
G2 X339.5373 Y2.861 I0.8092 J-20.9322
G3 X339.5843 I0.0252 J3.5999
G2 X343.0498 Y2.6517 I0.1587 J-26.1636
G1 F300.0 X343.252 Y4.2389
G2 F800.0 X343.5129 Y4.2044 I-3.5089 J-27.5415
G3 X343.514 Y4.2042 I0.2716 J1.9815
G2 X346.3077 Y3.5456 I-2.0292 J-14.863
G2 X348.1069 Y2.6794 I-2.6954 J-7.9003
G3 X348.1176 Y2.6726 I1.0769 J1.6853
G2 X349.8643 Y0.7515 I-2.5887 J-4.1083
G2 X350.4301 Y-1.9588 I-5.6002 J-2.5832
G3 X350.4297 Y-2.0 I1.9996 J-0.0412
G1 Y-11.1406
G3 X351.3444 Y-12.8206 I2.0 J0.0
G1 X354.7182 Y-15.0
G1 X338.913
G1 X340.4162 Y-13.7161
G3 X341.1172 Y-12.1953 I-1.299 J1.5207
G1 Y-4.5001
G3 X340.7197 Y-1.8767 I-8.0749 J0.1184
G3 X340.7179 Y-1.8711 I-1.9014 J-0.6204
G3 X337.6291 Y1.5251 I-5.3497 J-1.7628
G3 X337.5903 Y1.5416 I-0.8028 J-1.8318
G3 X333.8971 Y2.2268 I-3.4661 J-8.3855
G3 X330.7711 Y1.7353 I-0.0793 J-9.6814
G2 X332.8535 Y3.2489 I6.5862 J-6.8718
G2 X335.9595 Y4.1991 I4.634 J-9.5968
G3 X335.9757 Y4.2015 I-0.2868 J1.9793
G2 X339.5485 Y4.461 I3.4148 J-22.2877
G3 X339.5746 I0.014 J2.0
G2 X343.252 Y4.2389 I0.1684 J-27.7636
G0 Z3.0
G0 X374.3938 Y-7.2984
G0 Z1.0
G1 F300.0 Z-2.0
G3 F800.0 X374.8862 Y-8.5391 I6.5359 J1.8766
G3 X374.3938 Y-9.7797 I6.0434 J-3.1172
G1 Y-7.2984
G1 F300.0 X375.9316 Y-6.8569
G3 F800.0 X376.7676 Y-8.5391 I4.9981 J1.435
G3 X375.7317 Y-11.8 I4.1621 J-3.1172
G1 X372.7487
G3 X372.7938 Y-11.1172 I-5.155 J0.6828
G1 Y10.2109
G3 X372.6969 Y11.2098 I-5.2 J0.0
G1 X375.7297 Y11.2828
G1 Y-5.4219
G3 X375.9316 Y-6.8569 I5.2 J0.0
G1 F300.0 X377.4695 Y-6.4154
G3 F800.0 X379.1288 Y-8.5391 I3.4602 J0.9935
G3 X377.7802 Y-13.4 I1.8009 J-3.1172
G1 X370.3774
G3 X371.1938 Y-11.1172 I-2.7837 J2.2828
G1 Y10.2109
G3 X370.1469 Y12.7489 I-3.6 J0.0
G1 X377.3297 Y12.9217
G1 Y-5.4219
G3 X377.4695 Y-6.4154 I3.6 J0.0
G0 Z3.0
G0 X392.9451 Y-4.4274
G0 Z1.0
G1 F300.0 Z-2.0
G1 F800.0 X393.4659 Y-4.1233
G3 X394.4169 Y-3.4107 I-2.6221 J4.4905
G3 X396.174 Y-6.7679 I5.169 J0.5669
G1 X401.9617 Y-11.8
G1 X398.7475
G3 X397.1483 Y-8.4294 I-5.185 J-0.3953
G1 X392.9451 Y-4.4274
G1 F300.0 X392.1383 Y-3.0457
G1 F800.0 X392.6591 Y-2.7416
G3 X393.8516 Y2.3453 I-1.8153 J3.1088
G1 X401.5243
G1 X397.8416 Y0.3054
G3 X397.2239 Y-5.5605 I1.7444 J-3.1492
G1 X406.2404 Y-13.4
G1 X396.955
G3 X396.0449 Y-9.5881 I-3.3925 J1.2047
G1 X391.1465 Y-4.9241
G3 X390.1058 Y-4.2325 I-2.4824 J-2.6072
G1 X392.1383 Y-3.0457
G1 F300.0 X391.3315 Y-1.664
G1 F800.0 X391.8523 Y-1.3599
G3 X392.0137 Y1.9893 I-1.0085 J1.7271
G1 X389.3016 Y3.9453
G1 X407.7149
G1 X398.6168 Y-1.0942
G3 X398.2737 Y-4.353 I0.9691 J-1.7495
G1 X407.7893 Y-12.6265
G3 X408.0133 Y-12.7952 I1.3123 J1.5093
G1 X411.4128 Y-15.0
G1 X393.3396
G1 X394.8521 Y-13.724
G3 X394.9416 Y-10.7469 I-1.2896 J1.5287
G1 X390.0432 Y-6.0828
G3 X387.7229 Y-5.7665 I-1.3791 J-1.4484
G1 X379.9885 Y-9.8915
G3 X379.6224 Y-13.1699 I0.9412 J-1.7647
G1 X381.7415 Y-15.0
G1 X365.2826
G1 X368.682 Y-12.7952
G3 X369.5938 Y-11.1172 I-1.0883 J1.678
G1 Y10.2109
G3 X368.679 Y11.8909 I-2.0 J0.0
G1 X365.0626 Y14.2271
G1 X378.9297 Y14.5607
G1 Y-5.4219
G3 X381.9382 Y-7.149 I2.0 J0.0
G1 X391.3315 Y-1.664
G0 Z3.0
G0 X392.9451 Y-4.4274
G0 Z-1.0
G1 F300.0 Z-4.0
G1 F800.0 X393.4659 Y-4.1233
G3 X394.4169 Y-3.4107 I-2.6221 J4.4905
G3 X396.174 Y-6.7679 I5.169 J0.5669
G1 X401.9617 Y-11.8
G1 X398.7475
G3 X397.1483 Y-8.4294 I-5.185 J-0.3953
G1 X392.9451 Y-4.4274
G1 F300.0 X392.1383 Y-3.0457
G1 F800.0 X392.6591 Y-2.7416
G3 X393.8516 Y2.3453 I-1.8153 J3.1088
G1 X401.5243
G1 X397.8416 Y0.3054
G3 X397.2239 Y-5.5605 I1.7444 J-3.1492
G1 X406.2404 Y-13.4
G1 X396.955
G3 X396.0449 Y-9.5881 I-3.3925 J1.2047
G1 X391.1465 Y-4.9241
G3 X390.1058 Y-4.2325 I-2.4824 J-2.6072
G1 X392.1383 Y-3.0457
G0 Z3.0
G0 X374.8862 Y-8.5391
G0 Z-1.0
G1 F300.0 Z-4.0
G3 F800.0 X374.3938 Y-9.7797 I6.0434 J-3.1172
G1 Y-7.2984
G3 X374.8862 Y-8.5391 I6.5359 J1.8766
G1 F300.0 X376.3082 Y-9.2725
G3 F800.0 X375.7317 Y-11.8 I4.6215 J-2.3837
G1 X372.7487
G3 X372.7938 Y-11.1172 I-5.155 J0.6828
G1 Y10.2109
G3 X372.6969 Y11.2098 I-5.2 J0.0
G1 X375.7297 Y11.2828
G1 Y-5.4219
G3 X376.7676 Y-8.5391 I5.2 J0.0
G3 X376.3082 Y-9.2725 I4.1621 J-3.1172
G1 F300.0 X377.7302 Y-10.006
G3 F800.0 X377.7802 Y-13.4 I3.1995 J-1.6503
G1 X370.3774
G3 X371.1938 Y-11.1172 I-2.7837 J2.2828
G1 Y10.2109
G3 X370.1469 Y12.7489 I-3.6 J0.0
G1 X377.3297 Y12.9217
G1 Y-5.4219
G3 X379.1288 Y-8.5391 I3.6 J0.0
G3 X377.7302 Y-10.006 I1.8009 J-3.1172
G1 F300.0 X379.1522 Y-10.7394
G3 F800.0 X379.6224 Y-13.1699 I1.7775 J-0.9168
G1 X381.7415 Y-15.0
G1 X365.2826
G1 X368.682 Y-12.7952
G3 X369.5938 Y-11.1172 I-1.0883 J1.678
G1 Y10.2109
G3 X368.679 Y11.8909 I-2.0 J0.0
G1 X365.0626 Y14.2271
G1 X378.9297 Y14.5607
G1 Y-5.4219
G3 X381.9382 Y-7.149 I2.0 J0.0
G1 X391.8523 Y-1.3599
G3 X392.0137 Y1.9893 I-1.0085 J1.7271
G1 X389.3016 Y3.9453
G1 X407.7149
G1 X398.6168 Y-1.0942
G3 X398.2737 Y-4.353 I0.9691 J-1.7495
G1 X407.7893 Y-12.6265
G3 X408.0133 Y-12.7952 I1.3123 J1.5093
G1 X411.4128 Y-15.0
G1 X393.3396
G1 X394.8521 Y-13.724
G3 X394.9416 Y-10.7469 I-1.2896 J1.5287
G1 X390.0432 Y-6.0828
G3 X387.7229 Y-5.7665 I-1.3791 J-1.4484
G1 X379.9885 Y-9.8915
G3 X379.1522 Y-10.7394 I0.9412 J-1.7647
( Ber_Profil2mm )
G0 Z3.0
( T2 : 2.0 )
T2 M6
M3 S1000
G0 X20.2109 Y15.585
G0 Z1.0
G1 F300.0 Z-2.0
G1 F800.0 Y-5.4219
G3 X21.7152 Y-6.2854 I1.0 J0.0
G1 X31.6293 Y-0.4964
G3 X31.71 Y1.1783 I-0.5043 J0.8636
G1 X26.4867 Y4.9453
G1 X51.8653
G1 X39.3826 Y-1.969
G3 X39.2111 Y-3.5984 I0.4845 J-0.8748
G1 X48.7267 Y-11.8718
G3 X48.8387 Y-11.9562 I0.6561 J0.7546
G1 X55.0736 Y-16.0
G1 X30.8846
G1 X34.4886 Y-12.9597
G3 X34.5333 Y-11.4711 I-0.6448 J0.7643
G1 X29.6349 Y-6.807
G3 X28.4747 Y-6.6489 I-0.6896 J-0.7242
G1 X20.7403 Y-10.7739
G3 X20.5573 Y-12.4131 I0.4706 J-0.8824
G1 X24.7106 Y-16.0
G1 X2.1842
G1 X8.4191 Y-11.9562
G3 X8.875 Y-11.1172 I-0.5441 J0.839
G1 Y10.2109
G3 X8.4176 Y11.0509 I-1.0 J0.0
G1 X2.0743 Y15.1487
G1 X20.2109 Y15.585
G1 F300.0 Z-4.0
G1 F800.0 Y-5.4219
G3 X21.7152 Y-6.2854 I1.0 J0.0
G1 X31.6293 Y-0.4964
G3 X31.71 Y1.1783 I-0.5043 J0.8636
G1 X26.4867 Y4.9453
G1 X51.8653
G1 X39.3826 Y-1.969
G3 X39.2111 Y-3.5984 I0.4845 J-0.8748
G1 X48.7267 Y-11.8718
G3 X48.8387 Y-11.9562 I0.6561 J0.7546
G1 X55.0736 Y-16.0
G1 X30.8846
G1 X34.4886 Y-12.9597
G3 X34.5333 Y-11.4711 I-0.6448 J0.7643
G1 X29.6349 Y-6.807
G3 X28.4747 Y-6.6489 I-0.6896 J-0.7242
G1 X20.7403 Y-10.7739
G3 X20.5573 Y-12.4131 I0.4706 J-0.8824
G1 X24.7106 Y-16.0
G1 X2.1842
G1 X8.4191 Y-11.9562
G3 X8.875 Y-11.1172 I-0.5441 J0.839
G1 Y10.2109
G3 X8.4176 Y11.0509 I-1.0 J0.0
G1 X2.0743 Y15.1487
G1 X20.2109 Y15.585
G0 Z3.0
G0 X57.9258 Y15.1487
G0 Z1.0
G1 F300.0 Z-2.0
G1 F800.0 X76.0625 Y15.585
G1 Y-11.1406
G3 X76.5199 Y-11.9806 I1.0 J0.0
G1 X82.7419 Y-16.0
G1 X58.0472
G1 X64.2692 Y-11.9806
G3 X64.7266 Y-11.1406 I-0.5426 J0.84
G1 Y10.2109
G3 X64.2692 Y11.0509 I-1.0 J0.0
G1 X57.9258 Y15.1487
G1 F300.0 Z-4.0
G1 F800.0 X76.0625 Y15.585
G1 Y-11.1406
G3 X76.5199 Y-11.9806 I1.0 J0.0
G1 X82.7419 Y-16.0
G1 X58.0472
G1 X64.2692 Y-11.9806
G3 X64.7266 Y-11.1406 I-0.5426 J0.84
G1 Y10.2109
G3 X64.2692 Y11.0509 I-1.0 J0.0
G1 X57.9258 Y15.1487
G0 Z3.0
G0 X87.5757 Y-2.0838
G0 Z1.0
G1 F300.0 Z-2.0
G2 F800.0 X88.1036 Y-1.2916 I6.7183 J-3.9047
G3 X88.1078 Y-1.2861 I-0.7966 J0.6044
G2 X89.885 Y0.6009 I9.1752 J-6.8614
G3 X89.8863 Y0.6019 I-0.6457 J0.7636
G2 X92.0445 Y2.1621 I11.1106 J-13.0964
G2 X98.8007 Y4.9157 I11.8688 J-19.4558
G2 X106.1412 Y5.7188 I7.109 J-31.0308
G3 X106.1576 I0.0073 J1.0
G2 X112.6266 Y4.9435 I0.2326 J-25.4364
G2 X118.4349 Y2.2484 I-4.2899 J-16.8517
G3 X118.4402 Y2.2447 I0.5807 J0.8141
G2 X122.3119 Y-1.8633 I-8.1012 J-11.514
G2 X124.0405 Y-6.0156 I-13.1545 J-7.9119
G1 X99.8438
G3 X98.8443 Y-6.9839 I0.0 J-1.0
G3 X100.346 Y-11.12 I5.9286 J-0.1881
G3 X100.3664 Y-11.1422 I0.7463 J0.6656
G3 X102.8945 Y-12.8909 I5.4243 J5.1401
G3 X102.8978 Y-12.8923 I0.3876 J0.9218
G3 X106.9959 Y-13.9602 I5.8514 J14.0571
G3 X111.0669 Y-14.2032 I3.8911 J30.9761
G3 X118.6471 Y-13.5314 I0.4779 J37.7102
G3 X118.6542 Y-13.53 I-0.1883 J0.9821
G3 X122.445 Y-12.3157 I-3.4427 J17.2715
G3 X124.4605 Y-11.1125 I-3.8798 J8.7886
G2 X123.2276 Y-13.4508 I-3.6296 J0.4195
G3 X123.2212 Y-13.4565 I0.656 J-0.7548
G2 X120.2638 Y-15.2737 I-6.6773 J7.5516
G3 X120.2597 Y-15.2753 I0.369 J-0.9294
G2 X114.1967 Y-16.8431 I-9.0614 J22.535
G3 X114.19 Y-16.844 I0.1234 J-0.9924
G2 X107.8182 Y-17.2422 I-6.1046 J46.5028
G3 X107.8052 I-0.0057 J-1.0
G2 X99.7053 Y-16.5613 I-0.3265 J44.6312
G3 X99.7005 Y-16.5604 I-0.1742 J-0.9847
G2 X92.1363 Y-13.9857 I4.3024 J25.0381
G2 X89.9254 Y-12.5322 I7.5397 J13.8771
G3 X89.9168 Y-12.5256 I-0.6174 J-0.7866
G2 X87.4148 Y-9.6368 I5.7853 J7.5388
G2 X86.5234 Y-6.0168 I6.6292 J3.5521
G3 Y-6.0056 I-1.0 J0.009
G2 X87.5757 Y-2.0838 I7.7706 J0.0171
G1 F300.0 Z-4.0
G2 F800.0 X88.1036 Y-1.2916 I6.7183 J-3.9047
G3 X88.1078 Y-1.2861 I-0.7966 J0.6044
G2 X89.885 Y0.6009 I9.1752 J-6.8614
G3 X89.8863 Y0.6019 I-0.6457 J0.7636
G2 X92.0445 Y2.1621 I11.1106 J-13.0964
G2 X98.8007 Y4.9157 I11.8688 J-19.4558
G2 X106.1412 Y5.7188 I7.109 J-31.0308
G3 X106.1576 I0.0073 J1.0
G2 X112.6266 Y4.9435 I0.2326 J-25.4364
G2 X118.4349 Y2.2484 I-4.2899 J-16.8517
G3 X118.4402 Y2.2447 I0.5807 J0.8141
G2 X122.3119 Y-1.8633 I-8.1012 J-11.514
G2 X124.0405 Y-6.0156 I-13.1545 J-7.9119
G1 X99.8438
G3 X98.8443 Y-6.9839 I0.0 J-1.0
G3 X100.346 Y-11.12 I5.9286 J-0.1881
G3 X100.3664 Y-11.1422 I0.7463 J0.6656
G3 X102.8945 Y-12.8909 I5.4243 J5.1401
G3 X102.8978 Y-12.8923 I0.3876 J0.9218
G3 X106.9959 Y-13.9602 I5.8514 J14.0571
G3 X111.0669 Y-14.2032 I3.8911 J30.9761
G3 X118.6471 Y-13.5314 I0.4779 J37.7102
G3 X118.6542 Y-13.53 I-0.1883 J0.9821
G3 X122.445 Y-12.3157 I-3.4427 J17.2715
G3 X124.4605 Y-11.1125 I-3.8798 J8.7886
G2 X123.2276 Y-13.4508 I-3.6296 J0.4195
G3 X123.2212 Y-13.4565 I0.656 J-0.7548
G2 X120.2638 Y-15.2737 I-6.6773 J7.5516
G3 X120.2597 Y-15.2753 I0.369 J-0.9294
G2 X114.1967 Y-16.8431 I-9.0614 J22.535
G3 X114.19 Y-16.844 I0.1234 J-0.9924
G2 X107.8182 Y-17.2422 I-6.1046 J46.5028
G3 X107.8052 I-0.0057 J-1.0
G2 X99.7053 Y-16.5613 I-0.3265 J44.6312
G3 X99.7005 Y-16.5604 I-0.1742 J-0.9847
G2 X92.1363 Y-13.9857 I4.3024 J25.0381
G2 X89.9254 Y-12.5322 I7.5397 J13.8771
G3 X89.9168 Y-12.5256 I-0.6174 J-0.7866
G2 X87.4148 Y-9.6368 I5.7853 J7.5388
G2 X86.5234 Y-6.0168 I6.6292 J3.5521
G3 Y-6.0056 I-1.0 J0.009
G2 X87.5757 Y-2.0838 I7.7706 J0.0171
G0 Z3.0
G0 X99.0149 Y-2.6787
G0 Z1.0
G1 F300.0 Z-2.0
G3 F800.0 X99.0079 Y-3.0187 I5.4072 J-0.2812
G3 X100.0078 Y-4.0078 I0.9999 J0.0109
G1 X113.7422
G3 X114.7419 Y-3.0298 I0.0 J1.0
G3 X114.198 Y-0.1915 I-6.8868 J0.1515
G3 X114.1826 Y-0.1569 I-0.9208 J-0.3901
G3 X110.8641 Y2.7426 I-4.9578 J-2.3253
G3 X106.985 Y3.3126 I-3.6234 J-11.1744
G3 X104.1008 Y2.9286 I-0.0774 J-10.4433
G3 X104.0968 Y2.9275 I0.2688 J-0.9632
G3 X101.4024 Y1.5908 I2.24 J-7.8995
G3 X99.6659 Y-0.3726 I3.7336 J-5.0517
G3 X99.6565 Y-0.3895 I0.8708 J-0.4916
G3 X99.0149 Y-2.6787 I4.7655 J-2.5703
G1 F300.0 Z-4.0
G3 F800.0 X99.0079 Y-3.0187 I5.4072 J-0.2812
G3 X100.0078 Y-4.0078 I0.9999 J0.0109
G1 X113.7422
G3 X114.7419 Y-3.0298 I0.0 J1.0
G3 X114.198 Y-0.1915 I-6.8868 J0.1515
G3 X114.1826 Y-0.1569 I-0.9208 J-0.3901
G3 X110.8641 Y2.7426 I-4.9578 J-2.3253
G3 X106.985 Y3.3126 I-3.6234 J-11.1744
G3 X104.1008 Y2.9286 I-0.0774 J-10.4433
G3 X104.0968 Y2.9275 I0.2688 J-0.9632
G3 X101.4024 Y1.5908 I2.24 J-7.8995
G3 X99.6659 Y-0.3726 I3.7336 J-5.0517
G3 X99.6565 Y-0.3895 I0.8708 J-0.4916
G3 X99.0149 Y-2.6787 I4.7655 J-2.5703
G0 Z3.0
G0 X129.0739 Y4.4829
G0 Z1.0
G1 F300.0 Z-2.0
G1 F800.0 X146.6797 Y4.898
G1 Y-0.9922
G3 X148.5373 Y-1.5064 I1.0 J0.0
G2 X150.4788 Y1.1231 I14.6377 J-8.7761
G3 X150.4829 Y1.1277 I-0.7439 J0.6683
G2 X154.3097 Y3.9673 I8.6877 J-7.7096
G2 X158.9659 Y4.9219 I4.5368 J-10.2954
G3 X158.9847 I0.0106 J0.9999
G2 X162.8051 Y4.5449 I0.1464 J-18.0624
G3 X162.8075 Y4.5444 I0.2034 J0.9791
G2 X166.2637 Y3.1912 I-2.196 J-10.6991
G3 X166.2813 Y3.1808 I0.5175 J0.8557
G2 X168.1497 Y1.4996 I-3.0251 J-5.2407
G2 X168.8282 Y-0.7237 I-3.1689 J-2.1822
G3 X168.8285 Y-0.7614 I0.9999 J-0.0107
G2 X168.3359 Y-2.828 I-4.1146 J-0.1113
G2 X167.3142 Y-3.8992 I-2.8119 J1.6592
G2 X164.9706 Y-4.7803 I-3.3723 J5.4121
G3 X164.9579 Y-4.7825 I0.1613 J-0.9869
G2 X162.2514 Y-5.0079 I-2.5786 J14.5976
G2 X158.7067 Y-4.717 I0.7982 J31.4691
G3 X158.858 Y-4.4081 I-10.53 J5.3487
G3 X159.3895 Y-2.3514 I-4.6502 J2.2989
G3 X159.3905 Y-2.3221 I-0.9989 J0.0467
G3 X159.1461 Y-0.7328 I-4.7517 J0.0826
G3 X159.1442 Y-0.7272 I-0.9484 J-0.317
G3 X157.316 Y1.2393 I-3.1133 J-1.0612
G3 X157.2997 Y1.2461 I-0.3907 J-0.9205
G3 X155.0749 Y1.6485 I-2.0814 J-5.1556
G3 X149.4069 Y-1.0936 I-0.0286 J-7.1697
G3 X147.2188 Y-7.5228 I7.5205 J-6.1466
G1 Y-11.1406
G3 X147.7372 Y-12.017 I1.0 J0.0
G1 X154.9862 Y-16.0
G1 X129.1713
G1 X135.4235 Y-11.9819
G3 X135.8828 Y-11.1406 I-0.5406 J0.8412
G1 Y-0.4766
G3 X135.427 Y0.3624 I-1.0 J0.0
G1 X129.0739 Y4.4829
G1 F300.0 Z-4.0
G1 F800.0 X146.6797 Y4.898
G1 Y-0.9922
G3 X148.5373 Y-1.5064 I1.0 J0.0
G2 X150.4788 Y1.1231 I14.6377 J-8.7761
G3 X150.4829 Y1.1277 I-0.7439 J0.6683
G2 X154.3097 Y3.9673 I8.6877 J-7.7096
G2 X158.9659 Y4.9219 I4.5368 J-10.2954
G3 X158.9847 I0.0106 J0.9999
G2 X162.8051 Y4.5449 I0.1464 J-18.0624
G3 X162.8075 Y4.5444 I0.2034 J0.9791
G2 X166.2637 Y3.1912 I-2.196 J-10.6991
G3 X166.2813 Y3.1808 I0.5175 J0.8557
G2 X168.1497 Y1.4996 I-3.0251 J-5.2407
G2 X168.8282 Y-0.7237 I-3.1689 J-2.1822
G3 X168.8285 Y-0.7614 I0.9999 J-0.0107
G2 X168.3359 Y-2.828 I-4.1146 J-0.1113
G2 X167.3142 Y-3.8992 I-2.8119 J1.6592
G2 X164.9706 Y-4.7803 I-3.3723 J5.4121
G3 X164.9579 Y-4.7825 I0.1613 J-0.9869
G2 X162.2514 Y-5.0079 I-2.5786 J14.5976
G2 X158.7067 Y-4.717 I0.7982 J31.4691
G3 X158.858 Y-4.4081 I-10.53 J5.3487
G3 X159.3895 Y-2.3514 I-4.6502 J2.2989
G3 X159.3905 Y-2.3221 I-0.9989 J0.0467
G3 X159.1461 Y-0.7328 I-4.7517 J0.0826
G3 X159.1442 Y-0.7272 I-0.9484 J-0.317
G3 X157.316 Y1.2393 I-3.1133 J-1.0612
G3 X157.2997 Y1.2461 I-0.3907 J-0.9205
G3 X155.0749 Y1.6485 I-2.0814 J-5.1556
G3 X149.4069 Y-1.0936 I-0.0286 J-7.1697
G3 X147.2188 Y-7.5228 I7.5205 J-6.1466
G1 Y-11.1406
G3 X147.7372 Y-12.017 I1.0 J0.0
G1 X154.9862 Y-16.0
G1 X129.1713
G1 X135.4235 Y-11.9819
G3 X135.8828 Y-11.1406 I-0.5406 J0.8412
G1 Y-0.4766
G3 X135.427 Y0.3624 I-1.0 J0.0
G1 X129.0739 Y4.4829
G0 Z3.0
G0 X170.4531 Y-2.6016
G0 Z1.0
G1 F300.0 Z-2.0
G1 F800.0 X189.7578
G1 Y-8.5938
G1 X170.4531
G1 Y-2.6016
G1 F300.0 Z-4.0
G1 F800.0 X189.7578
G1 Y-8.5938
G1 X170.4531
G1 Y-2.6016
G0 Z3.0
G0 X194.5739 Y-16.0
G0 Z1.0
G1 F300.0 Z-2.0
G1 F800.0 X203.358 Y-10.5122
G3 X203.8281 Y-9.6641 I-0.5298 J0.8481
G1 Y7.5156
G3 X203.3652 Y8.3591 I-1.0 J0.0
G1 X194.5183 Y13.9922
G1 X237.75
G3 X237.7565 I0.0 J1.0
G2 X243.898 Y13.5292 I0.2465 J-37.6929
G3 X243.9033 Y13.5284 I0.1564 J0.9877
G2 X249.6751 Y11.7674 I-3.1672 J-20.7197
G3 X249.6854 Y11.7626 I0.4265 J0.9045
G2 X252.6533 Y9.6522 I-4.0362 J-8.8186
G2 X253.8594 Y6.6029 I-3.2371 J-3.0435
G3 Y6.5976 I1.0 J-0.0013
G2 X253.3982 Y5.0294 I-2.8578 J-0.0115
G2 X252.3588 Y3.9217 I-3.7924 J2.5172
G2 X249.7817 Y2.5155 I-6.3 J8.4815
G3 X249.779 Y2.5145 I0.3524 J-0.9359
G2 X245.3154 Y1.2458 I-9.584 J25.2325
G3 X245.3094 Y1.2447 I0.1897 J-0.9818
G2 X240.6381 Y0.5172 I-10.9089 J54.6856
G3 X240.6267 Y-1.4689 I0.1119 J-0.9937
G2 X245.3383 Y-2.231 I-7.9992 J-64.4057
G3 X245.3385 I0.1959 J0.9806
G2 X248.8383 Y-3.0962 I-7.7652 J-38.9207
G1 X248.8384 Y-3.0963
G2 X251.3859 Y-4.008 I-6.8607 J-23.1838
G3 X251.4037 Y-4.0153 I0.3891 J0.9212
G2 X254.7301 Y-6.0751 I-4.1967 J-10.4934
G2 X255.8045 Y-7.5229 I-3.4055 J-3.6497
G2 X256.1797 Y-9.2135 I-3.529 J-1.6701
G3 X256.1798 Y-9.2327 I1.0 J-0.0052
G2 X255.5005 Y-11.5666 I-4.1501 J-0.0579
G2 X253.9811 Y-13.0579 I-4.584 J3.1506
G2 X250.2868 Y-14.6783 I-6.9776 J10.8867
G3 X250.2827 Y-14.6794 I0.2539 J-0.9672
G2 X244.0534 Y-15.7426 I-8.8819 J33.2611
G3 X244.0466 Y-15.7431 I0.0771 J-0.997
G2 X237.6367 Y-16.0 I-6.1268 J72.7749
G3 X237.6328 I-0.0039 J-1.0
G1 X194.5739
G1 F300.0 Z-4.0
G1 F800.0 X203.358 Y-10.5122
G3 X203.8281 Y-9.6641 I-0.5298 J0.8481
G1 Y7.5156
G3 X203.3652 Y8.3591 I-1.0 J0.0
G1 X194.5183 Y13.9922
G1 X237.75
G3 X237.7565 I0.0 J1.0
G2 X243.898 Y13.5292 I0.2465 J-37.6929
G3 X243.9033 Y13.5284 I0.1564 J0.9877
G2 X249.6751 Y11.7674 I-3.1672 J-20.7197
G3 X249.6854 Y11.7626 I0.4265 J0.9045
G2 X252.6533 Y9.6522 I-4.0362 J-8.8186
G2 X253.8594 Y6.6029 I-3.2371 J-3.0435
G3 Y6.5976 I1.0 J-0.0013
G2 X253.3982 Y5.0294 I-2.8578 J-0.0115
G2 X252.3588 Y3.9217 I-3.7924 J2.5172
G2 X249.7817 Y2.5155 I-6.3 J8.4815
G3 X249.779 Y2.5145 I0.3524 J-0.9359
G2 X245.3154 Y1.2458 I-9.584 J25.2325
G3 X245.3094 Y1.2447 I0.1897 J-0.9818
G2 X240.6381 Y0.5172 I-10.9089 J54.6856
G3 X240.6267 Y-1.4689 I0.1119 J-0.9937
G2 X245.3383 Y-2.231 I-7.9992 J-64.4057
G3 X245.3385 I0.1959 J0.9806
G2 X248.8383 Y-3.0962 I-7.7652 J-38.9207
G1 X248.8384 Y-3.0963
G2 X251.3859 Y-4.008 I-6.8607 J-23.1838
G3 X251.4037 Y-4.0153 I0.3891 J0.9212
G2 X254.7301 Y-6.0751 I-4.1967 J-10.4934
G2 X255.8045 Y-7.5229 I-3.4055 J-3.6497
G2 X256.1797 Y-9.2135 I-3.529 J-1.6701
G3 X256.1798 Y-9.2327 I1.0 J-0.0052
G2 X255.5005 Y-11.5666 I-4.1501 J-0.0579
G2 X253.9811 Y-13.0579 I-4.584 J3.1506
G2 X250.2868 Y-14.6783 I-6.9776 J10.8867
G3 X250.2827 Y-14.6794 I0.2539 J-0.9672
G2 X244.0534 Y-15.7426 I-8.8819 J33.2611
G3 X244.0466 Y-15.7431 I0.0771 J-0.997
G2 X237.6367 Y-16.0 I-6.1268 J72.7749
G3 X237.6328 I-0.0039 J-1.0
G1 X194.5739
G0 Z3.0
G0 X218.3689 Y-11.5134
G0 Z1.0
G1 F300.0 Z-2.0
G3 F800.0 X219.3516 Y-12.3281 I0.9827 J0.1853
G1 X232.5349
G3 X236.8023 Y-11.8065 I0.3486 J14.8635
G3 X236.8066 Y-11.8053 I-0.2636 J0.9646
G3 X239.0867 Y-10.5059 I-1.4389 J5.175
G3 X239.1187 Y-10.4737 I-0.6924 J0.7215
G3 X240.1565 Y-7.7853 I-2.7302 J2.5985
G3 X239.7306 Y-5.6224 I-5.2426 J0.091
G3 X239.7141 Y-5.586 I-0.9186 J-0.3952
G3 X237.1164 Y-3.3447 I-3.8579 J-1.8454
G3 X234.1999 Y-2.9219 I-2.7245 J-8.5216
G1 X219.3516
G3 X218.3516 Y-3.9219 I0.0 J-1.0
G1 Y-11.3281
G3 X218.3689 Y-11.5134 I1.0 J0.0
G1 F300.0 Z-4.0
G3 F800.0 X219.3516 Y-12.3281 I0.9827 J0.1853
G1 X232.5349
G3 X236.8023 Y-11.8065 I0.3486 J14.8635
G3 X236.8066 Y-11.8053 I-0.2636 J0.9646
G3 X239.0867 Y-10.5059 I-1.4389 J5.175
G3 X239.1187 Y-10.4737 I-0.6924 J0.7215
G3 X240.1565 Y-7.7853 I-2.7302 J2.5985
G3 X239.7306 Y-5.6224 I-5.2426 J0.091
G3 X239.7141 Y-5.586 I-0.9186 J-0.3952
G3 X237.1164 Y-3.3447 I-3.8579 J-1.8454
G3 X234.1999 Y-2.9219 I-2.7245 J-8.5216
G1 X219.3516
G3 X218.3516 Y-3.9219 I0.0 J-1.0
G1 Y-11.3281
G3 X218.3689 Y-11.5134 I1.0 J0.0
G0 Z3.0
G0 X219.2811 Y1.4087
G0 Z1.0
G1 F300.0 Z-2.0
G3 F800.0 X219.3516 Y1.4063 I0.0704 J0.9975
G1 X232.7318
G3 X234.5667 Y1.5126 I0.0744 J14.5976
G3 X237.4948 Y2.4953 I-0.6239 J6.7127
G3 X237.5312 Y2.519 I-0.5269 J0.8499
G3 X239.1489 Y5.7192 I-2.0895 J3.0653
G3 X238.5061 Y8.0701 I-4.2971 J0.0883
G3 X238.488 Y8.0983 I-0.8502 J-0.5264
G3 X237.1372 Y9.3641 I-3.3792 J-2.2525
G3 X237.1249 Y9.371 I-0.4995 J-0.8663
G3 X234.8324 Y10.1523 I-3.2881 J-5.8943
G3 X232.6132 Y10.3203 I-2.1142 J-13.1854
G1 X219.3516
G3 X218.3516 Y9.3203 I0.0 J-1.0
G1 Y2.4063
G3 X219.2811 Y1.4087 I1.0 J0.0
G1 F300.0 Z-4.0
G3 F800.0 X219.3516 Y1.4063 I0.0704 J0.9975
G1 X232.7318
G3 X234.5667 Y1.5126 I0.0744 J14.5976
G3 X237.4948 Y2.4953 I-0.6239 J6.7127
G3 X237.5312 Y2.519 I-0.5269 J0.8499
G3 X239.1489 Y5.7192 I-2.0895 J3.0653
G3 X238.5061 Y8.0701 I-4.2971 J0.0883
G3 X238.488 Y8.0983 I-0.8502 J-0.5264
G3 X237.1372 Y9.3641 I-3.3792 J-2.2525
G3 X237.1249 Y9.371 I-0.4995 J-0.8663
G3 X234.8324 Y10.1523 I-3.2881 J-5.8943
G3 X232.6132 Y10.3203 I-2.1142 J-13.1854
G1 X219.3516
G3 X218.3516 Y9.3203 I0.0 J-1.0
G1 Y2.4063
G3 X219.2811 Y1.4087 I1.0 J0.0
G0 Z3.0
G0 X261.7448 Y-0.5556
G0 Z1.0
G1 F300.0 Z-2.0
G2 F800.0 X262.1644 Y0.7123 I2.4713 J-0.1143
G2 X264.0796 Y2.3808 I4.6249 J-3.3754
G3 X264.0972 Y2.3905 I-0.4733 J0.8809
G2 X266.6675 Y3.546 I7.6479 J-13.575
G2 X273.6247 Y5.0882 I10.504 J-30.9229
G3 X273.6301 Y5.0888 I-0.1086 J0.9941
G2 X280.8468 Y5.4844 I6.9294 J-60.3872
G3 X280.8571 I0.0047 J1.0
G2 X287.5738 Y5.185 I0.3746 J-67.0926
G2 X290.8569 Y4.6945 I-3.2264 J-32.8285
G3 X290.864 Y4.6931 I0.1973 J0.9803
G2 X293.9398 Y3.7582 I-2.9535 J-15.2432
G3 X293.9529 Y3.7528 I0.3883 J0.9215
G2 X296.5373 Y1.7834 I-2.3145 J-5.7176
G2 X297.4301 Y-1.246 I-4.2171 J-2.8891
G3 X297.4297 Y-1.2734 I0.9996 J-0.0274
G1 Y-9.9568
G3 X297.7197 Y-12.2821 I7.9827 J-0.1852
G3 X297.7211 Y-12.2871 I0.9634 J0.268
G3 X298.5196 Y-13.6609 I3.0897 J0.8768
G3 X298.553 Y-13.6934 I0.7134 J0.7008
G3 X300.2403 Y-14.3443 I1.6595 J1.7897
G3 X302.7559 Y-12.8178 I0.1241 J2.6317
G3 X302.7696 Y-12.7869 I-0.9078 J0.4195
G3 X303.1789 Y-10.5393 I-4.8457 J2.0436
G3 X303.1784 Y-10.5273 I-0.9992 J-0.0388
G3 X303.1458 Y-10.0437 I-14.7231 J-0.7493
G2 X303.9027 Y-10.7818 I-0.9682 J-1.7501
G2 X304.227 Y-12.2348 I-2.678 J-1.3604
G3 X304.2271 Y-12.2973 I0.9995 J-0.0308
G2 X303.4465 Y-14.7478 I-3.8532 J-0.1222
G2 X301.9283 Y-15.9327 I-3.4512 J2.8568
G2 X298.8324 Y-16.8308 I-4.4157 J9.4365
G3 X298.8214 Y-16.8323 I0.1267 J-0.9919
G2 X295.4365 Y-17.0547 I-3.2242 J23.1982
G3 X295.4247 I-0.0069 J-1.0
G2 X292.7451 Y-16.8903 I-0.101 J20.271
G2 X290.8055 Y-16.479 I1.5634 J12.154
G3 X290.7899 Y-16.4745 I-0.2859 J-0.9583
G2 X288.3376 Y-15.1615 I1.7393 J6.1949
G2 X287.004 Y-12.9011 I2.9974 J3.292
G3 X285.2871 Y-12.4648 I-0.9728 J-0.2317
G2 X282.8937 Y-14.6039 I-10.891 J9.7774
G2 X280.1094 Y-16.0525 I-6.6064 J9.2971
G2 X276.1055 Y-16.8598 I-5.6081 J17.4829
G3 X276.0963 Y-16.8606 I0.0874 J-0.9962
G2 X271.8797 Y-17.0547 I-4.0206 J41.4539
G3 X271.8715 I-0.0047 J-1.0
G2 X268.4527 Y-16.9135 I-0.1325 J38.2639
G3 X268.4523 I-0.0859 J-0.9963
G2 X265.896 Y-16.5448 I1.9184 J22.3489
G3 X265.8958 I-0.1995 J-0.9799
G2 X264.0481 Y-16.0242 I2.5859 J12.7177
G3 X264.0252 Y-16.0162 I-0.3416 J-0.9398
G2 X261.7734 Y-14.6188 I1.844 J5.4845
G2 X260.945 Y-12.4066 I2.3381 J2.1367
G3 X260.9452 Y-12.3677 I-0.9997 J0.0238
G2 X261.9351 Y-9.5312 I4.3701 J0.0659
G2 X263.7441 Y-8.0271 I5.1297 J-4.3296
G2 X267.2519 Y-6.6068 I7.2436 J-12.8483
G3 X267.2597 Y-6.6047 I-0.2533 J0.9674
G2 X271.0965 Y-5.8267 I7.9765 J-29.4872
G3 X271.0989 Y-5.8264 I-0.1355 J0.9908
G1 X273.9583 Y-5.4279
G1 X285.2317 Y-3.8576
G3 X286.0938 Y-2.8672 I-0.138 J0.9904
G1 Y-1.0527
G3 X285.156 Y1.2772 I-3.1665 J0.0792
G3 X285.1393 Y1.2933 I-0.7036 J-0.7106
G3 X283.746 Y2.1689 I-2.8988 J-3.0665
G3 X283.7448 Y2.1693 I-0.3568 J-0.9342
G3 X281.6816 Y2.6641 I-2.9516 J-7.7594
G3 X279.7097 Y2.7735 I-1.8928 J-16.2872
G3 X275.6479 Y2.3743 I-0.3184 J-17.6249
G3 X273.4011 Y1.3809 I1.2877 J-5.9503
G3 X273.3908 Y1.3735 I0.5806 J-0.8142
G3 X272.0705 Y-1.2924 I1.9077 J-2.6047
G3 X272.0707 Y-1.3014 I0.9998 J0.019
G3 X272.2427 Y-2.2036 I2.8738 J0.0804
G2 X269.7679 Y-2.5707 I-4.8538 J24.1976
G3 X269.7658 Y-2.5709 I0.0964 J-0.9953
G2 X265.8547 Y-2.7578 I-3.7901 J38.2901
G3 X265.8463 I-0.0031 J-1.0
G2 X264.3478 Y-2.6713 I-0.0632 J11.9276
G3 X264.3166 Y-2.668 I-0.1203 J-0.9927
G2 X262.4044 Y-2.0424 I0.398 J4.4513
G2 X261.7411 Y-0.71 I0.8653 J1.262
G3 X261.7422 Y-0.6658 I-0.9989 J0.046
G2 X261.7448 Y-0.5556 I2.474 J-0.0042
G0 Z3.0
G0 X273.048 Y-8.7959
G0 Z1.0
G1 F300.0 Z-2.0
G3 F800.0 X272.3982 Y-10.8266 I2.7365 J-1.995
G3 X274.5758 Y-13.9049 I3.1367 J-0.0904
G3 X277.4646 Y-14.3439 I2.6522 J7.7294
G3 X280.5013 Y-14.0168 I0.0873 J13.4509
G1 X280.5012
G1 X280.5013
G3 X283.4376 Y-12.813 I-2.0787 J9.2533
G3 X285.2773 Y-11.1181 I-3.27 J5.3955
G3 X285.2873 Y-11.104 I-0.8099 J0.5865
G3 X286.0938 Y-8.5123 I-3.6715 J2.5638
G1 Y-6.6641
G3 X284.9517 Y-5.6742 I-1.0 J0.0
G1 X279.4105 Y-6.4692
G1 X277.8127 Y-6.6544
G3 X274.6664 Y-7.5025 I1.0602 J-10.1931
G3 X274.6547 Y-7.5079 I0.4105 J-0.9119
G3 X273.0841 Y-8.7479 I1.8331 J-3.9365
G3 X273.0648 Y-8.7731 I0.7838 J-0.621
G3 X273.048 Y-8.7959 I2.7197 J-2.0178
G1 F300.0 Z-4.0
G3 F800.0 X272.3982 Y-10.8266 I2.7365 J-1.995
G3 X274.5758 Y-13.9049 I3.1367 J-0.0904
G3 X277.4646 Y-14.3439 I2.6522 J7.7294
G3 X280.5013 Y-14.0168 I0.0873 J13.4509
G1 X280.5012
G1 X280.5013
G3 X283.4376 Y-12.813 I-2.0787 J9.2533
G3 X285.2773 Y-11.1181 I-3.27 J5.3955
G3 X285.2873 Y-11.104 I-0.8099 J0.5865
G3 X286.0938 Y-8.5123 I-3.6715 J2.5638
G1 Y-6.6641
G3 X284.9517 Y-5.6742 I-1.0 J0.0
G1 X279.4105 Y-6.4692
G1 X277.8127 Y-6.6544
G3 X274.6664 Y-7.5025 I1.0602 J-10.1931
G3 X274.6547 Y-7.5079 I0.4105 J-0.9119
G3 X273.0841 Y-8.7479 I1.8331 J-3.9365
G3 X273.0648 Y-8.7731 I0.7838 J-0.621
G3 X273.048 Y-8.7959 I2.7197 J-2.0178
G0 Z3.0
G0 X272.605 Y-5.6165
G0 Z-1.0
G1 F300.0 Z-4.0
G1 F800.0 X273.9583 Y-5.4279
G1 X285.2317 Y-3.8576
G3 X286.0938 Y-2.8672 I-0.138 J0.9904
G1 Y-1.0527
G3 X285.156 Y1.2772 I-3.1665 J0.0792
G3 X285.1393 Y1.2933 I-0.7036 J-0.7106
G3 X283.746 Y2.1689 I-2.8988 J-3.0665
G3 X283.7448 Y2.1693 I-0.3568 J-0.9342
G3 X281.6816 Y2.6641 I-2.9516 J-7.7594
G3 X279.7097 Y2.7735 I-1.8928 J-16.2872
G3 X275.6479 Y2.3743 I-0.3184 J-17.6249
G3 X273.4011 Y1.3809 I1.2877 J-5.9503
G3 X273.3908 Y1.3735 I0.5806 J-0.8142
G3 X272.0705 Y-1.2924 I1.9077 J-2.6047
G3 X272.0707 Y-1.3014 I0.9998 J0.019
G3 X272.2427 Y-2.2036 I2.8738 J0.0804
G2 X269.7679 Y-2.5707 I-4.8538 J24.1976
G3 X269.7658 Y-2.5709 I0.0964 J-0.9953
G2 X265.8547 Y-2.7578 I-3.7901 J38.2901
G3 X265.8463 I-0.0031 J-1.0
G2 X264.3478 Y-2.6713 I-0.0632 J11.9276
G3 X264.3166 Y-2.668 I-0.1203 J-0.9927
G2 X262.4044 Y-2.0424 I0.398 J4.4513
G2 X261.7411 Y-0.71 I0.8653 J1.262
G3 X261.7422 Y-0.6658 I-0.9989 J0.046
G2 X262.1644 Y0.7123 I2.474 J-0.0042
G2 X264.0796 Y2.3808 I4.6249 J-3.3754
G3 X264.0972 Y2.3905 I-0.4733 J0.8809
G2 X266.6675 Y3.546 I7.6479 J-13.575
G2 X273.6247 Y5.0882 I10.504 J-30.9229
G3 X273.6301 Y5.0888 I-0.1086 J0.9941
G2 X280.8468 Y5.4844 I6.9294 J-60.3872
G3 X280.8571 I0.0047 J1.0
G2 X287.5738 Y5.185 I0.3746 J-67.0926
G2 X290.8569 Y4.6945 I-3.2264 J-32.8285
G3 X290.864 Y4.6931 I0.1973 J0.9803
G2 X293.9398 Y3.7582 I-2.9535 J-15.2432
G3 X293.9529 Y3.7528 I0.3883 J0.9215
G2 X296.5373 Y1.7834 I-2.3145 J-5.7176
G2 X297.4301 Y-1.246 I-4.2171 J-2.8891
G3 X297.4297 Y-1.2734 I0.9996 J-0.0274
G1 Y-9.9568
G3 X297.7197 Y-12.2821 I7.9827 J-0.1852
G3 X297.7211 Y-12.2871 I0.9634 J0.268
G3 X298.5196 Y-13.6609 I3.0897 J0.8768
G3 X298.553 Y-13.6934 I0.7134 J0.7008
G3 X300.2403 Y-14.3443 I1.6595 J1.7897
G3 X302.7559 Y-12.8178 I0.1241 J2.6317
G3 X302.7696 Y-12.7869 I-0.9078 J0.4195
G3 X303.1789 Y-10.5393 I-4.8457 J2.0436
G3 X303.1784 Y-10.5273 I-0.9992 J-0.0388
G3 X303.1458 Y-10.0437 I-14.7231 J-0.7493
G2 X303.9027 Y-10.7818 I-0.9682 J-1.7501
G2 X304.227 Y-12.2348 I-2.678 J-1.3604
G3 X304.2271 Y-12.2973 I0.9995 J-0.0308
G2 X303.4465 Y-14.7478 I-3.8532 J-0.1222
G2 X301.9283 Y-15.9327 I-3.4512 J2.8568
G2 X298.8324 Y-16.8308 I-4.4157 J9.4365
G3 X298.8214 Y-16.8323 I0.1267 J-0.9919
G2 X295.4365 Y-17.0547 I-3.2242 J23.1982
G3 X295.4247 I-0.0069 J-1.0
G2 X292.7451 Y-16.8903 I-0.101 J20.271
G2 X290.8055 Y-16.479 I1.5634 J12.154
G3 X290.7899 Y-16.4745 I-0.2859 J-0.9583
G2 X288.3376 Y-15.1615 I1.7393 J6.1949
G2 X287.004 Y-12.9011 I2.9974 J3.292
G3 X285.2871 Y-12.4648 I-0.9728 J-0.2317
G2 X282.8937 Y-14.6039 I-10.891 J9.7774
G2 X280.1094 Y-16.0525 I-6.6064 J9.2971
G2 X276.1055 Y-16.8598 I-5.6081 J17.4829
G3 X276.0963 Y-16.8606 I0.0874 J-0.9962
G2 X271.8797 Y-17.0547 I-4.0206 J41.4539
G3 X271.8715 I-0.0047 J-1.0
G2 X268.4527 Y-16.9135 I-0.1325 J38.2639
G3 X268.4523 I-0.0859 J-0.9963
G2 X265.896 Y-16.5448 I1.9184 J22.3489
G3 X265.8958 I-0.1995 J-0.9799
G2 X264.0481 Y-16.0242 I2.5859 J12.7177
G3 X264.0252 Y-16.0162 I-0.3416 J-0.9398
G2 X261.7734 Y-14.6188 I1.844 J5.4845
G2 X260.945 Y-12.4066 I2.3381 J2.1367
G3 X260.9452 Y-12.3677 I-0.9997 J0.0238
G2 X261.9351 Y-9.5312 I4.3701 J0.0659
G2 X263.7441 Y-8.0271 I5.1297 J-4.3296
G2 X267.2519 Y-6.6068 I7.2436 J-12.8483
G3 X267.2597 Y-6.6047 I-0.2533 J0.9674
G2 X271.0965 Y-5.8267 I7.9765 J-29.4872
G3 X271.0989 Y-5.8264 I-0.1355 J0.9908
G1 X272.605 Y-5.6165
G0 Z3.0
G0 X307.9906 Y4.4862
G0 Z1.0
G1 F300.0 Z-2.0
G1 F800.0 X325.6016 Y4.9204
G1 Y-0.2188
G3 X327.4363 Y-0.7695 I1.0 J0.0
G2 X329.6744 Y2.0475 I17.0485 J-11.2479
G3 X329.6793 Y2.0527 I-0.7251 J0.6886
G2 X332.3994 Y4.1401 I7.678 J-7.1892
G2 X335.8161 Y5.1887 I5.0882 J-10.4879
G3 X335.8242 Y5.1899 I-0.1434 J0.9897
G2 X339.5555 Y5.461 I3.5662 J-23.2762
G3 X339.5686 I0.007 J1.0
G2 X343.6487 Y5.1951 I0.1745 J-28.7636
G3 X343.6492 Y5.195 I0.1358 J0.9907
G2 X346.6299 Y4.4923 I-2.1645 J-15.8538
G2 X348.6454 Y3.5221 I-3.0176 J-8.8469
G3 X348.6507 Y3.5187 I0.5384 J0.8427
G2 X350.7651 Y1.1861 I-3.1218 J-4.9543
G2 X351.4299 Y-1.9794 I-6.501 J-3.0179
G3 X351.4297 Y-2.0 I0.9998 J-0.0206
G1 Y-11.1406
G3 X351.8871 Y-11.9806 I1.0 J0.0
G1 X358.1091 Y-16.0
G1 X336.2026
G1 X339.7667 Y-12.9557
G3 X340.1172 Y-12.1953 I-0.6495 J0.7604
G1 Y-4.4925
G3 X339.7691 Y-2.1869 I-7.0749 J0.1109
G3 X339.7682 Y-2.1841 I-0.9507 J-0.3102
G3 X337.2277 Y0.6092 I-4.4 J-1.4498
G3 X337.2083 Y0.6174 I-0.4014 J-0.9159
G3 X333.9055 Y1.2267 I-3.0841 J-7.4614
G3 X330.9405 Y0.7365 I-0.0877 J-8.6813
G3 X330.9308 Y0.733 I0.3314 J-0.9435
G3 X328.3085 Y-0.9413 I2.43 J-6.6964
G3 X326.6341 Y-3.5636 I5.0222 J-5.0525
G3 X326.6307 Y-3.5733 I0.94 J-0.3411
G3 X326.1406 Y-6.5529 I8.191 J-2.8773
G1 Y-12.1953
G3 X326.4896 Y-12.9543 I1.0 J0.0
G1 X330.0404 Y-16.0
G1 X308.1253
G1 X314.3473 Y-11.9806
G3 X314.8047 Y-11.1406 I-0.5426 J0.84
G1 Y-0.4766
G3 X314.3488 Y0.3624 I-1.0 J0.0
G1 X307.9906 Y4.4862
G1 F300.0 Z-4.0
G1 F800.0 X325.6016 Y4.9204
G1 Y-0.2188
G3 X327.4363 Y-0.7695 I1.0 J0.0
G2 X329.6744 Y2.0475 I17.0485 J-11.2479
G3 X329.6793 Y2.0527 I-0.7251 J0.6886
G2 X332.3994 Y4.1401 I7.678 J-7.1892
G2 X335.8161 Y5.1887 I5.0882 J-10.4879
G3 X335.8242 Y5.1899 I-0.1434 J0.9897
G2 X339.5555 Y5.461 I3.5662 J-23.2762
G3 X339.5686 I0.007 J1.0
G2 X343.6487 Y5.1951 I0.1745 J-28.7636
G3 X343.6492 Y5.195 I0.1358 J0.9907
G2 X346.6299 Y4.4923 I-2.1645 J-15.8538
G2 X348.6454 Y3.5221 I-3.0176 J-8.8469
G3 X348.6507 Y3.5187 I0.5384 J0.8427
G2 X350.7651 Y1.1861 I-3.1218 J-4.9543
G2 X351.4299 Y-1.9794 I-6.501 J-3.0179
G3 X351.4297 Y-2.0 I0.9998 J-0.0206
G1 Y-11.1406
G3 X351.8871 Y-11.9806 I1.0 J0.0
G1 X358.1091 Y-16.0
G1 X336.2026
G1 X339.7667 Y-12.9557
G3 X340.1172 Y-12.1953 I-0.6495 J0.7604
G1 Y-4.4925
G3 X339.7691 Y-2.1869 I-7.0749 J0.1109
G3 X339.7682 Y-2.1841 I-0.9507 J-0.3102
G3 X337.2277 Y0.6092 I-4.4 J-1.4498
G3 X337.2083 Y0.6174 I-0.4014 J-0.9159
G3 X333.9055 Y1.2267 I-3.0841 J-7.4614
G3 X330.9405 Y0.7365 I-0.0877 J-8.6813
G3 X330.9308 Y0.733 I0.3314 J-0.9435
G3 X328.3085 Y-0.9413 I2.43 J-6.6964
G3 X326.6341 Y-3.5636 I5.0222 J-5.0525
G3 X326.6307 Y-3.5733 I0.94 J-0.3411
G3 X326.1406 Y-6.5529 I8.191 J-2.8773
G1 Y-12.1953
G3 X326.4896 Y-12.9543 I1.0 J0.0
G1 X330.0404 Y-16.0
G1 X308.1253
G1 X314.3473 Y-11.9806
G3 X314.8047 Y-11.1406 I-0.5426 J0.84
G1 Y-0.4766
G3 X314.3488 Y0.3624 I-1.0 J0.0
G1 X307.9906 Y4.4862
G0 Z3.0
G0 X361.793 Y15.1487
G0 Z1.0
G1 F300.0 Z-2.0
G1 F800.0 X379.9297 Y15.585
G1 Y-5.4219
G3 X381.4339 Y-6.2854 I1.0 J0.0
G1 X391.348 Y-0.4964
G3 X391.4287 Y1.1783 I-0.5043 J0.8636
G1 X386.2055 Y4.9453
G1 X411.584
G1 X399.1014 Y-1.969
G3 X398.9298 Y-3.5984 I0.4845 J-0.8748
G1 X408.4454 Y-11.8718
G3 X408.5574 Y-11.9562 I0.6561 J0.7546
G1 X414.7923 Y-16.0
G1 X390.6034
G1 X394.2073 Y-12.9597
G3 X394.2521 Y-11.4711 I-0.6448 J0.7643
G1 X389.3536 Y-6.807
G3 X388.1935 Y-6.6489 I-0.6896 J-0.7242
G1 X380.4591 Y-10.7739
G3 X380.2761 Y-12.4131 I0.4706 J-0.8824
G1 X384.4294 Y-16.0
G1 X361.903
G1 X368.1379 Y-11.9562
G3 X368.5938 Y-11.1172 I-0.5441 J0.839
G1 Y10.2109
G3 X368.1364 Y11.0509 I-1.0 J0.0
G1 X361.793 Y15.1487
G1 F300.0 Z-4.0
G1 F800.0 X379.9297 Y15.585
G1 Y-5.4219
G3 X381.4339 Y-6.2854 I1.0 J0.0
G1 X391.348 Y-0.4964
G3 X391.4287 Y1.1783 I-0.5043 J0.8636
G1 X386.2055 Y4.9453
G1 X411.584
G1 X399.1014 Y-1.969
G3 X398.9298 Y-3.5984 I0.4845 J-0.8748
G1 X408.4454 Y-11.8718
G3 X408.5574 Y-11.9562 I0.6561 J0.7546
G1 X414.7923 Y-16.0
G1 X390.6034
G1 X394.2073 Y-12.9597
G3 X394.2521 Y-11.4711 I-0.6448 J0.7643
G1 X389.3536 Y-6.807
G3 X388.1935 Y-6.6489 I-0.6896 J-0.7242
G1 X380.4591 Y-10.7739
G3 X380.2761 Y-12.4131 I0.4706 J-0.8824
G1 X384.4294 Y-16.0
G1 X361.903
G1 X368.1379 Y-11.9562
G3 X368.5938 Y-11.1172 I-0.5441 J0.839
G1 Y10.2109
G3 X368.1364 Y11.0509 I-1.0 J0.0
G1 X361.793 Y15.1487
G0 Z3.0
M5
M30
